( pcb2gcode 1.3.2 )
( Software-independent Gcode )

G94 ( Inches per minute feed rate. )
G20 ( Units == INCHES. )

G90 ( Absolute coordinates. )
G00 S12000 ( RPM spindle speed. )
G64 P0.00040 ( set maximum deviation from commanded toolpath )
G01 F360.00000 ( Feedrate. )

G01 F360.00000 ( Feedrate. )
M3 ( Spindle on clockwise. )
G04 P1.00000
G04 P0 ( dwell for no time -- G64 should not smooth over this point )
G00 Z0.08000 ( retract )

G00 X-3.26237 Y-2.90457 ( rapid move to begin. )
G01 F180.00000
G01 Z-0.04000
G04 P0 ( dwell for no time -- G64 should not smooth over this point )
G01 F360.00000
G01 X-3.26237 Y-2.90457
G01 X-3.25756 Y-2.90355
G01 X-0.00000 Y0.00000
G01 X-3.14478 Y-3.01974
G01 X-3.14478 Y-3.21762
G01 X-3.14541 Y-3.22293
G01 X-3.14688 Y-3.22727
G01 X-3.15162 Y-3.23415
G01 X-3.33280 Y-3.41533
G01 X-3.33700 Y-3.41863
G01 X-3.34402 Y-3.42154
G01 X-3.34933 Y-3.42217
G01 X-3.82157 Y-3.42217
G01 X-3.82688 Y-3.42154
G01 X-3.83121 Y-3.42006
G01 X-3.83752 Y-3.41585
G01 X-3.86897 Y-3.38398
G01 X-3.87186 Y-3.37859
G01 X-3.87304 Y-3.37417
G01 X-3.87337 Y-3.34724
G01 X-3.88894 Y-3.34709
G01 X-3.89297 Y-3.34494
G01 X-3.89512 Y-3.34091
G01 X-3.89527 Y-3.32337
G01 X-4.00472 Y-3.32337
G01 X-4.00488 Y-3.34091
G01 X-4.00703 Y-3.34494
G01 X-4.01106 Y-3.34709
G01 X-4.08740 Y-3.34724
G01 X-4.09178 Y-3.34592
G01 X-4.09467 Y-3.34238
G01 X-4.09527 Y-3.33937
G01 X-4.09512 Y-3.25909
G01 X-4.09297 Y-3.25506
G01 X-4.09041 Y-3.25335
G01 X-4.08740 Y-3.25276
G01 X-4.01260 Y-3.25276
G01 X-4.00822 Y-3.25408
G01 X-4.00532 Y-3.25762
G01 X-4.00472 Y-3.26063
G01 X-4.00472 Y-3.27663
G01 X-3.89527 Y-3.27663
G01 X-3.89512 Y-3.25909
G01 X-3.89297 Y-3.25506
G01 X-3.88894 Y-3.25291
G01 X-3.81260 Y-3.25276
G01 X-3.80959 Y-3.25335
G01 X-3.80605 Y-3.25625
G01 X-3.80472 Y-3.26063
G01 X-3.80488 Y-3.34091
G01 X-3.80703 Y-3.34494
G01 X-3.81106 Y-3.34709
G01 X-3.82663 Y-3.34724
G01 X-3.82663 Y-3.36069
G01 X-3.81189 Y-3.37542
G01 X-3.35901 Y-3.37542
G01 X-3.19152 Y-3.20794
G01 X-3.19152 Y-3.06463
G01 X-3.14478 Y-3.01974
G01 X-3.14478 Y-2.87603
G01 X-0.00000 Y0.00000
G01 X-3.20640 Y-2.53207
G01 X-3.20368 Y-2.54100
G01 X-3.20282 Y-2.54918
G01 X-3.20402 Y-2.56061
G01 X-3.20686 Y-2.56921
G01 X-3.21135 Y-2.57707
G01 X-3.21904 Y-2.58561
G01 X-3.22639 Y-2.59090
G01 X-3.23464 Y-2.59462
G01 X-3.24589 Y-2.59701
G01 X-3.25411 Y-2.59701
G01 X-3.26380 Y-2.59512
G01 X-3.27288 Y-2.59127
G01 X-3.27744 Y-2.58817
G01 X-3.20640 Y-2.53207
G01 X-3.21135 Y-2.52293
G01 X-3.21904 Y-2.51439
G01 X-3.22639 Y-2.50910
G01 X-3.23464 Y-2.50538
G01 X-3.24622 Y-2.50299
G01 X-0.00000 Y0.00000
G01 X-3.43775 Y-2.52637
G01 X-3.29061 Y-2.52637
G01 X-3.28822 Y-2.52226
G01 X-3.28218 Y-2.51549
G01 X-3.27361 Y-2.50910
G01 X-3.26380 Y-2.50487
G01 X-3.25575 Y-2.50316
G01 X-3.24622 Y-2.50299
G01 X-3.33782 Y-2.57362
G01 X-3.29061 Y-2.57362
G01 X-3.28822 Y-2.57774
G01 X-3.28218 Y-2.58451
G01 X-3.27744 Y-2.58817
G01 X-3.47575 Y-2.74478
G01 X-3.20692 Y-2.74511
G01 X-3.20107 Y-2.74688
G01 X-3.19418 Y-2.75162
G01 X-3.15110 Y-2.79475
G01 X-3.14688 Y-2.80107
G01 X-3.14511 Y-2.80692
G01 X-3.14478 Y-2.87603
G01 X-3.19152 Y-2.91878
G01 X-3.19152 Y-3.06463
G01 X-3.22662 Y-3.09834
G01 X-3.22663 Y-3.18021
G01 X-3.22814 Y-3.18843
G01 X-3.23017 Y-3.19253
G01 X-3.23347 Y-3.19674
G01 X-3.30326 Y-3.26653
G01 X-3.30746 Y-3.26983
G01 X-3.31157 Y-3.27185
G01 X-3.31901 Y-3.27334
G01 X-3.35181 Y-3.27337
G01 X-3.35878 Y-3.27950
G01 X-3.36512 Y-3.28284
G01 X-3.37200 Y-3.28483
G01 X-3.37837 Y-3.28543
G01 X-3.42133 Y-3.28530
G01 X-3.22662 Y-3.09834
G01 X-3.22662 Y-2.99098
G01 X-3.21782 Y-2.98451
G01 X-3.21135 Y-2.97707
G01 X-3.20686 Y-2.96921
G01 X-3.20402 Y-2.96061
G01 X-3.20278 Y-2.95000
G01 X-3.20368 Y-2.94100
G01 X-3.20632 Y-2.93232
G01 X-3.19152 Y-2.91878
G01 X-3.19152 Y-2.82039
G01 X-3.22039 Y-2.79152
G01 X-3.53495 Y-2.79152
G01 X-3.48074 Y-2.74871
G01 X-3.21071 Y-2.74871
G01 X-3.47697 Y-2.74574
G01 X-3.47575 Y-2.74478
G01 X-3.55979 Y-2.74478
G01 X-3.33782 Y-2.57362
G01 X-3.50204 Y-2.57362
G01 X-3.43775 Y-2.52637
G01 X-3.60939 Y-2.52637
G01 X-3.61178 Y-2.52226
G01 X-3.61904 Y-2.51439
G01 X-3.62639 Y-2.50910
G01 X-3.63464 Y-2.50538
G01 X-3.64589 Y-2.50299
G01 X-3.65411 Y-2.50299
G01 X-3.66237 Y-2.50457
G01 X-3.76756 Y-2.39938
G01 X-0.00000 Y0.00000
G01 X-3.78340 Y-2.38419
G01 X-3.76756 Y-2.39938
G01 X-3.80455 Y-2.42293
G01 X-3.84488 Y-2.42293
G01 X-3.78340 Y-2.38419
G01 X-3.78828 Y-2.38164
G01 X-3.79650 Y-2.38013
G01 X-4.15729 Y-2.38046
G01 X-4.16314 Y-2.38223
G01 X-4.17003 Y-2.38697
G01 X-4.28763 Y-2.50457
G01 X-4.29589 Y-2.50299
G01 X-4.30411 Y-2.50299
G01 X-4.31536 Y-2.50538
G01 X-4.32361 Y-2.50910
G01 X-4.33160 Y-2.51491
G01 X-4.33822 Y-2.52226
G01 X-4.34061 Y-2.52637
G01 X-4.65939 Y-2.52637
G01 X-4.66178 Y-2.52226
G01 X-4.66782 Y-2.51549
G01 X-4.67639 Y-2.50910
G01 X-4.68620 Y-2.50487
G01 X-4.69425 Y-2.50316
G01 X-4.70411 Y-2.50299
G01 X-4.71536 Y-2.50538
G01 X-4.72361 Y-2.50910
G01 X-4.73160 Y-2.51491
G01 X-4.73768 Y-2.52160
G01 X-4.74277 Y-2.53006
G01 X-4.74632 Y-2.54100
G01 X-4.74722 Y-2.55000
G01 X-4.74598 Y-2.56061
G01 X-4.74314 Y-2.56921
G01 X-4.73768 Y-2.57840
G01 X-4.73096 Y-2.58561
G01 X-4.72361 Y-2.59090
G01 X-4.71380 Y-2.59512
G01 X-4.70411 Y-2.59701
G01 X-4.69589 Y-2.59701
G01 X-4.68620 Y-2.59512
G01 X-4.67639 Y-2.59090
G01 X-4.66782 Y-2.58451
G01 X-4.66178 Y-2.57774
G01 X-4.65939 Y-2.57362
G01 X-4.34061 Y-2.57362
G01 X-4.33822 Y-2.57774
G01 X-4.33096 Y-2.58561
G01 X-4.32361 Y-2.59090
G01 X-4.31379 Y-2.59512
G01 X-4.30411 Y-2.59701
G01 X-4.29425 Y-2.59684
G01 X-4.28541 Y-2.59491
G01 X-4.27712 Y-2.59127
G01 X-4.27416 Y-2.58933
G01 X-4.07677 Y-2.68803
G01 X-4.07677 Y-2.81300
G01 X-4.07617 Y-2.81601
G01 X-4.07327 Y-2.81955
G01 X-4.06890 Y-2.82087
G01 X-3.92956 Y-2.82072
G01 X-3.92553 Y-2.81857
G01 X-3.92382 Y-2.81601
G01 X-3.92323 Y-2.81300
G01 X-3.92323 Y-2.67520
G01 X-3.92382 Y-2.67219
G01 X-3.92553 Y-2.66963
G01 X-3.92809 Y-2.66792
G01 X-3.93110 Y-2.66733
G01 X-4.01252 Y-2.66732
G01 X-4.13529 Y-2.60594
G01 X-4.07677 Y-2.56907
G01 X-4.07677 Y-2.57680
G01 X-4.07617 Y-2.57981
G01 X-4.07447 Y-2.58237
G01 X-4.07044 Y-2.58452
G01 X-3.92956 Y-2.58452
G01 X-3.92553 Y-2.58237
G01 X-3.92338 Y-2.57834
G01 X-3.92323 Y-2.55083
G01 X-3.89177 Y-2.58228
G01 X-3.89177 Y-2.69490
G01 X-3.89117 Y-2.69791
G01 X-3.88827 Y-2.70145
G01 X-3.88390 Y-2.70277
G01 X-3.74610 Y-2.70277
G01 X-3.74309 Y-2.70217
G01 X-3.73955 Y-2.69927
G01 X-3.73823 Y-2.69490
G01 X-3.73823 Y-2.64937
G01 X-3.72478 Y-2.64937
G01 X-3.67409 Y-2.70006
G01 X-3.63598 Y-2.67206
G01 X-3.70149 Y-2.60702
G01 X-3.70688 Y-2.60414
G01 X-3.71131 Y-2.60296
G01 X-3.73823 Y-2.60263
G01 X-3.73823 Y-2.55710
G01 X-3.73882 Y-2.55409
G01 X-3.74053 Y-2.55153
G01 X-3.74309 Y-2.54982
G01 X-3.74610 Y-2.54923
G01 X-3.85872 Y-2.54923
G01 X-3.91657 Y-2.49137
G01 X-3.92322 Y-2.48676
G01 X-3.92323 Y-2.43900
G01 X-3.92455 Y-2.43463
G01 X-3.92809 Y-2.43173
G01 X-3.93110 Y-2.43113
G01 X-4.06890 Y-2.43113
G01 X-4.07191 Y-2.43173
G01 X-4.07447 Y-2.43343
G01 X-4.07617 Y-2.43599
G01 X-4.07677 Y-2.43900
G01 X-4.07677 Y-2.56907
G01 X-3.88105 Y-2.44573
G01 X-3.80618 Y-2.42687
G01 X-3.69541 Y-2.53764
G01 X-3.69632 Y-2.54100
G01 X-3.69718 Y-2.55082
G01 X-3.69598 Y-2.56061
G01 X-3.69314 Y-2.56921
G01 X-3.68865 Y-2.57707
G01 X-3.68218 Y-2.58451
G01 X-3.67288 Y-2.59127
G01 X-3.66379 Y-2.59512
G01 X-3.65411 Y-2.59701
G01 X-3.64425 Y-2.59684
G01 X-3.63541 Y-2.59491
G01 X-3.62639 Y-2.59090
G01 X-3.61840 Y-2.58509
G01 X-3.61178 Y-2.57774
G01 X-3.60939 Y-2.57362
G01 X-3.50204 Y-2.57362
G01 X-3.63598 Y-2.67206
G01 X-3.56327 Y-2.74477
G01 X-3.47697 Y-2.74574
G01 X-3.48074 Y-2.74871
G01 X-3.56490 Y-2.74871
G01 X-3.55984 Y-2.74481
G01 X-3.56327 Y-2.74477
G04 P0 ( dwell for no time -- G64 should not smooth over this point )
G00 Z0.08000 ( retract )

G00 X-3.44799 Y-3.30511 ( rapid move to begin. )
G01 F180.00000
G01 Z-0.04000
G04 P0 ( dwell for no time -- G64 should not smooth over this point )
G01 F360.00000
G01 X-3.44799 Y-3.30511
G01 X-3.44122 Y-3.29924
G01 X-3.43488 Y-3.29590
G01 X-3.42800 Y-3.29391
G01 X-3.42163 Y-3.29331
G01 X-3.37553 Y-3.29345
G01 X-3.36699 Y-3.29521
G01 X-3.36047 Y-3.29818
G01 X-3.35469 Y-3.30240
G01 X-3.34987 Y-3.30771
G01 X-3.34622 Y-3.31387
G01 X-3.34388 Y-3.32064
G01 X-3.34304 Y-3.32615
G01 X-3.34324 Y-3.33331
G01 X-3.34488 Y-3.34029
G01 X-3.34873 Y-3.34814
G01 X-3.35215 Y-3.35255
G01 X-3.35747 Y-3.35733
G01 X-3.36512 Y-3.36158
G01 X-3.37200 Y-3.36357
G01 X-3.37837 Y-3.36417
G01 X-3.42603 Y-3.36387
G01 X-3.43301 Y-3.36227
G01 X-3.43813 Y-3.36007
G01 X-3.44410 Y-3.35611
G01 X-3.44789 Y-3.35236
G01 X-3.67195 Y-3.35233
G01 X-3.67936 Y-3.35093
G01 X-3.72200 Y-3.33537
G01 X-3.72736 Y-3.33921
G01 X-3.73680 Y-3.34327
G01 X-3.74527 Y-3.34503
G01 X-3.75473 Y-3.34503
G01 X-3.76476 Y-3.34276
G01 X-3.77264 Y-3.33921
G01 X-3.77965 Y-3.33416
G01 X-3.78611 Y-3.32725
G01 X-3.79099 Y-3.31915
G01 X-3.79407 Y-3.31021
G01 X-3.79523 Y-3.29918
G01 X-3.79428 Y-3.29059
G01 X-3.79165 Y-3.28235
G01 X-3.78663 Y-3.27339
G01 X-3.78088 Y-3.26694
G01 X-3.77264 Y-3.26079
G01 X-3.76476 Y-3.25724
G01 X-3.75473 Y-3.25497
G01 X-3.74609 Y-3.25493
G01 X-3.73524 Y-3.25724
G01 X-3.72736 Y-3.26079
G01 X-3.72035 Y-3.26584
G01 X-3.71292 Y-3.27408
G01 X-3.70834 Y-3.28235
G01 X-3.70564 Y-3.29104
G01 X-3.66708 Y-3.30512
G01 X-3.44799 Y-3.30511
G01 X-3.44474 Y-3.30734
G01 X-3.44606 Y-3.30905
G01 X-3.42133 Y-3.28530
G01 X-3.42603 Y-3.28513
G01 X-3.43301 Y-3.28353
G01 X-3.43953 Y-3.28056
G01 X-3.44410 Y-3.27737
G01 X-3.45013 Y-3.27103
G01 X-3.45308 Y-3.26630
G01 X-3.45572 Y-3.25964
G01 X-3.45704 Y-3.25100
G01 X-3.45652 Y-3.24385
G01 X-3.45512 Y-3.23845
G01 X-3.45127 Y-3.23060
G01 X-3.44785 Y-3.22619
G01 X-3.44252 Y-3.22141
G01 X-3.43488 Y-3.21716
G01 X-3.42956 Y-3.21549
G01 X-3.42245 Y-3.21461
G01 X-3.37553 Y-3.21471
G01 X-3.36851 Y-3.21599
G01 X-3.36187 Y-3.21867
G01 X-3.35590 Y-3.22263
G01 X-3.35187 Y-3.22662
G01 X-3.32947 Y-3.22663
G01 X-3.27337 Y-3.17053
G01 X-3.27337 Y-2.99364
G01 X-3.20632 Y-2.93232
G01 X-3.21135 Y-2.92293
G01 X-3.21782 Y-2.91549
G01 X-3.22639 Y-2.90910
G01 X-3.23464 Y-2.90538
G01 X-3.24589 Y-2.90299
G01 X-3.25575 Y-2.90316
G01 X-3.25756 Y-2.90355
G01 X-3.25959 Y-2.90536
G01 X-3.25411 Y-2.90693
G01 X-3.26359 Y-2.90892
G01 X-3.25959 Y-2.90536
G01 X-3.26237 Y-2.90457
G01 X-3.33404 Y-2.83295
G01 X-3.34036 Y-2.82873
G01 X-3.34621 Y-2.82696
G01 X-3.36654 Y-2.82663
G01 X-3.36669 Y-2.82287
G01 X-3.36786 Y-2.82003
G01 X-3.37004 Y-2.81786
G01 X-3.37287 Y-2.81669
G01 X-3.42559 Y-2.81654
G01 X-3.42860 Y-2.81713
G01 X-3.43116 Y-2.81884
G01 X-3.43286 Y-2.82140
G01 X-3.43346 Y-2.82441
G01 X-3.43346 Y-2.87559
G01 X-3.43214 Y-2.87996
G01 X-3.42860 Y-2.88286
G01 X-3.42559 Y-2.88346
G01 X-3.37441 Y-2.88346
G01 X-3.37140 Y-2.88286
G01 X-3.36786 Y-2.87996
G01 X-3.36669 Y-2.87713
G01 X-3.36654 Y-2.87337
G01 X-3.35968 Y-2.87337
G01 X-3.29541 Y-2.93764
G01 X-3.29632 Y-2.94100
G01 X-3.29718 Y-2.95082
G01 X-3.29598 Y-2.96061
G01 X-3.29314 Y-2.96921
G01 X-3.28865 Y-2.97707
G01 X-3.28218 Y-2.98451
G01 X-3.27337 Y-2.99102
G01 X-3.27337 Y-2.99364
G01 X-3.43001 Y-3.13689
G01 X-3.42163 Y-3.13583
G01 X-3.37397 Y-3.13613
G01 X-3.36699 Y-3.13773
G01 X-3.36187 Y-3.13993
G01 X-3.35469 Y-3.14492
G01 X-3.34987 Y-3.15022
G01 X-3.34692 Y-3.15496
G01 X-3.34428 Y-3.16162
G01 X-3.34304 Y-3.16867
G01 X-3.34324 Y-3.17583
G01 X-3.34488 Y-3.18280
G01 X-3.34789 Y-3.18930
G01 X-3.35215 Y-3.19507
G01 X-3.35878 Y-3.20076
G01 X-3.36512 Y-3.20410
G01 X-3.37044 Y-3.20577
G01 X-3.37755 Y-3.20665
G01 X-3.42447 Y-3.20655
G01 X-3.43149 Y-3.20527
G01 X-3.43813 Y-3.20259
G01 X-3.44410 Y-3.19863
G01 X-3.44789 Y-3.19488
G01 X-4.04545 Y-3.19466
G01 X-3.98590 Y-3.14764
G01 X-3.44799 Y-3.14764
G01 X-3.44606 Y-3.15157
G01 X-3.43001 Y-3.13689
G01 X-3.43634 Y-3.13905
G01 X-3.44122 Y-3.14175
G01 X-3.44799 Y-3.14764
G04 P0 ( dwell for no time -- G64 should not smooth over this point )
G00 Z0.08000 ( retract )

G00 X-3.80618 Y-2.42687 ( rapid move to begin. )
G01 F180.00000
G01 Z-0.04000
G04 P0 ( dwell for no time -- G64 should not smooth over this point )
G01 F360.00000
G01 X-3.80618 Y-2.42687
G01 X-3.85113 Y-2.42687
G01 X-3.84488 Y-2.42293
G01 X-4.14545 Y-2.42293
G01 X-4.25908 Y-2.53657
G01 X-4.25777 Y-2.54060
G01 X-3.88105 Y-2.44573
G01 X-3.85113 Y-2.42687
G01 X-4.14382 Y-2.42687
G01 X-4.25459 Y-2.53764
G01 X-4.25304 Y-2.54707
G01 X-4.13529 Y-2.60594
G01 X-4.38855 Y-2.76553
G01 X-4.15689 Y-2.76553
G01 X-4.14867 Y-2.76705
G01 X-4.14457 Y-2.76908
G01 X-4.14036 Y-2.77238
G01 X-3.98612 Y-2.92663
G01 X-3.98239 Y-2.92663
G01 X-3.67409 Y-2.70006
G01 X-3.58948 Y-2.78468
G01 X-3.58527 Y-2.78798
G01 X-3.58117 Y-2.79000
G01 X-3.57372 Y-2.79149
G01 X-3.53495 Y-2.79152
G01 X-3.70603 Y-2.92663
G01 X-3.69078 Y-2.92663
G01 X-3.68769 Y-2.92160
G01 X-3.68218 Y-2.91549
G01 X-3.67361 Y-2.90910
G01 X-3.66459 Y-2.90509
G01 X-3.65411 Y-2.90299
G01 X-3.64425 Y-2.90316
G01 X-3.63620 Y-2.90487
G01 X-3.62639 Y-2.90910
G01 X-3.61782 Y-2.91549
G01 X-3.61231 Y-2.92160
G01 X-3.60921 Y-2.92663
G01 X-3.60811 Y-2.92663
G01 X-3.53185 Y-2.85036
G01 X-3.53129 Y-2.84386
G01 X-3.52900 Y-2.83639
G01 X-3.52595 Y-2.83102
G01 X-3.52140 Y-2.82571
G01 X-3.51516 Y-2.82102
G01 X-3.50797 Y-2.81796
G01 X-3.50273 Y-2.81685
G01 X-3.49575 Y-2.81668
G01 X-3.48808 Y-2.81817
G01 X-3.48100 Y-2.82147
G01 X-3.47545 Y-2.82571
G01 X-3.47187 Y-2.82969
G01 X-3.46785 Y-2.83639
G01 X-3.46556 Y-2.84386
G01 X-3.46500 Y-2.84918
G01 X-3.46556 Y-2.85614
G01 X-3.46756 Y-2.86284
G01 X-3.47187 Y-2.87031
G01 X-3.47545 Y-2.87428
G01 X-3.48100 Y-2.87853
G01 X-3.48808 Y-2.88183
G01 X-3.49411 Y-2.88315
G01 X-3.49869 Y-2.88332
G01 X-3.58482 Y-2.96897
G01 X-3.59021 Y-2.97186
G01 X-3.59463 Y-2.97304
G01 X-3.60921 Y-2.97337
G01 X-3.61231 Y-2.97840
G01 X-3.61782 Y-2.98451
G01 X-3.62570 Y-2.99045
G01 X-3.63541 Y-2.99491
G01 X-3.64425 Y-2.99683
G01 X-3.65575 Y-2.99683
G01 X-3.66536 Y-2.99462
G01 X-3.67288 Y-2.99127
G01 X-3.68218 Y-2.98451
G01 X-3.68769 Y-2.97840
G01 X-3.69078 Y-2.97337
G01 X-3.76523 Y-2.97337
G01 X-3.71102 Y-2.93056
G01 X-3.68851 Y-2.93056
G01 X-3.71065 Y-2.93027
G01 X-3.70603 Y-2.92663
G01 X-3.98246 Y-2.92667
G01 X-3.71065 Y-2.93027
G01 X-3.71102 Y-2.93056
G01 X-3.98775 Y-2.93056
G01 X-3.98246 Y-2.92667
G01 X-3.98612 Y-2.92663
G04 P0 ( dwell for no time -- G64 should not smooth over this point )
G00 Z0.08000 ( retract )

G00 X-4.19478 Y-3.30511 ( rapid move to begin. )
G01 F180.00000
G01 Z-0.04000
G04 P0 ( dwell for no time -- G64 should not smooth over this point )
G01 F360.00000
G01 X-4.19478 Y-3.30511
G01 X-4.19523 Y-3.29918
G01 X-4.19428 Y-3.29059
G01 X-4.19165 Y-3.28235
G01 X-4.18663 Y-3.27339
G01 X-4.18088 Y-3.26694
G01 X-4.17264 Y-3.26079
G01 X-4.16476 Y-3.25724
G01 X-4.15555 Y-3.25510
G01 X-4.14445 Y-3.25510
G01 X-4.13524 Y-3.25724
G01 X-4.12667 Y-3.26124
G01 X-4.11912 Y-3.26694
G01 X-4.11337 Y-3.27339
G01 X-4.10834 Y-3.28235
G01 X-4.10571 Y-3.29059
G01 X-4.10477 Y-3.30082
G01 X-4.10571 Y-3.30941
G01 X-4.10834 Y-3.31765
G01 X-4.11337 Y-3.32661
G01 X-4.12035 Y-3.33416
G01 X-4.12736 Y-3.33921
G01 X-4.13524 Y-3.34276
G01 X-4.14609 Y-3.34507
G01 X-4.15473 Y-3.34503
G01 X-4.16045 Y-3.34386
G01 X-4.16628 Y-3.34878
G01 X-4.17043 Y-3.35083
G01 X-4.17489 Y-3.35202
G01 X-4.45200 Y-3.35236
G01 X-4.45878 Y-3.35824
G01 X-4.46512 Y-3.36158
G01 X-4.47200 Y-3.36357
G01 X-4.47837 Y-3.36417
G01 X-4.52447 Y-3.36403
G01 X-4.53301 Y-3.36227
G01 X-4.53953 Y-3.35930
G01 X-4.54410 Y-3.35611
G01 X-4.54915 Y-3.35103
G01 X-4.55308 Y-3.34504
G01 X-4.55612 Y-3.33684
G01 X-4.55704 Y-3.32974
G01 X-4.55652 Y-3.32259
G01 X-4.55457 Y-3.31570
G01 X-4.55211 Y-3.31069
G01 X-4.54785 Y-3.30493
G01 X-4.54122 Y-3.29924
G01 X-4.53488 Y-3.29590
G01 X-4.52956 Y-3.29423
G01 X-4.52245 Y-3.29335
G01 X-4.47397 Y-3.29361
G01 X-4.46699 Y-3.29521
G01 X-4.46187 Y-3.29741
G01 X-4.45590 Y-3.30137
G01 X-4.45211 Y-3.30511
G01 X-4.19478 Y-3.30511
G01 X-4.19031 Y-3.30905
G01 X-4.04545 Y-3.19466
G01 X-4.05254 Y-3.19275
G01 X-4.05951 Y-3.18796
G01 X-4.26552 Y-2.98196
G01 X-4.26840 Y-2.98509
G01 X-4.27570 Y-2.99045
G01 X-4.28464 Y-2.99462
G01 X-4.29425 Y-2.99683
G01 X-4.30411 Y-2.99701
G01 X-4.31379 Y-2.99512
G01 X-4.32361 Y-2.99090
G01 X-4.33096 Y-2.98561
G01 X-4.33768 Y-2.97840
G01 X-4.34314 Y-2.96921
G01 X-4.34598 Y-2.96061
G01 X-4.34722 Y-2.95000
G01 X-4.34632 Y-2.94100
G01 X-4.34314 Y-2.93079
G01 X-4.33865 Y-2.92293
G01 X-4.33160 Y-2.91491
G01 X-4.32362 Y-2.90916
G01 X-4.32362 Y-2.87362
G01 X-4.42800 Y-2.87362
G01 X-4.43484 Y-2.87898
G01 X-4.44203 Y-2.88204
G01 X-4.44726 Y-2.88315
G01 X-4.45425 Y-2.88332
G01 X-4.46191 Y-2.88183
G01 X-4.46900 Y-2.87853
G01 X-4.47455 Y-2.87428
G01 X-4.47813 Y-2.87031
G01 X-4.48215 Y-2.86361
G01 X-4.48444 Y-2.85614
G01 X-4.48499 Y-2.85082
G01 X-4.48444 Y-2.84386
G01 X-4.48244 Y-2.83716
G01 X-4.47813 Y-2.82969
G01 X-4.47332 Y-2.82461
G01 X-4.46831 Y-2.82102
G01 X-4.46191 Y-2.81817
G01 X-4.45588 Y-2.81685
G01 X-4.44890 Y-2.81668
G01 X-4.44123 Y-2.81817
G01 X-4.43558 Y-2.82064
G01 X-4.42800 Y-2.82638
G01 X-4.30000 Y-2.82638
G01 X-4.29169 Y-2.82791
G01 X-4.28625 Y-2.83082
G01 X-4.28278 Y-2.83387
G01 X-4.27996 Y-2.83754
G01 X-4.27791 Y-2.84169
G01 X-4.27672 Y-2.84616
G01 X-4.27638 Y-2.90428
G01 X-4.03302 Y-3.14764
G01 X-3.98590 Y-3.14764
G01 X-3.76523 Y-2.97337
G01 X-3.99580 Y-2.97337
G01 X-4.00402 Y-2.97186
G01 X-4.00812 Y-2.96983
G01 X-4.01233 Y-2.96653
G01 X-4.16657 Y-2.81228
G01 X-4.46273 Y-2.81228
G01 X-4.38855 Y-2.76553
G01 X-4.64969 Y-2.76553
G01 X-4.65790 Y-2.76705
G01 X-4.66201 Y-2.76908
G01 X-4.66621 Y-2.77238
G01 X-4.79138 Y-2.89754
G01 X-4.79468 Y-2.90175
G01 X-4.79759 Y-2.90876
G01 X-4.79822 Y-2.91407
G01 X-4.79822 Y-2.98593
G01 X-4.79671 Y-2.99414
G01 X-4.79468 Y-2.99825
G01 X-4.79138 Y-3.00245
G01 X-4.60604 Y-3.18779
G01 X-4.60184 Y-3.19109
G01 X-4.59773 Y-3.19311
G01 X-4.59029 Y-3.19460
G01 X-4.54812 Y-3.19463
G01 X-4.54410 Y-3.19863
G01 X-4.53813 Y-3.20259
G01 X-4.53149 Y-3.20527
G01 X-4.52447 Y-3.20655
G01 X-4.47755 Y-3.20665
G01 X-4.47044 Y-3.20577
G01 X-4.46512 Y-3.20410
G01 X-4.45878 Y-3.20076
G01 X-4.45215 Y-3.19507
G01 X-4.44789 Y-3.18930
G01 X-4.44488 Y-3.18280
G01 X-4.44324 Y-3.17583
G01 X-4.44304 Y-3.16867
G01 X-4.44388 Y-3.16316
G01 X-4.44622 Y-3.15639
G01 X-4.45085 Y-3.14897
G01 X-4.45590 Y-3.14389
G01 X-4.46047 Y-3.14070
G01 X-4.46699 Y-3.13773
G01 X-4.47397 Y-3.13613
G01 X-4.52163 Y-3.13583
G01 X-4.52956 Y-3.13675
G01 X-4.53634 Y-3.13905
G01 X-4.54252 Y-3.14267
G01 X-4.54819 Y-3.14789
G01 X-4.57984 Y-3.14789
G01 X-4.75148 Y-2.97625
G01 X-4.75148 Y-2.92375
G01 X-4.64000 Y-2.81228
G01 X-4.46273 Y-2.81228
G01 X-4.51654 Y-2.84619
G01 X-4.51669 Y-2.87713
G01 X-4.51786 Y-2.87996
G01 X-4.52004 Y-2.88214
G01 X-4.52287 Y-2.88331
G01 X-4.52663 Y-2.88346
G01 X-4.52663 Y-2.89691
G01 X-4.39876 Y-3.02477
G01 X-4.39546 Y-3.02898
G01 X-4.39255 Y-3.03599
G01 X-4.39191 Y-3.04130
G01 X-4.39191 Y-3.24550
G01 X-4.39255 Y-3.25081
G01 X-4.39545 Y-3.25782
G01 X-4.40383 Y-3.26704
G01 X-4.40746 Y-3.26983
G01 X-4.41157 Y-3.27185
G01 X-4.41979 Y-3.27337
G01 X-4.45181 Y-3.27337
G01 X-4.45878 Y-3.27950
G01 X-4.46512 Y-3.28284
G01 X-4.47044 Y-3.28451
G01 X-4.47837 Y-3.28543
G01 X-4.52602 Y-3.28513
G01 X-4.53301 Y-3.28353
G01 X-4.53813 Y-3.28133
G01 X-4.54531 Y-3.27633
G01 X-4.54915 Y-3.27229
G01 X-4.55308 Y-3.26630
G01 X-4.55612 Y-3.25810
G01 X-4.55696 Y-3.25259
G01 X-4.55676 Y-3.24543
G01 X-4.55457 Y-3.23696
G01 X-4.55211 Y-3.23195
G01 X-4.54785 Y-3.22619
G01 X-4.54122 Y-3.22050
G01 X-4.53488 Y-3.21716
G01 X-4.52956 Y-3.21549
G01 X-4.52245 Y-3.21461
G01 X-4.47553 Y-3.21471
G01 X-4.46851 Y-3.21599
G01 X-4.46187 Y-3.21867
G01 X-4.45590 Y-3.22263
G01 X-4.45187 Y-3.22662
G01 X-4.43866 Y-3.22663
G01 X-4.43866 Y-3.05098
G01 X-4.56897 Y-2.92020
G01 X-4.57186 Y-2.91481
G01 X-4.57304 Y-2.91039
G01 X-4.57337 Y-2.88346
G01 X-4.57713 Y-2.88331
G01 X-4.58116 Y-2.88116
G01 X-4.58331 Y-2.87713
G01 X-4.58346 Y-2.87337
G01 X-4.59032 Y-2.87337
G01 X-4.65459 Y-2.93764
G01 X-4.65368 Y-2.94100
G01 X-4.65282 Y-2.95082
G01 X-4.65402 Y-2.96061
G01 X-4.65686 Y-2.96921
G01 X-4.66135 Y-2.97707
G01 X-4.66782 Y-2.98451
G01 X-4.67639 Y-2.99090
G01 X-4.68541 Y-2.99491
G01 X-4.69589 Y-2.99701
G01 X-4.70411 Y-2.99701
G01 X-4.71380 Y-2.99512
G01 X-4.72288 Y-2.99127
G01 X-4.73096 Y-2.98561
G01 X-4.73768 Y-2.97840
G01 X-4.74314 Y-2.96921
G01 X-4.74632 Y-2.95900
G01 X-4.74718 Y-2.94918
G01 X-4.74598 Y-2.93939
G01 X-4.74344 Y-2.93156
G01 X-4.73865 Y-2.92293
G01 X-4.73160 Y-2.91491
G01 X-4.72361 Y-2.90910
G01 X-4.71380 Y-2.90487
G01 X-4.70411 Y-2.90299
G01 X-4.69589 Y-2.90299
G01 X-4.68763 Y-2.90457
G01 X-4.61653 Y-2.83347
G01 X-4.61232 Y-2.83017
G01 X-4.60822 Y-2.82814
G01 X-4.60379 Y-2.82696
G01 X-4.58346 Y-2.82663
G01 X-4.58331 Y-2.82287
G01 X-4.58214 Y-2.82003
G01 X-4.57996 Y-2.81786
G01 X-4.57713 Y-2.81669
G01 X-4.52441 Y-2.81654
G01 X-4.52140 Y-2.81713
G01 X-4.51884 Y-2.81884
G01 X-4.51713 Y-2.82140
G01 X-4.51654 Y-2.82441
G01 X-4.51654 Y-2.84619
G01 X-4.56944 Y-2.87953
G01 X-4.57636 Y-2.87945
G01 X-4.57337 Y-2.88346

G04 P0 ( dwell for no time -- G64 should not smooth over this point )
G00 Z1.000 ( retract )

M5 ( Spindle off. )
G04 P1.000000
M9 ( Coolant off. )
M2 ( Program end. )

