( pcb2gcode 2.5.0 )
( Software-independent Gcode )

G94 ( Inches per minute feed rate. )
G20 ( Units == INCHES. )

G90 ( Absolute coordinates. )
G00 S12000 ( RPM spindle speed. )
G64 P0.00040 ( set maximum deviation from commanded toolpath )
G01 F360.00000 ( Feedrate. )


G00 Z1.00000 (Retract to tool change height)
T1
M5      (Spindle stop.)
G04 P1.00000 (Wait for spindle to stop)
(MSG, Change tool bit to mill diameter 0.00787in)
M6      (Tool change.)
M0      (Temporary machine stop.)
M3 ( Spindle on clockwise. )
G04 P1.00000 (Wait for spindle to get up to speed)
G04 P0 ( dwell for no time -- G64 should not smooth over this point )
G00 Z0.08000 ( retract )

G00 X-3.20278 Y-2.55039 ( rapid move to begin. )
G01 F180.00000
( Mill infeed pass 1/1 )
G01 Z-0.04000
G04 P0 ( dwell for no time -- G64 should not smooth over this point )
G01 F360.00000
G01 X-3.20278 Y-2.55039
G01 X-3.20300 Y-2.54544
G01 X-3.20365 Y-2.54094
G01 X-3.20471 Y-2.53662
G01 X-3.20621 Y-2.53232
G01 X-3.20807 Y-2.52828
G01 X-3.21035 Y-2.52434
G01 X-3.21301 Y-2.52064
G01 X-3.21602 Y-2.51721
G01 X-3.21934 Y-2.51409
G01 X-3.22285 Y-2.51136
G01 X-3.22670 Y-2.50893
G01 X-3.23067 Y-2.50691
G01 X-3.23490 Y-2.50525
G01 X-3.23929 Y-2.50401
G01 X-3.24366 Y-2.50320
G01 X-3.24816 Y-2.50281
G01 X-3.25150 Y-2.50280
G01 X-3.25498 Y-2.50304
G01 X-3.25842 Y-2.50354
G01 X-3.26193 Y-2.50431
G01 X-3.26527 Y-2.50532
G01 X-3.26852 Y-2.50656
G01 X-3.27219 Y-2.50832
G01 X-3.27530 Y-2.51013
G01 X-3.27826 Y-2.51217
G01 X-3.28097 Y-2.51435
G01 X-3.28352 Y-2.51674
G01 X-3.28595 Y-2.51939
G01 X-3.28817 Y-2.52221
G01 X-3.29086 Y-2.52637
G01 X-3.29063 Y-2.52681
G01 X-3.29086 Y-2.52637
G01 X-3.60913 Y-2.52637
G01 X-3.60936 Y-2.52682
G01 X-3.60913 Y-2.52637
G01 X-3.61138 Y-2.52284
G01 X-3.61393 Y-2.51952
G01 X-3.61731 Y-2.51593
G01 X-3.62045 Y-2.51316
G01 X-3.62414 Y-2.51049
G01 X-3.62806 Y-2.50818
G01 X-3.63210 Y-2.50630
G01 X-3.63639 Y-2.50478
G01 X-3.64082 Y-2.50368
G01 X-3.64532 Y-2.50301
G01 X-3.64939 Y-2.50279
G01 X-3.65431 Y-2.50297
G01 X-3.65845 Y-2.50355
G01 X-3.66247 Y-2.50447
G01 X-3.66262 Y-2.50496
G01 X-3.66247 Y-2.50447
G01 X-3.78025 Y-2.38670
G01 X-3.78351 Y-2.38406
G01 X-3.78755 Y-2.38190
G01 X-3.79194 Y-2.38057
G01 X-3.79650 Y-2.38012
G01 X-4.15350 Y-2.38012
G01 X-4.15806 Y-2.38057
G01 X-4.16244 Y-2.38190
G01 X-4.16582 Y-2.38367
G01 X-4.16711 Y-2.38452
G01 X-4.17003 Y-2.38697
G01 X-4.28753 Y-2.50447
G01 X-4.28738 Y-2.50496
G01 X-4.28753 Y-2.50447
G01 X-4.29155 Y-2.50355
G01 X-4.29568 Y-2.50297
G01 X-4.30061 Y-2.50279
G01 X-4.30468 Y-2.50301
G01 X-4.30918 Y-2.50368
G01 X-4.31361 Y-2.50478
G01 X-4.31790 Y-2.50630
G01 X-4.32193 Y-2.50818
G01 X-4.32586 Y-2.51049
G01 X-4.32955 Y-2.51316
G01 X-4.33269 Y-2.51593
G01 X-4.33607 Y-2.51952
G01 X-4.33862 Y-2.52284
G01 X-4.34087 Y-2.52637
G01 X-4.34063 Y-2.52682
G01 X-4.34087 Y-2.52637
G01 X-4.65914 Y-2.52637
G01 X-4.65940 Y-2.52685
G01 X-4.65914 Y-2.52637
G01 X-4.66183 Y-2.52221
G01 X-4.66405 Y-2.51939
G01 X-4.66648 Y-2.51674
G01 X-4.66903 Y-2.51435
G01 X-4.67174 Y-2.51217
G01 X-4.67470 Y-2.51013
G01 X-4.67781 Y-2.50832
G01 X-4.68148 Y-2.50656
G01 X-4.68473 Y-2.50532
G01 X-4.68807 Y-2.50431
G01 X-4.69157 Y-2.50354
G01 X-4.69502 Y-2.50304
G01 X-4.69850 Y-2.50280
G01 X-4.70184 Y-2.50281
G01 X-4.70634 Y-2.50320
G01 X-4.71071 Y-2.50401
G01 X-4.71509 Y-2.50525
G01 X-4.71933 Y-2.50691
G01 X-4.72330 Y-2.50893
G01 X-4.72715 Y-2.51136
G01 X-4.73066 Y-2.51409
G01 X-4.73398 Y-2.51721
G01 X-4.73698 Y-2.52064
G01 X-4.73964 Y-2.52434
G01 X-4.74193 Y-2.52828
G01 X-4.74379 Y-2.53232
G01 X-4.74529 Y-2.53662
G01 X-4.74635 Y-2.54094
G01 X-4.74700 Y-2.54544
G01 X-4.74722 Y-2.54999
G01 X-4.74702 Y-2.55443
G01 X-4.74639 Y-2.55883
G01 X-4.74536 Y-2.56315
G01 X-4.74392 Y-2.56735
G01 X-4.74210 Y-2.57140
G01 X-4.73990 Y-2.57525
G01 X-4.73735 Y-2.57889
G01 X-4.73448 Y-2.58227
G01 X-4.73129 Y-2.58537
G01 X-4.72783 Y-2.58815
G01 X-4.72413 Y-2.59059
G01 X-4.72021 Y-2.59268
G01 X-4.71611 Y-2.59439
G01 X-4.71187 Y-2.59571
G01 X-4.70753 Y-2.59662
G01 X-4.70315 Y-2.59712
G01 X-4.69982 Y-2.59722
G01 X-4.69611 Y-2.59706
G01 X-4.69253 Y-2.59662
G01 X-4.68900 Y-2.59592
G01 X-4.68496 Y-2.59476
G01 X-4.68160 Y-2.59348
G01 X-4.67834 Y-2.59196
G01 X-4.67521 Y-2.59018
G01 X-4.67222 Y-2.58818
G01 X-4.66939 Y-2.58595
G01 X-4.66674 Y-2.58352
G01 X-4.66428 Y-2.58088
G01 X-4.66203 Y-2.57807
G01 X-4.65914 Y-2.57362
G01 X-4.65939 Y-2.57315
G01 X-4.65914 Y-2.57362
G01 X-4.34088 Y-2.57362
G01 X-4.34067 Y-2.57320
G01 X-4.34088 Y-2.57362
G01 X-4.34078 Y-2.57382
G01 X-4.33743 Y-2.57877
G01 X-4.33415 Y-2.58262
G01 X-4.32985 Y-2.58658
G01 X-4.32586 Y-2.58952
G01 X-4.32107 Y-2.59226
G01 X-4.31600 Y-2.59443
G01 X-4.31082 Y-2.59597
G01 X-4.30539 Y-2.59691
G01 X-4.30000 Y-2.59722
G01 X-4.29460 Y-2.59691
G01 X-4.28963 Y-2.59606
G01 X-4.28399 Y-2.59443
G01 X-4.27934 Y-2.59245
G01 X-4.27414 Y-2.58951
G01 X-4.27400 Y-2.58941
G01 X-4.27400 Y-2.58894
G01 X-4.27400 Y-2.58941
G01 X-4.07677 Y-2.68803
G01 X-4.07619 Y-2.68766
G01 X-4.07677 Y-2.68803
G01 X-4.07676 Y-2.81341
G01 X-4.07660 Y-2.81464
G01 X-4.07609 Y-2.81620
G01 X-4.07527 Y-2.81763
G01 X-4.07417 Y-2.81885
G01 X-4.07284 Y-2.81982
G01 X-4.07172 Y-2.82035
G01 X-4.07013 Y-2.82078
G01 X-4.06890 Y-2.82087
G01 X-3.93110 Y-2.82087
G01 X-3.92987 Y-2.82078
G01 X-3.92828 Y-2.82035
G01 X-3.92681 Y-2.81960
G01 X-3.92553 Y-2.81857
G01 X-3.92450 Y-2.81729
G01 X-3.92375 Y-2.81582
G01 X-3.92332 Y-2.81423
G01 X-3.92322 Y-2.81300
G01 X-3.92322 Y-2.67520
G01 X-3.92340 Y-2.67356
G01 X-3.92428 Y-2.67126
G01 X-3.92498 Y-2.67024
G01 X-3.92614 Y-2.66908
G01 X-3.92828 Y-2.66785
G01 X-3.93069 Y-2.66734
G01 X-4.01252 Y-2.66732
G01 X-4.01255 Y-2.66743
G01 X-4.01252 Y-2.66732
G01 X-4.25287 Y-2.54715
G01 X-4.25326 Y-2.54744
G01 X-4.25287 Y-2.54715
G01 X-4.25342 Y-2.54224
G01 X-4.25446 Y-2.53752
G01 X-4.25493 Y-2.53737
G01 X-4.25446 Y-2.53752
G01 X-4.14382 Y-2.42687
G01 X-4.14394 Y-2.42657
G01 X-4.14382 Y-2.42687
G01 X-3.80618 Y-2.42687
G01 X-3.80606 Y-2.42657
G01 X-3.80618 Y-2.42687
G01 X-3.69553 Y-2.53753
G01 X-3.69504 Y-2.53738
G01 X-3.69553 Y-2.53753
G01 X-3.69635 Y-2.54102
G01 X-3.69707 Y-2.54631
G01 X-3.69722 Y-2.55058
G01 X-3.69700 Y-2.55455
G01 X-3.69624 Y-2.55953
G01 X-3.69529 Y-2.56338
G01 X-3.69396 Y-2.56722
G01 X-3.69204 Y-2.57150
G01 X-3.68990 Y-2.57525
G01 X-3.68764 Y-2.57850
G01 X-3.68464 Y-2.58209
G01 X-3.68156 Y-2.58513
G01 X-3.67822 Y-2.58786
G01 X-3.67464 Y-2.59028
G01 X-3.67086 Y-2.59237
G01 X-3.66690 Y-2.59410
G01 X-3.66280 Y-2.59546
G01 X-3.65848 Y-2.59646
G01 X-3.65455 Y-2.59700
G01 X-3.65017 Y-2.59722
G01 X-3.64646 Y-2.59709
G01 X-3.64288 Y-2.59668
G01 X-3.63952 Y-2.59605
G01 X-3.63565 Y-2.59498
G01 X-3.63225 Y-2.59376
G01 X-3.62887 Y-2.59223
G01 X-3.62571 Y-2.59049
G01 X-3.62285 Y-2.58864
G01 X-3.61966 Y-2.58618
G01 X-3.61699 Y-2.58376
G01 X-3.61463 Y-2.58129
G01 X-3.61210 Y-2.57817
G01 X-3.60914 Y-2.57362
G01 X-3.60940 Y-2.57315
G01 X-3.60914 Y-2.57362
G01 X-3.29086 Y-2.57362
G01 X-3.29066 Y-2.57321
G01 X-3.29086 Y-2.57362
G01 X-3.28838 Y-2.57751
G01 X-3.28589 Y-2.58069
G01 X-3.28361 Y-2.58317
G01 X-3.28107 Y-2.58555
G01 X-3.27838 Y-2.58774
G01 X-3.27562 Y-2.58967
G01 X-3.27263 Y-2.59144
G01 X-3.26962 Y-2.59295
G01 X-3.26641 Y-2.59428
G01 X-3.26322 Y-2.59533
G01 X-3.25996 Y-2.59616
G01 X-3.25653 Y-2.59676
G01 X-3.25308 Y-2.59712
G01 X-3.24994 Y-2.59722
G01 X-3.24533 Y-2.59699
G01 X-3.24081 Y-2.59632
G01 X-3.23628 Y-2.59519
G01 X-3.23198 Y-2.59365
G01 X-3.22810 Y-2.59183
G01 X-3.22383 Y-2.58931
G01 X-3.22038 Y-2.58677
G01 X-3.21634 Y-2.58311
G01 X-3.21347 Y-2.57992
G01 X-3.21069 Y-2.57617
G01 X-3.20834 Y-2.57224
G01 X-3.20635 Y-2.56802
G01 X-3.20481 Y-2.56372
G01 X-3.20368 Y-2.55919
G01 X-3.20301 Y-2.55467
G01 X-3.20278 Y-2.55039
G01 X-3.20672 Y-2.55019
G01 X-3.20695 Y-2.55447
G01 X-3.20758 Y-2.55861
G01 X-3.20864 Y-2.56276
G01 X-3.21007 Y-2.56669
G01 X-3.21191 Y-2.57056
G01 X-3.21407 Y-2.57414
G01 X-3.21664 Y-2.57758
G01 X-3.21953 Y-2.58074
G01 X-3.22272 Y-2.58361
G01 X-3.22586 Y-2.58593
G01 X-3.22944 Y-2.58809
G01 X-3.23331 Y-2.58993
G01 X-3.23761 Y-2.59147
G01 X-3.24177 Y-2.59249
G01 X-3.24591 Y-2.59309
G01 X-3.24980 Y-2.59328
G01 X-3.25294 Y-2.59318
G01 X-3.25610 Y-2.59285
G01 X-3.25924 Y-2.59228
G01 X-3.26223 Y-2.59152
G01 X-3.26515 Y-2.59055
G01 X-3.26809 Y-2.58932
G01 X-3.27085 Y-2.58793
G01 X-3.27358 Y-2.58630
G01 X-3.27633 Y-2.58435
G01 X-3.27879 Y-2.58232
G01 X-3.28109 Y-2.58012
G01 X-3.28316 Y-2.57782
G01 X-3.28511 Y-2.57531
G01 X-3.28682 Y-2.57275
G01 X-3.28853 Y-2.56969
G01 X-3.61147 Y-2.56969
G01 X-3.61362 Y-2.57346
G01 X-3.61552 Y-2.57617
G01 X-3.61769 Y-2.57880
G01 X-3.62005 Y-2.58125
G01 X-3.62252 Y-2.58344
G01 X-3.62524 Y-2.58550
G01 X-3.62811 Y-2.58734
G01 X-3.63102 Y-2.58890
G01 X-3.63414 Y-2.59027
G01 X-3.63725 Y-2.59137
G01 X-3.64055 Y-2.59224
G01 X-3.64390 Y-2.59285
G01 X-3.64719 Y-2.59319
G01 X-3.65060 Y-2.59328
G01 X-3.65402 Y-2.59309
G01 X-3.65795 Y-2.59255
G01 X-3.66191 Y-2.59161
G01 X-3.66566 Y-2.59035
G01 X-3.66928 Y-2.58875
G01 X-3.67274 Y-2.58683
G01 X-3.67601 Y-2.58460
G01 X-3.67906 Y-2.58207
G01 X-3.68187 Y-2.57928
G01 X-3.68419 Y-2.57653
G01 X-3.68648 Y-2.57330
G01 X-3.68862 Y-2.56955
G01 X-3.69011 Y-2.56627
G01 X-3.69146 Y-2.56244
G01 X-3.69242 Y-2.55859
G01 X-3.69307 Y-2.55432
G01 X-3.69328 Y-2.55036
G01 X-3.69314 Y-2.54646
G01 X-3.69252 Y-2.54193
G01 X-3.69163 Y-2.53814
G01 X-3.69106 Y-2.53643
G01 X-3.80455 Y-2.42294
G01 X-4.14545 Y-2.42294
G01 X-4.25895 Y-2.53644
G01 X-4.25825 Y-2.53857
G01 X-4.25727 Y-2.54309
G01 X-4.25680 Y-2.54737
G01 X-4.25677 Y-2.54960
G01 X-4.01345 Y-2.67126
G01 X-3.93110 Y-2.67126
G01 X-3.92988 Y-2.67145
G01 X-3.92878 Y-2.67201
G01 X-3.92791 Y-2.67288
G01 X-3.92725 Y-2.67438
G01 X-3.92716 Y-2.81300
G01 X-3.92735 Y-2.81422
G01 X-3.92817 Y-2.81563
G01 X-3.92950 Y-2.81660
G01 X-3.93110 Y-2.81694
G01 X-4.06890 Y-2.81694
G01 X-4.07050 Y-2.81660
G01 X-4.07182 Y-2.81563
G01 X-4.07250 Y-2.81460
G01 X-4.07284 Y-2.81300
G01 X-4.07284 Y-2.68559
G01 X-4.27439 Y-2.58482
G01 X-4.27649 Y-2.58634
G01 X-4.28089 Y-2.58883
G01 X-4.28555 Y-2.59080
G01 X-4.29030 Y-2.59218
G01 X-4.29528 Y-2.59302
G01 X-4.30023 Y-2.59328
G01 X-4.30517 Y-2.59297
G01 X-4.31014 Y-2.59208
G01 X-4.31488 Y-2.59064
G01 X-4.31911 Y-2.58883
G01 X-4.32351 Y-2.58634
G01 X-4.32751 Y-2.58342
G01 X-4.33114 Y-2.58006
G01 X-4.33443 Y-2.57622
G01 X-4.33725 Y-2.57203
G01 X-4.33847 Y-2.56969
G01 X-4.66147 Y-2.56969
G01 X-4.66357 Y-2.57337
G01 X-4.66545 Y-2.57607
G01 X-4.66754 Y-2.57863
G01 X-4.66981 Y-2.58102
G01 X-4.67226 Y-2.58323
G01 X-4.67488 Y-2.58525
G01 X-4.67763 Y-2.58706
G01 X-4.68052 Y-2.58865
G01 X-4.68352 Y-2.59002
G01 X-4.68662 Y-2.59116
G01 X-4.68980 Y-2.59206
G01 X-4.69303 Y-2.59272
G01 X-4.69631 Y-2.59313
G01 X-4.69971 Y-2.59328
G01 X-4.70304 Y-2.59318
G01 X-4.70708 Y-2.59270
G01 X-4.71070 Y-2.59194
G01 X-4.71460 Y-2.59075
G01 X-4.71869 Y-2.58904
G01 X-4.72227 Y-2.58711
G01 X-4.72566 Y-2.58486
G01 X-4.72854 Y-2.58254
G01 X-4.73147 Y-2.57971
G01 X-4.73435 Y-2.57633
G01 X-4.73667 Y-2.57299
G01 X-4.73850 Y-2.56977
G01 X-4.74019 Y-2.56607
G01 X-4.74152 Y-2.56223
G01 X-4.74248 Y-2.55827
G01 X-4.74311 Y-2.55388
G01 X-4.74328 Y-2.54981
G01 X-4.74310 Y-2.54602
G01 X-4.74251 Y-2.54188
G01 X-4.74156 Y-2.53792
G01 X-4.74006 Y-2.53362
G01 X-4.73852 Y-2.53026
G01 X-4.73644 Y-2.52664
G01 X-4.73378 Y-2.52294
G01 X-4.73128 Y-2.52008
G01 X-4.72825 Y-2.51720
G01 X-4.72473 Y-2.51448
G01 X-4.72152 Y-2.51245
G01 X-4.71789 Y-2.51059
G01 X-4.71365 Y-2.50893
G01 X-4.70963 Y-2.50780
G01 X-4.70600 Y-2.50713
G01 X-4.70150 Y-2.50674
G01 X-4.69850 Y-2.50674
G01 X-4.69531 Y-2.50697
G01 X-4.69216 Y-2.50743
G01 X-4.68894 Y-2.50815
G01 X-4.68588 Y-2.50908
G01 X-4.68291 Y-2.51023
G01 X-4.68003 Y-2.51160
G01 X-4.67716 Y-2.51323
G01 X-4.67443 Y-2.51507
G01 X-4.67192 Y-2.51706
G01 X-4.66936 Y-2.51942
G01 X-4.66732 Y-2.52162
G01 X-4.66525 Y-2.52419
G01 X-4.66344 Y-2.52682
G01 X-4.66147 Y-2.53031
G01 X-4.33850 Y-2.53031
G01 X-4.33772 Y-2.52877
G01 X-4.33549 Y-2.52523
G01 X-4.33294 Y-2.52192
G01 X-4.33008 Y-2.51887
G01 X-4.32723 Y-2.51636
G01 X-4.32386 Y-2.51389
G01 X-4.32027 Y-2.51175
G01 X-4.31658 Y-2.51002
G01 X-4.31265 Y-2.50861
G01 X-4.30860 Y-2.50758
G01 X-4.30447 Y-2.50695
G01 X-4.30040 Y-2.50672
G01 X-4.29623 Y-2.50688
G01 X-4.29209 Y-2.50745
G01 X-4.28803 Y-2.50841
G01 X-4.28643 Y-2.50894
G01 X-4.16724 Y-2.38975
G01 X-4.16397 Y-2.38714
G01 X-4.16094 Y-2.38554
G01 X-4.15766 Y-2.38453
G01 X-4.15350 Y-2.38406
G01 X-3.79650 Y-2.38406
G01 X-3.79271 Y-2.38443
G01 X-3.78906 Y-2.38554
G01 X-3.78570 Y-2.38734
G01 X-3.78275 Y-2.38975
G01 X-3.66357 Y-2.50894
G01 X-3.66197 Y-2.50841
G01 X-3.65791 Y-2.50745
G01 X-3.65376 Y-2.50688
G01 X-3.64959 Y-2.50672
G01 X-3.64553 Y-2.50695
G01 X-3.64140 Y-2.50758
G01 X-3.63734 Y-2.50861
G01 X-3.63342 Y-2.51002
G01 X-3.62973 Y-2.51175
G01 X-3.62614 Y-2.51389
G01 X-3.62277 Y-2.51636
G01 X-3.61992 Y-2.51887
G01 X-3.61706 Y-2.52192
G01 X-3.61451 Y-2.52523
G01 X-3.61228 Y-2.52877
G01 X-3.61150 Y-2.53031
G01 X-3.28853 Y-2.53031
G01 X-3.28655 Y-2.52682
G01 X-3.28475 Y-2.52419
G01 X-3.28268 Y-2.52162
G01 X-3.28064 Y-2.51942
G01 X-3.27808 Y-2.51706
G01 X-3.27557 Y-2.51507
G01 X-3.27283 Y-2.51323
G01 X-3.26997 Y-2.51160
G01 X-3.26709 Y-2.51023
G01 X-3.26411 Y-2.50908
G01 X-3.26106 Y-2.50815
G01 X-3.25784 Y-2.50743
G01 X-3.25469 Y-2.50697
G01 X-3.25150 Y-2.50674
G01 X-3.24816 Y-2.50676
G01 X-3.24400 Y-2.50713
G01 X-3.24000 Y-2.50789
G01 X-3.23598 Y-2.50905
G01 X-3.23211 Y-2.51059
G01 X-3.22848 Y-2.51245
G01 X-3.22496 Y-2.51469
G01 X-3.22175 Y-2.51720
G01 X-3.21872 Y-2.52008
G01 X-3.21598 Y-2.52324
G01 X-3.21356 Y-2.52664
G01 X-3.21148 Y-2.53026
G01 X-3.20980 Y-2.53397
G01 X-3.20844 Y-2.53792
G01 X-3.20749 Y-2.54188
G01 X-3.20690 Y-2.54602
G01 X-3.20672 Y-2.55019
G04 P0 ( dwell for no time -- G64 should not smooth over this point )
G00 Z0.08000 ( retract )

G00 X-3.20278 Y-2.95022 ( rapid move to begin. )
G01 F180.00000
( Mill infeed pass 1/1 )
G01 Z-0.04000
G04 P0 ( dwell for no time -- G64 should not smooth over this point )
G01 F360.00000
G01 X-3.20278 Y-2.95022
G01 X-3.20306 Y-2.95515
G01 X-3.20386 Y-2.96002
G01 X-3.20492 Y-2.96406
G01 X-3.20630 Y-2.96789
G01 X-3.20853 Y-2.97258
G01 X-3.21068 Y-2.97616
G01 X-3.21316 Y-2.97953
G01 X-3.21644 Y-2.98322
G01 X-3.21980 Y-2.98630
G01 X-3.22344 Y-2.98905
G01 X-3.22662 Y-2.99101
G01 X-3.22704 Y-2.99080
G01 X-3.22662 Y-2.99101
G01 X-3.22662 Y-3.18021
G01 X-3.22708 Y-3.18477
G01 X-3.22814 Y-3.18843
G01 X-3.22873 Y-3.18986
G01 X-3.23079 Y-3.19351
G01 X-3.23347 Y-3.19674
G01 X-3.30326 Y-3.26653
G01 X-3.30680 Y-3.26943
G01 X-3.31084 Y-3.27159
G01 X-3.31523 Y-3.27292
G01 X-3.31940 Y-3.27336
G01 X-3.35186 Y-3.27337
G01 X-3.35196 Y-3.27311
G01 X-3.35186 Y-3.27337
G01 X-3.35329 Y-3.27505
G01 X-3.35834 Y-3.27924
G01 X-3.36443 Y-3.28258
G01 X-3.37143 Y-3.28475
G01 X-3.37796 Y-3.28542
G01 X-3.42243 Y-3.28539
G01 X-3.42857 Y-3.28475
G01 X-3.43449 Y-3.28300
G01 X-3.43591 Y-3.28240
G01 X-3.44165 Y-3.27924
G01 X-3.44613 Y-3.27557
G01 X-3.44723 Y-3.27448
G01 X-3.45112 Y-3.26968
G01 X-3.45406 Y-3.26426
G01 X-3.45465 Y-3.26283
G01 X-3.45641 Y-3.25691
G01 X-3.45709 Y-3.25000
G01 X-3.45641 Y-3.24309
G01 X-3.45465 Y-3.23717
G01 X-3.45406 Y-3.23574
G01 X-3.45112 Y-3.23031
G01 X-3.44723 Y-3.22552
G01 X-3.44613 Y-3.22443
G01 X-3.44134 Y-3.22054
G01 X-3.43591 Y-3.21759
G01 X-3.43449 Y-3.21700
G01 X-3.42857 Y-3.21525
G01 X-3.42243 Y-3.21460
G01 X-3.37796 Y-3.21458
G01 X-3.37143 Y-3.21525
G01 X-3.36443 Y-3.21742
G01 X-3.35834 Y-3.22076
G01 X-3.35329 Y-3.22494
G01 X-3.35186 Y-3.22662
G01 X-3.35196 Y-3.22689
G01 X-3.35186 Y-3.22662
G01 X-3.32947 Y-3.22662
G01 X-3.32934 Y-3.22693
G01 X-3.32947 Y-3.22662
G01 X-3.27337 Y-3.17053
G01 X-3.27307 Y-3.17065
G01 X-3.27337 Y-3.17053
G01 X-3.27337 Y-2.99101
G01 X-3.27292 Y-2.99078
G01 X-3.27337 Y-2.99101
G01 X-3.27697 Y-2.98876
G01 X-3.28029 Y-2.98623
G01 X-3.28391 Y-2.98286
G01 X-3.28668 Y-2.97974
G01 X-3.28938 Y-2.97606
G01 X-3.29171 Y-2.97214
G01 X-3.29365 Y-2.96802
G01 X-3.29519 Y-2.96372
G01 X-3.29630 Y-2.95930
G01 X-3.29698 Y-2.95479
G01 X-3.29721 Y-2.95062
G01 X-3.29703 Y-2.94568
G01 X-3.29645 Y-2.94155
G01 X-3.29552 Y-2.93753
G01 X-3.29504 Y-2.93738
G01 X-3.29552 Y-2.93753
G01 X-3.35968 Y-2.87337
G01 X-3.35956 Y-2.87307
G01 X-3.35968 Y-2.87337
G01 X-3.36653 Y-2.87337
G01 X-3.36758 Y-2.87228
G01 X-3.36653 Y-2.87337
G01 X-3.36663 Y-2.87682
G01 X-3.36739 Y-2.87916
G01 X-3.36856 Y-2.88086
G01 X-3.37012 Y-2.88219
G01 X-3.37198 Y-2.88308
G01 X-3.37359 Y-2.88342
G01 X-3.42600 Y-2.88345
G01 X-3.42841 Y-2.88294
G01 X-3.42988 Y-2.88219
G01 X-3.43086 Y-2.88144
G01 X-3.43196 Y-2.88022
G01 X-3.43278 Y-2.87879
G01 X-3.43329 Y-2.87723
G01 X-3.43346 Y-2.87559
G01 X-3.43345 Y-2.82400
G01 X-3.43308 Y-2.82198
G01 X-3.43196 Y-2.81978
G01 X-3.43086 Y-2.81856
G01 X-3.42916 Y-2.81739
G01 X-3.42763 Y-2.81680
G01 X-3.42600 Y-2.81655
G01 X-3.37359 Y-2.81658
G01 X-3.37198 Y-2.81692
G01 X-3.37012 Y-2.81780
G01 X-3.36856 Y-2.81914
G01 X-3.36739 Y-2.82083
G01 X-3.36663 Y-2.82318
G01 X-3.36653 Y-2.82662
G01 X-3.36758 Y-2.82771
G01 X-3.36653 Y-2.82662
G01 X-3.34923 Y-2.82666
G01 X-3.34544 Y-2.82707
G01 X-3.34178 Y-2.82814
G01 X-3.34070 Y-2.82856
G01 X-3.33734 Y-2.83036
G01 X-3.33347 Y-2.83347
G01 X-3.26247 Y-2.90447
G01 X-3.26262 Y-2.90496
G01 X-3.26247 Y-2.90447
G01 X-3.25897 Y-2.90365
G01 X-3.25357 Y-2.90292
G01 X-3.24928 Y-2.90278
G01 X-3.24500 Y-2.90305
G01 X-3.23999 Y-2.90385
G01 X-3.23512 Y-2.90519
G01 X-3.23121 Y-2.90668
G01 X-3.22736 Y-2.90857
G01 X-3.22304 Y-2.91122
G01 X-3.21934 Y-2.91408
G01 X-3.21602 Y-2.91721
G01 X-3.21294 Y-2.92073
G01 X-3.21022 Y-2.92454
G01 X-3.20773 Y-2.92896
G01 X-3.20599 Y-2.93287
G01 X-3.20445 Y-2.93756
G01 X-3.20354 Y-2.94153
G01 X-3.20298 Y-2.94566
G01 X-3.20278 Y-2.95022
G01 X-3.20672 Y-2.95036
G01 X-3.20689 Y-2.94618
G01 X-3.20739 Y-2.94242
G01 X-3.20829 Y-2.93845
G01 X-3.20959 Y-2.93448
G01 X-3.21133 Y-2.93056
G01 X-3.21344 Y-2.92683
G01 X-3.21591 Y-2.92333
G01 X-3.21872 Y-2.92008
G01 X-3.22205 Y-2.91695
G01 X-3.22513 Y-2.91457
G01 X-3.22876 Y-2.91228
G01 X-3.23260 Y-2.91037
G01 X-3.23687 Y-2.90876
G01 X-3.24102 Y-2.90766
G01 X-3.24487 Y-2.90702
G01 X-3.24914 Y-2.90672
G01 X-3.25343 Y-2.90685
G01 X-3.25807 Y-2.90748
G01 X-3.26186 Y-2.90837
G01 X-3.26357 Y-2.90894
G01 X-3.33625 Y-2.83625
G01 X-3.33953 Y-2.83364
G01 X-3.34256 Y-2.83204
G01 X-3.34659 Y-2.83088
G01 X-3.35000 Y-2.83056
G01 X-3.37047 Y-2.83056
G01 X-3.37047 Y-2.82441
G01 X-3.37066 Y-2.82319
G01 X-3.37100 Y-2.82244
G01 X-3.37177 Y-2.82148
G01 X-3.37281 Y-2.82081
G01 X-3.37400 Y-2.82049
G01 X-3.42559 Y-2.82047
G01 X-3.42641 Y-2.82056
G01 X-3.42756 Y-2.82100
G01 X-3.42877 Y-2.82210
G01 X-3.42933 Y-2.82319
G01 X-3.42953 Y-2.82441
G01 X-3.42953 Y-2.87559
G01 X-3.42919 Y-2.87719
G01 X-3.42822 Y-2.87852
G01 X-3.42719 Y-2.87919
G01 X-3.42559 Y-2.87953
G01 X-3.37400 Y-2.87950
G01 X-3.37281 Y-2.87919
G01 X-3.37177 Y-2.87852
G01 X-3.37100 Y-2.87756
G01 X-3.37066 Y-2.87681
G01 X-3.37047 Y-2.87559
G01 X-3.37047 Y-2.86944
G01 X-3.35805 Y-2.86944
G01 X-3.29106 Y-2.93643
G01 X-3.29159 Y-2.93803
G01 X-3.29255 Y-2.94209
G01 X-3.29312 Y-2.94623
G01 X-3.29328 Y-2.95041
G01 X-3.29304 Y-2.95458
G01 X-3.29240 Y-2.95871
G01 X-3.29136 Y-2.96276
G01 X-3.28994 Y-2.96669
G01 X-3.28832 Y-2.97013
G01 X-3.28620 Y-2.97373
G01 X-3.28374 Y-2.97711
G01 X-3.28097 Y-2.98023
G01 X-3.27791 Y-2.98308
G01 X-3.27459 Y-2.98562
G01 X-3.27104 Y-2.98782
G01 X-3.26944 Y-2.98863
G01 X-3.26944 Y-3.17216
G01 X-3.32784 Y-3.23056
G01 X-3.35372 Y-3.23056
G01 X-3.35608 Y-3.22773
G01 X-3.36054 Y-3.22404
G01 X-3.36594 Y-3.22107
G01 X-3.37220 Y-3.21911
G01 X-3.37796 Y-3.21852
G01 X-3.42204 Y-3.21852
G01 X-3.42780 Y-3.21911
G01 X-3.43334 Y-3.22077
G01 X-3.43915 Y-3.22381
G01 X-3.44392 Y-3.22773
G01 X-3.44804 Y-3.23283
G01 X-3.45075 Y-3.23795
G01 X-3.45245 Y-3.24348
G01 X-3.45315 Y-3.25000
G01 X-3.45245 Y-3.25652
G01 X-3.45075 Y-3.26205
G01 X-3.44804 Y-3.26717
G01 X-3.44392 Y-3.27227
G01 X-3.43882 Y-3.27639
G01 X-3.43334 Y-3.27923
G01 X-3.42780 Y-3.28089
G01 X-3.42204 Y-3.28148
G01 X-3.37796 Y-3.28148
G01 X-3.37220 Y-3.28089
G01 X-3.36594 Y-3.27893
G01 X-3.36054 Y-3.27596
G01 X-3.35608 Y-3.27227
G01 X-3.35372 Y-3.26944
G01 X-3.31979 Y-3.26944
G01 X-3.31599 Y-3.26906
G01 X-3.31235 Y-3.26796
G01 X-3.30899 Y-3.26616
G01 X-3.30604 Y-3.26374
G01 X-3.23625 Y-3.19395
G01 X-3.23384 Y-3.19101
G01 X-3.23191 Y-3.18729
G01 X-3.23094 Y-3.18400
G01 X-3.23056 Y-3.18021
G01 X-3.23056 Y-2.98863
G01 X-3.22581 Y-2.98590
G01 X-3.22217 Y-2.98315
G01 X-3.21910 Y-2.98031
G01 X-3.21657 Y-2.97749
G01 X-3.21386 Y-2.97382
G01 X-3.21191 Y-2.97056
G01 X-3.21015 Y-2.96689
G01 X-3.20863 Y-2.96271
G01 X-3.20759 Y-2.95866
G01 X-3.20700 Y-2.95491
G01 X-3.20672 Y-2.95036
G04 P0 ( dwell for no time -- G64 should not smooth over this point )
G00 Z0.08000 ( retract )

G00 X-3.34291 Y-3.17126 ( rapid move to begin. )
G01 F180.00000
( Mill infeed pass 1/1 )
G01 Z-0.04000
G04 P0 ( dwell for no time -- G64 should not smooth over this point )
G01 F360.00000
G01 X-3.34291 Y-3.17126
G01 X-3.34359 Y-3.17817
G01 X-3.34561 Y-3.18482
G01 X-3.34888 Y-3.19095
G01 X-3.35329 Y-3.19631
G01 X-3.35866 Y-3.20072
G01 X-3.36479 Y-3.20399
G01 X-3.37143 Y-3.20601
G01 X-3.37796 Y-3.20668
G01 X-3.42165 Y-3.20669
G01 X-3.42819 Y-3.20608
G01 X-3.43521 Y-3.20399
G01 X-3.44101 Y-3.20093
G01 X-3.44643 Y-3.19658
G01 X-3.44793 Y-3.19488
G01 X-3.44784 Y-3.19463
G01 X-3.44793 Y-3.19488
G01 X-4.04280 Y-3.19488
G01 X-4.04665 Y-3.19454
G01 X-4.04816 Y-3.19424
G01 X-4.05184 Y-3.19308
G01 X-4.05527 Y-3.19130
G01 X-4.05655 Y-3.19044
G01 X-4.05951 Y-3.18796
G01 X-4.26540 Y-2.98207
G01 X-4.26537 Y-2.98054
G01 X-4.26540 Y-2.98207
G01 X-4.26661 Y-2.98338
G01 X-4.27045 Y-2.98684
G01 X-4.27505 Y-2.99009
G01 X-4.28000 Y-2.99278
G01 X-4.28514 Y-2.99482
G01 X-4.29058 Y-2.99627
G01 X-4.29616 Y-2.99707
G01 X-4.30133 Y-2.99719
G01 X-4.30730 Y-2.99666
G01 X-4.31234 Y-2.99557
G01 X-4.31855 Y-2.99341
G01 X-4.32319 Y-2.99113
G01 X-4.32793 Y-2.98808
G01 X-4.33227 Y-2.98448
G01 X-4.33613 Y-2.98041
G01 X-4.33911 Y-2.97646
G01 X-4.34165 Y-2.97225
G01 X-4.34370 Y-2.96790
G01 X-4.34532 Y-2.96326
G01 X-4.34646 Y-2.95848
G01 X-4.34708 Y-2.95371
G01 X-4.34721 Y-2.94880
G01 X-4.34682 Y-2.94385
G01 X-4.34565 Y-2.93790
G01 X-4.34374 Y-2.93220
G01 X-4.34108 Y-2.92670
G01 X-4.33808 Y-2.92209
G01 X-4.33382 Y-2.91704
G01 X-4.32974 Y-2.91334
G01 X-4.32433 Y-2.90953
G01 X-4.32362 Y-2.90914
G01 X-4.32317 Y-2.90938
G01 X-4.32362 Y-2.90914
G01 X-4.32362 Y-2.87362
G01 X-4.32247 Y-2.87247
G01 X-4.32362 Y-2.87362
G01 X-4.42788 Y-2.87362
G01 X-4.42796 Y-2.87342
G01 X-4.42788 Y-2.87362
G01 X-4.42828 Y-2.87403
G01 X-4.43195 Y-2.87709
G01 X-4.43530 Y-2.87924
G01 X-4.43963 Y-2.88125
G01 X-4.44343 Y-2.88246
G01 X-4.44779 Y-2.88325
G01 X-4.45211 Y-2.88346
G01 X-4.45631 Y-2.88313
G01 X-4.45984 Y-2.88243
G01 X-4.46292 Y-2.88147
G01 X-4.46694 Y-2.87972
G01 X-4.46973 Y-2.87811
G01 X-4.47260 Y-2.87603
G01 X-4.47523 Y-2.87367
G01 X-4.47732 Y-2.87137
G01 X-4.47995 Y-2.86773
G01 X-4.48149 Y-2.86501
G01 X-4.48294 Y-2.86166
G01 X-4.48400 Y-2.85828
G01 X-4.48464 Y-2.85512
G01 X-4.48502 Y-2.85105
G01 X-4.48495 Y-2.84752
G01 X-4.48456 Y-2.84442
G01 X-4.48345 Y-2.83987
G01 X-4.48168 Y-2.83539
G01 X-4.47948 Y-2.83157
G01 X-4.47600 Y-2.82713
G01 X-4.47182 Y-2.82335
G01 X-4.46705 Y-2.82035
G01 X-4.46264 Y-2.81842
G01 X-4.45839 Y-2.81725
G01 X-4.45320 Y-2.81659
G01 X-4.44821 Y-2.81671
G01 X-4.44479 Y-2.81723
G01 X-4.44056 Y-2.81841
G01 X-4.43735 Y-2.81971
G01 X-4.43391 Y-2.82158
G01 X-4.43070 Y-2.82384
G01 X-4.42788 Y-2.82638
G01 X-4.42795 Y-2.82660
G01 X-4.42788 Y-2.82638
G01 X-4.29961 Y-2.82639
G01 X-4.29539 Y-2.82683
G01 X-4.29169 Y-2.82791
G01 X-4.29026 Y-2.82850
G01 X-4.28688 Y-2.83036
G01 X-4.28329 Y-2.83330
G01 X-4.28036 Y-2.83688
G01 X-4.27817 Y-2.84096
G01 X-4.27676 Y-2.84577
G01 X-4.27637 Y-2.85000
G01 X-4.27637 Y-2.90428
G01 X-4.27667 Y-2.90440
G01 X-4.27637 Y-2.90428
G01 X-4.03302 Y-3.14763
G01 X-4.03314 Y-3.14793
G01 X-4.03302 Y-3.14763
G01 X-3.44793 Y-3.14763
G01 X-3.44779 Y-3.14797
G01 X-3.44793 Y-3.14763
G01 X-3.44643 Y-3.14594
G01 X-3.44101 Y-3.14159
G01 X-3.43521 Y-3.13852
G01 X-3.42819 Y-3.13644
G01 X-3.42165 Y-3.13583
G01 X-3.37757 Y-3.13586
G01 X-3.37143 Y-3.13651
G01 X-3.36479 Y-3.13852
G01 X-3.35866 Y-3.14180
G01 X-3.35386 Y-3.14568
G01 X-3.35219 Y-3.14749
G01 X-3.34911 Y-3.15126
G01 X-3.34849 Y-3.15224
G01 X-3.34561 Y-3.15770
G01 X-3.34353 Y-3.16473
G01 X-3.34291 Y-3.17126
G01 X-3.34685 Y-3.17126
G01 X-3.34746 Y-3.17740
G01 X-3.34912 Y-3.18295
G01 X-3.35216 Y-3.18876
G01 X-3.35608 Y-3.19353
G01 X-3.36054 Y-3.19722
G01 X-3.36666 Y-3.20049
G01 X-3.37220 Y-3.20215
G01 X-3.37835 Y-3.20275
G01 X-3.42165 Y-3.20275
G01 X-3.42741 Y-3.20221
G01 X-3.43371 Y-3.20036
G01 X-3.43915 Y-3.19745
G01 X-3.44392 Y-3.19353
G01 X-3.44607 Y-3.19095
G01 X-4.04280 Y-3.19095
G01 X-4.04664 Y-3.19057
G01 X-4.04997 Y-3.18958
G01 X-4.05374 Y-3.18763
G01 X-4.05672 Y-3.18518
G01 X-4.26562 Y-2.97629
G01 X-4.26892 Y-2.98012
G01 X-4.27273 Y-2.98361
G01 X-4.27693 Y-2.98662
G01 X-4.28146 Y-2.98911
G01 X-4.28616 Y-2.99101
G01 X-4.29114 Y-2.99236
G01 X-4.29625 Y-2.99312
G01 X-4.30141 Y-2.99326
G01 X-4.30646 Y-2.99280
G01 X-4.31151 Y-2.99172
G01 X-4.31640 Y-2.99005
G01 X-4.32105 Y-2.98781
G01 X-4.32579 Y-2.98476
G01 X-4.32975 Y-2.98144
G01 X-4.33326 Y-2.97769
G01 X-4.33596 Y-2.97408
G01 X-4.33808 Y-2.97057
G01 X-4.33997 Y-2.96659
G01 X-4.34148 Y-2.96235
G01 X-4.34254 Y-2.95797
G01 X-4.34313 Y-2.95361
G01 X-4.34327 Y-2.94910
G01 X-4.34295 Y-2.94461
G01 X-4.34190 Y-2.93915
G01 X-4.34018 Y-2.93392
G01 X-4.33777 Y-2.92887
G01 X-4.33478 Y-2.92425
G01 X-4.33117 Y-2.91997
G01 X-4.32711 Y-2.91626
G01 X-4.32252 Y-2.91304
G01 X-4.31969 Y-2.91154
G01 X-4.31969 Y-2.86969
G01 X-4.42964 Y-2.86969
G01 X-4.43110 Y-2.87127
G01 X-4.43410 Y-2.87379
G01 X-4.43731 Y-2.87584
G01 X-4.44085 Y-2.87751
G01 X-4.44449 Y-2.87866
G01 X-4.44834 Y-2.87934
G01 X-4.45215 Y-2.87951
G01 X-4.45554 Y-2.87925
G01 X-4.45907 Y-2.87856
G01 X-4.46174 Y-2.87772
G01 X-4.46461 Y-2.87649
G01 X-4.46777 Y-2.87468
G01 X-4.47028 Y-2.87284
G01 X-4.47259 Y-2.87074
G01 X-4.47466 Y-2.86840
G01 X-4.47653 Y-2.86578
G01 X-4.47787 Y-2.86343
G01 X-4.47917 Y-2.86049
G01 X-4.48023 Y-2.85710
G01 X-4.48077 Y-2.85435
G01 X-4.48107 Y-2.85114
G01 X-4.48103 Y-2.84802
G01 X-4.48066 Y-2.84492
G01 X-4.47978 Y-2.84128
G01 X-4.47807 Y-2.83700
G01 X-4.47572 Y-2.83303
G01 X-4.47321 Y-2.82992
G01 X-4.46933 Y-2.82642
G01 X-4.46544 Y-2.82394
G01 X-4.46121 Y-2.82210
G01 X-4.45735 Y-2.82105
G01 X-4.45278 Y-2.82051
G01 X-4.44924 Y-2.82057
G01 X-4.44581 Y-2.82105
G01 X-4.44246 Y-2.82192
G01 X-4.43924 Y-2.82318
G01 X-4.43619 Y-2.82481
G01 X-4.43334 Y-2.82678
G01 X-4.43075 Y-2.82907
G01 X-4.42962 Y-2.83031
G01 X-4.30000 Y-2.83031
G01 X-4.29616 Y-2.83069
G01 X-4.29283 Y-2.83168
G01 X-4.28906 Y-2.83363
G01 X-4.28608 Y-2.83608
G01 X-4.28363 Y-2.83906
G01 X-4.28181 Y-2.84247
G01 X-4.28063 Y-2.84654
G01 X-4.28031 Y-2.85000
G01 X-4.28031 Y-2.90591
G01 X-4.03465 Y-3.15157
G01 X-3.44607 Y-3.15157
G01 X-3.44392 Y-3.14899
G01 X-3.43915 Y-3.14507
G01 X-3.43371 Y-3.14216
G01 X-3.42780 Y-3.14037
G01 X-3.42165 Y-3.13976
G01 X-3.37835 Y-3.13976
G01 X-3.37220 Y-3.14037
G01 X-3.36629 Y-3.14216
G01 X-3.36085 Y-3.14507
G01 X-3.35636 Y-3.14873
G01 X-3.35216 Y-3.15376
G01 X-3.34925 Y-3.15921
G01 X-3.34746 Y-3.16512
G01 X-3.34685 Y-3.17126
G01 X-3.34291 Y-3.17126
G01 X-3.46896 Y-2.84818
G01 X-3.46969 Y-2.84319
G01 X-3.47115 Y-2.83869
G01 X-3.47315 Y-2.83476
G01 X-3.47521 Y-2.83176
G01 X-3.47726 Y-2.82942
G01 X-3.47923 Y-2.82757
G01 X-3.48161 Y-2.82573
G01 X-3.48462 Y-2.82390
G01 X-3.48744 Y-2.82260
G01 X-3.49028 Y-2.82162
G01 X-3.49291 Y-2.82100
G01 X-3.49600 Y-2.82058
G01 X-3.49941 Y-2.82049
G01 X-3.50251 Y-2.82076
G01 X-3.50557 Y-2.82136
G01 X-3.50854 Y-2.82226
G01 X-3.51131 Y-2.82344
G01 X-3.51403 Y-2.82494
G01 X-3.51654 Y-2.82669
G01 X-3.51910 Y-2.82893
G01 X-3.52203 Y-2.83227
G01 X-3.52417 Y-2.83555
G01 X-3.52582 Y-2.83899
G01 X-3.52690 Y-2.84221
G01 X-3.52767 Y-2.84595
G01 X-3.52794 Y-2.84985
G01 X-3.52784 Y-2.85192
G01 X-3.60648 Y-2.93056
G01 X-3.61135 Y-2.93056
G01 X-3.61376 Y-2.92634
G01 X-3.61593 Y-2.92330
G01 X-3.61829 Y-2.92054
G01 X-3.62087 Y-2.91798
G01 X-3.62374 Y-2.91559
G01 X-3.62681 Y-2.91345
G01 X-3.62966 Y-2.91179
G01 X-3.63439 Y-2.90963
G01 X-3.63942 Y-2.90803
G01 X-3.64460 Y-2.90706
G01 X-3.65014 Y-2.90672
G01 X-3.65322 Y-2.90684
G01 X-3.65611 Y-2.90715
G01 X-3.65924 Y-2.90771
G01 X-3.66223 Y-2.90848
G01 X-3.66525 Y-2.90949
G01 X-3.66819 Y-2.91072
G01 X-3.67104 Y-2.91217
G01 X-3.67368 Y-2.91377
G01 X-3.67628 Y-2.91560
G01 X-3.67874 Y-2.91763
G01 X-3.68105 Y-2.91984
G01 X-3.68311 Y-2.92213
G01 X-3.68507 Y-2.92464
G01 X-3.68679 Y-2.92720
G01 X-3.68866 Y-2.93056
G01 X-3.98775 Y-2.93056
G01 X-4.14314 Y-2.77516
G01 X-4.14609 Y-2.77275
G01 X-4.14910 Y-2.77112
G01 X-4.15310 Y-2.76985
G01 X-4.15689 Y-2.76947
G01 X-4.64969 Y-2.76947
G01 X-4.65348 Y-2.76985
G01 X-4.65712 Y-2.77095
G01 X-4.66049 Y-2.77275
G01 X-4.66343 Y-2.77516
G01 X-4.78859 Y-2.90033
G01 X-4.79101 Y-2.90327
G01 X-4.79294 Y-2.90700
G01 X-4.79391 Y-2.91028
G01 X-4.79429 Y-2.91407
G01 X-4.79429 Y-2.98593
G01 X-4.79391 Y-2.98972
G01 X-4.79294 Y-2.99300
G01 X-4.79101 Y-2.99673
G01 X-4.78859 Y-2.99967
G01 X-4.60326 Y-3.18500
G01 X-4.60063 Y-3.18719
G01 X-4.59659 Y-3.18935
G01 X-4.59331 Y-3.19032
G01 X-4.58990 Y-3.19068
G01 X-4.54627 Y-3.19070
G01 X-4.54392 Y-3.19353
G01 X-4.53946 Y-3.19722
G01 X-4.53406 Y-3.20019
G01 X-4.52780 Y-3.20215
G01 X-4.52204 Y-3.20274
G01 X-4.47796 Y-3.20274
G01 X-4.47220 Y-3.20215
G01 X-4.46666 Y-3.20049
G01 X-4.46085 Y-3.19745
G01 X-4.45608 Y-3.19353
G01 X-4.45216 Y-3.18876
G01 X-4.44925 Y-3.18331
G01 X-4.44745 Y-3.17740
G01 X-4.44685 Y-3.17126
G01 X-4.44745 Y-3.16512
G01 X-4.44925 Y-3.15921
G01 X-4.45216 Y-3.15376
G01 X-4.45636 Y-3.14873
G01 X-4.46085 Y-3.14507
G01 X-4.46594 Y-3.14233
G01 X-4.47220 Y-3.14037
G01 X-4.47835 Y-3.13976
G01 X-4.52165 Y-3.13976
G01 X-4.52742 Y-3.14031
G01 X-4.53371 Y-3.14216
G01 X-4.53915 Y-3.14507
G01 X-4.54392 Y-3.14899
G01 X-4.54627 Y-3.15182
G01 X-4.58147 Y-3.15182
G01 X-4.75541 Y-2.97788
G01 X-4.75541 Y-2.92212
G01 X-4.64163 Y-2.80835
G01 X-4.16494 Y-2.80835
G01 X-4.00954 Y-2.96374
G01 X-4.00660 Y-2.96616
G01 X-4.00324 Y-2.96796
G01 X-3.99959 Y-2.96906
G01 X-3.99580 Y-2.96944
G01 X-3.68863 Y-2.96950
G01 X-3.68667 Y-2.97299
G01 X-3.68488 Y-2.97563
G01 X-3.68290 Y-2.97813
G01 X-3.68074 Y-2.98048
G01 X-3.67841 Y-2.98266
G01 X-3.67616 Y-2.98448
G01 X-3.67346 Y-2.98637
G01 X-3.67036 Y-2.98820
G01 X-3.66749 Y-2.98959
G01 X-3.66452 Y-2.99077
G01 X-3.66138 Y-2.99176
G01 X-3.65827 Y-2.99249
G01 X-3.65501 Y-2.99299
G01 X-3.65183 Y-2.99324
G01 X-3.64851 Y-2.99325
G01 X-3.64294 Y-2.99270
G01 X-3.63695 Y-2.99126
G01 X-3.63123 Y-2.98900
G01 X-3.62589 Y-2.98594
G01 X-3.62104 Y-2.98216
G01 X-3.61677 Y-2.97772
G01 X-3.61317 Y-2.97273
G01 X-3.61143 Y-2.96944
G01 X-3.59843 Y-2.96944
G01 X-3.59502 Y-2.96912
G01 X-3.59099 Y-2.96796
G01 X-3.58732 Y-2.96593
G01 X-3.58468 Y-2.96374
G01 X-3.50035 Y-2.87942
G01 X-3.49850 Y-2.87952
G01 X-3.49493 Y-2.87931
G01 X-3.49188 Y-2.87879
G01 X-3.48845 Y-2.87778
G01 X-3.48516 Y-2.87637
G01 X-3.48198 Y-2.87452
G01 X-3.47877 Y-2.87203
G01 X-3.47621 Y-2.86943
G01 X-3.47373 Y-2.86617
G01 X-3.47133 Y-2.86173
G01 X-3.46974 Y-2.85695
G01 X-3.46901 Y-2.85259
G01 X-3.46896 Y-2.84818
G01 X-3.46503 Y-2.84821
G01 X-3.46507 Y-2.85273
G01 X-3.46568 Y-2.85659
G01 X-3.46604 Y-2.85843
G01 X-3.46749 Y-2.86271
G01 X-3.47012 Y-2.86785
G01 X-3.47380 Y-2.87264
G01 X-3.47635 Y-2.87515
G01 X-3.47956 Y-2.87764
G01 X-3.48314 Y-2.87977
G01 X-3.48642 Y-2.88122
G01 X-3.49074 Y-2.88257
G01 X-3.49426 Y-2.88319
G01 X-3.49879 Y-2.88346
G01 X-3.49893 Y-2.88325
G01 X-3.49883 Y-2.88346
G01 X-3.58190 Y-2.96653
G01 X-3.58482 Y-2.96897
G01 X-3.58610 Y-2.96983
G01 X-3.58948 Y-2.97159
G01 X-3.59424 Y-2.97299
G01 X-3.59804 Y-2.97336
G01 X-3.60903 Y-2.97337
G01 X-3.60926 Y-2.97295
G01 X-3.60903 Y-2.97337
G01 X-3.60956 Y-2.97438
G01 X-3.61320 Y-2.97957
G01 X-3.61803 Y-2.98476
G01 X-3.62329 Y-2.98894
G01 X-3.62875 Y-2.99216
G01 X-3.63530 Y-2.99487
G01 X-3.64181 Y-2.99651
G01 X-3.64854 Y-2.99720
G01 X-3.65187 Y-2.99718
G01 X-3.65534 Y-2.99692
G01 X-3.65889 Y-2.99638
G01 X-3.66286 Y-2.99543
G01 X-3.66627 Y-2.99433
G01 X-3.66949 Y-2.99301
G01 X-3.67261 Y-2.99145
G01 X-3.67520 Y-2.98993
G01 X-3.67864 Y-2.98754
G01 X-3.68133 Y-2.98533
G01 X-3.68384 Y-2.98293
G01 X-3.68618 Y-2.98034
G01 X-3.68831 Y-2.97760
G01 X-3.69096 Y-2.97344
G01 X-3.69076 Y-2.97302
G01 X-3.69096 Y-2.97344
G01 X-3.99580 Y-2.97337
G01 X-4.00036 Y-2.97292
G01 X-4.00438 Y-2.97173
G01 X-4.00878 Y-2.96943
G01 X-4.01233 Y-2.96653
G01 X-4.16657 Y-2.81228
G01 X-4.16645 Y-2.81198
G01 X-4.16657 Y-2.81228
G01 X-4.64001 Y-2.81228
G01 X-4.64013 Y-2.81198
G01 X-4.64001 Y-2.81228
G01 X-4.75148 Y-2.92375
G01 X-4.75178 Y-2.92363
G01 X-4.75148 Y-2.92375
G01 X-4.75148 Y-2.97625
G01 X-4.75178 Y-2.97637
G01 X-4.75148 Y-2.97625
G01 X-4.57984 Y-3.14788
G01 X-4.57996 Y-3.14818
G01 X-4.57984 Y-3.14788
G01 X-4.54814 Y-3.14788
G01 X-4.54803 Y-3.14815
G01 X-4.54814 Y-3.14788
G01 X-4.54671 Y-3.14620
G01 X-4.54166 Y-3.14202
G01 X-4.53557 Y-3.13868
G01 X-4.52857 Y-3.13651
G01 X-4.52204 Y-3.13584
G01 X-4.47835 Y-3.13583
G01 X-4.47220 Y-3.13639
G01 X-4.47068 Y-3.13670
G01 X-4.46479 Y-3.13852
G01 X-4.45932 Y-3.14140
G01 X-4.45804 Y-3.14226
G01 X-4.45329 Y-3.14620
G01 X-4.44935 Y-3.15095
G01 X-4.44849 Y-3.15224
G01 X-4.44561 Y-3.15770
G01 X-4.44378 Y-3.16360
G01 X-4.44348 Y-3.16511
G01 X-4.44291 Y-3.17126
G01 X-4.44359 Y-3.17817
G01 X-4.44535 Y-3.18409
G01 X-4.44594 Y-3.18552
G01 X-4.44888 Y-3.19095
G01 X-4.45329 Y-3.19631
G01 X-4.45866 Y-3.20072
G01 X-4.46409 Y-3.20366
G01 X-4.46551 Y-3.20426
G01 X-4.47181 Y-3.20608
G01 X-4.47835 Y-3.20669
G01 X-4.52165 Y-3.20669
G01 X-4.52780 Y-3.20613
G01 X-4.52932 Y-3.20582
G01 X-4.53521 Y-3.20399
G01 X-4.54101 Y-3.20093
G01 X-4.54643 Y-3.19658
G01 X-4.54814 Y-3.19463
G01 X-4.54804 Y-3.19438
G01 X-4.54814 Y-3.19463
G01 X-4.58990 Y-3.19462
G01 X-4.59408 Y-3.19418
G01 X-4.59774 Y-3.19311
G01 X-4.59916 Y-3.19252
G01 X-4.60250 Y-3.19069
G01 X-4.60604 Y-3.18779
G01 X-4.79138 Y-3.00245
G01 X-4.79428 Y-2.99891
G01 X-4.79611 Y-2.99557
G01 X-4.79671 Y-2.99415
G01 X-4.79769 Y-2.99086
G01 X-4.79789 Y-2.98972
G01 X-4.79822 Y-2.98593
G01 X-4.79821 Y-2.91368
G01 X-4.79777 Y-2.90951
G01 X-4.79671 Y-2.90585
G01 X-4.79611 Y-2.90443
G01 X-4.79428 Y-2.90109
G01 X-4.79138 Y-2.89754
G01 X-4.66621 Y-2.77238
G01 X-4.66267 Y-2.76947
G01 X-4.65933 Y-2.76764
G01 X-4.65790 Y-2.76705
G01 X-4.65462 Y-2.76607
G01 X-4.65348 Y-2.76587
G01 X-4.64969 Y-2.76553
G01 X-4.15689 Y-2.76553
G01 X-4.15195 Y-2.76607
G01 X-4.14794 Y-2.76731
G01 X-4.14457 Y-2.76908
G01 X-4.14328 Y-2.76993
G01 X-4.14036 Y-2.77238
G01 X-3.98612 Y-2.92663
G01 X-3.98624 Y-2.92693
G01 X-3.98612 Y-2.92663
G01 X-3.69100 Y-2.92663
G01 X-3.69080 Y-2.92704
G01 X-3.69100 Y-2.92663
G01 X-3.68852 Y-2.92269
G01 X-3.68641 Y-2.91993
G01 X-3.68417 Y-2.91741
G01 X-3.68169 Y-2.91499
G01 X-3.67902 Y-2.91275
G01 X-3.67620 Y-2.91072
G01 X-3.67333 Y-2.90895
G01 X-3.67025 Y-2.90734
G01 X-3.66706 Y-2.90597
G01 X-3.66322 Y-2.90467
G01 X-3.65996 Y-2.90384
G01 X-3.65653 Y-2.90323
G01 X-3.65308 Y-2.90288
G01 X-3.64990 Y-2.90278
G01 X-3.64437 Y-2.90311
G01 X-3.63871 Y-2.90415
G01 X-3.63321 Y-2.90586
G01 X-3.62767 Y-2.90839
G01 X-3.62454 Y-2.91023
G01 X-3.62148 Y-2.91237
G01 X-3.61808 Y-2.91519
G01 X-3.61528 Y-2.91799
G01 X-3.61252 Y-2.92129
G01 X-3.61036 Y-2.92434
G01 X-3.60900 Y-2.92663
G01 X-3.60925 Y-2.92709
G01 X-3.60900 Y-2.92663
G01 X-3.60811 Y-2.92663
G01 X-3.60798 Y-2.92693
G01 X-3.60811 Y-2.92663
G01 X-3.53188 Y-2.85040
G01 X-3.53164 Y-2.85051
G01 X-3.53188 Y-2.85040
G01 X-3.53189 Y-2.84995
G01 X-3.53163 Y-2.84587
G01 X-3.53082 Y-2.84162
G01 X-3.52943 Y-2.83741
G01 X-3.52755 Y-2.83351
G01 X-3.52511 Y-2.82981
G01 X-3.52220 Y-2.82645
G01 X-3.51878 Y-2.82344
G01 X-3.51557 Y-2.82127
G01 X-3.51246 Y-2.81963
G01 X-3.50968 Y-2.81848
G01 X-3.50670 Y-2.81758
G01 X-3.50283 Y-2.81683
G01 X-3.49932 Y-2.81655
G01 X-3.49590 Y-2.81663
G01 X-3.49200 Y-2.81717
G01 X-3.48898 Y-2.81790
G01 X-3.48614 Y-2.81888
G01 X-3.48257 Y-2.82053
G01 X-3.47923 Y-2.82260
G01 X-3.47684 Y-2.82443
G01 X-3.47457 Y-2.82655
G01 X-3.47196 Y-2.82951
G01 X-3.46999 Y-2.83236
G01 X-3.46759 Y-2.83699
G01 X-3.46603 Y-2.84168
G01 X-3.46512 Y-2.84695
G01 X-3.46503 Y-2.84821
G04 P0 ( dwell for no time -- G64 should not smooth over this point )
G00 Z0.08000 ( retract )

G00 X-3.92563 Y-2.54500 ( rapid move to begin. )
G01 F180.00000
( Mill infeed pass 1/1 )
G01 Z-0.04000
G04 P0 ( dwell for no time -- G64 should not smooth over this point )
G01 F360.00000
G01 X-3.92563 Y-2.54500
G01 X-3.92322 Y-2.55083
G01 X-3.89177 Y-2.58228
G01 X-3.89147 Y-2.58216
G01 X-3.89177 Y-2.58228
G01 X-3.89176 Y-2.69531
G01 X-3.89125 Y-2.69772
G01 X-3.89027 Y-2.69953
G01 X-3.88853 Y-2.70127
G01 X-3.88633 Y-2.70239
G01 X-3.88390 Y-2.70277
G01 X-3.74610 Y-2.70277
G01 X-3.74367 Y-2.70239
G01 X-3.74147 Y-2.70127
G01 X-3.73973 Y-2.69953
G01 X-3.73875 Y-2.69772
G01 X-3.73824 Y-2.69531
G01 X-3.73822 Y-2.64937
G01 X-3.73938 Y-2.64822
G01 X-3.73822 Y-2.64937
G01 X-3.72478 Y-2.64937
G01 X-3.72466 Y-2.64907
G01 X-3.72478 Y-2.64937
G01 X-3.58948 Y-2.78468
G01 X-3.58656 Y-2.78712
G01 X-3.58527 Y-2.78798
G01 X-3.58189 Y-2.78974
G01 X-3.57826 Y-2.79089
G01 X-3.57674 Y-2.79119
G01 X-3.57295 Y-2.79152
G01 X-3.22039 Y-2.79152
G01 X-3.22027 Y-2.79122
G01 X-3.22039 Y-2.79152
G01 X-3.19152 Y-2.82039
G01 X-3.19122 Y-2.82027
G01 X-3.19152 Y-2.82039
G01 X-3.19152 Y-3.20794
G01 X-3.19122 Y-3.20806
G01 X-3.19152 Y-3.20794
G01 X-3.35901 Y-3.37542
G01 X-3.35888 Y-3.37572
G01 X-3.35901 Y-3.37542
G01 X-3.81189 Y-3.37542
G01 X-3.81201 Y-3.37572
G01 X-3.81189 Y-3.37542
G01 X-3.82662 Y-3.36069
G01 X-3.82693 Y-3.36081
G01 X-3.82662 Y-3.36069
G01 X-3.82662 Y-3.34724
G01 X-3.82775 Y-3.34615
G01 X-3.82662 Y-3.34724
G01 X-3.81260 Y-3.34724
G01 X-3.81056 Y-3.34698
G01 X-3.80866 Y-3.34619
G01 X-3.80675 Y-3.34464
G01 X-3.80558 Y-3.34294
G01 X-3.80482 Y-3.34060
G01 X-3.80477 Y-3.25981
G01 X-3.80511 Y-3.25820
G01 X-3.80558 Y-3.25705
G01 X-3.80623 Y-3.25600
G01 X-3.80733 Y-3.25478
G01 X-3.80866 Y-3.25381
G01 X-3.80978 Y-3.25328
G01 X-3.81219 Y-3.25277
G01 X-3.88740 Y-3.25276
G01 X-3.88983 Y-3.25314
G01 X-3.89169 Y-3.25403
G01 X-3.89325 Y-3.25536
G01 X-3.89442 Y-3.25705
G01 X-3.89518 Y-3.25940
G01 X-3.89527 Y-3.27663
G01 X-3.89416 Y-3.27776
G01 X-3.89527 Y-3.27663
G01 X-4.00472 Y-3.27663
G01 X-4.00584 Y-3.27776
G01 X-4.00472 Y-3.27663
G01 X-4.00472 Y-3.26063
G01 X-4.00490 Y-3.25899
G01 X-4.00558 Y-3.25705
G01 X-4.00674 Y-3.25536
G01 X-4.00831 Y-3.25403
G01 X-4.01056 Y-3.25302
G01 X-4.01260 Y-3.25276
G01 X-4.08740 Y-3.25276
G01 X-4.08983 Y-3.25314
G01 X-4.09169 Y-3.25403
G01 X-4.09352 Y-3.25567
G01 X-4.09475 Y-3.25781
G01 X-4.09526 Y-3.26022
G01 X-4.09527 Y-3.33937
G01 X-4.09501 Y-3.34141
G01 X-4.09401 Y-3.34366
G01 X-4.09267 Y-3.34522
G01 X-4.09134 Y-3.34619
G01 X-4.08944 Y-3.34698
G01 X-4.08781 Y-3.34723
G01 X-4.01178 Y-3.34720
G01 X-4.00939 Y-3.34656
G01 X-4.00733 Y-3.34522
G01 X-4.00578 Y-3.34331
G01 X-4.00490 Y-3.34101
G01 X-4.00472 Y-3.33937
G01 X-4.00472 Y-3.32337
G01 X-4.00584 Y-3.32224
G01 X-4.00472 Y-3.32337
G01 X-3.89527 Y-3.32337
G01 X-3.89413 Y-3.32222
G01 X-3.89527 Y-3.32337
G01 X-3.89526 Y-3.33978
G01 X-3.89475 Y-3.34219
G01 X-3.89400 Y-3.34366
G01 X-3.89325 Y-3.34464
G01 X-3.89203 Y-3.34574
G01 X-3.89060 Y-3.34656
G01 X-3.88904 Y-3.34707
G01 X-3.88781 Y-3.34723
G01 X-3.87337 Y-3.34724
G01 X-3.87222 Y-3.34610
G01 X-3.87337 Y-3.34724
G01 X-3.87334 Y-3.37114
G01 X-3.87292 Y-3.37493
G01 X-3.87186 Y-3.37859
G01 X-3.87126 Y-3.38001
G01 X-3.86921 Y-3.38367
G01 X-3.86653 Y-3.38690
G01 X-3.83752 Y-3.41585
G01 X-3.83455 Y-3.41823
G01 X-3.83051 Y-3.42039
G01 X-3.82613 Y-3.42172
G01 X-3.82234 Y-3.42213
G01 X-3.34933 Y-3.42217
G01 X-3.34477 Y-3.42172
G01 X-3.34111 Y-3.42065
G01 X-3.33968 Y-3.42006
G01 X-3.33634 Y-3.41823
G01 X-3.33280 Y-3.41533
G01 X-3.15135 Y-3.23387
G01 X-3.14871 Y-3.23061
G01 X-3.14655 Y-3.22657
G01 X-3.14522 Y-3.22218
G01 X-3.14477 Y-3.21762
G01 X-3.14871 Y-3.21762
G01 X-3.14908 Y-3.22141
G01 X-3.15019 Y-3.22506
G01 X-3.15199 Y-3.22842
G01 X-3.15440 Y-3.23137
G01 X-3.33558 Y-3.41254
G01 X-3.33853 Y-3.41496
G01 X-3.34154 Y-3.41659
G01 X-3.34592 Y-3.41792
G01 X-3.34933 Y-3.41824
G01 X-3.82157 Y-3.41824
G01 X-3.82498 Y-3.41792
G01 X-3.82936 Y-3.41659
G01 X-3.83237 Y-3.41496
G01 X-3.83503 Y-3.41280
G01 X-3.86374 Y-3.38411
G01 X-3.86616 Y-3.38117
G01 X-3.86809 Y-3.37744
G01 X-3.86906 Y-3.37416
G01 X-3.86942 Y-3.37075
G01 X-3.86944 Y-3.34331
G01 X-3.88781 Y-3.34328
G01 X-3.88937 Y-3.34278
G01 X-3.89033 Y-3.34200
G01 X-3.89100 Y-3.34097
G01 X-3.89134 Y-3.33937
G01 X-3.89134 Y-3.31944
G01 X-4.00866 Y-3.31944
G01 X-4.00868 Y-3.33978
G01 X-4.00900 Y-3.34097
G01 X-4.00967 Y-3.34200
G01 X-4.01028 Y-3.34255
G01 X-4.01138 Y-3.34311
G01 X-4.01260 Y-3.34331
G01 X-4.08740 Y-3.34331
G01 X-4.08900 Y-3.34297
G01 X-4.08971 Y-3.34255
G01 X-4.09059 Y-3.34168
G01 X-4.09115 Y-3.34059
G01 X-4.09134 Y-3.33937
G01 X-4.09134 Y-3.26063
G01 X-4.09115 Y-3.25941
G01 X-4.09059 Y-3.25832
G01 X-4.08971 Y-3.25744
G01 X-4.08862 Y-3.25689
G01 X-4.08740 Y-3.25669
G01 X-4.01260 Y-3.25669
G01 X-4.01138 Y-3.25689
G01 X-4.01028 Y-3.25744
G01 X-4.00967 Y-3.25800
G01 X-4.00900 Y-3.25903
G01 X-4.00868 Y-3.26022
G01 X-4.00866 Y-3.28056
G01 X-3.89134 Y-3.28056
G01 X-3.89132 Y-3.26022
G01 X-3.89100 Y-3.25903
G01 X-3.89033 Y-3.25800
G01 X-3.88971 Y-3.25744
G01 X-3.88862 Y-3.25689
G01 X-3.88740 Y-3.25669
G01 X-3.81260 Y-3.25669
G01 X-3.81100 Y-3.25703
G01 X-3.80967 Y-3.25800
G01 X-3.80900 Y-3.25903
G01 X-3.80866 Y-3.26063
G01 X-3.80875 Y-3.34019
G01 X-3.80919 Y-3.34134
G01 X-3.80996 Y-3.34230
G01 X-3.81100 Y-3.34297
G01 X-3.81219 Y-3.34328
G01 X-3.83056 Y-3.34331
G01 X-3.83056 Y-3.36232
G01 X-3.81352 Y-3.37936
G01 X-3.35738 Y-3.37936
G01 X-3.18759 Y-3.20957
G01 X-3.18759 Y-2.81876
G01 X-3.21876 Y-2.78759
G01 X-3.57295 Y-2.78759
G01 X-3.57712 Y-2.78712
G01 X-3.58039 Y-2.78611
G01 X-3.58342 Y-2.78451
G01 X-3.58669 Y-2.78189
G01 X-3.72315 Y-2.64544
G01 X-3.74216 Y-2.64544
G01 X-3.74216 Y-2.69490
G01 X-3.74235 Y-2.69612
G01 X-3.74291 Y-2.69721
G01 X-3.74378 Y-2.69808
G01 X-3.74488 Y-2.69864
G01 X-3.74610 Y-2.69884
G01 X-3.88390 Y-2.69884
G01 X-3.88550 Y-2.69850
G01 X-3.88621 Y-2.69808
G01 X-3.88708 Y-2.69721
G01 X-3.88764 Y-2.69612
G01 X-3.88784 Y-2.69490
G01 X-3.88784 Y-2.58065
G01 X-3.92716 Y-2.54133
G01 X-3.92718 Y-2.57721
G01 X-3.92750 Y-2.57840
G01 X-3.92817 Y-2.57943
G01 X-3.92913 Y-2.58021
G01 X-3.93028 Y-2.58065
G01 X-4.06890 Y-2.58074
G01 X-4.07012 Y-2.58054
G01 X-4.07087 Y-2.58021
G01 X-4.07209 Y-2.57911
G01 X-4.07264 Y-2.57802
G01 X-4.07284 Y-2.57680
G01 X-4.07284 Y-2.43900
G01 X-4.07250 Y-2.43740
G01 X-4.07182 Y-2.43636
G01 X-4.07087 Y-2.43559
G01 X-4.06931 Y-2.43508
G01 X-3.93110 Y-2.43506
G01 X-3.92988 Y-2.43526
G01 X-3.92913 Y-2.43559
G01 X-3.92817 Y-2.43636
G01 X-3.92769 Y-2.43703
G01 X-3.92735 Y-2.43778
G01 X-3.92716 Y-2.43900
G01 X-3.92716 Y-2.48947
G01 X-3.92566 Y-2.48994
G01 X-3.92230 Y-2.49174
G01 X-3.91935 Y-2.49416
G01 X-3.86035 Y-2.55316
G01 X-3.74610 Y-2.55316
G01 X-3.74488 Y-2.55335
G01 X-3.74378 Y-2.55391
G01 X-3.74291 Y-2.55478
G01 X-3.74250 Y-2.55550
G01 X-3.74216 Y-2.55710
G01 X-3.74216 Y-2.60656
G01 X-3.71471 Y-2.60658
G01 X-3.71131 Y-2.60694
G01 X-3.70803 Y-2.60791
G01 X-3.70399 Y-2.61007
G01 X-3.70136 Y-2.61226
G01 X-3.56490 Y-2.74871
G01 X-3.21071 Y-2.74871
G01 X-3.20692 Y-2.74909
G01 X-3.20327 Y-2.75019
G01 X-3.19991 Y-2.75199
G01 X-3.19725 Y-2.75414
G01 X-3.15440 Y-2.79697
G01 X-3.15199 Y-2.79991
G01 X-3.15036 Y-2.80292
G01 X-3.14903 Y-2.80730
G01 X-3.14871 Y-2.81071
G01 X-3.14871 Y-3.21762
G01 X-3.14477 Y-3.21762
G01 X-3.14477 Y-2.81071
G01 X-3.14511 Y-2.80692
G01 X-3.14541 Y-2.80540
G01 X-3.14671 Y-2.80141
G01 X-3.14871 Y-2.79772
G01 X-3.15135 Y-2.79446
G01 X-3.19475 Y-2.75110
G01 X-3.19773 Y-2.74871
G01 X-3.20177 Y-2.74655
G01 X-3.20615 Y-2.74522
G01 X-3.21071 Y-2.74477
G01 X-3.56327 Y-2.74477
G01 X-3.56339 Y-2.74507
G01 X-3.56327 Y-2.74477
G01 X-3.69857 Y-2.60947
G01 X-3.70149 Y-2.60703
G01 X-3.70278 Y-2.60617
G01 X-3.70652 Y-2.60427
G01 X-3.71054 Y-2.60308
G01 X-3.71433 Y-2.60266
G01 X-3.73822 Y-2.60263
G01 X-3.73936 Y-2.60375
G01 X-3.73822 Y-2.60263
G01 X-3.73824 Y-2.55669
G01 X-3.73861 Y-2.55467
G01 X-3.73928 Y-2.55316
G01 X-3.74025 Y-2.55183
G01 X-3.74181 Y-2.55050
G01 X-3.74367 Y-2.54961
G01 X-3.74610 Y-2.54922
G01 X-3.85872 Y-2.54922
G01 X-3.85884 Y-2.54953
G01 X-3.85872 Y-2.54922
G01 X-3.91657 Y-2.49137
G01 X-3.92044 Y-2.48826
G01 X-3.92322 Y-2.48676
G01 X-3.92367 Y-2.48699
G01 X-3.92322 Y-2.48676
G01 X-3.92324 Y-2.43859
G01 X-3.92361 Y-2.43657
G01 X-3.92428 Y-2.43506
G01 X-3.92553 Y-2.43343
G01 X-3.92716 Y-2.43218
G01 X-3.92906 Y-2.43139
G01 X-3.93110 Y-2.43113
G01 X-4.06890 Y-2.43113
G01 X-4.07054 Y-2.43130
G01 X-4.07210 Y-2.43181
G01 X-4.07386 Y-2.43288
G01 X-4.07502 Y-2.43404
G01 X-4.07625 Y-2.43618
G01 X-4.07668 Y-2.43777
G01 X-4.07677 Y-2.43900
G01 X-4.07677 Y-2.57680
G01 X-4.07660 Y-2.57844
G01 X-4.07609 Y-2.58000
G01 X-4.07502 Y-2.58175
G01 X-4.07386 Y-2.58292
G01 X-4.07172 Y-2.58415
G01 X-4.07013 Y-2.58458
G01 X-4.06890 Y-2.58467
G01 X-3.93110 Y-2.58467
G01 X-3.92946 Y-2.58450
G01 X-3.92716 Y-2.58362
G01 X-3.92525 Y-2.58207
G01 X-3.92391 Y-2.58000
G01 X-3.92332 Y-2.57803
G01 X-3.92322 Y-2.55083
G04 P0 ( dwell for no time -- G64 should not smooth over this point )
G00 Z0.08000 ( retract )

G00 X-4.39585 Y-3.24550 ( rapid move to begin. )
G01 F180.00000
( Mill infeed pass 1/1 )
G01 Z-0.04000
G04 P0 ( dwell for no time -- G64 should not smooth over this point )
G01 F360.00000
G01 X-4.39585 Y-3.24550
G01 X-4.39632 Y-3.24966
G01 X-4.39733 Y-3.25294
G01 X-4.39912 Y-3.25630
G01 X-4.40154 Y-3.25924
G01 X-4.40633 Y-3.26400
G01 X-4.40899 Y-3.26616
G01 X-4.41235 Y-3.26796
G01 X-4.41599 Y-3.26906
G01 X-4.41979 Y-3.26944
G01 X-4.45372 Y-3.26944
G01 X-4.45608 Y-3.27227
G01 X-4.46085 Y-3.27619
G01 X-4.46629 Y-3.27910
G01 X-4.47258 Y-3.28095
G01 X-4.47835 Y-3.28150
G01 X-4.52165 Y-3.28150
G01 X-4.52780 Y-3.28089
G01 X-4.53371 Y-3.27910
G01 X-4.53946 Y-3.27596
G01 X-4.54418 Y-3.27198
G01 X-4.54784 Y-3.26750
G01 X-4.55059 Y-3.26240
G01 X-4.55254 Y-3.25614
G01 X-4.55315 Y-3.25000
G01 X-4.55254 Y-3.24385
G01 X-4.55059 Y-3.23760
G01 X-4.54784 Y-3.23250
G01 X-4.54364 Y-3.22747
G01 X-4.53915 Y-3.22381
G01 X-4.53406 Y-3.22107
G01 X-4.52817 Y-3.21920
G01 X-4.52165 Y-3.21850
G01 X-4.47835 Y-3.21850
G01 X-4.47258 Y-3.21905
G01 X-4.46629 Y-3.22090
G01 X-4.46085 Y-3.22381
G01 X-4.45608 Y-3.22773
G01 X-4.45372 Y-3.23056
G01 X-4.43472 Y-3.23056
G01 X-4.43472 Y-3.04935
G01 X-4.56374 Y-2.92033
G01 X-4.56593 Y-2.91770
G01 X-4.56809 Y-2.91366
G01 X-4.56906 Y-2.91038
G01 X-4.56942 Y-2.90698
G01 X-4.56944 Y-2.87953
G01 X-4.57600 Y-2.87950
G01 X-4.57719 Y-2.87919
G01 X-4.57822 Y-2.87852
G01 X-4.57900 Y-2.87756
G01 X-4.57951 Y-2.87600
G01 X-4.57953 Y-2.86944
G01 X-4.59195 Y-2.86944
G01 X-4.65893 Y-2.93642
G01 X-4.65753 Y-2.94165
G01 X-4.65694 Y-2.94557
G01 X-4.65672 Y-2.94952
G01 X-4.65686 Y-2.95348
G01 X-4.65735 Y-2.95740
G01 X-4.65821 Y-2.96127
G01 X-4.65938 Y-2.96494
G01 X-4.66076 Y-2.96826
G01 X-4.66259 Y-2.97177
G01 X-4.66474 Y-2.97510
G01 X-4.66711 Y-2.97814
G01 X-4.66981 Y-2.98102
G01 X-4.67277 Y-2.98365
G01 X-4.67596 Y-2.98599
G01 X-4.67935 Y-2.98804
G01 X-4.68408 Y-2.99025
G01 X-4.68920 Y-2.99191
G01 X-4.69498 Y-2.99299
G01 X-4.70036 Y-2.99328
G01 X-4.70524 Y-2.99296
G01 X-4.71044 Y-2.99200
G01 X-4.71557 Y-2.99038
G01 X-4.72089 Y-2.98790
G01 X-4.72544 Y-2.98502
G01 X-4.72951 Y-2.98165
G01 X-4.73321 Y-2.97775
G01 X-4.73634 Y-2.97350
G01 X-4.73894 Y-2.96890
G01 X-4.74098 Y-2.96391
G01 X-4.74239 Y-2.95872
G01 X-4.74311 Y-2.95387
G01 X-4.74326 Y-2.94859
G01 X-4.74275 Y-2.94323
G01 X-4.74158 Y-2.93797
G01 X-4.73961 Y-2.93255
G01 X-4.73714 Y-2.92777
G01 X-4.73415 Y-2.92341
G01 X-4.73058 Y-2.91938
G01 X-4.72653 Y-2.91581
G01 X-4.72180 Y-2.91261
G01 X-4.71678 Y-2.91011
G01 X-4.71148 Y-2.90827
G01 X-4.70588 Y-2.90712
G01 X-4.70019 Y-2.90672
G01 X-4.69459 Y-2.90706
G01 X-4.68958 Y-2.90799
G01 X-4.68646 Y-2.90897
G01 X-4.61374 Y-2.83625
G01 X-4.61080 Y-2.83384
G01 X-4.60744 Y-2.83204
G01 X-4.60341 Y-2.83088
G01 X-4.60000 Y-2.83056
G01 X-4.57953 Y-2.83056
G01 X-4.57953 Y-2.82441
G01 X-4.57933 Y-2.82319
G01 X-4.57900 Y-2.82244
G01 X-4.57822 Y-2.82148
G01 X-4.57719 Y-2.82081
G01 X-4.57600 Y-2.82049
G01 X-4.52441 Y-2.82047
G01 X-4.52319 Y-2.82066
G01 X-4.52210 Y-2.82122
G01 X-4.52100 Y-2.82244
G01 X-4.52056 Y-2.82359
G01 X-4.52047 Y-2.82441
G01 X-4.52049 Y-2.87600
G01 X-4.52081 Y-2.87719
G01 X-4.52148 Y-2.87822
G01 X-4.52244 Y-2.87900
G01 X-4.52319 Y-2.87933
G01 X-4.52441 Y-2.87953
G01 X-4.53056 Y-2.87953
G01 X-4.53056 Y-2.89854
G01 X-4.40154 Y-3.02756
G01 X-4.39912 Y-3.03050
G01 X-4.39720 Y-3.03423
G01 X-4.39622 Y-3.03751
G01 X-4.39585 Y-3.04130
G01 X-4.39585 Y-3.24550
G01 X-4.39191 Y-3.24550
G01 X-4.39191 Y-3.04130
G01 X-4.39225 Y-3.03751
G01 X-4.39255 Y-3.03599
G01 X-4.39369 Y-3.03236
G01 X-4.39545 Y-3.02898
G01 X-4.39631 Y-3.02770
G01 X-4.39876 Y-3.02477
G01 X-4.52663 Y-2.89691
G01 X-4.52693 Y-2.89703
G01 X-4.52663 Y-2.89691
G01 X-4.52663 Y-2.88346
G01 X-4.52772 Y-2.88242
G01 X-4.52663 Y-2.88346
G01 X-4.52318 Y-2.88337
G01 X-4.52083 Y-2.88261
G01 X-4.51914 Y-2.88144
G01 X-4.51781 Y-2.87988
G01 X-4.51692 Y-2.87802
G01 X-4.51658 Y-2.87641
G01 X-4.51655 Y-2.82400
G01 X-4.51680 Y-2.82237
G01 X-4.51722 Y-2.82121
G01 X-4.51781 Y-2.82012
G01 X-4.51884 Y-2.81884
G01 X-4.52012 Y-2.81780
G01 X-4.52121 Y-2.81722
G01 X-4.52237 Y-2.81680
G01 X-4.52400 Y-2.81655
G01 X-4.57641 Y-2.81658
G01 X-4.57802 Y-2.81692
G01 X-4.57988 Y-2.81780
G01 X-4.58144 Y-2.81914
G01 X-4.58261 Y-2.82083
G01 X-4.58337 Y-2.82318
G01 X-4.58346 Y-2.82662
G01 X-4.58244 Y-2.82767
G01 X-4.58346 Y-2.82662
G01 X-4.60039 Y-2.82664
G01 X-4.60456 Y-2.82707
G01 X-4.60930 Y-2.82856
G01 X-4.61299 Y-2.83056
G01 X-4.61653 Y-2.83347
G01 X-4.68754 Y-2.90448
G01 X-4.68739 Y-2.90498
G01 X-4.68754 Y-2.90448
G01 X-4.68835 Y-2.90423
G01 X-4.69387 Y-2.90319
G01 X-4.70031 Y-2.90278
G01 X-4.70653 Y-2.90323
G01 X-4.71280 Y-2.90454
G01 X-4.71857 Y-2.90658
G01 X-4.72388 Y-2.90926
G01 X-4.72916 Y-2.91286
G01 X-4.73356 Y-2.91678
G01 X-4.73771 Y-2.92159
G01 X-4.74066 Y-2.92598
G01 X-4.74312 Y-2.93077
G01 X-4.74529 Y-2.93663
G01 X-4.74666 Y-2.94284
G01 X-4.74719 Y-2.94819
G01 X-4.74708 Y-2.95348
G01 X-4.74620 Y-2.95977
G01 X-4.74446 Y-2.96589
G01 X-4.74237 Y-2.97085
G01 X-4.73976 Y-2.97545
G01 X-4.73607 Y-2.98048
G01 X-4.73164 Y-2.98504
G01 X-4.72754 Y-2.98836
G01 X-4.72299 Y-2.99124
G01 X-4.71724 Y-2.99397
G01 X-4.71117 Y-2.99587
G01 X-4.70598 Y-2.99684
G01 X-4.70061 Y-2.99721
G01 X-4.69425 Y-2.99687
G01 X-4.68800 Y-2.99566
G01 X-4.68288 Y-2.99401
G01 X-4.67770 Y-2.99163
G01 X-4.67394 Y-2.98938
G01 X-4.67073 Y-2.98705
G01 X-4.66721 Y-2.98398
G01 X-4.66424 Y-2.98085
G01 X-4.66164 Y-2.97754
G01 X-4.65928 Y-2.97392
G01 X-4.65727 Y-2.97010
G01 X-4.65550 Y-2.96578
G01 X-4.65435 Y-2.96210
G01 X-4.65351 Y-2.95824
G01 X-4.65295 Y-2.95396
G01 X-4.65278 Y-2.94928
G01 X-4.65304 Y-2.94497
G01 X-4.65370 Y-2.94070
G01 X-4.65448 Y-2.93754
G01 X-4.65498 Y-2.93738
G01 X-4.65448 Y-2.93754
G01 X-4.59032 Y-2.87337
G01 X-4.59044 Y-2.87307
G01 X-4.59032 Y-2.87337
G01 X-4.58346 Y-2.87337
G01 X-4.58251 Y-2.87233
G01 X-4.58346 Y-2.87337
G01 X-4.58337 Y-2.87682
G01 X-4.58261 Y-2.87916
G01 X-4.58116 Y-2.88116
G01 X-4.57916 Y-2.88261
G01 X-4.57682 Y-2.88337
G01 X-4.57337 Y-2.88346
G01 X-4.57236 Y-2.88252
G01 X-4.57337 Y-2.88346
G01 X-4.57334 Y-2.90736
G01 X-4.57292 Y-2.91115
G01 X-4.57173 Y-2.91517
G01 X-4.56983 Y-2.91891
G01 X-4.56897 Y-2.92020
G01 X-4.56653 Y-2.92312
G01 X-4.43866 Y-3.05098
G01 X-4.43836 Y-3.05086
G01 X-4.43866 Y-3.05098
G01 X-4.43866 Y-3.22662
G01 X-4.43751 Y-3.22778
G01 X-4.43866 Y-3.22662
G01 X-4.45186 Y-3.22662
G01 X-4.45196 Y-3.22689
G01 X-4.45186 Y-3.22662
G01 X-4.45357 Y-3.22468
G01 X-4.45899 Y-3.22033
G01 X-4.46479 Y-3.21726
G01 X-4.47068 Y-3.21543
G01 X-4.47220 Y-3.21513
G01 X-4.47835 Y-3.21457
G01 X-4.52204 Y-3.21458
G01 X-4.52857 Y-3.21525
G01 X-4.53449 Y-3.21700
G01 X-4.53591 Y-3.21759
G01 X-4.54134 Y-3.22054
G01 X-4.54671 Y-3.22494
G01 X-4.55112 Y-3.23031
G01 X-4.55439 Y-3.23644
G01 X-4.55640 Y-3.24309
G01 X-4.55709 Y-3.25000
G01 X-4.55640 Y-3.25691
G01 X-4.55465 Y-3.26283
G01 X-4.55406 Y-3.26426
G01 X-4.55112 Y-3.26968
G01 X-4.54723 Y-3.27448
G01 X-4.54613 Y-3.27557
G01 X-4.54196 Y-3.27900
G01 X-4.54068 Y-3.27986
G01 X-4.53521 Y-3.28274
G01 X-4.52894 Y-3.28467
G01 X-4.52165 Y-3.28543
G01 X-4.47835 Y-3.28543
G01 X-4.47220 Y-3.28486
G01 X-4.47068 Y-3.28456
G01 X-4.46479 Y-3.28274
G01 X-4.45899 Y-3.27967
G01 X-4.45357 Y-3.27532
G01 X-4.45186 Y-3.27337
G01 X-4.45196 Y-3.27312
G01 X-4.45186 Y-3.27337
G01 X-4.41940 Y-3.27336
G01 X-4.41523 Y-3.27292
G01 X-4.41049 Y-3.27144
G01 X-4.40680 Y-3.26943
G01 X-4.40354 Y-3.26679
G01 X-4.39849 Y-3.26174
G01 X-4.39607 Y-3.25880
G01 X-4.39402 Y-3.25514
G01 X-4.39343 Y-3.25372
G01 X-4.39236 Y-3.25006
G01 X-4.39191 Y-3.24550
G04 P0 ( dwell for no time -- G64 should not smooth over this point )
G00 Z0.08000 ( retract )

G00 X-4.10867 Y-3.29924 ( rapid move to begin. )
G01 F180.00000
( Mill infeed pass 1/1 )
G01 Z-0.04000
G04 P0 ( dwell for no time -- G64 should not smooth over this point )
G01 F360.00000
G01 X-4.10867 Y-3.29924
G01 X-4.10895 Y-3.29512
G01 X-4.10964 Y-3.29109
G01 X-4.11071 Y-3.28715
G01 X-4.11213 Y-3.28343
G01 X-4.11390 Y-3.27987
G01 X-4.11606 Y-3.27640
G01 X-4.11849 Y-3.27325
G01 X-4.12128 Y-3.27027
G01 X-4.12436 Y-3.26758
G01 X-4.12769 Y-3.26520
G01 X-4.13114 Y-3.26322
G01 X-4.13486 Y-3.26154
G01 X-4.13863 Y-3.26026
G01 X-4.14299 Y-3.25926
G01 X-4.14705 Y-3.25877
G01 X-4.15117 Y-3.25868
G01 X-4.15601 Y-3.25911
G01 X-4.16077 Y-3.26010
G01 X-4.16538 Y-3.26164
G01 X-4.16946 Y-3.26354
G01 X-4.17399 Y-3.26634
G01 X-4.17786 Y-3.26946
G01 X-4.18125 Y-3.27295
G01 X-4.18427 Y-3.27689
G01 X-4.18674 Y-3.28107
G01 X-4.18871 Y-3.28552
G01 X-4.19014 Y-3.29016
G01 X-4.19102 Y-3.29493
G01 X-4.19133 Y-3.29967
G01 X-4.19110 Y-3.30440
G01 X-4.19031 Y-3.30905
G01 X-4.45393 Y-3.30905
G01 X-4.45608 Y-3.30647
G01 X-4.46085 Y-3.30255
G01 X-4.46629 Y-3.29964
G01 X-4.47220 Y-3.29785
G01 X-4.47835 Y-3.29724
G01 X-4.52204 Y-3.29726
G01 X-4.52780 Y-3.29785
G01 X-4.53371 Y-3.29964
G01 X-4.53915 Y-3.30255
G01 X-4.54392 Y-3.30647
G01 X-4.54784 Y-3.31124
G01 X-4.55075 Y-3.31669
G01 X-4.55254 Y-3.32260
G01 X-4.55313 Y-3.32835
G01 X-4.55254 Y-3.33488
G01 X-4.55075 Y-3.34079
G01 X-4.54784 Y-3.34624
G01 X-4.54392 Y-3.35101
G01 X-4.53915 Y-3.35493
G01 X-4.53371 Y-3.35784
G01 X-4.52780 Y-3.35963
G01 X-4.52204 Y-3.36022
G01 X-4.47835 Y-3.36024
G01 X-4.47220 Y-3.35963
G01 X-4.46629 Y-3.35784
G01 X-4.46085 Y-3.35493
G01 X-4.45608 Y-3.35101
G01 X-4.45393 Y-3.34843
G01 X-4.17835 Y-3.34841
G01 X-4.17490 Y-3.34805
G01 X-4.17086 Y-3.34676
G01 X-4.16749 Y-3.34488
G01 X-4.16482 Y-3.34266
G01 X-4.16173 Y-3.33957
G01 X-4.15914 Y-3.34031
G01 X-4.15423 Y-3.34111
G01 X-4.14916 Y-3.34132
G01 X-4.14420 Y-3.34092
G01 X-4.13979 Y-3.34005
G01 X-4.13496 Y-3.33850
G01 X-4.13035 Y-3.33636
G01 X-4.12612 Y-3.33374
G01 X-4.12225 Y-3.33063
G01 X-4.11870 Y-3.32700
G01 X-4.11568 Y-3.32304
G01 X-4.11312 Y-3.31866
G01 X-4.11114 Y-3.31409
G01 X-4.10971 Y-3.30923
G01 X-4.10888 Y-3.30421
G01 X-4.10867 Y-3.29924
G01 X-4.10474 Y-3.29938
G01 X-4.10493 Y-3.30436
G01 X-4.10581 Y-3.30985
G01 X-4.10735 Y-3.31519
G01 X-4.10948 Y-3.32021
G01 X-4.11226 Y-3.32502
G01 X-4.11555 Y-3.32937
G01 X-4.11940 Y-3.33337
G01 X-4.12363 Y-3.33681
G01 X-4.12824 Y-3.33971
G01 X-4.13328 Y-3.34207
G01 X-4.13856 Y-3.34381
G01 X-4.14344 Y-3.34478
G01 X-4.14934 Y-3.34527
G01 X-4.15441 Y-3.34505
G01 X-4.16026 Y-3.34410
G01 X-4.16060 Y-3.34401
G01 X-4.16071 Y-3.34360
G01 X-4.16060 Y-3.34401
G01 X-4.16232 Y-3.34571
G01 X-4.16499 Y-3.34792
G01 X-4.16594 Y-3.34859
G01 X-4.16935 Y-3.35041
G01 X-4.17413 Y-3.35191
G01 X-4.17835 Y-3.35235
G01 X-4.45207 Y-3.35236
G01 X-4.45216 Y-3.35211
G01 X-4.45207 Y-3.35236
G01 X-4.45357 Y-3.35406
G01 X-4.45899 Y-3.35841
G01 X-4.46479 Y-3.36148
G01 X-4.47181 Y-3.36356
G01 X-4.47835 Y-3.36417
G01 X-4.52204 Y-3.36416
G01 X-4.52857 Y-3.36349
G01 X-4.53521 Y-3.36148
G01 X-4.54134 Y-3.35820
G01 X-4.54671 Y-3.35379
G01 X-4.55112 Y-3.34843
G01 X-4.55439 Y-3.34230
G01 X-4.55640 Y-3.33565
G01 X-4.55708 Y-3.32913
G01 X-4.55640 Y-3.32183
G01 X-4.55439 Y-3.31518
G01 X-4.55112 Y-3.30905
G01 X-4.54671 Y-3.30369
G01 X-4.54134 Y-3.29928
G01 X-4.53521 Y-3.29600
G01 X-4.52857 Y-3.29399
G01 X-4.52204 Y-3.29332
G01 X-4.47835 Y-3.29331
G01 X-4.47181 Y-3.29392
G01 X-4.46479 Y-3.29600
G01 X-4.45899 Y-3.29907
G01 X-4.45357 Y-3.30342
G01 X-4.45207 Y-3.30511
G01 X-4.45216 Y-3.30537
G01 X-4.45207 Y-3.30511
G01 X-4.19497 Y-3.30511
G01 X-4.19383 Y-3.30626
G01 X-4.19497 Y-3.30511
G01 X-4.19527 Y-3.29939
G01 X-4.19490 Y-3.29420
G01 X-4.19391 Y-3.28898
G01 X-4.19231 Y-3.28390
G01 X-4.19013 Y-3.27904
G01 X-4.18739 Y-3.27447
G01 X-4.18436 Y-3.27054
G01 X-4.17996 Y-3.26607
G01 X-4.17607 Y-3.26299
G01 X-4.17112 Y-3.25997
G01 X-4.16662 Y-3.25788
G01 X-4.16155 Y-3.25622
G01 X-4.15633 Y-3.25517
G01 X-4.15149 Y-3.25476
G01 X-4.14655 Y-3.25486
G01 X-4.14211 Y-3.25542
G01 X-4.13775 Y-3.25641
G01 X-4.13361 Y-3.25780
G01 X-4.12953 Y-3.25962
G01 X-4.12573 Y-3.26178
G01 X-4.12208 Y-3.26436
G01 X-4.11870 Y-3.26729
G01 X-4.11562 Y-3.27053
G01 X-4.11295 Y-3.27398
G01 X-4.11056 Y-3.27776
G01 X-4.10860 Y-3.28166
G01 X-4.10703 Y-3.28573
G01 X-4.10583 Y-3.29003
G01 X-4.10507 Y-3.29445
G01 X-4.10474 Y-3.29938
G04 P0 ( dwell for no time -- G64 should not smooth over this point )
G00 Z0.08000 ( retract )

G00 X-3.34685 Y-3.32874 ( rapid move to begin. )
G01 F180.00000
( Mill infeed pass 1/1 )
G01 Z-0.04000
G04 P0 ( dwell for no time -- G64 should not smooth over this point )
G01 F360.00000
G01 X-3.34685 Y-3.32874
G01 X-3.34746 Y-3.32260
G01 X-3.34925 Y-3.31669
G01 X-3.35216 Y-3.31124
G01 X-3.35582 Y-3.30675
G01 X-3.36085 Y-3.30255
G01 X-3.36594 Y-3.29981
G01 X-3.37258 Y-3.29779
G01 X-3.37835 Y-3.29724
G01 X-3.42165 Y-3.29724
G01 X-3.42780 Y-3.29785
G01 X-3.43371 Y-3.29964
G01 X-3.43915 Y-3.30255
G01 X-3.44392 Y-3.30647
G01 X-3.44607 Y-3.30905
G01 X-3.66778 Y-3.30905
G01 X-3.70914 Y-3.29396
G01 X-3.71018 Y-3.28891
G01 X-3.71135 Y-3.28534
G01 X-3.71269 Y-3.28221
G01 X-3.71464 Y-3.27859
G01 X-3.71673 Y-3.27547
G01 X-3.71886 Y-3.27282
G01 X-3.72171 Y-3.26986
G01 X-3.72457 Y-3.26742
G01 X-3.72763 Y-3.26524
G01 X-3.73088 Y-3.26335
G01 X-3.73395 Y-3.26191
G01 X-3.73782 Y-3.26050
G01 X-3.74145 Y-3.25956
G01 X-3.74516 Y-3.25895
G01 X-3.74892 Y-3.25868
G01 X-3.75262 Y-3.25875
G01 X-3.75706 Y-3.25927
G01 X-3.76058 Y-3.26004
G01 X-3.76447 Y-3.26128
G01 X-3.76857 Y-3.26307
G01 X-3.77180 Y-3.26488
G01 X-3.77507 Y-3.26714
G01 X-3.77819 Y-3.26977
G01 X-3.78097 Y-3.27263
G01 X-3.78375 Y-3.27613
G01 X-3.78594 Y-3.27958
G01 X-3.78762 Y-3.28288
G01 X-3.78909 Y-3.28658
G01 X-3.79023 Y-3.29050
G01 X-3.79102 Y-3.29490
G01 X-3.79132 Y-3.29897
G01 X-3.79126 Y-3.30247
G01 X-3.79083 Y-3.30641
G01 X-3.78996 Y-3.31056
G01 X-3.78892 Y-3.31391
G01 X-3.78746 Y-3.31748
G01 X-3.78541 Y-3.32132
G01 X-3.78348 Y-3.32424
G01 X-3.78107 Y-3.32726
G01 X-3.77812 Y-3.33030
G01 X-3.77508 Y-3.33286
G01 X-3.77190 Y-3.33506
G01 X-3.76885 Y-3.33678
G01 X-3.76524 Y-3.33842
G01 X-3.76122 Y-3.33978
G01 X-3.75782 Y-3.34059
G01 X-3.75399 Y-3.34114
G01 X-3.74950 Y-3.34133
G01 X-3.74498 Y-3.34103
G01 X-3.74052 Y-3.34023
G01 X-3.73617 Y-3.33895
G01 X-3.73200 Y-3.33721
G01 X-3.72803 Y-3.33501
G01 X-3.72434 Y-3.33240
G01 X-3.72266 Y-3.33093
G01 X-3.67801 Y-3.34723
G01 X-3.67469 Y-3.34813
G01 X-3.67160 Y-3.34841
G01 X-3.44607 Y-3.34843
G01 X-3.44392 Y-3.35101
G01 X-3.43915 Y-3.35493
G01 X-3.43371 Y-3.35784
G01 X-3.42780 Y-3.35963
G01 X-3.42165 Y-3.36024
G01 X-3.37835 Y-3.36024
G01 X-3.37220 Y-3.35963
G01 X-3.36629 Y-3.35784
G01 X-3.36085 Y-3.35493
G01 X-3.35636 Y-3.35127
G01 X-3.35216 Y-3.34624
G01 X-3.34925 Y-3.34079
G01 X-3.34746 Y-3.33488
G01 X-3.34685 Y-3.32874
G01 X-3.34291 Y-3.32874
G01 X-3.34359 Y-3.33565
G01 X-3.34561 Y-3.34230
G01 X-3.34888 Y-3.34843
G01 X-3.35329 Y-3.35379
G01 X-3.35866 Y-3.35820
G01 X-3.36479 Y-3.36148
G01 X-3.37143 Y-3.36349
G01 X-3.37796 Y-3.36416
G01 X-3.42165 Y-3.36417
G01 X-3.42819 Y-3.36356
G01 X-3.43521 Y-3.36148
G01 X-3.44101 Y-3.35841
G01 X-3.44643 Y-3.35406
G01 X-3.44793 Y-3.35236
G01 X-3.44784 Y-3.35211
G01 X-3.44793 Y-3.35236
G01 X-3.67195 Y-3.35233
G01 X-3.67560 Y-3.35196
G01 X-3.67936 Y-3.35093
G01 X-3.72182 Y-3.33543
G01 X-3.72187 Y-3.33499
G01 X-3.72182 Y-3.33543
G01 X-3.72538 Y-3.33799
G01 X-3.73046 Y-3.34083
G01 X-3.73463 Y-3.34259
G01 X-3.73897 Y-3.34390
G01 X-3.74384 Y-3.34484
G01 X-3.74921 Y-3.34527
G01 X-3.75454 Y-3.34504
G01 X-3.75836 Y-3.34450
G01 X-3.76213 Y-3.34361
G01 X-3.76685 Y-3.34202
G01 X-3.77047 Y-3.34038
G01 X-3.77384 Y-3.33848
G01 X-3.77792 Y-3.33563
G01 X-3.78095 Y-3.33305
G01 X-3.78390 Y-3.33001
G01 X-3.78656 Y-3.32671
G01 X-3.78870 Y-3.32349
G01 X-3.79109 Y-3.31900
G01 X-3.79257 Y-3.31542
G01 X-3.79382 Y-3.31138
G01 X-3.79469 Y-3.30723
G01 X-3.79515 Y-3.30328
G01 X-3.79523 Y-3.29828
G01 X-3.79490 Y-3.29420
G01 X-3.79411 Y-3.28980
G01 X-3.79289 Y-3.28550
G01 X-3.79129 Y-3.28143
G01 X-3.78926 Y-3.27745
G01 X-3.78684 Y-3.27368
G01 X-3.78407 Y-3.27018
G01 X-3.78103 Y-3.26703
G01 X-3.77763 Y-3.26414
G01 X-3.77405 Y-3.26164
G01 X-3.77015 Y-3.25945
G01 X-3.76605 Y-3.25766
G01 X-3.76179 Y-3.25629
G01 X-3.75752 Y-3.25535
G01 X-3.75308 Y-3.25483
G01 X-3.74825 Y-3.25476
G01 X-3.74451 Y-3.25506
G01 X-3.74045 Y-3.25574
G01 X-3.73647 Y-3.25679
G01 X-3.73260 Y-3.25820
G01 X-3.72888 Y-3.25995
G01 X-3.72533 Y-3.26203
G01 X-3.72199 Y-3.26443
G01 X-3.71914 Y-3.26688
G01 X-3.71602 Y-3.27008
G01 X-3.71344 Y-3.27329
G01 X-3.71117 Y-3.27672
G01 X-3.70938 Y-3.28002
G01 X-3.70760 Y-3.28412
G01 X-3.70643 Y-3.28769
G01 X-3.70565 Y-3.29104
G01 X-3.70600 Y-3.29137
G01 X-3.70565 Y-3.29104
G01 X-3.66709 Y-3.30518
G01 X-3.44793 Y-3.30511
G01 X-3.44779 Y-3.30545
G01 X-3.44793 Y-3.30511
G01 X-3.44643 Y-3.30342
G01 X-3.44101 Y-3.29907
G01 X-3.43521 Y-3.29600
G01 X-3.42857 Y-3.29399
G01 X-3.42165 Y-3.29331
G01 X-3.37796 Y-3.29332
G01 X-3.37143 Y-3.29399
G01 X-3.36479 Y-3.29600
G01 X-3.35866 Y-3.29928
G01 X-3.35329 Y-3.30369
G01 X-3.34888 Y-3.30905
G01 X-3.34561 Y-3.31518
G01 X-3.34359 Y-3.32183
G01 X-3.34291 Y-3.32874

G04 P0 ( dwell for no time -- G64 should not smooth over this point )
G00 Z1.000000 ( retract )

M5 ( Spindle off. )
G04 P1.000000
M9 ( Coolant off. )
M2 ( Program end. )

