( pcb2gcode 1.3.2 )
( Software-independent Gcode )

G94 ( Inches per minute feed rate. )
G20 ( Units == INCHES. )

G90 ( Absolute coordinates. )
G00 S12000 ( RPM spindle speed. )
G64 P0.00040 ( set maximum deviation from commanded toolpath )
G01 F360.00000 ( Feedrate. )


G00 Z1.00000 (Retract to tool change height)
T0
M5      (Spindle stop.)
G04 P1.00000 (Wait for spindle to stop)
(MSG, Change tool bit to mill diameter 0.00787in)
M6      (Tool change.)
M0      (Temporary machine stop.)
M3 ( Spindle on clockwise. )
G04 P1.00000 (Wait for spindle to get up to speed)
G04 P0 ( dwell for no time -- G64 should not smooth over this point )
G00 Z0.08000 ( retract )

G00 X-3.37018 Y-3.29429 ( rapid move to begin. )
G01 F180.00000
G01 Z-0.04000
G04 P0 ( dwell for no time -- G64 should not smooth over this point )
G01 F360.00000
G01 X-3.37018 Y-3.29429
G01 X-3.37140 Y-3.29804
G01 X-3.36592 Y-3.29982
G01 X-3.36018 Y-3.30303
G01 X-3.35523 Y-3.30737
G01 X-3.35088 Y-3.31336
G01 X-3.34829 Y-3.31941
G01 X-3.34702 Y-3.32545
G01 X-3.34709 Y-3.33244
G01 X-3.34854 Y-3.33886
G01 X-3.35088 Y-3.34412
G01 X-3.35468 Y-3.34949
G01 X-3.35983 Y-3.35422
G01 X-3.36517 Y-3.35733
G01 X-3.37221 Y-3.35961
G01 X-3.37835 Y-3.36024
G01 X-3.42165 Y-3.36024
G01 X-3.42860 Y-3.35944
G01 X-3.43483 Y-3.35733
G01 X-3.44017 Y-3.35422
G01 X-3.44609 Y-3.34843
G01 X-3.67435 Y-3.34817
G01 X-3.72262 Y-3.33095
G01 X-3.72933 Y-3.33580
G01 X-3.73762 Y-3.33942
G01 X-3.74568 Y-3.34111
G01 X-3.75473 Y-3.34105
G01 X-3.76316 Y-3.33917
G01 X-3.77067 Y-3.33580
G01 X-3.77766 Y-3.33072
G01 X-3.78344 Y-3.32430
G01 X-3.78791 Y-3.31643
G01 X-3.79043 Y-3.30859
G01 X-3.79132 Y-3.30041
G01 X-3.79050 Y-3.29181
G01 X-3.78791 Y-3.28357
G01 X-3.78367 Y-3.27605
G01 X-3.77734 Y-3.26902
G01 X-3.77030 Y-3.26401
G01 X-3.76316 Y-3.26083
G01 X-3.75432 Y-3.25889
G01 X-3.74609 Y-3.25887
G01 X-3.73684 Y-3.26083
G01 X-3.72899 Y-3.26442
G01 X-3.72234 Y-3.26928
G01 X-3.71656 Y-3.27570
G01 X-3.71242 Y-3.28282
G01 X-3.70967 Y-3.29101
G01 X-3.70928 Y-3.29391
G01 X-3.66778 Y-3.30905
G01 X-3.44609 Y-3.30905
G01 X-3.43982 Y-3.30303
G01 X-3.43408 Y-3.29982
G01 X-3.42779 Y-3.29787
G01 X-3.42165 Y-3.29724
G01 X-3.37835 Y-3.29724
G01 X-3.37140 Y-3.29804
G01 X-3.37018 Y-3.29429
G01 X-3.36320 Y-3.29674
G01 X-3.35752 Y-3.30007
G01 X-3.35260 Y-3.30445
G01 X-3.34811 Y-3.31033
G01 X-3.34443 Y-3.31859
G01 X-3.34311 Y-3.32504
G01 X-3.34311 Y-3.33244
G01 X-3.34443 Y-3.33889
G01 X-3.34729 Y-3.34572
G01 X-3.35149 Y-3.35181
G01 X-3.35688 Y-3.35689
G01 X-3.36470 Y-3.36140
G01 X-3.37098 Y-3.36340
G01 X-3.37835 Y-3.36417
G01 X-3.42165 Y-3.36417
G01 X-3.42902 Y-3.36340
G01 X-3.43530 Y-3.36140
G01 X-3.44179 Y-3.35785
G01 X-3.44800 Y-3.35236
G01 X-3.67195 Y-3.35233
G01 X-3.67936 Y-3.35093
G01 X-3.72200 Y-3.33537
G01 X-3.72736 Y-3.33921
G01 X-3.73680 Y-3.34327
G01 X-3.74527 Y-3.34503
G01 X-3.75473 Y-3.34503
G01 X-3.76319 Y-3.34327
G01 X-3.77190 Y-3.33958
G01 X-3.78088 Y-3.33306
G01 X-3.78611 Y-3.32725
G01 X-3.79099 Y-3.31915
G01 X-3.79429 Y-3.30941
G01 X-3.79523 Y-3.30082
G01 X-3.79429 Y-3.29059
G01 X-3.79166 Y-3.28235
G01 X-3.78708 Y-3.27408
G01 X-3.78088 Y-3.26694
G01 X-3.77333 Y-3.26124
G01 X-3.76476 Y-3.25724
G01 X-3.75391 Y-3.25493
G01 X-3.74527 Y-3.25497
G01 X-3.73680 Y-3.25673
G01 X-3.72667 Y-3.26124
G01 X-3.71970 Y-3.26635
G01 X-3.71292 Y-3.27408
G01 X-3.70834 Y-3.28235
G01 X-3.70564 Y-3.29104
G01 X-3.66708 Y-3.30512
G01 X-3.44800 Y-3.30512
G01 X-3.44248 Y-3.30007
G01 X-3.43680 Y-3.29674
G01 X-3.42821 Y-3.29395
G01 X-3.42165 Y-3.29331
G01 X-3.37835 Y-3.29331
G01 X-3.37052 Y-3.29420
G01 X-3.36708 Y-3.27930
G01 X-3.37221 Y-3.28087
G01 X-3.37835 Y-3.28150
G01 X-3.42206 Y-3.28147
G01 X-3.42860 Y-3.28070
G01 X-3.43408 Y-3.27892
G01 X-3.44049 Y-3.27522
G01 X-3.44532 Y-3.27075
G01 X-3.44912 Y-3.26538
G01 X-3.45171 Y-3.25933
G01 X-3.45298 Y-3.25329
G01 X-3.45298 Y-3.24671
G01 X-3.45171 Y-3.24066
G01 X-3.44912 Y-3.23462
G01 X-3.44532 Y-3.22925
G01 X-3.43982 Y-3.22429
G01 X-3.43408 Y-3.22108
G01 X-3.42779 Y-3.21913
G01 X-3.42165 Y-3.21850
G01 X-3.37835 Y-3.21850
G01 X-3.37140 Y-3.21930
G01 X-3.36517 Y-3.22141
G01 X-3.35983 Y-3.22452
G01 X-3.35372 Y-3.23056
G01 X-3.32784 Y-3.23056
G01 X-3.28527 Y-3.18799
G01 X-3.28987 Y-3.18703
G01 X-3.32947 Y-3.22662
G01 X-3.35177 Y-3.22662
G01 X-3.35752 Y-3.22133
G01 X-3.36320 Y-3.21800
G01 X-3.37179 Y-3.21521
G01 X-3.37835 Y-3.21457
G01 X-3.42165 Y-3.21457
G01 X-3.42902 Y-3.21534
G01 X-3.43680 Y-3.21800
G01 X-3.44248 Y-3.22133
G01 X-3.44850 Y-3.22693
G01 X-3.45271 Y-3.23302
G01 X-3.45535 Y-3.23905
G01 X-3.45694 Y-3.24712
G01 X-3.45676 Y-3.25452
G01 X-3.45535 Y-3.26095
G01 X-3.45271 Y-3.26698
G01 X-3.44850 Y-3.27307
G01 X-3.44312 Y-3.27815
G01 X-3.43530 Y-3.28267
G01 X-3.42821 Y-3.28479
G01 X-3.42165 Y-3.28543
G01 X-3.37752 Y-3.28539
G01 X-3.37098 Y-3.28466
G01 X-3.36320 Y-3.28200
G01 X-3.35752 Y-3.27867
G01 X-3.35177 Y-3.27337
G01 X-3.31901 Y-3.27334
G01 X-3.31448 Y-3.27274
G01 X-3.30746 Y-3.26983
G01 X-3.30326 Y-3.26653
G01 X-3.23527 Y-3.19854
G01 X-3.18759 Y-3.20859
G01 X-3.18759 Y-3.20957
G01 X-3.35738 Y-3.37936
G01 X-3.81352 Y-3.37936
G01 X-3.83056 Y-3.36232
G01 X-3.83056 Y-3.34331
G01 X-3.81183 Y-3.34323
G01 X-3.80981 Y-3.34215
G01 X-3.80874 Y-3.34014
G01 X-3.80866 Y-3.26063
G01 X-3.80981 Y-3.25785
G01 X-3.81260 Y-3.25669
G01 X-3.88891 Y-3.25699
G01 X-3.89067 Y-3.25844
G01 X-3.89126 Y-3.25986
G01 X-3.89134 Y-3.28056
G01 X-4.00866 Y-3.28056
G01 X-4.00874 Y-3.25986
G01 X-4.00981 Y-3.25785
G01 X-4.01183 Y-3.25677
G01 X-4.08891 Y-3.25699
G01 X-4.09068 Y-3.25844
G01 X-4.09134 Y-3.26063
G01 X-4.09134 Y-3.33937
G01 X-4.09068 Y-3.34156
G01 X-4.08891 Y-3.34301
G01 X-4.08740 Y-3.34331
G01 X-4.01183 Y-3.34323
G01 X-4.00981 Y-3.34215
G01 X-4.00874 Y-3.34014
G01 X-4.00866 Y-3.31944
G01 X-3.89134 Y-3.31944
G01 X-3.89134 Y-3.33937
G01 X-3.89018 Y-3.34215
G01 X-3.88740 Y-3.34331
G01 X-3.86944 Y-3.34331
G01 X-3.86942 Y-3.37075
G01 X-3.86809 Y-3.37744
G01 X-3.86593 Y-3.38148
G01 X-3.83503 Y-3.41280
G01 X-3.82936 Y-3.41659
G01 X-3.82498 Y-3.41792
G01 X-3.34592 Y-3.41792
G01 X-3.34154 Y-3.41659
G01 X-3.33558 Y-3.41254
G01 X-3.15441 Y-3.23137
G01 X-3.15036 Y-3.22541
G01 X-3.14918 Y-3.22179
G01 X-3.14871 Y-3.21762
G01 X-3.14903 Y-2.80730
G01 X-3.15036 Y-2.80292
G01 X-3.15441 Y-2.79697
G01 X-3.19725 Y-2.75415
G01 X-3.20364 Y-2.75006
G01 X-3.21071 Y-2.74871
G01 X-3.56490 Y-2.74871
G01 X-3.70399 Y-2.61007
G01 X-3.70803 Y-2.60791
G01 X-3.71471 Y-2.60658
G01 X-3.74216 Y-2.60656
G01 X-3.74216 Y-2.55710
G01 X-3.74283 Y-2.55491
G01 X-3.74391 Y-2.55383
G01 X-3.74610 Y-2.55316
G01 X-3.86035 Y-2.55316
G01 X-3.91935 Y-2.49416
G01 X-3.92263 Y-2.49154
G01 X-3.92716 Y-2.48947
G01 X-3.92716 Y-2.43900
G01 X-3.92783 Y-2.43681
G01 X-3.92891 Y-2.43573
G01 X-3.93110 Y-2.43506
G01 X-4.06890 Y-2.43506
G01 X-4.07109 Y-2.43573
G01 X-4.07254 Y-2.43749
G01 X-4.07284 Y-2.57680
G01 X-4.07217 Y-2.57899
G01 X-4.07109 Y-2.58007
G01 X-4.06890 Y-2.58074
G01 X-3.93033 Y-2.58066
G01 X-3.92783 Y-2.57899
G01 X-3.92716 Y-2.57680
G01 X-3.92716 Y-2.54133
G01 X-3.88784 Y-2.58065
G01 X-3.88784 Y-2.69490
G01 X-3.88717 Y-2.69709
G01 X-3.88541 Y-2.69854
G01 X-3.74459 Y-2.69854
G01 X-3.74283 Y-2.69709
G01 X-3.74216 Y-2.69490
G01 X-3.74216 Y-2.64544
G01 X-3.72315 Y-2.64544
G01 X-3.58669 Y-2.78189
G01 X-3.58342 Y-2.78451
G01 X-3.57712 Y-2.78712
G01 X-3.57295 Y-2.78759
G01 X-3.21876 Y-2.78759
G01 X-3.18759 Y-2.81876
G01 X-3.18759 Y-3.20859
G01 X-3.14970 Y-3.21658
G01 X-3.14871 Y-3.21762
G01 X-3.14478 Y-3.21762
G01 X-3.14511 Y-2.80692
G01 X-3.14689 Y-2.80107
G01 X-3.15110 Y-2.79476
G01 X-3.19476 Y-2.75110
G01 X-3.19839 Y-2.74832
G01 X-3.20249 Y-2.74629
G01 X-3.21071 Y-2.74478
G01 X-3.56327 Y-2.74478
G01 X-3.70149 Y-2.60703
G01 X-3.70688 Y-2.60414
G01 X-3.71130 Y-2.60296
G01 X-3.73823 Y-2.60263
G01 X-3.73822 Y-2.55710
G01 X-3.73955 Y-2.55273
G01 X-3.74173 Y-2.55055
G01 X-3.74610 Y-2.54922
G01 X-3.85872 Y-2.54923
G01 X-3.91657 Y-2.49137
G01 X-3.92322 Y-2.48676
G01 X-3.92322 Y-2.43900
G01 X-3.92455 Y-2.43463
G01 X-3.92672 Y-2.43245
G01 X-3.93110 Y-2.43113
G01 X-4.06890 Y-2.43113
G01 X-4.07191 Y-2.43173
G01 X-4.07447 Y-2.43343
G01 X-4.07617 Y-2.43599
G01 X-4.07677 Y-2.43900
G01 X-4.07677 Y-2.57680
G01 X-4.07545 Y-2.58117
G01 X-4.07327 Y-2.58335
G01 X-4.06890 Y-2.58467
G01 X-3.92956 Y-2.58452
G01 X-3.92553 Y-2.58237
G01 X-3.92338 Y-2.57834
G01 X-3.92322 Y-2.55083
G01 X-3.89177 Y-2.58228
G01 X-3.89177 Y-2.69490
G01 X-3.89045 Y-2.69927
G01 X-3.88691 Y-2.70217
G01 X-3.88390 Y-2.70277
G01 X-3.74610 Y-2.70277
G01 X-3.74309 Y-2.70217
G01 X-3.73955 Y-2.69927
G01 X-3.73822 Y-2.69490
G01 X-3.73823 Y-2.64937
G01 X-3.72478 Y-2.64937
G01 X-3.58948 Y-2.78468
G01 X-3.58527 Y-2.78798
G01 X-3.58117 Y-2.79000
G01 X-3.57295 Y-2.79152
G01 X-3.22039 Y-2.79152
G01 X-3.19152 Y-2.82039
G01 X-3.19152 Y-3.17269
G01 X-3.14970 Y-3.21658
G01 X-3.14478 Y-3.21762
G01 X-3.14541 Y-3.22293
G01 X-3.14832 Y-3.22994
G01 X-3.15162 Y-3.23415
G01 X-3.33280 Y-3.41533
G01 X-3.33968 Y-3.42006
G01 X-3.34402 Y-3.42154
G01 X-3.34933 Y-3.42217
G01 X-3.82157 Y-3.42217
G01 X-3.82688 Y-3.42154
G01 X-3.83121 Y-3.42006
G01 X-3.83752 Y-3.41585
G01 X-3.86897 Y-3.38398
G01 X-3.87186 Y-3.37859
G01 X-3.87304 Y-3.37417
G01 X-3.87337 Y-3.34724
G01 X-3.88894 Y-3.34709
G01 X-3.89297 Y-3.34494
G01 X-3.89512 Y-3.34091
G01 X-3.89527 Y-3.32337
G01 X-4.00472 Y-3.32337
G01 X-4.00488 Y-3.34091
G01 X-4.00703 Y-3.34494
G01 X-4.01106 Y-3.34709
G01 X-4.08740 Y-3.34724
G01 X-4.09178 Y-3.34592
G01 X-4.09468 Y-3.34238
G01 X-4.09527 Y-3.33937
G01 X-4.09527 Y-3.26063
G01 X-4.09395 Y-3.25625
G01 X-4.09178 Y-3.25408
G01 X-4.08740 Y-3.25276
G01 X-4.01106 Y-3.25291
G01 X-4.00703 Y-3.25506
G01 X-4.00488 Y-3.25909
G01 X-4.00472 Y-3.27663
G01 X-3.89527 Y-3.27663
G01 X-3.89512 Y-3.25909
G01 X-3.89297 Y-3.25506
G01 X-3.88894 Y-3.25291
G01 X-3.81260 Y-3.25276
G01 X-3.80959 Y-3.25335
G01 X-3.80605 Y-3.25625
G01 X-3.80472 Y-3.26063
G01 X-3.80488 Y-3.34091
G01 X-3.80703 Y-3.34494
G01 X-3.81106 Y-3.34709
G01 X-3.82662 Y-3.34724
G01 X-3.82662 Y-3.36069
G01 X-3.81189 Y-3.37542
G01 X-3.35901 Y-3.37542
G01 X-3.19152 Y-3.20794
G01 X-3.19152 Y-3.17269
G01 X-3.22662 Y-3.13585
G01 X-3.22662 Y-3.18021
G01 X-3.22726 Y-3.18552
G01 X-3.23017 Y-3.19253
G01 X-3.23527 Y-3.19854
G01 X-3.23987 Y-3.19757
G01 X-3.23407 Y-3.19132
G01 X-3.23103 Y-3.18438
G01 X-3.23056 Y-3.18021
G01 X-3.23056 Y-3.13172
G01 X-3.22662 Y-3.13585
G01 X-3.22662 Y-2.99102
G01 X-3.21840 Y-2.98509
G01 X-3.21231 Y-2.97840
G01 X-3.20723 Y-2.96994
G01 X-3.20402 Y-2.96061
G01 X-3.20282 Y-2.94918
G01 X-3.20402 Y-2.93939
G01 X-3.20723 Y-2.93006
G01 X-3.21179 Y-2.92224
G01 X-3.21782 Y-2.91549
G01 X-3.22712 Y-2.90873
G01 X-3.23620 Y-2.90487
G01 X-3.24506 Y-2.90303
G01 X-3.25494 Y-2.90303
G01 X-3.26237 Y-2.90457
G01 X-3.33347 Y-2.83347
G01 X-3.34036 Y-2.82873
G01 X-3.34469 Y-2.82726
G01 X-3.34923 Y-2.82666
G01 X-3.36653 Y-2.82662
G01 X-3.36669 Y-2.82287
G01 X-3.36786 Y-2.82003
G01 X-3.37140 Y-2.81713
G01 X-3.37441 Y-2.81654
G01 X-3.42559 Y-2.81654
G01 X-3.42997 Y-2.81786
G01 X-3.43287 Y-2.82140
G01 X-3.43346 Y-2.82441
G01 X-3.43346 Y-2.87548
G01 X-3.42953 Y-2.87559
G01 X-3.42837 Y-2.87837
G01 X-3.42559 Y-2.87953
G01 X-3.37441 Y-2.87953
G01 X-3.37222 Y-2.87886
G01 X-3.37077 Y-2.87710
G01 X-3.37047 Y-2.86944
G01 X-3.35805 Y-2.86944
G01 X-3.29092 Y-2.93656
G01 X-3.29241 Y-2.94141
G01 X-3.29329 Y-2.95000
G01 X-3.29241 Y-2.95859
G01 X-3.28969 Y-2.96722
G01 X-3.28502 Y-2.97544
G01 X-3.27926 Y-2.98188
G01 X-3.27199 Y-2.98726
G01 X-3.26944 Y-2.98849
G01 X-3.26944 Y-3.09093
G01 X-3.23056 Y-3.13172
G01 X-3.23056 Y-2.98849
G01 X-3.22801 Y-2.98726
G01 X-3.22074 Y-2.98188
G01 X-3.21498 Y-2.97544
G01 X-3.21064 Y-2.96797
G01 X-3.20759 Y-2.95859
G01 X-3.20671 Y-2.95000
G01 X-3.20759 Y-2.94141
G01 X-3.21031 Y-2.93278
G01 X-3.21498 Y-2.92456
G01 X-3.22104 Y-2.91783
G01 X-3.22801 Y-2.91274
G01 X-3.23624 Y-2.90898
G01 X-3.24547 Y-2.90695
G01 X-3.25452 Y-2.90695
G01 X-3.26359 Y-2.90892
G01 X-3.33625 Y-2.83625
G01 X-3.33953 Y-2.83364
G01 X-3.34659 Y-2.83088
G01 X-3.37047 Y-2.83056
G01 X-3.37077 Y-2.82290
G01 X-3.37222 Y-2.82113
G01 X-3.37364 Y-2.82055
G01 X-3.42559 Y-2.82047
G01 X-3.42778 Y-2.82113
G01 X-3.42886 Y-2.82222
G01 X-3.42953 Y-2.82441
G01 X-3.42953 Y-2.87559
G01 X-3.43346 Y-2.87559
G01 X-3.43287 Y-2.87860
G01 X-3.43116 Y-2.88116
G01 X-3.42860 Y-2.88286
G01 X-3.42559 Y-2.88346
G01 X-3.37287 Y-2.88331
G01 X-3.37003 Y-2.88214
G01 X-3.36786 Y-2.87996
G01 X-3.36669 Y-2.87713
G01 X-3.36653 Y-2.87337
G01 X-3.35968 Y-2.87337
G01 X-3.29541 Y-2.93764
G01 X-3.29632 Y-2.94100
G01 X-3.29718 Y-2.95082
G01 X-3.29598 Y-2.96061
G01 X-3.29344 Y-2.96844
G01 X-3.28769 Y-2.97840
G01 X-3.28160 Y-2.98509
G01 X-3.27337 Y-2.99102
G01 X-3.27337 Y-3.08679
G01 X-3.26944 Y-3.09093
G01 X-3.26944 Y-3.17216
G01 X-3.28527 Y-3.18799
G01 X-3.23987 Y-3.19757
G01 X-3.30604 Y-3.26374
G01 X-3.30932 Y-3.26636
G01 X-3.31271 Y-3.26809
G01 X-3.31940 Y-3.26942
G01 X-3.35372 Y-3.26944
G01 X-3.35983 Y-3.27548
G01 X-3.36708 Y-3.27930
G01 X-3.34323 Y-3.17577
G01 X-3.28987 Y-3.18703
G01 X-3.27337 Y-3.17053
G01 X-3.27337 Y-3.08679
G01 X-3.46893 Y-2.88157
G01 X-3.43346 Y-2.87548
G01 X-3.47545 Y-2.87429
G01 X-3.47135 Y-2.86967
G01 X-3.46756 Y-2.86284
G01 X-3.46556 Y-2.85614
G01 X-3.46500 Y-2.84918
G01 X-3.46590 Y-2.84225
G01 X-3.46823 Y-2.83565
G01 X-3.47135 Y-2.83033
G01 X-3.47667 Y-2.82461
G01 X-3.48169 Y-2.82102
G01 X-3.48731 Y-2.81847
G01 X-3.49493 Y-2.81672
G01 X-3.50192 Y-2.81672
G01 X-3.50797 Y-2.81796
G01 X-3.51585 Y-2.82147
G01 X-3.52140 Y-2.82571
G01 X-3.52550 Y-2.83033
G01 X-3.52862 Y-2.83565
G01 X-3.53095 Y-2.84225
G01 X-3.53185 Y-2.85037
G01 X-3.58214 Y-2.90065
G01 X-3.50931 Y-2.88838
G01 X-3.50032 Y-2.87939
G01 X-3.49493 Y-2.87930
G01 X-3.48930 Y-2.87808
G01 X-3.48366 Y-2.87557
G01 X-3.47899 Y-2.87220
G01 X-3.47454 Y-2.86735
G01 X-3.47164 Y-2.86238
G01 X-3.46948 Y-2.85573
G01 X-3.46890 Y-2.85000
G01 X-3.46965 Y-2.84346
G01 X-3.47164 Y-2.83762
G01 X-3.47454 Y-2.83264
G01 X-3.47838 Y-2.82835
G01 X-3.48332 Y-2.82465
G01 X-3.48970 Y-2.82181
G01 X-3.49534 Y-2.82063
G01 X-3.50151 Y-2.82063
G01 X-3.50715 Y-2.82181
G01 X-3.51282 Y-2.82424
G01 X-3.51847 Y-2.82835
G01 X-3.52205 Y-2.83232
G01 X-3.52521 Y-2.83762
G01 X-3.52737 Y-2.84427
G01 X-3.52778 Y-2.85187
G01 X-3.60648 Y-2.93056
G01 X-3.61149 Y-2.93056
G01 X-3.61498 Y-2.92456
G01 X-3.62104 Y-2.91783
G01 X-3.62801 Y-2.91274
G01 X-3.63494 Y-2.90956
G01 X-3.58214 Y-2.90065
G01 X-3.60811 Y-2.92663
G01 X-3.60921 Y-2.92663
G01 X-3.61179 Y-2.92224
G01 X-3.61840 Y-2.91491
G01 X-3.62570 Y-2.90955
G01 X-3.63620 Y-2.90487
G01 X-3.64589 Y-2.90299
G01 X-3.65494 Y-2.90303
G01 X-3.66536 Y-2.90538
G01 X-3.67430 Y-2.90955
G01 X-3.68096 Y-2.91439
G01 X-3.68434 Y-2.91789
G01 X-3.63494 Y-2.90956
G01 X-3.64589 Y-2.90693
G01 X-3.65452 Y-2.90695
G01 X-3.66376 Y-2.90898
G01 X-3.67199 Y-2.91274
G01 X-3.67864 Y-2.91757
G01 X-3.68502 Y-2.92456
G01 X-3.68851 Y-2.93056
G01 X-3.75953 Y-2.93056
G01 X-3.68434 Y-2.91789
G01 X-3.68820 Y-2.92224
G01 X-3.69078 Y-2.92663
G01 X-3.98612 Y-2.92663
G01 X-4.07818 Y-2.83456
G01 X-4.07546 Y-2.81747
G01 X-4.07217 Y-2.81519
G01 X-4.07109 Y-2.81627
G01 X-4.06890 Y-2.81694
G01 X-3.93110 Y-2.81694
G01 X-3.92832 Y-2.81578
G01 X-3.92716 Y-2.81300
G01 X-3.92716 Y-2.67520
G01 X-3.92783 Y-2.67301
G01 X-3.92891 Y-2.67193
G01 X-3.93110 Y-2.67126
G01 X-4.01345 Y-2.67126
G01 X-4.25673 Y-2.54962
G01 X-4.25759 Y-2.54141
G01 X-4.25908 Y-2.53656
G01 X-4.14545 Y-2.42294
G01 X-3.80455 Y-2.42294
G01 X-3.69092 Y-2.53656
G01 X-3.69240 Y-2.54141
G01 X-3.69326 Y-2.54959
G01 X-3.69240 Y-2.55859
G01 X-3.68969 Y-2.56722
G01 X-3.68476 Y-2.57576
G01 X-3.67864 Y-2.58243
G01 X-3.67128 Y-2.58767
G01 X-3.66298 Y-2.59127
G01 X-3.65452 Y-2.59305
G01 X-3.64507 Y-2.59299
G01 X-3.63702 Y-2.59127
G01 X-3.62872 Y-2.58767
G01 X-3.62074 Y-2.58188
G01 X-3.61497 Y-2.57543
G01 X-3.61168 Y-2.56969
G01 X-3.28832 Y-2.56969
G01 X-3.28503 Y-2.57543
G01 X-3.27926 Y-2.58188
G01 X-3.27128 Y-2.58767
G01 X-3.26298 Y-2.59127
G01 X-3.25493 Y-2.59299
G01 X-3.24507 Y-2.59299
G01 X-3.23702 Y-2.59127
G01 X-3.22872 Y-2.58767
G01 X-3.22104 Y-2.58217
G01 X-3.21498 Y-2.57544
G01 X-3.21064 Y-2.56797
G01 X-3.20759 Y-2.55859
G01 X-3.20671 Y-2.55000
G01 X-3.20759 Y-2.54141
G01 X-3.21064 Y-2.53203
G01 X-3.21498 Y-2.52456
G01 X-3.22074 Y-2.51812
G01 X-3.22872 Y-2.51233
G01 X-3.23702 Y-2.50872
G01 X-3.24547 Y-2.50695
G01 X-3.25452 Y-2.50695
G01 X-3.26298 Y-2.50872
G01 X-3.27128 Y-2.51233
G01 X-3.27896 Y-2.51783
G01 X-3.28503 Y-2.52457
G01 X-3.28832 Y-2.53031
G01 X-3.61168 Y-2.53031
G01 X-3.61497 Y-2.52457
G01 X-3.62104 Y-2.51783
G01 X-3.62801 Y-2.51274
G01 X-3.63624 Y-2.50898
G01 X-3.64589 Y-2.50693
G01 X-3.65452 Y-2.50695
G01 X-3.66359 Y-2.50892
G01 X-3.78275 Y-2.38976
G01 X-3.78603 Y-2.38714
G01 X-3.79233 Y-2.38453
G01 X-3.79650 Y-2.38406
G01 X-4.15350 Y-2.38406
G01 X-4.15767 Y-2.38453
G01 X-4.16129 Y-2.38571
G01 X-4.16724 Y-2.38976
G01 X-4.28640 Y-2.50892
G01 X-4.29547 Y-2.50695
G01 X-4.30411 Y-2.50693
G01 X-4.31376 Y-2.50898
G01 X-4.32199 Y-2.51274
G01 X-4.32864 Y-2.51757
G01 X-4.33503 Y-2.52457
G01 X-4.33832 Y-2.53031
G01 X-4.66168 Y-2.53031
G01 X-4.66497 Y-2.52457
G01 X-4.67074 Y-2.51812
G01 X-4.67872 Y-2.51233
G01 X-4.68702 Y-2.50872
G01 X-4.69548 Y-2.50695
G01 X-4.70411 Y-2.50693
G01 X-4.71376 Y-2.50898
G01 X-4.72199 Y-2.51274
G01 X-4.72926 Y-2.51812
G01 X-4.73502 Y-2.52456
G01 X-4.73936 Y-2.53203
G01 X-4.74240 Y-2.54141
G01 X-4.74329 Y-2.55000
G01 X-4.74223 Y-2.55940
G01 X-4.73936 Y-2.56797
G01 X-4.73502 Y-2.57544
G01 X-4.72926 Y-2.58188
G01 X-4.72199 Y-2.58726
G01 X-4.71376 Y-2.59102
G01 X-4.70452 Y-2.59305
G01 X-4.69507 Y-2.59299
G01 X-4.68702 Y-2.59127
G01 X-4.67872 Y-2.58767
G01 X-4.67074 Y-2.58188
G01 X-4.66497 Y-2.57543
G01 X-4.66168 Y-2.56969
G01 X-4.33832 Y-2.56969
G01 X-4.33503 Y-2.57543
G01 X-4.32864 Y-2.58243
G01 X-4.32128 Y-2.58767
G01 X-4.31298 Y-2.59127
G01 X-4.30452 Y-2.59305
G01 X-4.29507 Y-2.59299
G01 X-4.28624 Y-2.59102
G01 X-4.27872 Y-2.58767
G01 X-4.27454 Y-2.58474
G01 X-4.07284 Y-2.68559
G01 X-4.07284 Y-2.81300
G01 X-4.07217 Y-2.81519
G01 X-4.07545 Y-2.81737
G01 X-4.07327 Y-2.81955
G01 X-4.06890 Y-2.82087
G01 X-3.93110 Y-2.82087
G01 X-3.92809 Y-2.82027
G01 X-3.92553 Y-2.81857
G01 X-3.92382 Y-2.81601
G01 X-3.92322 Y-2.81300
G01 X-3.92322 Y-2.67520
G01 X-3.92382 Y-2.67219
G01 X-3.92553 Y-2.66963
G01 X-3.92809 Y-2.66792
G01 X-3.93110 Y-2.66732
G01 X-4.01252 Y-2.66732
G01 X-4.25304 Y-2.54707
G01 X-4.25459 Y-2.53764
G01 X-4.14382 Y-2.42687
G01 X-3.80618 Y-2.42687
G01 X-3.69541 Y-2.53764
G01 X-3.69632 Y-2.54100
G01 X-3.69722 Y-2.55000
G01 X-3.69632 Y-2.55900
G01 X-3.69277 Y-2.56994
G01 X-3.68769 Y-2.57840
G01 X-3.68096 Y-2.58561
G01 X-3.67288 Y-2.59127
G01 X-3.66380 Y-2.59513
G01 X-3.65494 Y-2.59696
G01 X-3.64425 Y-2.59684
G01 X-3.63620 Y-2.59513
G01 X-3.62712 Y-2.59127
G01 X-3.61782 Y-2.58451
G01 X-3.61178 Y-2.57774
G01 X-3.60939 Y-2.57362
G01 X-3.29061 Y-2.57362
G01 X-3.28822 Y-2.57774
G01 X-3.28218 Y-2.58451
G01 X-3.27288 Y-2.59127
G01 X-3.26380 Y-2.59513
G01 X-3.25575 Y-2.59684
G01 X-3.24425 Y-2.59684
G01 X-3.23620 Y-2.59513
G01 X-3.22712 Y-2.59127
G01 X-3.21782 Y-2.58451
G01 X-3.21179 Y-2.57776
G01 X-3.20723 Y-2.56994
G01 X-3.20368 Y-2.55900
G01 X-3.20277 Y-2.55000
G01 X-3.20368 Y-2.54100
G01 X-3.20723 Y-2.53006
G01 X-3.21231 Y-2.52160
G01 X-3.21782 Y-2.51549
G01 X-3.22712 Y-2.50873
G01 X-3.23541 Y-2.50509
G01 X-3.24589 Y-2.50299
G01 X-3.25575 Y-2.50316
G01 X-3.26459 Y-2.50509
G01 X-3.27430 Y-2.50955
G01 X-3.28160 Y-2.51491
G01 X-3.28822 Y-2.52226
G01 X-3.29061 Y-2.52637
G01 X-3.60939 Y-2.52637
G01 X-3.61178 Y-2.52226
G01 X-3.61840 Y-2.51491
G01 X-3.62570 Y-2.50955
G01 X-3.63464 Y-2.50538
G01 X-3.64589 Y-2.50299
G01 X-3.65411 Y-2.50299
G01 X-3.66237 Y-2.50457
G01 X-3.77997 Y-2.38697
G01 X-3.78418 Y-2.38367
G01 X-3.79119 Y-2.38076
G01 X-3.79650 Y-2.38013
G01 X-4.15350 Y-2.38013
G01 X-4.16172 Y-2.38164
G01 X-4.16582 Y-2.38367
G01 X-4.17003 Y-2.38697
G01 X-4.28763 Y-2.50457
G01 X-4.29506 Y-2.50303
G01 X-4.30411 Y-2.50299
G01 X-4.31536 Y-2.50538
G01 X-4.32430 Y-2.50955
G01 X-4.33096 Y-2.51439
G01 X-4.33822 Y-2.52226
G01 X-4.34061 Y-2.52637
G01 X-4.65939 Y-2.52637
G01 X-4.66178 Y-2.52226
G01 X-4.66782 Y-2.51549
G01 X-4.67570 Y-2.50955
G01 X-4.68620 Y-2.50487
G01 X-4.69589 Y-2.50299
G01 X-4.70494 Y-2.50303
G01 X-4.71380 Y-2.50487
G01 X-4.72288 Y-2.50873
G01 X-4.73096 Y-2.51439
G01 X-4.73820 Y-2.52224
G01 X-4.74344 Y-2.53156
G01 X-4.74598 Y-2.53938
G01 X-4.74718 Y-2.54918
G01 X-4.74598 Y-2.56061
G01 X-4.74277 Y-2.56994
G01 X-4.73865 Y-2.57707
G01 X-4.73160 Y-2.58509
G01 X-4.72288 Y-2.59127
G01 X-4.71380 Y-2.59513
G01 X-4.70575 Y-2.59684
G01 X-4.69425 Y-2.59684
G01 X-4.68620 Y-2.59513
G01 X-4.67712 Y-2.59127
G01 X-4.66782 Y-2.58451
G01 X-4.66178 Y-2.57774
G01 X-4.65939 Y-2.57362
G01 X-4.34061 Y-2.57362
G01 X-4.33822 Y-2.57774
G01 X-4.33096 Y-2.58561
G01 X-4.32288 Y-2.59127
G01 X-4.31380 Y-2.59513
G01 X-4.30494 Y-2.59696
G01 X-4.29506 Y-2.59696
G01 X-4.28464 Y-2.59462
G01 X-4.27416 Y-2.58933
G01 X-4.07677 Y-2.68803
G01 X-4.07677 Y-2.81300
G01 X-4.07545 Y-2.81737
G01 X-4.08715 Y-2.82559
G01 X-4.07818 Y-2.83456
G01 X-4.07895 Y-2.83937
G01 X-3.98775 Y-2.93056
G01 X-3.75953 Y-2.93056
G01 X-3.99012 Y-2.96944
G01 X-3.68851 Y-2.96944
G01 X-3.68502 Y-2.97544
G01 X-3.67926 Y-2.98188
G01 X-3.67128 Y-2.98767
G01 X-3.66298 Y-2.99127
G01 X-3.65493 Y-2.99299
G01 X-3.64507 Y-2.99299
G01 X-3.63624 Y-2.99102
G01 X-3.62801 Y-2.98726
G01 X-3.62074 Y-2.98188
G01 X-3.61498 Y-2.97544
G01 X-3.61149 Y-2.96944
G01 X-3.59502 Y-2.96912
G01 X-3.59064 Y-2.96779
G01 X-3.58732 Y-2.96593
G01 X-3.50931 Y-2.88838
G01 X-3.46893 Y-2.88157
G01 X-3.47838 Y-2.87165
G01 X-3.47567 Y-2.87449
G01 X-3.48169 Y-2.87898
G01 X-3.48888 Y-2.88204
G01 X-3.49411 Y-2.88315
G01 X-3.49869 Y-2.88332
G01 X-3.58482 Y-2.96897
G01 X-3.59021 Y-2.97186
G01 X-3.59463 Y-2.97304
G01 X-3.60921 Y-2.97337
G01 X-3.61231 Y-2.97840
G01 X-3.61782 Y-2.98451
G01 X-3.62570 Y-2.99045
G01 X-3.63541 Y-2.99491
G01 X-3.64425 Y-2.99684
G01 X-3.65575 Y-2.99684
G01 X-3.66459 Y-2.99491
G01 X-3.67288 Y-2.99127
G01 X-3.68218 Y-2.98451
G01 X-3.68820 Y-2.97776
G01 X-3.69078 Y-2.97337
G01 X-3.99657 Y-2.97334
G01 X-4.00415 Y-2.97180
G01 X-3.99012 Y-2.96944
G01 X-3.99997 Y-2.96897
G01 X-4.00359 Y-2.96779
G01 X-4.00926 Y-2.96400
G01 X-4.08649 Y-2.88680
G01 X-4.07895 Y-2.83937
G01 X-4.09044 Y-2.82787
G01 X-4.08715 Y-2.82559
G01 X-4.14036 Y-2.77238
G01 X-4.14457 Y-2.76908
G01 X-4.14867 Y-2.76705
G01 X-4.15689 Y-2.76553
G01 X-4.64969 Y-2.76553
G01 X-4.65500 Y-2.76617
G01 X-4.66201 Y-2.76908
G01 X-4.66622 Y-2.77238
G01 X-4.79138 Y-2.89754
G01 X-4.79468 Y-2.90175
G01 X-4.79759 Y-2.90876
G01 X-4.79822 Y-2.91407
G01 X-4.79789 Y-2.98972
G01 X-4.79611 Y-2.99557
G01 X-4.79138 Y-3.00245
G01 X-4.60605 Y-3.18779
G01 X-4.59916 Y-3.19252
G01 X-4.59483 Y-3.19400
G01 X-4.58952 Y-3.19463
G01 X-4.54823 Y-3.19463
G01 X-4.54248 Y-3.19992
G01 X-4.53680 Y-3.20325
G01 X-4.52902 Y-3.20592
G01 X-4.52248 Y-3.20665
G01 X-4.47835 Y-3.20669
G01 X-4.47098 Y-3.20592
G01 X-4.46320 Y-3.20325
G01 X-4.45752 Y-3.19992
G01 X-4.45260 Y-3.19555
G01 X-4.44811 Y-3.18967
G01 X-4.44443 Y-3.18141
G01 X-4.44306 Y-3.17414
G01 X-4.44324 Y-3.16674
G01 X-4.44494 Y-3.15954
G01 X-4.44729 Y-3.15428
G01 X-4.45260 Y-3.14697
G01 X-4.45752 Y-3.14259
G01 X-4.46320 Y-3.13926
G01 X-4.47179 Y-3.13647
G01 X-4.47835 Y-3.13583
G01 X-4.52165 Y-3.13583
G01 X-4.52821 Y-3.13647
G01 X-4.53680 Y-3.13926
G01 X-4.54248 Y-3.14259
G01 X-4.54823 Y-3.14789
G01 X-4.57984 Y-3.14789
G01 X-4.75148 Y-2.97625
G01 X-4.75148 Y-2.92375
G01 X-4.64001 Y-2.81228
G01 X-4.16657 Y-2.81228
G01 X-4.01233 Y-2.96653
G01 X-4.00812 Y-2.96983
G01 X-4.00415 Y-2.97180
G01 X-4.10265 Y-2.98841
G01 X-4.08649 Y-2.88680
G01 X-4.12288 Y-2.85041
G01 X-4.09044 Y-2.82787
G01 X-4.14315 Y-2.77516
G01 X-4.14642 Y-2.77255
G01 X-4.14982 Y-2.77082
G01 X-4.15689 Y-2.76947
G01 X-4.65310 Y-2.76979
G01 X-4.65747 Y-2.77112
G01 X-4.66343 Y-2.77516
G01 X-4.78859 Y-2.90033
G01 X-4.79121 Y-2.90360
G01 X-4.79382 Y-2.90991
G01 X-4.79429 Y-2.91407
G01 X-4.79397 Y-2.98934
G01 X-4.79264 Y-2.99371
G01 X-4.78859 Y-2.99967
G01 X-4.60326 Y-3.18500
G01 X-4.59999 Y-3.18762
G01 X-4.59659 Y-3.18935
G01 X-4.58952 Y-3.19070
G01 X-4.54628 Y-3.19070
G01 X-4.54017 Y-3.19674
G01 X-4.53483 Y-3.19984
G01 X-4.52820 Y-3.20207
G01 X-4.52206 Y-3.20273
G01 X-4.47835 Y-3.20275
G01 X-4.47220 Y-3.20213
G01 X-4.46592 Y-3.20018
G01 X-4.46018 Y-3.19697
G01 X-4.45468 Y-3.19201
G01 X-4.45107 Y-3.18701
G01 X-4.44829 Y-3.18059
G01 X-4.44700 Y-3.17414
G01 X-4.44709 Y-3.16756
G01 X-4.44854 Y-3.16114
G01 X-4.45088 Y-3.15588
G01 X-4.45523 Y-3.14989
G01 X-4.45983 Y-3.14578
G01 X-4.46517 Y-3.14267
G01 X-4.47220 Y-3.14039
G01 X-4.47835 Y-3.13976
G01 X-4.52206 Y-3.13978
G01 X-4.52820 Y-3.14045
G01 X-4.53483 Y-3.14267
G01 X-4.54017 Y-3.14578
G01 X-4.54628 Y-3.15182
G01 X-4.58147 Y-3.15182
G01 X-4.75541 Y-2.97788
G01 X-4.75541 Y-2.92212
G01 X-4.64164 Y-2.80835
G01 X-4.16494 Y-2.80835
G01 X-4.12288 Y-2.85041
G01 X-4.24525 Y-2.93540
G01 X-4.17932 Y-3.00134
G01 X-4.10265 Y-2.98841
G01 X-4.11495 Y-3.06571
G01 X-4.03302 Y-3.14764
G01 X-3.44800 Y-3.14764
G01 X-3.44179 Y-3.14215
G01 X-3.43530 Y-3.13859
G01 X-3.42902 Y-3.13660
G01 X-3.42165 Y-3.13583
G01 X-3.37835 Y-3.13583
G01 X-3.37098 Y-3.13660
G01 X-3.36470 Y-3.13859
G01 X-3.35688 Y-3.14311
G01 X-3.35149 Y-3.14819
G01 X-3.34729 Y-3.15428
G01 X-3.34443 Y-3.16111
G01 X-3.34311 Y-3.16756
G01 X-3.34323 Y-3.17577
G01 X-3.34709 Y-3.17496
G01 X-3.34324 Y-3.17578
G01 X-3.34443 Y-3.18141
G01 X-3.34729 Y-3.18824
G01 X-3.35149 Y-3.19433
G01 X-3.35752 Y-3.19992
G01 X-3.36320 Y-3.20325
G01 X-3.37098 Y-3.20592
G01 X-3.37835 Y-3.20669
G01 X-3.42165 Y-3.20669
G01 X-3.42902 Y-3.20592
G01 X-3.43530 Y-3.20392
G01 X-3.44179 Y-3.20037
G01 X-3.44800 Y-3.19488
G01 X-4.04280 Y-3.19488
G01 X-4.05112 Y-3.19334
G01 X-4.05527 Y-3.19130
G01 X-4.05951 Y-3.18796
G01 X-4.12412 Y-3.12336
G01 X-4.12335 Y-3.11855
G01 X-4.05644 Y-3.18544
G01 X-4.05069 Y-3.18928
G01 X-4.04319 Y-3.19093
G01 X-3.44609 Y-3.19095
G01 X-3.43982 Y-3.19697
G01 X-3.43408 Y-3.20018
G01 X-3.42779 Y-3.20213
G01 X-3.42165 Y-3.20275
G01 X-3.37835 Y-3.20275
G01 X-3.37221 Y-3.20213
G01 X-3.36592 Y-3.20018
G01 X-3.35983 Y-3.19674
G01 X-3.35523 Y-3.19263
G01 X-3.35129 Y-3.18735
G01 X-3.34854 Y-3.18138
G01 X-3.34702 Y-3.17455
G01 X-3.34700 Y-3.16838
G01 X-3.34829 Y-3.16193
G01 X-3.35088 Y-3.15588
G01 X-3.35523 Y-3.14989
G01 X-3.35983 Y-3.14578
G01 X-3.36592 Y-3.14234
G01 X-3.37221 Y-3.14039
G01 X-3.37835 Y-3.13976
G01 X-3.42165 Y-3.13976
G01 X-3.42779 Y-3.14039
G01 X-3.43408 Y-3.14234
G01 X-3.43982 Y-3.14555
G01 X-3.44609 Y-3.15157
G01 X-4.03465 Y-3.15157
G01 X-4.11571 Y-3.07051
G01 X-4.11495 Y-3.06571
G01 X-4.17932 Y-3.00134
G01 X-4.18408 Y-3.00214
G01 X-4.11571 Y-3.07051
G01 X-4.12335 Y-3.11855
G01 X-4.23173 Y-3.01017
G01 X-4.18408 Y-3.00214
G01 X-4.24854 Y-2.93769
G01 X-4.24525 Y-2.93540
G01 X-4.27638 Y-2.90428
G01 X-4.27672 Y-2.84615
G01 X-4.27791 Y-2.84169
G01 X-4.27996 Y-2.83754
G01 X-4.28278 Y-2.83387
G01 X-4.28625 Y-2.83082
G01 X-4.29169 Y-2.82791
G01 X-4.30000 Y-2.82638
G01 X-4.42800 Y-2.82638
G01 X-4.43415 Y-2.82147
G01 X-4.44046 Y-2.81847
G01 X-4.44808 Y-2.81672
G01 X-4.45507 Y-2.81672
G01 X-4.46268 Y-2.81847
G01 X-4.46831 Y-2.82102
G01 X-4.47333 Y-2.82461
G01 X-4.47910 Y-2.83102
G01 X-4.48244 Y-2.83716
G01 X-4.48444 Y-2.84386
G01 X-4.48500 Y-2.84918
G01 X-4.48409 Y-2.85775
G01 X-4.48215 Y-2.86361
G01 X-4.47910 Y-2.86898
G01 X-4.47397 Y-2.87487
G01 X-4.46900 Y-2.87853
G01 X-4.46192 Y-2.88183
G01 X-4.45589 Y-2.88315
G01 X-4.44890 Y-2.88332
G01 X-4.44123 Y-2.88183
G01 X-4.43558 Y-2.87935
G01 X-4.42800 Y-2.87362
G01 X-4.32362 Y-2.87362
G01 X-4.32361 Y-2.90915
G01 X-4.33096 Y-2.91439
G01 X-4.33821 Y-2.92224
G01 X-4.34344 Y-2.93156
G01 X-4.34632 Y-2.94100
G01 X-4.34722 Y-2.95000
G01 X-4.34598 Y-2.96061
G01 X-4.34314 Y-2.96921
G01 X-4.33865 Y-2.97707
G01 X-4.33218 Y-2.98451
G01 X-4.32430 Y-2.99045
G01 X-4.31536 Y-2.99462
G01 X-4.30494 Y-2.99696
G01 X-4.29506 Y-2.99696
G01 X-4.28464 Y-2.99462
G01 X-4.27570 Y-2.99045
G01 X-4.26840 Y-2.98509
G01 X-4.26552 Y-2.98196
G01 X-4.23650 Y-3.01098
G01 X-4.39617 Y-3.03789
G01 X-4.39585 Y-3.24550
G01 X-4.39632 Y-3.24967
G01 X-4.39893 Y-3.25597
G01 X-4.40633 Y-3.26400
G01 X-4.41271 Y-3.26809
G01 X-4.41979 Y-3.26944
G01 X-4.45372 Y-3.26944
G01 X-4.46018 Y-3.27570
G01 X-4.46592 Y-3.27892
G01 X-4.47180 Y-3.28081
G01 X-4.47835 Y-3.28150
G01 X-4.52165 Y-3.28150
G01 X-4.52860 Y-3.28070
G01 X-4.53408 Y-3.27892
G01 X-4.53982 Y-3.27570
G01 X-4.54477 Y-3.27137
G01 X-4.54912 Y-3.26538
G01 X-4.55146 Y-3.26012
G01 X-4.55291 Y-3.25370
G01 X-4.55291 Y-3.24630
G01 X-4.55146 Y-3.23988
G01 X-4.54893 Y-3.23425
G01 X-4.54477 Y-3.22863
G01 X-4.54017 Y-3.22452
G01 X-4.53483 Y-3.22141
G01 X-4.52820 Y-3.21919
G01 X-4.52165 Y-3.21850
G01 X-4.47793 Y-3.21853
G01 X-4.47180 Y-3.21919
G01 X-4.46517 Y-3.22141
G01 X-4.45983 Y-3.22452
G01 X-4.45372 Y-3.23056
G01 X-4.43472 Y-3.23056
G01 X-4.43472 Y-3.04935
G01 X-4.56593 Y-2.91770
G01 X-4.56809 Y-2.91366
G01 X-4.56942 Y-2.90698
G01 X-4.56944 Y-2.87953
G01 X-4.57636 Y-2.87945
G01 X-4.57837 Y-2.87837
G01 X-4.57945 Y-2.87636
G01 X-4.57953 Y-2.86944
G01 X-4.59195 Y-2.86944
G01 X-4.65908 Y-2.93656
G01 X-4.65759 Y-2.94141
G01 X-4.65671 Y-2.95000
G01 X-4.65759 Y-2.95859
G01 X-4.66031 Y-2.96722
G01 X-4.66498 Y-2.97544
G01 X-4.67074 Y-2.98188
G01 X-4.67872 Y-2.98767
G01 X-4.68702 Y-2.99127
G01 X-4.69548 Y-2.99305
G01 X-4.70411 Y-2.99307
G01 X-4.71298 Y-2.99127
G01 X-4.72199 Y-2.98726
G01 X-4.72926 Y-2.98188
G01 X-4.73502 Y-2.97544
G01 X-4.73936 Y-2.96797
G01 X-4.74223 Y-2.95940
G01 X-4.74327 Y-2.95041
G01 X-4.74240 Y-2.94141
G01 X-4.73969 Y-2.93278
G01 X-4.73502 Y-2.92456
G01 X-4.72864 Y-2.91757
G01 X-4.72199 Y-2.91274
G01 X-4.71376 Y-2.90898
G01 X-4.70493 Y-2.90701
G01 X-4.69548 Y-2.90695
G01 X-4.68641 Y-2.90892
G01 X-4.61111 Y-2.83407
G01 X-4.60779 Y-2.83221
G01 X-4.60341 Y-2.83088
G01 X-4.57953 Y-2.83056
G01 X-4.57923 Y-2.82290
G01 X-4.57778 Y-2.82113
G01 X-4.57636 Y-2.82055
G01 X-4.52441 Y-2.82047
G01 X-4.52163 Y-2.82163
G01 X-4.52047 Y-2.82441
G01 X-4.52055 Y-2.87636
G01 X-4.52114 Y-2.87778
G01 X-4.52290 Y-2.87923
G01 X-4.53056 Y-2.87953
G01 X-4.53056 Y-2.89854
G01 X-4.40154 Y-3.02756
G01 X-4.39749 Y-3.03352
G01 X-4.39617 Y-3.03789
G01 X-4.39225 Y-3.03751
G01 X-4.39191 Y-3.24550
G01 X-4.39255 Y-3.25081
G01 X-4.39545 Y-3.25782
G01 X-4.40383 Y-3.26705
G01 X-4.40746 Y-3.26983
G01 X-4.41157 Y-3.27185
G01 X-4.41979 Y-3.27337
G01 X-4.45177 Y-3.27337
G01 X-4.45821 Y-3.27911
G01 X-4.46470 Y-3.28267
G01 X-4.47098 Y-3.28466
G01 X-4.47835 Y-3.28543
G01 X-4.52165 Y-3.28543
G01 X-4.52902 Y-3.28466
G01 X-4.53680 Y-3.28200
G01 X-4.54248 Y-3.27867
G01 X-4.54740 Y-3.27429
G01 X-4.55271 Y-3.26698
G01 X-4.55506 Y-3.26172
G01 X-4.55676 Y-3.25452
G01 X-4.55676 Y-3.24548
G01 X-4.55506 Y-3.23828
G01 X-4.55234 Y-3.23228
G01 X-4.54850 Y-3.22693
G01 X-4.54179 Y-3.22088
G01 X-4.53530 Y-3.21733
G01 X-4.52902 Y-3.21534
G01 X-4.52248 Y-3.21461
G01 X-4.47752 Y-3.21461
G01 X-4.47018 Y-3.21555
G01 X-4.46320 Y-3.21800
G01 X-4.45752 Y-3.22133
G01 X-4.45177 Y-3.22662
G01 X-4.43866 Y-3.22662
G01 X-4.43866 Y-3.05098
G01 X-4.56897 Y-2.92020
G01 X-4.57186 Y-2.91481
G01 X-4.57304 Y-2.91039
G01 X-4.57337 Y-2.88346
G01 X-4.57713 Y-2.88331
G01 X-4.58116 Y-2.88116
G01 X-4.58331 Y-2.87713
G01 X-4.58346 Y-2.87337
G01 X-4.59032 Y-2.87337
G01 X-4.65459 Y-2.93764
G01 X-4.65368 Y-2.94100
G01 X-4.65282 Y-2.95082
G01 X-4.65402 Y-2.96061
G01 X-4.65723 Y-2.96994
G01 X-4.66179 Y-2.97776
G01 X-4.66782 Y-2.98451
G01 X-4.67570 Y-2.99045
G01 X-4.68464 Y-2.99462
G01 X-4.69589 Y-2.99701
G01 X-4.70494 Y-2.99696
G01 X-4.71380 Y-2.99513
G01 X-4.72430 Y-2.99045
G01 X-4.73160 Y-2.98509
G01 X-4.73769 Y-2.97840
G01 X-4.74344 Y-2.96844
G01 X-4.74598 Y-2.96061
G01 X-4.74718 Y-2.95082
G01 X-4.74598 Y-2.93939
G01 X-4.74277 Y-2.93006
G01 X-4.73820 Y-2.92224
G01 X-4.73218 Y-2.91549
G01 X-4.72288 Y-2.90873
G01 X-4.71380 Y-2.90487
G01 X-4.70494 Y-2.90303
G01 X-4.69506 Y-2.90303
G01 X-4.68763 Y-2.90457
G01 X-4.61653 Y-2.83347
G01 X-4.60964 Y-2.82873
G01 X-4.60531 Y-2.82726
G01 X-4.60077 Y-2.82666
G01 X-4.58346 Y-2.82662
G01 X-4.58331 Y-2.82287
G01 X-4.58214 Y-2.82003
G01 X-4.57996 Y-2.81786
G01 X-4.57713 Y-2.81669
G01 X-4.52441 Y-2.81654
G01 X-4.52140 Y-2.81713
G01 X-4.51786 Y-2.82003
G01 X-4.51654 Y-2.82441
G01 X-4.51654 Y-2.87559
G01 X-4.51713 Y-2.87860
G01 X-4.52003 Y-2.88214
G01 X-4.52287 Y-2.88331
G01 X-4.52663 Y-2.88346
G01 X-4.52663 Y-2.89691
G01 X-4.39876 Y-3.02477
G01 X-4.39545 Y-3.02898
G01 X-4.39343 Y-3.03309
G01 X-4.39230 Y-3.03724
G01 X-4.39173 Y-3.03715
G01 X-4.24854 Y-2.93769
G01 X-4.28031 Y-2.90591
G01 X-4.28063 Y-2.84654
G01 X-4.28343 Y-2.83939
G01 X-4.28582 Y-2.83636
G01 X-4.28939 Y-2.83343
G01 X-4.29578 Y-2.83079
G01 X-4.30000 Y-2.83031
G01 X-4.42976 Y-2.83031
G01 X-4.43647 Y-2.82465
G01 X-4.44207 Y-2.82206
G01 X-4.44849 Y-2.82063
G01 X-4.45466 Y-2.82063
G01 X-4.46030 Y-2.82181
G01 X-4.46597 Y-2.82424
G01 X-4.47133 Y-2.82806
G01 X-4.47520 Y-2.83232
G01 X-4.47870 Y-2.83837
G01 X-4.48052 Y-2.84427
G01 X-4.48108 Y-2.85041
G01 X-4.48035 Y-2.85654
G01 X-4.47855 Y-2.86201
G01 X-4.47569 Y-2.86701
G01 X-4.47162 Y-2.87165
G01 X-4.46597 Y-2.87576
G01 X-4.46070 Y-2.87808
G01 X-4.45466 Y-2.87936
G01 X-4.44849 Y-2.87936
G01 X-4.44207 Y-2.87793
G01 X-4.43647 Y-2.87535
G01 X-4.42976 Y-2.86969
G01 X-4.31969 Y-2.86969
G01 X-4.31968 Y-2.91161
G01 X-4.32864 Y-2.91757
G01 X-4.33502 Y-2.92456
G01 X-4.33969 Y-2.93278
G01 X-4.34241 Y-2.94141
G01 X-4.34329 Y-2.95000
G01 X-4.34223 Y-2.95940
G01 X-4.33936 Y-2.96797
G01 X-4.33502 Y-2.97544
G01 X-4.32864 Y-2.98243
G01 X-4.32128 Y-2.98767
G01 X-4.31298 Y-2.99127
G01 X-4.30411 Y-2.99307
G01 X-4.29547 Y-2.99305
G01 X-4.28624 Y-2.99102
G01 X-4.27801 Y-2.98726
G01 X-4.27135 Y-2.98243
G01 X-4.26567 Y-2.97624
G01 X-4.23173 Y-3.01017
G01 X-4.23650 Y-3.01098
G01 X-4.12412 Y-3.12336
G01 X-4.14506 Y-3.25501
G01 X-4.13524 Y-3.25724
G01 X-4.12667 Y-3.26124
G01 X-4.11912 Y-3.26694
G01 X-4.11389 Y-3.27275
G01 X-4.10901 Y-3.28085
G01 X-4.10593 Y-3.28979
G01 X-4.10472 Y-3.30000
G01 X-4.10593 Y-3.31021
G01 X-4.10901 Y-3.31915
G01 X-4.11389 Y-3.32725
G01 X-4.11912 Y-3.33306
G01 X-4.12810 Y-3.33958
G01 X-4.13680 Y-3.34327
G01 X-4.14527 Y-3.34503
G01 X-4.15473 Y-3.34503
G01 X-4.16045 Y-3.34386
G01 X-4.16499 Y-3.34792
G01 X-4.16900 Y-3.35024
G01 X-4.17338 Y-3.35172
G01 X-4.17874 Y-3.35236
G01 X-4.45200 Y-3.35236
G01 X-4.45821 Y-3.35785
G01 X-4.46470 Y-3.36140
G01 X-4.47098 Y-3.36340
G01 X-4.47835 Y-3.36417
G01 X-4.52165 Y-3.36417
G01 X-4.52902 Y-3.36340
G01 X-4.53530 Y-3.36140
G01 X-4.54248 Y-3.35741
G01 X-4.54850 Y-3.35181
G01 X-4.55234 Y-3.34646
G01 X-4.55506 Y-3.34046
G01 X-4.55676 Y-3.33326
G01 X-4.55694 Y-3.32586
G01 X-4.55556 Y-3.31859
G01 X-4.55234 Y-3.31102
G01 X-4.54850 Y-3.30567
G01 X-4.54248 Y-3.30007
G01 X-4.53680 Y-3.29674
G01 X-4.52902 Y-3.29408
G01 X-4.52165 Y-3.29331
G01 X-4.47835 Y-3.29331
G01 X-4.47179 Y-3.29395
G01 X-4.46320 Y-3.29674
G01 X-4.45752 Y-3.30007
G01 X-4.45200 Y-3.30512
G01 X-4.19478 Y-3.30512
G01 X-4.19527 Y-3.30000
G01 X-4.19442 Y-3.29140
G01 X-4.19166 Y-3.28235
G01 X-4.18708 Y-3.27408
G01 X-4.18088 Y-3.26694
G01 X-4.17333 Y-3.26124
G01 X-4.16476 Y-3.25724
G01 X-4.15473 Y-3.25497
G01 X-4.14506 Y-3.25501
G01 X-4.14568 Y-3.25889
G01 X-4.13684 Y-3.26083
G01 X-4.12899 Y-3.26442
G01 X-4.12234 Y-3.26928
G01 X-4.11633 Y-3.27605
G01 X-4.11224 Y-3.28319
G01 X-4.10950 Y-3.29181
G01 X-4.10866 Y-3.30000
G01 X-4.10967 Y-3.30899
G01 X-4.11224 Y-3.31681
G01 X-4.11681 Y-3.32462
G01 X-4.12234 Y-3.33072
G01 X-4.12933 Y-3.33580
G01 X-4.13684 Y-3.33917
G01 X-4.14568 Y-3.34111
G01 X-4.15432 Y-3.34111
G01 X-4.16172 Y-3.33956
G01 X-4.16813 Y-3.34531
G01 X-4.17452 Y-3.34795
G01 X-4.17874 Y-3.34843
G01 X-4.45390 Y-3.34843
G01 X-4.46018 Y-3.35445
G01 X-4.46592 Y-3.35766
G01 X-4.47180 Y-3.35955
G01 X-4.47835 Y-3.36024
G01 X-4.52206 Y-3.36021
G01 X-4.52820 Y-3.35955
G01 X-4.53483 Y-3.35733
G01 X-4.54017 Y-3.35422
G01 X-4.54477 Y-3.35011
G01 X-4.54893 Y-3.34449
G01 X-4.55146 Y-3.33886
G01 X-4.55291 Y-3.33244
G01 X-4.55300 Y-3.32586
G01 X-4.55171 Y-3.31941
G01 X-4.54912 Y-3.31336
G01 X-4.54477 Y-3.30737
G01 X-4.54017 Y-3.30326
G01 X-4.53408 Y-3.29982
G01 X-4.52820 Y-3.29793
G01 X-4.52165 Y-3.29724
G01 X-4.47835 Y-3.29724
G01 X-4.47180 Y-3.29793
G01 X-4.46592 Y-3.29982
G01 X-4.46018 Y-3.30303
G01 X-4.45390 Y-3.30905
G01 X-4.19031 Y-3.30905
G01 X-4.19132 Y-3.30041
G01 X-4.19050 Y-3.29181
G01 X-4.18776 Y-3.28319
G01 X-4.18318 Y-3.27538
G01 X-4.17766 Y-3.26928
G01 X-4.17030 Y-3.26401
G01 X-4.16316 Y-3.26083
G01 X-4.15473 Y-3.25895
G01 X-4.14568 Y-3.25889
G01 X-4.14527 Y-3.25497

G04 P0 ( dwell for no time -- G64 should not smooth over this point )
G00 Z1.000 ( retract )

M5 ( Spindle off. )
G04 P1.000000
M9 ( Coolant off. )
M2 ( Program end. )

