( pcb2gcode 2.5.0 )
( Software-independent Gcode )

G94 ( Inches per minute feed rate. )
G20 ( Units == INCHES. )

G90 ( Absolute coordinates. )
G00 S12000 ( RPM spindle speed. )
G64 P0.00040 ( set maximum deviation from commanded toolpath )
G01 F360.00000 ( Feedrate. )


G00 Z1.00000 (Retract to tool change height)
T1
M5      (Spindle stop.)
G04 P1.00000 (Wait for spindle to stop)
(MSG, Change tool bit to mill diameter 0.00787in)
M6      (Tool change.)
M0      (Temporary machine stop.)
M3 ( Spindle on clockwise. )
G04 P1.00000 (Wait for spindle to get up to speed)
G04 P0 ( dwell for no time -- G64 should not smooth over this point )
G00 Z0.08000 ( retract )

G00 X-3.20277 Y-2.95000 ( rapid move to begin. )
G01 F180.00000
( Mill infeed pass 1/1 )
G01 Z-0.04000
G04 P0 ( dwell for no time -- G64 should not smooth over this point )
G01 F360.00000
G01 X-3.20277 Y-2.95000
G01 X-3.20368 Y-2.94079
G01 X-3.20637 Y-2.93193
G01 X-3.21073 Y-2.92376
G01 X-3.21689 Y-2.91634
G01 X-3.22314 Y-2.91119
G01 X-3.22443 Y-2.91034
G01 X-3.23193 Y-2.90637
G01 X-3.24041 Y-2.90377
G01 X-3.25039 Y-2.90279
G01 X-3.25921 Y-2.90368
G01 X-3.26235 Y-2.90460
G01 X-3.26250 Y-2.90519
G01 X-3.26235 Y-2.90460
G01 X-3.33347 Y-2.83347
G01 X-3.33639 Y-2.83102
G01 X-3.33768 Y-2.83017
G01 X-3.34070 Y-2.82856
G01 X-3.34178 Y-2.82814
G01 X-3.34544 Y-2.82707
G01 X-3.34923 Y-2.82666
G01 X-3.36653 Y-2.82662
G01 X-3.36756 Y-2.82767
G01 X-3.36653 Y-2.82662
G01 X-3.36663 Y-2.82318
G01 X-3.36739 Y-2.82083
G01 X-3.36856 Y-2.81914
G01 X-3.37012 Y-2.81780
G01 X-3.37198 Y-2.81692
G01 X-3.37359 Y-2.81658
G01 X-3.42600 Y-2.81655
G01 X-3.42763 Y-2.81680
G01 X-3.42916 Y-2.81739
G01 X-3.43086 Y-2.81856
G01 X-3.43196 Y-2.81978
G01 X-3.43308 Y-2.82198
G01 X-3.43345 Y-2.82400
G01 X-3.43346 Y-2.87559
G01 X-3.43329 Y-2.87723
G01 X-3.43278 Y-2.87879
G01 X-3.43196 Y-2.88022
G01 X-3.43086 Y-2.88144
G01 X-3.42988 Y-2.88219
G01 X-3.42841 Y-2.88294
G01 X-3.42600 Y-2.88345
G01 X-3.37359 Y-2.88342
G01 X-3.37198 Y-2.88308
G01 X-3.37012 Y-2.88219
G01 X-3.36856 Y-2.88086
G01 X-3.36739 Y-2.87916
G01 X-3.36663 Y-2.87682
G01 X-3.36653 Y-2.87337
G01 X-3.36758 Y-2.87228
G01 X-3.36653 Y-2.87337
G01 X-3.35968 Y-2.87337
G01 X-3.35956 Y-2.87307
G01 X-3.35968 Y-2.87337
G01 X-3.29540 Y-2.93765
G01 X-3.29480 Y-2.93749
G01 X-3.29540 Y-2.93765
G01 X-3.29632 Y-2.94079
G01 X-3.29721 Y-2.95039
G01 X-3.29632 Y-2.95921
G01 X-3.29363 Y-2.96807
G01 X-3.28926 Y-2.97624
G01 X-3.28366 Y-2.98311
G01 X-3.27624 Y-2.98927
G01 X-3.27337 Y-2.99084
G01 X-3.27284 Y-2.99052
G01 X-3.27337 Y-2.99084
G01 X-3.27337 Y-3.17053
G01 X-3.27307 Y-3.17065
G01 X-3.27337 Y-3.17053
G01 X-3.32947 Y-3.22662
G01 X-3.32934 Y-3.22693
G01 X-3.32947 Y-3.22662
G01 X-3.35186 Y-3.22662
G01 X-3.35196 Y-3.22689
G01 X-3.35186 Y-3.22662
G01 X-3.35329 Y-3.22494
G01 X-3.35834 Y-3.22076
G01 X-3.36443 Y-3.21742
G01 X-3.37143 Y-3.21525
G01 X-3.37796 Y-3.21458
G01 X-3.42243 Y-3.21460
G01 X-3.42857 Y-3.21525
G01 X-3.43449 Y-3.21700
G01 X-3.43591 Y-3.21759
G01 X-3.44134 Y-3.22054
G01 X-3.44613 Y-3.22443
G01 X-3.44723 Y-3.22552
G01 X-3.45112 Y-3.23031
G01 X-3.45406 Y-3.23574
G01 X-3.45465 Y-3.23717
G01 X-3.45641 Y-3.24309
G01 X-3.45709 Y-3.25000
G01 X-3.45641 Y-3.25691
G01 X-3.45465 Y-3.26283
G01 X-3.45406 Y-3.26426
G01 X-3.45112 Y-3.26968
G01 X-3.44723 Y-3.27448
G01 X-3.44613 Y-3.27557
G01 X-3.44165 Y-3.27924
G01 X-3.43591 Y-3.28240
G01 X-3.43449 Y-3.28300
G01 X-3.42857 Y-3.28475
G01 X-3.42243 Y-3.28539
G01 X-3.37796 Y-3.28542
G01 X-3.37143 Y-3.28475
G01 X-3.36443 Y-3.28258
G01 X-3.35834 Y-3.27924
G01 X-3.35329 Y-3.27505
G01 X-3.35186 Y-3.27337
G01 X-3.35196 Y-3.27312
G01 X-3.35186 Y-3.27337
G01 X-3.31940 Y-3.27336
G01 X-3.31523 Y-3.27292
G01 X-3.31084 Y-3.27159
G01 X-3.30680 Y-3.26943
G01 X-3.30326 Y-3.26653
G01 X-3.23347 Y-3.19674
G01 X-3.23079 Y-3.19351
G01 X-3.22873 Y-3.18986
G01 X-3.22814 Y-3.18843
G01 X-3.22708 Y-3.18477
G01 X-3.22662 Y-3.18021
G01 X-3.22662 Y-2.99084
G01 X-3.22716 Y-2.99052
G01 X-3.22662 Y-2.99084
G01 X-3.22376 Y-2.98927
G01 X-3.21689 Y-2.98366
G01 X-3.21053 Y-2.97591
G01 X-3.20670 Y-2.96877
G01 X-3.20611 Y-2.96734
G01 X-3.20368 Y-2.95921
G01 X-3.20278 Y-2.95039
G01 X-3.20277 Y-2.95000
G01 X-3.20671 Y-2.95000
G01 X-3.20754 Y-2.94156
G01 X-3.21001 Y-2.93343
G01 X-3.21401 Y-2.92595
G01 X-3.21968 Y-2.91913
G01 X-3.22595 Y-2.91401
G01 X-3.23308 Y-2.91017
G01 X-3.24155 Y-2.90754
G01 X-3.25039 Y-2.90673
G01 X-3.25844 Y-2.90754
G01 X-3.26346 Y-2.90905
G01 X-3.33625 Y-2.83625
G01 X-3.33953 Y-2.83364
G01 X-3.34256 Y-2.83204
G01 X-3.34659 Y-2.83088
G01 X-3.35000 Y-2.83056
G01 X-3.37047 Y-2.83056
G01 X-3.37047 Y-2.82441
G01 X-3.37066 Y-2.82319
G01 X-3.37100 Y-2.82244
G01 X-3.37177 Y-2.82148
G01 X-3.37281 Y-2.82081
G01 X-3.37400 Y-2.82049
G01 X-3.42559 Y-2.82047
G01 X-3.42641 Y-2.82056
G01 X-3.42756 Y-2.82100
G01 X-3.42877 Y-2.82210
G01 X-3.42933 Y-2.82319
G01 X-3.42953 Y-2.82441
G01 X-3.42953 Y-2.87559
G01 X-3.42919 Y-2.87719
G01 X-3.42822 Y-2.87852
G01 X-3.42719 Y-2.87919
G01 X-3.42559 Y-2.87953
G01 X-3.37400 Y-2.87950
G01 X-3.37281 Y-2.87919
G01 X-3.37177 Y-2.87852
G01 X-3.37100 Y-2.87756
G01 X-3.37066 Y-2.87681
G01 X-3.37047 Y-2.87559
G01 X-3.37047 Y-2.86944
G01 X-3.35805 Y-2.86944
G01 X-3.29095 Y-2.93654
G01 X-3.29245 Y-2.94156
G01 X-3.29329 Y-2.95000
G01 X-3.29245 Y-2.95844
G01 X-3.28999 Y-2.96657
G01 X-3.28599 Y-2.97405
G01 X-3.28061 Y-2.98061
G01 X-3.27405 Y-2.98599
G01 X-3.26944 Y-2.98848
G01 X-3.26944 Y-3.17216
G01 X-3.32784 Y-3.23056
G01 X-3.35372 Y-3.23056
G01 X-3.35608 Y-3.22773
G01 X-3.36054 Y-3.22404
G01 X-3.36594 Y-3.22107
G01 X-3.37220 Y-3.21911
G01 X-3.37796 Y-3.21852
G01 X-3.42204 Y-3.21852
G01 X-3.42780 Y-3.21911
G01 X-3.43334 Y-3.22077
G01 X-3.43915 Y-3.22381
G01 X-3.44392 Y-3.22773
G01 X-3.44804 Y-3.23283
G01 X-3.45075 Y-3.23795
G01 X-3.45245 Y-3.24348
G01 X-3.45315 Y-3.25000
G01 X-3.45245 Y-3.25652
G01 X-3.45075 Y-3.26205
G01 X-3.44804 Y-3.26717
G01 X-3.44392 Y-3.27227
G01 X-3.43882 Y-3.27639
G01 X-3.43334 Y-3.27923
G01 X-3.42780 Y-3.28089
G01 X-3.42204 Y-3.28148
G01 X-3.37796 Y-3.28148
G01 X-3.37220 Y-3.28089
G01 X-3.36594 Y-3.27893
G01 X-3.36054 Y-3.27596
G01 X-3.35608 Y-3.27227
G01 X-3.35372 Y-3.26944
G01 X-3.31979 Y-3.26944
G01 X-3.31599 Y-3.26906
G01 X-3.31235 Y-3.26796
G01 X-3.30899 Y-3.26616
G01 X-3.30604 Y-3.26374
G01 X-3.23625 Y-3.19395
G01 X-3.23384 Y-3.19101
G01 X-3.23191 Y-3.18729
G01 X-3.23094 Y-3.18400
G01 X-3.23056 Y-3.18021
G01 X-3.23056 Y-2.98848
G01 X-3.22595 Y-2.98599
G01 X-3.21968 Y-2.98087
G01 X-3.21401 Y-2.97405
G01 X-3.20988 Y-2.96620
G01 X-3.20754 Y-2.95844
G01 X-3.20671 Y-2.95000
G04 P0 ( dwell for no time -- G64 should not smooth over this point )
G00 Z0.08000 ( retract )

G00 X-3.34291 Y-3.17126 ( rapid move to begin. )
G01 F180.00000
( Mill infeed pass 1/1 )
G01 Z-0.04000
G04 P0 ( dwell for no time -- G64 should not smooth over this point )
G01 F360.00000
G01 X-3.34291 Y-3.17126
G01 X-3.34359 Y-3.17817
G01 X-3.34561 Y-3.18482
G01 X-3.34888 Y-3.19095
G01 X-3.35329 Y-3.19631
G01 X-3.35866 Y-3.20072
G01 X-3.36479 Y-3.20399
G01 X-3.37143 Y-3.20601
G01 X-3.37796 Y-3.20668
G01 X-3.42165 Y-3.20669
G01 X-3.42819 Y-3.20608
G01 X-3.43521 Y-3.20399
G01 X-3.44101 Y-3.20093
G01 X-3.44643 Y-3.19658
G01 X-3.44793 Y-3.19488
G01 X-3.44784 Y-3.19463
G01 X-3.44793 Y-3.19488
G01 X-4.04280 Y-3.19488
G01 X-4.04665 Y-3.19454
G01 X-4.04816 Y-3.19424
G01 X-4.05184 Y-3.19308
G01 X-4.05527 Y-3.19130
G01 X-4.05655 Y-3.19044
G01 X-4.05951 Y-3.18796
G01 X-4.26544 Y-2.98203
G01 X-4.26539 Y-2.98059
G01 X-4.26544 Y-2.98203
G01 X-4.26634 Y-2.98311
G01 X-4.27314 Y-2.98881
G01 X-4.27443 Y-2.98966
G01 X-4.28157 Y-2.99347
G01 X-4.29079 Y-2.99632
G01 X-4.29961 Y-2.99721
G01 X-4.30921 Y-2.99632
G01 X-4.31807 Y-2.99363
G01 X-4.32624 Y-2.98927
G01 X-4.33282 Y-2.98391
G01 X-4.33391 Y-2.98282
G01 X-4.33927 Y-2.97624
G01 X-4.34330 Y-2.96877
G01 X-4.34389 Y-2.96734
G01 X-4.34613 Y-2.95996
G01 X-4.34643 Y-2.95845
G01 X-4.34722 Y-2.95000
G01 X-4.34643 Y-2.94155
G01 X-4.34613 Y-2.94004
G01 X-4.34363 Y-2.93193
G01 X-4.33904 Y-2.92345
G01 X-4.33311 Y-2.91634
G01 X-4.32624 Y-2.91073
G01 X-4.32362 Y-2.90930
G01 X-4.32309 Y-2.90961
G01 X-4.32362 Y-2.90930
G01 X-4.32362 Y-2.87362
G01 X-4.32247 Y-2.87247
G01 X-4.32362 Y-2.87362
G01 X-4.42787 Y-2.87362
G01 X-4.42796 Y-2.87339
G01 X-4.42787 Y-2.87362
G01 X-4.42819 Y-2.87393
G01 X-4.43298 Y-2.87782
G01 X-4.43807 Y-2.88059
G01 X-4.43950 Y-2.88118
G01 X-4.44505 Y-2.88282
G01 X-4.45080 Y-2.88343
G01 X-4.45235 Y-2.88343
G01 X-4.45772 Y-2.88289
G01 X-4.46438 Y-2.88092
G01 X-4.46950 Y-2.87822
G01 X-4.47079 Y-2.87736
G01 X-4.47466 Y-2.87418
G01 X-4.47576 Y-2.87309
G01 X-4.47940 Y-2.86859
G01 X-4.48249 Y-2.86281
G01 X-4.48440 Y-2.85653
G01 X-4.48503 Y-2.85039
G01 X-4.48440 Y-2.84347
G01 X-4.48249 Y-2.83719
G01 X-4.47940 Y-2.83141
G01 X-4.47576 Y-2.82691
G01 X-4.47466 Y-2.82582
G01 X-4.47079 Y-2.82264
G01 X-4.46950 Y-2.82178
G01 X-4.46438 Y-2.81908
G01 X-4.45885 Y-2.81737
G01 X-4.45734 Y-2.81706
G01 X-4.45196 Y-2.81654
G01 X-4.45080 Y-2.81657
G01 X-4.44505 Y-2.81718
G01 X-4.43950 Y-2.81882
G01 X-4.43807 Y-2.81941
G01 X-4.43298 Y-2.82218
G01 X-4.42819 Y-2.82607
G01 X-4.42787 Y-2.82638
G01 X-4.42796 Y-2.82661
G01 X-4.42787 Y-2.82638
G01 X-4.29961 Y-2.82639
G01 X-4.29539 Y-2.82683
G01 X-4.29169 Y-2.82791
G01 X-4.29026 Y-2.82850
G01 X-4.28688 Y-2.83036
G01 X-4.28329 Y-2.83330
G01 X-4.28036 Y-2.83688
G01 X-4.27817 Y-2.84096
G01 X-4.27676 Y-2.84577
G01 X-4.27637 Y-2.85000
G01 X-4.27637 Y-2.90428
G01 X-4.27667 Y-2.90440
G01 X-4.27637 Y-2.90428
G01 X-4.03302 Y-3.14763
G01 X-4.03314 Y-3.14793
G01 X-4.03302 Y-3.14763
G01 X-3.44793 Y-3.14763
G01 X-3.44779 Y-3.14797
G01 X-3.44793 Y-3.14763
G01 X-3.44643 Y-3.14594
G01 X-3.44101 Y-3.14159
G01 X-3.43521 Y-3.13852
G01 X-3.42819 Y-3.13644
G01 X-3.42165 Y-3.13583
G01 X-3.37757 Y-3.13586
G01 X-3.37143 Y-3.13651
G01 X-3.36479 Y-3.13852
G01 X-3.35866 Y-3.14180
G01 X-3.35386 Y-3.14568
G01 X-3.35228 Y-3.14738
G01 X-3.34911 Y-3.15126
G01 X-3.34849 Y-3.15224
G01 X-3.34561 Y-3.15770
G01 X-3.34353 Y-3.16473
G01 X-3.34291 Y-3.17126
G01 X-3.34685 Y-3.17126
G01 X-3.34746 Y-3.17740
G01 X-3.34912 Y-3.18295
G01 X-3.35216 Y-3.18876
G01 X-3.35608 Y-3.19353
G01 X-3.36054 Y-3.19722
G01 X-3.36666 Y-3.20049
G01 X-3.37220 Y-3.20215
G01 X-3.37835 Y-3.20275
G01 X-3.42165 Y-3.20275
G01 X-3.42741 Y-3.20221
G01 X-3.43371 Y-3.20036
G01 X-3.43915 Y-3.19745
G01 X-3.44392 Y-3.19353
G01 X-3.44607 Y-3.19095
G01 X-4.04280 Y-3.19095
G01 X-4.04664 Y-3.19057
G01 X-4.04997 Y-3.18958
G01 X-4.05374 Y-3.18763
G01 X-4.05672 Y-3.18518
G01 X-4.26573 Y-2.97618
G01 X-4.26939 Y-2.98061
G01 X-4.27564 Y-2.98576
G01 X-4.28308 Y-2.98983
G01 X-4.29155 Y-2.99246
G01 X-4.29961 Y-2.99327
G01 X-4.30844 Y-2.99246
G01 X-4.31656 Y-2.98999
G01 X-4.32405 Y-2.98599
G01 X-4.33087 Y-2.98032
G01 X-4.33599 Y-2.97405
G01 X-4.34012 Y-2.96620
G01 X-4.34246 Y-2.95844
G01 X-4.34327 Y-2.95038
G01 X-4.34251 Y-2.94194
G01 X-4.33999 Y-2.93343
G01 X-4.33576 Y-2.92564
G01 X-4.33032 Y-2.91913
G01 X-4.32405 Y-2.91401
G01 X-4.31969 Y-2.91166
G01 X-4.31969 Y-2.86969
G01 X-4.42969 Y-2.86969
G01 X-4.43098 Y-2.87114
G01 X-4.43517 Y-2.87455
G01 X-4.44064 Y-2.87741
G01 X-4.44581 Y-2.87896
G01 X-4.45119 Y-2.87951
G01 X-4.45695 Y-2.87902
G01 X-4.46287 Y-2.87728
G01 X-4.46765 Y-2.87475
G01 X-4.47271 Y-2.87059
G01 X-4.47613 Y-2.86640
G01 X-4.47885 Y-2.86130
G01 X-4.48053 Y-2.85576
G01 X-4.48110 Y-2.85000
G01 X-4.48053 Y-2.84424
G01 X-4.47885 Y-2.83870
G01 X-4.47613 Y-2.83359
G01 X-4.47245 Y-2.82912
G01 X-4.46798 Y-2.82545
G01 X-4.46287 Y-2.82272
G01 X-4.45733 Y-2.82104
G01 X-4.45196 Y-2.82049
G01 X-4.44581 Y-2.82104
G01 X-4.44027 Y-2.82272
G01 X-4.43517 Y-2.82545
G01 X-4.43098 Y-2.82886
G01 X-4.42969 Y-2.83031
G01 X-4.30000 Y-2.83031
G01 X-4.29616 Y-2.83069
G01 X-4.29283 Y-2.83168
G01 X-4.28906 Y-2.83363
G01 X-4.28608 Y-2.83608
G01 X-4.28363 Y-2.83906
G01 X-4.28181 Y-2.84247
G01 X-4.28063 Y-2.84654
G01 X-4.28031 Y-2.85000
G01 X-4.28031 Y-2.90591
G01 X-4.03465 Y-3.15157
G01 X-3.44607 Y-3.15157
G01 X-3.44392 Y-3.14899
G01 X-3.43915 Y-3.14507
G01 X-3.43371 Y-3.14216
G01 X-3.42780 Y-3.14037
G01 X-3.42165 Y-3.13976
G01 X-3.37835 Y-3.13976
G01 X-3.37220 Y-3.14037
G01 X-3.36629 Y-3.14216
G01 X-3.36085 Y-3.14507
G01 X-3.35636 Y-3.14873
G01 X-3.35216 Y-3.15376
G01 X-3.34925 Y-3.15921
G01 X-3.34746 Y-3.16512
G01 X-3.34685 Y-3.17126
G01 X-3.34291 Y-3.17126
G01 X-3.46890 Y-2.85000
G01 X-3.46947 Y-2.84424
G01 X-3.47114 Y-2.83870
G01 X-3.47410 Y-2.83329
G01 X-3.47755 Y-2.82912
G01 X-3.48171 Y-2.82568
G01 X-3.48712 Y-2.82272
G01 X-3.49305 Y-2.82098
G01 X-3.49881 Y-2.82049
G01 X-3.50419 Y-2.82104
G01 X-3.50936 Y-2.82259
G01 X-3.51483 Y-2.82545
G01 X-3.51930 Y-2.82912
G01 X-3.52298 Y-2.83359
G01 X-3.52570 Y-2.83870
G01 X-3.52739 Y-2.84424
G01 X-3.52793 Y-2.84961
G01 X-3.52779 Y-2.85187
G01 X-3.60648 Y-2.93056
G01 X-3.61152 Y-2.93056
G01 X-3.61401 Y-2.92595
G01 X-3.61913 Y-2.91968
G01 X-3.62628 Y-2.91381
G01 X-3.63343 Y-2.91001
G01 X-3.64118 Y-2.90764
G01 X-3.65000 Y-2.90671
G01 X-3.65844 Y-2.90754
G01 X-3.66620 Y-2.90988
G01 X-3.67405 Y-2.91401
G01 X-3.68087 Y-2.91968
G01 X-3.68599 Y-2.92595
G01 X-3.68848 Y-2.93056
G01 X-3.98775 Y-2.93056
G01 X-4.14314 Y-2.77516
G01 X-4.14609 Y-2.77275
G01 X-4.14910 Y-2.77112
G01 X-4.15310 Y-2.76985
G01 X-4.15689 Y-2.76947
G01 X-4.64969 Y-2.76947
G01 X-4.65310 Y-2.76979
G01 X-4.65747 Y-2.77112
G01 X-4.66049 Y-2.77275
G01 X-4.66343 Y-2.77516
G01 X-4.78859 Y-2.90033
G01 X-4.79101 Y-2.90327
G01 X-4.79294 Y-2.90700
G01 X-4.79391 Y-2.91028
G01 X-4.79429 Y-2.91407
G01 X-4.79429 Y-2.98593
G01 X-4.79397 Y-2.98934
G01 X-4.79264 Y-2.99371
G01 X-4.79101 Y-2.99673
G01 X-4.78859 Y-2.99967
G01 X-4.60326 Y-3.18500
G01 X-4.60032 Y-3.18742
G01 X-4.59659 Y-3.18935
G01 X-4.59331 Y-3.19032
G01 X-4.58990 Y-3.19068
G01 X-4.54627 Y-3.19070
G01 X-4.54392 Y-3.19353
G01 X-4.53915 Y-3.19745
G01 X-4.53371 Y-3.20036
G01 X-4.52742 Y-3.20221
G01 X-4.52165 Y-3.20275
G01 X-4.47835 Y-3.20275
G01 X-4.47258 Y-3.20221
G01 X-4.46594 Y-3.20019
G01 X-4.46085 Y-3.19745
G01 X-4.45608 Y-3.19353
G01 X-4.45196 Y-3.18843
G01 X-4.44925 Y-3.18331
G01 X-4.44745 Y-3.17740
G01 X-4.44685 Y-3.17126
G01 X-4.44740 Y-3.16550
G01 X-4.44925 Y-3.15921
G01 X-4.45239 Y-3.15345
G01 X-4.45608 Y-3.14899
G01 X-4.46054 Y-3.14530
G01 X-4.46666 Y-3.14203
G01 X-4.47220 Y-3.14037
G01 X-4.47796 Y-3.13978
G01 X-4.52204 Y-3.13978
G01 X-4.52780 Y-3.14037
G01 X-4.53406 Y-3.14233
G01 X-4.53946 Y-3.14530
G01 X-4.54392 Y-3.14899
G01 X-4.54627 Y-3.15182
G01 X-4.58147 Y-3.15182
G01 X-4.75541 Y-2.97788
G01 X-4.75541 Y-2.92212
G01 X-4.64163 Y-2.80835
G01 X-4.16494 Y-2.80835
G01 X-4.00954 Y-2.96374
G01 X-4.00660 Y-2.96616
G01 X-4.00324 Y-2.96796
G01 X-3.99959 Y-2.96906
G01 X-3.99580 Y-2.96944
G01 X-3.68848 Y-2.96944
G01 X-3.68599 Y-2.97405
G01 X-3.68087 Y-2.98032
G01 X-3.67405 Y-2.98599
G01 X-3.66620 Y-2.99012
G01 X-3.65844 Y-2.99246
G01 X-3.65000 Y-2.99329
G01 X-3.64155 Y-2.99246
G01 X-3.63380 Y-2.99012
G01 X-3.62595 Y-2.98599
G01 X-3.61913 Y-2.98032
G01 X-3.61401 Y-2.97405
G01 X-3.61152 Y-2.96944
G01 X-3.59843 Y-2.96944
G01 X-3.59502 Y-2.96912
G01 X-3.59099 Y-2.96796
G01 X-3.58763 Y-2.96616
G01 X-3.58468 Y-2.96374
G01 X-3.50030 Y-2.87936
G01 X-3.49804 Y-2.87951
G01 X-3.49266 Y-2.87896
G01 X-3.48712 Y-2.87728
G01 X-3.48202 Y-2.87455
G01 X-3.47729 Y-2.87059
G01 X-3.47387 Y-2.86640
G01 X-3.47114 Y-2.86130
G01 X-3.46947 Y-2.85576
G01 X-3.46890 Y-2.85000
G01 X-3.46496 Y-2.85000
G01 X-3.46549 Y-2.84423
G01 X-3.46579 Y-2.84272
G01 X-3.46751 Y-2.83719
G01 X-3.47020 Y-2.83207
G01 X-3.47106 Y-2.83079
G01 X-3.47476 Y-2.82634
G01 X-3.47983 Y-2.82218
G01 X-3.48492 Y-2.81941
G01 X-3.48635 Y-2.81882
G01 X-3.49228 Y-2.81711
G01 X-3.49765 Y-2.81657
G01 X-3.49920 Y-2.81657
G01 X-3.50495 Y-2.81718
G01 X-3.51050 Y-2.81882
G01 X-3.51193 Y-2.81941
G01 X-3.51702 Y-2.82218
G01 X-3.52181 Y-2.82607
G01 X-3.52625 Y-2.83141
G01 X-3.52934 Y-2.83719
G01 X-3.53125 Y-2.84347
G01 X-3.53188 Y-2.84961
G01 X-3.53188 Y-2.85040
G01 X-3.53165 Y-2.85050
G01 X-3.53188 Y-2.85040
G01 X-3.60811 Y-2.92663
G01 X-3.60798 Y-2.92693
G01 X-3.60811 Y-2.92663
G01 X-3.60916 Y-2.92663
G01 X-3.60948 Y-2.92716
G01 X-3.60916 Y-2.92663
G01 X-3.61073 Y-2.92376
G01 X-3.61634 Y-2.91689
G01 X-3.62409 Y-2.91053
G01 X-3.63193 Y-2.90637
G01 X-3.64004 Y-2.90387
G01 X-3.64155 Y-2.90357
G01 X-3.65000 Y-2.90278
G01 X-3.65845 Y-2.90357
G01 X-3.65996 Y-2.90387
G01 X-3.66807 Y-2.90637
G01 X-3.67591 Y-2.91053
G01 X-3.68366 Y-2.91689
G01 X-3.68926 Y-2.92376
G01 X-3.69084 Y-2.92663
G01 X-3.69052 Y-2.92716
G01 X-3.69084 Y-2.92663
G01 X-3.98612 Y-2.92663
G01 X-3.98624 Y-2.92693
G01 X-3.98612 Y-2.92663
G01 X-4.14036 Y-2.77238
G01 X-4.14328 Y-2.76993
G01 X-4.14457 Y-2.76908
G01 X-4.14794 Y-2.76731
G01 X-4.15195 Y-2.76607
G01 X-4.15689 Y-2.76553
G01 X-4.64969 Y-2.76553
G01 X-4.65387 Y-2.76592
G01 X-4.65790 Y-2.76705
G01 X-4.65933 Y-2.76764
G01 X-4.66267 Y-2.76947
G01 X-4.66621 Y-2.77238
G01 X-4.79138 Y-2.89754
G01 X-4.79428 Y-2.90109
G01 X-4.79611 Y-2.90443
G01 X-4.79671 Y-2.90585
G01 X-4.79777 Y-2.90951
G01 X-4.79821 Y-2.91368
G01 X-4.79822 Y-2.98593
G01 X-4.79789 Y-2.98972
G01 X-4.79769 Y-2.99086
G01 X-4.79671 Y-2.99415
G01 X-4.79611 Y-2.99557
G01 X-4.79428 Y-2.99891
G01 X-4.79138 Y-3.00245
G01 X-4.60604 Y-3.18779
G01 X-4.60250 Y-3.19069
G01 X-4.59916 Y-3.19252
G01 X-4.59774 Y-3.19311
G01 X-4.59408 Y-3.19418
G01 X-4.58990 Y-3.19462
G01 X-4.54814 Y-3.19463
G01 X-4.54804 Y-3.19438
G01 X-4.54814 Y-3.19463
G01 X-4.54643 Y-3.19658
G01 X-4.54101 Y-3.20093
G01 X-4.53521 Y-3.20399
G01 X-4.52932 Y-3.20582
G01 X-4.52780 Y-3.20613
G01 X-4.52165 Y-3.20669
G01 X-4.47835 Y-3.20669
G01 X-4.47220 Y-3.20613
G01 X-4.47068 Y-3.20582
G01 X-4.46551 Y-3.20426
G01 X-4.46409 Y-3.20366
G01 X-4.45866 Y-3.20072
G01 X-4.45329 Y-3.19631
G01 X-4.44935 Y-3.19157
G01 X-4.44849 Y-3.19028
G01 X-4.44561 Y-3.18482
G01 X-4.44378 Y-3.17892
G01 X-4.44348 Y-3.17741
G01 X-4.44291 Y-3.17126
G01 X-4.44348 Y-3.16511
G01 X-4.44378 Y-3.16360
G01 X-4.44561 Y-3.15770
G01 X-4.44849 Y-3.15224
G01 X-4.44935 Y-3.15095
G01 X-4.45277 Y-3.14678
G01 X-4.45386 Y-3.14568
G01 X-4.45866 Y-3.14180
G01 X-4.46409 Y-3.13885
G01 X-4.46551 Y-3.13826
G01 X-4.47181 Y-3.13644
G01 X-4.47835 Y-3.13583
G01 X-4.52165 Y-3.13583
G01 X-4.52857 Y-3.13651
G01 X-4.53557 Y-3.13868
G01 X-4.54166 Y-3.14202
G01 X-4.54671 Y-3.14620
G01 X-4.54814 Y-3.14788
G01 X-4.54803 Y-3.14815
G01 X-4.54814 Y-3.14788
G01 X-4.57984 Y-3.14788
G01 X-4.57996 Y-3.14818
G01 X-4.57984 Y-3.14788
G01 X-4.75148 Y-2.97625
G01 X-4.75178 Y-2.97637
G01 X-4.75148 Y-2.97625
G01 X-4.75148 Y-2.92375
G01 X-4.75178 Y-2.92363
G01 X-4.75148 Y-2.92375
G01 X-4.64001 Y-2.81228
G01 X-4.64013 Y-2.81198
G01 X-4.64001 Y-2.81228
G01 X-4.16657 Y-2.81228
G01 X-4.16645 Y-2.81198
G01 X-4.16657 Y-2.81228
G01 X-4.01233 Y-2.96653
G01 X-4.00878 Y-2.96943
G01 X-4.00438 Y-2.97173
G01 X-4.00036 Y-2.97292
G01 X-3.99580 Y-2.97337
G01 X-3.69084 Y-2.97337
G01 X-3.69052 Y-2.97284
G01 X-3.69084 Y-2.97337
G01 X-3.68926 Y-2.97624
G01 X-3.68366 Y-2.98311
G01 X-3.67591 Y-2.98947
G01 X-3.66877 Y-2.99330
G01 X-3.66734 Y-2.99389
G01 X-3.65921 Y-2.99632
G01 X-3.65039 Y-2.99721
G01 X-3.64155 Y-2.99643
G01 X-3.64004 Y-2.99613
G01 X-3.63193 Y-2.99363
G01 X-3.62409 Y-2.98947
G01 X-3.61634 Y-2.98311
G01 X-3.61073 Y-2.97624
G01 X-3.60916 Y-2.97337
G01 X-3.60946 Y-2.97287
G01 X-3.60916 Y-2.97337
G01 X-3.59843 Y-2.97337
G01 X-3.59424 Y-2.97299
G01 X-3.58948 Y-2.97159
G01 X-3.58610 Y-2.96983
G01 X-3.58482 Y-2.96897
G01 X-3.58190 Y-2.96653
G01 X-3.49882 Y-2.88345
G01 X-3.49893 Y-2.88323
G01 X-3.49882 Y-2.88345
G01 X-3.49804 Y-2.88346
G01 X-3.49190 Y-2.88282
G01 X-3.48562 Y-2.88092
G01 X-3.47983 Y-2.87782
G01 X-3.47476 Y-2.87366
G01 X-3.47060 Y-2.86859
G01 X-3.46751 Y-2.86281
G01 X-3.46560 Y-2.85653
G01 X-3.46496 Y-2.85000
G04 P0 ( dwell for no time -- G64 should not smooth over this point )
G00 Z0.08000 ( retract )

G00 X-3.20277 Y-2.55000 ( rapid move to begin. )
G01 F180.00000
( Mill infeed pass 1/1 )
G01 Z-0.04000
G04 P0 ( dwell for no time -- G64 should not smooth over this point )
G01 F360.00000
G01 X-3.20277 Y-2.55000
G01 X-3.20368 Y-2.54079
G01 X-3.20637 Y-2.53193
G01 X-3.21073 Y-2.52376
G01 X-3.21661 Y-2.51661
G01 X-3.22376 Y-2.51073
G01 X-3.23193 Y-2.50637
G01 X-3.24079 Y-2.50368
G01 X-3.24961 Y-2.50278
G01 X-3.25845 Y-2.50357
G01 X-3.25996 Y-2.50387
G01 X-3.26807 Y-2.50637
G01 X-3.27591 Y-2.51053
G01 X-3.28366 Y-2.51689
G01 X-3.28926 Y-2.52376
G01 X-3.29070 Y-2.52637
G01 X-3.29039 Y-2.52691
G01 X-3.29070 Y-2.52637
G01 X-3.60929 Y-2.52637
G01 X-3.60961 Y-2.52691
G01 X-3.60929 Y-2.52637
G01 X-3.61073 Y-2.52376
G01 X-3.61689 Y-2.51634
G01 X-3.62376 Y-2.51073
G01 X-3.63193 Y-2.50637
G01 X-3.64079 Y-2.50368
G01 X-3.64961 Y-2.50278
G01 X-3.65921 Y-2.50368
G01 X-3.66235 Y-2.50459
G01 X-3.66251 Y-2.50520
G01 X-3.66235 Y-2.50459
G01 X-3.78025 Y-2.38670
G01 X-3.78351 Y-2.38406
G01 X-3.78755 Y-2.38190
G01 X-3.79194 Y-2.38057
G01 X-3.79650 Y-2.38012
G01 X-4.15350 Y-2.38012
G01 X-4.15806 Y-2.38057
G01 X-4.16244 Y-2.38190
G01 X-4.16582 Y-2.38367
G01 X-4.16711 Y-2.38452
G01 X-4.17003 Y-2.38697
G01 X-4.28765 Y-2.50460
G01 X-4.28749 Y-2.50520
G01 X-4.28765 Y-2.50460
G01 X-4.29079 Y-2.50368
G01 X-4.30039 Y-2.50278
G01 X-4.30921 Y-2.50368
G01 X-4.31807 Y-2.50637
G01 X-4.32624 Y-2.51073
G01 X-4.33311 Y-2.51634
G01 X-4.33927 Y-2.52376
G01 X-4.34070 Y-2.52637
G01 X-4.34039 Y-2.52691
G01 X-4.34070 Y-2.52637
G01 X-4.65930 Y-2.52637
G01 X-4.65961 Y-2.52691
G01 X-4.65930 Y-2.52637
G01 X-4.66073 Y-2.52376
G01 X-4.66634 Y-2.51689
G01 X-4.67409 Y-2.51053
G01 X-4.68193 Y-2.50637
G01 X-4.69004 Y-2.50387
G01 X-4.69155 Y-2.50357
G01 X-4.70039 Y-2.50278
G01 X-4.70921 Y-2.50368
G01 X-4.71807 Y-2.50637
G01 X-4.72624 Y-2.51073
G01 X-4.73339 Y-2.51661
G01 X-4.73926 Y-2.52376
G01 X-4.74363 Y-2.53193
G01 X-4.74632 Y-2.54079
G01 X-4.74722 Y-2.55000
G01 X-4.74632 Y-2.55921
G01 X-4.74363 Y-2.56807
G01 X-4.73926 Y-2.57624
G01 X-4.73339 Y-2.58339
G01 X-4.72624 Y-2.58927
G01 X-4.71807 Y-2.59363
G01 X-4.70921 Y-2.59632
G01 X-4.70077 Y-2.59719
G01 X-4.69923 Y-2.59719
G01 X-4.69155 Y-2.59643
G01 X-4.69004 Y-2.59613
G01 X-4.68193 Y-2.59363
G01 X-4.67409 Y-2.58947
G01 X-4.66634 Y-2.58311
G01 X-4.66073 Y-2.57624
G01 X-4.65930 Y-2.57362
G01 X-4.65961 Y-2.57309
G01 X-4.65930 Y-2.57362
G01 X-4.34070 Y-2.57362
G01 X-4.34039 Y-2.57309
G01 X-4.34070 Y-2.57362
G01 X-4.33927 Y-2.57624
G01 X-4.33366 Y-2.58311
G01 X-4.32655 Y-2.58904
G01 X-4.31807 Y-2.59363
G01 X-4.30959 Y-2.59623
G01 X-4.30000 Y-2.59722
G01 X-4.29079 Y-2.59632
G01 X-4.28193 Y-2.59363
G01 X-4.27409 Y-2.58947
G01 X-4.27400 Y-2.58892
G01 X-4.27400 Y-2.58941
G01 X-4.07677 Y-2.68803
G01 X-4.07619 Y-2.68766
G01 X-4.07677 Y-2.68803
G01 X-4.07676 Y-2.81341
G01 X-4.07660 Y-2.81464
G01 X-4.07609 Y-2.81620
G01 X-4.07527 Y-2.81763
G01 X-4.07417 Y-2.81885
G01 X-4.07284 Y-2.81982
G01 X-4.07172 Y-2.82035
G01 X-4.07013 Y-2.82078
G01 X-4.06890 Y-2.82087
G01 X-3.93110 Y-2.82087
G01 X-3.92987 Y-2.82078
G01 X-3.92828 Y-2.82035
G01 X-3.92681 Y-2.81960
G01 X-3.92553 Y-2.81857
G01 X-3.92450 Y-2.81729
G01 X-3.92375 Y-2.81582
G01 X-3.92332 Y-2.81423
G01 X-3.92322 Y-2.81300
G01 X-3.92322 Y-2.67520
G01 X-3.92340 Y-2.67356
G01 X-3.92428 Y-2.67126
G01 X-3.92498 Y-2.67024
G01 X-3.92614 Y-2.66908
G01 X-3.92828 Y-2.66785
G01 X-3.93069 Y-2.66734
G01 X-4.01252 Y-2.66732
G01 X-4.01255 Y-2.66743
G01 X-4.01252 Y-2.66732
G01 X-4.25303 Y-2.54707
G01 X-4.25341 Y-2.54736
G01 X-4.25303 Y-2.54707
G01 X-4.25362 Y-2.54117
G01 X-4.25460 Y-2.53765
G01 X-4.25506 Y-2.53750
G01 X-4.25460 Y-2.53765
G01 X-4.14382 Y-2.42687
G01 X-4.14394 Y-2.42657
G01 X-4.14382 Y-2.42687
G01 X-3.80618 Y-2.42687
G01 X-3.80606 Y-2.42657
G01 X-3.80618 Y-2.42687
G01 X-3.69540 Y-2.53765
G01 X-3.69480 Y-2.53749
G01 X-3.69540 Y-2.53765
G01 X-3.69632 Y-2.54079
G01 X-3.69719 Y-2.54923
G01 X-3.69719 Y-2.55077
G01 X-3.69638 Y-2.55883
G01 X-3.69363 Y-2.56807
G01 X-3.68947 Y-2.57591
G01 X-3.68339 Y-2.58339
G01 X-3.67624 Y-2.58927
G01 X-3.66807 Y-2.59363
G01 X-3.65883 Y-2.59638
G01 X-3.65000 Y-2.59722
G01 X-3.64155 Y-2.59643
G01 X-3.64004 Y-2.59613
G01 X-3.63157 Y-2.59347
G01 X-3.62376 Y-2.58927
G01 X-3.61689 Y-2.58366
G01 X-3.61073 Y-2.57624
G01 X-3.60929 Y-2.57362
G01 X-3.60961 Y-2.57309
G01 X-3.60929 Y-2.57362
G01 X-3.29070 Y-2.57362
G01 X-3.29039 Y-2.57309
G01 X-3.29070 Y-2.57362
G01 X-3.28926 Y-2.57624
G01 X-3.28311 Y-2.58366
G01 X-3.27624 Y-2.58927
G01 X-3.26843 Y-2.59347
G01 X-3.25996 Y-2.59613
G01 X-3.25845 Y-2.59643
G01 X-3.25000 Y-2.59722
G01 X-3.24155 Y-2.59643
G01 X-3.24004 Y-2.59613
G01 X-3.23193 Y-2.59363
G01 X-3.22443 Y-2.58966
G01 X-3.22314 Y-2.58880
G01 X-3.21718 Y-2.58391
G01 X-3.21609 Y-2.58282
G01 X-3.21073 Y-2.57624
G01 X-3.20637 Y-2.56807
G01 X-3.20368 Y-2.55921
G01 X-3.20277 Y-2.55000
G01 X-3.20671 Y-2.55000
G01 X-3.20754 Y-2.54155
G01 X-3.21001 Y-2.53343
G01 X-3.21401 Y-2.52595
G01 X-3.21939 Y-2.51939
G01 X-3.22595 Y-2.51401
G01 X-3.23343 Y-2.51001
G01 X-3.24155 Y-2.50754
G01 X-3.25000 Y-2.50671
G01 X-3.25844 Y-2.50754
G01 X-3.26620 Y-2.50988
G01 X-3.27405 Y-2.51401
G01 X-3.28087 Y-2.51968
G01 X-3.28599 Y-2.52595
G01 X-3.28834 Y-2.53031
G01 X-3.61165 Y-2.53031
G01 X-3.61401 Y-2.52595
G01 X-3.61939 Y-2.51939
G01 X-3.62595 Y-2.51401
G01 X-3.63343 Y-2.51001
G01 X-3.64155 Y-2.50754
G01 X-3.65000 Y-2.50671
G01 X-3.65844 Y-2.50754
G01 X-3.66346 Y-2.50905
G01 X-3.78275 Y-2.38975
G01 X-3.78570 Y-2.38734
G01 X-3.78906 Y-2.38554
G01 X-3.79271 Y-2.38443
G01 X-3.79650 Y-2.38406
G01 X-4.15350 Y-2.38406
G01 X-4.15766 Y-2.38453
G01 X-4.16094 Y-2.38554
G01 X-4.16397 Y-2.38714
G01 X-4.16724 Y-2.38975
G01 X-4.28653 Y-2.50905
G01 X-4.29155 Y-2.50754
G01 X-4.30000 Y-2.50671
G01 X-4.30844 Y-2.50754
G01 X-4.31656 Y-2.51001
G01 X-4.32405 Y-2.51401
G01 X-4.33061 Y-2.51939
G01 X-4.33599 Y-2.52595
G01 X-4.33834 Y-2.53031
G01 X-4.66165 Y-2.53031
G01 X-4.66401 Y-2.52595
G01 X-4.66913 Y-2.51968
G01 X-4.67595 Y-2.51401
G01 X-4.68380 Y-2.50988
G01 X-4.69156 Y-2.50754
G01 X-4.70000 Y-2.50671
G01 X-4.70844 Y-2.50754
G01 X-4.71620 Y-2.50988
G01 X-4.72405 Y-2.51401
G01 X-4.73087 Y-2.51968
G01 X-4.73599 Y-2.52595
G01 X-4.73999 Y-2.53343
G01 X-4.74245 Y-2.54155
G01 X-4.74327 Y-2.55038
G01 X-4.74245 Y-2.55844
G01 X-4.74012 Y-2.56620
G01 X-4.73619 Y-2.57372
G01 X-4.73061 Y-2.58061
G01 X-4.72405 Y-2.58599
G01 X-4.71657 Y-2.58999
G01 X-4.70806 Y-2.59251
G01 X-4.70000 Y-2.59329
G01 X-4.69194 Y-2.59251
G01 X-4.68309 Y-2.58983
G01 X-4.67595 Y-2.58599
G01 X-4.66939 Y-2.58061
G01 X-4.66401 Y-2.57405
G01 X-4.66165 Y-2.56969
G01 X-4.33834 Y-2.56969
G01 X-4.33599 Y-2.57405
G01 X-4.33087 Y-2.58032
G01 X-4.32436 Y-2.58576
G01 X-4.31656 Y-2.58999
G01 X-4.30844 Y-2.59246
G01 X-4.30000 Y-2.59329
G01 X-4.29155 Y-2.59246
G01 X-4.28343 Y-2.58999
G01 X-4.27628 Y-2.58619
G01 X-4.27445 Y-2.58479
G01 X-4.07284 Y-2.68559
G01 X-4.07284 Y-2.81300
G01 X-4.07250 Y-2.81460
G01 X-4.07182 Y-2.81563
G01 X-4.07050 Y-2.81660
G01 X-4.06890 Y-2.81694
G01 X-3.93110 Y-2.81694
G01 X-3.92950 Y-2.81660
G01 X-3.92817 Y-2.81563
G01 X-3.92735 Y-2.81422
G01 X-3.92716 Y-2.81300
G01 X-3.92725 Y-2.67438
G01 X-3.92791 Y-2.67288
G01 X-3.92878 Y-2.67201
G01 X-3.92988 Y-2.67145
G01 X-3.93110 Y-2.67126
G01 X-4.01345 Y-2.67126
G01 X-4.25673 Y-2.54962
G01 X-4.25754 Y-2.54155
G01 X-4.25905 Y-2.53654
G01 X-4.14545 Y-2.42294
G01 X-3.80455 Y-2.42294
G01 X-3.69095 Y-2.53654
G01 X-3.69245 Y-2.54155
G01 X-3.69327 Y-2.54961
G01 X-3.69251 Y-2.55806
G01 X-3.68999 Y-2.56657
G01 X-3.68619 Y-2.57372
G01 X-3.68061 Y-2.58061
G01 X-3.67405 Y-2.58599
G01 X-3.66656 Y-2.58999
G01 X-3.65806 Y-2.59251
G01 X-3.65000 Y-2.59329
G01 X-3.64194 Y-2.59251
G01 X-3.63308 Y-2.58983
G01 X-3.62595 Y-2.58599
G01 X-3.61939 Y-2.58061
G01 X-3.61401 Y-2.57405
G01 X-3.61165 Y-2.56969
G01 X-3.28834 Y-2.56969
G01 X-3.28599 Y-2.57405
G01 X-3.28087 Y-2.58032
G01 X-3.27405 Y-2.58599
G01 X-3.26656 Y-2.58999
G01 X-3.25882 Y-2.59236
G01 X-3.24961 Y-2.59327
G01 X-3.24155 Y-2.59246
G01 X-3.23343 Y-2.58999
G01 X-3.22595 Y-2.58599
G01 X-3.21939 Y-2.58061
G01 X-3.21401 Y-2.57405
G01 X-3.21001 Y-2.56657
G01 X-3.20754 Y-2.55844
G01 X-3.20671 Y-2.55000
G04 P0 ( dwell for no time -- G64 should not smooth over this point )
G00 Z0.08000 ( retract )

G00 X-3.92563 Y-2.54500 ( rapid move to begin. )
G01 F180.00000
( Mill infeed pass 1/1 )
G01 Z-0.04000
G04 P0 ( dwell for no time -- G64 should not smooth over this point )
G01 F360.00000
G01 X-3.92563 Y-2.54500
G01 X-3.92322 Y-2.55083
G01 X-3.89177 Y-2.58228
G01 X-3.89147 Y-2.58216
G01 X-3.89177 Y-2.58228
G01 X-3.89176 Y-2.69531
G01 X-3.89125 Y-2.69772
G01 X-3.89027 Y-2.69953
G01 X-3.88853 Y-2.70127
G01 X-3.88633 Y-2.70239
G01 X-3.88390 Y-2.70277
G01 X-3.74610 Y-2.70277
G01 X-3.74367 Y-2.70239
G01 X-3.74147 Y-2.70127
G01 X-3.73973 Y-2.69953
G01 X-3.73875 Y-2.69772
G01 X-3.73824 Y-2.69531
G01 X-3.73822 Y-2.64937
G01 X-3.73938 Y-2.64822
G01 X-3.73822 Y-2.64937
G01 X-3.72478 Y-2.64937
G01 X-3.72466 Y-2.64907
G01 X-3.72478 Y-2.64937
G01 X-3.58948 Y-2.78468
G01 X-3.58656 Y-2.78712
G01 X-3.58527 Y-2.78798
G01 X-3.58189 Y-2.78974
G01 X-3.57826 Y-2.79089
G01 X-3.57674 Y-2.79119
G01 X-3.57295 Y-2.79152
G01 X-3.22039 Y-2.79152
G01 X-3.22027 Y-2.79122
G01 X-3.22039 Y-2.79152
G01 X-3.19152 Y-2.82039
G01 X-3.19122 Y-2.82027
G01 X-3.19152 Y-2.82039
G01 X-3.19152 Y-3.20794
G01 X-3.19122 Y-3.20806
G01 X-3.19152 Y-3.20794
G01 X-3.35901 Y-3.37542
G01 X-3.35888 Y-3.37572
G01 X-3.35901 Y-3.37542
G01 X-3.81189 Y-3.37542
G01 X-3.81201 Y-3.37572
G01 X-3.81189 Y-3.37542
G01 X-3.82662 Y-3.36069
G01 X-3.82693 Y-3.36081
G01 X-3.82662 Y-3.36069
G01 X-3.82662 Y-3.34724
G01 X-3.82775 Y-3.34615
G01 X-3.82662 Y-3.34724
G01 X-3.81260 Y-3.34724
G01 X-3.81056 Y-3.34698
G01 X-3.80866 Y-3.34619
G01 X-3.80675 Y-3.34464
G01 X-3.80558 Y-3.34294
G01 X-3.80482 Y-3.34060
G01 X-3.80477 Y-3.25981
G01 X-3.80511 Y-3.25820
G01 X-3.80558 Y-3.25705
G01 X-3.80623 Y-3.25600
G01 X-3.80733 Y-3.25478
G01 X-3.80866 Y-3.25381
G01 X-3.80978 Y-3.25328
G01 X-3.81219 Y-3.25277
G01 X-3.88740 Y-3.25276
G01 X-3.88983 Y-3.25314
G01 X-3.89169 Y-3.25403
G01 X-3.89325 Y-3.25536
G01 X-3.89442 Y-3.25705
G01 X-3.89518 Y-3.25940
G01 X-3.89527 Y-3.27663
G01 X-3.89416 Y-3.27776
G01 X-3.89527 Y-3.27663
G01 X-4.00472 Y-3.27663
G01 X-4.00584 Y-3.27776
G01 X-4.00472 Y-3.27663
G01 X-4.00472 Y-3.26063
G01 X-4.00490 Y-3.25899
G01 X-4.00558 Y-3.25705
G01 X-4.00674 Y-3.25536
G01 X-4.00831 Y-3.25403
G01 X-4.01056 Y-3.25302
G01 X-4.01260 Y-3.25276
G01 X-4.08740 Y-3.25276
G01 X-4.08983 Y-3.25314
G01 X-4.09169 Y-3.25403
G01 X-4.09352 Y-3.25567
G01 X-4.09475 Y-3.25781
G01 X-4.09526 Y-3.26022
G01 X-4.09527 Y-3.33937
G01 X-4.09501 Y-3.34141
G01 X-4.09401 Y-3.34366
G01 X-4.09267 Y-3.34522
G01 X-4.09134 Y-3.34619
G01 X-4.08944 Y-3.34698
G01 X-4.08781 Y-3.34723
G01 X-4.01178 Y-3.34720
G01 X-4.00939 Y-3.34656
G01 X-4.00733 Y-3.34522
G01 X-4.00578 Y-3.34331
G01 X-4.00490 Y-3.34101
G01 X-4.00472 Y-3.33937
G01 X-4.00472 Y-3.32337
G01 X-4.00584 Y-3.32224
G01 X-4.00472 Y-3.32337
G01 X-3.89527 Y-3.32337
G01 X-3.89413 Y-3.32222
G01 X-3.89527 Y-3.32337
G01 X-3.89526 Y-3.33978
G01 X-3.89475 Y-3.34219
G01 X-3.89400 Y-3.34366
G01 X-3.89325 Y-3.34464
G01 X-3.89203 Y-3.34574
G01 X-3.89060 Y-3.34656
G01 X-3.88904 Y-3.34707
G01 X-3.88781 Y-3.34723
G01 X-3.87337 Y-3.34724
G01 X-3.87222 Y-3.34610
G01 X-3.87337 Y-3.34724
G01 X-3.87334 Y-3.37114
G01 X-3.87292 Y-3.37493
G01 X-3.87186 Y-3.37859
G01 X-3.87126 Y-3.38001
G01 X-3.86921 Y-3.38367
G01 X-3.86653 Y-3.38690
G01 X-3.83752 Y-3.41585
G01 X-3.83455 Y-3.41823
G01 X-3.83051 Y-3.42039
G01 X-3.82613 Y-3.42172
G01 X-3.82234 Y-3.42213
G01 X-3.34933 Y-3.42217
G01 X-3.34477 Y-3.42172
G01 X-3.34111 Y-3.42065
G01 X-3.33968 Y-3.42006
G01 X-3.33634 Y-3.41823
G01 X-3.33280 Y-3.41533
G01 X-3.15135 Y-3.23387
G01 X-3.14871 Y-3.23061
G01 X-3.14655 Y-3.22657
G01 X-3.14522 Y-3.22218
G01 X-3.14477 Y-3.21762
G01 X-3.14871 Y-3.21762
G01 X-3.14908 Y-3.22141
G01 X-3.15019 Y-3.22506
G01 X-3.15199 Y-3.22842
G01 X-3.15440 Y-3.23137
G01 X-3.33558 Y-3.41254
G01 X-3.33853 Y-3.41496
G01 X-3.34154 Y-3.41659
G01 X-3.34592 Y-3.41792
G01 X-3.34933 Y-3.41824
G01 X-3.82157 Y-3.41824
G01 X-3.82498 Y-3.41792
G01 X-3.82936 Y-3.41659
G01 X-3.83237 Y-3.41496
G01 X-3.83503 Y-3.41280
G01 X-3.86374 Y-3.38411
G01 X-3.86616 Y-3.38117
G01 X-3.86809 Y-3.37744
G01 X-3.86906 Y-3.37416
G01 X-3.86942 Y-3.37075
G01 X-3.86944 Y-3.34331
G01 X-3.88781 Y-3.34328
G01 X-3.88937 Y-3.34278
G01 X-3.89033 Y-3.34200
G01 X-3.89100 Y-3.34097
G01 X-3.89134 Y-3.33937
G01 X-3.89134 Y-3.31944
G01 X-4.00866 Y-3.31944
G01 X-4.00868 Y-3.33978
G01 X-4.00900 Y-3.34097
G01 X-4.00967 Y-3.34200
G01 X-4.01028 Y-3.34255
G01 X-4.01138 Y-3.34311
G01 X-4.01260 Y-3.34331
G01 X-4.08740 Y-3.34331
G01 X-4.08900 Y-3.34297
G01 X-4.08971 Y-3.34255
G01 X-4.09059 Y-3.34168
G01 X-4.09115 Y-3.34059
G01 X-4.09134 Y-3.33937
G01 X-4.09134 Y-3.26063
G01 X-4.09115 Y-3.25941
G01 X-4.09059 Y-3.25832
G01 X-4.08971 Y-3.25744
G01 X-4.08862 Y-3.25689
G01 X-4.08740 Y-3.25669
G01 X-4.01260 Y-3.25669
G01 X-4.01138 Y-3.25689
G01 X-4.01028 Y-3.25744
G01 X-4.00967 Y-3.25800
G01 X-4.00900 Y-3.25903
G01 X-4.00868 Y-3.26022
G01 X-4.00866 Y-3.28056
G01 X-3.89134 Y-3.28056
G01 X-3.89132 Y-3.26022
G01 X-3.89100 Y-3.25903
G01 X-3.89033 Y-3.25800
G01 X-3.88971 Y-3.25744
G01 X-3.88862 Y-3.25689
G01 X-3.88740 Y-3.25669
G01 X-3.81260 Y-3.25669
G01 X-3.81100 Y-3.25703
G01 X-3.80967 Y-3.25800
G01 X-3.80900 Y-3.25903
G01 X-3.80866 Y-3.26063
G01 X-3.80875 Y-3.34019
G01 X-3.80919 Y-3.34134
G01 X-3.80996 Y-3.34230
G01 X-3.81100 Y-3.34297
G01 X-3.81219 Y-3.34328
G01 X-3.83056 Y-3.34331
G01 X-3.83056 Y-3.36232
G01 X-3.81352 Y-3.37936
G01 X-3.35738 Y-3.37936
G01 X-3.18759 Y-3.20957
G01 X-3.18759 Y-2.81876
G01 X-3.21876 Y-2.78759
G01 X-3.57295 Y-2.78759
G01 X-3.57712 Y-2.78712
G01 X-3.58039 Y-2.78611
G01 X-3.58342 Y-2.78451
G01 X-3.58669 Y-2.78189
G01 X-3.72315 Y-2.64544
G01 X-3.74216 Y-2.64544
G01 X-3.74216 Y-2.69490
G01 X-3.74235 Y-2.69612
G01 X-3.74291 Y-2.69721
G01 X-3.74378 Y-2.69808
G01 X-3.74488 Y-2.69864
G01 X-3.74610 Y-2.69884
G01 X-3.88390 Y-2.69884
G01 X-3.88550 Y-2.69850
G01 X-3.88621 Y-2.69808
G01 X-3.88708 Y-2.69721
G01 X-3.88764 Y-2.69612
G01 X-3.88784 Y-2.69490
G01 X-3.88784 Y-2.58065
G01 X-3.92716 Y-2.54133
G01 X-3.92718 Y-2.57721
G01 X-3.92750 Y-2.57840
G01 X-3.92817 Y-2.57943
G01 X-3.92913 Y-2.58021
G01 X-3.93028 Y-2.58065
G01 X-4.06890 Y-2.58074
G01 X-4.07012 Y-2.58054
G01 X-4.07087 Y-2.58021
G01 X-4.07209 Y-2.57911
G01 X-4.07264 Y-2.57802
G01 X-4.07284 Y-2.57680
G01 X-4.07284 Y-2.43900
G01 X-4.07250 Y-2.43740
G01 X-4.07182 Y-2.43636
G01 X-4.07087 Y-2.43559
G01 X-4.06931 Y-2.43508
G01 X-3.93110 Y-2.43506
G01 X-3.92988 Y-2.43526
G01 X-3.92913 Y-2.43559
G01 X-3.92817 Y-2.43636
G01 X-3.92769 Y-2.43703
G01 X-3.92735 Y-2.43778
G01 X-3.92716 Y-2.43900
G01 X-3.92716 Y-2.48947
G01 X-3.92566 Y-2.48994
G01 X-3.92230 Y-2.49174
G01 X-3.91935 Y-2.49416
G01 X-3.86035 Y-2.55316
G01 X-3.74610 Y-2.55316
G01 X-3.74488 Y-2.55335
G01 X-3.74378 Y-2.55391
G01 X-3.74291 Y-2.55478
G01 X-3.74250 Y-2.55550
G01 X-3.74216 Y-2.55710
G01 X-3.74216 Y-2.60656
G01 X-3.71471 Y-2.60658
G01 X-3.71131 Y-2.60694
G01 X-3.70803 Y-2.60791
G01 X-3.70399 Y-2.61007
G01 X-3.70136 Y-2.61226
G01 X-3.56490 Y-2.74871
G01 X-3.21071 Y-2.74871
G01 X-3.20692 Y-2.74909
G01 X-3.20327 Y-2.75019
G01 X-3.19991 Y-2.75199
G01 X-3.19725 Y-2.75414
G01 X-3.15440 Y-2.79697
G01 X-3.15199 Y-2.79991
G01 X-3.15036 Y-2.80292
G01 X-3.14903 Y-2.80730
G01 X-3.14871 Y-2.81071
G01 X-3.14871 Y-3.21762
G01 X-3.14477 Y-3.21762
G01 X-3.14477 Y-2.81071
G01 X-3.14511 Y-2.80692
G01 X-3.14541 Y-2.80540
G01 X-3.14671 Y-2.80141
G01 X-3.14871 Y-2.79772
G01 X-3.15135 Y-2.79446
G01 X-3.19475 Y-2.75110
G01 X-3.19773 Y-2.74871
G01 X-3.20177 Y-2.74655
G01 X-3.20615 Y-2.74522
G01 X-3.21071 Y-2.74477
G01 X-3.56327 Y-2.74477
G01 X-3.56339 Y-2.74507
G01 X-3.56327 Y-2.74477
G01 X-3.69857 Y-2.60947
G01 X-3.70149 Y-2.60703
G01 X-3.70278 Y-2.60617
G01 X-3.70652 Y-2.60427
G01 X-3.71054 Y-2.60308
G01 X-3.71433 Y-2.60266
G01 X-3.73822 Y-2.60263
G01 X-3.73936 Y-2.60375
G01 X-3.73822 Y-2.60263
G01 X-3.73824 Y-2.55669
G01 X-3.73861 Y-2.55467
G01 X-3.73928 Y-2.55316
G01 X-3.74025 Y-2.55183
G01 X-3.74181 Y-2.55050
G01 X-3.74367 Y-2.54961
G01 X-3.74610 Y-2.54922
G01 X-3.85872 Y-2.54922
G01 X-3.85884 Y-2.54953
G01 X-3.85872 Y-2.54922
G01 X-3.91657 Y-2.49137
G01 X-3.92044 Y-2.48826
G01 X-3.92322 Y-2.48676
G01 X-3.92367 Y-2.48699
G01 X-3.92322 Y-2.48676
G01 X-3.92324 Y-2.43859
G01 X-3.92361 Y-2.43657
G01 X-3.92428 Y-2.43506
G01 X-3.92553 Y-2.43343
G01 X-3.92716 Y-2.43218
G01 X-3.92906 Y-2.43139
G01 X-3.93110 Y-2.43113
G01 X-4.06890 Y-2.43113
G01 X-4.07054 Y-2.43130
G01 X-4.07210 Y-2.43181
G01 X-4.07386 Y-2.43288
G01 X-4.07502 Y-2.43404
G01 X-4.07625 Y-2.43618
G01 X-4.07668 Y-2.43777
G01 X-4.07677 Y-2.43900
G01 X-4.07677 Y-2.57680
G01 X-4.07660 Y-2.57844
G01 X-4.07609 Y-2.58000
G01 X-4.07502 Y-2.58175
G01 X-4.07386 Y-2.58292
G01 X-4.07172 Y-2.58415
G01 X-4.07013 Y-2.58458
G01 X-4.06890 Y-2.58467
G01 X-3.93110 Y-2.58467
G01 X-3.92946 Y-2.58450
G01 X-3.92716 Y-2.58362
G01 X-3.92525 Y-2.58207
G01 X-3.92391 Y-2.58000
G01 X-3.92332 Y-2.57803
G01 X-3.92322 Y-2.55083
G04 P0 ( dwell for no time -- G64 should not smooth over this point )
G00 Z0.08000 ( retract )

G00 X-4.39585 Y-3.24550 ( rapid move to begin. )
G01 F180.00000
( Mill infeed pass 1/1 )
G01 Z-0.04000
G04 P0 ( dwell for no time -- G64 should not smooth over this point )
G01 F360.00000
G01 X-4.39585 Y-3.24550
G01 X-4.39632 Y-3.24966
G01 X-4.39733 Y-3.25294
G01 X-4.39912 Y-3.25630
G01 X-4.40154 Y-3.25924
G01 X-4.40633 Y-3.26400
G01 X-4.40899 Y-3.26616
G01 X-4.41235 Y-3.26796
G01 X-4.41599 Y-3.26906
G01 X-4.41979 Y-3.26944
G01 X-4.45372 Y-3.26944
G01 X-4.45608 Y-3.27227
G01 X-4.46085 Y-3.27619
G01 X-4.46629 Y-3.27910
G01 X-4.47258 Y-3.28095
G01 X-4.47835 Y-3.28150
G01 X-4.52165 Y-3.28150
G01 X-4.52780 Y-3.28089
G01 X-4.53371 Y-3.27910
G01 X-4.53946 Y-3.27596
G01 X-4.54418 Y-3.27198
G01 X-4.54784 Y-3.26750
G01 X-4.55059 Y-3.26240
G01 X-4.55254 Y-3.25614
G01 X-4.55315 Y-3.25000
G01 X-4.55254 Y-3.24385
G01 X-4.55059 Y-3.23760
G01 X-4.54784 Y-3.23250
G01 X-4.54364 Y-3.22747
G01 X-4.53915 Y-3.22381
G01 X-4.53406 Y-3.22107
G01 X-4.52817 Y-3.21920
G01 X-4.52165 Y-3.21850
G01 X-4.47835 Y-3.21850
G01 X-4.47258 Y-3.21905
G01 X-4.46629 Y-3.22090
G01 X-4.46085 Y-3.22381
G01 X-4.45608 Y-3.22773
G01 X-4.45372 Y-3.23056
G01 X-4.43472 Y-3.23056
G01 X-4.43472 Y-3.04935
G01 X-4.56374 Y-2.92033
G01 X-4.56593 Y-2.91770
G01 X-4.56809 Y-2.91366
G01 X-4.56906 Y-2.91038
G01 X-4.56942 Y-2.90698
G01 X-4.56944 Y-2.87953
G01 X-4.57600 Y-2.87950
G01 X-4.57719 Y-2.87919
G01 X-4.57822 Y-2.87852
G01 X-4.57900 Y-2.87756
G01 X-4.57951 Y-2.87600
G01 X-4.57953 Y-2.86944
G01 X-4.59195 Y-2.86944
G01 X-4.65905 Y-2.93654
G01 X-4.65754 Y-2.94156
G01 X-4.65671 Y-2.95000
G01 X-4.65754 Y-2.95844
G01 X-4.65988 Y-2.96620
G01 X-4.66401 Y-2.97405
G01 X-4.66913 Y-2.98032
G01 X-4.67628 Y-2.98619
G01 X-4.68380 Y-2.99012
G01 X-4.69156 Y-2.99246
G01 X-4.69961 Y-2.99327
G01 X-4.70844 Y-2.99246
G01 X-4.71657 Y-2.98999
G01 X-4.72405 Y-2.98599
G01 X-4.73087 Y-2.98032
G01 X-4.73619 Y-2.97372
G01 X-4.73999 Y-2.96657
G01 X-4.74236 Y-2.95882
G01 X-4.74329 Y-2.95000
G01 X-4.74236 Y-2.94118
G01 X-4.73999 Y-2.93343
G01 X-4.73619 Y-2.92628
G01 X-4.73061 Y-2.91939
G01 X-4.72372 Y-2.91381
G01 X-4.71657 Y-2.91001
G01 X-4.70844 Y-2.90754
G01 X-4.69961 Y-2.90673
G01 X-4.69156 Y-2.90754
G01 X-4.68654 Y-2.90905
G01 X-4.61374 Y-2.83625
G01 X-4.61080 Y-2.83384
G01 X-4.60744 Y-2.83204
G01 X-4.60341 Y-2.83088
G01 X-4.60000 Y-2.83056
G01 X-4.57953 Y-2.83056
G01 X-4.57953 Y-2.82441
G01 X-4.57933 Y-2.82319
G01 X-4.57900 Y-2.82244
G01 X-4.57822 Y-2.82148
G01 X-4.57719 Y-2.82081
G01 X-4.57600 Y-2.82049
G01 X-4.52441 Y-2.82047
G01 X-4.52281 Y-2.82081
G01 X-4.52177 Y-2.82148
G01 X-4.52081 Y-2.82281
G01 X-4.52047 Y-2.82441
G01 X-4.52049 Y-2.87600
G01 X-4.52081 Y-2.87719
G01 X-4.52148 Y-2.87822
G01 X-4.52244 Y-2.87900
G01 X-4.52319 Y-2.87933
G01 X-4.52441 Y-2.87953
G01 X-4.53056 Y-2.87953
G01 X-4.53056 Y-2.89854
G01 X-4.40154 Y-3.02756
G01 X-4.39912 Y-3.03050
G01 X-4.39720 Y-3.03423
G01 X-4.39622 Y-3.03751
G01 X-4.39585 Y-3.04130
G01 X-4.39585 Y-3.24550
G01 X-4.39191 Y-3.24550
G01 X-4.39191 Y-3.04130
G01 X-4.39225 Y-3.03751
G01 X-4.39255 Y-3.03599
G01 X-4.39369 Y-3.03236
G01 X-4.39545 Y-3.02898
G01 X-4.39631 Y-3.02770
G01 X-4.39876 Y-3.02477
G01 X-4.52663 Y-2.89691
G01 X-4.52693 Y-2.89703
G01 X-4.52663 Y-2.89691
G01 X-4.52663 Y-2.88346
G01 X-4.52772 Y-2.88242
G01 X-4.52663 Y-2.88346
G01 X-4.52318 Y-2.88337
G01 X-4.52083 Y-2.88261
G01 X-4.51914 Y-2.88144
G01 X-4.51781 Y-2.87988
G01 X-4.51692 Y-2.87802
G01 X-4.51658 Y-2.87641
G01 X-4.51655 Y-2.82400
G01 X-4.51680 Y-2.82237
G01 X-4.51722 Y-2.82121
G01 X-4.51781 Y-2.82012
G01 X-4.51884 Y-2.81884
G01 X-4.52012 Y-2.81780
G01 X-4.52121 Y-2.81722
G01 X-4.52237 Y-2.81680
G01 X-4.52400 Y-2.81655
G01 X-4.57641 Y-2.81658
G01 X-4.57802 Y-2.81692
G01 X-4.57988 Y-2.81780
G01 X-4.58144 Y-2.81914
G01 X-4.58261 Y-2.82083
G01 X-4.58337 Y-2.82318
G01 X-4.58346 Y-2.82662
G01 X-4.58244 Y-2.82767
G01 X-4.58346 Y-2.82662
G01 X-4.60039 Y-2.82664
G01 X-4.60456 Y-2.82707
G01 X-4.60930 Y-2.82856
G01 X-4.61299 Y-2.83056
G01 X-4.61653 Y-2.83347
G01 X-4.68765 Y-2.90460
G01 X-4.68749 Y-2.90519
G01 X-4.68765 Y-2.90460
G01 X-4.69079 Y-2.90368
G01 X-4.69961 Y-2.90279
G01 X-4.70959 Y-2.90377
G01 X-4.71807 Y-2.90637
G01 X-4.72557 Y-2.91034
G01 X-4.72686 Y-2.91119
G01 X-4.73339 Y-2.91661
G01 X-4.73926 Y-2.92376
G01 X-4.74330 Y-2.93123
G01 X-4.74389 Y-2.93266
G01 X-4.74613 Y-2.94004
G01 X-4.74643 Y-2.94155
G01 X-4.74722 Y-2.95000
G01 X-4.74632 Y-2.95921
G01 X-4.74363 Y-2.96807
G01 X-4.73966 Y-2.97557
G01 X-4.73881 Y-2.97686
G01 X-4.73391 Y-2.98282
G01 X-4.73282 Y-2.98391
G01 X-4.72624 Y-2.98927
G01 X-4.71807 Y-2.99363
G01 X-4.70921 Y-2.99632
G01 X-4.70077 Y-2.99719
G01 X-4.69923 Y-2.99719
G01 X-4.69155 Y-2.99643
G01 X-4.69004 Y-2.99613
G01 X-4.68193 Y-2.99363
G01 X-4.67376 Y-2.98927
G01 X-4.66661 Y-2.98339
G01 X-4.66053 Y-2.97591
G01 X-4.65637 Y-2.96807
G01 X-4.65362 Y-2.95883
G01 X-4.65281 Y-2.95077
G01 X-4.65281 Y-2.94923
G01 X-4.65368 Y-2.94079
G01 X-4.65459 Y-2.93765
G01 X-4.65520 Y-2.93749
G01 X-4.65459 Y-2.93765
G01 X-4.59032 Y-2.87337
G01 X-4.59044 Y-2.87307
G01 X-4.59032 Y-2.87337
G01 X-4.58346 Y-2.87337
G01 X-4.58251 Y-2.87233
G01 X-4.58346 Y-2.87337
G01 X-4.58337 Y-2.87682
G01 X-4.58261 Y-2.87916
G01 X-4.58116 Y-2.88116
G01 X-4.57916 Y-2.88261
G01 X-4.57682 Y-2.88337
G01 X-4.57337 Y-2.88346
G01 X-4.57236 Y-2.88252
G01 X-4.57337 Y-2.88346
G01 X-4.57334 Y-2.90736
G01 X-4.57292 Y-2.91115
G01 X-4.57173 Y-2.91517
G01 X-4.56983 Y-2.91891
G01 X-4.56897 Y-2.92020
G01 X-4.56653 Y-2.92312
G01 X-4.43866 Y-3.05098
G01 X-4.43836 Y-3.05086
G01 X-4.43866 Y-3.05098
G01 X-4.43866 Y-3.22662
G01 X-4.43751 Y-3.22778
G01 X-4.43866 Y-3.22662
G01 X-4.45186 Y-3.22662
G01 X-4.45196 Y-3.22689
G01 X-4.45186 Y-3.22662
G01 X-4.45357 Y-3.22468
G01 X-4.45899 Y-3.22033
G01 X-4.46479 Y-3.21726
G01 X-4.47068 Y-3.21543
G01 X-4.47220 Y-3.21513
G01 X-4.47835 Y-3.21457
G01 X-4.52204 Y-3.21458
G01 X-4.52857 Y-3.21525
G01 X-4.53449 Y-3.21700
G01 X-4.53591 Y-3.21759
G01 X-4.54134 Y-3.22054
G01 X-4.54671 Y-3.22494
G01 X-4.55112 Y-3.23031
G01 X-4.55439 Y-3.23644
G01 X-4.55640 Y-3.24309
G01 X-4.55709 Y-3.25000
G01 X-4.55640 Y-3.25691
G01 X-4.55465 Y-3.26283
G01 X-4.55406 Y-3.26426
G01 X-4.55112 Y-3.26968
G01 X-4.54723 Y-3.27448
G01 X-4.54613 Y-3.27557
G01 X-4.54196 Y-3.27900
G01 X-4.54068 Y-3.27986
G01 X-4.53521 Y-3.28274
G01 X-4.52894 Y-3.28467
G01 X-4.52165 Y-3.28543
G01 X-4.47835 Y-3.28543
G01 X-4.47220 Y-3.28486
G01 X-4.47068 Y-3.28456
G01 X-4.46479 Y-3.28274
G01 X-4.45899 Y-3.27967
G01 X-4.45357 Y-3.27532
G01 X-4.45186 Y-3.27337
G01 X-4.45196 Y-3.27312
G01 X-4.45186 Y-3.27337
G01 X-4.41940 Y-3.27336
G01 X-4.41523 Y-3.27292
G01 X-4.41049 Y-3.27144
G01 X-4.40680 Y-3.26943
G01 X-4.40354 Y-3.26679
G01 X-4.39849 Y-3.26174
G01 X-4.39607 Y-3.25880
G01 X-4.39402 Y-3.25514
G01 X-4.39343 Y-3.25372
G01 X-4.39236 Y-3.25006
G01 X-4.39191 Y-3.24550
G04 P0 ( dwell for no time -- G64 should not smooth over this point )
G00 Z0.08000 ( retract )

G00 X-4.10866 Y-3.30000 ( rapid move to begin. )
G01 F180.00000
( Mill infeed pass 1/1 )
G01 Z-0.04000
G04 P0 ( dwell for no time -- G64 should not smooth over this point )
G01 F360.00000
G01 X-4.10866 Y-3.30000
G01 X-4.10955 Y-3.30844
G01 X-4.11181 Y-3.31582
G01 X-4.11543 Y-3.32264
G01 X-4.12077 Y-3.32923
G01 X-4.12703 Y-3.33437
G01 X-4.13418 Y-3.33819
G01 X-4.14194 Y-3.34054
G01 X-4.15038 Y-3.34132
G01 X-4.15806 Y-3.34054
G01 X-4.16164 Y-3.33948
G01 X-4.16482 Y-3.34266
G01 X-4.16749 Y-3.34488
G01 X-4.17086 Y-3.34676
G01 X-4.17490 Y-3.34805
G01 X-4.17835 Y-3.34841
G01 X-4.45393 Y-3.34843
G01 X-4.45608 Y-3.35101
G01 X-4.46085 Y-3.35493
G01 X-4.46629 Y-3.35784
G01 X-4.47220 Y-3.35963
G01 X-4.47835 Y-3.36024
G01 X-4.52204 Y-3.36022
G01 X-4.52780 Y-3.35963
G01 X-4.53371 Y-3.35784
G01 X-4.53915 Y-3.35493
G01 X-4.54392 Y-3.35101
G01 X-4.54784 Y-3.34624
G01 X-4.55075 Y-3.34079
G01 X-4.55254 Y-3.33488
G01 X-4.55313 Y-3.32835
G01 X-4.55254 Y-3.32260
G01 X-4.55075 Y-3.31669
G01 X-4.54784 Y-3.31124
G01 X-4.54392 Y-3.30647
G01 X-4.53915 Y-3.30255
G01 X-4.53371 Y-3.29964
G01 X-4.52780 Y-3.29785
G01 X-4.52204 Y-3.29726
G01 X-4.47835 Y-3.29724
G01 X-4.47220 Y-3.29785
G01 X-4.46629 Y-3.29964
G01 X-4.46085 Y-3.30255
G01 X-4.45608 Y-3.30647
G01 X-4.45393 Y-3.30905
G01 X-4.19026 Y-3.30905
G01 X-4.19060 Y-3.30768
G01 X-4.19132 Y-3.29961
G01 X-4.19054 Y-3.29194
G01 X-4.18819 Y-3.28418
G01 X-4.18437 Y-3.27703
G01 X-4.17949 Y-3.27106
G01 X-4.17296 Y-3.26563
G01 X-4.16545 Y-3.26168
G01 X-4.15806 Y-3.25945
G01 X-4.15000 Y-3.25866
G01 X-4.14156 Y-3.25955
G01 X-4.13418 Y-3.26181
G01 X-4.12736 Y-3.26543
G01 X-4.12077 Y-3.27077
G01 X-4.11563 Y-3.27703
G01 X-4.11168 Y-3.28454
G01 X-4.10945 Y-3.29194
G01 X-4.10866 Y-3.30000
G01 X-4.10472 Y-3.30000
G01 X-4.10548 Y-3.30807
G01 X-4.10578 Y-3.30958
G01 X-4.10817 Y-3.31733
G01 X-4.11215 Y-3.32483
G01 X-4.11747 Y-3.33144
G01 X-4.11856 Y-3.33253
G01 X-4.12485 Y-3.33765
G01 X-4.13267 Y-3.34183
G01 X-4.14117 Y-3.34441
G01 X-4.14961 Y-3.34527
G01 X-4.15845 Y-3.34447
G01 X-4.16052 Y-3.34393
G01 X-4.16064 Y-3.34357
G01 X-4.16052 Y-3.34393
G01 X-4.16204 Y-3.34544
G01 X-4.16499 Y-3.34792
G01 X-4.16594 Y-3.34859
G01 X-4.16935 Y-3.35041
G01 X-4.17413 Y-3.35191
G01 X-4.17835 Y-3.35235
G01 X-4.45207 Y-3.35236
G01 X-4.45216 Y-3.35211
G01 X-4.45207 Y-3.35236
G01 X-4.45357 Y-3.35406
G01 X-4.45899 Y-3.35841
G01 X-4.46479 Y-3.36148
G01 X-4.47181 Y-3.36356
G01 X-4.47835 Y-3.36417
G01 X-4.52204 Y-3.36416
G01 X-4.52857 Y-3.36349
G01 X-4.53521 Y-3.36148
G01 X-4.54134 Y-3.35820
G01 X-4.54671 Y-3.35379
G01 X-4.55112 Y-3.34843
G01 X-4.55439 Y-3.34230
G01 X-4.55640 Y-3.33565
G01 X-4.55708 Y-3.32913
G01 X-4.55640 Y-3.32183
G01 X-4.55439 Y-3.31518
G01 X-4.55112 Y-3.30905
G01 X-4.54671 Y-3.30369
G01 X-4.54134 Y-3.29928
G01 X-4.53521 Y-3.29600
G01 X-4.52857 Y-3.29399
G01 X-4.52204 Y-3.29332
G01 X-4.47835 Y-3.29331
G01 X-4.47181 Y-3.29392
G01 X-4.46479 Y-3.29600
G01 X-4.45899 Y-3.29907
G01 X-4.45357 Y-3.30342
G01 X-4.45207 Y-3.30511
G01 X-4.45216 Y-3.30537
G01 X-4.45207 Y-3.30511
G01 X-4.19481 Y-3.30511
G01 X-4.19343 Y-3.30639
G01 X-4.19481 Y-3.30511
G01 X-4.19527 Y-3.30039
G01 X-4.19452 Y-3.29193
G01 X-4.19422 Y-3.29042
G01 X-4.19183 Y-3.28267
G01 X-4.18804 Y-3.27551
G01 X-4.18718 Y-3.27422
G01 X-4.18253 Y-3.26856
G01 X-4.18144 Y-3.26747
G01 X-4.17515 Y-3.26235
G01 X-4.16733 Y-3.25817
G01 X-4.15883 Y-3.25559
G01 X-4.15039 Y-3.25473
G01 X-4.14117 Y-3.25559
G01 X-4.13267 Y-3.25817
G01 X-4.12485 Y-3.26235
G01 X-4.11799 Y-3.26798
G01 X-4.11235 Y-3.27485
G01 X-4.10817 Y-3.28267
G01 X-4.10559 Y-3.29117
G01 X-4.10472 Y-3.30000
G04 P0 ( dwell for no time -- G64 should not smooth over this point )
G00 Z0.08000 ( retract )

G00 X-3.34685 Y-3.32874 ( rapid move to begin. )
G01 F180.00000
( Mill infeed pass 1/1 )
G01 Z-0.04000
G04 P0 ( dwell for no time -- G64 should not smooth over this point )
G01 F360.00000
G01 X-3.34685 Y-3.32874
G01 X-3.34746 Y-3.32260
G01 X-3.34925 Y-3.31669
G01 X-3.35216 Y-3.31124
G01 X-3.35582 Y-3.30675
G01 X-3.36085 Y-3.30255
G01 X-3.36594 Y-3.29981
G01 X-3.37258 Y-3.29779
G01 X-3.37835 Y-3.29724
G01 X-3.42165 Y-3.29724
G01 X-3.42780 Y-3.29785
G01 X-3.43371 Y-3.29964
G01 X-3.43915 Y-3.30255
G01 X-3.44392 Y-3.30647
G01 X-3.44607 Y-3.30905
G01 X-3.66778 Y-3.30905
G01 X-3.70924 Y-3.29392
G01 X-3.70955 Y-3.29156
G01 X-3.71197 Y-3.28383
G01 X-3.71563 Y-3.27703
G01 X-3.72077 Y-3.27077
G01 X-3.72736 Y-3.26543
G01 X-3.73418 Y-3.26181
G01 X-3.74156 Y-3.25955
G01 X-3.75039 Y-3.25868
G01 X-3.75806 Y-3.25945
G01 X-3.76582 Y-3.26181
G01 X-3.77297 Y-3.26563
G01 X-3.77894 Y-3.27051
G01 X-3.78437 Y-3.27703
G01 X-3.78832 Y-3.28454
G01 X-3.79054 Y-3.29194
G01 X-3.79132 Y-3.29961
G01 X-3.79054 Y-3.30806
G01 X-3.78819 Y-3.31582
G01 X-3.78414 Y-3.32328
G01 X-3.77923 Y-3.32923
G01 X-3.77328 Y-3.33414
G01 X-3.76582 Y-3.33819
G01 X-3.75768 Y-3.34060
G01 X-3.75000 Y-3.34134
G01 X-3.74156 Y-3.34045
G01 X-3.73383 Y-3.33803
G01 X-3.72703 Y-3.33437
G01 X-3.72277 Y-3.33089
G01 X-3.67801 Y-3.34723
G01 X-3.67469 Y-3.34813
G01 X-3.67160 Y-3.34841
G01 X-3.44607 Y-3.34843
G01 X-3.44392 Y-3.35101
G01 X-3.43915 Y-3.35493
G01 X-3.43371 Y-3.35784
G01 X-3.42780 Y-3.35963
G01 X-3.42165 Y-3.36024
G01 X-3.37835 Y-3.36024
G01 X-3.37220 Y-3.35963
G01 X-3.36629 Y-3.35784
G01 X-3.36085 Y-3.35493
G01 X-3.35636 Y-3.35127
G01 X-3.35216 Y-3.34624
G01 X-3.34925 Y-3.34079
G01 X-3.34746 Y-3.33488
G01 X-3.34685 Y-3.32874
G01 X-3.34291 Y-3.32874
G01 X-3.34359 Y-3.33565
G01 X-3.34561 Y-3.34230
G01 X-3.34888 Y-3.34843
G01 X-3.35329 Y-3.35379
G01 X-3.35866 Y-3.35820
G01 X-3.36479 Y-3.36148
G01 X-3.37143 Y-3.36349
G01 X-3.37796 Y-3.36416
G01 X-3.42165 Y-3.36417
G01 X-3.42819 Y-3.36356
G01 X-3.43521 Y-3.36148
G01 X-3.44101 Y-3.35841
G01 X-3.44643 Y-3.35406
G01 X-3.44793 Y-3.35236
G01 X-3.44784 Y-3.35211
G01 X-3.44793 Y-3.35236
G01 X-3.67160 Y-3.35236
G01 X-3.67560 Y-3.35196
G01 X-3.67936 Y-3.35093
G01 X-3.72201 Y-3.33536
G01 X-3.72210 Y-3.33480
G01 X-3.72201 Y-3.33536
G01 X-3.72484 Y-3.33764
G01 X-3.73232 Y-3.34167
G01 X-3.74155 Y-3.34447
G01 X-3.75000 Y-3.34527
G01 X-3.75807 Y-3.34452
G01 X-3.75958 Y-3.34422
G01 X-3.76733 Y-3.34183
G01 X-3.77515 Y-3.33765
G01 X-3.78144 Y-3.33253
G01 X-3.78253 Y-3.33144
G01 X-3.78764 Y-3.32515
G01 X-3.79183 Y-3.31733
G01 X-3.79422 Y-3.30958
G01 X-3.79452 Y-3.30807
G01 X-3.79527 Y-3.29961
G01 X-3.79440 Y-3.29117
G01 X-3.79183 Y-3.28267
G01 X-3.78764 Y-3.27485
G01 X-3.78201 Y-3.26798
G01 X-3.77515 Y-3.26235
G01 X-3.76733 Y-3.25817
G01 X-3.75883 Y-3.25559
G01 X-3.74961 Y-3.25473
G01 X-3.74117 Y-3.25559
G01 X-3.73267 Y-3.25817
G01 X-3.72485 Y-3.26235
G01 X-3.71856 Y-3.26747
G01 X-3.71747 Y-3.26856
G01 X-3.71235 Y-3.27485
G01 X-3.70850 Y-3.28198
G01 X-3.70791 Y-3.28340
G01 X-3.70568 Y-3.29079
G01 X-3.70562 Y-3.29105
G01 X-3.70596 Y-3.29137
G01 X-3.70562 Y-3.29105
G01 X-3.66709 Y-3.30518
G01 X-3.44793 Y-3.30511
G01 X-3.44779 Y-3.30545
G01 X-3.44793 Y-3.30511
G01 X-3.44643 Y-3.30342
G01 X-3.44101 Y-3.29907
G01 X-3.43521 Y-3.29600
G01 X-3.42857 Y-3.29399
G01 X-3.42165 Y-3.29331
G01 X-3.37796 Y-3.29332
G01 X-3.37143 Y-3.29399
G01 X-3.36479 Y-3.29600
G01 X-3.35866 Y-3.29928
G01 X-3.35329 Y-3.30369
G01 X-3.34888 Y-3.30905
G01 X-3.34561 Y-3.31518
G01 X-3.34359 Y-3.32183
G01 X-3.34291 Y-3.32874

G04 P0 ( dwell for no time -- G64 should not smooth over this point )
G00 Z1.000000 ( retract )

M5 ( Spindle off. )
G04 P1.000000
M9 ( Coolant off. )
M2 ( Program end. )

