( pcb2gcode 1.3.2 )
( Software-independent Gcode )

G94 ( Inches per minute feed rate. )
G20 ( Units == INCHES. )

G90 ( Absolute coordinates. )
G00 S12000 ( RPM spindle speed. )
G64 P0.00040 ( set maximum deviation from commanded toolpath )
G01 F360.00000 ( Feedrate. )

G01 F360.00000 ( Feedrate. )
M3 ( Spindle on clockwise. )
G04 P1.00000
G04 P0 ( dwell for no time -- G64 should not smooth over this point )
G00 Z0.08000 ( retract )

G00 X-3.26237 Y-2.90457 ( rapid move to begin. )
G01 F180.00000
G01 Z-0.04000
G04 P0 ( dwell for no time -- G64 should not smooth over this point )
G01 F360.00000
G01 X-3.26237 Y-2.90457
G01 X-3.25411 Y-2.90299
G01 X-3.24425 Y-2.90316
G01 X-3.23464 Y-2.90538
G01 X-3.22639 Y-2.90910
G01 X-3.21782 Y-2.91549
G01 X-3.21135 Y-2.92293
G01 X-3.20686 Y-2.93079
G01 X-3.20368 Y-2.94100
G01 X-3.20278 Y-2.95000
G01 X-3.20368 Y-2.95900
G01 X-3.20686 Y-2.96921
G01 X-3.21135 Y-2.97707
G01 X-3.21782 Y-2.98451
G01 X-3.22662 Y-2.99098
G01 X-3.22663 Y-3.18021
G01 X-3.22726 Y-3.18552
G01 X-3.22873 Y-3.18986
G01 X-3.23347 Y-3.19674
G01 X-3.30326 Y-3.26653
G01 X-3.31014 Y-3.27126
G01 X-3.31448 Y-3.27274
G01 X-3.31901 Y-3.27334
G01 X-3.35181 Y-3.27337
G01 X-3.35747 Y-3.27859
G01 X-3.36366 Y-3.28221
G01 X-3.37044 Y-3.28451
G01 X-3.37755 Y-3.28539
G01 X-3.42447 Y-3.28529
G01 X-3.43149 Y-3.28401
G01 X-3.43813 Y-3.28133
G01 X-3.44410 Y-3.27737
G01 X-3.45013 Y-3.27103
G01 X-3.45308 Y-3.26630
G01 X-3.45572 Y-3.25964
G01 X-3.45696 Y-3.25259
G01 X-3.45652 Y-3.24385
G01 X-3.45457 Y-3.23696
G01 X-3.45211 Y-3.23195
G01 X-3.44785 Y-3.22619
G01 X-3.44122 Y-3.22050
G01 X-3.43488 Y-3.21716
G01 X-3.42956 Y-3.21549
G01 X-3.42245 Y-3.21461
G01 X-3.37553 Y-3.21471
G01 X-3.36851 Y-3.21599
G01 X-3.36187 Y-3.21867
G01 X-3.35590 Y-3.22263
G01 X-3.35187 Y-3.22662
G01 X-3.32947 Y-3.22663
G01 X-3.27337 Y-3.17053
G01 X-3.27337 Y-2.99102
G01 X-3.28218 Y-2.98451
G01 X-3.28865 Y-2.97707
G01 X-3.29314 Y-2.96921
G01 X-3.29598 Y-2.96061
G01 X-3.29718 Y-2.95082
G01 X-3.29632 Y-2.94100
G01 X-3.29541 Y-2.93764
G01 X-3.35968 Y-2.87337
G01 X-3.36654 Y-2.87337
G01 X-3.36669 Y-2.87713
G01 X-3.36786 Y-2.87996
G01 X-3.37004 Y-2.88214
G01 X-3.37287 Y-2.88331
G01 X-3.42559 Y-2.88346
G01 X-3.42860 Y-2.88286
G01 X-3.43116 Y-2.88116
G01 X-3.43286 Y-2.87860
G01 X-3.43346 Y-2.87559
G01 X-3.43346 Y-2.82441
G01 X-3.43286 Y-2.82140
G01 X-3.42996 Y-2.81786
G01 X-3.42559 Y-2.81654
G01 X-3.37441 Y-2.81654
G01 X-3.37140 Y-2.81713
G01 X-3.36786 Y-2.82003
G01 X-3.36669 Y-2.82287
G01 X-3.36654 Y-2.82663
G01 X-3.34621 Y-2.82696
G01 X-3.34178 Y-2.82814
G01 X-3.33767 Y-2.83017
G01 X-3.33347 Y-2.83347
G01 X-3.26237 Y-2.90457
G01 X-3.26359 Y-2.90892
G01 X-3.25411 Y-2.90693
G01 X-3.24507 Y-2.90701
G01 X-3.23702 Y-2.90873
G01 X-3.22836 Y-2.91251
G01 X-3.22074 Y-2.91812
G01 X-3.21476 Y-2.92490
G01 X-3.21046 Y-2.93239
G01 X-3.20777 Y-2.94060
G01 X-3.20671 Y-2.95000
G01 X-3.20777 Y-2.95940
G01 X-3.21046 Y-2.96761
G01 X-3.21476 Y-2.97510
G01 X-3.22104 Y-2.98217
G01 X-3.23056 Y-2.98849
G01 X-3.23056 Y-3.18021
G01 X-3.23191 Y-3.18729
G01 X-3.23407 Y-3.19132
G01 X-3.30604 Y-3.26374
G01 X-3.31200 Y-3.26779
G01 X-3.31562 Y-3.26897
G01 X-3.31979 Y-3.26944
G01 X-3.35374 Y-3.26944
G01 X-3.36004 Y-3.27561
G01 X-3.36557 Y-3.27877
G01 X-3.37162 Y-3.28075
G01 X-3.37795 Y-3.28147
G01 X-3.42445 Y-3.28135
G01 X-3.43070 Y-3.28015
G01 X-3.43658 Y-3.27771
G01 X-3.44185 Y-3.27414
G01 X-3.44679 Y-3.26895
G01 X-3.44974 Y-3.26422
G01 X-3.45202 Y-3.25827
G01 X-3.45307 Y-3.25199
G01 X-3.45270 Y-3.24484
G01 X-3.45103 Y-3.23869
G01 X-3.44857 Y-3.23369
G01 X-3.44474 Y-3.22860
G01 X-3.43931 Y-3.22394
G01 X-3.43370 Y-3.22092
G01 X-3.42838 Y-3.21925
G01 X-3.42205 Y-3.21852
G01 X-3.37555 Y-3.21865
G01 X-3.36930 Y-3.21985
G01 X-3.36342 Y-3.22229
G01 X-3.35815 Y-3.22586
G01 X-3.35359 Y-3.23056
G01 X-3.32784 Y-3.23056
G01 X-3.26944 Y-3.17216
G01 X-3.26944 Y-2.98849
G01 X-3.27199 Y-2.98726
G01 X-3.27926 Y-2.98188
G01 X-3.28524 Y-2.97510
G01 X-3.28954 Y-2.96761
G01 X-3.29223 Y-2.95940
G01 X-3.29329 Y-2.95000
G01 X-3.29234 Y-2.94100
G01 X-3.29092 Y-2.93656
G01 X-3.35805 Y-2.86944
G01 X-3.37047 Y-2.86944
G01 X-3.37077 Y-2.87710
G01 X-3.37222 Y-2.87886
G01 X-3.37364 Y-2.87945
G01 X-3.42559 Y-2.87953
G01 X-3.42778 Y-2.87886
G01 X-3.42886 Y-2.87778
G01 X-3.42953 Y-2.87559
G01 X-3.42923 Y-2.82290
G01 X-3.42778 Y-2.82114
G01 X-3.42559 Y-2.82047
G01 X-3.37364 Y-2.82055
G01 X-3.37222 Y-2.82114
G01 X-3.37077 Y-2.82290
G01 X-3.37047 Y-2.83056
G01 X-3.34962 Y-2.83058
G01 X-3.34221 Y-2.83221
G01 X-3.33625 Y-2.83625
G01 X-3.26359 Y-2.90892
G04 P0 ( dwell for no time -- G64 should not smooth over this point )
G00 Z0.08000 ( retract )

G00 X-3.44620 Y-3.34843 ( rapid move to begin. )
G01 F180.00000
G01 Z-0.04000
G04 P0 ( dwell for no time -- G64 should not smooth over this point )
G01 F360.00000
G01 X-3.44620 Y-3.34843
G01 X-3.44185 Y-3.35288
G01 X-3.43658 Y-3.35645
G01 X-3.43070 Y-3.35889
G01 X-3.42523 Y-3.36001
G01 X-3.37836 Y-3.36023
G01 X-3.37162 Y-3.35949
G01 X-3.36557 Y-3.35751
G01 X-3.36004 Y-3.35435
G01 X-3.35526 Y-3.35014
G01 X-3.35142 Y-3.34505
G01 X-3.34869 Y-3.33930
G01 X-3.34717 Y-3.33311
G01 X-3.34693 Y-3.32675
G01 X-3.34798 Y-3.32046
G01 X-3.35026 Y-3.31452
G01 X-3.35321 Y-3.30979
G01 X-3.35815 Y-3.30460
G01 X-3.36272 Y-3.30141
G01 X-3.36854 Y-3.29883
G01 X-3.37555 Y-3.29739
G01 X-3.42164 Y-3.29724
G01 X-3.42760 Y-3.29783
G01 X-3.43370 Y-3.29966
G01 X-3.43931 Y-3.30268
G01 X-3.44606 Y-3.30905
G01 X-3.66778 Y-3.30905
G01 X-3.70928 Y-3.29390
G01 X-3.70967 Y-3.29101
G01 X-3.71242 Y-3.28282
G01 X-3.71656 Y-3.27570
G01 X-3.72205 Y-3.26957
G01 X-3.72970 Y-3.26401
G01 X-3.73762 Y-3.26058
G01 X-3.74568 Y-3.25889
G01 X-3.75432 Y-3.25889
G01 X-3.76238 Y-3.26058
G01 X-3.77067 Y-3.26420
G01 X-3.77734 Y-3.26902
G01 X-3.78367 Y-3.27605
G01 X-3.78791 Y-3.28357
G01 X-3.79043 Y-3.29141
G01 X-3.79132 Y-3.29959
G01 X-3.79043 Y-3.30859
G01 X-3.78791 Y-3.31643
G01 X-3.78344 Y-3.32430
G01 X-3.77734 Y-3.33098
G01 X-3.77067 Y-3.33580
G01 X-3.76316 Y-3.33917
G01 X-3.75473 Y-3.34105
G01 X-3.74568 Y-3.34111
G01 X-3.73762 Y-3.33942
G01 X-3.72933 Y-3.33580
G01 X-3.72262 Y-3.33095
G01 X-3.67801 Y-3.34723
G01 X-3.67160 Y-3.34841
G01 X-3.44620 Y-3.34843
G01 X-3.44789 Y-3.35236
G01 X-3.44410 Y-3.35611
G01 X-3.43953 Y-3.35930
G01 X-3.43301 Y-3.36227
G01 X-3.42447 Y-3.36403
G01 X-3.37755 Y-3.36413
G01 X-3.37044 Y-3.36325
G01 X-3.36512 Y-3.36158
G01 X-3.35878 Y-3.35824
G01 X-3.35215 Y-3.35255
G01 X-3.34789 Y-3.34679
G01 X-3.34543 Y-3.34178
G01 X-3.34324 Y-3.33331
G01 X-3.34304 Y-3.32615
G01 X-3.34428 Y-3.31910
G01 X-3.34692 Y-3.31244
G01 X-3.34987 Y-3.30771
G01 X-3.35590 Y-3.30137
G01 X-3.36047 Y-3.29818
G01 X-3.36699 Y-3.29521
G01 X-3.37553 Y-3.29345
G01 X-3.42163 Y-3.29331
G01 X-3.42800 Y-3.29391
G01 X-3.43488 Y-3.29590
G01 X-3.44122 Y-3.29924
G01 X-3.44799 Y-3.30511
G01 X-3.66708 Y-3.30512
G01 X-3.70564 Y-3.29104
G01 X-3.70901 Y-3.28085
G01 X-3.71337 Y-3.27339
G01 X-3.71912 Y-3.26694
G01 X-3.72810 Y-3.26042
G01 X-3.73680 Y-3.25673
G01 X-3.74527 Y-3.25497
G01 X-3.75473 Y-3.25497
G01 X-3.76319 Y-3.25673
G01 X-3.77264 Y-3.26079
G01 X-3.77965 Y-3.26584
G01 X-3.78708 Y-3.27408
G01 X-3.79165 Y-3.28235
G01 X-3.79428 Y-3.29059
G01 X-3.79523 Y-3.29918
G01 X-3.79428 Y-3.30941
G01 X-3.79165 Y-3.31765
G01 X-3.78663 Y-3.32661
G01 X-3.78088 Y-3.33306
G01 X-3.77264 Y-3.33921
G01 X-3.76476 Y-3.34276
G01 X-3.75555 Y-3.34490
G01 X-3.74527 Y-3.34503
G01 X-3.73680 Y-3.34327
G01 X-3.72736 Y-3.33921
G01 X-3.72200 Y-3.33537
G01 X-3.67936 Y-3.35093
G01 X-3.67195 Y-3.35233
G01 X-3.44789 Y-3.35236
G04 P0 ( dwell for no time -- G64 should not smooth over this point )
G00 Z0.08000 ( retract )

G00 X-3.44789 Y-3.19488 ( rapid move to begin. )
G01 F180.00000
G01 Z-0.04000
G04 P0 ( dwell for no time -- G64 should not smooth over this point )
G01 F360.00000
G01 X-3.44789 Y-3.19488
G01 X-4.04280 Y-3.19488
G01 X-4.05112 Y-3.19334
G01 X-4.05527 Y-3.19130
G01 X-4.05951 Y-3.18796
G01 X-4.26552 Y-2.98196
G01 X-4.26840 Y-2.98509
G01 X-4.27570 Y-2.99045
G01 X-4.28464 Y-2.99462
G01 X-4.29425 Y-2.99683
G01 X-4.30411 Y-2.99701
G01 X-4.31379 Y-2.99512
G01 X-4.32361 Y-2.99090
G01 X-4.33096 Y-2.98561
G01 X-4.33768 Y-2.97840
G01 X-4.34314 Y-2.96921
G01 X-4.34598 Y-2.96061
G01 X-4.34722 Y-2.95000
G01 X-4.34632 Y-2.94100
G01 X-4.34314 Y-2.93079
G01 X-4.33865 Y-2.92293
G01 X-4.33160 Y-2.91491
G01 X-4.32362 Y-2.90916
G01 X-4.32362 Y-2.87362
G01 X-4.42800 Y-2.87362
G01 X-4.43484 Y-2.87898
G01 X-4.44203 Y-2.88204
G01 X-4.44890 Y-2.88332
G01 X-4.45425 Y-2.88332
G01 X-4.46112 Y-2.88204
G01 X-4.46831 Y-2.87898
G01 X-4.47332 Y-2.87539
G01 X-4.47813 Y-2.87031
G01 X-4.48215 Y-2.86361
G01 X-4.48409 Y-2.85775
G01 X-4.48499 Y-2.85082
G01 X-4.48444 Y-2.84386
G01 X-4.48244 Y-2.83716
G01 X-4.47813 Y-2.82969
G01 X-4.47455 Y-2.82571
G01 X-4.46900 Y-2.82147
G01 X-4.46191 Y-2.81817
G01 X-4.45425 Y-2.81668
G01 X-4.44726 Y-2.81685
G01 X-4.44123 Y-2.81817
G01 X-4.43484 Y-2.82102
G01 X-4.42800 Y-2.82638
G01 X-4.30000 Y-2.82638
G01 X-4.29169 Y-2.82791
G01 X-4.28625 Y-2.83082
G01 X-4.28278 Y-2.83387
G01 X-4.27996 Y-2.83754
G01 X-4.27791 Y-2.84169
G01 X-4.27672 Y-2.84616
G01 X-4.27638 Y-2.90428
G01 X-4.03302 Y-3.14764
G01 X-3.44799 Y-3.14764
G01 X-3.44122 Y-3.14175
G01 X-3.43488 Y-3.13842
G01 X-3.42800 Y-3.13643
G01 X-3.42163 Y-3.13583
G01 X-3.37553 Y-3.13597
G01 X-3.36851 Y-3.13725
G01 X-3.36187 Y-3.13993
G01 X-3.35590 Y-3.14389
G01 X-3.35085 Y-3.14897
G01 X-3.34692 Y-3.15496
G01 X-3.34428 Y-3.16162
G01 X-3.34296 Y-3.17026
G01 X-3.34348 Y-3.17741
G01 X-3.34543 Y-3.18430
G01 X-3.34873 Y-3.19066
G01 X-3.35324 Y-3.19622
G01 X-3.35878 Y-3.20076
G01 X-3.36512 Y-3.20410
G01 X-3.37200 Y-3.20609
G01 X-3.37837 Y-3.20669
G01 X-3.42447 Y-3.20655
G01 X-3.43149 Y-3.20527
G01 X-3.43953 Y-3.20182
G01 X-3.44531 Y-3.19759
G01 X-3.44789 Y-3.19488
G01 X-3.44620 Y-3.19095
G01 X-4.04280 Y-3.19095
G01 X-4.04997 Y-3.18958
G01 X-4.05341 Y-3.18783
G01 X-4.05672 Y-3.18518
G01 X-4.26567 Y-2.97624
G01 X-4.27104 Y-2.98217
G01 X-4.27801 Y-2.98726
G01 X-4.28624 Y-2.99102
G01 X-4.29507 Y-2.99298
G01 X-4.30411 Y-2.99307
G01 X-4.31298 Y-2.99127
G01 X-4.32164 Y-2.98749
G01 X-4.32864 Y-2.98243
G01 X-4.33476 Y-2.97576
G01 X-4.33954 Y-2.96761
G01 X-4.34223 Y-2.95940
G01 X-4.34329 Y-2.95000
G01 X-4.34241 Y-2.94141
G01 X-4.33954 Y-2.93239
G01 X-4.33476 Y-2.92424
G01 X-4.32896 Y-2.91783
G01 X-4.31968 Y-2.91161
G01 X-4.31969 Y-2.86969
G01 X-4.42976 Y-2.86969
G01 X-4.43646 Y-2.87535
G01 X-4.44245 Y-2.87808
G01 X-4.44890 Y-2.87939
G01 X-4.45425 Y-2.87939
G01 X-4.46030 Y-2.87819
G01 X-4.46634 Y-2.87557
G01 X-4.47162 Y-2.87165
G01 X-4.47569 Y-2.86701
G01 X-4.47870 Y-2.86162
G01 X-4.48052 Y-2.85573
G01 X-4.48108 Y-2.85041
G01 X-4.48052 Y-2.84427
G01 X-4.47855 Y-2.83799
G01 X-4.47520 Y-2.83232
G01 X-4.47101 Y-2.82780
G01 X-4.46597 Y-2.82424
G01 X-4.46030 Y-2.82181
G01 X-4.45507 Y-2.82070
G01 X-4.44890 Y-2.82061
G01 X-4.44245 Y-2.82192
G01 X-4.43718 Y-2.82424
G01 X-4.43214 Y-2.82780
G01 X-4.42976 Y-2.83031
G01 X-4.30000 Y-2.83031
G01 X-4.29283 Y-2.83168
G01 X-4.28875 Y-2.83386
G01 X-4.28343 Y-2.83939
G01 X-4.28063 Y-2.84654
G01 X-4.28031 Y-2.90591
G01 X-4.03465 Y-3.15157
G01 X-3.44606 Y-3.15157
G01 X-3.43931 Y-3.14520
G01 X-3.43370 Y-3.14218
G01 X-3.42760 Y-3.14035
G01 X-3.42164 Y-3.13976
G01 X-3.37555 Y-3.13991
G01 X-3.36854 Y-3.14135
G01 X-3.36272 Y-3.14393
G01 X-3.35815 Y-3.14712
G01 X-3.35321 Y-3.15231
G01 X-3.35026 Y-3.15704
G01 X-3.34798 Y-3.16298
G01 X-3.34693 Y-3.16927
G01 X-3.34717 Y-3.17563
G01 X-3.34869 Y-3.18182
G01 X-3.35142 Y-3.18757
G01 X-3.35526 Y-3.19265
G01 X-3.36004 Y-3.19686
G01 X-3.36557 Y-3.20003
G01 X-3.37162 Y-3.20201
G01 X-3.37836 Y-3.20275
G01 X-3.42523 Y-3.20253
G01 X-3.43070 Y-3.20141
G01 X-3.43658 Y-3.19897
G01 X-3.44185 Y-3.19540
G01 X-3.44620 Y-3.19095
G04 P0 ( dwell for no time -- G64 should not smooth over this point )
G00 Z0.08000 ( retract )

G00 X-3.56490 Y-2.74871 ( rapid move to begin. )
G01 F180.00000
G01 Z-0.04000
G04 P0 ( dwell for no time -- G64 should not smooth over this point )
G01 F360.00000
G01 X-3.56490 Y-2.74871
G01 X-3.70399 Y-2.61007
G01 X-3.70803 Y-2.60791
G01 X-3.71471 Y-2.60658
G01 X-3.74216 Y-2.60656
G01 X-3.74216 Y-2.55710
G01 X-3.74246 Y-2.55559
G01 X-3.74391 Y-2.55383
G01 X-3.74610 Y-2.55316
G01 X-3.86035 Y-2.55316
G01 X-3.91935 Y-2.49416
G01 X-3.92263 Y-2.49154
G01 X-3.92716 Y-2.48947
G01 X-3.92716 Y-2.43900
G01 X-3.92746 Y-2.43749
G01 X-3.92891 Y-2.43573
G01 X-3.93110 Y-2.43506
G01 X-4.06890 Y-2.43506
G01 X-4.07041 Y-2.43536
G01 X-4.07217 Y-2.43681
G01 X-4.07284 Y-2.43900
G01 X-4.07284 Y-2.57680
G01 X-4.07217 Y-2.57899
G01 X-4.07109 Y-2.58007
G01 X-4.06890 Y-2.58074
G01 X-3.93033 Y-2.58066
G01 X-3.92783 Y-2.57899
G01 X-3.92716 Y-2.57680
G01 X-3.92716 Y-2.54132
G01 X-3.88784 Y-2.58065
G01 X-3.88784 Y-2.69490
G01 X-3.88717 Y-2.69709
G01 X-3.88541 Y-2.69854
G01 X-3.74459 Y-2.69854
G01 X-3.74283 Y-2.69709
G01 X-3.74216 Y-2.69490
G01 X-3.74216 Y-2.64544
G01 X-3.72315 Y-2.64544
G01 X-3.58669 Y-2.78189
G01 X-3.58342 Y-2.78451
G01 X-3.57712 Y-2.78712
G01 X-3.57295 Y-2.78758
G01 X-3.21876 Y-2.78758
G01 X-3.18758 Y-2.81876
G01 X-3.18758 Y-3.20957
G01 X-3.35738 Y-3.37936
G01 X-3.81352 Y-3.37936
G01 X-3.83056 Y-3.36232
G01 X-3.83056 Y-3.34331
G01 X-3.81183 Y-3.34323
G01 X-3.80981 Y-3.34215
G01 X-3.80874 Y-3.34014
G01 X-3.80866 Y-3.26063
G01 X-3.80981 Y-3.25785
G01 X-3.81260 Y-3.25669
G01 X-3.88817 Y-3.25677
G01 X-3.89018 Y-3.25785
G01 X-3.89126 Y-3.25986
G01 X-3.89134 Y-3.28056
G01 X-4.00866 Y-3.28056
G01 X-4.00874 Y-3.25986
G01 X-4.00981 Y-3.25785
G01 X-4.01183 Y-3.25677
G01 X-4.08891 Y-3.25699
G01 X-4.09067 Y-3.25844
G01 X-4.09134 Y-3.26063
G01 X-4.09134 Y-3.33937
G01 X-4.09018 Y-3.34215
G01 X-4.08740 Y-3.34331
G01 X-4.01183 Y-3.34323
G01 X-4.00981 Y-3.34215
G01 X-4.00874 Y-3.34014
G01 X-4.00866 Y-3.31944
G01 X-3.89134 Y-3.31944
G01 X-3.89134 Y-3.33937
G01 X-3.89018 Y-3.34215
G01 X-3.88740 Y-3.34331
G01 X-3.86944 Y-3.34331
G01 X-3.86942 Y-3.37076
G01 X-3.86809 Y-3.37744
G01 X-3.86593 Y-3.38148
G01 X-3.83503 Y-3.41280
G01 X-3.82936 Y-3.41659
G01 X-3.82498 Y-3.41792
G01 X-3.34592 Y-3.41792
G01 X-3.34154 Y-3.41659
G01 X-3.33558 Y-3.41254
G01 X-3.15414 Y-3.23108
G01 X-3.15006 Y-3.22470
G01 X-3.14871 Y-3.21762
G01 X-3.14873 Y-2.81033
G01 X-3.15006 Y-2.80364
G01 X-3.15414 Y-2.79725
G01 X-3.19725 Y-2.75414
G01 X-3.20364 Y-2.75006
G01 X-3.21071 Y-2.74871
G01 X-3.56490 Y-2.74871
G01 X-3.56327 Y-2.74477
G01 X-3.69914 Y-2.60895
G01 X-3.70546 Y-2.60473
G01 X-3.71131 Y-2.60296
G01 X-3.73823 Y-2.60263
G01 X-3.73823 Y-2.55710
G01 X-3.73882 Y-2.55409
G01 X-3.74173 Y-2.55055
G01 X-3.74610 Y-2.54923
G01 X-3.85872 Y-2.54923
G01 X-3.91657 Y-2.49137
G01 X-3.92322 Y-2.48676
G01 X-3.92323 Y-2.43900
G01 X-3.92382 Y-2.43599
G01 X-3.92672 Y-2.43245
G01 X-3.93110 Y-2.43113
G01 X-4.07044 Y-2.43128
G01 X-4.07447 Y-2.43343
G01 X-4.07617 Y-2.43599
G01 X-4.07677 Y-2.43900
G01 X-4.07677 Y-2.57680
G01 X-4.07545 Y-2.58117
G01 X-4.07191 Y-2.58407
G01 X-4.06890 Y-2.58467
G01 X-3.92956 Y-2.58452
G01 X-3.92553 Y-2.58237
G01 X-3.92338 Y-2.57834
G01 X-3.92323 Y-2.55083
G01 X-3.89177 Y-2.58228
G01 X-3.89177 Y-2.69490
G01 X-3.89045 Y-2.69927
G01 X-3.88691 Y-2.70217
G01 X-3.88390 Y-2.70277
G01 X-3.74610 Y-2.70277
G01 X-3.74309 Y-2.70217
G01 X-3.73955 Y-2.69927
G01 X-3.73823 Y-2.69490
G01 X-3.73823 Y-2.64937
G01 X-3.72478 Y-2.64937
G01 X-3.58948 Y-2.78468
G01 X-3.58527 Y-2.78798
G01 X-3.57826 Y-2.79089
G01 X-3.57295 Y-2.79152
G01 X-3.22039 Y-2.79152
G01 X-3.19152 Y-2.82039
G01 X-3.19152 Y-3.20794
G01 X-3.35901 Y-3.37542
G01 X-3.81189 Y-3.37542
G01 X-3.82663 Y-3.36069
G01 X-3.82663 Y-3.34724
G01 X-3.81106 Y-3.34709
G01 X-3.80703 Y-3.34494
G01 X-3.80488 Y-3.34091
G01 X-3.80472 Y-3.26063
G01 X-3.80532 Y-3.25762
G01 X-3.80703 Y-3.25506
G01 X-3.80959 Y-3.25335
G01 X-3.81260 Y-3.25276
G01 X-3.88894 Y-3.25291
G01 X-3.89297 Y-3.25506
G01 X-3.89512 Y-3.25909
G01 X-3.89527 Y-3.27663
G01 X-4.00472 Y-3.27663
G01 X-4.00488 Y-3.25909
G01 X-4.00703 Y-3.25506
G01 X-4.01106 Y-3.25291
G01 X-4.08740 Y-3.25276
G01 X-4.09041 Y-3.25335
G01 X-4.09395 Y-3.25625
G01 X-4.09527 Y-3.26063
G01 X-4.09527 Y-3.33937
G01 X-4.09467 Y-3.34238
G01 X-4.09297 Y-3.34494
G01 X-4.09041 Y-3.34664
G01 X-4.08740 Y-3.34724
G01 X-4.01106 Y-3.34709
G01 X-4.00703 Y-3.34494
G01 X-4.00488 Y-3.34091
G01 X-4.00472 Y-3.32337
G01 X-3.89527 Y-3.32337
G01 X-3.89512 Y-3.34091
G01 X-3.89297 Y-3.34494
G01 X-3.88894 Y-3.34709
G01 X-3.87337 Y-3.34724
G01 X-3.87304 Y-3.37417
G01 X-3.87186 Y-3.37859
G01 X-3.86897 Y-3.38398
G01 X-3.83752 Y-3.41585
G01 X-3.83121 Y-3.42006
G01 X-3.82537 Y-3.42184
G01 X-3.34553 Y-3.42184
G01 X-3.33968 Y-3.42006
G01 X-3.33280 Y-3.41533
G01 X-3.15110 Y-3.23358
G01 X-3.14832 Y-3.22994
G01 X-3.14629 Y-3.22584
G01 X-3.14478 Y-3.21762
G01 X-3.14478 Y-2.81071
G01 X-3.14629 Y-2.80249
G01 X-3.14832 Y-2.79839
G01 X-3.15110 Y-2.79475
G01 X-3.19475 Y-2.75110
G01 X-3.20107 Y-2.74688
G01 X-3.20692 Y-2.74511
G01 X-3.56327 Y-2.74477
G04 P0 ( dwell for no time -- G64 should not smooth over this point )
G00 Z0.08000 ( retract )

G00 X-3.80455 Y-2.42293 ( rapid move to begin. )
G01 F180.00000
G01 Z-0.04000
G04 P0 ( dwell for no time -- G64 should not smooth over this point )
G01 F360.00000
G01 X-3.80455 Y-2.42293
G01 X-3.69092 Y-2.53656
G01 X-3.69234 Y-2.54100
G01 X-3.69329 Y-2.55000
G01 X-3.69223 Y-2.55940
G01 X-3.68936 Y-2.56797
G01 X-3.68476 Y-2.57576
G01 X-3.67864 Y-2.58243
G01 X-3.67164 Y-2.58749
G01 X-3.66298 Y-2.59127
G01 X-3.65411 Y-2.59307
G01 X-3.64589 Y-2.59307
G01 X-3.63624 Y-2.59102
G01 X-3.62836 Y-2.58749
G01 X-3.62104 Y-2.58217
G01 X-3.61497 Y-2.57543
G01 X-3.61168 Y-2.56969
G01 X-3.28832 Y-2.56969
G01 X-3.28503 Y-2.57543
G01 X-3.27926 Y-2.58188
G01 X-3.27164 Y-2.58749
G01 X-3.26298 Y-2.59127
G01 X-3.25411 Y-2.59307
G01 X-3.24589 Y-2.59307
G01 X-3.23624 Y-2.59102
G01 X-3.22836 Y-2.58749
G01 X-3.22104 Y-2.58217
G01 X-3.21476 Y-2.57510
G01 X-3.21046 Y-2.56761
G01 X-3.20777 Y-2.55940
G01 X-3.20671 Y-2.55000
G01 X-3.20759 Y-2.54141
G01 X-3.21046 Y-2.53239
G01 X-3.21476 Y-2.52490
G01 X-3.22074 Y-2.51812
G01 X-3.22836 Y-2.51251
G01 X-3.23702 Y-2.50873
G01 X-3.24589 Y-2.50693
G01 X-3.25411 Y-2.50693
G01 X-3.26298 Y-2.50873
G01 X-3.27164 Y-2.51251
G01 X-3.27926 Y-2.51812
G01 X-3.28503 Y-2.52457
G01 X-3.28832 Y-2.53031
G01 X-3.61168 Y-2.53031
G01 X-3.61497 Y-2.52457
G01 X-3.62135 Y-2.51757
G01 X-3.62836 Y-2.51251
G01 X-3.63624 Y-2.50898
G01 X-3.64589 Y-2.50693
G01 X-3.65493 Y-2.50701
G01 X-3.66358 Y-2.50892
G01 X-3.78275 Y-2.38975
G01 X-3.78603 Y-2.38714
G01 X-3.78943 Y-2.38541
G01 X-3.79650 Y-2.38406
G01 X-4.15691 Y-2.38438
G01 X-4.16129 Y-2.38571
G01 X-4.16724 Y-2.38975
G01 X-4.28640 Y-2.50892
G01 X-4.29507 Y-2.50701
G01 X-4.30411 Y-2.50693
G01 X-4.31376 Y-2.50898
G01 X-4.32164 Y-2.51251
G01 X-4.32896 Y-2.51783
G01 X-4.33503 Y-2.52457
G01 X-4.33832 Y-2.53031
G01 X-4.66168 Y-2.53031
G01 X-4.66497 Y-2.52457
G01 X-4.67074 Y-2.51812
G01 X-4.67836 Y-2.51251
G01 X-4.68702 Y-2.50873
G01 X-4.69507 Y-2.50701
G01 X-4.70411 Y-2.50693
G01 X-4.71338 Y-2.50883
G01 X-4.72164 Y-2.51251
G01 X-4.72896 Y-2.51783
G01 X-4.73476 Y-2.52424
G01 X-4.73954 Y-2.53239
G01 X-4.74223 Y-2.54060
G01 X-4.74329 Y-2.55000
G01 X-4.74240 Y-2.55859
G01 X-4.73936 Y-2.56797
G01 X-4.73524 Y-2.57510
G01 X-4.72926 Y-2.58188
G01 X-4.72128 Y-2.58767
G01 X-4.71298 Y-2.59127
G01 X-4.70411 Y-2.59307
G01 X-4.69589 Y-2.59307
G01 X-4.68702 Y-2.59127
G01 X-4.67836 Y-2.58749
G01 X-4.67074 Y-2.58188
G01 X-4.66497 Y-2.57543
G01 X-4.66168 Y-2.56969
G01 X-4.33832 Y-2.56969
G01 X-4.33503 Y-2.57543
G01 X-4.32864 Y-2.58243
G01 X-4.32164 Y-2.58749
G01 X-4.31298 Y-2.59127
G01 X-4.30411 Y-2.59307
G01 X-4.29507 Y-2.59298
G01 X-4.28624 Y-2.59102
G01 X-4.27836 Y-2.58749
G01 X-4.27454 Y-2.58474
G01 X-4.07284 Y-2.68559
G01 X-4.07284 Y-2.81300
G01 X-4.07168 Y-2.81578
G01 X-4.06890 Y-2.81694
G01 X-3.93110 Y-2.81694
G01 X-3.92832 Y-2.81578
G01 X-3.92716 Y-2.81300
G01 X-3.92724 Y-2.67443
G01 X-3.92891 Y-2.67193
G01 X-3.93110 Y-2.67126
G01 X-4.01345 Y-2.67126
G01 X-4.25673 Y-2.54962
G01 X-4.25759 Y-2.54141
G01 X-4.25908 Y-2.53657
G01 X-4.14545 Y-2.42293
G01 X-3.80455 Y-2.42293
G01 X-3.80618 Y-2.42687
G01 X-3.69541 Y-2.53764
G01 X-3.69632 Y-2.54100
G01 X-3.69722 Y-2.55000
G01 X-3.69632 Y-2.55900
G01 X-3.69314 Y-2.56921
G01 X-3.68769 Y-2.57840
G01 X-3.68096 Y-2.58561
G01 X-3.67361 Y-2.59090
G01 X-3.66536 Y-2.59462
G01 X-3.65575 Y-2.59684
G01 X-3.64425 Y-2.59684
G01 X-3.63541 Y-2.59491
G01 X-3.62712 Y-2.59127
G01 X-3.61840 Y-2.58509
G01 X-3.61178 Y-2.57774
G01 X-3.60939 Y-2.57362
G01 X-3.29061 Y-2.57362
G01 X-3.28822 Y-2.57774
G01 X-3.28218 Y-2.58451
G01 X-3.27361 Y-2.59090
G01 X-3.26380 Y-2.59512
G01 X-3.25411 Y-2.59701
G01 X-3.24589 Y-2.59701
G01 X-3.23464 Y-2.59462
G01 X-3.22639 Y-2.59090
G01 X-3.21840 Y-2.58509
G01 X-3.21135 Y-2.57707
G01 X-3.20686 Y-2.56921
G01 X-3.20402 Y-2.56061
G01 X-3.20278 Y-2.55000
G01 X-3.20402 Y-2.53938
G01 X-3.20686 Y-2.53079
G01 X-3.21231 Y-2.52160
G01 X-3.21904 Y-2.51439
G01 X-3.22639 Y-2.50910
G01 X-3.23620 Y-2.50487
G01 X-3.24589 Y-2.50299
G01 X-3.25411 Y-2.50299
G01 X-3.26380 Y-2.50487
G01 X-3.27361 Y-2.50910
G01 X-3.28218 Y-2.51549
G01 X-3.28822 Y-2.52226
G01 X-3.29061 Y-2.52637
G01 X-3.60939 Y-2.52637
G01 X-3.61178 Y-2.52226
G01 X-3.61904 Y-2.51439
G01 X-3.62639 Y-2.50910
G01 X-3.63464 Y-2.50538
G01 X-3.64589 Y-2.50299
G01 X-3.65411 Y-2.50299
G01 X-3.66237 Y-2.50457
G01 X-3.77997 Y-2.38697
G01 X-3.78417 Y-2.38367
G01 X-3.78828 Y-2.38164
G01 X-3.79650 Y-2.38013
G01 X-4.15729 Y-2.38046
G01 X-4.16314 Y-2.38223
G01 X-4.17003 Y-2.38697
G01 X-4.28763 Y-2.50457
G01 X-4.29589 Y-2.50299
G01 X-4.30411 Y-2.50299
G01 X-4.31536 Y-2.50538
G01 X-4.32361 Y-2.50910
G01 X-4.33160 Y-2.51491
G01 X-4.33822 Y-2.52226
G01 X-4.34061 Y-2.52637
G01 X-4.65939 Y-2.52637
G01 X-4.66178 Y-2.52226
G01 X-4.66782 Y-2.51549
G01 X-4.67639 Y-2.50910
G01 X-4.68620 Y-2.50487
G01 X-4.69425 Y-2.50316
G01 X-4.70411 Y-2.50299
G01 X-4.71459 Y-2.50509
G01 X-4.72361 Y-2.50910
G01 X-4.73160 Y-2.51491
G01 X-4.73768 Y-2.52160
G01 X-4.74314 Y-2.53079
G01 X-4.74598 Y-2.53938
G01 X-4.74722 Y-2.55000
G01 X-4.74632 Y-2.55900
G01 X-4.74277 Y-2.56994
G01 X-4.73768 Y-2.57840
G01 X-4.73218 Y-2.58451
G01 X-4.72288 Y-2.59127
G01 X-4.71380 Y-2.59512
G01 X-4.70411 Y-2.59701
G01 X-4.69589 Y-2.59701
G01 X-4.68620 Y-2.59512
G01 X-4.67639 Y-2.59090
G01 X-4.66782 Y-2.58451
G01 X-4.66178 Y-2.57774
G01 X-4.65939 Y-2.57362
G01 X-4.34061 Y-2.57362
G01 X-4.33822 Y-2.57774
G01 X-4.33096 Y-2.58561
G01 X-4.32361 Y-2.59090
G01 X-4.31379 Y-2.59512
G01 X-4.30411 Y-2.59701
G01 X-4.29425 Y-2.59684
G01 X-4.28541 Y-2.59491
G01 X-4.27712 Y-2.59127
G01 X-4.27416 Y-2.58933
G01 X-4.07677 Y-2.68803
G01 X-4.07677 Y-2.81300
G01 X-4.07617 Y-2.81601
G01 X-4.07327 Y-2.81955
G01 X-4.06890 Y-2.82087
G01 X-3.92956 Y-2.82072
G01 X-3.92553 Y-2.81857
G01 X-3.92382 Y-2.81601
G01 X-3.92323 Y-2.81300
G01 X-3.92323 Y-2.67520
G01 X-3.92382 Y-2.67219
G01 X-3.92553 Y-2.66963
G01 X-3.92809 Y-2.66792
G01 X-3.93110 Y-2.66733
G01 X-4.01252 Y-2.66732
G01 X-4.25304 Y-2.54707
G01 X-4.25459 Y-2.53764
G01 X-4.14382 Y-2.42687
G01 X-3.80618 Y-2.42687
G04 P0 ( dwell for no time -- G64 should not smooth over this point )
G00 Z0.08000 ( retract )

G00 X-3.98612 Y-2.92663 ( rapid move to begin. )
G01 F180.00000
G01 Z-0.04000
G04 P0 ( dwell for no time -- G64 should not smooth over this point )
G01 F360.00000
G01 X-3.98612 Y-2.92663
G01 X-3.69078 Y-2.92663
G01 X-3.68769 Y-2.92160
G01 X-3.68218 Y-2.91549
G01 X-3.67361 Y-2.90910
G01 X-3.66459 Y-2.90509
G01 X-3.65411 Y-2.90299
G01 X-3.64425 Y-2.90316
G01 X-3.63620 Y-2.90487
G01 X-3.62639 Y-2.90910
G01 X-3.61782 Y-2.91549
G01 X-3.61231 Y-2.92160
G01 X-3.60921 Y-2.92663
G01 X-3.60811 Y-2.92663
G01 X-3.53185 Y-2.85036
G01 X-3.53094 Y-2.84225
G01 X-3.52862 Y-2.83565
G01 X-3.52498 Y-2.82969
G01 X-3.52140 Y-2.82571
G01 X-3.51516 Y-2.82102
G01 X-3.50876 Y-2.81817
G01 X-3.50110 Y-2.81668
G01 X-3.49411 Y-2.81685
G01 X-3.48888 Y-2.81796
G01 X-3.48243 Y-2.82064
G01 X-3.47545 Y-2.82571
G01 X-3.47090 Y-2.83102
G01 X-3.46785 Y-2.83639
G01 X-3.46556 Y-2.84386
G01 X-3.46500 Y-2.84918
G01 X-3.46556 Y-2.85614
G01 X-3.46756 Y-2.86284
G01 X-3.47090 Y-2.86898
G01 X-3.47545 Y-2.87428
G01 X-3.48169 Y-2.87898
G01 X-3.48732 Y-2.88153
G01 X-3.49411 Y-2.88315
G01 X-3.49869 Y-2.88332
G01 X-3.58482 Y-2.96897
G01 X-3.59021 Y-2.97186
G01 X-3.59463 Y-2.97304
G01 X-3.60921 Y-2.97337
G01 X-3.61231 Y-2.97840
G01 X-3.61840 Y-2.98509
G01 X-3.62639 Y-2.99090
G01 X-3.63464 Y-2.99462
G01 X-3.64425 Y-2.99683
G01 X-3.65411 Y-2.99701
G01 X-3.66379 Y-2.99512
G01 X-3.67361 Y-2.99090
G01 X-3.68218 Y-2.98451
G01 X-3.68769 Y-2.97840
G01 X-3.69078 Y-2.97337
G01 X-3.99580 Y-2.97337
G01 X-4.00402 Y-2.97186
G01 X-4.00812 Y-2.96983
G01 X-4.01233 Y-2.96653
G01 X-4.16657 Y-2.81228
G01 X-4.64000 Y-2.81228
G01 X-4.75148 Y-2.92375
G01 X-4.75148 Y-2.97625
G01 X-4.57984 Y-3.14789
G01 X-4.54819 Y-3.14789
G01 X-4.54252 Y-3.14267
G01 X-4.53634 Y-3.13905
G01 X-4.52956 Y-3.13675
G01 X-4.52163 Y-3.13583
G01 X-4.47397 Y-3.13613
G01 X-4.46699 Y-3.13773
G01 X-4.46047 Y-3.14070
G01 X-4.45590 Y-3.14389
G01 X-4.44987 Y-3.15022
G01 X-4.44692 Y-3.15496
G01 X-4.44428 Y-3.16162
G01 X-4.44304 Y-3.16867
G01 X-4.44348 Y-3.17741
G01 X-4.44543 Y-3.18430
G01 X-4.44789 Y-3.18930
G01 X-4.45324 Y-3.19622
G01 X-4.45878 Y-3.20076
G01 X-4.46366 Y-3.20347
G01 X-4.47200 Y-3.20609
G01 X-4.47837 Y-3.20669
G01 X-4.52602 Y-3.20639
G01 X-4.53301 Y-3.20479
G01 X-4.53813 Y-3.20259
G01 X-4.54410 Y-3.19863
G01 X-4.54812 Y-3.19463
G01 X-4.59029 Y-3.19460
G01 X-4.59773 Y-3.19311
G01 X-4.60312 Y-3.19023
G01 X-4.79138 Y-3.00245
G01 X-4.79611 Y-2.99557
G01 X-4.79759 Y-2.99124
G01 X-4.79819 Y-2.98670
G01 X-4.79822 Y-2.91407
G01 X-4.79759 Y-2.90876
G01 X-4.79468 Y-2.90175
G01 X-4.79138 Y-2.89754
G01 X-4.66621 Y-2.77238
G01 X-4.65933 Y-2.76764
G01 X-4.65348 Y-2.76587
G01 X-4.15689 Y-2.76553
G01 X-4.15158 Y-2.76617
G01 X-4.14457 Y-2.76908
G01 X-4.14036 Y-2.77238
G01 X-3.98612 Y-2.92663
G01 X-3.98775 Y-2.93056
G01 X-3.68851 Y-2.93056
G01 X-3.68476 Y-2.92424
G01 X-3.67925 Y-2.91812
G01 X-3.67199 Y-2.91274
G01 X-3.66337 Y-2.90883
G01 X-3.65411 Y-2.90693
G01 X-3.64507 Y-2.90701
G01 X-3.63624 Y-2.90898
G01 X-3.62872 Y-2.91233
G01 X-3.62074 Y-2.91812
G01 X-3.61524 Y-2.92424
G01 X-3.61149 Y-2.93056
G01 X-3.60648 Y-2.93056
G01 X-3.52778 Y-2.85186
G01 X-3.52737 Y-2.84427
G01 X-3.52521 Y-2.83762
G01 X-3.52254 Y-2.83299
G01 X-3.51847 Y-2.82835
G01 X-3.51319 Y-2.82443
G01 X-3.50755 Y-2.82192
G01 X-3.50110 Y-2.82061
G01 X-3.49493 Y-2.82070
G01 X-3.48970 Y-2.82181
G01 X-3.48403 Y-2.82424
G01 X-3.47838 Y-2.82835
G01 X-3.47431 Y-2.83299
G01 X-3.47145 Y-2.83799
G01 X-3.46948 Y-2.84427
G01 X-3.46892 Y-2.84959
G01 X-3.46948 Y-2.85573
G01 X-3.47130 Y-2.86162
G01 X-3.47431 Y-2.86701
G01 X-3.47838 Y-2.87165
G01 X-3.48366 Y-2.87557
G01 X-3.48930 Y-2.87808
G01 X-3.49493 Y-2.87930
G01 X-3.50032 Y-2.87939
G01 X-3.58731 Y-2.96593
G01 X-3.59135 Y-2.96809
G01 X-3.59501 Y-2.96912
G01 X-3.61149 Y-2.96944
G01 X-3.61524 Y-2.97576
G01 X-3.62074 Y-2.98188
G01 X-3.62836 Y-2.98749
G01 X-3.63702 Y-2.99127
G01 X-3.64589 Y-2.99307
G01 X-3.65411 Y-2.99307
G01 X-3.66376 Y-2.99102
G01 X-3.67199 Y-2.98726
G01 X-3.67925 Y-2.98188
G01 X-3.68476 Y-2.97576
G01 X-3.68851 Y-2.96944
G01 X-3.99580 Y-2.96944
G01 X-4.00287 Y-2.96809
G01 X-4.00627 Y-2.96636
G01 X-4.00954 Y-2.96374
G01 X-4.16494 Y-2.80834
G01 X-4.64163 Y-2.80835
G01 X-4.75541 Y-2.92212
G01 X-4.75541 Y-2.97788
G01 X-4.58147 Y-3.15182
G01 X-4.54626 Y-3.15182
G01 X-4.53996 Y-3.14565
G01 X-4.53443 Y-3.14249
G01 X-4.52838 Y-3.14051
G01 X-4.52164 Y-3.13976
G01 X-4.47477 Y-3.13998
G01 X-4.46854 Y-3.14135
G01 X-4.46272 Y-3.14393
G01 X-4.45815 Y-3.14712
G01 X-4.45321 Y-3.15231
G01 X-4.45026 Y-3.15704
G01 X-4.44798 Y-3.16298
G01 X-4.44693 Y-3.16927
G01 X-4.44729 Y-3.17642
G01 X-4.44869 Y-3.18182
G01 X-4.45143 Y-3.18757
G01 X-4.45581 Y-3.19323
G01 X-4.46004 Y-3.19686
G01 X-4.46557 Y-3.20003
G01 X-4.47240 Y-3.20217
G01 X-4.47836 Y-3.20275
G01 X-4.52523 Y-3.20253
G01 X-4.53146 Y-3.20117
G01 X-4.53728 Y-3.19859
G01 X-4.54246 Y-3.19488
G01 X-4.54641 Y-3.19069
G01 X-4.58990 Y-3.19068
G01 X-4.59659 Y-3.18935
G01 X-4.60063 Y-3.18719
G01 X-4.78859 Y-2.99967
G01 X-4.79264 Y-2.99371
G01 X-4.79427 Y-2.98631
G01 X-4.79429 Y-2.91407
G01 X-4.79382 Y-2.90990
G01 X-4.79121 Y-2.90360
G01 X-4.78859 Y-2.90033
G01 X-4.66343 Y-2.77516
G01 X-4.65747 Y-2.77112
G01 X-4.65007 Y-2.76949
G01 X-4.15689 Y-2.76947
G01 X-4.15272 Y-2.76994
G01 X-4.14642 Y-2.77255
G01 X-4.14314 Y-2.77516
G01 X-3.98775 Y-2.93056
G04 P0 ( dwell for no time -- G64 should not smooth over this point )
G00 Z0.08000 ( retract )

G00 X-4.19031 Y-3.30905 ( rapid move to begin. )
G01 F180.00000
G01 Z-0.04000
G04 P0 ( dwell for no time -- G64 should not smooth over this point )
G01 F360.00000
G01 X-4.19031 Y-3.30905
G01 X-4.19132 Y-3.29959
G01 X-4.19043 Y-3.29141
G01 X-4.18758 Y-3.28282
G01 X-4.18344 Y-3.27570
G01 X-4.17734 Y-3.26902
G01 X-4.17067 Y-3.26420
G01 X-4.16237 Y-3.26058
G01 X-4.15432 Y-3.25889
G01 X-4.14568 Y-3.25889
G01 X-4.13684 Y-3.26083
G01 X-4.12933 Y-3.26420
G01 X-4.12266 Y-3.26902
G01 X-4.11656 Y-3.27570
G01 X-4.11209 Y-3.28357
G01 X-4.10956 Y-3.29141
G01 X-4.10868 Y-3.30041
G01 X-4.10956 Y-3.30859
G01 X-4.11209 Y-3.31643
G01 X-4.11656 Y-3.32430
G01 X-4.12266 Y-3.33098
G01 X-4.12933 Y-3.33580
G01 X-4.13762 Y-3.33942
G01 X-4.14609 Y-3.34113
G01 X-4.15432 Y-3.34111
G01 X-4.16172 Y-3.33956
G01 X-4.16749 Y-3.34488
G01 X-4.17086 Y-3.34676
G01 X-4.17835 Y-3.34841
G01 X-4.45394 Y-3.34843
G01 X-4.46069 Y-3.35480
G01 X-4.46630 Y-3.35782
G01 X-4.47240 Y-3.35965
G01 X-4.47836 Y-3.36023
G01 X-4.52445 Y-3.36009
G01 X-4.53069 Y-3.35889
G01 X-4.53658 Y-3.35645
G01 X-4.54246 Y-3.35236
G01 X-4.54679 Y-3.34769
G01 X-4.54974 Y-3.34296
G01 X-4.55202 Y-3.33701
G01 X-4.55307 Y-3.33073
G01 X-4.55283 Y-3.32437
G01 X-4.55131 Y-3.31818
G01 X-4.54857 Y-3.31243
G01 X-4.54474 Y-3.30734
G01 X-4.53996 Y-3.30313
G01 X-4.53443 Y-3.29997
G01 X-4.52838 Y-3.29799
G01 X-4.52205 Y-3.29726
G01 X-4.47477 Y-3.29747
G01 X-4.46930 Y-3.29859
G01 X-4.46342 Y-3.30103
G01 X-4.45815 Y-3.30460
G01 X-4.45380 Y-3.30905
G01 X-4.19031 Y-3.30905
G01 X-4.19478 Y-3.30511
G01 X-4.19523 Y-3.29918
G01 X-4.19428 Y-3.29059
G01 X-4.19165 Y-3.28235
G01 X-4.18663 Y-3.27339
G01 X-4.18088 Y-3.26694
G01 X-4.17264 Y-3.26079
G01 X-4.16476 Y-3.25724
G01 X-4.15473 Y-3.25497
G01 X-4.14527 Y-3.25497
G01 X-4.13680 Y-3.25673
G01 X-4.12736 Y-3.26079
G01 X-4.12035 Y-3.26584
G01 X-4.11292 Y-3.27408
G01 X-4.10834 Y-3.28235
G01 X-4.10571 Y-3.29059
G01 X-4.10477 Y-3.30082
G01 X-4.10571 Y-3.30941
G01 X-4.10834 Y-3.31765
G01 X-4.11337 Y-3.32661
G01 X-4.12035 Y-3.33416
G01 X-4.12736 Y-3.33921
G01 X-4.13680 Y-3.34327
G01 X-4.14609 Y-3.34507
G01 X-4.15473 Y-3.34503
G01 X-4.16045 Y-3.34386
G01 X-4.16499 Y-3.34792
G01 X-4.16900 Y-3.35023
G01 X-4.17338 Y-3.35172
G01 X-4.17797 Y-3.35233
G01 X-4.45200 Y-3.35236
G01 X-4.45878 Y-3.35824
G01 X-4.46512 Y-3.36158
G01 X-4.47200 Y-3.36357
G01 X-4.47837 Y-3.36417
G01 X-4.52447 Y-3.36403
G01 X-4.53149 Y-3.36275
G01 X-4.53813 Y-3.36007
G01 X-4.54531 Y-3.35507
G01 X-4.55013 Y-3.34977
G01 X-4.55378 Y-3.34361
G01 X-4.55612 Y-3.33684
G01 X-4.55696 Y-3.33133
G01 X-4.55676 Y-3.32417
G01 X-4.55512 Y-3.31719
G01 X-4.55211 Y-3.31069
G01 X-4.54785 Y-3.30493
G01 X-4.54252 Y-3.30015
G01 X-4.53634 Y-3.29653
G01 X-4.52956 Y-3.29423
G01 X-4.52245 Y-3.29335
G01 X-4.47397 Y-3.29361
G01 X-4.46699 Y-3.29521
G01 X-4.46187 Y-3.29741
G01 X-4.45590 Y-3.30137
G01 X-4.45211 Y-3.30511
G01 X-4.19478 Y-3.30511
G04 P0 ( dwell for no time -- G64 should not smooth over this point )
G00 Z0.08000 ( retract )

G00 X-4.57337 Y-2.88346 ( rapid move to begin. )
G01 F180.00000
G01 Z-0.04000
G04 P0 ( dwell for no time -- G64 should not smooth over this point )
G01 F360.00000
G01 X-4.57337 Y-2.88346
G01 X-4.57713 Y-2.88331
G01 X-4.58116 Y-2.88116
G01 X-4.58331 Y-2.87713
G01 X-4.58346 Y-2.87337
G01 X-4.59032 Y-2.87337
G01 X-4.65459 Y-2.93764
G01 X-4.65368 Y-2.94100
G01 X-4.65282 Y-2.95082
G01 X-4.65402 Y-2.96061
G01 X-4.65686 Y-2.96921
G01 X-4.66135 Y-2.97707
G01 X-4.66782 Y-2.98451
G01 X-4.67712 Y-2.99127
G01 X-4.68541 Y-2.99491
G01 X-4.69589 Y-2.99701
G01 X-4.70575 Y-2.99683
G01 X-4.71536 Y-2.99462
G01 X-4.72361 Y-2.99090
G01 X-4.73218 Y-2.98451
G01 X-4.73865 Y-2.97707
G01 X-4.74314 Y-2.96921
G01 X-4.74632 Y-2.95900
G01 X-4.74722 Y-2.95000
G01 X-4.74632 Y-2.94100
G01 X-4.74277 Y-2.93006
G01 X-4.73768 Y-2.92160
G01 X-4.73218 Y-2.91549
G01 X-4.72361 Y-2.90910
G01 X-4.71380 Y-2.90487
G01 X-4.70411 Y-2.90299
G01 X-4.69589 Y-2.90299
G01 X-4.68763 Y-2.90457
G01 X-4.61360 Y-2.83102
G01 X-4.60822 Y-2.82814
G01 X-4.60379 Y-2.82696
G01 X-4.58346 Y-2.82663
G01 X-4.58331 Y-2.82287
G01 X-4.58214 Y-2.82003
G01 X-4.57996 Y-2.81786
G01 X-4.57713 Y-2.81669
G01 X-4.52441 Y-2.81654
G01 X-4.52140 Y-2.81713
G01 X-4.51884 Y-2.81884
G01 X-4.51713 Y-2.82140
G01 X-4.51654 Y-2.82441
G01 X-4.51669 Y-2.87713
G01 X-4.51786 Y-2.87996
G01 X-4.52004 Y-2.88214
G01 X-4.52287 Y-2.88331
G01 X-4.52663 Y-2.88346
G01 X-4.52663 Y-2.89691
G01 X-4.39876 Y-3.02477
G01 X-4.39546 Y-3.02898
G01 X-4.39255 Y-3.03599
G01 X-4.39191 Y-3.04130
G01 X-4.39195 Y-3.24627
G01 X-4.39343 Y-3.25372
G01 X-4.39631 Y-3.25910
G01 X-4.40383 Y-3.26704
G01 X-4.41014 Y-3.27126
G01 X-4.41447 Y-3.27274
G01 X-4.41901 Y-3.27334
G01 X-4.45181 Y-3.27337
G01 X-4.45878 Y-3.27950
G01 X-4.46512 Y-3.28284
G01 X-4.47200 Y-3.28483
G01 X-4.47837 Y-3.28543
G01 X-4.52447 Y-3.28529
G01 X-4.53301 Y-3.28353
G01 X-4.53953 Y-3.28056
G01 X-4.54410 Y-3.27737
G01 X-4.54915 Y-3.27229
G01 X-4.55378 Y-3.26487
G01 X-4.55612 Y-3.25810
G01 X-4.55704 Y-3.25100
G01 X-4.55652 Y-3.24385
G01 X-4.55457 Y-3.23696
G01 X-4.55127 Y-3.23060
G01 X-4.54676 Y-3.22504
G01 X-4.54122 Y-3.22050
G01 X-4.53488 Y-3.21716
G01 X-4.52800 Y-3.21517
G01 X-4.52163 Y-3.21457
G01 X-4.47553 Y-3.21471
G01 X-4.46851 Y-3.21599
G01 X-4.46187 Y-3.21867
G01 X-4.45590 Y-3.22263
G01 X-4.45187 Y-3.22662
G01 X-4.43866 Y-3.22663
G01 X-4.43866 Y-3.05098
G01 X-4.56897 Y-2.92020
G01 X-4.57186 Y-2.91481
G01 X-4.57337 Y-2.90659
G01 X-4.57337 Y-2.88346
G01 X-4.56944 Y-2.87953
G01 X-4.57636 Y-2.87945
G01 X-4.57837 Y-2.87837
G01 X-4.57945 Y-2.87636
G01 X-4.57953 Y-2.86944
G01 X-4.59195 Y-2.86944
G01 X-4.65908 Y-2.93657
G01 X-4.65759 Y-2.94141
G01 X-4.65671 Y-2.95000
G01 X-4.65759 Y-2.95859
G01 X-4.66031 Y-2.96722
G01 X-4.66524 Y-2.97576
G01 X-4.67103 Y-2.98217
G01 X-4.67836 Y-2.98749
G01 X-4.68662 Y-2.99117
G01 X-4.69589 Y-2.99307
G01 X-4.70493 Y-2.99298
G01 X-4.71376 Y-2.99102
G01 X-4.72164 Y-2.98749
G01 X-4.72926 Y-2.98188
G01 X-4.73524 Y-2.97510
G01 X-4.73954 Y-2.96761
G01 X-4.74240 Y-2.95859
G01 X-4.74329 Y-2.95000
G01 X-4.74240 Y-2.94141
G01 X-4.73936 Y-2.93203
G01 X-4.73524 Y-2.92490
G01 X-4.72926 Y-2.91812
G01 X-4.72164 Y-2.91251
G01 X-4.71298 Y-2.90873
G01 X-4.70411 Y-2.90693
G01 X-4.69589 Y-2.90693
G01 X-4.68640 Y-2.90892
G01 X-4.61111 Y-2.83407
G01 X-4.60707 Y-2.83191
G01 X-4.60341 Y-2.83088
G01 X-4.57953 Y-2.83056
G01 X-4.57923 Y-2.82290
G01 X-4.57778 Y-2.82114
G01 X-4.57636 Y-2.82055
G01 X-4.52441 Y-2.82047
G01 X-4.52163 Y-2.82163
G01 X-4.52047 Y-2.82441
G01 X-4.52055 Y-2.87636
G01 X-4.52114 Y-2.87778
G01 X-4.52290 Y-2.87923
G01 X-4.53056 Y-2.87953
G01 X-4.53056 Y-2.89854
G01 X-4.40154 Y-3.02756
G01 X-4.39893 Y-3.03083
G01 X-4.39632 Y-3.03714
G01 X-4.39585 Y-3.04130
G01 X-4.39587 Y-3.24588
G01 X-4.39720 Y-3.25257
G01 X-4.39935 Y-3.25661
G01 X-4.40633 Y-3.26400
G01 X-4.41200 Y-3.26779
G01 X-4.41562 Y-3.26897
G01 X-4.41979 Y-3.26944
G01 X-4.45374 Y-3.26944
G01 X-4.45581 Y-3.27197
G01 X-4.46069 Y-3.27606
G01 X-4.46630 Y-3.27908
G01 X-4.47240 Y-3.28091
G01 X-4.47836 Y-3.28150
G01 X-4.52445 Y-3.28135
G01 X-4.53146 Y-3.27991
G01 X-4.53728 Y-3.27733
G01 X-4.54185 Y-3.27414
G01 X-4.54679 Y-3.26895
G01 X-4.55009 Y-3.26350
G01 X-4.55222 Y-3.25750
G01 X-4.55311 Y-3.25120
G01 X-4.55270 Y-3.24484
G01 X-4.55103 Y-3.23869
G01 X-4.54857 Y-3.23369
G01 X-4.54474 Y-3.22860
G01 X-4.53996 Y-3.22439
G01 X-4.53443 Y-3.22123
G01 X-4.52838 Y-3.21925
G01 X-4.52164 Y-3.21850
G01 X-4.47477 Y-3.21873
G01 X-4.46854 Y-3.22009
G01 X-4.46272 Y-3.22267
G01 X-4.45754 Y-3.22638
G01 X-4.45359 Y-3.23056
G01 X-4.43472 Y-3.23056
G01 X-4.43472 Y-3.04935
G01 X-4.56593 Y-2.91770
G01 X-4.56809 Y-2.91366
G01 X-4.56942 Y-2.90698
G01 X-4.56944 Y-2.87953

G04 P0 ( dwell for no time -- G64 should not smooth over this point )
G00 Z1.000 ( retract )

M5 ( Spindle off. )
G04 P1.000000
M9 ( Coolant off. )
M2 ( Program end. )

