( pcb2gcode 1.3.2 )
( Software-independent Gcode )

G94 ( Inches per minute feed rate. )
G20 ( Units == INCHES. )

G90 ( Absolute coordinates. )
G00 S12000 ( RPM spindle speed. )
G64 P0.00040 ( set maximum deviation from commanded toolpath )
G01 F360.00000 ( Feedrate. )

G01 F360.00000 ( Feedrate. )
M3 ( Spindle on clockwise. )
G04 P1.00000
G04 P0 ( dwell for no time -- G64 should not smooth over this point )
G00 Z0.08000 ( retract )

G00 X-3.26237 Y-2.90457 ( rapid move to begin. )
G01 F180.00000
G01 Z-0.04000
G04 P0 ( dwell for no time -- G64 should not smooth over this point )
G01 F360.00000
G01 X-3.26237 Y-2.90457
G01 X-3.25411 Y-2.90299
G01 X-3.24425 Y-2.90316
G01 X-3.23464 Y-2.90538
G01 X-3.22639 Y-2.90910
G01 X-3.21782 Y-2.91549
G01 X-3.21135 Y-2.92293
G01 X-3.20686 Y-2.93079
G01 X-3.20368 Y-2.94100
G01 X-3.20278 Y-2.95000
G01 X-3.20368 Y-2.95900
G01 X-3.20686 Y-2.96921
G01 X-3.21135 Y-2.97707
G01 X-3.21782 Y-2.98451
G01 X-3.22663 Y-2.99102
G01 X-3.22663 Y-3.18021
G01 X-3.22726 Y-3.18552
G01 X-3.22873 Y-3.18986
G01 X-3.23347 Y-3.19674
G01 X-3.30326 Y-3.26653
G01 X-3.31014 Y-3.27126
G01 X-3.31448 Y-3.27274
G01 X-3.31901 Y-3.27334
G01 X-3.35174 Y-3.27337
G01 X-3.35688 Y-3.27815
G01 X-3.36394 Y-3.28237
G01 X-3.37019 Y-3.28444
G01 X-3.37752 Y-3.28539
G01 X-3.42165 Y-3.28543
G01 X-3.42821 Y-3.28479
G01 X-3.43606 Y-3.28237
G01 X-3.44312 Y-3.27815
G01 X-3.44850 Y-3.27307
G01 X-3.45189 Y-3.26841
G01 X-3.45506 Y-3.26172
G01 X-3.45689 Y-3.25370
G01 X-3.45676 Y-3.24548
G01 X-3.45535 Y-3.23905
G01 X-3.45271 Y-3.23302
G01 X-3.44798 Y-3.22629
G01 X-3.44179 Y-3.22089
G01 X-3.43529 Y-3.21733
G01 X-3.42821 Y-3.21521
G01 X-3.42248 Y-3.21461
G01 X-3.37835 Y-3.21457
G01 X-3.37179 Y-3.21521
G01 X-3.36394 Y-3.21763
G01 X-3.35688 Y-3.22185
G01 X-3.35174 Y-3.22663
G01 X-3.32947 Y-3.22663
G01 X-3.27337 Y-3.17053
G01 X-3.27337 Y-2.99102
G01 X-3.28218 Y-2.98451
G01 X-3.28865 Y-2.97707
G01 X-3.29314 Y-2.96921
G01 X-3.29598 Y-2.96061
G01 X-3.29718 Y-2.95082
G01 X-3.29632 Y-2.94100
G01 X-3.29541 Y-2.93764
G01 X-3.35968 Y-2.87337
G01 X-3.36654 Y-2.87337
G01 X-3.36669 Y-2.87713
G01 X-3.36786 Y-2.87996
G01 X-3.37004 Y-2.88214
G01 X-3.37287 Y-2.88331
G01 X-3.42559 Y-2.88346
G01 X-3.42860 Y-2.88286
G01 X-3.43116 Y-2.88116
G01 X-3.43286 Y-2.87860
G01 X-3.43346 Y-2.87559
G01 X-3.43346 Y-2.82441
G01 X-3.43286 Y-2.82140
G01 X-3.42996 Y-2.81786
G01 X-3.42559 Y-2.81654
G01 X-3.37441 Y-2.81654
G01 X-3.37140 Y-2.81713
G01 X-3.36786 Y-2.82003
G01 X-3.36669 Y-2.82287
G01 X-3.36654 Y-2.82663
G01 X-3.34620 Y-2.82696
G01 X-3.34178 Y-2.82814
G01 X-3.33768 Y-2.83017
G01 X-3.33347 Y-2.83347
G01 X-3.26237 Y-2.90457
G01 X-3.26360 Y-2.90892
G01 X-3.25411 Y-2.90693
G01 X-3.24507 Y-2.90701
G01 X-3.23702 Y-2.90873
G01 X-3.22836 Y-2.91251
G01 X-3.22074 Y-2.91812
G01 X-3.21476 Y-2.92490
G01 X-3.21046 Y-2.93239
G01 X-3.20777 Y-2.94060
G01 X-3.20671 Y-2.95000
G01 X-3.20777 Y-2.95940
G01 X-3.21046 Y-2.96761
G01 X-3.21476 Y-2.97510
G01 X-3.22104 Y-2.98217
G01 X-3.23056 Y-2.98849
G01 X-3.23056 Y-3.18021
G01 X-3.23191 Y-3.18729
G01 X-3.23407 Y-3.19132
G01 X-3.30604 Y-3.26374
G01 X-3.31200 Y-3.26779
G01 X-3.31562 Y-3.26897
G01 X-3.31979 Y-3.26944
G01 X-3.35372 Y-3.26944
G01 X-3.35951 Y-3.27522
G01 X-3.36554 Y-3.27877
G01 X-3.37140 Y-3.28070
G01 X-3.37793 Y-3.28147
G01 X-3.42165 Y-3.28150
G01 X-3.42779 Y-3.28087
G01 X-3.43446 Y-3.27877
G01 X-3.44048 Y-3.27522
G01 X-3.44532 Y-3.27075
G01 X-3.44870 Y-3.26609
G01 X-3.45146 Y-3.26012
G01 X-3.45298 Y-3.25329
G01 X-3.45291 Y-3.24630
G01 X-3.45161 Y-3.24027
G01 X-3.44911 Y-3.23462
G01 X-3.44506 Y-3.22892
G01 X-3.43982 Y-3.22430
G01 X-3.43408 Y-3.22108
G01 X-3.42779 Y-3.21913
G01 X-3.42206 Y-3.21853
G01 X-3.37793 Y-3.21853
G01 X-3.37140 Y-3.21930
G01 X-3.36554 Y-3.22123
G01 X-3.35951 Y-3.22478
G01 X-3.35372 Y-3.23056
G01 X-3.32784 Y-3.23056
G01 X-3.26944 Y-3.17216
G01 X-3.26944 Y-2.98849
G01 X-3.27199 Y-2.98726
G01 X-3.27926 Y-2.98188
G01 X-3.28524 Y-2.97510
G01 X-3.28954 Y-2.96761
G01 X-3.29223 Y-2.95940
G01 X-3.29329 Y-2.95000
G01 X-3.29241 Y-2.94141
G01 X-3.29092 Y-2.93656
G01 X-3.35805 Y-2.86944
G01 X-3.37047 Y-2.86944
G01 X-3.37077 Y-2.87710
G01 X-3.37222 Y-2.87886
G01 X-3.37364 Y-2.87945
G01 X-3.42559 Y-2.87953
G01 X-3.42778 Y-2.87886
G01 X-3.42886 Y-2.87778
G01 X-3.42953 Y-2.87559
G01 X-3.42923 Y-2.82290
G01 X-3.42778 Y-2.82114
G01 X-3.42559 Y-2.82047
G01 X-3.37364 Y-2.82055
G01 X-3.37222 Y-2.82114
G01 X-3.37077 Y-2.82290
G01 X-3.37047 Y-2.83056
G01 X-3.34961 Y-2.83058
G01 X-3.34221 Y-2.83221
G01 X-3.33625 Y-2.83625
G01 X-3.26360 Y-2.90892
G04 P0 ( dwell for no time -- G64 should not smooth over this point )
G00 Z0.08000 ( retract )

G00 X-3.44609 Y-3.30905 ( rapid move to begin. )
G01 F180.00000
G01 Z-0.04000
G04 P0 ( dwell for no time -- G64 should not smooth over this point )
G01 F360.00000
G01 X-3.44609 Y-3.30905
G01 X-3.43982 Y-3.30303
G01 X-3.43446 Y-3.29997
G01 X-3.42779 Y-3.29787
G01 X-3.42165 Y-3.29724
G01 X-3.37835 Y-3.29724
G01 X-3.37140 Y-3.29804
G01 X-3.36554 Y-3.29997
G01 X-3.35951 Y-3.30352
G01 X-3.35494 Y-3.30767
G01 X-3.35088 Y-3.31336
G01 X-3.34839 Y-3.31901
G01 X-3.34702 Y-3.32545
G01 X-3.34702 Y-3.33203
G01 X-3.34839 Y-3.33847
G01 X-3.35088 Y-3.34412
G01 X-3.35468 Y-3.34949
G01 X-3.36018 Y-3.35444
G01 X-3.36554 Y-3.35751
G01 X-3.37140 Y-3.35944
G01 X-3.37835 Y-3.36024
G01 X-3.42165 Y-3.36024
G01 X-3.42779 Y-3.35961
G01 X-3.43446 Y-3.35751
G01 X-3.43982 Y-3.35444
G01 X-3.44609 Y-3.34843
G01 X-3.67160 Y-3.34841
G01 X-3.67801 Y-3.34723
G01 X-3.72263 Y-3.33095
G01 X-3.72970 Y-3.33599
G01 X-3.73684 Y-3.33917
G01 X-3.74527 Y-3.34105
G01 X-3.75432 Y-3.34111
G01 X-3.76316 Y-3.33917
G01 X-3.77067 Y-3.33580
G01 X-3.77734 Y-3.33098
G01 X-3.78344 Y-3.32430
G01 X-3.78758 Y-3.31718
G01 X-3.79033 Y-3.30899
G01 X-3.79132 Y-3.29959
G01 X-3.79043 Y-3.29141
G01 X-3.78758 Y-3.28282
G01 X-3.78344 Y-3.27570
G01 X-3.77734 Y-3.26902
G01 X-3.77067 Y-3.26420
G01 X-3.76238 Y-3.26058
G01 X-3.75432 Y-3.25889
G01 X-3.74568 Y-3.25889
G01 X-3.73762 Y-3.26058
G01 X-3.72970 Y-3.26401
G01 X-3.72205 Y-3.26957
G01 X-3.71656 Y-3.27570
G01 X-3.71242 Y-3.28282
G01 X-3.70967 Y-3.29101
G01 X-3.70928 Y-3.29391
G01 X-3.66778 Y-3.30905
G01 X-3.44609 Y-3.30905
G01 X-3.44805 Y-3.30512
G01 X-3.44312 Y-3.30059
G01 X-3.43606 Y-3.29637
G01 X-3.42821 Y-3.29395
G01 X-3.42165 Y-3.29331
G01 X-3.37835 Y-3.29331
G01 X-3.37179 Y-3.29395
G01 X-3.36394 Y-3.29637
G01 X-3.35821 Y-3.29963
G01 X-3.35202 Y-3.30503
G01 X-3.34811 Y-3.31033
G01 X-3.34465 Y-3.31779
G01 X-3.34311 Y-3.32504
G01 X-3.34311 Y-3.33244
G01 X-3.34465 Y-3.33969
G01 X-3.34811 Y-3.34715
G01 X-3.35202 Y-3.35245
G01 X-3.35688 Y-3.35689
G01 X-3.36470 Y-3.36140
G01 X-3.37179 Y-3.36353
G01 X-3.37835 Y-3.36417
G01 X-3.42165 Y-3.36417
G01 X-3.42821 Y-3.36353
G01 X-3.43680 Y-3.36073
G01 X-3.44312 Y-3.35689
G01 X-3.44805 Y-3.35236
G01 X-3.67195 Y-3.35233
G01 X-3.67936 Y-3.35093
G01 X-3.72200 Y-3.33537
G01 X-3.72736 Y-3.33921
G01 X-3.73680 Y-3.34327
G01 X-3.74527 Y-3.34503
G01 X-3.75473 Y-3.34503
G01 X-3.76476 Y-3.34276
G01 X-3.77264 Y-3.33921
G01 X-3.77965 Y-3.33416
G01 X-3.78611 Y-3.32725
G01 X-3.79099 Y-3.31915
G01 X-3.79407 Y-3.31021
G01 X-3.79523 Y-3.29918
G01 X-3.79428 Y-3.29059
G01 X-3.79165 Y-3.28235
G01 X-3.78663 Y-3.27339
G01 X-3.78088 Y-3.26694
G01 X-3.77264 Y-3.26079
G01 X-3.76476 Y-3.25724
G01 X-3.75473 Y-3.25497
G01 X-3.74609 Y-3.25493
G01 X-3.73524 Y-3.25724
G01 X-3.72736 Y-3.26079
G01 X-3.72035 Y-3.26584
G01 X-3.71292 Y-3.27408
G01 X-3.70834 Y-3.28235
G01 X-3.70564 Y-3.29104
G01 X-3.66708 Y-3.30512
G01 X-3.44805 Y-3.30512
G04 P0 ( dwell for no time -- G64 should not smooth over this point )
G00 Z0.08000 ( retract )

G00 X-3.44609 Y-3.15157 ( rapid move to begin. )
G01 F180.00000
G01 Z-0.04000
G04 P0 ( dwell for no time -- G64 should not smooth over this point )
G01 F360.00000
G01 X-3.44609 Y-3.15157
G01 X-3.43982 Y-3.14555
G01 X-3.43446 Y-3.14249
G01 X-3.42779 Y-3.14039
G01 X-3.42165 Y-3.13976
G01 X-3.37835 Y-3.13976
G01 X-3.37140 Y-3.14056
G01 X-3.36554 Y-3.14249
G01 X-3.35951 Y-3.14604
G01 X-3.35494 Y-3.15018
G01 X-3.35088 Y-3.15588
G01 X-3.34839 Y-3.16153
G01 X-3.34702 Y-3.16797
G01 X-3.34702 Y-3.17455
G01 X-3.34839 Y-3.18099
G01 X-3.35088 Y-3.18664
G01 X-3.35468 Y-3.19201
G01 X-3.36018 Y-3.19696
G01 X-3.36554 Y-3.20003
G01 X-3.37140 Y-3.20196
G01 X-3.37835 Y-3.20275
G01 X-3.42165 Y-3.20275
G01 X-3.42779 Y-3.20213
G01 X-3.43446 Y-3.20003
G01 X-3.43982 Y-3.19696
G01 X-3.44609 Y-3.19095
G01 X-4.04280 Y-3.19095
G01 X-4.04997 Y-3.18958
G01 X-4.05341 Y-3.18783
G01 X-4.05673 Y-3.18518
G01 X-4.26567 Y-2.97624
G01 X-4.27104 Y-2.98217
G01 X-4.27801 Y-2.98726
G01 X-4.28624 Y-2.99102
G01 X-4.29507 Y-2.99298
G01 X-4.30411 Y-2.99307
G01 X-4.31298 Y-2.99127
G01 X-4.32164 Y-2.98749
G01 X-4.32864 Y-2.98243
G01 X-4.33476 Y-2.97576
G01 X-4.33954 Y-2.96761
G01 X-4.34223 Y-2.95940
G01 X-4.34329 Y-2.95000
G01 X-4.34241 Y-2.94141
G01 X-4.33954 Y-2.93239
G01 X-4.33476 Y-2.92424
G01 X-4.32896 Y-2.91783
G01 X-4.31968 Y-2.91161
G01 X-4.31969 Y-2.86969
G01 X-4.42976 Y-2.86969
G01 X-4.43646 Y-2.87535
G01 X-4.44245 Y-2.87808
G01 X-4.44890 Y-2.87939
G01 X-4.45425 Y-2.87939
G01 X-4.46030 Y-2.87819
G01 X-4.46634 Y-2.87557
G01 X-4.47162 Y-2.87165
G01 X-4.47569 Y-2.86701
G01 X-4.47870 Y-2.86162
G01 X-4.48052 Y-2.85573
G01 X-4.48108 Y-2.85041
G01 X-4.48052 Y-2.84427
G01 X-4.47855 Y-2.83799
G01 X-4.47520 Y-2.83232
G01 X-4.47101 Y-2.82780
G01 X-4.46597 Y-2.82424
G01 X-4.46030 Y-2.82181
G01 X-4.45507 Y-2.82070
G01 X-4.44890 Y-2.82061
G01 X-4.44245 Y-2.82192
G01 X-4.43718 Y-2.82424
G01 X-4.43214 Y-2.82780
G01 X-4.42976 Y-2.83031
G01 X-4.30000 Y-2.83031
G01 X-4.29283 Y-2.83168
G01 X-4.28875 Y-2.83386
G01 X-4.28343 Y-2.83939
G01 X-4.28063 Y-2.84654
G01 X-4.28031 Y-2.90591
G01 X-4.03465 Y-3.15157
G01 X-3.44609 Y-3.15157
G01 X-3.44805 Y-3.14764
G01 X-3.44740 Y-3.14697
G01 X-3.44312 Y-3.14311
G01 X-3.43680 Y-3.13926
G01 X-3.42981 Y-3.13681
G01 X-3.42165 Y-3.13583
G01 X-3.37835 Y-3.13583
G01 X-3.37179 Y-3.13647
G01 X-3.36394 Y-3.13889
G01 X-3.35821 Y-3.14215
G01 X-3.35260 Y-3.14697
G01 X-3.34811 Y-3.15285
G01 X-3.34494 Y-3.15954
G01 X-3.34307 Y-3.16838
G01 X-3.34311 Y-3.17496
G01 X-3.34465 Y-3.18221
G01 X-3.34811 Y-3.18967
G01 X-3.35202 Y-3.19497
G01 X-3.35688 Y-3.19941
G01 X-3.36394 Y-3.20363
G01 X-3.37179 Y-3.20605
G01 X-3.37835 Y-3.20669
G01 X-3.42165 Y-3.20669
G01 X-3.42821 Y-3.20605
G01 X-3.43680 Y-3.20325
G01 X-3.44312 Y-3.19941
G01 X-3.44805 Y-3.19488
G01 X-4.04280 Y-3.19488
G01 X-4.04816 Y-3.19424
G01 X-4.05527 Y-3.19130
G01 X-4.05951 Y-3.18796
G01 X-4.26552 Y-2.98196
G01 X-4.26840 Y-2.98509
G01 X-4.27570 Y-2.99045
G01 X-4.28464 Y-2.99462
G01 X-4.29425 Y-2.99683
G01 X-4.30411 Y-2.99701
G01 X-4.31379 Y-2.99512
G01 X-4.32361 Y-2.99090
G01 X-4.33096 Y-2.98561
G01 X-4.33768 Y-2.97840
G01 X-4.34314 Y-2.96921
G01 X-4.34598 Y-2.96061
G01 X-4.34722 Y-2.95000
G01 X-4.34632 Y-2.94100
G01 X-4.34314 Y-2.93079
G01 X-4.33865 Y-2.92293
G01 X-4.33160 Y-2.91491
G01 X-4.32361 Y-2.90915
G01 X-4.32362 Y-2.87362
G01 X-4.42800 Y-2.87362
G01 X-4.43484 Y-2.87898
G01 X-4.44123 Y-2.88183
G01 X-4.44890 Y-2.88332
G01 X-4.45588 Y-2.88315
G01 X-4.46191 Y-2.88183
G01 X-4.46831 Y-2.87898
G01 X-4.47455 Y-2.87428
G01 X-4.47910 Y-2.86898
G01 X-4.48215 Y-2.86361
G01 X-4.48444 Y-2.85614
G01 X-4.48499 Y-2.84918
G01 X-4.48409 Y-2.84225
G01 X-4.48215 Y-2.83639
G01 X-4.47910 Y-2.83102
G01 X-4.47332 Y-2.82461
G01 X-4.46831 Y-2.82102
G01 X-4.46268 Y-2.81847
G01 X-4.45425 Y-2.81668
G01 X-4.44726 Y-2.81685
G01 X-4.44123 Y-2.81817
G01 X-4.43484 Y-2.82102
G01 X-4.42800 Y-2.82638
G01 X-4.30000 Y-2.82638
G01 X-4.29169 Y-2.82791
G01 X-4.28625 Y-2.83082
G01 X-4.28278 Y-2.83387
G01 X-4.27996 Y-2.83754
G01 X-4.27791 Y-2.84169
G01 X-4.27672 Y-2.84615
G01 X-4.27638 Y-2.90428
G01 X-4.03302 Y-3.14764
G01 X-3.44805 Y-3.14764
G04 P0 ( dwell for no time -- G64 should not smooth over this point )
G00 Z0.08000 ( retract )

G00 X-3.56490 Y-2.74871 ( rapid move to begin. )
G01 F180.00000
G01 Z-0.04000
G04 P0 ( dwell for no time -- G64 should not smooth over this point )
G01 F360.00000
G01 X-3.56490 Y-2.74871
G01 X-3.70399 Y-2.61007
G01 X-3.70803 Y-2.60791
G01 X-3.71471 Y-2.60658
G01 X-3.74216 Y-2.60656
G01 X-3.74216 Y-2.55710
G01 X-3.74246 Y-2.55559
G01 X-3.74391 Y-2.55383
G01 X-3.74610 Y-2.55316
G01 X-3.86035 Y-2.55316
G01 X-3.91935 Y-2.49416
G01 X-3.92263 Y-2.49154
G01 X-3.92716 Y-2.48947
G01 X-3.92716 Y-2.43900
G01 X-3.92746 Y-2.43749
G01 X-3.92891 Y-2.43573
G01 X-3.93110 Y-2.43506
G01 X-4.06890 Y-2.43506
G01 X-4.07041 Y-2.43536
G01 X-4.07217 Y-2.43681
G01 X-4.07284 Y-2.43900
G01 X-4.07284 Y-2.57680
G01 X-4.07217 Y-2.57899
G01 X-4.07109 Y-2.58007
G01 X-4.06890 Y-2.58074
G01 X-3.93033 Y-2.58066
G01 X-3.92783 Y-2.57899
G01 X-3.92716 Y-2.57680
G01 X-3.92716 Y-2.54133
G01 X-3.88784 Y-2.58065
G01 X-3.88784 Y-2.69490
G01 X-3.88717 Y-2.69709
G01 X-3.88541 Y-2.69854
G01 X-3.74459 Y-2.69854
G01 X-3.74283 Y-2.69709
G01 X-3.74216 Y-2.69490
G01 X-3.74216 Y-2.64544
G01 X-3.72315 Y-2.64544
G01 X-3.58669 Y-2.78189
G01 X-3.58342 Y-2.78451
G01 X-3.57712 Y-2.78712
G01 X-3.57295 Y-2.78759
G01 X-3.21876 Y-2.78759
G01 X-3.18759 Y-2.81876
G01 X-3.18759 Y-3.20957
G01 X-3.35738 Y-3.37936
G01 X-3.81352 Y-3.37936
G01 X-3.83056 Y-3.36232
G01 X-3.83056 Y-3.34331
G01 X-3.81183 Y-3.34323
G01 X-3.80981 Y-3.34215
G01 X-3.80874 Y-3.34014
G01 X-3.80866 Y-3.26063
G01 X-3.80981 Y-3.25785
G01 X-3.81260 Y-3.25669
G01 X-3.88817 Y-3.25677
G01 X-3.89018 Y-3.25785
G01 X-3.89126 Y-3.25986
G01 X-3.89134 Y-3.28056
G01 X-4.00866 Y-3.28056
G01 X-4.00874 Y-3.25986
G01 X-4.00981 Y-3.25785
G01 X-4.01183 Y-3.25677
G01 X-4.08891 Y-3.25699
G01 X-4.09067 Y-3.25844
G01 X-4.09134 Y-3.26063
G01 X-4.09134 Y-3.33937
G01 X-4.09018 Y-3.34215
G01 X-4.08740 Y-3.34331
G01 X-4.01183 Y-3.34323
G01 X-4.00981 Y-3.34215
G01 X-4.00874 Y-3.34014
G01 X-4.00866 Y-3.31944
G01 X-3.89134 Y-3.31944
G01 X-3.89134 Y-3.33937
G01 X-3.89018 Y-3.34215
G01 X-3.88740 Y-3.34331
G01 X-3.86944 Y-3.34331
G01 X-3.86942 Y-3.37075
G01 X-3.86809 Y-3.37744
G01 X-3.86593 Y-3.38148
G01 X-3.83503 Y-3.41280
G01 X-3.82936 Y-3.41659
G01 X-3.82498 Y-3.41792
G01 X-3.34592 Y-3.41792
G01 X-3.34154 Y-3.41659
G01 X-3.33558 Y-3.41254
G01 X-3.15415 Y-3.23108
G01 X-3.15006 Y-3.22470
G01 X-3.14871 Y-3.21762
G01 X-3.14873 Y-2.81033
G01 X-3.15036 Y-2.80292
G01 X-3.15415 Y-2.79725
G01 X-3.19725 Y-2.75415
G01 X-3.20364 Y-2.75006
G01 X-3.21071 Y-2.74871
G01 X-3.56490 Y-2.74871
G01 X-3.56327 Y-2.74478
G01 X-3.69914 Y-2.60895
G01 X-3.70546 Y-2.60473
G01 X-3.71130 Y-2.60296
G01 X-3.73823 Y-2.60263
G01 X-3.73823 Y-2.55710
G01 X-3.73882 Y-2.55409
G01 X-3.74173 Y-2.55055
G01 X-3.74610 Y-2.54923
G01 X-3.85872 Y-2.54923
G01 X-3.91657 Y-2.49137
G01 X-3.92322 Y-2.48676
G01 X-3.92323 Y-2.43900
G01 X-3.92382 Y-2.43599
G01 X-3.92672 Y-2.43245
G01 X-3.93110 Y-2.43113
G01 X-4.07044 Y-2.43128
G01 X-4.07447 Y-2.43343
G01 X-4.07617 Y-2.43599
G01 X-4.07677 Y-2.43900
G01 X-4.07677 Y-2.57680
G01 X-4.07545 Y-2.58117
G01 X-4.07191 Y-2.58407
G01 X-4.06890 Y-2.58467
G01 X-3.92956 Y-2.58452
G01 X-3.92553 Y-2.58237
G01 X-3.92338 Y-2.57834
G01 X-3.92323 Y-2.55083
G01 X-3.89177 Y-2.58228
G01 X-3.89177 Y-2.69490
G01 X-3.89045 Y-2.69927
G01 X-3.88691 Y-2.70217
G01 X-3.88390 Y-2.70277
G01 X-3.74610 Y-2.70277
G01 X-3.74309 Y-2.70217
G01 X-3.73955 Y-2.69927
G01 X-3.73823 Y-2.69490
G01 X-3.73822 Y-2.64937
G01 X-3.72478 Y-2.64937
G01 X-3.58948 Y-2.78468
G01 X-3.58527 Y-2.78798
G01 X-3.57826 Y-2.79089
G01 X-3.57295 Y-2.79152
G01 X-3.22039 Y-2.79152
G01 X-3.19152 Y-2.82039
G01 X-3.19152 Y-3.20794
G01 X-3.35901 Y-3.37542
G01 X-3.81189 Y-3.37542
G01 X-3.82663 Y-3.36069
G01 X-3.82662 Y-3.34724
G01 X-3.81106 Y-3.34709
G01 X-3.80703 Y-3.34494
G01 X-3.80488 Y-3.34091
G01 X-3.80472 Y-3.26063
G01 X-3.80532 Y-3.25762
G01 X-3.80703 Y-3.25506
G01 X-3.80959 Y-3.25335
G01 X-3.81260 Y-3.25276
G01 X-3.88894 Y-3.25291
G01 X-3.89297 Y-3.25506
G01 X-3.89512 Y-3.25909
G01 X-3.89527 Y-3.27663
G01 X-4.00472 Y-3.27663
G01 X-4.00488 Y-3.25909
G01 X-4.00703 Y-3.25506
G01 X-4.01106 Y-3.25291
G01 X-4.08740 Y-3.25276
G01 X-4.09041 Y-3.25335
G01 X-4.09395 Y-3.25625
G01 X-4.09527 Y-3.26063
G01 X-4.09527 Y-3.33937
G01 X-4.09467 Y-3.34238
G01 X-4.09297 Y-3.34494
G01 X-4.09041 Y-3.34664
G01 X-4.08740 Y-3.34724
G01 X-4.01106 Y-3.34709
G01 X-4.00703 Y-3.34494
G01 X-4.00488 Y-3.34091
G01 X-4.00472 Y-3.32337
G01 X-3.89527 Y-3.32337
G01 X-3.89512 Y-3.34091
G01 X-3.89297 Y-3.34494
G01 X-3.88894 Y-3.34709
G01 X-3.87337 Y-3.34724
G01 X-3.87304 Y-3.37417
G01 X-3.87186 Y-3.37859
G01 X-3.86897 Y-3.38398
G01 X-3.83752 Y-3.41585
G01 X-3.83121 Y-3.42006
G01 X-3.82537 Y-3.42184
G01 X-3.34553 Y-3.42184
G01 X-3.33968 Y-3.42006
G01 X-3.33280 Y-3.41533
G01 X-3.15110 Y-3.23358
G01 X-3.14832 Y-3.22994
G01 X-3.14629 Y-3.22584
G01 X-3.14478 Y-3.21762
G01 X-3.14478 Y-2.81071
G01 X-3.14629 Y-2.80249
G01 X-3.14832 Y-2.79839
G01 X-3.15110 Y-2.79476
G01 X-3.19476 Y-2.75110
G01 X-3.20107 Y-2.74688
G01 X-3.20692 Y-2.74511
G01 X-3.56327 Y-2.74478
G04 P0 ( dwell for no time -- G64 should not smooth over this point )
G00 Z0.08000 ( retract )

G00 X-3.80455 Y-2.42294 ( rapid move to begin. )
G01 F180.00000
G01 Z-0.04000
G04 P0 ( dwell for no time -- G64 should not smooth over this point )
G01 F360.00000
G01 X-3.80455 Y-2.42294
G01 X-3.69092 Y-2.53656
G01 X-3.69240 Y-2.54141
G01 X-3.69329 Y-2.55000
G01 X-3.69223 Y-2.55940
G01 X-3.68936 Y-2.56797
G01 X-3.68476 Y-2.57576
G01 X-3.67864 Y-2.58243
G01 X-3.67164 Y-2.58749
G01 X-3.66298 Y-2.59127
G01 X-3.65411 Y-2.59307
G01 X-3.64589 Y-2.59307
G01 X-3.63624 Y-2.59102
G01 X-3.62836 Y-2.58749
G01 X-3.62104 Y-2.58217
G01 X-3.61497 Y-2.57543
G01 X-3.61168 Y-2.56969
G01 X-3.28832 Y-2.56969
G01 X-3.28503 Y-2.57543
G01 X-3.27926 Y-2.58188
G01 X-3.27164 Y-2.58749
G01 X-3.26298 Y-2.59127
G01 X-3.25411 Y-2.59307
G01 X-3.24589 Y-2.59307
G01 X-3.23624 Y-2.59102
G01 X-3.22836 Y-2.58749
G01 X-3.22104 Y-2.58217
G01 X-3.21476 Y-2.57510
G01 X-3.21046 Y-2.56761
G01 X-3.20777 Y-2.55940
G01 X-3.20671 Y-2.55000
G01 X-3.20759 Y-2.54141
G01 X-3.21046 Y-2.53239
G01 X-3.21476 Y-2.52490
G01 X-3.22074 Y-2.51812
G01 X-3.22836 Y-2.51251
G01 X-3.23702 Y-2.50873
G01 X-3.24589 Y-2.50693
G01 X-3.25411 Y-2.50693
G01 X-3.26298 Y-2.50873
G01 X-3.27164 Y-2.51251
G01 X-3.27926 Y-2.51812
G01 X-3.28503 Y-2.52457
G01 X-3.28832 Y-2.53031
G01 X-3.61168 Y-2.53031
G01 X-3.61497 Y-2.52457
G01 X-3.62135 Y-2.51757
G01 X-3.62836 Y-2.51251
G01 X-3.63624 Y-2.50898
G01 X-3.64589 Y-2.50693
G01 X-3.65493 Y-2.50701
G01 X-3.66359 Y-2.50892
G01 X-3.78276 Y-2.38976
G01 X-3.78871 Y-2.38571
G01 X-3.79233 Y-2.38453
G01 X-3.79650 Y-2.38406
G01 X-4.15691 Y-2.38438
G01 X-4.16129 Y-2.38571
G01 X-4.16724 Y-2.38976
G01 X-4.28641 Y-2.50892
G01 X-4.29507 Y-2.50701
G01 X-4.30411 Y-2.50693
G01 X-4.31376 Y-2.50898
G01 X-4.32164 Y-2.51251
G01 X-4.32896 Y-2.51783
G01 X-4.33503 Y-2.52457
G01 X-4.33832 Y-2.53031
G01 X-4.66168 Y-2.53031
G01 X-4.66497 Y-2.52457
G01 X-4.67074 Y-2.51812
G01 X-4.67836 Y-2.51251
G01 X-4.68702 Y-2.50873
G01 X-4.69507 Y-2.50701
G01 X-4.70411 Y-2.50693
G01 X-4.71338 Y-2.50883
G01 X-4.72164 Y-2.51251
G01 X-4.72896 Y-2.51783
G01 X-4.73476 Y-2.52424
G01 X-4.73954 Y-2.53239
G01 X-4.74223 Y-2.54060
G01 X-4.74329 Y-2.55000
G01 X-4.74240 Y-2.55859
G01 X-4.73936 Y-2.56797
G01 X-4.73524 Y-2.57510
G01 X-4.72926 Y-2.58188
G01 X-4.72128 Y-2.58767
G01 X-4.71298 Y-2.59127
G01 X-4.70411 Y-2.59307
G01 X-4.69589 Y-2.59307
G01 X-4.68702 Y-2.59127
G01 X-4.67836 Y-2.58749
G01 X-4.67074 Y-2.58188
G01 X-4.66497 Y-2.57543
G01 X-4.66168 Y-2.56969
G01 X-4.33832 Y-2.56969
G01 X-4.33503 Y-2.57543
G01 X-4.32864 Y-2.58243
G01 X-4.32164 Y-2.58749
G01 X-4.31298 Y-2.59127
G01 X-4.30411 Y-2.59307
G01 X-4.29507 Y-2.59298
G01 X-4.28624 Y-2.59102
G01 X-4.27836 Y-2.58749
G01 X-4.27454 Y-2.58474
G01 X-4.07284 Y-2.68559
G01 X-4.07284 Y-2.81300
G01 X-4.07168 Y-2.81578
G01 X-4.06890 Y-2.81694
G01 X-3.93110 Y-2.81694
G01 X-3.92832 Y-2.81578
G01 X-3.92716 Y-2.81300
G01 X-3.92724 Y-2.67443
G01 X-3.92891 Y-2.67193
G01 X-3.93110 Y-2.67126
G01 X-4.01345 Y-2.67126
G01 X-4.25673 Y-2.54962
G01 X-4.25759 Y-2.54141
G01 X-4.25908 Y-2.53656
G01 X-4.14545 Y-2.42294
G01 X-3.80455 Y-2.42294
G01 X-3.80618 Y-2.42687
G01 X-3.69541 Y-2.53764
G01 X-3.69632 Y-2.54100
G01 X-3.69722 Y-2.55000
G01 X-3.69632 Y-2.55900
G01 X-3.69314 Y-2.56921
G01 X-3.68769 Y-2.57840
G01 X-3.68096 Y-2.58561
G01 X-3.67361 Y-2.59090
G01 X-3.66536 Y-2.59462
G01 X-3.65575 Y-2.59684
G01 X-3.64425 Y-2.59684
G01 X-3.63541 Y-2.59491
G01 X-3.62712 Y-2.59127
G01 X-3.61840 Y-2.58509
G01 X-3.61178 Y-2.57774
G01 X-3.60939 Y-2.57362
G01 X-3.29061 Y-2.57362
G01 X-3.28822 Y-2.57774
G01 X-3.28218 Y-2.58451
G01 X-3.27361 Y-2.59090
G01 X-3.26380 Y-2.59512
G01 X-3.25411 Y-2.59701
G01 X-3.24589 Y-2.59701
G01 X-3.23464 Y-2.59462
G01 X-3.22639 Y-2.59090
G01 X-3.21840 Y-2.58509
G01 X-3.21135 Y-2.57707
G01 X-3.20686 Y-2.56921
G01 X-3.20402 Y-2.56061
G01 X-3.20278 Y-2.55000
G01 X-3.20402 Y-2.53938
G01 X-3.20686 Y-2.53079
G01 X-3.21231 Y-2.52160
G01 X-3.21904 Y-2.51439
G01 X-3.22639 Y-2.50910
G01 X-3.23620 Y-2.50487
G01 X-3.24589 Y-2.50299
G01 X-3.25411 Y-2.50299
G01 X-3.26380 Y-2.50487
G01 X-3.27361 Y-2.50910
G01 X-3.28218 Y-2.51549
G01 X-3.28822 Y-2.52226
G01 X-3.29061 Y-2.52638
G01 X-3.60939 Y-2.52638
G01 X-3.61178 Y-2.52226
G01 X-3.61904 Y-2.51439
G01 X-3.62639 Y-2.50910
G01 X-3.63464 Y-2.50538
G01 X-3.64589 Y-2.50299
G01 X-3.65411 Y-2.50299
G01 X-3.66237 Y-2.50457
G01 X-3.77997 Y-2.38697
G01 X-3.78418 Y-2.38367
G01 X-3.78828 Y-2.38164
G01 X-3.79650 Y-2.38013
G01 X-4.15730 Y-2.38046
G01 X-4.16314 Y-2.38224
G01 X-4.17003 Y-2.38697
G01 X-4.28763 Y-2.50457
G01 X-4.29589 Y-2.50299
G01 X-4.30411 Y-2.50299
G01 X-4.31536 Y-2.50538
G01 X-4.32361 Y-2.50910
G01 X-4.33160 Y-2.51491
G01 X-4.33822 Y-2.52226
G01 X-4.34061 Y-2.52638
G01 X-4.65939 Y-2.52638
G01 X-4.66178 Y-2.52226
G01 X-4.66782 Y-2.51549
G01 X-4.67639 Y-2.50910
G01 X-4.68620 Y-2.50487
G01 X-4.69425 Y-2.50316
G01 X-4.70411 Y-2.50299
G01 X-4.71459 Y-2.50509
G01 X-4.72361 Y-2.50910
G01 X-4.73160 Y-2.51491
G01 X-4.73768 Y-2.52160
G01 X-4.74314 Y-2.53079
G01 X-4.74598 Y-2.53938
G01 X-4.74722 Y-2.55000
G01 X-4.74632 Y-2.55900
G01 X-4.74277 Y-2.56994
G01 X-4.73768 Y-2.57840
G01 X-4.73218 Y-2.58451
G01 X-4.72288 Y-2.59127
G01 X-4.71380 Y-2.59512
G01 X-4.70411 Y-2.59701
G01 X-4.69589 Y-2.59701
G01 X-4.68620 Y-2.59512
G01 X-4.67639 Y-2.59090
G01 X-4.66782 Y-2.58451
G01 X-4.66178 Y-2.57774
G01 X-4.65939 Y-2.57362
G01 X-4.34061 Y-2.57362
G01 X-4.33822 Y-2.57774
G01 X-4.33096 Y-2.58561
G01 X-4.32361 Y-2.59090
G01 X-4.31379 Y-2.59512
G01 X-4.30411 Y-2.59701
G01 X-4.29425 Y-2.59684
G01 X-4.28541 Y-2.59491
G01 X-4.27712 Y-2.59127
G01 X-4.27416 Y-2.58933
G01 X-4.07677 Y-2.68803
G01 X-4.07677 Y-2.81300
G01 X-4.07617 Y-2.81601
G01 X-4.07327 Y-2.81955
G01 X-4.06890 Y-2.82087
G01 X-3.92956 Y-2.82072
G01 X-3.92553 Y-2.81857
G01 X-3.92382 Y-2.81601
G01 X-3.92323 Y-2.81300
G01 X-3.92323 Y-2.67520
G01 X-3.92382 Y-2.67219
G01 X-3.92553 Y-2.66963
G01 X-3.92809 Y-2.66792
G01 X-3.93110 Y-2.66733
G01 X-4.01252 Y-2.66732
G01 X-4.25304 Y-2.54707
G01 X-4.25459 Y-2.53764
G01 X-4.14382 Y-2.42687
G01 X-3.80618 Y-2.42687
G04 P0 ( dwell for no time -- G64 should not smooth over this point )
G00 Z0.08000 ( retract )

G00 X-3.98612 Y-2.92663 ( rapid move to begin. )
G01 F180.00000
G01 Z-0.04000
G04 P0 ( dwell for no time -- G64 should not smooth over this point )
G01 F360.00000
G01 X-3.98612 Y-2.92663
G01 X-3.69078 Y-2.92663
G01 X-3.68769 Y-2.92160
G01 X-3.68218 Y-2.91549
G01 X-3.67361 Y-2.90910
G01 X-3.66459 Y-2.90509
G01 X-3.65411 Y-2.90299
G01 X-3.64425 Y-2.90316
G01 X-3.63620 Y-2.90487
G01 X-3.62639 Y-2.90910
G01 X-3.61782 Y-2.91549
G01 X-3.61231 Y-2.92160
G01 X-3.60921 Y-2.92663
G01 X-3.60811 Y-2.92663
G01 X-3.53185 Y-2.85036
G01 X-3.53094 Y-2.84225
G01 X-3.52862 Y-2.83565
G01 X-3.52498 Y-2.82969
G01 X-3.52140 Y-2.82571
G01 X-3.51516 Y-2.82102
G01 X-3.50876 Y-2.81817
G01 X-3.50110 Y-2.81668
G01 X-3.49411 Y-2.81685
G01 X-3.48888 Y-2.81796
G01 X-3.48243 Y-2.82064
G01 X-3.47545 Y-2.82571
G01 X-3.47090 Y-2.83102
G01 X-3.46785 Y-2.83639
G01 X-3.46556 Y-2.84386
G01 X-3.46500 Y-2.84918
G01 X-3.46556 Y-2.85614
G01 X-3.46756 Y-2.86284
G01 X-3.47090 Y-2.86898
G01 X-3.47545 Y-2.87428
G01 X-3.48169 Y-2.87898
G01 X-3.48732 Y-2.88153
G01 X-3.49411 Y-2.88315
G01 X-3.49869 Y-2.88332
G01 X-3.58482 Y-2.96897
G01 X-3.59021 Y-2.97186
G01 X-3.59463 Y-2.97304
G01 X-3.60921 Y-2.97337
G01 X-3.61231 Y-2.97840
G01 X-3.61840 Y-2.98509
G01 X-3.62639 Y-2.99090
G01 X-3.63464 Y-2.99462
G01 X-3.64425 Y-2.99683
G01 X-3.65411 Y-2.99701
G01 X-3.66379 Y-2.99512
G01 X-3.67361 Y-2.99090
G01 X-3.68218 Y-2.98451
G01 X-3.68769 Y-2.97840
G01 X-3.69078 Y-2.97337
G01 X-3.99580 Y-2.97337
G01 X-4.00402 Y-2.97186
G01 X-4.00812 Y-2.96983
G01 X-4.01233 Y-2.96653
G01 X-4.16657 Y-2.81228
G01 X-4.64001 Y-2.81228
G01 X-4.75148 Y-2.92375
G01 X-4.75148 Y-2.97625
G01 X-4.57984 Y-3.14789
G01 X-4.54826 Y-3.14789
G01 X-4.54312 Y-3.14311
G01 X-4.53606 Y-3.13889
G01 X-4.52821 Y-3.13647
G01 X-4.52165 Y-3.13583
G01 X-4.47835 Y-3.13583
G01 X-4.47179 Y-3.13647
G01 X-4.46394 Y-3.13889
G01 X-4.45688 Y-3.14311
G01 X-4.45202 Y-3.14755
G01 X-4.44811 Y-3.15285
G01 X-4.44465 Y-3.16031
G01 X-4.44306 Y-3.16838
G01 X-4.44311 Y-3.17496
G01 X-4.44444 Y-3.18141
G01 X-4.44811 Y-3.18967
G01 X-4.45260 Y-3.19555
G01 X-4.45688 Y-3.19941
G01 X-4.46320 Y-3.20325
G01 X-4.47179 Y-3.20605
G01 X-4.47835 Y-3.20669
G01 X-4.52165 Y-3.20669
G01 X-4.52821 Y-3.20605
G01 X-4.53680 Y-3.20325
G01 X-4.54312 Y-3.19941
G01 X-4.54825 Y-3.19463
G01 X-4.59029 Y-3.19460
G01 X-4.59774 Y-3.19311
G01 X-4.60312 Y-3.19023
G01 X-4.79138 Y-3.00245
G01 X-4.79611 Y-2.99557
G01 X-4.79759 Y-2.99124
G01 X-4.79819 Y-2.98670
G01 X-4.79822 Y-2.91407
G01 X-4.79759 Y-2.90876
G01 X-4.79468 Y-2.90175
G01 X-4.79138 Y-2.89754
G01 X-4.66622 Y-2.77238
G01 X-4.65933 Y-2.76764
G01 X-4.65348 Y-2.76587
G01 X-4.15689 Y-2.76553
G01 X-4.15158 Y-2.76617
G01 X-4.14457 Y-2.76908
G01 X-4.14036 Y-2.77238
G01 X-3.98612 Y-2.92663
G01 X-3.98775 Y-2.93056
G01 X-3.68851 Y-2.93056
G01 X-3.68476 Y-2.92424
G01 X-3.67925 Y-2.91812
G01 X-3.67199 Y-2.91274
G01 X-3.66337 Y-2.90883
G01 X-3.65411 Y-2.90693
G01 X-3.64507 Y-2.90701
G01 X-3.63624 Y-2.90898
G01 X-3.62872 Y-2.91233
G01 X-3.62074 Y-2.91812
G01 X-3.61524 Y-2.92424
G01 X-3.61149 Y-2.93056
G01 X-3.60648 Y-2.93056
G01 X-3.52778 Y-2.85186
G01 X-3.52737 Y-2.84427
G01 X-3.52521 Y-2.83762
G01 X-3.52254 Y-2.83299
G01 X-3.51847 Y-2.82835
G01 X-3.51319 Y-2.82443
G01 X-3.50755 Y-2.82192
G01 X-3.50110 Y-2.82061
G01 X-3.49493 Y-2.82070
G01 X-3.48970 Y-2.82181
G01 X-3.48403 Y-2.82424
G01 X-3.47838 Y-2.82835
G01 X-3.47431 Y-2.83299
G01 X-3.47145 Y-2.83799
G01 X-3.46948 Y-2.84427
G01 X-3.46892 Y-2.84959
G01 X-3.46948 Y-2.85573
G01 X-3.47130 Y-2.86162
G01 X-3.47431 Y-2.86701
G01 X-3.47838 Y-2.87165
G01 X-3.48366 Y-2.87557
G01 X-3.48930 Y-2.87808
G01 X-3.49493 Y-2.87930
G01 X-3.50032 Y-2.87939
G01 X-3.58732 Y-2.96593
G01 X-3.59064 Y-2.96779
G01 X-3.59502 Y-2.96912
G01 X-3.61149 Y-2.96944
G01 X-3.61524 Y-2.97576
G01 X-3.62074 Y-2.98188
G01 X-3.62836 Y-2.98749
G01 X-3.63702 Y-2.99127
G01 X-3.64589 Y-2.99307
G01 X-3.65411 Y-2.99307
G01 X-3.66376 Y-2.99102
G01 X-3.67199 Y-2.98726
G01 X-3.67925 Y-2.98188
G01 X-3.68476 Y-2.97576
G01 X-3.68851 Y-2.96944
G01 X-3.99580 Y-2.96944
G01 X-4.00287 Y-2.96809
G01 X-4.00627 Y-2.96636
G01 X-4.00954 Y-2.96374
G01 X-4.16494 Y-2.80835
G01 X-4.64164 Y-2.80835
G01 X-4.75541 Y-2.92212
G01 X-4.75541 Y-2.97788
G01 X-4.58147 Y-3.15182
G01 X-4.54627 Y-3.15182
G01 X-4.54049 Y-3.14604
G01 X-4.53446 Y-3.14249
G01 X-4.52779 Y-3.14039
G01 X-4.52165 Y-3.13976
G01 X-4.47793 Y-3.13978
G01 X-4.47220 Y-3.14039
G01 X-4.46592 Y-3.14234
G01 X-4.45951 Y-3.14604
G01 X-4.45494 Y-3.15018
G01 X-4.45130 Y-3.15517
G01 X-4.44839 Y-3.16153
G01 X-4.44700 Y-3.16838
G01 X-4.44702 Y-3.17455
G01 X-4.44829 Y-3.18059
G01 X-4.45130 Y-3.18735
G01 X-4.45523 Y-3.19262
G01 X-4.46018 Y-3.19696
G01 X-4.46517 Y-3.19984
G01 X-4.47220 Y-3.20213
G01 X-4.47835 Y-3.20275
G01 X-4.52165 Y-3.20275
G01 X-4.52779 Y-3.20213
G01 X-4.53446 Y-3.20003
G01 X-4.53982 Y-3.19696
G01 X-4.54627 Y-3.19070
G01 X-4.58990 Y-3.19068
G01 X-4.59659 Y-3.18935
G01 X-4.60063 Y-3.18719
G01 X-4.78859 Y-2.99967
G01 X-4.79264 Y-2.99371
G01 X-4.79427 Y-2.98631
G01 X-4.79429 Y-2.91407
G01 X-4.79382 Y-2.90991
G01 X-4.79121 Y-2.90360
G01 X-4.78859 Y-2.90033
G01 X-4.66343 Y-2.77516
G01 X-4.65747 Y-2.77112
G01 X-4.65007 Y-2.76949
G01 X-4.15689 Y-2.76947
G01 X-4.15272 Y-2.76994
G01 X-4.14642 Y-2.77255
G01 X-4.14315 Y-2.77516
G01 X-3.98775 Y-2.93056
G04 P0 ( dwell for no time -- G64 should not smooth over this point )
G00 Z0.08000 ( retract )

G00 X-4.19031 Y-3.30905 ( rapid move to begin. )
G01 F180.00000
G01 Z-0.04000
G04 P0 ( dwell for no time -- G64 should not smooth over this point )
G01 F360.00000
G01 X-4.19031 Y-3.30905
G01 X-4.19132 Y-3.29959
G01 X-4.19043 Y-3.29141
G01 X-4.18758 Y-3.28282
G01 X-4.18344 Y-3.27570
G01 X-4.17734 Y-3.26902
G01 X-4.17067 Y-3.26420
G01 X-4.16237 Y-3.26058
G01 X-4.15432 Y-3.25889
G01 X-4.14568 Y-3.25889
G01 X-4.13684 Y-3.26083
G01 X-4.12933 Y-3.26420
G01 X-4.12266 Y-3.26902
G01 X-4.11656 Y-3.27570
G01 X-4.11209 Y-3.28357
G01 X-4.10956 Y-3.29141
G01 X-4.10868 Y-3.30041
G01 X-4.10956 Y-3.30859
G01 X-4.11209 Y-3.31643
G01 X-4.11656 Y-3.32430
G01 X-4.12266 Y-3.33098
G01 X-4.12933 Y-3.33580
G01 X-4.13762 Y-3.33942
G01 X-4.14609 Y-3.34113
G01 X-4.15432 Y-3.34111
G01 X-4.16172 Y-3.33956
G01 X-4.16749 Y-3.34488
G01 X-4.17086 Y-3.34676
G01 X-4.17835 Y-3.34841
G01 X-4.45391 Y-3.34843
G01 X-4.46018 Y-3.35444
G01 X-4.46554 Y-3.35751
G01 X-4.47220 Y-3.35961
G01 X-4.47835 Y-3.36024
G01 X-4.52165 Y-3.36024
G01 X-4.52779 Y-3.35961
G01 X-4.53446 Y-3.35751
G01 X-4.53982 Y-3.35444
G01 X-4.54477 Y-3.35011
G01 X-4.54911 Y-3.34412
G01 X-4.55161 Y-3.33847
G01 X-4.55298 Y-3.33203
G01 X-4.55298 Y-3.32545
G01 X-4.55161 Y-3.31901
G01 X-4.54870 Y-3.31265
G01 X-4.54506 Y-3.30767
G01 X-4.53982 Y-3.30303
G01 X-4.53446 Y-3.29997
G01 X-4.52860 Y-3.29804
G01 X-4.52206 Y-3.29726
G01 X-4.47835 Y-3.29724
G01 X-4.47220 Y-3.29787
G01 X-4.46554 Y-3.29997
G01 X-4.46018 Y-3.30303
G01 X-4.45391 Y-3.30905
G01 X-4.19031 Y-3.30905
G01 X-4.19478 Y-3.30512
G01 X-4.19523 Y-3.29918
G01 X-4.19428 Y-3.29059
G01 X-4.19165 Y-3.28235
G01 X-4.18663 Y-3.27339
G01 X-4.18088 Y-3.26694
G01 X-4.17264 Y-3.26079
G01 X-4.16476 Y-3.25724
G01 X-4.15473 Y-3.25497
G01 X-4.14527 Y-3.25497
G01 X-4.13680 Y-3.25673
G01 X-4.12736 Y-3.26079
G01 X-4.12035 Y-3.26584
G01 X-4.11292 Y-3.27408
G01 X-4.10834 Y-3.28235
G01 X-4.10571 Y-3.29059
G01 X-4.10477 Y-3.30082
G01 X-4.10571 Y-3.30941
G01 X-4.10834 Y-3.31765
G01 X-4.11337 Y-3.32661
G01 X-4.12035 Y-3.33416
G01 X-4.12736 Y-3.33921
G01 X-4.13680 Y-3.34327
G01 X-4.14609 Y-3.34507
G01 X-4.15473 Y-3.34503
G01 X-4.16045 Y-3.34386
G01 X-4.16499 Y-3.34792
G01 X-4.16900 Y-3.35024
G01 X-4.17338 Y-3.35172
G01 X-4.17797 Y-3.35233
G01 X-4.45195 Y-3.35236
G01 X-4.45688 Y-3.35689
G01 X-4.46320 Y-3.36073
G01 X-4.47179 Y-3.36353
G01 X-4.47835 Y-3.36417
G01 X-4.52165 Y-3.36417
G01 X-4.52821 Y-3.36353
G01 X-4.53606 Y-3.36111
G01 X-4.54179 Y-3.35785
G01 X-4.54740 Y-3.35303
G01 X-4.55271 Y-3.34572
G01 X-4.55535 Y-3.33969
G01 X-4.55689 Y-3.33244
G01 X-4.55689 Y-3.32504
G01 X-4.55535 Y-3.31779
G01 X-4.55189 Y-3.31033
G01 X-4.54798 Y-3.30503
G01 X-4.54312 Y-3.30059
G01 X-4.53606 Y-3.29637
G01 X-4.52981 Y-3.29429
G01 X-4.52248 Y-3.29335
G01 X-4.47835 Y-3.29331
G01 X-4.47179 Y-3.29395
G01 X-4.46320 Y-3.29675
G01 X-4.45688 Y-3.30059
G01 X-4.45195 Y-3.30512
G01 X-4.19478 Y-3.30512
G04 P0 ( dwell for no time -- G64 should not smooth over this point )
G00 Z0.08000 ( retract )

G00 X-4.57337 Y-2.88346 ( rapid move to begin. )
G01 F180.00000
G01 Z-0.04000
G04 P0 ( dwell for no time -- G64 should not smooth over this point )
G01 F360.00000
G01 X-4.57337 Y-2.88346
G01 X-4.57713 Y-2.88331
G01 X-4.58116 Y-2.88116
G01 X-4.58331 Y-2.87713
G01 X-4.58346 Y-2.87337
G01 X-4.59032 Y-2.87337
G01 X-4.65459 Y-2.93764
G01 X-4.65368 Y-2.94100
G01 X-4.65282 Y-2.95082
G01 X-4.65402 Y-2.96061
G01 X-4.65686 Y-2.96921
G01 X-4.66135 Y-2.97707
G01 X-4.66782 Y-2.98451
G01 X-4.67712 Y-2.99127
G01 X-4.68541 Y-2.99491
G01 X-4.69589 Y-2.99701
G01 X-4.70575 Y-2.99683
G01 X-4.71536 Y-2.99462
G01 X-4.72361 Y-2.99090
G01 X-4.73218 Y-2.98451
G01 X-4.73865 Y-2.97707
G01 X-4.74314 Y-2.96921
G01 X-4.74632 Y-2.95900
G01 X-4.74722 Y-2.95000
G01 X-4.74632 Y-2.94100
G01 X-4.74277 Y-2.93006
G01 X-4.73768 Y-2.92160
G01 X-4.73218 Y-2.91549
G01 X-4.72361 Y-2.90910
G01 X-4.71380 Y-2.90487
G01 X-4.70411 Y-2.90299
G01 X-4.69589 Y-2.90299
G01 X-4.68763 Y-2.90457
G01 X-4.61361 Y-2.83102
G01 X-4.60822 Y-2.82814
G01 X-4.60379 Y-2.82696
G01 X-4.58346 Y-2.82663
G01 X-4.58331 Y-2.82287
G01 X-4.58214 Y-2.82003
G01 X-4.57996 Y-2.81786
G01 X-4.57713 Y-2.81669
G01 X-4.52441 Y-2.81654
G01 X-4.52140 Y-2.81713
G01 X-4.51884 Y-2.81884
G01 X-4.51713 Y-2.82140
G01 X-4.51654 Y-2.82441
G01 X-4.51669 Y-2.87713
G01 X-4.51786 Y-2.87996
G01 X-4.52004 Y-2.88214
G01 X-4.52287 Y-2.88331
G01 X-4.52663 Y-2.88346
G01 X-4.52663 Y-2.89691
G01 X-4.39876 Y-3.02477
G01 X-4.39545 Y-3.02898
G01 X-4.39255 Y-3.03599
G01 X-4.39191 Y-3.04130
G01 X-4.39195 Y-3.24627
G01 X-4.39343 Y-3.25372
G01 X-4.39631 Y-3.25911
G01 X-4.40383 Y-3.26705
G01 X-4.41014 Y-3.27126
G01 X-4.41448 Y-3.27274
G01 X-4.41901 Y-3.27334
G01 X-4.45174 Y-3.27337
G01 X-4.45688 Y-3.27815
G01 X-4.46320 Y-3.28199
G01 X-4.47179 Y-3.28479
G01 X-4.47835 Y-3.28543
G01 X-4.52248 Y-3.28539
G01 X-4.52821 Y-3.28479
G01 X-4.53529 Y-3.28266
G01 X-4.54312 Y-3.27815
G01 X-4.54850 Y-3.27307
G01 X-4.55189 Y-3.26841
G01 X-4.55506 Y-3.26172
G01 X-4.55689 Y-3.25370
G01 X-4.55689 Y-3.24630
G01 X-4.55535 Y-3.23905
G01 X-4.55271 Y-3.23302
G01 X-4.54798 Y-3.22629
G01 X-4.54312 Y-3.22185
G01 X-4.53606 Y-3.21763
G01 X-4.52981 Y-3.21556
G01 X-4.52165 Y-3.21457
G01 X-4.47835 Y-3.21457
G01 X-4.47179 Y-3.21521
G01 X-4.46320 Y-3.21800
G01 X-4.45688 Y-3.22185
G01 X-4.45174 Y-3.22663
G01 X-4.43866 Y-3.22663
G01 X-4.43866 Y-3.05098
G01 X-4.56897 Y-2.92020
G01 X-4.57186 Y-2.91481
G01 X-4.57337 Y-2.90659
G01 X-4.57337 Y-2.88346
G01 X-4.56944 Y-2.87953
G01 X-4.57636 Y-2.87945
G01 X-4.57837 Y-2.87837
G01 X-4.57945 Y-2.87636
G01 X-4.57953 Y-2.86944
G01 X-4.59195 Y-2.86944
G01 X-4.65908 Y-2.93656
G01 X-4.65759 Y-2.94141
G01 X-4.65671 Y-2.95000
G01 X-4.65759 Y-2.95859
G01 X-4.66031 Y-2.96722
G01 X-4.66524 Y-2.97576
G01 X-4.67103 Y-2.98217
G01 X-4.67836 Y-2.98749
G01 X-4.68662 Y-2.99117
G01 X-4.69589 Y-2.99307
G01 X-4.70493 Y-2.99298
G01 X-4.71376 Y-2.99102
G01 X-4.72164 Y-2.98749
G01 X-4.72926 Y-2.98188
G01 X-4.73524 Y-2.97510
G01 X-4.73954 Y-2.96761
G01 X-4.74240 Y-2.95859
G01 X-4.74329 Y-2.95000
G01 X-4.74240 Y-2.94141
G01 X-4.73936 Y-2.93203
G01 X-4.73524 Y-2.92490
G01 X-4.72926 Y-2.91812
G01 X-4.72164 Y-2.91251
G01 X-4.71298 Y-2.90873
G01 X-4.70411 Y-2.90693
G01 X-4.69589 Y-2.90693
G01 X-4.68641 Y-2.90892
G01 X-4.61111 Y-2.83407
G01 X-4.60779 Y-2.83221
G01 X-4.60341 Y-2.83088
G01 X-4.57953 Y-2.83056
G01 X-4.57923 Y-2.82290
G01 X-4.57778 Y-2.82114
G01 X-4.57636 Y-2.82055
G01 X-4.52441 Y-2.82047
G01 X-4.52163 Y-2.82163
G01 X-4.52047 Y-2.82441
G01 X-4.52055 Y-2.87636
G01 X-4.52114 Y-2.87778
G01 X-4.52290 Y-2.87923
G01 X-4.53056 Y-2.87953
G01 X-4.53056 Y-2.89854
G01 X-4.40154 Y-3.02756
G01 X-4.39893 Y-3.03084
G01 X-4.39632 Y-3.03714
G01 X-4.39585 Y-3.04130
G01 X-4.39587 Y-3.24588
G01 X-4.39720 Y-3.25257
G01 X-4.39935 Y-3.25661
G01 X-4.40633 Y-3.26400
G01 X-4.41200 Y-3.26779
G01 X-4.41562 Y-3.26897
G01 X-4.41979 Y-3.26944
G01 X-4.45373 Y-3.26944
G01 X-4.46018 Y-3.27570
G01 X-4.46554 Y-3.27877
G01 X-4.47220 Y-3.28087
G01 X-4.47835 Y-3.28150
G01 X-4.52206 Y-3.28147
G01 X-4.52779 Y-3.28087
G01 X-4.53408 Y-3.27892
G01 X-4.53982 Y-3.27570
G01 X-4.54532 Y-3.27075
G01 X-4.54870 Y-3.26609
G01 X-4.55146 Y-3.26012
G01 X-4.55298 Y-3.25329
G01 X-4.55298 Y-3.24671
G01 X-4.55161 Y-3.24027
G01 X-4.54911 Y-3.23462
G01 X-4.54506 Y-3.22892
G01 X-4.54049 Y-3.22478
G01 X-4.53446 Y-3.22123
G01 X-4.52860 Y-3.21930
G01 X-4.52165 Y-3.21850
G01 X-4.47835 Y-3.21850
G01 X-4.47220 Y-3.21913
G01 X-4.46554 Y-3.22123
G01 X-4.46018 Y-3.22430
G01 X-4.45373 Y-3.23056
G01 X-4.43472 Y-3.23056
G01 X-4.43472 Y-3.04935
G01 X-4.56593 Y-2.91770
G01 X-4.56809 Y-2.91366
G01 X-4.56942 Y-2.90698
G01 X-4.56944 Y-2.87953

G04 P0 ( dwell for no time -- G64 should not smooth over this point )
G00 Z1.000 ( retract )

M5 ( Spindle off. )
G04 P1.000000
M9 ( Coolant off. )
M2 ( Program end. )

