( pcb2gcode 1.3.2 )
( Software-independent Gcode )

G94 ( Inches per minute feed rate. )
G20 ( Units == INCHES. )

G90 ( Absolute coordinates. )
G00 S12000 ( RPM spindle speed. )
G64 P0.00040 ( set maximum deviation from commanded toolpath )
G01 F360.00000 ( Feedrate. )


G00 Z1.00000 (Retract to tool change height)
T0
M5      (Spindle stop.)
G04 P1.00000 (Wait for spindle to stop)
(MSG, Change tool bit to mill diameter 0.03937in)
M6      (Tool change.)
M0      (Temporary machine stop.)
M3 ( Spindle on clockwise. )
G04 P1.00000 (Wait for spindle to get up to speed)
G04 P0 ( dwell for no time -- G64 should not smooth over this point )
G00 Z0.08000 ( retract )

G00 X4.51717 Y-3.70000 ( rapid move to begin. )
G01 F180.00000
G01 Z-0.04000
G04 P0 ( dwell for no time -- G64 should not smooth over this point )
G01 F360.00000
G01 X4.51717 Y-3.70000
G01 X4.95000 Y-3.70000
G01 X4.95000 Y-4.00000
G01 X4.50000 Y-4.00000
G01 X4.50000 Y-3.83777
G01 X4.49326 Y-3.83503
G01 X4.48994 Y-3.83261
G01 X4.48642 Y-3.82886
G01 X4.48260 Y-3.82160
G01 X4.48142 Y-3.81451
G01 X4.59248 Y-3.81494
G01 X4.59283 Y-3.78703
G01 X4.55200 Y-3.74495
G01 X4.53880 Y-3.73004
G01 X4.52805 Y-3.71603
G01 X4.51717 Y-3.70000
G01 X4.50000 Y-3.70000
G01 X4.50000 Y-3.79023
G01 X4.49326 Y-3.79297
G01 X4.48994 Y-3.79539
G01 X4.48642 Y-3.79914
G01 X4.48260 Y-3.80640
G01 X4.48142 Y-3.81451
G04 P0 ( dwell for no time -- G64 should not smooth over this point )
G00 Z0.08000 ( retract )

G00 X4.50000 Y-3.79023 ( rapid move to begin. )
G01 F180.00000
G01 Z-0.04000
G04 P0 ( dwell for no time -- G64 should not smooth over this point )
G01 F360.00000
G01 X4.50000 Y-3.79023
G01 X4.50600 Y-3.78939
G01 X4.51968 Y-3.78939
G01 X4.51968 Y-3.73752
G01 X4.53784 Y-3.75863
G01 X4.57306 Y-3.79491
G01 X4.57299 Y-3.80135
G01 X4.56806 Y-3.79539
G01 X4.56384 Y-3.79246
G01 X4.55911 Y-3.79046
G01 X4.55406 Y-3.78950
G01 X4.54026 Y-3.78939
G01 X4.53937 Y-3.78847
G01 X4.53937 Y-3.78939
G01 X4.51968 Y-3.78939
G04 P0 ( dwell for no time -- G64 should not smooth over this point )
G00 Z0.08000 ( retract )

G00 X4.50000 Y-3.83777 ( rapid move to begin. )
G01 F180.00000
G01 Z-0.04000
G04 P0 ( dwell for no time -- G64 should not smooth over this point )
G01 F360.00000
G01 X4.50000 Y-3.83777
G01 X4.50600 Y-3.83861
G01 X4.51968 Y-3.83861
G01 X4.51968 Y-3.89947
G01 X4.54477 Y-3.87402
G01 X4.55514 Y-3.86133
G01 X4.56190 Y-3.85098
G01 X4.56646 Y-3.84207
G01 X4.57061 Y-3.83006
G01 X4.56473 Y-3.83503
G01 X4.56008 Y-3.83722
G01 X4.55406 Y-3.83850
G01 X4.54613 Y-3.83861
G01 X4.53937 Y-3.84949
G01 X4.53937 Y-3.83861
G01 X4.51968 Y-3.83861
G04 P0 ( dwell for no time -- G64 should not smooth over this point )
G00 Z0.08000 ( retract )

G00 X4.50000 Y-3.94798 ( rapid move to begin. )
G01 F180.00000
G01 Z-0.04000
G04 P0 ( dwell for no time -- G64 should not smooth over this point )
G01 F360.00000
G01 X4.50000 Y-3.94798
G01 X4.51600 Y-3.93100
G01 X4.55923 Y-3.88739
G01 X4.57150 Y-3.87230
G01 X4.57928 Y-3.86025
G01 X4.58423 Y-3.85056
G01 X4.58805 Y-3.84081
G01 X4.59076 Y-3.83071
G01 X4.59248 Y-3.81494
G01 X4.60839 Y-3.81500
G01 X4.59251 Y-3.81494
G01 X4.60471 Y-3.78493
G01 X4.59283 Y-3.78703
G04 P0 ( dwell for no time -- G64 should not smooth over this point )
G00 Z0.08000 ( retract )

G00 X4.57061 Y-3.83006 ( rapid move to begin. )
G01 F180.00000
G01 Z-0.04000
G04 P0 ( dwell for no time -- G64 should not smooth over this point )
G01 F360.00000
G01 X4.57061 Y-3.83006
G01 X4.57466 Y-3.82353
G01 X4.57647 Y-3.81657
G01 X4.57594 Y-3.80839
G01 X4.57299 Y-3.80135
G04 P0 ( dwell for no time -- G64 should not smooth over this point )
G00 Z0.08000 ( retract )

G00 X4.60494 Y-3.76561 ( rapid move to begin. )
G01 F180.00000
G01 Z-0.04000
G04 P0 ( dwell for no time -- G64 should not smooth over this point )
G01 F360.00000
G01 X4.60494 Y-3.76561
G01 X4.60428 Y-3.76502
G01 X4.59970 Y-3.76583
G01 X4.56646 Y-3.73159
G01 X4.55592 Y-3.71969
G01 X4.82120 Y-3.71969
G01 X4.81959 Y-3.75739
G01 X4.80264 Y-3.76556
G01 X4.79305 Y-3.76864
G01 X4.77984 Y-3.77123
G01 X4.62100 Y-3.77161
G01 X4.61389 Y-3.77054
G01 X4.61099 Y-3.76948
G01 X4.60471 Y-3.78493
G01 X4.61100 Y-3.78383
G01 X4.61099 Y-3.76948
G01 X4.60428 Y-3.76502
G01 X4.59969 Y-3.75930
G01 X4.59685 Y-3.75161
G01 X4.59653 Y-3.74443
G01 X4.59875 Y-3.73653
G01 X4.60271 Y-3.73054
G01 X4.60916 Y-3.72546
G01 X4.61389 Y-3.72346
G01 X4.61792 Y-3.72261
G01 X4.77013 Y-3.72239
G01 X4.77520 Y-3.72148
G01 X4.78034 Y-3.72164
G01 X4.78629 Y-3.72324
G01 X4.78995 Y-3.72511
G01 X4.79402 Y-3.72826
G01 X4.79789 Y-3.73304
G01 X4.80087 Y-3.73937
G01 X4.80136 Y-3.74266
G01 X4.80157 Y-3.74677
G01 X4.80087 Y-3.75186
G01 X4.79764 Y-3.75940
G01 X4.79383 Y-3.76394
G01 X4.79014 Y-3.76713
G01 X4.78404 Y-3.77021
G04 P0 ( dwell for no time -- G64 should not smooth over this point )
G00 Z0.08000 ( retract )

G00 X4.72490 Y-3.77161 ( rapid move to begin. )
G01 F180.00000
G01 Z-0.04000
G04 P0 ( dwell for no time -- G64 should not smooth over this point )
G01 F360.00000
G01 X4.72490 Y-3.77161
G01 X4.70810 Y-3.77475
G01 X4.69094 Y-3.78099
G01 X4.68262 Y-3.77560
G01 X4.67499 Y-3.77161
G04 P0 ( dwell for no time -- G64 should not smooth over this point )
G00 Z0.08000 ( retract )

G00 X4.68877 Y-3.80387 ( rapid move to begin. )
G01 F180.00000
G01 Z-0.04000
G04 P0 ( dwell for no time -- G64 should not smooth over this point )
G01 F360.00000
G01 X4.68877 Y-3.80387
G01 X4.70412 Y-3.79672
G01 X4.71422 Y-3.79349
G01 X4.72373 Y-3.79152
G01 X4.73700 Y-3.79050
G01 X4.78361 Y-3.79012
G01 X4.79731 Y-3.78788
G01 X4.80924 Y-3.78412
G01 X4.81841 Y-3.78024
G01 X4.83773 Y-3.76989
G01 X4.85095 Y-3.78835
G01 X4.85677 Y-3.79956
G01 X4.86039 Y-3.80858
G01 X4.86292 Y-3.81728
G01 X4.86440 Y-3.82552
G01 X4.86479 Y-3.84047
G01 X4.86378 Y-3.84857
G01 X4.86181 Y-3.85698
G01 X4.85868 Y-3.86595
G01 X4.85105 Y-3.88105
G01 X4.83523 Y-3.88364
G01 X4.82494 Y-3.88396
G01 X4.81713 Y-3.88350
G01 X4.73700 Y-3.88350
G01 X4.72183 Y-3.88232
G01 X4.70998 Y-3.87980
G01 X4.69250 Y-3.87350
G01 X4.68748 Y-3.85663
G01 X4.68564 Y-3.84545
G01 X4.68501 Y-3.83451
G01 X4.68564 Y-3.82255
G04 P0 ( dwell for no time -- G64 should not smooth over this point )
G00 Z0.08000 ( retract )

G00 X4.72897 Y-3.81077 ( rapid move to begin. )
G01 F180.00000
G01 Z-0.04000
G04 P0 ( dwell for no time -- G64 should not smooth over this point )
G01 F360.00000
G01 X4.72897 Y-3.81077
G01 X4.71882 Y-3.81264
G01 X4.71064 Y-3.81531
G01 X4.70634 Y-3.81723
G01 X4.70574 Y-3.82109
G01 X4.68698 Y-3.81371
G01 X4.68564 Y-3.82255
G01 X4.70518 Y-3.82499
G01 X4.70470 Y-3.83400
G01 X4.70516 Y-3.84287
G01 X4.70662 Y-3.85201
G01 X4.70838 Y-3.85857
G01 X4.71561 Y-3.86093
G01 X4.72439 Y-3.86280
G01 X4.73309 Y-3.86370
G01 X4.81713 Y-3.86381
G01 X4.82494 Y-3.86427
G01 X4.83815 Y-3.86340
G01 X4.84182 Y-3.85460
G01 X4.83337 Y-3.85877
G01 X4.82623 Y-3.85957
G01 X4.82013 Y-3.85861
G01 X4.73700 Y-3.85861
G01 X4.72989 Y-3.85753
G01 X4.72515 Y-3.85554
G01 X4.72093 Y-3.85261
G01 X4.71742 Y-3.84886
G01 X4.71475 Y-3.84447
G01 X4.71306 Y-3.83961
G01 X4.71242 Y-3.83451
G01 X4.71285 Y-3.82939
G01 X4.71434 Y-3.82447
G01 X4.70518 Y-3.82499
G01 X4.70574 Y-3.82109
G01 X4.71434 Y-3.82447
G01 X4.71681 Y-3.81997
G01 X4.72093 Y-3.81539
G01 X4.72515 Y-3.81246
G01 X4.72989 Y-3.81046
G01 X4.73700 Y-3.80939
G01 X4.78891 Y-3.80933
G01 X4.80209 Y-3.80697
G01 X4.81526 Y-3.80286
G01 X4.83195 Y-3.79544
G01 X4.83899 Y-3.80805
G01 X4.84209 Y-3.81544
G01 X4.83716 Y-3.81209
G01 X4.82984 Y-3.80977
G01 X4.78842 Y-3.80939
G04 P0 ( dwell for no time -- G64 should not smooth over this point )
G00 Z0.08000 ( retract )

G00 X4.84182 Y-3.85460 ( rapid move to begin. )
G01 F180.00000
G01 Z-0.04000
G04 P0 ( dwell for no time -- G64 should not smooth over this point )
G01 F360.00000
G01 X4.84182 Y-3.85460
G01 X4.84612 Y-3.85048
G01 X4.84976 Y-3.84429
G01 X4.85120 Y-3.83935
G01 X4.85157 Y-3.83423
G01 X4.85087 Y-3.82913
G01 X4.84913 Y-3.82430
G01 X4.84642 Y-3.81993
G01 X4.84209 Y-3.81544
G04 P0 ( dwell for no time -- G64 should not smooth over this point )
G00 Z0.08000 ( retract )

G00 X4.83773 Y-3.76989 ( rapid move to begin. )
G01 F180.00000
G01 Z-0.04000
G04 P0 ( dwell for no time -- G64 should not smooth over this point )
G01 F360.00000
G01 X4.83773 Y-3.76989
G01 X4.83992 Y-3.75000
G01 X4.84152 Y-3.70000
G04 P0 ( dwell for no time -- G64 should not smooth over this point )
G00 Z0.08000 ( retract )

G00 X4.87839 Y-3.80047 ( rapid move to begin. )
G01 F180.00000
G01 Z-0.04000
G04 P0 ( dwell for no time -- G64 should not smooth over this point )
G01 F360.00000
G01 X4.87839 Y-3.80047
G01 X4.87839 Y-3.75000
G01 X4.87965 Y-3.73937
G01 X4.88091 Y-3.73937
G01 X4.88309 Y-3.73554
G01 X4.88814 Y-3.73042
G01 X4.89540 Y-3.72660
G01 X4.90351 Y-3.72542
G01 X4.90861 Y-3.72606
G01 X4.91347 Y-3.72775
G01 X4.91786 Y-3.73042
G01 X4.92291 Y-3.73554
G01 X4.92622 Y-3.74192
G01 X4.92750 Y-3.74794
G01 X4.92751 Y-3.91197
G01 X4.92638 Y-3.91860
G01 X4.92391 Y-3.92382
G01 X4.92036 Y-3.92844
G01 X4.91063 Y-3.93811
G01 X4.91063 Y-3.96063
G01 X4.54214 Y-3.96063
G01 X4.58849 Y-3.91373
G01 X4.60260 Y-3.89647
G01 X4.60839 Y-3.88780
G01 X4.60850 Y-3.81294
G01 X4.60946 Y-3.80789
G01 X4.61146 Y-3.80315
G01 X4.61508 Y-3.79817
G01 X4.62070 Y-3.79369
G01 X4.62540 Y-3.79160
G01 X4.63248 Y-3.79042
G01 X4.63861 Y-3.79106
G01 X4.64347 Y-3.79275
G01 X4.64703 Y-3.79481
G01 X4.65264 Y-3.80021
G01 X4.68698 Y-3.81371
G01 X4.68877 Y-3.80387
G01 X4.67277 Y-3.79265
G01 X4.66274 Y-3.78752
G01 X4.64797 Y-3.78266
G01 X4.63963 Y-3.78133
G01 X4.62636 Y-3.78133
G01 X4.61100 Y-3.78383
G01 X4.65264 Y-3.80021
G01 X4.65582 Y-3.80602
G04 P0 ( dwell for no time -- G64 should not smooth over this point )
G00 Z0.08000 ( retract )

G00 X4.60839 Y-3.84117 ( rapid move to begin. )
G01 F180.00000
G01 Z-0.04000
G04 P0 ( dwell for no time -- G64 should not smooth over this point )
G01 F360.00000
G01 X4.60839 Y-3.84117
G01 X4.60642 Y-3.84788
G01 X4.60176 Y-3.85952
G01 X4.59573 Y-3.87113
G01 X4.58602 Y-3.88575
G01 X4.57350 Y-3.90095
G01 X4.51968 Y-3.95565
G01 X4.51968 Y-3.98031
G01 X4.93031 Y-3.98031
G01 X4.93031 Y-3.71969
G01 X4.86059 Y-3.71968
G01 X4.85960 Y-3.75069
G01 X4.85846 Y-3.76477
G01 X4.86784 Y-3.77823
G01 X4.87480 Y-3.79167
G01 X4.87839 Y-3.80047
G01 X4.87839 Y-3.86927
G01 X4.87181 Y-3.88425
G01 X4.86571 Y-3.89418
G01 X4.86266 Y-3.89694
G01 X4.85910 Y-3.89901
G01 X4.85520 Y-3.90029
G01 X4.83781 Y-3.90316
G01 X4.82546 Y-3.90364
G01 X4.81649 Y-3.90318
G01 X4.73128 Y-3.90303
G01 X4.71875 Y-3.90177
G01 X4.70592 Y-3.89909
G01 X4.69342 Y-3.89511
G01 X4.68492 Y-3.89167
G01 X4.68131 Y-3.88970
G01 X4.67819 Y-3.88702
G01 X4.67570 Y-3.88375
G01 X4.67160 Y-3.87333
G01 X4.66822 Y-3.86073
G01 X4.66606 Y-3.84751
G01 X4.66533 Y-3.83451
G01 X4.66596 Y-3.82152
G01 X4.66721 Y-3.81252
G01 X4.65582 Y-3.80602
G01 X4.65761 Y-3.81500
G01 X4.65761 Y-3.89157
G01 X4.66171 Y-3.89803
G01 X4.66627 Y-3.90286
G01 X4.67458 Y-3.90839
G01 X4.87081 Y-3.90839
G01 X4.87839 Y-3.90081
G01 X4.87839 Y-3.86927

G04 P0 ( dwell for no time -- G64 should not smooth over this point )
G00 Z1.000 ( retract )

M5 ( Spindle off. )
G04 P1.000000
M9 ( Coolant off. )
M2 ( Program end. )

