( pcb2gcode 2.2.2 )
( Software-independent Gcode )

G94 ( Inches per minute feed rate. )
G20 ( Units == INCHES. )

G90 ( Absolute coordinates. )
G00 S12000 ( RPM spindle speed. )
G64 P0.00040 ( set maximum deviation from commanded toolpath )
G01 F360.00000 ( Feedrate. )


G00 Z1.00000 (Retract to tool change height)
T0
M5      (Spindle stop.)
G04 P1.00000 (Wait for spindle to stop)
(MSG, Change tool bit to mill diameter 0.03937in)
M6      (Tool change.)
M0      (Temporary machine stop.)
M3 ( Spindle on clockwise. )
G04 P1.00000 (Wait for spindle to get up to speed)
G04 P0 ( dwell for no time -- G64 should not smooth over this point )
G00 Z0.08000 ( retract )

G00 X4.51968 Y-3.96995 ( rapid move to begin. )
G01 F180.00000
( Mill infeed pass 1/1 )
G01 Z-0.04000
G04 P0 ( dwell for no time -- G64 should not smooth over this point )
G01 F360.00000
G01 X4.51968 Y-3.96995
G01 X4.51968 Y-3.95565
G01 X4.51821 Y-3.95504
G01 X4.51968 Y-3.95565
G01 X4.53006 Y-3.94475
G01 X4.56704 Y-3.90769
G01 X4.57897 Y-3.89469
G01 X4.59009 Y-3.87999
G01 X4.59188 Y-3.87728
G01 X4.59751 Y-3.86797
G01 X4.60288 Y-3.85694
G01 X4.60408 Y-3.85412
G01 X4.60839 Y-3.84037
G01 X4.60830 Y-3.81499
G01 X4.60914 Y-3.80932
G01 X4.60897 Y-3.80927
G01 X4.60914 Y-3.80932
G01 X4.61026 Y-3.80560
G01 X4.60990 Y-3.80545
G01 X4.61026 Y-3.80560
G01 X4.61209 Y-3.80218
G01 X4.61194 Y-3.80209
G01 X4.61209 Y-3.80218
G01 X4.61316 Y-3.80058
G01 X4.61560 Y-3.79760
G01 X4.61533 Y-3.79733
G01 X4.61560 Y-3.79760
G01 X4.61542 Y-3.79741
G01 X4.61560 Y-3.79760
G01 X4.61858 Y-3.79516
G01 X4.62018 Y-3.79409
G01 X4.62360 Y-3.79226
G01 X4.62345 Y-3.79190
G01 X4.62360 Y-3.79226
G01 X4.62349 Y-3.79201
G01 X4.62360 Y-3.79226
G01 X4.62919 Y-3.79070
G01 X4.63300 Y-3.79039
G01 X4.63299 Y-3.79013
G01 X4.63300 Y-3.79039
G01 X4.63300 Y-3.79027
G01 X4.63300 Y-3.79039
G01 X4.63680 Y-3.79076
G01 X4.63868 Y-3.79114
G01 X4.63872 Y-3.79097
G01 X4.63868 Y-3.79114
G01 X4.64240 Y-3.79226
G01 X4.64582 Y-3.79409
G01 X4.64591 Y-3.79394
G01 X4.64582 Y-3.79409
G01 X4.64742 Y-3.79516
G01 X4.65040 Y-3.79760
G01 X4.65059 Y-3.79742
G01 X4.65040 Y-3.79760
G01 X4.65400 Y-3.80213
G01 X4.65574 Y-3.80560
G01 X4.65610 Y-3.80545
G01 X4.65574 Y-3.80560
G01 X4.65598 Y-3.80640
G01 X4.66054 Y-3.80833
G01 X4.66722 Y-3.81244
G01 X4.67066 Y-3.81079
G01 X4.66722 Y-3.81244
G01 X4.66615 Y-3.82008
G01 X4.66580 Y-3.82375
G01 X4.66534 Y-3.83303
G01 X4.66580 Y-3.84425
G01 X4.66618 Y-3.84811
G01 X4.66763 Y-3.85780
G01 X4.67045 Y-3.86938
G01 X4.67127 Y-3.87218
G01 X4.67386 Y-3.87983
G01 X4.67570 Y-3.88374
G01 X4.67834 Y-3.88717
G01 X4.68167 Y-3.88993
G01 X4.68553 Y-3.89190
G01 X4.70033 Y-3.89745
G01 X4.71232 Y-3.90059
G01 X4.72435 Y-3.90247
G01 X4.73604 Y-3.90316
G01 X4.81660 Y-3.90319
G01 X4.82604 Y-3.90363
G01 X4.83770 Y-3.90318
G01 X4.84842 Y-3.90168
G01 X4.85521 Y-3.90028
G01 X4.85922 Y-3.89894
G01 X4.86285 Y-3.89679
G01 X4.86594 Y-3.89390
G01 X4.86834 Y-3.89043
G01 X4.87452 Y-3.87886
G01 X4.87839 Y-3.86901
G01 X4.87836 Y-3.75000
G01 X4.87857 Y-3.74720
G01 X4.87907 Y-3.74427
G01 X4.87955 Y-3.74281
G01 X4.87964 Y-3.73937
G01 X4.87522 Y-3.73439
G01 X4.87964 Y-3.73937
G01 X4.88091 Y-3.73937
G01 X4.88256 Y-3.73631
G01 X4.88246 Y-3.73623
G01 X4.88256 Y-3.73631
G01 X4.88499 Y-3.73335
G01 X4.88635 Y-3.73199
G01 X4.88624 Y-3.73186
G01 X4.88635 Y-3.73199
G01 X4.88931 Y-3.72956
G01 X4.89268 Y-3.72775
G01 X4.89258 Y-3.72753
G01 X4.89268 Y-3.72775
G01 X4.89727 Y-3.72607
G01 X4.90020 Y-3.72557
G01 X4.90017 Y-3.72527
G01 X4.90020 Y-3.72557
G01 X4.90116 Y-3.72548
G01 X4.90680 Y-3.72576
G01 X4.90868 Y-3.72614
G01 X4.90873 Y-3.72592
G01 X4.90868 Y-3.72614
G01 X4.91154 Y-3.72693
G01 X4.91510 Y-3.72860
G01 X4.91522 Y-3.72839
G01 X4.91510 Y-3.72860
G01 X4.91965 Y-3.73199
G01 X4.92101 Y-3.73335
G01 X4.92112 Y-3.73324
G01 X4.92101 Y-3.73335
G01 X4.92449 Y-3.73785
G01 X4.92607 Y-3.74146
G01 X4.92624 Y-3.74141
G01 X4.92607 Y-3.74146
G01 X4.92723 Y-3.74620
G01 X4.92768 Y-3.75000
G01 X4.92761 Y-3.91198
G01 X4.92713 Y-3.91584
G01 X4.92599 Y-3.91955
G01 X4.92621 Y-3.91963
G01 X4.92599 Y-3.91955
G01 X4.92525 Y-3.92132
G01 X4.92236 Y-3.92615
G01 X4.92251 Y-3.92626
G01 X4.92236 Y-3.92615
G01 X4.92036 Y-3.92844
G01 X4.91063 Y-3.93811
G01 X4.91063 Y-3.96063
G01 X4.91639 Y-3.96639
G01 X4.91063 Y-3.96063
G01 X4.54212 Y-3.96063
G01 X4.51968 Y-3.96995
G01 X4.51968 Y-3.98031
G01 X4.93031 Y-3.98031
G01 X4.93608 Y-3.98608
G01 X4.93031 Y-3.98031
G01 X4.93031 Y-3.71969
G01 X4.93608 Y-3.71392
G01 X4.93031 Y-3.71969
G01 X4.86062 Y-3.71969
G01 X4.85525 Y-3.71414
G01 X4.86062 Y-3.71969
G01 X4.85960 Y-3.75069
G01 X4.85907 Y-3.75877
G01 X4.85841 Y-3.76448
G01 X4.85712 Y-3.76484
G01 X4.85841 Y-3.76448
G01 X4.86370 Y-3.77169
G01 X4.86979 Y-3.78173
G01 X4.87186 Y-3.78560
G01 X4.87640 Y-3.79542
G01 X4.87839 Y-3.80064
G01 X4.87839 Y-3.90081
G01 X4.87081 Y-3.90839
G01 X4.67481 Y-3.90839
G01 X4.67085 Y-3.90637
G01 X4.66419 Y-3.90085
G01 X4.65889 Y-3.89400
G01 X4.65761 Y-3.89125
G01 X4.65770 Y-3.81499
G01 X4.65686 Y-3.80932
G01 X4.65574 Y-3.80560
G01 X4.65391 Y-3.80218
G01 X4.65284 Y-3.80058
G01 X4.65040 Y-3.79760
G01 X4.64742 Y-3.79516
G01 X4.64582 Y-3.79409
G01 X4.64240 Y-3.79226
G01 X4.63868 Y-3.79114
G01 X4.63680 Y-3.79076
G01 X4.63300 Y-3.79039
G01 X4.62920 Y-3.79076
G01 X4.62732 Y-3.79114
G01 X4.62360 Y-3.79226
G01 X4.62018 Y-3.79409
G01 X4.61858 Y-3.79516
G01 X4.61560 Y-3.79760
G01 X4.61316 Y-3.80058
G01 X4.61209 Y-3.80218
G01 X4.61026 Y-3.80560
G01 X4.60914 Y-3.80932
G01 X4.60877 Y-3.81120
G01 X4.60839 Y-3.81500
G01 X4.60839 Y-3.88799
G01 X4.60524 Y-3.89264
G01 X4.59594 Y-3.90503
G01 X4.59349 Y-3.90798
G01 X4.58098 Y-3.92160
G01 X4.54212 Y-3.96063
G01 X4.51968 Y-3.96995
G01 X4.51968 Y-3.98031
G01 X4.50000 Y-4.00000
G01 X4.50000 Y-3.94795
G01 X4.50625 Y-3.94117
G01 X4.51598 Y-3.93100
G01 X4.55311 Y-3.89379
G01 X4.56445 Y-3.88140
G01 X4.57375 Y-3.86901
G01 X4.58067 Y-3.85778
G01 X4.58591 Y-3.84655
G01 X4.59066 Y-3.83106
G01 X4.59104 Y-3.82914
G01 X4.59245 Y-3.81500
G01 X4.59289 Y-3.78703
G01 X4.55187 Y-3.74483
G01 X4.54040 Y-3.73194
G01 X4.53847 Y-3.72959
G01 X4.52163 Y-3.70691
G01 X4.51734 Y-3.70000
G01 X4.50695 Y-3.70000
G01 X4.51968 Y-3.73731
G01 X4.52519 Y-3.74443
G01 X4.53773 Y-3.75853
G01 X4.57302 Y-3.79492
G01 X4.57449 Y-3.79433
G01 X4.57302 Y-3.79492
G01 X4.57297 Y-3.80130
G01 X4.57425 Y-3.80368
G01 X4.57440 Y-3.80360
G01 X4.57425 Y-3.80368
G01 X4.57499 Y-3.80545
G01 X4.57613 Y-3.80917
G01 X4.57637 Y-3.80911
G01 X4.57613 Y-3.80917
G01 X4.57651 Y-3.81304
G01 X4.57651 Y-3.81496
G01 X4.57669 Y-3.81497
G01 X4.57651 Y-3.81496
G01 X4.57613 Y-3.81883
G01 X4.57499 Y-3.82255
G01 X4.57515 Y-3.82261
G01 X4.57499 Y-3.82255
G01 X4.57425 Y-3.82432
G01 X4.57244 Y-3.82769
G01 X4.57265 Y-3.82785
G01 X4.57244 Y-3.82769
G01 X4.57001 Y-3.83065
G01 X4.56865 Y-3.83201
G01 X4.56569 Y-3.83444
G01 X4.56585 Y-3.83465
G01 X4.56569 Y-3.83444
G01 X4.56058 Y-3.83705
G01 X4.55685 Y-3.83813
G01 X4.55688 Y-3.83829
G01 X4.55685 Y-3.83813
G01 X4.55300 Y-3.83852
G01 X4.54623 Y-3.83853
G01 X4.54184 Y-3.84591
G01 X4.53937 Y-3.84923
G01 X4.53937 Y-3.83854
G01 X4.50603 Y-3.83865
G01 X4.50320 Y-3.83843
G01 X4.50317 Y-3.83861
G01 X4.50320 Y-3.83843
G01 X4.50027 Y-3.83793
G01 X4.49745 Y-3.83699
G01 X4.50027 Y-3.83793
G01 X4.50416 Y-3.83852
G01 X4.51968 Y-3.83858
G01 X4.51968 Y-3.89942
G01 X4.52673 Y-3.89236
G01 X4.53937 Y-3.84923
G01 X4.52673 Y-3.89236
G01 X4.51968 Y-3.89942
G01 X4.50752 Y-3.92882
G01 X4.51968 Y-3.89942
G01 X4.53887 Y-3.88019
G01 X4.54930 Y-3.86883
G01 X4.55846 Y-3.85651
G01 X4.56334 Y-3.84844
G01 X4.56742 Y-3.83988
G01 X4.57031 Y-3.83029
G01 X4.57244 Y-3.82769
G01 X4.57425 Y-3.82432
G01 X4.57499 Y-3.82255
G01 X4.57613 Y-3.81883
G01 X4.57651 Y-3.81496
G01 X4.57651 Y-3.81304
G01 X4.57613 Y-3.80917
G01 X4.57499 Y-3.80545
G01 X4.57425 Y-3.80368
G01 X4.57244 Y-3.80031
G01 X4.57001 Y-3.79735
G01 X4.57013 Y-3.79724
G01 X4.57001 Y-3.79735
G01 X4.56865 Y-3.79599
G01 X4.56569 Y-3.79356
G01 X4.56579 Y-3.79342
G01 X4.56569 Y-3.79356
G01 X4.56232 Y-3.79175
G01 X4.56055 Y-3.79101
G01 X4.56059 Y-3.79090
G01 X4.56055 Y-3.79101
G01 X4.55773 Y-3.79007
G01 X4.55480 Y-3.78957
G01 X4.55481 Y-3.78944
G01 X4.55480 Y-3.78957
G01 X4.55196 Y-3.78939
G01 X4.54028 Y-3.78942
G01 X4.53937 Y-3.78846
G01 X4.52698 Y-3.75741
G01 X4.53937 Y-3.78846
G01 X4.53937 Y-3.78942
G01 X4.50500 Y-3.78948
G01 X4.50115 Y-3.78987
G01 X4.50000 Y-3.79022
G01 X4.50000 Y-3.70000
G01 X4.95000 Y-3.70000
G01 X4.95000 Y-4.00000
G01 X4.50000 Y-4.00000
G01 X4.50000 Y-3.83784
G01 X4.49568 Y-3.83625
G01 X4.49558 Y-3.83647
G01 X4.49568 Y-3.83625
G01 X4.49231 Y-3.83444
G01 X4.49211 Y-3.83472
G01 X4.49231 Y-3.83444
G01 X4.48935 Y-3.83201
G01 X4.48924 Y-3.83213
G01 X4.48935 Y-3.83201
G01 X4.48799 Y-3.83065
G01 X4.48556 Y-3.82769
G01 X4.48534 Y-3.82783
G01 X4.48556 Y-3.82769
G01 X4.48535 Y-3.82785
G01 X4.48556 Y-3.82769
G01 X4.48375 Y-3.82432
G01 X4.48301 Y-3.82255
G01 X4.48285 Y-3.82261
G01 X4.48301 Y-3.82255
G01 X4.48187 Y-3.81883
G01 X4.48149 Y-3.81891
G01 X4.48187 Y-3.81883
G01 X4.48148 Y-3.81496
G01 X4.48131 Y-3.81497
G01 X4.48148 Y-3.81496
G01 X4.48148 Y-3.81304
G01 X4.48187 Y-3.80917
G01 X4.48149 Y-3.80909
G01 X4.48187 Y-3.80917
G01 X4.48161 Y-3.80911
G01 X4.48187 Y-3.80917
G01 X4.48301 Y-3.80545
G01 X4.48375 Y-3.80368
G01 X4.48556 Y-3.80031
G01 X4.48524 Y-3.80009
G01 X4.48556 Y-3.80031
G01 X4.48534 Y-3.80017
G01 X4.48556 Y-3.80031
G01 X4.48799 Y-3.79735
G01 X4.48935 Y-3.79599
G01 X4.48924 Y-3.79587
G01 X4.48935 Y-3.79599
G01 X4.49231 Y-3.79356
G01 X4.49211 Y-3.79327
G01 X4.49231 Y-3.79356
G01 X4.49568 Y-3.79175
G01 X4.49560 Y-3.79160
G01 X4.49568 Y-3.79175
G01 X4.49745 Y-3.79101
G01 X4.50115 Y-3.78987
G01 X4.50112 Y-3.78974
G01 X4.50115 Y-3.78987
G01 X4.50500 Y-3.78943
G01 X4.51968 Y-3.78946
G01 X4.51968 Y-3.73731
G01 X4.50695 Y-3.70000
G01 X4.51734 Y-3.70000
G01 X4.52163 Y-3.70691
G01 X4.53847 Y-3.72959
G01 X4.54040 Y-3.73194
G01 X4.55187 Y-3.74483
G01 X4.57275 Y-3.76641
G01 X4.58682 Y-3.75263
G01 X4.59964 Y-3.76584
G01 X4.59884 Y-3.76829
G01 X4.59964 Y-3.76584
G01 X4.60435 Y-3.76502
G01 X4.60658 Y-3.76684
G01 X4.60435 Y-3.76502
G01 X4.59964 Y-3.76584
G01 X4.56630 Y-3.73143
G01 X4.55584 Y-3.71969
G01 X4.52994 Y-3.70806
G01 X4.55584 Y-3.71969
G01 X4.82123 Y-3.71969
G01 X4.82755 Y-3.71362
G01 X4.82123 Y-3.71969
G01 X4.82027 Y-3.74900
G01 X4.81965 Y-3.75734
G01 X4.82238 Y-3.75913
G01 X4.81965 Y-3.75734
G01 X4.81425 Y-3.76028
G01 X4.80266 Y-3.76561
G01 X4.79306 Y-3.76867
G01 X4.78400 Y-3.77022
G01 X4.78168 Y-3.77086
G01 X4.78171 Y-3.77098
G01 X4.78168 Y-3.77086
G01 X4.77980 Y-3.77123
G01 X4.77600 Y-3.77165
G01 X4.72464 Y-3.77161
G01 X4.70770 Y-3.77496
G01 X4.70298 Y-3.77632
G01 X4.69390 Y-3.77961
G01 X4.69094 Y-3.78091
G01 X4.69077 Y-3.78295
G01 X4.69094 Y-3.78091
G01 X4.69080 Y-3.78080
G01 X4.68046 Y-3.77442
G01 X4.67757 Y-3.77284
G01 X4.67482 Y-3.77161
G01 X4.72464 Y-3.77161
G01 X4.62100 Y-3.77165
G01 X4.61720 Y-3.77123
G01 X4.61718 Y-3.77140
G01 X4.61720 Y-3.77123
G01 X4.61530 Y-3.77093
G01 X4.61160 Y-3.76974
G01 X4.61149 Y-3.76999
G01 X4.61160 Y-3.76974
G01 X4.61152 Y-3.76992
G01 X4.61160 Y-3.76974
G01 X4.60818 Y-3.76791
G01 X4.60658 Y-3.76684
G01 X4.60360 Y-3.76440
G01 X4.60333 Y-3.76467
G01 X4.60360 Y-3.76440
G01 X4.60116 Y-3.76142
G01 X4.60009 Y-3.75982
G01 X4.59826 Y-3.75640
G01 X4.59790 Y-3.75655
G01 X4.59826 Y-3.75640
G01 X4.59713 Y-3.75268
G01 X4.59677 Y-3.75080
G01 X4.59639 Y-3.74700
G01 X4.59677 Y-3.74320
G01 X4.59713 Y-3.74132
G01 X4.59826 Y-3.73760
G01 X4.59790 Y-3.73745
G01 X4.59826 Y-3.73760
G01 X4.60009 Y-3.73418
G01 X4.60116 Y-3.73258
G01 X4.60360 Y-3.72960
G01 X4.60333 Y-3.72933
G01 X4.60360 Y-3.72960
G01 X4.60658 Y-3.72716
G01 X4.60818 Y-3.72609
G01 X4.61160 Y-3.72426
G01 X4.61145 Y-3.72390
G01 X4.61160 Y-3.72426
G01 X4.61532 Y-3.72314
G01 X4.61720 Y-3.72276
G01 X4.62099 Y-3.72230
G01 X4.77012 Y-3.72239
G01 X4.77314 Y-3.72170
G01 X4.77796 Y-3.72148
G01 X4.77797 Y-3.72124
G01 X4.77796 Y-3.72148
G01 X4.78183 Y-3.72187
G01 X4.78555 Y-3.72301
G01 X4.78563 Y-3.72279
G01 X4.78555 Y-3.72301
G01 X4.78732 Y-3.72375
G01 X4.79215 Y-3.72664
G01 X4.79223 Y-3.72653
G01 X4.79215 Y-3.72664
G01 X4.79511 Y-3.72920
G01 X4.79791 Y-3.73318
G01 X4.79802 Y-3.73311
G01 X4.79791 Y-3.73318
G01 X4.79974 Y-3.73660
G01 X4.80058 Y-3.73937
G01 X4.80088 Y-3.73937
G01 X4.80085 Y-3.74029
G01 X4.80123 Y-3.74220
G01 X4.80161 Y-3.74600
G01 X4.80176 Y-3.74600
G01 X4.80161 Y-3.74600
G01 X4.80130 Y-3.74981
G01 X4.79974 Y-3.75540
G01 X4.79990 Y-3.75546
G01 X4.79974 Y-3.75540
G01 X4.79791 Y-3.75882
G01 X4.79684 Y-3.76042
G01 X4.79694 Y-3.76050
G01 X4.79684 Y-3.76042
G01 X4.79381 Y-3.76397
G01 X4.79206 Y-3.76558
G01 X4.79214 Y-3.76567
G01 X4.79206 Y-3.76558
G01 X4.78725 Y-3.76886
G01 X4.78732 Y-3.76900
G01 X4.78725 Y-3.76886
G01 X4.78454 Y-3.77007
G01 X4.78168 Y-3.77086
G01 X4.77980 Y-3.77123
G01 X4.77600 Y-3.77161
G01 X4.62100 Y-3.77161
G01 X4.61720 Y-3.77123
G01 X4.61532 Y-3.77086
G01 X4.61160 Y-3.76974
G01 X4.60818 Y-3.76791
G01 X4.60658 Y-3.76684
G01 X4.60360 Y-3.76440
G01 X4.60116 Y-3.76142
G01 X4.60009 Y-3.75982
G01 X4.59826 Y-3.75640
G01 X4.59713 Y-3.75268
G01 X4.59677 Y-3.75080
G01 X4.59639 Y-3.74700
G01 X4.59601 Y-3.74700
G01 X4.58682 Y-3.75263
G01 X4.57275 Y-3.76641
G01 X4.59289 Y-3.78702
G01 X4.62100 Y-3.78206
G01 X4.62535 Y-3.78147
G01 X4.62727 Y-3.78128
G01 X4.63873 Y-3.78128
G01 X4.64065 Y-3.78147
G01 X4.65265 Y-3.78388
G01 X4.65457 Y-3.78446
G01 X4.66833 Y-3.79023
G01 X4.67900 Y-3.79656
G01 X4.68874 Y-3.80393
G01 X4.68674 Y-3.81500
G01 X4.68565 Y-3.82280
G01 X4.68500 Y-3.83400
G01 X4.70471 Y-3.83400
G01 X4.70514 Y-3.84278
G01 X4.70642 Y-3.85102
G01 X4.70829 Y-3.85842
G01 X4.70584 Y-3.86066
G01 X4.70829 Y-3.85842
G01 X4.71236 Y-3.85996
G01 X4.72098 Y-3.86226
G01 X4.72966 Y-3.86343
G01 X4.73748 Y-3.86384
G01 X4.81710 Y-3.86381
G01 X4.82748 Y-3.86426
G01 X4.83481 Y-3.86396
G01 X4.83822 Y-3.86340
G01 X4.84007 Y-3.86575
G01 X4.83822 Y-3.86340
G01 X4.83866 Y-3.86257
G01 X4.84176 Y-3.85460
G01 X4.84221 Y-3.85444
G01 X4.84503 Y-3.85173
G01 X4.84512 Y-3.85181
G01 X4.84503 Y-3.85173
G01 X4.84791 Y-3.84782
G01 X4.84804 Y-3.84789
G01 X4.84791 Y-3.84782
G01 X4.84974 Y-3.84440
G01 X4.84986 Y-3.84445
G01 X4.84974 Y-3.84440
G01 X4.85086 Y-3.84068
G01 X4.85103 Y-3.84072
G01 X4.85086 Y-3.84068
G01 X4.85130 Y-3.83881
G01 X4.85161 Y-3.83500
G01 X4.85184 Y-3.83499
G01 X4.85161 Y-3.83500
G01 X4.85123 Y-3.83120
G01 X4.85086 Y-3.82932
G01 X4.85100 Y-3.82928
G01 X4.85086 Y-3.82932
G01 X4.85007 Y-3.82646
G01 X4.85038 Y-3.82634
G01 X4.85007 Y-3.82646
G01 X4.84840 Y-3.82290
G01 X4.84859 Y-3.82280
G01 X4.84840 Y-3.82290
G01 X4.84558 Y-3.81894
G01 X4.84572 Y-3.81883
G01 X4.84558 Y-3.81894
G01 X4.84397 Y-3.81719
G01 X4.84404 Y-3.81712
G01 X4.84397 Y-3.81719
G01 X4.84047 Y-3.81409
G01 X4.83540 Y-3.81126
G01 X4.83546 Y-3.81110
G01 X4.83540 Y-3.81126
G01 X4.83168 Y-3.81013
G01 X4.82980 Y-3.80977
G01 X4.82982 Y-3.80960
G01 X4.82980 Y-3.80977
G01 X4.82600 Y-3.80939
G01 X4.73700 Y-3.80935
G01 X4.73320 Y-3.80977
G01 X4.73132 Y-3.81013
G01 X4.73127 Y-3.80997
G01 X4.73132 Y-3.81013
G01 X4.72903 Y-3.81083
G01 X4.71638 Y-3.81332
G01 X4.70818 Y-3.81631
G01 X4.70635 Y-3.81718
G01 X4.70358 Y-3.81506
G01 X4.70635 Y-3.81718
G01 X4.70520 Y-3.82513
G01 X4.70465 Y-3.83400
G01 X4.71239 Y-3.83400
G01 X4.71270 Y-3.83781
G01 X4.71426 Y-3.84340
G01 X4.71401 Y-3.84351
G01 X4.71426 Y-3.84340
G01 X4.71609 Y-3.84682
G01 X4.71716 Y-3.84842
G01 X4.71960 Y-3.85140
G01 X4.71933 Y-3.85167
G01 X4.71960 Y-3.85140
G01 X4.72258 Y-3.85384
G01 X4.72418 Y-3.85491
G01 X4.72760 Y-3.85674
G01 X4.72745 Y-3.85710
G01 X4.72760 Y-3.85674
G01 X4.73132 Y-3.85786
G01 X4.73699 Y-3.85870
G01 X4.82012 Y-3.85860
G01 X4.82314 Y-3.85930
G01 X4.82604 Y-3.85952
G01 X4.82603 Y-3.85963
G01 X4.82604 Y-3.85952
G01 X4.82796 Y-3.85952
G01 X4.83183 Y-3.85913
G01 X4.83186 Y-3.85930
G01 X4.83183 Y-3.85913
G01 X4.83555 Y-3.85799
G01 X4.83732 Y-3.85725
G01 X4.83737 Y-3.85735
G01 X4.83732 Y-3.85725
G01 X4.84215 Y-3.85436
G01 X4.84503 Y-3.85173
G01 X4.84791 Y-3.84782
G01 X4.84974 Y-3.84440
G01 X4.85086 Y-3.84068
G01 X4.85123 Y-3.83880
G01 X4.85161 Y-3.83500
G01 X4.85123 Y-3.83120
G01 X4.85086 Y-3.82932
G01 X4.85007 Y-3.82646
G01 X4.84886 Y-3.82375
G01 X4.84558 Y-3.81894
G01 X4.84397 Y-3.81719
G01 X4.84175 Y-3.81529
G01 X4.84041 Y-3.81140
G01 X4.83641 Y-3.80263
G01 X4.83203 Y-3.79540
G01 X4.83404 Y-3.78908
G01 X4.83203 Y-3.79540
G01 X4.81990 Y-3.80105
G01 X4.81640 Y-3.80245
G01 X4.80428 Y-3.80638
G01 X4.80070 Y-3.80727
G01 X4.78844 Y-3.80939
G01 X4.73700 Y-3.80939
G01 X4.73320 Y-3.80977
G01 X4.73132 Y-3.81013
G01 X4.72760 Y-3.81126
G01 X4.72418 Y-3.81309
G01 X4.72409 Y-3.81294
G01 X4.72418 Y-3.81309
G01 X4.72258 Y-3.81416
G01 X4.71960 Y-3.81660
G01 X4.71951 Y-3.81651
G01 X4.71960 Y-3.81660
G01 X4.71710 Y-3.81954
G01 X4.71426 Y-3.82460
G01 X4.71414 Y-3.82455
G01 X4.71426 Y-3.82460
G01 X4.71307 Y-3.82830
G01 X4.71239 Y-3.83400
G01 X4.68500 Y-3.83400
G01 X4.68565 Y-3.84520
G01 X4.68710 Y-3.85489
G01 X4.68954 Y-3.86457
G01 X4.69250 Y-3.87349
G01 X4.70602 Y-3.87861
G01 X4.71712 Y-3.88150
G01 X4.72629 Y-3.88288
G01 X4.73700 Y-3.88350
G01 X4.81710 Y-3.88350
G01 X4.82604 Y-3.88395
G01 X4.83674 Y-3.88352
G01 X4.84552 Y-3.88220
G01 X4.85104 Y-3.88103
G01 X4.85673 Y-3.87043
G01 X4.86116 Y-3.85899
G01 X4.86175 Y-3.85707
G01 X4.86449 Y-3.84344
G01 X4.86468 Y-3.84152
G01 X4.86468 Y-3.82848
G01 X4.86449 Y-3.82655
G01 X4.86272 Y-3.81645
G01 X4.85946 Y-3.80606
G01 X4.85853 Y-3.80368
G01 X4.85398 Y-3.79386
G01 X4.85296 Y-3.79194
G01 X4.84687 Y-3.78190
G01 X4.83773 Y-3.76989
G01 X4.83925 Y-3.75937
G01 X4.83993 Y-3.75000
G01 X4.84149 Y-3.70000
G01 X4.83993 Y-3.75000
G01 X4.83925 Y-3.75937
G01 X4.83773 Y-3.76989
G01 X4.82301 Y-3.77791
G01 X4.81162 Y-3.78319
G01 X4.80924 Y-3.78412
G01 X4.79731 Y-3.78788
G01 X4.78553 Y-3.78993
G01 X4.77600 Y-3.79050
G01 X4.73700 Y-3.79050
G01 X4.72747 Y-3.79106
G01 X4.71159 Y-3.79426
G01 X4.70967 Y-3.79484
G01 X4.70059 Y-3.79812
G01 X4.69152 Y-3.80244
G01 X4.68874 Y-3.80393

G04 P0 ( dwell for no time -- G64 should not smooth over this point )
G00 Z1.000000 ( retract )

M5 ( Spindle off. )
G04 P1.000000
M9 ( Coolant off. )
M2 ( Program end. )

