( pcb2gcode 2.1.0 )
( Software-independent Gcode )

G94 ( Inches per minute feed rate. )
G20 ( Units == INCHES. )

G90 ( Absolute coordinates. )
G00 S12000 ( RPM spindle speed. )
G64 P0.00040 ( set maximum deviation from commanded toolpath )
G01 F360.00000 ( Feedrate. )


G00 Z1.00000 (Retract to tool change height)
T0
M5      (Spindle stop.)
G04 P1.00000 (Wait for spindle to stop)
(MSG, Change tool bit to mill diameter 0.03937in)
M6      (Tool change.)
M0      (Temporary machine stop.)
M3 ( Spindle on clockwise. )
G04 P1.00000 (Wait for spindle to get up to speed)
G04 P0 ( dwell for no time -- G64 should not smooth over this point )
G00 Z0.08000 ( retract )

G00 X4.51968 Y-3.96995 ( rapid move to begin. )
G01 F180.00000
( Mill infeed pass 1/1 )
G01 Z-0.04000
G04 P0 ( dwell for no time -- G64 should not smooth over this point )
G01 F360.00000
G01 X4.51968 Y-3.96995
G01 X4.51968 Y-3.95564
G01 X4.51821 Y-3.95503
G01 X4.51968 Y-3.95564
G01 X4.53006 Y-3.94476
G01 X4.56763 Y-3.90708
G01 X4.58020 Y-3.89322
G01 X4.58950 Y-3.88083
G01 X4.59188 Y-3.87728
G01 X4.59751 Y-3.86797
G01 X4.60288 Y-3.85696
G01 X4.60473 Y-3.85232
G01 X4.60839 Y-3.84037
G01 X4.60830 Y-3.81499
G01 X4.60915 Y-3.80928
G01 X4.60898 Y-3.80923
G01 X4.60915 Y-3.80928
G01 X4.61027 Y-3.80558
G01 X4.60995 Y-3.80546
G01 X4.61027 Y-3.80558
G01 X4.61209 Y-3.80218
G01 X4.61190 Y-3.80207
G01 X4.61209 Y-3.80218
G01 X4.61472 Y-3.79854
G01 X4.61456 Y-3.79841
G01 X4.61472 Y-3.79854
G01 X4.61654 Y-3.79672
G01 X4.61637 Y-3.79653
G01 X4.61654 Y-3.79672
G01 X4.61853 Y-3.79508
G01 X4.62358 Y-3.79227
G01 X4.62349 Y-3.79206
G01 X4.62358 Y-3.79227
G01 X4.62728 Y-3.79115
G01 X4.62916 Y-3.79077
G01 X4.62914 Y-3.79060
G01 X4.62916 Y-3.79077
G01 X4.63171 Y-3.79043
G01 X4.63170 Y-3.79018
G01 X4.63171 Y-3.79043
G01 X4.63429 Y-3.79043
G01 X4.63684 Y-3.79077
G01 X4.63686 Y-3.79060
G01 X4.63684 Y-3.79077
G01 X4.63872 Y-3.79115
G01 X4.63877 Y-3.79094
G01 X4.63872 Y-3.79115
G01 X4.64242 Y-3.79227
G01 X4.64246 Y-3.79215
G01 X4.64242 Y-3.79227
G01 X4.64582 Y-3.79408
G01 X4.64593 Y-3.79390
G01 X4.64582 Y-3.79408
G01 X4.64946 Y-3.79672
G01 X4.65128 Y-3.79854
G01 X4.65151 Y-3.79834
G01 X4.65128 Y-3.79854
G01 X4.65391 Y-3.80218
G01 X4.65573 Y-3.80558
G01 X4.65605 Y-3.80546
G01 X4.65573 Y-3.80558
G01 X4.65598 Y-3.80640
G01 X4.66052 Y-3.80833
G01 X4.66722 Y-3.81244
G01 X4.67066 Y-3.81078
G01 X4.66722 Y-3.81244
G01 X4.66615 Y-3.82007
G01 X4.66580 Y-3.82375
G01 X4.66534 Y-3.83497
G01 X4.66580 Y-3.84425
G01 X4.66618 Y-3.84812
G01 X4.66763 Y-3.85780
G01 X4.67070 Y-3.87029
G01 X4.67387 Y-3.87983
G01 X4.67527 Y-3.88300
G01 X4.67720 Y-3.88588
G01 X4.67961 Y-3.88837
G01 X4.68242 Y-3.89040
G01 X4.68554 Y-3.89191
G01 X4.70031 Y-3.89744
G01 X4.71230 Y-3.90059
G01 X4.72436 Y-3.90247
G01 X4.73603 Y-3.90316
G01 X4.81660 Y-3.90318
G01 X4.82504 Y-3.90361
G01 X4.82894 Y-3.90361
G01 X4.83964 Y-3.90298
G01 X4.84936 Y-3.90151
G01 X4.85525 Y-3.90026
G01 X4.85847 Y-3.89926
G01 X4.86147 Y-3.89773
G01 X4.86416 Y-3.89570
G01 X4.86648 Y-3.89324
G01 X4.86833 Y-3.89043
G01 X4.87452 Y-3.87884
G01 X4.87839 Y-3.86901
G01 X4.87836 Y-3.75000
G01 X4.87858 Y-3.74711
G01 X4.87908 Y-3.74426
G01 X4.87953 Y-3.74290
G01 X4.87963 Y-3.73937
G01 X4.87519 Y-3.73439
G01 X4.87963 Y-3.73937
G01 X4.88090 Y-3.73937
G01 X4.88186 Y-3.73742
G01 X4.88329 Y-3.73528
G01 X4.88319 Y-3.73521
G01 X4.88329 Y-3.73528
G01 X4.88635 Y-3.73199
G01 X4.88626 Y-3.73189
G01 X4.88635 Y-3.73199
G01 X4.88828 Y-3.73029
G01 X4.89042 Y-3.72886
G01 X4.89273 Y-3.72772
G01 X4.89267 Y-3.72759
G01 X4.89273 Y-3.72772
G01 X4.89723 Y-3.72599
G01 X4.90107 Y-3.72549
G01 X4.90107 Y-3.72535
G01 X4.90107 Y-3.72549
G01 X4.90397 Y-3.72542
G01 X4.90872 Y-3.72615
G01 X4.90876 Y-3.72599
G01 X4.90872 Y-3.72615
G01 X4.91151 Y-3.72692
G01 X4.91416 Y-3.72809
G01 X4.91421 Y-3.72800
G01 X4.91416 Y-3.72809
G01 X4.91746 Y-3.73010
G01 X4.91755 Y-3.72999
G01 X4.91746 Y-3.73010
G01 X4.92101 Y-3.73335
G01 X4.92290 Y-3.73554
G01 X4.92308 Y-3.73541
G01 X4.92290 Y-3.73554
G01 X4.92491 Y-3.73884
G01 X4.92608 Y-3.74148
G01 X4.92631 Y-3.74140
G01 X4.92608 Y-3.74148
G01 X4.92723 Y-3.74616
G01 X4.92768 Y-3.75000
G01 X4.92753 Y-3.91197
G01 X4.92713 Y-3.91581
G01 X4.92731 Y-3.91585
G01 X4.92713 Y-3.91581
G01 X4.92601 Y-3.91949
G01 X4.92528 Y-3.92127
G01 X4.92398 Y-3.92385
G01 X4.92416 Y-3.92396
G01 X4.92398 Y-3.92385
G01 X4.92231 Y-3.92622
G01 X4.92038 Y-3.92846
G01 X4.91063 Y-3.93811
G01 X4.91063 Y-3.96063
G01 X4.91639 Y-3.96639
G01 X4.91063 Y-3.96063
G01 X4.54212 Y-3.96063
G01 X4.51968 Y-3.96995
G01 X4.51968 Y-3.98031
G01 X4.93031 Y-3.98031
G01 X4.93608 Y-3.98608
G01 X4.93031 Y-3.98031
G01 X4.93031 Y-3.71969
G01 X4.93608 Y-3.71392
G01 X4.93031 Y-3.71969
G01 X4.86062 Y-3.71969
G01 X4.85525 Y-3.71414
G01 X4.86062 Y-3.71969
G01 X4.85960 Y-3.75067
G01 X4.85908 Y-3.75876
G01 X4.85840 Y-3.76445
G01 X4.85711 Y-3.76482
G01 X4.85840 Y-3.76445
G01 X4.86371 Y-3.77170
G01 X4.86979 Y-3.78174
G01 X4.87185 Y-3.78560
G01 X4.87639 Y-3.79542
G01 X4.87839 Y-3.80064
G01 X4.87839 Y-3.90081
G01 X4.87081 Y-3.90839
G01 X4.67459 Y-3.90839
G01 X4.67234 Y-3.90731
G01 X4.66672 Y-3.90325
G01 X4.66190 Y-3.89826
G01 X4.65803 Y-3.89251
G01 X4.65761 Y-3.89155
G01 X4.65770 Y-3.81499
G01 X4.65685 Y-3.80928
G01 X4.65573 Y-3.80558
G01 X4.65391 Y-3.80218
G01 X4.65285 Y-3.80058
G01 X4.65128 Y-3.79854
G01 X4.64946 Y-3.79672
G01 X4.64582 Y-3.79408
G01 X4.64242 Y-3.79227
G01 X4.63872 Y-3.79115
G01 X4.63429 Y-3.79043
G01 X4.63171 Y-3.79043
G01 X4.62728 Y-3.79115
G01 X4.62358 Y-3.79227
G01 X4.62018 Y-3.79408
G01 X4.61654 Y-3.79672
G01 X4.61472 Y-3.79854
G01 X4.61209 Y-3.80218
G01 X4.61027 Y-3.80558
G01 X4.60915 Y-3.80928
G01 X4.60877 Y-3.81116
G01 X4.60839 Y-3.81500
G01 X4.60839 Y-3.88799
G01 X4.60524 Y-3.89265
G01 X4.59594 Y-3.90504
G01 X4.59349 Y-3.90799
G01 X4.58098 Y-3.92160
G01 X4.54212 Y-3.96063
G01 X4.51292 Y-3.97276
G01 X4.51968 Y-3.98031
G01 X4.50000 Y-4.00000
G01 X4.50000 Y-3.94795
G01 X4.50625 Y-3.94117
G01 X4.51598 Y-3.93100
G01 X4.55311 Y-3.89379
G01 X4.56445 Y-3.88140
G01 X4.57375 Y-3.86901
G01 X4.57504 Y-3.86709
G01 X4.58067 Y-3.85778
G01 X4.58511 Y-3.84847
G01 X4.58591 Y-3.84655
G01 X4.59066 Y-3.83106
G01 X4.59104 Y-3.82914
G01 X4.59245 Y-3.81500
G01 X4.59262 Y-3.80794
G01 X4.59289 Y-3.78702
G01 X4.55187 Y-3.74483
G01 X4.54040 Y-3.73194
G01 X4.53847 Y-3.72959
G01 X4.52163 Y-3.70691
G01 X4.51734 Y-3.70000
G01 X4.50695 Y-3.70000
G01 X4.95000 Y-3.70000
G01 X4.95000 Y-4.00000
G01 X4.50000 Y-4.00000
G01 X4.50000 Y-3.83784
G01 X4.49996 Y-3.83800
G01 X4.50000 Y-3.83784
G01 X4.49751 Y-3.83701
G01 X4.50026 Y-3.83792
G01 X4.50311 Y-3.83842
G01 X4.50309 Y-3.83855
G01 X4.50311 Y-3.83842
G01 X4.50604 Y-3.83865
G01 X4.51968 Y-3.83858
G01 X4.51968 Y-3.89942
G01 X4.52674 Y-3.89235
G01 X4.52522 Y-3.89756
G01 X4.53937 Y-3.84924
G01 X4.54181 Y-3.84596
G01 X4.54623 Y-3.83853
G01 X4.55300 Y-3.83851
G01 X4.55682 Y-3.83813
G01 X4.55685 Y-3.83829
G01 X4.55682 Y-3.83813
G01 X4.56053 Y-3.83710
G01 X4.56458 Y-3.83514
G01 X4.56672 Y-3.83371
G01 X4.56685 Y-3.83388
G01 X4.56672 Y-3.83371
G01 X4.56865 Y-3.83201
G01 X4.57171 Y-3.82872
G01 X4.57184 Y-3.82882
G01 X4.57171 Y-3.82872
G01 X4.57314 Y-3.82658
G01 X4.57324 Y-3.82664
G01 X4.57314 Y-3.82658
G01 X4.57437 Y-3.82431
G01 X4.57501 Y-3.82249
G01 X4.57514 Y-3.82253
G01 X4.57501 Y-3.82249
G01 X4.57613 Y-3.81880
G01 X4.57640 Y-3.81884
G01 X4.57613 Y-3.81880
G01 X4.57651 Y-3.81496
G01 X4.57668 Y-3.81497
G01 X4.57651 Y-3.81496
G01 X4.57651 Y-3.81304
G01 X4.57613 Y-3.80920
G01 X4.57640 Y-3.80916
G01 X4.57613 Y-3.80920
G01 X4.57437 Y-3.80369
G01 X4.57314 Y-3.80142
G01 X4.57171 Y-3.79928
G01 X4.57184 Y-3.79918
G01 X4.57171 Y-3.79928
G01 X4.56865 Y-3.79599
G01 X4.56672 Y-3.79429
G01 X4.56685 Y-3.79411
G01 X4.56672 Y-3.79429
G01 X4.56458 Y-3.79286
G01 X4.56049 Y-3.79099
G01 X4.56055 Y-3.79085
G01 X4.56049 Y-3.79099
G01 X4.55774 Y-3.79008
G01 X4.55489 Y-3.78958
G01 X4.55491 Y-3.78945
G01 X4.55489 Y-3.78958
G01 X4.55196 Y-3.78939
G01 X4.54028 Y-3.78942
G01 X4.53937 Y-3.78846
G01 X4.52701 Y-3.75765
G01 X4.53937 Y-3.78846
G01 X4.53937 Y-3.78942
G01 X4.50500 Y-3.78944
G01 X4.50118 Y-3.78987
G01 X4.50115 Y-3.78974
G01 X4.50118 Y-3.78987
G01 X4.49751 Y-3.79099
G01 X4.50118 Y-3.78987
G01 X4.50500 Y-3.78949
G01 X4.51968 Y-3.78946
G01 X4.51968 Y-3.73731
G01 X4.50636 Y-3.69828
G01 X4.51968 Y-3.73731
G01 X4.52519 Y-3.74444
G01 X4.53773 Y-3.75853
G01 X4.57302 Y-3.79493
G01 X4.57450 Y-3.79434
G01 X4.57302 Y-3.79493
G01 X4.57297 Y-3.80117
G01 X4.57501 Y-3.80551
G01 X4.57613 Y-3.80920
G01 X4.57651 Y-3.81304
G01 X4.57651 Y-3.81496
G01 X4.57613 Y-3.81880
G01 X4.57501 Y-3.82249
G01 X4.57314 Y-3.82658
G01 X4.57171 Y-3.82872
G01 X4.57029 Y-3.83033
G01 X4.56741 Y-3.83990
G01 X4.56334 Y-3.84844
G01 X4.55844 Y-3.85654
G01 X4.54931 Y-3.86883
G01 X4.53888 Y-3.88019
G01 X4.51968 Y-3.89942
G01 X4.50752 Y-3.92882
G01 X4.51968 Y-3.89942
G01 X4.52674 Y-3.89235
G01 X4.53937 Y-3.84924
G01 X4.53937 Y-3.83854
G01 X4.50604 Y-3.83861
G01 X4.50311 Y-3.83842
G01 X4.50026 Y-3.83792
G01 X4.49751 Y-3.83701
G01 X4.49342 Y-3.83514
G01 X4.49334 Y-3.83529
G01 X4.49342 Y-3.83514
G01 X4.49336 Y-3.83525
G01 X4.49342 Y-3.83514
G01 X4.49128 Y-3.83371
G01 X4.48930 Y-3.83206
G01 X4.48629 Y-3.82872
G01 X4.48615 Y-3.82881
G01 X4.48629 Y-3.82872
G01 X4.48619 Y-3.82879
G01 X4.48629 Y-3.82872
G01 X4.48486 Y-3.82658
G01 X4.48363 Y-3.82431
G01 X4.48299 Y-3.82249
G01 X4.48279 Y-3.82256
G01 X4.48299 Y-3.82249
G01 X4.48187 Y-3.81880
G01 X4.48160 Y-3.81884
G01 X4.48187 Y-3.81880
G01 X4.48149 Y-3.81496
G01 X4.48132 Y-3.81497
G01 X4.48149 Y-3.81496
G01 X4.48149 Y-3.81304
G01 X4.48187 Y-3.80920
G01 X4.48154 Y-3.80914
G01 X4.48187 Y-3.80920
G01 X4.48165 Y-3.80915
G01 X4.48187 Y-3.80920
G01 X4.48299 Y-3.80551
G01 X4.48486 Y-3.80142
G01 X4.48464 Y-3.80129
G01 X4.48486 Y-3.80142
G01 X4.48468 Y-3.80132
G01 X4.48486 Y-3.80142
G01 X4.48629 Y-3.79928
G01 X4.48794 Y-3.79730
G01 X4.48935 Y-3.79599
G01 X4.48920 Y-3.79583
G01 X4.48935 Y-3.79599
G01 X4.49128 Y-3.79429
G01 X4.49121 Y-3.79419
G01 X4.49128 Y-3.79429
G01 X4.49342 Y-3.79286
G01 X4.49573 Y-3.79172
G01 X4.49566 Y-3.79157
G01 X4.49573 Y-3.79172
G01 X4.49751 Y-3.79099
G01 X4.50000 Y-3.79023
G01 X4.50000 Y-3.70000
G01 X4.51734 Y-3.70000
G01 X4.52163 Y-3.70691
G01 X4.53847 Y-3.72959
G01 X4.54040 Y-3.73194
G01 X4.55187 Y-3.74483
G01 X4.57275 Y-3.76641
G01 X4.58687 Y-3.75269
G01 X4.59966 Y-3.76583
G01 X4.59886 Y-3.76829
G01 X4.59966 Y-3.76583
G01 X4.60429 Y-3.76503
G01 X4.59966 Y-3.76583
G01 X4.56630 Y-3.73144
G01 X4.55584 Y-3.71969
G01 X4.52995 Y-3.70806
G01 X4.55584 Y-3.71969
G01 X4.82123 Y-3.71969
G01 X4.82755 Y-3.71362
G01 X4.82123 Y-3.71969
G01 X4.82027 Y-3.74901
G01 X4.81965 Y-3.75734
G01 X4.82237 Y-3.75913
G01 X4.81965 Y-3.75734
G01 X4.81422 Y-3.76029
G01 X4.80266 Y-3.76560
G01 X4.79306 Y-3.76867
G01 X4.78404 Y-3.77021
G01 X4.78172 Y-3.77085
G01 X4.78175 Y-3.77096
G01 X4.78172 Y-3.77085
G01 X4.77984 Y-3.77123
G01 X4.77600 Y-3.77165
G01 X4.72465 Y-3.77161
G01 X4.70771 Y-3.77496
G01 X4.70298 Y-3.77632
G01 X4.69391 Y-3.77960
G01 X4.69094 Y-3.78091
G01 X4.69077 Y-3.78295
G01 X4.69094 Y-3.78091
G01 X4.69080 Y-3.78080
G01 X4.68045 Y-3.77442
G01 X4.67760 Y-3.77287
G01 X4.67482 Y-3.77161
G01 X4.72465 Y-3.77161
G01 X4.62100 Y-3.77165
G01 X4.61907 Y-3.77151
G01 X4.61905 Y-3.77164
G01 X4.61907 Y-3.77151
G01 X4.61526 Y-3.77092
G01 X4.61158 Y-3.76973
G01 X4.61151 Y-3.76993
G01 X4.61158 Y-3.76973
G01 X4.60653 Y-3.76692
G01 X4.60454 Y-3.76528
G01 X4.60272 Y-3.76346
G01 X4.60256 Y-3.76359
G01 X4.60272 Y-3.76346
G01 X4.60008 Y-3.75982
G01 X4.59827 Y-3.75642
G01 X4.59795 Y-3.75654
G01 X4.59827 Y-3.75642
G01 X4.59715 Y-3.75272
G01 X4.59677 Y-3.75084
G01 X4.59639 Y-3.74700
G01 X4.59677 Y-3.74316
G01 X4.59715 Y-3.74128
G01 X4.59827 Y-3.73758
G01 X4.59795 Y-3.73746
G01 X4.59827 Y-3.73758
G01 X4.60008 Y-3.73418
G01 X4.60272 Y-3.73054
G01 X4.60256 Y-3.73041
G01 X4.60272 Y-3.73054
G01 X4.60454 Y-3.72872
G01 X4.60653 Y-3.72708
G01 X4.61158 Y-3.72427
G01 X4.61149 Y-3.72402
G01 X4.61158 Y-3.72427
G01 X4.61528 Y-3.72315
G01 X4.61716 Y-3.72277
G01 X4.62099 Y-3.72230
G01 X4.77013 Y-3.72239
G01 X4.77315 Y-3.72170
G01 X4.77603 Y-3.72140
G01 X4.78053 Y-3.72166
G01 X4.78056 Y-3.72149
G01 X4.78053 Y-3.72166
G01 X4.78305 Y-3.72216
G01 X4.78727 Y-3.72372
G01 X4.78734 Y-3.72356
G01 X4.78727 Y-3.72372
G01 X4.78985 Y-3.72502
G01 X4.79297 Y-3.72730
G01 X4.79312 Y-3.72712
G01 X4.79297 Y-3.72730
G01 X4.79507 Y-3.72930
G01 X4.79791 Y-3.73318
G01 X4.79811 Y-3.73306
G01 X4.79791 Y-3.73318
G01 X4.79920 Y-3.73541
G01 X4.80019 Y-3.73779
G01 X4.80061 Y-3.73937
G01 X4.80086 Y-3.73937
G01 X4.80083 Y-3.74020
G01 X4.80100 Y-3.74015
G01 X4.80083 Y-3.74020
G01 X4.80123 Y-3.74216
G01 X4.80161 Y-3.74600
G01 X4.80178 Y-3.74600
G01 X4.80161 Y-3.74600
G01 X4.80095 Y-3.75175
G01 X4.80019 Y-3.75421
G01 X4.79920 Y-3.75659
G01 X4.79935 Y-3.75666
G01 X4.79920 Y-3.75659
G01 X4.79791 Y-3.75882
G01 X4.79544 Y-3.76227
G01 X4.79556 Y-3.76236
G01 X4.79544 Y-3.76227
G01 X4.79383 Y-3.76394
G01 X4.79014 Y-3.76713
G01 X4.79021 Y-3.76722
G01 X4.79014 Y-3.76713
G01 X4.78720 Y-3.76899
G01 X4.78451 Y-3.77008
G01 X4.78172 Y-3.77085
G01 X4.77984 Y-3.77123
G01 X4.77600 Y-3.77161
G01 X4.61907 Y-3.77151
G01 X4.61528 Y-3.77085
G01 X4.61158 Y-3.76973
G01 X4.60818 Y-3.76791
G01 X4.60658 Y-3.76685
G01 X4.60454 Y-3.76528
G01 X4.60272 Y-3.76346
G01 X4.60008 Y-3.75982
G01 X4.59827 Y-3.75642
G01 X4.59715 Y-3.75272
G01 X4.59677 Y-3.75084
G01 X4.59639 Y-3.74700
G01 X4.59601 Y-3.74700
G01 X4.58687 Y-3.75269
G01 X4.57275 Y-3.76641
G01 X4.59289 Y-3.78702
G01 X4.62100 Y-3.78206
G01 X4.62535 Y-3.78147
G01 X4.62727 Y-3.78128
G01 X4.63873 Y-3.78128
G01 X4.64065 Y-3.78147
G01 X4.65265 Y-3.78388
G01 X4.65457 Y-3.78446
G01 X4.66833 Y-3.79023
G01 X4.67900 Y-3.79656
G01 X4.68874 Y-3.80393
G01 X4.68674 Y-3.81500
G01 X4.68565 Y-3.82280
G01 X4.68500 Y-3.83400
G01 X4.70471 Y-3.83400
G01 X4.70514 Y-3.84278
G01 X4.70642 Y-3.85101
G01 X4.70829 Y-3.85842
G01 X4.70584 Y-3.86065
G01 X4.70829 Y-3.85842
G01 X4.71321 Y-3.86022
G01 X4.72098 Y-3.86226
G01 X4.72966 Y-3.86343
G01 X4.73748 Y-3.86384
G01 X4.81710 Y-3.86381
G01 X4.82747 Y-3.86427
G01 X4.83480 Y-3.86396
G01 X4.83822 Y-3.86339
G01 X4.84007 Y-3.86574
G01 X4.83822 Y-3.86339
G01 X4.83866 Y-3.86258
G01 X4.84173 Y-3.85465
G01 X4.84228 Y-3.85439
G01 X4.84506 Y-3.85170
G01 X4.84515 Y-3.85177
G01 X4.84506 Y-3.85170
G01 X4.84791 Y-3.84782
G01 X4.84804 Y-3.84789
G01 X4.84791 Y-3.84782
G01 X4.84920 Y-3.84559
G01 X4.85019 Y-3.84321
G01 X4.85030 Y-3.84325
G01 X4.85019 Y-3.84321
G01 X4.85085 Y-3.84072
G01 X4.85102 Y-3.84077
G01 X4.85085 Y-3.84072
G01 X4.85127 Y-3.83885
G01 X4.85161 Y-3.83500
G01 X4.85184 Y-3.83499
G01 X4.85161 Y-3.83500
G01 X4.85090 Y-3.82927
G01 X4.85008 Y-3.82648
G01 X4.85030 Y-3.82641
G01 X4.85008 Y-3.82648
G01 X4.84891 Y-3.82384
G01 X4.84713 Y-3.82086
G01 X4.84729 Y-3.82075
G01 X4.84713 Y-3.82086
G01 X4.84555 Y-3.81891
G01 X4.84227 Y-3.81555
G01 X4.84238 Y-3.81542
G01 X4.84227 Y-3.81555
G01 X4.84169 Y-3.81512
G01 X4.84041 Y-3.81141
G01 X4.83640 Y-3.80262
G01 X4.83204 Y-3.79540
G01 X4.83404 Y-3.78908
G01 X4.83204 Y-3.79540
G01 X4.81989 Y-3.80105
G01 X4.81641 Y-3.80245
G01 X4.80429 Y-3.80638
G01 X4.80069 Y-3.80727
G01 X4.78842 Y-3.80939
G01 X4.73700 Y-3.80935
G01 X4.73507 Y-3.80949
G01 X4.73126 Y-3.81008
G01 X4.72901 Y-3.81083
G01 X4.71638 Y-3.81332
G01 X4.70819 Y-3.81630
G01 X4.70635 Y-3.81718
G01 X4.70358 Y-3.81507
G01 X4.70635 Y-3.81718
G01 X4.70520 Y-3.82513
G01 X4.70465 Y-3.83400
G01 X4.71239 Y-3.83400
G01 X4.71277 Y-3.83016
G01 X4.71260 Y-3.83014
G01 X4.71277 Y-3.83016
G01 X4.71315 Y-3.82828
G01 X4.71427 Y-3.82458
G01 X4.71415 Y-3.82454
G01 X4.71427 Y-3.82458
G01 X4.71605 Y-3.82116
G01 X4.71872 Y-3.81754
G01 X4.71863 Y-3.81746
G01 X4.71872 Y-3.81754
G01 X4.72054 Y-3.81572
G01 X4.72253 Y-3.81407
G01 X4.72758 Y-3.81127
G01 X4.72753 Y-3.81115
G01 X4.72758 Y-3.81127
G01 X4.73128 Y-3.81015
G01 X4.73316 Y-3.80977
G01 X4.73700 Y-3.80939
G01 X4.82600 Y-3.80939
G01 X4.82984 Y-3.80977
G01 X4.82986 Y-3.80961
G01 X4.82984 Y-3.80977
G01 X4.83172 Y-3.81015
G01 X4.83542 Y-3.81127
G01 X4.83550 Y-3.81107
G01 X4.83542 Y-3.81127
G01 X4.83882 Y-3.81309
G01 X4.84227 Y-3.81555
G01 X4.84555 Y-3.81891
G01 X4.84713 Y-3.82086
G01 X4.84891 Y-3.82384
G01 X4.85008 Y-3.82648
G01 X4.85123 Y-3.83116
G01 X4.85161 Y-3.83500
G01 X4.85123 Y-3.83884
G01 X4.85019 Y-3.84321
G01 X4.84920 Y-3.84559
G01 X4.84685 Y-3.84942
G01 X4.84506 Y-3.85170
G01 X4.84297 Y-3.85370
G01 X4.83985 Y-3.85598
G01 X4.83730 Y-3.85735
G01 X4.83305 Y-3.85884
G01 X4.83309 Y-3.85900
G01 X4.83305 Y-3.85884
G01 X4.83053 Y-3.85934
G01 X4.82604 Y-3.85951
G01 X4.82604 Y-3.85966
G01 X4.82604 Y-3.85951
G01 X4.82315 Y-3.85930
G01 X4.82013 Y-3.85861
G01 X4.73699 Y-3.85870
G01 X4.73316 Y-3.85823
G01 X4.73128 Y-3.85785
G01 X4.72758 Y-3.85673
G01 X4.72746 Y-3.85705
G01 X4.72758 Y-3.85673
G01 X4.72418 Y-3.85491
G01 X4.72054 Y-3.85228
G01 X4.72037 Y-3.85247
G01 X4.72054 Y-3.85228
G01 X4.71872 Y-3.85046
G01 X4.71601 Y-3.84687
G01 X4.71427 Y-3.84342
G01 X4.71415 Y-3.84346
G01 X4.71427 Y-3.84342
G01 X4.71315 Y-3.83972
G01 X4.71277 Y-3.83784
G01 X4.71260 Y-3.83786
G01 X4.71277 Y-3.83784
G01 X4.71239 Y-3.83400
G01 X4.68500 Y-3.83400
G01 X4.68565 Y-3.84520
G01 X4.68710 Y-3.85489
G01 X4.68954 Y-3.86457
G01 X4.69250 Y-3.87349
G01 X4.70602 Y-3.87861
G01 X4.71712 Y-3.88150
G01 X4.72629 Y-3.88288
G01 X4.73700 Y-3.88350
G01 X4.81710 Y-3.88350
G01 X4.82604 Y-3.88395
G01 X4.83674 Y-3.88352
G01 X4.84552 Y-3.88220
G01 X4.85104 Y-3.88103
G01 X4.85673 Y-3.87043
G01 X4.86116 Y-3.85899
G01 X4.86175 Y-3.85707
G01 X4.86449 Y-3.84344
G01 X4.86468 Y-3.84152
G01 X4.86468 Y-3.82848
G01 X4.86449 Y-3.82655
G01 X4.86272 Y-3.81645
G01 X4.85946 Y-3.80606
G01 X4.85853 Y-3.80368
G01 X4.85398 Y-3.79386
G01 X4.85296 Y-3.79194
G01 X4.84687 Y-3.78190
G01 X4.83773 Y-3.76989
G01 X4.83925 Y-3.75937
G01 X4.83993 Y-3.75000
G01 X4.84149 Y-3.70000
G01 X4.83993 Y-3.75000
G01 X4.83925 Y-3.75937
G01 X4.83773 Y-3.76989
G01 X4.82301 Y-3.77791
G01 X4.81162 Y-3.78319
G01 X4.80924 Y-3.78412
G01 X4.79731 Y-3.78788
G01 X4.78553 Y-3.78993
G01 X4.77600 Y-3.79050
G01 X4.73700 Y-3.79050
G01 X4.72747 Y-3.79106
G01 X4.71159 Y-3.79426
G01 X4.70967 Y-3.79484
G01 X4.70059 Y-3.79812
G01 X4.69152 Y-3.80244
G01 X4.68874 Y-3.80393

G04 P0 ( dwell for no time -- G64 should not smooth over this point )
G00 Z1.000000 ( retract )

M5 ( Spindle off. )
G04 P1.000000
M9 ( Coolant off. )
M2 ( Program end. )

