( pcb2gcode 2.5.0 )
( Software-independent Gcode )

G94 ( Inches per minute feed rate. )
G20 ( Units == INCHES. )

G90 ( Absolute coordinates. )
G00 S12000 ( RPM spindle speed. )
G64 P0.00040 ( set maximum deviation from commanded toolpath )
G01 F360.00000 ( Feedrate. )


G00 Z1.00000 (Retract to tool change height)
T1
M5      (Spindle stop.)
G04 P1.00000 (Wait for spindle to stop)
(MSG, Change tool bit to mill diameter 0.03937in)
M6      (Tool change.)
M0      (Temporary machine stop.)
M3 ( Spindle on clockwise. )
G04 P1.00000 (Wait for spindle to get up to speed)
G04 P0 ( dwell for no time -- G64 should not smooth over this point )
G00 Z0.08000 ( retract )

G00 X4.51968 Y-3.97022 ( rapid move to begin. )
G01 F180.00000
( Mill infeed pass 1/1 )
G01 Z-0.04000
G04 P0 ( dwell for no time -- G64 should not smooth over this point )
G01 F360.00000
G01 X4.51968 Y-3.97022
G01 X4.51968 Y-3.95565
G01 X4.51834 Y-3.95512
G01 X4.51968 Y-3.95565
G01 X4.53006 Y-3.94476
G01 X4.56763 Y-3.90708
G01 X4.58020 Y-3.89322
G01 X4.58950 Y-3.88083
G01 X4.59188 Y-3.87728
G01 X4.59751 Y-3.86797
G01 X4.60288 Y-3.85696
G01 X4.60473 Y-3.85232
G01 X4.60839 Y-3.84037
G01 X4.60843 Y-3.81384
G01 X4.60830 Y-3.81383
G01 X4.60843 Y-3.81384
G01 X4.60864 Y-3.81192
G01 X4.60932 Y-3.80848
G01 X4.61051 Y-3.80502
G01 X4.61026 Y-3.80492
G01 X4.61051 Y-3.80502
G01 X4.61186 Y-3.80252
G01 X4.61411 Y-3.79927
G01 X4.61399 Y-3.79917
G01 X4.61411 Y-3.79927
G01 X4.61604 Y-3.79718
G01 X4.61792 Y-3.79562
G01 X4.61784 Y-3.79552
G01 X4.61792 Y-3.79562
G01 X4.62122 Y-3.79344
G01 X4.62340 Y-3.79235
G01 X4.62332 Y-3.79216
G01 X4.62340 Y-3.79235
G01 X4.62609 Y-3.79142
G01 X4.62996 Y-3.79063
G01 X4.62994 Y-3.79044
G01 X4.62996 Y-3.79063
G01 X4.63320 Y-3.79039
G01 X4.63684 Y-3.79077
G01 X4.63685 Y-3.79066
G01 X4.63684 Y-3.79077
G01 X4.64111 Y-3.79168
G01 X4.64478 Y-3.79344
G01 X4.64486 Y-3.79331
G01 X4.64478 Y-3.79344
G01 X4.64905 Y-3.79637
G01 X4.65137 Y-3.79864
G01 X4.65161 Y-3.79843
G01 X4.65137 Y-3.79864
G01 X4.65435 Y-3.80287
G01 X4.65606 Y-3.80644
G01 X4.66052 Y-3.80833
G01 X4.66722 Y-3.81244
G01 X4.67066 Y-3.81078
G01 X4.66722 Y-3.81244
G01 X4.66615 Y-3.82007
G01 X4.66580 Y-3.82375
G01 X4.66534 Y-3.83497
G01 X4.66580 Y-3.84425
G01 X4.66618 Y-3.84812
G01 X4.66763 Y-3.85780
G01 X4.67045 Y-3.86939
G01 X4.67129 Y-3.87221
G01 X4.67387 Y-3.87983
G01 X4.67570 Y-3.88375
G01 X4.67835 Y-3.88718
G01 X4.68169 Y-3.88994
G01 X4.68554 Y-3.89191
G01 X4.70031 Y-3.89744
G01 X4.71230 Y-3.90059
G01 X4.72436 Y-3.90247
G01 X4.73603 Y-3.90316
G01 X4.81660 Y-3.90318
G01 X4.82604 Y-3.90364
G01 X4.83772 Y-3.90318
G01 X4.84842 Y-3.90167
G01 X4.85525 Y-3.90026
G01 X4.85924 Y-3.89893
G01 X4.86286 Y-3.89677
G01 X4.86594 Y-3.89390
G01 X4.86833 Y-3.89043
G01 X4.87452 Y-3.87884
G01 X4.87839 Y-3.86901
G01 X4.87836 Y-3.75000
G01 X4.87874 Y-3.74588
G01 X4.87956 Y-3.74264
G01 X4.87964 Y-3.73937
G01 X4.87522 Y-3.73439
G01 X4.87964 Y-3.73937
G01 X4.88088 Y-3.73937
G01 X4.88221 Y-3.73684
G01 X4.88415 Y-3.73423
G01 X4.88401 Y-3.73411
G01 X4.88415 Y-3.73423
G01 X4.88754 Y-3.73089
G01 X4.88984 Y-3.72921
G01 X4.88972 Y-3.72902
G01 X4.88984 Y-3.72921
G01 X4.89236 Y-3.72788
G01 X4.89606 Y-3.72642
G01 X4.89602 Y-3.72627
G01 X4.89606 Y-3.72642
G01 X4.89888 Y-3.72574
G01 X4.90190 Y-3.72542
G01 X4.90189 Y-3.72522
G01 X4.90190 Y-3.72542
G01 X4.90479 Y-3.72547
G01 X4.90953 Y-3.72633
G01 X4.90958 Y-3.72615
G01 X4.90953 Y-3.72633
G01 X4.91190 Y-3.72706
G01 X4.91501 Y-3.72855
G01 X4.91508 Y-3.72842
G01 X4.91501 Y-3.72855
G01 X4.91713 Y-3.72985
G01 X4.91936 Y-3.73170
G01 X4.91946 Y-3.73159
G01 X4.91936 Y-3.73170
G01 X4.92239 Y-3.73488
G01 X4.92405 Y-3.73726
G01 X4.92421 Y-3.73716
G01 X4.92405 Y-3.73726
G01 X4.92546 Y-3.73995
G01 X4.92646 Y-3.74267
G01 X4.92662 Y-3.74262
G01 X4.92646 Y-3.74267
G01 X4.92730 Y-3.74654
G01 X4.92767 Y-3.74962
G01 X4.92747 Y-3.91319
G01 X4.92758 Y-3.91320
G01 X4.92747 Y-3.91319
G01 X4.92700 Y-3.91640
G01 X4.92631 Y-3.91874
G01 X4.92645 Y-3.91879
G01 X4.92631 Y-3.91874
G01 X4.92458 Y-3.92277
G01 X4.92330 Y-3.92490
G01 X4.92350 Y-3.92504
G01 X4.92330 Y-3.92490
G01 X4.92064 Y-3.92816
G01 X4.91063 Y-3.93811
G01 X4.91063 Y-3.96063
G01 X4.91639 Y-3.96639
G01 X4.91063 Y-3.96063
G01 X4.54212 Y-3.96063
G01 X4.51968 Y-3.97022
G01 X4.51968 Y-3.98031
G01 X4.93031 Y-3.98031
G01 X4.93608 Y-3.98608
G01 X4.93031 Y-3.98031
G01 X4.93031 Y-3.71969
G01 X4.93608 Y-3.71392
G01 X4.93031 Y-3.71969
G01 X4.86062 Y-3.71969
G01 X4.85525 Y-3.71414
G01 X4.86062 Y-3.71969
G01 X4.85960 Y-3.75068
G01 X4.85908 Y-3.75876
G01 X4.85841 Y-3.76447
G01 X4.85712 Y-3.76483
G01 X4.85841 Y-3.76447
G01 X4.86371 Y-3.77170
G01 X4.86979 Y-3.78174
G01 X4.87185 Y-3.78560
G01 X4.87639 Y-3.79542
G01 X4.87839 Y-3.80064
G01 X4.87839 Y-3.90081
G01 X4.87081 Y-3.90839
G01 X4.67480 Y-3.90839
G01 X4.67087 Y-3.90639
G01 X4.66420 Y-3.90086
G01 X4.65890 Y-3.89401
G01 X4.65761 Y-3.89124
G01 X4.65769 Y-3.81460
G01 X4.65736 Y-3.81192
G01 X4.65677 Y-3.80888
G01 X4.65581 Y-3.80577
G01 X4.65414 Y-3.80252
G01 X4.65238 Y-3.79992
G01 X4.65082 Y-3.79804
G01 X4.64808 Y-3.79562
G01 X4.64371 Y-3.79286
G01 X4.64185 Y-3.79204
G01 X4.63991 Y-3.79142
G01 X4.63483 Y-3.79048
G01 X4.63117 Y-3.79048
G01 X4.62648 Y-3.79132
G01 X4.62377 Y-3.79219
G01 X4.62087 Y-3.79365
G01 X4.61727 Y-3.79611
G01 X4.61490 Y-3.79834
G01 X4.61315 Y-3.80058
G01 X4.61165 Y-3.80287
G01 X4.61068 Y-3.80465
G01 X4.60953 Y-3.80769
G01 X4.60877 Y-3.81116
G01 X4.60839 Y-3.81500
G01 X4.60839 Y-3.88799
G01 X4.60524 Y-3.89265
G01 X4.59594 Y-3.90504
G01 X4.59349 Y-3.90799
G01 X4.58098 Y-3.92160
G01 X4.54212 Y-3.96063
G01 X4.51968 Y-3.97022
G01 X4.51968 Y-3.98031
G01 X4.50000 Y-4.00000
G01 X4.50000 Y-3.94795
G01 X4.50625 Y-3.94117
G01 X4.51598 Y-3.93100
G01 X4.55311 Y-3.89379
G01 X4.56445 Y-3.88140
G01 X4.57375 Y-3.86901
G01 X4.58067 Y-3.85778
G01 X4.58591 Y-3.84655
G01 X4.59066 Y-3.83106
G01 X4.59104 Y-3.82914
G01 X4.59245 Y-3.81500
G01 X4.59289 Y-3.78703
G01 X4.55187 Y-3.74483
G01 X4.54040 Y-3.73194
G01 X4.53847 Y-3.72959
G01 X4.52163 Y-3.70691
G01 X4.51734 Y-3.70000
G01 X4.50695 Y-3.70000
G01 X4.51968 Y-3.73731
G01 X4.52519 Y-3.74444
G01 X4.53773 Y-3.75853
G01 X4.57302 Y-3.79493
G01 X4.57450 Y-3.79434
G01 X4.57302 Y-3.79493
G01 X4.57297 Y-3.80113
G01 X4.57395 Y-3.80299
G01 X4.57517 Y-3.80588
G01 X4.57617 Y-3.80940
G01 X4.57643 Y-3.80934
G01 X4.57617 Y-3.80940
G01 X4.57649 Y-3.81223
G01 X4.57647 Y-3.81618
G01 X4.57663 Y-3.81619
G01 X4.57647 Y-3.81618
G01 X4.57617 Y-3.81860
G01 X4.57531 Y-3.82173
G01 X4.57541 Y-3.82177
G01 X4.57531 Y-3.82173
G01 X4.57321 Y-3.82646
G01 X4.57331 Y-3.82652
G01 X4.57321 Y-3.82646
G01 X4.57137 Y-3.82914
G01 X4.56872 Y-3.83209
G01 X4.56584 Y-3.83434
G01 X4.56338 Y-3.83578
G01 X4.56347 Y-3.83596
G01 X4.56338 Y-3.83578
G01 X4.55936 Y-3.83744
G01 X4.55622 Y-3.83824
G01 X4.55626 Y-3.83846
G01 X4.55622 Y-3.83824
G01 X4.55340 Y-3.83851
G01 X4.54623 Y-3.83853
G01 X4.54181 Y-3.84596
G01 X4.53937 Y-3.84924
G01 X4.53937 Y-3.83854
G01 X4.50604 Y-3.83861
G01 X4.50270 Y-3.83837
G01 X4.50266 Y-3.83860
G01 X4.50270 Y-3.83837
G01 X4.50000 Y-3.83785
G01 X4.50229 Y-3.83832
G01 X4.50525 Y-3.83859
G01 X4.51968 Y-3.83858
G01 X4.51968 Y-3.89942
G01 X4.52675 Y-3.89234
G01 X4.53937 Y-3.84924
G01 X4.52675 Y-3.89234
G01 X4.51968 Y-3.89942
G01 X4.50752 Y-3.92882
G01 X4.51968 Y-3.89942
G01 X4.53888 Y-3.88019
G01 X4.54931 Y-3.86883
G01 X4.55844 Y-3.85654
G01 X4.56334 Y-3.84844
G01 X4.56741 Y-3.83990
G01 X4.57027 Y-3.83038
G01 X4.57187 Y-3.82850
G01 X4.57321 Y-3.82646
G01 X4.57531 Y-3.82173
G01 X4.57601 Y-3.81940
G01 X4.57636 Y-3.81739
G01 X4.57649 Y-3.81223
G01 X4.57617 Y-3.80940
G01 X4.57545 Y-3.80665
G01 X4.57395 Y-3.80299
G01 X4.57257 Y-3.80050
G01 X4.57145 Y-3.79879
G01 X4.56746 Y-3.79489
G01 X4.56753 Y-3.79480
G01 X4.56746 Y-3.79489
G01 X4.56550 Y-3.79343
G01 X4.56338 Y-3.79222
G01 X4.56345 Y-3.79208
G01 X4.56338 Y-3.79222
G01 X4.55894 Y-3.79042
G01 X4.55612 Y-3.78974
G01 X4.55616 Y-3.78951
G01 X4.55612 Y-3.78974
G01 X4.55235 Y-3.78940
G01 X4.54028 Y-3.78942
G01 X4.53937 Y-3.78846
G01 X4.52698 Y-3.75742
G01 X4.53937 Y-3.78846
G01 X4.53937 Y-3.78942
G01 X4.50460 Y-3.78949
G01 X4.50218 Y-3.78970
G01 X4.50000 Y-3.79014
G01 X4.50000 Y-3.70000
G01 X4.95000 Y-3.70000
G01 X4.95000 Y-4.00000
G01 X4.50000 Y-4.00000
G01 X4.50000 Y-3.83785
G01 X4.49536 Y-3.83612
G01 X4.49216 Y-3.83434
G01 X4.48964 Y-3.83230
G01 X4.48742 Y-3.83007
G01 X4.48613 Y-3.82850
G01 X4.48422 Y-3.82538
G01 X4.48231 Y-3.82058
G01 X4.48159 Y-3.81699
G01 X4.48149 Y-3.81263
G01 X4.48169 Y-3.81020
G01 X4.48231 Y-3.80742
G01 X4.48388 Y-3.80336
G01 X4.48500 Y-3.80119
G01 X4.48637 Y-3.79917
G01 X4.48799 Y-3.79735
G01 X4.49054 Y-3.79489
G01 X4.49319 Y-3.79300
G01 X4.49573 Y-3.79172
G01 X4.49826 Y-3.79069
G01 X4.50019 Y-3.79009
G01 X4.50014 Y-3.78989
G01 X4.50019 Y-3.79009
G01 X4.50218 Y-3.78970
G01 X4.50459 Y-3.78945
G01 X4.51968 Y-3.78946
G01 X4.51968 Y-3.73731
G01 X4.50695 Y-3.70000
G01 X4.51734 Y-3.70000
G01 X4.52163 Y-3.70691
G01 X4.53847 Y-3.72959
G01 X4.54040 Y-3.73194
G01 X4.55187 Y-3.74483
G01 X4.57275 Y-3.76641
G01 X4.58682 Y-3.75264
G01 X4.59964 Y-3.76583
G01 X4.59884 Y-3.76829
G01 X4.59964 Y-3.76583
G01 X4.60434 Y-3.76510
G01 X4.59964 Y-3.76583
G01 X4.56630 Y-3.73144
G01 X4.55584 Y-3.71969
G01 X4.52995 Y-3.70806
G01 X4.55584 Y-3.71969
G01 X4.82123 Y-3.71969
G01 X4.82755 Y-3.71362
G01 X4.82123 Y-3.71969
G01 X4.82027 Y-3.74901
G01 X4.81965 Y-3.75734
G01 X4.82215 Y-3.75890
G01 X4.81965 Y-3.75734
G01 X4.81423 Y-3.76029
G01 X4.80390 Y-3.76510
G01 X4.79306 Y-3.76868
G01 X4.78423 Y-3.77018
G01 X4.77909 Y-3.77145
G01 X4.77677 Y-3.77159
G01 X4.72465 Y-3.77161
G01 X4.70771 Y-3.77496
G01 X4.70298 Y-3.77632
G01 X4.69391 Y-3.77960
G01 X4.69094 Y-3.78091
G01 X4.69077 Y-3.78295
G01 X4.69094 Y-3.78091
G01 X4.69080 Y-3.78080
G01 X4.68045 Y-3.77442
G01 X4.67760 Y-3.77287
G01 X4.67482 Y-3.77161
G01 X4.72465 Y-3.77161
G01 X4.61946 Y-3.77155
G01 X4.61944 Y-3.77167
G01 X4.61946 Y-3.77155
G01 X4.61448 Y-3.77068
G01 X4.61140 Y-3.76965
G01 X4.61128 Y-3.76993
G01 X4.61140 Y-3.76965
G01 X4.60887 Y-3.76835
G01 X4.60559 Y-3.76614
G01 X4.60290 Y-3.76366
G01 X4.60265 Y-3.76389
G01 X4.60290 Y-3.76366
G01 X4.60162 Y-3.76208
G01 X4.59986 Y-3.75948
G01 X4.59819 Y-3.75623
G01 X4.59789 Y-3.75635
G01 X4.59819 Y-3.75623
G01 X4.59732 Y-3.75352
G01 X4.59663 Y-3.75004
G01 X4.59639 Y-3.74720
G01 X4.59663 Y-3.74355
G01 X4.59742 Y-3.74009
G01 X4.59804 Y-3.73815
G01 X4.59793 Y-3.73811
G01 X4.59804 Y-3.73815
G01 X4.59980 Y-3.73448
G01 X4.60186 Y-3.73159
G01 X4.60318 Y-3.73004
G01 X4.60309 Y-3.72996
G01 X4.60318 Y-3.73004
G01 X4.60621 Y-3.72732
G01 X4.60921 Y-3.72544
G01 X4.61102 Y-3.72451
G01 X4.61093 Y-3.72428
G01 X4.61102 Y-3.72451
G01 X4.61409 Y-3.72342
G01 X4.61792 Y-3.72264
G01 X4.62023 Y-3.72241
G01 X4.62021 Y-3.72228
G01 X4.62023 Y-3.72241
G01 X4.77013 Y-3.72239
G01 X4.77438 Y-3.72146
G01 X4.77999 Y-3.72159
G01 X4.78002 Y-3.72139
G01 X4.77999 Y-3.72159
G01 X4.78200 Y-3.72191
G01 X4.78397 Y-3.72243
G01 X4.78765 Y-3.72388
G01 X4.78773 Y-3.72370
G01 X4.78765 Y-3.72388
G01 X4.79056 Y-3.72546
G01 X4.79329 Y-3.72757
G01 X4.79344 Y-3.72739
G01 X4.79329 Y-3.72757
G01 X4.79561 Y-3.72993
G01 X4.79814 Y-3.73352
G01 X4.79826 Y-3.73344
G01 X4.79814 Y-3.73352
G01 X4.79981 Y-3.73677
G01 X4.80065 Y-3.73937
G01 X4.80114 Y-3.73930
G01 X4.80088 Y-3.73937
G01 X4.80085 Y-3.74027
G01 X4.80143 Y-3.74336
G01 X4.80161 Y-3.74620
G01 X4.80175 Y-3.74620
G01 X4.80161 Y-3.74620
G01 X4.80148 Y-3.74823
G01 X4.80087 Y-3.75215
G01 X4.80010 Y-3.75447
G01 X4.79914 Y-3.75671
G01 X4.79925 Y-3.75677
G01 X4.79914 Y-3.75671
G01 X4.79814 Y-3.75848
G01 X4.79617 Y-3.76136
G01 X4.79626 Y-3.76143
G01 X4.79617 Y-3.76136
G01 X4.79466 Y-3.76313
G01 X4.79146 Y-3.76611
G01 X4.79153 Y-3.76619
G01 X4.79146 Y-3.76611
G01 X4.78945 Y-3.76760
G01 X4.78721 Y-3.76900
G01 X4.78451 Y-3.77008
G01 X4.78213 Y-3.77077
G01 X4.77870 Y-3.77142
G01 X4.77600 Y-3.77161
G01 X4.62100 Y-3.77161
G01 X4.61869 Y-3.77147
G01 X4.61409 Y-3.77058
G01 X4.61065 Y-3.76932
G01 X4.60887 Y-3.76835
G01 X4.60592 Y-3.76638
G01 X4.60318 Y-3.76396
G01 X4.60162 Y-3.76208
G01 X4.59986 Y-3.75948
G01 X4.59819 Y-3.75623
G01 X4.59715 Y-3.75272
G01 X4.59663 Y-3.75004
G01 X4.59640 Y-3.74761
G01 X4.58682 Y-3.75264
G01 X4.57275 Y-3.76641
G01 X4.59289 Y-3.78702
G01 X4.62100 Y-3.78206
G01 X4.62535 Y-3.78147
G01 X4.62727 Y-3.78128
G01 X4.63873 Y-3.78128
G01 X4.64065 Y-3.78147
G01 X4.65265 Y-3.78388
G01 X4.65457 Y-3.78446
G01 X4.66833 Y-3.79023
G01 X4.67025 Y-3.79125
G01 X4.67900 Y-3.79656
G01 X4.68874 Y-3.80393
G01 X4.68674 Y-3.81500
G01 X4.68565 Y-3.82280
G01 X4.68500 Y-3.83400
G01 X4.70471 Y-3.83400
G01 X4.71244 Y-3.83258
G01 X4.71240 Y-3.83461
G01 X4.71257 Y-3.83664
G01 X4.71242 Y-3.83666
G01 X4.71257 Y-3.83664
G01 X4.71364 Y-3.84169
G01 X4.71486 Y-3.84471
G01 X4.71457 Y-3.84485
G01 X4.71486 Y-3.84471
G01 X4.71762 Y-3.84908
G01 X4.71890 Y-3.85066
G01 X4.72034 Y-3.85210
G01 X4.72011 Y-3.85235
G01 X4.72034 Y-3.85210
G01 X4.72192 Y-3.85338
G01 X4.72452 Y-3.85514
G01 X4.72777 Y-3.85681
G01 X4.72764 Y-3.85713
G01 X4.72777 Y-3.85681
G01 X4.73128 Y-3.85785
G01 X4.73430 Y-3.85842
G01 X4.73699 Y-3.85870
G01 X4.82013 Y-3.85861
G01 X4.82274 Y-3.85923
G01 X4.82604 Y-3.85951
G01 X4.82604 Y-3.85967
G01 X4.82604 Y-3.85951
G01 X4.83039 Y-3.85936
G01 X4.83319 Y-3.85880
G01 X4.83323 Y-3.85899
G01 X4.83319 Y-3.85880
G01 X4.83844 Y-3.85684
G01 X4.84090 Y-3.85530
G01 X4.84328 Y-3.85343
G01 X4.84587 Y-3.85075
G01 X4.84598 Y-3.85085
G01 X4.84587 Y-3.85075
G01 X4.84814 Y-3.84748
G01 X4.84932 Y-3.84535
G01 X4.84945 Y-3.84541
G01 X4.84932 Y-3.84535
G01 X4.85086 Y-3.84114
G01 X4.85148 Y-3.83723
G01 X4.85161 Y-3.83520
G01 X4.85179 Y-3.83520
G01 X4.85161 Y-3.83520
G01 X4.85148 Y-3.83277
G01 X4.85077 Y-3.82887
G01 X4.85087 Y-3.82885
G01 X4.85077 Y-3.82887
G01 X4.85022 Y-3.82688
G01 X4.84928 Y-3.82457
G01 X4.84939 Y-3.82452
G01 X4.84928 Y-3.82457
G01 X4.84760 Y-3.82155
G01 X4.84637 Y-3.81986
G01 X4.84647 Y-3.81978
G01 X4.84637 Y-3.81986
G01 X4.84256 Y-3.81581
G01 X4.83882 Y-3.81309
G01 X4.83598 Y-3.81151
G01 X4.83607 Y-3.81129
G01 X4.83598 Y-3.81151
G01 X4.83330 Y-3.81053
G01 X4.82870 Y-3.80958
G01 X4.82872 Y-3.80942
G01 X4.82870 Y-3.80958
G01 X4.82600 Y-3.80939
G01 X4.73583 Y-3.80933
G01 X4.73128 Y-3.81015
G01 X4.72837 Y-3.81096
G01 X4.71638 Y-3.81331
G01 X4.70819 Y-3.81630
G01 X4.70635 Y-3.81718
G01 X4.70358 Y-3.81507
G01 X4.70635 Y-3.81718
G01 X4.70509 Y-3.82617
G01 X4.70471 Y-3.83400
G01 X4.70514 Y-3.84278
G01 X4.70642 Y-3.85101
G01 X4.70829 Y-3.85842
G01 X4.70584 Y-3.86065
G01 X4.70829 Y-3.85842
G01 X4.71321 Y-3.86022
G01 X4.72098 Y-3.86226
G01 X4.72966 Y-3.86343
G01 X4.73748 Y-3.86384
G01 X4.81710 Y-3.86381
G01 X4.82747 Y-3.86430
G01 X4.83479 Y-3.86390
G01 X4.83822 Y-3.86339
G01 X4.84026 Y-3.86617
G01 X4.83822 Y-3.86339
G01 X4.83866 Y-3.86258
G01 X4.84171 Y-3.85471
G01 X4.84420 Y-3.85259
G01 X4.84587 Y-3.85075
G01 X4.84814 Y-3.84748
G01 X4.84949 Y-3.84498
G01 X4.85047 Y-3.84230
G01 X4.85130 Y-3.83844
G01 X4.85158 Y-3.83602
G01 X4.85155 Y-3.83358
G01 X4.85130 Y-3.83156
G01 X4.85057 Y-3.82807
G01 X4.84994 Y-3.82610
G01 X4.84910 Y-3.82420
G01 X4.84783 Y-3.82190
G01 X4.84637 Y-3.81986
G01 X4.84340 Y-3.81661
G01 X4.84167 Y-3.81506
G01 X4.84041 Y-3.81141
G01 X4.83640 Y-3.80262
G01 X4.83204 Y-3.79540
G01 X4.83404 Y-3.78908
G01 X4.83204 Y-3.79540
G01 X4.81989 Y-3.80105
G01 X4.81641 Y-3.80245
G01 X4.80429 Y-3.80638
G01 X4.80069 Y-3.80727
G01 X4.78842 Y-3.80939
G01 X4.73661 Y-3.80940
G01 X4.73354 Y-3.80970
G01 X4.72931 Y-3.81065
G01 X4.72593 Y-3.81204
G01 X4.72588 Y-3.81195
G01 X4.72593 Y-3.81204
G01 X4.72154 Y-3.81480
G01 X4.71856 Y-3.81758
G01 X4.71608 Y-3.82118
G01 X4.71598 Y-3.82112
G01 X4.71608 Y-3.82118
G01 X4.71504 Y-3.82293
G01 X4.71419 Y-3.82477
G01 X4.71323 Y-3.82788
G01 X4.71310 Y-3.82784
G01 X4.71323 Y-3.82788
G01 X4.71244 Y-3.83258
G01 X4.70471 Y-3.83400
G01 X4.68500 Y-3.83400
G01 X4.68565 Y-3.84520
G01 X4.68710 Y-3.85489
G01 X4.68954 Y-3.86457
G01 X4.69250 Y-3.87349
G01 X4.70602 Y-3.87861
G01 X4.71712 Y-3.88150
G01 X4.72629 Y-3.88288
G01 X4.73700 Y-3.88350
G01 X4.81710 Y-3.88350
G01 X4.82604 Y-3.88395
G01 X4.83674 Y-3.88352
G01 X4.84552 Y-3.88220
G01 X4.85104 Y-3.88103
G01 X4.85673 Y-3.87043
G01 X4.86116 Y-3.85899
G01 X4.86175 Y-3.85707
G01 X4.86449 Y-3.84344
G01 X4.86468 Y-3.84152
G01 X4.86468 Y-3.82848
G01 X4.86449 Y-3.82655
G01 X4.86272 Y-3.81645
G01 X4.85946 Y-3.80606
G01 X4.85853 Y-3.80368
G01 X4.85398 Y-3.79386
G01 X4.85296 Y-3.79194
G01 X4.84687 Y-3.78190
G01 X4.83773 Y-3.76989
G01 X4.83925 Y-3.75937
G01 X4.83993 Y-3.75000
G01 X4.84149 Y-3.70000
G01 X4.83993 Y-3.75000
G01 X4.83925 Y-3.75937
G01 X4.83773 Y-3.76989
G01 X4.82301 Y-3.77791
G01 X4.81162 Y-3.78319
G01 X4.80924 Y-3.78412
G01 X4.79731 Y-3.78788
G01 X4.78553 Y-3.78993
G01 X4.77600 Y-3.79050
G01 X4.73700 Y-3.79050
G01 X4.72747 Y-3.79106
G01 X4.71159 Y-3.79426
G01 X4.70967 Y-3.79484
G01 X4.70059 Y-3.79812
G01 X4.69152 Y-3.80244
G01 X4.68874 Y-3.80393

G04 P0 ( dwell for no time -- G64 should not smooth over this point )
G00 Z1.000000 ( retract )

M5 ( Spindle off. )
G04 P1.000000
M9 ( Coolant off. )
M2 ( Program end. )

