( pcb2gcode 2.4.0 )
( Software-independent Gcode )

G94 ( Inches per minute feed rate. )
G20 ( Units == INCHES. )

G90 ( Absolute coordinates. )
G00 S12000 ( RPM spindle speed. )
G64 P0.00040 ( set maximum deviation from commanded toolpath )
G01 F360.00000 ( Feedrate. )


G00 Z1.00000 (Retract to tool change height)
T0
M5      (Spindle stop.)
G04 P1.00000 (Wait for spindle to stop)
(MSG, Change tool bit to mill diameter 0.03937in)
M6      (Tool change.)
M0      (Temporary machine stop.)
M3 ( Spindle on clockwise. )
G04 P1.00000 (Wait for spindle to get up to speed)
G04 P0 ( dwell for no time -- G64 should not smooth over this point )
G00 Z0.08000 ( retract )

G00 X4.51968 Y-3.97022 ( rapid move to begin. )
G01 F180.00000
( Mill infeed pass 1/1 )
G01 Z-0.04000
G04 P0 ( dwell for no time -- G64 should not smooth over this point )
G01 F360.00000
G01 X4.51968 Y-3.97022
G01 X4.51968 Y-3.95565
G01 X4.51821 Y-3.95504
G01 X4.51968 Y-3.95565
G01 X4.53006 Y-3.94476
G01 X4.56705 Y-3.90770
G01 X4.57897 Y-3.89470
G01 X4.59012 Y-3.87995
G01 X4.59751 Y-3.86797
G01 X4.60288 Y-3.85696
G01 X4.60410 Y-3.85408
G01 X4.60839 Y-3.84037
G01 X4.60830 Y-3.81499
G01 X4.60915 Y-3.80928
G01 X4.61027 Y-3.80558
G01 X4.60991 Y-3.80544
G01 X4.61027 Y-3.80558
G01 X4.61209 Y-3.80218
G01 X4.61315 Y-3.80058
G01 X4.61560 Y-3.79760
G01 X4.61533 Y-3.79733
G01 X4.61560 Y-3.79760
G01 X4.61858 Y-3.79515
G01 X4.62018 Y-3.79408
G01 X4.62358 Y-3.79227
G01 X4.62343 Y-3.79191
G01 X4.62358 Y-3.79227
G01 X4.62728 Y-3.79115
G01 X4.62916 Y-3.79077
G01 X4.63300 Y-3.79039
G01 X4.63300 Y-3.79001
G01 X4.63300 Y-3.79039
G01 X4.63684 Y-3.79077
G01 X4.63872 Y-3.79115
G01 X4.64242 Y-3.79227
G01 X4.64256 Y-3.79191
G01 X4.64242 Y-3.79227
G01 X4.64582 Y-3.79408
G01 X4.64742 Y-3.79515
G01 X4.65040 Y-3.79760
G01 X4.65058 Y-3.79741
G01 X4.65040 Y-3.79760
G01 X4.65400 Y-3.80213
G01 X4.65573 Y-3.80558
G01 X4.65598 Y-3.80640
G01 X4.66052 Y-3.80833
G01 X4.66722 Y-3.81244
G01 X4.67066 Y-3.81078
G01 X4.66722 Y-3.81244
G01 X4.66615 Y-3.82007
G01 X4.66580 Y-3.82375
G01 X4.66534 Y-3.83497
G01 X4.66580 Y-3.84425
G01 X4.66618 Y-3.84812
G01 X4.66763 Y-3.85780
G01 X4.67045 Y-3.86939
G01 X4.67129 Y-3.87221
G01 X4.67387 Y-3.87983
G01 X4.67570 Y-3.88375
G01 X4.67835 Y-3.88718
G01 X4.68169 Y-3.88994
G01 X4.68554 Y-3.89191
G01 X4.70031 Y-3.89744
G01 X4.71230 Y-3.90059
G01 X4.72436 Y-3.90247
G01 X4.73603 Y-3.90316
G01 X4.81660 Y-3.90318
G01 X4.82604 Y-3.90364
G01 X4.83772 Y-3.90318
G01 X4.84842 Y-3.90167
G01 X4.85525 Y-3.90026
G01 X4.85924 Y-3.89893
G01 X4.86286 Y-3.89677
G01 X4.86594 Y-3.89390
G01 X4.86833 Y-3.89043
G01 X4.87452 Y-3.87884
G01 X4.87839 Y-3.86901
G01 X4.87836 Y-3.75000
G01 X4.87858 Y-3.74711
G01 X4.87954 Y-3.74329
G01 X4.87964 Y-3.73937
G01 X4.87522 Y-3.73439
G01 X4.87964 Y-3.73937
G01 X4.88091 Y-3.73937
G01 X4.88254 Y-3.73633
G01 X4.88499 Y-3.73335
G01 X4.88487 Y-3.73324
G01 X4.88499 Y-3.73335
G01 X4.88635 Y-3.73199
G01 X4.88933 Y-3.72954
G01 X4.88924 Y-3.72940
G01 X4.88933 Y-3.72954
G01 X4.89273 Y-3.72772
G01 X4.89451 Y-3.72699
G01 X4.89446 Y-3.72686
G01 X4.89451 Y-3.72699
G01 X4.90011 Y-3.72558
G01 X4.90107 Y-3.72549
G01 X4.90105 Y-3.72525
G01 X4.90107 Y-3.72549
G01 X4.90397 Y-3.72542
G01 X4.90872 Y-3.72615
G01 X4.90877 Y-3.72596
G01 X4.90872 Y-3.72615
G01 X4.91416 Y-3.72809
G01 X4.91501 Y-3.72855
G01 X4.91510 Y-3.72838
G01 X4.91501 Y-3.72855
G01 X4.91746 Y-3.73010
G01 X4.91965 Y-3.73199
G01 X4.91977 Y-3.73187
G01 X4.91965 Y-3.73199
G01 X4.92290 Y-3.73554
G01 X4.92445 Y-3.73799
G01 X4.92466 Y-3.73787
G01 X4.92445 Y-3.73799
G01 X4.92491 Y-3.73884
G01 X4.92685 Y-3.74428
G01 X4.92698 Y-3.74424
G01 X4.92685 Y-3.74428
G01 X4.92723 Y-3.74616
G01 X4.92765 Y-3.75001
G01 X4.92753 Y-3.91197
G01 X4.92713 Y-3.91581
G01 X4.92731 Y-3.91585
G01 X4.92713 Y-3.91581
G01 X4.92601 Y-3.91949
G01 X4.92528 Y-3.92127
G01 X4.92398 Y-3.92385
G01 X4.92416 Y-3.92396
G01 X4.92398 Y-3.92385
G01 X4.92231 Y-3.92622
G01 X4.92038 Y-3.92846
G01 X4.91063 Y-3.93811
G01 X4.91063 Y-3.96063
G01 X4.91639 Y-3.96639
G01 X4.91063 Y-3.96063
G01 X4.54212 Y-3.96063
G01 X4.51968 Y-3.97022
G01 X4.51968 Y-3.98031
G01 X4.93031 Y-3.98031
G01 X4.93608 Y-3.98608
G01 X4.93031 Y-3.98031
G01 X4.93031 Y-3.71969
G01 X4.93608 Y-3.71392
G01 X4.93031 Y-3.71969
G01 X4.86062 Y-3.71969
G01 X4.85525 Y-3.71414
G01 X4.86062 Y-3.71969
G01 X4.85960 Y-3.75068
G01 X4.85908 Y-3.75876
G01 X4.85841 Y-3.76447
G01 X4.85712 Y-3.76483
G01 X4.85841 Y-3.76447
G01 X4.86371 Y-3.77170
G01 X4.86979 Y-3.78174
G01 X4.87185 Y-3.78560
G01 X4.87639 Y-3.79542
G01 X4.87839 Y-3.80064
G01 X4.87839 Y-3.90081
G01 X4.87081 Y-3.90839
G01 X4.67480 Y-3.90839
G01 X4.67087 Y-3.90639
G01 X4.66420 Y-3.90086
G01 X4.65890 Y-3.89401
G01 X4.65761 Y-3.89124
G01 X4.65770 Y-3.81499
G01 X4.65685 Y-3.80928
G01 X4.65573 Y-3.80558
G01 X4.65391 Y-3.80218
G01 X4.65285 Y-3.80058
G01 X4.65040 Y-3.79760
G01 X4.64742 Y-3.79515
G01 X4.64582 Y-3.79408
G01 X4.64242 Y-3.79227
G01 X4.63872 Y-3.79115
G01 X4.63684 Y-3.79077
G01 X4.63300 Y-3.79039
G01 X4.62916 Y-3.79077
G01 X4.62728 Y-3.79115
G01 X4.62358 Y-3.79227
G01 X4.62018 Y-3.79408
G01 X4.61858 Y-3.79515
G01 X4.61560 Y-3.79760
G01 X4.61315 Y-3.80058
G01 X4.61209 Y-3.80218
G01 X4.61027 Y-3.80558
G01 X4.60915 Y-3.80928
G01 X4.60877 Y-3.81116
G01 X4.60839 Y-3.81500
G01 X4.60839 Y-3.88799
G01 X4.60524 Y-3.89265
G01 X4.59594 Y-3.90504
G01 X4.59349 Y-3.90799
G01 X4.58098 Y-3.92160
G01 X4.54212 Y-3.96063
G01 X4.51968 Y-3.97022
G01 X4.51968 Y-3.98031
G01 X4.50000 Y-4.00000
G01 X4.50000 Y-3.94795
G01 X4.50625 Y-3.94117
G01 X4.51598 Y-3.93100
G01 X4.55311 Y-3.89379
G01 X4.56445 Y-3.88140
G01 X4.57375 Y-3.86901
G01 X4.58067 Y-3.85778
G01 X4.58591 Y-3.84655
G01 X4.59066 Y-3.83106
G01 X4.59104 Y-3.82914
G01 X4.59245 Y-3.81500
G01 X4.59289 Y-3.78703
G01 X4.55187 Y-3.74483
G01 X4.54040 Y-3.73194
G01 X4.53847 Y-3.72959
G01 X4.52163 Y-3.70691
G01 X4.51734 Y-3.70000
G01 X4.50695 Y-3.70000
G01 X4.51968 Y-3.73731
G01 X4.52519 Y-3.74444
G01 X4.53773 Y-3.75853
G01 X4.57302 Y-3.79493
G01 X4.57450 Y-3.79434
G01 X4.57302 Y-3.79493
G01 X4.57297 Y-3.80128
G01 X4.57428 Y-3.80373
G01 X4.57501 Y-3.80551
G01 X4.57613 Y-3.80920
G01 X4.57649 Y-3.80913
G01 X4.57613 Y-3.80920
G01 X4.57651 Y-3.81304
G01 X4.57651 Y-3.81496
G01 X4.57613 Y-3.81880
G01 X4.57640 Y-3.81884
G01 X4.57613 Y-3.81880
G01 X4.57501 Y-3.82249
G01 X4.57428 Y-3.82427
G01 X4.57442 Y-3.82434
G01 X4.57428 Y-3.82427
G01 X4.57246 Y-3.82767
G01 X4.57001 Y-3.83065
G01 X4.56865 Y-3.83201
G01 X4.56567 Y-3.83446
G01 X4.56583 Y-3.83467
G01 X4.56567 Y-3.83446
G01 X4.56052 Y-3.83707
G01 X4.55682 Y-3.83813
G01 X4.55685 Y-3.83829
G01 X4.55682 Y-3.83813
G01 X4.55300 Y-3.83851
G01 X4.54623 Y-3.83853
G01 X4.54181 Y-3.84596
G01 X4.53937 Y-3.84924
G01 X4.53937 Y-3.83854
G01 X4.50407 Y-3.83851
G01 X4.50406 Y-3.83863
G01 X4.50407 Y-3.83851
G01 X4.50311 Y-3.83842
G01 X4.49751 Y-3.83701
G01 X4.50311 Y-3.83842
G01 X4.50407 Y-3.83851
G01 X4.51968 Y-3.83858
G01 X4.51968 Y-3.89942
G01 X4.52675 Y-3.89234
G01 X4.53937 Y-3.84924
G01 X4.52675 Y-3.89234
G01 X4.51968 Y-3.89942
G01 X4.50752 Y-3.92882
G01 X4.51968 Y-3.89942
G01 X4.53888 Y-3.88019
G01 X4.54930 Y-3.86883
G01 X4.55770 Y-3.85764
G01 X4.56334 Y-3.84844
G01 X4.56717 Y-3.84047
G01 X4.57030 Y-3.83030
G01 X4.57246 Y-3.82767
G01 X4.57428 Y-3.82427
G01 X4.57501 Y-3.82249
G01 X4.57613 Y-3.81880
G01 X4.57651 Y-3.81496
G01 X4.57651 Y-3.81304
G01 X4.57613 Y-3.80920
G01 X4.57501 Y-3.80551
G01 X4.57428 Y-3.80373
G01 X4.57246 Y-3.80033
G01 X4.57001 Y-3.79735
G01 X4.57014 Y-3.79723
G01 X4.57001 Y-3.79735
G01 X4.56865 Y-3.79599
G01 X4.56567 Y-3.79354
G01 X4.56576 Y-3.79340
G01 X4.56567 Y-3.79354
G01 X4.56227 Y-3.79172
G01 X4.56049 Y-3.79099
G01 X4.56053 Y-3.79088
G01 X4.56049 Y-3.79099
G01 X4.55489 Y-3.78958
G01 X4.55491 Y-3.78945
G01 X4.55489 Y-3.78958
G01 X4.55196 Y-3.78939
G01 X4.54028 Y-3.78942
G01 X4.53937 Y-3.78846
G01 X4.52698 Y-3.75742
G01 X4.53937 Y-3.78846
G01 X4.53937 Y-3.78942
G01 X4.50500 Y-3.78949
G01 X4.50118 Y-3.78987
G01 X4.50000 Y-3.79023
G01 X4.50000 Y-3.70000
G01 X4.95000 Y-3.70000
G01 X4.95000 Y-4.00000
G01 X4.50000 Y-4.00000
G01 X4.50000 Y-3.83764
G01 X4.49751 Y-3.83701
G01 X4.49573 Y-3.83628
G01 X4.49233 Y-3.83446
G01 X4.48935 Y-3.83201
G01 X4.48799 Y-3.83065
G01 X4.48554 Y-3.82767
G01 X4.48372 Y-3.82427
G01 X4.48299 Y-3.82249
G01 X4.48187 Y-3.81880
G01 X4.48149 Y-3.81496
G01 X4.48149 Y-3.81304
G01 X4.48187 Y-3.80920
G01 X4.48299 Y-3.80551
G01 X4.48372 Y-3.80373
G01 X4.48554 Y-3.80033
G01 X4.48799 Y-3.79735
G01 X4.48935 Y-3.79599
G01 X4.49233 Y-3.79354
G01 X4.49573 Y-3.79172
G01 X4.49751 Y-3.79099
G01 X4.50118 Y-3.78987
G01 X4.50115 Y-3.78974
G01 X4.50118 Y-3.78987
G01 X4.50500 Y-3.78946
G01 X4.51968 Y-3.78946
G01 X4.51968 Y-3.73731
G01 X4.50695 Y-3.70000
G01 X4.51734 Y-3.70000
G01 X4.52163 Y-3.70691
G01 X4.53847 Y-3.72959
G01 X4.54040 Y-3.73194
G01 X4.55187 Y-3.74483
G01 X4.57275 Y-3.76641
G01 X4.58682 Y-3.75264
G01 X4.59964 Y-3.76583
G01 X4.59884 Y-3.76829
G01 X4.59964 Y-3.76583
G01 X4.60435 Y-3.76502
G01 X4.59964 Y-3.76583
G01 X4.56630 Y-3.73144
G01 X4.55584 Y-3.71969
G01 X4.52995 Y-3.70806
G01 X4.55584 Y-3.71969
G01 X4.82123 Y-3.71969
G01 X4.82755 Y-3.71362
G01 X4.82123 Y-3.71969
G01 X4.82027 Y-3.74901
G01 X4.81965 Y-3.75734
G01 X4.82234 Y-3.75910
G01 X4.81965 Y-3.75734
G01 X4.81423 Y-3.76029
G01 X4.80391 Y-3.76512
G01 X4.79306 Y-3.76869
G01 X4.78404 Y-3.77021
G01 X4.77984 Y-3.77123
G01 X4.77601 Y-3.77168
G01 X4.72465 Y-3.77161
G01 X4.70771 Y-3.77496
G01 X4.70298 Y-3.77632
G01 X4.69391 Y-3.77960
G01 X4.69094 Y-3.78091
G01 X4.69077 Y-3.78295
G01 X4.69094 Y-3.78091
G01 X4.69080 Y-3.78080
G01 X4.68045 Y-3.77442
G01 X4.67760 Y-3.77287
G01 X4.67482 Y-3.77161
G01 X4.72465 Y-3.77161
G01 X4.62099 Y-3.77170
G01 X4.61716 Y-3.77123
G01 X4.61528 Y-3.77085
G01 X4.61158 Y-3.76973
G01 X4.61145 Y-3.77007
G01 X4.61158 Y-3.76973
G01 X4.60818 Y-3.76791
G01 X4.60658 Y-3.76685
G01 X4.60360 Y-3.76440
G01 X4.60333 Y-3.76467
G01 X4.60360 Y-3.76440
G01 X4.60115 Y-3.76142
G01 X4.60008 Y-3.75982
G01 X4.59827 Y-3.75642
G01 X4.59791 Y-3.75656
G01 X4.59827 Y-3.75642
G01 X4.59715 Y-3.75272
G01 X4.59677 Y-3.75084
G01 X4.59639 Y-3.74700
G01 X4.59677 Y-3.74316
G01 X4.59715 Y-3.74128
G01 X4.59827 Y-3.73758
G01 X4.59791 Y-3.73744
G01 X4.59827 Y-3.73758
G01 X4.60008 Y-3.73418
G01 X4.60115 Y-3.73258
G01 X4.60360 Y-3.72960
G01 X4.60333 Y-3.72933
G01 X4.60360 Y-3.72960
G01 X4.60658 Y-3.72715
G01 X4.60818 Y-3.72608
G01 X4.61158 Y-3.72427
G01 X4.61144 Y-3.72391
G01 X4.61158 Y-3.72427
G01 X4.61528 Y-3.72315
G01 X4.61716 Y-3.72277
G01 X4.62099 Y-3.72230
G01 X4.77013 Y-3.72239
G01 X4.77315 Y-3.72170
G01 X4.77604 Y-3.72149
G01 X4.77603 Y-3.72137
G01 X4.77604 Y-3.72149
G01 X4.77796 Y-3.72149
G01 X4.78180 Y-3.72187
G01 X4.78183 Y-3.72170
G01 X4.78180 Y-3.72187
G01 X4.78549 Y-3.72299
G01 X4.78727 Y-3.72372
G01 X4.78731 Y-3.72362
G01 X4.78727 Y-3.72372
G01 X4.79222 Y-3.72669
G01 X4.79228 Y-3.72661
G01 X4.79507 Y-3.72930
G01 X4.79519 Y-3.72919
G01 X4.79507 Y-3.72930
G01 X4.79791 Y-3.73318
G01 X4.79973 Y-3.73658
G01 X4.79990 Y-3.73650
G01 X4.79973 Y-3.73658
G01 X4.80058 Y-3.73937
G01 X4.80088 Y-3.73937
G01 X4.80085 Y-3.74027
G01 X4.80123 Y-3.74216
G01 X4.80161 Y-3.74600
G01 X4.80173 Y-3.74600
G01 X4.80161 Y-3.74600
G01 X4.80129 Y-3.74985
G01 X4.79973 Y-3.75542
G01 X4.79989 Y-3.75548
G01 X4.79973 Y-3.75542
G01 X4.79791 Y-3.75882
G01 X4.79685 Y-3.76042
G01 X4.79695 Y-3.76049
G01 X4.79685 Y-3.76042
G01 X4.79383 Y-3.76394
G01 X4.79209 Y-3.76555
G01 X4.79216 Y-3.76563
G01 X4.79209 Y-3.76555
G01 X4.78801 Y-3.76845
G01 X4.78809 Y-3.76859
G01 X4.78801 Y-3.76845
G01 X4.78451 Y-3.77008
G01 X4.78172 Y-3.77085
G01 X4.77984 Y-3.77123
G01 X4.77600 Y-3.77161
G01 X4.62100 Y-3.77161
G01 X4.61716 Y-3.77123
G01 X4.61528 Y-3.77085
G01 X4.61158 Y-3.76973
G01 X4.60818 Y-3.76791
G01 X4.60658 Y-3.76685
G01 X4.60360 Y-3.76440
G01 X4.60115 Y-3.76142
G01 X4.60008 Y-3.75982
G01 X4.59827 Y-3.75642
G01 X4.59715 Y-3.75272
G01 X4.59677 Y-3.75084
G01 X4.59639 Y-3.74700
G01 X4.59601 Y-3.74700
G01 X4.58682 Y-3.75264
G01 X4.57275 Y-3.76641
G01 X4.59289 Y-3.78702
G01 X4.62100 Y-3.78206
G01 X4.62535 Y-3.78147
G01 X4.62727 Y-3.78128
G01 X4.63873 Y-3.78128
G01 X4.64065 Y-3.78147
G01 X4.65265 Y-3.78388
G01 X4.65457 Y-3.78446
G01 X4.66833 Y-3.79023
G01 X4.67900 Y-3.79656
G01 X4.68874 Y-3.80393
G01 X4.68674 Y-3.81500
G01 X4.68565 Y-3.82280
G01 X4.68500 Y-3.83400
G01 X4.70471 Y-3.83400
G01 X4.70514 Y-3.84278
G01 X4.70642 Y-3.85101
G01 X4.70829 Y-3.85842
G01 X4.70584 Y-3.86065
G01 X4.70829 Y-3.85842
G01 X4.71321 Y-3.86022
G01 X4.72098 Y-3.86226
G01 X4.72966 Y-3.86343
G01 X4.73748 Y-3.86384
G01 X4.81710 Y-3.86381
G01 X4.82747 Y-3.86430
G01 X4.83479 Y-3.86390
G01 X4.83822 Y-3.86339
G01 X4.84026 Y-3.86617
G01 X4.83822 Y-3.86339
G01 X4.83866 Y-3.86258
G01 X4.84176 Y-3.85459
G01 X4.84297 Y-3.85370
G01 X4.84506 Y-3.85170
G01 X4.84522 Y-3.85183
G01 X4.84506 Y-3.85170
G01 X4.84791 Y-3.84782
G01 X4.84973 Y-3.84442
G01 X4.85006 Y-3.84455
G01 X4.84973 Y-3.84442
G01 X4.85085 Y-3.84072
G01 X4.85123 Y-3.83884
G01 X4.85161 Y-3.83500
G01 X4.85187 Y-3.83501
G01 X4.85161 Y-3.83500
G01 X4.85123 Y-3.83116
G01 X4.85085 Y-3.82928
G01 X4.85096 Y-3.82925
G01 X4.85085 Y-3.82928
G01 X4.85008 Y-3.82648
G01 X4.84891 Y-3.82384
G01 X4.84905 Y-3.82376
G01 X4.84891 Y-3.82384
G01 X4.84845 Y-3.82299
G01 X4.84555 Y-3.81891
G01 X4.84564 Y-3.81884
G01 X4.84555 Y-3.81891
G01 X4.84394 Y-3.81717
G01 X4.84175 Y-3.81529
G01 X4.84041 Y-3.81141
G01 X4.83640 Y-3.80262
G01 X4.83204 Y-3.79540
G01 X4.83404 Y-3.78908
G01 X4.83204 Y-3.79540
G01 X4.81989 Y-3.80105
G01 X4.81641 Y-3.80245
G01 X4.80429 Y-3.80638
G01 X4.80069 Y-3.80727
G01 X4.78842 Y-3.80939
G01 X4.73699 Y-3.80931
G01 X4.73316 Y-3.80977
G01 X4.73128 Y-3.81015
G01 X4.72901 Y-3.81083
G01 X4.71638 Y-3.81330
G01 X4.70819 Y-3.81630
G01 X4.70635 Y-3.81718
G01 X4.70358 Y-3.81507
G01 X4.70635 Y-3.81718
G01 X4.70520 Y-3.82513
G01 X4.70465 Y-3.83400
G01 X4.71239 Y-3.83400
G01 X4.71277 Y-3.83016
G01 X4.71260 Y-3.83014
G01 X4.71277 Y-3.83016
G01 X4.71315 Y-3.82828
G01 X4.71427 Y-3.82458
G01 X4.71415 Y-3.82454
G01 X4.71427 Y-3.82458
G01 X4.71603 Y-3.82114
G01 X4.71960 Y-3.81660
G01 X4.71951 Y-3.81651
G01 X4.71960 Y-3.81660
G01 X4.72255 Y-3.81410
G01 X4.72758 Y-3.81127
G01 X4.72753 Y-3.81115
G01 X4.72758 Y-3.81127
G01 X4.73128 Y-3.81015
G01 X4.73316 Y-3.80977
G01 X4.73700 Y-3.80939
G01 X4.82600 Y-3.80939
G01 X4.82984 Y-3.80977
G01 X4.82986 Y-3.80961
G01 X4.82984 Y-3.80977
G01 X4.83172 Y-3.81015
G01 X4.83542 Y-3.81127
G01 X4.83548 Y-3.81111
G01 X4.83542 Y-3.81127
G01 X4.84046 Y-3.81408
G01 X4.84394 Y-3.81717
G01 X4.84555 Y-3.81891
G01 X4.84845 Y-3.82299
G01 X4.85008 Y-3.82648
G01 X4.85085 Y-3.82928
G01 X4.85123 Y-3.83116
G01 X4.85161 Y-3.83500
G01 X4.85123 Y-3.83884
G01 X4.85085 Y-3.84072
G01 X4.84973 Y-3.84442
G01 X4.84791 Y-3.84782
G01 X4.84506 Y-3.85170
G01 X4.84222 Y-3.85431
G01 X4.83727 Y-3.85728
G01 X4.83731 Y-3.85738
G01 X4.83727 Y-3.85728
G01 X4.83549 Y-3.85801
G01 X4.83180 Y-3.85913
G01 X4.83183 Y-3.85930
G01 X4.83180 Y-3.85913
G01 X4.82796 Y-3.85951
G01 X4.82604 Y-3.85951
G01 X4.82603 Y-3.85963
G01 X4.82604 Y-3.85951
G01 X4.82315 Y-3.85930
G01 X4.82013 Y-3.85861
G01 X4.73699 Y-3.85870
G01 X4.73316 Y-3.85823
G01 X4.73128 Y-3.85785
G01 X4.72758 Y-3.85673
G01 X4.72743 Y-3.85709
G01 X4.72758 Y-3.85673
G01 X4.72418 Y-3.85491
G01 X4.72258 Y-3.85385
G01 X4.71960 Y-3.85140
G01 X4.71933 Y-3.85167
G01 X4.71960 Y-3.85140
G01 X4.71715 Y-3.84842
G01 X4.71608 Y-3.84682
G01 X4.71427 Y-3.84342
G01 X4.71402 Y-3.84353
G01 X4.71427 Y-3.84342
G01 X4.71315 Y-3.83972
G01 X4.71277 Y-3.83784
G01 X4.71260 Y-3.83786
G01 X4.71277 Y-3.83784
G01 X4.71239 Y-3.83400
G01 X4.68500 Y-3.83400
G01 X4.68565 Y-3.84520
G01 X4.68710 Y-3.85489
G01 X4.68954 Y-3.86457
G01 X4.69250 Y-3.87349
G01 X4.70602 Y-3.87861
G01 X4.71712 Y-3.88150
G01 X4.72629 Y-3.88288
G01 X4.73700 Y-3.88350
G01 X4.81710 Y-3.88350
G01 X4.82604 Y-3.88395
G01 X4.83674 Y-3.88352
G01 X4.84552 Y-3.88220
G01 X4.85104 Y-3.88103
G01 X4.85673 Y-3.87043
G01 X4.86116 Y-3.85899
G01 X4.86175 Y-3.85707
G01 X4.86449 Y-3.84344
G01 X4.86468 Y-3.84152
G01 X4.86468 Y-3.82848
G01 X4.86449 Y-3.82655
G01 X4.86272 Y-3.81645
G01 X4.85946 Y-3.80606
G01 X4.85853 Y-3.80368
G01 X4.85398 Y-3.79386
G01 X4.85296 Y-3.79194
G01 X4.84687 Y-3.78190
G01 X4.83773 Y-3.76989
G01 X4.83925 Y-3.75937
G01 X4.83993 Y-3.75000
G01 X4.84149 Y-3.70000
G01 X4.83993 Y-3.75000
G01 X4.83925 Y-3.75937
G01 X4.83773 Y-3.76989
G01 X4.82301 Y-3.77791
G01 X4.81162 Y-3.78319
G01 X4.80924 Y-3.78412
G01 X4.79731 Y-3.78788
G01 X4.78553 Y-3.78993
G01 X4.77600 Y-3.79050
G01 X4.73700 Y-3.79050
G01 X4.72747 Y-3.79106
G01 X4.71159 Y-3.79426
G01 X4.70967 Y-3.79484
G01 X4.70059 Y-3.79812
G01 X4.69152 Y-3.80244
G01 X4.68874 Y-3.80393

G04 P0 ( dwell for no time -- G64 should not smooth over this point )
G00 Z1.000000 ( retract )

M5 ( Spindle off. )
G04 P1.000000
M9 ( Coolant off. )
M2 ( Program end. )

