( pcb2gcode 2.0.0 )
( Software-independent Gcode )

G94 ( Inches per minute feed rate. )
G20 ( Units == INCHES. )

G90 ( Absolute coordinates. )
G00 S12000 ( RPM spindle speed. )
G64 P0.00040 ( set maximum deviation from commanded toolpath )
G01 F360.00000 ( Feedrate. )


G00 Z1.00000 (Retract to tool change height)
T0
M5      (Spindle stop.)
G04 P1.00000 (Wait for spindle to stop)
(MSG, Change tool bit to mill diameter 0.03937in)
M6      (Tool change.)
M0      (Temporary machine stop.)
M3 ( Spindle on clockwise. )
G04 P1.00000 (Wait for spindle to get up to speed)
G04 P0 ( dwell for no time -- G64 should not smooth over this point )
G00 Z0.08000 ( retract )

G00 X4.54214 Y-3.96063 ( rapid move to begin. )
G01 F180.00000
( Mill infeed pass 1/1 )
G01 Z-0.04000
G04 P0 ( dwell for no time -- G64 should not smooth over this point )
G01 F360.00000
G01 X4.54214 Y-3.96063
G01 X4.57984 Y-3.92284
G01 X4.58906 Y-3.91310
G01 X4.59140 Y-3.91039
G01 X4.60244 Y-3.89661
G01 X4.60461 Y-3.89367
G01 X4.60839 Y-3.88778
G01 X4.60839 Y-3.81500
G01 X4.60864 Y-3.81170
G01 X4.60901 Y-3.80952
G01 X4.60998 Y-3.80636
G01 X4.61083 Y-3.80432
G01 X4.61190 Y-3.80239
G01 X4.61376 Y-3.79966
G01 X4.61601 Y-3.79723
G01 X4.61766 Y-3.79576
G01 X4.61946 Y-3.79448
G01 X4.62232 Y-3.79283
G01 X4.62540 Y-3.79162
G01 X4.62752 Y-3.79101
G01 X4.62970 Y-3.79064
G01 X4.63300 Y-3.79039
G01 X4.63630 Y-3.79064
G01 X4.63847 Y-3.79101
G01 X4.64164 Y-3.79198
G01 X4.64368 Y-3.79283
G01 X4.64561 Y-3.79390
G01 X4.64834 Y-3.79576
G01 X4.64999 Y-3.79723
G01 X4.65224 Y-3.79966
G01 X4.65410 Y-3.80239
G01 X4.65517 Y-3.80432
G01 X4.65601 Y-3.80636
G01 X4.65699 Y-3.80952
G01 X4.65736 Y-3.81170
G01 X4.65761 Y-3.81500
G01 X4.65761 Y-3.89163
G01 X4.66143 Y-3.89767
G01 X4.66594 Y-3.90255
G01 X4.67120 Y-3.90661
G01 X4.67458 Y-3.90839
G01 X4.87081 Y-3.90839
G01 X4.87839 Y-3.90081
G01 X4.87839 Y-3.80059
G01 X4.87669 Y-3.79614
G01 X4.87346 Y-3.78877
G01 X4.87183 Y-3.78552
G01 X4.86410 Y-3.77230
G01 X4.85845 Y-3.76459
G01 X4.85888 Y-3.76103
G01 X4.85961 Y-3.75062
G01 X4.86059 Y-3.71968
G01 X4.93031 Y-3.71969
G01 X4.93031 Y-3.98031
G01 X4.51968 Y-3.98031
G01 X4.51968 Y-3.95565
G01 X4.53007 Y-3.94477
G01 X4.54214 Y-3.96063
G01 X4.91063 Y-3.96063
G01 X4.91063 Y-3.93811
G01 X4.92036 Y-3.92844
G01 X4.92288 Y-3.92544
G01 X4.92431 Y-3.92330
G01 X4.92594 Y-3.91981
G01 X4.92677 Y-3.91737
G01 X4.92744 Y-3.91357
G01 X4.92761 Y-3.91100
G01 X4.92761 Y-3.75000
G01 X4.92748 Y-3.74779
G01 X4.92699 Y-3.74452
G01 X4.92601 Y-3.74136
G01 X4.92517 Y-3.73932
G01 X4.92410 Y-3.73739
G01 X4.92224 Y-3.73466
G01 X4.91999 Y-3.73223
G01 X4.91834 Y-3.73076
G01 X4.91654 Y-3.72948
G01 X4.91368 Y-3.72783
G01 X4.91060 Y-3.72662
G01 X4.90848 Y-3.72601
G01 X4.90630 Y-3.72564
G01 X4.90300 Y-3.72539
G01 X4.89970 Y-3.72564
G01 X4.89752 Y-3.72601
G01 X4.89540 Y-3.72662
G01 X4.89232 Y-3.72783
G01 X4.88946 Y-3.72948
G01 X4.88766 Y-3.73076
G01 X4.88601 Y-3.73223
G01 X4.88376 Y-3.73466
G01 X4.88190 Y-3.73739
G01 X4.88081 Y-3.73937
G01 X4.87966 Y-3.73937
G01 X4.87956 Y-3.74263
G01 X4.87901 Y-3.74452
G01 X4.87864 Y-3.74670
G01 X4.87839 Y-3.75000
G01 X4.87839 Y-3.86949
G01 X4.87365 Y-3.88066
G01 X4.86831 Y-3.89048
G01 X4.86648 Y-3.89325
G01 X4.86422 Y-3.89566
G01 X4.86158 Y-3.89767
G01 X4.85864 Y-3.89920
G01 X4.85548 Y-3.90022
G01 X4.85328 Y-3.90073
G01 X4.84189 Y-3.90271
G01 X4.83859 Y-3.90308
G01 X4.82866 Y-3.90364
G01 X4.82542 Y-3.90364
G01 X4.81669 Y-3.90318
G01 X4.73700 Y-3.90318
G01 X4.73086 Y-3.90301
G01 X4.71743 Y-3.90155
G01 X4.70465 Y-3.89873
G01 X4.70142 Y-3.89779
G01 X4.69003 Y-3.89379
G01 X4.68479 Y-3.89161
G01 X4.68185 Y-3.89005
G01 X4.67922 Y-3.88802
G01 X4.67697 Y-3.88558
G01 X4.67516 Y-3.88280
G01 X4.67384 Y-3.87975
G01 X4.67057 Y-3.86994
G01 X4.66742 Y-3.85661
G01 X4.66686 Y-3.85333
G01 X4.66565 Y-3.84263
G01 X4.66546 Y-3.83931
G01 X4.66556 Y-3.82648
G01 X4.66721 Y-3.81251
G01 X4.66110 Y-3.80866
G01 X4.65592 Y-3.80614
G01 X4.65517 Y-3.80432
G01 X4.65410 Y-3.80239
G01 X4.65224 Y-3.79966
G01 X4.65077 Y-3.79801
G01 X4.64834 Y-3.79576
G01 X4.64561 Y-3.79390
G01 X4.64368 Y-3.79283
G01 X4.64164 Y-3.79198
G01 X4.63847 Y-3.79101
G01 X4.63630 Y-3.79064
G01 X4.63300 Y-3.79039
G01 X4.62970 Y-3.79064
G01 X4.62752 Y-3.79101
G01 X4.62540 Y-3.79162
G01 X4.62232 Y-3.79283
G01 X4.61946 Y-3.79448
G01 X4.61766 Y-3.79576
G01 X4.61523 Y-3.79801
G01 X4.61376 Y-3.79966
G01 X4.61248 Y-3.80146
G01 X4.61083 Y-3.80432
G01 X4.60962 Y-3.80740
G01 X4.60901 Y-3.80952
G01 X4.60852 Y-3.81279
G01 X4.60839 Y-3.81500
G01 X4.60839 Y-3.84147
G01 X4.60754 Y-3.84439
G01 X4.60434 Y-3.85351
G01 X4.60303 Y-3.85666
G01 X4.59764 Y-3.86773
G01 X4.58914 Y-3.88140
G01 X4.58708 Y-3.88430
G01 X4.57604 Y-3.89808
G01 X4.56592 Y-3.90892
G01 X4.53007 Y-3.94477
G01 X4.51600 Y-3.93100
G01 X4.50600 Y-3.94144
G01 X4.50000 Y-3.94798
G01 X4.50000 Y-3.83784
G01 X4.49736 Y-3.83701
G01 X4.49532 Y-3.83617
G01 X4.49246 Y-3.83452
G01 X4.49066 Y-3.83324
G01 X4.48901 Y-3.83177
G01 X4.48676 Y-3.82934
G01 X4.48548 Y-3.82754
G01 X4.48383 Y-3.82468
G01 X4.48262 Y-3.82160
G01 X4.48201 Y-3.81948
G01 X4.48164 Y-3.81730
G01 X4.48139 Y-3.81400
G01 X4.48164 Y-3.81070
G01 X4.48201 Y-3.80852
G01 X4.48299 Y-3.80536
G01 X4.48383 Y-3.80332
G01 X4.48490 Y-3.80139
G01 X4.48676 Y-3.79866
G01 X4.48823 Y-3.79701
G01 X4.49066 Y-3.79476
G01 X4.49246 Y-3.79348
G01 X4.49532 Y-3.79183
G01 X4.49736 Y-3.79099
G01 X4.50052 Y-3.79001
G01 X4.50270 Y-3.78964
G01 X4.50600 Y-3.78939
G01 X4.53937 Y-3.78939
G01 X4.53937 Y-3.78848
G01 X4.54026 Y-3.78939
G01 X4.55200 Y-3.78939
G01 X4.55530 Y-3.78964
G01 X4.55748 Y-3.79001
G01 X4.55960 Y-3.79062
G01 X4.56268 Y-3.79183
G01 X4.56461 Y-3.79290
G01 X4.56734 Y-3.79476
G01 X4.56899 Y-3.79623
G01 X4.57124 Y-3.79866
G01 X4.57252 Y-3.80046
G01 X4.57417 Y-3.80332
G01 X4.57538 Y-3.80640
G01 X4.57599 Y-3.80852
G01 X4.57636 Y-3.81070
G01 X4.57661 Y-3.81400
G01 X4.57636 Y-3.81730
G01 X4.57599 Y-3.81948
G01 X4.57538 Y-3.82160
G01 X4.57417 Y-3.82468
G01 X4.57252 Y-3.82754
G01 X4.57124 Y-3.82934
G01 X4.56899 Y-3.83177
G01 X4.56734 Y-3.83324
G01 X4.56461 Y-3.83510
G01 X4.56268 Y-3.83617
G01 X4.55960 Y-3.83738
G01 X4.55748 Y-3.83799
G01 X4.55420 Y-3.83848
G01 X4.54616 Y-3.83861
G01 X4.54566 Y-3.83966
G01 X4.54001 Y-3.84860
G01 X4.53937 Y-3.84940
G01 X4.53937 Y-3.83861
G01 X4.50600 Y-3.83861
G01 X4.50270 Y-3.83836
G01 X4.50000 Y-3.83784
G01 X4.50270 Y-3.83836
G01 X4.50600 Y-3.83861
G01 X4.51968 Y-3.83861
G01 X4.51968 Y-3.89947
G01 X4.53789 Y-3.88127
G01 X4.54520 Y-3.87354
G01 X4.55613 Y-3.85994
G01 X4.56293 Y-3.84915
G01 X4.56737 Y-3.83995
G01 X4.57021 Y-3.83188
G01 X4.57064 Y-3.83001
G01 X4.57252 Y-3.82754
G01 X4.57417 Y-3.82468
G01 X4.57538 Y-3.82160
G01 X4.57599 Y-3.81948
G01 X4.57648 Y-3.81620
G01 X4.57661 Y-3.81400
G01 X4.57648 Y-3.81180
G01 X4.57599 Y-3.80852
G01 X4.57538 Y-3.80640
G01 X4.57417 Y-3.80332
G01 X4.57297 Y-3.80119
G01 X4.57305 Y-3.79491
G01 X4.53758 Y-3.75837
G01 X4.53040 Y-3.75055
G01 X4.51968 Y-3.73761
G01 X4.51968 Y-3.78939
G01 X4.50600 Y-3.78939
G01 X4.50270 Y-3.78964
G01 X4.50000 Y-3.79016
G01 X4.50000 Y-3.70000
G01 X4.95000 Y-3.70000
G01 X4.95000 Y-4.00000
G01 X4.50000 Y-4.00000
G01 X4.50000 Y-3.94798
G01 X4.50600 Y-3.94144
G01 X4.51600 Y-3.93100
G01 X4.55200 Y-3.89500
G01 X4.55969 Y-3.88687
G01 X4.57171 Y-3.87200
G01 X4.57981 Y-3.85931
G01 X4.58577 Y-3.84699
G01 X4.58928 Y-3.83677
G01 X4.59122 Y-3.82831
G01 X4.59232 Y-3.81912
G01 X4.59249 Y-3.81500
G01 X4.59283 Y-3.78703
G01 X4.55200 Y-3.74497
G01 X4.54548 Y-3.73790
G01 X4.53632 Y-3.72698
G01 X4.52716 Y-3.71474
G01 X4.51719 Y-3.70000
G01 X4.52716 Y-3.71474
G01 X4.53632 Y-3.72698
G01 X4.54548 Y-3.73790
G01 X4.55200 Y-3.74497
G01 X4.58562 Y-3.77960
G01 X4.59970 Y-3.76584
G01 X4.59639 Y-3.74700
G01 X4.59783 Y-3.75520
G01 X4.59883 Y-3.75768
G01 X4.60048 Y-3.76054
G01 X4.60176 Y-3.76234
G01 X4.60401 Y-3.76477
G01 X4.60566 Y-3.76624
G01 X4.60746 Y-3.76751
G01 X4.61032 Y-3.76917
G01 X4.61236 Y-3.77001
G01 X4.61552 Y-3.77099
G01 X4.61770 Y-3.77136
G01 X4.62100 Y-3.77161
G01 X4.77600 Y-3.77161
G01 X4.77857 Y-3.77144
G01 X4.78237 Y-3.77077
G01 X4.78481 Y-3.76994
G01 X4.78830 Y-3.76831
G01 X4.79146 Y-3.76610
G01 X4.79407 Y-3.76370
G01 X4.79750 Y-3.75961
G01 X4.79890 Y-3.75716
G01 X4.80023 Y-3.75413
G01 X4.80084 Y-3.75201
G01 X4.80145 Y-3.74876
G01 X4.80157 Y-3.74655
G01 X4.80145 Y-3.74324
G01 X4.80086 Y-3.74008
G01 X4.80088 Y-3.73937
G01 X4.80066 Y-3.73937
G01 X4.80023 Y-3.73787
G01 X4.79890 Y-3.73484
G01 X4.79783 Y-3.73291
G01 X4.79587 Y-3.73025
G01 X4.79440 Y-3.72860
G01 X4.79275 Y-3.72713
G01 X4.79009 Y-3.72517
G01 X4.78816 Y-3.72410
G01 X4.78513 Y-3.72277
G01 X4.78301 Y-3.72216
G01 X4.77975 Y-3.72155
G01 X4.77755 Y-3.72142
G01 X4.77424 Y-3.72155
G01 X4.77024 Y-3.72239
G01 X4.62100 Y-3.72239
G01 X4.61770 Y-3.72264
G01 X4.61552 Y-3.72301
G01 X4.61340 Y-3.72362
G01 X4.61032 Y-3.72483
G01 X4.60746 Y-3.72648
G01 X4.60566 Y-3.72776
G01 X4.60401 Y-3.72923
G01 X4.60176 Y-3.73166
G01 X4.59990 Y-3.73439
G01 X4.59883 Y-3.73632
G01 X4.59799 Y-3.73836
G01 X4.59701 Y-3.74152
G01 X4.59652 Y-3.74479
G01 X4.59639 Y-3.74700
G01 X4.59652 Y-3.74920
G01 X4.59701 Y-3.75248
G01 X4.59783 Y-3.75520
G01 X4.59883 Y-3.75768
G01 X4.60048 Y-3.76054
G01 X4.60176 Y-3.76234
G01 X4.60323 Y-3.76399
G01 X4.60566 Y-3.76624
G01 X4.60746 Y-3.76751
G01 X4.61032 Y-3.76917
G01 X4.61340 Y-3.77038
G01 X4.61552 Y-3.77099
G01 X4.61770 Y-3.77136
G01 X4.62100 Y-3.77161
G01 X4.72507 Y-3.77161
G01 X4.67493 Y-3.77161
G01 X4.68065 Y-3.77448
G01 X4.69093 Y-3.78093
G01 X4.69501 Y-3.77917
G01 X4.70595 Y-3.77536
G01 X4.71947 Y-3.77227
G01 X4.72507 Y-3.77161
G01 X4.77600 Y-3.77161
G01 X4.77857 Y-3.77144
G01 X4.78237 Y-3.77077
G01 X4.78419 Y-3.77015
G01 X4.78946 Y-3.76945
G01 X4.79915 Y-3.76684
G01 X4.80843 Y-3.76313
G01 X4.81681 Y-3.75894
G01 X4.81968 Y-3.75735
G01 X4.82027 Y-3.74899
G01 X4.82120 Y-3.71969
G01 X4.55589 Y-3.71969
G01 X4.56036 Y-3.72501
G01 X4.56627 Y-3.73141
G01 X4.59970 Y-3.76584
G01 X4.60428 Y-3.76501
G01 X4.60566 Y-3.76624
G01 X4.60428 Y-3.76501
G01 X4.59970 Y-3.76584
G01 X4.58562 Y-3.77960
G01 X4.59283 Y-3.78703
G01 X4.62200 Y-3.78190
G01 X4.62972 Y-3.78109
G01 X4.63628 Y-3.78109
G01 X4.64400 Y-3.78190
G01 X4.65202 Y-3.78368
G01 X4.66170 Y-3.78707
G01 X4.67112 Y-3.79170
G01 X4.68067 Y-3.79773
G01 X4.68878 Y-3.80388
G01 X4.68642 Y-3.81688
G01 X4.68515 Y-3.82869
G01 X4.70483 Y-3.82925
G01 X4.70591 Y-3.81970
G01 X4.70636 Y-3.81720
G01 X4.70856 Y-3.81614
G01 X4.71739 Y-3.81304
G01 X4.72552 Y-3.81118
G01 X4.72891 Y-3.81079
G01 X4.72552 Y-3.81118
G01 X4.71739 Y-3.81304
G01 X4.70856 Y-3.81614
G01 X4.70636 Y-3.81720
G01 X4.70591 Y-3.81970
G01 X4.70483 Y-3.82925
G01 X4.70483 Y-3.83876
G01 X4.70592 Y-3.84836
G01 X4.70823 Y-3.85846
G01 X4.71397 Y-3.86047
G01 X4.72348 Y-3.86265
G01 X4.73280 Y-3.86369
G01 X4.73728 Y-3.86381
G01 X4.81720 Y-3.86381
G01 X4.82696 Y-3.86430
G01 X4.83582 Y-3.86380
G01 X4.83826 Y-3.86339
G01 X4.84191 Y-3.85454
G01 X4.84440 Y-3.85240
G01 X4.84587 Y-3.85075
G01 X4.84783 Y-3.84809
G01 X4.84890 Y-3.84616
G01 X4.85023 Y-3.84313
G01 X4.85084 Y-3.84101
G01 X4.85145 Y-3.83776
G01 X4.85158 Y-3.83555
G01 X4.85145 Y-3.83224
G01 X4.85084 Y-3.82899
G01 X4.85023 Y-3.82687
G01 X4.84938 Y-3.82483
G01 X4.84750 Y-3.82139
G01 X4.84575 Y-3.81916
G01 X4.84407 Y-3.81730
G01 X4.84167 Y-3.81509
G01 X4.84047 Y-3.81156
G01 X4.83759 Y-3.80501
G01 X4.83201 Y-3.79536
G01 X4.82229 Y-3.80005
G01 X4.81249 Y-3.80389
G01 X4.80999 Y-3.80469
G01 X4.79907 Y-3.80764
G01 X4.79525 Y-3.80840
G01 X4.78773 Y-3.80939
G01 X4.73700 Y-3.80939
G01 X4.73370 Y-3.80964
G01 X4.73152 Y-3.81001
G01 X4.72940 Y-3.81062
G01 X4.72632 Y-3.81183
G01 X4.72346 Y-3.81348
G01 X4.72166 Y-3.81476
G01 X4.72001 Y-3.81623
G01 X4.71776 Y-3.81866
G01 X4.71648 Y-3.82046
G01 X4.71483 Y-3.82332
G01 X4.71362 Y-3.82640
G01 X4.71301 Y-3.82852
G01 X4.71264 Y-3.83070
G01 X4.71239 Y-3.83400
G01 X4.71264 Y-3.83070
G01 X4.71301 Y-3.82852
G01 X4.71362 Y-3.82640
G01 X4.71483 Y-3.82332
G01 X4.71648 Y-3.82046
G01 X4.71776 Y-3.81866
G01 X4.72001 Y-3.81623
G01 X4.72166 Y-3.81476
G01 X4.72346 Y-3.81348
G01 X4.72632 Y-3.81183
G01 X4.72891 Y-3.81079
G01 X4.73152 Y-3.81001
G01 X4.73370 Y-3.80964
G01 X4.73700 Y-3.80939
G01 X4.82600 Y-3.80939
G01 X4.82984 Y-3.80973
G01 X4.83237 Y-3.81023
G01 X4.83599 Y-3.81155
G01 X4.83830 Y-3.81269
G01 X4.84044 Y-3.81412
G01 X4.84407 Y-3.81730
G01 X4.84750 Y-3.82139
G01 X4.84938 Y-3.82483
G01 X4.85023 Y-3.82687
G01 X4.85084 Y-3.82899
G01 X4.85145 Y-3.83224
G01 X4.85158 Y-3.83555
G01 X4.85145 Y-3.83776
G01 X4.85108 Y-3.83993
G01 X4.85023 Y-3.84313
G01 X4.84890 Y-3.84616
G01 X4.84783 Y-3.84809
G01 X4.84587 Y-3.85075
G01 X4.84440 Y-3.85240
G01 X4.84275 Y-3.85387
G01 X4.84009 Y-3.85583
G01 X4.83816 Y-3.85690
G01 X4.83513 Y-3.85823
G01 X4.83193 Y-3.85908
G01 X4.82975 Y-3.85945
G01 X4.82645 Y-3.85957
G01 X4.82424 Y-3.85945
G01 X4.82024 Y-3.85861
G01 X4.73700 Y-3.85861
G01 X4.73370 Y-3.85836
G01 X4.73152 Y-3.85799
G01 X4.72940 Y-3.85738
G01 X4.72632 Y-3.85617
G01 X4.72346 Y-3.85452
G01 X4.72166 Y-3.85324
G01 X4.72001 Y-3.85177
G01 X4.71776 Y-3.84934
G01 X4.71648 Y-3.84754
G01 X4.71483 Y-3.84468
G01 X4.71362 Y-3.84160
G01 X4.71301 Y-3.83948
G01 X4.71264 Y-3.83730
G01 X4.71239 Y-3.83400
G01 X4.70483 Y-3.82925
G01 X4.68515 Y-3.82869
G01 X4.68521 Y-3.82759
G01 X4.68642 Y-3.81688
G01 X4.68878 Y-3.80388
G01 X4.70153 Y-3.79775
G01 X4.71250 Y-3.79396
G01 X4.72167 Y-3.79186
G01 X4.73155 Y-3.79068
G01 X4.73700 Y-3.79050
G01 X4.77600 Y-3.79050
G01 X4.78107 Y-3.79033
G01 X4.79395 Y-3.78863
G01 X4.80488 Y-3.78568
G01 X4.81431 Y-3.78206
G01 X4.81683 Y-3.78095
G01 X4.82600 Y-3.77636
G01 X4.83774 Y-3.76983
G01 X4.83925 Y-3.75963
G01 X4.83993 Y-3.75000
G01 X4.84152 Y-3.70000
G01 X4.83993 Y-3.75000
G01 X4.83925 Y-3.75963
G01 X4.83774 Y-3.76983
G01 X4.84774 Y-3.78323
G01 X4.85480 Y-3.79541
G01 X4.85867 Y-3.80405
G01 X4.85964 Y-3.80657
G01 X4.86313 Y-3.81819
G01 X4.86444 Y-3.82589
G01 X4.86498 Y-3.83445
G01 X4.86444 Y-3.84411
G01 X4.86287 Y-3.85291
G01 X4.86052 Y-3.86104
G01 X4.85644 Y-3.87102
G01 X4.85104 Y-3.88104
G01 X4.84884 Y-3.88155
G01 X4.83858 Y-3.88330
G01 X4.82755 Y-3.88398
G01 X4.81720 Y-3.88350
G01 X4.73700 Y-3.88350
G01 X4.73087 Y-3.88329
G01 X4.72073 Y-3.88215
G01 X4.70794 Y-3.87922
G01 X4.69656 Y-3.87522
G01 X4.69250 Y-3.87350
G01 X4.68917 Y-3.86339
G01 X4.68642 Y-3.85112
G01 X4.68521 Y-3.84042
G01 X4.68515 Y-3.82869

G04 P0 ( dwell for no time -- G64 should not smooth over this point )
G00 Z1.000000 ( retract )

M5 ( Spindle off. )
G04 P1.000000
M9 ( Coolant off. )
M2 ( Program end. )

