( pcb2gcode 2.0.0 )
( Software-independent Gcode )

G94 ( Inches per minute feed rate. )
G20 ( Units == INCHES. )

G90 ( Absolute coordinates. )
G00 S12000 ( RPM spindle speed. )
G64 P0.00040 ( set maximum deviation from commanded toolpath )
G01 F360.00000 ( Feedrate. )


G00 Z1.00000 (Retract to tool change height)
T0
M5      (Spindle stop.)
G04 P1.00000 (Wait for spindle to stop)
(MSG, Change tool bit to mill diameter 0.03937in)
M6      (Tool change.)
M0      (Temporary machine stop.)
M3 ( Spindle on clockwise. )
G04 P1.00000 (Wait for spindle to get up to speed)
G04 P0 ( dwell for no time -- G64 should not smooth over this point )
G00 Z0.08000 ( retract )

G00 X4.50000 Y-3.94795 ( rapid move to begin. )
G01 F180.00000
G01 Z-0.04000
G04 P0 ( dwell for no time -- G64 should not smooth over this point )
G01 F360.00000
G01 X4.50000 Y-3.94795
G01 X4.51600 Y-3.93100
G01 X4.53007 Y-3.94477
G01 X4.51968 Y-3.95564
G01 X4.51968 Y-3.98031
G01 X4.93031 Y-3.98031
G01 X4.93031 Y-3.71969
G01 X4.86059 Y-3.71969
G01 X4.85960 Y-3.75069
G01 X4.85846 Y-3.76477
G01 X4.86784 Y-3.77823
G01 X4.87480 Y-3.79167
G01 X4.87839 Y-3.80047
G01 X4.87839 Y-3.86927
G01 X4.87601 Y-3.87548
G01 X4.86812 Y-3.89085
G01 X4.86571 Y-3.89418
G01 X4.86266 Y-3.89694
G01 X4.85910 Y-3.89901
G01 X4.84823 Y-3.90175
G01 X4.83472 Y-3.90340
G01 X4.73128 Y-3.90303
G01 X4.71875 Y-3.90177
G01 X4.70592 Y-3.89909
G01 X4.69342 Y-3.89511
G01 X4.68492 Y-3.89167
G01 X4.68131 Y-3.88970
G01 X4.67819 Y-3.88702
G01 X4.67570 Y-3.88375
G01 X4.67160 Y-3.87333
G01 X4.66822 Y-3.86073
G01 X4.66606 Y-3.84751
G01 X4.66533 Y-3.83451
G01 X4.66596 Y-3.82152
G01 X4.66721 Y-3.81252
G01 X4.65582 Y-3.80602
G01 X4.65161 Y-3.79894
G01 X4.64530 Y-3.79369
G01 X4.63761 Y-3.79085
G01 X4.62839 Y-3.79085
G01 X4.62144 Y-3.79342
G01 X4.61669 Y-3.79688
G01 X4.61243 Y-3.80182
G01 X4.61073 Y-3.80509
G01 X4.60956 Y-3.80821
G01 X4.60839 Y-3.81500
G01 X4.60839 Y-3.84117
G01 X4.60267 Y-3.85753
G01 X4.59517 Y-3.87203
G01 X4.58668 Y-3.88490
G01 X4.57479 Y-3.89953
G01 X4.53007 Y-3.94477
G01 X4.54214 Y-3.96063
G01 X4.58849 Y-3.91373
G01 X4.60260 Y-3.89647
G01 X4.60839 Y-3.88780
G01 X4.60839 Y-3.84117
G04 P0 ( dwell for no time -- G64 should not smooth over this point )
G00 Z0.08000 ( retract )

G00 X4.57466 Y-3.82353 ( rapid move to begin. )
G01 F180.00000
G01 Z-0.04000
G04 P0 ( dwell for no time -- G64 should not smooth over this point )
G01 F360.00000
G01 X4.57466 Y-3.82353
G01 X4.57074 Y-3.82976
G01 X4.56473 Y-3.83503
G01 X4.56008 Y-3.83722
G01 X4.55406 Y-3.83850
G01 X4.54613 Y-3.83861
G01 X4.53937 Y-3.84949
G01 X4.53937 Y-3.83861
G01 X4.50531 Y-3.83850
G01 X4.51968 Y-3.83861
G01 X4.51968 Y-3.89947
G01 X4.54519 Y-3.87356
G01 X4.55514 Y-3.86133
G01 X4.56190 Y-3.85098
G01 X4.56650 Y-3.84199
G01 X4.57066 Y-3.82989
G01 X4.57466 Y-3.82353
G01 X4.57647 Y-3.81657
G01 X4.57619 Y-3.81035
G01 X4.57438 Y-3.80394
G01 X4.57219 Y-3.79997
G01 X4.56883 Y-3.79608
G01 X4.56201 Y-3.79152
G01 X4.55508 Y-3.78961
G01 X4.54026 Y-3.78939
G01 X4.53937 Y-3.78847
G01 X4.53937 Y-3.78939
G01 X4.50472 Y-3.78959
G01 X4.49995 Y-3.79031
G01 X4.50600 Y-3.78939
G01 X4.51968 Y-3.78939
G01 X4.51968 Y-3.73752
G01 X4.53784 Y-3.75863
G01 X4.57306 Y-3.79491
G01 X4.57299 Y-3.80135
G01 X4.57466 Y-3.80447
G01 X4.57615 Y-3.80939
G01 X4.57647 Y-3.81657
G04 P0 ( dwell for no time -- G64 should not smooth over this point )
G00 Z0.08000 ( retract )

G00 X4.59076 Y-3.83071 ( rapid move to begin. )
G01 F180.00000
G01 Z-0.04000
G04 P0 ( dwell for no time -- G64 should not smooth over this point )
G01 F360.00000
G01 X4.59076 Y-3.83071
G01 X4.59218 Y-3.81776
G01 X4.59076 Y-3.83071
G01 X4.58838 Y-3.83978
G01 X4.58469 Y-3.84953
G01 X4.57868 Y-3.86128
G01 X4.57075 Y-3.87333
G01 X4.55923 Y-3.88739
G01 X4.51600 Y-3.93100
G01 X4.55967 Y-3.88685
G01 X4.57075 Y-3.87333
G01 X4.57896 Y-3.86074
G01 X4.58469 Y-3.84953
G04 P0 ( dwell for no time -- G64 should not smooth over this point )
G00 Z0.08000 ( retract )

G00 X4.54214 Y-3.96063 ( rapid move to begin. )
G01 F180.00000
G01 Z-0.04000
G04 P0 ( dwell for no time -- G64 should not smooth over this point )
G01 F360.00000
G01 X4.54214 Y-3.96063
G01 X4.91063 Y-3.96063
G01 X4.91063 Y-3.93811
G01 X4.92036 Y-3.92844
G01 X4.92398 Y-3.92385
G01 X4.92713 Y-3.91581
G01 X4.92751 Y-3.91197
G01 X4.92761 Y-3.75001
G01 X4.92622 Y-3.74192
G01 X4.92403 Y-3.73726
G01 X4.92092 Y-3.73317
G01 X4.91703 Y-3.72981
G01 X4.91347 Y-3.72775
G01 X4.90861 Y-3.72606
G01 X4.90351 Y-3.72542
G01 X4.89739 Y-3.72606
G01 X4.89070 Y-3.72869
G01 X4.88508 Y-3.73317
G01 X4.88091 Y-3.73937
G01 X4.87965 Y-3.73937
G01 X4.87839 Y-3.75000
G01 X4.87839 Y-3.80047
G04 P0 ( dwell for no time -- G64 should not smooth over this point )
G00 Z0.08000 ( retract )

G00 X4.86292 Y-3.81728 ( rapid move to begin. )
G01 F180.00000
G01 Z-0.04000
G04 P0 ( dwell for no time -- G64 should not smooth over this point )
G01 F360.00000
G01 X4.86292 Y-3.81728
G01 X4.86484 Y-3.83172
G01 X4.86292 Y-3.81728
G01 X4.85780 Y-3.80194
G01 X4.85037 Y-3.78739
G01 X4.83773 Y-3.76989
G04 P0 ( dwell for no time -- G64 should not smooth over this point )
G00 Z0.08000 ( retract )

G00 X4.80924 Y-3.78412 ( rapid move to begin. )
G01 F180.00000
G01 Z-0.04000
G04 P0 ( dwell for no time -- G64 should not smooth over this point )
G01 F360.00000
G01 X4.80924 Y-3.78412
G01 X4.79784 Y-3.78771
G01 X4.78429 Y-3.79001
G01 X4.73700 Y-3.79050
G01 X4.72323 Y-3.79163
G01 X4.71422 Y-3.79349
G01 X4.70369 Y-3.79693
G01 X4.68877 Y-3.80387
G01 X4.70412 Y-3.79672
G01 X4.71422 Y-3.79349
G01 X4.72373 Y-3.79152
G01 X4.73191 Y-3.79066
G01 X4.78361 Y-3.79012
G01 X4.79731 Y-3.78788
G01 X4.80924 Y-3.78412
G01 X4.81841 Y-3.78024
G01 X4.83773 Y-3.76989
G01 X4.83992 Y-3.75000
G01 X4.84152 Y-3.70000
G04 P0 ( dwell for no time -- G64 should not smooth over this point )
G00 Z0.08000 ( retract )

G00 X4.71242 Y-3.83451 ( rapid move to begin. )
G01 F180.00000
G01 Z-0.04000
G04 P0 ( dwell for no time -- G64 should not smooth over this point )
G01 F360.00000
G01 X4.71242 Y-3.83451
G01 X4.71306 Y-3.82839
G01 X4.71475 Y-3.82353
G01 X4.71742 Y-3.81914
G01 X4.72093 Y-3.81539
G01 X4.72426 Y-3.81297
G01 X4.72872 Y-3.81087
G01 X4.71880 Y-3.81265
G01 X4.70634 Y-3.81723
G01 X4.70516 Y-3.82512
G01 X4.70470 Y-3.83400
G01 X4.71242 Y-3.83451
G01 X4.71306 Y-3.83961
G01 X4.71475 Y-3.84447
G01 X4.71681 Y-3.84803
G01 X4.72017 Y-3.85192
G01 X4.72699 Y-3.85648
G01 X4.73392 Y-3.85839
G01 X4.82013 Y-3.85861
G01 X4.82623 Y-3.85957
G01 X4.83135 Y-3.85920
G01 X4.83533 Y-3.85813
G01 X4.84082 Y-3.85533
G01 X4.84542 Y-3.85115
G01 X4.84990 Y-3.84380
G01 X4.85120 Y-3.83935
G01 X4.85152 Y-3.83320
G01 X4.85061 Y-3.82814
G01 X4.84867 Y-3.82338
G01 X4.84578 Y-3.81913
G01 X4.84184 Y-3.81524
G01 X4.83899 Y-3.80805
G01 X4.83195 Y-3.79544
G01 X4.81526 Y-3.80286
G01 X4.80209 Y-3.80697
G01 X4.78891 Y-3.80933
G01 X4.73392 Y-3.80961
G01 X4.72872 Y-3.81087
G01 X4.73577 Y-3.80961
G01 X4.82984 Y-3.80977
G01 X4.83716 Y-3.81209
G01 X4.84319 Y-3.81658
G01 X4.84867 Y-3.82338
G01 X4.85129 Y-3.83195
G01 X4.85120 Y-3.83935
G01 X4.85013 Y-3.84333
G01 X4.84789 Y-3.84795
G01 X4.84474 Y-3.85202
G01 X4.84186 Y-3.85449
G01 X4.83815 Y-3.86340
G01 X4.82494 Y-3.86427
G01 X4.81713 Y-3.86381
G01 X4.73726 Y-3.86381
G01 X4.72439 Y-3.86280
G01 X4.71561 Y-3.86093
G01 X4.70838 Y-3.85857
G01 X4.70662 Y-3.85203
G01 X4.70516 Y-3.84287
G01 X4.70470 Y-3.83400
G01 X4.68501 Y-3.83349
G01 X4.68564 Y-3.82255
G01 X4.68877 Y-3.80387
G04 P0 ( dwell for no time -- G64 should not smooth over this point )
G00 Z0.08000 ( retract )

G00 X4.68553 Y-3.84442 ( rapid move to begin. )
G01 F180.00000
G01 Z-0.04000
G04 P0 ( dwell for no time -- G64 should not smooth over this point )
G01 F360.00000
G01 X4.68553 Y-3.84442
G01 X4.68739 Y-3.85611
G01 X4.68553 Y-3.84442
G01 X4.68501 Y-3.83349
G01 X4.68561 Y-3.82312
G01 X4.68877 Y-3.80387
G01 X4.68186 Y-3.79857
G01 X4.67174 Y-3.79205
G01 X4.66274 Y-3.78752
G01 X4.65456 Y-3.78443
G01 X4.64695 Y-3.78244
G01 X4.63248 Y-3.78101
G01 X4.62100 Y-3.78206
G01 X4.59283 Y-3.78703
G01 X4.59218 Y-3.81776
G01 X4.59283 Y-3.78703
G01 X4.62335 Y-3.78185
G01 X4.63963 Y-3.78133
G04 P0 ( dwell for no time -- G64 should not smooth over this point )
G00 Z0.08000 ( retract )

G00 X4.59642 Y-3.74751 ( rapid move to begin. )
G01 F180.00000
G01 Z-0.04000
G04 P0 ( dwell for no time -- G64 should not smooth over this point )
G01 F360.00000
G01 X4.59642 Y-3.74751
G01 X4.59685 Y-3.74239
G01 X4.59834 Y-3.73747
G01 X4.60081 Y-3.73297
G01 X4.60417 Y-3.72908
G01 X4.61099 Y-3.72452
G01 X4.61389 Y-3.72346
G01 X4.62100 Y-3.72239
G01 X4.77013 Y-3.72239
G01 X4.77520 Y-3.72148
G01 X4.78034 Y-3.72164
G01 X4.78533 Y-3.72287
G01 X4.78995 Y-3.72511
G01 X4.79612 Y-3.73051
G01 X4.80087 Y-3.73937
G01 X4.80157 Y-3.74677
G01 X4.80087 Y-3.75186
G01 X4.79913 Y-3.75670
G01 X4.79383 Y-3.76394
G01 X4.79014 Y-3.76713
G01 X4.78451 Y-3.77008
G01 X4.77600 Y-3.77161
G01 X4.72490 Y-3.77161
G01 X4.70710 Y-3.77505
G01 X4.69094 Y-3.78099
G01 X4.68262 Y-3.77560
G01 X4.67499 Y-3.77161
G01 X4.62100 Y-3.77161
G01 X4.61389 Y-3.77054
G01 X4.60916 Y-3.76854
G01 X4.60428 Y-3.76502
G01 X4.59970 Y-3.76583
G01 X4.58803 Y-3.75381
G01 X4.59642 Y-3.74751
G01 X4.59706 Y-3.75261
G01 X4.59875 Y-3.75747
G01 X4.60081 Y-3.76103
G01 X4.60417 Y-3.76492
G01 X4.61212 Y-3.76979
G01 X4.61958 Y-3.77139
G01 X4.77984 Y-3.77123
G01 X4.79305 Y-3.76864
G01 X4.80264 Y-3.76556
G01 X4.81959 Y-3.75739
G01 X4.82120 Y-3.71969
G01 X4.55592 Y-3.71969
G01 X4.56646 Y-3.73159
G01 X4.58803 Y-3.75381
G01 X4.57385 Y-3.76745
G01 X4.55200 Y-3.74495
G01 X4.53880 Y-3.73004
G01 X4.52805 Y-3.71603
G01 X4.51717 Y-3.70000
G01 X4.50000 Y-3.70000
G01 X4.50000 Y-3.79023
G01 X4.49416 Y-3.79246
G01 X4.49373 Y-3.79275
G01 X4.49962 Y-3.79038
G01 X4.49326 Y-3.79297
G01 X4.48994 Y-3.79539
G01 X4.49162 Y-3.79422
G01 X4.48917 Y-3.79608
G01 X4.48482 Y-3.80177
G01 X4.48994 Y-3.79539
G04 P0 ( dwell for no time -- G64 should not smooth over this point )
G00 Z0.08000 ( retract )

G00 X4.48375 Y-3.80353 ( rapid move to begin. )
G01 F180.00000
G01 Z-0.04000
G04 P0 ( dwell for no time -- G64 should not smooth over this point )
G01 F360.00000
G01 X4.48375 Y-3.80353
G01 X4.48482 Y-3.80177
G01 X4.48334 Y-3.80447
G01 X4.48189 Y-3.81003
G01 X4.48365 Y-3.80390
G01 X4.48153 Y-3.81143
G01 X4.48187 Y-3.81020
G01 X4.48203 Y-3.81918
G01 X4.48153 Y-3.81143
G01 X4.48142 Y-3.81451
G01 X4.48206 Y-3.81961
G04 P0 ( dwell for no time -- G64 should not smooth over this point )
G00 Z0.08000 ( retract )

G00 X4.48375 Y-3.82447 ( rapid move to begin. )
G01 F180.00000
G01 Z-0.04000
G04 P0 ( dwell for no time -- G64 should not smooth over this point )
G01 F360.00000
G01 X4.48375 Y-3.82447
G01 X4.48203 Y-3.81918
G01 X4.48375 Y-3.82447
G01 X4.48581 Y-3.82803
G01 X4.48917 Y-3.83192
G01 X4.49326 Y-3.83503
G01 X4.49973 Y-3.83766
G01 X4.49326 Y-3.83503
G04 P0 ( dwell for no time -- G64 should not smooth over this point )
G00 Z0.08000 ( retract )

G00 X4.49889 Y-3.83753 ( rapid move to begin. )
G01 F180.00000
G01 Z-0.04000
G04 P0 ( dwell for no time -- G64 should not smooth over this point )
G01 F360.00000
G01 X4.49889 Y-3.83753
G01 X4.50531 Y-3.83850
G01 X4.49989 Y-3.83773
G01 X4.50000 Y-4.00000
G01 X4.95000 Y-4.00000
G01 X4.95000 Y-3.70000
G01 X4.51717 Y-3.70000
G04 P0 ( dwell for no time -- G64 should not smooth over this point )
G00 Z0.08000 ( retract )

G00 X4.55200 Y-3.74495 ( rapid move to begin. )
G01 F180.00000
G01 Z-0.04000
G04 P0 ( dwell for no time -- G64 should not smooth over this point )
G01 F360.00000
G01 X4.55200 Y-3.74495
G01 X4.59283 Y-3.78703
G01 X4.57385 Y-3.76745
G04 P0 ( dwell for no time -- G64 should not smooth over this point )
G00 Z0.08000 ( retract )

G00 X4.60839 Y-3.81500 ( rapid move to begin. )
G01 F180.00000
G01 Z-0.04000
G04 P0 ( dwell for no time -- G64 should not smooth over this point )
G01 F360.00000
G01 X4.60839 Y-3.81500
G01 X4.60893 Y-3.80988
G01 X4.61146 Y-3.80315
G01 X4.61508 Y-3.79817
G01 X4.61814 Y-3.79542
G01 X4.62253 Y-3.79275
G01 X4.62839 Y-3.79085
G01 X4.63248 Y-3.79042
G01 X4.63761 Y-3.79085
G04 P0 ( dwell for no time -- G64 should not smooth over this point )
G00 Z0.08000 ( retract )

G00 X4.65161 Y-3.79894 ( rapid move to begin. )
G01 F180.00000
G01 Z-0.04000
G04 P0 ( dwell for no time -- G64 should not smooth over this point )
G01 F360.00000
G01 X4.65161 Y-3.79894
G01 X4.65403 Y-3.80226
G01 X4.65622 Y-3.80692
G01 X4.65761 Y-3.81500
G01 X4.65761 Y-3.89157
G01 X4.66171 Y-3.89803
G01 X4.66627 Y-3.90286
G01 X4.67458 Y-3.90839
G01 X4.87081 Y-3.90839
G01 X4.87839 Y-3.90081
G01 X4.87839 Y-3.86927
G04 P0 ( dwell for no time -- G64 should not smooth over this point )
G00 Z0.08000 ( retract )

G00 X4.86181 Y-3.85698 ( rapid move to begin. )
G01 F180.00000
G01 Z-0.04000
G04 P0 ( dwell for no time -- G64 should not smooth over this point )
G01 F360.00000
G01 X4.86181 Y-3.85698
G01 X4.86406 Y-3.84494
G01 X4.86484 Y-3.83172
G01 X4.86471 Y-3.84150
G01 X4.86181 Y-3.85698
G01 X4.85825 Y-3.86698
G01 X4.85105 Y-3.88105
G01 X4.83523 Y-3.88364
G01 X4.82494 Y-3.88396
G01 X4.81713 Y-3.88350
G01 X4.73231 Y-3.88338
G01 X4.72080 Y-3.88216
G01 X4.71101 Y-3.88008
G01 X4.69250 Y-3.87350
G01 X4.68739 Y-3.85611
G01 X4.69250 Y-3.87350
G01 X4.71101 Y-3.88008
G01 X4.72132 Y-3.88222
G01 X4.73178 Y-3.88332
G01 X4.81713 Y-3.88350

G04 P0 ( dwell for no time -- G64 should not smooth over this point )
G00 Z1.000 ( retract )

M5 ( Spindle off. )
G04 P1.000000
M9 ( Coolant off. )
M2 ( Program end. )

