( pcb2gcode 2.0.0 )
( Software-independent Gcode )

G94 ( Inches per minute feed rate. )
G20 ( Units == INCHES. )

G90 ( Absolute coordinates. )
G00 S12000 ( RPM spindle speed. )
G64 P0.00040 ( set maximum deviation from commanded toolpath )
G01 F360.00000 ( Feedrate. )


G00 Z1.00000 (Retract to tool change height)
T0
M5      (Spindle stop.)
G04 P1.00000 (Wait for spindle to stop)
(MSG, Change tool bit to mill diameter 0.03937in)
M6      (Tool change.)
M0      (Temporary machine stop.)
M3 ( Spindle on clockwise. )
G04 P1.00000 (Wait for spindle to get up to speed)
G04 P0 ( dwell for no time -- G64 should not smooth over this point )
G00 Z0.08000 ( retract )

G00 X4.53007 Y-3.94477 ( rapid move to begin. )
G01 F180.00000
( Mill infeed pass 1/1 )
G01 Z-0.04000
G04 P0 ( dwell for no time -- G64 should not smooth over this point )
G01 F360.00000
G01 X4.53007 Y-3.94477
G01 X4.56592 Y-3.90892
G01 X4.57479 Y-3.89953
G01 X4.58668 Y-3.88490
G01 X4.59517 Y-3.87203
G01 X4.59680 Y-3.86921
G01 X4.60267 Y-3.85753
G01 X4.60677 Y-3.84689
G01 X4.60839 Y-3.84117
G01 X4.60839 Y-3.81500
G01 X4.60850 Y-3.81294
G01 X4.60893 Y-3.80988
G01 X4.60978 Y-3.80692
G01 X4.61146 Y-3.80315
G01 X4.61309 Y-3.80054
G01 X4.61508 Y-3.79817
G01 X4.61814 Y-3.79542
G01 X4.62070 Y-3.79369
G01 X4.62253 Y-3.79275
G01 X4.62540 Y-3.79160
G01 X4.62839 Y-3.79085
G01 X4.63248 Y-3.79042
G01 X4.63761 Y-3.79085
G01 X4.64060 Y-3.79160
G01 X4.64347 Y-3.79275
G01 X4.64530 Y-3.79369
G01 X4.64786 Y-3.79542
G01 X4.65161 Y-3.79894
G01 X4.65291 Y-3.80054
G01 X4.65403 Y-3.80226
G01 X4.65582 Y-3.80602
G01 X4.66233 Y-3.80935
G01 X4.66721 Y-3.81252
G01 X4.66596 Y-3.82152
G01 X4.66533 Y-3.83451
G01 X4.66606 Y-3.84751
G01 X4.66822 Y-3.86073
G01 X4.67160 Y-3.87333
G01 X4.67393 Y-3.88003
G01 X4.67570 Y-3.88375
G01 X4.67819 Y-3.88702
G01 X4.68131 Y-3.88970
G01 X4.68492 Y-3.89167
G01 X4.69342 Y-3.89511
G01 X4.70592 Y-3.89909
G01 X4.71875 Y-3.90177
G01 X4.73179 Y-3.90305
G01 X4.73700 Y-3.90318
G01 X4.81649 Y-3.90318
G01 X4.82442 Y-3.90364
G01 X4.83472 Y-3.90340
G01 X4.83781 Y-3.90316
G01 X4.84722 Y-3.90191
G01 X4.85520 Y-3.90029
G01 X4.85910 Y-3.89901
G01 X4.86266 Y-3.89694
G01 X4.86571 Y-3.89418
G01 X4.86812 Y-3.89085
G01 X4.87057 Y-3.88658
G01 X4.87601 Y-3.87548
G01 X4.87839 Y-3.86927
G01 X4.87839 Y-3.75000
G01 X4.87861 Y-3.74692
G01 X4.87893 Y-3.74488
G01 X4.87955 Y-3.74263
G01 X4.87965 Y-3.73937
G01 X4.88091 Y-3.73937
G01 X4.88146 Y-3.73815
G01 X4.88309 Y-3.73554
G01 X4.88508 Y-3.73317
G01 X4.88814 Y-3.73042
G01 X4.89070 Y-3.72869
G01 X4.89347 Y-3.72734
G01 X4.89540 Y-3.72660
G01 X4.89739 Y-3.72606
G01 X4.89839 Y-3.72585
G01 X4.90351 Y-3.72542
G01 X4.90861 Y-3.72606
G01 X4.91060 Y-3.72660
G01 X4.91347 Y-3.72775
G01 X4.91530 Y-3.72869
G01 X4.91703 Y-3.72981
G01 X4.92092 Y-3.73317
G01 X4.92291 Y-3.73554
G01 X4.92403 Y-3.73726
G01 X4.92622 Y-3.74192
G01 X4.92707 Y-3.74488
G01 X4.92750 Y-3.74794
G01 X4.92761 Y-3.75001
G01 X4.92751 Y-3.91197
G01 X4.92713 Y-3.91581
G01 X4.92601 Y-3.91949
G01 X4.92398 Y-3.92385
G01 X4.92231 Y-3.92622
G01 X4.92036 Y-3.92844
G01 X4.91063 Y-3.93811
G01 X4.91063 Y-3.96063
G01 X4.54214 Y-3.96063
G01 X4.53007 Y-3.94477
G01 X4.51968 Y-3.95564
G01 X4.51968 Y-3.98031
G01 X4.93031 Y-3.98031
G01 X4.93031 Y-3.71969
G01 X4.86059 Y-3.71969
G01 X4.85960 Y-3.75069
G01 X4.85846 Y-3.76477
G01 X4.86643 Y-3.77599
G01 X4.86784 Y-3.77823
G01 X4.87480 Y-3.79167
G01 X4.87839 Y-3.80047
G01 X4.87839 Y-3.90081
G01 X4.87081 Y-3.90839
G01 X4.67458 Y-3.90839
G01 X4.67159 Y-3.90686
G01 X4.66627 Y-3.90286
G01 X4.66171 Y-3.89803
G01 X4.65802 Y-3.89250
G01 X4.65761 Y-3.89157
G01 X4.65761 Y-3.81500
G01 X4.65750 Y-3.81294
G01 X4.65707 Y-3.80988
G01 X4.65622 Y-3.80692
G01 X4.65403 Y-3.80226
G01 X4.65291 Y-3.80054
G01 X4.65161 Y-3.79894
G01 X4.64786 Y-3.79542
G01 X4.64530 Y-3.79369
G01 X4.64347 Y-3.79275
G01 X4.64060 Y-3.79160
G01 X4.63761 Y-3.79085
G01 X4.63351 Y-3.79042
G01 X4.62839 Y-3.79085
G01 X4.62540 Y-3.79160
G01 X4.62253 Y-3.79275
G01 X4.62070 Y-3.79369
G01 X4.61814 Y-3.79542
G01 X4.61508 Y-3.79817
G01 X4.61309 Y-3.80054
G01 X4.61146 Y-3.80315
G01 X4.60978 Y-3.80692
G01 X4.60893 Y-3.80988
G01 X4.60850 Y-3.81294
G01 X4.60839 Y-3.81500
G01 X4.60839 Y-3.88780
G01 X4.60260 Y-3.89647
G01 X4.59070 Y-3.91120
G01 X4.58849 Y-3.91373
G01 X4.57984 Y-3.92284
G01 X4.54214 Y-3.96063
G01 X4.53007 Y-3.94477
G01 X4.51600 Y-3.93100
G01 X4.50000 Y-3.94795
G01 X4.51600 Y-3.93100
G01 X4.55200 Y-3.89500
G01 X4.55923 Y-3.88739
G01 X4.57075 Y-3.87333
G01 X4.57928 Y-3.86025
G01 X4.58469 Y-3.84953
G01 X4.58838 Y-3.83978
G01 X4.59076 Y-3.83071
G01 X4.59198 Y-3.82303
G01 X4.59248 Y-3.81500
G01 X4.59283 Y-3.78703
G01 X4.55200 Y-3.74495
G01 X4.53880 Y-3.73004
G01 X4.52805 Y-3.71603
G01 X4.51717 Y-3.70000
G01 X4.95000 Y-3.70000
G01 X4.95000 Y-4.00000
G01 X4.50000 Y-4.00000
G01 X4.50000 Y-3.83777
G01 X4.50292 Y-3.83839
G01 X4.50600 Y-3.83861
G01 X4.51968 Y-3.83861
G01 X4.51968 Y-3.89947
G01 X4.53790 Y-3.88126
G01 X4.54477 Y-3.87402
G01 X4.55528 Y-3.86114
G01 X4.56190 Y-3.85098
G01 X4.56647 Y-3.84207
G01 X4.56949 Y-3.83423
G01 X4.57066 Y-3.82989
G01 X4.57219 Y-3.82803
G01 X4.57466 Y-3.82353
G01 X4.57615 Y-3.81861
G01 X4.57647 Y-3.81657
G01 X4.57658 Y-3.81451
G01 X4.57647 Y-3.81143
G01 X4.57594 Y-3.80839
G01 X4.57466 Y-3.80447
G01 X4.57299 Y-3.80135
G01 X4.57306 Y-3.79491
G01 X4.53784 Y-3.75863
G01 X4.52406 Y-3.74309
G01 X4.51968 Y-3.73752
G01 X4.51968 Y-3.78939
G01 X4.50600 Y-3.78939
G01 X4.50292 Y-3.78961
G01 X4.50000 Y-3.79023
G01 X4.50292 Y-3.78961
G01 X4.50600 Y-3.78939
G01 X4.53937 Y-3.78939
G01 X4.53937 Y-3.78847
G01 X4.54026 Y-3.78939
G01 X4.55200 Y-3.78939
G01 X4.55508 Y-3.78961
G01 X4.55911 Y-3.79046
G01 X4.56201 Y-3.79152
G01 X4.56473 Y-3.79297
G01 X4.56883 Y-3.79608
G01 X4.57219 Y-3.79997
G01 X4.57466 Y-3.80447
G01 X4.57615 Y-3.80939
G01 X4.57647 Y-3.81143
G01 X4.57658 Y-3.81349
G01 X4.57647 Y-3.81657
G01 X4.57615 Y-3.81861
G01 X4.57466 Y-3.82353
G01 X4.57219 Y-3.82803
G01 X4.57066 Y-3.82989
G01 X4.56806 Y-3.83261
G01 X4.56384 Y-3.83554
G01 X4.56201 Y-3.83648
G01 X4.55911 Y-3.83753
G01 X4.55508 Y-3.83839
G01 X4.55200 Y-3.83861
G01 X4.54613 Y-3.83861
G01 X4.54489 Y-3.84103
G01 X4.53937 Y-3.84949
G01 X4.53937 Y-3.83861
G01 X4.50600 Y-3.83861
G01 X4.50292 Y-3.83839
G01 X4.49791 Y-3.83722
G01 X4.49599 Y-3.83648
G01 X4.49326 Y-3.83503
G01 X4.48917 Y-3.83192
G01 X4.48581 Y-3.82803
G01 X4.48334 Y-3.82353
G01 X4.48206 Y-3.81961
G01 X4.48153 Y-3.81657
G01 X4.48142 Y-3.81451
G01 X4.48153 Y-3.81143
G01 X4.48206 Y-3.80839
G01 X4.48334 Y-3.80447
G01 X4.48581 Y-3.79997
G01 X4.48917 Y-3.79608
G01 X4.48994 Y-3.79539
G01 X4.49416 Y-3.79246
G01 X4.49599 Y-3.79152
G01 X4.49791 Y-3.79078
G01 X4.50000 Y-3.79023
G01 X4.50000 Y-3.70000
G01 X4.51717 Y-3.70000
G01 X4.52805 Y-3.71603
G01 X4.53880 Y-3.73004
G01 X4.55200 Y-3.74495
G01 X4.57385 Y-3.76745
G01 X4.58803 Y-3.75381
G01 X4.59970 Y-3.76583
G01 X4.60428 Y-3.76502
G01 X4.60494 Y-3.76561
G01 X4.60428 Y-3.76502
G01 X4.59970 Y-3.76583
G01 X4.56646 Y-3.73158
G01 X4.55592 Y-3.71969
G01 X4.82120 Y-3.71969
G01 X4.82027 Y-3.74887
G01 X4.81959 Y-3.75739
G01 X4.81068 Y-3.76212
G01 X4.80264 Y-3.76556
G01 X4.79305 Y-3.76864
G01 X4.78404 Y-3.77021
G01 X4.77984 Y-3.77123
G01 X4.77600 Y-3.77161
G01 X4.72490 Y-3.77161
G01 X4.72166 Y-3.77195
G01 X4.71860 Y-3.77243
G01 X4.70810 Y-3.77475
G01 X4.69707 Y-3.77835
G01 X4.69094 Y-3.78099
G01 X4.68262 Y-3.77560
G01 X4.67499 Y-3.77161
G01 X4.72490 Y-3.77161
G01 X4.62100 Y-3.77161
G01 X4.61792 Y-3.77139
G01 X4.61389 Y-3.77054
G01 X4.61099 Y-3.76948
G01 X4.60826 Y-3.76803
G01 X4.60417 Y-3.76492
G01 X4.60081 Y-3.76103
G01 X4.59875 Y-3.75747
G01 X4.59706 Y-3.75261
G01 X4.59653 Y-3.74957
G01 X4.59642 Y-3.74751
G01 X4.59653 Y-3.74443
G01 X4.59706 Y-3.74139
G01 X4.59875 Y-3.73653
G01 X4.60142 Y-3.73214
G01 X4.60494 Y-3.72839
G01 X4.60826 Y-3.72597
G01 X4.61099 Y-3.72452
G01 X4.61292 Y-3.72378
G01 X4.61792 Y-3.72261
G01 X4.62100 Y-3.72239
G01 X4.77013 Y-3.72239
G01 X4.77315 Y-3.72170
G01 X4.77623 Y-3.72143
G01 X4.78135 Y-3.72180
G01 X4.78533 Y-3.72287
G01 X4.78817 Y-3.72408
G01 X4.78995 Y-3.72511
G01 X4.79402 Y-3.72826
G01 X4.79733 Y-3.73218
G01 X4.79892 Y-3.73483
G01 X4.80013 Y-3.73767
G01 X4.80059 Y-3.73937
G01 X4.80087 Y-3.73937
G01 X4.80084 Y-3.74033
G01 X4.80136 Y-3.74266
G01 X4.80152 Y-3.74780
G01 X4.80130 Y-3.74985
G01 X4.80061 Y-3.75286
G01 X4.79997 Y-3.75482
G01 X4.79867 Y-3.75762
G01 X4.79643 Y-3.76107
G01 X4.79383 Y-3.76394
G01 X4.79014 Y-3.76713
G01 X4.78716 Y-3.76891
G01 X4.78451 Y-3.77008
G01 X4.78172 Y-3.77085
G01 X4.77984 Y-3.77123
G01 X4.77600 Y-3.77161
G01 X4.62100 Y-3.77161
G01 X4.61792 Y-3.77139
G01 X4.61389 Y-3.77054
G01 X4.61099 Y-3.76948
G01 X4.60826 Y-3.76803
G01 X4.60417 Y-3.76492
G01 X4.60081 Y-3.76103
G01 X4.59875 Y-3.75747
G01 X4.59706 Y-3.75261
G01 X4.59653 Y-3.74957
G01 X4.59642 Y-3.74751
G01 X4.58803 Y-3.75381
G01 X4.57385 Y-3.76745
G01 X4.59283 Y-3.78703
G01 X4.62100 Y-3.78206
G01 X4.62534 Y-3.78144
G01 X4.63248 Y-3.78101
G01 X4.63963 Y-3.78133
G01 X4.64797 Y-3.78266
G01 X4.65559 Y-3.78476
G01 X4.66377 Y-3.78798
G01 X4.67277 Y-3.79265
G01 X4.68186 Y-3.79857
G01 X4.68877 Y-3.80387
G01 X4.68674 Y-3.81500
G01 X4.68564 Y-3.82255
G01 X4.68501 Y-3.83349
G01 X4.70470 Y-3.83400
G01 X4.71242 Y-3.83451
G01 X4.70470 Y-3.83400
G01 X4.70516 Y-3.84287
G01 X4.70662 Y-3.85203
G01 X4.70838 Y-3.85857
G01 X4.71561 Y-3.86093
G01 X4.72439 Y-3.86280
G01 X4.73283 Y-3.86369
G01 X4.73726 Y-3.86381
G01 X4.81713 Y-3.86381
G01 X4.82494 Y-3.86427
G01 X4.83317 Y-3.86406
G01 X4.83815 Y-3.86340
G01 X4.84030 Y-3.85889
G01 X4.84186 Y-3.85449
G01 X4.84474 Y-3.85202
G01 X4.84733 Y-3.84882
G01 X4.84892 Y-3.84617
G01 X4.84976 Y-3.84429
G01 X4.85120 Y-3.83935
G01 X4.85157 Y-3.83423
G01 X4.85152 Y-3.83320
G01 X4.85130 Y-3.83115
G01 X4.85061 Y-3.82814
G01 X4.84997 Y-3.82618
G01 X4.84867 Y-3.82338
G01 X4.84578 Y-3.81913
G01 X4.84383 Y-3.81706
G01 X4.84184 Y-3.81524
G01 X4.83899 Y-3.80805
G01 X4.83382 Y-3.79807
G01 X4.83195 Y-3.79544
G01 X4.82624 Y-3.79830
G01 X4.81945 Y-3.80125
G01 X4.81526 Y-3.80286
G01 X4.80209 Y-3.80697
G01 X4.78891 Y-3.80933
G01 X4.73700 Y-3.80939
G01 X4.73392 Y-3.80961
G01 X4.72989 Y-3.81046
G01 X4.72699 Y-3.81152
G01 X4.72426 Y-3.81297
G01 X4.72093 Y-3.81539
G01 X4.71742 Y-3.81914
G01 X4.71475 Y-3.82353
G01 X4.71434 Y-3.82447
G01 X4.71285 Y-3.82939
G01 X4.71253 Y-3.83143
G01 X4.71242 Y-3.83349
G01 X4.71253 Y-3.83657
G01 X4.71306 Y-3.83961
G01 X4.71475 Y-3.84447
G01 X4.71681 Y-3.84803
G01 X4.72017 Y-3.85192
G01 X4.72426 Y-3.85503
G01 X4.72699 Y-3.85648
G01 X4.72989 Y-3.85753
G01 X4.73392 Y-3.85839
G01 X4.73700 Y-3.85861
G01 X4.82013 Y-3.85861
G01 X4.82315 Y-3.85930
G01 X4.82520 Y-3.85952
G01 X4.82623 Y-3.85957
G01 X4.83135 Y-3.85920
G01 X4.83533 Y-3.85813
G01 X4.83817 Y-3.85692
G01 X4.83995 Y-3.85589
G01 X4.84402 Y-3.85274
G01 X4.84733 Y-3.84882
G01 X4.84892 Y-3.84617
G01 X4.85013 Y-3.84333
G01 X4.85120 Y-3.83935
G01 X4.85157 Y-3.83423
G01 X4.85130 Y-3.83115
G01 X4.85061 Y-3.82814
G01 X4.84997 Y-3.82618
G01 X4.84867 Y-3.82338
G01 X4.84578 Y-3.81913
G01 X4.84209 Y-3.81544
G01 X4.84014 Y-3.81387
G01 X4.83801 Y-3.81255
G01 X4.83451 Y-3.81092
G01 X4.82984 Y-3.80977
G01 X4.82600 Y-3.80939
G01 X4.73700 Y-3.80939
G01 X4.73392 Y-3.80961
G01 X4.72897 Y-3.81077
G01 X4.72630 Y-3.81105
G01 X4.71880 Y-3.81265
G01 X4.71070 Y-3.81528
G01 X4.70634 Y-3.81723
G01 X4.70516 Y-3.82512
G01 X4.70470 Y-3.83400
G01 X4.68501 Y-3.83349
G01 X4.68553 Y-3.84442
G01 X4.68726 Y-3.85561
G01 X4.69066 Y-3.86828
G01 X4.69250 Y-3.87350
G01 X4.69951 Y-3.87639
G01 X4.71101 Y-3.88008
G01 X4.72080 Y-3.88216
G01 X4.73128 Y-3.88332
G01 X4.73700 Y-3.88350
G01 X4.81713 Y-3.88350
G01 X4.82494 Y-3.88396
G01 X4.83523 Y-3.88364
G01 X4.84465 Y-3.88240
G01 X4.85105 Y-3.88105
G01 X4.85406 Y-3.87575
G01 X4.85825 Y-3.86698
G01 X4.86150 Y-3.85800
G01 X4.86358 Y-3.84960
G01 X4.86471 Y-3.84150
G01 X4.86495 Y-3.83249
G01 X4.86426 Y-3.82449
G01 X4.86267 Y-3.81625
G01 X4.86003 Y-3.80755
G01 X4.85677 Y-3.79956
G01 X4.85095 Y-3.78835
G01 X4.83935 Y-3.77186
G01 X4.83773 Y-3.76989
G01 X4.83896 Y-3.76205
G01 X4.83992 Y-3.75000
G01 X4.84152 Y-3.70000
G01 X4.83992 Y-3.75000
G01 X4.83896 Y-3.76205
G01 X4.83773 Y-3.76989
G01 X4.82600 Y-3.77636
G01 X4.81841 Y-3.78024
G01 X4.80924 Y-3.78412
G01 X4.79731 Y-3.78788
G01 X4.78553 Y-3.78993
G01 X4.78361 Y-3.79012
G01 X4.77600 Y-3.79050
G01 X4.73700 Y-3.79050
G01 X4.73191 Y-3.79066
G01 X4.72373 Y-3.79152
G01 X4.71422 Y-3.79349
G01 X4.70412 Y-3.79672
G01 X4.69318 Y-3.80155
G01 X4.68877 Y-3.80387

G04 P0 ( dwell for no time -- G64 should not smooth over this point )
G00 Z1.000000 ( retract )

M5 ( Spindle off. )
G04 P1.000000
M9 ( Coolant off. )
M2 ( Program end. )

