( pcb2gcode 2.5.0 )
( Software-independent Gcode )

G94 ( Inches per minute feed rate. )
G20 ( Units == INCHES. )

G90 ( Absolute coordinates. )
G00 S10000 ( RPM spindle speed. )
G64 P0.00040 ( set maximum deviation from commanded toolpath )
G01 F100.00000 ( Feedrate. )


G00 Z1.00000 (Retract to tool change height)
T1
M5      (Spindle stop.)
G04 P1.00000 (Wait for spindle to stop)
(MSG, Change tool bit to cutter diameter 0.05906in)
M6      (Tool change.)
M0      (Temporary machine stop.)
M3 ( Spindle on clockwise. )
G04 P1.00000 (Wait for spindle to get up to speed)
G04 P0 ( dwell for no time -- G64 should not smooth over this point )
G00 Z0.08000 ( retract )

G00 X-5.37047 Y-4.25000 ( rapid move to begin. )
G01 Z-0.00512 F50.00000 ( plunge. )
G04 P0 ( dwell for no time -- G64 should not smooth over this point )
G01 F100.00000
G01 X-5.37047 Y-3.64960
G01 X-5.37070 Y-3.64638
G01 X-5.37126 Y-3.64321
G01 X-5.37231 Y-3.63973
G01 X-5.37360 Y-3.63677
G01 X-5.37542 Y-3.63364
G01 X-5.37735 Y-3.63105
G01 X-5.37955 Y-3.62870
G01 X-5.38200 Y-3.62659
G01 X-5.38606 Y-3.62397
G01 X-5.39049 Y-3.62204
G01 X-5.39478 Y-3.62094
G01 X-5.39960 Y-3.62047
G01 X-6.15000 Y-3.62047
G01 X-6.15322 Y-3.62065
G01 X-6.15679 Y-3.62126
G01 X-6.16027 Y-3.62231
G01 X-6.16322 Y-3.62360
G01 X-6.16636 Y-3.62542
G01 X-6.16894 Y-3.62735
G01 X-6.17130 Y-3.62955
G01 X-6.17340 Y-3.63200
G01 X-6.17603 Y-3.63606
G01 X-6.17795 Y-3.64049
G01 X-6.17906 Y-3.64478
G01 X-6.17952 Y-3.64960
G01 X-6.17952 Y-4.25040
G01 X-6.17930 Y-4.25362
G01 X-6.17873 Y-4.25679
G01 X-6.17769 Y-4.26027
G01 X-6.17640 Y-4.26323
G01 X-6.17458 Y-4.26636
G01 X-6.17265 Y-4.26895
G01 X-6.17045 Y-4.27130
G01 X-6.16800 Y-4.27341
G01 X-6.16394 Y-4.27603
G01 X-6.15951 Y-4.27796
G01 X-6.15522 Y-4.27906
G01 X-6.15040 Y-4.27952
G01 X-5.39919 Y-4.27952
G01 X-5.39638 Y-4.27930
G01 X-5.39360 Y-4.27883
G01 X-5.39088 Y-4.27808
G01 X-5.38824 Y-4.27708
G01 X-5.38570 Y-4.27584
G01 X-5.38330 Y-4.27435
G01 X-5.38105 Y-4.27265
G01 X-5.37898 Y-4.27074
G01 X-5.37709 Y-4.26863
G01 X-5.37542 Y-4.26636
G01 X-5.37397 Y-4.26394
G01 X-5.37276 Y-4.26139
G01 X-5.37168 Y-4.25835
G01 X-5.37101 Y-4.25561
G01 X-5.37061 Y-4.25282
G01 X-5.37047 Y-4.25000

G04 P0 ( dwell for no time -- G64 should not smooth over this point )
G00 Z1.000000 ( retract )

M5 ( Spindle off. )
G04 P1.000000
M9 ( Coolant off. )
M2 ( Program end. )

