( pcb2gcode 2.0.0 )
( Gcode for linuxcnc )
( This file uses a mill head of 0.03150inch to drill the 2 hole sizes. )
( Hole sizes: [0.0314961 inch] [0.0394094 inch] )

G94       (Inches per minute feed rate.)
G20       (Units == INCHES.)
G91.1     (Incremental arc distance mode.)
G90       (Absolute coordinates.)
S10000    (RPM spindle speed.)
G01 F100.00000 (Feedrate)
M3        (Spindle on clockwise.)
G04 P1.00000
G00 Z0.08000


o1 sub ( Main subroutine )

G0 X-7.34803 Y-2.85000
G1 Z-0.06299 F50.00000
G1 Z0.08000 F50.00000

G0 X-7.44646 Y-2.85000
G1 Z-0.06299 F50.00000
G1 Z0.08000 F50.00000

G0 X-7.34803 Y-3.17126
G1 Z-0.06299 F50.00000
G1 Z0.08000 F50.00000

G0 X-7.34803 Y-3.25000
G1 Z-0.06299 F50.00000
G1 Z0.08000 F50.00000

G0 X-7.34803 Y-3.32874
G1 Z-0.06299 F50.00000
G1 Z0.08000 F50.00000

G0 X-8.39961 Y-2.85000
G1 Z-0.06299 F50.00000
G1 Z0.08000 F50.00000

G0 X-8.49803 Y-2.85000
G1 Z-0.06299 F50.00000
G1 Z0.08000 F50.00000

G0 X-8.44803 Y-3.17126
G1 Z-0.06299 F50.00000
G1 Z0.08000 F50.00000

G0 X-8.44803 Y-3.25000
G1 Z-0.06299 F50.00000
G1 Z0.08000 F50.00000

G0 X-8.44803 Y-3.32874
G1 Z-0.06299 F50.00000
G1 Z0.08000 F50.00000

G0 X-7.19407 Y-2.55000
G1 Z0.00700 F50.00000
G1 F100.00000
G2 X-7.19407 Y-2.55000 Z-0.00000 I-0.00396 J0.00000
G2 X-7.19407 Y-2.55000 Z-0.00700 I-0.00396 J0.00000
G2 X-7.19407 Y-2.55000 Z-0.01400 I-0.00396 J0.00000
G2 X-7.19407 Y-2.55000 Z-0.02100 I-0.00396 J0.00000
G2 X-7.19407 Y-2.55000 Z-0.02800 I-0.00396 J0.00000
G2 X-7.19407 Y-2.55000 Z-0.03500 I-0.00396 J0.00000
G2 X-7.19407 Y-2.55000 Z-0.04199 I-0.00396 J0.00000
G2 X-7.19407 Y-2.55000 Z-0.04899 I-0.00396 J0.00000
G2 X-7.19407 Y-2.55000 Z-0.05599 I-0.00396 J0.00000
G2 X-7.19407 Y-2.55000 Z-0.06299 I-0.00396 J0.00000
G2 X-7.19407 Y-2.55000 I-0.00396 J0.00000
G1 Z0.08000 F50.00000

G0 X-7.19407 Y-2.95000
G1 Z0.00700 F50.00000
G1 F100.00000
G2 X-7.19407 Y-2.95000 Z-0.00000 I-0.00396 J0.00000
G2 X-7.19407 Y-2.95000 Z-0.00700 I-0.00396 J0.00000
G2 X-7.19407 Y-2.95000 Z-0.01400 I-0.00396 J0.00000
G2 X-7.19407 Y-2.95000 Z-0.02100 I-0.00396 J0.00000
G2 X-7.19407 Y-2.95000 Z-0.02800 I-0.00396 J0.00000
G2 X-7.19407 Y-2.95000 Z-0.03500 I-0.00396 J0.00000
G2 X-7.19407 Y-2.95000 Z-0.04199 I-0.00396 J0.00000
G2 X-7.19407 Y-2.95000 Z-0.04899 I-0.00396 J0.00000
G2 X-7.19407 Y-2.95000 Z-0.05599 I-0.00396 J0.00000
G2 X-7.19407 Y-2.95000 Z-0.06299 I-0.00396 J0.00000
G2 X-7.19407 Y-2.95000 I-0.00396 J0.00000
G1 Z0.08000 F50.00000

G0 X-7.59407 Y-2.55000
G1 Z0.00700 F50.00000
G1 F100.00000
G2 X-7.59407 Y-2.55000 Z-0.00000 I-0.00396 J0.00000
G2 X-7.59407 Y-2.55000 Z-0.00700 I-0.00396 J0.00000
G2 X-7.59407 Y-2.55000 Z-0.01400 I-0.00396 J0.00000
G2 X-7.59407 Y-2.55000 Z-0.02100 I-0.00396 J0.00000
G2 X-7.59407 Y-2.55000 Z-0.02800 I-0.00396 J0.00000
G2 X-7.59407 Y-2.55000 Z-0.03500 I-0.00396 J0.00000
G2 X-7.59407 Y-2.55000 Z-0.04199 I-0.00396 J0.00000
G2 X-7.59407 Y-2.55000 Z-0.04899 I-0.00396 J0.00000
G2 X-7.59407 Y-2.55000 Z-0.05599 I-0.00396 J0.00000
G2 X-7.59407 Y-2.55000 Z-0.06299 I-0.00396 J0.00000
G2 X-7.59407 Y-2.55000 I-0.00396 J0.00000
G1 Z0.08000 F50.00000

G0 X-7.75907 Y-2.66535
G1 Z0.00700 F50.00000
G1 F100.00000
G2 X-7.76699 Y-2.66535 Z0.00652 I-0.00396 J0.00000
G1 X-7.76699 Y-2.58665 Z0.00350
G2 X-7.75907 Y-2.58665 Z0.00302 I0.00396 J0.00000
G1 X-7.75907 Y-2.66535 Z-0.00000
G2 X-7.76699 Y-2.66535 Z-0.00048 I-0.00396 J0.00000
G1 X-7.76699 Y-2.58665 Z-0.00350
G2 X-7.75907 Y-2.58665 Z-0.00398 I0.00396 J0.00000
G1 X-7.75907 Y-2.66535 Z-0.00700
G2 X-7.76699 Y-2.66535 Z-0.00748 I-0.00396 J0.00000
G1 X-7.76699 Y-2.58665 Z-0.01050
G2 X-7.75907 Y-2.58665 Z-0.01098 I0.00396 J0.00000
G1 X-7.75907 Y-2.66535 Z-0.01400
G2 X-7.76699 Y-2.66535 Z-0.01448 I-0.00396 J0.00000
G1 X-7.76699 Y-2.58665 Z-0.01750
G2 X-7.75907 Y-2.58665 Z-0.01798 I0.00396 J0.00000
G1 X-7.75907 Y-2.66535 Z-0.02100
G2 X-7.76699 Y-2.66535 Z-0.02147 I-0.00396 J0.00000
G1 X-7.76699 Y-2.58665 Z-0.02450
G2 X-7.75907 Y-2.58665 Z-0.02497 I0.00396 J0.00000
G1 X-7.75907 Y-2.66535 Z-0.02800
G2 X-7.76699 Y-2.66535 Z-0.02847 I-0.00396 J0.00000
G1 X-7.76699 Y-2.58665 Z-0.03150
G2 X-7.75907 Y-2.58665 Z-0.03197 I0.00396 J0.00000
G1 X-7.75907 Y-2.66535 Z-0.03500
G2 X-7.76699 Y-2.66535 Z-0.03547 I-0.00396 J0.00000
G1 X-7.76699 Y-2.58665 Z-0.03850
G2 X-7.75907 Y-2.58665 Z-0.03897 I0.00396 J0.00000
G1 X-7.75907 Y-2.66535 Z-0.04199
G2 X-7.76699 Y-2.66535 Z-0.04247 I-0.00396 J0.00000
G1 X-7.76699 Y-2.58665 Z-0.04549
G2 X-7.75907 Y-2.58665 Z-0.04597 I0.00396 J0.00000
G1 X-7.75907 Y-2.66535 Z-0.04899
G2 X-7.76699 Y-2.66535 Z-0.04947 I-0.00396 J0.00000
G1 X-7.76699 Y-2.58665 Z-0.05249
G2 X-7.75907 Y-2.58665 Z-0.05297 I0.00396 J0.00000
G1 X-7.75907 Y-2.66535 Z-0.05599
G2 X-7.76699 Y-2.66535 Z-0.05647 I-0.00396 J0.00000
G1 X-7.76699 Y-2.58665 Z-0.05949
G2 X-7.75907 Y-2.58665 Z-0.05997 I0.00396 J0.00000
G1 X-7.75907 Y-2.66535 Z-0.06299
G2 X-7.76699 Y-2.66535 I-0.00396 J0.00000
G1 X-7.76699 Y-2.58665
G2 X-7.75907 Y-2.58665 I0.00396 J0.00000
G1 X-7.75907 Y-2.66535
G1 Z0.08000 F50.00000

G0 X-7.90870 Y-2.50396
G1 Z0.00700 F50.00000
G1 F100.00000
G2 X-7.90870 Y-2.51187 Z0.00652 I0.00000 J-0.00396
G1 X-7.98736 Y-2.51187 Z0.00350
G2 X-7.98736 Y-2.50396 Z0.00302 I0.00000 J0.00396
G1 X-7.90870 Y-2.50396 Z-0.00000
G2 X-7.90870 Y-2.51187 Z-0.00048 I0.00000 J-0.00396
G1 X-7.98736 Y-2.51187 Z-0.00350
G2 X-7.98736 Y-2.50396 Z-0.00398 I0.00000 J0.00396
G1 X-7.90870 Y-2.50396 Z-0.00700
G2 X-7.90870 Y-2.51187 Z-0.00748 I0.00000 J-0.00396
G1 X-7.98736 Y-2.51187 Z-0.01050
G2 X-7.98736 Y-2.50396 Z-0.01098 I0.00000 J0.00396
G1 X-7.90870 Y-2.50396 Z-0.01400
G2 X-7.90870 Y-2.51187 Z-0.01448 I0.00000 J-0.00396
G1 X-7.98736 Y-2.51187 Z-0.01750
G2 X-7.98736 Y-2.50396 Z-0.01798 I0.00000 J0.00396
G1 X-7.90870 Y-2.50396 Z-0.02100
G2 X-7.90870 Y-2.51187 Z-0.02147 I0.00000 J-0.00396
G1 X-7.98736 Y-2.51187 Z-0.02450
G2 X-7.98736 Y-2.50396 Z-0.02497 I0.00000 J0.00396
G1 X-7.90870 Y-2.50396 Z-0.02800
G2 X-7.90870 Y-2.51187 Z-0.02847 I0.00000 J-0.00396
G1 X-7.98736 Y-2.51187 Z-0.03150
G2 X-7.98736 Y-2.50396 Z-0.03197 I0.00000 J0.00396
G1 X-7.90870 Y-2.50396 Z-0.03500
G2 X-7.90870 Y-2.51187 Z-0.03547 I0.00000 J-0.00396
G1 X-7.98736 Y-2.51187 Z-0.03850
G2 X-7.98736 Y-2.50396 Z-0.03897 I0.00000 J0.00396
G1 X-7.90870 Y-2.50396 Z-0.04199
G2 X-7.90870 Y-2.51187 Z-0.04247 I0.00000 J-0.00396
G1 X-7.98736 Y-2.51187 Z-0.04549
G2 X-7.98736 Y-2.50396 Z-0.04597 I0.00000 J0.00396
G1 X-7.90870 Y-2.50396 Z-0.04899
G2 X-7.90870 Y-2.51187 Z-0.04947 I0.00000 J-0.00396
G1 X-7.98736 Y-2.51187 Z-0.05249
G2 X-7.98736 Y-2.50396 Z-0.05297 I0.00000 J0.00396
G1 X-7.90870 Y-2.50396 Z-0.05599
G2 X-7.90870 Y-2.51187 Z-0.05647 I0.00000 J-0.00396
G1 X-7.98736 Y-2.51187 Z-0.05949
G2 X-7.98736 Y-2.50396 Z-0.05997 I0.00000 J0.00396
G1 X-7.90870 Y-2.50396 Z-0.06299
G2 X-7.90870 Y-2.51187 I0.00000 J-0.00396
G1 X-7.98736 Y-2.51187
G2 X-7.98736 Y-2.50396 I0.00000 J0.00396
G1 X-7.90870 Y-2.50396
G1 Z0.08000 F50.00000

G0 X-7.98736 Y-2.74805
G1 Z0.00700 F50.00000
G1 F100.00000
G2 X-7.98736 Y-2.74014 Z0.00652 I0.00000 J0.00396
G1 X-7.90870 Y-2.74014 Z0.00350
G2 X-7.90870 Y-2.74805 Z0.00302 I0.00000 J-0.00396
G1 X-7.98736 Y-2.74805 Z-0.00000
G2 X-7.98736 Y-2.74014 Z-0.00048 I0.00000 J0.00396
G1 X-7.90870 Y-2.74014 Z-0.00350
G2 X-7.90870 Y-2.74805 Z-0.00398 I0.00000 J-0.00396
G1 X-7.98736 Y-2.74805 Z-0.00700
G2 X-7.98736 Y-2.74014 Z-0.00748 I0.00000 J0.00396
G1 X-7.90870 Y-2.74014 Z-0.01050
G2 X-7.90870 Y-2.74805 Z-0.01098 I0.00000 J-0.00396
G1 X-7.98736 Y-2.74805 Z-0.01400
G2 X-7.98736 Y-2.74014 Z-0.01448 I0.00000 J0.00396
G1 X-7.90870 Y-2.74014 Z-0.01750
G2 X-7.90870 Y-2.74805 Z-0.01798 I0.00000 J-0.00396
G1 X-7.98736 Y-2.74805 Z-0.02100
G2 X-7.98736 Y-2.74014 Z-0.02147 I0.00000 J0.00396
G1 X-7.90870 Y-2.74014 Z-0.02450
G2 X-7.90870 Y-2.74805 Z-0.02497 I0.00000 J-0.00396
G1 X-7.98736 Y-2.74805 Z-0.02800
G2 X-7.98736 Y-2.74014 Z-0.02847 I0.00000 J0.00396
G1 X-7.90870 Y-2.74014 Z-0.03150
G2 X-7.90870 Y-2.74805 Z-0.03197 I0.00000 J-0.00396
G1 X-7.98736 Y-2.74805 Z-0.03500
G2 X-7.98736 Y-2.74014 Z-0.03547 I0.00000 J0.00396
G1 X-7.90870 Y-2.74014 Z-0.03850
G2 X-7.90870 Y-2.74805 Z-0.03897 I0.00000 J-0.00396
G1 X-7.98736 Y-2.74805 Z-0.04199
G2 X-7.98736 Y-2.74014 Z-0.04247 I0.00000 J0.00396
G1 X-7.90870 Y-2.74014 Z-0.04549
G2 X-7.90870 Y-2.74805 Z-0.04597 I0.00000 J-0.00396
G1 X-7.98736 Y-2.74805 Z-0.04899
G2 X-7.98736 Y-2.74014 Z-0.04947 I0.00000 J0.00396
G1 X-7.90870 Y-2.74014 Z-0.05249
G2 X-7.90870 Y-2.74805 Z-0.05297 I0.00000 J-0.00396
G1 X-7.98736 Y-2.74805 Z-0.05599
G2 X-7.98736 Y-2.74014 Z-0.05647 I0.00000 J0.00396
G1 X-7.90870 Y-2.74014 Z-0.05949
G2 X-7.90870 Y-2.74805 Z-0.05997 I0.00000 J-0.00396
G1 X-7.98736 Y-2.74805 Z-0.06299
G2 X-7.98736 Y-2.74014 I0.00000 J0.00396
G1 X-7.90870 Y-2.74014
G2 X-7.90870 Y-2.74805 I0.00000 J-0.00396
G1 X-7.98736 Y-2.74805
G1 Z0.08000 F50.00000

G0 X-7.59407 Y-2.95000
G1 Z0.00700 F50.00000
G1 F100.00000
G2 X-7.59407 Y-2.95000 Z-0.00000 I-0.00396 J0.00000
G2 X-7.59407 Y-2.95000 Z-0.00700 I-0.00396 J0.00000
G2 X-7.59407 Y-2.95000 Z-0.01400 I-0.00396 J0.00000
G2 X-7.59407 Y-2.95000 Z-0.02100 I-0.00396 J0.00000
G2 X-7.59407 Y-2.95000 Z-0.02800 I-0.00396 J0.00000
G2 X-7.59407 Y-2.95000 Z-0.03500 I-0.00396 J0.00000
G2 X-7.59407 Y-2.95000 Z-0.04199 I-0.00396 J0.00000
G2 X-7.59407 Y-2.95000 Z-0.04899 I-0.00396 J0.00000
G2 X-7.59407 Y-2.95000 Z-0.05599 I-0.00396 J0.00000
G2 X-7.59407 Y-2.95000 Z-0.06299 I-0.00396 J0.00000
G2 X-7.59407 Y-2.95000 I-0.00396 J0.00000
G1 Z0.08000 F50.00000

G0 X-7.69407 Y-3.30000
G1 Z0.00700 F50.00000
G1 F100.00000
G2 X-7.69407 Y-3.30000 Z-0.00000 I-0.00396 J0.00000
G2 X-7.69407 Y-3.30000 Z-0.00700 I-0.00396 J0.00000
G2 X-7.69407 Y-3.30000 Z-0.01400 I-0.00396 J0.00000
G2 X-7.69407 Y-3.30000 Z-0.02100 I-0.00396 J0.00000
G2 X-7.69407 Y-3.30000 Z-0.02800 I-0.00396 J0.00000
G2 X-7.69407 Y-3.30000 Z-0.03500 I-0.00396 J0.00000
G2 X-7.69407 Y-3.30000 Z-0.04199 I-0.00396 J0.00000
G2 X-7.69407 Y-3.30000 Z-0.04899 I-0.00396 J0.00000
G2 X-7.69407 Y-3.30000 Z-0.05599 I-0.00396 J0.00000
G2 X-7.69407 Y-3.30000 Z-0.06299 I-0.00396 J0.00000
G2 X-7.69407 Y-3.30000 I-0.00396 J0.00000
G1 Z0.08000 F50.00000

G0 X-7.79407 Y-3.30000
G1 Z0.00700 F50.00000
G1 F100.00000
G2 X-7.79407 Y-3.30000 Z-0.00000 I-0.00396 J0.00000
G2 X-7.79407 Y-3.30000 Z-0.00700 I-0.00396 J0.00000
G2 X-7.79407 Y-3.30000 Z-0.01400 I-0.00396 J0.00000
G2 X-7.79407 Y-3.30000 Z-0.02100 I-0.00396 J0.00000
G2 X-7.79407 Y-3.30000 Z-0.02800 I-0.00396 J0.00000
G2 X-7.79407 Y-3.30000 Z-0.03500 I-0.00396 J0.00000
G2 X-7.79407 Y-3.30000 Z-0.04199 I-0.00396 J0.00000
G2 X-7.79407 Y-3.30000 Z-0.04899 I-0.00396 J0.00000
G2 X-7.79407 Y-3.30000 Z-0.05599 I-0.00396 J0.00000
G2 X-7.79407 Y-3.30000 Z-0.06299 I-0.00396 J0.00000
G2 X-7.79407 Y-3.30000 I-0.00396 J0.00000
G1 Z0.08000 F50.00000

G0 X-7.99407 Y-3.30000
G1 Z0.00700 F50.00000
G1 F100.00000
G2 X-7.99407 Y-3.30000 Z-0.00000 I-0.00396 J0.00000
G2 X-7.99407 Y-3.30000 Z-0.00700 I-0.00396 J0.00000
G2 X-7.99407 Y-3.30000 Z-0.01400 I-0.00396 J0.00000
G2 X-7.99407 Y-3.30000 Z-0.02100 I-0.00396 J0.00000
G2 X-7.99407 Y-3.30000 Z-0.02800 I-0.00396 J0.00000
G2 X-7.99407 Y-3.30000 Z-0.03500 I-0.00396 J0.00000
G2 X-7.99407 Y-3.30000 Z-0.04199 I-0.00396 J0.00000
G2 X-7.99407 Y-3.30000 Z-0.04899 I-0.00396 J0.00000
G2 X-7.99407 Y-3.30000 Z-0.05599 I-0.00396 J0.00000
G2 X-7.99407 Y-3.30000 Z-0.06299 I-0.00396 J0.00000
G2 X-7.99407 Y-3.30000 I-0.00396 J0.00000
G1 Z0.08000 F50.00000

G0 X-8.09407 Y-3.30000
G1 Z0.00700 F50.00000
G1 F100.00000
G2 X-8.09407 Y-3.30000 Z-0.00000 I-0.00396 J0.00000
G2 X-8.09407 Y-3.30000 Z-0.00700 I-0.00396 J0.00000
G2 X-8.09407 Y-3.30000 Z-0.01400 I-0.00396 J0.00000
G2 X-8.09407 Y-3.30000 Z-0.02100 I-0.00396 J0.00000
G2 X-8.09407 Y-3.30000 Z-0.02800 I-0.00396 J0.00000
G2 X-8.09407 Y-3.30000 Z-0.03500 I-0.00396 J0.00000
G2 X-8.09407 Y-3.30000 Z-0.04199 I-0.00396 J0.00000
G2 X-8.09407 Y-3.30000 Z-0.04899 I-0.00396 J0.00000
G2 X-8.09407 Y-3.30000 Z-0.05599 I-0.00396 J0.00000
G2 X-8.09407 Y-3.30000 Z-0.06299 I-0.00396 J0.00000
G2 X-8.09407 Y-3.30000 I-0.00396 J0.00000
G1 Z0.08000 F50.00000

G0 X-8.24407 Y-2.95000
G1 Z0.00700 F50.00000
G1 F100.00000
G2 X-8.24407 Y-2.95000 Z-0.00000 I-0.00396 J0.00000
G2 X-8.24407 Y-2.95000 Z-0.00700 I-0.00396 J0.00000
G2 X-8.24407 Y-2.95000 Z-0.01400 I-0.00396 J0.00000
G2 X-8.24407 Y-2.95000 Z-0.02100 I-0.00396 J0.00000
G2 X-8.24407 Y-2.95000 Z-0.02800 I-0.00396 J0.00000
G2 X-8.24407 Y-2.95000 Z-0.03500 I-0.00396 J0.00000
G2 X-8.24407 Y-2.95000 Z-0.04199 I-0.00396 J0.00000
G2 X-8.24407 Y-2.95000 Z-0.04899 I-0.00396 J0.00000
G2 X-8.24407 Y-2.95000 Z-0.05599 I-0.00396 J0.00000
G2 X-8.24407 Y-2.95000 Z-0.06299 I-0.00396 J0.00000
G2 X-8.24407 Y-2.95000 I-0.00396 J0.00000
G1 Z0.08000 F50.00000

G0 X-8.64407 Y-2.95000
G1 Z0.00700 F50.00000
G1 F100.00000
G2 X-8.64407 Y-2.95000 Z-0.00000 I-0.00396 J0.00000
G2 X-8.64407 Y-2.95000 Z-0.00700 I-0.00396 J0.00000
G2 X-8.64407 Y-2.95000 Z-0.01400 I-0.00396 J0.00000
G2 X-8.64407 Y-2.95000 Z-0.02100 I-0.00396 J0.00000
G2 X-8.64407 Y-2.95000 Z-0.02800 I-0.00396 J0.00000
G2 X-8.64407 Y-2.95000 Z-0.03500 I-0.00396 J0.00000
G2 X-8.64407 Y-2.95000 Z-0.04199 I-0.00396 J0.00000
G2 X-8.64407 Y-2.95000 Z-0.04899 I-0.00396 J0.00000
G2 X-8.64407 Y-2.95000 Z-0.05599 I-0.00396 J0.00000
G2 X-8.64407 Y-2.95000 Z-0.06299 I-0.00396 J0.00000
G2 X-8.64407 Y-2.95000 I-0.00396 J0.00000
G1 Z0.08000 F50.00000

G0 X-8.24407 Y-2.55000
G1 Z0.00700 F50.00000
G1 F100.00000
G2 X-8.24407 Y-2.55000 Z-0.00000 I-0.00396 J0.00000
G2 X-8.24407 Y-2.55000 Z-0.00700 I-0.00396 J0.00000
G2 X-8.24407 Y-2.55000 Z-0.01400 I-0.00396 J0.00000
G2 X-8.24407 Y-2.55000 Z-0.02100 I-0.00396 J0.00000
G2 X-8.24407 Y-2.55000 Z-0.02800 I-0.00396 J0.00000
G2 X-8.24407 Y-2.55000 Z-0.03500 I-0.00396 J0.00000
G2 X-8.24407 Y-2.55000 Z-0.04199 I-0.00396 J0.00000
G2 X-8.24407 Y-2.55000 Z-0.04899 I-0.00396 J0.00000
G2 X-8.24407 Y-2.55000 Z-0.05599 I-0.00396 J0.00000
G2 X-8.24407 Y-2.55000 Z-0.06299 I-0.00396 J0.00000
G2 X-8.24407 Y-2.55000 I-0.00396 J0.00000
G1 Z0.08000 F50.00000

G0 X-8.64407 Y-2.55000
G1 Z0.00700 F50.00000
G1 F100.00000
G2 X-8.64407 Y-2.55000 Z-0.00000 I-0.00396 J0.00000
G2 X-8.64407 Y-2.55000 Z-0.00700 I-0.00396 J0.00000
G2 X-8.64407 Y-2.55000 Z-0.01400 I-0.00396 J0.00000
G2 X-8.64407 Y-2.55000 Z-0.02100 I-0.00396 J0.00000
G2 X-8.64407 Y-2.55000 Z-0.02800 I-0.00396 J0.00000
G2 X-8.64407 Y-2.55000 Z-0.03500 I-0.00396 J0.00000
G2 X-8.64407 Y-2.55000 Z-0.04199 I-0.00396 J0.00000
G2 X-8.64407 Y-2.55000 Z-0.04899 I-0.00396 J0.00000
G2 X-8.64407 Y-2.55000 Z-0.05599 I-0.00396 J0.00000
G2 X-8.64407 Y-2.55000 Z-0.06299 I-0.00396 J0.00000
G2 X-8.64407 Y-2.55000 I-0.00396 J0.00000
G1 Z0.08000 F50.00000


o1 endsub

o1 call
G92 X[#5420-[1.974016]]
o1 call
G92 X[#5420-[1.974016]]
o1 call
G92 Y[#5421-[1.374016]]
o1 call
G92 X[#5420-[-1.974016]]
o1 call
G92 X[#5420-[-1.974016]]
o1 call
G92 Y[#5421-[-1.374016]]
G00 Z1.000000 ( All done -- retract )

M5      (Spindle off.)
G04 P1.000000
M9      (Coolant off.)
M2      (Program end.)

