( pcb2gcode 2.5.0 )
( Gcode for linuxcnc )

G94 ( Inches per minute feed rate. )
G20 ( Units == INCHES. )

G90 ( Absolute coordinates. )
G00 S10000 ( RPM spindle speed. )
G64 P0.00040 ( set maximum deviation from commanded toolpath )
G01 F100.00000 ( Feedrate. )


G00 Z1.00000 (Retract to tool change height)
T0
M5      (Spindle stop.)
G04 P1.00000 (Wait for spindle to stop)
(MSG, Change tool bit to cutter diameter 0.05906in)
M6      (Tool change.)
M0      (Temporary machine stop.)
M3 ( Spindle on clockwise. )
G04 P1.00000 (Wait for spindle to get up to speed)

o200 sub ( Main subroutine )

G04 P0 ( dwell for no time -- G64 should not smooth over this point )
G00 Z0.08000 ( retract )

G00 X-6.98425 Y-3.60000 ( rapid move to begin. )
G01 Z-0.00512 F50.00000 ( plunge. )
G04 P0 ( dwell for no time -- G64 should not smooth over this point )
G01 F100.00000
G01 X-6.98425 Y-2.35000
G01 X-6.98482 Y-2.34424
G01 X-6.98650 Y-2.33870
G01 X-6.98923 Y-2.33359
G01 X-6.99290 Y-2.32912
G01 X-6.99737 Y-2.32545
G01 X-7.00248 Y-2.32272
G01 X-7.00802 Y-2.32104
G01 X-7.01378 Y-2.32047
G01 X-8.86378 Y-2.32047
G01 X-8.86954 Y-2.32104
G01 X-8.87508 Y-2.32272
G01 X-8.88018 Y-2.32545
G01 X-8.88466 Y-2.32912
G01 X-8.88833 Y-2.33359
G01 X-8.89106 Y-2.33870
G01 X-8.89274 Y-2.34424
G01 X-8.89331 Y-2.35000
G01 X-8.89331 Y-3.60000
G01 X-8.89274 Y-3.60576
G01 X-8.89106 Y-3.61130
G01 X-8.88833 Y-3.61640
G01 X-8.88466 Y-3.62088
G01 X-8.88018 Y-3.62455
G01 X-8.87508 Y-3.62728
G01 X-8.86954 Y-3.62896
G01 X-8.86378 Y-3.62953
G01 X-7.01378 Y-3.62953
G01 X-7.00802 Y-3.62896
G01 X-7.00248 Y-3.62728
G01 X-6.99737 Y-3.62455
G01 X-6.99290 Y-3.62088
G01 X-6.98923 Y-3.61640
G01 X-6.98650 Y-3.61130
G01 X-6.98482 Y-3.60576
G01 X-6.98425 Y-3.60000

o200 endsub

o200 call
G92 X[#5420-[1.981890]]
o200 call
G92 X[#5420-[1.981890]]
o200 call
G92 Y[#5421-[1.381890]]
o200 call
G92 X[#5420-[-1.981890]]
o200 call
G92 X[#5420-[-1.981890]]
o200 call
G92 Y[#5421-[-1.381890]]

G04 P0 ( dwell for no time -- G64 should not smooth over this point )
G00 Z1.000000 ( retract )

M5 ( Spindle off. )
G04 P1.000000
M9 ( Coolant off. )
M2 ( Program end. )

