( pcb2gcode 2.5.0 )
( Software-independent Gcode )

G94 ( Inches per minute feed rate. )
G20 ( Units == INCHES. )

G90 ( Absolute coordinates. )
G00 S12000 ( RPM spindle speed. )
G64 P0.00040 ( set maximum deviation from commanded toolpath )
G01 F360.00000 ( Feedrate. )


G00 Z1.00000 (Retract to tool change height)
T1
M5      (Spindle stop.)
G04 P1.00000 (Wait for spindle to stop)
(MSG, Change tool bit to mill diameter 0.00000in)
M6      (Tool change.)
M0      (Temporary machine stop.)
M3 ( Spindle on clockwise. )
G04 P1.00000 (Wait for spindle to get up to speed)
G04 P0 ( dwell for no time -- G64 should not smooth over this point )
G00 Z0.08000 ( retract )

G00 X-3.05000 Y-2.64755 ( rapid move to begin. )
G01 F180.00000
( Mill infeed pass 1/1 )
G01 Z-0.04000
G04 P0 ( dwell for no time -- G64 should not smooth over this point )
G01 F360.00000
G01 X-3.05000 Y-2.64755
G01 X-3.05702 Y-2.64877
G01 X-3.06983 Y-2.65067
G01 X-3.09649 Y-2.65393
G01 X-3.11514 Y-2.65569
G01 X-3.11660 Y-2.65583
G01 X-3.12088 Y-2.65625
G01 X-3.12596 Y-2.65679
G01 X-3.15096 Y-2.65962
G01 X-3.15461 Y-2.66001
G01 X-3.15471 Y-2.66002
G01 X-3.16382 Y-2.66109
G01 X-3.17720 Y-2.66291
G01 X-3.18051 Y-2.66334
G01 X-3.18477 Y-2.66385
G01 X-3.19291 Y-2.66500
G01 X-3.19915 Y-2.66602
G01 X-3.20225 Y-2.66650
G01 X-3.21028 Y-2.66767
G01 X-3.21071 Y-2.66774
G01 X-3.21799 Y-2.66882
G01 X-3.23425 Y-2.67042
G01 X-3.24197 Y-2.67080
G01 X-3.25803 Y-2.67080
G01 X-3.26574 Y-2.67042
G01 X-3.28201 Y-2.66882
G01 X-3.28972 Y-2.66767
G01 X-3.30671 Y-2.66429
G01 X-3.31442 Y-2.66235
G01 X-3.32556 Y-2.65920
G01 X-3.52782 Y-2.65920
G01 X-3.58207 Y-2.63673
G01 X-3.58388 Y-2.63664
G01 X-3.60016 Y-2.63507
G01 X-3.60966 Y-2.63366
G01 X-3.62129 Y-2.63137
G01 X-3.63001 Y-2.62918
G01 X-3.63857 Y-2.62660
G01 X-3.64661 Y-2.62372
G01 X-3.65312 Y-2.62103
G01 X-3.66053 Y-2.61753
G01 X-3.66563 Y-2.61481
G01 X-3.67245 Y-2.61072
G01 X-3.67660 Y-2.60795
G01 X-3.68286 Y-2.60330
G01 X-3.68639 Y-2.60041
G01 X-3.68803 Y-2.59893
G01 X-3.68972 Y-2.59747
G01 X-3.69207 Y-2.59554
G01 X-3.69225 Y-2.59539
G01 X-3.69557 Y-2.59269
G01 X-3.69576 Y-2.59254
G01 X-3.69797 Y-2.59073
G01 X-3.70192 Y-2.58780
G01 X-3.70204 Y-2.58772
G01 X-3.70454 Y-2.58594
G01 X-3.70642 Y-2.58453
G01 X-3.70930 Y-2.58249
G01 X-3.71216 Y-2.58057
G01 X-3.71361 Y-2.57963
G01 X-3.71460 Y-2.57900
G01 X-3.71557 Y-2.57392
G01 X-3.71671 Y-2.56621
G01 X-3.71728 Y-2.56050
G01 X-3.71744 Y-2.55710
G01 X-3.71782 Y-2.55281
G01 X-3.71853 Y-2.54712
G01 X-3.71880 Y-2.54523
G01 X-3.72095 Y-2.54226
G01 X-3.72613 Y-2.53643
G01 X-3.73204 Y-2.53136
G01 X-3.73870 Y-2.52702
G01 X-3.74610 Y-2.52343
G01 X-3.83152 Y-2.48805
G01 X-3.83338 Y-2.48805
G01 X-3.88232 Y-2.46777
G01 X-3.91110 Y-2.43900
G01 X-3.91610 Y-2.43462
G01 X-3.92110 Y-2.43150
G01 X-3.92610 Y-2.42962
G01 X-3.93110 Y-2.42900
G01 X-4.06890 Y-2.42900
G01 X-4.07390 Y-2.42962
G01 X-4.07890 Y-2.43150
G01 X-4.08390 Y-2.43462
G01 X-4.08890 Y-2.43900
G01 X-4.12418 Y-2.47428
G01 X-4.14506 Y-2.52470
G01 X-4.11287 Y-2.57680
G01 X-4.10382 Y-2.58909
G01 X-4.09348 Y-2.59878
G01 X-4.08184 Y-2.60588
G01 X-4.06890 Y-2.61039
G01 X-4.00277 Y-2.62600
G01 X-3.93310 Y-2.62600
G01 X-3.93110 Y-2.62800
G01 X-3.92077 Y-2.63980
G01 X-3.91340 Y-2.65160
G01 X-3.90897 Y-2.66340
G01 X-3.90750 Y-2.67520
G01 X-3.90750 Y-2.69490
G01 X-3.90602 Y-2.70670
G01 X-3.90160 Y-2.71850
G01 X-3.89422 Y-2.73030
G01 X-3.88390 Y-2.74210
G01 X-3.81300 Y-2.81300
G01 X-3.81131 Y-2.81470
G01 X-3.74610 Y-2.81470
G01 X-3.73383 Y-2.81439
G01 X-3.72791 Y-2.81241
G01 X-3.72055 Y-2.80982
G01 X-3.71981 Y-2.80955
G01 X-3.69514 Y-2.81446
G01 X-3.68642 Y-2.81664
G01 X-3.66641 Y-2.82268
G01 X-3.65838 Y-2.82556
G01 X-3.64228 Y-2.83221
G01 X-3.63870 Y-2.83390
G01 X-3.63486 Y-2.83566
G01 X-3.63151 Y-2.83713
G01 X-3.62865 Y-2.83843
G01 X-3.62124 Y-2.84189
G01 X-3.61624 Y-2.84410
G01 X-3.61520 Y-2.84395
G01 X-3.61146 Y-2.84340
G01 X-3.59646 Y-2.84044
G01 X-3.59303 Y-2.83958
G01 X-3.58116 Y-2.83600
G01 X-3.57800 Y-2.83487
G01 X-3.57295 Y-2.83292
G01 X-3.56932 Y-2.83142
G01 X-3.56902 Y-2.83120
G01 X-3.56401 Y-2.82748
G01 X-3.55596 Y-2.82208
G01 X-3.55095 Y-2.81908
G01 X-3.54436 Y-2.81555
G01 X-3.53934 Y-2.81317
G01 X-3.53378 Y-2.81086
G01 X-3.52877 Y-2.80907
G01 X-3.52393 Y-2.80760
G01 X-3.51892 Y-2.80634
G01 X-3.51455 Y-2.80547
G01 X-3.50953 Y-2.80473
G01 X-3.50544 Y-2.80432
G01 X-3.50043 Y-2.80408
G01 X-3.49642 Y-2.80408
G01 X-3.49140 Y-2.80432
G01 X-3.48731 Y-2.80473
G01 X-3.48230 Y-2.80547
G01 X-3.47793 Y-2.80634
G01 X-3.47292 Y-2.80760
G01 X-3.46808 Y-2.80907
G01 X-3.46306 Y-2.81086
G01 X-3.45750 Y-2.81317
G01 X-3.45476 Y-2.81447
G01 X-3.45426 Y-2.81700
G01 X-3.45296 Y-2.82286
G01 X-3.45260 Y-2.82441
G01 X-3.45173 Y-2.82788
G01 X-3.45073 Y-2.83291
G01 X-3.44998 Y-2.83793
G01 X-3.44951 Y-2.84266
G01 X-3.44927 Y-2.84768
G01 X-3.44927 Y-2.85232
G01 X-3.44951 Y-2.85734
G01 X-3.44998 Y-2.86207
G01 X-3.45073 Y-2.86709
G01 X-3.45173 Y-2.87212
G01 X-3.45260 Y-2.87559
G01 X-3.45296 Y-2.87714
G01 X-3.45426 Y-2.88300
G01 X-3.45526 Y-2.88866
G01 X-3.45643 Y-2.89722
G01 X-3.45716 Y-2.90423
G01 X-3.45831 Y-2.91974
G01 X-3.45880 Y-2.92945
G01 X-3.45957 Y-2.95426
G01 X-3.45343 Y-2.98069
G01 X-3.44460 Y-3.00981
G01 X-3.44028 Y-3.00983
G01 X-3.43485 Y-3.00981
G01 X-3.42559 Y-3.00967
G01 X-3.42165 Y-3.00964
G01 X-3.41278 Y-3.00964
G01 X-3.39343 Y-3.02229
G01 X-3.38572 Y-3.02691
G01 X-3.37834 Y-3.03117
G01 X-3.37763 Y-3.03157
G01 X-3.36827 Y-3.04143
G01 X-3.36337 Y-3.04683
G01 X-3.34879 Y-3.06453
G01 X-3.34478 Y-3.06993
G01 X-3.33502 Y-3.08448
G01 X-3.33179 Y-3.08989
G01 X-3.32518 Y-3.10221
G01 X-3.32262 Y-3.10762
G01 X-3.31816 Y-3.11836
G01 X-3.31622 Y-3.12376
G01 X-3.31328 Y-3.13343
G01 X-3.31193 Y-3.13883
G01 X-3.31015 Y-3.14775
G01 X-3.30935 Y-3.15315
G01 X-3.30900 Y-3.15577
G01 X-3.31096 Y-3.16191
G01 X-3.31298 Y-3.16754
G01 X-3.31593 Y-3.17469
G01 X-3.31838 Y-3.17988
G01 X-3.32148 Y-3.18569
G01 X-3.32435 Y-3.19047
G01 X-3.32759 Y-3.19532
G01 X-3.33084 Y-3.19971
G01 X-3.33429 Y-3.20392
G01 X-3.33744 Y-3.20738
G01 X-3.33817 Y-3.20773
G01 X-3.34320 Y-3.20982
G01 X-3.34546 Y-3.21063
G01 X-3.34953 Y-3.21063
G01 X-3.35424 Y-3.21063
G01 X-3.36036 Y-3.21063
G01 X-3.36358 Y-3.21063
G01 X-3.36923 Y-3.21063
G01 X-3.37175 Y-3.21063
G01 X-3.37718 Y-3.21063
G01 X-3.37834 Y-3.21063
G01 X-3.42165 Y-3.21063
G01 X-3.42281 Y-3.21063
G01 X-3.42824 Y-3.21063
G01 X-3.43077 Y-3.21063
G01 X-3.43642 Y-3.21063
G01 X-3.43963 Y-3.21063
G01 X-3.44576 Y-3.21063
G01 X-3.45047 Y-3.21063
G01 X-3.45415 Y-3.21063
G01 X-3.45670 Y-3.21155
G01 X-3.46171 Y-3.21363
G01 X-3.46712 Y-3.21618
G01 X-3.47315 Y-3.21941
G01 X-3.47855 Y-3.22265
G01 X-3.48600 Y-3.22765
G01 X-3.49141 Y-3.23166
G01 X-3.50091 Y-3.23949
G01 X-3.50631 Y-3.24438
G01 X-3.51220 Y-3.25000
G01 X-3.65734 Y-3.25000
G01 X-3.66555 Y-3.24855
G01 X-3.67530 Y-3.24342
G01 X-3.68263 Y-3.23996
G01 X-3.69258 Y-3.23582
G01 X-3.69991 Y-3.23320
G01 X-3.70871 Y-3.23052
G01 X-3.71604 Y-3.22869
G01 X-3.72405 Y-3.22709
G01 X-3.73138 Y-3.22600
G01 X-3.73895 Y-3.22526
G01 X-3.74628 Y-3.22489
G01 X-3.75372 Y-3.22489
G01 X-3.76105 Y-3.22526
G01 X-3.76861 Y-3.22600
G01 X-3.77595 Y-3.22709
G01 X-3.78396 Y-3.22869
G01 X-3.78507 Y-3.22897
G01 X-3.79883 Y-3.22511
G01 X-3.81260 Y-3.22382
G01 X-3.88740 Y-3.22382
G01 X-3.89788 Y-3.22456
G01 X-3.90836 Y-3.22680
G01 X-3.91884 Y-3.23053
G01 X-3.92932 Y-3.23575
G01 X-3.97068 Y-3.23575
G01 X-3.98116 Y-3.23053
G01 X-3.99164 Y-3.22680
G01 X-4.00212 Y-3.22456
G01 X-4.01260 Y-3.22382
G01 X-4.04280 Y-3.22382
G01 X-4.04643 Y-3.22373
G01 X-4.04951 Y-3.22358
G01 X-4.05684 Y-3.22285
G01 X-4.05992 Y-3.22240
G01 X-4.06758 Y-3.22087
G01 X-4.07066 Y-3.22010
G01 X-4.07885 Y-3.21760
G01 X-4.08194 Y-3.21650
G01 X-4.08634 Y-3.21480
G01 X-4.08740 Y-3.21436
G01 X-4.10150 Y-3.20964
G01 X-4.11718 Y-3.20651
G01 X-4.11771 Y-3.20619
G01 X-4.12420 Y-3.20230
G01 X-4.13607 Y-3.19597
G01 X-4.14311 Y-3.19264
G01 X-4.15748 Y-3.18670
G01 X-4.16512 Y-3.18397
G01 X-4.18300 Y-3.17857
G01 X-4.19129 Y-3.17650
G01 X-4.21427 Y-3.17196
G01 X-4.22330 Y-3.17062
G01 X-4.25387 Y-3.16767
G01 X-4.26281 Y-3.16723
G01 X-4.29195 Y-3.09688
G01 X-4.30892 Y-3.07978
G01 X-4.31591 Y-3.07207
G01 X-4.32840 Y-3.05691
G01 X-4.33412 Y-3.04920
G01 X-4.33960 Y-3.04130
G01 X-4.34225 Y-3.03723
G01 X-4.34322 Y-3.03575
G01 X-4.34513 Y-3.03288
G01 X-4.34713 Y-3.02999
G01 X-4.35167 Y-3.02359
G01 X-4.35338 Y-3.02112
G01 X-4.35348 Y-3.02097
G01 X-4.35805 Y-3.01466
G01 X-4.35929 Y-3.01309
G01 X-4.36115 Y-3.01064
G01 X-4.36366 Y-3.00723
G01 X-4.36666 Y-3.00337
G01 X-4.36845 Y-3.00119
G01 X-4.36859 Y-3.00102
G01 X-4.37147 Y-2.99749
G01 X-4.37417 Y-2.99402
G01 X-4.37882 Y-2.98775
G01 X-4.38427 Y-2.97959
G01 X-4.38836 Y-2.97277
G01 X-4.39352 Y-2.96309
G01 X-4.39702 Y-2.95569
G01 X-4.40192 Y-2.94383
G01 X-4.40480 Y-2.93580
G01 X-4.40563 Y-2.93338
G01 X-4.41059 Y-2.93133
G01 X-4.41097 Y-2.93127
G01 X-4.42515 Y-2.92848
G01 X-4.43082 Y-2.92706
G01 X-4.44179 Y-2.92375
G01 X-4.44701 Y-2.92188
G01 X-4.45578 Y-2.91826
G01 X-4.46059 Y-2.91598
G01 X-4.46780 Y-2.91213
G01 X-4.47224 Y-2.90948
G01 X-4.47834 Y-2.90540
G01 X-4.48241 Y-2.90238
G01 X-4.48773 Y-2.89802
G01 X-4.49145 Y-2.89464
G01 X-4.49429 Y-2.89192
G01 X-4.49474 Y-2.88866
G01 X-4.49574 Y-2.88300
G01 X-4.49703 Y-2.87714
G01 X-4.49740 Y-2.87559
G01 X-4.49827 Y-2.87212
G01 X-4.49927 Y-2.86709
G01 X-4.50002 Y-2.86207
G01 X-4.50048 Y-2.85734
G01 X-4.50073 Y-2.85232
G01 X-4.50073 Y-2.84768
G01 X-4.50048 Y-2.84266
G01 X-4.50002 Y-2.83793
G01 X-4.49927 Y-2.83291
G01 X-4.49876 Y-2.83005
G01 X-4.49667 Y-2.82874
G01 X-4.49165 Y-2.82573
G01 X-4.48769 Y-2.82361
G01 X-4.48268 Y-2.82123
G01 X-4.47951 Y-2.81992
G01 X-4.47449 Y-2.81812
G01 X-4.47188 Y-2.81733
G01 X-4.46686 Y-2.81607
G01 X-4.46462 Y-2.81562
G01 X-4.45961 Y-2.81488
G01 X-4.45757 Y-2.81468
G01 X-4.45256 Y-2.81443
G01 X-4.45059 Y-2.81443
G01 X-4.44557 Y-2.81468
G01 X-4.44354 Y-2.81488
G01 X-4.43853 Y-2.81562
G01 X-4.43628 Y-2.81607
G01 X-4.43127 Y-2.81733
G01 X-4.42866 Y-2.81812
G01 X-4.42528 Y-2.81933
G01 X-4.30000 Y-2.81933
G01 X-4.29854 Y-2.81936
G01 X-4.29545 Y-2.81952
G01 X-4.29246 Y-2.81981
G01 X-4.28937 Y-2.82027
G01 X-4.28619 Y-2.82090
G01 X-4.28311 Y-2.82168
G01 X-4.27962 Y-2.82274
G01 X-4.27653 Y-2.82384
G01 X-4.27257 Y-2.82549
G01 X-4.26948 Y-2.82695
G01 X-4.26483 Y-2.82944
G01 X-4.26174 Y-2.83129
G01 X-4.25610 Y-2.83507
G01 X-4.25301 Y-2.83736
G01 X-4.24601 Y-2.84314
G01 X-4.24292 Y-2.84594
G01 X-4.23866 Y-2.85000
G01 X-4.21133 Y-2.87733
G01 X-4.19612 Y-2.88363
G01 X-4.06278 Y-3.01698
G01 X-4.05713 Y-3.02236
G01 X-4.05487 Y-3.02440
G01 X-4.04266 Y-3.03442
G01 X-4.04019 Y-3.03625
G01 X-4.02635 Y-3.04549
G01 X-4.02366 Y-3.04710
G01 X-4.00773 Y-3.05560
G01 X-4.00482 Y-3.05698
G01 X-3.99693 Y-3.06050
G01 X-3.99580 Y-3.06050
G01 X-3.72641 Y-3.06050
G01 X-3.71514 Y-3.06369
G01 X-3.70743 Y-3.06562
G01 X-3.69015 Y-3.06907
G01 X-3.68243 Y-3.07022
G01 X-3.66589 Y-3.07185
G01 X-3.65817 Y-3.07223
G01 X-3.64183 Y-3.07223
G01 X-3.63411 Y-3.07185
G01 X-3.61757 Y-3.07022
G01 X-3.60985 Y-3.06907
G01 X-3.59257 Y-3.06562
G01 X-3.58486 Y-3.06369
G01 X-3.56670 Y-3.05819
G01 X-3.56414 Y-3.05781
G01 X-3.54459 Y-3.05391
G01 X-3.54155 Y-3.05315
G01 X-3.52091 Y-3.04688
G01 X-3.51787 Y-3.04579
G01 X-3.50688 Y-3.04154
G01 X-3.48048 Y-3.03061
G01 X-3.46929 Y-3.02351
G01 X-3.46452 Y-3.02065
G01 X-3.44460 Y-3.00981
G01 X-3.45343 Y-2.98069
G01 X-3.45957 Y-2.95426
G01 X-3.45880 Y-2.92945
G01 X-3.45831 Y-2.91974
G01 X-3.45716 Y-2.90423
G01 X-3.45643 Y-2.89722
G01 X-3.45526 Y-2.88866
G01 X-3.45426 Y-2.88300
G01 X-3.45296 Y-2.87714
G01 X-3.45260 Y-2.87559
G01 X-3.45173 Y-2.87212
G01 X-3.45073 Y-2.86709
G01 X-3.44998 Y-2.86207
G01 X-3.44951 Y-2.85734
G01 X-3.44927 Y-2.85232
G01 X-3.44927 Y-2.84768
G01 X-3.44951 Y-2.84266
G01 X-3.44998 Y-2.83793
G01 X-3.45073 Y-2.83291
G01 X-3.45173 Y-2.82788
G01 X-3.45260 Y-2.82441
G01 X-3.45296 Y-2.82286
G01 X-3.45426 Y-2.81700
G01 X-3.45476 Y-2.81447
G01 X-3.44747 Y-2.80990
G01 X-3.44018 Y-2.80664
G01 X-3.43288 Y-2.80468
G01 X-3.42559 Y-2.80403
G01 X-3.37441 Y-2.80403
G01 X-3.36427 Y-2.80529
G01 X-3.35413 Y-2.80907
G01 X-3.35000 Y-2.80907
G01 X-3.34751 Y-2.80913
G01 X-3.34447 Y-2.80928
G01 X-3.33939 Y-2.80979
G01 X-3.33635 Y-2.81024
G01 X-3.33103 Y-2.81130
G01 X-3.32799 Y-2.81206
G01 X-3.32226 Y-2.81380
G01 X-3.31923 Y-2.81489
G01 X-3.31609 Y-2.81609
G01 X-3.24539 Y-2.84538
G01 X-3.24257 Y-2.85217
G01 X-3.23709 Y-2.85823
G01 X-3.22912 Y-2.86789
G01 X-3.22340 Y-2.87560
G01 X-3.21851 Y-2.88290
G01 X-3.21388 Y-2.89061
G01 X-3.21087 Y-2.89624
G01 X-3.20722 Y-2.90395
G01 X-3.20538 Y-2.90839
G01 X-3.20262 Y-2.91610
G01 X-3.20152 Y-2.91971
G01 X-3.19959 Y-2.92743
G01 X-3.19898 Y-2.93049
G01 X-3.19783 Y-2.93821
G01 X-3.19756 Y-2.94096
G01 X-3.19718 Y-2.94867
G01 X-3.19718 Y-2.95133
G01 X-3.19756 Y-2.95904
G01 X-3.19783 Y-2.96179
G01 X-3.19898 Y-2.96951
G01 X-3.19959 Y-2.97257
G01 X-3.20152 Y-2.98028
G01 X-3.20262 Y-2.98389
G01 X-3.20538 Y-2.99161
G01 X-3.20722 Y-2.99604
G01 X-3.20907 Y-2.99996
G01 X-3.20907 Y-3.18021
G01 X-3.20913 Y-3.18270
G01 X-3.20928 Y-3.18574
G01 X-3.20979 Y-3.19082
G01 X-3.21024 Y-3.19386
G01 X-3.21130 Y-3.19918
G01 X-3.21143 Y-3.19970
G01 X-3.21295 Y-3.20174
G01 X-3.21633 Y-3.20587
G01 X-3.21837 Y-3.20812
G01 X-3.22018 Y-3.21003
G01 X-3.28997 Y-3.27981
G01 X-3.29187 Y-3.28163
G01 X-3.29413 Y-3.28367
G01 X-3.29825 Y-3.28705
G01 X-3.30072 Y-3.28888
G01 X-3.30545 Y-3.29204
G01 X-3.30814 Y-3.29365
G01 X-3.31367 Y-3.29660
G01 X-3.31659 Y-3.29798
G01 X-3.31979 Y-3.29940
G01 X-3.32257 Y-3.30055
G01 X-3.32670 Y-3.29807
G01 X-3.33276 Y-3.29482
G01 X-3.33817 Y-3.29227
G01 X-3.34320 Y-3.29018
G01 X-3.34546 Y-3.28937
G01 X-3.34953 Y-3.28937
G01 X-3.35424 Y-3.28937
G01 X-3.36036 Y-3.28937
G01 X-3.36358 Y-3.28937
G01 X-3.36923 Y-3.28937
G01 X-3.37175 Y-3.28937
G01 X-3.37718 Y-3.28937
G01 X-3.37834 Y-3.28937
G01 X-3.42165 Y-3.28937
G01 X-3.42281 Y-3.28937
G01 X-3.42824 Y-3.28937
G01 X-3.43077 Y-3.28937
G01 X-3.43642 Y-3.28937
G01 X-3.43963 Y-3.28937
G01 X-3.44576 Y-3.28937
G01 X-3.45047 Y-3.28937
G01 X-3.45415 Y-3.28937
G01 X-3.45670 Y-3.28845
G01 X-3.46171 Y-3.28637
G01 X-3.46712 Y-3.28382
G01 X-3.47315 Y-3.28058
G01 X-3.47855 Y-3.27735
G01 X-3.48600 Y-3.27235
G01 X-3.49141 Y-3.26834
G01 X-3.50091 Y-3.26051
G01 X-3.50631 Y-3.25562
G01 X-3.51220 Y-3.25000
G01 X-3.50631 Y-3.25562
G01 X-3.50091 Y-3.26051
G01 X-3.49141 Y-3.26834
G01 X-3.48600 Y-3.27235
G01 X-3.47855 Y-3.27735
G01 X-3.47315 Y-3.28058
G01 X-3.46712 Y-3.28382
G01 X-3.46171 Y-3.28637
G01 X-3.45670 Y-3.28845
G01 X-3.45415 Y-3.28937
G01 X-3.45047 Y-3.28937
G01 X-3.44576 Y-3.28937
G01 X-3.43963 Y-3.28937
G01 X-3.43642 Y-3.28937
G01 X-3.43077 Y-3.28937
G01 X-3.42824 Y-3.28937
G01 X-3.42281 Y-3.28937
G01 X-3.42165 Y-3.28937
G01 X-3.37834 Y-3.28937
G01 X-3.37718 Y-3.28937
G01 X-3.37175 Y-3.28937
G01 X-3.36923 Y-3.28937
G01 X-3.36358 Y-3.28937
G01 X-3.36036 Y-3.28937
G01 X-3.35424 Y-3.28937
G01 X-3.34953 Y-3.28937
G01 X-3.34546 Y-3.28937
G01 X-3.34320 Y-3.29018
G01 X-3.33817 Y-3.29227
G01 X-3.33276 Y-3.29482
G01 X-3.32670 Y-3.29807
G01 X-3.32257 Y-3.30055
G01 X-3.32280 Y-3.30212
G01 X-3.32426 Y-3.30951
G01 X-3.32579 Y-3.31562
G01 X-3.32742 Y-3.32101
G01 X-3.32943 Y-3.32664
G01 X-3.33110 Y-3.33068
G01 X-3.33355 Y-3.33586
G01 X-3.33522 Y-3.33900
G01 X-3.33809 Y-3.34378
G01 X-3.33977 Y-3.34629
G01 X-3.34302 Y-3.35068
G01 X-3.34477 Y-3.35281
G01 X-3.34840 Y-3.35681
G01 X-3.35027 Y-3.35869
G01 X-3.35428 Y-3.36232
G01 X-3.35640 Y-3.36406
G01 X-3.36079 Y-3.36731
G01 X-3.36201 Y-3.36817
G01 X-3.36348 Y-3.36843
G01 X-3.36889 Y-3.36923
G01 X-3.37161 Y-3.36950
G01 X-3.37702 Y-3.36977
G01 X-3.37834 Y-3.36980
G01 X-3.42165 Y-3.36980
G01 X-3.42298 Y-3.36977
G01 X-3.42838 Y-3.36950
G01 X-3.43111 Y-3.36923
G01 X-3.43651 Y-3.36843
G01 X-3.43949 Y-3.36784
G01 X-3.44489 Y-3.36648
G01 X-3.44829 Y-3.36545
G01 X-3.45264 Y-3.36389
G01 X-3.67126 Y-3.36389
G01 X-3.67296 Y-3.36386
G01 X-3.67571 Y-3.36374
G01 X-3.67915 Y-3.36343
G01 X-3.68190 Y-3.36307
G01 X-3.68369 Y-3.36280
G01 X-3.71965 Y-3.35644
G01 X-3.72348 Y-3.35740
G01 X-3.72846 Y-3.35839
G01 X-3.73579 Y-3.35948
G01 X-3.74041 Y-3.35993
G01 X-3.74774 Y-3.36029
G01 X-3.75226 Y-3.36029
G01 X-3.75959 Y-3.35993
G01 X-3.76421 Y-3.35948
G01 X-3.77154 Y-3.35839
G01 X-3.77652 Y-3.35740
G01 X-3.78385 Y-3.35556
G01 X-3.78790 Y-3.35439
G01 X-3.78829 Y-3.35243
G01 X-3.79065 Y-3.34375
G01 X-3.79221 Y-3.33938
G01 X-3.79221 Y-3.33937
G01 X-3.79483 Y-3.33205
G01 X-3.79586 Y-3.32867
G01 X-3.79770 Y-3.32133
G01 X-3.79827 Y-3.31847
G01 X-3.79935 Y-3.31114
G01 X-3.79961 Y-3.30857
G01 X-3.79997 Y-3.30124
G01 X-3.79997 Y-3.29876
G01 X-3.79961 Y-3.29143
G01 X-3.79935 Y-3.28886
G01 X-3.79827 Y-3.28153
G01 X-3.79770 Y-3.27866
G01 X-3.79586 Y-3.27133
G01 X-3.79483 Y-3.26795
G01 X-3.79221 Y-3.26063
G01 X-3.79221 Y-3.26061
G01 X-3.79065 Y-3.25625
G01 X-3.78829 Y-3.24757
G01 X-3.78664 Y-3.23923
G01 X-3.78507 Y-3.22897
G01 X-3.79883 Y-3.22511
G01 X-3.81260 Y-3.22382
G01 X-3.88740 Y-3.22382
G01 X-3.89788 Y-3.22456
G01 X-3.90836 Y-3.22680
G01 X-3.91884 Y-3.23053
G01 X-3.92932 Y-3.23575
G01 X-3.97068 Y-3.23575
G01 X-3.98116 Y-3.23053
G01 X-3.99164 Y-3.22680
G01 X-4.00212 Y-3.22456
G01 X-4.01260 Y-3.22382
G01 X-4.04280 Y-3.22382
G01 X-4.04643 Y-3.22373
G01 X-4.04951 Y-3.22358
G01 X-4.05684 Y-3.22285
G01 X-4.05992 Y-3.22240
G01 X-4.06758 Y-3.22087
G01 X-4.07066 Y-3.22010
G01 X-4.07885 Y-3.21760
G01 X-4.08194 Y-3.21650
G01 X-4.08634 Y-3.21480
G01 X-4.08740 Y-3.21436
G01 X-4.10150 Y-3.20964
G01 X-4.11718 Y-3.20651
G01 X-4.11771 Y-3.20619
G01 X-4.12420 Y-3.20230
G01 X-4.13607 Y-3.19597
G01 X-4.14311 Y-3.19264
G01 X-4.15748 Y-3.18670
G01 X-4.16512 Y-3.18397
G01 X-4.18300 Y-3.17857
G01 X-4.19129 Y-3.17650
G01 X-4.21427 Y-3.17196
G01 X-4.22330 Y-3.17062
G01 X-4.25387 Y-3.16767
G01 X-4.26281 Y-3.16723
G01 X-4.29195 Y-3.09688
G01 X-4.30892 Y-3.07978
G01 X-4.31591 Y-3.07207
G01 X-4.32840 Y-3.05691
G01 X-4.33412 Y-3.04920
G01 X-4.33960 Y-3.04130
G01 X-4.34225 Y-3.03723
G01 X-4.34322 Y-3.03575
G01 X-4.34513 Y-3.03288
G01 X-4.34713 Y-3.02999
G01 X-4.35167 Y-3.02359
G01 X-4.35338 Y-3.02112
G01 X-4.35348 Y-3.02097
G01 X-4.35805 Y-3.01466
G01 X-4.35929 Y-3.01309
G01 X-4.36115 Y-3.01064
G01 X-4.36366 Y-3.00723
G01 X-4.36666 Y-3.00337
G01 X-4.36845 Y-3.00119
G01 X-4.36859 Y-3.00102
G01 X-4.37147 Y-2.99749
G01 X-4.37417 Y-2.99402
G01 X-4.37882 Y-2.98775
G01 X-4.38427 Y-2.97959
G01 X-4.38836 Y-2.97277
G01 X-4.39352 Y-2.96309
G01 X-4.39702 Y-2.95569
G01 X-4.40192 Y-2.94383
G01 X-4.40480 Y-2.93580
G01 X-4.40563 Y-2.93338
G01 X-4.41059 Y-2.93133
G01 X-4.41097 Y-2.93127
G01 X-4.42515 Y-2.92848
G01 X-4.43082 Y-2.92706
G01 X-4.44179 Y-2.92375
G01 X-4.44701 Y-2.92188
G01 X-4.45578 Y-2.91826
G01 X-4.46059 Y-2.91598
G01 X-4.46780 Y-2.91213
G01 X-4.47224 Y-2.90948
G01 X-4.47834 Y-2.90540
G01 X-4.48241 Y-2.90238
G01 X-4.48773 Y-2.89802
G01 X-4.49145 Y-2.89464
G01 X-4.49429 Y-2.89192
G01 X-4.49474 Y-2.88866
G01 X-4.49574 Y-2.88300
G01 X-4.49703 Y-2.87714
G01 X-4.49740 Y-2.87559
G01 X-4.49827 Y-2.87212
G01 X-4.49927 Y-2.86709
G01 X-4.50002 Y-2.86207
G01 X-4.50048 Y-2.85734
G01 X-4.50073 Y-2.85232
G01 X-4.50073 Y-2.84768
G01 X-4.50048 Y-2.84266
G01 X-4.50002 Y-2.83793
G01 X-4.49927 Y-2.83291
G01 X-4.49876 Y-2.83005
G01 X-4.50441 Y-2.82441
G01 X-4.50941 Y-2.82003
G01 X-4.51441 Y-2.81691
G01 X-4.51941 Y-2.81503
G01 X-4.52441 Y-2.81441
G01 X-4.57559 Y-2.81441
G01 X-4.58269 Y-2.81567
G01 X-4.58980 Y-2.81945
G01 X-4.60000 Y-2.81945
G01 X-4.60147 Y-2.81949
G01 X-4.60451 Y-2.81964
G01 X-4.60753 Y-2.81994
G01 X-4.61057 Y-2.82039
G01 X-4.61377 Y-2.82103
G01 X-4.61681 Y-2.82179
G01 X-4.62031 Y-2.82285
G01 X-4.62335 Y-2.82394
G01 X-4.62530 Y-2.82469
G01 X-4.63346 Y-2.82807
G01 X-4.69295 Y-2.88756
G01 X-4.69790 Y-2.88933
G01 X-4.70193 Y-2.89100
G01 X-4.70934 Y-2.89450
G01 X-4.71232 Y-2.89609
G01 X-4.71914 Y-2.90018
G01 X-4.72143 Y-2.90171
G01 X-4.72770 Y-2.90636
G01 X-4.72957 Y-2.90789
G01 X-4.73529 Y-2.91308
G01 X-4.73692 Y-2.91471
G01 X-4.74211 Y-2.92043
G01 X-4.74364 Y-2.92230
G01 X-4.74631 Y-2.92589
G01 X-4.74713 Y-2.92918
G01 X-4.74760 Y-2.93153
G01 X-4.74874 Y-2.93924
G01 X-4.74895 Y-2.94130
G01 X-4.74932 Y-2.94902
G01 X-4.74932 Y-2.95098
G01 X-4.74895 Y-2.95870
G01 X-4.74874 Y-2.96075
G01 X-4.74760 Y-2.96847
G01 X-4.74713 Y-2.97082
G01 X-4.74631 Y-2.97410
G01 X-4.74364 Y-2.97770
G01 X-4.74211 Y-2.97957
G01 X-4.73692 Y-2.98529
G01 X-4.73529 Y-2.98692
G01 X-4.72957 Y-2.99211
G01 X-4.72770 Y-2.99364
G01 X-4.72143 Y-2.99829
G01 X-4.71914 Y-2.99982
G01 X-4.71232 Y-3.00391
G01 X-4.70934 Y-3.00549
G01 X-4.70194 Y-3.00900
G01 X-4.69790 Y-3.01067
G01 X-4.68986 Y-3.01354
G01 X-4.68424 Y-3.01524
G01 X-4.67552 Y-3.01742
G01 X-4.66749 Y-3.01901
G01 X-4.65799 Y-3.02042
G01 X-4.64627 Y-3.02155
G01 X-4.63587 Y-3.02206
G01 X-4.61833 Y-3.02202
G01 X-4.60686 Y-3.02145
G01 X-4.58877 Y-3.01991
G01 X-4.55281 Y-3.05587
G01 X-4.53521 Y-3.06124
G01 X-4.52958 Y-3.06325
G01 X-4.52165 Y-3.06631
G01 X-4.49865 Y-3.07583
G01 X-4.47835 Y-3.09614
G01 X-4.47410 Y-3.10060
G01 X-4.46920 Y-3.10600
G01 X-4.46348 Y-3.11294
G01 X-4.45947 Y-3.11835
G01 X-4.45594 Y-3.12361
G01 X-4.45270 Y-3.12902
G01 X-4.45052 Y-3.13309
G01 X-4.44796 Y-3.13849
G01 X-4.44662 Y-3.14173
G01 X-4.44469 Y-3.14713
G01 X-4.44388 Y-3.14978
G01 X-4.44253 Y-3.15518
G01 X-4.44208 Y-3.15743
G01 X-4.44128 Y-3.16284
G01 X-4.44108 Y-3.16487
G01 X-4.44081 Y-3.17028
G01 X-4.44081 Y-3.17224
G01 X-4.44108 Y-3.17764
G01 X-4.44128 Y-3.17968
G01 X-4.44208 Y-3.18508
G01 X-4.44253 Y-3.18734
G01 X-4.44388 Y-3.19274
G01 X-4.44469 Y-3.19539
G01 X-4.44662 Y-3.20079
G01 X-4.44796 Y-3.20402
G01 X-4.45052 Y-3.20943
G01 X-4.45111 Y-3.21063
G01 X-4.45424 Y-3.21063
G01 X-4.46037 Y-3.21063
G01 X-4.46358 Y-3.21063
G01 X-4.46922 Y-3.21063
G01 X-4.47175 Y-3.21063
G01 X-4.47718 Y-3.21063
G01 X-4.47835 Y-3.21063
G01 X-4.52165 Y-3.21063
G01 X-4.52281 Y-3.21063
G01 X-4.52824 Y-3.21063
G01 X-4.53077 Y-3.21063
G01 X-4.53642 Y-3.21063
G01 X-4.53963 Y-3.21063
G01 X-4.54576 Y-3.21063
G01 X-4.55047 Y-3.21063
G01 X-4.55454 Y-3.21063
G01 X-4.55679 Y-3.21144
G01 X-4.56183 Y-3.21353
G01 X-4.56724 Y-3.21608
G01 X-4.57330 Y-3.21933
G01 X-4.57870 Y-3.22257
G01 X-4.58619 Y-3.22759
G01 X-4.58952 Y-3.23006
G01 X-4.59163 Y-3.23159
G01 X-4.59411 Y-3.23334
G01 X-4.59740 Y-3.23574
G01 X-4.60220 Y-3.23936
G01 X-4.60886 Y-3.24413
G01 X-4.61034 Y-3.24514
G01 X-4.61437 Y-3.24796
G01 X-4.62801 Y-3.25775
G01 X-4.63714 Y-3.26408
G01 X-4.63758 Y-3.26437
G01 X-4.64301 Y-3.26808
G01 X-4.67368 Y-3.28937
G01 X-4.68888 Y-3.29477
G01 X-4.69446 Y-3.29678
G01 X-4.72076 Y-3.30643
G01 X-4.72693 Y-3.30867
G01 X-4.73260 Y-3.31070
G01 X-4.78577 Y-3.33149
G01 X-4.84444 Y-3.35779
G01 X-4.85894 Y-3.36464
G01 X-4.90000 Y-3.38489
G01 X-4.85894 Y-3.36464
G01 X-4.84444 Y-3.35779
G01 X-4.78577 Y-3.33149
G01 X-4.73260 Y-3.31070
G01 X-4.72693 Y-3.30867
G01 X-4.72076 Y-3.30643
G01 X-4.69446 Y-3.29678
G01 X-4.68888 Y-3.29477
G01 X-4.67368 Y-3.28937
G01 X-4.66069 Y-3.28937
G01 X-4.64209 Y-3.28937
G01 X-4.60105 Y-3.28937
G01 X-4.58959 Y-3.28937
G01 X-4.57388 Y-3.28937
G01 X-4.56537 Y-3.28937
G01 X-4.55746 Y-3.28937
G01 X-4.55047 Y-3.28937
G01 X-4.54576 Y-3.28937
G01 X-4.53963 Y-3.28937
G01 X-4.53642 Y-3.28937
G01 X-4.53077 Y-3.28937
G01 X-4.52824 Y-3.28937
G01 X-4.52281 Y-3.28937
G01 X-4.52165 Y-3.28937
G01 X-4.47835 Y-3.28937
G01 X-4.47718 Y-3.28937
G01 X-4.47175 Y-3.28937
G01 X-4.46922 Y-3.28937
G01 X-4.46358 Y-3.28937
G01 X-4.46037 Y-3.28937
G01 X-4.45424 Y-3.28937
G01 X-4.44953 Y-3.28937
G01 X-4.44585 Y-3.28937
G01 X-4.44550 Y-3.28924
G01 X-4.41979 Y-3.28924
G01 X-4.41745 Y-3.28919
G01 X-4.41441 Y-3.28904
G01 X-4.40967 Y-3.28857
G01 X-4.40663 Y-3.28812
G01 X-4.40167 Y-3.28713
G01 X-4.39863 Y-3.28637
G01 X-4.39324 Y-3.28473
G01 X-4.39020 Y-3.28364
G01 X-4.38727 Y-3.28251
G01 X-4.38090 Y-3.27987
G01 X-4.37759 Y-3.27840
G01 X-4.37455 Y-3.27696
G01 X-4.36710 Y-3.27297
G01 X-4.36406 Y-3.27115
G01 X-4.35531 Y-3.26528
G01 X-4.35227 Y-3.26303
G01 X-4.34164 Y-3.25426
G01 X-4.33860 Y-3.25151
G01 X-4.33230 Y-3.24550
G01 X-4.26973 Y-3.18294
G01 X-4.26314 Y-3.16794
G01 X-4.26281 Y-3.16723
G01 X-4.25387 Y-3.16767
G01 X-4.22330 Y-3.17062
G01 X-4.21427 Y-3.17196
G01 X-4.19129 Y-3.17650
G01 X-4.18300 Y-3.17857
G01 X-4.16512 Y-3.18397
G01 X-4.15748 Y-3.18670
G01 X-4.14311 Y-3.19264
G01 X-4.13607 Y-3.19597
G01 X-4.12420 Y-3.20230
G01 X-4.11771 Y-3.20619
G01 X-4.11718 Y-3.20651
G01 X-4.11514 Y-3.22699
G01 X-4.11336 Y-3.23923
G01 X-4.11171 Y-3.24757
G01 X-4.10935 Y-3.25625
G01 X-4.10779 Y-3.26061
G01 X-4.10779 Y-3.26063
G01 X-4.10517 Y-3.26795
G01 X-4.10414 Y-3.27133
G01 X-4.10230 Y-3.27866
G01 X-4.10173 Y-3.28153
G01 X-4.10064 Y-3.28886
G01 X-4.10039 Y-3.29143
G01 X-4.10003 Y-3.29876
G01 X-4.10003 Y-3.30124
G01 X-4.10039 Y-3.30857
G01 X-4.10064 Y-3.31114
G01 X-4.10173 Y-3.31847
G01 X-4.10230 Y-3.32133
G01 X-4.10414 Y-3.32867
G01 X-4.10517 Y-3.33205
G01 X-4.10779 Y-3.33937
G01 X-4.10779 Y-3.33938
G01 X-4.10935 Y-3.34375
G01 X-4.11171 Y-3.35243
G01 X-4.11336 Y-3.36077
G01 X-4.11514 Y-3.37300
G01 X-4.11734 Y-3.39505
G01 X-4.11881 Y-3.41544
G01 X-4.12284 Y-3.49830
G01 X-4.12233 Y-3.50945
G01 X-4.12169 Y-3.52221
G01 X-4.11744 Y-3.60000
G01 X-3.05000 Y-3.60000
G01 X-3.05000 Y-2.64755
G01 X-3.05000 Y-2.35000
G01 X-4.90000 Y-2.35000
G01 X-4.90000 Y-2.71026
G01 X-4.88980 Y-2.71076
G01 X-4.86277 Y-2.71147
G01 X-4.83703 Y-2.71089
G01 X-4.82663 Y-2.71038
G01 X-4.80693 Y-2.70895
G01 X-4.78810 Y-2.70666
G01 X-4.77860 Y-2.70525
G01 X-4.74937 Y-2.69948
G01 X-4.74116 Y-2.69743
G01 X-4.74065 Y-2.69730
G01 X-4.72915 Y-2.69444
G01 X-4.72590 Y-2.69361
G01 X-4.71782 Y-2.69148
G01 X-4.70988 Y-2.68955
G01 X-4.70510 Y-2.68848
G01 X-4.70204 Y-2.68777
G01 X-4.69057 Y-2.68502
G01 X-4.68327 Y-2.68343
G01 X-4.68298 Y-2.68337
G01 X-4.68028 Y-2.68281
G01 X-4.66475 Y-2.67949
G01 X-4.66202 Y-2.67892
G01 X-4.65903 Y-2.67833
G01 X-4.65715 Y-2.67797
G01 X-4.64969 Y-2.67656
G01 X-4.63809 Y-2.67401
G01 X-4.63037 Y-2.67208
G01 X-4.62125 Y-2.66958
G01 X-4.37874 Y-2.66958
G01 X-4.36962 Y-2.67208
G01 X-4.36191 Y-2.67401
G01 X-4.34280 Y-2.67782
G01 X-4.33509 Y-2.67897
G01 X-4.31677 Y-2.68078
G01 X-4.30905 Y-2.68116
G01 X-4.29095 Y-2.68116
G01 X-4.28323 Y-2.68078
G01 X-4.28125 Y-2.68067
G01 X-4.15689 Y-2.71003
G01 X-4.15082 Y-2.71162
G01 X-4.14785 Y-2.71247
G01 X-4.13647 Y-2.71637
G01 X-4.13364 Y-2.71749
G01 X-4.12821 Y-2.71981
G01 X-4.12466 Y-2.72541
G01 X-4.12284 Y-2.72845
G01 X-4.11747 Y-2.73847
G01 X-4.11603 Y-2.74151
G01 X-4.11402 Y-2.74604
G01 X-4.08629 Y-2.81300
G01 X-4.08329 Y-2.81870
G01 X-4.07939 Y-2.82349
G01 X-4.07460 Y-2.82739
G01 X-4.06890 Y-2.83039
G01 X-3.96421 Y-2.87375
G01 X-3.93110 Y-2.87375
G01 X-3.91613 Y-2.87283
G01 X-3.90115 Y-2.87006
G01 X-3.88618 Y-2.86545
G01 X-3.87121 Y-2.85899
G01 X-3.85623 Y-2.85068
G01 X-3.84126 Y-2.84053
G01 X-3.82628 Y-2.82854
G01 X-3.81131 Y-2.81470
G01 X-3.82628 Y-2.82854
G01 X-3.84126 Y-2.84053
G01 X-3.85623 Y-2.85068
G01 X-3.87121 Y-2.85899
G01 X-3.88618 Y-2.86545
G01 X-3.90115 Y-2.87006
G01 X-3.91613 Y-2.87283
G01 X-3.93110 Y-2.87375
G01 X-3.96421 Y-2.87375
G01 X-4.06890 Y-2.83039
G01 X-4.07460 Y-2.82739
G01 X-4.07939 Y-2.82349
G01 X-4.08329 Y-2.81870
G01 X-4.08629 Y-2.81300
G01 X-4.11402 Y-2.74604
G01 X-4.11603 Y-2.74151
G01 X-4.11747 Y-2.73847
G01 X-4.12284 Y-2.72845
G01 X-4.12466 Y-2.72541
G01 X-4.12821 Y-2.71981
G01 X-4.13364 Y-2.71749
G01 X-4.13647 Y-2.71637
G01 X-4.14785 Y-2.71247
G01 X-4.15082 Y-2.71162
G01 X-4.15689 Y-2.71003
G01 X-4.28125 Y-2.68067
G01 X-4.28323 Y-2.68078
G01 X-4.29095 Y-2.68116
G01 X-4.30905 Y-2.68116
G01 X-4.31677 Y-2.68078
G01 X-4.33509 Y-2.67897
G01 X-4.34280 Y-2.67782
G01 X-4.36191 Y-2.67401
G01 X-4.36962 Y-2.67208
G01 X-4.37874 Y-2.66958
G01 X-4.62125 Y-2.66958
G01 X-4.63037 Y-2.67208
G01 X-4.63809 Y-2.67401
G01 X-4.64969 Y-2.67656
G01 X-4.65715 Y-2.67797
G01 X-4.65903 Y-2.67833
G01 X-4.66202 Y-2.67892
G01 X-4.66475 Y-2.67949
G01 X-4.68028 Y-2.68281
G01 X-4.68298 Y-2.68337
G01 X-4.68327 Y-2.68343
G01 X-4.69057 Y-2.68502
G01 X-4.70204 Y-2.68777
G01 X-4.70510 Y-2.68848
G01 X-4.70988 Y-2.68955
G01 X-4.71782 Y-2.69148
G01 X-4.72590 Y-2.69361
G01 X-4.72915 Y-2.69444
G01 X-4.74065 Y-2.69730
G01 X-4.74116 Y-2.69743
G01 X-4.74937 Y-2.69948
G01 X-4.77860 Y-2.70525
G01 X-4.78810 Y-2.70666
G01 X-4.80693 Y-2.70895
G01 X-4.82663 Y-2.71038
G01 X-4.83703 Y-2.71089
G01 X-4.86277 Y-2.71147
G01 X-4.88980 Y-2.71076
G01 X-4.90000 Y-2.71026
G01 X-4.90000 Y-3.38489
G01 X-4.90000 Y-3.60000
G01 X-4.11744 Y-3.60000

G04 P0 ( dwell for no time -- G64 should not smooth over this point )
G00 Z1.000000 ( retract )

M5 ( Spindle off. )
G04 P1.000000
M9 ( Coolant off. )
M2 ( Program end. )

