( pcb2gcode 2.0.0 )
( Software-independent Gcode )

G94 ( Inches per minute feed rate. )
G20 ( Units == INCHES. )

G90 ( Absolute coordinates. )
G00 S12000 ( RPM spindle speed. )
G64 P0.00040 ( set maximum deviation from commanded toolpath )
G01 F360.00000 ( Feedrate. )


G00 Z1.00000 (Retract to tool change height)
T0
M5      (Spindle stop.)
G04 P1.00000 (Wait for spindle to stop)
(MSG, Change tool bit to mill diameter 0.00000in)
M6      (Tool change.)
M0      (Temporary machine stop.)
M3 ( Spindle on clockwise. )
G04 P1.00000 (Wait for spindle to get up to speed)
G04 P0 ( dwell for no time -- G64 should not smooth over this point )
G00 Z0.08000 ( retract )

G00 X-3.05000 Y-2.64749 ( rapid move to begin. )
G01 F180.00000
( Mill infeed pass 1/1 )
G01 Z-0.04000
G04 P0 ( dwell for no time -- G64 should not smooth over this point )
G01 F360.00000
G01 X-3.05000 Y-2.64749
G01 X-3.06794 Y-2.65038
G01 X-3.08133 Y-2.65215
G01 X-3.09646 Y-2.65390
G01 X-3.11668 Y-2.65593
G01 X-3.12094 Y-2.65633
G01 X-3.12533 Y-2.65671
G01 X-3.13634 Y-2.65787
G01 X-3.15098 Y-2.65967
G01 X-3.15466 Y-2.66009
G01 X-3.16418 Y-2.66112
G01 X-3.17348 Y-2.66232
G01 X-3.17719 Y-2.66288
G01 X-3.18051 Y-2.66335
G01 X-3.19421 Y-2.66519
G01 X-3.19914 Y-2.66592
G01 X-3.20224 Y-2.66642
G01 X-3.20264 Y-2.66648
G01 X-3.21071 Y-2.66781
G01 X-3.22048 Y-2.66912
G01 X-3.22870 Y-2.66999
G01 X-3.24589 Y-2.67089
G01 X-3.25411 Y-2.67089
G01 X-3.27130 Y-2.66999
G01 X-3.27952 Y-2.66912
G01 X-3.29727 Y-2.66630
G01 X-3.30550 Y-2.66456
G01 X-3.32445 Y-2.65946
G01 X-3.32527 Y-2.65920
G01 X-3.52782 Y-2.65920
G01 X-3.58203 Y-2.63674
G01 X-3.59267 Y-2.63591
G01 X-3.60814 Y-2.63390
G01 X-3.61795 Y-2.63209
G01 X-3.62890 Y-2.62948
G01 X-3.63788 Y-2.62682
G01 X-3.64589 Y-2.62399
G01 X-3.65411 Y-2.62059
G01 X-3.66018 Y-2.61770
G01 X-3.66772 Y-2.61360
G01 X-3.67251 Y-2.61067
G01 X-3.67941 Y-2.60594
G01 X-3.68336 Y-2.60291
G01 X-3.68802 Y-2.59892
G01 X-3.68966 Y-2.59759
G01 X-3.68976 Y-2.59751
G01 X-3.69209 Y-2.59557
G01 X-3.69328 Y-2.59451
G01 X-3.69553 Y-2.59263
G01 X-3.69796 Y-2.59072
G01 X-3.69983 Y-2.58933
G01 X-3.70194 Y-2.58784
G01 X-3.70427 Y-2.58609
G01 X-3.70452 Y-2.58589
G01 X-3.70929 Y-2.58248
G01 X-3.71174 Y-2.58090
G01 X-3.71217 Y-2.58062
G01 X-3.71461 Y-2.57902
G01 X-3.71527 Y-2.57553
G01 X-3.71657 Y-2.56730
G01 X-3.71721 Y-2.56120
G01 X-3.71743 Y-2.55710
G01 X-3.71779 Y-2.55299
G01 X-3.71855 Y-2.54693
G01 X-3.71879 Y-2.54524
G01 X-3.72422 Y-2.53839
G01 X-3.73059 Y-2.53248
G01 X-3.73788 Y-2.52749
G01 X-3.74610 Y-2.52343
G01 X-3.83152 Y-2.48805
G01 X-3.83338 Y-2.48805
G01 X-3.88232 Y-2.46777
G01 X-3.91110 Y-2.43900
G01 X-3.91610 Y-2.43462
G01 X-3.92110 Y-2.43150
G01 X-3.92610 Y-2.42962
G01 X-3.93110 Y-2.42900
G01 X-4.06890 Y-2.42900
G01 X-4.07390 Y-2.42962
G01 X-4.07890 Y-2.43150
G01 X-4.08390 Y-2.43462
G01 X-4.08890 Y-2.43900
G01 X-4.12418 Y-2.47428
G01 X-4.14507 Y-2.52470
G01 X-4.11287 Y-2.57680
G01 X-4.10382 Y-2.58909
G01 X-4.09348 Y-2.59878
G01 X-4.08184 Y-2.60588
G01 X-4.06890 Y-2.61039
G01 X-4.00277 Y-2.62600
G01 X-3.93310 Y-2.62600
G01 X-3.93110 Y-2.62800
G01 X-3.92077 Y-2.63980
G01 X-3.91340 Y-2.65160
G01 X-3.90897 Y-2.66340
G01 X-3.90750 Y-2.67520
G01 X-3.90750 Y-2.69490
G01 X-3.90602 Y-2.70670
G01 X-3.90160 Y-2.71850
G01 X-3.89422 Y-2.73030
G01 X-3.88390 Y-2.74210
G01 X-3.81300 Y-2.81300
G01 X-3.81131 Y-2.81470
G01 X-3.74610 Y-2.81470
G01 X-3.73385 Y-2.81439
G01 X-3.71981 Y-2.80953
G01 X-3.71679 Y-2.81007
G01 X-3.70698 Y-2.81189
G01 X-3.68231 Y-2.81777
G01 X-3.67333 Y-2.82043
G01 X-3.65411 Y-2.82721
G01 X-3.64588 Y-2.83062
G01 X-3.63863 Y-2.83383
G01 X-3.63153 Y-2.83716
G01 X-3.63034 Y-2.83773
G01 X-3.62871 Y-2.83851
G01 X-3.62268 Y-2.84125
G01 X-3.61607 Y-2.84408
G01 X-3.61520 Y-2.84395
G01 X-3.61146 Y-2.84340
G01 X-3.59646 Y-2.84044
G01 X-3.59303 Y-2.83958
G01 X-3.58116 Y-2.83600
G01 X-3.57800 Y-2.83487
G01 X-3.57295 Y-2.83292
G01 X-3.56938 Y-2.83144
G01 X-3.56780 Y-2.83027
G01 X-3.56245 Y-2.82639
G01 X-3.55410 Y-2.82094
G01 X-3.54875 Y-2.81785
G01 X-3.54197 Y-2.81439
G01 X-3.53662 Y-2.81201
G01 X-3.53093 Y-2.80981
G01 X-3.52558 Y-2.80808
G01 X-3.52061 Y-2.80674
G01 X-3.51526 Y-2.80560
G01 X-3.51075 Y-2.80489
G01 X-3.50540 Y-2.80432
G01 X-3.50110 Y-2.80410
G01 X-3.49575 Y-2.80410
G01 X-3.49145 Y-2.80432
G01 X-3.48610 Y-2.80489
G01 X-3.48159 Y-2.80560
G01 X-3.47624 Y-2.80674
G01 X-3.47127 Y-2.80808
G01 X-3.46592 Y-2.80981
G01 X-3.46022 Y-2.81201
G01 X-3.45487 Y-2.81439
G01 X-3.45474 Y-2.81445
G01 X-3.45343 Y-2.82093
G01 X-3.45261 Y-2.82441
G01 X-3.45209 Y-2.82634
G01 X-3.45094 Y-2.83175
G01 X-3.45009 Y-2.83710
G01 X-3.44956 Y-2.84217
G01 X-3.44928 Y-2.84753
G01 X-3.44928 Y-2.85248
G01 X-3.44956 Y-2.85782
G01 X-3.45009 Y-2.86289
G01 X-3.45094 Y-2.86824
G01 X-3.45209 Y-2.87366
G01 X-3.45261 Y-2.87559
G01 X-3.45343 Y-2.87907
G01 X-3.45477 Y-2.88570
G01 X-3.45577 Y-2.89200
G01 X-3.45700 Y-2.90245
G01 X-3.45770 Y-2.91059
G01 X-3.45893 Y-2.93212
G01 X-3.45939 Y-2.94426
G01 X-3.45958 Y-2.95421
G01 X-3.45344 Y-2.98067
G01 X-3.44460 Y-3.00983
G01 X-3.44153 Y-3.00985
G01 X-3.43574 Y-3.00982
G01 X-3.42559 Y-3.00967
G01 X-3.42165 Y-3.00964
G01 X-3.41270 Y-3.00964
G01 X-3.38853 Y-3.02524
G01 X-3.38030 Y-3.02999
G01 X-3.37834 Y-3.03111
G01 X-3.37776 Y-3.03144
G01 X-3.36765 Y-3.04211
G01 X-3.36247 Y-3.04787
G01 X-3.34733 Y-3.06648
G01 X-3.34314 Y-3.07224
G01 X-3.33326 Y-3.08740
G01 X-3.32993 Y-3.09316
G01 X-3.32340 Y-3.10594
G01 X-3.32084 Y-3.11170
G01 X-3.31656 Y-3.12280
G01 X-3.31469 Y-3.12856
G01 X-3.31200 Y-3.13857
G01 X-3.31077 Y-3.14433
G01 X-3.30930 Y-3.15364
G01 X-3.30907 Y-3.15574
G01 X-3.31026 Y-3.15973
G01 X-3.31331 Y-3.16838
G01 X-3.31569 Y-3.17414
G01 X-3.31893 Y-3.18094
G01 X-3.32180 Y-3.18622
G01 X-3.32519 Y-3.19177
G01 X-3.32851 Y-3.19660
G01 X-3.33211 Y-3.20129
G01 X-3.33586 Y-3.20569
G01 X-3.33742 Y-3.20743
G01 X-3.34067 Y-3.20880
G01 X-3.34544 Y-3.21063
G01 X-3.34677 Y-3.21063
G01 X-3.35229 Y-3.21063
G01 X-3.35894 Y-3.21063
G01 X-3.36253 Y-3.21063
G01 X-3.36858 Y-3.21063
G01 X-3.37131 Y-3.21063
G01 X-3.37710 Y-3.21063
G01 X-3.37834 Y-3.21063
G01 X-3.42165 Y-3.21063
G01 X-3.42289 Y-3.21063
G01 X-3.42869 Y-3.21063
G01 X-3.43141 Y-3.21063
G01 X-3.43747 Y-3.21063
G01 X-3.44106 Y-3.21063
G01 X-3.44771 Y-3.21063
G01 X-3.45323 Y-3.21063
G01 X-3.45419 Y-3.21063
G01 X-3.45924 Y-3.21257
G01 X-3.46483 Y-3.21507
G01 X-3.47059 Y-3.21800
G01 X-3.47748 Y-3.22199
G01 X-3.48324 Y-3.22573
G01 X-3.49197 Y-3.23211
G01 X-3.49774 Y-3.23677
G01 X-3.50917 Y-3.24712
G01 X-3.51205 Y-3.25000
G01 X-3.65734 Y-3.25000
G01 X-3.66576 Y-3.24851
G01 X-3.66720 Y-3.24768
G01 X-3.67923 Y-3.24153
G01 X-3.68704 Y-3.23805
G01 X-3.69729 Y-3.23410
G01 X-3.70511 Y-3.23156
G01 X-3.71416 Y-3.22913
G01 X-3.72198 Y-3.22747
G01 X-3.73031 Y-3.22614
G01 X-3.73813 Y-3.22532
G01 X-3.74609 Y-3.22491
G01 X-3.75391 Y-3.22491
G01 X-3.76187 Y-3.22532
G01 X-3.76969 Y-3.22614
G01 X-3.77802 Y-3.22747
G01 X-3.78507 Y-3.22897
G01 X-3.79883 Y-3.22511
G01 X-3.81260 Y-3.22382
G01 X-3.88740 Y-3.22382
G01 X-3.89788 Y-3.22456
G01 X-3.90836 Y-3.22680
G01 X-3.91884 Y-3.23053
G01 X-3.92932 Y-3.23575
G01 X-3.97068 Y-3.23575
G01 X-3.98116 Y-3.23053
G01 X-3.99164 Y-3.22680
G01 X-4.00212 Y-3.22456
G01 X-4.01260 Y-3.22382
G01 X-4.04280 Y-3.22382
G01 X-4.04643 Y-3.22373
G01 X-4.04951 Y-3.22358
G01 X-4.05684 Y-3.22285
G01 X-4.05992 Y-3.22240
G01 X-4.06758 Y-3.22087
G01 X-4.07066 Y-3.22010
G01 X-4.07885 Y-3.21760
G01 X-4.08194 Y-3.21650
G01 X-4.08634 Y-3.21480
G01 X-4.08740 Y-3.21436
G01 X-4.10146 Y-3.20966
G01 X-4.11709 Y-3.20652
G01 X-4.12513 Y-3.20178
G01 X-4.13230 Y-3.19789
G01 X-4.14609 Y-3.19133
G01 X-4.15391 Y-3.18809
G01 X-4.17107 Y-3.18204
G01 X-4.17960 Y-3.17951
G01 X-4.20172 Y-3.17424
G01 X-4.21105 Y-3.17251
G01 X-4.24057 Y-3.16869
G01 X-4.25082 Y-3.16788
G01 X-4.26285 Y-3.16714
G01 X-4.29194 Y-3.09691
G01 X-4.29589 Y-3.09303
G01 X-4.30411 Y-3.08481
G01 X-4.32058 Y-3.06661
G01 X-4.32724 Y-3.05838
G01 X-4.33749 Y-3.04433
G01 X-4.33946 Y-3.04130
G01 X-4.34290 Y-3.03625
G01 X-4.34326 Y-3.03575
G01 X-4.34524 Y-3.03289
G01 X-4.35001 Y-3.02582
G01 X-4.35157 Y-3.02357
G01 X-4.35343 Y-3.02095
G01 X-4.35504 Y-3.01875
G01 X-4.35930 Y-3.01309
G01 X-4.36110 Y-3.01061
G01 X-4.36113 Y-3.01057
G01 X-4.36616 Y-3.00404
G01 X-4.36670 Y-3.00340
G01 X-4.36862 Y-3.00105
G01 X-4.37145 Y-2.99747
G01 X-4.37223 Y-2.99646
G01 X-4.37728 Y-2.98988
G01 X-4.38314 Y-2.98134
G01 X-4.38757 Y-2.97412
G01 X-4.39310 Y-2.96392
G01 X-4.39685 Y-2.95604
G01 X-4.40207 Y-2.94341
G01 X-4.40511 Y-2.93481
G01 X-4.40561 Y-2.93339
G01 X-4.41048 Y-2.93137
G01 X-4.41258 Y-2.93100
G01 X-4.41896 Y-2.92982
G01 X-4.43257 Y-2.92658
G01 X-4.43840 Y-2.92485
G01 X-4.44890 Y-2.92115
G01 X-4.45425 Y-2.91893
G01 X-4.46264 Y-2.91494
G01 X-4.46754 Y-2.91228
G01 X-4.47448 Y-2.90803
G01 X-4.47896 Y-2.90495
G01 X-4.48489 Y-2.90040
G01 X-4.48897 Y-2.89692
G01 X-4.49419 Y-2.89196
G01 X-4.49424 Y-2.89192
G01 X-4.49523 Y-2.88570
G01 X-4.49657 Y-2.87907
G01 X-4.49739 Y-2.87559
G01 X-4.49790 Y-2.87366
G01 X-4.49906 Y-2.86824
G01 X-4.49991 Y-2.86289
G01 X-4.50044 Y-2.85782
G01 X-4.50072 Y-2.85248
G01 X-4.50072 Y-2.84753
G01 X-4.50044 Y-2.84217
G01 X-4.49991 Y-2.83710
G01 X-4.49906 Y-2.83175
G01 X-4.49876 Y-2.83006
G01 X-4.49526 Y-2.82786
G01 X-4.48991 Y-2.82477
G01 X-4.48588 Y-2.82271
G01 X-4.48053 Y-2.82033
G01 X-4.47733 Y-2.81910
G01 X-4.47198 Y-2.81736
G01 X-4.46935 Y-2.81665
G01 X-4.46400 Y-2.81551
G01 X-4.46171 Y-2.81515
G01 X-4.45636 Y-2.81459
G01 X-4.45425 Y-2.81448
G01 X-4.44890 Y-2.81448
G01 X-4.44678 Y-2.81459
G01 X-4.44143 Y-2.81515
G01 X-4.43915 Y-2.81551
G01 X-4.43380 Y-2.81665
G01 X-4.43117 Y-2.81736
G01 X-4.42582 Y-2.81910
G01 X-4.42513 Y-2.81933
G01 X-4.30000 Y-2.81933
G01 X-4.29854 Y-2.81936
G01 X-4.29545 Y-2.81952
G01 X-4.29246 Y-2.81981
G01 X-4.28937 Y-2.82027
G01 X-4.28619 Y-2.82090
G01 X-4.28311 Y-2.82168
G01 X-4.27962 Y-2.82274
G01 X-4.27653 Y-2.82384
G01 X-4.27257 Y-2.82549
G01 X-4.26948 Y-2.82695
G01 X-4.26483 Y-2.82944
G01 X-4.26174 Y-2.83129
G01 X-4.25610 Y-2.83507
G01 X-4.25301 Y-2.83736
G01 X-4.24601 Y-2.84314
G01 X-4.24292 Y-2.84594
G01 X-4.23866 Y-2.85000
G01 X-4.21132 Y-2.87733
G01 X-4.19612 Y-2.88363
G01 X-4.06278 Y-3.01698
G01 X-4.05713 Y-3.02236
G01 X-4.05487 Y-3.02440
G01 X-4.04266 Y-3.03442
G01 X-4.04019 Y-3.03625
G01 X-4.02635 Y-3.04549
G01 X-4.02366 Y-3.04710
G01 X-4.00773 Y-3.05560
G01 X-4.00482 Y-3.05698
G01 X-3.99693 Y-3.06050
G01 X-3.99580 Y-3.06050
G01 X-3.72611 Y-3.06050
G01 X-3.72538 Y-3.06074
G01 X-3.70611 Y-3.06592
G01 X-3.69788 Y-3.06767
G01 X-3.67982 Y-3.07054
G01 X-3.67160 Y-3.07140
G01 X-3.65411 Y-3.07232
G01 X-3.64589 Y-3.07232
G01 X-3.62840 Y-3.07140
G01 X-3.62018 Y-3.07054
G01 X-3.60211 Y-3.06767
G01 X-3.59389 Y-3.06592
G01 X-3.57462 Y-3.06074
G01 X-3.56683 Y-3.05821
G01 X-3.56414 Y-3.05781
G01 X-3.54459 Y-3.05391
G01 X-3.54155 Y-3.05315
G01 X-3.52091 Y-3.04688
G01 X-3.51787 Y-3.04579
G01 X-3.50688 Y-3.04154
G01 X-3.48046 Y-3.03060
G01 X-3.47211 Y-3.02526
G01 X-3.46706 Y-3.02217
G01 X-3.44460 Y-3.00983
G01 X-3.45344 Y-2.98067
G01 X-3.45958 Y-2.95421
G01 X-3.45939 Y-2.94426
G01 X-3.45893 Y-2.93212
G01 X-3.45770 Y-2.91059
G01 X-3.45700 Y-2.90245
G01 X-3.45577 Y-2.89200
G01 X-3.45477 Y-2.88570
G01 X-3.45343 Y-2.87907
G01 X-3.45261 Y-2.87559
G01 X-3.45209 Y-2.87366
G01 X-3.45094 Y-2.86824
G01 X-3.45009 Y-2.86289
G01 X-3.44956 Y-2.85782
G01 X-3.44928 Y-2.85248
G01 X-3.44928 Y-2.84753
G01 X-3.44956 Y-2.84217
G01 X-3.45009 Y-2.83710
G01 X-3.45094 Y-2.83175
G01 X-3.45209 Y-2.82634
G01 X-3.45261 Y-2.82441
G01 X-3.45343 Y-2.82093
G01 X-3.45474 Y-2.81445
G01 X-3.44745 Y-2.80989
G01 X-3.44016 Y-2.80663
G01 X-3.43288 Y-2.80468
G01 X-3.42559 Y-2.80403
G01 X-3.37441 Y-2.80403
G01 X-3.36427 Y-2.80529
G01 X-3.35413 Y-2.80907
G01 X-3.35000 Y-2.80907
G01 X-3.34751 Y-2.80913
G01 X-3.34447 Y-2.80928
G01 X-3.33939 Y-2.80979
G01 X-3.33635 Y-2.81024
G01 X-3.33103 Y-2.81130
G01 X-3.32799 Y-2.81206
G01 X-3.32226 Y-2.81380
G01 X-3.31923 Y-2.81489
G01 X-3.31609 Y-2.81609
G01 X-3.24538 Y-2.84538
G01 X-3.24268 Y-2.85192
G01 X-3.23517 Y-2.86046
G01 X-3.22851 Y-2.86869
G01 X-3.22217 Y-2.87738
G01 X-3.21683 Y-2.88561
G01 X-3.21305 Y-2.89214
G01 X-3.20885 Y-2.90036
G01 X-3.20661 Y-2.90539
G01 X-3.20345 Y-2.91362
G01 X-3.20215 Y-2.91762
G01 X-3.19994 Y-2.92584
G01 X-3.19923 Y-2.92918
G01 X-3.19793 Y-2.93741
G01 X-3.19762 Y-2.94036
G01 X-3.19719 Y-2.94859
G01 X-3.19719 Y-2.95141
G01 X-3.19762 Y-2.95964
G01 X-3.19793 Y-2.96259
G01 X-3.19923 Y-2.97082
G01 X-3.19994 Y-2.97415
G01 X-3.20215 Y-2.98238
G01 X-3.20345 Y-2.98638
G01 X-3.20661 Y-2.99460
G01 X-3.20885 Y-2.99963
G01 X-3.20907 Y-3.00007
G01 X-3.20907 Y-3.18021
G01 X-3.20913 Y-3.18270
G01 X-3.20928 Y-3.18574
G01 X-3.20979 Y-3.19082
G01 X-3.21023 Y-3.19386
G01 X-3.21130 Y-3.19918
G01 X-3.21143 Y-3.19970
G01 X-3.21295 Y-3.20174
G01 X-3.21633 Y-3.20587
G01 X-3.21837 Y-3.20812
G01 X-3.22018 Y-3.21003
G01 X-3.28997 Y-3.27981
G01 X-3.29187 Y-3.28163
G01 X-3.29413 Y-3.28367
G01 X-3.29825 Y-3.28705
G01 X-3.30072 Y-3.28888
G01 X-3.30545 Y-3.29204
G01 X-3.30814 Y-3.29365
G01 X-3.31367 Y-3.29660
G01 X-3.31659 Y-3.29798
G01 X-3.31979 Y-3.29940
G01 X-3.32254 Y-3.30054
G01 X-3.32928 Y-3.29665
G01 X-3.33504 Y-3.29371
G01 X-3.34067 Y-3.29120
G01 X-3.34544 Y-3.28937
G01 X-3.34677 Y-3.28937
G01 X-3.35229 Y-3.28937
G01 X-3.35894 Y-3.28937
G01 X-3.36253 Y-3.28937
G01 X-3.36858 Y-3.28937
G01 X-3.37131 Y-3.28937
G01 X-3.37710 Y-3.28937
G01 X-3.37834 Y-3.28937
G01 X-3.42165 Y-3.28937
G01 X-3.42289 Y-3.28937
G01 X-3.42869 Y-3.28937
G01 X-3.43141 Y-3.28937
G01 X-3.43747 Y-3.28937
G01 X-3.44106 Y-3.28937
G01 X-3.44771 Y-3.28937
G01 X-3.45323 Y-3.28937
G01 X-3.45419 Y-3.28937
G01 X-3.45924 Y-3.28743
G01 X-3.46483 Y-3.28493
G01 X-3.47059 Y-3.28200
G01 X-3.47748 Y-3.27801
G01 X-3.48324 Y-3.27427
G01 X-3.49197 Y-3.26789
G01 X-3.49774 Y-3.26323
G01 X-3.50917 Y-3.25288
G01 X-3.51205 Y-3.25000
G01 X-3.50917 Y-3.25288
G01 X-3.49774 Y-3.26323
G01 X-3.49197 Y-3.26789
G01 X-3.48324 Y-3.27427
G01 X-3.47748 Y-3.27801
G01 X-3.47059 Y-3.28200
G01 X-3.46483 Y-3.28493
G01 X-3.45924 Y-3.28743
G01 X-3.45419 Y-3.28937
G01 X-3.45323 Y-3.28937
G01 X-3.44771 Y-3.28937
G01 X-3.44106 Y-3.28937
G01 X-3.43747 Y-3.28937
G01 X-3.43141 Y-3.28937
G01 X-3.42869 Y-3.28937
G01 X-3.42289 Y-3.28937
G01 X-3.42165 Y-3.28937
G01 X-3.37834 Y-3.28937
G01 X-3.37710 Y-3.28937
G01 X-3.37131 Y-3.28937
G01 X-3.36858 Y-3.28937
G01 X-3.36253 Y-3.28937
G01 X-3.35894 Y-3.28937
G01 X-3.35229 Y-3.28937
G01 X-3.34677 Y-3.28937
G01 X-3.34544 Y-3.28937
G01 X-3.34067 Y-3.29120
G01 X-3.33504 Y-3.29371
G01 X-3.32928 Y-3.29665
G01 X-3.32254 Y-3.30054
G01 X-3.32258 Y-3.30076
G01 X-3.32386 Y-3.30763
G01 X-3.32551 Y-3.31456
G01 X-3.32737 Y-3.32085
G01 X-3.32914 Y-3.32586
G01 X-3.33152 Y-3.33162
G01 X-3.33331 Y-3.33537
G01 X-3.33617 Y-3.34065
G01 X-3.33796 Y-3.34357
G01 X-3.34128 Y-3.34840
G01 X-3.34311 Y-3.35078
G01 X-3.34686 Y-3.35518
G01 X-3.34881 Y-3.35723
G01 X-3.35299 Y-3.36120
G01 X-3.35519 Y-3.36308
G01 X-3.35980 Y-3.36662
G01 X-3.36202 Y-3.36816
G01 X-3.36248 Y-3.36824
G01 X-3.36824 Y-3.36915
G01 X-3.37117 Y-3.36946
G01 X-3.37693 Y-3.36976
G01 X-3.37834 Y-3.36980
G01 X-3.42165 Y-3.36980
G01 X-3.42307 Y-3.36976
G01 X-3.42883 Y-3.36946
G01 X-3.43175 Y-3.36915
G01 X-3.43751 Y-3.36824
G01 X-3.44074 Y-3.36755
G01 X-3.44650 Y-3.36601
G01 X-3.45024 Y-3.36479
G01 X-3.45257 Y-3.36389
G01 X-3.67126 Y-3.36389
G01 X-3.67296 Y-3.36386
G01 X-3.67571 Y-3.36374
G01 X-3.67915 Y-3.36343
G01 X-3.68190 Y-3.36307
G01 X-3.68369 Y-3.36280
G01 X-3.71947 Y-3.35647
G01 X-3.72047 Y-3.35669
G01 X-3.72829 Y-3.35836
G01 X-3.73343 Y-3.35917
G01 X-3.74125 Y-3.35999
G01 X-3.74609 Y-3.36025
G01 X-3.75391 Y-3.36025
G01 X-3.75875 Y-3.35999
G01 X-3.76657 Y-3.35917
G01 X-3.77170 Y-3.35836
G01 X-3.77952 Y-3.35669
G01 X-3.78524 Y-3.35516
G01 X-3.78779 Y-3.35433
G01 X-3.78947 Y-3.34767
G01 X-3.79113 Y-3.34229
G01 X-3.79214 Y-3.33937
G01 X-3.79404 Y-3.33440
G01 X-3.79527 Y-3.33065
G01 X-3.79736 Y-3.32283
G01 X-3.79803 Y-3.31971
G01 X-3.79926 Y-3.31190
G01 X-3.79955 Y-3.30914
G01 X-3.79996 Y-3.30132
G01 X-3.79996 Y-3.29868
G01 X-3.79955 Y-3.29086
G01 X-3.79926 Y-3.28810
G01 X-3.79803 Y-3.28028
G01 X-3.79736 Y-3.27717
G01 X-3.79527 Y-3.26935
G01 X-3.79404 Y-3.26560
G01 X-3.79214 Y-3.26063
G01 X-3.79113 Y-3.25771
G01 X-3.78947 Y-3.25232
G01 X-3.78716 Y-3.24220
G01 X-3.78528 Y-3.23037
G01 X-3.78507 Y-3.22897
G01 X-3.79883 Y-3.22511
G01 X-3.81260 Y-3.22382
G01 X-3.88740 Y-3.22382
G01 X-3.89788 Y-3.22456
G01 X-3.90836 Y-3.22680
G01 X-3.91884 Y-3.23053
G01 X-3.92932 Y-3.23575
G01 X-3.97068 Y-3.23575
G01 X-3.98116 Y-3.23053
G01 X-3.99164 Y-3.22680
G01 X-4.00212 Y-3.22456
G01 X-4.01260 Y-3.22382
G01 X-4.04280 Y-3.22382
G01 X-4.04643 Y-3.22373
G01 X-4.04951 Y-3.22358
G01 X-4.05684 Y-3.22285
G01 X-4.05992 Y-3.22240
G01 X-4.06758 Y-3.22087
G01 X-4.07066 Y-3.22010
G01 X-4.07885 Y-3.21760
G01 X-4.08194 Y-3.21650
G01 X-4.08634 Y-3.21480
G01 X-4.08740 Y-3.21436
G01 X-4.10146 Y-3.20966
G01 X-4.11709 Y-3.20652
G01 X-4.12513 Y-3.20178
G01 X-4.13230 Y-3.19789
G01 X-4.14609 Y-3.19133
G01 X-4.15391 Y-3.18809
G01 X-4.17107 Y-3.18204
G01 X-4.17960 Y-3.17951
G01 X-4.20172 Y-3.17424
G01 X-4.21105 Y-3.17251
G01 X-4.24057 Y-3.16869
G01 X-4.25082 Y-3.16788
G01 X-4.26285 Y-3.16714
G01 X-4.29194 Y-3.09691
G01 X-4.29589 Y-3.09303
G01 X-4.30411 Y-3.08481
G01 X-4.32058 Y-3.06661
G01 X-4.32724 Y-3.05838
G01 X-4.33749 Y-3.04433
G01 X-4.33946 Y-3.04130
G01 X-4.34290 Y-3.03625
G01 X-4.34326 Y-3.03575
G01 X-4.34524 Y-3.03289
G01 X-4.35001 Y-3.02582
G01 X-4.35157 Y-3.02357
G01 X-4.35343 Y-3.02095
G01 X-4.35504 Y-3.01875
G01 X-4.35930 Y-3.01309
G01 X-4.36110 Y-3.01061
G01 X-4.36113 Y-3.01057
G01 X-4.36616 Y-3.00404
G01 X-4.36670 Y-3.00340
G01 X-4.36862 Y-3.00105
G01 X-4.37145 Y-2.99747
G01 X-4.37223 Y-2.99646
G01 X-4.37728 Y-2.98988
G01 X-4.38314 Y-2.98134
G01 X-4.38757 Y-2.97412
G01 X-4.39310 Y-2.96392
G01 X-4.39685 Y-2.95604
G01 X-4.40207 Y-2.94341
G01 X-4.40511 Y-2.93481
G01 X-4.40561 Y-2.93339
G01 X-4.41048 Y-2.93137
G01 X-4.41258 Y-2.93100
G01 X-4.41896 Y-2.92982
G01 X-4.43257 Y-2.92658
G01 X-4.43840 Y-2.92485
G01 X-4.44890 Y-2.92115
G01 X-4.45425 Y-2.91893
G01 X-4.46264 Y-2.91494
G01 X-4.46754 Y-2.91228
G01 X-4.47448 Y-2.90803
G01 X-4.47896 Y-2.90495
G01 X-4.48489 Y-2.90040
G01 X-4.48897 Y-2.89692
G01 X-4.49419 Y-2.89196
G01 X-4.49424 Y-2.89192
G01 X-4.49523 Y-2.88570
G01 X-4.49657 Y-2.87907
G01 X-4.49739 Y-2.87559
G01 X-4.49790 Y-2.87366
G01 X-4.49906 Y-2.86824
G01 X-4.49991 Y-2.86289
G01 X-4.50044 Y-2.85782
G01 X-4.50072 Y-2.85248
G01 X-4.50072 Y-2.84753
G01 X-4.50044 Y-2.84217
G01 X-4.49991 Y-2.83710
G01 X-4.49906 Y-2.83175
G01 X-4.49876 Y-2.83006
G01 X-4.50441 Y-2.82441
G01 X-4.50941 Y-2.82003
G01 X-4.51441 Y-2.81691
G01 X-4.51941 Y-2.81503
G01 X-4.52441 Y-2.81441
G01 X-4.57559 Y-2.81441
G01 X-4.58269 Y-2.81567
G01 X-4.58980 Y-2.81945
G01 X-4.60000 Y-2.81945
G01 X-4.60147 Y-2.81949
G01 X-4.60451 Y-2.81964
G01 X-4.60753 Y-2.81994
G01 X-4.61057 Y-2.82039
G01 X-4.61377 Y-2.82103
G01 X-4.61681 Y-2.82179
G01 X-4.62031 Y-2.82285
G01 X-4.62335 Y-2.82394
G01 X-4.62530 Y-2.82469
G01 X-4.63346 Y-2.82807
G01 X-4.69279 Y-2.88740
G01 X-4.69588 Y-2.88856
G01 X-4.70411 Y-2.89197
G01 X-4.70776 Y-2.89371
G01 X-4.71530 Y-2.89780
G01 X-4.71800 Y-2.89945
G01 X-4.72490 Y-2.90419
G01 X-4.72702 Y-2.90582
G01 X-4.73329 Y-2.91118
G01 X-4.73508 Y-2.91288
G01 X-4.74075 Y-2.91885
G01 X-4.74239 Y-2.92077
G01 X-4.74632 Y-2.92589
G01 X-4.74681 Y-2.92772
G01 X-4.74735 Y-2.93029
G01 X-4.74866 Y-2.93851
G01 X-4.74889 Y-2.94072
G01 X-4.74932 Y-2.94895
G01 X-4.74932 Y-2.95105
G01 X-4.74889 Y-2.95927
G01 X-4.74866 Y-2.96148
G01 X-4.74735 Y-2.96971
G01 X-4.74681 Y-2.97228
G01 X-4.74632 Y-2.97411
G01 X-4.74239 Y-2.97923
G01 X-4.74075 Y-2.98115
G01 X-4.73508 Y-2.98712
G01 X-4.73329 Y-2.98882
G01 X-4.72701 Y-2.99418
G01 X-4.72490 Y-2.99580
G01 X-4.71800 Y-3.00054
G01 X-4.71530 Y-3.00220
G01 X-4.70776 Y-3.00629
G01 X-4.70411 Y-3.00802
G01 X-4.69589 Y-3.01143
G01 X-4.69076 Y-3.01324
G01 X-4.68179 Y-3.01590
G01 X-4.67438 Y-3.01767
G01 X-4.66456 Y-3.01948
G01 X-4.65357 Y-3.02091
G01 X-4.64278 Y-3.02176
G01 X-4.62601 Y-3.02215
G01 X-4.61406 Y-3.02184
G01 X-4.58885 Y-3.01983
G01 X-4.55284 Y-3.05585
G01 X-4.53616 Y-3.06092
G01 X-4.53014 Y-3.06305
G01 X-4.52165 Y-3.06631
G01 X-4.49865 Y-3.07583
G01 X-4.47835 Y-3.09614
G01 X-4.47384 Y-3.10088
G01 X-4.46865 Y-3.10664
G01 X-4.46274 Y-3.11391
G01 X-4.45856 Y-3.11967
G01 X-4.45502 Y-3.12510
G01 X-4.45169 Y-3.13086
G01 X-4.44957 Y-3.13500
G01 X-4.44701 Y-3.14076
G01 X-4.44576 Y-3.14402
G01 X-4.44388 Y-3.14978
G01 X-4.44317 Y-3.15244
G01 X-4.44194 Y-3.15821
G01 X-4.44158 Y-3.16050
G01 X-4.44097 Y-3.16626
G01 X-4.44086 Y-3.16838
G01 X-4.44086 Y-3.17414
G01 X-4.44097 Y-3.17626
G01 X-4.44158 Y-3.18202
G01 X-4.44194 Y-3.18431
G01 X-4.44317 Y-3.19007
G01 X-4.44388 Y-3.19274
G01 X-4.44576 Y-3.19850
G01 X-4.44701 Y-3.20175
G01 X-4.44957 Y-3.20752
G01 X-4.45111 Y-3.21063
G01 X-4.45229 Y-3.21063
G01 X-4.45894 Y-3.21063
G01 X-4.46253 Y-3.21063
G01 X-4.46858 Y-3.21063
G01 X-4.47131 Y-3.21063
G01 X-4.47710 Y-3.21063
G01 X-4.47835 Y-3.21063
G01 X-4.52165 Y-3.21063
G01 X-4.52289 Y-3.21063
G01 X-4.52869 Y-3.21063
G01 X-4.53141 Y-3.21063
G01 X-4.53747 Y-3.21063
G01 X-4.54106 Y-3.21063
G01 X-4.54771 Y-3.21063
G01 X-4.55323 Y-3.21063
G01 X-4.55456 Y-3.21063
G01 X-4.55933 Y-3.21246
G01 X-4.56496 Y-3.21497
G01 X-4.57072 Y-3.21791
G01 X-4.57764 Y-3.22192
G01 X-4.58340 Y-3.22566
G01 X-4.58952 Y-3.22997
G01 X-4.59224 Y-3.23205
G01 X-4.59412 Y-3.23345
G01 X-4.59741 Y-3.23585
G01 X-4.59846 Y-3.23662
G01 X-4.61033 Y-3.24513
G01 X-4.61306 Y-3.24712
G01 X-4.61442 Y-3.24812
G01 X-4.62108 Y-3.25288
G01 X-4.63748 Y-3.26419
G01 X-4.64300 Y-3.26806
G01 X-4.65255 Y-3.27488
G01 X-4.66478 Y-3.28337
G01 X-4.67366 Y-3.28937
G01 X-4.68073 Y-3.29198
G01 X-4.68905 Y-3.29497
G01 X-4.69105 Y-3.29568
G01 X-4.69458 Y-3.29692
G01 X-4.72667 Y-3.30841
G01 X-4.77171 Y-3.32586
G01 X-4.78561 Y-3.33162
G01 X-4.82725 Y-3.34970
G01 X-4.87172 Y-3.37060
G01 X-4.90000 Y-3.38480
G01 X-4.87172 Y-3.37060
G01 X-4.82725 Y-3.34970
G01 X-4.78561 Y-3.33162
G01 X-4.77171 Y-3.32586
G01 X-4.72667 Y-3.30841
G01 X-4.69458 Y-3.29692
G01 X-4.69105 Y-3.29568
G01 X-4.68905 Y-3.29497
G01 X-4.68073 Y-3.29198
G01 X-4.67366 Y-3.28937
G01 X-4.61717 Y-3.28937
G01 X-4.60300 Y-3.28937
G01 X-4.58074 Y-3.28937
G01 X-4.57094 Y-3.28937
G01 X-4.56098 Y-3.28937
G01 X-4.55323 Y-3.28937
G01 X-4.54771 Y-3.28937
G01 X-4.54106 Y-3.28937
G01 X-4.53747 Y-3.28937
G01 X-4.53141 Y-3.28937
G01 X-4.52869 Y-3.28937
G01 X-4.52289 Y-3.28937
G01 X-4.52165 Y-3.28937
G01 X-4.47835 Y-3.28937
G01 X-4.47710 Y-3.28937
G01 X-4.47131 Y-3.28937
G01 X-4.46858 Y-3.28937
G01 X-4.46253 Y-3.28937
G01 X-4.45894 Y-3.28937
G01 X-4.45229 Y-3.28937
G01 X-4.44677 Y-3.28937
G01 X-4.44581 Y-3.28937
G01 X-4.44548 Y-3.28924
G01 X-4.41979 Y-3.28924
G01 X-4.41745 Y-3.28919
G01 X-4.41441 Y-3.28904
G01 X-4.40967 Y-3.28857
G01 X-4.40663 Y-3.28812
G01 X-4.40167 Y-3.28713
G01 X-4.39863 Y-3.28637
G01 X-4.39324 Y-3.28473
G01 X-4.39020 Y-3.28364
G01 X-4.38727 Y-3.28251
G01 X-4.38090 Y-3.27987
G01 X-4.37759 Y-3.27840
G01 X-4.37455 Y-3.27696
G01 X-4.36710 Y-3.27297
G01 X-4.36406 Y-3.27115
G01 X-4.35531 Y-3.26528
G01 X-4.35227 Y-3.26303
G01 X-4.34164 Y-3.25426
G01 X-4.33860 Y-3.25151
G01 X-4.33230 Y-3.24550
G01 X-4.26964 Y-3.18284
G01 X-4.26285 Y-3.16714
G01 X-4.25082 Y-3.16788
G01 X-4.24057 Y-3.16869
G01 X-4.21105 Y-3.17251
G01 X-4.20172 Y-3.17424
G01 X-4.17960 Y-3.17951
G01 X-4.17107 Y-3.18204
G01 X-4.15391 Y-3.18809
G01 X-4.14609 Y-3.19133
G01 X-4.13230 Y-3.19789
G01 X-4.12513 Y-3.20178
G01 X-4.11709 Y-3.20652
G01 X-4.11645 Y-3.21505
G01 X-4.11472 Y-3.23037
G01 X-4.11283 Y-3.24220
G01 X-4.11053 Y-3.25232
G01 X-4.10887 Y-3.25771
G01 X-4.10786 Y-3.26063
G01 X-4.10595 Y-3.26560
G01 X-4.10473 Y-3.26935
G01 X-4.10264 Y-3.27717
G01 X-4.10197 Y-3.28028
G01 X-4.10073 Y-3.28810
G01 X-4.10044 Y-3.29086
G01 X-4.10003 Y-3.29868
G01 X-4.10003 Y-3.30132
G01 X-4.10044 Y-3.30914
G01 X-4.10073 Y-3.31190
G01 X-4.10197 Y-3.31971
G01 X-4.10264 Y-3.32283
G01 X-4.10473 Y-3.33065
G01 X-4.10595 Y-3.33440
G01 X-4.10786 Y-3.33937
G01 X-4.10887 Y-3.34229
G01 X-4.11053 Y-3.34767
G01 X-4.11283 Y-3.35780
G01 X-4.11472 Y-3.36963
G01 X-4.11645 Y-3.38494
G01 X-4.11944 Y-3.42502
G01 X-4.12107 Y-3.45496
G01 X-4.12275 Y-3.50034
G01 X-4.12233 Y-3.50945
G01 X-4.12169 Y-3.52221
G01 X-4.11744 Y-3.60000
G01 X-3.05000 Y-3.60000
G01 X-3.05000 Y-2.64749
G01 X-3.05000 Y-2.35000
G01 X-4.90000 Y-2.35000
G01 X-4.90000 Y-2.71010
G01 X-4.88488 Y-2.71093
G01 X-4.87294 Y-2.71124
G01 X-4.84649 Y-2.71130
G01 X-4.82137 Y-2.71003
G01 X-4.81058 Y-2.70918
G01 X-4.79146 Y-2.70720
G01 X-4.77321 Y-2.70434
G01 X-4.76340 Y-2.70252
G01 X-4.74111 Y-2.69748
G01 X-4.73521 Y-2.69588
G01 X-4.72923 Y-2.69435
G01 X-4.72632 Y-2.69364
G01 X-4.72595 Y-2.69355
G01 X-4.70513 Y-2.68844
G01 X-4.70411 Y-2.68819
G01 X-4.70209 Y-2.68768
G01 X-4.69589 Y-2.68623
G01 X-4.68325 Y-2.68349
G01 X-4.68028 Y-2.68282
G01 X-4.67618 Y-2.68186
G01 X-4.66813 Y-2.68016
G01 X-4.66201 Y-2.67901
G01 X-4.65902 Y-2.67842
G01 X-4.64969 Y-2.67650
G01 X-4.64831 Y-2.67621
G01 X-4.64008 Y-2.67447
G01 X-4.62142 Y-2.66958
G01 X-4.37858 Y-2.66958
G01 X-4.35991 Y-2.67447
G01 X-4.35169 Y-2.67622
G01 X-4.33170 Y-2.67939
G01 X-4.32348 Y-2.68025
G01 X-4.30411 Y-2.68127
G01 X-4.29589 Y-2.68127
G01 X-4.28118 Y-2.68068
G01 X-4.15689 Y-2.71003
G01 X-4.15082 Y-2.71162
G01 X-4.14785 Y-2.71247
G01 X-4.13647 Y-2.71637
G01 X-4.13364 Y-2.71749
G01 X-4.12821 Y-2.71981
G01 X-4.12466 Y-2.72541
G01 X-4.12284 Y-2.72845
G01 X-4.11747 Y-2.73847
G01 X-4.11603 Y-2.74151
G01 X-4.11402 Y-2.74604
G01 X-4.08629 Y-2.81300
G01 X-4.08329 Y-2.81870
G01 X-4.07939 Y-2.82349
G01 X-4.07460 Y-2.82739
G01 X-4.06890 Y-2.83039
G01 X-3.96421 Y-2.87375
G01 X-3.93110 Y-2.87375
G01 X-3.91613 Y-2.87283
G01 X-3.90115 Y-2.87006
G01 X-3.88618 Y-2.86544
G01 X-3.87121 Y-2.85899
G01 X-3.85623 Y-2.85068
G01 X-3.84126 Y-2.84053
G01 X-3.82628 Y-2.82854
G01 X-3.81131 Y-2.81470
G01 X-3.82628 Y-2.82854
G01 X-3.84126 Y-2.84053
G01 X-3.85623 Y-2.85068
G01 X-3.87121 Y-2.85899
G01 X-3.88618 Y-2.86544
G01 X-3.90115 Y-2.87006
G01 X-3.91613 Y-2.87283
G01 X-3.93110 Y-2.87375
G01 X-3.96421 Y-2.87375
G01 X-4.06890 Y-2.83039
G01 X-4.07460 Y-2.82739
G01 X-4.07939 Y-2.82349
G01 X-4.08329 Y-2.81870
G01 X-4.08629 Y-2.81300
G01 X-4.11402 Y-2.74604
G01 X-4.11603 Y-2.74151
G01 X-4.11747 Y-2.73847
G01 X-4.12284 Y-2.72845
G01 X-4.12466 Y-2.72541
G01 X-4.12821 Y-2.71981
G01 X-4.13364 Y-2.71749
G01 X-4.13647 Y-2.71637
G01 X-4.14785 Y-2.71247
G01 X-4.15082 Y-2.71162
G01 X-4.15689 Y-2.71003
G01 X-4.28118 Y-2.68068
G01 X-4.29589 Y-2.68127
G01 X-4.30411 Y-2.68127
G01 X-4.32348 Y-2.68025
G01 X-4.33170 Y-2.67939
G01 X-4.35169 Y-2.67622
G01 X-4.35991 Y-2.67447
G01 X-4.37858 Y-2.66958
G01 X-4.62142 Y-2.66958
G01 X-4.64008 Y-2.67447
G01 X-4.64831 Y-2.67621
G01 X-4.64969 Y-2.67650
G01 X-4.65902 Y-2.67842
G01 X-4.66201 Y-2.67901
G01 X-4.66813 Y-2.68016
G01 X-4.67618 Y-2.68186
G01 X-4.68028 Y-2.68282
G01 X-4.68325 Y-2.68349
G01 X-4.69589 Y-2.68623
G01 X-4.70209 Y-2.68768
G01 X-4.70411 Y-2.68819
G01 X-4.70513 Y-2.68844
G01 X-4.72595 Y-2.69355
G01 X-4.72632 Y-2.69364
G01 X-4.72923 Y-2.69435
G01 X-4.73521 Y-2.69588
G01 X-4.74111 Y-2.69748
G01 X-4.76340 Y-2.70252
G01 X-4.77321 Y-2.70434
G01 X-4.79146 Y-2.70720
G01 X-4.81058 Y-2.70918
G01 X-4.82137 Y-2.71003
G01 X-4.84649 Y-2.71130
G01 X-4.87294 Y-2.71124
G01 X-4.88488 Y-2.71093
G01 X-4.90000 Y-2.71010
G01 X-4.90000 Y-3.38480
G01 X-4.90000 Y-3.60000
G01 X-4.11744 Y-3.60000

G04 P0 ( dwell for no time -- G64 should not smooth over this point )
G00 Z1.000000 ( retract )

M5 ( Spindle off. )
G04 P1.000000
M9 ( Coolant off. )
M2 ( Program end. )

