( pcb2gcode 2.5.0 )
( Software-independent Gcode )

G94 ( Inches per minute feed rate. )
G20 ( Units == INCHES. )

G90 ( Absolute coordinates. )
G00 S12000 ( RPM spindle speed. )
G64 P0.00040 ( set maximum deviation from commanded toolpath )
G01 F360.00000 ( Feedrate. )


G00 Z1.00000 (Retract to tool change height)
T1
M5      (Spindle stop.)
G04 P1.00000 (Wait for spindle to stop)
(MSG, Change tool bit to mill diameter 0.00000in)
M6      (Tool change.)
M0      (Temporary machine stop.)
M3 ( Spindle on clockwise. )
G04 P1.00000 (Wait for spindle to get up to speed)
G04 P0 ( dwell for no time -- G64 should not smooth over this point )
G00 Z0.08000 ( retract )

G00 X-3.05000 Y-2.64776 ( rapid move to begin. )
G01 F180.00000
( Mill infeed pass 1/1 )
G01 Z-0.04000
G04 P0 ( dwell for no time -- G64 should not smooth over this point )
G01 F360.00000
G01 X-3.05000 Y-2.64776
G01 X-3.05227 Y-2.64814
G01 X-3.05295 Y-2.64825
G01 X-3.05633 Y-2.64879
G01 X-3.05700 Y-2.64890
G01 X-3.05996 Y-2.64936
G01 X-3.06063 Y-2.64946
G01 X-3.06355 Y-2.64990
G01 X-3.06422 Y-2.64999
G01 X-3.06703 Y-2.65040
G01 X-3.06769 Y-2.65049
G01 X-3.07110 Y-2.65097
G01 X-3.07175 Y-2.65106
G01 X-3.07417 Y-2.65138
G01 X-3.07482 Y-2.65147
G01 X-3.07686 Y-2.65173
G01 X-3.07751 Y-2.65181
G01 X-3.08071 Y-2.65221
G01 X-3.08136 Y-2.65229
G01 X-3.08416 Y-2.65262
G01 X-3.08480 Y-2.65270
G01 X-3.08701 Y-2.65295
G01 X-3.08765 Y-2.65302
G01 X-3.08982 Y-2.65325
G01 X-3.09046 Y-2.65332
G01 X-3.09308 Y-2.65359
G01 X-3.09371 Y-2.65366
G01 X-3.09611 Y-2.65389
G01 X-3.09649 Y-2.65393
G01 X-3.09673 Y-2.65395
G01 X-3.09923 Y-2.65419
G01 X-3.09962 Y-2.65423
G01 X-3.09984 Y-2.65425
G01 X-3.10025 Y-2.65429
G01 X-3.10181 Y-2.65444
G01 X-3.10242 Y-2.65450
G01 X-3.10434 Y-2.65469
G01 X-3.10495 Y-2.65474
G01 X-3.10585 Y-2.65483
G01 X-3.10645 Y-2.65489
G01 X-3.10712 Y-2.65496
G01 X-3.10772 Y-2.65502
G01 X-3.11024 Y-2.65527
G01 X-3.11083 Y-2.65532
G01 X-3.11137 Y-2.65538
G01 X-3.11196 Y-2.65544
G01 X-3.11259 Y-2.65550
G01 X-3.11317 Y-2.65556
G01 X-3.11490 Y-2.65573
G01 X-3.11547 Y-2.65579
G01 X-3.11731 Y-2.65598
G01 X-3.11744 Y-2.65599
G01 X-3.11789 Y-2.65604
G01 X-3.11801 Y-2.65605
G01 X-3.12028 Y-2.65628
G01 X-3.12084 Y-2.65634
G01 X-3.12243 Y-2.65650
G01 X-3.12260 Y-2.65652
G01 X-3.12299 Y-2.65656
G01 X-3.12316 Y-2.65658
G01 X-3.12449 Y-2.65672
G01 X-3.12504 Y-2.65677
G01 X-3.12688 Y-2.65697
G01 X-3.12738 Y-2.65702
G01 X-3.12743 Y-2.65702
G01 X-3.12793 Y-2.65708
G01 X-3.12918 Y-2.65721
G01 X-3.12972 Y-2.65727
G01 X-3.13144 Y-2.65745
G01 X-3.13197 Y-2.65751
G01 X-3.13227 Y-2.65754
G01 X-3.13281 Y-2.65760
G01 X-3.13338 Y-2.65766
G01 X-3.13391 Y-2.65771
G01 X-3.13582 Y-2.65792
G01 X-3.13634 Y-2.65798
G01 X-3.13684 Y-2.65803
G01 X-3.13737 Y-2.65809
G01 X-3.13742 Y-2.65809
G01 X-3.13793 Y-2.65815
G01 X-3.13978 Y-2.65835
G01 X-3.14030 Y-2.65841
G01 X-3.14143 Y-2.65854
G01 X-3.14158 Y-2.65856
G01 X-3.14195 Y-2.65860
G01 X-3.14209 Y-2.65861
G01 X-3.14362 Y-2.65878
G01 X-3.14412 Y-2.65884
G01 X-3.14543 Y-2.65899
G01 X-3.14585 Y-2.65904
G01 X-3.14594 Y-2.65905
G01 X-3.14635 Y-2.65909
G01 X-3.14732 Y-2.65920
G01 X-3.14782 Y-2.65926
G01 X-3.14950 Y-2.65945
G01 X-3.14969 Y-2.65948
G01 X-3.14999 Y-2.65951
G01 X-3.15018 Y-2.65953
G01 X-3.15117 Y-2.65965
G01 X-3.15166 Y-2.65970
G01 X-3.15280 Y-2.65984
G01 X-3.15328 Y-2.65989
G01 X-3.15351 Y-2.65992
G01 X-3.15400 Y-2.65998
G01 X-3.15488 Y-2.66008
G01 X-3.15536 Y-2.66014
G01 X-3.15669 Y-2.66030
G01 X-3.15716 Y-2.66036
G01 X-3.15720 Y-2.66036
G01 X-3.15768 Y-2.66042
G01 X-3.15827 Y-2.66049
G01 X-3.15875 Y-2.66054
G01 X-3.16003 Y-2.66070
G01 X-3.16050 Y-2.66076
G01 X-3.16118 Y-2.66084
G01 X-3.16158 Y-2.66089
G01 X-3.16166 Y-2.66090
G01 X-3.16204 Y-2.66095
G01 X-3.16352 Y-2.66113
G01 X-3.16398 Y-2.66119
G01 X-3.16437 Y-2.66123
G01 X-3.16480 Y-2.66129
G01 X-3.16484 Y-2.66129
G01 X-3.16526 Y-2.66134
G01 X-3.16669 Y-2.66152
G01 X-3.16715 Y-2.66158
G01 X-3.16812 Y-2.66170
G01 X-3.16816 Y-2.66171
G01 X-3.16859 Y-2.66176
G01 X-3.16861 Y-2.66177
G01 X-3.17001 Y-2.66194
G01 X-3.17046 Y-2.66200
G01 X-3.17143 Y-2.66213
G01 X-3.17144 Y-2.66213
G01 X-3.17188 Y-2.66218
G01 X-3.17189 Y-2.66219
G01 X-3.17287 Y-2.66231
G01 X-3.17331 Y-2.66237
G01 X-3.17443 Y-2.66252
G01 X-3.17457 Y-2.66254
G01 X-3.17487 Y-2.66257
G01 X-3.17502 Y-2.66259
G01 X-3.17590 Y-2.66271
G01 X-3.17634 Y-2.66277
G01 X-3.17742 Y-2.66291
G01 X-3.17786 Y-2.66297
G01 X-3.17788 Y-2.66297
G01 X-3.17832 Y-2.66303
G01 X-3.17900 Y-2.66312
G01 X-3.17944 Y-2.66318
G01 X-3.18049 Y-2.66332
G01 X-3.18092 Y-2.66338
G01 X-3.18102 Y-2.66340
G01 X-3.18146 Y-2.66346
G01 X-3.18191 Y-2.66352
G01 X-3.18234 Y-2.66358
G01 X-3.18337 Y-2.66372
G01 X-3.18379 Y-2.66378
G01 X-3.18396 Y-2.66380
G01 X-3.18439 Y-2.66386
G01 X-3.18477 Y-2.66391
G01 X-3.18520 Y-2.66397
G01 X-3.18607 Y-2.66409
G01 X-3.18650 Y-2.66415
G01 X-3.18689 Y-2.66421
G01 X-3.18732 Y-2.66427
G01 X-3.18769 Y-2.66432
G01 X-3.18812 Y-2.66438
G01 X-3.18907 Y-2.66452
G01 X-3.18949 Y-2.66458
G01 X-3.18995 Y-2.66464
G01 X-3.19038 Y-2.66470
G01 X-3.19045 Y-2.66471
G01 X-3.19087 Y-2.66477
G01 X-3.19160 Y-2.66488
G01 X-3.19202 Y-2.66494
G01 X-3.19273 Y-2.66504
G01 X-3.19315 Y-2.66511
G01 X-3.19326 Y-2.66512
G01 X-3.19368 Y-2.66518
G01 X-3.19440 Y-2.66529
G01 X-3.19482 Y-2.66535
G01 X-3.19565 Y-2.66547
G01 X-3.19573 Y-2.66548
G01 X-3.19607 Y-2.66554
G01 X-3.19614 Y-2.66555
G01 X-3.19706 Y-2.66568
G01 X-3.19747 Y-2.66574
G01 X-3.19834 Y-2.66587
G01 X-3.19848 Y-2.66589
G01 X-3.19875 Y-2.66594
G01 X-3.19889 Y-2.66596
G01 X-3.19979 Y-2.66609
G01 X-3.20020 Y-2.66616
G01 X-3.20117 Y-2.66630
G01 X-3.20119 Y-2.66631
G01 X-3.20159 Y-2.66637
G01 X-3.20160 Y-2.66637
G01 X-3.20238 Y-2.66649
G01 X-3.20278 Y-2.66655
G01 X-3.20368 Y-2.66669
G01 X-3.20397 Y-2.66674
G01 X-3.20408 Y-2.66676
G01 X-3.20439 Y-2.66680
G01 X-3.20497 Y-2.66689
G01 X-3.20538 Y-2.66696
G01 X-3.20614 Y-2.66708
G01 X-3.20653 Y-2.66714
G01 X-3.20654 Y-2.66714
G01 X-3.20694 Y-2.66721
G01 X-3.20770 Y-2.66732
G01 X-3.20810 Y-2.66739
G01 X-3.20878 Y-2.66750
G01 X-3.20918 Y-2.66756
G01 X-3.20926 Y-2.66757
G01 X-3.20966 Y-2.66764
G01 X-3.21005 Y-2.66770
G01 X-3.21045 Y-2.66777
G01 X-3.21071 Y-2.66781
G01 X-3.21132 Y-2.66791
G01 X-3.21172 Y-2.66797
G01 X-3.21266 Y-2.66812
G01 X-3.21306 Y-2.66818
G01 X-3.21387 Y-2.66830
G01 X-3.21426 Y-2.66836
G01 X-3.21519 Y-2.66850
G01 X-3.21559 Y-2.66855
G01 X-3.21626 Y-2.66865
G01 X-3.21666 Y-2.66870
G01 X-3.21778 Y-2.66885
G01 X-3.21818 Y-2.66891
G01 X-3.21879 Y-2.66899
G01 X-3.21918 Y-2.66904
G01 X-3.22005 Y-2.66914
G01 X-3.22045 Y-2.66919
G01 X-3.22151 Y-2.66932
G01 X-3.22191 Y-2.66937
G01 X-3.22256 Y-2.66944
G01 X-3.22296 Y-2.66949
G01 X-3.22382 Y-2.66958
G01 X-3.22422 Y-2.66963
G01 X-3.22507 Y-2.66972
G01 X-3.22547 Y-2.66976
G01 X-3.22653 Y-2.66986
G01 X-3.22693 Y-2.66990
G01 X-3.22754 Y-2.66996
G01 X-3.22794 Y-2.66999
G01 X-3.22879 Y-2.67007
G01 X-3.22919 Y-2.67010
G01 X-3.23004 Y-2.67017
G01 X-3.23044 Y-2.67021
G01 X-3.23125 Y-2.67027
G01 X-3.23165 Y-2.67030
G01 X-3.23270 Y-2.67038
G01 X-3.23310 Y-2.67041
G01 X-3.23374 Y-2.67045
G01 X-3.23414 Y-2.67048
G01 X-3.23495 Y-2.67053
G01 X-3.23535 Y-2.67055
G01 X-3.23639 Y-2.67062
G01 X-3.23679 Y-2.67064
G01 X-3.23741 Y-2.67067
G01 X-3.23781 Y-2.67069
G01 X-3.23862 Y-2.67073
G01 X-3.23902 Y-2.67075
G01 X-3.24006 Y-2.67080
G01 X-3.24046 Y-2.67081
G01 X-3.24107 Y-2.67083
G01 X-3.24147 Y-2.67085
G01 X-3.24249 Y-2.67088
G01 X-3.24289 Y-2.67089
G01 X-3.24372 Y-2.67092
G01 X-3.24412 Y-2.67093
G01 X-3.24473 Y-2.67094
G01 X-3.24513 Y-2.67095
G01 X-3.24614 Y-2.67097
G01 X-3.24654 Y-2.67097
G01 X-3.24737 Y-2.67098
G01 X-3.24777 Y-2.67099
G01 X-3.24858 Y-2.67099
G01 X-3.24898 Y-2.67100
G01 X-3.24980 Y-2.67100
G01 X-3.25020 Y-2.67100
G01 X-3.25102 Y-2.67100
G01 X-3.25142 Y-2.67099
G01 X-3.25223 Y-2.67099
G01 X-3.25263 Y-2.67098
G01 X-3.25346 Y-2.67097
G01 X-3.25385 Y-2.67097
G01 X-3.25487 Y-2.67095
G01 X-3.25527 Y-2.67094
G01 X-3.25588 Y-2.67093
G01 X-3.25628 Y-2.67092
G01 X-3.25711 Y-2.67089
G01 X-3.25751 Y-2.67088
G01 X-3.25853 Y-2.67085
G01 X-3.25893 Y-2.67083
G01 X-3.25954 Y-2.67081
G01 X-3.25994 Y-2.67080
G01 X-3.26098 Y-2.67075
G01 X-3.26138 Y-2.67073
G01 X-3.26219 Y-2.67069
G01 X-3.26259 Y-2.67067
G01 X-3.26320 Y-2.67064
G01 X-3.26360 Y-2.67062
G01 X-3.26465 Y-2.67055
G01 X-3.26505 Y-2.67053
G01 X-3.26586 Y-2.67048
G01 X-3.26626 Y-2.67045
G01 X-3.26690 Y-2.67041
G01 X-3.26730 Y-2.67038
G01 X-3.26835 Y-2.67030
G01 X-3.26875 Y-2.67027
G01 X-3.26956 Y-2.67021
G01 X-3.26996 Y-2.67017
G01 X-3.27081 Y-2.67010
G01 X-3.27121 Y-2.67007
G01 X-3.27206 Y-2.66999
G01 X-3.27246 Y-2.66996
G01 X-3.27307 Y-2.66990
G01 X-3.27347 Y-2.66986
G01 X-3.27452 Y-2.66976
G01 X-3.27492 Y-2.66972
G01 X-3.27578 Y-2.66963
G01 X-3.27618 Y-2.66958
G01 X-3.27703 Y-2.66949
G01 X-3.27743 Y-2.66944
G01 X-3.27809 Y-2.66937
G01 X-3.27849 Y-2.66932
G01 X-3.27955 Y-2.66919
G01 X-3.27995 Y-2.66914
G01 X-3.28081 Y-2.66904
G01 X-3.28121 Y-2.66899
G01 X-3.28182 Y-2.66891
G01 X-3.28222 Y-2.66885
G01 X-3.28334 Y-2.66870
G01 X-3.28374 Y-2.66865
G01 X-3.28441 Y-2.66855
G01 X-3.28480 Y-2.66850
G01 X-3.28573 Y-2.66836
G01 X-3.28613 Y-2.66830
G01 X-3.28694 Y-2.66818
G01 X-3.28734 Y-2.66812
G01 X-3.28828 Y-2.66797
G01 X-3.28867 Y-2.66791
G01 X-3.28955 Y-2.66777
G01 X-3.28995 Y-2.66770
G01 X-3.29082 Y-2.66756
G01 X-3.29122 Y-2.66749
G01 X-3.29189 Y-2.66737
G01 X-3.29229 Y-2.66730
G01 X-3.29344 Y-2.66710
G01 X-3.29384 Y-2.66703
G01 X-3.29460 Y-2.66689
G01 X-3.29499 Y-2.66682
G01 X-3.29587 Y-2.66665
G01 X-3.29627 Y-2.66657
G01 X-3.29715 Y-2.66641
G01 X-3.29755 Y-2.66633
G01 X-3.29832 Y-2.66617
G01 X-3.29872 Y-2.66609
G01 X-3.29968 Y-2.66590
G01 X-3.30008 Y-2.66582
G01 X-3.30097 Y-2.66563
G01 X-3.30137 Y-2.66555
G01 X-3.30234 Y-2.66534
G01 X-3.30274 Y-2.66525
G01 X-3.30363 Y-2.66506
G01 X-3.30403 Y-2.66497
G01 X-3.30490 Y-2.66477
G01 X-3.30530 Y-2.66468
G01 X-3.30599 Y-2.66452
G01 X-3.30639 Y-2.66443
G01 X-3.30758 Y-2.66415
G01 X-3.30798 Y-2.66405
G01 X-3.30867 Y-2.66389
G01 X-3.30907 Y-2.66379
G01 X-3.30997 Y-2.66357
G01 X-3.31037 Y-2.66347
G01 X-3.31127 Y-2.66324
G01 X-3.31167 Y-2.66314
G01 X-3.31277 Y-2.66286
G01 X-3.31318 Y-2.66275
G01 X-3.31387 Y-2.66257
G01 X-3.31427 Y-2.66246
G01 X-3.31539 Y-2.66216
G01 X-3.31579 Y-2.66206
G01 X-3.31661 Y-2.66183
G01 X-3.31701 Y-2.66172
G01 X-3.31791 Y-2.66147
G01 X-3.31831 Y-2.66136
G01 X-3.31925 Y-2.66109
G01 X-3.31965 Y-2.66098
G01 X-3.32067 Y-2.66068
G01 X-3.32107 Y-2.66056
G01 X-3.32203 Y-2.66028
G01 X-3.32243 Y-2.66016
G01 X-3.32333 Y-2.65989
G01 X-3.32373 Y-2.65977
G01 X-3.32470 Y-2.65947
G01 X-3.32510 Y-2.65935
G01 X-3.32557 Y-2.65920
G01 X-3.52782 Y-2.65920
G01 X-3.58176 Y-2.63686
G01 X-3.58236 Y-2.63682
G01 X-3.58290 Y-2.63679
G01 X-3.58355 Y-2.63674
G01 X-3.58408 Y-2.63671
G01 X-3.58522 Y-2.63663
G01 X-3.58575 Y-2.63659
G01 X-3.58656 Y-2.63653
G01 X-3.58708 Y-2.63649
G01 X-3.58818 Y-2.63640
G01 X-3.58871 Y-2.63636
G01 X-3.58948 Y-2.63629
G01 X-3.59000 Y-2.63624
G01 X-3.59077 Y-2.63618
G01 X-3.59129 Y-2.63613
G01 X-3.59215 Y-2.63604
G01 X-3.59267 Y-2.63599
G01 X-3.59347 Y-2.63591
G01 X-3.59398 Y-2.63586
G01 X-3.59481 Y-2.63577
G01 X-3.59532 Y-2.63572
G01 X-3.59620 Y-2.63562
G01 X-3.59671 Y-2.63556
G01 X-3.59751 Y-2.63547
G01 X-3.59802 Y-2.63541
G01 X-3.59877 Y-2.63532
G01 X-3.59927 Y-2.63526
G01 X-3.60004 Y-2.63516
G01 X-3.60054 Y-2.63509
G01 X-3.60127 Y-2.63500
G01 X-3.60177 Y-2.63493
G01 X-3.60242 Y-2.63484
G01 X-3.60291 Y-2.63477
G01 X-3.60379 Y-2.63465
G01 X-3.60429 Y-2.63458
G01 X-3.60499 Y-2.63447
G01 X-3.60548 Y-2.63440
G01 X-3.60617 Y-2.63429
G01 X-3.60666 Y-2.63422
G01 X-3.60719 Y-2.63414
G01 X-3.60767 Y-2.63406
G01 X-3.60856 Y-2.63391
G01 X-3.60905 Y-2.63383
G01 X-3.60956 Y-2.63374
G01 X-3.61004 Y-2.63366
G01 X-3.61068 Y-2.63355
G01 X-3.61117 Y-2.63347
G01 X-3.61180 Y-2.63335
G01 X-3.61228 Y-2.63327
G01 X-3.61297 Y-2.63314
G01 X-3.61345 Y-2.63305
G01 X-3.61407 Y-2.63293
G01 X-3.61455 Y-2.63284
G01 X-3.61521 Y-2.63271
G01 X-3.61569 Y-2.63262
G01 X-3.61621 Y-2.63252
G01 X-3.61668 Y-2.63242
G01 X-3.61727 Y-2.63230
G01 X-3.61774 Y-2.63220
G01 X-3.61832 Y-2.63208
G01 X-3.61879 Y-2.63198
G01 X-3.61928 Y-2.63187
G01 X-3.61974 Y-2.63177
G01 X-3.62049 Y-2.63161
G01 X-3.62095 Y-2.63151
G01 X-3.62138 Y-2.63141
G01 X-3.62184 Y-2.63130
G01 X-3.62239 Y-2.63118
G01 X-3.62285 Y-2.63107
G01 X-3.62339 Y-2.63094
G01 X-3.62384 Y-2.63083
G01 X-3.62441 Y-2.63069
G01 X-3.62487 Y-2.63058
G01 X-3.62536 Y-2.63046
G01 X-3.62581 Y-2.63035
G01 X-3.62636 Y-2.63021
G01 X-3.62681 Y-2.63009
G01 X-3.62720 Y-2.62999
G01 X-3.62765 Y-2.62988
G01 X-3.62830 Y-2.62970
G01 X-3.62874 Y-2.62959
G01 X-3.62909 Y-2.62949
G01 X-3.62954 Y-2.62937
G01 X-3.63002 Y-2.62924
G01 X-3.63047 Y-2.62912
G01 X-3.63106 Y-2.62895
G01 X-3.63150 Y-2.62882
G01 X-3.63186 Y-2.62872
G01 X-3.63230 Y-2.62859
G01 X-3.63276 Y-2.62846
G01 X-3.63320 Y-2.62833
G01 X-3.63365 Y-2.62820
G01 X-3.63409 Y-2.62806
G01 X-3.63464 Y-2.62790
G01 X-3.63508 Y-2.62776
G01 X-3.63539 Y-2.62767
G01 X-3.63583 Y-2.62753
G01 X-3.63626 Y-2.62740
G01 X-3.63669 Y-2.62726
G01 X-3.63712 Y-2.62712
G01 X-3.63755 Y-2.62699
G01 X-3.63796 Y-2.62685
G01 X-3.63838 Y-2.62671
G01 X-3.63890 Y-2.62654
G01 X-3.63932 Y-2.62640
G01 X-3.63963 Y-2.62630
G01 X-3.64005 Y-2.62615
G01 X-3.64045 Y-2.62602
G01 X-3.64087 Y-2.62588
G01 X-3.64136 Y-2.62571
G01 X-3.64178 Y-2.62556
G01 X-3.64206 Y-2.62546
G01 X-3.64248 Y-2.62531
G01 X-3.64286 Y-2.62518
G01 X-3.64327 Y-2.62502
G01 X-3.64374 Y-2.62485
G01 X-3.64416 Y-2.62470
G01 X-3.64443 Y-2.62460
G01 X-3.64484 Y-2.62445
G01 X-3.64529 Y-2.62428
G01 X-3.64570 Y-2.62412
G01 X-3.64607 Y-2.62398
G01 X-3.64647 Y-2.62383
G01 X-3.64674 Y-2.62372
G01 X-3.64714 Y-2.62357
G01 X-3.64757 Y-2.62340
G01 X-3.64798 Y-2.62324
G01 X-3.64832 Y-2.62310
G01 X-3.64873 Y-2.62294
G01 X-3.64906 Y-2.62280
G01 X-3.64947 Y-2.62263
G01 X-3.64980 Y-2.62250
G01 X-3.65020 Y-2.62233
G01 X-3.65053 Y-2.62220
G01 X-3.65093 Y-2.62203
G01 X-3.65125 Y-2.62189
G01 X-3.65165 Y-2.62172
G01 X-3.65197 Y-2.62158
G01 X-3.65236 Y-2.62141
G01 X-3.65275 Y-2.62124
G01 X-3.65315 Y-2.62107
G01 X-3.65338 Y-2.62097
G01 X-3.65377 Y-2.62079
G01 X-3.65408 Y-2.62065
G01 X-3.65448 Y-2.62048
G01 X-3.65485 Y-2.62031
G01 X-3.65524 Y-2.62013
G01 X-3.65547 Y-2.62003
G01 X-3.65585 Y-2.61985
G01 X-3.65623 Y-2.61967
G01 X-3.65661 Y-2.61949
G01 X-3.65690 Y-2.61935
G01 X-3.65729 Y-2.61917
G01 X-3.65750 Y-2.61907
G01 X-3.65788 Y-2.61889
G01 X-3.65825 Y-2.61871
G01 X-3.65863 Y-2.61852
G01 X-3.65891 Y-2.61839
G01 X-3.65929 Y-2.61820
G01 X-3.65950 Y-2.61809
G01 X-3.65988 Y-2.61790
G01 X-3.66023 Y-2.61773
G01 X-3.66060 Y-2.61754
G01 X-3.66087 Y-2.61740
G01 X-3.66125 Y-2.61721
G01 X-3.66152 Y-2.61707
G01 X-3.66189 Y-2.61687
G01 X-3.66216 Y-2.61673
G01 X-3.66254 Y-2.61654
G01 X-3.66273 Y-2.61643
G01 X-3.66310 Y-2.61624
G01 X-3.66343 Y-2.61606
G01 X-3.66380 Y-2.61586
G01 X-3.66406 Y-2.61572
G01 X-3.66443 Y-2.61552
G01 X-3.66469 Y-2.61538
G01 X-3.66505 Y-2.61518
G01 X-3.66525 Y-2.61507
G01 X-3.66561 Y-2.61486
G01 X-3.66593 Y-2.61469
G01 X-3.66629 Y-2.61448
G01 X-3.66654 Y-2.61434
G01 X-3.66690 Y-2.61413
G01 X-3.66707 Y-2.61403
G01 X-3.66743 Y-2.61382
G01 X-3.66775 Y-2.61364
G01 X-3.66811 Y-2.61343
G01 X-3.66830 Y-2.61332
G01 X-3.66865 Y-2.61311
G01 X-3.66891 Y-2.61295
G01 X-3.66926 Y-2.61274
G01 X-3.66948 Y-2.61261
G01 X-3.66984 Y-2.61240
G01 X-3.67009 Y-2.61224
G01 X-3.67044 Y-2.61203
G01 X-3.67067 Y-2.61188
G01 X-3.67102 Y-2.61167
G01 X-3.67125 Y-2.61152
G01 X-3.67160 Y-2.61130
G01 X-3.67177 Y-2.61119
G01 X-3.67212 Y-2.61097
G01 X-3.67242 Y-2.61078
G01 X-3.67276 Y-2.61056
G01 X-3.67295 Y-2.61044
G01 X-3.67330 Y-2.61022
G01 X-3.67352 Y-2.61007
G01 X-3.67386 Y-2.60985
G01 X-3.67408 Y-2.60970
G01 X-3.67442 Y-2.60948
G01 X-3.67460 Y-2.60935
G01 X-3.67494 Y-2.60913
G01 X-3.67518 Y-2.60897
G01 X-3.67551 Y-2.60874
G01 X-3.67572 Y-2.60860
G01 X-3.67606 Y-2.60837
G01 X-3.67629 Y-2.60821
G01 X-3.67662 Y-2.60798
G01 X-3.67683 Y-2.60783
G01 X-3.67716 Y-2.60760
G01 X-3.67736 Y-2.60746
G01 X-3.67769 Y-2.60722
G01 X-3.67785 Y-2.60711
G01 X-3.67818 Y-2.60688
G01 X-3.67845 Y-2.60669
G01 X-3.67877 Y-2.60645
G01 X-3.67893 Y-2.60634
G01 X-3.67925 Y-2.60610
G01 X-3.67945 Y-2.60595
G01 X-3.67978 Y-2.60571
G01 X-3.67997 Y-2.60557
G01 X-3.68029 Y-2.60533
G01 X-3.68053 Y-2.60515
G01 X-3.68085 Y-2.60491
G01 X-3.68100 Y-2.60479
G01 X-3.68132 Y-2.60455
G01 X-3.68155 Y-2.60437
G01 X-3.68187 Y-2.60412
G01 X-3.68204 Y-2.60399
G01 X-3.68236 Y-2.60374
G01 X-3.68254 Y-2.60360
G01 X-3.68286 Y-2.60335
G01 X-3.68305 Y-2.60320
G01 X-3.68336 Y-2.60295
G01 X-3.68357 Y-2.60279
G01 X-3.68388 Y-2.60254
G01 X-3.68407 Y-2.60238
G01 X-3.68438 Y-2.60213
G01 X-3.68456 Y-2.60199
G01 X-3.68487 Y-2.60173
G01 X-3.68505 Y-2.60158
G01 X-3.68536 Y-2.60132
G01 X-3.68552 Y-2.60119
G01 X-3.68583 Y-2.60093
G01 X-3.68599 Y-2.60080
G01 X-3.68629 Y-2.60054
G01 X-3.68651 Y-2.60035
G01 X-3.68682 Y-2.60009
G01 X-3.68697 Y-2.59996
G01 X-3.68728 Y-2.59970
G01 X-3.68749 Y-2.59951
G01 X-3.68779 Y-2.59924
G01 X-3.68791 Y-2.59914
G01 X-3.68809 Y-2.59899
G01 X-3.68821 Y-2.59887
G01 X-3.68832 Y-2.59878
G01 X-3.68843 Y-2.59869
G01 X-3.68863 Y-2.59851
G01 X-3.68873 Y-2.59842
G01 X-3.68888 Y-2.59829
G01 X-3.68908 Y-2.59812
G01 X-3.68918 Y-2.59803
G01 X-3.68936 Y-2.59787
G01 X-3.68938 Y-2.59785
G01 X-3.68967 Y-2.59761
G01 X-3.68980 Y-2.59749
G01 X-3.68982 Y-2.59748
G01 X-3.69011 Y-2.59723
G01 X-3.69012 Y-2.59721
G01 X-3.69030 Y-2.59706
G01 X-3.69059 Y-2.59681
G01 X-3.69061 Y-2.59680
G01 X-3.69082 Y-2.59662
G01 X-3.69090 Y-2.59655
G01 X-3.69113 Y-2.59636
G01 X-3.69128 Y-2.59623
G01 X-3.69132 Y-2.59620
G01 X-3.69158 Y-2.59597
G01 X-3.69163 Y-2.59593
G01 X-3.69174 Y-2.59584
G01 X-3.69204 Y-2.59558
G01 X-3.69212 Y-2.59552
G01 X-3.69226 Y-2.59540
G01 X-3.69244 Y-2.59526
G01 X-3.69257 Y-2.59515
G01 X-3.69269 Y-2.59504
G01 X-3.69287 Y-2.59490
G01 X-3.69300 Y-2.59479
G01 X-3.69318 Y-2.59464
G01 X-3.69322 Y-2.59461
G01 X-3.69353 Y-2.59435
G01 X-3.69364 Y-2.59426
G01 X-3.69372 Y-2.59420
G01 X-3.69396 Y-2.59401
G01 X-3.69403 Y-2.59395
G01 X-3.69419 Y-2.59382
G01 X-3.69444 Y-2.59361
G01 X-3.69450 Y-2.59356
G01 X-3.69472 Y-2.59338
G01 X-3.69476 Y-2.59335
G01 X-3.69504 Y-2.59313
G01 X-3.69516 Y-2.59303
G01 X-3.69521 Y-2.59299
G01 X-3.69548 Y-2.59278
G01 X-3.69553 Y-2.59274
G01 X-3.69570 Y-2.59260
G01 X-3.69602 Y-2.59234
G01 X-3.69603 Y-2.59234
G01 X-3.69618 Y-2.59221
G01 X-3.69635 Y-2.59208
G01 X-3.69650 Y-2.59196
G01 X-3.69670 Y-2.59181
G01 X-3.69682 Y-2.59171
G01 X-3.69702 Y-2.59156
G01 X-3.69715 Y-2.59145
G01 X-3.69722 Y-2.59140
G01 X-3.69754 Y-2.59115
G01 X-3.69762 Y-2.59108
G01 X-3.69774 Y-2.59099
G01 X-3.69795 Y-2.59083
G01 X-3.69807 Y-2.59074
G01 X-3.69823 Y-2.59061
G01 X-3.69850 Y-2.59040
G01 X-3.69856 Y-2.59036
G01 X-3.69873 Y-2.59023
G01 X-3.69883 Y-2.59015
G01 X-3.69906 Y-2.58998
G01 X-3.69928 Y-2.58980
G01 X-3.69930 Y-2.58979
G01 X-3.69962 Y-2.58955
G01 X-3.69963 Y-2.58954
G01 X-3.69984 Y-2.58938
G01 X-3.70017 Y-2.58913
G01 X-3.70019 Y-2.58912
G01 X-3.70035 Y-2.58900
G01 X-3.70053 Y-2.58886
G01 X-3.70068 Y-2.58875
G01 X-3.70086 Y-2.58861
G01 X-3.70107 Y-2.58846
G01 X-3.70120 Y-2.58836
G01 X-3.70141 Y-2.58820
G01 X-3.70146 Y-2.58817
G01 X-3.70179 Y-2.58792
G01 X-3.70189 Y-2.58784
G01 X-3.70201 Y-2.58776
G01 X-3.70223 Y-2.58759
G01 X-3.70235 Y-2.58751
G01 X-3.70254 Y-2.58737
G01 X-3.70283 Y-2.58715
G01 X-3.70288 Y-2.58711
G01 X-3.70308 Y-2.58697
G01 X-3.70318 Y-2.58690
G01 X-3.70342 Y-2.58672
G01 X-3.70366 Y-2.58655
G01 X-3.70376 Y-2.58648
G01 X-3.70401 Y-2.58630
G01 X-3.70411 Y-2.58622
G01 X-3.70424 Y-2.58613
G01 X-3.70459 Y-2.58588
G01 X-3.70467 Y-2.58582
G01 X-3.70484 Y-2.58570
G01 X-3.70503 Y-2.58556
G01 X-3.70519 Y-2.58545
G01 X-3.70540 Y-2.58530
G01 X-3.70562 Y-2.58514
G01 X-3.70575 Y-2.58505
G01 X-3.70596 Y-2.58490
G01 X-3.70598 Y-2.58489
G01 X-3.70631 Y-2.58465
G01 X-3.70658 Y-2.58446
G01 X-3.70663 Y-2.58442
G01 X-3.70694 Y-2.58421
G01 X-3.70700 Y-2.58417
G01 X-3.70724 Y-2.58400
G01 X-3.70760 Y-2.58375
G01 X-3.70761 Y-2.58374
G01 X-3.70779 Y-2.58361
G01 X-3.70798 Y-2.58348
G01 X-3.70816 Y-2.58336
G01 X-3.70838 Y-2.58320
G01 X-3.70867 Y-2.58301
G01 X-3.70875 Y-2.58295
G01 X-3.70904 Y-2.58275
G01 X-3.70907 Y-2.58273
G01 X-3.70944 Y-2.58248
G01 X-3.70970 Y-2.58230
G01 X-3.71008 Y-2.58204
G01 X-3.71035 Y-2.58186
G01 X-3.71073 Y-2.58160
G01 X-3.71082 Y-2.58154
G01 X-3.71100 Y-2.58142
G01 X-3.71120 Y-2.58128
G01 X-3.71138 Y-2.58116
G01 X-3.71170 Y-2.58095
G01 X-3.71197 Y-2.58077
G01 X-3.71208 Y-2.58069
G01 X-3.71234 Y-2.58052
G01 X-3.71236 Y-2.58051
G01 X-3.71272 Y-2.58026
G01 X-3.71295 Y-2.58011
G01 X-3.71309 Y-2.58003
G01 X-3.71334 Y-2.57985
G01 X-3.71348 Y-2.57976
G01 X-3.71378 Y-2.57957
G01 X-3.71418 Y-2.57931
G01 X-3.71431 Y-2.57922
G01 X-3.71442 Y-2.57915
G01 X-3.71461 Y-2.57902
G01 X-3.71466 Y-2.57882
G01 X-3.71473 Y-2.57850
G01 X-3.71481 Y-2.57810
G01 X-3.71488 Y-2.57775
G01 X-3.71496 Y-2.57735
G01 X-3.71502 Y-2.57707
G01 X-3.71510 Y-2.57667
G01 X-3.71516 Y-2.57633
G01 X-3.71524 Y-2.57593
G01 X-3.71530 Y-2.57564
G01 X-3.71537 Y-2.57524
G01 X-3.71544 Y-2.57487
G01 X-3.71551 Y-2.57447
G01 X-3.71555 Y-2.57426
G01 X-3.71562 Y-2.57386
G01 X-3.71570 Y-2.57345
G01 X-3.71576 Y-2.57305
G01 X-3.71581 Y-2.57278
G01 X-3.71587 Y-2.57238
G01 X-3.71592 Y-2.57207
G01 X-3.71599 Y-2.57167
G01 X-3.71604 Y-2.57136
G01 X-3.71610 Y-2.57096
G01 X-3.71615 Y-2.57065
G01 X-3.71621 Y-2.57025
G01 X-3.71624 Y-2.57002
G01 X-3.71630 Y-2.56962
G01 X-3.71636 Y-2.56922
G01 X-3.71642 Y-2.56882
G01 X-3.71645 Y-2.56861
G01 X-3.71650 Y-2.56821
G01 X-3.71655 Y-2.56781
G01 X-3.71660 Y-2.56741
G01 X-3.71664 Y-2.56718
G01 X-3.71669 Y-2.56678
G01 X-3.71672 Y-2.56648
G01 X-3.71677 Y-2.56608
G01 X-3.71681 Y-2.56572
G01 X-3.71686 Y-2.56532
G01 X-3.71688 Y-2.56507
G01 X-3.71693 Y-2.56467
G01 X-3.71696 Y-2.56439
G01 X-3.71700 Y-2.56399
G01 X-3.71703 Y-2.56369
G01 X-3.71707 Y-2.56329
G01 X-3.71711 Y-2.56292
G01 X-3.71714 Y-2.56252
G01 X-3.71717 Y-2.56229
G01 X-3.71720 Y-2.56189
G01 X-3.71723 Y-2.56160
G01 X-3.71726 Y-2.56119
G01 X-3.71728 Y-2.56091
G01 X-3.71732 Y-2.56051
G01 X-3.71734 Y-2.56022
G01 X-3.71737 Y-2.55983
G01 X-3.71739 Y-2.55945
G01 X-3.71742 Y-2.55905
G01 X-3.71744 Y-2.55884
G01 X-3.71746 Y-2.55844
G01 X-3.71748 Y-2.55815
G01 X-3.71750 Y-2.55775
G01 X-3.71752 Y-2.55739
G01 X-3.71754 Y-2.55710
G01 X-3.71754 Y-2.55699
G01 X-3.71755 Y-2.55678
G01 X-3.71758 Y-2.55638
G01 X-3.71760 Y-2.55602
G01 X-3.71763 Y-2.55562
G01 X-3.71764 Y-2.55540
G01 X-3.71767 Y-2.55501
G01 X-3.71770 Y-2.55465
G01 X-3.71773 Y-2.55425
G01 X-3.71775 Y-2.55404
G01 X-3.71778 Y-2.55364
G01 X-3.71781 Y-2.55328
G01 X-3.71785 Y-2.55288
G01 X-3.71788 Y-2.55260
G01 X-3.71792 Y-2.55220
G01 X-3.71795 Y-2.55192
G01 X-3.71799 Y-2.55152
G01 X-3.71802 Y-2.55123
G01 X-3.71807 Y-2.55083
G01 X-3.71809 Y-2.55062
G01 X-3.71814 Y-2.55022
G01 X-3.71820 Y-2.54978
G01 X-3.71825 Y-2.54938
G01 X-3.71828 Y-2.54916
G01 X-3.71833 Y-2.54876
G01 X-3.71837 Y-2.54847
G01 X-3.71843 Y-2.54807
G01 X-3.71847 Y-2.54778
G01 X-3.71853 Y-2.54737
G01 X-3.71858 Y-2.54708
G01 X-3.71864 Y-2.54668
G01 X-3.71870 Y-2.54630
G01 X-3.71877 Y-2.54590
G01 X-3.71880 Y-2.54568
G01 X-3.71887 Y-2.54528
G01 X-3.71891 Y-2.54506
G01 X-3.72095 Y-2.54226
G01 X-3.72613 Y-2.53643
G01 X-3.73204 Y-2.53136
G01 X-3.73870 Y-2.52702
G01 X-3.74610 Y-2.52343
G01 X-3.83152 Y-2.48805
G01 X-3.83338 Y-2.48805
G01 X-3.88232 Y-2.46777
G01 X-3.91110 Y-2.43900
G01 X-3.91610 Y-2.43462
G01 X-3.92110 Y-2.43150
G01 X-3.92610 Y-2.42962
G01 X-3.93110 Y-2.42900
G01 X-4.06890 Y-2.42900
G01 X-4.07390 Y-2.42962
G01 X-4.07890 Y-2.43150
G01 X-4.08390 Y-2.43462
G01 X-4.08890 Y-2.43900
G01 X-4.12418 Y-2.47428
G01 X-4.14506 Y-2.52470
G01 X-4.11287 Y-2.57680
G01 X-4.10382 Y-2.58909
G01 X-4.09348 Y-2.59878
G01 X-4.08184 Y-2.60588
G01 X-4.06890 Y-2.61039
G01 X-4.00277 Y-2.62600
G01 X-3.93310 Y-2.62600
G01 X-3.93110 Y-2.62800
G01 X-3.92077 Y-2.63980
G01 X-3.91340 Y-2.65160
G01 X-3.90897 Y-2.66340
G01 X-3.90750 Y-2.67520
G01 X-3.90750 Y-2.69490
G01 X-3.90602 Y-2.70670
G01 X-3.90160 Y-2.71850
G01 X-3.89422 Y-2.73030
G01 X-3.88390 Y-2.74210
G01 X-3.81300 Y-2.81300
G01 X-3.81131 Y-2.81470
G01 X-3.74610 Y-2.81470
G01 X-3.73389 Y-2.81439
G01 X-3.73326 Y-2.81417
G01 X-3.73287 Y-2.81404
G01 X-3.73173 Y-2.81365
G01 X-3.73134 Y-2.81352
G01 X-3.73030 Y-2.81316
G01 X-3.72992 Y-2.81303
G01 X-3.72850 Y-2.81254
G01 X-3.72811 Y-2.81240
G01 X-3.72723 Y-2.81209
G01 X-3.72684 Y-2.81196
G01 X-3.72544 Y-2.81147
G01 X-3.72506 Y-2.81134
G01 X-3.72393 Y-2.81094
G01 X-3.72355 Y-2.81081
G01 X-3.72241 Y-2.81040
G01 X-3.72203 Y-2.81027
G01 X-3.72115 Y-2.80996
G01 X-3.72078 Y-2.80982
G01 X-3.71979 Y-2.80947
G01 X-3.71914 Y-2.80958
G01 X-3.71865 Y-2.80966
G01 X-3.71754 Y-2.80985
G01 X-3.71706 Y-2.80993
G01 X-3.71567 Y-2.81017
G01 X-3.71519 Y-2.81026
G01 X-3.71380 Y-2.81050
G01 X-3.71332 Y-2.81059
G01 X-3.71181 Y-2.81087
G01 X-3.71133 Y-2.81096
G01 X-3.70997 Y-2.81121
G01 X-3.70950 Y-2.81130
G01 X-3.70803 Y-2.81159
G01 X-3.70756 Y-2.81168
G01 X-3.70641 Y-2.81191
G01 X-3.70594 Y-2.81201
G01 X-3.70463 Y-2.81228
G01 X-3.70416 Y-2.81237
G01 X-3.70287 Y-2.81264
G01 X-3.70240 Y-2.81274
G01 X-3.70131 Y-2.81298
G01 X-3.70084 Y-2.81308
G01 X-3.69919 Y-2.81345
G01 X-3.69872 Y-2.81355
G01 X-3.69776 Y-2.81377
G01 X-3.69730 Y-2.81387
G01 X-3.69607 Y-2.81416
G01 X-3.69561 Y-2.81426
G01 X-3.69440 Y-2.81455
G01 X-3.69394 Y-2.81466
G01 X-3.69265 Y-2.81497
G01 X-3.69220 Y-2.81508
G01 X-3.69109 Y-2.81536
G01 X-3.69064 Y-2.81547
G01 X-3.68939 Y-2.81579
G01 X-3.68894 Y-2.81590
G01 X-3.68805 Y-2.81613
G01 X-3.68760 Y-2.81625
G01 X-3.68612 Y-2.81664
G01 X-3.68567 Y-2.81676
G01 X-3.68488 Y-2.81698
G01 X-3.68443 Y-2.81710
G01 X-3.68331 Y-2.81740
G01 X-3.68287 Y-2.81752
G01 X-3.68151 Y-2.81791
G01 X-3.68107 Y-2.81803
G01 X-3.68024 Y-2.81827
G01 X-3.67980 Y-2.81840
G01 X-3.67872 Y-2.81871
G01 X-3.67829 Y-2.81884
G01 X-3.67722 Y-2.81915
G01 X-3.67679 Y-2.81928
G01 X-3.67549 Y-2.81968
G01 X-3.67506 Y-2.81981
G01 X-3.67432 Y-2.82004
G01 X-3.67388 Y-2.82017
G01 X-3.67286 Y-2.82049
G01 X-3.67243 Y-2.82063
G01 X-3.67142 Y-2.82095
G01 X-3.67099 Y-2.82109
G01 X-3.67003 Y-2.82140
G01 X-3.66961 Y-2.82154
G01 X-3.66838 Y-2.82194
G01 X-3.66796 Y-2.82208
G01 X-3.66722 Y-2.82233
G01 X-3.66680 Y-2.82247
G01 X-3.66587 Y-2.82279
G01 X-3.66545 Y-2.82294
G01 X-3.66427 Y-2.82335
G01 X-3.66385 Y-2.82349
G01 X-3.66317 Y-2.82374
G01 X-3.66275 Y-2.82388
G01 X-3.66185 Y-2.82421
G01 X-3.66143 Y-2.82436
G01 X-3.66030 Y-2.82477
G01 X-3.65988 Y-2.82492
G01 X-3.65922 Y-2.82517
G01 X-3.65881 Y-2.82532
G01 X-3.65771 Y-2.82573
G01 X-3.65730 Y-2.82589
G01 X-3.65642 Y-2.82622
G01 X-3.65601 Y-2.82638
G01 X-3.65537 Y-2.82663
G01 X-3.65496 Y-2.82679
G01 X-3.65391 Y-2.82721
G01 X-3.65351 Y-2.82736
G01 X-3.65266 Y-2.82770
G01 X-3.65225 Y-2.82787
G01 X-3.65142 Y-2.82820
G01 X-3.65102 Y-2.82837
G01 X-3.65020 Y-2.82870
G01 X-3.64980 Y-2.82887
G01 X-3.64898 Y-2.82921
G01 X-3.64859 Y-2.82938
G01 X-3.64778 Y-2.82972
G01 X-3.64738 Y-2.82989
G01 X-3.64658 Y-2.83023
G01 X-3.64619 Y-2.83040
G01 X-3.64521 Y-2.83083
G01 X-3.64481 Y-2.83100
G01 X-3.64423 Y-2.83126
G01 X-3.64384 Y-2.83143
G01 X-3.64305 Y-2.83178
G01 X-3.64266 Y-2.83196
G01 X-3.64171 Y-2.83239
G01 X-3.64132 Y-2.83257
G01 X-3.64075 Y-2.83283
G01 X-3.64036 Y-2.83301
G01 X-3.63941 Y-2.83345
G01 X-3.63903 Y-2.83364
G01 X-3.63863 Y-2.83383
G01 X-3.63829 Y-2.83398
G01 X-3.63790 Y-2.83417
G01 X-3.63759 Y-2.83431
G01 X-3.63735 Y-2.83442
G01 X-3.63721 Y-2.83449
G01 X-3.63697 Y-2.83460
G01 X-3.63604 Y-2.83504
G01 X-3.63566 Y-2.83522
G01 X-3.63530 Y-2.83539
G01 X-3.63494 Y-2.83555
G01 X-3.63491 Y-2.83557
G01 X-3.63456 Y-2.83573
G01 X-3.63401 Y-2.83599
G01 X-3.63363 Y-2.83617
G01 X-3.63316 Y-2.83639
G01 X-3.63278 Y-2.83656
G01 X-3.63272 Y-2.83659
G01 X-3.63234 Y-2.83677
G01 X-3.63164 Y-2.83709
G01 X-3.63126 Y-2.83727
G01 X-3.63079 Y-2.83748
G01 X-3.63054 Y-2.83760
G01 X-3.63041 Y-2.83766
G01 X-3.63016 Y-2.83777
G01 X-3.62944 Y-2.83810
G01 X-3.62907 Y-2.83827
G01 X-3.62871 Y-2.83844
G01 X-3.62856 Y-2.83851
G01 X-3.62833 Y-2.83861
G01 X-3.62818 Y-2.83868
G01 X-3.62730 Y-2.83908
G01 X-3.62693 Y-2.83925
G01 X-3.62636 Y-2.83951
G01 X-3.62622 Y-2.83957
G01 X-3.62599 Y-2.83968
G01 X-3.62585 Y-2.83974
G01 X-3.62514 Y-2.84006
G01 X-3.62477 Y-2.84023
G01 X-3.62430 Y-2.84044
G01 X-3.62424 Y-2.84047
G01 X-3.62393 Y-2.84061
G01 X-3.62386 Y-2.84064
G01 X-3.62300 Y-2.84103
G01 X-3.62263 Y-2.84120
G01 X-3.62217 Y-2.84140
G01 X-3.62194 Y-2.84151
G01 X-3.62179 Y-2.84157
G01 X-3.62157 Y-2.84167
G01 X-3.62108 Y-2.84189
G01 X-3.62071 Y-2.84206
G01 X-3.61996 Y-2.84239
G01 X-3.61982 Y-2.84245
G01 X-3.61958 Y-2.84256
G01 X-3.61945 Y-2.84262
G01 X-3.61892 Y-2.84285
G01 X-3.61855 Y-2.84301
G01 X-3.61795 Y-2.84328
G01 X-3.61782 Y-2.84334
G01 X-3.61757 Y-2.84345
G01 X-3.61745 Y-2.84350
G01 X-3.61682 Y-2.84378
G01 X-3.61645 Y-2.84394
G01 X-3.61606 Y-2.84411
G01 X-3.61565 Y-2.84405
G01 X-3.61514 Y-2.84398
G01 X-3.61293 Y-2.84366
G01 X-3.61243 Y-2.84359
G01 X-3.61029 Y-2.84325
G01 X-3.60980 Y-2.84317
G01 X-3.60746 Y-2.84277
G01 X-3.60698 Y-2.84268
G01 X-3.60517 Y-2.84234
G01 X-3.60468 Y-2.84225
G01 X-3.60249 Y-2.84182
G01 X-3.60202 Y-2.84172
G01 X-3.60007 Y-2.84130
G01 X-3.59960 Y-2.84120
G01 X-3.59793 Y-2.84082
G01 X-3.59747 Y-2.84071
G01 X-3.59552 Y-2.84025
G01 X-3.59506 Y-2.84014
G01 X-3.59330 Y-2.83969
G01 X-3.59284 Y-2.83957
G01 X-3.59121 Y-2.83913
G01 X-3.59076 Y-2.83901
G01 X-3.58914 Y-2.83855
G01 X-3.58870 Y-2.83842
G01 X-3.58701 Y-2.83792
G01 X-3.58657 Y-2.83779
G01 X-3.58508 Y-2.83733
G01 X-3.58464 Y-2.83719
G01 X-3.58307 Y-2.83668
G01 X-3.58264 Y-2.83654
G01 X-3.58123 Y-2.83606
G01 X-3.58080 Y-2.83591
G01 X-3.57931 Y-2.83538
G01 X-3.57889 Y-2.83523
G01 X-3.57745 Y-2.83469
G01 X-3.57703 Y-2.83454
G01 X-3.57575 Y-2.83404
G01 X-3.57533 Y-2.83388
G01 X-3.57409 Y-2.83339
G01 X-3.57368 Y-2.83322
G01 X-3.57295 Y-2.83292
G01 X-3.56947 Y-2.83148
G01 X-3.56908 Y-2.83118
G01 X-3.56822 Y-2.83052
G01 X-3.56782 Y-2.83022
G01 X-3.56720 Y-2.82976
G01 X-3.56680 Y-2.82946
G01 X-3.56598 Y-2.82884
G01 X-3.56557 Y-2.82855
G01 X-3.56491 Y-2.82807
G01 X-3.56450 Y-2.82777
G01 X-3.56388 Y-2.82733
G01 X-3.56348 Y-2.82705
G01 X-3.56273 Y-2.82652
G01 X-3.56233 Y-2.82624
G01 X-3.56173 Y-2.82582
G01 X-3.56133 Y-2.82555
G01 X-3.56063 Y-2.82507
G01 X-3.56023 Y-2.82480
G01 X-3.55963 Y-2.82440
G01 X-3.55922 Y-2.82413
G01 X-3.55855 Y-2.82369
G01 X-3.55815 Y-2.82343
G01 X-3.55758 Y-2.82306
G01 X-3.55718 Y-2.82280
G01 X-3.55648 Y-2.82236
G01 X-3.55608 Y-2.82211
G01 X-3.55561 Y-2.82181
G01 X-3.55521 Y-2.82157
G01 X-3.55450 Y-2.82113
G01 X-3.55409 Y-2.82088
G01 X-3.55355 Y-2.82056
G01 X-3.55315 Y-2.82032
G01 X-3.55262 Y-2.82000
G01 X-3.55222 Y-2.81977
G01 X-3.55162 Y-2.81942
G01 X-3.55122 Y-2.81919
G01 X-3.55071 Y-2.81889
G01 X-3.55031 Y-2.81867
G01 X-3.54968 Y-2.81832
G01 X-3.54928 Y-2.81809
G01 X-3.54878 Y-2.81782
G01 X-3.54838 Y-2.81760
G01 X-3.54789 Y-2.81733
G01 X-3.54749 Y-2.81712
G01 X-3.54689 Y-2.81680
G01 X-3.54649 Y-2.81659
G01 X-3.54601 Y-2.81634
G01 X-3.54561 Y-2.81614
G01 X-3.54516 Y-2.81591
G01 X-3.54476 Y-2.81570
G01 X-3.54418 Y-2.81542
G01 X-3.54378 Y-2.81522
G01 X-3.54328 Y-2.81497
G01 X-3.54288 Y-2.81478
G01 X-3.54249 Y-2.81459
G01 X-3.54209 Y-2.81440
G01 X-3.54150 Y-2.81412
G01 X-3.54109 Y-2.81393
G01 X-3.54067 Y-2.81373
G01 X-3.54027 Y-2.81355
G01 X-3.53979 Y-2.81334
G01 X-3.53939 Y-2.81316
G01 X-3.53892 Y-2.81295
G01 X-3.53852 Y-2.81277
G01 X-3.53811 Y-2.81260
G01 X-3.53771 Y-2.81242
G01 X-3.53721 Y-2.81221
G01 X-3.53681 Y-2.81204
G01 X-3.53641 Y-2.81188
G01 X-3.53601 Y-2.81171
G01 X-3.53556 Y-2.81153
G01 X-3.53516 Y-2.81137
G01 X-3.53472 Y-2.81120
G01 X-3.53432 Y-2.81104
G01 X-3.53389 Y-2.81087
G01 X-3.53349 Y-2.81072
G01 X-3.53306 Y-2.81055
G01 X-3.53266 Y-2.81040
G01 X-3.53228 Y-2.81026
G01 X-3.53188 Y-2.81012
G01 X-3.53141 Y-2.80994
G01 X-3.53101 Y-2.80980
G01 X-3.53060 Y-2.80966
G01 X-3.53020 Y-2.80952
G01 X-3.52983 Y-2.80939
G01 X-3.52942 Y-2.80925
G01 X-3.52902 Y-2.80912
G01 X-3.52862 Y-2.80899
G01 X-3.52821 Y-2.80885
G01 X-3.52781 Y-2.80872
G01 X-3.52745 Y-2.80861
G01 X-3.52705 Y-2.80848
G01 X-3.52665 Y-2.80836
G01 X-3.52625 Y-2.80824
G01 X-3.52584 Y-2.80812
G01 X-3.52544 Y-2.80800
G01 X-3.52506 Y-2.80789
G01 X-3.52466 Y-2.80777
G01 X-3.52431 Y-2.80767
G01 X-3.52391 Y-2.80756
G01 X-3.52351 Y-2.80745
G01 X-3.52311 Y-2.80734
G01 X-3.52276 Y-2.80725
G01 X-3.52236 Y-2.80714
G01 X-3.52194 Y-2.80704
G01 X-3.52154 Y-2.80694
G01 X-3.52123 Y-2.80686
G01 X-3.52083 Y-2.80676
G01 X-3.52044 Y-2.80667
G01 X-3.52004 Y-2.80657
G01 X-3.51971 Y-2.80649
G01 X-3.51931 Y-2.80640
G01 X-3.51893 Y-2.80632
G01 X-3.51853 Y-2.80623
G01 X-3.51818 Y-2.80615
G01 X-3.51777 Y-2.80606
G01 X-3.51740 Y-2.80599
G01 X-3.51700 Y-2.80591
G01 X-3.51670 Y-2.80585
G01 X-3.51630 Y-2.80577
G01 X-3.51593 Y-2.80570
G01 X-3.51553 Y-2.80562
G01 X-3.51520 Y-2.80556
G01 X-3.51480 Y-2.80549
G01 X-3.51444 Y-2.80542
G01 X-3.51404 Y-2.80536
G01 X-3.51370 Y-2.80530
G01 X-3.51330 Y-2.80523
G01 X-3.51296 Y-2.80518
G01 X-3.51256 Y-2.80511
G01 X-3.51222 Y-2.80506
G01 X-3.51182 Y-2.80500
G01 X-3.51150 Y-2.80496
G01 X-3.51110 Y-2.80490
G01 X-3.51075 Y-2.80485
G01 X-3.51035 Y-2.80480
G01 X-3.51004 Y-2.80476
G01 X-3.50964 Y-2.80471
G01 X-3.50930 Y-2.80467
G01 X-3.50889 Y-2.80463
G01 X-3.50859 Y-2.80459
G01 X-3.50819 Y-2.80455
G01 X-3.50781 Y-2.80451
G01 X-3.50741 Y-2.80447
G01 X-3.50708 Y-2.80444
G01 X-3.50668 Y-2.80440
G01 X-3.50643 Y-2.80438
G01 X-3.50603 Y-2.80434
G01 X-3.50566 Y-2.80431
G01 X-3.50526 Y-2.80428
G01 X-3.50495 Y-2.80426
G01 X-3.50455 Y-2.80423
G01 X-3.50419 Y-2.80421
G01 X-3.50378 Y-2.80418
G01 X-3.50347 Y-2.80417
G01 X-3.50307 Y-2.80415
G01 X-3.50281 Y-2.80413
G01 X-3.50241 Y-2.80411
G01 X-3.50201 Y-2.80410
G01 X-3.50161 Y-2.80408
G01 X-3.50135 Y-2.80408
G01 X-3.50095 Y-2.80406
G01 X-3.50059 Y-2.80405
G01 X-3.50019 Y-2.80405
G01 X-3.49989 Y-2.80404
G01 X-3.49948 Y-2.80403
G01 X-3.49918 Y-2.80403
G01 X-3.49878 Y-2.80403
G01 X-3.49842 Y-2.80403
G01 X-3.49802 Y-2.80403
G01 X-3.49772 Y-2.80403
G01 X-3.49732 Y-2.80404
G01 X-3.49701 Y-2.80404
G01 X-3.49661 Y-2.80405
G01 X-3.49630 Y-2.80405
G01 X-3.49590 Y-2.80406
G01 X-3.49555 Y-2.80407
G01 X-3.49514 Y-2.80409
G01 X-3.49484 Y-2.80410
G01 X-3.49444 Y-2.80411
G01 X-3.49413 Y-2.80413
G01 X-3.49373 Y-2.80415
G01 X-3.49342 Y-2.80416
G01 X-3.49302 Y-2.80419
G01 X-3.49266 Y-2.80421
G01 X-3.49226 Y-2.80423
G01 X-3.49195 Y-2.80426
G01 X-3.49155 Y-2.80429
G01 X-3.49123 Y-2.80431
G01 X-3.49083 Y-2.80434
G01 X-3.49052 Y-2.80437
G01 X-3.49012 Y-2.80440
G01 X-3.48975 Y-2.80444
G01 X-3.48935 Y-2.80448
G01 X-3.48902 Y-2.80451
G01 X-3.48862 Y-2.80455
G01 X-3.48836 Y-2.80458
G01 X-3.48796 Y-2.80462
G01 X-3.48759 Y-2.80467
G01 X-3.48719 Y-2.80471
G01 X-3.48685 Y-2.80476
G01 X-3.48645 Y-2.80481
G01 X-3.48612 Y-2.80485
G01 X-3.48572 Y-2.80491
G01 X-3.48540 Y-2.80495
G01 X-3.48500 Y-2.80501
G01 X-3.48461 Y-2.80507
G01 X-3.48421 Y-2.80513
G01 X-3.48392 Y-2.80517
G01 X-3.48352 Y-2.80524
G01 X-3.48318 Y-2.80529
G01 X-3.48278 Y-2.80536
G01 X-3.48242 Y-2.80542
G01 X-3.48202 Y-2.80549
G01 X-3.48169 Y-2.80555
G01 X-3.48129 Y-2.80563
G01 X-3.48099 Y-2.80568
G01 X-3.48059 Y-2.80576
G01 X-3.48015 Y-2.80585
G01 X-3.47975 Y-2.80592
G01 X-3.47947 Y-2.80598
G01 X-3.47907 Y-2.80607
G01 X-3.47870 Y-2.80614
G01 X-3.47830 Y-2.80623
G01 X-3.47792 Y-2.80632
G01 X-3.47752 Y-2.80641
G01 X-3.47721 Y-2.80648
G01 X-3.47681 Y-2.80657
G01 X-3.47642 Y-2.80666
G01 X-3.47602 Y-2.80676
G01 X-3.47564 Y-2.80685
G01 X-3.47524 Y-2.80695
G01 X-3.47487 Y-2.80705
G01 X-3.47447 Y-2.80715
G01 X-3.47410 Y-2.80725
G01 X-3.47370 Y-2.80735
G01 X-3.47336 Y-2.80745
G01 X-3.47296 Y-2.80756
G01 X-3.47258 Y-2.80766
G01 X-3.47218 Y-2.80778
G01 X-3.47177 Y-2.80789
G01 X-3.47137 Y-2.80801
G01 X-3.47102 Y-2.80811
G01 X-3.47062 Y-2.80823
G01 X-3.47022 Y-2.80835
G01 X-3.46982 Y-2.80848
G01 X-3.46943 Y-2.80860
G01 X-3.46903 Y-2.80873
G01 X-3.46861 Y-2.80886
G01 X-3.46821 Y-2.80899
G01 X-3.46785 Y-2.80911
G01 X-3.46745 Y-2.80925
G01 X-3.46699 Y-2.80940
G01 X-3.46659 Y-2.80954
G01 X-3.46627 Y-2.80965
G01 X-3.46587 Y-2.80979
G01 X-3.46541 Y-2.80996
G01 X-3.46501 Y-2.81010
G01 X-3.46463 Y-2.81024
G01 X-3.46422 Y-2.81039
G01 X-3.46375 Y-2.81057
G01 X-3.46335 Y-2.81072
G01 X-3.46292 Y-2.81088
G01 X-3.46252 Y-2.81104
G01 X-3.46213 Y-2.81119
G01 X-3.46173 Y-2.81135
G01 X-3.46129 Y-2.81153
G01 X-3.46089 Y-2.81169
G01 X-3.46044 Y-2.81187
G01 X-3.46004 Y-2.81204
G01 X-3.45954 Y-2.81225
G01 X-3.45914 Y-2.81242
G01 X-3.45873 Y-2.81260
G01 X-3.45833 Y-2.81277
G01 X-3.45792 Y-2.81295
G01 X-3.45752 Y-2.81313
G01 X-3.45699 Y-2.81337
G01 X-3.45659 Y-2.81355
G01 X-3.45617 Y-2.81374
G01 X-3.45577 Y-2.81392
G01 X-3.45523 Y-2.81417
G01 X-3.45483 Y-2.81436
G01 X-3.45470 Y-2.81442
G01 X-3.45464 Y-2.81478
G01 X-3.45456 Y-2.81522
G01 X-3.45447 Y-2.81569
G01 X-3.45439 Y-2.81614
G01 X-3.45427 Y-2.81672
G01 X-3.45419 Y-2.81716
G01 X-3.45409 Y-2.81767
G01 X-3.45400 Y-2.81810
G01 X-3.45391 Y-2.81855
G01 X-3.45382 Y-2.81898
G01 X-3.45371 Y-2.81946
G01 X-3.45362 Y-2.81988
G01 X-3.45352 Y-2.82035
G01 X-3.45342 Y-2.82077
G01 X-3.45331 Y-2.82125
G01 X-3.45322 Y-2.82167
G01 X-3.45312 Y-2.82208
G01 X-3.45302 Y-2.82249
G01 X-3.45292 Y-2.82290
G01 X-3.45282 Y-2.82330
G01 X-3.45270 Y-2.82380
G01 X-3.45259 Y-2.82420
G01 X-3.45254 Y-2.82441
G01 X-3.45250 Y-2.82456
G01 X-3.45240 Y-2.82496
G01 X-3.45228 Y-2.82544
G01 X-3.45218 Y-2.82584
G01 X-3.45207 Y-2.82628
G01 X-3.45197 Y-2.82668
G01 X-3.45189 Y-2.82704
G01 X-3.45180 Y-2.82744
G01 X-3.45171 Y-2.82782
G01 X-3.45162 Y-2.82822
G01 X-3.45152 Y-2.82868
G01 X-3.45143 Y-2.82908
G01 X-3.45135 Y-2.82948
G01 X-3.45127 Y-2.82988
G01 X-3.45119 Y-2.83026
G01 X-3.45111 Y-2.83066
G01 X-3.45104 Y-2.83103
G01 X-3.45096 Y-2.83143
G01 X-3.45088 Y-2.83189
G01 X-3.45080 Y-2.83229
G01 X-3.45073 Y-2.83271
G01 X-3.45066 Y-2.83311
G01 X-3.45061 Y-2.83342
G01 X-3.45054 Y-2.83382
G01 X-3.45047 Y-2.83424
G01 X-3.45041 Y-2.83464
G01 X-3.45034 Y-2.83507
G01 X-3.45028 Y-2.83547
G01 X-3.45024 Y-2.83580
G01 X-3.45018 Y-2.83620
G01 X-3.45012 Y-2.83665
G01 X-3.45006 Y-2.83705
G01 X-3.45002 Y-2.83736
G01 X-3.44997 Y-2.83776
G01 X-3.44992 Y-2.83820
G01 X-3.44987 Y-2.83860
G01 X-3.44983 Y-2.83898
G01 X-3.44978 Y-2.83938
G01 X-3.44975 Y-2.83968
G01 X-3.44971 Y-2.84008
G01 X-3.44967 Y-2.84052
G01 X-3.44963 Y-2.84092
G01 X-3.44959 Y-2.84134
G01 X-3.44956 Y-2.84174
G01 X-3.44953 Y-2.84205
G01 X-3.44950 Y-2.84245
G01 X-3.44947 Y-2.84287
G01 X-3.44944 Y-2.84327
G01 X-3.44942 Y-2.84363
G01 X-3.44939 Y-2.84403
G01 X-3.44937 Y-2.84439
G01 X-3.44935 Y-2.84479
G01 X-3.44933 Y-2.84515
G01 X-3.44931 Y-2.84555
G01 X-3.44929 Y-2.84597
G01 X-3.44928 Y-2.84637
G01 X-3.44927 Y-2.84672
G01 X-3.44925 Y-2.84712
G01 X-3.44924 Y-2.84747
G01 X-3.44923 Y-2.84788
G01 X-3.44923 Y-2.84823
G01 X-3.44922 Y-2.84863
G01 X-3.44922 Y-2.84904
G01 X-3.44921 Y-2.84944
G01 X-3.44921 Y-2.84980
G01 X-3.44921 Y-2.85020
G01 X-3.44921 Y-2.85055
G01 X-3.44922 Y-2.85095
G01 X-3.44922 Y-2.85137
G01 X-3.44923 Y-2.85177
G01 X-3.44923 Y-2.85212
G01 X-3.44924 Y-2.85252
G01 X-3.44925 Y-2.85288
G01 X-3.44927 Y-2.85328
G01 X-3.44928 Y-2.85363
G01 X-3.44929 Y-2.85403
G01 X-3.44931 Y-2.85445
G01 X-3.44933 Y-2.85485
G01 X-3.44935 Y-2.85521
G01 X-3.44937 Y-2.85561
G01 X-3.44939 Y-2.85597
G01 X-3.44942 Y-2.85637
G01 X-3.44944 Y-2.85673
G01 X-3.44947 Y-2.85713
G01 X-3.44950 Y-2.85755
G01 X-3.44953 Y-2.85795
G01 X-3.44956 Y-2.85826
G01 X-3.44959 Y-2.85866
G01 X-3.44963 Y-2.85908
G01 X-3.44967 Y-2.85948
G01 X-3.44971 Y-2.85992
G01 X-3.44975 Y-2.86032
G01 X-3.44978 Y-2.86061
G01 X-3.44983 Y-2.86102
G01 X-3.44987 Y-2.86140
G01 X-3.44992 Y-2.86180
G01 X-3.44997 Y-2.86224
G01 X-3.45002 Y-2.86264
G01 X-3.45006 Y-2.86295
G01 X-3.45012 Y-2.86335
G01 X-3.45018 Y-2.86380
G01 X-3.45024 Y-2.86420
G01 X-3.45028 Y-2.86453
G01 X-3.45034 Y-2.86493
G01 X-3.45041 Y-2.86536
G01 X-3.45047 Y-2.86576
G01 X-3.45054 Y-2.86617
G01 X-3.45061 Y-2.86658
G01 X-3.45066 Y-2.86689
G01 X-3.45073 Y-2.86729
G01 X-3.45080 Y-2.86771
G01 X-3.45088 Y-2.86811
G01 X-3.45096 Y-2.86857
G01 X-3.45104 Y-2.86897
G01 X-3.45111 Y-2.86934
G01 X-3.45119 Y-2.86974
G01 X-3.45127 Y-2.87012
G01 X-3.45135 Y-2.87052
G01 X-3.45143 Y-2.87092
G01 X-3.45152 Y-2.87132
G01 X-3.45162 Y-2.87178
G01 X-3.45171 Y-2.87218
G01 X-3.45180 Y-2.87256
G01 X-3.45189 Y-2.87296
G01 X-3.45197 Y-2.87331
G01 X-3.45207 Y-2.87372
G01 X-3.45218 Y-2.87416
G01 X-3.45228 Y-2.87456
G01 X-3.45240 Y-2.87504
G01 X-3.45250 Y-2.87544
G01 X-3.45254 Y-2.87559
G01 X-3.45259 Y-2.87580
G01 X-3.45270 Y-2.87620
G01 X-3.45282 Y-2.87669
G01 X-3.45292 Y-2.87710
G01 X-3.45302 Y-2.87751
G01 X-3.45312 Y-2.87792
G01 X-3.45322 Y-2.87833
G01 X-3.45331 Y-2.87874
G01 X-3.45342 Y-2.87922
G01 X-3.45352 Y-2.87964
G01 X-3.45362 Y-2.88011
G01 X-3.45371 Y-2.88054
G01 X-3.45382 Y-2.88102
G01 X-3.45391 Y-2.88145
G01 X-3.45400 Y-2.88190
G01 X-3.45409 Y-2.88233
G01 X-3.45419 Y-2.88284
G01 X-3.45427 Y-2.88327
G01 X-3.45439 Y-2.88386
G01 X-3.45447 Y-2.88430
G01 X-3.45456 Y-2.88477
G01 X-3.45464 Y-2.88522
G01 X-3.45473 Y-2.88572
G01 X-3.45481 Y-2.88617
G01 X-3.45492 Y-2.88680
G01 X-3.45499 Y-2.88726
G01 X-3.45508 Y-2.88778
G01 X-3.45515 Y-2.88824
G01 X-3.45526 Y-2.88892
G01 X-3.45534 Y-2.88939
G01 X-3.45542 Y-2.88995
G01 X-3.45549 Y-2.89043
G01 X-3.45558 Y-2.89100
G01 X-3.45565 Y-2.89149
G01 X-3.45575 Y-2.89223
G01 X-3.45582 Y-2.89273
G01 X-3.45591 Y-2.89343
G01 X-3.45598 Y-2.89393
G01 X-3.45607 Y-2.89465
G01 X-3.45614 Y-2.89517
G01 X-3.45622 Y-2.89584
G01 X-3.45628 Y-2.89636
G01 X-3.45638 Y-2.89715
G01 X-3.45644 Y-2.89768
G01 X-3.45654 Y-2.89859
G01 X-3.45660 Y-2.89914
G01 X-3.45668 Y-2.89991
G01 X-3.45674 Y-2.90047
G01 X-3.45684 Y-2.90146
G01 X-3.45690 Y-2.90203
G01 X-3.45697 Y-2.90277
G01 X-3.45703 Y-2.90335
G01 X-3.45713 Y-2.90446
G01 X-3.45718 Y-2.90506
G01 X-3.45726 Y-2.90597
G01 X-3.45731 Y-2.90658
G01 X-3.45741 Y-2.90772
G01 X-3.45746 Y-2.90834
G01 X-3.45755 Y-2.90950
G01 X-3.45760 Y-2.91014
G01 X-3.45769 Y-2.91136
G01 X-3.45774 Y-2.91202
G01 X-3.45782 Y-2.91320
G01 X-3.45786 Y-2.91387
G01 X-3.45796 Y-2.91531
G01 X-3.45800 Y-2.91600
G01 X-3.45809 Y-2.91745
G01 X-3.45814 Y-2.91817
G01 X-3.45822 Y-2.91958
G01 X-3.45826 Y-2.92032
G01 X-3.45835 Y-2.92193
G01 X-3.45839 Y-2.92268
G01 X-3.45848 Y-2.92443
G01 X-3.45852 Y-2.92521
G01 X-3.45861 Y-2.92721
G01 X-3.45865 Y-2.92801
G01 X-3.45875 Y-2.93017
G01 X-3.45878 Y-2.93100
G01 X-3.45886 Y-2.93286
G01 X-3.45889 Y-2.93372
G01 X-3.45899 Y-2.93622
G01 X-3.45902 Y-2.93711
G01 X-3.45912 Y-2.93982
G01 X-3.45915 Y-2.94076
G01 X-3.45922 Y-2.94294
G01 X-3.45925 Y-2.94391
G01 X-3.45937 Y-2.94773
G01 X-3.45940 Y-2.94875
G01 X-3.45947 Y-2.95158
G01 X-3.45950 Y-2.95263
G01 X-3.45955 Y-2.95439
G01 X-3.45342 Y-2.98075
G01 X-3.44461 Y-3.00979
G01 X-3.44358 Y-3.00978
G01 X-3.44335 Y-3.00978
G01 X-3.44215 Y-3.00978
G01 X-3.44192 Y-3.00978
G01 X-3.44064 Y-3.00978
G01 X-3.44042 Y-3.00978
G01 X-3.43988 Y-3.00978
G01 X-3.43966 Y-3.00978
G01 X-3.43839 Y-3.00977
G01 X-3.43816 Y-3.00977
G01 X-3.43696 Y-3.00977
G01 X-3.43674 Y-3.00976
G01 X-3.43553 Y-3.00976
G01 X-3.43531 Y-3.00976
G01 X-3.43406 Y-3.00975
G01 X-3.43384 Y-3.00975
G01 X-3.43268 Y-3.00974
G01 X-3.43246 Y-3.00974
G01 X-3.43182 Y-3.00973
G01 X-3.43160 Y-3.00973
G01 X-3.43043 Y-3.00972
G01 X-3.43021 Y-3.00972
G01 X-3.42898 Y-3.00971
G01 X-3.42876 Y-3.00970
G01 X-3.42756 Y-3.00969
G01 X-3.42733 Y-3.00969
G01 X-3.42674 Y-3.00968
G01 X-3.42651 Y-3.00968
G01 X-3.42559 Y-3.00967
G01 X-3.42472 Y-3.00966
G01 X-3.42449 Y-3.00966
G01 X-3.42390 Y-3.00965
G01 X-3.42367 Y-3.00965
G01 X-3.42247 Y-3.00965
G01 X-3.42225 Y-3.00964
G01 X-3.42165 Y-3.00964
G01 X-3.41282 Y-3.00964
G01 X-3.41244 Y-3.00991
G01 X-3.41150 Y-3.01056
G01 X-3.41110 Y-3.01084
G01 X-3.40951 Y-3.01193
G01 X-3.40911 Y-3.01221
G01 X-3.40789 Y-3.01304
G01 X-3.40749 Y-3.01331
G01 X-3.40605 Y-3.01428
G01 X-3.40564 Y-3.01455
G01 X-3.40450 Y-3.01531
G01 X-3.40410 Y-3.01557
G01 X-3.40268 Y-3.01651
G01 X-3.40228 Y-3.01677
G01 X-3.40099 Y-3.01761
G01 X-3.40059 Y-3.01787
G01 X-3.39961 Y-3.01850
G01 X-3.39921 Y-3.01876
G01 X-3.39741 Y-3.01991
G01 X-3.39701 Y-3.02016
G01 X-3.39604 Y-3.02077
G01 X-3.39564 Y-3.02102
G01 X-3.39454 Y-3.02170
G01 X-3.39415 Y-3.02195
G01 X-3.39279 Y-3.02278
G01 X-3.39239 Y-3.02303
G01 X-3.39118 Y-3.02376
G01 X-3.39078 Y-3.02400
G01 X-3.38957 Y-3.02473
G01 X-3.38917 Y-3.02497
G01 X-3.38799 Y-3.02567
G01 X-3.38759 Y-3.02591
G01 X-3.38614 Y-3.02676
G01 X-3.38574 Y-3.02699
G01 X-3.38469 Y-3.02760
G01 X-3.38429 Y-3.02783
G01 X-3.38340 Y-3.02835
G01 X-3.38300 Y-3.02858
G01 X-3.38157 Y-3.02938
G01 X-3.38117 Y-3.02961
G01 X-3.37990 Y-3.03032
G01 X-3.37950 Y-3.03054
G01 X-3.37849 Y-3.03110
G01 X-3.37834 Y-3.03118
G01 X-3.37809 Y-3.03132
G01 X-3.37762 Y-3.03158
G01 X-3.37751 Y-3.03169
G01 X-3.37604 Y-3.03318
G01 X-3.37582 Y-3.03341
G01 X-3.37533 Y-3.03390
G01 X-3.37512 Y-3.03412
G01 X-3.37370 Y-3.03558
G01 X-3.37348 Y-3.03580
G01 X-3.37302 Y-3.03628
G01 X-3.37281 Y-3.03651
G01 X-3.37187 Y-3.03748
G01 X-3.37166 Y-3.03771
G01 X-3.37123 Y-3.03816
G01 X-3.37102 Y-3.03838
G01 X-3.36970 Y-3.03978
G01 X-3.36949 Y-3.04000
G01 X-3.36903 Y-3.04050
G01 X-3.36883 Y-3.04072
G01 X-3.36756 Y-3.04209
G01 X-3.36735 Y-3.04232
G01 X-3.36693 Y-3.04277
G01 X-3.36673 Y-3.04299
G01 X-3.36632 Y-3.04344
G01 X-3.36612 Y-3.04367
G01 X-3.36491 Y-3.04500
G01 X-3.36471 Y-3.04522
G01 X-3.36432 Y-3.04566
G01 X-3.36412 Y-3.04589
G01 X-3.36291 Y-3.04724
G01 X-3.36272 Y-3.04746
G01 X-3.36234 Y-3.04790
G01 X-3.36214 Y-3.04812
G01 X-3.36140 Y-3.04897
G01 X-3.36120 Y-3.04920
G01 X-3.36084 Y-3.04962
G01 X-3.36064 Y-3.04984
G01 X-3.35951 Y-3.05116
G01 X-3.35932 Y-3.05138
G01 X-3.35897 Y-3.05179
G01 X-3.35878 Y-3.05202
G01 X-3.35808 Y-3.05283
G01 X-3.35790 Y-3.05306
G01 X-3.35716 Y-3.05394
G01 X-3.35697 Y-3.05416
G01 X-3.35630 Y-3.05497
G01 X-3.35612 Y-3.05519
G01 X-3.35579 Y-3.05559
G01 X-3.35561 Y-3.05581
G01 X-3.35490 Y-3.05667
G01 X-3.35472 Y-3.05690
G01 X-3.35409 Y-3.05768
G01 X-3.35391 Y-3.05790
G01 X-3.35329 Y-3.05867
G01 X-3.35311 Y-3.05889
G01 X-3.35274 Y-3.05936
G01 X-3.35256 Y-3.05958
G01 X-3.35166 Y-3.06071
G01 X-3.35149 Y-3.06094
G01 X-3.35120 Y-3.06131
G01 X-3.35102 Y-3.06153
G01 X-3.35030 Y-3.06245
G01 X-3.35013 Y-3.06268
G01 X-3.34992 Y-3.06295
G01 X-3.34975 Y-3.06317
G01 X-3.34884 Y-3.06435
G01 X-3.34867 Y-3.06458
G01 X-3.34833 Y-3.06503
G01 X-3.34816 Y-3.06526
G01 X-3.34762 Y-3.06596
G01 X-3.34746 Y-3.06619
G01 X-3.34720 Y-3.06654
G01 X-3.34703 Y-3.06676
G01 X-3.34618 Y-3.06791
G01 X-3.34602 Y-3.06813
G01 X-3.34569 Y-3.06858
G01 X-3.34552 Y-3.06880
G01 X-3.34503 Y-3.06948
G01 X-3.34487 Y-3.06971
G01 X-3.34455 Y-3.07015
G01 X-3.34438 Y-3.07038
G01 X-3.34391 Y-3.07104
G01 X-3.34375 Y-3.07127
G01 X-3.34320 Y-3.07204
G01 X-3.34304 Y-3.07226
G01 X-3.34259 Y-3.07291
G01 X-3.34243 Y-3.07314
G01 X-3.34182 Y-3.07402
G01 X-3.34166 Y-3.07424
G01 X-3.34153 Y-3.07444
G01 X-3.34137 Y-3.07466
G01 X-3.34099 Y-3.07522
G01 X-3.34084 Y-3.07544
G01 X-3.34020 Y-3.07638
G01 X-3.34005 Y-3.07660
G01 X-3.33976 Y-3.07703
G01 X-3.33961 Y-3.07726
G01 X-3.33920 Y-3.07787
G01 X-3.33905 Y-3.07809
G01 X-3.33849 Y-3.07895
G01 X-3.33834 Y-3.07917
G01 X-3.33815 Y-3.07947
G01 X-3.33800 Y-3.07970
G01 X-3.33762 Y-3.08028
G01 X-3.33747 Y-3.08051
G01 X-3.33711 Y-3.08107
G01 X-3.33697 Y-3.08129
G01 X-3.33660 Y-3.08187
G01 X-3.33646 Y-3.08209
G01 X-3.33601 Y-3.08280
G01 X-3.33587 Y-3.08302
G01 X-3.33543 Y-3.08372
G01 X-3.33529 Y-3.08395
G01 X-3.33512 Y-3.08422
G01 X-3.33498 Y-3.08445
G01 X-3.33447 Y-3.08528
G01 X-3.33433 Y-3.08550
G01 X-3.33417 Y-3.08577
G01 X-3.33403 Y-3.08600
G01 X-3.33362 Y-3.08668
G01 X-3.33348 Y-3.08690
G01 X-3.33308 Y-3.08758
G01 X-3.33295 Y-3.08780
G01 X-3.33270 Y-3.08821
G01 X-3.33257 Y-3.08844
G01 X-3.33233 Y-3.08884
G01 X-3.33220 Y-3.08907
G01 X-3.33175 Y-3.08984
G01 X-3.33162 Y-3.09007
G01 X-3.33130 Y-3.09062
G01 X-3.33117 Y-3.09084
G01 X-3.33103 Y-3.09109
G01 X-3.33090 Y-3.09132
G01 X-3.33045 Y-3.09212
G01 X-3.33032 Y-3.09234
G01 X-3.33005 Y-3.09283
G01 X-3.32992 Y-3.09306
G01 X-3.32970 Y-3.09345
G01 X-3.32958 Y-3.09368
G01 X-3.32915 Y-3.09446
G01 X-3.32902 Y-3.09469
G01 X-3.32889 Y-3.09492
G01 X-3.32877 Y-3.09515
G01 X-3.32843 Y-3.09577
G01 X-3.32831 Y-3.09600
G01 X-3.32811 Y-3.09639
G01 X-3.32799 Y-3.09661
G01 X-3.32758 Y-3.09738
G01 X-3.32746 Y-3.09761
G01 X-3.32734 Y-3.09783
G01 X-3.32722 Y-3.09806
G01 X-3.32691 Y-3.09867
G01 X-3.32679 Y-3.09889
G01 X-3.32652 Y-3.09943
G01 X-3.32640 Y-3.09965
G01 X-3.32618 Y-3.10009
G01 X-3.32607 Y-3.10032
G01 X-3.32579 Y-3.10085
G01 X-3.32568 Y-3.10108
G01 X-3.32550 Y-3.10145
G01 X-3.32538 Y-3.10168
G01 X-3.32510 Y-3.10226
G01 X-3.32498 Y-3.10249
G01 X-3.32470 Y-3.10307
G01 X-3.32459 Y-3.10329
G01 X-3.32442 Y-3.10366
G01 X-3.32431 Y-3.10389
G01 X-3.32413 Y-3.10426
G01 X-3.32402 Y-3.10448
G01 X-3.32375 Y-3.10505
G01 X-3.32365 Y-3.10527
G01 X-3.32340 Y-3.10580
G01 X-3.32330 Y-3.10603
G01 X-3.32312 Y-3.10642
G01 X-3.32301 Y-3.10664
G01 X-3.32277 Y-3.10717
G01 X-3.32267 Y-3.10739
G01 X-3.32250 Y-3.10775
G01 X-3.32240 Y-3.10798
G01 X-3.32208 Y-3.10869
G01 X-3.32198 Y-3.10892
G01 X-3.32188 Y-3.10914
G01 X-3.32149 Y-3.11003
G01 X-3.32139 Y-3.11026
G01 X-3.32132 Y-3.11043
G01 X-3.32122 Y-3.11065
G01 X-3.32099 Y-3.11118
G01 X-3.32090 Y-3.11141
G01 X-3.32060 Y-3.11211
G01 X-3.32051 Y-3.11233
G01 X-3.32044 Y-3.11250
G01 X-3.32034 Y-3.11273
G01 X-3.32013 Y-3.11325
G01 X-3.32004 Y-3.11347
G01 X-3.31989 Y-3.11381
G01 X-3.31980 Y-3.11404
G01 X-3.31953 Y-3.11472
G01 X-3.31944 Y-3.11495
G01 X-3.31930 Y-3.11528
G01 X-3.31921 Y-3.11551
G01 X-3.31914 Y-3.11568
G01 X-3.31905 Y-3.11591
G01 X-3.31873 Y-3.11674
G01 X-3.31864 Y-3.11697
G01 X-3.31857 Y-3.11714
G01 X-3.31849 Y-3.11737
G01 X-3.31830 Y-3.11786
G01 X-3.31821 Y-3.11808
G01 X-3.31808 Y-3.11843
G01 X-3.31800 Y-3.11866
G01 X-3.31782 Y-3.11914
G01 X-3.31773 Y-3.11937
G01 X-3.31749 Y-3.12002
G01 X-3.31741 Y-3.12025
G01 X-3.31733 Y-3.12047
G01 X-3.31708 Y-3.12115
G01 X-3.31700 Y-3.12137
G01 X-3.31690 Y-3.12166
G01 X-3.31682 Y-3.12189
G01 X-3.31659 Y-3.12257
G01 X-3.31651 Y-3.12279
G01 X-3.31646 Y-3.12293
G01 X-3.31638 Y-3.12316
G01 X-3.31621 Y-3.12365
G01 X-3.31614 Y-3.12388
G01 X-3.31597 Y-3.12437
G01 X-3.31590 Y-3.12460
G01 X-3.31579 Y-3.12491
G01 X-3.31572 Y-3.12514
G01 X-3.31562 Y-3.12545
G01 X-3.31554 Y-3.12567
G01 X-3.31534 Y-3.12629
G01 X-3.31527 Y-3.12652
G01 X-3.31521 Y-3.12670
G01 X-3.31514 Y-3.12692
G01 X-3.31495 Y-3.12754
G01 X-3.31488 Y-3.12776
G01 X-3.31477 Y-3.12813
G01 X-3.31470 Y-3.12835
G01 X-3.31466 Y-3.12847
G01 X-3.31459 Y-3.12870
G01 X-3.31436 Y-3.12948
G01 X-3.31429 Y-3.12971
G01 X-3.31424 Y-3.12989
G01 X-3.31417 Y-3.13012
G01 X-3.31405 Y-3.13053
G01 X-3.31399 Y-3.13076
G01 X-3.31388 Y-3.13112
G01 X-3.31382 Y-3.13135
G01 X-3.31365 Y-3.13194
G01 X-3.31359 Y-3.13216
G01 X-3.31353 Y-3.13235
G01 X-3.31347 Y-3.13257
G01 X-3.31334 Y-3.13305
G01 X-3.31328 Y-3.13327
G01 X-3.31320 Y-3.13356
G01 X-3.31314 Y-3.13379
G01 X-3.31302 Y-3.13426
G01 X-3.31296 Y-3.13449
G01 X-3.31288 Y-3.13477
G01 X-3.31283 Y-3.13500
G01 X-3.31270 Y-3.13547
G01 X-3.31265 Y-3.13569
G01 X-3.31253 Y-3.13616
G01 X-3.31247 Y-3.13639
G01 X-3.31243 Y-3.13657
G01 X-3.31237 Y-3.13680
G01 X-3.31223 Y-3.13736
G01 X-3.31218 Y-3.13758
G01 X-3.31214 Y-3.13777
G01 X-3.31208 Y-3.13799
G01 X-3.31197 Y-3.13846
G01 X-3.31192 Y-3.13868
G01 X-3.31182 Y-3.13914
G01 X-3.31176 Y-3.13937
G01 X-3.31168 Y-3.13974
G01 X-3.31163 Y-3.13997
G01 X-3.31155 Y-3.14032
G01 X-3.31150 Y-3.14055
G01 X-3.31146 Y-3.14074
G01 X-3.31141 Y-3.14096
G01 X-3.31128 Y-3.14160
G01 X-3.31123 Y-3.14183
G01 X-3.31119 Y-3.14201
G01 X-3.31114 Y-3.14224
G01 X-3.31109 Y-3.14251
G01 X-3.31104 Y-3.14273
G01 X-3.31091 Y-3.14337
G01 X-3.31087 Y-3.14359
G01 X-3.31082 Y-3.14386
G01 X-3.31077 Y-3.14408
G01 X-3.31069 Y-3.14453
G01 X-3.31064 Y-3.14476
G01 X-3.31061 Y-3.14494
G01 X-3.31057 Y-3.14517
G01 X-3.31050 Y-3.14554
G01 X-3.31046 Y-3.14577
G01 X-3.31036 Y-3.14628
G01 X-3.31033 Y-3.14651
G01 X-3.31027 Y-3.14682
G01 X-3.31023 Y-3.14704
G01 X-3.31018 Y-3.14736
G01 X-3.31014 Y-3.14758
G01 X-3.31008 Y-3.14796
G01 X-3.31004 Y-3.14818
G01 X-3.30997 Y-3.14863
G01 X-3.30993 Y-3.14885
G01 X-3.30990 Y-3.14904
G01 X-3.30987 Y-3.14926
G01 X-3.30980 Y-3.14970
G01 X-3.30976 Y-3.14992
G01 X-3.30971 Y-3.15030
G01 X-3.30967 Y-3.15052
G01 X-3.30961 Y-3.15096
G01 X-3.30958 Y-3.15118
G01 X-3.30954 Y-3.15143
G01 X-3.30951 Y-3.15165
G01 X-3.30944 Y-3.15217
G01 X-3.30941 Y-3.15239
G01 X-3.30937 Y-3.15268
G01 X-3.30934 Y-3.15290
G01 X-3.30932 Y-3.15309
G01 X-3.30929 Y-3.15332
G01 X-3.30922 Y-3.15388
G01 X-3.30919 Y-3.15411
G01 X-3.30916 Y-3.15435
G01 X-3.30913 Y-3.15457
G01 X-3.30909 Y-3.15495
G01 X-3.30906 Y-3.15517
G01 X-3.30902 Y-3.15555
G01 X-3.30900 Y-3.15577
G01 X-3.30907 Y-3.15603
G01 X-3.30914 Y-3.15627
G01 X-3.30933 Y-3.15689
G01 X-3.30940 Y-3.15713
G01 X-3.30947 Y-3.15738
G01 X-3.30955 Y-3.15762
G01 X-3.30967 Y-3.15802
G01 X-3.30974 Y-3.15827
G01 X-3.30980 Y-3.15847
G01 X-3.30988 Y-3.15871
G01 X-3.31008 Y-3.15934
G01 X-3.31015 Y-3.15958
G01 X-3.31022 Y-3.15977
G01 X-3.31029 Y-3.16002
G01 X-3.31042 Y-3.16040
G01 X-3.31050 Y-3.16064
G01 X-3.31063 Y-3.16106
G01 X-3.31071 Y-3.16130
G01 X-3.31084 Y-3.16168
G01 X-3.31092 Y-3.16192
G01 X-3.31098 Y-3.16210
G01 X-3.31106 Y-3.16234
G01 X-3.31125 Y-3.16290
G01 X-3.31134 Y-3.16314
G01 X-3.31141 Y-3.16335
G01 X-3.31149 Y-3.16358
G01 X-3.31161 Y-3.16393
G01 X-3.31169 Y-3.16417
G01 X-3.31176 Y-3.16437
G01 X-3.31185 Y-3.16460
G01 X-3.31204 Y-3.16514
G01 X-3.31213 Y-3.16538
G01 X-3.31220 Y-3.16557
G01 X-3.31228 Y-3.16580
G01 X-3.31247 Y-3.16632
G01 X-3.31256 Y-3.16655
G01 X-3.31263 Y-3.16673
G01 X-3.31271 Y-3.16696
G01 X-3.31278 Y-3.16715
G01 X-3.31287 Y-3.16737
G01 X-3.31307 Y-3.16789
G01 X-3.31316 Y-3.16812
G01 X-3.31322 Y-3.16829
G01 X-3.31331 Y-3.16852
G01 X-3.31351 Y-3.16902
G01 X-3.31360 Y-3.16925
G01 X-3.31367 Y-3.16942
G01 X-3.31376 Y-3.16965
G01 X-3.31389 Y-3.16998
G01 X-3.31398 Y-3.17021
G01 X-3.31405 Y-3.17037
G01 X-3.31414 Y-3.17060
G01 X-3.31434 Y-3.17109
G01 X-3.31443 Y-3.17131
G01 X-3.31450 Y-3.17148
G01 X-3.31459 Y-3.17170
G01 X-3.31480 Y-3.17218
G01 X-3.31489 Y-3.17240
G01 X-3.31496 Y-3.17256
G01 X-3.31505 Y-3.17278
G01 X-3.31512 Y-3.17294
G01 X-3.31522 Y-3.17316
G01 X-3.31542 Y-3.17363
G01 X-3.31552 Y-3.17385
G01 X-3.31558 Y-3.17401
G01 X-3.31568 Y-3.17423
G01 X-3.31589 Y-3.17469
G01 X-3.31599 Y-3.17491
G01 X-3.31605 Y-3.17505
G01 X-3.31615 Y-3.17527
G01 X-3.31629 Y-3.17558
G01 X-3.31639 Y-3.17580
G01 X-3.31645 Y-3.17594
G01 X-3.31655 Y-3.17616
G01 X-3.31676 Y-3.17661
G01 X-3.31686 Y-3.17683
G01 X-3.31693 Y-3.17697
G01 X-3.31704 Y-3.17719
G01 X-3.31724 Y-3.17762
G01 X-3.31734 Y-3.17784
G01 X-3.31742 Y-3.17800
G01 X-3.31752 Y-3.17821
G01 X-3.31758 Y-3.17834
G01 X-3.31769 Y-3.17855
G01 X-3.31790 Y-3.17899
G01 X-3.31801 Y-3.17920
G01 X-3.31807 Y-3.17934
G01 X-3.31818 Y-3.17955
G01 X-3.31839 Y-3.17997
G01 X-3.31849 Y-3.18018
G01 X-3.31857 Y-3.18033
G01 X-3.31868 Y-3.18054
G01 X-3.31875 Y-3.18068
G01 X-3.31885 Y-3.18089
G01 X-3.31906 Y-3.18129
G01 X-3.31917 Y-3.18150
G01 X-3.31925 Y-3.18166
G01 X-3.31936 Y-3.18187
G01 X-3.31955 Y-3.18224
G01 X-3.31966 Y-3.18244
G01 X-3.31976 Y-3.18262
G01 X-3.31987 Y-3.18283
G01 X-3.31992 Y-3.18294
G01 X-3.32003 Y-3.18314
G01 X-3.32026 Y-3.18355
G01 X-3.32037 Y-3.18376
G01 X-3.32044 Y-3.18388
G01 X-3.32055 Y-3.18409
G01 X-3.32070 Y-3.18437
G01 X-3.32082 Y-3.18457
G01 X-3.32095 Y-3.18482
G01 X-3.32107 Y-3.18502
G01 X-3.32120 Y-3.18527
G01 X-3.32132 Y-3.18547
G01 X-3.32141 Y-3.18562
G01 X-3.32152 Y-3.18583
G01 X-3.32168 Y-3.18610
G01 X-3.32179 Y-3.18630
G01 X-3.32193 Y-3.18654
G01 X-3.32205 Y-3.18674
G01 X-3.32219 Y-3.18698
G01 X-3.32230 Y-3.18718
G01 X-3.32239 Y-3.18733
G01 X-3.32251 Y-3.18753
G01 X-3.32272 Y-3.18787
G01 X-3.32283 Y-3.18807
G01 X-3.32292 Y-3.18822
G01 X-3.32304 Y-3.18842
G01 X-3.32313 Y-3.18857
G01 X-3.32325 Y-3.18877
G01 X-3.32346 Y-3.18910
G01 X-3.32358 Y-3.18930
G01 X-3.32365 Y-3.18941
G01 X-3.32377 Y-3.18961
G01 X-3.32393 Y-3.18987
G01 X-3.32405 Y-3.19006
G01 X-3.32415 Y-3.19021
G01 X-3.32427 Y-3.19040
G01 X-3.32443 Y-3.19066
G01 X-3.32455 Y-3.19085
G01 X-3.32469 Y-3.19107
G01 X-3.32481 Y-3.19126
G01 X-3.32495 Y-3.19147
G01 X-3.32507 Y-3.19167
G01 X-3.32519 Y-3.19185
G01 X-3.32532 Y-3.19204
G01 X-3.32552 Y-3.19236
G01 X-3.32565 Y-3.19255
G01 X-3.32578 Y-3.19274
G01 X-3.32604 Y-3.19313
G01 X-3.32617 Y-3.19332
G01 X-3.32623 Y-3.19342
G01 X-3.32636 Y-3.19361
G01 X-3.32650 Y-3.19381
G01 X-3.32663 Y-3.19400
G01 X-3.32675 Y-3.19418
G01 X-3.32688 Y-3.19437
G01 X-3.32702 Y-3.19457
G01 X-3.32715 Y-3.19475
G01 X-3.32732 Y-3.19499
G01 X-3.32745 Y-3.19518
G01 X-3.32761 Y-3.19542
G01 X-3.32774 Y-3.19560
G01 X-3.32784 Y-3.19574
G01 X-3.32798 Y-3.19593
G01 X-3.32804 Y-3.19602
G01 X-3.32818 Y-3.19620
G01 X-3.32841 Y-3.19653
G01 X-3.32855 Y-3.19672
G01 X-3.32865 Y-3.19685
G01 X-3.32878 Y-3.19704
G01 X-3.32888 Y-3.19718
G01 X-3.32902 Y-3.19736
G01 X-3.32919 Y-3.19759
G01 X-3.32932 Y-3.19777
G01 X-3.32949 Y-3.19800
G01 X-3.32963 Y-3.19818
G01 X-3.32976 Y-3.19835
G01 X-3.32990 Y-3.19854
G01 X-3.32993 Y-3.19858
G01 X-3.33007 Y-3.19876
G01 X-3.33035 Y-3.19912
G01 X-3.33048 Y-3.19930
G01 X-3.33055 Y-3.19939
G01 X-3.33069 Y-3.19957
G01 X-3.33086 Y-3.19979
G01 X-3.33100 Y-3.19997
G01 X-3.33111 Y-3.20010
G01 X-3.33125 Y-3.20028
G01 X-3.33142 Y-3.20050
G01 X-3.33156 Y-3.20067
G01 X-3.33167 Y-3.20080
G01 X-3.33181 Y-3.20098
G01 X-3.33198 Y-3.20120
G01 X-3.33212 Y-3.20137
G01 X-3.33223 Y-3.20150
G01 X-3.33237 Y-3.20168
G01 X-3.33255 Y-3.20189
G01 X-3.33269 Y-3.20207
G01 X-3.33291 Y-3.20233
G01 X-3.33305 Y-3.20250
G01 X-3.33319 Y-3.20267
G01 X-3.33343 Y-3.20296
G01 X-3.33358 Y-3.20313
G01 X-3.33369 Y-3.20326
G01 X-3.33384 Y-3.20343
G01 X-3.33395 Y-3.20356
G01 X-3.33409 Y-3.20373
G01 X-3.33432 Y-3.20399
G01 X-3.33446 Y-3.20416
G01 X-3.33453 Y-3.20424
G01 X-3.33467 Y-3.20441
G01 X-3.33485 Y-3.20461
G01 X-3.33500 Y-3.20478
G01 X-3.33516 Y-3.20496
G01 X-3.33531 Y-3.20513
G01 X-3.33542 Y-3.20526
G01 X-3.33557 Y-3.20542
G01 X-3.33575 Y-3.20562
G01 X-3.33590 Y-3.20579
G01 X-3.33608 Y-3.20598
G01 X-3.33623 Y-3.20615
G01 X-3.33634 Y-3.20628
G01 X-3.33650 Y-3.20644
G01 X-3.33666 Y-3.20662
G01 X-3.33682 Y-3.20679
G01 X-3.33688 Y-3.20686
G01 X-3.33703 Y-3.20702
G01 X-3.33726 Y-3.20727
G01 X-3.33742 Y-3.20743
G01 X-3.33768 Y-3.20755
G01 X-3.33790 Y-3.20765
G01 X-3.33798 Y-3.20769
G01 X-3.33820 Y-3.20779
G01 X-3.33854 Y-3.20793
G01 X-3.33877 Y-3.20803
G01 X-3.33894 Y-3.20811
G01 X-3.33916 Y-3.20820
G01 X-3.33932 Y-3.20827
G01 X-3.33955 Y-3.20837
G01 X-3.33980 Y-3.20848
G01 X-3.34002 Y-3.20857
G01 X-3.34026 Y-3.20867
G01 X-3.34049 Y-3.20877
G01 X-3.34073 Y-3.20887
G01 X-3.34096 Y-3.20896
G01 X-3.34112 Y-3.20903
G01 X-3.34134 Y-3.20912
G01 X-3.34150 Y-3.20918
G01 X-3.34172 Y-3.20927
G01 X-3.34197 Y-3.20937
G01 X-3.34219 Y-3.20946
G01 X-3.34242 Y-3.20955
G01 X-3.34265 Y-3.20964
G01 X-3.34280 Y-3.20970
G01 X-3.34303 Y-3.20979
G01 X-3.34327 Y-3.20988
G01 X-3.34349 Y-3.20997
G01 X-3.34364 Y-3.21003
G01 X-3.34387 Y-3.21011
G01 X-3.34409 Y-3.21020
G01 X-3.34432 Y-3.21028
G01 X-3.34448 Y-3.21034
G01 X-3.34470 Y-3.21043
G01 X-3.34492 Y-3.21051
G01 X-3.34515 Y-3.21059
G01 X-3.34525 Y-3.21063
G01 X-3.34537 Y-3.21063
G01 X-3.34542 Y-3.21063
G01 X-3.34565 Y-3.21063
G01 X-3.34571 Y-3.21063
G01 X-3.34594 Y-3.21063
G01 X-3.34599 Y-3.21063
G01 X-3.34624 Y-3.21063
G01 X-3.34628 Y-3.21063
G01 X-3.34638 Y-3.21063
G01 X-3.34652 Y-3.21063
G01 X-3.34667 Y-3.21063
G01 X-3.34671 Y-3.21063
G01 X-3.34695 Y-3.21063
G01 X-3.34700 Y-3.21063
G01 X-3.34724 Y-3.21063
G01 X-3.34728 Y-3.21063
G01 X-3.34750 Y-3.21063
G01 X-3.34756 Y-3.21063
G01 X-3.34774 Y-3.21063
G01 X-3.34778 Y-3.21063
G01 X-3.34802 Y-3.21063
G01 X-3.34806 Y-3.21063
G01 X-3.34820 Y-3.21063
G01 X-3.34834 Y-3.21063
G01 X-3.34848 Y-3.21063
G01 X-3.34851 Y-3.21063
G01 X-3.34875 Y-3.21063
G01 X-3.34879 Y-3.21063
G01 X-3.34896 Y-3.21063
G01 X-3.34903 Y-3.21063
G01 X-3.34924 Y-3.21063
G01 X-3.34927 Y-3.21063
G01 X-3.34950 Y-3.21063
G01 X-3.34954 Y-3.21063
G01 X-3.34973 Y-3.21063
G01 X-3.34978 Y-3.21063
G01 X-3.35001 Y-3.21063
G01 X-3.35003 Y-3.21063
G01 X-3.35024 Y-3.21063
G01 X-3.35031 Y-3.21063
G01 X-3.35047 Y-3.21063
G01 X-3.35051 Y-3.21063
G01 X-3.35074 Y-3.21063
G01 X-3.35076 Y-3.21063
G01 X-3.35090 Y-3.21063
G01 X-3.35103 Y-3.21063
G01 X-3.35112 Y-3.21063
G01 X-3.35117 Y-3.21063
G01 X-3.35140 Y-3.21063
G01 X-3.35141 Y-3.21063
G01 X-3.35168 Y-3.21063
G01 X-3.35170 Y-3.21063
G01 X-3.35192 Y-3.21063
G01 X-3.35197 Y-3.21063
G01 X-3.35211 Y-3.21063
G01 X-3.35219 Y-3.21063
G01 X-3.35238 Y-3.21063
G01 X-3.35239 Y-3.21063
G01 X-3.35262 Y-3.21063
G01 X-3.35266 Y-3.21063
G01 X-3.35283 Y-3.21063
G01 X-3.35288 Y-3.21063
G01 X-3.35297 Y-3.21063
G01 X-3.35310 Y-3.21063
G01 X-3.35323 Y-3.21063
G01 X-3.35351 Y-3.21063
G01 X-3.35365 Y-3.21063
G01 X-3.35378 Y-3.21063
G01 X-3.35391 Y-3.21063
G01 X-3.35413 Y-3.21063
G01 X-3.35418 Y-3.21063
G01 X-3.35434 Y-3.21063
G01 X-3.35439 Y-3.21063
G01 X-3.35460 Y-3.21063
G01 X-3.35487 Y-3.21063
G01 X-3.35500 Y-3.21063
G01 X-3.35513 Y-3.21063
G01 X-3.35521 Y-3.21063
G01 X-3.35526 Y-3.21063
G01 X-3.35546 Y-3.21063
G01 X-3.35572 Y-3.21063
G01 X-3.35593 Y-3.21063
G01 X-3.35598 Y-3.21063
G01 X-3.35606 Y-3.21063
G01 X-3.35618 Y-3.21063
G01 X-3.35631 Y-3.21063
G01 X-3.35651 Y-3.21063
G01 X-3.35656 Y-3.21063
G01 X-3.35664 Y-3.21063
G01 X-3.35677 Y-3.21063
G01 X-3.35689 Y-3.21063
G01 X-3.35714 Y-3.21063
G01 X-3.35721 Y-3.21063
G01 X-3.35734 Y-3.21063
G01 X-3.35746 Y-3.21063
G01 X-3.35759 Y-3.21063
G01 X-3.35772 Y-3.21063
G01 X-3.35778 Y-3.21063
G01 X-3.35798 Y-3.21063
G01 X-3.35803 Y-3.21063
G01 X-3.35811 Y-3.21063
G01 X-3.35823 Y-3.21063
G01 X-3.35835 Y-3.21063
G01 X-3.35836 Y-3.21063
G01 X-3.35858 Y-3.21063
G01 X-3.35860 Y-3.21063
G01 X-3.35878 Y-3.21063
G01 X-3.35883 Y-3.21063
G01 X-3.35891 Y-3.21063
G01 X-3.35903 Y-3.21063
G01 X-3.35914 Y-3.21063
G01 X-3.35915 Y-3.21063
G01 X-3.35939 Y-3.21063
G01 X-3.35941 Y-3.21063
G01 X-3.35953 Y-3.21063
G01 X-3.35966 Y-3.21063
G01 X-3.35969 Y-3.21063
G01 X-3.35978 Y-3.21063
G01 X-3.35994 Y-3.21063
G01 X-3.35995 Y-3.21063
G01 X-3.36015 Y-3.21063
G01 X-3.36020 Y-3.21063
G01 X-3.36030 Y-3.21063
G01 X-3.36040 Y-3.21063
G01 X-3.36053 Y-3.21063
G01 X-3.36055 Y-3.21063
G01 X-3.36072 Y-3.21063
G01 X-3.36077 Y-3.21063
G01 X-3.36091 Y-3.21063
G01 X-3.36097 Y-3.21063
G01 X-3.36104 Y-3.21063
G01 X-3.36116 Y-3.21063
G01 X-3.36123 Y-3.21063
G01 X-3.36128 Y-3.21063
G01 X-3.36147 Y-3.21063
G01 X-3.36151 Y-3.21063
G01 X-3.36166 Y-3.21063
G01 X-3.36176 Y-3.21063
G01 X-3.36185 Y-3.21063
G01 X-3.36191 Y-3.21063
G01 X-3.36204 Y-3.21063
G01 X-3.36210 Y-3.21063
G01 X-3.36219 Y-3.21063
G01 X-3.36228 Y-3.21063
G01 X-3.36243 Y-3.21063
G01 X-3.36245 Y-3.21063
G01 X-3.36263 Y-3.21063
G01 X-3.36269 Y-3.21063
G01 X-3.36275 Y-3.21063
G01 X-3.36287 Y-3.21063
G01 X-3.36296 Y-3.21063
G01 X-3.36299 Y-3.21063
G01 X-3.36317 Y-3.21063
G01 X-3.36320 Y-3.21063
G01 X-3.36327 Y-3.21063
G01 X-3.36341 Y-3.21063
G01 X-3.36346 Y-3.21063
G01 X-3.36351 Y-3.21063
G01 X-3.36369 Y-3.21063
G01 X-3.36375 Y-3.21063
G01 X-3.36393 Y-3.21063
G01 X-3.36399 Y-3.21063
G01 X-3.36403 Y-3.21063
G01 X-3.36417 Y-3.21063
G01 X-3.36424 Y-3.21063
G01 X-3.36427 Y-3.21063
G01 X-3.36444 Y-3.21063
G01 X-3.36447 Y-3.21063
G01 X-3.36456 Y-3.21063
G01 X-3.36468 Y-3.21063
G01 X-3.36474 Y-3.21063
G01 X-3.36480 Y-3.21063
G01 X-3.36498 Y-3.21063
G01 X-3.36517 Y-3.21063
G01 X-3.36522 Y-3.21063
G01 X-3.36530 Y-3.21063
G01 X-3.36540 Y-3.21063
G01 X-3.36548 Y-3.21063
G01 X-3.36554 Y-3.21063
G01 X-3.36566 Y-3.21063
G01 X-3.36572 Y-3.21063
G01 X-3.36586 Y-3.21063
G01 X-3.36590 Y-3.21063
G01 X-3.36598 Y-3.21063
G01 X-3.36610 Y-3.21063
G01 X-3.36616 Y-3.21063
G01 X-3.36621 Y-3.21063
G01 X-3.36639 Y-3.21063
G01 X-3.36641 Y-3.21063
G01 X-3.36653 Y-3.21063
G01 X-3.36665 Y-3.21063
G01 X-3.36671 Y-3.21063
G01 X-3.36677 Y-3.21063
G01 X-3.36688 Y-3.21063
G01 X-3.36694 Y-3.21063
G01 X-3.36706 Y-3.21063
G01 X-3.36712 Y-3.21063
G01 X-3.36725 Y-3.21063
G01 X-3.36729 Y-3.21063
G01 X-3.36737 Y-3.21063
G01 X-3.36749 Y-3.21063
G01 X-3.36760 Y-3.21063
G01 X-3.36780 Y-3.21063
G01 X-3.36784 Y-3.21063
G01 X-3.36791 Y-3.21063
G01 X-3.36803 Y-3.21063
G01 X-3.36807 Y-3.21063
G01 X-3.36814 Y-3.21063
G01 X-3.36826 Y-3.21063
G01 X-3.36830 Y-3.21063
G01 X-3.36845 Y-3.21063
G01 X-3.36849 Y-3.21063
G01 X-3.36862 Y-3.21063
G01 X-3.36868 Y-3.21063
G01 X-3.36879 Y-3.21063
G01 X-3.36885 Y-3.21063
G01 X-3.36891 Y-3.21063
G01 X-3.36903 Y-3.21063
G01 X-3.36908 Y-3.21063
G01 X-3.36914 Y-3.21063
G01 X-3.36931 Y-3.21063
G01 X-3.36944 Y-3.21063
G01 X-3.36954 Y-3.21063
G01 X-3.36961 Y-3.21063
G01 X-3.36967 Y-3.21063
G01 X-3.36978 Y-3.21063
G01 X-3.36984 Y-3.21063
G01 X-3.36996 Y-3.21063
G01 X-3.37001 Y-3.21063
G01 X-3.37013 Y-3.21063
G01 X-3.37018 Y-3.21063
G01 X-3.37025 Y-3.21063
G01 X-3.37035 Y-3.21063
G01 X-3.37048 Y-3.21063
G01 X-3.37065 Y-3.21063
G01 X-3.37071 Y-3.21063
G01 X-3.37076 Y-3.21063
G01 X-3.37088 Y-3.21063
G01 X-3.37093 Y-3.21063
G01 X-3.37099 Y-3.21063
G01 X-3.37110 Y-3.21063
G01 X-3.37116 Y-3.21063
G01 X-3.37128 Y-3.21063
G01 X-3.37133 Y-3.21063
G01 X-3.37145 Y-3.21063
G01 X-3.37151 Y-3.21063
G01 X-3.37161 Y-3.21063
G01 X-3.37168 Y-3.21063
G01 X-3.37179 Y-3.21063
G01 X-3.37184 Y-3.21063
G01 X-3.37196 Y-3.21063
G01 X-3.37202 Y-3.21063
G01 X-3.37207 Y-3.21063
G01 X-3.37219 Y-3.21063
G01 X-3.37224 Y-3.21063
G01 X-3.37230 Y-3.21063
G01 X-3.37247 Y-3.21063
G01 X-3.37258 Y-3.21063
G01 X-3.37270 Y-3.21063
G01 X-3.37275 Y-3.21063
G01 X-3.37281 Y-3.21063
G01 X-3.37292 Y-3.21063
G01 X-3.37298 Y-3.21063
G01 X-3.37309 Y-3.21063
G01 X-3.37314 Y-3.21063
G01 X-3.37325 Y-3.21063
G01 X-3.37331 Y-3.21063
G01 X-3.37342 Y-3.21063
G01 X-3.37348 Y-3.21063
G01 X-3.37359 Y-3.21063
G01 X-3.37364 Y-3.21063
G01 X-3.37371 Y-3.21063
G01 X-3.37382 Y-3.21063
G01 X-3.37387 Y-3.21063
G01 X-3.37393 Y-3.21063
G01 X-3.37409 Y-3.21063
G01 X-3.37426 Y-3.21063
G01 X-3.37432 Y-3.21063
G01 X-3.37437 Y-3.21063
G01 X-3.37448 Y-3.21063
G01 X-3.37454 Y-3.21063
G01 X-3.37460 Y-3.21063
G01 X-3.37470 Y-3.21063
G01 X-3.37476 Y-3.21063
G01 X-3.37487 Y-3.21063
G01 X-3.37493 Y-3.21063
G01 X-3.37504 Y-3.21063
G01 X-3.37509 Y-3.21063
G01 X-3.37515 Y-3.21063
G01 X-3.37526 Y-3.21063
G01 X-3.37531 Y-3.21063
G01 X-3.37538 Y-3.21063
G01 X-3.37553 Y-3.21063
G01 X-3.37570 Y-3.21063
G01 X-3.37576 Y-3.21063
G01 X-3.37581 Y-3.21063
G01 X-3.37593 Y-3.21063
G01 X-3.37598 Y-3.21063
G01 X-3.37604 Y-3.21063
G01 X-3.37614 Y-3.21063
G01 X-3.37620 Y-3.21063
G01 X-3.37631 Y-3.21063
G01 X-3.37636 Y-3.21063
G01 X-3.37647 Y-3.21063
G01 X-3.37653 Y-3.21063
G01 X-3.37664 Y-3.21063
G01 X-3.37670 Y-3.21063
G01 X-3.37680 Y-3.21063
G01 X-3.37686 Y-3.21063
G01 X-3.37697 Y-3.21063
G01 X-3.37703 Y-3.21063
G01 X-3.37713 Y-3.21063
G01 X-3.37719 Y-3.21063
G01 X-3.37724 Y-3.21063
G01 X-3.37736 Y-3.21063
G01 X-3.37741 Y-3.21063
G01 X-3.37747 Y-3.21063
G01 X-3.37757 Y-3.21063
G01 X-3.37763 Y-3.21063
G01 X-3.37779 Y-3.21063
G01 X-3.37796 Y-3.21063
G01 X-3.37802 Y-3.21063
G01 X-3.37807 Y-3.21063
G01 X-3.37815 Y-3.21063
G01 X-3.37824 Y-3.21063
G01 X-3.37829 Y-3.21063
G01 X-3.37834 Y-3.21063
G01 X-3.42165 Y-3.21063
G01 X-3.42171 Y-3.21063
G01 X-3.42177 Y-3.21063
G01 X-3.42187 Y-3.21063
G01 X-3.42193 Y-3.21063
G01 X-3.42204 Y-3.21063
G01 X-3.42209 Y-3.21063
G01 X-3.42215 Y-3.21063
G01 X-3.42226 Y-3.21063
G01 X-3.42236 Y-3.21063
G01 X-3.42253 Y-3.21063
G01 X-3.42259 Y-3.21063
G01 X-3.42264 Y-3.21063
G01 X-3.42275 Y-3.21063
G01 X-3.42281 Y-3.21063
G01 X-3.42286 Y-3.21063
G01 X-3.42297 Y-3.21063
G01 X-3.42303 Y-3.21063
G01 X-3.42314 Y-3.21063
G01 X-3.42320 Y-3.21063
G01 X-3.42330 Y-3.21063
G01 X-3.42336 Y-3.21063
G01 X-3.42347 Y-3.21063
G01 X-3.42353 Y-3.21063
G01 X-3.42363 Y-3.21063
G01 X-3.42369 Y-3.21063
G01 X-3.42380 Y-3.21063
G01 X-3.42386 Y-3.21063
G01 X-3.42396 Y-3.21063
G01 X-3.42402 Y-3.21063
G01 X-3.42407 Y-3.21063
G01 X-3.42419 Y-3.21063
G01 X-3.42424 Y-3.21063
G01 X-3.42430 Y-3.21063
G01 X-3.42446 Y-3.21063
G01 X-3.42457 Y-3.21063
G01 X-3.42469 Y-3.21063
G01 X-3.42474 Y-3.21063
G01 X-3.42479 Y-3.21063
G01 X-3.42496 Y-3.21063
G01 X-3.42507 Y-3.21063
G01 X-3.42518 Y-3.21063
G01 X-3.42530 Y-3.21063
G01 X-3.42540 Y-3.21063
G01 X-3.42557 Y-3.21063
G01 X-3.42563 Y-3.21063
G01 X-3.42568 Y-3.21063
G01 X-3.42579 Y-3.21063
G01 X-3.42591 Y-3.21063
G01 X-3.42607 Y-3.21063
G01 X-3.42613 Y-3.21063
G01 X-3.42618 Y-3.21063
G01 X-3.42629 Y-3.21063
G01 X-3.42635 Y-3.21063
G01 X-3.42640 Y-3.21063
G01 X-3.42652 Y-3.21063
G01 X-3.42658 Y-3.21063
G01 X-3.42669 Y-3.21063
G01 X-3.42675 Y-3.21063
G01 X-3.42685 Y-3.21063
G01 X-3.42691 Y-3.21063
G01 X-3.42702 Y-3.21063
G01 X-3.42708 Y-3.21063
G01 X-3.42719 Y-3.21063
G01 X-3.42725 Y-3.21063
G01 X-3.42736 Y-3.21063
G01 X-3.42741 Y-3.21063
G01 X-3.42748 Y-3.21063
G01 X-3.42758 Y-3.21063
G01 X-3.42765 Y-3.21063
G01 X-3.42770 Y-3.21063
G01 X-3.42786 Y-3.21063
G01 X-3.42787 Y-3.21063
G01 X-3.42798 Y-3.21063
G01 X-3.42809 Y-3.21063
G01 X-3.42816 Y-3.21063
G01 X-3.42821 Y-3.21063
G01 X-3.42832 Y-3.21063
G01 X-3.42839 Y-3.21063
G01 X-3.42849 Y-3.21063
G01 X-3.42855 Y-3.21063
G01 X-3.42867 Y-3.21063
G01 X-3.42872 Y-3.21063
G01 X-3.42884 Y-3.21063
G01 X-3.42890 Y-3.21063
G01 X-3.42901 Y-3.21063
G01 X-3.42907 Y-3.21063
G01 X-3.42912 Y-3.21063
G01 X-3.42923 Y-3.21063
G01 X-3.42929 Y-3.21063
G01 X-3.42935 Y-3.21063
G01 X-3.42946 Y-3.21063
G01 X-3.42952 Y-3.21063
G01 X-3.42964 Y-3.21063
G01 X-3.42969 Y-3.21063
G01 X-3.42987 Y-3.21063
G01 X-3.42998 Y-3.21063
G01 X-3.43010 Y-3.21063
G01 X-3.43021 Y-3.21063
G01 X-3.43033 Y-3.21063
G01 X-3.43051 Y-3.21063
G01 X-3.43056 Y-3.21063
G01 X-3.43068 Y-3.21063
G01 X-3.43074 Y-3.21063
G01 X-3.43086 Y-3.21063
G01 X-3.43092 Y-3.21063
G01 X-3.43097 Y-3.21063
G01 X-3.43109 Y-3.21063
G01 X-3.43114 Y-3.21063
G01 X-3.43120 Y-3.21063
G01 X-3.43132 Y-3.21063
G01 X-3.43138 Y-3.21063
G01 X-3.43151 Y-3.21063
G01 X-3.43155 Y-3.21063
G01 X-3.43170 Y-3.21063
G01 X-3.43174 Y-3.21063
G01 X-3.43180 Y-3.21063
G01 X-3.43193 Y-3.21063
G01 X-3.43203 Y-3.21063
G01 X-3.43222 Y-3.21063
G01 X-3.43226 Y-3.21063
G01 X-3.43234 Y-3.21063
G01 X-3.43245 Y-3.21063
G01 X-3.43251 Y-3.21063
G01 X-3.43257 Y-3.21063
G01 X-3.43270 Y-3.21063
G01 X-3.43274 Y-3.21063
G01 X-3.43288 Y-3.21063
G01 X-3.43294 Y-3.21063
G01 X-3.43306 Y-3.21063
G01 X-3.43311 Y-3.21063
G01 X-3.43323 Y-3.21063
G01 X-3.43329 Y-3.21063
G01 X-3.43341 Y-3.21063
G01 X-3.43347 Y-3.21063
G01 X-3.43355 Y-3.21063
G01 X-3.43364 Y-3.21063
G01 X-3.43372 Y-3.21063
G01 X-3.43378 Y-3.21063
G01 X-3.43396 Y-3.21063
G01 X-3.43410 Y-3.21063
G01 X-3.43420 Y-3.21063
G01 X-3.43428 Y-3.21063
G01 X-3.43433 Y-3.21063
G01 X-3.43446 Y-3.21063
G01 X-3.43452 Y-3.21063
G01 X-3.43460 Y-3.21063
G01 X-3.43469 Y-3.21063
G01 X-3.43478 Y-3.21063
G01 X-3.43483 Y-3.21063
G01 X-3.43501 Y-3.21063
G01 X-3.43520 Y-3.21063
G01 X-3.43526 Y-3.21063
G01 X-3.43532 Y-3.21063
G01 X-3.43544 Y-3.21063
G01 X-3.43552 Y-3.21063
G01 X-3.43556 Y-3.21063
G01 X-3.43573 Y-3.21063
G01 X-3.43576 Y-3.21063
G01 X-3.43582 Y-3.21063
G01 X-3.43597 Y-3.21063
G01 X-3.43601 Y-3.21063
G01 X-3.43606 Y-3.21063
G01 X-3.43625 Y-3.21063
G01 X-3.43630 Y-3.21063
G01 X-3.43649 Y-3.21063
G01 X-3.43654 Y-3.21063
G01 X-3.43658 Y-3.21063
G01 X-3.43673 Y-3.21063
G01 X-3.43679 Y-3.21063
G01 X-3.43682 Y-3.21063
G01 X-3.43701 Y-3.21063
G01 X-3.43703 Y-3.21063
G01 X-3.43713 Y-3.21063
G01 X-3.43725 Y-3.21063
G01 X-3.43731 Y-3.21063
G01 X-3.43737 Y-3.21063
G01 X-3.43755 Y-3.21063
G01 X-3.43757 Y-3.21063
G01 X-3.43778 Y-3.21063
G01 X-3.43781 Y-3.21063
G01 X-3.43790 Y-3.21063
G01 X-3.43802 Y-3.21063
G01 X-3.43815 Y-3.21063
G01 X-3.43824 Y-3.21063
G01 X-3.43827 Y-3.21063
G01 X-3.43848 Y-3.21063
G01 X-3.43853 Y-3.21063
G01 X-3.43872 Y-3.21063
G01 X-3.43877 Y-3.21063
G01 X-3.43884 Y-3.21063
G01 X-3.43896 Y-3.21063
G01 X-3.43903 Y-3.21063
G01 X-3.43908 Y-3.21063
G01 X-3.43922 Y-3.21063
G01 X-3.43928 Y-3.21063
G01 X-3.43938 Y-3.21063
G01 X-3.43947 Y-3.21063
G01 X-3.43962 Y-3.21063
G01 X-3.43967 Y-3.21063
G01 X-3.43987 Y-3.21063
G01 X-3.43992 Y-3.21063
G01 X-3.43999 Y-3.21063
G01 X-3.44012 Y-3.21063
G01 X-3.44022 Y-3.21063
G01 X-3.44024 Y-3.21063
G01 X-3.44041 Y-3.21063
G01 X-3.44047 Y-3.21063
G01 X-3.44061 Y-3.21063
G01 X-3.44066 Y-3.21063
G01 X-3.44077 Y-3.21063
G01 X-3.44086 Y-3.21063
G01 X-3.44097 Y-3.21063
G01 X-3.44102 Y-3.21063
G01 X-3.44116 Y-3.21063
G01 X-3.44122 Y-3.21063
G01 X-3.44140 Y-3.21063
G01 X-3.44142 Y-3.21063
G01 X-3.44164 Y-3.21063
G01 X-3.44165 Y-3.21063
G01 X-3.44176 Y-3.21063
G01 X-3.44189 Y-3.21063
G01 X-3.44196 Y-3.21063
G01 X-3.44202 Y-3.21063
G01 X-3.44220 Y-3.21063
G01 X-3.44222 Y-3.21063
G01 X-3.44241 Y-3.21063
G01 X-3.44246 Y-3.21063
G01 X-3.44261 Y-3.21063
G01 X-3.44266 Y-3.21063
G01 X-3.44285 Y-3.21063
G01 X-3.44286 Y-3.21063
G01 X-3.44310 Y-3.21063
G01 X-3.44323 Y-3.21063
G01 X-3.44336 Y-3.21063
G01 X-3.44343 Y-3.21063
G01 X-3.44348 Y-3.21063
G01 X-3.44368 Y-3.21063
G01 X-3.44381 Y-3.21063
G01 X-3.44394 Y-3.21063
G01 X-3.44402 Y-3.21063
G01 X-3.44407 Y-3.21063
G01 X-3.44428 Y-3.21063
G01 X-3.44453 Y-3.21063
G01 X-3.44474 Y-3.21063
G01 X-3.44479 Y-3.21063
G01 X-3.44495 Y-3.21063
G01 X-3.44500 Y-3.21063
G01 X-3.44513 Y-3.21063
G01 X-3.44521 Y-3.21063
G01 X-3.44539 Y-3.21063
G01 X-3.44561 Y-3.21063
G01 X-3.44565 Y-3.21063
G01 X-3.44574 Y-3.21063
G01 X-3.44587 Y-3.21063
G01 X-3.44600 Y-3.21063
G01 X-3.44622 Y-3.21063
G01 X-3.44627 Y-3.21063
G01 X-3.44649 Y-3.21063
G01 X-3.44676 Y-3.21063
G01 X-3.44698 Y-3.21063
G01 X-3.44703 Y-3.21063
G01 X-3.44712 Y-3.21063
G01 X-3.44725 Y-3.21063
G01 X-3.44734 Y-3.21063
G01 X-3.44738 Y-3.21063
G01 X-3.44760 Y-3.21063
G01 X-3.44761 Y-3.21063
G01 X-3.44781 Y-3.21063
G01 X-3.44788 Y-3.21063
G01 X-3.44803 Y-3.21063
G01 X-3.44808 Y-3.21063
G01 X-3.44830 Y-3.21063
G01 X-3.44832 Y-3.21063
G01 X-3.44859 Y-3.21063
G01 X-3.44860 Y-3.21063
G01 X-3.44883 Y-3.21063
G01 X-3.44887 Y-3.21063
G01 X-3.44896 Y-3.21063
G01 X-3.44910 Y-3.21063
G01 X-3.44924 Y-3.21063
G01 X-3.44926 Y-3.21063
G01 X-3.44949 Y-3.21063
G01 X-3.44953 Y-3.21063
G01 X-3.44969 Y-3.21063
G01 X-3.44976 Y-3.21063
G01 X-3.44996 Y-3.21063
G01 X-3.44999 Y-3.21063
G01 X-3.45022 Y-3.21063
G01 X-3.45026 Y-3.21063
G01 X-3.45045 Y-3.21063
G01 X-3.45050 Y-3.21063
G01 X-3.45073 Y-3.21063
G01 X-3.45076 Y-3.21063
G01 X-3.45097 Y-3.21063
G01 X-3.45104 Y-3.21063
G01 X-3.45120 Y-3.21063
G01 X-3.45125 Y-3.21063
G01 X-3.45149 Y-3.21063
G01 X-3.45152 Y-3.21063
G01 X-3.45166 Y-3.21063
G01 X-3.45180 Y-3.21063
G01 X-3.45194 Y-3.21063
G01 X-3.45197 Y-3.21063
G01 X-3.45221 Y-3.21063
G01 X-3.45226 Y-3.21063
G01 X-3.45243 Y-3.21063
G01 X-3.45250 Y-3.21063
G01 X-3.45272 Y-3.21063
G01 X-3.45276 Y-3.21063
G01 X-3.45300 Y-3.21063
G01 X-3.45304 Y-3.21063
G01 X-3.45329 Y-3.21063
G01 X-3.45333 Y-3.21063
G01 X-3.45358 Y-3.21063
G01 X-3.45362 Y-3.21063
G01 X-3.45372 Y-3.21063
G01 X-3.45387 Y-3.21063
G01 X-3.45395 Y-3.21063
G01 X-3.45401 Y-3.21063
G01 X-3.45424 Y-3.21063
G01 X-3.45429 Y-3.21063
G01 X-3.45435 Y-3.21063
G01 X-3.45453 Y-3.21069
G01 X-3.45476 Y-3.21078
G01 X-3.45498 Y-3.21086
G01 X-3.45520 Y-3.21094
G01 X-3.45542 Y-3.21102
G01 X-3.45559 Y-3.21108
G01 X-3.45581 Y-3.21117
G01 X-3.45604 Y-3.21125
G01 X-3.45626 Y-3.21134
G01 X-3.45641 Y-3.21140
G01 X-3.45664 Y-3.21148
G01 X-3.45687 Y-3.21157
G01 X-3.45710 Y-3.21166
G01 X-3.45725 Y-3.21172
G01 X-3.45748 Y-3.21181
G01 X-3.45771 Y-3.21190
G01 X-3.45793 Y-3.21199
G01 X-3.45817 Y-3.21209
G01 X-3.45840 Y-3.21218
G01 X-3.45856 Y-3.21224
G01 X-3.45878 Y-3.21234
G01 X-3.45894 Y-3.21240
G01 X-3.45916 Y-3.21249
G01 X-3.45941 Y-3.21259
G01 X-3.45963 Y-3.21269
G01 X-3.45987 Y-3.21279
G01 X-3.46010 Y-3.21288
G01 X-3.46034 Y-3.21299
G01 X-3.46057 Y-3.21309
G01 X-3.46065 Y-3.21312
G01 X-3.46087 Y-3.21322
G01 X-3.46120 Y-3.21336
G01 X-3.46143 Y-3.21346
G01 X-3.46168 Y-3.21357
G01 X-3.46190 Y-3.21367
G01 X-3.46198 Y-3.21371
G01 X-3.46221 Y-3.21381
G01 X-3.46247 Y-3.21392
G01 X-3.46269 Y-3.21402
G01 X-3.46295 Y-3.21414
G01 X-3.46318 Y-3.21425
G01 X-3.46343 Y-3.21436
G01 X-3.46365 Y-3.21447
G01 X-3.46383 Y-3.21455
G01 X-3.46405 Y-3.21465
G01 X-3.46422 Y-3.21473
G01 X-3.46445 Y-3.21484
G01 X-3.46472 Y-3.21497
G01 X-3.46494 Y-3.21507
G01 X-3.46522 Y-3.21521
G01 X-3.46544 Y-3.21531
G01 X-3.46562 Y-3.21540
G01 X-3.46584 Y-3.21551
G01 X-3.46610 Y-3.21563
G01 X-3.46632 Y-3.21574
G01 X-3.46653 Y-3.21584
G01 X-3.46675 Y-3.21596
G01 X-3.46701 Y-3.21609
G01 X-3.46724 Y-3.21620
G01 X-3.46752 Y-3.21634
G01 X-3.46775 Y-3.21646
G01 X-3.46793 Y-3.21655
G01 X-3.46816 Y-3.21667
G01 X-3.46826 Y-3.21672
G01 X-3.46849 Y-3.21684
G01 X-3.46897 Y-3.21709
G01 X-3.46919 Y-3.21720
G01 X-3.46927 Y-3.21725
G01 X-3.46950 Y-3.21736
G01 X-3.46980 Y-3.21752
G01 X-3.47002 Y-3.21764
G01 X-3.47032 Y-3.21780
G01 X-3.47055 Y-3.21793
G01 X-3.47074 Y-3.21803
G01 X-3.47096 Y-3.21815
G01 X-3.47127 Y-3.21832
G01 X-3.47150 Y-3.21844
G01 X-3.47169 Y-3.21855
G01 X-3.47192 Y-3.21867
G01 X-3.47223 Y-3.21885
G01 X-3.47246 Y-3.21897
G01 X-3.47265 Y-3.21909
G01 X-3.47288 Y-3.21921
G01 X-3.47320 Y-3.21940
G01 X-3.47342 Y-3.21952
G01 X-3.47355 Y-3.21959
G01 X-3.47377 Y-3.21972
G01 X-3.47430 Y-3.22003
G01 X-3.47452 Y-3.22016
G01 X-3.47475 Y-3.22029
G01 X-3.47515 Y-3.22053
G01 X-3.47538 Y-3.22066
G01 X-3.47564 Y-3.22082
G01 X-3.47586 Y-3.22095
G01 X-3.47620 Y-3.22116
G01 X-3.47643 Y-3.22129
G01 X-3.47663 Y-3.22142
G01 X-3.47686 Y-3.22155
G01 X-3.47707 Y-3.22168
G01 X-3.47729 Y-3.22182
G01 X-3.47771 Y-3.22208
G01 X-3.47793 Y-3.22221
G01 X-3.47821 Y-3.22239
G01 X-3.47844 Y-3.22253
G01 X-3.47858 Y-3.22262
G01 X-3.47880 Y-3.22276
G01 X-3.47916 Y-3.22299
G01 X-3.47939 Y-3.22313
G01 X-3.47975 Y-3.22336
G01 X-3.47997 Y-3.22350
G01 X-3.48027 Y-3.22370
G01 X-3.48049 Y-3.22384
G01 X-3.48071 Y-3.22398
G01 X-3.48094 Y-3.22413
G01 X-3.48131 Y-3.22437
G01 X-3.48153 Y-3.22452
G01 X-3.48175 Y-3.22467
G01 X-3.48197 Y-3.22482
G01 X-3.48244 Y-3.22513
G01 X-3.48267 Y-3.22528
G01 X-3.48273 Y-3.22533
G01 X-3.48296 Y-3.22548
G01 X-3.48350 Y-3.22585
G01 X-3.48372 Y-3.22600
G01 X-3.48389 Y-3.22611
G01 X-3.48411 Y-3.22627
G01 X-3.48450 Y-3.22654
G01 X-3.48473 Y-3.22669
G01 X-3.48512 Y-3.22697
G01 X-3.48535 Y-3.22713
G01 X-3.48568 Y-3.22736
G01 X-3.48591 Y-3.22752
G01 X-3.48614 Y-3.22769
G01 X-3.48636 Y-3.22785
G01 X-3.48677 Y-3.22814
G01 X-3.48699 Y-3.22830
G01 X-3.48717 Y-3.22843
G01 X-3.48739 Y-3.22859
G01 X-3.48792 Y-3.22898
G01 X-3.48815 Y-3.22914
G01 X-3.48838 Y-3.22931
G01 X-3.48861 Y-3.22948
G01 X-3.48884 Y-3.22965
G01 X-3.48907 Y-3.22982
G01 X-3.48962 Y-3.23023
G01 X-3.48984 Y-3.23040
G01 X-3.49009 Y-3.23058
G01 X-3.49031 Y-3.23075
G01 X-3.49069 Y-3.23104
G01 X-3.49091 Y-3.23121
G01 X-3.49129 Y-3.23150
G01 X-3.49152 Y-3.23168
G01 X-3.49195 Y-3.23202
G01 X-3.49218 Y-3.23219
G01 X-3.49242 Y-3.23238
G01 X-3.49265 Y-3.23256
G01 X-3.49304 Y-3.23287
G01 X-3.49327 Y-3.23305
G01 X-3.49367 Y-3.23336
G01 X-3.49389 Y-3.23354
G01 X-3.49435 Y-3.23390
G01 X-3.49457 Y-3.23408
G01 X-3.49478 Y-3.23425
G01 X-3.49500 Y-3.23443
G01 X-3.49563 Y-3.23494
G01 X-3.49585 Y-3.23512
G01 X-3.49610 Y-3.23533
G01 X-3.49633 Y-3.23552
G01 X-3.49654 Y-3.23569
G01 X-3.49676 Y-3.23588
G01 X-3.49745 Y-3.23645
G01 X-3.49768 Y-3.23664
G01 X-3.49789 Y-3.23682
G01 X-3.49812 Y-3.23701
G01 X-3.49878 Y-3.23757
G01 X-3.49901 Y-3.23777
G01 X-3.49923 Y-3.23796
G01 X-3.49946 Y-3.23815
G01 X-3.49972 Y-3.23837
G01 X-3.49994 Y-3.23857
G01 X-3.50063 Y-3.23916
G01 X-3.50085 Y-3.23936
G01 X-3.50108 Y-3.23956
G01 X-3.50131 Y-3.23976
G01 X-3.50204 Y-3.24041
G01 X-3.50226 Y-3.24061
G01 X-3.50248 Y-3.24079
G01 X-3.50270 Y-3.24099
G01 X-3.50297 Y-3.24123
G01 X-3.50319 Y-3.24144
G01 X-3.50392 Y-3.24209
G01 X-3.50414 Y-3.24230
G01 X-3.50439 Y-3.24252
G01 X-3.50461 Y-3.24273
G01 X-3.50536 Y-3.24342
G01 X-3.50559 Y-3.24363
G01 X-3.50586 Y-3.24388
G01 X-3.50608 Y-3.24409
G01 X-3.50658 Y-3.24455
G01 X-3.50680 Y-3.24476
G01 X-3.50707 Y-3.24501
G01 X-3.50730 Y-3.24523
G01 X-3.50808 Y-3.24597
G01 X-3.50830 Y-3.24618
G01 X-3.50857 Y-3.24644
G01 X-3.50879 Y-3.24665
G01 X-3.50960 Y-3.24743
G01 X-3.50982 Y-3.24765
G01 X-3.51009 Y-3.24791
G01 X-3.51031 Y-3.24813
G01 X-3.51058 Y-3.24839
G01 X-3.51081 Y-3.24861
G01 X-3.51164 Y-3.24944
G01 X-3.51186 Y-3.24966
G01 X-3.51215 Y-3.24994
G01 X-3.51220 Y-3.25000
G01 X-3.65734 Y-3.25000
G01 X-3.66546 Y-3.24856
G01 X-3.66562 Y-3.24847
G01 X-3.66631 Y-3.24809
G01 X-3.66671 Y-3.24787
G01 X-3.66733 Y-3.24752
G01 X-3.66773 Y-3.24730
G01 X-3.66832 Y-3.24698
G01 X-3.66872 Y-3.24677
G01 X-3.66942 Y-3.24639
G01 X-3.66982 Y-3.24618
G01 X-3.67039 Y-3.24587
G01 X-3.67079 Y-3.24566
G01 X-3.67140 Y-3.24534
G01 X-3.67180 Y-3.24513
G01 X-3.67244 Y-3.24480
G01 X-3.67284 Y-3.24459
G01 X-3.67344 Y-3.24429
G01 X-3.67384 Y-3.24408
G01 X-3.67456 Y-3.24373
G01 X-3.67496 Y-3.24353
G01 X-3.67546 Y-3.24327
G01 X-3.67586 Y-3.24308
G01 X-3.67647 Y-3.24277
G01 X-3.67688 Y-3.24258
G01 X-3.67746 Y-3.24230
G01 X-3.67786 Y-3.24211
G01 X-3.67844 Y-3.24183
G01 X-3.67884 Y-3.24164
G01 X-3.67952 Y-3.24132
G01 X-3.67992 Y-3.24113
G01 X-3.68049 Y-3.24087
G01 X-3.68089 Y-3.24068
G01 X-3.68137 Y-3.24046
G01 X-3.68177 Y-3.24028
G01 X-3.68233 Y-3.24003
G01 X-3.68273 Y-3.23985
G01 X-3.68339 Y-3.23956
G01 X-3.68379 Y-3.23938
G01 X-3.68425 Y-3.23918
G01 X-3.68464 Y-3.23900
G01 X-3.68529 Y-3.23873
G01 X-3.68569 Y-3.23855
G01 X-3.68614 Y-3.23836
G01 X-3.68655 Y-3.23819
G01 X-3.68717 Y-3.23793
G01 X-3.68758 Y-3.23776
G01 X-3.68811 Y-3.23754
G01 X-3.68851 Y-3.23737
G01 X-3.68905 Y-3.23716
G01 X-3.68945 Y-3.23699
G01 X-3.68997 Y-3.23678
G01 X-3.69037 Y-3.23662
G01 X-3.69090 Y-3.23642
G01 X-3.69130 Y-3.23626
G01 X-3.69174 Y-3.23609
G01 X-3.69214 Y-3.23593
G01 X-3.69283 Y-3.23567
G01 X-3.69323 Y-3.23552
G01 X-3.69357 Y-3.23539
G01 X-3.69397 Y-3.23524
G01 X-3.69464 Y-3.23499
G01 X-3.69505 Y-3.23484
G01 X-3.69557 Y-3.23465
G01 X-3.69597 Y-3.23451
G01 X-3.69630 Y-3.23439
G01 X-3.69670 Y-3.23425
G01 X-3.69736 Y-3.23401
G01 X-3.69776 Y-3.23387
G01 X-3.69818 Y-3.23373
G01 X-3.69858 Y-3.23359
G01 X-3.69909 Y-3.23342
G01 X-3.69949 Y-3.23328
G01 X-3.70004 Y-3.23310
G01 X-3.70045 Y-3.23297
G01 X-3.70079 Y-3.23285
G01 X-3.70119 Y-3.23272
G01 X-3.70183 Y-3.23252
G01 X-3.70223 Y-3.23239
G01 X-3.70266 Y-3.23225
G01 X-3.70306 Y-3.23213
G01 X-3.70360 Y-3.23196
G01 X-3.70400 Y-3.23184
G01 X-3.70443 Y-3.23171
G01 X-3.70483 Y-3.23159
G01 X-3.70529 Y-3.23145
G01 X-3.70569 Y-3.23133
G01 X-3.70609 Y-3.23121
G01 X-3.70649 Y-3.23110
G01 X-3.70713 Y-3.23091
G01 X-3.70753 Y-3.23080
G01 X-3.70787 Y-3.23070
G01 X-3.70827 Y-3.23059
G01 X-3.70881 Y-3.23044
G01 X-3.70921 Y-3.23033
G01 X-3.70960 Y-3.23023
G01 X-3.71000 Y-3.23012
G01 X-3.71053 Y-3.22998
G01 X-3.71093 Y-3.22988
G01 X-3.71136 Y-3.22977
G01 X-3.71176 Y-3.22966
G01 X-3.71224 Y-3.22954
G01 X-3.71264 Y-3.22944
G01 X-3.71302 Y-3.22935
G01 X-3.71342 Y-3.22925
G01 X-3.71403 Y-3.22911
G01 X-3.71443 Y-3.22901
G01 X-3.71476 Y-3.22893
G01 X-3.71516 Y-3.22884
G01 X-3.71562 Y-3.22873
G01 X-3.71603 Y-3.22864
G01 X-3.71649 Y-3.22854
G01 X-3.71689 Y-3.22845
G01 X-3.71721 Y-3.22838
G01 X-3.71761 Y-3.22829
G01 X-3.71821 Y-3.22816
G01 X-3.71861 Y-3.22808
G01 X-3.71903 Y-3.22799
G01 X-3.71943 Y-3.22791
G01 X-3.71979 Y-3.22784
G01 X-3.72019 Y-3.22776
G01 X-3.72070 Y-3.22766
G01 X-3.72110 Y-3.22758
G01 X-3.72146 Y-3.22751
G01 X-3.72186 Y-3.22744
G01 X-3.72236 Y-3.22734
G01 X-3.72276 Y-3.22727
G01 X-3.72312 Y-3.22721
G01 X-3.72352 Y-3.22713
G01 X-3.72406 Y-3.22704
G01 X-3.72446 Y-3.22697
G01 X-3.72477 Y-3.22692
G01 X-3.72517 Y-3.22685
G01 X-3.72567 Y-3.22677
G01 X-3.72607 Y-3.22671
G01 X-3.72648 Y-3.22664
G01 X-3.72688 Y-3.22658
G01 X-3.72732 Y-3.22651
G01 X-3.72772 Y-3.22645
G01 X-3.72812 Y-3.22639
G01 X-3.72852 Y-3.22634
G01 X-3.72893 Y-3.22628
G01 X-3.72933 Y-3.22622
G01 X-3.72976 Y-3.22616
G01 X-3.73016 Y-3.22611
G01 X-3.73054 Y-3.22606
G01 X-3.73094 Y-3.22601
G01 X-3.73146 Y-3.22595
G01 X-3.73186 Y-3.22590
G01 X-3.73214 Y-3.22586
G01 X-3.73254 Y-3.22582
G01 X-3.73306 Y-3.22576
G01 X-3.73346 Y-3.22571
G01 X-3.73384 Y-3.22567
G01 X-3.73423 Y-3.22563
G01 X-3.73465 Y-3.22559
G01 X-3.73505 Y-3.22555
G01 X-3.73552 Y-3.22550
G01 X-3.73592 Y-3.22546
G01 X-3.73623 Y-3.22543
G01 X-3.73663 Y-3.22540
G01 X-3.73710 Y-3.22536
G01 X-3.73750 Y-3.22532
G01 X-3.73791 Y-3.22529
G01 X-3.73831 Y-3.22526
G01 X-3.73868 Y-3.22523
G01 X-3.73909 Y-3.22520
G01 X-3.73956 Y-3.22517
G01 X-3.73996 Y-3.22514
G01 X-3.74036 Y-3.22511
G01 X-3.74076 Y-3.22509
G01 X-3.74113 Y-3.22506
G01 X-3.74153 Y-3.22504
G01 X-3.74191 Y-3.22502
G01 X-3.74232 Y-3.22500
G01 X-3.74280 Y-3.22498
G01 X-3.74320 Y-3.22496
G01 X-3.74348 Y-3.22494
G01 X-3.74388 Y-3.22493
G01 X-3.74445 Y-3.22491
G01 X-3.74485 Y-3.22489
G01 X-3.74514 Y-3.22488
G01 X-3.74554 Y-3.22487
G01 X-3.74601 Y-3.22486
G01 X-3.74641 Y-3.22485
G01 X-3.74679 Y-3.22484
G01 X-3.74719 Y-3.22483
G01 X-3.74756 Y-3.22482
G01 X-3.74797 Y-3.22482
G01 X-3.74834 Y-3.22481
G01 X-3.74874 Y-3.22481
G01 X-3.74921 Y-3.22480
G01 X-3.74961 Y-3.22480
G01 X-3.74999 Y-3.22480
G01 X-3.75039 Y-3.22480
G01 X-3.75077 Y-3.22480
G01 X-3.75117 Y-3.22481
G01 X-3.75164 Y-3.22481
G01 X-3.75204 Y-3.22482
G01 X-3.75242 Y-3.22482
G01 X-3.75282 Y-3.22483
G01 X-3.75320 Y-3.22484
G01 X-3.75360 Y-3.22485
G01 X-3.75407 Y-3.22486
G01 X-3.75447 Y-3.22487
G01 X-3.75486 Y-3.22488
G01 X-3.75526 Y-3.22490
G01 X-3.75563 Y-3.22491
G01 X-3.75603 Y-3.22492
G01 X-3.75642 Y-3.22494
G01 X-3.75682 Y-3.22496
G01 X-3.75719 Y-3.22498
G01 X-3.75759 Y-3.22499
G01 X-3.75807 Y-3.22502
G01 X-3.75847 Y-3.22504
G01 X-3.75886 Y-3.22506
G01 X-3.75926 Y-3.22509
G01 X-3.75973 Y-3.22512
G01 X-3.76013 Y-3.22514
G01 X-3.76043 Y-3.22517
G01 X-3.76083 Y-3.22519
G01 X-3.76130 Y-3.22523
G01 X-3.76170 Y-3.22526
G01 X-3.76209 Y-3.22529
G01 X-3.76250 Y-3.22532
G01 X-3.76289 Y-3.22535
G01 X-3.76329 Y-3.22539
G01 X-3.76376 Y-3.22543
G01 X-3.76416 Y-3.22547
G01 X-3.76456 Y-3.22551
G01 X-3.76496 Y-3.22555
G01 X-3.76536 Y-3.22559
G01 X-3.76575 Y-3.22563
G01 X-3.76617 Y-3.22567
G01 X-3.76657 Y-3.22572
G01 X-3.76693 Y-3.22576
G01 X-3.76733 Y-3.22580
G01 X-3.76775 Y-3.22585
G01 X-3.76815 Y-3.22590
G01 X-3.76865 Y-3.22596
G01 X-3.76905 Y-3.22601
G01 X-3.76947 Y-3.22606
G01 X-3.76987 Y-3.22612
G01 X-3.77025 Y-3.22617
G01 X-3.77065 Y-3.22622
G01 X-3.77106 Y-3.22628
G01 X-3.77146 Y-3.22633
G01 X-3.77189 Y-3.22640
G01 X-3.77229 Y-3.22646
G01 X-3.77267 Y-3.22651
G01 X-3.77307 Y-3.22657
G01 X-3.77353 Y-3.22664
G01 X-3.77393 Y-3.22671
G01 X-3.77440 Y-3.22678
G01 X-3.77481 Y-3.22685
G01 X-3.77515 Y-3.22691
G01 X-3.77555 Y-3.22697
G01 X-3.77606 Y-3.22706
G01 X-3.77646 Y-3.22713
G01 X-3.77681 Y-3.22719
G01 X-3.77721 Y-3.22727
G01 X-3.77772 Y-3.22736
G01 X-3.77812 Y-3.22743
G01 X-3.77847 Y-3.22750
G01 X-3.77887 Y-3.22757
G01 X-3.77938 Y-3.22767
G01 X-3.77978 Y-3.22775
G01 X-3.78014 Y-3.22782
G01 X-3.78054 Y-3.22790
G01 X-3.78100 Y-3.22800
G01 X-3.78140 Y-3.22808
G01 X-3.78195 Y-3.22820
G01 X-3.78235 Y-3.22828
G01 X-3.78268 Y-3.22835
G01 X-3.78308 Y-3.22844
G01 X-3.78354 Y-3.22854
G01 X-3.78394 Y-3.22863
G01 X-3.78441 Y-3.22874
G01 X-3.78481 Y-3.22883
G01 X-3.78519 Y-3.22892
G01 X-3.79889 Y-3.22509
G01 X-3.81260 Y-3.22382
G01 X-3.88740 Y-3.22382
G01 X-3.89788 Y-3.22456
G01 X-3.90836 Y-3.22680
G01 X-3.91884 Y-3.23053
G01 X-3.92932 Y-3.23575
G01 X-3.97068 Y-3.23575
G01 X-3.98116 Y-3.23053
G01 X-3.99164 Y-3.22680
G01 X-4.00212 Y-3.22456
G01 X-4.01260 Y-3.22382
G01 X-4.04280 Y-3.22382
G01 X-4.04334 Y-3.22382
G01 X-4.04375 Y-3.22381
G01 X-4.04465 Y-3.22380
G01 X-4.04506 Y-3.22379
G01 X-4.04604 Y-3.22377
G01 X-4.04646 Y-3.22375
G01 X-4.04744 Y-3.22372
G01 X-4.04785 Y-3.22370
G01 X-4.04876 Y-3.22365
G01 X-4.04917 Y-3.22363
G01 X-4.05016 Y-3.22356
G01 X-4.05058 Y-3.22353
G01 X-4.05157 Y-3.22345
G01 X-4.05198 Y-3.22342
G01 X-4.05301 Y-3.22332
G01 X-4.05342 Y-3.22328
G01 X-4.05434 Y-3.22318
G01 X-4.05476 Y-3.22314
G01 X-4.05569 Y-3.22303
G01 X-4.05610 Y-3.22298
G01 X-4.05714 Y-3.22284
G01 X-4.05755 Y-3.22278
G01 X-4.05851 Y-3.22264
G01 X-4.05892 Y-3.22258
G01 X-4.06001 Y-3.22241
G01 X-4.06042 Y-3.22234
G01 X-4.06139 Y-3.22218
G01 X-4.06180 Y-3.22210
G01 X-4.06272 Y-3.22193
G01 X-4.06313 Y-3.22185
G01 X-4.06424 Y-3.22163
G01 X-4.06465 Y-3.22155
G01 X-4.06571 Y-3.22132
G01 X-4.06612 Y-3.22123
G01 X-4.06707 Y-3.22102
G01 X-4.06748 Y-3.22092
G01 X-4.06856 Y-3.22066
G01 X-4.06897 Y-3.22056
G01 X-4.07011 Y-3.22027
G01 X-4.07052 Y-3.22016
G01 X-4.07140 Y-3.21993
G01 X-4.07181 Y-3.21982
G01 X-4.07297 Y-3.21949
G01 X-4.07338 Y-3.21937
G01 X-4.07453 Y-3.21903
G01 X-4.07494 Y-3.21891
G01 X-4.07598 Y-3.21858
G01 X-4.07639 Y-3.21845
G01 X-4.07756 Y-3.21807
G01 X-4.07797 Y-3.21793
G01 X-4.07901 Y-3.21758
G01 X-4.07943 Y-3.21744
G01 X-4.08063 Y-3.21701
G01 X-4.08104 Y-3.21686
G01 X-4.08217 Y-3.21645
G01 X-4.08258 Y-3.21629
G01 X-4.08373 Y-3.21585
G01 X-4.08415 Y-3.21569
G01 X-4.08538 Y-3.21519
G01 X-4.08580 Y-3.21503
G01 X-4.08634 Y-3.21480
G01 X-4.08740 Y-3.21436
G01 X-4.10145 Y-3.20966
G01 X-4.11707 Y-3.20653
G01 X-4.11723 Y-3.20643
G01 X-4.11765 Y-3.20616
G01 X-4.11800 Y-3.20594
G01 X-4.11868 Y-3.20552
G01 X-4.11904 Y-3.20530
G01 X-4.11960 Y-3.20496
G01 X-4.11995 Y-3.20474
G01 X-4.12056 Y-3.20438
G01 X-4.12091 Y-3.20417
G01 X-4.12148 Y-3.20382
G01 X-4.12184 Y-3.20361
G01 X-4.12242 Y-3.20327
G01 X-4.12277 Y-3.20306
G01 X-4.12339 Y-3.20270
G01 X-4.12375 Y-3.20249
G01 X-4.12430 Y-3.20217
G01 X-4.12466 Y-3.20197
G01 X-4.12543 Y-3.20153
G01 X-4.12579 Y-3.20133
G01 X-4.12622 Y-3.20109
G01 X-4.12658 Y-3.20089
G01 X-4.12736 Y-3.20045
G01 X-4.12773 Y-3.20025
G01 X-4.12831 Y-3.19993
G01 X-4.12867 Y-3.19973
G01 X-4.12932 Y-3.19939
G01 X-4.12969 Y-3.19919
G01 X-4.13043 Y-3.19879
G01 X-4.13080 Y-3.19860
G01 X-4.13127 Y-3.19835
G01 X-4.13165 Y-3.19815
G01 X-4.13240 Y-3.19776
G01 X-4.13278 Y-3.19756
G01 X-4.13344 Y-3.19722
G01 X-4.13382 Y-3.19703
G01 X-4.13444 Y-3.19672
G01 X-4.13481 Y-3.19653
G01 X-4.13560 Y-3.19613
G01 X-4.13598 Y-3.19595
G01 X-4.13665 Y-3.19561
G01 X-4.13703 Y-3.19543
G01 X-4.13766 Y-3.19512
G01 X-4.13804 Y-3.19494
G01 X-4.13871 Y-3.19462
G01 X-4.13909 Y-3.19444
G01 X-4.13993 Y-3.19404
G01 X-4.14031 Y-3.19386
G01 X-4.14081 Y-3.19362
G01 X-4.14120 Y-3.19345
G01 X-4.14221 Y-3.19298
G01 X-4.14260 Y-3.19280
G01 X-4.14312 Y-3.19257
G01 X-4.14351 Y-3.19239
G01 X-4.14437 Y-3.19201
G01 X-4.14476 Y-3.19183
G01 X-4.14545 Y-3.19153
G01 X-4.14585 Y-3.19135
G01 X-4.14655 Y-3.19105
G01 X-4.14695 Y-3.19088
G01 X-4.14766 Y-3.19057
G01 X-4.14806 Y-3.19040
G01 X-4.14895 Y-3.19002
G01 X-4.14935 Y-3.18986
G01 X-4.15008 Y-3.18955
G01 X-4.15048 Y-3.18939
G01 X-4.15122 Y-3.18909
G01 X-4.15162 Y-3.18892
G01 X-4.15255 Y-3.18855
G01 X-4.15296 Y-3.18839
G01 X-4.15371 Y-3.18809
G01 X-4.15411 Y-3.18793
G01 X-4.15487 Y-3.18763
G01 X-4.15528 Y-3.18747
G01 X-4.15624 Y-3.18710
G01 X-4.15665 Y-3.18695
G01 X-4.15744 Y-3.18665
G01 X-4.15785 Y-3.18649
G01 X-4.15863 Y-3.18621
G01 X-4.15904 Y-3.18605
G01 X-4.15987 Y-3.18575
G01 X-4.16028 Y-3.18560
G01 X-4.16107 Y-3.18532
G01 X-4.16148 Y-3.18517
G01 X-4.16252 Y-3.18480
G01 X-4.16294 Y-3.18465
G01 X-4.16378 Y-3.18436
G01 X-4.16420 Y-3.18421
G01 X-4.16524 Y-3.18386
G01 X-4.16566 Y-3.18371
G01 X-4.16632 Y-3.18349
G01 X-4.16675 Y-3.18335
G01 X-4.16781 Y-3.18300
G01 X-4.16823 Y-3.18286
G01 X-4.16913 Y-3.18257
G01 X-4.16955 Y-3.18243
G01 X-4.17046 Y-3.18215
G01 X-4.17089 Y-3.18201
G01 X-4.17198 Y-3.18167
G01 X-4.17241 Y-3.18153
G01 X-4.17334 Y-3.18125
G01 X-4.17378 Y-3.18112
G01 X-4.17472 Y-3.18084
G01 X-4.17515 Y-3.18071
G01 X-4.17615 Y-3.18041
G01 X-4.17659 Y-3.18028
G01 X-4.17745 Y-3.18003
G01 X-4.17790 Y-3.17991
G01 X-4.17892 Y-3.17961
G01 X-4.17937 Y-3.17949
G01 X-4.18059 Y-3.17915
G01 X-4.18103 Y-3.17903
G01 X-4.18210 Y-3.17874
G01 X-4.18255 Y-3.17862
G01 X-4.18350 Y-3.17836
G01 X-4.18395 Y-3.17824
G01 X-4.18498 Y-3.17798
G01 X-4.18543 Y-3.17786
G01 X-4.18655 Y-3.17758
G01 X-4.18700 Y-3.17746
G01 X-4.18798 Y-3.17722
G01 X-4.18844 Y-3.17711
G01 X-4.18967 Y-3.17680
G01 X-4.19012 Y-3.17670
G01 X-4.19138 Y-3.17640
G01 X-4.19184 Y-3.17629
G01 X-4.19277 Y-3.17607
G01 X-4.19323 Y-3.17597
G01 X-4.19460 Y-3.17566
G01 X-4.19506 Y-3.17555
G01 X-4.19603 Y-3.17534
G01 X-4.19649 Y-3.17524
G01 X-4.19790 Y-3.17494
G01 X-4.19837 Y-3.17484
G01 X-4.19937 Y-3.17463
G01 X-4.19983 Y-3.17453
G01 X-4.20127 Y-3.17424
G01 X-4.20175 Y-3.17414
G01 X-4.20278 Y-3.17394
G01 X-4.20325 Y-3.17384
G01 X-4.20457 Y-3.17359
G01 X-4.20505 Y-3.17350
G01 X-4.20667 Y-3.17320
G01 X-4.20714 Y-3.17311
G01 X-4.20810 Y-3.17293
G01 X-4.20858 Y-3.17285
G01 X-4.20997 Y-3.17260
G01 X-4.21045 Y-3.17252
G01 X-4.21185 Y-3.17228
G01 X-4.21234 Y-3.17220
G01 X-4.21376 Y-3.17196
G01 X-4.21425 Y-3.17188
G01 X-4.21526 Y-3.17172
G01 X-4.21575 Y-3.17164
G01 X-4.21766 Y-3.17135
G01 X-4.21816 Y-3.17127
G01 X-4.21936 Y-3.17110
G01 X-4.21985 Y-3.17102
G01 X-4.22136 Y-3.17081
G01 X-4.22186 Y-3.17074
G01 X-4.22310 Y-3.17056
G01 X-4.22360 Y-3.17050
G01 X-4.22546 Y-3.17025
G01 X-4.22596 Y-3.17019
G01 X-4.22724 Y-3.17002
G01 X-4.22774 Y-3.16996
G01 X-4.22935 Y-3.16976
G01 X-4.22986 Y-3.16970
G01 X-4.23137 Y-3.16953
G01 X-4.23188 Y-3.16947
G01 X-4.23354 Y-3.16929
G01 X-4.23405 Y-3.16923
G01 X-4.23574 Y-3.16905
G01 X-4.23625 Y-3.16900
G01 X-4.23785 Y-3.16884
G01 X-4.23837 Y-3.16879
G01 X-4.24010 Y-3.16863
G01 X-4.24062 Y-3.16858
G01 X-4.24206 Y-3.16845
G01 X-4.24258 Y-3.16841
G01 X-4.24460 Y-3.16824
G01 X-4.24512 Y-3.16819
G01 X-4.24685 Y-3.16806
G01 X-4.24737 Y-3.16802
G01 X-4.24922 Y-3.16788
G01 X-4.24975 Y-3.16785
G01 X-4.25128 Y-3.16774
G01 X-4.25181 Y-3.16771
G01 X-4.25390 Y-3.16758
G01 X-4.25443 Y-3.16755
G01 X-4.25636 Y-3.16744
G01 X-4.25690 Y-3.16741
G01 X-4.25851 Y-3.16732
G01 X-4.25905 Y-3.16730
G01 X-4.26162 Y-3.16718
G01 X-4.26216 Y-3.16716
G01 X-4.26286 Y-3.16713
G01 X-4.29190 Y-3.09701
G01 X-4.29244 Y-3.09650
G01 X-4.29286 Y-3.09610
G01 X-4.29369 Y-3.09530
G01 X-4.29411 Y-3.09490
G01 X-4.29546 Y-3.09360
G01 X-4.29587 Y-3.09320
G01 X-4.29694 Y-3.09216
G01 X-4.29735 Y-3.09176
G01 X-4.29838 Y-3.09074
G01 X-4.29879 Y-3.09034
G01 X-4.29980 Y-3.08934
G01 X-4.30020 Y-3.08894
G01 X-4.30119 Y-3.08794
G01 X-4.30158 Y-3.08754
G01 X-4.30254 Y-3.08657
G01 X-4.30294 Y-3.08617
G01 X-4.30388 Y-3.08520
G01 X-4.30427 Y-3.08480
G01 X-4.30541 Y-3.08362
G01 X-4.30579 Y-3.08322
G01 X-4.30646 Y-3.08252
G01 X-4.30684 Y-3.08212
G01 X-4.30773 Y-3.08118
G01 X-4.30810 Y-3.08078
G01 X-4.30917 Y-3.07965
G01 X-4.30954 Y-3.07924
G01 X-4.31016 Y-3.07857
G01 X-4.31053 Y-3.07817
G01 X-4.31156 Y-3.07705
G01 X-4.31193 Y-3.07665
G01 X-4.31272 Y-3.07578
G01 X-4.31308 Y-3.07538
G01 X-4.31366 Y-3.07473
G01 X-4.31401 Y-3.07433
G01 X-4.31498 Y-3.07325
G01 X-4.31533 Y-3.07285
G01 X-4.31607 Y-3.07202
G01 X-4.31642 Y-3.07162
G01 X-4.31698 Y-3.07097
G01 X-4.31733 Y-3.07057
G01 X-4.31823 Y-3.06953
G01 X-4.31857 Y-3.06913
G01 X-4.31925 Y-3.06833
G01 X-4.31959 Y-3.06793
G01 X-4.32028 Y-3.06711
G01 X-4.32062 Y-3.06671
G01 X-4.32130 Y-3.06590
G01 X-4.32163 Y-3.06550
G01 X-4.32211 Y-3.06492
G01 X-4.32244 Y-3.06452
G01 X-4.32324 Y-3.06354
G01 X-4.32357 Y-3.06314
G01 X-4.32420 Y-3.06236
G01 X-4.32452 Y-3.06196
G01 X-4.32514 Y-3.06119
G01 X-4.32546 Y-3.06079
G01 X-4.32592 Y-3.06020
G01 X-4.32624 Y-3.05980
G01 X-4.32697 Y-3.05887
G01 X-4.32728 Y-3.05847
G01 X-4.32786 Y-3.05773
G01 X-4.32817 Y-3.05733
G01 X-4.32857 Y-3.05681
G01 X-4.32888 Y-3.05641
G01 X-4.32959 Y-3.05547
G01 X-4.32990 Y-3.05507
G01 X-4.33031 Y-3.05452
G01 X-4.33061 Y-3.05412
G01 X-4.33118 Y-3.05336
G01 X-4.33147 Y-3.05296
G01 X-4.33195 Y-3.05231
G01 X-4.33225 Y-3.05191
G01 X-4.33279 Y-3.05116
G01 X-4.33308 Y-3.05076
G01 X-4.33357 Y-3.05008
G01 X-4.33386 Y-3.04968
G01 X-4.33434 Y-3.04901
G01 X-4.33463 Y-3.04861
G01 X-4.33499 Y-3.04809
G01 X-4.33527 Y-3.04769
G01 X-4.33587 Y-3.04683
G01 X-4.33615 Y-3.04643
G01 X-4.33654 Y-3.04587
G01 X-4.33681 Y-3.04547
G01 X-4.33725 Y-3.04483
G01 X-4.33752 Y-3.04443
G01 X-4.33795 Y-3.04380
G01 X-4.33822 Y-3.04340
G01 X-4.33858 Y-3.04285
G01 X-4.33885 Y-3.04245
G01 X-4.33930 Y-3.04178
G01 X-4.33956 Y-3.04138
G01 X-4.33961 Y-3.04130
G01 X-4.33996 Y-3.04077
G01 X-4.34009 Y-3.04057
G01 X-4.34022 Y-3.04037
G01 X-4.34036 Y-3.04017
G01 X-4.34066 Y-3.03971
G01 X-4.34092 Y-3.03932
G01 X-4.34130 Y-3.03874
G01 X-4.34140 Y-3.03859
G01 X-4.34156 Y-3.03835
G01 X-4.34166 Y-3.03820
G01 X-4.34194 Y-3.03778
G01 X-4.34219 Y-3.03740
G01 X-4.34248 Y-3.03696
G01 X-4.34258 Y-3.03682
G01 X-4.34274 Y-3.03658
G01 X-4.34284 Y-3.03643
G01 X-4.34323 Y-3.03584
G01 X-4.34348 Y-3.03546
G01 X-4.34377 Y-3.03504
G01 X-4.34382 Y-3.03496
G01 X-4.34402 Y-3.03466
G01 X-4.34408 Y-3.03457
G01 X-4.34438 Y-3.03413
G01 X-4.34463 Y-3.03375
G01 X-4.34498 Y-3.03324
G01 X-4.34504 Y-3.03315
G01 X-4.34524 Y-3.03286
G01 X-4.34530 Y-3.03277
G01 X-4.34566 Y-3.03223
G01 X-4.34591 Y-3.03186
G01 X-4.34616 Y-3.03150
G01 X-4.34618 Y-3.03147
G01 X-4.34641 Y-3.03113
G01 X-4.34643 Y-3.03111
G01 X-4.34685 Y-3.03049
G01 X-4.34710 Y-3.03013
G01 X-4.34733 Y-3.02980
G01 X-4.34740 Y-3.02969
G01 X-4.34758 Y-3.02943
G01 X-4.34765 Y-3.02933
G01 X-4.34797 Y-3.02885
G01 X-4.34822 Y-3.02849
G01 X-4.34841 Y-3.02823
G01 X-4.34856 Y-3.02801
G01 X-4.34866 Y-3.02786
G01 X-4.34881 Y-3.02765
G01 X-4.34917 Y-3.02713
G01 X-4.34942 Y-3.02677
G01 X-4.34955 Y-3.02658
G01 X-4.34975 Y-3.02630
G01 X-4.34980 Y-3.02623
G01 X-4.34999 Y-3.02594
G01 X-4.35030 Y-3.02550
G01 X-4.35055 Y-3.02515
G01 X-4.35061 Y-3.02506
G01 X-4.35086 Y-3.02471
G01 X-4.35088 Y-3.02469
G01 X-4.35112 Y-3.02434
G01 X-4.35140 Y-3.02394
G01 X-4.35164 Y-3.02360
G01 X-4.35189 Y-3.02325
G01 X-4.35193 Y-3.02320
G01 X-4.35217 Y-3.02285
G01 X-4.35255 Y-3.02231
G01 X-4.35270 Y-3.02210
G01 X-4.35280 Y-3.02197
G01 X-4.35295 Y-3.02176
G01 X-4.35307 Y-3.02158
G01 X-4.35332 Y-3.02124
G01 X-4.35370 Y-3.02071
G01 X-4.35378 Y-3.02060
G01 X-4.35394 Y-3.02037
G01 X-4.35403 Y-3.02025
G01 X-4.35415 Y-3.02008
G01 X-4.35439 Y-3.01974
G01 X-4.35477 Y-3.01923
G01 X-4.35477 Y-3.01922
G01 X-4.35501 Y-3.01889
G01 X-4.35502 Y-3.01887
G01 X-4.35527 Y-3.01852
G01 X-4.35552 Y-3.01819
G01 X-4.35578 Y-3.01783
G01 X-4.35583 Y-3.01776
G01 X-4.35603 Y-3.01749
G01 X-4.35607 Y-3.01742
G01 X-4.35634 Y-3.01707
G01 X-4.35658 Y-3.01673
G01 X-4.35687 Y-3.01634
G01 X-4.35689 Y-3.01631
G01 X-4.35712 Y-3.01600
G01 X-4.35713 Y-3.01598
G01 X-4.35749 Y-3.01549
G01 X-4.35774 Y-3.01516
G01 X-4.35778 Y-3.01509
G01 X-4.35799 Y-3.01482
G01 X-4.35803 Y-3.01476
G01 X-4.35823 Y-3.01449
G01 X-4.35849 Y-3.01414
G01 X-4.35873 Y-3.01382
G01 X-4.35886 Y-3.01364
G01 X-4.35909 Y-3.01334
G01 X-4.35911 Y-3.01331
G01 X-4.35933 Y-3.01301
G01 X-4.35954 Y-3.01274
G01 X-4.35978 Y-3.01241
G01 X-4.35983 Y-3.01234
G01 X-4.36008 Y-3.01201
G01 X-4.36013 Y-3.01194
G01 X-4.36037 Y-3.01162
G01 X-4.36068 Y-3.01122
G01 X-4.36080 Y-3.01105
G01 X-4.36092 Y-3.01090
G01 X-4.36105 Y-3.01073
G01 X-4.36117 Y-3.01056
G01 X-4.36142 Y-3.01024
G01 X-4.36177 Y-3.00978
G01 X-4.36183 Y-3.00970
G01 X-4.36201 Y-3.00946
G01 X-4.36208 Y-3.00937
G01 X-4.36221 Y-3.00920
G01 X-4.36246 Y-3.00888
G01 X-4.36278 Y-3.00846
G01 X-4.36281 Y-3.00842
G01 X-4.36303 Y-3.00814
G01 X-4.36305 Y-3.00810
G01 X-4.36331 Y-3.00777
G01 X-4.36355 Y-3.00746
G01 X-4.36380 Y-3.00713
G01 X-4.36385 Y-3.00707
G01 X-4.36405 Y-3.00681
G01 X-4.36410 Y-3.00675
G01 X-4.36440 Y-3.00636
G01 X-4.36464 Y-3.00604
G01 X-4.36479 Y-3.00586
G01 X-4.36495 Y-3.00565
G01 X-4.36504 Y-3.00554
G01 X-4.36520 Y-3.00533
G01 X-4.36544 Y-3.00502
G01 X-4.36569 Y-3.00470
G01 X-4.36580 Y-3.00457
G01 X-4.36595 Y-3.00438
G01 X-4.36605 Y-3.00425
G01 X-4.36619 Y-3.00406
G01 X-4.36655 Y-3.00361
G01 X-4.36675 Y-3.00335
G01 X-4.36680 Y-3.00330
G01 X-4.36701 Y-3.00304
G01 X-4.36710 Y-3.00292
G01 X-4.36735 Y-3.00260
G01 X-4.36761 Y-3.00228
G01 X-4.36776 Y-3.00209
G01 X-4.36786 Y-3.00197
G01 X-4.36801 Y-3.00177
G01 X-4.36812 Y-3.00164
G01 X-4.36836 Y-3.00133
G01 X-4.36873 Y-3.00088
G01 X-4.36882 Y-3.00076
G01 X-4.36898 Y-3.00057
G01 X-4.36907 Y-3.00045
G01 X-4.36928 Y-3.00019
G01 X-4.36953 Y-2.99988
G01 X-4.36978 Y-2.99957
G01 X-4.36979 Y-2.99955
G01 X-4.37004 Y-2.99925
G01 X-4.37005 Y-2.99924
G01 X-4.37031 Y-2.99892
G01 X-4.37056 Y-2.99860
G01 X-4.37080 Y-2.99831
G01 X-4.37089 Y-2.99821
G01 X-4.37106 Y-2.99799
G01 X-4.37114 Y-2.99789
G01 X-4.37145 Y-2.99752
G01 X-4.37147 Y-2.99749
G01 X-4.37170 Y-2.99721
G01 X-4.37203 Y-2.99680
G01 X-4.37228 Y-2.99649
G01 X-4.37255 Y-2.99616
G01 X-4.37280 Y-2.99585
G01 X-4.37306 Y-2.99552
G01 X-4.37331 Y-2.99520
G01 X-4.37364 Y-2.99479
G01 X-4.37389 Y-2.99447
G01 X-4.37425 Y-2.99401
G01 X-4.37449 Y-2.99369
G01 X-4.37472 Y-2.99340
G01 X-4.37496 Y-2.99308
G01 X-4.37522 Y-2.99274
G01 X-4.37547 Y-2.99242
G01 X-4.37582 Y-2.99194
G01 X-4.37607 Y-2.99162
G01 X-4.37635 Y-2.99124
G01 X-4.37659 Y-2.99091
G01 X-4.37688 Y-2.99052
G01 X-4.37712 Y-2.99020
G01 X-4.37741 Y-2.98981
G01 X-4.37765 Y-2.98948
G01 X-4.37796 Y-2.98904
G01 X-4.37820 Y-2.98871
G01 X-4.37845 Y-2.98836
G01 X-4.37869 Y-2.98803
G01 X-4.37891 Y-2.98772
G01 X-4.37915 Y-2.98738
G01 X-4.37955 Y-2.98680
G01 X-4.37979 Y-2.98647
G01 X-4.38000 Y-2.98615
G01 X-4.38024 Y-2.98582
G01 X-4.38052 Y-2.98540
G01 X-4.38075 Y-2.98507
G01 X-4.38106 Y-2.98461
G01 X-4.38129 Y-2.98427
G01 X-4.38153 Y-2.98390
G01 X-4.38176 Y-2.98356
G01 X-4.38207 Y-2.98310
G01 X-4.38229 Y-2.98276
G01 X-4.38255 Y-2.98237
G01 X-4.38277 Y-2.98203
