( pcb2gcode 2.5.0 )
( Software-independent Gcode )

G94 ( Inches per minute feed rate. )
G20 ( Units == INCHES. )

G90 ( Absolute coordinates. )
G00 S12000 ( RPM spindle speed. )
G64 P0.00040 ( set maximum deviation from commanded toolpath )
G01 F360.00000 ( Feedrate. )


G00 Z1.00000 (Retract to tool change height)
T1
M5      (Spindle stop.)
G04 P1.00000 (Wait for spindle to stop)
(MSG, Change tool bit to mill diameter 0.00000in)
M6      (Tool change.)
M0      (Temporary machine stop.)
M3 ( Spindle on clockwise. )
G04 P1.00000 (Wait for spindle to get up to speed)
G04 P0 ( dwell for no time -- G64 should not smooth over this point )
G00 Z0.08000 ( retract )

G00 X-3.05000 Y-2.64776 ( rapid move to begin. )
G01 F180.00000
( Mill infeed pass 1/1 )
G01 Z-0.04000
G04 P0 ( dwell for no time -- G64 should not smooth over this point )
G01 F360.00000
G01 X-3.05000 Y-2.64776
G01 X-3.05159 Y-2.64803
G01 X-3.05175 Y-2.64805
G01 X-3.05192 Y-2.64808
G01 X-3.05329 Y-2.64830
G01 X-3.05346 Y-2.64833
G01 X-3.05482 Y-2.64855
G01 X-3.05499 Y-2.64858
G01 X-3.05516 Y-2.64860
G01 X-3.05667 Y-2.64884
G01 X-3.05816 Y-2.64908
G01 X-3.05832 Y-2.64910
G01 X-3.05849 Y-2.64913
G01 X-3.06063 Y-2.64946
G01 X-3.06141 Y-2.64958
G01 X-3.06157 Y-2.64960
G01 X-3.06292 Y-2.64980
G01 X-3.06309 Y-2.64983
G01 X-3.06325 Y-2.64985
G01 X-3.06468 Y-2.65006
G01 X-3.06608 Y-2.65027
G01 X-3.06625 Y-2.65029
G01 X-3.06641 Y-2.65031
G01 X-3.06847 Y-2.65061
G01 X-3.07050 Y-2.65089
G01 X-3.07067 Y-2.65091
G01 X-3.07083 Y-2.65093
G01 X-3.07099 Y-2.65096
G01 X-3.07281 Y-2.65120
G01 X-3.07572 Y-2.65158
G01 X-3.07791 Y-2.65186
G01 X-3.07807 Y-2.65189
G01 X-3.07824 Y-2.65191
G01 X-3.07840 Y-2.65193
G01 X-3.08033 Y-2.65217
G01 X-3.08092 Y-2.65224
G01 X-3.08108 Y-2.65226
G01 X-3.08240 Y-2.65241
G01 X-3.08256 Y-2.65243
G01 X-3.08313 Y-2.65250
G01 X-3.08500 Y-2.65272
G01 X-3.08516 Y-2.65274
G01 X-3.08584 Y-2.65281
G01 X-3.08881 Y-2.65314
G01 X-3.08948 Y-2.65322
G01 X-3.08964 Y-2.65323
G01 X-3.09145 Y-2.65342
G01 X-3.09195 Y-2.65348
G01 X-3.09210 Y-2.65349
G01 X-3.09339 Y-2.65362
G01 X-3.09355 Y-2.65364
G01 X-3.09403 Y-2.65369
G01 X-3.09579 Y-2.65386
G01 X-3.09595 Y-2.65388
G01 X-3.09610 Y-2.65389
G01 X-3.09626 Y-2.65391
G01 X-3.09649 Y-2.65393
G01 X-3.09754 Y-2.65403
G01 X-3.09769 Y-2.65404
G01 X-3.09828 Y-2.65410
G01 X-3.09844 Y-2.65411
G01 X-3.09970 Y-2.65424
G01 X-3.09985 Y-2.65425
G01 X-3.10000 Y-2.65427
G01 X-3.10016 Y-2.65428
G01 X-3.10031 Y-2.65429
G01 X-3.10209 Y-2.65447
G01 X-3.10224 Y-2.65448
G01 X-3.10240 Y-2.65450
G01 X-3.10345 Y-2.65460
G01 X-3.10579 Y-2.65484
G01 X-3.10594 Y-2.65485
G01 X-3.10609 Y-2.65487
G01 X-3.10684 Y-2.65494
G01 X-3.10796 Y-2.65505
G01 X-3.10952 Y-2.65521
G01 X-3.10967 Y-2.65523
G01 X-3.10981 Y-2.65524
G01 X-3.11101 Y-2.65537
G01 X-3.11115 Y-2.65538
G01 X-3.11153 Y-2.65542
G01 X-3.11167 Y-2.65544
G01 X-3.11182 Y-2.65545
G01 X-3.11300 Y-2.65557
G01 X-3.11314 Y-2.65559
G01 X-3.11328 Y-2.65560
G01 X-3.11343 Y-2.65562
G01 X-3.11357 Y-2.65563
G01 X-3.11507 Y-2.65579
G01 X-3.11522 Y-2.65580
G01 X-3.11594 Y-2.65588
G01 X-3.11666 Y-2.65596
G01 X-3.11671 Y-2.65596
G01 X-3.11680 Y-2.65597
G01 X-3.11798 Y-2.65610
G01 X-3.11981 Y-2.65628
G01 X-3.11995 Y-2.65630
G01 X-3.12021 Y-2.65632
G01 X-3.12022 Y-2.65632
G01 X-3.12024 Y-2.65632
G01 X-3.12100 Y-2.65640
G01 X-3.12162 Y-2.65646
G01 X-3.12176 Y-2.65647
G01 X-3.12191 Y-2.65649
G01 X-3.12205 Y-2.65650
G01 X-3.12219 Y-2.65652
G01 X-3.12357 Y-2.65665
G01 X-3.12493 Y-2.65679
G01 X-3.12507 Y-2.65680
G01 X-3.12520 Y-2.65682
G01 X-3.12621 Y-2.65692
G01 X-3.12800 Y-2.65710
G01 X-3.12814 Y-2.65711
G01 X-3.12827 Y-2.65713
G01 X-3.12841 Y-2.65714
G01 X-3.12917 Y-2.65722
G01 X-3.13100 Y-2.65741
G01 X-3.13113 Y-2.65742
G01 X-3.13126 Y-2.65744
G01 X-3.13140 Y-2.65745
G01 X-3.13153 Y-2.65746
G01 X-3.13271 Y-2.65759
G01 X-3.13284 Y-2.65760
G01 X-3.13293 Y-2.65761
G01 X-3.13301 Y-2.65762
G01 X-3.13425 Y-2.65775
G01 X-3.13435 Y-2.65776
G01 X-3.13444 Y-2.65777
G01 X-3.13457 Y-2.65779
G01 X-3.13636 Y-2.65798
G01 X-3.13662 Y-2.65801
G01 X-3.13727 Y-2.65808
G01 X-3.13740 Y-2.65809
G01 X-3.13848 Y-2.65821
G01 X-3.13860 Y-2.65822
G01 X-3.13871 Y-2.65824
G01 X-3.13874 Y-2.65824
G01 X-3.13887 Y-2.65826
G01 X-3.13991 Y-2.65837
G01 X-3.14003 Y-2.65838
G01 X-3.14068 Y-2.65846
G01 X-3.14133 Y-2.65853
G01 X-3.14145 Y-2.65855
G01 X-3.14158 Y-2.65856
G01 X-3.14222 Y-2.65863
G01 X-3.14285 Y-2.65870
G01 X-3.14298 Y-2.65872
G01 X-3.14397 Y-2.65883
G01 X-3.14410 Y-2.65885
G01 X-3.14413 Y-2.65885
G01 X-3.14424 Y-2.65886
G01 X-3.14435 Y-2.65888
G01 X-3.14536 Y-2.65899
G01 X-3.14548 Y-2.65901
G01 X-3.14608 Y-2.65908
G01 X-3.14633 Y-2.65911
G01 X-3.14792 Y-2.65930
G01 X-3.14805 Y-2.65931
G01 X-3.14813 Y-2.65932
G01 X-3.14823 Y-2.65933
G01 X-3.14928 Y-2.65946
G01 X-3.14937 Y-2.65947
G01 X-3.14945 Y-2.65948
G01 X-3.14957 Y-2.65949
G01 X-3.15055 Y-2.65961
G01 X-3.15067 Y-2.65963
G01 X-3.15079 Y-2.65964
G01 X-3.15091 Y-2.65966
G01 X-3.15098 Y-2.65967
G01 X-3.15103 Y-2.65967
G01 X-3.15252 Y-2.65985
G01 X-3.15312 Y-2.65992
G01 X-3.15325 Y-2.65993
G01 X-3.15337 Y-2.65995
G01 X-3.15349 Y-2.65996
G01 X-3.15466 Y-2.66010
G01 X-3.15488 Y-2.66012
G01 X-3.15566 Y-2.66021
G01 X-3.15578 Y-2.66022
G01 X-3.15590 Y-2.66024
G01 X-3.15691 Y-2.66035
G01 X-3.15790 Y-2.66046
G01 X-3.15802 Y-2.66048
G01 X-3.15814 Y-2.66049
G01 X-3.15826 Y-2.66051
G01 X-3.15838 Y-2.66052
G01 X-3.15933 Y-2.66063
G01 X-3.15936 Y-2.66063
G01 X-3.15939 Y-2.66064
G01 X-3.15956 Y-2.66066
G01 X-3.15968 Y-2.66067
G01 X-3.16094 Y-2.66082
G01 X-3.16174 Y-2.66092
G01 X-3.16185 Y-2.66093
G01 X-3.16234 Y-2.66099
G01 X-3.16282 Y-2.66105
G01 X-3.16294 Y-2.66106
G01 X-3.16386 Y-2.66117
G01 X-3.16398 Y-2.66119
G01 X-3.16410 Y-2.66120
G01 X-3.16421 Y-2.66121
G01 X-3.16433 Y-2.66123
G01 X-3.16503 Y-2.66132
G01 X-3.16515 Y-2.66133
G01 X-3.16526 Y-2.66134
G01 X-3.16548 Y-2.66137
G01 X-3.16560 Y-2.66139
G01 X-3.16629 Y-2.66147
G01 X-3.16640 Y-2.66149
G01 X-3.16652 Y-2.66150
G01 X-3.16743 Y-2.66162
G01 X-3.16811 Y-2.66170
G01 X-3.16855 Y-2.66176
G01 X-3.16867 Y-2.66177
G01 X-3.16878 Y-2.66179
G01 X-3.17007 Y-2.66195
G01 X-3.17066 Y-2.66203
G01 X-3.17077 Y-2.66205
G01 X-3.17088 Y-2.66206
G01 X-3.17178 Y-2.66218
G01 X-3.17189 Y-2.66219
G01 X-3.17200 Y-2.66221
G01 X-3.17211 Y-2.66222
G01 X-3.17222 Y-2.66224
G01 X-3.17283 Y-2.66232
G01 X-3.17294 Y-2.66234
G01 X-3.17322 Y-2.66237
G01 X-3.17333 Y-2.66239
G01 X-3.17394 Y-2.66247
G01 X-3.17405 Y-2.66248
G01 X-3.17416 Y-2.66250
G01 X-3.17427 Y-2.66251
G01 X-3.17511 Y-2.66263
G01 X-3.17537 Y-2.66266
G01 X-3.17548 Y-2.66268
G01 X-3.17606 Y-2.66276
G01 X-3.17617 Y-2.66277
G01 X-3.17643 Y-2.66281
G01 X-3.17721 Y-2.66292
G01 X-3.17726 Y-2.66293
G01 X-3.17737 Y-2.66294
G01 X-3.17772 Y-2.66299
G01 X-3.17910 Y-2.66318
G01 X-3.17944 Y-2.66322
G01 X-3.17955 Y-2.66324
G01 X-3.18036 Y-2.66334
G01 X-3.18052 Y-2.66336
G01 X-3.18064 Y-2.66338
G01 X-3.18075 Y-2.66339
G01 X-3.18127 Y-2.66346
G01 X-3.18138 Y-2.66347
G01 X-3.18166 Y-2.66351
G01 X-3.18246 Y-2.66362
G01 X-3.18257 Y-2.66363
G01 X-3.18267 Y-2.66364
G01 X-3.18278 Y-2.66366
G01 X-3.18385 Y-2.66380
G01 X-3.18474 Y-2.66392
G01 X-3.18478 Y-2.66392
G01 X-3.18563 Y-2.66404
G01 X-3.18574 Y-2.66405
G01 X-3.18585 Y-2.66407
G01 X-3.18595 Y-2.66408
G01 X-3.18672 Y-2.66419
G01 X-3.18748 Y-2.66429
G01 X-3.18759 Y-2.66431
G01 X-3.18769 Y-2.66432
G01 X-3.18822 Y-2.66440
G01 X-3.18875 Y-2.66447
G01 X-3.18885 Y-2.66449
G01 X-3.18896 Y-2.66450
G01 X-3.18940 Y-2.66456
G01 X-3.18951 Y-2.66458
G01 X-3.18981 Y-2.66462
G01 X-3.19055 Y-2.66473
G01 X-3.19066 Y-2.66474
G01 X-3.19076 Y-2.66476
G01 X-3.19128 Y-2.66483
G01 X-3.19181 Y-2.66491
G01 X-3.19191 Y-2.66493
G01 X-3.19201 Y-2.66494
G01 X-3.19243 Y-2.66500
G01 X-3.19254 Y-2.66502
G01 X-3.19295 Y-2.66508
G01 X-3.19306 Y-2.66509
G01 X-3.19316 Y-2.66511
G01 X-3.19419 Y-2.66526
G01 X-3.19440 Y-2.66529
G01 X-3.19548 Y-2.66546
G01 X-3.19644 Y-2.66560
G01 X-3.19654 Y-2.66562
G01 X-3.19664 Y-2.66564
G01 X-3.19674 Y-2.66565
G01 X-3.19745 Y-2.66576
G01 X-3.19857 Y-2.66594
G01 X-3.19877 Y-2.66597
G01 X-3.19915 Y-2.66603
G01 X-3.19977 Y-2.66613
G01 X-3.20058 Y-2.66625
G01 X-3.20068 Y-2.66627
G01 X-3.20079 Y-2.66628
G01 X-3.20147 Y-2.66639
G01 X-3.20181 Y-2.66644
G01 X-3.20191 Y-2.66645
G01 X-3.20218 Y-2.66649
G01 X-3.20225 Y-2.66650
G01 X-3.20245 Y-2.66653
G01 X-3.20255 Y-2.66655
G01 X-3.20336 Y-2.66667
G01 X-3.20347 Y-2.66668
G01 X-3.20357 Y-2.66670
G01 X-3.20367 Y-2.66671
G01 X-3.20377 Y-2.66673
G01 X-3.20458 Y-2.66685
G01 X-3.20469 Y-2.66687
G01 X-3.20479 Y-2.66688
G01 X-3.20489 Y-2.66690
G01 X-3.20520 Y-2.66694
G01 X-3.20530 Y-2.66696
G01 X-3.20580 Y-2.66704
G01 X-3.20591 Y-2.66705
G01 X-3.20621 Y-2.66710
G01 X-3.20627 Y-2.66711
G01 X-3.20651 Y-2.66715
G01 X-3.20661 Y-2.66716
G01 X-3.20742 Y-2.66729
G01 X-3.20752 Y-2.66730
G01 X-3.20762 Y-2.66732
G01 X-3.20791 Y-2.66736
G01 X-3.20801 Y-2.66738
G01 X-3.20853 Y-2.66746
G01 X-3.20863 Y-2.66748
G01 X-3.20873 Y-2.66749
G01 X-3.20883 Y-2.66751
G01 X-3.20912 Y-2.66755
G01 X-3.20922 Y-2.66757
G01 X-3.20932 Y-2.66758
G01 X-3.20985 Y-2.66767
G01 X-3.20994 Y-2.66769
G01 X-3.21022 Y-2.66773
G01 X-3.21032 Y-2.66775
G01 X-3.21042 Y-2.66776
G01 X-3.21052 Y-2.66778
G01 X-3.21071 Y-2.66781
G01 X-3.21132 Y-2.66791
G01 X-3.21142 Y-2.66792
G01 X-3.21152 Y-2.66794
G01 X-3.21162 Y-2.66796
G01 X-3.21172 Y-2.66797
G01 X-3.21253 Y-2.66810
G01 X-3.21263 Y-2.66811
G01 X-3.21286 Y-2.66815
G01 X-3.21308 Y-2.66818
G01 X-3.21318 Y-2.66820
G01 X-3.21374 Y-2.66828
G01 X-3.21384 Y-2.66830
G01 X-3.21409 Y-2.66833
G01 X-3.21417 Y-2.66835
G01 X-3.21439 Y-2.66838
G01 X-3.21449 Y-2.66839
G01 X-3.21529 Y-2.66851
G01 X-3.21539 Y-2.66852
G01 X-3.21549 Y-2.66854
G01 X-3.21611 Y-2.66863
G01 X-3.21650 Y-2.66868
G01 X-3.21660 Y-2.66869
G01 X-3.21670 Y-2.66871
G01 X-3.21680 Y-2.66872
G01 X-3.21742 Y-2.66881
G01 X-3.21803 Y-2.66889
G01 X-3.21813 Y-2.66890
G01 X-3.21853 Y-2.66895
G01 X-3.21914 Y-2.66903
G01 X-3.21924 Y-2.66904
G01 X-3.21934 Y-2.66906
G01 X-3.21944 Y-2.66907
G01 X-3.21954 Y-2.66908
G01 X-3.22035 Y-2.66918
G01 X-3.22045 Y-2.66920
G01 X-3.22055 Y-2.66921
G01 X-3.22065 Y-2.66922
G01 X-3.22125 Y-2.66929
G01 X-3.22166 Y-2.66934
G01 X-3.22176 Y-2.66935
G01 X-3.22236 Y-2.66942
G01 X-3.22277 Y-2.66947
G01 X-3.22287 Y-2.66948
G01 X-3.22306 Y-2.66950
G01 X-3.22307 Y-2.66950
G01 X-3.22326 Y-2.66952
G01 X-3.22336 Y-2.66953
G01 X-3.22417 Y-2.66962
G01 X-3.22418 Y-2.66962
G01 X-3.22419 Y-2.66962
G01 X-3.22437 Y-2.66964
G01 X-3.22447 Y-2.66965
G01 X-3.22497 Y-2.66970
G01 X-3.22548 Y-2.66976
G01 X-3.22558 Y-2.66977
G01 X-3.22568 Y-2.66978
G01 X-3.22618 Y-2.66983
G01 X-3.22685 Y-2.66989
G01 X-3.22695 Y-2.66990
G01 X-3.22730 Y-2.66993
G01 X-3.22781 Y-2.66998
G01 X-3.22790 Y-2.66999
G01 X-3.22805 Y-2.67000
G01 X-3.22808 Y-2.67001
G01 X-3.22810 Y-2.67001
G01 X-3.22825 Y-2.67002
G01 X-3.22835 Y-2.67003
G01 X-3.22902 Y-2.67009
G01 X-3.22912 Y-2.67010
G01 X-3.22926 Y-2.67011
G01 X-3.22929 Y-2.67011
G01 X-3.22932 Y-2.67012
G01 X-3.22946 Y-2.67013
G01 X-3.22956 Y-2.67014
G01 X-3.23037 Y-2.67020
G01 X-3.23041 Y-2.67021
G01 X-3.23044 Y-2.67021
G01 X-3.23057 Y-2.67022
G01 X-3.23067 Y-2.67023
G01 X-3.23118 Y-2.67027
G01 X-3.23169 Y-2.67031
G01 X-3.23172 Y-2.67031
G01 X-3.23176 Y-2.67031
G01 X-3.23239 Y-2.67036
G01 X-3.23290 Y-2.67040
G01 X-3.23300 Y-2.67040
G01 X-3.23356 Y-2.67044
G01 X-3.23401 Y-2.67047
G01 X-3.23412 Y-2.67048
G01 X-3.23421 Y-2.67048
G01 X-3.23432 Y-2.67049
G01 X-3.23441 Y-2.67050
G01 X-3.23533 Y-2.67055
G01 X-3.23538 Y-2.67056
G01 X-3.23543 Y-2.67056
G01 X-3.23553 Y-2.67057
G01 X-3.23609 Y-2.67060
G01 X-3.23655 Y-2.67062
G01 X-3.23665 Y-2.67063
G01 X-3.23720 Y-2.67066
G01 X-3.23775 Y-2.67069
G01 X-3.23781 Y-2.67069
G01 X-3.23787 Y-2.67069
G01 X-3.23795 Y-2.67070
G01 X-3.23801 Y-2.67070
G01 X-3.23807 Y-2.67070
G01 X-3.23896 Y-2.67075
G01 X-3.23906 Y-2.67075
G01 X-3.23913 Y-2.67076
G01 X-3.23919 Y-2.67076
G01 X-3.24008 Y-2.67080
G01 X-3.24014 Y-2.67080
G01 X-3.24021 Y-2.67080
G01 X-3.24028 Y-2.67080
G01 X-3.24037 Y-2.67081
G01 X-3.24047 Y-2.67081
G01 X-3.24058 Y-2.67082
G01 X-3.24133 Y-2.67084
G01 X-3.24143 Y-2.67085
G01 X-3.24149 Y-2.67085
G01 X-3.24159 Y-2.67085
G01 X-3.24169 Y-2.67086
G01 X-3.24250 Y-2.67088
G01 X-3.24260 Y-2.67089
G01 X-3.24268 Y-2.67089
G01 X-3.24275 Y-2.67089
G01 X-3.24280 Y-2.67089
G01 X-3.24290 Y-2.67089
G01 X-3.24341 Y-2.67091
G01 X-3.24392 Y-2.67092
G01 X-3.24402 Y-2.67092
G01 X-3.24453 Y-2.67094
G01 X-3.24503 Y-2.67095
G01 X-3.24513 Y-2.67095
G01 X-3.24523 Y-2.67095
G01 X-3.24533 Y-2.67095
G01 X-3.24615 Y-2.67097
G01 X-3.24624 Y-2.67097
G01 X-3.24633 Y-2.67097
G01 X-3.24635 Y-2.67097
G01 X-3.24645 Y-2.67097
G01 X-3.24655 Y-2.67097
G01 X-3.24737 Y-2.67098
G01 X-3.24747 Y-2.67098
G01 X-3.24757 Y-2.67099
G01 X-3.24767 Y-2.67099
G01 X-3.24777 Y-2.67099
G01 X-3.24858 Y-2.67099
G01 X-3.24868 Y-2.67100
G01 X-3.24878 Y-2.67100
G01 X-3.24888 Y-2.67100
G01 X-3.24898 Y-2.67100
G01 X-3.24949 Y-2.67100
G01 X-3.25051 Y-2.67100
G01 X-3.25102 Y-2.67100
G01 X-3.25112 Y-2.67100
G01 X-3.25122 Y-2.67100
G01 X-3.25132 Y-2.67100
G01 X-3.25142 Y-2.67099
G01 X-3.25223 Y-2.67099
G01 X-3.25233 Y-2.67099
G01 X-3.25243 Y-2.67099
G01 X-3.25253 Y-2.67098
G01 X-3.25263 Y-2.67098
G01 X-3.25345 Y-2.67097
G01 X-3.25355 Y-2.67097
G01 X-3.25365 Y-2.67097
G01 X-3.25367 Y-2.67097
G01 X-3.25376 Y-2.67097
G01 X-3.25385 Y-2.67097
G01 X-3.25466 Y-2.67095
G01 X-3.25476 Y-2.67095
G01 X-3.25486 Y-2.67095
G01 X-3.25496 Y-2.67095
G01 X-3.25547 Y-2.67094
G01 X-3.25598 Y-2.67092
G01 X-3.25608 Y-2.67092
G01 X-3.25659 Y-2.67091
G01 X-3.25710 Y-2.67089
G01 X-3.25719 Y-2.67089
G01 X-3.25724 Y-2.67089
G01 X-3.25732 Y-2.67089
G01 X-3.25739 Y-2.67089
G01 X-3.25750 Y-2.67088
G01 X-3.25831 Y-2.67086
G01 X-3.25841 Y-2.67085
G01 X-3.25851 Y-2.67085
G01 X-3.25857 Y-2.67085
G01 X-3.25867 Y-2.67084
G01 X-3.25942 Y-2.67082
G01 X-3.25952 Y-2.67081
G01 X-3.25962 Y-2.67081
G01 X-3.25972 Y-2.67080
G01 X-3.25979 Y-2.67080
G01 X-3.25985 Y-2.67080
G01 X-3.25992 Y-2.67080
G01 X-3.26081 Y-2.67076
G01 X-3.26087 Y-2.67076
G01 X-3.26094 Y-2.67075
G01 X-3.26104 Y-2.67075
G01 X-3.26193 Y-2.67070
G01 X-3.26199 Y-2.67070
G01 X-3.26205 Y-2.67070
G01 X-3.26213 Y-2.67069
G01 X-3.26219 Y-2.67069
G01 X-3.26225 Y-2.67069
G01 X-3.26280 Y-2.67066
G01 X-3.26335 Y-2.67063
G01 X-3.26345 Y-2.67062
G01 X-3.26391 Y-2.67060
G01 X-3.26447 Y-2.67057
G01 X-3.26457 Y-2.67056
G01 X-3.26462 Y-2.67056
G01 X-3.26467 Y-2.67055
G01 X-3.26558 Y-2.67050
G01 X-3.26568 Y-2.67049
G01 X-3.26578 Y-2.67048
G01 X-3.26588 Y-2.67048
G01 X-3.26598 Y-2.67047
G01 X-3.26644 Y-2.67044
G01 X-3.26700 Y-2.67040
G01 X-3.26710 Y-2.67040
G01 X-3.26761 Y-2.67036
G01 X-3.26824 Y-2.67031
G01 X-3.26827 Y-2.67031
G01 X-3.26831 Y-2.67031
G01 X-3.26882 Y-2.67027
G01 X-3.26932 Y-2.67023
G01 X-3.26943 Y-2.67022
G01 X-3.26956 Y-2.67021
G01 X-3.26959 Y-2.67021
G01 X-3.26962 Y-2.67020
G01 X-3.27043 Y-2.67014
G01 X-3.27054 Y-2.67013
G01 X-3.27068 Y-2.67012
G01 X-3.27070 Y-2.67011
G01 X-3.27074 Y-2.67011
G01 X-3.27088 Y-2.67010
G01 X-3.27097 Y-2.67009
G01 X-3.27164 Y-2.67003
G01 X-3.27174 Y-2.67002
G01 X-3.27189 Y-2.67001
G01 X-3.27192 Y-2.67001
G01 X-3.27194 Y-2.67000
G01 X-3.27209 Y-2.66999
G01 X-3.27219 Y-2.66998
G01 X-3.27270 Y-2.66993
G01 X-3.27305 Y-2.66990
G01 X-3.27315 Y-2.66989
G01 X-3.27381 Y-2.66983
G01 X-3.27432 Y-2.66978
G01 X-3.27442 Y-2.66977
G01 X-3.27452 Y-2.66976
G01 X-3.27503 Y-2.66970
G01 X-3.27553 Y-2.66965
G01 X-3.27563 Y-2.66964
G01 X-3.27581 Y-2.66962
G01 X-3.27582 Y-2.66962
G01 X-3.27583 Y-2.66962
G01 X-3.27664 Y-2.66953
G01 X-3.27674 Y-2.66952
G01 X-3.27692 Y-2.66950
G01 X-3.27694 Y-2.66950
G01 X-3.27712 Y-2.66948
G01 X-3.27722 Y-2.66947
G01 X-3.27764 Y-2.66942
G01 X-3.27824 Y-2.66935
G01 X-3.27834 Y-2.66934
G01 X-3.27875 Y-2.66929
G01 X-3.27935 Y-2.66922
G01 X-3.27945 Y-2.66921
G01 X-3.27955 Y-2.66920
G01 X-3.27965 Y-2.66918
G01 X-3.28046 Y-2.66908
G01 X-3.28056 Y-2.66907
G01 X-3.28066 Y-2.66906
G01 X-3.28076 Y-2.66904
G01 X-3.28086 Y-2.66903
G01 X-3.28147 Y-2.66895
G01 X-3.28187 Y-2.66890
G01 X-3.28197 Y-2.66889
G01 X-3.28258 Y-2.66881
G01 X-3.28320 Y-2.66872
G01 X-3.28330 Y-2.66871
G01 X-3.28340 Y-2.66869
G01 X-3.28349 Y-2.66868
G01 X-3.28389 Y-2.66863
G01 X-3.28450 Y-2.66854
G01 X-3.28460 Y-2.66852
G01 X-3.28471 Y-2.66851
G01 X-3.28551 Y-2.66839
G01 X-3.28561 Y-2.66838
G01 X-3.28583 Y-2.66835
G01 X-3.28591 Y-2.66833
G01 X-3.28616 Y-2.66830
G01 X-3.28626 Y-2.66828
G01 X-3.28681 Y-2.66820
G01 X-3.28691 Y-2.66818
G01 X-3.28714 Y-2.66815
G01 X-3.28737 Y-2.66811
G01 X-3.28747 Y-2.66810
G01 X-3.28828 Y-2.66797
G01 X-3.28837 Y-2.66796
G01 X-3.28848 Y-2.66794
G01 X-3.28857 Y-2.66792
G01 X-3.28867 Y-2.66791
G01 X-3.28948 Y-2.66778
G01 X-3.28958 Y-2.66776
G01 X-3.28968 Y-2.66775
G01 X-3.28978 Y-2.66773
G01 X-3.29005 Y-2.66768
G01 X-3.29015 Y-2.66767
G01 X-3.29068 Y-2.66758
G01 X-3.29078 Y-2.66756
G01 X-3.29088 Y-2.66755
G01 X-3.29116 Y-2.66750
G01 X-3.29126 Y-2.66748
G01 X-3.29136 Y-2.66746
G01 X-3.29146 Y-2.66745
G01 X-3.29198 Y-2.66736
G01 X-3.29208 Y-2.66734
G01 X-3.29237 Y-2.66729
G01 X-3.29247 Y-2.66727
G01 X-3.29257 Y-2.66725
G01 X-3.29337 Y-2.66711
G01 X-3.29347 Y-2.66710
G01 X-3.29371 Y-2.66705
G01 X-3.29377 Y-2.66704
G01 X-3.29407 Y-2.66699
G01 X-3.29417 Y-2.66697
G01 X-3.29466 Y-2.66688
G01 X-3.29476 Y-2.66686
G01 X-3.29507 Y-2.66680
G01 X-3.29517 Y-2.66678
G01 X-3.29527 Y-2.66676
G01 X-3.29537 Y-2.66675
G01 X-3.29617 Y-2.66659
G01 X-3.29627 Y-2.66657
G01 X-3.29637 Y-2.66655
G01 X-3.29647 Y-2.66654
G01 X-3.29657 Y-2.66652
G01 X-3.29737 Y-2.66636
G01 X-3.29747 Y-2.66634
G01 X-3.29773 Y-2.66629
G01 X-3.29800 Y-2.66624
G01 X-3.29810 Y-2.66622
G01 X-3.29843 Y-2.66615
G01 X-3.29910 Y-2.66602
G01 X-3.29920 Y-2.66600
G01 X-3.29930 Y-2.66598
G01 X-3.30010 Y-2.66581
G01 X-3.30107 Y-2.66561
G01 X-3.30127 Y-2.66557
G01 X-3.30236 Y-2.66533
G01 X-3.30304 Y-2.66519
G01 X-3.30314 Y-2.66516
G01 X-3.30324 Y-2.66514
G01 X-3.30334 Y-2.66512
G01 X-3.30427 Y-2.66492
G01 X-3.30530 Y-2.66468
G01 X-3.30550 Y-2.66463
G01 X-3.30649 Y-2.66440
G01 X-3.30659 Y-2.66438
G01 X-3.30669 Y-2.66436
G01 X-3.30709 Y-2.66427
G01 X-3.30719 Y-2.66424
G01 X-3.30758 Y-2.66415
G01 X-3.30768 Y-2.66412
G01 X-3.30778 Y-2.66410
G01 X-3.30828 Y-2.66398
G01 X-3.30877 Y-2.66386
G01 X-3.30887 Y-2.66384
G01 X-3.30897 Y-2.66381
G01 X-3.30967 Y-2.66364
G01 X-3.30996 Y-2.66357
G01 X-3.31006 Y-2.66355
G01 X-3.31047 Y-2.66344
G01 X-3.31058 Y-2.66342
G01 X-3.31067 Y-2.66339
G01 X-3.31117 Y-2.66327
G01 X-3.31166 Y-2.66314
G01 X-3.31176 Y-2.66312
G01 X-3.31186 Y-2.66309
G01 X-3.31257 Y-2.66291
G01 X-3.31328 Y-2.66273
G01 X-3.31338 Y-2.66270
G01 X-3.31348 Y-2.66267
G01 X-3.31358 Y-2.66265
G01 X-3.31425 Y-2.66247
G01 X-3.31538 Y-2.66217
G01 X-3.31620 Y-2.66194
G01 X-3.31630 Y-2.66192
G01 X-3.31640 Y-2.66189
G01 X-3.31650 Y-2.66186
G01 X-3.31722 Y-2.66166
G01 X-3.31748 Y-2.66159
G01 X-3.31758 Y-2.66156
G01 X-3.31805 Y-2.66143
G01 X-3.31815 Y-2.66140
G01 X-3.31840 Y-2.66133
G01 X-3.31913 Y-2.66113
G01 X-3.31923 Y-2.66110
G01 X-3.31954 Y-2.66101
G01 X-3.32078 Y-2.66065
G01 X-3.32110 Y-2.66056
G01 X-3.32120 Y-2.66052
G01 X-3.32193 Y-2.66031
G01 X-3.32217 Y-2.66024
G01 X-3.32227 Y-2.66021
G01 X-3.32278 Y-2.66005
G01 X-3.32288 Y-2.66003
G01 X-3.32311 Y-2.65996
G01 X-3.32385 Y-2.65973
G01 X-3.32395 Y-2.65970
G01 X-3.32405 Y-2.65967
G01 X-3.32415 Y-2.65964
G01 X-3.32468 Y-2.65948
G01 X-3.32477 Y-2.65945
G01 X-3.32502 Y-2.65937
G01 X-3.32512 Y-2.65934
G01 X-3.32557 Y-2.65920
G01 X-3.52782 Y-2.65920
G01 X-3.58176 Y-2.63686
G01 X-3.58181 Y-2.63685
G01 X-3.58194 Y-2.63685
G01 X-3.58268 Y-2.63680
G01 X-3.58282 Y-2.63679
G01 X-3.58295 Y-2.63678
G01 X-3.58308 Y-2.63677
G01 X-3.58322 Y-2.63677
G01 X-3.58378 Y-2.63673
G01 X-3.58391 Y-2.63672
G01 X-3.58405 Y-2.63671
G01 X-3.58422 Y-2.63670
G01 X-3.58435 Y-2.63669
G01 X-3.58491 Y-2.63665
G01 X-3.58504 Y-2.63664
G01 X-3.58517 Y-2.63663
G01 X-3.58594 Y-2.63658
G01 X-3.58656 Y-2.63653
G01 X-3.58695 Y-2.63650
G01 X-3.58708 Y-2.63649
G01 X-3.58722 Y-2.63648
G01 X-3.58829 Y-2.63639
G01 X-3.58832 Y-2.63639
G01 X-3.58883 Y-2.63635
G01 X-3.58896 Y-2.63634
G01 X-3.58909 Y-2.63632
G01 X-3.58979 Y-2.63626
G01 X-3.58992 Y-2.63625
G01 X-3.59005 Y-2.63624
G01 X-3.59018 Y-2.63623
G01 X-3.59031 Y-2.63622
G01 X-3.59079 Y-2.63617
G01 X-3.59092 Y-2.63616
G01 X-3.59114 Y-2.63614
G01 X-3.59127 Y-2.63613
G01 X-3.59174 Y-2.63608
G01 X-3.59187 Y-2.63607
G01 X-3.59200 Y-2.63606
G01 X-3.59213 Y-2.63605
G01 X-3.59281 Y-2.63598
G01 X-3.59283 Y-2.63598
G01 X-3.59284 Y-2.63598
G01 X-3.59307 Y-2.63595
G01 X-3.59320 Y-2.63594
G01 X-3.59365 Y-2.63590
G01 X-3.59378 Y-2.63588
G01 X-3.59401 Y-2.63586
G01 X-3.59403 Y-2.63585
G01 X-3.59471 Y-2.63578
G01 X-3.59483 Y-2.63577
G01 X-3.59517 Y-2.63573
G01 X-3.59522 Y-2.63573
G01 X-3.59631 Y-2.63561
G01 X-3.59636 Y-2.63560
G01 X-3.59669 Y-2.63557
G01 X-3.59681 Y-2.63555
G01 X-3.59747 Y-2.63547
G01 X-3.59773 Y-2.63544
G01 X-3.59785 Y-2.63543
G01 X-3.59825 Y-2.63538
G01 X-3.59838 Y-2.63537
G01 X-3.59863 Y-2.63533
G01 X-3.59928 Y-2.63525
G01 X-3.59940 Y-2.63524
G01 X-3.59953 Y-2.63522
G01 X-3.59965 Y-2.63521
G01 X-3.60052 Y-2.63510
G01 X-3.60130 Y-2.63499
G01 X-3.60142 Y-2.63498
G01 X-3.60205 Y-2.63489
G01 X-3.60217 Y-2.63488
G01 X-3.60230 Y-2.63486
G01 X-3.60242 Y-2.63484
G01 X-3.60303 Y-2.63476
G01 X-3.60364 Y-2.63467
G01 X-3.60376 Y-2.63465
G01 X-3.60389 Y-2.63463
G01 X-3.60432 Y-2.63457
G01 X-3.60475 Y-2.63451
G01 X-3.60487 Y-2.63449
G01 X-3.60500 Y-2.63447
G01 X-3.60532 Y-2.63442
G01 X-3.60544 Y-2.63441
G01 X-3.60571 Y-2.63436
G01 X-3.60629 Y-2.63428
G01 X-3.60642 Y-2.63426
G01 X-3.60654 Y-2.63424
G01 X-3.60696 Y-2.63417
G01 X-3.60738 Y-2.63410
G01 X-3.60750 Y-2.63408
G01 X-3.60763 Y-2.63407
G01 X-3.60792 Y-2.63402
G01 X-3.60805 Y-2.63400
G01 X-3.60834 Y-2.63395
G01 X-3.60847 Y-2.63393
G01 X-3.60858 Y-2.63391
G01 X-3.60941 Y-2.63377
G01 X-3.60966 Y-2.63373
G01 X-3.61053 Y-2.63358
G01 X-3.61128 Y-2.63345
G01 X-3.61140 Y-2.63343
G01 X-3.61152 Y-2.63341
G01 X-3.61164 Y-2.63338
G01 X-3.61220 Y-2.63328
G01 X-3.61309 Y-2.63312
G01 X-3.61333 Y-2.63307
G01 X-3.61413 Y-2.63292
G01 X-3.61421 Y-2.63291
G01 X-3.61476 Y-2.63280
G01 X-3.61488 Y-2.63278
G01 X-3.61500 Y-2.63276
G01 X-3.61551 Y-2.63266
G01 X-3.61578 Y-2.63260
G01 X-3.61590 Y-2.63258
G01 X-3.61612 Y-2.63253
G01 X-3.61614 Y-2.63253
G01 X-3.61636 Y-2.63248
G01 X-3.61648 Y-2.63246
G01 X-3.61702 Y-2.63235
G01 X-3.61713 Y-2.63233
G01 X-3.61725 Y-2.63230
G01 X-3.61737 Y-2.63228
G01 X-3.61749 Y-2.63225
G01 X-3.61802 Y-2.63214
G01 X-3.61814 Y-2.63212
G01 X-3.61825 Y-2.63209
G01 X-3.61837 Y-2.63207
G01 X-3.61857 Y-2.63203
G01 X-3.61869 Y-2.63200
G01 X-3.61902 Y-2.63193
G01 X-3.61913 Y-2.63191
G01 X-3.61933 Y-2.63186
G01 X-3.61944 Y-2.63184
G01 X-3.61946 Y-2.63184
G01 X-3.61948 Y-2.63183
G01 X-3.61968 Y-2.63179
G01 X-3.61979 Y-2.63176
G01 X-3.62031 Y-2.63165
G01 X-3.62043 Y-2.63162
G01 X-3.62054 Y-2.63160
G01 X-3.62073 Y-2.63156
G01 X-3.62084 Y-2.63153
G01 X-3.62117 Y-2.63146
G01 X-3.62129 Y-2.63143
G01 X-3.62140 Y-2.63140
G01 X-3.62152 Y-2.63138
G01 X-3.62169 Y-2.63134
G01 X-3.62181 Y-2.63131
G01 X-3.62193 Y-2.63128
G01 X-3.62226 Y-2.63121
G01 X-3.62237 Y-2.63118
G01 X-3.62254 Y-2.63114
G01 X-3.62266 Y-2.63111
G01 X-3.62277 Y-2.63109
G01 X-3.62289 Y-2.63106
G01 X-3.62339 Y-2.63094
G01 X-3.62350 Y-2.63091
G01 X-3.62361 Y-2.63089
G01 X-3.62373 Y-2.63086
G01 X-3.62384 Y-2.63083
G01 X-3.62434 Y-2.63071
G01 X-3.62445 Y-2.63069
G01 X-3.62460 Y-2.63065
G01 X-3.62464 Y-2.63064
G01 X-3.62468 Y-2.63063
G01 X-3.62483 Y-2.63059
G01 X-3.62494 Y-2.63056
G01 X-3.62528 Y-2.63048
G01 X-3.62539 Y-2.63045
G01 X-3.62554 Y-2.63042
G01 X-3.62566 Y-2.63039
G01 X-3.62569 Y-2.63038
G01 X-3.62573 Y-2.63037
G01 X-3.62588 Y-2.63033
G01 X-3.62599 Y-2.63030
G01 X-3.62647 Y-2.63018
G01 X-3.62658 Y-2.63015
G01 X-3.62670 Y-2.63012
G01 X-3.62712 Y-2.63002
G01 X-3.62740 Y-2.62994
G01 X-3.62751 Y-2.62991
G01 X-3.62762 Y-2.62988
G01 X-3.62773 Y-2.62985
G01 X-3.62814 Y-2.62975
G01 X-3.62855 Y-2.62964
G01 X-3.62866 Y-2.62961
G01 X-3.62894 Y-2.62953
G01 X-3.62935 Y-2.62942
G01 X-3.62946 Y-2.62939
G01 X-3.62957 Y-2.62936
G01 X-3.62968 Y-2.62933
G01 X-3.62979 Y-2.62930
G01 X-3.63025 Y-2.62918
G01 X-3.63036 Y-2.62914
G01 X-3.63047 Y-2.62911
G01 X-3.63058 Y-2.62908
G01 X-3.63097 Y-2.62897
G01 X-3.63125 Y-2.62889
G01 X-3.63136 Y-2.62886
G01 X-3.63175 Y-2.62875
G01 X-3.63203 Y-2.62867
G01 X-3.63214 Y-2.62864
G01 X-3.63224 Y-2.62861
G01 X-3.63230 Y-2.62859
G01 X-3.63236 Y-2.62858
G01 X-3.63246 Y-2.62855
G01 X-3.63257 Y-2.62852
G01 X-3.63300 Y-2.62839
G01 X-3.63306 Y-2.62837
G01 X-3.63313 Y-2.62835
G01 X-3.63322 Y-2.62832
G01 X-3.63333 Y-2.62829
G01 X-3.63366 Y-2.62819
G01 X-3.63398 Y-2.62810
G01 X-3.63409 Y-2.62807
G01 X-3.63420 Y-2.62803
G01 X-3.63452 Y-2.62793
G01 X-3.63492 Y-2.62781
G01 X-3.63503 Y-2.62778
G01 X-3.63527 Y-2.62771
G01 X-3.63559 Y-2.62761
G01 X-3.63570 Y-2.62757
G01 X-3.63577 Y-2.62755
G01 X-3.63584 Y-2.62753
G01 X-3.63591 Y-2.62751
G01 X-3.63599 Y-2.62748
G01 X-3.63610 Y-2.62745
G01 X-3.63644 Y-2.62734
G01 X-3.63654 Y-2.62731
G01 X-3.63662 Y-2.62729
G01 X-3.63669 Y-2.62726
G01 X-3.63676 Y-2.62724
G01 X-3.63683 Y-2.62722
G01 X-3.63694 Y-2.62718
G01 X-3.63735 Y-2.62705
G01 X-3.63742 Y-2.62703
G01 X-3.63749 Y-2.62700
G01 X-3.63756 Y-2.62698
G01 X-3.63767 Y-2.62695
G01 X-3.63798 Y-2.62685
G01 X-3.63829 Y-2.62675
G01 X-3.63836 Y-2.62672
G01 X-3.63844 Y-2.62670
G01 X-3.63881 Y-2.62657
G01 X-3.63911 Y-2.62647
G01 X-3.63922 Y-2.62644
G01 X-3.63955 Y-2.62633
G01 X-3.63982 Y-2.62623
G01 X-3.63993 Y-2.62620
G01 X-3.64004 Y-2.62616
G01 X-3.64014 Y-2.62613
G01 X-3.64025 Y-2.62609
G01 X-3.64068 Y-2.62594
G01 X-3.64077 Y-2.62591
G01 X-3.64085 Y-2.62588
G01 X-3.64095 Y-2.62585
G01 X-3.64127 Y-2.62574
G01 X-3.64155 Y-2.62564
G01 X-3.64165 Y-2.62560
G01 X-3.64197 Y-2.62549
G01 X-3.64228 Y-2.62538
G01 X-3.64237 Y-2.62535
G01 X-3.64245 Y-2.62532
G01 X-3.64249 Y-2.62531
G01 X-3.64257 Y-2.62528
G01 X-3.64266 Y-2.62525
G01 X-3.64307 Y-2.62510
G01 X-3.64317 Y-2.62506
G01 X-3.64326 Y-2.62503
G01 X-3.64335 Y-2.62500
G01 X-3.64375 Y-2.62485
G01 X-3.64384 Y-2.62482
G01 X-3.64393 Y-2.62479
G01 X-3.64396 Y-2.62478
G01 X-3.64406 Y-2.62474
G01 X-3.64416 Y-2.62470
G01 X-3.64427 Y-2.62466
G01 X-3.64461 Y-2.62453
G01 X-3.64471 Y-2.62450
G01 X-3.64473 Y-2.62449
G01 X-3.64484 Y-2.62445
G01 X-3.64494 Y-2.62441
G01 X-3.64530 Y-2.62427
G01 X-3.64540 Y-2.62424
G01 X-3.64549 Y-2.62420
G01 X-3.64559 Y-2.62417
G01 X-3.64561 Y-2.62416
G01 X-3.64571 Y-2.62412
G01 X-3.64599 Y-2.62401
G01 X-3.64627 Y-2.62391
G01 X-3.64637 Y-2.62387
G01 X-3.64665 Y-2.62376
G01 X-3.64693 Y-2.62365
G01 X-3.64703 Y-2.62361
G01 X-3.64713 Y-2.62357
G01 X-3.64723 Y-2.62353
G01 X-3.64758 Y-2.62339
G01 X-3.64767 Y-2.62336
G01 X-3.64777 Y-2.62332
G01 X-3.64778 Y-2.62331
G01 X-3.64788 Y-2.62328
G01 X-3.64798 Y-2.62324
G01 X-3.64832 Y-2.62310
G01 X-3.64842 Y-2.62306
G01 X-3.64852 Y-2.62302
G01 X-3.64863 Y-2.62298
G01 X-3.64873 Y-2.62294
G01 X-3.64906 Y-2.62280
G01 X-3.64916 Y-2.62276
G01 X-3.64927 Y-2.62272
G01 X-3.64936 Y-2.62268
G01 X-3.64947 Y-2.62263
G01 X-3.64973 Y-2.62252
G01 X-3.65026 Y-2.62230
G01 X-3.65053 Y-2.62220
G01 X-3.65063 Y-2.62215
G01 X-3.65073 Y-2.62211
G01 X-3.65083 Y-2.62207
G01 X-3.65093 Y-2.62203
G01 X-3.65125 Y-2.62189
G01 X-3.65135 Y-2.62185
G01 X-3.65145 Y-2.62181
G01 X-3.65155 Y-2.62176
G01 X-3.65165 Y-2.62172
G01 X-3.65197 Y-2.62158
G01 X-3.65207 Y-2.62154
G01 X-3.65217 Y-2.62150
G01 X-3.65227 Y-2.62146
G01 X-3.65236 Y-2.62141
G01 X-3.65268 Y-2.62128
G01 X-3.65278 Y-2.62123
G01 X-3.65287 Y-2.62119
G01 X-3.65297 Y-2.62115
G01 X-3.65323 Y-2.62104
G01 X-3.65348 Y-2.62092
G01 X-3.65358 Y-2.62088
G01 X-3.65383 Y-2.62077
G01 X-3.65408 Y-2.62066
G01 X-3.65418 Y-2.62061
G01 X-3.65420 Y-2.62060
G01 X-3.65428 Y-2.62056
G01 X-3.65437 Y-2.62052
G01 X-3.65447 Y-2.62048
G01 X-3.65477 Y-2.62034
G01 X-3.65487 Y-2.62030
G01 X-3.65497 Y-2.62025
G01 X-3.65499 Y-2.62025
G01 X-3.65509 Y-2.62020
G01 X-3.65536 Y-2.62007
G01 X-3.65546 Y-2.62003
G01 X-3.65556 Y-2.61998
G01 X-3.65565 Y-2.61994
G01 X-3.65568 Y-2.61993
G01 X-3.65576 Y-2.61989
G01 X-3.65585 Y-2.61985
G01 X-3.65617 Y-2.61970
G01 X-3.65625 Y-2.61966
G01 X-3.65633 Y-2.61962
G01 X-3.65643 Y-2.61958
G01 X-3.65675 Y-2.61943
G01 X-3.65683 Y-2.61939
G01 X-3.65691 Y-2.61935
G01 X-3.65694 Y-2.61934
G01 X-3.65702 Y-2.61930
G01 X-3.65711 Y-2.61926
G01 X-3.65736 Y-2.61914
G01 X-3.65761 Y-2.61902
G01 X-3.65771 Y-2.61897
G01 X-3.65793 Y-2.61886
G01 X-3.65819 Y-2.61874
G01 X-3.65828 Y-2.61869
G01 X-3.65836 Y-2.61866
G01 X-3.65844 Y-2.61862
G01 X-3.65875 Y-2.61846
G01 X-3.65884 Y-2.61842
G01 X-3.65894 Y-2.61837
G01 X-3.65903 Y-2.61832
G01 X-3.65913 Y-2.61828
G01 X-3.65934 Y-2.61817
G01 X-3.65959 Y-2.61805
G01 X-3.65969 Y-2.61800
G01 X-3.65992 Y-2.61788
G01 X-3.66019 Y-2.61775
G01 X-3.66026 Y-2.61771
G01 X-3.66034 Y-2.61767
G01 X-3.66057 Y-2.61756
G01 X-3.66079 Y-2.61744
G01 X-3.66089 Y-2.61739
G01 X-3.66093 Y-2.61737
G01 X-3.66100 Y-2.61734
G01 X-3.66107 Y-2.61730
G01 X-3.66134 Y-2.61716
G01 X-3.66143 Y-2.61711
G01 X-3.66148 Y-2.61709
G01 X-3.66155 Y-2.61705
G01 X-3.66162 Y-2.61702
G01 X-3.66166 Y-2.61699
G01 X-3.66176 Y-2.61694
G01 X-3.66197 Y-2.61683
G01 X-3.66207 Y-2.61678
G01 X-3.66211 Y-2.61676
G01 X-3.66218 Y-2.61672
G01 X-3.66225 Y-2.61669
G01 X-3.66230 Y-2.61666
G01 X-3.66239 Y-2.61661
G01 X-3.66261 Y-2.61650
G01 X-3.66278 Y-2.61640
G01 X-3.66288 Y-2.61636
G01 X-3.66315 Y-2.61621
G01 X-3.66337 Y-2.61610
G01 X-3.66346 Y-2.61605
G01 X-3.66355 Y-2.61600
G01 X-3.66377 Y-2.61588
G01 X-3.66398 Y-2.61576
G01 X-3.66408 Y-2.61571
G01 X-3.66413 Y-2.61568
G01 X-3.66419 Y-2.61565
G01 X-3.66426 Y-2.61561
G01 X-3.66451 Y-2.61548
G01 X-3.66460 Y-2.61543
G01 X-3.66465 Y-2.61540
G01 X-3.66472 Y-2.61536
G01 X-3.66478 Y-2.61533
G01 X-3.66484 Y-2.61530
G01 X-3.66493 Y-2.61524
G01 X-3.66511 Y-2.61514
G01 X-3.66535 Y-2.61501
G01 X-3.66544 Y-2.61496
G01 X-3.66562 Y-2.61486
G01 X-3.66587 Y-2.61472
G01 X-3.66596 Y-2.61467
G01 X-3.66605 Y-2.61462
G01 X-3.66614 Y-2.61457
G01 X-3.66637 Y-2.61443
G01 X-3.66646 Y-2.61438
G01 X-3.66655 Y-2.61433
G01 X-3.66664 Y-2.61428
G01 X-3.66674 Y-2.61423
G01 X-3.66697 Y-2.61409
G01 X-3.66715 Y-2.61399
G01 X-3.66724 Y-2.61394
G01 X-3.66747 Y-2.61380
G01 X-3.66771 Y-2.61366
G01 X-3.66780 Y-2.61361
G01 X-3.66789 Y-2.61356
G01 X-3.66798 Y-2.61351
G01 X-3.66814 Y-2.61341
G01 X-3.66815 Y-2.61341
G01 X-3.66838 Y-2.61327
G01 X-3.66847 Y-2.61321
G01 X-3.66856 Y-2.61316
G01 X-3.66879 Y-2.61303
G01 X-3.66887 Y-2.61298
G01 X-3.66894 Y-2.61293
G01 X-3.66900 Y-2.61290
G01 X-3.66905 Y-2.61287
G01 X-3.66914 Y-2.61282
G01 X-3.66921 Y-2.61278
G01 X-3.66930 Y-2.61272
G01 X-3.66945 Y-2.61263
G01 X-3.66954 Y-2.61258
G01 X-3.66961 Y-2.61253
G01 X-3.66966 Y-2.61250
G01 X-3.66971 Y-2.61247
G01 X-3.66978 Y-2.61243
G01 X-3.66987 Y-2.61238
G01 X-3.67009 Y-2.61224
G01 X-3.67018 Y-2.61219
G01 X-3.67026 Y-2.61213
G01 X-3.67035 Y-2.61208
G01 X-3.67044 Y-2.61203
G01 X-3.67065 Y-2.61189
G01 X-3.67074 Y-2.61184
G01 X-3.67083 Y-2.61178
G01 X-3.67092 Y-2.61173
G01 X-3.67099 Y-2.61169
G01 X-3.67108 Y-2.61163
G01 X-3.67122 Y-2.61155
G01 X-3.67130 Y-2.61149
G01 X-3.67139 Y-2.61144
G01 X-3.67146 Y-2.61139
G01 X-3.67155 Y-2.61133
G01 X-3.67164 Y-2.61128
G01 X-3.67172 Y-2.61123
G01 X-3.67186 Y-2.61114
G01 X-3.67195 Y-2.61109
G01 X-3.67202 Y-2.61104
G01 X-3.67211 Y-2.61098
G01 X-3.67219 Y-2.61093
G01 X-3.67240 Y-2.61080
G01 X-3.67248 Y-2.61074
G01 X-3.67256 Y-2.61069
G01 X-3.67261 Y-2.61066
G01 X-3.67266 Y-2.61063
G01 X-3.67274 Y-2.61058
G01 X-3.67282 Y-2.61053
G01 X-3.67291 Y-2.61047
G01 X-3.67303 Y-2.61039
G01 X-3.67312 Y-2.61033
G01 X-3.67320 Y-2.61028
G01 X-3.67328 Y-2.61023
G01 X-3.67337 Y-2.61017
G01 X-3.67345 Y-2.61012
G01 X-3.67365 Y-2.60998
G01 X-3.67374 Y-2.60993
G01 X-3.67382 Y-2.60987
G01 X-3.67391 Y-2.60982
G01 X-3.67399 Y-2.60976
G01 X-3.67419 Y-2.60963
G01 X-3.67428 Y-2.60957
G01 X-3.67436 Y-2.60952
G01 X-3.67440 Y-2.60949
G01 X-3.67444 Y-2.60946
G01 X-3.67453 Y-2.60941
G01 X-3.67461 Y-2.60935
G01 X-3.67472 Y-2.60927
G01 X-3.67475 Y-2.60926
G01 X-3.67478 Y-2.60924
G01 X-3.67497 Y-2.60911
G01 X-3.67506 Y-2.60905
G01 X-3.67514 Y-2.60899
G01 X-3.67534 Y-2.60886
G01 X-3.67542 Y-2.60880
G01 X-3.67545 Y-2.60879
G01 X-3.67548 Y-2.60877
G01 X-3.67577 Y-2.60856
G01 X-3.67581 Y-2.60854
G01 X-3.67584 Y-2.60852
G01 X-3.67594 Y-2.60845
G01 X-3.67598 Y-2.60842
G01 X-3.67601 Y-2.60840
G01 X-3.67637 Y-2.60815
G01 X-3.67645 Y-2.60810
G01 X-3.67663 Y-2.60797
G01 X-3.67672 Y-2.60791
G01 X-3.67680 Y-2.60785
G01 X-3.67688 Y-2.60780
G01 X-3.67715 Y-2.60761
G01 X-3.67719 Y-2.60758
G01 X-3.67722 Y-2.60756
G01 X-3.67757 Y-2.60731
G01 X-3.67774 Y-2.60719
G01 X-3.67808 Y-2.60695
G01 X-3.67816 Y-2.60689
G01 X-3.67825 Y-2.60683
G01 X-3.67834 Y-2.60677
G01 X-3.67842 Y-2.60671
G01 X-3.67851 Y-2.60664
G01 X-3.67859 Y-2.60658
G01 X-3.67867 Y-2.60652
G01 X-3.67884 Y-2.60640
G01 X-3.67901 Y-2.60628
G01 X-3.67909 Y-2.60622
G01 X-3.67917 Y-2.60616
G01 X-3.67935 Y-2.60603
G01 X-3.67939 Y-2.60600
G01 X-3.67943 Y-2.60597
G01 X-3.67951 Y-2.60591
G01 X-3.67959 Y-2.60585
G01 X-3.67968 Y-2.60578
G01 X-3.67976 Y-2.60572
G01 X-3.67984 Y-2.60566
G01 X-3.68001 Y-2.60554
G01 X-3.68017 Y-2.60542
G01 X-3.68025 Y-2.60535
G01 X-3.68034 Y-2.60529
G01 X-3.68055 Y-2.60514
G01 X-3.68076 Y-2.60498
G01 X-3.68084 Y-2.60492
G01 X-3.68092 Y-2.60486
G01 X-3.68100 Y-2.60480
G01 X-3.68116 Y-2.60467
G01 X-3.68124 Y-2.60461
G01 X-3.68164 Y-2.60430
G01 X-3.68190 Y-2.60410
G01 X-3.68198 Y-2.60404
G01 X-3.68206 Y-2.60398
G01 X-3.68214 Y-2.60392
G01 X-3.68230 Y-2.60379
G01 X-3.68235 Y-2.60376
G01 X-3.68239 Y-2.60372
G01 X-3.68246 Y-2.60367
G01 X-3.68254 Y-2.60361
G01 X-3.68263 Y-2.60353
G01 X-3.68271 Y-2.60347
G01 X-3.68282 Y-2.60338
G01 X-3.68303 Y-2.60322
G01 X-3.68310 Y-2.60316
G01 X-3.68320 Y-2.60308
G01 X-3.68323 Y-2.60306
G01 X-3.68326 Y-2.60303
G01 X-3.68334 Y-2.60297
G01 X-3.68359 Y-2.60277
G01 X-3.68367 Y-2.60271
G01 X-3.68370 Y-2.60268
G01 X-3.68373 Y-2.60266
G01 X-3.68383 Y-2.60258
G01 X-3.68391 Y-2.60252
G01 X-3.68406 Y-2.60239
G01 X-3.68411 Y-2.60235
G01 X-3.68416 Y-2.60231
G01 X-3.68421 Y-2.60227
G01 X-3.68429 Y-2.60220
G01 X-3.68439 Y-2.60212
G01 X-3.68447 Y-2.60206
G01 X-3.68452 Y-2.60202
G01 X-3.68457 Y-2.60197
G01 X-3.68462 Y-2.60193
G01 X-3.68477 Y-2.60181
G01 X-3.68485 Y-2.60175
G01 X-3.68493 Y-2.60168
G01 X-3.68500 Y-2.60162
G01 X-3.68511 Y-2.60154
G01 X-3.68518 Y-2.60147
G01 X-3.68523 Y-2.60143
G01 X-3.68531 Y-2.60137
G01 X-3.68541 Y-2.60128
G01 X-3.68548 Y-2.60122
G01 X-3.68556 Y-2.60116
G01 X-3.68564 Y-2.60109
G01 X-3.68571 Y-2.60103
G01 X-3.68586 Y-2.60091
G01 X-3.68594 Y-2.60084
G01 X-3.68601 Y-2.60078
G01 X-3.68611 Y-2.60069
G01 X-3.68619 Y-2.60062
G01 X-3.68622 Y-2.60060
G01 X-3.68624 Y-2.60058
G01 X-3.68648 Y-2.60038
G01 X-3.68656 Y-2.60031
G01 X-3.68664 Y-2.60025
G01 X-3.68674 Y-2.60016
G01 X-3.68676 Y-2.60013
G01 X-3.68679 Y-2.60011
G01 X-3.68699 Y-2.59994
G01 X-3.68718 Y-2.59978
G01 X-3.68726 Y-2.59971
G01 X-3.68734 Y-2.59964
G01 X-3.68744 Y-2.59955
G01 X-3.68751 Y-2.59949
G01 X-3.68755 Y-2.59946
G01 X-3.68762 Y-2.59939
G01 X-3.68770 Y-2.59933
G01 X-3.68780 Y-2.59924
G01 X-3.68788 Y-2.59917
G01 X-3.68795 Y-2.59910
G01 X-3.68803 Y-2.59904
G01 X-3.68809 Y-2.59899
G01 X-3.68810 Y-2.59897
G01 X-3.68824 Y-2.59885
G01 X-3.68831 Y-2.59879
G01 X-3.68842 Y-2.59869
G01 X-3.68844 Y-2.59867
G01 X-3.68846 Y-2.59865
G01 X-3.68857 Y-2.59856
G01 X-3.68865 Y-2.59850
G01 X-3.68878 Y-2.59838
G01 X-3.68886 Y-2.59832
G01 X-3.68887 Y-2.59831
G01 X-3.68887 Y-2.59830
G01 X-3.68912 Y-2.59809
G01 X-3.68919 Y-2.59803
G01 X-3.68922 Y-2.59801
G01 X-3.68928 Y-2.59795
G01 X-3.68935 Y-2.59790
G01 X-3.68948 Y-2.59779
G01 X-3.68956 Y-2.59772
G01 X-3.68963 Y-2.59766
G01 X-3.68971 Y-2.59759
G01 X-3.68978 Y-2.59754
G01 X-3.68999 Y-2.59736
G01 X-3.69019 Y-2.59720
G01 X-3.69026 Y-2.59714
G01 X-3.69034 Y-2.59707
G01 X-3.69045 Y-2.59698
G01 X-3.69053 Y-2.59691
G01 X-3.69055 Y-2.59690
G01 X-3.69056 Y-2.59689
G01 X-3.69057 Y-2.59688
G01 X-3.69081 Y-2.59667
G01 X-3.69089 Y-2.59661
G01 X-3.69097 Y-2.59654
G01 X-3.69104 Y-2.59648
G01 X-3.69117 Y-2.59637
G01 X-3.69118 Y-2.59636
G01 X-3.69120 Y-2.59635
G01 X-3.69144 Y-2.59614
G01 X-3.69151 Y-2.59607
G01 X-3.69159 Y-2.59601
G01 X-3.69167 Y-2.59594
G01 X-3.69174 Y-2.59588
G01 X-3.69187 Y-2.59577
G01 X-3.69194 Y-2.59570
G01 X-3.69202 Y-2.59564
G01 X-3.69208 Y-2.59558
G01 X-3.69210 Y-2.59557
G01 X-3.69222 Y-2.59546
G01 X-3.69229 Y-2.59540
G01 X-3.69236 Y-2.59534
G01 X-3.69244 Y-2.59527
G01 X-3.69268 Y-2.59506
G01 X-3.69270 Y-2.59505
G01 X-3.69272 Y-2.59504
G01 X-3.69284 Y-2.59493
G01 X-3.69285 Y-2.59492
G01 X-3.69287 Y-2.59491
G01 X-3.69299 Y-2.59481
G01 X-3.69307 Y-2.59474
G01 X-3.69319 Y-2.59463
G01 X-3.69327 Y-2.59457
G01 X-3.69334 Y-2.59451
G01 X-3.69342 Y-2.59444
G01 X-3.69355 Y-2.59434
G01 X-3.69362 Y-2.59428
G01 X-3.69375 Y-2.59417
G01 X-3.69376 Y-2.59416
G01 X-3.69378 Y-2.59415
G01 X-3.69390 Y-2.59405
G01 X-3.69398 Y-2.59398
G01 X-3.69406 Y-2.59392
G01 X-3.69419 Y-2.59382
G01 X-3.69420 Y-2.59381
G01 X-3.69422 Y-2.59379
G01 X-3.69435 Y-2.59369
G01 X-3.69442 Y-2.59363
G01 X-3.69455 Y-2.59353
G01 X-3.69463 Y-2.59346
G01 X-3.69471 Y-2.59340
G01 X-3.69479 Y-2.59334
G01 X-3.69492 Y-2.59324
G01 X-3.69500 Y-2.59317
G01 X-3.69512 Y-2.59307
G01 X-3.69514 Y-2.59306
G01 X-3.69516 Y-2.59305
G01 X-3.69528 Y-2.59295
G01 X-3.69530 Y-2.59294
G01 X-3.69532 Y-2.59293
G01 X-3.69558 Y-2.59272
G01 X-3.69566 Y-2.59266
G01 X-3.69573 Y-2.59260
G01 X-3.69581 Y-2.59254
G01 X-3.69596 Y-2.59243
G01 X-3.69603 Y-2.59237
G01 X-3.69611 Y-2.59232
G01 X-3.69619 Y-2.59225
G01 X-3.69632 Y-2.59215
G01 X-3.69640 Y-2.59208
G01 X-3.69649 Y-2.59202
G01 X-3.69656 Y-2.59196
G01 X-3.69664 Y-2.59190
G01 X-3.69691 Y-2.59169
G01 X-3.69692 Y-2.59168
G01 X-3.69693 Y-2.59167
G01 X-3.69707 Y-2.59156
G01 X-3.69715 Y-2.59150
G01 X-3.69723 Y-2.59144
G01 X-3.69731 Y-2.59137
G01 X-3.69757 Y-2.59116
G01 X-3.69758 Y-2.59116
G01 X-3.69759 Y-2.59115
G01 X-3.69761 Y-2.59113
G01 X-3.69769 Y-2.59107
G01 X-3.69781 Y-2.59097
G01 X-3.69789 Y-2.59091
G01 X-3.69797 Y-2.59084
G01 X-3.69801 Y-2.59081
G01 X-3.69818 Y-2.59068
G01 X-3.69839 Y-2.59050
G01 X-3.69847 Y-2.59044
G01 X-3.69855 Y-2.59038
G01 X-3.69863 Y-2.59031
G01 X-3.69871 Y-2.59025
G01 X-3.69886 Y-2.59013
G01 X-3.69893 Y-2.59008
G01 X-3.69900 Y-2.59003
G01 X-3.69902 Y-2.59001
G01 X-3.69910 Y-2.58995
G01 X-3.69938 Y-2.58973
G01 X-3.69939 Y-2.58972
G01 X-3.69947 Y-2.58966
G01 X-3.69963 Y-2.58954
G01 X-3.69971 Y-2.58948
G01 X-3.69983 Y-2.58939
G01 X-3.69985 Y-2.58937
G01 X-3.69987 Y-2.58936
G01 X-3.69999 Y-2.58926
G01 X-3.70008 Y-2.58920
G01 X-3.70024 Y-2.58908
G01 X-3.70032 Y-2.58902
G01 X-3.70040 Y-2.58896
G01 X-3.70049 Y-2.58889
G01 X-3.70057 Y-2.58883
G01 X-3.70069 Y-2.58874
G01 X-3.70078 Y-2.58868
G01 X-3.70086 Y-2.58862
G01 X-3.70090 Y-2.58859
G01 X-3.70098 Y-2.58853
G01 X-3.70111 Y-2.58844
G01 X-3.70119 Y-2.58837
G01 X-3.70128 Y-2.58831
G01 X-3.70151 Y-2.58814
G01 X-3.70174 Y-2.58798
G01 X-3.70177 Y-2.58796
G01 X-3.70179 Y-2.58794
G01 X-3.70192 Y-2.58785
G01 X-3.70194 Y-2.58784
G01 X-3.70200 Y-2.58779
G01 X-3.70209 Y-2.58773
G01 X-3.70239 Y-2.58752
G01 X-3.70241 Y-2.58750
G01 X-3.70243 Y-2.58749
G01 X-3.70252 Y-2.58742
G01 X-3.70264 Y-2.58733
G01 X-3.70273 Y-2.58727
G01 X-3.70282 Y-2.58721
G01 X-3.70299 Y-2.58708
G01 X-3.70308 Y-2.58702
G01 X-3.70316 Y-2.58696
G01 X-3.70325 Y-2.58690
G01 X-3.70334 Y-2.58683
G01 X-3.70346 Y-2.58674
G01 X-3.70355 Y-2.58668
G01 X-3.70360 Y-2.58664
G01 X-3.70369 Y-2.58657
G01 X-3.70381 Y-2.58649
G01 X-3.70390 Y-2.58642
G01 X-3.70398 Y-2.58636
G01 X-3.70407 Y-2.58629
G01 X-3.70425 Y-2.58616
G01 X-3.70430 Y-2.58612
G01 X-3.70436 Y-2.58608
G01 X-3.70442 Y-2.58603
G01 X-3.70451 Y-2.58597
G01 X-3.70454 Y-2.58595
G01 X-3.70463 Y-2.58588
G01 X-3.70471 Y-2.58581
G01 X-3.70478 Y-2.58577
G01 X-3.70483 Y-2.58573
G01 X-3.70488 Y-2.58569
G01 X-3.70507 Y-2.58555
G01 X-3.70516 Y-2.58548
G01 X-3.70528 Y-2.58540
G01 X-3.70531 Y-2.58538
G01 X-3.70533 Y-2.58536
G01 X-3.70542 Y-2.58529
G01 X-3.70574 Y-2.58507
G01 X-3.70582 Y-2.58500
G01 X-3.70585 Y-2.58498
G01 X-3.70587 Y-2.58496
G01 X-3.70600 Y-2.58488
G01 X-3.70609 Y-2.58481
G01 X-3.70634 Y-2.58463
G01 X-3.70647 Y-2.58454
G01 X-3.70655 Y-2.58448
G01 X-3.70668 Y-2.58439
G01 X-3.70677 Y-2.58433
G01 X-3.70685 Y-2.58427
G01 X-3.70690 Y-2.58424
G01 X-3.70695 Y-2.58420
G01 X-3.70716 Y-2.58406
G01 X-3.70725 Y-2.58400
G01 X-3.70734 Y-2.58393
G01 X-3.70743 Y-2.58387
G01 X-3.70775 Y-2.58365
G01 X-3.70825 Y-2.58331
G01 X-3.70832 Y-2.58326
G01 X-3.70854 Y-2.58311
G01 X-3.70864 Y-2.58305
G01 X-3.70873 Y-2.58299
G01 X-3.70882 Y-2.58292
G01 X-3.70910 Y-2.58274
G01 X-3.70931 Y-2.58260
G01 X-3.70937 Y-2.58256
G01 X-3.70947 Y-2.58250
G01 X-3.70956 Y-2.58243
G01 X-3.70977 Y-2.58229
G01 X-3.70999 Y-2.58215
G01 X-3.71008 Y-2.58209
G01 X-3.71018 Y-2.58203
G01 X-3.71030 Y-2.58194
G01 X-3.71040 Y-2.58188
G01 X-3.71051 Y-2.58180
G01 X-3.71055 Y-2.58177
G01 X-3.71059 Y-2.58175
G01 X-3.71083 Y-2.58159
G01 X-3.71092 Y-2.58152
G01 X-3.71102 Y-2.58146
G01 X-3.71123 Y-2.58131
G01 X-3.71145 Y-2.58116
G01 X-3.71155 Y-2.58110
G01 X-3.71164 Y-2.58103
G01 X-3.71177 Y-2.58095
G01 X-3.71186 Y-2.58088
G01 X-3.71199 Y-2.58080
G01 X-3.71208 Y-2.58073
G01 X-3.71217 Y-2.58067
G01 X-3.71262 Y-2.58036
G01 X-3.71281 Y-2.58023
G01 X-3.71330 Y-2.57990
G01 X-3.71332 Y-2.57988
G01 X-3.71372 Y-2.57961
G01 X-3.71382 Y-2.57955
G01 X-3.71391 Y-2.57948
G01 X-3.71401 Y-2.57942
G01 X-3.71429 Y-2.57923
G01 X-3.71435 Y-2.57919
G01 X-3.71462 Y-2.57902
G01 X-3.71467 Y-2.57876
G01 X-3.71468 Y-2.57874
G01 X-3.71468 Y-2.57872
G01 X-3.71471 Y-2.57856
G01 X-3.71472 Y-2.57854
G01 X-3.71472 Y-2.57852
G01 X-3.71482 Y-2.57807
G01 X-3.71482 Y-2.57805
G01 X-3.71482 Y-2.57803
G01 X-3.71484 Y-2.57794
G01 X-3.71490 Y-2.57765
G01 X-3.71492 Y-2.57755
G01 X-3.71494 Y-2.57745
G01 X-3.71500 Y-2.57716
G01 X-3.71500 Y-2.57714
G01 X-3.71501 Y-2.57713
G01 X-3.71504 Y-2.57696
G01 X-3.71506 Y-2.57686
G01 X-3.71508 Y-2.57674
G01 X-3.71509 Y-2.57670
G01 X-3.71510 Y-2.57666
G01 X-3.71512 Y-2.57654
G01 X-3.71514 Y-2.57644
G01 X-3.71520 Y-2.57616
G01 X-3.71522 Y-2.57606
G01 X-3.71524 Y-2.57596
G01 X-3.71526 Y-2.57586
G01 X-3.71528 Y-2.57576
G01 X-3.71533 Y-2.57547
G01 X-3.71535 Y-2.57537
G01 X-3.71537 Y-2.57527
G01 X-3.71538 Y-2.57517
G01 X-3.71541 Y-2.57506
G01 X-3.71543 Y-2.57496
G01 X-3.71546 Y-2.57478
G01 X-3.71548 Y-2.57468
G01 X-3.71550 Y-2.57457
G01 X-3.71551 Y-2.57447
G01 X-3.71552 Y-2.57443
G01 X-3.71553 Y-2.57438
G01 X-3.71555 Y-2.57428
G01 X-3.71557 Y-2.57417
G01 X-3.71562 Y-2.57389
G01 X-3.71563 Y-2.57379
G01 X-3.71565 Y-2.57369
G01 X-3.71567 Y-2.57359
G01 X-3.71569 Y-2.57348
G01 X-3.71572 Y-2.57330
G01 X-3.71574 Y-2.57320
G01 X-3.71575 Y-2.57310
G01 X-3.71577 Y-2.57300
G01 X-3.71579 Y-2.57290
G01 X-3.71581 Y-2.57280
G01 X-3.71582 Y-2.57270
G01 X-3.71585 Y-2.57251
G01 X-3.71587 Y-2.57241
G01 X-3.71589 Y-2.57232
G01 X-3.71590 Y-2.57222
G01 X-3.71592 Y-2.57212
G01 X-3.71593 Y-2.57202
G01 X-3.71598 Y-2.57173
G01 X-3.71600 Y-2.57163
G01 X-3.71601 Y-2.57153
G01 X-3.71603 Y-2.57143
G01 X-3.71604 Y-2.57133
G01 X-3.71609 Y-2.57104
G01 X-3.71611 Y-2.57094
G01 X-3.71612 Y-2.57085
G01 X-3.71613 Y-2.57080
G01 X-3.71614 Y-2.57074
G01 X-3.71615 Y-2.57065
G01 X-3.71617 Y-2.57055
G01 X-3.71619 Y-2.57036
G01 X-3.71621 Y-2.57026
G01 X-3.71622 Y-2.57017
G01 X-3.71624 Y-2.57007
G01 X-3.71624 Y-2.57001
G01 X-3.71625 Y-2.56996
G01 X-3.71627 Y-2.56987
G01 X-3.71628 Y-2.56977
G01 X-3.71632 Y-2.56948
G01 X-3.71634 Y-2.56938
G01 X-3.71635 Y-2.56928
G01 X-3.71639 Y-2.56900
G01 X-3.71642 Y-2.56880
G01 X-3.71643 Y-2.56870
G01 X-3.71645 Y-2.56860
G01 X-3.71646 Y-2.56850
G01 X-3.71650 Y-2.56821
G01 X-3.71654 Y-2.56793
G01 X-3.71655 Y-2.56783
G01 X-3.71658 Y-2.56763
G01 X-3.71661 Y-2.56735
G01 X-3.71663 Y-2.56725
G01 X-3.71664 Y-2.56715
G01 X-3.71665 Y-2.56705
G01 X-3.71666 Y-2.56695
G01 X-3.71670 Y-2.56666
G01 X-3.71671 Y-2.56656
G01 X-3.71672 Y-2.56646
G01 X-3.71674 Y-2.56636
G01 X-3.71677 Y-2.56609
G01 X-3.71679 Y-2.56588
G01 X-3.71680 Y-2.56578
G01 X-3.71684 Y-2.56550
G01 X-3.71686 Y-2.56529
G01 X-3.71687 Y-2.56519
G01 X-3.71688 Y-2.56513
G01 X-3.71689 Y-2.56506
G01 X-3.71689 Y-2.56499
G01 X-3.71690 Y-2.56493
G01 X-3.71691 Y-2.56483
G01 X-3.71694 Y-2.56454
G01 X-3.71695 Y-2.56447
G01 X-3.71696 Y-2.56441
G01 X-3.71697 Y-2.56434
G01 X-3.71698 Y-2.56424
G01 X-3.71700 Y-2.56400
G01 X-3.71703 Y-2.56376
G01 X-3.71704 Y-2.56366
G01 X-3.71705 Y-2.56356
G01 X-3.71707 Y-2.56332
G01 X-3.71710 Y-2.56302
G01 X-3.71711 Y-2.56292
G01 X-3.71713 Y-2.56273
G01 X-3.71715 Y-2.56249
G01 X-3.71716 Y-2.56239
G01 X-3.71716 Y-2.56234
G01 X-3.71717 Y-2.56226
G01 X-3.71718 Y-2.56219
G01 X-3.71718 Y-2.56214
G01 X-3.71719 Y-2.56204
G01 X-3.71721 Y-2.56180
G01 X-3.71722 Y-2.56170
G01 X-3.71722 Y-2.56165
G01 X-3.71723 Y-2.56158
G01 X-3.71724 Y-2.56150
G01 X-3.71724 Y-2.56145
G01 X-3.71725 Y-2.56135
G01 X-3.71727 Y-2.56107
G01 X-3.71728 Y-2.56099
G01 X-3.71728 Y-2.56092
G01 X-3.71729 Y-2.56087
G01 X-3.71730 Y-2.56077
G01 X-3.71732 Y-2.56053
G01 X-3.71733 Y-2.56029
G01 X-3.71734 Y-2.56021
G01 X-3.71734 Y-2.56013
G01 X-3.71737 Y-2.55984
G01 X-3.71738 Y-2.55960
G01 X-3.71739 Y-2.55950
G01 X-3.71741 Y-2.55924
G01 X-3.71742 Y-2.55902
G01 X-3.71743 Y-2.55892
G01 X-3.71744 Y-2.55882
G01 X-3.71744 Y-2.55872
G01 X-3.71745 Y-2.55862
G01 X-3.71747 Y-2.55830
G01 X-3.71747 Y-2.55822
G01 X-3.71748 Y-2.55813
G01 X-3.71749 Y-2.55803
G01 X-3.71750 Y-2.55777
G01 X-3.71751 Y-2.55755
G01 X-3.71752 Y-2.55745
G01 X-3.71753 Y-2.55719
G01 X-3.71754 Y-2.55710
G01 X-3.71755 Y-2.55693
G01 X-3.71755 Y-2.55685
G01 X-3.71756 Y-2.55676
G01 X-3.71756 Y-2.55673
G01 X-3.71756 Y-2.55665
G01 X-3.71757 Y-2.55656
G01 X-3.71759 Y-2.55625
G01 X-3.71759 Y-2.55615
G01 X-3.71760 Y-2.55606
G01 X-3.71760 Y-2.55598
G01 X-3.71762 Y-2.55567
G01 X-3.71763 Y-2.55558
G01 X-3.71764 Y-2.55549
G01 X-3.71764 Y-2.55547
G01 X-3.71764 Y-2.55537
G01 X-3.71765 Y-2.55527
G01 X-3.71766 Y-2.55517
G01 X-3.71768 Y-2.55491
G01 X-3.71768 Y-2.55481
G01 X-3.71769 Y-2.55479
G01 X-3.71769 Y-2.55469
G01 X-3.71770 Y-2.55459
G01 X-3.71773 Y-2.55430
G01 X-3.71773 Y-2.55421
G01 X-3.71774 Y-2.55411
G01 X-3.71775 Y-2.55402
G01 X-3.71775 Y-2.55401
G01 X-3.71776 Y-2.55391
G01 X-3.71778 Y-2.55367
G01 X-3.71780 Y-2.55342
G01 X-3.71781 Y-2.55332
G01 X-3.71783 Y-2.55308
G01 X-3.71785 Y-2.55284
G01 X-3.71786 Y-2.55274
G01 X-3.71787 Y-2.55264
G01 X-3.71788 Y-2.55254
G01 X-3.71791 Y-2.55226
G01 X-3.71792 Y-2.55216
G01 X-3.71793 Y-2.55207
G01 X-3.71794 Y-2.55196
G01 X-3.71795 Y-2.55186
G01 X-3.71798 Y-2.55157
G01 X-3.71800 Y-2.55147
G01 X-3.71801 Y-2.55137
G01 X-3.71802 Y-2.55127
G01 X-3.71803 Y-2.55117
G01 X-3.71806 Y-2.55089
G01 X-3.71807 Y-2.55079
G01 X-3.71808 Y-2.55069
G01 X-3.71810 Y-2.55059
G01 X-3.71811 Y-2.55049
G01 X-3.71814 Y-2.55024
G01 X-3.71820 Y-2.54976
G01 X-3.71823 Y-2.54951
G01 X-3.71824 Y-2.54941
G01 X-3.71826 Y-2.54931
G01 X-3.71827 Y-2.54921
G01 X-3.71828 Y-2.54911
G01 X-3.71832 Y-2.54882
G01 X-3.71834 Y-2.54872
G01 X-3.71835 Y-2.54862
G01 X-3.71836 Y-2.54852
G01 X-3.71838 Y-2.54842
G01 X-3.71842 Y-2.54813
G01 X-3.71843 Y-2.54802
G01 X-3.71845 Y-2.54793
G01 X-3.71847 Y-2.54782
G01 X-3.71848 Y-2.54772
G01 X-3.71852 Y-2.54743
G01 X-3.71854 Y-2.54733
G01 X-3.71855 Y-2.54723
G01 X-3.71857 Y-2.54713
G01 X-3.71861 Y-2.54688
G01 X-3.71865 Y-2.54663
G01 X-3.71866 Y-2.54653
G01 X-3.71870 Y-2.54628
G01 X-3.71874 Y-2.54603
G01 X-3.71876 Y-2.54593
G01 X-3.71876 Y-2.54591
G01 X-3.71878 Y-2.54582
G01 X-3.71879 Y-2.54573
G01 X-3.71881 Y-2.54563
G01 X-3.71886 Y-2.54533
G01 X-3.71888 Y-2.54523
G01 X-3.71890 Y-2.54513
G01 X-3.71890 Y-2.54510
G01 X-3.71891 Y-2.54506
G01 X-3.72096 Y-2.54226
G01 X-3.72613 Y-2.53643
G01 X-3.73204 Y-2.53136
G01 X-3.73870 Y-2.52702
G01 X-3.74610 Y-2.52343
G01 X-3.83152 Y-2.48805
G01 X-3.83338 Y-2.48805
G01 X-3.88232 Y-2.46777
G01 X-3.91110 Y-2.43900
G01 X-3.91610 Y-2.43462
G01 X-3.92110 Y-2.43150
G01 X-3.92610 Y-2.42962
G01 X-3.93110 Y-2.42900
G01 X-4.06890 Y-2.42900
G01 X-4.07390 Y-2.42962
G01 X-4.07890 Y-2.43150
G01 X-4.08390 Y-2.43462
G01 X-4.08890 Y-2.43900
G01 X-4.12418 Y-2.47428
G01 X-4.14506 Y-2.52470
G01 X-4.11287 Y-2.57680
G01 X-4.10382 Y-2.58909
G01 X-4.09348 Y-2.59878
G01 X-4.08184 Y-2.60588
G01 X-4.06890 Y-2.61039
G01 X-4.00277 Y-2.62600
G01 X-3.93310 Y-2.62600
G01 X-3.93110 Y-2.62800
G01 X-3.92077 Y-2.63980
G01 X-3.91340 Y-2.65160
G01 X-3.90897 Y-2.66340
G01 X-3.90750 Y-2.67520
G01 X-3.90750 Y-2.69490
G01 X-3.90602 Y-2.70670
G01 X-3.90160 Y-2.71850
G01 X-3.89422 Y-2.73030
G01 X-3.88390 Y-2.74210
G01 X-3.81300 Y-2.81300
G01 X-3.81131 Y-2.81470
G01 X-3.74610 Y-2.81470
G01 X-3.73389 Y-2.81439
G01 X-3.73341 Y-2.81422
G01 X-3.73312 Y-2.81413
G01 X-3.73302 Y-2.81409
G01 X-3.73242 Y-2.81389
G01 X-3.73232 Y-2.81385
G01 X-3.73203 Y-2.81375
G01 X-3.73114 Y-2.81345
G01 X-3.73104 Y-2.81341
G01 X-3.73095 Y-2.81338
G01 X-3.73085 Y-2.81335
G01 X-3.72985 Y-2.81300
G01 X-3.72852 Y-2.81254
G01 X-3.72771 Y-2.81226
G01 X-3.72762 Y-2.81223
G01 X-3.72752 Y-2.81220
G01 X-3.72742 Y-2.81216
G01 X-3.72655 Y-2.81186
G01 X-3.72569 Y-2.81156
G01 X-3.72559 Y-2.81152
G01 X-3.72550 Y-2.81149
G01 X-3.72490 Y-2.81128
G01 X-3.72431 Y-2.81108
G01 X-3.72422 Y-2.81104
G01 X-3.72412 Y-2.81101
G01 X-3.72359 Y-2.81082
G01 X-3.72350 Y-2.81079
G01 X-3.72317 Y-2.81067
G01 X-3.72232 Y-2.81037
G01 X-3.72222 Y-2.81034
G01 X-3.72212 Y-2.81030
G01 X-3.72153 Y-2.81009
G01 X-3.72094 Y-2.80988
G01 X-3.72084 Y-2.80985
G01 X-3.72075 Y-2.80981
G01 X-3.72025 Y-2.80964
G01 X-3.72015 Y-2.80960
G01 X-3.71979 Y-2.80947
G01 X-3.71961 Y-2.80950
G01 X-3.71949 Y-2.80952
G01 X-3.71937 Y-2.80954
G01 X-3.71786 Y-2.80979
G01 X-3.71762 Y-2.80984
G01 X-3.71606 Y-2.81010
G01 X-3.71466 Y-2.81035
G01 X-3.71454 Y-2.81037
G01 X-3.71442 Y-2.81039
G01 X-3.71430 Y-2.81041
G01 X-3.71329 Y-2.81059
G01 X-3.71169 Y-2.81089
G01 X-3.71145 Y-2.81093
G01 X-3.71004 Y-2.81120
G01 X-3.70888 Y-2.81142
G01 X-3.70876 Y-2.81145
G01 X-3.70864 Y-2.81147
G01 X-3.70767 Y-2.81166
G01 X-3.70720 Y-2.81175
G01 X-3.70708 Y-2.81178
G01 X-3.70671 Y-2.81185
G01 X-3.70635 Y-2.81192
G01 X-3.70623 Y-2.81195
G01 X-3.70505 Y-2.81219
G01 X-3.70493 Y-2.81221
G01 X-3.70481 Y-2.81224
G01 X-3.70469 Y-2.81226
G01 X-3.70458 Y-2.81229
G01 X-3.70339 Y-2.81253
G01 X-3.70328 Y-2.81256
G01 X-3.70316 Y-2.81258
G01 X-3.70304 Y-2.81261
G01 X-3.70259 Y-2.81270
G01 X-3.70248 Y-2.81273
G01 X-3.70175 Y-2.81288
G01 X-3.70163 Y-2.81291
G01 X-3.70120 Y-2.81300
G01 X-3.70117 Y-2.81301
G01 X-3.70085 Y-2.81308
G01 X-3.70073 Y-2.81310
G01 X-3.69958 Y-2.81336
G01 X-3.69946 Y-2.81338
G01 X-3.69935 Y-2.81341
G01 X-3.69893 Y-2.81350
G01 X-3.69882 Y-2.81353
G01 X-3.69808 Y-2.81369
G01 X-3.69796 Y-2.81372
G01 X-3.69785 Y-2.81375
G01 X-3.69774 Y-2.81377
G01 X-3.69734 Y-2.81386
G01 X-3.69722 Y-2.81389
G01 X-3.69711 Y-2.81392
G01 X-3.69636 Y-2.81409
G01 X-3.69625 Y-2.81412
G01 X-3.69586 Y-2.81420
G01 X-3.69575 Y-2.81423
G01 X-3.69563 Y-2.81426
G01 X-3.69552 Y-2.81429
G01 X-3.69440 Y-2.81455
G01 X-3.69428 Y-2.81458
G01 X-3.69417 Y-2.81461
G01 X-3.69406 Y-2.81463
G01 X-3.69394 Y-2.81466
G01 X-3.69283 Y-2.81493
G01 X-3.69271 Y-2.81496
G01 X-3.69242 Y-2.81503
G01 X-3.69214 Y-2.81510
G01 X-3.69202 Y-2.81513
G01 X-3.69126 Y-2.81532
G01 X-3.69115 Y-2.81534
G01 X-3.69082 Y-2.81543
G01 X-3.69075 Y-2.81544
G01 X-3.69048 Y-2.81551
G01 X-3.69036 Y-2.81554
G01 X-3.68928 Y-2.81582
G01 X-3.68916 Y-2.81585
G01 X-3.68905 Y-2.81588
G01 X-3.68824 Y-2.81608
G01 X-3.68774 Y-2.81621
G01 X-3.68763 Y-2.81624
G01 X-3.68752 Y-2.81627
G01 X-3.68741 Y-2.81630
G01 X-3.68661 Y-2.81651
G01 X-3.68582 Y-2.81672
G01 X-3.68571 Y-2.81675
G01 X-3.68521 Y-2.81689
G01 X-3.68444 Y-2.81710
G01 X-3.68432 Y-2.81713
G01 X-3.68421 Y-2.81716
G01 X-3.68410 Y-2.81719
G01 X-3.68399 Y-2.81722
G01 X-3.68294 Y-2.81751
G01 X-3.68283 Y-2.81754
G01 X-3.68272 Y-2.81757
G01 X-3.68261 Y-2.81760
G01 X-3.68185 Y-2.81781
G01 X-3.68135 Y-2.81795
G01 X-3.68124 Y-2.81798
G01 X-3.68049 Y-2.81820
G01 X-3.67999 Y-2.81834
G01 X-3.67988 Y-2.81837
G01 X-3.67965 Y-2.81844
G01 X-3.67943 Y-2.81850
G01 X-3.67932 Y-2.81854
G01 X-3.67830 Y-2.81883
G01 X-3.67809 Y-2.81890
G01 X-3.67798 Y-2.81893
G01 X-3.67737 Y-2.81911
G01 X-3.67675 Y-2.81929
G01 X-3.67665 Y-2.81933
G01 X-3.67654 Y-2.81936
G01 X-3.67593 Y-2.81954
G01 X-3.67513 Y-2.81978
G01 X-3.67502 Y-2.81982
G01 X-3.67461 Y-2.81995
G01 X-3.67401 Y-2.82013
G01 X-3.67390 Y-2.82017
G01 X-3.67372 Y-2.82022
G01 X-3.67370 Y-2.82023
G01 X-3.67368 Y-2.82023
G01 X-3.67351 Y-2.82029
G01 X-3.67340 Y-2.82032
G01 X-3.67259 Y-2.82058
G01 X-3.67249 Y-2.82061
G01 X-3.67232 Y-2.82066
G01 X-3.67230 Y-2.82067
G01 X-3.67227 Y-2.82068
G01 X-3.67211 Y-2.82073
G01 X-3.67200 Y-2.82077
G01 X-3.67103 Y-2.82107
G01 X-3.67101 Y-2.82108
G01 X-3.67098 Y-2.82109
G01 X-3.67082 Y-2.82114
G01 X-3.67071 Y-2.82118
G01 X-3.67013 Y-2.82137
G01 X-3.66954 Y-2.82156
G01 X-3.66951 Y-2.82157
G01 X-3.66948 Y-2.82158
G01 X-3.66875 Y-2.82182
G01 X-3.66817 Y-2.82201
G01 X-3.66807 Y-2.82205
G01 X-3.66743 Y-2.82226
G01 X-3.66691 Y-2.82244
G01 X-3.66681 Y-2.82247
G01 X-3.66670 Y-2.82251
G01 X-3.66660 Y-2.82254
G01 X-3.66649 Y-2.82258
G01 X-3.66545 Y-2.82294
G01 X-3.66540 Y-2.82295
G01 X-3.66535 Y-2.82297
G01 X-3.66525 Y-2.82301
G01 X-3.66462 Y-2.82322
G01 X-3.66411 Y-2.82340
G01 X-3.66401 Y-2.82344
G01 X-3.66340 Y-2.82365
G01 X-3.66279 Y-2.82387
G01 X-3.66273 Y-2.82389
G01 X-3.66268 Y-2.82391
G01 X-3.66258 Y-2.82394
G01 X-3.66252 Y-2.82396
G01 X-3.66247 Y-2.82398
G01 X-3.66148 Y-2.82434
G01 X-3.66137 Y-2.82438
G01 X-3.66131 Y-2.82440
G01 X-3.66125 Y-2.82442
G01 X-3.66028 Y-2.82478
G01 X-3.66021 Y-2.82480
G01 X-3.66014 Y-2.82483
G01 X-3.66007 Y-2.82485
G01 X-3.65997 Y-2.82489
G01 X-3.65986 Y-2.82493
G01 X-3.65976 Y-2.82497
G01 X-3.65894 Y-2.82527
G01 X-3.65884 Y-2.82531
G01 X-3.65878 Y-2.82533
G01 X-3.65867 Y-2.82537
G01 X-3.65857 Y-2.82541
G01 X-3.65770 Y-2.82574
G01 X-3.65760 Y-2.82578
G01 X-3.65752 Y-2.82581
G01 X-3.65744 Y-2.82584
G01 X-3.65739 Y-2.82585
G01 X-3.65729 Y-2.82589
G01 X-3.65675 Y-2.82610
G01 X-3.65622 Y-2.82630
G01 X-3.65612 Y-2.82634
G01 X-3.65558 Y-2.82655
G01 X-3.65506 Y-2.82675
G01 X-3.65495 Y-2.82679
G01 X-3.65485 Y-2.82683
G01 X-3.65475 Y-2.82687
G01 X-3.65390 Y-2.82721
G01 X-3.65381 Y-2.82724
G01 X-3.65373 Y-2.82728
G01 X-3.65370 Y-2.82729
G01 X-3.65360 Y-2.82733
G01 X-3.65350 Y-2.82737
G01 X-3.65266 Y-2.82770
G01 X-3.65256 Y-2.82774
G01 X-3.65246 Y-2.82778
G01 X-3.65236 Y-2.82782
G01 X-3.65225 Y-2.82787
G01 X-3.65142 Y-2.82820
G01 X-3.65132 Y-2.82824
G01 X-3.65122 Y-2.82829
G01 X-3.65112 Y-2.82833
G01 X-3.65102 Y-2.82837
G01 X-3.65020 Y-2.82870
G01 X-3.65010 Y-2.82875
G01 X-3.65000 Y-2.82879
G01 X-3.64990 Y-2.82883
G01 X-3.64980 Y-2.82887
G01 X-3.64898 Y-2.82921
G01 X-3.64888 Y-2.82925
G01 X-3.64879 Y-2.82930
G01 X-3.64868 Y-2.82934
G01 X-3.64859 Y-2.82938
G01 X-3.64778 Y-2.82972
G01 X-3.64768 Y-2.82976
G01 X-3.64758 Y-2.82980
G01 X-3.64748 Y-2.82985
G01 X-3.64738 Y-2.82989
G01 X-3.64659 Y-2.83023
G01 X-3.64649 Y-2.83027
G01 X-3.64639 Y-2.83032
G01 X-3.64636 Y-2.83033
G01 X-3.64628 Y-2.83036
G01 X-3.64619 Y-2.83040
G01 X-3.64540 Y-2.83074
G01 X-3.64530 Y-2.83079
G01 X-3.64520 Y-2.83083
G01 X-3.64511 Y-2.83087
G01 X-3.64462 Y-2.83109
G01 X-3.64413 Y-2.83130
G01 X-3.64403 Y-2.83135
G01 X-3.64355 Y-2.83156
G01 X-3.64306 Y-2.83178
G01 X-3.64297 Y-2.83182
G01 X-3.64292 Y-2.83184
G01 X-3.64285 Y-2.83188
G01 X-3.64277 Y-2.83191
G01 X-3.64267 Y-2.83195
G01 X-3.64191 Y-2.83230
G01 X-3.64181 Y-2.83235
G01 X-3.64172 Y-2.83239
G01 X-3.64166 Y-2.83241
G01 X-3.64156 Y-2.83246
G01 X-3.64086 Y-2.83278
G01 X-3.64077 Y-2.83283
G01 X-3.64067 Y-2.83287
G01 X-3.64057 Y-2.83291
G01 X-3.64051 Y-2.83294
G01 X-3.64045 Y-2.83297
G01 X-3.64038 Y-2.83300
G01 X-3.63957 Y-2.83338
G01 X-3.63950 Y-2.83341
G01 X-3.63944 Y-2.83344
G01 X-3.63934 Y-2.83349
G01 X-3.63863 Y-2.83383
G01 X-3.63853 Y-2.83387
G01 X-3.63847 Y-2.83390
G01 X-3.63841 Y-2.83392
G01 X-3.63834 Y-2.83396
G01 X-3.63828 Y-2.83399
G01 X-3.63822 Y-2.83402
G01 X-3.63772 Y-2.83425
G01 X-3.63722 Y-2.83449
G01 X-3.63712 Y-2.83453
G01 X-3.63670 Y-2.83473
G01 X-3.63620 Y-2.83496
G01 X-3.63611 Y-2.83501
G01 X-3.63605 Y-2.83503
G01 X-3.63600 Y-2.83505
G01 X-3.63519 Y-2.83543
G01 X-3.63510 Y-2.83547
G01 X-3.63500 Y-2.83552
G01 X-3.63491 Y-2.83556
G01 X-3.63481 Y-2.83561
G01 X-3.63441 Y-2.83579
G01 X-3.63391 Y-2.83602
G01 X-3.63381 Y-2.83607
G01 X-3.63336 Y-2.83627
G01 X-3.63281 Y-2.83653
G01 X-3.63277 Y-2.83654
G01 X-3.63273 Y-2.83656
G01 X-3.63228 Y-2.83677
G01 X-3.63184 Y-2.83697
G01 X-3.63174 Y-2.83701
G01 X-3.63163 Y-2.83706
G01 X-3.63159 Y-2.83708
G01 X-3.63155 Y-2.83710
G01 X-3.63150 Y-2.83712
G01 X-3.63086 Y-2.83741
G01 X-3.63076 Y-2.83745
G01 X-3.63064 Y-2.83751
G01 X-3.63061 Y-2.83752
G01 X-3.63058 Y-2.83754
G01 X-3.63046 Y-2.83759
G01 X-3.63036 Y-2.83764
G01 X-3.62980 Y-2.83790
G01 X-3.62970 Y-2.83794
G01 X-3.62958 Y-2.83800
G01 X-3.62955 Y-2.83801
G01 X-3.62951 Y-2.83803
G01 X-3.62939 Y-2.83809
G01 X-3.62930 Y-2.83813
G01 X-3.62886 Y-2.83833
G01 X-3.62865 Y-2.83843
G01 X-3.62855 Y-2.83848
G01 X-3.62846 Y-2.83852
G01 X-3.62790 Y-2.83878
G01 X-3.62747 Y-2.83898
G01 X-3.62737 Y-2.83903
G01 X-3.62728 Y-2.83907
G01 X-3.62685 Y-2.83927
G01 X-3.62642 Y-2.83947
G01 X-3.62633 Y-2.83951
G01 X-3.62618 Y-2.83958
G01 X-3.62616 Y-2.83959
G01 X-3.62614 Y-2.83960
G01 X-3.62548 Y-2.83990
G01 X-3.62538 Y-2.83995
G01 X-3.62523 Y-2.84002
G01 X-3.62522 Y-2.84002
G01 X-3.62520 Y-2.84003
G01 X-3.62505 Y-2.84010
G01 X-3.62495 Y-2.84014
G01 X-3.62460 Y-2.84030
G01 X-3.62410 Y-2.84053
G01 X-3.62401 Y-2.84057
G01 X-3.62367 Y-2.84073
G01 X-3.62317 Y-2.84096
G01 X-3.62307 Y-2.84100
G01 X-3.62298 Y-2.84104
G01 X-3.62289 Y-2.84108
G01 X-3.62223 Y-2.84137
G01 X-3.62214 Y-2.84142
G01 X-3.62205 Y-2.84146
G01 X-3.62196 Y-2.84150
G01 X-3.62186 Y-2.84154
G01 X-3.62136 Y-2.84177
G01 X-3.62103 Y-2.84191
G01 X-3.62094 Y-2.84195
G01 X-3.62044 Y-2.84218
G01 X-3.61993 Y-2.84240
G01 X-3.61984 Y-2.84244
G01 X-3.61975 Y-2.84248
G01 X-3.61965 Y-2.84252
G01 X-3.61933 Y-2.84266
G01 X-3.61883 Y-2.84288
G01 X-3.61873 Y-2.84293
G01 X-3.61864 Y-2.84297
G01 X-3.61800 Y-2.84324
G01 X-3.61791 Y-2.84328
G01 X-3.61772 Y-2.84337
G01 X-3.61763 Y-2.84341
G01 X-3.61744 Y-2.84349
G01 X-3.61735 Y-2.84353
G01 X-3.61691 Y-2.84372
G01 X-3.61682 Y-2.84376
G01 X-3.61662 Y-2.84384
G01 X-3.61643 Y-2.84392
G01 X-3.61634 Y-2.84396
G01 X-3.61607 Y-2.84408
G01 X-3.61520 Y-2.84395
G01 X-3.61146 Y-2.84340
G01 X-3.59646 Y-2.84044
G01 X-3.59303 Y-2.83958
G01 X-3.58116 Y-2.83600
G01 X-3.57800 Y-2.83487
G01 X-3.57295 Y-2.83292
G01 X-3.56948 Y-2.83148
G01 X-3.56907 Y-2.83117
G01 X-3.56896 Y-2.83109
G01 X-3.56884 Y-2.83100
G01 X-3.56880 Y-2.83097
G01 X-3.56876 Y-2.83094
G01 X-3.56819 Y-2.83049
G01 X-3.56815 Y-2.83047
G01 X-3.56811 Y-2.83044
G01 X-3.56754 Y-2.83001
G01 X-3.56744 Y-2.82993
G01 X-3.56734 Y-2.82986
G01 X-3.56724 Y-2.82978
G01 X-3.56680 Y-2.82945
G01 X-3.56670 Y-2.82938
G01 X-3.56657 Y-2.82928
G01 X-3.56647 Y-2.82921
G01 X-3.56616 Y-2.82898
G01 X-3.56607 Y-2.82891
G01 X-3.56593 Y-2.82881
G01 X-3.56590 Y-2.82879
G01 X-3.56586 Y-2.82876
G01 X-3.56573 Y-2.82866
G01 X-3.56563 Y-2.82859
G01 X-3.56520 Y-2.82828
G01 X-3.56510 Y-2.82821
G01 X-3.56479 Y-2.82798
G01 X-3.56417 Y-2.82754
G01 X-3.56372 Y-2.82722
G01 X-3.56362 Y-2.82715
G01 X-3.56352 Y-2.82708
G01 X-3.56326 Y-2.82689
G01 X-3.56316 Y-2.82682
G01 X-3.56302 Y-2.82672
G01 X-3.56291 Y-2.82665
G01 X-3.56282 Y-2.82658
G01 X-3.56241 Y-2.82630
G01 X-3.56231 Y-2.82623
G01 X-3.56216 Y-2.82612
G01 X-3.56214 Y-2.82611
G01 X-3.56211 Y-2.82609
G01 X-3.56157 Y-2.82571
G01 X-3.56155 Y-2.82570
G01 X-3.56152 Y-2.82568
G01 X-3.56137 Y-2.82558
G01 X-3.56127 Y-2.82551
G01 X-3.56088 Y-2.82524
G01 X-3.56078 Y-2.82517
G01 X-3.56068 Y-2.82511
G01 X-3.56030 Y-2.82485
G01 X-3.56020 Y-2.82478
G01 X-3.56004 Y-2.82468
G01 X-3.56002 Y-2.82466
G01 X-3.56000 Y-2.82465
G01 X-3.55946 Y-2.82429
G01 X-3.55937 Y-2.82423
G01 X-3.55926 Y-2.82416
G01 X-3.55917 Y-2.82409
G01 X-3.55879 Y-2.82385
G01 X-3.55870 Y-2.82378
G01 X-3.55853 Y-2.82368
G01 X-3.55843 Y-2.82361
G01 X-3.55823 Y-2.82348
G01 X-3.55813 Y-2.82341
G01 X-3.55797 Y-2.82331
G01 X-3.55787 Y-2.82325
G01 X-3.55777 Y-2.82318
G01 X-3.55767 Y-2.82312
G01 X-3.55731 Y-2.82289
G01 X-3.55721 Y-2.82282
G01 X-3.55711 Y-2.82276
G01 X-3.55676 Y-2.82253
G01 X-3.55666 Y-2.82247
G01 X-3.55649 Y-2.82237
G01 X-3.55639 Y-2.82230
G01 X-3.55629 Y-2.82224
G01 X-3.55595 Y-2.82202
G01 X-3.55585 Y-2.82196
G01 X-3.55575 Y-2.82190
G01 X-3.55565 Y-2.82184
G01 X-3.55513 Y-2.82152
G01 X-3.55512 Y-2.82151
G01 X-3.55511 Y-2.82150
G01 X-3.55467 Y-2.82123
G01 X-3.55423 Y-2.82096
G01 X-3.55413 Y-2.82090
G01 X-3.55397 Y-2.82081
G01 X-3.55387 Y-2.82075
G01 X-3.55377 Y-2.82069
G01 X-3.55360 Y-2.82058
G01 X-3.55350 Y-2.82052
G01 X-3.55340 Y-2.82046
G01 X-3.55308 Y-2.82027
G01 X-3.55297 Y-2.82021
G01 X-3.55280 Y-2.82011
G01 X-3.55270 Y-2.82005
G01 X-3.55256 Y-2.81996
G01 X-3.55246 Y-2.81991
G01 X-3.55228 Y-2.81980
G01 X-3.55218 Y-2.81974
G01 X-3.55208 Y-2.81969
G01 X-3.55182 Y-2.81954
G01 X-3.55126 Y-2.81921
G01 X-3.55123 Y-2.81919
G01 X-3.55119 Y-2.81917
G01 X-3.55088 Y-2.81899
G01 X-3.55078 Y-2.81894
G01 X-3.55068 Y-2.81888
G01 X-3.55038 Y-2.81871
G01 X-3.55028 Y-2.81865
G01 X-3.55010 Y-2.81855
G01 X-3.55009 Y-2.81855
G01 X-3.55008 Y-2.81854
G01 X-3.54961 Y-2.81827
G01 X-3.54950 Y-2.81822
G01 X-3.54941 Y-2.81816
G01 X-3.54922 Y-2.81806
G01 X-3.54921 Y-2.81805
G01 X-3.54873 Y-2.81779
G01 X-3.54863 Y-2.81774
G01 X-3.54853 Y-2.81768
G01 X-3.54825 Y-2.81753
G01 X-3.54815 Y-2.81747
G01 X-3.54805 Y-2.81742
G01 X-3.54786 Y-2.81732
G01 X-3.54776 Y-2.81727
G01 X-3.54748 Y-2.81712
G01 X-3.54738 Y-2.81706
G01 X-3.54728 Y-2.81701
G01 X-3.54718 Y-2.81696
G01 X-3.54708 Y-2.81690
G01 X-3.54662 Y-2.81666
G01 X-3.54652 Y-2.81661
G01 X-3.54642 Y-2.81656
G01 X-3.54619 Y-2.81643
G01 X-3.54563 Y-2.81615
G01 X-3.54530 Y-2.81598
G01 X-3.54520 Y-2.81593
G01 X-3.54501 Y-2.81583
G01 X-3.54500 Y-2.81583
G01 X-3.54455 Y-2.81560
G01 X-3.54445 Y-2.81555
G01 X-3.54435 Y-2.81550
G01 X-3.54425 Y-2.81545
G01 X-3.54400 Y-2.81533
G01 X-3.54390 Y-2.81528
G01 X-3.54371 Y-2.81518
G01 X-3.54361 Y-2.81513
G01 X-3.54351 Y-2.81508
G01 X-3.54328 Y-2.81497
G01 X-3.54265 Y-2.81466
G01 X-3.54243 Y-2.81456
G01 X-3.54233 Y-2.81451
G01 X-3.54223 Y-2.81446
G01 X-3.54203 Y-2.81437
G01 X-3.54193 Y-2.81432
G01 X-3.54169 Y-2.81421
G01 X-3.54160 Y-2.81416
G01 X-3.54149 Y-2.81412
G01 X-3.54140 Y-2.81407
G01 X-3.54097 Y-2.81387
G01 X-3.54087 Y-2.81383
G01 X-3.54077 Y-2.81378
G01 X-3.54067 Y-2.81373
G01 X-3.54044 Y-2.81363
G01 X-3.54035 Y-2.81359
G01 X-3.54027 Y-2.81355
G01 X-3.54005 Y-2.81345
G01 X-3.53994 Y-2.81340
G01 X-3.53973 Y-2.81331
G01 X-3.53933 Y-2.81313
G01 X-3.53923 Y-2.81308
G01 X-3.53902 Y-2.81299
G01 X-3.53881 Y-2.81290
G01 X-3.53871 Y-2.81285
G01 X-3.53851 Y-2.81277
G01 X-3.53841 Y-2.81272
G01 X-3.53821 Y-2.81264
G01 X-3.53780 Y-2.81246
G01 X-3.53740 Y-2.81229
G01 X-3.53729 Y-2.81224
G01 X-3.53709 Y-2.81216
G01 X-3.53690 Y-2.81208
G01 X-3.53680 Y-2.81204
G01 X-3.53660 Y-2.81195
G01 X-3.53649 Y-2.81191
G01 X-3.53629 Y-2.81183
G01 X-3.53620 Y-2.81179
G01 X-3.53609 Y-2.81175
G01 X-3.53600 Y-2.81170
G01 X-3.53580 Y-2.81162
G01 X-3.53570 Y-2.81159
G01 X-3.53560 Y-2.81154
G01 X-3.53520 Y-2.81138
G01 X-3.53481 Y-2.81123
G01 X-3.53461 Y-2.81115
G01 X-3.53451 Y-2.81111
G01 X-3.53412 Y-2.81096
G01 X-3.53392 Y-2.81088
G01 X-3.53382 Y-2.81084
G01 X-3.53372 Y-2.81080
G01 X-3.53354 Y-2.81073
G01 X-3.53344 Y-2.81069
G01 X-3.53324 Y-2.81062
G01 X-3.53314 Y-2.81058
G01 X-3.53304 Y-2.81054
G01 X-3.53286 Y-2.81048
G01 X-3.53276 Y-2.81044
G01 X-3.53273 Y-2.81043
G01 X-3.53263 Y-2.81039
G01 X-3.53246 Y-2.81033
G01 X-3.53236 Y-2.81029
G01 X-3.53219 Y-2.81023
G01 X-3.53209 Y-2.81019
G01 X-3.53205 Y-2.81018
G01 X-3.53197 Y-2.81015
G01 X-3.53188 Y-2.81012
G01 X-3.53168 Y-2.81004
G01 X-3.53158 Y-2.81001
G01 X-3.53138 Y-2.80993
G01 X-3.53130 Y-2.80991
G01 X-3.53122 Y-2.80988
G01 X-3.53118 Y-2.80986
G01 X-3.53108 Y-2.80983
G01 X-3.53071 Y-2.80970
G01 X-3.53035 Y-2.80957
G01 X-3.53025 Y-2.80954
G01 X-3.53015 Y-2.80950
G01 X-3.53011 Y-2.80949
G01 X-3.53001 Y-2.80945
G01 X-3.52969 Y-2.80934
G01 X-3.52967 Y-2.80934
G01 X-3.52965 Y-2.80933
G01 X-3.52949 Y-2.80928
G01 X-3.52939 Y-2.80924
G01 X-3.52919 Y-2.80918
G01 X-3.52909 Y-2.80914
G01 X-3.52899 Y-2.80911
G01 X-3.52878 Y-2.80904
G01 X-3.52871 Y-2.80902
G01 X-3.52864 Y-2.80899
G01 X-3.52843 Y-2.80893
G01 X-3.52833 Y-2.80889
G01 X-3.52813 Y-2.80883
G01 X-3.52793 Y-2.80876
G01 X-3.52783 Y-2.80873
G01 X-3.52768 Y-2.80868
G01 X-3.52758 Y-2.80865
G01 X-3.52738 Y-2.80859
G01 X-3.52728 Y-2.80856
G01 X-3.52718 Y-2.80852
G01 X-3.52704 Y-2.80848
G01 X-3.52694 Y-2.80845
G01 X-3.52687 Y-2.80843
G01 X-3.52677 Y-2.80840
G01 X-3.52664 Y-2.80836
G01 X-3.52653 Y-2.80833
G01 X-3.52643 Y-2.80830
G01 X-3.52633 Y-2.80827
G01 X-3.52599 Y-2.80816
G01 X-3.52589 Y-2.80813
G01 X-3.52569 Y-2.80807
G01 X-3.52549 Y-2.80801
G01 X-3.52539 Y-2.80798
G01 X-3.52529 Y-2.80795
G01 X-3.52502 Y-2.80788
G01 X-3.52455 Y-2.80774
G01 X-3.52449 Y-2.80772
G01 X-3.52443 Y-2.80771
G01 X-3.52435 Y-2.80768
G01 X-3.52425 Y-2.80766
G01 X-3.52413 Y-2.80762
G01 X-3.52402 Y-2.80759
G01 X-3.52394 Y-2.80757
G01 X-3.52384 Y-2.80754
G01 X-3.52372 Y-2.80751
G01 X-3.52362 Y-2.80748
G01 X-3.52352 Y-2.80745
G01 X-3.52340 Y-2.80742
G01 X-3.52330 Y-2.80739
G01 X-3.52321 Y-2.80737
G01 X-3.52312 Y-2.80734
G01 X-3.52300 Y-2.80731
G01 X-3.52290 Y-2.80728
G01 X-3.52269 Y-2.80723
G01 X-3.52259 Y-2.80721
G01 X-3.52249 Y-2.80718
G01 X-3.52238 Y-2.80715
G01 X-3.52233 Y-2.80714
G01 X-3.52229 Y-2.80713
G01 X-3.52197 Y-2.80704
G01 X-3.52187 Y-2.80702
G01 X-3.52167 Y-2.80697
G01 X-3.52147 Y-2.80692
G01 X-3.52137 Y-2.80689
G01 X-3.52126 Y-2.80686
G01 X-3.52116 Y-2.80684
G01 X-3.52095 Y-2.80679
G01 X-3.52091 Y-2.80678
G01 X-3.52086 Y-2.80677
G01 X-3.52075 Y-2.80674
G01 X-3.52065 Y-2.80672
G01 X-3.52034 Y-2.80664
G01 X-3.52030 Y-2.80663
G01 X-3.52025 Y-2.80662
G01 X-3.52014 Y-2.80659
G01 X-3.52005 Y-2.80657
G01 X-3.51994 Y-2.80655
G01 X-3.51984 Y-2.80652
G01 X-3.51974 Y-2.80650
G01 X-3.51964 Y-2.80648
G01 X-3.51944 Y-2.80643
G01 X-3.51898 Y-2.80633
G01 X-3.51873 Y-2.80627
G01 X-3.51863 Y-2.80625
G01 X-3.51853 Y-2.80623
G01 X-3.51833 Y-2.80618
G01 X-3.51823 Y-2.80616
G01 X-3.51813 Y-2.80614
G01 X-3.51804 Y-2.80612
G01 X-3.51798 Y-2.80611
G01 X-3.51793 Y-2.80610
G01 X-3.51763 Y-2.80604
G01 X-3.51753 Y-2.80601
G01 X-3.51733 Y-2.80597
G01 X-3.51713 Y-2.80593
G01 X-3.51703 Y-2.80591
G01 X-3.51682 Y-2.80587
G01 X-3.51672 Y-2.80585
G01 X-3.51664 Y-2.80583
G01 X-3.51658 Y-2.80582
G01 X-3.51652 Y-2.80581
G01 X-3.51644 Y-2.80579
G01 X-3.51634 Y-2.80577
G01 X-3.51613 Y-2.80573
G01 X-3.51603 Y-2.80572
G01 X-3.51593 Y-2.80570
G01 X-3.51573 Y-2.80566
G01 X-3.51563 Y-2.80564
G01 X-3.51555 Y-2.80562
G01 X-3.51549 Y-2.80561
G01 X-3.51543 Y-2.80560
G01 X-3.51514 Y-2.80555
G01 X-3.51504 Y-2.80553
G01 X-3.51498 Y-2.80552
G01 X-3.51492 Y-2.80551
G01 X-3.51464 Y-2.80546
G01 X-3.51454 Y-2.80544
G01 X-3.51447 Y-2.80543
G01 X-3.51437 Y-2.80541
G01 X-3.51423 Y-2.80539
G01 X-3.51413 Y-2.80537
G01 X-3.51403 Y-2.80535
G01 X-3.51396 Y-2.80534
G01 X-3.51386 Y-2.80532
G01 X-3.51366 Y-2.80529
G01 X-3.51359 Y-2.80528
G01 X-3.51353 Y-2.80527
G01 X-3.51346 Y-2.80526
G01 X-3.51336 Y-2.80524
G01 X-3.51315 Y-2.80521
G01 X-3.51305 Y-2.80519
G01 X-3.51299 Y-2.80518
G01 X-3.51292 Y-2.80517
G01 X-3.51285 Y-2.80516
G01 X-3.51265 Y-2.80513
G01 X-3.51255 Y-2.80511
G01 X-3.51231 Y-2.80508
G01 X-3.51208 Y-2.80504
G01 X-3.51198 Y-2.80503
G01 X-3.51188 Y-2.80501
G01 X-3.51167 Y-2.80498
G01 X-3.51158 Y-2.80497
G01 X-3.51147 Y-2.80496
G01 X-3.51127 Y-2.80493
G01 X-3.51117 Y-2.80491
G01 X-3.51111 Y-2.80490
G01 X-3.51104 Y-2.80489
G01 X-3.51097 Y-2.80489
G01 X-3.51071 Y-2.80485
G01 X-3.51064 Y-2.80484
G01 X-3.51057 Y-2.80483
G01 X-3.51051 Y-2.80482
G01 X-3.51041 Y-2.80481
G01 X-3.51021 Y-2.80478
G01 X-3.51010 Y-2.80477
G01 X-3.51001 Y-2.80476
G01 X-3.50990 Y-2.80475
G01 X-3.50970 Y-2.80472
G01 X-3.50960 Y-2.80471
G01 X-3.50950 Y-2.80470
G01 X-3.50930 Y-2.80467
G01 X-3.50920 Y-2.80466
G01 X-3.50915 Y-2.80465
G01 X-3.50905 Y-2.80464
G01 X-3.50889 Y-2.80462
G01 X-3.50887 Y-2.80462
G01 X-3.50885 Y-2.80462
G01 X-3.50869 Y-2.80460
G01 X-3.50859 Y-2.80459
G01 X-3.50834 Y-2.80456
G01 X-3.50824 Y-2.80455
G01 X-3.50814 Y-2.80454
G01 X-3.50804 Y-2.80453
G01 X-3.50784 Y-2.80451
G01 X-3.50774 Y-2.80450
G01 X-3.50764 Y-2.80449
G01 X-3.50743 Y-2.80447
G01 X-3.50703 Y-2.80443
G01 X-3.50701 Y-2.80443
G01 X-3.50699 Y-2.80443
G01 X-3.50683 Y-2.80441
G01 X-3.50673 Y-2.80440
G01 X-3.50651 Y-2.80438
G01 X-3.50610 Y-2.80435
G01 X-3.50588 Y-2.80433
G01 X-3.50578 Y-2.80432
G01 X-3.50568 Y-2.80431
G01 X-3.50548 Y-2.80430
G01 X-3.50538 Y-2.80429
G01 X-3.50528 Y-2.80428
G01 X-3.50508 Y-2.80427
G01 X-3.50497 Y-2.80426
G01 X-3.50488 Y-2.80425
G01 X-3.50477 Y-2.80425
G01 X-3.50468 Y-2.80424
G01 X-3.50447 Y-2.80423
G01 X-3.50437 Y-2.80422
G01 X-3.50414 Y-2.80421
G01 X-3.50405 Y-2.80420
G01 X-3.50397 Y-2.80420
G01 X-3.50387 Y-2.80419
G01 X-3.50384 Y-2.80419
G01 X-3.50374 Y-2.80418
G01 X-3.50356 Y-2.80417
G01 X-3.50346 Y-2.80417
G01 X-3.50324 Y-2.80415
G01 X-3.50315 Y-2.80415
G01 X-3.50306 Y-2.80415
G01 X-3.50304 Y-2.80414
G01 X-3.50295 Y-2.80414
G01 X-3.50286 Y-2.80414
G01 X-3.50263 Y-2.80412
G01 X-3.50253 Y-2.80412
G01 X-3.50243 Y-2.80412
G01 X-3.50224 Y-2.80411
G01 X-3.50215 Y-2.80410
G01 X-3.50213 Y-2.80410
G01 X-3.50203 Y-2.80410
G01 X-3.50183 Y-2.80409
G01 X-3.50173 Y-2.80409
G01 X-3.50163 Y-2.80408
G01 X-3.50153 Y-2.80408
G01 X-3.50144 Y-2.80408
G01 X-3.50122 Y-2.80407
G01 X-3.50112 Y-2.80407
G01 X-3.50092 Y-2.80406
G01 X-3.50082 Y-2.80406
G01 X-3.50072 Y-2.80406
G01 X-3.50062 Y-2.80405
G01 X-3.50041 Y-2.80405
G01 X-3.50032 Y-2.80405
G01 X-3.50021 Y-2.80405
G01 X-3.50012 Y-2.80404
G01 X-3.49991 Y-2.80404
G01 X-3.49981 Y-2.80404
G01 X-3.49971 Y-2.80404
G01 X-3.49961 Y-2.80404
G01 X-3.49941 Y-2.80403
G01 X-3.49931 Y-2.80403
G01 X-3.49911 Y-2.80403
G01 X-3.49870 Y-2.80403
G01 X-3.49850 Y-2.80403
G01 X-3.49840 Y-2.80403
G01 X-3.49830 Y-2.80403
G01 X-3.49810 Y-2.80403
G01 X-3.49800 Y-2.80403
G01 X-3.49790 Y-2.80403
G01 X-3.49780 Y-2.80403
G01 X-3.49759 Y-2.80403
G01 X-3.49749 Y-2.80403
G01 X-3.49729 Y-2.80404
G01 X-3.49709 Y-2.80404
G01 X-3.49699 Y-2.80404
G01 X-3.49679 Y-2.80404
G01 X-3.49638 Y-2.80405
G01 X-3.49617 Y-2.80406
G01 X-3.49607 Y-2.80406
G01 X-3.49588 Y-2.80406
G01 X-3.49547 Y-2.80408
G01 X-3.49527 Y-2.80408
G01 X-3.49517 Y-2.80409
G01 X-3.49507 Y-2.80409
G01 X-3.49485 Y-2.80410
G01 X-3.49476 Y-2.80410
G01 X-3.49467 Y-2.80410
G01 X-3.49447 Y-2.80411
G01 X-3.49437 Y-2.80412
G01 X-3.49435 Y-2.80412
G01 X-3.49426 Y-2.80412
G01 X-3.49417 Y-2.80413
G01 X-3.49396 Y-2.80414
G01 X-3.49386 Y-2.80414
G01 X-3.49384 Y-2.80414
G01 X-3.49375 Y-2.80415
G01 X-3.49366 Y-2.80415
G01 X-3.49344 Y-2.80416
G01 X-3.49335 Y-2.80417
G01 X-3.49326 Y-2.80417
G01 X-3.49303 Y-2.80419
G01 X-3.49293 Y-2.80419
G01 X-3.49284 Y-2.80420
G01 X-3.49276 Y-2.80420
G01 X-3.49253 Y-2.80422
G01 X-3.49243 Y-2.80422
G01 X-3.49233 Y-2.80423
G01 X-3.49212 Y-2.80424
G01 X-3.49202 Y-2.80425
G01 X-3.49192 Y-2.80426
G01 X-3.49182 Y-2.80427
G01 X-3.49162 Y-2.80428
G01 X-3.49152 Y-2.80429
G01 X-3.49142 Y-2.80430
G01 X-3.49132 Y-2.80430
G01 X-3.49112 Y-2.80432
G01 X-3.49101 Y-2.80433
G01 X-3.49098 Y-2.80433
G01 X-3.49088 Y-2.80434
G01 X-3.49071 Y-2.80435
G01 X-3.49061 Y-2.80436
G01 X-3.49051 Y-2.80437
G01 X-3.49048 Y-2.80437
G01 X-3.49038 Y-2.80438
G01 X-3.49021 Y-2.80439
G01 X-3.49011 Y-2.80440
G01 X-3.49007 Y-2.80441
G01 X-3.48997 Y-2.80442
G01 X-3.48977 Y-2.80444
G01 X-3.48969 Y-2.80444
G01 X-3.48961 Y-2.80445
G01 X-3.48957 Y-2.80445
G01 X-3.48947 Y-2.80446
G01 X-3.48926 Y-2.80449
G01 X-3.48916 Y-2.80450
G01 X-3.48906 Y-2.80450
G01 X-3.48886 Y-2.80453
G01 X-3.48845 Y-2.80457
G01 X-3.48843 Y-2.80457
G01 X-3.48841 Y-2.80457
G01 X-3.48825 Y-2.80459
G01 X-3.48815 Y-2.80460
G01 X-3.48790 Y-2.80463
G01 X-3.48783 Y-2.80464
G01 X-3.48775 Y-2.80465
G01 X-3.48770 Y-2.80465
G01 X-3.48760 Y-2.80467
G01 X-3.48750 Y-2.80468
G01 X-3.48730 Y-2.80470
G01 X-3.48722 Y-2.80471
G01 X-3.48715 Y-2.80472
G01 X-3.48689 Y-2.80475
G01 X-3.48679 Y-2.80476
G01 X-3.48674 Y-2.80477
G01 X-3.48664 Y-2.80478
G01 X-3.48649 Y-2.80480
G01 X-3.48606 Y-2.80486
G01 X-3.48583 Y-2.80489
G01 X-3.48573 Y-2.80491
G01 X-3.48556 Y-2.80493
G01 X-3.48532 Y-2.80496
G01 X-3.48522 Y-2.80498
G01 X-3.48502 Y-2.80501
G01 X-3.48492 Y-2.80502
G01 X-3.48486 Y-2.80503
G01 X-3.48479 Y-2.80504
G01 X-3.48472 Y-2.80505
G01 X-3.48462 Y-2.80506
G01 X-3.48435 Y-2.80511
G01 X-3.48425 Y-2.80512
G01 X-3.48408 Y-2.80515
G01 X-3.48385 Y-2.80518
G01 X-3.48374 Y-2.80520
G01 X-3.48354 Y-2.80523
G01 X-3.48344 Y-2.80525
G01 X-3.48334 Y-2.80527
G01 X-3.48327 Y-2.80528
G01 X-3.48321 Y-2.80529
G01 X-3.48314 Y-2.80530
G01 X-3.48294 Y-2.80533
G01 X-3.48284 Y-2.80535
G01 X-3.48256 Y-2.80540
G01 X-3.48236 Y-2.80543
G01 X-3.48226 Y-2.80545
G01 X-3.48206 Y-2.80549
G01 X-3.48165 Y-2.80556
G01 X-3.48161 Y-2.80557
G01 X-3.48158 Y-2.80557
G01 X-3.48145 Y-2.80559
G01 X-3.48135 Y-2.80561
G01 X-3.48127 Y-2.80563
G01 X-3.48117 Y-2.80565
G01 X-3.48097 Y-2.80569
G01 X-3.48087 Y-2.80571
G01 X-3.48077 Y-2.80572
G01 X-3.48067 Y-2.80574
G01 X-3.48046 Y-2.80578
G01 X-3.48036 Y-2.80580
G01 X-3.48028 Y-2.80582
G01 X-3.48018 Y-2.80584
G01 X-3.48008 Y-2.80586
G01 X-3.47996 Y-2.80588
G01 X-3.47986 Y-2.80590
G01 X-3.47977 Y-2.80592
G01 X-3.47967 Y-2.80594
G01 X-3.47947 Y-2.80598
G01 X-3.47942 Y-2.80599
G01 X-3.47938 Y-2.80600
G01 X-3.47906 Y-2.80607
G01 X-3.47877 Y-2.80613
G01 X-3.47867 Y-2.80615
G01 X-3.47857 Y-2.80617
G01 X-3.47837 Y-2.80622
G01 X-3.47826 Y-2.80624
G01 X-3.47817 Y-2.80626
G01 X-3.47807 Y-2.80628
G01 X-3.47797 Y-2.80630
G01 X-3.47786 Y-2.80633
G01 X-3.47776 Y-2.80635
G01 X-3.47766 Y-2.80637
G01 X-3.47756 Y-2.80640
G01 X-3.47746 Y-2.80642
G01 X-3.47726 Y-2.80647
G01 X-3.47716 Y-2.80649
G01 X-3.47706 Y-2.80651
G01 X-3.47685 Y-2.80656
G01 X-3.47675 Y-2.80658
G01 X-3.47665 Y-2.80661
G01 X-3.47660 Y-2.80662
G01 X-3.47655 Y-2.80663
G01 X-3.47645 Y-2.80666
G01 X-3.47635 Y-2.80668
G01 X-3.47614 Y-2.80673
G01 X-3.47604 Y-2.80675
G01 X-3.47594 Y-2.80678
G01 X-3.47584 Y-2.80680
G01 X-3.47574 Y-2.80683
G01 X-3.47564 Y-2.80685
G01 X-3.47553 Y-2.80688
G01 X-3.47549 Y-2.80689
G01 X-3.47544 Y-2.80690
G01 X-3.47533 Y-2.80693
G01 X-3.47523 Y-2.80695
G01 X-3.47491 Y-2.80703
G01 X-3.47481 Y-2.80706
G01 X-3.47472 Y-2.80708
G01 X-3.47441 Y-2.80716
G01 X-3.47431 Y-2.80719
G01 X-3.47411 Y-2.80724
G01 X-3.47378 Y-2.80733
G01 X-3.47374 Y-2.80734
G01 X-3.47370 Y-2.80735
G01 X-3.47338 Y-2.80744
G01 X-3.47328 Y-2.80747
G01 X-3.47318 Y-2.80749
G01 X-3.47308 Y-2.80752
G01 X-3.47287 Y-2.80758
G01 X-3.47277 Y-2.80761
G01 X-3.47265 Y-2.80764
G01 X-3.47261 Y-2.80765
G01 X-3.47257 Y-2.80766
G01 X-3.47224 Y-2.80776
G01 X-3.47214 Y-2.80778
G01 X-3.47204 Y-2.80781
G01 X-3.47191 Y-2.80785
G01 X-3.47181 Y-2.80788
G01 X-3.47174 Y-2.80790
G01 X-3.47164 Y-2.80793
G01 X-3.47151 Y-2.80797
G01 X-3.47141 Y-2.80800
G01 X-3.47131 Y-2.80803
G01 X-3.47110 Y-2.80809
G01 X-3.47100 Y-2.80812
G01 X-3.47087 Y-2.80816
G01 X-3.47084 Y-2.80817
G01 X-3.47080 Y-2.80818
G01 X-3.47046 Y-2.80828
G01 X-3.47036 Y-2.80831
G01 X-3.47026 Y-2.80834
G01 X-3.47016 Y-2.80837
G01 X-3.46982 Y-2.80848
G01 X-3.46979 Y-2.80849
G01 X-3.46976 Y-2.80850
G01 X-3.46962 Y-2.80854
G01 X-3.46952 Y-2.80857
G01 X-3.46937 Y-2.80862
G01 X-3.46928 Y-2.80865
G01 X-3.46922 Y-2.80867
G01 X-3.46911 Y-2.80870
G01 X-3.46897 Y-2.80875
G01 X-3.46887 Y-2.80878
G01 X-3.46881 Y-2.80880
G01 X-3.46871 Y-2.80883
G01 X-3.46856 Y-2.80888
G01 X-3.46847 Y-2.80891
G01 X-3.46832 Y-2.80896
G01 X-3.46829 Y-2.80897
G01 X-3.46827 Y-2.80898
G01 X-3.46791 Y-2.80909
G01 X-3.46781 Y-2.80912
G01 X-3.46771 Y-2.80916
G01 X-3.46751 Y-2.80923
G01 X-3.46743 Y-2.80925
G01 X-3.46736 Y-2.80928
G01 X-3.46731 Y-2.80929
G01 X-3.46721 Y-2.80933
G01 X-3.46685 Y-2.80945
G01 X-3.46677 Y-2.80948
G01 X-3.46669 Y-2.80950
G01 X-3.46665 Y-2.80952
G01 X-3.46655 Y-2.80955
G01 X-3.46639 Y-2.80961
G01 X-3.46629 Y-2.80965
G01 X-3.46608 Y-2.80972
G01 X-3.46598 Y-2.80975
G01 X-3.46588 Y-2.80979
G01 X-3.46578 Y-2.80982
G01 X-3.46542 Y-2.80995
G01 X-3.46522 Y-2.81003
G01 X-3.46511 Y-2.81006
G01 X-3.46491 Y-2.81014
G01 X-3.46483 Y-2.81017
G01 X-3.46475 Y-2.81020
G01 X-3.46454 Y-2.81027
G01 X-3.46444 Y-2.81031
G01 X-3.46424 Y-2.81038
G01 X-3.46386 Y-2.81052
G01 X-3.46376 Y-2.81056
G01 X-3.46366 Y-2.81060
G01 X-3.46346 Y-2.81068
G01 X-3.46337 Y-2.81071
G01 X-3.46328 Y-2.81074
G01 X-3.46326 Y-2.81075
G01 X-3.46316 Y-2.81079
G01 X-3.46278 Y-2.81094
G01 X-3.46269 Y-2.81097
G01 X-3.46259 Y-2.81101
G01 X-3.46258 Y-2.81102
G01 X-3.46248 Y-2.81106
G01 X-3.46229 Y-2.81113
G01 X-3.46219 Y-2.81117
G01 X-3.46199 Y-2.81125
G01 X-3.46189 Y-2.81129
G01 X-3.46179 Y-2.81133
G01 X-3.46160 Y-2.81140
G01 X-3.46150 Y-2.81144
G01 X-3.46140 Y-2.81148
G01 X-3.46120 Y-2.81156
G01 X-3.46060 Y-2.81181
G01 X-3.46040 Y-2.81189
G01 X-3.46030 Y-2.81193
G01 X-3.46020 Y-2.81197
G01 X-3.46000 Y-2.81206
G01 X-3.45990 Y-2.81210
G01 X-3.45970 Y-2.81218
G01 X-3.45960 Y-2.81223
G01 X-3.45950 Y-2.81227
G01 X-3.45940 Y-2.81231
G01 X-3.45900 Y-2.81248
G01 X-3.45859 Y-2.81266
G01 X-3.45849 Y-2.81270
G01 X-3.45840 Y-2.81274
G01 X-3.45839 Y-2.81275
G01 X-3.45829 Y-2.81279
G01 X-3.45788 Y-2.81297
G01 X-3.45767 Y-2.81306
G01 X-3.45757 Y-2.81310
G01 X-3.45735 Y-2.81320
G01 X-3.45726 Y-2.81324
G01 X-3.45717 Y-2.81328
G01 X-3.45695 Y-2.81338
G01 X-3.45685 Y-2.81343
G01 X-3.45675 Y-2.81347
G01 X-3.45656 Y-2.81356
G01 X-3.45646 Y-2.81361
G01 X-3.45623 Y-2.81371
G01 X-3.45613 Y-2.81376
G01 X-3.45603 Y-2.81380
G01 X-3.45593 Y-2.81385
G01 X-3.45570 Y-2.81396
G01 X-3.45562 Y-2.81399
G01 X-3.45553 Y-2.81403
G01 X-3.45507 Y-2.81425
G01 X-3.45499 Y-2.81429
G01 X-3.45491 Y-2.81433
G01 X-3.45487 Y-2.81435
G01 X-3.45477 Y-2.81439
G01 X-3.45470 Y-2.81442
G01 X-3.45468 Y-2.81457
G01 X-3.45465 Y-2.81468
G01 X-3.45464 Y-2.81479
G01 X-3.45459 Y-2.81506
G01 X-3.45457 Y-2.81517
G01 X-3.45453 Y-2.81538
G01 X-3.45452 Y-2.81540
G01 X-3.45444 Y-2.81587
G01 X-3.45442 Y-2.81598
G01 X-3.45438 Y-2.81618
G01 X-3.45438 Y-2.81620
G01 X-3.45434 Y-2.81640
G01 X-3.45431 Y-2.81651
G01 X-3.45426 Y-2.81677
G01 X-3.45424 Y-2.81688
G01 X-3.45422 Y-2.81698
G01 X-3.45417 Y-2.81724
G01 X-3.45415 Y-2.81735
G01 X-3.45411 Y-2.81754
G01 X-3.45409 Y-2.81765
G01 X-3.45407 Y-2.81775
G01 X-3.45405 Y-2.81786
G01 X-3.45399 Y-2.81812
G01 X-3.45397 Y-2.81822
G01 X-3.45394 Y-2.81840
G01 X-3.45391 Y-2.81851
G01 X-3.45389 Y-2.81862
G01 X-3.45384 Y-2.81887
G01 X-3.45382 Y-2.81898
G01 X-3.45379 Y-2.81908
G01 X-3.45377 Y-2.81919
G01 X-3.45368 Y-2.81961
G01 X-3.45366 Y-2.81971
G01 X-3.45363 Y-2.81982
G01 X-3.45361 Y-2.81992
G01 X-3.45356 Y-2.82017
G01 X-3.45353 Y-2.82027
G01 X-3.45350 Y-2.82043
G01 X-3.45348 Y-2.82054
G01 X-3.45345 Y-2.82064
G01 X-3.45340 Y-2.82089
G01 X-3.45337 Y-2.82099
G01 X-3.45335 Y-2.82110
G01 X-3.45332 Y-2.82120
G01 X-3.45324 Y-2.82158
G01 X-3.45313 Y-2.82203
G01 X-3.45304 Y-2.82239
G01 X-3.45304 Y-2.82242
G01 X-3.45303 Y-2.82245
G01 X-3.45294 Y-2.82284
G01 X-3.45291 Y-2.82294
G01 X-3.45289 Y-2.82304
G01 X-3.45286 Y-2.82314
G01 X-3.45277 Y-2.82352
G01 X-3.45276 Y-2.82355
G01 X-3.45275 Y-2.82358
G01 X-3.45271 Y-2.82372
G01 X-3.45269 Y-2.82382
G01 X-3.45263 Y-2.82406
G01 X-3.45260 Y-2.82416
G01 X-3.45258 Y-2.82426
G01 X-3.45254 Y-2.82439
G01 X-3.45254 Y-2.82441
G01 X-3.45252 Y-2.82449
G01 X-3.45249 Y-2.82459
G01 X-3.45247 Y-2.82469
G01 X-3.45243 Y-2.82482
G01 X-3.45241 Y-2.82492
G01 X-3.45238 Y-2.82502
G01 X-3.45232 Y-2.82526
G01 X-3.45230 Y-2.82536
G01 X-3.45227 Y-2.82548
G01 X-3.45226 Y-2.82552
G01 X-3.45225 Y-2.82556
G01 X-3.45216 Y-2.82592
G01 X-3.45213 Y-2.82602
G01 X-3.45211 Y-2.82612
G01 X-3.45208 Y-2.82622
G01 X-3.45203 Y-2.82645
G01 X-3.45200 Y-2.82655
G01 X-3.45198 Y-2.82667
G01 X-3.45195 Y-2.82677
G01 X-3.45192 Y-2.82689
G01 X-3.45192 Y-2.82693
G01 X-3.45191 Y-2.82697
G01 X-3.45180 Y-2.82742
G01 X-3.45175 Y-2.82764
G01 X-3.45173 Y-2.82774
G01 X-3.45170 Y-2.82786
G01 X-3.45168 Y-2.82796
G01 X-3.45165 Y-2.82808
G01 X-3.45163 Y-2.82818
G01 X-3.45161 Y-2.82829
G01 X-3.45158 Y-2.82839
G01 X-3.45156 Y-2.82849
G01 X-3.45151 Y-2.82873
G01 X-3.45149 Y-2.82883
G01 X-3.45147 Y-2.82893
G01 X-3.45145 Y-2.82903
G01 X-3.45142 Y-2.82913
G01 X-3.45140 Y-2.82926
G01 X-3.45138 Y-2.82936
G01 X-3.45135 Y-2.82947
G01 X-3.45133 Y-2.82957
G01 X-3.45131 Y-2.82967
G01 X-3.45126 Y-2.82990
G01 X-3.45124 Y-2.83000
G01 X-3.45122 Y-2.83010
G01 X-3.45117 Y-2.83037
G01 X-3.45107 Y-2.83086
G01 X-3.45103 Y-2.83107
G01 X-3.45101 Y-2.83117
G01 X-3.45099 Y-2.83127
G01 X-3.45095 Y-2.83151
G01 X-3.45093 Y-2.83161
G01 X-3.45091 Y-2.83171
G01 X-3.45086 Y-2.83197
G01 X-3.45078 Y-2.83245
G01 X-3.45074 Y-2.83267
G01 X-3.45072 Y-2.83277
G01 X-3.45070 Y-2.83287
G01 X-3.45065 Y-2.83319
G01 X-3.45064 Y-2.83325
G01 X-3.45063 Y-2.83331
G01 X-3.45061 Y-2.83339
G01 X-3.45060 Y-2.83349
G01 X-3.45057 Y-2.83365
G01 X-3.45055 Y-2.83375
G01 X-3.45054 Y-2.83383
G01 X-3.45052 Y-2.83393
G01 X-3.45051 Y-2.83403
G01 X-3.45047 Y-2.83426
G01 X-3.45045 Y-2.83436
G01 X-3.45044 Y-2.83444
G01 X-3.45043 Y-2.83454
G01 X-3.45040 Y-2.83470
G01 X-3.45038 Y-2.83480
G01 X-3.45037 Y-2.83490
G01 X-3.45036 Y-2.83498
G01 X-3.45034 Y-2.83507
G01 X-3.45031 Y-2.83531
G01 X-3.45030 Y-2.83537
G01 X-3.45029 Y-2.83544
G01 X-3.45025 Y-2.83573
G01 X-3.45018 Y-2.83618
G01 X-3.45018 Y-2.83620
G01 X-3.45018 Y-2.83622
G01 X-3.45015 Y-2.83638
G01 X-3.45014 Y-2.83648
G01 X-3.45013 Y-2.83658
G01 X-3.45009 Y-2.83689
G01 X-3.45008 Y-2.83695
G01 X-3.45007 Y-2.83702
G01 X-3.45003 Y-2.83732
G01 X-3.45002 Y-2.83742
G01 X-3.45000 Y-2.83752
G01 X-3.44999 Y-2.83762
G01 X-3.44998 Y-2.83772
G01 X-3.44995 Y-2.83796
G01 X-3.44994 Y-2.83806
G01 X-3.44991 Y-2.83829
G01 X-3.44990 Y-2.83839
G01 X-3.44989 Y-2.83845
G01 X-3.44988 Y-2.83852
G01 X-3.44987 Y-2.83859
G01 X-3.44987 Y-2.83865
G01 X-3.44985 Y-2.83875
G01 X-3.44983 Y-2.83893
G01 X-3.44982 Y-2.83903
G01 X-3.44982 Y-2.83908
G01 X-3.44981 Y-2.83919
G01 X-3.44978 Y-2.83942
G01 X-3.44977 Y-2.83950
G01 X-3.44976 Y-2.83957
G01 X-3.44976 Y-2.83962
G01 X-3.44975 Y-2.83972
G01 X-3.44972 Y-2.83996
G01 X-3.44971 Y-2.84006
G01 X-3.44970 Y-2.84016
G01 X-3.44968 Y-2.84044
G01 X-3.44967 Y-2.84052
G01 X-3.44966 Y-2.84059
G01 X-3.44965 Y-2.84069
G01 X-3.44963 Y-2.84093
G01 X-3.44962 Y-2.84103
G01 X-3.44962 Y-2.84107
G01 X-3.44961 Y-2.84117
G01 X-3.44959 Y-2.84137
G01 X-3.44955 Y-2.84181
G01 X-3.44953 Y-2.84204
G01 X-3.44952 Y-2.84214
G01 X-3.44951 Y-2.84238
G01 X-3.44950 Y-2.84248
G01 X-3.44949 Y-2.84258
G01 X-3.44948 Y-2.84268
G01 X-3.44948 Y-2.84278
G01 X-3.44946 Y-2.84302
G01 X-3.44945 Y-2.84312
G01 X-3.44944 Y-2.84334
G01 X-3.44942 Y-2.84355
G01 X-3.44942 Y-2.84365
G01 X-3.44940 Y-2.84392
G01 X-3.44939 Y-2.84401
G01 X-3.44939 Y-2.84409
G01 X-3.44938 Y-2.84419
G01 X-3.44937 Y-2.84445
G01 X-3.44936 Y-2.84454
G01 X-3.44936 Y-2.84463
G01 X-3.44936 Y-2.84465
G01 X-3.44935 Y-2.84475
G01 X-3.44934 Y-2.84497
G01 X-3.44934 Y-2.84506
G01 X-3.44933 Y-2.84509
G01 X-3.44933 Y-2.84519
G01 X-3.44932 Y-2.84540
G01 X-3.44931 Y-2.84550
G01 X-3.44931 Y-2.84552
G01 X-3.44931 Y-2.84562
G01 X-3.44930 Y-2.84584
G01 X-3.44929 Y-2.84604
G01 X-3.44929 Y-2.84614
G01 X-3.44928 Y-2.84639
G01 X-3.44927 Y-2.84650
G01 X-3.44927 Y-2.84660
G01 X-3.44927 Y-2.84670
G01 X-3.44926 Y-2.84693
G01 X-3.44926 Y-2.84702
G01 X-3.44925 Y-2.84712
G01 X-3.44925 Y-2.84737
G01 X-3.44924 Y-2.84747
G01 X-3.44924 Y-2.84757
G01 X-3.44924 Y-2.84767
G01 X-3.44923 Y-2.84790
G01 X-3.44923 Y-2.84800
G01 X-3.44923 Y-2.84810
G01 X-3.44923 Y-2.84820
G01 X-3.44922 Y-2.84844
G01 X-3.44922 Y-2.84854
G01 X-3.44922 Y-2.84864
G01 X-3.44922 Y-2.84888
G01 X-3.44922 Y-2.84898
G01 X-3.44922 Y-2.84908
G01 X-3.44921 Y-2.84929
G01 X-3.44921 Y-2.84973
G01 X-3.44921 Y-2.84995
G01 X-3.44921 Y-2.85005
G01 X-3.44921 Y-2.85027
G01 X-3.44921 Y-2.85070
G01 X-3.44922 Y-2.85092
G01 X-3.44922 Y-2.85102
G01 X-3.44922 Y-2.85112
G01 X-3.44922 Y-2.85136
G01 X-3.44922 Y-2.85146
G01 X-3.44922 Y-2.85156
G01 X-3.44923 Y-2.85179
G01 X-3.44923 Y-2.85189
G01 X-3.44923 Y-2.85199
G01 X-3.44923 Y-2.85209
G01 X-3.44924 Y-2.85233
G01 X-3.44924 Y-2.85243
G01 X-3.44924 Y-2.85253
G01 X-3.44925 Y-2.85263
G01 X-3.44925 Y-2.85288
G01 X-3.44926 Y-2.85297
G01 X-3.44926 Y-2.85307
G01 X-3.44927 Y-2.85330
G01 X-3.44927 Y-2.85340
G01 X-3.44927 Y-2.85350
G01 X-3.44928 Y-2.85360
G01 X-3.44929 Y-2.85386
G01 X-3.44929 Y-2.85396
G01 X-3.44930 Y-2.85416
G01 X-3.44931 Y-2.85437
G01 X-3.44931 Y-2.85447
G01 X-3.44931 Y-2.85450
G01 X-3.44932 Y-2.85460
G01 X-3.44933 Y-2.85481
G01 X-3.44933 Y-2.85491
G01 X-3.44934 Y-2.85493
G01 X-3.44934 Y-2.85503
G01 X-3.44935 Y-2.85524
G01 X-3.44936 Y-2.85534
G01 X-3.44936 Y-2.85537
G01 X-3.44936 Y-2.85546
G01 X-3.44937 Y-2.85554
G01 X-3.44938 Y-2.85581
G01 X-3.44939 Y-2.85591
G01 X-3.44939 Y-2.85599
G01 X-3.44940 Y-2.85608
G01 X-3.44942 Y-2.85635
G01 X-3.44942 Y-2.85644
G01 X-3.44944 Y-2.85666
G01 X-3.44945 Y-2.85688
G01 X-3.44946 Y-2.85698
G01 X-3.44948 Y-2.85722
G01 X-3.44948 Y-2.85732
G01 X-3.44949 Y-2.85742
G01 X-3.44950 Y-2.85752
G01 X-3.44951 Y-2.85762
G01 X-3.44952 Y-2.85785
G01 X-3.44953 Y-2.85795
G01 X-3.44955 Y-2.85819
G01 X-3.44959 Y-2.85862
G01 X-3.44961 Y-2.85882
G01 X-3.44962 Y-2.85893
G01 X-3.44962 Y-2.85897
G01 X-3.44963 Y-2.85907
G01 X-3.44965 Y-2.85930
G01 X-3.44966 Y-2.85940
G01 X-3.44967 Y-2.85948
G01 X-3.44968 Y-2.85956
G01 X-3.44970 Y-2.85984
G01 X-3.44971 Y-2.85994
G01 X-3.44972 Y-2.86004
G01 X-3.44975 Y-2.86028
G01 X-3.44976 Y-2.86038
G01 X-3.44976 Y-2.86043
G01 X-3.44977 Y-2.86050
G01 X-3.44978 Y-2.86058
G01 X-3.44981 Y-2.86081
G01 X-3.44982 Y-2.86091
G01 X-3.44982 Y-2.86097
G01 X-3.44983 Y-2.86107
G01 X-3.44985 Y-2.86125
G01 X-3.44987 Y-2.86135
G01 X-3.44987 Y-2.86140
G01 X-3.44988 Y-2.86148
G01 X-3.44989 Y-2.86155
G01 X-3.44990 Y-2.86160
G01 X-3.44991 Y-2.86170
G01 X-3.44994 Y-2.86194
G01 X-3.44995 Y-2.86204
G01 X-3.44998 Y-2.86228
G01 X-3.44999 Y-2.86238
G01 X-3.45000 Y-2.86248
G01 X-3.45002 Y-2.86258
G01 X-3.45003 Y-2.86268
G01 X-3.45007 Y-2.86298
G01 X-3.45008 Y-2.86305
G01 X-3.45009 Y-2.86311
G01 X-3.45013 Y-2.86341
G01 X-3.45014 Y-2.86351
G01 X-3.45015 Y-2.86361
G01 X-3.45018 Y-2.86378
G01 X-3.45018 Y-2.86380
G01 X-3.45018 Y-2.86382
G01 X-3.45025 Y-2.86427
G01 X-3.45029 Y-2.86456
G01 X-3.45030 Y-2.86462
G01 X-3.45031 Y-2.86469
G01 X-3.45034 Y-2.86492
G01 X-3.45036 Y-2.86502
G01 X-3.45037 Y-2.86510
G01 X-3.45038 Y-2.86520
G01 X-3.45040 Y-2.86530
G01 X-3.45043 Y-2.86546
G01 X-3.45044 Y-2.86556
G01 X-3.45045 Y-2.86564
G01 X-3.45047 Y-2.86573
G01 X-3.45051 Y-2.86597
G01 X-3.45052 Y-2.86607
G01 X-3.45054 Y-2.86617
G01 X-3.45055 Y-2.86625
G01 X-3.45057 Y-2.86635
G01 X-3.45060 Y-2.86651
G01 X-3.45061 Y-2.86661
G01 X-3.45063 Y-2.86669
G01 X-3.45064 Y-2.86675
G01 X-3.45065 Y-2.86681
G01 X-3.45070 Y-2.86713
G01 X-3.45072 Y-2.86723
G01 X-3.45074 Y-2.86733
G01 X-3.45078 Y-2.86754
G01 X-3.45086 Y-2.86802
G01 X-3.45091 Y-2.86829
G01 X-3.45093 Y-2.86839
G01 X-3.45095 Y-2.86849
G01 X-3.45099 Y-2.86872
G01 X-3.45101 Y-2.86882
G01 X-3.45103 Y-2.86892
G01 X-3.45107 Y-2.86914
G01 X-3.45117 Y-2.86963
G01 X-3.45122 Y-2.86990
G01 X-3.45124 Y-2.86999
G01 X-3.45126 Y-2.87010
G01 X-3.45131 Y-2.87033
G01 X-3.45133 Y-2.87043
G01 X-3.45135 Y-2.87053
G01 X-3.45138 Y-2.87064
G01 X-3.45140 Y-2.87073
G01 X-3.45142 Y-2.87087
G01 X-3.45145 Y-2.87097
G01 X-3.45147 Y-2.87107
G01 X-3.45149 Y-2.87117
G01 X-3.45151 Y-2.87127
G01 X-3.45156 Y-2.87151
G01 X-3.45158 Y-2.87161
G01 X-3.45161 Y-2.87171
G01 X-3.45163 Y-2.87182
G01 X-3.45165 Y-2.87192
G01 X-3.45168 Y-2.87204
G01 X-3.45170 Y-2.87214
G01 X-3.45173 Y-2.87226
G01 X-3.45175 Y-2.87235
G01 X-3.45180 Y-2.87257
G01 X-3.45191 Y-2.87303
G01 X-3.45192 Y-2.87307
G01 X-3.45192 Y-2.87311
G01 X-3.45195 Y-2.87323
G01 X-3.45198 Y-2.87333
G01 X-3.45200 Y-2.87344
G01 X-3.45203 Y-2.87354
G01 X-3.45208 Y-2.87378
G01 X-3.45211 Y-2.87388
G01 X-3.45213 Y-2.87398
G01 X-3.45216 Y-2.87408
G01 X-3.45225 Y-2.87444
G01 X-3.45226 Y-2.87448
G01 X-3.45227 Y-2.87452
G01 X-3.45230 Y-2.87464
G01 X-3.45232 Y-2.87474
G01 X-3.45238 Y-2.87498
G01 X-3.45241 Y-2.87508
G01 X-3.45243 Y-2.87518
G01 X-3.45247 Y-2.87530
G01 X-3.45249 Y-2.87541
G01 X-3.45252 Y-2.87551
G01 X-3.45254 Y-2.87559
G01 X-3.45254 Y-2.87561
G01 X-3.45258 Y-2.87574
G01 X-3.45260 Y-2.87584
G01 X-3.45263 Y-2.87594
G01 X-3.45269 Y-2.87618
G01 X-3.45271 Y-2.87628
G01 X-3.45275 Y-2.87642
G01 X-3.45276 Y-2.87645
G01 X-3.45277 Y-2.87648
G01 X-3.45286 Y-2.87686
G01 X-3.45289 Y-2.87696
G01 X-3.45291 Y-2.87706
G01 X-3.45294 Y-2.87716
G01 X-3.45303 Y-2.87755
G01 X-3.45304 Y-2.87757
G01 X-3.45304 Y-2.87760
G01 X-3.45313 Y-2.87797
G01 X-3.45324 Y-2.87842
G01 X-3.45332 Y-2.87880
G01 X-3.45335 Y-2.87890
G01 X-3.45337 Y-2.87900
G01 X-3.45340 Y-2.87911
G01 X-3.45345 Y-2.87935
G01 X-3.45348 Y-2.87946
G01 X-3.45350 Y-2.87956
G01 X-3.45353 Y-2.87973
G01 X-3.45356 Y-2.87983
G01 X-3.45361 Y-2.88008
G01 X-3.45363 Y-2.88018
G01 X-3.45366 Y-2.88029
G01 X-3.45368 Y-2.88039
G01 X-3.45377 Y-2.88081
G01 X-3.45379 Y-2.88092
G01 X-3.45382 Y-2.88102
G01 X-3.45384 Y-2.88113
G01 X-3.45389 Y-2.88138
G01 X-3.45391 Y-2.88149
G01 X-3.45394 Y-2.88159
G01 X-3.45397 Y-2.88178
G01 X-3.45399 Y-2.88188
G01 X-3.45405 Y-2.88214
G01 X-3.45407 Y-2.88224
G01 X-3.45409 Y-2.88235
G01 X-3.45411 Y-2.88246
G01 X-3.45415 Y-2.88265
G01 X-3.45417 Y-2.88276
G01 X-3.45422 Y-2.88301
G01 X-3.45424 Y-2.88312
G01 X-3.45426 Y-2.88323
G01 X-3.45431 Y-2.88349
G01 X-3.45434 Y-2.88360
G01 X-3.45438 Y-2.88380
G01 X-3.45438 Y-2.88382
G01 X-3.45442 Y-2.88402
G01 X-3.45444 Y-2.88413
G01 X-3.45452 Y-2.88460
G01 X-3.45453 Y-2.88462
G01 X-3.45457 Y-2.88483
G01 X-3.45459 Y-2.88494
G01 X-3.45464 Y-2.88520
G01 X-3.45465 Y-2.88532
G01 X-3.45468 Y-2.88543
G01 X-3.45472 Y-2.88565
G01 X-3.45473 Y-2.88576
G01 X-3.45474 Y-2.88581
G01 X-3.45476 Y-2.88590
G01 X-3.45477 Y-2.88599
G01 X-3.45487 Y-2.88653
G01 X-3.45488 Y-2.88662
G01 X-3.45490 Y-2.88672
G01 X-3.45495 Y-2.88699
G01 X-3.45497 Y-2.88711
G01 X-3.45499 Y-2.88722
G01 X-3.45500 Y-2.88734
G01 X-3.45505 Y-2.88761
G01 X-3.45507 Y-2.88773
G01 X-3.45511 Y-2.88797
G01 X-3.45513 Y-2.88809
G01 X-3.45515 Y-2.88821
G01 X-3.45519 Y-2.88849
G01 X-3.45521 Y-2.88859
G01 X-3.45522 Y-2.88869
G01 X-3.45527 Y-2.88898
G01 X-3.45529 Y-2.88910
G01 X-3.45533 Y-2.88936
G01 X-3.45541 Y-2.88989
G01 X-3.45543 Y-2.89001
G01 X-3.45543 Y-2.89003
G01 X-3.45545 Y-2.89014
G01 X-3.45546 Y-2.89025
G01 X-3.45555 Y-2.89080
G01 X-3.45563 Y-2.89136
G01 X-3.45565 Y-2.89148
G01 X-3.45566 Y-2.89160
G01 X-3.45568 Y-2.89173
G01 X-3.45572 Y-2.89202
G01 X-3.45574 Y-2.89215
G01 X-3.45578 Y-2.89245
G01 X-3.45580 Y-2.89257
G01 X-3.45581 Y-2.89270
G01 X-3.45585 Y-2.89297
G01 X-3.45597 Y-2.89385
G01 X-3.45601 Y-2.89414
G01 X-3.45602 Y-2.89427
G01 X-3.45604 Y-2.89440
G01 X-3.45608 Y-2.89471
G01 X-3.45610 Y-2.89484
G01 X-3.45611 Y-2.89497
G01 X-3.45615 Y-2.89531
G01 X-3.45617 Y-2.89544
G01 X-3.45621 Y-2.89576
G01 X-3.45623 Y-2.89589
G01 X-3.45623 Y-2.89592
G01 X-3.45624 Y-2.89604
G01 X-3.45626 Y-2.89615
G01 X-3.45634 Y-2.89684
G01 X-3.45636 Y-2.89698
G01 X-3.45636 Y-2.89702
G01 X-3.45637 Y-2.89713
G01 X-3.45639 Y-2.89724
G01 X-3.45643 Y-2.89762
G01 X-3.45644 Y-2.89775
G01 X-3.45646 Y-2.89789
G01 X-3.45654 Y-2.89855
G01 X-3.45657 Y-2.89889
G01 X-3.45659 Y-2.89903
G01 X-3.45663 Y-2.89943
G01 X-3.45664 Y-2.89954
G01 X-3.45665 Y-2.89965
G01 X-3.45670 Y-2.90006
G01 X-3.45671 Y-2.90020
G01 X-3.45675 Y-2.90055
G01 X-3.45682 Y-2.90127
G01 X-3.45684 Y-2.90141
G01 X-3.45685 Y-2.90155
G01 X-3.45687 Y-2.90170
G01 X-3.45691 Y-2.90215
G01 X-3.45692 Y-2.90229
G01 X-3.45696 Y-2.90266
G01 X-3.45697 Y-2.90281
G01 X-3.45698 Y-2.90291
G01 X-3.45699 Y-2.90300
G01 X-3.45700 Y-2.90309
G01 X-3.45708 Y-2.90395
G01 X-3.45709 Y-2.90410
G01 X-3.45711 Y-2.90422
G01 X-3.45711 Y-2.90430
G01 X-3.45712 Y-2.90439
G01 X-3.45717 Y-2.90490
G01 X-3.45718 Y-2.90505
G01 X-3.45719 Y-2.90520
G01 X-3.45727 Y-2.90607
G01 X-3.45730 Y-2.90642
G01 X-3.45731 Y-2.90657
G01 X-3.45735 Y-2.90697
G01 X-3.45736 Y-2.90712
G01 X-3.45737 Y-2.90728
G01 X-3.45738 Y-2.90743
G01 X-3.45742 Y-2.90784
G01 X-3.45743 Y-2.90799
G01 X-3.45744 Y-2.90816
G01 X-3.45746 Y-2.90832
G01 X-3.45749 Y-2.90873
G01 X-3.45750 Y-2.90889
G01 X-3.45753 Y-2.90925
G01 X-3.45761 Y-2.91024
G01 X-3.45762 Y-2.91040
G01 X-3.45763 Y-2.91056
G01 X-3.45764 Y-2.91072
G01 X-3.45772 Y-2.91175
G01 X-3.45774 Y-2.91213
G01 X-3.45776 Y-2.91230
G01 X-3.45780 Y-2.91298
G01 X-3.45782 Y-2.91315
G01 X-3.45783 Y-2.91331
G01 X-3.45786 Y-2.91376
G01 X-3.45787 Y-2.91393
G01 X-3.45789 Y-2.91419
G01 X-3.45790 Y-2.91436
G01 X-3.45793 Y-2.91482
G01 X-3.45794 Y-2.91499
G01 X-3.45795 Y-2.91517
G01 X-3.45802 Y-2.91633
G01 X-3.45805 Y-2.91674
G01 X-3.45806 Y-2.91692
G01 X-3.45811 Y-2.91772
G01 X-3.45812 Y-2.91790
G01 X-3.45813 Y-2.91807
G01 X-3.45814 Y-2.91825
G01 X-3.45822 Y-2.91952
G01 X-3.45827 Y-2.92057
G01 X-3.45831 Y-2.92121
G01 X-3.45832 Y-2.92139
G01 X-3.45838 Y-2.92257
G01 X-3.45839 Y-2.92271
G01 X-3.45840 Y-2.92289
G01 X-3.45848 Y-2.92441
G01 X-3.45849 Y-2.92461
G01 X-3.45851 Y-2.92507
G01 X-3.45853 Y-2.92554
G01 X-3.45854 Y-2.92574
G01 X-3.45857 Y-2.92624
G01 X-3.45858 Y-2.92643
G01 X-3.45860 Y-2.92699
G01 X-3.45861 Y-2.92719
G01 X-3.45866 Y-2.92830
G01 X-3.45867 Y-2.92850
G01 X-3.45870 Y-2.92900
G01 X-3.45872 Y-2.92949
G01 X-3.45872 Y-2.92970
G01 X-3.45878 Y-2.93088
G01 X-3.45879 Y-2.93109
G01 X-3.45879 Y-2.93130
G01 X-3.45885 Y-2.93255
G01 X-3.45885 Y-2.93276
G01 X-3.45886 Y-2.93297
G01 X-3.45889 Y-2.93359
G01 X-3.45890 Y-2.93381
G01 X-3.45892 Y-2.93451
G01 X-3.45893 Y-2.93472
G01 X-3.45896 Y-2.93536
G01 X-3.45896 Y-2.93558
G01 X-3.45897 Y-2.93580
G01 X-3.45903 Y-2.93721
G01 X-3.45903 Y-2.93743
G01 X-3.45904 Y-2.93766
G01 X-3.45910 Y-2.93928
G01 X-3.45916 Y-2.94096
G01 X-3.45920 Y-2.94234
G01 X-3.45921 Y-2.94258
G01 X-3.45923 Y-2.94328
G01 X-3.45924 Y-2.94352
G01 X-3.45927 Y-2.94451
G01 X-3.45928 Y-2.94476
G01 X-3.45928 Y-2.94500
G01 X-3.45931 Y-2.94572
G01 X-3.45931 Y-2.94597
G01 X-3.45937 Y-2.94779
G01 X-3.45938 Y-2.94804
G01 X-3.45938 Y-2.94829
G01 X-3.45939 Y-2.94854
G01 X-3.45944 Y-2.95048
G01 X-3.45945 Y-2.95074
G01 X-3.45947 Y-2.95151
G01 X-3.45948 Y-2.95178
G01 X-3.45950 Y-2.95267
G01 X-3.45954 Y-2.95440
G01 X-3.45341 Y-2.98077
G01 X-3.44460 Y-3.00981
G01 X-3.44028 Y-3.00983
G01 X-3.43485 Y-3.00981
G01 X-3.42559 Y-3.00967
G01 X-3.42165 Y-3.00964
G01 X-3.41282 Y-3.00964
G01 X-3.41213 Y-3.01013
G01 X-3.41203 Y-3.01020
G01 X-3.41172 Y-3.01041
G01 X-3.41126 Y-3.01073
G01 X-3.41116 Y-3.01080
G01 X-3.41039 Y-3.01133
G01 X-3.41029 Y-3.01140
G01 X-3.40982 Y-3.01173
G01 X-3.40972 Y-3.01179
G01 X-3.40962 Y-3.01186
G01 X-3.40952 Y-3.01193
G01 X-3.40829 Y-3.01276
G01 X-3.40820 Y-3.01283
G01 X-3.40809 Y-3.01290
G01 X-3.40800 Y-3.01297
G01 X-3.40789 Y-3.01304
G01 X-3.40669 Y-3.01385
G01 X-3.40659 Y-3.01392
G01 X-3.40624 Y-3.01415
G01 X-3.40590 Y-3.01438
G01 X-3.40580 Y-3.01445
G01 X-3.40535 Y-3.01475
G01 X-3.40441 Y-3.01537
G01 X-3.40431 Y-3.01544
G01 X-3.40421 Y-3.01551
G01 X-3.40310 Y-3.01623
G01 X-3.40180 Y-3.01709
G01 X-3.40160 Y-3.01722
G01 X-3.40013 Y-3.01817
G01 X-3.39922 Y-3.01875
G01 X-3.39913 Y-3.01881
G01 X-3.39902 Y-3.01888
G01 X-3.39892 Y-3.01894
G01 X-3.39767 Y-3.01974
G01 X-3.39632 Y-3.02059
G01 X-3.39612 Y-3.02072
G01 X-3.39482 Y-3.02153
G01 X-3.39472 Y-3.02159
G01 X-3.39462 Y-3.02165
G01 X-3.39407 Y-3.02199
G01 X-3.39397 Y-3.02205
G01 X-3.39343 Y-3.02239
G01 X-3.39333 Y-3.02245
G01 X-3.39323 Y-3.02251
G01 X-3.39259 Y-3.02290
G01 X-3.39195 Y-3.02329
G01 X-3.39185 Y-3.02335
G01 X-3.39175 Y-3.02341
G01 X-3.39084 Y-3.02396
G01 X-3.39049 Y-3.02418
G01 X-3.39039 Y-3.02424
G01 X-3.38984 Y-3.02457
G01 X-3.38973 Y-3.02463
G01 X-3.38964 Y-3.02469
G01 X-3.38901 Y-3.02506
G01 X-3.38839 Y-3.02543
G01 X-3.38829 Y-3.02549
G01 X-3.38819 Y-3.02555
G01 X-3.38729 Y-3.02608
G01 X-3.38639 Y-3.02661
G01 X-3.38629 Y-3.02667
G01 X-3.38619 Y-3.02673
G01 X-3.38609 Y-3.02679
G01 X-3.38527 Y-3.02727
G01 X-3.38391 Y-3.02805
G01 X-3.38290 Y-3.02863
G01 X-3.38280 Y-3.02868
G01 X-3.38270 Y-3.02874
G01 X-3.38260 Y-3.02880
G01 X-3.38171 Y-3.02930
G01 X-3.38142 Y-3.02947
G01 X-3.38132 Y-3.02953
G01 X-3.38073 Y-3.02986
G01 X-3.38063 Y-3.02991
G01 X-3.38034 Y-3.03008
G01 X-3.37946 Y-3.03056
G01 X-3.37936 Y-3.03062
G01 X-3.37901 Y-3.03081
G01 X-3.37834 Y-3.03118
G01 X-3.37762 Y-3.03158
G01 X-3.36827 Y-3.04143
G01 X-3.36337 Y-3.04683
G01 X-3.34879 Y-3.06453
G01 X-3.34478 Y-3.06993
G01 X-3.33502 Y-3.08448
G01 X-3.33179 Y-3.08989
G01 X-3.32518 Y-3.10221
G01 X-3.32262 Y-3.10762
G01 X-3.31816 Y-3.11836
G01 X-3.31622 Y-3.12376
G01 X-3.31328 Y-3.13343
G01 X-3.31193 Y-3.13883
G01 X-3.31015 Y-3.14775
G01 X-3.30935 Y-3.15315
G01 X-3.30900 Y-3.15577
G01 X-3.31096 Y-3.16191
G01 X-3.31298 Y-3.16754
G01 X-3.31593 Y-3.17469
G01 X-3.31838 Y-3.17988
G01 X-3.32148 Y-3.18569
G01 X-3.32435 Y-3.19047
G01 X-3.32759 Y-3.19532
G01 X-3.33084 Y-3.19971
G01 X-3.33429 Y-3.20392
G01 X-3.33744 Y-3.20738
G01 X-3.33817 Y-3.20773
G01 X-3.34320 Y-3.20982
G01 X-3.34546 Y-3.21063
G01 X-3.34953 Y-3.21063
G01 X-3.35424 Y-3.21063
G01 X-3.36036 Y-3.21063
G01 X-3.36358 Y-3.21063
G01 X-3.36923 Y-3.21063
G01 X-3.37175 Y-3.21063
G01 X-3.37718 Y-3.21063
G01 X-3.37834 Y-3.21063
G01 X-3.42165 Y-3.21063
G01 X-3.42281 Y-3.21063
G01 X-3.42824 Y-3.21063
G01 X-3.43077 Y-3.21063
G01 X-3.43642 Y-3.21063
G01 X-3.43963 Y-3.21063
G01 X-3.44576 Y-3.21063
G01 X-3.45047 Y-3.21063
G01 X-3.45415 Y-3.21063
G01 X-3.45670 Y-3.21155
G01 X-3.46171 Y-3.21363
G01 X-3.46712 Y-3.21618
G01 X-3.47315 Y-3.21941
G01 X-3.47855 Y-3.22265
G01 X-3.48600 Y-3.22765
G01 X-3.49141 Y-3.23166
G01 X-3.50091 Y-3.23949
G01 X-3.50631 Y-3.24438
G01 X-3.51220 Y-3.25000
G01 X-3.65734 Y-3.25000
G01 X-3.66546 Y-3.24856
G01 X-3.66551 Y-3.24854
G01 X-3.66577 Y-3.24839
G01 X-3.66587 Y-3.24834
G01 X-3.66639 Y-3.24804
G01 X-3.66649 Y-3.24799
G01 X-3.66659 Y-3.24793
G01 X-3.66691 Y-3.24776
G01 X-3.66701 Y-3.24770
G01 X-3.66720 Y-3.24760
G01 X-3.66721 Y-3.24759
G01 X-3.66740 Y-3.24749
G01 X-3.66750 Y-3.24743
G01 X-3.66782 Y-3.24725
G01 X-3.66792 Y-3.24720
G01 X-3.66802 Y-3.24715
G01 X-3.66853 Y-3.24687
G01 X-3.66854 Y-3.24686
G01 X-3.66855 Y-3.24686
G01 X-3.66872 Y-3.24676
G01 X-3.66883 Y-3.24671
G01 X-3.66915 Y-3.24653
G01 X-3.66925 Y-3.24648
G01 X-3.66942 Y-3.24639
G01 X-3.66944 Y-3.24638
G01 X-3.66945 Y-3.24637
G01 X-3.66995 Y-3.24611
G01 X-3.67005 Y-3.24606
G01 X-3.67015 Y-3.24600
G01 X-3.67066 Y-3.24573
G01 X-3.67116 Y-3.24547
G01 X-3.67126 Y-3.24541
G01 X-3.67136 Y-3.24536
G01 X-3.67146 Y-3.24531
G01 X-3.67156 Y-3.24526
G01 X-3.67204 Y-3.24501
G01 X-3.67214 Y-3.24496
G01 X-3.67224 Y-3.24491
G01 X-3.67257 Y-3.24473
G01 X-3.67261 Y-3.24471
G01 X-3.67334 Y-3.24434
G01 X-3.67344 Y-3.24429
G01 X-3.67370 Y-3.24416
G01 X-3.67374 Y-3.24414
G01 X-3.67454 Y-3.24374
G01 X-3.67464 Y-3.24369
G01 X-3.67474 Y-3.24364
G01 X-3.67484 Y-3.24359
G01 X-3.67494 Y-3.24354
G01 X-3.67504 Y-3.24349
G01 X-3.67575 Y-3.24313
G01 X-3.67603 Y-3.24300
G01 X-3.67612 Y-3.24295
G01 X-3.67623 Y-3.24290
G01 X-3.67632 Y-3.24285
G01 X-3.67676 Y-3.24263
G01 X-3.67686 Y-3.24259
G01 X-3.67714 Y-3.24245
G01 X-3.67741 Y-3.24232
G01 X-3.67751 Y-3.24227
G01 X-3.67782 Y-3.24212
G01 X-3.67841 Y-3.24184
G01 X-3.67882 Y-3.24165
G01 X-3.67931 Y-3.24142
G01 X-3.67941 Y-3.24137
G01 X-3.67951 Y-3.24132
G01 X-3.67978 Y-3.24120
G01 X-3.68047 Y-3.24088
G01 X-3.68057 Y-3.24083
G01 X-3.68067 Y-3.24078
G01 X-3.68077 Y-3.24074
G01 X-3.68087 Y-3.24069
G01 X-3.68097 Y-3.24065
G01 X-3.68165 Y-3.24034
G01 X-3.68192 Y-3.24021
G01 X-3.68202 Y-3.24017
G01 X-3.68212 Y-3.24012
G01 X-3.68222 Y-3.24008
G01 X-3.68289 Y-3.23977
G01 X-3.68317 Y-3.23965
G01 X-3.68327 Y-3.23961
G01 X-3.68337 Y-3.23956
G01 X-3.68347 Y-3.23952
G01 X-3.68385 Y-3.23935
G01 X-3.68394 Y-3.23931
G01 X-3.68402 Y-3.23927
G01 X-3.68441 Y-3.23911
G01 X-3.68451 Y-3.23906
G01 X-3.68453 Y-3.23905
G01 X-3.68462 Y-3.23901
G01 X-3.68471 Y-3.23897
G01 X-3.68507 Y-3.23882
G01 X-3.68517 Y-3.23878
G01 X-3.68519 Y-3.23877
G01 X-3.68529 Y-3.23873
G01 X-3.68539 Y-3.23868
G01 X-3.68574 Y-3.23853
G01 X-3.68584 Y-3.23849
G01 X-3.68613 Y-3.23837
G01 X-3.68669 Y-3.23813
G01 X-3.68697 Y-3.23801
G01 X-3.68707 Y-3.23797
G01 X-3.68717 Y-3.23793
G01 X-3.68745 Y-3.23781
G01 X-3.68773 Y-3.23769
G01 X-3.68783 Y-3.23765
G01 X-3.68819 Y-3.23751
G01 X-3.68829 Y-3.23746
G01 X-3.68839 Y-3.23742
G01 X-3.68866 Y-3.23731
G01 X-3.68894 Y-3.23720
G01 X-3.68904 Y-3.23716
G01 X-3.68940 Y-3.23701
G01 X-3.68950 Y-3.23697
G01 X-3.68960 Y-3.23693
G01 X-3.68987 Y-3.23682
G01 X-3.69014 Y-3.23671
G01 X-3.69024 Y-3.23667
G01 X-3.69052 Y-3.23656
G01 X-3.69080 Y-3.23645
G01 X-3.69090 Y-3.23641
G01 X-3.69135 Y-3.23624
G01 X-3.69144 Y-3.23620
G01 X-3.69154 Y-3.23617
G01 X-3.69190 Y-3.23603
G01 X-3.69200 Y-3.23599
G01 X-3.69210 Y-3.23595
G01 X-3.69237 Y-3.23585
G01 X-3.69299 Y-3.23561
G01 X-3.69309 Y-3.23557
G01 X-3.69319 Y-3.23553
G01 X-3.69329 Y-3.23549
G01 X-3.69339 Y-3.23546
G01 X-3.69349 Y-3.23542
G01 X-3.69409 Y-3.23520
G01 X-3.69437 Y-3.23509
G01 X-3.69447 Y-3.23505
G01 X-3.69457 Y-3.23502
G01 X-3.69485 Y-3.23491
G01 X-3.69544 Y-3.23470
G01 X-3.69555 Y-3.23466
