( pcb2gcode 2.5.0 )
( Software-independent Gcode )

G94 ( Inches per minute feed rate. )
G20 ( Units == INCHES. )

G90 ( Absolute coordinates. )
G00 S30000 ( RPM spindle speed. )
G64 P0.00040 ( set maximum deviation from commanded toolpath )
G01 F6.00000 ( Feedrate. )


G00 Z1.00000 (Retract to tool change height)
T1
M5      (Spindle stop.)
G04 P1.00000 (Wait for spindle to stop)
(MSG, Change tool bit to mill diameter 0.20000in)
M6      (Tool change.)
M0      (Temporary machine stop.)
M3 ( Spindle on clockwise. )
G04 P1.00000 (Wait for spindle to get up to speed)
G04 P0 ( dwell for no time -- G64 should not smooth over this point )
G00 Z0.08000 ( retract )

G00 X-0.33250 Y-0.33250 ( rapid move to begin. )
G01 F3.00000
( Mill infeed pass 1/1 )
G01 Z-0.00800
G04 P0 ( dwell for no time -- G64 should not smooth over this point )
G01 F6.00000
G01 X-0.33250 Y-0.33250
G01 X-0.33250 Y10.33250
G01 X10.33250 Y10.33250
G01 X10.33250 Y-0.33250
G01 X-0.33250 Y-0.33250
G04 P0 ( dwell for no time -- G64 should not smooth over this point )
G00 Z0.08000 ( retract )

G00 X1.20913 Y3.81265 ( rapid move to begin. )
G01 F3.00000
( Mill infeed pass 1/1 )
G01 Z-0.00800
G04 P0 ( dwell for no time -- G64 should not smooth over this point )
G01 F6.00000
G01 X1.20913 Y3.81265
G01 X1.17933 Y3.86996
G01 X1.15132 Y3.92727
G01 X1.12815 Y3.97628
G01 X1.10451 Y4.02783
G01 X1.08235 Y4.07938
G01 X1.06168 Y4.13093
G01 X1.04249 Y4.18248
G01 X1.02496 Y4.23149
G01 X1.00870 Y4.27871
G01 X0.99370 Y4.32592
G01 X0.97998 Y4.37314
G01 X0.96752 Y4.42035
G01 X0.95524 Y4.46936
G01 X0.94470 Y4.51370
G01 X0.93529 Y4.55804
G01 X0.92702 Y4.60239
G01 X0.91987 Y4.64673
G01 X0.91260 Y4.69574
G01 X0.90679 Y4.73846
G01 X0.90204 Y4.78118
G01 X0.89836 Y4.82390
G01 X0.89573 Y4.86663
G01 X0.89332 Y4.91564
G01 X0.89177 Y4.95782
G01 X0.89125 Y5.00000
G01 X0.89177 Y5.04218
G01 X0.89332 Y5.08436
G01 X0.89573 Y5.13337
G01 X0.89836 Y5.17609
G01 X0.90204 Y5.21882
G01 X0.90679 Y5.26154
G01 X0.91260 Y5.30426
G01 X0.91987 Y5.35327
G01 X0.92702 Y5.39761
G01 X0.93529 Y5.44195
G01 X0.94470 Y5.48630
G01 X0.95524 Y5.53064
G01 X0.96752 Y5.57965
G01 X0.97998 Y5.62686
G01 X0.99370 Y5.67408
G01 X1.00870 Y5.72129
G01 X1.02496 Y5.76850
G01 X1.04249 Y5.81751
G01 X1.06168 Y5.86906
G01 X1.08235 Y5.92061
G01 X1.10451 Y5.97217
G01 X1.12815 Y6.02372
G01 X1.15132 Y6.07273
G01 X1.17957 Y6.13052
G01 X1.20965 Y6.18832
G01 X1.24155 Y6.24611
G01 X1.27528 Y6.30391
G01 X1.30465 Y6.35291
G01 X1.34574 Y6.41948
G01 X1.38919 Y6.48605
G01 X1.43501 Y6.55262
G01 X1.48320 Y6.61919
G01 X1.51954 Y6.66820
G01 X1.57976 Y6.74721
G01 X1.64323 Y6.82621
G01 X1.70996 Y6.90521
G01 X1.77994 Y6.98422
G01 X1.82436 Y7.03323
G01 X1.86886 Y7.08168
G01 X1.91457 Y7.13012
G01 X1.96146 Y7.17857
G01 X2.00955 Y7.22702
G01 X2.05883 Y7.27547
G01 X2.10930 Y7.32392
G01 X2.16096 Y7.37237
G01 X2.21382 Y7.42082
G01 X2.26790 Y7.46983
G01 X2.33664 Y7.53128
G01 X2.40726 Y7.59274
G01 X2.49277 Y7.58547
G01 X2.57827 Y7.57666
G01 X2.66378 Y7.56630
G01 X2.74929 Y7.55439
G01 X2.79830 Y7.54712
G01 X2.86559 Y7.53666
G01 X2.93289 Y7.52524
G01 X3.00019 Y7.51287
G01 X3.06749 Y7.49954
G01 X3.15507 Y7.49756
G01 X3.24266 Y7.49403
G01 X3.34271 Y7.48822
G01 X3.46272 Y7.50521
G01 X3.58273 Y7.51923
G01 X3.70274 Y7.53027
G01 X3.82275 Y7.53834
G01 X3.94276 Y7.54343
G01 X4.06277 Y7.54555
G01 X4.18278 Y7.54470
G01 X4.30278 Y7.54088
G01 X4.37890 Y7.55758
G01 X4.45502 Y7.57303
G01 X4.53114 Y7.58723
G01 X4.60726 Y7.60017
G01 X4.68338 Y7.61186
G01 X4.75950 Y7.62228
G01 X4.83562 Y7.63146
G01 X4.91174 Y7.63937
G01 X4.98785 Y7.64603
G01 X5.06397 Y7.65144
G01 X5.14009 Y7.65559
G01 X5.21621 Y7.65848
G01 X5.29233 Y7.66012
G01 X5.36845 Y7.66050
G01 X5.44457 Y7.65963
G01 X5.52069 Y7.65750
G01 X5.59155 Y7.66778
G01 X5.66241 Y7.67696
G01 X5.73327 Y7.68501
G01 X5.80413 Y7.69196
G01 X5.87499 Y7.69780
G01 X5.94585 Y7.70252
G01 X6.01671 Y7.70613
G01 X6.08757 Y7.70863
G01 X6.15843 Y7.71002
G01 X6.22929 Y7.71029
G01 X6.30015 Y7.70945
G01 X6.37101 Y7.70750
G01 X6.44187 Y7.70444
G01 X6.51273 Y7.70026
G01 X6.58359 Y7.69498
G01 X6.65445 Y7.68858
G01 X6.74406 Y7.73738
G01 X6.83367 Y7.78387
G01 X6.92328 Y7.82805
G01 X7.01289 Y7.86993
G01 X7.11090 Y7.91447
G01 X7.20768 Y7.95707
G01 X7.30445 Y7.99691
G01 X7.40122 Y8.03401
G01 X7.49799 Y8.06835
G01 X7.59601 Y8.10174
G01 X7.68491 Y8.13085
G01 X7.77381 Y8.15759
G01 X7.86271 Y8.18196
G01 X7.95161 Y8.20398
G01 X8.04963 Y8.22694
G01 X8.10509 Y8.23947
G01 X8.16055 Y8.25107
G01 X8.21601 Y8.26173
G01 X8.27147 Y8.27147
G01 X8.34640 Y8.21707
G01 X8.41875 Y8.16267
G01 X8.54678 Y8.06465
G01 X8.62591 Y8.00266
G01 X8.70139 Y7.94067
G01 X8.77321 Y7.87868
G01 X8.84137 Y7.81670
G01 X8.94625 Y7.71868
G01 X8.99385 Y7.67318
G01 X9.03927 Y7.62768
G01 X9.08252 Y7.58218
G01 X9.12360 Y7.53669
G01 X9.20533 Y7.44369
G01 X9.23820 Y7.40531
G01 X9.26937 Y7.36693
G01 X9.29694 Y7.33161
G01 X9.32305 Y7.29628
G01 X9.38984 Y7.20329
G01 X9.42616 Y7.15015
G01 X9.45877 Y7.09701
G01 X9.51550 Y6.99899
G01 X9.53857 Y6.95688
G01 X9.55901 Y6.91476
G01 X9.60355 Y6.81674
G01 X9.61817 Y6.78243
G01 X9.63083 Y6.74812
G01 X9.66422 Y6.65011
G01 X9.67330 Y6.62120
G01 X9.68084 Y6.59230
G01 X9.70381 Y6.49429
G01 X9.70911 Y6.46890
G01 X9.71313 Y6.44352
G01 X9.72614 Y6.34550
G01 X9.72868 Y6.32203
G01 X9.73005 Y6.29857
G01 X9.73336 Y6.20055
G01 X9.73358 Y6.17757
G01 X9.73266 Y6.15458
G01 X9.72667 Y6.06159
G01 X9.72396 Y6.03287
G01 X9.72006 Y6.00374
G01 X9.70481 Y5.91075
G01 X9.69982 Y5.88445
G01 X9.69348 Y5.85815
G01 X9.66733 Y5.76013
G01 X9.65841 Y5.72977
G01 X9.64785 Y5.69941
G01 X9.61018 Y5.59903
G01 X9.62475 Y5.56497
G01 X9.63473 Y5.53912
G01 X9.63837 Y5.52912
G01 X9.64684 Y5.50440
G01 X9.65426 Y5.47968
G01 X9.67762 Y5.40416
G01 X9.68546 Y5.37646
G01 X9.69186 Y5.34875
G01 X9.71191 Y5.25073
G01 X9.71634 Y5.22605
G01 X9.71953 Y5.20138
G01 X9.72972 Y5.10336
G01 X9.73156 Y5.08018
G01 X9.73226 Y5.05700
G01 X9.73279 Y4.95898
G01 X9.73235 Y4.93588
G01 X9.73077 Y4.91277
G01 X9.72165 Y4.81475
G01 X9.71877 Y4.79032
G01 X9.71466 Y4.76588
G01 X9.69572 Y4.66786
G01 X9.68973 Y4.64058
G01 X9.68233 Y4.61329
G01 X9.65318 Y4.51527
G01 X9.64281 Y4.48338
G01 X9.63069 Y4.45149
G01 X9.60048 Y4.37741
G01 X9.58913 Y4.34905
G01 X9.57653 Y4.32068
G01 X9.57186 Y4.31068
G01 X9.55719 Y4.28070
G01 X9.54114 Y4.25073
G01 X9.50284 Y4.17813
G01 X9.47578 Y4.12985
G01 X9.44550 Y4.08158
G01 X9.38078 Y3.98356
G01 X9.35979 Y3.95266
G01 X9.33763 Y3.92176
G01 X9.31430 Y3.89086
G01 X9.28981 Y3.85995
G01 X9.21026 Y3.76194
G01 X9.17646 Y3.72140
G01 X9.14087 Y3.68087
G01 X9.10348 Y3.64034
G01 X9.06428 Y3.59981
G01 X8.96733 Y3.50179
G01 X8.91188 Y3.44722
G01 X8.85348 Y3.39265
G01 X8.79214 Y3.33808
G01 X8.72785 Y3.28350
G01 X8.60973 Y3.18549
G01 X8.56337 Y3.14756
G01 X8.51571 Y3.10962
G01 X8.41650 Y3.03376
G01 X8.31209 Y2.95790
G01 X8.20248 Y2.88203
G01 X8.05750 Y2.78401
G01 X7.93222 Y2.70125
G01 X7.80123 Y2.61848
G01 X7.74850 Y2.56810
G01 X7.69456 Y2.51772
G01 X7.63940 Y2.46734
G01 X7.58303 Y2.41697
G01 X7.51236 Y2.42184
G01 X7.44170 Y2.42775
G01 X7.37103 Y2.43473
G01 X7.30036 Y2.44275
G01 X7.18754 Y2.43319
G01 X7.07472 Y2.42630
G01 X6.96191 Y2.42207
G01 X6.84909 Y2.42050
G01 X6.76481 Y2.39674
G01 X6.68053 Y2.37459
G01 X6.59626 Y2.35405
G01 X6.51198 Y2.33512
G01 X6.42770 Y2.31781
G01 X6.34342 Y2.30211
G01 X6.25915 Y2.28803
G01 X6.17487 Y2.27556
G01 X6.09059 Y2.26470
G01 X6.00631 Y2.25546
G01 X5.92203 Y2.24783
G01 X5.83776 Y2.24181
G01 X5.75348 Y2.23741
G01 X5.66920 Y2.23462
G01 X5.58492 Y2.23345
G01 X5.50064 Y2.23389
G01 X5.41637 Y2.23594
G01 X5.33209 Y2.23961
G01 X5.24781 Y2.24488
G01 X5.16353 Y2.25178
G01 X5.07925 Y2.26028
G01 X4.99498 Y2.27040
G01 X4.91070 Y2.28214
G01 X4.82642 Y2.29548
G01 X4.74214 Y2.31045
G01 X4.65787 Y2.32702
G01 X4.57359 Y2.34521
G01 X4.48931 Y2.36501
G01 X4.40503 Y2.38643
G01 X4.32075 Y2.40945
G01 X4.23648 Y2.43410
G01 X4.15220 Y2.46035
G01 X4.02983 Y2.45582
G01 X3.90746 Y2.45438
G01 X3.79804 Y2.41460
G01 X3.68861 Y2.37765
G01 X3.57918 Y2.34352
G01 X3.46976 Y2.31221
G01 X3.36033 Y2.28373
G01 X3.25091 Y2.25806
G01 X3.14148 Y2.23522
G01 X3.03206 Y2.21520
G01 X2.92263 Y2.19801
G01 X2.81320 Y2.18363
G01 X2.70378 Y2.17208
G01 X2.59435 Y2.16335
G01 X2.48493 Y2.15744
G01 X2.37550 Y2.15435
G01 X2.26607 Y2.15409
G01 X2.15665 Y2.15665
G01 X2.08954 Y2.23008
G01 X2.02480 Y2.30352
G01 X1.96242 Y2.37695
G01 X1.90241 Y2.45039
G01 X1.84477 Y2.52382
G01 X1.78950 Y2.59726
G01 X1.73659 Y2.67069
G01 X1.68606 Y2.74413
G01 X1.63788 Y2.81756
G01 X1.59208 Y2.89100
G01 X1.54864 Y2.96443
G01 X1.50757 Y3.03787
G01 X1.46887 Y3.11130
G01 X1.43253 Y3.18474
G01 X1.39856 Y3.25817
G01 X1.36696 Y3.33161
G01 X1.34625 Y3.38161
G01 X1.32458 Y3.43549
G01 X1.30421 Y3.48937
G01 X1.28512 Y3.54325
G01 X1.26734 Y3.59713
G01 X1.25084 Y3.65101
G01 X1.23564 Y3.70489
G01 X1.22174 Y3.75877
G01 X1.20913 Y3.81265
G01 X1.44683 Y4.01705
G01 X1.49763 Y4.06011
G01 X1.54720 Y4.10087
G01 X1.75186 Y4.26644
G01 X1.78553 Y4.29302
G01 X1.81868 Y4.31787
G01 X1.91513 Y4.38821
G01 X1.94158 Y4.40683
G01 X1.96790 Y4.42399
G01 X2.02837 Y4.46187
G01 X2.05163 Y4.47575
G01 X2.07501 Y4.48835
G01 X2.08986 Y4.49592
G01 X2.12193 Y4.51366
G01 X2.16526 Y4.53963
G01 X2.18522 Y4.55226
G01 X2.20434 Y4.56572
G01 X2.24413 Y4.59523
G01 X2.26135 Y4.60866
G01 X2.27781 Y4.62286
G01 X2.31417 Y4.65581
G01 X2.32955 Y4.67045
G01 X2.34419 Y4.68583
G01 X2.37714 Y4.72218
G01 X2.39134 Y4.73864
G01 X2.40477 Y4.75586
G01 X2.43428 Y4.79566
G01 X2.44774 Y4.81478
G01 X2.46037 Y4.83474
G01 X2.48634 Y4.87807
G01 X2.49934 Y4.90106
G01 X2.51138 Y4.92501
G01 X2.53364 Y4.97206
G01 X2.54626 Y5.00059
G01 X2.55770 Y5.03031
G01 X2.57596 Y5.08135
G01 X2.58799 Y5.11788
G01 X2.59848 Y5.15595
G01 X2.61237 Y5.21137
G01 X2.62323 Y5.26009
G01 X2.62834 Y5.30920
G01 X2.63563 Y5.36753
G01 X2.64597 Y5.43630
G01 X2.65616 Y5.50680
G01 X2.66831 Y5.58018
G01 X2.67478 Y5.61508
G01 X2.71391 Y5.83127
G01 X2.72573 Y5.89342
G01 X2.73359 Y5.93250
G01 X2.84943 Y6.49513
G01 X2.86333 Y6.56322
G01 X2.89978 Y6.73540
G01 X3.06749 Y7.49954
G04 P0 ( dwell for no time -- G64 should not smooth over this point )
G00 Z0.08000 ( retract )

G00 X3.34271 Y7.48822 ( rapid move to begin. )
G01 F3.00000
( Mill infeed pass 1/1 )
G01 Z-0.00800
G04 P0 ( dwell for no time -- G64 should not smooth over this point )
G01 F6.00000
G01 X3.34271 Y7.48822
G01 X3.43207 Y6.43572
G01 X3.47855 Y5.90190
G01 X3.49525 Y5.71689
G01 X3.50000 Y5.65629
G01 X3.50000 Y5.36443
G01 X3.49688 Y5.32926
G01 X3.49301 Y5.29486
G01 X3.48834 Y5.25746
G01 X3.47523 Y5.14745
G01 X3.46416 Y5.04895
G01 X3.45465 Y4.95839
G01 X3.44585 Y4.86811
G01 X3.43642 Y4.76307
G01 X3.42734 Y4.65333
G01 X3.41547 Y4.49888
G01 X3.41161 Y4.44522
G01 X3.41161 Y4.37626
G01 X3.41302 Y4.29971
G01 X3.41725 Y4.22035
G01 X3.42431 Y4.13816
G01 X3.43419 Y4.05316
G01 X3.44689 Y3.96533
G01 X3.46241 Y3.87467
G01 X3.48076 Y3.78120
G01 X3.50192 Y3.68490
G01 X3.52591 Y3.58578
G01 X3.55273 Y3.48384
G01 X3.58236 Y3.37907
G01 X3.61482 Y3.27149
G01 X3.65009 Y3.16108
G01 X3.68819 Y3.04785
G01 X3.72912 Y2.93180
G01 X3.77286 Y2.81292
G01 X3.90746 Y2.45438
G04 P0 ( dwell for no time -- G64 should not smooth over this point )
G00 Z0.08000 ( retract )

G00 X4.15220 Y2.46035 ( rapid move to begin. )
G01 F3.00000
( Mill infeed pass 1/1 )
G01 Z-0.00800
G04 P0 ( dwell for no time -- G64 should not smooth over this point )
G01 F6.00000
G01 X4.15220 Y2.46035
G01 X4.35654 Y3.22517
G01 X4.39015 Y3.35632
G01 X4.41983 Y3.48355
G01 X4.44558 Y3.60685
G01 X4.46741 Y3.72623
G01 X4.47685 Y3.78444
G01 X4.48531 Y3.84168
G01 X4.49279 Y3.89793
G01 X4.49929 Y3.95320
G01 X4.50480 Y4.00749
G01 X4.50934 Y4.06080
G01 X4.51289 Y4.11313
G01 X4.51547 Y4.16448
G01 X4.50475 Y4.28311
G01 X4.50000 Y4.34371
G01 X4.50000 Y4.63557
G01 X4.50311 Y4.67074
G01 X4.50699 Y4.70514
G01 X4.51166 Y4.74254
G01 X4.52476 Y4.85255
G01 X4.53585 Y4.95112
G01 X4.54534 Y5.04155
G01 X4.55415 Y5.13188
G01 X4.56357 Y5.23693
G01 X4.57266 Y5.34666
G01 X4.58453 Y5.50112
G01 X4.58825 Y5.55290
G01 X4.59527 Y5.63062
G01 X4.60471 Y5.71783
G01 X4.60241 Y5.76820
G01 X4.59899 Y5.81969
G01 X4.59446 Y5.87229
G01 X4.58881 Y5.92601
G01 X4.58204 Y5.98085
G01 X4.57416 Y6.03680
G01 X4.56517 Y6.09387
G01 X4.55506 Y6.15205
G01 X4.30278 Y7.54088
G04 P0 ( dwell for no time -- G64 should not smooth over this point )
G00 Z0.08000 ( retract )

G00 X5.52069 Y7.65750 ( rapid move to begin. )
G01 F3.00000
( Mill infeed pass 1/1 )
G01 Z-0.00800
G04 P0 ( dwell for no time -- G64 should not smooth over this point )
G01 F6.00000
G01 X5.52069 Y7.65750
G01 X5.74299 Y5.74299
G01 X5.74806 Y5.70416
G01 X5.75414 Y5.66633
G01 X5.83251 Y5.22190
G01 X5.83135 Y5.20043
G01 X5.83057 Y5.17084
G01 X5.83121 Y5.14267
G01 X5.83163 Y5.13408
G01 X5.83321 Y5.11227
G01 X5.83575 Y5.09142
G01 X5.83691 Y5.08357
G01 X5.83979 Y5.06685
G01 X5.84337 Y5.05083
G01 X5.84518 Y5.04362
G01 X5.85301 Y5.01767
G01 X5.85539 Y5.01103
G01 X5.86415 Y4.98983
G01 X5.86704 Y4.98371
G01 X5.87655 Y4.96589
G01 X5.87993 Y4.96025
G01 X5.89017 Y4.94490
G01 X5.89401 Y4.93973
G01 X5.90509 Y4.92622
G01 X5.90938 Y4.92149
G01 X5.92149 Y4.90938
G01 X5.92622 Y4.90509
G01 X5.93973 Y4.89401
G01 X5.94490 Y4.89017
G01 X5.96025 Y4.87993
G01 X5.96589 Y4.87655
G01 X5.98371 Y4.86704
G01 X5.99372 Y4.86235
G01 X6.01112 Y4.85453
G01 X6.03373 Y4.84372
G01 X6.04501 Y4.83195
G01 X6.05586 Y4.81927
G01 X6.06628 Y4.80566
G01 X6.07627 Y4.79112
G01 X6.08583 Y4.77566
G01 X6.09496 Y4.75928
G01 X6.11192 Y4.72373
G01 X6.12716 Y4.68449
G01 X6.14068 Y4.64155
G01 X6.15246 Y4.59491
G01 X6.16253 Y4.54458
G01 X6.21104 Y4.26947
G01 X6.22559 Y4.19486
G01 X6.24352 Y4.11686
G01 X6.26484 Y4.03548
G01 X6.28954 Y3.95071
G01 X6.31762 Y3.86257
G01 X6.34909 Y3.77103
G01 X6.38394 Y3.67612
G01 X6.42218 Y3.57782
G01 X6.75104 Y2.75425
G01 X6.84909 Y2.42050
G04 P0 ( dwell for no time -- G64 should not smooth over this point )
G00 Z0.08000 ( retract )

G00 X7.30036 Y2.44275 ( rapid move to begin. )
G01 F3.00000
( Mill infeed pass 1/1 )
G01 Z-0.00800
G04 P0 ( dwell for no time -- G64 should not smooth over this point )
G01 F6.00000
G01 X7.30036 Y2.44275
G01 X7.32523 Y3.47341
G01 X7.33014 Y3.61818
G01 X7.33770 Y3.75566
G01 X7.34248 Y3.82167
G01 X7.34792 Y3.88585
G01 X7.35402 Y3.94822
G01 X7.36078 Y4.00876
G01 X7.36821 Y4.06748
G01 X7.37630 Y4.12437
G01 X7.38506 Y4.17945
G01 X7.39447 Y4.23270
G01 X7.40455 Y4.28413
G01 X7.41530 Y4.33374
G01 X7.42671 Y4.38153
G01 X7.43878 Y4.42749
G01 X7.47286 Y4.55132
G01 X7.48375 Y4.59369
G01 X7.49279 Y4.63499
G01 X7.49998 Y4.67523
G01 X7.50533 Y4.71440
G01 X7.50883 Y4.75251
G01 X7.51049 Y4.78955
G01 X7.51030 Y4.82552
G01 X7.50826 Y4.86043
G01 X7.48294 Y5.15419
G01 X7.47900 Y5.19018
G01 X7.47327 Y5.22719
G01 X7.42983 Y5.47352
G01 X7.42348 Y5.51289
G01 X7.41809 Y5.55342
G01 X7.41368 Y5.59510
G01 X7.41024 Y5.63794
G01 X7.40776 Y5.68194
G01 X7.40626 Y5.72709
G01 X7.40572 Y5.77340
G01 X7.40616 Y5.82086
G01 X7.41344 Y6.20053
G04 P0 ( dwell for no time -- G64 should not smooth over this point )
G00 Z0.08000 ( retract )

G00 X8.70162 Y5.02610 ( rapid move to begin. )
G01 F3.00000
( Mill infeed pass 1/1 )
G01 Z-0.00800
G04 P0 ( dwell for no time -- G64 should not smooth over this point )
G01 F6.00000
G01 X8.70162 Y5.02610
G01 X8.71245 Y5.08381
G01 X8.73433 Y5.13830
G01 X8.73982 Y5.14672
G01 X8.85207 Y5.01294
G01 X8.71829 Y4.90069
G01 X8.71435 Y4.90993
G01 X8.70226 Y4.96739
G01 X8.70162 Y5.02610
G04 P0 ( dwell for no time -- G64 should not smooth over this point )
G00 Z0.08000 ( retract )

G00 X8.90069 Y5.28170 ( rapid move to begin. )
G01 F3.00000
( Mill infeed pass 1/1 )
G01 Z-0.00800
G04 P0 ( dwell for no time -- G64 should not smooth over this point )
G01 F6.00000
G01 X8.90069 Y5.28170
G01 X8.90993 Y5.28565
G01 X8.96739 Y5.29774
G01 X9.02610 Y5.29838
G01 X9.08381 Y5.28755
G01 X9.13830 Y5.26567
G01 X9.14672 Y5.26018
G01 X9.01294 Y5.14793
G01 X8.90069 Y5.28170
G04 P0 ( dwell for no time -- G64 should not smooth over this point )
G00 Z0.08000 ( retract )

G00 X8.86129 Y5.59914 ( rapid move to begin. )
G01 F3.00000
( Mill infeed pass 1/1 )
G01 Z-0.00800
G04 P0 ( dwell for no time -- G64 should not smooth over this point )
G01 F6.00000
G01 X8.86129 Y5.59914
G01 X8.97951 Y6.11124
G01 X8.97060 Y6.11405
G01 X8.96258 Y6.11694
G01 X8.95439 Y6.12144
G01 X8.94710 Y6.12584
G01 X8.93994 Y6.13185
G01 X8.93365 Y6.13758
G01 X8.92781 Y6.14486
G01 X8.92275 Y6.15173
G01 X8.91844 Y6.16001
G01 X8.91481 Y6.16772
G01 X8.91220 Y6.17670
G01 X8.91015 Y6.18496
G01 X8.90934 Y6.19428
G01 X8.90894 Y6.20278
G01 X8.90996 Y6.21206
G01 X8.91124 Y6.22049
G01 X8.91405 Y6.22940
G01 X8.91694 Y6.23742
G01 X8.92144 Y6.24561
G01 X8.92584 Y6.25290
G01 X8.93185 Y6.26006
G01 X8.93758 Y6.26635
G01 X8.94486 Y6.27219
G01 X8.95173 Y6.27725
G01 X8.96001 Y6.28156
G01 X8.96772 Y6.28519
G01 X8.97670 Y6.28780
G01 X8.98496 Y6.28985
G01 X8.99427 Y6.29066
G01 X9.00278 Y6.29105
G01 X9.01207 Y6.29003
G01 X9.02049 Y6.28876
G01 X9.02940 Y6.28595
G01 X9.03741 Y6.28306
G01 X9.04561 Y6.27856
G01 X9.05290 Y6.27416
G01 X9.06006 Y6.26815
G01 X9.06635 Y6.26242
G01 X9.07219 Y6.25514
G01 X9.07725 Y6.24827
G01 X9.08156 Y6.23999
G01 X9.08519 Y6.23227
G01 X9.08780 Y6.22330
G01 X9.08985 Y6.21503
G01 X9.09066 Y6.20573
G01 X9.09105 Y6.19722
G01 X9.09003 Y6.18793
G01 X9.08876 Y6.17951
G01 X9.08595 Y6.17060
G01 X9.08306 Y6.16258
G01 X9.07856 Y6.15439
G01 X9.07416 Y6.14710
G01 X9.06815 Y6.13994
G01 X9.06242 Y6.13365
G01 X9.05513 Y6.12781
G01 X9.04827 Y6.12275
G01 X9.03999 Y6.11844
G01 X9.03227 Y6.11481
G01 X9.02330 Y6.11220
G01 X9.01503 Y6.11015
G01 X9.00572 Y6.10934
G01 X8.99722 Y6.10895
G01 X8.98794 Y6.10996
G01 X8.97951 Y6.11124
G01 X8.97060 Y6.11405
G01 X8.96258 Y6.11694
G01 X8.95439 Y6.12144
G01 X8.94710 Y6.12584
G01 X8.93994 Y6.13185
G01 X8.93365 Y6.13758
G01 X8.92781 Y6.14486
G01 X8.92275 Y6.15173
G01 X8.91844 Y6.16001
G01 X8.91481 Y6.16772
G01 X8.91220 Y6.17670
G01 X8.91015 Y6.18496
G01 X8.90934 Y6.19428
G01 X8.90894 Y6.20278
G01 X8.90996 Y6.21206
G01 X8.91124 Y6.22049
G01 X7.13674 Y6.63008
G01 X7.03328 Y6.78303
G01 X6.98043 Y6.57590
G01 X6.93425 Y6.38310
G01 X6.91367 Y6.29207
G01 X6.89476 Y6.20462
G01 X6.87751 Y6.12075
G01 X6.86194 Y6.04047
G01 X6.84804 Y5.96376
G01 X6.83580 Y5.89063
G01 X6.82524 Y5.82109
G01 X6.81635 Y5.75512
G01 X6.80912 Y5.69274
G01 X6.80357 Y5.63394
G01 X6.79968 Y5.57872
G01 X6.79747 Y5.52708
G01 X6.78999 Y5.25688
G01 X6.78891 Y5.23951
G01 X6.78664 Y5.22234
G01 X6.78318 Y5.20539
G01 X6.77853 Y5.18865
G01 X6.66818 Y4.83866
G01 X6.66340 Y4.82211
G01 X6.65939 Y4.80520
G01 X6.65615 Y4.78793
G01 X6.65368 Y4.77030
G01 X6.65104 Y4.73397
G01 X6.65148 Y4.69621
G01 X6.75104 Y2.75425
G04 P0 ( dwell for no time -- G64 should not smooth over this point )
G00 Z0.08000 ( retract )

G00 X8.85328 Y4.73982 ( rapid move to begin. )
G01 F3.00000
( Mill infeed pass 1/1 )
G01 Z-0.00800
G04 P0 ( dwell for no time -- G64 should not smooth over this point )
G01 F6.00000
G01 X8.85328 Y4.73982
G01 X8.86170 Y4.73433
G01 X8.91619 Y4.71245
G01 X8.97390 Y4.70162
G01 X9.03261 Y4.70226
G01 X9.09007 Y4.71435
G01 X9.09931 Y4.71829
G01 X8.98706 Y4.85207
G01 X8.85328 Y4.73982
G04 P0 ( dwell for no time -- G64 should not smooth over this point )
G00 Z0.08000 ( retract )

G00 X9.14793 Y4.98706 ( rapid move to begin. )
G01 F3.00000
( Mill infeed pass 1/1 )
G01 Z-0.00800
G04 P0 ( dwell for no time -- G64 should not smooth over this point )
G01 F6.00000
G01 X9.14793 Y4.98706
G01 X9.28171 Y5.09931
G01 X9.28565 Y5.09007
G01 X9.29773 Y5.03261
G01 X9.29838 Y4.97389
G01 X9.28755 Y4.91619
G01 X9.26567 Y4.86170
G01 X9.26018 Y4.85328
G01 X9.14793 Y4.98706
G04 P0 ( dwell for no time -- G64 should not smooth over this point )
G00 Z0.08000 ( retract )

G00 X7.80123 Y2.61848 ( rapid move to begin. )
G01 F3.00000
( Mill infeed pass 1/1 )
G01 Z-0.00800
G04 P0 ( dwell for no time -- G64 should not smooth over this point )
G01 F6.00000
G01 X7.80123 Y2.61848
G01 X7.87500 Y2.90906
G01 X7.90771 Y3.03555
G01 X7.94042 Y3.15733
G01 X7.97314 Y3.27440
G01 X8.00585 Y3.38675
G01 X8.10387 Y3.71633
G01 X8.12500 Y3.78610
G01 X8.23747 Y4.15057
G01 X8.25859 Y4.22262
G01 X8.27648 Y4.29136
G01 X8.30206 Y4.40784
G01 X8.32229 Y4.50520
G01 X8.32986 Y4.55567
G01 X8.33411 Y4.60386
G01 X8.33741 Y4.66375
G01 X8.34398 Y4.77313
G01 X8.34567 Y4.79327
G01 X8.34829 Y4.81288
G01 X8.36482 Y4.91651
G01 X8.36772 Y4.93203
G01 X8.37032 Y4.94412
G01 X8.37441 Y4.96867
G01 X8.37613 Y4.99319
G01 X8.37547 Y5.01769
G01 X8.37243 Y5.04216
G01 X8.35024 Y5.17176
G01 X8.34752 Y5.19057
G01 X8.34569 Y5.20989
G01 X8.33796 Y5.31861
G01 X8.33691 Y5.33885
G01 X8.33571 Y5.37494
G01 X8.33400 Y5.40531
G01 X8.33087 Y5.43661
G01 X8.32632 Y5.46884
G01 X8.32035 Y5.50200
G01 X8.30077 Y5.60042
G04 P0 ( dwell for no time -- G64 should not smooth over this point )
G00 Z0.08000 ( retract )

G00 X9.26937 Y7.36693 ( rapid move to begin. )
G01 F3.00000
( Mill infeed pass 1/1 )
G01 Z-0.00800
G04 P0 ( dwell for no time -- G64 should not smooth over this point )
G01 F6.00000
G01 X9.26937 Y7.36693
G01 X9.02049 Y6.28876
G01 X9.02940 Y6.28595
G01 X9.03741 Y6.28306
G01 X9.04561 Y6.27856
G01 X9.05290 Y6.27416
G01 X9.06006 Y6.26815
G01 X9.06635 Y6.26242
G01 X9.07219 Y6.25514
G01 X9.07725 Y6.24827
G01 X9.08156 Y6.23999
G01 X9.08519 Y6.23227
G01 X9.08780 Y6.22330
G01 X9.08985 Y6.21503
G01 X9.09066 Y6.20573
G01 X9.09105 Y6.19722
G01 X9.09003 Y6.18793
G01 X9.08876 Y6.17951
G01 X9.72396 Y6.03287
G04 P0 ( dwell for no time -- G64 should not smooth over this point )
G00 Z0.08000 ( retract )

G00 X9.61018 Y5.59903 ( rapid move to begin. )
G01 F3.00000
( Mill infeed pass 1/1 )
G01 Z-0.00800
G04 P0 ( dwell for no time -- G64 should not smooth over this point )
G01 F6.00000
G01 X9.61018 Y5.59903
G01 X9.56635 Y5.59842
G01 X9.52449 Y5.59983
G01 X9.51865 Y5.60017
G01 X9.48401 Y5.60141
G01 X9.45066 Y5.60097
G01 X9.40135 Y5.59903
G01 X9.37653 Y5.59864
G01 X9.35250 Y5.59943
G01 X9.33336 Y5.60056
G01 X9.31349 Y5.60126
G01 X9.29410 Y5.60100
G01 X9.24331 Y5.59900
G01 X9.21314 Y5.59927
G01 X9.18838 Y5.60073
G01 X9.16261 Y5.60100
G01 X9.11167 Y5.59900
G01 X9.08981 Y5.59920
G01 X9.06284 Y5.60079
G01 X9.04245 Y5.60100
G01 X8.99159 Y5.59900
G01 X8.97165 Y5.59920
G01 X8.94443 Y5.60080
G01 X8.92370 Y5.60100
G01 X8.87788 Y5.59920
G01 X8.86129 Y5.59914
G01 X8.84405 Y5.59955
G01 X8.82359 Y5.60076
G01 X8.79663 Y5.60100
G01 X8.74573 Y5.59900
G01 X8.72879 Y5.59876
G01 X8.71149 Y5.59937
G01 X8.69021 Y5.60063
G01 X8.66953 Y5.60132
G01 X8.64826 Y5.60098
G01 X8.59825 Y5.59902
G01 X8.55578 Y5.59897
G01 X8.54115 Y5.59995
G01 X8.50187 Y5.60143
G01 X8.48871 Y5.60156
G01 X8.45703 Y5.60124
G01 X8.41028 Y5.59910
G01 X8.36469 Y5.59837
G01 X8.31704 Y5.59966
G01 X8.30077 Y5.60042
G01 X8.26049 Y5.63062
G01 X8.21787 Y5.65901
G01 X8.12500 Y5.71728
G01 X8.03223 Y5.77482
G01 X8.00295 Y5.79352
G01 X7.97366 Y5.81328
G01 X7.94438 Y5.83411
G01 X7.91509 Y5.85600
G01 X7.87500 Y5.88669
G01 X7.81516 Y5.93052
G01 X7.63298 Y6.05828
G01 X7.56737 Y6.10296
G01 X7.49830 Y6.14740
G01 X7.41344 Y6.20053
G01 X7.30900 Y6.36946
G01 X7.27675 Y6.42051
G01 X7.24303 Y6.47177
G01 X7.13674 Y6.63008
G01 X7.03328 Y6.78303
G01 X7.01629 Y6.82213
G01 X6.96717 Y6.93682
G01 X6.93690 Y7.00920
G01 X6.76658 Y7.42647
G01 X6.73577 Y7.50069
G01 X6.70362 Y7.57568
G01 X6.65445 Y7.68858

G04 P0 ( dwell for no time -- G64 should not smooth over this point )
G00 Z1.000000 ( retract )

M5 ( Spindle off. )
G04 P1.000000
M9 ( Coolant off. )
M2 ( Program end. )

