( pcb2gcode 1.3.2 )
( Software-independent Gcode )

G94 ( Inches per minute feed rate. )
G20 ( Units == INCHES. )

G90 ( Absolute coordinates. )
G00 S30000 ( RPM spindle speed. )
G64 P0.00040 ( set maximum deviation from commanded toolpath )
G01 F6.00000 ( Feedrate. )

G01 F6.00000 ( Feedrate. )
M3 ( Spindle on clockwise. )
G04 P1.00000
G04 P0 ( dwell for no time -- G64 should not smooth over this point )
G00 Z0.08000 ( retract )

G00 X1.20884 Y3.81395 ( rapid move to begin. )
G01 F3.00000
G01 Z-0.00800
G04 P0 ( dwell for no time -- G64 should not smooth over this point )
G01 F6.00000
G01 X1.20884 Y3.81395
G01 X1.16630 Y3.89695
G01 X1.13837 Y3.95350
G01 X1.11221 Y4.01006
G01 X1.08784 Y4.06661
G01 X1.06524 Y4.12317
G01 X1.02628 Y4.22659
G01 X1.00887 Y4.27775
G01 X0.99294 Y4.32890
G01 X0.97849 Y4.38006
G01 X0.95237 Y4.47996
G01 X0.94157 Y4.52760
G01 X0.93207 Y4.57524
G01 X0.91559 Y4.67514
G01 X0.90897 Y4.72079
G01 X0.90355 Y4.76643
G01 X0.89934 Y4.81207
G01 X0.89635 Y4.85771
G01 X0.89184 Y4.95499
G01 X0.89125 Y5.00000
G01 X0.89184 Y5.04501
G01 X0.89361 Y5.09003
G01 X0.89934 Y5.18793
G01 X0.90355 Y5.23357
G01 X0.90897 Y5.27921
G01 X0.92387 Y5.37712
G01 X0.93207 Y5.42476
G01 X0.94157 Y5.47240
G01 X0.95237 Y5.52004
G01 X0.97849 Y5.61994
G01 X0.99294 Y5.67110
G01 X1.00887 Y5.72225
G01 X1.02628 Y5.77341
G01 X1.06524 Y5.87683
G01 X1.08784 Y5.93338
G01 X1.11221 Y5.98993
G01 X1.13836 Y6.04648
G01 X1.16629 Y6.10304
G01 X1.19292 Y6.15530
G01 X1.22687 Y6.21973
G01 X1.26309 Y6.28417
G01 X1.30155 Y6.34860
G01 X1.34227 Y6.41304
G01 X1.37621 Y6.46530
G01 X1.42695 Y6.54109
G01 X1.48072 Y6.61688
G01 X1.53754 Y6.69267
G01 X1.59739 Y6.76846
G01 X1.67765 Y6.86689
G01 X1.71667 Y6.91305
G01 X1.75679 Y6.95920
G01 X1.79801 Y7.00536
G01 X1.84033 Y7.05152
G01 X1.88375 Y7.09768
G01 X1.97387 Y7.19000
G01 X2.02613 Y7.24226
G01 X2.11566 Y7.32986
G01 X2.20903 Y7.41746
G01 X2.30626 Y7.50507
G01 X2.40733 Y7.59267
G01 X2.52209 Y7.58200
G01 X2.57436 Y7.57651
G01 X2.69697 Y7.56203
G01 X2.81959 Y7.54438
G01 X2.94221 Y7.52354
G01 X3.06483 Y7.49953
G01 X2.99153 Y7.16271
G01 X2.76489 Y6.09027
G01 X2.74216 Y5.97705
G01 X2.67213 Y5.60519
G01 X2.63532 Y5.36774
G01 X2.62318 Y5.26016
G01 X2.60164 Y5.16800
G01 X2.59060 Y5.12662
G01 X2.57778 Y5.08701
G01 X2.55845 Y5.03242
G01 X2.54629 Y5.00067
G01 X2.53279 Y4.97027
G01 X2.50892 Y4.92023
G01 X2.49607 Y4.89498
G01 X2.48215 Y4.87082
G01 X2.45406 Y4.82499
G01 X2.44052 Y4.80413
G01 X2.42605 Y4.78419
G01 X2.39396 Y4.74237
G01 X2.37944 Y4.72443
G01 X2.36407 Y4.70735
G01 X2.32808 Y4.66943
G01 X2.31204 Y4.65339
G01 X2.29516 Y4.63820
G01 X2.25530 Y4.60415
G01 X2.23694 Y4.58929
G01 X2.21769 Y4.57531
G01 X2.17388 Y4.54521
G01 X2.15204 Y4.53104
G01 X2.02613 Y4.46059
G01 X2.00000 Y4.44505
G01 X1.97387 Y4.42796
G01 X1.89344 Y4.37298
G01 X1.86199 Y4.35070
G01 X1.83015 Y4.32662
G01 X1.67482 Y4.20540
G01 X1.63047 Y4.17003
G01 X1.58508 Y4.13234
G01 X1.20884 Y3.81395
G01 X1.22146 Y3.75990
G01 X1.23538 Y3.70586
G01 X1.25060 Y3.65182
G01 X1.26713 Y3.59778
G01 X1.28496 Y3.54373
G01 X1.30409 Y3.48969
G01 X1.32452 Y3.43565
G01 X1.36696 Y3.33161
G01 X1.39856 Y3.25817
G01 X1.43253 Y3.18474
G01 X1.46887 Y3.11130
G01 X1.50757 Y3.03787
G01 X1.54864 Y2.96443
G01 X1.59208 Y2.89100
G01 X1.63788 Y2.81756
G01 X1.68606 Y2.74413
G01 X1.73659 Y2.67069
G01 X1.78950 Y2.59726
G01 X1.84477 Y2.52382
G01 X1.90241 Y2.45039
G01 X1.96242 Y2.37695
G01 X2.02480 Y2.30352
G01 X2.08954 Y2.23008
G01 X2.15665 Y2.15665
G01 X2.26607 Y2.15409
G01 X2.37550 Y2.15435
G01 X2.48493 Y2.15744
G01 X2.59435 Y2.16335
G01 X2.70378 Y2.17208
G01 X2.81320 Y2.18363
G01 X2.92263 Y2.19801
G01 X3.03206 Y2.21520
G01 X3.14148 Y2.23522
G01 X3.25091 Y2.25806
G01 X3.36033 Y2.28373
G01 X3.46976 Y2.31221
G01 X3.57918 Y2.34352
G01 X3.68861 Y2.37765
G01 X3.79804 Y2.41460
G01 X3.90746 Y2.45438
G01 X3.77286 Y2.81292
G01 X3.72912 Y2.93180
G01 X3.68819 Y3.04785
G01 X3.65009 Y3.16108
G01 X3.61482 Y3.27149
G01 X3.58236 Y3.37908
G01 X3.55273 Y3.48384
G01 X3.52591 Y3.58578
G01 X3.50192 Y3.68490
G01 X3.48076 Y3.78120
G01 X3.46241 Y3.87467
G01 X3.44689 Y3.96533
G01 X3.43419 Y4.05316
G01 X3.42431 Y4.13817
G01 X3.41726 Y4.22035
G01 X3.41302 Y4.29971
G01 X3.41161 Y4.37626
G01 X3.41161 Y4.44635
G01 X3.42484 Y4.62197
G01 X3.43487 Y4.74505
G01 X3.44499 Y4.85900
G01 X3.46451 Y5.05229
G01 X3.47649 Y5.15837
G01 X3.49686 Y5.32917
G01 X3.50000 Y5.36419
G01 X3.50000 Y5.65575
G01 X3.49516 Y5.71697
G01 X3.46523 Y6.05293
G01 X3.39658 Y6.85028
G01 X3.34281 Y7.48824
G01 X3.27331 Y7.49253
G01 X3.20382 Y7.49584
G01 X3.13432 Y7.49817
G01 X3.06483 Y7.49953
G04 P0 ( dwell for no time -- G64 should not smooth over this point )
G00 Z0.08000 ( retract )

G00 X3.90746 Y2.45438 ( rapid move to begin. )
G01 F3.00000
G01 Z-0.00800
G04 P0 ( dwell for no time -- G64 should not smooth over this point )
G01 F6.00000
G01 X3.90746 Y2.45438
G01 X4.02983 Y2.45582
G01 X4.15220 Y2.46035
G01 X4.23648 Y2.43410
G01 X4.32075 Y2.40945
G01 X4.40503 Y2.38643
G01 X4.48931 Y2.36501
G01 X4.57359 Y2.34521
G01 X4.65787 Y2.32702
G01 X4.74214 Y2.31045
G01 X4.82642 Y2.29549
G01 X4.91070 Y2.28214
G01 X4.99498 Y2.27040
G01 X5.07925 Y2.26028
G01 X5.16353 Y2.25178
G01 X5.24781 Y2.24488
G01 X5.33209 Y2.23961
G01 X5.41637 Y2.23594
G01 X5.50064 Y2.23389
G01 X5.58492 Y2.23345
G01 X5.66920 Y2.23462
G01 X5.75348 Y2.23741
G01 X5.83776 Y2.24181
G01 X5.92204 Y2.24783
G01 X6.00631 Y2.25546
G01 X6.09059 Y2.26470
G01 X6.17487 Y2.27556
G01 X6.25915 Y2.28803
G01 X6.34342 Y2.30212
G01 X6.42770 Y2.31781
G01 X6.51198 Y2.33512
G01 X6.59626 Y2.35405
G01 X6.68054 Y2.37459
G01 X6.76481 Y2.39674
G01 X6.84909 Y2.42050
G01 X6.75105 Y2.75423
G04 P0 ( dwell for no time -- G64 should not smooth over this point )
G00 Z0.08000 ( retract )

G00 X4.15220 Y2.46035 ( rapid move to begin. )
G01 F3.00000
G01 Z-0.00800
G04 P0 ( dwell for no time -- G64 should not smooth over this point )
G01 F6.00000
G01 X4.15220 Y2.46035
G01 X4.35655 Y3.22518
G01 X4.39013 Y3.35626
G01 X4.41980 Y3.48341
G01 X4.44554 Y3.60665
G01 X4.46736 Y3.72597
G01 X4.47680 Y3.78416
G01 X4.48527 Y3.84137
G01 X4.49275 Y3.89759
G01 X4.49925 Y3.95284
G01 X4.50477 Y4.00711
G01 X4.50931 Y4.06039
G01 X4.51287 Y4.11270
G01 X4.51545 Y4.16403
G01 X4.50484 Y4.28303
G01 X4.50000 Y4.34425
G01 X4.50000 Y4.63581
G01 X4.50314 Y4.67083
G01 X4.52437 Y4.84905
G01 X4.54632 Y5.05115
G01 X4.56513 Y5.25495
G01 X4.57583 Y5.38657
G01 X4.58970 Y5.57051
G01 X4.59530 Y5.63065
G01 X4.60468 Y5.71855
G01 X4.60237 Y5.76884
G01 X4.59894 Y5.82025
G01 X4.59441 Y5.87277
G01 X4.58876 Y5.92640
G01 X4.58200 Y5.98115
G01 X4.57413 Y6.03700
G01 X4.56515 Y6.09397
G01 X4.55506 Y6.15205
G01 X4.30278 Y7.54088
G04 P0 ( dwell for no time -- G64 should not smooth over this point )
G00 Z0.08000 ( retract )

G00 X6.84909 Y2.42050 ( rapid move to begin. )
G01 F3.00000
G01 Z-0.00800
G04 P0 ( dwell for no time -- G64 should not smooth over this point )
G01 F6.00000
G01 X6.84909 Y2.42050
G01 X6.96191 Y2.42207
G01 X7.07473 Y2.42630
G01 X7.18754 Y2.43319
G01 X7.30036 Y2.44275
G01 X7.32523 Y3.47341
G01 X7.33014 Y3.61818
G01 X7.33770 Y3.75566
G01 X7.34248 Y3.82167
G01 X7.34792 Y3.88585
G01 X7.35402 Y3.94822
G01 X7.36078 Y4.00876
G01 X7.36821 Y4.06748
G01 X7.37630 Y4.12437
G01 X7.38506 Y4.17945
G01 X7.39447 Y4.23270
G01 X7.40456 Y4.28413
G01 X7.41530 Y4.33374
G01 X7.42671 Y4.38152
G01 X7.43878 Y4.42749
G01 X7.47286 Y4.55132
G01 X7.48375 Y4.59369
G01 X7.49279 Y4.63499
G01 X7.49998 Y4.67523
G01 X7.50533 Y4.71440
G01 X7.50883 Y4.75251
G01 X7.51049 Y4.78955
G01 X7.51030 Y4.82552
G01 X7.50826 Y4.86043
G01 X7.48294 Y5.15419
G01 X7.47900 Y5.19018
G01 X7.47327 Y5.22720
G01 X7.42983 Y5.47352
G01 X7.42348 Y5.51289
G01 X7.41809 Y5.55342
G01 X7.41368 Y5.59510
G01 X7.41024 Y5.63794
G01 X7.40776 Y5.68194
G01 X7.40626 Y5.72709
G01 X7.40572 Y5.77340
G01 X7.40616 Y5.82086
G01 X7.41343 Y6.20029
G01 X7.31921 Y6.35370
G01 X7.28507 Y6.40802
G01 X7.24924 Y6.46254
G01 X7.13672 Y6.63015
G04 P0 ( dwell for no time -- G64 should not smooth over this point )
G00 Z0.08000 ( retract )

G00 X7.30036 Y2.44275 ( rapid move to begin. )
G01 F3.00000
G01 Z-0.00800
G04 P0 ( dwell for no time -- G64 should not smooth over this point )
G01 F6.00000
G01 X7.30036 Y2.44275
G01 X7.37103 Y2.43473
G01 X7.44170 Y2.42776
G01 X7.51236 Y2.42184
G01 X7.58303 Y2.41697
G01 X7.63939 Y2.46734
G01 X7.69454 Y2.51771
G01 X7.74848 Y2.56808
G01 X7.80120 Y2.61845
G01 X7.87500 Y2.90549
G01 X7.92182 Y3.08288
G01 X7.96864 Y3.25086
G01 X8.07316 Y3.61539
G01 X8.09908 Y3.70388
G01 X8.12500 Y3.78859
G01 X8.23153 Y4.12899
G01 X8.25503 Y4.20816
G01 X8.27474 Y4.28342
G01 X8.30544 Y4.42371
G01 X8.32308 Y4.50905
G01 X8.32752 Y4.53640
G01 X8.33100 Y4.56309
G01 X8.33350 Y4.58914
G01 X8.33784 Y4.67610
G01 X8.34595 Y4.79211
G01 X8.34790 Y4.81258
G01 X8.35086 Y4.83247
G01 X8.36998 Y4.94198
G01 X8.37381 Y4.96957
G01 X8.37601 Y4.99412
G01 X8.37581 Y5.01875
G01 X8.37322 Y5.04346
G01 X8.36330 Y5.08976
G01 X8.36067 Y5.10554
G01 X8.34498 Y5.21718
G01 X8.34241 Y5.23989
G01 X8.34101 Y5.26326
G01 X8.33834 Y5.33968
G01 X8.33527 Y5.38236
G01 X8.32698 Y5.45949
G01 X8.32273 Y5.49319
G01 X8.31709 Y5.52797
G01 X8.31006 Y5.56383
G01 X8.30165 Y5.60077
G01 X8.26270 Y5.62833
G01 X8.15207 Y5.70169
G01 X8.04577 Y5.76538
G01 X8.01603 Y5.78458
G01 X7.98630 Y5.80490
G01 X7.95656 Y5.82634
G01 X7.85174 Y5.90360
G01 X7.67275 Y6.03142
G01 X7.60538 Y6.07799
G01 X7.53417 Y6.12422
G01 X7.41343 Y6.20029
G04 P0 ( dwell for no time -- G64 should not smooth over this point )
G00 Z0.08000 ( retract )

G00 X7.80120 Y2.61845 ( rapid move to begin. )
G01 F3.00000
G01 Z-0.00800
G04 P0 ( dwell for no time -- G64 should not smooth over this point )
G01 F6.00000
G01 X7.80120 Y2.61845
G01 X7.89635 Y2.67780
G01 X7.98852 Y2.73715
G01 X8.07773 Y2.79649
G01 X8.16397 Y2.85584
G01 X8.31325 Y2.96037
G01 X8.41858 Y3.03596
G01 X8.51866 Y3.11155
G01 X8.56673 Y3.14934
G01 X8.61349 Y3.18714
G01 X8.65894 Y3.22493
G01 X8.70307 Y3.26273
G01 X8.82332 Y3.36726
G01 X8.88357 Y3.42090
G01 X8.94089 Y3.47454
G01 X8.99530 Y3.52819
G01 X9.04678 Y3.58183
G01 X9.14425 Y3.68636
G01 X9.18011 Y3.72576
G01 X9.21421 Y3.76516
G01 X9.24654 Y3.80456
G01 X9.27711 Y3.84395
G01 X9.37776 Y3.97827
G01 X9.39850 Y4.00805
G01 X9.41810 Y4.03784
G01 X9.43656 Y4.06762
G01 X9.49937 Y4.17215
G01 X9.52547 Y4.21814
G01 X9.57654 Y4.32070
G01 X9.61366 Y4.40631
G01 X9.62755 Y4.44338
G01 X9.66354 Y4.54791
G01 X9.67328 Y4.57874
G01 X9.68128 Y4.60957
G01 X9.70541 Y4.71410
G01 X9.71089 Y4.74099
G01 X9.71492 Y4.76788
G01 X9.72776 Y4.87241
G01 X9.73015 Y4.89729
G01 X9.73124 Y4.92217
G01 X9.73307 Y5.02670
G01 X9.73285 Y5.05129
G01 X9.73135 Y5.07589
G01 X9.72220 Y5.18041
G01 X9.71923 Y5.20643
G01 X9.71487 Y5.23246
G01 X9.69455 Y5.33699
G01 X9.68804 Y5.36627
G01 X9.67990 Y5.39555
G01 X9.64726 Y5.50309
G01 X9.63836 Y5.52914
G01 X9.62415 Y5.56643
G01 X9.60966 Y5.59998
G01 X9.53656 Y5.59861
G01 X9.46008 Y5.60121
G01 X9.33482 Y5.59890
G01 X9.29270 Y5.60100
G01 X9.27436 Y5.60100
G01 X9.19833 Y5.59900
G01 X9.13724 Y5.60096
G01 X9.06357 Y5.59903
G01 X9.01037 Y5.60096
G01 X8.93724 Y5.59904
G01 X8.88204 Y5.60097
G01 X8.80762 Y5.59903
G01 X8.75679 Y5.60103
G01 X8.73963 Y5.60102
G01 X8.64223 Y5.59892
G01 X8.58909 Y5.60121
G01 X8.55080 Y5.60073
G01 X8.52676 Y5.60142
G01 X8.50204 Y5.60121
G01 X8.43590 Y5.59905
G01 X8.35359 Y5.60155
G01 X8.30165 Y5.60077
G04 P0 ( dwell for no time -- G64 should not smooth over this point )
G00 Z0.08000 ( retract )

G00 X8.86159 Y5.60049 ( rapid move to begin. )
G01 F3.00000
G01 Z-0.00800
G04 P0 ( dwell for no time -- G64 should not smooth over this point )
G01 F6.00000
G01 X8.86159 Y5.60049
G01 X8.97956 Y6.11146
G01 X8.97035 Y6.11388
G01 X8.95309 Y6.12193
G01 X8.93788 Y6.13338
G01 X8.92539 Y6.14776
G01 X8.91616 Y6.16441
G01 X8.91059 Y6.18262
G01 X8.90893 Y6.20159
G01 X8.91125 Y6.22049
G04 P0 ( dwell for no time -- G64 should not smooth over this point )
G00 Z0.08000 ( retract )

G00 X8.97956 Y6.11146 ( rapid move to begin. )
G01 F3.00000
G01 Z-0.00800
G04 P0 ( dwell for no time -- G64 should not smooth over this point )
G01 F6.00000
G01 X8.97956 Y6.11146
G01 X8.98890 Y6.10959
G01 X9.00794 Y6.10926
G01 X9.02663 Y6.11290
G01 X9.04416 Y6.12034
G01 X9.05975 Y6.13126
G01 X9.07274 Y6.14518
G01 X9.08255 Y6.16151
G01 X9.08875 Y6.17951
G01 X9.09107 Y6.19841
G01 X9.08941 Y6.21738
G01 X9.08384 Y6.23559
G01 X9.07461 Y6.25224
G01 X9.06212 Y6.26661
G01 X9.04691 Y6.27807
G01 X9.02965 Y6.28612
G01 X9.02044 Y6.28853
G04 P0 ( dwell for no time -- G64 should not smooth over this point )
G00 Z0.08000 ( retract )

G00 X9.08875 Y6.17951 ( rapid move to begin. )
G01 F3.00000
G01 Z-0.00800
G04 P0 ( dwell for no time -- G64 should not smooth over this point )
G01 F6.00000
G01 X9.08875 Y6.17951
G01 X9.72394 Y6.03287
G01 X9.71978 Y6.00212
G01 X9.70312 Y5.90262
G01 X9.69761 Y5.87434
G01 X9.69055 Y5.84605
G01 X9.66156 Y5.74152
G01 X9.65141 Y5.70840
G01 X9.63933 Y5.67528
G01 X9.60966 Y5.59998
G04 P0 ( dwell for no time -- G64 should not smooth over this point )
G00 Z0.08000 ( retract )

G00 X9.26898 Y7.36512 ( rapid move to begin. )
G01 F3.00000
G01 Z-0.00800
G04 P0 ( dwell for no time -- G64 should not smooth over this point )
G01 F6.00000
G01 X9.26898 Y7.36512
G01 X9.33527 Y7.28100
G01 X9.35872 Y7.24914
G01 X9.38091 Y7.21728
G01 X9.40184 Y7.18542
G01 X9.46843 Y7.08089
G01 X9.49805 Y7.03173
G01 X9.52426 Y6.98257
G01 X9.57638 Y6.87804
G01 X9.59464 Y6.83898
G01 X9.61046 Y6.79992
G01 X9.64954 Y6.69539
G01 X9.66064 Y6.66323
G01 X9.66988 Y6.63108
G01 X9.69691 Y6.52655
G01 X9.70332 Y6.49886
G01 X9.70821 Y6.47117
G01 X9.72383 Y6.36665
G01 X9.72693 Y6.34143
G01 X9.72870 Y6.31622
G01 X9.73326 Y6.21169
G01 X9.73369 Y6.18718
G01 X9.73284 Y6.16268
G01 X9.72675 Y6.06318
G01 X9.72394 Y6.03287
G04 P0 ( dwell for no time -- G64 should not smooth over this point )
G00 Z0.08000 ( retract )

G00 X6.65552 Y7.68847 ( rapid move to begin. )
G01 F3.00000
G01 Z-0.00800
G04 P0 ( dwell for no time -- G64 should not smooth over this point )
G01 F6.00000
G01 X6.65552 Y7.68847
G01 X6.76498 Y7.74816
G01 X6.87444 Y7.80440
G01 X6.98390 Y7.85718
G01 X7.09337 Y7.90650
G01 X7.19789 Y7.95195
G01 X7.29919 Y7.99448
G01 X7.40048 Y8.03399
G01 X7.50177 Y8.07046
G01 X7.60307 Y8.10392
G01 X7.70759 Y8.13687
G01 X7.80071 Y8.16493
G01 X7.89383 Y8.19038
G01 X7.98695 Y8.21323
G01 X8.08006 Y8.23348
G01 X8.18459 Y8.25475
G01 X8.27124 Y8.27124
G01 X8.35616 Y8.21072
G01 X8.43780 Y8.15020
G01 X8.51615 Y8.08968
G01 X8.59121 Y8.02916
G01 X8.71801 Y7.92463
G01 X8.78698 Y7.86639
G01 X8.85260 Y7.80815
G01 X8.91486 Y7.74992
G01 X8.97376 Y7.69168
G01 X9.07648 Y7.58715
G01 X9.11720 Y7.54471
G01 X9.15593 Y7.50227
G01 X9.19267 Y7.45982
G01 X9.22742 Y7.41738
G01 X9.26898 Y7.36512
G01 X9.02044 Y6.28853
G01 X9.01110 Y6.29040
G01 X8.99206 Y6.29074
G01 X8.97337 Y6.28710
G01 X8.95584 Y6.27966
G01 X8.94024 Y6.26874
G01 X8.92726 Y6.25481
G01 X8.91745 Y6.23849
G01 X8.91125 Y6.22049
G01 X7.13672 Y6.63015
G01 X7.03329 Y6.78306
G04 P0 ( dwell for no time -- G64 should not smooth over this point )
G00 Z0.08000 ( retract )

G00 X3.34281 Y7.48824 ( rapid move to begin. )
G01 F3.00000
G01 Z-0.00800
G04 P0 ( dwell for no time -- G64 should not smooth over this point )
G01 F6.00000
G01 X3.34281 Y7.48824
G01 X3.46280 Y7.50522
G01 X3.58280 Y7.51924
G01 X3.70280 Y7.53027
G01 X3.82280 Y7.53834
G01 X3.94279 Y7.54343
G01 X4.06279 Y7.54555
G01 X4.18279 Y7.54470
G01 X4.30278 Y7.54088
G01 X4.37890 Y7.55758
G01 X4.45502 Y7.57303
G01 X4.53114 Y7.58723
G01 X4.60726 Y7.60017
G01 X4.68338 Y7.61186
G01 X4.75950 Y7.62228
G01 X4.83562 Y7.63146
G01 X4.91174 Y7.63937
G01 X4.98785 Y7.64603
G01 X5.06397 Y7.65144
G01 X5.14009 Y7.65559
G01 X5.21621 Y7.65848
G01 X5.29233 Y7.66012
G01 X5.36845 Y7.66050
G01 X5.44457 Y7.65963
G01 X5.52069 Y7.65750
G01 X5.59161 Y7.66779
G01 X5.66254 Y7.67697
G01 X5.73347 Y7.68504
G01 X5.80439 Y7.69199
G01 X5.87532 Y7.69782
G01 X5.94625 Y7.70254
G01 X6.01717 Y7.70615
G01 X6.08810 Y7.70864
G01 X6.15903 Y7.71002
G01 X6.22996 Y7.71029
G01 X6.30088 Y7.70944
G01 X6.37181 Y7.70747
G01 X6.44274 Y7.70439
G01 X6.51366 Y7.70020
G01 X6.58459 Y7.69489
G01 X6.65552 Y7.68847
G01 X6.70224 Y7.58062
G01 X6.73621 Y7.49923
G01 X6.93709 Y7.00959
G01 X7.03329 Y6.78306
G01 X6.98043 Y6.57593
G01 X6.93426 Y6.38312
G01 X6.91368 Y6.29209
G01 X6.89476 Y6.20464
G01 X6.87752 Y6.12077
G01 X6.86195 Y6.04048
G01 X6.84804 Y5.96377
G01 X6.83581 Y5.89065
G01 X6.82524 Y5.82110
G01 X6.81635 Y5.75513
G01 X6.80912 Y5.69275
G01 X6.80357 Y5.63394
G01 X6.79969 Y5.57872
G01 X6.79747 Y5.52708
G01 X6.78999 Y5.25687
G01 X6.78891 Y5.23950
G01 X6.78664 Y5.22234
G01 X6.78318 Y5.20539
G01 X6.77853 Y5.18865
G01 X6.66818 Y4.83866
G01 X6.66340 Y4.82211
G01 X6.65939 Y4.80520
G01 X6.65615 Y4.78793
G01 X6.65368 Y4.77030
G01 X6.65104 Y4.73397
G01 X6.65148 Y4.69621
G01 X6.75105 Y2.75423
G01 X6.42218 Y3.57782
G01 X6.38394 Y3.67612
G01 X6.34909 Y3.77103
G01 X6.31762 Y3.86257
G01 X6.28954 Y3.95072
G01 X6.26484 Y4.03548
G01 X6.24352 Y4.11686
G01 X6.22559 Y4.19486
G01 X6.21104 Y4.26947
G01 X6.16253 Y4.54458
G01 X6.15245 Y4.59498
G01 X6.14064 Y4.64167
G01 X6.12711 Y4.68466
G01 X6.11184 Y4.72393
G01 X6.09484 Y4.75950
G01 X6.08570 Y4.77590
G01 X6.07612 Y4.79136
G01 X6.06611 Y4.80590
G01 X6.05567 Y4.81951
G01 X6.04479 Y4.83220
G01 X6.03348 Y4.84396
G01 X5.97605 Y4.87093
G01 X5.95247 Y4.88493
G01 X5.92661 Y4.90476
G01 X5.90864 Y4.92230
G01 X5.89661 Y4.93639
G01 X5.87775 Y4.96386
G01 X5.86447 Y4.98916
G01 X5.85259 Y5.01892
G01 X5.84432 Y5.04701
G01 X5.83874 Y5.07238
G01 X5.83472 Y5.09933
G01 X5.83229 Y5.12287
G01 X5.83080 Y5.15695
G01 X5.83083 Y5.18847
G01 X5.83255 Y5.22167
G01 X5.75414 Y5.66633
G01 X5.74806 Y5.70416
G01 X5.74299 Y5.74299
G01 X5.52069 Y7.65750
G04 P0 ( dwell for no time -- G64 should not smooth over this point )
G00 Z0.08000 ( retract )

G00 X-10.09750 Y0.00000 ( rapid move to begin. )
G01 F3.00000
G01 Z-0.00800
G04 P0 ( dwell for no time -- G64 should not smooth over this point )
G01 F6.00000
G01 X-10.09750 Y0.00000
G01 X-10.09750 Y10.00000
G01 X-10.09598 Y10.24745
G01 X-10.09142 Y10.49491
G01 X-10.08381 Y10.74236
G01 X-10.07285 Y10.99618
G01 X-10.05904 Y11.24562
G01 X-10.04214 Y11.49505
G01 X-10.02215 Y11.74449
G01 X-9.99907 Y11.99392
G01 X-9.97289 Y12.24335
G01 X-9.94363 Y12.49279
G01 X-9.91127 Y12.74222
G01 X-9.87489 Y12.99803
G01 X-9.85540 Y13.12666
G01 X-9.83509 Y13.25530
G01 X-9.81396 Y13.38394
G01 X-9.79200 Y13.51258
G01 X-9.76923 Y13.64121
G01 X-9.74563 Y13.76985
G01 X-9.72121 Y13.89849
G01 X-9.69597 Y14.02712
G01 X-9.66991 Y14.15576
G01 X-9.64302 Y14.28440
G01 X-9.61532 Y14.41304
G01 X-9.58679 Y14.54167
G01 X-9.55744 Y14.67031
G01 X-9.52726 Y14.79895
G01 X-9.46445 Y15.05622
G01 X-9.42856 Y15.19768
G01 X-9.39336 Y15.33277
G01 X-9.35725 Y15.46785
G01 X-9.32023 Y15.60294
G01 X-9.28231 Y15.73803
G01 X-9.24348 Y15.87312
G01 X-9.20375 Y16.00820
G01 X-9.16311 Y16.14329
G01 X-9.12156 Y16.27838
G01 X-9.07911 Y16.41347
G01 X-9.03575 Y16.54855
G01 X-8.99148 Y16.68364
G01 X-8.94631 Y16.81873
G01 X-8.90023 Y16.95382
G01 X-8.85325 Y17.08890
G01 X-8.80308 Y17.23036
G01 X-8.75182 Y17.37220
G01 X-8.69956 Y17.51403
G01 X-8.64630 Y17.65587
G01 X-8.59205 Y17.79770
G01 X-8.53680 Y17.93954
G01 X-8.48054 Y18.08137
G01 X-8.42329 Y18.22321
G01 X-8.36504 Y18.36504
G01 X-8.22321 Y18.42329
G01 X-8.08137 Y18.48054
G01 X-7.93954 Y18.53680
G01 X-7.79770 Y18.59205
G01 X-7.65587 Y18.64631
G01 X-7.51403 Y18.69956
G01 X-7.37220 Y18.75182
G01 X-7.23036 Y18.80308
G01 X-7.08890 Y18.85325
G01 X-6.95382 Y18.90023
G01 X-6.81873 Y18.94631
G01 X-6.68364 Y18.99148
G01 X-6.54855 Y19.03575
G01 X-6.41347 Y19.07911
G01 X-6.27838 Y19.12156
G01 X-6.14329 Y19.16311
G01 X-6.00820 Y19.20375
G01 X-5.87312 Y19.24348
G01 X-5.73803 Y19.28231
G01 X-5.60294 Y19.32023
G01 X-5.46785 Y19.35725
G01 X-5.33277 Y19.39336
G01 X-5.19768 Y19.42856
G01 X-5.05622 Y19.46445
G01 X-4.79895 Y19.52726
G01 X-4.67031 Y19.55744
G01 X-4.54167 Y19.58679
G01 X-4.41303 Y19.61532
G01 X-4.28440 Y19.64302
G01 X-4.15576 Y19.66991
G01 X-4.02712 Y19.69597
G01 X-3.89849 Y19.72121
G01 X-3.76985 Y19.74563
G01 X-3.64121 Y19.76923
G01 X-3.51258 Y19.79200
G01 X-3.38394 Y19.81396
G01 X-3.25530 Y19.83509
G01 X-3.12666 Y19.85540
G01 X-2.99166 Y19.87583
G01 X-2.74222 Y19.91127
G01 X-2.49279 Y19.94363
G01 X-2.24335 Y19.97289
G01 X-1.99392 Y19.99907
G01 X-1.74449 Y20.02215
G01 X-1.49505 Y20.04214
G01 X-1.24562 Y20.05904
G01 X-0.99618 Y20.07285
G01 X-0.74236 Y20.08381
G01 X-0.49491 Y20.09142
G01 X-0.24745 Y20.09598
G01 X0.00000 Y20.09750
G01 X10.00000 Y20.09750
G01 X10.24745 Y20.09598
G01 X10.49491 Y20.09142
G01 X10.74236 Y20.08381
G01 X10.99618 Y20.07285
G01 X11.24562 Y20.05904
G01 X11.49505 Y20.04214
G01 X11.74449 Y20.02215
G01 X11.99392 Y19.99907
G01 X12.24335 Y19.97289
G01 X12.49279 Y19.94363
G01 X12.74222 Y19.91127
G01 X12.99803 Y19.87488
G01 X13.12666 Y19.85540
G01 X13.25530 Y19.83509
G01 X13.38394 Y19.81396
G01 X13.51258 Y19.79200
G01 X13.64121 Y19.76923
G01 X13.76985 Y19.74563
G01 X13.89849 Y19.72121
G01 X14.02712 Y19.69597
G01 X14.15576 Y19.66991
G01 X14.28440 Y19.64302
G01 X14.41304 Y19.61532
G01 X14.54167 Y19.58679
G01 X14.67031 Y19.55744
G01 X14.79895 Y19.52726
G01 X15.05622 Y19.46445
G01 X15.19768 Y19.42856
G01 X15.33277 Y19.39336
G01 X15.46785 Y19.35725
G01 X15.60294 Y19.32023
G01 X15.73803 Y19.28231
G01 X15.87312 Y19.24348
G01 X16.00820 Y19.20375
G01 X16.14329 Y19.16311
G01 X16.27838 Y19.12156
G01 X16.41347 Y19.07911
G01 X16.54855 Y19.03575
G01 X16.68364 Y18.99148
G01 X16.81873 Y18.94631
G01 X16.95382 Y18.90023
G01 X17.08890 Y18.85325
G01 X17.23036 Y18.80308
G01 X17.37220 Y18.75182
G01 X17.51403 Y18.69956
G01 X17.65587 Y18.64631
G01 X17.79770 Y18.59205
G01 X17.93954 Y18.53680
G01 X18.08137 Y18.48054
G01 X18.22321 Y18.42329
G01 X18.36504 Y18.36504
G01 X18.42329 Y18.22321
G01 X18.48054 Y18.08137
G01 X18.53680 Y17.93954
G01 X18.59205 Y17.79770
G01 X18.64631 Y17.65587
G01 X18.69956 Y17.51403
G01 X18.75182 Y17.37220
G01 X18.80308 Y17.23036
G01 X18.85325 Y17.08890
G01 X18.90023 Y16.95382
G01 X18.94631 Y16.81873
G01 X18.99148 Y16.68364
G01 X19.03575 Y16.54855
G01 X19.07911 Y16.41347
G01 X19.12156 Y16.27838
G01 X19.16311 Y16.14329
G01 X19.20375 Y16.00820
G01 X19.24348 Y15.87312
G01 X19.28231 Y15.73803
G01 X19.32023 Y15.60294
G01 X19.35725 Y15.46785
G01 X19.39336 Y15.33277
G01 X19.42856 Y15.19768
G01 X19.46445 Y15.05622
G01 X19.52726 Y14.79895
G01 X19.55744 Y14.67031
G01 X19.58679 Y14.54167
G01 X19.61532 Y14.41304
G01 X19.64302 Y14.28440
G01 X19.66991 Y14.15576
G01 X19.69597 Y14.02712
G01 X19.72121 Y13.89849
G01 X19.74563 Y13.76985
G01 X19.76923 Y13.64121
G01 X19.79200 Y13.51258
G01 X19.81396 Y13.38394
G01 X19.83509 Y13.25530
G01 X19.85540 Y13.12666
G01 X19.87583 Y12.99166
G01 X19.91127 Y12.74222
G01 X19.94363 Y12.49279
G01 X19.97289 Y12.24335
G01 X19.99907 Y11.99392
G01 X20.02215 Y11.74449
G01 X20.04214 Y11.49505
G01 X20.05904 Y11.24562
G01 X20.07285 Y10.99618
G01 X20.08381 Y10.74236
G01 X20.09142 Y10.49491
G01 X20.09598 Y10.24745
G01 X20.09750 Y10.00000
G01 X20.09750 Y0.00000
G01 X20.09598 Y-0.24745
G01 X20.09142 Y-0.49491
G01 X20.08381 Y-0.74236
G01 X20.07285 Y-0.99618
G01 X20.05904 Y-1.24562
G01 X20.04214 Y-1.49505
G01 X20.02215 Y-1.74449
G01 X19.99907 Y-1.99392
G01 X19.97289 Y-2.24335
G01 X19.94363 Y-2.49279
G01 X19.91127 Y-2.74222
G01 X19.87488 Y-2.99803
G01 X19.85540 Y-3.12666
G01 X19.83509 Y-3.25530
G01 X19.81396 Y-3.38394
G01 X19.79200 Y-3.51258
G01 X19.76923 Y-3.64121
G01 X19.74563 Y-3.76985
G01 X19.72121 Y-3.89849
G01 X19.69597 Y-4.02712
G01 X19.66991 Y-4.15576
G01 X19.64302 Y-4.28440
G01 X19.61532 Y-4.41303
G01 X19.58679 Y-4.54167
G01 X19.55744 Y-4.67031
G01 X19.52726 Y-4.79895
G01 X19.46445 Y-5.05622
G01 X19.42856 Y-5.19768
G01 X19.39336 Y-5.33277
G01 X19.35725 Y-5.46785
G01 X19.32023 Y-5.60294
G01 X19.28231 Y-5.73803
G01 X19.24348 Y-5.87312
G01 X19.20375 Y-6.00820
G01 X19.16311 Y-6.14329
G01 X19.12156 Y-6.27838
G01 X19.07911 Y-6.41347
G01 X19.03575 Y-6.54855
G01 X18.99148 Y-6.68364
G01 X18.94631 Y-6.81873
G01 X18.90023 Y-6.95382
G01 X18.85325 Y-7.08890
G01 X18.80308 Y-7.23036
G01 X18.75182 Y-7.37220
G01 X18.69956 Y-7.51403
G01 X18.64631 Y-7.65587
G01 X18.59205 Y-7.79770
G01 X18.53680 Y-7.93954
G01 X18.48054 Y-8.08137
G01 X18.42329 Y-8.22321
G01 X18.36504 Y-8.36504
G01 X18.22321 Y-8.42329
G01 X18.08137 Y-8.48054
G01 X17.93954 Y-8.53680
G01 X17.79770 Y-8.59205
G01 X17.65587 Y-8.64630
G01 X17.51403 Y-8.69956
G01 X17.37220 Y-8.75182
G01 X17.22399 Y-8.80536
G01 X17.08890 Y-8.85325
G01 X16.95382 Y-8.90023
G01 X16.81873 Y-8.94631
G01 X16.68364 Y-8.99148
G01 X16.54855 Y-9.03575
G01 X16.41347 Y-9.07911
G01 X16.27838 Y-9.12156
G01 X16.14329 Y-9.16311
G01 X16.00820 Y-9.20375
G01 X15.87312 Y-9.24348
G01 X15.73803 Y-9.28231
G01 X15.60294 Y-9.32023
G01 X15.46785 Y-9.35725
G01 X15.33277 Y-9.39336
G01 X15.19768 Y-9.42856
G01 X15.05622 Y-9.46445
G01 X14.79895 Y-9.52726
G01 X14.67031 Y-9.55744
G01 X14.54167 Y-9.58679
G01 X14.41304 Y-9.61532
G01 X14.28440 Y-9.64302
G01 X14.15576 Y-9.66991
G01 X14.02712 Y-9.69597
G01 X13.89849 Y-9.72121
G01 X13.76985 Y-9.74563
G01 X13.64121 Y-9.76923
G01 X13.51258 Y-9.79200
G01 X13.38394 Y-9.81396
G01 X13.25530 Y-9.83509
G01 X13.12666 Y-9.85540
G01 X12.99803 Y-9.87489
G01 X12.74222 Y-9.91127
G01 X12.49279 Y-9.94363
G01 X12.24335 Y-9.97289
G01 X11.99392 Y-9.99907
G01 X11.74449 Y-10.02215
G01 X11.49505 Y-10.04214
G01 X11.24562 Y-10.05904
G01 X10.99618 Y-10.07285
G01 X10.74236 Y-10.08381
G01 X10.49491 Y-10.09142
G01 X10.24745 Y-10.09598
G01 X10.00000 Y-10.09750
G01 X0.00000 Y-10.09750
G01 X-0.13292 Y-10.09706
G01 X-0.26585 Y-10.09574
G01 X-0.39877 Y-10.09355
G01 X-0.53169 Y-10.09048
G01 X-0.66363 Y-10.08658
G01 X-0.79556 Y-10.08182
G01 X-0.92750 Y-10.07620
G01 X-1.05943 Y-10.06971
G01 X-1.19137 Y-10.06236
G01 X-1.32330 Y-10.05414
G01 X-1.45524 Y-10.04505
G01 X-1.58717 Y-10.03511
G01 X-1.72370 Y-10.02393
G01 X-1.85683 Y-10.01213
G01 X-1.98996 Y-9.99945
G01 X-2.12310 Y-9.98590
G01 X-2.25623 Y-9.97146
G01 X-2.38936 Y-9.95615
G01 X-2.52249 Y-9.93995
G01 X-2.65562 Y-9.92287
G01 X-2.79438 Y-9.90416
G01 X-2.92973 Y-9.88498
G01 X-3.06509 Y-9.86490
G01 X-3.20045 Y-9.84390
G01 X-3.33580 Y-9.82199
G01 X-3.47116 Y-9.79918
G01 X-3.60652 Y-9.77545
G01 X-3.74187 Y-9.75082
G01 X-3.88299 Y-9.72419
G01 X-4.02071 Y-9.69724
G01 X-4.15843 Y-9.66936
G01 X-4.29614 Y-9.64053
G01 X-4.43386 Y-9.61077
G01 X-4.57158 Y-9.58006
G01 X-4.70929 Y-9.54840
G01 X-4.85041 Y-9.51499
G01 X-4.99139 Y-9.48065
G01 X-5.13237 Y-9.44532
G01 X-5.27336 Y-9.40900
G01 X-5.41434 Y-9.37170
G01 X-5.55532 Y-9.33341
G01 X-5.69630 Y-9.29413
G01 X-5.83728 Y-9.25386
G01 X-5.97827 Y-9.21261
G01 X-6.12791 Y-9.16777
G01 X-6.27416 Y-9.12287
G01 X-6.42040 Y-9.07691
G01 X-6.56665 Y-9.02989
G01 X-6.71289 Y-8.98180
G01 X-6.85914 Y-8.93266
G01 X-7.00538 Y-8.88245
G01 X-7.15503 Y-8.82997
G01 X-7.30606 Y-8.77591
G01 X-7.45710 Y-8.72071
G01 X-7.60814 Y-8.66438
G01 X-7.75917 Y-8.60691
G01 X-7.91021 Y-8.54832
G01 X-8.06125 Y-8.48859
G01 X-8.21228 Y-8.42772
G01 X-8.36502 Y-8.36502
G01 X-8.42772 Y-8.21228
G01 X-8.48859 Y-8.06125
G01 X-8.54832 Y-7.91021
G01 X-8.60691 Y-7.75917
G01 X-8.66438 Y-7.60814
G01 X-8.72071 Y-7.45710
G01 X-8.77591 Y-7.30606
G01 X-8.83118 Y-7.15163
G01 X-8.88245 Y-7.00538
G01 X-8.93266 Y-6.85914
G01 X-8.98180 Y-6.71289
G01 X-9.02989 Y-6.56665
G01 X-9.07691 Y-6.42040
G01 X-9.12287 Y-6.27416
G01 X-9.16777 Y-6.12791
G01 X-9.21160 Y-5.98167
G01 X-9.25386 Y-5.83728
G01 X-9.29413 Y-5.69630
G01 X-9.33341 Y-5.55532
G01 X-9.37170 Y-5.41434
G01 X-9.40900 Y-5.27336
G01 X-9.44532 Y-5.13237
G01 X-9.48065 Y-4.99139
G01 X-9.51499 Y-4.85041
G01 X-9.54840 Y-4.70929
G01 X-9.58006 Y-4.57158
G01 X-9.61077 Y-4.43386
G01 X-9.64053 Y-4.29614
G01 X-9.66936 Y-4.15843
G01 X-9.69724 Y-4.02071
G01 X-9.72419 Y-3.88299
G01 X-9.75082 Y-3.74187
G01 X-9.77545 Y-3.60652
G01 X-9.79918 Y-3.47116
G01 X-9.82199 Y-3.33580
G01 X-9.84390 Y-3.20045
G01 X-9.86490 Y-3.06509
G01 X-9.88498 Y-2.92973
G01 X-9.90416 Y-2.79438
G01 X-9.92242 Y-2.65902
G01 X-9.93995 Y-2.52249
G01 X-9.95615 Y-2.38936
G01 X-9.97146 Y-2.25623
G01 X-9.98590 Y-2.12310
G01 X-9.99945 Y-1.98996
G01 X-10.01213 Y-1.85683
G01 X-10.02393 Y-1.72370
G01 X-10.03484 Y-1.59057
G01 X-10.04504 Y-1.45545
G01 X-10.05411 Y-1.32373
G01 X-10.06232 Y-1.19200
G01 X-10.06967 Y-1.06028
G01 X-10.07615 Y-0.92856
G01 X-10.08177 Y-0.79684
G01 X-10.08653 Y-0.66512
G01 X-10.09052 Y-0.52999
G01 X-10.09357 Y-0.39749
G01 X-10.09576 Y-0.26500
G01 X-10.09706 Y-0.13250
G01 X-10.09750 Y0.00000

G04 P0 ( dwell for no time -- G64 should not smooth over this point )
G00 Z1.000 ( retract )

M5 ( Spindle off. )
G04 P1.000000
M9 ( Coolant off. )
M2 ( Program end. )

