( pcb2gcode 2.2.2 )
( Software-independent Gcode )

G94 ( Inches per minute feed rate. )
G20 ( Units == INCHES. )

G90 ( Absolute coordinates. )
G00 S30000 ( RPM spindle speed. )
G64 P0.00040 ( set maximum deviation from commanded toolpath )
G01 F6.00000 ( Feedrate. )


G00 Z1.00000 (Retract to tool change height)
T0
M5      (Spindle stop.)
G04 P1.00000 (Wait for spindle to stop)
(MSG, Change tool bit to mill diameter 0.20000in)
M6      (Tool change.)
M0      (Temporary machine stop.)
M3 ( Spindle on clockwise. )
G04 P1.00000 (Wait for spindle to get up to speed)
G04 P0 ( dwell for no time -- G64 should not smooth over this point )
G00 Z0.08000 ( retract )

G00 X-0.33250 Y-0.33250 ( rapid move to begin. )
G01 F3.00000
( Mill infeed pass 1/1 )
G01 Z-0.00800
G04 P0 ( dwell for no time -- G64 should not smooth over this point )
G01 F6.00000
G01 X-0.33250 Y-0.33250
G01 X-0.33250 Y10.33250
G01 X10.33250 Y10.33250
G01 X10.33250 Y-0.33250
G01 X-0.33250 Y-0.33250
G04 P0 ( dwell for no time -- G64 should not smooth over this point )
G00 Z0.08000 ( retract )

G00 X1.20885 Y3.81393 ( rapid move to begin. )
G01 F3.00000
( Mill infeed pass 1/1 )
G01 Z-0.00800
G04 P0 ( dwell for no time -- G64 should not smooth over this point )
G01 F6.00000
G01 X1.20885 Y3.81393
G01 X1.19291 Y3.84472
G01 X1.16628 Y3.89698
G01 X1.13835 Y3.95354
G01 X1.11220 Y4.01009
G01 X1.08783 Y4.06664
G01 X1.06523 Y4.12319
G01 X1.04517 Y4.17546
G01 X1.02628 Y4.22659
G01 X1.00888 Y4.27773
G01 X0.99295 Y4.32886
G01 X0.97851 Y4.38000
G01 X0.96450 Y4.43227
G01 X0.95239 Y4.47992
G01 X0.94158 Y4.52756
G01 X0.93207 Y4.57520
G01 X0.92387 Y4.62285
G01 X0.91559 Y4.67511
G01 X0.90897 Y4.72077
G01 X0.90355 Y4.76644
G01 X0.89934 Y4.81211
G01 X0.89634 Y4.85778
G01 X0.89360 Y4.91004
G01 X0.89184 Y4.95502
G01 X0.89125 Y5.00000
G01 X0.89184 Y5.04498
G01 X0.89360 Y5.08995
G01 X0.89634 Y5.14222
G01 X0.89934 Y5.18789
G01 X0.90355 Y5.23356
G01 X0.90897 Y5.27923
G01 X0.91559 Y5.32489
G01 X0.92387 Y5.37715
G01 X0.93207 Y5.42479
G01 X0.94158 Y5.47244
G01 X0.95239 Y5.52008
G01 X0.96450 Y5.56772
G01 X0.97851 Y5.62000
G01 X0.99295 Y5.67113
G01 X1.00888 Y5.72227
G01 X1.02628 Y5.77341
G01 X1.04517 Y5.82454
G01 X1.06523 Y5.87680
G01 X1.08783 Y5.93336
G01 X1.11220 Y5.98991
G01 X1.13835 Y6.04646
G01 X1.16628 Y6.10302
G01 X1.19291 Y6.15528
G01 X1.22690 Y6.21978
G01 X1.26314 Y6.28427
G01 X1.30165 Y6.34877
G01 X1.34241 Y6.41326
G01 X1.37636 Y6.46553
G01 X1.42705 Y6.54123
G01 X1.48076 Y6.61693
G01 X1.53751 Y6.69263
G01 X1.59729 Y6.76833
G01 X1.63961 Y6.82060
G01 X1.67755 Y6.86677
G01 X1.71659 Y6.91295
G01 X1.75672 Y6.95912
G01 X1.79795 Y7.00530
G01 X1.84029 Y7.05147
G01 X1.88372 Y7.09765
G01 X1.97387 Y7.19000
G01 X2.02613 Y7.24226
G01 X2.11566 Y7.32986
G01 X2.20903 Y7.41746
G01 X2.30626 Y7.50507
G01 X2.40733 Y7.59267
G01 X2.52230 Y7.58198
G01 X2.57456 Y7.57648
G01 X2.69712 Y7.56201
G01 X2.81969 Y7.54436
G01 X2.94225 Y7.52353
G01 X3.06482 Y7.49953
G01 X3.13432 Y7.49817
G01 X3.20382 Y7.49584
G01 X3.27331 Y7.49253
G01 X3.34281 Y7.48824
G01 X3.46281 Y7.50522
G01 X3.58281 Y7.51923
G01 X3.70280 Y7.53027
G01 X3.82280 Y7.53834
G01 X3.94279 Y7.54343
G01 X4.06279 Y7.54555
G01 X4.18278 Y7.54470
G01 X4.30278 Y7.54087
G01 X4.37890 Y7.55758
G01 X4.45502 Y7.57303
G01 X4.53114 Y7.58723
G01 X4.60726 Y7.60017
G01 X4.68338 Y7.61185
G01 X4.75950 Y7.62228
G01 X4.83561 Y7.63145
G01 X4.91173 Y7.63937
G01 X4.98785 Y7.64603
G01 X5.06397 Y7.65144
G01 X5.14009 Y7.65559
G01 X5.21621 Y7.65848
G01 X5.29233 Y7.66012
G01 X5.36845 Y7.66050
G01 X5.44457 Y7.65963
G01 X5.52069 Y7.65750
G01 X5.59161 Y7.66779
G01 X5.66254 Y7.67697
G01 X5.73347 Y7.68504
G01 X5.80439 Y7.69198
G01 X5.87532 Y7.69782
G01 X5.94625 Y7.70254
G01 X6.01717 Y7.70615
G01 X6.08810 Y7.70864
G01 X6.15903 Y7.71002
G01 X6.22995 Y7.71029
G01 X6.30088 Y7.70944
G01 X6.37181 Y7.70747
G01 X6.44273 Y7.70439
G01 X6.51366 Y7.70020
G01 X6.58459 Y7.69489
G01 X6.65551 Y7.68847
G01 X6.76501 Y7.74818
G01 X6.87450 Y7.80443
G01 X6.98399 Y7.85722
G01 X7.09349 Y7.90656
G01 X7.19801 Y7.95200
G01 X7.29927 Y7.99451
G01 X7.40053 Y8.03400
G01 X7.50178 Y8.07047
G01 X7.60304 Y8.10391
G01 X7.70758 Y8.13687
G01 X7.80069 Y8.16493
G01 X7.89381 Y8.19038
G01 X7.98693 Y8.21323
G01 X8.08005 Y8.23348
G01 X8.18456 Y8.25474
G01 X8.27124 Y8.27124
G01 X8.35614 Y8.21073
G01 X8.43775 Y8.15023
G01 X8.51608 Y8.08973
G01 X8.59113 Y8.02922
G01 X8.71794 Y7.92469
G01 X8.78694 Y7.86643
G01 X8.85259 Y7.80816
G01 X8.91488 Y7.74990
G01 X8.97382 Y7.69163
G01 X9.07653 Y7.58710
G01 X9.11721 Y7.54469
G01 X9.15592 Y7.50228
G01 X9.19263 Y7.45986
G01 X9.22737 Y7.41745
G01 X9.31054 Y7.31288
G01 X9.33526 Y7.28102
G01 X9.35872 Y7.24915
G01 X9.38091 Y7.21728
G01 X9.40184 Y7.18541
G01 X9.46844 Y7.08088
G01 X9.49805 Y7.03173
G01 X9.52425 Y6.98259
G01 X9.57637 Y6.87806
G01 X9.59463 Y6.83899
G01 X9.61046 Y6.79992
G01 X9.64954 Y6.69539
G01 X9.66064 Y6.66323
G01 X9.66989 Y6.63107
G01 X9.69691 Y6.52654
G01 X9.70332 Y6.49886
G01 X9.70821 Y6.47117
G01 X9.72383 Y6.36663
G01 X9.72693 Y6.34142
G01 X9.72870 Y6.31621
G01 X9.73326 Y6.21168
G01 X9.73369 Y6.18719
G01 X9.73284 Y6.16269
G01 X9.72675 Y6.06318
G01 X9.72394 Y6.03283
G01 X9.71977 Y6.00211
G01 X9.70312 Y5.90260
G01 X9.69761 Y5.87433
G01 X9.69055 Y5.84606
G01 X9.66156 Y5.74154
G01 X9.65141 Y5.70840
G01 X9.63932 Y5.67526
G01 X9.60967 Y5.59998
G01 X9.62417 Y5.56639
G01 X9.63470 Y5.53918
G01 X9.63835 Y5.52918
G01 X9.64726 Y5.50310
G01 X9.65500 Y5.47701
G01 X9.67990 Y5.39556
G01 X9.68804 Y5.36628
G01 X9.69455 Y5.33699
G01 X9.71487 Y5.23246
G01 X9.71923 Y5.20644
G01 X9.72220 Y5.18041
G01 X9.73135 Y5.07589
G01 X9.73285 Y5.05129
G01 X9.73307 Y5.02669
G01 X9.73124 Y4.92216
G01 X9.73015 Y4.89729
G01 X9.72776 Y4.87242
G01 X9.71492 Y4.76790
G01 X9.71089 Y4.74099
G01 X9.70541 Y4.71408
G01 X9.68127 Y4.60955
G01 X9.67328 Y4.57873
G01 X9.66354 Y4.54791
G01 X9.62756 Y4.44339
G01 X9.61365 Y4.40630
G01 X9.59644 Y4.36695
G01 X9.57657 Y4.32076
G01 X9.57190 Y4.31076
G01 X9.52547 Y4.21814
G01 X9.49936 Y4.17212
G01 X9.43654 Y4.06759
G01 X9.41808 Y4.03781
G01 X9.39848 Y4.00803
G01 X9.37775 Y3.97825
G01 X9.35587 Y3.94847
G01 X9.27711 Y3.84395
G01 X9.24655 Y3.80456
G01 X9.21423 Y3.76518
G01 X9.18015 Y3.72580
G01 X9.14431 Y3.68642
G01 X9.04685 Y3.58189
G01 X8.99534 Y3.52823
G01 X8.94091 Y3.47456
G01 X8.88356 Y3.42089
G01 X8.82328 Y3.36722
G01 X8.70303 Y3.26269
G01 X8.65891 Y3.22490
G01 X8.61347 Y3.18712
G01 X8.56672 Y3.14933
G01 X8.51866 Y3.11155
G01 X8.41861 Y3.03598
G01 X8.31331 Y2.96041
G01 X8.16403 Y2.85588
G01 X8.07777 Y2.79652
G01 X7.98855 Y2.73716
G01 X7.89636 Y2.67780
G01 X7.80119 Y2.61844
G01 X7.74847 Y2.56807
G01 X7.69454 Y2.51770
G01 X7.63939 Y2.46733
G01 X7.58303 Y2.41697
G01 X7.51236 Y2.42183
G01 X7.44169 Y2.42775
G01 X7.37102 Y2.43472
G01 X7.30035 Y2.44275
G01 X7.18754 Y2.43319
G01 X7.07473 Y2.42630
G01 X6.96192 Y2.42207
G01 X6.84911 Y2.42050
G01 X6.76483 Y2.39674
G01 X6.68055 Y2.37459
G01 X6.59627 Y2.35405
G01 X6.51199 Y2.33512
G01 X6.42771 Y2.31781
G01 X6.34343 Y2.30211
G01 X6.25916 Y2.28803
G01 X6.17488 Y2.27556
G01 X6.09060 Y2.26470
G01 X6.00632 Y2.25546
G01 X5.92204 Y2.24783
G01 X5.83776 Y2.24181
G01 X5.75348 Y2.23741
G01 X5.66921 Y2.23462
G01 X5.58493 Y2.23345
G01 X5.50065 Y2.23388
G01 X5.41637 Y2.23594
G01 X5.33209 Y2.23960
G01 X5.24781 Y2.24488
G01 X5.16353 Y2.25177
G01 X5.07925 Y2.26028
G01 X4.99498 Y2.27040
G01 X4.91070 Y2.28214
G01 X4.82642 Y2.29548
G01 X4.74214 Y2.31045
G01 X4.65786 Y2.32702
G01 X4.57358 Y2.34521
G01 X4.48930 Y2.36501
G01 X4.40503 Y2.38643
G01 X4.32075 Y2.40945
G01 X4.23647 Y2.43410
G01 X4.15219 Y2.46035
G01 X4.02982 Y2.45582
G01 X3.90746 Y2.45438
G01 X3.79804 Y2.41461
G01 X3.68861 Y2.37765
G01 X3.57918 Y2.34352
G01 X3.46976 Y2.31222
G01 X3.36033 Y2.28373
G01 X3.25091 Y2.25807
G01 X3.14148 Y2.23522
G01 X3.03206 Y2.21521
G01 X2.92263 Y2.19801
G01 X2.81320 Y2.18363
G01 X2.70378 Y2.17208
G01 X2.59435 Y2.16335
G01 X2.48493 Y2.15744
G01 X2.37550 Y2.15436
G01 X2.26608 Y2.15409
G01 X2.15665 Y2.15665
G01 X2.08954 Y2.23009
G01 X2.02480 Y2.30352
G01 X1.96242 Y2.37696
G01 X1.90242 Y2.45039
G01 X1.84478 Y2.52383
G01 X1.78950 Y2.59726
G01 X1.73660 Y2.67070
G01 X1.68606 Y2.74413
G01 X1.63788 Y2.81757
G01 X1.59208 Y2.89100
G01 X1.54864 Y2.96444
G01 X1.50757 Y3.03787
G01 X1.46887 Y3.11131
G01 X1.43253 Y3.18474
G01 X1.39856 Y3.25818
G01 X1.36696 Y3.33161
G01 X1.34625 Y3.38160
G01 X1.32452 Y3.43565
G01 X1.30409 Y3.48969
G01 X1.28496 Y3.54373
G01 X1.26713 Y3.59777
G01 X1.25061 Y3.65181
G01 X1.23539 Y3.70585
G01 X1.22147 Y3.75989
G01 X1.20885 Y3.81393
G01 X1.58530 Y4.13252
G01 X1.63067 Y4.17019
G01 X1.67501 Y4.20554
G01 X1.83011 Y4.32658
G01 X1.86195 Y4.35067
G01 X1.89340 Y4.37295
G01 X1.97387 Y4.42796
G01 X2.00000 Y4.44505
G01 X2.02613 Y4.46059
G01 X2.08133 Y4.49178
G01 X2.12921 Y4.51787
G01 X2.15203 Y4.53103
G01 X2.17384 Y4.54518
G01 X2.21765 Y4.57529
G01 X2.23692 Y4.58928
G01 X2.25530 Y4.60415
G01 X2.29516 Y4.63820
G01 X2.31204 Y4.65339
G01 X2.32808 Y4.66943
G01 X2.36407 Y4.70735
G01 X2.37944 Y4.72443
G01 X2.39395 Y4.74236
G01 X2.42605 Y4.78419
G01 X2.44052 Y4.80412
G01 X2.45406 Y4.82499
G01 X2.48214 Y4.87081
G01 X2.49608 Y4.89499
G01 X2.50893 Y4.92025
G01 X2.53280 Y4.97029
G01 X2.54629 Y5.00067
G01 X2.55844 Y5.03240
G01 X2.57777 Y5.08698
G01 X2.59060 Y5.12661
G01 X2.60164 Y5.16802
G01 X2.61595 Y5.22762
G01 X2.62319 Y5.26021
G01 X2.63154 Y5.33584
G01 X2.63529 Y5.36750
G01 X2.63996 Y5.39970
G01 X2.65309 Y5.48281
G01 X2.66542 Y5.56397
G01 X2.67212 Y5.60517
G01 X2.67983 Y5.64727
G01 X2.69077 Y5.70408
G01 X2.74215 Y5.97699
G01 X2.76495 Y6.09054
G01 X2.99660 Y7.18659
G01 X3.00340 Y7.21860
G01 X3.04598 Y7.41460
G01 X3.06482 Y7.49953
G04 P0 ( dwell for no time -- G64 should not smooth over this point )
G00 Z0.08000 ( retract )

G00 X3.34281 Y7.48824 ( rapid move to begin. )
G01 F3.00000
( Mill infeed pass 1/1 )
G01 Z-0.00800
G04 P0 ( dwell for no time -- G64 should not smooth over this point )
G01 F6.00000
G01 X3.34281 Y7.48824
G01 X3.39653 Y6.85098
G01 X3.46507 Y6.05474
G01 X3.49517 Y5.71696
G01 X3.49744 Y5.68979
G01 X3.50000 Y5.65580
G01 X3.50000 Y5.36419
G01 X3.49686 Y5.32917
G01 X3.49295 Y5.29492
G01 X3.47651 Y5.15847
G01 X3.46451 Y5.05221
G01 X3.45437 Y4.95569
G01 X3.44499 Y4.85892
G01 X3.43484 Y4.74466
G01 X3.42489 Y4.62256
G01 X3.41161 Y4.44636
G01 X3.41161 Y4.37626
G01 X3.41302 Y4.29972
G01 X3.41726 Y4.22036
G01 X3.42431 Y4.13817
G01 X3.43419 Y4.05316
G01 X3.44689 Y3.96533
G01 X3.46241 Y3.87467
G01 X3.48076 Y3.78120
G01 X3.50193 Y3.68490
G01 X3.52592 Y3.58578
G01 X3.55273 Y3.48383
G01 X3.58236 Y3.37907
G01 X3.61482 Y3.27148
G01 X3.65010 Y3.16107
G01 X3.68820 Y3.04783
G01 X3.72912 Y2.93178
G01 X3.77287 Y2.81290
G01 X3.90746 Y2.45438
G04 P0 ( dwell for no time -- G64 should not smooth over this point )
G00 Z0.08000 ( retract )

G00 X4.15219 Y2.46035 ( rapid move to begin. )
G01 F3.00000
( Mill infeed pass 1/1 )
G01 Z-0.00800
G04 P0 ( dwell for no time -- G64 should not smooth over this point )
G01 F6.00000
G01 X4.15219 Y2.46035
G01 X4.35654 Y3.22515
G01 X4.39012 Y3.35623
G01 X4.41979 Y3.48339
G01 X4.44553 Y3.60663
G01 X4.46736 Y3.72594
G01 X4.47680 Y3.78413
G01 X4.48526 Y3.84134
G01 X4.49274 Y3.89756
G01 X4.49924 Y3.95281
G01 X4.50476 Y4.00708
G01 X4.50930 Y4.06037
G01 X4.51286 Y4.11267
G01 X4.51544 Y4.16400
G01 X4.50483 Y4.28305
G01 X4.50255 Y4.31020
G01 X4.50000 Y4.34420
G01 X4.50000 Y4.63581
G01 X4.50314 Y4.67083
G01 X4.50705 Y4.70509
G01 X4.52436 Y4.84895
G01 X4.53549 Y4.94779
G01 X4.54631 Y5.05107
G01 X4.55566 Y5.14801
G01 X4.56516 Y5.25534
G01 X4.57578 Y5.38597
G01 X4.58966 Y5.57002
G01 X4.59529 Y5.63062
G01 X4.60468 Y5.71858
G01 X4.60237 Y5.76887
G01 X4.59894 Y5.82027
G01 X4.59441 Y5.87279
G01 X4.58876 Y5.92642
G01 X4.58200 Y5.98116
G01 X4.57413 Y6.03701
G01 X4.56515 Y6.09397
G01 X4.55506 Y6.15204
G01 X4.30278 Y7.54087
G04 P0 ( dwell for no time -- G64 should not smooth over this point )
G00 Z0.08000 ( retract )

G00 X5.52069 Y7.65750 ( rapid move to begin. )
G01 F3.00000
( Mill infeed pass 1/1 )
G01 Z-0.00800
G04 P0 ( dwell for no time -- G64 should not smooth over this point )
G01 F6.00000
G01 X5.52069 Y7.65750
G01 X5.74299 Y5.74300
G01 X5.74806 Y5.70416
G01 X5.75414 Y5.66633
G01 X5.83255 Y5.22167
G01 X5.83083 Y5.18834
G01 X5.83080 Y5.15671
G01 X5.83105 Y5.14735
G01 X5.83230 Y5.12283
G01 X5.83471 Y5.09947
G01 X5.83582 Y5.09098
G01 X5.83872 Y5.07247
G01 X5.84245 Y5.05478
G01 X5.84431 Y5.04704
G01 X5.85260 Y5.01890
G01 X5.85511 Y5.01180
G01 X5.86446 Y4.98918
G01 X5.86756 Y4.98267
G01 X5.87777 Y4.96384
G01 X5.88142 Y4.95788
G01 X5.89248 Y4.94177
G01 X5.89665 Y4.93634
G01 X5.90859 Y4.92236
G01 X5.91326 Y4.91743
G01 X5.92657 Y4.90479
G01 X5.93176 Y4.90036
G01 X5.94684 Y4.88880
G01 X5.95254 Y4.88489
G01 X5.96983 Y4.87431
G01 X5.97605 Y4.87093
G01 X5.99373 Y4.86237
G01 X6.00340 Y4.85808
G01 X6.03348 Y4.84396
G01 X6.04479 Y4.83220
G01 X6.05566 Y4.81952
G01 X6.06611 Y4.80591
G01 X6.07612 Y4.79137
G01 X6.08569 Y4.77590
G01 X6.09484 Y4.75951
G01 X6.11184 Y4.72394
G01 X6.12710 Y4.68467
G01 X6.14064 Y4.64168
G01 X6.15245 Y4.59499
G01 X6.16252 Y4.54459
G01 X6.21104 Y4.26948
G01 X6.22559 Y4.19487
G01 X6.24352 Y4.11687
G01 X6.26484 Y4.03549
G01 X6.28954 Y3.95073
G01 X6.31762 Y3.86259
G01 X6.34909 Y3.77106
G01 X6.38394 Y3.67614
G01 X6.42218 Y3.57785
G01 X6.75105 Y2.75427
G01 X6.84911 Y2.42050
G04 P0 ( dwell for no time -- G64 should not smooth over this point )
G00 Z0.08000 ( retract )

G00 X7.30035 Y2.44275 ( rapid move to begin. )
G01 F3.00000
( Mill infeed pass 1/1 )
G01 Z-0.00800
G04 P0 ( dwell for no time -- G64 should not smooth over this point )
G01 F6.00000
G01 X7.30035 Y2.44275
G01 X7.32522 Y3.47343
G01 X7.33013 Y3.61819
G01 X7.33770 Y3.75567
G01 X7.34247 Y3.82168
G01 X7.34791 Y3.88586
G01 X7.35401 Y3.94823
G01 X7.36078 Y4.00877
G01 X7.36821 Y4.06749
G01 X7.37630 Y4.12438
G01 X7.38505 Y4.17946
G01 X7.39447 Y4.23271
G01 X7.40455 Y4.28414
G01 X7.41530 Y4.33375
G01 X7.42670 Y4.38153
G01 X7.43877 Y4.42750
G01 X7.47286 Y4.55132
G01 X7.48375 Y4.59369
G01 X7.49279 Y4.63499
G01 X7.49998 Y4.67523
G01 X7.50533 Y4.71440
G01 X7.50883 Y4.75251
G01 X7.51049 Y4.78955
G01 X7.51029 Y4.82552
G01 X7.50826 Y4.86043
G01 X7.48294 Y5.15418
G01 X7.47900 Y5.19018
G01 X7.47327 Y5.22720
G01 X7.42983 Y5.47352
G01 X7.42348 Y5.51290
G01 X7.41809 Y5.55342
G01 X7.41367 Y5.59511
G01 X7.41023 Y5.63795
G01 X7.40775 Y5.68195
G01 X7.40625 Y5.72710
G01 X7.40572 Y5.77341
G01 X7.40615 Y5.82088
G01 X7.41342 Y6.20030
G04 P0 ( dwell for no time -- G64 should not smooth over this point )
G00 Z0.08000 ( retract )

G00 X6.65551 Y7.68847 ( rapid move to begin. )
G01 F3.00000
( Mill infeed pass 1/1 )
G01 Z-0.00800
G04 P0 ( dwell for no time -- G64 should not smooth over this point )
G01 F6.00000
G01 X6.65551 Y7.68847
G01 X6.66679 Y7.66275
G01 X6.70231 Y7.58044
G01 X6.73628 Y7.49906
G01 X6.93709 Y7.00958
G01 X6.95848 Y6.95832
G01 X7.01080 Y6.83507
G01 X7.03329 Y6.78306
G01 X7.13655 Y6.63040
G01 X7.24928 Y6.46248
G01 X7.28511 Y6.40796
G01 X7.31924 Y6.35364
G01 X7.41342 Y6.20030
G01 X7.53418 Y6.12423
G01 X7.60538 Y6.07799
G01 X7.67275 Y6.03142
G01 X7.85172 Y5.90362
G01 X7.87500 Y5.88670
G01 X7.95655 Y5.82635
G01 X7.98628 Y5.80491
G01 X8.01602 Y5.78459
G01 X8.04575 Y5.76539
G01 X8.07549 Y5.74731
G01 X8.12500 Y5.71815
G01 X8.15206 Y5.70170
G01 X8.17824 Y5.68475
G01 X8.26271 Y5.62833
G01 X8.30165 Y5.60077
G01 X8.31546 Y5.60113
G01 X8.35359 Y5.60155
G01 X8.39034 Y5.60077
G01 X8.43594 Y5.59905
G01 X8.50199 Y5.60121
G01 X8.52672 Y5.60142
G01 X8.55078 Y5.60074
G01 X8.56383 Y5.60108
G01 X8.58908 Y5.60121
G01 X8.61352 Y5.60027
G01 X8.62193 Y5.59975
G01 X8.64223 Y5.59892
G01 X8.66207 Y5.59899
G01 X8.73964 Y5.60101
G01 X8.75679 Y5.60103
G01 X8.77781 Y5.59983
G01 X8.80762 Y5.59902
G01 X8.88205 Y5.60097
G01 X8.90562 Y5.60037
G01 X8.91504 Y5.59963
G01 X8.93724 Y5.59904
G01 X9.01036 Y5.60096
G01 X9.03161 Y5.60040
G01 X9.04179 Y5.59960
G01 X9.06358 Y5.59904
G01 X9.13724 Y5.60097
G01 X9.16286 Y5.60028
G01 X9.16993 Y5.59972
G01 X9.19834 Y5.59901
G01 X9.27436 Y5.60100
G01 X9.29270 Y5.60100
G01 X9.33482 Y5.59890
G01 X9.35705 Y5.59895
G01 X9.43721 Y5.60105
G01 X9.46009 Y5.60122
G01 X9.48357 Y5.60052
G01 X9.50622 Y5.59946
G01 X9.53655 Y5.59861
G01 X9.56795 Y5.59889
G01 X9.60967 Y5.59998
G04 P0 ( dwell for no time -- G64 should not smooth over this point )
G00 Z0.08000 ( retract )

G00 X9.14792 Y4.98705 ( rapid move to begin. )
G01 F3.00000
( Mill infeed pass 1/1 )
G01 Z-0.00800
G04 P0 ( dwell for no time -- G64 should not smooth over this point )
G01 F6.00000
G01 X9.14792 Y4.98705
G01 X9.28123 Y5.09891
G01 X9.28785 Y5.08253
G01 X9.29872 Y5.02088
G01 X9.29654 Y4.95832
G01 X9.28139 Y4.89758
G01 X9.25993 Y4.85358
G01 X9.14792 Y4.98705
G04 P0 ( dwell for no time -- G64 should not smooth over this point )
G00 Z0.08000 ( retract )

G00 X8.85375 Y4.74022 ( rapid move to begin. )
G01 F3.00000
( Mill infeed pass 1/1 )
G01 Z-0.00800
G04 P0 ( dwell for no time -- G64 should not smooth over this point )
G01 F6.00000
G01 X8.85375 Y4.74022
G01 X8.98666 Y4.85174
G01 X9.09884 Y4.71854
G01 X9.05199 Y4.70510
G01 X8.98955 Y4.70073
G01 X8.92756 Y4.70944
G01 X8.86873 Y4.73085
G01 X8.85375 Y4.74022
G04 P0 ( dwell for no time -- G64 should not smooth over this point )
G00 Z0.08000 ( retract )

G00 X8.70128 Y4.97912 ( rapid move to begin. )
G01 F3.00000
( Mill infeed pass 1/1 )
G01 Z-0.00800
G04 P0 ( dwell for no time -- G64 should not smooth over this point )
G01 F6.00000
G01 X8.70128 Y4.97912
G01 X8.71215 Y4.91747
G01 X8.71877 Y4.90109
G01 X8.85208 Y5.01294
G01 X8.74007 Y5.14642
G01 X8.71861 Y5.10242
G01 X8.70346 Y5.04167
G01 X8.70128 Y4.97912
G04 P0 ( dwell for no time -- G64 should not smooth over this point )
G00 Z0.08000 ( retract )

G00 X6.75105 Y2.75427 ( rapid move to begin. )
G01 F3.00000
( Mill infeed pass 1/1 )
G01 Z-0.00800
G04 P0 ( dwell for no time -- G64 should not smooth over this point )
G01 F6.00000
G01 X6.75105 Y2.75427
G01 X6.65147 Y4.69621
G01 X6.65104 Y4.73397
G01 X6.65368 Y4.77030
G01 X6.65615 Y4.78793
G01 X6.65939 Y4.80520
G01 X6.66340 Y4.82211
G01 X6.66818 Y4.83866
G01 X6.77853 Y5.18865
G01 X6.78318 Y5.20539
G01 X6.78664 Y5.22234
G01 X6.78891 Y5.23950
G01 X6.78999 Y5.25687
G01 X6.79746 Y5.52707
G01 X6.79968 Y5.57871
G01 X6.80356 Y5.63393
G01 X6.80912 Y5.69273
G01 X6.81634 Y5.75512
G01 X6.82524 Y5.82108
G01 X6.83580 Y5.89063
G01 X6.84804 Y5.96376
G01 X6.86194 Y6.04047
G01 X6.87751 Y6.12076
G01 X6.89476 Y6.20463
G01 X6.91367 Y6.29208
G01 X6.93425 Y6.38311
G01 X6.98043 Y6.57592
G01 X7.03329 Y6.78306
G01 X7.13655 Y6.63040
G01 X8.91125 Y6.22049
G01 X8.91012 Y6.21286
G01 X8.90893 Y6.20160
G01 X8.90941 Y6.19390
G01 X8.91059 Y6.18262
G01 X8.91267 Y6.17518
G01 X8.91615 Y6.16441
G01 X8.91975 Y6.15754
G01 X8.92539 Y6.14776
G01 X8.93027 Y6.14185
G01 X8.93788 Y6.13338
G01 X8.94390 Y6.12861
G01 X8.95309 Y6.12192
G01 X8.96003 Y6.11848
G01 X8.97033 Y6.11388
G01 X8.97956 Y6.11146
G01 X8.98889 Y6.10960
G01 X8.99660 Y6.10927
G01 X9.00794 Y6.10926
G01 X9.01553 Y6.11055
G01 X9.02663 Y6.11289
G01 X9.03376 Y6.11572
G01 X9.04416 Y6.12033
G01 X9.05060 Y6.12462
G01 X9.05976 Y6.13126
G01 X9.06518 Y6.13680
G01 X9.07274 Y6.14519
G01 X9.07685 Y6.15166
G01 X9.08255 Y6.16151
G01 X9.08524 Y6.16872
G01 X9.08875 Y6.17950
G01 X9.08988 Y6.18714
G01 X9.09107 Y6.19840
G01 X9.09059 Y6.20610
G01 X9.08941 Y6.21738
G01 X9.08733 Y6.22482
G01 X9.08384 Y6.23559
G01 X9.08025 Y6.24246
G01 X9.07461 Y6.25224
G01 X9.06972 Y6.25815
G01 X9.06212 Y6.26662
G01 X9.05610 Y6.27138
G01 X9.04691 Y6.27808
G01 X9.03997 Y6.28152
G01 X9.02967 Y6.28612
G01 X9.02043 Y6.28854
G01 X9.01111 Y6.29040
G01 X9.00340 Y6.29073
G01 X8.99206 Y6.29074
G01 X8.98447 Y6.28945
G01 X8.97337 Y6.28711
G01 X8.96624 Y6.28428
G01 X8.95584 Y6.27967
G01 X8.94940 Y6.27538
G01 X8.94024 Y6.26874
G01 X8.93482 Y6.26320
G01 X8.92726 Y6.25481
G01 X8.92315 Y6.24834
G01 X8.91745 Y6.23849
G01 X8.91476 Y6.23128
G01 X8.91125 Y6.22049
G01 X8.91476 Y6.23128
G01 X8.91745 Y6.23849
G01 X8.92315 Y6.24834
G01 X8.92726 Y6.25481
G01 X8.93482 Y6.26320
G01 X8.94024 Y6.26874
G01 X8.94940 Y6.27538
G01 X8.95584 Y6.27967
G01 X8.96624 Y6.28428
G01 X8.97337 Y6.28711
G01 X8.98447 Y6.28945
G01 X8.99206 Y6.29074
G01 X9.00340 Y6.29073
G01 X9.01111 Y6.29040
G01 X9.02043 Y6.28854
G01 X9.26906 Y7.36502
G04 P0 ( dwell for no time -- G64 should not smooth over this point )
G00 Z0.08000 ( retract )

G00 X9.72394 Y6.03283 ( rapid move to begin. )
G01 F3.00000
( Mill infeed pass 1/1 )
G01 Z-0.00800
G04 P0 ( dwell for no time -- G64 should not smooth over this point )
G01 F6.00000
G01 X9.72394 Y6.03283
G01 X9.08875 Y6.17950
G01 X9.08524 Y6.16872
G01 X9.08255 Y6.16151
G01 X9.07685 Y6.15166
G01 X9.07274 Y6.14519
G01 X9.06518 Y6.13680
G01 X9.05976 Y6.13126
G01 X9.05060 Y6.12462
G01 X9.04416 Y6.12033
G01 X9.03376 Y6.11572
G01 X9.02663 Y6.11289
G01 X9.01553 Y6.11055
G01 X9.00794 Y6.10926
G01 X8.99660 Y6.10927
G01 X8.98889 Y6.10960
G01 X8.97956 Y6.11146
G01 X8.86158 Y5.60049
G04 P0 ( dwell for no time -- G64 should not smooth over this point )
G00 Z0.08000 ( retract )

G00 X8.90116 Y5.28146 ( rapid move to begin. )
G01 F3.00000
( Mill infeed pass 1/1 )
G01 Z-0.00800
G04 P0 ( dwell for no time -- G64 should not smooth over this point )
G01 F6.00000
G01 X8.90116 Y5.28146
G01 X8.94801 Y5.29490
G01 X9.01045 Y5.29927
G01 X9.07244 Y5.29056
G01 X9.13127 Y5.26915
G01 X9.14625 Y5.25978
G01 X9.01334 Y5.14826
G01 X8.90116 Y5.28146
G04 P0 ( dwell for no time -- G64 should not smooth over this point )
G00 Z0.08000 ( retract )

G00 X8.30165 Y5.60077 ( rapid move to begin. )
G01 F3.00000
( Mill infeed pass 1/1 )
G01 Z-0.00800
G04 P0 ( dwell for no time -- G64 should not smooth over this point )
G01 F6.00000
G01 X8.30165 Y5.60077
G01 X8.31006 Y5.56382
G01 X8.31709 Y5.52796
G01 X8.32273 Y5.49318
G01 X8.32699 Y5.45948
G01 X8.33527 Y5.38238
G01 X8.33834 Y5.33968
G01 X8.34100 Y5.26328
G01 X8.34241 Y5.23989
G01 X8.34498 Y5.21716
G01 X8.36067 Y5.10553
G01 X8.36330 Y5.08976
G01 X8.36669 Y5.07442
G01 X8.36823 Y5.06826
G01 X8.37322 Y5.04346
G01 X8.37581 Y5.01875
G01 X8.37601 Y4.99412
G01 X8.37381 Y4.96957
G01 X8.36998 Y4.94198
G01 X8.36835 Y4.93167
G01 X8.35086 Y4.83247
G01 X8.34790 Y4.81258
G01 X8.34595 Y4.79211
G01 X8.33784 Y4.67609
G01 X8.33700 Y4.66109
G01 X8.33504 Y4.61452
G01 X8.33351 Y4.58914
G01 X8.33100 Y4.56311
G01 X8.32753 Y4.53643
G01 X8.32310 Y4.50910
G01 X8.30203 Y4.40771
G01 X8.27482 Y4.28374
G01 X8.25507 Y4.20831
G01 X8.23151 Y4.12894
G01 X8.12500 Y3.78859
G01 X8.09908 Y3.70389
G01 X8.07317 Y3.61541
G01 X7.96865 Y3.25090
G01 X7.92182 Y3.08291
G01 X7.87500 Y2.90550
G01 X7.80119 Y2.61844

G04 P0 ( dwell for no time -- G64 should not smooth over this point )
G00 Z1.000000 ( retract )

M5 ( Spindle off. )
G04 P1.000000
M9 ( Coolant off. )
M2 ( Program end. )

