( pcb2gcode 2.5.0 )
( Software-independent Gcode )

G94 ( Inches per minute feed rate. )
G20 ( Units == INCHES. )

G90 ( Absolute coordinates. )
G00 S10000 ( RPM spindle speed. )
G64 P0.00040 ( set maximum deviation from commanded toolpath )
G01 F100.00000 ( Feedrate. )


G00 Z1.00000 (Retract to tool change height)
T1
M5      (Spindle stop.)
G04 P1.00000 (Wait for spindle to stop)
(MSG, Change tool bit to cutter diameter 0.05906in)
M6      (Tool change.)
M0      (Temporary machine stop.)
M3 ( Spindle on clockwise. )
G04 P1.00000 (Wait for spindle to get up to speed)
G04 P0 ( dwell for no time -- G64 should not smooth over this point )
G00 Z0.08000 ( retract )

G00 X4.28319 Y-5.00000 ( rapid move to begin. )
G01 Z-0.00731 F50.00000 ( plunge. )
G04 P0 ( dwell for no time -- G64 should not smooth over this point )
G01 F100.00000
G01 X4.30453 Y-5.21665
G01 X4.36773 Y-5.42497
G01 X4.47035 Y-5.61696
G01 X4.60845 Y-5.78524
G01 X4.66825 Y-5.83432
G00 Z0.08000
G01 X4.71694 Y-5.87428
G01 Z-0.00731 F50.00000
G01 F100.00000
G01 X4.77674 Y-5.92335
G01 X4.96873 Y-6.02597
G01 X5.17705 Y-6.08917
G01 X5.39370 Y-6.11050
G01 X5.61035 Y-6.08917
G01 X5.81867 Y-6.02597
G01 X6.01066 Y-5.92335
G01 X6.07046 Y-5.87428
G00 Z0.08000
G01 X6.11915 Y-5.83432
G01 Z-0.00731 F50.00000
G01 F100.00000
G01 X6.17894 Y-5.78524
G01 X6.31705 Y-5.61696
G01 X6.41967 Y-5.42497
G01 X6.48287 Y-5.21665
G01 X6.50420 Y-5.00000
G01 X6.48287 Y-4.78335
G01 X6.41967 Y-4.57503
G01 X6.38321 Y-4.50681
G00 Z0.08000
G01 X6.35351 Y-4.45125
G01 Z-0.00731 F50.00000
G01 F100.00000
G01 X6.31705 Y-4.38304
G01 X6.17894 Y-4.21475
G01 X6.01066 Y-4.07665
G01 X5.81867 Y-3.97403
G01 X5.61035 Y-3.91083
G01 X5.39370 Y-3.88949
G01 X5.31672 Y-3.89708
G00 Z0.08000
G01 X5.25403 Y-3.90325
G01 Z-0.00731 F50.00000
G01 F100.00000
G01 X5.17705 Y-3.91083
G01 X4.96873 Y-3.97403
G01 X4.77674 Y-4.07665
G01 X4.60845 Y-4.21475
G01 X4.47035 Y-4.38304
G01 X4.36773 Y-4.57503
G01 X4.34527 Y-4.64905
G00 Z0.08000
G01 X4.32699 Y-4.70933
G01 Z-0.00731 F50.00000
G01 F100.00000
G01 X4.30453 Y-4.78335
G01 X4.28319 Y-5.00000
G01 Z-0.01462 F50.00000 ( plunge. )
G04 P0 ( dwell for no time -- G64 should not smooth over this point )
G01 F100.00000
G01 X4.30453 Y-5.21665
G01 X4.36773 Y-5.42497
G01 X4.47035 Y-5.61696
G01 X4.60845 Y-5.78524
G01 X4.66825 Y-5.83432
G00 Z0.08000
G01 X4.71694 Y-5.87428
G01 Z-0.01462 F50.00000
G01 F100.00000
G01 X4.77674 Y-5.92335
G01 X4.96873 Y-6.02597
G01 X5.17705 Y-6.08917
G01 X5.39370 Y-6.11050
G01 X5.61035 Y-6.08917
G01 X5.81867 Y-6.02597
G01 X6.01066 Y-5.92335
G01 X6.07046 Y-5.87428
G00 Z0.08000
G01 X6.11915 Y-5.83432
G01 Z-0.01462 F50.00000
G01 F100.00000
G01 X6.17894 Y-5.78524
G01 X6.31705 Y-5.61696
G01 X6.41967 Y-5.42497
G01 X6.48287 Y-5.21665
G01 X6.50420 Y-5.00000
G01 X6.48287 Y-4.78335
G01 X6.41967 Y-4.57503
G01 X6.38321 Y-4.50681
G00 Z0.08000
G01 X6.35351 Y-4.45125
G01 Z-0.01462 F50.00000
G01 F100.00000
G01 X6.31705 Y-4.38304
G01 X6.17894 Y-4.21475
G01 X6.01066 Y-4.07665
G01 X5.81867 Y-3.97403
G01 X5.61035 Y-3.91083
G01 X5.39370 Y-3.88949
G01 X5.31672 Y-3.89708
G00 Z0.08000
G01 X5.25403 Y-3.90325
G01 Z-0.01462 F50.00000
G01 F100.00000
G01 X5.17705 Y-3.91083
G01 X4.96873 Y-3.97403
G01 X4.77674 Y-4.07665
G01 X4.60845 Y-4.21475
G01 X4.47035 Y-4.38304
G01 X4.36773 Y-4.57503
G01 X4.34527 Y-4.64905
G00 Z0.08000
G01 X4.32699 Y-4.70933
G01 Z-0.01462 F50.00000
G01 F100.00000
G01 X4.30453 Y-4.78335
G01 X4.28319 Y-5.00000
G01 Z-0.02193 F50.00000 ( plunge. )
G04 P0 ( dwell for no time -- G64 should not smooth over this point )
G01 F100.00000
G01 X4.30453 Y-5.21665
G01 X4.36773 Y-5.42497
G01 X4.47035 Y-5.61696
G01 X4.60845 Y-5.78524
G01 X4.66825 Y-5.83432
G00 Z0.08000
G01 X4.71694 Y-5.87428
G01 Z-0.02193 F50.00000
G01 F100.00000
G01 X4.77674 Y-5.92335
G01 X4.96873 Y-6.02597
G01 X5.17705 Y-6.08917
G01 X5.39370 Y-6.11050
G01 X5.61035 Y-6.08917
G01 X5.81867 Y-6.02597
G01 X6.01066 Y-5.92335
G01 X6.07046 Y-5.87428
G00 Z0.08000
G01 X6.11915 Y-5.83432
G01 Z-0.02193 F50.00000
G01 F100.00000
G01 X6.17894 Y-5.78524
G01 X6.31705 Y-5.61696
G01 X6.41967 Y-5.42497
G01 X6.48287 Y-5.21665
G01 X6.50420 Y-5.00000
G01 X6.48287 Y-4.78335
G01 X6.41967 Y-4.57503
G01 X6.38321 Y-4.50681
G00 Z0.08000
G01 X6.35351 Y-4.45125
G01 Z-0.02193 F50.00000
G01 F100.00000
G01 X6.31705 Y-4.38304
G01 X6.17894 Y-4.21475
G01 X6.01066 Y-4.07665
G01 X5.81867 Y-3.97403
G01 X5.61035 Y-3.91083
G01 X5.39370 Y-3.88949
G01 X5.31672 Y-3.89708
G00 Z0.08000
G01 X5.25403 Y-3.90325
G01 Z-0.02193 F50.00000
G01 F100.00000
G01 X5.17705 Y-3.91083
G01 X4.96873 Y-3.97403
G01 X4.77674 Y-4.07665
G01 X4.60845 Y-4.21475
G01 X4.47035 Y-4.38304
G01 X4.36773 Y-4.57503
G01 X4.34527 Y-4.64905
G00 Z0.08000
G01 X4.32699 Y-4.70933
G01 Z-0.02193 F50.00000
G01 F100.00000
G01 X4.30453 Y-4.78335
G01 X4.28319 Y-5.00000
G01 Z-0.02925 F50.00000 ( plunge. )
G04 P0 ( dwell for no time -- G64 should not smooth over this point )
G01 F100.00000
G01 X4.30453 Y-5.21665
G01 X4.36773 Y-5.42497
G01 X4.47035 Y-5.61696
G01 X4.60845 Y-5.78524
G01 X4.66825 Y-5.83432
G00 Z0.08000
G01 X4.71694 Y-5.87428
G01 Z-0.02925 F50.00000
G01 F100.00000
G01 X4.77674 Y-5.92335
G01 X4.96873 Y-6.02597
G01 X5.17705 Y-6.08917
G01 X5.39370 Y-6.11050
G01 X5.61035 Y-6.08917
G01 X5.81867 Y-6.02597
G01 X6.01066 Y-5.92335
G01 X6.07046 Y-5.87428
G00 Z0.08000
G01 X6.11915 Y-5.83432
G01 Z-0.02925 F50.00000
G01 F100.00000
G01 X6.17894 Y-5.78524
G01 X6.31705 Y-5.61696
G01 X6.41967 Y-5.42497
G01 X6.48287 Y-5.21665
G01 X6.50420 Y-5.00000
G01 X6.48287 Y-4.78335
G01 X6.41967 Y-4.57503
G01 X6.38321 Y-4.50681
G00 Z0.08000
G01 X6.35351 Y-4.45125
G01 Z-0.02925 F50.00000
G01 F100.00000
G01 X6.31705 Y-4.38304
G01 X6.17894 Y-4.21475
G01 X6.01066 Y-4.07665
G01 X5.81867 Y-3.97403
G01 X5.61035 Y-3.91083
G01 X5.39370 Y-3.88949
G01 X5.31672 Y-3.89708
G00 Z0.08000
G01 X5.25403 Y-3.90325
G01 Z-0.02925 F50.00000
G01 F100.00000
G01 X5.17705 Y-3.91083
G01 X4.96873 Y-3.97403
G01 X4.77674 Y-4.07665
G01 X4.60845 Y-4.21475
G01 X4.47035 Y-4.38304
G01 X4.36773 Y-4.57503
G01 X4.34527 Y-4.64905
G00 Z0.08000
G01 X4.32699 Y-4.70933
G01 Z-0.02925 F50.00000
G01 F100.00000
G01 X4.30453 Y-4.78335
G01 X4.28319 Y-5.00000
G01 Z-0.03656 F50.00000 ( plunge. )
G04 P0 ( dwell for no time -- G64 should not smooth over this point )
G01 F100.00000
G01 X4.30453 Y-5.21665
G01 X4.36773 Y-5.42497
G01 X4.47035 Y-5.61696
G01 X4.60845 Y-5.78524
G01 X4.66825 Y-5.83432
G00 Z0.08000
G01 X4.71694 Y-5.87428
G01 Z-0.03656 F50.00000
G01 F100.00000
G01 X4.77674 Y-5.92335
G01 X4.96873 Y-6.02597
G01 X5.17705 Y-6.08917
G01 X5.39370 Y-6.11050
G01 X5.61035 Y-6.08917
G01 X5.81867 Y-6.02597
G01 X6.01066 Y-5.92335
G01 X6.07046 Y-5.87428
G00 Z0.08000
G01 X6.11915 Y-5.83432
G01 Z-0.03656 F50.00000
G01 F100.00000
G01 X6.17894 Y-5.78524
G01 X6.31705 Y-5.61696
G01 X6.41967 Y-5.42497
G01 X6.48287 Y-5.21665
G01 X6.50420 Y-5.00000
G01 X6.48287 Y-4.78335
G01 X6.41967 Y-4.57503
G01 X6.38321 Y-4.50681
G00 Z0.08000
G01 X6.35351 Y-4.45125
G01 Z-0.03656 F50.00000
G01 F100.00000
G01 X6.31705 Y-4.38304
G01 X6.17894 Y-4.21475
G01 X6.01066 Y-4.07665
G01 X5.81867 Y-3.97403
G01 X5.61035 Y-3.91083
G01 X5.39370 Y-3.88949
G01 X5.31672 Y-3.89708
G00 Z0.08000
G01 X5.25403 Y-3.90325
G01 Z-0.03656 F50.00000
G01 F100.00000
G01 X5.17705 Y-3.91083
G01 X4.96873 Y-3.97403
G01 X4.77674 Y-4.07665
G01 X4.60845 Y-4.21475
G01 X4.47035 Y-4.38304
G01 X4.36773 Y-4.57503
G01 X4.34527 Y-4.64905
G00 Z0.08000
G01 X4.32699 Y-4.70933
G01 Z-0.03656 F50.00000
G01 F100.00000
G01 X4.30453 Y-4.78335
G01 X4.28319 Y-5.00000
G01 Z-0.04387 F50.00000 ( plunge. )
G04 P0 ( dwell for no time -- G64 should not smooth over this point )
G01 F100.00000
G01 X4.30453 Y-5.21665
G01 X4.36773 Y-5.42497
G01 X4.47035 Y-5.61696
G01 X4.60845 Y-5.78524
G01 X4.66825 Y-5.83432
G00 Z0.08000
G01 X4.71694 Y-5.87428
G01 Z-0.04387 F50.00000
G01 F100.00000
G01 X4.77674 Y-5.92335
G01 X4.96873 Y-6.02597
G01 X5.17705 Y-6.08917
G01 X5.39370 Y-6.11050
G01 X5.61035 Y-6.08917
G01 X5.81867 Y-6.02597
G01 X6.01066 Y-5.92335
G01 X6.07046 Y-5.87428
G00 Z0.08000
G01 X6.11915 Y-5.83432
G01 Z-0.04387 F50.00000
G01 F100.00000
G01 X6.17894 Y-5.78524
G01 X6.31705 Y-5.61696
G01 X6.41967 Y-5.42497
G01 X6.48287 Y-5.21665
G01 X6.50420 Y-5.00000
G01 X6.48287 Y-4.78335
G01 X6.41967 Y-4.57503
G01 X6.38321 Y-4.50681
G00 Z0.08000
G01 X6.35351 Y-4.45125
G01 Z-0.04387 F50.00000
G01 F100.00000
G01 X6.31705 Y-4.38304
G01 X6.17894 Y-4.21475
G01 X6.01066 Y-4.07665
G01 X5.81867 Y-3.97403
G01 X5.61035 Y-3.91083
G01 X5.39370 Y-3.88949
G01 X5.31672 Y-3.89708
G00 Z0.08000
G01 X5.25403 Y-3.90325
G01 Z-0.04387 F50.00000
G01 F100.00000
G01 X5.17705 Y-3.91083
G01 X4.96873 Y-3.97403
G01 X4.77674 Y-4.07665
G01 X4.60845 Y-4.21475
G01 X4.47035 Y-4.38304
G01 X4.36773 Y-4.57503
G01 X4.34527 Y-4.64905
G00 Z0.08000
G01 X4.32699 Y-4.70933
G01 Z-0.04387 F50.00000
G01 F100.00000
G01 X4.30453 Y-4.78335
G01 X4.28319 Y-5.00000
G01 Z-0.05118 F50.00000 ( plunge. )
G04 P0 ( dwell for no time -- G64 should not smooth over this point )
G01 F100.00000
G01 X4.30453 Y-5.21665
G01 X4.36773 Y-5.42497
G01 X4.47035 Y-5.61696
G01 X4.60845 Y-5.78524
G01 X4.66825 Y-5.83432
G00 Z0.08000
G01 X4.71694 Y-5.87428
G01 Z-0.05118 F50.00000
G01 F100.00000
G01 X4.77674 Y-5.92335
G01 X4.96873 Y-6.02597
G01 X5.17705 Y-6.08917
G01 X5.39370 Y-6.11050
G01 X5.61035 Y-6.08917
G01 X5.81867 Y-6.02597
G01 X6.01066 Y-5.92335
G01 X6.07046 Y-5.87428
G00 Z0.08000
G01 X6.11915 Y-5.83432
G01 Z-0.05118 F50.00000
G01 F100.00000
G01 X6.17894 Y-5.78524
G01 X6.31705 Y-5.61696
G01 X6.41967 Y-5.42497
G01 X6.48287 Y-5.21665
G01 X6.50420 Y-5.00000
G01 X6.48287 Y-4.78335
G01 X6.41967 Y-4.57503
G01 X6.38321 Y-4.50681
G00 Z0.08000
G01 X6.35351 Y-4.45125
G01 Z-0.05118 F50.00000
G01 F100.00000
G01 X6.31705 Y-4.38304
G01 X6.17894 Y-4.21475
G01 X6.01066 Y-4.07665
G01 X5.81867 Y-3.97403
G01 X5.61035 Y-3.91083
G01 X5.39370 Y-3.88949
G01 X5.31672 Y-3.89708
G00 Z0.08000
G01 X5.25403 Y-3.90325
G01 Z-0.05118 F50.00000
G01 F100.00000
G01 X5.17705 Y-3.91083
G01 X4.96873 Y-3.97403
G01 X4.77674 Y-4.07665
G01 X4.60845 Y-4.21475
G01 X4.47035 Y-4.38304
G01 X4.36773 Y-4.57503
G01 X4.34527 Y-4.64905
G00 Z0.08000
G01 X4.32699 Y-4.70933
G01 Z-0.05118 F50.00000
G01 F100.00000
G01 X4.30453 Y-4.78335
G01 X4.28319 Y-5.00000
G04 P0 ( dwell for no time -- G64 should not smooth over this point )
G00 Z0.08000 ( retract )

G00 X2.98893 Y-5.05289 ( rapid move to begin. )
G01 Z-0.00731 F50.00000 ( plunge. )
G04 P0 ( dwell for no time -- G64 should not smooth over this point )
G01 F100.00000
G01 X2.98893 Y-5.04711
G01 X3.03553 Y-4.57394
G01 X3.03666 Y-4.56826
G01 X3.17468 Y-4.11327
G01 X3.17689 Y-4.10792
G01 X3.40102 Y-3.68861
G01 X3.40424 Y-3.68379
G01 X3.70587 Y-3.31626
G01 X3.70996 Y-3.31217
G01 X4.07749 Y-3.01054
G01 X4.08231 Y-3.00732
G01 X4.26419 Y-2.91011
G00 Z0.08000
G01 X4.31974 Y-2.88041
G01 Z-0.00731 F50.00000
G01 F100.00000
G01 X4.50162 Y-2.78319
G01 X4.50697 Y-2.78098
G01 X4.96196 Y-2.64296
G01 X4.96764 Y-2.64183
G01 X5.44081 Y-2.59523
G01 X5.44659 Y-2.59523
G01 X5.91976 Y-2.64183
G01 X5.92544 Y-2.64296
G01 X6.38043 Y-2.78098
G01 X6.38577 Y-2.78319
G01 X6.80509 Y-3.00732
G01 X6.80990 Y-3.01054
G01 X6.96933 Y-3.14137
G00 Z0.08000
G01 X7.01802 Y-3.18133
G01 Z-0.00731 F50.00000
G01 F100.00000
G01 X7.17744 Y-3.31217
G01 X7.18153 Y-3.31626
G01 X7.48316 Y-3.68379
G01 X7.48638 Y-3.68861
G01 X7.71051 Y-4.10792
G01 X7.71272 Y-4.11327
G01 X7.85074 Y-4.56826
G01 X7.85187 Y-4.57394
G01 X7.89847 Y-5.04711
G01 X7.89847 Y-5.05289
G01 X7.85187 Y-5.52606
G01 X7.85074 Y-5.53174
G01 X7.71272 Y-5.98673
G01 X7.71051 Y-5.99207
G01 X7.61329 Y-6.17396
G00 Z0.08000
G01 X7.58359 Y-6.22951
G01 Z-0.00731 F50.00000
G01 F100.00000
G01 X7.48638 Y-6.41139
G01 X7.48316 Y-6.41620
G01 X7.18153 Y-6.78374
G01 X7.17744 Y-6.78783
G01 X6.80990 Y-7.08946
G01 X6.80509 Y-7.09267
G01 X6.38577 Y-7.31680
G01 X6.38043 Y-7.31902
G01 X5.92544 Y-7.45704
G01 X5.91976 Y-7.45817
G01 X5.44659 Y-7.50477
G01 X5.44080 Y-7.50477
G01 X5.23556 Y-7.48456
G00 Z0.08000
G01 X5.17288 Y-7.47838
G01 Z-0.00731 F50.00000
G01 F100.00000
G01 X4.96764 Y-7.45817
G01 X4.96196 Y-7.45704
G01 X4.50697 Y-7.31902
G01 X4.50162 Y-7.31680
G01 X4.08231 Y-7.09267
G01 X4.07749 Y-7.08946
G01 X3.70996 Y-6.78783
G01 X3.70587 Y-6.78374
G01 X3.40424 Y-6.41620
G01 X3.40102 Y-6.41139
G01 X3.17689 Y-5.99207
G01 X3.17468 Y-5.98673
G01 X3.03666 Y-5.53174
G01 X3.03553 Y-5.52606
G01 X3.01532 Y-5.32082
G00 Z0.08000
G01 X3.00914 Y-5.25813
G01 Z-0.00731 F50.00000
G01 F100.00000
G01 X2.98893 Y-5.05289
G01 Z-0.01462 F50.00000 ( plunge. )
G04 P0 ( dwell for no time -- G64 should not smooth over this point )
G01 F100.00000
G01 X2.98893 Y-5.04711
G01 X3.03553 Y-4.57394
G01 X3.03666 Y-4.56826
G01 X3.17468 Y-4.11327
G01 X3.17689 Y-4.10792
G01 X3.40102 Y-3.68861
G01 X3.40424 Y-3.68379
G01 X3.70587 Y-3.31626
G01 X3.70996 Y-3.31217
G01 X4.07749 Y-3.01054
G01 X4.08231 Y-3.00732
G01 X4.26419 Y-2.91011
G00 Z0.08000
G01 X4.31974 Y-2.88041
G01 Z-0.01462 F50.00000
G01 F100.00000
G01 X4.50162 Y-2.78319
G01 X4.50697 Y-2.78098
G01 X4.96196 Y-2.64296
G01 X4.96764 Y-2.64183
G01 X5.44081 Y-2.59523
G01 X5.44659 Y-2.59523
G01 X5.91976 Y-2.64183
G01 X5.92544 Y-2.64296
G01 X6.38043 Y-2.78098
G01 X6.38577 Y-2.78319
G01 X6.80509 Y-3.00732
G01 X6.80990 Y-3.01054
G01 X6.96933 Y-3.14137
G00 Z0.08000
G01 X7.01802 Y-3.18133
G01 Z-0.01462 F50.00000
G01 F100.00000
G01 X7.17744 Y-3.31217
G01 X7.18153 Y-3.31626
G01 X7.48316 Y-3.68379
G01 X7.48638 Y-3.68861
G01 X7.71051 Y-4.10792
G01 X7.71272 Y-4.11327
G01 X7.85074 Y-4.56826
G01 X7.85187 Y-4.57394
G01 X7.89847 Y-5.04711
G01 X7.89847 Y-5.05289
G01 X7.85187 Y-5.52606
G01 X7.85074 Y-5.53174
G01 X7.71272 Y-5.98673
G01 X7.71051 Y-5.99207
G01 X7.61329 Y-6.17396
G00 Z0.08000
G01 X7.58359 Y-6.22951
G01 Z-0.01462 F50.00000
G01 F100.00000
G01 X7.48638 Y-6.41139
G01 X7.48316 Y-6.41620
G01 X7.18153 Y-6.78374
G01 X7.17744 Y-6.78783
G01 X6.80990 Y-7.08946
G01 X6.80509 Y-7.09267
G01 X6.38577 Y-7.31680
G01 X6.38043 Y-7.31902
G01 X5.92544 Y-7.45704
G01 X5.91976 Y-7.45817
G01 X5.44659 Y-7.50477
G01 X5.44080 Y-7.50477
G01 X5.23556 Y-7.48456
G00 Z0.08000
G01 X5.17288 Y-7.47838
G01 Z-0.01462 F50.00000
G01 F100.00000
G01 X4.96764 Y-7.45817
G01 X4.96196 Y-7.45704
G01 X4.50697 Y-7.31902
G01 X4.50162 Y-7.31680
G01 X4.08231 Y-7.09267
G01 X4.07749 Y-7.08946
G01 X3.70996 Y-6.78783
G01 X3.70587 Y-6.78374
G01 X3.40424 Y-6.41620
G01 X3.40102 Y-6.41139
G01 X3.17689 Y-5.99207
G01 X3.17468 Y-5.98673
G01 X3.03666 Y-5.53174
G01 X3.03553 Y-5.52606
G01 X3.01532 Y-5.32082
G00 Z0.08000
G01 X3.00914 Y-5.25813
G01 Z-0.01462 F50.00000
G01 F100.00000
G01 X2.98893 Y-5.05289
G01 Z-0.02193 F50.00000 ( plunge. )
G04 P0 ( dwell for no time -- G64 should not smooth over this point )
G01 F100.00000
G01 X2.98893 Y-5.04711
G01 X3.03553 Y-4.57394
G01 X3.03666 Y-4.56826
G01 X3.17468 Y-4.11327
G01 X3.17689 Y-4.10792
G01 X3.40102 Y-3.68861
G01 X3.40424 Y-3.68379
G01 X3.70587 Y-3.31626
G01 X3.70996 Y-3.31217
G01 X4.07749 Y-3.01054
G01 X4.08231 Y-3.00732
G01 X4.26419 Y-2.91011
G00 Z0.08000
G01 X4.31974 Y-2.88041
G01 Z-0.02193 F50.00000
G01 F100.00000
G01 X4.50162 Y-2.78319
G01 X4.50697 Y-2.78098
G01 X4.96196 Y-2.64296
G01 X4.96764 Y-2.64183
G01 X5.44081 Y-2.59523
G01 X5.44659 Y-2.59523
G01 X5.91976 Y-2.64183
G01 X5.92544 Y-2.64296
G01 X6.38043 Y-2.78098
G01 X6.38577 Y-2.78319
G01 X6.80509 Y-3.00732
G01 X6.80990 Y-3.01054
G01 X6.96933 Y-3.14137
G00 Z0.08000
G01 X7.01802 Y-3.18133
G01 Z-0.02193 F50.00000
G01 F100.00000
G01 X7.17744 Y-3.31217
G01 X7.18153 Y-3.31626
G01 X7.48316 Y-3.68379
G01 X7.48638 Y-3.68861
G01 X7.71051 Y-4.10792
G01 X7.71272 Y-4.11327
G01 X7.85074 Y-4.56826
G01 X7.85187 Y-4.57394
G01 X7.89847 Y-5.04711
G01 X7.89847 Y-5.05289
G01 X7.85187 Y-5.52606
G01 X7.85074 Y-5.53174
G01 X7.71272 Y-5.98673
G01 X7.71051 Y-5.99207
G01 X7.61329 Y-6.17396
G00 Z0.08000
G01 X7.58359 Y-6.22951
G01 Z-0.02193 F50.00000
G01 F100.00000
G01 X7.48638 Y-6.41139
G01 X7.48316 Y-6.41620
G01 X7.18153 Y-6.78374
G01 X7.17744 Y-6.78783
G01 X6.80990 Y-7.08946
G01 X6.80509 Y-7.09267
G01 X6.38577 Y-7.31680
G01 X6.38043 Y-7.31902
G01 X5.92544 Y-7.45704
G01 X5.91976 Y-7.45817
G01 X5.44659 Y-7.50477
G01 X5.44080 Y-7.50477
G01 X5.23556 Y-7.48456
G00 Z0.08000
G01 X5.17288 Y-7.47838
G01 Z-0.02193 F50.00000
G01 F100.00000
G01 X4.96764 Y-7.45817
G01 X4.96196 Y-7.45704
G01 X4.50697 Y-7.31902
G01 X4.50162 Y-7.31680
G01 X4.08231 Y-7.09267
G01 X4.07749 Y-7.08946
G01 X3.70996 Y-6.78783
G01 X3.70587 Y-6.78374
G01 X3.40424 Y-6.41620
G01 X3.40102 Y-6.41139
G01 X3.17689 Y-5.99207
G01 X3.17468 Y-5.98673
G01 X3.03666 Y-5.53174
G01 X3.03553 Y-5.52606
G01 X3.01532 Y-5.32082
G00 Z0.08000
G01 X3.00914 Y-5.25813
G01 Z-0.02193 F50.00000
G01 F100.00000
G01 X2.98893 Y-5.05289
G01 Z-0.02925 F50.00000 ( plunge. )
G04 P0 ( dwell for no time -- G64 should not smooth over this point )
G01 F100.00000
G01 X2.98893 Y-5.04711
G01 X3.03553 Y-4.57394
G01 X3.03666 Y-4.56826
G01 X3.17468 Y-4.11327
G01 X3.17689 Y-4.10792
G01 X3.40102 Y-3.68861
G01 X3.40424 Y-3.68379
G01 X3.70587 Y-3.31626
G01 X3.70996 Y-3.31217
G01 X4.07749 Y-3.01054
G01 X4.08231 Y-3.00732
G01 X4.26419 Y-2.91011
G00 Z0.08000
G01 X4.31974 Y-2.88041
G01 Z-0.02925 F50.00000
G01 F100.00000
G01 X4.50162 Y-2.78319
G01 X4.50697 Y-2.78098
G01 X4.96196 Y-2.64296
G01 X4.96764 Y-2.64183
G01 X5.44081 Y-2.59523
G01 X5.44659 Y-2.59523
G01 X5.91976 Y-2.64183
G01 X5.92544 Y-2.64296
G01 X6.38043 Y-2.78098
G01 X6.38577 Y-2.78319
G01 X6.80509 Y-3.00732
G01 X6.80990 Y-3.01054
G01 X6.96933 Y-3.14137
G00 Z0.08000
G01 X7.01802 Y-3.18133
G01 Z-0.02925 F50.00000
G01 F100.00000
G01 X7.17744 Y-3.31217
G01 X7.18153 Y-3.31626
G01 X7.48316 Y-3.68379
G01 X7.48638 Y-3.68861
G01 X7.71051 Y-4.10792
G01 X7.71272 Y-4.11327
G01 X7.85074 Y-4.56826
G01 X7.85187 Y-4.57394
G01 X7.89847 Y-5.04711
G01 X7.89847 Y-5.05289
G01 X7.85187 Y-5.52606
G01 X7.85074 Y-5.53174
G01 X7.71272 Y-5.98673
G01 X7.71051 Y-5.99207
G01 X7.61329 Y-6.17396
G00 Z0.08000
G01 X7.58359 Y-6.22951
G01 Z-0.02925 F50.00000
G01 F100.00000
G01 X7.48638 Y-6.41139
G01 X7.48316 Y-6.41620
G01 X7.18153 Y-6.78374
G01 X7.17744 Y-6.78783
G01 X6.80990 Y-7.08946
G01 X6.80509 Y-7.09267
G01 X6.38577 Y-7.31680
G01 X6.38043 Y-7.31902
G01 X5.92544 Y-7.45704
G01 X5.91976 Y-7.45817
G01 X5.44659 Y-7.50477
G01 X5.44080 Y-7.50477
G01 X5.23556 Y-7.48456
G00 Z0.08000
G01 X5.17288 Y-7.47838
G01 Z-0.02925 F50.00000
G01 F100.00000
G01 X4.96764 Y-7.45817
G01 X4.96196 Y-7.45704
G01 X4.50697 Y-7.31902
G01 X4.50162 Y-7.31680
G01 X4.08231 Y-7.09267
G01 X4.07749 Y-7.08946
G01 X3.70996 Y-6.78783
G01 X3.70587 Y-6.78374
G01 X3.40424 Y-6.41620
G01 X3.40102 Y-6.41139
G01 X3.17689 Y-5.99207
G01 X3.17468 Y-5.98673
G01 X3.03666 Y-5.53174
G01 X3.03553 Y-5.52606
G01 X3.01532 Y-5.32082
G00 Z0.08000
G01 X3.00914 Y-5.25813
G01 Z-0.02925 F50.00000
G01 F100.00000
G01 X2.98893 Y-5.05289
G01 Z-0.03656 F50.00000 ( plunge. )
G04 P0 ( dwell for no time -- G64 should not smooth over this point )
G01 F100.00000
G01 X2.98893 Y-5.04711
G01 X3.03553 Y-4.57394
G01 X3.03666 Y-4.56826
G01 X3.17468 Y-4.11327
G01 X3.17689 Y-4.10792
G01 X3.40102 Y-3.68861
G01 X3.40424 Y-3.68379
G01 X3.70587 Y-3.31626
G01 X3.70996 Y-3.31217
G01 X4.07749 Y-3.01054
G01 X4.08231 Y-3.00732
G01 X4.26419 Y-2.91011
G00 Z0.08000
G01 X4.31974 Y-2.88041
G01 Z-0.03656 F50.00000
G01 F100.00000
G01 X4.50162 Y-2.78319
G01 X4.50697 Y-2.78098
G01 X4.96196 Y-2.64296
G01 X4.96764 Y-2.64183
G01 X5.44081 Y-2.59523
G01 X5.44659 Y-2.59523
G01 X5.91976 Y-2.64183
G01 X5.92544 Y-2.64296
G01 X6.38043 Y-2.78098
G01 X6.38577 Y-2.78319
G01 X6.80509 Y-3.00732
G01 X6.80990 Y-3.01054
G01 X6.96933 Y-3.14137
G00 Z0.08000
G01 X7.01802 Y-3.18133
G01 Z-0.03656 F50.00000
G01 F100.00000
G01 X7.17744 Y-3.31217
G01 X7.18153 Y-3.31626
G01 X7.48316 Y-3.68379
G01 X7.48638 Y-3.68861
G01 X7.71051 Y-4.10792
G01 X7.71272 Y-4.11327
G01 X7.85074 Y-4.56826
G01 X7.85187 Y-4.57394
G01 X7.89847 Y-5.04711
G01 X7.89847 Y-5.05289
G01 X7.85187 Y-5.52606
G01 X7.85074 Y-5.53174
G01 X7.71272 Y-5.98673
G01 X7.71051 Y-5.99207
G01 X7.61329 Y-6.17396
G00 Z0.08000
G01 X7.58359 Y-6.22951
G01 Z-0.03656 F50.00000
G01 F100.00000
G01 X7.48638 Y-6.41139
G01 X7.48316 Y-6.41620
G01 X7.18153 Y-6.78374
G01 X7.17744 Y-6.78783
G01 X6.80990 Y-7.08946
G01 X6.80509 Y-7.09267
G01 X6.38577 Y-7.31680
G01 X6.38043 Y-7.31902
G01 X5.92544 Y-7.45704
G01 X5.91976 Y-7.45817
G01 X5.44659 Y-7.50477
G01 X5.44080 Y-7.50477
G01 X5.23556 Y-7.48456
G00 Z0.08000
G01 X5.17288 Y-7.47838
G01 Z-0.03656 F50.00000
G01 F100.00000
G01 X4.96764 Y-7.45817
G01 X4.96196 Y-7.45704
G01 X4.50697 Y-7.31902
G01 X4.50162 Y-7.31680
G01 X4.08231 Y-7.09267
G01 X4.07749 Y-7.08946
G01 X3.70996 Y-6.78783
G01 X3.70587 Y-6.78374
G01 X3.40424 Y-6.41620
G01 X3.40102 Y-6.41139
G01 X3.17689 Y-5.99207
G01 X3.17468 Y-5.98673
G01 X3.03666 Y-5.53174
G01 X3.03553 Y-5.52606
G01 X3.01532 Y-5.32082
G00 Z0.08000
G01 X3.00914 Y-5.25813
G01 Z-0.03656 F50.00000
G01 F100.00000
G01 X2.98893 Y-5.05289
G01 Z-0.04387 F50.00000 ( plunge. )
G04 P0 ( dwell for no time -- G64 should not smooth over this point )
G01 F100.00000
G01 X2.98893 Y-5.04711
G01 X3.03553 Y-4.57394
G01 X3.03666 Y-4.56826
G01 X3.17468 Y-4.11327
G01 X3.17689 Y-4.10792
G01 X3.40102 Y-3.68861
G01 X3.40424 Y-3.68379
G01 X3.70587 Y-3.31626
G01 X3.70996 Y-3.31217
G01 X4.07749 Y-3.01054
G01 X4.08231 Y-3.00732
G01 X4.26419 Y-2.91011
G00 Z0.08000
G01 X4.31974 Y-2.88041
G01 Z-0.04387 F50.00000
G01 F100.00000
G01 X4.50162 Y-2.78319
G01 X4.50697 Y-2.78098
G01 X4.96196 Y-2.64296
G01 X4.96764 Y-2.64183
G01 X5.44081 Y-2.59523
G01 X5.44659 Y-2.59523
G01 X5.91976 Y-2.64183
G01 X5.92544 Y-2.64296
G01 X6.38043 Y-2.78098
G01 X6.38577 Y-2.78319
G01 X6.80509 Y-3.00732
G01 X6.80990 Y-3.01054
G01 X6.96933 Y-3.14137
G00 Z0.08000
G01 X7.01802 Y-3.18133
G01 Z-0.04387 F50.00000
G01 F100.00000
G01 X7.17744 Y-3.31217
G01 X7.18153 Y-3.31626
G01 X7.48316 Y-3.68379
G01 X7.48638 Y-3.68861
G01 X7.71051 Y-4.10792
G01 X7.71272 Y-4.11327
G01 X7.85074 Y-4.56826
G01 X7.85187 Y-4.57394
G01 X7.89847 Y-5.04711
G01 X7.89847 Y-5.05289
G01 X7.85187 Y-5.52606
G01 X7.85074 Y-5.53174
G01 X7.71272 Y-5.98673
G01 X7.71051 Y-5.99207
G01 X7.61329 Y-6.17396
G00 Z0.08000
G01 X7.58359 Y-6.22951
G01 Z-0.04387 F50.00000
G01 F100.00000
G01 X7.48638 Y-6.41139
G01 X7.48316 Y-6.41620
G01 X7.18153 Y-6.78374
G01 X7.17744 Y-6.78783
G01 X6.80990 Y-7.08946
G01 X6.80509 Y-7.09267
G01 X6.38577 Y-7.31680
G01 X6.38043 Y-7.31902
G01 X5.92544 Y-7.45704
G01 X5.91976 Y-7.45817
G01 X5.44659 Y-7.50477
G01 X5.44080 Y-7.50477
G01 X5.23556 Y-7.48456
G00 Z0.08000
G01 X5.17288 Y-7.47838
G01 Z-0.04387 F50.00000
G01 F100.00000
G01 X4.96764 Y-7.45817
G01 X4.96196 Y-7.45704
G01 X4.50697 Y-7.31902
G01 X4.50162 Y-7.31680
G01 X4.08231 Y-7.09267
G01 X4.07749 Y-7.08946
G01 X3.70996 Y-6.78783
G01 X3.70587 Y-6.78374
G01 X3.40424 Y-6.41620
G01 X3.40102 Y-6.41139
G01 X3.17689 Y-5.99207
G01 X3.17468 Y-5.98673
G01 X3.03666 Y-5.53174
G01 X3.03553 Y-5.52606
G01 X3.01532 Y-5.32082
G00 Z0.08000
G01 X3.00914 Y-5.25813
G01 Z-0.04387 F50.00000
G01 F100.00000
G01 X2.98893 Y-5.05289
G01 Z-0.05118 F50.00000 ( plunge. )
G04 P0 ( dwell for no time -- G64 should not smooth over this point )
G01 F100.00000
G01 X2.98893 Y-5.04711
G01 X3.03553 Y-4.57394
G01 X3.03666 Y-4.56826
G01 X3.17468 Y-4.11327
G01 X3.17689 Y-4.10792
G01 X3.40102 Y-3.68861
G01 X3.40424 Y-3.68379
G01 X3.70587 Y-3.31626
G01 X3.70996 Y-3.31217
G01 X4.07749 Y-3.01054
G01 X4.08231 Y-3.00732
G01 X4.26419 Y-2.91011
G00 Z0.08000
G01 X4.31974 Y-2.88041
G01 Z-0.05118 F50.00000
G01 F100.00000
G01 X4.50162 Y-2.78319
G01 X4.50697 Y-2.78098
G01 X4.96196 Y-2.64296
G01 X4.96764 Y-2.64183
G01 X5.44081 Y-2.59523
G01 X5.44659 Y-2.59523
G01 X5.91976 Y-2.64183
G01 X5.92544 Y-2.64296
G01 X6.38043 Y-2.78098
G01 X6.38577 Y-2.78319
G01 X6.80509 Y-3.00732
G01 X6.80990 Y-3.01054
G01 X6.96933 Y-3.14137
G00 Z0.08000
G01 X7.01802 Y-3.18133
G01 Z-0.05118 F50.00000
G01 F100.00000
G01 X7.17744 Y-3.31217
G01 X7.18153 Y-3.31626
G01 X7.48316 Y-3.68379
G01 X7.48638 Y-3.68861
G01 X7.71051 Y-4.10792
G01 X7.71272 Y-4.11327
G01 X7.85074 Y-4.56826
G01 X7.85187 Y-4.57394
G01 X7.89847 Y-5.04711
G01 X7.89847 Y-5.05289
G01 X7.85187 Y-5.52606
G01 X7.85074 Y-5.53174
G01 X7.71272 Y-5.98673
G01 X7.71051 Y-5.99207
G01 X7.61329 Y-6.17396
G00 Z0.08000
G01 X7.58359 Y-6.22951
G01 Z-0.05118 F50.00000
G01 F100.00000
G01 X7.48638 Y-6.41139
G01 X7.48316 Y-6.41620
G01 X7.18153 Y-6.78374
G01 X7.17744 Y-6.78783
G01 X6.80990 Y-7.08946
G01 X6.80509 Y-7.09267
G01 X6.38577 Y-7.31680
G01 X6.38043 Y-7.31902
G01 X5.92544 Y-7.45704
G01 X5.91976 Y-7.45817
G01 X5.44659 Y-7.50477
G01 X5.44080 Y-7.50477
G01 X5.23556 Y-7.48456
G00 Z0.08000
G01 X5.17288 Y-7.47838
G01 Z-0.05118 F50.00000
G01 F100.00000
G01 X4.96764 Y-7.45817
G01 X4.96196 Y-7.45704
G01 X4.50697 Y-7.31902
G01 X4.50162 Y-7.31680
G01 X4.08231 Y-7.09267
G01 X4.07749 Y-7.08946
G01 X3.70996 Y-6.78783
G01 X3.70587 Y-6.78374
G01 X3.40424 Y-6.41620
G01 X3.40102 Y-6.41139
G01 X3.17689 Y-5.99207
G01 X3.17468 Y-5.98673
G01 X3.03666 Y-5.53174
G01 X3.03553 Y-5.52606
G01 X3.01532 Y-5.32082
G00 Z0.08000
G01 X3.00914 Y-5.25813
G01 Z-0.05118 F50.00000
G01 F100.00000
G01 X2.98893 Y-5.05289

G04 P0 ( dwell for no time -- G64 should not smooth over this point )
G00 Z1.000000 ( retract )

M5 ( Spindle off. )
G04 P1.000000
M9 ( Coolant off. )
M2 ( Program end. )

