( pcb2gcode 2.5.0 )
( Software-independent Gcode )

G94 ( Inches per minute feed rate. )
G20 ( Units == INCHES. )

G90 ( Absolute coordinates. )
G00 S12000 ( RPM spindle speed. )
G64 P0.00040 ( set maximum deviation from commanded toolpath )
G01 F360.00000 ( Feedrate. )


G00 Z1.00000 (Retract to tool change height)
T1
M5      (Spindle stop.)
G04 P1.00000 (Wait for spindle to stop)
(MSG, Change tool bit to mill diameter 0.00000in)
M6      (Tool change.)
M0      (Temporary machine stop.)
M3 ( Spindle on clockwise. )
G04 P1.00000 (Wait for spindle to get up to speed)
G04 P0 ( dwell for no time -- G64 should not smooth over this point )
G00 Z0.08000 ( retract )

G00 X-0.05000 Y-0.99508 ( rapid move to begin. )
G01 F180.00000
( Mill infeed pass 1/1 )
G01 Z-0.04000
G04 P0 ( dwell for no time -- G64 should not smooth over this point )
G01 F360.00000
G01 X-0.05000 Y-0.99508
G01 X-0.00492 Y-0.99508
G01 X-0.00490 Y-0.94959
G01 X-0.00477 Y-0.94879
G01 X-0.00433 Y-0.94766
G01 X-0.00388 Y-0.94698
G01 X-0.00302 Y-0.94612
G01 X-0.00234 Y-0.94567
G01 X-0.00121 Y-0.94523
G01 X0.00041 Y-0.94510
G01 X0.00121 Y-0.94523
G01 X0.00234 Y-0.94567
G01 X0.00362 Y-0.94667
G01 X0.00451 Y-0.94802
G01 X0.00490 Y-0.94959
G01 X0.00492 Y-0.99508
G01 X0.05041 Y-0.99510
G01 X0.05121 Y-0.99523
G01 X0.05234 Y-0.99567
G01 X0.05302 Y-0.99612
G01 X0.05388 Y-0.99698
G01 X0.05433 Y-0.99766
G01 X0.05477 Y-0.99879
G01 X0.05490 Y-1.00041
G01 X0.05477 Y-1.00121
G01 X0.05433 Y-1.00234
G01 X0.05333 Y-1.00362
G01 X0.05198 Y-1.00451
G01 X0.05041 Y-1.00490
G01 X0.00492 Y-1.00492
G01 X0.00490 Y-1.05000
G01 X-0.00490 Y-1.05000
G01 X-0.00492 Y-1.00492
G01 X-0.05000 Y-1.00486
G01 X-0.05000 Y-0.99508
G01 X0.16301 Y-0.40755
G01 X0.16317 Y-0.41075
G01 X0.16367 Y-0.41433
G01 X0.16439 Y-0.41746
G01 X0.16535 Y-0.42053
G01 X0.16674 Y-0.42386
G01 X0.16822 Y-0.42671
G01 X0.16993 Y-0.42943
G01 X0.17185 Y-0.43200
G01 X0.17398 Y-0.43441
G01 X0.17630 Y-0.43663
G01 X0.17911 Y-0.43890
G01 X0.18177 Y-0.44069
G01 X0.18494 Y-0.44244
G01 X0.18787 Y-0.44374
G01 X0.19090 Y-0.44480
G01 X0.19401 Y-0.44561
G01 X0.19717 Y-0.44617
G01 X0.20037 Y-0.44646
G01 X0.20358 Y-0.44649
G01 X0.20679 Y-0.44627
G01 X0.20996 Y-0.44578
G01 X0.21309 Y-0.44503
G01 X0.21651 Y-0.44389
G01 X0.21982 Y-0.44244
G01 X0.22333 Y-0.44048
G01 X0.22661 Y-0.43817
G01 X0.22964 Y-0.43554
G01 X0.35349 Y-0.31171
G01 X0.35349 Y-0.57381
G01 X0.35378 Y-0.57862
G01 X0.35457 Y-0.58296
G01 X0.35611 Y-0.58794
G01 X0.35721 Y-0.59053
G01 X0.35850 Y-0.59303
G01 X0.35996 Y-0.59543
G01 X0.36158 Y-0.59772
G01 X0.36502 Y-0.60165
G01 X0.36894 Y-0.60509
G01 X0.37364 Y-0.60817
G01 X0.37835 Y-0.61041
G01 X0.38332 Y-0.61201
G01 X0.38606 Y-0.61259
G01 X0.38885 Y-0.61298
G01 X0.39406 Y-0.61316
G01 X0.39925 Y-0.61266
G01 X0.40201 Y-0.61210
G01 X0.40472 Y-0.61135
G01 X0.40736 Y-0.61041
G01 X0.40994 Y-0.60928
G01 X0.41448 Y-0.60671
G01 X0.41864 Y-0.60356
G01 X0.42235 Y-0.59990
G01 X0.42461 Y-0.59708
G01 X0.42640 Y-0.59442
G01 X0.42815 Y-0.59125
G01 X0.42960 Y-0.58794
G01 X0.43063 Y-0.58490
G01 X0.43149 Y-0.58139
G01 X0.43202 Y-0.57782
G01 X0.43222 Y-0.57461
G01 X0.43223 Y-0.07341
G01 X0.43188 Y-0.06861
G01 X0.43105 Y-0.06427
G01 X0.42960 Y-0.05968
G01 X0.42779 Y-0.05565
G01 X0.42531 Y-0.05152
G01 X0.42261 Y-0.04803
G01 X0.41924 Y-0.04459
G01 X0.41580 Y-0.04182
G01 X0.41208 Y-0.03945
G01 X0.40811 Y-0.03751
G01 X0.40395 Y-0.03604
G01 X0.39925 Y-0.03496
G01 X0.39486 Y-0.03449
G01 X0.39045 Y-0.03451
G01 X0.38606 Y-0.03503
G01 X0.38177 Y-0.03604
G01 X0.37761 Y-0.03751
G01 X0.37364 Y-0.03945
G01 X0.36991 Y-0.04182
G01 X0.36647 Y-0.04459
G01 X0.36337 Y-0.04773
G01 X0.36063 Y-0.05119
G01 X0.35830 Y-0.05494
G01 X0.35641 Y-0.05893
G01 X0.35520 Y-0.06233
G01 X0.35430 Y-0.06583
G01 X0.35373 Y-0.06940
G01 X0.35350 Y-0.07301
G01 X0.35349 Y-0.20036
G01 X0.34950 Y-0.20435
G01 X0.23388 Y-0.05019
G01 X0.23103 Y-0.04681
G01 X0.22813 Y-0.04403
G01 X0.22464 Y-0.04134
G01 X0.22122 Y-0.03924
G01 X0.21760 Y-0.03750
G01 X0.21382 Y-0.03614
G01 X0.20993 Y-0.03517
G01 X0.20595 Y-0.03460
G01 X0.20194 Y-0.03444
G01 X0.19794 Y-0.03469
G01 X0.19358 Y-0.03543
G01 X0.18972 Y-0.03653
G01 X0.18599 Y-0.03801
G01 X0.18243 Y-0.03987
G01 X0.17908 Y-0.04207
G01 X0.17597 Y-0.04461
G01 X0.17287 Y-0.04775
G01 X0.17037 Y-0.05089
G01 X0.16881 Y-0.05324
G01 X0.16743 Y-0.05568
G01 X0.16623 Y-0.05822
G01 X0.16521 Y-0.06084
G01 X0.16438 Y-0.06353
G01 X0.16374 Y-0.06626
G01 X0.16330 Y-0.06904
G01 X0.16306 Y-0.07184
G01 X0.16302 Y-0.07465
G01 X0.16318 Y-0.07746
G01 X0.16354 Y-0.08024
G01 X0.16410 Y-0.08300
G01 X0.16485 Y-0.08571
G01 X0.16594 Y-0.08872
G01 X0.16710 Y-0.09128
G01 X0.16844 Y-0.09376
G01 X0.17088 Y-0.09743
G01 X0.29325 Y-0.26059
G01 X0.17343 Y-0.38046
G01 X0.17135 Y-0.38291
G01 X0.16948 Y-0.38552
G01 X0.16763 Y-0.38863
G01 X0.16624 Y-0.39152
G01 X0.16509 Y-0.39452
G01 X0.16418 Y-0.39760
G01 X0.16353 Y-0.40075
G01 X0.16311 Y-0.40433
G01 X0.16301 Y-0.40755
G04 P0 ( dwell for no time -- G64 should not smooth over this point )
G00 Z0.08000 ( retract )

G00 X0.56781 Y-0.38516 ( rapid move to begin. )
G01 F180.00000
( Mill infeed pass 1/1 )
G01 Z-0.04000
G04 P0 ( dwell for no time -- G64 should not smooth over this point )
G01 F360.00000
G01 X0.56781 Y-0.38516
G01 X0.56792 Y-0.37994
G01 X0.56863 Y-0.37518
G01 X0.57004 Y-0.37016
G01 X0.57193 Y-0.36573
G01 X0.57456 Y-0.36123
G01 X0.57751 Y-0.35742
G01 X0.58089 Y-0.35399
G01 X0.58500 Y-0.35078
G01 X0.58915 Y-0.34832
G01 X0.59393 Y-0.34625
G01 X0.59700 Y-0.34529
G01 X0.59974 Y-0.34467
G01 X0.60291 Y-0.34419
G01 X0.60612 Y-0.34398
G01 X0.60933 Y-0.34403
G01 X0.61253 Y-0.34433
G01 X0.61569 Y-0.34490
G01 X0.61879 Y-0.34573
G01 X0.62145 Y-0.34666
G01 X0.62439 Y-0.34794
G01 X0.66405 Y-0.36777
G01 X0.74071 Y-0.36777
G01 X0.77430 Y-0.35098
G01 X0.78907 Y-0.33620
G01 X0.80587 Y-0.30261
G01 X0.80587 Y-0.17834
G01 X0.78907 Y-0.14475
G01 X0.77430 Y-0.12998
G01 X0.74070 Y-0.11318
G01 X0.66405 Y-0.11318
G01 X0.62403 Y-0.13319
G01 X0.62069 Y-0.13458
G01 X0.61725 Y-0.13567
G01 X0.61372 Y-0.13644
G01 X0.61053 Y-0.13684
G01 X0.60733 Y-0.13699
G01 X0.60372 Y-0.13684
G01 X0.60013 Y-0.13636
G01 X0.59700 Y-0.13566
G01 X0.59356 Y-0.13457
G01 X0.59022 Y-0.13317
G01 X0.58635 Y-0.13105
G01 X0.58242 Y-0.12826
G01 X0.57887 Y-0.12502
G01 X0.57598 Y-0.12168
G01 X0.57348 Y-0.11804
G01 X0.57124 Y-0.11378
G01 X0.56954 Y-0.10927
G01 X0.56839 Y-0.10459
G01 X0.56783 Y-0.09981
G01 X0.56783 Y-0.09540
G01 X0.56840 Y-0.09061
G01 X0.56954 Y-0.08593
G01 X0.57125 Y-0.08143
G01 X0.57329 Y-0.07752
G01 X0.57600 Y-0.07353
G01 X0.57889 Y-0.07020
G01 X0.58122 Y-0.06799
G01 X0.58372 Y-0.06597
G01 X0.58638 Y-0.06417
G01 X0.58918 Y-0.06259
G01 X0.63788 Y-0.03824
G01 X0.64240 Y-0.03643
G01 X0.64750 Y-0.03512
G01 X0.65071 Y-0.03465
G01 X0.65436 Y-0.03444
G01 X0.75040 Y-0.03444
G01 X0.75324 Y-0.03457
G01 X0.75606 Y-0.03491
G01 X0.75885 Y-0.03545
G01 X0.76198 Y-0.03631
G01 X0.76465 Y-0.03727
G01 X0.76761 Y-0.03860
G01 X0.81523 Y-0.06241
G01 X0.81934 Y-0.06478
G01 X0.82222 Y-0.06688
G01 X0.82489 Y-0.06923
G01 X0.85036 Y-0.09473
G01 X0.85360 Y-0.09873
G01 X0.85628 Y-0.10312
G01 X0.88098 Y-0.15254
G01 X0.88262 Y-0.15669
G01 X0.88369 Y-0.16060
G01 X0.88440 Y-0.16500
G01 X0.88461 Y-0.16905
G01 X0.88460 Y-0.31231
G01 X0.88431 Y-0.31676
G01 X0.88341 Y-0.32154
G01 X0.88222 Y-0.32542
G01 X0.88063 Y-0.32915
G01 X0.85664 Y-0.37713
G01 X0.85427 Y-0.38124
G01 X0.85192 Y-0.38443
G01 X0.84954 Y-0.38708
G01 X0.82518 Y-0.41145
G01 X0.82222 Y-0.41408
G01 X0.81900 Y-0.41639
G01 X0.81558 Y-0.41837
G01 X0.76724 Y-0.44254
G01 X0.76275 Y-0.44439
G01 X0.75766 Y-0.44576
G01 X0.75405 Y-0.44630
G01 X0.75040 Y-0.44651
G01 X0.65436 Y-0.44651
G01 X0.65031 Y-0.44626
G01 X0.64631 Y-0.44560
G01 X0.64201 Y-0.44439
G01 X0.63825 Y-0.44288
G01 X0.58847 Y-0.41799
G01 X0.58604 Y-0.41657
G01 X0.58372 Y-0.41498
G01 X0.57974 Y-0.41161
G01 X0.57650 Y-0.40805
G01 X0.57350 Y-0.40378
G01 X0.57125 Y-0.39952
G01 X0.56955 Y-0.39502
G01 X0.56833 Y-0.38995
G01 X0.56781 Y-0.38516
G04 P0 ( dwell for no time -- G64 should not smooth over this point )
G00 Z0.08000 ( retract )

G00 X1.09889 Y-0.12195 ( rapid move to begin. )
G01 F180.00000
( Mill infeed pass 1/1 )
G01 Z-0.04000
G04 P0 ( dwell for no time -- G64 should not smooth over this point )
G01 F360.00000
G01 X1.09889 Y-0.12195
G01 X1.09889 Y-0.22579
G01 X1.10269 Y-0.22517
G01 X1.10674 Y-0.22492
G01 X1.21690 Y-0.22492
G01 X1.24446 Y-0.21113
G01 X1.25825 Y-0.18356
G01 X1.25825 Y-0.15453
G01 X1.24446 Y-0.12696
G01 X1.21690 Y-0.11318
G01 X1.11644 Y-0.11318
G01 X1.09889 Y-0.12195
G04 P0 ( dwell for no time -- G64 should not smooth over this point )
G00 Z0.08000 ( retract )

G00 X1.44872 Y-0.24048 ( rapid move to begin. )
G01 F180.00000
( Mill infeed pass 1/1 )
G01 Z-0.04000
G04 P0 ( dwell for no time -- G64 should not smooth over this point )
G01 F360.00000
G01 X1.44872 Y-0.24048
G01 X1.44873 Y-0.16864
G01 X1.44898 Y-0.16460
G01 X1.44973 Y-0.16020
G01 X1.45084 Y-0.15630
G01 X1.45253 Y-0.15217
G01 X1.47687 Y-0.10347
G01 X1.47974 Y-0.09873
G01 X1.48324 Y-0.09444
G01 X1.50844 Y-0.06923
G01 X1.51143 Y-0.06663
G01 X1.51466 Y-0.06435
G01 X1.51811 Y-0.06241
G01 X1.56645 Y-0.03824
G01 X1.56906 Y-0.03712
G01 X1.57174 Y-0.03619
G01 X1.57448 Y-0.03545
G01 X1.57727 Y-0.03491
G01 X1.58009 Y-0.03457
G01 X1.58333 Y-0.03444
G01 X1.77541 Y-0.03447
G01 X1.77901 Y-0.03479
G01 X1.78218 Y-0.03534
G01 X1.78567 Y-0.03627
G01 X1.78906 Y-0.03751
G01 X1.79232 Y-0.03907
G01 X1.79543 Y-0.04091
G01 X1.79835 Y-0.04303
G01 X1.80078 Y-0.04513
G01 X1.80356 Y-0.04803
G01 X1.80603 Y-0.05119
G01 X1.80817 Y-0.05459
G01 X1.80995 Y-0.05819
G01 X1.81135 Y-0.06195
G01 X1.81236 Y-0.06583
G01 X1.81297 Y-0.06980
G01 X1.81318 Y-0.07381
G01 X1.81317 Y-0.57461
G01 X1.81293 Y-0.57822
G01 X1.81236 Y-0.58179
G01 X1.81147 Y-0.58529
G01 X1.81026 Y-0.58869
G01 X1.80874 Y-0.59197
G01 X1.80693 Y-0.59510
G01 X1.80484 Y-0.59804
G01 X1.80249 Y-0.60079
G01 X1.79989 Y-0.60330
G01 X1.79708 Y-0.60557
G01 X1.79407 Y-0.60757
G01 X1.79053 Y-0.60945
G01 X1.78719 Y-0.61084
G01 X1.78335 Y-0.61201
G01 X1.77981 Y-0.61272
G01 X1.77622 Y-0.61311
G01 X1.60714 Y-0.61318
G01 X1.60430 Y-0.61308
G01 X1.60068 Y-0.61265
G01 X1.59711 Y-0.61188
G01 X1.59363 Y-0.61079
G01 X1.59026 Y-0.60938
G01 X1.54121 Y-0.58485
G01 X1.53781 Y-0.58284
G01 X1.53431 Y-0.58024
G01 X1.53168 Y-0.57784
G01 X1.50732 Y-0.55346
G01 X1.50473 Y-0.55048
G01 X1.50245 Y-0.54724
G01 X1.50050 Y-0.54380
G01 X1.47616 Y-0.49508
G01 X1.47493 Y-0.49208
G01 X1.47405 Y-0.48938
G01 X1.47337 Y-0.48663
G01 X1.47283 Y-0.48343
G01 X1.47254 Y-0.47898
G01 X1.47254 Y-0.43014
G01 X1.47294 Y-0.42529
G01 X1.47383 Y-0.42092
G01 X1.47493 Y-0.41744
G01 X1.47651 Y-0.41371
G01 X1.50068 Y-0.36537
G01 X1.50332 Y-0.36096
G01 X1.50678 Y-0.35664
G01 X1.51689 Y-0.34648
G01 X1.51249 Y-0.34370
G01 X1.50846 Y-0.34031
G01 X1.48351 Y-0.31537
G01 X1.48116 Y-0.31269
G01 X1.47907 Y-0.30981
G01 X1.47669 Y-0.30570
G01 X1.45235 Y-0.25699
G01 X1.45098 Y-0.25361
G01 X1.45002 Y-0.25051
G01 X1.44933 Y-0.24734
G01 X1.44889 Y-0.24412
G01 X1.44872 Y-0.24048
G04 P0 ( dwell for no time -- G64 should not smooth over this point )
G00 Z0.08000 ( retract )

G00 X1.52747 Y-0.17834 ( rapid move to begin. )
G01 F180.00000
( Mill infeed pass 1/1 )
G01 Z-0.04000
G04 P0 ( dwell for no time -- G64 should not smooth over this point )
G01 F360.00000
G01 X1.52747 Y-0.17834
G01 X1.54426 Y-0.14475
G01 X1.55903 Y-0.12998
G01 X1.59263 Y-0.11318
G01 X1.73444 Y-0.11318
G01 X1.73444 Y-0.29634
G01 X1.61353 Y-0.29634
G01 X1.55698 Y-0.27750
G01 X1.54426 Y-0.26477
G01 X1.52747 Y-0.23118
G01 X1.52747 Y-0.17834
G01 X1.63820 Y-0.19940
G01 X1.63857 Y-0.19702
G01 X1.63941 Y-0.19477
G01 X1.64044 Y-0.19306
G01 X1.64205 Y-0.19127
G01 X1.64364 Y-0.19005
G01 X1.64578 Y-0.18897
G01 X1.64810 Y-0.18834
G01 X1.65050 Y-0.18820
G01 X1.65288 Y-0.18855
G01 X1.65514 Y-0.18937
G01 X1.65686 Y-0.19039
G01 X1.65866 Y-0.19197
G01 X1.66011 Y-0.19389
G01 X1.66114 Y-0.19607
G01 X1.66164 Y-0.19800
G01 X1.66180 Y-0.20040
G01 X1.66148 Y-0.20278
G01 X1.66068 Y-0.20505
G01 X1.65944 Y-0.20710
G01 X1.65780 Y-0.20887
G01 X1.65585 Y-0.21026
G01 X1.65403 Y-0.21110
G01 X1.65170 Y-0.21169
G01 X1.64930 Y-0.21179
G01 X1.64732 Y-0.21150
G01 X1.64504 Y-0.21072
G01 X1.64298 Y-0.20950
G01 X1.64120 Y-0.20788
G01 X1.63979 Y-0.20593
G01 X1.63893 Y-0.20412
G01 X1.63833 Y-0.20180
G01 X1.63820 Y-0.19940
G04 P0 ( dwell for no time -- G64 should not smooth over this point )
G00 Z0.08000 ( retract )

G00 X1.87585 Y-0.37994 ( rapid move to begin. )
G01 F180.00000
( Mill infeed pass 1/1 )
G01 Z-0.04000
G04 P0 ( dwell for no time -- G64 should not smooth over this point )
G01 F360.00000
G01 X1.87585 Y-0.37994
G01 X1.87609 Y-0.38112
G01 X1.87678 Y-0.38257
G01 X1.87755 Y-0.38351
G01 X1.88081 Y-0.38672
G01 X1.88200 Y-0.38748
G01 X1.88313 Y-0.38788
G01 X1.88433 Y-0.38805
G01 X1.88554 Y-0.38796
G01 X1.88688 Y-0.38756
G01 X1.88794 Y-0.38697
G01 X1.89180 Y-0.38321
G01 X1.89249 Y-0.38223
G01 X1.89308 Y-0.38073
G01 X1.89325 Y-0.37953
G01 X1.89316 Y-0.37833
G01 X1.89268 Y-0.37679
G01 X1.89205 Y-0.37576
G01 X1.88810 Y-0.37181
G01 X1.88704 Y-0.37117
G01 X1.88589 Y-0.37077
G01 X1.88473 Y-0.37062
G01 X1.88353 Y-0.37070
G01 X1.88237 Y-0.37103
G01 X1.88129 Y-0.37158
G01 X1.87755 Y-0.37516
G01 X1.87639 Y-0.37679
G01 X1.87590 Y-0.37833
G01 X1.87585 Y-0.37994
G01 X1.87863 Y-0.36246
G01 X1.87897 Y-0.36444
G01 X1.87995 Y-0.36618
G01 X1.88146 Y-0.36750
G01 X1.88333 Y-0.36824
G01 X1.88534 Y-0.36831
G01 X1.88725 Y-0.36770
G01 X1.88885 Y-0.36649
G01 X1.88995 Y-0.36481
G01 X1.89038 Y-0.36326
G01 X1.89038 Y-0.32228
G01 X1.88995 Y-0.32074
G01 X1.88885 Y-0.31906
G01 X1.88725 Y-0.31785
G01 X1.88534 Y-0.31724
G01 X1.88413 Y-0.31720
G01 X1.88294 Y-0.31740
G01 X1.88113 Y-0.31826
G01 X1.88022 Y-0.31906
G01 X1.87949 Y-0.32002
G01 X1.87897 Y-0.32111
G01 X1.87868 Y-0.32228
G01 X1.87863 Y-0.36246
G04 P0 ( dwell for no time -- G64 should not smooth over this point )
G00 Z0.08000 ( retract )

G00 X1.90394 Y-0.34840 ( rapid move to begin. )
G01 F180.00000
( Mill infeed pass 1/1 )
G01 Z-0.04000
G04 P0 ( dwell for no time -- G64 should not smooth over this point )
G01 F360.00000
G01 X1.90394 Y-0.34840
G01 X1.90399 Y-0.33356
G01 X1.90440 Y-0.33205
G01 X1.90755 Y-0.32574
G01 X1.90848 Y-0.32454
G01 X1.91217 Y-0.32100
G01 X1.91845 Y-0.31781
G01 X1.92031 Y-0.31724
G01 X1.93593 Y-0.31724
G01 X1.93744 Y-0.31764
G01 X1.94375 Y-0.32080
G01 X1.94495 Y-0.32173
G01 X1.94804 Y-0.32483
G01 X1.94874 Y-0.32582
G01 X1.94922 Y-0.32693
G01 X1.94949 Y-0.32851
G01 X1.94932 Y-0.33011
G01 X1.94874 Y-0.33161
G01 X1.94776 Y-0.33289
G01 X1.94648 Y-0.33386
G01 X1.94537 Y-0.33434
G01 X1.94379 Y-0.33462
G01 X1.94258 Y-0.33453
G01 X1.94142 Y-0.33421
G01 X1.94035 Y-0.33365
G01 X1.93728 Y-0.33075
G01 X1.93376 Y-0.32899
G01 X1.92248 Y-0.32899
G01 X1.91896 Y-0.33075
G01 X1.91751 Y-0.33221
G01 X1.91575 Y-0.33573
G01 X1.91575 Y-0.34700
G01 X1.91751 Y-0.35052
G01 X1.91896 Y-0.35198
G01 X1.92248 Y-0.35374
G01 X1.93376 Y-0.35374
G01 X1.93728 Y-0.35198
G01 X1.93971 Y-0.34957
G01 X1.94069 Y-0.34888
G01 X1.94180 Y-0.34840
G01 X1.94298 Y-0.34815
G01 X1.94419 Y-0.34815
G01 X1.94575 Y-0.34853
G01 X1.94715 Y-0.34931
G01 X1.94829 Y-0.35045
G01 X1.94921 Y-0.35222
G01 X1.94946 Y-0.35340
G01 X1.94946 Y-0.35461
G01 X1.94665 Y-0.38273
G01 X1.94642 Y-0.38389
G01 X1.94596 Y-0.38498
G01 X1.94502 Y-0.38625
G01 X1.94412 Y-0.38701
G01 X1.94271 Y-0.38772
G01 X1.94117 Y-0.38804
G01 X1.91265 Y-0.38805
G01 X1.91106 Y-0.38783
G01 X1.90925 Y-0.38697
G01 X1.90783 Y-0.38555
G01 X1.90697 Y-0.38374
G01 X1.90676 Y-0.38174
G01 X1.90724 Y-0.37979
G01 X1.90807 Y-0.37842
G01 X1.90959 Y-0.37710
G01 X1.91145 Y-0.37636
G01 X1.91265 Y-0.37624
G01 X1.93543 Y-0.37624
G01 X1.93652 Y-0.36539
G01 X1.93515 Y-0.36555
G01 X1.92109 Y-0.36555
G01 X1.91954 Y-0.36535
G01 X1.91845 Y-0.36493
G01 X1.91217 Y-0.36173
G01 X1.90798 Y-0.35763
G01 X1.90440 Y-0.35068
G01 X1.90405 Y-0.34956
G01 X1.90394 Y-0.34840
G04 P0 ( dwell for no time -- G64 should not smooth over this point )
G00 Z0.08000 ( retract )

G00 X1.96018 Y-0.32610 ( rapid move to begin. )
G01 F180.00000
( Mill infeed pass 1/1 )
G01 Z-0.04000
G04 P0 ( dwell for no time -- G64 should not smooth over this point )
G01 F360.00000
G01 X1.96018 Y-0.32610
G01 X1.96035 Y-0.32450
G01 X1.96075 Y-0.32336
G01 X1.96191 Y-0.32173
G01 X1.96566 Y-0.31815
G01 X1.96673 Y-0.31759
G01 X1.96789 Y-0.31727
G01 X1.96910 Y-0.31719
G01 X1.97025 Y-0.31734
G01 X1.97141 Y-0.31774
G01 X1.97246 Y-0.31838
G01 X1.97641 Y-0.32233
G01 X1.97704 Y-0.32336
G01 X1.97745 Y-0.32450
G01 X1.97761 Y-0.32570
G01 X1.97745 Y-0.32730
G01 X1.97686 Y-0.32879
G01 X1.97616 Y-0.32978
G01 X1.97230 Y-0.33354
G01 X1.97106 Y-0.33421
G01 X1.96990 Y-0.33453
G01 X1.96870 Y-0.33462
G01 X1.96750 Y-0.33445
G01 X1.96636 Y-0.33405
G01 X1.96517 Y-0.33329
G01 X1.96191 Y-0.33008
G01 X1.96115 Y-0.32914
G01 X1.96046 Y-0.32769
G01 X1.96018 Y-0.32610
G04 P0 ( dwell for no time -- G64 should not smooth over this point )
G00 Z0.08000 ( retract )

G00 X1.91660 Y-0.46244 ( rapid move to begin. )
G01 F180.00000
( Mill infeed pass 1/1 )
G01 Z-0.04000
G04 P0 ( dwell for no time -- G64 should not smooth over this point )
G01 F360.00000
G01 X1.91660 Y-0.46244
G01 X1.91694 Y-0.46087
G01 X1.93100 Y-0.42150
G01 X1.93704 Y-0.40651
G01 X1.93801 Y-0.40525
G01 X1.94110 Y-0.40217
G01 X1.94202 Y-0.40151
G01 X1.94834 Y-0.39835
G01 X1.94990 Y-0.39794
G01 X1.95111 Y-0.39791
G01 X1.95229 Y-0.39814
G01 X1.95341 Y-0.39859
G01 X1.95441 Y-0.39927
G01 X1.95549 Y-0.40046
G01 X1.95607 Y-0.40152
G01 X1.95648 Y-0.40308
G01 X1.95650 Y-0.40429
G01 X1.95628 Y-0.40547
G01 X1.95539 Y-0.40727
G01 X1.95428 Y-0.40843
G01 X1.95326 Y-0.40908
G01 X1.94849 Y-0.41146
G01 X1.94721 Y-0.41274
G01 X1.94287 Y-0.42360
G01 X1.95618 Y-0.46087
G01 X1.95647 Y-0.46204
G01 X1.95651 Y-0.46325
G01 X1.95604 Y-0.46520
G01 X1.95520 Y-0.46657
G01 X1.95403 Y-0.46767
G01 X1.95222 Y-0.46854
G01 X1.95063 Y-0.46876
G01 X1.94865 Y-0.46842
G01 X1.94690 Y-0.46744
G01 X1.94580 Y-0.46627
G01 X1.94506 Y-0.46484
G01 X1.93656 Y-0.44104
G01 X1.92806 Y-0.46484
G01 X1.92754 Y-0.46593
G01 X1.92681 Y-0.46689
G01 X1.92556 Y-0.46790
G01 X1.92369 Y-0.46864
G01 X1.92168 Y-0.46870
G01 X1.92013 Y-0.46827
G01 X1.91876 Y-0.46743
G01 X1.91745 Y-0.46591
G01 X1.91671 Y-0.46405
G01 X1.91660 Y-0.46244
G04 P0 ( dwell for no time -- G64 should not smooth over this point )
G00 Z0.08000 ( retract )

G00 X1.89509 Y-0.49959 ( rapid move to begin. )
G01 F180.00000
( Mill infeed pass 1/1 )
G01 Z-0.04000
G04 P0 ( dwell for no time -- G64 should not smooth over this point )
G01 F360.00000
G01 X1.89509 Y-0.49959
G01 X1.89523 Y-0.50121
G01 X1.89567 Y-0.50234
G01 X1.89612 Y-0.50302
G01 X1.89698 Y-0.50388
G01 X1.89766 Y-0.50433
G01 X1.89879 Y-0.50477
G01 X1.89959 Y-0.50490
G01 X1.95000 Y-0.50492
G01 X1.95081 Y-0.50486
G01 X1.95198 Y-0.50451
G01 X1.95333 Y-0.50362
G01 X1.95433 Y-0.50234
G01 X1.95485 Y-0.50081
G01 X1.95485 Y-0.49919
G01 X1.95433 Y-0.49766
G01 X1.95333 Y-0.49638
G01 X1.95198 Y-0.49549
G01 X1.95041 Y-0.49510
G01 X1.89959 Y-0.49510
G01 X1.89802 Y-0.49549
G01 X1.89667 Y-0.49638
G01 X1.89567 Y-0.49766
G01 X1.89523 Y-0.49879
G01 X1.89509 Y-0.49959
G04 P0 ( dwell for no time -- G64 should not smooth over this point )
G00 Z0.08000 ( retract )

G00 X1.84911 Y-0.45482 ( rapid move to begin. )
G01 F180.00000
( Mill infeed pass 1/1 )
G01 Z-0.04000
G04 P0 ( dwell for no time -- G64 should not smooth over this point )
G01 F360.00000
G01 X1.84911 Y-0.45482
G01 X1.84915 Y-0.45361
G01 X1.84976 Y-0.45170
G01 X1.85097 Y-0.45010
G01 X1.85265 Y-0.44900
G01 X1.85460 Y-0.44852
G01 X1.90080 Y-0.44857
G01 X1.90235 Y-0.44900
G01 X1.90403 Y-0.45010
G01 X1.90524 Y-0.45170
G01 X1.90585 Y-0.45361
G01 X1.90578 Y-0.45562
G01 X1.90505 Y-0.45749
G01 X1.90373 Y-0.45900
G01 X1.90198 Y-0.45998
G01 X1.90000 Y-0.46032
G01 X1.85420 Y-0.46027
G01 X1.85303 Y-0.45998
G01 X1.85194 Y-0.45946
G01 X1.85097 Y-0.45873
G01 X1.85018 Y-0.45782
G01 X1.84932 Y-0.45601
G01 X1.84911 Y-0.45482
G01 X1.84915 Y-0.43674
G01 X1.84976 Y-0.43483
G01 X1.85097 Y-0.43323
G01 X1.85265 Y-0.43213
G01 X1.85460 Y-0.43165
G01 X1.90080 Y-0.43169
G01 X1.90235 Y-0.43213
G01 X1.90403 Y-0.43323
G01 X1.90524 Y-0.43483
G01 X1.90585 Y-0.43674
G01 X1.90578 Y-0.43875
G01 X1.90505 Y-0.44061
G01 X1.90373 Y-0.44212
G01 X1.90198 Y-0.44311
G01 X1.90000 Y-0.44345
G01 X1.85420 Y-0.44339
G01 X1.85303 Y-0.44311
G01 X1.85194 Y-0.44259
G01 X1.85097 Y-0.44186
G01 X1.85018 Y-0.44095
G01 X1.84932 Y-0.43914
G01 X1.84911 Y-0.43795
G01 X1.82520 Y-0.35402
G01 X1.82552 Y-0.35594
G01 X1.82863 Y-0.36229
G01 X1.82989 Y-0.36397
G01 X1.83127 Y-0.36493
G01 X1.83799 Y-0.36816
G01 X1.83954 Y-0.36836
G01 X1.84837 Y-0.36835
G01 X1.84990 Y-0.36804
G01 X1.85244 Y-0.36683
G01 X1.85334 Y-0.36750
G01 X1.85443 Y-0.36802
G01 X1.85561 Y-0.36831
G01 X1.85681 Y-0.36835
G01 X1.85876 Y-0.36787
G01 X1.85982 Y-0.36728
G01 X1.86073 Y-0.36649
G01 X1.86183 Y-0.36481
G01 X1.86230 Y-0.36286
G01 X1.86232 Y-0.32309
G01 X1.86219 Y-0.32189
G01 X1.86183 Y-0.32074
G01 X1.86123 Y-0.31968
G01 X1.86044 Y-0.31877
G01 X1.85948 Y-0.31804
G01 X1.85800 Y-0.31740
G01 X1.85641 Y-0.31718
G01 X1.85482 Y-0.31740
G01 X1.85334 Y-0.31804
G01 X1.85238 Y-0.31877
G01 X1.85159 Y-0.31968
G01 X1.85085 Y-0.32111
G01 X1.85051 Y-0.32309
G01 X1.85051 Y-0.35439
G01 X1.85010 Y-0.35479
G01 X1.84658 Y-0.35655
G01 X1.84093 Y-0.35655
G01 X1.83831 Y-0.35525
G01 X1.83701 Y-0.35263
G01 X1.83701 Y-0.32309
G01 X1.83679 Y-0.32149
G01 X1.83634 Y-0.32037
G01 X1.83568 Y-0.31936
G01 X1.83451 Y-0.31826
G01 X1.83345 Y-0.31767
G01 X1.83191 Y-0.31724
G01 X1.83030 Y-0.31724
G01 X1.82912 Y-0.31752
G01 X1.82770 Y-0.31826
G01 X1.82679 Y-0.31906
G01 X1.82569 Y-0.32074
G01 X1.82521 Y-0.32268
G01 X1.82520 Y-0.35402
G04 P0 ( dwell for no time -- G64 should not smooth over this point )
G00 Z0.08000 ( retract )

G00 X1.63820 Y-0.44940 ( rapid move to begin. )
G01 F180.00000
( Mill infeed pass 1/1 )
G01 Z-0.04000
G04 P0 ( dwell for no time -- G64 should not smooth over this point )
G01 F360.00000
G01 X1.63820 Y-0.44940
G01 X1.63833 Y-0.45180
G01 X1.63893 Y-0.45412
G01 X1.63979 Y-0.45593
G01 X1.64120 Y-0.45788
G01 X1.64298 Y-0.45950
G01 X1.64504 Y-0.46072
G01 X1.64732 Y-0.46150
G01 X1.64930 Y-0.46179
G01 X1.65170 Y-0.46169
G01 X1.65403 Y-0.46110
G01 X1.65585 Y-0.46026
G01 X1.65780 Y-0.45887
G01 X1.65944 Y-0.45710
G01 X1.66068 Y-0.45505
G01 X1.66148 Y-0.45278
G01 X1.66180 Y-0.45040
G01 X1.66164 Y-0.44800
G01 X1.66114 Y-0.44607
G01 X1.66011 Y-0.44389
G01 X1.65866 Y-0.44197
G01 X1.65686 Y-0.44039
G01 X1.65514 Y-0.43937
G01 X1.65288 Y-0.43855
G01 X1.65050 Y-0.43820
G01 X1.64810 Y-0.43834
G01 X1.64578 Y-0.43897
G01 X1.64364 Y-0.44005
G01 X1.64205 Y-0.44127
G01 X1.64044 Y-0.44306
G01 X1.63941 Y-0.44477
G01 X1.63857 Y-0.44702
G01 X1.63820 Y-0.44940
G01 X1.55127 Y-0.44025
G01 X1.55127 Y-0.46928
G01 X1.56807 Y-0.50287
G01 X1.58284 Y-0.51764
G01 X1.61644 Y-0.53444
G01 X1.73444 Y-0.53444
G01 X1.73444 Y-0.37509
G01 X1.61644 Y-0.37509
G01 X1.58284 Y-0.39188
G01 X1.56807 Y-0.40665
G01 X1.55127 Y-0.44025
G04 P0 ( dwell for no time -- G64 should not smooth over this point )
G00 Z0.08000 ( retract )

G00 X1.08412 Y-0.97399 ( rapid move to begin. )
G01 F180.00000
( Mill infeed pass 1/1 )
G01 Z-0.04000
G04 P0 ( dwell for no time -- G64 should not smooth over this point )
G01 F360.00000
G01 X1.08412 Y-0.97399
G01 X1.08415 Y-0.97238
G01 X1.08479 Y-0.97048
G01 X1.08574 Y-0.96918
G01 X1.08736 Y-0.96800
G01 X1.08928 Y-0.96742
G01 X1.09129 Y-0.96753
G01 X1.09243 Y-0.96791
G01 X1.09347 Y-0.96852
G01 X1.09463 Y-0.96964
G01 X1.10546 Y-0.98341
G01 X1.11628 Y-0.96964
G01 X1.11743 Y-0.96852
G01 X1.11848 Y-0.96791
G01 X1.11962 Y-0.96753
G01 X1.12163 Y-0.96742
G01 X1.12355 Y-0.96800
G01 X1.12517 Y-0.96918
G01 X1.12612 Y-0.97048
G01 X1.12676 Y-0.97238
G01 X1.12678 Y-0.97399
G01 X1.12621 Y-0.97591
G01 X1.12556 Y-0.97693
G01 X1.11296 Y-0.99297
G01 X1.12556 Y-1.00900
G01 X1.12621 Y-1.01003
G01 X1.12678 Y-1.01195
G01 X1.12676 Y-1.01356
G01 X1.12630 Y-1.01510
G01 X1.12517 Y-1.01676
G01 X1.12355 Y-1.01794
G01 X1.12163 Y-1.01852
G01 X1.12042 Y-1.01854
G01 X1.11923 Y-1.01831
G01 X1.11743 Y-1.01742
G01 X1.11628 Y-1.01630
G01 X1.10546 Y-1.00253
G01 X1.09437 Y-1.01661
G01 X1.09314 Y-1.01765
G01 X1.09206 Y-1.01818
G01 X1.09049 Y-1.01854
G01 X1.08888 Y-1.01845
G01 X1.08700 Y-1.01775
G01 X1.08574 Y-1.01676
G01 X1.08461 Y-1.01510
G01 X1.08415 Y-1.01356
G01 X1.08412 Y-1.01195
G01 X1.08453 Y-1.01039
G01 X1.08534 Y-1.00900
G01 X1.09794 Y-0.99297
G01 X1.08534 Y-0.97693
G01 X1.08470 Y-0.97591
G01 X1.08412 Y-0.97399
G04 P0 ( dwell for no time -- G64 should not smooth over this point )
G00 Z0.08000 ( retract )

G00 X0.99508 Y-0.95000 ( rapid move to begin. )
G01 F180.00000
( Mill infeed pass 1/1 )
G01 Z-0.04000
G04 P0 ( dwell for no time -- G64 should not smooth over this point )
G01 F360.00000
G01 X0.99508 Y-0.95000
G01 X0.99514 Y-0.95081
G01 X0.99549 Y-0.95198
G01 X0.99638 Y-0.95333
G01 X0.99766 Y-0.95433
G01 X0.99919 Y-0.95486
G01 X1.00081 Y-0.95486
G01 X1.00234 Y-0.95433
G01 X1.00362 Y-0.95333
G01 X1.00450 Y-0.95198
G01 X1.00490 Y-0.95041
G01 X1.00490 Y-0.89959
G01 X1.00450 Y-0.89802
G01 X1.00362 Y-0.89667
G01 X1.00234 Y-0.89567
G01 X1.00121 Y-0.89523
G01 X1.00040 Y-0.89510
G01 X0.99879 Y-0.89523
G01 X0.99766 Y-0.89567
G01 X0.99698 Y-0.89612
G01 X0.99612 Y-0.89698
G01 X0.99567 Y-0.89766
G01 X0.99523 Y-0.89879
G01 X0.99509 Y-0.89959
G01 X0.99508 Y-0.95000
G01 X1.01660 Y-1.00462
G01 X1.01665 Y-1.00341
G01 X1.01725 Y-1.00150
G01 X1.01847 Y-0.99990
G01 X1.02014 Y-0.99880
G01 X1.02209 Y-0.99833
G01 X1.06829 Y-0.99837
G01 X1.06984 Y-0.99880
G01 X1.07152 Y-0.99990
G01 X1.07273 Y-1.00150
G01 X1.07334 Y-1.00341
G01 X1.07327 Y-1.00542
G01 X1.07254 Y-1.00729
G01 X1.07122 Y-1.00880
G01 X1.06947 Y-1.00978
G01 X1.06749 Y-1.01012
G01 X1.02169 Y-1.01007
G01 X1.02052 Y-1.00978
G01 X1.01943 Y-1.00926
G01 X1.01847 Y-1.00853
G01 X1.01767 Y-1.00762
G01 X1.01681 Y-1.00581
G01 X1.01660 Y-1.00462
G01 X1.01660 Y-0.98775
G01 X1.01681 Y-0.98894
G01 X1.01767 Y-0.99075
G01 X1.01847 Y-0.99166
G01 X1.01943 Y-0.99239
G01 X1.02052 Y-0.99291
G01 X1.02169 Y-0.99320
G01 X1.06749 Y-0.99325
G01 X1.06947 Y-0.99291
G01 X1.07122 Y-0.99193
G01 X1.07254 Y-0.99042
G01 X1.07327 Y-0.98855
G01 X1.07334 Y-0.98654
G01 X1.07273 Y-0.98463
G01 X1.07152 Y-0.98303
G01 X1.06984 Y-0.98193
G01 X1.06829 Y-0.98150
G01 X1.02209 Y-0.98145
G01 X1.02014 Y-0.98193
G01 X1.01847 Y-0.98303
G01 X1.01725 Y-0.98463
G01 X1.01665 Y-0.98654
G01 X1.01660 Y-0.98775
G01 X1.02018 Y-0.07220
G01 X1.02021 Y-0.33774
G01 X1.02056 Y-0.34137
G01 X1.02135 Y-0.34535
G01 X1.02241 Y-0.34884
G01 X1.02395 Y-0.35259
G01 X1.04849 Y-0.40166
G01 X1.05122 Y-0.40611
G01 X1.05452 Y-0.41016
G01 X1.05680 Y-0.41242
G01 X1.05958 Y-0.41474
G01 X1.06223 Y-0.41657
G01 X1.06501 Y-0.41818
G01 X1.11371 Y-0.44254
G01 X1.11706 Y-0.44398
G01 X1.12092 Y-0.44522
G01 X1.12569 Y-0.44616
G01 X1.13055 Y-0.44651
G01 X1.22660 Y-0.44651
G01 X1.23024 Y-0.44630
G01 X1.23345 Y-0.44584
G01 X1.23817 Y-0.44465
G01 X1.24307 Y-0.44271
G01 X1.29141 Y-0.41855
G01 X1.29388 Y-0.41720
G01 X1.29658 Y-0.41545
G01 X1.29881 Y-0.41375
G01 X1.30092 Y-0.41189
G01 X1.30420 Y-0.40836
G01 X1.30681 Y-0.40480
G01 X1.30918 Y-0.40061
G01 X1.31103 Y-0.39616
G01 X1.31232 Y-0.39153
G01 X1.31303 Y-0.38676
G01 X1.31315 Y-0.38195
G01 X1.31269 Y-0.37715
G01 X1.31164 Y-0.37245
G01 X1.31019 Y-0.36828
G01 X1.30808 Y-0.36396
G01 X1.30546 Y-0.35992
G01 X1.30236 Y-0.35623
G01 X1.29884 Y-0.35294
G01 X1.29528 Y-0.35033
G01 X1.29109 Y-0.34796
G01 X1.28777 Y-0.34652
G01 X1.28472 Y-0.34551
G01 X1.28121 Y-0.34467
G01 X1.27764 Y-0.34415
G01 X1.27403 Y-0.34396
G01 X1.27042 Y-0.34411
G01 X1.26723 Y-0.34452
G01 X1.26370 Y-0.34528
G01 X1.26025 Y-0.34637
G01 X1.25692 Y-0.34777
G01 X1.21690 Y-0.36777
G01 X1.14024 Y-0.36777
G01 X1.11268 Y-0.35399
G01 X1.09889 Y-0.32642
G01 X1.09889 Y-0.31243
G01 X1.11644 Y-0.30366
G01 X1.22660 Y-0.30365
G01 X1.23064 Y-0.30340
G01 X1.23504 Y-0.30265
G01 X1.23894 Y-0.30154
G01 X1.24307 Y-0.29986
G01 X1.29249 Y-0.27514
G01 X1.29559 Y-0.27327
G01 X1.29882 Y-0.27088
G01 X1.30150 Y-0.26846
G01 X1.30396 Y-0.26580
G01 X1.30661 Y-0.26226
G01 X1.30902 Y-0.25809
G01 X1.33301 Y-0.21010
G01 X1.33446 Y-0.20675
G01 X1.33558 Y-0.20328
G01 X1.33658 Y-0.19852
G01 X1.33698 Y-0.19367
G01 X1.33699 Y-0.14483
G01 X1.33674 Y-0.14079
G01 X1.33607 Y-0.13679
G01 X1.33500 Y-0.13288
G01 X1.33336 Y-0.12873
G01 X1.30847 Y-0.07894
G01 X1.30569 Y-0.07452
G01 X1.30235 Y-0.07050
G01 X1.30004 Y-0.06826
G01 X1.29756 Y-0.06622
G01 X1.29525 Y-0.06460
G01 X1.29249 Y-0.06296
G01 X1.24380 Y-0.03860
G01 X1.24046 Y-0.03712
G01 X1.23700 Y-0.03595
G01 X1.23345 Y-0.03512
G01 X1.22984 Y-0.03461
G01 X1.22619 Y-0.03444
G01 X1.10511 Y-0.03449
G01 X1.09988 Y-0.03512
G01 X1.09478 Y-0.03643
G01 X1.09063 Y-0.03807
G01 X1.08272 Y-0.04200
G01 X1.07978 Y-0.04005
G01 X1.07696 Y-0.03851
G01 X1.07366 Y-0.03707
G01 X1.07061 Y-0.03604
G01 X1.06750 Y-0.03526
G01 X1.06433 Y-0.03473
G01 X1.06073 Y-0.03446
G01 X1.05752 Y-0.03449
G01 X1.05432 Y-0.03479
G01 X1.05076 Y-0.03543
G01 X1.04766 Y-0.03627
G01 X1.04427 Y-0.03751
G01 X1.04101 Y-0.03907
G01 X1.03790 Y-0.04091
G01 X1.03497 Y-0.04303
G01 X1.03255 Y-0.04513
G01 X1.02977 Y-0.04803
G01 X1.02753 Y-0.05087
G01 X1.02536 Y-0.05424
G01 X1.02371 Y-0.05746
G01 X1.02223 Y-0.06119
G01 X1.02123 Y-0.06466
G01 X1.02050 Y-0.06861
G01 X1.02018 Y-0.07220
G01 X0.88820 Y-0.54940
G01 X0.88833 Y-0.55180
G01 X0.88900 Y-0.55427
G01 X0.88979 Y-0.55594
G01 X0.89120 Y-0.55788
G01 X0.89298 Y-0.55950
G01 X0.89504 Y-0.56072
G01 X0.89731 Y-0.56150
G01 X0.89930 Y-0.56179
G01 X0.90170 Y-0.56169
G01 X0.90403 Y-0.56110
G01 X0.90585 Y-0.56026
G01 X0.90780 Y-0.55887
G01 X0.90944 Y-0.55710
G01 X0.91068 Y-0.55505
G01 X0.91148 Y-0.55278
G01 X0.91180 Y-0.55040
G01 X0.91164 Y-0.54800
G01 X0.91114 Y-0.54607
G01 X0.91011 Y-0.54389
G01 X0.90866 Y-0.54197
G01 X0.90686 Y-0.54039
G01 X0.90514 Y-0.53936
G01 X0.90288 Y-0.53855
G01 X0.90050 Y-0.53820
G01 X0.89810 Y-0.53834
G01 X0.89578 Y-0.53897
G01 X0.89364 Y-0.54005
G01 X0.89205 Y-0.54127
G01 X0.89044 Y-0.54306
G01 X0.88941 Y-0.54477
G01 X0.88857 Y-0.54702
G01 X0.88820 Y-0.54940
G01 X0.95755 Y-0.97369
G01 X0.95759 Y-0.97248
G01 X0.95788 Y-0.97131
G01 X0.95862 Y-0.96988
G01 X0.96004 Y-0.96846
G01 X0.96146 Y-0.96772
G01 X0.96304 Y-0.96739
G01 X0.99719 Y-0.96738
G01 X0.99916 Y-0.96772
G01 X1.00059 Y-0.96846
G01 X1.00177 Y-0.96956
G01 X1.00260 Y-0.97093
G01 X1.00297 Y-0.97208
G01 X1.00308 Y-0.97369
G01 X1.00275 Y-0.97526
G01 X1.00201 Y-0.97669
G01 X1.00122 Y-0.97760
G01 X0.99954 Y-0.97870
G01 X0.99799 Y-0.97914
G01 X0.98622 Y-0.97919
G01 X0.98622 Y-1.01527
G01 X0.98766 Y-1.01384
G01 X0.98859 Y-1.01318
G01 X0.99455 Y-1.01018
G01 X0.99647 Y-1.00960
G01 X0.99808 Y-1.00963
G01 X0.99924 Y-1.00993
G01 X1.00066 Y-1.01069
G01 X1.00156 Y-1.01150
G01 X1.00228 Y-1.01247
G01 X1.00278 Y-1.01357
G01 X1.00308 Y-1.01515
G01 X1.00303 Y-1.01635
G01 X1.00272 Y-1.01752
G01 X1.00196 Y-1.01894
G01 X1.00085 Y-1.02010
G01 X0.99983 Y-1.02075
G01 X0.99506 Y-1.02313
G01 X0.99053 Y-1.02767
G01 X0.98499 Y-1.03595
G01 X0.98415 Y-1.03683
G01 X0.98314 Y-1.03752
G01 X0.98202 Y-1.03799
G01 X0.98082 Y-1.03822
G01 X0.97960 Y-1.03820
G01 X0.97803 Y-1.03778
G01 X0.97696 Y-1.03720
G01 X0.97603 Y-1.03640
G01 X0.97508 Y-1.03508
G01 X0.97463 Y-1.03395
G01 X0.97441 Y-1.03234
G01 X0.97441 Y-0.97919
G01 X0.96304 Y-0.97918
G01 X0.96185 Y-0.97897
G01 X0.96073 Y-0.97853
G01 X0.95913 Y-0.97732
G01 X0.95803 Y-0.97564
G01 X0.95755 Y-0.97369
G01 X0.88820 Y-0.54940
G01 X0.93223 Y-1.01265
G01 X0.93257 Y-1.01463
G01 X0.93355 Y-1.01638
G01 X0.93506 Y-1.01770
G01 X0.93693 Y-1.01843
G01 X0.93894 Y-1.01850
G01 X0.94085 Y-1.01790
G01 X0.94245 Y-1.01668
G01 X0.94355 Y-1.01501
G01 X0.94398 Y-1.01346
G01 X0.94398 Y-0.97248
G01 X0.94355 Y-0.97093
G01 X0.94245 Y-0.96925
G01 X0.94085 Y-0.96804
G01 X0.93894 Y-0.96744
G01 X0.93773 Y-0.96739
G01 X0.93654 Y-0.96760
G01 X0.93473 Y-0.96846
G01 X0.93382 Y-0.96925
G01 X0.93309 Y-0.97022
G01 X0.93257 Y-0.97131
G01 X0.93228 Y-0.97248
G01 X0.93223 Y-1.01265
G01 X0.92942 Y-1.02933
G01 X0.92969 Y-1.02774
G01 X0.93017 Y-1.02663
G01 X0.93114 Y-1.02535
G01 X0.93415 Y-1.02235
G01 X0.93514 Y-1.02162
G01 X0.93713 Y-1.02090
G01 X0.93833 Y-1.02081
G01 X0.93953 Y-1.02098
G01 X0.94100 Y-1.02155
G01 X0.94201 Y-1.02226
G01 X0.94565 Y-1.02596
G01 X0.94628 Y-1.02699
G01 X0.94676 Y-1.02852
G01 X0.94685 Y-1.02973
G01 X0.94668 Y-1.03093
G01 X0.94609 Y-1.03242
G01 X0.94539 Y-1.03341
G01 X0.94154 Y-1.03716
G01 X0.94048 Y-1.03775
G01 X0.93914 Y-1.03816
G01 X0.93793 Y-1.03824
G01 X0.93673 Y-1.03808
G01 X0.93541 Y-1.03758
G01 X0.93425 Y-1.03679
G01 X0.93087 Y-1.03341
G01 X0.93017 Y-1.03242
G01 X0.92958 Y-1.03093
G01 X0.92942 Y-1.02933
G04 P0 ( dwell for no time -- G64 should not smooth over this point )
G00 Z0.08000 ( retract )

G00 X0.87879 Y-1.00422 ( rapid move to begin. )
G01 F180.00000
( Mill infeed pass 1/1 )
G01 Z-0.04000
G04 P0 ( dwell for no time -- G64 should not smooth over this point )
G01 F360.00000
G01 X0.87879 Y-1.00422
G01 X0.87881 Y-0.97288
G01 X0.87928 Y-0.97093
G01 X0.88038 Y-0.96925
G01 X0.88130 Y-0.96846
G01 X0.88272 Y-0.96772
G01 X0.88390 Y-0.96744
G01 X0.88550 Y-0.96744
G01 X0.88705 Y-0.96787
G01 X0.88811 Y-0.96846
G01 X0.88928 Y-0.96956
G01 X0.88994 Y-0.97057
G01 X0.89039 Y-0.97169
G01 X0.89061 Y-0.97328
G01 X0.89061 Y-1.00282
G01 X0.89192 Y-1.00544
G01 X0.89453 Y-1.00675
G01 X0.90018 Y-1.00675
G01 X0.90370 Y-1.00499
G01 X0.90411 Y-1.00458
G01 X0.90411 Y-0.97328
G01 X0.90445 Y-0.97131
G01 X0.90519 Y-0.96988
G01 X0.90598 Y-0.96897
G01 X0.90694 Y-0.96824
G01 X0.90842 Y-0.96760
G01 X0.91001 Y-0.96738
G01 X0.91160 Y-0.96760
G01 X0.91308 Y-0.96824
G01 X0.91404 Y-0.96897
G01 X0.91483 Y-0.96988
G01 X0.91543 Y-0.97093
G01 X0.91579 Y-0.97208
G01 X0.91592 Y-0.97328
G01 X0.91590 Y-1.01306
G01 X0.91543 Y-1.01501
G01 X0.91433 Y-1.01668
G01 X0.91342 Y-1.01748
G01 X0.91236 Y-1.01807
G01 X0.91041 Y-1.01855
G01 X0.90921 Y-1.01850
G01 X0.90803 Y-1.01822
G01 X0.90694 Y-1.01770
G01 X0.90604 Y-1.01702
G01 X0.90349 Y-1.01824
G01 X0.90196 Y-1.01855
G01 X0.89314 Y-1.01856
G01 X0.89159 Y-1.01835
G01 X0.88487 Y-1.01512
G01 X0.88349 Y-1.01416
G01 X0.88223 Y-1.01248
G01 X0.87912 Y-1.00614
G01 X0.87879 Y-1.00422

G04 P0 ( dwell for no time -- G64 should not smooth over this point )
G00 Z1.000000 ( retract )

M5 ( Spindle off. )
G04 P1.000000
M9 ( Coolant off. )
M2 ( Program end. )

