( pcb2gcode 2.3.1 )
( Software-independent Gcode )

G94 ( Inches per minute feed rate. )
G20 ( Units == INCHES. )

G90 ( Absolute coordinates. )
G00 S12000 ( RPM spindle speed. )
G64 P0.00040 ( set maximum deviation from commanded toolpath )
G01 F360.00000 ( Feedrate. )


G00 Z1.00000 (Retract to tool change height)
T0
M5      (Spindle stop.)
G04 P1.00000 (Wait for spindle to stop)
(MSG, Change tool bit to mill diameter 0.00000in)
M6      (Tool change.)
M0      (Temporary machine stop.)
M3 ( Spindle on clockwise. )
G04 P1.00000 (Wait for spindle to get up to speed)
G04 P0 ( dwell for no time -- G64 should not smooth over this point )
G00 Z0.08000 ( retract )

G00 X-0.05000 Y-0.99508 ( rapid move to begin. )
G01 F180.00000
( Mill infeed pass 1/1 )
G01 Z-0.04000
G04 P0 ( dwell for no time -- G64 should not smooth over this point )
G01 F360.00000
G01 X-0.05000 Y-0.99508
G01 X-0.00492 Y-0.99508
G01 X-0.00492 Y-0.95000
G01 X-0.00455 Y-0.94812
G01 X-0.00348 Y-0.94652
G01 X-0.00188 Y-0.94545
G01 X0.00000 Y-0.94508
G01 X0.00188 Y-0.94545
G01 X0.00348 Y-0.94652
G01 X0.00455 Y-0.94812
G01 X0.00492 Y-0.95000
G01 X0.00492 Y-0.99508
G01 X0.05000 Y-0.99508
G01 X0.05188 Y-0.99545
G01 X0.05348 Y-0.99652
G01 X0.05455 Y-0.99812
G01 X0.05492 Y-1.00000
G01 X0.05455 Y-1.00188
G01 X0.05348 Y-1.00348
G01 X0.05188 Y-1.00455
G01 X0.05000 Y-1.00492
G01 X0.00492 Y-1.00492
G01 X0.00492 Y-1.05000
G01 X-0.00492 Y-1.05000
G01 X-0.00492 Y-1.00492
G01 X-0.05000 Y-1.00483
G01 X-0.05000 Y-0.99508
G01 X0.16301 Y-0.40714
G01 X0.16377 Y-0.41482
G01 X0.16601 Y-0.42221
G01 X0.16964 Y-0.42902
G01 X0.17454 Y-0.43498
G01 X0.18051 Y-0.43988
G01 X0.18731 Y-0.44352
G01 X0.19470 Y-0.44576
G01 X0.20238 Y-0.44651
G01 X0.21006 Y-0.44576
G01 X0.21745 Y-0.44352
G01 X0.22425 Y-0.43988
G01 X0.23022 Y-0.43498
G01 X0.35349 Y-0.31171
G01 X0.35349 Y-0.57381
G01 X0.35424 Y-0.58149
G01 X0.35648 Y-0.58888
G01 X0.36012 Y-0.59568
G01 X0.36502 Y-0.60165
G01 X0.37098 Y-0.60655
G01 X0.37779 Y-0.61018
G01 X0.38518 Y-0.61242
G01 X0.39286 Y-0.61318
G01 X0.40054 Y-0.61242
G01 X0.40792 Y-0.61018
G01 X0.41473 Y-0.60655
G01 X0.42069 Y-0.60165
G01 X0.42559 Y-0.59568
G01 X0.42923 Y-0.58888
G01 X0.43147 Y-0.58149
G01 X0.43223 Y-0.57381
G01 X0.43223 Y-0.07381
G01 X0.43147 Y-0.06613
G01 X0.42923 Y-0.05874
G01 X0.42559 Y-0.05194
G01 X0.42069 Y-0.04597
G01 X0.41473 Y-0.04107
G01 X0.40792 Y-0.03744
G01 X0.40054 Y-0.03520
G01 X0.39286 Y-0.03444
G01 X0.38518 Y-0.03520
G01 X0.37779 Y-0.03744
G01 X0.37098 Y-0.04107
G01 X0.36502 Y-0.04597
G01 X0.36012 Y-0.05194
G01 X0.35648 Y-0.05874
G01 X0.35424 Y-0.06613
G01 X0.35349 Y-0.07381
G01 X0.35349 Y-0.20036
G01 X0.34950 Y-0.20435
G01 X0.23388 Y-0.05019
G01 X0.22866 Y-0.04450
G01 X0.22244 Y-0.03993
G01 X0.21544 Y-0.03667
G01 X0.20795 Y-0.03484
G01 X0.20024 Y-0.03450
G01 X0.19261 Y-0.03567
G01 X0.18536 Y-0.03831
G01 X0.17876 Y-0.04231
G01 X0.17307 Y-0.04753
G01 X0.16850 Y-0.05375
G01 X0.16524 Y-0.06075
G01 X0.16340 Y-0.06824
G01 X0.16307 Y-0.07595
G01 X0.16424 Y-0.08358
G01 X0.16688 Y-0.09083
G01 X0.17088 Y-0.09743
G01 X0.29325 Y-0.26059
G01 X0.17454 Y-0.37931
G01 X0.16964 Y-0.38527
G01 X0.16601 Y-0.39208
G01 X0.16377 Y-0.39946
G01 X0.16301 Y-0.40714
G04 P0 ( dwell for no time -- G64 should not smooth over this point )
G00 Z0.08000 ( retract )

G00 X0.56787 Y-0.10041 ( rapid move to begin. )
G01 F180.00000
( Mill infeed pass 1/1 )
G01 Z-0.04000
G04 P0 ( dwell for no time -- G64 should not smooth over this point )
G01 F360.00000
G01 X0.56787 Y-0.10041
G01 X0.56808 Y-0.09270
G01 X0.56979 Y-0.08517
G01 X0.57294 Y-0.07812
G01 X0.57740 Y-0.07183
G01 X0.58300 Y-0.06652
G01 X0.58953 Y-0.06241
G01 X0.63715 Y-0.03860
G01 X0.64572 Y-0.03549
G01 X0.65476 Y-0.03444
G01 X0.75000 Y-0.03444
G01 X0.75904 Y-0.03549
G01 X0.76761 Y-0.03860
G01 X0.81523 Y-0.06241
G01 X0.82064 Y-0.06568
G01 X0.82546 Y-0.06978
G01 X0.84927 Y-0.09359
G01 X0.85337 Y-0.09841
G01 X0.85664 Y-0.10382
G01 X0.88045 Y-0.15144
G01 X0.88355 Y-0.16000
G01 X0.88461 Y-0.16905
G01 X0.88461 Y-0.31190
G01 X0.88355 Y-0.32095
G01 X0.88045 Y-0.32951
G01 X0.85664 Y-0.37713
G01 X0.85337 Y-0.38254
G01 X0.84927 Y-0.38736
G01 X0.82546 Y-0.41117
G01 X0.82064 Y-0.41527
G01 X0.81522 Y-0.41855
G01 X0.76761 Y-0.44236
G01 X0.75904 Y-0.44546
G01 X0.75000 Y-0.44651
G01 X0.65476 Y-0.44651
G01 X0.64572 Y-0.44546
G01 X0.63715 Y-0.44236
G01 X0.58954 Y-0.41855
G01 X0.58300 Y-0.41444
G01 X0.57740 Y-0.40913
G01 X0.57294 Y-0.40283
G01 X0.56979 Y-0.39579
G01 X0.56808 Y-0.38826
G01 X0.56787 Y-0.38054
G01 X0.56917 Y-0.37294
G01 X0.57193 Y-0.36573
G01 X0.57604 Y-0.35920
G01 X0.58135 Y-0.35359
G01 X0.58764 Y-0.34913
G01 X0.59469 Y-0.34598
G01 X0.60222 Y-0.34427
G01 X0.60993 Y-0.34406
G01 X0.61754 Y-0.34536
G01 X0.62475 Y-0.34812
G01 X0.66405 Y-0.36777
G01 X0.74071 Y-0.36777
G01 X0.77430 Y-0.35098
G01 X0.78907 Y-0.33620
G01 X0.80587 Y-0.30261
G01 X0.80587 Y-0.17834
G01 X0.78907 Y-0.14475
G01 X0.77430 Y-0.12998
G01 X0.74070 Y-0.11318
G01 X0.66405 Y-0.11318
G01 X0.62475 Y-0.13283
G01 X0.61754 Y-0.13559
G01 X0.60993 Y-0.13689
G01 X0.60222 Y-0.13668
G01 X0.59469 Y-0.13497
G01 X0.58764 Y-0.13182
G01 X0.58135 Y-0.12736
G01 X0.57604 Y-0.12176
G01 X0.57193 Y-0.11523
G01 X0.56917 Y-0.10802
G01 X0.56787 Y-0.10041
G04 P0 ( dwell for no time -- G64 should not smooth over this point )
G00 Z0.08000 ( retract )

G00 X1.09889 Y-0.12195 ( rapid move to begin. )
G01 F180.00000
( Mill infeed pass 1/1 )
G01 Z-0.04000
G04 P0 ( dwell for no time -- G64 should not smooth over this point )
G01 F360.00000
G01 X1.09889 Y-0.12195
G01 X1.09889 Y-0.22588
G01 X1.10714 Y-0.22492
G01 X1.21690 Y-0.22492
G01 X1.24446 Y-0.21113
G01 X1.25825 Y-0.18356
G01 X1.25825 Y-0.15453
G01 X1.24446 Y-0.12696
G01 X1.21690 Y-0.11318
G01 X1.11644 Y-0.11318
G01 X1.09889 Y-0.12195
G04 P0 ( dwell for no time -- G64 should not smooth over this point )
G00 Z0.08000 ( retract )

G00 X1.44872 Y-0.16905 ( rapid move to begin. )
G01 F180.00000
( Mill infeed pass 1/1 )
G01 Z-0.04000
G04 P0 ( dwell for no time -- G64 should not smooth over this point )
G01 F360.00000
G01 X1.44872 Y-0.16905
G01 X1.44872 Y-0.24048
G01 X1.44978 Y-0.24952
G01 X1.45288 Y-0.25808
G01 X1.47669 Y-0.30570
G01 X1.47996 Y-0.31112
G01 X1.48406 Y-0.31594
G01 X1.50788 Y-0.33974
G01 X1.51502 Y-0.34540
G01 X1.51703 Y-0.34634
G01 X1.50787 Y-0.35550
G01 X1.50378 Y-0.36032
G01 X1.50050 Y-0.36573
G01 X1.47669 Y-0.41335
G01 X1.47359 Y-0.42191
G01 X1.47253 Y-0.43095
G01 X1.47253 Y-0.47857
G01 X1.47359 Y-0.48762
G01 X1.47669 Y-0.49618
G01 X1.50050 Y-0.54380
G01 X1.50378 Y-0.54921
G01 X1.50788 Y-0.55403
G01 X1.53168 Y-0.57784
G01 X1.53650 Y-0.58194
G01 X1.54191 Y-0.58521
G01 X1.58953 Y-0.60902
G01 X1.59810 Y-0.61213
G01 X1.60714 Y-0.61318
G01 X1.77381 Y-0.61318
G01 X1.78149 Y-0.61242
G01 X1.78887 Y-0.61018
G01 X1.79568 Y-0.60655
G01 X1.80165 Y-0.60165
G01 X1.80654 Y-0.59568
G01 X1.81018 Y-0.58888
G01 X1.81242 Y-0.58149
G01 X1.81318 Y-0.57381
G01 X1.81318 Y-0.07381
G01 X1.81242 Y-0.06613
G01 X1.81018 Y-0.05874
G01 X1.80654 Y-0.05194
G01 X1.80165 Y-0.04597
G01 X1.79568 Y-0.04107
G01 X1.78887 Y-0.03744
G01 X1.78149 Y-0.03520
G01 X1.77381 Y-0.03444
G01 X1.58333 Y-0.03444
G01 X1.57429 Y-0.03549
G01 X1.56573 Y-0.03860
G01 X1.51811 Y-0.06241
G01 X1.51269 Y-0.06568
G01 X1.50788 Y-0.06978
G01 X1.48406 Y-0.09359
G01 X1.47996 Y-0.09841
G01 X1.47669 Y-0.10382
G01 X1.45288 Y-0.15144
G01 X1.44978 Y-0.16000
G01 X1.44872 Y-0.16905
G04 P0 ( dwell for no time -- G64 should not smooth over this point )
G00 Z0.08000 ( retract )

G00 X1.52747 Y-0.17834 ( rapid move to begin. )
G01 F180.00000
( Mill infeed pass 1/1 )
G01 Z-0.04000
G04 P0 ( dwell for no time -- G64 should not smooth over this point )
G01 F360.00000
G01 X1.52747 Y-0.17834
G01 X1.54426 Y-0.14475
G01 X1.55903 Y-0.12998
G01 X1.59263 Y-0.11318
G01 X1.73444 Y-0.11318
G01 X1.73444 Y-0.29634
G01 X1.61353 Y-0.29634
G01 X1.55698 Y-0.27750
G01 X1.54426 Y-0.26477
G01 X1.52747 Y-0.23118
G01 X1.52747 Y-0.17834
G01 X1.63819 Y-0.20000
G01 X1.63845 Y-0.19754
G01 X1.63921 Y-0.19520
G01 X1.64044 Y-0.19306
G01 X1.64210 Y-0.19122
G01 X1.64409 Y-0.18977
G01 X1.64635 Y-0.18877
G01 X1.64877 Y-0.18825
G01 X1.65123 Y-0.18825
G01 X1.65365 Y-0.18877
G01 X1.65590 Y-0.18977
G01 X1.65790 Y-0.19122
G01 X1.65955 Y-0.19306
G01 X1.66079 Y-0.19520
G01 X1.66155 Y-0.19754
G01 X1.66181 Y-0.20000
G01 X1.66155 Y-0.20246
G01 X1.66079 Y-0.20480
G01 X1.65955 Y-0.20694
G01 X1.65790 Y-0.20878
G01 X1.65590 Y-0.21023
G01 X1.65365 Y-0.21123
G01 X1.65123 Y-0.21175
G01 X1.64877 Y-0.21175
G01 X1.64635 Y-0.21123
G01 X1.64409 Y-0.21023
G01 X1.64210 Y-0.20878
G01 X1.64044 Y-0.20694
G01 X1.63921 Y-0.20480
G01 X1.63845 Y-0.20246
G01 X1.63819 Y-0.20000
G04 P0 ( dwell for no time -- G64 should not smooth over this point )
G00 Z0.08000 ( retract )

G00 X1.91660 Y-0.46315 ( rapid move to begin. )
G01 F180.00000
( Mill infeed pass 1/1 )
G01 Z-0.04000
G04 P0 ( dwell for no time -- G64 should not smooth over this point )
G01 F360.00000
G01 X1.91660 Y-0.46315
G01 X1.91677 Y-0.46429
G01 X1.91716 Y-0.46538
G01 X1.91776 Y-0.46637
G01 X1.91853 Y-0.46723
G01 X1.91946 Y-0.46792
G01 X1.92051 Y-0.46841
G01 X1.92163 Y-0.46869
G01 X1.92279 Y-0.46875
G01 X1.92393 Y-0.46858
G01 X1.92502 Y-0.46819
G01 X1.92602 Y-0.46759
G01 X1.92687 Y-0.46682
G01 X1.92756 Y-0.46588
G01 X1.92806 Y-0.46484
G01 X1.93656 Y-0.44104
G01 X1.94506 Y-0.46484
G01 X1.94555 Y-0.46589
G01 X1.94624 Y-0.46682
G01 X1.94710 Y-0.46759
G01 X1.94809 Y-0.46819
G01 X1.94918 Y-0.46858
G01 X1.95032 Y-0.46875
G01 X1.95148 Y-0.46869
G01 X1.95260 Y-0.46841
G01 X1.95365 Y-0.46792
G01 X1.95458 Y-0.46723
G01 X1.95536 Y-0.46637
G01 X1.95596 Y-0.46538
G01 X1.95635 Y-0.46429
G01 X1.95652 Y-0.46315
G01 X1.95646 Y-0.46199
G01 X1.95618 Y-0.46087
G01 X1.94287 Y-0.42360
G01 X1.94721 Y-0.41274
G01 X1.94849 Y-0.41146
G01 X1.95424 Y-0.40846
G01 X1.95508 Y-0.40767
G01 X1.95575 Y-0.40672
G01 X1.95622 Y-0.40567
G01 X1.95648 Y-0.40454
G01 X1.95651 Y-0.40338
G01 X1.95631 Y-0.40224
G01 X1.95590 Y-0.40116
G01 X1.95528 Y-0.40018
G01 X1.95449 Y-0.39934
G01 X1.95354 Y-0.39867
G01 X1.95249 Y-0.39819
G01 X1.95136 Y-0.39794
G01 X1.95020 Y-0.39791
G01 X1.94906 Y-0.39810
G01 X1.94235 Y-0.40133
G01 X1.94082 Y-0.40243
G01 X1.93725 Y-0.40617
G01 X1.93670 Y-0.40723
G01 X1.93100 Y-0.42150
G01 X1.91694 Y-0.46087
G01 X1.91665 Y-0.46199
G01 X1.91660 Y-0.46315
G04 P0 ( dwell for no time -- G64 should not smooth over this point )
G00 Z0.08000 ( retract )

G00 X1.89508 Y-0.50000 ( rapid move to begin. )
G01 F180.00000
( Mill infeed pass 1/1 )
G01 Z-0.04000
G04 P0 ( dwell for no time -- G64 should not smooth over this point )
G01 F360.00000
G01 X1.89508 Y-0.50000
G01 X1.89545 Y-0.50188
G01 X1.89652 Y-0.50348
G01 X1.89812 Y-0.50455
G01 X1.90000 Y-0.50492
G01 X1.95096 Y-0.50483
G01 X1.95273 Y-0.50409
G01 X1.95409 Y-0.50273
G01 X1.95483 Y-0.50096
G01 X1.95483 Y-0.49904
G01 X1.95409 Y-0.49727
G01 X1.95273 Y-0.49591
G01 X1.95096 Y-0.49517
G01 X1.95000 Y-0.49508
G01 X1.90000 Y-0.49508
G01 X1.89812 Y-0.49545
G01 X1.89652 Y-0.49652
G01 X1.89545 Y-0.49812
G01 X1.89508 Y-0.50000
G04 P0 ( dwell for no time -- G64 should not smooth over this point )
G00 Z0.08000 ( retract )

G00 X1.84910 Y-0.43754 ( rapid move to begin. )
G01 F180.00000
( Mill infeed pass 1/1 )
G01 Z-0.04000
G04 P0 ( dwell for no time -- G64 should not smooth over this point )
G01 F360.00000
G01 X1.84910 Y-0.43754
G01 X1.84921 Y-0.43870
G01 X1.84955 Y-0.43980
G01 X1.85009 Y-0.44082
G01 X1.85083 Y-0.44172
G01 X1.85172 Y-0.44245
G01 X1.85275 Y-0.44300
G01 X1.85385 Y-0.44334
G01 X1.85501 Y-0.44345
G01 X1.90000 Y-0.44345
G01 X1.90115 Y-0.44334
G01 X1.90226 Y-0.44300
G01 X1.90328 Y-0.44245
G01 X1.90417 Y-0.44172
G01 X1.90491 Y-0.44082
G01 X1.90545 Y-0.43980
G01 X1.90579 Y-0.43870
G01 X1.90590 Y-0.43754
G01 X1.90579 Y-0.43639
G01 X1.90545 Y-0.43528
G01 X1.90491 Y-0.43426
G01 X1.90417 Y-0.43337
G01 X1.90328 Y-0.43263
G01 X1.90226 Y-0.43209
G01 X1.90115 Y-0.43175
G01 X1.90000 Y-0.43164
G01 X1.85501 Y-0.43164
G01 X1.85385 Y-0.43175
G01 X1.85275 Y-0.43209
G01 X1.85172 Y-0.43263
G01 X1.85083 Y-0.43337
G01 X1.85009 Y-0.43426
G01 X1.84955 Y-0.43528
G01 X1.84921 Y-0.43639
G01 X1.84910 Y-0.43754
G01 X1.84910 Y-0.45442
G01 X1.84921 Y-0.45326
G01 X1.84955 Y-0.45216
G01 X1.85009 Y-0.45114
G01 X1.85083 Y-0.45024
G01 X1.85172 Y-0.44951
G01 X1.85275 Y-0.44896
G01 X1.85385 Y-0.44862
G01 X1.85501 Y-0.44851
G01 X1.90000 Y-0.44851
G01 X1.90115 Y-0.44862
G01 X1.90226 Y-0.44896
G01 X1.90328 Y-0.44951
G01 X1.90417 Y-0.45024
G01 X1.90491 Y-0.45114
G01 X1.90545 Y-0.45216
G01 X1.90579 Y-0.45326
G01 X1.90590 Y-0.45442
G01 X1.90579 Y-0.45557
G01 X1.90545 Y-0.45668
G01 X1.90491 Y-0.45770
G01 X1.90417 Y-0.45859
G01 X1.90328 Y-0.45933
G01 X1.90226 Y-0.45987
G01 X1.90115 Y-0.46021
G01 X1.90000 Y-0.46032
G01 X1.85501 Y-0.46032
G01 X1.85385 Y-0.46021
G01 X1.85275 Y-0.45987
G01 X1.85172 Y-0.45933
G01 X1.85083 Y-0.45859
G01 X1.85009 Y-0.45770
G01 X1.84955 Y-0.45668
G01 X1.84921 Y-0.45557
G01 X1.84910 Y-0.45442
G01 X1.84910 Y-0.43754
G01 X1.87863 Y-0.32309
G01 X1.87863 Y-0.36246
G01 X1.87874 Y-0.36361
G01 X1.87908 Y-0.36472
G01 X1.87962 Y-0.36574
G01 X1.88036 Y-0.36663
G01 X1.88125 Y-0.36737
G01 X1.88227 Y-0.36791
G01 X1.88338 Y-0.36825
G01 X1.88453 Y-0.36836
G01 X1.88569 Y-0.36825
G01 X1.88679 Y-0.36791
G01 X1.88781 Y-0.36737
G01 X1.88871 Y-0.36663
G01 X1.88944 Y-0.36574
G01 X1.88999 Y-0.36472
G01 X1.89033 Y-0.36361
G01 X1.89044 Y-0.36246
G01 X1.89044 Y-0.32309
G01 X1.89033 Y-0.32194
G01 X1.88999 Y-0.32083
G01 X1.88944 Y-0.31981
G01 X1.88871 Y-0.31891
G01 X1.88781 Y-0.31818
G01 X1.88679 Y-0.31763
G01 X1.88569 Y-0.31730
G01 X1.88453 Y-0.31718
G01 X1.88338 Y-0.31730
G01 X1.88227 Y-0.31763
G01 X1.88125 Y-0.31818
G01 X1.88036 Y-0.31891
G01 X1.87962 Y-0.31981
G01 X1.87908 Y-0.32083
G01 X1.87874 Y-0.32194
G01 X1.87582 Y-0.37933
G01 X1.87593 Y-0.38048
G01 X1.87627 Y-0.38159
G01 X1.87681 Y-0.38261
G01 X1.88036 Y-0.38632
G01 X1.88125 Y-0.38705
G01 X1.88227 Y-0.38760
G01 X1.88338 Y-0.38794
G01 X1.88453 Y-0.38805
G01 X1.88569 Y-0.38794
G01 X1.88679 Y-0.38760
G01 X1.88781 Y-0.38705
G01 X1.89152 Y-0.38351
G01 X1.89226 Y-0.38261
G01 X1.89280 Y-0.38159
G01 X1.89314 Y-0.38048
G01 X1.89325 Y-0.37933
G01 X1.89314 Y-0.37818
G01 X1.89280 Y-0.37707
G01 X1.89226 Y-0.37605
G01 X1.88871 Y-0.37234
G01 X1.88781 Y-0.37161
G01 X1.88679 Y-0.37106
G01 X1.88569 Y-0.37073
G01 X1.88453 Y-0.37061
G01 X1.88338 Y-0.37073
G01 X1.88227 Y-0.37106
G01 X1.88125 Y-0.37161
G01 X1.88036 Y-0.37234
G01 X1.87681 Y-0.37605
G01 X1.87627 Y-0.37707
G01 X1.87593 Y-0.37818
G01 X1.87582 Y-0.37933
G04 P0 ( dwell for no time -- G64 should not smooth over this point )
G00 Z0.08000 ( retract )

G00 X1.96018 Y-0.32590 ( rapid move to begin. )
G01 F180.00000
( Mill infeed pass 1/1 )
G01 Z-0.04000
G04 P0 ( dwell for no time -- G64 should not smooth over this point )
G01 F360.00000
G01 X1.96018 Y-0.32590
G01 X1.96029 Y-0.32475
G01 X1.96063 Y-0.32364
G01 X1.96117 Y-0.32262
G01 X1.96472 Y-0.31891
G01 X1.96562 Y-0.31818
G01 X1.96664 Y-0.31763
G01 X1.96774 Y-0.31730
G01 X1.96890 Y-0.31718
G01 X1.97005 Y-0.31730
G01 X1.97116 Y-0.31763
G01 X1.97218 Y-0.31818
G01 X1.97307 Y-0.31891
G01 X1.97662 Y-0.32262
G01 X1.97716 Y-0.32364
G01 X1.97750 Y-0.32475
G01 X1.97761 Y-0.32590
G01 X1.97750 Y-0.32705
G01 X1.97717 Y-0.32816
G01 X1.97662 Y-0.32918
G01 X1.97588 Y-0.33008
G01 X1.97218 Y-0.33362
G01 X1.97116 Y-0.33417
G01 X1.97005 Y-0.33451
G01 X1.96890 Y-0.33462
G01 X1.96774 Y-0.33451
G01 X1.96664 Y-0.33417
G01 X1.96561 Y-0.33362
G01 X1.96472 Y-0.33289
G01 X1.96117 Y-0.32918
G01 X1.96063 Y-0.32816
G01 X1.96029 Y-0.32705
G01 X1.96018 Y-0.32590
G04 P0 ( dwell for no time -- G64 should not smooth over this point )
G00 Z0.08000 ( retract )

G00 X1.90394 Y-0.33434 ( rapid move to begin. )
G01 F180.00000
( Mill infeed pass 1/1 )
G01 Z-0.04000
G04 P0 ( dwell for no time -- G64 should not smooth over this point )
G01 F360.00000
G01 X1.90394 Y-0.33434
G01 X1.90409 Y-0.33298
G01 X1.90456 Y-0.33170
G01 X1.90786 Y-0.32526
G01 X1.91129 Y-0.32173
G01 X1.91282 Y-0.32062
G01 X1.91845 Y-0.31781
G01 X1.91973 Y-0.31734
G01 X1.92109 Y-0.31718
G01 X1.93515 Y-0.31718
G01 X1.93651 Y-0.31734
G01 X1.93779 Y-0.31781
G01 X1.94423 Y-0.32111
G01 X1.94776 Y-0.32454
G01 X1.94850 Y-0.32543
G01 X1.94904 Y-0.32646
G01 X1.94938 Y-0.32756
G01 X1.94949 Y-0.32871
G01 X1.94938 Y-0.32987
G01 X1.94904 Y-0.33097
G01 X1.94850 Y-0.33200
G01 X1.94776 Y-0.33289
G01 X1.94687 Y-0.33362
G01 X1.94585 Y-0.33417
G01 X1.94474 Y-0.33451
G01 X1.94359 Y-0.33462
G01 X1.94243 Y-0.33451
G01 X1.94133 Y-0.33417
G01 X1.94031 Y-0.33362
G01 X1.93941 Y-0.33289
G01 X1.93728 Y-0.33075
G01 X1.93376 Y-0.32899
G01 X1.92248 Y-0.32899
G01 X1.91896 Y-0.33075
G01 X1.91751 Y-0.33221
G01 X1.91575 Y-0.33573
G01 X1.91575 Y-0.34700
G01 X1.91751 Y-0.35052
G01 X1.91896 Y-0.35198
G01 X1.92248 Y-0.35374
G01 X1.93376 Y-0.35374
G01 X1.93728 Y-0.35198
G01 X1.94027 Y-0.34914
G01 X1.94125 Y-0.34860
G01 X1.94231 Y-0.34826
G01 X1.94341 Y-0.34812
G01 X1.94452 Y-0.34819
G01 X1.94560 Y-0.34847
G01 X1.94661 Y-0.34895
G01 X1.94751 Y-0.34961
G01 X1.94827 Y-0.35042
G01 X1.94886 Y-0.35136
G01 X1.94927 Y-0.35240
G01 X1.94947 Y-0.35350
G01 X1.94946 Y-0.35461
G01 X1.94665 Y-0.38273
G01 X1.94640 Y-0.38394
G01 X1.94590 Y-0.38508
G01 X1.94518 Y-0.38608
G01 X1.94426 Y-0.38691
G01 X1.94318 Y-0.38753
G01 X1.94201 Y-0.38792
G01 X1.94078 Y-0.38805
G01 X1.91265 Y-0.38805
G01 X1.91150 Y-0.38794
G01 X1.91039 Y-0.38760
G01 X1.90937 Y-0.38705
G01 X1.90848 Y-0.38632
G01 X1.90774 Y-0.38542
G01 X1.90720 Y-0.38440
G01 X1.90686 Y-0.38330
G01 X1.90675 Y-0.38214
G01 X1.90686 Y-0.38099
G01 X1.90720 Y-0.37988
G01 X1.90774 Y-0.37886
G01 X1.90848 Y-0.37797
G01 X1.90937 Y-0.37723
G01 X1.91039 Y-0.37669
G01 X1.91150 Y-0.37635
G01 X1.91265 Y-0.37624
G01 X1.93543 Y-0.37624
G01 X1.93652 Y-0.36539
G01 X1.93515 Y-0.36555
G01 X1.92109 Y-0.36555
G01 X1.91973 Y-0.36539
G01 X1.91845 Y-0.36493
G01 X1.91282 Y-0.36212
G01 X1.91129 Y-0.36101
G01 X1.90786 Y-0.35748
G01 X1.90456 Y-0.35104
G01 X1.90409 Y-0.34976
G01 X1.90394 Y-0.34840
G01 X1.90394 Y-0.33434
G04 P0 ( dwell for no time -- G64 should not smooth over this point )
G00 Z0.08000 ( retract )

G00 X1.82520 Y-0.32309 ( rapid move to begin. )
G01 F180.00000
( Mill infeed pass 1/1 )
G01 Z-0.04000
G04 P0 ( dwell for no time -- G64 should not smooth over this point )
G01 F360.00000
G01 X1.82520 Y-0.32309
G01 X1.82531 Y-0.32194
G01 X1.82565 Y-0.32083
G01 X1.82619 Y-0.31981
G01 X1.82693 Y-0.31891
G01 X1.82782 Y-0.31818
G01 X1.82884 Y-0.31763
G01 X1.82995 Y-0.31730
G01 X1.83110 Y-0.31718
G01 X1.83225 Y-0.31730
G01 X1.83336 Y-0.31763
G01 X1.83438 Y-0.31818
G01 X1.83528 Y-0.31891
G01 X1.83601 Y-0.31981
G01 X1.83656 Y-0.32083
G01 X1.83689 Y-0.32194
G01 X1.83701 Y-0.32309
G01 X1.83701 Y-0.35263
G01 X1.83831 Y-0.35525
G01 X1.84093 Y-0.35655
G01 X1.84658 Y-0.35655
G01 X1.85010 Y-0.35479
G01 X1.85051 Y-0.35439
G01 X1.85051 Y-0.32309
G01 X1.85062 Y-0.32194
G01 X1.85095 Y-0.32083
G01 X1.85150 Y-0.31981
G01 X1.85224 Y-0.31891
G01 X1.85313 Y-0.31818
G01 X1.85415 Y-0.31763
G01 X1.85526 Y-0.31730
G01 X1.85641 Y-0.31718
G01 X1.85756 Y-0.31730
G01 X1.85867 Y-0.31763
G01 X1.85969 Y-0.31818
G01 X1.86059 Y-0.31891
G01 X1.86132 Y-0.31981
G01 X1.86187 Y-0.32083
G01 X1.86220 Y-0.32194
G01 X1.86232 Y-0.32309
G01 X1.86232 Y-0.36246
G01 X1.86220 Y-0.36361
G01 X1.86187 Y-0.36472
G01 X1.86132 Y-0.36574
G01 X1.86059 Y-0.36663
G01 X1.85969 Y-0.36737
G01 X1.85867 Y-0.36791
G01 X1.85756 Y-0.36825
G01 X1.85641 Y-0.36836
G01 X1.85526 Y-0.36825
G01 X1.85415 Y-0.36791
G01 X1.85246 Y-0.36682
G01 X1.84933 Y-0.36821
G01 X1.84797 Y-0.36836
G01 X1.83954 Y-0.36836
G01 X1.83818 Y-0.36821
G01 X1.83690 Y-0.36774
G01 X1.83127 Y-0.36493
G01 X1.83021 Y-0.36425
G01 X1.82932 Y-0.36335
G01 X1.82863 Y-0.36229
G01 X1.82582 Y-0.35666
G01 X1.82535 Y-0.35538
G01 X1.82520 Y-0.35402
G01 X1.82520 Y-0.32309
G04 P0 ( dwell for no time -- G64 should not smooth over this point )
G00 Z0.08000 ( retract )

G00 X1.63819 Y-0.45000 ( rapid move to begin. )
G01 F180.00000
( Mill infeed pass 1/1 )
G01 Z-0.04000
G04 P0 ( dwell for no time -- G64 should not smooth over this point )
G01 F360.00000
G01 X1.63819 Y-0.45000
G01 X1.63845 Y-0.45246
G01 X1.63921 Y-0.45480
G01 X1.64044 Y-0.45694
G01 X1.64210 Y-0.45878
G01 X1.64409 Y-0.46023
G01 X1.64635 Y-0.46123
G01 X1.64877 Y-0.46175
G01 X1.65123 Y-0.46175
G01 X1.65365 Y-0.46123
G01 X1.65590 Y-0.46023
G01 X1.65790 Y-0.45878
G01 X1.65955 Y-0.45694
G01 X1.66079 Y-0.45480
G01 X1.66155 Y-0.45246
G01 X1.66181 Y-0.45000
G01 X1.66155 Y-0.44754
G01 X1.66079 Y-0.44520
G01 X1.65955 Y-0.44306
G01 X1.65790 Y-0.44122
G01 X1.65590 Y-0.43977
G01 X1.65365 Y-0.43877
G01 X1.65123 Y-0.43825
G01 X1.64877 Y-0.43825
G01 X1.64635 Y-0.43877
G01 X1.64409 Y-0.43977
G01 X1.64210 Y-0.44122
G01 X1.64044 Y-0.44306
G01 X1.63921 Y-0.44520
G01 X1.63845 Y-0.44754
G01 X1.63819 Y-0.45000
G01 X1.55127 Y-0.44025
G01 X1.55127 Y-0.46928
G01 X1.56807 Y-0.50287
G01 X1.58284 Y-0.51764
G01 X1.61644 Y-0.53444
G01 X1.73444 Y-0.53444
G01 X1.73444 Y-0.37509
G01 X1.61644 Y-0.37509
G01 X1.58284 Y-0.39188
G01 X1.56807 Y-0.40665
G01 X1.55127 Y-0.44025
G04 P0 ( dwell for no time -- G64 should not smooth over this point )
G00 Z0.08000 ( retract )

G00 X1.08410 Y-0.97374 ( rapid move to begin. )
G01 F180.00000
( Mill infeed pass 1/1 )
G01 Z-0.04000
G04 P0 ( dwell for no time -- G64 should not smooth over this point )
G01 F360.00000
G01 X1.08410 Y-0.97374
G01 X1.08412 Y-0.97258
G01 X1.08437 Y-0.97145
G01 X1.08484 Y-0.97039
G01 X1.08550 Y-0.96944
G01 X1.08634 Y-0.96864
G01 X1.08732 Y-0.96802
G01 X1.08839 Y-0.96760
G01 X1.08953 Y-0.96740
G01 X1.09069 Y-0.96742
G01 X1.09182 Y-0.96767
G01 X1.09288 Y-0.96814
G01 X1.09383 Y-0.96880
G01 X1.09463 Y-0.96964
G01 X1.10546 Y-0.98341
G01 X1.11628 Y-0.96964
G01 X1.11708 Y-0.96880
G01 X1.11803 Y-0.96814
G01 X1.11909 Y-0.96767
G01 X1.12022 Y-0.96742
G01 X1.12138 Y-0.96740
G01 X1.12251 Y-0.96760
G01 X1.12359 Y-0.96802
G01 X1.12457 Y-0.96864
G01 X1.12541 Y-0.96944
G01 X1.12607 Y-0.97039
G01 X1.12654 Y-0.97145
G01 X1.12678 Y-0.97258
G01 X1.12681 Y-0.97374
G01 X1.12661 Y-0.97488
G01 X1.12619 Y-0.97596
G01 X1.12556 Y-0.97693
G01 X1.11296 Y-0.99297
G01 X1.12556 Y-1.00900
G01 X1.12619 Y-1.00998
G01 X1.12661 Y-1.01106
G01 X1.12681 Y-1.01220
G01 X1.12678 Y-1.01336
G01 X1.12654 Y-1.01449
G01 X1.12607 Y-1.01555
G01 X1.12541 Y-1.01650
G01 X1.12457 Y-1.01730
G01 X1.12359 Y-1.01792
G01 X1.12251 Y-1.01834
G01 X1.12138 Y-1.01854
G01 X1.12022 Y-1.01852
G01 X1.11909 Y-1.01827
G01 X1.11803 Y-1.01780
G01 X1.11708 Y-1.01714
G01 X1.11628 Y-1.01630
G01 X1.10546 Y-1.00253
G01 X1.09463 Y-1.01630
G01 X1.09383 Y-1.01714
G01 X1.09288 Y-1.01780
G01 X1.09182 Y-1.01827
G01 X1.09069 Y-1.01852
G01 X1.08953 Y-1.01854
G01 X1.08839 Y-1.01834
G01 X1.08732 Y-1.01792
G01 X1.08634 Y-1.01730
G01 X1.08550 Y-1.01650
G01 X1.08484 Y-1.01555
G01 X1.08437 Y-1.01449
G01 X1.08412 Y-1.01336
G01 X1.08410 Y-1.01220
G01 X1.08430 Y-1.01106
G01 X1.08472 Y-1.00998
G01 X1.08534 Y-1.00900
G01 X1.09794 Y-0.99297
G01 X1.08534 Y-0.97693
G01 X1.08472 Y-0.97596
G01 X1.08430 Y-0.97488
G01 X1.08410 Y-0.97374
G04 P0 ( dwell for no time -- G64 should not smooth over this point )
G00 Z0.08000 ( retract )

G00 X1.01659 Y-1.00422 ( rapid move to begin. )
G01 F180.00000
( Mill infeed pass 1/1 )
G01 Z-0.04000
G04 P0 ( dwell for no time -- G64 should not smooth over this point )
G01 F360.00000
G01 X1.01659 Y-1.00422
G01 X1.01670 Y-1.00307
G01 X1.01704 Y-1.00196
G01 X1.01759 Y-1.00094
G01 X1.01832 Y-1.00004
G01 X1.01921 Y-0.99931
G01 X1.02024 Y-0.99876
G01 X1.02134 Y-0.99843
G01 X1.02250 Y-0.99831
G01 X1.06749 Y-0.99831
G01 X1.06864 Y-0.99843
G01 X1.06975 Y-0.99876
G01 X1.07077 Y-0.99931
G01 X1.07167 Y-1.00004
G01 X1.07240 Y-1.00094
G01 X1.07295 Y-1.00196
G01 X1.07328 Y-1.00307
G01 X1.07340 Y-1.00422
G01 X1.07328 Y-1.00537
G01 X1.07295 Y-1.00648
G01 X1.07240 Y-1.00750
G01 X1.07167 Y-1.00839
G01 X1.07077 Y-1.00913
G01 X1.06975 Y-1.00967
G01 X1.06864 Y-1.01001
G01 X1.06749 Y-1.01012
G01 X1.02250 Y-1.01012
G01 X1.02134 Y-1.01001
G01 X1.02024 Y-1.00967
G01 X1.01921 Y-1.00913
G01 X1.01832 Y-1.00839
G01 X1.01759 Y-1.00750
G01 X1.01704 Y-1.00648
G01 X1.01670 Y-1.00537
G01 X1.01659 Y-1.00422
G01 X1.01659 Y-0.98735
G01 X1.01670 Y-0.98850
G01 X1.01704 Y-0.98961
G01 X1.01759 Y-0.99063
G01 X1.01832 Y-0.99152
G01 X1.01921 Y-0.99226
G01 X1.02024 Y-0.99280
G01 X1.02134 Y-0.99314
G01 X1.02250 Y-0.99325
G01 X1.06749 Y-0.99325
G01 X1.06864 Y-0.99314
G01 X1.06975 Y-0.99280
G01 X1.07077 Y-0.99226
G01 X1.07167 Y-0.99152
G01 X1.07240 Y-0.99063
G01 X1.07295 Y-0.98961
G01 X1.07328 Y-0.98850
G01 X1.07340 Y-0.98735
G01 X1.07328 Y-0.98619
G01 X1.07295 Y-0.98509
G01 X1.07240 Y-0.98407
G01 X1.07167 Y-0.98317
G01 X1.07077 Y-0.98244
G01 X1.06975 Y-0.98189
G01 X1.06864 Y-0.98155
G01 X1.06749 Y-0.98144
G01 X1.02250 Y-0.98144
G01 X1.02134 Y-0.98155
G01 X1.02024 Y-0.98189
G01 X1.01921 Y-0.98244
G01 X1.01832 Y-0.98317
G01 X1.01759 Y-0.98407
G01 X1.01704 Y-0.98509
G01 X1.01670 Y-0.98619
G01 X1.01659 Y-0.98735
G01 X1.02015 Y-0.07381
G01 X0.99508 Y-0.90000
G01 X0.99545 Y-0.89812
G01 X0.99652 Y-0.89652
G01 X0.99812 Y-0.89545
G01 X1.00000 Y-0.89508
G01 X1.00188 Y-0.89545
G01 X1.00348 Y-0.89652
G01 X1.00455 Y-0.89812
G01 X1.00492 Y-0.90000
G01 X1.00492 Y-0.95000
G01 X1.00483 Y-0.95096
G01 X1.00409 Y-0.95273
G01 X1.00273 Y-0.95409
G01 X1.00096 Y-0.95483
G01 X0.99904 Y-0.95483
G01 X0.99726 Y-0.95409
G01 X0.99591 Y-0.95273
G01 X0.99517 Y-0.95096
G01 X0.99508 Y-0.90000
G01 X1.02015 Y-0.07381
G01 X1.02015 Y-0.33571
G01 X1.02121 Y-0.34476
G01 X1.02431 Y-0.35332
G01 X1.04812 Y-0.40094
G01 X1.05267 Y-0.40803
G01 X1.05863 Y-0.41399
G01 X1.06573 Y-0.41855
G01 X1.11335 Y-0.44236
G01 X1.12191 Y-0.44546
G01 X1.13095 Y-0.44651
G01 X1.22619 Y-0.44651
G01 X1.23524 Y-0.44546
G01 X1.24380 Y-0.44236
G01 X1.29141 Y-0.41855
G01 X1.29795 Y-0.41444
G01 X1.30355 Y-0.40913
G01 X1.30801 Y-0.40283
G01 X1.31116 Y-0.39579
G01 X1.31287 Y-0.38826
G01 X1.31308 Y-0.38054
G01 X1.31178 Y-0.37294
G01 X1.30902 Y-0.36573
G01 X1.30491 Y-0.35920
G01 X1.29960 Y-0.35359
G01 X1.29331 Y-0.34913
G01 X1.28626 Y-0.34598
G01 X1.27873 Y-0.34427
G01 X1.27102 Y-0.34406
G01 X1.26341 Y-0.34536
G01 X1.25620 Y-0.34812
G01 X1.21690 Y-0.36777
G01 X1.14024 Y-0.36777
G01 X1.11268 Y-0.35399
G01 X1.09889 Y-0.32642
G01 X1.09889 Y-0.31243
G01 X1.11644 Y-0.30366
G01 X1.22619 Y-0.30366
G01 X1.23524 Y-0.30260
G01 X1.24380 Y-0.29950
G01 X1.29141 Y-0.27569
G01 X1.29851 Y-0.27114
G01 X1.30447 Y-0.26518
G01 X1.30902 Y-0.25809
G01 X1.33283 Y-0.21047
G01 X1.33594 Y-0.20190
G01 X1.33699 Y-0.19286
G01 X1.33699 Y-0.14524
G01 X1.33594 Y-0.13619
G01 X1.33283 Y-0.12763
G01 X1.30902 Y-0.08001
G01 X1.30447 Y-0.07292
G01 X1.29851 Y-0.06696
G01 X1.29142 Y-0.06241
G01 X1.24380 Y-0.03860
G01 X1.23524 Y-0.03549
G01 X1.22619 Y-0.03444
G01 X1.10714 Y-0.03444
G01 X1.09810 Y-0.03549
G01 X1.08953 Y-0.03860
G01 X1.08260 Y-0.04206
G01 X1.08140 Y-0.04107
G01 X1.07459 Y-0.03744
G01 X1.06720 Y-0.03520
G01 X1.05952 Y-0.03444
G01 X1.05184 Y-0.03520
G01 X1.04446 Y-0.03744
G01 X1.03765 Y-0.04107
G01 X1.03168 Y-0.04597
G01 X1.02679 Y-0.05194
G01 X1.02315 Y-0.05874
G01 X1.02091 Y-0.06613
G01 X1.02015 Y-0.07381
G01 X0.95754 Y-0.97328
G01 X0.95765 Y-0.97213
G01 X0.95799 Y-0.97103
G01 X0.95853 Y-0.97001
G01 X0.95927 Y-0.96911
G01 X0.96016 Y-0.96837
G01 X0.96118 Y-0.96783
G01 X0.96229 Y-0.96749
G01 X0.96344 Y-0.96738
G01 X0.99719 Y-0.96738
G01 X0.99834 Y-0.96749
G01 X0.99945 Y-0.96783
G01 X1.00047 Y-0.96837
G01 X1.00136 Y-0.96911
G01 X1.00210 Y-0.97001
G01 X1.00264 Y-0.97103
G01 X1.00298 Y-0.97213
G01 X1.00309 Y-0.97328
G01 X1.00298 Y-0.97444
G01 X1.00264 Y-0.97554
G01 X1.00210 Y-0.97657
G01 X1.00136 Y-0.97746
G01 X1.00047 Y-0.97820
G01 X0.99945 Y-0.97874
G01 X0.99834 Y-0.97908
G01 X0.99719 Y-0.97919
G01 X0.98622 Y-0.97919
G01 X0.98622 Y-1.01527
G01 X0.98811 Y-1.01349
G01 X0.99455 Y-1.01018
G01 X0.99563 Y-1.00977
G01 X0.99677 Y-1.00957
G01 X0.99792 Y-1.00961
G01 X0.99905 Y-1.00986
G01 X1.00011 Y-1.01033
G01 X1.00106 Y-1.01100
G01 X1.00185 Y-1.01185
G01 X1.00247 Y-1.01282
G01 X1.00288 Y-1.01391
G01 X1.00308 Y-1.01505
G01 X1.00305 Y-1.01620
G01 X1.00279 Y-1.01733
G01 X1.00232 Y-1.01839
G01 X1.00165 Y-1.01934
G01 X1.00081 Y-1.02013
G01 X0.99506 Y-1.02313
G01 X0.99053 Y-1.02767
G01 X0.98523 Y-1.03561
G01 X0.98449 Y-1.03651
G01 X0.98360 Y-1.03725
G01 X0.98258 Y-1.03779
G01 X0.98147 Y-1.03813
G01 X0.98032 Y-1.03824
G01 X0.97916 Y-1.03813
G01 X0.97806 Y-1.03780
G01 X0.97703 Y-1.03725
G01 X0.97614 Y-1.03652
G01 X0.97540 Y-1.03562
G01 X0.97486 Y-1.03460
G01 X0.97452 Y-1.03349
G01 X0.97441 Y-1.03234
G01 X0.97441 Y-0.97919
G01 X0.96344 Y-0.97919
G01 X0.96229 Y-0.97908
G01 X0.96118 Y-0.97874
G01 X0.96016 Y-0.97820
G01 X0.95927 Y-0.97746
G01 X0.95853 Y-0.97657
G01 X0.95799 Y-0.97554
G01 X0.95765 Y-0.97444
G01 X0.88819 Y-0.55000
G01 X0.87879 Y-0.97328
G01 X0.87891 Y-0.97213
G01 X0.87925 Y-0.97103
G01 X0.87979 Y-0.97001
G01 X0.88053 Y-0.96911
G01 X0.88142 Y-0.96837
G01 X0.88244 Y-0.96783
G01 X0.88355 Y-0.96749
G01 X0.88470 Y-0.96738
G01 X0.88585 Y-0.96749
G01 X0.88696 Y-0.96783
G01 X0.88798 Y-0.96837
G01 X0.88888 Y-0.96911
G01 X0.88961 Y-0.97001
G01 X0.89016 Y-0.97103
G01 X0.89049 Y-0.97213
G01 X0.89061 Y-0.97328
G01 X0.89061 Y-1.00282
G01 X0.89192 Y-1.00544
G01 X0.89453 Y-1.00675
G01 X0.90018 Y-1.00675
G01 X0.90370 Y-1.00499
G01 X0.90411 Y-1.00458
G01 X0.90411 Y-0.97328
G01 X0.90422 Y-0.97213
G01 X0.90455 Y-0.97103
G01 X0.90510 Y-0.97001
G01 X0.90583 Y-0.96911
G01 X0.90673 Y-0.96837
G01 X0.90775 Y-0.96783
G01 X0.90886 Y-0.96749
G01 X0.91001 Y-0.96738
G01 X0.91116 Y-0.96749
G01 X0.91227 Y-0.96783
G01 X0.91329 Y-0.96837
G01 X0.91419 Y-0.96911
G01 X0.91492 Y-0.97001
G01 X0.91547 Y-0.97103
G01 X0.91580 Y-0.97213
G01 X0.91592 Y-0.97328
G01 X0.91592 Y-1.01265
G01 X0.91580 Y-1.01381
G01 X0.91547 Y-1.01491
G01 X0.91492 Y-1.01593
G01 X0.91419 Y-1.01683
G01 X0.91329 Y-1.01756
G01 X0.91227 Y-1.01811
G01 X0.91116 Y-1.01845
G01 X0.91001 Y-1.01856
G01 X0.90886 Y-1.01845
G01 X0.90775 Y-1.01811
G01 X0.90606 Y-1.01701
G01 X0.90293 Y-1.01840
G01 X0.90157 Y-1.01856
G01 X0.89314 Y-1.01856
G01 X0.89178 Y-1.01840
G01 X0.89050 Y-1.01794
G01 X0.88487 Y-1.01512
G01 X0.88381 Y-1.01444
G01 X0.88292 Y-1.01355
G01 X0.88223 Y-1.01248
G01 X0.87942 Y-1.00686
G01 X0.87895 Y-1.00558
G01 X0.87879 Y-1.00422
G01 X0.87879 Y-0.97328
G01 X0.88819 Y-0.55000
G01 X0.88845 Y-0.55246
G01 X0.88921 Y-0.55480
G01 X0.89044 Y-0.55694
G01 X0.89210 Y-0.55878
G01 X0.89409 Y-0.56023
G01 X0.89635 Y-0.56123
G01 X0.89877 Y-0.56175
G01 X0.90123 Y-0.56175
G01 X0.90365 Y-0.56123
G01 X0.90590 Y-0.56023
G01 X0.90790 Y-0.55878
G01 X0.90956 Y-0.55694
G01 X0.91079 Y-0.55480
G01 X0.91155 Y-0.55246
G01 X0.91181 Y-0.55000
G01 X0.91155 Y-0.54754
G01 X0.91079 Y-0.54520
G01 X0.90956 Y-0.54306
G01 X0.90790 Y-0.54122
G01 X0.90590 Y-0.53977
G01 X0.90365 Y-0.53877
G01 X0.90123 Y-0.53825
G01 X0.89877 Y-0.53825
G01 X0.89635 Y-0.53877
G01 X0.89409 Y-0.53977
G01 X0.89210 Y-0.54122
G01 X0.89044 Y-0.54306
G01 X0.88921 Y-0.54520
G01 X0.88845 Y-0.54754
G01 X0.88819 Y-0.55000
G01 X0.93223 Y-0.97328
G01 X0.93223 Y-1.01265
G01 X0.93234 Y-1.01381
G01 X0.93268 Y-1.01491
G01 X0.93322 Y-1.01593
G01 X0.93396 Y-1.01683
G01 X0.93485 Y-1.01756
G01 X0.93587 Y-1.01811
G01 X0.93698 Y-1.01845
G01 X0.93813 Y-1.01856
G01 X0.93928 Y-1.01845
G01 X0.94039 Y-1.01811
G01 X0.94141 Y-1.01756
G01 X0.94231 Y-1.01683
G01 X0.94304 Y-1.01593
G01 X0.94359 Y-1.01491
G01 X0.94392 Y-1.01381
G01 X0.94404 Y-1.01265
G01 X0.94404 Y-0.97328
G01 X0.94392 Y-0.97213
G01 X0.94359 Y-0.97103
G01 X0.94304 Y-0.97001
G01 X0.94231 Y-0.96911
G01 X0.94141 Y-0.96837
G01 X0.94039 Y-0.96783
G01 X0.93928 Y-0.96749
G01 X0.93813 Y-0.96738
G01 X0.93698 Y-0.96749
G01 X0.93587 Y-0.96783
G01 X0.93485 Y-0.96837
G01 X0.93396 Y-0.96911
G01 X0.93322 Y-0.97001
G01 X0.93268 Y-0.97103
G01 X0.93234 Y-0.97213
G01 X0.92941 Y-1.02953
G01 X0.92953 Y-1.03068
G01 X0.92986 Y-1.03179
G01 X0.93041 Y-1.03281
G01 X0.93396 Y-1.03651
G01 X0.93485 Y-1.03725
G01 X0.93587 Y-1.03779
G01 X0.93698 Y-1.03813
G01 X0.93813 Y-1.03824
G01 X0.93928 Y-1.03813
G01 X0.94039 Y-1.03779
G01 X0.94141 Y-1.03725
G01 X0.94512 Y-1.03370
G01 X0.94585 Y-1.03281
G01 X0.94640 Y-1.03179
G01 X0.94674 Y-1.03068
G01 X0.94685 Y-1.02953
G01 X0.94674 Y-1.02837
G01 X0.94640 Y-1.02727
G01 X0.94585 Y-1.02625
G01 X0.94231 Y-1.02254
G01 X0.94141 Y-1.02180
G01 X0.94039 Y-1.02126
G01 X0.93928 Y-1.02092
G01 X0.93813 Y-1.02081
G01 X0.93698 Y-1.02092
G01 X0.93587 Y-1.02126
G01 X0.93485 Y-1.02180
G01 X0.93396 Y-1.02254
G01 X0.93041 Y-1.02625
G01 X0.92986 Y-1.02727
G01 X0.92953 Y-1.02837
G01 X0.92941 Y-1.02953

G04 P0 ( dwell for no time -- G64 should not smooth over this point )
G00 Z1.000000 ( retract )

M5 ( Spindle off. )
G04 P1.000000
M9 ( Coolant off. )
M2 ( Program end. )

