( pcb2gcode 2.5.0 )
( Software-independent Gcode )

G94 ( Inches per minute feed rate. )
G20 ( Units == INCHES. )

G90 ( Absolute coordinates. )
G00 S12000 ( RPM spindle speed. )
G64 P0.00040 ( set maximum deviation from commanded toolpath )
G01 F360.00000 ( Feedrate. )


G00 Z1.00000 (Retract to tool change height)
T1
M5      (Spindle stop.)
G04 P1.00000 (Wait for spindle to stop)
(MSG, Change tool bit to mill diameter 0.00000in)
M6      (Tool change.)
M0      (Temporary machine stop.)
M3 ( Spindle on clockwise. )
G04 P1.00000 (Wait for spindle to get up to speed)
G04 P0 ( dwell for no time -- G64 should not smooth over this point )
G00 Z0.08000 ( retract )

G00 X-0.05000 Y0.04304 ( rapid move to begin. )
G01 F180.00000
( Mill infeed pass 1/1 )
G01 Z-0.04000
G04 P0 ( dwell for no time -- G64 should not smooth over this point )
G01 F360.00000
G01 X-0.05000 Y0.04304
G01 X-0.05000 Y0.05000
G01 X-0.04313 Y0.05000
G01 X0.00000 Y0.00696
G01 X0.04306 Y0.05000
G01 X0.05489 Y0.05000
G01 X0.05472 Y0.04859
G01 X0.05442 Y0.04784
G01 X0.05375 Y0.04682
G01 X0.00696 Y0.00000
G01 X0.05375 Y-0.04682
G01 X0.05442 Y-0.04784
G01 X0.05472 Y-0.04859
G01 X0.05492 Y-0.05020
G01 X0.05472 Y-0.05140
G01 X0.05442 Y-0.05216
G01 X0.05348 Y-0.05348
G01 X0.05216 Y-0.05442
G01 X0.05140 Y-0.05472
G01 X0.05020 Y-0.05492
G01 X0.04859 Y-0.05472
G01 X0.04784 Y-0.05442
G01 X0.04682 Y-0.05375
G01 X0.00000 Y-0.00696
G01 X-0.04682 Y-0.05375
G01 X-0.04784 Y-0.05442
G01 X-0.04859 Y-0.05472
G01 X-0.05000 Y-0.05489
G01 X-0.05000 Y-0.04306
G01 X-0.00696 Y0.00000
G01 X-0.05000 Y0.04304
G04 P0 ( dwell for no time -- G64 should not smooth over this point )
G00 Z0.08000 ( retract )

G00 X0.12497 Y-0.09983 ( rapid move to begin. )
G01 F180.00000
( Mill infeed pass 1/1 )
G01 Z-0.04000
G04 P0 ( dwell for no time -- G64 should not smooth over this point )
G01 F360.00000
G01 X0.12497 Y-0.09983
G01 X0.12497 Y-0.09717
G01 X0.12628 Y-0.09456
G01 X0.12890 Y-0.09325
G01 X0.13736 Y-0.09325
G01 X0.13997 Y-0.09456
G01 X0.14100 Y-0.09662
G01 X0.12497 Y-0.09983
G04 P0 ( dwell for no time -- G64 should not smooth over this point )
G00 Z0.08000 ( retract )

G00 X0.21215 Y-0.10650 ( rapid move to begin. )
G01 F180.00000
( Mill infeed pass 1/1 )
G01 Z-0.04000
G04 P0 ( dwell for no time -- G64 should not smooth over this point )
G01 F360.00000
G01 X0.21215 Y-0.10650
G01 X0.21215 Y-0.09999
G01 X0.21391 Y-0.09647
G01 X0.21537 Y-0.09501
G01 X0.21888 Y-0.09325
G01 X0.22453 Y-0.09325
G01 X0.22805 Y-0.09501
G01 X0.22951 Y-0.09647
G01 X0.23127 Y-0.09999
G01 X0.23127 Y-0.10650
G01 X0.21215 Y-0.10650
G04 P0 ( dwell for no time -- G64 should not smooth over this point )
G00 Z0.08000 ( retract )

G00 X0.03509 Y-0.62699 ( rapid move to begin. )
G01 F180.00000
( Mill infeed pass 1/1 )
G01 Z-0.04000
G04 P0 ( dwell for no time -- G64 should not smooth over this point )
G01 F360.00000
G01 X0.03509 Y-0.62699
G01 X0.03514 Y-0.12459
G01 X0.03541 Y-0.12260
G01 X0.03599 Y-0.12026
G01 X0.03685 Y-0.11801
G01 X0.03799 Y-0.11589
G01 X0.03937 Y-0.11392
G01 X0.04098 Y-0.11213
G01 X0.04280 Y-0.11055
G01 X0.04480 Y-0.10921
G01 X0.04658 Y-0.10828
G01 X0.04845 Y-0.10754
G01 X0.05038 Y-0.10700
G01 X0.05236 Y-0.10665
G01 X0.05436 Y-0.10651
G01 X0.06639 Y-0.10650
G01 X0.08835 Y-0.07357
G01 X0.06001 Y-0.07357
G01 X0.05842 Y-0.07335
G01 X0.05694 Y-0.07271
G01 X0.05598 Y-0.07197
G01 X0.05496 Y-0.07073
G01 X0.05432 Y-0.06925
G01 X0.05411 Y-0.06766
G01 X0.05432 Y-0.06607
G01 X0.05496 Y-0.06459
G01 X0.05598 Y-0.06334
G01 X0.05766 Y-0.06224
G01 X0.05961 Y-0.06177
G01 X0.09938 Y-0.06175
G01 X0.10057 Y-0.06187
G01 X0.10207 Y-0.06240
G01 X0.10307 Y-0.06305
G01 X0.10416 Y-0.06420
G01 X0.10491 Y-0.06560
G01 X0.10526 Y-0.06715
G01 X0.10519 Y-0.06874
G01 X0.10485 Y-0.06988
G01 X0.10429 Y-0.07093
G01 X0.08058 Y-0.10650
G01 X0.11316 Y-0.10650
G01 X0.11316 Y-0.09578
G01 X0.11328 Y-0.09462
G01 X0.11378 Y-0.09314
G01 X0.11680 Y-0.08715
G01 X0.11785 Y-0.08583
G01 X0.11924 Y-0.08487
G01 X0.12522 Y-0.08190
G01 X0.12634 Y-0.08156
G01 X0.12750 Y-0.08144
G01 X0.13875 Y-0.08144
G01 X0.13992 Y-0.08156
G01 X0.14139 Y-0.08206
G01 X0.14702 Y-0.08487
G01 X0.14870 Y-0.08613
G01 X0.14966 Y-0.08751
G01 X0.15247 Y-0.09314
G01 X0.15289 Y-0.09423
G01 X0.15308 Y-0.09539
G01 X0.15309 Y-0.10141
G01 X0.15287 Y-0.10301
G01 X0.15242 Y-0.10414
G01 X0.15175 Y-0.10515
G01 X0.15016 Y-0.10650
G01 X0.16659 Y-0.10650
G01 X0.16665 Y-0.08654
G01 X0.16708 Y-0.08499
G01 X0.16767 Y-0.08394
G01 X0.16847 Y-0.08303
G01 X0.16943 Y-0.08230
G01 X0.17052 Y-0.08178
G01 X0.17169 Y-0.08149
G01 X0.17370 Y-0.08156
G01 X0.17485 Y-0.08193
G01 X0.17590 Y-0.08252
G01 X0.17733 Y-0.08395
G01 X0.18146 Y-0.08190
G01 X0.18296 Y-0.08149
G01 X0.18977 Y-0.08145
G01 X0.19135 Y-0.08178
G01 X0.19244 Y-0.08230
G01 X0.19340 Y-0.08303
G01 X0.19419 Y-0.08394
G01 X0.19479 Y-0.08499
G01 X0.19522 Y-0.08654
G01 X0.19526 Y-0.08775
G01 X0.19506 Y-0.08894
G01 X0.19461 Y-0.09006
G01 X0.19340 Y-0.09166
G01 X0.19172 Y-0.09276
G01 X0.18977 Y-0.09324
G01 X0.18514 Y-0.09325
G01 X0.18162 Y-0.09501
G01 X0.18016 Y-0.09647
G01 X0.17840 Y-0.09999
G01 X0.17840 Y-0.10650
G01 X0.20034 Y-0.10650
G01 X0.20034 Y-0.09859
G01 X0.20066 Y-0.09667
G01 X0.20416 Y-0.08967
G01 X0.20769 Y-0.08598
G01 X0.20922 Y-0.08487
G01 X0.21594 Y-0.08164
G01 X0.21749 Y-0.08144
G01 X0.22632 Y-0.08145
G01 X0.22821 Y-0.08190
G01 X0.23485 Y-0.08526
G01 X0.23573 Y-0.08598
G01 X0.23926 Y-0.08967
G01 X0.24246 Y-0.09595
G01 X0.24296 Y-0.09743
G01 X0.24308 Y-0.09859
G01 X0.24308 Y-0.10650
G01 X0.29326 Y-0.10651
G01 X0.29566 Y-0.10670
G01 X0.29802 Y-0.10719
G01 X0.30103 Y-0.10828
G01 X0.30384 Y-0.10985
G01 X0.30634 Y-0.11185
G01 X0.30825 Y-0.11392
G01 X0.31004 Y-0.11658
G01 X0.31123 Y-0.11912
G01 X0.31213 Y-0.12220
G01 X0.31252 Y-0.12539
G01 X0.31234 Y-0.12899
G01 X0.31195 Y-0.13096
G01 X0.31137 Y-0.13288
G01 X0.31059 Y-0.13473
G01 X0.30963 Y-0.13649
G01 X0.30747 Y-0.13938
G01 X0.30481 Y-0.14183
G01 X0.30176 Y-0.14375
G01 X0.29840 Y-0.14508
G01 X0.29645 Y-0.14554
G01 X0.29446 Y-0.14581
G01 X0.07445 Y-0.14588
G01 X0.07445 Y-0.34460
G01 X0.22143 Y-0.34460
G01 X0.22383 Y-0.34475
G01 X0.22736 Y-0.34551
G01 X0.22924 Y-0.34621
G01 X0.23104 Y-0.34710
G01 X0.23401 Y-0.34915
G01 X0.23656 Y-0.35170
G01 X0.23861 Y-0.35468
G01 X0.24007 Y-0.35797
G01 X0.24091 Y-0.36148
G01 X0.24110 Y-0.36509
G01 X0.24070 Y-0.36827
G01 X0.23965 Y-0.37173
G01 X0.23799 Y-0.37493
G01 X0.23577 Y-0.37777
G01 X0.23338 Y-0.37992
G01 X0.23033 Y-0.38184
G01 X0.22697 Y-0.38317
G01 X0.22383 Y-0.38382
G01 X0.22143 Y-0.38397
G01 X0.07445 Y-0.38397
G01 X0.07438 Y-0.62779
G01 X0.07376 Y-0.63135
G01 X0.07250 Y-0.63473
G01 X0.07087 Y-0.63750
G01 X0.06854 Y-0.64025
G01 X0.06574 Y-0.64253
G01 X0.06257 Y-0.64426
G01 X0.05914 Y-0.64538
G01 X0.05556 Y-0.64586
G01 X0.05356 Y-0.64584
G01 X0.05156 Y-0.64561
G01 X0.04960 Y-0.64519
G01 X0.04769 Y-0.64456
G01 X0.04446 Y-0.64296
G01 X0.04280 Y-0.64183
G01 X0.04127 Y-0.64053
G01 X0.03988 Y-0.63908
G01 X0.03865 Y-0.63750
G01 X0.03685 Y-0.63437
G01 X0.03566 Y-0.63096
G01 X0.03528 Y-0.62899
G01 X0.03509 Y-0.62699
G04 P0 ( dwell for no time -- G64 should not smooth over this point )
G00 Z0.08000 ( retract )

G00 X0.46368 Y-0.62739 ( rapid move to begin. )
G01 F180.00000
( Mill infeed pass 1/1 )
G01 Z-0.04000
G04 P0 ( dwell for no time -- G64 should not smooth over this point )
G01 F360.00000
G01 X0.46368 Y-0.62739
G01 X0.46371 Y-0.29125
G01 X0.46406 Y-0.28887
G01 X0.46482 Y-0.28617
G01 X0.46577 Y-0.28396
G01 X0.46699 Y-0.28188
G01 X0.46846 Y-0.27997
G01 X0.47014 Y-0.27825
G01 X0.47235 Y-0.27652
G01 X0.47443 Y-0.27530
G01 X0.47664 Y-0.27434
G01 X0.47935 Y-0.27358
G01 X0.48173 Y-0.27324
G01 X0.48413 Y-0.27319
G01 X0.48693 Y-0.27350
G01 X0.48926 Y-0.27409
G01 X0.49187 Y-0.27512
G01 X0.49397 Y-0.27630
G01 X0.49561 Y-0.27747
G01 X0.49711 Y-0.27880
G01 X0.49944 Y-0.28155
G01 X0.50051 Y-0.28325
G01 X0.50140 Y-0.28505
G01 X0.50252 Y-0.28848
G01 X0.50287 Y-0.29045
G01 X0.50301 Y-0.29246
G01 X0.50302 Y-0.31676
G01 X0.51731 Y-0.30247
G01 X0.51881 Y-0.30117
G01 X0.52076 Y-0.29982
G01 X0.57012 Y-0.27508
G01 X0.57233 Y-0.27419
G01 X0.57502 Y-0.27349
G01 X0.57857 Y-0.27317
G01 X0.62619 Y-0.27317
G01 X0.62859 Y-0.27332
G01 X0.63096 Y-0.27376
G01 X0.63363 Y-0.27463
G01 X0.63649 Y-0.27608
G01 X0.63908 Y-0.27798
G01 X0.64133 Y-0.28027
G01 X0.64317 Y-0.28290
G01 X0.64456 Y-0.28579
G01 X0.64547 Y-0.28887
G01 X0.64584 Y-0.29165
G01 X0.64577 Y-0.29486
G01 X0.64529 Y-0.29763
G01 X0.64441 Y-0.30030
G01 X0.64296 Y-0.30316
G01 X0.64107 Y-0.30575
G01 X0.63877 Y-0.30799
G01 X0.63649 Y-0.30963
G01 X0.63363 Y-0.31108
G01 X0.63018 Y-0.31213
G01 X0.62659 Y-0.31254
G01 X0.58322 Y-0.31254
G01 X0.54261 Y-0.33284
G01 X0.52332 Y-0.35214
G01 X0.50302 Y-0.39274
G01 X0.50295 Y-0.62779
G01 X0.50233 Y-0.63135
G01 X0.50107 Y-0.63473
G01 X0.49944 Y-0.63750
G01 X0.49711 Y-0.64025
G01 X0.49431 Y-0.64253
G01 X0.49114 Y-0.64426
G01 X0.48810 Y-0.64529
G01 X0.48454 Y-0.64584
G01 X0.48253 Y-0.64586
G01 X0.48053 Y-0.64567
G01 X0.47856 Y-0.64529
G01 X0.47664 Y-0.64470
G01 X0.47479 Y-0.64392
G01 X0.47303 Y-0.64296
G01 X0.47014 Y-0.64080
G01 X0.46770 Y-0.63815
G01 X0.46656 Y-0.63649
G01 X0.46560 Y-0.63473
G01 X0.46434 Y-0.63135
G01 X0.46391 Y-0.62939
G01 X0.46368 Y-0.62739
G04 P0 ( dwell for no time -- G64 should not smooth over this point )
G00 Z0.08000 ( retract )

G00 X0.74936 Y-0.53095 ( rapid move to begin. )
G01 F180.00000
( Mill infeed pass 1/1 )
G01 Z-0.04000
G04 P0 ( dwell for no time -- G64 should not smooth over this point )
G01 F360.00000
G01 X0.74936 Y-0.53095
G01 X0.74936 Y-0.38810
G01 X0.74950 Y-0.38572
G01 X0.75014 Y-0.38261
G01 X0.75127 Y-0.37965
G01 X0.77543 Y-0.33132
G01 X0.77689 Y-0.32897
G01 X0.77894 Y-0.32656
G01 X0.80303 Y-0.30247
G01 X0.80484 Y-0.30093
G01 X0.80682 Y-0.29962
G01 X0.85693 Y-0.27460
G01 X0.85957 Y-0.27375
G01 X0.86270 Y-0.27324
G01 X0.87436 Y-0.27317
G01 X0.88703 Y-0.25703
G01 X0.87443 Y-0.24099
G01 X0.87379 Y-0.23997
G01 X0.87321 Y-0.23805
G01 X0.87332 Y-0.23605
G01 X0.87370 Y-0.23490
G01 X0.87431 Y-0.23386
G01 X0.87575 Y-0.23246
G01 X0.87758 Y-0.23163
G01 X0.87918 Y-0.23144
G01 X0.88115 Y-0.23181
G01 X0.88288 Y-0.23283
G01 X0.88372 Y-0.23370
G01 X0.89454 Y-0.24747
G01 X0.90537 Y-0.23370
G01 X0.90621 Y-0.23283
G01 X0.90757 Y-0.23197
G01 X0.90911 Y-0.23151
G01 X0.91072 Y-0.23148
G01 X0.91264 Y-0.23206
G01 X0.91426 Y-0.23324
G01 X0.91500 Y-0.23419
G01 X0.91554 Y-0.23527
G01 X0.91592 Y-0.23724
G01 X0.91581 Y-0.23845
G01 X0.91547 Y-0.23961
G01 X0.91465 Y-0.24099
G01 X0.90205 Y-0.25703
G01 X0.91473 Y-0.27317
G01 X0.93651 Y-0.27319
G01 X0.93966 Y-0.27357
G01 X0.94233 Y-0.27432
G01 X0.94452 Y-0.27525
G01 X0.99214 Y-0.29906
G01 X0.99386 Y-0.30003
G01 X0.99579 Y-0.30142
G01 X1.02106 Y-0.32656
G01 X1.02356 Y-0.32962
G01 X1.02475 Y-0.33167
G01 X1.04856 Y-0.37929
G01 X1.04974 Y-0.38223
G01 X1.05038 Y-0.38493
G01 X1.05064 Y-0.38810
G01 X1.05064 Y-0.53095
G01 X1.05049 Y-0.53333
G01 X1.04986 Y-0.53643
G01 X1.04873 Y-0.53940
G01 X1.02457 Y-0.58773
G01 X1.02311 Y-0.59008
G01 X1.02134 Y-0.59221
G01 X0.99725 Y-0.61630
G01 X0.99452 Y-0.61858
G01 X0.99214 Y-0.61999
G01 X0.94452 Y-0.64380
G01 X0.94233 Y-0.64473
G01 X0.93887 Y-0.64562
G01 X0.93571 Y-0.64587
G01 X0.86428 Y-0.64587
G01 X0.86073 Y-0.64555
G01 X0.85842 Y-0.64498
G01 X0.85584 Y-0.64397
G01 X0.80786 Y-0.61999
G01 X0.80548 Y-0.61858
G01 X0.80303 Y-0.61658
G01 X0.77866 Y-0.59221
G01 X0.77644 Y-0.58943
G01 X0.77525 Y-0.58737
G01 X0.75064 Y-0.53794
G01 X0.74969 Y-0.53450
G01 X0.74936 Y-0.53095
G04 P0 ( dwell for no time -- G64 should not smooth over this point )
G00 Z0.08000 ( retract )

G00 X0.78873 Y-0.52630 ( rapid move to begin. )
G01 F180.00000
( Mill infeed pass 1/1 )
G01 Z-0.04000
G04 P0 ( dwell for no time -- G64 should not smooth over this point )
G01 F360.00000
G01 X0.78873 Y-0.52630
G01 X0.80903 Y-0.56691
G01 X0.82833 Y-0.58620
G01 X0.86893 Y-0.60650
G01 X0.93107 Y-0.60650
G01 X0.97167 Y-0.58620
G01 X0.99096 Y-0.56691
G01 X1.01127 Y-0.52630
G01 X1.01127 Y-0.39274
G01 X0.99096 Y-0.35214
G01 X0.97167 Y-0.33284
G01 X0.93107 Y-0.31254
G01 X0.86893 Y-0.31254
G01 X0.82833 Y-0.33284
G01 X0.80903 Y-0.35214
G01 X0.78873 Y-0.39274
G01 X0.78873 Y-0.52630
G01 X0.88820 Y-0.45060
G01 X0.88857 Y-0.45298
G01 X0.88941 Y-0.45523
G01 X0.89044 Y-0.45694
G01 X0.89205 Y-0.45873
G01 X0.89364 Y-0.45995
G01 X0.89578 Y-0.46103
G01 X0.89810 Y-0.46166
G01 X0.90050 Y-0.46180
G01 X0.90288 Y-0.46145
G01 X0.90514 Y-0.46064
G01 X0.90686 Y-0.45961
G01 X0.90866 Y-0.45803
G01 X0.91011 Y-0.45611
G01 X0.91114 Y-0.45393
G01 X0.91164 Y-0.45200
G01 X0.91180 Y-0.44960
G01 X0.91148 Y-0.44722
G01 X0.91068 Y-0.44495
G01 X0.90944 Y-0.44290
G01 X0.90780 Y-0.44113
G01 X0.90585 Y-0.43974
G01 X0.90403 Y-0.43890
G01 X0.90170 Y-0.43831
G01 X0.89930 Y-0.43821
G01 X0.89731 Y-0.43850
G01 X0.89504 Y-0.43928
G01 X0.89298 Y-0.44050
G01 X0.89120 Y-0.44212
G01 X0.88979 Y-0.44406
G01 X0.88893 Y-0.44588
G01 X0.88833 Y-0.44820
G01 X0.88820 Y-0.45060
G04 P0 ( dwell for no time -- G64 should not smooth over this point )
G00 Z0.08000 ( retract )

G00 X0.88937 Y-0.27317 ( rapid move to begin. )
G01 F180.00000
( Mill infeed pass 1/1 )
G01 Z-0.04000
G04 P0 ( dwell for no time -- G64 should not smooth over this point )
G01 F360.00000
G01 X0.88937 Y-0.27317
G01 X0.89454 Y-0.26659
G01 X0.89972 Y-0.27317
G01 X0.88937 Y-0.27317
G04 P0 ( dwell for no time -- G64 should not smooth over this point )
G00 Z0.08000 ( retract )

G00 X0.99508 Y-0.15000 ( rapid move to begin. )
G01 F180.00000
( Mill infeed pass 1/1 )
G01 Z-0.04000
G04 P0 ( dwell for no time -- G64 should not smooth over this point )
G01 F360.00000
G01 X0.99508 Y-0.15000
G01 X0.99514 Y-0.14919
G01 X0.99549 Y-0.14802
G01 X0.99638 Y-0.14667
G01 X0.99766 Y-0.14567
G01 X0.99919 Y-0.14514
G01 X1.00081 Y-0.14514
G01 X1.00234 Y-0.14567
G01 X1.00362 Y-0.14667
G01 X1.00450 Y-0.14802
G01 X1.00490 Y-0.14959
G01 X1.00490 Y-0.20041
G01 X1.00433 Y-0.20234
G01 X1.00333 Y-0.20362
G01 X1.00198 Y-0.20451
G01 X1.00040 Y-0.20490
G01 X0.99879 Y-0.20477
G01 X0.99766 Y-0.20433
G01 X0.99698 Y-0.20388
G01 X0.99612 Y-0.20302
G01 X0.99567 Y-0.20234
G01 X0.99523 Y-0.20121
G01 X0.99509 Y-0.20041
G01 X0.99508 Y-0.15000
G04 P0 ( dwell for no time -- G64 should not smooth over this point )
G00 Z0.08000 ( retract )

G00 X1.05318 Y-0.21987 ( rapid move to begin. )
G01 F180.00000
( Mill infeed pass 1/1 )
G01 Z-0.04000
G04 P0 ( dwell for no time -- G64 should not smooth over this point )
G01 F360.00000
G01 X1.05318 Y-0.21987
G01 X1.05343 Y-0.21868
G01 X1.05412 Y-0.21723
G01 X1.05488 Y-0.21630
G01 X1.05814 Y-0.21308
G01 X1.05933 Y-0.21233
G01 X1.06047 Y-0.21192
G01 X1.06167 Y-0.21176
G01 X1.06287 Y-0.21184
G01 X1.06422 Y-0.21224
G01 X1.06527 Y-0.21283
G01 X1.06913 Y-0.21659
G01 X1.06983 Y-0.21758
G01 X1.07042 Y-0.21907
G01 X1.07058 Y-0.22027
G01 X1.07050 Y-0.22148
G01 X1.07001 Y-0.22301
G01 X1.06938 Y-0.22404
G01 X1.06543 Y-0.22799
G01 X1.06438 Y-0.22863
G01 X1.06322 Y-0.22903
G01 X1.06207 Y-0.22919
G01 X1.06086 Y-0.22910
G01 X1.05970 Y-0.22878
G01 X1.05863 Y-0.22822
G01 X1.05488 Y-0.22465
G01 X1.05372 Y-0.22301
G01 X1.05323 Y-0.22148
G01 X1.05318 Y-0.21987
G01 X1.05596 Y-0.23735
G01 X1.05630 Y-0.23537
G01 X1.05729 Y-0.23362
G01 X1.05880 Y-0.23230
G01 X1.06066 Y-0.23156
G01 X1.06267 Y-0.23149
G01 X1.06422 Y-0.23193
G01 X1.06590 Y-0.23303
G01 X1.06711 Y-0.23463
G01 X1.06772 Y-0.23654
G01 X1.06772 Y-0.27752
G01 X1.06711 Y-0.27943
G01 X1.06590 Y-0.28103
G01 X1.06422 Y-0.28213
G01 X1.06267 Y-0.28257
G01 X1.06146 Y-0.28261
G01 X1.06027 Y-0.28240
G01 X1.05846 Y-0.28154
G01 X1.05755 Y-0.28075
G01 X1.05682 Y-0.27978
G01 X1.05630 Y-0.27869
G01 X1.05602 Y-0.27752
G01 X1.05596 Y-0.23735
G04 P0 ( dwell for no time -- G64 should not smooth over this point )
G00 Z0.08000 ( retract )

G00 X1.08408 Y-0.27671 ( rapid move to begin. )
G01 F180.00000
( Mill infeed pass 1/1 )
G01 Z-0.04000
G04 P0 ( dwell for no time -- G64 should not smooth over this point )
G01 F360.00000
G01 X1.08408 Y-0.27671
G01 X1.08408 Y-0.23735
G01 X1.08442 Y-0.23537
G01 X1.08516 Y-0.23394
G01 X1.08626 Y-0.23276
G01 X1.08763 Y-0.23193
G01 X1.08918 Y-0.23149
G01 X1.09039 Y-0.23145
G01 X1.09158 Y-0.23166
G01 X1.09270 Y-0.23210
G01 X1.09396 Y-0.23297
G01 X1.09614 Y-0.23190
G01 X1.09764 Y-0.23149
G01 X1.10725 Y-0.23145
G01 X1.10915 Y-0.23190
G01 X1.11513 Y-0.23487
G01 X1.11651 Y-0.23583
G01 X1.11734 Y-0.23679
G01 X1.12074 Y-0.24349
G01 X1.12109 Y-0.24461
G01 X1.12120 Y-0.24578
G01 X1.12119 Y-0.27712
G01 X1.12086 Y-0.27869
G01 X1.12034 Y-0.27978
G01 X1.11961 Y-0.28075
G01 X1.11870 Y-0.28154
G01 X1.11765 Y-0.28213
G01 X1.11610 Y-0.28257
G01 X1.11449 Y-0.28257
G01 X1.11332 Y-0.28228
G01 X1.11223 Y-0.28176
G01 X1.11127 Y-0.28103
G01 X1.11047 Y-0.28012
G01 X1.10973 Y-0.27869
G01 X1.10939 Y-0.27671
G01 X1.10939 Y-0.24718
G01 X1.10808 Y-0.24456
G01 X1.10547 Y-0.24325
G01 X1.09982 Y-0.24325
G01 X1.09630 Y-0.24501
G01 X1.09589 Y-0.24541
G01 X1.09589 Y-0.27671
G01 X1.09567 Y-0.27831
G01 X1.09523 Y-0.27943
G01 X1.09457 Y-0.28044
G01 X1.09339 Y-0.28154
G01 X1.09197 Y-0.28228
G01 X1.09039 Y-0.28261
G01 X1.08918 Y-0.28257
G01 X1.08763 Y-0.28213
G01 X1.08626 Y-0.28130
G01 X1.08516 Y-0.28012
G01 X1.08442 Y-0.27869
G01 X1.08408 Y-0.27671
G04 P0 ( dwell for no time -- G64 should not smooth over this point )
G00 Z0.08000 ( retract )

G00 X0.99691 Y-0.23445 ( rapid move to begin. )
G01 F180.00000
( Mill infeed pass 1/1 )
G01 Z-0.04000
G04 P0 ( dwell for no time -- G64 should not smooth over this point )
G01 F360.00000
G01 X0.99691 Y-0.23445
G01 X0.99728 Y-0.23247
G01 X0.99828 Y-0.23074
G01 X0.99982 Y-0.22944
G01 X1.00494 Y-0.22687
G01 X1.00947 Y-0.22233
G01 X1.01477 Y-0.21438
G01 X1.01555 Y-0.21344
G01 X1.01686 Y-0.21248
G01 X1.01798 Y-0.21200
G01 X1.01959 Y-0.21175
G01 X1.02120 Y-0.21195
G01 X1.02270 Y-0.21258
G01 X1.02397 Y-0.21360
G01 X1.02491 Y-0.21492
G01 X1.02546 Y-0.21645
G01 X1.02559 Y-0.21766
G01 X1.02559 Y-0.27081
G01 X1.03736 Y-0.27086
G01 X1.03891 Y-0.27130
G01 X1.04059 Y-0.27240
G01 X1.04138 Y-0.27331
G01 X1.04212 Y-0.27474
G01 X1.04245 Y-0.27631
G01 X1.04234 Y-0.27792
G01 X1.04197 Y-0.27907
G01 X1.04114 Y-0.28044
G01 X1.03996 Y-0.28154
G01 X1.03853 Y-0.28228
G01 X1.03656 Y-0.28262
G01 X1.00241 Y-0.28261
G01 X1.00083 Y-0.28228
G01 X0.99941 Y-0.28154
G01 X0.99799 Y-0.28012
G01 X0.99725 Y-0.27869
G01 X0.99696 Y-0.27752
G01 X0.99692 Y-0.27631
G01 X0.99740 Y-0.27436
G01 X0.99850 Y-0.27268
G01 X1.00009 Y-0.27147
G01 X1.00122 Y-0.27103
G01 X1.00241 Y-0.27082
G01 X1.01378 Y-0.27081
G01 X1.01378 Y-0.23473
G01 X1.01233 Y-0.23616
G01 X1.01108 Y-0.23700
G01 X1.00509 Y-0.23998
G01 X1.00393 Y-0.24033
G01 X1.00273 Y-0.24044
G01 X1.00153 Y-0.24030
G01 X1.00038 Y-0.23991
G01 X0.99872 Y-0.23879
G01 X0.99794 Y-0.23787
G01 X0.99736 Y-0.23681
G01 X0.99701 Y-0.23565
G01 X0.99691 Y-0.23445
G04 P0 ( dwell for no time -- G64 should not smooth over this point )
G00 Z0.08000 ( retract )

G00 X0.92662 Y-0.24538 ( rapid move to begin. )
G01 F180.00000
( Mill infeed pass 1/1 )
G01 Z-0.04000
G04 P0 ( dwell for no time -- G64 should not smooth over this point )
G01 F360.00000
G01 X0.92662 Y-0.24538
G01 X0.92682 Y-0.24419
G01 X0.92768 Y-0.24238
G01 X0.92848 Y-0.24147
G01 X0.92944 Y-0.24074
G01 X0.93053 Y-0.24022
G01 X0.93170 Y-0.23993
G01 X0.97750 Y-0.23988
G01 X0.97948 Y-0.24022
G01 X0.98123 Y-0.24120
G01 X0.98255 Y-0.24271
G01 X0.98328 Y-0.24458
G01 X0.98335 Y-0.24658
G01 X0.98292 Y-0.24813
G01 X0.98182 Y-0.24981
G01 X0.98022 Y-0.25102
G01 X0.97831 Y-0.25163
G01 X0.93210 Y-0.25167
G01 X0.93015 Y-0.25120
G01 X0.92848 Y-0.25010
G01 X0.92726 Y-0.24850
G01 X0.92666 Y-0.24658
G01 X0.92662 Y-0.24538
G01 X0.92666 Y-0.26346
G01 X0.92726 Y-0.26537
G01 X0.92848 Y-0.26697
G01 X0.93015 Y-0.26807
G01 X0.93210 Y-0.26854
G01 X0.97831 Y-0.26850
G01 X0.98022 Y-0.26790
G01 X0.98182 Y-0.26668
G01 X0.98292 Y-0.26501
G01 X0.98335 Y-0.26346
G01 X0.98328 Y-0.26145
G01 X0.98255 Y-0.25959
G01 X0.98123 Y-0.25807
G01 X0.97948 Y-0.25709
G01 X0.97750 Y-0.25675
G01 X0.93170 Y-0.25680
G01 X0.93053 Y-0.25709
G01 X0.92944 Y-0.25761
G01 X0.92848 Y-0.25834
G01 X0.92768 Y-0.25925
G01 X0.92682 Y-0.26106
G01 X0.92662 Y-0.26225
G04 P0 ( dwell for no time -- G64 should not smooth over this point )
G00 Z0.08000 ( retract )

G00 X1.22555 Y-0.62619 ( rapid move to begin. )
G01 F180.00000
( Mill infeed pass 1/1 )
G01 Z-0.04000
G04 P0 ( dwell for no time -- G64 should not smooth over this point )
G01 F360.00000
G01 X1.22555 Y-0.62619
G01 X1.22555 Y-0.29286
G01 X1.22565 Y-0.29085
G01 X1.22635 Y-0.28731
G01 X1.22750 Y-0.28431
G01 X1.22913 Y-0.28155
G01 X1.23118 Y-0.27908
G01 X1.23393 Y-0.27674
G01 X1.23670 Y-0.27512
G01 X1.23969 Y-0.27397
G01 X1.24323 Y-0.27327
G01 X1.24564 Y-0.27318
G01 X1.24804 Y-0.27337
G01 X1.25040 Y-0.27386
G01 X1.25230 Y-0.27448
G01 X1.25414 Y-0.27530
G01 X1.25622 Y-0.27652
G01 X1.25782 Y-0.27772
G01 X1.25958 Y-0.27937
G01 X1.26087 Y-0.28090
G01 X1.26222 Y-0.28290
G01 X1.26331 Y-0.28505
G01 X1.26401 Y-0.28693
G01 X1.26451 Y-0.28887
G01 X1.26482 Y-0.29085
G01 X1.26492 Y-0.29672
G01 X1.30822 Y-0.27508
G01 X1.31043 Y-0.27419
G01 X1.31311 Y-0.27349
G01 X1.31667 Y-0.27317
G01 X1.38928 Y-0.27321
G01 X1.39281 Y-0.27375
G01 X1.39654 Y-0.27508
G01 X1.44487 Y-0.29924
G01 X1.44690 Y-0.30047
G01 X1.44877 Y-0.30193
G01 X1.45045 Y-0.30361
G01 X1.45191 Y-0.30548
G01 X1.45332 Y-0.30786
G01 X1.47730 Y-0.35584
G01 X1.47863 Y-0.35957
G01 X1.47917 Y-0.36310
G01 X1.47920 Y-0.62659
G01 X1.47901 Y-0.62899
G01 X1.47852 Y-0.63135
G01 X1.47789 Y-0.63326
G01 X1.47690 Y-0.63545
G01 X1.47564 Y-0.63750
G01 X1.47413 Y-0.63938
G01 X1.47271 Y-0.64080
G01 X1.47083 Y-0.64230
G01 X1.46878 Y-0.64356
G01 X1.46659 Y-0.64456
G01 X1.46390 Y-0.64538
G01 X1.46153 Y-0.64577
G01 X1.45912 Y-0.64587
G01 X1.45672 Y-0.64567
G01 X1.45398 Y-0.64508
G01 X1.45171 Y-0.64426
G01 X1.44956 Y-0.64317
G01 X1.44757 Y-0.64183
G01 X1.44575 Y-0.64025
G01 X1.44389 Y-0.63815
G01 X1.44234 Y-0.63580
G01 X1.44130 Y-0.63363
G01 X1.44053 Y-0.63135
G01 X1.43999 Y-0.62859
G01 X1.43984 Y-0.62619
G01 X1.43984 Y-0.36893
G01 X1.42104 Y-0.33134
G01 X1.38345 Y-0.31254
G01 X1.32131 Y-0.31254
G01 X1.28071 Y-0.33284
G01 X1.26492 Y-0.34863
G01 X1.26492 Y-0.62619
G01 X1.26477 Y-0.62859
G01 X1.26412 Y-0.63174
G01 X1.26314 Y-0.63437
G01 X1.26158 Y-0.63717
G01 X1.25985 Y-0.63938
G01 X1.25782 Y-0.64133
G01 X1.25554 Y-0.64296
G01 X1.25268 Y-0.64441
G01 X1.25001 Y-0.64529
G01 X1.24724 Y-0.64577
G01 X1.24403 Y-0.64584
G01 X1.24125 Y-0.64547
G01 X1.23817 Y-0.64456
G01 X1.23563 Y-0.64337
G01 X1.23328 Y-0.64183
G01 X1.23118 Y-0.63997
G01 X1.22913 Y-0.63750
G01 X1.22768 Y-0.63509
G01 X1.22647 Y-0.63212
G01 X1.22575 Y-0.62899
G01 X1.22555 Y-0.62619
G04 P0 ( dwell for no time -- G64 should not smooth over this point )
G00 Z0.08000 ( retract )

G00 X1.63820 Y-0.80060 ( rapid move to begin. )
G01 F180.00000
( Mill infeed pass 1/1 )
G01 Z-0.04000
G04 P0 ( dwell for no time -- G64 should not smooth over this point )
G01 F360.00000
G01 X1.63820 Y-0.80060
G01 X1.63833 Y-0.79820
G01 X1.63893 Y-0.79588
G01 X1.63979 Y-0.79407
G01 X1.64120 Y-0.79212
G01 X1.64298 Y-0.79050
G01 X1.64504 Y-0.78928
G01 X1.64732 Y-0.78850
G01 X1.64930 Y-0.78821
G01 X1.65170 Y-0.78831
G01 X1.65403 Y-0.78890
G01 X1.65585 Y-0.78974
G01 X1.65780 Y-0.79113
G01 X1.65944 Y-0.79290
G01 X1.66068 Y-0.79495
G01 X1.66148 Y-0.79722
G01 X1.66180 Y-0.79960
G01 X1.66170 Y-0.80160
G01 X1.66114 Y-0.80393
G01 X1.66011 Y-0.80611
G01 X1.65893 Y-0.80773
G01 X1.65718 Y-0.80937
G01 X1.65514 Y-0.81063
G01 X1.65327 Y-0.81135
G01 X1.65090 Y-0.81178
G01 X1.64850 Y-0.81171
G01 X1.64616 Y-0.81117
G01 X1.64433 Y-0.81036
G01 X1.64235 Y-0.80900
G01 X1.64068 Y-0.80726
G01 X1.63941 Y-0.80523
G01 X1.63857 Y-0.80298
G01 X1.63820 Y-0.80060
G01 X1.63820 Y-0.55060
G01 X1.63833 Y-0.54820
G01 X1.63893 Y-0.54588
G01 X1.63979 Y-0.54407
G01 X1.64120 Y-0.54212
G01 X1.64298 Y-0.54050
G01 X1.64504 Y-0.53928
G01 X1.64732 Y-0.53850
G01 X1.64930 Y-0.53821
G01 X1.65170 Y-0.53831
G01 X1.65403 Y-0.53890
G01 X1.65585 Y-0.53974
G01 X1.65780 Y-0.54113
G01 X1.65944 Y-0.54290
G01 X1.66068 Y-0.54495
G01 X1.66148 Y-0.54722
G01 X1.66180 Y-0.54960
G01 X1.66164 Y-0.55200
G01 X1.66114 Y-0.55393
G01 X1.66011 Y-0.55611
G01 X1.65866 Y-0.55803
G01 X1.65686 Y-0.55961
G01 X1.65514 Y-0.56063
G01 X1.65288 Y-0.56145
G01 X1.65050 Y-0.56180
G01 X1.64810 Y-0.56166
G01 X1.64578 Y-0.56103
G01 X1.64364 Y-0.55995
G01 X1.64205 Y-0.55873
G01 X1.64044 Y-0.55694
G01 X1.63941 Y-0.55523
G01 X1.63857 Y-0.55298
G01 X1.60651 Y-0.29246
G01 X1.60684 Y-0.28926
G01 X1.60754 Y-0.28654
G01 X1.60863 Y-0.28396
G01 X1.61031 Y-0.28122
G01 X1.61241 Y-0.27880
G01 X1.61455 Y-0.27698
G01 X1.61693 Y-0.27548
G01 X1.61950 Y-0.27434
G01 X1.62220 Y-0.27358
G01 X1.62499 Y-0.27321
G01 X1.67793 Y-0.27317
G01 X1.67793 Y-0.12619
G01 X1.67820 Y-0.12299
G01 X1.67873 Y-0.12064
G01 X1.67939 Y-0.11875
G01 X1.68044 Y-0.11658
G01 X1.68151 Y-0.11488
G01 X1.68301 Y-0.11300
G01 X1.68443 Y-0.11158
G01 X1.68631 Y-0.11008
G01 X1.68801 Y-0.10901
G01 X1.69018 Y-0.10797
G01 X1.69207 Y-0.10730
G01 X1.69402 Y-0.10683
G01 X1.69642 Y-0.10654
G01 X1.69842 Y-0.10652
G01 X1.70042 Y-0.10670
G01 X1.70278 Y-0.10719
G01 X1.70469 Y-0.10782
G01 X1.70723 Y-0.10901
G01 X1.70958 Y-0.11055
G01 X1.71139 Y-0.11213
G01 X1.71326 Y-0.11423
G01 X1.71480 Y-0.11658
G01 X1.71599 Y-0.11912
G01 X1.71681 Y-0.12181
G01 X1.71724 Y-0.12459
G01 X1.71730 Y-0.27317
G01 X1.81667 Y-0.27317
G01 X1.81907 Y-0.27332
G01 X1.82221 Y-0.27397
G01 X1.82484 Y-0.27495
G01 X1.82764 Y-0.27652
G01 X1.82986 Y-0.27825
G01 X1.83180 Y-0.28027
G01 X1.83365 Y-0.28290
G01 X1.83504 Y-0.28579
G01 X1.83586 Y-0.28848
G01 X1.83620 Y-0.29045
G01 X1.83635 Y-0.29246
G01 X1.83628 Y-0.29446
G01 X1.83602 Y-0.29645
G01 X1.83504 Y-0.29992
G01 X1.83422 Y-0.30176
G01 X1.83323 Y-0.30350
G01 X1.83206 Y-0.30513
G01 X1.83073 Y-0.30663
G01 X1.82925 Y-0.30799
G01 X1.82764 Y-0.30920
G01 X1.82592 Y-0.31023
G01 X1.82411 Y-0.31108
G01 X1.82065 Y-0.31213
G01 X1.81867 Y-0.31244
G01 X1.81667 Y-0.31254
G01 X1.71730 Y-0.31254
G01 X1.71730 Y-0.55011
G01 X1.73610 Y-0.58771
G01 X1.77369 Y-0.60650
G01 X1.81827 Y-0.60657
G01 X1.82144 Y-0.60709
G01 X1.82411 Y-0.60796
G01 X1.82697 Y-0.60942
G01 X1.82925 Y-0.61105
G01 X1.83073 Y-0.61241
G01 X1.83230 Y-0.61423
G01 X1.83365 Y-0.61623
G01 X1.83474 Y-0.61838
G01 X1.83555 Y-0.62064
G01 X1.83602 Y-0.62260
G01 X1.83631 Y-0.62499
G01 X1.83631 Y-0.62739
G01 X1.83602 Y-0.62978
G01 X1.83544 Y-0.63212
G01 X1.83457 Y-0.63437
G01 X1.83344 Y-0.63649
G01 X1.83230 Y-0.63815
G01 X1.83073 Y-0.63997
G01 X1.82894 Y-0.64158
G01 X1.82697 Y-0.64296
G01 X1.82448 Y-0.64426
G01 X1.82221 Y-0.64508
G01 X1.81986 Y-0.64561
G01 X1.81747 Y-0.64586
G01 X1.76865 Y-0.64587
G01 X1.76667 Y-0.64573
G01 X1.76433 Y-0.64530
G01 X1.76206 Y-0.64459
G01 X1.76024 Y-0.64380
G01 X1.71192 Y-0.61962
G01 X1.70992 Y-0.61835
G01 X1.70779 Y-0.61658
G01 X1.70618 Y-0.61483
G01 X1.70459 Y-0.61257
G01 X1.67984 Y-0.56321
G01 X1.67861 Y-0.55986
G01 X1.67800 Y-0.55635
G01 X1.67793 Y-0.31254
G01 X1.62458 Y-0.31248
G01 X1.62142 Y-0.31195
G01 X1.61875 Y-0.31108
G01 X1.61589 Y-0.30963
G01 X1.61360 Y-0.30799
G01 X1.61158 Y-0.30605
G01 X1.60985 Y-0.30384
G01 X1.60845 Y-0.30140
G01 X1.60730 Y-0.29840
G01 X1.60671 Y-0.29566
G01 X1.60651 Y-0.29246
G04 P0 ( dwell for no time -- G64 should not smooth over this point )
G00 Z0.08000 ( retract )

G00 X1.79510 Y-0.50041 ( rapid move to begin. )
G01 F180.00000
( Mill infeed pass 1/1 )
G01 Z-0.04000
G04 P0 ( dwell for no time -- G64 should not smooth over this point )
G01 F360.00000
G01 X1.79510 Y-0.50041
G01 X1.79523 Y-0.49879
G01 X1.79567 Y-0.49766
G01 X1.79612 Y-0.49698
G01 X1.79698 Y-0.49612
G01 X1.79766 Y-0.49567
G01 X1.79879 Y-0.49523
G01 X1.79959 Y-0.49510
G01 X1.85000 Y-0.49508
G01 X1.85081 Y-0.49515
G01 X1.85198 Y-0.49549
G01 X1.85333 Y-0.49638
G01 X1.85433 Y-0.49766
G01 X1.85485 Y-0.49919
G01 X1.85485 Y-0.50081
G01 X1.85433 Y-0.50234
G01 X1.85333 Y-0.50362
G01 X1.85198 Y-0.50451
G01 X1.85041 Y-0.50490
G01 X1.79959 Y-0.50490
G01 X1.79802 Y-0.50451
G01 X1.79667 Y-0.50362
G01 X1.79567 Y-0.50234
G01 X1.79523 Y-0.50121
G01 X1.79510 Y-0.50041
G01 X1.84348 Y-0.34612
G01 X1.84358 Y-0.34732
G01 X1.84393 Y-0.34848
G01 X1.84475 Y-0.34986
G01 X1.84591 Y-0.35098
G01 X1.84732 Y-0.35174
G01 X1.84889 Y-0.35209
G01 X1.85010 Y-0.35206
G01 X1.85202 Y-0.35148
G01 X1.85830 Y-0.34829
G01 X1.86199 Y-0.34475
G01 X1.86314 Y-0.34314
G01 X1.86900 Y-0.32850
G01 X1.88306 Y-0.28913
G01 X1.88335 Y-0.28796
G01 X1.88335 Y-0.28635
G01 X1.88292 Y-0.28480
G01 X1.88209 Y-0.28343
G01 X1.88058 Y-0.28211
G01 X1.87910 Y-0.28146
G01 X1.87751 Y-0.28124
G01 X1.87592 Y-0.28146
G01 X1.87444 Y-0.28210
G01 X1.87319 Y-0.28311
G01 X1.87246 Y-0.28407
G01 X1.87194 Y-0.28516
G01 X1.86344 Y-0.30896
G01 X1.85494 Y-0.28516
G01 X1.85442 Y-0.28407
G01 X1.85369 Y-0.28311
G01 X1.85209 Y-0.28190
G01 X1.85018 Y-0.28130
G01 X1.84857 Y-0.28130
G01 X1.84665 Y-0.28191
G01 X1.84534 Y-0.28284
G01 X1.84413 Y-0.28444
G01 X1.84353 Y-0.28635
G01 X1.84360 Y-0.28836
G01 X1.85713 Y-0.32640
G01 X1.85278 Y-0.33726
G01 X1.85151 Y-0.33854
G01 X1.84674 Y-0.34092
G01 X1.84572 Y-0.34157
G01 X1.84461 Y-0.34273
G01 X1.84372 Y-0.34453
G01 X1.84348 Y-0.34612
G01 X1.85051 Y-0.42149
G01 X1.85059 Y-0.42028
G01 X1.85092 Y-0.41912
G01 X1.85147 Y-0.41805
G01 X1.85224 Y-0.41711
G01 X1.85352 Y-0.41614
G01 X1.85462 Y-0.41566
G01 X1.85661 Y-0.41538
G01 X1.85781 Y-0.41555
G01 X1.85895 Y-0.41595
G01 X1.86029 Y-0.41684
G01 X1.86272 Y-0.41925
G01 X1.86624 Y-0.42101
G01 X1.87751 Y-0.42101
G01 X1.88103 Y-0.41925
G01 X1.88249 Y-0.41779
G01 X1.88425 Y-0.41427
G01 X1.88425 Y-0.40300
G01 X1.88249 Y-0.39948
G01 X1.88103 Y-0.39802
G01 X1.87751 Y-0.39626
G01 X1.86624 Y-0.39626
G01 X1.86272 Y-0.39802
G01 X1.86029 Y-0.40043
G01 X1.85931 Y-0.40112
G01 X1.85820 Y-0.40160
G01 X1.85702 Y-0.40185
G01 X1.85541 Y-0.40180
G01 X1.85388 Y-0.40131
G01 X1.85254 Y-0.40043
G01 X1.85127 Y-0.39888
G01 X1.85068 Y-0.39739
G01 X1.85053 Y-0.39539
G01 X1.85340 Y-0.36688
G01 X1.85387 Y-0.36537
G01 X1.85447 Y-0.36435
G01 X1.85556 Y-0.36322
G01 X1.85656 Y-0.36259
G01 X1.85805 Y-0.36207
G01 X1.85922 Y-0.36195
G01 X1.88775 Y-0.36196
G01 X1.88932 Y-0.36229
G01 X1.89041 Y-0.36281
G01 X1.89138 Y-0.36354
G01 X1.89217 Y-0.36445
G01 X1.89276 Y-0.36550
G01 X1.89319 Y-0.36705
G01 X1.89319 Y-0.36866
G01 X1.89291 Y-0.36983
G01 X1.89239 Y-0.37093
G01 X1.89166 Y-0.37189
G01 X1.89075 Y-0.37268
G01 X1.88932 Y-0.37342
G01 X1.88735 Y-0.37376
G01 X1.86457 Y-0.37376
G01 X1.86348 Y-0.38461
G01 X1.86485 Y-0.38445
G01 X1.87891 Y-0.38445
G01 X1.88007 Y-0.38456
G01 X1.88155 Y-0.38507
G01 X1.88717 Y-0.38788
G01 X1.88871 Y-0.38899
G01 X1.89224 Y-0.39268
G01 X1.89544 Y-0.39896
G01 X1.89586 Y-0.40005
G01 X1.89606 Y-0.40160
G01 X1.89605 Y-0.41605
G01 X1.89586 Y-0.41721
G01 X1.89544 Y-0.41830
G01 X1.89245 Y-0.42426
G01 X1.89152 Y-0.42546
G01 X1.88783 Y-0.42900
G01 X1.88155 Y-0.43219
G01 X1.88007 Y-0.43270
G01 X1.87891 Y-0.43282
G01 X1.86485 Y-0.43282
G01 X1.86330 Y-0.43261
G01 X1.86221 Y-0.43219
G01 X1.85593 Y-0.42900
G01 X1.85223 Y-0.42546
G01 X1.85126 Y-0.42418
G01 X1.85078 Y-0.42307
G01 X1.85051 Y-0.42149
G01 X1.84348 Y-0.34612
G01 X1.82239 Y-0.42390
G01 X1.82266 Y-0.42231
G01 X1.82335 Y-0.42086
G01 X1.82411 Y-0.41992
G01 X1.82737 Y-0.41671
G01 X1.82856 Y-0.41595
G01 X1.82970 Y-0.41555
G01 X1.83090 Y-0.41538
G01 X1.83211 Y-0.41547
G01 X1.83327 Y-0.41579
G01 X1.83451 Y-0.41646
G01 X1.83837 Y-0.42022
G01 X1.83906 Y-0.42121
G01 X1.83965 Y-0.42270
G01 X1.83982 Y-0.42430
G01 X1.83965 Y-0.42550
G01 X1.83925 Y-0.42664
G01 X1.83862 Y-0.42767
G01 X1.83467 Y-0.43162
G01 X1.83361 Y-0.43226
G01 X1.83245 Y-0.43266
G01 X1.83130 Y-0.43281
G01 X1.83010 Y-0.43273
G01 X1.82893 Y-0.43240
G01 X1.82786 Y-0.43185
G01 X1.82411 Y-0.42828
G01 X1.82296 Y-0.42664
G01 X1.82255 Y-0.42550
G01 X1.82239 Y-0.42390
G04 P0 ( dwell for no time -- G64 should not smooth over this point )
G00 Z0.08000 ( retract )

G00 X1.93768 Y-0.42691 ( rapid move to begin. )
G01 F180.00000
( Mill infeed pass 1/1 )
G01 Z-0.04000
G04 P0 ( dwell for no time -- G64 should not smooth over this point )
G01 F360.00000
G01 X1.93768 Y-0.42691
G01 X1.93802 Y-0.42889
G01 X1.93876 Y-0.43032
G01 X1.93986 Y-0.43149
G01 X1.94124 Y-0.43233
G01 X1.94278 Y-0.43276
G01 X1.94399 Y-0.43280
G01 X1.94556 Y-0.43248
G01 X1.94699 Y-0.43174
G01 X1.94817 Y-0.43064
G01 X1.94883 Y-0.42963
G01 X1.94927 Y-0.42851
G01 X1.94949 Y-0.42691
G01 X1.94949 Y-0.39561
G01 X1.94990 Y-0.39521
G01 X1.95342 Y-0.39345
G01 X1.95907 Y-0.39345
G01 X1.96168 Y-0.39476
G01 X1.96299 Y-0.39737
G01 X1.96299 Y-0.42691
G01 X1.96333 Y-0.42889
G01 X1.96407 Y-0.43032
G01 X1.96487 Y-0.43123
G01 X1.96583 Y-0.43196
G01 X1.96692 Y-0.43248
G01 X1.96809 Y-0.43276
G01 X1.96970 Y-0.43276
G01 X1.97125 Y-0.43233
G01 X1.97230 Y-0.43174
G01 X1.97321 Y-0.43094
G01 X1.97394 Y-0.42998
G01 X1.97446 Y-0.42889
G01 X1.97479 Y-0.42732
G01 X1.97480 Y-0.39598
G01 X1.97469 Y-0.39481
G01 X1.97434 Y-0.39369
G01 X1.97094 Y-0.38699
G01 X1.96979 Y-0.38576
G01 X1.96873 Y-0.38507
G01 X1.96275 Y-0.38210
G01 X1.96085 Y-0.38165
G01 X1.95124 Y-0.38169
G01 X1.94974 Y-0.38210
G01 X1.94756 Y-0.38317
G01 X1.94630 Y-0.38230
G01 X1.94518 Y-0.38185
G01 X1.94399 Y-0.38165
G01 X1.94278 Y-0.38169
G01 X1.94124 Y-0.38212
G01 X1.93986 Y-0.38296
G01 X1.93876 Y-0.38414
G01 X1.93802 Y-0.38556
G01 X1.93768 Y-0.38754
G01 X1.93768 Y-0.42691
G04 P0 ( dwell for no time -- G64 should not smooth over this point )
G00 Z0.08000 ( retract )

G00 X1.90956 Y-0.38754 ( rapid move to begin. )
G01 F180.00000
( Mill infeed pass 1/1 )
G01 Z-0.04000
G04 P0 ( dwell for no time -- G64 should not smooth over this point )
G01 F360.00000
G01 X1.90956 Y-0.38754
G01 X1.90990 Y-0.38556
G01 X1.91088 Y-0.38382
G01 X1.91240 Y-0.38250
G01 X1.91426 Y-0.38176
G01 X1.91627 Y-0.38169
G01 X1.91782 Y-0.38212
G01 X1.91950 Y-0.38323
G01 X1.92071 Y-0.38482
G01 X1.92132 Y-0.38674
G01 X1.92132 Y-0.42772
G01 X1.92088 Y-0.42926
G01 X1.91978 Y-0.43094
G01 X1.91818 Y-0.43216
G01 X1.91627 Y-0.43276
G01 X1.91506 Y-0.43280
G01 X1.91387 Y-0.43260
G01 X1.91206 Y-0.43174
G01 X1.91115 Y-0.43094
G01 X1.91042 Y-0.42998
G01 X1.90990 Y-0.42889
G01 X1.90962 Y-0.42772
G01 X1.90956 Y-0.38754
G01 X1.90678 Y-0.37006
G01 X1.90702 Y-0.36888
G01 X1.90772 Y-0.36743
G01 X1.90848 Y-0.36649
G01 X1.91174 Y-0.36328
G01 X1.91293 Y-0.36252
G01 X1.91407 Y-0.36212
G01 X1.91526 Y-0.36195
G01 X1.91647 Y-0.36204
G01 X1.91782 Y-0.36244
G01 X1.91887 Y-0.36303
G01 X1.92273 Y-0.36679
G01 X1.92342 Y-0.36777
G01 X1.92402 Y-0.36927
G01 X1.92418 Y-0.37047
G01 X1.92410 Y-0.37167
G01 X1.92361 Y-0.37321
G01 X1.92298 Y-0.37424
G01 X1.91903 Y-0.37819
G01 X1.91797 Y-0.37883
G01 X1.91682 Y-0.37923
G01 X1.91567 Y-0.37938
G01 X1.91446 Y-0.37930
G01 X1.91330 Y-0.37897
G01 X1.91223 Y-0.37842
G01 X1.90848 Y-0.37484
G01 X1.90732 Y-0.37321
G01 X1.90683 Y-0.37167
G01 X1.90678 Y-0.37006
G01 X1.89411 Y-0.31205
G01 X1.89431 Y-0.31086
G01 X1.89518 Y-0.30905
G01 X1.89597 Y-0.30814
G01 X1.89693 Y-0.30741
G01 X1.89802 Y-0.30689
G01 X1.89919 Y-0.30661
G01 X1.94499 Y-0.30655
G01 X1.94697 Y-0.30689
G01 X1.94872 Y-0.30788
G01 X1.95004 Y-0.30939
G01 X1.95077 Y-0.31126
G01 X1.95084 Y-0.31326
G01 X1.95024 Y-0.31517
G01 X1.94902 Y-0.31677
G01 X1.94735 Y-0.31787
G01 X1.94580 Y-0.31831
G01 X1.89960 Y-0.31835
G01 X1.89765 Y-0.31787
G01 X1.89597 Y-0.31677
G01 X1.89480 Y-0.31523
G01 X1.89415 Y-0.31326
G01 X1.89411 Y-0.29518
G01 X1.89415 Y-0.29639
G01 X1.89476 Y-0.29830
G01 X1.89597 Y-0.29990
G01 X1.89765 Y-0.30100
G01 X1.89960 Y-0.30147
G01 X1.94580 Y-0.30143
G01 X1.94771 Y-0.30083
G01 X1.94931 Y-0.29961
G01 X1.95041 Y-0.29794
G01 X1.95084 Y-0.29639
G01 X1.95077 Y-0.29438
G01 X1.95004 Y-0.29252
G01 X1.94872 Y-0.29100
G01 X1.94697 Y-0.29002
G01 X1.94499 Y-0.28968
G01 X1.89919 Y-0.28973
G01 X1.89802 Y-0.29002
G01 X1.89693 Y-0.29054
G01 X1.89597 Y-0.29127
G01 X1.89518 Y-0.29218
G01 X1.89431 Y-0.29399
G01 X1.89411 Y-0.29518

G04 P0 ( dwell for no time -- G64 should not smooth over this point )
G00 Z1.000000 ( retract )

M5 ( Spindle off. )
G04 P1.000000
M9 ( Coolant off. )
M2 ( Program end. )

