( pcb2gcode 2.4.0 )
( Software-independent Gcode )

G94 ( Inches per minute feed rate. )
G20 ( Units == INCHES. )

G90 ( Absolute coordinates. )
G00 S800 ( RPM spindle speed. )
G01 F11.81102 ( Feedrate. )


G00 Z0.78740 (Retract to tool change height)
T0
M5      (Spindle stop.)
G04 P1.00000 (Wait for spindle to stop)
(MSG, Change tool bit to mill diameter 0.02362in)
M6      (Tool change.)
M0      (Temporary machine stop.)
M3 ( Spindle on clockwise. )
G04 P1.00000 (Wait for spindle to get up to speed)
G04 P0 ( dwell for no time -- G64 should not smooth over this point )
G00 Z0.03937 ( retract )

G00 X0.81279 Y-0.58052 ( rapid move to begin. )
G01 F5.90551
( Mill infeed pass 1/1 )
G01 Z-0.01024
G04 P0 ( dwell for no time -- G64 should not smooth over this point )
G01 F11.81102
G01 X0.81279 Y-0.58052
G01 X0.81279 Y-0.60413
G01 X0.81180 Y-0.60718
G01 X0.81080 Y-0.60944
G01 X0.80792 Y-0.61443
G01 X0.80647 Y-0.61642
G01 X0.80261 Y-0.62071
G01 X0.80078 Y-0.62236
G01 X0.79612 Y-0.62574
G01 X0.79398 Y-0.62698
G01 X0.78871 Y-0.62932
G01 X0.78636 Y-0.63009
G01 X0.78073 Y-0.63128
G01 X0.77827 Y-0.63154
G01 X0.77251 Y-0.63154
G01 X0.77006 Y-0.63128
G01 X0.76442 Y-0.63009
G01 X0.76207 Y-0.62932
G01 X0.75681 Y-0.62698
G01 X0.75467 Y-0.62574
G01 X0.75202 Y-0.62382
G01 X0.66713 Y-0.62382
G01 X0.66713 Y-0.65531
G01 X0.66690 Y-0.65762
G01 X0.66623 Y-0.65983
G01 X0.66514 Y-0.66188
G01 X0.66367 Y-0.66367
G01 X0.66188 Y-0.66514
G01 X0.65983 Y-0.66623
G01 X0.65762 Y-0.66690
G01 X0.65531 Y-0.66713
G01 X0.58839 Y-0.66713
G01 X0.58608 Y-0.66690
G01 X0.58386 Y-0.66623
G01 X0.58182 Y-0.66514
G01 X0.58003 Y-0.66367
G01 X0.57856 Y-0.66188
G01 X0.57747 Y-0.65983
G01 X0.57680 Y-0.65762
G01 X0.57657 Y-0.65531
G01 X0.57657 Y-0.58839
G01 X0.57680 Y-0.58608
G01 X0.57747 Y-0.58386
G01 X0.57856 Y-0.58182
G01 X0.58003 Y-0.58003
G01 X0.58182 Y-0.57856
G01 X0.58386 Y-0.57747
G01 X0.58608 Y-0.57680
G01 X0.58839 Y-0.57657
G01 X0.62419 Y-0.57657
G01 X0.62588 Y-0.57389
G01 X0.62833 Y-0.57091
G01 X0.62996 Y-0.56927
G01 X0.63295 Y-0.56682
G01 X0.63487 Y-0.56554
G01 X0.63828 Y-0.56372
G01 X0.64041 Y-0.56283
G01 X0.64411 Y-0.56171
G01 X0.64638 Y-0.56126
G01 X0.65138 Y-0.56083
G01 X0.75202 Y-0.56083
G01 X0.75467 Y-0.55890
G01 X0.75681 Y-0.55767
G01 X0.76207 Y-0.55532
G01 X0.76442 Y-0.55456
G01 X0.77006 Y-0.55336
G01 X0.77251 Y-0.55310
G01 X0.77827 Y-0.55310
G01 X0.78073 Y-0.55336
G01 X0.78636 Y-0.55456
G01 X0.78871 Y-0.55532
G01 X0.79398 Y-0.55767
G01 X0.79612 Y-0.55890
G01 X0.80078 Y-0.56229
G01 X0.80261 Y-0.56394
G01 X0.80647 Y-0.56822
G01 X0.80792 Y-0.57022
G01 X0.81080 Y-0.57521
G01 X0.81180 Y-0.57746
G01 X0.81279 Y-0.58052
G01 X0.81379 Y-0.57746
G01 X0.81479 Y-0.57521
G01 X0.81767 Y-0.57022
G01 X0.81912 Y-0.56822
G01 X0.82298 Y-0.56394
G01 X0.82481 Y-0.56229
G01 X0.82947 Y-0.55890
G01 X0.83161 Y-0.55767
G01 X0.83688 Y-0.55532
G01 X0.83922 Y-0.55456
G01 X0.84486 Y-0.55336
G01 X0.84732 Y-0.55310
G01 X0.85308 Y-0.55310
G01 X0.85553 Y-0.55336
G01 X0.86117 Y-0.55456
G01 X0.86352 Y-0.55532
G01 X0.86878 Y-0.55767
G01 X0.87092 Y-0.55890
G01 X0.87558 Y-0.56229
G01 X0.87741 Y-0.56394
G01 X0.88127 Y-0.56822
G01 X0.88272 Y-0.57022
G01 X0.88560 Y-0.57521
G01 X0.88661 Y-0.57746
G01 X0.88839 Y-0.58294
G01 X0.88890 Y-0.58536
G01 X0.88950 Y-0.59109
G01 X0.88950 Y-0.59356
G01 X0.88890 Y-0.59929
G01 X0.88839 Y-0.60170
G01 X0.88661 Y-0.60718
G01 X0.88560 Y-0.60944
G01 X0.88272 Y-0.61443
G01 X0.88169 Y-0.61584
G01 X0.88163 Y-0.70096
G01 X0.88126 Y-0.70480
G01 X0.88080 Y-0.70707
G01 X0.87969 Y-0.71076
G01 X0.87880 Y-0.71290
G01 X0.87698 Y-0.71631
G01 X0.87569 Y-0.71823
G01 X0.87247 Y-0.72207
G01 X0.85042 Y-0.74412
G01 X0.84658 Y-0.74735
G01 X0.84465 Y-0.74863
G01 X0.84125 Y-0.75045
G01 X0.83911 Y-0.75134
G01 X0.83542 Y-0.75246
G01 X0.83315 Y-0.75291
G01 X0.82815 Y-0.75335
G01 X0.65417 Y-0.75335
G01 X0.65302 Y-0.75462
G01 X0.65118 Y-0.75627
G01 X0.64553 Y-0.76039
G01 X0.64339 Y-0.76162
G01 X0.63699 Y-0.76447
G01 X0.63465 Y-0.76523
G01 X0.62780 Y-0.76668
G01 X0.62535 Y-0.76694
G01 X0.61835 Y-0.76694
G01 X0.61590 Y-0.76668
G01 X0.60905 Y-0.76523
G01 X0.60671 Y-0.76447
G01 X0.60031 Y-0.76162
G01 X0.59818 Y-0.76039
G01 X0.59252 Y-0.75627
G01 X0.59068 Y-0.75462
G01 X0.58600 Y-0.74942
G01 X0.58455 Y-0.74743
G01 X0.58105 Y-0.74137
G01 X0.58005 Y-0.73911
G01 X0.57788 Y-0.73246
G01 X0.57737 Y-0.73004
G01 X0.57664 Y-0.72308
G01 X0.57664 Y-0.72062
G01 X0.57737 Y-0.71366
G01 X0.57788 Y-0.71124
G01 X0.58005 Y-0.70459
G01 X0.58105 Y-0.70233
G01 X0.58455 Y-0.69627
G01 X0.58600 Y-0.69428
G01 X0.59068 Y-0.68908
G01 X0.59252 Y-0.68743
G01 X0.59818 Y-0.68331
G01 X0.60031 Y-0.68208
G01 X0.60671 Y-0.67923
G01 X0.60905 Y-0.67847
G01 X0.61590 Y-0.67702
G01 X0.61835 Y-0.67676
G01 X0.62535 Y-0.67676
G01 X0.62780 Y-0.67702
G01 X0.63465 Y-0.67847
G01 X0.63699 Y-0.67923
G01 X0.64339 Y-0.68208
G01 X0.64553 Y-0.68331
G01 X0.65118 Y-0.68743
G01 X0.65302 Y-0.68908
G01 X0.65417 Y-0.69035
G01 X0.81510 Y-0.69035
G01 X0.81870 Y-0.68676
G01 X0.81870 Y-0.61584
G01 X0.81767 Y-0.61443
G01 X0.81479 Y-0.60944
G01 X0.81379 Y-0.60718
G01 X0.81279 Y-0.60413

G04 P0 ( dwell for no time -- G64 should not smooth over this point )
G00 Z0.787402 ( retract )

M5 ( Spindle off. )
G04 P1.000000
M9 ( Coolant off. )
M2 ( Program end. )

