( pcb2gcode 2.5.0 )
( Software-independent Gcode )

G94 ( Inches per minute feed rate. )
G20 ( Units == INCHES. )

G90 ( Absolute coordinates. )
G00 S800 ( RPM spindle speed. )
G01 F11.81102 ( Feedrate. )


G00 Z0.78740 (Retract to tool change height)
T1
M5      (Spindle stop.)
G04 P1.00000 (Wait for spindle to stop)
(MSG, Change tool bit to mill diameter 0.02362in)
M6      (Tool change.)
M0      (Temporary machine stop.)
M3 ( Spindle on clockwise. )
G04 P1.00000 (Wait for spindle to get up to speed)
G04 P0 ( dwell for no time -- G64 should not smooth over this point )
G00 Z0.03937 ( retract )

G00 X0.81279 Y-0.60420 ( rapid move to begin. )
G01 F5.90551
( Mill infeed pass 1/1 )
G01 Z-0.01024
G04 P0 ( dwell for no time -- G64 should not smooth over this point )
G01 F11.81102
G01 X0.81279 Y-0.60420
G01 X0.81161 Y-0.60774
G01 X0.80834 Y-0.61387
G01 X0.80401 Y-0.61930
G01 X0.80267 Y-0.62069
G01 X0.79727 Y-0.62506
G01 X0.79116 Y-0.62838
G01 X0.78974 Y-0.62897
G01 X0.78420 Y-0.63065
G01 X0.78231 Y-0.63106
G01 X0.77539 Y-0.63169
G01 X0.76733 Y-0.63085
G01 X0.75997 Y-0.62854
G01 X0.75418 Y-0.62547
G01 X0.75192 Y-0.62382
G01 X0.66713 Y-0.62382
G01 X0.66713 Y-0.65531
G01 X0.66702 Y-0.65692
G01 X0.66630 Y-0.65965
G01 X0.66496 Y-0.66213
G01 X0.66308 Y-0.66422
G01 X0.66110 Y-0.66561
G01 X0.65850 Y-0.66669
G01 X0.65572 Y-0.66712
G01 X0.58718 Y-0.66706
G01 X0.58520 Y-0.66669
G01 X0.58331 Y-0.66598
G01 X0.58157 Y-0.66496
G01 X0.57975 Y-0.66338
G01 X0.57851 Y-0.66179
G01 X0.57755 Y-0.66002
G01 X0.57691 Y-0.65811
G01 X0.57660 Y-0.65612
G01 X0.57660 Y-0.58758
G01 X0.57713 Y-0.58481
G01 X0.57829 Y-0.58225
G01 X0.58003 Y-0.58003
G01 X0.58225 Y-0.57829
G01 X0.58368 Y-0.57755
G01 X0.58520 Y-0.57701
G01 X0.58798 Y-0.57658
G01 X0.62419 Y-0.57657
G01 X0.62541 Y-0.57451
G01 X0.62884 Y-0.57033
G01 X0.63356 Y-0.56635
G01 X0.63932 Y-0.56322
G01 X0.64411 Y-0.56171
G01 X0.64599 Y-0.56131
G01 X0.65138 Y-0.56083
G01 X0.75192 Y-0.56083
G01 X0.75418 Y-0.55918
G01 X0.75997 Y-0.55610
G01 X0.76733 Y-0.55379
G01 X0.77539 Y-0.55295
G01 X0.78269 Y-0.55364
G01 X0.79046 Y-0.55595
G01 X0.79727 Y-0.55959
G01 X0.80323 Y-0.56448
G01 X0.80744 Y-0.56952
G01 X0.80854 Y-0.57111
G01 X0.81161 Y-0.57690
G01 X0.81279 Y-0.58045
G01 X0.81279 Y-0.60420
G01 X0.81414 Y-0.60809
G01 X0.81705 Y-0.61354
G01 X0.81870 Y-0.61579
G01 X0.81870 Y-0.68676
G01 X0.81510 Y-0.69035
G01 X0.65435 Y-0.69035
G01 X0.65301 Y-0.68906
G01 X0.64700 Y-0.68420
G01 X0.64022 Y-0.68052
G01 X0.63809 Y-0.67963
G01 X0.63068 Y-0.67744
G01 X0.62301 Y-0.67663
G01 X0.62069 Y-0.67663
G01 X0.61264 Y-0.67753
G01 X0.60525 Y-0.67975
G01 X0.60348 Y-0.68052
G01 X0.59670 Y-0.68420
G01 X0.59069 Y-0.68906
G01 X0.58931 Y-0.69040
G01 X0.58420 Y-0.69670
G01 X0.58002 Y-0.70452
G01 X0.57744 Y-0.71302
G01 X0.57663 Y-0.72069
G01 X0.57663 Y-0.72301
G01 X0.57744 Y-0.73068
G01 X0.57963 Y-0.73808
G01 X0.58034 Y-0.73988
G01 X0.58400 Y-0.74668
G01 X0.58983 Y-0.75387
G01 X0.59576 Y-0.75880
G01 X0.59769 Y-0.76009
G01 X0.60452 Y-0.76368
G01 X0.61189 Y-0.76597
G01 X0.61416 Y-0.76643
G01 X0.62185 Y-0.76713
G01 X0.63068 Y-0.76626
G01 X0.63918 Y-0.76368
G01 X0.64700 Y-0.75950
G01 X0.65301 Y-0.75464
G01 X0.65435 Y-0.75335
G01 X0.82854 Y-0.75334
G01 X0.83429 Y-0.75274
G01 X0.83911 Y-0.75134
G01 X0.84091 Y-0.75063
G01 X0.84596 Y-0.74782
G01 X0.85042 Y-0.74412
G01 X0.87325 Y-0.72122
G01 X0.87638 Y-0.71730
G01 X0.87880 Y-0.71290
G01 X0.87957 Y-0.71113
G01 X0.88091 Y-0.70670
G01 X0.88126 Y-0.70480
G01 X0.88169 Y-0.69980
G01 X0.88169 Y-0.61580
G01 X0.88334 Y-0.61354
G01 X0.88642 Y-0.60774
G01 X0.88873 Y-0.60038
G01 X0.88957 Y-0.59232
G01 X0.88881 Y-0.58464
G01 X0.88657 Y-0.57726
G01 X0.88334 Y-0.57111
G01 X0.88248 Y-0.56982
G01 X0.87881 Y-0.56534
G01 X0.87718 Y-0.56371
G01 X0.87207 Y-0.55959
G01 X0.86526 Y-0.55595
G01 X0.85788 Y-0.55371
G01 X0.85097 Y-0.55298
G01 X0.84942 Y-0.55298
G01 X0.84366 Y-0.55354
G01 X0.84139 Y-0.55399
G01 X0.83513 Y-0.55595
G01 X0.82801 Y-0.55981
G01 X0.82236 Y-0.56448
G01 X0.81768 Y-0.57013
G01 X0.81414 Y-0.57655
G01 X0.81279 Y-0.58045

G04 P0 ( dwell for no time -- G64 should not smooth over this point )
G00 Z0.787402 ( retract )

M5 ( Spindle off. )
G04 P1.000000
M9 ( Coolant off. )
M2 ( Program end. )

