( pcb2gcode 2.5.0 )
( Software-independent Gcode )

G94 ( Inches per minute feed rate. )
G20 ( Units == INCHES. )

G90 ( Absolute coordinates. )
G00 S800 ( RPM spindle speed. )
G01 F11.81102 ( Feedrate. )


G00 Z0.78740 (Retract to tool change height)
T1
M5      (Spindle stop.)
G04 P1.00000 (Wait for spindle to stop)
(MSG, Change tool bit to mill diameter 0.02362in)
M6      (Tool change.)
M0      (Temporary machine stop.)
M3 ( Spindle on clockwise. )
G04 P1.00000 (Wait for spindle to get up to speed)
G04 P0 ( dwell for no time -- G64 should not smooth over this point )
G00 Z0.03937 ( retract )

G00 X0.81280 Y-0.60459 ( rapid move to begin. )
G01 F5.90551
( Mill infeed pass 1/1 )
G01 Z-0.01024
G04 P0 ( dwell for no time -- G64 should not smooth over this point )
G01 F11.81102
G01 X0.81280 Y-0.60459
G01 X0.81081 Y-0.60950
G01 X0.80906 Y-0.61272
G01 X0.80703 Y-0.61573
G01 X0.80379 Y-0.61959
G01 X0.80008 Y-0.62299
G01 X0.79596 Y-0.62588
G01 X0.79234 Y-0.62786
G01 X0.78896 Y-0.62927
G01 X0.78387 Y-0.63077
G01 X0.77923 Y-0.63150
G01 X0.77348 Y-0.63163
G01 X0.76916 Y-0.63120
G01 X0.76487 Y-0.63026
G01 X0.75962 Y-0.62838
G01 X0.75571 Y-0.62642
G01 X0.75178 Y-0.62382
G01 X0.66713 Y-0.62382
G01 X0.66713 Y-0.65531
G01 X0.66702 Y-0.65692
G01 X0.66630 Y-0.65965
G01 X0.66496 Y-0.66213
G01 X0.66308 Y-0.66422
G01 X0.66110 Y-0.66561
G01 X0.65850 Y-0.66669
G01 X0.65572 Y-0.66712
G01 X0.58718 Y-0.66706
G01 X0.58520 Y-0.66669
G01 X0.58331 Y-0.66598
G01 X0.58157 Y-0.66496
G01 X0.57975 Y-0.66338
G01 X0.57851 Y-0.66179
G01 X0.57755 Y-0.66002
G01 X0.57691 Y-0.65811
G01 X0.57660 Y-0.65612
G01 X0.57660 Y-0.58758
G01 X0.57713 Y-0.58481
G01 X0.57829 Y-0.58225
G01 X0.58003 Y-0.58003
G01 X0.58225 Y-0.57829
G01 X0.58368 Y-0.57755
G01 X0.58520 Y-0.57701
G01 X0.58798 Y-0.57658
G01 X0.62419 Y-0.57657
G01 X0.62541 Y-0.57451
G01 X0.62884 Y-0.57033
G01 X0.63356 Y-0.56635
G01 X0.63932 Y-0.56322
G01 X0.64411 Y-0.56171
G01 X0.64599 Y-0.56131
G01 X0.65138 Y-0.56083
G01 X0.75182 Y-0.56083
G01 X0.75343 Y-0.55965
G01 X0.75641 Y-0.55783
G01 X0.75998 Y-0.55609
G01 X0.76334 Y-0.55485
G01 X0.76670 Y-0.55392
G01 X0.76975 Y-0.55337
G01 X0.77408 Y-0.55298
G01 X0.77939 Y-0.55316
G01 X0.78419 Y-0.55397
G01 X0.78585 Y-0.55439
G01 X0.79116 Y-0.55627
G01 X0.79508 Y-0.55823
G01 X0.79907 Y-0.56087
G01 X0.80363 Y-0.56489
G01 X0.80731 Y-0.56927
G01 X0.81045 Y-0.57441
G01 X0.81211 Y-0.57811
G01 X0.81281 Y-0.58022
G01 X0.81381 Y-0.57730
G01 X0.81591 Y-0.57298
G01 X0.81873 Y-0.56867
G01 X0.82236 Y-0.56448
G01 X0.82654 Y-0.56086
G01 X0.83119 Y-0.55786
G01 X0.83513 Y-0.55595
G01 X0.83927 Y-0.55452
G01 X0.84506 Y-0.55329
G01 X0.85058 Y-0.55296
G01 X0.85533 Y-0.55329
G01 X0.85963 Y-0.55412
G01 X0.86575 Y-0.55615
G01 X0.87103 Y-0.55893
G01 X0.87462 Y-0.56144
G01 X0.87844 Y-0.56489
G01 X0.88157 Y-0.56854
G01 X0.88379 Y-0.57180
G01 X0.88547 Y-0.57485
G01 X0.88742 Y-0.57959
G01 X0.88790 Y-0.58103
G01 X0.88912 Y-0.58640
G01 X0.88949 Y-0.58986
G01 X0.88955 Y-0.59295
G01 X0.88921 Y-0.59749
G01 X0.88860 Y-0.60098
G01 X0.88767 Y-0.60438
G01 X0.88643 Y-0.60771
G01 X0.88492 Y-0.61088
G01 X0.88290 Y-0.61424
G01 X0.88169 Y-0.61590
G01 X0.88169 Y-0.70019
G01 X0.88109 Y-0.70595
G01 X0.87969 Y-0.71076
G01 X0.87897 Y-0.71256
G01 X0.87659 Y-0.71698
G01 X0.87247 Y-0.72207
G01 X0.84986 Y-0.74465
G01 X0.84565 Y-0.74804
G01 X0.84091 Y-0.75063
G01 X0.83911 Y-0.75134
G01 X0.83429 Y-0.75274
G01 X0.82815 Y-0.75335
G01 X0.65433 Y-0.75335
G01 X0.65131 Y-0.75622
G01 X0.64850 Y-0.75845
G01 X0.64520 Y-0.76063
G01 X0.64105 Y-0.76285
G01 X0.63740 Y-0.76436
G01 X0.63290 Y-0.76576
G01 X0.62863 Y-0.76662
G01 X0.62385 Y-0.76708
G01 X0.61984 Y-0.76707
G01 X0.61516 Y-0.76663
G01 X0.61018 Y-0.76558
G01 X0.60636 Y-0.76439
G01 X0.60266 Y-0.76284
G01 X0.59844 Y-0.76060
G01 X0.59454 Y-0.75796
G01 X0.59095 Y-0.75492
G01 X0.58817 Y-0.75211
G01 X0.58589 Y-0.74934
G01 X0.58322 Y-0.74546
G01 X0.58098 Y-0.74132
G01 X0.57916 Y-0.73690
G01 X0.57781 Y-0.73230
G01 X0.57705 Y-0.72841
G01 X0.57665 Y-0.72447
G01 X0.57663 Y-0.71972
G01 X0.57718 Y-0.71454
G01 X0.57798 Y-0.71067
G01 X0.57901 Y-0.70724
G01 X0.58060 Y-0.70321
G01 X0.58300 Y-0.69860
G01 X0.58569 Y-0.69461
G01 X0.58884 Y-0.69087
G01 X0.59285 Y-0.68709
G01 X0.59691 Y-0.68406
G01 X0.60160 Y-0.68136
G01 X0.60658 Y-0.67923
G01 X0.61177 Y-0.67771
G01 X0.61686 Y-0.67685
G01 X0.62225 Y-0.67658
G01 X0.62739 Y-0.67692
G01 X0.63340 Y-0.67809
G01 X0.63847 Y-0.67975
G01 X0.64257 Y-0.68160
G01 X0.64642 Y-0.68384
G01 X0.65106 Y-0.68726
G01 X0.65432 Y-0.69035
G01 X0.81510 Y-0.69035
G01 X0.81870 Y-0.68676
G01 X0.81870 Y-0.61592
G01 X0.81527 Y-0.61050
G01 X0.81280 Y-0.60459
G01 X0.81281 Y-0.58022

G04 P0 ( dwell for no time -- G64 should not smooth over this point )
G00 Z0.787402 ( retract )

M5 ( Spindle off. )
G04 P1.000000
M9 ( Coolant off. )
M2 ( Program end. )

