( pcb2gcode 2.5.0 )
( Software-independent Gcode )

G94 ( Inches per minute feed rate. )
G20 ( Units == INCHES. )

G90 ( Absolute coordinates. )
G00 S800 ( RPM spindle speed. )
G01 F11.81102 ( Feedrate. )


G00 Z0.78740 (Retract to tool change height)
T0
M5      (Spindle stop.)
G04 P1.00000 (Wait for spindle to stop)
(MSG, Change tool bit to mill diameter 0.02362in)
M6      (Tool change.)
M0      (Temporary machine stop.)
M3 ( Spindle on clockwise. )
G04 P1.00000 (Wait for spindle to get up to speed)
G04 P0 ( dwell for no time -- G64 should not smooth over this point )
G00 Z0.03937 ( retract )

G00 X0.81279 Y-0.58045 ( rapid move to begin. )
G01 F5.90551
( Mill infeed pass 1/1 )
G01 Z-0.01024
G04 P0 ( dwell for no time -- G64 should not smooth over this point )
G01 F11.81102
G01 X0.81279 Y-0.58045
G01 X0.81279 Y-0.60420
G01 X0.81216 Y-0.60630
G01 X0.81127 Y-0.60844
G01 X0.80872 Y-0.61320
G01 X0.80744 Y-0.61513
G01 X0.80401 Y-0.61930
G01 X0.80237 Y-0.62094
G01 X0.79820 Y-0.62437
G01 X0.79627 Y-0.62565
G01 X0.79151 Y-0.62820
G01 X0.78937 Y-0.62909
G01 X0.78420 Y-0.63065
G01 X0.78193 Y-0.63111
G01 X0.77655 Y-0.63164
G01 X0.77424 Y-0.63164
G01 X0.76886 Y-0.63111
G01 X0.76659 Y-0.63065
G01 X0.76142 Y-0.62909
G01 X0.75928 Y-0.62820
G01 X0.75452 Y-0.62565
G01 X0.75192 Y-0.62382
G01 X0.66713 Y-0.62382
G01 X0.66713 Y-0.65531
G01 X0.66690 Y-0.65762
G01 X0.66623 Y-0.65983
G01 X0.66514 Y-0.66188
G01 X0.66367 Y-0.66367
G01 X0.66188 Y-0.66514
G01 X0.65983 Y-0.66623
G01 X0.65762 Y-0.66690
G01 X0.65531 Y-0.66713
G01 X0.58839 Y-0.66713
G01 X0.58608 Y-0.66690
G01 X0.58386 Y-0.66623
G01 X0.58182 Y-0.66514
G01 X0.58003 Y-0.66367
G01 X0.57856 Y-0.66188
G01 X0.57747 Y-0.65983
G01 X0.57680 Y-0.65762
G01 X0.57657 Y-0.65531
G01 X0.57657 Y-0.58839
G01 X0.57680 Y-0.58608
G01 X0.57747 Y-0.58386
G01 X0.57856 Y-0.58182
G01 X0.58003 Y-0.58003
G01 X0.58182 Y-0.57856
G01 X0.58386 Y-0.57747
G01 X0.58608 Y-0.57680
G01 X0.58839 Y-0.57657
G01 X0.62419 Y-0.57657
G01 X0.62588 Y-0.57389
G01 X0.62833 Y-0.57091
G01 X0.62996 Y-0.56927
G01 X0.63295 Y-0.56682
G01 X0.63487 Y-0.56554
G01 X0.63828 Y-0.56372
G01 X0.64041 Y-0.56283
G01 X0.64411 Y-0.56171
G01 X0.64638 Y-0.56126
G01 X0.65138 Y-0.56083
G01 X0.75192 Y-0.56083
G01 X0.75452 Y-0.55899
G01 X0.75928 Y-0.55644
G01 X0.76142 Y-0.55556
G01 X0.76659 Y-0.55399
G01 X0.76886 Y-0.55354
G01 X0.77424 Y-0.55301
G01 X0.77655 Y-0.55301
G01 X0.78193 Y-0.55354
G01 X0.78420 Y-0.55399
G01 X0.78937 Y-0.55556
G01 X0.79151 Y-0.55644
G01 X0.79627 Y-0.55899
G01 X0.79820 Y-0.56028
G01 X0.80237 Y-0.56371
G01 X0.80401 Y-0.56534
G01 X0.80744 Y-0.56952
G01 X0.80872 Y-0.57144
G01 X0.81127 Y-0.57621
G01 X0.81216 Y-0.57835
G01 X0.81279 Y-0.58045
G01 X0.81343 Y-0.57835
G01 X0.81432 Y-0.57621
G01 X0.81686 Y-0.57144
G01 X0.81815 Y-0.56952
G01 X0.82158 Y-0.56534
G01 X0.82322 Y-0.56371
G01 X0.82739 Y-0.56028
G01 X0.82932 Y-0.55899
G01 X0.83408 Y-0.55644
G01 X0.83622 Y-0.55556
G01 X0.84139 Y-0.55399
G01 X0.84366 Y-0.55354
G01 X0.84904 Y-0.55301
G01 X0.85135 Y-0.55301
G01 X0.85673 Y-0.55354
G01 X0.85900 Y-0.55399
G01 X0.86417 Y-0.55556
G01 X0.86631 Y-0.55644
G01 X0.87108 Y-0.55899
G01 X0.87300 Y-0.56028
G01 X0.87718 Y-0.56371
G01 X0.87881 Y-0.56534
G01 X0.88224 Y-0.56952
G01 X0.88353 Y-0.57144
G01 X0.88607 Y-0.57621
G01 X0.88696 Y-0.57835
G01 X0.88853 Y-0.58352
G01 X0.88898 Y-0.58579
G01 X0.88951 Y-0.59117
G01 X0.88951 Y-0.59348
G01 X0.88898 Y-0.59886
G01 X0.88853 Y-0.60113
G01 X0.88696 Y-0.60630
G01 X0.88607 Y-0.60844
G01 X0.88353 Y-0.61320
G01 X0.88169 Y-0.61580
G01 X0.88163 Y-0.70096
G01 X0.88126 Y-0.70480
G01 X0.88080 Y-0.70707
G01 X0.87969 Y-0.71076
G01 X0.87880 Y-0.71290
G01 X0.87698 Y-0.71631
G01 X0.87569 Y-0.71823
G01 X0.87247 Y-0.72207
G01 X0.85042 Y-0.74412
G01 X0.84658 Y-0.74735
G01 X0.84465 Y-0.74863
G01 X0.84125 Y-0.75045
G01 X0.83911 Y-0.75134
G01 X0.83542 Y-0.75246
G01 X0.83315 Y-0.75291
G01 X0.82815 Y-0.75335
G01 X0.65430 Y-0.75335
G01 X0.65301 Y-0.75464
G01 X0.64794 Y-0.75880
G01 X0.64601 Y-0.76009
G01 X0.64022 Y-0.76318
G01 X0.63809 Y-0.76407
G01 X0.63181 Y-0.76597
G01 X0.62954 Y-0.76643
G01 X0.62301 Y-0.76707
G01 X0.62069 Y-0.76707
G01 X0.61416 Y-0.76643
G01 X0.61189 Y-0.76597
G01 X0.60562 Y-0.76407
G01 X0.60348 Y-0.76318
G01 X0.59769 Y-0.76009
G01 X0.59576 Y-0.75880
G01 X0.59069 Y-0.75464
G01 X0.58906 Y-0.75301
G01 X0.58490 Y-0.74794
G01 X0.58361 Y-0.74601
G01 X0.58052 Y-0.74022
G01 X0.57963 Y-0.73808
G01 X0.57773 Y-0.73181
G01 X0.57727 Y-0.72954
G01 X0.57663 Y-0.72301
G01 X0.57663 Y-0.72069
G01 X0.57727 Y-0.71416
G01 X0.57773 Y-0.71189
G01 X0.57963 Y-0.70561
G01 X0.58052 Y-0.70348
G01 X0.58361 Y-0.69769
G01 X0.58490 Y-0.69576
G01 X0.58906 Y-0.69069
G01 X0.59069 Y-0.68906
G01 X0.59576 Y-0.68490
G01 X0.59769 Y-0.68361
G01 X0.60348 Y-0.68052
G01 X0.60562 Y-0.67963
G01 X0.61189 Y-0.67773
G01 X0.61416 Y-0.67727
G01 X0.62069 Y-0.67663
G01 X0.62301 Y-0.67663
G01 X0.62954 Y-0.67727
G01 X0.63181 Y-0.67773
G01 X0.63809 Y-0.67963
G01 X0.64022 Y-0.68052
G01 X0.64601 Y-0.68361
G01 X0.64794 Y-0.68490
G01 X0.65301 Y-0.68906
G01 X0.65430 Y-0.69035
G01 X0.81510 Y-0.69035
G01 X0.81870 Y-0.68676
G01 X0.81870 Y-0.61579
G01 X0.81686 Y-0.61320
G01 X0.81432 Y-0.60844
G01 X0.81343 Y-0.60630
G01 X0.81279 Y-0.60420

G04 P0 ( dwell for no time -- G64 should not smooth over this point )
G00 Z0.787402 ( retract )

M5 ( Spindle off. )
G04 P1.000000
M9 ( Coolant off. )
M2 ( Program end. )

