( pcb2gcode 2.5.0 )
( Software-independent Gcode )

G94 ( Inches per minute feed rate. )
G20 ( Units == INCHES. )

G90 ( Absolute coordinates. )
G00 S800 ( RPM spindle speed. )
G01 F11.81102 ( Feedrate. )


G00 Z0.78740 (Retract to tool change height)
T1
M5      (Spindle stop.)
G04 P1.00000 (Wait for spindle to stop)
(MSG, Change tool bit to mill diameter 0.02362in)
M6      (Tool change.)
M0      (Temporary machine stop.)
M3 ( Spindle on clockwise. )
G04 P1.00000 (Wait for spindle to get up to speed)
G04 P0 ( dwell for no time -- G64 should not smooth over this point )
G00 Z0.03937 ( retract )

G00 X0.81281 Y-0.60457 ( rapid move to begin. )
G01 F5.90551
( Mill infeed pass 1/1 )
G01 Z-0.01024
G04 P0 ( dwell for no time -- G64 should not smooth over this point )
G01 F11.81102
G01 X0.81281 Y-0.60457
G01 X0.81106 Y-0.60900
G01 X0.80870 Y-0.61329
G01 X0.80662 Y-0.61630
G01 X0.80394 Y-0.61942
G01 X0.80036 Y-0.62276
G01 X0.79629 Y-0.62569
G01 X0.79188 Y-0.62806
G01 X0.78817 Y-0.62956
G01 X0.78467 Y-0.63057
G01 X0.77957 Y-0.63147
G01 X0.77363 Y-0.63164
G01 X0.76951 Y-0.63125
G01 X0.76463 Y-0.63019
G01 X0.75926 Y-0.62822
G01 X0.75558 Y-0.62635
G01 X0.75178 Y-0.62382
G01 X0.66713 Y-0.62382
G01 X0.66713 Y-0.65531
G01 X0.66702 Y-0.65692
G01 X0.66630 Y-0.65965
G01 X0.66496 Y-0.66213
G01 X0.66308 Y-0.66422
G01 X0.66110 Y-0.66561
G01 X0.65850 Y-0.66669
G01 X0.65572 Y-0.66712
G01 X0.58718 Y-0.66706
G01 X0.58520 Y-0.66669
G01 X0.58331 Y-0.66598
G01 X0.58157 Y-0.66496
G01 X0.57975 Y-0.66338
G01 X0.57851 Y-0.66179
G01 X0.57755 Y-0.66002
G01 X0.57691 Y-0.65811
G01 X0.57660 Y-0.65612
G01 X0.57660 Y-0.58758
G01 X0.57713 Y-0.58481
G01 X0.57829 Y-0.58225
G01 X0.58003 Y-0.58003
G01 X0.58225 Y-0.57829
G01 X0.58368 Y-0.57755
G01 X0.58520 Y-0.57701
G01 X0.58798 Y-0.57658
G01 X0.62419 Y-0.57657
G01 X0.62541 Y-0.57451
G01 X0.62884 Y-0.57033
G01 X0.63356 Y-0.56635
G01 X0.63932 Y-0.56322
G01 X0.64411 Y-0.56171
G01 X0.64599 Y-0.56131
G01 X0.65138 Y-0.56083
G01 X0.75182 Y-0.56083
G01 X0.75355 Y-0.55957
G01 X0.75662 Y-0.55771
G01 X0.75995 Y-0.55611
G01 X0.76296 Y-0.55497
G01 X0.76640 Y-0.55399
G01 X0.76956 Y-0.55340
G01 X0.77416 Y-0.55298
G01 X0.77935 Y-0.55315
G01 X0.78562 Y-0.55432
G01 X0.79001 Y-0.55577
G01 X0.79428 Y-0.55780
G01 X0.79930 Y-0.56105
G01 X0.80377 Y-0.56503
G01 X0.80734 Y-0.56931
G01 X0.81040 Y-0.57432
G01 X0.81206 Y-0.57799
G01 X0.81281 Y-0.58022
G01 X0.81382 Y-0.57726
G01 X0.81575 Y-0.57329
G01 X0.81875 Y-0.56864
G01 X0.82238 Y-0.56446
G01 X0.82666 Y-0.56077
G01 X0.83134 Y-0.55778
G01 X0.83538 Y-0.55585
G01 X0.83953 Y-0.55444
G01 X0.84545 Y-0.55324
G01 X0.85098 Y-0.55296
G01 X0.85573 Y-0.55334
G01 X0.86012 Y-0.55424
G01 X0.86573 Y-0.55615
G01 X0.87031 Y-0.55848
G01 X0.87393 Y-0.56093
G01 X0.87847 Y-0.56492
G01 X0.88187 Y-0.56893
G01 X0.88478 Y-0.57357
G01 X0.88551 Y-0.57494
G01 X0.88738 Y-0.57946
G01 X0.88787 Y-0.58092
G01 X0.88912 Y-0.58644
G01 X0.88956 Y-0.59296
G01 X0.88922 Y-0.59744
G01 X0.88866 Y-0.60073
G01 X0.88769 Y-0.60432
G01 X0.88654 Y-0.60746
G01 X0.88495 Y-0.61081
G01 X0.88306 Y-0.61401
G01 X0.88169 Y-0.61590
G01 X0.88169 Y-0.70019
G01 X0.88109 Y-0.70595
G01 X0.87969 Y-0.71076
G01 X0.87897 Y-0.71256
G01 X0.87659 Y-0.71698
G01 X0.87247 Y-0.72207
G01 X0.84986 Y-0.74465
G01 X0.84565 Y-0.74804
G01 X0.84091 Y-0.75063
G01 X0.83911 Y-0.75134
G01 X0.83429 Y-0.75274
G01 X0.82815 Y-0.75335
G01 X0.65432 Y-0.75335
G01 X0.65224 Y-0.75541
G01 X0.64948 Y-0.75770
G01 X0.64583 Y-0.76024
G01 X0.64159 Y-0.76259
G01 X0.63784 Y-0.76420
G01 X0.63334 Y-0.76564
G01 X0.62898 Y-0.76656
G01 X0.62455 Y-0.76704
G01 X0.62021 Y-0.76709
G01 X0.61538 Y-0.76666
G01 X0.61063 Y-0.76570
G01 X0.60673 Y-0.76452
G01 X0.60331 Y-0.76314
G01 X0.59899 Y-0.76093
G01 X0.59494 Y-0.75826
G01 X0.59120 Y-0.75516
G01 X0.58832 Y-0.75228
G01 X0.58597 Y-0.74944
G01 X0.58328 Y-0.74555
G01 X0.58097 Y-0.74130
G01 X0.57913 Y-0.73681
G01 X0.57795 Y-0.73291
G01 X0.57720 Y-0.72930
G01 X0.57665 Y-0.72448
G01 X0.57662 Y-0.71976
G01 X0.57712 Y-0.71494
G01 X0.57782 Y-0.71132
G01 X0.57895 Y-0.70740
G01 X0.58059 Y-0.70325
G01 X0.58280 Y-0.69893
G01 X0.58552 Y-0.69483
G01 X0.58890 Y-0.69080
G01 X0.59282 Y-0.68711
G01 X0.59706 Y-0.68396
G01 X0.60164 Y-0.68134
G01 X0.60606 Y-0.67942
G01 X0.61122 Y-0.67784
G01 X0.61642 Y-0.67690
G01 X0.62215 Y-0.67658
G01 X0.62742 Y-0.67692
G01 X0.63317 Y-0.67803
G01 X0.63777 Y-0.67947
G01 X0.64301 Y-0.68184
G01 X0.64761 Y-0.68464
G01 X0.65108 Y-0.68728
G01 X0.65433 Y-0.69035
G01 X0.81510 Y-0.69035
G01 X0.81870 Y-0.68676
G01 X0.81870 Y-0.61593
G01 X0.81536 Y-0.61066
G01 X0.81339 Y-0.60623
G01 X0.81281 Y-0.60457
G01 X0.81281 Y-0.58022

G04 P0 ( dwell for no time -- G64 should not smooth over this point )
G00 Z0.787402 ( retract )

M5 ( Spindle off. )
G04 P1.000000
M9 ( Coolant off. )
M2 ( Program end. )

