( pcb2gcode 2.5.0 )
( Software-independent Gcode )

G94 ( Inches per minute feed rate. )
G20 ( Units == INCHES. )

G90 ( Absolute coordinates. )
G00 S12000 ( RPM spindle speed. )
G01 F9.84252 ( Feedrate. )


G00 Z0.78740 (Retract to tool change height)
T1
M5      (Spindle stop.)
G04 P1.00000 (Wait for spindle to stop)
(MSG, Change tool bit to cutter diameter 0.11811in)
M6      (Tool change.)
M0      (Temporary machine stop.)
M3 ( Spindle on clockwise. )
G04 P1.00000 (Wait for spindle to get up to speed)
G04 P0 ( dwell for no time -- G64 should not smooth over this point )
G00 Z0.03937 ( retract )

G00 X0.44094 Y-0.80000 ( rapid move to begin. )
G01 Z-0.01535 F4.92126 ( plunge. )
G04 P0 ( dwell for no time -- G64 should not smooth over this point )
G01 F9.84252
G01 X0.44094 Y-0.71890
G00 Z0.03937
G01 X0.44094 Y-0.58110
G01 Z-0.01535 F4.92126
G01 F9.84252
G01 X0.44094 Y-0.50000
G01 X0.44114 Y-0.49519
G01 X0.44155 Y-0.49160
G01 X0.44217 Y-0.48804
G01 X0.44301 Y-0.48452
G01 X0.44406 Y-0.48106
G01 X0.44533 Y-0.47768
G01 X0.44679 Y-0.47438
G01 X0.45010 Y-0.46841
G01 X0.45213 Y-0.46542
G01 X0.45433 Y-0.46255
G01 X0.45896 Y-0.45754
G01 X0.46163 Y-0.45511
G01 X0.46445 Y-0.45284
G01 X0.47013 Y-0.44906
G01 X0.47330 Y-0.44733
G01 X0.47694 Y-0.44563
G01 X0.48068 Y-0.44419
G01 X0.48413 Y-0.44312
G01 X0.48804 Y-0.44217
G01 X0.49160 Y-0.44155
G01 X0.49519 Y-0.44114
G01 X0.49920 Y-0.44095
G01 X0.65690 Y-0.44097
G00 Z0.03937
G01 X0.79470 Y-0.44098
G01 Z-0.01535 F4.92126
G01 F9.84252
G01 X0.95241 Y-0.44099
G01 X0.95601 Y-0.44125
G01 X0.95959 Y-0.44173
G01 X0.96314 Y-0.44243
G01 X0.96702 Y-0.44345
G01 X0.97083 Y-0.44474
G01 X0.97417 Y-0.44611
G01 X0.97742 Y-0.44769
G01 X0.98056 Y-0.44947
G01 X0.98360 Y-0.45143
G01 X0.98650 Y-0.45358
G01 X0.98928 Y-0.45590
G01 X0.99190 Y-0.45838
G01 X0.99437 Y-0.46102
G01 X0.99691 Y-0.46413
G01 X0.99902 Y-0.46707
G01 X1.00094 Y-0.47013
G01 X1.00267 Y-0.47330
G01 X1.00421 Y-0.47657
G01 X1.00554 Y-0.47993
G01 X1.00677 Y-0.48375
G01 X1.00766 Y-0.48725
G01 X1.00833 Y-0.49080
G01 X1.00882 Y-0.49479
G01 X1.00903 Y-0.49839
G01 X1.00901 Y-0.58190
G00 Z0.03937
G01 X1.00899 Y-0.71970
G01 Z-0.01535 F4.92126
G01 F9.84252
G01 X1.00897 Y-0.80321
G01 X1.00861 Y-0.80721
G01 X1.00813 Y-0.81039
G01 X1.00739 Y-0.81392
G01 X1.00643 Y-0.81741
G01 X1.00526 Y-0.82083
G01 X1.00388 Y-0.82417
G01 X1.00231 Y-0.82742
G01 X1.00032 Y-0.83091
G01 X0.99834 Y-0.83393
G01 X0.99617 Y-0.83682
G01 X0.99383 Y-0.83957
G01 X0.99133 Y-0.84218
G01 X0.98867 Y-0.84463
G01 X0.98587 Y-0.84691
G01 X0.98293 Y-0.84902
G01 X0.97987 Y-0.85094
G01 X0.97670 Y-0.85267
G01 X0.97306 Y-0.85437
G01 X0.96932 Y-0.85581
G01 X0.96586 Y-0.85688
G01 X0.96196 Y-0.85783
G01 X0.95840 Y-0.85845
G01 X0.95481 Y-0.85886
G01 X0.95080 Y-0.85905
G01 X0.79430 Y-0.85905
G00 Z0.03937
G01 X0.65650 Y-0.85905
G01 Z-0.01535 F4.92126
G01 F9.84252
G01 X0.50000 Y-0.85906
G01 X0.49439 Y-0.85879
G01 X0.48922 Y-0.85806
G01 X0.48375 Y-0.85677
G01 X0.47842 Y-0.85497
G01 X0.47330 Y-0.85267
G01 X0.46841 Y-0.84990
G01 X0.46413 Y-0.84691
G01 X0.46013 Y-0.84356
G01 X0.45617 Y-0.83957
G01 X0.45260 Y-0.83523
G01 X0.44968 Y-0.83091
G01 X0.44697 Y-0.82598
G01 X0.44488 Y-0.82120
G01 X0.44322 Y-0.81625
G01 X0.44194 Y-0.81078
G01 X0.44117 Y-0.80521
G01 X0.44094 Y-0.80000
G01 Z-0.03071 F4.92126 ( plunge. )
G04 P0 ( dwell for no time -- G64 should not smooth over this point )
G01 F9.84252
G01 X0.44094 Y-0.71890
G00 Z0.03937
G01 X0.44094 Y-0.58110
G01 Z-0.03071 F4.92126
G01 F9.84252
G01 X0.44094 Y-0.50000
G01 X0.44114 Y-0.49519
G01 X0.44155 Y-0.49160
G01 X0.44217 Y-0.48804
G01 X0.44301 Y-0.48452
G01 X0.44406 Y-0.48106
G01 X0.44533 Y-0.47768
G01 X0.44679 Y-0.47438
G01 X0.45010 Y-0.46841
G01 X0.45213 Y-0.46542
G01 X0.45433 Y-0.46255
G01 X0.45896 Y-0.45754
G01 X0.46163 Y-0.45511
G01 X0.46445 Y-0.45284
G01 X0.47013 Y-0.44906
G01 X0.47330 Y-0.44733
G01 X0.47694 Y-0.44563
G01 X0.48068 Y-0.44419
G01 X0.48413 Y-0.44312
G01 X0.48804 Y-0.44217
G01 X0.49160 Y-0.44155
G01 X0.49519 Y-0.44114
G01 X0.49920 Y-0.44095
G01 X0.65690 Y-0.44097
G00 Z0.03937
G01 X0.79470 Y-0.44098
G01 Z-0.03071 F4.92126
G01 F9.84252
G01 X0.95241 Y-0.44099
G01 X0.95601 Y-0.44125
G01 X0.95959 Y-0.44173
G01 X0.96314 Y-0.44243
G01 X0.96702 Y-0.44345
G01 X0.97083 Y-0.44474
G01 X0.97417 Y-0.44611
G01 X0.97742 Y-0.44769
G01 X0.98056 Y-0.44947
G01 X0.98360 Y-0.45143
G01 X0.98650 Y-0.45358
G01 X0.98928 Y-0.45590
G01 X0.99190 Y-0.45838
G01 X0.99437 Y-0.46102
G01 X0.99691 Y-0.46413
G01 X0.99902 Y-0.46707
G01 X1.00094 Y-0.47013
G01 X1.00267 Y-0.47330
G01 X1.00421 Y-0.47657
G01 X1.00554 Y-0.47993
G01 X1.00677 Y-0.48375
G01 X1.00766 Y-0.48725
G01 X1.00833 Y-0.49080
G01 X1.00882 Y-0.49479
G01 X1.00903 Y-0.49839
G01 X1.00901 Y-0.58190
G00 Z0.03937
G01 X1.00899 Y-0.71970
G01 Z-0.03071 F4.92126
G01 F9.84252
G01 X1.00897 Y-0.80321
G01 X1.00861 Y-0.80721
G01 X1.00813 Y-0.81039
G01 X1.00739 Y-0.81392
G01 X1.00643 Y-0.81741
G01 X1.00526 Y-0.82083
G01 X1.00388 Y-0.82417
G01 X1.00231 Y-0.82742
G01 X1.00032 Y-0.83091
G01 X0.99834 Y-0.83393
G01 X0.99617 Y-0.83682
G01 X0.99383 Y-0.83957
G01 X0.99133 Y-0.84218
G01 X0.98867 Y-0.84463
G01 X0.98587 Y-0.84691
G01 X0.98293 Y-0.84902
G01 X0.97987 Y-0.85094
G01 X0.97670 Y-0.85267
G01 X0.97306 Y-0.85437
G01 X0.96932 Y-0.85581
G01 X0.96586 Y-0.85688
G01 X0.96196 Y-0.85783
G01 X0.95840 Y-0.85845
G01 X0.95481 Y-0.85886
G01 X0.95080 Y-0.85905
G01 X0.79430 Y-0.85905
G00 Z0.03937
G01 X0.65650 Y-0.85905
G01 Z-0.03071 F4.92126
G01 F9.84252
G01 X0.50000 Y-0.85906
G01 X0.49439 Y-0.85879
G01 X0.48922 Y-0.85806
G01 X0.48375 Y-0.85677
G01 X0.47842 Y-0.85497
G01 X0.47330 Y-0.85267
G01 X0.46841 Y-0.84990
G01 X0.46413 Y-0.84691
G01 X0.46013 Y-0.84356
G01 X0.45617 Y-0.83957
G01 X0.45260 Y-0.83523
G01 X0.44968 Y-0.83091
G01 X0.44697 Y-0.82598
G01 X0.44488 Y-0.82120
G01 X0.44322 Y-0.81625
G01 X0.44194 Y-0.81078
G01 X0.44117 Y-0.80521
G01 X0.44094 Y-0.80000
G01 Z-0.04606 F4.92126 ( plunge. )
G04 P0 ( dwell for no time -- G64 should not smooth over this point )
G01 F9.84252
G01 X0.44094 Y-0.71890
G00 Z0.03937
G01 X0.44094 Y-0.58110
G01 Z-0.04606 F4.92126
G01 F9.84252
G01 X0.44094 Y-0.50000
G01 X0.44114 Y-0.49519
G01 X0.44155 Y-0.49160
G01 X0.44217 Y-0.48804
G01 X0.44301 Y-0.48452
G01 X0.44406 Y-0.48106
G01 X0.44533 Y-0.47768
G01 X0.44679 Y-0.47438
G01 X0.45010 Y-0.46841
G01 X0.45213 Y-0.46542
G01 X0.45433 Y-0.46255
G01 X0.45896 Y-0.45754
G01 X0.46163 Y-0.45511
G01 X0.46445 Y-0.45284
G01 X0.47013 Y-0.44906
G01 X0.47330 Y-0.44733
G01 X0.47694 Y-0.44563
G01 X0.48068 Y-0.44419
G01 X0.48413 Y-0.44312
G01 X0.48804 Y-0.44217
G01 X0.49160 Y-0.44155
G01 X0.49519 Y-0.44114
G01 X0.49920 Y-0.44095
G01 X0.65690 Y-0.44097
G00 Z0.03937
G01 X0.79470 Y-0.44098
G01 Z-0.04606 F4.92126
G01 F9.84252
G01 X0.95241 Y-0.44099
G01 X0.95601 Y-0.44125
G01 X0.95959 Y-0.44173
G01 X0.96314 Y-0.44243
G01 X0.96702 Y-0.44345
G01 X0.97083 Y-0.44474
G01 X0.97417 Y-0.44611
G01 X0.97742 Y-0.44769
G01 X0.98056 Y-0.44947
G01 X0.98360 Y-0.45143
G01 X0.98650 Y-0.45358
G01 X0.98928 Y-0.45590
G01 X0.99190 Y-0.45838
G01 X0.99437 Y-0.46102
G01 X0.99691 Y-0.46413
G01 X0.99902 Y-0.46707
G01 X1.00094 Y-0.47013
G01 X1.00267 Y-0.47330
G01 X1.00421 Y-0.47657
G01 X1.00554 Y-0.47993
G01 X1.00677 Y-0.48375
G01 X1.00766 Y-0.48725
G01 X1.00833 Y-0.49080
G01 X1.00882 Y-0.49479
G01 X1.00903 Y-0.49839
G01 X1.00901 Y-0.58190
G00 Z0.03937
G01 X1.00899 Y-0.71970
G01 Z-0.04606 F4.92126
G01 F9.84252
G01 X1.00897 Y-0.80321
G01 X1.00861 Y-0.80721
G01 X1.00813 Y-0.81039
G01 X1.00739 Y-0.81392
G01 X1.00643 Y-0.81741
G01 X1.00526 Y-0.82083
G01 X1.00388 Y-0.82417
G01 X1.00231 Y-0.82742
G01 X1.00032 Y-0.83091
G01 X0.99834 Y-0.83393
G01 X0.99617 Y-0.83682
G01 X0.99383 Y-0.83957
G01 X0.99133 Y-0.84218
G01 X0.98867 Y-0.84463
G01 X0.98587 Y-0.84691
G01 X0.98293 Y-0.84902
G01 X0.97987 Y-0.85094
G01 X0.97670 Y-0.85267
G01 X0.97306 Y-0.85437
G01 X0.96932 Y-0.85581
G01 X0.96586 Y-0.85688
G01 X0.96196 Y-0.85783
G01 X0.95840 Y-0.85845
G01 X0.95481 Y-0.85886
G01 X0.95080 Y-0.85905
G01 X0.79430 Y-0.85905
G00 Z0.03937
G01 X0.65650 Y-0.85905
G01 Z-0.04606 F4.92126
G01 F9.84252
G01 X0.50000 Y-0.85906
G01 X0.49439 Y-0.85879
G01 X0.48922 Y-0.85806
G01 X0.48375 Y-0.85677
G01 X0.47842 Y-0.85497
G01 X0.47330 Y-0.85267
G01 X0.46841 Y-0.84990
G01 X0.46413 Y-0.84691
G01 X0.46013 Y-0.84356
G01 X0.45617 Y-0.83957
G01 X0.45260 Y-0.83523
G01 X0.44968 Y-0.83091
G01 X0.44697 Y-0.82598
G01 X0.44488 Y-0.82120
G01 X0.44322 Y-0.81625
G01 X0.44194 Y-0.81078
G01 X0.44117 Y-0.80521
G01 X0.44094 Y-0.80000
G01 Z-0.06142 F4.92126 ( plunge. )
G04 P0 ( dwell for no time -- G64 should not smooth over this point )
G01 F9.84252
G01 X0.44094 Y-0.71890
G00 Z0.03937
G01 X0.44094 Y-0.58110
G01 Z-0.06142 F4.92126
G01 F9.84252
G01 X0.44094 Y-0.50000
G01 X0.44114 Y-0.49519
G01 X0.44155 Y-0.49160
G01 X0.44217 Y-0.48804
G01 X0.44301 Y-0.48452
G01 X0.44406 Y-0.48106
G01 X0.44533 Y-0.47768
G01 X0.44679 Y-0.47438
G01 X0.45010 Y-0.46841
G01 X0.45213 Y-0.46542
G01 X0.45433 Y-0.46255
G01 X0.45896 Y-0.45754
G01 X0.46163 Y-0.45511
G01 X0.46445 Y-0.45284
G01 X0.47013 Y-0.44906
G01 X0.47330 Y-0.44733
G01 X0.47694 Y-0.44563
G01 X0.48068 Y-0.44419
G01 X0.48413 Y-0.44312
G01 X0.48804 Y-0.44217
G01 X0.49160 Y-0.44155
G01 X0.49519 Y-0.44114
G01 X0.49920 Y-0.44095
G01 X0.65690 Y-0.44097
G00 Z0.03937
G01 X0.79470 Y-0.44098
G01 Z-0.06142 F4.92126
G01 F9.84252
G01 X0.95241 Y-0.44099
G01 X0.95601 Y-0.44125
G01 X0.95959 Y-0.44173
G01 X0.96314 Y-0.44243
G01 X0.96702 Y-0.44345
G01 X0.97083 Y-0.44474
G01 X0.97417 Y-0.44611
G01 X0.97742 Y-0.44769
G01 X0.98056 Y-0.44947
G01 X0.98360 Y-0.45143
G01 X0.98650 Y-0.45358
G01 X0.98928 Y-0.45590
G01 X0.99190 Y-0.45838
G01 X0.99437 Y-0.46102
G01 X0.99691 Y-0.46413
G01 X0.99902 Y-0.46707
G01 X1.00094 Y-0.47013
G01 X1.00267 Y-0.47330
G01 X1.00421 Y-0.47657
G01 X1.00554 Y-0.47993
G01 X1.00677 Y-0.48375
G01 X1.00766 Y-0.48725
G01 X1.00833 Y-0.49080
G01 X1.00882 Y-0.49479
G01 X1.00903 Y-0.49839
G01 X1.00901 Y-0.58190
G00 Z0.03937
G01 X1.00899 Y-0.71970
G01 Z-0.06142 F4.92126
G01 F9.84252
G01 X1.00897 Y-0.80321
G01 X1.00861 Y-0.80721
G01 X1.00813 Y-0.81039
G01 X1.00739 Y-0.81392
G01 X1.00643 Y-0.81741
G01 X1.00526 Y-0.82083
G01 X1.00388 Y-0.82417
G01 X1.00231 Y-0.82742
G01 X1.00032 Y-0.83091
G01 X0.99834 Y-0.83393
G01 X0.99617 Y-0.83682
G01 X0.99383 Y-0.83957
G01 X0.99133 Y-0.84218
G01 X0.98867 Y-0.84463
G01 X0.98587 Y-0.84691
G01 X0.98293 Y-0.84902
G01 X0.97987 Y-0.85094
G01 X0.97670 Y-0.85267
G01 X0.97306 Y-0.85437
G01 X0.96932 Y-0.85581
G01 X0.96586 Y-0.85688
G01 X0.96196 Y-0.85783
G01 X0.95840 Y-0.85845
G01 X0.95481 Y-0.85886
G01 X0.95080 Y-0.85905
G01 X0.79430 Y-0.85905
G00 Z0.03937
G01 X0.65650 Y-0.85905
G01 Z-0.06142 F4.92126
G01 F9.84252
G01 X0.50000 Y-0.85906
G01 X0.49439 Y-0.85879
G01 X0.48922 Y-0.85806
G01 X0.48375 Y-0.85677
G01 X0.47842 Y-0.85497
G01 X0.47330 Y-0.85267
G01 X0.46841 Y-0.84990
G01 X0.46413 Y-0.84691
G01 X0.46013 Y-0.84356
G01 X0.45617 Y-0.83957
G01 X0.45260 Y-0.83523
G01 X0.44968 Y-0.83091
G01 X0.44697 Y-0.82598
G01 X0.44488 Y-0.82120
G01 X0.44322 Y-0.81625
G01 X0.44194 Y-0.81078
G01 X0.44117 Y-0.80521
G01 X0.44094 Y-0.80000

G04 P0 ( dwell for no time -- G64 should not smooth over this point )
G00 Z0.787402 ( retract )

M5 ( Spindle off. )
G04 P1.000000
M9 ( Coolant off. )
M2 ( Program end. )

