( pcb2gcode 2.2.1 )
( Software-independent Gcode )

G94 ( Inches per minute feed rate. )
G20 ( Units == INCHES. )

G90 ( Absolute coordinates. )
G00 S12000 ( RPM spindle speed. )
G01 F9.84252 ( Feedrate. )


G00 Z0.78740 (Retract to tool change height)
T0
M5      (Spindle stop.)
G04 P1.00000 (Wait for spindle to stop)
(MSG, Change tool bit to cutter diameter 0.11811in)
M6      (Tool change.)
M0      (Temporary machine stop.)
M3 ( Spindle on clockwise. )
G04 P1.00000 (Wait for spindle to get up to speed)
G04 P0 ( dwell for no time -- G64 should not smooth over this point )
G00 Z0.03937 ( retract )

G00 X0.44094 Y-0.80000 ( rapid move to begin. )
G01 Z-0.01535 F4.92126 ( plunge. )
G04 P0 ( dwell for no time -- G64 should not smooth over this point )
G01 F9.84252
G01 X0.44094 Y-0.71890
G00 Z0.03937
G01 X0.44094 Y-0.58110
G01 Z-0.01535 F4.92126
G01 F9.84252
G01 X0.44094 Y-0.50000
G01 X0.44208 Y-0.48848
G01 X0.44544 Y-0.47740
G01 X0.45090 Y-0.46719
G01 X0.45824 Y-0.45824
G01 X0.46719 Y-0.45090
G01 X0.47740 Y-0.44544
G01 X0.48848 Y-0.44208
G01 X0.50000 Y-0.44094
G01 X0.65610 Y-0.44094
G00 Z0.03937
G01 X0.79390 Y-0.44094
G01 Z-0.01535 F4.92126
G01 F9.84252
G01 X0.95000 Y-0.44094
G01 X0.96152 Y-0.44208
G01 X0.97260 Y-0.44544
G01 X0.98281 Y-0.45090
G01 X0.99176 Y-0.45824
G01 X0.99910 Y-0.46719
G01 X1.00456 Y-0.47740
G01 X1.00792 Y-0.48848
G01 X1.00906 Y-0.50000
G01 X1.00906 Y-0.58110
G00 Z0.03937
G01 X1.00906 Y-0.71890
G01 Z-0.01535 F4.92126
G01 F9.84252
G01 X1.00906 Y-0.80000
G01 X1.00792 Y-0.81152
G01 X1.00456 Y-0.82260
G01 X0.99910 Y-0.83281
G01 X0.99176 Y-0.84176
G01 X0.98281 Y-0.84910
G01 X0.97260 Y-0.85456
G01 X0.96152 Y-0.85792
G01 X0.95000 Y-0.85906
G01 X0.79390 Y-0.85906
G00 Z0.03937
G01 X0.65610 Y-0.85906
G01 Z-0.01535 F4.92126
G01 F9.84252
G01 X0.50000 Y-0.85906
G01 X0.48848 Y-0.85792
G01 X0.47740 Y-0.85456
G01 X0.46719 Y-0.84910
G01 X0.45824 Y-0.84176
G01 X0.45090 Y-0.83281
G01 X0.44544 Y-0.82260
G01 X0.44208 Y-0.81152
G01 X0.44094 Y-0.80000
G01 Z-0.03071 F4.92126 ( plunge. )
G04 P0 ( dwell for no time -- G64 should not smooth over this point )
G01 F9.84252
G01 X0.44094 Y-0.71890
G00 Z0.03937
G01 X0.44094 Y-0.58110
G01 Z-0.03071 F4.92126
G01 F9.84252
G01 X0.44094 Y-0.50000
G01 X0.44208 Y-0.48848
G01 X0.44544 Y-0.47740
G01 X0.45090 Y-0.46719
G01 X0.45824 Y-0.45824
G01 X0.46719 Y-0.45090
G01 X0.47740 Y-0.44544
G01 X0.48848 Y-0.44208
G01 X0.50000 Y-0.44094
G01 X0.65610 Y-0.44094
G00 Z0.03937
G01 X0.79390 Y-0.44094
G01 Z-0.03071 F4.92126
G01 F9.84252
G01 X0.95000 Y-0.44094
G01 X0.96152 Y-0.44208
G01 X0.97260 Y-0.44544
G01 X0.98281 Y-0.45090
G01 X0.99176 Y-0.45824
G01 X0.99910 Y-0.46719
G01 X1.00456 Y-0.47740
G01 X1.00792 Y-0.48848
G01 X1.00906 Y-0.50000
G01 X1.00906 Y-0.58110
G00 Z0.03937
G01 X1.00906 Y-0.71890
G01 Z-0.03071 F4.92126
G01 F9.84252
G01 X1.00906 Y-0.80000
G01 X1.00792 Y-0.81152
G01 X1.00456 Y-0.82260
G01 X0.99910 Y-0.83281
G01 X0.99176 Y-0.84176
G01 X0.98281 Y-0.84910
G01 X0.97260 Y-0.85456
G01 X0.96152 Y-0.85792
G01 X0.95000 Y-0.85906
G01 X0.79390 Y-0.85906
G00 Z0.03937
G01 X0.65610 Y-0.85906
G01 Z-0.03071 F4.92126
G01 F9.84252
G01 X0.50000 Y-0.85906
G01 X0.48848 Y-0.85792
G01 X0.47740 Y-0.85456
G01 X0.46719 Y-0.84910
G01 X0.45824 Y-0.84176
G01 X0.45090 Y-0.83281
G01 X0.44544 Y-0.82260
G01 X0.44208 Y-0.81152
G01 X0.44094 Y-0.80000
G01 Z-0.04606 F4.92126 ( plunge. )
G04 P0 ( dwell for no time -- G64 should not smooth over this point )
G01 F9.84252
G01 X0.44094 Y-0.71890
G00 Z0.03937
G01 X0.44094 Y-0.58110
G01 Z-0.04606 F4.92126
G01 F9.84252
G01 X0.44094 Y-0.50000
G01 X0.44208 Y-0.48848
G01 X0.44544 Y-0.47740
G01 X0.45090 Y-0.46719
G01 X0.45824 Y-0.45824
G01 X0.46719 Y-0.45090
G01 X0.47740 Y-0.44544
G01 X0.48848 Y-0.44208
G01 X0.50000 Y-0.44094
G01 X0.65610 Y-0.44094
G00 Z0.03937
G01 X0.79390 Y-0.44094
G01 Z-0.04606 F4.92126
G01 F9.84252
G01 X0.95000 Y-0.44094
G01 X0.96152 Y-0.44208
G01 X0.97260 Y-0.44544
G01 X0.98281 Y-0.45090
G01 X0.99176 Y-0.45824
G01 X0.99910 Y-0.46719
G01 X1.00456 Y-0.47740
G01 X1.00792 Y-0.48848
G01 X1.00906 Y-0.50000
G01 X1.00906 Y-0.58110
G00 Z0.03937
G01 X1.00906 Y-0.71890
G01 Z-0.04606 F4.92126
G01 F9.84252
G01 X1.00906 Y-0.80000
G01 X1.00792 Y-0.81152
G01 X1.00456 Y-0.82260
G01 X0.99910 Y-0.83281
G01 X0.99176 Y-0.84176
G01 X0.98281 Y-0.84910
G01 X0.97260 Y-0.85456
G01 X0.96152 Y-0.85792
G01 X0.95000 Y-0.85906
G01 X0.79390 Y-0.85906
G00 Z0.03937
G01 X0.65610 Y-0.85906
G01 Z-0.04606 F4.92126
G01 F9.84252
G01 X0.50000 Y-0.85906
G01 X0.48848 Y-0.85792
G01 X0.47740 Y-0.85456
G01 X0.46719 Y-0.84910
G01 X0.45824 Y-0.84176
G01 X0.45090 Y-0.83281
G01 X0.44544 Y-0.82260
G01 X0.44208 Y-0.81152
G01 X0.44094 Y-0.80000
G01 Z-0.06142 F4.92126 ( plunge. )
G04 P0 ( dwell for no time -- G64 should not smooth over this point )
G01 F9.84252
G01 X0.44094 Y-0.71890
G00 Z0.03937
G01 X0.44094 Y-0.58110
G01 Z-0.06142 F4.92126
G01 F9.84252
G01 X0.44094 Y-0.50000
G01 X0.44208 Y-0.48848
G01 X0.44544 Y-0.47740
G01 X0.45090 Y-0.46719
G01 X0.45824 Y-0.45824
G01 X0.46719 Y-0.45090
G01 X0.47740 Y-0.44544
G01 X0.48848 Y-0.44208
G01 X0.50000 Y-0.44094
G01 X0.65610 Y-0.44094
G00 Z0.03937
G01 X0.79390 Y-0.44094
G01 Z-0.06142 F4.92126
G01 F9.84252
G01 X0.95000 Y-0.44094
G01 X0.96152 Y-0.44208
G01 X0.97260 Y-0.44544
G01 X0.98281 Y-0.45090
G01 X0.99176 Y-0.45824
G01 X0.99910 Y-0.46719
G01 X1.00456 Y-0.47740
G01 X1.00792 Y-0.48848
G01 X1.00906 Y-0.50000
G01 X1.00906 Y-0.58110
G00 Z0.03937
G01 X1.00906 Y-0.71890
G01 Z-0.06142 F4.92126
G01 F9.84252
G01 X1.00906 Y-0.80000
G01 X1.00792 Y-0.81152
G01 X1.00456 Y-0.82260
G01 X0.99910 Y-0.83281
G01 X0.99176 Y-0.84176
G01 X0.98281 Y-0.84910
G01 X0.97260 Y-0.85456
G01 X0.96152 Y-0.85792
G01 X0.95000 Y-0.85906
G01 X0.79390 Y-0.85906
G00 Z0.03937
G01 X0.65610 Y-0.85906
G01 Z-0.06142 F4.92126
G01 F9.84252
G01 X0.50000 Y-0.85906
G01 X0.48848 Y-0.85792
G01 X0.47740 Y-0.85456
G01 X0.46719 Y-0.84910
G01 X0.45824 Y-0.84176
G01 X0.45090 Y-0.83281
G01 X0.44544 Y-0.82260
G01 X0.44208 Y-0.81152
G01 X0.44094 Y-0.80000

G04 P0 ( dwell for no time -- G64 should not smooth over this point )
G00 Z0.787402 ( retract )

M5 ( Spindle off. )
G04 P1.000000
M9 ( Coolant off. )
M2 ( Program end. )

