( pcb2gcode 2.0.0 )
( Software-independent Gcode )

G94 ( Millimeters per minute feed rate. )
G21 ( Units == Millimeters. )

G90 ( Absolute coordinates. )
G00 S12000 ( RPM spindle speed. )
G01 F100.00000 ( Feedrate. )


G00 Z10.00000 (Retract to tool change height)
T0
M5      (Spindle stop.)
G04 P1.00000 (Wait for spindle to stop)
(MSG, Change tool bit to mill diameter 0.45000mm)
M6      (Tool change.)
M0      (Temporary machine stop.)
M3 ( Spindle on clockwise. )
G04 P1.00000 (Wait for spindle to get up to speed)
G04 P0 ( dwell for no time -- G64 should not smooth over this point )
G00 Z0.50000 ( retract )

G00 X0.00000 Y0.33919 ( rapid move to begin. )
G01 F25.00000
( Mill infeed pass 1/1 )
G01 Z-0.15000
G04 P0 ( dwell for no time -- G64 should not smooth over this point )
G01 F100.00000
G01 X0.00000 Y0.33919
G01 X0.00000 Y9.82076
G01 X0.03914 Y9.88830
G01 X0.08293 Y9.95002
G01 X0.13338 Y10.00646
G01 X0.20993 Y10.07702
G01 X0.29573 Y10.13595
G01 X0.33924 Y10.16000
G01 X14.90071 Y10.16000
G01 X14.96830 Y10.12081
G01 X15.03002 Y10.07702
G01 X15.08646 Y10.02657
G01 X15.15702 Y9.95002
G01 X15.21595 Y9.86422
G01 X15.23997 Y9.82071
G01 X15.23997 Y0.33924
G01 X15.20081 Y0.27165
G01 X15.15702 Y0.20993
G01 X15.10657 Y0.15349
G01 X15.03002 Y0.08293
G01 X14.94422 Y0.02400
G01 X14.90076 Y0.00000
G01 X0.33919 Y0.00000
G01 X0.27165 Y0.03914
G01 X0.20993 Y0.08293
G01 X0.15349 Y0.13338
G01 X0.08293 Y0.20993
G01 X0.03914 Y0.27165
G01 X0.00000 Y0.33919
G01 X0.13297 Y0.70998
G01 X0.13297 Y9.44999
G01 X0.13579 Y9.50036
G01 X0.14745 Y9.57837
G01 X0.17079 Y9.65370
G01 X0.19012 Y9.70034
G01 X0.22964 Y9.76859
G01 X0.25885 Y9.80973
G01 X0.31260 Y9.86747
G01 X0.35022 Y9.90110
G01 X0.39136 Y9.93031
G01 X0.45961 Y9.96983
G01 X0.53307 Y9.99853
G01 X0.58158 Y10.01250
G01 X0.63132 Y10.02096
G01 X0.70998 Y10.02698
G01 X14.52999 Y10.02698
G01 X14.58036 Y10.02416
G01 X14.65837 Y10.01250
G01 X14.73370 Y9.98916
G01 X14.78034 Y9.96983
G01 X14.84859 Y9.93031
G01 X14.88973 Y9.90110
G01 X14.92735 Y9.86747
G01 X14.98110 Y9.80973
G01 X15.01031 Y9.76859
G01 X15.04983 Y9.70034
G01 X15.06916 Y9.65370
G01 X15.09250 Y9.57837
G01 X15.10416 Y9.50036
G01 X15.10698 Y9.44999
G01 X15.10698 Y0.70998
G01 X15.10416 Y0.65959
G01 X15.09250 Y0.58158
G01 X15.06916 Y0.50625
G01 X15.04983 Y0.45961
G01 X15.02542 Y0.41542
G01 X14.98110 Y0.35022
G01 X14.92735 Y0.29248
G01 X14.88973 Y0.25885
G01 X14.84859 Y0.22964
G01 X14.78034 Y0.19012
G01 X14.70688 Y0.16142
G01 X14.65837 Y0.14745
G01 X14.60863 Y0.13899
G01 X14.52999 Y0.13297
G01 X0.70998 Y0.13297
G01 X0.65959 Y0.13579
G01 X0.58158 Y0.14745
G01 X0.50625 Y0.17079
G01 X0.45961 Y0.19012
G01 X0.39136 Y0.22964
G01 X0.35022 Y0.25885
G01 X0.31260 Y0.29248
G01 X0.25885 Y0.35022
G01 X0.21453 Y0.41542
G01 X0.19012 Y0.45961
G01 X0.17079 Y0.50625
G01 X0.14745 Y0.58158
G01 X0.13579 Y0.65959
G01 X0.13297 Y0.70998
G01 X0.35796 Y0.70998
G01 X0.36680 Y0.63165
G01 X0.38316 Y0.58054
G01 X0.40500 Y0.53515
G01 X0.45159 Y0.47168
G01 X0.49050 Y0.43477
G01 X0.55725 Y0.39284
G01 X0.63165 Y0.36680
G01 X0.70998 Y0.35796
G01 X14.52999 Y0.35796
G01 X14.58344 Y0.36256
G01 X14.63256 Y0.37379
G01 X14.68270 Y0.39284
G01 X14.72888 Y0.42017
G01 X14.76827 Y0.45159
G01 X14.80518 Y0.49050
G01 X14.84711 Y0.55725
G01 X14.87315 Y0.63165
G01 X14.88199 Y0.70998
G01 X14.88199 Y9.44999
G01 X14.87315 Y9.52830
G01 X14.85679 Y9.57941
G01 X14.83492 Y9.62480
G01 X14.78836 Y9.68827
G01 X14.74945 Y9.72518
G01 X14.68270 Y9.76711
G01 X14.60830 Y9.79315
G01 X14.52999 Y9.80199
G01 X0.70998 Y9.80199
G01 X0.65651 Y9.79739
G01 X0.60739 Y9.78616
G01 X0.55725 Y9.76711
G01 X0.51107 Y9.73978
G01 X0.47168 Y9.70836
G01 X0.43477 Y9.66945
G01 X0.39284 Y9.60270
G01 X0.36680 Y9.52830
G01 X0.35796 Y9.44999
G01 X0.35796 Y0.70998
G04 P0 ( dwell for no time -- G64 should not smooth over this point )
G00 Z0.50000 ( retract )

G00 X5.33697 Y4.62585 ( rapid move to begin. )
G01 F25.00000
( Mill infeed pass 1/1 )
G01 Z-0.15000
G04 P0 ( dwell for no time -- G64 should not smooth over this point )
G01 F100.00000
G01 X5.33697 Y4.62585
G01 X5.68455 Y3.78676
G01 X6.32676 Y3.14455
G01 X7.16585 Y2.79697
G01 X8.07410 Y2.79697
G01 X8.91319 Y3.14455
G01 X9.55540 Y3.78676
G01 X9.90298 Y4.62585
G01 X9.90298 Y5.53410
G01 X9.55540 Y6.37319
G01 X8.91319 Y7.01540
G01 X8.07410 Y7.36298
G01 X7.16585 Y7.36298
G01 X6.32676 Y7.01540
G01 X5.68455 Y6.37319
G01 X5.33697 Y5.53410
G01 X5.33697 Y4.62585
G01 X5.38853 Y4.63608
G01 X5.40578 Y4.58036
G01 X5.55061 Y4.18777
G01 X5.73021 Y3.81726
G01 X5.80387 Y3.72608
G01 X6.09181 Y3.42268
G01 X6.35815 Y3.19151
G01 X6.51314 Y3.10802
G01 X6.94804 Y2.92425
G01 X7.17702 Y2.85316
G01 X7.41093 Y2.83144
G01 X7.82904 Y2.83144
G01 X8.06290 Y2.85316
G01 X8.34260 Y2.94297
G01 X8.72681 Y3.10805
G01 X8.88180 Y3.19151
G01 X9.10928 Y3.38579
G01 X9.43605 Y3.72608
G01 X9.50973 Y3.81726
G01 X9.68934 Y4.18777
G01 X9.83417 Y4.58036
G01 X9.85142 Y4.63608
G01 X9.87328 Y5.05336
G01 X9.85142 Y5.52384
G01 X9.83417 Y5.57959
G01 X9.68934 Y5.97218
G01 X9.50973 Y6.34266
G01 X9.47265 Y6.39100
G01 X9.43605 Y6.43387
G01 X9.14814 Y6.73725
G01 X8.88180 Y6.96841
G01 X8.72681 Y7.05190
G01 X8.34260 Y7.21698
G01 X8.06290 Y7.30679
G01 X7.82904 Y7.32851
G01 X7.41093 Y7.32851
G01 X7.17702 Y7.30679
G01 X6.89734 Y7.21698
G01 X6.51314 Y7.05190
G01 X6.35813 Y6.96841
G01 X6.09181 Y6.73727
G01 X5.80390 Y6.43387
G01 X5.73021 Y6.34266
G01 X5.55061 Y5.97218
G01 X5.40578 Y5.57959
G01 X5.38876 Y5.52468
G01 X5.36666 Y5.10662
G01 X5.39499 Y5.08000
G01 X5.43992 Y5.51932
G01 X5.44970 Y5.56534
G01 X5.57891 Y5.96298
G01 X5.59803 Y6.00596
G01 X5.80710 Y6.36806
G01 X5.83474 Y6.40611
G01 X6.11452 Y6.71683
G01 X6.14947 Y6.74830
G01 X6.50745 Y7.00689
G01 X6.91043 Y7.18764
G01 X6.95518 Y7.20220
G01 X7.36415 Y7.28911
G01 X7.41093 Y7.29404
G01 X7.82904 Y7.29404
G01 X7.87583 Y7.28911
G01 X8.28479 Y7.20220
G01 X8.32955 Y7.18764
G01 X8.71151 Y7.01759
G01 X8.75223 Y6.99407
G01 X9.09051 Y6.74830
G01 X9.12546 Y6.71683
G01 X9.42005 Y6.38782
G01 X9.65264 Y5.98498
G01 X9.79028 Y5.56534
G01 X9.80006 Y5.51932
G01 X9.84499 Y5.08000
G01 X9.80006 Y4.64066
G01 X9.79028 Y4.59463
G01 X9.66107 Y4.19699
G01 X9.64194 Y4.15402
G01 X9.43287 Y3.79192
G01 X9.40524 Y3.75387
G01 X9.10880 Y3.42649
G01 X8.73249 Y3.15308
G01 X8.32955 Y2.97233
G01 X8.28479 Y2.95778
G01 X7.85256 Y2.86718
G01 X7.41093 Y2.86593
G01 X7.36415 Y2.87086
G01 X6.93242 Y2.96388
G01 X6.52843 Y3.14239
G01 X6.48774 Y3.16591
G01 X6.13118 Y3.42649
G01 X5.83474 Y3.75387
G01 X5.80710 Y3.79192
G01 X5.59803 Y4.15402
G01 X5.57891 Y4.19699
G01 X5.44360 Y4.61739
G01 X5.39499 Y5.08000
G01 X5.36666 Y5.10662
G01 X5.38853 Y4.63608

G04 P0 ( dwell for no time -- G64 should not smooth over this point )
G00 Z10.000000 ( retract )

M5 ( Spindle off. )
G04 P1.000000
M9 ( Coolant off. )
M2 ( Program end. )

