( pcb2gcode 2.2.2 )
( Software-independent Gcode )

G94 ( Millimeters per minute feed rate. )
G21 ( Units == Millimeters. )

G90 ( Absolute coordinates. )
G00 S12000 ( RPM spindle speed. )
G01 F100.00000 ( Feedrate. )


G00 Z10.00000 (Retract to tool change height)
T0
M5      (Spindle stop.)
G04 P1.00000 (Wait for spindle to stop)
(MSG, Change tool bit to mill diameter 0.45000mm)
M6      (Tool change.)
M0      (Temporary machine stop.)
M3 ( Spindle on clockwise. )
G04 P1.00000 (Wait for spindle to get up to speed)
G04 P0 ( dwell for no time -- G64 should not smooth over this point )
G00 Z0.50000 ( retract )

G00 X0.00000 Y0.33917 ( rapid move to begin. )
G01 F25.00000
( Mill infeed pass 1/1 )
G01 Z-0.15000
G04 P0 ( dwell for no time -- G64 should not smooth over this point )
G01 F100.00000
G01 X0.00000 Y0.33917
G01 X0.00000 Y9.81009
G01 X0.08283 Y9.94837
G01 X0.09863 Y9.96762
G01 X0.16721 Y10.03965
G01 X0.28682 Y10.12833
G01 X0.34610 Y10.15997
G01 X14.89385 Y10.15997
G01 X14.97533 Y10.11644
G01 X15.07752 Y10.03254
G01 X15.11254 Y9.99752
G01 X15.19644 Y9.89533
G01 X15.24000 Y9.81385
G01 X15.23997 Y0.34610
G01 X15.19644 Y0.26464
G01 X15.11262 Y0.16248
G01 X15.00236 Y0.06253
G01 X14.91839 Y0.00940
G01 X14.90078 Y0.00000
G01 X0.33917 Y0.00000
G01 X0.32141 Y0.00947
G01 X0.16243 Y0.12738
G01 X0.12738 Y0.16243
G01 X0.00947 Y0.32141
G01 X0.00000 Y0.33917
G01 X0.13320 Y0.71008
G01 X0.13564 Y9.47486
G01 X0.14427 Y9.56254
G01 X0.16985 Y9.64682
G01 X0.18882 Y9.69261
G01 X0.25662 Y9.80580
G01 X0.27241 Y9.82505
G01 X0.31814 Y9.87308
G01 X0.41163 Y9.94138
G01 X0.48928 Y9.98286
G01 X0.57353 Y10.00841
G01 X0.62212 Y10.01809
G01 X0.70998 Y10.02675
G01 X14.52999 Y10.02675
G01 X14.59883 Y10.02215
G01 X14.66405 Y10.01085
G01 X14.77269 Y9.97110
G01 X14.85044 Y9.92955
G01 X14.91859 Y9.87361
G01 X14.95362 Y9.83859
G01 X15.00955 Y9.77044
G01 X15.05110 Y9.69269
G01 X15.07007 Y9.64689
G01 X15.09085 Y9.58405
G01 X15.10215 Y9.51883
G01 X15.10675 Y9.44999
G01 X15.10675 Y0.70998
G01 X15.10215 Y0.64115
G01 X15.09083 Y0.57587
G01 X15.05107 Y0.46721
G01 X15.00955 Y0.38951
G01 X14.95367 Y0.32141
G01 X14.86845 Y0.24310
G01 X14.79050 Y0.19591
G01 X14.66634 Y0.15151
G01 X14.61775 Y0.14183
G01 X14.52999 Y0.13320
G01 X0.70998 Y0.13320
G01 X0.62222 Y0.14183
G01 X0.57361 Y0.15151
G01 X0.50983 Y0.16914
G01 X0.44933 Y0.19596
G01 X0.42738 Y0.20770
G01 X0.32136 Y0.28633
G01 X0.28633 Y0.32136
G01 X0.20770 Y0.42738
G01 X0.16914 Y0.50983
G01 X0.14183 Y0.62222
G01 X0.13320 Y0.71008
G01 X0.35796 Y0.71003
G01 X0.36228 Y0.66606
G01 X0.38080 Y0.58557
G01 X0.40594 Y0.53335
G01 X0.44526 Y0.48031
G01 X0.48031 Y0.44526
G01 X0.53335 Y0.40594
G01 X0.55529 Y0.39421
G01 X0.61747 Y0.37196
G01 X0.70998 Y0.35796
G01 X14.52999 Y0.35796
G01 X14.62248 Y0.37196
G01 X14.68458 Y0.39418
G01 X14.70655 Y0.40589
G01 X14.75966 Y0.44529
G01 X14.82265 Y0.51440
G01 X14.84343 Y0.55326
G01 X14.87279 Y0.63050
G01 X14.88199 Y0.70998
G01 X14.88199 Y9.44999
G01 X14.87279 Y9.52942
G01 X14.84343 Y9.60666
G01 X14.82265 Y9.64555
G01 X14.75964 Y9.71466
G01 X14.72555 Y9.74265
G01 X14.64086 Y9.78240
G01 X14.60942 Y9.79279
G01 X14.52999 Y9.80199
G01 X0.70998 Y9.80199
G01 X0.61742 Y9.78797
G01 X0.57528 Y9.77519
G01 X0.53642 Y9.75444
G01 X0.46909 Y9.70651
G01 X0.43040 Y9.66325
G01 X0.39649 Y9.60664
G01 X0.37752 Y9.56084
G01 X0.36474 Y9.51865
G01 X0.36040 Y9.47481
G01 X0.35796 Y0.71003
G04 P0 ( dwell for no time -- G64 should not smooth over this point )
G00 Z0.50000 ( retract )

G00 X5.33697 Y4.62587 ( rapid move to begin. )
G01 F25.00000
( Mill infeed pass 1/1 )
G01 Z-0.15000
G04 P0 ( dwell for no time -- G64 should not smooth over this point )
G01 F100.00000
G01 X5.33697 Y4.62587
G01 X5.68455 Y3.78673
G01 X6.32673 Y3.14455
G01 X7.16587 Y2.79697
G01 X8.07408 Y2.79697
G01 X8.91322 Y3.14455
G01 X9.55540 Y3.78673
G01 X9.90298 Y4.62587
G01 X9.90298 Y5.53408
G01 X9.55540 Y6.37322
G01 X8.91322 Y7.01540
G01 X8.07408 Y7.36298
G01 X7.16587 Y7.36298
G01 X6.32673 Y7.01540
G01 X5.68455 Y6.37322
G01 X5.33697 Y5.53408
G01 X5.33697 Y4.62587
G01 X5.38856 Y4.63613
G01 X5.40578 Y4.58038
G01 X5.40217 Y4.57944
G01 X5.40578 Y4.58038
G01 X5.55061 Y4.18780
G01 X5.73024 Y3.81726
G01 X5.72661 Y3.81483
G01 X5.73024 Y3.81726
G01 X5.80390 Y3.72610
G01 X5.80078 Y3.72387
G01 X5.80390 Y3.72610
G01 X6.13067 Y3.38582
G01 X6.35815 Y3.19154
G01 X6.35569 Y3.18790
G01 X6.35815 Y3.19154
G01 X6.51314 Y3.10802
G01 X6.94766 Y2.92311
G01 X7.17705 Y2.85318
G01 X7.17626 Y2.84960
G01 X7.17705 Y2.85318
G01 X7.35620 Y2.83266
G01 X7.82917 Y2.82994
G01 X8.06290 Y2.85316
G01 X8.06369 Y2.84945
G01 X8.06290 Y2.85316
G01 X8.29239 Y2.92290
G01 X8.72678 Y3.10805
G01 X8.88182 Y3.19154
G01 X8.88423 Y3.18790
G01 X8.88182 Y3.19154
G01 X8.88388 Y3.18854
G01 X8.88182 Y3.19154
G01 X9.14814 Y3.42270
G01 X9.43607 Y3.72610
G01 X9.50973 Y3.81726
G01 X9.51337 Y3.81483
G01 X9.50973 Y3.81726
G01 X9.68934 Y4.18780
G01 X9.83417 Y4.58038
G01 X9.85142 Y4.63611
G01 X9.85578 Y4.63525
G01 X9.85142 Y4.63611
G01 X9.87328 Y5.05336
G01 X9.85142 Y5.52384
G01 X9.85578 Y5.52470
G01 X9.85142 Y5.52384
G01 X9.83417 Y5.57959
G01 X9.68934 Y5.97218
G01 X9.50973 Y6.34268
G01 X9.51337 Y6.34512
G01 X9.50973 Y6.34268
G01 X9.43605 Y6.43387
G01 X9.14814 Y6.73727
G01 X8.88182 Y6.96841
G01 X8.88423 Y6.97207
G01 X8.88182 Y6.96841
G01 X8.88390 Y6.97144
G01 X8.88182 Y6.96841
G01 X8.72678 Y7.05193
G01 X8.34260 Y7.21698
G01 X8.29231 Y7.23684
G01 X8.06290 Y7.30679
G01 X8.06376 Y7.31109
G01 X8.06290 Y7.30679
G01 X7.88375 Y7.32696
G01 X7.82907 Y7.32851
G01 X7.41093 Y7.32851
G01 X7.35622 Y7.32696
G01 X7.17705 Y7.30679
G01 X7.17619 Y7.31109
G01 X7.17705 Y7.30679
G01 X6.94766 Y7.23684
G01 X6.89737 Y7.21700
G01 X6.51314 Y7.05193
G01 X6.35813 Y6.96841
G01 X6.35569 Y6.97207
G01 X6.35813 Y6.96841
G01 X6.13042 Y6.77441
G01 X6.09183 Y6.73727
G01 X5.80390 Y6.43387
G01 X5.73024 Y6.34268
G01 X5.72658 Y6.34512
G01 X5.73024 Y6.34268
G01 X5.57139 Y6.02132
G01 X5.55061 Y5.97218
G01 X5.40581 Y5.57959
G01 X5.38853 Y5.52384
G01 X5.38416 Y5.52470
G01 X5.38853 Y5.52384
G01 X5.36623 Y5.10662
G01 X5.36666 Y5.05336
G01 X5.39623 Y5.05645
G01 X5.43994 Y4.64063
G01 X5.44972 Y4.59466
G01 X5.57891 Y4.19699
G01 X5.59803 Y4.15399
G01 X5.80710 Y3.79192
G01 X5.83476 Y3.75387
G01 X6.11454 Y3.44315
G01 X6.14949 Y3.41168
G01 X6.48774 Y3.16591
G01 X6.52849 Y3.14239
G01 X6.91045 Y2.97233
G01 X6.95515 Y2.95780
G01 X7.36412 Y2.87086
G01 X7.41093 Y2.86593
G01 X7.82907 Y2.86593
G01 X7.87585 Y2.87086
G01 X8.28482 Y2.95780
G01 X8.32952 Y2.97233
G01 X8.71149 Y3.14239
G01 X8.75223 Y3.16591
G01 X9.09048 Y3.41168
G01 X9.12543 Y3.44315
G01 X9.40521 Y3.75387
G01 X9.43287 Y3.79192
G01 X9.64194 Y4.15399
G01 X9.66107 Y4.19699
G01 X9.79025 Y4.59466
G01 X9.80003 Y4.64063
G01 X9.84374 Y5.05645
G01 X9.84374 Y5.10352
G01 X9.80003 Y5.51934
G01 X9.79025 Y5.56532
G01 X9.66107 Y5.96298
G01 X9.64194 Y6.00598
G01 X9.43287 Y6.36806
G01 X9.40521 Y6.40611
G01 X9.12543 Y6.71683
G01 X9.09048 Y6.74830
G01 X8.75223 Y6.99407
G01 X8.71149 Y7.01759
G01 X8.32952 Y7.18764
G01 X8.28482 Y7.20217
G01 X7.87585 Y7.28911
G01 X7.82907 Y7.29404
G01 X7.41093 Y7.29404
G01 X7.36412 Y7.28911
G01 X6.95515 Y7.20217
G01 X6.91045 Y7.18764
G01 X6.52849 Y7.01759
G01 X6.48774 Y6.99407
G01 X6.14949 Y6.74830
G01 X6.11454 Y6.71683
G01 X5.83476 Y6.40611
G01 X5.80710 Y6.36806
G01 X5.59803 Y6.00598
G01 X5.57891 Y5.96298
G01 X5.44972 Y5.56532
G01 X5.43994 Y5.51934
G01 X5.39623 Y5.10352
G01 X5.39623 Y5.05645
G01 X5.36666 Y5.05336
G01 X5.38856 Y4.63613

G04 P0 ( dwell for no time -- G64 should not smooth over this point )
G00 Z10.000000 ( retract )

M5 ( Spindle off. )
G04 P1.000000
M9 ( Coolant off. )
M2 ( Program end. )

