( pcb2gcode 2.2.0 )
( Software-independent Gcode )

G94 ( Millimeters per minute feed rate. )
G21 ( Units == Millimeters. )

G90 ( Absolute coordinates. )
G00 S12000 ( RPM spindle speed. )
G01 F100.00000 ( Feedrate. )


G00 Z10.00000 (Retract to tool change height)
T0
M5      (Spindle stop.)
G04 P1.00000 (Wait for spindle to stop)
(MSG, Change tool bit to mill diameter 0.45000mm)
M6      (Tool change.)
M0      (Temporary machine stop.)
M3 ( Spindle on clockwise. )
G04 P1.00000 (Wait for spindle to get up to speed)
G04 P0 ( dwell for no time -- G64 should not smooth over this point )
G00 Z0.50000 ( retract )

G00 X0.00000 Y0.34605 ( rapid move to begin. )
G01 F25.00000
( Mill infeed pass 1/1 )
G01 Z-0.15000
G04 P0 ( dwell for no time -- G64 should not smooth over this point )
G01 F100.00000
G01 X0.00000 Y0.34605
G01 X0.00000 Y9.81390
G01 X0.03175 Y9.87334
G01 X0.05928 Y9.91456
G01 X0.12035 Y9.99279
G01 X0.19223 Y10.06122
G01 X0.29261 Y10.13417
G01 X0.34392 Y10.15997
G01 X14.89385 Y10.15997
G01 X14.95334 Y10.12820
G01 X14.99456 Y10.10067
G01 X15.07279 Y10.03960
G01 X15.15702 Y9.94847
G01 X15.23047 Y9.83851
G01 X15.23997 Y9.82073
G01 X15.24000 Y0.34168
G01 X15.18067 Y0.24539
G01 X15.11960 Y0.16716
G01 X15.04772 Y0.09873
G01 X14.94734 Y0.02578
G01 X14.89608 Y0.00000
G01 X0.33917 Y0.00000
G01 X0.23757 Y0.06256
G01 X0.12738 Y0.16243
G01 X0.04348 Y0.26464
G01 X0.00000 Y0.34605
G01 X0.13320 Y0.70998
G01 X0.13320 Y9.44999
G01 X0.13536 Y9.49406
G01 X0.15151 Y9.58634
G01 X0.17709 Y9.67069
G01 X0.21867 Y9.74847
G01 X0.28689 Y9.84184
G01 X0.35408 Y9.90326
G01 X0.40818 Y9.94136
G01 X0.51308 Y9.99007
G01 X0.59741 Y10.01568
G01 X0.68511 Y10.02431
G01 X14.52989 Y10.02675
G01 X14.61773 Y10.01812
G01 X14.66634 Y10.00844
G01 X14.75069 Y9.98286
G01 X14.82847 Y9.94128
G01 X14.92184 Y9.87306
G01 X14.98326 Y9.80587
G01 X15.03225 Y9.73257
G01 X15.07081 Y9.65012
G01 X15.09812 Y9.53773
G01 X15.10675 Y9.44999
G01 X15.10675 Y0.70998
G01 X15.09812 Y0.62222
G01 X15.08844 Y0.57361
G01 X15.07322 Y0.51679
G01 X15.05072 Y0.46243
G01 X14.99377 Y0.37028
G01 X14.95306 Y0.31811
G01 X14.88587 Y0.25669
G01 X14.83177 Y0.21859
G01 X14.77267 Y0.18882
G01 X14.66405 Y0.14910
G01 X14.59885 Y0.13780
G01 X14.52999 Y0.13320
G01 X0.70998 Y0.13320
G01 X0.66589 Y0.13536
G01 X0.57361 Y0.15151
G01 X0.50983 Y0.16914
G01 X0.44935 Y0.19596
G01 X0.37147 Y0.24310
G01 X0.28633 Y0.32136
G01 X0.23040 Y0.38953
G01 X0.18882 Y0.46728
G01 X0.16988 Y0.51308
G01 X0.14910 Y0.57589
G01 X0.13780 Y0.64110
G01 X0.13320 Y0.70998
G01 X0.35796 Y0.70998
G01 X0.36716 Y0.63053
G01 X0.37755 Y0.59908
G01 X0.41730 Y0.51440
G01 X0.44526 Y0.48031
G01 X0.50538 Y0.42365
G01 X0.55529 Y0.39421
G01 X0.61747 Y0.37196
G01 X0.70998 Y0.35796
G01 X14.52999 Y0.35796
G01 X14.60942 Y0.36716
G01 X14.71620 Y0.41135
G01 X14.78651 Y0.46906
G01 X14.84912 Y0.56185
G01 X14.86799 Y0.61747
G01 X14.88199 Y0.70998
G01 X14.88199 Y9.44999
G01 X14.87767 Y9.49389
G01 X14.85915 Y9.57438
G01 X14.83401 Y9.62660
G01 X14.80950 Y9.66328
G01 X14.77089 Y9.70651
G01 X14.70358 Y9.75439
G01 X14.66469 Y9.77519
G01 X14.57389 Y9.79767
G01 X14.52994 Y9.80199
G01 X0.68514 Y9.79955
G01 X0.64127 Y9.79521
G01 X0.59908 Y9.78240
G01 X0.52375 Y9.74857
G01 X0.45344 Y9.69089
G01 X0.40554 Y9.62358
G01 X0.38476 Y9.58469
G01 X0.37196 Y9.54248
G01 X0.35796 Y9.44999
G01 X0.35796 Y0.70998
G04 P0 ( dwell for no time -- G64 should not smooth over this point )
G00 Z0.50000 ( retract )

G00 X5.33697 Y4.62585 ( rapid move to begin. )
G01 F25.00000
( Mill infeed pass 1/1 )
G01 Z-0.15000
G04 P0 ( dwell for no time -- G64 should not smooth over this point )
G01 F100.00000
G01 X5.33697 Y4.62585
G01 X5.68455 Y3.78676
G01 X6.32676 Y3.14455
G01 X7.16585 Y2.79697
G01 X8.07410 Y2.79697
G01 X8.91319 Y3.14455
G01 X9.55540 Y3.78676
G01 X9.90298 Y4.62585
G01 X9.90298 Y5.53410
G01 X9.55540 Y6.37319
G01 X8.91319 Y7.01540
G01 X8.07410 Y7.36298
G01 X7.16585 Y7.36298
G01 X6.32676 Y7.01540
G01 X5.68455 Y6.37319
G01 X5.33697 Y5.53410
G01 X5.33697 Y4.62585
G01 X5.38853 Y4.63608
G01 X5.40578 Y4.58036
G01 X5.55061 Y4.18777
G01 X5.73021 Y3.81726
G01 X5.72656 Y3.81483
G01 X5.73021 Y3.81726
G01 X5.80387 Y3.72608
G01 X6.13067 Y3.38579
G01 X6.35815 Y3.19151
G01 X6.35569 Y3.18788
G01 X6.35815 Y3.19151
G01 X6.51314 Y3.10802
G01 X6.89734 Y2.94297
G01 X7.17702 Y2.85316
G01 X7.17624 Y2.84960
G01 X7.17702 Y2.85316
G01 X7.41093 Y2.83144
G01 X7.82914 Y2.82994
G01 X8.06290 Y2.85316
G01 X8.29236 Y2.92288
G01 X8.72681 Y3.10805
G01 X8.88180 Y3.19151
G01 X8.88385 Y3.18851
G01 X8.88180 Y3.19151
G01 X9.14814 Y3.42268
G01 X9.43605 Y3.72608
G01 X9.50973 Y3.81726
G01 X9.51337 Y3.81483
G01 X9.50973 Y3.81726
G01 X9.68934 Y4.18777
G01 X9.83417 Y4.58036
G01 X9.85142 Y4.63608
G01 X9.85578 Y4.63522
G01 X9.85142 Y4.63608
G01 X9.87328 Y5.05336
G01 X9.85142 Y5.52384
G01 X9.85578 Y5.52470
G01 X9.85142 Y5.52384
G01 X9.83417 Y5.57959
G01 X9.68934 Y5.97218
G01 X9.50973 Y6.34266
G01 X9.51337 Y6.34510
G01 X9.50973 Y6.34266
G01 X9.43605 Y6.43387
G01 X9.14814 Y6.73725
G01 X8.88180 Y6.96841
G01 X8.88421 Y6.97207
G01 X8.88180 Y6.96841
G01 X8.72681 Y7.05190
G01 X8.34260 Y7.21698
G01 X8.06290 Y7.30679
G01 X8.06376 Y7.31109
G01 X8.06290 Y7.30679
G01 X7.82904 Y7.32851
G01 X7.41093 Y7.32851
G01 X7.17702 Y7.30679
G01 X7.17616 Y7.31109
G01 X7.17702 Y7.30679
G01 X6.89734 Y7.21698
G01 X6.51314 Y7.05190
G01 X6.35813 Y6.96841
G01 X6.35569 Y6.97207
G01 X6.35813 Y6.96841
G01 X6.09181 Y6.73727
G01 X5.80390 Y6.43387
G01 X5.73021 Y6.34266
G01 X5.72656 Y6.34510
G01 X5.73021 Y6.34266
G01 X5.55061 Y5.97218
G01 X5.40578 Y5.57959
G01 X5.38853 Y5.52384
G01 X5.38416 Y5.52470
G01 X5.38853 Y5.52384
G01 X5.36666 Y5.10662
G01 X5.39499 Y5.08000
G01 X5.44360 Y5.54258
G01 X5.57891 Y5.96298
G01 X5.59803 Y6.00596
G01 X5.80710 Y6.36806
G01 X5.83474 Y6.40611
G01 X6.13118 Y6.73349
G01 X6.50745 Y7.00689
G01 X6.93242 Y7.19610
G01 X7.36415 Y7.28911
G01 X7.41093 Y7.29404
G01 X7.85256 Y7.29280
G01 X8.28479 Y7.20220
G01 X8.32955 Y7.18764
G01 X8.71151 Y7.01759
G01 X8.75223 Y6.99407
G01 X9.10880 Y6.73349
G01 X9.42005 Y6.38782
G01 X9.65264 Y5.98498
G01 X9.79028 Y5.56534
G01 X9.80006 Y5.51932
G01 X9.84499 Y5.08000
G01 X9.80006 Y4.64066
G01 X9.79028 Y4.59463
G01 X9.66107 Y4.19699
G01 X9.64194 Y4.15402
G01 X9.42005 Y3.77215
G01 X9.10880 Y3.42649
G01 X8.73249 Y3.15308
G01 X8.32955 Y2.97233
G01 X8.28479 Y2.95778
G01 X7.85256 Y2.86718
G01 X7.41093 Y2.86593
G01 X7.36415 Y2.87086
G01 X6.93242 Y2.96388
G01 X6.50745 Y3.15308
G01 X6.14947 Y3.41168
G01 X6.11452 Y3.44315
G01 X5.81993 Y3.77215
G01 X5.59803 Y4.15402
G01 X5.57891 Y4.19699
G01 X5.44360 Y4.61739
G01 X5.39499 Y5.08000
G01 X5.36666 Y5.10662
G01 X5.38853 Y4.63608

G04 P0 ( dwell for no time -- G64 should not smooth over this point )
G00 Z10.000000 ( retract )

M5 ( Spindle off. )
G04 P1.000000
M9 ( Coolant off. )
M2 ( Program end. )

