( pcb2gcode 2.5.0 )
( Software-independent Gcode )

G94 ( Millimeters per minute feed rate. )
G21 ( Units == Millimeters. )

G90 ( Absolute coordinates. )
G00 S12000 ( RPM spindle speed. )
G01 F100.00000 ( Feedrate. )


G00 Z10.00000 (Retract to tool change height)
T0
M5      (Spindle stop.)
G04 P1.00000 (Wait for spindle to stop)
(MSG, Change tool bit to mill diameter 0.45000mm)
M6      (Tool change.)
M0      (Temporary machine stop.)
M3 ( Spindle on clockwise. )
G04 P1.00000 (Wait for spindle to get up to speed)
G04 P0 ( dwell for no time -- G64 should not smooth over this point )
G00 Z0.50000 ( retract )

G00 X0.00000 Y0.33917 ( rapid move to begin. )
G01 F25.00000
( Mill infeed pass 1/1 )
G01 Z-0.15000
G04 P0 ( dwell for no time -- G64 should not smooth over this point )
G01 F100.00000
G01 X0.00000 Y0.33917
G01 X0.00000 Y9.81390
G01 X0.04348 Y9.89531
G01 X0.12738 Y9.99752
G01 X0.16243 Y10.03257
G01 X0.32144 Y10.15048
G01 X0.33922 Y10.15997
G01 X14.90073 Y10.15997
G01 X14.91851 Y10.15048
G01 X15.07752 Y10.03257
G01 X15.11257 Y9.99752
G01 X15.23047 Y9.83851
G01 X15.23997 Y9.82073
G01 X15.23997 Y0.33922
G01 X15.23047 Y0.32144
G01 X15.11257 Y0.16243
G01 X15.07752 Y0.12738
G01 X14.91851 Y0.00947
G01 X14.90078 Y0.00000
G01 X0.33917 Y0.00000
G01 X0.32144 Y0.00947
G01 X0.16243 Y0.12738
G01 X0.12738 Y0.16243
G01 X0.00947 Y0.32144
G01 X0.00000 Y0.33917
G01 X0.13320 Y0.71008
G01 X0.13564 Y9.47489
G01 X0.14427 Y9.56257
G01 X0.16988 Y9.64687
G01 X0.18882 Y9.69267
G01 X0.23040 Y9.77041
G01 X0.28633 Y9.83859
G01 X0.32136 Y9.87361
G01 X0.42738 Y9.95225
G01 X0.50983 Y9.99081
G01 X0.57361 Y10.00844
G01 X0.62222 Y10.01812
G01 X0.70998 Y10.02675
G01 X14.52999 Y10.02675
G01 X14.61773 Y10.01812
G01 X14.66634 Y10.00844
G01 X14.73012 Y9.99081
G01 X14.79060 Y9.96399
G01 X14.81257 Y9.95225
G01 X14.91859 Y9.87361
G01 X14.95362 Y9.83859
G01 X15.03225 Y9.73257
G01 X15.07081 Y9.65012
G01 X15.09812 Y9.53773
G01 X15.10675 Y9.44999
G01 X15.10675 Y0.70998
G01 X15.09812 Y0.62222
G01 X15.08844 Y0.57361
G01 X15.07081 Y0.50983
G01 X15.03225 Y0.42738
G01 X14.95362 Y0.32136
G01 X14.91859 Y0.28633
G01 X14.81257 Y0.20770
G01 X14.73012 Y0.16914
G01 X14.66634 Y0.15151
G01 X14.61773 Y0.14183
G01 X14.52999 Y0.13320
G01 X0.70998 Y0.13320
G01 X0.62222 Y0.14183
G01 X0.57361 Y0.15151
G01 X0.50983 Y0.16914
G01 X0.44935 Y0.19596
G01 X0.42738 Y0.20770
G01 X0.32136 Y0.28633
G01 X0.28633 Y0.32136
G01 X0.20770 Y0.42738
G01 X0.16914 Y0.50983
G01 X0.14183 Y0.62222
G01 X0.13320 Y0.71008
G01 X0.35796 Y0.71003
G01 X0.36228 Y0.66606
G01 X0.38080 Y0.58557
G01 X0.40594 Y0.53335
G01 X0.44526 Y0.48031
G01 X0.48031 Y0.44526
G01 X0.53335 Y0.40594
G01 X0.55529 Y0.39421
G01 X0.61747 Y0.37196
G01 X0.70998 Y0.35796
G01 X14.52999 Y0.35796
G01 X14.62248 Y0.37196
G01 X14.65438 Y0.38080
G01 X14.70660 Y0.40594
G01 X14.75964 Y0.44526
G01 X14.79469 Y0.48031
G01 X14.83401 Y0.53335
G01 X14.85915 Y0.58557
G01 X14.86799 Y0.61747
G01 X14.88199 Y0.70998
G01 X14.88199 Y9.44999
G01 X14.86799 Y9.54248
G01 X14.84574 Y9.60465
G01 X14.83401 Y9.62660
G01 X14.79469 Y9.67964
G01 X14.75964 Y9.71469
G01 X14.70660 Y9.75401
G01 X14.65438 Y9.77915
G01 X14.57389 Y9.79767
G01 X14.52999 Y9.80199
G01 X0.70998 Y9.80199
G01 X0.61747 Y9.78799
G01 X0.58557 Y9.77915
G01 X0.53335 Y9.75401
G01 X0.48031 Y9.71469
G01 X0.41730 Y9.64555
G01 X0.37755 Y9.56086
G01 X0.36474 Y9.51868
G01 X0.36040 Y9.47481
G01 X0.35796 Y0.71003
G04 P0 ( dwell for no time -- G64 should not smooth over this point )
G00 Z0.50000 ( retract )

G00 X5.33697 Y4.62585 ( rapid move to begin. )
G01 F25.00000
( Mill infeed pass 1/1 )
G01 Z-0.15000
G04 P0 ( dwell for no time -- G64 should not smooth over this point )
G01 F100.00000
G01 X5.33697 Y4.62585
G01 X5.68455 Y3.78676
G01 X6.32676 Y3.14455
G01 X7.16585 Y2.79697
G01 X8.07410 Y2.79697
G01 X8.91319 Y3.14455
G01 X9.55540 Y3.78676
G01 X9.90298 Y4.62585
G01 X9.90298 Y5.53410
G01 X9.55540 Y6.37319
G01 X8.91319 Y7.01540
G01 X8.07410 Y7.36298
G01 X7.16585 Y7.36298
G01 X6.32676 Y7.01540
G01 X5.68455 Y6.37319
G01 X5.33697 Y5.53410
G01 X5.33697 Y4.62585
G01 X5.39608 Y5.05793
G01 X5.43451 Y4.66776
G01 X5.44309 Y4.62450
G01 X5.55691 Y4.24932
G01 X5.57380 Y4.20855
G01 X5.75861 Y3.86278
G01 X5.78312 Y3.82610
G01 X6.03184 Y3.52303
G01 X6.06303 Y3.49184
G01 X6.36610 Y3.24307
G01 X6.40278 Y3.21861
G01 X6.74855 Y3.03380
G01 X6.78932 Y3.01691
G01 X7.16450 Y2.90309
G01 X7.20776 Y2.89451
G01 X7.59793 Y2.85608
G01 X7.64205 Y2.85608
G01 X8.03222 Y2.89451
G01 X8.07547 Y2.90309
G01 X8.45066 Y3.01691
G01 X8.49142 Y3.03380
G01 X8.83719 Y3.21861
G01 X8.87387 Y3.24307
G01 X9.17694 Y3.49184
G01 X9.20813 Y3.52303
G01 X9.45685 Y3.82610
G01 X9.48136 Y3.86278
G01 X9.66617 Y4.20855
G01 X9.68306 Y4.24932
G01 X9.79688 Y4.62450
G01 X9.80547 Y4.66776
G01 X9.84390 Y5.05793
G01 X9.84390 Y5.10205
G01 X9.80547 Y5.49222
G01 X9.79688 Y5.53547
G01 X9.68306 Y5.91066
G01 X9.66617 Y5.95142
G01 X9.48136 Y6.29719
G01 X9.45685 Y6.33387
G01 X9.20813 Y6.63694
G01 X9.17694 Y6.66813
G01 X8.87387 Y6.91685
G01 X8.83719 Y6.94136
G01 X8.49142 Y7.12617
G01 X8.45066 Y7.14306
G01 X8.07547 Y7.25688
G01 X8.03222 Y7.26547
G01 X7.64205 Y7.30390
G01 X7.59793 Y7.30390
G01 X7.20776 Y7.26547
G01 X7.16450 Y7.25688
G01 X6.78932 Y7.14306
G01 X6.74855 Y7.12617
G01 X6.40278 Y6.94136
G01 X6.36610 Y6.91685
G01 X6.06303 Y6.66813
G01 X6.03184 Y6.63694
G01 X5.78312 Y6.33387
G01 X5.75861 Y6.29719
G01 X5.57380 Y5.95142
G01 X5.55691 Y5.91066
G01 X5.44309 Y5.53547
G01 X5.43451 Y5.49222
G01 X5.39608 Y5.10205
G01 X5.39608 Y5.05793

G04 P0 ( dwell for no time -- G64 should not smooth over this point )
G00 Z10.000000 ( retract )

M5 ( Spindle off. )
G04 P1.000000
M9 ( Coolant off. )
M2 ( Program end. )

