( pcb2gcode 2.0.0 )
( Software-independent Gcode )

G94 ( Millimeters per minute feed rate. )
G21 ( Units == Millimeters. )

G90 ( Absolute coordinates. )
G00 S12000 ( RPM spindle speed. )
G01 F100.00000 ( Feedrate. )


G00 Z10.00000 (Retract to tool change height)
T0
M5      (Spindle stop.)
G04 P1.00000 (Wait for spindle to stop)
(MSG, Change tool bit to mill diameter 0.45000mm)
M6      (Tool change.)
M0      (Temporary machine stop.)
M3 ( Spindle on clockwise. )
G04 P1.00000 (Wait for spindle to get up to speed)
G04 P0 ( dwell for no time -- G64 should not smooth over this point )
G00 Z0.50000 ( retract )

G00 X0.00000 Y0.34511 ( rapid move to begin. )
G01 F25.00000
( Mill infeed pass 1/1 )
G01 Z-0.15000
G04 P0 ( dwell for no time -- G64 should not smooth over this point )
G01 F100.00000
G01 X0.00000 Y0.34511
G01 X0.00000 Y9.81484
G01 X0.03139 Y9.87359
G01 X0.05893 Y9.91479
G01 X0.12001 Y9.99310
G01 X0.19195 Y10.06157
G01 X0.29238 Y10.13455
G01 X0.34293 Y10.16000
G01 X14.89479 Y10.15997
G01 X14.95359 Y10.12855
G01 X14.99479 Y10.10102
G01 X15.07310 Y10.03993
G01 X15.15735 Y9.94875
G01 X15.23088 Y9.83874
G01 X15.23997 Y9.82167
G01 X15.23997 Y0.34079
G01 X15.18102 Y0.24516
G01 X15.11993 Y0.16685
G01 X15.04800 Y0.09837
G01 X14.94757 Y0.02540
G01 X14.89707 Y0.00000
G01 X0.33823 Y0.00000
G01 X0.23731 Y0.06220
G01 X0.12708 Y0.16210
G01 X0.04313 Y0.26439
G01 X0.00000 Y0.34511
G01 X0.13297 Y0.70998
G01 X0.13297 Y9.44999
G01 X0.13513 Y9.49409
G01 X0.15128 Y9.58637
G01 X0.17689 Y9.67080
G01 X0.21847 Y9.74860
G01 X0.28674 Y9.84199
G01 X0.35392 Y9.90343
G01 X0.40808 Y9.94156
G01 X0.51298 Y9.99028
G01 X0.59736 Y10.01588
G01 X0.68511 Y10.02454
G01 X14.52989 Y10.02698
G01 X14.61778 Y10.01834
G01 X14.66637 Y10.00867
G01 X14.75080 Y9.98306
G01 X14.82860 Y9.94148
G01 X14.92199 Y9.87321
G01 X14.98343 Y9.80603
G01 X15.03243 Y9.73267
G01 X15.07101 Y9.65017
G01 X15.09834 Y9.53778
G01 X15.10698 Y9.44999
G01 X15.10698 Y0.70998
G01 X15.09834 Y0.62217
G01 X15.08867 Y0.57358
G01 X15.07343 Y0.51671
G01 X15.05090 Y0.46233
G01 X14.99395 Y0.37015
G01 X14.95321 Y0.31796
G01 X14.88603 Y0.25651
G01 X14.83187 Y0.21839
G01 X14.77274 Y0.18862
G01 X14.66411 Y0.14889
G01 X14.59885 Y0.13757
G01 X14.52999 Y0.13297
G01 X0.70998 Y0.13297
G01 X0.62217 Y0.14160
G01 X0.50978 Y0.16894
G01 X0.42728 Y0.20752
G01 X0.37135 Y0.24293
G01 X0.32121 Y0.28618
G01 X0.28618 Y0.32121
G01 X0.23020 Y0.38941
G01 X0.18862 Y0.46721
G01 X0.14889 Y0.57584
G01 X0.13757 Y0.64110
G01 X0.13297 Y0.70998
G01 X0.35796 Y0.70998
G01 X0.36716 Y0.63053
G01 X0.37755 Y0.59908
G01 X0.41730 Y0.51440
G01 X0.44526 Y0.48031
G01 X0.50538 Y0.42365
G01 X0.55529 Y0.39421
G01 X0.61747 Y0.37196
G01 X0.70998 Y0.35796
G01 X14.52999 Y0.35796
G01 X14.60942 Y0.36716
G01 X14.71620 Y0.41135
G01 X14.78651 Y0.46906
G01 X14.84912 Y0.56185
G01 X14.86799 Y0.61747
G01 X14.88199 Y0.70998
G01 X14.88199 Y9.44999
G01 X14.87767 Y9.49389
G01 X14.85915 Y9.57438
G01 X14.83401 Y9.62660
G01 X14.80950 Y9.66328
G01 X14.77089 Y9.70651
G01 X14.70358 Y9.75439
G01 X14.66469 Y9.77519
G01 X14.57389 Y9.79767
G01 X14.52994 Y9.80199
G01 X0.68514 Y9.79955
G01 X0.64127 Y9.79521
G01 X0.59908 Y9.78240
G01 X0.52375 Y9.74857
G01 X0.45344 Y9.69089
G01 X0.40554 Y9.62358
G01 X0.38476 Y9.58469
G01 X0.37196 Y9.54248
G01 X0.35796 Y9.44999
G01 X0.35796 Y0.70998
G04 P0 ( dwell for no time -- G64 should not smooth over this point )
G00 Z0.50000 ( retract )

G00 X5.33697 Y4.62585 ( rapid move to begin. )
G01 F25.00000
( Mill infeed pass 1/1 )
G01 Z-0.15000
G04 P0 ( dwell for no time -- G64 should not smooth over this point )
G01 F100.00000
G01 X5.33697 Y4.62585
G01 X5.68455 Y3.78676
G01 X6.32676 Y3.14455
G01 X7.16585 Y2.79697
G01 X8.07410 Y2.79697
G01 X8.91319 Y3.14455
G01 X9.55540 Y3.78676
G01 X9.90298 Y4.62585
G01 X9.90298 Y5.53410
G01 X9.55540 Y6.37319
G01 X8.91319 Y7.01540
G01 X8.07410 Y7.36298
G01 X7.16585 Y7.36298
G01 X6.32676 Y7.01540
G01 X5.68455 Y6.37319
G01 X5.33697 Y5.53410
G01 X5.33697 Y4.62585
G01 X5.38853 Y4.63608
G01 X5.40578 Y4.58036
G01 X5.55061 Y4.18777
G01 X5.73021 Y3.81726
G01 X5.72656 Y3.81483
G01 X5.73021 Y3.81726
G01 X5.80387 Y3.72608
G01 X6.13067 Y3.38579
G01 X6.35815 Y3.19151
G01 X6.35569 Y3.18788
G01 X6.35815 Y3.19151
G01 X6.51314 Y3.10802
G01 X6.89734 Y2.94297
G01 X7.17702 Y2.85316
G01 X7.17624 Y2.84958
G01 X7.17702 Y2.85316
G01 X7.41093 Y2.83144
G01 X7.82914 Y2.82994
G01 X8.06290 Y2.85316
G01 X8.29236 Y2.92288
G01 X8.72681 Y3.10805
G01 X8.88180 Y3.19151
G01 X8.88385 Y3.18851
G01 X8.88180 Y3.19151
G01 X9.14814 Y3.42268
G01 X9.43605 Y3.72608
G01 X9.50973 Y3.81726
G01 X9.51337 Y3.81483
G01 X9.50973 Y3.81726
G01 X9.68934 Y4.18777
G01 X9.83417 Y4.58036
G01 X9.85142 Y4.63608
G01 X9.85578 Y4.63522
G01 X9.85142 Y4.63608
G01 X9.87328 Y5.05336
G01 X9.85142 Y5.52384
G01 X9.85578 Y5.52470
G01 X9.85142 Y5.52384
G01 X9.83417 Y5.57959
G01 X9.68934 Y5.97218
G01 X9.50973 Y6.34266
G01 X9.51337 Y6.34512
G01 X9.50973 Y6.34266
G01 X9.43605 Y6.43387
G01 X9.14814 Y6.73725
G01 X8.88180 Y6.96841
G01 X8.88423 Y6.97207
G01 X8.88180 Y6.96841
G01 X8.72681 Y7.05190
G01 X8.34260 Y7.21698
G01 X8.06290 Y7.30679
G01 X8.06376 Y7.31109
G01 X8.06290 Y7.30679
G01 X7.82904 Y7.32851
G01 X7.41093 Y7.32851
G01 X7.17702 Y7.30679
G01 X7.17616 Y7.31109
G01 X7.17702 Y7.30679
G01 X6.89734 Y7.21698
G01 X6.51314 Y7.05190
G01 X6.35813 Y6.96841
G01 X6.35569 Y6.97207
G01 X6.35813 Y6.96841
G01 X6.09181 Y6.73727
G01 X5.80390 Y6.43387
G01 X5.73021 Y6.34266
G01 X5.72656 Y6.34510
G01 X5.73021 Y6.34266
G01 X5.55061 Y5.97218
G01 X5.40578 Y5.57959
G01 X5.38853 Y5.52384
G01 X5.38416 Y5.52470
G01 X5.38853 Y5.52384
G01 X5.36666 Y5.10662
G01 X5.39499 Y5.08000
G01 X5.44360 Y5.54258
G01 X5.57891 Y5.96298
G01 X5.59803 Y6.00596
G01 X5.80710 Y6.36806
G01 X5.83474 Y6.40611
G01 X6.13118 Y6.73349
G01 X6.50745 Y7.00689
G01 X6.93242 Y7.19610
G01 X7.36415 Y7.28911
G01 X7.41093 Y7.29404
G01 X7.85256 Y7.29280
G01 X8.28479 Y7.20220
G01 X8.32955 Y7.18764
G01 X8.71151 Y7.01759
G01 X8.75223 Y6.99407
G01 X9.10880 Y6.73349
G01 X9.42005 Y6.38782
G01 X9.65264 Y5.98498
G01 X9.79028 Y5.56534
G01 X9.80006 Y5.51932
G01 X9.84499 Y5.08000
G01 X9.80006 Y4.64066
G01 X9.79028 Y4.59463
G01 X9.66107 Y4.19699
G01 X9.64194 Y4.15402
G01 X9.42005 Y3.77215
G01 X9.10880 Y3.42649
G01 X8.73249 Y3.15308
G01 X8.32955 Y2.97233
G01 X8.28479 Y2.95778
G01 X7.85256 Y2.86718
G01 X7.41093 Y2.86593
G01 X7.36415 Y2.87086
G01 X6.93242 Y2.96388
G01 X6.50745 Y3.15308
G01 X6.14947 Y3.41168
G01 X6.11452 Y3.44315
G01 X5.81993 Y3.77215
G01 X5.59803 Y4.15402
G01 X5.57891 Y4.19699
G01 X5.44360 Y4.61739
G01 X5.39499 Y5.08000
G01 X5.36666 Y5.10662
G01 X5.38853 Y4.63608

G04 P0 ( dwell for no time -- G64 should not smooth over this point )
G00 Z10.000000 ( retract )

M5 ( Spindle off. )
G04 P1.000000
M9 ( Coolant off. )
M2 ( Program end. )

