( pcb2gcode 2.5.0 )
( Software-independent Gcode )

G94 ( Millimeters per minute feed rate. )
G21 ( Units == Millimeters. )

G90 ( Absolute coordinates. )
G00 S12000 ( RPM spindle speed. )
G01 F100.00000 ( Feedrate. )


G00 Z10.00000 (Retract to tool change height)
T1
M5      (Spindle stop.)
G04 P1.00000 (Wait for spindle to stop)
(MSG, Change tool bit to mill diameter 0.45000mm)
M6      (Tool change.)
M0      (Temporary machine stop.)
M3 ( Spindle on clockwise. )
G04 P1.00000 (Wait for spindle to get up to speed)
G04 P0 ( dwell for no time -- G64 should not smooth over this point )
G00 Z0.50000 ( retract )

G00 X0.00000 Y0.33917 ( rapid move to begin. )
G01 F25.00000
( Mill infeed pass 1/1 )
G01 Z-0.15000
G04 P0 ( dwell for no time -- G64 should not smooth over this point )
G01 F100.00000
G01 X0.00000 Y0.33917
G01 X0.00000 Y9.82007
G01 X0.04923 Y9.90374
G01 X0.10627 Y9.97542
G01 X0.20079 Y10.06805
G01 X0.28517 Y10.12965
G01 X0.33922 Y10.15997
G01 X14.90073 Y10.15997
G01 X14.98107 Y10.11255
G01 X15.05483 Y10.05421
G01 X15.14805 Y9.95916
G01 X15.20965 Y9.87478
G01 X15.23997 Y9.82073
G01 X15.23997 Y0.33922
G01 X15.19255 Y0.25888
G01 X15.13421 Y0.18512
G01 X15.03916 Y0.09190
G01 X14.95478 Y0.03030
G01 X14.90078 Y0.00000
G01 X0.33917 Y0.00000
G01 X0.24178 Y0.05946
G01 X0.16243 Y0.12738
G01 X0.10574 Y0.18512
G01 X0.06568 Y0.23340
G01 X0.03030 Y0.28517
G01 X0.00000 Y0.33917
G01 X0.13320 Y0.71008
G01 X0.13612 Y9.49564
G01 X0.14150 Y9.54725
G01 X0.15578 Y9.60783
G01 X0.19291 Y9.70222
G01 X0.21659 Y9.74842
G01 X0.24544 Y9.79160
G01 X0.27907 Y9.83115
G01 X0.34371 Y9.89449
G01 X0.39235 Y9.93143
G01 X0.46754 Y9.97318
G01 X0.53406 Y9.99871
G01 X0.64155 Y10.02152
G01 X0.70998 Y10.02675
G01 X14.54960 Y10.02632
G01 X14.59840 Y10.02152
G01 X14.68623 Y10.00402
G01 X14.77241 Y9.97318
G01 X14.83032 Y9.94225
G01 X14.87254 Y9.91380
G01 X14.95362 Y9.83859
G01 X14.98752 Y9.80059
G01 X15.01694 Y9.75901
G01 X15.06540 Y9.66442
G01 X15.08844 Y9.58634
G01 X15.10292 Y9.50869
G01 X15.10665 Y9.45980
G01 X15.10665 Y0.70015
G01 X15.10152 Y0.64155
G01 X15.08148 Y0.54386
G01 X15.06154 Y0.48611
G01 X15.03225 Y0.42738
G01 X15.00574 Y0.38390
G01 X14.96769 Y0.33609
G01 X14.90386 Y0.27226
G01 X14.84760 Y0.22852
G01 X14.77241 Y0.18677
G01 X14.70589 Y0.16124
G01 X14.59840 Y0.13843
G01 X14.52999 Y0.13320
G01 X0.70015 Y0.13330
G01 X0.65126 Y0.13703
G01 X0.57361 Y0.15151
G01 X0.49553 Y0.17455
G01 X0.40094 Y0.22301
G01 X0.35936 Y0.25243
G01 X0.32136 Y0.28633
G01 X0.24615 Y0.36741
G01 X0.21770 Y0.40960
G01 X0.18677 Y0.46754
G01 X0.15593 Y0.55372
G01 X0.13843 Y0.64158
G01 X0.13360 Y0.69045
G01 X0.13320 Y0.71008
G01 X0.35796 Y0.71003
G01 X0.36228 Y0.66606
G01 X0.38080 Y0.58557
G01 X0.41135 Y0.52375
G01 X0.44526 Y0.48031
G01 X0.50538 Y0.42365
G01 X0.56518 Y0.38923
G01 X0.61747 Y0.37196
G01 X0.70998 Y0.35796
G01 X14.52999 Y0.35796
G01 X14.56299 Y0.36040
G01 X14.64389 Y0.37732
G01 X14.71620 Y0.41135
G01 X14.75163 Y0.43767
G01 X14.79469 Y0.48031
G01 X14.83401 Y0.53335
G01 X14.85519 Y0.57526
G01 X14.86558 Y0.60670
G01 X14.87955 Y0.67696
G01 X14.88199 Y0.70998
G01 X14.88199 Y9.44999
G01 X14.87767 Y9.49389
G01 X14.85915 Y9.57438
G01 X14.82857 Y9.63620
G01 X14.79469 Y9.67964
G01 X14.73457 Y9.73630
G01 X14.67477 Y9.77072
G01 X14.63324 Y9.78558
G01 X14.54102 Y9.80171
G01 X0.70998 Y9.80199
G01 X0.67696 Y9.79955
G01 X0.59606 Y9.78263
G01 X0.56518 Y9.77072
G01 X0.51440 Y9.74265
G01 X0.48831 Y9.72228
G01 X0.43848 Y9.67255
G01 X0.40950 Y9.63303
G01 X0.37010 Y9.54009
G01 X0.36040 Y9.47481
G01 X0.35796 Y0.71003
G04 P0 ( dwell for no time -- G64 should not smooth over this point )
G00 Z0.50000 ( retract )

G00 X5.33697 Y4.62585 ( rapid move to begin. )
G01 F25.00000
( Mill infeed pass 1/1 )
G01 Z-0.15000
G04 P0 ( dwell for no time -- G64 should not smooth over this point )
G01 F100.00000
G01 X5.33697 Y4.62585
G01 X5.68455 Y3.78676
G01 X6.32676 Y3.14455
G01 X7.16585 Y2.79697
G01 X8.07410 Y2.79697
G01 X8.91319 Y3.14455
G01 X9.55540 Y3.78676
G01 X9.90298 Y4.62585
G01 X9.90298 Y5.53410
G01 X9.55540 Y6.37319
G01 X8.91319 Y7.01540
G01 X8.07410 Y7.36298
G01 X7.16585 Y7.36298
G01 X6.32676 Y7.01540
G01 X5.68455 Y6.37319
G01 X5.33697 Y5.53410
G01 X5.33697 Y4.62585
G01 X5.39499 Y5.08000
G01 X5.43773 Y4.64591
G01 X5.55691 Y4.24932
G01 X5.57380 Y4.20855
G01 X5.75861 Y3.86278
G01 X5.78312 Y3.82610
G01 X6.04667 Y3.50667
G01 X6.38383 Y3.22997
G01 X6.76852 Y3.02435
G01 X7.16450 Y2.90309
G01 X7.20776 Y2.89451
G01 X7.62000 Y2.85499
G01 X8.03222 Y2.89451
G01 X8.07547 Y2.90309
G01 X8.47146 Y3.02435
G01 X8.83719 Y3.21861
G01 X8.87387 Y3.24307
G01 X9.17694 Y3.49184
G01 X9.20813 Y3.52303
G01 X9.47001 Y3.84383
G01 X9.66617 Y4.20855
G01 X9.68306 Y4.24932
G01 X9.80224 Y4.64591
G01 X9.84390 Y5.05793
G01 X9.84390 Y5.10205
G01 X9.80224 Y5.51406
G01 X9.68306 Y5.91066
G01 X9.66617 Y5.95142
G01 X9.47001 Y6.31614
G01 X9.20813 Y6.63694
G01 X9.17694 Y6.66813
G01 X8.85614 Y6.93001
G01 X8.47146 Y7.13562
G01 X8.05406 Y7.26224
G01 X7.64205 Y7.30390
G01 X7.59793 Y7.30390
G01 X7.18591 Y7.26224
G01 X6.78932 Y7.14306
G01 X6.74855 Y7.12617
G01 X6.38383 Y6.93001
G01 X6.04667 Y6.65328
G01 X5.78312 Y6.33387
G01 X5.75861 Y6.29719
G01 X5.56435 Y5.93146
G01 X5.44309 Y5.53547
G01 X5.43451 Y5.49222
G01 X5.39499 Y5.08000

G04 P0 ( dwell for no time -- G64 should not smooth over this point )
G00 Z10.000000 ( retract )

M5 ( Spindle off. )
G04 P1.000000
M9 ( Coolant off. )
M2 ( Program end. )

