( pcb2gcode 2.5.0 )
( Software-independent Gcode )

G94 ( Millimeters per minute feed rate. )
G21 ( Units == Millimeters. )

G90 ( Absolute coordinates. )
G00 S12000 ( RPM spindle speed. )
G01 F100.00000 ( Feedrate. )


G00 Z10.00000 (Retract to tool change height)
T1
M5      (Spindle stop.)
G04 P1.00000 (Wait for spindle to stop)
(MSG, Change tool bit to mill diameter 0.45000mm)
M6      (Tool change.)
M0      (Temporary machine stop.)
M3 ( Spindle on clockwise. )
G04 P1.00000 (Wait for spindle to get up to speed)
G04 P0 ( dwell for no time -- G64 should not smooth over this point )
G00 Z0.50000 ( retract )

G00 X0.00000 Y0.33795 ( rapid move to begin. )
G01 F25.00000
( Mill infeed pass 1/1 )
G01 Z-0.15000
G04 P0 ( dwell for no time -- G64 should not smooth over this point )
G01 F100.00000
G01 X0.00000 Y0.33795
G01 X0.00000 Y9.82198
G01 X0.05337 Y9.90806
G01 X0.13165 Y10.00458
G01 X0.19929 Y10.06752
G01 X0.29063 Y10.13285
G01 X0.33802 Y10.15997
G01 X14.90038 Y10.15997
G01 X14.99425 Y10.10326
G01 X15.08285 Y10.02993
G01 X15.14706 Y9.96122
G01 X15.21389 Y9.86762
G01 X15.24000 Y9.82195
G01 X15.24000 Y0.33957
G01 X15.18326 Y0.24569
G01 X15.10993 Y0.15710
G01 X15.04122 Y0.09289
G01 X14.94762 Y0.02606
G01 X14.90200 Y0.00000
G01 X0.33952 Y0.00000
G01 X0.24569 Y0.05669
G01 X0.14201 Y0.14450
G01 X0.07369 Y0.22352
G01 X0.03165 Y0.28349
G01 X0.00000 Y0.33795
G01 X0.13320 Y0.70998
G01 X0.13409 Y9.48113
G01 X0.13942 Y9.53247
G01 X0.15705 Y9.61360
G01 X0.17795 Y9.67189
G01 X0.20932 Y9.73630
G01 X0.23721 Y9.77862
G01 X0.29500 Y9.85015
G01 X0.33876 Y9.89122
G01 X0.39665 Y9.93364
G01 X0.45944 Y9.96932
G01 X0.54526 Y10.00260
G01 X0.64643 Y10.02226
G01 X0.70998 Y10.02675
G01 X14.55123 Y10.02627
G01 X14.66492 Y10.01001
G01 X14.75059 Y9.98256
G01 X14.84968 Y9.93005
G01 X14.94384 Y9.85164
G01 X14.97731 Y9.81359
G01 X15.01353 Y9.76346
G01 X15.05689 Y9.68332
G01 X15.07904 Y9.62561
G01 X15.09260 Y9.57677
G01 X15.10662 Y9.46114
G01 X15.10662 Y0.69934
G01 X15.10063 Y0.63594
G01 X15.08277 Y0.54590
G01 X15.06256 Y0.48936
G01 X15.02611 Y0.41610
G01 X14.99227 Y0.36558
G01 X14.93878 Y0.30330
G01 X14.89359 Y0.26264
G01 X14.83502 Y0.22080
G01 X14.77264 Y0.18707
G01 X14.68625 Y0.15481
G01 X14.62684 Y0.14191
G01 X14.52999 Y0.13320
G01 X0.69934 Y0.13332
G01 X0.64643 Y0.13769
G01 X0.57503 Y0.14994
G01 X0.48936 Y0.17739
G01 X0.39027 Y0.22990
G01 X0.29611 Y0.30831
G01 X0.26264 Y0.34635
G01 X0.22642 Y0.39649
G01 X0.18306 Y0.47663
G01 X0.16091 Y0.53434
G01 X0.14735 Y0.58318
G01 X0.13332 Y0.69883
G01 X0.13320 Y0.70998
G01 X0.35796 Y0.70998
G01 X0.36744 Y0.62898
G01 X0.38867 Y0.56774
G01 X0.40889 Y0.52802
G01 X0.45481 Y0.46751
G01 X0.51280 Y0.41839
G01 X0.57978 Y0.38318
G01 X0.62103 Y0.36995
G01 X0.70998 Y0.35796
G01 X14.52999 Y0.35796
G01 X14.62179 Y0.37018
G01 X14.68252 Y0.39299
G01 X14.71193 Y0.40889
G01 X14.77244 Y0.45481
G01 X14.81498 Y0.50378
G01 X14.83330 Y0.53177
G01 X14.86743 Y0.61049
G01 X14.88199 Y0.70998
G01 X14.88199 Y9.44999
G01 X14.87251 Y9.53097
G01 X14.85128 Y9.59221
G01 X14.83106 Y9.63193
G01 X14.78514 Y9.69244
G01 X14.72715 Y9.74156
G01 X14.66017 Y9.77676
G01 X14.61892 Y9.79000
G01 X14.53929 Y9.80178
G01 X0.70998 Y9.80199
G01 X0.60990 Y9.78728
G01 X0.55913 Y9.76772
G01 X0.52842 Y9.75129
G01 X0.46053 Y9.69808
G01 X0.40218 Y9.62078
G01 X0.37231 Y9.54870
G01 X0.36111 Y9.49521
G01 X0.35839 Y9.46048
G01 X0.35796 Y0.70998
G04 P0 ( dwell for no time -- G64 should not smooth over this point )
G00 Z0.50000 ( retract )

G00 X5.33697 Y4.62585 ( rapid move to begin. )
G01 F25.00000
( Mill infeed pass 1/1 )
G01 Z-0.15000
G04 P0 ( dwell for no time -- G64 should not smooth over this point )
G01 F100.00000
G01 X5.33697 Y4.62585
G01 X5.68455 Y3.78676
G01 X6.32676 Y3.14455
G01 X7.16585 Y2.79697
G01 X8.07410 Y2.79697
G01 X8.91319 Y3.14455
G01 X9.55540 Y3.78676
G01 X9.90298 Y4.62585
G01 X9.90298 Y5.53410
G01 X9.55540 Y6.37319
G01 X8.91319 Y7.01540
G01 X8.07410 Y7.36298
G01 X7.16585 Y7.36298
G01 X6.32676 Y7.01540
G01 X5.68455 Y6.37319
G01 X5.33697 Y5.53410
G01 X5.33697 Y4.62585
G01 X5.39641 Y5.00492
G01 X5.41787 Y4.76349
G01 X5.45760 Y4.55585
G01 X5.51736 Y4.35303
G01 X5.60509 Y4.13616
G01 X5.71553 Y3.92994
G01 X5.83311 Y3.75420
G01 X5.96722 Y3.59075
G01 X6.13255 Y3.42524
G01 X6.31467 Y3.27838
G01 X6.49145 Y3.16243
G01 X6.68752 Y3.05981
G01 X6.84433 Y2.99456
G01 X7.04451 Y2.93096
G01 X7.27329 Y2.88216
G01 X7.50598 Y2.85816
G01 X7.71743 Y2.85712
G01 X7.92795 Y2.87665
G01 X8.16851 Y2.92392
G01 X8.37080 Y2.98549
G01 X8.56612 Y3.06644
G01 X8.77245 Y3.17670
G01 X8.96574 Y3.30843
G01 X9.12802 Y3.44399
G01 X9.27631 Y3.59471
G01 X9.42332 Y3.77668
G01 X9.54456 Y3.96347
G01 X9.64164 Y4.15130
G01 X9.73155 Y4.37939
G01 X9.78845 Y4.58158
G01 X9.81852 Y4.73873
G01 X9.84220 Y4.96865
G01 X9.84136 Y5.20256
G01 X9.81994 Y5.41292
G01 X9.77565 Y5.63115
G01 X9.70562 Y5.85437
G01 X9.62292 Y6.04896
G01 X9.51601 Y6.24434
G01 X9.39099 Y6.42689
G01 X9.28949 Y6.55061
G01 X9.11954 Y6.72341
G01 X8.95693 Y6.85853
G01 X8.78192 Y6.97720
G01 X8.57641 Y7.08894
G01 X8.37080 Y7.17448
G01 X8.16851 Y7.23605
G01 X7.93915 Y7.28198
G01 X7.71743 Y7.30286
G01 X7.50598 Y7.30181
G01 X7.27329 Y7.27781
G01 X7.04451 Y7.22902
G01 X6.84433 Y7.16542
G01 X6.68752 Y7.10016
G01 X6.49145 Y6.99755
G01 X6.31467 Y6.88155
G01 X6.13255 Y6.73473
G01 X5.97459 Y6.57771
G01 X5.84004 Y6.41464
G01 X5.70954 Y6.22051
G01 X5.60509 Y6.02381
G01 X5.52483 Y5.82821
G01 X5.45760 Y5.60413
G01 X5.41477 Y5.37416
G01 X5.39661 Y5.16491
G01 X5.39641 Y5.00492

G04 P0 ( dwell for no time -- G64 should not smooth over this point )
G00 Z10.000000 ( retract )

M5 ( Spindle off. )
G04 P1.000000
M9 ( Coolant off. )
M2 ( Program end. )

