( pcb2gcode 2.2.3 )
( Software-independent Gcode )

G94 ( Millimeters per minute feed rate. )
G21 ( Units == Millimeters. )

G90 ( Absolute coordinates. )
G00 S12000 ( RPM spindle speed. )
G01 F100.00000 ( Feedrate. )


G00 Z10.00000 (Retract to tool change height)
T0
M5      (Spindle stop.)
G04 P1.00000 (Wait for spindle to stop)
(MSG, Change tool bit to mill diameter 0.45000mm)
M6      (Tool change.)
M0      (Temporary machine stop.)
M3 ( Spindle on clockwise. )
G04 P1.00000 (Wait for spindle to get up to speed)
G04 P0 ( dwell for no time -- G64 should not smooth over this point )
G00 Z0.50000 ( retract )

G00 X0.00000 Y0.33917 ( rapid move to begin. )
G01 F25.00000
( Mill infeed pass 1/1 )
G01 Z-0.15000
G04 P0 ( dwell for no time -- G64 should not smooth over this point )
G01 F100.00000
G01 X0.00000 Y0.33917
G01 X0.00000 Y9.81390
G01 X0.04348 Y9.89531
G01 X0.12738 Y9.99752
G01 X0.16243 Y10.03257
G01 X0.32144 Y10.15048
G01 X0.33922 Y10.15997
G01 X14.90073 Y10.15997
G01 X14.91851 Y10.15048
G01 X15.07752 Y10.03257
G01 X15.11257 Y9.99752
G01 X15.23047 Y9.83851
G01 X15.23997 Y9.82073
G01 X15.23997 Y0.33922
G01 X15.23047 Y0.32144
G01 X15.11257 Y0.16243
G01 X15.07752 Y0.12738
G01 X14.91851 Y0.00947
G01 X14.90078 Y0.00000
G01 X0.33917 Y0.00000
G01 X0.32144 Y0.00947
G01 X0.16243 Y0.12738
G01 X0.12738 Y0.16243
G01 X0.00947 Y0.32144
G01 X0.00000 Y0.33917
G01 X0.13320 Y0.71008
G01 X0.13564 Y9.47489
G01 X0.14427 Y9.56257
G01 X0.16988 Y9.64687
G01 X0.18882 Y9.69267
G01 X0.23040 Y9.77041
G01 X0.28633 Y9.83859
G01 X0.32136 Y9.87361
G01 X0.42738 Y9.95225
G01 X0.50983 Y9.99081
G01 X0.57361 Y10.00844
G01 X0.62222 Y10.01812
G01 X0.70998 Y10.02675
G01 X14.52999 Y10.02675
G01 X14.61773 Y10.01812
G01 X14.66634 Y10.00844
G01 X14.73012 Y9.99081
G01 X14.79060 Y9.96399
G01 X14.81257 Y9.95225
G01 X14.91859 Y9.87361
G01 X14.95362 Y9.83859
G01 X15.03225 Y9.73257
G01 X15.07081 Y9.65012
G01 X15.09812 Y9.53773
G01 X15.10675 Y9.44999
G01 X15.10675 Y0.70998
G01 X15.09812 Y0.62222
G01 X15.08844 Y0.57361
G01 X15.07081 Y0.50983
G01 X15.03225 Y0.42738
G01 X14.95362 Y0.32136
G01 X14.91859 Y0.28633
G01 X14.81257 Y0.20770
G01 X14.73012 Y0.16914
G01 X14.66634 Y0.15151
G01 X14.61773 Y0.14183
G01 X14.52999 Y0.13320
G01 X0.70998 Y0.13320
G01 X0.62222 Y0.14183
G01 X0.57361 Y0.15151
G01 X0.50983 Y0.16914
G01 X0.44935 Y0.19596
G01 X0.42738 Y0.20770
G01 X0.32136 Y0.28633
G01 X0.28633 Y0.32136
G01 X0.20770 Y0.42738
G01 X0.16914 Y0.50983
G01 X0.14183 Y0.62222
G01 X0.13320 Y0.71008
G01 X0.35796 Y0.71003
G01 X0.36228 Y0.66606
G01 X0.38080 Y0.58557
G01 X0.40594 Y0.53335
G01 X0.44526 Y0.48031
G01 X0.48031 Y0.44526
G01 X0.53335 Y0.40594
G01 X0.55529 Y0.39421
G01 X0.61747 Y0.37196
G01 X0.70998 Y0.35796
G01 X14.52999 Y0.35796
G01 X14.62248 Y0.37196
G01 X14.65438 Y0.38080
G01 X14.70660 Y0.40594
G01 X14.75964 Y0.44526
G01 X14.79469 Y0.48031
G01 X14.83401 Y0.53335
G01 X14.85915 Y0.58557
G01 X14.86799 Y0.61747
G01 X14.88199 Y0.70998
G01 X14.88199 Y9.44999
G01 X14.86799 Y9.54248
G01 X14.84574 Y9.60465
G01 X14.83401 Y9.62660
G01 X14.79469 Y9.67964
G01 X14.75964 Y9.71469
G01 X14.70660 Y9.75401
G01 X14.65438 Y9.77915
G01 X14.57389 Y9.79767
G01 X14.52999 Y9.80199
G01 X0.70998 Y9.80199
G01 X0.61747 Y9.78799
G01 X0.58557 Y9.77915
G01 X0.53335 Y9.75401
G01 X0.48031 Y9.71469
G01 X0.41730 Y9.64555
G01 X0.37755 Y9.56086
G01 X0.36474 Y9.51868
G01 X0.36040 Y9.47481
G01 X0.35796 Y0.71003
G04 P0 ( dwell for no time -- G64 should not smooth over this point )
G00 Z0.50000 ( retract )

G00 X5.33697 Y4.62585 ( rapid move to begin. )
G01 F25.00000
( Mill infeed pass 1/1 )
G01 Z-0.15000
G04 P0 ( dwell for no time -- G64 should not smooth over this point )
G01 F100.00000
G01 X5.33697 Y4.62585
G01 X5.68455 Y3.78676
G01 X6.32676 Y3.14455
G01 X7.16585 Y2.79697
G01 X8.07410 Y2.79697
G01 X8.91319 Y3.14455
G01 X9.55540 Y3.78676
G01 X9.90298 Y4.62585
G01 X9.90298 Y5.53410
G01 X9.55540 Y6.37319
G01 X8.91319 Y7.01540
G01 X8.07410 Y7.36298
G01 X7.16585 Y7.36298
G01 X6.32676 Y7.01540
G01 X5.68455 Y6.37319
G01 X5.33697 Y5.53410
G01 X5.33697 Y4.62585
G01 X5.38853 Y4.63608
G01 X5.40578 Y4.58036
G01 X5.40217 Y4.57942
G01 X5.40578 Y4.58036
G01 X5.55061 Y4.18777
G01 X5.73021 Y3.81726
G01 X5.72656 Y3.81483
G01 X5.73021 Y3.81726
G01 X5.80387 Y3.72608
G01 X5.80075 Y3.72384
G01 X5.80387 Y3.72608
G01 X6.13067 Y3.38579
G01 X6.35815 Y3.19151
G01 X6.35569 Y3.18788
G01 X6.35815 Y3.19151
G01 X6.51314 Y3.10802
G01 X6.94764 Y2.92311
G01 X7.17702 Y2.85316
G01 X7.17624 Y2.84960
G01 X7.17702 Y2.85316
G01 X7.35622 Y2.83266
G01 X7.82914 Y2.82994
G01 X8.06290 Y2.85316
G01 X8.06369 Y2.84945
G01 X8.06290 Y2.85316
G01 X8.29236 Y2.92288
G01 X8.72681 Y3.10805
G01 X8.88180 Y3.19151
G01 X8.88421 Y3.18788
G01 X8.88180 Y3.19151
G01 X8.88385 Y3.18851
G01 X8.88180 Y3.19151
G01 X9.14814 Y3.42268
G01 X9.43605 Y3.72608
G01 X9.50973 Y3.81726
G01 X9.51337 Y3.81483
G01 X9.50973 Y3.81726
G01 X9.68934 Y4.18777
G01 X9.83417 Y4.58036
G01 X9.85142 Y4.63608
G01 X9.85578 Y4.63522
G01 X9.85142 Y4.63608
G01 X9.87328 Y5.05336
G01 X9.85142 Y5.52384
G01 X9.85578 Y5.52470
G01 X9.85142 Y5.52384
G01 X9.83417 Y5.57959
G01 X9.68934 Y5.97218
G01 X9.50973 Y6.34266
G01 X9.51337 Y6.34510
G01 X9.50973 Y6.34266
G01 X9.43605 Y6.43387
G01 X9.14814 Y6.73725
G01 X8.88180 Y6.96841
G01 X8.88421 Y6.97207
G01 X8.88180 Y6.96841
G01 X8.88388 Y6.97144
G01 X8.88180 Y6.96841
G01 X8.72681 Y7.05190
G01 X8.34260 Y7.21698
G01 X8.29231 Y7.23684
G01 X8.06290 Y7.30679
G01 X8.06376 Y7.31109
G01 X8.06290 Y7.30679
G01 X7.88370 Y7.32696
G01 X7.82904 Y7.32851
G01 X7.41093 Y7.32851
G01 X7.35625 Y7.32696
G01 X7.17702 Y7.30679
G01 X7.17616 Y7.31109
G01 X7.17702 Y7.30679
G01 X6.94764 Y7.23684
G01 X6.89734 Y7.21698
G01 X6.51314 Y7.05190
G01 X6.35813 Y6.96841
G01 X6.35569 Y6.97207
G01 X6.35813 Y6.96841
G01 X6.13042 Y6.77443
G01 X6.09181 Y6.73727
G01 X5.80390 Y6.43387
G01 X5.73021 Y6.34266
G01 X5.72656 Y6.34510
G01 X5.73021 Y6.34266
G01 X5.57139 Y6.02127
G01 X5.55061 Y5.97218
G01 X5.40578 Y5.57959
G01 X5.38853 Y5.52384
G01 X5.38416 Y5.52470
G01 X5.38853 Y5.52384
G01 X5.36621 Y5.10662
G01 X5.36666 Y5.05336
G01 X5.39623 Y5.05648
G01 X5.43992 Y4.64066
G01 X5.44970 Y4.59463
G01 X5.57891 Y4.19699
G01 X5.59803 Y4.15402
G01 X5.80710 Y3.79192
G01 X5.83474 Y3.75387
G01 X6.11452 Y3.44315
G01 X6.14947 Y3.41168
G01 X6.48774 Y3.16591
G01 X6.52843 Y3.14239
G01 X6.91043 Y2.97233
G01 X6.95518 Y2.95778
G01 X7.36415 Y2.87086
G01 X7.41093 Y2.86593
G01 X7.82904 Y2.86593
G01 X7.87583 Y2.87086
G01 X8.28479 Y2.95778
G01 X8.32955 Y2.97233
G01 X8.71151 Y3.14239
G01 X8.75223 Y3.16591
G01 X9.09051 Y3.41168
G01 X9.12546 Y3.44315
G01 X9.40524 Y3.75387
G01 X9.43287 Y3.79192
G01 X9.64194 Y4.15402
G01 X9.66107 Y4.19699
G01 X9.79028 Y4.59463
G01 X9.80006 Y4.64066
G01 X9.84374 Y5.05648
G01 X9.84374 Y5.10349
G01 X9.80006 Y5.51932
G01 X9.79028 Y5.56534
G01 X9.66107 Y5.96298
G01 X9.64194 Y6.00596
G01 X9.43287 Y6.36806
G01 X9.40524 Y6.40611
G01 X9.12546 Y6.71683
G01 X9.09051 Y6.74830
G01 X8.75223 Y6.99407
G01 X8.71151 Y7.01759
G01 X8.32955 Y7.18764
G01 X8.28479 Y7.20220
G01 X7.87583 Y7.28911
G01 X7.82904 Y7.29404
G01 X7.41093 Y7.29404
G01 X7.36415 Y7.28911
G01 X6.95518 Y7.20220
G01 X6.91043 Y7.18764
G01 X6.52843 Y7.01759
G01 X6.48774 Y6.99407
G01 X6.14947 Y6.74830
G01 X6.11452 Y6.71683
G01 X5.83474 Y6.40611
G01 X5.80710 Y6.36806
G01 X5.59803 Y6.00596
G01 X5.57891 Y5.96298
G01 X5.44970 Y5.56534
G01 X5.43992 Y5.51932
G01 X5.39623 Y5.10349
G01 X5.39623 Y5.05648
G01 X5.36666 Y5.05336
G01 X5.38853 Y4.63608

G04 P0 ( dwell for no time -- G64 should not smooth over this point )
G00 Z10.000000 ( retract )

M5 ( Spindle off. )
G04 P1.000000
M9 ( Coolant off. )
M2 ( Program end. )

