( pcb2gcode 2.2.1 )
( Software-independent Gcode )

G94 ( Millimeters per minute feed rate. )
G21 ( Units == Millimeters. )

G90 ( Absolute coordinates. )
G00 S12000 ( RPM spindle speed. )
G01 F100.00000 ( Feedrate. )


G00 Z10.00000 (Retract to tool change height)
T0
M5      (Spindle stop.)
G04 P1.00000 (Wait for spindle to stop)
(MSG, Change tool bit to mill diameter 0.45000mm)
M6      (Tool change.)
M0      (Temporary machine stop.)
M3 ( Spindle on clockwise. )
G04 P1.00000 (Wait for spindle to get up to speed)
G04 P0 ( dwell for no time -- G64 should not smooth over this point )
G00 Z0.50000 ( retract )

G00 X0.00000 Y0.34605 ( rapid move to begin. )
G01 F25.00000
( Mill infeed pass 1/1 )
G01 Z-0.15000
G04 P0 ( dwell for no time -- G64 should not smooth over this point )
G01 F100.00000
G01 X0.00000 Y0.34605
G01 X0.00000 Y9.81390
G01 X0.03167 Y9.87321
G01 X0.05921 Y9.91443
G01 X0.12042 Y9.99289
G01 X0.21179 Y10.07727
G01 X0.34986 Y10.15997
G01 X14.89385 Y10.15997
G01 X14.95298 Y10.12840
G01 X14.99420 Y10.10089
G01 X15.07287 Y10.03955
G01 X15.15737 Y9.94804
G01 X15.23058 Y9.83833
G01 X15.23997 Y9.82071
G01 X15.23997 Y0.34610
G01 X15.20833 Y0.28682
G01 X15.18082 Y0.24562
G01 X15.11965 Y0.16721
G01 X15.02837 Y0.08283
G01 X14.89009 Y0.00000
G01 X0.33917 Y0.00000
G01 X0.32141 Y0.00947
G01 X0.16243 Y0.12738
G01 X0.12738 Y0.16243
G01 X0.04351 Y0.26464
G01 X0.00000 Y0.34605
G01 X0.13320 Y0.70998
G01 X0.13320 Y9.44999
G01 X0.14183 Y9.53775
G01 X0.15151 Y9.58634
G01 X0.17709 Y9.67064
G01 X0.21859 Y9.74837
G01 X0.24613 Y9.78959
G01 X0.28694 Y9.84192
G01 X0.35428 Y9.90341
G01 X0.46721 Y9.97107
G01 X0.51298 Y9.99005
G01 X0.59736 Y10.01565
G01 X0.68511 Y10.02431
G01 X14.52989 Y10.02675
G01 X14.61783 Y10.01809
G01 X14.66642 Y10.00841
G01 X14.75062 Y9.98289
G01 X14.82822 Y9.94143
G01 X14.92189 Y9.87303
G01 X14.98349 Y9.80559
G01 X15.04404 Y9.71047
G01 X15.08841 Y9.58642
G01 X15.09809 Y9.53783
G01 X15.10675 Y9.44999
G01 X15.10675 Y0.70998
G01 X15.09809 Y0.62212
G01 X15.08841 Y0.57353
G01 X15.06286 Y0.48928
G01 X15.02138 Y0.41163
G01 X14.99387 Y0.37041
G01 X14.95308 Y0.31814
G01 X14.88580 Y0.25662
G01 X14.77261 Y0.18882
G01 X14.72682 Y0.16985
G01 X14.59885 Y0.13780
G01 X14.52999 Y0.13320
G01 X0.70998 Y0.13320
G01 X0.62222 Y0.14183
G01 X0.57361 Y0.15151
G01 X0.50983 Y0.16914
G01 X0.44933 Y0.19596
G01 X0.42738 Y0.20770
G01 X0.32136 Y0.28633
G01 X0.28633 Y0.32136
G01 X0.23040 Y0.38953
G01 X0.18882 Y0.46728
G01 X0.16988 Y0.51305
G01 X0.13780 Y0.64110
G01 X0.13320 Y0.70998
G01 X0.35796 Y0.70998
G01 X0.36149 Y0.66314
G01 X0.37755 Y0.59908
G01 X0.41730 Y0.51440
G01 X0.44526 Y0.48031
G01 X0.48031 Y0.44526
G01 X0.53335 Y0.40594
G01 X0.55529 Y0.39421
G01 X0.61747 Y0.37196
G01 X0.70998 Y0.35796
G01 X14.52999 Y0.35796
G01 X14.57681 Y0.36149
G01 X14.64084 Y0.37752
G01 X14.68664 Y0.39649
G01 X14.74325 Y0.43040
G01 X14.78651 Y0.46909
G01 X14.80693 Y0.49522
G01 X14.85519 Y0.57528
G01 X14.87764 Y0.66604
G01 X14.88199 Y0.70998
G01 X14.88199 Y9.44999
G01 X14.86797 Y9.54253
G01 X14.84577 Y9.60458
G01 X14.80962 Y9.66313
G01 X14.77091 Y9.70648
G01 X14.70345 Y9.75446
G01 X14.66464 Y9.77519
G01 X14.57394 Y9.79764
G01 X14.52994 Y9.80199
G01 X0.68514 Y9.79955
G01 X0.64125 Y9.79521
G01 X0.59903 Y9.78240
G01 X0.55326 Y9.76343
G01 X0.49677 Y9.72957
G01 X0.45349 Y9.69094
G01 X0.43304 Y9.66475
G01 X0.38476 Y9.58466
G01 X0.37196 Y9.54248
G01 X0.35796 Y9.44999
G01 X0.35796 Y0.70998
G04 P0 ( dwell for no time -- G64 should not smooth over this point )
G00 Z0.50000 ( retract )

G00 X5.33697 Y4.62587 ( rapid move to begin. )
G01 F25.00000
( Mill infeed pass 1/1 )
G01 Z-0.15000
G04 P0 ( dwell for no time -- G64 should not smooth over this point )
G01 F100.00000
G01 X5.33697 Y4.62587
G01 X5.68455 Y3.78673
G01 X6.32673 Y3.14455
G01 X7.16587 Y2.79697
G01 X8.07408 Y2.79697
G01 X8.91322 Y3.14455
G01 X9.55540 Y3.78673
G01 X9.90298 Y4.62587
G01 X9.90298 Y5.53408
G01 X9.55540 Y6.37322
G01 X8.91322 Y7.01540
G01 X8.07408 Y7.36298
G01 X7.16587 Y7.36298
G01 X6.32673 Y7.01540
G01 X5.68455 Y6.37322
G01 X5.33697 Y5.53408
G01 X5.33697 Y4.62587
G01 X5.38853 Y4.63608
G01 X5.40578 Y4.58036
G01 X5.55061 Y4.18777
G01 X5.73021 Y3.81726
G01 X5.72656 Y3.81483
G01 X5.73021 Y3.81726
G01 X5.80387 Y3.72608
G01 X6.13067 Y3.38579
G01 X6.35815 Y3.19151
G01 X6.35569 Y3.18788
G01 X6.35815 Y3.19151
G01 X6.51314 Y3.10802
G01 X6.89734 Y2.94297
G01 X7.17702 Y2.85316
G01 X7.17624 Y2.84960
G01 X7.17702 Y2.85316
G01 X7.41093 Y2.83144
G01 X7.82914 Y2.82994
G01 X8.06290 Y2.85316
G01 X8.29236 Y2.92288
G01 X8.72681 Y3.10805
G01 X8.88180 Y3.19151
G01 X8.88385 Y3.18851
G01 X8.88180 Y3.19151
G01 X9.14814 Y3.42268
G01 X9.43605 Y3.72608
G01 X9.50973 Y3.81726
G01 X9.51337 Y3.81483
G01 X9.50973 Y3.81726
G01 X9.68934 Y4.18777
G01 X9.83417 Y4.58036
G01 X9.85142 Y4.63608
G01 X9.85578 Y4.63522
G01 X9.85142 Y4.63608
G01 X9.87328 Y5.05336
G01 X9.85142 Y5.52384
G01 X9.85578 Y5.52470
G01 X9.85142 Y5.52384
G01 X9.83417 Y5.57959
G01 X9.68934 Y5.97218
G01 X9.50973 Y6.34266
G01 X9.51337 Y6.34510
G01 X9.50973 Y6.34266
G01 X9.43605 Y6.43387
G01 X9.14814 Y6.73725
G01 X8.88180 Y6.96841
G01 X8.88421 Y6.97207
G01 X8.88180 Y6.96841
G01 X8.72681 Y7.05190
G01 X8.34260 Y7.21698
G01 X8.06290 Y7.30679
G01 X8.06376 Y7.31109
G01 X8.06290 Y7.30679
G01 X7.82904 Y7.32851
G01 X7.41093 Y7.32851
G01 X7.17702 Y7.30679
G01 X7.17616 Y7.31109
G01 X7.17702 Y7.30679
G01 X6.89734 Y7.21698
G01 X6.51314 Y7.05190
G01 X6.35813 Y6.96841
G01 X6.35569 Y6.97207
G01 X6.35813 Y6.96841
G01 X6.09181 Y6.73727
G01 X5.80390 Y6.43387
G01 X5.73021 Y6.34266
G01 X5.72656 Y6.34510
G01 X5.73021 Y6.34266
G01 X5.55061 Y5.97218
G01 X5.40578 Y5.57959
G01 X5.38853 Y5.52384
G01 X5.38416 Y5.52470
G01 X5.38853 Y5.52384
G01 X5.36666 Y5.05336
G01 X5.39623 Y5.05645
G01 X5.43994 Y4.64063
G01 X5.44972 Y4.59466
G01 X5.57891 Y4.19699
G01 X5.59803 Y4.15399
G01 X5.80710 Y3.79192
G01 X5.83476 Y3.75387
G01 X6.11454 Y3.44315
G01 X6.14949 Y3.41168
G01 X6.48774 Y3.16591
G01 X6.52849 Y3.14239
G01 X6.91045 Y2.97233
G01 X6.95515 Y2.95780
G01 X7.36412 Y2.87086
G01 X7.41093 Y2.86593
G01 X7.82907 Y2.86593
G01 X7.87585 Y2.87086
G01 X8.28482 Y2.95780
G01 X8.32952 Y2.97233
G01 X8.71149 Y3.14239
G01 X8.75223 Y3.16591
G01 X9.09048 Y3.41168
G01 X9.12543 Y3.44315
G01 X9.40521 Y3.75387
G01 X9.43287 Y3.79192
G01 X9.64194 Y4.15399
G01 X9.66107 Y4.19699
G01 X9.79025 Y4.59466
G01 X9.80003 Y4.64063
G01 X9.84374 Y5.05645
G01 X9.84374 Y5.10352
G01 X9.80003 Y5.51934
G01 X9.79025 Y5.56532
G01 X9.66107 Y5.96298
G01 X9.64194 Y6.00598
G01 X9.43287 Y6.36806
G01 X9.40521 Y6.40611
G01 X9.12543 Y6.71683
G01 X9.09048 Y6.74830
G01 X8.75223 Y6.99407
G01 X8.71149 Y7.01759
G01 X8.32952 Y7.18764
G01 X8.28482 Y7.20217
G01 X7.87585 Y7.28911
G01 X7.82907 Y7.29404
G01 X7.41093 Y7.29404
G01 X7.36412 Y7.28911
G01 X6.95515 Y7.20217
G01 X6.91045 Y7.18764
G01 X6.52849 Y7.01759
G01 X6.48774 Y6.99407
G01 X6.14949 Y6.74830
G01 X6.11454 Y6.71683
G01 X5.83476 Y6.40611
G01 X5.80710 Y6.36806
G01 X5.59803 Y6.00598
G01 X5.57891 Y5.96298
G01 X5.44972 Y5.56532
G01 X5.43994 Y5.51934
G01 X5.39623 Y5.10352
G01 X5.39623 Y5.05645
G01 X5.36666 Y5.05336
G01 X5.38853 Y4.63608

G04 P0 ( dwell for no time -- G64 should not smooth over this point )
G00 Z10.000000 ( retract )

M5 ( Spindle off. )
G04 P1.000000
M9 ( Coolant off. )
M2 ( Program end. )

