( pcb2gcode 2.0.0 )
( Software-independent Gcode )

G94 ( Millimeters per minute feed rate. )
G21 ( Units == Millimeters. )

G90 ( Absolute coordinates. )
G00 S12000 ( RPM spindle speed. )
G01 F100.00000 ( Feedrate. )


G00 Z10.00000 (Retract to tool change height)
T0
M5      (Spindle stop.)
G04 P1.00000 (Wait for spindle to stop)
(MSG, Change tool bit to mill diameter 0.45000mm)
M6      (Tool change.)
M0      (Temporary machine stop.)
M3 ( Spindle on clockwise. )
G04 P1.00000 (Wait for spindle to get up to speed)
G04 P0 ( dwell for no time -- G64 should not smooth over this point )
G00 Z0.50000 ( retract )

G00 X0.00000 Y0.33823 ( rapid move to begin. )
G01 F25.00000
( Mill infeed pass 1/1 )
G01 Z-0.15000
G04 P0 ( dwell for no time -- G64 should not smooth over this point )
G01 F100.00000
G01 X0.00000 Y0.33823
G01 X0.00000 Y9.81484
G01 X0.29238 Y10.13455
G01 X14.90167 Y10.15997
G01 X15.23088 Y9.83874
G01 X15.23997 Y0.34516
G01 X14.91874 Y0.00907
G01 X0.33823 Y0.00000
G01 X0.00000 Y0.33823
G01 X0.13297 Y0.70998
G01 X0.13297 Y9.44999
G01 X0.21847 Y9.74860
G01 X0.40808 Y9.94156
G01 X0.68511 Y10.02454
G01 X14.52989 Y10.02698
G01 X14.91874 Y9.87377
G01 X15.10698 Y9.44999
G01 X15.10698 Y0.70998
G01 X15.02148 Y0.41135
G01 X14.81267 Y0.20752
G01 X14.52999 Y0.13297
G01 X0.70998 Y0.13297
G01 X0.32121 Y0.28618
G01 X0.13297 Y0.70998
G01 X0.35796 Y0.70998
G01 X0.35796 Y9.44999
G01 X0.52375 Y9.74857
G01 X0.68514 Y9.79955
G01 X14.52994 Y9.80199
G01 X14.75964 Y9.71469
G01 X14.88199 Y9.44999
G01 X14.88199 Y0.70998
G01 X14.70660 Y0.40594
G01 X0.70998 Y0.35796
G01 X0.48031 Y0.44526
G01 X0.35796 Y0.70998
G04 P0 ( dwell for no time -- G64 should not smooth over this point )
G00 Z0.50000 ( retract )

G00 X5.33697 Y4.62585 ( rapid move to begin. )
G01 F25.00000
( Mill infeed pass 1/1 )
G01 Z-0.15000
G04 P0 ( dwell for no time -- G64 should not smooth over this point )
G01 F100.00000
G01 X5.33697 Y4.62585
G01 X5.33697 Y5.53410
G01 X5.68455 Y6.37319
G01 X6.32676 Y7.01540
G01 X7.16585 Y7.36298
G01 X8.07410 Y7.36298
G01 X8.91319 Y7.01540
G01 X9.55540 Y6.37319
G01 X9.90298 Y5.53410
G01 X9.90298 Y4.62585
G01 X9.55540 Y3.78676
G01 X8.91319 Y3.14455
G01 X8.07410 Y2.79697
G01 X7.16585 Y2.79697
G01 X6.32676 Y3.14455
G01 X5.68455 Y3.78676
G01 X5.33697 Y4.62585
G01 X5.38853 Y4.63611
G01 X5.38853 Y5.52381
G01 X5.80390 Y6.43387
G01 X6.35813 Y6.96841
G01 X6.89734 Y7.21698
G01 X7.35637 Y7.32561
G01 X8.06293 Y7.30677
G01 X8.88180 Y6.96841
G01 X9.50973 Y6.34266
G01 X9.85119 Y5.52468
G01 X9.87328 Y5.05336
G01 X9.85121 Y4.63527
G01 X9.50973 Y3.81726
G01 X8.88177 Y3.19151
G01 X8.06290 Y2.85316
G01 X7.35637 Y2.83431
G01 X6.89734 Y2.94295
G01 X6.35815 Y3.19151
G01 X5.80387 Y3.72608
G01 X5.38853 Y4.63611
G04 P0 ( dwell for no time -- G64 should not smooth over this point )
G00 Z0.50000 ( retract )

G00 X5.39499 Y5.08000 ( rapid move to begin. )
G01 F25.00000
( Mill infeed pass 1/1 )
G01 Z-0.15000
G04 P0 ( dwell for no time -- G64 should not smooth over this point )
G01 F100.00000
G01 X5.39499 Y5.08000
G01 X5.58734 Y5.98498
G01 X6.11452 Y6.71683
G01 X6.52843 Y7.01759
G01 X7.41093 Y7.29404
G01 X8.30755 Y7.19610
G01 X8.73249 Y7.00689
G01 X9.12546 Y6.71683
G01 X9.65264 Y5.98498
G01 X9.84499 Y5.08000
G01 X9.79028 Y4.59463
G01 X9.64194 Y4.15402
G01 X9.10880 Y3.42649
G01 X8.32955 Y2.97233
G01 X7.41093 Y2.86593
G01 X6.52843 Y3.14239
G01 X6.11452 Y3.44315
G01 X5.59803 Y4.15402
G01 X5.36664 Y5.10662

G04 P0 ( dwell for no time -- G64 should not smooth over this point )
G00 Z10.000000 ( retract )

M5 ( Spindle off. )
G04 P1.000000
M9 ( Coolant off. )
M2 ( Program end. )

