( pcb2gcode 2.0.0 )
( Software-independent Gcode )

G94 ( Millimeters per minute feed rate. )
G21 ( Units == Millimeters. )

G90 ( Absolute coordinates. )
G00 S12000 ( RPM spindle speed. )
G01 F100.00000 ( Feedrate. )


G00 Z10.00000 (Retract to tool change height)
T0
M5      (Spindle stop.)
G04 P1.00000 (Wait for spindle to stop)
(MSG, Change tool bit to mill diameter 0.45000mm)
M6      (Tool change.)
M0      (Temporary machine stop.)
M3 ( Spindle on clockwise. )
G04 P1.00000 (Wait for spindle to get up to speed)
G04 P0 ( dwell for no time -- G64 should not smooth over this point )
G00 Z0.50000 ( retract )

G00 X0.00000 Y0.33823 ( rapid move to begin. )
G01 F25.00000
( Mill infeed pass 1/1 )
G01 Z-0.15000
G04 P0 ( dwell for no time -- G64 should not smooth over this point )
G01 F100.00000
G01 X0.00000 Y0.33823
G01 X0.00000 Y9.81484
G01 X0.03139 Y9.87359
G01 X0.05893 Y9.91479
G01 X0.12001 Y9.99310
G01 X0.19195 Y10.06157
G01 X0.29238 Y10.13455
G01 X0.34293 Y10.16000
G01 X14.90167 Y10.15997
G01 X15.00264 Y10.09774
G01 X15.07785 Y10.03287
G01 X15.17774 Y9.92264
G01 X15.23088 Y9.83874
G01 X15.23997 Y9.82167
G01 X15.23997 Y0.34516
G01 X15.20855 Y0.28636
G01 X15.18102 Y0.24516
G01 X15.11993 Y0.16685
G01 X15.02875 Y0.08260
G01 X14.91874 Y0.00907
G01 X14.90172 Y0.00000
G01 X0.33823 Y0.00000
G01 X0.23731 Y0.06220
G01 X0.16210 Y0.12708
G01 X0.06220 Y0.23731
G01 X0.00000 Y0.33823
G01 X0.13297 Y0.70998
G01 X0.13297 Y9.44999
G01 X0.14160 Y9.53778
G01 X0.15128 Y9.58637
G01 X0.17689 Y9.67080
G01 X0.21847 Y9.74860
G01 X0.28674 Y9.84199
G01 X0.35392 Y9.90343
G01 X0.40808 Y9.94156
G01 X0.51298 Y9.99028
G01 X0.59736 Y10.01588
G01 X0.68511 Y10.02454
G01 X14.52989 Y10.02698
G01 X14.61778 Y10.01834
G01 X14.73017 Y9.99101
G01 X14.81267 Y9.95243
G01 X14.86860 Y9.91702
G01 X14.91874 Y9.87377
G01 X14.99702 Y9.78860
G01 X15.04417 Y9.71070
G01 X15.07101 Y9.65017
G01 X15.08867 Y9.58637
G01 X15.09834 Y9.53778
G01 X15.10698 Y9.44999
G01 X15.10698 Y0.70998
G01 X15.09834 Y0.62217
G01 X15.08867 Y0.57358
G01 X15.06306 Y0.48915
G01 X15.02148 Y0.41135
G01 X14.95321 Y0.31796
G01 X14.88603 Y0.25651
G01 X14.81267 Y0.20752
G01 X14.73017 Y0.16894
G01 X14.66637 Y0.15128
G01 X14.61778 Y0.14160
G01 X14.52999 Y0.13297
G01 X0.70998 Y0.13297
G01 X0.62217 Y0.14160
G01 X0.50978 Y0.16894
G01 X0.42728 Y0.20752
G01 X0.37135 Y0.24293
G01 X0.32121 Y0.28618
G01 X0.24293 Y0.37135
G01 X0.19578 Y0.44925
G01 X0.16894 Y0.50978
G01 X0.15128 Y0.57358
G01 X0.14160 Y0.62217
G01 X0.13297 Y0.70998
G01 X0.35796 Y0.70998
G01 X0.35796 Y9.44999
G01 X0.37196 Y9.54248
G01 X0.38476 Y9.58469
G01 X0.40554 Y9.62358
G01 X0.45344 Y9.69089
G01 X0.52375 Y9.74857
G01 X0.59908 Y9.78240
G01 X0.64127 Y9.79521
G01 X0.68514 Y9.79955
G01 X14.52994 Y9.80199
G01 X14.57389 Y9.79767
G01 X14.65438 Y9.77915
G01 X14.70660 Y9.75401
G01 X14.75964 Y9.71469
G01 X14.81630 Y9.65457
G01 X14.84574 Y9.60465
G01 X14.86799 Y9.54248
G01 X14.88199 Y9.44999
G01 X14.88199 Y0.70998
G01 X14.86799 Y0.61747
G01 X14.85519 Y0.57526
G01 X14.83439 Y0.53637
G01 X14.78651 Y0.46906
G01 X14.74328 Y0.43045
G01 X14.70660 Y0.40594
G01 X14.65438 Y0.38080
G01 X14.62248 Y0.37196
G01 X14.52999 Y0.35796
G01 X0.70998 Y0.35796
G01 X0.66606 Y0.36228
G01 X0.58557 Y0.38080
G01 X0.53335 Y0.40594
G01 X0.48031 Y0.44526
G01 X0.42365 Y0.50538
G01 X0.39421 Y0.55529
G01 X0.37196 Y0.61747
G01 X0.35796 Y0.70998
G04 P0 ( dwell for no time -- G64 should not smooth over this point )
G00 Z0.50000 ( retract )

G00 X5.33697 Y4.62585 ( rapid move to begin. )
G01 F25.00000
( Mill infeed pass 1/1 )
G01 Z-0.15000
G04 P0 ( dwell for no time -- G64 should not smooth over this point )
G01 F100.00000
G01 X5.33697 Y4.62585
G01 X5.33697 Y5.53410
G01 X5.68455 Y6.37319
G01 X6.32676 Y7.01540
G01 X7.16585 Y7.36298
G01 X8.07410 Y7.36298
G01 X8.91319 Y7.01540
G01 X9.55540 Y6.37319
G01 X9.90298 Y5.53410
G01 X9.90298 Y4.62585
G01 X9.55540 Y3.78676
G01 X8.91319 Y3.14455
G01 X8.07410 Y2.79697
G01 X7.16585 Y2.79697
G01 X6.32676 Y3.14455
G01 X5.68455 Y3.78676
G01 X5.33697 Y4.62585
G01 X5.38853 Y4.63611
G01 X5.36664 Y5.05336
G01 X5.38853 Y5.52381
G01 X5.40578 Y5.57959
G01 X5.57167 Y6.02117
G01 X5.73019 Y6.34266
G01 X5.80390 Y6.43387
G01 X6.09181 Y6.73727
G01 X6.35813 Y6.96841
G01 X6.51314 Y7.05190
G01 X6.89734 Y7.21698
G01 X7.17702 Y7.30677
G01 X7.35637 Y7.32561
G01 X7.82904 Y7.32848
G01 X8.06293 Y7.30677
G01 X8.34260 Y7.21698
G01 X8.72681 Y7.05190
G01 X8.88180 Y6.96841
G01 X9.14814 Y6.73725
G01 X9.43605 Y6.43387
G01 X9.50973 Y6.34266
G01 X9.68934 Y5.97218
G01 X9.83417 Y5.57959
G01 X9.85119 Y5.52468
G01 X9.87328 Y5.05336
G01 X9.85121 Y4.63527
G01 X9.83417 Y4.58036
G01 X9.68934 Y4.18777
G01 X9.50973 Y3.81726
G01 X9.43605 Y3.72608
G01 X9.14814 Y3.42268
G01 X8.88177 Y3.19151
G01 X8.72681 Y3.10802
G01 X8.34260 Y2.94295
G01 X8.06290 Y2.85316
G01 X7.82904 Y2.83144
G01 X7.35637 Y2.83431
G01 X7.17702 Y2.85316
G01 X6.89734 Y2.94295
G01 X6.51314 Y3.10802
G01 X6.35815 Y3.19151
G01 X6.09181 Y3.42268
G01 X5.80387 Y3.72608
G01 X5.73021 Y3.81726
G01 X5.57167 Y4.13878
G01 X5.40578 Y4.58036
G01 X5.38853 Y4.63611
G04 P0 ( dwell for no time -- G64 should not smooth over this point )
G00 Z0.50000 ( retract )

G00 X5.39499 Y5.08000 ( rapid move to begin. )
G01 F25.00000
( Mill infeed pass 1/1 )
G01 Z-0.15000
G04 P0 ( dwell for no time -- G64 should not smooth over this point )
G01 F100.00000
G01 X5.39499 Y5.08000
G01 X5.43992 Y5.51932
G01 X5.44970 Y5.56534
G01 X5.58734 Y5.98498
G01 X5.80710 Y6.36806
G01 X5.83474 Y6.40611
G01 X6.11452 Y6.71683
G01 X6.14947 Y6.74830
G01 X6.48774 Y6.99407
G01 X6.52843 Y7.01759
G01 X6.91043 Y7.18764
G01 X6.95518 Y7.20220
G01 X7.36415 Y7.28911
G01 X7.41093 Y7.29404
G01 X7.82904 Y7.29404
G01 X7.87583 Y7.28911
G01 X8.30755 Y7.19610
G01 X8.73249 Y7.00689
G01 X9.09051 Y6.74830
G01 X9.12546 Y6.71683
G01 X9.42005 Y6.38782
G01 X9.65264 Y5.98498
G01 X9.79028 Y5.56534
G01 X9.80006 Y5.51932
G01 X9.84499 Y5.08000
G01 X9.80006 Y4.64066
G01 X9.79028 Y4.59463
G01 X9.66107 Y4.19699
G01 X9.64194 Y4.15402
G01 X9.43287 Y3.79192
G01 X9.40524 Y3.75387
G01 X9.10880 Y3.42649
G01 X8.73249 Y3.15308
G01 X8.32955 Y2.97233
G01 X8.28479 Y2.95778
G01 X7.85256 Y2.86718
G01 X7.41093 Y2.86593
G01 X7.36415 Y2.87086
G01 X6.93242 Y2.96388
G01 X6.52843 Y3.14239
G01 X6.48774 Y3.16591
G01 X6.14947 Y3.41168
G01 X6.11452 Y3.44315
G01 X5.83474 Y3.75387
G01 X5.80710 Y3.79192
G01 X5.59803 Y4.15402
G01 X5.57891 Y4.19699
G01 X5.44360 Y4.61739
G01 X5.39499 Y5.08000
G01 X5.36664 Y5.10662

G04 P0 ( dwell for no time -- G64 should not smooth over this point )
G00 Z10.000000 ( retract )

M5 ( Spindle off. )
G04 P1.000000
M9 ( Coolant off. )
M2 ( Program end. )

