( pcb2gcode 2.5.0 )
( Software-independent Gcode )

G94 ( Inches per minute feed rate. )
G20 ( Units == INCHES. )

G90 ( Absolute coordinates. )
G00 S24000 ( RPM spindle speed. )
G64 P0.00040 ( set maximum deviation from commanded toolpath )
G01 F39.37008 ( Feedrate. )


G00 Z0.39370 (Retract to tool change height)
T1
M5      (Spindle stop.)
G04 P1.00000 (Wait for spindle to stop)
(MSG, Change tool bit to mill diameter 0.05709in)
M6      (Tool change.)
M0      (Temporary machine stop.)
M3 ( Spindle on clockwise. )
G04 P1.00000 (Wait for spindle to get up to speed)
G04 P0 ( dwell for no time -- G64 should not smooth over this point )
G00 Z0.05906 ( retract )

G00 X-0.18169 Y0.52578 ( rapid move to begin. )
G01 F19.68504
( Mill infeed pass 1/1 )
G01 Z-0.00354
G04 P0 ( dwell for no time -- G64 should not smooth over this point )
G01 F39.37008
G01 X-0.18169 Y0.52578
G01 X-0.18446 Y0.52853
G01 X-0.18709 Y0.53024
G01 X-0.19100 Y0.53227
G01 X-0.19337 Y0.53278
G01 X-0.19153 Y0.53238
G01 X-0.18730 Y0.53238
G01 X-0.18446 Y0.52853
G04 P0 ( dwell for no time -- G64 should not smooth over this point )
G00 Z0.05906 ( retract )

G00 X-0.24664 Y0.61309 ( rapid move to begin. )
G01 F19.68504
( Mill infeed pass 1/1 )
G01 Z-0.00354
G04 P0 ( dwell for no time -- G64 should not smooth over this point )
G01 F39.37008
G01 X-0.24664 Y0.61309
G01 X-0.24918 Y0.61426
G01 X-0.25192 Y0.61587
G01 X-0.25597 Y0.61870
G01 X-0.25596 Y0.61920
G01 X-0.25597 Y0.61870
G01 X-0.26119 Y0.61507
G01 X-0.26491 Y0.61317
G01 X-0.26708 Y0.61269
G01 X-0.26519 Y0.61309
G01 X-0.24664 Y0.61309
G01 X-0.24473 Y0.61269
G04 P0 ( dwell for no time -- G64 should not smooth over this point )
G00 Z0.05906 ( retract )

G00 X-0.19337 Y0.61269 ( rapid move to begin. )
G01 F19.68504
( Mill infeed pass 1/1 )
G01 Z-0.00354
G04 P0 ( dwell for no time -- G64 should not smooth over this point )
G01 F39.37008
G01 X-0.19337 Y0.61269
G01 X-0.19303 Y0.61269
G04 P0 ( dwell for no time -- G64 should not smooth over this point )
G00 Z0.05906 ( retract )

G00 X-0.26636 Y0.53253 ( rapid move to begin. )
G01 F19.68504
( Mill infeed pass 1/1 )
G01 Z-0.00354
G04 P0 ( dwell for no time -- G64 should not smooth over this point )
G01 F39.37008
G01 X-0.26636 Y0.53253
G01 X-0.26566 Y0.53238
G01 X-0.24662 Y0.53238
G01 X-0.24473 Y0.53278
G01 X-0.24690 Y0.53231
G01 X-0.25062 Y0.53041
G01 X-0.25584 Y0.52677
G01 X-0.25585 Y0.52627
G01 X-0.25584 Y0.52677
G01 X-0.25705 Y0.52768
G01 X-0.26288 Y0.53129
G01 X-0.26453 Y0.53214
G01 X-0.26754 Y0.53278
G04 P0 ( dwell for no time -- G64 should not smooth over this point )
G00 Z0.05906 ( retract )

G00 X-0.39421 Y0.42568 ( rapid move to begin. )
G01 F19.68504
( Mill infeed pass 1/1 )
G01 Z-0.00354
G04 P0 ( dwell for no time -- G64 should not smooth over this point )
G01 F39.37008
G01 X-0.39421 Y0.42568
G01 X-0.39629 Y0.42634
G01 X-0.39912 Y0.42855
G01 X-0.40334 Y0.43247
G01 X-0.40644 Y0.43621
G01 X-0.40951 Y0.44110
G01 X-0.41117 Y0.44432
G01 X-0.41248 Y0.44770
G01 X-0.41391 Y0.45278
G01 X-0.41449 Y0.45632
G01 X-0.41485 Y0.46092
G01 X-0.41486 Y0.47941
G01 X-0.41473 Y0.48193
G01 X-0.41422 Y0.48640
G01 X-0.41321 Y0.49066
G01 X-0.41223 Y0.49379
G01 X-0.41119 Y0.49638
G01 X-0.41048 Y0.49787
G01 X-0.40979 Y0.49833
G01 X-0.41038 Y0.49793
G01 X-0.45156 Y0.49796
G01 X-0.45758 Y0.49860
G01 X-0.46267 Y0.49990
G01 X-0.48114 Y0.49994
G01 X-0.48603 Y0.50048
G01 X-0.48652 Y0.50096
G01 X-0.48600 Y0.50046
G01 X-0.48584 Y0.49949
G01 X-0.48524 Y0.49270
G01 X-0.48524 Y0.45593
G01 X-0.48584 Y0.44911
G01 X-0.48705 Y0.44402
G01 X-0.48866 Y0.43946
G01 X-0.48979 Y0.43685
G01 X-0.49113 Y0.43435
G01 X-0.49290 Y0.43164
G01 X-0.49581 Y0.42777
G01 X-0.49852 Y0.42482
G01 X-0.49852 Y0.42257
G01 X-0.49892 Y0.42189
G01 X-0.49837 Y0.42283
G01 X-0.49364 Y0.42464
G01 X-0.48935 Y0.42563
G01 X-0.48496 Y0.42606
G01 X-0.39547 Y0.42608
G01 X-0.39491 Y0.42591
G04 P0 ( dwell for no time -- G64 should not smooth over this point )
G00 Z0.05906 ( retract )

G00 X-0.33317 Y0.41550 ( rapid move to begin. )
G01 F19.68504
( Mill infeed pass 1/1 )
G01 Z-0.00354
G04 P0 ( dwell for no time -- G64 should not smooth over this point )
G01 F39.37008
G01 X-0.33317 Y0.41550
G01 X-0.33317 Y0.42287
G01 X-0.33570 Y0.42176
G01 X-0.33833 Y0.42084
G01 X-0.33913 Y0.42059
G01 X-0.34008 Y0.42073
G01 X-0.33912 Y0.42059
G01 X-0.33563 Y0.41802
G01 X-0.33334 Y0.41592
G01 X-0.33277 Y0.41455
G04 P0 ( dwell for no time -- G64 should not smooth over this point )
G00 Z0.05906 ( retract )

G00 X-0.22990 Y0.41273 ( rapid move to begin. )
G01 F19.68504
( Mill infeed pass 1/1 )
G01 Z-0.00354
G04 P0 ( dwell for no time -- G64 should not smooth over this point )
G01 F39.37008
G01 X-0.22990 Y0.41273
G01 X-0.23064 Y0.41245
G01 X-0.25246 Y0.39063
G01 X-0.25286 Y0.38967
G01 X-0.25246 Y0.39063
G01 X-0.25246 Y0.41964
G01 X-0.25286 Y0.42036
G01 X-0.25220 Y0.41917
G01 X-0.25044 Y0.41814
G01 X-0.24537 Y0.41569
G01 X-0.24196 Y0.41438
G01 X-0.23803 Y0.41337
G01 X-0.23287 Y0.41257
G01 X-0.23084 Y0.41238
G01 X-0.22974 Y0.41279
G04 P0 ( dwell for no time -- G64 should not smooth over this point )
G00 Z0.05906 ( retract )

G00 X-0.33265 Y0.18297 ( rapid move to begin. )
G01 F19.68504
( Mill infeed pass 1/1 )
G01 Z-0.00354
G04 P0 ( dwell for no time -- G64 should not smooth over this point )
G01 F39.37008
G01 X-0.33265 Y0.18297
G01 X-0.33428 Y0.18512
G01 X-0.33614 Y0.18722
G01 X-0.33817 Y0.18915
G01 X-0.34025 Y0.19085
G01 X-0.34025 Y0.24185
G01 X-0.33474 Y0.24736
G01 X-0.33434 Y0.24833
G01 X-0.33474 Y0.24736
G01 X-0.33474 Y0.19478
G01 X-0.33435 Y0.18959
G01 X-0.33372 Y0.18645
G01 X-0.33266 Y0.18298
G01 X-0.32856 Y0.17509
G01 X-0.32562 Y0.17144
G01 X-0.32244 Y0.16839
G01 X-0.32022 Y0.16668
G01 X-0.31752 Y0.16495
G01 X-0.31503 Y0.16365
G01 X-0.31208 Y0.16241
G01 X-0.30902 Y0.16146
G01 X-0.30628 Y0.16086
G01 X-0.30350 Y0.16048
G01 X-0.30029 Y0.16033
G01 X-0.26092 Y0.16033
G01 X-0.25653 Y0.16062
G01 X-0.25181 Y0.16156
G01 X-0.24728 Y0.16315
G01 X-0.24301 Y0.16536
G01 X-0.23909 Y0.16814
G01 X-0.23671 Y0.17028
G01 X-0.23428 Y0.17295
G01 X-0.23214 Y0.17585
G01 X-0.23051 Y0.17861
G01 X-0.22898 Y0.18188
G01 X-0.22792 Y0.18490
G01 X-0.22707 Y0.18841
G01 X-0.22659 Y0.19198
G01 X-0.22648 Y0.19478
G01 X-0.22648 Y0.29400
G01 X-0.22671 Y0.29760
G01 X-0.22740 Y0.30155
G01 X-0.16389 Y0.36506
G01 X-0.11070 Y0.36512
G01 X-0.10671 Y0.36553
G01 X-0.10320 Y0.36623
G01 X-0.09904 Y0.36749
G01 X-0.09538 Y0.36903
G01 X-0.09225 Y0.37070
G01 X-0.08990 Y0.37220
G01 X-0.08678 Y0.37461
G01 X-0.08458 Y0.37658
G01 X-0.04125 Y0.41993
G01 X-0.03785 Y0.42397
G01 X-0.03527 Y0.42799
G01 X-0.03301 Y0.43260
G01 X-0.03129 Y0.43785
G01 X-0.03044 Y0.44214
G01 X-0.03002 Y0.44743
G01 X-0.03002 Y0.72313
G01 X-0.03034 Y0.72805
G01 X-0.03100 Y0.73197
G01 X-0.03207 Y0.73577
G01 X-0.03317 Y0.73875
G01 X-0.03435 Y0.74127
G01 X-0.03647 Y0.74502
G01 X-0.03805 Y0.74728
G01 X-0.03981 Y0.74940
G01 X-0.04625 Y0.75602
G01 X-0.04900 Y0.75831
G01 X-0.05126 Y0.75994
G01 X-0.05365 Y0.76138
G01 X-0.05680 Y0.76300
G01 X-0.05975 Y0.76420
G01 X-0.06313 Y0.76526
G01 X-0.06584 Y0.76590
G01 X-0.06860 Y0.76631
G01 X-0.07352 Y0.76664
G01 X-0.31151 Y0.76664
G01 X-0.31489 Y0.76647
G01 X-0.31919 Y0.76590
G01 X-0.32333 Y0.76484
G01 X-0.32372 Y0.76430
G01 X-0.32333 Y0.76484
G01 X-0.32333 Y0.83258
G01 X-0.32344 Y0.83538
G01 X-0.32378 Y0.83817
G01 X-0.32455 Y0.84169
G01 X-0.32569 Y0.84511
G01 X-0.32736 Y0.84875
G01 X-0.32922 Y0.85184
G01 X-0.33139 Y0.85472
G01 X-0.33413 Y0.85764
G01 X-0.33688 Y0.85997
G01 X-0.33986 Y0.86200
G01 X-0.34413 Y0.86421
G01 X-0.34828 Y0.86569
G01 X-0.35258 Y0.86663
G01 X-0.35697 Y0.86702
G01 X-0.48416 Y0.86703
G01 X-0.48776 Y0.86679
G01 X-0.49170 Y0.86610
G01 X-0.49629 Y0.86467
G01 X-0.50098 Y0.86241
G01 X-0.50528 Y0.85948
G01 X-0.50909 Y0.85593
G01 X-0.51232 Y0.85184
G01 X-0.51490 Y0.84732
G01 X-0.51664 Y0.84284
G01 X-0.51781 Y0.83777
G01 X-0.51821 Y0.83258
G01 X-0.51815 Y0.75184
G01 X-0.51754 Y0.74707
G01 X-0.51613 Y0.74206
G01 X-0.51399 Y0.73731
G01 X-0.51139 Y0.73327
G01 X-0.50909 Y0.73049
G01 X-0.50651 Y0.72797
G01 X-0.50368 Y0.72574
G01 X-0.50064 Y0.72381
G01 X-0.49740 Y0.72221
G01 X-0.49440 Y0.72108
G01 X-0.49092 Y0.72014
G01 X-0.48736 Y0.71958
G01 X-0.48376 Y0.71939
G01 X-0.38502 Y0.71939
G01 X-0.38234 Y0.71979
G01 X-0.38683 Y0.71912
G01 X-0.39275 Y0.71637
G01 X-0.39717 Y0.71357
G01 X-0.40035 Y0.71100
G01 X-0.40239 Y0.70910
G01 X-0.40634 Y0.70448
G01 X-0.40919 Y0.70009
G01 X-0.41215 Y0.69378
G01 X-0.41318 Y0.69070
G01 X-0.41384 Y0.68795
G01 X-0.41459 Y0.68307
G01 X-0.41485 Y0.67957
G01 X-0.41486 Y0.66114
G01 X-0.41444 Y0.65573
G01 X-0.41364 Y0.65142
G01 X-0.41194 Y0.64598
G01 X-0.41083 Y0.64339
G01 X-0.40951 Y0.64090
G01 X-0.40850 Y0.63922
G01 X-0.40803 Y0.63922
G01 X-0.40853 Y0.63922
G01 X-0.40887 Y0.63867
G01 X-0.41006 Y0.63654
G01 X-0.41125 Y0.63397
G01 X-0.41319 Y0.62854
G01 X-0.41428 Y0.62383
G01 X-0.41485 Y0.61747
G01 X-0.41480 Y0.59744
G01 X-0.41429 Y0.59269
G01 X-0.41286 Y0.58673
G01 X-0.41136 Y0.58256
G01 X-0.40940 Y0.57864
G01 X-0.42218 Y0.57864
G01 X-0.42332 Y0.58131
G01 X-0.42489 Y0.58422
G01 X-0.42530 Y0.58751
G01 X-0.42587 Y0.59023
G01 X-0.42700 Y0.59401
G01 X-0.42817 Y0.59697
G01 X-0.42996 Y0.60048
G01 X-0.43139 Y0.60286
G01 X-0.43302 Y0.60513
G01 X-0.43536 Y0.60792
G01 X-0.52737 Y0.69999
G01 X-0.52925 Y0.70170
G01 X-0.53237 Y0.70415
G01 X-0.53470 Y0.70567
G01 X-0.53746 Y0.70719
G01 X-0.54109 Y0.70881
G01 X-0.54560 Y0.71025
G01 X-0.54950 Y0.71104
G01 X-0.55392 Y0.71148
G01 X-0.63455 Y0.71152
G01 X-0.63674 Y0.71458
G01 X-0.64347 Y0.72265
G01 X-0.64606 Y0.72512
G01 X-0.65294 Y0.73078
G01 X-0.65551 Y0.73265
G01 X-0.65825 Y0.73428
G01 X-0.66611 Y0.73846
G01 X-0.67091 Y0.74038
G01 X-0.67944 Y0.74296
G01 X-0.68254 Y0.74367
G01 X-0.69298 Y0.74482
G01 X-0.69656 Y0.74498
G01 X-0.69934 Y0.74485
G01 X-0.70741 Y0.74406
G01 X-0.71056 Y0.74360
G01 X-0.71366 Y0.74285
G01 X-0.72368 Y0.73973
G01 X-0.72731 Y0.73810
G01 X-0.73653 Y0.73308
G01 X-0.73946 Y0.73102
G01 X-0.74636 Y0.72538
G01 X-0.74870 Y0.72322
G01 X-0.75057 Y0.72116
G01 X-0.75646 Y0.71395
G01 X-0.75889 Y0.71032
G01 X-0.76330 Y0.70212
G01 X-0.76478 Y0.69886
G01 X-0.76805 Y0.68846
G01 X-0.76887 Y0.68498
G01 X-0.77005 Y0.67414
G01 X-0.77018 Y0.67096
G01 X-0.77005 Y0.66818
G01 X-0.76921 Y0.65971
G01 X-0.76860 Y0.65599
G01 X-0.78060 Y0.64397
G01 X-0.78446 Y0.63928
G01 X-0.78638 Y0.63626
G01 X-0.78852 Y0.63204
G01 X-0.78978 Y0.62868
G01 X-0.79093 Y0.62450
G01 X-0.79151 Y0.62097
G01 X-0.79183 Y0.61604
G01 X-0.79183 Y0.44085
G01 X-0.79151 Y0.43592
G01 X-0.79075 Y0.43161
G01 X-0.78898 Y0.42596
G01 X-0.78677 Y0.42133
G01 X-0.78423 Y0.41729
G01 X-0.78089 Y0.41323
G01 X-0.68750 Y0.31980
G01 X-0.68750 Y0.24121
G01 X-0.68708 Y0.23592
G01 X-0.68633 Y0.23202
G01 X-0.68493 Y0.22749
G01 X-0.68317 Y0.22349
G01 X-0.68059 Y0.21905
G01 X-0.67740 Y0.21496
G01 X-0.63381 Y0.17123
G01 X-0.63451 Y0.16729
G01 X-0.63474 Y0.16329
G01 X-0.63474 Y0.06447
G01 X-0.63451 Y0.06047
G01 X-0.63381 Y0.05652
G01 X-0.63267 Y0.05269
G01 X-0.63108 Y0.04901
G01 X-0.62908 Y0.04554
G01 X-0.62668 Y0.04233
G01 X-0.62393 Y0.03941
G01 X-0.62087 Y0.03684
G01 X-0.61717 Y0.03444
G01 X-0.61357 Y0.03268
G01 X-0.61017 Y0.03147
G01 X-0.60628 Y0.03054
G01 X-0.60270 Y0.03010
G01 X-0.56092 Y0.03002
G01 X-0.55653 Y0.03030
G01 X-0.55298 Y0.03095
G01 X-0.54952 Y0.03196
G01 X-0.54618 Y0.03333
G01 X-0.54301 Y0.03504
G01 X-0.54003 Y0.03708
G01 X-0.53728 Y0.03941
G01 X-0.53479 Y0.04202
G01 X-0.53259 Y0.04487
G01 X-0.53014 Y0.04901
G01 X-0.52829 Y0.05344
G01 X-0.52707 Y0.05809
G01 X-0.52651 Y0.06287
G01 X-0.52648 Y0.16329
G01 X-0.52659 Y0.16609
G01 X-0.52731 Y0.17084
G01 X-0.52856 Y0.17509
G01 X-0.53265 Y0.18297
G01 X-0.53479 Y0.18574
G01 X-0.53699 Y0.18807
G01 X-0.53940 Y0.19019
G01 X-0.54199 Y0.19207
G01 X-0.54486 Y0.19376
G01 X-0.54762 Y0.19834
G01 X-0.55148 Y0.20303
G01 X-0.60679 Y0.25835
G01 X-0.60679 Y0.33694
G01 X-0.60721 Y0.34223
G01 X-0.60796 Y0.34613
G01 X-0.60949 Y0.35103
G01 X-0.61131 Y0.35502
G01 X-0.61393 Y0.35943
G01 X-0.61716 Y0.36351
G01 X-0.66249 Y0.40893
G01 X-0.66315 Y0.40903
G01 X-0.66249 Y0.40893
G01 X-0.65551 Y0.41282
G01 X-0.65294 Y0.41470
G01 X-0.64679 Y0.41974
G01 X-0.64221 Y0.41710
G01 X-0.63896 Y0.41558
G01 X-0.63378 Y0.41386
G01 X-0.62990 Y0.41297
G01 X-0.62314 Y0.41231
G01 X-0.60268 Y0.41231
G01 X-0.59973 Y0.41247
G01 X-0.59510 Y0.41304
G01 X-0.59238 Y0.41364
G01 X-0.58866 Y0.41476
G01 X-0.58565 Y0.41591
G01 X-0.58276 Y0.41733
G01 X-0.57924 Y0.41942
G01 X-0.57883 Y0.42024
G01 X-0.57923 Y0.41944
G01 X-0.57923 Y0.33219
G01 X-0.57891 Y0.32726
G01 X-0.57816 Y0.32295
G01 X-0.57680 Y0.31841
G01 X-0.57508 Y0.31439
G01 X-0.57254 Y0.30993
G01 X-0.56941 Y0.30583
G01 X-0.56741 Y0.30365
G01 X-0.53474 Y0.27098
G01 X-0.53474 Y0.19478
G01 X-0.53435 Y0.18959
G01 X-0.53372 Y0.18645
G01 X-0.53266 Y0.18298
G01 X-0.52856 Y0.17509
G01 X-0.52642 Y0.17233
G01 X-0.52393 Y0.16973
G01 X-0.52119 Y0.16739
G01 X-0.51821 Y0.16536
G01 X-0.51467 Y0.16348
G01 X-0.51094 Y0.16202
G01 X-0.50706 Y0.16101
G01 X-0.50310 Y0.16045
G01 X-0.50029 Y0.16033
G01 X-0.45852 Y0.16042
G01 X-0.45534 Y0.16079
G01 X-0.45220 Y0.16146
G01 X-0.44877 Y0.16255
G01 X-0.44582 Y0.16382
G01 X-0.44301 Y0.16536
G01 X-0.44003 Y0.16739
G01 X-0.43758 Y0.16945
G01 X-0.43532 Y0.17173
G01 X-0.43265 Y0.17510
G01 X-0.42856 Y0.18297
G01 X-0.42793 Y0.18386
G01 X-0.42479 Y0.18750
G01 X-0.42096 Y0.19085
G01 X-0.42087 Y0.26110
G01 X-0.42015 Y0.26663
G01 X-0.41866 Y0.27196
G01 X-0.41733 Y0.27528
G01 X-0.41572 Y0.27841
G01 X-0.41491 Y0.27885
G01 X-0.41566 Y0.27845
G01 X-0.42648 Y0.27845
G01 X-0.42688 Y0.27885
G01 X-0.42648 Y0.27845
G01 X-0.42656 Y0.19238
G01 X-0.42715 Y0.18801
G01 X-0.42842 Y0.18338
G01 X-0.43265 Y0.17510
G01 X-0.43341 Y0.17278
G01 X-0.43441 Y0.16808
G01 X-0.43474 Y0.16369
G01 X-0.43474 Y0.06447
G01 X-0.43446 Y0.06007
G01 X-0.43372 Y0.05613
G01 X-0.43267 Y0.05269
G01 X-0.43108 Y0.04901
G01 X-0.42929 Y0.04587
G01 X-0.42719 Y0.04295
G01 X-0.42479 Y0.04025
G01 X-0.42213 Y0.03782
G01 X-0.41889 Y0.03547
G01 X-0.41503 Y0.03333
G01 X-0.41132 Y0.03183
G01 X-0.40706 Y0.03069
G01 X-0.40310 Y0.03013
G01 X-0.40029 Y0.03002
G01 X-0.36092 Y0.03002
G01 X-0.35693 Y0.03025
G01 X-0.35298 Y0.03095
G01 X-0.34952 Y0.03196
G01 X-0.34618 Y0.03333
G01 X-0.34267 Y0.03525
G01 X-0.33972 Y0.03732
G01 X-0.33671 Y0.03997
G01 X-0.33403 Y0.04295
G01 X-0.33192 Y0.04587
G01 X-0.32962 Y0.05009
G01 X-0.32804 Y0.05421
G01 X-0.32693 Y0.05888
G01 X-0.32648 Y0.06367
G01 X-0.32648 Y0.16409
G01 X-0.32666 Y0.16689
G01 X-0.32707 Y0.16966
G01 X-0.32770 Y0.17240
G01 X-0.32856 Y0.17509
G04 P0 ( dwell for no time -- G64 should not smooth over this point )
G00 Z0.05906 ( retract )

G00 X-0.58239 Y0.53069 ( rapid move to begin. )
G01 F19.68504
( Mill infeed pass 1/1 )
G01 Z-0.00354
G04 P0 ( dwell for no time -- G64 should not smooth over this point )
G01 F39.37008
G01 X-0.58239 Y0.53069
G01 X-0.58306 Y0.53149
G01 X-0.58368 Y0.53393
G01 X-0.58417 Y0.53670
G01 X-0.58458 Y0.54084
G01 X-0.58461 Y0.56470
G01 X-0.58427 Y0.56820
G01 X-0.58328 Y0.57385
G01 X-0.58210 Y0.57770
G01 X-0.58019 Y0.58220
G01 X-0.57782 Y0.58634
G01 X-0.57596 Y0.58906
G01 X-0.57419 Y0.59126
G01 X-0.57225 Y0.59331
G01 X-0.56950 Y0.59583
G01 X-0.56601 Y0.59860
G01 X-0.56183 Y0.60109
G01 X-0.55808 Y0.60286
G01 X-0.55544 Y0.60391
G01 X-0.55272 Y0.60473
G01 X-0.54994 Y0.60533
G01 X-0.54725 Y0.60574
G01 X-0.54640 Y0.60545
G01 X-0.54725 Y0.60574
G01 X-0.57232 Y0.63081
G01 X-0.63455 Y0.63081
G01 X-0.63650 Y0.62806
G01 X-0.64240 Y0.62086
G01 X-0.64430 Y0.61882
G01 X-0.64636 Y0.61695
G01 X-0.65325 Y0.61130
G01 X-0.65584 Y0.60946
G01 X-0.66505 Y0.60441
G01 X-0.66792 Y0.60304
G01 X-0.67129 Y0.60182
G01 X-0.68137 Y0.59888
G01 X-0.68451 Y0.59835
G01 X-0.69298 Y0.59751
G01 X-0.69576 Y0.59735
G01 X-0.69894 Y0.59744
G01 X-0.70781 Y0.59831
G01 X-0.71112 Y0.59884
G01 X-0.71112 Y0.54647
G01 X-0.71152 Y0.54598
G01 X-0.71095 Y0.54667
G01 X-0.70899 Y0.54702
G01 X-0.69934 Y0.54800
G01 X-0.69656 Y0.54813
G01 X-0.69377 Y0.54803
G01 X-0.68490 Y0.54717
G01 X-0.67982 Y0.54622
G01 X-0.67016 Y0.54328
G01 X-0.66540 Y0.54125
G01 X-0.65790 Y0.53724
G01 X-0.65551 Y0.53580
G01 X-0.65294 Y0.53393
G01 X-0.64675 Y0.52885
G01 X-0.64426 Y0.53045
G01 X-0.64140 Y0.53195
G01 X-0.63462 Y0.53451
G01 X-0.62954 Y0.53571
G01 X-0.62356 Y0.53630
G01 X-0.60267 Y0.53632
G01 X-0.59704 Y0.53588
G01 X-0.59387 Y0.53534
G01 X-0.59077 Y0.53451
G01 X-0.58585 Y0.53275
G01 X-0.58306 Y0.53149

G00 Z0.39370 (Retract to tool change height)
T2
M5      (Spindle stop.)
G04 P1.00000 (Wait for spindle to stop)
(MSG, Change tool bit to mill diameter 0.03346in)
M6      (Tool change.)
M0      (Temporary machine stop.)
M3 ( Spindle on clockwise. )
G04 P1.00000 (Wait for spindle to get up to speed)
G04 P0 ( dwell for no time -- G64 should not smooth over this point )
G00 Z0.05906 ( retract )

G00 X-0.16655 Y0.37687 ( rapid move to begin. )
G01 F19.68504
( Mill infeed pass 1/1 )
G01 Z-0.00354
G04 P0 ( dwell for no time -- G64 should not smooth over this point )
G01 F39.37008
G01 X-0.16655 Y0.37687
G01 X-0.16879 Y0.37687
G01 X-0.24111 Y0.30455
G01 X-0.23948 Y0.30084
G04 P0 ( dwell for no time -- G64 should not smooth over this point )
G00 Z0.05906 ( retract )

G00 X-0.35207 Y0.24450 ( rapid move to begin. )
G01 F19.68504
( Mill infeed pass 1/1 )
G01 Z-0.00354
G04 P0 ( dwell for no time -- G64 should not smooth over this point )
G01 F39.37008
G01 X-0.35207 Y0.24450
G01 X-0.35207 Y0.24674
G01 X-0.35048 Y0.24832
G01 X-0.34032 Y0.25512
G01 X-0.33960 Y0.25921
G01 X-0.32293 Y0.27587
G01 X-0.32293 Y0.26816
G01 X-0.32713 Y0.25803
G01 X-0.32293 Y0.26816
G01 X-0.32293 Y0.25230
G01 X-0.32293 Y0.27587
G01 X-0.32253 Y0.27684
G01 X-0.32293 Y0.27587
G01 X-0.32839 Y0.27042
G01 X-0.33258 Y0.26029
G01 X-0.34032 Y0.25512
G01 X-0.35207 Y0.18818
G01 X-0.35207 Y0.18412
G01 X-0.34921 Y0.18266
G04 P0 ( dwell for no time -- G64 should not smooth over this point )
G00 Z0.05906 ( retract )

G00 X-0.41204 Y0.18264 ( rapid move to begin. )
G01 F19.68504
( Mill infeed pass 1/1 )
G01 Z-0.00354
G04 P0 ( dwell for no time -- G64 should not smooth over this point )
G01 F39.37008
G01 X-0.41204 Y0.18264
G01 X-0.40915 Y0.18412
G01 X-0.40915 Y0.18818
G04 P0 ( dwell for no time -- G64 should not smooth over this point )
G00 Z0.05906 ( retract )

G00 X-0.40335 Y0.27580 ( rapid move to begin. )
G01 F19.68504
( Mill infeed pass 1/1 )
G01 Z-0.00354
G04 P0 ( dwell for no time -- G64 should not smooth over this point )
G01 F39.37008
G01 X-0.40335 Y0.27580
G01 X-0.40110 Y0.27843
G01 X-0.39474 Y0.28480
G01 X-0.40326 Y0.28127
G01 X-0.39474 Y0.28480
G01 X-0.38928 Y0.29026
G01 X-0.38832 Y0.29066
G01 X-0.38928 Y0.29026
G01 X-0.39700 Y0.29026
G01 X-0.40566 Y0.28667
G01 X-0.43308 Y0.28922
G01 X-0.43411 Y0.29026
G01 X-0.43829 Y0.29026
G01 X-0.43829 Y0.28282
G01 X-0.43829 Y0.28608
G01 X-0.43725 Y0.28505
G01 X-0.43829 Y0.28608
G01 X-0.43829 Y0.29026
G01 X-0.43869 Y0.29066
G01 X-0.43829 Y0.29026
G01 X-0.39700 Y0.29026
G04 P0 ( dwell for no time -- G64 should not smooth over this point )
G00 Z0.05906 ( retract )

G00 X-0.55233 Y0.18423 ( rapid move to begin. )
G01 F19.68504
( Mill infeed pass 1/1 )
G01 Z-0.00354
G04 P0 ( dwell for no time -- G64 should not smooth over this point )
G01 F39.37008
G01 X-0.55233 Y0.18423
G01 X-0.55376 Y0.18476
G01 X-0.55430 Y0.18617
G01 X-0.52293 Y0.27364
G01 X-0.52293 Y0.27587
G01 X-0.52451 Y0.27745
G01 X-0.52293 Y0.27587
G01 X-0.52293 Y0.27364
G01 X-0.61860 Y0.25570
G01 X-0.61860 Y0.25346
G01 X-0.61702 Y0.25187
G01 X-0.61860 Y0.25346
G01 X-0.61860 Y0.25570
G01 X-0.56742 Y0.42429
G01 X-0.56742 Y0.43030
G01 X-0.56969 Y0.43209
G01 X-0.57283 Y0.43525
G01 X-0.57283 Y0.43073
G01 X-0.57283 Y0.43525
G01 X-0.57425 Y0.43702
G01 X-0.57582 Y0.43935
G01 X-0.57582 Y0.44013
G01 X-0.57582 Y0.43935
G01 X-0.57713 Y0.43729
G01 X-0.57874 Y0.43525
G01 X-0.57874 Y0.43218
G01 X-0.57874 Y0.43525
G01 X-0.58233 Y0.43170
G01 X-0.57833 Y0.43572
G01 X-0.57582 Y0.43935
G01 X-0.57401 Y0.43669
G01 X-0.57246 Y0.43484
G01 X-0.56969 Y0.43209
G01 X-0.56742 Y0.43030
G01 X-0.56742 Y0.42429
G01 X-0.67201 Y0.41729
G01 X-0.67395 Y0.41652
G01 X-0.67829 Y0.41519
G01 X-0.67409 Y0.41414
G01 X-0.67829 Y0.41519
G01 X-0.68288 Y0.41381
G01 X-0.68393 Y0.41367
G01 X-0.67973 Y0.40947
G01 X-0.67526 Y0.40835
G01 X-0.67973 Y0.40947
G01 X-0.67413 Y0.40386
G01 X-0.68393 Y0.41367
G01 X-0.68474 Y0.41392
G01 X-0.68372 Y0.41361
G01 X-0.68327 Y0.41371
G01 X-0.67282 Y0.41695
G01 X-0.64204 Y0.43091
G01 X-0.64519 Y0.43367
G01 X-0.64750 Y0.43640
G01 X-0.65256 Y0.43041
G04 P0 ( dwell for no time -- G64 should not smooth over this point )
G00 Z0.05906 ( retract )

G00 X-0.67727 Y0.32627 ( rapid move to begin. )
G01 F19.68504
( Mill infeed pass 1/1 )
G01 Z-0.00354
G04 P0 ( dwell for no time -- G64 should not smooth over this point )
G01 F39.37008
G01 X-0.67727 Y0.32627
G01 X-0.67569 Y0.32469
G01 X-0.67569 Y0.32246
G04 P0 ( dwell for no time -- G64 should not smooth over this point )
G00 Z0.05906 ( retract )

G00 X-0.62358 Y0.17771 ( rapid move to begin. )
G01 F19.68504
( Mill infeed pass 1/1 )
G01 Z-0.00354
G04 P0 ( dwell for no time -- G64 should not smooth over this point )
G01 F39.37008
G01 X-0.62358 Y0.17771
G01 X-0.62011 Y0.17423
G01 X-0.62174 Y0.17052
G04 P0 ( dwell for no time -- G64 should not smooth over this point )
G00 Z0.05906 ( retract )

G00 X-0.50432 Y0.40110 ( rapid move to begin. )
G01 F19.68504
( Mill infeed pass 1/1 )
G01 Z-0.00354
G04 P0 ( dwell for no time -- G64 should not smooth over this point )
G01 F39.37008
G01 X-0.50432 Y0.40110
G01 X-0.50283 Y0.40708
G01 X-0.50143 Y0.41045
G01 X-0.48473 Y0.42016
G01 X-0.38250 Y0.42018
G01 X-0.37490 Y0.41952
G01 X-0.35785 Y0.41944
G01 X-0.35221 Y0.41916
G01 X-0.33919 Y0.40456
G01 X-0.33810 Y0.40284
G01 X-0.33702 Y0.40067
G01 X-0.33630 Y0.39878
G01 X-0.33565 Y0.39645
G01 X-0.33527 Y0.39405
G01 X-0.33514 Y0.39163
G01 X-0.33514 Y0.34440
G01 X-0.33554 Y0.34344
G01 X-0.33514 Y0.34440
G01 X-0.32968 Y0.34986
G01 X-0.32552 Y0.35991
G01 X-0.32541 Y0.35988
G01 X-0.32552 Y0.35991
G01 X-0.32529 Y0.36104
G01 X-0.32529 Y0.39164
G01 X-0.32576 Y0.39925
G01 X-0.32665 Y0.40413
G01 X-0.34509 Y0.42901
G01 X-0.35139 Y0.42503
G01 X-0.35777 Y0.42534
G01 X-0.37472 Y0.42542
G01 X-0.38191 Y0.42605
G01 X-0.38257 Y0.42625
G01 X-0.38191 Y0.42605
G01 X-0.37472 Y0.42542
G01 X-0.35777 Y0.42534
G01 X-0.35139 Y0.42503
G01 X-0.34509 Y0.42901
G01 X-0.34653 Y0.43094
G01 X-0.35125 Y0.43052
G01 X-0.37329 Y0.43056
G01 X-0.37691 Y0.43094
G01 X-0.37927 Y0.43143
G01 X-0.38282 Y0.43253
G01 X-0.38580 Y0.43386
G01 X-0.38357 Y0.43281
G01 X-0.38166 Y0.43214
G01 X-0.37849 Y0.43124
G01 X-0.37611 Y0.43083
G01 X-0.37217 Y0.43052
G01 X-0.35162 Y0.43051
G01 X-0.34653 Y0.43094
G01 X-0.34509 Y0.42901
G01 X-0.33409 Y0.43589
G01 X-0.32981 Y0.43939
G01 X-0.32794 Y0.43672
G01 X-0.32499 Y0.43342
G01 X-0.32318 Y0.43170
G01 X-0.32136 Y0.43030
G01 X-0.32136 Y0.35818
G01 X-0.33514 Y0.34440
G01 X-0.33514 Y0.35211
G01 X-0.33120 Y0.36162
G01 X-0.33120 Y0.39155
G01 X-0.33161 Y0.39837
G01 X-0.33241 Y0.40281
G01 X-0.34887 Y0.41245
G01 X-0.35063 Y0.41311
G01 X-0.35376 Y0.41391
G01 X-0.35737 Y0.41427
G01 X-0.48376 Y0.41427
G01 X-0.48618 Y0.41414
G01 X-0.49008 Y0.41337
G01 X-0.49650 Y0.41034
G01 X-0.49858 Y0.40874
G01 X-0.50087 Y0.40646
G01 X-0.50302 Y0.40353
G01 X-0.50452 Y0.40067
G01 X-0.50559 Y0.39762
G01 X-0.50622 Y0.39446
G01 X-0.50640 Y0.39163
G01 X-0.50640 Y0.34007
G01 X-0.50600 Y0.33911
G01 X-0.50640 Y0.34007
G01 X-0.51033 Y0.34401
G01 X-0.51033 Y0.43029
G01 X-0.50835 Y0.43189
G01 X-0.51033 Y0.43029
G01 X-0.51033 Y0.40139
G01 X-0.50851 Y0.40872
G01 X-0.50687 Y0.41274
G01 X-0.50838 Y0.40915
G01 X-0.40581 Y0.50974
G01 X-0.39972 Y0.50974
G01 X-0.39865 Y0.50781
G01 X-0.39658 Y0.50474
G01 X-0.39354 Y0.50137
G01 X-0.39625 Y0.49838
G01 X-0.39784 Y0.49626
G01 X-0.39625 Y0.49838
G01 X-0.39768 Y0.49838
G01 X-0.39625 Y0.49838
G01 X-0.39354 Y0.50137
G01 X-0.39298 Y0.50138
G01 X-0.39354 Y0.50137
G01 X-0.39623 Y0.50429
G01 X-0.39928 Y0.50429
G01 X-0.49293 Y0.51121
G01 X-0.49902 Y0.51712
G01 X-0.49902 Y0.51850
G01 X-0.50194 Y0.52125
G01 X-0.50492 Y0.51850
G01 X-0.50492 Y0.51587
G01 X-0.50469 Y0.51472
G01 X-0.50402 Y0.51376
G01 X-0.49700 Y0.50693
G01 X-0.50402 Y0.51376
G01 X-0.50412 Y0.51369
G01 X-0.50402 Y0.51376
G01 X-0.50469 Y0.51472
G01 X-0.50492 Y0.51587
G01 X-0.50504 Y0.51585
G01 X-0.50492 Y0.51587
G01 X-0.50492 Y0.51850
G01 X-0.50194 Y0.52125
G01 X-0.49922 Y0.51866
G01 X-0.49519 Y0.51590
G01 X-0.49230 Y0.51445
G01 X-0.48818 Y0.51292
G01 X-0.49267 Y0.51461
G01 X-0.49587 Y0.51632
G01 X-0.49859 Y0.51817
G01 X-0.50042 Y0.51969
G01 X-0.50194 Y0.52125
G01 X-0.50193 Y0.52182
G01 X-0.50194 Y0.52125
G01 X-0.50376 Y0.51947
G01 X-0.50565 Y0.51794
G01 X-0.50794 Y0.51640
G01 X-0.50525 Y0.51372
G01 X-0.50215 Y0.50968
G01 X-0.49991 Y0.50554
G01 X-0.49854 Y0.50184
G04 P0 ( dwell for no time -- G64 should not smooth over this point )
G00 Z0.05906 ( retract )

G00 X-0.54147 Y0.59439 ( rapid move to begin. )
G01 F19.68504
( Mill infeed pass 1/1 )
G01 Z-0.00354
G04 P0 ( dwell for no time -- G64 should not smooth over this point )
G01 F39.37008
G01 X-0.54147 Y0.59439
G01 X-0.52692 Y0.59439
G01 X-0.53661 Y0.59841
G01 X-0.52692 Y0.59439
G01 X-0.52353 Y0.59438
G01 X-0.52104 Y0.59415
G01 X-0.51860 Y0.59378
G01 X-0.51726 Y0.59301
G01 X-0.51860 Y0.59378
G01 X-0.52466 Y0.59985
G01 X-0.53440 Y0.60388
G01 X-0.52466 Y0.59985
G01 X-0.56743 Y0.64262
G01 X-0.64152 Y0.64262
G01 X-0.64345 Y0.63901
G01 X-0.69027 Y0.57826
G01 X-0.65270 Y0.51834
G01 X-0.64753 Y0.51226
G01 X-0.64433 Y0.51576
G01 X-0.64216 Y0.51765
G01 X-0.64433 Y0.51576
G01 X-0.64753 Y0.51226
G01 X-0.65270 Y0.51834
G01 X-0.71076 Y0.61093
G01 X-0.69027 Y0.57826
G01 X-0.72156 Y0.53765
G01 X-0.72293 Y0.53560
G01 X-0.72293 Y0.53020
G01 X-0.72333 Y0.52953
G01 X-0.72293 Y0.53020
G01 X-0.72210 Y0.53065
G01 X-0.71990 Y0.53168
G01 X-0.71801 Y0.53234
G01 X-0.71612 Y0.53508
G01 X-0.71801 Y0.53234
G01 X-0.71220 Y0.53410
G01 X-0.71915 Y0.53196
G01 X-0.72293 Y0.53020
G01 X-0.72293 Y0.60422
G01 X-0.71495 Y0.61220
G01 X-0.71076 Y0.61093
G01 X-0.57284 Y0.52225
G01 X-0.57295 Y0.52307
G01 X-0.57285 Y0.52236
G01 X-0.57272 Y0.52228
G01 X-0.57284 Y0.52225
G01 X-0.57289 Y0.51888
G01 X-0.57281 Y0.51335
G01 X-0.57577 Y0.50936
G01 X-0.57708 Y0.51128
G01 X-0.57871 Y0.51321
G01 X-0.57879 Y0.51911
G01 X-0.57871 Y0.51321
G01 X-0.58192 Y0.51657
G01 X-0.58502 Y0.51890
G01 X-0.58163 Y0.51630
G01 X-0.57835 Y0.51281
G01 X-0.57708 Y0.51128
G01 X-0.57577 Y0.50936
G01 X-0.57579 Y0.50859
G01 X-0.57577 Y0.50936
G01 X-0.57245 Y0.51378
G01 X-0.57052 Y0.51578
G01 X-0.56742 Y0.51834
G01 X-0.56742 Y0.52546
G01 X-0.56903 Y0.52802
G01 X-0.57032 Y0.53080
G04 P0 ( dwell for no time -- G64 should not smooth over this point )
G00 Z0.05906 ( retract )

G00 X-0.75836 Y0.64952 ( rapid move to begin. )
G01 F19.68504
( Mill infeed pass 1/1 )
G01 Z-0.00354
G04 P0 ( dwell for no time -- G64 should not smooth over this point )
G01 F39.37008
G01 X-0.75836 Y0.64952
G01 X-0.75532 Y0.65257
G01 X-0.75650 Y0.65646
G04 P0 ( dwell for no time -- G64 should not smooth over this point )
G00 Z0.05906 ( retract )

G00 X-0.64345 Y0.70332 ( rapid move to begin. )
G01 F19.68504
( Mill infeed pass 1/1 )
G01 Z-0.00354
G04 P0 ( dwell for no time -- G64 should not smooth over this point )
G01 F39.37008
G01 X-0.64345 Y0.70332
G01 X-0.64152 Y0.69971
G01 X-0.63720 Y0.69971
G01 X-0.37811 Y0.70935
G01 X-0.37347 Y0.70998
G01 X-0.36812 Y0.71004
G01 X-0.35163 Y0.72653
G01 X-0.35664 Y0.72399
G01 X-0.36667 Y0.71984
G01 X-0.37057 Y0.71594
G01 X-0.37322 Y0.71591
G01 X-0.37057 Y0.71594
G01 X-0.37042 Y0.71563
G01 X-0.37057 Y0.71594
G01 X-0.36667 Y0.71984
G01 X-0.35664 Y0.72399
G01 X-0.35163 Y0.72653
G01 X-0.33019 Y0.74784
G01 X-0.32750 Y0.75282
G01 X-0.32351 Y0.75217
G01 X-0.32720 Y0.75013
G01 X-0.33019 Y0.74784
G01 X-0.33537 Y0.75062
G01 X-0.33250 Y0.75597
G01 X-0.33514 Y0.76034
G01 X-0.33527 Y0.75142
G01 X-0.33574 Y0.74863
G01 X-0.33671 Y0.74555
G01 X-0.33810 Y0.74264
G01 X-0.34015 Y0.73963
G01 X-0.34235 Y0.73727
G01 X-0.34520 Y0.73502
G01 X-0.34728 Y0.73378
G01 X-0.34911 Y0.73292
G01 X-0.35218 Y0.73190
G01 X-0.35517 Y0.73135
G01 X-0.35901 Y0.72941
G01 X-0.36892 Y0.72530
G01 X-0.37159 Y0.72530
G01 X-0.36892 Y0.72530
G01 X-0.35901 Y0.72941
G01 X-0.35517 Y0.73135
G01 X-0.35777 Y0.73120
G01 X-0.37839 Y0.73120
G04 P0 ( dwell for no time -- G64 should not smooth over this point )
G00 Z0.05906 ( retract )

G00 X-0.39633 Y0.64220 ( rapid move to begin. )
G01 F19.68504
( Mill infeed pass 1/1 )
G01 Z-0.00354
G04 P0 ( dwell for no time -- G64 should not smooth over this point )
G01 F39.37008
G01 X-0.39633 Y0.64220
G01 X-0.39354 Y0.63922
G01 X-0.39294 Y0.63922
G01 X-0.39354 Y0.63922
G01 X-0.39617 Y0.63623
G01 X-0.39634 Y0.63622
G01 X-0.39617 Y0.63623
G01 X-0.43255 Y0.57241
G01 X-0.43174 Y0.56943
G01 X-0.43135 Y0.56683
G01 X-0.42483 Y0.56683
G01 X-0.43651 Y0.58063
G01 X-0.43652 Y0.58102
G01 X-0.39885 Y0.57273
G01 X-0.39750 Y0.57273
G01 X-0.39842 Y0.57365
G01 X-0.39789 Y0.58236
G01 X-0.39671 Y0.58073
G01 X-0.39432 Y0.57789
G01 X-0.39063 Y0.57464
G01 X-0.38761 Y0.57263
G01 X-0.38468 Y0.57109
G01 X-0.38267 Y0.57027
G01 X-0.38697 Y0.56827
G01 X-0.38938 Y0.56683
G01 X-0.40674 Y0.56683
G01 X-0.38938 Y0.56683
G01 X-0.38697 Y0.56827
G01 X-0.38267 Y0.57027
G01 X-0.38468 Y0.57109
G01 X-0.38761 Y0.57263
G01 X-0.39063 Y0.57464
G01 X-0.39432 Y0.57789
G01 X-0.39671 Y0.58073
G01 X-0.39789 Y0.58236
G01 X-0.39842 Y0.57365
G01 X-0.39750 Y0.57273
G01 X-0.39070 Y0.56942
G04 P0 ( dwell for no time -- G64 should not smooth over this point )
G00 Z0.05906 ( retract )

G00 X-0.27459 Y0.62214 ( rapid move to begin. )
G01 F19.68504
( Mill infeed pass 1/1 )
G01 Z-0.00354
G04 P0 ( dwell for no time -- G64 should not smooth over this point )
G01 F39.37008
G01 X-0.27459 Y0.62214
G01 X-0.27866 Y0.62130
G01 X-0.28147 Y0.62103
G01 X-0.30376 Y0.62101
G01 X-0.30657 Y0.62124
G01 X-0.31000 Y0.62189
G01 X-0.31230 Y0.62252
G01 X-0.31742 Y0.62476
G01 X-0.31952 Y0.62589
G01 X-0.32149 Y0.62723
G01 X-0.32249 Y0.62804
G01 X-0.32345 Y0.62935
G01 X-0.32246 Y0.62800
G01 X-0.32225 Y0.62742
G01 X-0.32119 Y0.62386
G01 X-0.32069 Y0.62108
G01 X-0.32038 Y0.61711
G01 X-0.32041 Y0.60133
G01 X-0.18033 Y0.60128
G01 X-0.17716 Y0.60702
G01 X-0.17379 Y0.61133
G01 X-0.17427 Y0.61120
G01 X-0.17463 Y0.61137
G01 X-0.17791 Y0.61329
G01 X-0.18096 Y0.61274
G01 X-0.17791 Y0.61329
G01 X-0.17999 Y0.61495
G01 X-0.18158 Y0.61653
G01 X-0.18522 Y0.62189
G01 X-0.18669 Y0.62580
G01 X-0.18740 Y0.62968
G01 X-0.19009 Y0.62741
G01 X-0.19424 Y0.62475
G01 X-0.20087 Y0.62215
G01 X-0.20413 Y0.62141
G01 X-0.20895 Y0.62097
G01 X-0.22901 Y0.62097
G01 X-0.23191 Y0.62121
G01 X-0.23721 Y0.62214
G01 X-0.23217 Y0.61529
G01 X-0.22859 Y0.61506
G01 X-0.20900 Y0.61506
G01 X-0.20600 Y0.61526
G01 X-0.20900 Y0.61506
G01 X-0.22859 Y0.61506
G01 X-0.23217 Y0.61529
G01 X-0.23721 Y0.62214
G01 X-0.23191 Y0.62121
G01 X-0.22901 Y0.62097
G01 X-0.20895 Y0.62097
G01 X-0.20413 Y0.62141
G01 X-0.20087 Y0.62215
G01 X-0.19424 Y0.62475
G01 X-0.19009 Y0.62741
G01 X-0.18740 Y0.62968
G01 X-0.18680 Y0.62619
G01 X-0.18562 Y0.62276
G01 X-0.18522 Y0.62189
G01 X-0.18158 Y0.61653
G01 X-0.17907 Y0.61416
G01 X-0.17641 Y0.61232
G01 X-0.17427 Y0.61120
G01 X-0.17312 Y0.61151
G01 X-0.17379 Y0.61133
G01 X-0.17685 Y0.60747
G01 X-0.18271 Y0.60643
G01 X-0.20411 Y0.60718
G01 X-0.31449 Y0.60718
G01 X-0.31623 Y0.60545
G01 X-0.31449 Y0.60718
G01 X-0.31448 Y0.61218
G01 X-0.32063 Y0.62054
G01 X-0.32119 Y0.62386
G01 X-0.32249 Y0.62804
G01 X-0.31952 Y0.62589
G01 X-0.31586 Y0.62402
G01 X-0.30985 Y0.61584
G01 X-0.30694 Y0.61534
G01 X-0.30415 Y0.61512
G01 X-0.28148 Y0.61512
G01 X-0.27890 Y0.61531
G01 X-0.26031 Y0.63052
G01 X-0.25887 Y0.63213
G01 X-0.25887 Y0.63093
G01 X-0.25887 Y0.63213
G01 X-0.25609 Y0.63580
G01 X-0.25589 Y0.63612
G01 X-0.25591 Y0.63688
G01 X-0.25589 Y0.63612
G01 X-0.25297 Y0.63212
G01 X-0.25297 Y0.63093
G01 X-0.25297 Y0.63212
G01 X-0.25130 Y0.63039
G04 P0 ( dwell for no time -- G64 should not smooth over this point )
G00 Z0.05906 ( retract )

G00 X-0.27387 Y0.52308 ( rapid move to begin. )
G01 F19.68504
( Mill infeed pass 1/1 )
G01 Z-0.00354
G04 P0 ( dwell for no time -- G64 should not smooth over this point )
G01 F39.37008
G01 X-0.27387 Y0.52308
G01 X-0.27752 Y0.52400
G01 X-0.28210 Y0.52448
G01 X-0.30449 Y0.52441
G01 X-0.30968 Y0.52365
G01 X-0.31270 Y0.52282
G01 X-0.31778 Y0.52054
G01 X-0.32079 Y0.51875
G01 X-0.32041 Y0.52244
G01 X-0.32037 Y0.52485
G01 X-0.31889 Y0.52716
G01 X-0.31447 Y0.53309
G01 X-0.31447 Y0.53682
G01 X-0.31492 Y0.53700
G01 X-0.31447 Y0.53682
G01 X-0.31299 Y0.53829
G01 X-0.31318 Y0.53874
G01 X-0.31299 Y0.53829
G01 X-0.20413 Y0.53829
G01 X-0.16963 Y0.52648
G01 X-0.16657 Y0.52648
G01 X-0.16297 Y0.52352
G01 X-0.16831 Y0.51913
G01 X-0.17057 Y0.51682
G01 X-0.17671 Y0.50926
G01 X-0.17952 Y0.50437
G01 X-0.18057 Y0.50662
G01 X-0.18269 Y0.51032
G01 X-0.18412 Y0.51221
G01 X-0.18713 Y0.51552
G01 X-0.20589 Y0.53020
G01 X-0.20946 Y0.53041
G01 X-0.22960 Y0.53037
G01 X-0.23213 Y0.53025
G01 X-0.25297 Y0.51453
G01 X-0.25295 Y0.51333
G01 X-0.25149 Y0.51496
G01 X-0.25526 Y0.51038
G01 X-0.25590 Y0.50938
G01 X-0.25590 Y0.50859
G01 X-0.25590 Y0.50938
G01 X-0.25607 Y0.50965
G01 X-0.25744 Y0.51160
G01 X-0.25886 Y0.51324
G01 X-0.25887 Y0.51456
G01 X-0.25886 Y0.51324
G01 X-0.26054 Y0.51509
G01 X-0.27821 Y0.53005
G01 X-0.28282 Y0.53041
G01 X-0.30283 Y0.53041
G01 X-0.30576 Y0.53021
G01 X-0.30967 Y0.52965
G01 X-0.31409 Y0.52372
G01 X-0.31540 Y0.52168
G01 X-0.31985 Y0.51938
G01 X-0.32079 Y0.51875
G01 X-0.32135 Y0.51784
G01 X-0.32079 Y0.51875
G01 X-0.32039 Y0.52288
G01 X-0.32037 Y0.53926
G01 X-0.31544 Y0.54419
G01 X-0.18033 Y0.54419
G01 X-0.17841 Y0.54060
G01 X-0.17034 Y0.52996
G01 X-0.16831 Y0.52792
G01 X-0.16297 Y0.52352
G01 X-0.16234 Y0.52352
G01 X-0.16297 Y0.52352
G01 X-0.16657 Y0.52057
G01 X-0.17234 Y0.52057
G01 X-0.20087 Y0.52332
G01 X-0.20412 Y0.52407
G01 X-0.20869 Y0.52450
G01 X-0.23038 Y0.52445
G01 X-0.23316 Y0.52417
G01 X-0.23721 Y0.52333
G04 P0 ( dwell for no time -- G64 should not smooth over this point )
G00 Z0.05906 ( retract )

G00 X-0.17923 Y0.51524 ( rapid move to begin. )
G01 F19.68504
( Mill infeed pass 1/1 )
G01 Z-0.00354
G04 P0 ( dwell for no time -- G64 should not smooth over this point )
G01 F39.37008
G01 X-0.17923 Y0.51524
G01 X-0.17914 Y0.51254
G04 P0 ( dwell for no time -- G64 should not smooth over this point )
G00 Z0.05906 ( retract )

G00 X-0.17663 Y0.43925 ( rapid move to begin. )
G01 F19.68504
( Mill infeed pass 1/1 )
G01 Z-0.00354
G04 P0 ( dwell for no time -- G64 should not smooth over this point )
G01 F39.37008
G01 X-0.17663 Y0.43925
G01 X-0.17780 Y0.44106
G01 X-0.17952 Y0.44425
G01 X-0.18091 Y0.44138
G01 X-0.18389 Y0.43665
G01 X-0.18701 Y0.43321
G01 X-0.18841 Y0.43243
G01 X-0.18677 Y0.43328
G01 X-0.18194 Y0.43392
G01 X-0.17234 Y0.43396
G01 X-0.17150 Y0.43356
G01 X-0.17234 Y0.43396
G01 X-0.17663 Y0.43925
G01 X-0.17809 Y0.43998
G01 X-0.17920 Y0.44028
G01 X-0.17919 Y0.44071
G01 X-0.17920 Y0.44028
G01 X-0.18033 Y0.44013
G01 X-0.18227 Y0.43911
G04 P0 ( dwell for no time -- G64 should not smooth over this point )
G00 Z0.05906 ( retract )

G00 X-0.20770 Y0.41869 ( rapid move to begin. )
G01 F19.68504
( Mill infeed pass 1/1 )
G01 Z-0.00354
G04 P0 ( dwell for no time -- G64 should not smooth over this point )
G01 F39.37008
G01 X-0.20770 Y0.41869
G01 X-0.26427 Y0.36212
G01 X-0.26427 Y0.36983
G01 X-0.26007 Y0.37997
G01 X-0.25886 Y0.43530
G01 X-0.25590 Y0.43929
G01 X-0.25231 Y0.43454
G01 X-0.25093 Y0.43311
G01 X-0.24899 Y0.43145
G01 X-0.25121 Y0.43339
G01 X-0.25295 Y0.43530
G01 X-0.25295 Y0.43197
G01 X-0.25295 Y0.43530
G01 X-0.25590 Y0.43929
G01 X-0.25590 Y0.44003
G01 X-0.25590 Y0.43929
G01 X-0.25924 Y0.43484
G01 X-0.26117 Y0.43284
G01 X-0.26427 Y0.43029
G01 X-0.26427 Y0.36212
G01 X-0.26467 Y0.36115
G01 X-0.26427 Y0.36212
G01 X-0.25882 Y0.36757
G01 X-0.25462 Y0.37771
G01 X-0.21775 Y0.41451
G01 X-0.20770 Y0.41869
G01 X-0.20112 Y0.42527
G01 X-0.19961 Y0.42615
G01 X-0.20130 Y0.42517
G01 X-0.20218 Y0.42494
G01 X-0.20452 Y0.42450
G01 X-0.20763 Y0.42418
G01 X-0.22588 Y0.42412
G01 X-0.21002 Y0.42412
G01 X-0.22018 Y0.41989

G00 Z0.39370 (Retract to tool change height)
T3
M5      (Spindle stop.)
G04 P1.00000 (Wait for spindle to stop)
(MSG, Change tool bit to mill diameter 0.00984in)
M6      (Tool change.)
M0      (Temporary machine stop.)
M3 ( Spindle on clockwise. )
G04 P1.00000 (Wait for spindle to get up to speed)
G04 P0 ( dwell for no time -- G64 should not smooth over this point )
G00 Z0.05906 ( retract )

G00 X-0.11220 Y0.62096 ( rapid move to begin. )
G01 F19.68504
( Mill infeed pass 1/1 )
G01 Z-0.00354
G04 P0 ( dwell for no time -- G64 should not smooth over this point )
G01 F39.37008
G01 X-0.11220 Y0.62096
G01 X-0.09473 Y0.62096
G01 X-0.09289 Y0.62040
G01 X-0.09232 Y0.62096
G01 X-0.09473 Y0.62096
G01 X-0.08711 Y0.62096
G01 X-0.08612 Y0.62195
G01 X-0.08243 Y0.62687
G01 X-0.08120 Y0.63179
G01 X-0.08120 Y0.71053
G01 X-0.08204 Y0.71461
G01 X-0.08612 Y0.71545
G01 X-0.16486 Y0.71545
G01 X-0.16978 Y0.71422
G01 X-0.17471 Y0.71053
G01 X-0.17569 Y0.70955
G01 X-0.17569 Y0.68790
G01 X-0.18898 Y0.68790
G01 X-0.18921 Y0.69206
G01 X-0.18963 Y0.69414
G01 X-0.19071 Y0.69736
G01 X-0.19290 Y0.70112
G01 X-0.19414 Y0.70268
G01 X-0.19738 Y0.70562
G01 X-0.19896 Y0.70665
G01 X-0.20218 Y0.70822
G01 X-0.20562 Y0.70920
G01 X-0.20895 Y0.70954
G01 X-0.22956 Y0.70950
G01 X-0.23123 Y0.70937
G01 X-0.23390 Y0.70884
G01 X-0.23726 Y0.70759
G01 X-0.23877 Y0.70682
G01 X-0.24104 Y0.70530
G01 X-0.24380 Y0.70273
G01 X-0.24854 Y0.70049
G01 X-0.25221 Y0.69836
G01 X-0.25223 Y0.64846
G01 X-0.25221 Y0.69836
G01 X-0.24854 Y0.70049
G01 X-0.24380 Y0.70273
G01 X-0.24509 Y0.70110
G01 X-0.24746 Y0.69694
G01 X-0.24864 Y0.69269
G01 X-0.24894 Y0.69083
G01 X-0.24901 Y0.65285
G01 X-0.24861 Y0.64914
G01 X-0.24747 Y0.64565
G01 X-0.24861 Y0.64914
G01 X-0.24901 Y0.65285
G01 X-0.24891 Y0.69121
G01 X-0.24786 Y0.69581
G01 X-0.24713 Y0.69766
G01 X-0.24466 Y0.70172
G01 X-0.24203 Y0.70449
G01 X-0.24069 Y0.70555
G01 X-0.23765 Y0.70742
G01 X-0.23432 Y0.70873
G01 X-0.23081 Y0.70943
G01 X-0.20942 Y0.70955
G01 X-0.20604 Y0.70926
G01 X-0.20218 Y0.70822
G01 X-0.19896 Y0.70665
G01 X-0.19708 Y0.70538
G01 X-0.19415 Y0.70269
G01 X-0.18943 Y0.70048
G01 X-0.18500 Y0.69801
G01 X-0.18363 Y0.69779
G01 X-0.18367 Y0.69724
G01 X-0.18363 Y0.69779
G01 X-0.18229 Y0.69810
G01 X-0.18168 Y0.69843
G01 X-0.18157 Y0.69826
G01 X-0.18168 Y0.69843
G01 X-0.17569 Y0.70433
G01 X-0.17569 Y0.70955
G01 X-0.19142 Y0.70955
G01 X-0.18614 Y0.70709
G01 X-0.18436 Y0.70609
G01 X-0.18091 Y0.70955
G01 X-0.17569 Y0.70955
G01 X-0.30458 Y0.70955
G01 X-0.30482 Y0.70931
G01 X-0.30241 Y0.70955
G01 X-0.28286 Y0.70954
G01 X-0.27879 Y0.70906
G01 X-0.27434 Y0.70750
G01 X-0.27111 Y0.70555
G01 X-0.26937 Y0.70409
G01 X-0.26697 Y0.70144
G01 X-0.26607 Y0.70022
G01 X-0.26463 Y0.69756
G01 X-0.26406 Y0.69616
G01 X-0.26308 Y0.69232
G01 X-0.26285 Y0.69044
G01 X-0.26285 Y0.65188
G01 X-0.26308 Y0.65000
G01 X-0.26421 Y0.64574
G01 X-0.25961 Y0.64843
G01 X-0.25952 Y0.70116
G01 X-0.25986 Y0.70127
G01 X-0.25952 Y0.70116
G01 X-0.25893 Y0.70253
G01 X-0.25784 Y0.70356
G01 X-0.25797 Y0.70370
G01 X-0.25784 Y0.70356
G01 X-0.25189 Y0.70707
G01 X-0.24663 Y0.70955
G04 P0 ( dwell for no time -- G64 should not smooth over this point )
G00 Z0.05906 ( retract )

G00 X-0.18074 Y0.65443 ( rapid move to begin. )
G01 F19.68504
( Mill infeed pass 1/1 )
G01 Z-0.00354
G04 P0 ( dwell for no time -- G64 should not smooth over this point )
G01 F39.37008
G01 X-0.18074 Y0.65443
G01 X-0.18898 Y0.65443
G01 X-0.18926 Y0.64985
G01 X-0.19030 Y0.64598
G01 X-0.19225 Y0.64211
G01 X-0.19405 Y0.63988
G01 X-0.18423 Y0.64143
G01 X-0.18307 Y0.64437
G01 X-0.18307 Y0.64100
G01 X-0.18307 Y0.64437
G01 X-0.18074 Y0.65443
G01 X-0.17569 Y0.65443
G01 X-0.17569 Y0.63293
G04 P0 ( dwell for no time -- G64 should not smooth over this point )
G00 Z0.05906 ( retract )

G00 X-0.18979 Y0.49782 ( rapid move to begin. )
G01 F19.68504
( Mill infeed pass 1/1 )
G01 Z-0.00354
G04 P0 ( dwell for no time -- G64 should not smooth over this point )
G01 F39.37008
G01 X-0.18979 Y0.49782
G01 X-0.18926 Y0.49563
G01 X-0.18898 Y0.49104
G01 X-0.17267 Y0.49104
G01 X-0.17178 Y0.49372
G01 X-0.17045 Y0.49629
G01 X-0.17126 Y0.55228
G01 X-0.17195 Y0.55372
G01 X-0.17267 Y0.55600
G01 X-0.32033 Y0.55600
G01 X-0.33242 Y0.54391
G01 X-0.33068 Y0.51008
G01 X-0.33390 Y0.50507
G01 X-0.34654 Y0.50510
G01 X-0.34889 Y0.50454
G01 X-0.35038 Y0.50438
G01 X-0.37218 Y0.50434
G01 X-0.37713 Y0.50508
G01 X-0.38142 Y0.50508
G01 X-0.37713 Y0.50508
G01 X-0.38039 Y0.50634
G01 X-0.38257 Y0.50764
G01 X-0.38078 Y0.50653
G01 X-0.37773 Y0.50526
G01 X-0.37626 Y0.50488
G01 X-0.37259 Y0.50436
G01 X-0.35076 Y0.50437
G01 X-0.34889 Y0.50454
G01 X-0.34418 Y0.50581
G01 X-0.34276 Y0.50653
G01 X-0.33935 Y0.50870
G01 X-0.33731 Y0.51065
G01 X-0.33621 Y0.51194
G01 X-0.33444 Y0.51468
G01 X-0.33348 Y0.51705
G01 X-0.31707 Y0.50648
G01 X-0.31951 Y0.50344
G01 X-0.32136 Y0.49989
G01 X-0.32248 Y0.49605
G01 X-0.32281 Y0.49298
G01 X-0.32283 Y0.49104
G01 X-0.33638 Y0.49104
G01 X-0.33878 Y0.49356
G01 X-0.34027 Y0.49473
G01 X-0.34377 Y0.49676
G01 X-0.34655 Y0.49772
G01 X-0.33201 Y0.49769
G01 X-0.33068 Y0.49794
G01 X-0.33054 Y0.49756
G01 X-0.33068 Y0.49794
G01 X-0.32952 Y0.49843
G01 X-0.32947 Y0.49863
G01 X-0.32971 Y0.49843
G01 X-0.32866 Y0.49952
G01 X-0.32858 Y0.49945
G01 X-0.32866 Y0.49952
G01 X-0.32817 Y0.50032
G01 X-0.32445 Y0.50612
G01 X-0.32915 Y0.49889
G01 X-0.32976 Y0.49838
G01 X-0.33133 Y0.49775
G01 X-0.34655 Y0.49772
G01 X-0.34846 Y0.49816
G01 X-0.35127 Y0.49842
G01 X-0.37251 Y0.49840
G01 X-0.37496 Y0.49816
G01 X-0.37693 Y0.49770
G01 X-0.38142 Y0.49770
G01 X-0.38259 Y0.49507
G01 X-0.37966 Y0.49676
G01 X-0.37662 Y0.49779
G01 X-0.39687 Y0.52156
G01 X-0.39103 Y0.52156
G01 X-0.39061 Y0.51893
G01 X-0.39005 Y0.51715
G01 X-0.51917 Y0.43865
G01 X-0.52214 Y0.33912
G01 X-0.52070 Y0.33767
G01 X-0.52214 Y0.33912
G01 X-0.52214 Y0.34116
G01 X-0.51917 Y0.43865
G01 X-0.52214 Y0.43723
G01 X-0.52214 Y0.43313
G01 X-0.51112 Y0.32809
G01 X-0.50140 Y0.31838
G01 X-0.50498 Y0.32702
G01 X-0.50140 Y0.31838
G01 X-0.49404 Y0.31101
G01 X-0.49453 Y0.31186
G01 X-0.49458 Y0.31249
G01 X-0.49459 Y0.33493
G01 X-0.49816 Y0.32984
G01 X-0.49459 Y0.32120
G01 X-0.49453 Y0.31186
G01 X-0.49208 Y0.30765
G01 X-0.48777 Y0.30367
G01 X-0.48376 Y0.30325
G01 X-0.46092 Y0.30325
G01 X-0.45610 Y0.30265
G01 X-0.45386 Y0.30180
G01 X-0.45221 Y0.30003
G01 X-0.45085 Y0.29756
G01 X-0.45037 Y0.29601
G01 X-0.45015 Y0.29465
G01 X-0.44981 Y0.29557
G01 X-0.45035 Y0.29590
G01 X-0.45100 Y0.29793
G01 X-0.45221 Y0.30003
G01 X-0.45386 Y0.30180
G01 X-0.45610 Y0.30265
G01 X-0.45456 Y0.30207
G01 X-0.44628 Y0.30207
G01 X-0.44480 Y0.30114
G01 X-0.44628 Y0.30207
G01 X-0.37041 Y0.30207
G01 X-0.37905 Y0.29849
G01 X-0.37041 Y0.30207
G01 X-0.36077 Y0.30207
G01 X-0.36759 Y0.29525
G01 X-0.37623 Y0.29167
G01 X-0.37730 Y0.28554
G01 X-0.36077 Y0.30207
G01 X-0.35777 Y0.30331
G01 X-0.35199 Y0.30711
G01 X-0.34819 Y0.31289
G01 X-0.34695 Y0.31589
G01 X-0.34695 Y0.32553
G01 X-0.34337 Y0.33417
G01 X-0.34695 Y0.33927
G01 X-0.34695 Y0.31589
G01 X-0.34013 Y0.32271
G01 X-0.33655 Y0.33135
G01 X-0.34013 Y0.32271
G01 X-0.30955 Y0.35329
G01 X-0.30955 Y0.43723
G01 X-0.31095 Y0.43781
G01 X-0.31259 Y0.43876
G01 X-0.32845 Y0.45144
G01 X-0.32822 Y0.45405
G01 X-0.33664 Y0.44945
G01 X-0.33534 Y0.45114
G01 X-0.33394 Y0.45370
G01 X-0.33337 Y0.45511
G01 X-0.33273 Y0.45758
G01 X-0.32279 Y0.45758
G01 X-0.32278 Y0.45493
G01 X-0.32256 Y0.45320
G01 X-0.32157 Y0.44932
G01 X-0.32085 Y0.44763
G04 P0 ( dwell for no time -- G64 should not smooth over this point )
G00 Z0.05906 ( retract )

G00 X-0.37662 Y0.49779 ( rapid move to begin. )
G01 F19.68504
( Mill infeed pass 1/1 )
G01 Z-0.00354
G04 P0 ( dwell for no time -- G64 should not smooth over this point )
G01 F39.37008
G01 X-0.37662 Y0.49779
G01 X-0.45777 Y0.52334
G01 X-0.45874 Y0.52386
G01 X-0.45997 Y0.52371
G01 X-0.45874 Y0.52386
G01 X-0.45777 Y0.52334
G01 X-0.51746 Y0.50880
G01 X-0.51958 Y0.51025
G01 X-0.52214 Y0.51138
G01 X-0.52214 Y0.52373
G01 X-0.51915 Y0.52424
G01 X-0.51610 Y0.52539
G01 X-0.49836 Y0.53798
G01 X-0.49776 Y0.53618
G01 X-0.49585 Y0.53233
G01 X-0.49827 Y0.53339
G01 X-0.49836 Y0.53798
G01 X-0.50565 Y0.53784
G01 X-0.50685 Y0.53455
G01 X-0.50821 Y0.53222
G01 X-0.50565 Y0.53337
G01 X-0.50565 Y0.53784
G01 X-0.50524 Y0.53947
G01 X-0.50494 Y0.54226
G01 X-0.50493 Y0.56354
G01 X-0.50566 Y0.56843
G01 X-0.50565 Y0.57941
G01 X-0.51007 Y0.58364
G01 X-0.50565 Y0.57941
G01 X-0.50566 Y0.56843
G01 X-0.50617 Y0.56990
G01 X-0.50759 Y0.57291
G01 X-0.50917 Y0.57519
G01 X-0.51113 Y0.57734
G01 X-0.51226 Y0.57836
G01 X-0.51501 Y0.58018
G01 X-0.51689 Y0.58104
G01 X-0.51501 Y0.58018
G01 X-0.51226 Y0.57836
G01 X-0.51113 Y0.57734
G01 X-0.50917 Y0.57519
G01 X-0.50759 Y0.57291
G01 X-0.50617 Y0.56990
G01 X-0.50565 Y0.56840
G01 X-0.50493 Y0.56354
G01 X-0.50492 Y0.54296
G01 X-0.50518 Y0.53985
G01 X-0.50565 Y0.53784
G01 X-0.49836 Y0.53798
G01 X-0.49896 Y0.54168
G01 X-0.49901 Y0.56312
G01 X-0.49890 Y0.56473
G01 X-0.49828 Y0.56843
G01 X-0.49822 Y0.58101
G01 X-0.49889 Y0.58291
G01 X-0.49869 Y0.58303
G01 X-0.49889 Y0.58291
G01 X-0.50162 Y0.58587
G01 X-0.50561 Y0.58954
G01 X-0.50146 Y0.58572
G01 X-0.49930 Y0.58344
G01 X-0.49858 Y0.58231
G01 X-0.49830 Y0.58099
G01 X-0.49826 Y0.57919
G01 X-0.49828 Y0.56843
G01 X-0.49682 Y0.57211
G01 X-0.49447 Y0.57564
G01 X-0.49185 Y0.57822
G01 X-0.48847 Y0.58036
G01 X-0.56254 Y0.65443
G01 X-0.64918 Y0.65443
G01 X-0.64990 Y0.65215
G01 X-0.65058 Y0.65073
G01 X-0.65490 Y0.50260
G01 X-0.65024 Y0.49410
G01 X-0.64918 Y0.49104
G01 X-0.64271 Y0.49104
G01 X-0.64266 Y0.49333
G01 X-0.64218 Y0.49688
G01 X-0.64124 Y0.49989
G01 X-0.63966 Y0.50299
G01 X-0.64708 Y0.50012
G01 X-0.64700 Y0.49867
G01 X-0.73474 Y0.60707
G01 X-0.73474 Y0.60911
G01 X-0.73330 Y0.61056
G01 X-0.71428 Y0.62434
G01 X-0.71576 Y0.62487
G01 X-0.71789 Y0.62597
G01 X-0.72127 Y0.62259
G01 X-0.73474 Y0.52542
G01 X-0.73474 Y0.51613
G01 X-0.73228 Y0.52134
G01 X-0.73474 Y0.51613
G01 X-0.73474 Y0.50637
G01 X-0.73229 Y0.50934
G01 X-0.73106 Y0.51052
G01 X-0.72476 Y0.51568
G01 X-0.72158 Y0.51753
G01 X-0.72585 Y0.51766
G01 X-0.72807 Y0.51298
G01 X-0.73170 Y0.50995
G01 X-0.73474 Y0.50637
G01 X-0.73681 Y0.50031
G01 X-0.73901 Y0.49128
G01 X-0.74026 Y0.48251
G01 X-0.74064 Y0.47480
G01 X-0.74026 Y0.46611
G01 X-0.73901 Y0.45734
G01 X-0.73681 Y0.44831
G01 X-0.73646 Y0.44707
G01 X-0.73611 Y0.44668
G01 X-0.73092 Y0.44095
G01 X-0.72399 Y0.43456
G01 X-0.71633 Y0.42876
G01 X-0.71453 Y0.42757
G01 X-0.69574 Y0.40878
G01 X-0.69688 Y0.41429
G01 X-0.70488 Y0.41792
G01 X-0.71453 Y0.42757
G01 X-0.70636 Y0.42512
G01 X-0.70173 Y0.42459
G01 X-0.69425 Y0.42119
G01 X-0.70173 Y0.42459
G01 X-0.69699 Y0.42413
G01 X-0.69530 Y0.42417
G01 X-0.56024 Y0.43836
G01 X-0.55561 Y0.43315
G01 X-0.57208 Y0.45169
G01 X-0.57206 Y0.49704
G01 X-0.56744 Y0.49972
G01 X-0.56823 Y0.49740
G01 X-0.56889 Y0.49267
G01 X-0.56890 Y0.45635
G01 X-0.56830 Y0.45160
G01 X-0.56743 Y0.44886
G01 X-0.57948 Y0.48566
G01 X-0.57944 Y0.49703
G01 X-0.57947 Y0.45171
G01 X-0.58401 Y0.44910
G01 X-0.58296 Y0.45315
G01 X-0.58273 Y0.45502
G01 X-0.58268 Y0.49226
G01 X-0.58303 Y0.49605
G01 X-0.58409 Y0.49974
G01 X-0.57948 Y0.48566
G01 X-0.58409 Y0.49974
G01 X-0.55616 Y0.53012
G01 X-0.55561 Y0.52957
G01 X-0.55561 Y0.51140
G01 X-0.55858 Y0.50998
G01 X-0.55561 Y0.51140
G01 X-0.55561 Y0.52957
G01 X-0.55616 Y0.53012
G01 X-0.58409 Y0.49974
G01 X-0.57211 Y0.46317
G01 X-0.57208 Y0.45169
G01 X-0.56024 Y0.43836
G01 X-0.55847 Y0.43855
G01 X-0.55561 Y0.43725
G01 X-0.55561 Y0.43315
G01 X-0.63041 Y0.25061
G01 X-0.63041 Y0.24857
G01 X-0.62897 Y0.24712
G01 X-0.63041 Y0.24857
G01 X-0.63041 Y0.25061
G01 X-0.51112 Y0.27873
G01 X-0.51112 Y0.28077
G01 X-0.51256 Y0.28221
G01 X-0.51112 Y0.28077
G01 X-0.51112 Y0.27873
G01 X-0.56424 Y0.17856
G01 X-0.56390 Y0.17581
G01 X-0.56388 Y0.17411
G01 X-0.55947 Y0.17401
G01 X-0.56388 Y0.17411
G01 X-0.56390 Y0.17581
G01 X-0.56424 Y0.17856
G01 X-0.39734 Y0.18127
G01 X-0.39734 Y0.17411
G01 X-0.40070 Y0.17411
G01 X-0.40263 Y0.17386
G04 P0 ( dwell for no time -- G64 should not smooth over this point )
G00 Z0.05906 ( retract )

G00 X-0.25258 Y0.30050 ( rapid move to begin. )
G01 F19.68504
( Mill infeed pass 1/1 )
G01 Z-0.00354
G04 P0 ( dwell for no time -- G64 should not smooth over this point )
G01 F39.37008
G01 X-0.25258 Y0.30050
G01 X-0.25386 Y0.30181
G01 X-0.25516 Y0.30277
G01 X-0.25659 Y0.30353
G01 X-0.25826 Y0.30410
G01 X-0.17368 Y0.38868
G01 X-0.17164 Y0.38868
G04 P0 ( dwell for no time -- G64 should not smooth over this point )
G00 Z0.05906 ( retract )

G00 X-0.26994 Y0.33975 ( rapid move to begin. )
G01 F19.68504
( Mill infeed pass 1/1 )
G01 Z-0.00354
G04 P0 ( dwell for no time -- G64 should not smooth over this point )
G01 F39.37008
G01 X-0.26994 Y0.33975
G01 X-0.25955 Y0.35013
G01 X-0.26568 Y0.34906
G01 X-0.26809 Y0.34335
G01 X-0.26994 Y0.33975
G01 X-0.29315 Y0.31646
G01 X-0.29464 Y0.31453
G01 X-0.29581 Y0.31240
G01 X-0.29643 Y0.31082
G01 X-0.29707 Y0.30837
G01 X-0.29835 Y0.30617
G01 X-0.29809 Y0.30596
G01 X-0.29835 Y0.30617
G01 X-0.29939 Y0.30529
G01 X-0.30096 Y0.30441
G01 X-0.29939 Y0.30529
G01 X-0.29835 Y0.30617
G01 X-0.29707 Y0.30837
G01 X-0.29734 Y0.30443
G01 X-0.30151 Y0.30436
G01 X-0.30425 Y0.30368
G01 X-0.30571 Y0.30298
G01 X-0.30704 Y0.30207
G01 X-0.30901 Y0.30003
G01 X-0.31037 Y0.29756
G01 X-0.31105 Y0.29481
G01 X-0.31112 Y0.28101
G01 X-0.31109 Y0.29441
G01 X-0.31224 Y0.29204
G01 X-0.31470 Y0.28610
G01 X-0.31741 Y0.29810
G01 X-0.31900 Y0.29502
G01 X-0.32152 Y0.28893
G01 X-0.36243 Y0.25308
G01 X-0.36388 Y0.25163
G01 X-0.36388 Y0.24959
G01 X-0.35858 Y0.17386
G01 X-0.36052 Y0.17411
G01 X-0.36388 Y0.17411
G01 X-0.36388 Y0.18127
G01 X-0.32765 Y0.28786
G01 X-0.30479 Y0.31072
G01 X-0.30394 Y0.31120
G01 X-0.30349 Y0.31202
G01 X-0.30479 Y0.31072
G01 X-0.28050 Y0.33504
G01 X-0.27879 Y0.33724
G01 X-0.27762 Y0.33937
G01 X-0.27700 Y0.34096
G01 X-0.27635 Y0.34342
G01 X-0.27482 Y0.34638
G01 X-0.27250 Y0.35189
G01 X-0.27482 Y0.34638
G01 X-0.27635 Y0.34342
G01 X-0.27609 Y0.34600
G01 X-0.27608 Y0.35698
G01 X-0.26426 Y0.44886
G01 X-0.26351 Y0.45104
G01 X-0.26287 Y0.45456
G01 X-0.26285 Y0.49359
G01 X-0.26308 Y0.49547
G01 X-0.26420 Y0.49971
G01 X-0.25959 Y0.49703
G01 X-0.25959 Y0.45158
G01 X-0.25220 Y0.49704
G01 X-0.25221 Y0.45158
G01 X-0.24755 Y0.44886
G01 X-0.24830 Y0.45104
G01 X-0.24896 Y0.45497
G01 X-0.24901 Y0.49226
G01 X-0.24842 Y0.49704
G01 X-0.24752 Y0.49978
G01 X-0.24842 Y0.49704
G01 X-0.24901 Y0.49226
G01 X-0.24896 Y0.45497
G01 X-0.24830 Y0.45104
G01 X-0.24755 Y0.44886
G01 X-0.25221 Y0.45158
G01 X-0.25220 Y0.49704
G01 X-0.25959 Y0.45158
G01 X-0.27608 Y0.43313
G01 X-0.27608 Y0.43723
G01 X-0.27315 Y0.43863
G01 X-0.27608 Y0.43723
G01 X-0.27608 Y0.43313
G01 X-0.16725 Y0.42215
G01 X-0.18978 Y0.45082
G01 X-0.18926 Y0.45300
G01 X-0.18898 Y0.45758
G01 X-0.17267 Y0.45758
G01 X-0.17178 Y0.45491
G01 X-0.17045 Y0.45233
G01 X-0.17178 Y0.45491
G01 X-0.17267 Y0.45758
G01 X-0.18898 Y0.45758
G01 X-0.18926 Y0.45300
G01 X-0.18978 Y0.45082
G01 X-0.16725 Y0.42215
G01 X-0.14917 Y0.42215
G01 X-0.15602 Y0.42387
G01 X-0.16210 Y0.42586
G01 X-0.15602 Y0.42387
G01 X-0.14917 Y0.42215
G01 X-0.11974 Y0.42215
G01 X-0.11699 Y0.42490
G01 X-0.12570 Y0.42412
G01 X-0.13508 Y0.42504
G01 X-0.14410 Y0.42771
G01 X-0.14738 Y0.42931
G01 X-0.15396 Y0.43096
G01 X-0.15936 Y0.43272
G01 X-0.15396 Y0.43096
G01 X-0.14738 Y0.42931
G01 X-0.15355 Y0.43269
G01 X-0.16025 Y0.43815
G01 X-0.15320 Y0.43246
G01 X-0.14566 Y0.42839
G01 X-0.14370 Y0.42758
G01 X-0.13591 Y0.42522
G01 X-0.13423 Y0.42492
G01 X-0.12570 Y0.42412
G01 X-0.11699 Y0.42490
G01 X-0.11487 Y0.42602
G01 X-0.10805 Y0.43011
G01 X-0.09943 Y0.43648
G01 X-0.09285 Y0.44253
G01 X-0.08766 Y0.44825
G01 X-0.08376 Y0.45340
G01 X-0.08284 Y0.45734
G01 X-0.08159 Y0.46611
G01 X-0.08121 Y0.47383
G01 X-0.08159 Y0.48251
G01 X-0.08310 Y0.49259
G01 X-0.08503 Y0.50031
G01 X-0.08710 Y0.50636
G01 X-0.09046 Y0.51024
G01 X-0.09675 Y0.51542
G01 X-0.09814 Y0.51639
G01 X-0.10648 Y0.52077
G01 X-0.11561 Y0.52352
G01 X-0.10648 Y0.52628
G01 X-0.09814 Y0.53066
G01 X-0.09675 Y0.53163
G01 X-0.09046 Y0.53680
G01 X-0.08710 Y0.54068
G01 X-0.09015 Y0.53709
G01 X-0.09378 Y0.53407
G01 X-0.09712 Y0.52722
G01 X-0.10457 Y0.52722
G01 X-0.10688 Y0.52613
G01 X-0.11561 Y0.52352
G01 X-0.13537 Y0.52352
G01 X-0.14450 Y0.52077
G01 X-0.15223 Y0.51672
G01 X-0.15078 Y0.51983
G01 X-0.14641 Y0.51983
G01 X-0.14410 Y0.52091
G01 X-0.13537 Y0.52352
G01 X-0.14450 Y0.52628
G01 X-0.15223 Y0.53032
G01 X-0.15078 Y0.52722
G01 X-0.14641 Y0.52722
G01 X-0.14410 Y0.52613
G01 X-0.13549 Y0.52355
G01 X-0.11561 Y0.52352
G01 X-0.10688 Y0.52091
G01 X-0.10457 Y0.51983
G01 X-0.09712 Y0.51983
G01 X-0.09378 Y0.51297
G01 X-0.09015 Y0.50995
G01 X-0.08710 Y0.50636
G01 X-0.08711 Y0.51613
G01 X-0.09072 Y0.52352
G01 X-0.08711 Y0.53092
G01 X-0.08711 Y0.51613
G01 X-0.08710 Y0.54068
G01 X-0.08503 Y0.54674
G01 X-0.08284 Y0.55577
G01 X-0.08159 Y0.56454
G01 X-0.08121 Y0.57322
G01 X-0.08159 Y0.58094
G01 X-0.08284 Y0.58971
G01 X-0.08503 Y0.59874
G01 X-0.08710 Y0.60479
G01 X-0.08711 Y0.61456
G01 X-0.08749 Y0.61536
G01 X-0.08711 Y0.61575
G01 X-0.08711 Y0.61456
G01 X-0.08711 Y0.62096
G01 X-0.08710 Y0.60479
G01 X-0.09015 Y0.60838
G01 X-0.09378 Y0.61140
G01 X-0.09462 Y0.61318
G01 X-0.09680 Y0.61388
G01 X-0.09378 Y0.61140
G01 X-0.09778 Y0.61459
G01 X-0.10532 Y0.61866
G01 X-0.10688 Y0.61934
G01 X-0.11220 Y0.62096
G01 X-0.11681 Y0.62155
G01 X-0.12452 Y0.62193
G01 X-0.13418 Y0.62155
G01 X-0.13877 Y0.62097
G01 X-0.16486 Y0.62096
G01 X-0.16637 Y0.62107
G01 X-0.16373 Y0.61838
G01 X-0.15626 Y0.62096
G01 X-0.13877 Y0.62097
G01 X-0.14490 Y0.61903
G01 X-0.15247 Y0.61502
G01 X-0.15418 Y0.61388
G01 X-0.16099 Y0.61152
G01 X-0.15418 Y0.61388
G01 X-0.15390 Y0.61410
G01 X-0.16020 Y0.60894
G01 X-0.16159 Y0.60757
G01 X-0.32321 Y0.58947
G01 X-0.32525 Y0.58947
G01 X-0.33243 Y0.59664
G01 X-0.33223 Y0.59851
G01 X-0.33243 Y0.59664
G01 X-0.32525 Y0.58947
G01 X-0.32321 Y0.58947
G01 X-0.22370 Y0.60062
G01 X-0.17748 Y0.58947
G01 X-0.17267 Y0.58947
G01 X-0.17195 Y0.59175
G01 X-0.17126 Y0.59320
G01 X-0.17195 Y0.59175
G01 X-0.17267 Y0.58947
G01 X-0.17748 Y0.58947
G01 X-0.33546 Y0.62757
G01 X-0.33773 Y0.63038
G01 X-0.34065 Y0.63283
G01 X-0.34390 Y0.63462
G01 X-0.34654 Y0.63545
G01 X-0.33398 Y0.63548
G01 X-0.34654 Y0.63545
G01 X-0.34889 Y0.63601
G01 X-0.35078 Y0.63618
G01 X-0.37416 Y0.63607
G01 X-0.37881 Y0.63491
G01 X-0.38255 Y0.63298
G01 X-0.44833 Y0.57776
G01 X-0.44833 Y0.57653
G01 X-0.44776 Y0.57597
G01 X-0.38735 Y0.63016
G01 X-0.37687 Y0.64283
G01 X-0.37497 Y0.64239
G01 X-0.37216 Y0.64213
G01 X-0.35162 Y0.64213
G01 X-0.34846 Y0.64239
G01 X-0.34655 Y0.64283
G01 X-0.33240 Y0.64286
G01 X-0.32939 Y0.64656
G01 X-0.33240 Y0.64286
G01 X-0.33005 Y0.64280
G01 X-0.32997 Y0.64309
G01 X-0.33005 Y0.64280
G01 X-0.32880 Y0.64233
G01 X-0.32781 Y0.64144
G01 X-0.32771 Y0.64155
G01 X-0.32781 Y0.64144
G01 X-0.32736 Y0.64084
G01 X-0.32845 Y0.64349
G01 X-0.32939 Y0.64656
G01 X-0.32822 Y0.65386
G01 X-0.32939 Y0.64656
G01 X-0.33240 Y0.64286
G01 X-0.34655 Y0.64283
G01 X-0.34399 Y0.64369
G01 X-0.34173 Y0.64486
G01 X-0.34030 Y0.64577
G01 X-0.33834 Y0.64738
G01 X-0.33558 Y0.65059
G01 X-0.33354 Y0.65443
G01 X-0.32283 Y0.65443
G01 X-0.32255 Y0.64984
G01 X-0.32151 Y0.64598
G01 X-0.31973 Y0.64239
G01 X-0.31816 Y0.64027
G01 X-0.31973 Y0.64239
G01 X-0.32151 Y0.64598
G01 X-0.32255 Y0.64984
G01 X-0.32283 Y0.65443
G01 X-0.33354 Y0.65443
G01 X-0.33491 Y0.65168
G01 X-0.33583 Y0.65025
G01 X-0.33773 Y0.64797
G01 X-0.33997 Y0.64604
G01 X-0.34136 Y0.64506
G01 X-0.34399 Y0.64369
G01 X-0.34680 Y0.64276
G01 X-0.34846 Y0.64239
G01 X-0.35162 Y0.64213
G01 X-0.37286 Y0.64218
G01 X-0.37580 Y0.64254
G01 X-0.37864 Y0.64338
G01 X-0.38243 Y0.64530
G01 X-0.38137 Y0.64286
G01 X-0.37687 Y0.64283
G01 X-0.38735 Y0.63016
G01 X-0.38142 Y0.63548
G01 X-0.37689 Y0.63545
G01 X-0.38142 Y0.63548
G01 X-0.38735 Y0.63016
G01 X-0.44291 Y0.56301
G01 X-0.44291 Y0.55502
G01 X-0.43422 Y0.55502
G01 X-0.37640 Y0.55985
G01 X-0.37260 Y0.56040
G01 X-0.36323 Y0.56043
G01 X-0.35340 Y0.57027
G01 X-0.36323 Y0.58012
G01 X-0.37215 Y0.58012
G01 X-0.37496 Y0.58039
G01 X-0.37632 Y0.58066
G01 X-0.37075 Y0.57274
G01 X-0.36629 Y0.57274
G01 X-0.36608 Y0.57323
G01 X-0.36629 Y0.57274
G01 X-0.36383 Y0.57027
G01 X-0.36078 Y0.57027
G01 X-0.36383 Y0.57027
G01 X-0.36629 Y0.56781
G01 X-0.36606 Y0.56726
G01 X-0.36629 Y0.56781
G01 X-0.37075 Y0.56781
G01 X-0.38525 Y0.55502
G01 X-0.38653 Y0.55502
G04 P0 ( dwell for no time -- G64 should not smooth over this point )
G00 Z0.05906 ( retract )

G00 X-0.32265 Y0.69148 ( rapid move to begin. )
G01 F19.68504
( Mill infeed pass 1/1 )
G01 Z-0.00354
G04 P0 ( dwell for no time -- G64 should not smooth over this point )
G01 F39.37008
G01 X-0.32265 Y0.69148
G01 X-0.32283 Y0.68790
G01 X-0.32624 Y0.68790
G01 X-0.32265 Y0.69148
G04 P0 ( dwell for no time -- G64 should not smooth over this point )
G00 Z0.05906 ( retract )

G00 X-0.36527 Y0.69823 ( rapid move to begin. )
G01 F19.68504
( Mill infeed pass 1/1 )
G01 Z-0.00354
G04 P0 ( dwell for no time -- G64 should not smooth over this point )
G01 F39.37008
G01 X-0.36527 Y0.69823
G01 X-0.36323 Y0.69823
G01 X-0.36179 Y0.69967
G01 X-0.64439 Y0.68790
G01 X-0.64918 Y0.68790
G01 X-0.64990 Y0.69017
G01 X-0.65058 Y0.69160
G04 P0 ( dwell for no time -- G64 should not smooth over this point )
G00 Z0.05906 ( retract )

G00 X-0.74318 Y0.65324 ( rapid move to begin. )
G01 F19.68504
( Mill infeed pass 1/1 )
G01 Z-0.00354
G04 P0 ( dwell for no time -- G64 should not smooth over this point )
G01 F39.37008
G01 X-0.74318 Y0.65324
G01 X-0.74265 Y0.65176
G01 X-0.74155 Y0.64963
G01 X-0.74493 Y0.64625
G04 P0 ( dwell for no time -- G64 should not smooth over this point )
G00 Z0.05906 ( retract )

G00 X-0.64718 Y0.44950 ( rapid move to begin. )
G01 F19.68504
( Mill infeed pass 1/1 )
G01 Z-0.00354
G04 P0 ( dwell for no time -- G64 should not smooth over this point )
G01 F39.37008
G01 X-0.64718 Y0.44950
G01 X-0.64721 Y0.44852
G01 X-0.63969 Y0.44571
G01 X-0.64061 Y0.44733
G01 X-0.64196 Y0.45086
G01 X-0.64265 Y0.45516
G01 X-0.64271 Y0.45758
G01 X-0.64918 Y0.45758
G01 X-0.65024 Y0.45452
G01 X-0.65487 Y0.44606
G04 P0 ( dwell for no time -- G64 should not smooth over this point )
G00 Z0.05906 ( retract )

G00 X-0.66532 Y0.33103 ( rapid move to begin. )
G01 F19.68504
( Mill infeed pass 1/1 )
G01 Z-0.00354
G04 P0 ( dwell for no time -- G64 should not smooth over this point )
G01 F39.37008
G01 X-0.66532 Y0.33103
G01 X-0.66388 Y0.32959
G01 X-0.66388 Y0.32755
G04 P0 ( dwell for no time -- G64 should not smooth over this point )
G00 Z0.05906 ( retract )

G00 X-0.60974 Y0.18057 ( rapid move to begin. )
G01 F19.68504
( Mill infeed pass 1/1 )
G01 Z-0.00354
G04 P0 ( dwell for no time -- G64 should not smooth over this point )
G01 F39.37008
G01 X-0.60974 Y0.18057
G01 X-0.60295 Y0.17378
G01 X-0.60462 Y0.17321
G01 X-0.60605 Y0.17245
G01 X-0.60736 Y0.17149
G01 X-0.60861 Y0.17021

G04 P0 ( dwell for no time -- G64 should not smooth over this point )
G00 Z0.393701 ( retract )

M5 ( Spindle off. )
G04 P1.000000
M9 ( Coolant off. )
M2 ( Program end. )

