( pcb2gcode 2.5.0 )
( Software-independent Gcode )

G94 ( Inches per minute feed rate. )
G20 ( Units == INCHES. )

G90 ( Absolute coordinates. )
G00 S24000 ( RPM spindle speed. )
G64 P0.00040 ( set maximum deviation from commanded toolpath )
G01 F39.37008 ( Feedrate. )


G00 Z0.39370 (Retract to tool change height)
T1
M5      (Spindle stop.)
G04 P1.00000 (Wait for spindle to stop)
(MSG, Change tool bit to mill diameter 0.05709in)
M6      (Tool change.)
M0      (Temporary machine stop.)
M3 ( Spindle on clockwise. )
G04 P1.00000 (Wait for spindle to get up to speed)
G04 P0 ( dwell for no time -- G64 should not smooth over this point )
G00 Z0.05906 ( retract )

G00 X-0.19301 Y0.61268 ( rapid move to begin. )
G01 F19.68504
( Mill infeed pass 1/1 )
G01 Z-0.00354
G04 P0 ( dwell for no time -- G64 should not smooth over this point )
G01 F39.37008
G01 X-0.19301 Y0.61268
G01 X-0.19338 Y0.61269
G04 P0 ( dwell for no time -- G64 should not smooth over this point )
G00 Z0.05906 ( retract )

G00 X-0.24473 Y0.61269 ( rapid move to begin. )
G01 F19.68504
( Mill infeed pass 1/1 )
G01 Z-0.00354
G04 P0 ( dwell for no time -- G64 should not smooth over this point )
G01 F39.37008
G01 X-0.24473 Y0.61269
G01 X-0.24664 Y0.61309
G01 X-0.26519 Y0.61309
G01 X-0.26708 Y0.61269
G01 X-0.26519 Y0.61309
G01 X-0.25817 Y0.61707
G01 X-0.25597 Y0.61870
G01 X-0.25596 Y0.61941
G01 X-0.25597 Y0.61890
G01 X-0.25382 Y0.61714
G01 X-0.25225 Y0.61609
G01 X-0.24664 Y0.61309
G04 P0 ( dwell for no time -- G64 should not smooth over this point )
G00 Z0.05906 ( retract )

G00 X-0.24662 Y0.53238 ( rapid move to begin. )
G01 F19.68504
( Mill infeed pass 1/1 )
G01 Z-0.00354
G04 P0 ( dwell for no time -- G64 should not smooth over this point )
G01 F39.37008
G01 X-0.24662 Y0.53238
G01 X-0.25364 Y0.52841
G01 X-0.25584 Y0.52677
G01 X-0.25585 Y0.52580
G01 X-0.25585 Y0.52631
G01 X-0.25942 Y0.52924
G01 X-0.26184 Y0.53069
G01 X-0.26566 Y0.53238
G01 X-0.26754 Y0.53278
G01 X-0.26566 Y0.53238
G01 X-0.24662 Y0.53238
G01 X-0.24473 Y0.53278
G04 P0 ( dwell for no time -- G64 should not smooth over this point )
G00 Z0.05906 ( retract )

G00 X-0.18446 Y0.52853 ( rapid move to begin. )
G01 F19.68504
( Mill infeed pass 1/1 )
G01 Z-0.00354
G04 P0 ( dwell for no time -- G64 should not smooth over this point )
G01 F39.37008
G01 X-0.18446 Y0.52853
G01 X-0.18711 Y0.53238
G01 X-0.19153 Y0.53238
G01 X-0.19337 Y0.53278
G01 X-0.19183 Y0.53245
G01 X-0.18573 Y0.52938
G01 X-0.18446 Y0.52853
G01 X-0.18088 Y0.52497
G04 P0 ( dwell for no time -- G64 should not smooth over this point )
G00 Z0.05906 ( retract )

G00 X-0.25246 Y0.39063 ( rapid move to begin. )
G01 F19.68504
( Mill infeed pass 1/1 )
G01 Z-0.00354
G04 P0 ( dwell for no time -- G64 should not smooth over this point )
G01 F39.37008
G01 X-0.25246 Y0.39063
G01 X-0.25246 Y0.41964
G01 X-0.25286 Y0.42036
G01 X-0.25246 Y0.41964
G01 X-0.24865 Y0.41723
G01 X-0.24610 Y0.41602
G01 X-0.24137 Y0.41420
G01 X-0.23643 Y0.41309
G01 X-0.23364 Y0.41268
G01 X-0.23064 Y0.41246
G01 X-0.22974 Y0.41279
G01 X-0.23064 Y0.41246
G01 X-0.25246 Y0.39063
G01 X-0.25286 Y0.38967
G04 P0 ( dwell for no time -- G64 should not smooth over this point )
G00 Z0.05906 ( retract )

G00 X-0.33277 Y0.41455 ( rapid move to begin. )
G01 F19.68504
( Mill infeed pass 1/1 )
G01 Z-0.00354
G04 P0 ( dwell for no time -- G64 should not smooth over this point )
G01 F39.37008
G01 X-0.33277 Y0.41455
G01 X-0.33342 Y0.41599
G01 X-0.33864 Y0.42028
G01 X-0.33926 Y0.42061
G01 X-0.34040 Y0.42077
G01 X-0.33914 Y0.42059
G01 X-0.33833 Y0.42084
G01 X-0.33317 Y0.42298
G01 X-0.33317 Y0.41550
G04 P0 ( dwell for no time -- G64 should not smooth over this point )
G00 Z0.05906 ( retract )

G00 X-0.39421 Y0.42568 ( rapid move to begin. )
G01 F19.68504
( Mill infeed pass 1/1 )
G01 Z-0.00354
G04 P0 ( dwell for no time -- G64 should not smooth over this point )
G01 F39.37008
G01 X-0.39421 Y0.42568
G01 X-0.39547 Y0.42608
G01 X-0.48376 Y0.42608
G01 X-0.49048 Y0.42542
G01 X-0.49694 Y0.42346
G01 X-0.49849 Y0.42263
G01 X-0.49892 Y0.42189
G01 X-0.49852 Y0.42257
G01 X-0.49852 Y0.42516
G01 X-0.49482 Y0.42905
G01 X-0.49314 Y0.43131
G01 X-0.48838 Y0.44022
G01 X-0.48743 Y0.44287
G01 X-0.48558 Y0.45111
G01 X-0.48524 Y0.45635
G01 X-0.48524 Y0.49227
G01 X-0.48558 Y0.49752
G01 X-0.48621 Y0.50065
G01 X-0.48671 Y0.50114
G01 X-0.48603 Y0.50048
G01 X-0.47958 Y0.49990
G01 X-0.46264 Y0.49990
G01 X-0.46145 Y0.49953
G01 X-0.45482 Y0.49821
G01 X-0.45029 Y0.49793
G01 X-0.41038 Y0.49793
G01 X-0.40978 Y0.49833
G01 X-0.41038 Y0.49793
G01 X-0.41272 Y0.49228
G01 X-0.41321 Y0.49066
G01 X-0.41453 Y0.48403
G01 X-0.41486 Y0.47899
G01 X-0.41486 Y0.46176
G01 X-0.41453 Y0.45672
G01 X-0.41321 Y0.45008
G01 X-0.41272 Y0.44847
G01 X-0.40930 Y0.44075
G01 X-0.40800 Y0.43858
G01 X-0.40159 Y0.43078
G01 X-0.39972 Y0.42908
G01 X-0.39547 Y0.42608
G04 P0 ( dwell for no time -- G64 should not smooth over this point )
G00 Z0.05906 ( retract )

G00 X-0.58264 Y0.53099 ( rapid move to begin. )
G01 F19.68504
( Mill infeed pass 1/1 )
G01 Z-0.00354
G04 P0 ( dwell for no time -- G64 should not smooth over this point )
G01 F39.37008
G01 X-0.58264 Y0.53099
G01 X-0.58698 Y0.53318
G01 X-0.58963 Y0.53412
G01 X-0.59784 Y0.53597
G01 X-0.60310 Y0.53632
G01 X-0.62229 Y0.53632
G01 X-0.62755 Y0.53597
G01 X-0.63576 Y0.53412
G01 X-0.63841 Y0.53318
G01 X-0.64597 Y0.52937
G01 X-0.64675 Y0.52885
G01 X-0.65263 Y0.53368
G01 X-0.65825 Y0.53743
G01 X-0.66505 Y0.54107
G01 X-0.67129 Y0.54365
G01 X-0.67868 Y0.54589
G01 X-0.68530 Y0.54721
G01 X-0.69298 Y0.54796
G01 X-0.69973 Y0.54796
G01 X-0.70741 Y0.54721
G01 X-0.71112 Y0.54647
G01 X-0.71152 Y0.54598
G01 X-0.71112 Y0.54647
G01 X-0.71112 Y0.59900
G01 X-0.70741 Y0.59827
G01 X-0.69973 Y0.59751
G01 X-0.69298 Y0.59751
G01 X-0.68530 Y0.59827
G01 X-0.67868 Y0.59958
G01 X-0.67129 Y0.60182
G01 X-0.66505 Y0.60441
G01 X-0.65825 Y0.60805
G01 X-0.65263 Y0.61180
G01 X-0.64666 Y0.61669
G01 X-0.64189 Y0.62147
G01 X-0.63699 Y0.62743
G01 X-0.63474 Y0.63081
G01 X-0.57232 Y0.63081
G01 X-0.54725 Y0.60574
G01 X-0.54640 Y0.60545
G01 X-0.54725 Y0.60574
G01 X-0.54914 Y0.60546
G01 X-0.55409 Y0.60435
G01 X-0.55881 Y0.60252
G01 X-0.56110 Y0.60144
G01 X-0.56950 Y0.59583
G01 X-0.57137 Y0.59413
G01 X-0.57689 Y0.58774
G01 X-0.57782 Y0.58634
G01 X-0.58101 Y0.58038
G01 X-0.58165 Y0.57882
G01 X-0.58390 Y0.57070
G01 X-0.58427 Y0.56820
G01 X-0.58464 Y0.56314
G01 X-0.58464 Y0.54296
G01 X-0.58448 Y0.53958
G01 X-0.58431 Y0.53790
G01 X-0.58281 Y0.53119
G01 X-0.58200 Y0.53022
G04 P0 ( dwell for no time -- G64 should not smooth over this point )
G00 Z0.05906 ( retract )

G00 X-0.53237 Y0.18243 ( rapid move to begin. )
G01 F19.68504
( Mill infeed pass 1/1 )
G01 Z-0.00354
G04 P0 ( dwell for no time -- G64 should not smooth over this point )
G01 F39.37008
G01 X-0.53237 Y0.18243
G01 X-0.53657 Y0.18765
G01 X-0.54179 Y0.19193
G01 X-0.54473 Y0.19351
G01 X-0.54532 Y0.19462
G01 X-0.54907 Y0.20023
G01 X-0.55207 Y0.20363
G01 X-0.60679 Y0.25835
G01 X-0.60679 Y0.33652
G01 X-0.60707 Y0.34104
G01 X-0.60872 Y0.34878
G01 X-0.61185 Y0.35604
G01 X-0.61634 Y0.36255
G01 X-0.61861 Y0.36505
G01 X-0.66249 Y0.40893
G01 X-0.66315 Y0.40903
G01 X-0.66249 Y0.40893
G01 X-0.65825 Y0.41120
G01 X-0.65263 Y0.41495
G01 X-0.64665 Y0.41985
G01 X-0.64387 Y0.41799
G01 X-0.64221 Y0.41710
G01 X-0.63596 Y0.41452
G01 X-0.63416 Y0.41397
G01 X-0.62753 Y0.41265
G01 X-0.62229 Y0.41230
G01 X-0.60310 Y0.41230
G01 X-0.59786 Y0.41265
G01 X-0.59123 Y0.41397
G01 X-0.58943 Y0.41452
G01 X-0.58172 Y0.41793
G01 X-0.57923 Y0.41944
G01 X-0.57882 Y0.42026
G01 X-0.57923 Y0.41944
G01 X-0.57923 Y0.33219
G01 X-0.57895 Y0.32766
G01 X-0.57763 Y0.32103
G01 X-0.57471 Y0.31369
G01 X-0.57042 Y0.30705
G01 X-0.56968 Y0.30616
G01 X-0.56741 Y0.30365
G01 X-0.53474 Y0.27098
G01 X-0.53474 Y0.19478
G01 X-0.53408 Y0.18806
G01 X-0.53237 Y0.18243
G01 X-0.52869 Y0.17535
G01 X-0.52465 Y0.17042
G01 X-0.51943 Y0.16614
G01 X-0.51348 Y0.16296
G01 X-0.50702 Y0.16100
G01 X-0.50029 Y0.16033
G01 X-0.46092 Y0.16033
G01 X-0.45420 Y0.16100
G01 X-0.44774 Y0.16296
G01 X-0.44179 Y0.16614
G01 X-0.43657 Y0.17042
G01 X-0.43252 Y0.17535
G01 X-0.42869 Y0.18272
G01 X-0.42465 Y0.18765
G01 X-0.42096 Y0.19068
G01 X-0.42096 Y0.25856
G01 X-0.42080 Y0.26194
G01 X-0.41937 Y0.26972
G01 X-0.41903 Y0.27082
G01 X-0.41645 Y0.27706
G01 X-0.41566 Y0.27845
G01 X-0.41491 Y0.27885
G01 X-0.41566 Y0.27845
G01 X-0.42648 Y0.27845
G01 X-0.42688 Y0.27885
G01 X-0.42648 Y0.27845
G01 X-0.42648 Y0.19478
G01 X-0.42714 Y0.18806
G01 X-0.42885 Y0.18243
G01 X-0.43237 Y0.17564
G01 X-0.43408 Y0.17001
G01 X-0.43474 Y0.16329
G01 X-0.43474 Y0.06447
G01 X-0.43408 Y0.05775
G01 X-0.43212 Y0.05129
G01 X-0.42894 Y0.04533
G01 X-0.42465 Y0.04011
G01 X-0.41943 Y0.03583
G01 X-0.41348 Y0.03264
G01 X-0.40702 Y0.03068
G01 X-0.40029 Y0.03002
G01 X-0.36092 Y0.03002
G01 X-0.35420 Y0.03068
G01 X-0.34774 Y0.03264
G01 X-0.34179 Y0.03583
G01 X-0.33657 Y0.04011
G01 X-0.33228 Y0.04533
G01 X-0.32910 Y0.05129
G01 X-0.32714 Y0.05775
G01 X-0.32648 Y0.06447
G01 X-0.32648 Y0.16329
G01 X-0.32714 Y0.17001
G01 X-0.32885 Y0.17564
G01 X-0.33252 Y0.18272
G01 X-0.33657 Y0.18765
G01 X-0.34025 Y0.19067
G01 X-0.34025 Y0.24185
G01 X-0.33474 Y0.24736
G01 X-0.33434 Y0.24833
G01 X-0.33474 Y0.24736
G01 X-0.33474 Y0.19478
G01 X-0.33408 Y0.18806
G01 X-0.33237 Y0.18243
G01 X-0.32869 Y0.17535
G01 X-0.32465 Y0.17042
G01 X-0.31943 Y0.16614
G01 X-0.31348 Y0.16296
G01 X-0.30702 Y0.16100
G01 X-0.30029 Y0.16033
G01 X-0.26092 Y0.16033
G01 X-0.25420 Y0.16100
G01 X-0.24774 Y0.16296
G01 X-0.24179 Y0.16614
G01 X-0.23657 Y0.17042
G01 X-0.23228 Y0.17564
G01 X-0.22910 Y0.18160
G01 X-0.22714 Y0.18806
G01 X-0.22648 Y0.19478
G01 X-0.22648 Y0.29360
G01 X-0.22714 Y0.30032
G01 X-0.22748 Y0.30147
G01 X-0.16389 Y0.36506
G01 X-0.11281 Y0.36506
G01 X-0.10829 Y0.36534
G01 X-0.10166 Y0.36666
G01 X-0.09431 Y0.36958
G01 X-0.08768 Y0.37387
G01 X-0.08428 Y0.37688
G01 X-0.04184 Y0.41932
G01 X-0.03957 Y0.42183
G01 X-0.03508 Y0.42834
G01 X-0.03195 Y0.43560
G01 X-0.03030 Y0.44333
G01 X-0.03002 Y0.44785
G01 X-0.03002 Y0.72313
G01 X-0.03030 Y0.72766
G01 X-0.03161 Y0.73428
G01 X-0.03453 Y0.74163
G01 X-0.03508 Y0.74265
G01 X-0.04061 Y0.75027
G01 X-0.04449 Y0.75431
G01 X-0.04749 Y0.75708
G01 X-0.05400 Y0.76157
G01 X-0.06126 Y0.76470
G01 X-0.06899 Y0.76636
G01 X-0.07352 Y0.76664
G01 X-0.31151 Y0.76664
G01 X-0.31604 Y0.76636
G01 X-0.32267 Y0.76504
G01 X-0.32333 Y0.76484
G01 X-0.32373 Y0.76429
G01 X-0.32333 Y0.76484
G01 X-0.32333 Y0.83258
G01 X-0.32399 Y0.83930
G01 X-0.32595 Y0.84576
G01 X-0.32913 Y0.85172
G01 X-0.33342 Y0.85694
G01 X-0.33864 Y0.86122
G01 X-0.34459 Y0.86441
G01 X-0.35105 Y0.86637
G01 X-0.35777 Y0.86703
G01 X-0.48376 Y0.86703
G01 X-0.49048 Y0.86637
G01 X-0.49694 Y0.86441
G01 X-0.50290 Y0.86122
G01 X-0.50812 Y0.85694
G01 X-0.51240 Y0.85172
G01 X-0.51559 Y0.84576
G01 X-0.51755 Y0.83930
G01 X-0.51821 Y0.83258
G01 X-0.51821 Y0.75384
G01 X-0.51755 Y0.74712
G01 X-0.51588 Y0.74164
G01 X-0.51559 Y0.74066
G01 X-0.51240 Y0.73470
G01 X-0.50812 Y0.72948
G01 X-0.50290 Y0.72520
G01 X-0.49694 Y0.72201
G01 X-0.49048 Y0.72005
G01 X-0.48376 Y0.71939
G01 X-0.38502 Y0.71939
G01 X-0.38233 Y0.71979
G01 X-0.38502 Y0.71939
G01 X-0.38902 Y0.71818
G01 X-0.39131 Y0.71710
G01 X-0.39844 Y0.71258
G01 X-0.39974 Y0.71151
G01 X-0.40452 Y0.70674
G01 X-0.40559 Y0.70543
G01 X-0.41011 Y0.69830
G01 X-0.41119 Y0.69601
G01 X-0.41412 Y0.68635
G01 X-0.41449 Y0.68385
G01 X-0.41486 Y0.67879
G01 X-0.41486 Y0.66157
G01 X-0.41453 Y0.65652
G01 X-0.41321 Y0.64988
G01 X-0.41272 Y0.64827
G01 X-0.40930 Y0.64055
G01 X-0.40850 Y0.63922
G01 X-0.40776 Y0.63922
G01 X-0.40821 Y0.63922
G01 X-0.40803 Y0.63922
G01 X-0.40821 Y0.63922
G01 X-0.41183 Y0.63245
G01 X-0.41268 Y0.63007
G01 X-0.41453 Y0.62183
G01 X-0.41486 Y0.61670
G01 X-0.41482 Y0.59864
G01 X-0.41379 Y0.59035
G01 X-0.41317 Y0.58789
G01 X-0.41014 Y0.58002
G01 X-0.40940 Y0.57864
G01 X-0.42241 Y0.57864
G01 X-0.42489 Y0.58422
G01 X-0.42630 Y0.59176
G01 X-0.42922 Y0.59911
G01 X-0.43352 Y0.60575
G01 X-0.43425 Y0.60664
G01 X-0.43652 Y0.60915
G01 X-0.52707 Y0.69970
G01 X-0.53047 Y0.70270
G01 X-0.53711 Y0.70700
G01 X-0.54446 Y0.70992
G01 X-0.55108 Y0.71124
G01 X-0.55561 Y0.71152
G01 X-0.63474 Y0.71152
G01 X-0.63699 Y0.71489
G01 X-0.64189 Y0.72085
G01 X-0.64666 Y0.72563
G01 X-0.65263 Y0.73053
G01 X-0.65825 Y0.73428
G01 X-0.66505 Y0.73792
G01 X-0.67129 Y0.74050
G01 X-0.67868 Y0.74274
G01 X-0.68530 Y0.74406
G01 X-0.69298 Y0.74482
G01 X-0.69973 Y0.74482
G01 X-0.70741 Y0.74406
G01 X-0.71404 Y0.74274
G01 X-0.72142 Y0.74050
G01 X-0.72766 Y0.73792
G01 X-0.73447 Y0.73428
G01 X-0.74008 Y0.73053
G01 X-0.74605 Y0.72563
G01 X-0.75083 Y0.72085
G01 X-0.75572 Y0.71489
G01 X-0.75947 Y0.70927
G01 X-0.76311 Y0.70247
G01 X-0.76570 Y0.69623
G01 X-0.76794 Y0.68884
G01 X-0.76925 Y0.68222
G01 X-0.77001 Y0.67454
G01 X-0.77001 Y0.66779
G01 X-0.76925 Y0.66010
G01 X-0.76846 Y0.65613
G01 X-0.78001 Y0.64458
G01 X-0.78228 Y0.64207
G01 X-0.78677 Y0.63556
G01 X-0.78990 Y0.62830
G01 X-0.79155 Y0.62057
G01 X-0.79183 Y0.61604
G01 X-0.79183 Y0.44085
G01 X-0.79155 Y0.43632
G01 X-0.79023 Y0.42969
G01 X-0.78731 Y0.42235
G01 X-0.78301 Y0.41571
G01 X-0.78228 Y0.41482
G01 X-0.78001 Y0.41231
G01 X-0.68750 Y0.31980
G01 X-0.68750 Y0.24163
G01 X-0.68722 Y0.23711
G01 X-0.68590 Y0.23048
G01 X-0.68298 Y0.22314
G01 X-0.68244 Y0.22212
G01 X-0.67795 Y0.21561
G01 X-0.67568 Y0.21310
G01 X-0.63373 Y0.17115
G01 X-0.63408 Y0.17001
G01 X-0.63474 Y0.16329
G01 X-0.63474 Y0.06447
G01 X-0.63408 Y0.05775
G01 X-0.63212 Y0.05129
G01 X-0.62894 Y0.04533
G01 X-0.62465 Y0.04011
G01 X-0.61943 Y0.03583
G01 X-0.61348 Y0.03264
G01 X-0.60702 Y0.03068
G01 X-0.60029 Y0.03002
G01 X-0.56092 Y0.03002
G01 X-0.55420 Y0.03068
G01 X-0.54774 Y0.03264
G01 X-0.54179 Y0.03583
G01 X-0.53657 Y0.04011
G01 X-0.53228 Y0.04533
G01 X-0.52910 Y0.05129
G01 X-0.52714 Y0.05775
G01 X-0.52648 Y0.06447
G01 X-0.52648 Y0.16329
G01 X-0.52714 Y0.17001
G01 X-0.52885 Y0.17565

G00 Z0.39370 (Retract to tool change height)
T2
M5      (Spindle stop.)
G04 P1.00000 (Wait for spindle to stop)
(MSG, Change tool bit to mill diameter 0.03346in)
M6      (Tool change.)
M0      (Temporary machine stop.)
M3 ( Spindle on clockwise. )
G04 P1.00000 (Wait for spindle to get up to speed)
G04 P0 ( dwell for no time -- G64 should not smooth over this point )
G00 Z0.05906 ( retract )

G00 X-0.17312 Y0.61151 ( rapid move to begin. )
G01 F19.68504
( Mill infeed pass 1/1 )
G01 Z-0.00354
G04 P0 ( dwell for no time -- G64 should not smooth over this point )
G01 F39.37008
G01 X-0.17312 Y0.61151
G01 X-0.17379 Y0.61133
G01 X-0.17362 Y0.61138
G01 X-0.17573 Y0.60897
G01 X-0.17819 Y0.60528
G01 X-0.18033 Y0.60128
G01 X-0.32036 Y0.60128
G01 X-0.32037 Y0.61673
G01 X-0.32065 Y0.62067
G01 X-0.32151 Y0.62503
G01 X-0.32200 Y0.62665
G01 X-0.32269 Y0.62831
G01 X-0.32367 Y0.62963
G01 X-0.32211 Y0.62773
G01 X-0.31742 Y0.62476
G01 X-0.31487 Y0.62355
G01 X-0.30961 Y0.62181
G01 X-0.30777 Y0.62145
G01 X-0.30335 Y0.62101
G01 X-0.28228 Y0.62101
G01 X-0.27786 Y0.62145
G01 X-0.27602 Y0.62181
G01 X-0.26737 Y0.62489
G01 X-0.26067 Y0.63040
G01 X-0.25887 Y0.63213
G01 X-0.25887 Y0.63097
G01 X-0.25887 Y0.63213
G01 X-0.25774 Y0.63351
G01 X-0.25589 Y0.63627
G01 X-0.25591 Y0.63696
G01 X-0.25589 Y0.63627
G01 X-0.25774 Y0.63351
G01 X-0.25893 Y0.63205
G01 X-0.26067 Y0.63040
G01 X-0.26737 Y0.62489
G01 X-0.25161 Y0.63070
G01 X-0.25296 Y0.63226
G01 X-0.25297 Y0.63113
G01 X-0.25296 Y0.63226
G01 X-0.25483 Y0.63453
G01 X-0.25587 Y0.63609
G01 X-0.25591 Y0.63705
G01 X-0.25589 Y0.63613
G01 X-0.25483 Y0.63453
G01 X-0.25161 Y0.63070
G01 X-0.26737 Y0.62489
G01 X-0.27886 Y0.61544
G01 X-0.28228 Y0.61511
G01 X-0.30335 Y0.61511
G01 X-0.30985 Y0.61584
G01 X-0.31586 Y0.62402
G01 X-0.31742 Y0.62476
G01 X-0.32211 Y0.62773
G01 X-0.32269 Y0.62831
G01 X-0.32151 Y0.62503
G01 X-0.32063 Y0.62054
G01 X-0.31448 Y0.61218
G01 X-0.31449 Y0.60718
G01 X-0.31623 Y0.60545
G01 X-0.31449 Y0.60718
G01 X-0.20411 Y0.60718
G01 X-0.18271 Y0.60643
G01 X-0.17670 Y0.60751
G01 X-0.17573 Y0.60897
G01 X-0.17379 Y0.61133
G01 X-0.17418 Y0.61123
G01 X-0.17785 Y0.61331
G01 X-0.18092 Y0.61274
G01 X-0.17785 Y0.61331
G01 X-0.18087 Y0.61578
G01 X-0.18504 Y0.62175
G01 X-0.18578 Y0.62313
G01 X-0.18706 Y0.62738
G01 X-0.18731 Y0.62991
G01 X-0.19074 Y0.62695
G01 X-0.19230 Y0.62591
G01 X-0.19466 Y0.62472
G01 X-0.20070 Y0.62229
G01 X-0.20531 Y0.62126
G01 X-0.20940 Y0.62097
G01 X-0.22859 Y0.62097
G01 X-0.23191 Y0.62121
G01 X-0.23470 Y0.62162
G01 X-0.23753 Y0.62241
G01 X-0.23219 Y0.61533
G01 X-0.22859 Y0.61506
G01 X-0.20940 Y0.61506
G01 X-0.20603 Y0.61526
G04 P0 ( dwell for no time -- G64 should not smooth over this point )
G00 Z0.05906 ( retract )

G00 X-0.20592 Y0.53021 ( rapid move to begin. )
G01 F19.68504
( Mill infeed pass 1/1 )
G01 Z-0.00354
G04 P0 ( dwell for no time -- G64 should not smooth over this point )
G01 F39.37008
G01 X-0.20592 Y0.53021
G01 X-0.20946 Y0.53041
G01 X-0.22960 Y0.53037
G01 X-0.23222 Y0.53010
G01 X-0.23741 Y0.52317
G01 X-0.23395 Y0.52403
G01 X-0.22958 Y0.52446
G01 X-0.20945 Y0.52451
G01 X-0.20530 Y0.52421
G01 X-0.20073 Y0.52319
G01 X-0.16960 Y0.52057
G01 X-0.16657 Y0.52057
G01 X-0.16297 Y0.52352
G01 X-0.16234 Y0.52352
G01 X-0.16297 Y0.52352
G01 X-0.16657 Y0.52648
G01 X-0.16963 Y0.52648
G01 X-0.17866 Y0.54107
G01 X-0.18033 Y0.54419
G01 X-0.18445 Y0.54419
G01 X-0.20413 Y0.53829
G01 X-0.31299 Y0.53829
G01 X-0.31318 Y0.53874
G01 X-0.31299 Y0.53829
G01 X-0.31447 Y0.53682
G01 X-0.31492 Y0.53700
G01 X-0.31447 Y0.53682
G01 X-0.31447 Y0.53309
G01 X-0.31889 Y0.52716
G01 X-0.32037 Y0.52485
G01 X-0.32065 Y0.51988
G01 X-0.32096 Y0.51847
G01 X-0.32143 Y0.51771
G01 X-0.32096 Y0.51848
G01 X-0.31743 Y0.52071
G01 X-0.31540 Y0.52168
G01 X-0.31409 Y0.52372
G01 X-0.30969 Y0.52962
G01 X-0.30660 Y0.53010
G01 X-0.30241 Y0.53041
G01 X-0.28322 Y0.53041
G01 X-0.27935 Y0.53017
G01 X-0.25994 Y0.51443
G01 X-0.25847 Y0.51281
G01 X-0.25590 Y0.50917
G01 X-0.25590 Y0.50833
G01 X-0.25590 Y0.50907
G01 X-0.25407 Y0.51197
G01 X-0.25288 Y0.51342
G01 X-0.25115 Y0.51507
G01 X-0.25295 Y0.51333
G01 X-0.25296 Y0.51450
G01 X-0.25295 Y0.51333
G01 X-0.25407 Y0.51197
G01 X-0.25590 Y0.50907
G01 X-0.25886 Y0.51324
G01 X-0.25886 Y0.51409
G01 X-0.25886 Y0.51324
G01 X-0.25994 Y0.51443
G01 X-0.27935 Y0.53017
G01 X-0.28322 Y0.53041
G01 X-0.30241 Y0.53041
G01 X-0.30660 Y0.53010
G01 X-0.30969 Y0.52962
G01 X-0.31409 Y0.52372
G01 X-0.31540 Y0.52168
G01 X-0.31743 Y0.52071
G01 X-0.31488 Y0.52192
G01 X-0.31177 Y0.52312
G01 X-0.30852 Y0.52385
G01 X-0.30573 Y0.52426
G01 X-0.30241 Y0.52451
G01 X-0.28322 Y0.52451
G01 X-0.27912 Y0.52421
G01 X-0.27518 Y0.52343
G01 X-0.27912 Y0.52421
G01 X-0.28322 Y0.52451
G01 X-0.30241 Y0.52451
G01 X-0.30573 Y0.52426
G01 X-0.30852 Y0.52385
G01 X-0.31177 Y0.52312
G01 X-0.31488 Y0.52192
G01 X-0.31743 Y0.52071
G01 X-0.32096 Y0.51848
G01 X-0.32160 Y0.51743
G01 X-0.32096 Y0.51847
G01 X-0.32048 Y0.52156
G01 X-0.32037 Y0.53926
G01 X-0.31544 Y0.54419
G01 X-0.19739 Y0.54419
G01 X-0.17038 Y0.53008
G01 X-0.16769 Y0.52740
G01 X-0.16297 Y0.52352
G01 X-0.16769 Y0.51965
G01 X-0.17083 Y0.51651
G01 X-0.17573 Y0.51055
G01 X-0.17819 Y0.50686
G01 X-0.17959 Y0.50425
G01 X-0.18057 Y0.50662
G01 X-0.18146 Y0.50828
G01 X-0.18465 Y0.51281
G01 X-0.18551 Y0.51376
G01 X-0.17934 Y0.51299
G01 X-0.17934 Y0.51211
G04 P0 ( dwell for no time -- G64 should not smooth over this point )
G00 Z0.05906 ( retract )

G00 X-0.17645 Y0.43917 ( rapid move to begin. )
G01 F19.68504
( Mill infeed pass 1/1 )
G01 Z-0.00354
G04 P0 ( dwell for no time -- G64 should not smooth over this point )
G01 F39.37008
G01 X-0.17645 Y0.43917
G01 X-0.17819 Y0.44177
G01 X-0.17961 Y0.44443
G01 X-0.18111 Y0.44104
G01 X-0.18256 Y0.43862
G01 X-0.18597 Y0.43425
G01 X-0.18701 Y0.43321
G01 X-0.18879 Y0.43222
G01 X-0.18725 Y0.43308
G01 X-0.18283 Y0.43385
G01 X-0.17932 Y0.43400
G01 X-0.17234 Y0.43396
G01 X-0.17150 Y0.43356
G01 X-0.17234 Y0.43396
G01 X-0.17573 Y0.43808
G01 X-0.17645 Y0.43917
G01 X-0.17809 Y0.43998
G01 X-0.17920 Y0.44028
G01 X-0.17919 Y0.44071
G01 X-0.17920 Y0.44028
G01 X-0.18033 Y0.44013
G01 X-0.18227 Y0.43911
G04 P0 ( dwell for no time -- G64 should not smooth over this point )
G00 Z0.05906 ( retract )

G00 X-0.20770 Y0.41869 ( rapid move to begin. )
G01 F19.68504
( Mill infeed pass 1/1 )
G01 Z-0.00354
G04 P0 ( dwell for no time -- G64 should not smooth over this point )
G01 F39.37008
G01 X-0.20770 Y0.41869
G01 X-0.26427 Y0.36212
G01 X-0.26467 Y0.36115
G01 X-0.26427 Y0.36212
G01 X-0.26427 Y0.43037
G01 X-0.26208 Y0.43206
G01 X-0.25825 Y0.43608
G01 X-0.25657 Y0.43834
G01 X-0.25590 Y0.43952
G01 X-0.25524 Y0.43834
G01 X-0.25295 Y0.43544
G01 X-0.25295 Y0.43244
G01 X-0.25295 Y0.43544
G01 X-0.24974 Y0.43207
G01 X-0.25356 Y0.43608
G01 X-0.25524 Y0.43834
G01 X-0.25590 Y0.43952
G01 X-0.25590 Y0.44032
G01 X-0.25590 Y0.43952
G01 X-0.25657 Y0.43834
G01 X-0.25886 Y0.43544
G01 X-0.26007 Y0.37997
G01 X-0.26427 Y0.36983
G01 X-0.26427 Y0.36212
G01 X-0.25882 Y0.36757
G01 X-0.25462 Y0.37771
G01 X-0.21775 Y0.41451
G01 X-0.20770 Y0.41869
G01 X-0.20112 Y0.42527
G01 X-0.19954 Y0.42619
G01 X-0.20087 Y0.42541
G01 X-0.20531 Y0.42441
G01 X-0.21002 Y0.42412
G01 X-0.22002 Y0.41996
G01 X-0.21002 Y0.42412
G01 X-0.22555 Y0.42412
G04 P0 ( dwell for no time -- G64 should not smooth over this point )
G00 Z0.05906 ( retract )

G00 X-0.16655 Y0.37687 ( rapid move to begin. )
G01 F19.68504
( Mill infeed pass 1/1 )
G01 Z-0.00354
G04 P0 ( dwell for no time -- G64 should not smooth over this point )
G01 F39.37008
G01 X-0.16655 Y0.37687
G01 X-0.16879 Y0.37687
G01 X-0.24119 Y0.30447
G01 X-0.24001 Y0.30227
G01 X-0.23955 Y0.30077
G04 P0 ( dwell for no time -- G64 should not smooth over this point )
G00 Z0.05906 ( retract )

G00 X-0.35207 Y0.24450 ( rapid move to begin. )
G01 F19.68504
( Mill infeed pass 1/1 )
G01 Z-0.00354
G04 P0 ( dwell for no time -- G64 should not smooth over this point )
G01 F39.37008
G01 X-0.35207 Y0.24450
G01 X-0.35207 Y0.24674
G01 X-0.35048 Y0.24832
G01 X-0.34031 Y0.25512
G01 X-0.33960 Y0.25921
G01 X-0.32293 Y0.27587
G01 X-0.32293 Y0.26816
G01 X-0.32713 Y0.25803
G01 X-0.32293 Y0.26816
G01 X-0.32293 Y0.25230
G01 X-0.32293 Y0.27587
G01 X-0.32253 Y0.27684
G01 X-0.32293 Y0.27587
G01 X-0.32839 Y0.27042
G01 X-0.33258 Y0.26029
G01 X-0.34031 Y0.25512
G01 X-0.35207 Y0.18801
G01 X-0.35207 Y0.18410
G01 X-0.34912 Y0.18252
G04 P0 ( dwell for no time -- G64 should not smooth over this point )
G00 Z0.05906 ( retract )

G00 X-0.41210 Y0.18252 ( rapid move to begin. )
G01 F19.68504
( Mill infeed pass 1/1 )
G01 Z-0.00354
G04 P0 ( dwell for no time -- G64 should not smooth over this point )
G01 F39.37008
G01 X-0.41210 Y0.18252
G01 X-0.40915 Y0.18410
G01 X-0.40915 Y0.18801
G04 P0 ( dwell for no time -- G64 should not smooth over this point )
G00 Z0.05906 ( retract )

G00 X-0.40317 Y0.27597 ( rapid move to begin. )
G01 F19.68504
( Mill infeed pass 1/1 )
G01 Z-0.00354
G04 P0 ( dwell for no time -- G64 should not smooth over this point )
G01 F39.37008
G01 X-0.40317 Y0.27597
G01 X-0.40079 Y0.27875
G01 X-0.39474 Y0.28480
G01 X-0.40310 Y0.28134
G01 X-0.39474 Y0.28480
G01 X-0.38928 Y0.29026
G01 X-0.38832 Y0.29066
G01 X-0.38928 Y0.29026
G01 X-0.39700 Y0.29026
G01 X-0.40566 Y0.28667
G01 X-0.43308 Y0.28922
G01 X-0.43411 Y0.29026
G01 X-0.43829 Y0.29026
G01 X-0.43829 Y0.28282
G01 X-0.43829 Y0.28608
G01 X-0.43725 Y0.28505
G01 X-0.43829 Y0.28608
G01 X-0.43829 Y0.29026
G01 X-0.43869 Y0.29066
G01 X-0.43829 Y0.29026
G01 X-0.39700 Y0.29026
G04 P0 ( dwell for no time -- G64 should not smooth over this point )
G00 Z0.05906 ( retract )

G00 X-0.49679 Y0.41009 ( rapid move to begin. )
G01 F19.68504
( Mill infeed pass 1/1 )
G01 Z-0.00354
G04 P0 ( dwell for no time -- G64 should not smooth over this point )
G01 F39.37008
G01 X-0.49679 Y0.41009
G01 X-0.49977 Y0.40764
G01 X-0.50258 Y0.40421
G01 X-0.50439 Y0.40082
G01 X-0.50283 Y0.40708
G01 X-0.50153 Y0.41020
G01 X-0.50283 Y0.40708
G01 X-0.50439 Y0.40082
G01 X-0.50467 Y0.40030
G01 X-0.50596 Y0.39605
G01 X-0.50640 Y0.39163
G01 X-0.50640 Y0.34007
G01 X-0.50600 Y0.33911
G01 X-0.50640 Y0.34007
G01 X-0.51033 Y0.34401
G01 X-0.51033 Y0.43037
G01 X-0.50887 Y0.43146
G01 X-0.51033 Y0.43037
G01 X-0.51033 Y0.40139
G01 X-0.50851 Y0.40872
G01 X-0.50687 Y0.41274
G01 X-0.50838 Y0.40915
G01 X-0.40581 Y0.50974
G01 X-0.39961 Y0.50974
G01 X-0.39822 Y0.50714
G01 X-0.39728 Y0.50573
G01 X-0.39354 Y0.50137
G01 X-0.39277 Y0.50138
G01 X-0.39340 Y0.50137
G01 X-0.39403 Y0.50085
G01 X-0.39573 Y0.49898
G01 X-0.39791 Y0.49588
G01 X-0.39615 Y0.49838
G01 X-0.39765 Y0.49838
G01 X-0.39615 Y0.49838
G01 X-0.39403 Y0.50085
G01 X-0.39340 Y0.50137
G01 X-0.39446 Y0.50230
G01 X-0.39610 Y0.50429
G01 X-0.39928 Y0.50429
G01 X-0.49293 Y0.51121
G01 X-0.49902 Y0.51712
G01 X-0.49902 Y0.51869
G01 X-0.50194 Y0.52125
G01 X-0.50492 Y0.51863
G01 X-0.50492 Y0.51587
G01 X-0.50469 Y0.51472
G01 X-0.50402 Y0.51376
G01 X-0.49721 Y0.50713
G01 X-0.50402 Y0.51376
G01 X-0.50412 Y0.51369
G01 X-0.50402 Y0.51376
G01 X-0.50469 Y0.51472
G01 X-0.50492 Y0.51587
G01 X-0.50504 Y0.51585
G01 X-0.50492 Y0.51587
G01 X-0.50492 Y0.51863
G01 X-0.50194 Y0.52125
G01 X-0.49761 Y0.51748
G01 X-0.49621 Y0.51654
G01 X-0.49230 Y0.51445
G01 X-0.49074 Y0.51381
G01 X-0.48773 Y0.51298
G01 X-0.49074 Y0.51381
G01 X-0.49230 Y0.51445
G01 X-0.49621 Y0.51654
G01 X-0.49761 Y0.51748
G01 X-0.50182 Y0.52111
G01 X-0.50194 Y0.52125
G01 X-0.50193 Y0.52183
G01 X-0.50194 Y0.52125
G01 X-0.50288 Y0.52031
G01 X-0.50632 Y0.51748
G01 X-0.50808 Y0.51636
G01 X-0.50499 Y0.51342
G01 X-0.50380 Y0.51197
G01 X-0.50134 Y0.50828
G01 X-0.50045 Y0.50662
G01 X-0.49872 Y0.50241
G01 X-0.39023 Y0.41427
G01 X-0.35777 Y0.41427
G01 X-0.35336 Y0.41384
G01 X-0.34929 Y0.41260
G01 X-0.33235 Y0.40251
G01 X-0.33161 Y0.39837
G01 X-0.33120 Y0.39155
G01 X-0.33120 Y0.36162
G01 X-0.33514 Y0.35211
G01 X-0.33514 Y0.34440
G01 X-0.33554 Y0.34344
G01 X-0.33514 Y0.34440
G01 X-0.32968 Y0.34986
G01 X-0.32552 Y0.35991
G01 X-0.32541 Y0.35988
G01 X-0.32552 Y0.35991
G01 X-0.32529 Y0.36104
G01 X-0.32529 Y0.39164
G01 X-0.32576 Y0.39925
G01 X-0.32665 Y0.40413
G01 X-0.34491 Y0.42913
G01 X-0.35141 Y0.42503
G01 X-0.35777 Y0.42534
G01 X-0.37472 Y0.42542
G01 X-0.38174 Y0.42603
G01 X-0.37472 Y0.42542
G01 X-0.35777 Y0.42534
G01 X-0.35141 Y0.42503
G01 X-0.34491 Y0.42913
G01 X-0.34633 Y0.43106
G01 X-0.34772 Y0.43079
G01 X-0.35162 Y0.43051
G01 X-0.37403 Y0.43062
G01 X-0.37571 Y0.43079
G01 X-0.38005 Y0.43165
G01 X-0.38166 Y0.43214
G01 X-0.38499 Y0.43352
G01 X-0.38166 Y0.43214
G01 X-0.38005 Y0.43165
G01 X-0.37571 Y0.43079
G01 X-0.37403 Y0.43062
G01 X-0.35162 Y0.43051
G01 X-0.34772 Y0.43079
G01 X-0.34633 Y0.43106
G01 X-0.34491 Y0.42913
G01 X-0.33248 Y0.43710
G01 X-0.32979 Y0.43955
G01 X-0.32716 Y0.43582
G01 X-0.32527 Y0.43373
G01 X-0.32136 Y0.43052
G01 X-0.32136 Y0.35818
G01 X-0.33514 Y0.34440
G01 X-0.33514 Y0.39163
G01 X-0.33557 Y0.39605
G01 X-0.33686 Y0.40030
G01 X-0.33895 Y0.40420
G01 X-0.35258 Y0.41918
G01 X-0.35785 Y0.41944
G01 X-0.37490 Y0.41952
G01 X-0.38344 Y0.42018
G04 P0 ( dwell for no time -- G64 should not smooth over this point )
G00 Z0.05906 ( retract )

G00 X-0.38909 Y0.56917 ( rapid move to begin. )
G01 F19.68504
( Mill infeed pass 1/1 )
G01 Z-0.00354
G04 P0 ( dwell for no time -- G64 should not smooth over this point )
G01 F39.37008
G01 X-0.38909 Y0.56917
G01 X-0.39733 Y0.57273
G01 X-0.39836 Y0.57377
G01 X-0.39810 Y0.58286
G01 X-0.39646 Y0.58041
G01 X-0.39539 Y0.57911
G01 X-0.39225 Y0.57597
G01 X-0.39095 Y0.57490
G01 X-0.38726 Y0.57243
G01 X-0.38577 Y0.57164
G01 X-0.38231 Y0.57021
G01 X-0.38397 Y0.56970
G01 X-0.38626 Y0.56862
G01 X-0.38909 Y0.56683
G01 X-0.40674 Y0.56683
G01 X-0.38909 Y0.56683
G01 X-0.38626 Y0.56862
G01 X-0.38397 Y0.56970
G01 X-0.38231 Y0.57021
G01 X-0.38577 Y0.57164
G01 X-0.38726 Y0.57243
G01 X-0.39095 Y0.57490
G01 X-0.39225 Y0.57597
G01 X-0.39539 Y0.57911
G01 X-0.39646 Y0.58041
G01 X-0.39810 Y0.58286
G01 X-0.39836 Y0.57377
G01 X-0.39733 Y0.57273
G01 X-0.39885 Y0.57273
G01 X-0.43654 Y0.58111
G01 X-0.43651 Y0.58053
G01 X-0.42506 Y0.56683
G01 X-0.43135 Y0.56683
G01 X-0.43232 Y0.57165
G01 X-0.39598 Y0.63646
G01 X-0.39335 Y0.63922
G01 X-0.39294 Y0.63922
G01 X-0.39366 Y0.63933
G01 X-0.39596 Y0.64214
G01 X-0.39630 Y0.64213
G01 X-0.39596 Y0.64214
G01 X-0.39650 Y0.64279
G01 X-0.39366 Y0.63933
G01 X-0.39280 Y0.63922
G04 P0 ( dwell for no time -- G64 should not smooth over this point )
G00 Z0.05906 ( retract )

G00 X-0.37565 Y0.70972 ( rapid move to begin. )
G01 F19.68504
( Mill infeed pass 1/1 )
G01 Z-0.00354
G04 P0 ( dwell for no time -- G64 should not smooth over this point )
G01 F39.37008
G01 X-0.37565 Y0.70972
G01 X-0.37180 Y0.71004
G01 X-0.36812 Y0.71004
G01 X-0.35163 Y0.72653
G01 X-0.35664 Y0.72399
G01 X-0.36667 Y0.71984
G01 X-0.37057 Y0.71594
G01 X-0.37041 Y0.71560
G01 X-0.37057 Y0.71594
G01 X-0.37089 Y0.71594
G01 X-0.37057 Y0.71594
G01 X-0.36667 Y0.71984
G01 X-0.35664 Y0.72399
G01 X-0.35163 Y0.72653
G01 X-0.33170 Y0.74646
G01 X-0.33005 Y0.74796
G01 X-0.32547 Y0.75116
G01 X-0.32319 Y0.75222
G01 X-0.32750 Y0.75282
G01 X-0.33021 Y0.74782
G01 X-0.33557 Y0.74942
G01 X-0.33514 Y0.75384
G01 X-0.33514 Y0.76034
G01 X-0.33250 Y0.75597
G01 X-0.33546 Y0.75051
G01 X-0.33557 Y0.74942
G01 X-0.33686 Y0.74518
G01 X-0.33895 Y0.74126
G01 X-0.34177 Y0.73783
G01 X-0.34520 Y0.73502
G01 X-0.34911 Y0.73292
G01 X-0.35336 Y0.73164
G01 X-0.35491 Y0.73148
G01 X-0.35901 Y0.72941
G01 X-0.36892 Y0.72530
G01 X-0.37159 Y0.72530
G01 X-0.36892 Y0.72530
G01 X-0.35901 Y0.72941
G01 X-0.35491 Y0.73148
G01 X-0.35777 Y0.73120
G01 X-0.37839 Y0.73120
G01 X-0.63739 Y0.69971
G01 X-0.64152 Y0.69971
G01 X-0.64319 Y0.70284
G04 P0 ( dwell for no time -- G64 should not smooth over this point )
G00 Z0.05906 ( retract )

G00 X-0.75635 Y0.65596 ( rapid move to begin. )
G01 F19.68504
( Mill infeed pass 1/1 )
G01 Z-0.00354
G04 P0 ( dwell for no time -- G64 should not smooth over this point )
G01 F39.37008
G01 X-0.75635 Y0.65596
G01 X-0.75532 Y0.65257
G01 X-0.75823 Y0.64965
G04 P0 ( dwell for no time -- G64 should not smooth over this point )
G00 Z0.05906 ( retract )

G00 X-0.64165 Y0.51792 ( rapid move to begin. )
G01 F19.68504
( Mill infeed pass 1/1 )
G01 Z-0.00354
G04 P0 ( dwell for no time -- G64 should not smooth over this point )
G01 F39.37008
G01 X-0.64165 Y0.51792
G01 X-0.64515 Y0.51490
G01 X-0.64748 Y0.51219
G01 X-0.65102 Y0.51651
G01 X-0.65314 Y0.51863
G01 X-0.71136 Y0.61111
G01 X-0.71495 Y0.61220
G01 X-0.72293 Y0.60422
G01 X-0.72293 Y0.53020
G01 X-0.71800 Y0.53235
G01 X-0.71279 Y0.53393
G01 X-0.71801 Y0.53234
G01 X-0.71627 Y0.53488
G01 X-0.71801 Y0.53234
G01 X-0.72210 Y0.53065
G01 X-0.72293 Y0.53020
G01 X-0.72333 Y0.52953
G01 X-0.72293 Y0.53020
G01 X-0.72293 Y0.53560
G01 X-0.72099 Y0.53842
G01 X-0.53440 Y0.60388
G01 X-0.52466 Y0.59985
G01 X-0.51860 Y0.59378
G01 X-0.52104 Y0.59415
G01 X-0.52436 Y0.59439
G01 X-0.54142 Y0.59439
G01 X-0.52692 Y0.59439
G01 X-0.53659 Y0.59840
G01 X-0.52692 Y0.59439
G01 X-0.52436 Y0.59439
G01 X-0.52104 Y0.59415
G01 X-0.51860 Y0.59378
G01 X-0.51726 Y0.59301
G01 X-0.51860 Y0.59378
G01 X-0.56743 Y0.64262
G01 X-0.64152 Y0.64262
G01 X-0.64319 Y0.63949
G01 X-0.57018 Y0.53065
G01 X-0.56800 Y0.52633
G01 X-0.56742 Y0.52546
G01 X-0.56742 Y0.51825
G01 X-0.56962 Y0.51656
G01 X-0.57344 Y0.51254
G01 X-0.57281 Y0.51321
G01 X-0.57289 Y0.52282
G01 X-0.57284 Y0.52225
G01 X-0.57272 Y0.52228
G01 X-0.57284 Y0.52225
G01 X-0.57289 Y0.51888
G01 X-0.57281 Y0.51321
G01 X-0.57512 Y0.51028
G01 X-0.57578 Y0.50912
G01 X-0.57579 Y0.50829
G01 X-0.57578 Y0.50916
G01 X-0.57871 Y0.51321
G01 X-0.57879 Y0.51856
G01 X-0.57871 Y0.51321
G01 X-0.58024 Y0.51490
G01 X-0.58426 Y0.51837
G04 P0 ( dwell for no time -- G64 should not smooth over this point )
G00 Z0.05906 ( retract )

G00 X-0.64235 Y0.43117 ( rapid move to begin. )
G01 F19.68504
( Mill infeed pass 1/1 )
G01 Z-0.00354
G04 P0 ( dwell for no time -- G64 should not smooth over this point )
G01 F39.37008
G01 X-0.64235 Y0.43117
G01 X-0.64343 Y0.43206
G01 X-0.64750 Y0.43640
G01 X-0.65102 Y0.43211
G01 X-0.67526 Y0.40835
G01 X-0.67973 Y0.40947
G01 X-0.67413 Y0.40386
G01 X-0.68393 Y0.41367
G01 X-0.68211 Y0.41403
G01 X-0.67472 Y0.41627
G01 X-0.67180 Y0.41749
G01 X-0.67472 Y0.41627
G01 X-0.67829 Y0.41519
G01 X-0.67409 Y0.41414
G01 X-0.67829 Y0.41519
G01 X-0.68211 Y0.41403
G01 X-0.68393 Y0.41367
G01 X-0.68474 Y0.41392
G01 X-0.68393 Y0.41367
G01 X-0.67973 Y0.40947
G01 X-0.67526 Y0.40835
G01 X-0.56742 Y0.42429
G01 X-0.56742 Y0.43034
G01 X-0.57057 Y0.43292
G01 X-0.57190 Y0.43425
G01 X-0.57471 Y0.43768
G01 X-0.57582 Y0.43937
G01 X-0.57967 Y0.43425
G01 X-0.58100 Y0.43292
G01 X-0.58240 Y0.43183
G01 X-0.58100 Y0.43292
G01 X-0.57967 Y0.43425
G01 X-0.57874 Y0.43545
G01 X-0.57874 Y0.43235
G01 X-0.57874 Y0.43545
G01 X-0.57626 Y0.43862
G01 X-0.57582 Y0.43936
G01 X-0.57583 Y0.44022
G01 X-0.57576 Y0.43925
G01 X-0.57471 Y0.43768
G01 X-0.57283 Y0.43539
G01 X-0.57283 Y0.43073
G01 X-0.57283 Y0.43539
G01 X-0.57057 Y0.43292
G01 X-0.56742 Y0.43034
G01 X-0.56742 Y0.42429
G01 X-0.61860 Y0.25570
G01 X-0.61860 Y0.25346
G01 X-0.61702 Y0.25187
G01 X-0.61860 Y0.25346
G01 X-0.61860 Y0.25570
G01 X-0.52293 Y0.27364
G01 X-0.52293 Y0.27587
G01 X-0.52451 Y0.27745
G01 X-0.52293 Y0.27587
G01 X-0.52293 Y0.27364
G01 X-0.55453 Y0.18643
G01 X-0.55380 Y0.18467
G01 X-0.55261 Y0.18431
G04 P0 ( dwell for no time -- G64 should not smooth over this point )
G00 Z0.05906 ( retract )

G00 X-0.62165 Y0.17050 ( rapid move to begin. )
G01 F19.68504
( Mill infeed pass 1/1 )
G01 Z-0.00354
G04 P0 ( dwell for no time -- G64 should not smooth over this point )
G01 F39.37008
G01 X-0.62165 Y0.17050
G01 X-0.62121 Y0.17195
G01 X-0.62003 Y0.17415
G01 X-0.62349 Y0.17762
G04 P0 ( dwell for no time -- G64 should not smooth over this point )
G00 Z0.05906 ( retract )

G00 X-0.67569 Y0.32246 ( rapid move to begin. )
G01 F19.68504
( Mill infeed pass 1/1 )
G01 Z-0.00354
G04 P0 ( dwell for no time -- G64 should not smooth over this point )
G01 F39.37008
G01 X-0.67569 Y0.32246
G01 X-0.67569 Y0.32469
G01 X-0.67727 Y0.32627

G00 Z0.39370 (Retract to tool change height)
T3
M5      (Spindle stop.)
G04 P1.00000 (Wait for spindle to stop)
(MSG, Change tool bit to mill diameter 0.00984in)
M6      (Tool change.)
M0      (Temporary machine stop.)
M3 ( Spindle on clockwise. )
G04 P1.00000 (Wait for spindle to get up to speed)
G04 P0 ( dwell for no time -- G64 should not smooth over this point )
G00 Z0.05906 ( retract )

G00 X-0.11220 Y0.62096 ( rapid move to begin. )
G01 F19.68504
( Mill infeed pass 1/1 )
G01 Z-0.00354
G04 P0 ( dwell for no time -- G64 should not smooth over this point )
G01 F39.37008
G01 X-0.11220 Y0.62096
G01 X-0.09473 Y0.62096
G01 X-0.09289 Y0.62040
G01 X-0.09232 Y0.62096
G01 X-0.09473 Y0.62096
G01 X-0.08711 Y0.62096
G01 X-0.08612 Y0.62195
G01 X-0.08243 Y0.62687
G01 X-0.08120 Y0.63179
G01 X-0.08120 Y0.71053
G01 X-0.08204 Y0.71461
G01 X-0.08612 Y0.71545
G01 X-0.16486 Y0.71545
G01 X-0.16978 Y0.71422
G01 X-0.17471 Y0.71053
G01 X-0.17569 Y0.70955
G01 X-0.17569 Y0.68790
G01 X-0.18898 Y0.68790
G01 X-0.18921 Y0.69206
G01 X-0.18963 Y0.69414
G01 X-0.19017 Y0.69594
G01 X-0.19125 Y0.69836
G01 X-0.19269 Y0.70078
G01 X-0.19361 Y0.70208
G01 X-0.19680 Y0.70513
G01 X-0.19896 Y0.70665
G01 X-0.20258 Y0.70835
G01 X-0.20647 Y0.70931
G01 X-0.20942 Y0.70955
G01 X-0.22956 Y0.70950
G01 X-0.23349 Y0.70893
G01 X-0.23726 Y0.70759
G01 X-0.24069 Y0.70555
G01 X-0.24233 Y0.70420
G01 X-0.24366 Y0.70287
G01 X-0.24530 Y0.70078
G01 X-0.24746 Y0.69694
G01 X-0.24864 Y0.69269
G01 X-0.24897 Y0.69008
G01 X-0.24901 Y0.65321
G01 X-0.24878 Y0.65026
G01 X-0.24820 Y0.64768
G01 X-0.24757 Y0.64593
G01 X-0.24820 Y0.64768
G01 X-0.24878 Y0.65026
G01 X-0.24901 Y0.65321
G01 X-0.24897 Y0.69008
G01 X-0.24864 Y0.69269
G01 X-0.24746 Y0.69694
G01 X-0.24530 Y0.70078
G01 X-0.24366 Y0.70287
G01 X-0.24854 Y0.70049
G01 X-0.25221 Y0.69836
G01 X-0.25223 Y0.64862
G01 X-0.25221 Y0.69836
G01 X-0.24854 Y0.70049
G01 X-0.24376 Y0.70275
G01 X-0.24233 Y0.70420
G01 X-0.23913 Y0.70659
G01 X-0.23552 Y0.70831
G01 X-0.23349 Y0.70893
G01 X-0.22956 Y0.70950
G01 X-0.20942 Y0.70955
G01 X-0.20647 Y0.70931
G01 X-0.20438 Y0.70890
G01 X-0.20062 Y0.70754
G01 X-0.19896 Y0.70665
G01 X-0.19680 Y0.70513
G01 X-0.19421 Y0.70272
G01 X-0.18943 Y0.70048
G01 X-0.18500 Y0.69801
G01 X-0.18363 Y0.69779
G01 X-0.18367 Y0.69724
G01 X-0.18363 Y0.69779
G01 X-0.18229 Y0.69810
G01 X-0.18168 Y0.69843
G01 X-0.18157 Y0.69826
G01 X-0.18168 Y0.69843
G01 X-0.17569 Y0.70433
G01 X-0.17569 Y0.70955
G01 X-0.19142 Y0.70955
G01 X-0.18614 Y0.70709
G01 X-0.18436 Y0.70609
G01 X-0.18091 Y0.70955
G01 X-0.17569 Y0.70955
G01 X-0.30458 Y0.70955
G01 X-0.30482 Y0.70931
G01 X-0.30241 Y0.70955
G01 X-0.28322 Y0.70955
G01 X-0.28029 Y0.70931
G01 X-0.27770 Y0.70873
G01 X-0.27505 Y0.70778
G01 X-0.27268 Y0.70659
G01 X-0.27111 Y0.70555
G01 X-0.26911 Y0.70381
G01 X-0.26721 Y0.70173
G01 X-0.26569 Y0.69956
G01 X-0.26480 Y0.69790
G01 X-0.26385 Y0.69543
G01 X-0.26316 Y0.69269
G01 X-0.26284 Y0.69006
G01 X-0.26284 Y0.65226
G01 X-0.26316 Y0.64963
G01 X-0.26385 Y0.64690
G01 X-0.26429 Y0.64576
G01 X-0.25961 Y0.64851
G01 X-0.25952 Y0.70116
G01 X-0.25986 Y0.70127
G01 X-0.25952 Y0.70116
G01 X-0.25893 Y0.70253
G01 X-0.25784 Y0.70356
G01 X-0.25797 Y0.70370
G01 X-0.25784 Y0.70356
G01 X-0.25189 Y0.70707
G01 X-0.24663 Y0.70955
G04 P0 ( dwell for no time -- G64 should not smooth over this point )
G00 Z0.05906 ( retract )

G00 X-0.18091 Y0.65443 ( rapid move to begin. )
G01 F19.68504
( Mill infeed pass 1/1 )
G01 Z-0.00354
G04 P0 ( dwell for no time -- G64 should not smooth over this point )
G01 F39.37008
G01 X-0.18091 Y0.65443
G01 X-0.18898 Y0.65443
G01 X-0.18921 Y0.65027
G01 X-0.19017 Y0.64638
G01 X-0.19187 Y0.64276
G01 X-0.19375 Y0.64021
G01 X-0.18418 Y0.64166
G01 X-0.18307 Y0.64437
G01 X-0.18307 Y0.64127
G01 X-0.18307 Y0.64437
G01 X-0.18091 Y0.65443
G01 X-0.17569 Y0.65443
G01 X-0.17569 Y0.63355
G04 P0 ( dwell for no time -- G64 should not smooth over this point )
G00 Z0.05906 ( retract )

G00 X-0.18966 Y0.49742 ( rapid move to begin. )
G01 F19.68504
( Mill infeed pass 1/1 )
G01 Z-0.00354
G04 P0 ( dwell for no time -- G64 should not smooth over this point )
G01 F39.37008
G01 X-0.18966 Y0.49742
G01 X-0.18921 Y0.49521
G01 X-0.18898 Y0.49104
G01 X-0.17267 Y0.49104
G01 X-0.17141 Y0.49448
G01 X-0.17051 Y0.49617
G01 X-0.17126 Y0.55228
G01 X-0.17223 Y0.55453
G01 X-0.17267 Y0.55600
G01 X-0.32033 Y0.55600
G01 X-0.33243 Y0.54390
G01 X-0.33223 Y0.54196
G01 X-0.33093 Y0.50967
G01 X-0.33390 Y0.50507
G01 X-0.34654 Y0.50510
G01 X-0.34570 Y0.50531
G01 X-0.34276 Y0.50653
G01 X-0.34059 Y0.50783
G01 X-0.33850 Y0.50946
G01 X-0.33596 Y0.51229
G01 X-0.33502 Y0.51370
G01 X-0.33371 Y0.51642
G01 X-0.33502 Y0.51370
G01 X-0.33596 Y0.51229
G01 X-0.33850 Y0.50946
G01 X-0.34059 Y0.50783
G01 X-0.34276 Y0.50653
G01 X-0.34570 Y0.50531
G01 X-0.34815 Y0.50470
G01 X-0.35076 Y0.50437
G01 X-0.37178 Y0.50433
G01 X-0.37339 Y0.50445
G01 X-0.37589 Y0.50482
G01 X-0.37844 Y0.50553
G01 X-0.38000 Y0.50617
G01 X-0.38256 Y0.50763
G01 X-0.38000 Y0.50617
G01 X-0.37844 Y0.50553
G01 X-0.37686 Y0.50509
G01 X-0.38142 Y0.50508
G01 X-0.39673 Y0.52156
G01 X-0.51928 Y0.43859
G01 X-0.52214 Y0.33912
G01 X-0.52070 Y0.33767
G01 X-0.52214 Y0.33912
G01 X-0.52214 Y0.34116
G01 X-0.51928 Y0.43859
G01 X-0.52214 Y0.43726
G01 X-0.52214 Y0.43322
G01 X-0.51112 Y0.32809
G01 X-0.50140 Y0.31838
G01 X-0.50498 Y0.32702
G01 X-0.50140 Y0.31838
G01 X-0.49404 Y0.31101
G01 X-0.49447 Y0.31175
G01 X-0.49459 Y0.31289
G01 X-0.49459 Y0.33493
G01 X-0.49816 Y0.32984
G01 X-0.49459 Y0.32120
G01 X-0.49447 Y0.31175
G01 X-0.49208 Y0.30765
G01 X-0.48777 Y0.30367
G01 X-0.48376 Y0.30325
G01 X-0.46092 Y0.30325
G01 X-0.45610 Y0.30265
G01 X-0.45400 Y0.30186
G01 X-0.45327 Y0.30126
G01 X-0.45192 Y0.29962
G01 X-0.45092 Y0.29775
G01 X-0.45031 Y0.29571
G01 X-0.45019 Y0.29453
G01 X-0.44981 Y0.29557
G01 X-0.45037 Y0.29591
G01 X-0.45092 Y0.29775
G01 X-0.45192 Y0.29962
G01 X-0.45327 Y0.30126
G01 X-0.45400 Y0.30186
G01 X-0.45456 Y0.30207
G01 X-0.44628 Y0.30207
G01 X-0.44480 Y0.30114
G01 X-0.44628 Y0.30207
G01 X-0.37041 Y0.30207
G01 X-0.37905 Y0.29849
G01 X-0.37041 Y0.30207
G01 X-0.36077 Y0.30207
G01 X-0.36759 Y0.29525
G01 X-0.37623 Y0.29167
G01 X-0.37730 Y0.28554
G01 X-0.36077 Y0.30207
G01 X-0.35777 Y0.30331
G01 X-0.35199 Y0.30711
G01 X-0.34819 Y0.31289
G01 X-0.34695 Y0.31589
G01 X-0.34695 Y0.32553
G01 X-0.34337 Y0.33417
G01 X-0.34695 Y0.33927
G01 X-0.34695 Y0.31589
G01 X-0.34013 Y0.32271
G01 X-0.33655 Y0.33135
G01 X-0.34013 Y0.32271
G01 X-0.30955 Y0.35329
G01 X-0.30955 Y0.43726
G01 X-0.31233 Y0.43861
G01 X-0.32823 Y0.45160
G01 X-0.32781 Y0.45448
G01 X-0.33634 Y0.44980
G01 X-0.33491 Y0.45187
G01 X-0.33412 Y0.45336
G01 X-0.33316 Y0.45584
G01 X-0.33273 Y0.45758
G01 X-0.32279 Y0.45758
G01 X-0.32279 Y0.45537
G01 X-0.32246 Y0.45278
G01 X-0.32178 Y0.45005
G01 X-0.32093 Y0.44786
G04 P0 ( dwell for no time -- G64 should not smooth over this point )
G00 Z0.05906 ( retract )

G00 X-0.31713 Y0.50636 ( rapid move to begin. )
G01 F19.68504
( Mill infeed pass 1/1 )
G01 Z-0.00354
G04 P0 ( dwell for no time -- G64 should not smooth over this point )
G01 F39.37008
G01 X-0.31713 Y0.50636
G01 X-0.31876 Y0.50447
G01 X-0.31994 Y0.50271
G01 X-0.32164 Y0.49909
G01 X-0.32260 Y0.49521
G01 X-0.32283 Y0.49104
G01 X-0.33644 Y0.49104
G01 X-0.33850 Y0.49330
G01 X-0.34059 Y0.49493
G01 X-0.34276 Y0.49623
G01 X-0.34519 Y0.49730
G01 X-0.34655 Y0.49772
G01 X-0.33201 Y0.49769
G01 X-0.33068 Y0.49794
G01 X-0.33054 Y0.49756
G01 X-0.33068 Y0.49794
G01 X-0.32945 Y0.49843
G01 X-0.32939 Y0.49869
G01 X-0.32971 Y0.49843
G01 X-0.32866 Y0.49952
G01 X-0.32858 Y0.49945
G01 X-0.32866 Y0.49952
G01 X-0.32817 Y0.50032
G01 X-0.32453 Y0.50598
G01 X-0.32915 Y0.49889
G01 X-0.32976 Y0.49838
G01 X-0.33133 Y0.49775
G01 X-0.34655 Y0.49772
G01 X-0.34888 Y0.49821
G01 X-0.35162 Y0.49843
G01 X-0.37180 Y0.49843
G01 X-0.37454 Y0.49821
G01 X-0.37693 Y0.49770
G01 X-0.38121 Y0.49770
G01 X-0.38228 Y0.49526
G01 X-0.38067 Y0.49623
G01 X-0.37824 Y0.49730
G01 X-0.37662 Y0.49779
G01 X-0.39673 Y0.52156
G01 X-0.39103 Y0.52156
G01 X-0.39075 Y0.51968
G01 X-0.39008 Y0.51727
G01 X-0.39075 Y0.51968
G01 X-0.39103 Y0.52156
G01 X-0.39673 Y0.52156
G01 X-0.37662 Y0.49779
G01 X-0.45794 Y0.52344
G01 X-0.45878 Y0.52391
G01 X-0.46032 Y0.52367
G01 X-0.51784 Y0.50909
G01 X-0.52061 Y0.51074
G01 X-0.52214 Y0.51138
G01 X-0.52214 Y0.52373
G01 X-0.52027 Y0.52401
G01 X-0.51772 Y0.52472
G01 X-0.51627 Y0.52532
G01 X-0.51772 Y0.52472
G01 X-0.52027 Y0.52401
G01 X-0.52214 Y0.52373
G01 X-0.52214 Y0.51138
G01 X-0.52061 Y0.51074
G01 X-0.51784 Y0.50909
G01 X-0.49827 Y0.53784
G01 X-0.49760 Y0.53583
G01 X-0.49652 Y0.53355
G01 X-0.49563 Y0.53222
G01 X-0.49827 Y0.53339
G01 X-0.49827 Y0.53784
G01 X-0.50514 Y0.54022
G01 X-0.50492 Y0.54296
G01 X-0.50492 Y0.56314
G01 X-0.50541 Y0.56723
G01 X-0.50566 Y0.56805
G01 X-0.50565 Y0.57941
G01 X-0.50979 Y0.58339
G01 X-0.50565 Y0.57941
G01 X-0.50566 Y0.56805
G01 X-0.50633 Y0.57027
G01 X-0.50741 Y0.57255
G01 X-0.50819 Y0.57394
G01 X-0.50917 Y0.57519
G01 X-0.51087 Y0.57707
G01 X-0.51288 Y0.57880
G01 X-0.51428 Y0.57974
G01 X-0.51643 Y0.58085
G01 X-0.51428 Y0.57974
G01 X-0.51288 Y0.57880
G01 X-0.51087 Y0.57707
G01 X-0.50917 Y0.57519
G01 X-0.50819 Y0.57394
G01 X-0.50741 Y0.57255
G01 X-0.50633 Y0.57027
G01 X-0.50541 Y0.56723
G01 X-0.50492 Y0.56314
G01 X-0.50497 Y0.54190
G01 X-0.50514 Y0.54022
G01 X-0.50572 Y0.53763
G01 X-0.50657 Y0.53525
G01 X-0.50820 Y0.53224
G01 X-0.50565 Y0.53338
G01 X-0.50565 Y0.53794
G01 X-0.50514 Y0.54022
G01 X-0.49827 Y0.53784
G01 X-0.49877 Y0.54001
G01 X-0.49897 Y0.54210
G01 X-0.49901 Y0.56312
G01 X-0.49890 Y0.56473
G01 X-0.49828 Y0.56813
G01 X-0.49830 Y0.58099
G01 X-0.49838 Y0.58166
G01 X-0.49889 Y0.58291
G01 X-0.49856 Y0.58308
G01 X-0.49889 Y0.58291
G01 X-0.50162 Y0.58587
G01 X-0.50561 Y0.58954
G01 X-0.50146 Y0.58572
G01 X-0.49930 Y0.58344
G01 X-0.49858 Y0.58231
G01 X-0.49830 Y0.58099
G01 X-0.49826 Y0.57919
G01 X-0.49828 Y0.56813
G01 X-0.49782 Y0.56978
G01 X-0.49717 Y0.57134
G01 X-0.49524 Y0.57462
G01 X-0.49269 Y0.57745
G01 X-0.49060 Y0.57909
G01 X-0.48847 Y0.58036
G01 X-0.56254 Y0.65443
G01 X-0.64918 Y0.65443
G01 X-0.64962 Y0.65295
G01 X-0.65058 Y0.65073
G01 X-0.55847 Y0.51004
G01 X-0.55561 Y0.51137
G01 X-0.55561 Y0.52959
G01 X-0.55631 Y0.53040
G01 X-0.55561 Y0.52959
G01 X-0.55561 Y0.51137
G01 X-0.55847 Y0.51004
G01 X-0.65058 Y0.65073
G01 X-0.65494 Y0.50259
G01 X-0.65407 Y0.50129
G01 X-0.65044 Y0.49448
G01 X-0.64918 Y0.49104
G01 X-0.64271 Y0.49104
G01 X-0.64248 Y0.49521
G01 X-0.64207 Y0.49729
G01 X-0.64071 Y0.50105
G01 X-0.63970 Y0.50288
G01 X-0.64715 Y0.50008
G01 X-0.64710 Y0.49879
G01 X-0.64715 Y0.50008
G01 X-0.63970 Y0.50288
G01 X-0.64071 Y0.50105
G01 X-0.64207 Y0.49729
G01 X-0.64248 Y0.49521
G01 X-0.64271 Y0.49104
G01 X-0.64918 Y0.49104
G01 X-0.65044 Y0.49448
G01 X-0.65407 Y0.50129
G01 X-0.65494 Y0.50259
G01 X-0.73474 Y0.60707
G01 X-0.73474 Y0.60911
G01 X-0.73330 Y0.61056
G01 X-0.71428 Y0.62434
G01 X-0.71653 Y0.62524
G01 X-0.71789 Y0.62597
G01 X-0.72127 Y0.62259
G01 X-0.73474 Y0.52542
G01 X-0.73474 Y0.51613
G01 X-0.73228 Y0.52134
G01 X-0.73474 Y0.51613
G01 X-0.73474 Y0.50637
G01 X-0.73257 Y0.50902
G01 X-0.73106 Y0.51052
G01 X-0.72510 Y0.51542
G01 X-0.72333 Y0.51659
G01 X-0.72158 Y0.51753
G01 X-0.72585 Y0.51766
G01 X-0.72807 Y0.51298
G01 X-0.73106 Y0.51052
G01 X-0.73257 Y0.50902
G01 X-0.73474 Y0.50637
G01 X-0.73681 Y0.50031
G01 X-0.73901 Y0.49128
G01 X-0.74026 Y0.48251
G01 X-0.74064 Y0.47480
G01 X-0.74026 Y0.46611
G01 X-0.73901 Y0.45734
G01 X-0.73681 Y0.44831
G01 X-0.73646 Y0.44707
G01 X-0.73611 Y0.44668
G01 X-0.73092 Y0.44095
G01 X-0.72399 Y0.43456
G01 X-0.71633 Y0.42876
G01 X-0.71453 Y0.42757
G01 X-0.69575 Y0.40878
G01 X-0.69687 Y0.41429
G01 X-0.70488 Y0.41792
G01 X-0.71453 Y0.42757
G01 X-0.70718 Y0.42534
G01 X-0.70510 Y0.42492
G01 X-0.70173 Y0.42459
G01 X-0.69442 Y0.42126
G01 X-0.70173 Y0.42459
G01 X-0.69742 Y0.42417
G01 X-0.69530 Y0.42417
G01 X-0.56025 Y0.43843
G01 X-0.55561 Y0.43319
G01 X-0.57208 Y0.45180
G01 X-0.57206 Y0.49674
G01 X-0.56763 Y0.49928
G01 X-0.56837 Y0.49665
G01 X-0.56890 Y0.49227
G01 X-0.56890 Y0.45635
G01 X-0.56837 Y0.45197
G01 X-0.56752 Y0.44910
G01 X-0.58418 Y0.44897
G01 X-0.58373 Y0.45005
G01 X-0.58305 Y0.45278
G01 X-0.58272 Y0.45539
G01 X-0.58268 Y0.49226
G01 X-0.58291 Y0.49521
G01 X-0.58333 Y0.49729
G01 X-0.58410 Y0.49963
G01 X-0.57944 Y0.49692
G01 X-0.57944 Y0.45369
G01 X-0.57947 Y0.45171
G01 X-0.57944 Y0.49692
G01 X-0.58410 Y0.49963
G01 X-0.58333 Y0.49729
G01 X-0.58291 Y0.49521
G01 X-0.58268 Y0.49226
G01 X-0.58272 Y0.45539
G01 X-0.58305 Y0.45278
G01 X-0.58373 Y0.45005
G01 X-0.58418 Y0.44897
G01 X-0.56967 Y0.44908
G01 X-0.56025 Y0.43843
G01 X-0.55851 Y0.43862
G01 X-0.55561 Y0.43725
G01 X-0.55561 Y0.43319
G01 X-0.63041 Y0.25061
G01 X-0.63041 Y0.24857
G01 X-0.62897 Y0.24712
G01 X-0.63041 Y0.24857
G01 X-0.63041 Y0.25061
G01 X-0.51112 Y0.27873
G01 X-0.51112 Y0.28077
G01 X-0.51256 Y0.28221
G01 X-0.51112 Y0.28077
G01 X-0.51112 Y0.27873
G01 X-0.56431 Y0.17866
G01 X-0.56393 Y0.17616
G01 X-0.56388 Y0.17411
G01 X-0.55961 Y0.17398
G01 X-0.40275 Y0.17380
G01 X-0.40029 Y0.17411
G01 X-0.39734 Y0.17411
G01 X-0.39734 Y0.18122
G04 P0 ( dwell for no time -- G64 should not smooth over this point )
G00 Z0.05906 ( retract )

G00 X-0.25266 Y0.30051 ( rapid move to begin. )
G01 F19.68504
( Mill infeed pass 1/1 )
G01 Z-0.00354
G04 P0 ( dwell for no time -- G64 should not smooth over this point )
G01 F39.37008
G01 X-0.25266 Y0.30051
G01 X-0.25327 Y0.30126
G01 X-0.25491 Y0.30260
G01 X-0.25678 Y0.30361
G01 X-0.25830 Y0.30406
G01 X-0.17368 Y0.38868
G01 X-0.17164 Y0.38868
G04 P0 ( dwell for no time -- G64 should not smooth over this point )
G00 Z0.05906 ( retract )

G00 X-0.26994 Y0.33975 ( rapid move to begin. )
G01 F19.68504
( Mill infeed pass 1/1 )
G01 Z-0.00354
G04 P0 ( dwell for no time -- G64 should not smooth over this point )
G01 F39.37008
G01 X-0.26994 Y0.33975
G01 X-0.25955 Y0.35013
G01 X-0.26568 Y0.34906
G01 X-0.26809 Y0.34335
G01 X-0.26994 Y0.33975
G01 X-0.29315 Y0.31646
G01 X-0.29389 Y0.31556
G01 X-0.29561 Y0.31278
G01 X-0.29643 Y0.31082
G01 X-0.29700 Y0.30851
G01 X-0.29835 Y0.30617
G01 X-0.29809 Y0.30596
G01 X-0.29835 Y0.30617
G01 X-0.29939 Y0.30529
G01 X-0.30105 Y0.30435
G01 X-0.29939 Y0.30529
G01 X-0.29835 Y0.30617
G01 X-0.29700 Y0.30851
G01 X-0.29729 Y0.30648
G01 X-0.29734 Y0.30443
G01 X-0.30029 Y0.30443
G01 X-0.30241 Y0.30422
G01 X-0.30444 Y0.30361
G01 X-0.30631 Y0.30260
G01 X-0.30795 Y0.30126
G01 X-0.30930 Y0.29962
G01 X-0.31030 Y0.29775
G01 X-0.31091 Y0.29571
G01 X-0.31105 Y0.29433
G01 X-0.31224 Y0.29204
G01 X-0.31470 Y0.28610
G01 X-0.31224 Y0.29204
G01 X-0.31105 Y0.29433
G01 X-0.31112 Y0.28101
G01 X-0.31741 Y0.29810
G01 X-0.31900 Y0.29502
G01 X-0.32152 Y0.28893
G01 X-0.36243 Y0.25308
G01 X-0.36388 Y0.25163
G01 X-0.36388 Y0.24959
G01 X-0.35847 Y0.17380
G01 X-0.36092 Y0.17411
G01 X-0.36388 Y0.17411
G01 X-0.36388 Y0.18122
G01 X-0.32765 Y0.28786
G01 X-0.30479 Y0.31072
G01 X-0.30394 Y0.31120
G01 X-0.30349 Y0.31202
G01 X-0.30479 Y0.31072
G01 X-0.28027 Y0.33531
G01 X-0.27953 Y0.33621
G01 X-0.27781 Y0.33900
G01 X-0.27700 Y0.34096
G01 X-0.27642 Y0.34328
G01 X-0.27482 Y0.34638
G01 X-0.27250 Y0.35189
G01 X-0.27482 Y0.34638
G01 X-0.27642 Y0.34328
G01 X-0.27608 Y0.34636
G01 X-0.27608 Y0.35698
G01 X-0.26408 Y0.44931
G01 X-0.26342 Y0.45145
G01 X-0.26284 Y0.45541
G01 X-0.26284 Y0.49321
G01 X-0.26316 Y0.49584
G01 X-0.26385 Y0.49858
G01 X-0.26426 Y0.49965
G01 X-0.25958 Y0.49692
G01 X-0.25959 Y0.45188
G01 X-0.25220 Y0.49677
G01 X-0.25221 Y0.45188
G01 X-0.24773 Y0.44931
G01 X-0.24839 Y0.45145
G01 X-0.24897 Y0.45539
G01 X-0.24901 Y0.49226
G01 X-0.24848 Y0.49665
G01 X-0.24765 Y0.49941
G01 X-0.24848 Y0.49665
G01 X-0.24901 Y0.49226
G01 X-0.24897 Y0.45539
G01 X-0.24839 Y0.45145
G01 X-0.24773 Y0.44931
G01 X-0.25221 Y0.45188
G01 X-0.25220 Y0.49677
G01 X-0.25959 Y0.45188
G01 X-0.27608 Y0.43322
G01 X-0.27608 Y0.43726
G01 X-0.27322 Y0.43859
G01 X-0.27608 Y0.43726
G01 X-0.27608 Y0.43322
G01 X-0.16725 Y0.42215
G01 X-0.18962 Y0.45135
G01 X-0.18921 Y0.45342
G01 X-0.18898 Y0.45758
G01 X-0.17267 Y0.45758
G01 X-0.17141 Y0.45414
G01 X-0.17055 Y0.45252
G01 X-0.17141 Y0.45414
G01 X-0.17267 Y0.45758
G01 X-0.18898 Y0.45758
G01 X-0.18921 Y0.45342
G01 X-0.18962 Y0.45135
G01 X-0.16725 Y0.42215
G01 X-0.14917 Y0.42215
G01 X-0.15602 Y0.42387
G01 X-0.16210 Y0.42586
G01 X-0.15602 Y0.42387
G01 X-0.14917 Y0.42215
G01 X-0.11974 Y0.42215
G01 X-0.11699 Y0.42490
G01 X-0.12443 Y0.42417
G01 X-0.12655 Y0.42417
G01 X-0.13423 Y0.42492
G01 X-0.13631 Y0.42534
G01 X-0.14370 Y0.42758
G01 X-0.14738 Y0.42931
G01 X-0.15396 Y0.43096
G01 X-0.15936 Y0.43272
G01 X-0.15396 Y0.43096
G01 X-0.14738 Y0.42931
G01 X-0.15247 Y0.43203
G01 X-0.15423 Y0.43321
G01 X-0.16026 Y0.43816
G01 X-0.15423 Y0.43321
G01 X-0.15247 Y0.43203
G01 X-0.14566 Y0.42839
G01 X-0.14370 Y0.42758
G01 X-0.13631 Y0.42534
G01 X-0.13423 Y0.42492
G01 X-0.12655 Y0.42417
G01 X-0.12443 Y0.42417
G01 X-0.11699 Y0.42490
G01 X-0.11487 Y0.42602
G01 X-0.10805 Y0.43011
G01 X-0.09943 Y0.43648
G01 X-0.09285 Y0.44253
G01 X-0.08766 Y0.44825
G01 X-0.08376 Y0.45340
G01 X-0.08284 Y0.45734
G01 X-0.08159 Y0.46611
G01 X-0.08121 Y0.47383
G01 X-0.08159 Y0.48251
G01 X-0.08310 Y0.49259
G01 X-0.08503 Y0.50031
G01 X-0.08710 Y0.50636
G01 X-0.08928 Y0.50902
G01 X-0.09078 Y0.51052
G01 X-0.09675 Y0.51542
G01 X-0.09851 Y0.51659
G01 X-0.10532 Y0.52023
G01 X-0.10728 Y0.52105
G01 X-0.11467 Y0.52329
G01 X-0.11587 Y0.52352
G01 X-0.11467 Y0.52376
G01 X-0.10728 Y0.52600
G01 X-0.10532 Y0.52681
G01 X-0.09851 Y0.53045
G01 X-0.09675 Y0.53163
G01 X-0.09078 Y0.53653
G01 X-0.08928 Y0.53803
G01 X-0.08710 Y0.54068
G01 X-0.08928 Y0.53803
G01 X-0.09078 Y0.53653
G01 X-0.09378 Y0.53407
G01 X-0.09712 Y0.52722
G01 X-0.10457 Y0.52722
G01 X-0.10728 Y0.52600
G01 X-0.11467 Y0.52376
G01 X-0.11587 Y0.52352
G01 X-0.13512 Y0.52352
G01 X-0.13631 Y0.52329
G01 X-0.14370 Y0.52105
G01 X-0.14566 Y0.52023
G01 X-0.15223 Y0.51672
G01 X-0.15078 Y0.51983
G01 X-0.14641 Y0.51983
G01 X-0.14370 Y0.52105
G01 X-0.13631 Y0.52329
G01 X-0.13512 Y0.52352
G01 X-0.13631 Y0.52376
G01 X-0.14370 Y0.52600
G01 X-0.14566 Y0.52681
G01 X-0.15223 Y0.53032
G01 X-0.15078 Y0.52722
G01 X-0.14641 Y0.52722
G01 X-0.14370 Y0.52600
G01 X-0.13631 Y0.52376
G01 X-0.13512 Y0.52352
G01 X-0.11587 Y0.52352
G01 X-0.11467 Y0.52329
G01 X-0.10728 Y0.52105
G01 X-0.10457 Y0.51983
G01 X-0.09712 Y0.51983
G01 X-0.09378 Y0.51297
G01 X-0.09078 Y0.51052
G01 X-0.08928 Y0.50902
G01 X-0.08710 Y0.50636
G01 X-0.08711 Y0.51613
G01 X-0.09072 Y0.52352
G01 X-0.08711 Y0.53092
G01 X-0.08711 Y0.51613
G01 X-0.08710 Y0.54068
G01 X-0.08503 Y0.54674
G01 X-0.08284 Y0.55577
G01 X-0.08159 Y0.56454
G01 X-0.08121 Y0.57322
G01 X-0.08159 Y0.58094
G01 X-0.08284 Y0.58971
G01 X-0.08503 Y0.59874
G01 X-0.08710 Y0.60479
G01 X-0.08711 Y0.61456
G01 X-0.08749 Y0.61536
G01 X-0.08711 Y0.61575
G01 X-0.08711 Y0.61456
G01 X-0.08711 Y0.62096
G01 X-0.08710 Y0.60479
G01 X-0.08928 Y0.60744
G01 X-0.09078 Y0.60894
G01 X-0.09378 Y0.61140
G01 X-0.09462 Y0.61318
G01 X-0.09682 Y0.61389
G01 X-0.09378 Y0.61140
G01 X-0.09675 Y0.61384
G01 X-0.09851 Y0.61502
G01 X-0.10532 Y0.61866
G01 X-0.10728 Y0.61947
G01 X-0.11220 Y0.62096
G01 X-0.11681 Y0.62155
G01 X-0.12452 Y0.62193
G01 X-0.13418 Y0.62155
G01 X-0.13877 Y0.62097
G01 X-0.16486 Y0.62096
G01 X-0.16638 Y0.62111
G01 X-0.16369 Y0.61839
G01 X-0.15626 Y0.62096
G01 X-0.13877 Y0.62097
G01 X-0.14370 Y0.61947
G01 X-0.14566 Y0.61866
G01 X-0.15247 Y0.61502
G01 X-0.15417 Y0.61389
G01 X-0.16099 Y0.61152
G01 X-0.15417 Y0.61389
G01 X-0.16020 Y0.60894
G01 X-0.16160 Y0.60754
G01 X-0.32321 Y0.58947
G01 X-0.32525 Y0.58947
G01 X-0.33247 Y0.59669
G01 X-0.33224 Y0.59855
G01 X-0.33247 Y0.59669
G01 X-0.32525 Y0.58947
G01 X-0.32321 Y0.58947
G01 X-0.22351 Y0.60062
G01 X-0.17748 Y0.58947
G01 X-0.17267 Y0.58947
G01 X-0.17223 Y0.59095
G01 X-0.17126 Y0.59320
G01 X-0.17223 Y0.59095
G01 X-0.17267 Y0.58947
G01 X-0.17748 Y0.58947
G01 X-0.33566 Y0.62779
G01 X-0.33716 Y0.62974
G01 X-0.33997 Y0.63231
G01 X-0.34322 Y0.63429
G01 X-0.34654 Y0.63545
G01 X-0.33434 Y0.63548
G01 X-0.34654 Y0.63545
G01 X-0.34815 Y0.63586
G01 X-0.35078 Y0.63618
G01 X-0.37264 Y0.63618
G01 X-0.37527 Y0.63586
G01 X-0.37773 Y0.63524
G01 X-0.38020 Y0.63429
G01 X-0.38234 Y0.63305
G01 X-0.44833 Y0.57762
G01 X-0.44833 Y0.57651
G01 X-0.44761 Y0.57564
G01 X-0.38793 Y0.62947
G01 X-0.37687 Y0.64283
G01 X-0.37454 Y0.64234
G01 X-0.37180 Y0.64213
G01 X-0.35162 Y0.64213
G01 X-0.34888 Y0.64234
G01 X-0.34655 Y0.64283
G01 X-0.33252 Y0.64286
G01 X-0.33039 Y0.64523
G01 X-0.32938 Y0.64673
G01 X-0.33039 Y0.64523
G01 X-0.33252 Y0.64286
G01 X-0.33005 Y0.64280
G01 X-0.32997 Y0.64309
G01 X-0.33005 Y0.64280
G01 X-0.32880 Y0.64233
G01 X-0.32781 Y0.64144
G01 X-0.32771 Y0.64155
G01 X-0.32781 Y0.64144
G01 X-0.32743 Y0.64094
G01 X-0.32870 Y0.64424
G01 X-0.32938 Y0.64673
G01 X-0.32815 Y0.65419
G01 X-0.32938 Y0.64673
G01 X-0.33039 Y0.64523
G01 X-0.33252 Y0.64286
G01 X-0.34655 Y0.64283
G01 X-0.34322 Y0.64406
G01 X-0.34173 Y0.64486
G01 X-0.33866 Y0.64711
G01 X-0.33609 Y0.64991
G01 X-0.33491 Y0.65168
G01 X-0.33363 Y0.65443
G01 X-0.32283 Y0.65443
G01 X-0.32260 Y0.65026
G01 X-0.32164 Y0.64638
G01 X-0.31994 Y0.64276
G01 X-0.31825 Y0.64037
G01 X-0.31994 Y0.64276
G01 X-0.32164 Y0.64638
G01 X-0.32260 Y0.65026
G01 X-0.32283 Y0.65443
G01 X-0.33363 Y0.65443
G01 X-0.33491 Y0.65168
G01 X-0.33609 Y0.64991
G01 X-0.33716 Y0.64861
G01 X-0.33997 Y0.64604
G01 X-0.34322 Y0.64406
G01 X-0.34519 Y0.64325
G01 X-0.34888 Y0.64234
G01 X-0.35162 Y0.64213
G01 X-0.37286 Y0.64218
G01 X-0.37454 Y0.64234
G01 X-0.37824 Y0.64325
G01 X-0.38020 Y0.64406
G01 X-0.38251 Y0.64543
G01 X-0.38137 Y0.64286
G01 X-0.37687 Y0.64283
G01 X-0.38793 Y0.62947
G01 X-0.38126 Y0.63548
G01 X-0.37689 Y0.63545
G01 X-0.38126 Y0.63548
G01 X-0.38793 Y0.62947
G01 X-0.44291 Y0.56301
G01 X-0.44291 Y0.55502
G01 X-0.43422 Y0.55502
G01 X-0.37583 Y0.55995
G01 X-0.37339 Y0.56032
G01 X-0.36323 Y0.56043
G01 X-0.35340 Y0.57027
G01 X-0.36323 Y0.58012
G01 X-0.37180 Y0.58012
G01 X-0.37454 Y0.58034
G01 X-0.37615 Y0.58066
G01 X-0.37044 Y0.57274
G01 X-0.36629 Y0.57274
G01 X-0.36607 Y0.57326
G01 X-0.36629 Y0.57274
G01 X-0.36383 Y0.57027
G01 X-0.36078 Y0.57027
G01 X-0.36383 Y0.57027
G01 X-0.36629 Y0.56781
G01 X-0.36607 Y0.56734
G01 X-0.36629 Y0.56781
G01 X-0.37041 Y0.56781
G01 X-0.38519 Y0.55502
G01 X-0.38624 Y0.55502
G04 P0 ( dwell for no time -- G64 should not smooth over this point )
G00 Z0.05906 ( retract )

G00 X-0.32265 Y0.69148 ( rapid move to begin. )
G01 F19.68504
( Mill infeed pass 1/1 )
G01 Z-0.00354
G04 P0 ( dwell for no time -- G64 should not smooth over this point )
G01 F39.37008
G01 X-0.32265 Y0.69148
G01 X-0.32283 Y0.68790
G01 X-0.32624 Y0.68790
G01 X-0.32265 Y0.69148
G04 P0 ( dwell for no time -- G64 should not smooth over this point )
G00 Z0.05906 ( retract )

G00 X-0.36527 Y0.69823 ( rapid move to begin. )
G01 F19.68504
( Mill infeed pass 1/1 )
G01 Z-0.00354
G04 P0 ( dwell for no time -- G64 should not smooth over this point )
G01 F39.37008
G01 X-0.36527 Y0.69823
G01 X-0.36323 Y0.69823
G01 X-0.36179 Y0.69967
G01 X-0.64439 Y0.68790
G01 X-0.64918 Y0.68790
G01 X-0.64962 Y0.68937
G01 X-0.65058 Y0.69160
G04 P0 ( dwell for no time -- G64 should not smooth over this point )
G00 Z0.05906 ( retract )

G00 X-0.74319 Y0.65327 ( rapid move to begin. )
G01 F19.68504
( Mill infeed pass 1/1 )
G01 Z-0.00354
G04 P0 ( dwell for no time -- G64 should not smooth over this point )
G01 F39.37008
G01 X-0.74319 Y0.65327
G01 X-0.74228 Y0.65099
G01 X-0.74155 Y0.64963
G01 X-0.74495 Y0.64623
G04 P0 ( dwell for no time -- G64 should not smooth over this point )
G00 Z0.05906 ( retract )

G00 X-0.64707 Y0.44990 ( rapid move to begin. )
G01 F19.68504
( Mill infeed pass 1/1 )
G01 Z-0.00354
G04 P0 ( dwell for no time -- G64 should not smooth over this point )
G01 F39.37008
G01 X-0.64707 Y0.44990
G01 X-0.64713 Y0.44852
G01 X-0.63961 Y0.44565
G01 X-0.64076 Y0.44768
G01 X-0.64148 Y0.44942
G01 X-0.64218 Y0.45198
G01 X-0.64260 Y0.45476
G01 X-0.64271 Y0.45758
G01 X-0.64918 Y0.45758
G01 X-0.65044 Y0.45414
G01 X-0.65407 Y0.44733
G01 X-0.65496 Y0.44601
G04 P0 ( dwell for no time -- G64 should not smooth over this point )
G00 Z0.05906 ( retract )

G00 X-0.66532 Y0.33103 ( rapid move to begin. )
G01 F19.68504
( Mill infeed pass 1/1 )
G01 Z-0.00354
G04 P0 ( dwell for no time -- G64 should not smooth over this point )
G01 F39.37008
G01 X-0.66532 Y0.33103
G01 X-0.66388 Y0.32959
G01 X-0.66388 Y0.32755
G04 P0 ( dwell for no time -- G64 should not smooth over this point )
G00 Z0.05906 ( retract )

G00 X-0.60966 Y0.18049 ( rapid move to begin. )
G01 F19.68504
( Mill infeed pass 1/1 )
G01 Z-0.00354
G04 P0 ( dwell for no time -- G64 should not smooth over this point )
G01 F39.37008
G01 X-0.60966 Y0.18049
G01 X-0.60292 Y0.17375
G01 X-0.60444 Y0.17329
G01 X-0.60631 Y0.17229
G01 X-0.60795 Y0.17094
G01 X-0.60848 Y0.17030

G04 P0 ( dwell for no time -- G64 should not smooth over this point )
G00 Z0.393701 ( retract )

M5 ( Spindle off. )
G04 P1.000000
M9 ( Coolant off. )
M2 ( Program end. )

