( pcb2gcode 2.1.0 )
( Software-independent Gcode )

G94 ( Inches per minute feed rate. )
G20 ( Units == INCHES. )

G90 ( Absolute coordinates. )
G00 S24000 ( RPM spindle speed. )
G64 P0.00040 ( set maximum deviation from commanded toolpath )
G01 F39.37008 ( Feedrate. )


G00 Z0.39370 (Retract to tool change height)
T0
M5      (Spindle stop.)
G04 P1.00000 (Wait for spindle to stop)
(MSG, Change tool bit to mill diameter 0.05709in)
M6      (Tool change.)
M0      (Temporary machine stop.)
M3 ( Spindle on clockwise. )
G04 P1.00000 (Wait for spindle to get up to speed)
G04 P0 ( dwell for no time -- G64 should not smooth over this point )
G00 Z0.05906 ( retract )

G00 X-0.18212 Y0.52623 ( rapid move to begin. )
G01 F19.68504
( Mill infeed pass 1/1 )
G01 Z-0.00354
G04 P0 ( dwell for no time -- G64 should not smooth over this point )
G01 F39.37008
G01 X-0.18212 Y0.52623
G01 X-0.18461 Y0.52857
G01 X-0.18790 Y0.53071
G01 X-0.19133 Y0.53239
G01 X-0.19326 Y0.53278
G01 X-0.19132 Y0.53238
G01 X-0.18718 Y0.53238
G01 X-0.18450 Y0.52846
G04 P0 ( dwell for no time -- G64 should not smooth over this point )
G00 Z0.05906 ( retract )

G00 X-0.24626 Y0.61300 ( rapid move to begin. )
G01 F19.68504
( Mill infeed pass 1/1 )
G01 Z-0.00354
G04 P0 ( dwell for no time -- G64 should not smooth over this point )
G01 F39.37008
G01 X-0.24626 Y0.61300
G01 X-0.24935 Y0.61435
G01 X-0.25225 Y0.61609
G01 X-0.25382 Y0.61714
G01 X-0.25593 Y0.61887
G01 X-0.25593 Y0.61939
G01 X-0.25603 Y0.61859
G01 X-0.25875 Y0.61658
G01 X-0.26165 Y0.61484
G01 X-0.26494 Y0.61320
G01 X-0.26768 Y0.61269
G01 X-0.26554 Y0.61309
G01 X-0.24664 Y0.61309
G01 X-0.24473 Y0.61269
G04 P0 ( dwell for no time -- G64 should not smooth over this point )
G00 Z0.05906 ( retract )

G00 X-0.19354 Y0.61266 ( rapid move to begin. )
G01 F19.68504
( Mill infeed pass 1/1 )
G01 Z-0.00354
G04 P0 ( dwell for no time -- G64 should not smooth over this point )
G01 F39.37008
G01 X-0.19354 Y0.61266
G01 X-0.19301 Y0.61268
G04 P0 ( dwell for no time -- G64 should not smooth over this point )
G00 Z0.05906 ( retract )

G00 X-0.26659 Y0.53258 ( rapid move to begin. )
G01 F19.68504
( Mill infeed pass 1/1 )
G01 Z-0.00354
G04 P0 ( dwell for no time -- G64 should not smooth over this point )
G01 F39.37008
G01 X-0.26659 Y0.53258
G01 X-0.26566 Y0.53238
G01 X-0.24615 Y0.53238
G01 X-0.24427 Y0.53278
G01 X-0.24709 Y0.53218
G01 X-0.24997 Y0.53069
G01 X-0.25239 Y0.52924
G01 X-0.25590 Y0.52676
G01 X-0.25590 Y0.52628
G01 X-0.25590 Y0.52676
G01 X-0.25942 Y0.52924
G01 X-0.26183 Y0.53069
G01 X-0.26472 Y0.53218
G01 X-0.26754 Y0.53278
G04 P0 ( dwell for no time -- G64 should not smooth over this point )
G00 Z0.05906 ( retract )

G00 X-0.54624 Y0.60529 ( rapid move to begin. )
G01 F19.68504
( Mill infeed pass 1/1 )
G01 Z-0.00354
G04 P0 ( dwell for no time -- G64 should not smooth over this point )
G01 F39.37008
G01 X-0.54624 Y0.60529
G01 X-0.54710 Y0.60558
G01 X-0.57232 Y0.63081
G01 X-0.63467 Y0.63081
G01 X-0.63664 Y0.62777
G01 X-0.63891 Y0.62497
G01 X-0.64441 Y0.61885
G01 X-0.64696 Y0.61630
G01 X-0.64977 Y0.61403
G01 X-0.65642 Y0.60920
G01 X-0.65945 Y0.60723
G01 X-0.66266 Y0.60560
G01 X-0.67018 Y0.60225
G01 X-0.67355 Y0.60096
G01 X-0.67703 Y0.60002
G01 X-0.68508 Y0.59831
G01 X-0.68864 Y0.59775
G01 X-0.69224 Y0.59756
G01 X-0.70047 Y0.59756
G01 X-0.70407 Y0.59775
G01 X-0.71112 Y0.59905
G01 X-0.71112 Y0.54642
G01 X-0.71152 Y0.54593
G01 X-0.71112 Y0.54642
G01 X-0.70407 Y0.54773
G01 X-0.70047 Y0.54791
G01 X-0.69224 Y0.54791
G01 X-0.68864 Y0.54773
G01 X-0.68508 Y0.54716
G01 X-0.67703 Y0.54545
G01 X-0.67355 Y0.54452
G01 X-0.67018 Y0.54322
G01 X-0.66266 Y0.53988
G01 X-0.65945 Y0.53824
G01 X-0.65642 Y0.53628
G01 X-0.64977 Y0.53144
G01 X-0.64664 Y0.52885
G01 X-0.64368 Y0.53069
G01 X-0.63992 Y0.53263
G01 X-0.63596 Y0.53411
G01 X-0.63416 Y0.53465
G01 X-0.62754 Y0.53597
G01 X-0.62229 Y0.53632
G01 X-0.60310 Y0.53632
G01 X-0.59785 Y0.53597
G01 X-0.59123 Y0.53465
G01 X-0.58943 Y0.53411
G01 X-0.58547 Y0.53263
G01 X-0.58290 Y0.53130
G01 X-0.58227 Y0.53048
G01 X-0.58298 Y0.53141
G01 X-0.58434 Y0.53790
G01 X-0.58460 Y0.54212
G01 X-0.58460 Y0.56398
G01 X-0.58434 Y0.56820
G01 X-0.58357 Y0.57235
G01 X-0.58168 Y0.57883
G01 X-0.57992 Y0.58267
G01 X-0.57913 Y0.58416
G01 X-0.57537 Y0.58978
G01 X-0.57203 Y0.59359
G01 X-0.56822 Y0.59693
G01 X-0.56261 Y0.60068
G01 X-0.55728 Y0.60324
G01 X-0.55080 Y0.60513
G01 X-0.54754 Y0.60573
G01 X-0.54677 Y0.60547
G04 P0 ( dwell for no time -- G64 should not smooth over this point )
G00 Z0.05906 ( retract )

G00 X-0.39565 Y0.42608 ( rapid move to begin. )
G01 F19.68504
( Mill infeed pass 1/1 )
G01 Z-0.00354
G04 P0 ( dwell for no time -- G64 should not smooth over this point )
G01 F39.37008
G01 X-0.39565 Y0.42608
G01 X-0.39846 Y0.42795
G01 X-0.40282 Y0.43194
G01 X-0.40562 Y0.43510
G01 X-0.40801 Y0.43859
G01 X-0.41125 Y0.44451
G01 X-0.41272 Y0.44847
G01 X-0.41403 Y0.45336
G01 X-0.41453 Y0.45671
G01 X-0.41486 Y0.46176
G01 X-0.41486 Y0.47899
G01 X-0.41453 Y0.48404
G01 X-0.41403 Y0.48739
G01 X-0.41272 Y0.49228
G01 X-0.41125 Y0.49624
G01 X-0.41045 Y0.49778
G01 X-0.40961 Y0.49833
G01 X-0.41022 Y0.49793
G01 X-0.45029 Y0.49793
G01 X-0.45482 Y0.49821
G01 X-0.46145 Y0.49953
G01 X-0.46265 Y0.49990
G01 X-0.48050 Y0.49994
G01 X-0.48468 Y0.50021
G01 X-0.48606 Y0.50047
G01 X-0.48670 Y0.50109
G01 X-0.48620 Y0.50060
G01 X-0.48559 Y0.49752
G01 X-0.48524 Y0.49227
G01 X-0.48524 Y0.45635
G01 X-0.48561 Y0.45129
G01 X-0.48602 Y0.44851
G01 X-0.48690 Y0.44437
G01 X-0.48899 Y0.43864
G01 X-0.49084 Y0.43485
G01 X-0.49315 Y0.43130
G01 X-0.49483 Y0.42904
G01 X-0.49755 Y0.42581
G01 X-0.49852 Y0.42490
G01 X-0.49852 Y0.42257
G01 X-0.49892 Y0.42189
G01 X-0.49849 Y0.42263
G01 X-0.49694 Y0.42346
G01 X-0.49048 Y0.42542
G01 X-0.48376 Y0.42608
G01 X-0.39565 Y0.42608
G01 X-0.39440 Y0.42568
G04 P0 ( dwell for no time -- G64 should not smooth over this point )
G00 Z0.05906 ( retract )

G00 X-0.33317 Y0.41550 ( rapid move to begin. )
G01 F19.68504
( Mill infeed pass 1/1 )
G01 Z-0.00354
G04 P0 ( dwell for no time -- G64 should not smooth over this point )
G01 F39.37008
G01 X-0.33317 Y0.41550
G01 X-0.33342 Y0.41599
G01 X-0.33864 Y0.42028
G01 X-0.33926 Y0.42061
G01 X-0.34040 Y0.42077
G01 X-0.33914 Y0.42059
G01 X-0.33514 Y0.42198
G01 X-0.33317 Y0.42291
G01 X-0.33317 Y0.41550
G01 X-0.33277 Y0.41455
G04 P0 ( dwell for no time -- G64 should not smooth over this point )
G00 Z0.05906 ( retract )

G00 X-0.25246 Y0.39063 ( rapid move to begin. )
G01 F19.68504
( Mill infeed pass 1/1 )
G01 Z-0.00354
G04 P0 ( dwell for no time -- G64 should not smooth over this point )
G01 F39.37008
G01 X-0.25246 Y0.39063
G01 X-0.25246 Y0.41938
G01 X-0.25286 Y0.42013
G01 X-0.25246 Y0.41938
G01 X-0.24935 Y0.41750
G01 X-0.24630 Y0.41606
G01 X-0.24138 Y0.41420
G01 X-0.23625 Y0.41301
G01 X-0.23064 Y0.41245
G01 X-0.22976 Y0.41276
G01 X-0.23064 Y0.41245
G01 X-0.25246 Y0.39063
G01 X-0.25286 Y0.38967
G04 P0 ( dwell for no time -- G64 should not smooth over this point )
G00 Z0.05906 ( retract )

G00 X-0.33237 Y0.18243 ( rapid move to begin. )
G01 F19.68504
( Mill infeed pass 1/1 )
G01 Z-0.00354
G04 P0 ( dwell for no time -- G64 should not smooth over this point )
G01 F39.37008
G01 X-0.33237 Y0.18243
G01 X-0.33657 Y0.18765
G01 X-0.34025 Y0.19067
G01 X-0.34025 Y0.24185
G01 X-0.33474 Y0.24736
G01 X-0.33434 Y0.24833
G01 X-0.33474 Y0.24736
G01 X-0.33474 Y0.19478
G01 X-0.33408 Y0.18806
G01 X-0.33237 Y0.18243
G01 X-0.32869 Y0.17534
G01 X-0.32465 Y0.17042
G01 X-0.31943 Y0.16614
G01 X-0.31348 Y0.16296
G01 X-0.30702 Y0.16100
G01 X-0.30029 Y0.16033
G01 X-0.26092 Y0.16033
G01 X-0.25420 Y0.16100
G01 X-0.24774 Y0.16296
G01 X-0.24179 Y0.16614
G01 X-0.23657 Y0.17042
G01 X-0.23228 Y0.17564
G01 X-0.22910 Y0.18160
G01 X-0.22714 Y0.18806
G01 X-0.22648 Y0.19478
G01 X-0.22648 Y0.29360
G01 X-0.22714 Y0.30032
G01 X-0.22748 Y0.30147
G01 X-0.16389 Y0.36506
G01 X-0.11281 Y0.36506
G01 X-0.10944 Y0.36523
G01 X-0.10166 Y0.36666
G01 X-0.09737 Y0.36813
G01 X-0.09431 Y0.36958
G01 X-0.08768 Y0.37387
G01 X-0.08428 Y0.37688
G01 X-0.04184 Y0.41932
G01 X-0.03883 Y0.42272
G01 X-0.03508 Y0.42834
G01 X-0.03309 Y0.43241
G01 X-0.03162 Y0.43670
G01 X-0.03030 Y0.44333
G01 X-0.03002 Y0.44785
G01 X-0.03002 Y0.72313
G01 X-0.03030 Y0.72766
G01 X-0.03161 Y0.73428
G01 X-0.03453 Y0.74163
G01 X-0.03758 Y0.74665
G01 X-0.04061 Y0.75027
G01 X-0.04449 Y0.75431
G01 X-0.04909 Y0.75832
G01 X-0.05400 Y0.76160
G01 X-0.05765 Y0.76337
G01 X-0.06234 Y0.76505
G01 X-0.06813 Y0.76621
G01 X-0.07353 Y0.76664
G01 X-0.31245 Y0.76656
G01 X-0.31783 Y0.76614
G01 X-0.32308 Y0.76488
G01 X-0.32333 Y0.76480
G01 X-0.32373 Y0.76425
G01 X-0.32333 Y0.76480
G01 X-0.32333 Y0.83258
G01 X-0.32399 Y0.83930
G01 X-0.32595 Y0.84576
G01 X-0.32913 Y0.85172
G01 X-0.33342 Y0.85694
G01 X-0.33864 Y0.86122
G01 X-0.34459 Y0.86441
G01 X-0.35105 Y0.86637
G01 X-0.35777 Y0.86703
G01 X-0.48376 Y0.86703
G01 X-0.49048 Y0.86637
G01 X-0.49694 Y0.86441
G01 X-0.50290 Y0.86122
G01 X-0.50812 Y0.85694
G01 X-0.51240 Y0.85172
G01 X-0.51559 Y0.84576
G01 X-0.51755 Y0.83930
G01 X-0.51821 Y0.83258
G01 X-0.51821 Y0.75384
G01 X-0.51755 Y0.74712
G01 X-0.51559 Y0.74066
G01 X-0.51240 Y0.73470
G01 X-0.50812 Y0.72948
G01 X-0.50290 Y0.72520
G01 X-0.49694 Y0.72201
G01 X-0.49048 Y0.72005
G01 X-0.48376 Y0.71939
G01 X-0.38502 Y0.71939
G01 X-0.38234 Y0.71979
G01 X-0.38641 Y0.71918
G01 X-0.39131 Y0.71709
G01 X-0.39501 Y0.71505
G01 X-0.39844 Y0.71258
G01 X-0.40225 Y0.70924
G01 X-0.40559 Y0.70543
G01 X-0.40934 Y0.69981
G01 X-0.41014 Y0.69832
G01 X-0.41158 Y0.69527
G01 X-0.41272 Y0.69209
G01 X-0.41403 Y0.68719
G01 X-0.41453 Y0.68385
G01 X-0.41486 Y0.67879
G01 X-0.41486 Y0.66157
G01 X-0.41453 Y0.65651
G01 X-0.41403 Y0.65316
G01 X-0.41321 Y0.64989
G01 X-0.41125 Y0.64431
G01 X-0.40850 Y0.63922
G01 X-0.40795 Y0.63922
G01 X-0.40842 Y0.63922
G01 X-0.40978 Y0.63708
G01 X-0.41183 Y0.63245
G01 X-0.41386 Y0.62601
G01 X-0.41453 Y0.62184
G01 X-0.41486 Y0.61670
G01 X-0.41482 Y0.59863
G01 X-0.41456 Y0.59446
G01 X-0.41317 Y0.58789
G01 X-0.41190 Y0.58386
G01 X-0.40940 Y0.57864
G01 X-0.42225 Y0.57864
G01 X-0.42290 Y0.58040
G01 X-0.42489 Y0.58422
G01 X-0.42630 Y0.59176
G01 X-0.42778 Y0.59605
G01 X-0.42977 Y0.60013
G01 X-0.43425 Y0.60664
G01 X-0.43652 Y0.60915
G01 X-0.52707 Y0.69970
G01 X-0.53047 Y0.70270
G01 X-0.53711 Y0.70700
G01 X-0.54017 Y0.70844
G01 X-0.54446 Y0.70992
G01 X-0.55108 Y0.71124
G01 X-0.55561 Y0.71152
G01 X-0.63467 Y0.71152
G01 X-0.63664 Y0.71455
G01 X-0.63891 Y0.71735
G01 X-0.64441 Y0.72347
G01 X-0.64696 Y0.72602
G01 X-0.64977 Y0.72829
G01 X-0.65642 Y0.73313
G01 X-0.65945 Y0.73509
G01 X-0.66266 Y0.73673
G01 X-0.67018 Y0.74008
G01 X-0.67355 Y0.74137
G01 X-0.67703 Y0.74230
G01 X-0.68508 Y0.74401
G01 X-0.68864 Y0.74458
G01 X-0.69224 Y0.74477
G01 X-0.70047 Y0.74477
G01 X-0.70407 Y0.74458
G01 X-0.70764 Y0.74401
G01 X-0.71569 Y0.74230
G01 X-0.71917 Y0.74137
G01 X-0.72254 Y0.74008
G01 X-0.73005 Y0.73673
G01 X-0.73327 Y0.73509
G01 X-0.73629 Y0.73313
G01 X-0.74295 Y0.72829
G01 X-0.74575 Y0.72602
G01 X-0.74830 Y0.72347
G01 X-0.75381 Y0.71735
G01 X-0.75608 Y0.71455
G01 X-0.75804 Y0.71153
G01 X-0.76216 Y0.70440
G01 X-0.76379 Y0.70119
G01 X-0.76509 Y0.69782
G01 X-0.76763 Y0.68999
G01 X-0.76856 Y0.68651
G01 X-0.76913 Y0.68295
G01 X-0.76999 Y0.67476
G01 X-0.77018 Y0.67116
G01 X-0.76999 Y0.66756
G01 X-0.76913 Y0.65938
G01 X-0.76859 Y0.65600
G01 X-0.78001 Y0.64458
G01 X-0.78301 Y0.64118
G01 X-0.78731 Y0.63454
G01 X-0.78876 Y0.63149
G01 X-0.79023 Y0.62720
G01 X-0.79155 Y0.62057
G01 X-0.79183 Y0.61604
G01 X-0.79183 Y0.44085
G01 X-0.79155 Y0.43632
G01 X-0.79023 Y0.42969
G01 X-0.78876 Y0.42540
G01 X-0.78677 Y0.42133
G01 X-0.78301 Y0.41571
G01 X-0.78001 Y0.41231
G01 X-0.68750 Y0.31980
G01 X-0.68750 Y0.24163
G01 X-0.68722 Y0.23711
G01 X-0.68590 Y0.23048
G01 X-0.68298 Y0.22314
G01 X-0.68244 Y0.22212
G01 X-0.67795 Y0.21561
G01 X-0.67568 Y0.21310
G01 X-0.63373 Y0.17115
G01 X-0.63408 Y0.17001
G01 X-0.63474 Y0.16329
G01 X-0.63474 Y0.06447
G01 X-0.63408 Y0.05775
G01 X-0.63212 Y0.05129
G01 X-0.62894 Y0.04533
G01 X-0.62465 Y0.04011
G01 X-0.61943 Y0.03583
G01 X-0.61348 Y0.03264
G01 X-0.60702 Y0.03068
G01 X-0.60029 Y0.03002
G01 X-0.56092 Y0.03002
G01 X-0.55420 Y0.03068
G01 X-0.54774 Y0.03264
G01 X-0.54179 Y0.03583
G01 X-0.53657 Y0.04011
G01 X-0.53228 Y0.04533
G01 X-0.52910 Y0.05129
G01 X-0.52714 Y0.05775
G01 X-0.52648 Y0.06447
G01 X-0.52648 Y0.16329
G01 X-0.52714 Y0.17001
G01 X-0.52885 Y0.17565
G01 X-0.53252 Y0.18272
G01 X-0.53657 Y0.18765
G01 X-0.54179 Y0.19193
G01 X-0.54473 Y0.19351
G01 X-0.54532 Y0.19462
G01 X-0.54907 Y0.20023
G01 X-0.55207 Y0.20363
G01 X-0.60679 Y0.25835
G01 X-0.60679 Y0.33652
G01 X-0.60707 Y0.34104
G01 X-0.60839 Y0.34767
G01 X-0.60986 Y0.35196
G01 X-0.61131 Y0.35502
G01 X-0.61560 Y0.36165
G01 X-0.61634 Y0.36255
G01 X-0.61861 Y0.36505
G01 X-0.66243 Y0.40888
G01 X-0.66311 Y0.40898
G01 X-0.66241 Y0.40887
G01 X-0.65945 Y0.41038
G01 X-0.65642 Y0.41235
G01 X-0.64977 Y0.41718
G01 X-0.64672 Y0.41970
G01 X-0.64220 Y0.41710
G01 X-0.63915 Y0.41566
G01 X-0.63416 Y0.41397
G01 X-0.62754 Y0.41265
G01 X-0.62229 Y0.41230
G01 X-0.60310 Y0.41230
G01 X-0.59785 Y0.41265
G01 X-0.59123 Y0.41397
G01 X-0.58943 Y0.41452
G01 X-0.58547 Y0.41599
G01 X-0.58172 Y0.41794
G01 X-0.57923 Y0.41944
G01 X-0.57883 Y0.42024
G01 X-0.57923 Y0.41944
G01 X-0.57923 Y0.33219
G01 X-0.57895 Y0.32766
G01 X-0.57763 Y0.32103
G01 X-0.57616 Y0.31674
G01 X-0.57471 Y0.31369
G01 X-0.57042 Y0.30705
G01 X-0.56968 Y0.30616
G01 X-0.56741 Y0.30365
G01 X-0.53474 Y0.27098
G01 X-0.53474 Y0.19478
G01 X-0.53408 Y0.18806
G01 X-0.53237 Y0.18243
G01 X-0.52869 Y0.17535
G01 X-0.52465 Y0.17042
G01 X-0.51943 Y0.16614
G01 X-0.51348 Y0.16296
G01 X-0.50702 Y0.16100
G01 X-0.50029 Y0.16033
G01 X-0.46092 Y0.16033
G01 X-0.45420 Y0.16100
G01 X-0.44774 Y0.16296
G01 X-0.44179 Y0.16614
G01 X-0.43657 Y0.17042
G01 X-0.43252 Y0.17535
G01 X-0.42869 Y0.18272
G01 X-0.42465 Y0.18765
G01 X-0.42096 Y0.19067
G01 X-0.42096 Y0.25856
G01 X-0.42080 Y0.26194
G01 X-0.41937 Y0.26972
G01 X-0.41903 Y0.27082
G01 X-0.41789 Y0.27401
G01 X-0.41645 Y0.27706
G01 X-0.41566 Y0.27845
G01 X-0.41491 Y0.27885
G01 X-0.41566 Y0.27845
G01 X-0.42648 Y0.27845
G01 X-0.42688 Y0.27885
G01 X-0.42648 Y0.27845
G01 X-0.42648 Y0.19478
G01 X-0.42714 Y0.18806
G01 X-0.42885 Y0.18243
G01 X-0.43237 Y0.17564
G01 X-0.43408 Y0.17001
G01 X-0.43474 Y0.16329
G01 X-0.43474 Y0.06447
G01 X-0.43408 Y0.05775
G01 X-0.43212 Y0.05129
G01 X-0.42894 Y0.04533
G01 X-0.42465 Y0.04011
G01 X-0.41943 Y0.03583
G01 X-0.41348 Y0.03264
G01 X-0.40702 Y0.03068
G01 X-0.40029 Y0.03002
G01 X-0.36092 Y0.03002
G01 X-0.35420 Y0.03068
G01 X-0.34774 Y0.03264
G01 X-0.34179 Y0.03583
G01 X-0.33657 Y0.04011
G01 X-0.33228 Y0.04533
G01 X-0.32910 Y0.05129
G01 X-0.32714 Y0.05775
G01 X-0.32648 Y0.06447
G01 X-0.32648 Y0.16329
G01 X-0.32714 Y0.17001
G01 X-0.32885 Y0.17564

G04 P0 ( dwell for no time -- G64 should not smooth over this point )
G00 Z0.393701 ( retract )

M5 ( Spindle off. )
G04 P1.000000

G00 Z0.39370 (Retract to tool change height)
T1
M5      (Spindle stop.)
G04 P1.00000 (Wait for spindle to stop)
(MSG, Change tool bit to mill diameter 0.03346in)
M6      (Tool change.)
M0      (Temporary machine stop.)
M3 ( Spindle on clockwise. )
G04 P1.00000 (Wait for spindle to get up to speed)
G04 P0 ( dwell for no time -- G64 should not smooth over this point )
G00 Z0.05906 ( retract )

G00 X-0.23957 Y0.30081 ( rapid move to begin. )
G01 F19.68504
( Mill infeed pass 1/1 )
G01 Z-0.00354
G04 P0 ( dwell for no time -- G64 should not smooth over this point )
G01 F39.37008
G01 X-0.23957 Y0.30081
G01 X-0.24001 Y0.30227
G01 X-0.24119 Y0.30447
G01 X-0.16879 Y0.37687
G01 X-0.16655 Y0.37687
G04 P0 ( dwell for no time -- G64 should not smooth over this point )
G00 Z0.05906 ( retract )

G00 X-0.17141 Y0.43356 ( rapid move to begin. )
G01 F19.68504
( Mill infeed pass 1/1 )
G01 Z-0.00354
G04 P0 ( dwell for no time -- G64 should not smooth over this point )
G01 F39.37008
G01 X-0.17141 Y0.43356
G01 X-0.17230 Y0.43396
G01 X-0.17566 Y0.43786
G01 X-0.17956 Y0.44438
G01 X-0.18096 Y0.44134
G01 X-0.18229 Y0.43891
G01 X-0.18392 Y0.43666
G01 X-0.18511 Y0.43520
G01 X-0.18724 Y0.43307
G01 X-0.18825 Y0.43252
G01 X-0.18721 Y0.43309
G01 X-0.18283 Y0.43385
G01 X-0.17230 Y0.43396
G01 X-0.17933 Y0.43731
G01 X-0.17936 Y0.43803
G01 X-0.17933 Y0.43731
G01 X-0.18847 Y0.43240
G04 P0 ( dwell for no time -- G64 should not smooth over this point )
G00 Z0.05906 ( retract )

G00 X-0.22575 Y0.42415 ( rapid move to begin. )
G01 F19.68504
( Mill infeed pass 1/1 )
G01 Z-0.00354
G04 P0 ( dwell for no time -- G64 should not smooth over this point )
G01 F39.37008
G01 X-0.22575 Y0.42415
G01 X-0.20945 Y0.42411
G01 X-0.20608 Y0.42436
G01 X-0.20108 Y0.42527
G01 X-0.19966 Y0.42608
G01 X-0.20117 Y0.42522
G01 X-0.26427 Y0.36212
G01 X-0.25837 Y0.37637
G01 X-0.25837 Y0.37892
G01 X-0.25590 Y0.43183
G01 X-0.25586 Y0.44014
G01 X-0.25593 Y0.43925
G01 X-0.25698 Y0.43768
G01 X-0.25979 Y0.43425
G01 X-0.26112 Y0.43292
G01 X-0.26427 Y0.43034
G01 X-0.26427 Y0.36212
G01 X-0.26467 Y0.36115
G01 X-0.25837 Y0.37637
G01 X-0.21651 Y0.41823
G01 X-0.20584 Y0.42279
G01 X-0.20068 Y0.42548
G01 X-0.20584 Y0.42279
G01 X-0.21651 Y0.41823
G01 X-0.21899 Y0.41823
G01 X-0.25590 Y0.43183
G01 X-0.25587 Y0.43935
G01 X-0.25386 Y0.43633
G01 X-0.25069 Y0.43292
G01 X-0.24914 Y0.43166
G04 P0 ( dwell for no time -- G64 should not smooth over this point )
G00 Z0.05906 ( retract )

G00 X-0.17931 Y0.51268 ( rapid move to begin. )
G01 F19.68504
( Mill infeed pass 1/1 )
G01 Z-0.00354
G04 P0 ( dwell for no time -- G64 should not smooth over this point )
G01 F39.37008
G01 X-0.17931 Y0.51268
G01 X-0.17930 Y0.51444
G04 P0 ( dwell for no time -- G64 should not smooth over this point )
G00 Z0.05906 ( retract )

G00 X-0.23767 Y0.52316 ( rapid move to begin. )
G01 F19.68504
( Mill infeed pass 1/1 )
G01 Z-0.00354
G04 P0 ( dwell for no time -- G64 should not smooth over this point )
G01 F39.37008
G01 X-0.23767 Y0.52316
G01 X-0.23268 Y0.52421
G01 X-0.22859 Y0.52451
G01 X-0.20940 Y0.52451
G01 X-0.20608 Y0.52426
G01 X-0.20076 Y0.52331
G01 X-0.16220 Y0.52352
G01 X-0.17036 Y0.52352
G01 X-0.17836 Y0.54072
G01 X-0.18036 Y0.54419
G01 X-0.18448 Y0.54419
G01 X-0.20401 Y0.53829
G01 X-0.31299 Y0.53829
G01 X-0.31318 Y0.53874
G01 X-0.31299 Y0.53829
G01 X-0.31448 Y0.53681
G01 X-0.31493 Y0.53699
G01 X-0.31448 Y0.53681
G01 X-0.31450 Y0.52840
G01 X-0.32145 Y0.51774
G01 X-0.31449 Y0.52841
G01 X-0.31257 Y0.52900
G01 X-0.30708 Y0.53009
G01 X-0.30241 Y0.53041
G01 X-0.28322 Y0.53041
G01 X-0.27855 Y0.53009
G01 X-0.26053 Y0.51506
G01 X-0.25847 Y0.51281
G01 X-0.25673 Y0.51064
G01 X-0.25590 Y0.50930
G01 X-0.25508 Y0.51064
G01 X-0.25334 Y0.51281
G01 X-0.25127 Y0.51506
G01 X-0.25508 Y0.51064
G01 X-0.25590 Y0.50930
G01 X-0.25590 Y0.50854
G01 X-0.25590 Y0.51414
G01 X-0.23270 Y0.53015
G01 X-0.22859 Y0.53041
G01 X-0.20940 Y0.53041
G01 X-0.20570 Y0.53014
G01 X-0.18653 Y0.51494
G01 X-0.18511 Y0.51342
G01 X-0.18260 Y0.51018
G01 X-0.18057 Y0.50662
G01 X-0.17952 Y0.50432
G01 X-0.17695 Y0.50877
G01 X-0.17566 Y0.51076
G01 X-0.17417 Y0.51260
G01 X-0.16698 Y0.52039
G01 X-0.16288 Y0.52352
G01 X-0.16698 Y0.52666
G01 X-0.17096 Y0.53089
G01 X-0.19725 Y0.54419
G01 X-0.31544 Y0.54419
G01 X-0.32038 Y0.53926
G01 X-0.32041 Y0.52287
G01 X-0.32059 Y0.52013
G01 X-0.32086 Y0.51865
G01 X-0.32107 Y0.51833
G01 X-0.32032 Y0.51908
G01 X-0.31841 Y0.52022
G01 X-0.31475 Y0.52205
G01 X-0.31085 Y0.52335
G01 X-0.30650 Y0.52421
G01 X-0.30241 Y0.52451
G01 X-0.28322 Y0.52451
G01 X-0.27913 Y0.52421
G01 X-0.27414 Y0.52316
G04 P0 ( dwell for no time -- G64 should not smooth over this point )
G00 Z0.05906 ( retract )

G00 X-0.25592 Y0.63152 ( rapid move to begin. )
G01 F19.68504
( Mill infeed pass 1/1 )
G01 Z-0.00354
G04 P0 ( dwell for no time -- G64 should not smooth over this point )
G01 F39.37008
G01 X-0.25592 Y0.63152
G01 X-0.25592 Y0.63202
G01 X-0.25592 Y0.63132
G01 X-0.25586 Y0.63698
G01 X-0.25586 Y0.63620
G01 X-0.25543 Y0.63547
G01 X-0.25386 Y0.63318
G01 X-0.25160 Y0.63069
G01 X-0.25386 Y0.63318
G01 X-0.25586 Y0.63621
G01 X-0.25774 Y0.63351
G01 X-0.25893 Y0.63205
G01 X-0.26060 Y0.63038
G01 X-0.27843 Y0.61539
G01 X-0.28228 Y0.61511
G01 X-0.30335 Y0.61511
G01 X-0.30684 Y0.61532
G01 X-0.31029 Y0.61596
G01 X-0.31452 Y0.61712
G01 X-0.32251 Y0.62806
G01 X-0.32097 Y0.62288
G01 X-0.32048 Y0.61900
G01 X-0.32041 Y0.60133
G01 X-0.18036 Y0.60128
G01 X-0.17566 Y0.60918
G01 X-0.17406 Y0.61114
G01 X-0.17352 Y0.61131
G01 X-0.17403 Y0.61115
G01 X-0.17744 Y0.61297
G01 X-0.18087 Y0.61578
G01 X-0.18157 Y0.61664
G01 X-0.18504 Y0.62175
G01 X-0.18578 Y0.62313
G01 X-0.18706 Y0.62738
G01 X-0.18731 Y0.62986
G01 X-0.18971 Y0.62772
G01 X-0.19196 Y0.62609
G01 X-0.19437 Y0.62476
G01 X-0.20106 Y0.62213
G01 X-0.20329 Y0.62162
G01 X-0.20608 Y0.62121
G01 X-0.20945 Y0.62096
G01 X-0.22958 Y0.62101
G01 X-0.23395 Y0.62145
G01 X-0.23725 Y0.62218
G01 X-0.23222 Y0.61537
G01 X-0.22960 Y0.61511
G01 X-0.20946 Y0.61506
G01 X-0.20627 Y0.61529
G01 X-0.20946 Y0.61506
G01 X-0.22960 Y0.61511
G01 X-0.23222 Y0.61537
G01 X-0.23725 Y0.62218
G01 X-0.23395 Y0.62145
G01 X-0.22958 Y0.62101
G01 X-0.20945 Y0.62096
G01 X-0.20608 Y0.62121
G01 X-0.20329 Y0.62162
G01 X-0.20106 Y0.62213
G01 X-0.19437 Y0.62476
G01 X-0.19196 Y0.62609
G01 X-0.18971 Y0.62772
G01 X-0.18731 Y0.62986
G01 X-0.18706 Y0.62738
G01 X-0.18578 Y0.62313
G01 X-0.18504 Y0.62175
G01 X-0.18157 Y0.61664
G01 X-0.18087 Y0.61578
G01 X-0.17744 Y0.61297
G01 X-0.17403 Y0.61115
G01 X-0.17352 Y0.61131
G01 X-0.17407 Y0.61113
G01 X-0.17331 Y0.61137
G01 X-0.18134 Y0.60960
G01 X-0.20410 Y0.60718
G01 X-0.31449 Y0.60718
G01 X-0.31622 Y0.60545
G01 X-0.31449 Y0.60718
G01 X-0.31449 Y0.61707
G01 X-0.32353 Y0.62945
G01 X-0.32210 Y0.62772
G01 X-0.32032 Y0.62640
G01 X-0.31675 Y0.62437
G01 X-0.31423 Y0.62321
G01 X-0.31158 Y0.62237
G01 X-0.30612 Y0.62118
G01 X-0.30335 Y0.62101
G01 X-0.28228 Y0.62101
G01 X-0.27951 Y0.62118
G01 X-0.27405 Y0.62237
G04 P0 ( dwell for no time -- G64 should not smooth over this point )
G00 Z0.05906 ( retract )

G00 X-0.37839 Y0.73120 ( rapid move to begin. )
G01 F19.68504
( Mill infeed pass 1/1 )
G01 Z-0.00354
G04 P0 ( dwell for no time -- G64 should not smooth over this point )
G01 F39.37008
G01 X-0.37839 Y0.73120
G01 X-0.35777 Y0.73120
G01 X-0.35336 Y0.73164
G01 X-0.34911 Y0.73292
G01 X-0.34520 Y0.73502
G01 X-0.34177 Y0.73783
G01 X-0.33895 Y0.74126
G01 X-0.33686 Y0.74518
G01 X-0.33557 Y0.74942
G01 X-0.33514 Y0.75384
G01 X-0.33514 Y0.76016
G01 X-0.33016 Y0.75403
G01 X-0.33339 Y0.74816
G01 X-0.33798 Y0.74130
G01 X-0.34358 Y0.73544
G01 X-0.35018 Y0.73058
G01 X-0.35777 Y0.72672
G01 X-0.36121 Y0.72530
G01 X-0.37159 Y0.72530
G01 X-0.36121 Y0.72530
G01 X-0.37057 Y0.71594
G01 X-0.37307 Y0.71585
G01 X-0.37057 Y0.71594
G01 X-0.37040 Y0.71556
G01 X-0.37057 Y0.71594
G01 X-0.36121 Y0.72530
G01 X-0.35777 Y0.72672
G01 X-0.35016 Y0.73056
G01 X-0.34356 Y0.73542
G01 X-0.33796 Y0.74128
G01 X-0.33339 Y0.74816
G01 X-0.33016 Y0.75403
G01 X-0.32336 Y0.75218
G01 X-0.32447 Y0.75171
G01 X-0.32750 Y0.74986
G01 X-0.33170 Y0.74646
G01 X-0.36812 Y0.71004
G01 X-0.37180 Y0.71004
G01 X-0.37512 Y0.70979
G01 X-0.37796 Y0.70935
G04 P0 ( dwell for no time -- G64 should not smooth over this point )
G00 Z0.05906 ( retract )

G00 X-0.39633 Y0.64221 ( rapid move to begin. )
G01 F19.68504
( Mill infeed pass 1/1 )
G01 Z-0.00354
G04 P0 ( dwell for no time -- G64 should not smooth over this point )
G01 F39.37008
G01 X-0.39633 Y0.64221
G01 X-0.39356 Y0.63919
G01 X-0.39294 Y0.63919
G01 X-0.39591 Y0.63918
G01 X-0.39352 Y0.63919
G01 X-0.39429 Y0.63848
G01 X-0.39628 Y0.63607
G01 X-0.43652 Y0.58075
G01 X-0.43651 Y0.58058
G01 X-0.43637 Y0.58037
G01 X-0.39885 Y0.57273
G01 X-0.39746 Y0.57273
G01 X-0.39837 Y0.57362
G01 X-0.39746 Y0.57273
G01 X-0.38955 Y0.56922
G04 P0 ( dwell for no time -- G64 should not smooth over this point )
G00 Z0.05906 ( retract )

G00 X-0.39801 Y0.58272 ( rapid move to begin. )
G01 F19.68504
( Mill infeed pass 1/1 )
G01 Z-0.00354
G04 P0 ( dwell for no time -- G64 should not smooth over this point )
G01 F39.37008
G01 X-0.39801 Y0.58272
G01 X-0.39646 Y0.58041
G01 X-0.39539 Y0.57911
G01 X-0.39390 Y0.57746
G01 X-0.39095 Y0.57490
G01 X-0.38726 Y0.57243
G01 X-0.38376 Y0.57069
G01 X-0.38255 Y0.57025
G01 X-0.38626 Y0.56862
G01 X-0.38932 Y0.56683
G01 X-0.43136 Y0.56683
G01 X-0.43170 Y0.56924
G01 X-0.43246 Y0.57212
G04 P0 ( dwell for no time -- G64 should not smooth over this point )
G00 Z0.05906 ( retract )

G00 X-0.39811 Y0.50138 ( rapid move to begin. )
G01 F19.68504
( Mill infeed pass 1/1 )
G01 Z-0.00354
G04 P0 ( dwell for no time -- G64 should not smooth over this point )
G01 F39.37008
G01 X-0.39811 Y0.50138
G01 X-0.39298 Y0.50138
G01 X-0.39354 Y0.50138
G01 X-0.39447 Y0.50046
G01 X-0.39630 Y0.49838
G01 X-0.39786 Y0.49611
G01 X-0.39630 Y0.49838
G01 X-0.39354 Y0.50138
G01 X-0.39630 Y0.50438
G01 X-0.39787 Y0.50667
G01 X-0.39963 Y0.50974
G01 X-0.49529 Y0.50939
G01 X-0.50200 Y0.51591
G01 X-0.50246 Y0.51571
G01 X-0.50200 Y0.51591
G01 X-0.50195 Y0.52120
G01 X-0.49897 Y0.51846
G01 X-0.49451 Y0.51559
G01 X-0.49153 Y0.51409
G01 X-0.48801 Y0.51296
G01 X-0.49153 Y0.51409
G01 X-0.49451 Y0.51559
G01 X-0.49668 Y0.51689
G01 X-0.49897 Y0.51846
G01 X-0.50105 Y0.52030
G01 X-0.50195 Y0.52120
G01 X-0.50195 Y0.52178
G01 X-0.50195 Y0.52120
G01 X-0.50391 Y0.51937
G01 X-0.50799 Y0.51639
G01 X-0.50689 Y0.51545
G01 X-0.50500 Y0.51342
G01 X-0.50248 Y0.51018
G01 X-0.50045 Y0.50662
G01 X-0.49950 Y0.50461
G01 X-0.49871 Y0.50238
G01 X-0.49950 Y0.50461
G01 X-0.50045 Y0.50662
G01 X-0.50248 Y0.51018
G01 X-0.50500 Y0.51342
G01 X-0.50689 Y0.51545
G01 X-0.50799 Y0.51639
G01 X-0.50391 Y0.51937
G01 X-0.50195 Y0.52120
G01 X-0.50195 Y0.52180
G04 P0 ( dwell for no time -- G64 should not smooth over this point )
G00 Z0.05906 ( retract )

G00 X-0.58228 Y0.43179 ( rapid move to begin. )
G01 F19.68504
( Mill infeed pass 1/1 )
G01 Z-0.00354
G04 P0 ( dwell for no time -- G64 should not smooth over this point )
G01 F39.37008
G01 X-0.58228 Y0.43179
G01 X-0.58024 Y0.43373
G01 X-0.57661 Y0.43798
G01 X-0.57577 Y0.43934
G01 X-0.57579 Y0.44010
G01 X-0.57582 Y0.43191
G01 X-0.57579 Y0.44008
G01 X-0.57577 Y0.43934
G01 X-0.57512 Y0.43834
G01 X-0.57165 Y0.43395
G01 X-0.56962 Y0.43206
G01 X-0.56742 Y0.43032
G01 X-0.56742 Y0.42429
G04 P0 ( dwell for no time -- G64 should not smooth over this point )
G00 Z0.05906 ( retract )

G00 X-0.50852 Y0.43174 ( rapid move to begin. )
G01 F19.68504
( Mill infeed pass 1/1 )
G01 Z-0.00354
G04 P0 ( dwell for no time -- G64 should not smooth over this point )
G01 F39.37008
G01 X-0.50852 Y0.43174
G01 X-0.51033 Y0.43032
G01 X-0.51033 Y0.34401
G01 X-0.50640 Y0.34007
G01 X-0.50600 Y0.33911
G01 X-0.50837 Y0.34483
G01 X-0.50848 Y0.34480
G01 X-0.50837 Y0.34483
G01 X-0.50837 Y0.39163
G01 X-0.50771 Y0.39983
G01 X-0.50564 Y0.40801
G01 X-0.50432 Y0.41120
G01 X-0.50564 Y0.40801
G01 X-0.50443 Y0.41113
G01 X-0.50564 Y0.40801
G01 X-0.50768 Y0.39982
G01 X-0.50837 Y0.39163
G01 X-0.50837 Y0.34483
G01 X-0.50640 Y0.34007
G01 X-0.50640 Y0.39163
G01 X-0.50596 Y0.39605
G01 X-0.50467 Y0.40030
G01 X-0.50258 Y0.40421
G01 X-0.49977 Y0.40764
G01 X-0.49679 Y0.41009
G04 P0 ( dwell for no time -- G64 should not smooth over this point )
G00 Z0.05906 ( retract )

G00 X-0.39043 Y0.41427 ( rapid move to begin. )
G01 F19.68504
( Mill infeed pass 1/1 )
G01 Z-0.00354
G04 P0 ( dwell for no time -- G64 should not smooth over this point )
G01 F39.37008
G01 X-0.39043 Y0.41427
G01 X-0.35777 Y0.41427
G01 X-0.35336 Y0.41384
G01 X-0.34929 Y0.41260
G01 X-0.34355 Y0.40939
G01 X-0.33895 Y0.40420
G01 X-0.33686 Y0.40030
G01 X-0.33557 Y0.39605
G01 X-0.33514 Y0.39163
G01 X-0.33514 Y0.34440
G01 X-0.33554 Y0.34344
G01 X-0.32923 Y0.35865
G01 X-0.32726 Y0.36063
G01 X-0.32681 Y0.36044
G01 X-0.32726 Y0.36063
G01 X-0.32726 Y0.40380
G01 X-0.34500 Y0.42889
G01 X-0.35159 Y0.42461
G01 X-0.37180 Y0.42461
G01 X-0.37628 Y0.42491
G01 X-0.37905 Y0.42532
G01 X-0.38198 Y0.42607
G01 X-0.37905 Y0.42532
G01 X-0.37628 Y0.42491
G01 X-0.37180 Y0.42461
G01 X-0.35159 Y0.42461
G01 X-0.34500 Y0.42889
G01 X-0.34647 Y0.43097
G01 X-0.35162 Y0.43051
G01 X-0.37402 Y0.43062
G01 X-0.37790 Y0.43111
G01 X-0.38005 Y0.43165
G01 X-0.38427 Y0.43311
G01 X-0.38532 Y0.43366
G01 X-0.38427 Y0.43311
G01 X-0.38005 Y0.43165
G01 X-0.37790 Y0.43111
G01 X-0.37402 Y0.43062
G01 X-0.35162 Y0.43051
G01 X-0.34647 Y0.43097
G01 X-0.34500 Y0.42889
G01 X-0.33248 Y0.43710
G01 X-0.32979 Y0.43943
G01 X-0.32890 Y0.43798
G01 X-0.32527 Y0.43373
G01 X-0.32286 Y0.43143
G01 X-0.32136 Y0.43037
G01 X-0.32136 Y0.35818
G01 X-0.33514 Y0.34440
G01 X-0.32923 Y0.35865
G01 X-0.32923 Y0.39163
G01 X-0.32978 Y0.39720
G01 X-0.33143 Y0.40261
G01 X-0.34355 Y0.40939
G01 X-0.35267 Y0.41967
G01 X-0.35777 Y0.42018
G01 X-0.38363 Y0.42018
G04 P0 ( dwell for no time -- G64 should not smooth over this point )
G00 Z0.05906 ( retract )

G00 X-0.38928 Y0.29026 ( rapid move to begin. )
G01 F19.68504
( Mill infeed pass 1/1 )
G01 Z-0.00354
G04 P0 ( dwell for no time -- G64 should not smooth over this point )
G01 F39.37008
G01 X-0.38928 Y0.29026
G01 X-0.38832 Y0.29066
G01 X-0.40353 Y0.28435
G01 X-0.40395 Y0.28393
G01 X-0.40353 Y0.28435
G01 X-0.43545 Y0.28742
G01 X-0.43869 Y0.29066
G01 X-0.43829 Y0.29026
G01 X-0.43829 Y0.28282
G01 X-0.43829 Y0.29026
G01 X-0.38928 Y0.29026
G01 X-0.40079 Y0.27875
G01 X-0.40317 Y0.27597
G04 P0 ( dwell for no time -- G64 should not smooth over this point )
G00 Z0.05906 ( retract )

G00 X-0.35207 Y0.24450 ( rapid move to begin. )
G01 F19.68504
( Mill infeed pass 1/1 )
G01 Z-0.00354
G04 P0 ( dwell for no time -- G64 should not smooth over this point )
G01 F39.37008
G01 X-0.35207 Y0.24450
G01 X-0.35207 Y0.24674
G01 X-0.35048 Y0.24832
G01 X-0.34049 Y0.25411
G01 X-0.33960 Y0.25921
G01 X-0.32293 Y0.27587
G01 X-0.32293 Y0.25230
G01 X-0.32293 Y0.27587
G01 X-0.32253 Y0.27684
G01 X-0.32883 Y0.26162
G01 X-0.32884 Y0.25907
G01 X-0.32883 Y0.26162
G01 X-0.33064 Y0.25982
G01 X-0.34049 Y0.25411
G01 X-0.35207 Y0.18800
G01 X-0.35207 Y0.18410
G01 X-0.34935 Y0.18264
G04 P0 ( dwell for no time -- G64 should not smooth over this point )
G00 Z0.05906 ( retract )

G00 X-0.40915 Y0.18800 ( rapid move to begin. )
G01 F19.68504
( Mill infeed pass 1/1 )
G01 Z-0.00354
G04 P0 ( dwell for no time -- G64 should not smooth over this point )
G01 F39.37008
G01 X-0.40915 Y0.18800
G01 X-0.40915 Y0.18410
G01 X-0.41187 Y0.18265
G04 P0 ( dwell for no time -- G64 should not smooth over this point )
G00 Z0.05906 ( retract )

G00 X-0.52451 Y0.27745 ( rapid move to begin. )
G01 F19.68504
( Mill infeed pass 1/1 )
G01 Z-0.00354
G04 P0 ( dwell for no time -- G64 should not smooth over this point )
G01 F39.37008
G01 X-0.52451 Y0.27745
G01 X-0.52293 Y0.27587
G01 X-0.52293 Y0.27364
G04 P0 ( dwell for no time -- G64 should not smooth over this point )
G00 Z0.05906 ( retract )

G00 X-0.55441 Y0.18616 ( rapid move to begin. )
G01 F19.68504
( Mill infeed pass 1/1 )
G01 Z-0.00354
G04 P0 ( dwell for no time -- G64 should not smooth over this point )
G01 F39.37008
G01 X-0.55441 Y0.18616
G01 X-0.55380 Y0.18467
G01 X-0.55266 Y0.18432
G04 P0 ( dwell for no time -- G64 should not smooth over this point )
G00 Z0.05906 ( retract )

G00 X-0.62165 Y0.17050 ( rapid move to begin. )
G01 F19.68504
( Mill infeed pass 1/1 )
G01 Z-0.00354
G04 P0 ( dwell for no time -- G64 should not smooth over this point )
G01 F39.37008
G01 X-0.62165 Y0.17050
G01 X-0.62121 Y0.17195
G01 X-0.62003 Y0.17415
G01 X-0.62349 Y0.17762
G04 P0 ( dwell for no time -- G64 should not smooth over this point )
G00 Z0.05906 ( retract )

G00 X-0.61702 Y0.25187 ( rapid move to begin. )
G01 F19.68504
( Mill infeed pass 1/1 )
G01 Z-0.00354
G04 P0 ( dwell for no time -- G64 should not smooth over this point )
G01 F39.37008
G01 X-0.61702 Y0.25187
G01 X-0.61860 Y0.25346
G01 X-0.61860 Y0.25570
G04 P0 ( dwell for no time -- G64 should not smooth over this point )
G00 Z0.05906 ( retract )

G00 X-0.67569 Y0.32246 ( rapid move to begin. )
G01 F19.68504
( Mill infeed pass 1/1 )
G01 Z-0.00354
G04 P0 ( dwell for no time -- G64 should not smooth over this point )
G01 F39.37008
G01 X-0.67569 Y0.32246
G01 X-0.67569 Y0.32469
G01 X-0.67727 Y0.32627
G04 P0 ( dwell for no time -- G64 should not smooth over this point )
G00 Z0.05906 ( retract )

G00 X-0.67406 Y0.40380 ( rapid move to begin. )
G01 F19.68504
( Mill infeed pass 1/1 )
G01 Z-0.00354
G04 P0 ( dwell for no time -- G64 should not smooth over this point )
G01 F39.37008
G01 X-0.67406 Y0.40380
G01 X-0.68402 Y0.41376
G01 X-0.67720 Y0.41534
G01 X-0.67137 Y0.41780
G01 X-0.67720 Y0.41534
G01 X-0.68402 Y0.41376
G01 X-0.68482 Y0.41400
G01 X-0.67896 Y0.41226
G01 X-0.67498 Y0.41131
G01 X-0.65315 Y0.42995
G01 X-0.64747 Y0.43629
G01 X-0.64658 Y0.43520
G01 X-0.64344 Y0.43206
G01 X-0.64183 Y0.43076
G04 P0 ( dwell for no time -- G64 should not smooth over this point )
G00 Z0.05906 ( retract )

G00 X-0.65308 Y0.51859 ( rapid move to begin. )
G01 F19.68504
( Mill infeed pass 1/1 )
G01 Z-0.00354
G04 P0 ( dwell for no time -- G64 should not smooth over this point )
G01 F39.37008
G01 X-0.65308 Y0.51859
G01 X-0.64745 Y0.51231
G01 X-0.64515 Y0.51489
G01 X-0.64215 Y0.51761
G04 P0 ( dwell for no time -- G64 should not smooth over this point )
G00 Z0.05906 ( retract )

G00 X-0.58486 Y0.51875 ( rapid move to begin. )
G01 F19.68504
( Mill infeed pass 1/1 )
G01 Z-0.00354
G04 P0 ( dwell for no time -- G64 should not smooth over this point )
G01 F39.37008
G01 X-0.58486 Y0.51875
G01 X-0.58265 Y0.51719
G01 X-0.58024 Y0.51489
G01 X-0.57835 Y0.51281
G01 X-0.57661 Y0.51064
G01 X-0.57579 Y0.50930
G01 X-0.57579 Y0.50854
G01 X-0.57584 Y0.51876
G01 X-0.57494 Y0.51973
G01 X-0.57332 Y0.52109
G01 X-0.57332 Y0.52233
G01 X-0.57332 Y0.52109
G01 X-0.57283 Y0.52087
G01 X-0.57332 Y0.52109
G01 X-0.57494 Y0.51973
G01 X-0.57584 Y0.51876
G01 X-0.57681 Y0.51976
G01 X-0.57584 Y0.51883
G01 X-0.57579 Y0.50855
G01 X-0.57579 Y0.50933
G01 X-0.57528 Y0.51018
G01 X-0.57276 Y0.51342
G01 X-0.57087 Y0.51545
G01 X-0.56742 Y0.51822
G01 X-0.56742 Y0.52552
G01 X-0.56896 Y0.52803
G01 X-0.57019 Y0.53048
G04 P0 ( dwell for no time -- G64 should not smooth over this point )
G00 Z0.05906 ( retract )

G00 X-0.64349 Y0.63915 ( rapid move to begin. )
G01 F19.68504
( Mill infeed pass 1/1 )
G01 Z-0.00354
G04 P0 ( dwell for no time -- G64 should not smooth over this point )
G01 F39.37008
G01 X-0.64349 Y0.63915
G01 X-0.64149 Y0.64262
G01 X-0.56743 Y0.64262
G01 X-0.51855 Y0.59374
G01 X-0.52074 Y0.59418
G01 X-0.52352 Y0.59435
G01 X-0.54205 Y0.59435
G01 X-0.52352 Y0.59435
G01 X-0.52074 Y0.59418
G01 X-0.51866 Y0.59379
G01 X-0.51733 Y0.59309
G01 X-0.52352 Y0.59615
G01 X-0.53341 Y0.60025
G01 X-0.53588 Y0.60025
G01 X-0.53341 Y0.60025
G01 X-0.53472 Y0.60155
G01 X-0.71887 Y0.53631
G01 X-0.72293 Y0.53012
G01 X-0.71773 Y0.53244
G01 X-0.71552 Y0.53328
G01 X-0.71307 Y0.53393
G01 X-0.71552 Y0.53328
G01 X-0.71773 Y0.53244
G01 X-0.72293 Y0.53012
G01 X-0.72333 Y0.52950
G01 X-0.72293 Y0.53012
G01 X-0.72293 Y0.60422
G01 X-0.71508 Y0.61207
G01 X-0.71128 Y0.61116
G04 P0 ( dwell for no time -- G64 should not smooth over this point )
G00 Z0.05906 ( retract )

G00 X-0.75836 Y0.64953 ( rapid move to begin. )
G01 F19.68504
( Mill infeed pass 1/1 )
G01 Z-0.00354
G04 P0 ( dwell for no time -- G64 should not smooth over this point )
G01 F39.37008
G01 X-0.75836 Y0.64953
G01 X-0.75530 Y0.65259
G01 X-0.75651 Y0.65640
G04 P0 ( dwell for no time -- G64 should not smooth over this point )
G00 Z0.05906 ( retract )

G00 X-0.64349 Y0.70318 ( rapid move to begin. )
G01 F19.68504
( Mill infeed pass 1/1 )
G01 Z-0.00354
G04 P0 ( dwell for no time -- G64 should not smooth over this point )
G01 F39.37008
G01 X-0.64349 Y0.70318
G01 X-0.64149 Y0.69971
G01 X-0.63737 Y0.69971

G04 P0 ( dwell for no time -- G64 should not smooth over this point )
G00 Z0.393701 ( retract )

M5 ( Spindle off. )
G04 P1.000000

G00 Z0.39370 (Retract to tool change height)
T2
M5      (Spindle stop.)
G04 P1.00000 (Wait for spindle to stop)
(MSG, Change tool bit to mill diameter 0.00984in)
M6      (Tool change.)
M0      (Temporary machine stop.)
M3 ( Spindle on clockwise. )
G04 P1.00000 (Wait for spindle to get up to speed)
G04 P0 ( dwell for no time -- G64 should not smooth over this point )
G00 Z0.05906 ( retract )

G00 X-0.09194 Y0.61613 ( rapid move to begin. )
G01 F19.68504
( Mill infeed pass 1/1 )
G01 Z-0.00354
G04 P0 ( dwell for no time -- G64 should not smooth over this point )
G01 F39.37008
G01 X-0.09194 Y0.61613
G01 X-0.08711 Y0.62096
G01 X-0.08710 Y0.60480
G01 X-0.09190 Y0.61004
G01 X-0.10039 Y0.61621
G01 X-0.10998 Y0.62048
G01 X-0.11199 Y0.62096
G01 X-0.11928 Y0.62173
G01 X-0.11199 Y0.62096
G01 X-0.08711 Y0.62096
G01 X-0.08611 Y0.62194
G01 X-0.08243 Y0.62687
G01 X-0.08230 Y0.62681
G01 X-0.08243 Y0.62687
G01 X-0.08114 Y0.63179
G01 X-0.08116 Y0.71054
G01 X-0.08204 Y0.71461
G01 X-0.08102 Y0.71564
G01 X-0.08204 Y0.71461
G01 X-0.08612 Y0.71549
G01 X-0.16487 Y0.71551
G01 X-0.16978 Y0.71422
G01 X-0.16985 Y0.71436
G01 X-0.16978 Y0.71422
G01 X-0.17471 Y0.71053
G01 X-0.17569 Y0.70955
G01 X-0.30458 Y0.70955
G01 X-0.30482 Y0.70931
G01 X-0.30241 Y0.70955
G01 X-0.28322 Y0.70955
G01 X-0.27884 Y0.70902
G01 X-0.27729 Y0.70867
G01 X-0.27326 Y0.70689
G01 X-0.27102 Y0.70547
G01 X-0.26806 Y0.70278
G01 X-0.26624 Y0.70047
G01 X-0.26425 Y0.69669
G01 X-0.26317 Y0.69270
G01 X-0.26284 Y0.69006
G01 X-0.26284 Y0.65226
G01 X-0.26317 Y0.64963
G01 X-0.26418 Y0.64585
G01 X-0.25590 Y0.64917
G01 X-0.25592 Y0.69380
G01 X-0.25543 Y0.69628
G01 X-0.25488 Y0.69808
G01 X-0.25428 Y0.69976
G01 X-0.25309 Y0.70217
G01 X-0.25871 Y0.70217
G01 X-0.26305 Y0.70526
G01 X-0.25871 Y0.70217
G01 X-0.25736 Y0.69935
G01 X-0.25669 Y0.69722
G01 X-0.25593 Y0.69407
G01 X-0.25589 Y0.69277
G01 X-0.25590 Y0.70042
G01 X-0.25691 Y0.70100
G01 X-0.25590 Y0.70042
G01 X-0.25210 Y0.70276
G01 X-0.24807 Y0.70489
G01 X-0.24526 Y0.70615
G01 X-0.24128 Y0.70757
G01 X-0.23559 Y0.70897
G01 X-0.23371 Y0.70926
G01 X-0.22965 Y0.70952
G01 X-0.20780 Y0.70951
G01 X-0.20499 Y0.70928
G01 X-0.20034 Y0.70855
G01 X-0.19452 Y0.70683
G01 X-0.19104 Y0.70542
G01 X-0.18489 Y0.70217
G01 X-0.18371 Y0.69976
G01 X-0.18307 Y0.69795
G01 X-0.18098 Y0.68790
G01 X-0.18307 Y0.69795
G01 X-0.18307 Y0.70217
G01 X-0.18375 Y0.70148
G01 X-0.18349 Y0.69968
G01 X-0.18375 Y0.70148
G01 X-0.18489 Y0.70217
G01 X-0.18307 Y0.70217
G01 X-0.17472 Y0.71055
G01 X-0.17569 Y0.70955
G01 X-0.17569 Y0.68790
G01 X-0.18898 Y0.68790
G01 X-0.18921 Y0.69206
G01 X-0.18963 Y0.69414
G01 X-0.19053 Y0.69694
G01 X-0.19242 Y0.70047
G01 X-0.19515 Y0.70375
G01 X-0.19843 Y0.70628
G01 X-0.20073 Y0.70759
G01 X-0.20373 Y0.70874
G01 X-0.20781 Y0.70943
G01 X-0.20940 Y0.70955
G01 X-0.22859 Y0.70955
G01 X-0.23153 Y0.70931
G01 X-0.23361 Y0.70890
G01 X-0.23665 Y0.70789
G01 X-0.24025 Y0.70583
G01 X-0.24155 Y0.70491
G01 X-0.24459 Y0.70173
G01 X-0.24612 Y0.69956
G01 X-0.24746 Y0.69694
G01 X-0.24782 Y0.69594
G01 X-0.24878 Y0.69206
G01 X-0.24901 Y0.68911
G01 X-0.24897 Y0.65224
G01 X-0.24864 Y0.64963
G01 X-0.24764 Y0.64593
G04 P0 ( dwell for no time -- G64 should not smooth over this point )
G00 Z0.05906 ( retract )

G00 X-0.32265 Y0.69148 ( rapid move to begin. )
G01 F19.68504
( Mill infeed pass 1/1 )
G01 Z-0.00354
G04 P0 ( dwell for no time -- G64 should not smooth over this point )
G01 F39.37008
G01 X-0.32265 Y0.69148
G01 X-0.32624 Y0.68790
G01 X-0.32283 Y0.68790
G01 X-0.32265 Y0.69148
G04 P0 ( dwell for no time -- G64 should not smooth over this point )
G00 Z0.05906 ( retract )

G00 X-0.36179 Y0.69967 ( rapid move to begin. )
G01 F19.68504
( Mill infeed pass 1/1 )
G01 Z-0.00354
G04 P0 ( dwell for no time -- G64 should not smooth over this point )
G01 F39.37008
G01 X-0.36179 Y0.69967
G01 X-0.36323 Y0.69823
G01 X-0.36527 Y0.69823
G04 P0 ( dwell for no time -- G64 should not smooth over this point )
G00 Z0.05906 ( retract )

G00 X-0.51660 Y0.58094 ( rapid move to begin. )
G01 F19.68504
( Mill infeed pass 1/1 )
G01 Z-0.00354
G04 P0 ( dwell for no time -- G64 should not smooth over this point )
G01 F39.37008
G01 X-0.51660 Y0.58094
G01 X-0.51447 Y0.57985
G01 X-0.51271 Y0.57867
G01 X-0.51061 Y0.57689
G01 X-0.50883 Y0.57479
G01 X-0.50765 Y0.57303
G01 X-0.50630 Y0.57033
G01 X-0.50504 Y0.56532
G01 X-0.50497 Y0.54190
G01 X-0.50529 Y0.53917
G01 X-0.50604 Y0.53652
G01 X-0.50685 Y0.53456
G01 X-0.50824 Y0.53220
G01 X-0.50196 Y0.53399
G01 X-0.50193 Y0.57417
G01 X-0.50197 Y0.57775
G01 X-0.50312 Y0.57948
G01 X-0.50539 Y0.58210
G01 X-0.50853 Y0.58472
G01 X-0.50737 Y0.58617
G01 X-0.50562 Y0.58464
G01 X-0.50197 Y0.58089
G01 X-0.50133 Y0.58117
G01 X-0.50197 Y0.58089
G01 X-0.50140 Y0.58112
G01 X-0.50197 Y0.58089
G01 X-0.50197 Y0.57607
G01 X-0.50197 Y0.58089
G01 X-0.50562 Y0.58464
G01 X-0.50737 Y0.58617
G01 X-0.50639 Y0.58784
G01 X-0.49955 Y0.58100
G01 X-0.49709 Y0.58115
G01 X-0.49955 Y0.58100
G01 X-0.50197 Y0.57788
G01 X-0.50196 Y0.53396
G01 X-0.49570 Y0.53218
G01 X-0.49717 Y0.53476
G01 X-0.49818 Y0.53732
G01 X-0.49877 Y0.54001
G01 X-0.49897 Y0.54210
G01 X-0.49901 Y0.56312
G01 X-0.49853 Y0.56723
G01 X-0.49818 Y0.56878
G01 X-0.49760 Y0.57027
G01 X-0.49588 Y0.57372
G01 X-0.49511 Y0.57479
G01 X-0.49253 Y0.57760
G01 X-0.49123 Y0.57867
G01 X-0.48848 Y0.58037
G01 X-0.56254 Y0.65443
G01 X-0.64924 Y0.65443
G01 X-0.65048 Y0.65081
G01 X-0.72928 Y0.51892
G01 X-0.73118 Y0.51523
G01 X-0.73245 Y0.51235
G01 X-0.73561 Y0.50412
G01 X-0.73628 Y0.50211
G01 X-0.73879 Y0.49243
G01 X-0.74021 Y0.48306
G01 X-0.74063 Y0.47380
G01 X-0.74008 Y0.46443
G01 X-0.73878 Y0.45620
G01 X-0.73642 Y0.44708
G01 X-0.73662 Y0.44697
G01 X-0.73642 Y0.44708
G01 X-0.73484 Y0.44520
G01 X-0.72786 Y0.43796
G01 X-0.72158 Y0.43260
G01 X-0.71475 Y0.42779
G01 X-0.71187 Y0.42657
G01 X-0.71077 Y0.42628
G01 X-0.70160 Y0.42439
G01 X-0.69112 Y0.42439
G01 X-0.70160 Y0.42439
G01 X-0.71077 Y0.42628
G01 X-0.71187 Y0.42657
G01 X-0.71475 Y0.42779
G01 X-0.71097 Y0.42535
G01 X-0.70343 Y0.42125
G01 X-0.70048 Y0.41984
G01 X-0.69625 Y0.41810
G01 X-0.70343 Y0.42125
G01 X-0.71097 Y0.42535
G01 X-0.71475 Y0.42779
G01 X-0.69582 Y0.40886
G01 X-0.71475 Y0.42779
G01 X-0.72157 Y0.43260
G01 X-0.72785 Y0.43797
G01 X-0.73484 Y0.44520
G01 X-0.73642 Y0.44708
G01 X-0.73878 Y0.45620
G01 X-0.74020 Y0.46557
G01 X-0.74063 Y0.47380
G01 X-0.74020 Y0.48306
G01 X-0.73878 Y0.49242
G01 X-0.73627 Y0.50210
G01 X-0.73245 Y0.51235
G01 X-0.72928 Y0.51892
G01 X-0.72197 Y0.51745
G01 X-0.72995 Y0.51161
G01 X-0.73474 Y0.50638
G01 X-0.73474 Y0.52536
G01 X-0.72141 Y0.62244
G01 X-0.71784 Y0.62602
G01 X-0.71367 Y0.62416
G01 X-0.73333 Y0.61053
G01 X-0.73474 Y0.60911
G01 X-0.73474 Y0.60711
G04 P0 ( dwell for no time -- G64 should not smooth over this point )
G00 Z0.05906 ( retract )

G00 X-0.74493 Y0.64625 ( rapid move to begin. )
G01 F19.68504
( Mill infeed pass 1/1 )
G01 Z-0.00354
G04 P0 ( dwell for no time -- G64 should not smooth over this point )
G01 F39.37008
G01 X-0.74493 Y0.64625
G01 X-0.74161 Y0.64958
G01 X-0.74220 Y0.65071
G01 X-0.74318 Y0.65353
G04 P0 ( dwell for no time -- G64 should not smooth over this point )
G00 Z0.05906 ( retract )

G00 X-0.65048 Y0.69152 ( rapid move to begin. )
G01 F19.68504
( Mill infeed pass 1/1 )
G01 Z-0.00354
G04 P0 ( dwell for no time -- G64 should not smooth over this point )
G01 F39.37008
G01 X-0.65048 Y0.69152
G01 X-0.64924 Y0.68790
G01 X-0.64433 Y0.68790
G04 P0 ( dwell for no time -- G64 should not smooth over this point )
G00 Z0.05906 ( retract )

G00 X-0.65514 Y0.50288 ( rapid move to begin. )
G01 F19.68504
( Mill infeed pass 1/1 )
G01 Z-0.00354
G04 P0 ( dwell for no time -- G64 should not smooth over this point )
G01 F39.37008
G01 X-0.65514 Y0.50288
G01 X-0.65050 Y0.49473
G01 X-0.64924 Y0.49104
G01 X-0.64272 Y0.49104
G01 X-0.64248 Y0.49521
G01 X-0.64207 Y0.49729
G01 X-0.64116 Y0.50009
G01 X-0.63968 Y0.50294
G01 X-0.64734 Y0.50012
G01 X-0.64733 Y0.49805
G04 P0 ( dwell for no time -- G64 should not smooth over this point )
G00 Z0.05906 ( retract )

G00 X-0.64742 Y0.45105 ( rapid move to begin. )
G01 F19.68504
( Mill infeed pass 1/1 )
G01 Z-0.00354
G04 P0 ( dwell for no time -- G64 should not smooth over this point )
G01 F39.37008
G01 X-0.64742 Y0.45105
G01 X-0.64739 Y0.44847
G01 X-0.65515 Y0.44572
G01 X-0.65050 Y0.45389
G01 X-0.64924 Y0.45758
G01 X-0.64272 Y0.45758
G01 X-0.64260 Y0.45476
G01 X-0.64184 Y0.45042
G01 X-0.63964 Y0.44562
G04 P0 ( dwell for no time -- G64 should not smooth over this point )
G00 Z0.05906 ( retract )

G00 X-0.57579 Y0.49592 ( rapid move to begin. )
G01 F19.68504
( Mill infeed pass 1/1 )
G01 Z-0.00354
G04 P0 ( dwell for no time -- G64 should not smooth over this point )
G01 F39.37008
G01 X-0.57579 Y0.49592
G01 X-0.57579 Y0.49635
G01 X-0.58407 Y0.49965
G01 X-0.58333 Y0.49729
G01 X-0.58291 Y0.49521
G01 X-0.58268 Y0.49226
G01 X-0.58272 Y0.45539
G01 X-0.58305 Y0.45278
G01 X-0.58408 Y0.44895
G01 X-0.58305 Y0.45278
G01 X-0.58272 Y0.45539
G01 X-0.58268 Y0.49226
G01 X-0.58291 Y0.49521
G01 X-0.58333 Y0.49729
G01 X-0.58407 Y0.49965
G01 X-0.57579 Y0.49635
G01 X-0.57579 Y0.49592
G01 X-0.57579 Y0.49636
G01 X-0.57577 Y0.45225
G01 X-0.55846 Y0.43858
G01 X-0.55561 Y0.43724
G01 X-0.55561 Y0.43317
G04 P0 ( dwell for no time -- G64 should not smooth over this point )
G00 Z0.05906 ( retract )

G00 X-0.51929 Y0.43858 ( rapid move to begin. )
G01 F19.68504
( Mill infeed pass 1/1 )
G01 Z-0.00354
G04 P0 ( dwell for no time -- G64 should not smooth over this point )
G01 F39.37008
G01 X-0.51929 Y0.43858
G01 X-0.52214 Y0.43724
G01 X-0.52214 Y0.43316
G01 X-0.51112 Y0.32809
G01 X-0.49404 Y0.31101
G01 X-0.49447 Y0.31175
G01 X-0.49459 Y0.31289
G01 X-0.49459 Y0.33493
G01 X-0.50133 Y0.32784
G01 X-0.49515 Y0.31289
G01 X-0.49215 Y0.30760
G01 X-0.48777 Y0.30367
G01 X-0.48797 Y0.30318
G01 X-0.48777 Y0.30367
G01 X-0.48376 Y0.30325
G01 X-0.46092 Y0.30326
G01 X-0.45610 Y0.30265
G01 X-0.45456 Y0.30207
G01 X-0.45609 Y0.30270
G01 X-0.45126 Y0.30087
G01 X-0.44781 Y0.29867
G01 X-0.45019 Y0.29453
G01 X-0.45031 Y0.29571
G01 X-0.45092 Y0.29775
G01 X-0.45192 Y0.29962
G01 X-0.45327 Y0.30126
G01 X-0.45400 Y0.30186
G01 X-0.45456 Y0.30207
G01 X-0.36077 Y0.30207
G01 X-0.35777 Y0.30331
G01 X-0.36077 Y0.30207
G01 X-0.37730 Y0.28554
G01 X-0.37706 Y0.29532
G01 X-0.35777 Y0.30331
G01 X-0.35199 Y0.30711
G01 X-0.35188 Y0.30700
G01 X-0.35199 Y0.30711
G01 X-0.34816 Y0.31288
G01 X-0.34695 Y0.31589
G01 X-0.34695 Y0.33927
G01 X-0.34020 Y0.33218
G01 X-0.34695 Y0.31589
G01 X-0.30955 Y0.35329
G01 X-0.30955 Y0.43726
G01 X-0.31246 Y0.43868
G01 X-0.32842 Y0.45149
G01 X-0.32811 Y0.45442
G04 P0 ( dwell for no time -- G64 should not smooth over this point )
G00 Z0.05906 ( retract )

G00 X-0.33662 Y0.44946 ( rapid move to begin. )
G01 F19.68504
( Mill infeed pass 1/1 )
G01 Z-0.00354
G04 P0 ( dwell for no time -- G64 should not smooth over this point )
G01 F39.37008
G01 X-0.33662 Y0.44946
G01 X-0.33491 Y0.45187
G01 X-0.33412 Y0.45336
G01 X-0.33357 Y0.45457
G01 X-0.33273 Y0.45758
G01 X-0.32280 Y0.45758
G01 X-0.32270 Y0.45406
G01 X-0.32246 Y0.45278
G01 X-0.32178 Y0.45005
G01 X-0.32092 Y0.44778
G04 P0 ( dwell for no time -- G64 should not smooth over this point )
G00 Z0.05906 ( retract )

G00 X-0.27608 Y0.43319 ( rapid move to begin. )
G01 F19.68504
( Mill infeed pass 1/1 )
G01 Z-0.00354
G04 P0 ( dwell for no time -- G64 should not smooth over this point )
G01 F39.37008
G01 X-0.27608 Y0.43319
G01 X-0.27608 Y0.43725
G01 X-0.27326 Y0.43853
G04 P0 ( dwell for no time -- G64 should not smooth over this point )
G00 Z0.05906 ( retract )

G00 X-0.18970 Y0.45109 ( rapid move to begin. )
G01 F19.68504
( Mill infeed pass 1/1 )
G01 Z-0.00354
G04 P0 ( dwell for no time -- G64 should not smooth over this point )
G01 F39.37008
G01 X-0.18970 Y0.45109
G01 X-0.18909 Y0.45476
G01 X-0.18898 Y0.45758
G01 X-0.17261 Y0.45758
G01 X-0.17175 Y0.45495
G01 X-0.17076 Y0.45275
G04 P0 ( dwell for no time -- G64 should not smooth over this point )
G00 Z0.05906 ( retract )

G00 X-0.17071 Y0.49595 ( rapid move to begin. )
G01 F19.68504
( Mill infeed pass 1/1 )
G01 Z-0.00354
G04 P0 ( dwell for no time -- G64 should not smooth over this point )
G01 F39.37008
G01 X-0.17071 Y0.49595
G01 X-0.17135 Y0.49473
G01 X-0.17261 Y0.49104
G01 X-0.18898 Y0.49104
G01 X-0.18921 Y0.49521
G01 X-0.18978 Y0.49781
G04 P0 ( dwell for no time -- G64 should not smooth over this point )
G00 Z0.05906 ( retract )

G00 X-0.24762 Y0.49965 ( rapid move to begin. )
G01 F19.68504
( Mill infeed pass 1/1 )
G01 Z-0.00354
G04 P0 ( dwell for no time -- G64 should not smooth over this point )
G01 F39.37008
G01 X-0.24762 Y0.49965
G01 X-0.24836 Y0.49729
G01 X-0.24878 Y0.49521
G01 X-0.24901 Y0.49226
G01 X-0.24897 Y0.45539
G01 X-0.24864 Y0.45278
G01 X-0.24763 Y0.44906
G01 X-0.25592 Y0.45230
G01 X-0.25590 Y0.49635
G01 X-0.26419 Y0.49965
G01 X-0.26345 Y0.49729
G01 X-0.26303 Y0.49521
G01 X-0.26279 Y0.49227
G01 X-0.26279 Y0.45635
G01 X-0.26291 Y0.45476
G01 X-0.26360 Y0.45068
G01 X-0.26421 Y0.44900
G01 X-0.27608 Y0.35698
G01 X-0.27613 Y0.34530
G01 X-0.27666 Y0.34206
G01 X-0.27700 Y0.34096
G01 X-0.27836 Y0.33797
G01 X-0.27953 Y0.33621
G01 X-0.28098 Y0.33453
G01 X-0.32765 Y0.28786
G01 X-0.36388 Y0.18125
G01 X-0.36388 Y0.17411
G01 X-0.36092 Y0.17411
G01 X-0.35854 Y0.17382
G01 X-0.36388 Y0.24959
G01 X-0.36388 Y0.25163
G01 X-0.36243 Y0.25308
G01 X-0.31787 Y0.28810
G01 X-0.31559 Y0.29360
G01 X-0.31313 Y0.29845
G01 X-0.30987 Y0.30253
G01 X-0.30591 Y0.30590
G01 X-0.30120 Y0.30850
G01 X-0.30106 Y0.30835
G01 X-0.30120 Y0.30850
G01 X-0.29939 Y0.31173
G01 X-0.29789 Y0.31398
G01 X-0.29557 Y0.31695
G01 X-0.27864 Y0.33397
G01 X-0.27619 Y0.33682
G01 X-0.27337 Y0.34104
G01 X-0.27145 Y0.34484
G01 X-0.26933 Y0.34989
G01 X-0.27147 Y0.34484
G01 X-0.27342 Y0.34107
G01 X-0.27554 Y0.33779
G01 X-0.27788 Y0.33485
G01 X-0.29555 Y0.31693
G01 X-0.29789 Y0.31398
G01 X-0.29939 Y0.31173
G01 X-0.30120 Y0.30850
G01 X-0.30589 Y0.30587
G01 X-0.30985 Y0.30251
G01 X-0.31308 Y0.29842
G01 X-0.31559 Y0.29360
G01 X-0.31787 Y0.28810
G01 X-0.31112 Y0.28101
G01 X-0.31112 Y0.29360
G01 X-0.31091 Y0.29571
G01 X-0.31030 Y0.29775
G01 X-0.30930 Y0.29962
G01 X-0.30795 Y0.30126
G01 X-0.30631 Y0.30260
G01 X-0.30444 Y0.30361
G01 X-0.30241 Y0.30422
G01 X-0.30029 Y0.30443
G01 X-0.29734 Y0.30443
G01 X-0.29718 Y0.30763
G01 X-0.29643 Y0.31082
G01 X-0.29507 Y0.31380
G01 X-0.29315 Y0.31646
G01 X-0.25955 Y0.35014
G04 P0 ( dwell for no time -- G64 should not smooth over this point )
G00 Z0.05906 ( retract )

G00 X-0.25274 Y0.30061 ( rapid move to begin. )
G01 F19.68504
( Mill infeed pass 1/1 )
G01 Z-0.00354
G04 P0 ( dwell for no time -- G64 should not smooth over this point )
G01 F39.37008
G01 X-0.25274 Y0.30061
G01 X-0.25327 Y0.30126
G01 X-0.25491 Y0.30260
G01 X-0.25678 Y0.30361
G01 X-0.25830 Y0.30406
G01 X-0.17368 Y0.38868
G01 X-0.17164 Y0.38868
G04 P0 ( dwell for no time -- G64 should not smooth over this point )
G00 Z0.05906 ( retract )

G00 X-0.16715 Y0.42215 ( rapid move to begin. )
G01 F19.68504
( Mill infeed pass 1/1 )
G01 Z-0.00354
G04 P0 ( dwell for no time -- G64 should not smooth over this point )
G01 F39.37008
G01 X-0.16715 Y0.42215
G01 X-0.11974 Y0.42215
G01 X-0.11684 Y0.42505
G01 X-0.12021 Y0.42327
G01 X-0.12015 Y0.42303
G01 X-0.12021 Y0.42327
G01 X-0.12015 Y0.42304
G01 X-0.12021 Y0.42327
G01 X-0.12961 Y0.42324
G01 X-0.13211 Y0.42337
G01 X-0.14034 Y0.42424
G01 X-0.14309 Y0.42467
G01 X-0.15132 Y0.42641
G01 X-0.15456 Y0.42729
G01 X-0.16011 Y0.42909
G01 X-0.15456 Y0.42729
G01 X-0.15132 Y0.42642
G01 X-0.14309 Y0.42467
G01 X-0.14034 Y0.42424
G01 X-0.13211 Y0.42337
G01 X-0.12961 Y0.42324
G01 X-0.12021 Y0.42327
G01 X-0.11684 Y0.42505
G01 X-0.11913 Y0.42457
G01 X-0.12138 Y0.42433
G01 X-0.13074 Y0.42439
G01 X-0.14100 Y0.42657
G01 X-0.15059 Y0.43084
G01 X-0.15820 Y0.43629
G01 X-0.16008 Y0.43803
G01 X-0.15820 Y0.43629
G01 X-0.15059 Y0.43084
G01 X-0.14100 Y0.42657
G01 X-0.13074 Y0.42439
G01 X-0.12138 Y0.42433
G01 X-0.11913 Y0.42457
G01 X-0.11684 Y0.42505
G01 X-0.11144 Y0.42799
G01 X-0.10981 Y0.42897
G01 X-0.10173 Y0.43461
G01 X-0.09450 Y0.44087
G01 X-0.08885 Y0.44686
G01 X-0.08374 Y0.45339
G01 X-0.08350 Y0.45328
G01 X-0.08374 Y0.45339
G01 X-0.08307 Y0.45620
G01 X-0.08164 Y0.46557
G01 X-0.08120 Y0.47380
G01 X-0.08163 Y0.48306
G01 X-0.08337 Y0.49388
G01 X-0.08558 Y0.50211
G01 X-0.08710 Y0.50637
G01 X-0.09190 Y0.51161
G01 X-0.10039 Y0.51778
G01 X-0.10998 Y0.52205
G01 X-0.11662 Y0.52352
G01 X-0.10998 Y0.52205
G01 X-0.10039 Y0.51778
G01 X-0.09190 Y0.51161
G01 X-0.08710 Y0.50637
G01 X-0.08711 Y0.54067
G01 X-0.08623 Y0.54293
G01 X-0.08711 Y0.54067
G01 X-0.09190 Y0.53543
G01 X-0.10039 Y0.52926
G01 X-0.10998 Y0.52500
G01 X-0.11662 Y0.52352
G01 X-0.13436 Y0.52352
G01 X-0.14100 Y0.52500
G01 X-0.14958 Y0.52875
G01 X-0.15204 Y0.53024
G01 X-0.15001 Y0.52352
G01 X-0.13436 Y0.52352
G01 X-0.15001 Y0.52352
G01 X-0.15204 Y0.51680
G01 X-0.14958 Y0.51830
G01 X-0.14100 Y0.52205
G01 X-0.13436 Y0.52352
G01 X-0.09491 Y0.52352
G01 X-0.09570 Y0.52352
G01 X-0.09449 Y0.52436
G01 X-0.09067 Y0.53182
G01 X-0.09449 Y0.52436
G01 X-0.09449 Y0.52269
G01 X-0.09449 Y0.52436
G01 X-0.09570 Y0.52352
G01 X-0.09907 Y0.52352
G01 X-0.09570 Y0.52352
G01 X-0.09449 Y0.52269
G01 X-0.09067 Y0.51522
G01 X-0.08939 Y0.51235
G01 X-0.08558 Y0.50211
G01 X-0.08939 Y0.51235
G01 X-0.09067 Y0.51522
G01 X-0.09491 Y0.52352
G01 X-0.09067 Y0.53182
G01 X-0.08939 Y0.53470
G01 X-0.08557 Y0.54494
G01 X-0.08307 Y0.55463
G01 X-0.08176 Y0.56286
G01 X-0.08121 Y0.57325
G01 X-0.08176 Y0.56286
G01 X-0.08336 Y0.55317
G01 X-0.08163 Y0.56399
G01 X-0.08120 Y0.57222
G01 X-0.08163 Y0.58148
G01 X-0.08306 Y0.59085
G01 X-0.08558 Y0.60053
G01 X-0.08622 Y0.60255
G01 X-0.08940 Y0.61077
G01 X-0.09194 Y0.61613
G01 X-0.10050 Y0.61876
G01 X-0.10873 Y0.62052
G01 X-0.11105 Y0.62087
G01 X-0.12138 Y0.62184
G01 X-0.12961 Y0.62184
G01 X-0.13993 Y0.62088
G01 X-0.14225 Y0.62050
G01 X-0.15048 Y0.61876
G01 X-0.15329 Y0.61801
G01 X-0.16195 Y0.61516
G01 X-0.16631 Y0.62111
G01 X-0.16486 Y0.62096
G01 X-0.13899 Y0.62096
G01 X-0.13170 Y0.62173
G01 X-0.13899 Y0.62097
G01 X-0.14100 Y0.62048
G01 X-0.14958 Y0.61672
G01 X-0.15154 Y0.61559
G01 X-0.15820 Y0.61075
G01 X-0.15988 Y0.60924
G01 X-0.16208 Y0.60680
G01 X-0.32321 Y0.58947
G01 X-0.32525 Y0.58947
G01 X-0.33244 Y0.59666
G01 X-0.33224 Y0.59852
G01 X-0.33085 Y0.63917
G01 X-0.32735 Y0.64097
G01 X-0.32870 Y0.64424
G01 X-0.32938 Y0.64673
G01 X-0.32810 Y0.65443
G01 X-0.32283 Y0.65443
G01 X-0.32260 Y0.65027
G01 X-0.32164 Y0.64638
G01 X-0.32128 Y0.64538
G01 X-0.31994 Y0.64276
G01 X-0.31824 Y0.64037
G01 X-0.33032 Y0.63997
G01 X-0.33063 Y0.63935
G01 X-0.33032 Y0.63997
G01 X-0.32922 Y0.64000
G01 X-0.33085 Y0.63917
G01 X-0.33702 Y0.63917
G01 X-0.33529 Y0.63802
G01 X-0.33344 Y0.63645
G01 X-0.33529 Y0.63802
G01 X-0.33702 Y0.63917
G01 X-0.38081 Y0.63917
G01 X-0.38261 Y0.64549
G01 X-0.37948 Y0.64371
G01 X-0.37824 Y0.64325
G01 X-0.37559 Y0.64250
G01 X-0.37286 Y0.64218
G01 X-0.35162 Y0.64213
G01 X-0.34783 Y0.64250
G01 X-0.34518 Y0.64325
G01 X-0.34322 Y0.64406
G01 X-0.34173 Y0.64486
G01 X-0.33867 Y0.64711
G01 X-0.33609 Y0.64991
G01 X-0.33491 Y0.65168
G01 X-0.33355 Y0.65443
G01 X-0.32810 Y0.65443
G01 X-0.32938 Y0.64673
G01 X-0.33039 Y0.64523
G01 X-0.33266 Y0.64260
G01 X-0.33529 Y0.64033
G01 X-0.33702 Y0.63917
G01 X-0.38075 Y0.63917
G01 X-0.44775 Y0.57591
G01 X-0.44833 Y0.57652
G01 X-0.44833 Y0.57763
G01 X-0.38252 Y0.63293
G01 X-0.37899 Y0.63484
G01 X-0.37528 Y0.63585
G01 X-0.37264 Y0.63618
G01 X-0.35078 Y0.63618
G01 X-0.34815 Y0.63585
G01 X-0.34443 Y0.63484
G01 X-0.34173 Y0.63349
G01 X-0.33997 Y0.63231
G01 X-0.33788 Y0.63053
G01 X-0.33551 Y0.62756
G01 X-0.17751 Y0.58947
G01 X-0.17261 Y0.58947
G01 X-0.17137 Y0.59309
G04 P0 ( dwell for no time -- G64 should not smooth over this point )
G00 Z0.05906 ( retract )

G00 X-0.18094 Y0.65443 ( rapid move to begin. )
G01 F19.68504
( Mill infeed pass 1/1 )
G01 Z-0.00354
G04 P0 ( dwell for no time -- G64 should not smooth over this point )
G01 F39.37008
G01 X-0.18094 Y0.65443
G01 X-0.18898 Y0.65443
G01 X-0.18909 Y0.65161
G01 X-0.18985 Y0.64727
G01 X-0.19163 Y0.64324
G01 X-0.19227 Y0.64208
G01 X-0.19372 Y0.64018
G01 X-0.18424 Y0.64160
G01 X-0.18307 Y0.64441
G01 X-0.18307 Y0.64127
G01 X-0.18307 Y0.64441
G01 X-0.18094 Y0.65443
G01 X-0.17569 Y0.65443
G01 X-0.17569 Y0.63349
G04 P0 ( dwell for no time -- G64 should not smooth over this point )
G00 Z0.05906 ( retract )

G00 X-0.17137 Y0.55238 ( rapid move to begin. )
G01 F19.68504
( Mill infeed pass 1/1 )
G01 Z-0.00354
G04 P0 ( dwell for no time -- G64 should not smooth over this point )
G01 F39.37008
G01 X-0.17137 Y0.55238
G01 X-0.17261 Y0.55600
G01 X-0.32033 Y0.55600
G01 X-0.33243 Y0.54391
G01 X-0.32953 Y0.50869
G01 X-0.33061 Y0.50710
G01 X-0.33328 Y0.50424
G01 X-0.33461 Y0.50304
G01 X-0.33693 Y0.50138
G01 X-0.33201 Y0.50138
G01 X-0.33152 Y0.50048
G01 X-0.33201 Y0.50138
G01 X-0.33184 Y0.50145
G01 X-0.33134 Y0.50054
G01 X-0.33184 Y0.50145
G01 X-0.33201 Y0.50138
G01 X-0.33184 Y0.50145
G01 X-0.32797 Y0.50747
G01 X-0.32869 Y0.50626
G01 X-0.32798 Y0.50746
G01 X-0.32621 Y0.50655
G01 X-0.32805 Y0.50284
G01 X-0.32902 Y0.50034
G01 X-0.32945 Y0.49843
G01 X-0.32853 Y0.49711
G01 X-0.32945 Y0.49843
G01 X-0.33319 Y0.49843
G01 X-0.33333 Y0.49802
G01 X-0.33319 Y0.49843
G01 X-0.33328 Y0.49852
G01 X-0.33461 Y0.49972
G01 X-0.33693 Y0.50138
G01 X-0.38079 Y0.50138
G01 X-0.38259 Y0.49507
G01 X-0.37948 Y0.49684
G01 X-0.37662 Y0.49779
G01 X-0.37454 Y0.49821
G01 X-0.37180 Y0.49843
G01 X-0.35162 Y0.49843
G01 X-0.35003 Y0.49831
G01 X-0.34624 Y0.49766
G01 X-0.34342 Y0.49658
G01 X-0.34155 Y0.49558
G01 X-0.33929 Y0.49401
G01 X-0.33639 Y0.49104
G01 X-0.32283 Y0.49104
G01 X-0.32272 Y0.49386
G01 X-0.32195 Y0.49820
G01 X-0.32138 Y0.49969
G01 X-0.31954 Y0.50340
G01 X-0.31709 Y0.50640
G04 P0 ( dwell for no time -- G64 should not smooth over this point )
G00 Z0.05906 ( retract )

G00 X-0.33353 Y0.51673 ( rapid move to begin. )
G01 F19.68504
( Mill infeed pass 1/1 )
G01 Z-0.00354
G04 P0 ( dwell for no time -- G64 should not smooth over this point )
G01 F39.37008
G01 X-0.33353 Y0.51673
G01 X-0.33438 Y0.51491
G01 X-0.33643 Y0.51165
G01 X-0.33929 Y0.50874
G01 X-0.34155 Y0.50717
G01 X-0.34342 Y0.50617
G01 X-0.34598 Y0.50517
G01 X-0.34867 Y0.50458
G01 X-0.35078 Y0.50437
G01 X-0.37397 Y0.50445
G01 X-0.37773 Y0.50531
G01 X-0.37924 Y0.50581
G01 X-0.38259 Y0.50768
G04 P0 ( dwell for no time -- G64 should not smooth over this point )
G00 Z0.05906 ( retract )

G00 X-0.39008 Y0.51729 ( rapid move to begin. )
G01 F19.68504
( Mill infeed pass 1/1 )
G01 Z-0.00354
G04 P0 ( dwell for no time -- G64 should not smooth over this point )
G01 F39.37008
G01 X-0.39008 Y0.51729
G01 X-0.39111 Y0.52156
G01 X-0.39678 Y0.52156
G04 P0 ( dwell for no time -- G64 should not smooth over this point )
G00 Z0.05906 ( retract )

G00 X-0.38643 Y0.55502 ( rapid move to begin. )
G01 F19.68504
( Mill infeed pass 1/1 )
G01 Z-0.00354
G04 P0 ( dwell for no time -- G64 should not smooth over this point )
G01 F39.37008
G01 X-0.38643 Y0.55502
G01 X-0.38524 Y0.55502
G01 X-0.38450 Y0.55567
G04 P0 ( dwell for no time -- G64 should not smooth over this point )
G00 Z0.05906 ( retract )

G00 X-0.37065 Y0.56781 ( rapid move to begin. )
G01 F19.68504
( Mill infeed pass 1/1 )
G01 Z-0.00354
G04 P0 ( dwell for no time -- G64 should not smooth over this point )
G01 F39.37008
G01 X-0.37065 Y0.56781
G01 X-0.36629 Y0.56781
G01 X-0.36606 Y0.56729
G01 X-0.36629 Y0.56781
G01 X-0.36383 Y0.57027
G01 X-0.36078 Y0.57027
G01 X-0.36383 Y0.57027
G01 X-0.36629 Y0.57274
G01 X-0.36608 Y0.57322
G01 X-0.36629 Y0.57274
G01 X-0.37067 Y0.57274
G01 X-0.37621 Y0.58065
G01 X-0.37454 Y0.58034
G01 X-0.37180 Y0.58012
G01 X-0.36323 Y0.58012
G01 X-0.35340 Y0.57027
G01 X-0.36323 Y0.56043
G01 X-0.37339 Y0.56032
G01 X-0.37612 Y0.55989
G01 X-0.43420 Y0.55502
G01 X-0.44291 Y0.55502
G01 X-0.44291 Y0.56296
G04 P0 ( dwell for no time -- G64 should not smooth over this point )
G00 Z0.05906 ( retract )

G00 X-0.45778 Y0.52335 ( rapid move to begin. )
G01 F19.68504
( Mill infeed pass 1/1 )
G01 Z-0.00354
G04 P0 ( dwell for no time -- G64 should not smooth over this point )
G01 F39.37008
G01 X-0.45778 Y0.52335
G01 X-0.45874 Y0.52387
G01 X-0.45994 Y0.52371
G04 P0 ( dwell for no time -- G64 should not smooth over this point )
G00 Z0.05906 ( retract )

G00 X-0.51606 Y0.52549 ( rapid move to begin. )
G01 F19.68504
( Mill infeed pass 1/1 )
G01 Z-0.00354
G04 P0 ( dwell for no time -- G64 should not smooth over this point )
G01 F39.37008
G01 X-0.51606 Y0.52549
G01 X-0.51872 Y0.52436
G01 X-0.52214 Y0.52373
G01 X-0.52214 Y0.51137
G01 X-0.51942 Y0.51016
G01 X-0.51759 Y0.50890
G04 P0 ( dwell for no time -- G64 should not smooth over this point )
G00 Z0.05906 ( retract )

G00 X-0.55619 Y0.53019 ( rapid move to begin. )
G01 F19.68504
( Mill infeed pass 1/1 )
G01 Z-0.00354
G04 P0 ( dwell for no time -- G64 should not smooth over this point )
G01 F39.37008
G01 X-0.55619 Y0.53019
G01 X-0.55561 Y0.52958
G01 X-0.55561 Y0.51137
G01 X-0.55829 Y0.51018
G04 P0 ( dwell for no time -- G64 should not smooth over this point )
G00 Z0.05906 ( retract )

G00 X-0.56749 Y0.49967 ( rapid move to begin. )
G01 F19.68504
( Mill infeed pass 1/1 )
G01 Z-0.00354
G04 P0 ( dwell for no time -- G64 should not smooth over this point )
G01 F39.37008
G01 X-0.56749 Y0.49967
G01 X-0.56825 Y0.49729
G01 X-0.56866 Y0.49521
G01 X-0.56890 Y0.49227
G01 X-0.56890 Y0.45635
G01 X-0.56837 Y0.45197
G01 X-0.56809 Y0.45068
G01 X-0.56749 Y0.44901
G04 P0 ( dwell for no time -- G64 should not smooth over this point )
G00 Z0.05906 ( retract )

G00 X-0.66532 Y0.33103 ( rapid move to begin. )
G01 F19.68504
( Mill infeed pass 1/1 )
G01 Z-0.00354
G04 P0 ( dwell for no time -- G64 should not smooth over this point )
G01 F39.37008
G01 X-0.66532 Y0.33103
G01 X-0.66388 Y0.32959
G01 X-0.66388 Y0.32755
G04 P0 ( dwell for no time -- G64 should not smooth over this point )
G00 Z0.05906 ( retract )

G00 X-0.63041 Y0.25057 ( rapid move to begin. )
G01 F19.68504
( Mill infeed pass 1/1 )
G01 Z-0.00354
G04 P0 ( dwell for no time -- G64 should not smooth over this point )
G01 F39.37008
G01 X-0.63041 Y0.25057
G01 X-0.63041 Y0.24857
G01 X-0.62899 Y0.24715
G04 P0 ( dwell for no time -- G64 should not smooth over this point )
G00 Z0.05906 ( retract )

G00 X-0.60966 Y0.18049 ( rapid move to begin. )
G01 F19.68504
( Mill infeed pass 1/1 )
G01 Z-0.00354
G04 P0 ( dwell for no time -- G64 should not smooth over this point )
G01 F39.37008
G01 X-0.60966 Y0.18049
G01 X-0.60292 Y0.17375
G01 X-0.60444 Y0.17329
G01 X-0.60631 Y0.17229
G01 X-0.60795 Y0.17094
G01 X-0.60848 Y0.17030
G04 P0 ( dwell for no time -- G64 should not smooth over this point )
G00 Z0.05906 ( retract )

G00 X-0.56428 Y0.17851 ( rapid move to begin. )
G01 F19.68504
( Mill infeed pass 1/1 )
G01 Z-0.00354
G04 P0 ( dwell for no time -- G64 should not smooth over this point )
G01 F39.37008
G01 X-0.56428 Y0.17851
G01 X-0.56393 Y0.17616
G01 X-0.56388 Y0.17411
G01 X-0.55962 Y0.17399
G04 P0 ( dwell for no time -- G64 should not smooth over this point )
G00 Z0.05906 ( retract )

G00 X-0.51112 Y0.27873 ( rapid move to begin. )
G01 F19.68504
( Mill infeed pass 1/1 )
G01 Z-0.00354
G04 P0 ( dwell for no time -- G64 should not smooth over this point )
G01 F39.37008
G01 X-0.51112 Y0.27873
G01 X-0.51112 Y0.28077
G01 X-0.51256 Y0.28221
G04 P0 ( dwell for no time -- G64 should not smooth over this point )
G00 Z0.05906 ( retract )

G00 X-0.52070 Y0.33767 ( rapid move to begin. )
G01 F19.68504
( Mill infeed pass 1/1 )
G01 Z-0.00354
G04 P0 ( dwell for no time -- G64 should not smooth over this point )
G01 F39.37008
G01 X-0.52070 Y0.33767
G01 X-0.52214 Y0.33912
G01 X-0.52214 Y0.34116
G04 P0 ( dwell for no time -- G64 should not smooth over this point )
G00 Z0.05906 ( retract )

G00 X-0.39734 Y0.18125 ( rapid move to begin. )
G01 F19.68504
( Mill infeed pass 1/1 )
G01 Z-0.00354
G04 P0 ( dwell for no time -- G64 should not smooth over this point )
G01 F39.37008
G01 X-0.39734 Y0.18125
G01 X-0.39734 Y0.17411
G01 X-0.40029 Y0.17411
G01 X-0.40267 Y0.17383

G04 P0 ( dwell for no time -- G64 should not smooth over this point )
G00 Z0.393701 ( retract )

M5 ( Spindle off. )
G04 P1.000000
M9 ( Coolant off. )
M2 ( Program end. )

