( pcb2gcode 2.4.0 )
( Software-independent Gcode )

G94 ( Inches per minute feed rate. )
G20 ( Units == INCHES. )

G90 ( Absolute coordinates. )
G00 S24000 ( RPM spindle speed. )
G64 P0.00040 ( set maximum deviation from commanded toolpath )
G01 F39.37008 ( Feedrate. )


G00 Z0.39370 (Retract to tool change height)
T0
M5      (Spindle stop.)
G04 P1.00000 (Wait for spindle to stop)
(MSG, Change tool bit to mill diameter 0.05709in)
M6      (Tool change.)
M0      (Temporary machine stop.)
M3 ( Spindle on clockwise. )
G04 P1.00000 (Wait for spindle to get up to speed)
G04 P0 ( dwell for no time -- G64 should not smooth over this point )
G00 Z0.05906 ( retract )

G00 X-0.18035 Y0.52452 ( rapid move to begin. )
G01 F19.68504
( Mill infeed pass 1/1 )
G01 Z-0.00354
G04 P0 ( dwell for no time -- G64 should not smooth over this point )
G01 F39.37008
G01 X-0.18035 Y0.52452
G01 X-0.18406 Y0.52809
G01 X-0.18718 Y0.53238
G01 X-0.19153 Y0.53238
G01 X-0.19337 Y0.53278
G01 X-0.19183 Y0.53245
G01 X-0.18573 Y0.52938
G01 X-0.18406 Y0.52809
G04 P0 ( dwell for no time -- G64 should not smooth over this point )
G00 Z0.05906 ( retract )

G00 X-0.26524 Y0.53238 ( rapid move to begin. )
G01 F19.68504
( Mill infeed pass 1/1 )
G01 Z-0.00354
G04 P0 ( dwell for no time -- G64 should not smooth over this point )
G01 F39.37008
G01 X-0.26524 Y0.53238
G01 X-0.26314 Y0.53139
G01 X-0.25594 Y0.52657
G01 X-0.25594 Y0.52598
G01 X-0.25594 Y0.52651
G01 X-0.25383 Y0.52833
G01 X-0.25227 Y0.52937
G01 X-0.24629 Y0.53238
G01 X-0.24461 Y0.53278
G01 X-0.24629 Y0.53238
G01 X-0.26524 Y0.53238
G01 X-0.26767 Y0.53278
G04 P0 ( dwell for no time -- G64 should not smooth over this point )
G00 Z0.05906 ( retract )

G00 X-0.19301 Y0.61268 ( rapid move to begin. )
G01 F19.68504
( Mill infeed pass 1/1 )
G01 Z-0.00354
G04 P0 ( dwell for no time -- G64 should not smooth over this point )
G01 F39.37008
G01 X-0.19301 Y0.61268
G01 X-0.19338 Y0.61269
G04 P0 ( dwell for no time -- G64 should not smooth over this point )
G00 Z0.05906 ( retract )

G00 X-0.26519 Y0.61309 ( rapid move to begin. )
G01 F19.68504
( Mill infeed pass 1/1 )
G01 Z-0.00354
G04 P0 ( dwell for no time -- G64 should not smooth over this point )
G01 F39.37008
G01 X-0.26519 Y0.61309
G01 X-0.25817 Y0.61707
G01 X-0.25597 Y0.61870
G01 X-0.25596 Y0.61951
G01 X-0.25597 Y0.61899
G01 X-0.25382 Y0.61714
G01 X-0.25225 Y0.61609
G01 X-0.24629 Y0.61309
G01 X-0.24461 Y0.61269
G01 X-0.24629 Y0.61309
G01 X-0.26519 Y0.61309
G01 X-0.26708 Y0.61269
G04 P0 ( dwell for no time -- G64 should not smooth over this point )
G00 Z0.05906 ( retract )

G00 X-0.38233 Y0.71979 ( rapid move to begin. )
G01 F19.68504
( Mill infeed pass 1/1 )
G01 Z-0.00354
G04 P0 ( dwell for no time -- G64 should not smooth over this point )
G01 F39.37008
G01 X-0.38233 Y0.71979
G01 X-0.38502 Y0.71939
G01 X-0.38902 Y0.71818
G01 X-0.39131 Y0.71710
G01 X-0.39844 Y0.71258
G01 X-0.39974 Y0.71151
G01 X-0.40452 Y0.70674
G01 X-0.40559 Y0.70543
G01 X-0.40934 Y0.69982
G01 X-0.41014 Y0.69833
G01 X-0.41272 Y0.69208
G01 X-0.41321 Y0.69047
G01 X-0.41453 Y0.68384
G01 X-0.41486 Y0.67879
G01 X-0.41486 Y0.66157
G01 X-0.41453 Y0.65652
G01 X-0.41321 Y0.64988
G01 X-0.41272 Y0.64827
G01 X-0.40930 Y0.64055
G01 X-0.40851 Y0.63923
G01 X-0.40785 Y0.63924
G01 X-0.40834 Y0.63923
G01 X-0.40934 Y0.63781
G01 X-0.41014 Y0.63632
G01 X-0.41272 Y0.63007
G01 X-0.41321 Y0.62846
G01 X-0.41453 Y0.62183
G01 X-0.41486 Y0.61670
G01 X-0.41482 Y0.59864
G01 X-0.41379 Y0.59035
G01 X-0.41317 Y0.58789
G01 X-0.41014 Y0.58002
G01 X-0.40940 Y0.57864
G01 X-0.42241 Y0.57864
G01 X-0.42489 Y0.58422
G01 X-0.42630 Y0.59176
G01 X-0.42922 Y0.59911
G01 X-0.43352 Y0.60575
G01 X-0.43425 Y0.60664
G01 X-0.43652 Y0.60915
G01 X-0.52707 Y0.69970
G01 X-0.53047 Y0.70270
G01 X-0.53609 Y0.70645
G01 X-0.53711 Y0.70700
G01 X-0.54446 Y0.70992
G01 X-0.55223 Y0.71135
G01 X-0.55561 Y0.71152
G01 X-0.63467 Y0.71152
G01 X-0.63891 Y0.71735
G01 X-0.64441 Y0.72347
G01 X-0.64977 Y0.72829
G01 X-0.65642 Y0.73313
G01 X-0.66266 Y0.73673
G01 X-0.67018 Y0.74008
G01 X-0.67703 Y0.74230
G01 X-0.68508 Y0.74401
G01 X-0.69224 Y0.74477
G01 X-0.70047 Y0.74477
G01 X-0.70764 Y0.74401
G01 X-0.71569 Y0.74230
G01 X-0.72254 Y0.74008
G01 X-0.73005 Y0.73673
G01 X-0.73629 Y0.73313
G01 X-0.74295 Y0.72829
G01 X-0.74830 Y0.72347
G01 X-0.75381 Y0.71735
G01 X-0.75804 Y0.71153
G01 X-0.76216 Y0.70440
G01 X-0.76509 Y0.69782
G01 X-0.76763 Y0.68999
G01 X-0.76913 Y0.68295
G01 X-0.76999 Y0.67476
G01 X-0.76999 Y0.66756
G01 X-0.76913 Y0.65938
G01 X-0.76844 Y0.65615
G01 X-0.78001 Y0.64458
G01 X-0.78301 Y0.64118
G01 X-0.78731 Y0.63454
G01 X-0.78990 Y0.62830
G01 X-0.79155 Y0.62057
G01 X-0.79183 Y0.61604
G01 X-0.79183 Y0.44085
G01 X-0.79155 Y0.43632
G01 X-0.79023 Y0.42969
G01 X-0.78731 Y0.42235
G01 X-0.78677 Y0.42133
G01 X-0.78301 Y0.41571
G01 X-0.78001 Y0.41231
G01 X-0.68750 Y0.31980
G01 X-0.68750 Y0.24163
G01 X-0.68722 Y0.23711
G01 X-0.68590 Y0.23048
G01 X-0.68298 Y0.22314
G01 X-0.68244 Y0.22212
G01 X-0.67795 Y0.21561
G01 X-0.67568 Y0.21310
G01 X-0.63373 Y0.17115
G01 X-0.63408 Y0.17001
G01 X-0.63474 Y0.16329
G01 X-0.63474 Y0.06447
G01 X-0.63408 Y0.05775
G01 X-0.63212 Y0.05129
G01 X-0.62894 Y0.04533
G01 X-0.62465 Y0.04011
G01 X-0.61943 Y0.03583
G01 X-0.61348 Y0.03264
G01 X-0.60702 Y0.03068
G01 X-0.60029 Y0.03002
G01 X-0.56092 Y0.03002
G01 X-0.55420 Y0.03068
G01 X-0.54774 Y0.03264
G01 X-0.54179 Y0.03583
G01 X-0.53657 Y0.04011
G01 X-0.53228 Y0.04533
G01 X-0.52910 Y0.05129
G01 X-0.52714 Y0.05775
G01 X-0.52648 Y0.06447
G01 X-0.52648 Y0.16329
G01 X-0.52714 Y0.17001
G01 X-0.52885 Y0.17564
G01 X-0.53252 Y0.18272
G01 X-0.53657 Y0.18765
G01 X-0.54179 Y0.19193
G01 X-0.54473 Y0.19351
G01 X-0.54532 Y0.19462
G01 X-0.54907 Y0.20023
G01 X-0.55207 Y0.20363
G01 X-0.60679 Y0.25835
G01 X-0.60679 Y0.33652
G01 X-0.60707 Y0.34104
G01 X-0.60872 Y0.34878
G01 X-0.61185 Y0.35604
G01 X-0.61634 Y0.36255
G01 X-0.61861 Y0.36505
G01 X-0.66243 Y0.40888
G01 X-0.66311 Y0.40898
G01 X-0.66243 Y0.40888
G01 X-0.65642 Y0.41235
G01 X-0.64977 Y0.41718
G01 X-0.64683 Y0.41983
G01 X-0.64595 Y0.41924
G01 X-0.63842 Y0.41545
G01 X-0.63577 Y0.41450
G01 X-0.62753 Y0.41265
G01 X-0.62221 Y0.41230
G01 X-0.60208 Y0.41235
G01 X-0.59544 Y0.41301
G01 X-0.59359 Y0.41338
G01 X-0.58713 Y0.41534
G01 X-0.58539 Y0.41606
G01 X-0.57944 Y0.41924
G01 X-0.57883 Y0.42013
G01 X-0.57923 Y0.41938
G01 X-0.57923 Y0.33219
G01 X-0.57895 Y0.32766
G01 X-0.57763 Y0.32103
G01 X-0.57471 Y0.31369
G01 X-0.57042 Y0.30705
G01 X-0.56968 Y0.30616
G01 X-0.56741 Y0.30365
G01 X-0.53474 Y0.27098
G01 X-0.53474 Y0.19478
G01 X-0.53408 Y0.18806
G01 X-0.53237 Y0.18243
G01 X-0.52869 Y0.17535
G01 X-0.52465 Y0.17042
G01 X-0.51943 Y0.16614
G01 X-0.51348 Y0.16296
G01 X-0.50702 Y0.16100
G01 X-0.50029 Y0.16033
G01 X-0.46092 Y0.16033
G01 X-0.45420 Y0.16100
G01 X-0.44774 Y0.16296
G01 X-0.44179 Y0.16614
G01 X-0.43657 Y0.17042
G01 X-0.43252 Y0.17535
G01 X-0.42869 Y0.18272
G01 X-0.42465 Y0.18765
G01 X-0.42096 Y0.19068
G01 X-0.42096 Y0.25856
G01 X-0.42080 Y0.26194
G01 X-0.41937 Y0.26972
G01 X-0.41903 Y0.27082
G01 X-0.41645 Y0.27706
G01 X-0.41566 Y0.27845
G01 X-0.41491 Y0.27885
G01 X-0.41566 Y0.27845
G01 X-0.42648 Y0.27845
G01 X-0.42688 Y0.27885
G01 X-0.42648 Y0.27845
G01 X-0.42648 Y0.19478
G01 X-0.42714 Y0.18806
G01 X-0.42885 Y0.18243
G01 X-0.43237 Y0.17564
G01 X-0.43408 Y0.17001
G01 X-0.43474 Y0.16329
G01 X-0.43474 Y0.06447
G01 X-0.43408 Y0.05775
G01 X-0.43212 Y0.05129
G01 X-0.42894 Y0.04533
G01 X-0.42465 Y0.04011
G01 X-0.41943 Y0.03583
G01 X-0.41348 Y0.03264
G01 X-0.40702 Y0.03068
G01 X-0.40029 Y0.03002
G01 X-0.36092 Y0.03002
G01 X-0.35420 Y0.03068
G01 X-0.34774 Y0.03264
G01 X-0.34179 Y0.03583
G01 X-0.33657 Y0.04011
G01 X-0.33228 Y0.04533
G01 X-0.32910 Y0.05129
G01 X-0.32714 Y0.05775
G01 X-0.32648 Y0.06447
G01 X-0.32648 Y0.16329
G01 X-0.32714 Y0.17001
G01 X-0.32885 Y0.17564
G01 X-0.33252 Y0.18272
G01 X-0.33657 Y0.18765
G01 X-0.34025 Y0.19067
G01 X-0.34025 Y0.24185
G01 X-0.33474 Y0.24736
G01 X-0.33434 Y0.24833
G01 X-0.33474 Y0.24736
G01 X-0.33474 Y0.19478
G01 X-0.33408 Y0.18806
G01 X-0.33237 Y0.18243
G01 X-0.32869 Y0.17535
G01 X-0.32465 Y0.17042
G01 X-0.31943 Y0.16614
G01 X-0.31348 Y0.16296
G01 X-0.30702 Y0.16100
G01 X-0.30029 Y0.16033
G01 X-0.26092 Y0.16033
G01 X-0.25420 Y0.16100
G01 X-0.24774 Y0.16296
G01 X-0.24179 Y0.16614
G01 X-0.23657 Y0.17042
G01 X-0.23228 Y0.17564
G01 X-0.22910 Y0.18160
G01 X-0.22714 Y0.18806
G01 X-0.22648 Y0.19478
G01 X-0.22648 Y0.29360
G01 X-0.22714 Y0.30032
G01 X-0.22748 Y0.30147
G01 X-0.16389 Y0.36506
G01 X-0.11281 Y0.36506
G01 X-0.10829 Y0.36534
G01 X-0.10166 Y0.36666
G01 X-0.09431 Y0.36958
G01 X-0.08768 Y0.37387
G01 X-0.08428 Y0.37688
G01 X-0.04184 Y0.41932
G01 X-0.03957 Y0.42183
G01 X-0.03508 Y0.42834
G01 X-0.03195 Y0.43560
G01 X-0.03030 Y0.44333
G01 X-0.03002 Y0.44785
G01 X-0.03002 Y0.72313
G01 X-0.03018 Y0.72651
G01 X-0.03161 Y0.73428
G01 X-0.03195 Y0.73539
G01 X-0.03508 Y0.74265
G01 X-0.04061 Y0.75027
G01 X-0.04449 Y0.75431
G01 X-0.04838 Y0.75782
G01 X-0.05400 Y0.76157
G01 X-0.06126 Y0.76470
G01 X-0.06899 Y0.76636
G01 X-0.07352 Y0.76664
G01 X-0.31151 Y0.76664
G01 X-0.31604 Y0.76636
G01 X-0.32267 Y0.76504
G01 X-0.32333 Y0.76484
G01 X-0.32373 Y0.76429
G01 X-0.32333 Y0.76484
G01 X-0.32333 Y0.83258
G01 X-0.32399 Y0.83930
G01 X-0.32595 Y0.84576
G01 X-0.32913 Y0.85172
G01 X-0.33342 Y0.85694
G01 X-0.33864 Y0.86122
G01 X-0.34459 Y0.86441
G01 X-0.35105 Y0.86637
G01 X-0.35777 Y0.86703
G01 X-0.48376 Y0.86703
G01 X-0.49048 Y0.86637
G01 X-0.49694 Y0.86441
G01 X-0.50290 Y0.86122
G01 X-0.50812 Y0.85694
G01 X-0.51240 Y0.85172
G01 X-0.51559 Y0.84576
G01 X-0.51755 Y0.83930
G01 X-0.51821 Y0.83258
G01 X-0.51821 Y0.75384
G01 X-0.51755 Y0.74712
G01 X-0.51559 Y0.74066
G01 X-0.51240 Y0.73470
G01 X-0.50812 Y0.72948
G01 X-0.50290 Y0.72520
G01 X-0.49694 Y0.72201
G01 X-0.49048 Y0.72005
G01 X-0.48376 Y0.71939
G01 X-0.38502 Y0.71939
G04 P0 ( dwell for no time -- G64 should not smooth over this point )
G00 Z0.05906 ( retract )

G00 X-0.54640 Y0.60545 ( rapid move to begin. )
G01 F19.68504
( Mill infeed pass 1/1 )
G01 Z-0.00354
G04 P0 ( dwell for no time -- G64 should not smooth over this point )
G01 F39.37008
G01 X-0.54640 Y0.60545
G01 X-0.54725 Y0.60574
G01 X-0.54914 Y0.60546
G01 X-0.55409 Y0.60435
G01 X-0.55881 Y0.60252
G01 X-0.56110 Y0.60144
G01 X-0.56950 Y0.59583
G01 X-0.57137 Y0.59413
G01 X-0.57689 Y0.58774
G01 X-0.57782 Y0.58634
G01 X-0.58101 Y0.58038
G01 X-0.58165 Y0.57882
G01 X-0.58390 Y0.57070
G01 X-0.58427 Y0.56820
G01 X-0.58464 Y0.56314
G01 X-0.58464 Y0.54296
G01 X-0.58448 Y0.53958
G01 X-0.58431 Y0.53790
G01 X-0.58279 Y0.53113
G01 X-0.58223 Y0.53044
G01 X-0.58279 Y0.53113
G01 X-0.59105 Y0.53455
G01 X-0.59378 Y0.53524
G01 X-0.60208 Y0.53627
G01 X-0.62221 Y0.53632
G01 X-0.62734 Y0.53595
G01 X-0.63013 Y0.53553
G01 X-0.63826 Y0.53328
G01 X-0.64000 Y0.53256
G01 X-0.64676 Y0.52873
G01 X-0.64977 Y0.53144
G01 X-0.65642 Y0.53628
G01 X-0.66266 Y0.53988
G01 X-0.67018 Y0.54322
G01 X-0.67703 Y0.54545
G01 X-0.68508 Y0.54716
G01 X-0.69224 Y0.54791
G01 X-0.70047 Y0.54791
G01 X-0.70764 Y0.54716
G01 X-0.71112 Y0.54642
G01 X-0.71152 Y0.54593
G01 X-0.71112 Y0.54642
G01 X-0.71112 Y0.59905
G01 X-0.70764 Y0.59831
G01 X-0.70047 Y0.59756
G01 X-0.69224 Y0.59756
G01 X-0.68508 Y0.59831
G01 X-0.67703 Y0.60002
G01 X-0.67018 Y0.60225
G01 X-0.66266 Y0.60560
G01 X-0.65642 Y0.60920
G01 X-0.64977 Y0.61403
G01 X-0.64441 Y0.61885
G01 X-0.63891 Y0.62497
G01 X-0.63467 Y0.63081
G01 X-0.57232 Y0.63081
G01 X-0.54725 Y0.60574
G04 P0 ( dwell for no time -- G64 should not smooth over this point )
G00 Z0.05906 ( retract )

G00 X-0.39547 Y0.42608 ( rapid move to begin. )
G01 F19.68504
( Mill infeed pass 1/1 )
G01 Z-0.00354
G04 P0 ( dwell for no time -- G64 should not smooth over this point )
G01 F39.37008
G01 X-0.39547 Y0.42608
G01 X-0.39972 Y0.42908
G01 X-0.40159 Y0.43078
G01 X-0.40800 Y0.43858
G01 X-0.40930 Y0.44075
G01 X-0.41272 Y0.44847
G01 X-0.41321 Y0.45008
G01 X-0.41453 Y0.45672
G01 X-0.41486 Y0.46176
G01 X-0.41486 Y0.47899
G01 X-0.41449 Y0.48404
G01 X-0.41412 Y0.48654
G01 X-0.41119 Y0.49621
G01 X-0.41037 Y0.49793
G01 X-0.40974 Y0.49833
G01 X-0.41037 Y0.49793
G01 X-0.45029 Y0.49793
G01 X-0.45482 Y0.49821
G01 X-0.46145 Y0.49953
G01 X-0.46273 Y0.49994
G01 X-0.47949 Y0.49990
G01 X-0.48603 Y0.50048
G01 X-0.48671 Y0.50114
G01 X-0.48621 Y0.50065
G01 X-0.48558 Y0.49752
G01 X-0.48524 Y0.49227
G01 X-0.48524 Y0.45635
G01 X-0.48558 Y0.45111
G01 X-0.48743 Y0.44287
G01 X-0.48838 Y0.44022
G01 X-0.49314 Y0.43131
G01 X-0.49482 Y0.42905
G01 X-0.49852 Y0.42516
G01 X-0.49852 Y0.42257
G01 X-0.49892 Y0.42189
G01 X-0.49849 Y0.42263
G01 X-0.49694 Y0.42346
G01 X-0.49048 Y0.42542
G01 X-0.48376 Y0.42608
G01 X-0.39547 Y0.42608
G01 X-0.39421 Y0.42568
G04 P0 ( dwell for no time -- G64 should not smooth over this point )
G00 Z0.05906 ( retract )

G00 X-0.33317 Y0.41550 ( rapid move to begin. )
G01 F19.68504
( Mill infeed pass 1/1 )
G01 Z-0.00354
G04 P0 ( dwell for no time -- G64 should not smooth over this point )
G01 F39.37008
G01 X-0.33317 Y0.41550
G01 X-0.33317 Y0.42298
G01 X-0.33833 Y0.42084
G01 X-0.33914 Y0.42059
G01 X-0.34040 Y0.42077
G01 X-0.33926 Y0.42061
G01 X-0.33864 Y0.42028
G01 X-0.33342 Y0.41599
G01 X-0.33277 Y0.41455
G04 P0 ( dwell for no time -- G64 should not smooth over this point )
G00 Z0.05906 ( retract )

G00 X-0.25286 Y0.38967 ( rapid move to begin. )
G01 F19.68504
( Mill infeed pass 1/1 )
G01 Z-0.00354
G04 P0 ( dwell for no time -- G64 should not smooth over this point )
G01 F39.37008
G01 X-0.25286 Y0.38967
G01 X-0.25246 Y0.39063
G01 X-0.23069 Y0.41241
G01 X-0.22976 Y0.41276
G01 X-0.23069 Y0.41241
G01 X-0.23383 Y0.41265
G01 X-0.24046 Y0.41397
G01 X-0.24226 Y0.41452
G01 X-0.24851 Y0.41710
G01 X-0.25017 Y0.41799
G01 X-0.25246 Y0.41961
G01 X-0.25286 Y0.42037
G01 X-0.25246 Y0.41961
G01 X-0.25246 Y0.39063

G00 Z0.39370 (Retract to tool change height)
T1
M5      (Spindle stop.)
G04 P1.00000 (Wait for spindle to stop)
(MSG, Change tool bit to mill diameter 0.03346in)
M6      (Tool change.)
M0      (Temporary machine stop.)
M3 ( Spindle on clockwise. )
G04 P1.00000 (Wait for spindle to get up to speed)
G04 P0 ( dwell for no time -- G64 should not smooth over this point )
G00 Z0.05906 ( retract )

G00 X-0.17350 Y0.61132 ( rapid move to begin. )
G01 F19.68504
( Mill infeed pass 1/1 )
G01 Z-0.00354
G04 P0 ( dwell for no time -- G64 should not smooth over this point )
G01 F39.37008
G01 X-0.17350 Y0.61132
G01 X-0.17403 Y0.61115
G01 X-0.17789 Y0.61334
G01 X-0.18091 Y0.61270
G01 X-0.17789 Y0.61334
G01 X-0.18087 Y0.61578
G01 X-0.18504 Y0.62175
G01 X-0.18578 Y0.62313
G01 X-0.18706 Y0.62738
G01 X-0.18731 Y0.62991
G01 X-0.19074 Y0.62695
G01 X-0.19230 Y0.62591
G01 X-0.19466 Y0.62472
G01 X-0.20070 Y0.62229
G01 X-0.20531 Y0.62126
G01 X-0.20940 Y0.62097
G01 X-0.22859 Y0.62097
G01 X-0.23268 Y0.62126
G01 X-0.23723 Y0.62228
G01 X-0.23210 Y0.61527
G01 X-0.22859 Y0.61506
G01 X-0.20940 Y0.61506
G01 X-0.20604 Y0.61525
G04 P0 ( dwell for no time -- G64 should not smooth over this point )
G00 Z0.05906 ( retract )

G00 X-0.25590 Y0.63697 ( rapid move to begin. )
G01 F19.68504
( Mill infeed pass 1/1 )
G01 Z-0.00354
G04 P0 ( dwell for no time -- G64 should not smooth over this point )
G01 F39.37008
G01 X-0.25590 Y0.63697
G01 X-0.25590 Y0.63625
G01 X-0.25774 Y0.63351
G01 X-0.25886 Y0.63215
G01 X-0.25884 Y0.63098
G01 X-0.25886 Y0.63215
G01 X-0.26067 Y0.63040
G01 X-0.26727 Y0.62497
G01 X-0.27440 Y0.62230
G01 X-0.27786 Y0.62145
G01 X-0.28228 Y0.62101
G01 X-0.30335 Y0.62101
G01 X-0.30777 Y0.62145
G01 X-0.30961 Y0.62181
G01 X-0.31487 Y0.62355
G01 X-0.31742 Y0.62476
G01 X-0.32211 Y0.62773
G01 X-0.32249 Y0.62804
G01 X-0.32398 Y0.63004
G01 X-0.32303 Y0.62878
G01 X-0.32171 Y0.62558
G01 X-0.32109 Y0.62312
G01 X-0.32041 Y0.61768
G01 X-0.32038 Y0.60130
G01 X-0.18036 Y0.60128
G01 X-0.17695 Y0.60720
G01 X-0.17417 Y0.61103
G01 X-0.17331 Y0.61137
G01 X-0.17417 Y0.61103
G01 X-0.17669 Y0.60756
G01 X-0.18276 Y0.60633
G01 X-0.20411 Y0.60718
G01 X-0.31449 Y0.60718
G01 X-0.31621 Y0.60546
G01 X-0.31449 Y0.60718
G01 X-0.31450 Y0.61219
G01 X-0.32080 Y0.62074
G01 X-0.32109 Y0.62312
G01 X-0.32171 Y0.62558
G01 X-0.32303 Y0.62878
G01 X-0.32211 Y0.62773
G01 X-0.31742 Y0.62476
G01 X-0.31589 Y0.62403
G01 X-0.30986 Y0.61584
G01 X-0.30335 Y0.61511
G01 X-0.28228 Y0.61511
G01 X-0.27886 Y0.61544
G01 X-0.26727 Y0.62497
G01 X-0.25167 Y0.63081
G01 X-0.25335 Y0.63267
G01 X-0.25590 Y0.63630
G01 X-0.25590 Y0.63699
G01 X-0.25590 Y0.63630
G01 X-0.25295 Y0.63223
G01 X-0.25294 Y0.63122
G04 P0 ( dwell for no time -- G64 should not smooth over this point )
G00 Z0.05906 ( retract )

G00 X-0.20593 Y0.53021 ( rapid move to begin. )
G01 F19.68504
( Mill infeed pass 1/1 )
G01 Z-0.00354
G04 P0 ( dwell for no time -- G64 should not smooth over this point )
G01 F39.37008
G01 X-0.20593 Y0.53021
G01 X-0.20940 Y0.53041
G01 X-0.22859 Y0.53041
G01 X-0.23210 Y0.53020
G01 X-0.23723 Y0.52320
G01 X-0.23269 Y0.52421
G01 X-0.22859 Y0.52451
G01 X-0.20940 Y0.52451
G01 X-0.20530 Y0.52421
G01 X-0.20073 Y0.52319
G01 X-0.16893 Y0.52057
G01 X-0.16660 Y0.52057
G01 X-0.16514 Y0.52188
G01 X-0.16288 Y0.52352
G01 X-0.16514 Y0.52516
G01 X-0.16866 Y0.52833
G01 X-0.17116 Y0.53111
G01 X-0.17829 Y0.54061
G01 X-0.18036 Y0.54419
G01 X-0.31544 Y0.54419
G01 X-0.32041 Y0.53923
G01 X-0.32037 Y0.52382
G01 X-0.32065 Y0.51988
G01 X-0.32108 Y0.51827
G01 X-0.31743 Y0.52071
G01 X-0.31540 Y0.52167
G01 X-0.31408 Y0.52374
G01 X-0.30981 Y0.52964
G01 X-0.30342 Y0.53037
G01 X-0.28328 Y0.53041
G01 X-0.27886 Y0.53008
G01 X-0.26035 Y0.51483
G01 X-0.25885 Y0.51300
G01 X-0.25882 Y0.51435
G01 X-0.25885 Y0.51300
G01 X-0.25638 Y0.51000
G01 X-0.25594 Y0.50911
G01 X-0.25294 Y0.51326
G01 X-0.25292 Y0.51428
G01 X-0.25294 Y0.51326
G01 X-0.25168 Y0.51464
G01 X-0.25334 Y0.51281
G01 X-0.25594 Y0.50911
G01 X-0.25594 Y0.50843
G01 X-0.25595 Y0.50927
G01 X-0.25638 Y0.51000
G01 X-0.26035 Y0.51483
G01 X-0.27886 Y0.53008
G01 X-0.28328 Y0.53041
G01 X-0.30342 Y0.53037
G01 X-0.30981 Y0.52964
G01 X-0.31408 Y0.52374
G01 X-0.31540 Y0.52167
G01 X-0.30961 Y0.52366
G01 X-0.30777 Y0.52403
G01 X-0.30340 Y0.52446
G01 X-0.28327 Y0.52451
G01 X-0.27990 Y0.52426
G01 X-0.27465 Y0.52330
G01 X-0.27990 Y0.52426
G01 X-0.28327 Y0.52451
G01 X-0.30340 Y0.52446
G01 X-0.30777 Y0.52403
G01 X-0.30961 Y0.52366
G01 X-0.31488 Y0.52192
G01 X-0.31743 Y0.52071
G01 X-0.32108 Y0.51827
G01 X-0.32160 Y0.51743
G01 X-0.32096 Y0.51847
G01 X-0.32065 Y0.51988
G01 X-0.32038 Y0.52485
G01 X-0.31892 Y0.52713
G01 X-0.31449 Y0.53323
G01 X-0.31450 Y0.53679
G01 X-0.31495 Y0.53697
G01 X-0.31450 Y0.53679
G01 X-0.31299 Y0.53829
G01 X-0.31318 Y0.53874
G01 X-0.31299 Y0.53829
G01 X-0.20413 Y0.53829
G01 X-0.17026 Y0.52648
G01 X-0.16660 Y0.52648
G01 X-0.16514 Y0.52516
G01 X-0.16288 Y0.52352
G01 X-0.16220 Y0.52352
G01 X-0.16288 Y0.52352
G01 X-0.16514 Y0.52188
G01 X-0.16866 Y0.51872
G01 X-0.17417 Y0.51260
G01 X-0.17695 Y0.50877
G01 X-0.17957 Y0.50422
G01 X-0.18057 Y0.50662
G01 X-0.18146 Y0.50828
G01 X-0.18521 Y0.51343
G01 X-0.17938 Y0.51248
G01 X-0.17938 Y0.51222
G04 P0 ( dwell for no time -- G64 should not smooth over this point )
G00 Z0.05906 ( retract )

G00 X-0.17646 Y0.43918 ( rapid move to begin. )
G01 F19.68504
( Mill infeed pass 1/1 )
G01 Z-0.00354
G04 P0 ( dwell for no time -- G64 should not smooth over this point )
G01 F39.37008
G01 X-0.17646 Y0.43918
G01 X-0.17957 Y0.44440
G01 X-0.18057 Y0.44200
G01 X-0.18146 Y0.44034
G01 X-0.18392 Y0.43666
G01 X-0.18511 Y0.43520
G01 X-0.18724 Y0.43307
G01 X-0.18847 Y0.43240
G01 X-0.18721 Y0.43309
G01 X-0.18283 Y0.43385
G01 X-0.17928 Y0.43399
G01 X-0.17230 Y0.43396
G01 X-0.17141 Y0.43356
G01 X-0.17230 Y0.43396
G01 X-0.17417 Y0.43602
G01 X-0.17646 Y0.43918
G01 X-0.17802 Y0.43995
G01 X-0.17910 Y0.44026
G01 X-0.17909 Y0.44069
G01 X-0.17910 Y0.44026
G01 X-0.18022 Y0.44013
G01 X-0.18231 Y0.43906
G04 P0 ( dwell for no time -- G64 should not smooth over this point )
G00 Z0.05906 ( retract )

G00 X-0.20769 Y0.41870 ( rapid move to begin. )
G01 F19.68504
( Mill infeed pass 1/1 )
G01 Z-0.00354
G04 P0 ( dwell for no time -- G64 should not smooth over this point )
G01 F39.37008
G01 X-0.20769 Y0.41870
G01 X-0.26427 Y0.36212
G01 X-0.26467 Y0.36115
G01 X-0.26427 Y0.36212
G01 X-0.26427 Y0.43034
G01 X-0.26112 Y0.43292
G01 X-0.25979 Y0.43425
G01 X-0.25698 Y0.43768
G01 X-0.25593 Y0.43925
G01 X-0.25586 Y0.44022
G01 X-0.25587 Y0.43936
G01 X-0.25543 Y0.43862
G01 X-0.25295 Y0.43561
G01 X-0.25295 Y0.43245
G01 X-0.25295 Y0.43561
G01 X-0.25121 Y0.43349
G01 X-0.24960 Y0.43203
G01 X-0.25121 Y0.43349
G01 X-0.25543 Y0.43862
G01 X-0.25587 Y0.43936
G01 X-0.25587 Y0.44013
G01 X-0.25593 Y0.43925
G01 X-0.25698 Y0.43768
G01 X-0.25886 Y0.43539
G01 X-0.26007 Y0.37997
G01 X-0.26427 Y0.36983
G01 X-0.26427 Y0.36212
G01 X-0.25882 Y0.36757
G01 X-0.25462 Y0.37771
G01 X-0.21779 Y0.41449
G01 X-0.20769 Y0.41870
G01 X-0.20117 Y0.42522
G01 X-0.19890 Y0.42652
G01 X-0.20039 Y0.42565
G01 X-0.20329 Y0.42477
G01 X-0.20608 Y0.42436
G01 X-0.21004 Y0.42412
G01 X-0.22005 Y0.41994
G01 X-0.21004 Y0.42412
G01 X-0.22564 Y0.42412
G04 P0 ( dwell for no time -- G64 should not smooth over this point )
G00 Z0.05906 ( retract )

G00 X-0.16655 Y0.37687 ( rapid move to begin. )
G01 F19.68504
( Mill infeed pass 1/1 )
G01 Z-0.00354
G04 P0 ( dwell for no time -- G64 should not smooth over this point )
G01 F39.37008
G01 X-0.16655 Y0.37687
G01 X-0.16879 Y0.37687
G01 X-0.24119 Y0.30447
G01 X-0.24001 Y0.30227
G01 X-0.23955 Y0.30077
G04 P0 ( dwell for no time -- G64 should not smooth over this point )
G00 Z0.05906 ( retract )

G00 X-0.34912 Y0.18252 ( rapid move to begin. )
G01 F19.68504
( Mill infeed pass 1/1 )
G01 Z-0.00354
G04 P0 ( dwell for no time -- G64 should not smooth over this point )
G01 F39.37008
G01 X-0.34912 Y0.18252
G01 X-0.35207 Y0.18410
G01 X-0.35207 Y0.18801
G01 X-0.34031 Y0.25512
G01 X-0.33258 Y0.26029
G01 X-0.32839 Y0.27042
G01 X-0.32293 Y0.27587
G01 X-0.32293 Y0.26816
G01 X-0.32713 Y0.25803
G01 X-0.32293 Y0.26816
G01 X-0.32293 Y0.25230
G01 X-0.32293 Y0.27587
G01 X-0.32253 Y0.27684
G01 X-0.32293 Y0.27587
G01 X-0.33960 Y0.25921
G01 X-0.34031 Y0.25512
G01 X-0.35048 Y0.24832
G01 X-0.35207 Y0.24674
G01 X-0.35207 Y0.24450
G04 P0 ( dwell for no time -- G64 should not smooth over this point )
G00 Z0.05906 ( retract )

G00 X-0.39700 Y0.29026 ( rapid move to begin. )
G01 F19.68504
( Mill infeed pass 1/1 )
G01 Z-0.00354
G04 P0 ( dwell for no time -- G64 should not smooth over this point )
G01 F39.37008
G01 X-0.39700 Y0.29026
G01 X-0.43829 Y0.29026
G01 X-0.43869 Y0.29066
G01 X-0.43829 Y0.29026
G01 X-0.43829 Y0.28608
G01 X-0.43725 Y0.28505
G01 X-0.43829 Y0.28608
G01 X-0.43829 Y0.28282
G01 X-0.43829 Y0.29026
G01 X-0.43411 Y0.29026
G01 X-0.43308 Y0.28922
G01 X-0.40566 Y0.28667
G01 X-0.39700 Y0.29026
G01 X-0.38928 Y0.29026
G01 X-0.38832 Y0.29066
G01 X-0.38928 Y0.29026
G01 X-0.39474 Y0.28480
G01 X-0.40310 Y0.28134
G01 X-0.39474 Y0.28480
G01 X-0.40079 Y0.27875
G01 X-0.40317 Y0.27597
G04 P0 ( dwell for no time -- G64 should not smooth over this point )
G00 Z0.05906 ( retract )

G00 X-0.40915 Y0.18801 ( rapid move to begin. )
G01 F19.68504
( Mill infeed pass 1/1 )
G01 Z-0.00354
G04 P0 ( dwell for no time -- G64 should not smooth over this point )
G01 F39.37008
G01 X-0.40915 Y0.18801
G01 X-0.40915 Y0.18410
G01 X-0.41210 Y0.18252
G04 P0 ( dwell for no time -- G64 should not smooth over this point )
G00 Z0.05906 ( retract )

G00 X-0.55261 Y0.18431 ( rapid move to begin. )
G01 F19.68504
( Mill infeed pass 1/1 )
G01 Z-0.00354
G04 P0 ( dwell for no time -- G64 should not smooth over this point )
G01 F39.37008
G01 X-0.55261 Y0.18431
G01 X-0.55380 Y0.18467
G01 X-0.55453 Y0.18643
G01 X-0.52293 Y0.27364
G01 X-0.52293 Y0.27587
G01 X-0.52451 Y0.27745
G01 X-0.52293 Y0.27587
G01 X-0.52293 Y0.27364
G01 X-0.61860 Y0.25570
G01 X-0.61860 Y0.25346
G01 X-0.61702 Y0.25187
G01 X-0.61860 Y0.25346
G01 X-0.61860 Y0.25570
G01 X-0.56742 Y0.42413
G01 X-0.56742 Y0.43034
G01 X-0.57057 Y0.43292
G01 X-0.57283 Y0.43539
G01 X-0.57283 Y0.43064
G01 X-0.57283 Y0.43539
G01 X-0.57471 Y0.43768
G01 X-0.57576 Y0.43925
G01 X-0.57583 Y0.44022
G01 X-0.57582 Y0.43936
G01 X-0.57626 Y0.43862
G01 X-0.57874 Y0.43545
G01 X-0.57874 Y0.43220
G01 X-0.57874 Y0.43545
G01 X-0.57967 Y0.43425
G01 X-0.58100 Y0.43292
G01 X-0.58255 Y0.43166
G01 X-0.57967 Y0.43425
G01 X-0.57582 Y0.43937
G01 X-0.57471 Y0.43768
G01 X-0.57190 Y0.43425
G01 X-0.57057 Y0.43292
G01 X-0.56742 Y0.43034
G01 X-0.56742 Y0.42413
G01 X-0.67518 Y0.40833
G01 X-0.67966 Y0.40939
G01 X-0.68402 Y0.41376
G01 X-0.68482 Y0.41400
G01 X-0.68402 Y0.41376
G01 X-0.67948 Y0.41472
G01 X-0.67824 Y0.41513
G01 X-0.67404 Y0.41412
G01 X-0.67824 Y0.41513
G01 X-0.67498 Y0.41619
G01 X-0.67141 Y0.41778
G01 X-0.67498 Y0.41619
G01 X-0.67948 Y0.41472
G01 X-0.68402 Y0.41376
G01 X-0.67400 Y0.40374
G01 X-0.67966 Y0.40939
G01 X-0.67518 Y0.40833
G01 X-0.64196 Y0.43093
G01 X-0.64439 Y0.43292
G01 X-0.64572 Y0.43425
G01 X-0.64744 Y0.43635
G01 X-0.65276 Y0.43038
G04 P0 ( dwell for no time -- G64 should not smooth over this point )
G00 Z0.05906 ( retract )

G00 X-0.58487 Y0.51870 ( rapid move to begin. )
G01 F19.68504
( Mill infeed pass 1/1 )
G01 Z-0.00354
G04 P0 ( dwell for no time -- G64 should not smooth over this point )
G01 F39.37008
G01 X-0.58487 Y0.51870
G01 X-0.58024 Y0.51490
G01 X-0.57871 Y0.51321
G01 X-0.57879 Y0.51887
G01 X-0.57871 Y0.51321
G01 X-0.57578 Y0.50916
G01 X-0.57579 Y0.50829
G01 X-0.57578 Y0.50912
G01 X-0.57512 Y0.51028
G01 X-0.57281 Y0.51321
G01 X-0.57289 Y0.51888
G01 X-0.57284 Y0.52225
G01 X-0.57272 Y0.52228
G01 X-0.57284 Y0.52225
G01 X-0.57288 Y0.52272
G01 X-0.57281 Y0.51321
G01 X-0.57344 Y0.51254
G01 X-0.56962 Y0.51656
G01 X-0.56742 Y0.51825
G01 X-0.56742 Y0.52546
G01 X-0.56800 Y0.52633
G01 X-0.57016 Y0.53061
G01 X-0.64361 Y0.63893
G01 X-0.64149 Y0.64262
G01 X-0.56743 Y0.64262
G01 X-0.51860 Y0.59378
G01 X-0.51726 Y0.59301
G01 X-0.51860 Y0.59378
G01 X-0.52104 Y0.59415
G01 X-0.52436 Y0.59439
G01 X-0.52692 Y0.59439
G01 X-0.53659 Y0.59840
G01 X-0.52692 Y0.59439
G01 X-0.54142 Y0.59439
G01 X-0.52436 Y0.59439
G01 X-0.52104 Y0.59415
G01 X-0.51860 Y0.59378
G01 X-0.52466 Y0.59985
G01 X-0.53440 Y0.60388
G01 X-0.72100 Y0.53840
G01 X-0.72293 Y0.53554
G01 X-0.72293 Y0.53012
G01 X-0.71773 Y0.53244
G01 X-0.71307 Y0.53393
G01 X-0.71798 Y0.53232
G01 X-0.71629 Y0.53483
G01 X-0.71798 Y0.53232
G01 X-0.72293 Y0.53012
G01 X-0.72333 Y0.52950
G01 X-0.72293 Y0.53012
G01 X-0.72293 Y0.60422
G01 X-0.71500 Y0.61215
G01 X-0.71323 Y0.61158
G01 X-0.71127 Y0.61116
G01 X-0.65272 Y0.51819
G01 X-0.64748 Y0.51232
G01 X-0.64658 Y0.51342
G01 X-0.64201 Y0.51765
G04 P0 ( dwell for no time -- G64 should not smooth over this point )
G00 Z0.05906 ( retract )

G00 X-0.75821 Y0.64967 ( rapid move to begin. )
G01 F19.68504
( Mill infeed pass 1/1 )
G01 Z-0.00354
G04 P0 ( dwell for no time -- G64 should not smooth over this point )
G01 F39.37008
G01 X-0.75821 Y0.64967
G01 X-0.75530 Y0.65259
G01 X-0.75635 Y0.65584
G04 P0 ( dwell for no time -- G64 should not smooth over this point )
G00 Z0.05906 ( retract )

G00 X-0.64362 Y0.70340 ( rapid move to begin. )
G01 F19.68504
( Mill infeed pass 1/1 )
G01 Z-0.00354
G04 P0 ( dwell for no time -- G64 should not smooth over this point )
G01 F39.37008
G01 X-0.64362 Y0.70340
G01 X-0.64149 Y0.69971
G01 X-0.63732 Y0.69971
G01 X-0.37839 Y0.73120
G01 X-0.35777 Y0.73120
G01 X-0.35491 Y0.73148
G01 X-0.35901 Y0.72941
G01 X-0.36892 Y0.72530
G01 X-0.37159 Y0.72530
G01 X-0.36892 Y0.72530
G01 X-0.35901 Y0.72941
G01 X-0.35491 Y0.73148
G01 X-0.35336 Y0.73164
G01 X-0.34911 Y0.73292
G01 X-0.34520 Y0.73502
G01 X-0.34177 Y0.73783
G01 X-0.33895 Y0.74126
G01 X-0.33686 Y0.74518
G01 X-0.33557 Y0.74942
G01 X-0.33546 Y0.75051
G01 X-0.33250 Y0.75597
G01 X-0.33514 Y0.76034
G01 X-0.33514 Y0.75384
G01 X-0.33557 Y0.74942
G01 X-0.33021 Y0.74782
G01 X-0.32750 Y0.75282
G01 X-0.32319 Y0.75222
G01 X-0.32547 Y0.75116
G01 X-0.33005 Y0.74796
G01 X-0.33170 Y0.74646
G01 X-0.35163 Y0.72653
G01 X-0.35664 Y0.72399
G01 X-0.36667 Y0.71984
G01 X-0.37057 Y0.71594
G01 X-0.37089 Y0.71594
G01 X-0.37057 Y0.71594
G01 X-0.37041 Y0.71560
G01 X-0.37057 Y0.71594
G01 X-0.36667 Y0.71984
G01 X-0.35664 Y0.72399
G01 X-0.35163 Y0.72653
G01 X-0.36812 Y0.71004
G01 X-0.37180 Y0.71004
G01 X-0.37565 Y0.70972
G04 P0 ( dwell for no time -- G64 should not smooth over this point )
G00 Z0.05906 ( retract )

G00 X-0.39292 Y0.63920 ( rapid move to begin. )
G01 F19.68504
( Mill infeed pass 1/1 )
G01 Z-0.00354
G04 P0 ( dwell for no time -- G64 should not smooth over this point )
G01 F39.37008
G01 X-0.39292 Y0.63920
G01 X-0.39351 Y0.63919
G01 X-0.39366 Y0.63933
G01 X-0.39593 Y0.64210
G01 X-0.39629 Y0.64209
G01 X-0.39593 Y0.64210
G01 X-0.39651 Y0.64280
G01 X-0.39366 Y0.63933
G01 X-0.39351 Y0.63919
G01 X-0.39279 Y0.63920
G01 X-0.39340 Y0.63919
G01 X-0.39573 Y0.63677
G01 X-0.43654 Y0.58111
G01 X-0.43651 Y0.58053
G01 X-0.43635 Y0.58033
G01 X-0.39885 Y0.57273
G01 X-0.39733 Y0.57273
G01 X-0.39836 Y0.57377
G01 X-0.39733 Y0.57273
G01 X-0.38909 Y0.56917
G01 X-0.39810 Y0.58286
G01 X-0.39646 Y0.58041
G01 X-0.39539 Y0.57911
G01 X-0.39225 Y0.57597
G01 X-0.39095 Y0.57490
G01 X-0.38726 Y0.57243
G01 X-0.38577 Y0.57164
G01 X-0.38231 Y0.57021
G01 X-0.38397 Y0.56970
G01 X-0.38626 Y0.56862
G01 X-0.38909 Y0.56683
G01 X-0.43135 Y0.56683
G01 X-0.43232 Y0.57165
G04 P0 ( dwell for no time -- G64 should not smooth over this point )
G00 Z0.05906 ( retract )

G00 X-0.38344 Y0.42018 ( rapid move to begin. )
G01 F19.68504
( Mill infeed pass 1/1 )
G01 Z-0.00354
G04 P0 ( dwell for no time -- G64 should not smooth over this point )
G01 F39.37008
G01 X-0.38344 Y0.42018
G01 X-0.37490 Y0.41952
G01 X-0.35785 Y0.41944
G01 X-0.35258 Y0.41918
G01 X-0.33895 Y0.40420
G01 X-0.33686 Y0.40030
G01 X-0.33557 Y0.39605
G01 X-0.33514 Y0.39163
G01 X-0.33514 Y0.34440
G01 X-0.32136 Y0.35818
G01 X-0.32136 Y0.43052
G01 X-0.32527 Y0.43373
G01 X-0.32716 Y0.43582
G01 X-0.32979 Y0.43955
G01 X-0.33248 Y0.43710
G01 X-0.34491 Y0.42913
G01 X-0.34633 Y0.43106
G01 X-0.34772 Y0.43079
G01 X-0.35162 Y0.43051
G01 X-0.37403 Y0.43062
G01 X-0.37571 Y0.43079
G01 X-0.38005 Y0.43165
G01 X-0.38166 Y0.43214
G01 X-0.38499 Y0.43352
G01 X-0.38166 Y0.43214
G01 X-0.38005 Y0.43165
G01 X-0.37571 Y0.43079
G01 X-0.37403 Y0.43062
G01 X-0.35162 Y0.43051
G01 X-0.34772 Y0.43079
G01 X-0.34633 Y0.43106
G01 X-0.34491 Y0.42913
G01 X-0.35141 Y0.42503
G01 X-0.35777 Y0.42534
G01 X-0.37472 Y0.42542
G01 X-0.38174 Y0.42603
G01 X-0.37472 Y0.42542
G01 X-0.35777 Y0.42534
G01 X-0.35141 Y0.42503
G01 X-0.34491 Y0.42913
G01 X-0.32665 Y0.40413
G01 X-0.32576 Y0.39925
G01 X-0.32529 Y0.39164
G01 X-0.32529 Y0.36104
G01 X-0.32552 Y0.35991
G01 X-0.32541 Y0.35988
G01 X-0.32552 Y0.35991
G01 X-0.32968 Y0.34986
G01 X-0.33514 Y0.34440
G01 X-0.33554 Y0.34344
G01 X-0.33514 Y0.34440
G01 X-0.33514 Y0.35211
G01 X-0.33120 Y0.36162
G01 X-0.33120 Y0.39155
G01 X-0.33161 Y0.39837
G01 X-0.33235 Y0.40251
G01 X-0.34929 Y0.41260
G01 X-0.35336 Y0.41384
G01 X-0.35777 Y0.41427
G01 X-0.39023 Y0.41427
G01 X-0.49719 Y0.50716
G01 X-0.50406 Y0.51374
G01 X-0.50482 Y0.51533
G01 X-0.50498 Y0.51528
G01 X-0.50482 Y0.51533
G01 X-0.50488 Y0.51867
G01 X-0.50196 Y0.52123
G01 X-0.50197 Y0.52195
G01 X-0.50196 Y0.52123
G01 X-0.50288 Y0.52031
G01 X-0.50632 Y0.51748
G01 X-0.50808 Y0.51636
G01 X-0.50499 Y0.51342
G01 X-0.50380 Y0.51197
G01 X-0.50134 Y0.50828
G01 X-0.50045 Y0.50662
G01 X-0.49872 Y0.50241
G01 X-0.50045 Y0.50662
G01 X-0.50134 Y0.50828
G01 X-0.50380 Y0.51197
G01 X-0.50499 Y0.51342
G01 X-0.50808 Y0.51636
G01 X-0.50632 Y0.51748
G01 X-0.50288 Y0.52031
G01 X-0.50196 Y0.52134
G01 X-0.49956 Y0.51903
G01 X-0.49404 Y0.51534
G01 X-0.49176 Y0.51426
G01 X-0.48809 Y0.51293
G01 X-0.49176 Y0.51426
G01 X-0.49404 Y0.51534
G01 X-0.49956 Y0.51903
G01 X-0.50196 Y0.52134
G01 X-0.49956 Y0.51903
G01 X-0.49897 Y0.51863
G01 X-0.49896 Y0.51709
G01 X-0.49290 Y0.51123
G01 X-0.39918 Y0.50431
G01 X-0.39614 Y0.50434
G01 X-0.39446 Y0.50230
G01 X-0.39356 Y0.50140
G01 X-0.39333 Y0.50140
G01 X-0.39539 Y0.49944
G01 X-0.39621 Y0.49843
G01 X-0.39766 Y0.49841
G01 X-0.39621 Y0.49843
G01 X-0.39792 Y0.49583
G01 X-0.39646 Y0.49813
G01 X-0.39539 Y0.49944
G01 X-0.39333 Y0.50140
G01 X-0.39276 Y0.50139
G01 X-0.39356 Y0.50140
G01 X-0.39446 Y0.50230
G01 X-0.39728 Y0.50573
G01 X-0.39822 Y0.50714
G01 X-0.39961 Y0.50974
G01 X-0.40578 Y0.50974
G01 X-0.50838 Y0.40915
G01 X-0.50687 Y0.41274
G01 X-0.50851 Y0.40872
G01 X-0.51033 Y0.40139
G01 X-0.51033 Y0.43037
G01 X-0.50887 Y0.43146
G01 X-0.51033 Y0.43037
G01 X-0.51033 Y0.34401
G01 X-0.50640 Y0.34007
G01 X-0.50600 Y0.33911
G01 X-0.50640 Y0.34007
G01 X-0.50640 Y0.39163
G01 X-0.50596 Y0.39605
G01 X-0.50467 Y0.40030
G01 X-0.50439 Y0.40082
G01 X-0.50283 Y0.40708
G01 X-0.50153 Y0.41020
G01 X-0.50283 Y0.40708
G01 X-0.50439 Y0.40082
G01 X-0.50258 Y0.40421
G01 X-0.49977 Y0.40764
G01 X-0.49679 Y0.41009
G04 P0 ( dwell for no time -- G64 should not smooth over this point )
G00 Z0.05906 ( retract )

G00 X-0.67727 Y0.32627 ( rapid move to begin. )
G01 F19.68504
( Mill infeed pass 1/1 )
G01 Z-0.00354
G04 P0 ( dwell for no time -- G64 should not smooth over this point )
G01 F39.37008
G01 X-0.67727 Y0.32627
G01 X-0.67569 Y0.32469
G01 X-0.67569 Y0.32246
G04 P0 ( dwell for no time -- G64 should not smooth over this point )
G00 Z0.05906 ( retract )

G00 X-0.62349 Y0.17762 ( rapid move to begin. )
G01 F19.68504
( Mill infeed pass 1/1 )
G01 Z-0.00354
G04 P0 ( dwell for no time -- G64 should not smooth over this point )
G01 F39.37008
G01 X-0.62349 Y0.17762
G01 X-0.62003 Y0.17415
G01 X-0.62121 Y0.17195
G01 X-0.62165 Y0.17050

G00 Z0.39370 (Retract to tool change height)
T2
M5      (Spindle stop.)
G04 P1.00000 (Wait for spindle to stop)
(MSG, Change tool bit to mill diameter 0.00984in)
M6      (Tool change.)
M0      (Temporary machine stop.)
M3 ( Spindle on clockwise. )
G04 P1.00000 (Wait for spindle to get up to speed)
G04 P0 ( dwell for no time -- G64 should not smooth over this point )
G00 Z0.05906 ( retract )

G00 X-0.17569 Y0.63355 ( rapid move to begin. )
G01 F19.68504
( Mill infeed pass 1/1 )
G01 Z-0.00354
G04 P0 ( dwell for no time -- G64 should not smooth over this point )
G01 F39.37008
G01 X-0.17569 Y0.63355
G01 X-0.17569 Y0.65443
G01 X-0.18091 Y0.65443
G01 X-0.18307 Y0.64437
G01 X-0.18307 Y0.64127
G01 X-0.18307 Y0.64437
G01 X-0.18418 Y0.64166
G01 X-0.19375 Y0.64021
G01 X-0.19187 Y0.64276
G01 X-0.19017 Y0.64638
G01 X-0.18921 Y0.65027
G01 X-0.18898 Y0.65443
G01 X-0.18091 Y0.65443
G04 P0 ( dwell for no time -- G64 should not smooth over this point )
G00 Z0.05906 ( retract )

G00 X-0.24657 Y0.70955 ( rapid move to begin. )
G01 F19.68504
( Mill infeed pass 1/1 )
G01 Z-0.00354
G04 P0 ( dwell for no time -- G64 should not smooth over this point )
G01 F39.37008
G01 X-0.24657 Y0.70955
G01 X-0.24730 Y0.70925
G01 X-0.24736 Y0.70947
G01 X-0.24730 Y0.70925
G01 X-0.25208 Y0.70697
G01 X-0.25787 Y0.70354
G01 X-0.25801 Y0.70369
G01 X-0.25787 Y0.70354
G01 X-0.25896 Y0.70250
G01 X-0.25955 Y0.70111
G01 X-0.25989 Y0.70121
G01 X-0.25955 Y0.70111
G01 X-0.25961 Y0.64852
G01 X-0.26427 Y0.64579
G01 X-0.26385 Y0.64690
G01 X-0.26316 Y0.64963
G01 X-0.26284 Y0.65226
G01 X-0.26284 Y0.69006
G01 X-0.26342 Y0.69402
G01 X-0.26403 Y0.69605
G01 X-0.26575 Y0.69966
G01 X-0.26814 Y0.70287
G01 X-0.27111 Y0.70555
G01 X-0.27455 Y0.70759
G01 X-0.27629 Y0.70831
G01 X-0.27884 Y0.70902
G01 X-0.28322 Y0.70955
G01 X-0.30241 Y0.70955
G01 X-0.30476 Y0.70937
G01 X-0.30458 Y0.70955
G01 X-0.19139 Y0.70955
G01 X-0.18759 Y0.70786
G01 X-0.18434 Y0.70612
G01 X-0.18091 Y0.70955
G01 X-0.17569 Y0.70955
G01 X-0.17569 Y0.68790
G01 X-0.18898 Y0.68790
G01 X-0.18921 Y0.69206
G01 X-0.19017 Y0.69594
G01 X-0.19187 Y0.69956
G01 X-0.19425 Y0.70278
G01 X-0.19720 Y0.70547
G01 X-0.19944 Y0.70689
G01 X-0.20198 Y0.70810
G01 X-0.20502 Y0.70902
G01 X-0.20781 Y0.70943
G01 X-0.20940 Y0.70955
G01 X-0.22859 Y0.70955
G01 X-0.23152 Y0.70931
G01 X-0.23360 Y0.70890
G01 X-0.23541 Y0.70835
G01 X-0.23903 Y0.70665
G01 X-0.24119 Y0.70513
G01 X-0.24367 Y0.70275
G01 X-0.24856 Y0.70048
G01 X-0.25220 Y0.69837
G01 X-0.25223 Y0.64855
G01 X-0.25220 Y0.69837
G01 X-0.24856 Y0.70048
G01 X-0.24367 Y0.70275
G01 X-0.24530 Y0.70078
G01 X-0.24746 Y0.69694
G01 X-0.24864 Y0.69269
G01 X-0.24897 Y0.69008
G01 X-0.24901 Y0.65321
G01 X-0.24878 Y0.65026
G01 X-0.24836 Y0.64818
G01 X-0.24761 Y0.64587
G01 X-0.24836 Y0.64818
G01 X-0.24878 Y0.65026
G01 X-0.24901 Y0.65321
G01 X-0.24897 Y0.69008
G01 X-0.24864 Y0.69269
G01 X-0.24746 Y0.69694
G01 X-0.24530 Y0.70078
G01 X-0.24328 Y0.70323
G01 X-0.24119 Y0.70513
G01 X-0.23903 Y0.70665
G01 X-0.23737 Y0.70754
G01 X-0.23360 Y0.70890
G01 X-0.23152 Y0.70931
G01 X-0.22859 Y0.70955
G01 X-0.20940 Y0.70955
G01 X-0.20502 Y0.70902
G01 X-0.20198 Y0.70810
G01 X-0.19944 Y0.70689
G01 X-0.19720 Y0.70547
G01 X-0.19574 Y0.70428
G01 X-0.19420 Y0.70272
G01 X-0.19083 Y0.70122
G01 X-0.18503 Y0.69802
G01 X-0.18366 Y0.69779
G01 X-0.18369 Y0.69725
G01 X-0.18366 Y0.69779
G01 X-0.18296 Y0.69788
G01 X-0.18168 Y0.69843
G01 X-0.18158 Y0.69825
G01 X-0.18168 Y0.69843
G01 X-0.17569 Y0.70433
G01 X-0.17569 Y0.70955
G01 X-0.19139 Y0.70955
G01 X-0.17569 Y0.70955
G01 X-0.17471 Y0.71053
G01 X-0.16978 Y0.71422
G01 X-0.16486 Y0.71545
G01 X-0.08612 Y0.71545
G01 X-0.08204 Y0.71461
G01 X-0.08120 Y0.71053
G01 X-0.08120 Y0.63179
G01 X-0.08243 Y0.62687
G01 X-0.08612 Y0.62195
G01 X-0.08711 Y0.62096
G01 X-0.08711 Y0.61575
G01 X-0.08744 Y0.61541
G01 X-0.08711 Y0.61469
G01 X-0.08711 Y0.61575
G01 X-0.08710 Y0.60480
G01 X-0.08558 Y0.60053
G01 X-0.08338 Y0.59230
G01 X-0.08164 Y0.58148
G01 X-0.08121 Y0.57325
G01 X-0.08164 Y0.56399
G01 X-0.08307 Y0.55463
G01 X-0.08558 Y0.54494
G01 X-0.08710 Y0.54067
G01 X-0.09110 Y0.53623
G01 X-0.09374 Y0.53402
G01 X-0.09944 Y0.52988
G01 X-0.10140 Y0.52875
G01 X-0.10892 Y0.52540
G01 X-0.11107 Y0.52470
G01 X-0.11662 Y0.52352
G01 X-0.11107 Y0.52234
G01 X-0.10892 Y0.52165
G01 X-0.10140 Y0.51830
G01 X-0.09944 Y0.51717
G01 X-0.09278 Y0.51233
G01 X-0.09110 Y0.51081
G01 X-0.08710 Y0.50637
G01 X-0.09110 Y0.51081
G01 X-0.09374 Y0.51302
G01 X-0.09717 Y0.51983
G01 X-0.10485 Y0.51983
G01 X-0.10892 Y0.52165
G01 X-0.11107 Y0.52234
G01 X-0.11662 Y0.52352
G01 X-0.13436 Y0.52352
G01 X-0.13991 Y0.52234
G01 X-0.14206 Y0.52165
G01 X-0.14958 Y0.51830
G01 X-0.15204 Y0.51680
G01 X-0.15065 Y0.51983
G01 X-0.14613 Y0.51983
G01 X-0.14206 Y0.52165
G01 X-0.13991 Y0.52234
G01 X-0.13436 Y0.52352
G01 X-0.13991 Y0.52470
G01 X-0.14206 Y0.52540
G01 X-0.14958 Y0.52875
G01 X-0.15204 Y0.53024
G01 X-0.15064 Y0.52721
G01 X-0.14613 Y0.52721
G01 X-0.14206 Y0.52540
G01 X-0.13991 Y0.52470
G01 X-0.13436 Y0.52352
G01 X-0.11662 Y0.52352
G01 X-0.11107 Y0.52470
G01 X-0.10892 Y0.52540
G01 X-0.10485 Y0.52721
G01 X-0.09717 Y0.52721
G01 X-0.09374 Y0.53402
G01 X-0.09110 Y0.53623
G01 X-0.08710 Y0.54067
G01 X-0.08711 Y0.53078
G01 X-0.09077 Y0.52352
G01 X-0.08711 Y0.51627
G01 X-0.08711 Y0.53078
G01 X-0.08710 Y0.50637
G01 X-0.08558 Y0.50211
G01 X-0.08307 Y0.49242
G01 X-0.08176 Y0.48419
G01 X-0.08121 Y0.47483
G01 X-0.08176 Y0.46443
G01 X-0.08338 Y0.45475
G01 X-0.08374 Y0.45339
G01 X-0.08796 Y0.44789
G01 X-0.09546 Y0.43998
G01 X-0.10291 Y0.43372
G01 X-0.10981 Y0.42898
G01 X-0.11684 Y0.42505
G01 X-0.11913 Y0.42457
G01 X-0.12138 Y0.42433
G01 X-0.12961 Y0.42433
G01 X-0.13186 Y0.42457
G01 X-0.13991 Y0.42628
G01 X-0.14206 Y0.42698
G01 X-0.14743 Y0.42937
G01 X-0.15352 Y0.43083
G01 X-0.15929 Y0.43271
G01 X-0.15352 Y0.43083
G01 X-0.14743 Y0.42937
G01 X-0.14958 Y0.43032
G01 X-0.15154 Y0.43146
G01 X-0.15820 Y0.43629
G01 X-0.16008 Y0.43803
G01 X-0.15820 Y0.43629
G01 X-0.15154 Y0.43146
G01 X-0.14958 Y0.43032
G01 X-0.14206 Y0.42698
G01 X-0.13991 Y0.42628
G01 X-0.13186 Y0.42457
G01 X-0.12961 Y0.42433
G01 X-0.12138 Y0.42433
G01 X-0.11913 Y0.42457
G01 X-0.11684 Y0.42505
G01 X-0.11974 Y0.42215
G01 X-0.14896 Y0.42215
G01 X-0.15552 Y0.42373
G01 X-0.16204 Y0.42584
G01 X-0.15552 Y0.42373
G01 X-0.14896 Y0.42215
G01 X-0.16715 Y0.42215
G01 X-0.17078 Y0.45279
G01 X-0.17175 Y0.45495
G01 X-0.17261 Y0.45758
G01 X-0.18898 Y0.45758
G01 X-0.18921 Y0.45342
G01 X-0.18965 Y0.45126
G01 X-0.18921 Y0.45342
G01 X-0.18898 Y0.45758
G01 X-0.17261 Y0.45758
G01 X-0.17175 Y0.45495
G01 X-0.17078 Y0.45279
G01 X-0.16715 Y0.42215
G01 X-0.27608 Y0.43319
G01 X-0.27608 Y0.43725
G01 X-0.27318 Y0.43862
G01 X-0.27608 Y0.43725
G01 X-0.27608 Y0.43319
G01 X-0.24752 Y0.44897
G01 X-0.24796 Y0.45005
G01 X-0.24864 Y0.45278
G01 X-0.24897 Y0.45539
G01 X-0.24901 Y0.49226
G01 X-0.24878 Y0.49521
G01 X-0.24836 Y0.49729
G01 X-0.24762 Y0.49957
G01 X-0.25223 Y0.49688
G01 X-0.25222 Y0.45171
G01 X-0.25961 Y0.45176
G01 X-0.25961 Y0.49693
G01 X-0.26417 Y0.49955
G01 X-0.26316 Y0.49584
G01 X-0.26284 Y0.49323
G01 X-0.26279 Y0.45636
G01 X-0.26291 Y0.45476
G01 X-0.26332 Y0.45198
G01 X-0.26416 Y0.44910
G01 X-0.27608 Y0.35698
G01 X-0.27608 Y0.34636
G01 X-0.27642 Y0.34328
G01 X-0.27482 Y0.34638
G01 X-0.27250 Y0.35189
G01 X-0.27482 Y0.34638
G01 X-0.27642 Y0.34328
G01 X-0.27700 Y0.34096
G01 X-0.27781 Y0.33900
G01 X-0.27953 Y0.33621
G01 X-0.28027 Y0.33531
G01 X-0.30349 Y0.31202
G01 X-0.30394 Y0.31120
G01 X-0.30479 Y0.31072
G01 X-0.30349 Y0.31202
G01 X-0.32765 Y0.28786
G01 X-0.36388 Y0.18122
G01 X-0.36388 Y0.17411
G01 X-0.36092 Y0.17411
G01 X-0.35847 Y0.17380
G01 X-0.36388 Y0.24959
G01 X-0.36388 Y0.25163
G01 X-0.36243 Y0.25308
G01 X-0.32152 Y0.28893
G01 X-0.31900 Y0.29502
G01 X-0.31741 Y0.29810
G01 X-0.31380 Y0.28829
G01 X-0.31224 Y0.29204
G01 X-0.31105 Y0.29433
G01 X-0.31224 Y0.29204
G01 X-0.31470 Y0.28610
G01 X-0.31380 Y0.28829
G01 X-0.31112 Y0.28101
G01 X-0.31112 Y0.29360
G01 X-0.31091 Y0.29571
G01 X-0.31030 Y0.29775
G01 X-0.30930 Y0.29962
G01 X-0.30795 Y0.30126
G01 X-0.30631 Y0.30260
G01 X-0.30444 Y0.30361
G01 X-0.30241 Y0.30422
G01 X-0.30105 Y0.30435
G01 X-0.29939 Y0.30529
G01 X-0.29835 Y0.30617
G01 X-0.29809 Y0.30596
G01 X-0.29835 Y0.30617
G01 X-0.29700 Y0.30851
G01 X-0.29835 Y0.30617
G01 X-0.29939 Y0.30529
G01 X-0.30105 Y0.30435
G01 X-0.29734 Y0.30443
G01 X-0.29718 Y0.30763
G01 X-0.29643 Y0.31082
G01 X-0.29507 Y0.31380
G01 X-0.29315 Y0.31646
G01 X-0.25955 Y0.35013
G01 X-0.26568 Y0.34906
G01 X-0.26809 Y0.34335
G01 X-0.26994 Y0.33975
G04 P0 ( dwell for no time -- G64 should not smooth over this point )
G00 Z0.05906 ( retract )

G00 X-0.25266 Y0.30051 ( rapid move to begin. )
G01 F19.68504
( Mill infeed pass 1/1 )
G01 Z-0.00354
G04 P0 ( dwell for no time -- G64 should not smooth over this point )
G01 F39.37008
G01 X-0.25266 Y0.30051
G01 X-0.25327 Y0.30126
G01 X-0.25491 Y0.30260
G01 X-0.25678 Y0.30361
G01 X-0.25830 Y0.30406
G01 X-0.17368 Y0.38868
G01 X-0.17164 Y0.38868
G04 P0 ( dwell for no time -- G64 should not smooth over this point )
G00 Z0.05906 ( retract )

G00 X-0.18965 Y0.49737 ( rapid move to begin. )
G01 F19.68504
( Mill infeed pass 1/1 )
G01 Z-0.00354
G04 P0 ( dwell for no time -- G64 should not smooth over this point )
G01 F39.37008
G01 X-0.18965 Y0.49737
G01 X-0.18921 Y0.49521
G01 X-0.18898 Y0.49104
G01 X-0.17261 Y0.49104
G01 X-0.17175 Y0.49367
G01 X-0.17078 Y0.49584
G01 X-0.17128 Y0.55231
G01 X-0.17261 Y0.55600
G01 X-0.32033 Y0.55600
G01 X-0.33247 Y0.54386
G01 X-0.33224 Y0.54200
G01 X-0.33091 Y0.50964
G01 X-0.33390 Y0.50507
G01 X-0.34656 Y0.50509
G01 X-0.34498 Y0.50553
G01 X-0.34342 Y0.50617
G01 X-0.34155 Y0.50717
G01 X-0.33850 Y0.50946
G01 X-0.33596 Y0.51229
G01 X-0.33502 Y0.51370
G01 X-0.33371 Y0.51642
G01 X-0.33502 Y0.51370
G01 X-0.33596 Y0.51229
G01 X-0.33850 Y0.50946
G01 X-0.34155 Y0.50717
G01 X-0.34498 Y0.50553
G01 X-0.34753 Y0.50482
G01 X-0.35162 Y0.50433
G01 X-0.37180 Y0.50433
G01 X-0.37589 Y0.50482
G01 X-0.37844 Y0.50553
G01 X-0.38000 Y0.50617
G01 X-0.38258 Y0.50764
G01 X-0.38000 Y0.50617
G01 X-0.37844 Y0.50553
G01 X-0.37686 Y0.50509
G01 X-0.38143 Y0.50506
G01 X-0.37686 Y0.50509
G01 X-0.37589 Y0.50482
G01 X-0.46036 Y0.52371
G01 X-0.45879 Y0.52391
G01 X-0.45798 Y0.52346
G01 X-0.37678 Y0.49770
G01 X-0.37454 Y0.49821
G01 X-0.37180 Y0.49843
G01 X-0.35162 Y0.49843
G01 X-0.34888 Y0.49821
G01 X-0.34572 Y0.49766
G01 X-0.33201 Y0.49769
G01 X-0.33068 Y0.49794
G01 X-0.33054 Y0.49755
G01 X-0.33068 Y0.49794
G01 X-0.32945 Y0.49843
G01 X-0.32939 Y0.49869
G01 X-0.32971 Y0.49843
G01 X-0.32866 Y0.49952
G01 X-0.32858 Y0.49945
G01 X-0.32866 Y0.49952
G01 X-0.32817 Y0.50032
G01 X-0.32465 Y0.50572
G01 X-0.32866 Y0.49952
G01 X-0.32976 Y0.49838
G01 X-0.33068 Y0.49794
G01 X-0.33201 Y0.49769
G01 X-0.34649 Y0.49770
G01 X-0.34519 Y0.49730
G01 X-0.34276 Y0.49623
G01 X-0.34059 Y0.49493
G01 X-0.33850 Y0.49330
G01 X-0.33644 Y0.49104
G01 X-0.32283 Y0.49104
G01 X-0.32260 Y0.49521
G01 X-0.32164 Y0.49909
G01 X-0.32056 Y0.50151
G01 X-0.31911 Y0.50393
G01 X-0.31734 Y0.50609
G01 X-0.31911 Y0.50393
G01 X-0.32056 Y0.50151
G01 X-0.32164 Y0.49909
G01 X-0.32260 Y0.49521
G01 X-0.32283 Y0.49104
G01 X-0.33644 Y0.49104
G01 X-0.33850 Y0.49330
G01 X-0.34059 Y0.49493
G01 X-0.34276 Y0.49623
G01 X-0.34519 Y0.49730
G01 X-0.34680 Y0.49779
G01 X-0.35056 Y0.49837
G01 X-0.37286 Y0.49837
G01 X-0.37454 Y0.49821
G01 X-0.37713 Y0.49763
G01 X-0.37951 Y0.49678
G01 X-0.38227 Y0.49530
G01 X-0.38121 Y0.49768
G01 X-0.37678 Y0.49770
G01 X-0.39673 Y0.52156
G01 X-0.39103 Y0.52156
G01 X-0.39075 Y0.51968
G01 X-0.39008 Y0.51727
G01 X-0.39075 Y0.51968
G01 X-0.39103 Y0.52156
G01 X-0.39673 Y0.52156
G01 X-0.51928 Y0.43859
G01 X-0.52214 Y0.33912
G01 X-0.52070 Y0.33767
G01 X-0.52214 Y0.33912
G01 X-0.52214 Y0.34116
G01 X-0.51928 Y0.43859
G01 X-0.52214 Y0.43726
G01 X-0.52214 Y0.43322
G01 X-0.51112 Y0.32809
G01 X-0.50140 Y0.31838
G01 X-0.50498 Y0.32702
G01 X-0.50140 Y0.31838
G01 X-0.49404 Y0.31101
G01 X-0.49447 Y0.31175
G01 X-0.49459 Y0.31289
G01 X-0.49459 Y0.33493
G01 X-0.49816 Y0.32984
G01 X-0.49459 Y0.32120
G01 X-0.49447 Y0.31175
G01 X-0.49208 Y0.30765
G01 X-0.48777 Y0.30367
G01 X-0.48376 Y0.30325
G01 X-0.46092 Y0.30325
G01 X-0.45610 Y0.30265
G01 X-0.45400 Y0.30186
G01 X-0.45327 Y0.30126
G01 X-0.45192 Y0.29962
G01 X-0.45092 Y0.29775
G01 X-0.45031 Y0.29571
G01 X-0.45019 Y0.29453
G01 X-0.44981 Y0.29557
G01 X-0.45037 Y0.29591
G01 X-0.45092 Y0.29775
G01 X-0.45192 Y0.29962
G01 X-0.45327 Y0.30126
G01 X-0.45400 Y0.30186
G01 X-0.45456 Y0.30207
G01 X-0.44628 Y0.30207
G01 X-0.44480 Y0.30114
G01 X-0.44628 Y0.30207
G01 X-0.37041 Y0.30207
G01 X-0.37905 Y0.29849
G01 X-0.37041 Y0.30207
G01 X-0.36077 Y0.30207
G01 X-0.36759 Y0.29525
G01 X-0.37623 Y0.29167
G01 X-0.37730 Y0.28554
G01 X-0.36077 Y0.30207
G01 X-0.35777 Y0.30331
G01 X-0.35199 Y0.30711
G01 X-0.34819 Y0.31289
G01 X-0.34695 Y0.31589
G01 X-0.34695 Y0.32553
G01 X-0.34337 Y0.33417
G01 X-0.34695 Y0.33927
G01 X-0.34695 Y0.31589
G01 X-0.34013 Y0.32271
G01 X-0.33655 Y0.33135
G01 X-0.34013 Y0.32271
G01 X-0.30955 Y0.35329
G01 X-0.30955 Y0.43726
G01 X-0.31233 Y0.43861
G01 X-0.32823 Y0.45160
G01 X-0.32781 Y0.45448
G01 X-0.33634 Y0.44980
G01 X-0.33491 Y0.45187
G01 X-0.33412 Y0.45336
G01 X-0.33316 Y0.45584
G01 X-0.33273 Y0.45758
G01 X-0.32279 Y0.45758
G01 X-0.32279 Y0.45537
G01 X-0.32246 Y0.45278
G01 X-0.32178 Y0.45005
G01 X-0.32093 Y0.44786
G04 P0 ( dwell for no time -- G64 should not smooth over this point )
G00 Z0.05906 ( retract )

G00 X-0.38624 Y0.55502 ( rapid move to begin. )
G01 F19.68504
( Mill infeed pass 1/1 )
G01 Z-0.00354
G04 P0 ( dwell for no time -- G64 should not smooth over this point )
G01 F39.37008
G01 X-0.38624 Y0.55502
G01 X-0.38519 Y0.55502
G01 X-0.37041 Y0.56781
G01 X-0.36629 Y0.56781
G01 X-0.36607 Y0.56734
G01 X-0.36629 Y0.56781
G01 X-0.36383 Y0.57027
G01 X-0.36078 Y0.57027
G01 X-0.36383 Y0.57027
G01 X-0.36629 Y0.57274
G01 X-0.36607 Y0.57326
G01 X-0.36629 Y0.57274
G01 X-0.37044 Y0.57274
G01 X-0.37615 Y0.58066
G01 X-0.37454 Y0.58034
G01 X-0.37180 Y0.58012
G01 X-0.36323 Y0.58012
G01 X-0.35340 Y0.57027
G01 X-0.36323 Y0.56043
G01 X-0.37339 Y0.56032
G01 X-0.37583 Y0.55995
G01 X-0.43422 Y0.55502
G01 X-0.44291 Y0.55502
G01 X-0.44291 Y0.56301
G01 X-0.37693 Y0.64285
G01 X-0.37454 Y0.64234
G01 X-0.37180 Y0.64213
G01 X-0.35162 Y0.64213
G01 X-0.34888 Y0.64234
G01 X-0.34680 Y0.64276
G01 X-0.34322 Y0.64406
G01 X-0.34173 Y0.64486
G01 X-0.33866 Y0.64711
G01 X-0.33609 Y0.64991
G01 X-0.33491 Y0.65168
G01 X-0.33363 Y0.65443
G01 X-0.32283 Y0.65443
G01 X-0.32260 Y0.65026
G01 X-0.32164 Y0.64638
G01 X-0.31994 Y0.64276
G01 X-0.31825 Y0.64037
G01 X-0.31994 Y0.64276
G01 X-0.32164 Y0.64638
G01 X-0.32260 Y0.65026
G01 X-0.32283 Y0.65443
G01 X-0.33363 Y0.65443
G01 X-0.33491 Y0.65168
G01 X-0.33609 Y0.64991
G01 X-0.33866 Y0.64711
G01 X-0.34173 Y0.64486
G01 X-0.34322 Y0.64406
G01 X-0.34648 Y0.64286
G01 X-0.32998 Y0.64278
G01 X-0.32990 Y0.64309
G01 X-0.32998 Y0.64278
G01 X-0.32874 Y0.64228
G01 X-0.32777 Y0.64137
G01 X-0.32768 Y0.64147
G01 X-0.32777 Y0.64137
G01 X-0.32744 Y0.64094
G01 X-0.32735 Y0.64098
G01 X-0.32870 Y0.64424
G01 X-0.32938 Y0.64673
G01 X-0.32816 Y0.65417
G01 X-0.32938 Y0.64673
G01 X-0.33039 Y0.64523
G01 X-0.33250 Y0.64288
G01 X-0.33435 Y0.64288
G01 X-0.33250 Y0.64288
G01 X-0.33039 Y0.64523
G01 X-0.32938 Y0.64673
G01 X-0.33039 Y0.64523
G01 X-0.33250 Y0.64288
G01 X-0.34648 Y0.64286
G01 X-0.34888 Y0.64234
G01 X-0.35162 Y0.64213
G01 X-0.37180 Y0.64213
G01 X-0.37454 Y0.64234
G01 X-0.37693 Y0.64285
G01 X-0.38135 Y0.64285
G01 X-0.38250 Y0.64543
G01 X-0.38020 Y0.64406
G01 X-0.37693 Y0.64285
G01 X-0.37685 Y0.63547
G01 X-0.38124 Y0.63547
G01 X-0.44766 Y0.57570
G01 X-0.44833 Y0.57651
G01 X-0.44833 Y0.57768
G01 X-0.38228 Y0.63311
G01 X-0.38001 Y0.63438
G01 X-0.37845 Y0.63502
G01 X-0.37589 Y0.63573
G01 X-0.37339 Y0.63610
G01 X-0.37178 Y0.63622
G01 X-0.35076 Y0.63618
G01 X-0.34867 Y0.63597
G01 X-0.34646 Y0.63547
G01 X-0.33483 Y0.63549
G01 X-0.34646 Y0.63547
G01 X-0.34342 Y0.63438
G01 X-0.34015 Y0.63245
G01 X-0.33731 Y0.62990
G01 X-0.33597 Y0.62819
G01 X-0.22203 Y0.60035
G01 X-0.16208 Y0.60680
G01 X-0.15988 Y0.60924
G01 X-0.15820 Y0.61075
G01 X-0.15154 Y0.61559
G01 X-0.15381 Y0.61395
G01 X-0.16118 Y0.61150
G01 X-0.15381 Y0.61395
G01 X-0.15154 Y0.61559
G01 X-0.14958 Y0.61672
G01 X-0.14206 Y0.62007
G01 X-0.13899 Y0.62097
G01 X-0.15609 Y0.62096
G01 X-0.16368 Y0.61845
G01 X-0.16631 Y0.62111
G01 X-0.16486 Y0.62096
G01 X-0.13899 Y0.62097
G01 X-0.12961 Y0.62184
G01 X-0.12138 Y0.62184
G01 X-0.11199 Y0.62096
G01 X-0.10892 Y0.62007
G01 X-0.10140 Y0.61672
G01 X-0.09944 Y0.61559
G01 X-0.09374 Y0.61145
G01 X-0.09718 Y0.61394
G01 X-0.09454 Y0.61309
G01 X-0.09374 Y0.61145
G01 X-0.09110 Y0.60924
G01 X-0.08710 Y0.60480
G01 X-0.08711 Y0.62096
G01 X-0.09489 Y0.62096
G01 X-0.09232 Y0.62096
G01 X-0.09295 Y0.62033
G01 X-0.09489 Y0.62096
G01 X-0.11199 Y0.62096
G01 X-0.12138 Y0.62184
G01 X-0.12961 Y0.62184
G01 X-0.13899 Y0.62097
G01 X-0.14206 Y0.62007
G01 X-0.14958 Y0.61672
G01 X-0.15154 Y0.61559
G01 X-0.15820 Y0.61075
G01 X-0.15988 Y0.60924
G01 X-0.16208 Y0.60680
G01 X-0.22203 Y0.60035
G01 X-0.17750 Y0.58947
G01 X-0.17261 Y0.58947
G01 X-0.17128 Y0.59316
G01 X-0.17261 Y0.58947
G01 X-0.17750 Y0.58947
G01 X-0.22203 Y0.60035
G01 X-0.32321 Y0.58947
G01 X-0.32525 Y0.58947
G01 X-0.33243 Y0.59665
G01 X-0.33223 Y0.59857
G04 P0 ( dwell for no time -- G64 should not smooth over this point )
G00 Z0.05906 ( retract )

G00 X-0.32265 Y0.69148 ( rapid move to begin. )
G01 F19.68504
( Mill infeed pass 1/1 )
G01 Z-0.00354
G04 P0 ( dwell for no time -- G64 should not smooth over this point )
G01 F39.37008
G01 X-0.32265 Y0.69148
G01 X-0.32283 Y0.68790
G01 X-0.32624 Y0.68790
G01 X-0.32265 Y0.69148
G04 P0 ( dwell for no time -- G64 should not smooth over this point )
G00 Z0.05906 ( retract )

G00 X-0.36527 Y0.69823 ( rapid move to begin. )
G01 F19.68504
( Mill infeed pass 1/1 )
G01 Z-0.00354
G04 P0 ( dwell for no time -- G64 should not smooth over this point )
G01 F39.37008
G01 X-0.36527 Y0.69823
G01 X-0.36323 Y0.69823
G01 X-0.36179 Y0.69967
G01 X-0.64435 Y0.68790
G01 X-0.64924 Y0.68790
G01 X-0.65057 Y0.69160
G04 P0 ( dwell for no time -- G64 should not smooth over this point )
G00 Z0.05906 ( retract )

G00 X-0.74318 Y0.65353 ( rapid move to begin. )
G01 F19.68504
( Mill infeed pass 1/1 )
G01 Z-0.00354
G04 P0 ( dwell for no time -- G64 should not smooth over this point )
G01 F39.37008
G01 X-0.74318 Y0.65353
G01 X-0.74262 Y0.65180
G01 X-0.74161 Y0.64958
G01 X-0.74493 Y0.64625
G04 P0 ( dwell for no time -- G64 should not smooth over this point )
G00 Z0.05906 ( retract )

G00 X-0.64739 Y0.45035 ( rapid move to begin. )
G01 F19.68504
( Mill infeed pass 1/1 )
G01 Z-0.00354
G04 P0 ( dwell for no time -- G64 should not smooth over this point )
G01 F39.37008
G01 X-0.64739 Y0.45035
G01 X-0.64738 Y0.44849
G01 X-0.63976 Y0.44582
G01 X-0.64148 Y0.44942
G01 X-0.64218 Y0.45198
G01 X-0.64260 Y0.45476
G01 X-0.64271 Y0.45758
G01 X-0.64924 Y0.45758
G01 X-0.65009 Y0.45495
G01 X-0.65101 Y0.45288
G01 X-0.65514 Y0.44574
G04 P0 ( dwell for no time -- G64 should not smooth over this point )
G00 Z0.05906 ( retract )

G00 X-0.66532 Y0.33103 ( rapid move to begin. )
G01 F19.68504
( Mill infeed pass 1/1 )
G01 Z-0.00354
G04 P0 ( dwell for no time -- G64 should not smooth over this point )
G01 F39.37008
G01 X-0.66532 Y0.33103
G01 X-0.66388 Y0.32959
G01 X-0.66388 Y0.32755
G04 P0 ( dwell for no time -- G64 should not smooth over this point )
G00 Z0.05906 ( retract )

G00 X-0.60966 Y0.18049 ( rapid move to begin. )
G01 F19.68504
( Mill infeed pass 1/1 )
G01 Z-0.00354
G04 P0 ( dwell for no time -- G64 should not smooth over this point )
G01 F39.37008
G01 X-0.60966 Y0.18049
G01 X-0.60292 Y0.17375
G01 X-0.60444 Y0.17329
G01 X-0.60631 Y0.17229
G01 X-0.60795 Y0.17094
G01 X-0.60848 Y0.17030
G04 P0 ( dwell for no time -- G64 should not smooth over this point )
G00 Z0.05906 ( retract )

G00 X-0.39734 Y0.18122 ( rapid move to begin. )
G01 F19.68504
( Mill infeed pass 1/1 )
G01 Z-0.00354
G04 P0 ( dwell for no time -- G64 should not smooth over this point )
G01 F39.37008
G01 X-0.39734 Y0.18122
G01 X-0.39734 Y0.17411
G01 X-0.40029 Y0.17411
G01 X-0.40275 Y0.17380
G01 X-0.55961 Y0.17398
G01 X-0.56388 Y0.17411
G01 X-0.56393 Y0.17616
G01 X-0.56431 Y0.17866
G01 X-0.51112 Y0.27873
G01 X-0.51112 Y0.28077
G01 X-0.51256 Y0.28221
G01 X-0.51112 Y0.28077
G01 X-0.51112 Y0.27873
G01 X-0.63041 Y0.25061
G01 X-0.63041 Y0.24857
G01 X-0.62897 Y0.24712
G01 X-0.63041 Y0.24857
G01 X-0.63041 Y0.25061
G01 X-0.55561 Y0.43319
G01 X-0.56967 Y0.44908
G01 X-0.58418 Y0.44897
G01 X-0.58373 Y0.45005
G01 X-0.58305 Y0.45278
G01 X-0.58272 Y0.45539
G01 X-0.58268 Y0.49226
G01 X-0.58291 Y0.49521
G01 X-0.58333 Y0.49729
G01 X-0.58410 Y0.49963
G01 X-0.57944 Y0.49692
G01 X-0.57944 Y0.45369
G01 X-0.57947 Y0.45171
G01 X-0.57944 Y0.49692
G01 X-0.58410 Y0.49963
G01 X-0.58333 Y0.49729
G01 X-0.58291 Y0.49521
G01 X-0.58268 Y0.49226
G01 X-0.58272 Y0.45539
G01 X-0.58305 Y0.45278
G01 X-0.58373 Y0.45005
G01 X-0.58418 Y0.44897
G01 X-0.56752 Y0.44910
G01 X-0.56837 Y0.45197
G01 X-0.56890 Y0.45635
G01 X-0.56890 Y0.49227
G01 X-0.56837 Y0.49665
G01 X-0.56763 Y0.49928
G01 X-0.57206 Y0.49674
G01 X-0.57208 Y0.45180
G01 X-0.55561 Y0.43319
G01 X-0.55561 Y0.43725
G01 X-0.55851 Y0.43862
G01 X-0.55561 Y0.43725
G01 X-0.55561 Y0.43319
G01 X-0.70477 Y0.41781
G01 X-0.69582 Y0.40886
G01 X-0.69696 Y0.41440
G01 X-0.70477 Y0.41781
G01 X-0.71475 Y0.42779
G01 X-0.71293 Y0.42698
G01 X-0.71077 Y0.42628
G01 X-0.70272 Y0.42457
G01 X-0.70154 Y0.42444
G01 X-0.69450 Y0.42137
G01 X-0.70154 Y0.42444
G01 X-0.69224 Y0.42433
G01 X-0.69101 Y0.42446
G01 X-0.69224 Y0.42433
G01 X-0.70047 Y0.42433
G01 X-0.70272 Y0.42457
G01 X-0.71077 Y0.42628
G01 X-0.71293 Y0.42698
G01 X-0.71475 Y0.42779
G01 X-0.72157 Y0.43260
G01 X-0.72785 Y0.43797
G01 X-0.73607 Y0.44663
G01 X-0.73642 Y0.44708
G01 X-0.73878 Y0.45620
G01 X-0.74020 Y0.46557
G01 X-0.74063 Y0.47380
G01 X-0.74020 Y0.48306
G01 X-0.73878 Y0.49242
G01 X-0.73627 Y0.50210
G01 X-0.73474 Y0.50638
G01 X-0.73075 Y0.51081
G01 X-0.72906 Y0.51233
G01 X-0.72190 Y0.51746
G01 X-0.72581 Y0.51759
G01 X-0.72811 Y0.51303
G01 X-0.73075 Y0.51081
G01 X-0.73474 Y0.50638
G01 X-0.73474 Y0.51626
G01 X-0.73224 Y0.52125
G01 X-0.73474 Y0.51626
G01 X-0.73474 Y0.52536
G01 X-0.72134 Y0.62252
G01 X-0.71784 Y0.62602
G01 X-0.71389 Y0.62426
G01 X-0.73330 Y0.61056
G01 X-0.73474 Y0.60911
G01 X-0.73474 Y0.60707
G01 X-0.73474 Y0.60911
G01 X-0.73330 Y0.61056
G01 X-0.72188 Y0.61862
G01 X-0.64717 Y0.49760
G01 X-0.64724 Y0.50018
G01 X-0.63943 Y0.50323
G01 X-0.64006 Y0.50223
G01 X-0.64184 Y0.49820
G01 X-0.64260 Y0.49386
G01 X-0.64271 Y0.49104
G01 X-0.64924 Y0.49104
G01 X-0.65009 Y0.49367
G01 X-0.65101 Y0.49574
G01 X-0.65518 Y0.50294
G01 X-0.65057 Y0.65073
G01 X-0.55847 Y0.51004
G01 X-0.55561 Y0.51137
G01 X-0.55561 Y0.52959
G01 X-0.55631 Y0.53040
G01 X-0.55561 Y0.52959
G01 X-0.55561 Y0.51137
G01 X-0.55847 Y0.51004
G01 X-0.65057 Y0.65073
G01 X-0.64924 Y0.65443
G01 X-0.56254 Y0.65443
G01 X-0.48847 Y0.58036
G01 X-0.49060 Y0.57909
G01 X-0.49269 Y0.57745
G01 X-0.49524 Y0.57462
G01 X-0.49717 Y0.57134
G01 X-0.49782 Y0.56978
G01 X-0.49828 Y0.56813
G01 X-0.49822 Y0.58101
G01 X-0.49889 Y0.58291
G01 X-0.49869 Y0.58303
G01 X-0.49889 Y0.58291
G01 X-0.50162 Y0.58587
G01 X-0.50561 Y0.58954
G01 X-0.50162 Y0.58587
G01 X-0.49930 Y0.58344
G01 X-0.49889 Y0.58291
G01 X-0.49838 Y0.58166
G01 X-0.49828 Y0.56813
G01 X-0.49890 Y0.56473
G01 X-0.49901 Y0.56314
G01 X-0.49896 Y0.54190
G01 X-0.49880 Y0.54022
G01 X-0.49822 Y0.53764
G01 X-0.49737 Y0.53526
G01 X-0.49588 Y0.53245
G01 X-0.49828 Y0.53351
G01 X-0.49828 Y0.53790
G01 X-0.50566 Y0.53791
G01 X-0.50514 Y0.54022
G01 X-0.50492 Y0.54296
G01 X-0.50492 Y0.56314
G01 X-0.50541 Y0.56723
G01 X-0.50566 Y0.56805
G01 X-0.50565 Y0.57941
G01 X-0.50979 Y0.58339
G01 X-0.50565 Y0.57941
G01 X-0.50566 Y0.56805
G01 X-0.50633 Y0.57027
G01 X-0.50741 Y0.57255
G01 X-0.50819 Y0.57394
G01 X-0.50917 Y0.57519
G01 X-0.51087 Y0.57707
G01 X-0.51288 Y0.57880
G01 X-0.51428 Y0.57974
G01 X-0.51643 Y0.58085
G01 X-0.51428 Y0.57974
G01 X-0.51288 Y0.57880
G01 X-0.51087 Y0.57707
G01 X-0.50917 Y0.57519
G01 X-0.50819 Y0.57394
G01 X-0.50741 Y0.57255
G01 X-0.50633 Y0.57027
G01 X-0.50541 Y0.56723
G01 X-0.50492 Y0.56314
G01 X-0.50497 Y0.54190
G01 X-0.50514 Y0.54022
G01 X-0.50572 Y0.53763
G01 X-0.50657 Y0.53525
G01 X-0.50824 Y0.53217
G01 X-0.50566 Y0.53333
G01 X-0.50566 Y0.53791
G01 X-0.51784 Y0.50909
G01 X-0.52061 Y0.51074
G01 X-0.52214 Y0.51138
G01 X-0.52214 Y0.52373
G01 X-0.52027 Y0.52401
G01 X-0.51772 Y0.52472
G01 X-0.51627 Y0.52532
G01 X-0.51772 Y0.52472
G01 X-0.52027 Y0.52401
G01 X-0.52214 Y0.52373
G01 X-0.52214 Y0.51138
G01 X-0.52061 Y0.51074
G01 X-0.51784 Y0.50909
G01 X-0.45798 Y0.52346

G04 P0 ( dwell for no time -- G64 should not smooth over this point )
G00 Z0.393701 ( retract )

M5 ( Spindle off. )
G04 P1.000000
M9 ( Coolant off. )
M2 ( Program end. )

