( pcb2gcode 2.5.0 )
( Software-independent Gcode )

G94 ( Inches per minute feed rate. )
G20 ( Units == INCHES. )

G90 ( Absolute coordinates. )
G00 S24000 ( RPM spindle speed. )
G64 P0.00040 ( set maximum deviation from commanded toolpath )
G01 F39.37008 ( Feedrate. )


G00 Z0.39370 (Retract to tool change height)
T1
M5      (Spindle stop.)
G04 P1.00000 (Wait for spindle to stop)
(MSG, Change tool bit to mill diameter 0.05709in)
M6      (Tool change.)
M0      (Temporary machine stop.)
M3 ( Spindle on clockwise. )
G04 P1.00000 (Wait for spindle to get up to speed)
G04 P0 ( dwell for no time -- G64 should not smooth over this point )
G00 Z0.05906 ( retract )

G00 X-0.19303 Y0.61269 ( rapid move to begin. )
G01 F19.68504
( Mill infeed pass 1/1 )
G01 Z-0.00354
G04 P0 ( dwell for no time -- G64 should not smooth over this point )
G01 F39.37008
G01 X-0.19303 Y0.61269
G01 X-0.19337 Y0.61269
G04 P0 ( dwell for no time -- G64 should not smooth over this point )
G00 Z0.05906 ( retract )

G00 X-0.24473 Y0.61269 ( rapid move to begin. )
G01 F19.68504
( Mill infeed pass 1/1 )
G01 Z-0.00354
G04 P0 ( dwell for no time -- G64 should not smooth over this point )
G01 F39.37008
G01 X-0.24473 Y0.61269
G01 X-0.24664 Y0.61309
G01 X-0.26519 Y0.61309
G01 X-0.26708 Y0.61269
G01 X-0.26491 Y0.61317
G01 X-0.26119 Y0.61507
G01 X-0.25597 Y0.61870
G01 X-0.25596 Y0.61920
G01 X-0.25597 Y0.61870
G01 X-0.25192 Y0.61587
G01 X-0.24918 Y0.61426
G01 X-0.24664 Y0.61309
G04 P0 ( dwell for no time -- G64 should not smooth over this point )
G00 Z0.05906 ( retract )

G00 X-0.18253 Y0.52659 ( rapid move to begin. )
G01 F19.68504
( Mill infeed pass 1/1 )
G01 Z-0.00354
G04 P0 ( dwell for no time -- G64 should not smooth over this point )
G01 F39.37008
G01 X-0.18253 Y0.52659
G01 X-0.18477 Y0.52875
G01 X-0.18726 Y0.53238
G01 X-0.19153 Y0.53238
G01 X-0.19337 Y0.53278
G01 X-0.19100 Y0.53227
G01 X-0.19029 Y0.53195
G01 X-0.18744 Y0.53045
G01 X-0.18472 Y0.52870
G04 P0 ( dwell for no time -- G64 should not smooth over this point )
G00 Z0.05906 ( retract )

G00 X-0.24461 Y0.53278 ( rapid move to begin. )
G01 F19.68504
( Mill infeed pass 1/1 )
G01 Z-0.00354
G04 P0 ( dwell for no time -- G64 should not smooth over this point )
G01 F39.37008
G01 X-0.24461 Y0.53278
G01 X-0.24725 Y0.53215
G01 X-0.25021 Y0.53065
G01 X-0.25547 Y0.52716
G01 X-0.25590 Y0.52682
G01 X-0.25590 Y0.52632
G01 X-0.25590 Y0.52682
G01 X-0.25705 Y0.52768
G01 X-0.26288 Y0.53129
G01 X-0.26453 Y0.53214
G01 X-0.26754 Y0.53278
G01 X-0.26566 Y0.53238
G01 X-0.26636 Y0.53253
G01 X-0.26566 Y0.53238
G01 X-0.24629 Y0.53238
G01 X-0.24465 Y0.53277
G04 P0 ( dwell for no time -- G64 should not smooth over this point )
G00 Z0.05906 ( retract )

G00 X-0.39421 Y0.42568 ( rapid move to begin. )
G01 F19.68504
( Mill infeed pass 1/1 )
G01 Z-0.00354
G04 P0 ( dwell for no time -- G64 should not smooth over this point )
G01 F39.37008
G01 X-0.39421 Y0.42568
G01 X-0.39629 Y0.42634
G01 X-0.39912 Y0.42855
G01 X-0.40334 Y0.43247
G01 X-0.40644 Y0.43621
G01 X-0.40951 Y0.44110
G01 X-0.41117 Y0.44432
G01 X-0.41248 Y0.44770
G01 X-0.41391 Y0.45278
G01 X-0.41449 Y0.45632
G01 X-0.41485 Y0.46092
G01 X-0.41486 Y0.47941
G01 X-0.41473 Y0.48193
G01 X-0.41422 Y0.48640
G01 X-0.41321 Y0.49066
G01 X-0.41223 Y0.49379
G01 X-0.41119 Y0.49638
G01 X-0.41048 Y0.49787
G01 X-0.40979 Y0.49833
G01 X-0.41038 Y0.49793
G01 X-0.45150 Y0.49795
G01 X-0.45431 Y0.49817
G01 X-0.45820 Y0.49878
G01 X-0.46274 Y0.49990
G01 X-0.48114 Y0.49994
G01 X-0.48603 Y0.50048
G01 X-0.48652 Y0.50096
G01 X-0.48600 Y0.50046
G01 X-0.48584 Y0.49949
G01 X-0.48524 Y0.49270
G01 X-0.48524 Y0.45593
G01 X-0.48584 Y0.44911
G01 X-0.48705 Y0.44402
G01 X-0.48866 Y0.43946
G01 X-0.48979 Y0.43685
G01 X-0.49113 Y0.43435
G01 X-0.49290 Y0.43164
G01 X-0.49581 Y0.42777
G01 X-0.49852 Y0.42482
G01 X-0.49852 Y0.42257
G01 X-0.49892 Y0.42189
G01 X-0.49837 Y0.42283
G01 X-0.49364 Y0.42464
G01 X-0.48935 Y0.42563
G01 X-0.48496 Y0.42606
G01 X-0.39547 Y0.42608
G01 X-0.39491 Y0.42591
G04 P0 ( dwell for no time -- G64 should not smooth over this point )
G00 Z0.05906 ( retract )

G00 X-0.33317 Y0.41550 ( rapid move to begin. )
G01 F19.68504
( Mill infeed pass 1/1 )
G01 Z-0.00354
G04 P0 ( dwell for no time -- G64 should not smooth over this point )
G01 F39.37008
G01 X-0.33317 Y0.41550
G01 X-0.33317 Y0.42287
G01 X-0.33570 Y0.42176
G01 X-0.33833 Y0.42084
G01 X-0.33913 Y0.42059
G01 X-0.34008 Y0.42073
G01 X-0.33912 Y0.42059
G01 X-0.33563 Y0.41802
G01 X-0.33334 Y0.41592
G01 X-0.33277 Y0.41455
G04 P0 ( dwell for no time -- G64 should not smooth over this point )
G00 Z0.05906 ( retract )

G00 X-0.25246 Y0.39063 ( rapid move to begin. )
G01 F19.68504
( Mill infeed pass 1/1 )
G01 Z-0.00354
G04 P0 ( dwell for no time -- G64 should not smooth over this point )
G01 F39.37008
G01 X-0.25246 Y0.39063
G01 X-0.25246 Y0.41961
G01 X-0.25286 Y0.42037
G01 X-0.25225 Y0.41920
G01 X-0.25087 Y0.41838
G01 X-0.24672 Y0.41622
G01 X-0.24302 Y0.41476
G01 X-0.23892 Y0.41354
G01 X-0.23541 Y0.41285
G01 X-0.23077 Y0.41237
G01 X-0.22976 Y0.41276
G01 X-0.23068 Y0.41241
G01 X-0.25246 Y0.39063
G01 X-0.25286 Y0.38966
G04 P0 ( dwell for no time -- G64 should not smooth over this point )
G00 Z0.05906 ( retract )

G00 X-0.33265 Y0.18297 ( rapid move to begin. )
G01 F19.68504
( Mill infeed pass 1/1 )
G01 Z-0.00354
G04 P0 ( dwell for no time -- G64 should not smooth over this point )
G01 F39.37008
G01 X-0.33265 Y0.18297
G01 X-0.33428 Y0.18512
G01 X-0.33614 Y0.18722
G01 X-0.33817 Y0.18915
G01 X-0.34025 Y0.19085
G01 X-0.34025 Y0.24185
G01 X-0.33474 Y0.24736
G01 X-0.33434 Y0.24833
G01 X-0.33474 Y0.24736
G01 X-0.33474 Y0.19478
G01 X-0.33435 Y0.18959
G01 X-0.33372 Y0.18645
G01 X-0.33266 Y0.18298
G01 X-0.32856 Y0.17509
G01 X-0.32562 Y0.17144
G01 X-0.32244 Y0.16839
G01 X-0.32022 Y0.16668
G01 X-0.31752 Y0.16495
G01 X-0.31503 Y0.16365
G01 X-0.31208 Y0.16241
G01 X-0.30902 Y0.16146
G01 X-0.30628 Y0.16086
G01 X-0.30350 Y0.16048
G01 X-0.30029 Y0.16033
G01 X-0.26092 Y0.16033
G01 X-0.25653 Y0.16062
G01 X-0.25181 Y0.16156
G01 X-0.24728 Y0.16315
G01 X-0.24301 Y0.16536
G01 X-0.23909 Y0.16814
G01 X-0.23671 Y0.17028
G01 X-0.23428 Y0.17295
G01 X-0.23214 Y0.17585
G01 X-0.23051 Y0.17861
G01 X-0.22898 Y0.18188
G01 X-0.22792 Y0.18490
G01 X-0.22707 Y0.18841
G01 X-0.22659 Y0.19198
G01 X-0.22648 Y0.19478
G01 X-0.22648 Y0.29400
G01 X-0.22671 Y0.29760
G01 X-0.22740 Y0.30155
G01 X-0.16389 Y0.36506
G01 X-0.11070 Y0.36512
G01 X-0.10671 Y0.36553
G01 X-0.10320 Y0.36623
G01 X-0.09904 Y0.36749
G01 X-0.09538 Y0.36903
G01 X-0.09225 Y0.37070
G01 X-0.08990 Y0.37220
G01 X-0.08678 Y0.37461
G01 X-0.08458 Y0.37658
G01 X-0.04127 Y0.41991
G01 X-0.03746 Y0.42456
G01 X-0.03512 Y0.42822
G01 X-0.03294 Y0.43282
G01 X-0.03144 Y0.43728
G01 X-0.03036 Y0.44304
G01 X-0.03002 Y0.44745
G01 X-0.03002 Y0.72313
G01 X-0.03031 Y0.72763
G01 X-0.03126 Y0.73286
G01 X-0.03223 Y0.73630
G01 X-0.03339 Y0.73925
G01 X-0.03481 Y0.74208
G01 X-0.03715 Y0.74596
G01 X-0.03882 Y0.74828
G01 X-0.04068 Y0.75046
G01 X-0.04702 Y0.75672
G01 X-0.04923 Y0.75848
G01 X-0.05249 Y0.76072
G01 X-0.05491 Y0.76208
G01 X-0.05812 Y0.76357
G01 X-0.06069 Y0.76454
G01 X-0.06332 Y0.76531
G01 X-0.06991 Y0.76645
G01 X-0.07353 Y0.76664
G01 X-0.31270 Y0.76658
G01 X-0.31634 Y0.76635
G01 X-0.31954 Y0.76581
G01 X-0.32333 Y0.76478
G01 X-0.32373 Y0.76425
G01 X-0.32333 Y0.76478
G01 X-0.32333 Y0.83258
G01 X-0.32344 Y0.83538
G01 X-0.32378 Y0.83817
G01 X-0.32455 Y0.84169
G01 X-0.32569 Y0.84511
G01 X-0.32736 Y0.84875
G01 X-0.32922 Y0.85184
G01 X-0.33139 Y0.85472
G01 X-0.33413 Y0.85764
G01 X-0.33688 Y0.85997
G01 X-0.33986 Y0.86200
G01 X-0.34413 Y0.86421
G01 X-0.34828 Y0.86569
G01 X-0.35258 Y0.86663
G01 X-0.35697 Y0.86702
G01 X-0.48416 Y0.86703
G01 X-0.48776 Y0.86679
G01 X-0.49170 Y0.86610
G01 X-0.49629 Y0.86467
G01 X-0.50098 Y0.86241
G01 X-0.50528 Y0.85948
G01 X-0.50909 Y0.85593
G01 X-0.51232 Y0.85184
G01 X-0.51490 Y0.84732
G01 X-0.51664 Y0.84284
G01 X-0.51781 Y0.83777
G01 X-0.51821 Y0.83258
G01 X-0.51815 Y0.75184
G01 X-0.51754 Y0.74707
G01 X-0.51613 Y0.74206
G01 X-0.51399 Y0.73731
G01 X-0.51139 Y0.73327
G01 X-0.50909 Y0.73049
G01 X-0.50651 Y0.72797
G01 X-0.50368 Y0.72574
G01 X-0.50064 Y0.72381
G01 X-0.49740 Y0.72221
G01 X-0.49440 Y0.72108
G01 X-0.49092 Y0.72014
G01 X-0.48736 Y0.71958
G01 X-0.48376 Y0.71939
G01 X-0.38502 Y0.71939
G01 X-0.38234 Y0.71979
G01 X-0.38683 Y0.71912
G01 X-0.39275 Y0.71637
G01 X-0.39717 Y0.71357
G01 X-0.40035 Y0.71100
G01 X-0.40239 Y0.70910
G01 X-0.40634 Y0.70448
G01 X-0.40919 Y0.70009
G01 X-0.41215 Y0.69378
G01 X-0.41318 Y0.69070
G01 X-0.41384 Y0.68795
G01 X-0.41459 Y0.68307
G01 X-0.41485 Y0.67957
G01 X-0.41486 Y0.66114
G01 X-0.41444 Y0.65573
G01 X-0.41364 Y0.65142
G01 X-0.41194 Y0.64598
G01 X-0.41083 Y0.64339
G01 X-0.40951 Y0.64090
G01 X-0.40850 Y0.63922
G01 X-0.40804 Y0.63922
G01 X-0.40853 Y0.63922
G01 X-0.40887 Y0.63867
G01 X-0.41006 Y0.63654
G01 X-0.41125 Y0.63397
G01 X-0.41319 Y0.62854
G01 X-0.41428 Y0.62383
G01 X-0.41485 Y0.61747
G01 X-0.41480 Y0.59744
G01 X-0.41429 Y0.59269
G01 X-0.41286 Y0.58673
G01 X-0.41136 Y0.58256
G01 X-0.40940 Y0.57864
G01 X-0.42218 Y0.57864
G01 X-0.42332 Y0.58131
G01 X-0.42486 Y0.58417
G01 X-0.42523 Y0.58694
G01 X-0.42603 Y0.59081
G01 X-0.42683 Y0.59354
G01 X-0.42785 Y0.59619
G01 X-0.43100 Y0.60220
G01 X-0.43282 Y0.60488
G01 X-0.43461 Y0.60708
G01 X-0.52735 Y0.69997
G01 X-0.53137 Y0.70334
G01 X-0.53427 Y0.70538
G01 X-0.53708 Y0.70701
G01 X-0.54078 Y0.70867
G01 X-0.54565 Y0.71026
G01 X-0.54951 Y0.71105
G01 X-0.55392 Y0.71148
G01 X-0.63455 Y0.71152
G01 X-0.63774 Y0.71603
G01 X-0.64165 Y0.72072
G01 X-0.64597 Y0.72511
G01 X-0.65091 Y0.72933
G01 X-0.65587 Y0.73289
G01 X-0.66115 Y0.73604
G01 X-0.66700 Y0.73889
G01 X-0.67269 Y0.74108
G01 X-0.67901 Y0.74291
G01 X-0.68537 Y0.74416
G01 X-0.69164 Y0.74482
G01 X-0.69960 Y0.74489
G01 X-0.70327 Y0.74463
G01 X-0.71123 Y0.74347
G01 X-0.71939 Y0.74125
G01 X-0.72211 Y0.74034
G01 X-0.72684 Y0.73839
G01 X-0.73242 Y0.73557
G01 X-0.73944 Y0.73108
G01 X-0.74237 Y0.72885
G01 X-0.74831 Y0.72360
G01 X-0.75281 Y0.71873
G01 X-0.75646 Y0.71401
G01 X-0.76076 Y0.70720
G01 X-0.76246 Y0.70394
G01 X-0.76581 Y0.69617
G01 X-0.76818 Y0.68806
G01 X-0.76895 Y0.68446
G01 X-0.77001 Y0.67614
G01 X-0.77008 Y0.66819
G01 X-0.76983 Y0.66426
G01 X-0.76860 Y0.65599
G01 X-0.78085 Y0.64371
G01 X-0.78268 Y0.64157
G01 X-0.78501 Y0.63839
G01 X-0.78692 Y0.63532
G01 X-0.78850 Y0.63206
G01 X-0.78962 Y0.62904
G01 X-0.79101 Y0.62407
G01 X-0.79158 Y0.62047
G01 X-0.79178 Y0.61682
G01 X-0.79183 Y0.44086
G01 X-0.79146 Y0.43554
G01 X-0.79077 Y0.43168
G01 X-0.79003 Y0.42904
G01 X-0.78883 Y0.42576
G01 X-0.78699 Y0.42169
G01 X-0.78464 Y0.41790
G01 X-0.78114 Y0.41350
G01 X-0.68750 Y0.31980
G01 X-0.68750 Y0.24123
G01 X-0.68715 Y0.23673
G01 X-0.68608 Y0.23115
G01 X-0.68462 Y0.22666
G01 X-0.68254 Y0.22229
G01 X-0.68041 Y0.21880
G01 X-0.67735 Y0.21490
G01 X-0.63381 Y0.17123
G01 X-0.63451 Y0.16729
G01 X-0.63474 Y0.16329
G01 X-0.63474 Y0.06447
G01 X-0.63451 Y0.06047
G01 X-0.63381 Y0.05652
G01 X-0.63267 Y0.05269
G01 X-0.63108 Y0.04901
G01 X-0.62908 Y0.04554
G01 X-0.62668 Y0.04233
G01 X-0.62393 Y0.03941
G01 X-0.62087 Y0.03684
G01 X-0.61717 Y0.03444
G01 X-0.61357 Y0.03268
G01 X-0.61017 Y0.03147
G01 X-0.60628 Y0.03054
G01 X-0.60270 Y0.03010
G01 X-0.56092 Y0.03002
G01 X-0.55653 Y0.03030
G01 X-0.55298 Y0.03095
G01 X-0.54952 Y0.03196
G01 X-0.54618 Y0.03333
G01 X-0.54301 Y0.03504
G01 X-0.54003 Y0.03708
G01 X-0.53728 Y0.03941
G01 X-0.53479 Y0.04202
G01 X-0.53259 Y0.04487
G01 X-0.53014 Y0.04901
G01 X-0.52829 Y0.05344
G01 X-0.52707 Y0.05809
G01 X-0.52651 Y0.06287
G01 X-0.52648 Y0.16329
G01 X-0.52659 Y0.16609
G01 X-0.52707 Y0.16966
G01 X-0.52804 Y0.17355
G01 X-0.52856 Y0.17509
G01 X-0.53280 Y0.18338
G01 X-0.53399 Y0.18762
G01 X-0.53463 Y0.19198
G01 X-0.53474 Y0.19478
G01 X-0.53474 Y0.27098
G01 X-0.56741 Y0.30365
G01 X-0.56983 Y0.30634
G01 X-0.57308 Y0.31084
G01 X-0.57525 Y0.31470
G01 X-0.57690 Y0.31881
G01 X-0.57849 Y0.32456
G01 X-0.57899 Y0.32776
G01 X-0.57918 Y0.33140
G01 X-0.57922 Y0.41959
G01 X-0.57882 Y0.42025
G01 X-0.57943 Y0.41925
G01 X-0.58252 Y0.41741
G01 X-0.58583 Y0.41588
G01 X-0.59038 Y0.41424
G01 X-0.59309 Y0.41346
G01 X-0.59586 Y0.41291
G01 X-0.60011 Y0.41243
G01 X-0.60279 Y0.41231
G01 X-0.62371 Y0.41235
G01 X-0.62887 Y0.41281
G01 X-0.63472 Y0.41417
G01 X-0.63855 Y0.41542
G01 X-0.64185 Y0.41692
G01 X-0.64672 Y0.41970
G01 X-0.64921 Y0.41754
G01 X-0.65456 Y0.41347
G01 X-0.66061 Y0.40973
G01 X-0.66238 Y0.40882
G01 X-0.66306 Y0.40893
G01 X-0.66238 Y0.40882
G01 X-0.61716 Y0.36351
G01 X-0.61417 Y0.35977
G01 X-0.61188 Y0.35609
G01 X-0.60966 Y0.35143
G01 X-0.60814 Y0.34681
G01 X-0.60713 Y0.34133
G01 X-0.60679 Y0.33692
G01 X-0.60679 Y0.25835
G01 X-0.55121 Y0.20273
G01 X-0.54808 Y0.19895
G01 X-0.54490 Y0.19378
G01 X-0.54267 Y0.19250
G01 X-0.54035 Y0.19092
G01 X-0.53817 Y0.18915
G01 X-0.53614 Y0.18722
G01 X-0.53428 Y0.18512
G01 X-0.53265 Y0.18297
G01 X-0.52856 Y0.17509
G01 X-0.52694 Y0.17295
G01 X-0.52479 Y0.17057
G01 X-0.52274 Y0.16865
G01 X-0.52054 Y0.16691
G01 X-0.51821 Y0.16536
G01 X-0.51467 Y0.16348
G01 X-0.51094 Y0.16202
G01 X-0.50706 Y0.16101
G01 X-0.50310 Y0.16045
G01 X-0.50029 Y0.16033
G01 X-0.45852 Y0.16042
G01 X-0.45534 Y0.16079
G01 X-0.45220 Y0.16146
G01 X-0.44877 Y0.16255
G01 X-0.44582 Y0.16382
G01 X-0.44301 Y0.16536
G01 X-0.44003 Y0.16739
G01 X-0.43758 Y0.16945
G01 X-0.43532 Y0.17173
G01 X-0.43265 Y0.17510
G01 X-0.42856 Y0.18297
G01 X-0.42793 Y0.18386
G01 X-0.42479 Y0.18750
G01 X-0.42096 Y0.19085
G01 X-0.42088 Y0.26098
G01 X-0.42005 Y0.26687
G01 X-0.41882 Y0.27154
G01 X-0.41748 Y0.27490
G01 X-0.41568 Y0.27840
G01 X-0.41485 Y0.27885
G01 X-0.41564 Y0.27845
G01 X-0.42648 Y0.27845
G01 X-0.42688 Y0.27885
G01 X-0.42648 Y0.27845
G01 X-0.42656 Y0.19238
G01 X-0.42715 Y0.18801
G01 X-0.42842 Y0.18338
G01 X-0.43265 Y0.17510
G01 X-0.43341 Y0.17278
G01 X-0.43441 Y0.16808
G01 X-0.43474 Y0.16369
G01 X-0.43474 Y0.06447
G01 X-0.43446 Y0.06007
G01 X-0.43372 Y0.05613
G01 X-0.43267 Y0.05269
G01 X-0.43108 Y0.04901
G01 X-0.42929 Y0.04587
G01 X-0.42719 Y0.04295
G01 X-0.42479 Y0.04025
G01 X-0.42213 Y0.03782
G01 X-0.41889 Y0.03547
G01 X-0.41503 Y0.03333
G01 X-0.41132 Y0.03183
G01 X-0.40706 Y0.03069
G01 X-0.40310 Y0.03013
G01 X-0.40029 Y0.03002
G01 X-0.36092 Y0.03002
G01 X-0.35693 Y0.03025
G01 X-0.35298 Y0.03095
G01 X-0.34952 Y0.03196
G01 X-0.34618 Y0.03333
G01 X-0.34267 Y0.03525
G01 X-0.33972 Y0.03732
G01 X-0.33671 Y0.03997
G01 X-0.33403 Y0.04295
G01 X-0.33192 Y0.04587
G01 X-0.32962 Y0.05009
G01 X-0.32804 Y0.05421
G01 X-0.32693 Y0.05888
G01 X-0.32648 Y0.06367
G01 X-0.32648 Y0.16409
G01 X-0.32666 Y0.16689
G01 X-0.32707 Y0.16966
G01 X-0.32770 Y0.17240
G01 X-0.32856 Y0.17509
G04 P0 ( dwell for no time -- G64 should not smooth over this point )
G00 Z0.05906 ( retract )

G00 X-0.58239 Y0.53069 ( rapid move to begin. )
G01 F19.68504
( Mill infeed pass 1/1 )
G01 Z-0.00354
G04 P0 ( dwell for no time -- G64 should not smooth over this point )
G01 F39.37008
G01 X-0.58239 Y0.53069
G01 X-0.58306 Y0.53149
G01 X-0.58368 Y0.53393
G01 X-0.58417 Y0.53670
G01 X-0.58458 Y0.54084
G01 X-0.58461 Y0.56470
G01 X-0.58427 Y0.56820
G01 X-0.58328 Y0.57385
G01 X-0.58210 Y0.57770
G01 X-0.58019 Y0.58220
G01 X-0.57782 Y0.58634
G01 X-0.57596 Y0.58906
G01 X-0.57419 Y0.59126
G01 X-0.57225 Y0.59331
G01 X-0.56950 Y0.59583
G01 X-0.56601 Y0.59860
G01 X-0.56183 Y0.60109
G01 X-0.55808 Y0.60286
G01 X-0.55544 Y0.60391
G01 X-0.55272 Y0.60473
G01 X-0.54994 Y0.60533
G01 X-0.54725 Y0.60574
G01 X-0.54640 Y0.60545
G01 X-0.54725 Y0.60574
G01 X-0.57232 Y0.63081
G01 X-0.63455 Y0.63081
G01 X-0.63877 Y0.62503
G01 X-0.64099 Y0.62237
G01 X-0.64564 Y0.61752
G01 X-0.65073 Y0.61315
G01 X-0.65319 Y0.61130
G01 X-0.65885 Y0.60758
G01 X-0.66819 Y0.60293
G01 X-0.67816 Y0.59962
G01 X-0.68607 Y0.59811
G01 X-0.68874 Y0.59774
G01 X-0.69421 Y0.59737
G01 X-0.70001 Y0.59743
G01 X-0.70581 Y0.59795
G01 X-0.71112 Y0.59884
G01 X-0.71112 Y0.54660
G01 X-0.71152 Y0.54611
G01 X-0.71112 Y0.54660
G01 X-0.70662 Y0.54740
G01 X-0.70029 Y0.54803
G01 X-0.69434 Y0.54809
G01 X-0.69162 Y0.54796
G01 X-0.68560 Y0.54734
G01 X-0.67812 Y0.54584
G01 X-0.67232 Y0.54411
G01 X-0.66705 Y0.54204
G01 X-0.66457 Y0.54093
G01 X-0.65999 Y0.53853
G01 X-0.65764 Y0.53715
G01 X-0.65270 Y0.53384
G01 X-0.64667 Y0.52890
G01 X-0.64391 Y0.53065
G01 X-0.64140 Y0.53195
G01 X-0.63462 Y0.53451
G01 X-0.62954 Y0.53571
G01 X-0.62356 Y0.53630
G01 X-0.60267 Y0.53632
G01 X-0.59704 Y0.53588
G01 X-0.59387 Y0.53534
G01 X-0.59077 Y0.53451
G01 X-0.58584 Y0.53275
G01 X-0.58306 Y0.53149

G00 Z0.39370 (Retract to tool change height)
T2
M5      (Spindle stop.)
G04 P1.00000 (Wait for spindle to stop)
(MSG, Change tool bit to mill diameter 0.03346in)
M6      (Tool change.)
M0      (Temporary machine stop.)
M3 ( Spindle on clockwise. )
G04 P1.00000 (Wait for spindle to get up to speed)
G04 P0 ( dwell for no time -- G64 should not smooth over this point )
G00 Z0.05906 ( retract )

G00 X-0.16699 Y0.37687 ( rapid move to begin. )
G01 F19.68504
( Mill infeed pass 1/1 )
G01 Z-0.00354
G04 P0 ( dwell for no time -- G64 should not smooth over this point )
G01 F39.37008
G01 X-0.16699 Y0.37687
G01 X-0.16879 Y0.37687
G01 X-0.24111 Y0.30455
G01 X-0.23961 Y0.30123
G04 P0 ( dwell for no time -- G64 should not smooth over this point )
G00 Z0.05906 ( retract )

G00 X-0.35207 Y0.24494 ( rapid move to begin. )
G01 F19.68504
( Mill infeed pass 1/1 )
G01 Z-0.00354
G04 P0 ( dwell for no time -- G64 should not smooth over this point )
G01 F39.37008
G01 X-0.35207 Y0.24494
G01 X-0.35207 Y0.24674
G01 X-0.35080 Y0.24801
G01 X-0.34008 Y0.25528
G01 X-0.33934 Y0.25947
G01 X-0.32293 Y0.27587
G01 X-0.32293 Y0.26816
G01 X-0.32708 Y0.25814
G01 X-0.32293 Y0.26816
G01 X-0.32293 Y0.25267
G01 X-0.32293 Y0.27587
G01 X-0.32253 Y0.27684
G01 X-0.32293 Y0.27587
G01 X-0.32839 Y0.27042
G01 X-0.33254 Y0.26040
G01 X-0.34008 Y0.25528
G01 X-0.35207 Y0.18775
G01 X-0.35207 Y0.18412
G01 X-0.34943 Y0.18279
G04 P0 ( dwell for no time -- G64 should not smooth over this point )
G00 Z0.05906 ( retract )

G00 X-0.41179 Y0.18279 ( rapid move to begin. )
G01 F19.68504
( Mill infeed pass 1/1 )
G01 Z-0.00354
G04 P0 ( dwell for no time -- G64 should not smooth over this point )
G01 F39.37008
G01 X-0.41179 Y0.18279
G01 X-0.40915 Y0.18412
G01 X-0.40915 Y0.18775
G04 P0 ( dwell for no time -- G64 should not smooth over this point )
G00 Z0.05906 ( retract )

G00 X-0.40308 Y0.28132 ( rapid move to begin. )
G01 F19.68504
( Mill infeed pass 1/1 )
G01 Z-0.00354
G04 P0 ( dwell for no time -- G64 should not smooth over this point )
G01 F39.37008
G01 X-0.40308 Y0.28132
G01 X-0.39467 Y0.28480
G01 X-0.40160 Y0.27786
G01 X-0.40309 Y0.27614
G01 X-0.40131 Y0.27816
G01 X-0.38922 Y0.29026
G01 X-0.38826 Y0.29066
G01 X-0.38922 Y0.29026
G01 X-0.39693 Y0.29026
G01 X-0.40550 Y0.28670
G01 X-0.43317 Y0.28931
G01 X-0.43411 Y0.29026
G01 X-0.43829 Y0.29026
G01 X-0.43869 Y0.29066
G01 X-0.43829 Y0.29026
G01 X-0.43829 Y0.28608
G01 X-0.43734 Y0.28514
G01 X-0.43829 Y0.28608
G01 X-0.43829 Y0.28319
G01 X-0.43829 Y0.29026
G01 X-0.39693 Y0.29026
G04 P0 ( dwell for no time -- G64 should not smooth over this point )
G00 Z0.05906 ( retract )

G00 X-0.50432 Y0.40110 ( rapid move to begin. )
G01 F19.68504
( Mill infeed pass 1/1 )
G01 Z-0.00354
G04 P0 ( dwell for no time -- G64 should not smooth over this point )
G01 F39.37008
G01 X-0.50432 Y0.40110
G01 X-0.50283 Y0.40708
G01 X-0.50148 Y0.41032
G01 X-0.48193 Y0.42018
G01 X-0.38250 Y0.42018
G01 X-0.37490 Y0.41952
G01 X-0.35785 Y0.41944
G01 X-0.35236 Y0.41917
G01 X-0.33904 Y0.40433
G01 X-0.33702 Y0.40067
G01 X-0.33574 Y0.39684
G01 X-0.33531 Y0.39446
G01 X-0.33514 Y0.39204
G01 X-0.33514 Y0.34438
G01 X-0.32968 Y0.34984
G01 X-0.32552 Y0.35990
G01 X-0.32541 Y0.35988
G01 X-0.32552 Y0.35990
G01 X-0.32529 Y0.36103
G01 X-0.32529 Y0.39164
G01 X-0.32576 Y0.39925
G01 X-0.32662 Y0.40400
G01 X-0.34534 Y0.42889
G01 X-0.35151 Y0.42503
G01 X-0.35777 Y0.42534
G01 X-0.37472 Y0.42542
G01 X-0.38237 Y0.42619
G01 X-0.37472 Y0.42542
G01 X-0.35777 Y0.42534
G01 X-0.35151 Y0.42503
G01 X-0.34534 Y0.42889
G01 X-0.34685 Y0.43089
G01 X-0.35125 Y0.43052
G01 X-0.37329 Y0.43056
G01 X-0.37691 Y0.43094
G01 X-0.37927 Y0.43143
G01 X-0.38282 Y0.43253
G01 X-0.38552 Y0.43371
G01 X-0.38282 Y0.43253
G01 X-0.37927 Y0.43143
G01 X-0.37691 Y0.43094
G01 X-0.37329 Y0.43056
G01 X-0.35125 Y0.43052
G01 X-0.34685 Y0.43089
G01 X-0.34534 Y0.42889
G01 X-0.33409 Y0.43589
G01 X-0.32981 Y0.43939
G01 X-0.32794 Y0.43672
G01 X-0.32499 Y0.43342
G01 X-0.32318 Y0.43170
G01 X-0.32136 Y0.43030
G01 X-0.32136 Y0.35818
G01 X-0.33514 Y0.34438
G01 X-0.33554 Y0.34342
G01 X-0.33514 Y0.34438
G01 X-0.33514 Y0.35210
G01 X-0.33120 Y0.36162
G01 X-0.33120 Y0.39155
G01 X-0.33161 Y0.39837
G01 X-0.33239 Y0.40270
G01 X-0.34917 Y0.41257
G01 X-0.35063 Y0.41311
G01 X-0.35376 Y0.41391
G01 X-0.35737 Y0.41427
G01 X-0.48376 Y0.41427
G01 X-0.48618 Y0.41414
G01 X-0.48989 Y0.41342
G01 X-0.49676 Y0.41016
G01 X-0.49858 Y0.40874
G01 X-0.50087 Y0.40646
G01 X-0.50302 Y0.40353
G01 X-0.50452 Y0.40067
G01 X-0.50559 Y0.39762
G01 X-0.50622 Y0.39446
G01 X-0.50640 Y0.39163
G01 X-0.50640 Y0.34007
G01 X-0.50600 Y0.33911
G01 X-0.50640 Y0.34007
G01 X-0.51033 Y0.34401
G01 X-0.51033 Y0.43029
G01 X-0.50866 Y0.43164
G01 X-0.51033 Y0.43029
G01 X-0.51033 Y0.40139
G01 X-0.50851 Y0.40872
G01 X-0.50691 Y0.41265
G01 X-0.50838 Y0.40915
G01 X-0.40544 Y0.50974
G01 X-0.39972 Y0.50974
G01 X-0.39865 Y0.50781
G01 X-0.39658 Y0.50474
G01 X-0.39354 Y0.50137
G01 X-0.39625 Y0.49838
G01 X-0.39772 Y0.49644
G01 X-0.39625 Y0.49838
G01 X-0.39757 Y0.49838
G01 X-0.39625 Y0.49838
G01 X-0.39354 Y0.50137
G01 X-0.39298 Y0.50138
G01 X-0.39354 Y0.50137
G01 X-0.39623 Y0.50429
G01 X-0.39913 Y0.50429
G01 X-0.49302 Y0.51130
G01 X-0.49902 Y0.51712
G01 X-0.49902 Y0.51850
G01 X-0.50194 Y0.52125
G01 X-0.50492 Y0.51850
G01 X-0.50492 Y0.51587
G01 X-0.50469 Y0.51472
G01 X-0.50402 Y0.51376
G01 X-0.49709 Y0.50702
G01 X-0.50402 Y0.51376
G01 X-0.50412 Y0.51369
G01 X-0.50402 Y0.51376
G01 X-0.50469 Y0.51472
G01 X-0.50492 Y0.51587
G01 X-0.50504 Y0.51585
G01 X-0.50492 Y0.51587
G01 X-0.50492 Y0.51850
G01 X-0.50194 Y0.52125
G01 X-0.49922 Y0.51866
G01 X-0.49553 Y0.51611
G01 X-0.49267 Y0.51461
G01 X-0.48849 Y0.51301
G01 X-0.49304 Y0.51478
G01 X-0.49621 Y0.51654
G01 X-0.49859 Y0.51817
G01 X-0.50042 Y0.51969
G01 X-0.50194 Y0.52125
G01 X-0.50193 Y0.52182
G01 X-0.50194 Y0.52125
G01 X-0.50376 Y0.51947
G01 X-0.50565 Y0.51794
G01 X-0.50794 Y0.51640
G01 X-0.50551 Y0.51402
G01 X-0.50237 Y0.51001
G01 X-0.49991 Y0.50554
G01 X-0.49865 Y0.50219
G04 P0 ( dwell for no time -- G64 should not smooth over this point )
G00 Z0.05906 ( retract )

G00 X-0.39070 Y0.56942 ( rapid move to begin. )
G01 F19.68504
( Mill infeed pass 1/1 )
G01 Z-0.00354
G04 P0 ( dwell for no time -- G64 should not smooth over this point )
G01 F39.37008
G01 X-0.39070 Y0.56942
G01 X-0.39750 Y0.57273
G01 X-0.39871 Y0.57273
G01 X-0.39750 Y0.57273
G01 X-0.39831 Y0.57353
G01 X-0.39767 Y0.58202
G01 X-0.39432 Y0.57789
G01 X-0.39063 Y0.57464
G01 X-0.38761 Y0.57263
G01 X-0.38468 Y0.57109
G01 X-0.38267 Y0.57027
G01 X-0.38697 Y0.56827
G01 X-0.38938 Y0.56683
G01 X-0.43135 Y0.56683
G01 X-0.43174 Y0.56943
G01 X-0.43243 Y0.57200
G01 X-0.39614 Y0.64197
G01 X-0.39354 Y0.63922
G01 X-0.39294 Y0.63922
G01 X-0.39354 Y0.63922
G01 X-0.39625 Y0.63612
G01 X-0.39622 Y0.63623
G04 P0 ( dwell for no time -- G64 should not smooth over this point )
G00 Z0.05906 ( retract )

G00 X-0.27421 Y0.52318 ( rapid move to begin. )
G01 F19.68504
( Mill infeed pass 1/1 )
G01 Z-0.00354
G04 P0 ( dwell for no time -- G64 should not smooth over this point )
G01 F39.37008
G01 X-0.27421 Y0.52318
G01 X-0.27792 Y0.52406
G01 X-0.28247 Y0.52450
G01 X-0.30241 Y0.52451
G01 X-0.30490 Y0.52437
G01 X-0.31006 Y0.52357
G01 X-0.31344 Y0.52254
G01 X-0.31918 Y0.51979
G01 X-0.32079 Y0.51875
G01 X-0.32135 Y0.51784
G01 X-0.32079 Y0.51875
G01 X-0.32039 Y0.52288
G01 X-0.32037 Y0.53927
G01 X-0.31546 Y0.54419
G01 X-0.18049 Y0.54419
G01 X-0.17896 Y0.54134
G01 X-0.17102 Y0.53065
G01 X-0.16677 Y0.52649
G01 X-0.16320 Y0.52352
G01 X-0.16253 Y0.52351
G01 X-0.16320 Y0.52352
G01 X-0.16672 Y0.52058
G01 X-0.17243 Y0.52058
G01 X-0.20120 Y0.52342
G01 X-0.20412 Y0.52407
G01 X-0.20828 Y0.52448
G01 X-0.22896 Y0.52451
G01 X-0.23387 Y0.52407
G01 X-0.23771 Y0.52313
G01 X-0.24148 Y0.52177
G01 X-0.24406 Y0.52055
G01 X-0.25138 Y0.51498
G01 X-0.25412 Y0.51191
G01 X-0.25590 Y0.50938
G01 X-0.25590 Y0.50859
G01 X-0.25590 Y0.50938
G01 X-0.25574 Y0.50965
G01 X-0.25437 Y0.51160
G01 X-0.25295 Y0.51324
G01 X-0.25295 Y0.51447
G01 X-0.24291 Y0.52754
G01 X-0.23929 Y0.52883
G01 X-0.23692 Y0.52949
G01 X-0.23449 Y0.52994
G01 X-0.23100 Y0.53031
G01 X-0.20739 Y0.53034
G01 X-0.20608 Y0.53022
G01 X-0.18706 Y0.51545
G01 X-0.18412 Y0.51221
G01 X-0.18269 Y0.51032
G01 X-0.18146 Y0.50828
G01 X-0.17960 Y0.50456
G01 X-0.17574 Y0.51064
G01 X-0.17217 Y0.51513
G01 X-0.16794 Y0.51951
G01 X-0.16320 Y0.52352
G01 X-0.16677 Y0.52649
G01 X-0.17032 Y0.52647
G01 X-0.20427 Y0.53829
G01 X-0.31301 Y0.53829
G01 X-0.31320 Y0.53874
G01 X-0.31301 Y0.53829
G01 X-0.31447 Y0.53683
G01 X-0.31492 Y0.53701
G01 X-0.31447 Y0.53683
G01 X-0.31447 Y0.53309
G01 X-0.31889 Y0.52716
G01 X-0.32037 Y0.52485
G01 X-0.32041 Y0.52244
G01 X-0.32079 Y0.51875
G01 X-0.31849 Y0.52018
G01 X-0.31540 Y0.52168
G01 X-0.31409 Y0.52372
G01 X-0.30967 Y0.52965
G01 X-0.30576 Y0.53021
G01 X-0.30283 Y0.53041
G01 X-0.28282 Y0.53041
G01 X-0.27832 Y0.53007
G01 X-0.26043 Y0.51498
G01 X-0.25769 Y0.51191
G01 X-0.25590 Y0.50938
G01 X-0.25720 Y0.51128
G01 X-0.25886 Y0.51324
G01 X-0.25886 Y0.51447
G04 P0 ( dwell for no time -- G64 should not smooth over this point )
G00 Z0.05906 ( retract )

G00 X-0.22544 Y0.42412 ( rapid move to begin. )
G01 F19.68504
( Mill infeed pass 1/1 )
G01 Z-0.00354
G04 P0 ( dwell for no time -- G64 should not smooth over this point )
G01 F39.37008
G01 X-0.22544 Y0.42412
G01 X-0.20773 Y0.42418
G01 X-0.20165 Y0.42508
G01 X-0.19979 Y0.42600
G01 X-0.20117 Y0.42522
G01 X-0.26427 Y0.36211
G01 X-0.26467 Y0.36114
G01 X-0.26427 Y0.36211
G01 X-0.26427 Y0.43029
G01 X-0.26147 Y0.43257
G01 X-0.25977 Y0.43424
G01 X-0.25825 Y0.43608
G01 X-0.25588 Y0.43939
G01 X-0.25452 Y0.43723
G01 X-0.25299 Y0.43529
G01 X-0.25296 Y0.43212
G01 X-0.25299 Y0.43529
G01 X-0.24916 Y0.43162
G01 X-0.25212 Y0.43435
G01 X-0.25377 Y0.43623
G01 X-0.25588 Y0.43939
G01 X-0.25588 Y0.44015
G01 X-0.25589 Y0.43932
G01 X-0.25889 Y0.43525
G01 X-0.25885 Y0.43102
G01 X-0.26012 Y0.37984
G01 X-0.26427 Y0.36982
G01 X-0.26427 Y0.36211
G01 X-0.25882 Y0.36756
G01 X-0.25467 Y0.37759
G01 X-0.21768 Y0.41454
G01 X-0.20769 Y0.41870
G01 X-0.20117 Y0.42522
G01 X-0.20649 Y0.42430
G01 X-0.21004 Y0.42412
G01 X-0.22001 Y0.41996
G04 P0 ( dwell for no time -- G64 should not smooth over this point )
G00 Z0.05906 ( retract )

G00 X-0.18214 Y0.43915 ( rapid move to begin. )
G01 F19.68504
( Mill infeed pass 1/1 )
G01 Z-0.00354
G04 P0 ( dwell for no time -- G64 should not smooth over this point )
G01 F39.37008
G01 X-0.18214 Y0.43915
G01 X-0.18075 Y0.43990
G01 X-0.17967 Y0.44024
G01 X-0.17969 Y0.44066
G01 X-0.17967 Y0.44024
G01 X-0.17854 Y0.44014
G01 X-0.17661 Y0.43922
G01 X-0.17320 Y0.43472
G01 X-0.17252 Y0.43396
G01 X-0.17163 Y0.43356
G01 X-0.17252 Y0.43396
G01 X-0.18225 Y0.43390
G01 X-0.18697 Y0.43320
G01 X-0.18842 Y0.43244
G01 X-0.18697 Y0.43320
G01 X-0.18342 Y0.43729
G01 X-0.18165 Y0.43999
G01 X-0.17960 Y0.44407
G01 X-0.17661 Y0.43922
G04 P0 ( dwell for no time -- G64 should not smooth over this point )
G00 Z0.05906 ( retract )

G00 X-0.17925 Y0.51269 ( rapid move to begin. )
G01 F19.68504
( Mill infeed pass 1/1 )
G01 Z-0.00354
G04 P0 ( dwell for no time -- G64 should not smooth over this point )
G01 F39.37008
G01 X-0.17925 Y0.51269
G01 X-0.17931 Y0.51524
G04 P0 ( dwell for no time -- G64 should not smooth over this point )
G00 Z0.05906 ( retract )

G00 X-0.27491 Y0.62206 ( rapid move to begin. )
G01 F19.68504
( Mill infeed pass 1/1 )
G01 Z-0.00354
G04 P0 ( dwell for no time -- G64 should not smooth over this point )
G01 F39.37008
G01 X-0.27491 Y0.62206
G01 X-0.27906 Y0.62124
G01 X-0.28187 Y0.62101
G01 X-0.30376 Y0.62101
G01 X-0.30657 Y0.62124
G01 X-0.31000 Y0.62189
G01 X-0.31230 Y0.62252
G01 X-0.31742 Y0.62476
G01 X-0.31952 Y0.62589
G01 X-0.32149 Y0.62723
G01 X-0.32249 Y0.62804
G01 X-0.32345 Y0.62935
G01 X-0.32246 Y0.62800
G01 X-0.32212 Y0.62703
G01 X-0.32110 Y0.62347
G01 X-0.32063 Y0.62054
G01 X-0.31448 Y0.61218
G01 X-0.31449 Y0.60718
G01 X-0.31623 Y0.60545
G01 X-0.31449 Y0.60718
G01 X-0.20426 Y0.60718
G01 X-0.18253 Y0.60646
G01 X-0.17681 Y0.60754
G01 X-0.17412 Y0.61116
G01 X-0.17606 Y0.61212
G01 X-0.17796 Y0.61333
G01 X-0.18084 Y0.61276
G01 X-0.17796 Y0.61333
G01 X-0.17969 Y0.61468
G01 X-0.18139 Y0.61633
G01 X-0.18536 Y0.62218
G01 X-0.18669 Y0.62580
G01 X-0.18740 Y0.62968
G01 X-0.19009 Y0.62741
G01 X-0.19394 Y0.62492
G01 X-0.20121 Y0.62205
G01 X-0.20413 Y0.62141
G01 X-0.20895 Y0.62097
G01 X-0.22901 Y0.62097
G01 X-0.23191 Y0.62121
G01 X-0.23690 Y0.62206
G01 X-0.23204 Y0.61527
G01 X-0.22859 Y0.61506
G01 X-0.20900 Y0.61506
G01 X-0.20606 Y0.61525
G01 X-0.20900 Y0.61506
G01 X-0.22859 Y0.61506
G01 X-0.23204 Y0.61527
G01 X-0.23690 Y0.62206
G01 X-0.23191 Y0.62121
G01 X-0.22901 Y0.62097
G01 X-0.20895 Y0.62097
G01 X-0.20413 Y0.62141
G01 X-0.20121 Y0.62205
G01 X-0.19394 Y0.62492
G01 X-0.19009 Y0.62741
G01 X-0.18740 Y0.62968
G01 X-0.18669 Y0.62580
G01 X-0.18545 Y0.62239
G01 X-0.18139 Y0.61633
G01 X-0.17938 Y0.61442
G01 X-0.17710 Y0.61275
G01 X-0.17417 Y0.61116
G01 X-0.17351 Y0.61131
G01 X-0.17412 Y0.61116
G01 X-0.17656 Y0.60791
G01 X-0.17935 Y0.60346
G01 X-0.18050 Y0.60128
G01 X-0.32041 Y0.60133
G01 X-0.32045 Y0.61862
G01 X-0.32101 Y0.62307
G01 X-0.32249 Y0.62804
G01 X-0.31952 Y0.62589
G01 X-0.31586 Y0.62402
G01 X-0.30985 Y0.61584
G01 X-0.30655 Y0.61529
G01 X-0.30375 Y0.61511
G01 X-0.28188 Y0.61511
G01 X-0.27901 Y0.61530
G01 X-0.26017 Y0.63067
G01 X-0.25887 Y0.63213
G01 X-0.25887 Y0.63106
G01 X-0.25887 Y0.63213
G01 X-0.25699 Y0.63446
G01 X-0.25589 Y0.63612
G01 X-0.25297 Y0.63212
G01 X-0.25297 Y0.63104
G01 X-0.25297 Y0.63212
G01 X-0.25147 Y0.63056
G01 X-0.25312 Y0.63229
G01 X-0.25460 Y0.63419
G01 X-0.25589 Y0.63612
G01 X-0.25591 Y0.63688
G04 P0 ( dwell for no time -- G64 should not smooth over this point )
G00 Z0.05906 ( retract )

G00 X-0.37799 Y0.73120 ( rapid move to begin. )
G01 F19.68504
( Mill infeed pass 1/1 )
G01 Z-0.00354
G04 P0 ( dwell for no time -- G64 should not smooth over this point )
G01 F39.37008
G01 X-0.37799 Y0.73120
G01 X-0.35777 Y0.73120
G01 X-0.35517 Y0.73135
G01 X-0.35901 Y0.72941
G01 X-0.36892 Y0.72530
G01 X-0.37144 Y0.72530
G01 X-0.36892 Y0.72530
G01 X-0.35901 Y0.72941
G01 X-0.35517 Y0.73135
G01 X-0.35218 Y0.73190
G01 X-0.34911 Y0.73292
G01 X-0.34728 Y0.73378
G01 X-0.34520 Y0.73502
G01 X-0.34235 Y0.73727
G01 X-0.34015 Y0.73963
G01 X-0.33810 Y0.74264
G01 X-0.33671 Y0.74555
G01 X-0.33574 Y0.74863
G01 X-0.33527 Y0.75142
G01 X-0.33514 Y0.75990
G01 X-0.33254 Y0.75580
G01 X-0.33536 Y0.75070
G01 X-0.33049 Y0.74759
G01 X-0.32663 Y0.75045
G01 X-0.32381 Y0.75204
G01 X-0.32755 Y0.75265
G01 X-0.33019 Y0.74784
G01 X-0.35163 Y0.72653
G01 X-0.35664 Y0.72399
G01 X-0.36667 Y0.71984
G01 X-0.37057 Y0.71594
G01 X-0.37042 Y0.71563
G01 X-0.37057 Y0.71594
G01 X-0.37309 Y0.71591
G01 X-0.37057 Y0.71594
G01 X-0.36667 Y0.71984
G01 X-0.35664 Y0.72399
G01 X-0.35163 Y0.72653
G01 X-0.36812 Y0.71004
G01 X-0.37347 Y0.70998
G01 X-0.37783 Y0.70939
G01 X-0.63764 Y0.69971
G01 X-0.64132 Y0.69971
G01 X-0.64302 Y0.70272
G04 P0 ( dwell for no time -- G64 should not smooth over this point )
G00 Z0.05906 ( retract )

G00 X-0.64310 Y0.63953 ( rapid move to begin. )
G01 F19.68504
( Mill infeed pass 1/1 )
G01 Z-0.00354
G04 P0 ( dwell for no time -- G64 should not smooth over this point )
G01 F39.37008
G01 X-0.64310 Y0.63953
G01 X-0.64131 Y0.64262
G01 X-0.56743 Y0.64262
G01 X-0.51860 Y0.59378
G01 X-0.52353 Y0.59438
G01 X-0.54126 Y0.59439
G01 X-0.52692 Y0.59439
G01 X-0.53649 Y0.59836
G01 X-0.52692 Y0.59439
G01 X-0.52353 Y0.59438
G01 X-0.52104 Y0.59415
G01 X-0.51860 Y0.59378
G01 X-0.51726 Y0.59301
G01 X-0.51860 Y0.59378
G01 X-0.52466 Y0.59985
G01 X-0.53429 Y0.60384
G01 X-0.72103 Y0.53845
G01 X-0.72293 Y0.53569
G01 X-0.72293 Y0.53031
G01 X-0.71727 Y0.53269
G01 X-0.71308 Y0.53400
G01 X-0.71803 Y0.53239
G01 X-0.71633 Y0.53488
G01 X-0.71803 Y0.53239
G01 X-0.72292 Y0.53034
G01 X-0.72333 Y0.52967
G01 X-0.72293 Y0.53031
G01 X-0.72293 Y0.60422
G01 X-0.71505 Y0.61210
G01 X-0.71124 Y0.61105
G01 X-0.65273 Y0.51830
G01 X-0.65023 Y0.51576
G01 X-0.64744 Y0.51236
G01 X-0.64433 Y0.51576
G01 X-0.64240 Y0.51746
G01 X-0.64433 Y0.51576
G01 X-0.64744 Y0.51236
G01 X-0.65023 Y0.51576
G01 X-0.65273 Y0.51830
G01 X-0.71124 Y0.61105
G01 X-0.57270 Y0.52233
G01 X-0.57283 Y0.52230
G01 X-0.57292 Y0.52298
G01 X-0.57283 Y0.51333
G01 X-0.57579 Y0.50933
G01 X-0.57579 Y0.50859
G01 X-0.57579 Y0.50933
G01 X-0.57936 Y0.51407
G01 X-0.58160 Y0.51626
G01 X-0.58483 Y0.51873
G01 X-0.58130 Y0.51601
G01 X-0.57874 Y0.51333
G01 X-0.57874 Y0.51904
G01 X-0.57874 Y0.51333
G01 X-0.57579 Y0.50933
G01 X-0.57193 Y0.51438
G01 X-0.57022 Y0.51605
G01 X-0.56742 Y0.51834
G01 X-0.56742 Y0.52546
G01 X-0.56903 Y0.52802
G01 X-0.57018 Y0.53046
G04 P0 ( dwell for no time -- G64 should not smooth over this point )
G00 Z0.05906 ( retract )

G00 X-0.75639 Y0.65587 ( rapid move to begin. )
G01 F19.68504
( Mill infeed pass 1/1 )
G01 Z-0.00354
G04 P0 ( dwell for no time -- G64 should not smooth over this point )
G01 F39.37008
G01 X-0.75639 Y0.65587
G01 X-0.75540 Y0.65249
G01 X-0.75806 Y0.64983
G04 P0 ( dwell for no time -- G64 should not smooth over this point )
G00 Z0.05906 ( retract )

G00 X-0.65269 Y0.43035 ( rapid move to begin. )
G01 F19.68504
( Mill infeed pass 1/1 )
G01 Z-0.00354
G04 P0 ( dwell for no time -- G64 should not smooth over this point )
G01 F39.37008
G01 X-0.65269 Y0.43035
G01 X-0.65083 Y0.43222
G01 X-0.64742 Y0.43624
G01 X-0.64494 Y0.43341
G01 X-0.64219 Y0.43104
G01 X-0.67225 Y0.41719
G01 X-0.67854 Y0.41494
G01 X-0.68381 Y0.41359
G01 X-0.68466 Y0.41384
G01 X-0.68387 Y0.41360
G01 X-0.67420 Y0.40394
G01 X-0.67962 Y0.40936
G01 X-0.67525 Y0.40827
G01 X-0.67962 Y0.40936
G01 X-0.68387 Y0.41360
G01 X-0.67809 Y0.41506
G01 X-0.67413 Y0.41407
G01 X-0.67809 Y0.41506
G01 X-0.67193 Y0.41732
G01 X-0.56741 Y0.42461
G01 X-0.56741 Y0.43030
G01 X-0.56999 Y0.43236
G01 X-0.57300 Y0.43544
G01 X-0.57579 Y0.43929
G01 X-0.57579 Y0.44003
G01 X-0.57579 Y0.43929
G01 X-0.57861 Y0.43546
G01 X-0.58045 Y0.43342
G01 X-0.58224 Y0.43183
G01 X-0.58045 Y0.43342
G01 X-0.57878 Y0.43524
G01 X-0.57875 Y0.43229
G01 X-0.57878 Y0.43524
G01 X-0.57579 Y0.43929
G01 X-0.57288 Y0.43530
G01 X-0.57282 Y0.43089
G01 X-0.57288 Y0.43530
G01 X-0.56969 Y0.43209
G01 X-0.56741 Y0.43030
G01 X-0.56741 Y0.42461
G01 X-0.61860 Y0.25525
G01 X-0.61860 Y0.25346
G01 X-0.61733 Y0.25219
G01 X-0.61860 Y0.25346
G01 X-0.61860 Y0.25525
G01 X-0.52293 Y0.27408
G01 X-0.52293 Y0.27587
G01 X-0.52420 Y0.27714
G01 X-0.52293 Y0.27587
G01 X-0.52293 Y0.27408
G01 X-0.55416 Y0.18582
G01 X-0.55375 Y0.18476
G01 X-0.55268 Y0.18437
G04 P0 ( dwell for no time -- G64 should not smooth over this point )
G00 Z0.05906 ( retract )

G00 X-0.62161 Y0.17092 ( rapid move to begin. )
G01 F19.68504
( Mill infeed pass 1/1 )
G01 Z-0.00354
G04 P0 ( dwell for no time -- G64 should not smooth over this point )
G01 F39.37008
G01 X-0.62161 Y0.17092
G01 X-0.62011 Y0.17423
G01 X-0.62327 Y0.17740
G04 P0 ( dwell for no time -- G64 should not smooth over this point )
G00 Z0.05906 ( retract )

G00 X-0.67569 Y0.32290 ( rapid move to begin. )
G01 F19.68504
( Mill infeed pass 1/1 )
G01 Z-0.00354
G04 P0 ( dwell for no time -- G64 should not smooth over this point )
G01 F39.37008
G01 X-0.67569 Y0.32290
G01 X-0.67569 Y0.32469
G01 X-0.67696 Y0.32596

G00 Z0.39370 (Retract to tool change height)
T3
M5      (Spindle stop.)
G04 P1.00000 (Wait for spindle to stop)
(MSG, Change tool bit to mill diameter 0.00984in)
M6      (Tool change.)
M0      (Temporary machine stop.)
M3 ( Spindle on clockwise. )
G04 P1.00000 (Wait for spindle to get up to speed)
G04 P0 ( dwell for no time -- G64 should not smooth over this point )
G00 Z0.05906 ( retract )

G00 X-0.11161 Y0.62096 ( rapid move to begin. )
G01 F19.68504
( Mill infeed pass 1/1 )
G01 Z-0.00354
G04 P0 ( dwell for no time -- G64 should not smooth over this point )
G01 F39.37008
G01 X-0.11161 Y0.62096
G01 X-0.09468 Y0.62096
G01 X-0.09287 Y0.62042
G01 X-0.09232 Y0.62096
G01 X-0.09468 Y0.62096
G01 X-0.08711 Y0.62096
G01 X-0.08612 Y0.62195
G01 X-0.08243 Y0.62687
G01 X-0.08120 Y0.63179
G01 X-0.08120 Y0.71053
G01 X-0.08204 Y0.71461
G01 X-0.08612 Y0.71545
G01 X-0.16486 Y0.71545
G01 X-0.16978 Y0.71422
G01 X-0.17471 Y0.71053
G01 X-0.17569 Y0.70955
G01 X-0.17569 Y0.68790
G01 X-0.18898 Y0.68790
G01 X-0.18921 Y0.69206
G01 X-0.18963 Y0.69414
G01 X-0.19071 Y0.69736
G01 X-0.19290 Y0.70112
G01 X-0.19414 Y0.70268
G01 X-0.19738 Y0.70562
G01 X-0.19896 Y0.70665
G01 X-0.20218 Y0.70822
G01 X-0.20562 Y0.70920
G01 X-0.20895 Y0.70954
G01 X-0.22956 Y0.70950
G01 X-0.23123 Y0.70937
G01 X-0.23390 Y0.70884
G01 X-0.23726 Y0.70759
G01 X-0.23877 Y0.70682
G01 X-0.24104 Y0.70530
G01 X-0.24380 Y0.70273
G01 X-0.24854 Y0.70049
G01 X-0.25221 Y0.69836
G01 X-0.25223 Y0.64852
G01 X-0.25221 Y0.69836
G01 X-0.24854 Y0.70049
G01 X-0.24380 Y0.70273
G01 X-0.24509 Y0.70110
G01 X-0.24746 Y0.69694
G01 X-0.24864 Y0.69269
G01 X-0.24894 Y0.69083
G01 X-0.24901 Y0.65285
G01 X-0.24861 Y0.64914
G01 X-0.24750 Y0.64574
G01 X-0.24861 Y0.64914
G01 X-0.24901 Y0.65285
G01 X-0.24891 Y0.69121
G01 X-0.24786 Y0.69581
G01 X-0.24713 Y0.69766
G01 X-0.24466 Y0.70172
G01 X-0.24203 Y0.70449
G01 X-0.24069 Y0.70555
G01 X-0.23765 Y0.70742
G01 X-0.23432 Y0.70873
G01 X-0.23081 Y0.70943
G01 X-0.20942 Y0.70955
G01 X-0.20604 Y0.70926
G01 X-0.20218 Y0.70822
G01 X-0.19896 Y0.70665
G01 X-0.19708 Y0.70538
G01 X-0.19415 Y0.70269
G01 X-0.18943 Y0.70048
G01 X-0.18500 Y0.69801
G01 X-0.18363 Y0.69779
G01 X-0.18367 Y0.69724
G01 X-0.18363 Y0.69779
G01 X-0.18229 Y0.69810
G01 X-0.18168 Y0.69843
G01 X-0.18157 Y0.69826
G01 X-0.18168 Y0.69843
G01 X-0.17569 Y0.70433
G01 X-0.17569 Y0.70955
G01 X-0.19142 Y0.70955
G01 X-0.18614 Y0.70709
G01 X-0.18436 Y0.70609
G01 X-0.18091 Y0.70955
G01 X-0.17569 Y0.70955
G01 X-0.30458 Y0.70955
G01 X-0.30482 Y0.70931
G01 X-0.30241 Y0.70955
G01 X-0.28286 Y0.70954
G01 X-0.27879 Y0.70906
G01 X-0.27434 Y0.70750
G01 X-0.27111 Y0.70555
G01 X-0.26937 Y0.70409
G01 X-0.26697 Y0.70144
G01 X-0.26607 Y0.70022
G01 X-0.26463 Y0.69756
G01 X-0.26406 Y0.69616
G01 X-0.26308 Y0.69232
G01 X-0.26285 Y0.69044
G01 X-0.26285 Y0.65188
G01 X-0.26308 Y0.65000
G01 X-0.26416 Y0.64588
G01 X-0.25961 Y0.64851
G01 X-0.25952 Y0.70116
G01 X-0.25986 Y0.70127
G01 X-0.25952 Y0.70116
G01 X-0.25893 Y0.70253
G01 X-0.25784 Y0.70356
G01 X-0.25797 Y0.70370
G01 X-0.25784 Y0.70356
G01 X-0.25189 Y0.70707
G01 X-0.24663 Y0.70955
G04 P0 ( dwell for no time -- G64 should not smooth over this point )
G00 Z0.05906 ( retract )

G00 X-0.18075 Y0.65443 ( rapid move to begin. )
G01 F19.68504
( Mill infeed pass 1/1 )
G01 Z-0.00354
G04 P0 ( dwell for no time -- G64 should not smooth over this point )
G01 F39.37008
G01 X-0.18075 Y0.65443
G01 X-0.18898 Y0.65443
G01 X-0.18926 Y0.64985
G01 X-0.19030 Y0.64598
G01 X-0.19225 Y0.64211
G01 X-0.19396 Y0.63997
G01 X-0.18421 Y0.64146
G01 X-0.18307 Y0.64437
G01 X-0.18307 Y0.64110
G01 X-0.18307 Y0.64437
G01 X-0.18075 Y0.65443
G01 X-0.17569 Y0.65443
G01 X-0.17569 Y0.63313
G04 P0 ( dwell for no time -- G64 should not smooth over this point )
G00 Z0.05906 ( retract )

G00 X-0.18979 Y0.49784 ( rapid move to begin. )
G01 F19.68504
( Mill infeed pass 1/1 )
G01 Z-0.00354
G04 P0 ( dwell for no time -- G64 should not smooth over this point )
G01 F39.37008
G01 X-0.18979 Y0.49784
G01 X-0.18926 Y0.49563
G01 X-0.18898 Y0.49104
G01 X-0.17281 Y0.49104
G01 X-0.17058 Y0.49634
G01 X-0.17128 Y0.55222
G01 X-0.17281 Y0.55600
G01 X-0.32035 Y0.55600
G01 X-0.33242 Y0.54392
G01 X-0.33072 Y0.51001
G01 X-0.33390 Y0.50507
G01 X-0.34654 Y0.50510
G01 X-0.34889 Y0.50454
G01 X-0.35038 Y0.50438
G01 X-0.37218 Y0.50434
G01 X-0.37713 Y0.50508
G01 X-0.38134 Y0.50508
G01 X-0.37713 Y0.50508
G01 X-0.38039 Y0.50634
G01 X-0.38244 Y0.50755
G01 X-0.38078 Y0.50653
G01 X-0.37773 Y0.50526
G01 X-0.37626 Y0.50488
G01 X-0.37259 Y0.50436
G01 X-0.35076 Y0.50437
G01 X-0.34889 Y0.50454
G01 X-0.34418 Y0.50581
G01 X-0.34276 Y0.50653
G01 X-0.33935 Y0.50870
G01 X-0.33731 Y0.51065
G01 X-0.33621 Y0.51194
G01 X-0.33444 Y0.51468
G01 X-0.33352 Y0.51693
G01 X-0.31719 Y0.50636
G01 X-0.31951 Y0.50344
G01 X-0.32136 Y0.49989
G01 X-0.32248 Y0.49605
G01 X-0.32281 Y0.49298
G01 X-0.32283 Y0.49104
G01 X-0.33638 Y0.49104
G01 X-0.33878 Y0.49356
G01 X-0.34027 Y0.49473
G01 X-0.34377 Y0.49676
G01 X-0.34655 Y0.49772
G01 X-0.33201 Y0.49769
G01 X-0.33068 Y0.49794
G01 X-0.33054 Y0.49756
G01 X-0.33068 Y0.49794
G01 X-0.32952 Y0.49843
G01 X-0.32947 Y0.49863
G01 X-0.32971 Y0.49843
G01 X-0.32866 Y0.49952
G01 X-0.32858 Y0.49945
G01 X-0.32866 Y0.49952
G01 X-0.32817 Y0.50032
G01 X-0.32450 Y0.50604
G01 X-0.32915 Y0.49889
G01 X-0.32976 Y0.49838
G01 X-0.33133 Y0.49775
G01 X-0.34655 Y0.49772
G01 X-0.34846 Y0.49816
G01 X-0.35162 Y0.49843
G01 X-0.37215 Y0.49842
G01 X-0.37496 Y0.49816
G01 X-0.37662 Y0.49779
G01 X-0.45788 Y0.52343
G01 X-0.45874 Y0.52386
G01 X-0.45971 Y0.52373
G01 X-0.51756 Y0.50888
G01 X-0.51958 Y0.51025
G01 X-0.52214 Y0.51138
G01 X-0.52214 Y0.52373
G01 X-0.51915 Y0.52424
G01 X-0.51629 Y0.52531
G01 X-0.49836 Y0.53798
G01 X-0.50814 Y0.53107
G01 X-0.50842 Y0.51123
G01 X-0.45971 Y0.52373
G01 X-0.45874 Y0.52386
G01 X-0.45788 Y0.52343
G01 X-0.37662 Y0.49779
G01 X-0.38133 Y0.49770
G01 X-0.38248 Y0.49514
G01 X-0.37966 Y0.49676
G01 X-0.37662 Y0.49779
G01 X-0.39662 Y0.52156
G01 X-0.39103 Y0.52156
G01 X-0.39061 Y0.51893
G01 X-0.39010 Y0.51726
G01 X-0.39061 Y0.51893
G01 X-0.39103 Y0.52156
G01 X-0.39662 Y0.52156
G01 X-0.51929 Y0.43858
G01 X-0.52214 Y0.43723
G01 X-0.52214 Y0.33912
G01 X-0.52087 Y0.33784
G04 P0 ( dwell for no time -- G64 should not smooth over this point )
G00 Z0.05906 ( retract )

G00 X-0.64712 Y0.44948 ( rapid move to begin. )
G01 F19.68504
( Mill infeed pass 1/1 )
G01 Z-0.00354
G04 P0 ( dwell for no time -- G64 should not smooth over this point )
G01 F39.37008
G01 X-0.64712 Y0.44948
G01 X-0.64715 Y0.44844
G01 X-0.63969 Y0.44569
G01 X-0.64124 Y0.44873
G01 X-0.64218 Y0.45174
G01 X-0.64266 Y0.45529
G01 X-0.64271 Y0.45758
G01 X-0.64904 Y0.45758
G01 X-0.65118 Y0.45243
G01 X-0.65344 Y0.44827
G01 X-0.65522 Y0.44564
G04 P0 ( dwell for no time -- G64 should not smooth over this point )
G00 Z0.05906 ( retract )

G00 X-0.66515 Y0.33086 ( rapid move to begin. )
G01 F19.68504
( Mill infeed pass 1/1 )
G01 Z-0.00354
G04 P0 ( dwell for no time -- G64 should not smooth over this point )
G01 F39.37008
G01 X-0.66515 Y0.33086
G01 X-0.66388 Y0.32959
G01 X-0.66388 Y0.32779
G04 P0 ( dwell for no time -- G64 should not smooth over this point )
G00 Z0.05906 ( retract )

G00 X-0.60957 Y0.18039 ( rapid move to begin. )
G01 F19.68504
( Mill infeed pass 1/1 )
G01 Z-0.00354
G04 P0 ( dwell for no time -- G64 should not smooth over this point )
G01 F39.37008
G01 X-0.60957 Y0.18039
G01 X-0.60295 Y0.17378
G01 X-0.60462 Y0.17321
G01 X-0.60605 Y0.17245
G01 X-0.60736 Y0.17149
G01 X-0.60856 Y0.17028
G04 P0 ( dwell for no time -- G64 should not smooth over this point )
G00 Z0.05906 ( retract )

G00 X-0.39734 Y0.18102 ( rapid move to begin. )
G01 F19.68504
( Mill infeed pass 1/1 )
G01 Z-0.00354
G04 P0 ( dwell for no time -- G64 should not smooth over this point )
G01 F39.37008
G01 X-0.39734 Y0.18102
G01 X-0.39734 Y0.17411
G01 X-0.40070 Y0.17411
G01 X-0.40249 Y0.17389
G01 X-0.56389 Y0.17411
G01 X-0.56395 Y0.17668
G01 X-0.56432 Y0.17864
G01 X-0.51112 Y0.27897
G01 X-0.51112 Y0.28077
G01 X-0.51239 Y0.28204
G01 X-0.51112 Y0.28077
G01 X-0.51112 Y0.27897
G01 X-0.63041 Y0.25036
G01 X-0.63041 Y0.24856
G01 X-0.62914 Y0.24729
G01 X-0.63041 Y0.24856
G01 X-0.63041 Y0.25036
G01 X-0.55560 Y0.43340
G01 X-0.55561 Y0.43725
G01 X-0.55835 Y0.43847
G01 X-0.56002 Y0.43830
G01 X-0.57206 Y0.45166
G01 X-0.57210 Y0.46301
G01 X-0.58419 Y0.49974
G01 X-0.55612 Y0.53007
G01 X-0.55561 Y0.52957
G01 X-0.55561 Y0.51140
G01 X-0.55846 Y0.51004
G01 X-0.55561 Y0.51140
G01 X-0.55561 Y0.52957
G01 X-0.55612 Y0.53007
G01 X-0.58419 Y0.49974
G01 X-0.57948 Y0.48543
G01 X-0.57944 Y0.49595
G01 X-0.57944 Y0.49695
G01 X-0.57948 Y0.48543
G01 X-0.58419 Y0.49974
G01 X-0.58308 Y0.49633
G01 X-0.58268 Y0.49227
G01 X-0.58268 Y0.45600
G01 X-0.58308 Y0.45229
G01 X-0.58419 Y0.44889
G01 X-0.57944 Y0.45168
G01 X-0.57948 Y0.48543
G01 X-0.56747 Y0.44897
G01 X-0.56830 Y0.45160
G01 X-0.56890 Y0.45635
G01 X-0.56889 Y0.49267
G01 X-0.56823 Y0.49740
G01 X-0.56747 Y0.49965
G01 X-0.57206 Y0.49697
G01 X-0.57206 Y0.45166
G01 X-0.55560 Y0.43340
G01 X-0.56002 Y0.43830
G01 X-0.69119 Y0.42438
G01 X-0.69629 Y0.42412
G01 X-0.70144 Y0.42438
G01 X-0.69440 Y0.42121
G01 X-0.70144 Y0.42438
G01 X-0.70572 Y0.42499
G01 X-0.70929 Y0.42582
G01 X-0.71446 Y0.42750
G01 X-0.70474 Y0.41777
G01 X-0.69687 Y0.41425
G01 X-0.69581 Y0.40884
G01 X-0.71446 Y0.42750
G01 X-0.72048 Y0.43174
G01 X-0.72419 Y0.43470
G01 X-0.72979 Y0.43980
G01 X-0.73306 Y0.44318
G01 X-0.73645 Y0.44707
G01 X-0.73817 Y0.45339
G01 X-0.73899 Y0.45718
G01 X-0.73970 Y0.46140
G01 X-0.74044 Y0.46824
G01 X-0.74063 Y0.47589
G01 X-0.74047 Y0.47994
G01 X-0.74006 Y0.48451
G01 X-0.73948 Y0.48867
G01 X-0.73787 Y0.49649
G01 X-0.73668 Y0.50081
G01 X-0.73474 Y0.50662
G01 X-0.73230 Y0.50935
G01 X-0.72806 Y0.51319
G01 X-0.72587 Y0.51773
G01 X-0.72182 Y0.51756
G01 X-0.72532 Y0.51531
G01 X-0.72895 Y0.51249
G01 X-0.73230 Y0.50935
G01 X-0.73474 Y0.50662
G01 X-0.73474 Y0.51634
G01 X-0.73229 Y0.52138
G01 X-0.73474 Y0.51634
G01 X-0.73474 Y0.52533
G01 X-0.72121 Y0.62264
G01 X-0.71794 Y0.62592
G01 X-0.71418 Y0.62428
G01 X-0.73347 Y0.61039
G01 X-0.73474 Y0.60911
G01 X-0.73474 Y0.60731
G01 X-0.64703 Y0.49869
G01 X-0.64710 Y0.50015
G01 X-0.63971 Y0.50291
G01 X-0.64124 Y0.49989
G01 X-0.64218 Y0.49688
G01 X-0.64266 Y0.49333
G01 X-0.64271 Y0.49104
G01 X-0.64904 Y0.49104
G01 X-0.65113 Y0.49606
G01 X-0.65317 Y0.49990
G01 X-0.65510 Y0.50285
G01 X-0.65073 Y0.65039
G01 X-0.64907 Y0.65443
G01 X-0.56254 Y0.65443
G01 X-0.48847 Y0.58036
G01 X-0.49185 Y0.57822
G01 X-0.49447 Y0.57564
G01 X-0.49682 Y0.57211
G01 X-0.49828 Y0.56843
G01 X-0.49826 Y0.57919
G01 X-0.49830 Y0.58099
G01 X-0.49858 Y0.58231
G01 X-0.49930 Y0.58344
G01 X-0.50146 Y0.58572
G01 X-0.50556 Y0.58950
G01 X-0.50146 Y0.58572
G01 X-0.49889 Y0.58291
G01 X-0.49869 Y0.58303
G01 X-0.49889 Y0.58291
G01 X-0.49822 Y0.58101
G01 X-0.49828 Y0.56843
G01 X-0.49901 Y0.56352
G01 X-0.49896 Y0.54168
G01 X-0.49877 Y0.54001
G01 X-0.49816 Y0.53725
G01 X-0.49593 Y0.53246
G01 X-0.49827 Y0.53348
G01 X-0.49827 Y0.53764
G01 X-0.50566 Y0.56843
G01 X-0.50565 Y0.57941
G01 X-0.51004 Y0.58362
G01 X-0.51684 Y0.58102
G01 X-0.51464 Y0.57997
G01 X-0.51197 Y0.57812
G01 X-0.50917 Y0.57519
G01 X-0.50819 Y0.57394
G01 X-0.50633 Y0.57027
G01 X-0.50576 Y0.56878
G01 X-0.50541 Y0.56723
G01 X-0.50493 Y0.56354
G01 X-0.50493 Y0.54261
G01 X-0.50524 Y0.53947
G01 X-0.50565 Y0.53784
G01 X-0.50565 Y0.53345
G01 X-0.50565 Y0.53784
G01 X-0.50685 Y0.53455
G01 X-0.50812 Y0.53235
G01 X-0.51099 Y0.32797
G01 X-0.50140 Y0.31838
G01 X-0.50495 Y0.32694
G01 X-0.50140 Y0.31838
G01 X-0.49404 Y0.31101
G01 X-0.49453 Y0.31186
G01 X-0.49458 Y0.31249
G01 X-0.49459 Y0.32120
G01 X-0.49813 Y0.32977
G01 X-0.49459 Y0.33476
G01 X-0.49453 Y0.31186
G01 X-0.49208 Y0.30765
G01 X-0.48777 Y0.30367
G01 X-0.48376 Y0.30325
G01 X-0.46092 Y0.30325
G01 X-0.45610 Y0.30265
G01 X-0.45386 Y0.30180
G01 X-0.45221 Y0.30003
G01 X-0.45100 Y0.29793
G01 X-0.45035 Y0.29590
G01 X-0.44985 Y0.29559
G01 X-0.45017 Y0.29482
G01 X-0.45085 Y0.29756
G01 X-0.45221 Y0.30003
G01 X-0.45386 Y0.30180
G01 X-0.45610 Y0.30265
G01 X-0.45456 Y0.30207
G01 X-0.44628 Y0.30207
G01 X-0.44487 Y0.30118
G01 X-0.44628 Y0.30207
G01 X-0.37036 Y0.30207
G01 X-0.37892 Y0.29852
G01 X-0.37036 Y0.30207
G01 X-0.36072 Y0.30207
G01 X-0.36754 Y0.29525
G01 X-0.37609 Y0.29170
G01 X-0.37711 Y0.28566
G01 X-0.36072 Y0.30207
G01 X-0.35777 Y0.30329
G01 X-0.35198 Y0.30710
G01 X-0.34817 Y0.31289
G01 X-0.34695 Y0.31585
G01 X-0.34695 Y0.32550
G01 X-0.34340 Y0.33408
G01 X-0.34695 Y0.33908
G01 X-0.34695 Y0.31585
G01 X-0.34013 Y0.32268
G01 X-0.33658 Y0.33125
G01 X-0.34013 Y0.32268
G01 X-0.34695 Y0.31585
G01 X-0.30955 Y0.35329
G01 X-0.30955 Y0.43723
G01 X-0.31095 Y0.43781
G01 X-0.31250 Y0.43871
G01 X-0.32845 Y0.45152
G01 X-0.32822 Y0.45405
G01 X-0.33652 Y0.44959
G01 X-0.33534 Y0.45114
G01 X-0.33394 Y0.45370
G01 X-0.33337 Y0.45511
G01 X-0.33273 Y0.45758
G01 X-0.32279 Y0.45758
G01 X-0.32278 Y0.45493
G01 X-0.32256 Y0.45320
G01 X-0.32168 Y0.44968
G01 X-0.32092 Y0.44776
G04 P0 ( dwell for no time -- G64 should not smooth over this point )
G00 Z0.05906 ( retract )

G00 X-0.17188 Y0.38868 ( rapid move to begin. )
G01 F19.68504
( Mill infeed pass 1/1 )
G01 Z-0.00354
G04 P0 ( dwell for no time -- G64 should not smooth over this point )
G01 F39.37008
G01 X-0.17188 Y0.38868
G01 X-0.17368 Y0.38868
G01 X-0.25826 Y0.30410
G01 X-0.25659 Y0.30353
G01 X-0.25516 Y0.30277
G01 X-0.25386 Y0.30181
G01 X-0.25266 Y0.30060
G04 P0 ( dwell for no time -- G64 should not smooth over this point )
G00 Z0.05906 ( retract )

G00 X-0.25967 Y0.35000 ( rapid move to begin. )
G01 F19.68504
( Mill infeed pass 1/1 )
G01 Z-0.00354
G04 P0 ( dwell for no time -- G64 should not smooth over this point )
G01 F39.37008
G01 X-0.25967 Y0.35000
G01 X-0.26994 Y0.33973
G01 X-0.26809 Y0.34335
G01 X-0.26571 Y0.34898
G01 X-0.26809 Y0.34335
G01 X-0.26994 Y0.33973
G01 X-0.29327 Y0.31636
G01 X-0.29424 Y0.31503
G01 X-0.29583 Y0.31236
G01 X-0.29640 Y0.31089
G01 X-0.29699 Y0.30848
G01 X-0.29833 Y0.30618
G01 X-0.29806 Y0.30597
G01 X-0.29833 Y0.30618
G01 X-0.29938 Y0.30529
G01 X-0.30110 Y0.30440
G01 X-0.29881 Y0.30569
G01 X-0.29794 Y0.30676
G01 X-0.29699 Y0.30848
G01 X-0.29730 Y0.30663
G01 X-0.29733 Y0.30443
G01 X-0.30151 Y0.30436
G01 X-0.30425 Y0.30368
G01 X-0.30571 Y0.30298
G01 X-0.30704 Y0.30207
G01 X-0.30901 Y0.30003
G01 X-0.31037 Y0.29756
G01 X-0.31105 Y0.29481
G01 X-0.31112 Y0.28118
G01 X-0.31467 Y0.28618
G01 X-0.31224 Y0.29204
G01 X-0.31110 Y0.29423
G01 X-0.31740 Y0.29811
G01 X-0.32753 Y0.28798
G01 X-0.36388 Y0.18103
G01 X-0.36388 Y0.17411
G01 X-0.36052 Y0.17411
G01 X-0.35873 Y0.17389
G01 X-0.36388 Y0.24983
G01 X-0.36388 Y0.25163
G01 X-0.36260 Y0.25291
G01 X-0.32149 Y0.28901
G01 X-0.31900 Y0.29502
G01 X-0.31740 Y0.29811
G01 X-0.30479 Y0.31072
G01 X-0.30392 Y0.31121
G01 X-0.30345 Y0.31206
G01 X-0.30479 Y0.31072
G01 X-0.28098 Y0.33453
G01 X-0.27927 Y0.33654
G01 X-0.27744 Y0.33976
G01 X-0.27635 Y0.34340
G01 X-0.27482 Y0.34638
G01 X-0.27253 Y0.35180
G01 X-0.27482 Y0.34638
G01 X-0.27635 Y0.34340
G01 X-0.27609 Y0.34600
G01 X-0.27608 Y0.35680
G01 X-0.26421 Y0.44900
G01 X-0.26351 Y0.45104
G01 X-0.26287 Y0.45456
G01 X-0.26285 Y0.49359
G01 X-0.26308 Y0.49547
G01 X-0.26416 Y0.49960
G01 X-0.25961 Y0.49696
G01 X-0.25959 Y0.45170
G01 X-0.25223 Y0.49695
G01 X-0.25221 Y0.45180
G01 X-0.24772 Y0.44924
G01 X-0.24873 Y0.45315
G01 X-0.24896 Y0.45502
G01 X-0.24901 Y0.49226
G01 X-0.24866 Y0.49605
G01 X-0.24765 Y0.49959
G01 X-0.24866 Y0.49605
G01 X-0.24901 Y0.49226
G01 X-0.24896 Y0.45502
G01 X-0.24873 Y0.45315
G01 X-0.24772 Y0.44924
G01 X-0.25221 Y0.45180
G01 X-0.25223 Y0.49695
G01 X-0.25959 Y0.45170
G01 X-0.27608 Y0.43338
G01 X-0.27608 Y0.43723
G01 X-0.27323 Y0.43858
G01 X-0.27608 Y0.43723
G01 X-0.27608 Y0.43338
G01 X-0.16729 Y0.42215
G01 X-0.18979 Y0.45078
G01 X-0.18926 Y0.45300
G01 X-0.18898 Y0.45758
G01 X-0.17276 Y0.45758
G01 X-0.17192 Y0.45523
G01 X-0.17054 Y0.45226
G01 X-0.17192 Y0.45523
G01 X-0.17276 Y0.45758
G01 X-0.18898 Y0.45758
G01 X-0.18926 Y0.45300
G01 X-0.18979 Y0.45078
G01 X-0.16729 Y0.42215
G01 X-0.14933 Y0.42215
G01 X-0.15711 Y0.42416
G01 X-0.16219 Y0.42581
G01 X-0.15711 Y0.42416
G01 X-0.14933 Y0.42215
G01 X-0.11974 Y0.42215
G01 X-0.11704 Y0.42486
G01 X-0.12085 Y0.42433
G01 X-0.12593 Y0.42412
G01 X-0.13102 Y0.42442
G01 X-0.13568 Y0.42516
G01 X-0.14051 Y0.42642
G01 X-0.14494 Y0.42804
G01 X-0.14768 Y0.42934
G01 X-0.15506 Y0.43126
G01 X-0.15945 Y0.43268
G01 X-0.15506 Y0.43126
G01 X-0.14768 Y0.42934
G01 X-0.14983 Y0.43041
G01 X-0.15362 Y0.43273
G01 X-0.15718 Y0.43539
G01 X-0.16035 Y0.43823
G01 X-0.15691 Y0.43517
G01 X-0.15362 Y0.43273
G01 X-0.15013 Y0.43059
G01 X-0.14528 Y0.42818
G01 X-0.14018 Y0.42631
G01 X-0.13568 Y0.42516
G01 X-0.13029 Y0.42436
G01 X-0.12520 Y0.42413
G01 X-0.12085 Y0.42433
G01 X-0.11704 Y0.42486
G01 X-0.11246 Y0.42736
G01 X-0.10751 Y0.43045
G01 X-0.10072 Y0.43541
G01 X-0.09713 Y0.43844
G01 X-0.09329 Y0.44207
G01 X-0.09011 Y0.44541
G01 X-0.08734 Y0.44863
G01 X-0.08370 Y0.45337
G01 X-0.08222 Y0.46086
G01 X-0.08164 Y0.46555
G01 X-0.08133 Y0.46955
G01 X-0.08120 Y0.47406
G01 X-0.08131 Y0.47862
G01 X-0.08201 Y0.48631
G01 X-0.08332 Y0.49370
G01 X-0.08519 Y0.50090
G01 X-0.08710 Y0.50661
G01 X-0.08884 Y0.50861
G01 X-0.09143 Y0.51118
G01 X-0.09418 Y0.51354
G01 X-0.09779 Y0.51617
G01 X-0.10090 Y0.51806
G01 X-0.10493 Y0.52011
G01 X-0.10872 Y0.52162
G01 X-0.11262 Y0.52283
G01 X-0.11576 Y0.52354
G01 X-0.11393 Y0.52389
G01 X-0.10907 Y0.52530
G01 X-0.10475 Y0.52703
G01 X-0.10023 Y0.52936
G01 X-0.09596 Y0.53215
G01 X-0.09228 Y0.53510
G01 X-0.08894 Y0.53833
G01 X-0.08710 Y0.54047
G01 X-0.08919 Y0.53808
G01 X-0.09202 Y0.53533
G01 X-0.09376 Y0.53390
G01 X-0.09709 Y0.52721
G01 X-0.10437 Y0.52722
G01 X-0.10940 Y0.52519
G01 X-0.11393 Y0.52389
G01 X-0.11576 Y0.52354
G01 X-0.13524 Y0.52354
G01 X-0.13934 Y0.52256
G01 X-0.14388 Y0.52102
G01 X-0.14848 Y0.51893
G01 X-0.15242 Y0.51667
G01 X-0.15089 Y0.51984
G01 X-0.14652 Y0.51984
G01 X-0.14356 Y0.52114
G01 X-0.13982 Y0.52241
G01 X-0.13524 Y0.52354
G01 X-0.13850 Y0.52426
G01 X-0.14293 Y0.52567
G01 X-0.14757 Y0.52766
G01 X-0.15250 Y0.53047
G01 X-0.15091 Y0.52722
G01 X-0.14660 Y0.52722
G01 X-0.14227 Y0.52544
G01 X-0.13850 Y0.52426
G01 X-0.13524 Y0.52354
G01 X-0.11576 Y0.52354
G01 X-0.11262 Y0.52283
G01 X-0.10914 Y0.52176
G01 X-0.10437 Y0.51983
G01 X-0.09707 Y0.51983
G01 X-0.09380 Y0.51322
G01 X-0.09173 Y0.51146
G01 X-0.08915 Y0.50893
G01 X-0.08710 Y0.50661
G01 X-0.08711 Y0.51633
G01 X-0.09068 Y0.52354
G01 X-0.08711 Y0.53071
G01 X-0.08711 Y0.51633
G01 X-0.08710 Y0.54047
G01 X-0.08461 Y0.54817
G01 X-0.08353 Y0.55245
G01 X-0.08266 Y0.55667
G01 X-0.08195 Y0.56122
G01 X-0.08151 Y0.56533
G01 X-0.08125 Y0.56984
G01 X-0.08121 Y0.57384
G01 X-0.08138 Y0.57834
G01 X-0.08173 Y0.58243
G01 X-0.08293 Y0.59026
G01 X-0.08502 Y0.59874
G01 X-0.08710 Y0.60504
G01 X-0.08711 Y0.61476
G01 X-0.08742 Y0.61543
G01 X-0.08711 Y0.61575
G01 X-0.08711 Y0.61476
G01 X-0.08711 Y0.62096
G01 X-0.08710 Y0.60504
G01 X-0.08919 Y0.60739
G01 X-0.09213 Y0.61024
G01 X-0.09377 Y0.61158
G01 X-0.09454 Y0.61320
G01 X-0.09682 Y0.61390
G01 X-0.09377 Y0.61158
G01 X-0.09570 Y0.61314
G01 X-0.09910 Y0.61542
G01 X-0.10311 Y0.61766
G01 X-0.10776 Y0.61970
G01 X-0.11161 Y0.62096
G01 X-0.12028 Y0.62181
G01 X-0.12564 Y0.62195
G01 X-0.13330 Y0.62164
G01 X-0.13932 Y0.62097
G01 X-0.16615 Y0.62104
G01 X-0.16365 Y0.61850
G01 X-0.15632 Y0.62096
G01 X-0.13932 Y0.62097
G01 X-0.14271 Y0.61989
G01 X-0.14654 Y0.61831
G01 X-0.15059 Y0.61621
G01 X-0.15423 Y0.61389
G01 X-0.16131 Y0.61149
G01 X-0.15423 Y0.61389
G01 X-0.15806 Y0.61093
G01 X-0.16206 Y0.60707
G01 X-0.32345 Y0.58947
G01 X-0.32525 Y0.58947
G01 X-0.33243 Y0.59664
G01 X-0.33223 Y0.59829
G01 X-0.33243 Y0.59664
G01 X-0.32525 Y0.58947
G01 X-0.32345 Y0.58947
G01 X-0.22279 Y0.60045
G01 X-0.17741 Y0.58947
G01 X-0.17280 Y0.58947
G01 X-0.17130 Y0.59326
G01 X-0.17280 Y0.58947
G01 X-0.17741 Y0.58947
G01 X-0.33555 Y0.62772
G01 X-0.33773 Y0.63038
G01 X-0.34065 Y0.63283
G01 X-0.34390 Y0.63462
G01 X-0.34654 Y0.63545
G01 X-0.33401 Y0.63548
G01 X-0.34654 Y0.63545
G01 X-0.34889 Y0.63601
G01 X-0.35078 Y0.63618
G01 X-0.37416 Y0.63607
G01 X-0.37881 Y0.63491
G01 X-0.38242 Y0.63306
G01 X-0.44834 Y0.57907
G01 X-0.44833 Y0.57654
G01 X-0.44718 Y0.57529
G01 X-0.38789 Y0.62950
G01 X-0.37687 Y0.64283
G01 X-0.37497 Y0.64239
G01 X-0.37216 Y0.64213
G01 X-0.35162 Y0.64213
G01 X-0.34846 Y0.64239
G01 X-0.34655 Y0.64283
G01 X-0.33240 Y0.64286
G01 X-0.32939 Y0.64656
G01 X-0.33240 Y0.64286
G01 X-0.33005 Y0.64280
G01 X-0.32997 Y0.64309
G01 X-0.33005 Y0.64280
G01 X-0.32880 Y0.64233
G01 X-0.32781 Y0.64144
G01 X-0.32771 Y0.64155
G01 X-0.32781 Y0.64144
G01 X-0.32740 Y0.64090
G01 X-0.32845 Y0.64349
G01 X-0.32939 Y0.64656
G01 X-0.32822 Y0.65386
G01 X-0.32939 Y0.64656
G01 X-0.33240 Y0.64286
G01 X-0.34655 Y0.64283
G01 X-0.34399 Y0.64369
G01 X-0.34173 Y0.64486
G01 X-0.34030 Y0.64577
G01 X-0.33834 Y0.64738
G01 X-0.33558 Y0.65059
G01 X-0.33354 Y0.65443
G01 X-0.32283 Y0.65443
G01 X-0.32255 Y0.64984
G01 X-0.32151 Y0.64598
G01 X-0.31973 Y0.64239
G01 X-0.31827 Y0.64041
G01 X-0.31973 Y0.64239
G01 X-0.32151 Y0.64598
G01 X-0.32255 Y0.64984
G01 X-0.32283 Y0.65443
G01 X-0.33354 Y0.65443
G01 X-0.33491 Y0.65168
G01 X-0.33583 Y0.65025
G01 X-0.33773 Y0.64797
G01 X-0.33997 Y0.64604
G01 X-0.34136 Y0.64506
G01 X-0.34399 Y0.64369
G01 X-0.34680 Y0.64276
G01 X-0.34846 Y0.64239
G01 X-0.35162 Y0.64213
G01 X-0.37286 Y0.64218
G01 X-0.37580 Y0.64254
G01 X-0.37824 Y0.64325
G01 X-0.37982 Y0.64387
G01 X-0.38230 Y0.64521
G01 X-0.38129 Y0.64286
G01 X-0.37687 Y0.64283
G01 X-0.38789 Y0.62950
G01 X-0.38134 Y0.63548
G01 X-0.37689 Y0.63545
G01 X-0.38134 Y0.63548
G01 X-0.38789 Y0.62950
G01 X-0.44291 Y0.56290
G01 X-0.44291 Y0.55502
G01 X-0.43445 Y0.55502
G01 X-0.37624 Y0.55989
G01 X-0.37260 Y0.56040
G01 X-0.36323 Y0.56043
G01 X-0.35340 Y0.57027
G01 X-0.36323 Y0.58012
G01 X-0.37215 Y0.58012
G01 X-0.37621 Y0.58063
G01 X-0.37071 Y0.57274
G01 X-0.36629 Y0.57274
G01 X-0.36608 Y0.57323
G01 X-0.36629 Y0.57274
G01 X-0.36383 Y0.57027
G01 X-0.36078 Y0.57027
G01 X-0.36383 Y0.57027
G01 X-0.36629 Y0.56781
G01 X-0.36606 Y0.56726
G01 X-0.36629 Y0.56781
G01 X-0.37071 Y0.56781
G01 X-0.38525 Y0.55502
G01 X-0.38629 Y0.55502
G04 P0 ( dwell for no time -- G64 should not smooth over this point )
G00 Z0.05906 ( retract )

G00 X-0.32265 Y0.69148 ( rapid move to begin. )
G01 F19.68504
( Mill infeed pass 1/1 )
G01 Z-0.00354
G04 P0 ( dwell for no time -- G64 should not smooth over this point )
G01 F39.37008
G01 X-0.32265 Y0.69148
G01 X-0.32283 Y0.68790
G01 X-0.32624 Y0.68790
G01 X-0.32265 Y0.69148
G04 P0 ( dwell for no time -- G64 should not smooth over this point )
G00 Z0.05906 ( retract )

G00 X-0.36503 Y0.69823 ( rapid move to begin. )
G01 F19.68504
( Mill infeed pass 1/1 )
G01 Z-0.00354
G04 P0 ( dwell for no time -- G64 should not smooth over this point )
G01 F39.37008
G01 X-0.36503 Y0.69823
G01 X-0.36323 Y0.69823
G01 X-0.36196 Y0.69950
G01 X-0.64440 Y0.68790
G01 X-0.64906 Y0.68790
G01 X-0.65066 Y0.69185
G04 P0 ( dwell for no time -- G64 should not smooth over this point )
G00 Z0.05906 ( retract )

G00 X-0.74321 Y0.65317 ( rapid move to begin. )
G01 F19.68504
( Mill infeed pass 1/1 )
G01 Z-0.00354
G04 P0 ( dwell for no time -- G64 should not smooth over this point )
G01 F39.37008
G01 X-0.74321 Y0.65317
G01 X-0.74158 Y0.64960
G01 X-0.74486 Y0.64633

G04 P0 ( dwell for no time -- G64 should not smooth over this point )
G00 Z0.393701 ( retract )

M5 ( Spindle off. )
G04 P1.000000
M9 ( Coolant off. )
M2 ( Program end. )

