( pcb2gcode 2.2.2 )
( Software-independent Gcode )

G94 ( Inches per minute feed rate. )
G20 ( Units == INCHES. )

G90 ( Absolute coordinates. )
G00 S24000 ( RPM spindle speed. )
G64 P0.00040 ( set maximum deviation from commanded toolpath )
G01 F39.37008 ( Feedrate. )


G00 Z0.39370 (Retract to tool change height)
T0
M5      (Spindle stop.)
G04 P1.00000 (Wait for spindle to stop)
(MSG, Change tool bit to mill diameter 0.05709in)
M6      (Tool change.)
M0      (Temporary machine stop.)
M3 ( Spindle on clockwise. )
G04 P1.00000 (Wait for spindle to get up to speed)
G04 P0 ( dwell for no time -- G64 should not smooth over this point )
G00 Z0.05906 ( retract )

G00 X-0.18072 Y0.52487 ( rapid move to begin. )
G01 F19.68504
( Mill infeed pass 1/1 )
G01 Z-0.00354
G04 P0 ( dwell for no time -- G64 should not smooth over this point )
G01 F39.37008
G01 X-0.18072 Y0.52487
G01 X-0.18398 Y0.52798
G01 X-0.18718 Y0.53238
G01 X-0.19129 Y0.53238
G01 X-0.19327 Y0.53278
G01 X-0.19141 Y0.53240
G01 X-0.18454 Y0.52851
G01 X-0.18398 Y0.52798
G04 P0 ( dwell for no time -- G64 should not smooth over this point )
G00 Z0.05906 ( retract )

G00 X-0.24429 Y0.53278 ( rapid move to begin. )
G01 F19.68504
( Mill infeed pass 1/1 )
G01 Z-0.00354
G04 P0 ( dwell for no time -- G64 should not smooth over this point )
G01 F39.37008
G01 X-0.24429 Y0.53278
G01 X-0.24618 Y0.53238
G01 X-0.26563 Y0.53238
G01 X-0.26751 Y0.53278
G01 X-0.26563 Y0.53238
G01 X-0.26187 Y0.53071
G01 X-0.25946 Y0.52927
G01 X-0.25590 Y0.52677
G01 X-0.25590 Y0.52628
G01 X-0.25590 Y0.52677
G01 X-0.25230 Y0.52930
G01 X-0.24988 Y0.53074
G01 X-0.24618 Y0.53238
G04 P0 ( dwell for no time -- G64 should not smooth over this point )
G00 Z0.05906 ( retract )

G00 X-0.19301 Y0.61268 ( rapid move to begin. )
G01 F19.68504
( Mill infeed pass 1/1 )
G01 Z-0.00354
G04 P0 ( dwell for no time -- G64 should not smooth over this point )
G01 F39.37008
G01 X-0.19301 Y0.61268
G01 X-0.19354 Y0.61266
G04 P0 ( dwell for no time -- G64 should not smooth over this point )
G00 Z0.05906 ( retract )

G00 X-0.26552 Y0.61309 ( rapid move to begin. )
G01 F19.68504
( Mill infeed pass 1/1 )
G01 Z-0.00354
G04 P0 ( dwell for no time -- G64 should not smooth over this point )
G01 F39.37008
G01 X-0.26552 Y0.61309
G01 X-0.24665 Y0.61309
G01 X-0.24473 Y0.61269
G01 X-0.24665 Y0.61309
G01 X-0.25226 Y0.61610
G01 X-0.25383 Y0.61715
G01 X-0.25593 Y0.61887
G01 X-0.25593 Y0.61939
G01 X-0.25602 Y0.61860
G01 X-0.26168 Y0.61482
G01 X-0.26333 Y0.61394
G01 X-0.26552 Y0.61309
G01 X-0.26766 Y0.61269
G04 P0 ( dwell for no time -- G64 should not smooth over this point )
G00 Z0.05906 ( retract )

G00 X-0.38236 Y0.71979 ( rapid move to begin. )
G01 F19.68504
( Mill infeed pass 1/1 )
G01 Z-0.00354
G04 P0 ( dwell for no time -- G64 should not smooth over this point )
G01 F39.37008
G01 X-0.38236 Y0.71979
G01 X-0.38643 Y0.71918
G01 X-0.39133 Y0.71709
G01 X-0.39849 Y0.71254
G01 X-0.39980 Y0.71146
G01 X-0.40449 Y0.70677
G01 X-0.40556 Y0.70547
G01 X-0.40931 Y0.69987
G01 X-0.41011 Y0.69838
G01 X-0.41273 Y0.69206
G01 X-0.41322 Y0.69044
G01 X-0.41454 Y0.68373
G01 X-0.41486 Y0.67878
G01 X-0.41486 Y0.66156
G01 X-0.41454 Y0.65662
G01 X-0.41322 Y0.64991
G01 X-0.41273 Y0.64829
G01 X-0.40928 Y0.64050
G01 X-0.40851 Y0.63922
G01 X-0.40777 Y0.63922
G01 X-0.40822 Y0.63922
G01 X-0.41179 Y0.63255
G01 X-0.41265 Y0.63017
G01 X-0.41454 Y0.62173
G01 X-0.41486 Y0.61671
G01 X-0.41482 Y0.59864
G01 X-0.41380 Y0.59039
G01 X-0.41319 Y0.58794
G01 X-0.41011 Y0.57997
G01 X-0.40940 Y0.57864
G01 X-0.42240 Y0.57864
G01 X-0.42489 Y0.58423
G01 X-0.42625 Y0.59158
G01 X-0.42658 Y0.59269
G01 X-0.42928 Y0.59922
G01 X-0.43340 Y0.60560
G01 X-0.43413 Y0.60650
G01 X-0.43652 Y0.60915
G01 X-0.52707 Y0.69970
G01 X-0.53063 Y0.70283
G01 X-0.53598 Y0.70640
G01 X-0.53700 Y0.70695
G01 X-0.54353 Y0.70965
G01 X-0.54464 Y0.70998
G01 X-0.55089 Y0.71122
G01 X-0.55561 Y0.71152
G01 X-0.63467 Y0.71152
G01 X-0.63891 Y0.71735
G01 X-0.64441 Y0.72346
G01 X-0.64976 Y0.72828
G01 X-0.65642 Y0.73312
G01 X-0.66265 Y0.73672
G01 X-0.67017 Y0.74007
G01 X-0.67703 Y0.74230
G01 X-0.68508 Y0.74401
G01 X-0.69224 Y0.74476
G01 X-0.70047 Y0.74476
G01 X-0.70763 Y0.74401
G01 X-0.71568 Y0.74230
G01 X-0.72254 Y0.74007
G01 X-0.73006 Y0.73672
G01 X-0.73629 Y0.73312
G01 X-0.74295 Y0.72828
G01 X-0.74828 Y0.72349
G01 X-0.75379 Y0.71738
G01 X-0.75806 Y0.71151
G01 X-0.76217 Y0.70438
G01 X-0.76508 Y0.69784
G01 X-0.76763 Y0.69001
G01 X-0.76913 Y0.68295
G01 X-0.76999 Y0.67477
G01 X-0.76999 Y0.66757
G01 X-0.76913 Y0.65938
G01 X-0.76844 Y0.65614
G01 X-0.78001 Y0.64457
G01 X-0.78302 Y0.64117
G01 X-0.78725 Y0.63465
G01 X-0.78995 Y0.62812
G01 X-0.79152 Y0.62077
G01 X-0.79183 Y0.61604
G01 X-0.79183 Y0.44084
G01 X-0.79152 Y0.43612
G01 X-0.79028 Y0.42988
G01 X-0.78995 Y0.42877
G01 X-0.78725 Y0.42224
G01 X-0.78670 Y0.42122
G01 X-0.78314 Y0.41586
G01 X-0.78001 Y0.41231
G01 X-0.68750 Y0.31980
G01 X-0.68750 Y0.24163
G01 X-0.68719 Y0.23691
G01 X-0.68595 Y0.23067
G01 X-0.68562 Y0.22956
G01 X-0.68292 Y0.22303
G01 X-0.67881 Y0.21665
G01 X-0.67808 Y0.21575
G01 X-0.67568 Y0.21310
G01 X-0.63373 Y0.17114
G01 X-0.63408 Y0.17001
G01 X-0.63474 Y0.16328
G01 X-0.63474 Y0.06446
G01 X-0.63408 Y0.05774
G01 X-0.63212 Y0.05128
G01 X-0.62893 Y0.04533
G01 X-0.62465 Y0.04011
G01 X-0.61943 Y0.03582
G01 X-0.61347 Y0.03264
G01 X-0.60701 Y0.03068
G01 X-0.60029 Y0.03002
G01 X-0.56092 Y0.03002
G01 X-0.55420 Y0.03068
G01 X-0.54774 Y0.03264
G01 X-0.54178 Y0.03582
G01 X-0.53656 Y0.04011
G01 X-0.53228 Y0.04533
G01 X-0.52909 Y0.05128
G01 X-0.52713 Y0.05774
G01 X-0.52647 Y0.06446
G01 X-0.52647 Y0.16328
G01 X-0.52713 Y0.17001
G01 X-0.52884 Y0.17563
G01 X-0.53253 Y0.18273
G01 X-0.53656 Y0.18764
G01 X-0.54178 Y0.19193
G01 X-0.54475 Y0.19351
G01 X-0.54538 Y0.19472
G01 X-0.54895 Y0.20008
G01 X-0.55207 Y0.20363
G01 X-0.60678 Y0.25835
G01 X-0.60678 Y0.33651
G01 X-0.60709 Y0.34124
G01 X-0.60866 Y0.34859
G01 X-0.61136 Y0.35512
G01 X-0.61191 Y0.35614
G01 X-0.61621 Y0.36240
G01 X-0.61860 Y0.36505
G01 X-0.66242 Y0.40888
G01 X-0.66310 Y0.40898
G01 X-0.66242 Y0.40888
G01 X-0.65642 Y0.41235
G01 X-0.64976 Y0.41719
G01 X-0.64674 Y0.41991
G01 X-0.64376 Y0.41793
G01 X-0.64210 Y0.41705
G01 X-0.63603 Y0.41454
G01 X-0.63423 Y0.41399
G01 X-0.62746 Y0.41264
G01 X-0.62229 Y0.41231
G01 X-0.60310 Y0.41231
G01 X-0.59793 Y0.41264
G01 X-0.59116 Y0.41399
G01 X-0.58936 Y0.41454
G01 X-0.58173 Y0.41793
G01 X-0.57931 Y0.41938
G01 X-0.57879 Y0.42031
G01 X-0.57924 Y0.41942
G01 X-0.57924 Y0.33218
G01 X-0.57893 Y0.32746
G01 X-0.57769 Y0.32122
G01 X-0.57736 Y0.32011
G01 X-0.57466 Y0.31358
G01 X-0.57055 Y0.30720
G01 X-0.56982 Y0.30630
G01 X-0.56742 Y0.30364
G01 X-0.53474 Y0.27097
G01 X-0.53474 Y0.19478
G01 X-0.53408 Y0.18806
G01 X-0.53236 Y0.18241
G01 X-0.52870 Y0.17536
G01 X-0.52465 Y0.17043
G01 X-0.51943 Y0.16614
G01 X-0.51347 Y0.16296
G01 X-0.50701 Y0.16100
G01 X-0.50029 Y0.16034
G01 X-0.46092 Y0.16034
G01 X-0.45420 Y0.16100
G01 X-0.44774 Y0.16296
G01 X-0.44178 Y0.16614
G01 X-0.43656 Y0.17043
G01 X-0.43253 Y0.17534
G01 X-0.42870 Y0.18271
G01 X-0.42465 Y0.18764
G01 X-0.42097 Y0.19066
G01 X-0.42097 Y0.25856
G01 X-0.42078 Y0.26214
G01 X-0.41942 Y0.26953
G01 X-0.41909 Y0.27064
G01 X-0.41639 Y0.27717
G01 X-0.41568 Y0.27843
G01 X-0.41491 Y0.27885
G01 X-0.41566 Y0.27845
G01 X-0.42647 Y0.27844
G01 X-0.42687 Y0.27884
G01 X-0.42647 Y0.27844
G01 X-0.42647 Y0.19478
G01 X-0.42713 Y0.18806
G01 X-0.42884 Y0.18244
G01 X-0.43236 Y0.17566
G01 X-0.43408 Y0.17001
G01 X-0.43474 Y0.16328
G01 X-0.43474 Y0.06446
G01 X-0.43408 Y0.05774
G01 X-0.43212 Y0.05128
G01 X-0.42893 Y0.04533
G01 X-0.42465 Y0.04011
G01 X-0.41943 Y0.03582
G01 X-0.41347 Y0.03264
G01 X-0.40701 Y0.03068
G01 X-0.40029 Y0.03002
G01 X-0.36092 Y0.03002
G01 X-0.35420 Y0.03068
G01 X-0.34774 Y0.03264
G01 X-0.34178 Y0.03582
G01 X-0.33656 Y0.04011
G01 X-0.33228 Y0.04533
G01 X-0.32909 Y0.05128
G01 X-0.32713 Y0.05774
G01 X-0.32647 Y0.06446
G01 X-0.32647 Y0.16328
G01 X-0.32713 Y0.17001
G01 X-0.32884 Y0.17563
G01 X-0.33253 Y0.18273
G01 X-0.33656 Y0.18764
G01 X-0.34025 Y0.19067
G01 X-0.34025 Y0.24184
G01 X-0.33475 Y0.24735
G01 X-0.33434 Y0.24833
G01 X-0.33474 Y0.24737
G01 X-0.33474 Y0.19478
G01 X-0.33408 Y0.18806
G01 X-0.33236 Y0.18241
G01 X-0.32870 Y0.17536
G01 X-0.32465 Y0.17043
G01 X-0.31943 Y0.16614
G01 X-0.31347 Y0.16296
G01 X-0.30701 Y0.16100
G01 X-0.30029 Y0.16034
G01 X-0.26092 Y0.16034
G01 X-0.25420 Y0.16100
G01 X-0.24774 Y0.16296
G01 X-0.24178 Y0.16614
G01 X-0.23656 Y0.17043
G01 X-0.23228 Y0.17565
G01 X-0.22909 Y0.18160
G01 X-0.22713 Y0.18806
G01 X-0.22647 Y0.19478
G01 X-0.22647 Y0.29360
G01 X-0.22713 Y0.30033
G01 X-0.22748 Y0.30147
G01 X-0.16389 Y0.36506
G01 X-0.11281 Y0.36506
G01 X-0.10809 Y0.36536
G01 X-0.10073 Y0.36693
G01 X-0.09420 Y0.36963
G01 X-0.08783 Y0.37375
G01 X-0.08427 Y0.37688
G01 X-0.04183 Y0.41932
G01 X-0.03871 Y0.42287
G01 X-0.03514 Y0.42823
G01 X-0.03459 Y0.42925
G01 X-0.03189 Y0.43578
G01 X-0.03032 Y0.44313
G01 X-0.03001 Y0.44785
G01 X-0.03001 Y0.72314
G01 X-0.03032 Y0.72786
G01 X-0.03156 Y0.73410
G01 X-0.03189 Y0.73521
G01 X-0.03459 Y0.74174
G01 X-0.03514 Y0.74276
G01 X-0.04059 Y0.75025
G01 X-0.04447 Y0.75430
G01 X-0.04854 Y0.75795
G01 X-0.05491 Y0.76207
G01 X-0.06144 Y0.76477
G01 X-0.06880 Y0.76634
G01 X-0.07352 Y0.76664
G01 X-0.31151 Y0.76664
G01 X-0.31624 Y0.76634
G01 X-0.32248 Y0.76510
G01 X-0.32332 Y0.76485
G01 X-0.32374 Y0.76427
G01 X-0.32332 Y0.76485
G01 X-0.32332 Y0.83257
G01 X-0.32398 Y0.83930
G01 X-0.32594 Y0.84576
G01 X-0.32913 Y0.85171
G01 X-0.33341 Y0.85693
G01 X-0.33863 Y0.86122
G01 X-0.34459 Y0.86440
G01 X-0.35105 Y0.86636
G01 X-0.35777 Y0.86702
G01 X-0.48376 Y0.86702
G01 X-0.49048 Y0.86636
G01 X-0.49694 Y0.86440
G01 X-0.50290 Y0.86122
G01 X-0.50812 Y0.85693
G01 X-0.51240 Y0.85171
G01 X-0.51559 Y0.84576
G01 X-0.51755 Y0.83930
G01 X-0.51821 Y0.83257
G01 X-0.51821 Y0.75383
G01 X-0.51755 Y0.74712
G01 X-0.51559 Y0.74065
G01 X-0.51240 Y0.73470
G01 X-0.50812 Y0.72948
G01 X-0.50290 Y0.72519
G01 X-0.49694 Y0.72201
G01 X-0.49048 Y0.72005
G01 X-0.48376 Y0.71939
G01 X-0.38462 Y0.71945
G04 P0 ( dwell for no time -- G64 should not smooth over this point )
G00 Z0.05906 ( retract )

G00 X-0.54624 Y0.60529 ( rapid move to begin. )
G01 F19.68504
( Mill infeed pass 1/1 )
G01 Z-0.00354
G04 P0 ( dwell for no time -- G64 should not smooth over this point )
G01 F39.37008
G01 X-0.54624 Y0.60529
G01 X-0.54710 Y0.60558
G01 X-0.55088 Y0.60511
G01 X-0.55333 Y0.60449
G01 X-0.56102 Y0.60153
G01 X-0.56251 Y0.60074
G01 X-0.56838 Y0.59680
G01 X-0.56968 Y0.59572
G01 X-0.57427 Y0.59112
G01 X-0.57534 Y0.58982
G01 X-0.57909 Y0.58422
G01 X-0.57989 Y0.58273
G01 X-0.58297 Y0.57476
G01 X-0.58358 Y0.57231
G01 X-0.58460 Y0.56398
G01 X-0.58460 Y0.54211
G01 X-0.58358 Y0.53379
G01 X-0.58299 Y0.53141
G01 X-0.58227 Y0.53048
G01 X-0.58280 Y0.53118
G01 X-0.58936 Y0.53408
G01 X-0.59116 Y0.53463
G01 X-0.59775 Y0.53596
G01 X-0.60310 Y0.53632
G01 X-0.62229 Y0.53632
G01 X-0.62764 Y0.53596
G01 X-0.63423 Y0.53463
G01 X-0.63603 Y0.53408
G01 X-0.64358 Y0.53074
G01 X-0.64678 Y0.52875
G01 X-0.64976 Y0.53143
G01 X-0.65642 Y0.53627
G01 X-0.66265 Y0.53987
G01 X-0.67017 Y0.54322
G01 X-0.67703 Y0.54545
G01 X-0.68508 Y0.54716
G01 X-0.69224 Y0.54791
G01 X-0.70047 Y0.54791
G01 X-0.70763 Y0.54716
G01 X-0.71111 Y0.54643
G01 X-0.71151 Y0.54593
G01 X-0.71111 Y0.54643
G01 X-0.71111 Y0.59905
G01 X-0.70763 Y0.59831
G01 X-0.70047 Y0.59756
G01 X-0.69224 Y0.59756
G01 X-0.68508 Y0.59831
G01 X-0.67703 Y0.60002
G01 X-0.67017 Y0.60225
G01 X-0.66265 Y0.60560
G01 X-0.65642 Y0.60920
G01 X-0.64976 Y0.61404
G01 X-0.64439 Y0.61888
G01 X-0.63889 Y0.62500
G01 X-0.63467 Y0.63081
G01 X-0.57233 Y0.63081
G01 X-0.54710 Y0.60558
G04 P0 ( dwell for no time -- G64 should not smooth over this point )
G00 Z0.05906 ( retract )

G00 X-0.39565 Y0.42608 ( rapid move to begin. )
G01 F19.68504
( Mill infeed pass 1/1 )
G01 Z-0.00354
G04 P0 ( dwell for no time -- G64 should not smooth over this point )
G01 F39.37008
G01 X-0.39565 Y0.42608
G01 X-0.40152 Y0.43064
G01 X-0.40272 Y0.43183
G01 X-0.40801 Y0.43859
G01 X-0.40931 Y0.44076
G01 X-0.41273 Y0.44849
G01 X-0.41322 Y0.45011
G01 X-0.41454 Y0.45682
G01 X-0.41486 Y0.46176
G01 X-0.41486 Y0.47898
G01 X-0.41454 Y0.48393
G01 X-0.41322 Y0.49064
G01 X-0.41273 Y0.49226
G01 X-0.41022 Y0.49793
G01 X-0.40960 Y0.49833
G01 X-0.41022 Y0.49793
G01 X-0.45029 Y0.49793
G01 X-0.45502 Y0.49823
G01 X-0.46126 Y0.49947
G01 X-0.46262 Y0.49991
G01 X-0.48050 Y0.49995
G01 X-0.48626 Y0.50066
G01 X-0.48673 Y0.50112
G01 X-0.48619 Y0.50059
G01 X-0.48560 Y0.49763
G01 X-0.48523 Y0.49227
G01 X-0.48523 Y0.45634
G01 X-0.48562 Y0.45120
G01 X-0.48604 Y0.44842
G01 X-0.48827 Y0.44039
G01 X-0.48899 Y0.43865
G01 X-0.49312 Y0.43135
G01 X-0.49479 Y0.42909
G01 X-0.49852 Y0.42516
G01 X-0.49852 Y0.42258
G01 X-0.49892 Y0.42189
G01 X-0.49849 Y0.42264
G01 X-0.49694 Y0.42346
G01 X-0.49048 Y0.42542
G01 X-0.48376 Y0.42608
G01 X-0.39565 Y0.42608
G01 X-0.39441 Y0.42568
G04 P0 ( dwell for no time -- G64 should not smooth over this point )
G00 Z0.05906 ( retract )

G00 X-0.33317 Y0.41551 ( rapid move to begin. )
G01 F19.68504
( Mill infeed pass 1/1 )
G01 Z-0.00354
G04 P0 ( dwell for no time -- G64 should not smooth over this point )
G01 F39.37008
G01 X-0.33317 Y0.41551
G01 X-0.33341 Y0.41599
G01 X-0.33863 Y0.42028
G01 X-0.33926 Y0.42061
G01 X-0.34039 Y0.42077
G01 X-0.33914 Y0.42059
G01 X-0.33830 Y0.42085
G01 X-0.33317 Y0.42298
G01 X-0.33317 Y0.41551
G01 X-0.33277 Y0.41456
G04 P0 ( dwell for no time -- G64 should not smooth over this point )
G00 Z0.05906 ( retract )

G00 X-0.25286 Y0.42013 ( rapid move to begin. )
G01 F19.68504
( Mill infeed pass 1/1 )
G01 Z-0.00354
G04 P0 ( dwell for no time -- G64 should not smooth over this point )
G01 F39.37008
G01 X-0.25286 Y0.42013
G01 X-0.25226 Y0.41925
G01 X-0.24635 Y0.41608
G01 X-0.24462 Y0.41536
G01 X-0.23814 Y0.41339
G01 X-0.23629 Y0.41302
G01 X-0.23065 Y0.41245
G01 X-0.22977 Y0.41276
G01 X-0.23065 Y0.41245
G01 X-0.25245 Y0.39065
G01 X-0.25285 Y0.38969
G01 X-0.25245 Y0.39065
G01 X-0.25245 Y0.41937
G01 X-0.25285 Y0.42012

G00 Z0.39370 (Retract to tool change height)
T1
M5      (Spindle stop.)
G04 P1.00000 (Wait for spindle to stop)
(MSG, Change tool bit to mill diameter 0.03346in)
M6      (Tool change.)
M0      (Temporary machine stop.)
M3 ( Spindle on clockwise. )
G04 P1.00000 (Wait for spindle to get up to speed)
G04 P0 ( dwell for no time -- G64 should not smooth over this point )
G00 Z0.05906 ( retract )

G00 X-0.16653 Y0.37687 ( rapid move to begin. )
G01 F19.68504
( Mill infeed pass 1/1 )
G01 Z-0.00354
G04 P0 ( dwell for no time -- G64 should not smooth over this point )
G01 F39.37008
G01 X-0.16653 Y0.37687
G01 X-0.16878 Y0.37687
G01 X-0.24118 Y0.30447
G01 X-0.24001 Y0.30227
G01 X-0.23957 Y0.30082
G04 P0 ( dwell for no time -- G64 should not smooth over this point )
G00 Z0.05906 ( retract )

G00 X-0.35206 Y0.24449 ( rapid move to begin. )
G01 F19.68504
( Mill infeed pass 1/1 )
G01 Z-0.00354
G04 P0 ( dwell for no time -- G64 should not smooth over this point )
G01 F39.37008
G01 X-0.35206 Y0.24449
G01 X-0.35206 Y0.24674
G01 X-0.35048 Y0.24832
G01 X-0.34049 Y0.25410
G01 X-0.33960 Y0.25920
G01 X-0.32294 Y0.27586
G01 X-0.32253 Y0.27685
G01 X-0.32293 Y0.27588
G01 X-0.32254 Y0.27683
G01 X-0.32293 Y0.27588
G01 X-0.32293 Y0.25230
G01 X-0.32293 Y0.27588
G01 X-0.32883 Y0.26163
G01 X-0.32883 Y0.25908
G01 X-0.32883 Y0.26163
G01 X-0.33064 Y0.25981
G01 X-0.34049 Y0.25410
G01 X-0.35206 Y0.18801
G01 X-0.35206 Y0.18410
G01 X-0.34911 Y0.18252
G04 P0 ( dwell for no time -- G64 should not smooth over this point )
G00 Z0.05906 ( retract )

G00 X-0.41188 Y0.18264 ( rapid move to begin. )
G01 F19.68504
( Mill infeed pass 1/1 )
G01 Z-0.00354
G04 P0 ( dwell for no time -- G64 should not smooth over this point )
G01 F39.37008
G01 X-0.41188 Y0.18264
G01 X-0.40916 Y0.18409
G01 X-0.40916 Y0.18799
G04 P0 ( dwell for no time -- G64 should not smooth over this point )
G00 Z0.05906 ( retract )

G00 X-0.40320 Y0.27596 ( rapid move to begin. )
G01 F19.68504
( Mill infeed pass 1/1 )
G01 Z-0.00354
G04 P0 ( dwell for no time -- G64 should not smooth over this point )
G01 F39.37008
G01 X-0.40320 Y0.27596
G01 X-0.40080 Y0.27875
G01 X-0.38930 Y0.29025
G01 X-0.38983 Y0.29003
G01 X-0.38832 Y0.29066
G01 X-0.38928 Y0.29026
G01 X-0.43828 Y0.29025
G01 X-0.43828 Y0.28281
G01 X-0.43828 Y0.29025
G01 X-0.43868 Y0.29065
G01 X-0.43545 Y0.28742
G01 X-0.40412 Y0.28435
G01 X-0.40354 Y0.28435
G01 X-0.38983 Y0.29003
G01 X-0.40355 Y0.28435
G01 X-0.40398 Y0.28392
G04 P0 ( dwell for no time -- G64 should not smooth over this point )
G00 Z0.05906 ( retract )

G00 X-0.52451 Y0.27745 ( rapid move to begin. )
G01 F19.68504
( Mill infeed pass 1/1 )
G01 Z-0.00354
G04 P0 ( dwell for no time -- G64 should not smooth over this point )
G01 F39.37008
G01 X-0.52451 Y0.27745
G01 X-0.52293 Y0.27587
G01 X-0.52293 Y0.27362
G04 P0 ( dwell for no time -- G64 should not smooth over this point )
G00 Z0.05906 ( retract )

G00 X-0.55453 Y0.18642 ( rapid move to begin. )
G01 F19.68504
( Mill infeed pass 1/1 )
G01 Z-0.00354
G04 P0 ( dwell for no time -- G64 should not smooth over this point )
G01 F39.37008
G01 X-0.55453 Y0.18642
G01 X-0.55381 Y0.18467
G01 X-0.55262 Y0.18431
G04 P0 ( dwell for no time -- G64 should not smooth over this point )
G00 Z0.05906 ( retract )

G00 X-0.62165 Y0.17050 ( rapid move to begin. )
G01 F19.68504
( Mill infeed pass 1/1 )
G01 Z-0.00354
G04 P0 ( dwell for no time -- G64 should not smooth over this point )
G01 F39.37008
G01 X-0.62165 Y0.17050
G01 X-0.62121 Y0.17195
G01 X-0.62003 Y0.17414
G01 X-0.62349 Y0.17760
G04 P0 ( dwell for no time -- G64 should not smooth over this point )
G00 Z0.05906 ( retract )

G00 X-0.61700 Y0.25187 ( rapid move to begin. )
G01 F19.68504
( Mill infeed pass 1/1 )
G01 Z-0.00354
G04 P0 ( dwell for no time -- G64 should not smooth over this point )
G01 F39.37008
G01 X-0.61700 Y0.25187
G01 X-0.61859 Y0.25346
G01 X-0.61859 Y0.25571
G04 P0 ( dwell for no time -- G64 should not smooth over this point )
G00 Z0.05906 ( retract )

G00 X-0.67569 Y0.32244 ( rapid move to begin. )
G01 F19.68504
( Mill infeed pass 1/1 )
G01 Z-0.00354
G04 P0 ( dwell for no time -- G64 should not smooth over this point )
G01 F39.37008
G01 X-0.67569 Y0.32244
G01 X-0.67569 Y0.32469
G01 X-0.67728 Y0.32628
G04 P0 ( dwell for no time -- G64 should not smooth over this point )
G00 Z0.05906 ( retract )

G00 X-0.67142 Y0.41777 ( rapid move to begin. )
G01 F19.68504
( Mill infeed pass 1/1 )
G01 Z-0.00354
G04 P0 ( dwell for no time -- G64 should not smooth over this point )
G01 F39.37008
G01 X-0.67142 Y0.41777
G01 X-0.67498 Y0.41619
G01 X-0.67949 Y0.41472
G01 X-0.68401 Y0.41376
G01 X-0.68481 Y0.41400
G01 X-0.68401 Y0.41376
G01 X-0.67396 Y0.40371
G01 X-0.68401 Y0.41376
G01 X-0.67896 Y0.41226
G01 X-0.67499 Y0.41132
G01 X-0.65270 Y0.43045
G01 X-0.64748 Y0.43630
G01 X-0.64658 Y0.43520
G01 X-0.64346 Y0.43208
G01 X-0.64242 Y0.43123
G04 P0 ( dwell for no time -- G64 should not smooth over this point )
G00 Z0.05906 ( retract )

G00 X-0.58252 Y0.43186 ( rapid move to begin. )
G01 F19.68504
( Mill infeed pass 1/1 )
G01 Z-0.00354
G04 P0 ( dwell for no time -- G64 should not smooth over this point )
G01 F39.37008
G01 X-0.58252 Y0.43186
G01 X-0.58026 Y0.43371
G01 X-0.57837 Y0.43579
G01 X-0.57578 Y0.43946
G01 X-0.57579 Y0.44033
G01 X-0.57582 Y0.43196
G01 X-0.57579 Y0.44013
G01 X-0.57578 Y0.43950
G01 X-0.57511 Y0.43832
G01 X-0.57343 Y0.43606
G01 X-0.56964 Y0.43208
G01 X-0.56743 Y0.43038
G01 X-0.56743 Y0.42429
G04 P0 ( dwell for no time -- G64 should not smooth over this point )
G00 Z0.05906 ( retract )

G00 X-0.50887 Y0.43146 ( rapid move to begin. )
G01 F19.68504
( Mill infeed pass 1/1 )
G01 Z-0.00354
G04 P0 ( dwell for no time -- G64 should not smooth over this point )
G01 F39.37008
G01 X-0.50887 Y0.43146
G01 X-0.51033 Y0.43037
G01 X-0.51033 Y0.34401
G01 X-0.50640 Y0.34007
G01 X-0.50600 Y0.33911
G01 X-0.50837 Y0.34482
G01 X-0.50848 Y0.34480
G01 X-0.50837 Y0.34482
G01 X-0.50837 Y0.39163
G01 X-0.50772 Y0.39983
G01 X-0.50564 Y0.40801
G01 X-0.50432 Y0.41120
G01 X-0.50564 Y0.40801
G01 X-0.50443 Y0.41114
G01 X-0.50564 Y0.40801
G01 X-0.50769 Y0.39982
G01 X-0.50837 Y0.39163
G01 X-0.50837 Y0.34482
G01 X-0.50640 Y0.34007
G01 X-0.50640 Y0.39163
G01 X-0.50596 Y0.39605
G01 X-0.50468 Y0.40030
G01 X-0.50258 Y0.40421
G01 X-0.49977 Y0.40764
G01 X-0.49678 Y0.41009
G04 P0 ( dwell for no time -- G64 should not smooth over this point )
G00 Z0.05906 ( retract )

G00 X-0.38543 Y0.43381 ( rapid move to begin. )
G01 F19.68504
( Mill infeed pass 1/1 )
G01 Z-0.00354
G04 P0 ( dwell for no time -- G64 should not smooth over this point )
G01 F39.37008
G01 X-0.38543 Y0.43381
G01 X-0.38165 Y0.43214
G01 X-0.38003 Y0.43165
G01 X-0.37576 Y0.43079
G01 X-0.37408 Y0.43062
G01 X-0.37180 Y0.43051
G01 X-0.35162 Y0.43051
G01 X-0.34766 Y0.43079
G01 X-0.34639 Y0.43105
G04 P0 ( dwell for no time -- G64 should not smooth over this point )
G00 Z0.05906 ( retract )

G00 X-0.38193 Y0.42605 ( rapid move to begin. )
G01 F19.68504
( Mill infeed pass 1/1 )
G01 Z-0.00354
G04 P0 ( dwell for no time -- G64 should not smooth over this point )
G01 F39.37008
G01 X-0.38193 Y0.42605
G01 X-0.37635 Y0.42492
G01 X-0.37180 Y0.42460
G01 X-0.35171 Y0.42460
G01 X-0.33252 Y0.43707
G01 X-0.32980 Y0.43955
G01 X-0.32715 Y0.43579
G01 X-0.32526 Y0.43371
G01 X-0.32136 Y0.43052
G01 X-0.32136 Y0.35818
G01 X-0.33513 Y0.34441
G01 X-0.32923 Y0.35866
G01 X-0.32923 Y0.39163
G01 X-0.32978 Y0.39720
G01 X-0.33143 Y0.40262
G01 X-0.34355 Y0.40939
G01 X-0.35268 Y0.41967
G01 X-0.35777 Y0.42018
G01 X-0.38361 Y0.42018
G01 X-0.35777 Y0.42018
G01 X-0.35268 Y0.41967
G01 X-0.34355 Y0.40939
G01 X-0.34930 Y0.41261
G01 X-0.35335 Y0.41384
G01 X-0.35777 Y0.41427
G01 X-0.39038 Y0.41427
G01 X-0.35777 Y0.41427
G01 X-0.35335 Y0.41384
G01 X-0.34930 Y0.41261
G01 X-0.34355 Y0.40939
G01 X-0.33895 Y0.40421
G01 X-0.33686 Y0.40030
G01 X-0.33557 Y0.39605
G01 X-0.33513 Y0.39163
G01 X-0.33513 Y0.34441
G01 X-0.33553 Y0.34345
G01 X-0.32923 Y0.35866
G01 X-0.32726 Y0.36063
G01 X-0.32681 Y0.36044
G01 X-0.32726 Y0.36063
G01 X-0.32726 Y0.40380
G04 P0 ( dwell for no time -- G64 should not smooth over this point )
G00 Z0.05906 ( retract )

G00 X-0.24907 Y0.43160 ( rapid move to begin. )
G01 F19.68504
( Mill infeed pass 1/1 )
G01 Z-0.00354
G04 P0 ( dwell for no time -- G64 should not smooth over this point )
G01 F39.37008
G01 X-0.24907 Y0.43160
G01 X-0.25202 Y0.43426
G01 X-0.25541 Y0.43859
G01 X-0.25587 Y0.43935
G01 X-0.25586 Y0.44022
G01 X-0.25597 Y0.43918
G01 X-0.25702 Y0.43762
G01 X-0.25979 Y0.43426
G01 X-0.26112 Y0.43293
G01 X-0.26426 Y0.43034
G01 X-0.26426 Y0.36214
G01 X-0.20119 Y0.42521
G01 X-0.20068 Y0.42549
G01 X-0.20108 Y0.42527
G01 X-0.20332 Y0.42477
G01 X-0.20611 Y0.42436
G01 X-0.20945 Y0.42412
G01 X-0.22576 Y0.42415
G01 X-0.20945 Y0.42412
G01 X-0.20611 Y0.42436
G01 X-0.20332 Y0.42477
G01 X-0.20108 Y0.42527
G01 X-0.20068 Y0.42549
G01 X-0.20584 Y0.42279
G01 X-0.21653 Y0.41822
G01 X-0.25836 Y0.37639
G01 X-0.26466 Y0.36117
G01 X-0.25836 Y0.37639
G01 X-0.25836 Y0.37894
G01 X-0.25590 Y0.43182
G01 X-0.25587 Y0.44013
G01 X-0.25590 Y0.43183
G01 X-0.21900 Y0.41823
G01 X-0.21651 Y0.41823
G01 X-0.20584 Y0.42279
G01 X-0.19970 Y0.42606
G04 P0 ( dwell for no time -- G64 should not smooth over this point )
G00 Z0.05906 ( retract )

G00 X-0.18724 Y0.43308 ( rapid move to begin. )
G01 F19.68504
( Mill infeed pass 1/1 )
G01 Z-0.00354
G04 P0 ( dwell for no time -- G64 should not smooth over this point )
G01 F39.37008
G01 X-0.18724 Y0.43308
G01 X-0.18846 Y0.43241
G01 X-0.17933 Y0.43731
G01 X-0.17936 Y0.43803
G01 X-0.17933 Y0.43731
G01 X-0.17232 Y0.43396
G01 X-0.18296 Y0.43384
G01 X-0.18724 Y0.43308
G01 X-0.18511 Y0.43520
G01 X-0.18392 Y0.43665
G01 X-0.18097 Y0.44131
G01 X-0.17956 Y0.44437
G01 X-0.17693 Y0.43984
G01 X-0.17416 Y0.43603
G01 X-0.17232 Y0.43396
G01 X-0.17140 Y0.43356
G01 X-0.17230 Y0.43396
G04 P0 ( dwell for no time -- G64 should not smooth over this point )
G00 Z0.05906 ( retract )

G00 X-0.17920 Y0.51288 ( rapid move to begin. )
G01 F19.68504
( Mill infeed pass 1/1 )
G01 Z-0.00354
G04 P0 ( dwell for no time -- G64 should not smooth over this point )
G01 F39.37008
G01 X-0.17920 Y0.51288
G01 X-0.18544 Y0.51372
G01 X-0.18392 Y0.51197
G01 X-0.18147 Y0.50830
G01 X-0.18058 Y0.50664
G01 X-0.17958 Y0.50422
G01 X-0.17694 Y0.50878
G01 X-0.17415 Y0.51262
G01 X-0.16864 Y0.51873
G01 X-0.16515 Y0.52187
G01 X-0.16288 Y0.52352
G01 X-0.16220 Y0.52352
G01 X-0.16288 Y0.52352
G01 X-0.16513 Y0.52516
G01 X-0.16865 Y0.52833
G01 X-0.17091 Y0.53084
G01 X-0.19720 Y0.54419
G01 X-0.31544 Y0.54419
G01 X-0.32038 Y0.53925
G01 X-0.32041 Y0.52287
G01 X-0.32096 Y0.51849
G01 X-0.31793 Y0.52329
G01 X-0.31442 Y0.52843
G01 X-0.31262 Y0.52898
G01 X-0.30717 Y0.53008
G01 X-0.30530 Y0.53027
G01 X-0.30241 Y0.53042
G01 X-0.28322 Y0.53042
G01 X-0.27933 Y0.53017
G01 X-0.26054 Y0.51507
G01 X-0.25845 Y0.51279
G01 X-0.25590 Y0.50917
G01 X-0.25590 Y0.51416
G01 X-0.25590 Y0.50848
G01 X-0.25590 Y0.50917
G01 X-0.25336 Y0.51279
G01 X-0.25126 Y0.51508
G01 X-0.25336 Y0.51279
G01 X-0.25590 Y0.50917
G01 X-0.25590 Y0.51415
G01 X-0.25590 Y0.50917
G01 X-0.25845 Y0.51279
G01 X-0.26054 Y0.51507
G01 X-0.27933 Y0.53017
G01 X-0.28322 Y0.53042
G01 X-0.30241 Y0.53042
G01 X-0.30530 Y0.53027
G01 X-0.30717 Y0.53008
G01 X-0.31262 Y0.52898
G01 X-0.31442 Y0.52843
G01 X-0.31793 Y0.52329
G01 X-0.32148 Y0.51769
G01 X-0.32094 Y0.51852
G01 X-0.31834 Y0.52026
G01 X-0.31668 Y0.52114
G01 X-0.31270 Y0.52278
G01 X-0.31090 Y0.52333
G01 X-0.30657 Y0.52421
G01 X-0.30241 Y0.52451
G01 X-0.28322 Y0.52451
G01 X-0.27906 Y0.52421
G01 X-0.27514 Y0.52342
G01 X-0.27906 Y0.52421
G01 X-0.28322 Y0.52451
G01 X-0.30241 Y0.52451
G01 X-0.30657 Y0.52421
G01 X-0.31090 Y0.52333
G01 X-0.31270 Y0.52278
G01 X-0.31668 Y0.52114
G01 X-0.31834 Y0.52026
G01 X-0.32094 Y0.51852
G01 X-0.31450 Y0.52840
G01 X-0.31448 Y0.53680
G01 X-0.31493 Y0.53698
G01 X-0.31448 Y0.53680
G01 X-0.31299 Y0.53828
G01 X-0.31318 Y0.53873
G01 X-0.31299 Y0.53828
G01 X-0.20397 Y0.53828
G01 X-0.18454 Y0.54419
G01 X-0.18036 Y0.54419
G01 X-0.17834 Y0.54069
G01 X-0.17034 Y0.52352
G01 X-0.16288 Y0.52352
G01 X-0.20047 Y0.52307
G01 X-0.20324 Y0.52384
G01 X-0.20603 Y0.52426
G01 X-0.20940 Y0.52451
G01 X-0.22859 Y0.52451
G01 X-0.23275 Y0.52421
G01 X-0.23665 Y0.52342
G01 X-0.23166 Y0.53025
G01 X-0.22859 Y0.53042
G01 X-0.20940 Y0.53042
G01 X-0.20584 Y0.53015
G04 P0 ( dwell for no time -- G64 should not smooth over this point )
G00 Z0.05906 ( retract )

G00 X-0.25592 Y0.63151 ( rapid move to begin. )
G01 F19.68504
( Mill infeed pass 1/1 )
G01 Z-0.00354
G04 P0 ( dwell for no time -- G64 should not smooth over this point )
G01 F39.37008
G01 X-0.25592 Y0.63151
G01 X-0.25592 Y0.63202
G01 X-0.25592 Y0.63132
G01 X-0.25588 Y0.63718
G01 X-0.25587 Y0.63621
G01 X-0.25541 Y0.63544
G01 X-0.25159 Y0.63068
G01 X-0.25541 Y0.63544
G01 X-0.25587 Y0.63645
G01 X-0.25774 Y0.63350
G01 X-0.25893 Y0.63205
G01 X-0.26059 Y0.63039
G01 X-0.27945 Y0.61545
G01 X-0.28222 Y0.61510
G01 X-0.30235 Y0.61506
G01 X-0.30656 Y0.61537
G01 X-0.30935 Y0.61578
G01 X-0.31346 Y0.61670
G01 X-0.31453 Y0.61711
G01 X-0.32367 Y0.62963
G01 X-0.32270 Y0.62832
G01 X-0.32201 Y0.62667
G01 X-0.32152 Y0.62506
G01 X-0.32066 Y0.62074
G01 X-0.32037 Y0.61673
G01 X-0.32041 Y0.60133
G01 X-0.18036 Y0.60128
G01 X-0.17694 Y0.60720
G01 X-0.17403 Y0.61115
G01 X-0.17744 Y0.61297
G01 X-0.18087 Y0.61579
G01 X-0.18156 Y0.61662
G01 X-0.18504 Y0.62175
G01 X-0.18578 Y0.62313
G01 X-0.18706 Y0.62738
G01 X-0.18731 Y0.62986
G01 X-0.18970 Y0.62773
G01 X-0.19437 Y0.62476
G01 X-0.20104 Y0.62213
G01 X-0.20332 Y0.62162
G01 X-0.20611 Y0.62121
G01 X-0.20945 Y0.62097
G01 X-0.22958 Y0.62101
G01 X-0.23397 Y0.62145
G01 X-0.23740 Y0.62230
G01 X-0.23219 Y0.61536
G01 X-0.22959 Y0.61510
G01 X-0.20946 Y0.61506
G01 X-0.20625 Y0.61530
G01 X-0.20946 Y0.61506
G01 X-0.22959 Y0.61510
G01 X-0.23219 Y0.61536
G01 X-0.23740 Y0.62230
G01 X-0.23397 Y0.62145
G01 X-0.22958 Y0.62101
G01 X-0.20945 Y0.62097
G01 X-0.20611 Y0.62121
G01 X-0.20332 Y0.62162
G01 X-0.20104 Y0.62213
G01 X-0.19437 Y0.62476
G01 X-0.18970 Y0.62773
G01 X-0.18731 Y0.62986
G01 X-0.18706 Y0.62738
G01 X-0.18578 Y0.62313
G01 X-0.18504 Y0.62175
G01 X-0.18156 Y0.61662
G01 X-0.18087 Y0.61579
G01 X-0.17744 Y0.61297
G01 X-0.17403 Y0.61115
G01 X-0.17331 Y0.61137
G01 X-0.18136 Y0.60960
G01 X-0.20407 Y0.60719
G01 X-0.31449 Y0.60719
G01 X-0.31622 Y0.60546
G01 X-0.31449 Y0.60719
G01 X-0.31449 Y0.61704
G01 X-0.32270 Y0.62832
G01 X-0.32212 Y0.62773
G01 X-0.31741 Y0.62475
G01 X-0.31487 Y0.62355
G01 X-0.31175 Y0.62235
G01 X-0.30849 Y0.62162
G01 X-0.30570 Y0.62121
G01 X-0.30237 Y0.62097
G01 X-0.28224 Y0.62101
G01 X-0.27675 Y0.62169
G01 X-0.27528 Y0.62206
G04 P0 ( dwell for no time -- G64 should not smooth over this point )
G00 Z0.05906 ( retract )

G00 X-0.37843 Y0.73120 ( rapid move to begin. )
G01 F19.68504
( Mill infeed pass 1/1 )
G01 Z-0.00354
G04 P0 ( dwell for no time -- G64 should not smooth over this point )
G01 F39.37008
G01 X-0.37843 Y0.73120
G01 X-0.35777 Y0.73120
G01 X-0.35335 Y0.73163
G01 X-0.34911 Y0.73292
G01 X-0.34519 Y0.73501
G01 X-0.34176 Y0.73783
G01 X-0.33895 Y0.74126
G01 X-0.33686 Y0.74517
G01 X-0.33557 Y0.74942
G01 X-0.33513 Y0.75383
G01 X-0.33513 Y0.76035
G01 X-0.33020 Y0.75406
G01 X-0.33339 Y0.74816
G01 X-0.33798 Y0.74130
G01 X-0.34358 Y0.73544
G01 X-0.35017 Y0.73058
G01 X-0.35777 Y0.72672
G01 X-0.36122 Y0.72530
G01 X-0.37161 Y0.72529
G01 X-0.36122 Y0.72530
G01 X-0.37056 Y0.71595
G01 X-0.37309 Y0.71585
G01 X-0.37056 Y0.71595
G01 X-0.37040 Y0.71557
G01 X-0.37056 Y0.71595
G01 X-0.36122 Y0.72530
G01 X-0.35777 Y0.72672
G01 X-0.35016 Y0.73056
G01 X-0.34356 Y0.73542
G01 X-0.33795 Y0.74128
G01 X-0.33339 Y0.74816
G01 X-0.33020 Y0.75406
G01 X-0.32323 Y0.75220
G01 X-0.32554 Y0.75112
G01 X-0.32905 Y0.74878
G01 X-0.33170 Y0.74647
G01 X-0.36812 Y0.71004
G01 X-0.37180 Y0.71004
G01 X-0.37512 Y0.70980
G01 X-0.37799 Y0.70935
G04 P0 ( dwell for no time -- G64 should not smooth over this point )
G00 Z0.05906 ( retract )

G00 X-0.39592 Y0.63918 ( rapid move to begin. )
G01 F19.68504
( Mill infeed pass 1/1 )
G01 Z-0.00354
G04 P0 ( dwell for no time -- G64 should not smooth over this point )
G01 F39.37008
G01 X-0.39592 Y0.63918
G01 X-0.39282 Y0.63919
G01 X-0.39356 Y0.63919
G01 X-0.39447 Y0.64010
G01 X-0.39647 Y0.64265
G01 X-0.39447 Y0.64010
G01 X-0.39356 Y0.63919
G01 X-0.39337 Y0.63919
G01 X-0.39597 Y0.63646
G01 X-0.43232 Y0.57166
G01 X-0.43135 Y0.56683
G01 X-0.42506 Y0.56683
G01 X-0.43638 Y0.58039
G01 X-0.43653 Y0.58092
G01 X-0.39885 Y0.57274
G01 X-0.39732 Y0.57274
G01 X-0.38909 Y0.56918
G01 X-0.39732 Y0.57274
G01 X-0.39833 Y0.57374
G04 P0 ( dwell for no time -- G64 should not smooth over this point )
G00 Z0.05906 ( retract )

G00 X-0.39799 Y0.58270 ( rapid move to begin. )
G01 F19.68504
( Mill infeed pass 1/1 )
G01 Z-0.00354
G04 P0 ( dwell for no time -- G64 should not smooth over this point )
G01 F39.37008
G01 X-0.39799 Y0.58270
G01 X-0.39542 Y0.57914
G01 X-0.39221 Y0.57593
G01 X-0.39090 Y0.57486
G01 X-0.38724 Y0.57242
G01 X-0.38576 Y0.57163
G01 X-0.38248 Y0.57028
G01 X-0.38627 Y0.56861
G01 X-0.38909 Y0.56683
G01 X-0.40674 Y0.56683
G04 P0 ( dwell for no time -- G64 should not smooth over this point )
G00 Z0.05906 ( retract )

G00 X-0.49870 Y0.50235 ( rapid move to begin. )
G01 F19.68504
( Mill infeed pass 1/1 )
G01 Z-0.00354
G04 P0 ( dwell for no time -- G64 should not smooth over this point )
G01 F39.37008
G01 X-0.49870 Y0.50235
G01 X-0.50046 Y0.50664
G01 X-0.50135 Y0.50830
G01 X-0.50380 Y0.51197
G01 X-0.50499 Y0.51342
G01 X-0.50817 Y0.51644
G01 X-0.50518 Y0.51833
G01 X-0.50388 Y0.51940
G01 X-0.50195 Y0.52133
G01 X-0.50195 Y0.52120
G01 X-0.50195 Y0.52189
G01 X-0.50200 Y0.51591
G01 X-0.50246 Y0.51571
G01 X-0.50200 Y0.51591
G01 X-0.49542 Y0.50950
G01 X-0.39963 Y0.50974
G01 X-0.39788 Y0.50667
G01 X-0.39440 Y0.50223
G01 X-0.39354 Y0.50138
G01 X-0.39297 Y0.50138
G01 X-0.39354 Y0.50138
G01 X-0.39447 Y0.50045
G01 X-0.39768 Y0.49635
G01 X-0.39447 Y0.50045
G01 X-0.39354 Y0.50138
G01 X-0.39793 Y0.50138
G01 X-0.48845 Y0.51307
G01 X-0.49152 Y0.51408
G01 X-0.49450 Y0.51559
G01 X-0.49667 Y0.51689
G01 X-0.50105 Y0.52030
G01 X-0.50195 Y0.52120
G01 X-0.50195 Y0.52176
G04 P0 ( dwell for no time -- G64 should not smooth over this point )
G00 Z0.05906 ( retract )

G00 X-0.57018 Y0.53046 ( rapid move to begin. )
G01 F19.68504
( Mill infeed pass 1/1 )
G01 Z-0.00354
G04 P0 ( dwell for no time -- G64 should not smooth over this point )
G01 F39.37008
G01 X-0.57018 Y0.53046
G01 X-0.56896 Y0.52803
G01 X-0.56743 Y0.52553
G01 X-0.56743 Y0.51822
G01 X-0.56877 Y0.51722
G01 X-0.57276 Y0.51342
G01 X-0.57395 Y0.51197
G01 X-0.57579 Y0.50922
G01 X-0.57579 Y0.50851
G01 X-0.57584 Y0.51884
G01 X-0.57677 Y0.51972
G01 X-0.57584 Y0.51884
G01 X-0.57584 Y0.51858
G01 X-0.57333 Y0.52097
G01 X-0.57286 Y0.52076
G01 X-0.57333 Y0.52097
G01 X-0.57333 Y0.52233
G01 X-0.57333 Y0.52097
G01 X-0.57584 Y0.51858
G01 X-0.57579 Y0.50849
G01 X-0.57579 Y0.50918
G01 X-0.57833 Y0.51279
G01 X-0.58022 Y0.51488
G01 X-0.58267 Y0.51721
G01 X-0.58480 Y0.51870
G04 P0 ( dwell for no time -- G64 should not smooth over this point )
G00 Z0.05906 ( retract )

G00 X-0.64229 Y0.51751 ( rapid move to begin. )
G01 F19.68504
( Mill infeed pass 1/1 )
G01 Z-0.00354
G04 P0 ( dwell for no time -- G64 should not smooth over this point )
G01 F39.37008
G01 X-0.64229 Y0.51751
G01 X-0.64517 Y0.51488
G01 X-0.64744 Y0.51226
G01 X-0.65273 Y0.51820
G04 P0 ( dwell for no time -- G64 should not smooth over this point )
G00 Z0.05906 ( retract )

G00 X-0.54104 Y0.59435 ( rapid move to begin. )
G01 F19.68504
( Mill infeed pass 1/1 )
G01 Z-0.00354
G04 P0 ( dwell for no time -- G64 should not smooth over this point )
G01 F39.37008
G01 X-0.54104 Y0.59435
G01 X-0.52351 Y0.59435
G01 X-0.51854 Y0.59373
G01 X-0.51734 Y0.59309
G01 X-0.52352 Y0.59615
G01 X-0.53342 Y0.60026
G01 X-0.53527 Y0.60026
G01 X-0.53342 Y0.60026
G01 X-0.53472 Y0.60155
G01 X-0.53342 Y0.60026
G01 X-0.52352 Y0.59615
G01 X-0.51854 Y0.59373
G01 X-0.56744 Y0.64262
G01 X-0.64149 Y0.64262
G01 X-0.64363 Y0.63892
G01 X-0.71923 Y0.53581
G01 X-0.72333 Y0.52950
G01 X-0.72293 Y0.53012
G01 X-0.71773 Y0.53243
G01 X-0.71305 Y0.53394
G01 X-0.71773 Y0.53243
G01 X-0.72293 Y0.53012
G01 X-0.72292 Y0.60422
G01 X-0.71500 Y0.61215
G01 X-0.71322 Y0.61157
G01 X-0.71124 Y0.61115
G04 P0 ( dwell for no time -- G64 should not smooth over this point )
G00 Z0.05906 ( retract )

G00 X-0.75821 Y0.64968 ( rapid move to begin. )
G01 F19.68504
( Mill infeed pass 1/1 )
G01 Z-0.00354
G04 P0 ( dwell for no time -- G64 should not smooth over this point )
G01 F39.37008
G01 X-0.75821 Y0.64968
G01 X-0.75530 Y0.65259
G01 X-0.75635 Y0.65583
G04 P0 ( dwell for no time -- G64 should not smooth over this point )
G00 Z0.05906 ( retract )

G00 X-0.64363 Y0.70342 ( rapid move to begin. )
G01 F19.68504
( Mill infeed pass 1/1 )
G01 Z-0.00354
G04 P0 ( dwell for no time -- G64 should not smooth over this point )
G01 F39.37008
G01 X-0.64363 Y0.70342
G01 X-0.64149 Y0.69971
G01 X-0.63733 Y0.69971

G00 Z0.39370 (Retract to tool change height)
T2
M5      (Spindle stop.)
G04 P1.00000 (Wait for spindle to stop)
(MSG, Change tool bit to mill diameter 0.00984in)
M6      (Tool change.)
M0      (Temporary machine stop.)
M3 ( Spindle on clockwise. )
G04 P1.00000 (Wait for spindle to get up to speed)
G04 P0 ( dwell for no time -- G64 should not smooth over this point )
G00 Z0.05906 ( retract )

G00 X-0.17569 Y0.63352 ( rapid move to begin. )
G01 F19.68504
( Mill infeed pass 1/1 )
G01 Z-0.00354
G04 P0 ( dwell for no time -- G64 should not smooth over this point )
G01 F39.37008
G01 X-0.17569 Y0.63352
G01 X-0.17569 Y0.65443
G01 X-0.18069 Y0.65443
G01 X-0.18307 Y0.64440
G01 X-0.18307 Y0.64121
G01 X-0.18307 Y0.64440
G01 X-0.18423 Y0.64162
G01 X-0.19372 Y0.64019
G01 X-0.19164 Y0.64322
G01 X-0.18985 Y0.64727
G01 X-0.18909 Y0.65162
G01 X-0.18897 Y0.65443
G01 X-0.18069 Y0.65443
G04 P0 ( dwell for no time -- G64 should not smooth over this point )
G00 Z0.05906 ( retract )

G00 X-0.24765 Y0.64596 ( rapid move to begin. )
G01 F19.68504
( Mill infeed pass 1/1 )
G01 Z-0.00354
G04 P0 ( dwell for no time -- G64 should not smooth over this point )
G01 F39.37008
G01 X-0.24765 Y0.64596
G01 X-0.24865 Y0.64964
G01 X-0.24897 Y0.65224
G01 X-0.24902 Y0.68911
G01 X-0.24877 Y0.69209
G01 X-0.24837 Y0.69411
G01 X-0.24783 Y0.69591
G01 X-0.24700 Y0.69791
G01 X-0.24611 Y0.69957
G01 X-0.24460 Y0.70172
G01 X-0.24155 Y0.70491
G01 X-0.23783 Y0.70728
G01 X-0.23537 Y0.70837
G01 X-0.23156 Y0.70931
G01 X-0.22859 Y0.70955
G01 X-0.28315 Y0.70955
G01 X-0.28025 Y0.70931
G01 X-0.27643 Y0.70837
G01 X-0.27396 Y0.70727
G01 X-0.27155 Y0.70582
G01 X-0.26910 Y0.70381
G01 X-0.26721 Y0.70172
G01 X-0.26570 Y0.69957
G01 X-0.26481 Y0.69791
G01 X-0.26385 Y0.69541
G01 X-0.26317 Y0.69268
G01 X-0.26284 Y0.69008
G01 X-0.26279 Y0.65321
G01 X-0.26332 Y0.64884
G01 X-0.26367 Y0.64727
G01 X-0.26413 Y0.64609
G01 X-0.25592 Y0.64935
G01 X-0.25592 Y0.64918
G01 X-0.25589 Y0.69277
G01 X-0.25600 Y0.69447
G01 X-0.25668 Y0.69720
G01 X-0.25872 Y0.70217
G01 X-0.26297 Y0.70524
G01 X-0.25872 Y0.70217
G01 X-0.25309 Y0.70217
G01 X-0.25490 Y0.69803
G01 X-0.25544 Y0.69623
G01 X-0.25592 Y0.69382
G01 X-0.25589 Y0.69277
G01 X-0.25590 Y0.70042
G01 X-0.25691 Y0.70100
G01 X-0.25590 Y0.70042
G01 X-0.25211 Y0.70276
G01 X-0.24807 Y0.70489
G01 X-0.24526 Y0.70615
G01 X-0.24128 Y0.70757
G01 X-0.23559 Y0.70897
G01 X-0.23371 Y0.70926
G01 X-0.22864 Y0.70955
G01 X-0.17569 Y0.70955
G01 X-0.18375 Y0.70149
G01 X-0.18349 Y0.69969
G01 X-0.18375 Y0.70149
G01 X-0.18307 Y0.70217
G01 X-0.18307 Y0.69795
G01 X-0.18307 Y0.70217
G01 X-0.18307 Y0.69795
G01 X-0.18098 Y0.68790
G01 X-0.18307 Y0.69795
G01 X-0.18490 Y0.70217
G01 X-0.18375 Y0.70149
G01 X-0.18348 Y0.69981
G01 X-0.18375 Y0.70149
G01 X-0.17472 Y0.71055
G01 X-0.17569 Y0.70955
G01 X-0.17569 Y0.68790
G01 X-0.18897 Y0.68790
G01 X-0.18922 Y0.69209
G01 X-0.19016 Y0.69591
G01 X-0.19099 Y0.69791
G01 X-0.19188 Y0.69957
G01 X-0.19424 Y0.70277
G01 X-0.19615 Y0.70459
G01 X-0.19841 Y0.70627
G01 X-0.20073 Y0.70759
G01 X-0.20247 Y0.70831
G01 X-0.20500 Y0.70901
G01 X-0.20940 Y0.70956
G01 X-0.20499 Y0.70928
G01 X-0.20222 Y0.70893
G01 X-0.19734 Y0.70775
G01 X-0.19452 Y0.70683
G01 X-0.19104 Y0.70543
G01 X-0.18489 Y0.70217
G01 X-0.18307 Y0.70217
G01 X-0.17471 Y0.71053
G01 X-0.16978 Y0.71422
G01 X-0.16985 Y0.71436
G01 X-0.16978 Y0.71422
G01 X-0.16487 Y0.71551
G01 X-0.08612 Y0.71549
G01 X-0.08204 Y0.71461
G01 X-0.08102 Y0.71564
G01 X-0.08204 Y0.71461
G01 X-0.08116 Y0.71054
G01 X-0.08114 Y0.63179
G01 X-0.08243 Y0.62687
G01 X-0.08229 Y0.62681
G01 X-0.08243 Y0.62687
G01 X-0.08611 Y0.62193
G01 X-0.08710 Y0.62097
G01 X-0.11202 Y0.62097
G01 X-0.11928 Y0.62173
G01 X-0.11106 Y0.62076
G01 X-0.10892 Y0.62007
G01 X-0.10141 Y0.61673
G01 X-0.09945 Y0.61559
G01 X-0.09279 Y0.61075
G01 X-0.09110 Y0.60924
G01 X-0.08710 Y0.60479
G01 X-0.08558 Y0.60053
G01 X-0.08305 Y0.59085
G01 X-0.08176 Y0.58262
G01 X-0.08120 Y0.57222
G01 X-0.08176 Y0.56286
G01 X-0.08338 Y0.55317
G01 X-0.08176 Y0.56286
G01 X-0.08121 Y0.57325
G01 X-0.08163 Y0.56399
G01 X-0.08306 Y0.55462
G01 X-0.08557 Y0.54494
G01 X-0.08710 Y0.54068
G01 X-0.09110 Y0.53623
G01 X-0.09279 Y0.53471
G01 X-0.09945 Y0.52988
G01 X-0.10140 Y0.52876
G01 X-0.10891 Y0.52541
G01 X-0.11107 Y0.52470
G01 X-0.11663 Y0.52352
G01 X-0.11107 Y0.52235
G01 X-0.10891 Y0.52164
G01 X-0.10140 Y0.51829
G01 X-0.09945 Y0.51716
G01 X-0.09279 Y0.51232
G01 X-0.09111 Y0.51082
G01 X-0.08710 Y0.50637
G01 X-0.09111 Y0.51082
G01 X-0.09279 Y0.51232
G01 X-0.09945 Y0.51716
G01 X-0.10140 Y0.51829
G01 X-0.10891 Y0.52164
G01 X-0.11107 Y0.52235
G01 X-0.11663 Y0.52352
G01 X-0.13436 Y0.52352
G01 X-0.13991 Y0.52470
G01 X-0.14207 Y0.52541
G01 X-0.14959 Y0.52876
G01 X-0.15204 Y0.53024
G01 X-0.15001 Y0.52352
G01 X-0.13436 Y0.52352
G01 X-0.15001 Y0.52352
G01 X-0.15204 Y0.51680
G01 X-0.14959 Y0.51829
G01 X-0.14207 Y0.52164
G01 X-0.13991 Y0.52235
G01 X-0.13436 Y0.52352
G01 X-0.09578 Y0.52352
G01 X-0.09448 Y0.52268
G01 X-0.09449 Y0.52435
G01 X-0.09067 Y0.53182
G01 X-0.09448 Y0.52437
G01 X-0.09578 Y0.52352
G01 X-0.09491 Y0.52352
G01 X-0.09067 Y0.51523
G01 X-0.08939 Y0.51235
G01 X-0.08558 Y0.50211
G01 X-0.08711 Y0.50639
G01 X-0.08711 Y0.54066
G01 X-0.08624 Y0.54293
G01 X-0.08939 Y0.53470
G01 X-0.09067 Y0.53182
G01 X-0.09491 Y0.52352
G01 X-0.09067 Y0.51523
G01 X-0.08939 Y0.51235
G01 X-0.08623 Y0.50412
G01 X-0.08305 Y0.49243
G01 X-0.08163 Y0.48306
G01 X-0.08120 Y0.47380
G01 X-0.08175 Y0.46443
G01 X-0.08307 Y0.45620
G01 X-0.08374 Y0.45339
G01 X-0.08349 Y0.45328
G01 X-0.08374 Y0.45339
G01 X-0.08885 Y0.44685
G01 X-0.09450 Y0.44087
G01 X-0.10173 Y0.43461
G01 X-0.10981 Y0.42897
G01 X-0.11144 Y0.42799
G01 X-0.11684 Y0.42505
G01 X-0.11913 Y0.42456
G01 X-0.12138 Y0.42433
G01 X-0.12961 Y0.42433
G01 X-0.13186 Y0.42456
G01 X-0.13991 Y0.42627
G01 X-0.14207 Y0.42698
G01 X-0.14959 Y0.43033
G01 X-0.15155 Y0.43146
G01 X-0.15820 Y0.43630
G01 X-0.16006 Y0.43802
G01 X-0.15820 Y0.43630
G01 X-0.15155 Y0.43146
G01 X-0.14959 Y0.43033
G01 X-0.14207 Y0.42698
G01 X-0.13991 Y0.42627
G01 X-0.13186 Y0.42456
G01 X-0.12961 Y0.42433
G01 X-0.12138 Y0.42433
G01 X-0.11913 Y0.42456
G01 X-0.11684 Y0.42505
G01 X-0.11144 Y0.42799
G01 X-0.11685 Y0.42504
G01 X-0.11975 Y0.42215
G01 X-0.16717 Y0.42215
G01 X-0.11975 Y0.42215
G01 X-0.11685 Y0.42504
G01 X-0.12021 Y0.42327
G01 X-0.12014 Y0.42303
G01 X-0.12021 Y0.42327
G01 X-0.12961 Y0.42324
G01 X-0.13211 Y0.42337
G01 X-0.14034 Y0.42424
G01 X-0.14309 Y0.42467
G01 X-0.15132 Y0.42641
G01 X-0.15456 Y0.42729
G01 X-0.16012 Y0.42910
G01 X-0.15456 Y0.42729
G01 X-0.15132 Y0.42642
G01 X-0.14309 Y0.42467
G01 X-0.14034 Y0.42424
G01 X-0.13211 Y0.42337
G01 X-0.12961 Y0.42324
G01 X-0.12021 Y0.42327
G01 X-0.10981 Y0.42898
G01 X-0.10173 Y0.43461
G01 X-0.09451 Y0.44088
G01 X-0.08885 Y0.44685
G01 X-0.08374 Y0.45339
G01 X-0.08307 Y0.45620
G01 X-0.08176 Y0.46443
G01 X-0.08121 Y0.47483
G01 X-0.08176 Y0.48419
G01 X-0.08307 Y0.49242
G01 X-0.08558 Y0.50211
G01 X-0.08711 Y0.50642
G01 X-0.08711 Y0.54066
G01 X-0.08557 Y0.54494
G01 X-0.08307 Y0.55463
G01 X-0.08163 Y0.56399
G01 X-0.08121 Y0.57325
G01 X-0.08176 Y0.58262
G01 X-0.08338 Y0.59230
G01 X-0.08624 Y0.60254
G01 X-0.08940 Y0.61077
G01 X-0.09194 Y0.61613
G01 X-0.08940 Y0.61077
G01 X-0.08710 Y0.60479
G01 X-0.08710 Y0.62097
G01 X-0.09194 Y0.61613
G01 X-0.10050 Y0.61876
G01 X-0.10873 Y0.62052
G01 X-0.11928 Y0.62173
G01 X-0.12961 Y0.62184
G01 X-0.13896 Y0.62097
G01 X-0.16486 Y0.62097
G01 X-0.16631 Y0.62111
G01 X-0.16194 Y0.61516
G01 X-0.15328 Y0.61799
G01 X-0.15048 Y0.61876
G01 X-0.13993 Y0.62087
G01 X-0.13170 Y0.62173
G01 X-0.13992 Y0.62076
G01 X-0.14206 Y0.62007
G01 X-0.14958 Y0.61673
G01 X-0.15155 Y0.61559
G01 X-0.15820 Y0.61075
G01 X-0.15988 Y0.60924
G01 X-0.16207 Y0.60680
G01 X-0.32320 Y0.58947
G01 X-0.32525 Y0.58947
G01 X-0.33248 Y0.59669
G01 X-0.33224 Y0.59855
G01 X-0.33125 Y0.63917
G01 X-0.33079 Y0.63917
G01 X-0.32727 Y0.64098
G01 X-0.32807 Y0.64266
G01 X-0.32933 Y0.64682
G01 X-0.32805 Y0.65389
G01 X-0.32933 Y0.64682
G01 X-0.33143 Y0.64396
G01 X-0.33401 Y0.64137
G01 X-0.33701 Y0.63917
G01 X-0.38082 Y0.63917
G01 X-0.38261 Y0.64549
G01 X-0.38068 Y0.64433
G01 X-0.37824 Y0.64324
G01 X-0.37662 Y0.64275
G01 X-0.37283 Y0.64218
G01 X-0.35162 Y0.64213
G01 X-0.34891 Y0.64234
G01 X-0.34518 Y0.64325
G01 X-0.34321 Y0.64407
G01 X-0.33999 Y0.64602
G01 X-0.33868 Y0.64709
G01 X-0.33608 Y0.64994
G01 X-0.33491 Y0.65169
G01 X-0.33363 Y0.65443
G01 X-0.32284 Y0.65443
G01 X-0.32272 Y0.65158
G01 X-0.32230 Y0.64880
G01 X-0.32139 Y0.64580
G01 X-0.32019 Y0.64325
G01 X-0.31823 Y0.64035
G01 X-0.33027 Y0.63997
G01 X-0.33062 Y0.63928
G01 X-0.33027 Y0.63997
G01 X-0.32917 Y0.64000
G01 X-0.33079 Y0.63917
G01 X-0.33870 Y0.63917
G01 X-0.33701 Y0.63917
G01 X-0.33532 Y0.63805
G01 X-0.33361 Y0.63658
G01 X-0.33567 Y0.62780
G01 X-0.33715 Y0.62972
G01 X-0.33868 Y0.63126
G01 X-0.34177 Y0.63351
G01 X-0.34326 Y0.63430
G01 X-0.34567 Y0.63523
G01 X-0.34812 Y0.63585
G01 X-0.35078 Y0.63618
G01 X-0.37264 Y0.63618
G01 X-0.37529 Y0.63585
G01 X-0.37775 Y0.63523
G01 X-0.38020 Y0.63429
G01 X-0.38235 Y0.63305
G01 X-0.44832 Y0.57763
G01 X-0.44832 Y0.57653
G01 X-0.44777 Y0.57594
G04 P0 ( dwell for no time -- G64 should not smooth over this point )
G00 Z0.05906 ( retract )

G00 X-0.36528 Y0.69823 ( rapid move to begin. )
G01 F19.68504
( Mill infeed pass 1/1 )
G01 Z-0.00354
G04 P0 ( dwell for no time -- G64 should not smooth over this point )
G01 F39.37008
G01 X-0.36528 Y0.69823
G01 X-0.36323 Y0.69823
G01 X-0.36178 Y0.69968
G04 P0 ( dwell for no time -- G64 should not smooth over this point )
G00 Z0.05906 ( retract )

G00 X-0.32266 Y0.69147 ( rapid move to begin. )
G01 F19.68504
( Mill infeed pass 1/1 )
G01 Z-0.00354
G04 P0 ( dwell for no time -- G64 should not smooth over this point )
G01 F39.37008
G01 X-0.32266 Y0.69147
G01 X-0.32284 Y0.68790
G01 X-0.32622 Y0.68790
G01 X-0.32266 Y0.69147
G04 P0 ( dwell for no time -- G64 should not smooth over this point )
G00 Z0.05906 ( retract )

G00 X-0.30246 Y0.70955 ( rapid move to begin. )
G01 F19.68504
( Mill infeed pass 1/1 )
G01 Z-0.00354
G04 P0 ( dwell for no time -- G64 should not smooth over this point )
G01 F39.37008
G01 X-0.30246 Y0.70955
G01 X-0.30481 Y0.70931
G01 X-0.30458 Y0.70955
G01 X-0.30246 Y0.70955
G04 P0 ( dwell for no time -- G64 should not smooth over this point )
G00 Z0.05906 ( retract )

G00 X-0.17749 Y0.58947 ( rapid move to begin. )
G01 F19.68504
( Mill infeed pass 1/1 )
G01 Z-0.00354
G04 P0 ( dwell for no time -- G64 should not smooth over this point )
G01 F39.37008
G01 X-0.17749 Y0.58947
G01 X-0.17261 Y0.58947
G01 X-0.17128 Y0.59317
G04 P0 ( dwell for no time -- G64 should not smooth over this point )
G00 Z0.05906 ( retract )

G00 X-0.17128 Y0.55230 ( rapid move to begin. )
G01 F19.68504
( Mill infeed pass 1/1 )
G01 Z-0.00354
G04 P0 ( dwell for no time -- G64 should not smooth over this point )
G01 F39.37008
G01 X-0.17128 Y0.55230
G01 X-0.17261 Y0.55600
G01 X-0.32033 Y0.55600
G01 X-0.33244 Y0.54390
G01 X-0.32957 Y0.50867
G01 X-0.33214 Y0.50538
G01 X-0.33334 Y0.50419
G01 X-0.33693 Y0.50138
G01 X-0.33201 Y0.50138
G01 X-0.33152 Y0.50048
G01 X-0.33201 Y0.50138
G01 X-0.33184 Y0.50145
G01 X-0.33134 Y0.50054
G01 X-0.33184 Y0.50145
G01 X-0.33201 Y0.50138
G01 X-0.33184 Y0.50145
G01 X-0.32799 Y0.50743
G01 X-0.32617 Y0.50646
G01 X-0.32687 Y0.50536
G01 X-0.32807 Y0.50281
G01 X-0.32939 Y0.49843
G01 X-0.32846 Y0.49710
G01 X-0.32939 Y0.49843
G01 X-0.33320 Y0.49843
G01 X-0.33334 Y0.49802
G01 X-0.33329 Y0.49852
G01 X-0.33693 Y0.50138
G01 X-0.38078 Y0.50138
G01 X-0.38258 Y0.49508
G01 X-0.38068 Y0.49622
G01 X-0.37824 Y0.49731
G01 X-0.37451 Y0.49821
G01 X-0.37180 Y0.49842
G01 X-0.35162 Y0.49842
G01 X-0.34754 Y0.49794
G01 X-0.34501 Y0.49724
G01 X-0.34345 Y0.49660
G01 X-0.34013 Y0.49463
G01 X-0.33851 Y0.49330
G01 X-0.33645 Y0.49105
G01 X-0.32284 Y0.49105
G01 X-0.32272 Y0.49389
G01 X-0.32230 Y0.49667
G01 X-0.32139 Y0.49967
G01 X-0.32019 Y0.50222
G01 X-0.31876 Y0.50447
G01 X-0.31716 Y0.50633
G04 P0 ( dwell for no time -- G64 should not smooth over this point )
G00 Z0.05906 ( retract )

G00 X-0.33358 Y0.51685 ( rapid move to begin. )
G01 F19.68504
( Mill infeed pass 1/1 )
G01 Z-0.00354
G04 P0 ( dwell for no time -- G64 should not smooth over this point )
G01 F39.37008
G01 X-0.33358 Y0.51685
G01 X-0.33436 Y0.51494
G01 X-0.33565 Y0.51277
G01 X-0.33734 Y0.51062
G01 X-0.34013 Y0.50813
G01 X-0.34153 Y0.50719
G01 X-0.34496 Y0.50553
G01 X-0.34867 Y0.50458
G01 X-0.35078 Y0.50437
G01 X-0.37264 Y0.50437
G01 X-0.37529 Y0.50470
G01 X-0.37926 Y0.50582
G01 X-0.38259 Y0.50769
G04 P0 ( dwell for no time -- G64 should not smooth over this point )
G00 Z0.05906 ( retract )

G00 X-0.39008 Y0.51728 ( rapid move to begin. )
G01 F19.68504
( Mill infeed pass 1/1 )
G01 Z-0.00354
G04 P0 ( dwell for no time -- G64 should not smooth over this point )
G01 F39.37008
G01 X-0.39008 Y0.51728
G01 X-0.39088 Y0.52031
G01 X-0.39103 Y0.52155
G01 X-0.39680 Y0.52155
G04 P0 ( dwell for no time -- G64 should not smooth over this point )
G00 Z0.05906 ( retract )

G00 X-0.38625 Y0.55502 ( rapid move to begin. )
G01 F19.68504
( Mill infeed pass 1/1 )
G01 Z-0.00354
G04 P0 ( dwell for no time -- G64 should not smooth over this point )
G01 F39.37008
G01 X-0.38625 Y0.55502
G01 X-0.38519 Y0.55502
G01 X-0.38476 Y0.55545
G04 P0 ( dwell for no time -- G64 should not smooth over this point )
G00 Z0.05906 ( retract )

G00 X-0.36078 Y0.57027 ( rapid move to begin. )
G01 F19.68504
( Mill infeed pass 1/1 )
G01 Z-0.00354
G04 P0 ( dwell for no time -- G64 should not smooth over this point )
G01 F39.37008
G01 X-0.36078 Y0.57027
G01 X-0.36383 Y0.57027
G01 X-0.36629 Y0.56781
G01 X-0.37055 Y0.56781
G01 X-0.36629 Y0.56781
G01 X-0.36606 Y0.56729
G01 X-0.36629 Y0.56781
G01 X-0.36383 Y0.57027
G01 X-0.36629 Y0.57274
G01 X-0.36607 Y0.57325
G01 X-0.36629 Y0.57274
G01 X-0.37056 Y0.57274
G01 X-0.37619 Y0.58067
G01 X-0.37457 Y0.58034
G01 X-0.37180 Y0.58012
G01 X-0.36323 Y0.58012
G01 X-0.35339 Y0.57027
G01 X-0.36323 Y0.56043
G01 X-0.37339 Y0.56032
G01 X-0.37614 Y0.55989
G01 X-0.43418 Y0.55502
G01 X-0.44291 Y0.55502
G01 X-0.44291 Y0.56309
G04 P0 ( dwell for no time -- G64 should not smooth over this point )
G00 Z0.05906 ( retract )

G00 X-0.45796 Y0.52344 ( rapid move to begin. )
G01 F19.68504
( Mill infeed pass 1/1 )
G01 Z-0.00354
G04 P0 ( dwell for no time -- G64 should not smooth over this point )
G01 F39.37008
G01 X-0.45796 Y0.52344
G01 X-0.45879 Y0.52390
G01 X-0.46030 Y0.52367
G04 P0 ( dwell for no time -- G64 should not smooth over this point )
G00 Z0.05906 ( retract )

G00 X-0.51660 Y0.52524 ( rapid move to begin. )
G01 F19.68504
( Mill infeed pass 1/1 )
G01 Z-0.00354
G04 P0 ( dwell for no time -- G64 should not smooth over this point )
G01 F39.37008
G01 X-0.51660 Y0.52524
G01 X-0.52028 Y0.52401
G01 X-0.52214 Y0.52374
G01 X-0.52214 Y0.51137
G01 X-0.52060 Y0.51073
G01 X-0.51783 Y0.50907
G04 P0 ( dwell for no time -- G64 should not smooth over this point )
G00 Z0.05906 ( retract )

G00 X-0.55842 Y0.51001 ( rapid move to begin. )
G01 F19.68504
( Mill infeed pass 1/1 )
G01 Z-0.00354
G04 P0 ( dwell for no time -- G64 should not smooth over this point )
G01 F39.37008
G01 X-0.55842 Y0.51001
G01 X-0.55562 Y0.51137
G01 X-0.55562 Y0.52959
G01 X-0.55618 Y0.53018
G04 P0 ( dwell for no time -- G64 should not smooth over this point )
G00 Z0.05906 ( retract )

G00 X-0.51674 Y0.58095 ( rapid move to begin. )
G01 F19.68504
( Mill infeed pass 1/1 )
G01 Z-0.00354
G04 P0 ( dwell for no time -- G64 should not smooth over this point )
G01 F39.37008
G01 X-0.51674 Y0.58095
G01 X-0.51450 Y0.57987
G01 X-0.51265 Y0.57863
G01 X-0.50991 Y0.57611
G01 X-0.50884 Y0.57481
G01 X-0.50686 Y0.57156
G01 X-0.50589 Y0.56905
G01 X-0.50528 Y0.56660
G01 X-0.50496 Y0.56401
G01 X-0.50497 Y0.54194
G01 X-0.50555 Y0.53815
G01 X-0.50604 Y0.53653
G01 X-0.50686 Y0.53454
G01 X-0.50814 Y0.53234
G01 X-0.50196 Y0.53408
G01 X-0.50197 Y0.57764
G01 X-0.50075 Y0.57956
G01 X-0.49954 Y0.58099
G01 X-0.49722 Y0.58117
G01 X-0.49954 Y0.58099
G01 X-0.50640 Y0.58785
G01 X-0.50738 Y0.58619
G01 X-0.50562 Y0.58464
G01 X-0.50197 Y0.58089
G01 X-0.50133 Y0.58117
G01 X-0.50197 Y0.58089
G01 X-0.50140 Y0.58112
G01 X-0.50197 Y0.58089
G01 X-0.50197 Y0.57764
G01 X-0.50197 Y0.58089
G01 X-0.50286 Y0.58188
G01 X-0.50737 Y0.58618
G01 X-0.50855 Y0.58472
G01 X-0.50664 Y0.58323
G01 X-0.50421 Y0.58080
G01 X-0.50197 Y0.57774
G01 X-0.50196 Y0.53395
G01 X-0.49570 Y0.53218
G01 X-0.49716 Y0.53474
G01 X-0.49781 Y0.53630
G01 X-0.49844 Y0.53834
G01 X-0.49898 Y0.54209
G01 X-0.49902 Y0.56311
G01 X-0.49853 Y0.56722
G01 X-0.49761 Y0.57025
G01 X-0.49653 Y0.57254
G01 X-0.49507 Y0.57484
G01 X-0.49258 Y0.57755
G01 X-0.49128 Y0.57863
G01 X-0.48849 Y0.58037
G01 X-0.56255 Y0.65443
G01 X-0.64924 Y0.65443
G01 X-0.65058 Y0.65070
G04 P0 ( dwell for no time -- G64 should not smooth over this point )
G00 Z0.05906 ( retract )

G00 X-0.64436 Y0.68790 ( rapid move to begin. )
G01 F19.68504
( Mill infeed pass 1/1 )
G01 Z-0.00354
G04 P0 ( dwell for no time -- G64 should not smooth over this point )
G01 F39.37008
G01 X-0.64436 Y0.68790
G01 X-0.64924 Y0.68790
G01 X-0.65057 Y0.69160
G04 P0 ( dwell for no time -- G64 should not smooth over this point )
G00 Z0.05906 ( retract )

G00 X-0.74317 Y0.65351 ( rapid move to begin. )
G01 F19.68504
( Mill infeed pass 1/1 )
G01 Z-0.00354
G04 P0 ( dwell for no time -- G64 should not smooth over this point )
G01 F39.37008
G01 X-0.74317 Y0.65351
G01 X-0.74262 Y0.65179
G01 X-0.74161 Y0.64958
G01 X-0.74493 Y0.64626
G04 P0 ( dwell for no time -- G64 should not smooth over this point )
G00 Z0.05906 ( retract )

G00 X-0.73473 Y0.60707 ( rapid move to begin. )
G01 F19.68504
( Mill infeed pass 1/1 )
G01 Z-0.00354
G04 P0 ( dwell for no time -- G64 should not smooth over this point )
G01 F39.37008
G01 X-0.73473 Y0.60707
G01 X-0.73473 Y0.60911
G01 X-0.73329 Y0.61055
G01 X-0.71390 Y0.62426
G01 X-0.71784 Y0.62601
G01 X-0.72134 Y0.62251
G01 X-0.73473 Y0.52537
G01 X-0.73473 Y0.50639
G01 X-0.73561 Y0.50412
G01 X-0.73245 Y0.51235
G01 X-0.72928 Y0.51893
G01 X-0.73118 Y0.51522
G01 X-0.72927 Y0.51894
G01 X-0.72189 Y0.51746
G01 X-0.72907 Y0.51232
G01 X-0.73074 Y0.51082
G01 X-0.73473 Y0.50639
G01 X-0.73628 Y0.50211
G01 X-0.73879 Y0.49243
G01 X-0.74021 Y0.48306
G01 X-0.74063 Y0.47483
G01 X-0.74021 Y0.46556
G01 X-0.73878 Y0.45620
G01 X-0.73641 Y0.44708
G01 X-0.73662 Y0.44697
G01 X-0.73641 Y0.44708
G01 X-0.73661 Y0.44698
G01 X-0.73641 Y0.44708
G01 X-0.73484 Y0.44520
G01 X-0.72786 Y0.43796
G01 X-0.72158 Y0.43260
G01 X-0.71474 Y0.42778
G01 X-0.71293 Y0.42698
G01 X-0.71077 Y0.42627
G01 X-0.70272 Y0.42456
G01 X-0.70047 Y0.42433
G01 X-0.69224 Y0.42433
G01 X-0.69102 Y0.42446
G01 X-0.69224 Y0.42433
G01 X-0.70047 Y0.42433
G01 X-0.70272 Y0.42456
G01 X-0.71077 Y0.42627
G01 X-0.71293 Y0.42698
G01 X-0.71474 Y0.42778
G01 X-0.71998 Y0.43137
G01 X-0.71473 Y0.42778
G01 X-0.69581 Y0.40885
G01 X-0.69624 Y0.41810
G01 X-0.70048 Y0.41984
G01 X-0.70343 Y0.42125
G01 X-0.71097 Y0.42535
G01 X-0.71308 Y0.42663
G01 X-0.71998 Y0.43138
G04 P0 ( dwell for no time -- G64 should not smooth over this point )
G00 Z0.05906 ( retract )

G00 X-0.65514 Y0.50288 ( rapid move to begin. )
G01 F19.68504
( Mill infeed pass 1/1 )
G01 Z-0.00354
G04 P0 ( dwell for no time -- G64 should not smooth over this point )
G01 F39.37008
G01 X-0.65514 Y0.50288
G01 X-0.65102 Y0.49574
G01 X-0.65009 Y0.49367
G01 X-0.64924 Y0.49105
G01 X-0.64272 Y0.49105
G01 X-0.64247 Y0.49524
G01 X-0.64207 Y0.49726
G01 X-0.64153 Y0.49906
G01 X-0.64070 Y0.50106
G01 X-0.63966 Y0.50294
G01 X-0.64733 Y0.50009
G01 X-0.64731 Y0.49799
G04 P0 ( dwell for no time -- G64 should not smooth over this point )
G00 Z0.05906 ( retract )

G00 X-0.64717 Y0.45104 ( rapid move to begin. )
G01 F19.68504
( Mill infeed pass 1/1 )
G01 Z-0.00354
G04 P0 ( dwell for no time -- G64 should not smooth over this point )
G01 F39.37008
G01 X-0.64717 Y0.45104
G01 X-0.64724 Y0.44844
G01 X-0.63944 Y0.44541
G01 X-0.64007 Y0.44640
G01 X-0.64127 Y0.44895
G01 X-0.64218 Y0.45195
G01 X-0.64260 Y0.45473
G01 X-0.64272 Y0.45758
G01 X-0.64924 Y0.45758
G01 X-0.65009 Y0.45495
G01 X-0.65102 Y0.45287
G01 X-0.65519 Y0.44568
G04 P0 ( dwell for no time -- G64 should not smooth over this point )
G00 Z0.05906 ( retract )

G00 X-0.66533 Y0.33103 ( rapid move to begin. )
G01 F19.68504
( Mill infeed pass 1/1 )
G01 Z-0.00354
G04 P0 ( dwell for no time -- G64 should not smooth over this point )
G01 F39.37008
G01 X-0.66533 Y0.33103
G01 X-0.66388 Y0.32958
G01 X-0.66388 Y0.32753
G04 P0 ( dwell for no time -- G64 should not smooth over this point )
G00 Z0.05906 ( retract )

G00 X-0.63040 Y0.25062 ( rapid move to begin. )
G01 F19.68504
( Mill infeed pass 1/1 )
G01 Z-0.00354
G04 P0 ( dwell for no time -- G64 should not smooth over this point )
G01 F39.37008
G01 X-0.63040 Y0.25062
G01 X-0.63040 Y0.24857
G01 X-0.62895 Y0.24712
G04 P0 ( dwell for no time -- G64 should not smooth over this point )
G00 Z0.05906 ( retract )

G00 X-0.60964 Y0.18046 ( rapid move to begin. )
G01 F19.68504
( Mill infeed pass 1/1 )
G01 Z-0.00354
G04 P0 ( dwell for no time -- G64 should not smooth over this point )
G01 F39.37008
G01 X-0.60964 Y0.18046
G01 X-0.60293 Y0.17374
G01 X-0.60443 Y0.17329
G01 X-0.60631 Y0.17229
G01 X-0.60795 Y0.17094
G01 X-0.60856 Y0.17020
G04 P0 ( dwell for no time -- G64 should not smooth over this point )
G00 Z0.05906 ( retract )

G00 X-0.56427 Y0.17846 ( rapid move to begin. )
G01 F19.68504
( Mill infeed pass 1/1 )
G01 Z-0.00354
G04 P0 ( dwell for no time -- G64 should not smooth over this point )
G01 F39.37008
G01 X-0.56427 Y0.17846
G01 X-0.56393 Y0.17622
G01 X-0.56387 Y0.17411
G01 X-0.55962 Y0.17398
G04 P0 ( dwell for no time -- G64 should not smooth over this point )
G00 Z0.05906 ( retract )

G00 X-0.51112 Y0.27871 ( rapid move to begin. )
G01 F19.68504
( Mill infeed pass 1/1 )
G01 Z-0.00354
G04 P0 ( dwell for no time -- G64 should not smooth over this point )
G01 F39.37008
G01 X-0.51112 Y0.27871
G01 X-0.51112 Y0.28076
G01 X-0.51257 Y0.28221
G04 P0 ( dwell for no time -- G64 should not smooth over this point )
G00 Z0.05906 ( retract )

G00 X-0.52069 Y0.33766 ( rapid move to begin. )
G01 F19.68504
( Mill infeed pass 1/1 )
G01 Z-0.00354
G04 P0 ( dwell for no time -- G64 should not smooth over this point )
G01 F39.37008
G01 X-0.52069 Y0.33766
G01 X-0.52214 Y0.33912
G01 X-0.52214 Y0.34118
G04 P0 ( dwell for no time -- G64 should not smooth over this point )
G00 Z0.05906 ( retract )

G00 X-0.58416 Y0.44894 ( rapid move to begin. )
G01 F19.68504
( Mill infeed pass 1/1 )
G01 Z-0.00354
G04 P0 ( dwell for no time -- G64 should not smooth over this point )
G01 F39.37008
G01 X-0.58416 Y0.44894
G01 X-0.58373 Y0.45006
G01 X-0.58305 Y0.45279
G01 X-0.58272 Y0.45539
G01 X-0.58267 Y0.49226
G01 X-0.58292 Y0.49524
G01 X-0.58332 Y0.49726
G01 X-0.58409 Y0.49961
G01 X-0.57579 Y0.49630
G01 X-0.57577 Y0.45250
G01 X-0.55848 Y0.43859
G01 X-0.55562 Y0.43726
G01 X-0.55562 Y0.43321
G01 X-0.55562 Y0.43726
G01 X-0.55848 Y0.43859
G01 X-0.57577 Y0.45250
G01 X-0.57575 Y0.45372
G01 X-0.57577 Y0.45230
G01 X-0.57579 Y0.49632
G04 P0 ( dwell for no time -- G64 should not smooth over this point )
G00 Z0.05906 ( retract )

G00 X-0.56747 Y0.49964 ( rapid move to begin. )
G01 F19.68504
( Mill infeed pass 1/1 )
G01 Z-0.00354
G04 P0 ( dwell for no time -- G64 should not smooth over this point )
G01 F39.37008
G01 X-0.56747 Y0.49964
G01 X-0.56825 Y0.49726
G01 X-0.56865 Y0.49524
G01 X-0.56890 Y0.49227
G01 X-0.56890 Y0.45634
G01 X-0.56837 Y0.45199
G01 X-0.56764 Y0.44936
G04 P0 ( dwell for no time -- G64 should not smooth over this point )
G00 Z0.05906 ( retract )

G00 X-0.51928 Y0.43859 ( rapid move to begin. )
G01 F19.68504
( Mill infeed pass 1/1 )
G01 Z-0.00354
G04 P0 ( dwell for no time -- G64 should not smooth over this point )
G01 F39.37008
G01 X-0.51928 Y0.43859
G01 X-0.52214 Y0.43726
G01 X-0.52214 Y0.43323
G01 X-0.51114 Y0.32811
G01 X-0.49404 Y0.31101
G01 X-0.49516 Y0.31289
G01 X-0.50133 Y0.32785
G01 X-0.49459 Y0.33494
G01 X-0.49459 Y0.31289
G01 X-0.49448 Y0.31175
G01 X-0.49215 Y0.30760
G01 X-0.48778 Y0.30367
G01 X-0.48797 Y0.30318
G01 X-0.48778 Y0.30367
G01 X-0.48376 Y0.30325
G01 X-0.46092 Y0.30326
G01 X-0.45610 Y0.30265
G01 X-0.45456 Y0.30207
G01 X-0.45609 Y0.30270
G01 X-0.45399 Y0.30185
G01 X-0.45327 Y0.30126
G01 X-0.45192 Y0.29962
G01 X-0.45092 Y0.29775
G01 X-0.45030 Y0.29572
G01 X-0.45018 Y0.29452
G01 X-0.44780 Y0.29866
G01 X-0.45126 Y0.30087
G01 X-0.45456 Y0.30207
G01 X-0.36077 Y0.30207
G01 X-0.35777 Y0.30331
G01 X-0.36078 Y0.30206
G01 X-0.37731 Y0.28554
G01 X-0.37707 Y0.29532
G01 X-0.35777 Y0.30331
G01 X-0.35199 Y0.30711
G01 X-0.35188 Y0.30700
G01 X-0.35199 Y0.30711
G01 X-0.34816 Y0.31288
G01 X-0.34694 Y0.31590
G01 X-0.34694 Y0.33928
G01 X-0.34020 Y0.33219
G01 X-0.34694 Y0.31590
G01 X-0.30955 Y0.35329
G01 X-0.30955 Y0.43733
G01 X-0.31236 Y0.43862
G01 X-0.32824 Y0.45159
G01 X-0.32782 Y0.45447
G04 P0 ( dwell for no time -- G64 should not smooth over this point )
G00 Z0.05906 ( retract )

G00 X-0.33634 Y0.44981 ( rapid move to begin. )
G01 F19.68504
( Mill infeed pass 1/1 )
G01 Z-0.00354
G04 P0 ( dwell for no time -- G64 should not smooth over this point )
G01 F39.37008
G01 X-0.33634 Y0.44981
G01 X-0.33490 Y0.45190
G01 X-0.33411 Y0.45339
G01 X-0.33318 Y0.45581
G01 X-0.33273 Y0.45758
G01 X-0.32280 Y0.45758
G01 X-0.32279 Y0.45536
G01 X-0.32247 Y0.45279
G01 X-0.32179 Y0.45006
G01 X-0.32093 Y0.44784
G04 P0 ( dwell for no time -- G64 should not smooth over this point )
G00 Z0.05906 ( retract )

G00 X-0.27607 Y0.43324 ( rapid move to begin. )
G01 F19.68504
( Mill infeed pass 1/1 )
G01 Z-0.00354
G04 P0 ( dwell for no time -- G64 should not smooth over this point )
G01 F39.37008
G01 X-0.27607 Y0.43324
G01 X-0.27607 Y0.43725
G01 X-0.27304 Y0.43869
G04 P0 ( dwell for no time -- G64 should not smooth over this point )
G00 Z0.05906 ( retract )

G00 X-0.24760 Y0.49962 ( rapid move to begin. )
G01 F19.68504
( Mill infeed pass 1/1 )
G01 Z-0.00354
G04 P0 ( dwell for no time -- G64 should not smooth over this point )
G01 F39.37008
G01 X-0.24760 Y0.49962
G01 X-0.24837 Y0.49726
G01 X-0.24877 Y0.49524
G01 X-0.24902 Y0.49226
G01 X-0.24897 Y0.45539
G01 X-0.24865 Y0.45279
G01 X-0.24764 Y0.44907
G01 X-0.25592 Y0.45231
G01 X-0.25590 Y0.49631
G01 X-0.26421 Y0.49961
G01 X-0.26345 Y0.49731
G01 X-0.26302 Y0.49518
G01 X-0.26279 Y0.49227
G01 X-0.26279 Y0.45634
G01 X-0.26291 Y0.45477
G01 X-0.26332 Y0.45199
G01 X-0.26416 Y0.44911
G01 X-0.27607 Y0.35700
G01 X-0.27613 Y0.34523
G01 X-0.27625 Y0.34408
G01 X-0.27697 Y0.34101
G01 X-0.27837 Y0.33794
G01 X-0.27949 Y0.33625
G01 X-0.28098 Y0.33452
G01 X-0.32766 Y0.28784
G01 X-0.36387 Y0.18123
G01 X-0.36387 Y0.17411
G01 X-0.36092 Y0.17411
G01 X-0.35847 Y0.17380
G01 X-0.36387 Y0.24958
G01 X-0.36387 Y0.25163
G01 X-0.36242 Y0.25308
G01 X-0.31787 Y0.28809
G01 X-0.31559 Y0.29360
G01 X-0.31313 Y0.29844
G01 X-0.30987 Y0.30253
G01 X-0.30591 Y0.30589
G01 X-0.30120 Y0.30850
G01 X-0.30106 Y0.30835
G01 X-0.30120 Y0.30850
G01 X-0.29939 Y0.31173
G01 X-0.29789 Y0.31398
G01 X-0.29557 Y0.31695
G01 X-0.27864 Y0.33397
G01 X-0.27619 Y0.33682
G01 X-0.27337 Y0.34104
G01 X-0.27145 Y0.34483
G01 X-0.26933 Y0.34991
G01 X-0.25955 Y0.35015
G01 X-0.29320 Y0.31642
G01 X-0.29505 Y0.31383
G01 X-0.29645 Y0.31076
G01 X-0.29717 Y0.30769
G01 X-0.29735 Y0.30443
G01 X-0.30029 Y0.30443
G01 X-0.30240 Y0.30422
G01 X-0.30443 Y0.30361
G01 X-0.30631 Y0.30261
G01 X-0.30795 Y0.30126
G01 X-0.30929 Y0.29962
G01 X-0.31029 Y0.29775
G01 X-0.31091 Y0.29572
G01 X-0.31112 Y0.29360
G01 X-0.31112 Y0.28101
G04 P0 ( dwell for no time -- G64 should not smooth over this point )
G00 Z0.05906 ( retract )

G00 X-0.39735 Y0.18123 ( rapid move to begin. )
G01 F19.68504
( Mill infeed pass 1/1 )
G01 Z-0.00354
G04 P0 ( dwell for no time -- G64 should not smooth over this point )
G01 F39.37008
G01 X-0.39735 Y0.18123
G01 X-0.39735 Y0.17411
G01 X-0.40029 Y0.17411
G01 X-0.40277 Y0.17379
G04 P0 ( dwell for no time -- G64 should not smooth over this point )
G00 Z0.05906 ( retract )

G00 X-0.25266 Y0.30052 ( rapid move to begin. )
G01 F19.68504
( Mill infeed pass 1/1 )
G01 Z-0.00354
G04 P0 ( dwell for no time -- G64 should not smooth over this point )
G01 F39.37008
G01 X-0.25266 Y0.30052
G01 X-0.25327 Y0.30126
G01 X-0.25491 Y0.30261
G01 X-0.25678 Y0.30361
G01 X-0.25829 Y0.30407
G01 X-0.17368 Y0.38868
G01 X-0.17162 Y0.38868
G04 P0 ( dwell for no time -- G64 should not smooth over this point )
G00 Z0.05906 ( retract )

G00 X-0.18969 Y0.45114 ( rapid move to begin. )
G01 F19.68504
( Mill infeed pass 1/1 )
G01 Z-0.00354
G04 P0 ( dwell for no time -- G64 should not smooth over this point )
G01 F39.37008
G01 X-0.18969 Y0.45114
G01 X-0.18909 Y0.45477
G01 X-0.18897 Y0.45758
G01 X-0.17261 Y0.45758
G01 X-0.17176 Y0.45495
G01 X-0.17077 Y0.45277
G04 P0 ( dwell for no time -- G64 should not smooth over this point )
G00 Z0.05906 ( retract )

G00 X-0.17078 Y0.49584 ( rapid move to begin. )
G01 F19.68504
( Mill infeed pass 1/1 )
G01 Z-0.00354
G04 P0 ( dwell for no time -- G64 should not smooth over this point )
G01 F39.37008
G01 X-0.17078 Y0.49584
G01 X-0.17176 Y0.49367
G01 X-0.17261 Y0.49105
G01 X-0.18897 Y0.49105
G01 X-0.18922 Y0.49524
G01 X-0.18965 Y0.49736

G04 P0 ( dwell for no time -- G64 should not smooth over this point )
G00 Z0.393701 ( retract )

M5 ( Spindle off. )
G04 P1.000000
M9 ( Coolant off. )
M2 ( Program end. )

