( pcb2gcode 2.2.2 )
( Software-independent Gcode )

G94 ( Inches per minute feed rate. )
G20 ( Units == INCHES. )

G90 ( Absolute coordinates. )
G00 S24000 ( RPM spindle speed. )
G64 P0.00040 ( set maximum deviation from commanded toolpath )
G01 F39.37008 ( Feedrate. )


G00 Z0.39370 (Retract to tool change height)
T0
M5      (Spindle stop.)
G04 P1.00000 (Wait for spindle to stop)
(MSG, Change tool bit to mill diameter 0.05709in)
M6      (Tool change.)
M0      (Temporary machine stop.)
M3 ( Spindle on clockwise. )
G04 P1.00000 (Wait for spindle to get up to speed)
G04 P0 ( dwell for no time -- G64 should not smooth over this point )
G00 Z0.05906 ( retract )

G00 X-0.18135 Y0.52551 ( rapid move to begin. )
G01 F19.68504
( Mill infeed pass 1/1 )
G01 Z-0.00354
G04 P0 ( dwell for no time -- G64 should not smooth over this point )
G01 F39.37008
G01 X-0.18135 Y0.52551
G01 X-0.18472 Y0.52870
G01 X-0.18576 Y0.52940
G01 X-0.19181 Y0.53244
G01 X-0.19336 Y0.53278
G01 X-0.19152 Y0.53238
G01 X-0.18718 Y0.53238
G01 X-0.18406 Y0.52809
G04 P0 ( dwell for no time -- G64 should not smooth over this point )
G00 Z0.05906 ( retract )

G00 X-0.26523 Y0.53238 ( rapid move to begin. )
G01 F19.68504
( Mill infeed pass 1/1 )
G01 Z-0.00354
G04 P0 ( dwell for no time -- G64 should not smooth over this point )
G01 F39.37008
G01 X-0.26523 Y0.53238
G01 X-0.26321 Y0.53142
G01 X-0.25875 Y0.52890
G01 X-0.25593 Y0.52670
G01 X-0.25594 Y0.52607
G01 X-0.25594 Y0.52659
G01 X-0.25371 Y0.52841
G01 X-0.25214 Y0.52945
G01 X-0.24631 Y0.53238
G01 X-0.24462 Y0.53278
G01 X-0.24631 Y0.53238
G01 X-0.26523 Y0.53238
G01 X-0.26762 Y0.53278
G04 P0 ( dwell for no time -- G64 should not smooth over this point )
G00 Z0.05906 ( retract )

G00 X-0.19301 Y0.61268 ( rapid move to begin. )
G01 F19.68504
( Mill infeed pass 1/1 )
G01 Z-0.00354
G04 P0 ( dwell for no time -- G64 should not smooth over this point )
G01 F39.37008
G01 X-0.19301 Y0.61268
G01 X-0.19336 Y0.61269
G04 P0 ( dwell for no time -- G64 should not smooth over this point )
G00 Z0.05906 ( retract )

G00 X-0.26518 Y0.61309 ( rapid move to begin. )
G01 F19.68504
( Mill infeed pass 1/1 )
G01 Z-0.00354
G04 P0 ( dwell for no time -- G64 should not smooth over this point )
G01 F39.37008
G01 X-0.26518 Y0.61309
G01 X-0.25814 Y0.61709
G01 X-0.25597 Y0.61870
G01 X-0.25596 Y0.61951
G01 X-0.25596 Y0.61899
G01 X-0.25383 Y0.61715
G01 X-0.25226 Y0.61610
G01 X-0.24630 Y0.61309
G01 X-0.24462 Y0.61269
G01 X-0.24630 Y0.61309
G01 X-0.26518 Y0.61309
G01 X-0.26707 Y0.61269
G04 P0 ( dwell for no time -- G64 should not smooth over this point )
G00 Z0.05906 ( retract )

G00 X-0.38236 Y0.71979 ( rapid move to begin. )
G01 F19.68504
( Mill infeed pass 1/1 )
G01 Z-0.00354
G04 P0 ( dwell for no time -- G64 should not smooth over this point )
G01 F39.37008
G01 X-0.38236 Y0.71979
G01 X-0.38643 Y0.71918
G01 X-0.39133 Y0.71709
G01 X-0.39837 Y0.71264
G01 X-0.39968 Y0.71157
G01 X-0.40457 Y0.70668
G01 X-0.40564 Y0.70537
G01 X-0.40931 Y0.69987
G01 X-0.41011 Y0.69838
G01 X-0.41273 Y0.69206
G01 X-0.41322 Y0.69044
G01 X-0.41454 Y0.68373
G01 X-0.41486 Y0.67878
G01 X-0.41486 Y0.66156
G01 X-0.41454 Y0.65662
G01 X-0.41321 Y0.64985
G01 X-0.41272 Y0.64824
G01 X-0.40931 Y0.64057
G01 X-0.40851 Y0.63923
G01 X-0.40786 Y0.63923
G01 X-0.40834 Y0.63923
G01 X-0.40931 Y0.63786
G01 X-0.41011 Y0.63637
G01 X-0.41272 Y0.63011
G01 X-0.41321 Y0.62850
G01 X-0.41454 Y0.62173
G01 X-0.41486 Y0.61671
G01 X-0.41482 Y0.59864
G01 X-0.41380 Y0.59039
G01 X-0.41319 Y0.58794
G01 X-0.41011 Y0.57997
G01 X-0.40940 Y0.57864
G01 X-0.42240 Y0.57864
G01 X-0.42489 Y0.58423
G01 X-0.42625 Y0.59158
G01 X-0.42658 Y0.59269
G01 X-0.42928 Y0.59922
G01 X-0.43340 Y0.60560
G01 X-0.43413 Y0.60650
G01 X-0.43652 Y0.60915
G01 X-0.52707 Y0.69970
G01 X-0.53063 Y0.70283
G01 X-0.53598 Y0.70640
G01 X-0.53700 Y0.70695
G01 X-0.54353 Y0.70965
G01 X-0.54464 Y0.70998
G01 X-0.55089 Y0.71122
G01 X-0.55561 Y0.71152
G01 X-0.63467 Y0.71152
G01 X-0.63891 Y0.71735
G01 X-0.64441 Y0.72346
G01 X-0.64976 Y0.72828
G01 X-0.65642 Y0.73312
G01 X-0.66265 Y0.73672
G01 X-0.67017 Y0.74007
G01 X-0.67703 Y0.74230
G01 X-0.68508 Y0.74401
G01 X-0.69224 Y0.74476
G01 X-0.70047 Y0.74476
G01 X-0.70763 Y0.74401
G01 X-0.71568 Y0.74230
G01 X-0.72254 Y0.74007
G01 X-0.73006 Y0.73672
G01 X-0.73629 Y0.73312
G01 X-0.74295 Y0.72828
G01 X-0.74828 Y0.72349
G01 X-0.75379 Y0.71738
G01 X-0.75806 Y0.71151
G01 X-0.76217 Y0.70438
G01 X-0.76508 Y0.69784
G01 X-0.76763 Y0.69001
G01 X-0.76913 Y0.68295
G01 X-0.76999 Y0.67477
G01 X-0.76999 Y0.66757
G01 X-0.76913 Y0.65938
G01 X-0.76844 Y0.65615
G01 X-0.78002 Y0.64457
G01 X-0.78302 Y0.64117
G01 X-0.78725 Y0.63465
G01 X-0.78995 Y0.62812
G01 X-0.79152 Y0.62077
G01 X-0.79183 Y0.61604
G01 X-0.79183 Y0.44084
G01 X-0.79152 Y0.43612
G01 X-0.79028 Y0.42988
G01 X-0.78995 Y0.42877
G01 X-0.78725 Y0.42224
G01 X-0.78670 Y0.42122
G01 X-0.78314 Y0.41586
G01 X-0.78001 Y0.41231
G01 X-0.68750 Y0.31980
G01 X-0.68750 Y0.24163
G01 X-0.68719 Y0.23691
G01 X-0.68595 Y0.23067
G01 X-0.68562 Y0.22956
G01 X-0.68292 Y0.22303
G01 X-0.67881 Y0.21665
G01 X-0.67808 Y0.21575
G01 X-0.67568 Y0.21310
G01 X-0.63373 Y0.17114
G01 X-0.63408 Y0.17001
G01 X-0.63474 Y0.16328
G01 X-0.63474 Y0.06446
G01 X-0.63408 Y0.05774
G01 X-0.63212 Y0.05128
G01 X-0.62893 Y0.04533
G01 X-0.62465 Y0.04011
G01 X-0.61943 Y0.03582
G01 X-0.61347 Y0.03264
G01 X-0.60701 Y0.03068
G01 X-0.60029 Y0.03002
G01 X-0.56092 Y0.03002
G01 X-0.55420 Y0.03068
G01 X-0.54774 Y0.03264
G01 X-0.54178 Y0.03582
G01 X-0.53656 Y0.04011
G01 X-0.53228 Y0.04533
G01 X-0.52909 Y0.05128
G01 X-0.52713 Y0.05774
G01 X-0.52647 Y0.06446
G01 X-0.52647 Y0.16328
G01 X-0.52713 Y0.17001
G01 X-0.52884 Y0.17564
G01 X-0.53252 Y0.18272
G01 X-0.53656 Y0.18764
G01 X-0.54178 Y0.19193
G01 X-0.54475 Y0.19351
G01 X-0.54538 Y0.19472
G01 X-0.54895 Y0.20008
G01 X-0.55207 Y0.20363
G01 X-0.60678 Y0.25835
G01 X-0.60678 Y0.33651
G01 X-0.60709 Y0.34124
G01 X-0.60866 Y0.34859
G01 X-0.61136 Y0.35512
G01 X-0.61191 Y0.35614
G01 X-0.61621 Y0.36240
G01 X-0.61860 Y0.36505
G01 X-0.66243 Y0.40888
G01 X-0.66310 Y0.40899
G01 X-0.66243 Y0.40888
G01 X-0.65642 Y0.41235
G01 X-0.64976 Y0.41719
G01 X-0.64683 Y0.41983
G01 X-0.64606 Y0.41931
G01 X-0.63841 Y0.41544
G01 X-0.63575 Y0.41449
G01 X-0.62746 Y0.41264
G01 X-0.62222 Y0.41231
G01 X-0.60209 Y0.41235
G01 X-0.59541 Y0.41302
G01 X-0.59356 Y0.41339
G01 X-0.58714 Y0.41533
G01 X-0.58540 Y0.41605
G01 X-0.57934 Y0.41931
G01 X-0.57884 Y0.42012
G01 X-0.57924 Y0.41937
G01 X-0.57924 Y0.33218
G01 X-0.57893 Y0.32746
G01 X-0.57769 Y0.32122
G01 X-0.57736 Y0.32011
G01 X-0.57466 Y0.31358
G01 X-0.57055 Y0.30720
G01 X-0.56982 Y0.30630
G01 X-0.56742 Y0.30365
G01 X-0.53474 Y0.27097
G01 X-0.53474 Y0.19478
G01 X-0.53408 Y0.18806
G01 X-0.53237 Y0.18242
G01 X-0.52869 Y0.17535
G01 X-0.52465 Y0.17043
G01 X-0.51943 Y0.16614
G01 X-0.51347 Y0.16296
G01 X-0.50701 Y0.16100
G01 X-0.50029 Y0.16034
G01 X-0.46092 Y0.16034
G01 X-0.45420 Y0.16100
G01 X-0.44774 Y0.16296
G01 X-0.44178 Y0.16614
G01 X-0.43656 Y0.17043
G01 X-0.43252 Y0.17535
G01 X-0.42869 Y0.18272
G01 X-0.42465 Y0.18764
G01 X-0.42097 Y0.19066
G01 X-0.42097 Y0.25856
G01 X-0.42078 Y0.26214
G01 X-0.41942 Y0.26953
G01 X-0.41909 Y0.27064
G01 X-0.41639 Y0.27717
G01 X-0.41568 Y0.27845
G01 X-0.41493 Y0.27885
G01 X-0.41568 Y0.27845
G01 X-0.42647 Y0.27845
G01 X-0.42687 Y0.27885
G01 X-0.42647 Y0.27845
G01 X-0.42647 Y0.19478
G01 X-0.42713 Y0.18806
G01 X-0.42884 Y0.18243
G01 X-0.43237 Y0.17565
G01 X-0.43408 Y0.17001
G01 X-0.43474 Y0.16328
G01 X-0.43474 Y0.06446
G01 X-0.43408 Y0.05774
G01 X-0.43212 Y0.05128
G01 X-0.42893 Y0.04533
G01 X-0.42465 Y0.04011
G01 X-0.41943 Y0.03582
G01 X-0.41347 Y0.03264
G01 X-0.40701 Y0.03068
G01 X-0.40029 Y0.03002
G01 X-0.36092 Y0.03002
G01 X-0.35420 Y0.03068
G01 X-0.34774 Y0.03264
G01 X-0.34178 Y0.03582
G01 X-0.33656 Y0.04011
G01 X-0.33228 Y0.04533
G01 X-0.32909 Y0.05128
G01 X-0.32713 Y0.05774
G01 X-0.32647 Y0.06446
G01 X-0.32647 Y0.16328
G01 X-0.32713 Y0.17001
G01 X-0.32884 Y0.17564
G01 X-0.33252 Y0.18272
G01 X-0.33656 Y0.18764
G01 X-0.34025 Y0.19067
G01 X-0.34025 Y0.24184
G01 X-0.33474 Y0.24736
G01 X-0.33434 Y0.24832
G01 X-0.33474 Y0.24736
G01 X-0.33474 Y0.19478
G01 X-0.33408 Y0.18806
G01 X-0.33237 Y0.18242
G01 X-0.32869 Y0.17535
G01 X-0.32465 Y0.17043
G01 X-0.31943 Y0.16614
G01 X-0.31347 Y0.16296
G01 X-0.30701 Y0.16100
G01 X-0.30029 Y0.16034
G01 X-0.26092 Y0.16034
G01 X-0.25420 Y0.16100
G01 X-0.24774 Y0.16296
G01 X-0.24178 Y0.16614
G01 X-0.23656 Y0.17043
G01 X-0.23228 Y0.17565
G01 X-0.22909 Y0.18160
G01 X-0.22713 Y0.18806
G01 X-0.22647 Y0.19478
G01 X-0.22647 Y0.29360
G01 X-0.22713 Y0.30033
G01 X-0.22748 Y0.30147
G01 X-0.16389 Y0.36506
G01 X-0.11281 Y0.36506
G01 X-0.10809 Y0.36536
G01 X-0.10073 Y0.36693
G01 X-0.09420 Y0.36963
G01 X-0.08783 Y0.37375
G01 X-0.08427 Y0.37688
G01 X-0.04183 Y0.41932
G01 X-0.03871 Y0.42287
G01 X-0.03514 Y0.42823
G01 X-0.03459 Y0.42925
G01 X-0.03189 Y0.43578
G01 X-0.03032 Y0.44313
G01 X-0.03001 Y0.44785
G01 X-0.03001 Y0.72314
G01 X-0.03032 Y0.72786
G01 X-0.03156 Y0.73410
G01 X-0.03189 Y0.73521
G01 X-0.03459 Y0.74174
G01 X-0.03514 Y0.74276
G01 X-0.04059 Y0.75025
G01 X-0.04447 Y0.75430
G01 X-0.04854 Y0.75795
G01 X-0.05491 Y0.76207
G01 X-0.06144 Y0.76477
G01 X-0.06880 Y0.76634
G01 X-0.07352 Y0.76664
G01 X-0.31151 Y0.76664
G01 X-0.31624 Y0.76634
G01 X-0.32248 Y0.76510
G01 X-0.32332 Y0.76484
G01 X-0.32372 Y0.76428
G01 X-0.32332 Y0.76484
G01 X-0.32332 Y0.83257
G01 X-0.32398 Y0.83930
G01 X-0.32594 Y0.84576
G01 X-0.32913 Y0.85171
G01 X-0.33341 Y0.85693
G01 X-0.33863 Y0.86122
G01 X-0.34459 Y0.86440
G01 X-0.35105 Y0.86636
G01 X-0.35777 Y0.86702
G01 X-0.48376 Y0.86702
G01 X-0.49048 Y0.86636
G01 X-0.49694 Y0.86440
G01 X-0.50290 Y0.86122
G01 X-0.50812 Y0.85693
G01 X-0.51240 Y0.85171
G01 X-0.51559 Y0.84576
G01 X-0.51755 Y0.83930
G01 X-0.51821 Y0.83257
G01 X-0.51821 Y0.75383
G01 X-0.51755 Y0.74712
G01 X-0.51559 Y0.74065
G01 X-0.51240 Y0.73470
G01 X-0.50812 Y0.72948
G01 X-0.50290 Y0.72519
G01 X-0.49694 Y0.72201
G01 X-0.49048 Y0.72005
G01 X-0.48376 Y0.71939
G01 X-0.38463 Y0.71945
G04 P0 ( dwell for no time -- G64 should not smooth over this point )
G00 Z0.05906 ( retract )

G00 X-0.54641 Y0.60545 ( rapid move to begin. )
G01 F19.68504
( Mill infeed pass 1/1 )
G01 Z-0.00354
G04 P0 ( dwell for no time -- G64 should not smooth over this point )
G01 F39.37008
G01 X-0.54641 Y0.60545
G01 X-0.54726 Y0.60574
G01 X-0.54912 Y0.60546
G01 X-0.55878 Y0.60254
G01 X-0.56107 Y0.60146
G01 X-0.56552 Y0.59894
G01 X-0.56954 Y0.59580
G01 X-0.57141 Y0.59410
G01 X-0.57779 Y0.58631
G01 X-0.57909 Y0.58414
G01 X-0.58250 Y0.57647
G01 X-0.58299 Y0.57486
G01 X-0.58432 Y0.56809
G01 X-0.58448 Y0.56641
G01 X-0.58464 Y0.56314
G01 X-0.58464 Y0.54296
G01 X-0.58448 Y0.53970
G01 X-0.58432 Y0.53802
G01 X-0.58302 Y0.53141
G01 X-0.58230 Y0.53051
G01 X-0.58281 Y0.53115
G01 X-0.59099 Y0.53453
G01 X-0.59372 Y0.53522
G01 X-0.60208 Y0.53627
G01 X-0.62221 Y0.53632
G01 X-0.62742 Y0.53594
G01 X-0.63021 Y0.53552
G01 X-0.63825 Y0.53329
G01 X-0.63999 Y0.53257
G01 X-0.64677 Y0.52874
G01 X-0.64976 Y0.53143
G01 X-0.65642 Y0.53627
G01 X-0.66265 Y0.53987
G01 X-0.67017 Y0.54322
G01 X-0.67703 Y0.54545
G01 X-0.68508 Y0.54716
G01 X-0.69224 Y0.54791
G01 X-0.70047 Y0.54791
G01 X-0.70763 Y0.54716
G01 X-0.71111 Y0.54642
G01 X-0.71151 Y0.54593
G01 X-0.71111 Y0.54642
G01 X-0.71111 Y0.59905
G01 X-0.70763 Y0.59831
G01 X-0.70047 Y0.59756
G01 X-0.69224 Y0.59756
G01 X-0.68508 Y0.59831
G01 X-0.67703 Y0.60002
G01 X-0.67017 Y0.60225
G01 X-0.66265 Y0.60560
G01 X-0.65642 Y0.60920
G01 X-0.64976 Y0.61404
G01 X-0.64439 Y0.61888
G01 X-0.63889 Y0.62500
G01 X-0.63467 Y0.63081
G01 X-0.57233 Y0.63081
G01 X-0.54726 Y0.60574
G04 P0 ( dwell for no time -- G64 should not smooth over this point )
G00 Z0.05906 ( retract )

G00 X-0.39566 Y0.42608 ( rapid move to begin. )
G01 F19.68504
( Mill infeed pass 1/1 )
G01 Z-0.00354
G04 P0 ( dwell for no time -- G64 should not smooth over this point )
G01 F39.37008
G01 X-0.39566 Y0.42608
G01 X-0.40152 Y0.43064
G01 X-0.40272 Y0.43183
G01 X-0.40801 Y0.43859
G01 X-0.40931 Y0.44076
G01 X-0.41273 Y0.44849
G01 X-0.41322 Y0.45011
G01 X-0.41454 Y0.45682
G01 X-0.41486 Y0.46176
G01 X-0.41486 Y0.47898
G01 X-0.41449 Y0.48403
G01 X-0.41412 Y0.48653
G01 X-0.41120 Y0.49618
G01 X-0.41037 Y0.49793
G01 X-0.40974 Y0.49833
G01 X-0.41037 Y0.49793
G01 X-0.45029 Y0.49793
G01 X-0.45502 Y0.49823
G01 X-0.46126 Y0.49947
G01 X-0.46270 Y0.49994
G01 X-0.47949 Y0.49991
G01 X-0.48603 Y0.50049
G01 X-0.48670 Y0.50113
G01 X-0.48620 Y0.50065
G01 X-0.48560 Y0.49763
G01 X-0.48523 Y0.49227
G01 X-0.48523 Y0.45634
G01 X-0.48560 Y0.45099
G01 X-0.48744 Y0.44285
G01 X-0.48839 Y0.44020
G01 X-0.49312 Y0.43135
G01 X-0.49479 Y0.42909
G01 X-0.49852 Y0.42517
G01 X-0.49852 Y0.42258
G01 X-0.49892 Y0.42189
G01 X-0.49849 Y0.42264
G01 X-0.49694 Y0.42346
G01 X-0.49048 Y0.42542
G01 X-0.48376 Y0.42608
G01 X-0.39566 Y0.42608
G01 X-0.39441 Y0.42568
G04 P0 ( dwell for no time -- G64 should not smooth over this point )
G00 Z0.05906 ( retract )

G00 X-0.34039 Y0.42077 ( rapid move to begin. )
G01 F19.68504
( Mill infeed pass 1/1 )
G01 Z-0.00354
G04 P0 ( dwell for no time -- G64 should not smooth over this point )
G01 F39.37008
G01 X-0.34039 Y0.42077
G01 X-0.33926 Y0.42061
G01 X-0.33863 Y0.42028
G01 X-0.33341 Y0.41599
G01 X-0.33277 Y0.41455
G01 X-0.33317 Y0.41551
G01 X-0.33317 Y0.42298
G01 X-0.33830 Y0.42085
G01 X-0.33926 Y0.42061
G04 P0 ( dwell for no time -- G64 should not smooth over this point )
G00 Z0.05906 ( retract )

G00 X-0.25285 Y0.38969 ( rapid move to begin. )
G01 F19.68504
( Mill infeed pass 1/1 )
G01 Z-0.00354
G04 P0 ( dwell for no time -- G64 should not smooth over this point )
G01 F39.37008
G01 X-0.25285 Y0.38969
G01 X-0.25245 Y0.39065
G01 X-0.23070 Y0.41241
G01 X-0.22978 Y0.41276
G01 X-0.23070 Y0.41241
G01 X-0.23376 Y0.41264
G01 X-0.24053 Y0.41399
G01 X-0.24233 Y0.41454
G01 X-0.24997 Y0.41793
G01 X-0.25245 Y0.41943
G01 X-0.25289 Y0.42031
G01 X-0.25245 Y0.41943
G01 X-0.25245 Y0.39065

G00 Z0.39370 (Retract to tool change height)
T1
M5      (Spindle stop.)
G04 P1.00000 (Wait for spindle to stop)
(MSG, Change tool bit to mill diameter 0.03346in)
M6      (Tool change.)
M0      (Temporary machine stop.)
M3 ( Spindle on clockwise. )
G04 P1.00000 (Wait for spindle to get up to speed)
G04 P0 ( dwell for no time -- G64 should not smooth over this point )
G00 Z0.05906 ( retract )

G00 X-0.25592 Y0.63135 ( rapid move to begin. )
G01 F19.68504
( Mill infeed pass 1/1 )
G01 Z-0.00354
G04 P0 ( dwell for no time -- G64 should not smooth over this point )
G01 F39.37008
G01 X-0.25592 Y0.63135
G01 X-0.25590 Y0.63719
G01 X-0.25591 Y0.63631
G01 X-0.25333 Y0.63264
G01 X-0.25167 Y0.63082
G01 X-0.25333 Y0.63264
G01 X-0.25591 Y0.63635
G01 X-0.25658 Y0.63517
G01 X-0.25826 Y0.63291
G01 X-0.26090 Y0.63027
G01 X-0.27885 Y0.61544
G01 X-0.28228 Y0.61510
G01 X-0.30335 Y0.61510
G01 X-0.31034 Y0.61597
G01 X-0.31307 Y0.61666
G01 X-0.31465 Y0.61728
G01 X-0.32302 Y0.62876
G01 X-0.32173 Y0.62563
G01 X-0.32111 Y0.62318
G01 X-0.32041 Y0.61768
G01 X-0.32038 Y0.60131
G01 X-0.18036 Y0.60128
G01 X-0.17694 Y0.60720
G01 X-0.17416 Y0.61102
G01 X-0.17350 Y0.61132
G01 X-0.17403 Y0.61115
G01 X-0.17744 Y0.61297
G01 X-0.18087 Y0.61579
G01 X-0.18157 Y0.61664
G01 X-0.18504 Y0.62175
G01 X-0.18578 Y0.62313
G01 X-0.18706 Y0.62738
G01 X-0.18731 Y0.62991
G01 X-0.19067 Y0.62700
G01 X-0.19223 Y0.62595
G01 X-0.19465 Y0.62473
G01 X-0.20068 Y0.62230
G01 X-0.20536 Y0.62125
G01 X-0.20940 Y0.62097
G01 X-0.22859 Y0.62097
G01 X-0.23263 Y0.62125
G01 X-0.23725 Y0.62228
G01 X-0.23210 Y0.61527
G01 X-0.22859 Y0.61506
G01 X-0.20940 Y0.61506
G01 X-0.20604 Y0.61526
G01 X-0.20940 Y0.61506
G01 X-0.22859 Y0.61506
G01 X-0.23210 Y0.61527
G01 X-0.23725 Y0.62228
G01 X-0.23263 Y0.62125
G01 X-0.22859 Y0.62097
G01 X-0.20940 Y0.62097
G01 X-0.20536 Y0.62125
G01 X-0.20068 Y0.62230
G01 X-0.19465 Y0.62473
G01 X-0.19223 Y0.62595
G01 X-0.19067 Y0.62700
G01 X-0.18731 Y0.62991
G01 X-0.18706 Y0.62738
G01 X-0.18578 Y0.62313
G01 X-0.18504 Y0.62175
G01 X-0.18157 Y0.61664
G01 X-0.18087 Y0.61579
G01 X-0.17744 Y0.61297
G01 X-0.17407 Y0.61113
G01 X-0.17331 Y0.61138
G01 X-0.18134 Y0.60960
G01 X-0.20410 Y0.60719
G01 X-0.31449 Y0.60719
G01 X-0.31621 Y0.60546
G01 X-0.31449 Y0.60719
G01 X-0.31451 Y0.61708
G01 X-0.32397 Y0.63001
G01 X-0.32250 Y0.62805
G01 X-0.31844 Y0.62527
G01 X-0.31678 Y0.62438
G01 X-0.31163 Y0.62239
G01 X-0.30890 Y0.62170
G01 X-0.30335 Y0.62101
G01 X-0.28228 Y0.62101
G01 X-0.27784 Y0.62145
G01 X-0.27440 Y0.62230
G04 P0 ( dwell for no time -- G64 should not smooth over this point )
G00 Z0.05906 ( retract )

G00 X-0.27500 Y0.52321 ( rapid move to begin. )
G01 F19.68504
( Mill infeed pass 1/1 )
G01 Z-0.00354
G04 P0 ( dwell for no time -- G64 should not smooth over this point )
G01 F39.37008
G01 X-0.27500 Y0.52321
G01 X-0.27706 Y0.52384
G01 X-0.27985 Y0.52426
G01 X-0.28328 Y0.52451
G01 X-0.30341 Y0.52446
G01 X-0.30890 Y0.52377
G01 X-0.31163 Y0.52308
G01 X-0.31766 Y0.52059
G01 X-0.32092 Y0.51849
G01 X-0.32063 Y0.51995
G01 X-0.32037 Y0.52383
G01 X-0.32041 Y0.53921
G01 X-0.31543 Y0.54419
G01 X-0.19736 Y0.54419
G01 X-0.17118 Y0.53113
G01 X-0.16865 Y0.52833
G01 X-0.16513 Y0.52516
G01 X-0.16288 Y0.52352
G01 X-0.16515 Y0.52187
G01 X-0.16864 Y0.51873
G01 X-0.17415 Y0.51262
G01 X-0.17694 Y0.50878
G01 X-0.17961 Y0.50417
G01 X-0.18111 Y0.50758
G01 X-0.18256 Y0.51000
G01 X-0.18588 Y0.51426
G01 X-0.20590 Y0.53021
G01 X-0.20940 Y0.53042
G01 X-0.22859 Y0.53042
G01 X-0.23210 Y0.53021
G01 X-0.25591 Y0.51396
G01 X-0.25591 Y0.51410
G01 X-0.25591 Y0.50843
G01 X-0.25591 Y0.50921
G01 X-0.25543 Y0.51000
G01 X-0.25165 Y0.51474
G01 X-0.25543 Y0.51000
G01 X-0.25591 Y0.50921
G01 X-0.25638 Y0.51000
G01 X-0.26046 Y0.51497
G01 X-0.27944 Y0.53013
G01 X-0.28329 Y0.53042
G01 X-0.30342 Y0.53037
G01 X-0.31034 Y0.52950
G01 X-0.31307 Y0.52881
G01 X-0.31453 Y0.52820
G01 X-0.31757 Y0.52383
G01 X-0.32158 Y0.51747
G01 X-0.31757 Y0.52383
G01 X-0.31448 Y0.52828
G01 X-0.31450 Y0.53677
G01 X-0.31495 Y0.53696
G01 X-0.31450 Y0.53677
G01 X-0.31299 Y0.53828
G01 X-0.31318 Y0.53873
G01 X-0.31299 Y0.53828
G01 X-0.20412 Y0.53828
G01 X-0.18454 Y0.54419
G01 X-0.18036 Y0.54419
G01 X-0.17834 Y0.54069
G01 X-0.17069 Y0.52352
G01 X-0.16220 Y0.52352
G01 X-0.20072 Y0.52318
G01 X-0.20524 Y0.52421
G01 X-0.20940 Y0.52451
G01 X-0.22859 Y0.52451
G01 X-0.23275 Y0.52421
G01 X-0.23724 Y0.52319
G04 P0 ( dwell for no time -- G64 should not smooth over this point )
G00 Z0.05906 ( retract )

G00 X-0.17939 Y0.51357 ( rapid move to begin. )
G01 F19.68504
( Mill infeed pass 1/1 )
G01 Z-0.00354
G04 P0 ( dwell for no time -- G64 should not smooth over this point )
G01 F39.37008
G01 X-0.17939 Y0.51357
G01 X-0.17941 Y0.51235
G04 P0 ( dwell for no time -- G64 should not smooth over this point )
G00 Z0.05906 ( retract )

G00 X-0.24909 Y0.43179 ( rapid move to begin. )
G01 F19.68504
( Mill infeed pass 1/1 )
G01 Z-0.00354
G04 P0 ( dwell for no time -- G64 should not smooth over this point )
G01 F39.37008
G01 X-0.24909 Y0.43179
G01 X-0.25144 Y0.43371
G01 X-0.25333 Y0.43579
G01 X-0.25591 Y0.43946
G01 X-0.25702 Y0.43762
G01 X-0.25979 Y0.43426
G01 X-0.26112 Y0.43293
G01 X-0.26426 Y0.43034
G01 X-0.26426 Y0.36214
G01 X-0.20119 Y0.42521
G01 X-0.20068 Y0.42549
G01 X-0.20588 Y0.42278
G01 X-0.21653 Y0.41821
G01 X-0.25836 Y0.37639
G01 X-0.26466 Y0.36117
G01 X-0.25836 Y0.37639
G01 X-0.25836 Y0.37894
G01 X-0.25586 Y0.43197
G01 X-0.25590 Y0.44016
G01 X-0.25586 Y0.43201
G01 X-0.21900 Y0.41821
G01 X-0.21653 Y0.41821
G01 X-0.20588 Y0.42278
G01 X-0.19969 Y0.42607
G01 X-0.20109 Y0.42527
G01 X-0.20611 Y0.42436
G01 X-0.20940 Y0.42412
G01 X-0.22563 Y0.42412
G04 P0 ( dwell for no time -- G64 should not smooth over this point )
G00 Z0.05906 ( retract )

G00 X-0.18717 Y0.43311 ( rapid move to begin. )
G01 F19.68504
( Mill infeed pass 1/1 )
G01 Z-0.00354
G04 P0 ( dwell for no time -- G64 should not smooth over this point )
G01 F39.37008
G01 X-0.18717 Y0.43311
G01 X-0.18296 Y0.43384
G01 X-0.17231 Y0.43396
G01 X-0.17933 Y0.43732
G01 X-0.17936 Y0.43803
G01 X-0.17933 Y0.43732
G01 X-0.18849 Y0.43239
G01 X-0.18726 Y0.43306
G01 X-0.18511 Y0.43520
G01 X-0.18392 Y0.43665
G01 X-0.18147 Y0.44032
G01 X-0.18058 Y0.44198
G01 X-0.17958 Y0.44440
G01 X-0.17693 Y0.43984
G01 X-0.17416 Y0.43603
G01 X-0.17231 Y0.43396
G01 X-0.17141 Y0.43356
G04 P0 ( dwell for no time -- G64 should not smooth over this point )
G00 Z0.05906 ( retract )

G00 X-0.16653 Y0.37687 ( rapid move to begin. )
G01 F19.68504
( Mill infeed pass 1/1 )
G01 Z-0.00354
G04 P0 ( dwell for no time -- G64 should not smooth over this point )
G01 F39.37008
G01 X-0.16653 Y0.37687
G01 X-0.16878 Y0.37687
G01 X-0.24118 Y0.30447
G01 X-0.24001 Y0.30227
G01 X-0.23957 Y0.30082
G04 P0 ( dwell for no time -- G64 should not smooth over this point )
G00 Z0.05906 ( retract )

G00 X-0.38833 Y0.29066 ( rapid move to begin. )
G01 F19.68504
( Mill infeed pass 1/1 )
G01 Z-0.00354
G04 P0 ( dwell for no time -- G64 should not smooth over this point )
G01 F39.37008
G01 X-0.38833 Y0.29066
G01 X-0.38929 Y0.29026
G01 X-0.43828 Y0.29026
G01 X-0.43868 Y0.29066
G01 X-0.43828 Y0.29026
G01 X-0.43828 Y0.28281
G01 X-0.43828 Y0.29026
G01 X-0.43545 Y0.28742
G01 X-0.40354 Y0.28435
G01 X-0.40397 Y0.28393
G01 X-0.40354 Y0.28435
G01 X-0.38929 Y0.29026
G01 X-0.40080 Y0.27875
G01 X-0.40319 Y0.27597
G04 P0 ( dwell for no time -- G64 should not smooth over this point )
G00 Z0.05906 ( retract )

G00 X-0.35206 Y0.24449 ( rapid move to begin. )
G01 F19.68504
( Mill infeed pass 1/1 )
G01 Z-0.00354
G04 P0 ( dwell for no time -- G64 should not smooth over this point )
G01 F39.37008
G01 X-0.35206 Y0.24449
G01 X-0.35206 Y0.24674
G01 X-0.35048 Y0.24832
G01 X-0.34048 Y0.25411
G01 X-0.33959 Y0.25921
G01 X-0.32293 Y0.27587
G01 X-0.32253 Y0.27683
G01 X-0.32293 Y0.27587
G01 X-0.32293 Y0.25229
G01 X-0.32293 Y0.27587
G01 X-0.32883 Y0.26162
G01 X-0.32883 Y0.25907
G01 X-0.32883 Y0.26162
G01 X-0.33063 Y0.25982
G01 X-0.34048 Y0.25411
G01 X-0.35206 Y0.18801
G01 X-0.35206 Y0.18410
G01 X-0.34911 Y0.18252
G04 P0 ( dwell for no time -- G64 should not smooth over this point )
G00 Z0.05906 ( retract )

G00 X-0.40916 Y0.18799 ( rapid move to begin. )
G01 F19.68504
( Mill infeed pass 1/1 )
G01 Z-0.00354
G04 P0 ( dwell for no time -- G64 should not smooth over this point )
G01 F39.37008
G01 X-0.40916 Y0.18799
G01 X-0.40916 Y0.18409
G01 X-0.41188 Y0.18264
G04 P0 ( dwell for no time -- G64 should not smooth over this point )
G00 Z0.05906 ( retract )

G00 X-0.52452 Y0.27745 ( rapid move to begin. )
G01 F19.68504
( Mill infeed pass 1/1 )
G01 Z-0.00354
G04 P0 ( dwell for no time -- G64 should not smooth over this point )
G01 F39.37008
G01 X-0.52452 Y0.27745
G01 X-0.52293 Y0.27586
G01 X-0.52293 Y0.27361
G01 X-0.67400 Y0.40375
G01 X-0.68401 Y0.41376
G01 X-0.67897 Y0.41227
G01 X-0.67500 Y0.41132
G01 X-0.65276 Y0.43038
G01 X-0.64740 Y0.43641
G01 X-0.64572 Y0.43426
G01 X-0.64439 Y0.43293
G01 X-0.64197 Y0.43094
G01 X-0.64439 Y0.43293
G01 X-0.64572 Y0.43426
G01 X-0.64740 Y0.43641
G01 X-0.65276 Y0.43038
G01 X-0.67500 Y0.41132
G01 X-0.67897 Y0.41227
G01 X-0.68482 Y0.41400
G01 X-0.68401 Y0.41376
G01 X-0.67949 Y0.41472
G01 X-0.67498 Y0.41619
G01 X-0.67140 Y0.41778
G01 X-0.67498 Y0.41619
G01 X-0.67949 Y0.41472
G01 X-0.68401 Y0.41376
G01 X-0.67400 Y0.40375
G01 X-0.58130 Y0.42148
G01 X-0.58254 Y0.43167
G01 X-0.55453 Y0.18642
G01 X-0.52293 Y0.27361
G01 X-0.61859 Y0.25571
G01 X-0.61859 Y0.25346
G01 X-0.61700 Y0.25187
G01 X-0.61859 Y0.25346
G01 X-0.61859 Y0.25571
G01 X-0.56743 Y0.42413
G01 X-0.56743 Y0.43034
G01 X-0.57057 Y0.43293
G01 X-0.57190 Y0.43426
G01 X-0.57473 Y0.43771
G01 X-0.57582 Y0.43937
G01 X-0.57579 Y0.43183
G01 X-0.57582 Y0.44022
G01 X-0.57582 Y0.43936
G01 X-0.57628 Y0.43859
G01 X-0.57967 Y0.43426
G01 X-0.58254 Y0.43167
G01 X-0.58130 Y0.42148
G01 X-0.56743 Y0.42413
G01 X-0.58130 Y0.42148
G01 X-0.55262 Y0.18431
G01 X-0.55381 Y0.18467
G01 X-0.55453 Y0.18642
G04 P0 ( dwell for no time -- G64 should not smooth over this point )
G00 Z0.05906 ( retract )

G00 X-0.62165 Y0.17050 ( rapid move to begin. )
G01 F19.68504
( Mill infeed pass 1/1 )
G01 Z-0.00354
G04 P0 ( dwell for no time -- G64 should not smooth over this point )
G01 F39.37008
G01 X-0.62165 Y0.17050
G01 X-0.62121 Y0.17195
G01 X-0.62003 Y0.17414
G01 X-0.62349 Y0.17760
G04 P0 ( dwell for no time -- G64 should not smooth over this point )
G00 Z0.05906 ( retract )

G00 X-0.67569 Y0.32244 ( rapid move to begin. )
G01 F19.68504
( Mill infeed pass 1/1 )
G01 Z-0.00354
G04 P0 ( dwell for no time -- G64 should not smooth over this point )
G01 F39.37008
G01 X-0.67569 Y0.32244
G01 X-0.67569 Y0.32469
G01 X-0.67728 Y0.32628
G04 P0 ( dwell for no time -- G64 should not smooth over this point )
G00 Z0.05906 ( retract )

G00 X-0.49678 Y0.41009 ( rapid move to begin. )
G01 F19.68504
( Mill infeed pass 1/1 )
G01 Z-0.00354
G04 P0 ( dwell for no time -- G64 should not smooth over this point )
G01 F39.37008
G01 X-0.49678 Y0.41009
G01 X-0.49977 Y0.40764
G01 X-0.50258 Y0.40421
G01 X-0.50468 Y0.40030
G01 X-0.50596 Y0.39605
G01 X-0.50640 Y0.39163
G01 X-0.50640 Y0.34008
G01 X-0.50837 Y0.34483
G01 X-0.50837 Y0.39163
G01 X-0.50769 Y0.39982
G01 X-0.50564 Y0.40801
G01 X-0.50432 Y0.41120
G01 X-0.50564 Y0.40801
G01 X-0.50771 Y0.39983
G01 X-0.50837 Y0.39163
G01 X-0.50837 Y0.34483
G01 X-0.50848 Y0.34480
G01 X-0.50837 Y0.34483
G01 X-0.50600 Y0.33911
G01 X-0.50640 Y0.34008
G01 X-0.51033 Y0.34401
G01 X-0.51033 Y0.43037
G01 X-0.50888 Y0.43146
G01 X-0.38194 Y0.42606
G01 X-0.38540 Y0.43380
G01 X-0.38194 Y0.42606
G01 X-0.38174 Y0.42600
G01 X-0.37619 Y0.42490
G01 X-0.37180 Y0.42461
G01 X-0.35160 Y0.42461
G01 X-0.33252 Y0.43707
G01 X-0.32983 Y0.43952
G01 X-0.32922 Y0.43844
G01 X-0.32715 Y0.43579
G01 X-0.32526 Y0.43371
G01 X-0.32136 Y0.43052
G01 X-0.32136 Y0.35818
G01 X-0.33513 Y0.34441
G01 X-0.33513 Y0.39163
G01 X-0.33557 Y0.39605
G01 X-0.33686 Y0.40030
G01 X-0.33895 Y0.40421
G01 X-0.34356 Y0.40940
G01 X-0.34929 Y0.41260
G01 X-0.35335 Y0.41384
G01 X-0.35777 Y0.41427
G01 X-0.39033 Y0.41427
G01 X-0.35777 Y0.41427
G01 X-0.35335 Y0.41384
G01 X-0.34929 Y0.41260
G01 X-0.34356 Y0.40940
G01 X-0.35269 Y0.41968
G01 X-0.35777 Y0.42018
G01 X-0.38361 Y0.42018
G01 X-0.35777 Y0.42018
G01 X-0.35269 Y0.41968
G01 X-0.34356 Y0.40940
G01 X-0.33144 Y0.40262
G01 X-0.32978 Y0.39720
G01 X-0.32923 Y0.39163
G01 X-0.32923 Y0.35866
G01 X-0.33553 Y0.34344
G01 X-0.32923 Y0.35866
G01 X-0.32726 Y0.36063
G01 X-0.32681 Y0.36044
G01 X-0.32726 Y0.36063
G01 X-0.32726 Y0.40380
G04 P0 ( dwell for no time -- G64 should not smooth over this point )
G00 Z0.05906 ( retract )

G00 X-0.34631 Y0.43107 ( rapid move to begin. )
G01 F19.68504
( Mill infeed pass 1/1 )
G01 Z-0.00354
G04 P0 ( dwell for no time -- G64 should not smooth over this point )
G01 F39.37008
G01 X-0.34631 Y0.43107
G01 X-0.34779 Y0.43078
G01 X-0.35162 Y0.43052
G01 X-0.37395 Y0.43062
G01 X-0.37563 Y0.43078
G01 X-0.38003 Y0.43165
G01 X-0.38165 Y0.43214
G01 X-0.38540 Y0.43380
G01 X-0.50888 Y0.43146
G01 X-0.39804 Y0.50136
G01 X-0.39334 Y0.50140
G01 X-0.39537 Y0.49946
G01 X-0.39644 Y0.49816
G01 X-0.39784 Y0.49594
G01 X-0.39644 Y0.49816
G01 X-0.39537 Y0.49946
G01 X-0.39334 Y0.50140
G01 X-0.39276 Y0.50139
G01 X-0.39356 Y0.50140
G01 X-0.39440 Y0.50223
G01 X-0.39736 Y0.50584
G01 X-0.39961 Y0.50974
G01 X-0.49526 Y0.50939
G01 X-0.50192 Y0.51589
G01 X-0.50238 Y0.51570
G01 X-0.50192 Y0.51589
G01 X-0.50196 Y0.52128
G01 X-0.49954 Y0.51901
G01 X-0.49402 Y0.51533
G01 X-0.49173 Y0.51425
G01 X-0.48760 Y0.51300
G01 X-0.49173 Y0.51425
G01 X-0.49402 Y0.51533
G01 X-0.49954 Y0.51901
G01 X-0.50196 Y0.52128
G01 X-0.50197 Y0.52186
G01 X-0.50196 Y0.52122
G01 X-0.50288 Y0.52030
G01 X-0.50633 Y0.51747
G01 X-0.50802 Y0.51638
G01 X-0.50585 Y0.51437
G01 X-0.50244 Y0.51000
G01 X-0.50099 Y0.50758
G01 X-0.49871 Y0.50239
G04 P0 ( dwell for no time -- G64 should not smooth over this point )
G00 Z0.05906 ( retract )

G00 X-0.57029 Y0.53103 ( rapid move to begin. )
G01 F19.68504
( Mill infeed pass 1/1 )
G01 Z-0.00354
G04 P0 ( dwell for no time -- G64 should not smooth over this point )
G01 F39.37008
G01 X-0.57029 Y0.53103
G01 X-0.56896 Y0.52803
G01 X-0.56743 Y0.52553
G01 X-0.56743 Y0.51825
G01 X-0.56956 Y0.51661
G01 X-0.57350 Y0.51248
G01 X-0.57517 Y0.51021
G01 X-0.57578 Y0.50905
G01 X-0.57581 Y0.51886
G01 X-0.57671 Y0.51976
G01 X-0.57581 Y0.51886
G01 X-0.57581 Y0.51854
G01 X-0.57333 Y0.52115
G01 X-0.57333 Y0.52255
G01 X-0.57333 Y0.52115
G01 X-0.57291 Y0.52098
G01 X-0.57333 Y0.52115
G01 X-0.57581 Y0.51854
G01 X-0.57578 Y0.50821
G01 X-0.57581 Y0.50938
G01 X-0.57686 Y0.51095
G01 X-0.57967 Y0.51437
G01 X-0.58100 Y0.51570
G01 X-0.58489 Y0.51872
G01 X-0.71124 Y0.61115
G01 X-0.71322 Y0.61157
G01 X-0.71500 Y0.61215
G01 X-0.72292 Y0.60422
G01 X-0.72292 Y0.53012
G01 X-0.71773 Y0.53243
G01 X-0.71307 Y0.53393
G01 X-0.71773 Y0.53243
G01 X-0.72292 Y0.53012
G01 X-0.72332 Y0.52951
G01 X-0.71923 Y0.53580
G01 X-0.68941 Y0.57648
G01 X-0.71124 Y0.61115
G01 X-0.65272 Y0.51819
G01 X-0.64748 Y0.51232
G01 X-0.64663 Y0.51337
G01 X-0.64202 Y0.51766
G01 X-0.64663 Y0.51337
G01 X-0.64748 Y0.51232
G01 X-0.65272 Y0.51819
G01 X-0.68941 Y0.57648
G01 X-0.64363 Y0.63892
G01 X-0.64149 Y0.64262
G01 X-0.56744 Y0.64262
G01 X-0.51861 Y0.59379
G01 X-0.52436 Y0.59652
G01 X-0.53346 Y0.60030
G01 X-0.53547 Y0.60030
G01 X-0.53346 Y0.60030
G01 X-0.53492 Y0.60175
G01 X-0.53346 Y0.60030
G01 X-0.52436 Y0.59652
G01 X-0.52092 Y0.59496
G01 X-0.51722 Y0.59296
G01 X-0.51861 Y0.59379
G01 X-0.52105 Y0.59415
G01 X-0.52436 Y0.59439
G01 X-0.54147 Y0.59439
G04 P0 ( dwell for no time -- G64 should not smooth over this point )
G00 Z0.05906 ( retract )

G00 X-0.43232 Y0.57166 ( rapid move to begin. )
G01 F19.68504
( Mill infeed pass 1/1 )
G01 Z-0.00354
G04 P0 ( dwell for no time -- G64 should not smooth over this point )
G01 F39.37008
G01 X-0.43232 Y0.57166
G01 X-0.43135 Y0.56683
G01 X-0.38924 Y0.56683
G01 X-0.38445 Y0.56954
G01 X-0.38250 Y0.57029
G01 X-0.38576 Y0.57163
G01 X-0.38724 Y0.57242
G01 X-0.39090 Y0.57486
G01 X-0.39221 Y0.57593
G01 X-0.39542 Y0.57914
G01 X-0.39799 Y0.58270
G01 X-0.38909 Y0.56918
G01 X-0.39732 Y0.57274
G01 X-0.39833 Y0.57374
G01 X-0.39732 Y0.57274
G01 X-0.39885 Y0.57274
G01 X-0.43638 Y0.58039
G01 X-0.43651 Y0.58058
G01 X-0.43653 Y0.58092
G01 X-0.39571 Y0.63679
G01 X-0.39343 Y0.63916
G01 X-0.39592 Y0.63913
G01 X-0.39282 Y0.63917
G01 X-0.39353 Y0.63916
G01 X-0.39447 Y0.64010
G01 X-0.39647 Y0.64266
G04 P0 ( dwell for no time -- G64 should not smooth over this point )
G00 Z0.05906 ( retract )

G00 X-0.37798 Y0.70935 ( rapid move to begin. )
G01 F19.68504
( Mill infeed pass 1/1 )
G01 Z-0.00354
G04 P0 ( dwell for no time -- G64 should not smooth over this point )
G01 F39.37008
G01 X-0.37798 Y0.70935
G01 X-0.37512 Y0.70980
G01 X-0.37180 Y0.71004
G01 X-0.36812 Y0.71004
G01 X-0.33170 Y0.74647
G01 X-0.32905 Y0.74878
G01 X-0.32554 Y0.75112
G01 X-0.32328 Y0.75218
G01 X-0.33020 Y0.75404
G01 X-0.33339 Y0.74816
G01 X-0.33796 Y0.74128
G01 X-0.34356 Y0.73542
G01 X-0.35016 Y0.73056
G01 X-0.35777 Y0.72672
G01 X-0.36122 Y0.72530
G01 X-0.37056 Y0.71595
G01 X-0.37040 Y0.71557
G01 X-0.37056 Y0.71595
G01 X-0.37310 Y0.71585
G01 X-0.37056 Y0.71595
G01 X-0.36122 Y0.72530
G01 X-0.37161 Y0.72530
G01 X-0.36122 Y0.72530
G01 X-0.35777 Y0.72672
G01 X-0.35017 Y0.73058
G01 X-0.34358 Y0.73544
G01 X-0.33798 Y0.74130
G01 X-0.33339 Y0.74816
G01 X-0.33019 Y0.75406
G01 X-0.33513 Y0.76030
G01 X-0.33513 Y0.75383
G01 X-0.33557 Y0.74942
G01 X-0.33686 Y0.74517
G01 X-0.33895 Y0.74126
G01 X-0.34176 Y0.73783
G01 X-0.34519 Y0.73501
G01 X-0.34911 Y0.73292
G01 X-0.35335 Y0.73163
G01 X-0.35777 Y0.73120
G01 X-0.37841 Y0.73120
G01 X-0.64363 Y0.70342
G01 X-0.64149 Y0.69971
G01 X-0.63733 Y0.69971
G04 P0 ( dwell for no time -- G64 should not smooth over this point )
G00 Z0.05906 ( retract )

G00 X-0.75635 Y0.65583 ( rapid move to begin. )
G01 F19.68504
( Mill infeed pass 1/1 )
G01 Z-0.00354
G04 P0 ( dwell for no time -- G64 should not smooth over this point )
G01 F39.37008
G01 X-0.75635 Y0.65583
G01 X-0.75530 Y0.65259
G01 X-0.75820 Y0.64969

G00 Z0.39370 (Retract to tool change height)
T2
M5      (Spindle stop.)
G04 P1.00000 (Wait for spindle to stop)
(MSG, Change tool bit to mill diameter 0.00984in)
M6      (Tool change.)
M0      (Temporary machine stop.)
M3 ( Spindle on clockwise. )
G04 P1.00000 (Wait for spindle to get up to speed)
G04 P0 ( dwell for no time -- G64 should not smooth over this point )
G00 Z0.05906 ( retract )

G00 X-0.17162 Y0.38868 ( rapid move to begin. )
G01 F19.68504
( Mill infeed pass 1/1 )
G01 Z-0.00354
G04 P0 ( dwell for no time -- G64 should not smooth over this point )
G01 F39.37008
G01 X-0.17162 Y0.38868
G01 X-0.17368 Y0.38868
G01 X-0.25829 Y0.30407
G01 X-0.25678 Y0.30361
G01 X-0.25491 Y0.30261
G01 X-0.25327 Y0.30126
G01 X-0.25266 Y0.30052
G04 P0 ( dwell for no time -- G64 should not smooth over this point )
G00 Z0.05906 ( retract )

G00 X-0.39735 Y0.18123 ( rapid move to begin. )
G01 F19.68504
( Mill infeed pass 1/1 )
G01 Z-0.00354
G04 P0 ( dwell for no time -- G64 should not smooth over this point )
G01 F39.37008
G01 X-0.39735 Y0.18123
G01 X-0.39735 Y0.17411
G01 X-0.40029 Y0.17411
G01 X-0.40277 Y0.17379
G01 X-0.55962 Y0.17398
G01 X-0.56387 Y0.17411
G01 X-0.56393 Y0.17622
G01 X-0.56427 Y0.17846
G01 X-0.51112 Y0.27870
G01 X-0.51112 Y0.28075
G01 X-0.51257 Y0.28220
G01 X-0.69606 Y0.41433
G01 X-0.69580 Y0.40885
G01 X-0.71473 Y0.42778
G01 X-0.71293 Y0.42698
G01 X-0.71077 Y0.42627
G01 X-0.70272 Y0.42456
G01 X-0.70047 Y0.42433
G01 X-0.69224 Y0.42433
G01 X-0.69100 Y0.42446
G01 X-0.69224 Y0.42433
G01 X-0.70047 Y0.42433
G01 X-0.70272 Y0.42456
G01 X-0.71077 Y0.42627
G01 X-0.71293 Y0.42698
G01 X-0.71473 Y0.42778
G01 X-0.71097 Y0.42534
G01 X-0.70342 Y0.42125
G01 X-0.69623 Y0.41809
G01 X-0.69606 Y0.41433
G01 X-0.72158 Y0.43260
G01 X-0.72918 Y0.43922
G01 X-0.73484 Y0.44520
G01 X-0.73641 Y0.44708
G01 X-0.73662 Y0.44697
G01 X-0.73641 Y0.44708
G01 X-0.73877 Y0.45619
G01 X-0.74021 Y0.46556
G01 X-0.74063 Y0.47483
G01 X-0.74021 Y0.48306
G01 X-0.73879 Y0.49243
G01 X-0.73628 Y0.50210
G01 X-0.73244 Y0.51235
G01 X-0.73118 Y0.51522
G01 X-0.72927 Y0.51893
G01 X-0.72190 Y0.51746
G01 X-0.72907 Y0.51232
G01 X-0.73074 Y0.51082
G01 X-0.73473 Y0.50639
G01 X-0.73473 Y0.52537
G01 X-0.72134 Y0.62251
G01 X-0.71784 Y0.62601
G01 X-0.71390 Y0.62426
G01 X-0.73329 Y0.61055
G01 X-0.73473 Y0.60911
G01 X-0.73473 Y0.60707
G01 X-0.64716 Y0.49757
G01 X-0.64723 Y0.50019
G01 X-0.63942 Y0.50325
G01 X-0.64007 Y0.50222
G01 X-0.64127 Y0.49967
G01 X-0.64218 Y0.49667
G01 X-0.64260 Y0.49389
G01 X-0.64272 Y0.49105
G01 X-0.64924 Y0.49105
G01 X-0.65009 Y0.49367
G01 X-0.65102 Y0.49574
G01 X-0.65521 Y0.50297
G01 X-0.65058 Y0.65070
G01 X-0.55849 Y0.51002
G01 X-0.55562 Y0.51136
G01 X-0.55562 Y0.52959
G01 X-0.55618 Y0.53018
G01 X-0.55562 Y0.52959
G01 X-0.55562 Y0.51136
G01 X-0.55849 Y0.51002
G01 X-0.57579 Y0.49603
G01 X-0.57579 Y0.49625
G01 X-0.57579 Y0.49596
G01 X-0.57575 Y0.45236
G01 X-0.56837 Y0.44646
G01 X-0.56753 Y0.44912
G01 X-0.56837 Y0.44646
G01 X-0.55866 Y0.43869
G01 X-0.55562 Y0.43725
G01 X-0.55562 Y0.43324
G01 X-0.55562 Y0.43725
G01 X-0.55866 Y0.43869
G01 X-0.57575 Y0.45236
G01 X-0.56837 Y0.44646
G01 X-0.63040 Y0.25062
G01 X-0.63040 Y0.24857
G01 X-0.62895 Y0.24712
G01 X-0.63040 Y0.24857
G01 X-0.63040 Y0.25062
G01 X-0.51112 Y0.27870
G01 X-0.56427 Y0.17846
G01 X-0.56753 Y0.44912
G01 X-0.56836 Y0.45195
G01 X-0.56890 Y0.45634
G01 X-0.56890 Y0.49227
G01 X-0.56865 Y0.49524
G01 X-0.56807 Y0.49780
G01 X-0.56754 Y0.49929
G01 X-0.57579 Y0.49603
G01 X-0.57575 Y0.45232
G01 X-0.58409 Y0.44904
G01 X-0.58332 Y0.45136
G01 X-0.58292 Y0.45338
G01 X-0.58267 Y0.45634
G01 X-0.58267 Y0.49227
G01 X-0.58292 Y0.49524
G01 X-0.58349 Y0.49776
G01 X-0.58414 Y0.49960
G01 X-0.65058 Y0.65070
G01 X-0.64924 Y0.65443
G01 X-0.56255 Y0.65443
G01 X-0.48849 Y0.58037
G01 X-0.49124 Y0.57866
G01 X-0.49254 Y0.57759
G01 X-0.49436 Y0.57568
G01 X-0.49587 Y0.57364
G01 X-0.49716 Y0.57138
G01 X-0.49781 Y0.56983
G01 X-0.49853 Y0.56723
G01 X-0.49902 Y0.56314
G01 X-0.49896 Y0.54188
G01 X-0.49838 Y0.53815
G01 X-0.49789 Y0.53653
G01 X-0.49682 Y0.53410
G01 X-0.49573 Y0.53229
G01 X-0.50200 Y0.53405
G01 X-0.50197 Y0.57778
G01 X-0.50545 Y0.58208
G01 X-0.50838 Y0.58461
G01 X-0.50727 Y0.58602
G01 X-0.50613 Y0.58509
G01 X-0.50192 Y0.58086
G01 X-0.50128 Y0.58114
G01 X-0.50192 Y0.58086
G01 X-0.50136 Y0.58109
G01 X-0.50192 Y0.58086
G01 X-0.50197 Y0.57774
G01 X-0.50192 Y0.58086
G01 X-0.50431 Y0.58334
G01 X-0.50727 Y0.58602
G01 X-0.50628 Y0.58772
G01 X-0.49948 Y0.58093
G01 X-0.49701 Y0.58108
G01 X-0.49948 Y0.58093
G01 X-0.50030 Y0.58007
G01 X-0.50197 Y0.57774
G01 X-0.50200 Y0.53397
G01 X-0.50822 Y0.53219
G01 X-0.50656 Y0.53526
G01 X-0.50571 Y0.53764
G01 X-0.50513 Y0.54026
G01 X-0.50497 Y0.54194
G01 X-0.50492 Y0.56314
G01 X-0.50513 Y0.56585
G01 X-0.50604 Y0.56959
G01 X-0.50711 Y0.57200
G01 X-0.50841 Y0.57417
G01 X-0.51042 Y0.57662
G01 X-0.51229 Y0.57832
G01 X-0.51355 Y0.57931
G01 X-0.51646 Y0.58081
G04 P0 ( dwell for no time -- G64 should not smooth over this point )
G00 Z0.05906 ( retract )

G00 X-0.64703 Y0.45146 ( rapid move to begin. )
G01 F19.68504
( Mill infeed pass 1/1 )
G01 Z-0.00354
G04 P0 ( dwell for no time -- G64 should not smooth over this point )
G01 F39.37008
G01 X-0.64703 Y0.45146
G01 X-0.64715 Y0.44855
G01 X-0.63966 Y0.44580
G01 X-0.64044 Y0.44709
G01 X-0.64153 Y0.44956
G01 X-0.64207 Y0.45136
G01 X-0.64247 Y0.45338
G01 X-0.64272 Y0.45758
G01 X-0.64924 Y0.45758
G01 X-0.65009 Y0.45495
G01 X-0.65102 Y0.45287
G01 X-0.65512 Y0.44578
G04 P0 ( dwell for no time -- G64 should not smooth over this point )
G00 Z0.05906 ( retract )

G00 X-0.66533 Y0.33103 ( rapid move to begin. )
G01 F19.68504
( Mill infeed pass 1/1 )
G01 Z-0.00354
G04 P0 ( dwell for no time -- G64 should not smooth over this point )
G01 F39.37008
G01 X-0.66533 Y0.33103
G01 X-0.66388 Y0.32958
G01 X-0.66388 Y0.32753
G04 P0 ( dwell for no time -- G64 should not smooth over this point )
G00 Z0.05906 ( retract )

G00 X-0.60964 Y0.18046 ( rapid move to begin. )
G01 F19.68504
( Mill infeed pass 1/1 )
G01 Z-0.00354
G04 P0 ( dwell for no time -- G64 should not smooth over this point )
G01 F39.37008
G01 X-0.60964 Y0.18046
G01 X-0.60293 Y0.17374
G01 X-0.60443 Y0.17329
G01 X-0.60631 Y0.17229
G01 X-0.60795 Y0.17094
G01 X-0.60856 Y0.17020
G04 P0 ( dwell for no time -- G64 should not smooth over this point )
G00 Z0.05906 ( retract )

G00 X-0.32078 Y0.44766 ( rapid move to begin. )
G01 F19.68504
( Mill infeed pass 1/1 )
G01 Z-0.00354
G04 P0 ( dwell for no time -- G64 should not smooth over this point )
G01 F39.37008
G01 X-0.32078 Y0.44766
G01 X-0.32139 Y0.44895
G01 X-0.32221 Y0.45143
G01 X-0.32279 Y0.45536
G01 X-0.32280 Y0.45758
G01 X-0.33273 Y0.45758
G01 X-0.33318 Y0.45581
G01 X-0.33411 Y0.45339
G01 X-0.33490 Y0.45190
G01 X-0.33634 Y0.44981
G01 X-0.32768 Y0.45475
G01 X-0.32818 Y0.45154
G01 X-0.31236 Y0.43862
G01 X-0.30955 Y0.43733
G01 X-0.30955 Y0.35329
G01 X-0.34694 Y0.31590
G01 X-0.34694 Y0.33928
G01 X-0.34020 Y0.33218
G01 X-0.34816 Y0.31288
G01 X-0.35199 Y0.30711
G01 X-0.35188 Y0.30700
G01 X-0.35199 Y0.30711
G01 X-0.35776 Y0.30328
G01 X-0.36078 Y0.30207
G01 X-0.37732 Y0.28552
G01 X-0.37707 Y0.29532
G01 X-0.36078 Y0.30207
G01 X-0.45455 Y0.30207
G01 X-0.45399 Y0.30186
G01 X-0.45327 Y0.30126
G01 X-0.45192 Y0.29962
G01 X-0.45092 Y0.29775
G01 X-0.45030 Y0.29572
G01 X-0.45018 Y0.29452
G01 X-0.44780 Y0.29867
G01 X-0.45126 Y0.30087
G01 X-0.45609 Y0.30270
G01 X-0.46092 Y0.30326
G01 X-0.48376 Y0.30325
G01 X-0.48777 Y0.30367
G01 X-0.48797 Y0.30318
G01 X-0.48777 Y0.30367
G01 X-0.49208 Y0.30765
G01 X-0.49405 Y0.31102
G01 X-0.49215 Y0.30760
G01 X-0.49515 Y0.31289
G01 X-0.50133 Y0.32785
G01 X-0.49459 Y0.33495
G01 X-0.49459 Y0.31289
G01 X-0.49448 Y0.31176
G01 X-0.49405 Y0.31102
G01 X-0.51113 Y0.32811
G01 X-0.52214 Y0.43323
G01 X-0.52214 Y0.43726
G01 X-0.51927 Y0.43860
G01 X-0.39677 Y0.52155
G01 X-0.38258 Y0.50764
G01 X-0.51619 Y0.52535
G01 X-0.51775 Y0.52471
G01 X-0.52028 Y0.52401
G01 X-0.52214 Y0.52374
G01 X-0.52214 Y0.51137
G01 X-0.52060 Y0.51073
G01 X-0.51771 Y0.50905
G01 X-0.39010 Y0.51735
G01 X-0.39075 Y0.51969
G01 X-0.39103 Y0.52155
G01 X-0.39677 Y0.52155
G01 X-0.38258 Y0.50764
G01 X-0.51927 Y0.43860
G01 X-0.52214 Y0.33912
G01 X-0.52069 Y0.33766
G01 X-0.52214 Y0.33912
G01 X-0.52214 Y0.34118
G01 X-0.46036 Y0.52371
G01 X-0.45859 Y0.52334
G01 X-0.51771 Y0.50905
G01 X-0.46066 Y0.52284
G01 X-0.46036 Y0.52371
G01 X-0.45880 Y0.52391
G01 X-0.45803 Y0.52348
G01 X-0.45859 Y0.52334
G01 X-0.38258 Y0.50764
G01 X-0.38003 Y0.50618
G01 X-0.37847 Y0.50553
G01 X-0.37589 Y0.50481
G01 X-0.37180 Y0.50433
G01 X-0.35162 Y0.50433
G01 X-0.34754 Y0.50481
G01 X-0.34496 Y0.50553
G01 X-0.34153 Y0.50719
G01 X-0.34013 Y0.50813
G01 X-0.33815 Y0.50983
G01 X-0.33645 Y0.51170
G01 X-0.33490 Y0.51391
G01 X-0.33361 Y0.51659
G01 X-0.31745 Y0.50606
G01 X-0.31914 Y0.50390
G01 X-0.32058 Y0.50148
G01 X-0.32163 Y0.49911
G01 X-0.32259 Y0.49524
G01 X-0.32284 Y0.49105
G01 X-0.33644 Y0.49105
G01 X-0.33854 Y0.49333
G01 X-0.34060 Y0.49493
G01 X-0.34277 Y0.49623
G01 X-0.34518 Y0.49730
G01 X-0.34679 Y0.49779
G01 X-0.35059 Y0.49837
G01 X-0.37180 Y0.49842
G01 X-0.37451 Y0.49821
G01 X-0.37712 Y0.49763
G01 X-0.37950 Y0.49678
G01 X-0.38097 Y0.49613
G01 X-0.38226 Y0.49531
G01 X-0.38058 Y0.50135
G01 X-0.38081 Y0.50136
G01 X-0.33696 Y0.50136
G01 X-0.33334 Y0.49857
G01 X-0.33320 Y0.49843
G01 X-0.33334 Y0.49803
G01 X-0.33320 Y0.49843
G01 X-0.32944 Y0.49843
G01 X-0.32852 Y0.49711
G01 X-0.32944 Y0.49843
G01 X-0.32923 Y0.49947
G01 X-0.32868 Y0.50127
G01 X-0.32692 Y0.50526
G01 X-0.32632 Y0.50627
G01 X-0.32810 Y0.50718
G01 X-0.32804 Y0.50729
G01 X-0.33180 Y0.50147
G01 X-0.33202 Y0.50138
G01 X-0.33153 Y0.50048
G01 X-0.33202 Y0.50138
G01 X-0.33696 Y0.50136
G01 X-0.33601 Y0.50200
G01 X-0.33269 Y0.50487
G01 X-0.33099 Y0.50674
G01 X-0.32969 Y0.50858
G01 X-0.33247 Y0.54385
G01 X-0.32033 Y0.55600
G01 X-0.17261 Y0.55600
G01 X-0.17128 Y0.55230
G01 X-0.18962 Y0.49723
G01 X-0.18922 Y0.49524
G01 X-0.18897 Y0.49105
G01 X-0.17261 Y0.49105
G01 X-0.17176 Y0.49367
G01 X-0.17082 Y0.49576
G04 P0 ( dwell for no time -- G64 should not smooth over this point )
G00 Z0.05906 ( retract )

G00 X-0.18965 Y0.45127 ( rapid move to begin. )
G01 F19.68504
( Mill infeed pass 1/1 )
G01 Z-0.00354
G04 P0 ( dwell for no time -- G64 should not smooth over this point )
G01 F39.37008
G01 X-0.18965 Y0.45127
G01 X-0.18922 Y0.45338
G01 X-0.18897 Y0.45758
G01 X-0.17261 Y0.45758
G01 X-0.17176 Y0.45495
G01 X-0.17078 Y0.45278
G01 X-0.25953 Y0.35017
G01 X-0.27607 Y0.43324
G01 X-0.27607 Y0.43725
G01 X-0.27304 Y0.43869
G01 X-0.27607 Y0.43725
G01 X-0.27607 Y0.43324
G01 X-0.25953 Y0.35017
G01 X-0.29320 Y0.31642
G01 X-0.29505 Y0.31383
G01 X-0.29645 Y0.31076
G01 X-0.29717 Y0.30769
G01 X-0.29735 Y0.30443
G01 X-0.30029 Y0.30443
G01 X-0.30240 Y0.30422
G01 X-0.30443 Y0.30361
G01 X-0.30631 Y0.30261
G01 X-0.30795 Y0.30126
G01 X-0.30929 Y0.29962
G01 X-0.31029 Y0.29775
G01 X-0.31091 Y0.29572
G01 X-0.31112 Y0.29360
G01 X-0.31112 Y0.28100
G01 X-0.31786 Y0.28809
G01 X-0.31558 Y0.29360
G01 X-0.31312 Y0.29845
G01 X-0.30987 Y0.30253
G01 X-0.30590 Y0.30589
G01 X-0.30120 Y0.30850
G01 X-0.30106 Y0.30835
G01 X-0.30120 Y0.30850
G01 X-0.29944 Y0.31165
G01 X-0.29785 Y0.31403
G01 X-0.29562 Y0.31688
G01 X-0.27781 Y0.33489
G01 X-0.27552 Y0.33771
G01 X-0.27333 Y0.34112
G01 X-0.27150 Y0.34474
G01 X-0.26933 Y0.34992
G01 X-0.27204 Y0.34364
G01 X-0.27398 Y0.34012
G01 X-0.27627 Y0.33680
G01 X-0.27953 Y0.33307
G01 X-0.29560 Y0.31687
G01 X-0.29785 Y0.31403
G01 X-0.29944 Y0.31165
G01 X-0.30120 Y0.30850
G01 X-0.30588 Y0.30587
G01 X-0.30984 Y0.30251
G01 X-0.31307 Y0.29842
G01 X-0.31558 Y0.29360
G01 X-0.31786 Y0.28809
G01 X-0.36242 Y0.25308
G01 X-0.36387 Y0.25163
G01 X-0.36387 Y0.24958
G01 X-0.35847 Y0.17380
G01 X-0.36092 Y0.17411
G01 X-0.36387 Y0.17411
G01 X-0.36387 Y0.18123
G01 X-0.32763 Y0.28787
G01 X-0.28098 Y0.33452
G01 X-0.27949 Y0.33625
G01 X-0.27837 Y0.33794
G01 X-0.27697 Y0.34101
G01 X-0.27625 Y0.34408
G01 X-0.27613 Y0.34523
G01 X-0.27607 Y0.35701
G01 X-0.26416 Y0.44909
G01 X-0.26332 Y0.45199
G01 X-0.26291 Y0.45477
G01 X-0.26279 Y0.45636
G01 X-0.26284 Y0.49323
G01 X-0.26317 Y0.49583
G01 X-0.26416 Y0.49951
G01 X-0.25590 Y0.49624
G01 X-0.25592 Y0.45230
G01 X-0.25590 Y0.49624
G01 X-0.24762 Y0.49953
G01 X-0.24837 Y0.49726
G01 X-0.24877 Y0.49524
G01 X-0.24902 Y0.49226
G01 X-0.24897 Y0.45539
G01 X-0.24865 Y0.45279
G01 X-0.24797 Y0.45006
G01 X-0.24753 Y0.44893
G04 P0 ( dwell for no time -- G64 should not smooth over this point )
G00 Z0.05906 ( retract )

G00 X-0.44292 Y0.56317 ( rapid move to begin. )
G01 F19.68504
( Mill infeed pass 1/1 )
G01 Z-0.00354
G04 P0 ( dwell for no time -- G64 should not smooth over this point )
G01 F39.37008
G01 X-0.44292 Y0.56317
G01 X-0.44291 Y0.55502
G01 X-0.43420 Y0.55502
G01 X-0.37636 Y0.55982
G01 X-0.37339 Y0.56032
G01 X-0.36324 Y0.56043
G01 X-0.35340 Y0.57027
G01 X-0.36324 Y0.58012
G01 X-0.37180 Y0.58012
G01 X-0.37457 Y0.58034
G01 X-0.37617 Y0.58066
G01 X-0.37059 Y0.57274
G01 X-0.36630 Y0.57274
G01 X-0.36608 Y0.57325
G01 X-0.36630 Y0.57274
G01 X-0.36383 Y0.57027
G01 X-0.36078 Y0.57027
G01 X-0.36383 Y0.57027
G01 X-0.36629 Y0.56781
G01 X-0.37061 Y0.56781
G01 X-0.36629 Y0.56781
G01 X-0.36608 Y0.56733
G01 X-0.36629 Y0.56781
G01 X-0.36383 Y0.57027
G01 X-0.36405 Y0.57048
G01 X-0.44778 Y0.57595
G01 X-0.36078 Y0.57027
G01 X-0.38447 Y0.55566
G01 X-0.38514 Y0.55502
G01 X-0.38639 Y0.55502
G01 X-0.44778 Y0.57595
G01 X-0.44832 Y0.57653
G01 X-0.44832 Y0.57776
G01 X-0.38233 Y0.63307
G01 X-0.38003 Y0.63437
G01 X-0.37847 Y0.63502
G01 X-0.37589 Y0.63574
G01 X-0.37178 Y0.63622
G01 X-0.35076 Y0.63618
G01 X-0.34867 Y0.63597
G01 X-0.34496 Y0.63502
G01 X-0.34153 Y0.63336
G01 X-0.33854 Y0.63112
G01 X-0.33734 Y0.62993
G01 X-0.33595 Y0.62815
G01 X-0.33397 Y0.63688
G01 X-0.33692 Y0.63916
G01 X-0.33763 Y0.63916
G01 X-0.33703 Y0.63916
G01 X-0.33401 Y0.64137
G01 X-0.33143 Y0.64396
G01 X-0.32938 Y0.64674
G01 X-0.32802 Y0.65394
G01 X-0.32938 Y0.64674
G01 X-0.32868 Y0.64420
G01 X-0.32737 Y0.64103
G01 X-0.32938 Y0.63999
G01 X-0.33032 Y0.63995
G01 X-0.33056 Y0.63946
G01 X-0.33032 Y0.63995
G01 X-0.31829 Y0.64043
G01 X-0.31996 Y0.64279
G01 X-0.32163 Y0.64636
G01 X-0.32259 Y0.65024
G01 X-0.32284 Y0.65443
G01 X-0.33363 Y0.65443
G01 X-0.33490 Y0.65171
G01 X-0.33608 Y0.64994
G01 X-0.33715 Y0.64863
G01 X-0.33999 Y0.64602
G01 X-0.34321 Y0.64407
G01 X-0.34518 Y0.64325
G01 X-0.34891 Y0.64234
G01 X-0.35162 Y0.64213
G01 X-0.37283 Y0.64218
G01 X-0.37662 Y0.64275
G01 X-0.37824 Y0.64324
G01 X-0.38068 Y0.64433
G01 X-0.38258 Y0.64547
G01 X-0.38079 Y0.63916
G01 X-0.33098 Y0.63916
G01 X-0.32938 Y0.63999
G01 X-0.33098 Y0.63916
G01 X-0.33192 Y0.63918
G01 X-0.33223 Y0.59856
G01 X-0.33243 Y0.59666
G01 X-0.32525 Y0.58947
G01 X-0.32319 Y0.58947
G01 X-0.17264 Y0.60566
G01 X-0.17569 Y0.63355
G01 X-0.17569 Y0.65443
G01 X-0.18102 Y0.65443
G01 X-0.18307 Y0.64437
G01 X-0.18307 Y0.64128
G01 X-0.18307 Y0.64437
G01 X-0.18418 Y0.64166
G01 X-0.19376 Y0.64019
G01 X-0.19188 Y0.64275
G01 X-0.19099 Y0.64441
G01 X-0.19016 Y0.64641
G01 X-0.18922 Y0.65024
G01 X-0.18897 Y0.65443
G01 X-0.17569 Y0.65443
G01 X-0.17569 Y0.63355
G01 X-0.17128 Y0.59317
G01 X-0.17261 Y0.58947
G01 X-0.17749 Y0.58947
G01 X-0.17261 Y0.58947
G01 X-0.17128 Y0.59317
G01 X-0.17264 Y0.60566
G01 X-0.16207 Y0.60680
G01 X-0.15988 Y0.60924
G01 X-0.15820 Y0.61075
G01 X-0.15155 Y0.61559
G01 X-0.14958 Y0.61673
G01 X-0.14206 Y0.62007
G01 X-0.13896 Y0.62097
G01 X-0.16486 Y0.62097
G01 X-0.16631 Y0.62111
G01 X-0.16194 Y0.61516
G01 X-0.15330 Y0.61799
G01 X-0.15048 Y0.61877
G01 X-0.14225 Y0.62050
G01 X-0.13994 Y0.62086
G01 X-0.12961 Y0.62186
G01 X-0.12138 Y0.62186
G01 X-0.11104 Y0.62087
G01 X-0.10873 Y0.62051
G01 X-0.10051 Y0.61876
G01 X-0.09195 Y0.61613
G01 X-0.08711 Y0.62097
G01 X-0.11202 Y0.62097
G01 X-0.11928 Y0.62174
G01 X-0.11106 Y0.62076
G01 X-0.10892 Y0.62007
G01 X-0.10141 Y0.61673
G01 X-0.09945 Y0.61559
G01 X-0.09279 Y0.61075
G01 X-0.09110 Y0.60924
G01 X-0.08711 Y0.60480
G01 X-0.08940 Y0.61077
G01 X-0.09195 Y0.61613
G01 X-0.08940 Y0.61077
G01 X-0.08624 Y0.60254
G01 X-0.08559 Y0.60053
G01 X-0.08307 Y0.59084
G01 X-0.08164 Y0.58149
G01 X-0.08121 Y0.57325
G01 X-0.08165 Y0.56399
G01 X-0.08338 Y0.55317
G01 X-0.08559 Y0.54494
G01 X-0.08711 Y0.54066
G01 X-0.08711 Y0.50641
G01 X-0.08559 Y0.50211
G01 X-0.08307 Y0.49242
G01 X-0.08176 Y0.48419
G01 X-0.08121 Y0.47483
G01 X-0.08176 Y0.46443
G01 X-0.08307 Y0.45620
G01 X-0.08374 Y0.45339
G01 X-0.08885 Y0.44686
G01 X-0.09452 Y0.44088
G01 X-0.10175 Y0.43462
G01 X-0.10981 Y0.42898
G01 X-0.12021 Y0.42327
G01 X-0.12961 Y0.42324
G01 X-0.14034 Y0.42424
G01 X-0.14309 Y0.42467
G01 X-0.15132 Y0.42642
G01 X-0.15458 Y0.42730
G01 X-0.16011 Y0.42910
G01 X-0.15458 Y0.42730
G01 X-0.15133 Y0.42641
G01 X-0.14309 Y0.42467
G01 X-0.14035 Y0.42423
G01 X-0.13211 Y0.42336
G01 X-0.12961 Y0.42324
G01 X-0.12021 Y0.42327
G01 X-0.12015 Y0.42303
G01 X-0.12021 Y0.42327
G01 X-0.11685 Y0.42505
G01 X-0.11975 Y0.42215
G01 X-0.16716 Y0.42215
G01 X-0.11975 Y0.42215
G01 X-0.11685 Y0.42505
G01 X-0.11913 Y0.42456
G01 X-0.12138 Y0.42433
G01 X-0.12961 Y0.42433
G01 X-0.13186 Y0.42456
G01 X-0.13991 Y0.42627
G01 X-0.14207 Y0.42698
G01 X-0.14959 Y0.43033
G01 X-0.15155 Y0.43146
G01 X-0.15820 Y0.43630
G01 X-0.16010 Y0.43806
G01 X-0.15820 Y0.43630
G01 X-0.15155 Y0.43146
G01 X-0.14959 Y0.43033
G01 X-0.14207 Y0.42698
G01 X-0.13991 Y0.42627
G01 X-0.13186 Y0.42456
G01 X-0.12961 Y0.42433
G01 X-0.12138 Y0.42433
G01 X-0.11913 Y0.42456
G01 X-0.11685 Y0.42505
G01 X-0.11144 Y0.42799
G01 X-0.10980 Y0.42898
G01 X-0.10174 Y0.43461
G01 X-0.09547 Y0.43998
G01 X-0.10292 Y0.43372
G01 X-0.09450 Y0.44087
G01 X-0.08885 Y0.44686
G01 X-0.08374 Y0.45339
G01 X-0.08349 Y0.45328
G01 X-0.08374 Y0.45339
G01 X-0.08307 Y0.45620
G01 X-0.08175 Y0.46443
G01 X-0.08120 Y0.47380
G01 X-0.08164 Y0.48306
G01 X-0.08305 Y0.49242
G01 X-0.08623 Y0.50413
G01 X-0.08940 Y0.51236
G01 X-0.09068 Y0.51522
G01 X-0.09492 Y0.52353
G01 X-0.09068 Y0.53181
G01 X-0.08939 Y0.53469
G01 X-0.08711 Y0.54066
G01 X-0.08711 Y0.50638
G01 X-0.08940 Y0.51236
G01 X-0.08559 Y0.50211
G01 X-0.08711 Y0.50638
G01 X-0.09111 Y0.51082
G01 X-0.09279 Y0.51232
G01 X-0.09945 Y0.51716
G01 X-0.10140 Y0.51829
G01 X-0.10891 Y0.52164
G01 X-0.11107 Y0.52235
G01 X-0.11663 Y0.52353
G01 X-0.09492 Y0.52353
G01 X-0.09578 Y0.52353
G01 X-0.09449 Y0.52436
G01 X-0.09449 Y0.52269
G01 X-0.09578 Y0.52353
G01 X-0.13436 Y0.52352
G01 X-0.13991 Y0.52470
G01 X-0.14207 Y0.52541
G01 X-0.14959 Y0.52876
G01 X-0.15204 Y0.53024
G01 X-0.15001 Y0.52353
G01 X-0.13436 Y0.52352
G01 X-0.15001 Y0.52353
G01 X-0.15204 Y0.51680
G01 X-0.14959 Y0.51829
G01 X-0.14207 Y0.52164
G01 X-0.13991 Y0.52235
G01 X-0.13436 Y0.52352
G01 X-0.11663 Y0.52353
G01 X-0.11107 Y0.52470
G01 X-0.10891 Y0.52541
G01 X-0.10140 Y0.52876
G01 X-0.09945 Y0.52988
G01 X-0.09279 Y0.53471
G01 X-0.09110 Y0.53623
G01 X-0.08711 Y0.54066
G01 X-0.08558 Y0.54494
G01 X-0.08338 Y0.55317
G01 X-0.08176 Y0.56286
G01 X-0.08338 Y0.55317
G01 X-0.08623 Y0.54293
G01 X-0.08307 Y0.55463
G01 X-0.08163 Y0.56399
G01 X-0.08121 Y0.57222
G01 X-0.08164 Y0.58149
G01 X-0.08306 Y0.59084
G01 X-0.08559 Y0.60053
G01 X-0.08711 Y0.60480
G01 X-0.08711 Y0.62097
G01 X-0.08611 Y0.62194
G01 X-0.08243 Y0.62687
G01 X-0.08230 Y0.62681
G01 X-0.08243 Y0.62687
G01 X-0.08115 Y0.63179
G01 X-0.08116 Y0.71054
G01 X-0.08204 Y0.71461
G01 X-0.08102 Y0.71564
G01 X-0.08204 Y0.71461
G01 X-0.08612 Y0.71549
G01 X-0.16487 Y0.71551
G01 X-0.16978 Y0.71423
G01 X-0.16984 Y0.71436
G01 X-0.16978 Y0.71423
G01 X-0.17471 Y0.71055
G01 X-0.17569 Y0.70955
G01 X-0.20940 Y0.70957
G01 X-0.20500 Y0.70901
G01 X-0.20199 Y0.70810
G01 X-0.19945 Y0.70689
G01 X-0.19720 Y0.70547
G01 X-0.19424 Y0.70277
G01 X-0.19188 Y0.69957
G01 X-0.19099 Y0.69791
G01 X-0.19016 Y0.69591
G01 X-0.18922 Y0.69209
G01 X-0.18897 Y0.68790
G01 X-0.17569 Y0.68790
G01 X-0.17569 Y0.70955
G01 X-0.18375 Y0.70148
G01 X-0.18348 Y0.69978
G01 X-0.18375 Y0.70148
G01 X-0.18489 Y0.70217
G01 X-0.18307 Y0.69795
G01 X-0.18098 Y0.68790
G01 X-0.18307 Y0.69795
G01 X-0.18307 Y0.70217
G01 X-0.18489 Y0.70217
G01 X-0.18916 Y0.70452
G01 X-0.19385 Y0.70657
G01 X-0.19884 Y0.70819
G01 X-0.20166 Y0.70881
G01 X-0.20496 Y0.70928
G01 X-0.20940 Y0.70955
G01 X-0.22969 Y0.70952
G01 X-0.23367 Y0.70926
G01 X-0.23555 Y0.70898
G01 X-0.24128 Y0.70758
G01 X-0.24456 Y0.70645
G01 X-0.25028 Y0.70377
G01 X-0.25593 Y0.70040
G01 X-0.25690 Y0.70095
G01 X-0.25593 Y0.70040
G01 X-0.25590 Y0.69370
G01 X-0.25616 Y0.69539
G01 X-0.25722 Y0.69891
G01 X-0.25876 Y0.70217
G01 X-0.26316 Y0.70529
G01 X-0.25876 Y0.70217
G01 X-0.25307 Y0.70217
G01 X-0.25429 Y0.69975
G01 X-0.25513 Y0.69720
G01 X-0.25590 Y0.69370
G01 X-0.25590 Y0.64915
G01 X-0.25590 Y0.64952
G01 X-0.25590 Y0.64936
G01 X-0.26406 Y0.64619
G01 X-0.26341 Y0.64834
G01 X-0.26284 Y0.65225
G01 X-0.26284 Y0.69006
G01 X-0.26340 Y0.69398
G01 X-0.26404 Y0.69608
G01 X-0.26575 Y0.69966
G01 X-0.26815 Y0.70287
G01 X-0.26948 Y0.70420
G01 X-0.27155 Y0.70582
G01 X-0.27396 Y0.70727
G01 X-0.27643 Y0.70837
G01 X-0.28025 Y0.70931
G01 X-0.28315 Y0.70955
G01 X-0.22859 Y0.70955
G01 X-0.23156 Y0.70931
G01 X-0.23537 Y0.70837
G01 X-0.23783 Y0.70728
G01 X-0.24025 Y0.70583
G01 X-0.24234 Y0.70420
G01 X-0.24367 Y0.70287
G01 X-0.24530 Y0.70078
G01 X-0.24747 Y0.69693
G01 X-0.24797 Y0.69541
G01 X-0.24865 Y0.69268
G01 X-0.24897 Y0.69008
G01 X-0.24902 Y0.65322
G01 X-0.24877 Y0.65024
G01 X-0.24837 Y0.64821
G01 X-0.24759 Y0.64583
G04 P0 ( dwell for no time -- G64 should not smooth over this point )
G00 Z0.05906 ( retract )

G00 X-0.30248 Y0.70955 ( rapid move to begin. )
G01 F19.68504
( Mill infeed pass 1/1 )
G01 Z-0.00354
G04 P0 ( dwell for no time -- G64 should not smooth over this point )
G01 F39.37008
G01 X-0.30248 Y0.70955
G01 X-0.30458 Y0.70955
G01 X-0.30476 Y0.70937
G01 X-0.30248 Y0.70955
G04 P0 ( dwell for no time -- G64 should not smooth over this point )
G00 Z0.05906 ( retract )

G00 X-0.32266 Y0.69147 ( rapid move to begin. )
G01 F19.68504
( Mill infeed pass 1/1 )
G01 Z-0.00354
G04 P0 ( dwell for no time -- G64 should not smooth over this point )
G01 F39.37008
G01 X-0.32266 Y0.69147
G01 X-0.32622 Y0.68790
G01 X-0.32284 Y0.68790
G01 X-0.32266 Y0.69147
G04 P0 ( dwell for no time -- G64 should not smooth over this point )
G00 Z0.05906 ( retract )

G00 X-0.36528 Y0.69823 ( rapid move to begin. )
G01 F19.68504
( Mill infeed pass 1/1 )
G01 Z-0.00354
G04 P0 ( dwell for no time -- G64 should not smooth over this point )
G01 F39.37008
G01 X-0.36528 Y0.69823
G01 X-0.36323 Y0.69823
G01 X-0.36178 Y0.69968
G01 X-0.64436 Y0.68790
G01 X-0.64924 Y0.68790
G01 X-0.65057 Y0.69160
G04 P0 ( dwell for no time -- G64 should not smooth over this point )
G00 Z0.05906 ( retract )

G00 X-0.74319 Y0.65355 ( rapid move to begin. )
G01 F19.68504
( Mill infeed pass 1/1 )
G01 Z-0.00354
G04 P0 ( dwell for no time -- G64 should not smooth over this point )
G01 F39.37008
G01 X-0.74319 Y0.65355
G01 X-0.74262 Y0.65179
G01 X-0.74161 Y0.64958
G01 X-0.74494 Y0.64625

G04 P0 ( dwell for no time -- G64 should not smooth over this point )
G00 Z0.393701 ( retract )

M5 ( Spindle off. )
G04 P1.000000
M9 ( Coolant off. )
M2 ( Program end. )

