( pcb2gcode 2.5.0 )
( Software-independent Gcode )

G94 ( Inches per minute feed rate. )
G20 ( Units == INCHES. )

G90 ( Absolute coordinates. )
G00 S12000 ( RPM spindle speed. )
G64 P0.00040 ( set maximum deviation from commanded toolpath )
G01 F360.00000 ( Feedrate. )


G00 Z1.00000 (Retract to tool change height)
T1
M5      (Spindle stop.)
G04 P1.00000 (Wait for spindle to stop)
(MSG, Change tool bit to mill diameter 0.00000in)
M6      (Tool change.)
M0      (Temporary machine stop.)
M3 ( Spindle on clockwise. )
G04 P1.00000 (Wait for spindle to get up to speed)
G04 P0 ( dwell for no time -- G64 should not smooth over this point )
G00 Z0.08000 ( retract )

G00 X2.05000 Y-0.00492 ( rapid move to begin. )
G01 F180.00000
( Mill infeed pass 1/1 )
G01 Z-0.04000
G04 P0 ( dwell for no time -- G64 should not smooth over this point )
G01 F360.00000
G01 X2.05000 Y-0.00492
G01 X2.00492 Y-0.00492
G01 X2.00490 Y-0.05041
G01 X2.00477 Y-0.05121
G01 X2.00433 Y-0.05234
G01 X2.00388 Y-0.05302
G01 X2.00302 Y-0.05388
G01 X2.00234 Y-0.05433
G01 X2.00121 Y-0.05477
G01 X1.99959 Y-0.05490
G01 X1.99879 Y-0.05477
G01 X1.99766 Y-0.05433
G01 X1.99638 Y-0.05333
G01 X1.99549 Y-0.05198
G01 X1.99510 Y-0.05041
G01 X1.99508 Y-0.00492
G01 X1.94959 Y-0.00490
G01 X1.94879 Y-0.00477
G01 X1.94766 Y-0.00433
G01 X1.94698 Y-0.00388
G01 X1.94612 Y-0.00302
G01 X1.94567 Y-0.00234
G01 X1.94523 Y-0.00121
G01 X1.94510 Y0.00041
G01 X1.94523 Y0.00121
G01 X1.94567 Y0.00234
G01 X1.94667 Y0.00362
G01 X1.94802 Y0.00451
G01 X1.94959 Y0.00490
G01 X1.99508 Y0.00492
G01 X1.99510 Y0.05000
G01 X2.00490 Y0.05000
G01 X2.00492 Y0.00492
G01 X2.05000 Y0.00485
G01 X2.05000 Y-0.00492
G01 X1.83699 Y-0.59245
G01 X1.83682 Y-0.58925
G01 X1.83633 Y-0.58567
G01 X1.83561 Y-0.58254
G01 X1.83465 Y-0.57947
G01 X1.83326 Y-0.57614
G01 X1.83178 Y-0.57329
G01 X1.83007 Y-0.57057
G01 X1.82815 Y-0.56800
G01 X1.82602 Y-0.56559
G01 X1.82370 Y-0.56337
G01 X1.82089 Y-0.56110
G01 X1.81822 Y-0.55931
G01 X1.81506 Y-0.55756
G01 X1.81213 Y-0.55626
G01 X1.80910 Y-0.55520
G01 X1.80599 Y-0.55439
G01 X1.80283 Y-0.55383
G01 X1.79963 Y-0.55354
G01 X1.79642 Y-0.55351
G01 X1.79321 Y-0.55373
G01 X1.79004 Y-0.55422
G01 X1.78691 Y-0.55497
G01 X1.78349 Y-0.55611
G01 X1.78018 Y-0.55756
G01 X1.77667 Y-0.55952
G01 X1.77339 Y-0.56183
G01 X1.77035 Y-0.56446
G01 X1.64651 Y-0.68829
G01 X1.64651 Y-0.42619
G01 X1.64622 Y-0.42138
G01 X1.64543 Y-0.41704
G01 X1.64389 Y-0.41206
G01 X1.64279 Y-0.40947
G01 X1.64150 Y-0.40697
G01 X1.64004 Y-0.40457
G01 X1.63842 Y-0.40228
G01 X1.63498 Y-0.39835
G01 X1.63106 Y-0.39491
G01 X1.62636 Y-0.39183
G01 X1.62165 Y-0.38959
G01 X1.61668 Y-0.38799
G01 X1.61394 Y-0.38741
G01 X1.61115 Y-0.38702
G01 X1.60594 Y-0.38684
G01 X1.60075 Y-0.38734
G01 X1.59799 Y-0.38790
G01 X1.59528 Y-0.38865
G01 X1.59264 Y-0.38959
G01 X1.59006 Y-0.39072
G01 X1.58552 Y-0.39329
G01 X1.58136 Y-0.39644
G01 X1.57765 Y-0.40010
G01 X1.57539 Y-0.40292
G01 X1.57360 Y-0.40558
G01 X1.57185 Y-0.40875
G01 X1.57040 Y-0.41206
G01 X1.56937 Y-0.41510
G01 X1.56851 Y-0.41861
G01 X1.56798 Y-0.42218
G01 X1.56778 Y-0.42539
G01 X1.56777 Y-0.92659
G01 X1.56812 Y-0.93139
G01 X1.56895 Y-0.93573
G01 X1.57040 Y-0.94032
G01 X1.57221 Y-0.94435
G01 X1.57469 Y-0.94848
G01 X1.57739 Y-0.95197
G01 X1.58076 Y-0.95541
G01 X1.58420 Y-0.95818
G01 X1.58792 Y-0.96055
G01 X1.59189 Y-0.96249
G01 X1.59605 Y-0.96396
G01 X1.60075 Y-0.96504
G01 X1.60514 Y-0.96551
G01 X1.60955 Y-0.96549
G01 X1.61394 Y-0.96497
G01 X1.61823 Y-0.96396
G01 X1.62240 Y-0.96249
G01 X1.62636 Y-0.96055
G01 X1.63009 Y-0.95818
G01 X1.63353 Y-0.95541
G01 X1.63663 Y-0.95227
G01 X1.63937 Y-0.94881
G01 X1.64170 Y-0.94506
G01 X1.64359 Y-0.94107
G01 X1.64480 Y-0.93767
G01 X1.64570 Y-0.93417
G01 X1.64627 Y-0.93060
G01 X1.64650 Y-0.92699
G01 X1.64651 Y-0.79964
G01 X1.65050 Y-0.79565
G01 X1.76612 Y-0.94981
G01 X1.76897 Y-0.95319
G01 X1.77187 Y-0.95597
G01 X1.77536 Y-0.95866
G01 X1.77878 Y-0.96076
G01 X1.78240 Y-0.96250
G01 X1.78618 Y-0.96386
G01 X1.79007 Y-0.96483
G01 X1.79405 Y-0.96540
G01 X1.79806 Y-0.96556
G01 X1.80206 Y-0.96531
G01 X1.80642 Y-0.96457
G01 X1.81028 Y-0.96347
G01 X1.81401 Y-0.96199
G01 X1.81757 Y-0.96013
G01 X1.82092 Y-0.95793
G01 X1.82403 Y-0.95539
G01 X1.82713 Y-0.95225
G01 X1.82963 Y-0.94911
G01 X1.83119 Y-0.94676
G01 X1.83257 Y-0.94432
G01 X1.83377 Y-0.94178
G01 X1.83479 Y-0.93916
G01 X1.83562 Y-0.93647
G01 X1.83626 Y-0.93374
G01 X1.83670 Y-0.93096
G01 X1.83694 Y-0.92816
G01 X1.83698 Y-0.92535
G01 X1.83682 Y-0.92254
G01 X1.83646 Y-0.91976
G01 X1.83590 Y-0.91700
G01 X1.83515 Y-0.91429
G01 X1.83406 Y-0.91128
G01 X1.83290 Y-0.90872
G01 X1.83156 Y-0.90624
G01 X1.82912 Y-0.90257
G01 X1.70675 Y-0.73941
G01 X1.82657 Y-0.61954
G01 X1.82865 Y-0.61709
G01 X1.83052 Y-0.61448
G01 X1.83237 Y-0.61137
G01 X1.83376 Y-0.60848
G01 X1.83491 Y-0.60548
G01 X1.83582 Y-0.60240
G01 X1.83647 Y-0.59925
G01 X1.83689 Y-0.59567
G01 X1.83699 Y-0.59245
G04 P0 ( dwell for no time -- G64 should not smooth over this point )
G00 Z0.08000 ( retract )

G00 X1.43219 Y-0.61484 ( rapid move to begin. )
G01 F180.00000
( Mill infeed pass 1/1 )
G01 Z-0.04000
G04 P0 ( dwell for no time -- G64 should not smooth over this point )
G01 F360.00000
G01 X1.43219 Y-0.61484
G01 X1.43208 Y-0.62006
G01 X1.43138 Y-0.62482
G01 X1.42996 Y-0.62984
G01 X1.42807 Y-0.63427
G01 X1.42544 Y-0.63877
G01 X1.42249 Y-0.64258
G01 X1.41911 Y-0.64601
G01 X1.41500 Y-0.64922
G01 X1.41085 Y-0.65168
G01 X1.40607 Y-0.65375
G01 X1.40300 Y-0.65471
G01 X1.40026 Y-0.65533
G01 X1.39709 Y-0.65581
G01 X1.39388 Y-0.65602
G01 X1.39067 Y-0.65597
G01 X1.38747 Y-0.65567
G01 X1.38431 Y-0.65510
G01 X1.38121 Y-0.65427
G01 X1.37855 Y-0.65334
G01 X1.37561 Y-0.65206
G01 X1.33595 Y-0.63223
G01 X1.25929 Y-0.63223
G01 X1.22570 Y-0.64902
G01 X1.21093 Y-0.66380
G01 X1.19413 Y-0.69739
G01 X1.19413 Y-0.82166
G01 X1.21093 Y-0.85525
G01 X1.22570 Y-0.87002
G01 X1.25930 Y-0.88682
G01 X1.33595 Y-0.88682
G01 X1.37597 Y-0.86681
G01 X1.37931 Y-0.86542
G01 X1.38275 Y-0.86433
G01 X1.38628 Y-0.86356
G01 X1.38947 Y-0.86316
G01 X1.39268 Y-0.86301
G01 X1.39628 Y-0.86316
G01 X1.39987 Y-0.86364
G01 X1.40300 Y-0.86434
G01 X1.40644 Y-0.86543
G01 X1.40978 Y-0.86683
G01 X1.41365 Y-0.86895
G01 X1.41758 Y-0.87174
G01 X1.42113 Y-0.87498
G01 X1.42402 Y-0.87832
G01 X1.42652 Y-0.88196
G01 X1.42876 Y-0.88622
G01 X1.43046 Y-0.89073
G01 X1.43161 Y-0.89541
G01 X1.43217 Y-0.90019
G01 X1.43217 Y-0.90460
G01 X1.43160 Y-0.90939
G01 X1.43046 Y-0.91407
G01 X1.42875 Y-0.91857
G01 X1.42671 Y-0.92248
G01 X1.42400 Y-0.92647
G01 X1.42111 Y-0.92980
G01 X1.41878 Y-0.93201
G01 X1.41628 Y-0.93403
G01 X1.41362 Y-0.93583
G01 X1.41082 Y-0.93741
G01 X1.36212 Y-0.96176
G01 X1.35760 Y-0.96357
G01 X1.35250 Y-0.96488
G01 X1.34929 Y-0.96535
G01 X1.34564 Y-0.96556
G01 X1.24960 Y-0.96556
G01 X1.24676 Y-0.96543
G01 X1.24394 Y-0.96509
G01 X1.24115 Y-0.96455
G01 X1.23802 Y-0.96369
G01 X1.23535 Y-0.96273
G01 X1.23239 Y-0.96140
G01 X1.18477 Y-0.93759
G01 X1.18066 Y-0.93522
G01 X1.17779 Y-0.93312
G01 X1.17511 Y-0.93077
G01 X1.14964 Y-0.90527
G01 X1.14640 Y-0.90127
G01 X1.14372 Y-0.89688
G01 X1.11902 Y-0.84746
G01 X1.11738 Y-0.84331
G01 X1.11631 Y-0.83940
G01 X1.11560 Y-0.83500
G01 X1.11539 Y-0.83095
G01 X1.11539 Y-0.68769
G01 X1.11569 Y-0.68324
G01 X1.11659 Y-0.67846
G01 X1.11778 Y-0.67458
G01 X1.11937 Y-0.67085
G01 X1.14336 Y-0.62287
G01 X1.14573 Y-0.61876
G01 X1.14808 Y-0.61557
G01 X1.15046 Y-0.61292
G01 X1.17482 Y-0.58855
G01 X1.17779 Y-0.58592
G01 X1.18100 Y-0.58361
G01 X1.18442 Y-0.58163
G01 X1.23276 Y-0.55746
G01 X1.23725 Y-0.55561
G01 X1.24234 Y-0.55424
G01 X1.24595 Y-0.55370
G01 X1.24960 Y-0.55349
G01 X1.34564 Y-0.55349
G01 X1.34969 Y-0.55374
G01 X1.35369 Y-0.55440
G01 X1.35799 Y-0.55561
G01 X1.36175 Y-0.55712
G01 X1.41153 Y-0.58201
G01 X1.41396 Y-0.58343
G01 X1.41628 Y-0.58502
G01 X1.42026 Y-0.58839
G01 X1.42350 Y-0.59195
G01 X1.42650 Y-0.59622
G01 X1.42875 Y-0.60048
G01 X1.43045 Y-0.60498
G01 X1.43167 Y-0.61005
G01 X1.43219 Y-0.61484
G04 P0 ( dwell for no time -- G64 should not smooth over this point )
G00 Z0.08000 ( retract )

G00 X0.90111 Y-0.87805 ( rapid move to begin. )
G01 F180.00000
( Mill infeed pass 1/1 )
G01 Z-0.04000
G04 P0 ( dwell for no time -- G64 should not smooth over this point )
G01 F360.00000
G01 X0.90111 Y-0.87805
G01 X0.90111 Y-0.77421
G01 X0.89731 Y-0.77483
G01 X0.89326 Y-0.77508
G01 X0.78310 Y-0.77508
G01 X0.75554 Y-0.78887
G01 X0.74175 Y-0.81644
G01 X0.74175 Y-0.84547
G01 X0.75554 Y-0.87304
G01 X0.78310 Y-0.88682
G01 X0.88356 Y-0.88682
G01 X0.90111 Y-0.87805
G04 P0 ( dwell for no time -- G64 should not smooth over this point )
G00 Z0.08000 ( retract )

G00 X0.55128 Y-0.75952 ( rapid move to begin. )
G01 F180.00000
( Mill infeed pass 1/1 )
G01 Z-0.04000
G04 P0 ( dwell for no time -- G64 should not smooth over this point )
G01 F360.00000
G01 X0.55128 Y-0.75952
G01 X0.55127 Y-0.83136
G01 X0.55102 Y-0.83540
G01 X0.55027 Y-0.83980
G01 X0.54916 Y-0.84370
G01 X0.54747 Y-0.84783
G01 X0.52313 Y-0.89653
G01 X0.52026 Y-0.90127
G01 X0.51676 Y-0.90556
G01 X0.49156 Y-0.93077
G01 X0.48857 Y-0.93337
G01 X0.48534 Y-0.93565
G01 X0.48189 Y-0.93759
G01 X0.43355 Y-0.96176
G01 X0.43094 Y-0.96288
G01 X0.42826 Y-0.96381
G01 X0.42552 Y-0.96455
G01 X0.42273 Y-0.96509
G01 X0.41991 Y-0.96543
G01 X0.41667 Y-0.96556
G01 X0.22459 Y-0.96553
G01 X0.22099 Y-0.96521
G01 X0.21782 Y-0.96466
G01 X0.21433 Y-0.96373
G01 X0.21094 Y-0.96249
G01 X0.20768 Y-0.96093
G01 X0.20457 Y-0.95909
G01 X0.20165 Y-0.95697
G01 X0.19922 Y-0.95487
G01 X0.19644 Y-0.95197
G01 X0.19397 Y-0.94881
G01 X0.19183 Y-0.94541
G01 X0.19005 Y-0.94181
G01 X0.18865 Y-0.93805
G01 X0.18764 Y-0.93417
G01 X0.18703 Y-0.93020
G01 X0.18682 Y-0.92619
G01 X0.18683 Y-0.42539
G01 X0.18707 Y-0.42178
G01 X0.18764 Y-0.41821
G01 X0.18853 Y-0.41471
G01 X0.18974 Y-0.41131
G01 X0.19126 Y-0.40803
G01 X0.19307 Y-0.40490
G01 X0.19516 Y-0.40196
G01 X0.19751 Y-0.39921
G01 X0.20011 Y-0.39670
G01 X0.20292 Y-0.39443
G01 X0.20593 Y-0.39243
G01 X0.20947 Y-0.39055
G01 X0.21281 Y-0.38916
G01 X0.21665 Y-0.38799
G01 X0.22019 Y-0.38728
G01 X0.22378 Y-0.38689
G01 X0.39286 Y-0.38682
G01 X0.39570 Y-0.38692
G01 X0.39932 Y-0.38735
G01 X0.40289 Y-0.38812
G01 X0.40637 Y-0.38921
G01 X0.40974 Y-0.39062
G01 X0.45879 Y-0.41515
G01 X0.46219 Y-0.41716
G01 X0.46569 Y-0.41976
G01 X0.46832 Y-0.42216
G01 X0.49268 Y-0.44654
G01 X0.49527 Y-0.44952
G01 X0.49755 Y-0.45276
G01 X0.49950 Y-0.45620
G01 X0.52384 Y-0.50492
G01 X0.52507 Y-0.50792
G01 X0.52595 Y-0.51062
G01 X0.52663 Y-0.51337
G01 X0.52717 Y-0.51657
G01 X0.52746 Y-0.52102
G01 X0.52746 Y-0.56986
G01 X0.52706 Y-0.57471
G01 X0.52617 Y-0.57908
G01 X0.52507 Y-0.58256
G01 X0.52349 Y-0.58629
G01 X0.49932 Y-0.63463
G01 X0.49668 Y-0.63904
G01 X0.49322 Y-0.64336
G01 X0.48311 Y-0.65352
G01 X0.48751 Y-0.65630
G01 X0.49154 Y-0.65969
G01 X0.51649 Y-0.68463
G01 X0.51884 Y-0.68731
G01 X0.52093 Y-0.69019
G01 X0.52331 Y-0.69430
G01 X0.54765 Y-0.74301
G01 X0.54902 Y-0.74639
G01 X0.54998 Y-0.74949
G01 X0.55067 Y-0.75266
G01 X0.55111 Y-0.75588
G01 X0.55128 Y-0.75952
G04 P0 ( dwell for no time -- G64 should not smooth over this point )
G00 Z0.08000 ( retract )

G00 X0.47253 Y-0.82166 ( rapid move to begin. )
G01 F180.00000
( Mill infeed pass 1/1 )
G01 Z-0.04000
G04 P0 ( dwell for no time -- G64 should not smooth over this point )
G01 F360.00000
G01 X0.47253 Y-0.82166
G01 X0.45574 Y-0.85525
G01 X0.44097 Y-0.87002
G01 X0.40737 Y-0.88682
G01 X0.26556 Y-0.88682
G01 X0.26556 Y-0.70366
G01 X0.38647 Y-0.70366
G01 X0.44302 Y-0.72250
G01 X0.45574 Y-0.73523
G01 X0.47253 Y-0.76882
G01 X0.47253 Y-0.82166
G01 X0.36180 Y-0.80060
G01 X0.36143 Y-0.80298
G01 X0.36059 Y-0.80523
G01 X0.35956 Y-0.80694
G01 X0.35795 Y-0.80873
G01 X0.35636 Y-0.80995
G01 X0.35422 Y-0.81103
G01 X0.35190 Y-0.81166
G01 X0.34950 Y-0.81180
G01 X0.34712 Y-0.81145
G01 X0.34486 Y-0.81063
G01 X0.34314 Y-0.80961
G01 X0.34134 Y-0.80803
G01 X0.33989 Y-0.80611
G01 X0.33886 Y-0.80393
G01 X0.33836 Y-0.80200
G01 X0.33820 Y-0.79960
G01 X0.33852 Y-0.79722
G01 X0.33932 Y-0.79495
G01 X0.34056 Y-0.79290
G01 X0.34220 Y-0.79113
G01 X0.34415 Y-0.78974
G01 X0.34597 Y-0.78890
G01 X0.34830 Y-0.78831
G01 X0.35070 Y-0.78821
G01 X0.35268 Y-0.78850
G01 X0.35496 Y-0.78928
G01 X0.35702 Y-0.79050
G01 X0.35880 Y-0.79212
G01 X0.36021 Y-0.79407
G01 X0.36107 Y-0.79588
G01 X0.36167 Y-0.79820
G01 X0.36180 Y-0.80060
G04 P0 ( dwell for no time -- G64 should not smooth over this point )
G00 Z0.08000 ( retract )

G00 X0.12415 Y-0.62006 ( rapid move to begin. )
G01 F180.00000
( Mill infeed pass 1/1 )
G01 Z-0.04000
G04 P0 ( dwell for no time -- G64 should not smooth over this point )
G01 F360.00000
G01 X0.12415 Y-0.62006
G01 X0.12391 Y-0.61888
G01 X0.12322 Y-0.61743
G01 X0.12245 Y-0.61649
G01 X0.11919 Y-0.61328
G01 X0.11800 Y-0.61252
G01 X0.11687 Y-0.61212
G01 X0.11567 Y-0.61195
G01 X0.11446 Y-0.61204
G01 X0.11312 Y-0.61244
G01 X0.11206 Y-0.61303
G01 X0.10820 Y-0.61679
G01 X0.10751 Y-0.61777
G01 X0.10692 Y-0.61927
G01 X0.10675 Y-0.62047
G01 X0.10684 Y-0.62167
G01 X0.10732 Y-0.62321
G01 X0.10795 Y-0.62424
G01 X0.11190 Y-0.62819
G01 X0.11296 Y-0.62883
G01 X0.11411 Y-0.62923
G01 X0.11527 Y-0.62938
G01 X0.11647 Y-0.62930
G01 X0.11763 Y-0.62897
G01 X0.11871 Y-0.62842
G01 X0.12245 Y-0.62484
G01 X0.12361 Y-0.62321
G01 X0.12410 Y-0.62167
G01 X0.12415 Y-0.62006
G01 X0.12137 Y-0.63754
G01 X0.12103 Y-0.63556
G01 X0.12005 Y-0.63382
G01 X0.11854 Y-0.63250
G01 X0.11667 Y-0.63176
G01 X0.11466 Y-0.63169
G01 X0.11275 Y-0.63230
G01 X0.11115 Y-0.63351
G01 X0.11005 Y-0.63519
G01 X0.10962 Y-0.63674
G01 X0.10962 Y-0.67772
G01 X0.11005 Y-0.67926
G01 X0.11115 Y-0.68094
G01 X0.11275 Y-0.68215
G01 X0.11466 Y-0.68276
G01 X0.11587 Y-0.68280
G01 X0.11706 Y-0.68260
G01 X0.11887 Y-0.68174
G01 X0.11978 Y-0.68094
G01 X0.12051 Y-0.67998
G01 X0.12103 Y-0.67889
G01 X0.12132 Y-0.67772
G01 X0.12137 Y-0.63754
G04 P0 ( dwell for no time -- G64 should not smooth over this point )
G00 Z0.08000 ( retract )

G00 X0.09606 Y-0.65160 ( rapid move to begin. )
G01 F180.00000
( Mill infeed pass 1/1 )
G01 Z-0.04000
G04 P0 ( dwell for no time -- G64 should not smooth over this point )
G01 F360.00000
G01 X0.09606 Y-0.65160
G01 X0.09601 Y-0.66644
G01 X0.09560 Y-0.66795
G01 X0.09245 Y-0.67426
G01 X0.09152 Y-0.67546
G01 X0.08783 Y-0.67900
G01 X0.08155 Y-0.68219
G01 X0.07969 Y-0.68276
G01 X0.06407 Y-0.68276
G01 X0.06256 Y-0.68236
G01 X0.05625 Y-0.67920
G01 X0.05505 Y-0.67827
G01 X0.05196 Y-0.67517
G01 X0.05126 Y-0.67418
G01 X0.05078 Y-0.67307
G01 X0.05051 Y-0.67149
G01 X0.05068 Y-0.66989
G01 X0.05126 Y-0.66839
G01 X0.05224 Y-0.66711
G01 X0.05352 Y-0.66614
G01 X0.05463 Y-0.66566
G01 X0.05621 Y-0.66538
G01 X0.05742 Y-0.66547
G01 X0.05858 Y-0.66579
G01 X0.05965 Y-0.66635
G01 X0.06272 Y-0.66925
G01 X0.06624 Y-0.67101
G01 X0.07752 Y-0.67101
G01 X0.08104 Y-0.66925
G01 X0.08249 Y-0.66779
G01 X0.08425 Y-0.66427
G01 X0.08425 Y-0.65300
G01 X0.08249 Y-0.64948
G01 X0.08104 Y-0.64802
G01 X0.07752 Y-0.64626
G01 X0.06624 Y-0.64626
G01 X0.06272 Y-0.64802
G01 X0.06029 Y-0.65043
G01 X0.05931 Y-0.65112
G01 X0.05820 Y-0.65160
G01 X0.05702 Y-0.65185
G01 X0.05581 Y-0.65185
G01 X0.05425 Y-0.65147
G01 X0.05285 Y-0.65069
G01 X0.05171 Y-0.64955
G01 X0.05079 Y-0.64778
G01 X0.05054 Y-0.64660
G01 X0.05054 Y-0.64539
G01 X0.05335 Y-0.61727
G01 X0.05358 Y-0.61611
G01 X0.05404 Y-0.61502
G01 X0.05498 Y-0.61375
G01 X0.05588 Y-0.61299
G01 X0.05729 Y-0.61228
G01 X0.05883 Y-0.61196
G01 X0.08735 Y-0.61195
G01 X0.08894 Y-0.61217
G01 X0.09075 Y-0.61303
G01 X0.09217 Y-0.61445
G01 X0.09303 Y-0.61626
G01 X0.09324 Y-0.61826
G01 X0.09276 Y-0.62021
G01 X0.09193 Y-0.62158
G01 X0.09041 Y-0.62290
G01 X0.08855 Y-0.62364
G01 X0.08735 Y-0.62376
G01 X0.06457 Y-0.62376
G01 X0.06348 Y-0.63461
G01 X0.06485 Y-0.63445
G01 X0.07891 Y-0.63445
G01 X0.08046 Y-0.63465
G01 X0.08155 Y-0.63507
G01 X0.08783 Y-0.63827
G01 X0.09202 Y-0.64237
G01 X0.09560 Y-0.64932
G01 X0.09595 Y-0.65044
G01 X0.09606 Y-0.65160
G04 P0 ( dwell for no time -- G64 should not smooth over this point )
G00 Z0.08000 ( retract )

G00 X0.03982 Y-0.67390 ( rapid move to begin. )
G01 F180.00000
( Mill infeed pass 1/1 )
G01 Z-0.04000
G04 P0 ( dwell for no time -- G64 should not smooth over this point )
G01 F360.00000
G01 X0.03982 Y-0.67390
G01 X0.03965 Y-0.67550
G01 X0.03925 Y-0.67664
G01 X0.03809 Y-0.67827
G01 X0.03434 Y-0.68185
G01 X0.03327 Y-0.68241
G01 X0.03211 Y-0.68273
G01 X0.03090 Y-0.68281
G01 X0.02975 Y-0.68266
G01 X0.02859 Y-0.68226
G01 X0.02754 Y-0.68162
G01 X0.02359 Y-0.67767
G01 X0.02296 Y-0.67664
G01 X0.02255 Y-0.67550
G01 X0.02239 Y-0.67430
G01 X0.02255 Y-0.67270
G01 X0.02314 Y-0.67121
G01 X0.02384 Y-0.67022
G01 X0.02770 Y-0.66646
G01 X0.02894 Y-0.66579
G01 X0.03010 Y-0.66547
G01 X0.03130 Y-0.66538
G01 X0.03250 Y-0.66555
G01 X0.03364 Y-0.66595
G01 X0.03483 Y-0.66671
G01 X0.03809 Y-0.66992
G01 X0.03885 Y-0.67086
G01 X0.03954 Y-0.67231
G01 X0.03982 Y-0.67390
G04 P0 ( dwell for no time -- G64 should not smooth over this point )
G00 Z0.08000 ( retract )

G00 X0.08340 Y-0.53756 ( rapid move to begin. )
G01 F180.00000
( Mill infeed pass 1/1 )
G01 Z-0.04000
G04 P0 ( dwell for no time -- G64 should not smooth over this point )
G01 F360.00000
G01 X0.08340 Y-0.53756
G01 X0.08306 Y-0.53913
G01 X0.06900 Y-0.57850
G01 X0.06296 Y-0.59349
G01 X0.06199 Y-0.59475
G01 X0.05890 Y-0.59783
G01 X0.05798 Y-0.59849
G01 X0.05166 Y-0.60165
G01 X0.05010 Y-0.60206
G01 X0.04889 Y-0.60209
G01 X0.04771 Y-0.60186
G01 X0.04659 Y-0.60141
G01 X0.04559 Y-0.60073
G01 X0.04451 Y-0.59954
G01 X0.04393 Y-0.59848
G01 X0.04352 Y-0.59692
G01 X0.04350 Y-0.59571
G01 X0.04372 Y-0.59453
G01 X0.04461 Y-0.59273
G01 X0.04572 Y-0.59157
G01 X0.04674 Y-0.59092
G01 X0.05151 Y-0.58854
G01 X0.05279 Y-0.58726
G01 X0.05713 Y-0.57640
G01 X0.04382 Y-0.53913
G01 X0.04353 Y-0.53796
G01 X0.04349 Y-0.53675
G01 X0.04396 Y-0.53480
G01 X0.04480 Y-0.53343
G01 X0.04597 Y-0.53233
G01 X0.04778 Y-0.53146
G01 X0.04937 Y-0.53124
G01 X0.05135 Y-0.53158
G01 X0.05310 Y-0.53256
G01 X0.05420 Y-0.53373
G01 X0.05494 Y-0.53516
G01 X0.06344 Y-0.55896
G01 X0.07194 Y-0.53516
G01 X0.07246 Y-0.53407
G01 X0.07319 Y-0.53311
G01 X0.07444 Y-0.53210
G01 X0.07631 Y-0.53136
G01 X0.07832 Y-0.53130
G01 X0.07987 Y-0.53173
G01 X0.08124 Y-0.53257
G01 X0.08255 Y-0.53409
G01 X0.08329 Y-0.53595
G01 X0.08340 Y-0.53756
G04 P0 ( dwell for no time -- G64 should not smooth over this point )
G00 Z0.08000 ( retract )

G00 X0.10491 Y-0.50041 ( rapid move to begin. )
G01 F180.00000
( Mill infeed pass 1/1 )
G01 Z-0.04000
G04 P0 ( dwell for no time -- G64 should not smooth over this point )
G01 F360.00000
G01 X0.10491 Y-0.50041
G01 X0.10477 Y-0.49879
G01 X0.10433 Y-0.49766
G01 X0.10388 Y-0.49698
G01 X0.10302 Y-0.49612
G01 X0.10234 Y-0.49567
G01 X0.10121 Y-0.49523
G01 X0.10041 Y-0.49510
G01 X0.05000 Y-0.49508
G01 X0.04919 Y-0.49515
G01 X0.04802 Y-0.49549
G01 X0.04667 Y-0.49638
G01 X0.04567 Y-0.49766
G01 X0.04515 Y-0.49919
G01 X0.04515 Y-0.50081
G01 X0.04567 Y-0.50234
G01 X0.04667 Y-0.50362
G01 X0.04802 Y-0.50451
G01 X0.04959 Y-0.50490
G01 X0.10041 Y-0.50490
G01 X0.10198 Y-0.50451
G01 X0.10333 Y-0.50362
G01 X0.10433 Y-0.50234
G01 X0.10477 Y-0.50121
G01 X0.10491 Y-0.50041
G04 P0 ( dwell for no time -- G64 should not smooth over this point )
G00 Z0.08000 ( retract )

G00 X0.15089 Y-0.54518 ( rapid move to begin. )
G01 F180.00000
( Mill infeed pass 1/1 )
G01 Z-0.04000
G04 P0 ( dwell for no time -- G64 should not smooth over this point )
G01 F360.00000
G01 X0.15089 Y-0.54518
G01 X0.15085 Y-0.54639
G01 X0.15024 Y-0.54830
G01 X0.14903 Y-0.54990
G01 X0.14735 Y-0.55100
G01 X0.14540 Y-0.55148
G01 X0.09920 Y-0.55143
G01 X0.09765 Y-0.55100
G01 X0.09597 Y-0.54990
G01 X0.09476 Y-0.54830
G01 X0.09415 Y-0.54639
G01 X0.09422 Y-0.54438
G01 X0.09495 Y-0.54251
G01 X0.09627 Y-0.54100
G01 X0.09802 Y-0.54002
G01 X0.10000 Y-0.53968
G01 X0.14580 Y-0.53973
G01 X0.14697 Y-0.54002
G01 X0.14806 Y-0.54054
G01 X0.14903 Y-0.54127
G01 X0.14982 Y-0.54218
G01 X0.15068 Y-0.54399
G01 X0.15089 Y-0.54518
G01 X0.15085 Y-0.56326
G01 X0.15024 Y-0.56517
G01 X0.14903 Y-0.56677
G01 X0.14735 Y-0.56787
G01 X0.14540 Y-0.56835
G01 X0.09920 Y-0.56831
G01 X0.09765 Y-0.56787
G01 X0.09597 Y-0.56677
G01 X0.09476 Y-0.56517
G01 X0.09415 Y-0.56326
G01 X0.09422 Y-0.56125
G01 X0.09495 Y-0.55939
G01 X0.09627 Y-0.55788
G01 X0.09802 Y-0.55689
G01 X0.10000 Y-0.55655
G01 X0.14580 Y-0.55661
G01 X0.14697 Y-0.55689
G01 X0.14806 Y-0.55741
G01 X0.14903 Y-0.55814
G01 X0.14982 Y-0.55905
G01 X0.15068 Y-0.56086
G01 X0.15089 Y-0.56205
G01 X0.17480 Y-0.64598
G01 X0.17448 Y-0.64406
G01 X0.17137 Y-0.63771
G01 X0.17011 Y-0.63603
G01 X0.16873 Y-0.63507
G01 X0.16201 Y-0.63184
G01 X0.16046 Y-0.63164
G01 X0.15163 Y-0.63165
G01 X0.15010 Y-0.63196
G01 X0.14756 Y-0.63317
G01 X0.14666 Y-0.63250
G01 X0.14557 Y-0.63198
G01 X0.14439 Y-0.63169
G01 X0.14319 Y-0.63165
G01 X0.14124 Y-0.63213
G01 X0.14018 Y-0.63272
G01 X0.13927 Y-0.63351
G01 X0.13817 Y-0.63519
G01 X0.13770 Y-0.63714
G01 X0.13768 Y-0.67691
G01 X0.13781 Y-0.67811
G01 X0.13817 Y-0.67926
G01 X0.13877 Y-0.68032
G01 X0.13956 Y-0.68123
G01 X0.14052 Y-0.68196
G01 X0.14200 Y-0.68260
G01 X0.14359 Y-0.68282
G01 X0.14518 Y-0.68260
G01 X0.14666 Y-0.68196
G01 X0.14762 Y-0.68123
G01 X0.14841 Y-0.68032
G01 X0.14915 Y-0.67889
G01 X0.14949 Y-0.67691
G01 X0.14949 Y-0.64561
G01 X0.14990 Y-0.64521
G01 X0.15342 Y-0.64345
G01 X0.15907 Y-0.64345
G01 X0.16169 Y-0.64475
G01 X0.16299 Y-0.64737
G01 X0.16299 Y-0.67691
G01 X0.16321 Y-0.67851
G01 X0.16366 Y-0.67963
G01 X0.16432 Y-0.68064
G01 X0.16549 Y-0.68174
G01 X0.16655 Y-0.68233
G01 X0.16809 Y-0.68276
G01 X0.16970 Y-0.68276
G01 X0.17088 Y-0.68248
G01 X0.17230 Y-0.68174
G01 X0.17321 Y-0.68094
G01 X0.17431 Y-0.67926
G01 X0.17479 Y-0.67732
G01 X0.17480 Y-0.64598
G04 P0 ( dwell for no time -- G64 should not smooth over this point )
G00 Z0.08000 ( retract )

G00 X0.36180 Y-0.55060 ( rapid move to begin. )
G01 F180.00000
( Mill infeed pass 1/1 )
G01 Z-0.04000
G04 P0 ( dwell for no time -- G64 should not smooth over this point )
G01 F360.00000
G01 X0.36180 Y-0.55060
G01 X0.36167 Y-0.54820
G01 X0.36107 Y-0.54588
G01 X0.36021 Y-0.54407
G01 X0.35880 Y-0.54212
G01 X0.35702 Y-0.54050
G01 X0.35496 Y-0.53928
G01 X0.35268 Y-0.53850
G01 X0.35070 Y-0.53821
G01 X0.34830 Y-0.53831
G01 X0.34597 Y-0.53890
G01 X0.34415 Y-0.53974
G01 X0.34220 Y-0.54113
G01 X0.34056 Y-0.54290
G01 X0.33932 Y-0.54495
G01 X0.33852 Y-0.54722
G01 X0.33820 Y-0.54960
G01 X0.33836 Y-0.55200
G01 X0.33886 Y-0.55393
G01 X0.33989 Y-0.55611
G01 X0.34134 Y-0.55803
G01 X0.34314 Y-0.55961
G01 X0.34486 Y-0.56063
G01 X0.34712 Y-0.56145
G01 X0.34950 Y-0.56180
G01 X0.35190 Y-0.56166
G01 X0.35422 Y-0.56103
G01 X0.35636 Y-0.55995
G01 X0.35795 Y-0.55873
G01 X0.35956 Y-0.55694
G01 X0.36059 Y-0.55523
G01 X0.36143 Y-0.55298
G01 X0.36180 Y-0.55060
G01 X0.44873 Y-0.55975
G01 X0.44873 Y-0.53072
G01 X0.43193 Y-0.49713
G01 X0.41716 Y-0.48236
G01 X0.38356 Y-0.46556
G01 X0.26556 Y-0.46556
G01 X0.26556 Y-0.62491
G01 X0.38356 Y-0.62491
G01 X0.41716 Y-0.60812
G01 X0.43193 Y-0.59335
G01 X0.44873 Y-0.55975
G04 P0 ( dwell for no time -- G64 should not smooth over this point )
G00 Z0.08000 ( retract )

G00 X0.91588 Y-0.02601 ( rapid move to begin. )
G01 F180.00000
( Mill infeed pass 1/1 )
G01 Z-0.04000
G04 P0 ( dwell for no time -- G64 should not smooth over this point )
G01 F360.00000
G01 X0.91588 Y-0.02601
G01 X0.91585 Y-0.02762
G01 X0.91521 Y-0.02952
G01 X0.91426 Y-0.03082
G01 X0.91264 Y-0.03200
G01 X0.91072 Y-0.03258
G01 X0.90871 Y-0.03247
G01 X0.90757 Y-0.03209
G01 X0.90653 Y-0.03148
G01 X0.90537 Y-0.03036
G01 X0.89454 Y-0.01659
G01 X0.88372 Y-0.03036
G01 X0.88257 Y-0.03148
G01 X0.88152 Y-0.03209
G01 X0.88038 Y-0.03247
G01 X0.87837 Y-0.03258
G01 X0.87645 Y-0.03200
G01 X0.87483 Y-0.03082
G01 X0.87388 Y-0.02952
G01 X0.87324 Y-0.02762
G01 X0.87322 Y-0.02601
G01 X0.87379 Y-0.02409
G01 X0.87444 Y-0.02307
G01 X0.88704 Y-0.00703
G01 X0.87444 Y0.00901
G01 X0.87379 Y0.01003
G01 X0.87322 Y0.01195
G01 X0.87324 Y0.01356
G01 X0.87370 Y0.01510
G01 X0.87483 Y0.01676
G01 X0.87645 Y0.01794
G01 X0.87837 Y0.01852
G01 X0.87958 Y0.01854
G01 X0.88077 Y0.01831
G01 X0.88257 Y0.01742
G01 X0.88372 Y0.01630
G01 X0.89454 Y0.00253
G01 X0.90563 Y0.01661
G01 X0.90686 Y0.01765
G01 X0.90794 Y0.01818
G01 X0.90951 Y0.01854
G01 X0.91112 Y0.01845
G01 X0.91300 Y0.01775
G01 X0.91426 Y0.01676
G01 X0.91539 Y0.01510
G01 X0.91585 Y0.01356
G01 X0.91588 Y0.01195
G01 X0.91547 Y0.01039
G01 X0.91466 Y0.00901
G01 X0.90206 Y-0.00703
G01 X0.91466 Y-0.02307
G01 X0.91530 Y-0.02409
G01 X0.91588 Y-0.02601
G04 P0 ( dwell for no time -- G64 should not smooth over this point )
G00 Z0.08000 ( retract )

G00 X1.00492 Y-0.05000 ( rapid move to begin. )
G01 F180.00000
( Mill infeed pass 1/1 )
G01 Z-0.04000
G04 P0 ( dwell for no time -- G64 should not smooth over this point )
G01 F360.00000
G01 X1.00492 Y-0.05000
G01 X1.00486 Y-0.04919
G01 X1.00451 Y-0.04802
G01 X1.00362 Y-0.04667
G01 X1.00234 Y-0.04567
G01 X1.00081 Y-0.04514
G01 X0.99919 Y-0.04514
G01 X0.99766 Y-0.04567
G01 X0.99638 Y-0.04667
G01 X0.99550 Y-0.04802
G01 X0.99510 Y-0.04959
G01 X0.99510 Y-0.10041
G01 X0.99550 Y-0.10198
G01 X0.99638 Y-0.10333
G01 X0.99766 Y-0.10433
G01 X0.99879 Y-0.10477
G01 X0.99960 Y-0.10490
G01 X1.00121 Y-0.10477
G01 X1.00234 Y-0.10433
G01 X1.00302 Y-0.10388
G01 X1.00388 Y-0.10302
G01 X1.00433 Y-0.10234
G01 X1.00477 Y-0.10121
G01 X1.00490 Y-0.10041
G01 X1.00492 Y-0.05000
G01 X0.98340 Y0.00462
G01 X0.98335 Y0.00341
G01 X0.98275 Y0.00150
G01 X0.98153 Y-0.00010
G01 X0.97986 Y-0.00120
G01 X0.97791 Y-0.00167
G01 X0.93171 Y-0.00163
G01 X0.93016 Y-0.00120
G01 X0.92848 Y-0.00010
G01 X0.92727 Y0.00150
G01 X0.92666 Y0.00341
G01 X0.92673 Y0.00542
G01 X0.92746 Y0.00729
G01 X0.92878 Y0.00880
G01 X0.93053 Y0.00978
G01 X0.93251 Y0.01012
G01 X0.97831 Y0.01007
G01 X0.97948 Y0.00978
G01 X0.98057 Y0.00926
G01 X0.98153 Y0.00853
G01 X0.98233 Y0.00762
G01 X0.98319 Y0.00581
G01 X0.98340 Y0.00462
G01 X0.98340 Y-0.01225
G01 X0.98319 Y-0.01106
G01 X0.98233 Y-0.00925
G01 X0.98153 Y-0.00834
G01 X0.98057 Y-0.00761
G01 X0.97948 Y-0.00709
G01 X0.97831 Y-0.00680
G01 X0.93251 Y-0.00675
G01 X0.93053 Y-0.00709
G01 X0.92878 Y-0.00807
G01 X0.92746 Y-0.00958
G01 X0.92673 Y-0.01145
G01 X0.92666 Y-0.01346
G01 X0.92727 Y-0.01537
G01 X0.92848 Y-0.01697
G01 X0.93016 Y-0.01807
G01 X0.93171 Y-0.01850
G01 X0.97791 Y-0.01854
G01 X0.97986 Y-0.01807
G01 X0.98153 Y-0.01697
G01 X0.98275 Y-0.01537
G01 X0.98335 Y-0.01346
G01 X0.98340 Y-0.01225
G01 X0.97982 Y-0.92780
G01 X0.97979 Y-0.66226
G01 X0.97944 Y-0.65863
G01 X0.97865 Y-0.65465
G01 X0.97759 Y-0.65116
G01 X0.97605 Y-0.64741
G01 X0.95151 Y-0.59834
G01 X0.94878 Y-0.59389
G01 X0.94548 Y-0.58984
G01 X0.94320 Y-0.58758
G01 X0.94042 Y-0.58526
G01 X0.93777 Y-0.58343
G01 X0.93499 Y-0.58182
G01 X0.88629 Y-0.55746
G01 X0.88294 Y-0.55602
G01 X0.87908 Y-0.55478
G01 X0.87431 Y-0.55384
G01 X0.86945 Y-0.55349
G01 X0.77340 Y-0.55349
G01 X0.76976 Y-0.55370
G01 X0.76655 Y-0.55416
G01 X0.76183 Y-0.55535
G01 X0.75693 Y-0.55729
G01 X0.70859 Y-0.58145
G01 X0.70612 Y-0.58280
G01 X0.70342 Y-0.58455
G01 X0.70119 Y-0.58625
G01 X0.69908 Y-0.58811
G01 X0.69580 Y-0.59164
G01 X0.69319 Y-0.59520
G01 X0.69082 Y-0.59939
G01 X0.68897 Y-0.60384
G01 X0.68768 Y-0.60847
G01 X0.68697 Y-0.61324
G01 X0.68685 Y-0.61805
G01 X0.68731 Y-0.62285
G01 X0.68836 Y-0.62755
G01 X0.68981 Y-0.63172
G01 X0.69192 Y-0.63604
G01 X0.69454 Y-0.64008
G01 X0.69764 Y-0.64377
G01 X0.70116 Y-0.64706
G01 X0.70472 Y-0.64967
G01 X0.70891 Y-0.65204
G01 X0.71223 Y-0.65348
G01 X0.71528 Y-0.65449
G01 X0.71879 Y-0.65533
G01 X0.72236 Y-0.65585
G01 X0.72597 Y-0.65604
G01 X0.72958 Y-0.65589
G01 X0.73277 Y-0.65548
G01 X0.73630 Y-0.65472
G01 X0.73975 Y-0.65363
G01 X0.74308 Y-0.65223
G01 X0.78310 Y-0.63223
G01 X0.85976 Y-0.63223
G01 X0.88732 Y-0.64601
G01 X0.90111 Y-0.67358
G01 X0.90111 Y-0.68757
G01 X0.88356 Y-0.69634
G01 X0.77340 Y-0.69635
G01 X0.76936 Y-0.69660
G01 X0.76496 Y-0.69735
G01 X0.76106 Y-0.69846
G01 X0.75693 Y-0.70014
G01 X0.70751 Y-0.72486
G01 X0.70441 Y-0.72673
G01 X0.70118 Y-0.72912
G01 X0.69850 Y-0.73154
G01 X0.69604 Y-0.73420
G01 X0.69339 Y-0.73774
G01 X0.69098 Y-0.74191
G01 X0.66699 Y-0.78990
G01 X0.66554 Y-0.79325
G01 X0.66442 Y-0.79672
G01 X0.66342 Y-0.80148
G01 X0.66302 Y-0.80633
G01 X0.66301 Y-0.85517
G01 X0.66326 Y-0.85921
G01 X0.66393 Y-0.86321
G01 X0.66500 Y-0.86712
G01 X0.66664 Y-0.87127
G01 X0.69153 Y-0.92106
G01 X0.69431 Y-0.92548
G01 X0.69765 Y-0.92950
G01 X0.69996 Y-0.93174
G01 X0.70244 Y-0.93378
G01 X0.70475 Y-0.93540
G01 X0.70751 Y-0.93704
G01 X0.75620 Y-0.96140
G01 X0.75954 Y-0.96288
G01 X0.76300 Y-0.96405
G01 X0.76655 Y-0.96488
G01 X0.77016 Y-0.96539
G01 X0.77381 Y-0.96556
G01 X0.89489 Y-0.96551
G01 X0.90012 Y-0.96488
G01 X0.90522 Y-0.96357
G01 X0.90937 Y-0.96193
G01 X0.91728 Y-0.95800
G01 X0.92022 Y-0.95995
G01 X0.92304 Y-0.96149
G01 X0.92634 Y-0.96293
G01 X0.92939 Y-0.96396
G01 X0.93250 Y-0.96474
G01 X0.93567 Y-0.96527
G01 X0.93927 Y-0.96554
G01 X0.94248 Y-0.96551
G01 X0.94568 Y-0.96521
G01 X0.94924 Y-0.96457
G01 X0.95234 Y-0.96373
G01 X0.95573 Y-0.96249
G01 X0.95899 Y-0.96093
G01 X0.96210 Y-0.95909
G01 X0.96503 Y-0.95697
G01 X0.96745 Y-0.95487
G01 X0.97023 Y-0.95197
G01 X0.97247 Y-0.94913
G01 X0.97464 Y-0.94576
G01 X0.97629 Y-0.94254
G01 X0.97777 Y-0.93881
G01 X0.97877 Y-0.93534
G01 X0.97950 Y-0.93139
G01 X0.97982 Y-0.92780
G01 X1.11180 Y-0.45060
G01 X1.11167 Y-0.44820
G01 X1.11100 Y-0.44573
G01 X1.11021 Y-0.44406
G01 X1.10880 Y-0.44212
G01 X1.10702 Y-0.44050
G01 X1.10496 Y-0.43928
G01 X1.10269 Y-0.43850
G01 X1.10070 Y-0.43821
G01 X1.09830 Y-0.43831
G01 X1.09597 Y-0.43890
G01 X1.09415 Y-0.43974
G01 X1.09220 Y-0.44113
G01 X1.09056 Y-0.44290
G01 X1.08932 Y-0.44495
G01 X1.08852 Y-0.44722
G01 X1.08820 Y-0.44960
G01 X1.08836 Y-0.45200
G01 X1.08886 Y-0.45393
G01 X1.08989 Y-0.45611
G01 X1.09134 Y-0.45803
G01 X1.09314 Y-0.45961
G01 X1.09486 Y-0.46064
G01 X1.09712 Y-0.46145
G01 X1.09950 Y-0.46180
G01 X1.10190 Y-0.46166
G01 X1.10422 Y-0.46103
G01 X1.10636 Y-0.45995
G01 X1.10795 Y-0.45873
G01 X1.10956 Y-0.45694
G01 X1.11059 Y-0.45523
G01 X1.11143 Y-0.45298
G01 X1.11180 Y-0.45060
G01 X1.04245 Y-0.02631
G01 X1.04241 Y-0.02752
G01 X1.04212 Y-0.02869
G01 X1.04138 Y-0.03012
G01 X1.03996 Y-0.03154
G01 X1.03854 Y-0.03228
G01 X1.03696 Y-0.03261
G01 X1.00281 Y-0.03262
G01 X1.00084 Y-0.03228
G01 X0.99941 Y-0.03154
G01 X0.99823 Y-0.03044
G01 X0.99740 Y-0.02907
G01 X0.99703 Y-0.02792
G01 X0.99692 Y-0.02631
G01 X0.99725 Y-0.02474
G01 X0.99799 Y-0.02331
G01 X0.99878 Y-0.02240
G01 X1.00046 Y-0.02130
G01 X1.00201 Y-0.02086
G01 X1.01378 Y-0.02081
G01 X1.01378 Y0.01527
G01 X1.01234 Y0.01384
G01 X1.01141 Y0.01318
G01 X1.00545 Y0.01018
G01 X1.00353 Y0.00960
G01 X1.00192 Y0.00963
G01 X1.00076 Y0.00993
G01 X0.99934 Y0.01069
G01 X0.99844 Y0.01150
G01 X0.99772 Y0.01247
G01 X0.99722 Y0.01357
G01 X0.99692 Y0.01515
G01 X0.99697 Y0.01635
G01 X0.99728 Y0.01752
G01 X0.99804 Y0.01894
G01 X0.99915 Y0.02010
G01 X1.00017 Y0.02075
G01 X1.00494 Y0.02313
G01 X1.00947 Y0.02766
G01 X1.01501 Y0.03595
G01 X1.01585 Y0.03683
G01 X1.01686 Y0.03752
G01 X1.01798 Y0.03799
G01 X1.01918 Y0.03822
G01 X1.02040 Y0.03820
G01 X1.02197 Y0.03778
G01 X1.02304 Y0.03720
G01 X1.02397 Y0.03640
G01 X1.02492 Y0.03508
G01 X1.02537 Y0.03395
G01 X1.02559 Y0.03234
G01 X1.02559 Y-0.02081
G01 X1.03696 Y-0.02082
G01 X1.03815 Y-0.02103
G01 X1.03927 Y-0.02147
G01 X1.04087 Y-0.02268
G01 X1.04197 Y-0.02436
G01 X1.04245 Y-0.02631
G01 X1.11180 Y-0.45060
G01 X1.06777 Y0.01265
G01 X1.06743 Y0.01463
G01 X1.06645 Y0.01638
G01 X1.06494 Y0.01770
G01 X1.06307 Y0.01843
G01 X1.06106 Y0.01850
G01 X1.05915 Y0.01790
G01 X1.05755 Y0.01668
G01 X1.05645 Y0.01501
G01 X1.05602 Y0.01346
G01 X1.05602 Y-0.02752
G01 X1.05645 Y-0.02907
G01 X1.05755 Y-0.03075
G01 X1.05915 Y-0.03196
G01 X1.06106 Y-0.03256
G01 X1.06227 Y-0.03261
G01 X1.06346 Y-0.03240
G01 X1.06527 Y-0.03154
G01 X1.06618 Y-0.03075
G01 X1.06691 Y-0.02978
G01 X1.06743 Y-0.02869
G01 X1.06772 Y-0.02752
G01 X1.06777 Y0.01265
G01 X1.07058 Y0.02933
G01 X1.07031 Y0.02774
G01 X1.06983 Y0.02663
G01 X1.06886 Y0.02535
G01 X1.06585 Y0.02235
G01 X1.06486 Y0.02162
G01 X1.06287 Y0.02090
G01 X1.06167 Y0.02081
G01 X1.06047 Y0.02098
G01 X1.05899 Y0.02156
G01 X1.05799 Y0.02226
G01 X1.05435 Y0.02596
G01 X1.05372 Y0.02699
G01 X1.05324 Y0.02852
G01 X1.05315 Y0.02973
G01 X1.05332 Y0.03093
G01 X1.05391 Y0.03242
G01 X1.05461 Y0.03341
G01 X1.05846 Y0.03716
G01 X1.05952 Y0.03775
G01 X1.06086 Y0.03816
G01 X1.06207 Y0.03824
G01 X1.06327 Y0.03808
G01 X1.06459 Y0.03758
G01 X1.06575 Y0.03679
G01 X1.06913 Y0.03341
G01 X1.06983 Y0.03242
G01 X1.07042 Y0.03093
G01 X1.07058 Y0.02933
G04 P0 ( dwell for no time -- G64 should not smooth over this point )
G00 Z0.08000 ( retract )

G00 X1.12121 Y0.00422 ( rapid move to begin. )
G01 F180.00000
( Mill infeed pass 1/1 )
G01 Z-0.04000
G04 P0 ( dwell for no time -- G64 should not smooth over this point )
G01 F360.00000
G01 X1.12121 Y0.00422
G01 X1.12119 Y-0.02712
G01 X1.12072 Y-0.02907
G01 X1.11962 Y-0.03075
G01 X1.11870 Y-0.03154
G01 X1.11728 Y-0.03228
G01 X1.11610 Y-0.03256
G01 X1.11450 Y-0.03256
G01 X1.11295 Y-0.03213
G01 X1.11189 Y-0.03154
G01 X1.11072 Y-0.03044
G01 X1.11006 Y-0.02943
G01 X1.10961 Y-0.02831
G01 X1.10939 Y-0.02671
G01 X1.10939 Y0.00282
G01 X1.10808 Y0.00544
G01 X1.10547 Y0.00675
G01 X1.09982 Y0.00675
G01 X1.09630 Y0.00499
G01 X1.09590 Y0.00458
G01 X1.09590 Y-0.02671
G01 X1.09555 Y-0.02869
G01 X1.09481 Y-0.03012
G01 X1.09402 Y-0.03103
G01 X1.09306 Y-0.03176
G01 X1.09158 Y-0.03240
G01 X1.08999 Y-0.03262
G01 X1.08840 Y-0.03240
G01 X1.08692 Y-0.03176
G01 X1.08596 Y-0.03103
G01 X1.08516 Y-0.03012
G01 X1.08457 Y-0.02907
G01 X1.08421 Y-0.02792
G01 X1.08408 Y-0.02671
G01 X1.08410 Y0.01306
G01 X1.08457 Y0.01501
G01 X1.08567 Y0.01668
G01 X1.08658 Y0.01748
G01 X1.08764 Y0.01807
G01 X1.08959 Y0.01854
G01 X1.09079 Y0.01850
G01 X1.09197 Y0.01822
G01 X1.09306 Y0.01770
G01 X1.09396 Y0.01702
G01 X1.09651 Y0.01824
G01 X1.09804 Y0.01855
G01 X1.10686 Y0.01856
G01 X1.10841 Y0.01835
G01 X1.11513 Y0.01512
G01 X1.11651 Y0.01416
G01 X1.11777 Y0.01248
G01 X1.12088 Y0.00614
G01 X1.12121 Y0.00422

G04 P0 ( dwell for no time -- G64 should not smooth over this point )
G00 Z1.000000 ( retract )

M5 ( Spindle off. )
G04 P1.000000
M9 ( Coolant off. )
M2 ( Program end. )

