( pcb2gcode 2.5.0 )
( Software-independent Gcode )

G94 ( Inches per minute feed rate. )
G20 ( Units == INCHES. )

G90 ( Absolute coordinates. )
G00 S12000 ( RPM spindle speed. )
G64 P0.00040 ( set maximum deviation from commanded toolpath )
G01 F360.00000 ( Feedrate. )


G00 Z1.00000 (Retract to tool change height)
T0
M5      (Spindle stop.)
G04 P1.00000 (Wait for spindle to stop)
(MSG, Change tool bit to mill diameter 0.00000in)
M6      (Tool change.)
M0      (Temporary machine stop.)
M3 ( Spindle on clockwise. )
G04 P1.00000 (Wait for spindle to get up to speed)
G04 P0 ( dwell for no time -- G64 should not smooth over this point )
G00 Z0.08000 ( retract )

G00 X2.05000 Y-0.00492 ( rapid move to begin. )
G01 F180.00000
( Mill infeed pass 1/1 )
G01 Z-0.04000
G04 P0 ( dwell for no time -- G64 should not smooth over this point )
G01 F360.00000
G01 X2.05000 Y-0.00492
G01 X2.00492 Y-0.00492
G01 X2.00492 Y-0.05000
G01 X2.00455 Y-0.05188
G01 X2.00348 Y-0.05348
G01 X2.00188 Y-0.05455
G01 X2.00000 Y-0.05492
G01 X1.99812 Y-0.05455
G01 X1.99652 Y-0.05348
G01 X1.99545 Y-0.05188
G01 X1.99508 Y-0.05000
G01 X1.99508 Y-0.00492
G01 X1.95000 Y-0.00492
G01 X1.94812 Y-0.00455
G01 X1.94652 Y-0.00348
G01 X1.94545 Y-0.00188
G01 X1.94508 Y0.00000
G01 X1.94545 Y0.00188
G01 X1.94652 Y0.00348
G01 X1.94812 Y0.00455
G01 X1.95000 Y0.00492
G01 X1.99508 Y0.00492
G01 X1.99508 Y0.05000
G01 X2.00492 Y0.05000
G01 X2.00492 Y0.00492
G01 X2.05000 Y0.00483
G01 X2.05000 Y-0.00492
G01 X1.83699 Y-0.59286
G01 X1.83623 Y-0.58518
G01 X1.83399 Y-0.57779
G01 X1.83035 Y-0.57098
G01 X1.82546 Y-0.56502
G01 X1.81949 Y-0.56012
G01 X1.81269 Y-0.55648
G01 X1.80530 Y-0.55424
G01 X1.79762 Y-0.55349
G01 X1.78994 Y-0.55424
G01 X1.78255 Y-0.55648
G01 X1.77575 Y-0.56012
G01 X1.76978 Y-0.56502
G01 X1.64651 Y-0.68829
G01 X1.64651 Y-0.42619
G01 X1.64576 Y-0.41851
G01 X1.64352 Y-0.41112
G01 X1.63988 Y-0.40432
G01 X1.63498 Y-0.39835
G01 X1.62902 Y-0.39345
G01 X1.62221 Y-0.38982
G01 X1.61482 Y-0.38758
G01 X1.60714 Y-0.38682
G01 X1.59946 Y-0.38758
G01 X1.59208 Y-0.38982
G01 X1.58527 Y-0.39345
G01 X1.57930 Y-0.39835
G01 X1.57441 Y-0.40432
G01 X1.57077 Y-0.41112
G01 X1.56853 Y-0.41851
G01 X1.56777 Y-0.42619
G01 X1.56777 Y-0.92619
G01 X1.56853 Y-0.93387
G01 X1.57077 Y-0.94126
G01 X1.57441 Y-0.94806
G01 X1.57930 Y-0.95403
G01 X1.58527 Y-0.95893
G01 X1.59208 Y-0.96256
G01 X1.59946 Y-0.96480
G01 X1.60714 Y-0.96556
G01 X1.61482 Y-0.96480
G01 X1.62221 Y-0.96256
G01 X1.62902 Y-0.95893
G01 X1.63498 Y-0.95403
G01 X1.63988 Y-0.94806
G01 X1.64352 Y-0.94126
G01 X1.64576 Y-0.93387
G01 X1.64651 Y-0.92619
G01 X1.64651 Y-0.79964
G01 X1.65050 Y-0.79565
G01 X1.76612 Y-0.94981
G01 X1.77134 Y-0.95550
G01 X1.77756 Y-0.96007
G01 X1.78456 Y-0.96333
G01 X1.79205 Y-0.96516
G01 X1.79976 Y-0.96550
G01 X1.80739 Y-0.96433
G01 X1.81464 Y-0.96169
G01 X1.82124 Y-0.95769
G01 X1.82693 Y-0.95247
G01 X1.83150 Y-0.94625
G01 X1.83476 Y-0.93925
G01 X1.83659 Y-0.93176
G01 X1.83693 Y-0.92405
G01 X1.83576 Y-0.91642
G01 X1.83312 Y-0.90917
G01 X1.82912 Y-0.90257
G01 X1.70675 Y-0.73941
G01 X1.82546 Y-0.62069
G01 X1.83036 Y-0.61473
G01 X1.83399 Y-0.60792
G01 X1.83623 Y-0.60054
G01 X1.83699 Y-0.59286
G04 P0 ( dwell for no time -- G64 should not smooth over this point )
G00 Z0.08000 ( retract )

G00 X1.43213 Y-0.89959 ( rapid move to begin. )
G01 F180.00000
( Mill infeed pass 1/1 )
G01 Z-0.04000
G04 P0 ( dwell for no time -- G64 should not smooth over this point )
G01 F360.00000
G01 X1.43213 Y-0.89959
G01 X1.43192 Y-0.90730
G01 X1.43021 Y-0.91483
G01 X1.42706 Y-0.92188
G01 X1.42260 Y-0.92817
G01 X1.41700 Y-0.93348
G01 X1.41047 Y-0.93759
G01 X1.36285 Y-0.96140
G01 X1.35428 Y-0.96451
G01 X1.34524 Y-0.96556
G01 X1.25000 Y-0.96556
G01 X1.24096 Y-0.96451
G01 X1.23239 Y-0.96140
G01 X1.18477 Y-0.93759
G01 X1.17936 Y-0.93432
G01 X1.17454 Y-0.93022
G01 X1.15073 Y-0.90641
G01 X1.14663 Y-0.90159
G01 X1.14336 Y-0.89618
G01 X1.11955 Y-0.84856
G01 X1.11645 Y-0.84000
G01 X1.11539 Y-0.83095
G01 X1.11539 Y-0.68810
G01 X1.11645 Y-0.67905
G01 X1.11955 Y-0.67049
G01 X1.14336 Y-0.62287
G01 X1.14663 Y-0.61746
G01 X1.15073 Y-0.61264
G01 X1.17454 Y-0.58883
G01 X1.17936 Y-0.58473
G01 X1.18478 Y-0.58145
G01 X1.23239 Y-0.55764
G01 X1.24096 Y-0.55454
G01 X1.25000 Y-0.55349
G01 X1.34524 Y-0.55349
G01 X1.35428 Y-0.55454
G01 X1.36285 Y-0.55764
G01 X1.41046 Y-0.58145
G01 X1.41700 Y-0.58556
G01 X1.42260 Y-0.59087
G01 X1.42706 Y-0.59717
G01 X1.43021 Y-0.60421
G01 X1.43192 Y-0.61174
G01 X1.43213 Y-0.61946
G01 X1.43083 Y-0.62706
G01 X1.42807 Y-0.63427
G01 X1.42396 Y-0.64080
G01 X1.41865 Y-0.64641
G01 X1.41236 Y-0.65087
G01 X1.40531 Y-0.65402
G01 X1.39778 Y-0.65573
G01 X1.39007 Y-0.65594
G01 X1.38246 Y-0.65464
G01 X1.37525 Y-0.65188
G01 X1.33595 Y-0.63223
G01 X1.25929 Y-0.63223
G01 X1.22570 Y-0.64902
G01 X1.21093 Y-0.66380
G01 X1.19413 Y-0.69739
G01 X1.19413 Y-0.82166
G01 X1.21093 Y-0.85525
G01 X1.22570 Y-0.87002
G01 X1.25930 Y-0.88682
G01 X1.33595 Y-0.88682
G01 X1.37525 Y-0.86717
G01 X1.38246 Y-0.86441
G01 X1.39007 Y-0.86311
G01 X1.39778 Y-0.86332
G01 X1.40531 Y-0.86503
G01 X1.41236 Y-0.86818
G01 X1.41865 Y-0.87264
G01 X1.42396 Y-0.87824
G01 X1.42807 Y-0.88477
G01 X1.43083 Y-0.89198
G01 X1.43213 Y-0.89959
G04 P0 ( dwell for no time -- G64 should not smooth over this point )
G00 Z0.08000 ( retract )

G00 X0.90111 Y-0.87805 ( rapid move to begin. )
G01 F180.00000
( Mill infeed pass 1/1 )
G01 Z-0.04000
G04 P0 ( dwell for no time -- G64 should not smooth over this point )
G01 F360.00000
G01 X0.90111 Y-0.87805
G01 X0.90111 Y-0.77412
G01 X0.89286 Y-0.77508
G01 X0.78310 Y-0.77508
G01 X0.75554 Y-0.78887
G01 X0.74175 Y-0.81644
G01 X0.74175 Y-0.84547
G01 X0.75554 Y-0.87304
G01 X0.78310 Y-0.88682
G01 X0.88356 Y-0.88682
G01 X0.90111 Y-0.87805
G04 P0 ( dwell for no time -- G64 should not smooth over this point )
G00 Z0.08000 ( retract )

G00 X0.55128 Y-0.83095 ( rapid move to begin. )
G01 F180.00000
( Mill infeed pass 1/1 )
G01 Z-0.04000
G04 P0 ( dwell for no time -- G64 should not smooth over this point )
G01 F360.00000
G01 X0.55128 Y-0.83095
G01 X0.55128 Y-0.75952
G01 X0.55022 Y-0.75048
G01 X0.54712 Y-0.74192
G01 X0.52331 Y-0.69430
G01 X0.52004 Y-0.68888
G01 X0.51594 Y-0.68406
G01 X0.49212 Y-0.66026
G01 X0.48498 Y-0.65460
G01 X0.48297 Y-0.65366
G01 X0.49213 Y-0.64450
G01 X0.49622 Y-0.63968
G01 X0.49950 Y-0.63427
G01 X0.52331 Y-0.58665
G01 X0.52641 Y-0.57809
G01 X0.52747 Y-0.56905
G01 X0.52747 Y-0.52143
G01 X0.52641 Y-0.51238
G01 X0.52331 Y-0.50382
G01 X0.49950 Y-0.45620
G01 X0.49622 Y-0.45079
G01 X0.49212 Y-0.44597
G01 X0.46832 Y-0.42216
G01 X0.46350 Y-0.41806
G01 X0.45809 Y-0.41479
G01 X0.41047 Y-0.39098
G01 X0.40190 Y-0.38787
G01 X0.39286 Y-0.38682
G01 X0.22619 Y-0.38682
G01 X0.21851 Y-0.38758
G01 X0.21113 Y-0.38982
G01 X0.20432 Y-0.39345
G01 X0.19835 Y-0.39835
G01 X0.19346 Y-0.40432
G01 X0.18982 Y-0.41112
G01 X0.18758 Y-0.41851
G01 X0.18682 Y-0.42619
G01 X0.18682 Y-0.92619
G01 X0.18758 Y-0.93387
G01 X0.18982 Y-0.94126
G01 X0.19346 Y-0.94806
G01 X0.19835 Y-0.95403
G01 X0.20432 Y-0.95893
G01 X0.21113 Y-0.96256
G01 X0.21851 Y-0.96480
G01 X0.22619 Y-0.96556
G01 X0.41667 Y-0.96556
G01 X0.42571 Y-0.96451
G01 X0.43427 Y-0.96140
G01 X0.48189 Y-0.93759
G01 X0.48731 Y-0.93432
G01 X0.49212 Y-0.93022
G01 X0.51594 Y-0.90641
G01 X0.52004 Y-0.90159
G01 X0.52331 Y-0.89618
G01 X0.54712 Y-0.84856
G01 X0.55022 Y-0.84000
G01 X0.55128 Y-0.83095
G04 P0 ( dwell for no time -- G64 should not smooth over this point )
G00 Z0.08000 ( retract )

G00 X0.47253 Y-0.82166 ( rapid move to begin. )
G01 F180.00000
( Mill infeed pass 1/1 )
G01 Z-0.04000
G04 P0 ( dwell for no time -- G64 should not smooth over this point )
G01 F360.00000
G01 X0.47253 Y-0.82166
G01 X0.45574 Y-0.85525
G01 X0.44097 Y-0.87002
G01 X0.40737 Y-0.88682
G01 X0.26556 Y-0.88682
G01 X0.26556 Y-0.70366
G01 X0.38647 Y-0.70366
G01 X0.44302 Y-0.72250
G01 X0.45574 Y-0.73523
G01 X0.47253 Y-0.76882
G01 X0.47253 Y-0.82166
G01 X0.36181 Y-0.80000
G01 X0.36159 Y-0.80230
G01 X0.36091 Y-0.80452
G01 X0.35982 Y-0.80656
G01 X0.35835 Y-0.80835
G01 X0.35656 Y-0.80982
G01 X0.35452 Y-0.81091
G01 X0.35231 Y-0.81158
G01 X0.35000 Y-0.81181
G01 X0.34770 Y-0.81158
G01 X0.34548 Y-0.81091
G01 X0.34344 Y-0.80982
G01 X0.34165 Y-0.80835
G01 X0.34018 Y-0.80656
G01 X0.33909 Y-0.80452
G01 X0.33842 Y-0.80230
G01 X0.33819 Y-0.80000
G01 X0.33842 Y-0.79770
G01 X0.33909 Y-0.79548
G01 X0.34018 Y-0.79344
G01 X0.34165 Y-0.79165
G01 X0.34344 Y-0.79018
G01 X0.34548 Y-0.78909
G01 X0.34770 Y-0.78841
G01 X0.35000 Y-0.78819
G01 X0.35231 Y-0.78841
G01 X0.35452 Y-0.78909
G01 X0.35656 Y-0.79018
G01 X0.35835 Y-0.79165
G01 X0.35982 Y-0.79344
G01 X0.36091 Y-0.79548
G01 X0.36159 Y-0.79770
G01 X0.36181 Y-0.80000
G04 P0 ( dwell for no time -- G64 should not smooth over this point )
G00 Z0.08000 ( retract )

G00 X0.08340 Y-0.53685 ( rapid move to begin. )
G01 F180.00000
( Mill infeed pass 1/1 )
G01 Z-0.04000
G04 P0 ( dwell for no time -- G64 should not smooth over this point )
G01 F360.00000
G01 X0.08340 Y-0.53685
G01 X0.08323 Y-0.53571
G01 X0.08284 Y-0.53462
G01 X0.08224 Y-0.53363
G01 X0.08147 Y-0.53277
G01 X0.08054 Y-0.53208
G01 X0.07949 Y-0.53159
G01 X0.07837 Y-0.53131
G01 X0.07721 Y-0.53125
G01 X0.07607 Y-0.53142
G01 X0.07498 Y-0.53181
G01 X0.07398 Y-0.53241
G01 X0.07313 Y-0.53318
G01 X0.07244 Y-0.53412
G01 X0.07194 Y-0.53516
G01 X0.06344 Y-0.55896
G01 X0.05494 Y-0.53516
G01 X0.05445 Y-0.53411
G01 X0.05376 Y-0.53318
G01 X0.05290 Y-0.53241
G01 X0.05191 Y-0.53181
G01 X0.05082 Y-0.53142
G01 X0.04968 Y-0.53125
G01 X0.04852 Y-0.53131
G01 X0.04740 Y-0.53159
G01 X0.04635 Y-0.53208
G01 X0.04542 Y-0.53277
G01 X0.04464 Y-0.53363
G01 X0.04404 Y-0.53462
G01 X0.04365 Y-0.53571
G01 X0.04348 Y-0.53685
G01 X0.04354 Y-0.53801
G01 X0.04382 Y-0.53913
G01 X0.05713 Y-0.57640
G01 X0.05279 Y-0.58726
G01 X0.05151 Y-0.58854
G01 X0.04576 Y-0.59154
G01 X0.04492 Y-0.59233
G01 X0.04425 Y-0.59328
G01 X0.04378 Y-0.59433
G01 X0.04352 Y-0.59546
G01 X0.04349 Y-0.59662
G01 X0.04369 Y-0.59776
G01 X0.04410 Y-0.59884
G01 X0.04472 Y-0.59982
G01 X0.04551 Y-0.60066
G01 X0.04646 Y-0.60133
G01 X0.04751 Y-0.60181
G01 X0.04864 Y-0.60206
G01 X0.04980 Y-0.60209
G01 X0.05094 Y-0.60190
G01 X0.05765 Y-0.59867
G01 X0.05918 Y-0.59757
G01 X0.06275 Y-0.59383
G01 X0.06330 Y-0.59277
G01 X0.06900 Y-0.57850
G01 X0.08306 Y-0.53913
G01 X0.08335 Y-0.53801
G01 X0.08340 Y-0.53685
G04 P0 ( dwell for no time -- G64 should not smooth over this point )
G00 Z0.08000 ( retract )

G00 X0.10492 Y-0.50000 ( rapid move to begin. )
G01 F180.00000
( Mill infeed pass 1/1 )
G01 Z-0.04000
G04 P0 ( dwell for no time -- G64 should not smooth over this point )
G01 F360.00000
G01 X0.10492 Y-0.50000
G01 X0.10455 Y-0.49812
G01 X0.10348 Y-0.49652
G01 X0.10188 Y-0.49545
G01 X0.10000 Y-0.49508
G01 X0.05000 Y-0.49508
G01 X0.04904 Y-0.49517
G01 X0.04727 Y-0.49591
G01 X0.04591 Y-0.49727
G01 X0.04517 Y-0.49904
G01 X0.04508 Y-0.50000
G01 X0.04517 Y-0.50096
G01 X0.04591 Y-0.50273
G01 X0.04727 Y-0.50409
G01 X0.04904 Y-0.50483
G01 X0.05000 Y-0.50492
G01 X0.10000 Y-0.50492
G01 X0.10188 Y-0.50455
G01 X0.10348 Y-0.50348
G01 X0.10455 Y-0.50188
G01 X0.10492 Y-0.50000
G04 P0 ( dwell for no time -- G64 should not smooth over this point )
G00 Z0.08000 ( retract )

G00 X0.15090 Y-0.56246 ( rapid move to begin. )
G01 F180.00000
( Mill infeed pass 1/1 )
G01 Z-0.04000
G04 P0 ( dwell for no time -- G64 should not smooth over this point )
G01 F360.00000
G01 X0.15090 Y-0.56246
G01 X0.15079 Y-0.56130
G01 X0.15045 Y-0.56020
G01 X0.14991 Y-0.55918
G01 X0.14917 Y-0.55828
G01 X0.14828 Y-0.55755
G01 X0.14725 Y-0.55700
G01 X0.14615 Y-0.55666
G01 X0.14499 Y-0.55655
G01 X0.10000 Y-0.55655
G01 X0.09885 Y-0.55666
G01 X0.09774 Y-0.55700
G01 X0.09672 Y-0.55755
G01 X0.09583 Y-0.55828
G01 X0.09509 Y-0.55918
G01 X0.09455 Y-0.56020
G01 X0.09421 Y-0.56130
G01 X0.09410 Y-0.56246
G01 X0.09421 Y-0.56361
G01 X0.09455 Y-0.56472
G01 X0.09509 Y-0.56574
G01 X0.09583 Y-0.56663
G01 X0.09672 Y-0.56737
G01 X0.09774 Y-0.56791
G01 X0.09885 Y-0.56825
G01 X0.10000 Y-0.56836
G01 X0.14499 Y-0.56836
G01 X0.14615 Y-0.56825
G01 X0.14725 Y-0.56791
G01 X0.14828 Y-0.56737
G01 X0.14917 Y-0.56663
G01 X0.14991 Y-0.56574
G01 X0.15045 Y-0.56472
G01 X0.15079 Y-0.56361
G01 X0.15090 Y-0.56246
G01 X0.15090 Y-0.54558
G01 X0.15079 Y-0.54674
G01 X0.15045 Y-0.54784
G01 X0.14991 Y-0.54886
G01 X0.14917 Y-0.54976
G01 X0.14828 Y-0.55049
G01 X0.14725 Y-0.55104
G01 X0.14615 Y-0.55138
G01 X0.14499 Y-0.55149
G01 X0.10000 Y-0.55149
G01 X0.09885 Y-0.55138
G01 X0.09774 Y-0.55104
G01 X0.09672 Y-0.55049
G01 X0.09583 Y-0.54976
G01 X0.09509 Y-0.54886
G01 X0.09455 Y-0.54784
G01 X0.09421 Y-0.54674
G01 X0.09410 Y-0.54558
G01 X0.09421 Y-0.54443
G01 X0.09455 Y-0.54332
G01 X0.09509 Y-0.54230
G01 X0.09583 Y-0.54141
G01 X0.09672 Y-0.54067
G01 X0.09774 Y-0.54013
G01 X0.09885 Y-0.53979
G01 X0.10000 Y-0.53968
G01 X0.14499 Y-0.53968
G01 X0.14615 Y-0.53979
G01 X0.14725 Y-0.54013
G01 X0.14828 Y-0.54067
G01 X0.14917 Y-0.54141
G01 X0.14991 Y-0.54230
G01 X0.15045 Y-0.54332
G01 X0.15079 Y-0.54443
G01 X0.15090 Y-0.54558
G01 X0.15090 Y-0.56246
G01 X0.12137 Y-0.67691
G01 X0.12137 Y-0.63754
G01 X0.12126 Y-0.63639
G01 X0.12092 Y-0.63528
G01 X0.12038 Y-0.63426
G01 X0.11964 Y-0.63337
G01 X0.11875 Y-0.63263
G01 X0.11773 Y-0.63209
G01 X0.11662 Y-0.63175
G01 X0.11547 Y-0.63164
G01 X0.11431 Y-0.63175
G01 X0.11321 Y-0.63209
G01 X0.11219 Y-0.63263
G01 X0.11129 Y-0.63337
G01 X0.11056 Y-0.63426
G01 X0.11001 Y-0.63528
G01 X0.10967 Y-0.63639
G01 X0.10956 Y-0.63754
G01 X0.10956 Y-0.67691
G01 X0.10967 Y-0.67806
G01 X0.11001 Y-0.67917
G01 X0.11056 Y-0.68019
G01 X0.11129 Y-0.68109
G01 X0.11219 Y-0.68182
G01 X0.11321 Y-0.68237
G01 X0.11431 Y-0.68270
G01 X0.11547 Y-0.68282
G01 X0.11662 Y-0.68270
G01 X0.11773 Y-0.68237
G01 X0.11875 Y-0.68182
G01 X0.11964 Y-0.68109
G01 X0.12038 Y-0.68019
G01 X0.12092 Y-0.67917
G01 X0.12126 Y-0.67806
G01 X0.12418 Y-0.62067
G01 X0.12407 Y-0.61952
G01 X0.12373 Y-0.61841
G01 X0.12319 Y-0.61739
G01 X0.11964 Y-0.61368
G01 X0.11875 Y-0.61295
G01 X0.11773 Y-0.61240
G01 X0.11662 Y-0.61206
G01 X0.11547 Y-0.61195
G01 X0.11431 Y-0.61206
G01 X0.11321 Y-0.61240
G01 X0.11219 Y-0.61295
G01 X0.11129 Y-0.61368
G01 X0.10774 Y-0.61739
G01 X0.10720 Y-0.61841
G01 X0.10686 Y-0.61952
G01 X0.10675 Y-0.62067
G01 X0.10686 Y-0.62182
G01 X0.10720 Y-0.62293
G01 X0.10774 Y-0.62395
G01 X0.10848 Y-0.62484
G01 X0.11219 Y-0.62839
G01 X0.11321 Y-0.62894
G01 X0.11431 Y-0.62927
G01 X0.11547 Y-0.62939
G01 X0.11662 Y-0.62927
G01 X0.11773 Y-0.62894
G01 X0.11875 Y-0.62839
G01 X0.11964 Y-0.62766
G01 X0.12319 Y-0.62395
G01 X0.12373 Y-0.62293
G01 X0.12407 Y-0.62182
G01 X0.12418 Y-0.62067
G04 P0 ( dwell for no time -- G64 should not smooth over this point )
G00 Z0.08000 ( retract )

G00 X0.03982 Y-0.67410 ( rapid move to begin. )
G01 F180.00000
( Mill infeed pass 1/1 )
G01 Z-0.04000
G04 P0 ( dwell for no time -- G64 should not smooth over this point )
G01 F360.00000
G01 X0.03982 Y-0.67410
G01 X0.03971 Y-0.67525
G01 X0.03937 Y-0.67636
G01 X0.03883 Y-0.67738
G01 X0.03528 Y-0.68109
G01 X0.03438 Y-0.68182
G01 X0.03336 Y-0.68237
G01 X0.03226 Y-0.68270
G01 X0.03110 Y-0.68282
G01 X0.02995 Y-0.68270
G01 X0.02884 Y-0.68237
G01 X0.02782 Y-0.68182
G01 X0.02693 Y-0.68109
G01 X0.02338 Y-0.67738
G01 X0.02284 Y-0.67636
G01 X0.02250 Y-0.67525
G01 X0.02239 Y-0.67410
G01 X0.02250 Y-0.67295
G01 X0.02283 Y-0.67184
G01 X0.02338 Y-0.67082
G01 X0.02693 Y-0.66711
G01 X0.02782 Y-0.66638
G01 X0.02884 Y-0.66583
G01 X0.02995 Y-0.66549
G01 X0.03110 Y-0.66538
G01 X0.03226 Y-0.66549
G01 X0.03336 Y-0.66583
G01 X0.03439 Y-0.66638
G01 X0.03528 Y-0.66711
G01 X0.03883 Y-0.67082
G01 X0.03937 Y-0.67184
G01 X0.03971 Y-0.67295
G01 X0.03982 Y-0.67410
G04 P0 ( dwell for no time -- G64 should not smooth over this point )
G00 Z0.08000 ( retract )

G00 X0.09606 Y-0.66566 ( rapid move to begin. )
G01 F180.00000
( Mill infeed pass 1/1 )
G01 Z-0.04000
G04 P0 ( dwell for no time -- G64 should not smooth over this point )
G01 F360.00000
G01 X0.09606 Y-0.66566
G01 X0.09591 Y-0.66702
G01 X0.09544 Y-0.66830
G01 X0.09214 Y-0.67474
G01 X0.08799 Y-0.67889
G01 X0.08155 Y-0.68219
G01 X0.08027 Y-0.68266
G01 X0.07891 Y-0.68282
G01 X0.06485 Y-0.68282
G01 X0.06349 Y-0.68266
G01 X0.06221 Y-0.68219
G01 X0.05577 Y-0.67889
G01 X0.05224 Y-0.67546
G01 X0.05150 Y-0.67457
G01 X0.05096 Y-0.67354
G01 X0.05062 Y-0.67244
G01 X0.05051 Y-0.67129
G01 X0.05062 Y-0.67013
G01 X0.05096 Y-0.66903
G01 X0.05150 Y-0.66800
G01 X0.05224 Y-0.66711
G01 X0.05313 Y-0.66638
G01 X0.05415 Y-0.66583
G01 X0.05526 Y-0.66549
G01 X0.05641 Y-0.66538
G01 X0.05757 Y-0.66549
G01 X0.05867 Y-0.66583
G01 X0.05969 Y-0.66638
G01 X0.06272 Y-0.66925
G01 X0.06624 Y-0.67101
G01 X0.07752 Y-0.67101
G01 X0.08104 Y-0.66925
G01 X0.08249 Y-0.66779
G01 X0.08425 Y-0.66427
G01 X0.08425 Y-0.65300
G01 X0.08249 Y-0.64948
G01 X0.08104 Y-0.64802
G01 X0.07752 Y-0.64626
G01 X0.06624 Y-0.64626
G01 X0.06272 Y-0.64802
G01 X0.05973 Y-0.65086
G01 X0.05875 Y-0.65140
G01 X0.05769 Y-0.65174
G01 X0.05659 Y-0.65188
G01 X0.05548 Y-0.65181
G01 X0.05440 Y-0.65153
G01 X0.05339 Y-0.65105
G01 X0.05249 Y-0.65039
G01 X0.05173 Y-0.64958
G01 X0.05114 Y-0.64864
G01 X0.05073 Y-0.64760
G01 X0.05053 Y-0.64650
G01 X0.05054 Y-0.64539
G01 X0.05335 Y-0.61727
G01 X0.05360 Y-0.61606
G01 X0.05410 Y-0.61492
G01 X0.05482 Y-0.61392
G01 X0.05574 Y-0.61309
G01 X0.05682 Y-0.61247
G01 X0.05799 Y-0.61208
G01 X0.05922 Y-0.61195
G01 X0.08735 Y-0.61195
G01 X0.08850 Y-0.61206
G01 X0.08961 Y-0.61240
G01 X0.09063 Y-0.61295
G01 X0.09152 Y-0.61368
G01 X0.09226 Y-0.61458
G01 X0.09280 Y-0.61560
G01 X0.09314 Y-0.61670
G01 X0.09325 Y-0.61786
G01 X0.09314 Y-0.61901
G01 X0.09280 Y-0.62012
G01 X0.09226 Y-0.62114
G01 X0.09152 Y-0.62203
G01 X0.09063 Y-0.62277
G01 X0.08961 Y-0.62331
G01 X0.08850 Y-0.62365
G01 X0.08735 Y-0.62376
G01 X0.06457 Y-0.62376
G01 X0.06348 Y-0.63461
G01 X0.06485 Y-0.63445
G01 X0.07891 Y-0.63445
G01 X0.08027 Y-0.63461
G01 X0.08155 Y-0.63507
G01 X0.08799 Y-0.63838
G01 X0.09214 Y-0.64252
G01 X0.09544 Y-0.64896
G01 X0.09591 Y-0.65024
G01 X0.09606 Y-0.65160
G01 X0.09606 Y-0.66566
G04 P0 ( dwell for no time -- G64 should not smooth over this point )
G00 Z0.08000 ( retract )

G00 X0.17480 Y-0.67691 ( rapid move to begin. )
G01 F180.00000
( Mill infeed pass 1/1 )
G01 Z-0.04000
G04 P0 ( dwell for no time -- G64 should not smooth over this point )
G01 F360.00000
G01 X0.17480 Y-0.67691
G01 X0.17469 Y-0.67806
G01 X0.17435 Y-0.67917
G01 X0.17381 Y-0.68019
G01 X0.17307 Y-0.68109
G01 X0.17218 Y-0.68182
G01 X0.17116 Y-0.68237
G01 X0.17005 Y-0.68270
G01 X0.16890 Y-0.68282
G01 X0.16775 Y-0.68270
G01 X0.16664 Y-0.68237
G01 X0.16562 Y-0.68182
G01 X0.16472 Y-0.68109
G01 X0.16399 Y-0.68019
G01 X0.16344 Y-0.67917
G01 X0.16311 Y-0.67806
G01 X0.16299 Y-0.67691
G01 X0.16299 Y-0.64737
G01 X0.16169 Y-0.64475
G01 X0.15907 Y-0.64345
G01 X0.15342 Y-0.64345
G01 X0.14990 Y-0.64521
G01 X0.14949 Y-0.64561
G01 X0.14949 Y-0.67691
G01 X0.14938 Y-0.67806
G01 X0.14905 Y-0.67917
G01 X0.14850 Y-0.68019
G01 X0.14776 Y-0.68109
G01 X0.14687 Y-0.68182
G01 X0.14585 Y-0.68237
G01 X0.14474 Y-0.68270
G01 X0.14359 Y-0.68282
G01 X0.14244 Y-0.68270
G01 X0.14133 Y-0.68237
G01 X0.14031 Y-0.68182
G01 X0.13941 Y-0.68109
G01 X0.13868 Y-0.68019
G01 X0.13813 Y-0.67917
G01 X0.13780 Y-0.67806
G01 X0.13768 Y-0.67691
G01 X0.13768 Y-0.63754
G01 X0.13780 Y-0.63639
G01 X0.13813 Y-0.63528
G01 X0.13868 Y-0.63426
G01 X0.13941 Y-0.63337
G01 X0.14031 Y-0.63263
G01 X0.14133 Y-0.63209
G01 X0.14244 Y-0.63175
G01 X0.14359 Y-0.63164
G01 X0.14474 Y-0.63175
G01 X0.14585 Y-0.63209
G01 X0.14754 Y-0.63318
G01 X0.15067 Y-0.63179
G01 X0.15203 Y-0.63164
G01 X0.16046 Y-0.63164
G01 X0.16182 Y-0.63179
G01 X0.16310 Y-0.63226
G01 X0.16873 Y-0.63507
G01 X0.16979 Y-0.63575
G01 X0.17068 Y-0.63665
G01 X0.17137 Y-0.63771
G01 X0.17418 Y-0.64334
G01 X0.17465 Y-0.64462
G01 X0.17480 Y-0.64598
G01 X0.17480 Y-0.67691
G04 P0 ( dwell for no time -- G64 should not smooth over this point )
G00 Z0.08000 ( retract )

G00 X0.36181 Y-0.55000 ( rapid move to begin. )
G01 F180.00000
( Mill infeed pass 1/1 )
G01 Z-0.04000
G04 P0 ( dwell for no time -- G64 should not smooth over this point )
G01 F360.00000
G01 X0.36181 Y-0.55000
G01 X0.36159 Y-0.54770
G01 X0.36091 Y-0.54548
G01 X0.35982 Y-0.54344
G01 X0.35835 Y-0.54165
G01 X0.35656 Y-0.54018
G01 X0.35452 Y-0.53909
G01 X0.35231 Y-0.53841
G01 X0.35000 Y-0.53819
G01 X0.34770 Y-0.53841
G01 X0.34548 Y-0.53909
G01 X0.34344 Y-0.54018
G01 X0.34165 Y-0.54165
G01 X0.34018 Y-0.54344
G01 X0.33909 Y-0.54548
G01 X0.33842 Y-0.54770
G01 X0.33819 Y-0.55000
G01 X0.33842 Y-0.55230
G01 X0.33909 Y-0.55452
G01 X0.34018 Y-0.55656
G01 X0.34165 Y-0.55835
G01 X0.34344 Y-0.55982
G01 X0.34548 Y-0.56091
G01 X0.34770 Y-0.56158
G01 X0.35000 Y-0.56181
G01 X0.35231 Y-0.56158
G01 X0.35452 Y-0.56091
G01 X0.35656 Y-0.55982
G01 X0.35835 Y-0.55835
G01 X0.35982 Y-0.55656
G01 X0.36091 Y-0.55452
G01 X0.36159 Y-0.55230
G01 X0.36181 Y-0.55000
G01 X0.44873 Y-0.55975
G01 X0.44873 Y-0.53072
G01 X0.43193 Y-0.49713
G01 X0.41716 Y-0.48236
G01 X0.38356 Y-0.46556
G01 X0.26556 Y-0.46556
G01 X0.26556 Y-0.62491
G01 X0.38356 Y-0.62491
G01 X0.41716 Y-0.60812
G01 X0.43193 Y-0.59335
G01 X0.44873 Y-0.55975
G04 P0 ( dwell for no time -- G64 should not smooth over this point )
G00 Z0.08000 ( retract )

G00 X0.91590 Y-0.02626 ( rapid move to begin. )
G01 F180.00000
( Mill infeed pass 1/1 )
G01 Z-0.04000
G04 P0 ( dwell for no time -- G64 should not smooth over this point )
G01 F360.00000
G01 X0.91590 Y-0.02626
G01 X0.91588 Y-0.02742
G01 X0.91563 Y-0.02855
G01 X0.91516 Y-0.02961
G01 X0.91450 Y-0.03056
G01 X0.91366 Y-0.03136
G01 X0.91268 Y-0.03198
G01 X0.91161 Y-0.03240
G01 X0.91047 Y-0.03260
G01 X0.90931 Y-0.03258
G01 X0.90818 Y-0.03233
G01 X0.90712 Y-0.03186
G01 X0.90617 Y-0.03120
G01 X0.90537 Y-0.03036
G01 X0.89454 Y-0.01659
G01 X0.88372 Y-0.03036
G01 X0.88292 Y-0.03120
G01 X0.88197 Y-0.03186
G01 X0.88091 Y-0.03233
G01 X0.87978 Y-0.03258
G01 X0.87862 Y-0.03260
G01 X0.87749 Y-0.03240
G01 X0.87641 Y-0.03198
G01 X0.87543 Y-0.03136
G01 X0.87459 Y-0.03056
G01 X0.87393 Y-0.02961
G01 X0.87346 Y-0.02855
G01 X0.87322 Y-0.02742
G01 X0.87319 Y-0.02626
G01 X0.87339 Y-0.02512
G01 X0.87381 Y-0.02404
G01 X0.87444 Y-0.02307
G01 X0.88704 Y-0.00703
G01 X0.87444 Y0.00901
G01 X0.87381 Y0.00998
G01 X0.87339 Y0.01106
G01 X0.87319 Y0.01220
G01 X0.87322 Y0.01336
G01 X0.87346 Y0.01449
G01 X0.87393 Y0.01555
G01 X0.87459 Y0.01650
G01 X0.87543 Y0.01730
G01 X0.87641 Y0.01792
G01 X0.87749 Y0.01834
G01 X0.87862 Y0.01854
G01 X0.87978 Y0.01852
G01 X0.88091 Y0.01827
G01 X0.88197 Y0.01780
G01 X0.88292 Y0.01714
G01 X0.88372 Y0.01630
G01 X0.89454 Y0.00253
G01 X0.90537 Y0.01630
G01 X0.90617 Y0.01714
G01 X0.90712 Y0.01780
G01 X0.90818 Y0.01827
G01 X0.90931 Y0.01852
G01 X0.91047 Y0.01854
G01 X0.91161 Y0.01834
G01 X0.91268 Y0.01792
G01 X0.91366 Y0.01730
G01 X0.91450 Y0.01650
G01 X0.91516 Y0.01555
G01 X0.91563 Y0.01449
G01 X0.91588 Y0.01336
G01 X0.91590 Y0.01220
G01 X0.91570 Y0.01106
G01 X0.91528 Y0.00998
G01 X0.91466 Y0.00901
G01 X0.90206 Y-0.00703
G01 X0.91466 Y-0.02307
G01 X0.91528 Y-0.02404
G01 X0.91570 Y-0.02512
G01 X0.91590 Y-0.02626
G04 P0 ( dwell for no time -- G64 should not smooth over this point )
G00 Z0.08000 ( retract )

G00 X0.98341 Y0.00422 ( rapid move to begin. )
G01 F180.00000
( Mill infeed pass 1/1 )
G01 Z-0.04000
G04 P0 ( dwell for no time -- G64 should not smooth over this point )
G01 F360.00000
G01 X0.98341 Y0.00422
G01 X0.98330 Y0.00307
G01 X0.98296 Y0.00196
G01 X0.98241 Y0.00094
G01 X0.98168 Y0.00004
G01 X0.98079 Y-0.00069
G01 X0.97976 Y-0.00124
G01 X0.97866 Y-0.00157
G01 X0.97750 Y-0.00169
G01 X0.93251 Y-0.00169
G01 X0.93136 Y-0.00157
G01 X0.93025 Y-0.00124
G01 X0.92923 Y-0.00069
G01 X0.92833 Y0.00004
G01 X0.92760 Y0.00094
G01 X0.92705 Y0.00196
G01 X0.92672 Y0.00307
G01 X0.92660 Y0.00422
G01 X0.92672 Y0.00537
G01 X0.92705 Y0.00648
G01 X0.92760 Y0.00750
G01 X0.92833 Y0.00839
G01 X0.92923 Y0.00913
G01 X0.93025 Y0.00967
G01 X0.93136 Y0.01001
G01 X0.93251 Y0.01012
G01 X0.97750 Y0.01012
G01 X0.97866 Y0.01001
G01 X0.97976 Y0.00967
G01 X0.98079 Y0.00913
G01 X0.98168 Y0.00839
G01 X0.98241 Y0.00750
G01 X0.98296 Y0.00648
G01 X0.98330 Y0.00537
G01 X0.98341 Y0.00422
G01 X0.98341 Y-0.01265
G01 X0.98330 Y-0.01150
G01 X0.98296 Y-0.01039
G01 X0.98241 Y-0.00937
G01 X0.98168 Y-0.00848
G01 X0.98079 Y-0.00774
G01 X0.97976 Y-0.00720
G01 X0.97866 Y-0.00686
G01 X0.97750 Y-0.00675
G01 X0.93251 Y-0.00675
G01 X0.93136 Y-0.00686
G01 X0.93025 Y-0.00720
G01 X0.92923 Y-0.00774
G01 X0.92833 Y-0.00848
G01 X0.92760 Y-0.00937
G01 X0.92705 Y-0.01039
G01 X0.92672 Y-0.01150
G01 X0.92660 Y-0.01265
G01 X0.92672 Y-0.01381
G01 X0.92705 Y-0.01491
G01 X0.92760 Y-0.01593
G01 X0.92833 Y-0.01683
G01 X0.92923 Y-0.01756
G01 X0.93025 Y-0.01811
G01 X0.93136 Y-0.01845
G01 X0.93251 Y-0.01856
G01 X0.97750 Y-0.01856
G01 X0.97866 Y-0.01845
G01 X0.97976 Y-0.01811
G01 X0.98079 Y-0.01756
G01 X0.98168 Y-0.01683
G01 X0.98241 Y-0.01593
G01 X0.98296 Y-0.01491
G01 X0.98330 Y-0.01381
G01 X0.98341 Y-0.01265
G01 X0.97985 Y-0.92619
G01 X1.00492 Y-0.10000
G01 X1.00455 Y-0.10188
G01 X1.00348 Y-0.10348
G01 X1.00188 Y-0.10455
G01 X1.00000 Y-0.10492
G01 X0.99812 Y-0.10455
G01 X0.99652 Y-0.10348
G01 X0.99545 Y-0.10188
G01 X0.99508 Y-0.10000
G01 X0.99508 Y-0.05000
G01 X0.99517 Y-0.04904
G01 X0.99591 Y-0.04727
G01 X0.99727 Y-0.04591
G01 X0.99904 Y-0.04517
G01 X1.00000 Y-0.04508
G01 X1.00096 Y-0.04517
G01 X1.00273 Y-0.04591
G01 X1.00409 Y-0.04727
G01 X1.00483 Y-0.04904
G01 X1.00492 Y-0.05000
G01 X1.00492 Y-0.10000
G01 X0.97985 Y-0.92619
G01 X0.97985 Y-0.66429
G01 X0.97879 Y-0.65524
G01 X0.97569 Y-0.64668
G01 X0.95188 Y-0.59906
G01 X0.94733 Y-0.59197
G01 X0.94137 Y-0.58601
G01 X0.93427 Y-0.58145
G01 X0.88665 Y-0.55764
G01 X0.87809 Y-0.55454
G01 X0.86905 Y-0.55349
G01 X0.77381 Y-0.55349
G01 X0.76476 Y-0.55454
G01 X0.75620 Y-0.55764
G01 X0.70859 Y-0.58145
G01 X0.70205 Y-0.58556
G01 X0.69645 Y-0.59087
G01 X0.69199 Y-0.59717
G01 X0.68884 Y-0.60421
G01 X0.68713 Y-0.61174
G01 X0.68692 Y-0.61946
G01 X0.68822 Y-0.62706
G01 X0.69098 Y-0.63427
G01 X0.69509 Y-0.64080
G01 X0.70040 Y-0.64641
G01 X0.70669 Y-0.65087
G01 X0.71374 Y-0.65402
G01 X0.72127 Y-0.65573
G01 X0.72898 Y-0.65594
G01 X0.73659 Y-0.65464
G01 X0.74380 Y-0.65188
G01 X0.78310 Y-0.63223
G01 X0.85976 Y-0.63223
G01 X0.88732 Y-0.64601
G01 X0.90111 Y-0.67358
G01 X0.90111 Y-0.68757
G01 X0.88356 Y-0.69634
G01 X0.77381 Y-0.69634
G01 X0.76476 Y-0.69740
G01 X0.75620 Y-0.70050
G01 X0.70859 Y-0.72431
G01 X0.70149 Y-0.72886
G01 X0.69553 Y-0.73482
G01 X0.69098 Y-0.74191
G01 X0.66717 Y-0.78953
G01 X0.66406 Y-0.79810
G01 X0.66301 Y-0.80714
G01 X0.66301 Y-0.85476
G01 X0.66406 Y-0.86381
G01 X0.66717 Y-0.87237
G01 X0.69098 Y-0.91999
G01 X0.69553 Y-0.92708
G01 X0.70149 Y-0.93304
G01 X0.70858 Y-0.93759
G01 X0.75620 Y-0.96140
G01 X0.76476 Y-0.96451
G01 X0.77381 Y-0.96556
G01 X0.89286 Y-0.96556
G01 X0.90190 Y-0.96451
G01 X0.91047 Y-0.96140
G01 X0.91740 Y-0.95794
G01 X0.91860 Y-0.95893
G01 X0.92541 Y-0.96256
G01 X0.93280 Y-0.96480
G01 X0.94048 Y-0.96556
G01 X0.94816 Y-0.96480
G01 X0.95554 Y-0.96256
G01 X0.96235 Y-0.95893
G01 X0.96832 Y-0.95403
G01 X0.97321 Y-0.94806
G01 X0.97685 Y-0.94126
G01 X0.97909 Y-0.93387
G01 X0.97985 Y-0.92619
G01 X1.11181 Y-0.45000
G01 X1.11159 Y-0.44770
G01 X1.11091 Y-0.44548
G01 X1.10982 Y-0.44344
G01 X1.10835 Y-0.44165
G01 X1.10656 Y-0.44018
G01 X1.10452 Y-0.43909
G01 X1.10230 Y-0.43841
G01 X1.10000 Y-0.43819
G01 X1.09770 Y-0.43841
G01 X1.09548 Y-0.43909
G01 X1.09344 Y-0.44018
G01 X1.09165 Y-0.44165
G01 X1.09018 Y-0.44344
G01 X1.08909 Y-0.44548
G01 X1.08842 Y-0.44770
G01 X1.08819 Y-0.45000
G01 X1.08842 Y-0.45230
G01 X1.08909 Y-0.45452
G01 X1.09018 Y-0.45656
G01 X1.09165 Y-0.45835
G01 X1.09344 Y-0.45982
G01 X1.09548 Y-0.46091
G01 X1.09770 Y-0.46158
G01 X1.10000 Y-0.46181
G01 X1.10230 Y-0.46158
G01 X1.10452 Y-0.46091
G01 X1.10656 Y-0.45982
G01 X1.10835 Y-0.45835
G01 X1.10982 Y-0.45656
G01 X1.11091 Y-0.45452
G01 X1.11159 Y-0.45230
G01 X1.11181 Y-0.45000
G01 X1.04246 Y-0.02671
G01 X1.04235 Y-0.02787
G01 X1.04201 Y-0.02897
G01 X1.04147 Y-0.03000
G01 X1.04073 Y-0.03089
G01 X1.03984 Y-0.03163
G01 X1.03882 Y-0.03217
G01 X1.03771 Y-0.03251
G01 X1.03656 Y-0.03262
G01 X1.00281 Y-0.03262
G01 X1.00166 Y-0.03251
G01 X1.00055 Y-0.03217
G01 X0.99953 Y-0.03163
G01 X0.99864 Y-0.03089
G01 X0.99790 Y-0.03000
G01 X0.99736 Y-0.02897
G01 X0.99702 Y-0.02787
G01 X0.99691 Y-0.02671
G01 X0.99702 Y-0.02556
G01 X0.99736 Y-0.02446
G01 X0.99790 Y-0.02343
G01 X0.99864 Y-0.02254
G01 X0.99953 Y-0.02180
G01 X1.00055 Y-0.02126
G01 X1.00166 Y-0.02092
G01 X1.00281 Y-0.02081
G01 X1.01378 Y-0.02081
G01 X1.01378 Y0.01527
G01 X1.01189 Y0.01349
G01 X1.00545 Y0.01018
G01 X1.00437 Y0.00977
G01 X1.00323 Y0.00958
G01 X1.00208 Y0.00961
G01 X1.00095 Y0.00986
G01 X0.99989 Y0.01034
G01 X0.99894 Y0.01100
G01 X0.99815 Y0.01184
G01 X0.99753 Y0.01282
G01 X0.99712 Y0.01391
G01 X0.99692 Y0.01505
G01 X0.99695 Y0.01620
G01 X0.99721 Y0.01733
G01 X0.99768 Y0.01839
G01 X0.99835 Y0.01934
G01 X0.99919 Y0.02013
G01 X1.00494 Y0.02313
G01 X1.00947 Y0.02766
G01 X1.01477 Y0.03562
G01 X1.01551 Y0.03651
G01 X1.01640 Y0.03725
G01 X1.01742 Y0.03779
G01 X1.01853 Y0.03813
G01 X1.01968 Y0.03824
G01 X1.02084 Y0.03813
G01 X1.02194 Y0.03780
G01 X1.02297 Y0.03725
G01 X1.02386 Y0.03652
G01 X1.02460 Y0.03562
G01 X1.02514 Y0.03460
G01 X1.02548 Y0.03349
G01 X1.02559 Y0.03234
G01 X1.02559 Y-0.02081
G01 X1.03656 Y-0.02081
G01 X1.03771 Y-0.02092
G01 X1.03882 Y-0.02126
G01 X1.03984 Y-0.02180
G01 X1.04073 Y-0.02254
G01 X1.04147 Y-0.02343
G01 X1.04201 Y-0.02446
G01 X1.04235 Y-0.02556
G01 X1.11181 Y-0.45000
G01 X1.12121 Y-0.02671
G01 X1.12109 Y-0.02787
G01 X1.12075 Y-0.02897
G01 X1.12021 Y-0.03000
G01 X1.11947 Y-0.03089
G01 X1.11858 Y-0.03163
G01 X1.11756 Y-0.03217
G01 X1.11645 Y-0.03251
G01 X1.11530 Y-0.03262
G01 X1.11415 Y-0.03251
G01 X1.11304 Y-0.03217
G01 X1.11202 Y-0.03163
G01 X1.11112 Y-0.03089
G01 X1.11039 Y-0.03000
G01 X1.10984 Y-0.02897
G01 X1.10951 Y-0.02787
G01 X1.10939 Y-0.02671
G01 X1.10939 Y0.00282
G01 X1.10808 Y0.00544
G01 X1.10547 Y0.00675
G01 X1.09982 Y0.00675
G01 X1.09630 Y0.00499
G01 X1.09590 Y0.00458
G01 X1.09590 Y-0.02671
G01 X1.09578 Y-0.02787
G01 X1.09545 Y-0.02897
G01 X1.09490 Y-0.03000
G01 X1.09417 Y-0.03089
G01 X1.09327 Y-0.03163
G01 X1.09225 Y-0.03217
G01 X1.09114 Y-0.03251
G01 X1.08999 Y-0.03262
G01 X1.08884 Y-0.03251
G01 X1.08773 Y-0.03217
G01 X1.08671 Y-0.03163
G01 X1.08581 Y-0.03089
G01 X1.08508 Y-0.03000
G01 X1.08453 Y-0.02897
G01 X1.08420 Y-0.02787
G01 X1.08408 Y-0.02671
G01 X1.08408 Y0.01265
G01 X1.08420 Y0.01381
G01 X1.08453 Y0.01491
G01 X1.08508 Y0.01593
G01 X1.08581 Y0.01683
G01 X1.08671 Y0.01756
G01 X1.08773 Y0.01811
G01 X1.08884 Y0.01845
G01 X1.08999 Y0.01856
G01 X1.09114 Y0.01845
G01 X1.09225 Y0.01811
G01 X1.09394 Y0.01701
G01 X1.09707 Y0.01840
G01 X1.09843 Y0.01856
G01 X1.10686 Y0.01856
G01 X1.10822 Y0.01840
G01 X1.10950 Y0.01794
G01 X1.11513 Y0.01512
G01 X1.11619 Y0.01444
G01 X1.11708 Y0.01355
G01 X1.11777 Y0.01248
G01 X1.12058 Y0.00686
G01 X1.12105 Y0.00558
G01 X1.12121 Y0.00422
G01 X1.12121 Y-0.02671
G01 X1.11181 Y-0.45000
G01 X1.06777 Y-0.02671
G01 X1.06777 Y0.01265
G01 X1.06766 Y0.01381
G01 X1.06732 Y0.01491
G01 X1.06678 Y0.01593
G01 X1.06604 Y0.01683
G01 X1.06515 Y0.01756
G01 X1.06413 Y0.01811
G01 X1.06302 Y0.01845
G01 X1.06187 Y0.01856
G01 X1.06072 Y0.01845
G01 X1.05961 Y0.01811
G01 X1.05859 Y0.01756
G01 X1.05769 Y0.01683
G01 X1.05696 Y0.01593
G01 X1.05641 Y0.01491
G01 X1.05608 Y0.01381
G01 X1.05596 Y0.01265
G01 X1.05596 Y-0.02671
G01 X1.05608 Y-0.02787
G01 X1.05641 Y-0.02897
G01 X1.05696 Y-0.03000
G01 X1.05769 Y-0.03089
G01 X1.05859 Y-0.03163
G01 X1.05961 Y-0.03217
G01 X1.06072 Y-0.03251
G01 X1.06187 Y-0.03262
G01 X1.06302 Y-0.03251
G01 X1.06413 Y-0.03217
G01 X1.06515 Y-0.03163
G01 X1.06604 Y-0.03089
G01 X1.06678 Y-0.03000
G01 X1.06732 Y-0.02897
G01 X1.06766 Y-0.02787
G01 X1.07059 Y0.02953
G01 X1.07047 Y0.03068
G01 X1.07014 Y0.03179
G01 X1.06959 Y0.03281
G01 X1.06604 Y0.03651
G01 X1.06515 Y0.03725
G01 X1.06413 Y0.03779
G01 X1.06302 Y0.03813
G01 X1.06187 Y0.03824
G01 X1.06072 Y0.03813
G01 X1.05961 Y0.03779
G01 X1.05859 Y0.03725
G01 X1.05488 Y0.03370
G01 X1.05415 Y0.03281
G01 X1.05360 Y0.03179
G01 X1.05326 Y0.03068
G01 X1.05315 Y0.02953
G01 X1.05326 Y0.02837
G01 X1.05360 Y0.02727
G01 X1.05415 Y0.02625
G01 X1.05488 Y0.02535
G01 X1.05859 Y0.02180
G01 X1.05961 Y0.02126
G01 X1.06072 Y0.02092
G01 X1.06187 Y0.02081
G01 X1.06302 Y0.02092
G01 X1.06413 Y0.02126
G01 X1.06515 Y0.02180
G01 X1.06604 Y0.02254
G01 X1.06959 Y0.02625
G01 X1.07014 Y0.02727
G01 X1.07047 Y0.02837
G01 X1.07059 Y0.02953

G04 P0 ( dwell for no time -- G64 should not smooth over this point )
G00 Z1.000000 ( retract )

M5 ( Spindle off. )
G04 P1.000000
M9 ( Coolant off. )
M2 ( Program end. )

