( pcb2gcode 2.5.0 )
( Software-independent Gcode )

G94 ( Inches per minute feed rate. )
G20 ( Units == INCHES. )

G90 ( Absolute coordinates. )
G00 S12000 ( RPM spindle speed. )
G64 P0.00040 ( set maximum deviation from commanded toolpath )
G01 F1.00000 ( Feedrate. )


G00 Z1.00000 (Retract to tool change height)
T1
M5      (Spindle stop.)
G04 P1.00000 (Wait for spindle to stop)
(MSG, Change tool bit to mill diameter 0.11811in)
M6      (Tool change.)
M0      (Temporary machine stop.)
M3 ( Spindle on clockwise. )
G04 P1.00000 (Wait for spindle to get up to speed)
G04 P0 ( dwell for no time -- G64 should not smooth over this point )
G00 Z0.08000 ( retract )

G00 X-3.25186 Y-2.84270 ( rapid move to begin. )
G01 F0.50000
( Mill infeed pass 1/1 )
G01 Z-0.04000
G04 P0 ( dwell for no time -- G64 should not smooth over this point )
G01 F1.00000
G01 X-3.25186 Y-2.84270
G01 X-3.24230 Y-2.85234
G01 X-3.24270 Y-2.85186
G01 X-3.24270 Y-2.84270
G01 X-3.25186 Y-2.84270
G01 X-3.25282 Y-2.84230
G04 P0 ( dwell for no time -- G64 should not smooth over this point )
G00 Z0.08000 ( retract )

G00 X-3.32456 Y-3.10345 ( rapid move to begin. )
G01 F0.50000
( Mill infeed pass 1/1 )
G01 Z-0.04000
G04 P0 ( dwell for no time -- G64 should not smooth over this point )
G01 F1.00000
G01 X-3.32456 Y-3.10345
G01 X-3.32456 Y-3.01421
G01 X-3.32766 Y-3.01038
G01 X-3.33077 Y-3.00619
G01 X-3.33281 Y-3.00314
G01 X-3.33690 Y-2.99617
G01 X-3.34087 Y-2.98777
G01 X-3.34379 Y-2.97980
G01 X-3.34599 Y-2.97161
G01 X-3.34749 Y-2.96326
G01 X-3.34809 Y-2.95735
G01 X-3.37090 Y-2.93454
G01 X-3.42599 Y-2.93464
G01 X-3.43240 Y-2.93425
G01 X-3.43598 Y-2.93372
G01 X-3.43990 Y-2.93288
G01 X-3.44338 Y-2.93190
G01 X-3.44679 Y-2.93071
G01 X-3.45085 Y-2.92897
G01 X-3.45442 Y-2.92713
G01 X-3.45849 Y-2.92463
G01 X-3.45847 Y-2.92416
G01 X-3.45849 Y-2.92463
G01 X-3.45884 Y-2.92482
G01 X-3.46584 Y-2.92809
G01 X-3.46966 Y-2.92961
G01 X-3.47397 Y-2.93098
G01 X-3.54600 Y-3.00301
G01 X-3.54968 Y-3.00635
G01 X-3.55585 Y-3.01120
G01 X-3.56127 Y-3.01459
G01 X-3.56608 Y-3.01714
G01 X-3.56971 Y-3.01880
G01 X-3.57345 Y-3.02022
G01 X-3.57826 Y-3.02171
G01 X-3.58422 Y-3.02319
G01 X-3.59178 Y-3.02928
G01 X-3.59536 Y-3.03184
G01 X-3.60362 Y-3.03673
G01 X-3.60825 Y-3.03910
G01 X-3.61639 Y-3.04243
G01 X-3.62054 Y-3.04389
G01 X-3.63023 Y-3.04636
G01 X-3.63495 Y-3.04724
G01 X-3.64619 Y-3.04833
G01 X-3.65555 Y-3.04825
G01 X-3.66117 Y-3.04776
G01 X-3.66468 Y-3.04729
G01 X-3.67288 Y-3.04567
G01 X-3.67670 Y-3.04471
G01 X-3.68474 Y-3.04205
G01 X-3.68999 Y-3.03991
G01 X-3.69407 Y-3.03792
G01 X-3.70008 Y-3.03467
G01 X-3.70360 Y-3.03252
G01 X-3.70892 Y-3.02881
G01 X-3.71415 Y-3.02461
G01 X-3.99581 Y-3.02455
G01 X-4.00077 Y-3.02434
G01 X-4.00699 Y-3.02369
G01 X-4.01210 Y-3.02274
G01 X-4.01964 Y-3.02059
G01 X-4.02452 Y-3.01880
G01 X-4.02922 Y-3.01659
G01 X-4.03605 Y-3.01275
G01 X-4.04031 Y-3.00978
G01 X-4.04549 Y-3.00554
G01 X-4.04852 Y-3.00272
G01 X-4.18777 Y-2.86346
G01 X-4.22519 Y-2.86346
G01 X-4.22559 Y-2.86306
G01 X-4.22519 Y-2.86346
G01 X-4.22519 Y-2.88308
G01 X-4.01182 Y-3.09645
G01 X-3.46527 Y-3.09645
G01 X-3.45964 Y-3.09346
G01 X-3.45473 Y-3.09122
G01 X-3.45090 Y-3.08975
G01 X-3.44297 Y-3.08731
G01 X-3.43681 Y-3.08600
G01 X-3.43330 Y-3.08543
G01 X-3.42700 Y-3.08483
G01 X-3.42331 Y-3.08467
G01 X-3.37558 Y-3.08472
G01 X-3.37038 Y-3.08502
G01 X-3.36230 Y-3.08615
G01 X-3.35437 Y-3.08805
G01 X-3.34904 Y-3.08978
G01 X-3.34149 Y-3.09288
G01 X-3.33392 Y-3.09691
G01 X-3.33084 Y-3.09885
G01 X-3.32596 Y-3.10229
G01 X-3.32461 Y-3.10334
G01 X-3.32416 Y-3.10426
G04 P0 ( dwell for no time -- G64 should not smooth over this point )
G00 Z0.08000 ( retract )

G00 X-3.67008 Y-3.24606 ( rapid move to begin. )
G01 F0.50000
( Mill infeed pass 1/1 )
G01 Z-0.04000
G04 P0 ( dwell for no time -- G64 should not smooth over this point )
G01 F1.00000
G01 X-3.67008 Y-3.24606
G01 X-3.50811 Y-3.24606
G01 X-3.50769 Y-3.24566
G01 X-3.50811 Y-3.24606
G01 X-3.50826 Y-3.25066
G01 X-3.50817 Y-3.25386
G01 X-3.50767 Y-3.25433
G01 X-3.50809 Y-3.25393
G01 X-3.65803 Y-3.25393
G01 X-3.66716 Y-3.25060
G01 X-3.67008 Y-3.24606
G01 X-3.67084 Y-3.24566
G04 P0 ( dwell for no time -- G64 should not smooth over this point )
G00 Z0.08000 ( retract )

G00 X-3.96831 Y-2.87206 ( rapid move to begin. )
G01 F0.50000
( Mill infeed pass 1/1 )
G01 Z-0.04000
G04 P0 ( dwell for no time -- G64 should not smooth over this point )
G01 F1.00000
G01 X-3.96831 Y-2.87206
G01 X-3.92869 Y-2.87201
G01 X-3.92230 Y-2.87140
G01 X-3.91601 Y-2.87009
G01 X-3.91140 Y-2.86867
G01 X-3.90693 Y-2.86688
G01 X-3.90297 Y-2.86493
G01 X-3.89884 Y-2.86246
G01 X-3.89523 Y-2.85991
G01 X-3.89152 Y-2.85683
G01 X-3.88808 Y-2.85346
G01 X-3.88518 Y-2.85013
G01 X-3.88276 Y-2.84693
G01 X-3.88057 Y-2.84356
G01 X-3.87861 Y-2.84006
G01 X-3.87689 Y-2.83643
G01 X-3.87529 Y-2.83231
G01 X-3.87411 Y-2.82848
G01 X-3.87319 Y-2.82457
G01 X-3.87254 Y-2.82061
G01 X-3.87215 Y-2.81661
G01 X-3.87204 Y-2.81300
G01 X-3.87204 Y-2.75395
G01 X-3.87244 Y-2.75355
G01 X-3.87204 Y-2.75395
G01 X-3.74610 Y-2.75395
G01 X-3.74089 Y-2.75372
G01 X-3.73650 Y-2.75317
G01 X-3.73179 Y-2.75219
G01 X-3.72716 Y-2.75084
G01 X-3.72304 Y-2.74926
G01 X-3.71868 Y-2.74721
G01 X-3.71451 Y-2.74480
G01 X-3.71087 Y-2.74230
G01 X-3.70720 Y-2.73933
G01 X-3.62567 Y-2.82087
G01 X-3.62295 Y-2.82342
G01 X-3.61809 Y-2.82744
G01 X-3.61487 Y-2.82980
G01 X-3.61149 Y-2.83195
G01 X-3.60672 Y-2.83455
G01 X-3.60277 Y-2.83648
G01 X-3.59868 Y-2.83811
G01 X-3.59358 Y-2.83972
G01 X-3.59281 Y-2.83952
G01 X-3.59358 Y-2.83972
G01 X-3.61278 Y-2.85892
G01 X-3.61694 Y-2.85734
G01 X-3.62535 Y-2.85473
G01 X-3.63397 Y-2.85295
G01 X-3.63832 Y-2.85229
G01 X-3.64672 Y-2.85168
G01 X-3.65083 Y-2.85160
G01 X-3.66011 Y-2.85215
G01 X-3.66502 Y-2.85276
G01 X-3.67179 Y-2.85404
G01 X-3.67846 Y-2.85580
G01 X-3.68535 Y-2.85817
G01 X-3.69164 Y-2.86084
G01 X-3.69550 Y-2.86280
G01 X-3.70390 Y-2.86767
G01 X-3.70986 Y-2.87190
G01 X-3.71420 Y-2.87544
G01 X-3.96492 Y-2.87544
G01 X-3.96831 Y-2.87206
G01 X-3.96927 Y-2.87166
G04 P0 ( dwell for no time -- G64 should not smooth over this point )
G00 Z0.08000 ( retract )

G00 X-4.11168 Y-3.20761 ( rapid move to begin. )
G01 F0.50000
( Mill infeed pass 1/1 )
G01 Z-0.04000
G04 P0 ( dwell for no time -- G64 should not smooth over this point )
G01 F1.00000
G01 X-4.11168 Y-3.20761
G01 X-4.11239 Y-3.20747
G01 X-4.27480 Y-3.04505
G01 X-4.28187 Y-3.04671
G01 X-4.29105 Y-3.04800
G01 X-4.30070 Y-3.04838
G01 X-4.30670 Y-3.04814
G01 X-4.31584 Y-3.04712
G01 X-4.32603 Y-3.04489
G01 X-4.32953 Y-3.04385
G01 X-4.33674 Y-3.04129
G01 X-4.34076 Y-3.03952
G01 X-4.34120 Y-3.03886
G01 X-4.34076 Y-3.03952
G01 X-4.34073 Y-3.04130
G01 X-4.34073 Y-3.24550
G01 X-4.34085 Y-3.24922
G01 X-4.34128 Y-3.25393
G01 X-4.34172 Y-3.25433
G01 X-4.34121 Y-3.25387
G01 X-4.23467 Y-3.25382
G01 X-4.22937 Y-3.24519
G01 X-4.22399 Y-3.23817
G01 X-4.22020 Y-3.23388
G01 X-4.21356 Y-3.22744
G01 X-4.20631 Y-3.22171
G01 X-4.20162 Y-3.21855
G01 X-4.19391 Y-3.21412
G01 X-4.18428 Y-3.20984
G01 X-4.17582 Y-3.20709
G01 X-4.17026 Y-3.20573
G01 X-4.16190 Y-3.20428
G01 X-4.15228 Y-3.20358
G01 X-4.14872 Y-3.20357
G01 X-4.14190 Y-3.20388
G01 X-4.13273 Y-3.20510
G01 X-4.12920 Y-3.20585
G01 X-4.12222 Y-3.20763
G01 X-4.11686 Y-3.20946
G01 X-4.11682 Y-3.20989
G01 X-4.11686 Y-3.20946
G01 X-4.11482 Y-3.20832
G01 X-4.11290 Y-3.20736
G01 X-4.11224 Y-3.20750
G04 P0 ( dwell for no time -- G64 should not smooth over this point )
G00 Z0.08000 ( retract )

G00 X-4.63317 Y-3.02217 ( rapid move to begin. )
G01 F0.50000
( Mill infeed pass 1/1 )
G01 Z-0.04000
G04 P0 ( dwell for no time -- G64 should not smooth over this point )
G01 F1.00000
G01 X-4.63317 Y-3.02217
G01 X-4.62816 Y-3.01724
G01 X-4.62191 Y-3.00987
G01 X-4.61678 Y-3.00252
G01 X-4.61218 Y-2.99439
G01 X-4.60838 Y-2.98591
G01 X-4.60550 Y-2.97744
G01 X-4.60340 Y-2.96874
G01 X-4.60210 Y-2.95993
G01 X-4.48984 Y-3.07218
G01 X-4.48984 Y-3.08465
G01 X-4.48944 Y-3.08505
G01 X-4.48984 Y-3.08465
G01 X-4.52207 Y-3.08465
G01 X-4.52855 Y-3.08494
G01 X-4.53217 Y-3.08529
G01 X-4.54013 Y-3.08664
G01 X-4.54789 Y-3.08872
G01 X-4.55096 Y-3.08976
G01 X-4.55576 Y-3.09167
G01 X-4.56114 Y-3.09420
G01 X-4.63317 Y-3.02217
G01 X-4.63374 Y-3.02216
G04 P0 ( dwell for no time -- G64 should not smooth over this point )
G00 Z0.08000 ( retract )

G00 X-4.39830 Y-2.95285 ( rapid move to begin. )
G01 F0.50000
( Mill infeed pass 1/1 )
G01 Z-0.04000
G04 P0 ( dwell for no time -- G64 should not smooth over this point )
G01 F1.00000
G01 X-4.39830 Y-2.95285
G01 X-4.39834 Y-2.94636
G01 X-4.39771 Y-2.93840
G01 X-4.39706 Y-2.93398
G01 X-4.39512 Y-2.92481
G01 X-4.41199 Y-2.92481
G01 X-4.42014 Y-2.92859
G01 X-4.42180 Y-2.92922
G01 X-4.42267 Y-2.92904
G01 X-4.42197 Y-2.92919
G01 X-4.39830 Y-2.95285
G01 X-4.39787 Y-2.95384
G04 P0 ( dwell for no time -- G64 should not smooth over this point )
G00 Z0.08000 ( retract )

G00 X-4.12756 Y-2.72085 ( rapid move to begin. )
G01 F0.50000
( Mill infeed pass 1/1 )
G01 Z-0.04000
G04 P0 ( dwell for no time -- G64 should not smooth over this point )
G01 F1.00000
G01 X-4.12756 Y-2.72085
G01 X-4.12797 Y-2.72019
G01 X-4.13116 Y-2.71895
G01 X-4.13711 Y-2.71708
G01 X-4.14097 Y-2.71608
G01 X-4.14728 Y-2.71502
G01 X-4.15275 Y-2.71450
G01 X-4.15647 Y-2.71435
G01 X-4.64969 Y-2.71435
G01 X-4.65341 Y-2.71447
G01 X-4.65890 Y-2.71498
G01 X-4.66521 Y-2.71599
G01 X-4.66909 Y-2.71697
G01 X-4.67504 Y-2.71882
G01 X-4.67914 Y-2.72042
G01 X-4.68275 Y-2.72213
G01 X-4.68788 Y-2.72491
G01 X-4.69193 Y-2.72748
G01 X-4.69545 Y-2.73012
G01 X-4.70061 Y-2.73447
G01 X-4.82786 Y-2.86165
G01 X-4.83039 Y-2.86438
G01 X-4.83364 Y-2.86830
G01 X-4.83717 Y-2.87315
G01 X-4.83924 Y-2.87657
G01 X-4.84234 Y-2.88244
G01 X-4.84410 Y-2.88647
G01 X-4.84544 Y-2.89023
G01 X-4.84711 Y-2.89583
G01 X-4.84816 Y-2.90051
G01 X-4.84878 Y-2.90486
G01 X-4.84937 Y-2.91200
G01 X-4.84940 Y-2.98593
G01 X-4.84926 Y-2.99006
G01 X-4.84848 Y-2.99752
G01 X-4.84721 Y-3.00379
G01 X-4.84467 Y-3.01204
G01 X-4.84334 Y-3.01538
G01 X-4.84181 Y-3.01863
G01 X-4.83865 Y-3.02447
G01 X-4.83605 Y-3.02850
G01 X-4.83146 Y-3.03435
G01 X-4.82815 Y-3.03806
G01 X-4.64135 Y-3.22485
G01 X-4.63826 Y-3.22761
G01 X-4.63339 Y-3.23152
G01 X-4.62976 Y-3.23401
G01 X-4.62632 Y-3.23604
G01 X-4.62079 Y-3.23892
G01 X-4.61638 Y-3.24080
G01 X-4.60800 Y-3.24345
G01 X-4.60757 Y-3.24315
G01 X-4.60799 Y-3.24345
G01 X-4.60818 Y-3.24629
G01 X-4.60813 Y-3.25484
G01 X-4.60741 Y-3.26214
G01 X-4.60632 Y-3.26816
G01 X-4.60517 Y-3.27290
G01 X-4.60294 Y-3.27989
G01 X-4.59994 Y-3.28702
G01 X-4.59877 Y-3.28938
G01 X-4.59832 Y-3.28939
G01 X-4.59877 Y-3.28938
G01 X-4.60045 Y-3.29278
G01 X-4.60417 Y-3.30242
G01 X-4.60520 Y-3.30594
G01 X-4.60644 Y-3.31124
G01 X-4.60749 Y-3.31726
G01 X-4.60824 Y-3.32675
G01 X-4.60797 Y-3.33544
G01 X-4.60737 Y-3.34112
G01 X-4.60570 Y-3.34966
G01 X-4.60473 Y-3.35320
G01 X-4.60287 Y-3.35874
G01 X-4.60056 Y-3.36441
G01 X-4.59640 Y-3.37250
G01 X-4.59136 Y-3.38010
G01 X-4.58782 Y-3.38460
G01 X-4.58472 Y-3.38810
G01 X-4.58223 Y-3.39063
G01 X-4.57689 Y-3.39544
G01 X-4.57259 Y-3.39879
G01 X-4.56967 Y-3.40081
G01 X-4.56484 Y-3.40382
G01 X-4.56015 Y-3.40631
G01 X-4.55685 Y-3.40788
G01 X-4.55235 Y-3.40973
G01 X-4.54900 Y-3.41091
G01 X-4.54379 Y-3.41248
G01 X-4.53517 Y-3.41429
G01 X-4.53120 Y-3.41478
G01 X-4.52297 Y-3.41534
G01 X-4.47835 Y-3.41535
G01 X-4.47140 Y-3.41504
G01 X-4.46741 Y-3.41466
G01 X-4.46055 Y-3.41348
G01 X-4.45616 Y-3.41246
G01 X-4.45003 Y-3.41058
G01 X-4.44620 Y-3.40916
G01 X-4.43945 Y-3.40613
G01 X-4.43477 Y-3.40354
G01 X-4.17874 Y-3.40354
G01 X-4.17460 Y-3.40340
G01 X-4.16710 Y-3.40262
G01 X-4.16122 Y-3.40145
G01 X-4.15291 Y-3.39893
G01 X-4.14684 Y-3.39638
G01 X-4.13714 Y-3.39560
G01 X-4.12766 Y-3.39383
G01 X-4.12376 Y-3.39279
G01 X-4.11726 Y-3.39070
G01 X-4.11685 Y-3.39056
G01 X-4.11681 Y-3.39012
G01 X-4.11685 Y-3.39056
G01 X-4.11302 Y-3.39258
G01 X-4.10935 Y-3.39419
G01 X-4.10557 Y-3.39556
G01 X-4.09897 Y-3.39728
G01 X-4.09541 Y-3.39788
G01 X-4.09181 Y-3.39826
G01 X-4.08740 Y-3.39843
G01 X-4.01019 Y-3.39838
G01 X-4.00380 Y-3.39777
G01 X-3.99751 Y-3.39646
G01 X-3.99140 Y-3.39449
G01 X-3.98518 Y-3.39168
G01 X-3.97933 Y-3.38816
G01 X-3.97423 Y-3.38426
G01 X-3.96931 Y-3.37954
G01 X-3.96517 Y-3.37455
G01 X-3.93483 Y-3.37455
G01 X-3.93229 Y-3.37774
G01 X-3.92930 Y-3.38099
G01 X-3.92607 Y-3.38400
G01 X-3.92274 Y-3.38668
G01 X-3.92035 Y-3.39497
G01 X-3.91783 Y-3.40128
G01 X-3.91359 Y-3.40926
G01 X-3.91165 Y-3.41229
G01 X-3.90929 Y-3.41551
G01 X-3.90581 Y-3.41975
G01 X-3.90330 Y-3.42250
G01 X-3.87370 Y-3.45210
G01 X-3.86999 Y-3.45541
G01 X-3.86414 Y-3.46000
G01 X-3.85976 Y-3.46280
G01 X-3.85427 Y-3.46576
G01 X-3.84992 Y-3.46775
G01 X-3.84579 Y-3.46927
G01 X-3.83943 Y-3.47116
G01 X-3.83434 Y-3.47225
G01 X-3.82653 Y-3.47315
G01 X-3.82157 Y-3.47335
G01 X-3.34933 Y-3.47335
G01 X-3.34560 Y-3.47324
G01 X-3.34011 Y-3.47273
G01 X-3.33498 Y-3.47196
G01 X-3.32993 Y-3.47074
G01 X-3.32322 Y-3.46862
G01 X-3.31805 Y-3.46646
G01 X-3.31182 Y-3.46319
G01 X-3.30741 Y-3.46045
G01 X-3.30356 Y-3.45759
G01 X-3.29810 Y-3.45296
G01 X-3.11485 Y-3.26975
G01 X-3.11180 Y-3.26636
G01 X-3.10718 Y-3.26052
G01 X-3.10435 Y-3.25616
G01 X-3.10137 Y-3.25068
G01 X-3.09982 Y-3.24744
G01 X-3.09833 Y-3.24373
G01 X-3.09559 Y-3.23470
G01 X-3.09435 Y-3.22802
G01 X-3.09380 Y-3.22259
G01 X-3.09361 Y-3.21886
G01 X-3.09360 Y-2.80988
G01 X-3.09388 Y-2.80492
G01 X-3.09484 Y-2.79715
G01 X-3.09599 Y-2.79208
G01 X-3.09806 Y-2.78536
G01 X-3.10032 Y-2.77980
G01 X-3.10356 Y-2.77356
G01 X-3.10627 Y-2.76912
G01 X-3.10936 Y-2.76494
G01 X-3.11261 Y-2.76102
G01 X-3.11514 Y-2.75829
G01 X-3.15829 Y-2.71514
G01 X-3.16197 Y-2.71180
G01 X-3.16620 Y-2.70837
G01 X-3.16946 Y-2.70605
G01 X-3.17286 Y-2.70395
G01 X-3.17765 Y-2.70137
G01 X-3.18089 Y-2.69982
G01 X-3.18423 Y-2.69847
G01 X-3.19247 Y-2.69589
G01 X-3.19636 Y-2.69499
G01 X-3.19991 Y-2.69441
G01 X-3.20616 Y-2.69377
G01 X-3.21030 Y-2.69360
G01 X-3.54207 Y-2.69359
G01 X-3.60061 Y-2.63506
G01 X-3.60125 Y-2.63497
G01 X-3.60053 Y-2.63506
G01 X-3.59420 Y-2.63105
G01 X-3.59128 Y-2.62894
G01 X-3.58607 Y-2.62480
G01 X-3.31393 Y-2.62480
G01 X-3.30658 Y-2.63045
G01 X-3.30319 Y-2.63279
G01 X-3.29689 Y-2.63651
G01 X-3.29042 Y-2.63972
G01 X-3.28641 Y-2.64136
G01 X-3.27735 Y-2.64453
G01 X-3.27308 Y-2.64560
G01 X-3.26406 Y-2.64739
G01 X-3.25968 Y-2.64788
G01 X-3.25045 Y-2.64840
G01 X-3.24280 Y-2.64812
G01 X-3.23834 Y-2.64770
G01 X-3.23076 Y-2.64651
G01 X-3.22331 Y-2.64471
G01 X-3.21526 Y-2.64204
G01 X-3.21080 Y-2.64025
G01 X-3.20359 Y-2.63678
G01 X-3.19671 Y-2.63271
G01 X-3.19306 Y-2.63024
G01 X-3.18668 Y-2.62532
G01 X-3.18068 Y-2.61985
G01 X-3.17542 Y-2.61417
G01 X-3.17258 Y-2.61071
G01 X-3.16785 Y-2.60417
G01 X-3.16368 Y-2.59725
G01 X-3.16028 Y-2.59037
G01 X-3.15853 Y-2.58625
G01 X-3.15597 Y-2.57902
G01 X-3.15375 Y-2.57046
G01 X-3.15248 Y-2.56297
G01 X-3.15195 Y-2.55819
G01 X-3.15159 Y-2.55015
G01 X-3.15195 Y-2.54167
G01 X-3.15292 Y-2.53407
G01 X-3.15382 Y-2.52926
G01 X-3.15561 Y-2.52216
G01 X-3.15838 Y-2.51409
G01 X-3.16147 Y-2.50708
G01 X-3.16351 Y-2.50309
G01 X-3.16746 Y-2.49643
G01 X-3.17215 Y-2.48980
G01 X-3.17735 Y-2.48365
G01 X-3.18039 Y-2.48046
G01 X-3.18631 Y-2.47499
G01 X-3.19301 Y-2.46978
G01 X-3.19943 Y-2.46561
G01 X-3.20369 Y-2.46319
G01 X-3.21058 Y-2.45984
G01 X-3.21811 Y-2.45691
G01 X-3.22507 Y-2.45483
G01 X-3.22982 Y-2.45370
G01 X-3.23697 Y-2.45246
G01 X-3.24500 Y-2.45173
G01 X-3.25140 Y-2.45162
G01 X-3.25590 Y-2.45179
G01 X-3.26346 Y-2.45253
G01 X-3.26984 Y-2.45362
G01 X-3.27660 Y-2.45526
G01 X-3.28321 Y-2.45737
G01 X-3.29037 Y-2.46026
G01 X-3.29900 Y-2.46473
G01 X-3.30280 Y-2.46696
G01 X-3.31060 Y-2.47254
G01 X-3.31393 Y-2.47519
G01 X-3.58611 Y-2.47519
G01 X-3.59024 Y-2.47184
G01 X-3.59447 Y-2.46877
G01 X-3.59754 Y-2.46676
G01 X-3.60453 Y-2.46273
G01 X-3.61260 Y-2.45898
G01 X-3.62135 Y-2.45586
G01 X-3.62877 Y-2.45392
G01 X-3.63197 Y-2.45327
G01 X-3.63753 Y-2.45242
G01 X-3.64268 Y-2.45188
G01 X-3.74619 Y-2.34850
G01 X-3.75105 Y-2.34446
G01 X-3.75425 Y-2.34207
G01 X-3.75796 Y-2.33970
G01 X-3.76273 Y-2.33710
G01 X-3.76632 Y-2.33533
G01 X-3.77001 Y-2.33381
G01 X-3.77903 Y-2.33103
G01 X-3.78294 Y-2.33019
G01 X-3.78649 Y-2.32965
G01 X-3.79195 Y-2.32912
G01 X-3.79609 Y-2.32895
G01 X-4.15598 Y-2.32900
G01 X-4.16311 Y-2.32961
G01 X-4.16785 Y-2.33034
G01 X-4.17290 Y-2.33156
G01 X-4.17961 Y-2.33368
G01 X-4.18477 Y-2.33584
G01 X-4.19100 Y-2.33910
G01 X-4.19542 Y-2.34184
G01 X-4.19926 Y-2.34471
G01 X-4.20319 Y-2.34796
G01 X-4.20592 Y-2.35049
G01 X-4.30732 Y-2.45188
G01 X-4.31247 Y-2.45242
G01 X-4.31803 Y-2.45327
G01 X-4.32123 Y-2.45392
G01 X-4.32865 Y-2.45586
G01 X-4.33740 Y-2.45898
G01 X-4.34547 Y-2.46273
G01 X-4.35246 Y-2.46676
G01 X-4.35553 Y-2.46877
G01 X-4.35976 Y-2.47184
G01 X-4.36389 Y-2.47519
G01 X-4.63606 Y-2.47519
G01 X-4.63874 Y-2.47304
G01 X-4.64488 Y-2.46852
G01 X-4.65065 Y-2.46492
G01 X-4.65703 Y-2.46151
G01 X-4.66039 Y-2.45992
G01 X-4.66641 Y-2.45751
G01 X-4.67219 Y-2.45561
G01 X-4.68097 Y-2.45345
G01 X-4.68693 Y-2.45248
G01 X-4.69051 Y-2.45207
G01 X-4.69614 Y-2.45167
G01 X-4.70180 Y-2.45162
G01 X-4.70540 Y-2.45175
G01 X-4.71141 Y-2.45226
G01 X-4.71978 Y-2.45363
G01 X-4.72415 Y-2.45461
G01 X-4.73151 Y-2.45678
G01 X-4.73942 Y-2.45984
G01 X-4.74631 Y-2.46319
G01 X-4.75056 Y-2.46561
G01 X-4.75699 Y-2.46978
G01 X-4.76369 Y-2.47499
G01 X-4.76961 Y-2.48046
G01 X-4.77265 Y-2.48365
G01 X-4.77785 Y-2.48980
G01 X-4.78254 Y-2.49643
G01 X-4.78649 Y-2.50309
G01 X-4.78852 Y-2.50708
G01 X-4.79162 Y-2.51409
G01 X-4.79439 Y-2.52216
G01 X-4.79660 Y-2.53126
G01 X-4.79798 Y-2.54086
G01 X-4.79840 Y-2.55021
G01 X-4.79790 Y-2.55995
G01 X-4.79652 Y-2.56914
G01 X-4.79427 Y-2.57823
G01 X-4.79116 Y-2.58704
G01 X-4.78835 Y-2.59329
G01 X-4.78649 Y-2.59691
G01 X-4.78208 Y-2.60426
G01 X-4.77857 Y-2.60924
G01 X-4.77598 Y-2.61249
G01 X-4.77198 Y-2.61709
G01 X-4.76738 Y-2.62169
G01 X-4.76462 Y-2.62421
G01 X-4.76023 Y-2.62780
G01 X-4.75696 Y-2.63023
G01 X-4.75124 Y-2.63400
G01 X-4.74345 Y-2.63829
G01 X-4.74012 Y-2.63984
G01 X-4.73416 Y-2.64228
G01 X-4.72646 Y-2.64476
G01 X-4.72203 Y-2.64589
G01 X-4.71441 Y-2.64734
G01 X-4.70723 Y-2.64814
G01 X-4.70090 Y-2.64838
G01 X-4.69681 Y-2.64834
G01 X-4.68993 Y-2.64788
G01 X-4.68392 Y-2.64708
G01 X-4.67796 Y-2.64590
G01 X-4.67131 Y-2.64411
G01 X-4.66742 Y-2.64284
G01 X-4.66175 Y-2.64067
G01 X-4.65551 Y-2.63777
G01 X-4.64944 Y-2.63442
G01 X-4.64461 Y-2.63132
G01 X-4.64161 Y-2.62919
G01 X-4.63607 Y-2.62480
G01 X-4.36393 Y-2.62480
G01 X-4.36086 Y-2.62729
G01 X-4.35435 Y-2.63203
G01 X-4.35124 Y-2.63396
G01 X-4.34427 Y-2.63788
G01 X-4.34101 Y-2.63941
G01 X-4.33320 Y-2.64263
G01 X-4.32973 Y-2.64377
G01 X-4.32231 Y-2.64584
G01 X-4.31148 Y-2.64773
G01 X-4.30339 Y-2.64832
G01 X-4.29967 Y-2.64840
G01 X-4.29240 Y-2.64808
G01 X-4.28836 Y-2.64771
G01 X-4.28042 Y-2.64641
G01 X-4.27628 Y-2.64549
G01 X-4.12796 Y-2.71966
G01 X-4.12796 Y-2.72021
G04 P0 ( dwell for no time -- G64 should not smooth over this point )
G00 Z0.08000 ( retract )

G00 X-4.12795 Y-2.48339 ( rapid move to begin. )
G01 F0.50000
( Mill infeed pass 1/1 )
G01 Z-0.04000
G04 P0 ( dwell for no time -- G64 should not smooth over this point )
G01 F1.00000
G01 X-4.12795 Y-2.48339
G01 X-4.17395 Y-2.52939
G01 X-4.12795 Y-2.55239
G01 X-4.12755 Y-2.55303
G01 X-4.12795 Y-2.55239
G01 X-4.12795 Y-2.48339
G01 X-4.12755 Y-2.48243
G04 P0 ( dwell for no time -- G64 should not smooth over this point )
G00 Z0.08000 ( retract )

G00 X-3.80739 Y-2.49804 ( rapid move to begin. )
G01 F0.50000
( Mill infeed pass 1/1 )
G01 Z-0.04000
G04 P0 ( dwell for no time -- G64 should not smooth over this point )
G01 F1.00000
G01 X-3.80739 Y-2.49804
G01 X-3.83752 Y-2.49804
G01 X-3.85751 Y-2.47805
G01 X-3.85847 Y-2.47765
G01 X-3.85751 Y-2.47805
G01 X-3.82738 Y-2.47805
G01 X-3.80739 Y-2.49804
G01 X-3.80642 Y-2.49844

G00 Z1.00000 (Retract to tool change height)
T2
M5      (Spindle stop.)
G04 P1.00000 (Wait for spindle to stop)
(MSG, Change tool bit to mill diameter 0.00787in)
M6      (Tool change.)
M0      (Temporary machine stop.)
M3 ( Spindle on clockwise. )
G04 P1.00000 (Wait for spindle to get up to speed)
G04 P0 ( dwell for no time -- G64 should not smooth over this point )
G00 Z0.08000 ( retract )

G00 X-3.28059 Y-2.58062 ( rapid move to begin. )
G01 F0.50000
( Mill infeed pass 1/1 )
G01 Z-0.04000
G04 P0 ( dwell for no time -- G64 should not smooth over this point )
G01 F1.00000
G01 X-3.28059 Y-2.58062
G01 X-3.28324 Y-2.57772
G01 X-3.28654 Y-2.57320
G01 X-3.28853 Y-2.56969
G01 X-3.30945 Y-2.56969
G04 P0 ( dwell for no time -- G64 should not smooth over this point )
G00 Z0.08000 ( retract )

G00 X-3.28042 Y-2.51921 ( rapid move to begin. )
G01 F0.50000
( Mill infeed pass 1/1 )
G01 Z-0.04000
G04 P0 ( dwell for no time -- G64 should not smooth over this point )
G01 F1.00000
G01 X-3.28042 Y-2.51921
G01 X-3.28269 Y-2.52162
G01 X-3.28480 Y-2.52426
G01 X-3.28677 Y-2.52716
G01 X-3.28853 Y-2.53031
G01 X-3.30955 Y-2.53031
G04 P0 ( dwell for no time -- G64 should not smooth over this point )
G00 Z0.08000 ( retract )

G00 X-3.59037 Y-2.53031 ( rapid move to begin. )
G01 F0.50000
( Mill infeed pass 1/1 )
G01 Z-0.04000
G04 P0 ( dwell for no time -- G64 should not smooth over this point )
G01 F1.00000
G01 X-3.59037 Y-2.53031
G01 X-3.61150 Y-2.53031
G01 X-3.61228 Y-2.52877
G01 X-3.61439 Y-2.52540
G01 X-3.61681 Y-2.52222
G01 X-3.61960 Y-2.51918
G04 P0 ( dwell for no time -- G64 should not smooth over this point )
G00 Z0.08000 ( retract )

G00 X-3.64978 Y-2.50672 ( rapid move to begin. )
G01 F0.50000
( Mill infeed pass 1/1 )
G01 Z-0.04000
G04 P0 ( dwell for no time -- G64 should not smooth over this point )
G01 F1.00000
G01 X-3.64978 Y-2.50672
G01 X-3.65394 Y-2.50690
G01 X-3.65790 Y-2.50744
G01 X-3.66177 Y-2.50835
G01 X-3.66357 Y-2.50894
G01 X-3.67865 Y-2.49386
G04 P0 ( dwell for no time -- G64 should not smooth over this point )
G00 Z0.08000 ( retract )

G00 X-3.59039 Y-2.56969 ( rapid move to begin. )
G01 F0.50000
( Mill infeed pass 1/1 )
G01 Z-0.04000
G04 P0 ( dwell for no time -- G64 should not smooth over this point )
G01 F1.00000
G01 X-3.59039 Y-2.56969
G01 X-3.61147 Y-2.56969
G01 X-3.61346 Y-2.57320
G01 X-3.61521 Y-2.57576
G01 X-3.61741 Y-2.57848
G01 X-3.61965 Y-2.58086
G01 X-3.54595 Y-2.74871
G01 X-3.56490 Y-2.74871
G01 X-3.70136 Y-2.61226
G01 X-3.70430 Y-2.60984
G01 X-3.70803 Y-2.60791
G01 X-3.71131 Y-2.60694
G01 X-3.71471 Y-2.60658
G01 X-3.74216 Y-2.60656
G01 X-3.74216 Y-2.55710
G01 X-3.74235 Y-2.55588
G01 X-3.74269 Y-2.55513
G01 X-3.74317 Y-2.55446
G01 X-3.74413 Y-2.55369
G01 X-3.74488 Y-2.55335
G01 X-3.74610 Y-2.55316
G01 X-3.86035 Y-2.55316
G01 X-3.91935 Y-2.49416
G01 X-3.92230 Y-2.49174
G01 X-3.92566 Y-2.48994
G01 X-3.92716 Y-2.48947
G01 X-3.92716 Y-2.43900
G01 X-3.92735 Y-2.43778
G01 X-3.92769 Y-2.43703
G01 X-3.92817 Y-2.43636
G01 X-3.92913 Y-2.43559
G01 X-3.92988 Y-2.43526
G01 X-3.93110 Y-2.43506
G01 X-4.06890 Y-2.43506
G01 X-4.07012 Y-2.43526
G01 X-4.07087 Y-2.43559
G01 X-4.07182 Y-2.43636
G01 X-4.07231 Y-2.43703
G01 X-4.07264 Y-2.43778
G01 X-4.07284 Y-2.43900
G01 X-4.07284 Y-2.57680
G01 X-4.07250 Y-2.57840
G01 X-4.07209 Y-2.57911
G01 X-4.07121 Y-2.57999
G01 X-4.07012 Y-2.58054
G01 X-4.06890 Y-2.58074
G01 X-3.93110 Y-2.58074
G01 X-3.92988 Y-2.58054
G01 X-3.92878 Y-2.57999
G01 X-3.92791 Y-2.57911
G01 X-3.92735 Y-2.57802
G01 X-3.92718 Y-2.57721
G01 X-3.92716 Y-2.54133
G01 X-3.88784 Y-2.58065
G01 X-3.88781 Y-2.69531
G01 X-3.88764 Y-2.69612
G01 X-3.88708 Y-2.69721
G01 X-3.88621 Y-2.69808
G01 X-3.88550 Y-2.69850
G01 X-3.88431 Y-2.69882
G01 X-3.88039 Y-2.69884
G01 X-3.92716 Y-2.74561
G01 X-3.92716 Y-2.67520
G01 X-3.92735 Y-2.67398
G01 X-3.92769 Y-2.67323
G01 X-3.92847 Y-2.67227
G01 X-3.92913 Y-2.67179
G01 X-3.92988 Y-2.67145
G01 X-3.93110 Y-2.67126
G01 X-4.01345 Y-2.67126
G01 X-4.14529 Y-2.60534
G01 X-4.16062 Y-2.43811
G01 X-4.14545 Y-2.42294
G01 X-3.80455 Y-2.42294
G01 X-3.69105 Y-2.53644
G01 X-3.69172 Y-2.53848
G01 X-3.69267 Y-2.54277
G01 X-3.69324 Y-2.54800
G01 X-3.69322 Y-2.55238
G01 X-3.69287 Y-2.55596
G01 X-3.69224 Y-2.55944
G01 X-3.69109 Y-2.56359
G01 X-3.68968 Y-2.56729
G01 X-3.68811 Y-2.57052
G01 X-3.68630 Y-2.57357
G01 X-3.68401 Y-2.57677
G01 X-3.68117 Y-2.58003
G01 X-3.67857 Y-2.58251
G01 X-3.67548 Y-2.58499
G01 X-3.67187 Y-2.58735
G01 X-3.66838 Y-2.58919
G01 X-3.66512 Y-2.59056
G01 X-3.66135 Y-2.59177
G01 X-3.65784 Y-2.59257
G01 X-3.65358 Y-2.59314
G01 X-3.65006 Y-2.59328
G01 X-3.64654 Y-2.59314
G01 X-3.64307 Y-2.59273
G01 X-3.64003 Y-2.59212
G01 X-3.63666 Y-2.59118
G01 X-3.63325 Y-2.58989
G04 P0 ( dwell for no time -- G64 should not smooth over this point )
G00 Z0.08000 ( retract )

G00 X-3.74261 Y-2.69671 ( rapid move to begin. )
G01 F0.50000
( Mill infeed pass 1/1 )
G01 Z-0.04000
G04 P0 ( dwell for no time -- G64 should not smooth over this point )
G01 F1.00000
G01 X-3.74261 Y-2.69671
G01 X-3.74225 Y-2.69572
G01 X-3.74216 Y-2.69490
G01 X-3.74216 Y-2.64544
G01 X-3.72315 Y-2.64544
G01 X-3.67113 Y-2.69746
G01 X-3.63131 Y-2.91101
G01 X-3.57414 Y-2.78749
G01 X-3.63131 Y-2.91101
G01 X-3.62976 Y-2.91174
G01 X-3.62670 Y-2.91352
G01 X-3.62346 Y-2.91580
G01 X-3.62046 Y-2.91836
G01 X-3.61799 Y-2.92086
G01 X-3.61572 Y-2.92358
G01 X-3.61346 Y-2.92680
G01 X-3.61135 Y-2.93056
G01 X-3.60648 Y-2.93056
G01 X-3.52783 Y-2.85192
G01 X-3.52794 Y-2.84975
G01 X-3.52774 Y-2.84655
G01 X-3.52708 Y-2.84292
G01 X-3.52581 Y-2.83899
G01 X-3.52395 Y-2.83517
G01 X-3.52161 Y-2.83173
G01 X-3.51883 Y-2.82867
G01 X-3.51606 Y-2.82632
G01 X-3.51373 Y-2.82475
G01 X-3.51087 Y-2.82323
G01 X-3.50828 Y-2.82217
G01 X-3.50559 Y-2.82136
G01 X-3.50244 Y-2.82075
G01 X-3.49965 Y-2.82050
G01 X-3.49645 Y-2.82054
G01 X-3.49323 Y-2.82094
G01 X-3.48967 Y-2.82180
G01 X-3.48666 Y-2.82292
G01 X-3.48415 Y-2.82416
G01 X-3.48140 Y-2.82588
G01 X-3.47919 Y-2.82760
G01 X-3.47715 Y-2.82953
G01 X-3.47506 Y-2.83196
G01 X-3.47320 Y-2.83468
G01 X-3.47111 Y-2.83880
G01 X-3.46970 Y-2.84323
G01 X-3.46896 Y-2.84823
G01 X-3.46904 Y-2.85285
G01 X-3.46970 Y-2.85680
G01 X-3.47111 Y-2.86120
G01 X-3.47336 Y-2.86560
G01 X-3.47656 Y-2.86984
G01 X-3.47884 Y-2.87209
G01 X-3.48070 Y-2.87358
G01 X-3.42919 Y-2.87717
G01 X-3.49281 Y-2.87894
G01 X-3.49555 Y-2.87938
G01 X-3.49876 Y-2.87952
G01 X-3.50036 Y-2.87942
G01 X-3.50960 Y-2.88867
G01 X-3.50036 Y-2.87942
G01 X-3.49876 Y-2.87952
G01 X-3.49555 Y-2.87938
G01 X-3.49281 Y-2.87894
G01 X-3.42919 Y-2.87717
G01 X-3.42953 Y-2.87559
G01 X-3.42953 Y-2.82441
G01 X-3.42919 Y-2.82281
G01 X-3.42852 Y-2.82178
G01 X-3.42719 Y-2.82081
G01 X-3.42559 Y-2.82047
G01 X-3.37441 Y-2.82047
G01 X-3.37359 Y-2.82056
G01 X-3.37244 Y-2.82100
G01 X-3.37148 Y-2.82178
G01 X-3.37081 Y-2.82281
G01 X-3.37047 Y-2.82441
G01 X-3.37047 Y-2.83056
G01 X-3.35000 Y-2.83056
G01 X-3.34659 Y-2.83088
G01 X-3.34256 Y-2.83204
G01 X-3.33889 Y-2.83407
G01 X-3.33625 Y-2.83625
G01 X-3.26357 Y-2.90894
G01 X-3.26175 Y-2.90834
G01 X-3.25786 Y-2.90744
G01 X-3.25350 Y-2.90686
G01 X-3.25185 Y-2.90679
G01 X-3.24081 Y-2.90770
G01 X-3.23656 Y-2.90885
G01 X-3.23249 Y-2.91041
G01 X-3.22857 Y-2.91240
G01 X-3.22488 Y-2.91475
G01 X-3.22175 Y-2.91721
G01 X-3.21856 Y-2.92025
G01 X-3.21572 Y-2.92358
G01 X-3.21344 Y-2.92684
G01 X-3.21128 Y-2.93067
G01 X-3.20966 Y-2.93432
G01 X-3.20827 Y-2.93850
G01 X-3.20739 Y-2.94238
G01 X-3.20687 Y-2.94630
G01 X-3.20672 Y-2.95026
G01 X-3.20697 Y-2.95463
G01 X-3.20757 Y-2.95856
G01 X-3.20865 Y-2.96281
G01 X-3.21001 Y-2.96655
G01 X-3.21188 Y-2.97051
G01 X-3.21393 Y-2.97392
G01 X-3.21653 Y-2.97744
G01 X-3.21919 Y-2.98040
G01 X-3.22210 Y-2.98309
G01 X-3.22558 Y-2.98574
G01 X-3.22897 Y-2.98783
G01 X-3.23056 Y-2.98863
G01 X-3.23056 Y-3.18021
G01 X-3.23094 Y-3.18400
G01 X-3.23191 Y-3.18729
G01 X-3.23407 Y-3.19132
G01 X-3.23625 Y-3.19395
G01 X-3.30604 Y-3.26374
G01 X-3.30899 Y-3.26616
G01 X-3.31235 Y-3.26796
G01 X-3.31599 Y-3.26906
G01 X-3.31979 Y-3.26944
G01 X-3.35359 Y-3.26944
G01 X-3.35606 Y-3.27224
G01 X-3.35833 Y-3.27431
G01 X-3.36079 Y-3.27614
G01 X-3.36342 Y-3.27773
G01 X-3.36619 Y-3.27905
G01 X-3.36885 Y-3.28003
G01 X-3.37180 Y-3.28080
G01 X-3.37483 Y-3.28130
G01 X-3.37812 Y-3.28150
G01 X-3.42177 Y-3.28150
G01 X-3.42513 Y-3.28130
G01 X-3.42831 Y-3.28078
G01 X-3.43103 Y-3.28006
G01 X-3.43368 Y-3.27911
G01 X-3.43623 Y-3.27792
G01 X-3.43866 Y-3.27650
G01 X-3.44096 Y-3.27488
G01 X-3.44285 Y-3.27330
G01 X-3.44515 Y-3.27096
G01 X-3.44763 Y-3.26779
G01 X-3.44984 Y-3.26403
G01 X-3.45151 Y-3.26001
G01 X-3.45249 Y-3.25618
G01 X-3.50008 Y-3.30905
G04 P0 ( dwell for no time -- G64 should not smooth over this point )
G00 Z0.08000 ( retract )

G00 X-3.29328 Y-2.95011 ( rapid move to begin. )
G01 F0.50000
( Mill infeed pass 1/1 )
G01 Z-0.04000
G04 P0 ( dwell for no time -- G64 should not smooth over this point )
G01 F1.00000
G01 X-3.29328 Y-2.95011
G01 X-3.29312 Y-2.94628
G01 X-3.29259 Y-2.94232
G01 X-3.29160 Y-2.93804
G01 X-3.29106 Y-2.93643
G01 X-3.35805 Y-2.86944
G01 X-3.37047 Y-2.86944
G01 X-3.37056 Y-2.87641
G01 X-3.37122 Y-2.87790
G01 X-3.37177 Y-2.87852
G01 X-3.37279 Y-2.87918
G01 X-3.28071 Y-2.98050
G01 X-3.27761 Y-2.98333
G01 X-3.27442 Y-2.98574
G01 X-3.27103 Y-2.98783
G01 X-3.26944 Y-2.98863
G01 X-3.26944 Y-3.17216
G01 X-3.32784 Y-3.23056
G01 X-3.35361 Y-3.23056
G01 X-3.35650 Y-3.22732
G01 X-3.35901 Y-3.22514
G01 X-3.36174 Y-3.22324
G01 X-3.36466 Y-3.22164
G01 X-3.36773 Y-3.22035
G01 X-3.37132 Y-3.21930
G01 X-3.37463 Y-3.21873
G01 X-3.37798 Y-3.21851
G01 X-3.42295 Y-3.21854
G01 X-3.42728 Y-3.21902
G01 X-3.43173 Y-3.22017
G01 X-3.43575 Y-3.22185
G01 X-3.43923 Y-3.22388
G01 X-3.44309 Y-3.22694
G01 X-3.44622 Y-3.23031
G01 X-3.44854 Y-3.23360
G01 X-3.45054 Y-3.23748
G01 X-3.45206 Y-3.24181
G01 X-3.45245 Y-3.24370
G01 X-3.50008 Y-3.30905
G01 X-3.44618 Y-3.30905
G01 X-3.44507 Y-3.30768
G01 X-3.44251 Y-3.30515
G01 X-3.43950 Y-3.30279
G01 X-3.43644 Y-3.30094
G01 X-3.43318 Y-3.29944
G01 X-3.42978 Y-3.29832
G01 X-3.42626 Y-3.29759
G01 X-3.42292 Y-3.29727
G01 X-3.37644 Y-3.29731
G01 X-3.37260 Y-3.29778
G01 X-3.36888 Y-3.29871
G01 X-3.36530 Y-3.30008
G01 X-3.36154 Y-3.30211
G01 X-3.35903 Y-3.30387
G01 X-3.35698 Y-3.30561
G01 X-3.35483 Y-3.30780
G01 X-3.35267 Y-3.31050
G01 X-3.35102 Y-3.31309
G01 X-3.34963 Y-3.31582
G01 X-3.34863 Y-3.31832
G01 X-3.34767 Y-3.32163
G01 X-3.34717 Y-3.32428
G01 X-3.34688 Y-3.32733
G01 X-3.34692 Y-3.33079
G01 X-3.34721 Y-3.33346
G01 X-3.34782 Y-3.33647
G01 X-3.34880 Y-3.33963
G01 X-3.35017 Y-3.34281
G01 X-3.35169 Y-3.34550
G01 X-3.35335 Y-3.34789
G01 X-3.35551 Y-3.35042
G01 X-3.35805 Y-3.35281
G01 X-3.36070 Y-3.35482
G01 X-3.36318 Y-3.35634
G01 X-3.36596 Y-3.35769
G01 X-3.36945 Y-3.35895
G01 X-3.37205 Y-3.35960
G01 X-3.37509 Y-3.36006
G01 X-3.37812 Y-3.36023
G01 X-3.42199 Y-3.36023
G01 X-3.42563 Y-3.35998
G01 X-3.42916 Y-3.35932
G01 X-3.43281 Y-3.35819
G01 X-3.43610 Y-3.35672
G01 X-3.43918 Y-3.35490
G01 X-3.44222 Y-3.35258
G01 X-3.44497 Y-3.34991
G01 X-3.44617 Y-3.34843
G01 X-3.67160 Y-3.34841
G01 X-3.67469 Y-3.34813
G01 X-3.67801 Y-3.34723
G01 X-3.72266 Y-3.33094
G01 X-3.72427 Y-3.33235
G01 X-3.72752 Y-3.33468
G01 X-3.73135 Y-3.33689
G01 X-3.73579 Y-3.33881
G01 X-3.74047 Y-3.34022
G01 X-3.74526 Y-3.34106
G01 X-3.75010 Y-3.34133
G01 X-3.75449 Y-3.34109
G01 X-3.75805 Y-3.34054
G01 X-3.76151 Y-3.33970
G01 X-3.76526 Y-3.33841
G01 X-3.76883 Y-3.33680
G01 X-3.77226 Y-3.33483
G01 X-3.77517 Y-3.33278
G01 X-3.77793 Y-3.33047
G01 X-3.78069 Y-3.32769
G01 X-3.78320 Y-3.32462
G01 X-3.78519 Y-3.32167
G01 X-3.78712 Y-3.31819
G01 X-3.78869 Y-3.31453
G01 X-3.78991 Y-3.31077
G01 X-3.79068 Y-3.30731
G01 X-3.79113 Y-3.30414
G01 X-3.79133 Y-3.29981
G01 X-3.79112 Y-3.29583
G01 X-3.79060 Y-3.29227
G01 X-3.78967 Y-3.28840
G01 X-3.78837 Y-3.28464
G01 X-3.78654 Y-3.28068
G01 X-3.78472 Y-3.27758
G01 X-3.78240 Y-3.27434
G01 X-3.77949 Y-3.27104
G01 X-3.77655 Y-3.26832
G01 X-3.77305 Y-3.26569
G01 X-3.76927 Y-3.26343
G01 X-3.76602 Y-3.26189
G01 X-3.76228 Y-3.26053
G01 X-3.75803 Y-3.25945
G01 X-3.75368 Y-3.25883
G01 X-3.75008 Y-3.25867
G01 X-3.74652 Y-3.25881
G01 X-3.74222 Y-3.25940
G01 X-3.73836 Y-3.26034
G01 X-3.73461 Y-3.26163
G01 X-3.73137 Y-3.26310
G01 X-3.72823 Y-3.26486
G01 X-3.72495 Y-3.26712
G01 X-3.72221 Y-3.26940
G01 X-3.71976 Y-3.27183
G01 X-3.67280 Y-3.30722
G01 X-3.66778 Y-3.30905
G01 X-3.66243 Y-3.30905
G01 X-3.68916 Y-3.30125
G01 X-3.70914 Y-3.29396
G01 X-3.71025 Y-3.28867
G01 X-3.71151 Y-3.28492
G01 X-3.71292 Y-3.28172
G04 P0 ( dwell for no time -- G64 should not smooth over this point )
G00 Z0.08000 ( retract )

G00 X-3.93069 Y-3.31944 ( rapid move to begin. )
G01 F0.50000
( Mill infeed pass 1/1 )
G01 Z-0.04000
G04 P0 ( dwell for no time -- G64 should not smooth over this point )
G01 F1.00000
G01 X-3.93069 Y-3.31944
G01 X-3.89134 Y-3.31944
G01 X-3.89132 Y-3.33978
G01 X-3.89119 Y-3.34041
G01 X-3.88951 Y-3.34285
G01 X-3.88740 Y-3.34331
G01 X-3.86944 Y-3.34331
G01 X-3.86944 Y-3.37037
G01 X-3.86927 Y-3.37225
G01 X-3.88951 Y-3.34285
G01 X-3.96932 Y-3.31944
G01 X-4.00866 Y-3.31944
G01 X-4.00866 Y-3.33937
G01 X-4.00880 Y-3.34039
G04 P0 ( dwell for no time -- G64 should not smooth over this point )
G00 Z0.08000 ( retract )

G00 X-4.16836 Y-3.34543 ( rapid move to begin. )
G01 F0.50000
( Mill infeed pass 1/1 )
G01 Z-0.04000
G04 P0 ( dwell for no time -- G64 should not smooth over this point )
G01 F1.00000
G01 X-4.16836 Y-3.34543
G01 X-4.16510 Y-3.34292
G01 X-4.16173 Y-3.33957
G01 X-4.15931 Y-3.34027
G01 X-4.15498 Y-3.34103
G01 X-4.15184 Y-3.34124
G01 X-4.09078 Y-3.34138
G01 X-4.09115 Y-3.34059
G01 X-4.09134 Y-3.33937
G01 X-4.09134 Y-3.26063
G01 X-4.09098 Y-3.25900
G01 X-4.13075 Y-3.26342
G01 X-4.12680 Y-3.26579
G01 X-4.12362 Y-3.26818
G01 X-4.12094 Y-3.27060
G01 X-4.11799 Y-3.27386
G01 X-4.11540 Y-3.27739
G01 X-4.11356 Y-3.28049
G01 X-4.11185 Y-3.28408
G01 X-4.11039 Y-3.28819
G01 X-4.10944 Y-3.29205
G01 X-4.10890 Y-3.29562
G01 X-4.10867 Y-3.30003
G01 X-4.10901 Y-3.30530
G01 X-4.10980 Y-3.30963
G01 X-4.11121 Y-3.31429
G01 X-4.11316 Y-3.31874
G01 X-4.11586 Y-3.32329
G01 X-4.11884 Y-3.32716
G01 X-4.12259 Y-3.33094
G01 X-4.12642 Y-3.33394
G01 X-4.13086 Y-3.33661
G01 X-4.12642 Y-3.33394
G01 X-4.12259 Y-3.33094
G01 X-4.11884 Y-3.32716
G01 X-4.11586 Y-3.32329
G01 X-4.11316 Y-3.31874
G01 X-4.11121 Y-3.31429
G01 X-4.10980 Y-3.30963
G01 X-4.10901 Y-3.30530
G01 X-4.10867 Y-3.30003
G01 X-4.10890 Y-3.29562
G01 X-4.10944 Y-3.29205
G01 X-4.11039 Y-3.28819
G01 X-4.11185 Y-3.28408
G01 X-4.11356 Y-3.28049
G01 X-4.11540 Y-3.27739
G01 X-4.11799 Y-3.27386
G01 X-4.12094 Y-3.27060
G01 X-4.12362 Y-3.26818
G01 X-4.12680 Y-3.26579
G01 X-4.13075 Y-3.26342
G01 X-4.08711 Y-3.25669
G01 X-4.01219 Y-3.25671
G01 X-4.01100 Y-3.25703
G01 X-4.00967 Y-3.25800
G01 X-4.00900 Y-3.25903
G01 X-4.00868 Y-3.26022
G01 X-4.00866 Y-3.28056
G01 X-3.89134 Y-3.28056
G01 X-3.89132 Y-3.26022
G01 X-3.89100 Y-3.25903
G01 X-3.89033 Y-3.25800
G01 X-3.88971 Y-3.25744
G01 X-3.88862 Y-3.25689
G01 X-3.88740 Y-3.25669
G01 X-3.81260 Y-3.25669
G01 X-3.81100 Y-3.25703
G01 X-3.80967 Y-3.25800
G01 X-3.80900 Y-3.25903
G01 X-3.80866 Y-3.26063
G01 X-3.80875 Y-3.34019
G01 X-3.80919 Y-3.34134
G01 X-3.80996 Y-3.34230
G01 X-3.81100 Y-3.34297
G01 X-3.81219 Y-3.34328
G01 X-3.83056 Y-3.34331
G01 X-3.83056 Y-3.36232
G01 X-3.81352 Y-3.37936
G01 X-3.35738 Y-3.37936
G01 X-3.18759 Y-3.20957
G01 X-3.18759 Y-2.81876
G01 X-3.21876 Y-2.78759
G01 X-3.57414 Y-2.78749
G01 X-3.70980 Y-2.93056
G01 X-3.68866 Y-2.93056
G01 X-3.68677 Y-2.92718
G01 X-3.68352 Y-2.92262
G01 X-3.68031 Y-2.91921
G04 P0 ( dwell for no time -- G64 should not smooth over this point )
G00 Z0.08000 ( retract )

G00 X-3.70974 Y-2.96950 ( rapid move to begin. )
G01 F0.50000
( Mill infeed pass 1/1 )
G01 Z-0.04000
G04 P0 ( dwell for no time -- G64 should not smooth over this point )
G01 F1.00000
G01 X-3.70974 Y-2.96950
G01 X-3.68863 Y-2.96950
G01 X-3.68654 Y-2.97320
G01 X-3.68324 Y-2.97772
G01 X-3.68059 Y-2.98062
G04 P0 ( dwell for no time -- G64 should not smooth over this point )
G00 Z0.08000 ( retract )

G00 X-3.61915 Y-2.98023 ( rapid move to begin. )
G01 F0.50000
( Mill infeed pass 1/1 )
G01 Z-0.04000
G04 P0 ( dwell for no time -- G64 should not smooth over this point )
G01 F1.00000
G01 X-3.61915 Y-2.98023
G01 X-3.61648 Y-2.97738
G01 X-3.61323 Y-2.97282
G01 X-3.61134 Y-2.96944
G01 X-3.59843 Y-2.96944
G01 X-3.59695 Y-2.96931
G01 X-3.46098 Y-3.15157
G01 X-3.44618 Y-3.15157
G01 X-3.44507 Y-3.15020
G01 X-3.44286 Y-3.14798
G01 X-3.43990 Y-3.14560
G01 X-3.28071 Y-2.98050
G01 X-3.35523 Y-3.14990
G01 X-3.35267 Y-3.15302
G01 X-3.35102 Y-3.15561
G01 X-3.34963 Y-3.15834
G01 X-3.34850 Y-3.16120
G01 X-3.34767 Y-3.16415
G01 X-3.34712 Y-3.16717
G01 X-3.34687 Y-3.17024
G01 X-3.34692 Y-3.17331
G01 X-3.34727 Y-3.17636
G01 X-3.34792 Y-3.17937
G01 X-3.34880 Y-3.18215
G01 X-3.35000 Y-3.18499
G01 X-3.35148 Y-3.18768
G01 X-3.35380 Y-3.19098
G01 X-3.35675 Y-3.19417
G01 X-3.35990 Y-3.19678
G01 X-3.36292 Y-3.19871
G01 X-3.36685 Y-3.20057
G01 X-3.37074 Y-3.20182
G01 X-3.37426 Y-3.20248
G01 X-3.37835 Y-3.20275
G01 X-3.42199 Y-3.20275
G01 X-3.42681 Y-3.20232
G01 X-3.42994 Y-3.20164
G01 X-3.43286 Y-3.20069
G01 X-3.43567 Y-3.19946
G01 X-3.43835 Y-3.19796
G01 X-3.44117 Y-3.19597
G01 X-3.44349 Y-3.19395
G01 X-3.44619 Y-3.19095
G01 X-4.04280 Y-3.19095
G01 X-4.04664 Y-3.19057
G01 X-4.04997 Y-3.18958
G01 X-4.05374 Y-3.18763
G01 X-4.05672 Y-3.18518
G01 X-4.26562 Y-2.97629
G01 X-4.26918 Y-2.98038
G01 X-4.27309 Y-2.98390
G01 X-4.27706 Y-2.98670
G01 X-4.28169 Y-2.98922
G01 X-4.39646 Y-3.03667
G01 X-4.39733 Y-3.03386
G01 X-4.39893 Y-3.03084
G01 X-4.40154 Y-3.02756
G01 X-4.53056 Y-2.89854
G01 X-4.53056 Y-2.87953
G01 X-4.52441 Y-2.87953
G01 X-4.52319 Y-2.87933
G01 X-4.52244 Y-2.87900
G01 X-4.52148 Y-2.87822
G01 X-4.52081 Y-2.87719
G01 X-4.52049 Y-2.87600
G01 X-4.52049 Y-2.82400
G01 X-4.52081 Y-2.82281
G01 X-4.52148 Y-2.82178
G01 X-4.52244 Y-2.82100
G01 X-4.52400 Y-2.82049
G01 X-4.57600 Y-2.82049
G01 X-4.57719 Y-2.82081
G01 X-4.57822 Y-2.82148
G01 X-4.57900 Y-2.82244
G01 X-4.57933 Y-2.82319
G01 X-4.57953 Y-2.82441
G01 X-4.57953 Y-2.83056
G01 X-4.60039 Y-2.83058
G01 X-4.60379 Y-2.83094
G01 X-4.60779 Y-2.83221
G01 X-4.61080 Y-2.83384
G01 X-4.61374 Y-2.83625
G01 X-4.68646 Y-2.90897
G01 X-4.68958 Y-2.90799
G01 X-4.69469 Y-2.90705
G01 X-4.70040 Y-2.90672
G01 X-4.70610 Y-2.90715
G01 X-4.71169 Y-2.90833
G01 X-4.71708 Y-2.91023
G01 X-4.72217 Y-2.91283
G01 X-4.72688 Y-2.91608
G01 X-4.73146 Y-2.92028
G01 X-4.73485 Y-2.92434
G01 X-4.73768 Y-2.92871
G01 X-4.74035 Y-2.93434
G01 X-4.74205 Y-2.93978
G01 X-4.74299 Y-2.94499
G01 X-4.74328 Y-2.95018
G01 X-4.74287 Y-2.95592
G01 X-4.74194 Y-2.96069
G01 X-4.74050 Y-2.96527
G01 X-4.73832 Y-2.97012
G01 X-4.73586 Y-2.97423
G01 X-4.73264 Y-2.97842
G01 X-4.72891 Y-2.98221
G01 X-4.72480 Y-2.98548
G01 X-4.72068 Y-2.98802
G01 X-4.71629 Y-2.99010
G01 X-4.71175 Y-2.99165
G01 X-4.70655 Y-2.99278
G01 X-4.70178 Y-2.99324
G01 X-4.69692 Y-2.99317
G01 X-4.69124 Y-2.99238
G01 X-4.68660 Y-2.99115
G01 X-4.68207 Y-2.98940
G01 X-4.67820 Y-2.98739
G01 X-4.67484 Y-2.98522
G04 P0 ( dwell for no time -- G64 should not smooth over this point )
G00 Z0.08000 ( retract )

G00 X-4.48150 Y-3.13977 ( rapid move to begin. )
G01 F0.50000
( Mill infeed pass 1/1 )
G01 Z-0.04000
G04 P0 ( dwell for no time -- G64 should not smooth over this point )
G01 F1.00000
G01 X-4.48150 Y-3.13977
G01 X-4.47801 Y-3.13977
G01 X-4.47414 Y-3.14005
G01 X-4.46988 Y-3.14093
G01 X-4.46603 Y-3.14228
G01 X-4.46301 Y-3.14375
G01 X-4.45978 Y-3.14582
G01 X-4.45629 Y-3.14878
G01 X-4.45372 Y-3.15164
G01 X-4.45165 Y-3.15456
G01 X-4.44995 Y-3.15765
G01 X-4.44876 Y-3.16047
G01 X-4.44795 Y-3.16304
G01 X-4.44729 Y-3.16604
G01 X-4.44693 Y-3.16908
G01 X-4.44687 Y-3.17216
G01 X-4.44710 Y-3.17522
G01 X-4.44764 Y-3.17824
G01 X-4.44846 Y-3.18120
G01 X-4.44984 Y-3.18464
G01 X-4.45128 Y-3.18736
G01 X-4.45297 Y-3.18991
G01 X-4.45491 Y-3.19230
G01 X-4.45679 Y-3.19422
G01 X-4.45913 Y-3.19621
G01 X-4.46165 Y-3.19796
G01 X-4.46498 Y-3.19977
G01 X-4.46854 Y-3.20119
G01 X-4.47226 Y-3.20215
G01 X-4.47655 Y-3.20270
G01 X-4.52328 Y-3.20271
G01 X-4.52684 Y-3.20232
G01 X-4.53034 Y-3.20153
G01 X-4.53373 Y-3.20034
G01 X-4.53676 Y-3.19889
G01 X-4.53981 Y-3.19699
G01 X-4.54280 Y-3.19460
G01 X-4.54532 Y-3.19203
G01 X-4.54638 Y-3.19070
G01 X-4.59022 Y-3.19064
G01 X-4.54688 Y-3.30999
G01 X-4.54674 Y-3.26900
G01 X-4.54420 Y-3.27198
G01 X-4.54215 Y-3.27391
G01 X-4.53993 Y-3.27564
G01 X-4.53757 Y-3.27717
G01 X-4.53476 Y-3.27863
G01 X-4.53215 Y-3.27969
G01 X-4.52940 Y-3.28052
G01 X-4.52610 Y-3.28117
G01 X-4.52199 Y-3.28149
G01 X-4.47812 Y-3.28150
G01 X-4.47536 Y-3.28135
G01 X-4.47254 Y-3.28095
G01 X-4.46932 Y-3.28017
G01 X-4.46643 Y-3.27915
G01 X-4.46365 Y-3.27785
G01 X-4.46100 Y-3.27629
G01 X-4.45853 Y-3.27447
G01 X-4.45624 Y-3.27243
G01 X-4.45360 Y-3.26944
G01 X-4.41979 Y-3.26944
G01 X-4.41599 Y-3.26906
G01 X-4.41235 Y-3.26796
G01 X-4.40868 Y-3.26593
G01 X-4.40604 Y-3.26374
G01 X-4.40154 Y-3.25924
G01 X-4.39912 Y-3.25630
G01 X-4.39749 Y-3.25328
G01 X-4.39709 Y-3.25221
G01 X-4.39749 Y-3.25328
G01 X-4.39912 Y-3.25630
G01 X-4.40154 Y-3.25924
G01 X-4.40604 Y-3.26374
G01 X-4.40868 Y-3.26593
G01 X-4.41235 Y-3.26796
G01 X-4.41599 Y-3.26906
G01 X-4.41979 Y-3.26944
G01 X-4.45360 Y-3.26944
G01 X-4.45624 Y-3.27243
G01 X-4.45853 Y-3.27447
G01 X-4.46100 Y-3.27629
G01 X-4.46365 Y-3.27785
G01 X-4.46643 Y-3.27915
G01 X-4.46932 Y-3.28017
G01 X-4.47254 Y-3.28095
G01 X-4.47536 Y-3.28135
G01 X-4.47812 Y-3.28150
G01 X-4.52199 Y-3.28149
G01 X-4.52610 Y-3.28117
G01 X-4.52940 Y-3.28052
G01 X-4.53215 Y-3.27969
G01 X-4.53476 Y-3.27863
G01 X-4.53757 Y-3.27717
G01 X-4.53993 Y-3.27564
G01 X-4.54215 Y-3.27391
G01 X-4.54420 Y-3.27198
G01 X-4.54674 Y-3.26900
G01 X-4.54688 Y-3.30999
G01 X-4.54537 Y-3.30803
G01 X-4.54229 Y-3.30496
G01 X-4.53927 Y-3.30264
G01 X-4.53551 Y-3.30046
G01 X-4.53097 Y-3.29866
G01 X-4.52673 Y-3.29766
G01 X-4.52255 Y-3.29726
G01 X-4.47801 Y-3.29725
G01 X-4.47268 Y-3.29776
G01 X-4.46969 Y-3.29846
G01 X-4.46714 Y-3.29931
G01 X-4.46433 Y-3.30054
G01 X-4.46165 Y-3.30204
G01 X-4.45913 Y-3.30379
G01 X-4.45679 Y-3.30578
G01 X-4.45381 Y-3.30905
G01 X-4.19032 Y-3.30905
G01 X-4.19112 Y-3.30418
G01 X-4.19133 Y-3.29979
G01 X-4.19102 Y-3.29494
G01 X-4.19003 Y-3.28970
G01 X-4.18871 Y-3.28550
G01 X-4.18747 Y-3.28268
G04 P0 ( dwell for no time -- G64 should not smooth over this point )
G00 Z0.08000 ( retract )

G00 X-4.43906 Y-3.34843 ( rapid move to begin. )
G01 F0.50000
( Mill infeed pass 1/1 )
G01 Z-0.04000
G04 P0 ( dwell for no time -- G64 should not smooth over this point )
G01 F1.00000
G01 X-4.43906 Y-3.34843
G01 X-4.45382 Y-3.34843
G01 X-4.45495 Y-3.34981
G01 X-4.45732 Y-3.35218
G01 X-4.46009 Y-3.35438
G04 P0 ( dwell for no time -- G64 should not smooth over this point )
G00 Z0.08000 ( retract )

G00 X-4.55210 Y-3.24206 ( rapid move to begin. )
G01 F0.50000
( Mill infeed pass 1/1 )
G01 Z-0.04000
G04 P0 ( dwell for no time -- G64 should not smooth over this point )
G01 F1.00000
G01 X-4.55210 Y-3.24206
G01 X-4.55079 Y-3.23804
G01 X-4.54976 Y-3.23580
G01 X-4.54838 Y-3.23334
G01 X-4.54679 Y-3.23102
G01 X-4.54499 Y-3.22885
G01 X-4.54275 Y-3.22662
G01 X-4.54058 Y-3.22483
G01 X-4.53826 Y-3.22324
G01 X-4.53611 Y-3.22202
G01 X-4.53356 Y-3.22084
G01 X-4.53113 Y-3.21997
G01 X-4.52843 Y-3.21924
G01 X-4.52531 Y-3.21872
G01 X-4.52255 Y-3.21852
G01 X-4.47823 Y-3.21850
G01 X-4.47393 Y-3.21882
G01 X-4.47067 Y-3.21946
G01 X-4.46788 Y-3.22030
G01 X-4.46480 Y-3.22157
G01 X-4.46188 Y-3.22316
G01 X-4.45914 Y-3.22504
G01 X-4.45662 Y-3.22721
G01 X-4.45360 Y-3.23056
G01 X-4.43472 Y-3.23056
G01 X-4.43472 Y-3.04935
G01 X-4.56475 Y-2.91914
G01 X-4.56616 Y-2.91739
G01 X-4.56779 Y-2.91438
G01 X-4.56912 Y-2.91000
G01 X-4.56944 Y-2.90659
G01 X-4.56944 Y-2.87953
G01 X-4.57600 Y-2.87950
G01 X-4.57719 Y-2.87919
G01 X-4.57822 Y-2.87852
G01 X-4.57900 Y-2.87756
G01 X-4.57951 Y-2.87600
G01 X-4.57953 Y-2.86944
G01 X-4.59195 Y-2.86944
G01 X-4.65894 Y-2.93643
G01 X-4.65841 Y-2.93802
G01 X-4.65748 Y-2.94189
G01 X-4.65688 Y-2.94622
G01 X-4.65677 Y-2.95140
G01 X-4.53819 Y-3.14446
G01 X-4.54055 Y-3.14607
G01 X-4.54310 Y-3.14820
G01 X-4.54542 Y-3.15059
G01 X-4.54638 Y-3.15182
G01 X-4.58147 Y-3.15182
G01 X-4.75541 Y-2.97788
G01 X-4.75541 Y-2.92212
G01 X-4.64163 Y-2.80835
G01 X-4.16494 Y-2.80835
G01 X-4.15155 Y-2.82173
G01 X-4.26691 Y-2.91931
G01 X-4.28031 Y-2.90591
G01 X-4.28031 Y-2.85000
G01 X-4.28069 Y-2.84616
G01 X-4.28198 Y-2.84212
G01 X-4.28363 Y-2.83906
G01 X-4.28582 Y-2.83636
G01 X-4.28906 Y-2.83363
G01 X-4.29247 Y-2.83181
G01 X-4.29616 Y-2.83069
G01 X-4.30000 Y-2.83031
G01 X-4.42962 Y-2.83031
G01 X-4.43067 Y-2.82916
G01 X-4.43344 Y-2.82671
G01 X-4.43607 Y-2.82488
G01 X-4.43894 Y-2.82332
G01 X-4.44279 Y-2.82181
G01 X-4.44596 Y-2.82102
G01 X-4.44959 Y-2.82054
G01 X-4.45292 Y-2.82051
G01 X-4.45690 Y-2.82097
G01 X-4.46137 Y-2.82215
G01 X-4.46613 Y-2.82432
G01 X-4.46996 Y-2.82691
G01 X-4.47334 Y-2.83006
G01 X-4.47584 Y-2.83319
G01 X-4.47816 Y-2.83718
G01 X-4.47984 Y-2.84149
G01 X-4.48062 Y-2.84472
G01 X-4.48102 Y-2.84790
G01 X-4.48107 Y-2.85114
G01 X-4.48077 Y-2.85436
G01 X-4.48023 Y-2.85711
G01 X-4.47928 Y-2.86021
G01 X-4.47780 Y-2.86356
G01 X-4.47615 Y-2.86635
G01 X-4.47449 Y-2.86861
G01 X-4.47232 Y-2.87101
G01 X-4.47023 Y-2.87288
G01 X-4.46764 Y-2.87477
G01 X-4.46483 Y-2.87638
G01 X-4.46186 Y-2.87767
G01 X-4.45877 Y-2.87863
G01 X-4.45559 Y-2.87925
G01 X-4.45240 Y-2.87951
G01 X-4.44775 Y-2.87927
G01 X-4.39138 Y-2.86969
G01 X-4.31969 Y-2.86969
G01 X-4.31969 Y-2.91154
G01 X-4.32262 Y-2.91310
G01 X-4.32688 Y-2.91608
G01 X-4.33146 Y-2.92028
G01 X-4.33486 Y-2.92434
G01 X-4.33768 Y-2.92871
G01 X-4.34000 Y-2.93347
G01 X-4.34108 Y-2.93658
G01 X-4.41517 Y-2.86969
G01 X-4.42964 Y-2.86969
G01 X-4.43100 Y-2.87117
G01 X-4.43342 Y-2.87328
G01 X-4.43564 Y-2.87478
G01 X-4.34270 Y-2.95688
G01 X-4.34160 Y-2.96196
G01 X-4.34017 Y-2.96612
G01 X-4.33812 Y-2.97049
G01 X-4.33584 Y-2.97427
G01 X-4.33290 Y-2.97811
G01 X-4.32959 Y-2.98158
G01 X-4.32587 Y-2.98470
G01 X-4.32259 Y-2.98686
G01 X-4.32587 Y-2.98470
G01 X-4.32959 Y-2.98158
G01 X-4.33290 Y-2.97811
G01 X-4.33584 Y-2.97427
G01 X-4.33812 Y-2.97049
G01 X-4.34017 Y-2.96612
G01 X-4.34160 Y-2.96196
G01 X-4.34270 Y-2.95688
G01 X-4.39646 Y-3.03667
G04 P0 ( dwell for no time -- G64 should not smooth over this point )
G00 Z0.08000 ( retract )

G00 X-4.04805 Y-3.13817 ( rapid move to begin. )
G01 F0.50000
( Mill infeed pass 1/1 )
G01 Z-0.04000
G04 P0 ( dwell for no time -- G64 should not smooth over this point )
G01 F1.00000
G01 X-4.04805 Y-3.13817
G01 X-4.03465 Y-3.15157
G01 X-4.01570 Y-3.15157
G04 P0 ( dwell for no time -- G64 should not smooth over this point )
G00 Z0.08000 ( retract )

G00 X-3.96880 Y-2.93056 ( rapid move to begin. )
G01 F0.50000
( Mill infeed pass 1/1 )
G01 Z-0.04000
G04 P0 ( dwell for no time -- G64 should not smooth over this point )
G01 F1.00000
G01 X-3.96880 Y-2.93056
G01 X-3.98775 Y-2.93056
G01 X-4.14314 Y-2.77516
G01 X-4.14585 Y-2.77292
G01 X-4.28699 Y-2.59123
G01 X-4.28532 Y-2.59071
G01 X-4.28049 Y-2.58863
G01 X-4.27667 Y-2.58645
G01 X-4.27440 Y-2.58481
G01 X-4.07284 Y-2.68559
G01 X-4.07284 Y-2.81300
G01 X-4.07250 Y-2.81460
G01 X-4.07209 Y-2.81531
G01 X-4.07121 Y-2.81618
G01 X-4.07012 Y-2.81674
G01 X-4.06890 Y-2.81694
G01 X-3.97722 Y-2.81694
G04 P0 ( dwell for no time -- G64 should not smooth over this point )
G00 Z0.08000 ( retract )

G00 X-4.07284 Y-2.56057 ( rapid move to begin. )
G01 F0.50000
( Mill infeed pass 1/1 )
G01 Z-0.04000
G04 P0 ( dwell for no time -- G64 should not smooth over this point )
G01 F1.00000
G01 X-4.07284 Y-2.56057
G01 X-4.20222 Y-2.57688
G01 X-4.25676 Y-2.54961
G01 X-4.25679 Y-2.54758
G01 X-4.25733 Y-2.54277
G01 X-4.25828 Y-2.53848
G01 X-4.25895 Y-2.53644
G01 X-4.21579 Y-2.49328
G04 P0 ( dwell for no time -- G64 should not smooth over this point )
G00 Z0.08000 ( retract )

G00 X-4.27137 Y-2.49388 ( rapid move to begin. )
G01 F0.50000
( Mill infeed pass 1/1 )
G01 Z-0.04000
G04 P0 ( dwell for no time -- G64 should not smooth over this point )
G01 F1.00000
G01 X-4.27137 Y-2.49388
G01 X-4.28643 Y-2.50894
G01 X-4.28823 Y-2.50835
G01 X-4.29210 Y-2.50744
G01 X-4.29606 Y-2.50690
G01 X-4.30017 Y-2.50672
G04 P0 ( dwell for no time -- G64 should not smooth over this point )
G00 Z0.08000 ( retract )

G00 X-4.33038 Y-2.51917 ( rapid move to begin. )
G01 F0.50000
( Mill infeed pass 1/1 )
G01 Z-0.04000
G04 P0 ( dwell for no time -- G64 should not smooth over this point )
G01 F1.00000
G01 X-4.33038 Y-2.51917
G01 X-4.33319 Y-2.52222
G01 X-4.33561 Y-2.52540
G01 X-4.33772 Y-2.52877
G01 X-4.33850 Y-2.53031
G01 X-4.35964 Y-2.53031
G04 P0 ( dwell for no time -- G64 should not smooth over this point )
G00 Z0.08000 ( retract )

G00 X-4.33013 Y-2.58100 ( rapid move to begin. )
G01 F0.50000
( Mill infeed pass 1/1 )
G01 Z-0.04000
G04 P0 ( dwell for no time -- G64 should not smooth over this point )
G01 F1.00000
G01 X-4.33013 Y-2.58100
G01 X-4.33146 Y-2.57972
G01 X-4.33483 Y-2.57569
G01 X-4.33726 Y-2.57202
G01 X-4.33847 Y-2.56969
G01 X-4.35958 Y-2.56969
G04 P0 ( dwell for no time -- G64 should not smooth over this point )
G00 Z0.08000 ( retract )

G00 X-4.64039 Y-2.56969 ( rapid move to begin. )
G01 F0.50000
( Mill infeed pass 1/1 )
G01 Z-0.04000
G04 P0 ( dwell for no time -- G64 should not smooth over this point )
G01 F1.00000
G01 X-4.64039 Y-2.56969
G01 X-4.66147 Y-2.56969
G01 X-4.66346 Y-2.57320
G01 X-4.66521 Y-2.57576
G01 X-4.66741 Y-2.57848
G01 X-4.66965 Y-2.58086
G04 P0 ( dwell for no time -- G64 should not smooth over this point )
G00 Z0.08000 ( retract )

G00 X-4.64046 Y-2.53031 ( rapid move to begin. )
G01 F0.50000
( Mill infeed pass 1/1 )
G01 Z-0.04000
G04 P0 ( dwell for no time -- G64 should not smooth over this point )
G01 F1.00000
G01 X-4.64046 Y-2.53031
G01 X-4.66147 Y-2.53031
G01 X-4.66323 Y-2.52716
G01 X-4.66520 Y-2.52426
G01 X-4.66731 Y-2.52162
G01 X-4.66956 Y-2.51924

G04 P0 ( dwell for no time -- G64 should not smooth over this point )
G00 Z1.000000 ( retract )

M5 ( Spindle off. )
G04 P1.000000
M9 ( Coolant off. )
M2 ( Program end. )

