( pcb2gcode 2.5.0 )
( Software-independent Gcode )

G94 ( Inches per minute feed rate. )
G20 ( Units == INCHES. )

G90 ( Absolute coordinates. )
G00 S12000 ( RPM spindle speed. )
G64 P0.00040 ( set maximum deviation from commanded toolpath )
G01 F1.00000 ( Feedrate. )


G00 Z1.00000 (Retract to tool change height)
T1
M5      (Spindle stop.)
G04 P1.00000 (Wait for spindle to stop)
(MSG, Change tool bit to mill diameter 0.11811in)
M6      (Tool change.)
M0      (Temporary machine stop.)
M3 ( Spindle on clockwise. )
G04 P1.00000 (Wait for spindle to get up to speed)
G04 P0 ( dwell for no time -- G64 should not smooth over this point )
G00 Z0.08000 ( retract )

G00 X-3.25186 Y-2.84270 ( rapid move to begin. )
G01 F0.50000
( Mill infeed pass 1/1 )
G01 Z-0.04000
G04 P0 ( dwell for no time -- G64 should not smooth over this point )
G01 F1.00000
G01 X-3.25186 Y-2.84270
G01 X-3.24270 Y-2.84270
G01 X-3.24270 Y-2.85186
G01 X-3.24230 Y-2.85234
G01 X-3.25186 Y-2.84270
G01 X-3.25282 Y-2.84230
G04 P0 ( dwell for no time -- G64 should not smooth over this point )
G00 Z0.08000 ( retract )

G00 X-3.67008 Y-3.24606 ( rapid move to begin. )
G01 F0.50000
( Mill infeed pass 1/1 )
G01 Z-0.04000
G04 P0 ( dwell for no time -- G64 should not smooth over this point )
G01 F1.00000
G01 X-3.67008 Y-3.24606
G01 X-3.50811 Y-3.24606
G01 X-3.50769 Y-3.24566
G01 X-3.50811 Y-3.24606
G01 X-3.50826 Y-3.25043
G01 X-3.50816 Y-3.25388
G01 X-3.50769 Y-3.25433
G01 X-3.50810 Y-3.25393
G01 X-3.65803 Y-3.25393
G01 X-3.66715 Y-3.25061
G01 X-3.67008 Y-3.24606
G01 X-3.67083 Y-3.24566
G04 P0 ( dwell for no time -- G64 should not smooth over this point )
G00 Z0.08000 ( retract )

G00 X-4.11168 Y-3.20761 ( rapid move to begin. )
G01 F0.50000
( Mill infeed pass 1/1 )
G01 Z-0.04000
G04 P0 ( dwell for no time -- G64 should not smooth over this point )
G01 F1.00000
G01 X-4.11168 Y-3.20761
G01 X-4.11239 Y-3.20747
G01 X-4.27480 Y-3.04505
G01 X-4.28191 Y-3.04672
G01 X-4.29122 Y-3.04801
G01 X-4.30105 Y-3.04837
G01 X-4.30679 Y-3.04814
G01 X-4.31584 Y-3.04712
G01 X-4.32592 Y-3.04493
G01 X-4.32967 Y-3.04379
G01 X-4.33668 Y-3.04131
G01 X-4.34076 Y-3.03953
G01 X-4.34119 Y-3.03887
G01 X-4.34076 Y-3.03953
G01 X-4.34073 Y-3.04130
G01 X-4.34073 Y-3.24550
G01 X-4.34085 Y-3.24922
G01 X-4.34128 Y-3.25393
G01 X-4.34172 Y-3.25433
G01 X-4.34121 Y-3.25387
G01 X-4.23468 Y-3.25382
G01 X-4.22946 Y-3.24532
G01 X-4.22403 Y-3.23821
G01 X-4.22020 Y-3.23388
G01 X-4.21354 Y-3.22743
G01 X-4.20534 Y-3.22100
G01 X-4.19786 Y-3.21630
G01 X-4.19277 Y-3.21356
G01 X-4.18420 Y-3.20981
G01 X-4.17565 Y-3.20703
G01 X-4.17028 Y-3.20573
G01 X-4.16157 Y-3.20424
G01 X-4.15192 Y-3.20357
G01 X-4.14827 Y-3.20357
G01 X-4.14144 Y-3.20392
G01 X-4.13238 Y-3.20517
G01 X-4.12895 Y-3.20589
G01 X-4.12220 Y-3.20764
G01 X-4.11686 Y-3.20946
G01 X-4.11682 Y-3.20989
G01 X-4.11686 Y-3.20946
G01 X-4.11482 Y-3.20832
G01 X-4.11290 Y-3.20736
G01 X-4.11224 Y-3.20750
G04 P0 ( dwell for no time -- G64 should not smooth over this point )
G00 Z0.08000 ( retract )

G00 X-4.60757 Y-3.24315 ( rapid move to begin. )
G01 F0.50000
( Mill infeed pass 1/1 )
G01 Z-0.04000
G04 P0 ( dwell for no time -- G64 should not smooth over this point )
G01 F1.00000
G01 X-4.60757 Y-3.24315
G01 X-4.60799 Y-3.24345
G01 X-4.60817 Y-3.24595
G01 X-4.60815 Y-3.25455
G01 X-4.60745 Y-3.26185
G01 X-4.60639 Y-3.26787
G01 X-4.60457 Y-3.27498
G01 X-4.60304 Y-3.27961
G01 X-4.60004 Y-3.28680
G01 X-4.59878 Y-3.28936
G01 X-4.59833 Y-3.28937
G01 X-4.59878 Y-3.28936
G01 X-4.60088 Y-3.29379
G01 X-4.60348 Y-3.30038
G01 X-4.60485 Y-3.30469
G01 X-4.60644 Y-3.31117
G01 X-4.60713 Y-3.31478
G01 X-4.60819 Y-3.32507
G01 X-4.60824 Y-3.32918
G01 X-4.60798 Y-3.33545
G01 X-4.60719 Y-3.34211
G01 X-4.60610 Y-3.34790
G01 X-4.60522 Y-3.35150
G01 X-4.60305 Y-3.35825
G01 X-4.60159 Y-3.36209
G01 X-4.60005 Y-3.36545
G01 X-4.59666 Y-3.37204
G01 X-4.59459 Y-3.37540
G01 X-4.59055 Y-3.38122
G01 X-4.58801 Y-3.38438
G01 X-4.58394 Y-3.38892
G01 X-4.57960 Y-3.39311
G01 X-4.57633 Y-3.39589
G01 X-4.57181 Y-3.39935
G01 X-4.56671 Y-3.40270
G01 X-4.56348 Y-3.40457
G01 X-4.55773 Y-3.40748
G01 X-4.55172 Y-3.40997
G01 X-4.54590 Y-3.41187
G01 X-4.54171 Y-3.41299
G01 X-4.53607 Y-3.41414
G01 X-4.53132 Y-3.41477
G01 X-4.52270 Y-3.41535
G01 X-4.47739 Y-3.41535
G01 X-4.46881 Y-3.41482
G01 X-4.46491 Y-3.41429
G01 X-4.45858 Y-3.41307
G01 X-4.45516 Y-3.41218
G01 X-4.45013 Y-3.41061
G01 X-4.44607 Y-3.40911
G01 X-4.44089 Y-3.40681
G01 X-4.43772 Y-3.40524
G01 X-4.43476 Y-3.40354
G01 X-4.17543 Y-3.40345
G01 X-4.16789 Y-3.40273
G01 X-4.16278 Y-3.40182
G01 X-4.15929 Y-3.40093
G01 X-4.15367 Y-3.39919
G01 X-4.15030 Y-3.39793
G01 X-4.14687 Y-3.39639
G01 X-4.13753 Y-3.39565
G01 X-4.12883 Y-3.39408
G01 X-4.12423 Y-3.39294
G01 X-4.11806 Y-3.39098
G01 X-4.11684 Y-3.39056
G01 X-4.11680 Y-3.39013
G01 X-4.11684 Y-3.39056
G01 X-4.11302 Y-3.39258
G01 X-4.10935 Y-3.39419
G01 X-4.10557 Y-3.39556
G01 X-4.09897 Y-3.39728
G01 X-4.09541 Y-3.39788
G01 X-4.09181 Y-3.39826
G01 X-4.08740 Y-3.39843
G01 X-4.01260 Y-3.39843
G01 X-4.00859 Y-3.39829
G01 X-4.00221 Y-3.39750
G01 X-3.99596 Y-3.39603
G01 X-3.99028 Y-3.39404
G01 X-3.98447 Y-3.39130
G01 X-3.97900 Y-3.38794
G01 X-3.97392 Y-3.38400
G01 X-3.96931 Y-3.37954
G01 X-3.96517 Y-3.37455
G01 X-3.93483 Y-3.37455
G01 X-3.93229 Y-3.37774
G01 X-3.92930 Y-3.38099
G01 X-3.92607 Y-3.38400
G01 X-3.92274 Y-3.38668
G01 X-3.92035 Y-3.39497
G01 X-3.91783 Y-3.40128
G01 X-3.91359 Y-3.40926
G01 X-3.91165 Y-3.41229
G01 X-3.90929 Y-3.41551
G01 X-3.90581 Y-3.41975
G01 X-3.90330 Y-3.42250
G01 X-3.87340 Y-3.45239
G01 X-3.86764 Y-3.45734
G01 X-3.86382 Y-3.46023
G01 X-3.85976 Y-3.46280
G01 X-3.85392 Y-3.46594
G01 X-3.84954 Y-3.46791
G01 X-3.84503 Y-3.46951
G01 X-3.83865 Y-3.47136
G01 X-3.83316 Y-3.47243
G01 X-3.82612 Y-3.47318
G01 X-3.82157 Y-3.47335
G01 X-3.34850 Y-3.47335
G01 X-3.34477 Y-3.47318
G01 X-3.33932 Y-3.47264
G01 X-3.33263 Y-3.47145
G01 X-3.32359 Y-3.46875
G01 X-3.31987 Y-3.46729
G01 X-3.31662 Y-3.46576
G01 X-3.31078 Y-3.46259
G01 X-3.30675 Y-3.46000
G01 X-3.30090 Y-3.45541
G01 X-3.29720 Y-3.45210
G01 X-3.11514 Y-3.27005
G01 X-3.11234 Y-3.26700
G01 X-3.10886 Y-3.26276
G01 X-3.10497 Y-3.25719
G01 X-3.10049 Y-3.24889
G01 X-3.09889 Y-3.24523
G01 X-3.09755 Y-3.24146
G01 X-3.09569 Y-3.23509
G01 X-3.09470 Y-3.23040
G01 X-3.09380 Y-3.22259
G01 X-3.09360 Y-3.21804
G01 X-3.09359 Y-2.81071
G01 X-3.09380 Y-2.80575
G01 X-3.09477 Y-2.79754
G01 X-3.09589 Y-2.79247
G01 X-3.09793 Y-2.78573
G01 X-3.10049 Y-2.77944
G01 X-3.10435 Y-2.77217
G01 X-3.10765 Y-2.76716
G01 X-3.11234 Y-2.76133
G01 X-3.11543 Y-2.75799
G01 X-3.15888 Y-2.71456
G01 X-3.16165 Y-2.71207
G01 X-3.16652 Y-2.70813
G01 X-3.16946 Y-2.70605
G01 X-3.17286 Y-2.70395
G01 X-3.17800 Y-2.70119
G01 X-3.18200 Y-2.69935
G01 X-3.18573 Y-2.69793
G01 X-3.19093 Y-2.69632
G01 X-3.19519 Y-2.69523
G01 X-3.19952 Y-2.69446
G01 X-3.20575 Y-2.69380
G01 X-3.21030 Y-2.69360
G01 X-3.54207 Y-2.69359
G01 X-3.60060 Y-2.63506
G01 X-3.60125 Y-2.63498
G01 X-3.60054 Y-2.63507
G01 X-3.59438 Y-2.63117
G01 X-3.58908 Y-2.62726
G01 X-3.58608 Y-2.62480
G01 X-3.31392 Y-2.62480
G01 X-3.30917 Y-2.62863
G01 X-3.30402 Y-2.63225
G01 X-3.29822 Y-2.63578
G01 X-3.29298 Y-2.63851
G01 X-3.28945 Y-2.64013
G01 X-3.28314 Y-2.64265
G01 X-3.27731 Y-2.64454
G01 X-3.27073 Y-2.64619
G01 X-3.26440 Y-2.64735
G01 X-3.25839 Y-2.64804
G01 X-3.25171 Y-2.64838
G01 X-3.24746 Y-2.64835
G01 X-3.24030 Y-2.64792
G01 X-3.23326 Y-2.64695
G01 X-3.22881 Y-2.64608
G01 X-3.22184 Y-2.64429
G01 X-3.21242 Y-2.64095
G01 X-3.20588 Y-2.63794
G01 X-3.20295 Y-2.63642
G01 X-3.19719 Y-2.63302
G01 X-3.19443 Y-2.63121
G01 X-3.18902 Y-2.62722
G01 X-3.18572 Y-2.62448
G01 X-3.18056 Y-2.61972
G01 X-3.17578 Y-2.61457
G01 X-3.17302 Y-2.61129
G01 X-3.16951 Y-2.60658
G01 X-3.16720 Y-2.60316
G01 X-3.16357 Y-2.59705
G01 X-3.15937 Y-2.58834
G01 X-3.15815 Y-2.58527
G01 X-3.15583 Y-2.57856
G01 X-3.15340 Y-2.56877
G01 X-3.15200 Y-2.55888
G01 X-3.15163 Y-2.55210
G01 X-3.15163 Y-2.54797
G01 X-3.15195 Y-2.54173
G01 X-3.15240 Y-2.53768
G01 X-3.15342 Y-2.53114
G01 X-3.15500 Y-2.52441
G01 X-3.15624 Y-2.52017
G01 X-3.15844 Y-2.51393
G01 X-3.16245 Y-2.50507
G01 X-3.16610 Y-2.49861
G01 X-3.16852 Y-2.49484
G01 X-3.17293 Y-2.48881
G01 X-3.17753 Y-2.48346
G01 X-3.18063 Y-2.48022
G01 X-3.18578 Y-2.47544
G01 X-3.19150 Y-2.47089
G01 X-3.19512 Y-2.46834
G01 X-3.20142 Y-2.46442
G01 X-3.20755 Y-2.46124
G01 X-3.21158 Y-2.45942
G01 X-3.21855 Y-2.45676
G01 X-3.22570 Y-2.45466
G01 X-3.23001 Y-2.45367
G01 X-3.23682 Y-2.45248
G01 X-3.24458 Y-2.45175
G01 X-3.25351 Y-2.45166
G01 X-3.26236 Y-2.45238
G01 X-3.26799 Y-2.45325
G01 X-3.27328 Y-2.45441
G01 X-3.27679 Y-2.45532
G01 X-3.28184 Y-2.45689
G01 X-3.28970 Y-2.45996
G01 X-3.29732 Y-2.46373
G01 X-3.30238 Y-2.46669
G01 X-3.30690 Y-2.46973
G01 X-3.31393 Y-2.47519
G01 X-3.58611 Y-2.47519
G01 X-3.59036 Y-2.47175
G01 X-3.59749 Y-2.46679
G01 X-3.60463 Y-2.46268
G01 X-3.61235 Y-2.45908
G01 X-3.62125 Y-2.45589
G01 X-3.62887 Y-2.45390
G01 X-3.63247 Y-2.45318
G01 X-3.63743 Y-2.45243
G01 X-3.64267 Y-2.45189
G01 X-3.74408 Y-2.35049
G01 X-3.74681 Y-2.34796
G01 X-3.75073 Y-2.34471
G01 X-3.75491 Y-2.34162
G01 X-3.75935 Y-2.33891
G01 X-3.76523 Y-2.33584
G01 X-3.77077 Y-2.33354
G01 X-3.77748 Y-2.33145
G01 X-3.78254 Y-2.33026
G01 X-3.78729 Y-2.32957
G01 X-3.79526 Y-2.32896
G01 X-4.15391 Y-2.32895
G01 X-4.15805 Y-2.32912
G01 X-4.16350 Y-2.32965
G01 X-4.16706 Y-2.33019
G01 X-4.17097 Y-2.33103
G01 X-4.17998 Y-2.33381
G01 X-4.18368 Y-2.33533
G01 X-4.18691 Y-2.33691
G01 X-4.19170 Y-2.33950
G01 X-4.19542 Y-2.34184
G01 X-4.19864 Y-2.34421
G01 X-4.20350 Y-2.34823
G01 X-4.20622 Y-2.35078
G01 X-4.30732 Y-2.45189
G01 X-4.31257 Y-2.45243
G01 X-4.31753 Y-2.45318
G01 X-4.32113 Y-2.45390
G01 X-4.32874 Y-2.45589
G01 X-4.33765 Y-2.45908
G01 X-4.34537 Y-2.46268
G01 X-4.35251 Y-2.46679
G01 X-4.35964 Y-2.47175
G01 X-4.36389 Y-2.47519
G01 X-4.63606 Y-2.47519
G01 X-4.64211 Y-2.47042
G01 X-4.64902 Y-2.46584
G01 X-4.65589 Y-2.46205
G01 X-4.66066 Y-2.45980
G01 X-4.66556 Y-2.45784
G01 X-4.67360 Y-2.45521
G01 X-4.68122 Y-2.45341
G01 X-4.68921 Y-2.45219
G01 X-4.69649 Y-2.45166
G01 X-4.70385 Y-2.45167
G01 X-4.71078 Y-2.45221
G01 X-4.71517 Y-2.45278
G01 X-4.72235 Y-2.45417
G01 X-4.72951 Y-2.45614
G01 X-4.73337 Y-2.45744
G01 X-4.73990 Y-2.46005
G01 X-4.74610 Y-2.46309
G01 X-4.75066 Y-2.46566
G01 X-4.75785 Y-2.47041
G01 X-4.76392 Y-2.47518
G01 X-4.76995 Y-2.48080
G01 X-4.77551 Y-2.48693
G01 X-4.77831 Y-2.49043
G01 X-4.78261 Y-2.49653
G01 X-4.78660 Y-2.50330
G01 X-4.79014 Y-2.51060
G01 X-4.79198 Y-2.51506
G01 X-4.79448 Y-2.52247
G01 X-4.79634 Y-2.52996
G01 X-4.79760 Y-2.53768
G01 X-4.79808 Y-2.54213
G01 X-4.79840 Y-2.54996
G01 X-4.79812 Y-2.55726
G01 X-4.79764 Y-2.56200
G01 X-4.79627 Y-2.57034
G01 X-4.79451 Y-2.57740
G01 X-4.79195 Y-2.58504
G01 X-4.78876 Y-2.59244
G01 X-4.78680 Y-2.59634
G01 X-4.78315 Y-2.60263
G01 X-4.77879 Y-2.60893
G01 X-4.77343 Y-2.61548
G01 X-4.77046 Y-2.61867
G01 X-4.76491 Y-2.62396
G01 X-4.75896 Y-2.62878
G01 X-4.75230 Y-2.63333
G01 X-4.74891 Y-2.63538
G01 X-4.74247 Y-2.63877
G01 X-4.73616 Y-2.64149
G01 X-4.73170 Y-2.64314
G01 X-4.72359 Y-2.64553
G01 X-4.71608 Y-2.64708
G01 X-4.70888 Y-2.64798
G01 X-4.70464 Y-2.64828
G01 X-4.69750 Y-2.64837
G01 X-4.69109 Y-2.64800
G01 X-4.68361 Y-2.64703
G01 X-4.67667 Y-2.64560
G01 X-4.66984 Y-2.64367
G01 X-4.66279 Y-2.64110
G01 X-4.65707 Y-2.63853
G01 X-4.65343 Y-2.63667
G01 X-4.64730 Y-2.63309
G01 X-4.64178 Y-2.62933
G01 X-4.63607 Y-2.62480
G01 X-4.36393 Y-2.62480
G01 X-4.36059 Y-2.62750
G01 X-4.35403 Y-2.63225
G01 X-4.35095 Y-2.63414
G01 X-4.34410 Y-2.63797
G01 X-4.34078 Y-2.63951
G01 X-4.33357 Y-2.64250
G01 X-4.33052 Y-2.64352
G01 X-4.32272 Y-2.64575
G01 X-4.31465 Y-2.64727
G01 X-4.31107 Y-2.64778
G01 X-4.30337 Y-2.64831
G01 X-4.29940 Y-2.64840
G01 X-4.29173 Y-2.64803
G01 X-4.28813 Y-2.64769
G01 X-4.28043 Y-2.64641
G01 X-4.27628 Y-2.64550
G01 X-4.12796 Y-2.71966
G01 X-4.12796 Y-2.72022
G01 X-4.12756 Y-2.72085
G01 X-4.12797 Y-2.72019
G01 X-4.13116 Y-2.71895
G01 X-4.13711 Y-2.71708
G01 X-4.14097 Y-2.71608
G01 X-4.14728 Y-2.71502
G01 X-4.15275 Y-2.71450
G01 X-4.15647 Y-2.71435
G01 X-4.64969 Y-2.71435
G01 X-4.65341 Y-2.71447
G01 X-4.65850 Y-2.71494
G01 X-4.66443 Y-2.71583
G01 X-4.66870 Y-2.71686
G01 X-4.67466 Y-2.71869
G01 X-4.67840 Y-2.72011
G01 X-4.68239 Y-2.72195
G01 X-4.68754 Y-2.72471
G01 X-4.69127 Y-2.72703
G01 X-4.69483 Y-2.72962
G01 X-4.70000 Y-2.73391
G01 X-4.82929 Y-2.86314
G01 X-4.83414 Y-2.86893
G01 X-4.83739 Y-2.87349
G01 X-4.84144 Y-2.88065
G01 X-4.84365 Y-2.88536
G01 X-4.84544 Y-2.89023
G01 X-4.84768 Y-2.89816
G01 X-4.84859 Y-2.90327
G01 X-4.84931 Y-2.91076
G01 X-4.84940 Y-2.98593
G01 X-4.84916 Y-2.99130
G01 X-4.84859 Y-2.99673
G01 X-4.84793 Y-3.00067
G01 X-4.84701 Y-3.00456
G01 X-4.84544 Y-3.00977
G01 X-4.84425 Y-3.01316
G01 X-4.84285 Y-3.01647
G01 X-4.83865 Y-3.02447
G01 X-4.83650 Y-3.02785
G01 X-4.83439 Y-3.03075
G01 X-4.83066 Y-3.03530
G01 X-4.82786 Y-3.03835
G01 X-4.64105 Y-3.22513
G01 X-4.63826 Y-3.22761
G01 X-4.63339 Y-3.23152
G01 X-4.62976 Y-3.23401
G01 X-4.62632 Y-3.23604
G01 X-4.62079 Y-3.23892
G01 X-4.61638 Y-3.24080
G01 X-4.60800 Y-3.24345
G01 X-4.60758 Y-3.24315
G04 P0 ( dwell for no time -- G64 should not smooth over this point )
G00 Z0.08000 ( retract )

G00 X-4.63374 Y-3.02217 ( rapid move to begin. )
G01 F0.50000
( Mill infeed pass 1/1 )
G01 Z-0.04000
G04 P0 ( dwell for no time -- G64 should not smooth over this point )
G01 F1.00000
G01 X-4.63374 Y-3.02217
G01 X-4.63316 Y-3.02217
G01 X-4.56114 Y-3.09420
G01 X-4.55575 Y-3.09166
G01 X-4.54814 Y-3.08880
G01 X-4.54029 Y-3.08668
G01 X-4.53226 Y-3.08530
G01 X-4.52866 Y-3.08495
G01 X-4.52215 Y-3.08465
G01 X-4.48984 Y-3.08465
G01 X-4.48944 Y-3.08505
G01 X-4.48984 Y-3.08465
G01 X-4.48984 Y-3.07218
G01 X-4.60210 Y-2.95993
G01 X-4.60338 Y-2.96864
G01 X-4.60562 Y-2.97784
G01 X-4.60867 Y-2.98665
G01 X-4.61224 Y-2.99450
G01 X-4.61706 Y-3.00295
G01 X-4.62201 Y-3.01001
G01 X-4.62804 Y-3.01712
G01 X-4.63316 Y-3.02217
G04 P0 ( dwell for no time -- G64 should not smooth over this point )
G00 Z0.08000 ( retract )

G00 X-4.39831 Y-2.95284 ( rapid move to begin. )
G01 F0.50000
( Mill infeed pass 1/1 )
G01 Z-0.04000
G04 P0 ( dwell for no time -- G64 should not smooth over this point )
G01 F1.00000
G01 X-4.39831 Y-2.95284
G01 X-4.39834 Y-2.94647
G01 X-4.39771 Y-2.93832
G01 X-4.39704 Y-2.93390
G01 X-4.39512 Y-2.92481
G01 X-4.41199 Y-2.92481
G01 X-4.42009 Y-2.92857
G01 X-4.42180 Y-2.92922
G01 X-4.42267 Y-2.92904
G01 X-4.42196 Y-2.92919
G01 X-4.39831 Y-2.95284
G01 X-4.39788 Y-2.95384
G04 P0 ( dwell for no time -- G64 should not smooth over this point )
G00 Z0.08000 ( retract )

G00 X-4.22559 Y-2.86306 ( rapid move to begin. )
G01 F0.50000
( Mill infeed pass 1/1 )
G01 Z-0.04000
G04 P0 ( dwell for no time -- G64 should not smooth over this point )
G01 F1.00000
G01 X-4.22559 Y-2.86306
G01 X-4.22519 Y-2.86346
G01 X-4.18777 Y-2.86346
G01 X-4.04852 Y-3.00272
G01 X-4.04549 Y-3.00554
G01 X-4.04031 Y-3.00978
G01 X-4.03605 Y-3.01275
G01 X-4.02922 Y-3.01659
G01 X-4.02452 Y-3.01880
G01 X-4.01964 Y-3.02059
G01 X-4.01210 Y-3.02274
G01 X-4.00699 Y-3.02369
G01 X-4.00077 Y-3.02434
G01 X-3.99581 Y-3.02455
G01 X-3.71415 Y-3.02461
G01 X-3.70934 Y-3.02850
G01 X-3.70458 Y-3.03186
G01 X-3.70148 Y-3.03385
G01 X-3.69644 Y-3.03676
G01 X-3.69133 Y-3.03930
G01 X-3.68807 Y-3.04073
G01 X-3.68274 Y-3.04280
G01 X-3.67681 Y-3.04468
G01 X-3.67087 Y-3.04616
G01 X-3.66732 Y-3.04686
G01 X-3.66156 Y-3.04772
G01 X-3.65549 Y-3.04825
G01 X-3.64942 Y-3.04839
G01 X-3.64584 Y-3.04831
G01 X-3.63510 Y-3.04726
G01 X-3.62999 Y-3.04631
G01 X-3.62069 Y-3.04393
G01 X-3.61653 Y-3.04250
G01 X-3.60839 Y-3.03916
G01 X-3.60374 Y-3.03681
G01 X-3.59549 Y-3.03192
G01 X-3.59158 Y-3.02913
G01 X-3.58422 Y-3.02319
G01 X-3.57826 Y-3.02171
G01 X-3.57345 Y-3.02022
G01 X-3.56971 Y-3.01880
G01 X-3.56608 Y-3.01714
G01 X-3.56162 Y-3.01478
G01 X-3.55618 Y-3.01143
G01 X-3.55000 Y-3.00661
G01 X-3.54600 Y-3.00301
G01 X-3.47398 Y-2.93099
G01 X-3.46880 Y-2.92929
G01 X-3.46301 Y-2.92685
G01 X-3.45849 Y-2.92463
G01 X-3.45847 Y-2.92416
G01 X-3.45849 Y-2.92463
G01 X-3.45442 Y-2.92713
G01 X-3.45085 Y-2.92897
G01 X-3.44679 Y-2.93071
G01 X-3.44338 Y-2.93190
G01 X-3.43990 Y-2.93288
G01 X-3.43598 Y-2.93372
G01 X-3.43240 Y-2.93425
G01 X-3.42599 Y-2.93464
G01 X-3.37090 Y-2.93454
G01 X-3.34811 Y-2.95733
G01 X-3.34754 Y-2.96282
G01 X-3.34678 Y-2.96778
G01 X-3.34604 Y-2.97137
G01 X-3.34404 Y-2.97898
G01 X-3.34096 Y-2.98754
G01 X-3.33711 Y-2.99578
G01 X-3.33316 Y-3.00259
G01 X-3.33114 Y-3.00565
G01 X-3.32794 Y-3.01004
G01 X-3.32456 Y-3.01418
G01 X-3.32456 Y-3.10346
G01 X-3.32416 Y-3.10428
G01 X-3.32462 Y-3.10332
G01 X-3.32571 Y-3.10248
G01 X-3.33058 Y-3.09901
G01 X-3.33367 Y-3.09707
G01 X-3.34125 Y-3.09299
G01 X-3.34887 Y-3.08983
G01 X-3.35385 Y-3.08820
G01 X-3.36181 Y-3.08624
G01 X-3.36994 Y-3.08507
G01 X-3.37545 Y-3.08473
G01 X-3.42261 Y-3.08465
G01 X-3.42919 Y-3.08501
G01 X-3.43271 Y-3.08535
G01 X-3.44214 Y-3.08711
G01 X-3.45063 Y-3.08965
G01 X-3.45449 Y-3.09112
G01 X-3.45934 Y-3.09330
G01 X-3.46524 Y-3.09645
G01 X-4.01182 Y-3.09645
G01 X-4.22519 Y-2.88308
G01 X-4.22519 Y-2.86346
G04 P0 ( dwell for no time -- G64 should not smooth over this point )
G00 Z0.08000 ( retract )

G00 X-3.96927 Y-2.87166 ( rapid move to begin. )
G01 F0.50000
( Mill infeed pass 1/1 )
G01 Z-0.04000
G04 P0 ( dwell for no time -- G64 should not smooth over this point )
G01 F1.00000
G01 X-3.96927 Y-2.87166
G01 X-3.96831 Y-2.87206
G01 X-3.96492 Y-2.87544
G01 X-3.71421 Y-2.87544
G01 X-3.70953 Y-2.87165
G01 X-3.70364 Y-2.86750
G01 X-3.69791 Y-2.86405
G01 X-3.69148 Y-2.86077
G01 X-3.68480 Y-2.85795
G01 X-3.67834 Y-2.85576
G01 X-3.67149 Y-2.85397
G01 X-3.66518 Y-2.85278
G01 X-3.65762 Y-2.85189
G01 X-3.65089 Y-2.85160
G01 X-3.64688 Y-2.85168
G01 X-3.63823 Y-2.85230
G01 X-3.62960 Y-2.85377
G01 X-3.62569 Y-2.85465
G01 X-3.61728 Y-2.85722
G01 X-3.61279 Y-2.85892
G01 X-3.59358 Y-2.83972
G01 X-3.59281 Y-2.83952
G01 X-3.59358 Y-2.83972
G01 X-3.59868 Y-2.83811
G01 X-3.60277 Y-2.83648
G01 X-3.60672 Y-2.83455
G01 X-3.61149 Y-2.83195
G01 X-3.61487 Y-2.82980
G01 X-3.61809 Y-2.82744
G01 X-3.62295 Y-2.82342
G01 X-3.62567 Y-2.82087
G01 X-3.70720 Y-2.73933
G01 X-3.71087 Y-2.74230
G01 X-3.71451 Y-2.74480
G01 X-3.71868 Y-2.74721
G01 X-3.72304 Y-2.74926
G01 X-3.72716 Y-2.75084
G01 X-3.73179 Y-2.75219
G01 X-3.73650 Y-2.75317
G01 X-3.74089 Y-2.75372
G01 X-3.74610 Y-2.75395
G01 X-3.87204 Y-2.75395
G01 X-3.87244 Y-2.75355
G01 X-3.87204 Y-2.75395
G01 X-3.87204 Y-2.81300
G01 X-3.87215 Y-2.81661
G01 X-3.87254 Y-2.82061
G01 X-3.87319 Y-2.82457
G01 X-3.87411 Y-2.82848
G01 X-3.87529 Y-2.83231
G01 X-3.87689 Y-2.83643
G01 X-3.87861 Y-2.84006
G01 X-3.88057 Y-2.84356
G01 X-3.88276 Y-2.84693
G01 X-3.88518 Y-2.85013
G01 X-3.88808 Y-2.85346
G01 X-3.89152 Y-2.85683
G01 X-3.89523 Y-2.85991
G01 X-3.89884 Y-2.86246
G01 X-3.90297 Y-2.86493
G01 X-3.90693 Y-2.86688
G01 X-3.91140 Y-2.86867
G01 X-3.91601 Y-2.87009
G01 X-3.92230 Y-2.87140
G01 X-3.92869 Y-2.87201
G01 X-3.96831 Y-2.87206
G04 P0 ( dwell for no time -- G64 should not smooth over this point )
G00 Z0.08000 ( retract )

G00 X-4.12795 Y-2.48339 ( rapid move to begin. )
G01 F0.50000
( Mill infeed pass 1/1 )
G01 Z-0.04000
G04 P0 ( dwell for no time -- G64 should not smooth over this point )
G01 F1.00000
G01 X-4.12795 Y-2.48339
G01 X-4.17395 Y-2.52939
G01 X-4.12795 Y-2.55239
G01 X-4.12755 Y-2.55303
G01 X-4.12795 Y-2.55239
G01 X-4.12795 Y-2.48339
G01 X-4.12755 Y-2.48243
G04 P0 ( dwell for no time -- G64 should not smooth over this point )
G00 Z0.08000 ( retract )

G00 X-3.85847 Y-2.47765 ( rapid move to begin. )
G01 F0.50000
( Mill infeed pass 1/1 )
G01 Z-0.04000
G04 P0 ( dwell for no time -- G64 should not smooth over this point )
G01 F1.00000
G01 X-3.85847 Y-2.47765
G01 X-3.85751 Y-2.47805
G01 X-3.82738 Y-2.47805
G01 X-3.80739 Y-2.49804
G01 X-3.80642 Y-2.49844
G01 X-3.80739 Y-2.49804
G01 X-3.83752 Y-2.49804
G01 X-3.85751 Y-2.47805

G00 Z1.00000 (Retract to tool change height)
T2
M5      (Spindle stop.)
G04 P1.00000 (Wait for spindle to stop)
(MSG, Change tool bit to mill diameter 0.00787in)
M6      (Tool change.)
M0      (Temporary machine stop.)
M3 ( Spindle on clockwise. )
G04 P1.00000 (Wait for spindle to get up to speed)
G04 P0 ( dwell for no time -- G64 should not smooth over this point )
G00 Z0.08000 ( retract )

G00 X-3.28058 Y-2.58062 ( rapid move to begin. )
G01 F0.50000
( Mill infeed pass 1/1 )
G01 Z-0.04000
G04 P0 ( dwell for no time -- G64 should not smooth over this point )
G01 F1.00000
G01 X-3.28058 Y-2.58062
G01 X-3.28297 Y-2.57804
G01 X-3.28495 Y-2.57554
G01 X-3.28682 Y-2.57275
G01 X-3.28853 Y-2.56969
G01 X-3.30943 Y-2.56969
G04 P0 ( dwell for no time -- G64 should not smooth over this point )
G00 Z0.08000 ( retract )

G00 X-3.28045 Y-2.51924 ( rapid move to begin. )
G01 F0.50000
( Mill infeed pass 1/1 )
G01 Z-0.04000
G04 P0 ( dwell for no time -- G64 should not smooth over this point )
G01 F1.00000
G01 X-3.28045 Y-2.51924
G01 X-3.28268 Y-2.52162
G01 X-3.28492 Y-2.52443
G01 X-3.28671 Y-2.52707
G01 X-3.28853 Y-2.53031
G01 X-3.30960 Y-2.53031
G04 P0 ( dwell for no time -- G64 should not smooth over this point )
G00 Z0.08000 ( retract )

G00 X-3.59041 Y-2.53031 ( rapid move to begin. )
G01 F0.50000
( Mill infeed pass 1/1 )
G01 Z-0.04000
G04 P0 ( dwell for no time -- G64 should not smooth over this point )
G01 F1.00000
G01 X-3.59041 Y-2.53031
G01 X-3.61150 Y-2.53031
G01 X-3.61228 Y-2.52877
G01 X-3.61451 Y-2.52523
G01 X-3.61681 Y-2.52221
G01 X-3.61958 Y-2.51921
G04 P0 ( dwell for no time -- G64 should not smooth over this point )
G00 Z0.08000 ( retract )

G00 X-3.64984 Y-2.50672 ( rapid move to begin. )
G01 F0.50000
( Mill infeed pass 1/1 )
G01 Z-0.04000
G04 P0 ( dwell for no time -- G64 should not smooth over this point )
G01 F1.00000
G01 X-3.64984 Y-2.50672
G01 X-3.65376 Y-2.50688
G01 X-3.65791 Y-2.50745
G01 X-3.66197 Y-2.50841
G01 X-3.66357 Y-2.50894
G01 X-3.67864 Y-2.49387
G04 P0 ( dwell for no time -- G64 should not smooth over this point )
G00 Z0.08000 ( retract )

G00 X-3.59040 Y-2.56969 ( rapid move to begin. )
G01 F0.50000
( Mill infeed pass 1/1 )
G01 Z-0.04000
G04 P0 ( dwell for no time -- G64 should not smooth over this point )
G01 F1.00000
G01 X-3.59040 Y-2.56969
G01 X-3.61147 Y-2.56969
G01 X-3.61346 Y-2.57320
G01 X-3.61534 Y-2.57592
G01 X-3.61748 Y-2.57857
G01 X-3.61967 Y-2.58087
G01 X-3.54595 Y-2.74871
G01 X-3.56490 Y-2.74871
G01 X-3.70136 Y-2.61226
G01 X-3.70430 Y-2.60984
G01 X-3.70803 Y-2.60791
G01 X-3.71131 Y-2.60694
G01 X-3.71471 Y-2.60658
G01 X-3.74216 Y-2.60656
G01 X-3.74216 Y-2.55710
G01 X-3.74235 Y-2.55588
G01 X-3.74269 Y-2.55513
G01 X-3.74317 Y-2.55446
G01 X-3.74413 Y-2.55369
G01 X-3.74488 Y-2.55335
G01 X-3.74610 Y-2.55316
G01 X-3.86035 Y-2.55316
G01 X-3.91935 Y-2.49416
G01 X-3.92230 Y-2.49174
G01 X-3.92566 Y-2.48994
G01 X-3.92716 Y-2.48947
G01 X-3.92716 Y-2.43900
G01 X-3.92735 Y-2.43778
G01 X-3.92769 Y-2.43703
G01 X-3.92817 Y-2.43636
G01 X-3.92913 Y-2.43559
G01 X-3.92988 Y-2.43526
G01 X-3.93110 Y-2.43506
G01 X-4.06890 Y-2.43506
G01 X-4.07012 Y-2.43526
G01 X-4.07087 Y-2.43559
G01 X-4.07182 Y-2.43636
G01 X-4.07231 Y-2.43703
G01 X-4.07264 Y-2.43778
G01 X-4.07284 Y-2.43900
G01 X-4.07284 Y-2.57680
G01 X-4.07250 Y-2.57840
G01 X-4.07209 Y-2.57911
G01 X-4.07121 Y-2.57999
G01 X-4.07012 Y-2.58054
G01 X-4.06890 Y-2.58074
G01 X-3.93110 Y-2.58074
G01 X-3.92988 Y-2.58054
G01 X-3.92878 Y-2.57999
G01 X-3.92791 Y-2.57911
G01 X-3.92735 Y-2.57802
G01 X-3.92718 Y-2.57721
G01 X-3.92716 Y-2.54133
G01 X-3.88784 Y-2.58065
G01 X-3.88781 Y-2.69531
G01 X-3.88764 Y-2.69612
G01 X-3.88708 Y-2.69721
G01 X-3.88621 Y-2.69808
G01 X-3.88550 Y-2.69850
G01 X-3.88431 Y-2.69882
G01 X-3.88039 Y-2.69884
G01 X-3.92716 Y-2.74561
G01 X-3.92716 Y-2.67520
G01 X-3.92735 Y-2.67398
G01 X-3.92769 Y-2.67323
G01 X-3.92847 Y-2.67227
G01 X-3.92913 Y-2.67179
G01 X-3.92988 Y-2.67145
G01 X-3.93110 Y-2.67126
G01 X-4.01345 Y-2.67126
G01 X-4.14529 Y-2.60534
G01 X-4.16062 Y-2.43811
G01 X-4.14545 Y-2.42294
G01 X-3.80455 Y-2.42294
G01 X-3.69106 Y-2.53643
G01 X-3.69163 Y-2.53814
G01 X-3.69259 Y-2.54231
G01 X-3.69314 Y-2.54646
G01 X-3.69328 Y-2.55036
G01 X-3.69303 Y-2.55468
G01 X-3.69242 Y-2.55859
G01 X-3.69156 Y-2.56209
G01 X-3.69011 Y-2.56627
G01 X-3.68845 Y-2.56987
G01 X-3.68667 Y-2.57300
G01 X-3.68419 Y-2.57653
G01 X-3.68187 Y-2.57928
G01 X-3.67906 Y-2.58207
G01 X-3.67572 Y-2.58481
G01 X-3.67243 Y-2.58702
G01 X-3.66896 Y-2.58891
G01 X-3.66532 Y-2.59048
G01 X-3.66191 Y-2.59161
G01 X-3.65759 Y-2.59261
G01 X-3.65402 Y-2.59309
G01 X-3.65060 Y-2.59328
G01 X-3.64719 Y-2.59319
G01 X-3.64390 Y-2.59285
G01 X-3.64055 Y-2.59224
G01 X-3.63725 Y-2.59137
G01 X-3.63326 Y-2.58989
G04 P0 ( dwell for no time -- G64 should not smooth over this point )
G00 Z0.08000 ( retract )

G00 X-3.74261 Y-2.69671 ( rapid move to begin. )
G01 F0.50000
( Mill infeed pass 1/1 )
G01 Z-0.04000
G04 P0 ( dwell for no time -- G64 should not smooth over this point )
G01 F1.00000
G01 X-3.74261 Y-2.69671
G01 X-3.74225 Y-2.69572
G01 X-3.74216 Y-2.69490
G01 X-3.74216 Y-2.64544
G01 X-3.72315 Y-2.64544
G01 X-3.67113 Y-2.69746
G01 X-3.63139 Y-2.91099
G01 X-3.57412 Y-2.78749
G01 X-3.63139 Y-2.91099
G01 X-3.62966 Y-2.91179
G01 X-3.62652 Y-2.91364
G01 X-3.62347 Y-2.91580
G01 X-3.62062 Y-2.91821
G01 X-3.61806 Y-2.92078
G01 X-3.61572 Y-2.92357
G01 X-3.61357 Y-2.92662
G01 X-3.61135 Y-2.93056
G01 X-3.60648 Y-2.93056
G01 X-3.52784 Y-2.85192
G01 X-3.52794 Y-2.84985
G01 X-3.52773 Y-2.84646
G01 X-3.52703 Y-2.84271
G01 X-3.52582 Y-2.83899
G01 X-3.52391 Y-2.83510
G01 X-3.52171 Y-2.83186
G01 X-3.51910 Y-2.82893
G01 X-3.51618 Y-2.82641
G01 X-3.51369 Y-2.82473
G01 X-3.51095 Y-2.82326
G01 X-3.50816 Y-2.82213
G01 X-3.50517 Y-2.82126
G01 X-3.50251 Y-2.82076
G01 X-3.49941 Y-2.82049
G01 X-3.49640 Y-2.82055
G01 X-3.49332 Y-2.82092
G01 X-3.48989 Y-2.82174
G01 X-3.48744 Y-2.82260
G01 X-3.48462 Y-2.82390
G01 X-3.48195 Y-2.82550
G01 X-3.47954 Y-2.82731
G01 X-3.47697 Y-2.82972
G01 X-3.47521 Y-2.83176
G01 X-3.47342 Y-2.83431
G01 X-3.47115 Y-2.83869
G01 X-3.46963 Y-2.84350
G01 X-3.46897 Y-2.84787
G01 X-3.46900 Y-2.85228
G01 X-3.46974 Y-2.85695
G01 X-3.47133 Y-2.86173
G01 X-3.47355 Y-2.86591
G01 X-3.47657 Y-2.86985
G01 X-3.47877 Y-2.87203
G01 X-3.48073 Y-2.87358
G01 X-3.42920 Y-2.87716
G01 X-3.49279 Y-2.87894
G01 X-3.49541 Y-2.87937
G01 X-3.49850 Y-2.87952
G01 X-3.50035 Y-2.87942
G01 X-3.50962 Y-2.88868
G01 X-3.50035 Y-2.87942
G01 X-3.49850 Y-2.87952
G01 X-3.49541 Y-2.87937
G01 X-3.49279 Y-2.87894
G01 X-3.42920 Y-2.87716
G01 X-3.42953 Y-2.87559
G01 X-3.42953 Y-2.82441
G01 X-3.42919 Y-2.82281
G01 X-3.42852 Y-2.82178
G01 X-3.42719 Y-2.82081
G01 X-3.42559 Y-2.82047
G01 X-3.37441 Y-2.82047
G01 X-3.37359 Y-2.82056
G01 X-3.37244 Y-2.82100
G01 X-3.37148 Y-2.82178
G01 X-3.37081 Y-2.82281
G01 X-3.37047 Y-2.82441
G01 X-3.37047 Y-2.83056
G01 X-3.35000 Y-2.83056
G01 X-3.34659 Y-2.83088
G01 X-3.34256 Y-2.83204
G01 X-3.33889 Y-2.83407
G01 X-3.33625 Y-2.83625
G01 X-3.26357 Y-2.90894
G01 X-3.26186 Y-2.90837
G01 X-3.25768 Y-2.90740
G01 X-3.25382 Y-2.90689
G01 X-3.25180 Y-2.90680
G01 X-3.24102 Y-2.90766
G01 X-3.23687 Y-2.90876
G01 X-3.23260 Y-2.91037
G01 X-3.22876 Y-2.91228
G01 X-3.22513 Y-2.91457
G01 X-3.22175 Y-2.91720
G01 X-3.21872 Y-2.92008
G01 X-3.21615 Y-2.92302
G01 X-3.21365 Y-2.92650
G01 X-3.21150 Y-2.93022
G01 X-3.20973 Y-2.93412
G01 X-3.20839 Y-2.93808
G01 X-3.20745 Y-2.94205
G01 X-3.20689 Y-2.94618
G01 X-3.20672 Y-2.95036
G01 X-3.20695 Y-2.95453
G01 X-3.20759 Y-2.95866
G01 X-3.20863 Y-2.96271
G01 X-3.21000 Y-2.96654
G01 X-3.21173 Y-2.97023
G01 X-3.21386 Y-2.97382
G01 X-3.21633 Y-2.97719
G01 X-3.21910 Y-2.98031
G01 X-3.22217 Y-2.98315
G01 X-3.22550 Y-2.98568
G01 X-3.22905 Y-2.98788
G01 X-3.23056 Y-2.98863
G01 X-3.23056 Y-3.18021
G01 X-3.23094 Y-3.18400
G01 X-3.23191 Y-3.18729
G01 X-3.23407 Y-3.19132
G01 X-3.23625 Y-3.19395
G01 X-3.30604 Y-3.26374
G01 X-3.30899 Y-3.26616
G01 X-3.31235 Y-3.26796
G01 X-3.31599 Y-3.26906
G01 X-3.31979 Y-3.26944
G01 X-3.35359 Y-3.26944
G01 X-3.35601 Y-3.27220
G01 X-3.35823 Y-3.27423
G01 X-3.36063 Y-3.27604
G01 X-3.36320 Y-3.27761
G01 X-3.36590 Y-3.27893
G01 X-3.36872 Y-3.27998
G01 X-3.37168 Y-3.28078
G01 X-3.37477 Y-3.28129
G01 X-3.37812 Y-3.28150
G01 X-3.42177 Y-3.28150
G01 X-3.42525 Y-3.28128
G01 X-3.42843 Y-3.28075
G01 X-3.43115 Y-3.28003
G01 X-3.43379 Y-3.27906
G01 X-3.43634 Y-3.27786
G01 X-3.43847 Y-3.27663
G01 X-3.44078 Y-3.27502
G01 X-3.44294 Y-3.27321
G01 X-3.44523 Y-3.27087
G01 X-3.44764 Y-3.26778
G01 X-3.44992 Y-3.26387
G01 X-3.45160 Y-3.25972
G01 X-3.45248 Y-3.25618
G01 X-3.50008 Y-3.30905
G04 P0 ( dwell for no time -- G64 should not smooth over this point )
G00 Z0.08000 ( retract )

G00 X-3.28064 Y-2.98057 ( rapid move to begin. )
G01 F0.50000
( Mill infeed pass 1/1 )
G01 Z-0.04000
G04 P0 ( dwell for no time -- G64 should not smooth over this point )
G01 F1.00000
G01 X-3.28064 Y-2.98057
G01 X-3.27762 Y-2.98332
G01 X-3.27459 Y-2.98562
G01 X-3.27104 Y-2.98782
G01 X-3.26944 Y-2.98863
G01 X-3.26944 Y-3.17216
G01 X-3.32784 Y-3.23056
G01 X-3.35361 Y-3.23056
G01 X-3.35645 Y-3.22736
G01 X-3.35896 Y-3.22518
G01 X-3.36169 Y-3.22327
G01 X-3.36460 Y-3.22167
G01 X-3.36767 Y-3.22037
G01 X-3.37126 Y-3.21932
G01 X-3.37463 Y-3.21873
G01 X-3.37798 Y-3.21851
G01 X-3.42188 Y-3.21850
G01 X-3.42615 Y-3.21884
G01 X-3.43113 Y-3.21997
G01 X-3.43484 Y-3.22140
G01 X-3.43876 Y-3.22356
G01 X-3.44276 Y-3.22663
G01 X-3.44553 Y-3.22947
G01 X-3.44823 Y-3.23312
G01 X-3.45059 Y-3.23758
G01 X-3.45192 Y-3.24132
G01 X-3.45245 Y-3.24376
G01 X-3.50008 Y-3.30905
G01 X-3.44618 Y-3.30905
G01 X-3.44501 Y-3.30762
G01 X-3.44232 Y-3.30498
G01 X-3.43972 Y-3.30295
G01 X-3.43656 Y-3.30100
G01 X-3.43314 Y-3.29942
G01 X-3.42961 Y-3.29827
G01 X-3.42544 Y-3.29748
G01 X-3.42187 Y-3.29725
G01 X-3.37633 Y-3.29732
G01 X-3.37242 Y-3.29781
G01 X-3.36870 Y-3.29876
G01 X-3.36507 Y-3.30019
G01 X-3.36132 Y-3.30225
G01 X-3.35878 Y-3.30407
G01 X-3.35674 Y-3.30583
G01 X-3.35436 Y-3.30833
G01 X-3.35271 Y-3.31045
G01 X-3.35105 Y-3.31303
G01 X-3.34947 Y-3.31618
G01 X-3.34836 Y-3.31910
G01 X-3.34757 Y-3.32207
G01 X-3.34710 Y-3.32478
G01 X-3.34686 Y-3.32823
G01 X-3.34693 Y-3.33091
G01 X-3.34729 Y-3.33396
G01 X-3.34807 Y-3.33739
G01 X-3.34891 Y-3.33994
G01 X-3.35014 Y-3.34276
G01 X-3.35186 Y-3.34577
G01 X-3.35376 Y-3.34842
G01 X-3.35588 Y-3.35081
G01 X-3.35824 Y-3.35297
G01 X-3.36047 Y-3.35466
G01 X-3.36319 Y-3.35634
G01 X-3.36644 Y-3.35789
G01 X-3.36951 Y-3.35897
G01 X-3.37260 Y-3.35970
G01 X-3.37539 Y-3.36009
G01 X-3.37807 Y-3.36023
G01 X-3.42210 Y-3.36023
G01 X-3.42563 Y-3.35998
G01 X-3.42928 Y-3.35929
G01 X-3.43282 Y-3.35818
G01 X-3.43626 Y-3.35664
G01 X-3.43944 Y-3.35473
G01 X-3.44237 Y-3.35245
G01 X-3.44502 Y-3.34985
G01 X-3.44618 Y-3.34843
G01 X-3.67160 Y-3.34841
G01 X-3.67469 Y-3.34813
G01 X-3.67801 Y-3.34723
G01 X-3.72266 Y-3.33093
G01 X-3.72434 Y-3.33240
G01 X-3.72767 Y-3.33478
G01 X-3.73170 Y-3.33706
G01 X-3.73629 Y-3.33899
G01 X-3.74073 Y-3.34028
G01 X-3.74520 Y-3.34105
G01 X-3.74983 Y-3.34133
G01 X-3.75432 Y-3.34111
G01 X-3.75778 Y-3.34059
G01 X-3.76144 Y-3.33972
G01 X-3.76534 Y-3.33838
G01 X-3.76885 Y-3.33678
G01 X-3.77212 Y-3.33492
G01 X-3.77528 Y-3.33270
G01 X-3.77788 Y-3.33052
G01 X-3.78053 Y-3.32786
G01 X-3.78300 Y-3.32489
G01 X-3.78513 Y-3.32178
G01 X-3.78696 Y-3.31851
G01 X-3.78866 Y-3.31464
G01 X-3.78973 Y-3.31141
G01 X-3.79062 Y-3.30765
G01 X-3.79118 Y-3.30357
G01 X-3.79133 Y-3.29969
G01 X-3.79114 Y-3.29600
G01 X-3.79056 Y-3.29206
G01 X-3.78958 Y-3.28810
G01 X-3.78806 Y-3.28389
G01 X-3.78629 Y-3.28021
G01 X-3.78422 Y-3.27681
G01 X-3.78201 Y-3.27385
G01 X-3.77927 Y-3.27081
G01 X-3.77632 Y-3.26813
G01 X-3.77273 Y-3.26547
G01 X-3.76920 Y-3.26340
G01 X-3.76586 Y-3.26183
G01 X-3.76211 Y-3.26048
G01 X-3.75777 Y-3.25940
G01 X-3.75372 Y-3.25883
G01 X-3.75003 Y-3.25867
G01 X-3.74626 Y-3.25883
G01 X-3.74208 Y-3.25943
G01 X-3.73842 Y-3.26032
G01 X-3.73511 Y-3.26144
G01 X-3.73124 Y-3.26317
G01 X-3.72819 Y-3.26488
G01 X-3.72501 Y-3.26708
G01 X-3.72212 Y-3.26948
G01 X-3.71976 Y-3.27185
G01 X-3.67280 Y-3.30722
G01 X-3.66778 Y-3.30905
G01 X-3.66243 Y-3.30905
G01 X-3.68913 Y-3.30126
G01 X-3.70914 Y-3.29396
G01 X-3.71021 Y-3.28879
G01 X-3.71143 Y-3.28513
G01 X-3.71294 Y-3.28169
G04 P0 ( dwell for no time -- G64 should not smooth over this point )
G00 Z0.08000 ( retract )

G00 X-3.93069 Y-3.31944 ( rapid move to begin. )
G01 F0.50000
( Mill infeed pass 1/1 )
G01 Z-0.04000
G04 P0 ( dwell for no time -- G64 should not smooth over this point )
G01 F1.00000
G01 X-3.93069 Y-3.31944
G01 X-3.89134 Y-3.31944
G01 X-3.89132 Y-3.33978
G01 X-3.89119 Y-3.34041
G01 X-3.88951 Y-3.34285
G01 X-3.88740 Y-3.34331
G01 X-3.86944 Y-3.34331
G01 X-3.86944 Y-3.37037
G01 X-3.86927 Y-3.37225
G01 X-3.88951 Y-3.34285
G01 X-3.96932 Y-3.31944
G01 X-4.00866 Y-3.31944
G01 X-4.00866 Y-3.33937
G01 X-4.00880 Y-3.34039
G04 P0 ( dwell for no time -- G64 should not smooth over this point )
G00 Z0.08000 ( retract )

G00 X-4.16827 Y-3.34538 ( rapid move to begin. )
G01 F0.50000
( Mill infeed pass 1/1 )
G01 Z-0.04000
G04 P0 ( dwell for no time -- G64 should not smooth over this point )
G01 F1.00000
G01 X-4.16827 Y-3.34538
G01 X-4.16510 Y-3.34292
G01 X-4.16173 Y-3.33957
G01 X-4.15924 Y-3.34029
G01 X-4.15481 Y-3.34105
G01 X-4.15162 Y-3.34124
G01 X-4.09081 Y-3.34134
G01 X-4.09115 Y-3.34059
G01 X-4.09134 Y-3.33937
G01 X-4.09134 Y-3.26063
G01 X-4.09099 Y-3.25900
G01 X-4.13075 Y-3.26342
G01 X-4.12695 Y-3.26569
G01 X-4.12368 Y-3.26813
G01 X-4.12100 Y-3.27054
G01 X-4.11799 Y-3.27385
G01 X-4.11557 Y-3.27713
G01 X-4.11371 Y-3.28021
G01 X-4.11193 Y-3.28389
G01 X-4.11042 Y-3.28810
G01 X-4.10951 Y-3.29168
G01 X-4.10890 Y-3.29562
G01 X-4.10867 Y-3.30013
G01 X-4.10893 Y-3.30462
G01 X-4.10978 Y-3.30951
G01 X-4.11121 Y-3.31427
G01 X-4.11320 Y-3.31882
G01 X-4.11573 Y-3.32310
G01 X-4.11875 Y-3.32705
G01 X-4.12257 Y-3.33092
G01 X-4.12648 Y-3.33399
G01 X-4.13088 Y-3.33663
G01 X-4.12648 Y-3.33399
G01 X-4.12257 Y-3.33092
G01 X-4.11875 Y-3.32705
G01 X-4.11573 Y-3.32310
G01 X-4.11320 Y-3.31882
G01 X-4.11121 Y-3.31427
G01 X-4.10978 Y-3.30951
G01 X-4.10893 Y-3.30462
G01 X-4.10867 Y-3.30013
G01 X-4.10890 Y-3.29562
G01 X-4.10951 Y-3.29168
G01 X-4.11042 Y-3.28810
G01 X-4.11193 Y-3.28389
G01 X-4.11371 Y-3.28021
G01 X-4.11557 Y-3.27713
G01 X-4.11799 Y-3.27385
G01 X-4.12100 Y-3.27054
G01 X-4.12368 Y-3.26813
G01 X-4.12695 Y-3.26569
G01 X-4.13075 Y-3.26342
G01 X-4.08712 Y-3.25669
G01 X-4.01219 Y-3.25671
G01 X-4.01100 Y-3.25703
G01 X-4.00967 Y-3.25800
G01 X-4.00900 Y-3.25903
G01 X-4.00868 Y-3.26022
G01 X-4.00866 Y-3.28056
G01 X-3.89134 Y-3.28056
G01 X-3.89132 Y-3.26022
G01 X-3.89100 Y-3.25903
G01 X-3.89033 Y-3.25800
G01 X-3.88971 Y-3.25744
G01 X-3.88862 Y-3.25689
G01 X-3.88740 Y-3.25669
G01 X-3.81260 Y-3.25669
G01 X-3.81100 Y-3.25703
G01 X-3.80967 Y-3.25800
G01 X-3.80900 Y-3.25903
G01 X-3.80866 Y-3.26063
G01 X-3.80875 Y-3.34019
G01 X-3.80919 Y-3.34134
G01 X-3.80996 Y-3.34230
G01 X-3.81100 Y-3.34297
G01 X-3.81219 Y-3.34328
G01 X-3.83056 Y-3.34331
G01 X-3.83056 Y-3.36232
G01 X-3.81352 Y-3.37936
G01 X-3.35738 Y-3.37936
G01 X-3.18759 Y-3.20957
G01 X-3.18759 Y-2.81876
G01 X-3.21876 Y-2.78759
G01 X-3.57412 Y-2.78749
G01 X-3.70979 Y-2.93056
G01 X-3.68866 Y-2.93056
G01 X-3.68694 Y-2.92744
G01 X-3.68524 Y-2.92487
G01 X-3.68311 Y-2.92213
G01 X-3.68064 Y-2.91944
G04 P0 ( dwell for no time -- G64 should not smooth over this point )
G00 Z0.08000 ( retract )

G00 X-3.70973 Y-2.96950 ( rapid move to begin. )
G01 F0.50000
( Mill infeed pass 1/1 )
G01 Z-0.04000
G04 P0 ( dwell for no time -- G64 should not smooth over this point )
G01 F1.00000
G01 X-3.70973 Y-2.96950
G01 X-3.68863 Y-2.96950
G01 X-3.68683 Y-2.97274
G01 X-3.68505 Y-2.97539
G01 X-3.68290 Y-2.97813
G01 X-3.68056 Y-2.98064
G04 P0 ( dwell for no time -- G64 should not smooth over this point )
G00 Z0.08000 ( retract )

G00 X-3.59694 Y-2.96931 ( rapid move to begin. )
G01 F0.50000
( Mill infeed pass 1/1 )
G01 Z-0.04000
G04 P0 ( dwell for no time -- G64 should not smooth over this point )
G01 F1.00000
G01 X-3.59694 Y-2.96931
G01 X-3.59843 Y-2.96944
G01 X-3.61143 Y-2.96944
G01 X-3.61317 Y-2.97273
G01 X-3.61641 Y-2.97729
G01 X-3.61919 Y-2.98027
G01 X-3.43987 Y-3.14558
G01 X-3.44267 Y-3.14781
G01 X-3.44501 Y-3.15014
G01 X-3.44618 Y-3.15157
G01 X-3.46100 Y-3.15157
G01 X-3.44618 Y-3.15157
G01 X-3.44501 Y-3.15014
G01 X-3.44267 Y-3.14781
G01 X-3.43987 Y-3.14558
G01 X-3.29328 Y-2.95017
G01 X-3.29312 Y-2.94623
G01 X-3.29255 Y-2.94209
G01 X-3.29159 Y-2.93803
G01 X-3.29106 Y-2.93643
G01 X-3.35805 Y-2.86944
G01 X-3.37047 Y-2.86944
G01 X-3.37056 Y-2.87641
G01 X-3.37122 Y-2.87790
G01 X-3.37177 Y-2.87852
G01 X-3.37279 Y-2.87918
G01 X-3.28064 Y-2.98057
G01 X-3.35527 Y-3.14987
G01 X-3.35245 Y-3.15333
G01 X-3.35083 Y-3.15594
G01 X-3.34947 Y-3.15870
G01 X-3.34836 Y-3.16162
G01 X-3.34757 Y-3.16459
G01 X-3.34710 Y-3.16730
G01 X-3.34687 Y-3.17036
G01 X-3.34693 Y-3.17343
G01 X-3.34729 Y-3.17648
G01 X-3.34796 Y-3.17954
G01 X-3.34891 Y-3.18246
G01 X-3.35014 Y-3.18528
G01 X-3.35164 Y-3.18796
G01 X-3.35424 Y-3.19152
G01 X-3.35697 Y-3.19439
G01 X-3.35965 Y-3.19660
G01 X-3.36336 Y-3.19895
G01 X-3.36696 Y-3.20062
G01 X-3.37073 Y-3.20181
G01 X-3.37414 Y-3.20247
G01 X-3.37835 Y-3.20275
G01 X-3.42188 Y-3.20275
G01 X-3.42686 Y-3.20231
G01 X-3.43000 Y-3.20162
G01 X-3.43292 Y-3.20067
G01 X-3.43573 Y-3.19943
G01 X-3.43879 Y-3.19768
G01 X-3.44132 Y-3.19585
G01 X-3.44362 Y-3.19382
G01 X-3.44620 Y-3.19095
G01 X-4.04280 Y-3.19095
G01 X-4.04664 Y-3.19057
G01 X-4.04997 Y-3.18958
G01 X-4.05374 Y-3.18763
G01 X-4.05672 Y-3.18518
G01 X-4.26562 Y-2.97629
G01 X-4.26925 Y-2.98046
G01 X-4.27310 Y-2.98391
G01 X-4.27733 Y-2.98687
G01 X-4.28188 Y-2.98931
G01 X-4.39646 Y-3.03667
G01 X-4.39733 Y-3.03386
G01 X-4.39893 Y-3.03084
G01 X-4.40154 Y-3.02756
G01 X-4.53056 Y-2.89854
G01 X-4.53056 Y-2.87953
G01 X-4.52441 Y-2.87953
G01 X-4.52319 Y-2.87933
G01 X-4.52244 Y-2.87900
G01 X-4.52148 Y-2.87822
G01 X-4.52081 Y-2.87719
G01 X-4.52049 Y-2.87600
G01 X-4.52049 Y-2.82400
G01 X-4.52081 Y-2.82281
G01 X-4.52148 Y-2.82178
G01 X-4.52244 Y-2.82100
G01 X-4.52400 Y-2.82049
G01 X-4.57600 Y-2.82049
G01 X-4.57719 Y-2.82081
G01 X-4.57822 Y-2.82148
G01 X-4.57900 Y-2.82244
G01 X-4.57933 Y-2.82319
G01 X-4.57953 Y-2.82441
G01 X-4.57953 Y-2.83056
G01 X-4.60039 Y-2.83058
G01 X-4.60379 Y-2.83094
G01 X-4.60779 Y-2.83221
G01 X-4.61080 Y-2.83384
G01 X-4.61374 Y-2.83625
G01 X-4.68646 Y-2.90897
G01 X-4.68958 Y-2.90799
G01 X-4.69469 Y-2.90705
G01 X-4.70040 Y-2.90672
G01 X-4.70610 Y-2.90715
G01 X-4.71169 Y-2.90833
G01 X-4.71708 Y-2.91023
G01 X-4.72217 Y-2.91283
G01 X-4.72688 Y-2.91608
G01 X-4.73132 Y-2.92013
G01 X-4.73461 Y-2.92402
G01 X-4.73763 Y-2.92862
G01 X-4.74027 Y-2.93413
G01 X-4.74198 Y-2.93947
G01 X-4.74293 Y-2.94448
G01 X-4.74328 Y-2.94997
G01 X-4.74286 Y-2.95604
G01 X-4.74197 Y-2.96055
G01 X-4.74046 Y-2.96538
G01 X-4.73817 Y-2.97040
G01 X-4.73579 Y-2.97433
G01 X-4.73271 Y-2.97834
G01 X-4.72926 Y-2.98189
G01 X-4.72534 Y-2.98509
G01 X-4.72067 Y-2.98802
G01 X-4.71652 Y-2.99000
G01 X-4.71174 Y-2.99166
G01 X-4.70635 Y-2.99281
G01 X-4.70142 Y-2.99326
G01 X-4.69682 Y-2.99316
G01 X-4.69136 Y-2.99241
G01 X-4.68691 Y-2.99125
G01 X-4.68218 Y-2.98944
G01 X-4.67852 Y-2.98758
G01 X-4.67482 Y-2.98521
G04 P0 ( dwell for no time -- G64 should not smooth over this point )
G00 Z0.08000 ( retract )

G00 X-4.48150 Y-3.13976 ( rapid move to begin. )
G01 F0.50000
( Mill infeed pass 1/1 )
G01 Z-0.04000
G04 P0 ( dwell for no time -- G64 should not smooth over this point )
G01 F1.00000
G01 X-4.48150 Y-3.13976
G01 X-4.47784 Y-3.13977
G01 X-4.47438 Y-3.14002
G01 X-4.47000 Y-3.14089
G01 X-4.46620 Y-3.14221
G01 X-4.46308 Y-3.14372
G01 X-4.45974 Y-3.14586
G01 X-4.45634 Y-3.14874
G01 X-4.45399 Y-3.15130
G01 X-4.45168 Y-3.15452
G01 X-4.44998 Y-3.15759
G01 X-4.44891 Y-3.16005
G01 X-4.44796 Y-3.16297
G01 X-4.44723 Y-3.16642
G01 X-4.44690 Y-3.16953
G01 X-4.44688 Y-3.17261
G01 X-4.44717 Y-3.17572
G01 X-4.44776 Y-3.17874
G01 X-4.44865 Y-3.18174
G01 X-4.44981 Y-3.18458
G01 X-4.45125 Y-3.18730
G01 X-4.45271 Y-3.18955
G01 X-4.45465 Y-3.19201
G01 X-4.45679 Y-3.19422
G01 X-4.45913 Y-3.19621
G01 X-4.46165 Y-3.19796
G01 X-4.46498 Y-3.19977
G01 X-4.46849 Y-3.20117
G01 X-4.47220 Y-3.20214
G01 X-4.47644 Y-3.20269
G01 X-4.52335 Y-3.20270
G01 X-4.52698 Y-3.20230
G01 X-4.53053 Y-3.20147
G01 X-4.53396 Y-3.20025
G01 X-4.53683 Y-3.19885
G01 X-4.53991 Y-3.19691
G01 X-4.54276 Y-3.19463
G01 X-4.54532 Y-3.19204
G01 X-4.54638 Y-3.19070
G01 X-4.59020 Y-3.19065
G01 X-4.54669 Y-3.26906
G01 X-4.54729 Y-3.31052
G01 X-4.54503 Y-3.30764
G01 X-4.54185 Y-3.30459
G01 X-4.53833 Y-3.30203
G01 X-4.53494 Y-3.30019
G01 X-4.53035 Y-3.29848
G01 X-4.52603 Y-3.29756
G01 X-4.52188 Y-3.29725
G01 X-4.47812 Y-3.29725
G01 X-4.47262 Y-3.29777
G01 X-4.46963 Y-3.29848
G01 X-4.46672 Y-3.29947
G01 X-4.46393 Y-3.30074
G01 X-4.46154 Y-3.30210
G01 X-4.45898 Y-3.30391
G01 X-4.45665 Y-3.30591
G01 X-4.45380 Y-3.30905
G01 X-4.19031 Y-3.30905
G01 X-4.19115 Y-3.30385
G01 X-4.19133 Y-3.29946
G01 X-4.19099 Y-3.29472
G01 X-4.18997 Y-3.28949
G01 X-4.18860 Y-3.28521
G01 X-4.18735 Y-3.28243
G04 P0 ( dwell for no time -- G64 should not smooth over this point )
G00 Z0.08000 ( retract )

G00 X-4.43903 Y-3.34843 ( rapid move to begin. )
G01 F0.50000
( Mill infeed pass 1/1 )
G01 Z-0.04000
G04 P0 ( dwell for no time -- G64 should not smooth over this point )
G01 F1.00000
G01 X-4.43903 Y-3.34843
G01 X-4.45382 Y-3.34843
G01 X-4.45498 Y-3.34986
G01 X-4.45732 Y-3.35219
G01 X-4.46011 Y-3.35440
G04 P0 ( dwell for no time -- G64 should not smooth over this point )
G00 Z0.08000 ( retract )

G00 X-4.39709 Y-3.25221 ( rapid move to begin. )
G01 F0.50000
( Mill infeed pass 1/1 )
G01 Z-0.04000
G04 P0 ( dwell for no time -- G64 should not smooth over this point )
G01 F1.00000
G01 X-4.39709 Y-3.25221
G01 X-4.39749 Y-3.25328
G01 X-4.39912 Y-3.25630
G01 X-4.40154 Y-3.25924
G01 X-4.40604 Y-3.26374
G01 X-4.40868 Y-3.26593
G01 X-4.41235 Y-3.26796
G01 X-4.41599 Y-3.26906
G01 X-4.41979 Y-3.26944
G01 X-4.45360 Y-3.26944
G01 X-4.45647 Y-3.27265
G01 X-4.45883 Y-3.27471
G01 X-4.46138 Y-3.27653
G01 X-4.46410 Y-3.27809
G01 X-4.46660 Y-3.27922
G01 X-4.46957 Y-3.28024
G01 X-4.47262 Y-3.28097
G01 X-4.47812 Y-3.28150
G01 X-4.52188 Y-3.28150
G01 X-4.52605 Y-3.28118
G01 X-4.52945 Y-3.28051
G01 X-4.53221 Y-3.27967
G01 X-4.53482 Y-3.27861
G01 X-4.53737 Y-3.27729
G01 X-4.54004 Y-3.27557
G01 X-4.54225 Y-3.27383
G01 X-4.54405 Y-3.27214
G01 X-4.54669 Y-3.26906
G01 X-4.59020 Y-3.19065
G01 X-4.55211 Y-3.24208
G01 X-4.55066 Y-3.23774
G01 X-4.54959 Y-3.23546
G01 X-4.54814 Y-3.23297
G01 X-4.54630 Y-3.23039
G01 X-4.54445 Y-3.22827
G01 X-4.54242 Y-3.22632
G01 X-4.54022 Y-3.22456
G01 X-4.53817 Y-3.22319
G01 X-4.53534 Y-3.22164
G01 X-4.53275 Y-3.22053
G01 X-4.53008 Y-3.21965
G01 X-4.52733 Y-3.21902
G01 X-4.52489 Y-3.21867
G01 X-4.52188 Y-3.21850
G01 X-4.47823 Y-3.21850
G01 X-4.47399 Y-3.21881
G01 X-4.47073 Y-3.21944
G01 X-4.46755 Y-3.22042
G01 X-4.46492 Y-3.22152
G01 X-4.46199 Y-3.22309
G01 X-4.45924 Y-3.22496
G01 X-4.45671 Y-3.22712
G01 X-4.45360 Y-3.23056
G01 X-4.43472 Y-3.23056
G01 X-4.43472 Y-3.04935
G01 X-4.56475 Y-2.91914
G01 X-4.56593 Y-2.91770
G01 X-4.56809 Y-2.91366
G01 X-4.56906 Y-2.91038
G01 X-4.56942 Y-2.90698
G01 X-4.56944 Y-2.87953
G01 X-4.57600 Y-2.87950
G01 X-4.57719 Y-2.87919
G01 X-4.57822 Y-2.87852
G01 X-4.57900 Y-2.87756
G01 X-4.57951 Y-2.87600
G01 X-4.57953 Y-2.86944
G01 X-4.59195 Y-2.86944
G01 X-4.65894 Y-2.93643
G01 X-4.65841 Y-2.93802
G01 X-4.65747 Y-2.94198
G01 X-4.65689 Y-2.94612
G01 X-4.65678 Y-2.95146
G01 X-4.53819 Y-3.14447
G01 X-4.54094 Y-3.14636
G01 X-4.54319 Y-3.14829
G01 X-4.54639 Y-3.15182
G01 X-4.58147 Y-3.15182
G01 X-4.75541 Y-2.97788
G01 X-4.75541 Y-2.92212
G01 X-4.64163 Y-2.80835
G01 X-4.16494 Y-2.80835
G01 X-4.15155 Y-2.82173
G01 X-4.26691 Y-2.91931
G01 X-4.28031 Y-2.90591
G01 X-4.28031 Y-2.85000
G01 X-4.28069 Y-2.84616
G01 X-4.28198 Y-2.84212
G01 X-4.28363 Y-2.83906
G01 X-4.28582 Y-2.83636
G01 X-4.28906 Y-2.83363
G01 X-4.29247 Y-2.83181
G01 X-4.29616 Y-2.83069
G01 X-4.30000 Y-2.83031
G01 X-4.42963 Y-2.83031
G01 X-4.43083 Y-2.82899
G01 X-4.43343 Y-2.82671
G01 X-4.43589 Y-2.82499
G01 X-4.43893 Y-2.82333
G01 X-4.44213 Y-2.82203
G01 X-4.44547 Y-2.82111
G01 X-4.44935 Y-2.82056
G01 X-4.45289 Y-2.82051
G01 X-4.45686 Y-2.82096
G01 X-4.46132 Y-2.82214
G01 X-4.46592 Y-2.82419
G01 X-4.47000 Y-2.82694
G01 X-4.47337 Y-2.83009
G01 X-4.47604 Y-2.83347
G01 X-4.47836 Y-2.83758
G01 X-4.47988 Y-2.84162
G01 X-4.48062 Y-2.84474
G01 X-4.48104 Y-2.84825
G01 X-4.48106 Y-2.85148
G01 X-4.48080 Y-2.85416
G01 X-4.48020 Y-2.85722
G01 X-4.47913 Y-2.86059
G01 X-4.47786 Y-2.86344
G01 X-4.47647 Y-2.86587
G01 X-4.47466 Y-2.86841
G01 X-4.47251 Y-2.87081
G01 X-4.47011 Y-2.87298
G01 X-4.46723 Y-2.87503
G01 X-4.46450 Y-2.87654
G01 X-4.46164 Y-2.87776
G01 X-4.45906 Y-2.87856
G01 X-4.45590 Y-2.87920
G01 X-4.45214 Y-2.87951
G01 X-4.44773 Y-2.87927
G01 X-4.39137 Y-2.86969
G01 X-4.31969 Y-2.86969
G01 X-4.31969 Y-2.91154
G01 X-4.32252 Y-2.91304
G01 X-4.32711 Y-2.91626
G01 X-4.33117 Y-2.91997
G01 X-4.33448 Y-2.92384
G01 X-4.33777 Y-2.92887
G01 X-4.33999 Y-2.93346
G01 X-4.34108 Y-2.93660
G01 X-4.41518 Y-2.86969
G01 X-4.42964 Y-2.86969
G01 X-4.43110 Y-2.87126
G01 X-4.43360 Y-2.87342
G01 X-4.43557 Y-2.87475
G01 X-4.34271 Y-2.95686
G01 X-4.34160 Y-2.96196
G01 X-4.34013 Y-2.96622
G01 X-4.33827 Y-2.97021
G01 X-4.33596 Y-2.97408
G01 X-4.33326 Y-2.97769
G01 X-4.32975 Y-2.98144
G01 X-4.32579 Y-2.98476
G01 X-4.32279 Y-2.98673
G01 X-4.39646 Y-3.03667
G04 P0 ( dwell for no time -- G64 should not smooth over this point )
G00 Z0.08000 ( retract )

G00 X-4.04805 Y-3.13817 ( rapid move to begin. )
G01 F0.50000
( Mill infeed pass 1/1 )
G01 Z-0.04000
G04 P0 ( dwell for no time -- G64 should not smooth over this point )
G01 F1.00000
G01 X-4.04805 Y-3.13817
G01 X-4.03465 Y-3.15157
G01 X-4.01570 Y-3.15157
G04 P0 ( dwell for no time -- G64 should not smooth over this point )
G00 Z0.08000 ( retract )

G00 X-3.96880 Y-2.93056 ( rapid move to begin. )
G01 F0.50000
( Mill infeed pass 1/1 )
G01 Z-0.04000
G04 P0 ( dwell for no time -- G64 should not smooth over this point )
G01 F1.00000
G01 X-3.96880 Y-2.93056
G01 X-3.98775 Y-2.93056
G01 X-4.14314 Y-2.77516
G01 X-4.14585 Y-2.77292
G01 X-4.28695 Y-2.59121
G01 X-4.28512 Y-2.59064
G01 X-4.28048 Y-2.58863
G01 X-4.27649 Y-2.58634
G01 X-4.27439 Y-2.58482
G01 X-4.07284 Y-2.68559
G01 X-4.07284 Y-2.81300
G01 X-4.07250 Y-2.81460
G01 X-4.07209 Y-2.81531
G01 X-4.07121 Y-2.81618
G01 X-4.07012 Y-2.81674
G01 X-4.06890 Y-2.81694
G01 X-3.97722 Y-2.81694
G04 P0 ( dwell for no time -- G64 should not smooth over this point )
G00 Z0.08000 ( retract )

G00 X-4.07284 Y-2.56056 ( rapid move to begin. )
G01 F0.50000
( Mill infeed pass 1/1 )
G01 Z-0.04000
G04 P0 ( dwell for no time -- G64 should not smooth over this point )
G01 F1.00000
G01 X-4.07284 Y-2.56056
G01 X-4.20222 Y-2.57688
G01 X-4.25677 Y-2.54960
G01 X-4.25680 Y-2.54737
G01 X-4.25727 Y-2.54309
G01 X-4.25825 Y-2.53857
G01 X-4.25895 Y-2.53644
G01 X-4.21579 Y-2.49328
G04 P0 ( dwell for no time -- G64 should not smooth over this point )
G00 Z0.08000 ( retract )

G00 X-4.27137 Y-2.49388 ( rapid move to begin. )
G01 F0.50000
( Mill infeed pass 1/1 )
G01 Z-0.04000
G04 P0 ( dwell for no time -- G64 should not smooth over this point )
G01 F1.00000
G01 X-4.27137 Y-2.49388
G01 X-4.28643 Y-2.50894
G01 X-4.28803 Y-2.50841
G01 X-4.29209 Y-2.50745
G01 X-4.29623 Y-2.50688
G01 X-4.30015 Y-2.50672
G04 P0 ( dwell for no time -- G64 should not smooth over this point )
G00 Z0.08000 ( retract )

G00 X-4.33036 Y-2.51915 ( rapid move to begin. )
G01 F0.50000
( Mill infeed pass 1/1 )
G01 Z-0.04000
G04 P0 ( dwell for no time -- G64 should not smooth over this point )
G01 F1.00000
G01 X-4.33036 Y-2.51915
G01 X-4.33318 Y-2.52221
G01 X-4.33549 Y-2.52523
G01 X-4.33772 Y-2.52877
G01 X-4.33850 Y-2.53031
G01 X-4.35965 Y-2.53031
G04 P0 ( dwell for no time -- G64 should not smooth over this point )
G00 Z0.08000 ( retract )

G00 X-4.33012 Y-2.58101 ( rapid move to begin. )
G01 F0.50000
( Mill infeed pass 1/1 )
G01 Z-0.04000
G04 P0 ( dwell for no time -- G64 should not smooth over this point )
G01 F1.00000
G01 X-4.33012 Y-2.58101
G01 X-4.33145 Y-2.57973
G01 X-4.33471 Y-2.57586
G01 X-4.33725 Y-2.57203
G01 X-4.33847 Y-2.56969
G01 X-4.35958 Y-2.56969
G04 P0 ( dwell for no time -- G64 should not smooth over this point )
G00 Z0.08000 ( retract )

G00 X-4.64042 Y-2.56969 ( rapid move to begin. )
G01 F0.50000
( Mill infeed pass 1/1 )
G01 Z-0.04000
G04 P0 ( dwell for no time -- G64 should not smooth over this point )
G01 F1.00000
G01 X-4.64042 Y-2.56969
G01 X-4.66147 Y-2.56969
G01 X-4.66340 Y-2.57311
G01 X-4.66527 Y-2.57584
G01 X-4.66734 Y-2.57841
G01 X-4.66960 Y-2.58081
G04 P0 ( dwell for no time -- G64 should not smooth over this point )
G00 Z0.08000 ( retract )

G00 X-4.64047 Y-2.53031 ( rapid move to begin. )
G01 F0.50000
( Mill infeed pass 1/1 )
G01 Z-0.04000
G04 P0 ( dwell for no time -- G64 should not smooth over this point )
G01 F1.00000
G01 X-4.64047 Y-2.53031
G01 X-4.66147 Y-2.53031
G01 X-4.66329 Y-2.52707
G01 X-4.66508 Y-2.52443
G01 X-4.66732 Y-2.52162
G01 X-4.66952 Y-2.51927

G04 P0 ( dwell for no time -- G64 should not smooth over this point )
G00 Z1.000000 ( retract )

M5 ( Spindle off. )
G04 P1.000000
M9 ( Coolant off. )
M2 ( Program end. )

