( pcb2gcode 2.5.0 )
( Software-independent Gcode )

G94 ( Inches per minute feed rate. )
G20 ( Units == INCHES. )

G90 ( Absolute coordinates. )
G00 S12000 ( RPM spindle speed. )
G64 P0.00040 ( set maximum deviation from commanded toolpath )
G01 F1.00000 ( Feedrate. )


G00 Z1.00000 (Retract to tool change height)
T1
M5      (Spindle stop.)
G04 P1.00000 (Wait for spindle to stop)
(MSG, Change tool bit to mill diameter 0.11811in)
M6      (Tool change.)
M0      (Temporary machine stop.)
M3 ( Spindle on clockwise. )
G04 P1.00000 (Wait for spindle to get up to speed)
G04 P0 ( dwell for no time -- G64 should not smooth over this point )
G00 Z0.08000 ( retract )

G00 X-3.25190 Y-2.84270 ( rapid move to begin. )
G01 F0.50000
( Mill infeed pass 1/1 )
G01 Z-0.04000
G04 P0 ( dwell for no time -- G64 should not smooth over this point )
G01 F1.00000
G01 X-3.25190 Y-2.84270
G01 X-3.24230 Y-2.85234
G01 X-3.24270 Y-2.85189
G01 X-3.24270 Y-2.84270
G01 X-3.25190 Y-2.84270
G01 X-3.25287 Y-2.84230
G04 P0 ( dwell for no time -- G64 should not smooth over this point )
G00 Z0.08000 ( retract )

G00 X-3.32456 Y-3.10345 ( rapid move to begin. )
G01 F0.50000
( Mill infeed pass 1/1 )
G01 Z-0.04000
G04 P0 ( dwell for no time -- G64 should not smooth over this point )
G01 F1.00000
G01 X-3.32456 Y-3.10345
G01 X-3.32456 Y-3.01421
G01 X-3.32766 Y-3.01038
G01 X-3.33077 Y-3.00619
G01 X-3.33281 Y-3.00314
G01 X-3.33690 Y-2.99617
G01 X-3.34087 Y-2.98777
G01 X-3.34379 Y-2.97980
G01 X-3.34599 Y-2.97161
G01 X-3.34749 Y-2.96326
G01 X-3.34809 Y-2.95735
G01 X-3.37090 Y-2.93454
G01 X-3.42599 Y-2.93464
G01 X-3.43240 Y-2.93425
G01 X-3.43598 Y-2.93372
G01 X-3.43990 Y-2.93288
G01 X-3.44338 Y-2.93190
G01 X-3.44679 Y-2.93071
G01 X-3.45085 Y-2.92897
G01 X-3.45442 Y-2.92713
G01 X-3.45849 Y-2.92463
G01 X-3.45847 Y-2.92416
G01 X-3.45849 Y-2.92463
G01 X-3.45884 Y-2.92482
G01 X-3.46584 Y-2.92809
G01 X-3.46966 Y-2.92961
G01 X-3.47397 Y-2.93098
G01 X-3.54626 Y-3.00326
G01 X-3.55133 Y-3.00780
G01 X-3.55658 Y-3.01168
G01 X-3.56211 Y-3.01510
G01 X-3.56608 Y-3.01716
G01 X-3.56944 Y-3.01868
G01 X-3.57667 Y-3.02131
G01 X-3.58411 Y-3.02309
G01 X-3.59178 Y-3.02928
G01 X-3.59536 Y-3.03184
G01 X-3.60362 Y-3.03673
G01 X-3.60825 Y-3.03910
G01 X-3.61639 Y-3.04243
G01 X-3.62054 Y-3.04389
G01 X-3.63023 Y-3.04636
G01 X-3.63495 Y-3.04724
G01 X-3.64619 Y-3.04833
G01 X-3.65555 Y-3.04825
G01 X-3.66117 Y-3.04776
G01 X-3.66468 Y-3.04729
G01 X-3.67288 Y-3.04567
G01 X-3.67670 Y-3.04471
G01 X-3.68474 Y-3.04205
G01 X-3.68999 Y-3.03991
G01 X-3.69407 Y-3.03792
G01 X-3.70008 Y-3.03467
G01 X-3.70360 Y-3.03252
G01 X-3.70892 Y-3.02881
G01 X-3.71415 Y-3.02461
G01 X-3.99581 Y-3.02455
G01 X-4.00326 Y-3.02415
G01 X-4.00885 Y-3.02340
G01 X-4.01516 Y-3.02197
G01 X-4.01984 Y-3.02057
G01 X-4.02517 Y-3.01853
G01 X-4.02924 Y-3.01661
G01 X-4.03495 Y-3.01345
G01 X-4.04002 Y-3.01002
G01 X-4.04387 Y-3.00697
G01 X-4.04852 Y-3.00272
G01 X-4.18777 Y-2.86346
G01 X-4.22526 Y-2.86346
G01 X-4.22566 Y-2.86306
G01 X-4.22526 Y-2.86346
G01 X-4.22523 Y-2.88304
G01 X-4.01182 Y-3.09645
G01 X-3.46527 Y-3.09645
G01 X-3.45964 Y-3.09346
G01 X-3.45473 Y-3.09122
G01 X-3.45090 Y-3.08975
G01 X-3.44297 Y-3.08731
G01 X-3.43681 Y-3.08600
G01 X-3.43330 Y-3.08543
G01 X-3.42700 Y-3.08483
G01 X-3.42331 Y-3.08467
G01 X-3.37558 Y-3.08472
G01 X-3.37038 Y-3.08502
G01 X-3.36230 Y-3.08615
G01 X-3.35437 Y-3.08805
G01 X-3.34904 Y-3.08978
G01 X-3.34149 Y-3.09288
G01 X-3.33392 Y-3.09691
G01 X-3.33084 Y-3.09885
G01 X-3.32596 Y-3.10229
G01 X-3.32461 Y-3.10334
G01 X-3.32416 Y-3.10426
G04 P0 ( dwell for no time -- G64 should not smooth over this point )
G00 Z0.08000 ( retract )

G00 X-3.59279 Y-2.83949 ( rapid move to begin. )
G01 F0.50000
( Mill infeed pass 1/1 )
G01 Z-0.04000
G04 P0 ( dwell for no time -- G64 should not smooth over this point )
G01 F1.00000
G01 X-3.59279 Y-2.83949
G01 X-3.59376 Y-2.83973
G01 X-3.59697 Y-2.83873
G01 X-3.60264 Y-2.83652
G01 X-3.60672 Y-2.83461
G01 X-3.61067 Y-2.83246
G01 X-3.61381 Y-2.83050
G01 X-3.61783 Y-2.82768
G01 X-3.62132 Y-2.82485
G01 X-3.62539 Y-2.82114
G01 X-3.70720 Y-2.73933
G01 X-3.71087 Y-2.74230
G01 X-3.71451 Y-2.74480
G01 X-3.71868 Y-2.74721
G01 X-3.72304 Y-2.74926
G01 X-3.72716 Y-2.75084
G01 X-3.73179 Y-2.75219
G01 X-3.73650 Y-2.75317
G01 X-3.74089 Y-2.75372
G01 X-3.74610 Y-2.75395
G01 X-3.87204 Y-2.75395
G01 X-3.87244 Y-2.75355
G01 X-3.87204 Y-2.75395
G01 X-3.87204 Y-2.81300
G01 X-3.87218 Y-2.81701
G01 X-3.87259 Y-2.82101
G01 X-3.87327 Y-2.82496
G01 X-3.87432 Y-2.82925
G01 X-3.87556 Y-2.83307
G01 X-3.87705 Y-2.83680
G01 X-3.87879 Y-2.84042
G01 X-3.88078 Y-2.84391
G01 X-3.88300 Y-2.84726
G01 X-3.88543 Y-2.85044
G01 X-3.88864 Y-2.85404
G01 X-3.89182 Y-2.85710
G01 X-3.89555 Y-2.86015
G01 X-3.89951 Y-2.86290
G01 X-3.90368 Y-2.86531
G01 X-3.90767 Y-2.86721
G01 X-3.91216 Y-2.86894
G01 X-3.91679 Y-2.87029
G01 X-3.92309 Y-2.87151
G01 X-3.92949 Y-2.87203
G01 X-3.96831 Y-2.87206
G01 X-3.96927 Y-2.87166
G01 X-3.96831 Y-2.87206
G01 X-3.96492 Y-2.87544
G01 X-3.71420 Y-2.87544
G01 X-3.70986 Y-2.87190
G01 X-3.70390 Y-2.86767
G01 X-3.69550 Y-2.86280
G01 X-3.69164 Y-2.86084
G01 X-3.68535 Y-2.85817
G01 X-3.67846 Y-2.85580
G01 X-3.67179 Y-2.85404
G01 X-3.66502 Y-2.85276
G01 X-3.66011 Y-2.85215
G01 X-3.65083 Y-2.85160
G01 X-3.64672 Y-2.85168
G01 X-3.63832 Y-2.85229
G01 X-3.63397 Y-2.85295
G01 X-3.62535 Y-2.85473
G01 X-3.61694 Y-2.85734
G01 X-3.61278 Y-2.85892
G01 X-3.59354 Y-2.83967
G01 X-3.59296 Y-2.83954
G04 P0 ( dwell for no time -- G64 should not smooth over this point )
G00 Z0.08000 ( retract )

G00 X-3.60124 Y-2.63501 ( rapid move to begin. )
G01 F0.50000
( Mill infeed pass 1/1 )
G01 Z-0.04000
G04 P0 ( dwell for no time -- G64 should not smooth over this point )
G01 F1.00000
G01 X-3.60124 Y-2.63501
G01 X-3.60057 Y-2.63509
G01 X-3.59420 Y-2.63105
G01 X-3.59128 Y-2.62894
G01 X-3.58607 Y-2.62480
G01 X-3.31393 Y-2.62480
G01 X-3.30456 Y-2.63189
G01 X-3.29617 Y-2.63690
G01 X-3.29113 Y-2.63939
G01 X-3.28751 Y-2.64094
G01 X-3.27964 Y-2.64381
G01 X-3.27503 Y-2.64515
G01 X-3.26682 Y-2.64692
G01 X-3.26327 Y-2.64751
G01 X-3.25968 Y-2.64788
G01 X-3.25086 Y-2.64839
G01 X-3.24720 Y-2.64835
G01 X-3.23996 Y-2.64789
G01 X-3.23277 Y-2.64687
G01 X-3.22877 Y-2.64608
G01 X-3.22096 Y-2.64402
G01 X-3.21154 Y-2.64057
G01 X-3.20289 Y-2.63639
G01 X-3.19437 Y-2.63117
G01 X-3.18668 Y-2.62532
G01 X-3.17980 Y-2.61896
G01 X-3.17384 Y-2.61231
G01 X-3.16970 Y-2.60685
G01 X-3.16763 Y-2.60383
G01 X-3.16310 Y-2.59617
G01 X-3.15898 Y-2.58739
G01 X-3.15585 Y-2.57863
G01 X-3.15411 Y-2.57202
G01 X-3.15335 Y-2.56850
G01 X-3.15205 Y-2.55939
G01 X-3.15160 Y-2.54934
G01 X-3.15215 Y-2.53964
G01 X-3.15311 Y-2.53286
G01 X-3.15391 Y-2.52887
G01 X-3.15573 Y-2.52176
G01 X-3.15853 Y-2.51371
G01 X-3.16218 Y-2.50561
G01 X-3.16592 Y-2.49890
G01 X-3.16863 Y-2.49471
G01 X-3.17142 Y-2.49078
G01 X-3.17369 Y-2.48790
G01 X-3.17898 Y-2.48188
G01 X-3.18477 Y-2.47633
G01 X-3.19137 Y-2.47099
G01 X-3.19537 Y-2.46818
G01 X-3.20189 Y-2.46416
G01 X-3.20947 Y-2.46033
G01 X-3.21696 Y-2.45732
G01 X-3.22160 Y-2.45581
G01 X-3.22863 Y-2.45395
G01 X-3.23778 Y-2.45236
G01 X-3.24420 Y-2.45178
G01 X-3.24780 Y-2.45162
G01 X-3.25386 Y-2.45167
G01 X-3.25949 Y-2.45207
G01 X-3.26267 Y-2.45242
G01 X-3.26863 Y-2.45338
G01 X-3.27740 Y-2.45549
G01 X-3.28321 Y-2.45737
G01 X-3.28961 Y-2.45992
G01 X-3.29297 Y-2.46151
G01 X-3.29900 Y-2.46473
G01 X-3.30479 Y-2.46829
G01 X-3.31126 Y-2.47304
G01 X-3.31393 Y-2.47519
G01 X-3.58611 Y-2.47519
G01 X-3.59024 Y-2.47184
G01 X-3.59447 Y-2.46877
G01 X-3.59754 Y-2.46676
G01 X-3.60453 Y-2.46273
G01 X-3.61260 Y-2.45898
G01 X-3.62135 Y-2.45586
G01 X-3.62877 Y-2.45392
G01 X-3.63197 Y-2.45327
G01 X-3.63753 Y-2.45242
G01 X-3.64268 Y-2.45188
G01 X-3.74436 Y-2.35021
G01 X-3.74863 Y-2.34639
G01 X-3.75341 Y-2.34267
G01 X-3.75777 Y-2.33981
G01 X-3.76450 Y-2.33619
G01 X-3.76925 Y-2.33410
G01 X-3.77379 Y-2.33256
G01 X-3.78155 Y-2.33046
G01 X-3.78668 Y-2.32962
G01 X-3.79359 Y-2.32902
G01 X-4.15388 Y-2.32895
G01 X-4.15775 Y-2.32910
G01 X-4.16378 Y-2.32966
G01 X-4.16777 Y-2.33033
G01 X-4.17251 Y-2.33142
G01 X-4.17678 Y-2.33268
G01 X-4.18171 Y-2.33452
G01 X-4.18505 Y-2.33595
G01 X-4.18829 Y-2.33758
G01 X-4.19285 Y-2.34020
G01 X-4.19622 Y-2.34240
G01 X-4.19913 Y-2.34458
G01 X-4.20353 Y-2.34823
G01 X-4.30732 Y-2.45188
G01 X-4.31247 Y-2.45242
G01 X-4.31803 Y-2.45327
G01 X-4.32123 Y-2.45392
G01 X-4.32865 Y-2.45586
G01 X-4.33740 Y-2.45898
G01 X-4.34547 Y-2.46273
G01 X-4.35246 Y-2.46676
G01 X-4.35553 Y-2.46877
G01 X-4.35976 Y-2.47184
G01 X-4.36389 Y-2.47519
G01 X-4.63606 Y-2.47519
G01 X-4.63940 Y-2.47254
G01 X-4.64687 Y-2.46717
G01 X-4.65030 Y-2.46511
G01 X-4.65814 Y-2.46095
G01 X-4.66153 Y-2.45944
G01 X-4.66795 Y-2.45696
G01 X-4.67381 Y-2.45514
G01 X-4.68016 Y-2.45362
G01 X-4.68654 Y-2.45253
G01 X-4.69051 Y-2.45207
G01 X-4.69696 Y-2.45164
G01 X-4.70420 Y-2.45169
G01 X-4.71100 Y-2.45222
G01 X-4.71504 Y-2.45277
G01 X-4.72217 Y-2.45412
G01 X-4.72918 Y-2.45603
G01 X-4.73266 Y-2.45718
G01 X-4.73753 Y-2.45906
G01 X-4.74201 Y-2.46102
G01 X-4.74882 Y-2.46456
G01 X-4.75599 Y-2.46908
G01 X-4.76243 Y-2.47395
G01 X-4.76583 Y-2.47688
G01 X-4.77129 Y-2.48217
G01 X-4.77709 Y-2.48884
G01 X-4.78231 Y-2.49608
G01 X-4.78608 Y-2.50238
G01 X-4.78835 Y-2.50671
G01 X-4.79162 Y-2.51409
G01 X-4.79427 Y-2.52176
G01 X-4.79618 Y-2.52926
G01 X-4.79708 Y-2.53407
G01 X-4.79811 Y-2.54248
G01 X-4.79840 Y-2.55021
G01 X-4.79808 Y-2.55792
G01 X-4.79702 Y-2.56633
G01 X-4.79599 Y-2.57153
G01 X-4.79427 Y-2.57823
G01 X-4.79132 Y-2.58667
G01 X-4.78764 Y-2.59476
G01 X-4.78386 Y-2.60146
G01 X-4.77930 Y-2.60823
G01 X-4.77625 Y-2.61218
G01 X-4.77142 Y-2.61770
G01 X-4.76524 Y-2.62367
G01 X-4.75861 Y-2.62904
G01 X-4.75193 Y-2.63357
G01 X-4.74771 Y-2.63604
G01 X-4.74050 Y-2.63967
G01 X-4.73301 Y-2.64270
G01 X-4.72606 Y-2.64488
G01 X-4.72163 Y-2.64597
G01 X-4.71400 Y-2.64740
G01 X-4.70645 Y-2.64819
G01 X-4.69926 Y-2.64840
G01 X-4.69197 Y-2.64808
G01 X-4.68513 Y-2.64727
G01 X-4.67756 Y-2.64581
G01 X-4.67131 Y-2.64411
G01 X-4.66441 Y-2.64173
G01 X-4.66026 Y-2.64000
G01 X-4.65478 Y-2.63740
G01 X-4.64836 Y-2.63376
G01 X-4.64259 Y-2.62992
G01 X-4.63607 Y-2.62480
G01 X-4.36393 Y-2.62480
G01 X-4.36086 Y-2.62729
G01 X-4.35435 Y-2.63203
G01 X-4.35124 Y-2.63396
G01 X-4.34427 Y-2.63788
G01 X-4.34101 Y-2.63941
G01 X-4.33320 Y-2.64263
G01 X-4.32973 Y-2.64377
G01 X-4.32231 Y-2.64584
G01 X-4.31148 Y-2.64773
G01 X-4.30339 Y-2.64832
G01 X-4.29967 Y-2.64840
G01 X-4.29240 Y-2.64808
G01 X-4.28836 Y-2.64771
G01 X-4.28042 Y-2.64641
G01 X-4.27628 Y-2.64549
G01 X-4.12796 Y-2.71966
G01 X-4.12796 Y-2.72022
G01 X-4.12756 Y-2.72083
G01 X-4.12796 Y-2.72020
G01 X-4.13113 Y-2.71894
G01 X-4.13654 Y-2.71720
G01 X-4.14050 Y-2.71618
G01 X-4.14815 Y-2.71487
G01 X-4.15341 Y-2.71446
G01 X-4.15689 Y-2.71435
G01 X-4.65131 Y-2.71438
G01 X-4.65737 Y-2.71477
G01 X-4.66495 Y-2.71594
G01 X-4.67040 Y-2.71731
G01 X-4.67727 Y-2.71965
G01 X-4.68276 Y-2.72214
G01 X-4.68703 Y-2.72441
G01 X-4.69012 Y-2.72627
G01 X-4.69309 Y-2.72832
G01 X-4.69692 Y-2.73129
G01 X-4.70124 Y-2.73505
G01 X-4.82786 Y-2.86165
G01 X-4.83040 Y-2.86440
G01 X-4.83404 Y-2.86877
G01 X-4.83641 Y-2.87201
G01 X-4.83835 Y-2.87505
G01 X-4.84111 Y-2.87996
G01 X-4.84288 Y-2.88356
G01 X-4.84439 Y-2.88727
G01 X-4.84622 Y-2.89261
G01 X-4.84730 Y-2.89647
G01 X-4.84804 Y-2.90000
G01 X-4.84888 Y-2.90559
G01 X-4.84927 Y-2.90962
G01 X-4.84938 Y-2.91326
G01 X-4.84936 Y-2.98837
G01 X-4.84911 Y-2.99243
G01 X-4.84839 Y-2.99805
G01 X-4.84765 Y-3.00200
G01 X-4.84664 Y-3.00589
G01 X-4.84507 Y-3.01090
G01 X-4.84365 Y-3.01464
G01 X-4.84198 Y-3.01829
G01 X-4.83935 Y-3.02327
G01 X-4.83749 Y-3.02637
G01 X-4.83544 Y-3.02934
G01 X-4.83170 Y-3.03411
G01 X-4.82927 Y-3.03688
G01 X-4.64196 Y-3.22425
G01 X-4.63759 Y-3.22822
G01 X-4.63411 Y-3.23101
G01 X-4.62874 Y-3.23463
G01 X-4.62527 Y-3.23668
G01 X-4.62130 Y-3.23866
G01 X-4.61497 Y-3.24133
G01 X-4.60799 Y-3.24344
G01 X-4.60757 Y-3.24314
G01 X-4.60799 Y-3.24344
G01 X-4.60818 Y-3.24629
G01 X-4.60813 Y-3.25484
G01 X-4.60741 Y-3.26214
G01 X-4.60632 Y-3.26816
G01 X-4.60517 Y-3.27290
G01 X-4.60294 Y-3.27989
G01 X-4.59994 Y-3.28702
G01 X-4.59877 Y-3.28938
G01 X-4.59832 Y-3.28939
G01 X-4.59883 Y-3.28949
G01 X-4.60094 Y-3.29390
G01 X-4.60350 Y-3.30049
G01 X-4.60488 Y-3.30476
G01 X-4.60714 Y-3.31484
G01 X-4.60763 Y-3.31848
G01 X-4.60816 Y-3.32471
G01 X-4.60825 Y-3.32920
G01 X-4.60799 Y-3.33503
G01 X-4.60730 Y-3.34152
G01 X-4.60540 Y-3.35085
G01 X-4.60245 Y-3.35989
G01 X-4.60074 Y-3.36404
G01 X-4.59777 Y-3.37000
G01 X-4.59598 Y-3.37321
G01 X-4.59399 Y-3.37629
G01 X-4.59064 Y-3.38109
G01 X-4.58809 Y-3.38429
G01 X-4.58391 Y-3.38896
G01 X-4.57958 Y-3.39312
G01 X-4.57658 Y-3.39569
G01 X-4.57195 Y-3.39925
G01 X-4.56692 Y-3.40257
G01 X-4.56413 Y-3.40422
G01 X-4.55942 Y-3.40668
G01 X-4.55610 Y-3.40820
G01 X-4.55087 Y-3.41028
G01 X-4.54568 Y-3.41193
G01 X-4.54149 Y-3.41305
G01 X-4.53517 Y-3.41429
G01 X-4.53120 Y-3.41478
G01 X-4.52416 Y-3.41531
G01 X-4.47795 Y-3.41535
G01 X-4.47060 Y-3.41499
G01 X-4.46623 Y-3.41450
G01 X-4.45975 Y-3.41332
G01 X-4.45577 Y-3.41235
G01 X-4.45081 Y-3.41084
G01 X-4.44658 Y-3.40931
G01 X-4.44126 Y-3.40698
G01 X-4.43803 Y-3.40540
G01 X-4.43477 Y-3.40354
G01 X-4.17588 Y-3.40348
G01 X-4.16819 Y-3.40280
G01 X-4.16140 Y-3.40149
G01 X-4.15757 Y-3.40049
G01 X-4.15342 Y-3.39912
G01 X-4.15010 Y-3.39784
G01 X-4.14686 Y-3.39638
G01 X-4.13755 Y-3.39565
G01 X-4.12884 Y-3.39408
G01 X-4.12414 Y-3.39291
G01 X-4.11765 Y-3.39083
G01 X-4.11685 Y-3.39056
G01 X-4.11681 Y-3.39012
G01 X-4.11685 Y-3.39056
G01 X-4.11302 Y-3.39258
G01 X-4.10935 Y-3.39419
G01 X-4.10557 Y-3.39556
G01 X-4.09897 Y-3.39728
G01 X-4.09541 Y-3.39788
G01 X-4.09181 Y-3.39826
G01 X-4.08740 Y-3.39843
G01 X-4.01260 Y-3.39843
G01 X-4.00899 Y-3.39831
G01 X-4.00261 Y-3.39757
G01 X-3.99635 Y-3.39614
G01 X-3.99028 Y-3.39404
G01 X-3.98447 Y-3.39130
G01 X-3.97900 Y-3.38794
G01 X-3.97392 Y-3.38400
G01 X-3.96931 Y-3.37954
G01 X-3.96517 Y-3.37455
G01 X-3.93483 Y-3.37455
G01 X-3.93229 Y-3.37774
G01 X-3.92930 Y-3.38099
G01 X-3.92607 Y-3.38400
G01 X-3.92273 Y-3.38669
G01 X-3.92021 Y-3.39536
G01 X-3.91895 Y-3.39873
G01 X-3.91731 Y-3.40237
G01 X-3.91469 Y-3.40737
G01 X-3.91285 Y-3.41047
G01 X-3.91059 Y-3.41378
G01 X-3.90762 Y-3.41760
G01 X-3.90325 Y-3.42255
G01 X-3.87249 Y-3.45323
G01 X-3.86826 Y-3.45691
G01 X-3.86273 Y-3.46095
G01 X-3.85861 Y-3.46349
G01 X-3.85286 Y-3.46645
G01 X-3.84803 Y-3.46849
G01 X-3.84190 Y-3.47051
G01 X-3.83720 Y-3.47169
G01 X-3.83202 Y-3.47258
G01 X-3.82722 Y-3.47314
G01 X-3.82279 Y-3.47331
G01 X-3.34891 Y-3.47335
G01 X-3.34434 Y-3.47314
G01 X-3.33671 Y-3.47228
G01 X-3.33199 Y-3.47128
G01 X-3.32540 Y-3.46941
G01 X-3.31943 Y-3.46704
G01 X-3.31504 Y-3.46498
G01 X-3.31151 Y-3.46305
G01 X-3.30417 Y-3.45811
G01 X-3.29897 Y-3.45373
G01 X-3.11544 Y-3.27035
G01 X-3.11305 Y-3.26781
G01 X-3.10937 Y-3.26349
G01 X-3.10721 Y-3.26054
G01 X-3.10431 Y-3.25612
G01 X-3.10231 Y-3.25258
G01 X-3.09999 Y-3.24782
G01 X-3.09858 Y-3.24442
G01 X-3.09722 Y-3.24058
G01 X-3.09588 Y-3.23589
G01 X-3.09449 Y-3.22914
G01 X-3.09394 Y-3.22472
G01 X-3.09360 Y-3.21840
G01 X-3.09359 Y-2.81071
G01 X-3.09384 Y-2.80536
G01 X-3.09474 Y-2.79774
G01 X-3.09583 Y-2.79265
G01 X-3.09766 Y-2.78645
G01 X-3.09988 Y-2.78080
G01 X-3.10160 Y-2.77712
G01 X-3.10332 Y-2.77389
G01 X-3.10748 Y-2.76738
G01 X-3.11204 Y-2.76164
G01 X-3.11514 Y-2.75829
G01 X-3.15828 Y-2.71514
G01 X-3.16104 Y-2.71259
G01 X-3.16542 Y-2.70896
G01 X-3.16833 Y-2.70681
G01 X-3.17171 Y-2.70464
G01 X-3.17627 Y-2.70204
G01 X-3.17990 Y-2.70026
G01 X-3.18552 Y-2.69801
G01 X-3.18934 Y-2.69672
G01 X-3.19364 Y-2.69561
G01 X-3.19999 Y-2.69437
G01 X-3.20402 Y-2.69391
G01 X-3.20994 Y-2.69360
G01 X-3.54208 Y-2.69359
G01 X-3.60065 Y-2.63508
G01 X-3.60129 Y-2.63500
G04 P0 ( dwell for no time -- G64 should not smooth over this point )
G00 Z0.08000 ( retract )

G00 X-3.80642 Y-2.49844 ( rapid move to begin. )
G01 F0.50000
( Mill infeed pass 1/1 )
G01 Z-0.04000
G04 P0 ( dwell for no time -- G64 should not smooth over this point )
G01 F1.00000
G01 X-3.80642 Y-2.49844
G01 X-3.80739 Y-2.49804
G01 X-3.82738 Y-2.47805
G01 X-3.85751 Y-2.47805
G01 X-3.85848 Y-2.47765
G01 X-3.85751 Y-2.47805
G01 X-3.83752 Y-2.49804
G01 X-3.80739 Y-2.49804
G04 P0 ( dwell for no time -- G64 should not smooth over this point )
G00 Z0.08000 ( retract )

G00 X-4.12755 Y-2.48243 ( rapid move to begin. )
G01 F0.50000
( Mill infeed pass 1/1 )
G01 Z-0.04000
G04 P0 ( dwell for no time -- G64 should not smooth over this point )
G01 F1.00000
G01 X-4.12755 Y-2.48243
G01 X-4.12795 Y-2.48339
G01 X-4.12795 Y-2.55239
G01 X-4.12755 Y-2.55303
G01 X-4.12795 Y-2.55239
G01 X-4.17395 Y-2.52939
G01 X-4.12795 Y-2.48339
G04 P0 ( dwell for no time -- G64 should not smooth over this point )
G00 Z0.08000 ( retract )

G00 X-4.42256 Y-2.92907 ( rapid move to begin. )
G01 F0.50000
( Mill infeed pass 1/1 )
G01 Z-0.04000
G04 P0 ( dwell for no time -- G64 should not smooth over this point )
G01 F1.00000
G01 X-4.42256 Y-2.92907
G01 X-4.42180 Y-2.92922
G01 X-4.41978 Y-2.92845
G01 X-4.41199 Y-2.92481
G01 X-4.39512 Y-2.92481
G01 X-4.39706 Y-2.93398
G01 X-4.39780 Y-2.93921
G01 X-4.39838 Y-2.94833
G01 X-4.39830 Y-2.95286
G01 X-4.39787 Y-2.95385
G01 X-4.39830 Y-2.95286
G01 X-4.42197 Y-2.92919
G01 X-4.42268 Y-2.92904
G04 P0 ( dwell for no time -- G64 should not smooth over this point )
G00 Z0.08000 ( retract )

G00 X-4.63374 Y-3.02216 ( rapid move to begin. )
G01 F0.50000
( Mill infeed pass 1/1 )
G01 Z-0.04000
G04 P0 ( dwell for no time -- G64 should not smooth over this point )
G01 F1.00000
G01 X-4.63374 Y-3.02216
G01 X-4.63317 Y-3.02217
G01 X-4.56114 Y-3.09420
G01 X-4.55576 Y-3.09167
G01 X-4.55096 Y-3.08976
G01 X-4.54789 Y-3.08872
G01 X-4.54013 Y-3.08664
G01 X-4.53217 Y-3.08529
G01 X-4.52855 Y-3.08494
G01 X-4.52207 Y-3.08465
G01 X-4.48984 Y-3.08465
G01 X-4.48944 Y-3.08505
G01 X-4.48984 Y-3.08465
G01 X-4.48984 Y-3.07218
G01 X-4.60210 Y-2.95993
G01 X-4.60340 Y-2.96874
G01 X-4.60550 Y-2.97744
G01 X-4.60838 Y-2.98591
G01 X-4.61218 Y-2.99439
G01 X-4.61678 Y-3.00252
G01 X-4.62191 Y-3.00987
G01 X-4.62816 Y-3.01724
G01 X-4.63317 Y-3.02217
G04 P0 ( dwell for no time -- G64 should not smooth over this point )
G00 Z0.08000 ( retract )

G00 X-4.34171 Y-3.25428 ( rapid move to begin. )
G01 F0.50000
( Mill infeed pass 1/1 )
G01 Z-0.04000
G04 P0 ( dwell for no time -- G64 should not smooth over this point )
G01 F1.00000
G01 X-4.34171 Y-3.25428
G01 X-4.34124 Y-3.25387
G01 X-4.23467 Y-3.25382
G01 X-4.22937 Y-3.24519
G01 X-4.22399 Y-3.23817
G01 X-4.22020 Y-3.23388
G01 X-4.21356 Y-3.22744
G01 X-4.20631 Y-3.22171
G01 X-4.20127 Y-3.21834
G01 X-4.19354 Y-3.21394
G01 X-4.18390 Y-3.20970
G01 X-4.17543 Y-3.20697
G01 X-4.16986 Y-3.20565
G01 X-4.16149 Y-3.20423
G01 X-4.15188 Y-3.20357
G01 X-4.14832 Y-3.20358
G01 X-4.14190 Y-3.20388
G01 X-4.13273 Y-3.20510
G01 X-4.12920 Y-3.20585
G01 X-4.12222 Y-3.20763
G01 X-4.11686 Y-3.20946
G01 X-4.11682 Y-3.20989
G01 X-4.11686 Y-3.20946
G01 X-4.11290 Y-3.20736
G01 X-4.11168 Y-3.20761
G01 X-4.11239 Y-3.20747
G01 X-4.27480 Y-3.04505
G01 X-4.28187 Y-3.04671
G01 X-4.29105 Y-3.04800
G01 X-4.30070 Y-3.04838
G01 X-4.30670 Y-3.04814
G01 X-4.31584 Y-3.04712
G01 X-4.32603 Y-3.04489
G01 X-4.32953 Y-3.04385
G01 X-4.33674 Y-3.04129
G01 X-4.34076 Y-3.03952
G01 X-4.34119 Y-3.03887
G01 X-4.34076 Y-3.03952
G01 X-4.34073 Y-3.04130
G01 X-4.34073 Y-3.24550
G01 X-4.34083 Y-3.24898
G01 X-4.34122 Y-3.25385
G01 X-4.34166 Y-3.25423
G04 P0 ( dwell for no time -- G64 should not smooth over this point )
G00 Z0.08000 ( retract )

G00 X-3.67084 Y-3.24566 ( rapid move to begin. )
G01 F0.50000
( Mill infeed pass 1/1 )
G01 Z-0.04000
G04 P0 ( dwell for no time -- G64 should not smooth over this point )
G01 F1.00000
G01 X-3.67084 Y-3.24566
G01 X-3.67008 Y-3.24606
G01 X-3.66716 Y-3.25060
G01 X-3.65803 Y-3.25393
G01 X-3.50816 Y-3.25393
G01 X-3.50773 Y-3.25433
G01 X-3.50816 Y-3.25393
G01 X-3.50827 Y-3.24958
G01 X-3.50815 Y-3.24606
G01 X-3.50773 Y-3.24566
G01 X-3.50815 Y-3.24606
G01 X-3.67008 Y-3.24606

G00 Z1.00000 (Retract to tool change height)
T2
M5      (Spindle stop.)
G04 P1.00000 (Wait for spindle to stop)
(MSG, Change tool bit to mill diameter 0.00787in)
M6      (Tool change.)
M0      (Temporary machine stop.)
M3 ( Spindle on clockwise. )
G04 P1.00000 (Wait for spindle to get up to speed)
G04 P0 ( dwell for no time -- G64 should not smooth over this point )
G00 Z0.08000 ( retract )

G00 X-3.28124 Y-2.57993 ( rapid move to begin. )
G01 F0.50000
( Mill infeed pass 1/1 )
G01 Z-0.04000
G04 P0 ( dwell for no time -- G64 should not smooth over this point )
G01 F1.00000
G01 X-3.28124 Y-2.57993
G01 X-3.28324 Y-2.57772
G01 X-3.28654 Y-2.57320
G01 X-3.28853 Y-2.56969
G01 X-3.30728 Y-2.56969
G04 P0 ( dwell for no time -- G64 should not smooth over this point )
G00 Z0.08000 ( retract )

G00 X-3.28124 Y-2.52006 ( rapid move to begin. )
G01 F0.50000
( Mill infeed pass 1/1 )
G01 Z-0.04000
G04 P0 ( dwell for no time -- G64 should not smooth over this point )
G01 F1.00000
G01 X-3.28124 Y-2.52006
G01 X-3.28480 Y-2.52426
G01 X-3.28677 Y-2.52716
G01 X-3.28853 Y-2.53031
G01 X-3.30729 Y-2.53031
G04 P0 ( dwell for no time -- G64 should not smooth over this point )
G00 Z0.08000 ( retract )

G00 X-3.59275 Y-2.53031 ( rapid move to begin. )
G01 F0.50000
( Mill infeed pass 1/1 )
G01 Z-0.04000
G04 P0 ( dwell for no time -- G64 should not smooth over this point )
G01 F1.00000
G01 X-3.59275 Y-2.53031
G01 X-3.61150 Y-2.53031
G01 X-3.61228 Y-2.52877
G01 X-3.61439 Y-2.52540
G01 X-3.61681 Y-2.52222
G01 X-3.61873 Y-2.52012
G04 P0 ( dwell for no time -- G64 should not smooth over this point )
G00 Z0.08000 ( retract )

G00 X-3.65108 Y-2.50676 ( rapid move to begin. )
G01 F0.50000
( Mill infeed pass 1/1 )
G01 Z-0.04000
G04 P0 ( dwell for no time -- G64 should not smooth over this point )
G01 F1.00000
G01 X-3.65108 Y-2.50676
G01 X-3.65394 Y-2.50690
G01 X-3.65790 Y-2.50744
G01 X-3.66177 Y-2.50835
G01 X-3.66357 Y-2.50894
G01 X-3.67696 Y-2.49555
G04 P0 ( dwell for no time -- G64 should not smooth over this point )
G00 Z0.08000 ( retract )

G00 X-3.59272 Y-2.56969 ( rapid move to begin. )
G01 F0.50000
( Mill infeed pass 1/1 )
G01 Z-0.04000
G04 P0 ( dwell for no time -- G64 should not smooth over this point )
G01 F1.00000
G01 X-3.59272 Y-2.56969
G01 X-3.61147 Y-2.56969
G01 X-3.61346 Y-2.57320
G01 X-3.61521 Y-2.57576
G01 X-3.61877 Y-2.57994
G01 X-3.54873 Y-2.74871
G01 X-3.56490 Y-2.74871
G01 X-3.70307 Y-2.61074
G01 X-3.70521 Y-2.60928
G01 X-3.70795 Y-2.60793
G01 X-3.71087 Y-2.60704
G01 X-3.71327 Y-2.60666
G01 X-3.74216 Y-2.60657
G01 X-3.74216 Y-2.55710
G01 X-3.74235 Y-2.55588
G01 X-3.74269 Y-2.55513
G01 X-3.74317 Y-2.55446
G01 X-3.74413 Y-2.55369
G01 X-3.74488 Y-2.55335
G01 X-3.74610 Y-2.55316
G01 X-3.86035 Y-2.55316
G01 X-3.91965 Y-2.49387
G01 X-3.92235 Y-2.49172
G01 X-3.92446 Y-2.49050
G01 X-3.92716 Y-2.48941
G01 X-3.92716 Y-2.43900
G01 X-3.92735 Y-2.43778
G01 X-3.92769 Y-2.43703
G01 X-3.92817 Y-2.43636
G01 X-3.92913 Y-2.43559
G01 X-3.92988 Y-2.43526
G01 X-3.93110 Y-2.43506
G01 X-4.06890 Y-2.43506
G01 X-4.07012 Y-2.43526
G01 X-4.07087 Y-2.43559
G01 X-4.07182 Y-2.43636
G01 X-4.07231 Y-2.43703
G01 X-4.07264 Y-2.43778
G01 X-4.07284 Y-2.43900
G01 X-4.07284 Y-2.57680
G01 X-4.07250 Y-2.57840
G01 X-4.07209 Y-2.57911
G01 X-4.07121 Y-2.57999
G01 X-4.07012 Y-2.58054
G01 X-4.06890 Y-2.58074
G01 X-3.93110 Y-2.58074
G01 X-3.92988 Y-2.58054
G01 X-3.92878 Y-2.57999
G01 X-3.92791 Y-2.57911
G01 X-3.92735 Y-2.57802
G01 X-3.92718 Y-2.57721
G01 X-3.92716 Y-2.54133
G01 X-3.88784 Y-2.58065
G01 X-3.88784 Y-2.69490
G01 X-3.88764 Y-2.69612
G01 X-3.88731 Y-2.69687
G01 X-3.88621 Y-2.69808
G01 X-3.88472 Y-2.69875
G01 X-3.88183 Y-2.69884
G01 X-3.92716 Y-2.74417
G01 X-3.92716 Y-2.67520
G01 X-3.92735 Y-2.67398
G01 X-3.92769 Y-2.67323
G01 X-3.92847 Y-2.67227
G01 X-3.92913 Y-2.67179
G01 X-3.92988 Y-2.67145
G01 X-3.93110 Y-2.67126
G01 X-4.01345 Y-2.67126
G01 X-4.14363 Y-2.60617
G01 X-4.15960 Y-2.43709
G01 X-4.14545 Y-2.42294
G01 X-3.80455 Y-2.42294
G01 X-3.69105 Y-2.53644
G01 X-3.69172 Y-2.53848
G01 X-3.69267 Y-2.54277
G01 X-3.69324 Y-2.54800
G01 X-3.69322 Y-2.55238
G01 X-3.69287 Y-2.55596
G01 X-3.69224 Y-2.55944
G01 X-3.69109 Y-2.56359
G01 X-3.68968 Y-2.56729
G01 X-3.68811 Y-2.57052
G01 X-3.68630 Y-2.57357
G01 X-3.68401 Y-2.57677
G01 X-3.68117 Y-2.58003
G01 X-3.67857 Y-2.58251
G01 X-3.67548 Y-2.58499
G01 X-3.67187 Y-2.58735
G01 X-3.66838 Y-2.58919
G01 X-3.66512 Y-2.59056
G01 X-3.66135 Y-2.59177
G01 X-3.65784 Y-2.59257
G01 X-3.65358 Y-2.59314
G01 X-3.65006 Y-2.59328
G01 X-3.64654 Y-2.59314
G01 X-3.64337 Y-2.59277
G01 X-3.64032 Y-2.59219
G01 X-3.63694 Y-2.59127
G01 X-3.63409 Y-2.59025
G04 P0 ( dwell for no time -- G64 should not smooth over this point )
G00 Z0.08000 ( retract )

G00 X-3.74249 Y-2.69648 ( rapid move to begin. )
G01 F0.50000
( Mill infeed pass 1/1 )
G01 Z-0.04000
G04 P0 ( dwell for no time -- G64 should not smooth over this point )
G01 F1.00000
G01 X-3.74249 Y-2.69648
G01 X-3.74216 Y-2.69490
G01 X-3.74216 Y-2.64544
G01 X-3.72315 Y-2.64544
G01 X-3.67293 Y-2.69565
G01 X-3.62963 Y-2.91181
G01 X-3.57345 Y-2.78756
G01 X-3.62963 Y-2.91181
G01 X-3.62670 Y-2.91352
G01 X-3.62346 Y-2.91580
G01 X-3.62072 Y-2.91813
G01 X-3.61821 Y-2.92063
G01 X-3.61572 Y-2.92358
G01 X-3.61364 Y-2.92652
G01 X-3.61135 Y-2.93056
G01 X-3.60648 Y-2.93056
G01 X-3.52783 Y-2.85192
G01 X-3.52794 Y-2.84975
G01 X-3.52774 Y-2.84655
G01 X-3.52695 Y-2.84241
G01 X-3.52581 Y-2.83899
G01 X-3.52421 Y-2.83562
G01 X-3.52195 Y-2.83217
G01 X-3.51921 Y-2.82904
G01 X-3.51606 Y-2.82632
G01 X-3.51373 Y-2.82475
G01 X-3.51126 Y-2.82342
G01 X-3.50790 Y-2.82204
G01 X-3.50520 Y-2.82127
G01 X-3.50205 Y-2.82070
G01 X-3.49925 Y-2.82049
G01 X-3.49645 Y-2.82054
G01 X-3.49281 Y-2.82102
G01 X-3.48967 Y-2.82180
G01 X-3.48703 Y-2.82276
G01 X-3.48450 Y-2.82397
G01 X-3.48176 Y-2.82563
G01 X-3.47919 Y-2.82760
G01 X-3.47715 Y-2.82953
G01 X-3.47506 Y-2.83196
G01 X-3.47320 Y-2.83468
G01 X-3.47111 Y-2.83880
G01 X-3.46970 Y-2.84323
G01 X-3.46896 Y-2.84823
G01 X-3.46904 Y-2.85285
G01 X-3.46970 Y-2.85680
G01 X-3.47111 Y-2.86120
G01 X-3.47336 Y-2.86560
G01 X-3.47656 Y-2.86984
G01 X-3.47990 Y-2.87295
G01 X-3.42929 Y-2.87693
G04 P0 ( dwell for no time -- G64 should not smooth over this point )
G00 Z0.08000 ( retract )

G00 X-3.37253 Y-2.87905 ( rapid move to begin. )
G01 F0.50000
( Mill infeed pass 1/1 )
G01 Z-0.04000
G04 P0 ( dwell for no time -- G64 should not smooth over this point )
G01 F1.00000
G01 X-3.37253 Y-2.87905
G01 X-3.37122 Y-2.87790
G01 X-3.37056 Y-2.87641
G01 X-3.37047 Y-2.86944
G01 X-3.35805 Y-2.86944
G01 X-3.29106 Y-2.93643
G01 X-3.29160 Y-2.93804
G01 X-3.29259 Y-2.94232
G01 X-3.29312 Y-2.94628
G01 X-3.29323 Y-2.94881
G01 X-3.50825 Y-2.88731
G01 X-3.50036 Y-2.87942
G01 X-3.49876 Y-2.87952
G01 X-3.49555 Y-2.87938
G01 X-3.49374 Y-2.87910
G01 X-3.49555 Y-2.87938
G01 X-3.49876 Y-2.87952
G01 X-3.50036 Y-2.87942
G01 X-3.50825 Y-2.88731
G01 X-3.42929 Y-2.87693
G01 X-3.42953 Y-2.87559
G01 X-3.42953 Y-2.82441
G01 X-3.42919 Y-2.82281
G01 X-3.42852 Y-2.82178
G01 X-3.42719 Y-2.82081
G01 X-3.42559 Y-2.82047
G01 X-3.37400 Y-2.82049
G01 X-3.37281 Y-2.82081
G01 X-3.37177 Y-2.82148
G01 X-3.37100 Y-2.82244
G01 X-3.37066 Y-2.82319
G01 X-3.37047 Y-2.82441
G01 X-3.37047 Y-2.83058
G01 X-3.34804 Y-2.83066
G01 X-3.34571 Y-2.83105
G01 X-3.34285 Y-2.83194
G01 X-3.34002 Y-2.83333
G01 X-3.33746 Y-2.83517
G01 X-3.29817 Y-2.87439
G01 X-3.24031 Y-2.90782
G01 X-3.23656 Y-2.90885
G01 X-3.23284 Y-2.91026
G01 X-3.22857 Y-2.91240
G01 X-3.22519 Y-2.91453
G01 X-3.22203 Y-2.91696
G01 X-3.21856 Y-2.92025
G01 X-3.21572 Y-2.92358
G01 X-3.21345 Y-2.92682
G01 X-3.21147 Y-2.93027
G01 X-3.20968 Y-2.93427
G01 X-3.20840 Y-2.93804
G01 X-3.20740 Y-2.94232
G01 X-3.20684 Y-2.94666
G01 X-3.20672 Y-2.95064
G01 X-3.20701 Y-2.95501
G01 X-3.20765 Y-2.95894
G01 X-3.20865 Y-2.96281
G01 X-3.21015 Y-2.96690
G01 X-3.21188 Y-2.97051
G01 X-3.21393 Y-2.97392
G01 X-3.21677 Y-2.97774
G01 X-3.21919 Y-2.98040
G01 X-3.22210 Y-2.98309
G01 X-3.22590 Y-2.98595
G01 X-3.22897 Y-2.98783
G01 X-3.23056 Y-2.98863
G01 X-3.23056 Y-3.18021
G01 X-3.23078 Y-3.18305
G01 X-3.23137 Y-3.18576
G01 X-3.23283 Y-3.18931
G01 X-3.23447 Y-3.19188
G01 X-3.23626 Y-3.19396
G01 X-3.30633 Y-3.26403
G01 X-3.30857 Y-3.26587
G01 X-3.31074 Y-3.26720
G01 X-3.31311 Y-3.26824
G01 X-3.31545 Y-3.26894
G01 X-3.31979 Y-3.26944
G01 X-3.35361 Y-3.26944
G01 X-3.35460 Y-3.27068
G01 X-3.35710 Y-3.27324
G01 X-3.35986 Y-3.27549
G01 X-3.36266 Y-3.27731
G01 X-3.36546 Y-3.27873
G01 X-3.36857 Y-3.27994
G01 X-3.37179 Y-3.28080
G01 X-3.37531 Y-3.28134
G01 X-3.37835 Y-3.28150
G01 X-3.42298 Y-3.28146
G01 X-3.42578 Y-3.28122
G01 X-3.42821 Y-3.28080
G01 X-3.43094 Y-3.28009
G01 X-3.43336 Y-3.27923
G01 X-3.43591 Y-3.27808
G01 X-3.43816 Y-3.27682
G01 X-3.44048 Y-3.27525
G01 X-3.44248 Y-3.27363
G01 X-3.44433 Y-3.27186
G01 X-3.44618 Y-3.26976
G01 X-3.44784 Y-3.26749
G01 X-3.44918 Y-3.26529
G01 X-3.45033 Y-3.26301
G01 X-3.45138 Y-3.26041
G01 X-3.45231 Y-3.25720
G01 X-3.49834 Y-3.30905
G04 P0 ( dwell for no time -- G64 should not smooth over this point )
G00 Z0.08000 ( retract )

G00 X-3.45863 Y-3.15157 ( rapid move to begin. )
G01 F0.50000
( Mill infeed pass 1/1 )
G01 Z-0.04000
G04 P0 ( dwell for no time -- G64 should not smooth over this point )
G01 F1.00000
G01 X-3.45863 Y-3.15157
G01 X-3.44618 Y-3.15157
G01 X-3.44507 Y-3.15020
G01 X-3.44286 Y-3.14798
G01 X-3.44072 Y-3.14625
G01 X-3.61834 Y-2.97938
G01 X-3.61648 Y-2.97738
G01 X-3.61323 Y-2.97282
G01 X-3.61133 Y-2.96942
G01 X-3.59808 Y-2.96936
G04 P0 ( dwell for no time -- G64 should not smooth over this point )
G00 Z0.08000 ( retract )

G00 X-3.68131 Y-2.97985 ( rapid move to begin. )
G01 F0.50000
( Mill infeed pass 1/1 )
G01 Z-0.04000
G04 P0 ( dwell for no time -- G64 should not smooth over this point )
G01 F1.00000
G01 X-3.68131 Y-2.97985
G01 X-3.68324 Y-2.97772
G01 X-3.68654 Y-2.97320
G01 X-3.68863 Y-2.96950
G01 X-3.70749 Y-2.96950
G04 P0 ( dwell for no time -- G64 should not smooth over this point )
G00 Z0.08000 ( retract )

G00 X-3.68105 Y-2.91998 ( rapid move to begin. )
G01 F0.50000
( Mill infeed pass 1/1 )
G01 Z-0.04000
G04 P0 ( dwell for no time -- G64 should not smooth over this point )
G01 F1.00000
G01 X-3.68105 Y-2.91998
G01 X-3.68352 Y-2.92262
G01 X-3.68677 Y-2.92718
G01 X-3.68866 Y-2.93056
G01 X-3.70755 Y-2.93056
G01 X-3.57345 Y-2.78756
G01 X-3.21876 Y-2.78759
G01 X-3.18759 Y-2.81876
G01 X-3.18759 Y-3.20957
G01 X-3.35738 Y-3.37936
G01 X-3.81352 Y-3.37936
G01 X-3.83056 Y-3.36232
G01 X-3.83056 Y-3.34331
G01 X-3.81219 Y-3.34328
G01 X-3.81100 Y-3.34297
G01 X-3.80996 Y-3.34230
G01 X-3.80919 Y-3.34134
G01 X-3.80875 Y-3.34019
G01 X-3.80866 Y-3.26063
G01 X-3.80900 Y-3.25903
G01 X-3.80967 Y-3.25800
G01 X-3.81100 Y-3.25703
G01 X-3.81260 Y-3.25669
G01 X-3.88740 Y-3.25669
G01 X-3.88862 Y-3.25689
G01 X-3.88971 Y-3.25744
G01 X-3.89033 Y-3.25800
G01 X-3.89100 Y-3.25903
G01 X-3.89132 Y-3.26022
G01 X-3.89134 Y-3.28056
G01 X-4.00866 Y-3.28056
G01 X-4.00868 Y-3.26022
G01 X-4.00900 Y-3.25903
G01 X-4.00967 Y-3.25800
G01 X-4.01100 Y-3.25703
G01 X-4.01219 Y-3.25671
G01 X-4.08652 Y-3.25669
G01 X-4.13010 Y-3.26380
G01 X-4.09100 Y-3.25903
G01 X-4.09134 Y-3.26063
G01 X-4.09134 Y-3.33937
G01 X-4.09100 Y-3.34097
G01 X-4.16733 Y-3.34477
G01 X-4.16510 Y-3.34294
G01 X-4.16173 Y-3.33957
G01 X-4.15931 Y-3.34027
G01 X-4.15498 Y-3.34103
G01 X-4.15282 Y-3.34118
G04 P0 ( dwell for no time -- G64 should not smooth over this point )
G00 Z0.08000 ( retract )

G00 X-4.13008 Y-3.33621 ( rapid move to begin. )
G01 F0.50000
( Mill infeed pass 1/1 )
G01 Z-0.04000
G04 P0 ( dwell for no time -- G64 should not smooth over this point )
G01 F1.00000
G01 X-4.13008 Y-3.33621
G01 X-4.12642 Y-3.33394
G01 X-4.12259 Y-3.33094
G01 X-4.11915 Y-3.32750
G01 X-4.11613 Y-3.32369
G01 X-4.11339 Y-3.31917
G01 X-4.11121 Y-3.31429
G01 X-4.10980 Y-3.30963
G01 X-4.10895 Y-3.30482
G01 X-4.10867 Y-3.29959
G01 X-4.10890 Y-3.29562
G01 X-4.10944 Y-3.29205
G01 X-4.11050 Y-3.28783
G01 X-4.11185 Y-3.28408
G01 X-4.11356 Y-3.28049
G01 X-4.11540 Y-3.27739
G01 X-4.11799 Y-3.27386
G01 X-4.12094 Y-3.27060
G01 X-4.12362 Y-3.26818
G01 X-4.12680 Y-3.26579
G01 X-4.13010 Y-3.26380
G01 X-4.08652 Y-3.25669
G01 X-4.06634 Y-3.17556
G01 X-4.05672 Y-3.18518
G01 X-4.05499 Y-3.18671
G01 X-4.05326 Y-3.18793
G01 X-4.05057 Y-3.18934
G01 X-4.04815 Y-3.19020
G01 X-4.04558 Y-3.19074
G01 X-4.04280 Y-3.19095
G01 X-3.44619 Y-3.19095
G01 X-3.44321 Y-3.19422
G01 X-3.44087 Y-3.19621
G01 X-3.43835 Y-3.19796
G01 X-3.43567 Y-3.19946
G01 X-3.43286 Y-3.20069
G01 X-3.43031 Y-3.20154
G01 X-3.42732 Y-3.20224
G01 X-3.42199 Y-3.20275
G01 X-3.37811 Y-3.20275
G01 X-3.37426 Y-3.20248
G01 X-3.37025 Y-3.20169
G01 X-3.36638 Y-3.20039
G01 X-3.36292 Y-3.19871
G01 X-3.35949 Y-3.19648
G01 X-3.35639 Y-3.19383
G01 X-3.35380 Y-3.19098
G01 X-3.35171 Y-3.18806
G01 X-3.35000 Y-3.18499
G01 X-3.34880 Y-3.18215
G01 X-3.34792 Y-3.17937
G01 X-3.34727 Y-3.17636
G01 X-3.34690 Y-3.17292
G01 X-3.34688 Y-3.16985
G01 X-3.34712 Y-3.16717
G01 X-3.34775 Y-3.16378
G01 X-3.34850 Y-3.16120
G01 X-3.34963 Y-3.15834
G01 X-3.35121 Y-3.15527
G01 X-3.35267 Y-3.15302
G01 X-3.35448 Y-3.15072
G04 P0 ( dwell for no time -- G64 should not smooth over this point )
G00 Z0.08000 ( retract )

G00 X-3.27632 Y-2.89622 ( rapid move to begin. )
G01 F0.50000
( Mill infeed pass 1/1 )
G01 Z-0.04000
G04 P0 ( dwell for no time -- G64 should not smooth over this point )
G01 F1.00000
G01 X-3.27632 Y-2.89622
G01 X-3.26357 Y-2.90895
G01 X-3.26175 Y-2.90834
G01 X-3.25786 Y-2.90744
G01 X-3.25297 Y-2.90682
G04 P0 ( dwell for no time -- G64 should not smooth over this point )
G00 Z0.08000 ( retract )

G00 X-3.27981 Y-2.98134 ( rapid move to begin. )
G01 F0.50000
( Mill infeed pass 1/1 )
G01 Z-0.04000
G04 P0 ( dwell for no time -- G64 should not smooth over this point )
G01 F1.00000
G01 X-3.27981 Y-2.98134
G01 X-3.27761 Y-2.98333
G01 X-3.27442 Y-2.98574
G01 X-3.27103 Y-2.98783
G01 X-3.26944 Y-2.98863
G01 X-3.26944 Y-3.17216
G01 X-3.32784 Y-3.23056
G01 X-3.35361 Y-3.23056
G01 X-3.35680 Y-3.22703
G01 X-3.35934 Y-3.22489
G01 X-3.36210 Y-3.22302
G01 X-3.36504 Y-3.22146
G01 X-3.36812 Y-3.22022
G01 X-3.37132 Y-3.21930
G01 X-3.37463 Y-3.21873
G01 X-3.37824 Y-3.21850
G01 X-3.42300 Y-3.21854
G01 X-3.42744 Y-3.21905
G01 X-3.43065 Y-3.21982
G01 X-3.43534 Y-3.22164
G01 X-3.43789 Y-3.22301
G01 X-3.44004 Y-3.22443
G01 X-3.44225 Y-3.22617
G01 X-3.44405 Y-3.22786
G01 X-3.44578 Y-3.22976
G01 X-3.44748 Y-3.23198
G01 X-3.44903 Y-3.23444
G01 X-3.45031 Y-3.23693
G01 X-3.45127 Y-3.23930
G01 X-3.45229 Y-3.24280
G01 X-3.49834 Y-3.30905
G01 X-3.44618 Y-3.30905
G01 X-3.44507 Y-3.30768
G01 X-3.44251 Y-3.30515
G01 X-3.43950 Y-3.30279
G01 X-3.43644 Y-3.30094
G01 X-3.43318 Y-3.29944
G01 X-3.42978 Y-3.29832
G01 X-3.42626 Y-3.29759
G01 X-3.42292 Y-3.29727
G01 X-3.37644 Y-3.29731
G01 X-3.37260 Y-3.29778
G01 X-3.36842 Y-3.29885
G01 X-3.36486 Y-3.30028
G01 X-3.36154 Y-3.30211
G01 X-3.35903 Y-3.30387
G01 X-3.35698 Y-3.30561
G01 X-3.35457 Y-3.30809
G01 X-3.35267 Y-3.31050
G01 X-3.35121 Y-3.31275
G01 X-3.34963 Y-3.31582
G01 X-3.34850 Y-3.31868
G01 X-3.34775 Y-3.32126
G01 X-3.34717 Y-3.32428
G01 X-3.34687 Y-3.32772
G01 X-3.34690 Y-3.33040
G01 X-3.34721 Y-3.33346
G01 X-3.34792 Y-3.33685
G01 X-3.34880 Y-3.33963
G01 X-3.35000 Y-3.34247
G01 X-3.35169 Y-3.34550
G01 X-3.35360 Y-3.34822
G01 X-3.35551 Y-3.35042
G01 X-3.35774 Y-3.35256
G01 X-3.36036 Y-3.35459
G01 X-3.36318 Y-3.35634
G01 X-3.36632 Y-3.35785
G01 X-3.36906 Y-3.35883
G01 X-3.37205 Y-3.35960
G01 X-3.37545 Y-3.36010
G01 X-3.37812 Y-3.36023
G01 X-3.42199 Y-3.36023
G01 X-3.42563 Y-3.35998
G01 X-3.42916 Y-3.35932
G01 X-3.43281 Y-3.35819
G01 X-3.43610 Y-3.35672
G01 X-3.43918 Y-3.35490
G01 X-3.44222 Y-3.35258
G01 X-3.44497 Y-3.34991
G01 X-3.44618 Y-3.34843
G01 X-3.67315 Y-3.34834
G01 X-3.67541 Y-3.34798
G01 X-3.67801 Y-3.34723
G01 X-3.72266 Y-3.33094
G01 X-3.72427 Y-3.33235
G01 X-3.72752 Y-3.33468
G01 X-3.73135 Y-3.33689
G01 X-3.73579 Y-3.33881
G01 X-3.74047 Y-3.34022
G01 X-3.74526 Y-3.34106
G01 X-3.75010 Y-3.34133
G01 X-3.75449 Y-3.34109
G01 X-3.75805 Y-3.34054
G01 X-3.76151 Y-3.33970
G01 X-3.76526 Y-3.33841
G01 X-3.76883 Y-3.33680
G01 X-3.77226 Y-3.33483
G01 X-3.77517 Y-3.33278
G01 X-3.77793 Y-3.33047
G01 X-3.78069 Y-3.32769
G01 X-3.78320 Y-3.32462
G01 X-3.78519 Y-3.32167
G01 X-3.78712 Y-3.31819
G01 X-3.78869 Y-3.31453
G01 X-3.78991 Y-3.31077
G01 X-3.79068 Y-3.30731
G01 X-3.79113 Y-3.30414
G01 X-3.79133 Y-3.29981
G01 X-3.79112 Y-3.29583
G01 X-3.79060 Y-3.29227
G01 X-3.78967 Y-3.28840
G01 X-3.78837 Y-3.28464
G01 X-3.78654 Y-3.28068
G01 X-3.78472 Y-3.27758
G01 X-3.78240 Y-3.27434
G01 X-3.77949 Y-3.27104
G01 X-3.77655 Y-3.26832
G01 X-3.77305 Y-3.26569
G01 X-3.76927 Y-3.26343
G01 X-3.76602 Y-3.26189
G01 X-3.76228 Y-3.26053
G01 X-3.75803 Y-3.25945
G01 X-3.75368 Y-3.25883
G01 X-3.75008 Y-3.25867
G01 X-3.74652 Y-3.25881
G01 X-3.74222 Y-3.25940
G01 X-3.73836 Y-3.26034
G01 X-3.73495 Y-3.26150
G01 X-3.73169 Y-3.26294
G01 X-3.72823 Y-3.26486
G01 X-3.72467 Y-3.26734
G01 X-3.72221 Y-3.26940
G01 X-3.71986 Y-3.27172
G01 X-3.67069 Y-3.30799
G01 X-3.66778 Y-3.30905
G01 X-3.66467 Y-3.30905
G01 X-3.69229 Y-3.30010
G01 X-3.70914 Y-3.29396
G01 X-3.71025 Y-3.28867
G01 X-3.71138 Y-3.28526
G01 X-3.71253 Y-3.28260
G04 P0 ( dwell for no time -- G64 should not smooth over this point )
G00 Z0.08000 ( retract )

G00 X-3.92818 Y-3.31944 ( rapid move to begin. )
G01 F0.50000
( Mill infeed pass 1/1 )
G01 Z-0.04000
G04 P0 ( dwell for no time -- G64 should not smooth over this point )
G01 F1.00000
G01 X-3.92818 Y-3.31944
G01 X-3.89134 Y-3.31944
G01 X-3.89132 Y-3.33978
G01 X-3.89126 Y-3.34015
G01 X-3.88933 Y-3.34290
G01 X-3.88740 Y-3.34331
G01 X-3.86944 Y-3.34331
G01 X-3.86936 Y-3.37141
G01 X-3.88933 Y-3.34290
G01 X-3.97182 Y-3.31944
G01 X-4.00866 Y-3.31944
G01 X-4.00874 Y-3.34015
G04 P0 ( dwell for no time -- G64 should not smooth over this point )
G00 Z0.08000 ( retract )

G00 X-4.18803 Y-3.28393 ( rapid move to begin. )
G01 F0.50000
( Mill infeed pass 1/1 )
G01 Z-0.04000
G04 P0 ( dwell for no time -- G64 should not smooth over this point )
G01 F1.00000
G01 X-4.18803 Y-3.28393
G01 X-4.18871 Y-3.28550
G01 X-4.19003 Y-3.28970
G01 X-4.19102 Y-3.29494
G01 X-4.19133 Y-3.29979
G01 X-4.19112 Y-3.30418
G01 X-4.19032 Y-3.30905
G01 X-4.45381 Y-3.30905
G01 X-4.45679 Y-3.30578
G01 X-4.45913 Y-3.30379
G01 X-4.46165 Y-3.30204
G01 X-4.46433 Y-3.30054
G01 X-4.46714 Y-3.29931
G01 X-4.46969 Y-3.29846
G01 X-4.47268 Y-3.29776
G01 X-4.47801 Y-3.29725
G01 X-4.52255 Y-3.29726
G01 X-4.52673 Y-3.29766
G01 X-4.53097 Y-3.29866
G01 X-4.53551 Y-3.30046
G01 X-4.53927 Y-3.30264
G01 X-4.54229 Y-3.30496
G01 X-4.54537 Y-3.30803
G01 X-4.54664 Y-3.30968
G01 X-4.54661 Y-3.26917
G01 X-4.54420 Y-3.27198
G01 X-4.54215 Y-3.27391
G01 X-4.53993 Y-3.27564
G01 X-4.53757 Y-3.27717
G01 X-4.53476 Y-3.27863
G01 X-4.53215 Y-3.27969
G01 X-4.52940 Y-3.28052
G01 X-4.52610 Y-3.28117
G01 X-4.52199 Y-3.28149
G01 X-4.47812 Y-3.28150
G01 X-4.47536 Y-3.28135
G01 X-4.47254 Y-3.28095
G01 X-4.46932 Y-3.28017
G01 X-4.46643 Y-3.27915
G01 X-4.46365 Y-3.27785
G01 X-4.46100 Y-3.27629
G01 X-4.45853 Y-3.27447
G01 X-4.45624 Y-3.27243
G01 X-4.45360 Y-3.26944
G01 X-4.41938 Y-3.26943
G01 X-4.41644 Y-3.26914
G01 X-4.41373 Y-3.26847
G01 X-4.41009 Y-3.26684
G01 X-4.40695 Y-3.26458
G01 X-4.40098 Y-3.25864
G01 X-4.39910 Y-3.25624
G01 X-4.39762 Y-3.25358
G01 X-4.39715 Y-3.25235
G01 X-4.39789 Y-3.25414
G01 X-4.39945 Y-3.25675
G01 X-4.40127 Y-3.25896
G01 X-4.40695 Y-3.26458
G01 X-4.41009 Y-3.26684
G01 X-4.41373 Y-3.26847
G01 X-4.41644 Y-3.26914
G01 X-4.41938 Y-3.26943
G01 X-4.45360 Y-3.26944
G01 X-4.45624 Y-3.27243
G01 X-4.45853 Y-3.27447
G01 X-4.46100 Y-3.27629
G01 X-4.46365 Y-3.27785
G01 X-4.46643 Y-3.27915
G01 X-4.46932 Y-3.28017
G01 X-4.47254 Y-3.28095
G01 X-4.47536 Y-3.28135
G01 X-4.47812 Y-3.28150
G01 X-4.52199 Y-3.28149
G01 X-4.52610 Y-3.28117
G01 X-4.52940 Y-3.28052
G01 X-4.53215 Y-3.27969
G01 X-4.53476 Y-3.27863
G01 X-4.53757 Y-3.27717
G01 X-4.53993 Y-3.27564
G01 X-4.54215 Y-3.27391
G01 X-4.54420 Y-3.27198
G01 X-4.54661 Y-3.26917
G01 X-4.54664 Y-3.30968
G01 X-4.58942 Y-3.19068
G01 X-4.54638 Y-3.19069
G01 X-4.54532 Y-3.19203
G01 X-4.54280 Y-3.19460
G01 X-4.53981 Y-3.19699
G01 X-4.53676 Y-3.19889
G01 X-4.53373 Y-3.20034
G01 X-4.53034 Y-3.20153
G01 X-4.52684 Y-3.20232
G01 X-4.52328 Y-3.20271
G01 X-4.47655 Y-3.20270
G01 X-4.47226 Y-3.20215
G01 X-4.46854 Y-3.20119
G01 X-4.46498 Y-3.19977
G01 X-4.46165 Y-3.19796
G01 X-4.45913 Y-3.19621
G01 X-4.45679 Y-3.19422
G01 X-4.45491 Y-3.19230
G01 X-4.45297 Y-3.18991
G01 X-4.45128 Y-3.18736
G01 X-4.44984 Y-3.18464
G01 X-4.44846 Y-3.18120
G01 X-4.44764 Y-3.17824
G01 X-4.44710 Y-3.17522
G01 X-4.44687 Y-3.17216
G01 X-4.44693 Y-3.16908
G01 X-4.44729 Y-3.16604
G01 X-4.44785 Y-3.16341
G01 X-4.44876 Y-3.16047
G01 X-4.44995 Y-3.15765
G01 X-4.45165 Y-3.15456
G01 X-4.45372 Y-3.15164
G01 X-4.45629 Y-3.14878
G01 X-4.45978 Y-3.14582
G01 X-4.46301 Y-3.14375
G01 X-4.46603 Y-3.14228
G01 X-4.46988 Y-3.14093
G01 X-4.47414 Y-3.14005
G01 X-4.47771 Y-3.13978
G01 X-4.48006 Y-3.13977
G04 P0 ( dwell for no time -- G64 should not smooth over this point )
G00 Z0.08000 ( retract )

G00 X-4.67568 Y-2.98578 ( rapid move to begin. )
G01 F0.50000
( Mill infeed pass 1/1 )
G01 Z-0.04000
G04 P0 ( dwell for no time -- G64 should not smooth over this point )
G01 F1.00000
G01 X-4.67568 Y-2.98578
G01 X-4.67851 Y-2.98757
G01 X-4.68207 Y-2.98940
G01 X-4.68660 Y-2.99115
G01 X-4.69124 Y-2.99238
G01 X-4.69692 Y-2.99317
G01 X-4.70178 Y-2.99324
G01 X-4.70655 Y-2.99278
G01 X-4.71175 Y-2.99165
G01 X-4.71629 Y-2.99010
G01 X-4.72068 Y-2.98802
G01 X-4.72480 Y-2.98548
G01 X-4.72891 Y-2.98221
G01 X-4.73264 Y-2.97842
G01 X-4.73586 Y-2.97423
G01 X-4.73832 Y-2.97012
G01 X-4.74050 Y-2.96527
G01 X-4.74194 Y-2.96069
G01 X-4.74287 Y-2.95592
G01 X-4.74328 Y-2.95018
G01 X-4.74299 Y-2.94499
G01 X-4.74205 Y-2.93978
G01 X-4.74035 Y-2.93434
G01 X-4.73768 Y-2.92871
G01 X-4.73485 Y-2.92434
G01 X-4.73146 Y-2.92028
G01 X-4.72688 Y-2.91608
G01 X-4.72217 Y-2.91283
G01 X-4.71708 Y-2.91023
G01 X-4.71169 Y-2.90833
G01 X-4.70610 Y-2.90715
G01 X-4.70040 Y-2.90672
G01 X-4.69469 Y-2.90705
G01 X-4.68958 Y-2.90799
G01 X-4.68646 Y-2.90897
G01 X-4.61254 Y-2.83517
G01 X-4.60998 Y-2.83333
G01 X-4.60767 Y-2.83215
G01 X-4.60483 Y-2.83118
G01 X-4.60196 Y-2.83066
G01 X-4.57953 Y-2.83058
G01 X-4.57953 Y-2.82441
G01 X-4.57933 Y-2.82319
G01 X-4.57900 Y-2.82244
G01 X-4.57822 Y-2.82148
G01 X-4.57719 Y-2.82081
G01 X-4.57600 Y-2.82049
G01 X-4.52441 Y-2.82047
G01 X-4.52281 Y-2.82081
G01 X-4.52177 Y-2.82148
G01 X-4.52100 Y-2.82244
G01 X-4.52049 Y-2.82400
G01 X-4.52049 Y-2.87600
G01 X-4.52081 Y-2.87719
G01 X-4.52148 Y-2.87822
G01 X-4.52244 Y-2.87900
G01 X-4.52319 Y-2.87933
G01 X-4.52441 Y-2.87953
G01 X-4.53056 Y-2.87953
G01 X-4.53056 Y-2.89854
G01 X-4.40126 Y-3.02785
G01 X-4.39945 Y-3.03005
G01 X-4.39789 Y-3.03266
G01 X-4.39662 Y-3.03592
G01 X-4.24054 Y-3.00137
G01 X-4.26562 Y-2.97629
G01 X-4.26918 Y-2.98038
G01 X-4.27309 Y-2.98390
G01 X-4.27706 Y-2.98670
G01 X-4.28126 Y-2.98901
G01 X-4.28468 Y-2.99042
G01 X-4.28126 Y-2.98901
G01 X-4.27706 Y-2.98670
G01 X-4.27309 Y-2.98390
G01 X-4.26918 Y-2.98038
G01 X-4.26562 Y-2.97629
G01 X-4.24054 Y-3.00137
G01 X-4.39662 Y-3.03592
G01 X-4.34252 Y-2.95808
G01 X-4.34148 Y-2.96235
G01 X-4.34001 Y-2.96651
G01 X-4.33812 Y-2.97049
G01 X-4.33584 Y-2.97427
G01 X-4.33290 Y-2.97811
G01 X-4.32959 Y-2.98158
G01 X-4.32587 Y-2.98470
G01 X-4.32357 Y-2.98622
G01 X-4.32587 Y-2.98470
G01 X-4.32959 Y-2.98158
G01 X-4.33290 Y-2.97811
G01 X-4.33584 Y-2.97427
G01 X-4.33812 Y-2.97049
G01 X-4.34001 Y-2.96651
G01 X-4.34148 Y-2.96235
G01 X-4.34252 Y-2.95808
G01 X-4.43460 Y-2.87410
G01 X-4.43342 Y-2.87328
G01 X-4.43100 Y-2.87117
G01 X-4.42964 Y-2.86969
G01 X-4.41864 Y-2.86969
G01 X-4.34055 Y-2.93502
G01 X-4.34000 Y-2.93347
G01 X-4.33768 Y-2.92871
G01 X-4.33486 Y-2.92434
G01 X-4.33146 Y-2.92028
G01 X-4.32688 Y-2.91608
G01 X-4.32262 Y-2.91310
G01 X-4.31969 Y-2.91154
G01 X-4.31969 Y-2.86969
G01 X-4.38847 Y-2.86969
G01 X-4.44775 Y-2.87927
G01 X-4.45240 Y-2.87951
G01 X-4.45559 Y-2.87925
G01 X-4.45838 Y-2.87873
G01 X-4.46146 Y-2.87782
G01 X-4.46444 Y-2.87657
G01 X-4.46727 Y-2.87500
G01 X-4.46992 Y-2.87313
G01 X-4.47232 Y-2.87101
G01 X-4.47449 Y-2.86861
G01 X-4.47639 Y-2.86599
G01 X-4.47799 Y-2.86318
G01 X-4.47928 Y-2.86021
G01 X-4.48023 Y-2.85711
G01 X-4.48083 Y-2.85393
G01 X-4.48109 Y-2.85071
G01 X-4.48099 Y-2.84750
G01 X-4.48062 Y-2.84472
G01 X-4.47984 Y-2.84149
G01 X-4.47816 Y-2.83718
G01 X-4.47584 Y-2.83319
G01 X-4.47334 Y-2.83006
G01 X-4.46996 Y-2.82691
G01 X-4.46613 Y-2.82432
G01 X-4.46137 Y-2.82215
G01 X-4.45690 Y-2.82097
G01 X-4.45240 Y-2.82049
G01 X-4.44913 Y-2.82058
G01 X-4.44550 Y-2.82111
G01 X-4.44235 Y-2.82196
G01 X-4.43936 Y-2.82312
G01 X-4.43647 Y-2.82463
G01 X-4.43344 Y-2.82671
G01 X-4.43067 Y-2.82916
G01 X-4.42962 Y-2.83031
G01 X-4.29959 Y-2.83032
G01 X-4.29617 Y-2.83070
G01 X-4.29325 Y-2.83152
G01 X-4.29102 Y-2.83249
G01 X-4.28880 Y-2.83381
G01 X-4.28555 Y-2.83663
G01 X-4.28312 Y-2.83987
G01 X-4.28156 Y-2.84316
G01 X-4.28089 Y-2.84528
G01 X-4.28040 Y-2.84837
G01 X-4.28031 Y-2.90591
G01 X-4.26890 Y-2.91732
G01 X-4.15350 Y-2.81978
G01 X-4.16494 Y-2.80835
G01 X-4.64163 Y-2.80835
G01 X-4.75541 Y-2.92212
G01 X-4.75541 Y-2.97788
G01 X-4.58147 Y-3.15182
G01 X-4.54638 Y-3.15182
G01 X-4.54542 Y-3.15059
G01 X-4.54310 Y-3.14820
G01 X-4.54088 Y-3.14632
G01 X-4.53939 Y-3.14527
G01 X-4.65672 Y-2.94997
G01 X-4.65688 Y-2.94622
G01 X-4.65748 Y-2.94189
G01 X-4.65841 Y-2.93802
G01 X-4.65894 Y-2.93643
G01 X-4.59195 Y-2.86944
G01 X-4.57953 Y-2.86944
G01 X-4.57951 Y-2.87600
G01 X-4.57900 Y-2.87756
G01 X-4.57822 Y-2.87852
G01 X-4.57719 Y-2.87919
G01 X-4.57600 Y-2.87950
G01 X-4.56943 Y-2.87953
G01 X-4.56934 Y-2.90842
G01 X-4.56896 Y-2.91082
G01 X-4.56823 Y-2.91331
G01 X-4.56698 Y-2.91603
G01 X-4.56572 Y-2.91799
G01 X-4.43472 Y-3.04935
G01 X-4.43472 Y-3.23056
G01 X-4.45360 Y-3.23056
G01 X-4.45662 Y-3.22721
G01 X-4.45914 Y-3.22504
G01 X-4.46188 Y-3.22316
G01 X-4.46480 Y-3.22157
G01 X-4.46788 Y-3.22030
G01 X-4.47067 Y-3.21946
G01 X-4.47393 Y-3.21882
G01 X-4.47823 Y-3.21850
G01 X-4.52255 Y-3.21852
G01 X-4.52531 Y-3.21872
G01 X-4.52843 Y-3.21924
G01 X-4.53113 Y-3.21997
G01 X-4.53356 Y-3.22084
G01 X-4.53611 Y-3.22202
G01 X-4.53826 Y-3.22324
G01 X-4.54058 Y-3.22483
G01 X-4.54275 Y-3.22662
G01 X-4.54499 Y-3.22885
G01 X-4.54679 Y-3.23102
G01 X-4.54838 Y-3.23334
G01 X-4.54976 Y-3.23580
G01 X-4.55079 Y-3.23804
G01 X-4.55206 Y-3.24191
G04 P0 ( dwell for no time -- G64 should not smooth over this point )
G00 Z0.08000 ( retract )

G00 X-4.45922 Y-3.35370 ( rapid move to begin. )
G01 F0.50000
( Mill infeed pass 1/1 )
G01 Z-0.04000
G04 P0 ( dwell for no time -- G64 should not smooth over this point )
G01 F1.00000
G01 X-4.45922 Y-3.35370
G01 X-4.45732 Y-3.35218
G01 X-4.45495 Y-3.34981
G01 X-4.45382 Y-3.34843
G01 X-4.44142 Y-3.34843
G04 P0 ( dwell for no time -- G64 should not smooth over this point )
G00 Z0.08000 ( retract )

G00 X-4.04610 Y-3.14012 ( rapid move to begin. )
G01 F0.50000
( Mill infeed pass 1/1 )
G01 Z-0.04000
G04 P0 ( dwell for no time -- G64 should not smooth over this point )
G01 F1.00000
G01 X-4.04610 Y-3.14012
G01 X-4.03465 Y-3.15157
G01 X-4.01846 Y-3.15157
G04 P0 ( dwell for no time -- G64 should not smooth over this point )
G00 Z0.08000 ( retract )

G00 X-3.97156 Y-2.93056 ( rapid move to begin. )
G01 F0.50000
( Mill infeed pass 1/1 )
G01 Z-0.04000
G04 P0 ( dwell for no time -- G64 should not smooth over this point )
G01 F1.00000
G01 X-3.97156 Y-2.93056
G01 X-3.98775 Y-2.93056
G01 X-4.14314 Y-2.77516
G01 X-4.14504 Y-2.77351
G01 X-4.28534 Y-2.59072
G01 X-4.28049 Y-2.58863
G01 X-4.27667 Y-2.58645
G01 X-4.27440 Y-2.58481
G01 X-4.07284 Y-2.68559
G01 X-4.07284 Y-2.81300
G01 X-4.07250 Y-2.81460
G01 X-4.07209 Y-2.81531
G01 X-4.07121 Y-2.81618
G01 X-4.07012 Y-2.81674
G01 X-4.06890 Y-2.81694
G01 X-3.97866 Y-2.81694
G04 P0 ( dwell for no time -- G64 should not smooth over this point )
G00 Z0.08000 ( retract )

G00 X-4.07284 Y-2.56242 ( rapid move to begin. )
G01 F0.50000
( Mill infeed pass 1/1 )
G01 Z-0.04000
G04 P0 ( dwell for no time -- G64 should not smooth over this point )
G01 F1.00000
G01 X-4.07284 Y-2.56242
G01 X-4.20455 Y-2.57572
G01 X-4.25676 Y-2.54961
G01 X-4.25679 Y-2.54758
G01 X-4.25733 Y-2.54277
G01 X-4.25828 Y-2.53848
G01 X-4.25895 Y-2.53644
G01 X-4.21763 Y-2.49512
G04 P0 ( dwell for no time -- G64 should not smooth over this point )
G00 Z0.08000 ( retract )

G00 X-4.27305 Y-2.49556 ( rapid move to begin. )
G01 F0.50000
( Mill infeed pass 1/1 )
G01 Z-0.04000
G04 P0 ( dwell for no time -- G64 should not smooth over this point )
G01 F1.00000
G01 X-4.27305 Y-2.49556
G01 X-4.28643 Y-2.50894
G01 X-4.28823 Y-2.50835
G01 X-4.29210 Y-2.50744
G01 X-4.29606 Y-2.50690
G01 X-4.29892 Y-2.50676
G04 P0 ( dwell for no time -- G64 should not smooth over this point )
G00 Z0.08000 ( retract )

G00 X-4.33127 Y-2.52012 ( rapid move to begin. )
G01 F0.50000
( Mill infeed pass 1/1 )
G01 Z-0.04000
G04 P0 ( dwell for no time -- G64 should not smooth over this point )
G01 F1.00000
G01 X-4.33127 Y-2.52012
G01 X-4.33319 Y-2.52222
G01 X-4.33561 Y-2.52540
G01 X-4.33772 Y-2.52877
G01 X-4.33850 Y-2.53031
G01 X-4.35724 Y-2.53031
G04 P0 ( dwell for no time -- G64 should not smooth over this point )
G00 Z0.08000 ( retract )

G00 X-4.33131 Y-2.57988 ( rapid move to begin. )
G01 F0.50000
( Mill infeed pass 1/1 )
G01 Z-0.04000
G04 P0 ( dwell for no time -- G64 should not smooth over this point )
G01 F1.00000
G01 X-4.33131 Y-2.57988
G01 X-4.33483 Y-2.57569
G01 X-4.33726 Y-2.57202
G01 X-4.33847 Y-2.56969
G01 X-4.35728 Y-2.56969
G04 P0 ( dwell for no time -- G64 should not smooth over this point )
G00 Z0.08000 ( retract )

G00 X-4.64271 Y-2.53031 ( rapid move to begin. )
G01 F0.50000
( Mill infeed pass 1/1 )
G01 Z-0.04000
G04 P0 ( dwell for no time -- G64 should not smooth over this point )
G01 F1.00000
G01 X-4.64271 Y-2.53031
G01 X-4.66147 Y-2.53031
G01 X-4.66323 Y-2.52716
G01 X-4.66520 Y-2.52426
G01 X-4.66876 Y-2.52006
G04 P0 ( dwell for no time -- G64 should not smooth over this point )
G00 Z0.08000 ( retract )

G00 X-4.64272 Y-2.56969 ( rapid move to begin. )
G01 F0.50000
( Mill infeed pass 1/1 )
G01 Z-0.04000
G04 P0 ( dwell for no time -- G64 should not smooth over this point )
G01 F1.00000
G01 X-4.64272 Y-2.56969
G01 X-4.66147 Y-2.56969
G01 X-4.66346 Y-2.57320
G01 X-4.66521 Y-2.57576
G01 X-4.66877 Y-2.57994

G04 P0 ( dwell for no time -- G64 should not smooth over this point )
G00 Z1.000000 ( retract )

M5 ( Spindle off. )
G04 P1.000000
M9 ( Coolant off. )
M2 ( Program end. )

