( pcb2gcode 2.5.0 )
( Software-independent Gcode )

G94 ( Inches per minute feed rate. )
G20 ( Units == INCHES. )

G90 ( Absolute coordinates. )
G00 S12000 ( RPM spindle speed. )
G64 P0.00040 ( set maximum deviation from commanded toolpath )
G01 F1.00000 ( Feedrate. )


G00 Z1.00000 (Retract to tool change height)
T1
M5      (Spindle stop.)
G04 P1.00000 (Wait for spindle to stop)
(MSG, Change tool bit to mill diameter 0.11811in)
M6      (Tool change.)
M0      (Temporary machine stop.)
M3 ( Spindle on clockwise. )
G04 P1.00000 (Wait for spindle to get up to speed)
G04 P0 ( dwell for no time -- G64 should not smooth over this point )
G00 Z0.08000 ( retract )

G00 X-3.25186 Y-2.84270 ( rapid move to begin. )
G01 F0.50000
( Mill infeed pass 1/1 )
G01 Z-0.04000
G04 P0 ( dwell for no time -- G64 should not smooth over this point )
G01 F1.00000
G01 X-3.25186 Y-2.84270
G01 X-3.24270 Y-2.84270
G01 X-3.24270 Y-2.85186
G01 X-3.24230 Y-2.85234
G01 X-3.25186 Y-2.84270
G01 X-3.25282 Y-2.84230
G04 P0 ( dwell for no time -- G64 should not smooth over this point )
G00 Z0.08000 ( retract )

G00 X-3.32455 Y-3.10353 ( rapid move to begin. )
G01 F0.50000
( Mill infeed pass 1/1 )
G01 Z-0.04000
G04 P0 ( dwell for no time -- G64 should not smooth over this point )
G01 F1.00000
G01 X-3.32455 Y-3.10353
G01 X-3.32456 Y-3.01418
G01 X-3.32794 Y-3.01004
G01 X-3.33114 Y-3.00565
G01 X-3.33316 Y-3.00259
G01 X-3.33711 Y-2.99578
G01 X-3.34096 Y-2.98754
G01 X-3.34404 Y-2.97898
G01 X-3.34604 Y-2.97137
G01 X-3.34678 Y-2.96778
G01 X-3.34754 Y-2.96282
G01 X-3.34811 Y-2.95733
G01 X-3.37090 Y-2.93454
G01 X-3.42599 Y-2.93464
G01 X-3.43240 Y-2.93425
G01 X-3.43598 Y-2.93372
G01 X-3.43990 Y-2.93288
G01 X-3.44338 Y-2.93190
G01 X-3.44679 Y-2.93071
G01 X-3.45085 Y-2.92897
G01 X-3.45442 Y-2.92713
G01 X-3.45849 Y-2.92463
G01 X-3.45847 Y-2.92416
G01 X-3.45849 Y-2.92463
G01 X-3.46301 Y-2.92685
G01 X-3.46880 Y-2.92929
G01 X-3.47398 Y-2.93099
G01 X-3.54600 Y-3.00301
G01 X-3.55000 Y-3.00661
G01 X-3.55618 Y-3.01143
G01 X-3.56162 Y-3.01478
G01 X-3.56608 Y-3.01714
G01 X-3.56971 Y-3.01880
G01 X-3.57345 Y-3.02022
G01 X-3.57826 Y-3.02171
G01 X-3.58422 Y-3.02319
G01 X-3.59158 Y-3.02913
G01 X-3.59549 Y-3.03192
G01 X-3.60374 Y-3.03681
G01 X-3.60839 Y-3.03916
G01 X-3.61653 Y-3.04250
G01 X-3.62069 Y-3.04393
G01 X-3.62999 Y-3.04631
G01 X-3.63510 Y-3.04726
G01 X-3.64584 Y-3.04831
G01 X-3.64942 Y-3.04839
G01 X-3.65549 Y-3.04825
G01 X-3.66156 Y-3.04772
G01 X-3.66732 Y-3.04686
G01 X-3.67087 Y-3.04616
G01 X-3.67681 Y-3.04468
G01 X-3.68274 Y-3.04280
G01 X-3.68807 Y-3.04073
G01 X-3.69133 Y-3.03930
G01 X-3.69644 Y-3.03676
G01 X-3.70148 Y-3.03385
G01 X-3.70458 Y-3.03186
G01 X-3.70934 Y-3.02850
G01 X-3.71415 Y-3.02461
G01 X-3.99581 Y-3.02455
G01 X-4.00077 Y-3.02434
G01 X-4.00699 Y-3.02369
G01 X-4.01210 Y-3.02274
G01 X-4.01964 Y-3.02059
G01 X-4.02452 Y-3.01880
G01 X-4.02922 Y-3.01659
G01 X-4.03605 Y-3.01275
G01 X-4.04031 Y-3.00978
G01 X-4.04549 Y-3.00554
G01 X-4.04852 Y-3.00272
G01 X-4.18777 Y-2.86346
G01 X-4.22519 Y-2.86346
G01 X-4.22559 Y-2.86306
G01 X-4.22519 Y-2.86346
G01 X-4.22519 Y-2.88308
G01 X-4.01182 Y-3.09645
G01 X-3.46515 Y-3.09645
G01 X-3.45754 Y-3.09246
G01 X-3.45200 Y-3.09016
G01 X-3.44186 Y-3.08707
G01 X-3.43835 Y-3.08627
G01 X-3.43480 Y-3.08569
G01 X-3.42662 Y-3.08485
G01 X-3.42290 Y-3.08466
G01 X-3.37752 Y-3.08465
G01 X-3.37379 Y-3.08482
G01 X-3.36718 Y-3.08546
G01 X-3.36204 Y-3.08620
G01 X-3.35659 Y-3.08749
G01 X-3.34725 Y-3.09043
G01 X-3.34138 Y-3.09298
G01 X-3.33242 Y-3.09785
G01 X-3.32907 Y-3.10003
G01 X-3.32619 Y-3.10219
G01 X-3.32455 Y-3.10353
G01 X-3.32415 Y-3.10438
G04 P0 ( dwell for no time -- G64 should not smooth over this point )
G00 Z0.08000 ( retract )

G00 X-3.67007 Y-3.24606 ( rapid move to begin. )
G01 F0.50000
( Mill infeed pass 1/1 )
G01 Z-0.04000
G04 P0 ( dwell for no time -- G64 should not smooth over this point )
G01 F1.00000
G01 X-3.67007 Y-3.24606
G01 X-3.50807 Y-3.24606
G01 X-3.50765 Y-3.24566
G01 X-3.50814 Y-3.24613
G01 X-3.50827 Y-3.24980
G01 X-3.50814 Y-3.25387
G01 X-3.50765 Y-3.25433
G01 X-3.50807 Y-3.25393
G01 X-3.65803 Y-3.25393
G01 X-3.66715 Y-3.25061
G01 X-3.67007 Y-3.24606
G01 X-3.67082 Y-3.24566
G04 P0 ( dwell for no time -- G64 should not smooth over this point )
G00 Z0.08000 ( retract )

G00 X-3.96831 Y-2.87206 ( rapid move to begin. )
G01 F0.50000
( Mill infeed pass 1/1 )
G01 Z-0.04000
G04 P0 ( dwell for no time -- G64 should not smooth over this point )
G01 F1.00000
G01 X-3.96831 Y-2.87206
G01 X-3.92869 Y-2.87201
G01 X-3.92230 Y-2.87140
G01 X-3.91601 Y-2.87009
G01 X-3.91140 Y-2.86867
G01 X-3.90693 Y-2.86688
G01 X-3.90297 Y-2.86493
G01 X-3.89884 Y-2.86246
G01 X-3.89523 Y-2.85991
G01 X-3.89152 Y-2.85683
G01 X-3.88808 Y-2.85346
G01 X-3.88518 Y-2.85013
G01 X-3.88276 Y-2.84693
G01 X-3.88057 Y-2.84356
G01 X-3.87861 Y-2.84006
G01 X-3.87689 Y-2.83643
G01 X-3.87529 Y-2.83231
G01 X-3.87411 Y-2.82848
G01 X-3.87319 Y-2.82457
G01 X-3.87254 Y-2.82061
G01 X-3.87215 Y-2.81661
G01 X-3.87204 Y-2.81300
G01 X-3.87204 Y-2.75395
G01 X-3.87244 Y-2.75355
G01 X-3.87204 Y-2.75395
G01 X-3.74610 Y-2.75395
G01 X-3.74089 Y-2.75372
G01 X-3.73650 Y-2.75317
G01 X-3.73179 Y-2.75219
G01 X-3.72716 Y-2.75084
G01 X-3.72304 Y-2.74926
G01 X-3.71868 Y-2.74721
G01 X-3.71451 Y-2.74480
G01 X-3.71087 Y-2.74230
G01 X-3.70720 Y-2.73933
G01 X-3.62567 Y-2.82087
G01 X-3.62295 Y-2.82342
G01 X-3.61809 Y-2.82744
G01 X-3.61487 Y-2.82980
G01 X-3.61149 Y-2.83195
G01 X-3.60672 Y-2.83455
G01 X-3.60277 Y-2.83648
G01 X-3.59868 Y-2.83811
G01 X-3.59358 Y-2.83972
G01 X-3.59281 Y-2.83952
G01 X-3.59358 Y-2.83972
G01 X-3.61279 Y-2.85892
G01 X-3.61728 Y-2.85722
G01 X-3.62569 Y-2.85465
G01 X-3.62960 Y-2.85377
G01 X-3.63823 Y-2.85230
G01 X-3.64688 Y-2.85168
G01 X-3.65089 Y-2.85160
G01 X-3.65762 Y-2.85189
G01 X-3.66518 Y-2.85278
G01 X-3.67149 Y-2.85397
G01 X-3.67834 Y-2.85576
G01 X-3.68480 Y-2.85795
G01 X-3.69148 Y-2.86077
G01 X-3.69791 Y-2.86405
G01 X-3.70364 Y-2.86750
G01 X-3.70953 Y-2.87165
G01 X-3.71421 Y-2.87544
G01 X-3.96492 Y-2.87544
G01 X-3.96831 Y-2.87206
G01 X-3.96927 Y-2.87166
G04 P0 ( dwell for no time -- G64 should not smooth over this point )
G00 Z0.08000 ( retract )

G00 X-3.85751 Y-2.47805 ( rapid move to begin. )
G01 F0.50000
( Mill infeed pass 1/1 )
G01 Z-0.04000
G04 P0 ( dwell for no time -- G64 should not smooth over this point )
G01 F1.00000
G01 X-3.85751 Y-2.47805
G01 X-3.83752 Y-2.49804
G01 X-3.80739 Y-2.49804
G01 X-3.80642 Y-2.49844
G01 X-3.80739 Y-2.49804
G01 X-3.82738 Y-2.47805
G01 X-3.85751 Y-2.47805
G01 X-3.85847 Y-2.47765
G04 P0 ( dwell for no time -- G64 should not smooth over this point )
G00 Z0.08000 ( retract )

G00 X-4.12755 Y-2.48243 ( rapid move to begin. )
G01 F0.50000
( Mill infeed pass 1/1 )
G01 Z-0.04000
G04 P0 ( dwell for no time -- G64 should not smooth over this point )
G01 F1.00000
G01 X-4.12755 Y-2.48243
G01 X-4.12795 Y-2.48339
G01 X-4.12795 Y-2.55239
G01 X-4.12755 Y-2.55303
G01 X-4.12795 Y-2.55239
G01 X-4.17395 Y-2.52939
G01 X-4.12795 Y-2.48339
G04 P0 ( dwell for no time -- G64 should not smooth over this point )
G00 Z0.08000 ( retract )

G00 X-4.12796 Y-2.72021 ( rapid move to begin. )
G01 F0.50000
( Mill infeed pass 1/1 )
G01 Z-0.04000
G04 P0 ( dwell for no time -- G64 should not smooth over this point )
G01 F1.00000
G01 X-4.12796 Y-2.72021
G01 X-4.12796 Y-2.71966
G01 X-4.27628 Y-2.64550
G01 X-4.28043 Y-2.64641
G01 X-4.28813 Y-2.64769
G01 X-4.29173 Y-2.64803
G01 X-4.29940 Y-2.64840
G01 X-4.30337 Y-2.64831
G01 X-4.31107 Y-2.64778
G01 X-4.31465 Y-2.64727
G01 X-4.32272 Y-2.64575
G01 X-4.33052 Y-2.64352
G01 X-4.33357 Y-2.64250
G01 X-4.34078 Y-2.63951
G01 X-4.34410 Y-2.63797
G01 X-4.35095 Y-2.63414
G01 X-4.35403 Y-2.63225
G01 X-4.36059 Y-2.62750
G01 X-4.36393 Y-2.62480
G01 X-4.63607 Y-2.62480
G01 X-4.64112 Y-2.62884
G01 X-4.64412 Y-2.63098
G01 X-4.64939 Y-2.63439
G01 X-4.65560 Y-2.63782
G01 X-4.66166 Y-2.64063
G01 X-4.66752 Y-2.64288
G01 X-4.67102 Y-2.64403
G01 X-4.67786 Y-2.64588
G01 X-4.68402 Y-2.64710
G01 X-4.69026 Y-2.64792
G01 X-4.69709 Y-2.64835
G01 X-4.70083 Y-2.64839
G01 X-4.70734 Y-2.64813
G01 X-4.71451 Y-2.64732
G01 X-4.72243 Y-2.64580
G01 X-4.72665 Y-2.64471
G01 X-4.73469 Y-2.64208
G01 X-4.74067 Y-2.63960
G01 X-4.74425 Y-2.63788
G01 X-4.74925 Y-2.63519
G01 X-4.75263 Y-2.63311
G01 X-4.75800 Y-2.62949
G01 X-4.76309 Y-2.62549
G01 X-4.76638 Y-2.62263
G01 X-4.77102 Y-2.61811
G01 X-4.77685 Y-2.61144
G01 X-4.77903 Y-2.60861
G01 X-4.78272 Y-2.60329
G01 X-4.78680 Y-2.59634
G01 X-4.78859 Y-2.59280
G01 X-4.79123 Y-2.58689
G01 X-4.79429 Y-2.57816
G01 X-4.79659 Y-2.56879
G01 X-4.79793 Y-2.55964
G01 X-4.79840 Y-2.54996
G01 X-4.79795 Y-2.54051
G01 X-4.79658 Y-2.53114
G01 X-4.79436 Y-2.52209
G01 X-4.79155 Y-2.51393
G01 X-4.78860 Y-2.50724
G01 X-4.78641 Y-2.50294
G01 X-4.78261 Y-2.49653
G01 X-4.77757 Y-2.48945
G01 X-4.77274 Y-2.48377
G01 X-4.76937 Y-2.48022
G01 X-4.76361 Y-2.47492
G01 X-4.75688 Y-2.46970
G01 X-4.75066 Y-2.46566
G01 X-4.74682 Y-2.46346
G01 X-4.73953 Y-2.45988
G01 X-4.73184 Y-2.45689
G01 X-4.72430 Y-2.45466
G01 X-4.71960 Y-2.45359
G01 X-4.71158 Y-2.45229
G01 X-4.70228 Y-2.45163
G01 X-4.69649 Y-2.45166
G01 X-4.69079 Y-2.45204
G01 X-4.68201 Y-2.45325
G01 X-4.67593 Y-2.45459
G01 X-4.67282 Y-2.45543
G01 X-4.66779 Y-2.45702
G01 X-4.66212 Y-2.45918
G01 X-4.65374 Y-2.46315
G01 X-4.64797 Y-2.46647
G01 X-4.64343 Y-2.46950
G01 X-4.64050 Y-2.47163
G01 X-4.63606 Y-2.47519
G01 X-4.36389 Y-2.47519
G01 X-4.35964 Y-2.47175
G01 X-4.35251 Y-2.46679
G01 X-4.34537 Y-2.46268
G01 X-4.33765 Y-2.45908
G01 X-4.32874 Y-2.45589
G01 X-4.32113 Y-2.45390
G01 X-4.31753 Y-2.45318
G01 X-4.31257 Y-2.45243
G01 X-4.30732 Y-2.45189
G01 X-4.20592 Y-2.35049
G01 X-4.20319 Y-2.34796
G01 X-4.19926 Y-2.34471
G01 X-4.19542 Y-2.34184
G01 X-4.19100 Y-2.33910
G01 X-4.18477 Y-2.33584
G01 X-4.17961 Y-2.33368
G01 X-4.17290 Y-2.33156
G01 X-4.16785 Y-2.33034
G01 X-4.16311 Y-2.32961
G01 X-4.15598 Y-2.32900
G01 X-3.79609 Y-2.32895
G01 X-3.79195 Y-2.32912
G01 X-3.78649 Y-2.32965
G01 X-3.78294 Y-2.33019
G01 X-3.77903 Y-2.33103
G01 X-3.77001 Y-2.33381
G01 X-3.76632 Y-2.33533
G01 X-3.76273 Y-2.33710
G01 X-3.75796 Y-2.33970
G01 X-3.75425 Y-2.34207
G01 X-3.75105 Y-2.34446
G01 X-3.74619 Y-2.34850
G01 X-3.64267 Y-2.45189
G01 X-3.63743 Y-2.45243
G01 X-3.63247 Y-2.45318
G01 X-3.62887 Y-2.45390
G01 X-3.62125 Y-2.45589
G01 X-3.61235 Y-2.45908
G01 X-3.60463 Y-2.46268
G01 X-3.59749 Y-2.46679
G01 X-3.59036 Y-2.47175
G01 X-3.58611 Y-2.47519
G01 X-3.31393 Y-2.47519
G01 X-3.30821 Y-2.47066
G01 X-3.30238 Y-2.46669
G01 X-3.29591 Y-2.46296
G01 X-3.28970 Y-2.45996
G01 X-3.28296 Y-2.45728
G01 X-3.27602 Y-2.45510
G01 X-3.26878 Y-2.45341
G01 X-3.26314 Y-2.45249
G01 X-3.25512 Y-2.45173
G01 X-3.24850 Y-2.45162
G01 X-3.24418 Y-2.45178
G01 X-3.23642 Y-2.45254
G01 X-3.22922 Y-2.45382
G01 X-3.22492 Y-2.45487
G01 X-3.21816 Y-2.45689
G01 X-3.21047 Y-2.45988
G01 X-3.20318 Y-2.46346
G01 X-3.19934 Y-2.46566
G01 X-3.19280 Y-2.46993
G01 X-3.18608 Y-2.47518
G01 X-3.17976 Y-2.48108
G01 X-3.17476 Y-2.48662
G01 X-3.17193 Y-2.49010
G01 X-3.16739 Y-2.49653
G01 X-3.16359 Y-2.50294
G01 X-3.16140 Y-2.50724
G01 X-3.15844 Y-2.51393
G01 X-3.15564 Y-2.52209
G01 X-3.15358 Y-2.53036
G01 X-3.15240 Y-2.53768
G01 X-3.15192 Y-2.54213
G01 X-3.15159 Y-2.55004
G01 X-3.15200 Y-2.55888
G01 X-3.15299 Y-2.56633
G01 X-3.15392 Y-2.57119
G01 X-3.15583 Y-2.57856
G01 X-3.15830 Y-2.58566
G01 X-3.16022 Y-2.59022
G01 X-3.16357 Y-2.59705
G01 X-3.16787 Y-2.60420
G01 X-3.17254 Y-2.61067
G01 X-3.17552 Y-2.61428
G01 X-3.18083 Y-2.61999
G01 X-3.18719 Y-2.62575
G01 X-3.19342 Y-2.63049
G01 X-3.19719 Y-2.63302
G01 X-3.20374 Y-2.63685
G01 X-3.21091 Y-2.64030
G01 X-3.21870 Y-2.64326
G01 X-3.22343 Y-2.64473
G01 X-3.23083 Y-2.64652
G01 X-3.23866 Y-2.64774
G01 X-3.24277 Y-2.64812
G01 X-3.25094 Y-2.64840
G01 X-3.25723 Y-2.64814
G01 X-3.26440 Y-2.64735
G01 X-3.27149 Y-2.64603
G01 X-3.27812 Y-2.64430
G01 X-3.28460 Y-2.64212
G01 X-3.29087 Y-2.63951
G01 X-3.29754 Y-2.63616
G01 X-3.30337 Y-2.63267
G01 X-3.30917 Y-2.62863
G01 X-3.31392 Y-2.62480
G01 X-3.58608 Y-2.62480
G01 X-3.58908 Y-2.62726
G01 X-3.59438 Y-2.63117
G01 X-3.60054 Y-2.63507
G01 X-3.60125 Y-2.63498
G01 X-3.60060 Y-2.63506
G01 X-3.54207 Y-2.69359
G01 X-3.21030 Y-2.69360
G01 X-3.20616 Y-2.69377
G01 X-3.19991 Y-2.69441
G01 X-3.19636 Y-2.69499
G01 X-3.19247 Y-2.69589
G01 X-3.18423 Y-2.69847
G01 X-3.18089 Y-2.69982
G01 X-3.17765 Y-2.70137
G01 X-3.17286 Y-2.70395
G01 X-3.16946 Y-2.70605
G01 X-3.16620 Y-2.70837
G01 X-3.16197 Y-2.71180
G01 X-3.15829 Y-2.71514
G01 X-3.11514 Y-2.75829
G01 X-3.11261 Y-2.76102
G01 X-3.10936 Y-2.76494
G01 X-3.10627 Y-2.76912
G01 X-3.10356 Y-2.77356
G01 X-3.10032 Y-2.77980
G01 X-3.09806 Y-2.78536
G01 X-3.09599 Y-2.79208
G01 X-3.09484 Y-2.79715
G01 X-3.09388 Y-2.80492
G01 X-3.09360 Y-2.80988
G01 X-3.09361 Y-3.21886
G01 X-3.09380 Y-3.22259
G01 X-3.09435 Y-3.22802
G01 X-3.09559 Y-3.23470
G01 X-3.09833 Y-3.24373
G01 X-3.09982 Y-3.24744
G01 X-3.10137 Y-3.25068
G01 X-3.10435 Y-3.25616
G01 X-3.10718 Y-3.26052
G01 X-3.11180 Y-3.26636
G01 X-3.11485 Y-3.26975
G01 X-3.29810 Y-3.45296
G01 X-3.30356 Y-3.45759
G01 X-3.30741 Y-3.46045
G01 X-3.31182 Y-3.46319
G01 X-3.31805 Y-3.46646
G01 X-3.32322 Y-3.46862
G01 X-3.32993 Y-3.47074
G01 X-3.33498 Y-3.47196
G01 X-3.34011 Y-3.47273
G01 X-3.34560 Y-3.47324
G01 X-3.34933 Y-3.47335
G01 X-3.82157 Y-3.47335
G01 X-3.82653 Y-3.47315
G01 X-3.83434 Y-3.47225
G01 X-3.83943 Y-3.47116
G01 X-3.84579 Y-3.46927
G01 X-3.84992 Y-3.46775
G01 X-3.85427 Y-3.46576
G01 X-3.85976 Y-3.46280
G01 X-3.86414 Y-3.46000
G01 X-3.86999 Y-3.45541
G01 X-3.87370 Y-3.45210
G01 X-3.90330 Y-3.42250
G01 X-3.90581 Y-3.41975
G01 X-3.90929 Y-3.41551
G01 X-3.91165 Y-3.41229
G01 X-3.91359 Y-3.40926
G01 X-3.91783 Y-3.40128
G01 X-3.92035 Y-3.39497
G01 X-3.92274 Y-3.38668
G01 X-3.92607 Y-3.38400
G01 X-3.92930 Y-3.38099
G01 X-3.93229 Y-3.37774
G01 X-3.93483 Y-3.37455
G01 X-3.96517 Y-3.37455
G01 X-3.96931 Y-3.37954
G01 X-3.97423 Y-3.38426
G01 X-3.97933 Y-3.38816
G01 X-3.98518 Y-3.39168
G01 X-3.99140 Y-3.39449
G01 X-3.99751 Y-3.39646
G01 X-4.00380 Y-3.39777
G01 X-4.01019 Y-3.39838
G01 X-4.08740 Y-3.39843
G01 X-4.09181 Y-3.39826
G01 X-4.09541 Y-3.39788
G01 X-4.09897 Y-3.39728
G01 X-4.10557 Y-3.39556
G01 X-4.10935 Y-3.39419
G01 X-4.11302 Y-3.39258
G01 X-4.11685 Y-3.39056
G01 X-4.11681 Y-3.39012
G01 X-4.11685 Y-3.39056
G01 X-4.11702 Y-3.39061
G01 X-4.12329 Y-3.39267
G01 X-4.12754 Y-3.39379
G01 X-4.13701 Y-3.39558
G01 X-4.14688 Y-3.39640
G01 X-4.15291 Y-3.39893
G01 X-4.16122 Y-3.40145
G01 X-4.16710 Y-3.40262
G01 X-4.17460 Y-3.40340
G01 X-4.17874 Y-3.40354
G01 X-4.43484 Y-3.40354
G01 X-4.44138 Y-3.40702
G01 X-4.44538 Y-3.40884
G01 X-4.44951 Y-3.41035
G01 X-4.45736 Y-3.41273
G01 X-4.46125 Y-3.41365
G01 X-4.46559 Y-3.41436
G01 X-4.47338 Y-3.41514
G01 X-4.47793 Y-3.41535
G01 X-4.52290 Y-3.41534
G01 X-4.52703 Y-3.41511
G01 X-4.53599 Y-3.41414
G01 X-4.54264 Y-3.41273
G01 X-4.55011 Y-3.41048
G01 X-4.55350 Y-3.40928
G01 X-4.55933 Y-3.40666
G01 X-4.56585 Y-3.40316
G01 X-4.56927 Y-3.40109
G01 X-4.57412 Y-3.39756
G01 X-4.57952 Y-3.39311
G01 X-4.58247 Y-3.39041
G01 X-4.58654 Y-3.38600
G01 X-4.59097 Y-3.38058
G01 X-4.59311 Y-3.37769
G01 X-4.59627 Y-3.37259
G01 X-4.59975 Y-3.36606
G01 X-4.60128 Y-3.36281
G01 X-4.60327 Y-3.35757
G01 X-4.60613 Y-3.34779
G01 X-4.60732 Y-3.34110
G01 X-4.60824 Y-3.33054
G01 X-4.60812 Y-3.32455
G01 X-4.60722 Y-3.31559
G01 X-4.60664 Y-3.31204
G01 X-4.60584 Y-3.30853
G01 X-4.60288 Y-3.29877
G01 X-4.60144 Y-3.29504
G01 X-4.59993 Y-3.29177
G01 X-4.59867 Y-3.28937
G01 X-4.59822 Y-3.28937
G01 X-4.59867 Y-3.28937
G01 X-4.59975 Y-3.28732
G01 X-4.60248 Y-3.28110
G01 X-4.60531 Y-3.27214
G01 X-4.60656 Y-3.26709
G01 X-4.60737 Y-3.26196
G01 X-4.60823 Y-3.25220
G01 X-4.60825 Y-3.24860
G01 X-4.60806 Y-3.24501
G01 X-4.60791 Y-3.24345
G01 X-4.60747 Y-3.24314
G01 X-4.60794 Y-3.24347
G01 X-4.61638 Y-3.24080
G01 X-4.62079 Y-3.23892
G01 X-4.62632 Y-3.23604
G01 X-4.62976 Y-3.23401
G01 X-4.63339 Y-3.23152
G01 X-4.63826 Y-3.22761
G01 X-4.64135 Y-3.22485
G01 X-4.82815 Y-3.03806
G01 X-4.83146 Y-3.03435
G01 X-4.83605 Y-3.02850
G01 X-4.83865 Y-3.02447
G01 X-4.84181 Y-3.01863
G01 X-4.84334 Y-3.01538
G01 X-4.84467 Y-3.01204
G01 X-4.84721 Y-3.00379
G01 X-4.84848 Y-2.99752
G01 X-4.84926 Y-2.99006
G01 X-4.84940 Y-2.98593
G01 X-4.84937 Y-2.91200
G01 X-4.84878 Y-2.90486
G01 X-4.84816 Y-2.90051
G01 X-4.84711 Y-2.89583
G01 X-4.84544 Y-2.89023
G01 X-4.84410 Y-2.88647
G01 X-4.84234 Y-2.88244
G01 X-4.83924 Y-2.87657
G01 X-4.83717 Y-2.87315
G01 X-4.83364 Y-2.86830
G01 X-4.83039 Y-2.86438
G01 X-4.82786 Y-2.86165
G01 X-4.70061 Y-2.73447
G01 X-4.69545 Y-2.73012
G01 X-4.69193 Y-2.72748
G01 X-4.68788 Y-2.72491
G01 X-4.68275 Y-2.72213
G01 X-4.67914 Y-2.72042
G01 X-4.67504 Y-2.71882
G01 X-4.66909 Y-2.71697
G01 X-4.66521 Y-2.71599
G01 X-4.65890 Y-2.71498
G01 X-4.65341 Y-2.71447
G01 X-4.64969 Y-2.71435
G01 X-4.15647 Y-2.71435
G01 X-4.15275 Y-2.71450
G01 X-4.14728 Y-2.71502
G01 X-4.14097 Y-2.71608
G01 X-4.13711 Y-2.71708
G01 X-4.13116 Y-2.71895
G01 X-4.12797 Y-2.72019
G01 X-4.12756 Y-2.72085
G04 P0 ( dwell for no time -- G64 should not smooth over this point )
G00 Z0.08000 ( retract )

G00 X-4.34076 Y-3.03953 ( rapid move to begin. )
G01 F0.50000
( Mill infeed pass 1/1 )
G01 Z-0.04000
G04 P0 ( dwell for no time -- G64 should not smooth over this point )
G01 F1.00000
G01 X-4.34076 Y-3.03953
G01 X-4.34073 Y-3.24550
G01 X-4.34085 Y-3.24922
G01 X-4.34128 Y-3.25393
G01 X-4.34172 Y-3.25433
G01 X-4.34121 Y-3.25387
G01 X-4.23467 Y-3.25382
G01 X-4.22976 Y-3.24576
G01 X-4.22431 Y-3.23854
G01 X-4.22078 Y-3.23450
G01 X-4.21653 Y-3.23019
G01 X-4.21380 Y-3.22767
G01 X-4.20608 Y-3.22152
G01 X-4.19855 Y-3.21669
G01 X-4.19348 Y-3.21392
G01 X-4.18790 Y-3.21133
G01 X-4.18446 Y-3.20991
G01 X-4.17520 Y-3.20689
G01 X-4.16692 Y-3.20508
G01 X-4.16126 Y-3.20422
G01 X-4.15287 Y-3.20359
G01 X-4.14285 Y-3.20381
G01 X-4.13338 Y-3.20499
G01 X-4.12673 Y-3.20642
G01 X-4.12314 Y-3.20736
G01 X-4.11684 Y-3.20944
G01 X-4.11680 Y-3.20987
G01 X-4.11684 Y-3.20944
G01 X-4.11290 Y-3.20736
G01 X-4.11168 Y-3.20761
G01 X-4.11239 Y-3.20747
G01 X-4.27480 Y-3.04505
G01 X-4.28191 Y-3.04672
G01 X-4.29122 Y-3.04801
G01 X-4.30105 Y-3.04837
G01 X-4.30679 Y-3.04814
G01 X-4.31584 Y-3.04712
G01 X-4.32592 Y-3.04493
G01 X-4.32967 Y-3.04379
G01 X-4.33668 Y-3.04131
G01 X-4.34076 Y-3.03953
G01 X-4.34119 Y-3.03887
G04 P0 ( dwell for no time -- G64 should not smooth over this point )
G00 Z0.08000 ( retract )

G00 X-4.39788 Y-2.95384 ( rapid move to begin. )
G01 F0.50000
( Mill infeed pass 1/1 )
G01 Z-0.04000
G04 P0 ( dwell for no time -- G64 should not smooth over this point )
G01 F1.00000
G01 X-4.39788 Y-2.95384
G01 X-4.39831 Y-2.95284
G01 X-4.42197 Y-2.92919
G01 X-4.42268 Y-2.92904
G01 X-4.42179 Y-2.92922
G01 X-4.42029 Y-2.92865
G01 X-4.41199 Y-2.92481
G01 X-4.39512 Y-2.92481
G01 X-4.39704 Y-2.93390
G01 X-4.39771 Y-2.93832
G01 X-4.39834 Y-2.94647
G01 X-4.39831 Y-2.95284
G04 P0 ( dwell for no time -- G64 should not smooth over this point )
G00 Z0.08000 ( retract )

G00 X-4.63317 Y-3.02217 ( rapid move to begin. )
G01 F0.50000
( Mill infeed pass 1/1 )
G01 Z-0.04000
G04 P0 ( dwell for no time -- G64 should not smooth over this point )
G01 F1.00000
G01 X-4.63317 Y-3.02217
G01 X-4.63063 Y-3.01979
G01 X-4.62618 Y-3.01507
G01 X-4.62065 Y-3.00819
G01 X-4.61569 Y-3.00074
G01 X-4.61159 Y-2.99320
G01 X-4.61019 Y-2.99018
G01 X-4.60773 Y-2.98419
G01 X-4.60514 Y-2.97618
G01 X-4.60316 Y-2.96745
G01 X-4.60212 Y-2.95991
G01 X-4.48984 Y-3.07218
G01 X-4.48984 Y-3.08465
G01 X-4.48944 Y-3.08505
G01 X-4.48984 Y-3.08465
G01 X-4.52248 Y-3.08465
G01 X-4.52662 Y-3.08485
G01 X-4.53441 Y-3.08564
G01 X-4.54109 Y-3.08687
G01 X-4.55049 Y-3.08965
G01 X-4.55572 Y-3.09163
G01 X-4.56107 Y-3.09427
G01 X-4.63317 Y-3.02217
G01 X-4.63374 Y-3.02217

G00 Z1.00000 (Retract to tool change height)
T2
M5      (Spindle stop.)
G04 P1.00000 (Wait for spindle to stop)
(MSG, Change tool bit to mill diameter 0.00787in)
M6      (Tool change.)
M0      (Temporary machine stop.)
M3 ( Spindle on clockwise. )
G04 P1.00000 (Wait for spindle to get up to speed)
G04 P0 ( dwell for no time -- G64 should not smooth over this point )
G00 Z0.08000 ( retract )

G00 X-3.28058 Y-2.58062 ( rapid move to begin. )
G01 F0.50000
( Mill infeed pass 1/1 )
G01 Z-0.04000
G04 P0 ( dwell for no time -- G64 should not smooth over this point )
G01 F1.00000
G01 X-3.28058 Y-2.58062
G01 X-3.28297 Y-2.57804
G01 X-3.28495 Y-2.57554
G01 X-3.28682 Y-2.57275
G01 X-3.28853 Y-2.56969
G01 X-3.30943 Y-2.56969
G04 P0 ( dwell for no time -- G64 should not smooth over this point )
G00 Z0.08000 ( retract )

G00 X-3.28045 Y-2.51924 ( rapid move to begin. )
G01 F0.50000
( Mill infeed pass 1/1 )
G01 Z-0.04000
G04 P0 ( dwell for no time -- G64 should not smooth over this point )
G01 F1.00000
G01 X-3.28045 Y-2.51924
G01 X-3.28268 Y-2.52162
G01 X-3.28492 Y-2.52443
G01 X-3.28671 Y-2.52707
G01 X-3.28853 Y-2.53031
G01 X-3.30960 Y-2.53031
G04 P0 ( dwell for no time -- G64 should not smooth over this point )
G00 Z0.08000 ( retract )

G00 X-3.59041 Y-2.53031 ( rapid move to begin. )
G01 F0.50000
( Mill infeed pass 1/1 )
G01 Z-0.04000
G04 P0 ( dwell for no time -- G64 should not smooth over this point )
G01 F1.00000
G01 X-3.59041 Y-2.53031
G01 X-3.61150 Y-2.53031
G01 X-3.61228 Y-2.52877
G01 X-3.61451 Y-2.52523
G01 X-3.61681 Y-2.52221
G01 X-3.61958 Y-2.51921
G04 P0 ( dwell for no time -- G64 should not smooth over this point )
G00 Z0.08000 ( retract )

G00 X-3.64984 Y-2.50672 ( rapid move to begin. )
G01 F0.50000
( Mill infeed pass 1/1 )
G01 Z-0.04000
G04 P0 ( dwell for no time -- G64 should not smooth over this point )
G01 F1.00000
G01 X-3.64984 Y-2.50672
G01 X-3.65376 Y-2.50688
G01 X-3.65791 Y-2.50745
G01 X-3.66197 Y-2.50841
G01 X-3.66357 Y-2.50894
G01 X-3.67864 Y-2.49387
G04 P0 ( dwell for no time -- G64 should not smooth over this point )
G00 Z0.08000 ( retract )

G00 X-3.59040 Y-2.56969 ( rapid move to begin. )
G01 F0.50000
( Mill infeed pass 1/1 )
G01 Z-0.04000
G04 P0 ( dwell for no time -- G64 should not smooth over this point )
G01 F1.00000
G01 X-3.59040 Y-2.56969
G01 X-3.61147 Y-2.56969
G01 X-3.61346 Y-2.57320
G01 X-3.61534 Y-2.57592
G01 X-3.61748 Y-2.57857
G01 X-3.61967 Y-2.58087
G01 X-3.54595 Y-2.74871
G01 X-3.56490 Y-2.74871
G01 X-3.70136 Y-2.61226
G01 X-3.70430 Y-2.60984
G01 X-3.70803 Y-2.60791
G01 X-3.71131 Y-2.60694
G01 X-3.71471 Y-2.60658
G01 X-3.74216 Y-2.60656
G01 X-3.74216 Y-2.55710
G01 X-3.74235 Y-2.55588
G01 X-3.74269 Y-2.55513
G01 X-3.74317 Y-2.55446
G01 X-3.74413 Y-2.55369
G01 X-3.74488 Y-2.55335
G01 X-3.74610 Y-2.55316
G01 X-3.86035 Y-2.55316
G01 X-3.91935 Y-2.49416
G01 X-3.92230 Y-2.49174
G01 X-3.92566 Y-2.48994
G01 X-3.92716 Y-2.48947
G01 X-3.92716 Y-2.43900
G01 X-3.92735 Y-2.43778
G01 X-3.92769 Y-2.43703
G01 X-3.92817 Y-2.43636
G01 X-3.92913 Y-2.43559
G01 X-3.92988 Y-2.43526
G01 X-3.93110 Y-2.43506
G01 X-4.06890 Y-2.43506
G01 X-4.07012 Y-2.43526
G01 X-4.07087 Y-2.43559
G01 X-4.07182 Y-2.43636
G01 X-4.07231 Y-2.43703
G01 X-4.07264 Y-2.43778
G01 X-4.07284 Y-2.43900
G01 X-4.07284 Y-2.57680
G01 X-4.07250 Y-2.57840
G01 X-4.07209 Y-2.57911
G01 X-4.07121 Y-2.57999
G01 X-4.07012 Y-2.58054
G01 X-4.06890 Y-2.58074
G01 X-3.93110 Y-2.58074
G01 X-3.92988 Y-2.58054
G01 X-3.92878 Y-2.57999
G01 X-3.92791 Y-2.57911
G01 X-3.92735 Y-2.57802
G01 X-3.92718 Y-2.57721
G01 X-3.92716 Y-2.54133
G01 X-3.88784 Y-2.58065
G01 X-3.88781 Y-2.69531
G01 X-3.88764 Y-2.69612
G01 X-3.88708 Y-2.69721
G01 X-3.88621 Y-2.69808
G01 X-3.88550 Y-2.69850
G01 X-3.88431 Y-2.69882
G01 X-3.88039 Y-2.69884
G01 X-3.92716 Y-2.74561
G01 X-3.92716 Y-2.67520
G01 X-3.92735 Y-2.67398
G01 X-3.92769 Y-2.67323
G01 X-3.92847 Y-2.67227
G01 X-3.92913 Y-2.67179
G01 X-3.92988 Y-2.67145
G01 X-3.93110 Y-2.67126
G01 X-4.01345 Y-2.67126
G01 X-4.14529 Y-2.60534
G01 X-4.16062 Y-2.43811
G01 X-4.14545 Y-2.42294
G01 X-3.80455 Y-2.42294
G01 X-3.69106 Y-2.53643
G01 X-3.69163 Y-2.53814
G01 X-3.69259 Y-2.54231
G01 X-3.69314 Y-2.54646
G01 X-3.69328 Y-2.55036
G01 X-3.69303 Y-2.55468
G01 X-3.69242 Y-2.55859
G01 X-3.69156 Y-2.56209
G01 X-3.69011 Y-2.56627
G01 X-3.68845 Y-2.56987
G01 X-3.68667 Y-2.57300
G01 X-3.68419 Y-2.57653
G01 X-3.68187 Y-2.57928
G01 X-3.67906 Y-2.58207
G01 X-3.67572 Y-2.58481
G01 X-3.67243 Y-2.58702
G01 X-3.66896 Y-2.58891
G01 X-3.66532 Y-2.59048
G01 X-3.66191 Y-2.59161
G01 X-3.65759 Y-2.59261
G01 X-3.65402 Y-2.59309
G01 X-3.65060 Y-2.59328
G01 X-3.64719 Y-2.59319
G01 X-3.64390 Y-2.59285
G01 X-3.64055 Y-2.59224
G01 X-3.63725 Y-2.59137
G01 X-3.63326 Y-2.58989
G04 P0 ( dwell for no time -- G64 should not smooth over this point )
G00 Z0.08000 ( retract )

G00 X-3.74261 Y-2.69671 ( rapid move to begin. )
G01 F0.50000
( Mill infeed pass 1/1 )
G01 Z-0.04000
G04 P0 ( dwell for no time -- G64 should not smooth over this point )
G01 F1.00000
G01 X-3.74261 Y-2.69671
G01 X-3.74225 Y-2.69572
G01 X-3.74216 Y-2.69490
G01 X-3.74216 Y-2.64544
G01 X-3.72315 Y-2.64544
G01 X-3.67113 Y-2.69746
G01 X-3.63139 Y-2.91099
G01 X-3.57412 Y-2.78749
G01 X-3.63139 Y-2.91099
G01 X-3.62966 Y-2.91179
G01 X-3.62652 Y-2.91364
G01 X-3.62347 Y-2.91580
G01 X-3.62062 Y-2.91821
G01 X-3.61806 Y-2.92078
G01 X-3.61572 Y-2.92357
G01 X-3.61357 Y-2.92662
G01 X-3.61135 Y-2.93056
G01 X-3.60648 Y-2.93056
G01 X-3.52784 Y-2.85192
G01 X-3.52794 Y-2.84985
G01 X-3.52773 Y-2.84646
G01 X-3.52703 Y-2.84271
G01 X-3.52582 Y-2.83899
G01 X-3.52391 Y-2.83510
G01 X-3.52171 Y-2.83186
G01 X-3.51910 Y-2.82893
G01 X-3.51618 Y-2.82641
G01 X-3.51369 Y-2.82473
G01 X-3.51095 Y-2.82326
G01 X-3.50816 Y-2.82213
G01 X-3.50517 Y-2.82126
G01 X-3.50251 Y-2.82076
G01 X-3.49941 Y-2.82049
G01 X-3.49640 Y-2.82055
G01 X-3.49332 Y-2.82092
G01 X-3.48989 Y-2.82174
G01 X-3.48744 Y-2.82260
G01 X-3.48462 Y-2.82390
G01 X-3.48195 Y-2.82550
G01 X-3.47954 Y-2.82731
G01 X-3.47697 Y-2.82972
G01 X-3.47521 Y-2.83176
G01 X-3.47342 Y-2.83431
G01 X-3.47115 Y-2.83869
G01 X-3.46963 Y-2.84350
G01 X-3.46897 Y-2.84787
G01 X-3.46900 Y-2.85228
G01 X-3.46974 Y-2.85695
G01 X-3.47133 Y-2.86173
G01 X-3.47355 Y-2.86591
G01 X-3.47657 Y-2.86985
G01 X-3.47877 Y-2.87203
G01 X-3.48073 Y-2.87358
G01 X-3.42920 Y-2.87716
G01 X-3.49279 Y-2.87894
G01 X-3.49541 Y-2.87937
G01 X-3.49850 Y-2.87952
G01 X-3.50035 Y-2.87942
G01 X-3.50962 Y-2.88868
G01 X-3.50035 Y-2.87942
G01 X-3.49850 Y-2.87952
G01 X-3.49541 Y-2.87937
G01 X-3.49279 Y-2.87894
G01 X-3.42920 Y-2.87716
G01 X-3.42953 Y-2.87559
G01 X-3.42953 Y-2.82441
G01 X-3.42919 Y-2.82281
G01 X-3.42852 Y-2.82178
G01 X-3.42719 Y-2.82081
G01 X-3.42559 Y-2.82047
G01 X-3.37441 Y-2.82047
G01 X-3.37359 Y-2.82056
G01 X-3.37244 Y-2.82100
G01 X-3.37148 Y-2.82178
G01 X-3.37081 Y-2.82281
G01 X-3.37047 Y-2.82441
G01 X-3.37047 Y-2.83056
G01 X-3.35000 Y-2.83056
G01 X-3.34659 Y-2.83088
G01 X-3.34256 Y-2.83204
G01 X-3.33889 Y-2.83407
G01 X-3.33625 Y-2.83625
G01 X-3.26357 Y-2.90894
G01 X-3.26186 Y-2.90837
G01 X-3.25768 Y-2.90740
G01 X-3.25382 Y-2.90689
G01 X-3.25180 Y-2.90680
G01 X-3.24102 Y-2.90766
G01 X-3.23687 Y-2.90876
G01 X-3.23260 Y-2.91037
G01 X-3.22876 Y-2.91228
G01 X-3.22513 Y-2.91457
G01 X-3.22175 Y-2.91720
G01 X-3.21872 Y-2.92008
G01 X-3.21615 Y-2.92302
G01 X-3.21365 Y-2.92650
G01 X-3.21150 Y-2.93022
G01 X-3.20973 Y-2.93412
G01 X-3.20839 Y-2.93808
G01 X-3.20745 Y-2.94205
G01 X-3.20689 Y-2.94618
G01 X-3.20672 Y-2.95036
G01 X-3.20695 Y-2.95453
G01 X-3.20759 Y-2.95866
G01 X-3.20863 Y-2.96271
G01 X-3.21000 Y-2.96654
G01 X-3.21173 Y-2.97023
G01 X-3.21386 Y-2.97382
G01 X-3.21633 Y-2.97719
G01 X-3.21910 Y-2.98031
G01 X-3.22217 Y-2.98315
G01 X-3.22550 Y-2.98568
G01 X-3.22905 Y-2.98788
G01 X-3.23056 Y-2.98863
G01 X-3.23056 Y-3.18021
G01 X-3.23094 Y-3.18400
G01 X-3.23191 Y-3.18729
G01 X-3.23407 Y-3.19132
G01 X-3.23625 Y-3.19395
G01 X-3.30604 Y-3.26374
G01 X-3.30899 Y-3.26616
G01 X-3.31235 Y-3.26796
G01 X-3.31599 Y-3.26906
G01 X-3.31979 Y-3.26944
G01 X-3.35372 Y-3.26944
G01 X-3.35608 Y-3.27227
G01 X-3.36085 Y-3.27619
G01 X-3.36629 Y-3.27910
G01 X-3.37258 Y-3.28095
G01 X-3.37835 Y-3.28150
G01 X-3.42204 Y-3.28148
G01 X-3.42780 Y-3.28089
G01 X-3.43371 Y-3.27910
G01 X-3.43915 Y-3.27619
G01 X-3.44364 Y-3.27253
G01 X-3.44804 Y-3.26717
G01 X-3.45075 Y-3.26205
G01 X-3.45248 Y-3.25639
G01 X-3.50008 Y-3.30905
G04 P0 ( dwell for no time -- G64 should not smooth over this point )
G00 Z0.08000 ( retract )

G00 X-3.29328 Y-2.95017 ( rapid move to begin. )
G01 F0.50000
( Mill infeed pass 1/1 )
G01 Z-0.04000
G04 P0 ( dwell for no time -- G64 should not smooth over this point )
G01 F1.00000
G01 X-3.29328 Y-2.95017
G01 X-3.29312 Y-2.94623
G01 X-3.29255 Y-2.94209
G01 X-3.29159 Y-2.93803
G01 X-3.29106 Y-2.93643
G01 X-3.35805 Y-2.86944
G01 X-3.37047 Y-2.86944
G01 X-3.37056 Y-2.87641
G01 X-3.37122 Y-2.87790
G01 X-3.37177 Y-2.87852
G01 X-3.37279 Y-2.87918
G01 X-3.28064 Y-2.98057
G01 X-3.27762 Y-2.98332
G01 X-3.27459 Y-2.98562
G01 X-3.27104 Y-2.98782
G01 X-3.26944 Y-2.98863
G01 X-3.26944 Y-3.17216
G01 X-3.32784 Y-3.23056
G01 X-3.35372 Y-3.23056
G01 X-3.35608 Y-3.22773
G01 X-3.36054 Y-3.22404
G01 X-3.36594 Y-3.22107
G01 X-3.37220 Y-3.21911
G01 X-3.37796 Y-3.21852
G01 X-3.42204 Y-3.21852
G01 X-3.42780 Y-3.21911
G01 X-3.43334 Y-3.22077
G01 X-3.43882 Y-3.22361
G01 X-3.44392 Y-3.22773
G01 X-3.44784 Y-3.23250
G01 X-3.45075 Y-3.23795
G01 X-3.45248 Y-3.24361
G01 X-3.50008 Y-3.30905
G01 X-3.44607 Y-3.30905
G01 X-3.44392 Y-3.30647
G01 X-3.43946 Y-3.30278
G01 X-3.43405 Y-3.29981
G01 X-3.42780 Y-3.29785
G01 X-3.42204 Y-3.29726
G01 X-3.37835 Y-3.29724
G01 X-3.37220 Y-3.29785
G01 X-3.36666 Y-3.29951
G01 X-3.36085 Y-3.30255
G01 X-3.35582 Y-3.30675
G01 X-3.35216 Y-3.31124
G01 X-3.34941 Y-3.31634
G01 X-3.34740 Y-3.32298
G01 X-3.34685 Y-3.32874
G01 X-3.34740 Y-3.33450
G01 X-3.34925 Y-3.34079
G01 X-3.35239 Y-3.34655
G01 X-3.35608 Y-3.35101
G01 X-3.36054 Y-3.35470
G01 X-3.36666 Y-3.35797
G01 X-3.37220 Y-3.35963
G01 X-3.37796 Y-3.36022
G01 X-3.42165 Y-3.36024
G01 X-3.42780 Y-3.35963
G01 X-3.43405 Y-3.35767
G01 X-3.43946 Y-3.35470
G01 X-3.44392 Y-3.35101
G01 X-3.44607 Y-3.34843
G01 X-3.67160 Y-3.34841
G01 X-3.67469 Y-3.34813
G01 X-3.67801 Y-3.34723
G01 X-3.72266 Y-3.33093
G01 X-3.72434 Y-3.33240
G01 X-3.72767 Y-3.33478
G01 X-3.73161 Y-3.33702
G01 X-3.73577 Y-3.33881
G01 X-3.74052 Y-3.34023
G01 X-3.74498 Y-3.34103
G01 X-3.74950 Y-3.34133
G01 X-3.75399 Y-3.34114
G01 X-3.75782 Y-3.34059
G01 X-3.76122 Y-3.33978
G01 X-3.76489 Y-3.33856
G01 X-3.76852 Y-3.33695
G01 X-3.77190 Y-3.33506
G01 X-3.77537 Y-3.33263
G01 X-3.77839 Y-3.33004
G01 X-3.78107 Y-3.32726
G01 X-3.78348 Y-3.32424
G01 X-3.78541 Y-3.32132
G01 X-3.78729 Y-3.31782
G01 X-3.78892 Y-3.31391
G01 X-3.79005 Y-3.31021
G01 X-3.79077 Y-3.30678
G01 X-3.79126 Y-3.30247
G01 X-3.79131 Y-3.29859
G01 X-3.79102 Y-3.29490
G01 X-3.79031 Y-3.29088
G01 X-3.78922 Y-3.28694
G01 X-3.78762 Y-3.28288
G01 X-3.78574 Y-3.27924
G01 X-3.78352 Y-3.27582
G01 X-3.78122 Y-3.27291
G01 X-3.77847 Y-3.27004
G01 X-3.77507 Y-3.26714
G01 X-3.77180 Y-3.26488
G01 X-3.76822 Y-3.26290
G01 X-3.76447 Y-3.26128
G01 X-3.76058 Y-3.26004
G01 X-3.75668 Y-3.25921
G01 X-3.75301 Y-3.25877
G01 X-3.74855 Y-3.25869
G01 X-3.74481 Y-3.25899
G01 X-3.74145 Y-3.25956
G01 X-3.73782 Y-3.26050
G01 X-3.73428 Y-3.26177
G01 X-3.73056 Y-3.26352
G01 X-3.72763 Y-3.26524
G01 X-3.72457 Y-3.26742
G01 X-3.72171 Y-3.26986
G01 X-3.71967 Y-3.27196
G01 X-3.67280 Y-3.30722
G01 X-3.66778 Y-3.30905
G01 X-3.66243 Y-3.30905
G01 X-3.68918 Y-3.30124
G01 X-3.70914 Y-3.29396
G01 X-3.71018 Y-3.28891
G01 X-3.71135 Y-3.28534
G01 X-3.71302 Y-3.28156
G04 P0 ( dwell for no time -- G64 should not smooth over this point )
G00 Z0.08000 ( retract )

G00 X-3.93069 Y-3.31944 ( rapid move to begin. )
G01 F0.50000
( Mill infeed pass 1/1 )
G01 Z-0.04000
G04 P0 ( dwell for no time -- G64 should not smooth over this point )
G01 F1.00000
G01 X-3.93069 Y-3.31944
G01 X-3.89134 Y-3.31944
G01 X-3.89132 Y-3.33978
G01 X-3.89119 Y-3.34041
G01 X-3.88951 Y-3.34285
G01 X-3.88740 Y-3.34331
G01 X-3.86944 Y-3.34331
G01 X-3.86944 Y-3.37037
G01 X-3.86927 Y-3.37225
G01 X-3.88951 Y-3.34285
G01 X-3.96932 Y-3.31944
G01 X-4.00866 Y-3.31944
G01 X-4.00866 Y-3.33937
G01 X-4.00880 Y-3.34039
G04 P0 ( dwell for no time -- G64 should not smooth over this point )
G00 Z0.08000 ( retract )

G00 X-4.15137 Y-3.34125 ( rapid move to begin. )
G01 F0.50000
( Mill infeed pass 1/1 )
G01 Z-0.04000
G04 P0 ( dwell for no time -- G64 should not smooth over this point )
G01 F1.00000
G01 X-4.15137 Y-3.34125
G01 X-4.15470 Y-3.34106
G01 X-4.15914 Y-3.34031
G01 X-4.16173 Y-3.33957
G01 X-4.16510 Y-3.34292
G01 X-4.16839 Y-3.34545
G01 X-4.09078 Y-3.34139
G01 X-4.09115 Y-3.34059
G01 X-4.09134 Y-3.33937
G01 X-4.09134 Y-3.26063
G01 X-4.09099 Y-3.25901
G01 X-4.13089 Y-3.26336
G01 X-4.12769 Y-3.26520
G01 X-4.12467 Y-3.26734
G01 X-4.12128 Y-3.27027
G01 X-4.11849 Y-3.27325
G01 X-4.11606 Y-3.27640
G01 X-4.11409 Y-3.27953
G01 X-4.11213 Y-3.28343
G01 X-4.11071 Y-3.28715
G01 X-4.10972 Y-3.29071
G01 X-4.10895 Y-3.29512
G01 X-4.10867 Y-3.29924
G01 X-4.10888 Y-3.30421
G01 X-4.10971 Y-3.30923
G01 X-4.11114 Y-3.31409
G01 X-4.11290 Y-3.31823
G01 X-4.11542 Y-3.32264
G01 X-4.11870 Y-3.32700
G01 X-4.12225 Y-3.33063
G01 X-4.12612 Y-3.33374
G01 X-4.13093 Y-3.33663
G01 X-4.12612 Y-3.33374
G01 X-4.12225 Y-3.33063
G01 X-4.11870 Y-3.32700
G01 X-4.11542 Y-3.32264
G01 X-4.11290 Y-3.31823
G01 X-4.11114 Y-3.31409
G01 X-4.10971 Y-3.30923
G01 X-4.10888 Y-3.30421
G01 X-4.10867 Y-3.29924
G01 X-4.10895 Y-3.29512
G01 X-4.10972 Y-3.29071
G01 X-4.11071 Y-3.28715
G01 X-4.11213 Y-3.28343
G01 X-4.11409 Y-3.27953
G01 X-4.11606 Y-3.27640
G01 X-4.11849 Y-3.27325
G01 X-4.12128 Y-3.27027
G01 X-4.12467 Y-3.26734
G01 X-4.12769 Y-3.26520
G01 X-4.13089 Y-3.26336
G01 X-4.08712 Y-3.25669
G01 X-4.01219 Y-3.25671
G01 X-4.01100 Y-3.25703
G01 X-4.00967 Y-3.25800
G01 X-4.00900 Y-3.25903
G01 X-4.00868 Y-3.26022
G01 X-4.00866 Y-3.28056
G01 X-3.89134 Y-3.28056
G01 X-3.89132 Y-3.26022
G01 X-3.89100 Y-3.25903
G01 X-3.89033 Y-3.25800
G01 X-3.88971 Y-3.25744
G01 X-3.88862 Y-3.25689
G01 X-3.88740 Y-3.25669
G01 X-3.81260 Y-3.25669
G01 X-3.81100 Y-3.25703
G01 X-3.80967 Y-3.25800
G01 X-3.80900 Y-3.25903
G01 X-3.80866 Y-3.26063
G01 X-3.80875 Y-3.34019
G01 X-3.80919 Y-3.34134
G01 X-3.80996 Y-3.34230
G01 X-3.81100 Y-3.34297
G01 X-3.81219 Y-3.34328
G01 X-3.83056 Y-3.34331
G01 X-3.83056 Y-3.36232
G01 X-3.81352 Y-3.37936
G01 X-3.35738 Y-3.37936
G01 X-3.18759 Y-3.20957
G01 X-3.18759 Y-2.81876
G01 X-3.21876 Y-2.78759
G01 X-3.57412 Y-2.78749
G01 X-3.70979 Y-2.93056
G01 X-3.68866 Y-2.93056
G01 X-3.68694 Y-2.92744
G01 X-3.68524 Y-2.92487
G01 X-3.68311 Y-2.92213
G01 X-3.68064 Y-2.91944
G04 P0 ( dwell for no time -- G64 should not smooth over this point )
G00 Z0.08000 ( retract )

G00 X-3.70973 Y-2.96950 ( rapid move to begin. )
G01 F0.50000
( Mill infeed pass 1/1 )
G01 Z-0.04000
G04 P0 ( dwell for no time -- G64 should not smooth over this point )
G01 F1.00000
G01 X-3.70973 Y-2.96950
G01 X-3.68863 Y-2.96950
G01 X-3.68683 Y-2.97274
G01 X-3.68505 Y-2.97539
G01 X-3.68290 Y-2.97813
G01 X-3.68056 Y-2.98064
G04 P0 ( dwell for no time -- G64 should not smooth over this point )
G00 Z0.08000 ( retract )

G00 X-3.61919 Y-2.98027 ( rapid move to begin. )
G01 F0.50000
( Mill infeed pass 1/1 )
G01 Z-0.04000
G04 P0 ( dwell for no time -- G64 should not smooth over this point )
G01 F1.00000
G01 X-3.61919 Y-2.98027
G01 X-3.61641 Y-2.97729
G01 X-3.61317 Y-2.97273
G01 X-3.61143 Y-2.96944
G01 X-3.59843 Y-2.96944
G01 X-3.59694 Y-2.96931
G01 X-3.46047 Y-3.15157
G01 X-3.44607 Y-3.15157
G01 X-3.44392 Y-3.14899
G01 X-3.44022 Y-3.14592
G01 X-3.28064 Y-2.98057
G01 X-3.35501 Y-3.15026
G01 X-3.35216 Y-3.15376
G01 X-3.34925 Y-3.15921
G01 X-3.34746 Y-3.16512
G01 X-3.34687 Y-3.17087
G01 X-3.34746 Y-3.17740
G01 X-3.34912 Y-3.18295
G01 X-3.35239 Y-3.18907
G01 X-3.35636 Y-3.19379
G01 X-3.36085 Y-3.19745
G01 X-3.36594 Y-3.20019
G01 X-3.37220 Y-3.20215
G01 X-3.37835 Y-3.20275
G01 X-3.42165 Y-3.20275
G01 X-3.42780 Y-3.20215
G01 X-3.43371 Y-3.20036
G01 X-3.43915 Y-3.19745
G01 X-3.44392 Y-3.19353
G01 X-3.44607 Y-3.19095
G01 X-4.04280 Y-3.19095
G01 X-4.04664 Y-3.19057
G01 X-4.04997 Y-3.18958
G01 X-4.05374 Y-3.18763
G01 X-4.05672 Y-3.18518
G01 X-4.26562 Y-2.97629
G01 X-4.26925 Y-2.98046
G01 X-4.27310 Y-2.98391
G01 X-4.27733 Y-2.98687
G01 X-4.28188 Y-2.98931
G01 X-4.39646 Y-3.03667
G01 X-4.39733 Y-3.03386
G01 X-4.39893 Y-3.03084
G01 X-4.40154 Y-3.02756
G01 X-4.53056 Y-2.89854
G01 X-4.53056 Y-2.87953
G01 X-4.52441 Y-2.87953
G01 X-4.52319 Y-2.87933
G01 X-4.52244 Y-2.87900
G01 X-4.52148 Y-2.87822
G01 X-4.52081 Y-2.87719
G01 X-4.52049 Y-2.87600
G01 X-4.52049 Y-2.82400
G01 X-4.52081 Y-2.82281
G01 X-4.52148 Y-2.82178
G01 X-4.52244 Y-2.82100
G01 X-4.52400 Y-2.82049
G01 X-4.57600 Y-2.82049
G01 X-4.57719 Y-2.82081
G01 X-4.57822 Y-2.82148
G01 X-4.57900 Y-2.82244
G01 X-4.57933 Y-2.82319
G01 X-4.57953 Y-2.82441
G01 X-4.57953 Y-2.83056
G01 X-4.60039 Y-2.83058
G01 X-4.60379 Y-2.83094
G01 X-4.60779 Y-2.83221
G01 X-4.61080 Y-2.83384
G01 X-4.61374 Y-2.83625
G01 X-4.68646 Y-2.90897
G01 X-4.68958 Y-2.90799
G01 X-4.69459 Y-2.90706
G01 X-4.70019 Y-2.90672
G01 X-4.70588 Y-2.90712
G01 X-4.71148 Y-2.90827
G01 X-4.71678 Y-2.91011
G01 X-4.72180 Y-2.91261
G01 X-4.72653 Y-2.91581
G01 X-4.73093 Y-2.91973
G01 X-4.73415 Y-2.92341
G01 X-4.73714 Y-2.92777
G01 X-4.73980 Y-2.93300
G01 X-4.74158 Y-2.93797
G01 X-4.74267 Y-2.94275
G01 X-4.74326 Y-2.94859
G01 X-4.74311 Y-2.95387
G01 X-4.74239 Y-2.95872
G01 X-4.74082 Y-2.96438
G01 X-4.73894 Y-2.96890
G01 X-4.73634 Y-2.97350
G01 X-4.73290 Y-2.97812
G01 X-4.72916 Y-2.98198
G01 X-4.72544 Y-2.98502
G01 X-4.72046 Y-2.98814
G01 X-4.71603 Y-2.99020
G01 X-4.71091 Y-2.99188
G01 X-4.70524 Y-2.99296
G01 X-4.70036 Y-2.99328
G01 X-4.69498 Y-2.99299
G01 X-4.68920 Y-2.99191
G01 X-4.68453 Y-2.99042
G01 X-4.67972 Y-2.98824
G01 X-4.67626 Y-2.98619
G01 X-4.67454 Y-2.98496
G04 P0 ( dwell for no time -- G64 should not smooth over this point )
G00 Z0.08000 ( retract )

G00 X-4.48150 Y-3.13976 ( rapid move to begin. )
G01 F0.50000
( Mill infeed pass 1/1 )
G01 Z-0.04000
G04 P0 ( dwell for no time -- G64 should not smooth over this point )
G01 F1.00000
G01 X-4.48150 Y-3.13976
G01 X-4.47796 Y-3.13978
G01 X-4.47183 Y-3.14046
G01 X-4.46629 Y-3.14216
G01 X-4.46085 Y-3.14507
G01 X-4.45608 Y-3.14899
G01 X-4.45216 Y-3.15376
G01 X-4.44925 Y-3.15921
G01 X-4.44755 Y-3.16474
G01 X-4.44685 Y-3.17126
G01 X-4.44740 Y-3.17702
G01 X-4.44941 Y-3.18366
G01 X-4.45216 Y-3.18876
G01 X-4.45608 Y-3.19353
G01 X-4.46085 Y-3.19745
G01 X-4.46629 Y-3.20036
G01 X-4.47220 Y-3.20215
G01 X-4.47835 Y-3.20275
G01 X-4.52204 Y-3.20274
G01 X-4.52780 Y-3.20215
G01 X-4.53406 Y-3.20019
G01 X-4.53946 Y-3.19722
G01 X-4.54392 Y-3.19353
G01 X-4.54627 Y-3.19070
G01 X-4.59008 Y-3.19066
G01 X-4.54670 Y-3.26892
G01 X-4.54670 Y-3.30982
G01 X-4.54392 Y-3.30647
G01 X-4.53946 Y-3.30278
G01 X-4.53406 Y-3.29981
G01 X-4.52780 Y-3.29785
G01 X-4.52165 Y-3.29724
G01 X-4.47835 Y-3.29724
G01 X-4.47220 Y-3.29785
G01 X-4.46629 Y-3.29964
G01 X-4.46085 Y-3.30255
G01 X-4.45608 Y-3.30647
G01 X-4.45393 Y-3.30905
G01 X-4.19031 Y-3.30905
G01 X-4.19114 Y-3.30397
G01 X-4.19132 Y-3.29922
G01 X-4.19102 Y-3.29493
G01 X-4.19003 Y-3.28971
G01 X-4.18871 Y-3.28552
G01 X-4.18741 Y-3.28256
G04 P0 ( dwell for no time -- G64 should not smooth over this point )
G00 Z0.08000 ( retract )

G00 X-4.43957 Y-3.34843 ( rapid move to begin. )
G01 F0.50000
( Mill infeed pass 1/1 )
G01 Z-0.04000
G04 P0 ( dwell for no time -- G64 should not smooth over this point )
G01 F1.00000
G01 X-4.43957 Y-3.34843
G01 X-4.45393 Y-3.34843
G01 X-4.45608 Y-3.35101
G01 X-4.45974 Y-3.35405
G04 P0 ( dwell for no time -- G64 should not smooth over this point )
G00 Z0.08000 ( retract )

G00 X-4.39709 Y-3.25221 ( rapid move to begin. )
G01 F0.50000
( Mill infeed pass 1/1 )
G01 Z-0.04000
G04 P0 ( dwell for no time -- G64 should not smooth over this point )
G01 F1.00000
G01 X-4.39709 Y-3.25221
G01 X-4.39749 Y-3.25328
G01 X-4.39912 Y-3.25630
G01 X-4.40154 Y-3.25924
G01 X-4.40604 Y-3.26374
G01 X-4.40868 Y-3.26593
G01 X-4.41235 Y-3.26796
G01 X-4.41599 Y-3.26906
G01 X-4.41979 Y-3.26944
G01 X-4.45372 Y-3.26944
G01 X-4.45608 Y-3.27227
G01 X-4.46085 Y-3.27619
G01 X-4.46629 Y-3.27910
G01 X-4.47220 Y-3.28089
G01 X-4.47835 Y-3.28150
G01 X-4.52165 Y-3.28150
G01 X-4.52780 Y-3.28089
G01 X-4.53334 Y-3.27923
G01 X-4.53946 Y-3.27596
G01 X-4.54392 Y-3.27227
G01 X-4.54670 Y-3.26892
G01 X-4.59008 Y-3.19066
G01 X-4.55205 Y-3.24216
G01 X-4.55075 Y-3.23795
G01 X-4.54804 Y-3.23283
G01 X-4.54392 Y-3.22773
G01 X-4.53915 Y-3.22381
G01 X-4.53406 Y-3.22107
G01 X-4.52742 Y-3.21905
G01 X-4.52165 Y-3.21850
G01 X-4.47835 Y-3.21850
G01 X-4.47258 Y-3.21905
G01 X-4.46629 Y-3.22090
G01 X-4.46085 Y-3.22381
G01 X-4.45608 Y-3.22773
G01 X-4.45372 Y-3.23056
G01 X-4.43472 Y-3.23056
G01 X-4.43472 Y-3.04935
G01 X-4.56476 Y-2.91913
G01 X-4.56593 Y-2.91770
G01 X-4.56809 Y-2.91366
G01 X-4.56906 Y-2.91038
G01 X-4.56942 Y-2.90698
G01 X-4.56944 Y-2.87953
G01 X-4.57600 Y-2.87950
G01 X-4.57719 Y-2.87919
G01 X-4.57822 Y-2.87852
G01 X-4.57900 Y-2.87756
G01 X-4.57951 Y-2.87600
G01 X-4.57953 Y-2.86944
G01 X-4.59195 Y-2.86944
G01 X-4.65893 Y-2.93642
G01 X-4.65760 Y-2.94130
G01 X-4.65698 Y-2.94521
G01 X-4.65672 Y-2.94916
G01 X-4.65677 Y-2.95127
G01 X-4.53824 Y-3.14457
G01 X-4.53946 Y-3.14530
G01 X-4.54364 Y-3.14873
G01 X-4.54627 Y-3.15182
G01 X-4.58147 Y-3.15182
G01 X-4.75541 Y-2.97788
G01 X-4.75541 Y-2.92212
G01 X-4.64163 Y-2.80835
G01 X-4.16494 Y-2.80835
G01 X-4.15155 Y-2.82173
G01 X-4.26691 Y-2.91931
G01 X-4.28031 Y-2.90591
G01 X-4.28031 Y-2.85000
G01 X-4.28069 Y-2.84616
G01 X-4.28198 Y-2.84212
G01 X-4.28363 Y-2.83906
G01 X-4.28582 Y-2.83636
G01 X-4.28906 Y-2.83363
G01 X-4.29247 Y-2.83181
G01 X-4.29616 Y-2.83069
G01 X-4.30000 Y-2.83031
G01 X-4.42962 Y-2.83031
G01 X-4.43075 Y-2.82907
G01 X-4.43334 Y-2.82678
G01 X-4.43619 Y-2.82481
G01 X-4.43924 Y-2.82318
G01 X-4.44246 Y-2.82192
G01 X-4.44536 Y-2.82114
G01 X-4.44878 Y-2.82061
G01 X-4.45224 Y-2.82049
G01 X-4.45735 Y-2.82105
G01 X-4.46179 Y-2.82231
G01 X-4.46598 Y-2.82424
G01 X-4.46982 Y-2.82680
G01 X-4.47279 Y-2.82947
G01 X-4.47572 Y-2.83303
G01 X-4.47807 Y-2.83700
G01 X-4.47978 Y-2.84128
G01 X-4.48058 Y-2.84451
G01 X-4.48103 Y-2.84802
G01 X-4.48107 Y-2.85114
G01 X-4.48083 Y-2.85393
G01 X-4.48023 Y-2.85710
G01 X-4.47932 Y-2.86009
G01 X-4.47787 Y-2.86343
G01 X-4.47630 Y-2.86613
G01 X-4.47439 Y-2.86873
G01 X-4.47259 Y-2.87074
G01 X-4.46996 Y-2.87310
G01 X-4.46742 Y-2.87491
G01 X-4.46461 Y-2.87649
G01 X-4.46174 Y-2.87772
G01 X-4.45907 Y-2.87856
G01 X-4.45601 Y-2.87919
G01 X-4.45215 Y-2.87951
G01 X-4.44783 Y-2.87928
G01 X-4.39137 Y-2.86969
G01 X-4.31969 Y-2.86969
G01 X-4.31969 Y-2.91154
G01 X-4.32252 Y-2.91304
G01 X-4.32711 Y-2.91626
G01 X-4.33117 Y-2.91997
G01 X-4.33448 Y-2.92384
G01 X-4.33777 Y-2.92887
G01 X-4.33999 Y-2.93346
G01 X-4.34108 Y-2.93660
G01 X-4.41522 Y-2.86969
G01 X-4.42964 Y-2.86969
G01 X-4.43110 Y-2.87127
G01 X-4.43368 Y-2.87348
G01 X-4.43547 Y-2.87469
G01 X-4.34271 Y-2.95686
G01 X-4.34160 Y-2.96196
G01 X-4.34013 Y-2.96622
G01 X-4.33827 Y-2.97021
G01 X-4.33596 Y-2.97408
G01 X-4.33326 Y-2.97769
G01 X-4.32975 Y-2.98144
G01 X-4.32579 Y-2.98476
G01 X-4.32279 Y-2.98673
G01 X-4.39646 Y-3.03667
G04 P0 ( dwell for no time -- G64 should not smooth over this point )
G00 Z0.08000 ( retract )

G00 X-4.04805 Y-3.13817 ( rapid move to begin. )
G01 F0.50000
( Mill infeed pass 1/1 )
G01 Z-0.04000
G04 P0 ( dwell for no time -- G64 should not smooth over this point )
G01 F1.00000
G01 X-4.04805 Y-3.13817
G01 X-4.03465 Y-3.15157
G01 X-4.01570 Y-3.15157
G04 P0 ( dwell for no time -- G64 should not smooth over this point )
G00 Z0.08000 ( retract )

G00 X-3.96880 Y-2.93056 ( rapid move to begin. )
G01 F0.50000
( Mill infeed pass 1/1 )
G01 Z-0.04000
G04 P0 ( dwell for no time -- G64 should not smooth over this point )
G01 F1.00000
G01 X-3.96880 Y-2.93056
G01 X-3.98775 Y-2.93056
G01 X-4.14314 Y-2.77516
G01 X-4.14585 Y-2.77292
G01 X-4.28695 Y-2.59121
G01 X-4.28512 Y-2.59064
G01 X-4.28048 Y-2.58863
G01 X-4.27649 Y-2.58634
G01 X-4.27439 Y-2.58482
G01 X-4.07284 Y-2.68559
G01 X-4.07284 Y-2.81300
G01 X-4.07250 Y-2.81460
G01 X-4.07209 Y-2.81531
G01 X-4.07121 Y-2.81618
G01 X-4.07012 Y-2.81674
G01 X-4.06890 Y-2.81694
G01 X-3.97722 Y-2.81694
G04 P0 ( dwell for no time -- G64 should not smooth over this point )
G00 Z0.08000 ( retract )

G00 X-4.07284 Y-2.56056 ( rapid move to begin. )
G01 F0.50000
( Mill infeed pass 1/1 )
G01 Z-0.04000
G04 P0 ( dwell for no time -- G64 should not smooth over this point )
G01 F1.00000
G01 X-4.07284 Y-2.56056
G01 X-4.20222 Y-2.57688
G01 X-4.25677 Y-2.54960
G01 X-4.25680 Y-2.54737
G01 X-4.25727 Y-2.54309
G01 X-4.25825 Y-2.53857
G01 X-4.25895 Y-2.53644
G01 X-4.21579 Y-2.49328
G04 P0 ( dwell for no time -- G64 should not smooth over this point )
G00 Z0.08000 ( retract )

G00 X-4.27137 Y-2.49388 ( rapid move to begin. )
G01 F0.50000
( Mill infeed pass 1/1 )
G01 Z-0.04000
G04 P0 ( dwell for no time -- G64 should not smooth over this point )
G01 F1.00000
G01 X-4.27137 Y-2.49388
G01 X-4.28643 Y-2.50894
G01 X-4.28803 Y-2.50841
G01 X-4.29209 Y-2.50745
G01 X-4.29623 Y-2.50688
G01 X-4.30015 Y-2.50672
G04 P0 ( dwell for no time -- G64 should not smooth over this point )
G00 Z0.08000 ( retract )

G00 X-4.33036 Y-2.51915 ( rapid move to begin. )
G01 F0.50000
( Mill infeed pass 1/1 )
G01 Z-0.04000
G04 P0 ( dwell for no time -- G64 should not smooth over this point )
G01 F1.00000
G01 X-4.33036 Y-2.51915
G01 X-4.33318 Y-2.52221
G01 X-4.33549 Y-2.52523
G01 X-4.33772 Y-2.52877
G01 X-4.33850 Y-2.53031
G01 X-4.35965 Y-2.53031
G04 P0 ( dwell for no time -- G64 should not smooth over this point )
G00 Z0.08000 ( retract )

G00 X-4.33012 Y-2.58101 ( rapid move to begin. )
G01 F0.50000
( Mill infeed pass 1/1 )
G01 Z-0.04000
G04 P0 ( dwell for no time -- G64 should not smooth over this point )
G01 F1.00000
G01 X-4.33012 Y-2.58101
G01 X-4.33145 Y-2.57973
G01 X-4.33471 Y-2.57586
G01 X-4.33725 Y-2.57203
G01 X-4.33847 Y-2.56969
G01 X-4.35958 Y-2.56969
G04 P0 ( dwell for no time -- G64 should not smooth over this point )
G00 Z0.08000 ( retract )

G00 X-4.64042 Y-2.56969 ( rapid move to begin. )
G01 F0.50000
( Mill infeed pass 1/1 )
G01 Z-0.04000
G04 P0 ( dwell for no time -- G64 should not smooth over this point )
G01 F1.00000
G01 X-4.64042 Y-2.56969
G01 X-4.66147 Y-2.56969
G01 X-4.66340 Y-2.57311
G01 X-4.66527 Y-2.57584
G01 X-4.66734 Y-2.57841
G01 X-4.66960 Y-2.58081
G04 P0 ( dwell for no time -- G64 should not smooth over this point )
G00 Z0.08000 ( retract )

G00 X-4.64047 Y-2.53031 ( rapid move to begin. )
G01 F0.50000
( Mill infeed pass 1/1 )
G01 Z-0.04000
G04 P0 ( dwell for no time -- G64 should not smooth over this point )
G01 F1.00000
G01 X-4.64047 Y-2.53031
G01 X-4.66147 Y-2.53031
G01 X-4.66329 Y-2.52707
G01 X-4.66508 Y-2.52443
G01 X-4.66732 Y-2.52162
G01 X-4.66952 Y-2.51927

G04 P0 ( dwell for no time -- G64 should not smooth over this point )
G00 Z1.000000 ( retract )

M5 ( Spindle off. )
G04 P1.000000
M9 ( Coolant off. )
M2 ( Program end. )

