( pcb2gcode 1.3.2 )
( Software-independent Gcode )

G94 ( Inches per minute feed rate. )
G20 ( Units == INCHES. )

G90 ( Absolute coordinates. )
G00 S12000 ( RPM spindle speed. )
G64 P0.00040 ( set maximum deviation from commanded toolpath )
G01 F360.00000 ( Feedrate. )


G00 Z1.00000 (Retract to tool change height)
T0
M5      (Spindle stop.)
G04 P1.00000 (Wait for spindle to stop)
(MSG, Change tool bit to mill diameter 0.11811in)
M6      (Tool change.)
M0      (Temporary machine stop.)
M3 ( Spindle on clockwise. )
G04 P1.00000 (Wait for spindle to get up to speed)
G04 P0 ( dwell for no time -- G64 should not smooth over this point )
G00 Z0.08000 ( retract )

G00 X-3.19793 Y-2.93741 ( rapid move to begin. )
G01 F180.00000
G01 Z-0.04000
G04 P0 ( dwell for no time -- G64 should not smooth over this point )
G01 F360.00000
G01 X-3.19793 Y-2.93741
G01 X-3.19994 Y-2.92585
G01 X-3.20345 Y-2.91362
G01 X-3.20783 Y-2.90288
G01 X-3.20345 Y-2.91362
G04 P0 ( dwell for no time -- G64 should not smooth over this point )
G00 Z0.08000 ( retract )

G00 X-3.33939 Y-2.80979 ( rapid move to begin. )
G01 F180.00000
G01 Z-0.04000
G04 P0 ( dwell for no time -- G64 should not smooth over this point )
G01 F360.00000
G01 X-3.33939 Y-2.80979
G01 X-3.32923 Y-2.81181
G01 X-3.31943 Y-2.81496
G01 X-3.25186 Y-2.84270
G01 X-3.24270 Y-2.85186
G01 X-3.22851 Y-2.86869
G01 X-3.21507 Y-2.88887
G01 X-3.20783 Y-2.90288
G01 X-3.21305 Y-2.89214
G01 X-3.22217 Y-2.87738
G01 X-3.22851 Y-2.86869
G01 X-3.24268 Y-2.85192
G01 X-3.24270 Y-2.84271
G01 X-3.25186 Y-2.84270
G01 X-3.31609 Y-2.81609
G01 X-3.33103 Y-2.81130
G01 X-3.33939 Y-2.80979
G01 X-3.35413 Y-2.80907
G01 X-3.36427 Y-2.80529
G01 X-3.37441 Y-2.80403
G01 X-3.42559 Y-2.80403
G01 X-3.43288 Y-2.80468
G01 X-3.44016 Y-2.80663
G01 X-3.44745 Y-2.80989
G01 X-3.45474 Y-2.81445
G01 X-3.45009 Y-2.83710
G01 X-3.44928 Y-2.85248
G01 X-3.45094 Y-2.86824
G01 X-3.45577 Y-2.89200
G01 X-3.45850 Y-2.92453
G01 X-3.46650 Y-2.92829
G01 X-3.47357 Y-2.93059
G01 X-3.54571 Y-3.00272
G01 X-3.55235 Y-3.00854
G01 X-3.56197 Y-3.01497
G01 X-3.57535 Y-3.02083
G01 X-3.58443 Y-3.02294
G01 X-3.59561 Y-3.03185
G01 X-3.60630 Y-3.03803
G01 X-3.61382 Y-3.04137
G01 X-3.62556 Y-3.04519
G01 X-3.63971 Y-3.04787
G01 X-3.65411 Y-3.04819
G01 X-3.66639 Y-3.04690
G01 X-3.67444 Y-3.04519
G01 X-3.68618 Y-3.04137
G01 X-3.69369 Y-3.03803
G01 X-3.70439 Y-3.03185
G01 X-3.71378 Y-3.02455
G01 X-3.99580 Y-3.02455
G01 X-4.00461 Y-3.02397
G01 X-4.01887 Y-3.02083
G01 X-4.03225 Y-3.01497
G01 X-4.04188 Y-3.00854
G01 X-4.04852 Y-3.00272
G01 X-4.18777 Y-2.86346
G01 X-4.22519 Y-2.86346
G01 X-4.22519 Y-2.88308
G01 X-4.01182 Y-3.09645
G01 X-3.46501 Y-3.09645
G01 X-3.45111 Y-3.08992
G01 X-3.43966 Y-3.08654
G01 X-3.43356 Y-3.08557
G01 X-3.42165 Y-3.08465
G01 X-3.37217 Y-3.08497
G01 X-3.36034 Y-3.08654
G01 X-3.34889 Y-3.08992
G01 X-3.33761 Y-3.09494
G01 X-3.32469 Y-3.10341
G01 X-3.32084 Y-3.11170
G01 X-3.32456 Y-3.10368
G01 X-3.32456 Y-3.01394
G01 X-3.32961 Y-3.00784
G01 X-3.33298 Y-3.00266
G01 X-3.33709 Y-2.99553
G01 X-3.34211 Y-2.98425
G01 X-3.34465 Y-2.97643
G01 X-3.34722 Y-2.96435
G01 X-3.34794 Y-2.95749
G01 X-3.37112 Y-2.93432
G01 X-3.42559 Y-2.93465
G01 X-3.43711 Y-2.93351
G01 X-3.44819 Y-2.93015
G01 X-3.45851 Y-2.92461
G01 X-3.45577 Y-2.89200
G04 P0 ( dwell for no time -- G64 should not smooth over this point )
G00 Z0.08000 ( retract )

G00 X-3.45474 Y-2.81445 ( rapid move to begin. )
G01 F180.00000
G01 Z-0.04000
G04 P0 ( dwell for no time -- G64 should not smooth over this point )
G01 F360.00000
G01 X-3.45474 Y-2.81445
G01 X-3.46592 Y-2.80981
G01 X-3.47996 Y-2.80604
G01 X-3.46592 Y-2.80981
G04 P0 ( dwell for no time -- G64 should not smooth over this point )
G00 Z0.08000 ( retract )

G00 X-3.52061 Y-2.80674 ( rapid move to begin. )
G01 F180.00000
G01 Z-0.04000
G04 P0 ( dwell for no time -- G64 should not smooth over this point )
G01 F360.00000
G01 X-3.52061 Y-2.80674
G01 X-3.50386 Y-2.80432
G01 X-3.48781 Y-2.80480
G01 X-3.47996 Y-2.80604
G01 X-3.49145 Y-2.80432
G01 X-3.50110 Y-2.80410
G01 X-3.51075 Y-2.80489
G01 X-3.52061 Y-2.80674
G01 X-3.53662 Y-2.81201
G01 X-3.55410 Y-2.82094
G01 X-3.56938 Y-2.83144
G01 X-3.58114 Y-2.83599
G01 X-3.59358 Y-2.83972
G01 X-3.60940 Y-2.83312
G01 X-3.62137 Y-2.82476
G01 X-3.70738 Y-2.73915
G01 X-3.71329 Y-2.74400
G01 X-3.72350 Y-2.74946
G01 X-3.73458 Y-2.75282
G01 X-3.74610 Y-2.75395
G01 X-3.87204 Y-2.75395
G01 X-3.87204 Y-2.81300
G01 X-3.87318 Y-2.82452
G01 X-3.87654 Y-2.83560
G01 X-3.88200 Y-2.84581
G01 X-3.88934 Y-2.85476
G01 X-3.89829 Y-2.86210
G01 X-3.90850 Y-2.86756
G01 X-3.91958 Y-2.87092
G01 X-3.93110 Y-2.87206
G01 X-3.96830 Y-2.87206
G01 X-3.96492 Y-2.87544
G01 X-3.71378 Y-2.87544
G01 X-3.70439 Y-2.86815
G01 X-3.69369 Y-2.86197
G01 X-3.68618 Y-2.85863
G01 X-3.67444 Y-2.85481
G01 X-3.66639 Y-2.85310
G01 X-3.65411 Y-2.85181
G01 X-3.63971 Y-2.85213
G01 X-3.62556 Y-2.85481
G01 X-3.61290 Y-2.85904
G01 X-3.59358 Y-2.83972
G04 P0 ( dwell for no time -- G64 should not smooth over this point )
G00 Z0.08000 ( retract )

G00 X-3.60081 Y-2.63485 ( rapid move to begin. )
G01 F180.00000
G01 Z-0.04000
G04 P0 ( dwell for no time -- G64 should not smooth over this point )
G01 F360.00000
G01 X-3.60081 Y-2.63485
G01 X-3.54207 Y-2.69359
G01 X-3.21071 Y-2.69359
G01 X-3.20190 Y-2.69418
G01 X-3.18764 Y-2.69732
G01 X-3.17694 Y-2.70175
G01 X-3.16464 Y-2.70961
G01 X-3.15799 Y-2.71543
G01 X-3.11543 Y-2.75799
G01 X-3.10961 Y-2.76464
G01 X-3.10175 Y-2.77694
G01 X-3.09732 Y-2.78764
G01 X-3.09418 Y-2.80190
G01 X-3.09359 Y-2.81071
G01 X-3.09359 Y-3.21762
G01 X-3.09418 Y-3.22643
G01 X-3.09644 Y-3.23779
G01 X-3.10175 Y-3.25139
G01 X-3.10961 Y-3.26370
G01 X-3.11543 Y-3.27034
G01 X-3.30090 Y-3.45541
G01 X-3.31556 Y-3.46520
G01 X-3.32916 Y-3.47051
G01 X-3.34051 Y-3.47277
G01 X-3.34933 Y-3.47335
G01 X-3.82157 Y-3.47335
G01 X-3.83038 Y-3.47277
G01 X-3.84174 Y-3.47051
G01 X-3.85534 Y-3.46520
G01 X-3.86764 Y-3.45734
G01 X-3.87429 Y-3.45152
G01 X-3.90272 Y-3.42309
G01 X-3.90854 Y-3.41644
G01 X-3.91640 Y-3.40414
G01 X-3.92083 Y-3.39344
G01 X-3.92250 Y-3.38659
G01 X-3.92916 Y-3.38113
G01 X-3.93455 Y-3.37455
G01 X-3.96544 Y-3.37455
G01 X-3.97084 Y-3.38113
G01 X-3.97979 Y-3.38847
G01 X-3.99000 Y-3.39393
G01 X-4.00108 Y-3.39729
G01 X-4.01260 Y-3.39843
G01 X-4.08740 Y-3.39843
G01 X-4.09892 Y-3.39729
G01 X-4.11000 Y-3.39393
G01 X-4.11685 Y-3.39027
G01 X-4.11472 Y-3.36963
G01 X-4.11283 Y-3.35780
G01 X-4.11053 Y-3.34767
G01 X-4.10264 Y-3.32283
G01 X-4.10073 Y-3.31190
G01 X-4.10003 Y-3.30132
G01 X-4.10067 Y-3.28928
G01 X-4.10003 Y-3.30132
G04 P0 ( dwell for no time -- G64 should not smooth over this point )
G00 Z0.08000 ( retract )

G00 X-4.11239 Y-3.20747 ( rapid move to begin. )
G01 F180.00000
G01 Z-0.04000
G04 P0 ( dwell for no time -- G64 should not smooth over this point )
G01 F360.00000
G01 X-4.11239 Y-3.20747
G01 X-4.27489 Y-3.04497
G01 X-4.28971 Y-3.04787
G01 X-4.31029 Y-3.04787
G01 X-4.32444 Y-3.04519
G01 X-4.34083 Y-3.03929
G01 X-4.34073 Y-3.24550
G01 X-4.34128 Y-3.25393
G01 X-4.23455 Y-3.25393
G01 X-4.23140 Y-3.24849
G01 X-4.22415 Y-3.23850
G01 X-4.21891 Y-3.23269
G01 X-4.20974 Y-3.22443
G01 X-4.19823 Y-3.21647
G01 X-4.18558 Y-3.21048
G01 X-4.17384 Y-3.20666
G01 X-4.16008 Y-3.20407
G01 X-4.13992 Y-3.20407
G01 X-4.12616 Y-3.20666
G01 X-4.11685 Y-3.20969
G01 X-4.11472 Y-3.23037
G01 X-4.11283 Y-3.24220
G01 X-4.11053 Y-3.25232
G01 X-4.10264 Y-3.27717
G01 X-4.10067 Y-3.28928
G01 X-4.10323 Y-3.27529
G01 X-4.11053 Y-3.25232
G01 X-4.11472 Y-3.23037
G01 X-4.11685 Y-3.20973
G01 X-4.11255 Y-3.20743
G01 X-4.10146 Y-3.20966
G04 P0 ( dwell for no time -- G64 should not smooth over this point )
G00 Z0.08000 ( retract )

G00 X-4.07065 Y-3.22010 ( rapid move to begin. )
G01 F180.00000
G01 Z-0.04000
G04 P0 ( dwell for no time -- G64 should not smooth over this point )
G01 F360.00000
G01 X-4.07065 Y-3.22010
G01 X-4.10146 Y-3.20966
G01 X-4.07065 Y-3.22010
G01 X-4.05994 Y-3.22239
G01 X-4.04783 Y-3.22359
G01 X-4.05994 Y-3.22239
G04 P0 ( dwell for no time -- G64 should not smooth over this point )
G00 Z0.08000 ( retract )

G00 X-4.01260 Y-3.22382 ( rapid move to begin. )
G01 F180.00000
G01 Z-0.04000
G04 P0 ( dwell for no time -- G64 should not smooth over this point )
G01 F360.00000
G01 X-4.01260 Y-3.22382
G01 X-4.04783 Y-3.22359
G01 X-4.01260 Y-3.22382
G01 X-4.00212 Y-3.22456
G01 X-3.99164 Y-3.22680
G01 X-3.98116 Y-3.23053
G01 X-3.97068 Y-3.23575
G01 X-3.92932 Y-3.23575
G01 X-3.91884 Y-3.23053
G01 X-3.90836 Y-3.22680
G01 X-3.89788 Y-3.22456
G01 X-3.88740 Y-3.22382
G01 X-3.81260 Y-3.22382
G01 X-3.79883 Y-3.22511
G01 X-3.78507 Y-3.22897
G04 P0 ( dwell for no time -- G64 should not smooth over this point )
G00 Z0.08000 ( retract )

G00 X-3.78947 Y-3.25232 ( rapid move to begin. )
G01 F180.00000
G01 Z-0.04000
G04 P0 ( dwell for no time -- G64 should not smooth over this point )
G01 F360.00000
G01 X-3.78947 Y-3.25232
G01 X-3.79677 Y-3.27529
G01 X-3.78947 Y-3.25232
G01 X-3.78507 Y-3.22897
G01 X-3.76969 Y-3.22614
G01 X-3.76187 Y-3.22532
G01 X-3.74609 Y-3.22491
G01 X-3.73031 Y-3.22614
G01 X-3.72198 Y-3.22747
G01 X-3.70511 Y-3.23156
G01 X-3.69729 Y-3.23410
G01 X-3.68319 Y-3.23990
G01 X-3.70511 Y-3.23156
G04 P0 ( dwell for no time -- G64 should not smooth over this point )
G00 Z0.08000 ( retract )

G00 X-3.67036 Y-3.24607 ( rapid move to begin. )
G01 F180.00000
G01 Z-0.04000
G04 P0 ( dwell for no time -- G64 should not smooth over this point )
G01 F360.00000
G01 X-3.67036 Y-3.24607
G01 X-3.68319 Y-3.23990
G01 X-3.67035 Y-3.24607
G04 P0 ( dwell for no time -- G64 should not smooth over this point )
G00 Z0.08000 ( retract )

G00 X-3.45257 Y-3.36389 ( rapid move to begin. )
G01 F180.00000
G01 Z-0.04000
G04 P0 ( dwell for no time -- G64 should not smooth over this point )
G01 F360.00000
G01 X-3.45257 Y-3.36389
G01 X-3.67173 Y-3.36386
G01 X-3.45257 Y-3.36389
G01 X-3.43751 Y-3.36824
G01 X-3.42307 Y-3.36976
G01 X-3.37834 Y-3.36980
G01 X-3.36202 Y-3.36816
G01 X-3.37798 Y-3.36976
G01 X-3.42203 Y-3.36976
G01 X-3.43751 Y-3.36824
G04 P0 ( dwell for no time -- G64 should not smooth over this point )
G00 Z0.08000 ( retract )

G00 X-3.50800 Y-3.25393 ( rapid move to begin. )
G01 F180.00000
G01 Z-0.04000
G04 P0 ( dwell for no time -- G64 should not smooth over this point )
G01 F360.00000
G01 X-3.50800 Y-3.25393
G01 X-3.65803 Y-3.25393
G01 X-3.66743 Y-3.25050
G01 X-3.67035 Y-3.24607
G01 X-3.50801 Y-3.24607
G01 X-3.49452 Y-3.23432
G01 X-3.50806 Y-3.24612
G01 X-3.50806 Y-3.25388
G01 X-3.49774 Y-3.26323
G01 X-3.48324 Y-3.27427
G01 X-3.47059 Y-3.28200
G01 X-3.45419 Y-3.28937
G01 X-3.34544 Y-3.28937
G01 X-3.33504 Y-3.29371
G01 X-3.32254 Y-3.30054
G04 P0 ( dwell for no time -- G64 should not smooth over this point )
G00 Z0.08000 ( retract )

G00 X-3.35299 Y-3.36120 ( rapid move to begin. )
G01 F180.00000
G01 Z-0.04000
G04 P0 ( dwell for no time -- G64 should not smooth over this point )
G01 F360.00000
G01 X-3.35299 Y-3.36120
G01 X-3.36202 Y-3.36816
G01 X-3.35299 Y-3.36120
G01 X-3.34686 Y-3.35518
G01 X-3.34128 Y-3.34840
G01 X-3.33617 Y-3.34065
G01 X-3.33152 Y-3.33162
G01 X-3.32737 Y-3.32085
G01 X-3.32254 Y-3.30054
G01 X-3.31367 Y-3.29660
G01 X-3.30545 Y-3.29204
G01 X-3.29825 Y-3.28705
G01 X-3.29068 Y-3.28044
G01 X-3.29825 Y-3.28705
G04 P0 ( dwell for no time -- G64 should not smooth over this point )
G00 Z0.08000 ( retract )

G00 X-3.22018 Y-3.21003 ( rapid move to begin. )
G01 F180.00000
G01 Z-0.04000
G04 P0 ( dwell for no time -- G64 should not smooth over this point )
G01 F360.00000
G01 X-3.22018 Y-3.21003
G01 X-3.29068 Y-3.28044
G01 X-3.22018 Y-3.21003
G01 X-3.21143 Y-3.19970
G01 X-3.20979 Y-3.19082
G01 X-3.20907 Y-3.18021
G01 X-3.20907 Y-3.00007
G01 X-3.20345 Y-2.98638
G01 X-3.19994 Y-2.97415
G01 X-3.19793 Y-2.96259
G01 X-3.19726 Y-2.95000
G01 X-3.19793 Y-2.93741
G01 X-3.19719 Y-2.94859
G01 X-3.19793 Y-2.96259
G04 P0 ( dwell for no time -- G64 should not smooth over this point )
G00 Z0.08000 ( retract )

G00 X-3.32084 Y-3.11170 ( rapid move to begin. )
G01 F180.00000
G01 Z-0.04000
G04 P0 ( dwell for no time -- G64 should not smooth over this point )
G01 F360.00000
G01 X-3.32084 Y-3.11170
G01 X-3.31469 Y-3.12856
G01 X-3.31077 Y-3.14433
G01 X-3.30907 Y-3.15574
G01 X-3.31569 Y-3.17414
G01 X-3.32180 Y-3.18622
G01 X-3.32851 Y-3.19660
G01 X-3.33742 Y-3.20743
G01 X-3.34544 Y-3.21063
G01 X-3.45419 Y-3.21063
G01 X-3.47059 Y-3.21800
G01 X-3.48324 Y-3.22573
G01 X-3.49452 Y-3.23432
G01 X-3.48324 Y-3.22573
G04 P0 ( dwell for no time -- G64 should not smooth over this point )
G00 Z0.08000 ( retract )

G00 X-3.71947 Y-3.35647 ( rapid move to begin. )
G01 F180.00000
G01 Z-0.04000
G04 P0 ( dwell for no time -- G64 should not smooth over this point )
G01 F360.00000
G01 X-3.71947 Y-3.35647
G01 X-3.68319 Y-3.36285
G01 X-3.67173 Y-3.36386
G01 X-3.68369 Y-3.36280
G01 X-3.71947 Y-3.35647
G01 X-3.73343 Y-3.35917
G01 X-3.74609 Y-3.36025
G01 X-3.75875 Y-3.35999
G01 X-3.76913 Y-3.35868
G01 X-3.75875 Y-3.35999
G04 P0 ( dwell for no time -- G64 should not smooth over this point )
G00 Z0.08000 ( retract )

G00 X-3.78779 Y-3.35433 ( rapid move to begin. )
G01 F180.00000
G01 Z-0.04000
G04 P0 ( dwell for no time -- G64 should not smooth over this point )
G01 F360.00000
G01 X-3.78779 Y-3.35433
G01 X-3.76913 Y-3.35868
G01 X-3.77952 Y-3.35669
G01 X-3.78779 Y-3.35433
G01 X-3.79736 Y-3.32283
G01 X-3.79926 Y-3.31190
G01 X-3.79990 Y-3.29980
G01 X-3.79935 Y-3.28948
G01 X-3.79677 Y-3.27529
G01 X-3.79955 Y-3.29086
G01 X-3.79996 Y-3.30132
G01 X-3.79926 Y-3.31190
G04 P0 ( dwell for no time -- G64 should not smooth over this point )
G00 Z0.08000 ( retract )

G00 X-4.11472 Y-3.36963 ( rapid move to begin. )
G01 F180.00000
G01 Z-0.04000
G04 P0 ( dwell for no time -- G64 should not smooth over this point )
G01 F360.00000
G01 X-4.11472 Y-3.36963
G01 X-4.11685 Y-3.39031
G01 X-4.12616 Y-3.39333
G01 X-4.13381 Y-3.39496
G01 X-4.14700 Y-3.39625
G01 X-4.15852 Y-3.40070
G01 X-4.17295 Y-3.40326
G01 X-4.43499 Y-3.40354
G01 X-4.44889 Y-3.41008
G01 X-4.46034 Y-3.41346
G01 X-4.47217 Y-3.41503
G01 X-4.52165 Y-3.41535
G01 X-4.53966 Y-3.41346
G01 X-4.55111 Y-3.41008
G01 X-4.56239 Y-3.40506
G01 X-4.57256 Y-3.39881
G01 X-4.58165 Y-3.39107
G01 X-4.58991 Y-3.38189
G01 X-4.59666 Y-3.37205
G01 X-4.60181 Y-3.36128
G01 X-4.60563 Y-3.34953
G01 X-4.60683 Y-3.34390
G01 X-4.60812 Y-3.33162
G01 X-4.60812 Y-3.32586
G01 X-4.60683 Y-3.31358
G01 X-4.60563 Y-3.30795
G01 X-4.60181 Y-3.29620
G01 X-4.59867 Y-3.28937
G01 X-4.41979 Y-3.28924
G01 X-4.40664 Y-3.28812
G01 X-4.39073 Y-3.28369
G01 X-4.37454 Y-3.27696
G01 X-4.36408 Y-3.27116
G01 X-4.35397 Y-3.26420
G01 X-4.34128 Y-3.25393
G01 X-4.35227 Y-3.26302
G01 X-4.36408 Y-3.27116
G04 P0 ( dwell for no time -- G64 should not smooth over this point )
G00 Z0.08000 ( retract )

G00 X-4.37454 Y-3.27696 ( rapid move to begin. )
G01 F180.00000
G01 Z-0.04000
G04 P0 ( dwell for no time -- G64 should not smooth over this point )
G01 F360.00000
G01 X-4.37454 Y-3.27696
G01 X-4.39325 Y-3.28473
G01 X-4.40664 Y-3.28812
G04 P0 ( dwell for no time -- G64 should not smooth over this point )
G00 Z0.08000 ( retract )

G00 X-4.59867 Y-3.28937 ( rapid move to begin. )
G01 F180.00000
G01 Z-0.04000
G04 P0 ( dwell for no time -- G64 should not smooth over this point )
G01 F360.00000
G01 X-4.59867 Y-3.28937
G01 X-4.60181 Y-3.28254
G01 X-4.60563 Y-3.27079
G01 X-4.60683 Y-3.26516
G01 X-4.60812 Y-3.25288
G01 X-4.60771 Y-3.24325
G01 X-4.57764 Y-3.22192
G01 X-4.56496 Y-3.21497
G01 X-4.55456 Y-3.21063
G04 P0 ( dwell for no time -- G64 should not smooth over this point )
G00 Z0.08000 ( retract )

G00 X-4.46274 Y-3.11391 ( rapid move to begin. )
G01 F180.00000
G01 Z-0.04000
G04 P0 ( dwell for no time -- G64 should not smooth over this point )
G01 F360.00000
G01 X-4.46274 Y-3.11391
G01 X-4.47107 Y-3.10413
G01 X-4.46274 Y-3.11391
G01 X-4.45502 Y-3.12510
G01 X-4.44957 Y-3.13500
G01 X-4.44388 Y-3.14978
G01 X-4.44194 Y-3.15821
G01 X-4.44097 Y-3.16733
G01 X-4.44194 Y-3.15821
G01 X-4.44533 Y-3.14562
G01 X-4.44773 Y-3.13934
G01 X-4.45502 Y-3.12510
G04 P0 ( dwell for no time -- G64 should not smooth over this point )
G00 Z0.08000 ( retract )

G00 X-4.44701 Y-3.20175 ( rapid move to begin. )
G01 F180.00000
G01 Z-0.04000
G04 P0 ( dwell for no time -- G64 should not smooth over this point )
G01 F360.00000
G01 X-4.44701 Y-3.20175
G01 X-4.44388 Y-3.19274
G01 X-4.44194 Y-3.18431
G01 X-4.44097 Y-3.16733
G01 X-4.44097 Y-3.17626
G01 X-4.44351 Y-3.19110
G01 X-4.44701 Y-3.20175
G01 X-4.45111 Y-3.21063
G01 X-4.55456 Y-3.21063
G01 X-4.56845 Y-3.21689
G01 X-4.57989 Y-3.22351
G01 X-4.60784 Y-3.24334
G01 X-4.61259 Y-3.24209
G01 X-4.62597 Y-3.23623
G01 X-4.63559 Y-3.22980
G01 X-4.64224 Y-3.22398
G01 X-4.82757 Y-3.03865
G01 X-4.83339 Y-3.03200
G01 X-4.84125 Y-3.01970
G01 X-4.84568 Y-3.00900
G01 X-4.84882 Y-2.99474
G01 X-4.84940 Y-2.98593
G01 X-4.84940 Y-2.91407
G01 X-4.84882 Y-2.90526
G01 X-4.84568 Y-2.89100
G01 X-4.84125 Y-2.88030
G01 X-4.83339 Y-2.86800
G01 X-4.82757 Y-2.86135
G01 X-4.69811 Y-2.73230
G01 X-4.68346 Y-2.72251
G01 X-4.66985 Y-2.71719
G01 X-4.65850 Y-2.71494
G01 X-4.64969 Y-2.71435
G01 X-4.15689 Y-2.71435
G01 X-4.14808 Y-2.71494
G01 X-4.13672 Y-2.71719
G01 X-4.12771 Y-2.72061
G01 X-4.12285 Y-2.72844
G01 X-4.11603 Y-2.74152
G01 X-4.08629 Y-2.81300
G04 P0 ( dwell for no time -- G64 should not smooth over this point )
G00 Z0.08000 ( retract )

G00 X-3.96830 Y-2.87206 ( rapid move to begin. )
G01 F180.00000
G01 Z-0.04000
G04 P0 ( dwell for no time -- G64 should not smooth over this point )
G01 F360.00000
G01 X-3.96830 Y-2.87206
G01 X-4.06890 Y-2.83039
G01 X-4.07460 Y-2.82739
G01 X-4.07939 Y-2.82349
G01 X-4.08329 Y-2.81870
G01 X-4.08629 Y-2.81300
G01 X-4.11475 Y-2.74458
G01 X-4.12796 Y-2.71966
G01 X-4.27649 Y-2.64539
G01 X-4.28971 Y-2.64787
G01 X-4.30411 Y-2.64819
G01 X-4.31029 Y-2.64787
G01 X-4.32444 Y-2.64519
G01 X-4.33618 Y-2.64137
G01 X-4.34920 Y-2.63522
G01 X-4.36350 Y-2.62480
G01 X-4.63650 Y-2.62480
G01 X-4.65080 Y-2.63522
G01 X-4.66382 Y-2.64137
G01 X-4.67556 Y-2.64519
G01 X-4.68971 Y-2.64787
G01 X-4.71029 Y-2.64787
G01 X-4.72444 Y-2.64519
G01 X-4.73618 Y-2.64137
G01 X-4.74920 Y-2.63522
G01 X-4.76104 Y-2.62702
G01 X-4.77022 Y-2.61876
G01 X-4.77961 Y-2.60784
G01 X-4.78990 Y-2.59002
G01 X-4.79465 Y-2.57643
G01 X-4.79722 Y-2.56435
G01 X-4.79808 Y-2.55617
G01 X-4.79808 Y-2.54383
G01 X-4.79722 Y-2.53565
G01 X-4.79465 Y-2.52357
G01 X-4.78990 Y-2.50997
G01 X-4.77961 Y-2.49216
G01 X-4.77022 Y-2.48124
G01 X-4.76104 Y-2.47298
G01 X-4.74920 Y-2.46478
G01 X-4.73618 Y-2.45863
G01 X-4.72444 Y-2.45481
G01 X-4.71029 Y-2.45213
G01 X-4.68971 Y-2.45213
G01 X-4.67556 Y-2.45481
G01 X-4.66382 Y-2.45863
G01 X-4.65080 Y-2.46478
G01 X-4.63650 Y-2.47519
G01 X-4.36350 Y-2.47519
G01 X-4.34920 Y-2.46478
G01 X-4.33618 Y-2.45863
G01 X-4.32444 Y-2.45481
G01 X-4.30742 Y-2.45198
G01 X-4.20192 Y-2.34689
G01 X-4.18727 Y-2.33710
G01 X-4.17367 Y-2.33178
G01 X-4.16231 Y-2.32953
G01 X-4.15350 Y-2.32894
G01 X-3.79650 Y-2.32894
G01 X-3.78769 Y-2.32953
G01 X-3.77343 Y-2.33267
G01 X-3.76273 Y-2.33710
G01 X-3.75042 Y-2.34496
G01 X-3.74378 Y-2.35078
G01 X-3.64258 Y-2.45198
G01 X-3.62556 Y-2.45481
G01 X-3.61382 Y-2.45863
G01 X-3.60630 Y-2.46197
G01 X-3.59561 Y-2.46814
G01 X-3.58622 Y-2.47519
G01 X-3.31350 Y-2.47519
G01 X-3.30439 Y-2.46814
G01 X-3.29369 Y-2.46197
G01 X-3.28618 Y-2.45863
G01 X-3.27444 Y-2.45481
G01 X-3.26029 Y-2.45213
G01 X-3.23971 Y-2.45213
G01 X-3.22556 Y-2.45481
G01 X-3.21382 Y-2.45863
G01 X-3.20630 Y-2.46197
G01 X-3.19561 Y-2.46814
G01 X-3.18896 Y-2.47298
G01 X-3.17978 Y-2.48124
G01 X-3.17428 Y-2.48735
G01 X-3.16702 Y-2.49734
G01 X-3.16291 Y-2.50447
G01 X-3.15789 Y-2.51574
G01 X-3.15535 Y-2.52357
G01 X-3.15278 Y-2.53565
G01 X-3.15159 Y-2.55000
G01 X-3.15278 Y-2.56435
G01 X-3.15535 Y-2.57643
G01 X-3.15789 Y-2.58425
G01 X-3.16291 Y-2.59553
G01 X-3.16702 Y-2.60266
G01 X-3.17428 Y-2.61264
G01 X-3.17978 Y-2.61876
G01 X-3.18896 Y-2.62702
G01 X-3.19561 Y-2.63185
G01 X-3.20630 Y-2.63803
G01 X-3.21382 Y-2.64137
G01 X-3.22556 Y-2.64519
G01 X-3.23971 Y-2.64787
G01 X-3.25411 Y-2.64819
G01 X-3.26029 Y-2.64787
G01 X-3.27444 Y-2.64519
G01 X-3.28618 Y-2.64137
G01 X-3.29369 Y-2.63803
G01 X-3.30439 Y-2.63185
G01 X-3.31350 Y-2.62480
G01 X-3.58650 Y-2.62480
G01 X-3.59561 Y-2.63185
G01 X-3.60081 Y-2.63485
G01 X-3.61795 Y-2.63209
G04 P0 ( dwell for no time -- G64 should not smooth over this point )
G00 Z0.08000 ( retract )

G00 X-3.69796 Y-2.59072 ( rapid move to begin. )
G01 F180.00000
G01 Z-0.04000
G04 P0 ( dwell for no time -- G64 should not smooth over this point )
G01 F360.00000
G01 X-3.69796 Y-2.59072
G01 X-3.68133 Y-2.60435
G01 X-3.67251 Y-2.61067
G01 X-3.65629 Y-2.61941
G01 X-3.64178 Y-2.62532
G01 X-3.61795 Y-2.63209
G01 X-3.63788 Y-2.62682
G01 X-3.64589 Y-2.62399
G01 X-3.66018 Y-2.61770
G01 X-3.67251 Y-2.61067
G01 X-3.67941 Y-2.60594
G01 X-3.69796 Y-2.59072
G01 X-3.71461 Y-2.57902
G01 X-3.71657 Y-2.56730
G01 X-3.71879 Y-2.54524
G01 X-3.72422 Y-2.53839
G01 X-3.73059 Y-2.53248
G01 X-3.73788 Y-2.52749
G01 X-3.74610 Y-2.52343
G01 X-3.80739 Y-2.49804
G01 X-3.82738 Y-2.47805
G01 X-3.85751 Y-2.47805
G01 X-3.83752 Y-2.49804
G01 X-3.80739 Y-2.49804
G04 P0 ( dwell for no time -- G64 should not smooth over this point )
G00 Z0.08000 ( retract )

G00 X-3.85751 Y-2.47805 ( rapid move to begin. )
G01 F180.00000
G01 Z-0.04000
G04 P0 ( dwell for no time -- G64 should not smooth over this point )
G01 F360.00000
G01 X-3.85751 Y-2.47805
G01 X-3.88232 Y-2.46777
G01 X-3.91610 Y-2.43462
G01 X-3.88232 Y-2.46777
G04 P0 ( dwell for no time -- G64 should not smooth over this point )
G00 Z0.08000 ( retract )

G00 X-3.91610 Y-2.43462 ( rapid move to begin. )
G01 F180.00000
G01 Z-0.04000
G04 P0 ( dwell for no time -- G64 should not smooth over this point )
G01 F360.00000
G01 X-3.91610 Y-2.43462
G01 X-3.92110 Y-2.43150
G01 X-3.92610 Y-2.42962
G01 X-3.93110 Y-2.42900
G01 X-4.06890 Y-2.42900
G01 X-4.07390 Y-2.42962
G01 X-4.07890 Y-2.43150
G01 X-4.08390 Y-2.43462
G01 X-4.08890 Y-2.43900
G01 X-4.12418 Y-2.47428
G01 X-4.12796 Y-2.48339
G01 X-4.12795 Y-2.55239
G01 X-4.11287 Y-2.57680
G01 X-4.10382 Y-2.58909
G01 X-4.09348 Y-2.59878
G01 X-4.08184 Y-2.60588
G01 X-4.06890 Y-2.61039
G01 X-4.00277 Y-2.62600
G01 X-3.93310 Y-2.62600
G01 X-3.92077 Y-2.63980
G01 X-3.91340 Y-2.65160
G01 X-3.90897 Y-2.66340
G01 X-3.90750 Y-2.67520
G01 X-3.90750 Y-2.69490
G01 X-3.90602 Y-2.70670
G01 X-3.90160 Y-2.71850
G01 X-3.89422 Y-2.73030
G01 X-3.88390 Y-2.74210
G01 X-3.87204 Y-2.75395
G04 P0 ( dwell for no time -- G64 should not smooth over this point )
G00 Z0.08000 ( retract )

G00 X-4.12796 Y-2.48339 ( rapid move to begin. )
G01 F180.00000
G01 Z-0.04000
G04 P0 ( dwell for no time -- G64 should not smooth over this point )
G01 F360.00000
G01 X-4.12796 Y-2.48339
G01 X-4.17395 Y-2.52939
G01 X-4.12795 Y-2.55239
G04 P0 ( dwell for no time -- G64 should not smooth over this point )
G00 Z0.08000 ( retract )

G00 X-4.27257 Y-2.82549 ( rapid move to begin. )
G01 F180.00000
G01 Z-0.04000
G04 P0 ( dwell for no time -- G64 should not smooth over this point )
G01 F360.00000
G01 X-4.27257 Y-2.82549
G01 X-4.28619 Y-2.82090
G01 X-4.27257 Y-2.82549
G01 X-4.26483 Y-2.82944
G01 X-4.25610 Y-2.83507
G01 X-4.24292 Y-2.84594
G01 X-4.22519 Y-2.86346
G01 X-4.24434 Y-2.84477
G01 X-4.25610 Y-2.83507
G04 P0 ( dwell for no time -- G64 should not smooth over this point )
G00 Z0.08000 ( retract )

G00 X-4.39310 Y-2.96392 ( rapid move to begin. )
G01 F180.00000
G01 Z-0.04000
G04 P0 ( dwell for no time -- G64 should not smooth over this point )
G01 F360.00000
G01 X-4.39310 Y-2.96392
G01 X-4.39808 Y-2.95307
G01 X-4.39310 Y-2.96392
G01 X-4.38315 Y-2.98134
G01 X-4.37728 Y-2.98988
G01 X-4.35343 Y-3.02095
G01 X-4.34083 Y-3.03929
G04 P0 ( dwell for no time -- G64 should not smooth over this point )
G00 Z0.08000 ( retract )

G00 X-4.47896 Y-2.90495 ( rapid move to begin. )
G01 F180.00000
G01 Z-0.04000
G04 P0 ( dwell for no time -- G64 should not smooth over this point )
G01 F360.00000
G01 X-4.47896 Y-2.90495
G01 X-4.46754 Y-2.91228
G01 X-4.45425 Y-2.91893
G01 X-4.43840 Y-2.92485
G01 X-4.42208 Y-2.92908
G01 X-4.39808 Y-2.95307
G01 X-4.39808 Y-2.94383
G01 X-4.39722 Y-2.93565
G01 X-4.39492 Y-2.92481
G01 X-4.41219 Y-2.92481
G01 X-4.42185 Y-2.92913
G01 X-4.43840 Y-2.92485
G01 X-4.45169 Y-2.91988
G01 X-4.46451 Y-2.91379
G01 X-4.47896 Y-2.90495
G01 X-4.49424 Y-2.89192
G01 X-4.49906 Y-2.86824
G01 X-4.50044 Y-2.85782
G01 X-4.50044 Y-2.84217
G01 X-4.49876 Y-2.83006
G01 X-4.48991 Y-2.82477
G01 X-4.47733 Y-2.81910
G01 X-4.46400 Y-2.81551
G01 X-4.45425 Y-2.81448
G01 X-4.44678 Y-2.81459
G01 X-4.43915 Y-2.81551
G01 X-4.42513 Y-2.81933
G01 X-4.30000 Y-2.81933
G01 X-4.28619 Y-2.82090
G01 X-4.29840 Y-2.81951
G01 X-4.42513 Y-2.81933
G04 P0 ( dwell for no time -- G64 should not smooth over this point )
G00 Z0.08000 ( retract )

G00 X-4.49876 Y-2.83006 ( rapid move to begin. )
G01 F180.00000
G01 Z-0.04000
G04 P0 ( dwell for no time -- G64 should not smooth over this point )
G01 F360.00000
G01 X-4.49876 Y-2.83006
G01 X-4.50941 Y-2.82003
G01 X-4.51441 Y-2.81691
G01 X-4.51941 Y-2.81503
G01 X-4.52441 Y-2.81441
G01 X-4.57559 Y-2.81441
G01 X-4.58269 Y-2.81567
G01 X-4.58980 Y-2.81945
G01 X-4.60627 Y-2.81990
G01 X-4.58980 Y-2.81945
G04 P0 ( dwell for no time -- G64 should not smooth over this point )
G00 Z0.08000 ( retract )

G00 X-4.63346 Y-2.82807 ( rapid move to begin. )
G01 F180.00000
G01 Z-0.04000
G04 P0 ( dwell for no time -- G64 should not smooth over this point )
G01 F360.00000
G01 X-4.63346 Y-2.82807
G01 X-4.61817 Y-2.82236
G01 X-4.60627 Y-2.81990
G01 X-4.61377 Y-2.82103
G01 X-4.62031 Y-2.82285
G01 X-4.63346 Y-2.82807
G01 X-4.69279 Y-2.88740
G01 X-4.70776 Y-2.89371
G01 X-4.71800 Y-2.89945
G01 X-4.72702 Y-2.90582
G01 X-4.73329 Y-2.91118
G01 X-4.74239 Y-2.92077
G01 X-4.74632 Y-2.92589
G01 X-4.74889 Y-2.94072
G01 X-4.74928 Y-2.95000
G01 X-4.74889 Y-2.95927
G01 X-4.74632 Y-2.97411
G01 X-4.73415 Y-2.98794
G01 X-4.72702 Y-2.99418
G01 X-4.71665 Y-3.00127
G01 X-4.70411 Y-3.00803
G01 X-4.69076 Y-3.01324
G01 X-4.67010 Y-3.01833
G01 X-4.68179 Y-3.01590
G01 X-4.69076 Y-3.01324
G04 P0 ( dwell for no time -- G64 should not smooth over this point )
G00 Z0.08000 ( retract )

G00 X-4.70411 Y-3.00803 ( rapid move to begin. )
G01 F180.00000
G01 Z-0.04000
G04 P0 ( dwell for no time -- G64 should not smooth over this point )
G01 F360.00000
G01 X-4.70411 Y-3.00803
G01 X-4.71530 Y-3.00220
G01 X-4.72702 Y-2.99418
G01 X-4.73508 Y-2.98712
G01 X-4.74632 Y-2.97411
G04 P0 ( dwell for no time -- G64 should not smooth over this point )
G00 Z0.08000 ( retract )

G00 X-4.74889 Y-2.95927 ( rapid move to begin. )
G01 F180.00000
G01 Z-0.04000
G04 P0 ( dwell for no time -- G64 should not smooth over this point )
G01 F360.00000
G01 X-4.74889 Y-2.95927
G01 X-4.74932 Y-2.95105
G01 X-4.74889 Y-2.94072
G04 P0 ( dwell for no time -- G64 should not smooth over this point )
G00 Z0.08000 ( retract )

G00 X-4.65357 Y-3.02091 ( rapid move to begin. )
G01 F180.00000
G01 Z-0.04000
G04 P0 ( dwell for no time -- G64 should not smooth over this point )
G01 F360.00000
G01 X-4.65357 Y-3.02091
G01 X-4.67010 Y-3.01833
G01 X-4.65357 Y-3.02091
G01 X-4.63336 Y-3.02198
G01 X-4.62978 Y-3.01876
G01 X-4.62039 Y-3.00784
G01 X-4.61010 Y-2.99002
G01 X-4.60534 Y-2.97643
G01 X-4.60229 Y-2.95973
G01 X-4.48984 Y-3.07219
G01 X-4.48984 Y-3.08465
G01 X-4.47107 Y-3.10413
G01 X-4.48984 Y-3.08465
G01 X-4.52165 Y-3.08465
G01 X-4.53356 Y-3.08557
G01 X-4.54563 Y-3.08814
G01 X-4.56101 Y-3.09433
G01 X-4.63336 Y-3.02198

G04 P0 ( dwell for no time -- G64 should not smooth over this point )
G00 Z1.000 ( retract )

M5 ( Spindle off. )
G04 P1.000000

G00 Z1.00000 (Retract to tool change height)
T1
M5      (Spindle stop.)
G04 P1.00000 (Wait for spindle to stop)
(MSG, Change tool bit to mill diameter 0.00787in)
M6      (Tool change.)
M0      (Temporary machine stop.)
M3 ( Spindle on clockwise. )
G04 P1.00000 (Wait for spindle to get up to speed)
G04 P0 ( dwell for no time -- G64 should not smooth over this point )
G00 Z0.08000 ( retract )

G00 X-3.18759 Y-2.83110 ( rapid move to begin. )
G01 F180.00000
G01 Z-0.04000
G04 P0 ( dwell for no time -- G64 should not smooth over this point )
G01 F360.00000
G01 X-3.18759 Y-2.83110
G01 X-3.18759 Y-2.81876
G01 X-3.21876 Y-2.78759
G01 X-3.23881 Y-2.78759
G04 P0 ( dwell for no time -- G64 should not smooth over this point )
G00 Z0.08000 ( retract )

G00 X-3.37215 Y-2.87881 ( rapid move to begin. )
G01 F180.00000
G01 Z-0.04000
G04 P0 ( dwell for no time -- G64 should not smooth over this point )
G01 F360.00000
G01 X-3.37215 Y-2.87881
G01 X-3.37055 Y-2.87636
G01 X-3.37047 Y-2.86944
G01 X-3.35805 Y-2.86944
G01 X-3.29092 Y-2.93656
G01 X-3.29241 Y-2.94141
G01 X-3.29322 Y-2.94918
G04 P0 ( dwell for no time -- G64 should not smooth over this point )
G00 Z0.08000 ( retract )

G00 X-3.28030 Y-2.98072 ( rapid move to begin. )
G01 F180.00000
G01 Z-0.04000
G04 P0 ( dwell for no time -- G64 should not smooth over this point )
G01 F360.00000
G01 X-3.28030 Y-2.98072
G01 X-3.27199 Y-2.98726
G01 X-3.26944 Y-2.98849
G01 X-3.26944 Y-3.00114
G04 P0 ( dwell for no time -- G64 should not smooth over this point )
G00 Z0.08000 ( retract )

G00 X-3.44103 Y-3.14652 ( rapid move to begin. )
G01 F180.00000
G01 Z-0.04000
G04 P0 ( dwell for no time -- G64 should not smooth over this point )
G01 F360.00000
G01 X-3.44103 Y-3.14652
G01 X-3.44609 Y-3.15157
G01 X-4.03465 Y-3.15157
G01 X-4.28031 Y-2.90591
G01 X-4.28031 Y-2.88783
G04 P0 ( dwell for no time -- G64 should not smooth over this point )
G00 Z0.08000 ( retract )

G00 X-4.31968 Y-2.87500 ( rapid move to begin. )
G01 F180.00000
G01 Z-0.04000
G04 P0 ( dwell for no time -- G64 should not smooth over this point )
G01 F360.00000
G01 X-4.31968 Y-2.87500
G01 X-4.31968 Y-2.91161
G01 X-4.32864 Y-2.91757
G01 X-4.33476 Y-2.92424
G01 X-4.33936 Y-2.93203
G01 X-4.34051 Y-2.93531
G04 P0 ( dwell for no time -- G64 should not smooth over this point )
G00 Z0.08000 ( retract )

G00 X-4.23867 Y-3.00323 ( rapid move to begin. )
G01 F180.00000
G01 Z-0.04000
G04 P0 ( dwell for no time -- G64 should not smooth over this point )
G01 F360.00000
G01 X-4.23867 Y-3.00323
G01 X-4.26567 Y-2.97624
G01 X-4.27135 Y-2.98243
G01 X-4.27801 Y-2.98726
G01 X-4.28494 Y-2.99044
G04 P0 ( dwell for no time -- G64 should not smooth over this point )
G00 Z0.08000 ( retract )

G00 X-4.43472 Y-3.06148 ( rapid move to begin. )
G01 F180.00000
G01 Z-0.04000
G04 P0 ( dwell for no time -- G64 should not smooth over this point )
G01 F360.00000
G01 X-4.43472 Y-3.06148
G01 X-4.43472 Y-3.04935
G01 X-4.56593 Y-2.91770
G01 X-4.56809 Y-2.91366
G01 X-4.56942 Y-2.90698
G01 X-4.56944 Y-2.87953
G01 X-4.57559 Y-2.87953
G01 X-4.57778 Y-2.87886
G01 X-4.57923 Y-2.87710
G01 X-4.57953 Y-2.87394
G01 X-4.59759 Y-2.87507
G01 X-4.65908 Y-2.93656
G01 X-4.65759 Y-2.94141
G01 X-4.65676 Y-2.94932
G04 P0 ( dwell for no time -- G64 should not smooth over this point )
G00 Z0.08000 ( retract )

G00 X-4.59722 Y-3.13607 ( rapid move to begin. )
G01 F180.00000
G01 Z-0.04000
G04 P0 ( dwell for no time -- G64 should not smooth over this point )
G01 F360.00000
G01 X-4.59722 Y-3.13607
G01 X-4.58147 Y-3.15182
G01 X-4.54628 Y-3.15182
G01 X-4.54017 Y-3.14578
G04 P0 ( dwell for no time -- G64 should not smooth over this point )
G00 Z0.08000 ( retract )

G00 X-4.45897 Y-3.35347 ( rapid move to begin. )
G01 F180.00000
G01 Z-0.04000
G04 P0 ( dwell for no time -- G64 should not smooth over this point )
G01 F360.00000
G01 X-4.45897 Y-3.35347
G01 X-4.45390 Y-3.34843
G01 X-4.45195 Y-3.34843
G04 P0 ( dwell for no time -- G64 should not smooth over this point )
G00 Z0.08000 ( retract )

G00 X-4.23093 Y-3.30905 ( rapid move to begin. )
G01 F180.00000
G01 Z-0.04000
G04 P0 ( dwell for no time -- G64 should not smooth over this point )
G01 F360.00000
G01 X-4.23093 Y-3.30905
G01 X-4.19031 Y-3.30905
G01 X-4.19132 Y-3.29959
G01 X-4.19050 Y-3.29181
G01 X-4.18796 Y-3.28372
G04 P0 ( dwell for no time -- G64 should not smooth over this point )
G00 Z0.08000 ( retract )

G00 X-4.00870 Y-3.33975 ( rapid move to begin. )
G01 F180.00000
G01 Z-0.04000
G04 P0 ( dwell for no time -- G64 should not smooth over this point )
G01 F360.00000
G01 X-4.00870 Y-3.33975
G01 X-4.00866 Y-3.31944
G01 X-3.96981 Y-3.31944
G01 X-3.88777 Y-3.34327
G01 X-3.86944 Y-3.34331
G01 X-3.86940 Y-3.37095
G04 P0 ( dwell for no time -- G64 should not smooth over this point )
G00 Z0.08000 ( retract )

G00 X-3.89130 Y-3.33974 ( rapid move to begin. )
G01 F180.00000
G01 Z-0.04000
G04 P0 ( dwell for no time -- G64 should not smooth over this point )
G01 F360.00000
G01 X-3.89130 Y-3.33974
G01 X-3.89134 Y-3.31944
G01 X-3.93019 Y-3.31944
G04 P0 ( dwell for no time -- G64 should not smooth over this point )
G00 Z0.08000 ( retract )

G00 X-4.00866 Y-3.27994 ( rapid move to begin. )
G01 F180.00000
G01 Z-0.04000
G04 P0 ( dwell for no time -- G64 should not smooth over this point )
G01 F360.00000
G01 X-4.00866 Y-3.27994
G01 X-4.00866 Y-3.28056
G01 X-3.89134 Y-3.28056
G01 X-3.89134 Y-3.27994
G04 P0 ( dwell for no time -- G64 should not smooth over this point )
G00 Z0.08000 ( retract )

G00 X-3.71041 Y-3.28874 ( rapid move to begin. )
G01 F180.00000
G01 Z-0.04000
G04 P0 ( dwell for no time -- G64 should not smooth over this point )
G01 F360.00000
G01 X-3.71041 Y-3.28874
G01 X-3.70928 Y-3.29391
G01 X-3.69593 Y-3.29878
G04 P0 ( dwell for no time -- G64 should not smooth over this point )
G00 Z0.08000 ( retract )

G00 X-3.68111 Y-2.97982 ( rapid move to begin. )
G01 F180.00000
G01 Z-0.04000
G04 P0 ( dwell for no time -- G64 should not smooth over this point )
G01 F360.00000
G01 X-3.68111 Y-2.97982
G01 X-3.68502 Y-2.97544
G01 X-3.68851 Y-2.96944
G01 X-3.70909 Y-2.96944
G04 P0 ( dwell for no time -- G64 should not smooth over this point )
G00 Z0.08000 ( retract )

G00 X-3.68110 Y-2.92018 ( rapid move to begin. )
G01 F180.00000
G01 Z-0.04000
G04 P0 ( dwell for no time -- G64 should not smooth over this point )
G01 F360.00000
G01 X-3.68110 Y-2.92018
G01 X-3.68502 Y-2.92456
G01 X-3.68851 Y-2.93056
G01 X-3.98775 Y-2.93056
G01 X-3.99879 Y-2.91952
G04 P0 ( dwell for no time -- G64 should not smooth over this point )
G00 Z0.08000 ( retract )

G00 X-4.15155 Y-2.82174 ( rapid move to begin. )
G01 F180.00000
G01 Z-0.04000
G04 P0 ( dwell for no time -- G64 should not smooth over this point )
G01 F360.00000
G01 X-4.15155 Y-2.82174
G01 X-4.16494 Y-2.80835
G01 X-4.18388 Y-2.80835
G04 P0 ( dwell for no time -- G64 should not smooth over this point )
G00 Z0.08000 ( retract )

G00 X-4.20222 Y-2.57688 ( rapid move to begin. )
G01 F180.00000
G01 Z-0.04000
G04 P0 ( dwell for no time -- G64 should not smooth over this point )
G01 F360.00000
G01 X-4.20222 Y-2.57688
G01 X-4.25673 Y-2.54962
G01 X-4.25759 Y-2.54141
G01 X-4.25908 Y-2.53656
G01 X-4.21579 Y-2.49328
G04 P0 ( dwell for no time -- G64 should not smooth over this point )
G00 Z0.08000 ( retract )

G00 X-4.35858 Y-2.53031 ( rapid move to begin. )
G01 F180.00000
G01 Z-0.04000
G04 P0 ( dwell for no time -- G64 should not smooth over this point )
G01 F360.00000
G01 X-4.35858 Y-2.53031
G01 X-4.33832 Y-2.53031
G01 X-4.33503 Y-2.52457
G01 X-4.33122 Y-2.52031
G04 P0 ( dwell for no time -- G64 should not smooth over this point )
G00 Z0.08000 ( retract )

G00 X-4.27107 Y-2.49359 ( rapid move to begin. )
G01 F180.00000
G01 Z-0.04000
G04 P0 ( dwell for no time -- G64 should not smooth over this point )
G01 F360.00000
G01 X-4.27107 Y-2.49359
G01 X-4.28640 Y-2.50892
G01 X-4.29507 Y-2.50701
G01 X-4.29939 Y-2.50693
G01 X-4.64142 Y-2.53031
G01 X-4.66168 Y-2.53031
G01 X-4.66497 Y-2.52457
G01 X-4.66878 Y-2.52031
G04 P0 ( dwell for no time -- G64 should not smooth over this point )
G00 Z0.08000 ( retract )

G00 X-4.66878 Y-2.57969 ( rapid move to begin. )
G01 F180.00000
G01 Z-0.04000
G04 P0 ( dwell for no time -- G64 should not smooth over this point )
G01 F360.00000
G01 X-4.66878 Y-2.57969
G01 X-4.66497 Y-2.57543
G01 X-4.66168 Y-2.56969
G01 X-4.33832 Y-2.56969
G01 X-4.33503 Y-2.57543
G01 X-4.33122 Y-2.57969
G04 P0 ( dwell for no time -- G64 should not smooth over this point )
G00 Z0.08000 ( retract )

G00 X-4.28553 Y-2.59071 ( rapid move to begin. )
G01 F180.00000
G01 Z-0.04000
G04 P0 ( dwell for no time -- G64 should not smooth over this point )
G01 F360.00000
G01 X-4.28553 Y-2.59071
G01 X-4.27872 Y-2.58767
G01 X-4.27454 Y-2.58474
G01 X-4.07284 Y-2.68559
G01 X-4.07284 Y-2.70477
G04 P0 ( dwell for no time -- G64 should not smooth over this point )
G00 Z0.08000 ( retract )

G00 X-3.92716 Y-2.57099 ( rapid move to begin. )
G01 F180.00000
G01 Z-0.04000
G04 P0 ( dwell for no time -- G64 should not smooth over this point )
G01 F360.00000
G01 X-3.92716 Y-2.57099
G01 X-3.92716 Y-2.54133
G01 X-3.88784 Y-2.58065
G01 X-3.88784 Y-2.59333
G04 P0 ( dwell for no time -- G64 should not smooth over this point )
G00 Z0.08000 ( retract )

G00 X-3.84140 Y-2.55316 ( rapid move to begin. )
G01 F180.00000
G01 Z-0.04000
G04 P0 ( dwell for no time -- G64 should not smooth over this point )
G01 F360.00000
G01 X-3.84140 Y-2.55316
G01 X-3.86035 Y-2.55316
G01 X-3.87375 Y-2.53976
G04 P0 ( dwell for no time -- G64 should not smooth over this point )
G00 Z0.08000 ( retract )

G00 X-3.82349 Y-2.42294 ( rapid move to begin. )
G01 F180.00000
G01 Z-0.04000
G04 P0 ( dwell for no time -- G64 should not smooth over this point )
G01 F360.00000
G01 X-3.82349 Y-2.42294
G01 X-3.80455 Y-2.42294
G01 X-3.79116 Y-2.43633
G04 P0 ( dwell for no time -- G64 should not smooth over this point )
G00 Z0.08000 ( retract )

G00 X-3.67896 Y-2.49355 ( rapid move to begin. )
G01 F180.00000
G01 Z-0.04000
G04 P0 ( dwell for no time -- G64 should not smooth over this point )
G01 F360.00000
G01 X-3.67896 Y-2.49355
G01 X-3.66359 Y-2.50892
G01 X-3.65452 Y-2.50695
G01 X-3.65061 Y-2.50693
G04 P0 ( dwell for no time -- G64 should not smooth over this point )
G00 Z0.08000 ( retract )

G00 X-3.61927 Y-2.51976 ( rapid move to begin. )
G01 F180.00000
G01 Z-0.04000
G04 P0 ( dwell for no time -- G64 should not smooth over this point )
G01 F360.00000
G01 X-3.61927 Y-2.51976
G01 X-3.61497 Y-2.52457
G01 X-3.61168 Y-2.53031
G01 X-3.28832 Y-2.53031
G01 X-3.28503 Y-2.52457
G01 X-3.28097 Y-2.52003
G04 P0 ( dwell for no time -- G64 should not smooth over this point )
G00 Z0.08000 ( retract )

G00 X-3.28097 Y-2.57997 ( rapid move to begin. )
G01 F180.00000
G01 Z-0.04000
G04 P0 ( dwell for no time -- G64 should not smooth over this point )
G01 F360.00000
G01 X-3.28097 Y-2.57997
G01 X-3.28503 Y-2.57543
G01 X-3.28832 Y-2.56969
G01 X-3.61168 Y-2.56969
G01 X-3.61498 Y-2.57544
G04 P0 ( dwell for no time -- G64 should not smooth over this point )
G00 Z0.08000 ( retract )

G00 X-3.74237 Y-2.69610 ( rapid move to begin. )
G01 F180.00000
G01 Z-0.04000
G04 P0 ( dwell for no time -- G64 should not smooth over this point )
G01 F360.00000
G01 X-3.74237 Y-2.69610
G01 X-3.74216 Y-2.64544
G01 X-3.72315 Y-2.64544
G01 X-3.67138 Y-2.69720
G04 P0 ( dwell for no time -- G64 should not smooth over this point )
G00 Z0.08000 ( retract )

G00 X-3.57830 Y-2.73531 ( rapid move to begin. )
G01 F180.00000
G01 Z-0.04000
G04 P0 ( dwell for no time -- G64 should not smooth over this point )
G01 F360.00000
G01 X-3.57830 Y-2.73531
G01 X-3.56490 Y-2.74871
G01 X-3.54595 Y-2.74871
G04 P0 ( dwell for no time -- G64 should not smooth over this point )
G00 Z0.08000 ( retract )

G00 X-3.57686 Y-2.90095 ( rapid move to begin. )
G01 F180.00000
G01 Z-0.04000
G04 P0 ( dwell for no time -- G64 should not smooth over this point )
G01 F360.00000
G01 X-3.57686 Y-2.90095
G01 X-3.60648 Y-2.93056
G01 X-3.61149 Y-2.93056
G01 X-3.61498 Y-2.92456
G01 X-3.62074 Y-2.91812
G01 X-3.62982 Y-2.91183
G04 P0 ( dwell for no time -- G64 should not smooth over this point )
G00 Z0.08000 ( retract )

G00 X-3.59880 Y-2.96944 ( rapid move to begin. )
G01 F180.00000
G01 Z-0.04000
G04 P0 ( dwell for no time -- G64 should not smooth over this point )
G01 F360.00000
G01 X-3.59880 Y-2.96944
G01 X-3.61149 Y-2.96944
G01 X-3.61498 Y-2.97544
G01 X-3.61801 Y-2.97884

G04 P0 ( dwell for no time -- G64 should not smooth over this point )
G00 Z1.000 ( retract )

M5 ( Spindle off. )
G04 P1.000000
M9 ( Coolant off. )
M2 ( Program end. )

