( pcb2gcode 2.1.0 )
( Software-independent Gcode )

G94 ( Inches per minute feed rate. )
G20 ( Units == INCHES. )

G90 ( Absolute coordinates. )
G00 S12000 ( RPM spindle speed. )
G64 P0.00040 ( set maximum deviation from commanded toolpath )
G01 F1.00000 ( Feedrate. )


G00 Z1.00000 (Retract to tool change height)
T0
M5      (Spindle stop.)
G04 P1.00000 (Wait for spindle to stop)
(MSG, Change tool bit to mill diameter 0.11811in)
M6      (Tool change.)
M0      (Temporary machine stop.)
M3 ( Spindle on clockwise. )
G04 P1.00000 (Wait for spindle to get up to speed)
G04 P0 ( dwell for no time -- G64 should not smooth over this point )
G00 Z0.08000 ( retract )

G00 X-3.25186 Y-2.84270 ( rapid move to begin. )
G01 F0.50000
( Mill infeed pass 1/1 )
G01 Z-0.04000
G04 P0 ( dwell for no time -- G64 should not smooth over this point )
G01 F1.00000
G01 X-3.25186 Y-2.84270
G01 X-3.24270 Y-2.84270
G01 X-3.24270 Y-2.85186
G01 X-3.24226 Y-2.85240
G01 X-3.25186 Y-2.84270
G01 X-3.25282 Y-2.84230
G04 P0 ( dwell for no time -- G64 should not smooth over this point )
G00 Z0.08000 ( retract )

G00 X-3.32424 Y-3.10428 ( rapid move to begin. )
G01 F0.50000
( Mill infeed pass 1/1 )
G01 Z-0.04000
G04 P0 ( dwell for no time -- G64 should not smooth over this point )
G01 F1.00000
G01 X-3.32424 Y-3.10428
G01 X-3.32469 Y-3.10341
G01 X-3.32743 Y-3.10119
G01 X-3.33262 Y-3.09782
G01 X-3.33761 Y-3.09494
G01 X-3.34312 Y-3.09213
G01 X-3.34889 Y-3.08992
G01 X-3.35437 Y-3.08814
G01 X-3.36034 Y-3.08654
G01 X-3.36644 Y-3.08557
G01 X-3.37217 Y-3.08497
G01 X-3.37835 Y-3.08465
G01 X-3.42165 Y-3.08465
G01 X-3.42783 Y-3.08497
G01 X-3.43356 Y-3.08557
G01 X-3.43966 Y-3.08654
G01 X-3.44563 Y-3.08814
G01 X-3.45111 Y-3.08992
G01 X-3.45688 Y-3.09213
G01 X-3.46239 Y-3.09494
G01 X-3.46501 Y-3.09645
G01 X-4.01182 Y-3.09645
G01 X-4.22519 Y-2.88308
G01 X-4.22519 Y-2.86346
G01 X-4.22559 Y-2.86306
G01 X-4.22519 Y-2.86346
G01 X-4.18777 Y-2.86346
G01 X-4.04852 Y-3.00272
G01 X-4.04511 Y-3.00587
G01 X-4.04326 Y-3.00745
G01 X-4.03577 Y-3.01289
G01 X-4.03369 Y-3.01416
G01 X-4.02544 Y-3.01837
G01 X-4.02319 Y-3.01930
G01 X-4.01438 Y-3.02216
G01 X-4.01201 Y-3.02273
G01 X-4.00286 Y-3.02418
G01 X-3.99580 Y-3.02455
G01 X-3.71408 Y-3.02455
G01 X-3.71104 Y-3.02702
G01 X-3.70439 Y-3.03185
G01 X-3.69920 Y-3.03522
G01 X-3.69369 Y-3.03803
G01 X-3.68618 Y-3.04137
G01 X-3.68041 Y-3.04359
G01 X-3.67444 Y-3.04519
G01 X-3.66639 Y-3.04690
G01 X-3.66029 Y-3.04787
G01 X-3.65411 Y-3.04819
G01 X-3.64589 Y-3.04819
G01 X-3.63971 Y-3.04787
G01 X-3.63361 Y-3.04690
G01 X-3.62556 Y-3.04519
G01 X-3.61959 Y-3.04359
G01 X-3.61382 Y-3.04137
G01 X-3.60630 Y-3.03803
G01 X-3.60080 Y-3.03522
G01 X-3.59561 Y-3.03185
G01 X-3.58896 Y-3.02702
G01 X-3.58420 Y-3.02317
G01 X-3.57826 Y-3.02171
G01 X-3.57535 Y-3.02083
G01 X-3.56466 Y-3.01640
G01 X-3.55700 Y-3.01199
G01 X-3.55235 Y-3.00854
G01 X-3.54571 Y-3.00272
G01 X-3.47394 Y-2.93095
G01 X-3.47227 Y-2.93050
G01 X-3.46650 Y-2.92829
G01 X-3.46161 Y-2.92611
G01 X-3.45850 Y-2.92453
G01 X-3.45847 Y-2.92407
G01 X-3.45840 Y-2.92469
G01 X-3.44819 Y-2.93015
G01 X-3.43711 Y-2.93351
G01 X-3.42559 Y-2.93465
G01 X-3.37441 Y-2.93465
G01 X-3.37108 Y-2.93435
G01 X-3.34794 Y-2.95749
G01 X-3.34722 Y-2.96435
G01 X-3.34625 Y-2.97046
G01 X-3.34465 Y-2.97643
G01 X-3.34211 Y-2.98425
G01 X-3.33990 Y-2.99002
G01 X-3.33709 Y-2.99553
G01 X-3.33298 Y-3.00266
G01 X-3.32961 Y-3.00784
G01 X-3.32456 Y-3.01394
G01 X-3.32456 Y-3.10368
G01 X-3.32416 Y-3.10446
G04 P0 ( dwell for no time -- G64 should not smooth over this point )
G00 Z0.08000 ( retract )

G00 X-3.50756 Y-3.24566 ( rapid move to begin. )
G01 F0.50000
( Mill infeed pass 1/1 )
G01 Z-0.04000
G04 P0 ( dwell for no time -- G64 should not smooth over this point )
G01 F1.00000
G01 X-3.50756 Y-3.24566
G01 X-3.50800 Y-3.24606
G01 X-3.67036 Y-3.24606
G01 X-3.67114 Y-3.24566
G01 X-3.67008 Y-3.24621
G01 X-3.66743 Y-3.25050
G01 X-3.65803 Y-3.25393
G01 X-3.50800 Y-3.25393
G01 X-3.50756 Y-3.25433
G01 X-3.50806 Y-3.25388
G01 X-3.50812 Y-3.25288
G01 X-3.50806 Y-3.24612
G01 X-3.50764 Y-3.24574
G04 P0 ( dwell for no time -- G64 should not smooth over this point )
G00 Z0.08000 ( retract )

G00 X-3.96831 Y-2.87206 ( rapid move to begin. )
G01 F0.50000
( Mill infeed pass 1/1 )
G01 Z-0.04000
G04 P0 ( dwell for no time -- G64 should not smooth over this point )
G01 F1.00000
G01 X-3.96831 Y-2.87206
G01 X-3.93110 Y-2.87206
G01 X-3.91958 Y-2.87092
G01 X-3.90850 Y-2.86756
G01 X-3.89829 Y-2.86210
G01 X-3.88934 Y-2.85476
G01 X-3.88200 Y-2.84581
G01 X-3.87654 Y-2.83560
G01 X-3.87318 Y-2.82452
G01 X-3.87204 Y-2.81300
G01 X-3.87204 Y-2.75395
G01 X-3.87244 Y-2.75355
G01 X-3.87204 Y-2.75395
G01 X-3.74610 Y-2.75395
G01 X-3.73584 Y-2.75306
G01 X-3.72590 Y-2.75039
G01 X-3.71657 Y-2.74604
G01 X-3.70814 Y-2.74014
G01 X-3.70727 Y-2.73927
G01 X-3.62567 Y-2.82087
G01 X-3.62137 Y-2.82476
G01 X-3.61903 Y-2.82669
G01 X-3.60940 Y-2.83312
G01 X-3.60672 Y-2.83455
G01 X-3.59602 Y-2.83898
G01 X-3.59358 Y-2.83972
G01 X-3.59281 Y-2.83952
G01 X-3.59358 Y-2.83972
G01 X-3.61290 Y-2.85904
G01 X-3.61959 Y-2.85641
G01 X-3.62556 Y-2.85481
G01 X-3.63361 Y-2.85310
G01 X-3.63971 Y-2.85213
G01 X-3.64589 Y-2.85181
G01 X-3.65411 Y-2.85181
G01 X-3.66029 Y-2.85213
G01 X-3.66639 Y-2.85310
G01 X-3.67444 Y-2.85481
G01 X-3.68041 Y-2.85641
G01 X-3.68618 Y-2.85863
G01 X-3.69369 Y-2.86197
G01 X-3.69920 Y-2.86478
G01 X-3.70439 Y-2.86815
G01 X-3.71104 Y-2.87298
G01 X-3.71408 Y-2.87544
G01 X-3.96492 Y-2.87544
G01 X-3.96831 Y-2.87206
G01 X-3.96927 Y-2.87166
G04 P0 ( dwell for no time -- G64 should not smooth over this point )
G00 Z0.08000 ( retract )

G00 X-4.34083 Y-3.03929 ( rapid move to begin. )
G01 F0.50000
( Mill infeed pass 1/1 )
G01 Z-0.04000
G04 P0 ( dwell for no time -- G64 should not smooth over this point )
G01 F1.00000
G01 X-4.34083 Y-3.03929
G01 X-4.34073 Y-3.24550
G01 X-4.34128 Y-3.25393
G01 X-4.34172 Y-3.25433
G01 X-4.34128 Y-3.25393
G01 X-4.23455 Y-3.25393
G01 X-4.23140 Y-3.24849
G01 X-4.22804 Y-3.24330
G01 X-4.22415 Y-3.23850
G01 X-4.21891 Y-3.23269
G01 X-4.21454 Y-3.22832
G01 X-4.20974 Y-3.22443
G01 X-4.20341 Y-3.21983
G01 X-4.19823 Y-3.21647
G01 X-4.19272 Y-3.21366
G01 X-4.18558 Y-3.21048
G01 X-4.17981 Y-3.20826
G01 X-4.17384 Y-3.20666
G01 X-4.16619 Y-3.20504
G01 X-4.16008 Y-3.20407
G01 X-4.15391 Y-3.20375
G01 X-4.14609 Y-3.20375
G01 X-4.13992 Y-3.20407
G01 X-4.13381 Y-3.20504
G01 X-4.12616 Y-3.20666
G01 X-4.12019 Y-3.20826
G01 X-4.11686 Y-3.20954
G01 X-4.11682 Y-3.21016
G01 X-4.11685 Y-3.20973
G01 X-4.11255 Y-3.20743
G01 X-4.11168 Y-3.20761
G01 X-4.11239 Y-3.20747
G01 X-4.27485 Y-3.04500
G01 X-4.28361 Y-3.04690
G01 X-4.28971 Y-3.04787
G01 X-4.29589 Y-3.04819
G01 X-4.30411 Y-3.04819
G01 X-4.31029 Y-3.04787
G01 X-4.31639 Y-3.04690
G01 X-4.32444 Y-3.04519
G01 X-4.33041 Y-3.04359
G01 X-4.33618 Y-3.04137
G01 X-4.34082 Y-3.03931
G01 X-4.34126 Y-3.03866
G04 P0 ( dwell for no time -- G64 should not smooth over this point )
G00 Z0.08000 ( retract )

G00 X-4.60740 Y-3.24302 ( rapid move to begin. )
G01 F0.50000
( Mill infeed pass 1/1 )
G01 Z-0.04000
G04 P0 ( dwell for no time -- G64 should not smooth over this point )
G01 F1.00000
G01 X-4.60740 Y-3.24302
G01 X-4.60792 Y-3.24340
G01 X-4.60812 Y-3.24712
G01 X-4.60812 Y-3.25288
G01 X-4.60779 Y-3.25905
G01 X-4.60683 Y-3.26516
G01 X-4.60563 Y-3.27079
G01 X-4.60403 Y-3.27677
G01 X-4.60181 Y-3.28254
G01 X-4.59947 Y-3.28780
G01 X-4.59867 Y-3.28937
G01 X-4.59822 Y-3.28937
G01 X-4.59867 Y-3.28937
G01 X-4.59947 Y-3.29094
G01 X-4.60181 Y-3.29620
G01 X-4.60403 Y-3.30197
G01 X-4.60563 Y-3.30795
G01 X-4.60683 Y-3.31358
G01 X-4.60779 Y-3.31969
G01 X-4.60812 Y-3.32586
G01 X-4.60812 Y-3.33162
G01 X-4.60779 Y-3.33779
G01 X-4.60683 Y-3.34390
G01 X-4.60563 Y-3.34953
G01 X-4.60403 Y-3.35550
G01 X-4.60181 Y-3.36128
G01 X-4.59947 Y-3.36654
G01 X-4.59666 Y-3.37205
G01 X-4.59330 Y-3.37723
G01 X-4.58991 Y-3.38189
G01 X-4.58602 Y-3.38670
G01 X-4.58165 Y-3.39107
G01 X-4.57737 Y-3.39492
G01 X-4.57256 Y-3.39881
G01 X-4.56738 Y-3.40218
G01 X-4.56239 Y-3.40506
G01 X-4.55688 Y-3.40787
G01 X-4.55111 Y-3.41008
G01 X-4.54563 Y-3.41186
G01 X-4.53966 Y-3.41346
G01 X-4.53356 Y-3.41443
G01 X-4.52783 Y-3.41503
G01 X-4.52165 Y-3.41535
G01 X-4.47835 Y-3.41535
G01 X-4.47217 Y-3.41503
G01 X-4.46644 Y-3.41443
G01 X-4.46034 Y-3.41346
G01 X-4.45437 Y-3.41186
G01 X-4.44889 Y-3.41008
G01 X-4.44312 Y-3.40787
G01 X-4.43761 Y-3.40506
G01 X-4.43499 Y-3.40354
G01 X-4.17874 Y-3.40354
G01 X-4.17295 Y-3.40326
G01 X-4.16988 Y-3.40296
G01 X-4.15852 Y-3.40070
G01 X-4.15557 Y-3.39980
G01 X-4.14700 Y-3.39625
G01 X-4.13992 Y-3.39593
G01 X-4.13381 Y-3.39496
G01 X-4.12616 Y-3.39333
G01 X-4.12019 Y-3.39174
G01 X-4.11686 Y-3.39046
G01 X-4.11682 Y-3.38983
G01 X-4.11685 Y-3.39027
G01 X-4.11000 Y-3.39393
G01 X-4.09892 Y-3.39729
G01 X-4.08740 Y-3.39843
G01 X-4.01260 Y-3.39843
G01 X-4.00108 Y-3.39729
G01 X-3.99000 Y-3.39393
G01 X-3.97979 Y-3.38847
G01 X-3.97084 Y-3.38113
G01 X-3.96544 Y-3.37455
G01 X-3.93455 Y-3.37455
G01 X-3.92916 Y-3.38113
G01 X-3.92276 Y-3.38638
G01 X-3.92216 Y-3.38895
G01 X-3.91930 Y-3.39776
G01 X-3.91837 Y-3.40001
G01 X-3.91416 Y-3.40826
G01 X-3.91289 Y-3.41034
G01 X-3.90744 Y-3.41783
G01 X-3.90272 Y-3.42309
G01 X-3.87429 Y-3.45152
G01 X-3.86764 Y-3.45734
G01 X-3.85802 Y-3.46377
G01 X-3.85534 Y-3.46520
G01 X-3.84464 Y-3.46963
G01 X-3.84174 Y-3.47051
G01 X-3.83038 Y-3.47277
G01 X-3.82157 Y-3.47335
G01 X-3.34933 Y-3.47335
G01 X-3.34354 Y-3.47307
G01 X-3.33478 Y-3.47192
G01 X-3.32625 Y-3.46963
G01 X-3.31556 Y-3.46520
G01 X-3.30790 Y-3.46079
G01 X-3.30325 Y-3.45734
G01 X-3.29661 Y-3.45152
G01 X-3.11543 Y-3.27034
G01 X-3.10961 Y-3.26370
G01 X-3.10616 Y-3.25904
G01 X-3.10175 Y-3.25139
G01 X-3.09732 Y-3.24070
G01 X-3.09503 Y-3.23217
G01 X-3.09388 Y-3.22341
G01 X-3.09359 Y-3.21762
G01 X-3.09359 Y-2.81071
G01 X-3.09388 Y-2.80492
G01 X-3.09503 Y-2.79617
G01 X-3.09732 Y-2.78764
G01 X-3.10175 Y-2.77694
G01 X-3.10318 Y-2.77426
G01 X-3.10616 Y-2.76929
G01 X-3.11154 Y-2.76229
G01 X-3.11543 Y-2.75799
G01 X-3.15799 Y-2.71543
G01 X-3.16464 Y-2.70961
G01 X-3.16929 Y-2.70616
G01 X-3.17426 Y-2.70318
G01 X-3.17694 Y-2.70175
G01 X-3.18764 Y-2.69732
G01 X-3.19054 Y-2.69643
G01 X-3.19617 Y-2.69503
G01 X-3.20190 Y-2.69418
G01 X-3.21071 Y-2.69359
G01 X-3.54207 Y-2.69359
G01 X-3.60081 Y-2.63485
G01 X-3.60146 Y-2.63477
G01 X-3.60033 Y-2.63491
G01 X-3.59561 Y-2.63185
G01 X-3.58896 Y-2.62702
G01 X-3.58622 Y-2.62480
G01 X-3.31378 Y-2.62480
G01 X-3.31104 Y-2.62702
G01 X-3.30439 Y-2.63185
G01 X-3.29920 Y-2.63522
G01 X-3.29369 Y-2.63803
G01 X-3.28618 Y-2.64137
G01 X-3.28041 Y-2.64359
G01 X-3.27444 Y-2.64519
G01 X-3.26639 Y-2.64690
G01 X-3.26029 Y-2.64787
G01 X-3.25411 Y-2.64819
G01 X-3.24589 Y-2.64819
G01 X-3.23971 Y-2.64787
G01 X-3.23361 Y-2.64690
G01 X-3.22556 Y-2.64519
G01 X-3.21959 Y-2.64359
G01 X-3.21382 Y-2.64137
G01 X-3.20630 Y-2.63803
G01 X-3.20080 Y-2.63522
G01 X-3.19561 Y-2.63185
G01 X-3.18896 Y-2.62702
G01 X-3.18415 Y-2.62313
G01 X-3.17978 Y-2.61876
G01 X-3.17428 Y-2.61264
G01 X-3.17039 Y-2.60784
G01 X-3.16702 Y-2.60266
G01 X-3.16291 Y-2.59553
G01 X-3.16010 Y-2.59002
G01 X-3.15789 Y-2.58425
G01 X-3.15535 Y-2.57643
G01 X-3.15374 Y-2.57046
G01 X-3.15278 Y-2.56435
G01 X-3.15192 Y-2.55617
G01 X-3.15159 Y-2.55000
G01 X-3.15192 Y-2.54383
G01 X-3.15278 Y-2.53565
G01 X-3.15374 Y-2.52954
G01 X-3.15535 Y-2.52357
G01 X-3.15789 Y-2.51574
G01 X-3.16010 Y-2.50997
G01 X-3.16291 Y-2.50447
G01 X-3.16702 Y-2.49734
G01 X-3.17039 Y-2.49216
G01 X-3.17428 Y-2.48735
G01 X-3.17978 Y-2.48124
G01 X-3.18415 Y-2.47687
G01 X-3.18896 Y-2.47298
G01 X-3.19561 Y-2.46814
G01 X-3.20080 Y-2.46478
G01 X-3.20630 Y-2.46197
G01 X-3.21382 Y-2.45863
G01 X-3.21959 Y-2.45641
G01 X-3.22556 Y-2.45481
G01 X-3.23361 Y-2.45310
G01 X-3.23971 Y-2.45213
G01 X-3.24589 Y-2.45181
G01 X-3.25411 Y-2.45181
G01 X-3.26029 Y-2.45213
G01 X-3.26639 Y-2.45310
G01 X-3.27444 Y-2.45481
G01 X-3.28041 Y-2.45641
G01 X-3.28618 Y-2.45863
G01 X-3.29369 Y-2.46197
G01 X-3.29920 Y-2.46478
G01 X-3.30439 Y-2.46814
G01 X-3.31104 Y-2.47298
G01 X-3.31378 Y-2.47519
G01 X-3.58622 Y-2.47519
G01 X-3.58896 Y-2.47298
G01 X-3.59561 Y-2.46814
G01 X-3.60080 Y-2.46478
G01 X-3.60630 Y-2.46197
G01 X-3.61382 Y-2.45863
G01 X-3.61959 Y-2.45641
G01 X-3.62556 Y-2.45481
G01 X-3.63361 Y-2.45310
G01 X-3.63971 Y-2.45213
G01 X-3.64258 Y-2.45198
G01 X-3.74378 Y-2.35078
G01 X-3.74904 Y-2.34605
G01 X-3.75653 Y-2.34061
G01 X-3.75861 Y-2.33934
G01 X-3.76686 Y-2.33513
G01 X-3.76911 Y-2.33420
G01 X-3.77792 Y-2.33133
G01 X-3.78029 Y-2.33077
G01 X-3.78944 Y-2.32932
G01 X-3.79650 Y-2.32894
G01 X-4.15350 Y-2.32894
G01 X-4.16056 Y-2.32932
G01 X-4.16971 Y-2.33077
G01 X-4.17207 Y-2.33133
G01 X-4.18089 Y-2.33420
G01 X-4.18314 Y-2.33513
G01 X-4.19139 Y-2.33934
G01 X-4.19346 Y-2.34061
G01 X-4.20096 Y-2.34605
G01 X-4.20281 Y-2.34763
G01 X-4.20622 Y-2.35078
G01 X-4.30742 Y-2.45198
G01 X-4.31029 Y-2.45213
G01 X-4.31639 Y-2.45310
G01 X-4.32444 Y-2.45481
G01 X-4.33041 Y-2.45641
G01 X-4.33618 Y-2.45863
G01 X-4.34369 Y-2.46197
G01 X-4.34920 Y-2.46478
G01 X-4.35439 Y-2.46814
G01 X-4.36104 Y-2.47298
G01 X-4.36378 Y-2.47519
G01 X-4.63622 Y-2.47519
G01 X-4.63896 Y-2.47298
G01 X-4.64561 Y-2.46814
G01 X-4.65080 Y-2.46478
G01 X-4.65630 Y-2.46197
G01 X-4.66382 Y-2.45863
G01 X-4.66959 Y-2.45641
G01 X-4.67556 Y-2.45481
G01 X-4.68361 Y-2.45310
G01 X-4.68971 Y-2.45213
G01 X-4.69589 Y-2.45181
G01 X-4.70411 Y-2.45181
G01 X-4.71029 Y-2.45213
G01 X-4.71639 Y-2.45310
G01 X-4.72444 Y-2.45481
G01 X-4.73041 Y-2.45641
G01 X-4.73618 Y-2.45863
G01 X-4.74369 Y-2.46197
G01 X-4.74920 Y-2.46478
G01 X-4.75439 Y-2.46814
G01 X-4.76104 Y-2.47298
G01 X-4.76584 Y-2.47687
G01 X-4.77022 Y-2.48124
G01 X-4.77572 Y-2.48735
G01 X-4.77961 Y-2.49216
G01 X-4.78298 Y-2.49734
G01 X-4.78709 Y-2.50447
G01 X-4.78990 Y-2.50997
G01 X-4.79211 Y-2.51574
G01 X-4.79465 Y-2.52357
G01 X-4.79625 Y-2.52954
G01 X-4.79722 Y-2.53565
G01 X-4.79808 Y-2.54383
G01 X-4.79840 Y-2.55000
G01 X-4.79808 Y-2.55617
G01 X-4.79722 Y-2.56435
G01 X-4.79625 Y-2.57046
G01 X-4.79465 Y-2.57643
G01 X-4.79211 Y-2.58425
G01 X-4.78990 Y-2.59002
G01 X-4.78709 Y-2.59553
G01 X-4.78298 Y-2.60266
G01 X-4.77961 Y-2.60784
G01 X-4.77572 Y-2.61264
G01 X-4.77022 Y-2.61876
G01 X-4.76584 Y-2.62313
G01 X-4.76104 Y-2.62702
G01 X-4.75439 Y-2.63185
G01 X-4.74920 Y-2.63522
G01 X-4.74369 Y-2.63803
G01 X-4.73618 Y-2.64137
G01 X-4.73041 Y-2.64359
G01 X-4.72444 Y-2.64519
G01 X-4.71639 Y-2.64690
G01 X-4.71029 Y-2.64787
G01 X-4.70411 Y-2.64819
G01 X-4.69589 Y-2.64819
G01 X-4.68971 Y-2.64787
G01 X-4.68361 Y-2.64690
G01 X-4.67556 Y-2.64519
G01 X-4.66959 Y-2.64359
G01 X-4.66382 Y-2.64137
G01 X-4.65630 Y-2.63803
G01 X-4.65080 Y-2.63522
G01 X-4.64561 Y-2.63185
G01 X-4.63896 Y-2.62702
G01 X-4.63622 Y-2.62480
G01 X-4.36378 Y-2.62480
G01 X-4.36104 Y-2.62702
G01 X-4.35439 Y-2.63185
G01 X-4.34920 Y-2.63522
G01 X-4.34369 Y-2.63803
G01 X-4.33618 Y-2.64137
G01 X-4.33041 Y-2.64359
G01 X-4.32444 Y-2.64519
G01 X-4.31639 Y-2.64690
G01 X-4.31029 Y-2.64787
G01 X-4.30411 Y-2.64819
G01 X-4.29589 Y-2.64819
G01 X-4.28971 Y-2.64787
G01 X-4.28361 Y-2.64690
G01 X-4.27649 Y-2.64539
G01 X-4.12796 Y-2.71966
G01 X-4.12795 Y-2.72025
G01 X-4.12755 Y-2.72085
G01 X-4.12795 Y-2.72025
G01 X-4.12950 Y-2.71961
G01 X-4.13831 Y-2.71674
G01 X-4.14068 Y-2.71618
G01 X-4.14983 Y-2.71473
G01 X-4.15689 Y-2.71435
G01 X-4.64969 Y-2.71435
G01 X-4.65850 Y-2.71494
G01 X-4.66985 Y-2.71719
G01 X-4.67276 Y-2.71808
G01 X-4.68346 Y-2.72251
G01 X-4.68614 Y-2.72394
G01 X-4.69576 Y-2.73037
G01 X-4.70240 Y-2.73619
G01 X-4.82757 Y-2.86135
G01 X-4.83071 Y-2.86476
G01 X-4.83230 Y-2.86661
G01 X-4.83774 Y-2.87410
G01 X-4.83901 Y-2.87618
G01 X-4.84322 Y-2.88443
G01 X-4.84415 Y-2.88668
G01 X-4.84701 Y-2.89549
G01 X-4.84758 Y-2.89786
G01 X-4.84903 Y-2.90701
G01 X-4.84922 Y-2.90944
G01 X-4.84940 Y-2.91407
G01 X-4.84940 Y-2.98593
G01 X-4.84903 Y-2.99299
G01 X-4.84758 Y-3.00214
G01 X-4.84701 Y-3.00450
G01 X-4.84415 Y-3.01332
G01 X-4.84322 Y-3.01556
G01 X-4.83901 Y-3.02382
G01 X-4.83774 Y-3.02589
G01 X-4.83230 Y-3.03339
G01 X-4.82757 Y-3.03865
G01 X-4.64224 Y-3.22398
G01 X-4.63559 Y-3.22980
G01 X-4.62597 Y-3.23623
G01 X-4.62329 Y-3.23766
G01 X-4.61259 Y-3.24209
G01 X-4.60968 Y-3.24297
G01 X-4.60784 Y-3.24334
G01 X-4.60751 Y-3.24310
G04 P0 ( dwell for no time -- G64 should not smooth over this point )
G00 Z0.08000 ( retract )

G00 X-4.63394 Y-3.02196 ( rapid move to begin. )
G01 F0.50000
( Mill infeed pass 1/1 )
G01 Z-0.04000
G04 P0 ( dwell for no time -- G64 should not smooth over this point )
G01 F1.00000
G01 X-4.63394 Y-3.02196
G01 X-4.63336 Y-3.02198
G01 X-4.56107 Y-3.09427
G01 X-4.55688 Y-3.09213
G01 X-4.55111 Y-3.08992
G01 X-4.54563 Y-3.08814
G01 X-4.53966 Y-3.08654
G01 X-4.53356 Y-3.08557
G01 X-4.52783 Y-3.08497
G01 X-4.52165 Y-3.08465
G01 X-4.48984 Y-3.08465
G01 X-4.48944 Y-3.08505
G01 X-4.48984 Y-3.08465
G01 X-4.48984 Y-3.07218
G01 X-4.60229 Y-2.95973
G01 X-4.60278 Y-2.96435
G01 X-4.60374 Y-2.97046
G01 X-4.60534 Y-2.97643
G01 X-4.60789 Y-2.98425
G01 X-4.61010 Y-2.99002
G01 X-4.61291 Y-2.99553
G01 X-4.61702 Y-3.00266
G01 X-4.62039 Y-3.00784
G01 X-4.62428 Y-3.01264
G01 X-4.62978 Y-3.01876
G01 X-4.63301 Y-3.02199
G01 X-4.63356 Y-3.02197
G04 P0 ( dwell for no time -- G64 should not smooth over this point )
G00 Z0.08000 ( retract )

G00 X-4.39768 Y-2.95404 ( rapid move to begin. )
G01 F0.50000
( Mill infeed pass 1/1 )
G01 Z-0.04000
G04 P0 ( dwell for no time -- G64 should not smooth over this point )
G01 F1.00000
G01 X-4.39768 Y-2.95404
G01 X-4.39808 Y-2.95307
G01 X-4.42208 Y-2.92908
G01 X-4.42282 Y-2.92890
G01 X-4.42185 Y-2.92913
G01 X-4.41965 Y-2.92829
G01 X-4.41219 Y-2.92481
G01 X-4.39499 Y-2.92481
G01 X-4.39625 Y-2.92954
G01 X-4.39722 Y-2.93565
G01 X-4.39808 Y-2.94383
G01 X-4.39841 Y-2.95000
G01 X-4.39827 Y-2.95262
G01 X-4.39808 Y-2.95307
G04 P0 ( dwell for no time -- G64 should not smooth over this point )
G00 Z0.08000 ( retract )

G00 X-4.12796 Y-2.48339 ( rapid move to begin. )
G01 F0.50000
( Mill infeed pass 1/1 )
G01 Z-0.04000
G04 P0 ( dwell for no time -- G64 should not smooth over this point )
G01 F1.00000
G01 X-4.12796 Y-2.48339
G01 X-4.17395 Y-2.52939
G01 X-4.12795 Y-2.55239
G01 X-4.12755 Y-2.55303
G01 X-4.12795 Y-2.55239
G01 X-4.12796 Y-2.48339
G01 X-4.12756 Y-2.48243
G04 P0 ( dwell for no time -- G64 should not smooth over this point )
G00 Z0.08000 ( retract )

G00 X-3.80739 Y-2.49804 ( rapid move to begin. )
G01 F0.50000
( Mill infeed pass 1/1 )
G01 Z-0.04000
G04 P0 ( dwell for no time -- G64 should not smooth over this point )
G01 F1.00000
G01 X-3.80739 Y-2.49804
G01 X-3.83752 Y-2.49804
G01 X-3.85751 Y-2.47805
G01 X-3.85847 Y-2.47765
G01 X-3.85751 Y-2.47805
G01 X-3.82738 Y-2.47805
G01 X-3.80739 Y-2.49804
G01 X-3.80642 Y-2.49844

G04 P0 ( dwell for no time -- G64 should not smooth over this point )
G00 Z1.000000 ( retract )

M5 ( Spindle off. )
G04 P1.000000

G00 Z1.00000 (Retract to tool change height)
T1
M5      (Spindle stop.)
G04 P1.00000 (Wait for spindle to stop)
(MSG, Change tool bit to mill diameter 0.00787in)
M6      (Tool change.)
M0      (Temporary machine stop.)
M3 ( Spindle on clockwise. )
G04 P1.00000 (Wait for spindle to get up to speed)
G04 P0 ( dwell for no time -- G64 should not smooth over this point )
G00 Z0.08000 ( retract )

G00 X-3.28038 Y-2.51937 ( rapid move to begin. )
G01 F0.50000
( Mill infeed pass 1/1 )
G01 Z-0.04000
G04 P0 ( dwell for no time -- G64 should not smooth over this point )
G01 F1.00000
G01 X-3.28038 Y-2.51937
G01 X-3.28503 Y-2.52457
G01 X-3.28832 Y-2.53031
G01 X-3.30925 Y-2.53031
G04 P0 ( dwell for no time -- G64 should not smooth over this point )
G00 Z0.08000 ( retract )

G00 X-3.30924 Y-2.56969 ( rapid move to begin. )
G01 F0.50000
( Mill infeed pass 1/1 )
G01 Z-0.04000
G04 P0 ( dwell for no time -- G64 should not smooth over this point )
G01 F1.00000
G01 X-3.30924 Y-2.56969
G01 X-3.28832 Y-2.56969
G01 X-3.28503 Y-2.57543
G01 X-3.28038 Y-2.58063
G04 P0 ( dwell for no time -- G64 should not smooth over this point )
G00 Z0.08000 ( retract )

G00 X-3.27666 Y-2.89585 ( rapid move to begin. )
G01 F0.50000
( Mill infeed pass 1/1 )
G01 Z-0.04000
G04 P0 ( dwell for no time -- G64 should not smooth over this point )
G01 F1.00000
G01 X-3.27666 Y-2.89585
G01 X-3.26360 Y-2.90891
G01 X-3.25493 Y-2.90701
G01 X-3.25122 Y-2.90693
G04 P0 ( dwell for no time -- G64 should not smooth over this point )
G00 Z0.08000 ( retract )

G00 X-3.29322 Y-2.94918 ( rapid move to begin. )
G01 F0.50000
( Mill infeed pass 1/1 )
G01 Z-0.04000
G04 P0 ( dwell for no time -- G64 should not smooth over this point )
G01 F1.00000
G01 X-3.29322 Y-2.94918
G01 X-3.29234 Y-2.94100
G01 X-3.29092 Y-2.93656
G01 X-3.35805 Y-2.86944
G01 X-3.37047 Y-2.86944
G01 X-3.37053 Y-2.87627
G01 X-3.37071 Y-2.87694
G01 X-3.37139 Y-2.87812
G01 X-3.37257 Y-2.87906
G04 P0 ( dwell for no time -- G64 should not smooth over this point )
G00 Z0.08000 ( retract )

G00 X-3.42910 Y-2.87734 ( rapid move to begin. )
G01 F0.50000
( Mill infeed pass 1/1 )
G01 Z-0.04000
G04 P0 ( dwell for no time -- G64 should not smooth over this point )
G01 F1.00000
G01 X-3.42910 Y-2.87734
G01 X-3.42945 Y-2.87636
G01 X-3.42953 Y-2.87559
G01 X-3.42953 Y-2.82441
G01 X-3.42923 Y-2.82290
G01 X-3.42837 Y-2.82163
G01 X-3.42710 Y-2.82077
G01 X-3.42559 Y-2.82047
G01 X-3.37441 Y-2.82047
G01 X-3.37290 Y-2.82077
G01 X-3.37222 Y-2.82113
G01 X-3.37114 Y-2.82222
G01 X-3.37055 Y-2.82364
G01 X-3.37047 Y-2.83056
G01 X-3.35000 Y-2.83056
G01 X-3.34659 Y-2.83088
G01 X-3.34256 Y-2.83204
G01 X-3.33953 Y-2.83364
G01 X-3.33625 Y-2.83625
G01 X-3.29714 Y-2.87538
G01 X-3.24215 Y-2.90763
G01 X-3.23662 Y-2.90883
G01 X-3.22872 Y-2.91233
G01 X-3.22135 Y-2.91757
G01 X-3.21498 Y-2.92456
G01 X-3.21046 Y-2.93239
G01 X-3.20766 Y-2.94100
G01 X-3.20673 Y-2.95041
G01 X-3.20766 Y-2.95900
G01 X-3.21031 Y-2.96722
G01 X-3.21475 Y-2.97510
G01 X-3.22104 Y-2.98217
G01 X-3.22801 Y-2.98726
G01 X-3.23056 Y-2.98849
G01 X-3.23056 Y-3.18021
G01 X-3.23088 Y-3.18362
G01 X-3.23191 Y-3.18729
G01 X-3.23407 Y-3.19132
G01 X-3.23625 Y-3.19395
G01 X-3.30604 Y-3.26374
G01 X-3.30812 Y-3.26553
G01 X-3.31069 Y-3.26717
G01 X-3.31408 Y-3.26857
G01 X-3.31705 Y-3.26923
G01 X-3.31979 Y-3.26944
G01 X-3.35372 Y-3.26944
G01 X-3.35523 Y-3.27137
G01 X-3.36018 Y-3.27570
G01 X-3.36553 Y-3.27877
G01 X-3.37221 Y-3.28087
G01 X-3.37835 Y-3.28150
G01 X-3.42206 Y-3.28147
G01 X-3.42820 Y-3.28081
G01 X-3.43408 Y-3.27892
G01 X-3.44049 Y-3.27522
G01 X-3.44506 Y-3.27107
G01 X-3.44893 Y-3.26575
G01 X-3.45161 Y-3.25973
G01 X-3.45243 Y-3.25597
G04 P0 ( dwell for no time -- G64 should not smooth over this point )
G00 Z0.08000 ( retract )

G00 X-3.50001 Y-3.30905 ( rapid move to begin. )
G01 F0.50000
( Mill infeed pass 1/1 )
G01 Z-0.04000
G04 P0 ( dwell for no time -- G64 should not smooth over this point )
G01 F1.00000
G01 X-3.50001 Y-3.30905
G01 X-3.44609 Y-3.30905
G01 X-3.44477 Y-3.30737
G01 X-3.44017 Y-3.30326
G01 X-3.43446 Y-3.29997
G01 X-3.42820 Y-3.29793
G01 X-3.42206 Y-3.29726
G01 X-3.37835 Y-3.29724
G01 X-3.37221 Y-3.29787
G01 X-3.36553 Y-3.29997
G01 X-3.36018 Y-3.30303
G01 X-3.35468 Y-3.30798
G01 X-3.35107 Y-3.31299
G01 X-3.34839 Y-3.31901
G01 X-3.34702 Y-3.32545
G01 X-3.34702 Y-3.33203
G01 X-3.34854 Y-3.33886
G01 X-3.35107 Y-3.34449
G01 X-3.35468 Y-3.34949
G01 X-3.35983 Y-3.35422
G01 X-3.36592 Y-3.35766
G01 X-3.37180 Y-3.35955
G01 X-3.37835 Y-3.36024
G01 X-3.42165 Y-3.36024
G01 X-3.42820 Y-3.35955
G01 X-3.43446 Y-3.35751
G01 X-3.44017 Y-3.35422
G01 X-3.44477 Y-3.35011
G01 X-3.44609 Y-3.34843
G01 X-3.67126 Y-3.34843
G01 X-3.67434 Y-3.34817
G01 X-3.67801 Y-3.34723
G01 X-3.72262 Y-3.33095
G01 X-3.72933 Y-3.33580
G01 X-3.73723 Y-3.33932
G01 X-3.74568 Y-3.34111
G01 X-3.75432 Y-3.34111
G01 X-3.76316 Y-3.33917
G01 X-3.77067 Y-3.33580
G01 X-3.77734 Y-3.33098
G01 X-3.78344 Y-3.32430
G01 X-3.78776 Y-3.31681
G01 X-3.79043 Y-3.30859
G01 X-3.79132 Y-3.29959
G01 X-3.79043 Y-3.29141
G01 X-3.78791 Y-3.28357
G01 X-3.78367 Y-3.27605
G01 X-3.77766 Y-3.26928
G01 X-3.77067 Y-3.26420
G01 X-3.76277 Y-3.26068
G01 X-3.75432 Y-3.25889
G01 X-3.74527 Y-3.25895
G01 X-3.73723 Y-3.26068
G01 X-3.72933 Y-3.26420
G01 X-3.72234 Y-3.26928
G01 X-3.71945 Y-3.27246
G01 X-3.67280 Y-3.30722
G01 X-3.66778 Y-3.30905
G01 X-3.66243 Y-3.30905
G01 X-3.69048 Y-3.30077
G01 X-3.70928 Y-3.29391
G01 X-3.70967 Y-3.29101
G01 X-3.71209 Y-3.28357
G01 X-3.71285 Y-3.28207
G04 P0 ( dwell for no time -- G64 should not smooth over this point )
G00 Z0.08000 ( retract )

G00 X-3.46060 Y-3.15157 ( rapid move to begin. )
G01 F0.50000
( Mill infeed pass 1/1 )
G01 Z-0.04000
G04 P0 ( dwell for no time -- G64 should not smooth over this point )
G01 F1.00000
G01 X-3.46060 Y-3.15157
G01 X-3.44609 Y-3.15157
G01 X-3.44477 Y-3.14989
G01 X-3.44045 Y-3.14601
G04 P0 ( dwell for no time -- G64 should not smooth over this point )
G00 Z0.08000 ( retract )

G00 X-3.28078 Y-2.98018 ( rapid move to begin. )
G01 F0.50000
( Mill infeed pass 1/1 )
G01 Z-0.04000
G04 P0 ( dwell for no time -- G64 should not smooth over this point )
G01 F1.00000
G01 X-3.28078 Y-2.98018
G01 X-3.27864 Y-2.98243
G01 X-3.27199 Y-2.98726
G01 X-3.26944 Y-2.98849
G01 X-3.26944 Y-3.17216
G01 X-3.32784 Y-3.23056
G01 X-3.35372 Y-3.23056
G01 X-3.35523 Y-3.22863
G01 X-3.36018 Y-3.22429
G01 X-3.36553 Y-3.22123
G01 X-3.37221 Y-3.21913
G01 X-3.37835 Y-3.21850
G01 X-3.42165 Y-3.21850
G01 X-3.42779 Y-3.21913
G01 X-3.43483 Y-3.22141
G01 X-3.44017 Y-3.22452
G01 X-3.44506 Y-3.22892
G01 X-3.44912 Y-3.23462
G01 X-3.45161 Y-3.24027
G01 X-3.45243 Y-3.24402
G04 P0 ( dwell for no time -- G64 should not smooth over this point )
G00 Z0.08000 ( retract )

G00 X-3.35489 Y-3.15025 ( rapid move to begin. )
G01 F0.50000
( Mill infeed pass 1/1 )
G01 Z-0.04000
G04 P0 ( dwell for no time -- G64 should not smooth over this point )
G01 F1.00000
G01 X-3.35489 Y-3.15025
G01 X-3.35088 Y-3.15588
G01 X-3.34839 Y-3.16153
G01 X-3.34709 Y-3.16756
G01 X-3.34702 Y-3.17455
G01 X-3.34854 Y-3.18138
G01 X-3.35107 Y-3.18701
G01 X-3.35468 Y-3.19201
G01 X-3.35983 Y-3.19674
G01 X-3.36592 Y-3.20018
G01 X-3.37180 Y-3.20207
G01 X-3.37793 Y-3.20273
G01 X-3.42165 Y-3.20275
G01 X-3.42820 Y-3.20207
G01 X-3.43446 Y-3.20003
G01 X-3.43982 Y-3.19697
G01 X-3.44477 Y-3.19263
G01 X-3.44610 Y-3.19095
G01 X-4.04280 Y-3.19095
G01 X-4.04626 Y-3.19062
G01 X-4.05069 Y-3.18928
G01 X-4.05405 Y-3.18740
G01 X-4.05672 Y-3.18518
G01 X-4.26567 Y-2.97624
G01 X-4.27135 Y-2.98243
G01 X-4.27836 Y-2.98749
G01 X-4.28523 Y-2.99057
G04 P0 ( dwell for no time -- G64 should not smooth over this point )
G00 Z0.08000 ( retract )

G00 X-4.15155 Y-2.82174 ( rapid move to begin. )
G01 F0.50000
( Mill infeed pass 1/1 )
G01 Z-0.04000
G04 P0 ( dwell for no time -- G64 should not smooth over this point )
G01 F1.00000
G01 X-4.15155 Y-2.82174
G01 X-4.16494 Y-2.80835
G01 X-4.64164 Y-2.80835
G01 X-4.75541 Y-2.92212
G01 X-4.75541 Y-2.97788
G01 X-4.58147 Y-3.15182
G01 X-4.54627 Y-3.15182
G01 X-4.54477 Y-3.14989
G01 X-4.54049 Y-3.14604
G01 X-4.53841 Y-3.14474
G04 P0 ( dwell for no time -- G64 should not smooth over this point )
G00 Z0.08000 ( retract )

G00 X-4.58926 Y-3.19070 ( rapid move to begin. )
G01 F0.50000
( Mill infeed pass 1/1 )
G01 Z-0.04000
G04 P0 ( dwell for no time -- G64 should not smooth over this point )
G01 F1.00000
G01 X-4.58926 Y-3.19070
G01 X-4.54628 Y-3.19069
G01 X-4.54477 Y-3.19263
G01 X-4.54017 Y-3.19674
G01 X-4.53446 Y-3.20003
G01 X-4.52820 Y-3.20207
G01 X-4.52206 Y-3.20273
G01 X-4.47835 Y-3.20275
G01 X-4.47180 Y-3.20207
G01 X-4.46554 Y-3.20003
G01 X-4.45983 Y-3.19674
G01 X-4.45523 Y-3.19263
G01 X-4.45088 Y-3.18664
G01 X-4.44839 Y-3.18099
G01 X-4.44702 Y-3.17455
G01 X-4.44702 Y-3.16797
G01 X-4.44829 Y-3.16193
G01 X-4.45129 Y-3.15517
G01 X-4.45494 Y-3.15018
G01 X-4.45983 Y-3.14578
G01 X-4.46554 Y-3.14249
G01 X-4.47140 Y-3.14056
G01 X-4.47793 Y-3.13978
G01 X-4.48150 Y-3.13976
G04 P0 ( dwell for no time -- G64 should not smooth over this point )
G00 Z0.08000 ( retract )

G00 X-4.67415 Y-2.98446 ( rapid move to begin. )
G01 F0.50000
( Mill infeed pass 1/1 )
G01 Z-0.04000
G04 P0 ( dwell for no time -- G64 should not smooth over this point )
G01 F1.00000
G01 X-4.67415 Y-2.98446
G01 X-4.67836 Y-2.98749
G01 X-4.68662 Y-2.99117
G01 X-4.69548 Y-2.99305
G01 X-4.70452 Y-2.99305
G01 X-4.71338 Y-2.99117
G01 X-4.72164 Y-2.98749
G01 X-4.72896 Y-2.98217
G01 X-4.73476 Y-2.97576
G01 X-4.73969 Y-2.96722
G01 X-4.74234 Y-2.95900
G01 X-4.74327 Y-2.94959
G01 X-4.74234 Y-2.94100
G01 X-4.73954 Y-2.93239
G01 X-4.73502 Y-2.92456
G01 X-4.72926 Y-2.91812
G01 X-4.72164 Y-2.91251
G01 X-4.71298 Y-2.90872
G01 X-4.70452 Y-2.90695
G01 X-4.69589 Y-2.90693
G01 X-4.68640 Y-2.90891
G01 X-4.61374 Y-2.83625
G01 X-4.61117 Y-2.83410
G01 X-4.60854 Y-2.83255
G01 X-4.60630 Y-2.83162
G01 X-4.60334 Y-2.83086
G01 X-4.60031 Y-2.83058
G01 X-4.57953 Y-2.83056
G01 X-4.57953 Y-2.82441
G01 X-4.57923 Y-2.82290
G01 X-4.57886 Y-2.82222
G01 X-4.57778 Y-2.82113
G01 X-4.57636 Y-2.82055
G01 X-4.52364 Y-2.82055
G01 X-4.52222 Y-2.82113
G01 X-4.52163 Y-2.82163
G01 X-4.52077 Y-2.82290
G01 X-4.52047 Y-2.82441
G01 X-4.52053 Y-2.87627
G01 X-4.52071 Y-2.87694
G01 X-4.52139 Y-2.87812
G01 X-4.52244 Y-2.87900
G01 X-4.52306 Y-2.87929
G01 X-4.52441 Y-2.87953
G01 X-4.53056 Y-2.87953
G01 X-4.53056 Y-2.89854
G01 X-4.40154 Y-3.02756
G01 X-4.39893 Y-3.03084
G01 X-4.39749 Y-3.03351
G01 X-4.39652 Y-3.03646
G04 P0 ( dwell for no time -- G64 should not smooth over this point )
G00 Z0.08000 ( retract )

G00 X-4.13107 Y-3.26340 ( rapid move to begin. )
G01 F0.50000
( Mill infeed pass 1/1 )
G01 Z-0.04000
G04 P0 ( dwell for no time -- G64 should not smooth over this point )
G01 F1.00000
G01 X-4.13107 Y-3.26340
G01 X-4.12899 Y-3.26442
G01 X-4.12234 Y-3.26928
G01 X-4.11633 Y-3.27605
G01 X-4.11224 Y-3.28319
G01 X-4.10967 Y-3.29101
G01 X-4.10866 Y-3.30000
G01 X-4.10967 Y-3.30899
G01 X-4.11224 Y-3.31681
G01 X-4.11633 Y-3.32395
G01 X-4.12234 Y-3.33072
G01 X-4.12899 Y-3.33557
G01 X-4.13107 Y-3.33660
G04 P0 ( dwell for no time -- G64 should not smooth over this point )
G00 Z0.08000 ( retract )

G00 X-4.09107 Y-3.34076 ( rapid move to begin. )
G01 F0.50000
( Mill infeed pass 1/1 )
G01 Z-0.04000
G04 P0 ( dwell for no time -- G64 should not smooth over this point )
G01 F1.00000
G01 X-4.09107 Y-3.34076
G01 X-4.09134 Y-3.33937
G01 X-4.09134 Y-3.26063
G01 X-4.09107 Y-3.25924
G04 P0 ( dwell for no time -- G64 should not smooth over this point )
G00 Z0.08000 ( retract )

G00 X-4.08670 Y-3.25669 ( rapid move to begin. )
G01 F0.50000
( Mill infeed pass 1/1 )
G01 Z-0.04000
G04 P0 ( dwell for no time -- G64 should not smooth over this point )
G01 F1.00000
G01 X-4.08670 Y-3.25669
G01 X-4.01260 Y-3.25669
G01 X-4.01109 Y-3.25699
G01 X-4.01041 Y-3.25736
G01 X-4.00932 Y-3.25844
G01 X-4.00874 Y-3.25986
G01 X-4.00866 Y-3.28056
G01 X-3.89134 Y-3.28056
G01 X-3.89126 Y-3.25986
G01 X-3.89067 Y-3.25844
G01 X-3.89018 Y-3.25785
G01 X-3.88891 Y-3.25699
G01 X-3.88817 Y-3.25677
G01 X-3.81260 Y-3.25669
G01 X-3.81109 Y-3.25699
G01 X-3.81041 Y-3.25736
G01 X-3.80932 Y-3.25844
G01 X-3.80874 Y-3.25986
G01 X-3.80866 Y-3.26063
G01 X-3.80874 Y-3.34014
G01 X-3.80932 Y-3.34156
G01 X-3.80981 Y-3.34215
G01 X-3.81109 Y-3.34301
G01 X-3.81183 Y-3.34323
G01 X-3.83056 Y-3.34331
G01 X-3.83056 Y-3.36232
G01 X-3.81352 Y-3.37936
G01 X-3.35738 Y-3.37936
G01 X-3.18759 Y-3.20957
G01 X-3.18758 Y-2.81876
G01 X-3.21876 Y-2.78758
G01 X-3.57368 Y-2.78753
G04 P0 ( dwell for no time -- G64 should not smooth over this point )
G00 Z0.08000 ( retract )

G00 X-3.50979 Y-2.88885 ( rapid move to begin. )
G01 F0.50000
( Mill infeed pass 1/1 )
G01 Z-0.04000
G04 P0 ( dwell for no time -- G64 should not smooth over this point )
G01 F1.00000
G01 X-3.50979 Y-2.88885
G01 X-3.50032 Y-2.87939
G01 X-3.49534 Y-2.87936
G01 X-3.49207 Y-2.87869
G04 P0 ( dwell for no time -- G64 should not smooth over this point )
G00 Z0.08000 ( retract )

G00 X-3.48085 Y-2.87356 ( rapid move to begin. )
G01 F0.50000
( Mill infeed pass 1/1 )
G01 Z-0.04000
G04 P0 ( dwell for no time -- G64 should not smooth over this point )
G01 F1.00000
G01 X-3.48085 Y-2.87356
G01 X-3.47867 Y-2.87194
G01 X-3.47454 Y-2.86735
G01 X-3.47145 Y-2.86201
G01 X-3.46954 Y-2.85614
G01 X-3.46890 Y-2.85000
G01 X-3.46948 Y-2.84427
G01 X-3.47164 Y-2.83762
G01 X-3.47454 Y-2.83264
G01 X-3.47867 Y-2.82806
G01 X-3.48366 Y-2.82443
G01 X-3.48891 Y-2.82206
G01 X-3.49575 Y-2.82061
G01 X-3.50151 Y-2.82063
G01 X-3.50715 Y-2.82181
G01 X-3.51353 Y-2.82465
G01 X-3.51818 Y-2.82806
G01 X-3.52231 Y-2.83264
G01 X-3.52540 Y-2.83799
G01 X-3.52720 Y-2.84346
G01 X-3.52793 Y-2.84959
G01 X-3.52778 Y-2.85187
G01 X-3.60648 Y-2.93056
G01 X-3.61149 Y-2.93056
G01 X-3.61498 Y-2.92456
G01 X-3.62104 Y-2.91783
G01 X-3.62801 Y-2.91274
G01 X-3.63094 Y-2.91134
G04 P0 ( dwell for no time -- G64 should not smooth over this point )
G00 Z0.08000 ( retract )

G00 X-3.59786 Y-2.96940 ( rapid move to begin. )
G01 F0.50000
( Mill infeed pass 1/1 )
G01 Z-0.04000
G04 P0 ( dwell for no time -- G64 should not smooth over this point )
G01 F1.00000
G01 X-3.59786 Y-2.96940
G01 X-3.61149 Y-2.96944
G01 X-3.61498 Y-2.97544
G01 X-3.61899 Y-2.97993
G04 P0 ( dwell for no time -- G64 should not smooth over this point )
G00 Z0.08000 ( retract )

G00 X-3.68047 Y-2.98053 ( rapid move to begin. )
G01 F0.50000
( Mill infeed pass 1/1 )
G01 Z-0.04000
G04 P0 ( dwell for no time -- G64 should not smooth over this point )
G01 F1.00000
G01 X-3.68047 Y-2.98053
G01 X-3.68502 Y-2.97544
G01 X-3.68851 Y-2.96944
G01 X-3.70954 Y-2.96944
G04 P0 ( dwell for no time -- G64 should not smooth over this point )
G00 Z0.08000 ( retract )

G00 X-3.70956 Y-2.93056 ( rapid move to begin. )
G01 F0.50000
( Mill infeed pass 1/1 )
G01 Z-0.04000
G04 P0 ( dwell for no time -- G64 should not smooth over this point )
G01 F1.00000
G01 X-3.70956 Y-2.93056
G01 X-3.68851 Y-2.93056
G01 X-3.68502 Y-2.92456
G01 X-3.68047 Y-2.91947
G04 P0 ( dwell for no time -- G64 should not smooth over this point )
G00 Z0.08000 ( retract )

G00 X-3.74247 Y-2.69640 ( rapid move to begin. )
G01 F0.50000
( Mill infeed pass 1/1 )
G01 Z-0.04000
G04 P0 ( dwell for no time -- G64 should not smooth over this point )
G01 F1.00000
G01 X-3.74247 Y-2.69640
G01 X-3.74216 Y-2.69490
G01 X-3.74216 Y-2.64544
G01 X-3.72315 Y-2.64544
G01 X-3.67105 Y-2.69754
G04 P0 ( dwell for no time -- G64 should not smooth over this point )
G00 Z0.08000 ( retract )

G00 X-3.54595 Y-2.74871 ( rapid move to begin. )
G01 F0.50000
( Mill infeed pass 1/1 )
G01 Z-0.04000
G04 P0 ( dwell for no time -- G64 should not smooth over this point )
G01 F1.00000
G01 X-3.54595 Y-2.74871
G01 X-3.56490 Y-2.74871
G01 X-3.70136 Y-2.61226
G01 X-3.70399 Y-2.61007
G01 X-3.70803 Y-2.60791
G01 X-3.71169 Y-2.60688
G01 X-3.71471 Y-2.60658
G01 X-3.74216 Y-2.60656
G01 X-3.74216 Y-2.55710
G01 X-3.74222 Y-2.55642
G01 X-3.74269 Y-2.55513
G01 X-3.74308 Y-2.55457
G01 X-3.74413 Y-2.55369
G01 X-3.74542 Y-2.55322
G01 X-3.74610 Y-2.55316
G01 X-3.86035 Y-2.55316
G01 X-3.91935 Y-2.49416
G01 X-3.92263 Y-2.49154
G01 X-3.92566 Y-2.48994
G01 X-3.92716 Y-2.48947
G01 X-3.92716 Y-2.43900
G01 X-3.92722 Y-2.43832
G01 X-3.92769 Y-2.43703
G01 X-3.92857 Y-2.43598
G01 X-3.92913 Y-2.43559
G01 X-3.93042 Y-2.43512
G01 X-3.93110 Y-2.43506
G01 X-4.06967 Y-2.43514
G01 X-4.07109 Y-2.43573
G01 X-4.07217 Y-2.43681
G01 X-4.07276 Y-2.43823
G01 X-4.07284 Y-2.43900
G01 X-4.07284 Y-2.47448
G04 P0 ( dwell for no time -- G64 should not smooth over this point )
G00 Z0.08000 ( retract )

G00 X-3.67860 Y-2.49392 ( rapid move to begin. )
G01 F0.50000
( Mill infeed pass 1/1 )
G01 Z-0.04000
G04 P0 ( dwell for no time -- G64 should not smooth over this point )
G01 F1.00000
G01 X-3.67860 Y-2.49392
G01 X-3.66359 Y-2.50892
G01 X-3.65452 Y-2.50695
G01 X-3.64880 Y-2.50693
G04 P0 ( dwell for no time -- G64 should not smooth over this point )
G00 Z0.08000 ( retract )

G00 X-3.61962 Y-2.51937 ( rapid move to begin. )
G01 F0.50000
( Mill infeed pass 1/1 )
G01 Z-0.04000
G04 P0 ( dwell for no time -- G64 should not smooth over this point )
G01 F1.00000
G01 X-3.61962 Y-2.51937
G01 X-3.61497 Y-2.52457
G01 X-3.61168 Y-2.53031
G01 X-3.59075 Y-2.53031
G04 P0 ( dwell for no time -- G64 should not smooth over this point )
G00 Z0.08000 ( retract )

G00 X-3.59076 Y-2.56969 ( rapid move to begin. )
G01 F0.50000
( Mill infeed pass 1/1 )
G01 Z-0.04000
G04 P0 ( dwell for no time -- G64 should not smooth over this point )
G01 F1.00000
G01 X-3.59076 Y-2.56969
G01 X-3.61168 Y-2.56969
G01 X-3.61497 Y-2.57543
G01 X-3.61962 Y-2.58063
G04 P0 ( dwell for no time -- G64 should not smooth over this point )
G00 Z0.08000 ( retract )

G00 X-3.63210 Y-2.58918 ( rapid move to begin. )
G01 F0.50000
( Mill infeed pass 1/1 )
G01 Z-0.04000
G04 P0 ( dwell for no time -- G64 should not smooth over this point )
G01 F1.00000
G01 X-3.63210 Y-2.58918
G01 X-3.63662 Y-2.59117
G01 X-3.64507 Y-2.59299
G01 X-3.65452 Y-2.59305
G01 X-3.66376 Y-2.59102
G01 X-3.67164 Y-2.58749
G01 X-3.67896 Y-2.58217
G01 X-3.68524 Y-2.57510
G01 X-3.68954 Y-2.56761
G01 X-3.69234 Y-2.55900
G01 X-3.69326 Y-2.54959
G01 X-3.69234 Y-2.54100
G01 X-3.69092 Y-2.53656
G01 X-3.80455 Y-2.42293
G01 X-4.14545 Y-2.42293
G01 X-4.16061 Y-2.43810
G01 X-4.14529 Y-2.60534
G01 X-4.01345 Y-2.67126
G01 X-3.93110 Y-2.67126
G01 X-3.93033 Y-2.67134
G01 X-3.92891 Y-2.67193
G01 X-3.92783 Y-2.67301
G01 X-3.92724 Y-2.67443
G01 X-3.92716 Y-2.67520
G01 X-3.92716 Y-2.74561
G04 P0 ( dwell for no time -- G64 should not smooth over this point )
G00 Z0.08000 ( retract )

G00 X-3.88039 Y-2.69884 ( rapid move to begin. )
G01 F0.50000
( Mill infeed pass 1/1 )
G01 Z-0.04000
G04 P0 ( dwell for no time -- G64 should not smooth over this point )
G01 F1.00000
G01 X-3.88039 Y-2.69884
G01 X-3.88390 Y-2.69884
G01 X-3.88541 Y-2.69854
G01 X-3.88609 Y-2.69817
G01 X-3.88717 Y-2.69709
G01 X-3.88754 Y-2.69641
G01 X-3.88784 Y-2.69490
G01 X-3.88784 Y-2.58065
G01 X-3.92716 Y-2.54133
G01 X-3.92716 Y-2.57680
G01 X-3.92746 Y-2.57831
G01 X-3.92783 Y-2.57899
G01 X-3.92891 Y-2.58007
G01 X-3.93033 Y-2.58066
G01 X-4.06967 Y-2.58066
G01 X-4.07109 Y-2.58007
G01 X-4.07168 Y-2.57958
G01 X-4.07217 Y-2.57899
G01 X-4.07276 Y-2.57757
G01 X-4.07284 Y-2.56057
G04 P0 ( dwell for no time -- G64 should not smooth over this point )
G00 Z0.08000 ( retract )

G00 X-4.20222 Y-2.57688 ( rapid move to begin. )
G01 F0.50000
( Mill infeed pass 1/1 )
G01 Z-0.04000
G04 P0 ( dwell for no time -- G64 should not smooth over this point )
G01 F1.00000
G01 X-4.20222 Y-2.57688
G01 X-4.25673 Y-2.54962
G01 X-4.25766 Y-2.54100
G01 X-4.25908 Y-2.53656
G01 X-4.21579 Y-2.49327
G04 P0 ( dwell for no time -- G64 should not smooth over this point )
G00 Z0.08000 ( retract )

G00 X-4.27141 Y-2.49392 ( rapid move to begin. )
G01 F0.50000
( Mill infeed pass 1/1 )
G01 Z-0.04000
G04 P0 ( dwell for no time -- G64 should not smooth over this point )
G01 F1.00000
G01 X-4.27141 Y-2.49392
G01 X-4.28640 Y-2.50892
G01 X-4.29547 Y-2.50695
G01 X-4.30119 Y-2.50693
G04 P0 ( dwell for no time -- G64 should not smooth over this point )
G00 Z0.08000 ( retract )

G00 X-4.33038 Y-2.51937 ( rapid move to begin. )
G01 F0.50000
( Mill infeed pass 1/1 )
G01 Z-0.04000
G04 P0 ( dwell for no time -- G64 should not smooth over this point )
G01 F1.00000
G01 X-4.33038 Y-2.51937
G01 X-4.33503 Y-2.52457
G01 X-4.33832 Y-2.53031
G01 X-4.35925 Y-2.53031
G04 P0 ( dwell for no time -- G64 should not smooth over this point )
G00 Z0.08000 ( retract )

G00 X-4.35923 Y-2.56969 ( rapid move to begin. )
G01 F0.50000
( Mill infeed pass 1/1 )
G01 Z-0.04000
G04 P0 ( dwell for no time -- G64 should not smooth over this point )
G01 F1.00000
G01 X-4.35923 Y-2.56969
G01 X-4.33832 Y-2.56969
G01 X-4.33503 Y-2.57543
G01 X-4.33038 Y-2.58063
G04 P0 ( dwell for no time -- G64 should not smooth over this point )
G00 Z0.08000 ( retract )

G00 X-4.28576 Y-2.59081 ( rapid move to begin. )
G01 F0.50000
( Mill infeed pass 1/1 )
G01 Z-0.04000
G04 P0 ( dwell for no time -- G64 should not smooth over this point )
G01 F1.00000
G01 X-4.28576 Y-2.59081
G01 X-4.27836 Y-2.58749
G01 X-4.27454 Y-2.58474
G01 X-4.07284 Y-2.68559
G01 X-4.07284 Y-2.81300
G01 X-4.07276 Y-2.81377
G01 X-4.07217 Y-2.81519
G01 X-4.07109 Y-2.81627
G01 X-4.07041 Y-2.81664
G01 X-4.06890 Y-2.81694
G01 X-3.97722 Y-2.81694
G04 P0 ( dwell for no time -- G64 should not smooth over this point )
G00 Z0.08000 ( retract )

G00 X-4.14562 Y-2.77309 ( rapid move to begin. )
G01 F0.50000
( Mill infeed pass 1/1 )
G01 Z-0.04000
G04 P0 ( dwell for no time -- G64 should not smooth over this point )
G01 F1.00000
G01 X-4.14562 Y-2.77309
G01 X-4.14314 Y-2.77516
G01 X-3.98775 Y-2.93056
G01 X-3.96880 Y-2.93056
G04 P0 ( dwell for no time -- G64 should not smooth over this point )
G00 Z0.08000 ( retract )

G00 X-4.04805 Y-3.13817 ( rapid move to begin. )
G01 F0.50000
( Mill infeed pass 1/1 )
G01 Z-0.04000
G04 P0 ( dwell for no time -- G64 should not smooth over this point )
G01 F1.00000
G01 X-4.04805 Y-3.13817
G01 X-4.03465 Y-3.15157
G01 X-4.01570 Y-3.15157
G04 P0 ( dwell for no time -- G64 should not smooth over this point )
G00 Z0.08000 ( retract )

G00 X-3.93019 Y-3.31944 ( rapid move to begin. )
G01 F0.50000
( Mill infeed pass 1/1 )
G01 Z-0.04000
G04 P0 ( dwell for no time -- G64 should not smooth over this point )
G01 F1.00000
G01 X-3.93019 Y-3.31944
G01 X-3.89134 Y-3.31944
G01 X-3.89130 Y-3.33974
G04 P0 ( dwell for no time -- G64 should not smooth over this point )
G00 Z0.08000 ( retract )

G00 X-3.86933 Y-3.37181 ( rapid move to begin. )
G01 F0.50000
( Mill infeed pass 1/1 )
G01 Z-0.04000
G04 P0 ( dwell for no time -- G64 should not smooth over this point )
G01 F1.00000
G01 X-3.86933 Y-3.37181
G01 X-3.86944 Y-3.34331
G01 X-3.88777 Y-3.34327
G01 X-3.96981 Y-3.31944
G01 X-4.00866 Y-3.31944
G01 X-4.00870 Y-3.33975
G04 P0 ( dwell for no time -- G64 should not smooth over this point )
G00 Z0.08000 ( retract )

G00 X-4.15200 Y-3.34113 ( rapid move to begin. )
G01 F0.50000
( Mill infeed pass 1/1 )
G01 Z-0.04000
G04 P0 ( dwell for no time -- G64 should not smooth over this point )
G01 F1.00000
G01 X-4.15200 Y-3.34113
G01 X-4.15473 Y-3.34105
G01 X-4.16172 Y-3.33956
G01 X-4.16482 Y-3.34266
G01 X-4.16721 Y-3.34465
G04 P0 ( dwell for no time -- G64 should not smooth over this point )
G00 Z0.08000 ( retract )

G00 X-4.18801 Y-3.28388 ( rapid move to begin. )
G01 F0.50000
( Mill infeed pass 1/1 )
G01 Z-0.04000
G04 P0 ( dwell for no time -- G64 should not smooth over this point )
G01 F1.00000
G01 X-4.18801 Y-3.28388
G01 X-4.19043 Y-3.29141
G01 X-4.19132 Y-3.29959
G01 X-4.19031 Y-3.30905
G01 X-4.45390 Y-3.30905
G01 X-4.45523 Y-3.30737
G01 X-4.46018 Y-3.30303
G01 X-4.46554 Y-3.29997
G01 X-4.47180 Y-3.29793
G01 X-4.47835 Y-3.29724
G01 X-4.52165 Y-3.29724
G01 X-4.52820 Y-3.29793
G01 X-4.53446 Y-3.29997
G01 X-4.54049 Y-3.30352
G01 X-4.54506 Y-3.30767
G01 X-4.54674 Y-3.30994
G04 P0 ( dwell for no time -- G64 should not smooth over this point )
G00 Z0.08000 ( retract )

G00 X-4.45954 Y-3.35399 ( rapid move to begin. )
G01 F0.50000
( Mill infeed pass 1/1 )
G01 Z-0.04000
G04 P0 ( dwell for no time -- G64 should not smooth over this point )
G01 F1.00000
G01 X-4.45954 Y-3.35399
G01 X-4.45523 Y-3.35011
G01 X-4.45390 Y-3.34843
G01 X-4.43940 Y-3.34843
G04 P0 ( dwell for no time -- G64 should not smooth over this point )
G00 Z0.08000 ( retract )

G00 X-4.39709 Y-3.25221 ( rapid move to begin. )
G01 F0.50000
( Mill infeed pass 1/1 )
G01 Z-0.04000
G04 P0 ( dwell for no time -- G64 should not smooth over this point )
G01 F1.00000
G01 X-4.39709 Y-3.25221
G01 X-4.39749 Y-3.25328
G01 X-4.39935 Y-3.25661
G01 X-4.40154 Y-3.25924
G01 X-4.40604 Y-3.26374
G01 X-4.40862 Y-3.26589
G01 X-4.41124 Y-3.26745
G01 X-4.41349 Y-3.26838
G01 X-4.41644 Y-3.26914
G01 X-4.41979 Y-3.26944
G01 X-4.45372 Y-3.26944
G01 X-4.45523 Y-3.27137
G01 X-4.46018 Y-3.27570
G01 X-4.46554 Y-3.27877
G01 X-4.47220 Y-3.28087
G01 X-4.47835 Y-3.28150
G01 X-4.52165 Y-3.28150
G01 X-4.52820 Y-3.28081
G01 X-4.53446 Y-3.27877
G01 X-4.53982 Y-3.27570
G01 X-4.54477 Y-3.27137
G01 X-4.54674 Y-3.26879
G04 P0 ( dwell for no time -- G64 should not smooth over this point )
G00 Z0.08000 ( retract )

G00 X-4.55212 Y-3.24259 ( rapid move to begin. )
G01 F0.50000
( Mill infeed pass 1/1 )
G01 Z-0.04000
G04 P0 ( dwell for no time -- G64 should not smooth over this point )
G01 F1.00000
G01 X-4.55212 Y-3.24259
G01 X-4.55146 Y-3.23988
G01 X-4.54870 Y-3.23391
G01 X-4.54506 Y-3.22892
G01 X-4.54017 Y-3.22452
G01 X-4.53408 Y-3.22108
G01 X-4.52820 Y-3.21919
G01 X-4.52206 Y-3.21853
G01 X-4.47835 Y-3.21850
G01 X-4.47220 Y-3.21913
G01 X-4.46554 Y-3.22123
G01 X-4.46018 Y-3.22429
G01 X-4.45523 Y-3.22863
G01 X-4.45372 Y-3.23056
G01 X-4.43472 Y-3.23056
G01 X-4.43472 Y-3.04935
G01 X-4.56491 Y-2.91895
G01 X-4.56593 Y-2.91770
G01 X-4.56809 Y-2.91366
G01 X-4.56906 Y-2.91038
G01 X-4.56942 Y-2.90698
G01 X-4.56944 Y-2.87953
G01 X-4.57627 Y-2.87947
G01 X-4.57756 Y-2.87900
G01 X-4.57861 Y-2.87812
G01 X-4.57929 Y-2.87694
G01 X-4.57947 Y-2.87627
G01 X-4.57953 Y-2.86944
G01 X-4.59195 Y-2.86944
G01 X-4.65908 Y-2.93656
G01 X-4.65766 Y-2.94100
G01 X-4.65672 Y-2.95009
G04 P0 ( dwell for no time -- G64 should not smooth over this point )
G00 Z0.08000 ( retract )

G00 X-4.43523 Y-2.87445 ( rapid move to begin. )
G01 F0.50000
( Mill infeed pass 1/1 )
G01 Z-0.04000
G04 P0 ( dwell for no time -- G64 should not smooth over this point )
G01 F1.00000
G01 X-4.43523 Y-2.87445
G01 X-4.43182 Y-2.87194
G01 X-4.42976 Y-2.86969
G01 X-4.41714 Y-2.86969
G01 X-4.34093 Y-2.93658
G01 X-4.33954 Y-2.93239
G01 X-4.33476 Y-2.92424
G01 X-4.32896 Y-2.91783
G01 X-4.32199 Y-2.91274
G01 X-4.31968 Y-2.91161
G01 X-4.31969 Y-2.86969
G01 X-4.39079 Y-2.86969
G01 X-4.44563 Y-2.87878
G01 X-4.44849 Y-2.87936
G01 X-4.45507 Y-2.87930
G01 X-4.46070 Y-2.87808
G01 X-4.46668 Y-2.87535
G01 X-4.47133 Y-2.87194
G01 X-4.47520 Y-2.86768
G01 X-4.47836 Y-2.86238
G01 X-4.48046 Y-2.85614
G01 X-4.48110 Y-2.85000
G01 X-4.48046 Y-2.84386
G01 X-4.47855 Y-2.83799
G01 X-4.47520 Y-2.83232
G01 X-4.47133 Y-2.82806
G01 X-4.46668 Y-2.82465
G01 X-4.46070 Y-2.82192
G01 X-4.45425 Y-2.82061
G01 X-4.44849 Y-2.82063
G01 X-4.44207 Y-2.82206
G01 X-4.43647 Y-2.82465
G01 X-4.43182 Y-2.82806
G01 X-4.42976 Y-2.83031
G01 X-4.30000 Y-2.83031
G01 X-4.29578 Y-2.83079
G01 X-4.29212 Y-2.83198
G01 X-4.28906 Y-2.83363
G01 X-4.28636 Y-2.83582
G01 X-4.28363 Y-2.83906
G01 X-4.28168 Y-2.84283
G01 X-4.28069 Y-2.84616
G01 X-4.28031 Y-2.85000
G01 X-4.28031 Y-2.90591
G01 X-4.26766 Y-2.91857
G04 P0 ( dwell for no time -- G64 should not smooth over this point )
G00 Z0.08000 ( retract )

G00 X-4.32313 Y-2.98644 ( rapid move to begin. )
G01 F0.50000
( Mill infeed pass 1/1 )
G01 Z-0.04000
G04 P0 ( dwell for no time -- G64 should not smooth over this point )
G01 F1.00000
G01 X-4.32313 Y-2.98644
G01 X-4.32896 Y-2.98217
G01 X-4.33502 Y-2.97544
G01 X-4.33954 Y-2.96761
G01 X-4.34223 Y-2.95940
G01 X-4.34260 Y-2.95673
G04 P0 ( dwell for no time -- G64 should not smooth over this point )
G00 Z0.08000 ( retract )

G00 X-4.66962 Y-2.58063 ( rapid move to begin. )
G01 F0.50000
( Mill infeed pass 1/1 )
G01 Z-0.04000
G04 P0 ( dwell for no time -- G64 should not smooth over this point )
G01 F1.00000
G01 X-4.66962 Y-2.58063
G01 X-4.66497 Y-2.57543
G01 X-4.66168 Y-2.56969
G01 X-4.64076 Y-2.56969
G04 P0 ( dwell for no time -- G64 should not smooth over this point )
G00 Z0.08000 ( retract )

G00 X-4.64075 Y-2.53031 ( rapid move to begin. )
G01 F0.50000
( Mill infeed pass 1/1 )
G01 Z-0.04000
G04 P0 ( dwell for no time -- G64 should not smooth over this point )
G01 F1.00000
G01 X-4.64075 Y-2.53031
G01 X-4.66168 Y-2.53031
G01 X-4.66497 Y-2.52457
G01 X-4.66962 Y-2.51937

G04 P0 ( dwell for no time -- G64 should not smooth over this point )
G00 Z1.000000 ( retract )

M5 ( Spindle off. )
G04 P1.000000
M9 ( Coolant off. )
M2 ( Program end. )

