( pcb2gcode 2.2.2 )
( Software-independent Gcode )

G94 ( Inches per minute feed rate. )
G20 ( Units == INCHES. )

G90 ( Absolute coordinates. )
G00 S12000 ( RPM spindle speed. )
G64 P0.00040 ( set maximum deviation from commanded toolpath )
G01 F1.00000 ( Feedrate. )


G00 Z1.00000 (Retract to tool change height)
T0
M5      (Spindle stop.)
G04 P1.00000 (Wait for spindle to stop)
(MSG, Change tool bit to mill diameter 0.11811in)
M6      (Tool change.)
M0      (Temporary machine stop.)
M3 ( Spindle on clockwise. )
G04 P1.00000 (Wait for spindle to get up to speed)
G04 P0 ( dwell for no time -- G64 should not smooth over this point )
G00 Z0.08000 ( retract )

G00 X-3.25185 Y-2.84270 ( rapid move to begin. )
G01 F0.50000
( Mill infeed pass 1/1 )
G01 Z-0.04000
G04 P0 ( dwell for no time -- G64 should not smooth over this point )
G01 F1.00000
G01 X-3.25185 Y-2.84270
G01 X-3.24207 Y-2.85262
G01 X-3.24270 Y-2.85186
G01 X-3.24270 Y-2.84271
G01 X-3.25185 Y-2.84270
G01 X-3.25282 Y-2.84231
G04 P0 ( dwell for no time -- G64 should not smooth over this point )
G00 Z0.08000 ( retract )

G00 X-3.32455 Y-3.10369 ( rapid move to begin. )
G01 F0.50000
( Mill infeed pass 1/1 )
G01 Z-0.04000
G04 P0 ( dwell for no time -- G64 should not smooth over this point )
G01 F1.00000
G01 X-3.32455 Y-3.10369
G01 X-3.33263 Y-3.09781
G01 X-3.33762 Y-3.09493
G01 X-3.34890 Y-3.08991
G01 X-3.35438 Y-3.08813
G01 X-3.36647 Y-3.08557
G01 X-3.37220 Y-3.08497
G01 X-3.37835 Y-3.08464
G01 X-3.42165 Y-3.08464
G01 X-3.42780 Y-3.08497
G01 X-3.43353 Y-3.08557
G01 X-3.44562 Y-3.08813
G01 X-3.45110 Y-3.08991
G01 X-3.46238 Y-3.09493
G01 X-3.46502 Y-3.09645
G01 X-4.01182 Y-3.09645
G01 X-4.22519 Y-2.88308
G01 X-4.22519 Y-2.86347
G01 X-4.22559 Y-2.86307
G01 X-4.22519 Y-2.86347
G01 X-4.18777 Y-2.86347
G01 X-4.04852 Y-3.00272
G01 X-4.04424 Y-3.00660
G01 X-4.04189 Y-3.00853
G01 X-4.03221 Y-3.01499
G01 X-4.02953 Y-3.01642
G01 X-4.01882 Y-3.02085
G01 X-4.01591 Y-3.02173
G01 X-4.00466 Y-3.02397
G01 X-4.00164 Y-3.02427
G01 X-3.99580 Y-3.02455
G01 X-3.71378 Y-3.02455
G01 X-3.71105 Y-3.02701
G01 X-3.70439 Y-3.03185
G01 X-3.69367 Y-3.03804
G01 X-3.68616 Y-3.04138
G01 X-3.67443 Y-3.04519
G01 X-3.66638 Y-3.04690
G01 X-3.65411 Y-3.04819
G01 X-3.64589 Y-3.04819
G01 X-3.63362 Y-3.04690
G01 X-3.62557 Y-3.04519
G01 X-3.61384 Y-3.04138
G01 X-3.60633 Y-3.03804
G01 X-3.59561 Y-3.03185
G01 X-3.58895 Y-3.02701
G01 X-3.58444 Y-3.02294
G01 X-3.57831 Y-3.02173
G01 X-3.57540 Y-3.02085
G01 X-3.56470 Y-3.01642
G01 X-3.56202 Y-3.01499
G01 X-3.55234 Y-3.00853
G01 X-3.54571 Y-3.00272
G01 X-3.47358 Y-2.93059
G01 X-3.46647 Y-2.92828
G01 X-3.46158 Y-2.92610
G01 X-3.45849 Y-2.92431
G01 X-3.45846 Y-2.92384
G01 X-3.45840 Y-2.92469
G01 X-3.44819 Y-2.93015
G01 X-3.43711 Y-2.93351
G01 X-3.42559 Y-2.93465
G01 X-3.37441 Y-2.93465
G01 X-3.37112 Y-2.93432
G01 X-3.34794 Y-2.95749
G01 X-3.34722 Y-2.96435
G01 X-3.34466 Y-2.97640
G01 X-3.34212 Y-2.98423
G01 X-3.33706 Y-2.99559
G01 X-3.33294 Y-3.00271
G01 X-3.32572 Y-3.01264
G01 X-3.32456 Y-3.01394
G01 X-3.32455 Y-3.10369
G01 X-3.32415 Y-3.10447
G04 P0 ( dwell for no time -- G64 should not smooth over this point )
G00 Z0.08000 ( retract )

G00 X-3.67036 Y-3.24607 ( rapid move to begin. )
G01 F0.50000
( Mill infeed pass 1/1 )
G01 Z-0.04000
G04 P0 ( dwell for no time -- G64 should not smooth over this point )
G01 F1.00000
G01 X-3.67036 Y-3.24607
G01 X-3.50800 Y-3.24606
G01 X-3.50756 Y-3.24566
G01 X-3.50800 Y-3.24606
G01 X-3.50812 Y-3.24712
G01 X-3.50812 Y-3.25288
G01 X-3.50800 Y-3.25393
G01 X-3.50756 Y-3.25434
G01 X-3.50800 Y-3.25393
G01 X-3.65804 Y-3.25393
G01 X-3.66743 Y-3.25050
G01 X-3.66860 Y-3.24848
G01 X-3.67036 Y-3.24607
G01 X-3.67114 Y-3.24566
G04 P0 ( dwell for no time -- G64 should not smooth over this point )
G00 Z0.08000 ( retract )

G00 X-3.96927 Y-2.87166 ( rapid move to begin. )
G01 F0.50000
( Mill infeed pass 1/1 )
G01 Z-0.04000
G04 P0 ( dwell for no time -- G64 should not smooth over this point )
G01 F1.00000
G01 X-3.96927 Y-2.87166
G01 X-3.96831 Y-2.87206
G01 X-3.96496 Y-2.87540
G01 X-3.71326 Y-2.87498
G01 X-3.71105 Y-2.87299
G01 X-3.70439 Y-2.86815
G01 X-3.69367 Y-2.86196
G01 X-3.68616 Y-2.85862
G01 X-3.67443 Y-2.85481
G01 X-3.66638 Y-2.85310
G01 X-3.65411 Y-2.85181
G01 X-3.64589 Y-2.85181
G01 X-3.63362 Y-2.85310
G01 X-3.62557 Y-2.85481
G01 X-3.61290 Y-2.85904
G01 X-3.59358 Y-2.83972
G01 X-3.59282 Y-2.83952
G01 X-3.59358 Y-2.83972
G01 X-3.59597 Y-2.83900
G01 X-3.60668 Y-2.83457
G01 X-3.60936 Y-2.83314
G01 X-3.61904 Y-2.82668
G01 X-3.62139 Y-2.82475
G01 X-3.62567 Y-2.82087
G01 X-3.70738 Y-2.73915
G01 X-3.71329 Y-2.74400
G01 X-3.72350 Y-2.74946
G01 X-3.73458 Y-2.75282
G01 X-3.74610 Y-2.75395
G01 X-3.87204 Y-2.75395
G01 X-3.87244 Y-2.75355
G01 X-3.87204 Y-2.75395
G01 X-3.87204 Y-2.81300
G01 X-3.87318 Y-2.82452
G01 X-3.87654 Y-2.83560
G01 X-3.88200 Y-2.84581
G01 X-3.88934 Y-2.85476
G01 X-3.89829 Y-2.86210
G01 X-3.90850 Y-2.86756
G01 X-3.91958 Y-2.87092
G01 X-3.93110 Y-2.87206
G01 X-3.96831 Y-2.87206
G04 P0 ( dwell for no time -- G64 should not smooth over this point )
G00 Z0.08000 ( retract )

G00 X-4.11193 Y-3.20756 ( rapid move to begin. )
G01 F0.50000
( Mill infeed pass 1/1 )
G01 Z-0.04000
G04 P0 ( dwell for no time -- G64 should not smooth over this point )
G01 F1.00000
G01 X-4.11193 Y-3.20756
G01 X-4.11255 Y-3.20743
G01 X-4.11299 Y-3.20767
G01 X-4.11685 Y-3.20973
G01 X-4.11682 Y-3.21017
G01 X-4.11685 Y-3.20969
G01 X-4.12613 Y-3.20667
G01 X-4.13378 Y-3.20504
G01 X-4.14609 Y-3.20374
G01 X-4.15391 Y-3.20374
G01 X-4.16622 Y-3.20504
G01 X-4.17387 Y-3.20667
G01 X-4.18559 Y-3.21048
G01 X-4.19273 Y-3.21366
G01 X-4.20342 Y-3.21984
G01 X-4.20975 Y-3.22444
G01 X-4.21892 Y-3.23270
G01 X-4.22415 Y-3.23851
G01 X-4.23140 Y-3.24848
G01 X-4.23441 Y-3.25371
G01 X-4.34115 Y-3.25382
G01 X-4.34173 Y-3.25433
G01 X-4.34128 Y-3.25394
G01 X-4.34073 Y-3.24550
G01 X-4.34073 Y-3.04130
G01 X-4.34083 Y-3.03929
G01 X-4.34126 Y-3.03865
G01 X-4.34082 Y-3.03931
G01 X-4.33613 Y-3.04139
G01 X-4.32443 Y-3.04519
G01 X-4.31638 Y-3.04690
G01 X-4.30411 Y-3.04819
G01 X-4.29589 Y-3.04819
G01 X-4.28362 Y-3.04690
G01 X-4.27488 Y-3.04496
G01 X-4.11239 Y-3.20746
G01 X-4.11168 Y-3.20761
G04 P0 ( dwell for no time -- G64 should not smooth over this point )
G00 Z0.08000 ( retract )

G00 X-4.11682 Y-3.38983 ( rapid move to begin. )
G01 F0.50000
( Mill infeed pass 1/1 )
G01 Z-0.04000
G04 P0 ( dwell for no time -- G64 should not smooth over this point )
G01 F1.00000
G01 X-4.11682 Y-3.38983
G01 X-4.11685 Y-3.39027
G01 X-4.11000 Y-3.39393
G01 X-4.09892 Y-3.39729
G01 X-4.08740 Y-3.39843
G01 X-4.01260 Y-3.39843
G01 X-4.00108 Y-3.39729
G01 X-3.99000 Y-3.39393
G01 X-3.97979 Y-3.38847
G01 X-3.97084 Y-3.38113
G01 X-3.96545 Y-3.37455
G01 X-3.93455 Y-3.37455
G01 X-3.92916 Y-3.38113
G01 X-3.92250 Y-3.38659
G01 X-3.92173 Y-3.39048
G01 X-3.92085 Y-3.39339
G01 X-3.91642 Y-3.40410
G01 X-3.91499 Y-3.40678
G01 X-3.90853 Y-3.41646
G01 X-3.90272 Y-3.42309
G01 X-3.87429 Y-3.45152
G01 X-3.86766 Y-3.45733
G01 X-3.85798 Y-3.46379
G01 X-3.85530 Y-3.46522
G01 X-3.84459 Y-3.46965
G01 X-3.84168 Y-3.47053
G01 X-3.83043 Y-3.47276
G01 X-3.82741 Y-3.47307
G01 X-3.82157 Y-3.47336
G01 X-3.34933 Y-3.47336
G01 X-3.34047 Y-3.47276
G01 X-3.32922 Y-3.47053
G01 X-3.32631 Y-3.46965
G01 X-3.31560 Y-3.46522
G01 X-3.31292 Y-3.46379
G01 X-3.30324 Y-3.45733
G01 X-3.29661 Y-3.45152
G01 X-3.11543 Y-3.27034
G01 X-3.10962 Y-3.26371
G01 X-3.10316 Y-3.25403
G01 X-3.10173 Y-3.25135
G01 X-3.09730 Y-3.24064
G01 X-3.09642 Y-3.23773
G01 X-3.09418 Y-3.22648
G01 X-3.09359 Y-3.21762
G01 X-3.09359 Y-2.81071
G01 X-3.09418 Y-2.80185
G01 X-3.09642 Y-2.79060
G01 X-3.09730 Y-2.78769
G01 X-3.10173 Y-2.77698
G01 X-3.10316 Y-2.77430
G01 X-3.10962 Y-2.76462
G01 X-3.11543 Y-2.75799
G01 X-3.15799 Y-2.71543
G01 X-3.16227 Y-2.71155
G01 X-3.16462 Y-2.70962
G01 X-3.17430 Y-2.70316
G01 X-3.17698 Y-2.70173
G01 X-3.18769 Y-2.69730
G01 X-3.19060 Y-2.69642
G01 X-3.20185 Y-2.69418
G01 X-3.21071 Y-2.69359
G01 X-3.54207 Y-2.69359
G01 X-3.60081 Y-2.63485
G01 X-3.60146 Y-2.63477
G01 X-3.60081 Y-2.63485
G01 X-3.59561 Y-2.63185
G01 X-3.58895 Y-2.62701
G01 X-3.58650 Y-2.62480
G01 X-3.31350 Y-2.62480
G01 X-3.31105 Y-2.62701
G01 X-3.30439 Y-2.63185
G01 X-3.29367 Y-2.63804
G01 X-3.28616 Y-2.64138
G01 X-3.27443 Y-2.64519
G01 X-3.26638 Y-2.64690
G01 X-3.25411 Y-2.64818
G01 X-3.24589 Y-2.64818
G01 X-3.23362 Y-2.64690
G01 X-3.22557 Y-2.64519
G01 X-3.21384 Y-2.64138
G01 X-3.20633 Y-2.63804
G01 X-3.19561 Y-2.63185
G01 X-3.18895 Y-2.62701
G01 X-3.17978 Y-2.61875
G01 X-3.17428 Y-2.61264
G01 X-3.16705 Y-2.60271
G01 X-3.16294 Y-2.59559
G01 X-3.15788 Y-2.58423
G01 X-3.15534 Y-2.57640
G01 X-3.15278 Y-2.56435
G01 X-3.15192 Y-2.55617
G01 X-3.15192 Y-2.54383
G01 X-3.15278 Y-2.53565
G01 X-3.15534 Y-2.52360
G01 X-3.15788 Y-2.51577
G01 X-3.16294 Y-2.50441
G01 X-3.16705 Y-2.49729
G01 X-3.17428 Y-2.48736
G01 X-3.17978 Y-2.48125
G01 X-3.18895 Y-2.47299
G01 X-3.19561 Y-2.46815
G01 X-3.20633 Y-2.46196
G01 X-3.21384 Y-2.45862
G01 X-3.22557 Y-2.45481
G01 X-3.23362 Y-2.45310
G01 X-3.24589 Y-2.45181
G01 X-3.25411 Y-2.45181
G01 X-3.26638 Y-2.45310
G01 X-3.27443 Y-2.45481
G01 X-3.28616 Y-2.45862
G01 X-3.29367 Y-2.46196
G01 X-3.30439 Y-2.46815
G01 X-3.31105 Y-2.47299
G01 X-3.31350 Y-2.47519
G01 X-3.58650 Y-2.47519
G01 X-3.58895 Y-2.47299
G01 X-3.59561 Y-2.46815
G01 X-3.60633 Y-2.46196
G01 X-3.61384 Y-2.45862
G01 X-3.62557 Y-2.45481
G01 X-3.63362 Y-2.45310
G01 X-3.64238 Y-2.45218
G01 X-3.74378 Y-2.35078
G01 X-3.75041 Y-2.34497
G01 X-3.76009 Y-2.33851
G01 X-3.76277 Y-2.33708
G01 X-3.77347 Y-2.33265
G01 X-3.77638 Y-2.33177
G01 X-3.78764 Y-2.32953
G01 X-3.79650 Y-2.32894
G01 X-4.15350 Y-2.32894
G01 X-4.16236 Y-2.32953
G01 X-4.17361 Y-2.33177
G01 X-4.17652 Y-2.33265
G01 X-4.18723 Y-2.33708
G01 X-4.18991 Y-2.33851
G01 X-4.19959 Y-2.34497
G01 X-4.20194 Y-2.34690
G01 X-4.20622 Y-2.35078
G01 X-4.30762 Y-2.45218
G01 X-4.31638 Y-2.45310
G01 X-4.32443 Y-2.45481
G01 X-4.33613 Y-2.45861
G01 X-4.34365 Y-2.46195
G01 X-4.35443 Y-2.46817
G01 X-4.36108 Y-2.47301
G01 X-4.36350 Y-2.47519
G01 X-4.63650 Y-2.47519
G01 X-4.63892 Y-2.47301
G01 X-4.64557 Y-2.46817
G01 X-4.65635 Y-2.46195
G01 X-4.66387 Y-2.45861
G01 X-4.67557 Y-2.45481
G01 X-4.68362 Y-2.45310
G01 X-4.69589 Y-2.45181
G01 X-4.70411 Y-2.45181
G01 X-4.71638 Y-2.45310
G01 X-4.72443 Y-2.45481
G01 X-4.73613 Y-2.45861
G01 X-4.74365 Y-2.46195
G01 X-4.75443 Y-2.46817
G01 X-4.76108 Y-2.47301
G01 X-4.77022 Y-2.48125
G01 X-4.77572 Y-2.48736
G01 X-4.78294 Y-2.49729
G01 X-4.78706 Y-2.50441
G01 X-4.79212 Y-2.51577
G01 X-4.79466 Y-2.52360
G01 X-4.79722 Y-2.53565
G01 X-4.79808 Y-2.54383
G01 X-4.79808 Y-2.55617
G01 X-4.79722 Y-2.56435
G01 X-4.79466 Y-2.57640
G01 X-4.79212 Y-2.58423
G01 X-4.78706 Y-2.59559
G01 X-4.78294 Y-2.60271
G01 X-4.77572 Y-2.61264
G01 X-4.77022 Y-2.61875
G01 X-4.76108 Y-2.62699
G01 X-4.75443 Y-2.63183
G01 X-4.74365 Y-2.63805
G01 X-4.73613 Y-2.64139
G01 X-4.72443 Y-2.64519
G01 X-4.71638 Y-2.64690
G01 X-4.70411 Y-2.64818
G01 X-4.69589 Y-2.64818
G01 X-4.68362 Y-2.64690
G01 X-4.67557 Y-2.64519
G01 X-4.66387 Y-2.64139
G01 X-4.65635 Y-2.63805
G01 X-4.64557 Y-2.63183
G01 X-4.63892 Y-2.62699
G01 X-4.63650 Y-2.62480
G01 X-4.36350 Y-2.62480
G01 X-4.36108 Y-2.62699
G01 X-4.35443 Y-2.63183
G01 X-4.34365 Y-2.63805
G01 X-4.33613 Y-2.64139
G01 X-4.32443 Y-2.64519
G01 X-4.31638 Y-2.64690
G01 X-4.30411 Y-2.64818
G01 X-4.29589 Y-2.64818
G01 X-4.28362 Y-2.64690
G01 X-4.27650 Y-2.64538
G01 X-4.12796 Y-2.71966
G01 X-4.12796 Y-2.72022
G01 X-4.12734 Y-2.72119
G01 X-4.12771 Y-2.72061
G01 X-4.13387 Y-2.71806
G01 X-4.13678 Y-2.71718
G01 X-4.14803 Y-2.71494
G01 X-4.15689 Y-2.71435
G01 X-4.64969 Y-2.71435
G01 X-4.65855 Y-2.71494
G01 X-4.66980 Y-2.71718
G01 X-4.67271 Y-2.71806
G01 X-4.68342 Y-2.72249
G01 X-4.68610 Y-2.72392
G01 X-4.69578 Y-2.73038
G01 X-4.70241 Y-2.73619
G01 X-4.82757 Y-2.86135
G01 X-4.83338 Y-2.86798
G01 X-4.83984 Y-2.87766
G01 X-4.84127 Y-2.88034
G01 X-4.84570 Y-2.89105
G01 X-4.84658 Y-2.89396
G01 X-4.84882 Y-2.90521
G01 X-4.84912 Y-2.90823
G01 X-4.84940 Y-2.91407
G01 X-4.84940 Y-2.98593
G01 X-4.84882 Y-2.99479
G01 X-4.84658 Y-3.00604
G01 X-4.84570 Y-3.00895
G01 X-4.84127 Y-3.01966
G01 X-4.83984 Y-3.02234
G01 X-4.83338 Y-3.03202
G01 X-4.82757 Y-3.03865
G01 X-4.64224 Y-3.22398
G01 X-4.63561 Y-3.22979
G01 X-4.62593 Y-3.23625
G01 X-4.62325 Y-3.23768
G01 X-4.61254 Y-3.24211
G01 X-4.60963 Y-3.24299
G01 X-4.60784 Y-3.24334
G01 X-4.60727 Y-3.24294
G01 X-4.60771 Y-3.24325
G01 X-4.60811 Y-3.24712
G01 X-4.60811 Y-3.25288
G01 X-4.60682 Y-3.26517
G01 X-4.60562 Y-3.27081
G01 X-4.60182 Y-3.28252
G01 X-4.59948 Y-3.28778
G01 X-4.59856 Y-3.28937
G01 X-4.59810 Y-3.28937
G01 X-4.59856 Y-3.28937
G01 X-4.59948 Y-3.29096
G01 X-4.60182 Y-3.29622
G01 X-4.60562 Y-3.30793
G01 X-4.60682 Y-3.31357
G01 X-4.60811 Y-3.32586
G01 X-4.60811 Y-3.33162
G01 X-4.60682 Y-3.34391
G01 X-4.60562 Y-3.34955
G01 X-4.60182 Y-3.36126
G01 X-4.59948 Y-3.36652
G01 X-4.59328 Y-3.37726
G01 X-4.58988 Y-3.38192
G01 X-4.58168 Y-3.39103
G01 X-4.57740 Y-3.39489
G01 X-4.56737 Y-3.40219
G01 X-4.56238 Y-3.40507
G01 X-4.55110 Y-3.41009
G01 X-4.54562 Y-3.41187
G01 X-4.53353 Y-3.41443
G01 X-4.52780 Y-3.41503
G01 X-4.52165 Y-3.41535
G01 X-4.47835 Y-3.41535
G01 X-4.47220 Y-3.41503
G01 X-4.46647 Y-3.41443
G01 X-4.45438 Y-3.41187
G01 X-4.44890 Y-3.41009
G01 X-4.43762 Y-3.40507
G01 X-4.43498 Y-3.40354
G01 X-4.17874 Y-3.40354
G01 X-4.17300 Y-3.40327
G01 X-4.16993 Y-3.40297
G01 X-4.15849 Y-3.40069
G01 X-4.15553 Y-3.39979
G01 X-4.14699 Y-3.39626
G01 X-4.13378 Y-3.39496
G01 X-4.12613 Y-3.39333
G01 X-4.11685 Y-3.39031
G01 X-4.11682 Y-3.38988
G04 P0 ( dwell for no time -- G64 should not smooth over this point )
G00 Z0.08000 ( retract )

G00 X-4.39768 Y-2.95404 ( rapid move to begin. )
G01 F0.50000
( Mill infeed pass 1/1 )
G01 Z-0.04000
G04 P0 ( dwell for no time -- G64 should not smooth over this point )
G01 F1.00000
G01 X-4.39768 Y-2.95404
G01 X-4.39808 Y-2.95307
G01 X-4.42208 Y-2.92908
G01 X-4.42282 Y-2.92890
G01 X-4.42208 Y-2.92908
G01 X-4.41962 Y-2.92828
G01 X-4.41473 Y-2.92610
G01 X-4.41249 Y-2.92481
G01 X-4.39492 Y-2.92481
G01 X-4.39722 Y-2.93565
G01 X-4.39808 Y-2.94382
G01 X-4.39808 Y-2.95307
G04 P0 ( dwell for no time -- G64 should not smooth over this point )
G00 Z0.08000 ( retract )

G00 X-4.63336 Y-3.02198 ( rapid move to begin. )
G01 F0.50000
( Mill infeed pass 1/1 )
G01 Z-0.04000
G04 P0 ( dwell for no time -- G64 should not smooth over this point )
G01 F1.00000
G01 X-4.63336 Y-3.02198
G01 X-4.62978 Y-3.01875
G01 X-4.62428 Y-3.01264
G01 X-4.61705 Y-3.00271
G01 X-4.61294 Y-2.99559
G01 X-4.60788 Y-2.98423
G01 X-4.60534 Y-2.97640
G01 X-4.60278 Y-2.96435
G01 X-4.60229 Y-2.95973
G01 X-4.48984 Y-3.07218
G01 X-4.48984 Y-3.08464
G01 X-4.48944 Y-3.08504
G01 X-4.48984 Y-3.08464
G01 X-4.52165 Y-3.08464
G01 X-4.52780 Y-3.08497
G01 X-4.53353 Y-3.08557
G01 X-4.54562 Y-3.08813
G01 X-4.55110 Y-3.08991
G01 X-4.56102 Y-3.09432
G01 X-4.63336 Y-3.02198
G01 X-4.63394 Y-3.02197
G04 P0 ( dwell for no time -- G64 should not smooth over this point )
G00 Z0.08000 ( retract )

G00 X-4.12796 Y-2.48339 ( rapid move to begin. )
G01 F0.50000
( Mill infeed pass 1/1 )
G01 Z-0.04000
G04 P0 ( dwell for no time -- G64 should not smooth over this point )
G01 F1.00000
G01 X-4.12796 Y-2.48339
G01 X-4.17395 Y-2.52939
G01 X-4.12796 Y-2.55239
G01 X-4.12756 Y-2.55303
G01 X-4.12796 Y-2.55239
G01 X-4.12796 Y-2.48339
G01 X-4.12755 Y-2.48243
G04 P0 ( dwell for no time -- G64 should not smooth over this point )
G00 Z0.08000 ( retract )

G00 X-3.85847 Y-2.47765 ( rapid move to begin. )
G01 F0.50000
( Mill infeed pass 1/1 )
G01 Z-0.04000
G04 P0 ( dwell for no time -- G64 should not smooth over this point )
G01 F1.00000
G01 X-3.85847 Y-2.47765
G01 X-3.85751 Y-2.47805
G01 X-3.82738 Y-2.47805
G01 X-3.80739 Y-2.49804
G01 X-3.80642 Y-2.49844
G01 X-3.80739 Y-2.49804
G01 X-3.83752 Y-2.49804
G01 X-3.85751 Y-2.47805

G00 Z1.00000 (Retract to tool change height)
T1
M5      (Spindle stop.)
G04 P1.00000 (Wait for spindle to stop)
(MSG, Change tool bit to mill diameter 0.00787in)
M6      (Tool change.)
M0      (Temporary machine stop.)
M3 ( Spindle on clockwise. )
G04 P1.00000 (Wait for spindle to get up to speed)
G04 P0 ( dwell for no time -- G64 should not smooth over this point )
G00 Z0.08000 ( retract )

G00 X-3.28058 Y-2.58040 ( rapid move to begin. )
G01 F0.50000
( Mill infeed pass 1/1 )
G01 Z-0.04000
G04 P0 ( dwell for no time -- G64 should not smooth over this point )
G01 F1.00000
G01 X-3.28058 Y-2.58040
G01 X-3.28476 Y-2.57576
G01 X-3.28832 Y-2.56969
G01 X-3.30924 Y-2.56969
G04 P0 ( dwell for no time -- G64 should not smooth over this point )
G00 Z0.08000 ( retract )

G00 X-3.28056 Y-2.51957 ( rapid move to begin. )
G01 F0.50000
( Mill infeed pass 1/1 )
G01 Z-0.04000
G04 P0 ( dwell for no time -- G64 should not smooth over this point )
G01 F1.00000
G01 X-3.28056 Y-2.51957
G01 X-3.28476 Y-2.52424
G01 X-3.28832 Y-2.53031
G01 X-3.30932 Y-2.53031
G04 P0 ( dwell for no time -- G64 should not smooth over this point )
G00 Z0.08000 ( retract )

G00 X-3.59068 Y-2.53031 ( rapid move to begin. )
G01 F0.50000
( Mill infeed pass 1/1 )
G01 Z-0.04000
G04 P0 ( dwell for no time -- G64 should not smooth over this point )
G01 F1.00000
G01 X-3.59068 Y-2.53031
G01 X-3.61168 Y-2.53031
G01 X-3.61524 Y-2.52424
G01 X-3.61944 Y-2.51957
G04 P0 ( dwell for no time -- G64 should not smooth over this point )
G00 Z0.08000 ( retract )

G00 X-3.65015 Y-2.50693 ( rapid move to begin. )
G01 F0.50000
( Mill infeed pass 1/1 )
G01 Z-0.04000
G04 P0 ( dwell for no time -- G64 should not smooth over this point )
G01 F1.00000
G01 X-3.65015 Y-2.50693
G01 X-3.65493 Y-2.50702
G01 X-3.66358 Y-2.50893
G01 X-3.67903 Y-2.49349
G04 P0 ( dwell for no time -- G64 should not smooth over this point )
G00 Z0.08000 ( retract )

G00 X-3.74237 Y-2.69610 ( rapid move to begin. )
G01 F0.50000
( Mill infeed pass 1/1 )
G01 Z-0.04000
G04 P0 ( dwell for no time -- G64 should not smooth over this point )
G01 F1.00000
G01 X-3.74237 Y-2.69610
G01 X-3.74216 Y-2.69490
G01 X-3.74216 Y-2.64544
G01 X-3.72315 Y-2.64544
G01 X-3.67139 Y-2.69720
G01 X-3.68049 Y-2.91949
G01 X-3.68524 Y-2.92490
G01 X-3.68852 Y-2.93056
G01 X-3.98775 Y-2.93056
G01 X-4.14315 Y-2.77517
G01 X-4.14519 Y-2.77347
G04 P0 ( dwell for no time -- G64 should not smooth over this point )
G00 Z0.08000 ( retract )

G00 X-3.97718 Y-2.81694 ( rapid move to begin. )
G01 F0.50000
( Mill infeed pass 1/1 )
G01 Z-0.04000
G04 P0 ( dwell for no time -- G64 should not smooth over this point )
G01 F1.00000
G01 X-3.97718 Y-2.81694
G01 X-4.06890 Y-2.81694
G01 X-4.07041 Y-2.81664
G01 X-4.07109 Y-2.81627
G01 X-4.07217 Y-2.81519
G01 X-4.07276 Y-2.81377
G01 X-4.07284 Y-2.81300
G01 X-4.07284 Y-2.68559
G01 X-4.27454 Y-2.58474
G01 X-4.27872 Y-2.58768
G01 X-4.28598 Y-2.59090
G04 P0 ( dwell for no time -- G64 should not smooth over this point )
G00 Z0.08000 ( retract )

G00 X-4.35923 Y-2.56969 ( rapid move to begin. )
G01 F0.50000
( Mill infeed pass 1/1 )
G01 Z-0.04000
G04 P0 ( dwell for no time -- G64 should not smooth over this point )
G01 F1.00000
G01 X-4.35923 Y-2.56969
G01 X-4.33832 Y-2.56969
G01 X-4.33476 Y-2.57576
G01 X-4.33058 Y-2.58040
G04 P0 ( dwell for no time -- G64 should not smooth over this point )
G00 Z0.08000 ( retract )

G00 X-4.20223 Y-2.57687 ( rapid move to begin. )
G01 F0.50000
( Mill infeed pass 1/1 )
G01 Z-0.04000
G04 P0 ( dwell for no time -- G64 should not smooth over this point )
G01 F1.00000
G01 X-4.20223 Y-2.57687
G01 X-4.25673 Y-2.54962
G01 X-4.25759 Y-2.54141
G01 X-4.25908 Y-2.53657
G01 X-4.21574 Y-2.49323
G01 X-4.07284 Y-2.47452
G01 X-4.07284 Y-2.43900
G01 X-4.07276 Y-2.43823
G01 X-4.07217 Y-2.43681
G01 X-4.07109 Y-2.43573
G01 X-4.06967 Y-2.43514
G01 X-3.93033 Y-2.43514
G01 X-3.92891 Y-2.43573
G01 X-3.92783 Y-2.43681
G01 X-3.92724 Y-2.43823
G01 X-3.92716 Y-2.43900
G01 X-3.92716 Y-2.48947
G01 X-3.92532 Y-2.49011
G01 X-3.92264 Y-2.49154
G01 X-3.91936 Y-2.49416
G01 X-3.86035 Y-2.55316
G01 X-3.74610 Y-2.55316
G01 X-3.74533 Y-2.55324
G01 X-3.74391 Y-2.55383
G01 X-3.74283 Y-2.55491
G01 X-3.74224 Y-2.55633
G01 X-3.74216 Y-2.55710
G01 X-3.74216 Y-2.60656
G01 X-3.71471 Y-2.60658
G01 X-3.71094 Y-2.60703
G01 X-3.70803 Y-2.60791
G01 X-3.70399 Y-2.61007
G01 X-3.70136 Y-2.61226
G01 X-3.56490 Y-2.74871
G01 X-3.54594 Y-2.74871
G01 X-3.61942 Y-2.58040
G01 X-3.61524 Y-2.57576
G01 X-3.61168 Y-2.56969
G01 X-3.59076 Y-2.56969
G01 X-3.63411 Y-2.59007
G01 X-3.63702 Y-2.59127
G01 X-3.64589 Y-2.59307
G01 X-3.65493 Y-2.59298
G01 X-3.66376 Y-2.59102
G01 X-3.67198 Y-2.58726
G01 X-3.67926 Y-2.58187
G01 X-3.68476 Y-2.57576
G01 X-3.68969 Y-2.56722
G01 X-3.69240 Y-2.55859
G01 X-3.69326 Y-2.55041
G01 X-3.69240 Y-2.54141
G01 X-3.69092 Y-2.53657
G01 X-3.80455 Y-2.42294
G01 X-4.14545 Y-2.42294
G01 X-4.16082 Y-2.43831
G01 X-4.14530 Y-2.60534
G01 X-4.01345 Y-2.67126
G01 X-3.93110 Y-2.67126
G01 X-3.93033 Y-2.67134
G01 X-3.92891 Y-2.67193
G01 X-3.92783 Y-2.67301
G01 X-3.92724 Y-2.67443
G01 X-3.92716 Y-2.67520
G01 X-3.92716 Y-2.74564
G01 X-3.88045 Y-2.69884
G01 X-3.88390 Y-2.69884
G01 X-3.88541 Y-2.69854
G01 X-3.88609 Y-2.69817
G01 X-3.88717 Y-2.69709
G01 X-3.88754 Y-2.69641
G01 X-3.88784 Y-2.69490
G01 X-3.88784 Y-2.58065
G01 X-3.92716 Y-2.54132
G01 X-3.92716 Y-2.57680
G01 X-3.92746 Y-2.57831
G01 X-3.92783 Y-2.57899
G01 X-3.92891 Y-2.58007
G01 X-3.93033 Y-2.58066
G01 X-4.06967 Y-2.58066
G01 X-4.07109 Y-2.58007
G01 X-4.07168 Y-2.57958
G01 X-4.07217 Y-2.57899
G01 X-4.07276 Y-2.57757
G01 X-4.07284 Y-2.56053
G04 P0 ( dwell for no time -- G64 should not smooth over this point )
G00 Z0.08000 ( retract )

G00 X-4.27097 Y-2.49349 ( rapid move to begin. )
G01 F0.50000
( Mill infeed pass 1/1 )
G01 Z-0.04000
G04 P0 ( dwell for no time -- G64 should not smooth over this point )
G01 F1.00000
G01 X-4.27097 Y-2.49349
G01 X-4.28641 Y-2.50893
G01 X-4.29507 Y-2.50702
G01 X-4.29985 Y-2.50693
G04 P0 ( dwell for no time -- G64 should not smooth over this point )
G00 Z0.08000 ( retract )

G00 X-4.33057 Y-2.51959 ( rapid move to begin. )
G01 F0.50000
( Mill infeed pass 1/1 )
G01 Z-0.04000
G04 P0 ( dwell for no time -- G64 should not smooth over this point )
G01 F1.00000
G01 X-4.33057 Y-2.51959
G01 X-4.33476 Y-2.52424
G01 X-4.33832 Y-2.53031
G01 X-4.35931 Y-2.53031
G04 P0 ( dwell for no time -- G64 should not smooth over this point )
G00 Z0.08000 ( retract )

G00 X-4.64069 Y-2.53031 ( rapid move to begin. )
G01 F0.50000
( Mill infeed pass 1/1 )
G01 Z-0.04000
G04 P0 ( dwell for no time -- G64 should not smooth over this point )
G01 F1.00000
G01 X-4.64069 Y-2.53031
G01 X-4.66168 Y-2.53031
G01 X-4.66524 Y-2.52424
G01 X-4.66943 Y-2.51959
G04 P0 ( dwell for no time -- G64 should not smooth over this point )
G00 Z0.08000 ( retract )

G00 X-4.66942 Y-2.58040 ( rapid move to begin. )
G01 F0.50000
( Mill infeed pass 1/1 )
G01 Z-0.04000
G04 P0 ( dwell for no time -- G64 should not smooth over this point )
G01 F1.00000
G01 X-4.66942 Y-2.58040
G01 X-4.66524 Y-2.57576
G01 X-4.66168 Y-2.56969
G01 X-4.64076 Y-2.56969
G04 P0 ( dwell for no time -- G64 should not smooth over this point )
G00 Z0.08000 ( retract )

G00 X-4.04806 Y-3.13816 ( rapid move to begin. )
G01 F0.50000
( Mill infeed pass 1/1 )
G01 Z-0.04000
G04 P0 ( dwell for no time -- G64 should not smooth over this point )
G01 F1.00000
G01 X-4.04806 Y-3.13816
G01 X-4.03465 Y-3.15157
G01 X-4.01569 Y-3.15157
G04 P0 ( dwell for no time -- G64 should not smooth over this point )
G00 Z0.08000 ( retract )

G00 X-3.86937 Y-3.37125 ( rapid move to begin. )
G01 F0.50000
( Mill infeed pass 1/1 )
G01 Z-0.04000
G04 P0 ( dwell for no time -- G64 should not smooth over this point )
G01 F1.00000
G01 X-3.86937 Y-3.37125
G01 X-3.86944 Y-3.34331
G01 X-3.88777 Y-3.34327
G01 X-3.96987 Y-3.31944
G01 X-4.00866 Y-3.31944
G01 X-4.00870 Y-3.33974
G01 X-3.89130 Y-3.33974
G01 X-3.89134 Y-3.31944
G01 X-3.93013 Y-3.31944
G01 X-3.86937 Y-3.37125
G04 P0 ( dwell for no time -- G64 should not smooth over this point )
G00 Z0.08000 ( retract )

G00 X-3.71271 Y-3.28232 ( rapid move to begin. )
G01 F0.50000
( Mill infeed pass 1/1 )
G01 Z-0.04000
G04 P0 ( dwell for no time -- G64 should not smooth over this point )
G01 F1.00000
G01 X-3.71271 Y-3.28232
G01 X-3.71209 Y-3.28357
G01 X-3.70967 Y-3.29101
G01 X-3.70928 Y-3.29390
G01 X-3.69043 Y-3.30079
G01 X-3.66241 Y-3.30905
G01 X-3.66778 Y-3.30905
G01 X-3.67286 Y-3.30720
G01 X-3.71997 Y-3.27188
G01 X-3.72266 Y-3.26903
G01 X-3.72970 Y-3.26401
G01 X-3.73762 Y-3.26058
G01 X-3.74527 Y-3.25895
G01 X-3.75391 Y-3.25886
G01 X-3.76316 Y-3.26083
G01 X-3.77101 Y-3.26443
G01 X-3.77796 Y-3.26958
G01 X-3.78367 Y-3.27605
G01 X-3.78758 Y-3.28282
G01 X-3.79032 Y-3.29101
G01 X-3.79131 Y-3.29959
G01 X-3.79049 Y-3.30819
G01 X-3.78758 Y-3.31718
G01 X-3.78319 Y-3.32461
G01 X-3.77734 Y-3.33097
G01 X-3.77030 Y-3.33599
G01 X-3.76238 Y-3.33942
G01 X-3.75391 Y-3.34114
G01 X-3.74609 Y-3.34114
G01 X-3.73762 Y-3.33942
G01 X-3.72970 Y-3.33599
G01 X-3.72263 Y-3.33095
G01 X-3.67801 Y-3.34724
G01 X-3.67502 Y-3.34805
G01 X-3.67160 Y-3.34841
G01 X-3.44609 Y-3.34843
G01 X-3.44477 Y-3.35010
G01 X-3.44049 Y-3.35396
G01 X-3.43483 Y-3.35733
G01 X-3.42860 Y-3.35944
G01 X-3.42165 Y-3.36024
G01 X-3.37794 Y-3.36022
G01 X-3.37140 Y-3.35944
G01 X-3.36592 Y-3.35766
G01 X-3.35951 Y-3.35396
G01 X-3.35469 Y-3.34950
G01 X-3.35130 Y-3.34484
G01 X-3.34854 Y-3.33886
G01 X-3.34700 Y-3.33162
G01 X-3.34709 Y-3.32504
G01 X-3.34854 Y-3.31862
G01 X-3.35088 Y-3.31336
G01 X-3.35469 Y-3.30798
G01 X-3.36018 Y-3.30303
G01 X-3.36592 Y-3.29982
G01 X-3.37140 Y-3.29804
G01 X-3.37835 Y-3.29724
G01 X-3.42206 Y-3.29726
G01 X-3.42860 Y-3.29804
G01 X-3.43483 Y-3.30015
G01 X-3.44049 Y-3.30352
G01 X-3.44477 Y-3.30738
G01 X-3.44609 Y-3.30905
G01 X-3.50003 Y-3.30905
G01 X-3.45234 Y-3.25637
G01 X-3.45146 Y-3.26012
G01 X-3.44870 Y-3.26610
G01 X-3.44531 Y-3.27076
G01 X-3.44049 Y-3.27522
G01 X-3.43408 Y-3.27892
G01 X-3.42860 Y-3.28070
G01 X-3.42206 Y-3.28147
G01 X-3.37835 Y-3.28150
G01 X-3.37221 Y-3.28087
G01 X-3.36592 Y-3.27892
G01 X-3.36018 Y-3.27571
G01 X-3.35523 Y-3.27136
G01 X-3.35373 Y-3.26944
G01 X-3.31979 Y-3.26944
G01 X-3.31563 Y-3.26897
G01 X-3.31201 Y-3.26779
G01 X-3.30868 Y-3.26593
G01 X-3.30605 Y-3.26374
G01 X-3.23626 Y-3.19395
G01 X-3.23407 Y-3.19132
G01 X-3.23191 Y-3.18728
G01 X-3.23088 Y-3.18362
G01 X-3.23056 Y-3.18021
G01 X-3.23056 Y-2.98849
G01 X-3.22802 Y-2.98726
G01 X-3.22135 Y-2.98242
G01 X-3.21524 Y-2.97576
G01 X-3.21064 Y-2.96798
G01 X-3.20777 Y-2.95939
G01 X-3.20673 Y-2.95041
G01 X-3.20759 Y-2.94141
G01 X-3.21030 Y-2.93277
G01 X-3.21476 Y-2.92490
G01 X-3.22074 Y-2.91813
G01 X-3.22802 Y-2.91274
G01 X-3.23624 Y-2.90898
G01 X-3.24115 Y-2.90785
G01 X-3.29718 Y-2.87534
G01 X-3.33626 Y-2.83626
G01 X-3.33954 Y-2.83364
G01 X-3.34293 Y-2.83191
G01 X-3.34659 Y-2.83088
G01 X-3.35000 Y-2.83056
G01 X-3.37047 Y-2.83056
G01 X-3.37047 Y-2.82441
G01 X-3.37077 Y-2.82290
G01 X-3.37114 Y-2.82222
G01 X-3.37222 Y-2.82114
G01 X-3.37364 Y-2.82055
G01 X-3.37441 Y-2.82047
G01 X-3.42559 Y-2.82047
G01 X-3.42710 Y-2.82077
G01 X-3.42837 Y-2.82163
G01 X-3.42923 Y-2.82290
G01 X-3.42953 Y-2.82441
G01 X-3.42953 Y-2.87559
G01 X-3.42945 Y-2.87636
G01 X-3.42910 Y-2.87733
G01 X-3.48007 Y-2.87299
G01 X-3.47837 Y-2.87165
G01 X-3.47431 Y-2.86701
G01 X-3.47164 Y-2.86238
G01 X-3.46965 Y-2.85654
G01 X-3.46891 Y-2.85041
G01 X-3.46947 Y-2.84427
G01 X-3.47164 Y-2.83762
G01 X-3.47479 Y-2.83233
G01 X-3.47899 Y-2.82779
G01 X-3.48332 Y-2.82465
G01 X-3.48892 Y-2.82206
G01 X-3.49575 Y-2.82061
G01 X-3.50192 Y-2.82070
G01 X-3.50793 Y-2.82206
G01 X-3.51353 Y-2.82465
G01 X-3.51786 Y-2.82779
G01 X-3.52254 Y-2.83299
G01 X-3.52521 Y-2.83762
G01 X-3.52720 Y-2.84346
G01 X-3.52793 Y-2.84959
G01 X-3.52778 Y-2.85186
G01 X-3.60648 Y-2.93056
G01 X-3.61148 Y-2.93056
G01 X-3.61524 Y-2.92424
G01 X-3.62074 Y-2.91813
G01 X-3.62801 Y-2.91274
G01 X-3.63137 Y-2.91115
G01 X-3.57392 Y-2.78751
G01 X-3.21876 Y-2.78759
G01 X-3.18759 Y-2.81876
G01 X-3.18759 Y-3.20957
G01 X-3.35738 Y-3.37936
G01 X-3.81352 Y-3.37936
G01 X-3.83056 Y-3.36232
G01 X-3.83056 Y-3.34331
G01 X-3.81183 Y-3.34323
G01 X-3.81041 Y-3.34264
G01 X-3.80982 Y-3.34215
G01 X-3.80933 Y-3.34156
G01 X-3.80874 Y-3.34014
G01 X-3.80866 Y-3.26063
G01 X-3.80874 Y-3.25986
G01 X-3.80933 Y-3.25844
G01 X-3.81041 Y-3.25736
G01 X-3.81109 Y-3.25699
G01 X-3.81260 Y-3.25669
G01 X-3.88817 Y-3.25677
G01 X-3.88959 Y-3.25736
G01 X-3.89018 Y-3.25785
G01 X-3.89067 Y-3.25844
G01 X-3.89126 Y-3.25986
G01 X-3.89134 Y-3.28056
G01 X-4.00866 Y-3.28056
G01 X-4.00874 Y-3.25986
G01 X-4.00932 Y-3.25844
G01 X-4.01041 Y-3.25736
G01 X-4.01109 Y-3.25699
G01 X-4.01260 Y-3.25669
G01 X-4.08670 Y-3.25669
G04 P0 ( dwell for no time -- G64 should not smooth over this point )
G00 Z0.08000 ( retract )

G00 X-4.09106 Y-3.34079 ( rapid move to begin. )
G01 F0.50000
( Mill infeed pass 1/1 )
G01 Z-0.04000
G04 P0 ( dwell for no time -- G64 should not smooth over this point )
G01 F1.00000
G01 X-4.09106 Y-3.34079
G01 X-4.13053 Y-3.33636
G01 X-4.12899 Y-3.33557
G01 X-4.12265 Y-3.33097
G01 X-4.11633 Y-3.32395
G01 X-4.11209 Y-3.31642
G01 X-4.10950 Y-3.30819
G01 X-4.10868 Y-3.30041
G01 X-4.10968 Y-3.29101
G01 X-4.11242 Y-3.28282
G01 X-4.11633 Y-3.27605
G01 X-4.12265 Y-3.26903
G01 X-4.12899 Y-3.26443
G01 X-4.13053 Y-3.26364
G01 X-4.09106 Y-3.25921
G01 X-4.09134 Y-3.26063
G01 X-4.09134 Y-3.33937
G01 X-4.09106 Y-3.34079
G04 P0 ( dwell for no time -- G64 should not smooth over this point )
G00 Z0.08000 ( retract )

G00 X-4.15141 Y-3.34114 ( rapid move to begin. )
G01 F0.50000
( Mill infeed pass 1/1 )
G01 Z-0.04000
G04 P0 ( dwell for no time -- G64 should not smooth over this point )
G01 F1.00000
G01 X-4.15141 Y-3.34114
G01 X-4.15473 Y-3.34105
G01 X-4.16171 Y-3.33956
G01 X-4.16482 Y-3.34266
G01 X-4.16724 Y-3.34468
G04 P0 ( dwell for no time -- G64 should not smooth over this point )
G00 Z0.08000 ( retract )

G00 X-4.43946 Y-3.34843 ( rapid move to begin. )
G01 F0.50000
( Mill infeed pass 1/1 )
G01 Z-0.04000
G04 P0 ( dwell for no time -- G64 should not smooth over this point )
G01 F1.00000
G01 X-4.43946 Y-3.34843
G01 X-4.45391 Y-3.34843
G01 X-4.45523 Y-3.35010
G01 X-4.45954 Y-3.35398
G04 P0 ( dwell for no time -- G64 should not smooth over this point )
G00 Z0.08000 ( retract )

G00 X-4.54654 Y-3.30967 ( rapid move to begin. )
G01 F0.50000
( Mill infeed pass 1/1 )
G01 Z-0.04000
G04 P0 ( dwell for no time -- G64 should not smooth over this point )
G01 F1.00000
G01 X-4.54654 Y-3.30967
G01 X-4.54477 Y-3.30738
G01 X-4.54049 Y-3.30352
G01 X-4.53483 Y-3.30015
G01 X-4.52860 Y-3.29804
G01 X-4.52165 Y-3.29724
G01 X-4.47835 Y-3.29724
G01 X-4.47221 Y-3.29786
G01 X-4.46592 Y-3.29982
G01 X-4.46018 Y-3.30303
G01 X-4.45523 Y-3.30738
G01 X-4.45391 Y-3.30905
G01 X-4.19031 Y-3.30905
G01 X-4.19132 Y-3.29959
G01 X-4.19050 Y-3.29181
G01 X-4.18794 Y-3.28364
G01 X-4.39705 Y-3.25206
G01 X-4.39750 Y-3.25328
G01 X-4.39893 Y-3.25596
G01 X-4.40155 Y-3.25924
G01 X-4.40605 Y-3.26374
G01 X-4.40868 Y-3.26593
G01 X-4.41272 Y-3.26809
G01 X-4.41638 Y-3.26912
G01 X-4.41979 Y-3.26944
G01 X-4.45373 Y-3.26944
G01 X-4.45523 Y-3.27136
G01 X-4.46018 Y-3.27571
G01 X-4.46592 Y-3.27892
G01 X-4.47221 Y-3.28087
G01 X-4.47835 Y-3.28150
G01 X-4.52165 Y-3.28150
G01 X-4.52779 Y-3.28087
G01 X-4.53408 Y-3.27892
G01 X-4.53982 Y-3.27571
G01 X-4.54477 Y-3.27136
G01 X-4.54654 Y-3.26907
G04 P0 ( dwell for no time -- G64 should not smooth over this point )
G00 Z0.08000 ( retract )

G00 X-4.53951 Y-3.14537 ( rapid move to begin. )
G01 F0.50000
( Mill infeed pass 1/1 )
G01 Z-0.04000
G04 P0 ( dwell for no time -- G64 should not smooth over this point )
G01 F1.00000
G01 X-4.53951 Y-3.14537
G01 X-4.54049 Y-3.14604
G01 X-4.54477 Y-3.14990
G01 X-4.54627 Y-3.15182
G01 X-4.58147 Y-3.15182
G01 X-4.75541 Y-2.97788
G01 X-4.75541 Y-2.92212
G01 X-4.64164 Y-2.80835
G01 X-4.16494 Y-2.80835
G01 X-4.15153 Y-2.82176
G01 X-4.26690 Y-2.91932
G01 X-4.28031 Y-2.90591
G01 X-4.28031 Y-2.85000
G01 X-4.28063 Y-2.84655
G01 X-4.28198 Y-2.84212
G01 X-4.28385 Y-2.83875
G01 X-4.28636 Y-2.83582
G01 X-4.28940 Y-2.83343
G01 X-4.29212 Y-2.83197
G01 X-4.29578 Y-2.83078
G01 X-4.30000 Y-2.83031
G01 X-4.42976 Y-2.83031
G01 X-4.43214 Y-2.82779
G01 X-4.43718 Y-2.82424
G01 X-4.44285 Y-2.82181
G01 X-4.44890 Y-2.82061
G01 X-4.45425 Y-2.82061
G01 X-4.46030 Y-2.82181
G01 X-4.46597 Y-2.82424
G01 X-4.47101 Y-2.82779
G01 X-4.47521 Y-2.83233
G01 X-4.47869 Y-2.83837
G01 X-4.48053 Y-2.84427
G01 X-4.48109 Y-2.84959
G01 X-4.48053 Y-2.85573
G01 X-4.47836 Y-2.86238
G01 X-4.47521 Y-2.86767
G01 X-4.47163 Y-2.87165
G01 X-4.46668 Y-2.87535
G01 X-4.46030 Y-2.87819
G01 X-4.45425 Y-2.87939
G01 X-4.44808 Y-2.87930
G01 X-4.39110 Y-2.86969
G01 X-4.31969 Y-2.86969
G01 X-4.31968 Y-2.91161
G01 X-4.32200 Y-2.91274
G01 X-4.32865 Y-2.91758
G01 X-4.33476 Y-2.92424
G01 X-4.33936 Y-2.93202
G01 X-4.34051 Y-2.93529
G01 X-4.41688 Y-2.86969
G01 X-4.42976 Y-2.86969
G01 X-4.43214 Y-2.87221
G01 X-4.43505 Y-2.87432
G01 X-4.34252 Y-2.95745
G01 X-4.34223 Y-2.95939
G01 X-4.33969 Y-2.96722
G01 X-4.33524 Y-2.97510
G01 X-4.32926 Y-2.98187
G01 X-4.32314 Y-2.98643
G01 X-4.39653 Y-3.03644
G01 X-4.39750 Y-3.03352
G01 X-4.39893 Y-3.03084
G01 X-4.40155 Y-3.02756
G01 X-4.53056 Y-2.89854
G01 X-4.53056 Y-2.87953
G01 X-4.52441 Y-2.87953
G01 X-4.52290 Y-2.87923
G01 X-4.52222 Y-2.87886
G01 X-4.52114 Y-2.87778
G01 X-4.52077 Y-2.87710
G01 X-4.52047 Y-2.87559
G01 X-4.52047 Y-2.82441
G01 X-4.52055 Y-2.82364
G01 X-4.52114 Y-2.82222
G01 X-4.52222 Y-2.82114
G01 X-4.52364 Y-2.82055
G01 X-4.57636 Y-2.82055
G01 X-4.57778 Y-2.82114
G01 X-4.57886 Y-2.82222
G01 X-4.57923 Y-2.82290
G01 X-4.57953 Y-2.82441
G01 X-4.57953 Y-2.83056
G01 X-4.60039 Y-2.83058
G01 X-4.60416 Y-2.83103
G01 X-4.60778 Y-2.83221
G01 X-4.61111 Y-2.83407
G01 X-4.61374 Y-2.83626
G01 X-4.68641 Y-2.90893
G01 X-4.69589 Y-2.90693
G01 X-4.70411 Y-2.90693
G01 X-4.71298 Y-2.90873
G01 X-4.72128 Y-2.91232
G01 X-4.72926 Y-2.91813
G01 X-4.73476 Y-2.92424
G01 X-4.73936 Y-2.93202
G01 X-4.74223 Y-2.94061
G01 X-4.74327 Y-2.94959
G01 X-4.74240 Y-2.95859
G01 X-4.73969 Y-2.96722
G01 X-4.73476 Y-2.97576
G01 X-4.72865 Y-2.98242
G01 X-4.72128 Y-2.98768
G01 X-4.71298 Y-2.99127
G01 X-4.70493 Y-2.99298
G01 X-4.69589 Y-2.99307
G01 X-4.68702 Y-2.99127
G01 X-4.67872 Y-2.98768
G01 X-4.67518 Y-2.98521
G04 P0 ( dwell for no time -- G64 should not smooth over this point )
G00 Z0.08000 ( retract )

G00 X-4.65673 Y-2.95032 ( rapid move to begin. )
G01 F0.50000
( Mill infeed pass 1/1 )
G01 Z-0.04000
G04 P0 ( dwell for no time -- G64 should not smooth over this point )
G01 F1.00000
G01 X-4.65673 Y-2.95032
G01 X-4.65759 Y-2.94141
G01 X-4.65908 Y-2.93657
G01 X-4.59195 Y-2.86944
G01 X-4.57953 Y-2.86944
G01 X-4.57945 Y-2.87636
G01 X-4.57886 Y-2.87778
G01 X-4.57837 Y-2.87837
G01 X-4.57778 Y-2.87886
G01 X-4.57636 Y-2.87945
G01 X-4.56944 Y-2.87953
G01 X-4.56942 Y-2.90698
G01 X-4.56897 Y-2.91075
G01 X-4.56809 Y-2.91366
G01 X-4.56593 Y-2.91770
G01 X-4.56485 Y-2.91901
G01 X-4.43473 Y-3.04935
G01 X-4.43473 Y-3.23056
G01 X-4.45373 Y-3.23056
G01 X-4.45523 Y-3.22864
G01 X-4.46018 Y-3.22429
G01 X-4.46592 Y-3.22107
G01 X-4.47221 Y-3.21912
G01 X-4.47835 Y-3.21850
G01 X-4.52206 Y-3.21852
G01 X-4.52860 Y-3.21929
G01 X-4.53408 Y-3.22107
G01 X-4.54049 Y-3.22478
G01 X-4.54531 Y-3.22924
G01 X-4.54870 Y-3.23390
G01 X-4.55146 Y-3.23988
G01 X-4.55183 Y-3.24121
G01 X-4.58917 Y-3.19070
G01 X-4.54627 Y-3.19070
G01 X-4.54477 Y-3.19262
G01 X-4.54049 Y-3.19648
G01 X-4.53483 Y-3.19985
G01 X-4.52860 Y-3.20196
G01 X-4.52206 Y-3.20274
G01 X-4.47835 Y-3.20276
G01 X-4.47140 Y-3.20196
G01 X-4.46517 Y-3.19985
G01 X-4.46018 Y-3.19697
G01 X-4.45523 Y-3.19262
G01 X-4.45088 Y-3.18664
G01 X-4.44829 Y-3.18060
G01 X-4.44700 Y-3.17414
G01 X-4.44700 Y-3.16838
G01 X-4.44829 Y-3.16192
G01 X-4.45130 Y-3.15516
G01 X-4.45523 Y-3.14990
G01 X-4.46018 Y-3.14555
G01 X-4.46592 Y-3.14234
G01 X-4.47140 Y-3.14055
G01 X-4.47794 Y-3.13978
G01 X-4.48153 Y-3.13976
G04 P0 ( dwell for no time -- G64 should not smooth over this point )
G00 Z0.08000 ( retract )

G00 X-4.28548 Y-2.99068 ( rapid move to begin. )
G01 F0.50000
( Mill infeed pass 1/1 )
G01 Z-0.04000
G04 P0 ( dwell for no time -- G64 should not smooth over this point )
G01 F1.00000
G01 X-4.28548 Y-2.99068
G01 X-4.27800 Y-2.98726
G01 X-4.27135 Y-2.98242
G01 X-4.26567 Y-2.97623
G01 X-4.05672 Y-3.18518
G01 X-4.05340 Y-3.18783
G01 X-4.05068 Y-3.18928
G01 X-4.04702 Y-3.19048
G01 X-4.04280 Y-3.19095
G01 X-3.44609 Y-3.19095
G01 X-3.44477 Y-3.19262
G01 X-3.43982 Y-3.19697
G01 X-3.43408 Y-3.20018
G01 X-3.42779 Y-3.20214
G01 X-3.42165 Y-3.20276
G01 X-3.37835 Y-3.20276
G01 X-3.37221 Y-3.20214
G01 X-3.36592 Y-3.20018
G01 X-3.35951 Y-3.19648
G01 X-3.35469 Y-3.19202
G01 X-3.35130 Y-3.18736
G01 X-3.34829 Y-3.18060
G01 X-3.34700 Y-3.17414
G01 X-3.34709 Y-3.16756
G01 X-3.34854 Y-3.16114
G01 X-3.35088 Y-3.15588
G01 X-3.35468 Y-3.15052
G01 X-3.29325 Y-2.94944
G01 X-3.29241 Y-2.94141
G01 X-3.29092 Y-2.93657
G01 X-3.35805 Y-2.86944
G01 X-3.37047 Y-2.86944
G01 X-3.37055 Y-2.87636
G01 X-3.37114 Y-2.87778
G01 X-3.37163 Y-2.87837
G01 X-3.37256 Y-2.87905
G01 X-3.27926 Y-2.98187
G01 X-3.27198 Y-2.98726
G01 X-3.26944 Y-2.98849
G01 X-3.26944 Y-3.17216
G01 X-3.32784 Y-3.23056
G01 X-3.35373 Y-3.23056
G01 X-3.35523 Y-3.22864
G01 X-3.36018 Y-3.22429
G01 X-3.36592 Y-3.22107
G01 X-3.37221 Y-3.21912
G01 X-3.37835 Y-3.21850
G01 X-3.42165 Y-3.21850
G01 X-3.42779 Y-3.21912
G01 X-3.43483 Y-3.22141
G01 X-3.43982 Y-3.22429
G01 X-3.44477 Y-3.22864
G01 X-3.44912 Y-3.23462
G01 X-3.45146 Y-3.23988
G01 X-3.45235 Y-3.24369
G04 P0 ( dwell for no time -- G64 should not smooth over this point )
G00 Z0.08000 ( retract )

G00 X-3.44043 Y-3.14600 ( rapid move to begin. )
G01 F0.50000
( Mill infeed pass 1/1 )
G01 Z-0.04000
G04 P0 ( dwell for no time -- G64 should not smooth over this point )
G01 F1.00000
G01 X-3.44043 Y-3.14600
G01 X-3.59844 Y-2.96944
G01 X-3.61148 Y-2.96944
G01 X-3.61476 Y-2.97510
G01 X-3.61852 Y-2.97941
G01 X-3.46063 Y-3.15157
G01 X-3.44609 Y-3.15157
G01 X-3.44477 Y-3.14990
G01 X-3.44043 Y-3.14600
G04 P0 ( dwell for no time -- G64 should not smooth over this point )
G00 Z0.08000 ( retract )

G00 X-3.25215 Y-2.90693 ( rapid move to begin. )
G01 F0.50000
( Mill infeed pass 1/1 )
G01 Z-0.04000
G04 P0 ( dwell for no time -- G64 should not smooth over this point )
G01 F1.00000
G01 X-3.25215 Y-2.90693
G01 X-3.25493 Y-2.90702
G01 X-3.26358 Y-2.90893
G01 X-3.27591 Y-2.89660
G04 P0 ( dwell for no time -- G64 should not smooth over this point )
G00 Z0.08000 ( retract )

G00 X-3.49314 Y-2.87892 ( rapid move to begin. )
G01 F0.50000
( Mill infeed pass 1/1 )
G01 Z-0.04000
G04 P0 ( dwell for no time -- G64 should not smooth over this point )
G01 F1.00000
G01 X-3.49314 Y-2.87892
G01 X-3.49575 Y-2.87939
G01 X-3.50033 Y-2.87939
G01 X-3.51032 Y-2.88937
G04 P0 ( dwell for no time -- G64 should not smooth over this point )
G00 Z0.08000 ( retract )

G00 X-3.68068 Y-2.98029 ( rapid move to begin. )
G01 F0.50000
( Mill infeed pass 1/1 )
G01 Z-0.04000
G04 P0 ( dwell for no time -- G64 should not smooth over this point )
G01 F1.00000
G01 X-3.68068 Y-2.98029
G01 X-3.68524 Y-2.97510
G01 X-3.68852 Y-2.96944
G01 X-3.70948 Y-2.96944

G04 P0 ( dwell for no time -- G64 should not smooth over this point )
G00 Z1.000000 ( retract )

M5 ( Spindle off. )
G04 P1.000000
M9 ( Coolant off. )
M2 ( Program end. )

