( pcb2gcode 2.5.0 )
( Software-independent Gcode )

G94 ( Inches per minute feed rate. )
G20 ( Units == INCHES. )

G90 ( Absolute coordinates. )
G00 S12000 ( RPM spindle speed. )
G64 P0.00040 ( set maximum deviation from commanded toolpath )
G01 F1.00000 ( Feedrate. )


G00 Z1.00000 (Retract to tool change height)
T1
M5      (Spindle stop.)
G04 P1.00000 (Wait for spindle to stop)
(MSG, Change tool bit to mill diameter 0.11811in)
M6      (Tool change.)
M0      (Temporary machine stop.)
M3 ( Spindle on clockwise. )
G04 P1.00000 (Wait for spindle to get up to speed)
G04 P0 ( dwell for no time -- G64 should not smooth over this point )
G00 Z0.08000 ( retract )

G00 X-3.25186 Y-2.84270 ( rapid move to begin. )
G01 F0.50000
( Mill infeed pass 1/1 )
G01 Z-0.04000
G04 P0 ( dwell for no time -- G64 should not smooth over this point )
G01 F1.00000
G01 X-3.25186 Y-2.84270
G01 X-3.24270 Y-2.85186
G01 X-3.24230 Y-2.85247
G01 X-3.24270 Y-2.85186
G01 X-3.24270 Y-2.84270
G01 X-3.25186 Y-2.84270
G01 X-3.25282 Y-2.84230
G04 P0 ( dwell for no time -- G64 should not smooth over this point )
G00 Z0.08000 ( retract )

G00 X-3.32455 Y-3.10353 ( rapid move to begin. )
G01 F0.50000
( Mill infeed pass 1/1 )
G01 Z-0.04000
G04 P0 ( dwell for no time -- G64 should not smooth over this point )
G01 F1.00000
G01 X-3.32455 Y-3.10353
G01 X-3.32456 Y-3.01397
G01 X-3.32985 Y-3.00744
G01 X-3.33301 Y-3.00282
G01 X-3.33881 Y-2.99219
G01 X-3.34099 Y-2.98747
G01 X-3.34275 Y-2.98258
G01 X-3.34614 Y-2.97096
G01 X-3.34714 Y-2.96545
G01 X-3.34795 Y-2.95748
G01 X-3.37090 Y-2.93454
G01 X-3.42599 Y-2.93464
G01 X-3.43240 Y-2.93425
G01 X-3.43598 Y-2.93372
G01 X-3.43990 Y-2.93288
G01 X-3.44376 Y-2.93178
G01 X-3.44717 Y-2.93056
G01 X-3.45085 Y-2.92897
G01 X-3.45477 Y-2.92693
G01 X-3.45856 Y-2.92459
G01 X-3.45853 Y-2.92406
G01 X-3.45855 Y-2.92453
G01 X-3.46475 Y-2.92765
G01 X-3.46883 Y-2.92928
G01 X-3.47386 Y-2.93087
G01 X-3.54600 Y-3.00301
G01 X-3.54968 Y-3.00635
G01 X-3.55585 Y-3.01120
G01 X-3.56127 Y-3.01459
G01 X-3.56608 Y-3.01714
G01 X-3.56971 Y-3.01880
G01 X-3.57345 Y-3.02022
G01 X-3.57826 Y-3.02171
G01 X-3.58441 Y-3.02323
G01 X-3.59192 Y-3.02937
G01 X-3.59616 Y-3.03237
G01 X-3.59995 Y-3.03461
G01 X-3.61033 Y-3.04004
G01 X-3.61590 Y-3.04225
G01 X-3.62556 Y-3.04522
G01 X-3.62982 Y-3.04631
G01 X-3.63415 Y-3.04708
G01 X-3.64581 Y-3.04826
G01 X-3.65220 Y-3.04836
G01 X-3.66545 Y-3.04713
G01 X-3.66979 Y-3.04639
G01 X-3.67367 Y-3.04544
G01 X-3.68486 Y-3.04199
G01 X-3.68858 Y-3.04052
G01 X-3.69219 Y-3.03881
G01 X-3.70075 Y-3.03422
G01 X-3.70417 Y-3.03215
G01 X-3.70808 Y-3.02937
G01 X-3.71397 Y-3.02455
G01 X-3.99580 Y-3.02455
G01 X-4.00076 Y-3.02435
G01 X-4.00699 Y-3.02369
G01 X-4.01210 Y-3.02274
G01 X-4.01964 Y-3.02059
G01 X-4.02452 Y-3.01880
G01 X-4.02922 Y-3.01659
G01 X-4.03605 Y-3.01275
G01 X-4.04031 Y-3.00978
G01 X-4.04549 Y-3.00554
G01 X-4.04852 Y-3.00272
G01 X-4.18777 Y-2.86346
G01 X-4.22519 Y-2.86346
G01 X-4.22559 Y-2.86306
G01 X-4.22519 Y-2.86346
G01 X-4.22519 Y-2.88308
G01 X-4.01182 Y-3.09645
G01 X-3.46515 Y-3.09645
G01 X-3.45754 Y-3.09246
G01 X-3.45200 Y-3.09016
G01 X-3.44186 Y-3.08707
G01 X-3.43835 Y-3.08627
G01 X-3.43480 Y-3.08569
G01 X-3.42662 Y-3.08485
G01 X-3.42290 Y-3.08466
G01 X-3.37752 Y-3.08465
G01 X-3.37379 Y-3.08482
G01 X-3.36718 Y-3.08546
G01 X-3.36204 Y-3.08620
G01 X-3.35659 Y-3.08749
G01 X-3.34725 Y-3.09043
G01 X-3.34138 Y-3.09298
G01 X-3.33242 Y-3.09785
G01 X-3.32907 Y-3.10003
G01 X-3.32619 Y-3.10219
G01 X-3.32455 Y-3.10353
G01 X-3.32415 Y-3.10438
G04 P0 ( dwell for no time -- G64 should not smooth over this point )
G00 Z0.08000 ( retract )

G00 X-3.67065 Y-3.24586 ( rapid move to begin. )
G01 F0.50000
( Mill infeed pass 1/1 )
G01 Z-0.04000
G04 P0 ( dwell for no time -- G64 should not smooth over this point )
G01 F1.00000
G01 X-3.67065 Y-3.24586
G01 X-3.67028 Y-3.24606
G01 X-3.50807 Y-3.24606
G01 X-3.50765 Y-3.24566
G01 X-3.50814 Y-3.24613
G01 X-3.50827 Y-3.24980
G01 X-3.50814 Y-3.25387
G01 X-3.50765 Y-3.25433
G01 X-3.50807 Y-3.25393
G01 X-3.65803 Y-3.25393
G01 X-3.66726 Y-3.25056
G01 X-3.66990 Y-3.24626
G01 X-3.67103 Y-3.24566
G04 P0 ( dwell for no time -- G64 should not smooth over this point )
G00 Z0.08000 ( retract )

G00 X-3.96831 Y-2.87206 ( rapid move to begin. )
G01 F0.50000
( Mill infeed pass 1/1 )
G01 Z-0.04000
G04 P0 ( dwell for no time -- G64 should not smooth over this point )
G01 F1.00000
G01 X-3.96831 Y-2.87206
G01 X-3.92869 Y-2.87201
G01 X-3.92230 Y-2.87140
G01 X-3.91601 Y-2.87009
G01 X-3.91140 Y-2.86867
G01 X-3.90693 Y-2.86688
G01 X-3.90297 Y-2.86493
G01 X-3.89884 Y-2.86246
G01 X-3.89523 Y-2.85991
G01 X-3.89152 Y-2.85683
G01 X-3.88808 Y-2.85346
G01 X-3.88518 Y-2.85013
G01 X-3.88276 Y-2.84693
G01 X-3.88057 Y-2.84356
G01 X-3.87861 Y-2.84006
G01 X-3.87689 Y-2.83643
G01 X-3.87529 Y-2.83231
G01 X-3.87411 Y-2.82848
G01 X-3.87319 Y-2.82457
G01 X-3.87254 Y-2.82061
G01 X-3.87215 Y-2.81661
G01 X-3.87204 Y-2.81300
G01 X-3.87204 Y-2.75395
G01 X-3.87244 Y-2.75355
G01 X-3.87204 Y-2.75395
G01 X-3.74610 Y-2.75395
G01 X-3.74089 Y-2.75372
G01 X-3.73650 Y-2.75317
G01 X-3.73179 Y-2.75219
G01 X-3.72716 Y-2.75084
G01 X-3.72304 Y-2.74926
G01 X-3.71868 Y-2.74721
G01 X-3.71451 Y-2.74480
G01 X-3.71087 Y-2.74230
G01 X-3.70720 Y-2.73933
G01 X-3.62567 Y-2.82087
G01 X-3.62295 Y-2.82342
G01 X-3.61809 Y-2.82744
G01 X-3.61487 Y-2.82980
G01 X-3.61149 Y-2.83195
G01 X-3.60672 Y-2.83455
G01 X-3.60277 Y-2.83648
G01 X-3.59868 Y-2.83811
G01 X-3.59358 Y-2.83972
G01 X-3.59281 Y-2.83952
G01 X-3.59358 Y-2.83972
G01 X-3.61277 Y-2.85891
G01 X-3.61703 Y-2.85737
G01 X-3.62710 Y-2.85435
G01 X-3.63139 Y-2.85337
G01 X-3.63614 Y-2.85268
G01 X-3.64541 Y-2.85177
G01 X-3.65060 Y-2.85160
G01 X-3.65539 Y-2.85184
G01 X-3.66703 Y-2.85310
G01 X-3.67290 Y-2.85435
G01 X-3.68258 Y-2.85725
G01 X-3.68673 Y-2.85871
G01 X-3.69040 Y-2.86030
G01 X-3.70005 Y-2.86539
G01 X-3.70384 Y-2.86763
G01 X-3.70776 Y-2.87039
G01 X-3.71397 Y-2.87544
G01 X-3.96492 Y-2.87544
G01 X-3.96831 Y-2.87206
G01 X-3.96927 Y-2.87166
G04 P0 ( dwell for no time -- G64 should not smooth over this point )
G00 Z0.08000 ( retract )

G00 X-3.85751 Y-2.47805 ( rapid move to begin. )
G01 F0.50000
( Mill infeed pass 1/1 )
G01 Z-0.04000
G04 P0 ( dwell for no time -- G64 should not smooth over this point )
G01 F1.00000
G01 X-3.85751 Y-2.47805
G01 X-3.83752 Y-2.49804
G01 X-3.80739 Y-2.49804
G01 X-3.80642 Y-2.49844
G01 X-3.80739 Y-2.49804
G01 X-3.82738 Y-2.47805
G01 X-3.85751 Y-2.47805
G01 X-3.85847 Y-2.47765
G04 P0 ( dwell for no time -- G64 should not smooth over this point )
G00 Z0.08000 ( retract )

G00 X-4.12755 Y-2.48243 ( rapid move to begin. )
G01 F0.50000
( Mill infeed pass 1/1 )
G01 Z-0.04000
G04 P0 ( dwell for no time -- G64 should not smooth over this point )
G01 F1.00000
G01 X-4.12755 Y-2.48243
G01 X-4.12795 Y-2.48339
G01 X-4.17395 Y-2.52939
G01 X-4.12795 Y-2.55239
G01 X-4.12755 Y-2.55303
G01 X-4.12795 Y-2.55239
G01 X-4.12795 Y-2.48339
G04 P0 ( dwell for no time -- G64 should not smooth over this point )
G00 Z0.08000 ( retract )

G00 X-4.12796 Y-2.72021 ( rapid move to begin. )
G01 F0.50000
( Mill infeed pass 1/1 )
G01 Z-0.04000
G04 P0 ( dwell for no time -- G64 should not smooth over this point )
G01 F1.00000
G01 X-4.12796 Y-2.72021
G01 X-4.12796 Y-2.71966
G01 X-4.27637 Y-2.64545
G01 X-4.28061 Y-2.64647
G01 X-4.28494 Y-2.64719
G01 X-4.29501 Y-2.64819
G01 X-4.29940 Y-2.64840
G01 X-4.30459 Y-2.64823
G01 X-4.31386 Y-2.64732
G01 X-4.31782 Y-2.64677
G01 X-4.32135 Y-2.64604
G01 X-4.33410 Y-2.64225
G01 X-4.33784 Y-2.64084
G01 X-4.34148 Y-2.63917
G01 X-4.35040 Y-2.63442
G01 X-4.35384 Y-2.63237
G01 X-4.35776 Y-2.62961
G01 X-4.36367 Y-2.62480
G01 X-4.63633 Y-2.62480
G01 X-4.64224 Y-2.62961
G01 X-4.64616 Y-2.63237
G01 X-4.64960 Y-2.63442
G01 X-4.65852 Y-2.63917
G01 X-4.66216 Y-2.64084
G01 X-4.66589 Y-2.64225
G01 X-4.67865 Y-2.64604
G01 X-4.68218 Y-2.64677
G01 X-4.68614 Y-2.64732
G01 X-4.69581 Y-2.64825
G01 X-4.70100 Y-2.64840
G01 X-4.70499 Y-2.64819
G01 X-4.71545 Y-2.64714
G01 X-4.71978 Y-2.64639
G01 X-4.72405 Y-2.64533
G01 X-4.73410 Y-2.64225
G01 X-4.73967 Y-2.64004
G01 X-4.75075 Y-2.63422
G01 X-4.75648 Y-2.63056
G01 X-4.76621 Y-2.62270
G01 X-4.77083 Y-2.61829
G01 X-4.77322 Y-2.61560
G01 X-4.77937 Y-2.60807
G01 X-4.78148 Y-2.60517
G01 X-4.78342 Y-2.60214
G01 X-4.78899 Y-2.59183
G01 X-4.79158 Y-2.58598
G01 X-4.79544 Y-2.57367
G01 X-4.79631 Y-2.57018
G01 X-4.79697 Y-2.56664
G01 X-4.79823 Y-2.55459
G01 X-4.79836 Y-2.54780
G01 X-4.79708 Y-2.53415
G01 X-4.79639 Y-2.53021
G01 X-4.79533 Y-2.52595
G01 X-4.79251 Y-2.51665
G01 X-4.79068 Y-2.51179
G01 X-4.78881 Y-2.50781
G01 X-4.78363 Y-2.49821
G01 X-4.78126 Y-2.49450
G01 X-4.77837 Y-2.49067
G01 X-4.77191 Y-2.48289
G01 X-4.76741 Y-2.47835
G01 X-4.75870 Y-2.47113
G01 X-4.75484 Y-2.46829
G01 X-4.75075 Y-2.46577
G01 X-4.74076 Y-2.46048
G01 X-4.73448 Y-2.45788
G01 X-4.72444 Y-2.45478
G01 X-4.71978 Y-2.45361
G01 X-4.71466 Y-2.45276
G01 X-4.70340 Y-2.45169
G01 X-4.69700 Y-2.45167
G01 X-4.68415 Y-2.45292
G01 X-4.68021 Y-2.45361
G01 X-4.67595 Y-2.45467
G01 X-4.66514 Y-2.45801
G01 X-4.66142 Y-2.45947
G01 X-4.65781 Y-2.46119
G01 X-4.64925 Y-2.46577
G01 X-4.64583 Y-2.46785
G01 X-4.64192 Y-2.47063
G01 X-4.63633 Y-2.47519
G01 X-4.36367 Y-2.47519
G01 X-4.35744 Y-2.47015
G01 X-4.35282 Y-2.46699
G01 X-4.34219 Y-2.46119
G01 X-4.33747 Y-2.45901
G01 X-4.33258 Y-2.45725
G01 X-4.32096 Y-2.45386
G01 X-4.31545 Y-2.45286
G01 X-4.30748 Y-2.45205
G01 X-4.20592 Y-2.35049
G01 X-4.20319 Y-2.34796
G01 X-4.19926 Y-2.34471
G01 X-4.19542 Y-2.34184
G01 X-4.19100 Y-2.33910
G01 X-4.18477 Y-2.33584
G01 X-4.17961 Y-2.33368
G01 X-4.17290 Y-2.33156
G01 X-4.16785 Y-2.33034
G01 X-4.16311 Y-2.32961
G01 X-4.15598 Y-2.32900
G01 X-3.79609 Y-2.32895
G01 X-3.79195 Y-2.32912
G01 X-3.78649 Y-2.32965
G01 X-3.78294 Y-2.33019
G01 X-3.77903 Y-2.33103
G01 X-3.77001 Y-2.33381
G01 X-3.76632 Y-2.33533
G01 X-3.76273 Y-2.33710
G01 X-3.75796 Y-2.33970
G01 X-3.75425 Y-2.34207
G01 X-3.75105 Y-2.34446
G01 X-3.74619 Y-2.34850
G01 X-3.64252 Y-2.45205
G01 X-3.63455 Y-2.45286
G01 X-3.62904 Y-2.45386
G01 X-3.61742 Y-2.45725
G01 X-3.61253 Y-2.45901
G01 X-3.60781 Y-2.46119
G01 X-3.59718 Y-2.46699
G01 X-3.59256 Y-2.47015
G01 X-3.58633 Y-2.47519
G01 X-3.31367 Y-2.47519
G01 X-3.30776 Y-2.47039
G01 X-3.30383 Y-2.46763
G01 X-3.30005 Y-2.46539
G01 X-3.29040 Y-2.46030
G01 X-3.28636 Y-2.45857
G01 X-3.28220 Y-2.45713
G01 X-3.27251 Y-2.45424
G01 X-3.26664 Y-2.45303
G01 X-3.25539 Y-2.45184
G01 X-3.25060 Y-2.45160
G01 X-3.24541 Y-2.45177
G01 X-3.23574 Y-2.45272
G01 X-3.23139 Y-2.45337
G01 X-3.22672 Y-2.45445
G01 X-3.21665 Y-2.45749
G01 X-3.21179 Y-2.45932
G01 X-3.20746 Y-2.46138
G01 X-3.19960 Y-2.46558
G01 X-3.19650 Y-2.46741
G01 X-3.19192 Y-2.47063
G01 X-3.18440 Y-2.47678
G01 X-3.18084 Y-2.48000
G01 X-3.17756 Y-2.48349
G01 X-3.17088 Y-2.49161
G01 X-3.16807 Y-2.49550
G01 X-3.16558 Y-2.49960
G01 X-3.16065 Y-2.50888
G01 X-3.15871 Y-2.51327
G01 X-3.15713 Y-2.51780
G01 X-3.15445 Y-2.52672
G01 X-3.15323 Y-2.53218
G01 X-3.15272 Y-2.53574
G01 X-3.15184 Y-2.54461
G01 X-3.15160 Y-2.54940
G01 X-3.15177 Y-2.55459
G01 X-3.15281 Y-2.56505
G01 X-3.15361 Y-2.56978
G01 X-3.15478 Y-2.57444
G01 X-3.15762 Y-2.58372
G01 X-3.15948 Y-2.58858
G01 X-3.16119 Y-2.59219
G01 X-3.16520 Y-2.59970
G01 X-3.16785 Y-2.60417
G01 X-3.17088 Y-2.60839
G01 X-3.17756 Y-2.61651
G01 X-3.18056 Y-2.61972
G01 X-3.18410 Y-2.62296
G01 X-3.19192 Y-2.62937
G01 X-3.19616 Y-2.63237
G01 X-3.20030 Y-2.63480
G01 X-3.21069 Y-2.64020
G01 X-3.21590 Y-2.64225
G01 X-3.22595 Y-2.64533
G01 X-3.23021 Y-2.64639
G01 X-3.23495 Y-2.64719
G01 X-3.24541 Y-2.64823
G01 X-3.25060 Y-2.64840
G01 X-3.25539 Y-2.64816
G01 X-3.26664 Y-2.64696
G01 X-3.27251 Y-2.64575
G01 X-3.28220 Y-2.64287
G01 X-3.28636 Y-2.64143
G01 X-3.29040 Y-2.63970
G01 X-3.30005 Y-2.63461
G01 X-3.30383 Y-2.63237
G01 X-3.30776 Y-2.62961
G01 X-3.31367 Y-2.62480
G01 X-3.58633 Y-2.62480
G01 X-3.59161 Y-2.62912
G01 X-3.59516 Y-2.63171
G01 X-3.60066 Y-2.63499
G01 X-3.60133 Y-2.63490
G01 X-3.60066 Y-2.63499
G01 X-3.54207 Y-2.69359
G01 X-3.21030 Y-2.69360
G01 X-3.20616 Y-2.69377
G01 X-3.19991 Y-2.69441
G01 X-3.19636 Y-2.69499
G01 X-3.19247 Y-2.69589
G01 X-3.18423 Y-2.69847
G01 X-3.18089 Y-2.69982
G01 X-3.17765 Y-2.70137
G01 X-3.17286 Y-2.70395
G01 X-3.16946 Y-2.70605
G01 X-3.16620 Y-2.70837
G01 X-3.16197 Y-2.71180
G01 X-3.15829 Y-2.71514
G01 X-3.11514 Y-2.75829
G01 X-3.11261 Y-2.76102
G01 X-3.10936 Y-2.76494
G01 X-3.10627 Y-2.76912
G01 X-3.10356 Y-2.77356
G01 X-3.10032 Y-2.77980
G01 X-3.09806 Y-2.78536
G01 X-3.09599 Y-2.79208
G01 X-3.09484 Y-2.79715
G01 X-3.09388 Y-2.80492
G01 X-3.09360 Y-2.80988
G01 X-3.09361 Y-3.21886
G01 X-3.09380 Y-3.22259
G01 X-3.09435 Y-3.22802
G01 X-3.09559 Y-3.23470
G01 X-3.09833 Y-3.24373
G01 X-3.09982 Y-3.24744
G01 X-3.10137 Y-3.25068
G01 X-3.10435 Y-3.25616
G01 X-3.10718 Y-3.26052
G01 X-3.11180 Y-3.26636
G01 X-3.11485 Y-3.26975
G01 X-3.29810 Y-3.45296
G01 X-3.30356 Y-3.45759
G01 X-3.30741 Y-3.46045
G01 X-3.31182 Y-3.46319
G01 X-3.31805 Y-3.46646
G01 X-3.32322 Y-3.46862
G01 X-3.32993 Y-3.47074
G01 X-3.33498 Y-3.47196
G01 X-3.34011 Y-3.47273
G01 X-3.34560 Y-3.47324
G01 X-3.34933 Y-3.47335
G01 X-3.82157 Y-3.47335
G01 X-3.82653 Y-3.47315
G01 X-3.83434 Y-3.47225
G01 X-3.83943 Y-3.47116
G01 X-3.84579 Y-3.46927
G01 X-3.84992 Y-3.46775
G01 X-3.85427 Y-3.46576
G01 X-3.85976 Y-3.46280
G01 X-3.86414 Y-3.46000
G01 X-3.86999 Y-3.45541
G01 X-3.87370 Y-3.45210
G01 X-3.90330 Y-3.42250
G01 X-3.90581 Y-3.41975
G01 X-3.90929 Y-3.41551
G01 X-3.91165 Y-3.41229
G01 X-3.91359 Y-3.40926
G01 X-3.91783 Y-3.40128
G01 X-3.92035 Y-3.39497
G01 X-3.92274 Y-3.38668
G01 X-3.92607 Y-3.38400
G01 X-3.92930 Y-3.38099
G01 X-3.93229 Y-3.37774
G01 X-3.93483 Y-3.37455
G01 X-3.96517 Y-3.37455
G01 X-3.96931 Y-3.37954
G01 X-3.97423 Y-3.38426
G01 X-3.97933 Y-3.38816
G01 X-3.98518 Y-3.39168
G01 X-3.99140 Y-3.39449
G01 X-3.99751 Y-3.39646
G01 X-4.00380 Y-3.39777
G01 X-4.01019 Y-3.39838
G01 X-4.08740 Y-3.39843
G01 X-4.09181 Y-3.39826
G01 X-4.09541 Y-3.39788
G01 X-4.09897 Y-3.39728
G01 X-4.10557 Y-3.39556
G01 X-4.10935 Y-3.39419
G01 X-4.11302 Y-3.39258
G01 X-4.11689 Y-3.39054
G01 X-4.11684 Y-3.39010
G01 X-4.11689 Y-3.39054
G01 X-4.11740 Y-3.39071
G01 X-4.12942 Y-3.39423
G01 X-4.13532 Y-3.39527
G01 X-4.14683 Y-3.39637
G01 X-4.15291 Y-3.39893
G01 X-4.16122 Y-3.40145
G01 X-4.16710 Y-3.40262
G01 X-4.17460 Y-3.40340
G01 X-4.17874 Y-3.40354
G01 X-4.43484 Y-3.40354
G01 X-4.44138 Y-3.40702
G01 X-4.44538 Y-3.40884
G01 X-4.44951 Y-3.41035
G01 X-4.45736 Y-3.41273
G01 X-4.46125 Y-3.41365
G01 X-4.46559 Y-3.41436
G01 X-4.47338 Y-3.41514
G01 X-4.47793 Y-3.41535
G01 X-4.52290 Y-3.41534
G01 X-4.52703 Y-3.41511
G01 X-4.53599 Y-3.41414
G01 X-4.54264 Y-3.41273
G01 X-4.55011 Y-3.41048
G01 X-4.55350 Y-3.40928
G01 X-4.55933 Y-3.40666
G01 X-4.56585 Y-3.40316
G01 X-4.56927 Y-3.40109
G01 X-4.57412 Y-3.39756
G01 X-4.57952 Y-3.39311
G01 X-4.58247 Y-3.39041
G01 X-4.58654 Y-3.38600
G01 X-4.59097 Y-3.38058
G01 X-4.59311 Y-3.37769
G01 X-4.59627 Y-3.37259
G01 X-4.59975 Y-3.36606
G01 X-4.60128 Y-3.36281
G01 X-4.60327 Y-3.35757
G01 X-4.60613 Y-3.34779
G01 X-4.60732 Y-3.34110
G01 X-4.60824 Y-3.33054
G01 X-4.60812 Y-3.32455
G01 X-4.60722 Y-3.31559
G01 X-4.60664 Y-3.31204
G01 X-4.60584 Y-3.30853
G01 X-4.60288 Y-3.29877
G01 X-4.60144 Y-3.29504
G01 X-4.59993 Y-3.29177
G01 X-4.59867 Y-3.28937
G01 X-4.59822 Y-3.28937
G01 X-4.59867 Y-3.28937
G01 X-4.59975 Y-3.28732
G01 X-4.60248 Y-3.28110
G01 X-4.60531 Y-3.27214
G01 X-4.60656 Y-3.26709
G01 X-4.60737 Y-3.26196
G01 X-4.60823 Y-3.25220
G01 X-4.60825 Y-3.24860
G01 X-4.60806 Y-3.24501
G01 X-4.60791 Y-3.24345
G01 X-4.60747 Y-3.24314
G01 X-4.60794 Y-3.24347
G01 X-4.61638 Y-3.24080
G01 X-4.62079 Y-3.23892
G01 X-4.62632 Y-3.23604
G01 X-4.62976 Y-3.23401
G01 X-4.63339 Y-3.23152
G01 X-4.63826 Y-3.22761
G01 X-4.64135 Y-3.22485
G01 X-4.82815 Y-3.03806
G01 X-4.83146 Y-3.03435
G01 X-4.83605 Y-3.02850
G01 X-4.83865 Y-3.02447
G01 X-4.84181 Y-3.01863
G01 X-4.84334 Y-3.01538
G01 X-4.84467 Y-3.01204
G01 X-4.84721 Y-3.00379
G01 X-4.84848 Y-2.99752
G01 X-4.84926 Y-2.99006
G01 X-4.84940 Y-2.98593
G01 X-4.84937 Y-2.91200
G01 X-4.84878 Y-2.90486
G01 X-4.84816 Y-2.90051
G01 X-4.84711 Y-2.89583
G01 X-4.84544 Y-2.89023
G01 X-4.84410 Y-2.88647
G01 X-4.84234 Y-2.88244
G01 X-4.83924 Y-2.87657
G01 X-4.83717 Y-2.87315
G01 X-4.83364 Y-2.86830
G01 X-4.83039 Y-2.86438
G01 X-4.82786 Y-2.86165
G01 X-4.70061 Y-2.73447
G01 X-4.69545 Y-2.73012
G01 X-4.69193 Y-2.72748
G01 X-4.68788 Y-2.72491
G01 X-4.68275 Y-2.72213
G01 X-4.67914 Y-2.72042
G01 X-4.67504 Y-2.71882
G01 X-4.66909 Y-2.71697
G01 X-4.66521 Y-2.71599
G01 X-4.65890 Y-2.71498
G01 X-4.65341 Y-2.71447
G01 X-4.64969 Y-2.71435
G01 X-4.15647 Y-2.71435
G01 X-4.15275 Y-2.71450
G01 X-4.14728 Y-2.71502
G01 X-4.14097 Y-2.71608
G01 X-4.13711 Y-2.71708
G01 X-4.13116 Y-2.71895
G01 X-4.12797 Y-2.72019
G01 X-4.12756 Y-2.72085
G04 P0 ( dwell for no time -- G64 should not smooth over this point )
G00 Z0.08000 ( retract )

G00 X-4.42243 Y-2.92901 ( rapid move to begin. )
G01 F0.50000
( Mill infeed pass 1/1 )
G01 Z-0.04000
G04 P0 ( dwell for no time -- G64 should not smooth over this point )
G01 F1.00000
G01 X-4.42243 Y-2.92901
G01 X-4.42206 Y-2.92909
G01 X-4.39812 Y-2.95303
G01 X-4.39772 Y-2.95400
G01 X-4.39835 Y-2.95247
G01 X-4.39839 Y-2.94860
G01 X-4.39816 Y-2.94461
G01 X-4.39690 Y-2.93297
G01 X-4.39604 Y-2.92865
G01 X-4.39499 Y-2.92481
G01 X-4.41222 Y-2.92481
G01 X-4.41608 Y-2.92681
G01 X-4.42011 Y-2.92858
G01 X-4.42167 Y-2.92917
G01 X-4.42277 Y-2.92895
G04 P0 ( dwell for no time -- G64 should not smooth over this point )
G00 Z0.08000 ( retract )

G00 X-4.34118 Y-3.03887 ( rapid move to begin. )
G01 F0.50000
( Mill infeed pass 1/1 )
G01 Z-0.04000
G04 P0 ( dwell for no time -- G64 should not smooth over this point )
G01 F1.00000
G01 X-4.34118 Y-3.03887
G01 X-4.34076 Y-3.03952
G01 X-4.33561 Y-3.04172
G01 X-4.32251 Y-3.04576
G01 X-4.31585 Y-3.04708
G01 X-4.30539 Y-3.04816
G01 X-4.30140 Y-3.04839
G01 X-4.29740 Y-3.04835
G01 X-4.28614 Y-3.04732
G01 X-4.28021 Y-3.04639
G01 X-4.27485 Y-3.04501
G01 X-4.11238 Y-3.20747
G01 X-4.11168 Y-3.20761
G01 X-4.11290 Y-3.20736
G01 X-4.11689 Y-3.20946
G01 X-4.11684 Y-3.20990
G01 X-4.11689 Y-3.20946
G01 X-4.11854 Y-3.20893
G01 X-4.12710 Y-3.20636
G01 X-4.13216 Y-3.20521
G01 X-4.13612 Y-3.20463
G01 X-4.14501 Y-3.20375
G01 X-4.14860 Y-3.20356
G01 X-4.15220 Y-3.20358
G01 X-4.16348 Y-3.20459
G01 X-4.16901 Y-3.20544
G01 X-4.17406 Y-3.20669
G01 X-4.18524 Y-3.21022
G01 X-4.19109 Y-3.21281
G01 X-4.19932 Y-3.21720
G01 X-4.20242 Y-3.21903
G01 X-4.20731 Y-3.22250
G01 X-4.21573 Y-3.22946
G01 X-4.22054 Y-3.23427
G01 X-4.22775 Y-3.24301
G01 X-4.23118 Y-3.24792
G01 X-4.23444 Y-3.25374
G01 X-4.34117 Y-3.25383
G01 X-4.34172 Y-3.25433
G01 X-4.34128 Y-3.25393
G01 X-4.34085 Y-3.24922
G01 X-4.34073 Y-3.24550
G01 X-4.34076 Y-3.03952
G04 P0 ( dwell for no time -- G64 should not smooth over this point )
G00 Z0.08000 ( retract )

G00 X-4.48944 Y-3.08505 ( rapid move to begin. )
G01 F0.50000
( Mill infeed pass 1/1 )
G01 Z-0.04000
G04 P0 ( dwell for no time -- G64 should not smooth over this point )
G01 F1.00000
G01 X-4.48944 Y-3.08505
G01 X-4.48984 Y-3.08465
G01 X-4.52248 Y-3.08465
G01 X-4.52662 Y-3.08485
G01 X-4.53441 Y-3.08564
G01 X-4.54109 Y-3.08687
G01 X-4.55049 Y-3.08965
G01 X-4.55572 Y-3.09163
G01 X-4.56107 Y-3.09427
G01 X-4.63329 Y-3.02205
G01 X-4.63385 Y-3.02205
G01 X-4.63304 Y-3.02205
G01 X-4.62916 Y-3.01829
G01 X-4.62678 Y-3.01560
G01 X-4.62015 Y-3.00744
G01 X-4.61637 Y-3.00179
G01 X-4.61101 Y-2.99183
G01 X-4.60947 Y-2.98858
G01 X-4.60801 Y-2.98486
G01 X-4.60445 Y-2.97328
G01 X-4.60310 Y-2.96703
G01 X-4.60227 Y-2.95976
G01 X-4.48984 Y-3.07218
G01 X-4.48984 Y-3.08465

G00 Z1.00000 (Retract to tool change height)
T2
M5      (Spindle stop.)
G04 P1.00000 (Wait for spindle to stop)
(MSG, Change tool bit to mill diameter 0.00787in)
M6      (Tool change.)
M0      (Temporary machine stop.)
M3 ( Spindle on clockwise. )
G04 P1.00000 (Wait for spindle to get up to speed)
G04 P0 ( dwell for no time -- G64 should not smooth over this point )
G00 Z0.08000 ( retract )

G00 X-3.28080 Y-2.58040 ( rapid move to begin. )
G01 F0.50000
( Mill infeed pass 1/1 )
G01 Z-0.04000
G04 P0 ( dwell for no time -- G64 should not smooth over this point )
G01 F1.00000
G01 X-3.28080 Y-2.58040
G01 X-3.28599 Y-2.57405
G01 X-3.28834 Y-2.56969
G01 X-3.31039 Y-2.56969
G04 P0 ( dwell for no time -- G64 should not smooth over this point )
G00 Z0.08000 ( retract )

G00 X-3.28080 Y-2.51960 ( rapid move to begin. )
G01 F0.50000
( Mill infeed pass 1/1 )
G01 Z-0.04000
G04 P0 ( dwell for no time -- G64 should not smooth over this point )
G01 F1.00000
G01 X-3.28080 Y-2.51960
G01 X-3.28599 Y-2.52595
G01 X-3.28834 Y-2.53031
G01 X-3.31040 Y-2.53031
G04 P0 ( dwell for no time -- G64 should not smooth over this point )
G00 Z0.08000 ( retract )

G00 X-3.54595 Y-2.74871 ( rapid move to begin. )
G01 F0.50000
( Mill infeed pass 1/1 )
G01 Z-0.04000
G04 P0 ( dwell for no time -- G64 should not smooth over this point )
G01 F1.00000
G01 X-3.54595 Y-2.74871
G01 X-3.56490 Y-2.74871
G01 X-3.70136 Y-2.61226
G01 X-3.70430 Y-2.60984
G01 X-3.70803 Y-2.60791
G01 X-3.71131 Y-2.60694
G01 X-3.71471 Y-2.60658
G01 X-3.74216 Y-2.60656
G01 X-3.74216 Y-2.55710
G01 X-3.74235 Y-2.55588
G01 X-3.74269 Y-2.55513
G01 X-3.74317 Y-2.55446
G01 X-3.74413 Y-2.55369
G01 X-3.74488 Y-2.55335
G01 X-3.74610 Y-2.55316
G01 X-3.86035 Y-2.55316
G01 X-3.91935 Y-2.49416
G01 X-3.92230 Y-2.49174
G01 X-3.92566 Y-2.48994
G01 X-3.92716 Y-2.48947
G01 X-3.92716 Y-2.43900
G01 X-3.92735 Y-2.43778
G01 X-3.92769 Y-2.43703
G01 X-3.92817 Y-2.43636
G01 X-3.92913 Y-2.43559
G01 X-3.92988 Y-2.43526
G01 X-3.93110 Y-2.43506
G01 X-4.06890 Y-2.43506
G01 X-4.07050 Y-2.43540
G01 X-4.07121 Y-2.43581
G01 X-4.07209 Y-2.43669
G01 X-4.07264 Y-2.43778
G01 X-4.07284 Y-2.43900
G01 X-4.07284 Y-2.57680
G01 X-4.07250 Y-2.57840
G01 X-4.07209 Y-2.57911
G01 X-4.07121 Y-2.57999
G01 X-4.07012 Y-2.58054
G01 X-4.06890 Y-2.58074
G01 X-3.93110 Y-2.58074
G01 X-3.92988 Y-2.58054
G01 X-3.92878 Y-2.57999
G01 X-3.92791 Y-2.57911
G01 X-3.92735 Y-2.57802
G01 X-3.92718 Y-2.57721
G01 X-3.92716 Y-2.54133
G01 X-3.88784 Y-2.58065
G01 X-3.88781 Y-2.69531
G01 X-3.88764 Y-2.69612
G01 X-3.88708 Y-2.69721
G01 X-3.88621 Y-2.69808
G01 X-3.88550 Y-2.69850
G01 X-3.88431 Y-2.69882
G01 X-3.88039 Y-2.69884
G01 X-3.92716 Y-2.74561
G01 X-3.92716 Y-2.67520
G01 X-3.92735 Y-2.67398
G01 X-3.92769 Y-2.67323
G01 X-3.92847 Y-2.67227
G01 X-3.92913 Y-2.67179
G01 X-3.92988 Y-2.67145
G01 X-3.93110 Y-2.67126
G01 X-4.01345 Y-2.67126
G01 X-4.14529 Y-2.60534
G01 X-4.16062 Y-2.43811
G01 X-4.14545 Y-2.42294
G01 X-3.80455 Y-2.42294
G01 X-3.69095 Y-2.53654
G01 X-3.69245 Y-2.54155
G01 X-3.69327 Y-2.54961
G01 X-3.69245 Y-2.55844
G01 X-3.68999 Y-2.56657
G01 X-3.68619 Y-2.57372
G01 X-3.68032 Y-2.58087
G01 X-3.67405 Y-2.58599
G01 X-3.66620 Y-2.59012
G01 X-3.65844 Y-2.59246
G01 X-3.65038 Y-2.59327
G01 X-3.64194 Y-2.59251
G01 X-3.63432 Y-2.59028
G01 X-3.58961 Y-2.56969
G01 X-3.61165 Y-2.56969
G01 X-3.61401 Y-2.57405
G01 X-3.61920 Y-2.58040
G04 P0 ( dwell for no time -- G64 should not smooth over this point )
G00 Z0.08000 ( retract )

G00 X-3.67918 Y-2.49333 ( rapid move to begin. )
G01 F0.50000
( Mill infeed pass 1/1 )
G01 Z-0.04000
G04 P0 ( dwell for no time -- G64 should not smooth over this point )
G01 F1.00000
G01 X-3.67918 Y-2.49333
G01 X-3.66346 Y-2.50905
G01 X-3.65844 Y-2.50754
G01 X-3.65044 Y-2.50674
G04 P0 ( dwell for no time -- G64 should not smooth over this point )
G00 Z0.08000 ( retract )

G00 X-3.61921 Y-2.51959 ( rapid move to begin. )
G01 F0.50000
( Mill infeed pass 1/1 )
G01 Z-0.04000
G04 P0 ( dwell for no time -- G64 should not smooth over this point )
G01 F1.00000
G01 X-3.61921 Y-2.51959
G01 X-3.61401 Y-2.52595
G01 X-3.61165 Y-2.53031
G01 X-3.58960 Y-2.53031
G04 P0 ( dwell for no time -- G64 should not smooth over this point )
G00 Z0.08000 ( retract )

G00 X-3.74261 Y-2.69671 ( rapid move to begin. )
G01 F0.50000
( Mill infeed pass 1/1 )
G01 Z-0.04000
G04 P0 ( dwell for no time -- G64 should not smooth over this point )
G01 F1.00000
G01 X-3.74261 Y-2.69671
G01 X-3.74225 Y-2.69572
G01 X-3.74216 Y-2.69490
G01 X-3.74216 Y-2.64544
G01 X-3.72315 Y-2.64544
G01 X-3.67113 Y-2.69746
G01 X-3.63151 Y-2.91102
G01 X-3.57412 Y-2.78749
G01 X-3.63151 Y-2.91102
G01 X-3.62595 Y-2.91401
G01 X-3.61939 Y-2.91939
G01 X-3.61401 Y-2.92595
G01 X-3.61152 Y-2.93056
G01 X-3.60648 Y-2.93056
G01 X-3.52779 Y-2.85187
G01 X-3.52793 Y-2.84961
G01 X-3.52739 Y-2.84424
G01 X-3.52570 Y-2.83870
G01 X-3.52298 Y-2.83359
G01 X-3.51930 Y-2.82912
G01 X-3.51483 Y-2.82545
G01 X-3.50972 Y-2.82272
G01 X-3.50419 Y-2.82104
G01 X-3.49804 Y-2.82049
G01 X-3.49266 Y-2.82104
G01 X-3.48749 Y-2.82259
G01 X-3.48235 Y-2.82525
G01 X-3.47755 Y-2.82912
G01 X-3.47410 Y-2.83329
G01 X-3.47114 Y-2.83870
G01 X-3.46947 Y-2.84424
G01 X-3.46890 Y-2.85000
G01 X-3.46947 Y-2.85576
G01 X-3.47114 Y-2.86130
G01 X-3.47368 Y-2.86607
G01 X-3.47783 Y-2.87114
G01 X-3.48058 Y-2.87339
G01 X-3.51070 Y-2.88976
G01 X-3.50030 Y-2.87936
G01 X-3.49804 Y-2.87951
G01 X-3.49264 Y-2.87895
G01 X-3.49804 Y-2.87951
G01 X-3.50030 Y-2.87936
G01 X-3.51070 Y-2.88976
G01 X-3.37279 Y-2.87918
G01 X-3.37177 Y-2.87852
G01 X-3.37122 Y-2.87790
G01 X-3.37056 Y-2.87641
G01 X-3.37047 Y-2.86944
G01 X-3.35805 Y-2.86944
G01 X-3.29095 Y-2.93654
G01 X-3.29245 Y-2.94156
G01 X-3.29326 Y-2.94956
G04 P0 ( dwell for no time -- G64 should not smooth over this point )
G00 Z0.08000 ( retract )

G00 X-3.28028 Y-2.98090 ( rapid move to begin. )
G01 F0.50000
( Mill infeed pass 1/1 )
G01 Z-0.04000
G04 P0 ( dwell for no time -- G64 should not smooth over this point )
G01 F1.00000
G01 X-3.28028 Y-2.98090
G01 X-3.27405 Y-2.98599
G01 X-3.26944 Y-2.98848
G01 X-3.26944 Y-3.17216
G01 X-3.32784 Y-3.23056
G01 X-3.35372 Y-3.23056
G01 X-3.35608 Y-3.22773
G01 X-3.36054 Y-3.22404
G01 X-3.36594 Y-3.22107
G01 X-3.37220 Y-3.21911
G01 X-3.37796 Y-3.21852
G01 X-3.42204 Y-3.21852
G01 X-3.42780 Y-3.21911
G01 X-3.43334 Y-3.22077
G01 X-3.43882 Y-3.22361
G01 X-3.44392 Y-3.22773
G01 X-3.44784 Y-3.23250
G01 X-3.45075 Y-3.23795
G01 X-3.45248 Y-3.24361
G01 X-3.50008 Y-3.30905
G01 X-3.44607 Y-3.30905
G01 X-3.44392 Y-3.30647
G01 X-3.43946 Y-3.30278
G01 X-3.43405 Y-3.29981
G01 X-3.42780 Y-3.29785
G01 X-3.42204 Y-3.29726
G01 X-3.37835 Y-3.29724
G01 X-3.37220 Y-3.29785
G01 X-3.36666 Y-3.29951
G01 X-3.36085 Y-3.30255
G01 X-3.35582 Y-3.30675
G01 X-3.35216 Y-3.31124
G01 X-3.34941 Y-3.31634
G01 X-3.34740 Y-3.32298
G01 X-3.34685 Y-3.32874
G01 X-3.34740 Y-3.33450
G01 X-3.34925 Y-3.34079
G01 X-3.35216 Y-3.34624
G01 X-3.35582 Y-3.35072
G01 X-3.36085 Y-3.35493
G01 X-3.36666 Y-3.35797
G01 X-3.37220 Y-3.35963
G01 X-3.37796 Y-3.36022
G01 X-3.42165 Y-3.36024
G01 X-3.42780 Y-3.35963
G01 X-3.43405 Y-3.35767
G01 X-3.43946 Y-3.35470
G01 X-3.44392 Y-3.35101
G01 X-3.44607 Y-3.34843
G01 X-3.67160 Y-3.34841
G01 X-3.67469 Y-3.34813
G01 X-3.67801 Y-3.34723
G01 X-3.72277 Y-3.33089
G01 X-3.72703 Y-3.33437
G01 X-3.73418 Y-3.33819
G01 X-3.74193 Y-3.34054
G01 X-3.75039 Y-3.34132
G01 X-3.75806 Y-3.34054
G01 X-3.76546 Y-3.33832
G01 X-3.77297 Y-3.33437
G01 X-3.77949 Y-3.32894
G01 X-3.78437 Y-3.32297
G01 X-3.78819 Y-3.31582
G01 X-3.79054 Y-3.30806
G01 X-3.79132 Y-3.29961
G01 X-3.79054 Y-3.29194
G01 X-3.78832 Y-3.28454
G01 X-3.78437 Y-3.27703
G01 X-3.77923 Y-3.27077
G01 X-3.77264 Y-3.26543
G01 X-3.76546 Y-3.26168
G01 X-3.75806 Y-3.25945
G01 X-3.75039 Y-3.25868
G01 X-3.74156 Y-3.25955
G01 X-3.73418 Y-3.26181
G01 X-3.72736 Y-3.26543
G01 X-3.72105 Y-3.27051
G01 X-3.71934 Y-3.27248
G01 X-3.67280 Y-3.30722
G01 X-3.66778 Y-3.30905
G01 X-3.66243 Y-3.30905
G01 X-3.69024 Y-3.30085
G01 X-3.70924 Y-3.29392
G01 X-3.70955 Y-3.29156
G01 X-3.71168 Y-3.28454
G01 X-3.71326 Y-3.28141
G04 P0 ( dwell for no time -- G64 should not smooth over this point )
G00 Z0.08000 ( retract )

G00 X-3.50008 Y-3.30905 ( rapid move to begin. )
G01 F0.50000
( Mill infeed pass 1/1 )
G01 Z-0.04000
G04 P0 ( dwell for no time -- G64 should not smooth over this point )
G01 F1.00000
G01 X-3.50008 Y-3.30905
G01 X-3.45248 Y-3.25639
G01 X-3.45075 Y-3.26205
G01 X-3.44804 Y-3.26717
G01 X-3.44364 Y-3.27253
G01 X-3.43915 Y-3.27619
G01 X-3.43371 Y-3.27910
G01 X-3.42780 Y-3.28089
G01 X-3.42204 Y-3.28148
G01 X-3.37835 Y-3.28150
G01 X-3.37258 Y-3.28095
G01 X-3.36629 Y-3.27910
G01 X-3.36085 Y-3.27619
G01 X-3.35608 Y-3.27227
G01 X-3.35372 Y-3.26944
G01 X-3.31979 Y-3.26944
G01 X-3.31599 Y-3.26906
G01 X-3.31235 Y-3.26796
G01 X-3.30899 Y-3.26616
G01 X-3.30604 Y-3.26374
G01 X-3.23625 Y-3.19395
G01 X-3.23407 Y-3.19132
G01 X-3.23191 Y-3.18729
G01 X-3.23094 Y-3.18400
G01 X-3.23056 Y-3.18021
G01 X-3.23056 Y-2.98848
G01 X-3.22595 Y-2.98599
G01 X-3.21968 Y-2.98087
G01 X-3.21401 Y-2.97405
G01 X-3.20988 Y-2.96620
G01 X-3.20754 Y-2.95844
G01 X-3.20671 Y-2.95000
G01 X-3.20754 Y-2.94156
G01 X-3.21017 Y-2.93309
G01 X-3.21401 Y-2.92595
G01 X-3.21913 Y-2.91968
G01 X-3.22564 Y-2.91424
G01 X-3.23343 Y-2.91001
G01 X-3.24097 Y-2.90770
G01 X-3.25190 Y-2.90688
G01 X-3.25844 Y-2.90754
G01 X-3.26346 Y-2.90905
G01 X-3.33625 Y-2.83625
G01 X-3.33889 Y-2.83407
G01 X-3.34256 Y-2.83204
G01 X-3.34659 Y-2.83088
G01 X-3.35000 Y-2.83056
G01 X-3.37047 Y-2.83056
G01 X-3.37047 Y-2.82441
G01 X-3.37066 Y-2.82319
G01 X-3.37148 Y-2.82178
G01 X-3.37244 Y-2.82100
G01 X-3.37319 Y-2.82066
G01 X-3.37441 Y-2.82047
G01 X-3.42559 Y-2.82047
G01 X-3.42719 Y-2.82081
G01 X-3.42852 Y-2.82178
G01 X-3.42919 Y-2.82281
G01 X-3.42953 Y-2.82441
G01 X-3.42953 Y-2.87559
G01 X-3.42923 Y-2.87709
G01 X-3.48058 Y-2.87339
G04 P0 ( dwell for no time -- G64 should not smooth over this point )
G00 Z0.08000 ( retract )

G00 X-3.61848 Y-2.97953 ( rapid move to begin. )
G01 F0.50000
( Mill infeed pass 1/1 )
G01 Z-0.04000
G04 P0 ( dwell for no time -- G64 should not smooth over this point )
G01 F1.00000
G01 X-3.61848 Y-2.97953
G01 X-3.61401 Y-2.97405
G01 X-3.61152 Y-2.96944
G01 X-3.59843 Y-2.96944
G01 X-3.59710 Y-2.96932
G01 X-3.46047 Y-3.15157
G01 X-3.44607 Y-3.15157
G01 X-3.44392 Y-3.14899
G01 X-3.44022 Y-3.14592
G01 X-3.28028 Y-2.98090
G01 X-3.35501 Y-3.15026
G01 X-3.35216 Y-3.15376
G01 X-3.34925 Y-3.15921
G01 X-3.34746 Y-3.16512
G01 X-3.34687 Y-3.17087
G01 X-3.34746 Y-3.17740
G01 X-3.34912 Y-3.18295
G01 X-3.35239 Y-3.18907
G01 X-3.35636 Y-3.19379
G01 X-3.36085 Y-3.19745
G01 X-3.36594 Y-3.20019
G01 X-3.37220 Y-3.20215
G01 X-3.37835 Y-3.20275
G01 X-3.42165 Y-3.20275
G01 X-3.42780 Y-3.20215
G01 X-3.43371 Y-3.20036
G01 X-3.43915 Y-3.19745
G01 X-3.44392 Y-3.19353
G01 X-3.44607 Y-3.19095
G01 X-4.04280 Y-3.19095
G01 X-4.04664 Y-3.19057
G01 X-4.04997 Y-3.18958
G01 X-4.05374 Y-3.18763
G01 X-4.05672 Y-3.18518
G01 X-4.26573 Y-2.97618
G01 X-4.26939 Y-2.98061
G01 X-4.27564 Y-2.98576
G01 X-4.28343 Y-2.98999
G01 X-4.28744 Y-2.99123
G01 X-4.39650 Y-3.03653
G01 X-4.39733 Y-3.03386
G01 X-4.39893 Y-3.03084
G01 X-4.40154 Y-3.02756
G01 X-4.53056 Y-2.89854
G01 X-4.53056 Y-2.87953
G01 X-4.52441 Y-2.87953
G01 X-4.52319 Y-2.87933
G01 X-4.52244 Y-2.87900
G01 X-4.52148 Y-2.87822
G01 X-4.52081 Y-2.87719
G01 X-4.52049 Y-2.87600
G01 X-4.52049 Y-2.82400
G01 X-4.52081 Y-2.82281
G01 X-4.52148 Y-2.82178
G01 X-4.52244 Y-2.82100
G01 X-4.52400 Y-2.82049
G01 X-4.57600 Y-2.82049
G01 X-4.57719 Y-2.82081
G01 X-4.57822 Y-2.82148
G01 X-4.57900 Y-2.82244
G01 X-4.57933 Y-2.82319
G01 X-4.57953 Y-2.82441
G01 X-4.57953 Y-2.83056
G01 X-4.60039 Y-2.83058
G01 X-4.60379 Y-2.83094
G01 X-4.60779 Y-2.83221
G01 X-4.61080 Y-2.83384
G01 X-4.61374 Y-2.83625
G01 X-4.68654 Y-2.90905
G01 X-4.69156 Y-2.90754
G01 X-4.69961 Y-2.90673
G01 X-4.70844 Y-2.90754
G01 X-4.71657 Y-2.91001
G01 X-4.72372 Y-2.91381
G01 X-4.73061 Y-2.91939
G01 X-4.73599 Y-2.92595
G01 X-4.73999 Y-2.93343
G01 X-4.74245 Y-2.94156
G01 X-4.74329 Y-2.95000
G01 X-4.74245 Y-2.95844
G01 X-4.73999 Y-2.96657
G01 X-4.73599 Y-2.97405
G01 X-4.73087 Y-2.98032
G01 X-4.72405 Y-2.98599
G01 X-4.71657 Y-2.98999
G01 X-4.70844 Y-2.99246
G01 X-4.70038 Y-2.99327
G01 X-4.69156 Y-2.99246
G01 X-4.68380 Y-2.99012
G01 X-4.67628 Y-2.98619
G01 X-4.67467 Y-2.98497
G04 P0 ( dwell for no time -- G64 should not smooth over this point )
G00 Z0.08000 ( retract )

G00 X-4.45974 Y-3.35405 ( rapid move to begin. )
G01 F0.50000
( Mill infeed pass 1/1 )
G01 Z-0.04000
G04 P0 ( dwell for no time -- G64 should not smooth over this point )
G01 F1.00000
G01 X-4.45974 Y-3.35405
G01 X-4.45608 Y-3.35101
G01 X-4.45393 Y-3.34843
G01 X-4.43957 Y-3.34843
G04 P0 ( dwell for no time -- G64 should not smooth over this point )
G00 Z0.08000 ( retract )

G00 X-4.39709 Y-3.25221 ( rapid move to begin. )
G01 F0.50000
( Mill infeed pass 1/1 )
G01 Z-0.04000
G04 P0 ( dwell for no time -- G64 should not smooth over this point )
G01 F1.00000
G01 X-4.39709 Y-3.25221
G01 X-4.39749 Y-3.25328
G01 X-4.39912 Y-3.25630
G01 X-4.40154 Y-3.25924
G01 X-4.40604 Y-3.26374
G01 X-4.40868 Y-3.26593
G01 X-4.41235 Y-3.26796
G01 X-4.41599 Y-3.26906
G01 X-4.41979 Y-3.26944
G01 X-4.45372 Y-3.26944
G01 X-4.45608 Y-3.27227
G01 X-4.46085 Y-3.27619
G01 X-4.46629 Y-3.27910
G01 X-4.47220 Y-3.28089
G01 X-4.47835 Y-3.28150
G01 X-4.52165 Y-3.28150
G01 X-4.52780 Y-3.28089
G01 X-4.53334 Y-3.27923
G01 X-4.53946 Y-3.27596
G01 X-4.54392 Y-3.27227
G01 X-4.54670 Y-3.26892
G01 X-4.59008 Y-3.19066
G01 X-4.55205 Y-3.24216
G01 X-4.55075 Y-3.23795
G01 X-4.54804 Y-3.23283
G01 X-4.54392 Y-3.22773
G01 X-4.53915 Y-3.22381
G01 X-4.53406 Y-3.22107
G01 X-4.52742 Y-3.21905
G01 X-4.52165 Y-3.21850
G01 X-4.47835 Y-3.21850
G01 X-4.47258 Y-3.21905
G01 X-4.46629 Y-3.22090
G01 X-4.46085 Y-3.22381
G01 X-4.45608 Y-3.22773
G01 X-4.45372 Y-3.23056
G01 X-4.43472 Y-3.23056
G01 X-4.43472 Y-3.04935
G01 X-4.56489 Y-2.91896
G01 X-4.56593 Y-2.91770
G01 X-4.56809 Y-2.91366
G01 X-4.56906 Y-2.91038
G01 X-4.56942 Y-2.90698
G01 X-4.56944 Y-2.87953
G01 X-4.57600 Y-2.87950
G01 X-4.57719 Y-2.87919
G01 X-4.57822 Y-2.87852
G01 X-4.57900 Y-2.87756
G01 X-4.57951 Y-2.87600
G01 X-4.57953 Y-2.86944
G01 X-4.59195 Y-2.86944
G01 X-4.65905 Y-2.93654
G01 X-4.65754 Y-2.94156
G01 X-4.65673 Y-2.95033
G01 X-4.53824 Y-3.14457
G01 X-4.53946 Y-3.14530
G01 X-4.54364 Y-3.14873
G01 X-4.54627 Y-3.15182
G01 X-4.58147 Y-3.15182
G01 X-4.75541 Y-2.97788
G01 X-4.75541 Y-2.92212
G01 X-4.64163 Y-2.80835
G01 X-4.16494 Y-2.80835
G01 X-4.15155 Y-2.82173
G01 X-4.26691 Y-2.91931
G01 X-4.28031 Y-2.90591
G01 X-4.28031 Y-2.85000
G01 X-4.28069 Y-2.84616
G01 X-4.28198 Y-2.84212
G01 X-4.28363 Y-2.83906
G01 X-4.28582 Y-2.83636
G01 X-4.28906 Y-2.83363
G01 X-4.29247 Y-2.83181
G01 X-4.29616 Y-2.83069
G01 X-4.30000 Y-2.83031
G01 X-4.42969 Y-2.83031
G01 X-4.43098 Y-2.82886
G01 X-4.43517 Y-2.82545
G01 X-4.44027 Y-2.82272
G01 X-4.44581 Y-2.82104
G01 X-4.45157 Y-2.82047
G01 X-4.45733 Y-2.82104
G01 X-4.46287 Y-2.82272
G01 X-4.46798 Y-2.82545
G01 X-4.47217 Y-2.82886
G01 X-4.47632 Y-2.83393
G01 X-4.47885 Y-2.83870
G01 X-4.48044 Y-2.84386
G01 X-4.48110 Y-2.85000
G01 X-4.48044 Y-2.85614
G01 X-4.47885 Y-2.86130
G01 X-4.47632 Y-2.86607
G01 X-4.47245 Y-2.87088
G01 X-4.46765 Y-2.87475
G01 X-4.46287 Y-2.87728
G01 X-4.45771 Y-2.87887
G01 X-4.45157 Y-2.87953
G01 X-4.44620 Y-2.87902
G01 X-4.39132 Y-2.86969
G01 X-4.31969 Y-2.86969
G01 X-4.31969 Y-2.91166
G01 X-4.32405 Y-2.91401
G01 X-4.33087 Y-2.91968
G01 X-4.33619 Y-2.92628
G01 X-4.33999 Y-2.93343
G01 X-4.34117 Y-2.93725
G01 X-4.41525 Y-2.86969
G01 X-4.42969 Y-2.86969
G01 X-4.43098 Y-2.87114
G01 X-4.43553 Y-2.87477
G01 X-4.34267 Y-2.95643
G01 X-4.34236 Y-2.95882
G01 X-4.33999 Y-2.96657
G01 X-4.33599 Y-2.97405
G01 X-4.33061 Y-2.98061
G01 X-4.32436 Y-2.98576
G01 X-4.32233 Y-2.98693
G01 X-4.32436 Y-2.98576
G01 X-4.33061 Y-2.98061
G01 X-4.33599 Y-2.97405
G01 X-4.33999 Y-2.96657
G01 X-4.34236 Y-2.95882
G01 X-4.34267 Y-2.95643
G01 X-4.39650 Y-3.03653
G04 P0 ( dwell for no time -- G64 should not smooth over this point )
G00 Z0.08000 ( retract )

G00 X-4.48150 Y-3.13976 ( rapid move to begin. )
G01 F0.50000
( Mill infeed pass 1/1 )
G01 Z-0.04000
G04 P0 ( dwell for no time -- G64 should not smooth over this point )
G01 F1.00000
G01 X-4.48150 Y-3.13976
G01 X-4.47796 Y-3.13978
G01 X-4.47183 Y-3.14046
G01 X-4.46629 Y-3.14216
G01 X-4.46085 Y-3.14507
G01 X-4.45608 Y-3.14899
G01 X-4.45216 Y-3.15376
G01 X-4.44925 Y-3.15921
G01 X-4.44755 Y-3.16474
G01 X-4.44685 Y-3.17126
G01 X-4.44740 Y-3.17702
G01 X-4.44941 Y-3.18366
G01 X-4.45216 Y-3.18876
G01 X-4.45608 Y-3.19353
G01 X-4.46085 Y-3.19745
G01 X-4.46629 Y-3.20036
G01 X-4.47220 Y-3.20215
G01 X-4.47835 Y-3.20275
G01 X-4.52204 Y-3.20274
G01 X-4.52780 Y-3.20215
G01 X-4.53406 Y-3.20019
G01 X-4.53946 Y-3.19722
G01 X-4.54392 Y-3.19353
G01 X-4.54627 Y-3.19070
G01 X-4.59008 Y-3.19066
G01 X-4.54670 Y-3.26892
G01 X-4.54670 Y-3.30982
G01 X-4.54392 Y-3.30647
G01 X-4.53946 Y-3.30278
G01 X-4.53406 Y-3.29981
G01 X-4.52780 Y-3.29785
G01 X-4.52165 Y-3.29724
G01 X-4.47835 Y-3.29724
G01 X-4.47220 Y-3.29785
G01 X-4.46629 Y-3.29964
G01 X-4.46085 Y-3.30255
G01 X-4.45608 Y-3.30647
G01 X-4.45393 Y-3.30905
G01 X-4.19026 Y-3.30905
G01 X-4.19060 Y-3.30768
G01 X-4.19134 Y-3.30000
G01 X-4.19060 Y-3.29232
G01 X-4.18832 Y-3.28454
G01 X-4.18749 Y-3.28282
G04 P0 ( dwell for no time -- G64 should not smooth over this point )
G00 Z0.08000 ( retract )

G00 X-4.04805 Y-3.13817 ( rapid move to begin. )
G01 F0.50000
( Mill infeed pass 1/1 )
G01 Z-0.04000
G04 P0 ( dwell for no time -- G64 should not smooth over this point )
G01 F1.00000
G01 X-4.04805 Y-3.13817
G01 X-4.03465 Y-3.15157
G01 X-4.01570 Y-3.15157
G04 P0 ( dwell for no time -- G64 should not smooth over this point )
G00 Z0.08000 ( retract )

G00 X-3.93069 Y-3.31944 ( rapid move to begin. )
G01 F0.50000
( Mill infeed pass 1/1 )
G01 Z-0.04000
G04 P0 ( dwell for no time -- G64 should not smooth over this point )
G01 F1.00000
G01 X-3.93069 Y-3.31944
G01 X-3.89134 Y-3.31944
G01 X-3.89132 Y-3.33978
G01 X-3.89119 Y-3.34041
G01 X-3.88951 Y-3.34285
G01 X-3.88740 Y-3.34331
G01 X-3.86944 Y-3.34331
G01 X-3.86944 Y-3.37037
G01 X-3.86927 Y-3.37225
G01 X-3.88951 Y-3.34285
G01 X-3.96932 Y-3.31944
G01 X-4.00866 Y-3.31944
G01 X-4.00866 Y-3.33937
G01 X-4.00880 Y-3.34039
G04 P0 ( dwell for no time -- G64 should not smooth over this point )
G00 Z0.08000 ( retract )

G00 X-4.16837 Y-3.34543 ( rapid move to begin. )
G01 F0.50000
( Mill infeed pass 1/1 )
G01 Z-0.04000
G04 P0 ( dwell for no time -- G64 should not smooth over this point )
G01 F1.00000
G01 X-4.16837 Y-3.34543
G01 X-4.16510 Y-3.34292
G01 X-4.16164 Y-3.33948
G01 X-4.15806 Y-3.34054
G01 X-4.15157 Y-3.34120
G01 X-4.09077 Y-3.34140
G01 X-4.09115 Y-3.34059
G01 X-4.09134 Y-3.33937
G01 X-4.09134 Y-3.26063
G01 X-4.09096 Y-3.25896
G01 X-4.13124 Y-3.26336
G01 X-4.12703 Y-3.26563
G01 X-4.12106 Y-3.27051
G01 X-4.11563 Y-3.27703
G01 X-4.11168 Y-3.28454
G01 X-4.10945 Y-3.29194
G01 X-4.10866 Y-3.30000
G01 X-4.10945 Y-3.30806
G01 X-4.11168 Y-3.31546
G01 X-4.11563 Y-3.32297
G01 X-4.12106 Y-3.32949
G01 X-4.12703 Y-3.33437
G01 X-4.13123 Y-3.33664
G01 X-4.12703 Y-3.33437
G01 X-4.12106 Y-3.32949
G01 X-4.11563 Y-3.32297
G01 X-4.11168 Y-3.31546
G01 X-4.10945 Y-3.30806
G01 X-4.10866 Y-3.30000
G01 X-4.10945 Y-3.29194
G01 X-4.11168 Y-3.28454
G01 X-4.11563 Y-3.27703
G01 X-4.12106 Y-3.27051
G01 X-4.12703 Y-3.26563
G01 X-4.13124 Y-3.26336
G01 X-4.08712 Y-3.25669
G01 X-4.01219 Y-3.25671
G01 X-4.01100 Y-3.25703
G01 X-4.00967 Y-3.25800
G01 X-4.00900 Y-3.25903
G01 X-4.00868 Y-3.26022
G01 X-4.00866 Y-3.28056
G01 X-3.89134 Y-3.28056
G01 X-3.89132 Y-3.26022
G01 X-3.89100 Y-3.25903
G01 X-3.89033 Y-3.25800
G01 X-3.88971 Y-3.25744
G01 X-3.88862 Y-3.25689
G01 X-3.88740 Y-3.25669
G01 X-3.81260 Y-3.25669
G01 X-3.81100 Y-3.25703
G01 X-3.80967 Y-3.25800
G01 X-3.80900 Y-3.25903
G01 X-3.80866 Y-3.26063
G01 X-3.80875 Y-3.34019
G01 X-3.80919 Y-3.34134
G01 X-3.80996 Y-3.34230
G01 X-3.81100 Y-3.34297
G01 X-3.81219 Y-3.34328
G01 X-3.83056 Y-3.34331
G01 X-3.83056 Y-3.36232
G01 X-3.81352 Y-3.37936
G01 X-3.35738 Y-3.37936
G01 X-3.18759 Y-3.20957
G01 X-3.18759 Y-2.81876
G01 X-3.21876 Y-2.78759
G01 X-3.57412 Y-2.78749
G01 X-3.71070 Y-2.93056
G01 X-3.68848 Y-2.93056
G01 X-3.68599 Y-2.92595
G01 X-3.68090 Y-2.91972
G04 P0 ( dwell for no time -- G64 should not smooth over this point )
G00 Z0.08000 ( retract )

G00 X-3.68091 Y-2.98028 ( rapid move to begin. )
G01 F0.50000
( Mill infeed pass 1/1 )
G01 Z-0.04000
G04 P0 ( dwell for no time -- G64 should not smooth over this point )
G01 F1.00000
G01 X-3.68091 Y-2.98028
G01 X-3.68599 Y-2.97405
G01 X-3.68848 Y-2.96944
G01 X-3.71069 Y-2.96944
G04 P0 ( dwell for no time -- G64 should not smooth over this point )
G00 Z0.08000 ( retract )

G00 X-3.96880 Y-2.93056 ( rapid move to begin. )
G01 F0.50000
( Mill infeed pass 1/1 )
G01 Z-0.04000
G04 P0 ( dwell for no time -- G64 should not smooth over this point )
G01 F1.00000
G01 X-3.96880 Y-2.93056
G01 X-3.98775 Y-2.93056
G01 X-4.14314 Y-2.77516
G01 X-4.14585 Y-2.77292
G01 X-4.28788 Y-2.59136
G01 X-4.28308 Y-2.58983
G01 X-4.27628 Y-2.58619
G01 X-4.27445 Y-2.58479
G01 X-4.07284 Y-2.68559
G01 X-4.07284 Y-2.81300
G01 X-4.07250 Y-2.81460
G01 X-4.07209 Y-2.81531
G01 X-4.07121 Y-2.81618
G01 X-4.07012 Y-2.81674
G01 X-4.06890 Y-2.81694
G01 X-3.97722 Y-2.81694
G04 P0 ( dwell for no time -- G64 should not smooth over this point )
G00 Z0.08000 ( retract )

G00 X-4.07284 Y-2.56056 ( rapid move to begin. )
G01 F0.50000
( Mill infeed pass 1/1 )
G01 Z-0.04000
G04 P0 ( dwell for no time -- G64 should not smooth over this point )
G01 F1.00000
G01 X-4.07284 Y-2.56056
G01 X-4.20222 Y-2.57688
G01 X-4.25673 Y-2.54962
G01 X-4.25754 Y-2.54155
G01 X-4.25905 Y-2.53654
G01 X-4.21579 Y-2.49328
G04 P0 ( dwell for no time -- G64 should not smooth over this point )
G00 Z0.08000 ( retract )

G00 X-4.27168 Y-2.49420 ( rapid move to begin. )
G01 F0.50000
( Mill infeed pass 1/1 )
G01 Z-0.04000
G04 P0 ( dwell for no time -- G64 should not smooth over this point )
G01 F1.00000
G01 X-4.27168 Y-2.49420
G01 X-4.28653 Y-2.50905
G01 X-4.29155 Y-2.50754
G01 X-4.29926 Y-2.50677
G04 P0 ( dwell for no time -- G64 should not smooth over this point )
G00 Z0.08000 ( retract )

G00 X-4.33080 Y-2.51960 ( rapid move to begin. )
G01 F0.50000
( Mill infeed pass 1/1 )
G01 Z-0.04000
G04 P0 ( dwell for no time -- G64 should not smooth over this point )
G01 F1.00000
G01 X-4.33080 Y-2.51960
G01 X-4.33599 Y-2.52595
G01 X-4.33834 Y-2.53031
G01 X-4.36040 Y-2.53031
G04 P0 ( dwell for no time -- G64 should not smooth over this point )
G00 Z0.08000 ( retract )

G00 X-4.33080 Y-2.58040 ( rapid move to begin. )
G01 F0.50000
( Mill infeed pass 1/1 )
G01 Z-0.04000
G04 P0 ( dwell for no time -- G64 should not smooth over this point )
G01 F1.00000
G01 X-4.33080 Y-2.58040
G01 X-4.33599 Y-2.57405
G01 X-4.33834 Y-2.56969
G01 X-4.36039 Y-2.56969
G04 P0 ( dwell for no time -- G64 should not smooth over this point )
G00 Z0.08000 ( retract )

G00 X-4.63960 Y-2.53031 ( rapid move to begin. )
G01 F0.50000
( Mill infeed pass 1/1 )
G01 Z-0.04000
G04 P0 ( dwell for no time -- G64 should not smooth over this point )
G01 F1.00000
G01 X-4.63960 Y-2.53031
G01 X-4.66165 Y-2.53031
G01 X-4.66401 Y-2.52595
G01 X-4.66921 Y-2.51959
G04 P0 ( dwell for no time -- G64 should not smooth over this point )
G00 Z0.08000 ( retract )

G00 X-4.63961 Y-2.56969 ( rapid move to begin. )
G01 F0.50000
( Mill infeed pass 1/1 )
G01 Z-0.04000
G04 P0 ( dwell for no time -- G64 should not smooth over this point )
G01 F1.00000
G01 X-4.63961 Y-2.56969
G01 X-4.66165 Y-2.56969
G01 X-4.66401 Y-2.57405
G01 X-4.66920 Y-2.58040

G04 P0 ( dwell for no time -- G64 should not smooth over this point )
G00 Z1.000000 ( retract )

M5 ( Spindle off. )
G04 P1.000000
M9 ( Coolant off. )
M2 ( Program end. )

