( pcb2gcode 2.0.0 )
( Software-independent Gcode )

G94 ( Inches per minute feed rate. )
G20 ( Units == INCHES. )

G90 ( Absolute coordinates. )
G00 S12000 ( RPM spindle speed. )
G64 P0.00040 ( set maximum deviation from commanded toolpath )
G01 F1.00000 ( Feedrate. )


G00 Z1.00000 (Retract to tool change height)
T0
M5      (Spindle stop.)
G04 P1.00000 (Wait for spindle to stop)
(MSG, Change tool bit to mill diameter 0.11811in)
M6      (Tool change.)
M0      (Temporary machine stop.)
M3 ( Spindle on clockwise. )
G04 P1.00000 (Wait for spindle to get up to speed)
G04 P0 ( dwell for no time -- G64 should not smooth over this point )
G00 Z0.08000 ( retract )

G00 X-3.25186 Y-2.84270 ( rapid move to begin. )
G01 F0.50000
( Mill infeed pass 1/1 )
G01 Z-0.04000
G04 P0 ( dwell for no time -- G64 should not smooth over this point )
G01 F1.00000
G01 X-3.25186 Y-2.84270
G01 X-3.24226 Y-2.85240
G01 X-3.24270 Y-2.85186
G01 X-3.24270 Y-2.84270
G01 X-3.25186 Y-2.84270
G01 X-3.25282 Y-2.84230
G04 P0 ( dwell for no time -- G64 should not smooth over this point )
G00 Z0.08000 ( retract )

G00 X-3.32424 Y-3.10428 ( rapid move to begin. )
G01 F0.50000
( Mill infeed pass 1/1 )
G01 Z-0.04000
G04 P0 ( dwell for no time -- G64 should not smooth over this point )
G01 F1.00000
G01 X-3.32424 Y-3.10428
G01 X-3.32469 Y-3.10341
G01 X-3.32743 Y-3.10119
G01 X-3.33262 Y-3.09782
G01 X-3.33761 Y-3.09494
G01 X-3.34889 Y-3.08992
G01 X-3.35437 Y-3.08814
G01 X-3.36034 Y-3.08654
G01 X-3.36644 Y-3.08557
G01 X-3.37217 Y-3.08497
G01 X-3.37835 Y-3.08465
G01 X-3.42165 Y-3.08465
G01 X-3.42783 Y-3.08497
G01 X-3.43356 Y-3.08557
G01 X-3.43966 Y-3.08654
G01 X-3.44563 Y-3.08814
G01 X-3.45111 Y-3.08992
G01 X-3.46239 Y-3.09494
G01 X-3.46501 Y-3.09645
G01 X-4.01182 Y-3.09645
G01 X-4.22519 Y-2.88308
G01 X-4.22519 Y-2.86346
G01 X-4.22559 Y-2.86306
G01 X-4.22519 Y-2.86346
G01 X-4.18777 Y-2.86346
G01 X-4.04852 Y-3.00272
G01 X-4.04422 Y-3.00661
G01 X-4.04188 Y-3.00854
G01 X-4.03225 Y-3.01497
G01 X-4.02957 Y-3.01640
G01 X-4.01887 Y-3.02083
G01 X-4.01596 Y-3.02171
G01 X-4.00461 Y-3.02397
G01 X-4.00159 Y-3.02427
G01 X-3.99580 Y-3.02455
G01 X-3.71378 Y-3.02455
G01 X-3.71104 Y-3.02702
G01 X-3.70439 Y-3.03185
G01 X-3.69369 Y-3.03803
G01 X-3.68618 Y-3.04137
G01 X-3.67444 Y-3.04519
G01 X-3.66639 Y-3.04690
G01 X-3.66029 Y-3.04787
G01 X-3.65411 Y-3.04819
G01 X-3.64589 Y-3.04819
G01 X-3.63971 Y-3.04787
G01 X-3.63361 Y-3.04690
G01 X-3.62556 Y-3.04519
G01 X-3.61382 Y-3.04137
G01 X-3.60630 Y-3.03803
G01 X-3.59561 Y-3.03185
G01 X-3.58896 Y-3.02702
G01 X-3.58443 Y-3.02294
G01 X-3.57826 Y-3.02171
G01 X-3.57535 Y-3.02083
G01 X-3.56466 Y-3.01640
G01 X-3.56197 Y-3.01497
G01 X-3.55235 Y-3.00854
G01 X-3.54571 Y-3.00272
G01 X-3.47357 Y-2.93059
G01 X-3.46650 Y-2.92829
G01 X-3.46161 Y-2.92611
G01 X-3.45850 Y-2.92453
G01 X-3.45847 Y-2.92407
G01 X-3.45840 Y-2.92469
G01 X-3.44819 Y-2.93015
G01 X-3.43711 Y-2.93351
G01 X-3.42559 Y-2.93465
G01 X-3.37441 Y-2.93465
G01 X-3.37112 Y-2.93432
G01 X-3.34794 Y-2.95749
G01 X-3.34722 Y-2.96435
G01 X-3.34465 Y-2.97643
G01 X-3.34211 Y-2.98425
G01 X-3.33709 Y-2.99553
G01 X-3.33298 Y-3.00266
G01 X-3.32961 Y-3.00784
G01 X-3.32456 Y-3.01394
G01 X-3.32456 Y-3.10368
G01 X-3.32416 Y-3.10446
G04 P0 ( dwell for no time -- G64 should not smooth over this point )
G00 Z0.08000 ( retract )

G00 X-3.50756 Y-3.24566 ( rapid move to begin. )
G01 F0.50000
( Mill infeed pass 1/1 )
G01 Z-0.04000
G04 P0 ( dwell for no time -- G64 should not smooth over this point )
G01 F1.00000
G01 X-3.50756 Y-3.24566
G01 X-3.50800 Y-3.24606
G01 X-3.67036 Y-3.24606
G01 X-3.67114 Y-3.24566
G01 X-3.67008 Y-3.24621
G01 X-3.66743 Y-3.25050
G01 X-3.65803 Y-3.25393
G01 X-3.50800 Y-3.25393
G01 X-3.50756 Y-3.25433
G01 X-3.50806 Y-3.25388
G01 X-3.50812 Y-3.25288
G01 X-3.50806 Y-3.24612
G01 X-3.50764 Y-3.24574
G04 P0 ( dwell for no time -- G64 should not smooth over this point )
G00 Z0.08000 ( retract )

G00 X-3.96831 Y-2.87206 ( rapid move to begin. )
G01 F0.50000
( Mill infeed pass 1/1 )
G01 Z-0.04000
G04 P0 ( dwell for no time -- G64 should not smooth over this point )
G01 F1.00000
G01 X-3.96831 Y-2.87206
G01 X-3.93110 Y-2.87206
G01 X-3.91958 Y-2.87092
G01 X-3.90850 Y-2.86756
G01 X-3.89829 Y-2.86210
G01 X-3.88934 Y-2.85476
G01 X-3.88200 Y-2.84581
G01 X-3.87654 Y-2.83560
G01 X-3.87318 Y-2.82452
G01 X-3.87204 Y-2.81300
G01 X-3.87204 Y-2.75395
G01 X-3.87244 Y-2.75355
G01 X-3.87204 Y-2.75395
G01 X-3.74610 Y-2.75395
G01 X-3.73458 Y-2.75282
G01 X-3.72350 Y-2.74946
G01 X-3.71329 Y-2.74400
G01 X-3.70738 Y-2.73915
G01 X-3.62567 Y-2.82087
G01 X-3.62137 Y-2.82476
G01 X-3.61903 Y-2.82669
G01 X-3.60940 Y-2.83312
G01 X-3.60672 Y-2.83455
G01 X-3.59602 Y-2.83898
G01 X-3.59358 Y-2.83972
G01 X-3.59281 Y-2.83952
G01 X-3.59358 Y-2.83972
G01 X-3.61290 Y-2.85904
G01 X-3.62556 Y-2.85481
G01 X-3.63361 Y-2.85310
G01 X-3.63971 Y-2.85213
G01 X-3.64589 Y-2.85181
G01 X-3.65411 Y-2.85181
G01 X-3.66029 Y-2.85213
G01 X-3.66639 Y-2.85310
G01 X-3.67444 Y-2.85481
G01 X-3.68618 Y-2.85863
G01 X-3.69369 Y-2.86197
G01 X-3.70439 Y-2.86815
G01 X-3.71104 Y-2.87298
G01 X-3.71378 Y-2.87544
G01 X-3.96492 Y-2.87544
G01 X-3.96831 Y-2.87206
G01 X-3.96927 Y-2.87166
G04 P0 ( dwell for no time -- G64 should not smooth over this point )
G00 Z0.08000 ( retract )

G00 X-4.11682 Y-3.21012 ( rapid move to begin. )
G01 F0.50000
( Mill infeed pass 1/1 )
G01 Z-0.04000
G04 P0 ( dwell for no time -- G64 should not smooth over this point )
G01 F1.00000
G01 X-4.11682 Y-3.21012
G01 X-4.11685 Y-3.20969
G01 X-4.12616 Y-3.20666
G01 X-4.13381 Y-3.20504
G01 X-4.13992 Y-3.20407
G01 X-4.14609 Y-3.20375
G01 X-4.15391 Y-3.20375
G01 X-4.16008 Y-3.20407
G01 X-4.16619 Y-3.20504
G01 X-4.17384 Y-3.20666
G01 X-4.18558 Y-3.21048
G01 X-4.19272 Y-3.21366
G01 X-4.19823 Y-3.21647
G01 X-4.20341 Y-3.21983
G01 X-4.20974 Y-3.22443
G01 X-4.21891 Y-3.23269
G01 X-4.22415 Y-3.23850
G01 X-4.23140 Y-3.24849
G01 X-4.23455 Y-3.25393
G01 X-4.34128 Y-3.25393
G01 X-4.34172 Y-3.25433
G01 X-4.34128 Y-3.25393
G01 X-4.34073 Y-3.24550
G01 X-4.34073 Y-3.04130
G01 X-4.34083 Y-3.03929
G01 X-4.34126 Y-3.03866
G01 X-4.34082 Y-3.03931
G01 X-4.33618 Y-3.04137
G01 X-4.32444 Y-3.04519
G01 X-4.31639 Y-3.04690
G01 X-4.31029 Y-3.04787
G01 X-4.30411 Y-3.04819
G01 X-4.29589 Y-3.04819
G01 X-4.28971 Y-3.04787
G01 X-4.28361 Y-3.04690
G01 X-4.27489 Y-3.04497
G01 X-4.11239 Y-3.20747
G01 X-4.11168 Y-3.20761
G01 X-4.11255 Y-3.20743
G01 X-4.11685 Y-3.20973
G01 X-4.11682 Y-3.21016
G04 P0 ( dwell for no time -- G64 should not smooth over this point )
G00 Z0.08000 ( retract )

G00 X-4.63336 Y-3.02198 ( rapid move to begin. )
G01 F0.50000
( Mill infeed pass 1/1 )
G01 Z-0.04000
G04 P0 ( dwell for no time -- G64 should not smooth over this point )
G01 F1.00000
G01 X-4.63336 Y-3.02198
G01 X-4.62978 Y-3.01876
G01 X-4.62428 Y-3.01264
G01 X-4.62039 Y-3.00784
G01 X-4.61702 Y-3.00266
G01 X-4.61291 Y-2.99553
G01 X-4.61010 Y-2.99002
G01 X-4.60789 Y-2.98425
G01 X-4.60534 Y-2.97643
G01 X-4.60278 Y-2.96435
G01 X-4.60229 Y-2.95973
G01 X-4.48984 Y-3.07218
G01 X-4.48984 Y-3.08465
G01 X-4.48944 Y-3.08505
G01 X-4.48984 Y-3.08465
G01 X-4.52165 Y-3.08465
G01 X-4.52783 Y-3.08497
G01 X-4.53356 Y-3.08557
G01 X-4.53966 Y-3.08654
G01 X-4.54563 Y-3.08814
G01 X-4.55111 Y-3.08992
G01 X-4.56101 Y-3.09433
G01 X-4.63336 Y-3.02198
G01 X-4.63394 Y-3.02196
G04 P0 ( dwell for no time -- G64 should not smooth over this point )
G00 Z0.08000 ( retract )

G00 X-4.39808 Y-2.95307 ( rapid move to begin. )
G01 F0.50000
( Mill infeed pass 1/1 )
G01 Z-0.04000
G04 P0 ( dwell for no time -- G64 should not smooth over this point )
G01 F1.00000
G01 X-4.39808 Y-2.95307
G01 X-4.39808 Y-2.94383
G01 X-4.39722 Y-2.93565
G01 X-4.39492 Y-2.92481
G01 X-4.41219 Y-2.92481
G01 X-4.41965 Y-2.92829
G01 X-4.42185 Y-2.92913
G01 X-4.42282 Y-2.92890
G01 X-4.42208 Y-2.92908
G01 X-4.39808 Y-2.95307
G01 X-4.39768 Y-2.95404
G04 P0 ( dwell for no time -- G64 should not smooth over this point )
G00 Z0.08000 ( retract )

G00 X-4.12734 Y-2.72119 ( rapid move to begin. )
G01 F0.50000
( Mill infeed pass 1/1 )
G01 Z-0.04000
G04 P0 ( dwell for no time -- G64 should not smooth over this point )
G01 F1.00000
G01 X-4.12734 Y-2.72119
G01 X-4.12771 Y-2.72061
G01 X-4.13382 Y-2.71808
G01 X-4.13672 Y-2.71719
G01 X-4.14808 Y-2.71494
G01 X-4.15689 Y-2.71435
G01 X-4.64969 Y-2.71435
G01 X-4.65850 Y-2.71494
G01 X-4.66985 Y-2.71719
G01 X-4.67276 Y-2.71808
G01 X-4.68346 Y-2.72251
G01 X-4.68614 Y-2.72394
G01 X-4.69576 Y-2.73037
G01 X-4.70240 Y-2.73619
G01 X-4.82757 Y-2.86135
G01 X-4.83339 Y-2.86800
G01 X-4.83982 Y-2.87762
G01 X-4.84125 Y-2.88030
G01 X-4.84568 Y-2.89100
G01 X-4.84656 Y-2.89390
G01 X-4.84882 Y-2.90526
G01 X-4.84940 Y-2.91407
G01 X-4.84940 Y-2.98593
G01 X-4.84912 Y-2.99172
G01 X-4.84882 Y-2.99474
G01 X-4.84656 Y-3.00609
G01 X-4.84568 Y-3.00900
G01 X-4.84125 Y-3.01970
G01 X-4.83982 Y-3.02238
G01 X-4.83339 Y-3.03200
G01 X-4.82757 Y-3.03865
G01 X-4.64224 Y-3.22398
G01 X-4.63559 Y-3.22980
G01 X-4.62597 Y-3.23623
G01 X-4.62329 Y-3.23766
G01 X-4.61259 Y-3.24209
G01 X-4.60968 Y-3.24297
G01 X-4.60784 Y-3.24334
G01 X-4.60728 Y-3.24294
G01 X-4.60771 Y-3.24325
G01 X-4.60812 Y-3.24712
G01 X-4.60812 Y-3.25288
G01 X-4.60683 Y-3.26516
G01 X-4.60563 Y-3.27079
G01 X-4.60181 Y-3.28254
G01 X-4.59867 Y-3.28937
G01 X-4.59822 Y-3.28937
G01 X-4.59867 Y-3.28937
G01 X-4.60181 Y-3.29620
G01 X-4.60563 Y-3.30795
G01 X-4.60683 Y-3.31358
G01 X-4.60812 Y-3.32586
G01 X-4.60812 Y-3.33162
G01 X-4.60683 Y-3.34390
G01 X-4.60563 Y-3.34953
G01 X-4.60181 Y-3.36128
G01 X-4.59947 Y-3.36654
G01 X-4.59666 Y-3.37205
G01 X-4.59330 Y-3.37723
G01 X-4.58991 Y-3.38189
G01 X-4.58165 Y-3.39107
G01 X-4.57737 Y-3.39492
G01 X-4.57256 Y-3.39881
G01 X-4.56738 Y-3.40218
G01 X-4.56239 Y-3.40506
G01 X-4.55111 Y-3.41008
G01 X-4.54563 Y-3.41186
G01 X-4.53966 Y-3.41346
G01 X-4.53356 Y-3.41443
G01 X-4.52783 Y-3.41503
G01 X-4.52165 Y-3.41535
G01 X-4.47835 Y-3.41535
G01 X-4.47217 Y-3.41503
G01 X-4.46644 Y-3.41443
G01 X-4.46034 Y-3.41346
G01 X-4.45437 Y-3.41186
G01 X-4.44889 Y-3.41008
G01 X-4.43761 Y-3.40506
G01 X-4.43499 Y-3.40354
G01 X-4.17874 Y-3.40354
G01 X-4.17295 Y-3.40326
G01 X-4.16988 Y-3.40296
G01 X-4.15852 Y-3.40070
G01 X-4.15557 Y-3.39980
G01 X-4.14700 Y-3.39625
G01 X-4.13992 Y-3.39593
G01 X-4.13381 Y-3.39496
G01 X-4.12616 Y-3.39333
G01 X-4.11685 Y-3.39031
G01 X-4.11682 Y-3.38983
G01 X-4.11685 Y-3.39027
G01 X-4.11000 Y-3.39393
G01 X-4.09892 Y-3.39729
G01 X-4.08740 Y-3.39843
G01 X-4.01260 Y-3.39843
G01 X-4.00108 Y-3.39729
G01 X-3.99000 Y-3.39393
G01 X-3.97979 Y-3.38847
G01 X-3.97084 Y-3.38113
G01 X-3.96544 Y-3.37455
G01 X-3.93455 Y-3.37455
G01 X-3.92916 Y-3.38113
G01 X-3.92250 Y-3.38659
G01 X-3.92171 Y-3.39054
G01 X-3.92083 Y-3.39344
G01 X-3.91640 Y-3.40414
G01 X-3.91497 Y-3.40682
G01 X-3.90854 Y-3.41645
G01 X-3.90272 Y-3.42309
G01 X-3.87429 Y-3.45152
G01 X-3.86764 Y-3.45734
G01 X-3.85802 Y-3.46377
G01 X-3.85534 Y-3.46520
G01 X-3.84464 Y-3.46963
G01 X-3.84174 Y-3.47051
G01 X-3.83038 Y-3.47277
G01 X-3.82157 Y-3.47335
G01 X-3.34933 Y-3.47335
G01 X-3.34051 Y-3.47277
G01 X-3.32916 Y-3.47051
G01 X-3.32625 Y-3.46963
G01 X-3.31556 Y-3.46520
G01 X-3.31288 Y-3.46377
G01 X-3.30325 Y-3.45734
G01 X-3.29661 Y-3.45152
G01 X-3.11543 Y-3.27034
G01 X-3.10961 Y-3.26370
G01 X-3.10318 Y-3.25407
G01 X-3.10175 Y-3.25139
G01 X-3.09732 Y-3.24070
G01 X-3.09643 Y-3.23779
G01 X-3.09418 Y-3.22643
G01 X-3.09359 Y-3.21762
G01 X-3.09359 Y-2.81071
G01 X-3.09418 Y-2.80190
G01 X-3.09643 Y-2.79054
G01 X-3.09732 Y-2.78764
G01 X-3.10175 Y-2.77694
G01 X-3.10318 Y-2.77426
G01 X-3.10961 Y-2.76464
G01 X-3.11543 Y-2.75799
G01 X-3.15799 Y-2.71543
G01 X-3.16229 Y-2.71154
G01 X-3.16464 Y-2.70961
G01 X-3.17426 Y-2.70318
G01 X-3.17694 Y-2.70175
G01 X-3.18764 Y-2.69732
G01 X-3.19054 Y-2.69643
G01 X-3.20190 Y-2.69418
G01 X-3.21071 Y-2.69359
G01 X-3.54207 Y-2.69359
G01 X-3.60081 Y-2.63485
G01 X-3.60146 Y-2.63477
G01 X-3.60081 Y-2.63485
G01 X-3.59561 Y-2.63185
G01 X-3.58896 Y-2.62702
G01 X-3.58650 Y-2.62480
G01 X-3.31350 Y-2.62480
G01 X-3.31104 Y-2.62702
G01 X-3.30439 Y-2.63185
G01 X-3.29369 Y-2.63803
G01 X-3.28618 Y-2.64137
G01 X-3.27444 Y-2.64519
G01 X-3.26639 Y-2.64690
G01 X-3.26029 Y-2.64787
G01 X-3.25411 Y-2.64819
G01 X-3.24589 Y-2.64819
G01 X-3.23971 Y-2.64787
G01 X-3.23361 Y-2.64690
G01 X-3.22556 Y-2.64519
G01 X-3.21382 Y-2.64137
G01 X-3.20630 Y-2.63803
G01 X-3.19561 Y-2.63185
G01 X-3.18896 Y-2.62702
G01 X-3.17978 Y-2.61876
G01 X-3.17428 Y-2.61264
G01 X-3.17039 Y-2.60784
G01 X-3.16702 Y-2.60266
G01 X-3.16291 Y-2.59553
G01 X-3.15789 Y-2.58425
G01 X-3.15535 Y-2.57643
G01 X-3.15278 Y-2.56435
G01 X-3.15192 Y-2.55617
G01 X-3.15159 Y-2.55000
G01 X-3.15192 Y-2.54383
G01 X-3.15278 Y-2.53565
G01 X-3.15535 Y-2.52357
G01 X-3.15789 Y-2.51574
G01 X-3.16291 Y-2.50447
G01 X-3.16702 Y-2.49734
G01 X-3.17039 Y-2.49216
G01 X-3.17428 Y-2.48735
G01 X-3.17978 Y-2.48124
G01 X-3.18896 Y-2.47298
G01 X-3.19561 Y-2.46814
G01 X-3.20630 Y-2.46197
G01 X-3.21382 Y-2.45863
G01 X-3.22556 Y-2.45481
G01 X-3.23361 Y-2.45310
G01 X-3.23971 Y-2.45213
G01 X-3.24589 Y-2.45181
G01 X-3.25411 Y-2.45181
G01 X-3.26029 Y-2.45213
G01 X-3.26639 Y-2.45310
G01 X-3.27444 Y-2.45481
G01 X-3.28618 Y-2.45863
G01 X-3.29369 Y-2.46197
G01 X-3.30439 Y-2.46814
G01 X-3.31104 Y-2.47298
G01 X-3.31350 Y-2.47519
G01 X-3.58622 Y-2.47519
G01 X-3.58896 Y-2.47298
G01 X-3.59561 Y-2.46814
G01 X-3.60630 Y-2.46197
G01 X-3.61382 Y-2.45863
G01 X-3.62556 Y-2.45481
G01 X-3.63361 Y-2.45310
G01 X-3.63971 Y-2.45213
G01 X-3.64258 Y-2.45198
G01 X-3.74378 Y-2.35078
G01 X-3.74808 Y-2.34689
G01 X-3.75042 Y-2.34496
G01 X-3.76005 Y-2.33853
G01 X-3.76273 Y-2.33710
G01 X-3.77343 Y-2.33267
G01 X-3.77633 Y-2.33178
G01 X-3.78769 Y-2.32953
G01 X-3.79650 Y-2.32894
G01 X-4.15350 Y-2.32894
G01 X-4.16231 Y-2.32953
G01 X-4.17366 Y-2.33178
G01 X-4.17657 Y-2.33267
G01 X-4.18727 Y-2.33710
G01 X-4.18995 Y-2.33853
G01 X-4.19957 Y-2.34496
G01 X-4.20622 Y-2.35078
G01 X-4.30742 Y-2.45198
G01 X-4.31029 Y-2.45213
G01 X-4.31639 Y-2.45310
G01 X-4.32444 Y-2.45481
G01 X-4.33618 Y-2.45863
G01 X-4.34369 Y-2.46197
G01 X-4.34920 Y-2.46478
G01 X-4.35439 Y-2.46814
G01 X-4.36104 Y-2.47298
G01 X-4.36350 Y-2.47519
G01 X-4.63650 Y-2.47519
G01 X-4.63896 Y-2.47298
G01 X-4.64561 Y-2.46814
G01 X-4.65080 Y-2.46478
G01 X-4.65630 Y-2.46197
G01 X-4.66382 Y-2.45863
G01 X-4.67556 Y-2.45481
G01 X-4.68361 Y-2.45310
G01 X-4.68971 Y-2.45213
G01 X-4.69589 Y-2.45181
G01 X-4.70411 Y-2.45181
G01 X-4.71029 Y-2.45213
G01 X-4.71639 Y-2.45310
G01 X-4.72444 Y-2.45481
G01 X-4.73618 Y-2.45863
G01 X-4.74369 Y-2.46197
G01 X-4.74920 Y-2.46478
G01 X-4.75439 Y-2.46814
G01 X-4.76104 Y-2.47298
G01 X-4.77022 Y-2.48124
G01 X-4.77572 Y-2.48735
G01 X-4.77961 Y-2.49216
G01 X-4.78298 Y-2.49734
G01 X-4.78709 Y-2.50447
G01 X-4.78990 Y-2.50997
G01 X-4.79211 Y-2.51574
G01 X-4.79465 Y-2.52357
G01 X-4.79722 Y-2.53565
G01 X-4.79808 Y-2.54383
G01 X-4.79808 Y-2.55617
G01 X-4.79722 Y-2.56435
G01 X-4.79465 Y-2.57643
G01 X-4.79211 Y-2.58425
G01 X-4.78990 Y-2.59002
G01 X-4.78709 Y-2.59553
G01 X-4.78298 Y-2.60266
G01 X-4.77961 Y-2.60784
G01 X-4.77572 Y-2.61264
G01 X-4.77022 Y-2.61876
G01 X-4.76104 Y-2.62702
G01 X-4.75439 Y-2.63185
G01 X-4.74920 Y-2.63522
G01 X-4.74369 Y-2.63803
G01 X-4.73618 Y-2.64137
G01 X-4.72444 Y-2.64519
G01 X-4.71639 Y-2.64690
G01 X-4.71029 Y-2.64787
G01 X-4.70411 Y-2.64819
G01 X-4.69589 Y-2.64819
G01 X-4.68971 Y-2.64787
G01 X-4.68361 Y-2.64690
G01 X-4.67556 Y-2.64519
G01 X-4.66382 Y-2.64137
G01 X-4.65630 Y-2.63803
G01 X-4.65080 Y-2.63522
G01 X-4.64561 Y-2.63185
G01 X-4.63896 Y-2.62702
G01 X-4.63650 Y-2.62480
G01 X-4.36350 Y-2.62480
G01 X-4.36104 Y-2.62702
G01 X-4.35439 Y-2.63185
G01 X-4.34920 Y-2.63522
G01 X-4.34369 Y-2.63803
G01 X-4.33618 Y-2.64137
G01 X-4.32444 Y-2.64519
G01 X-4.31639 Y-2.64690
G01 X-4.31029 Y-2.64787
G01 X-4.30411 Y-2.64819
G01 X-4.29589 Y-2.64819
G01 X-4.28971 Y-2.64787
G01 X-4.28361 Y-2.64690
G01 X-4.27649 Y-2.64539
G01 X-4.12796 Y-2.71966
G01 X-4.12796 Y-2.72022
G01 X-4.12756 Y-2.72085
G04 P0 ( dwell for no time -- G64 should not smooth over this point )
G00 Z0.08000 ( retract )

G00 X-4.12796 Y-2.48339 ( rapid move to begin. )
G01 F0.50000
( Mill infeed pass 1/1 )
G01 Z-0.04000
G04 P0 ( dwell for no time -- G64 should not smooth over this point )
G01 F1.00000
G01 X-4.12796 Y-2.48339
G01 X-4.12795 Y-2.55239
G01 X-4.12755 Y-2.55303
G01 X-4.12795 Y-2.55239
G01 X-4.17395 Y-2.52939
G01 X-4.12796 Y-2.48339
G01 X-4.12756 Y-2.48243
G04 P0 ( dwell for no time -- G64 should not smooth over this point )
G00 Z0.08000 ( retract )

G00 X-3.85847 Y-2.47765 ( rapid move to begin. )
G01 F0.50000
( Mill infeed pass 1/1 )
G01 Z-0.04000
G04 P0 ( dwell for no time -- G64 should not smooth over this point )
G01 F1.00000
G01 X-3.85847 Y-2.47765
G01 X-3.85751 Y-2.47805
G01 X-3.82738 Y-2.47805
G01 X-3.80739 Y-2.49804
G01 X-3.80642 Y-2.49844
G01 X-3.80739 Y-2.49804
G01 X-3.83752 Y-2.49804
G01 X-3.85751 Y-2.47805

G04 P0 ( dwell for no time -- G64 should not smooth over this point )
G00 Z1.000000 ( retract )

M5 ( Spindle off. )
G04 P1.000000

G00 Z1.00000 (Retract to tool change height)
T1
M5      (Spindle stop.)
G04 P1.00000 (Wait for spindle to stop)
(MSG, Change tool bit to mill diameter 0.00787in)
M6      (Tool change.)
M0      (Temporary machine stop.)
M3 ( Spindle on clockwise. )
G04 P1.00000 (Wait for spindle to get up to speed)
G04 P0 ( dwell for no time -- G64 should not smooth over this point )
G00 Z0.08000 ( retract )

G00 X-3.28057 Y-2.58041 ( rapid move to begin. )
G01 F0.50000
( Mill infeed pass 1/1 )
G01 Z-0.04000
G04 P0 ( dwell for no time -- G64 should not smooth over this point )
G01 F1.00000
G01 X-3.28057 Y-2.58041
G01 X-3.28503 Y-2.57543
G01 X-3.28832 Y-2.56969
G01 X-3.30931 Y-2.56969
G04 P0 ( dwell for no time -- G64 should not smooth over this point )
G00 Z0.08000 ( retract )

G00 X-3.28057 Y-2.51959 ( rapid move to begin. )
G01 F0.50000
( Mill infeed pass 1/1 )
G01 Z-0.04000
G04 P0 ( dwell for no time -- G64 should not smooth over this point )
G01 F1.00000
G01 X-3.28057 Y-2.51959
G01 X-3.28503 Y-2.52457
G01 X-3.28832 Y-2.53031
G01 X-3.30932 Y-2.53031
G04 P0 ( dwell for no time -- G64 should not smooth over this point )
G00 Z0.08000 ( retract )

G00 X-3.59069 Y-2.56969 ( rapid move to begin. )
G01 F0.50000
( Mill infeed pass 1/1 )
G01 Z-0.04000
G04 P0 ( dwell for no time -- G64 should not smooth over this point )
G01 F1.00000
G01 X-3.59069 Y-2.56969
G01 X-3.61168 Y-2.56969
G01 X-3.61497 Y-2.57543
G01 X-3.61943 Y-2.58041
G04 P0 ( dwell for no time -- G64 should not smooth over this point )
G00 Z0.08000 ( retract )

G00 X-3.59075 Y-2.53031 ( rapid move to begin. )
G01 F0.50000
( Mill infeed pass 1/1 )
G01 Z-0.04000
G04 P0 ( dwell for no time -- G64 should not smooth over this point )
G01 F1.00000
G01 X-3.59075 Y-2.53031
G01 X-3.61168 Y-2.53031
G01 X-3.61497 Y-2.52457
G01 X-3.61962 Y-2.51937
G04 P0 ( dwell for no time -- G64 should not smooth over this point )
G00 Z0.08000 ( retract )

G00 X-3.64880 Y-2.50693 ( rapid move to begin. )
G01 F0.50000
( Mill infeed pass 1/1 )
G01 Z-0.04000
G04 P0 ( dwell for no time -- G64 should not smooth over this point )
G01 F1.00000
G01 X-3.64880 Y-2.50693
G01 X-3.65452 Y-2.50695
G01 X-3.66359 Y-2.50892
G01 X-3.67860 Y-2.49392
G04 P0 ( dwell for no time -- G64 should not smooth over this point )
G00 Z0.08000 ( retract )

G00 X-3.63342 Y-2.58977 ( rapid move to begin. )
G01 F0.50000
( Mill infeed pass 1/1 )
G01 Z-0.04000
G04 P0 ( dwell for no time -- G64 should not smooth over this point )
G01 F1.00000
G01 X-3.63342 Y-2.58977
G01 X-3.63702 Y-2.59127
G01 X-3.64547 Y-2.59305
G01 X-3.65493 Y-2.59299
G01 X-3.66298 Y-2.59127
G01 X-3.67128 Y-2.58767
G01 X-3.67926 Y-2.58188
G01 X-3.68502 Y-2.57544
G01 X-3.68936 Y-2.56797
G01 X-3.69223 Y-2.55940
G01 X-3.69326 Y-2.54959
G01 X-3.69240 Y-2.54141
G01 X-3.69092 Y-2.53656
G01 X-3.80455 Y-2.42293
G01 X-4.14545 Y-2.42294
G01 X-4.16113 Y-2.43862
G01 X-4.14524 Y-2.60537
G01 X-4.01345 Y-2.67126
G01 X-3.93110 Y-2.67126
G01 X-3.93033 Y-2.67134
G01 X-3.92891 Y-2.67193
G01 X-3.92783 Y-2.67301
G01 X-3.92724 Y-2.67443
G01 X-3.92716 Y-2.67520
G01 X-3.92716 Y-2.74621
G04 P0 ( dwell for no time -- G64 should not smooth over this point )
G00 Z0.08000 ( retract )

G00 X-3.74237 Y-2.69610 ( rapid move to begin. )
G01 F0.50000
( Mill infeed pass 1/1 )
G01 Z-0.04000
G04 P0 ( dwell for no time -- G64 should not smooth over this point )
G01 F1.00000
G01 X-3.74237 Y-2.69610
G01 X-3.74216 Y-2.69490
G01 X-3.74216 Y-2.64544
G01 X-3.72315 Y-2.64544
G01 X-3.67137 Y-2.69722
G04 P0 ( dwell for no time -- G64 should not smooth over this point )
G00 Z0.08000 ( retract )

G00 X-3.87980 Y-2.69884 ( rapid move to begin. )
G01 F0.50000
( Mill infeed pass 1/1 )
G01 Z-0.04000
G04 P0 ( dwell for no time -- G64 should not smooth over this point )
G01 F1.00000
G01 X-3.87980 Y-2.69884
G01 X-3.88390 Y-2.69884
G01 X-3.88541 Y-2.69854
G01 X-3.88609 Y-2.69817
G01 X-3.88717 Y-2.69709
G01 X-3.88754 Y-2.69641
G01 X-3.88784 Y-2.69490
G01 X-3.88784 Y-2.58065
G01 X-3.92716 Y-2.54133
G01 X-3.92716 Y-2.57680
G01 X-3.92746 Y-2.57831
G01 X-3.92783 Y-2.57899
G01 X-3.92891 Y-2.58007
G01 X-3.93033 Y-2.58066
G01 X-4.06967 Y-2.58066
G01 X-4.07109 Y-2.58007
G01 X-4.07168 Y-2.57958
G01 X-4.07217 Y-2.57899
G01 X-4.07276 Y-2.57757
G01 X-4.07284 Y-2.56062
G04 P0 ( dwell for no time -- G64 should not smooth over this point )
G00 Z0.08000 ( retract )

G00 X-4.07284 Y-2.47519 ( rapid move to begin. )
G01 F0.50000
( Mill infeed pass 1/1 )
G01 Z-0.04000
G04 P0 ( dwell for no time -- G64 should not smooth over this point )
G01 F1.00000
G01 X-4.07284 Y-2.47519
G01 X-4.07284 Y-2.43900
G01 X-4.07276 Y-2.43823
G01 X-4.07217 Y-2.43681
G01 X-4.07109 Y-2.43573
G01 X-4.06967 Y-2.43514
G01 X-3.93110 Y-2.43506
G01 X-3.92959 Y-2.43536
G01 X-3.92891 Y-2.43573
G01 X-3.92783 Y-2.43681
G01 X-3.92724 Y-2.43823
G01 X-3.92716 Y-2.43900
G01 X-3.92716 Y-2.48947
G01 X-3.92531 Y-2.49011
G01 X-3.92263 Y-2.49154
G01 X-3.91935 Y-2.49416
G01 X-3.86035 Y-2.55316
G01 X-3.74610 Y-2.55316
G01 X-3.74459 Y-2.55346
G01 X-3.74391 Y-2.55383
G01 X-3.74283 Y-2.55491
G01 X-3.74224 Y-2.55633
G01 X-3.74216 Y-2.55710
G01 X-3.74216 Y-2.60656
G01 X-3.71471 Y-2.60658
G01 X-3.71169 Y-2.60688
G01 X-3.70803 Y-2.60791
G01 X-3.70399 Y-2.61007
G01 X-3.70136 Y-2.61226
G01 X-3.56490 Y-2.74871
G01 X-3.54595 Y-2.74871
G04 P0 ( dwell for no time -- G64 should not smooth over this point )
G00 Z0.08000 ( retract )

G00 X-3.57358 Y-2.78754 ( rapid move to begin. )
G01 F0.50000
( Mill infeed pass 1/1 )
G01 Z-0.04000
G04 P0 ( dwell for no time -- G64 should not smooth over this point )
G01 F1.00000
G01 X-3.57358 Y-2.78754
G01 X-3.21876 Y-2.78759
G01 X-3.18759 Y-2.81876
G01 X-3.18759 Y-3.20957
G01 X-3.35738 Y-3.37936
G01 X-3.81352 Y-3.37936
G01 X-3.83056 Y-3.36232
G01 X-3.83056 Y-3.34331
G01 X-3.81183 Y-3.34323
G01 X-3.81109 Y-3.34301
G01 X-3.80981 Y-3.34215
G01 X-3.80932 Y-3.34156
G01 X-3.80874 Y-3.34014
G01 X-3.80866 Y-3.26063
G01 X-3.80874 Y-3.25986
G01 X-3.80932 Y-3.25844
G01 X-3.81041 Y-3.25736
G01 X-3.81109 Y-3.25699
G01 X-3.81260 Y-3.25669
G01 X-3.88817 Y-3.25677
G01 X-3.88891 Y-3.25699
G01 X-3.89018 Y-3.25785
G01 X-3.89067 Y-3.25844
G01 X-3.89126 Y-3.25986
G01 X-3.89134 Y-3.28056
G01 X-4.00866 Y-3.28056
G01 X-4.00874 Y-3.25986
G01 X-4.00932 Y-3.25844
G01 X-4.01041 Y-3.25736
G01 X-4.01109 Y-3.25699
G01 X-4.01260 Y-3.25669
G01 X-4.08659 Y-3.25669
G04 P0 ( dwell for no time -- G64 should not smooth over this point )
G00 Z0.08000 ( retract )

G00 X-3.89130 Y-3.33974 ( rapid move to begin. )
G01 F0.50000
( Mill infeed pass 1/1 )
G01 Z-0.04000
G04 P0 ( dwell for no time -- G64 should not smooth over this point )
G01 F1.00000
G01 X-3.89130 Y-3.33974
G01 X-3.89134 Y-3.31944
G01 X-3.93019 Y-3.31944
G04 P0 ( dwell for no time -- G64 should not smooth over this point )
G00 Z0.08000 ( retract )

G00 X-4.00870 Y-3.33975 ( rapid move to begin. )
G01 F0.50000
( Mill infeed pass 1/1 )
G01 Z-0.04000
G04 P0 ( dwell for no time -- G64 should not smooth over this point )
G01 F1.00000
G01 X-4.00870 Y-3.33975
G01 X-4.00866 Y-3.31944
G01 X-3.96981 Y-3.31944
G01 X-3.88777 Y-3.34327
G01 X-3.86944 Y-3.34331
G01 X-3.86937 Y-3.37125
G04 P0 ( dwell for no time -- G64 should not smooth over this point )
G00 Z0.08000 ( retract )

G00 X-3.71296 Y-3.28189 ( rapid move to begin. )
G01 F0.50000
( Mill infeed pass 1/1 )
G01 Z-0.04000
G04 P0 ( dwell for no time -- G64 should not smooth over this point )
G01 F1.00000
G01 X-3.71296 Y-3.28189
G01 X-3.71209 Y-3.28357
G01 X-3.70967 Y-3.29101
G01 X-3.70928 Y-3.29391
G01 X-3.69048 Y-3.30077
G01 X-3.66243 Y-3.30905
G01 X-3.66778 Y-3.30905
G01 X-3.67280 Y-3.30722
G01 X-3.71896 Y-3.27300
G01 X-3.72266 Y-3.26902
G01 X-3.72933 Y-3.26420
G01 X-3.73762 Y-3.26058
G01 X-3.74527 Y-3.25895
G01 X-3.75391 Y-3.25887
G01 X-3.76238 Y-3.26058
G01 X-3.77067 Y-3.26420
G01 X-3.77795 Y-3.26957
G01 X-3.78367 Y-3.27605
G01 X-3.78791 Y-3.28357
G01 X-3.79043 Y-3.29141
G01 X-3.79132 Y-3.29959
G01 X-3.79043 Y-3.30859
G01 X-3.78758 Y-3.31718
G01 X-3.78344 Y-3.32430
G01 X-3.77734 Y-3.33098
G01 X-3.77030 Y-3.33599
G01 X-3.76316 Y-3.33917
G01 X-3.75473 Y-3.34105
G01 X-3.74609 Y-3.34113
G01 X-3.73762 Y-3.33942
G01 X-3.72933 Y-3.33580
G01 X-3.72262 Y-3.33095
G01 X-3.67801 Y-3.34723
G01 X-3.67434 Y-3.34817
G01 X-3.67126 Y-3.34843
G01 X-3.44609 Y-3.34843
G01 X-3.44477 Y-3.35011
G01 X-3.44017 Y-3.35422
G01 X-3.43483 Y-3.35733
G01 X-3.42820 Y-3.35955
G01 X-3.42165 Y-3.36024
G01 X-3.37835 Y-3.36024
G01 X-3.37180 Y-3.35955
G01 X-3.36592 Y-3.35766
G01 X-3.35983 Y-3.35422
G01 X-3.35468 Y-3.34949
G01 X-3.35107 Y-3.34449
G01 X-3.34854 Y-3.33886
G01 X-3.34702 Y-3.33203
G01 X-3.34700 Y-3.32586
G01 X-3.34829 Y-3.31941
G01 X-3.35107 Y-3.31299
G01 X-3.35468 Y-3.30798
G01 X-3.36018 Y-3.30303
G01 X-3.36592 Y-3.29982
G01 X-3.37221 Y-3.29787
G01 X-3.37835 Y-3.29724
G01 X-3.42206 Y-3.29726
G01 X-3.42820 Y-3.29793
G01 X-3.43483 Y-3.30015
G01 X-3.44017 Y-3.30326
G01 X-3.44477 Y-3.30737
G01 X-3.44609 Y-3.30905
G01 X-3.49957 Y-3.30905
G04 P0 ( dwell for no time -- G64 should not smooth over this point )
G00 Z0.08000 ( retract )

G00 X-3.45235 Y-3.25633 ( rapid move to begin. )
G01 F0.50000
( Mill infeed pass 1/1 )
G01 Z-0.04000
G04 P0 ( dwell for no time -- G64 should not smooth over this point )
G01 F1.00000
G01 X-3.45235 Y-3.25633
G01 X-3.45146 Y-3.26012
G01 X-3.44893 Y-3.26575
G01 X-3.44532 Y-3.27075
G01 X-3.44049 Y-3.27522
G01 X-3.43408 Y-3.27892
G01 X-3.42820 Y-3.28081
G01 X-3.42206 Y-3.28147
G01 X-3.37835 Y-3.28150
G01 X-3.37221 Y-3.28087
G01 X-3.36592 Y-3.27892
G01 X-3.36018 Y-3.27570
G01 X-3.35523 Y-3.27137
G01 X-3.35372 Y-3.26944
G01 X-3.31979 Y-3.26944
G01 X-3.31562 Y-3.26897
G01 X-3.31200 Y-3.26779
G01 X-3.30932 Y-3.26636
G01 X-3.30604 Y-3.26374
G01 X-3.23625 Y-3.19395
G01 X-3.23407 Y-3.19132
G01 X-3.23191 Y-3.18729
G01 X-3.23088 Y-3.18362
G01 X-3.23056 Y-3.18021
G01 X-3.23056 Y-2.98849
G01 X-3.22801 Y-2.98726
G01 X-3.22135 Y-2.98243
G01 X-3.21475 Y-2.97510
G01 X-3.21031 Y-2.96722
G01 X-3.20777 Y-2.95940
G01 X-3.20673 Y-2.95041
G01 X-3.20759 Y-2.94141
G01 X-3.21046 Y-2.93239
G01 X-3.21498 Y-2.92456
G01 X-3.22135 Y-2.91757
G01 X-3.22872 Y-2.91233
G01 X-3.23624 Y-2.90898
G01 X-3.24196 Y-2.90768
G01 X-3.29663 Y-2.87588
G01 X-3.33625 Y-2.83625
G01 X-3.33953 Y-2.83364
G01 X-3.34293 Y-2.83191
G01 X-3.34659 Y-2.83088
G01 X-3.35000 Y-2.83056
G01 X-3.37047 Y-2.83056
G01 X-3.37055 Y-2.82364
G01 X-3.37114 Y-2.82222
G01 X-3.37222 Y-2.82113
G01 X-3.37290 Y-2.82077
G01 X-3.37441 Y-2.82047
G01 X-3.42559 Y-2.82047
G01 X-3.42710 Y-2.82077
G01 X-3.42837 Y-2.82163
G01 X-3.42923 Y-2.82290
G01 X-3.42953 Y-2.82441
G01 X-3.42953 Y-2.87559
G01 X-3.42922 Y-2.87711
G04 P0 ( dwell for no time -- G64 should not smooth over this point )
G00 Z0.08000 ( retract )

G00 X-3.48075 Y-2.87348 ( rapid move to begin. )
G01 F0.50000
( Mill infeed pass 1/1 )
G01 Z-0.04000
G04 P0 ( dwell for no time -- G64 should not smooth over this point )
G01 F1.00000
G01 X-3.48075 Y-2.87348
G01 X-3.47838 Y-2.87165
G01 X-3.47431 Y-2.86701
G01 X-3.47130 Y-2.86163
G01 X-3.46954 Y-2.85614
G01 X-3.46892 Y-2.85041
G01 X-3.46948 Y-2.84427
G01 X-3.47164 Y-2.83762
G01 X-3.47454 Y-2.83264
G01 X-3.47899 Y-2.82780
G01 X-3.48332 Y-2.82465
G01 X-3.48891 Y-2.82206
G01 X-3.49575 Y-2.82061
G01 X-3.50110 Y-2.82061
G01 X-3.50715 Y-2.82181
G01 X-3.51353 Y-2.82465
G01 X-3.51847 Y-2.82835
G01 X-3.52231 Y-2.83264
G01 X-3.52521 Y-2.83762
G01 X-3.52720 Y-2.84346
G01 X-3.52793 Y-2.84959
G01 X-3.52778 Y-2.85187
G01 X-3.60648 Y-2.93056
G01 X-3.61149 Y-2.93056
G01 X-3.61498 Y-2.92456
G01 X-3.62074 Y-2.91812
G01 X-3.62801 Y-2.91274
G01 X-3.63140 Y-2.91113
G04 P0 ( dwell for no time -- G64 should not smooth over this point )
G00 Z0.08000 ( retract )

G00 X-3.68069 Y-2.91972 ( rapid move to begin. )
G01 F0.50000
( Mill infeed pass 1/1 )
G01 Z-0.04000
G04 P0 ( dwell for no time -- G64 should not smooth over this point )
G01 F1.00000
G01 X-3.68069 Y-2.91972
G01 X-3.68502 Y-2.92456
G01 X-3.68851 Y-2.93056
G01 X-3.70960 Y-2.93056
G04 P0 ( dwell for no time -- G64 should not smooth over this point )
G00 Z0.08000 ( retract )

G00 X-3.70959 Y-2.96944 ( rapid move to begin. )
G01 F0.50000
( Mill infeed pass 1/1 )
G01 Z-0.04000
G04 P0 ( dwell for no time -- G64 should not smooth over this point )
G01 F1.00000
G01 X-3.70959 Y-2.96944
G01 X-3.68851 Y-2.96944
G01 X-3.68502 Y-2.97544
G01 X-3.68069 Y-2.98028
G04 P0 ( dwell for no time -- G64 should not smooth over this point )
G00 Z0.08000 ( retract )

G00 X-3.61852 Y-2.97941 ( rapid move to begin. )
G01 F0.50000
( Mill infeed pass 1/1 )
G01 Z-0.04000
G04 P0 ( dwell for no time -- G64 should not smooth over this point )
G01 F1.00000
G01 X-3.61852 Y-2.97941
G01 X-3.61498 Y-2.97544
G01 X-3.61149 Y-2.96944
G01 X-3.59843 Y-2.96944
G04 P0 ( dwell for no time -- G64 should not smooth over this point )
G00 Z0.08000 ( retract )

G00 X-3.50905 Y-2.88812 ( rapid move to begin. )
G01 F0.50000
( Mill infeed pass 1/1 )
G01 Z-0.04000
G04 P0 ( dwell for no time -- G64 should not smooth over this point )
G01 F1.00000
G01 X-3.50905 Y-2.88812
G01 X-3.50032 Y-2.87939
G01 X-3.49575 Y-2.87939
G01 X-3.49376 Y-2.87905
G04 P0 ( dwell for no time -- G64 should not smooth over this point )
G00 Z0.08000 ( retract )

G00 X-3.37256 Y-2.87904 ( rapid move to begin. )
G01 F0.50000
( Mill infeed pass 1/1 )
G01 Z-0.04000
G04 P0 ( dwell for no time -- G64 should not smooth over this point )
G01 F1.00000
G01 X-3.37256 Y-2.87904
G01 X-3.37162 Y-2.87837
G01 X-3.37114 Y-2.87778
G01 X-3.37055 Y-2.87636
G01 X-3.37047 Y-2.86944
G01 X-3.35805 Y-2.86944
G01 X-3.29092 Y-2.93656
G01 X-3.29241 Y-2.94141
G01 X-3.29322 Y-2.94918
G04 P0 ( dwell for no time -- G64 should not smooth over this point )
G00 Z0.08000 ( retract )

G00 X-3.27647 Y-2.89604 ( rapid move to begin. )
G01 F0.50000
( Mill infeed pass 1/1 )
G01 Z-0.04000
G04 P0 ( dwell for no time -- G64 should not smooth over this point )
G01 F1.00000
G01 X-3.27647 Y-2.89604
G01 X-3.26359 Y-2.90892
G01 X-3.25452 Y-2.90695
G01 X-3.25081 Y-2.90693
G04 P0 ( dwell for no time -- G64 should not smooth over this point )
G00 Z0.08000 ( retract )

G00 X-3.28078 Y-2.98018 ( rapid move to begin. )
G01 F0.50000
( Mill infeed pass 1/1 )
G01 Z-0.04000
G04 P0 ( dwell for no time -- G64 should not smooth over this point )
G01 F1.00000
G01 X-3.28078 Y-2.98018
G01 X-3.27864 Y-2.98243
G01 X-3.27199 Y-2.98726
G01 X-3.26944 Y-2.98849
G01 X-3.26944 Y-3.17216
G01 X-3.32784 Y-3.23056
G01 X-3.35372 Y-3.23056
G01 X-3.35523 Y-3.22863
G01 X-3.36018 Y-3.22429
G01 X-3.36592 Y-3.22108
G01 X-3.37221 Y-3.21913
G01 X-3.37835 Y-3.21850
G01 X-3.42165 Y-3.21850
G01 X-3.42779 Y-3.21913
G01 X-3.43483 Y-3.22141
G01 X-3.44017 Y-3.22452
G01 X-3.44477 Y-3.22863
G01 X-3.44912 Y-3.23462
G01 X-3.45146 Y-3.23988
G01 X-3.45235 Y-3.24367
G04 P0 ( dwell for no time -- G64 should not smooth over this point )
G00 Z0.08000 ( retract )

G00 X-3.46060 Y-3.15157 ( rapid move to begin. )
G01 F0.50000
( Mill infeed pass 1/1 )
G01 Z-0.04000
G04 P0 ( dwell for no time -- G64 should not smooth over this point )
G01 F1.00000
G01 X-3.46060 Y-3.15157
G01 X-3.44609 Y-3.15157
G01 X-3.44477 Y-3.14989
G01 X-3.44045 Y-3.14601
G04 P0 ( dwell for no time -- G64 should not smooth over this point )
G00 Z0.08000 ( retract )

G00 X-3.35505 Y-3.15009 ( rapid move to begin. )
G01 F0.50000
( Mill infeed pass 1/1 )
G01 Z-0.04000
G04 P0 ( dwell for no time -- G64 should not smooth over this point )
G01 F1.00000
G01 X-3.35505 Y-3.15009
G01 X-3.35088 Y-3.15588
G01 X-3.34854 Y-3.16114
G01 X-3.34709 Y-3.16756
G01 X-3.34702 Y-3.17455
G01 X-3.34854 Y-3.18138
G01 X-3.35107 Y-3.18701
G01 X-3.35468 Y-3.19201
G01 X-3.35983 Y-3.19674
G01 X-3.36592 Y-3.20018
G01 X-3.37180 Y-3.20207
G01 X-3.37793 Y-3.20273
G01 X-3.42165 Y-3.20275
G01 X-3.42820 Y-3.20207
G01 X-3.43408 Y-3.20018
G01 X-3.43982 Y-3.19697
G01 X-3.44477 Y-3.19263
G01 X-3.44610 Y-3.19095
G01 X-4.04280 Y-3.19095
G01 X-4.04626 Y-3.19062
G01 X-4.05069 Y-3.18928
G01 X-4.05405 Y-3.18740
G01 X-4.05672 Y-3.18518
G01 X-4.26567 Y-2.97624
G01 X-4.27135 Y-2.98243
G01 X-4.27801 Y-2.98726
G01 X-4.28554 Y-2.99071
G04 P0 ( dwell for no time -- G64 should not smooth over this point )
G00 Z0.08000 ( retract )

G00 X-4.32342 Y-2.98622 ( rapid move to begin. )
G01 F0.50000
( Mill infeed pass 1/1 )
G01 Z-0.04000
G04 P0 ( dwell for no time -- G64 should not smooth over this point )
G01 F1.00000
G01 X-4.32342 Y-2.98622
G01 X-4.32926 Y-2.98188
G01 X-4.33524 Y-2.97510
G01 X-4.33954 Y-2.96761
G01 X-4.34223 Y-2.95940
G01 X-4.34250 Y-2.95774
G04 P0 ( dwell for no time -- G64 should not smooth over this point )
G00 Z0.08000 ( retract )

G00 X-4.39662 Y-3.03613 ( rapid move to begin. )
G01 F0.50000
( Mill infeed pass 1/1 )
G01 Z-0.04000
G04 P0 ( dwell for no time -- G64 should not smooth over this point )
G01 F1.00000
G01 X-4.39662 Y-3.03613
G01 X-4.39749 Y-3.03351
G01 X-4.39893 Y-3.03084
G01 X-4.40154 Y-3.02756
G01 X-4.53056 Y-2.89854
G01 X-4.53056 Y-2.87953
G01 X-4.52441 Y-2.87953
G01 X-4.52290 Y-2.87923
G01 X-4.52222 Y-2.87886
G01 X-4.52114 Y-2.87778
G01 X-4.52077 Y-2.87710
G01 X-4.52047 Y-2.87559
G01 X-4.52047 Y-2.82441
G01 X-4.52077 Y-2.82290
G01 X-4.52163 Y-2.82163
G01 X-4.52222 Y-2.82113
G01 X-4.52364 Y-2.82055
G01 X-4.57636 Y-2.82055
G01 X-4.57778 Y-2.82113
G01 X-4.57886 Y-2.82222
G01 X-4.57923 Y-2.82290
G01 X-4.57953 Y-2.82441
G01 X-4.57953 Y-2.83056
G01 X-4.60039 Y-2.83058
G01 X-4.60417 Y-2.83103
G01 X-4.60779 Y-2.83221
G01 X-4.61111 Y-2.83407
G01 X-4.61374 Y-2.83625
G01 X-4.68640 Y-2.90891
G01 X-4.69589 Y-2.90693
G01 X-4.70411 Y-2.90693
G01 X-4.71298 Y-2.90872
G01 X-4.72199 Y-2.91274
G01 X-4.72926 Y-2.91812
G01 X-4.73524 Y-2.92490
G01 X-4.73954 Y-2.93239
G01 X-4.74223 Y-2.94060
G01 X-4.74327 Y-2.94959
G01 X-4.74240 Y-2.95859
G01 X-4.73969 Y-2.96722
G01 X-4.73476 Y-2.97576
G01 X-4.72926 Y-2.98188
G01 X-4.72199 Y-2.98726
G01 X-4.71338 Y-2.99117
G01 X-4.70493 Y-2.99299
G01 X-4.69589 Y-2.99307
G01 X-4.68702 Y-2.99127
G01 X-4.67872 Y-2.98767
G01 X-4.67548 Y-2.98543
G04 P0 ( dwell for no time -- G64 should not smooth over this point )
G00 Z0.08000 ( retract )

G00 X-4.65673 Y-2.95035 ( rapid move to begin. )
G01 F0.50000
( Mill infeed pass 1/1 )
G01 Z-0.04000
G04 P0 ( dwell for no time -- G64 should not smooth over this point )
G01 F1.00000
G01 X-4.65673 Y-2.95035
G01 X-4.65759 Y-2.94141
G01 X-4.65908 Y-2.93656
G01 X-4.59195 Y-2.86944
G01 X-4.57953 Y-2.86944
G01 X-4.57945 Y-2.87636
G01 X-4.57886 Y-2.87778
G01 X-4.57837 Y-2.87837
G01 X-4.57778 Y-2.87886
G01 X-4.57636 Y-2.87945
G01 X-4.56944 Y-2.87953
G01 X-4.56942 Y-2.90698
G01 X-4.56912 Y-2.91000
G01 X-4.56809 Y-2.91366
G01 X-4.56593 Y-2.91770
G01 X-4.56483 Y-2.91904
G01 X-4.43472 Y-3.04935
G01 X-4.43472 Y-3.23056
G01 X-4.45372 Y-3.23056
G01 X-4.45523 Y-3.22863
G01 X-4.46018 Y-3.22429
G01 X-4.46554 Y-3.22123
G01 X-4.47220 Y-3.21913
G01 X-4.47835 Y-3.21850
G01 X-4.52206 Y-3.21853
G01 X-4.52820 Y-3.21919
G01 X-4.53408 Y-3.22108
G01 X-4.54017 Y-3.22452
G01 X-4.54477 Y-3.22863
G01 X-4.54870 Y-3.23391
G01 X-4.55146 Y-3.23988
G01 X-4.55208 Y-3.24237
G04 P0 ( dwell for no time -- G64 should not smooth over this point )
G00 Z0.08000 ( retract )

G00 X-4.45954 Y-3.35399 ( rapid move to begin. )
G01 F0.50000
( Mill infeed pass 1/1 )
G01 Z-0.04000
G04 P0 ( dwell for no time -- G64 should not smooth over this point )
G01 F1.00000
G01 X-4.45954 Y-3.35399
G01 X-4.45523 Y-3.35011
G01 X-4.45390 Y-3.34843
G01 X-4.43941 Y-3.34843
G04 P0 ( dwell for no time -- G64 should not smooth over this point )
G00 Z0.08000 ( retract )

G00 X-4.16721 Y-3.34465 ( rapid move to begin. )
G01 F0.50000
( Mill infeed pass 1/1 )
G01 Z-0.04000
G04 P0 ( dwell for no time -- G64 should not smooth over this point )
G01 F1.00000
G01 X-4.16721 Y-3.34465
G01 X-4.16482 Y-3.34266
G01 X-4.16172 Y-3.33956
G01 X-4.15473 Y-3.34105
G01 X-4.15200 Y-3.34113
G04 P0 ( dwell for no time -- G64 should not smooth over this point )
G00 Z0.08000 ( retract )

G00 X-4.09093 Y-3.25891 ( rapid move to begin. )
G01 F0.50000
( Mill infeed pass 1/1 )
G01 Z-0.04000
G04 P0 ( dwell for no time -- G64 should not smooth over this point )
G01 F1.00000
G01 X-4.09093 Y-3.25891
G01 X-4.09126 Y-3.25986
G01 X-4.09134 Y-3.26063
G01 X-4.09134 Y-3.33937
G01 X-4.09126 Y-3.34014
G01 X-4.09093 Y-3.34109
G04 P0 ( dwell for no time -- G64 should not smooth over this point )
G00 Z0.08000 ( retract )

G00 X-4.12956 Y-3.33591 ( rapid move to begin. )
G01 F0.50000
( Mill infeed pass 1/1 )
G01 Z-0.04000
G04 P0 ( dwell for no time -- G64 should not smooth over this point )
G01 F1.00000
G01 X-4.12956 Y-3.33591
G01 X-4.12205 Y-3.33043
G01 X-4.11633 Y-3.32395
G01 X-4.11224 Y-3.31681
G01 X-4.10967 Y-3.30899
G01 X-4.10866 Y-3.30000
G01 X-4.10967 Y-3.29101
G01 X-4.11242 Y-3.28282
G01 X-4.11633 Y-3.27605
G01 X-4.12205 Y-3.26957
G01 X-4.12957 Y-3.26409
G04 P0 ( dwell for no time -- G64 should not smooth over this point )
G00 Z0.08000 ( retract )

G00 X-4.18796 Y-3.28372 ( rapid move to begin. )
G01 F0.50000
( Mill infeed pass 1/1 )
G01 Z-0.04000
G04 P0 ( dwell for no time -- G64 should not smooth over this point )
G01 F1.00000
G01 X-4.18796 Y-3.28372
G01 X-4.19050 Y-3.29181
G01 X-4.19132 Y-3.29959
G01 X-4.19031 Y-3.30905
G01 X-4.45390 Y-3.30905
G01 X-4.45523 Y-3.30737
G01 X-4.46018 Y-3.30303
G01 X-4.46554 Y-3.29997
G01 X-4.47180 Y-3.29793
G01 X-4.47835 Y-3.29724
G01 X-4.52165 Y-3.29724
G01 X-4.52820 Y-3.29793
G01 X-4.53483 Y-3.30015
G01 X-4.54049 Y-3.30352
G01 X-4.54477 Y-3.30737
G01 X-4.54731 Y-3.31073
G04 P0 ( dwell for no time -- G64 should not smooth over this point )
G00 Z0.08000 ( retract )

G00 X-4.54731 Y-3.26801 ( rapid move to begin. )
G01 F0.50000
( Mill infeed pass 1/1 )
G01 Z-0.04000
G04 P0 ( dwell for no time -- G64 should not smooth over this point )
G01 F1.00000
G01 X-4.54731 Y-3.26801
G01 X-4.54477 Y-3.27137
G01 X-4.54017 Y-3.27548
G01 X-4.53408 Y-3.27892
G01 X-4.52820 Y-3.28081
G01 X-4.52165 Y-3.28150
G01 X-4.47835 Y-3.28150
G01 X-4.47220 Y-3.28087
G01 X-4.46592 Y-3.27892
G01 X-4.46018 Y-3.27570
G01 X-4.45523 Y-3.27137
G01 X-4.45372 Y-3.26944
G01 X-4.41979 Y-3.26944
G01 X-4.41638 Y-3.26912
G01 X-4.41271 Y-3.26809
G01 X-4.40868 Y-3.26593
G01 X-4.40604 Y-3.26374
G01 X-4.40154 Y-3.25924
G01 X-4.39893 Y-3.25596
G01 X-4.39749 Y-3.25328
G01 X-4.39698 Y-3.25185
G04 P0 ( dwell for no time -- G64 should not smooth over this point )
G00 Z0.08000 ( retract )

G00 X-4.48209 Y-3.13976 ( rapid move to begin. )
G01 F0.50000
( Mill infeed pass 1/1 )
G01 Z-0.04000
G04 P0 ( dwell for no time -- G64 should not smooth over this point )
G01 F1.00000
G01 X-4.48209 Y-3.13976
G01 X-4.47793 Y-3.13978
G01 X-4.47180 Y-3.14045
G01 X-4.46554 Y-3.14249
G01 X-4.46018 Y-3.14555
G01 X-4.45468 Y-3.15050
G01 X-4.45107 Y-3.15551
G01 X-4.44829 Y-3.16193
G01 X-4.44700 Y-3.16838
G01 X-4.44709 Y-3.17496
G01 X-4.44854 Y-3.18138
G01 X-4.45088 Y-3.18664
G01 X-4.45523 Y-3.19263
G01 X-4.45983 Y-3.19674
G01 X-4.46517 Y-3.19984
G01 X-4.47180 Y-3.20207
G01 X-4.47835 Y-3.20275
G01 X-4.52206 Y-3.20273
G01 X-4.52820 Y-3.20207
G01 X-4.53483 Y-3.19984
G01 X-4.54017 Y-3.19674
G01 X-4.54477 Y-3.19263
G01 X-4.54628 Y-3.19069
G01 X-4.58989 Y-3.19068
G04 P0 ( dwell for no time -- G64 should not smooth over this point )
G00 Z0.08000 ( retract )

G00 X-4.53954 Y-3.14539 ( rapid move to begin. )
G01 F0.50000
( Mill infeed pass 1/1 )
G01 Z-0.04000
G04 P0 ( dwell for no time -- G64 should not smooth over this point )
G01 F1.00000
G01 X-4.53954 Y-3.14539
G01 X-4.54049 Y-3.14604
G01 X-4.54477 Y-3.14989
G01 X-4.54627 Y-3.15182
G01 X-4.58147 Y-3.15182
G01 X-4.75541 Y-2.97788
G01 X-4.75541 Y-2.92212
G01 X-4.64164 Y-2.80835
G01 X-4.16494 Y-2.80835
G01 X-4.15155 Y-2.82174
G04 P0 ( dwell for no time -- G64 should not smooth over this point )
G00 Z0.08000 ( retract )

G00 X-3.97651 Y-2.81694 ( rapid move to begin. )
G01 F0.50000
( Mill infeed pass 1/1 )
G01 Z-0.04000
G04 P0 ( dwell for no time -- G64 should not smooth over this point )
G01 F1.00000
G01 X-3.97651 Y-2.81694
G01 X-4.06890 Y-2.81694
G01 X-4.07041 Y-2.81664
G01 X-4.07109 Y-2.81627
G01 X-4.07217 Y-2.81519
G01 X-4.07276 Y-2.81377
G01 X-4.07284 Y-2.81300
G01 X-4.07284 Y-2.68559
G01 X-4.27454 Y-2.58474
G01 X-4.27872 Y-2.58767
G01 X-4.28576 Y-2.59081
G04 P0 ( dwell for no time -- G64 should not smooth over this point )
G00 Z0.08000 ( retract )

G00 X-4.33057 Y-2.58041 ( rapid move to begin. )
G01 F0.50000
( Mill infeed pass 1/1 )
G01 Z-0.04000
G04 P0 ( dwell for no time -- G64 should not smooth over this point )
G01 F1.00000
G01 X-4.33057 Y-2.58041
G01 X-4.33503 Y-2.57543
G01 X-4.33832 Y-2.56969
G01 X-4.35931 Y-2.56969
G04 P0 ( dwell for no time -- G64 should not smooth over this point )
G00 Z0.08000 ( retract )

G00 X-4.35932 Y-2.53031 ( rapid move to begin. )
G01 F0.50000
( Mill infeed pass 1/1 )
G01 Z-0.04000
G04 P0 ( dwell for no time -- G64 should not smooth over this point )
G01 F1.00000
G01 X-4.35932 Y-2.53031
G01 X-4.33832 Y-2.53031
G01 X-4.33503 Y-2.52457
G01 X-4.33057 Y-2.51959
G04 P0 ( dwell for no time -- G64 should not smooth over this point )
G00 Z0.08000 ( retract )

G00 X-4.30119 Y-2.50693 ( rapid move to begin. )
G01 F0.50000
( Mill infeed pass 1/1 )
G01 Z-0.04000
G04 P0 ( dwell for no time -- G64 should not smooth over this point )
G01 F1.00000
G01 X-4.30119 Y-2.50693
G01 X-4.29507 Y-2.50701
G01 X-4.28640 Y-2.50892
G01 X-4.27141 Y-2.49392
G04 P0 ( dwell for no time -- G64 should not smooth over this point )
G00 Z0.08000 ( retract )

G00 X-4.21579 Y-2.49328 ( rapid move to begin. )
G01 F0.50000
( Mill infeed pass 1/1 )
G01 Z-0.04000
G04 P0 ( dwell for no time -- G64 should not smooth over this point )
G01 F1.00000
G01 X-4.21579 Y-2.49328
G01 X-4.25908 Y-2.53656
G01 X-4.25759 Y-2.54141
G01 X-4.25673 Y-2.54962
G01 X-4.20222 Y-2.57688
G04 P0 ( dwell for no time -- G64 should not smooth over this point )
G00 Z0.08000 ( retract )

G00 X-4.14511 Y-2.77353 ( rapid move to begin. )
G01 F0.50000
( Mill infeed pass 1/1 )
G01 Z-0.04000
G04 P0 ( dwell for no time -- G64 should not smooth over this point )
G01 F1.00000
G01 X-4.14511 Y-2.77353
G01 X-4.14314 Y-2.77516
G01 X-3.98775 Y-2.93056
G01 X-3.96880 Y-2.93056
G04 P0 ( dwell for no time -- G64 should not smooth over this point )
G00 Z0.08000 ( retract )

G00 X-4.01570 Y-3.15157 ( rapid move to begin. )
G01 F0.50000
( Mill infeed pass 1/1 )
G01 Z-0.04000
G04 P0 ( dwell for no time -- G64 should not smooth over this point )
G01 F1.00000
G01 X-4.01570 Y-3.15157
G01 X-4.03465 Y-3.15157
G01 X-4.04805 Y-3.13817
G04 P0 ( dwell for no time -- G64 should not smooth over this point )
G00 Z0.08000 ( retract )

G00 X-4.26691 Y-2.91931 ( rapid move to begin. )
G01 F0.50000
( Mill infeed pass 1/1 )
G01 Z-0.04000
G04 P0 ( dwell for no time -- G64 should not smooth over this point )
G01 F1.00000
G01 X-4.26691 Y-2.91931
G01 X-4.28031 Y-2.90591
G01 X-4.28031 Y-2.85000
G01 X-4.28063 Y-2.84654
G01 X-4.28168 Y-2.84283
G01 X-4.28343 Y-2.83939
G01 X-4.28636 Y-2.83582
G01 X-4.28939 Y-2.83343
G01 X-4.29212 Y-2.83198
G01 X-4.29578 Y-2.83079
G01 X-4.30000 Y-2.83031
G01 X-4.42976 Y-2.83031
G01 X-4.43214 Y-2.82780
G01 X-4.43647 Y-2.82465
G01 X-4.44207 Y-2.82206
G01 X-4.44808 Y-2.82070
G01 X-4.45425 Y-2.82061
G01 X-4.46070 Y-2.82192
G01 X-4.46668 Y-2.82465
G01 X-4.47101 Y-2.82780
G01 X-4.47520 Y-2.83232
G01 X-4.47855 Y-2.83799
G01 X-4.48035 Y-2.84346
G01 X-4.48110 Y-2.85000
G01 X-4.48035 Y-2.85654
G01 X-4.47836 Y-2.86238
G01 X-4.47520 Y-2.86768
G01 X-4.47101 Y-2.87220
G01 X-4.46668 Y-2.87535
G01 X-4.46070 Y-2.87808
G01 X-4.45507 Y-2.87930
G01 X-4.44808 Y-2.87930
G01 X-4.39106 Y-2.86969
G01 X-4.31969 Y-2.86969
G01 X-4.31968 Y-2.91161
G01 X-4.32199 Y-2.91274
G01 X-4.32864 Y-2.91757
G01 X-4.33476 Y-2.92424
G01 X-4.33936 Y-2.93203
G01 X-4.34051 Y-2.93531
G01 X-4.41714 Y-2.86969
G01 X-4.42976 Y-2.86969
G01 X-4.43214 Y-2.87220
G01 X-4.43523 Y-2.87445
G04 P0 ( dwell for no time -- G64 should not smooth over this point )
G00 Z0.08000 ( retract )

G00 X-4.66943 Y-2.58041 ( rapid move to begin. )
G01 F0.50000
( Mill infeed pass 1/1 )
G01 Z-0.04000
G04 P0 ( dwell for no time -- G64 should not smooth over this point )
G01 F1.00000
G01 X-4.66943 Y-2.58041
G01 X-4.66497 Y-2.57543
G01 X-4.66168 Y-2.56969
G01 X-4.64069 Y-2.56969
G04 P0 ( dwell for no time -- G64 should not smooth over this point )
G00 Z0.08000 ( retract )

G00 X-4.64068 Y-2.53031 ( rapid move to begin. )
G01 F0.50000
( Mill infeed pass 1/1 )
G01 Z-0.04000
G04 P0 ( dwell for no time -- G64 should not smooth over this point )
G01 F1.00000
G01 X-4.64068 Y-2.53031
G01 X-4.66168 Y-2.53031
G01 X-4.66497 Y-2.52457
G01 X-4.66943 Y-2.51958

G04 P0 ( dwell for no time -- G64 should not smooth over this point )
G00 Z1.000000 ( retract )

M5 ( Spindle off. )
G04 P1.000000
M9 ( Coolant off. )
M2 ( Program end. )

