( pcb2gcode 2.5.0 )
( Software-independent Gcode )

G94 ( Inches per minute feed rate. )
G20 ( Units == INCHES. )

G90 ( Absolute coordinates. )
G00 S12000 ( RPM spindle speed. )
G64 P0.00040 ( set maximum deviation from commanded toolpath )
G01 F1.00000 ( Feedrate. )


G00 Z1.00000 (Retract to tool change height)
T1
M5      (Spindle stop.)
G04 P1.00000 (Wait for spindle to stop)
(MSG, Change tool bit to mill diameter 0.11811in)
M6      (Tool change.)
M0      (Temporary machine stop.)
M3 ( Spindle on clockwise. )
G04 P1.00000 (Wait for spindle to get up to speed)
G04 P0 ( dwell for no time -- G64 should not smooth over this point )
G00 Z0.08000 ( retract )

G00 X-3.25186 Y-2.84270 ( rapid move to begin. )
G01 F0.50000
( Mill infeed pass 1/1 )
G01 Z-0.04000
G04 P0 ( dwell for no time -- G64 should not smooth over this point )
G01 F1.00000
G01 X-3.25186 Y-2.84270
G01 X-3.24270 Y-2.85186
G01 X-3.24230 Y-2.85247
G01 X-3.24270 Y-2.85186
G01 X-3.24270 Y-2.84270
G01 X-3.25186 Y-2.84270
G01 X-3.25282 Y-2.84230
G04 P0 ( dwell for no time -- G64 should not smooth over this point )
G00 Z0.08000 ( retract )

G00 X-3.32455 Y-3.10353 ( rapid move to begin. )
G01 F0.50000
( Mill infeed pass 1/1 )
G01 Z-0.04000
G04 P0 ( dwell for no time -- G64 should not smooth over this point )
G01 F1.00000
G01 X-3.32455 Y-3.10353
G01 X-3.32456 Y-3.01397
G01 X-3.32837 Y-3.00933
G01 X-3.33480 Y-2.99970
G01 X-3.33844 Y-2.99290
G01 X-3.34287 Y-2.98220
G01 X-3.34511 Y-2.97482
G01 X-3.34736 Y-2.96346
G01 X-3.34795 Y-2.95748
G01 X-3.37112 Y-2.93432
G01 X-3.37441 Y-2.93465
G01 X-3.42559 Y-2.93465
G01 X-3.43711 Y-2.93351
G01 X-3.44819 Y-2.93015
G01 X-3.45840 Y-2.92469
G01 X-3.45855 Y-2.92457
G01 X-3.45853 Y-2.92406
G01 X-3.45855 Y-2.92453
G01 X-3.46079 Y-2.92572
G01 X-3.47149 Y-2.93015
G01 X-3.47386 Y-2.93087
G01 X-3.54571 Y-3.00272
G01 X-3.55235 Y-3.00854
G01 X-3.56197 Y-3.01497
G01 X-3.56466 Y-3.01640
G01 X-3.57535 Y-3.02083
G01 X-3.57826 Y-3.02171
G01 X-3.58412 Y-3.02288
G01 X-3.59067 Y-3.02837
G01 X-3.60030 Y-3.03480
G01 X-3.60710 Y-3.03844
G01 X-3.61780 Y-3.04287
G01 X-3.62518 Y-3.04511
G01 X-3.63653 Y-3.04736
G01 X-3.64421 Y-3.04812
G01 X-3.65579 Y-3.04812
G01 X-3.66346 Y-3.04736
G01 X-3.67482 Y-3.04511
G01 X-3.68220 Y-3.04287
G01 X-3.69297 Y-3.03840
G01 X-3.69970 Y-3.03480
G01 X-3.70933 Y-3.02837
G01 X-3.71397 Y-3.02455
G01 X-3.99580 Y-3.02455
G01 X-4.00159 Y-3.02427
G01 X-4.00461 Y-3.02397
G01 X-4.01596 Y-3.02171
G01 X-4.01887 Y-3.02083
G01 X-4.02957 Y-3.01640
G01 X-4.03225 Y-3.01497
G01 X-4.04188 Y-3.00854
G01 X-4.04422 Y-3.00661
G01 X-4.04852 Y-3.00272
G01 X-4.18777 Y-2.86346
G01 X-4.22519 Y-2.86346
G01 X-4.22559 Y-2.86306
G01 X-4.22519 Y-2.86346
G01 X-4.22519 Y-2.88308
G01 X-4.01182 Y-3.09645
G01 X-3.46509 Y-3.09645
G01 X-3.46004 Y-3.09372
G01 X-3.44934 Y-3.08929
G01 X-3.44417 Y-3.08772
G01 X-3.43282 Y-3.08546
G01 X-3.42744 Y-3.08493
G01 X-3.42165 Y-3.08465
G01 X-3.37835 Y-3.08465
G01 X-3.37256 Y-3.08493
G01 X-3.36718 Y-3.08546
G01 X-3.35583 Y-3.08772
G01 X-3.35066 Y-3.08929
G01 X-3.33996 Y-3.09372
G01 X-3.33520 Y-3.09626
G01 X-3.32557 Y-3.10270
G01 X-3.32455 Y-3.10353
G01 X-3.32415 Y-3.10438
G04 P0 ( dwell for no time -- G64 should not smooth over this point )
G00 Z0.08000 ( retract )

G00 X-3.67103 Y-3.24566 ( rapid move to begin. )
G01 F0.50000
( Mill infeed pass 1/1 )
G01 Z-0.04000
G04 P0 ( dwell for no time -- G64 should not smooth over this point )
G01 F1.00000
G01 X-3.67103 Y-3.24566
G01 X-3.67042 Y-3.24599
G01 X-3.66740 Y-3.25052
G01 X-3.65803 Y-3.25393
G01 X-3.50807 Y-3.25393
G01 X-3.50759 Y-3.25440
G01 X-3.50798 Y-3.25402
G01 X-3.50798 Y-3.24598
G01 X-3.50759 Y-3.24560
G01 X-3.50807 Y-3.24606
G01 X-3.67028 Y-3.24606
G01 X-3.67116 Y-3.24560
G04 P0 ( dwell for no time -- G64 should not smooth over this point )
G00 Z0.08000 ( retract )

G00 X-3.96831 Y-2.87206 ( rapid move to begin. )
G01 F0.50000
( Mill infeed pass 1/1 )
G01 Z-0.04000
G04 P0 ( dwell for no time -- G64 should not smooth over this point )
G01 F1.00000
G01 X-3.96831 Y-2.87206
G01 X-3.93110 Y-2.87206
G01 X-3.91958 Y-2.87092
G01 X-3.90850 Y-2.86756
G01 X-3.89829 Y-2.86210
G01 X-3.88934 Y-2.85476
G01 X-3.88200 Y-2.84581
G01 X-3.87654 Y-2.83560
G01 X-3.87318 Y-2.82452
G01 X-3.87204 Y-2.81300
G01 X-3.87204 Y-2.75395
G01 X-3.87244 Y-2.75355
G01 X-3.87204 Y-2.75395
G01 X-3.74610 Y-2.75395
G01 X-3.73458 Y-2.75282
G01 X-3.72350 Y-2.74946
G01 X-3.71329 Y-2.74400
G01 X-3.70738 Y-2.73915
G01 X-3.62567 Y-2.82087
G01 X-3.62137 Y-2.82476
G01 X-3.61903 Y-2.82669
G01 X-3.60940 Y-2.83312
G01 X-3.60672 Y-2.83455
G01 X-3.59602 Y-2.83898
G01 X-3.59358 Y-2.83972
G01 X-3.59281 Y-2.83952
G01 X-3.59358 Y-2.83972
G01 X-3.61299 Y-2.85913
G01 X-3.61780 Y-2.85713
G01 X-3.62518 Y-2.85489
G01 X-3.63653 Y-2.85263
G01 X-3.64421 Y-2.85188
G01 X-3.65579 Y-2.85188
G01 X-3.66346 Y-2.85263
G01 X-3.67482 Y-2.85489
G01 X-3.68220 Y-2.85713
G01 X-3.69290 Y-2.86156
G01 X-3.69970 Y-2.86520
G01 X-3.70933 Y-2.87163
G01 X-3.71397 Y-2.87544
G01 X-3.96492 Y-2.87544
G01 X-3.96831 Y-2.87206
G01 X-3.96927 Y-2.87166
G04 P0 ( dwell for no time -- G64 should not smooth over this point )
G00 Z0.08000 ( retract )

G00 X-3.85751 Y-2.47805 ( rapid move to begin. )
G01 F0.50000
( Mill infeed pass 1/1 )
G01 Z-0.04000
G04 P0 ( dwell for no time -- G64 should not smooth over this point )
G01 F1.00000
G01 X-3.85751 Y-2.47805
G01 X-3.83752 Y-2.49804
G01 X-3.80739 Y-2.49804
G01 X-3.80642 Y-2.49844
G01 X-3.80739 Y-2.49804
G01 X-3.82738 Y-2.47805
G01 X-3.85751 Y-2.47805
G01 X-3.85847 Y-2.47765
G04 P0 ( dwell for no time -- G64 should not smooth over this point )
G00 Z0.08000 ( retract )

G00 X-4.12755 Y-2.48243 ( rapid move to begin. )
G01 F0.50000
( Mill infeed pass 1/1 )
G01 Z-0.04000
G04 P0 ( dwell for no time -- G64 should not smooth over this point )
G01 F1.00000
G01 X-4.12755 Y-2.48243
G01 X-4.12795 Y-2.48339
G01 X-4.17395 Y-2.52939
G01 X-4.12795 Y-2.55239
G01 X-4.12755 Y-2.55303
G01 X-4.12795 Y-2.55239
G01 X-4.12795 Y-2.48339
G04 P0 ( dwell for no time -- G64 should not smooth over this point )
G00 Z0.08000 ( retract )

G00 X-4.12771 Y-2.72061 ( rapid move to begin. )
G01 F0.50000
( Mill infeed pass 1/1 )
G01 Z-0.04000
G04 P0 ( dwell for no time -- G64 should not smooth over this point )
G01 F1.00000
G01 X-4.12771 Y-2.72061
G01 X-4.12796 Y-2.72022
G01 X-4.12796 Y-2.71966
G01 X-4.27652 Y-2.64537
G01 X-4.28653 Y-2.64736
G01 X-4.29421 Y-2.64812
G01 X-4.30579 Y-2.64812
G01 X-4.31346 Y-2.64736
G01 X-4.32482 Y-2.64511
G01 X-4.33220 Y-2.64287
G01 X-4.34290 Y-2.63844
G01 X-4.34970 Y-2.63480
G01 X-4.35933 Y-2.62837
G01 X-4.36367 Y-2.62480
G01 X-4.63633 Y-2.62480
G01 X-4.64067 Y-2.62837
G01 X-4.65030 Y-2.63480
G01 X-4.65710 Y-2.63844
G01 X-4.66780 Y-2.64287
G01 X-4.67518 Y-2.64511
G01 X-4.68653 Y-2.64736
G01 X-4.69421 Y-2.64812
G01 X-4.70579 Y-2.64812
G01 X-4.71347 Y-2.64736
G01 X-4.72482 Y-2.64511
G01 X-4.73220 Y-2.64287
G01 X-4.74290 Y-2.63844
G01 X-4.74970 Y-2.63480
G01 X-4.75932 Y-2.62837
G01 X-4.76529 Y-2.62347
G01 X-4.77347 Y-2.61529
G01 X-4.77837 Y-2.60933
G01 X-4.78480 Y-2.59970
G01 X-4.78844 Y-2.59290
G01 X-4.79287 Y-2.58220
G01 X-4.79511 Y-2.57482
G01 X-4.79736 Y-2.56346
G01 X-4.79812 Y-2.55579
G01 X-4.79812 Y-2.54421
G01 X-4.79736 Y-2.53653
G01 X-4.79511 Y-2.52518
G01 X-4.79287 Y-2.51780
G01 X-4.78844 Y-2.50710
G01 X-4.78480 Y-2.50030
G01 X-4.77837 Y-2.49067
G01 X-4.77347 Y-2.48471
G01 X-4.76529 Y-2.47653
G01 X-4.75932 Y-2.47163
G01 X-4.74970 Y-2.46520
G01 X-4.74290 Y-2.46156
G01 X-4.73220 Y-2.45713
G01 X-4.72482 Y-2.45489
G01 X-4.71347 Y-2.45263
G01 X-4.70579 Y-2.45188
G01 X-4.69421 Y-2.45188
G01 X-4.68653 Y-2.45263
G01 X-4.67518 Y-2.45489
G01 X-4.66780 Y-2.45713
G01 X-4.65710 Y-2.46156
G01 X-4.65030 Y-2.46520
G01 X-4.64067 Y-2.47163
G01 X-4.63633 Y-2.47519
G01 X-4.36367 Y-2.47519
G01 X-4.35933 Y-2.47163
G01 X-4.34970 Y-2.46520
G01 X-4.34290 Y-2.46156
G01 X-4.33220 Y-2.45713
G01 X-4.32482 Y-2.45489
G01 X-4.31346 Y-2.45263
G01 X-4.30748 Y-2.45205
G01 X-4.20622 Y-2.35078
G01 X-4.19957 Y-2.34496
G01 X-4.18995 Y-2.33853
G01 X-4.18727 Y-2.33710
G01 X-4.17657 Y-2.33267
G01 X-4.17366 Y-2.33178
G01 X-4.16231 Y-2.32953
G01 X-4.15350 Y-2.32894
G01 X-3.79650 Y-2.32894
G01 X-3.78769 Y-2.32953
G01 X-3.77633 Y-2.33178
G01 X-3.77343 Y-2.33267
G01 X-3.76273 Y-2.33710
G01 X-3.76005 Y-2.33853
G01 X-3.75042 Y-2.34496
G01 X-3.74808 Y-2.34689
G01 X-3.74378 Y-2.35078
G01 X-3.64252 Y-2.45205
G01 X-3.63653 Y-2.45263
G01 X-3.62518 Y-2.45489
G01 X-3.61780 Y-2.45713
G01 X-3.60710 Y-2.46156
G01 X-3.60030 Y-2.46520
G01 X-3.59067 Y-2.47163
G01 X-3.58633 Y-2.47519
G01 X-3.31367 Y-2.47519
G01 X-3.30932 Y-2.47163
G01 X-3.29970 Y-2.46520
G01 X-3.29290 Y-2.46156
G01 X-3.28220 Y-2.45713
G01 X-3.27482 Y-2.45489
G01 X-3.26347 Y-2.45263
G01 X-3.25579 Y-2.45188
G01 X-3.24421 Y-2.45188
G01 X-3.23653 Y-2.45263
G01 X-3.22518 Y-2.45489
G01 X-3.21780 Y-2.45713
G01 X-3.20710 Y-2.46156
G01 X-3.20030 Y-2.46520
G01 X-3.19067 Y-2.47163
G01 X-3.18471 Y-2.47653
G01 X-3.17652 Y-2.48471
G01 X-3.17163 Y-2.49067
G01 X-3.16520 Y-2.50030
G01 X-3.16156 Y-2.50710
G01 X-3.15713 Y-2.51780
G01 X-3.15489 Y-2.52518
G01 X-3.15264 Y-2.53653
G01 X-3.15188 Y-2.54421
G01 X-3.15188 Y-2.55579
G01 X-3.15264 Y-2.56346
G01 X-3.15489 Y-2.57482
G01 X-3.15713 Y-2.58220
G01 X-3.16156 Y-2.59290
G01 X-3.16520 Y-2.59970
G01 X-3.17163 Y-2.60933
G01 X-3.17652 Y-2.61529
G01 X-3.18471 Y-2.62347
G01 X-3.19067 Y-2.62837
G01 X-3.20030 Y-2.63480
G01 X-3.20710 Y-2.63844
G01 X-3.21780 Y-2.64287
G01 X-3.22518 Y-2.64511
G01 X-3.23653 Y-2.64736
G01 X-3.24421 Y-2.64812
G01 X-3.25579 Y-2.64812
G01 X-3.26347 Y-2.64736
G01 X-3.27482 Y-2.64511
G01 X-3.28220 Y-2.64287
G01 X-3.29290 Y-2.63844
G01 X-3.29970 Y-2.63480
G01 X-3.30932 Y-2.62837
G01 X-3.31367 Y-2.62480
G01 X-3.58633 Y-2.62480
G01 X-3.59067 Y-2.62837
G01 X-3.60030 Y-2.63480
G01 X-3.60066 Y-2.63499
G01 X-3.60133 Y-2.63490
G01 X-3.60066 Y-2.63499
G01 X-3.54207 Y-2.69359
G01 X-3.21071 Y-2.69359
G01 X-3.20190 Y-2.69418
G01 X-3.19054 Y-2.69643
G01 X-3.18764 Y-2.69732
G01 X-3.17694 Y-2.70175
G01 X-3.17426 Y-2.70318
G01 X-3.16464 Y-2.70961
G01 X-3.16229 Y-2.71154
G01 X-3.15799 Y-2.71543
G01 X-3.11543 Y-2.75799
G01 X-3.10961 Y-2.76464
G01 X-3.10318 Y-2.77426
G01 X-3.10175 Y-2.77694
G01 X-3.09732 Y-2.78764
G01 X-3.09643 Y-2.79054
G01 X-3.09418 Y-2.80190
G01 X-3.09359 Y-2.81071
G01 X-3.09359 Y-3.21762
G01 X-3.09418 Y-3.22643
G01 X-3.09643 Y-3.23779
G01 X-3.09732 Y-3.24070
G01 X-3.10175 Y-3.25139
G01 X-3.10318 Y-3.25407
G01 X-3.10961 Y-3.26370
G01 X-3.11543 Y-3.27034
G01 X-3.29661 Y-3.45152
G01 X-3.30325 Y-3.45734
G01 X-3.31288 Y-3.46377
G01 X-3.31556 Y-3.46520
G01 X-3.32625 Y-3.46963
G01 X-3.32916 Y-3.47051
G01 X-3.34051 Y-3.47277
G01 X-3.34933 Y-3.47335
G01 X-3.82157 Y-3.47335
G01 X-3.83038 Y-3.47277
G01 X-3.84174 Y-3.47051
G01 X-3.84464 Y-3.46963
G01 X-3.85534 Y-3.46520
G01 X-3.85802 Y-3.46377
G01 X-3.86764 Y-3.45734
G01 X-3.87429 Y-3.45152
G01 X-3.90272 Y-3.42309
G01 X-3.90854 Y-3.41645
G01 X-3.91497 Y-3.40682
G01 X-3.91640 Y-3.40414
G01 X-3.92083 Y-3.39344
G01 X-3.92171 Y-3.39054
G01 X-3.92250 Y-3.38659
G01 X-3.92916 Y-3.38113
G01 X-3.93455 Y-3.37455
G01 X-3.96544 Y-3.37455
G01 X-3.97084 Y-3.38113
G01 X-3.97979 Y-3.38847
G01 X-3.99000 Y-3.39393
G01 X-4.00108 Y-3.39729
G01 X-4.01260 Y-3.39843
G01 X-4.08740 Y-3.39843
G01 X-4.09892 Y-3.39729
G01 X-4.11000 Y-3.39393
G01 X-4.11686 Y-3.39026
G01 X-4.11682 Y-3.38984
G01 X-4.11687 Y-3.39037
G01 X-4.11854 Y-3.39107
G01 X-4.12556 Y-3.39319
G01 X-4.13691 Y-3.39545
G01 X-4.14421 Y-3.39617
G01 X-4.14680 Y-3.39617
G01 X-4.15557 Y-3.39980
G01 X-4.15852 Y-3.40070
G01 X-4.16988 Y-3.40296
G01 X-4.17295 Y-3.40326
G01 X-4.17874 Y-3.40354
G01 X-4.43491 Y-3.40354
G01 X-4.43996 Y-3.40628
G01 X-4.45066 Y-3.41071
G01 X-4.45583 Y-3.41228
G01 X-4.46718 Y-3.41454
G01 X-4.47256 Y-3.41507
G01 X-4.47835 Y-3.41535
G01 X-4.52165 Y-3.41535
G01 X-4.52744 Y-3.41507
G01 X-4.53282 Y-3.41454
G01 X-4.54417 Y-3.41228
G01 X-4.54934 Y-3.41071
G01 X-4.56004 Y-3.40628
G01 X-4.56480 Y-3.40374
G01 X-4.57443 Y-3.39730
G01 X-4.57860 Y-3.39388
G01 X-4.58679 Y-3.38569
G01 X-4.59022 Y-3.38151
G01 X-4.59665 Y-3.37189
G01 X-4.59920 Y-3.36712
G01 X-4.60363 Y-3.35643
G01 X-4.60520 Y-3.35126
G01 X-4.60745 Y-3.33990
G01 X-4.60798 Y-3.33453
G01 X-4.60798 Y-3.32295
G01 X-4.60745 Y-3.31758
G01 X-4.60520 Y-3.30622
G01 X-4.60363 Y-3.30105
G01 X-4.59920 Y-3.29035
G01 X-4.59867 Y-3.28937
G01 X-4.59822 Y-3.28937
G01 X-4.59867 Y-3.28937
G01 X-4.59920 Y-3.28838
G01 X-4.60363 Y-3.27769
G01 X-4.60520 Y-3.27252
G01 X-4.60745 Y-3.26116
G01 X-4.60798 Y-3.25579
G01 X-4.60798 Y-3.24421
G01 X-4.60791 Y-3.24345
G01 X-4.60733 Y-3.24304
G01 X-4.60777 Y-3.24335
G01 X-4.60968 Y-3.24297
G01 X-4.61259 Y-3.24209
G01 X-4.62329 Y-3.23766
G01 X-4.62597 Y-3.23623
G01 X-4.63559 Y-3.22980
G01 X-4.64224 Y-3.22398
G01 X-4.82757 Y-3.03865
G01 X-4.83339 Y-3.03200
G01 X-4.83982 Y-3.02238
G01 X-4.84125 Y-3.01970
G01 X-4.84568 Y-3.00900
G01 X-4.84656 Y-3.00609
G01 X-4.84882 Y-2.99474
G01 X-4.84912 Y-2.99172
G01 X-4.84940 Y-2.98593
G01 X-4.84940 Y-2.91407
G01 X-4.84882 Y-2.90526
G01 X-4.84656 Y-2.89390
G01 X-4.84568 Y-2.89100
G01 X-4.84125 Y-2.88030
G01 X-4.83982 Y-2.87762
G01 X-4.83339 Y-2.86800
G01 X-4.82757 Y-2.86135
G01 X-4.70240 Y-2.73619
G01 X-4.69576 Y-2.73037
G01 X-4.68614 Y-2.72394
G01 X-4.68346 Y-2.72251
G01 X-4.67276 Y-2.71808
G01 X-4.66985 Y-2.71719
G01 X-4.65850 Y-2.71494
G01 X-4.64969 Y-2.71435
G01 X-4.15689 Y-2.71435
G01 X-4.14808 Y-2.71494
G01 X-4.13672 Y-2.71719
G01 X-4.13381 Y-2.71808
G01 X-4.12771 Y-2.72061
G01 X-4.12734 Y-2.72119
G04 P0 ( dwell for no time -- G64 should not smooth over this point )
G00 Z0.08000 ( retract )

G00 X-4.39812 Y-2.95303 ( rapid move to begin. )
G01 F0.50000
( Mill infeed pass 1/1 )
G01 Z-0.04000
G04 P0 ( dwell for no time -- G64 should not smooth over this point )
G01 F1.00000
G01 X-4.39812 Y-2.95303
G01 X-4.39812 Y-2.94421
G01 X-4.39736 Y-2.93653
G01 X-4.39499 Y-2.92481
G01 X-4.41222 Y-2.92481
G01 X-4.41394 Y-2.92572
G01 X-4.42206 Y-2.92909
G01 X-4.42277 Y-2.92895
G01 X-4.42206 Y-2.92909
G01 X-4.39812 Y-2.95303
G01 X-4.39772 Y-2.95400
G04 P0 ( dwell for no time -- G64 should not smooth over this point )
G00 Z0.08000 ( retract )

G00 X-4.34132 Y-3.03866 ( rapid move to begin. )
G01 F0.50000
( Mill infeed pass 1/1 )
G01 Z-0.04000
G04 P0 ( dwell for no time -- G64 should not smooth over this point )
G01 F1.00000
G01 X-4.34132 Y-3.03866
G01 X-4.34094 Y-3.03925
G01 X-4.33220 Y-3.04287
G01 X-4.32482 Y-3.04511
G01 X-4.31346 Y-3.04736
G01 X-4.30579 Y-3.04812
G01 X-4.29421 Y-3.04812
G01 X-4.28653 Y-3.04736
G01 X-4.27485 Y-3.04501
G01 X-4.11238 Y-3.20747
G01 X-4.11168 Y-3.20761
G01 X-4.11256 Y-3.20743
G01 X-4.11686 Y-3.20974
G01 X-4.11682 Y-3.21016
G01 X-4.11687 Y-3.20963
G01 X-4.11854 Y-3.20893
G01 X-4.12556 Y-3.20680
G01 X-4.13691 Y-3.20455
G01 X-4.14421 Y-3.20383
G01 X-4.15579 Y-3.20383
G01 X-4.16308 Y-3.20455
G01 X-4.17444 Y-3.20680
G01 X-4.18145 Y-3.20893
G01 X-4.19215 Y-3.21336
G01 X-4.19862 Y-3.21682
G01 X-4.20824 Y-3.22325
G01 X-4.21391 Y-3.22790
G01 X-4.22210 Y-3.23609
G01 X-4.22675 Y-3.24176
G01 X-4.23318 Y-3.25138
G01 X-4.23444 Y-3.25374
G01 X-4.34117 Y-3.25383
G01 X-4.34172 Y-3.25433
G01 X-4.34128 Y-3.25393
G01 X-4.34073 Y-3.24550
G01 X-4.34073 Y-3.04130
G01 X-4.34094 Y-3.03925
G04 P0 ( dwell for no time -- G64 should not smooth over this point )
G00 Z0.08000 ( retract )

G00 X-4.48944 Y-3.08505 ( rapid move to begin. )
G01 F0.50000
( Mill infeed pass 1/1 )
G01 Z-0.04000
G04 P0 ( dwell for no time -- G64 should not smooth over this point )
G01 F1.00000
G01 X-4.48944 Y-3.08505
G01 X-4.48984 Y-3.08465
G01 X-4.52165 Y-3.08465
G01 X-4.52744 Y-3.08493
G01 X-4.53282 Y-3.08546
G01 X-4.54417 Y-3.08772
G01 X-4.54934 Y-3.08929
G01 X-4.56004 Y-3.09372
G01 X-4.56107 Y-3.09427
G01 X-4.63329 Y-3.02205
G01 X-4.63385 Y-3.02205
G01 X-4.63329 Y-3.02205
G01 X-4.62652 Y-3.01529
G01 X-4.62163 Y-3.00933
G01 X-4.61520 Y-2.99970
G01 X-4.61156 Y-2.99290
G01 X-4.60713 Y-2.98220
G01 X-4.60489 Y-2.97482
G01 X-4.60264 Y-2.96346
G01 X-4.60227 Y-2.95976
G01 X-4.48984 Y-3.07218
G01 X-4.48984 Y-3.08465

G00 Z1.00000 (Retract to tool change height)
T2
M5      (Spindle stop.)
G04 P1.00000 (Wait for spindle to stop)
(MSG, Change tool bit to mill diameter 0.00787in)
M6      (Tool change.)
M0      (Temporary machine stop.)
M3 ( Spindle on clockwise. )
G04 P1.00000 (Wait for spindle to get up to speed)
G04 P0 ( dwell for no time -- G64 should not smooth over this point )
G00 Z0.08000 ( retract )

G00 X-3.28077 Y-2.51958 ( rapid move to begin. )
G01 F0.50000
( Mill infeed pass 1/1 )
G01 Z-0.04000
G04 P0 ( dwell for no time -- G64 should not smooth over this point )
G01 F1.00000
G01 X-3.28077 Y-2.51958
G01 X-3.28576 Y-2.52564
G01 X-3.28834 Y-2.53031
G01 X-3.31040 Y-2.53031
G04 P0 ( dwell for no time -- G64 should not smooth over this point )
G00 Z0.08000 ( retract )

G00 X-3.28078 Y-2.58041 ( rapid move to begin. )
G01 F0.50000
( Mill infeed pass 1/1 )
G01 Z-0.04000
G04 P0 ( dwell for no time -- G64 should not smooth over this point )
G01 F1.00000
G01 X-3.28078 Y-2.58041
G01 X-3.28576 Y-2.57436
G01 X-3.28834 Y-2.56969
G01 X-3.31039 Y-2.56969
G04 P0 ( dwell for no time -- G64 should not smooth over this point )
G00 Z0.08000 ( retract )

G00 X-3.58960 Y-2.53031 ( rapid move to begin. )
G01 F0.50000
( Mill infeed pass 1/1 )
G01 Z-0.04000
G04 P0 ( dwell for no time -- G64 should not smooth over this point )
G01 F1.00000
G01 X-3.58960 Y-2.53031
G01 X-3.61165 Y-2.53031
G01 X-3.61424 Y-2.52564
G01 X-3.61923 Y-2.51958
G04 P0 ( dwell for no time -- G64 should not smooth over this point )
G00 Z0.08000 ( retract )

G00 X-3.65074 Y-2.50677 ( rapid move to begin. )
G01 F0.50000
( Mill infeed pass 1/1 )
G01 Z-0.04000
G04 P0 ( dwell for no time -- G64 should not smooth over this point )
G01 F1.00000
G01 X-3.65074 Y-2.50677
G01 X-3.65806 Y-2.50749
G01 X-3.66346 Y-2.50905
G01 X-3.67832 Y-2.49419
G04 P0 ( dwell for no time -- G64 should not smooth over this point )
G00 Z0.08000 ( retract )

G00 X-3.58961 Y-2.56969 ( rapid move to begin. )
G01 F0.50000
( Mill infeed pass 1/1 )
G01 Z-0.04000
G04 P0 ( dwell for no time -- G64 should not smooth over this point )
G01 F1.00000
G01 X-3.58961 Y-2.56969
G01 X-3.61165 Y-2.56969
G01 X-3.61424 Y-2.57436
G01 X-3.61923 Y-2.58042
G01 X-3.54595 Y-2.74871
G01 X-3.56490 Y-2.74871
G01 X-3.70136 Y-2.61226
G01 X-3.70399 Y-2.61007
G01 X-3.70803 Y-2.60791
G01 X-3.71169 Y-2.60688
G01 X-3.71471 Y-2.60658
G01 X-3.74216 Y-2.60656
G01 X-3.74216 Y-2.55710
G01 X-3.74224 Y-2.55633
G01 X-3.74283 Y-2.55491
G01 X-3.74391 Y-2.55383
G01 X-3.74533 Y-2.55324
G01 X-3.74610 Y-2.55316
G01 X-3.86035 Y-2.55316
G01 X-3.91935 Y-2.49416
G01 X-3.92263 Y-2.49154
G01 X-3.92531 Y-2.49011
G01 X-3.92716 Y-2.48947
G01 X-3.92716 Y-2.43900
G01 X-3.92724 Y-2.43823
G01 X-3.92783 Y-2.43681
G01 X-3.92891 Y-2.43573
G01 X-3.93033 Y-2.43514
G01 X-3.93110 Y-2.43506
G01 X-4.06890 Y-2.43506
G01 X-4.07041 Y-2.43536
G01 X-4.07109 Y-2.43573
G01 X-4.07217 Y-2.43681
G01 X-4.07276 Y-2.43823
G01 X-4.07284 Y-2.43900
G01 X-4.07284 Y-2.57680
G01 X-4.07276 Y-2.57757
G01 X-4.07217 Y-2.57899
G01 X-4.07109 Y-2.58007
G01 X-4.07041 Y-2.58044
G01 X-4.06890 Y-2.58074
G01 X-3.93033 Y-2.58066
G01 X-3.92891 Y-2.58007
G01 X-3.92783 Y-2.57899
G01 X-3.92746 Y-2.57831
G01 X-3.92716 Y-2.57680
G01 X-3.92716 Y-2.54133
G01 X-3.88784 Y-2.58065
G01 X-3.88784 Y-2.69490
G01 X-3.88754 Y-2.69641
G01 X-3.88717 Y-2.69709
G01 X-3.88609 Y-2.69817
G01 X-3.88541 Y-2.69854
G01 X-3.88390 Y-2.69884
G01 X-3.88039 Y-2.69884
G01 X-3.92716 Y-2.74561
G01 X-3.92716 Y-2.67520
G01 X-3.92724 Y-2.67443
G01 X-3.92783 Y-2.67301
G01 X-3.92891 Y-2.67193
G01 X-3.93033 Y-2.67134
G01 X-3.93110 Y-2.67126
G01 X-4.01345 Y-2.67126
G01 X-4.14529 Y-2.60534
G01 X-4.16062 Y-2.43811
G01 X-4.14545 Y-2.42294
G01 X-3.80455 Y-2.42294
G01 X-3.69095 Y-2.53654
G01 X-3.69251 Y-2.54194
G01 X-3.69327 Y-2.54961
G01 X-3.69236 Y-2.55882
G01 X-3.69012 Y-2.56620
G01 X-3.68619 Y-2.57372
G01 X-3.68032 Y-2.58087
G01 X-3.67372 Y-2.58619
G01 X-3.66620 Y-2.59012
G01 X-3.65882 Y-2.59236
G01 X-3.64961 Y-2.59327
G01 X-3.64194 Y-2.59251
G01 X-3.63432 Y-2.59028
G04 P0 ( dwell for no time -- G64 should not smooth over this point )
G00 Z0.08000 ( retract )

G00 X-3.74237 Y-2.69610 ( rapid move to begin. )
G01 F0.50000
( Mill infeed pass 1/1 )
G01 Z-0.04000
G04 P0 ( dwell for no time -- G64 should not smooth over this point )
G01 F1.00000
G01 X-3.74237 Y-2.69610
G01 X-3.74216 Y-2.69490
G01 X-3.74216 Y-2.64544
G01 X-3.72315 Y-2.64544
G01 X-3.67137 Y-2.69722
G01 X-3.63058 Y-2.91151
G01 X-3.57407 Y-2.78749
G01 X-3.63058 Y-2.91151
G01 X-3.62564 Y-2.91424
G01 X-3.61968 Y-2.91913
G01 X-3.61424 Y-2.92564
G01 X-3.61152 Y-2.93056
G01 X-3.60648 Y-2.93056
G01 X-3.52779 Y-2.85187
G01 X-3.52793 Y-2.84961
G01 X-3.52744 Y-2.84462
G01 X-3.52583 Y-2.83906
G01 X-3.52318 Y-2.83393
G01 X-3.51902 Y-2.82886
G01 X-3.51450 Y-2.82525
G01 X-3.50936 Y-2.82259
G01 X-3.50380 Y-2.82098
G01 X-3.49804 Y-2.82049
G01 X-3.49229 Y-2.82113
G01 X-3.48678 Y-2.82288
G01 X-3.48171 Y-2.82568
G01 X-3.47729 Y-2.82941
G01 X-3.47368 Y-2.83393
G01 X-3.47131 Y-2.83835
G01 X-3.46956 Y-2.84386
G01 X-3.46892 Y-2.84961
G01 X-3.46941 Y-2.85538
G01 X-3.47101 Y-2.86094
G01 X-3.47368 Y-2.86607
G01 X-3.47783 Y-2.87114
G01 X-3.48057 Y-2.87338
G01 X-3.51070 Y-2.88976
G01 X-3.50030 Y-2.87936
G01 X-3.49804 Y-2.87951
G01 X-3.49258 Y-2.87892
G01 X-3.49804 Y-2.87951
G01 X-3.50030 Y-2.87936
G01 X-3.51070 Y-2.88976
G01 X-3.29323 Y-2.94926
G01 X-3.29251 Y-2.94194
G01 X-3.29095 Y-2.93654
G01 X-3.35805 Y-2.86944
G01 X-3.37047 Y-2.86944
G01 X-3.37055 Y-2.87636
G01 X-3.37114 Y-2.87778
G01 X-3.37162 Y-2.87837
G01 X-3.37274 Y-2.87914
G04 P0 ( dwell for no time -- G64 should not smooth over this point )
G00 Z0.08000 ( retract )

G00 X-3.46119 Y-3.15157 ( rapid move to begin. )
G01 F0.50000
( Mill infeed pass 1/1 )
G01 Z-0.04000
G04 P0 ( dwell for no time -- G64 should not smooth over this point )
G01 F1.00000
G01 X-3.46119 Y-3.15157
G01 X-3.44607 Y-3.15157
G01 X-3.44364 Y-3.14873
G01 X-3.43975 Y-3.14554
G01 X-3.61873 Y-2.97984
G01 X-3.61424 Y-2.97436
G01 X-3.61152 Y-2.96944
G01 X-3.59818 Y-2.96942
G04 P0 ( dwell for no time -- G64 should not smooth over this point )
G00 Z0.08000 ( retract )

G00 X-3.48057 Y-2.87338 ( rapid move to begin. )
G01 F0.50000
( Mill infeed pass 1/1 )
G01 Z-0.04000
G04 P0 ( dwell for no time -- G64 should not smooth over this point )
G01 F1.00000
G01 X-3.48057 Y-2.87338
G01 X-3.42924 Y-2.87706
G01 X-3.42953 Y-2.87559
G01 X-3.42953 Y-2.82441
G01 X-3.42923 Y-2.82290
G01 X-3.42837 Y-2.82163
G01 X-3.42710 Y-2.82077
G01 X-3.42559 Y-2.82047
G01 X-3.37364 Y-2.82055
G01 X-3.37222 Y-2.82113
G01 X-3.37114 Y-2.82222
G01 X-3.37077 Y-2.82290
G01 X-3.37047 Y-2.82441
G01 X-3.37047 Y-2.83056
G01 X-3.35000 Y-2.83056
G01 X-3.34659 Y-2.83088
G01 X-3.34221 Y-2.83221
G01 X-3.33889 Y-2.83407
G01 X-3.33625 Y-2.83625
G01 X-3.26346 Y-2.90905
G01 X-3.25806 Y-2.90749
G01 X-3.25190 Y-2.90688
G01 X-3.24097 Y-2.90770
G01 X-3.23380 Y-2.90988
G01 X-3.22564 Y-2.91424
G01 X-3.21968 Y-2.91913
G01 X-3.21424 Y-2.92564
G01 X-3.21017 Y-2.93309
G01 X-3.20764 Y-2.94118
G01 X-3.20673 Y-2.94961
G01 X-3.20764 Y-2.95882
G01 X-3.21017 Y-2.96691
G01 X-3.21424 Y-2.97436
G01 X-3.21968 Y-2.98087
G01 X-3.22564 Y-2.98576
G01 X-3.23056 Y-2.98848
G01 X-3.23056 Y-3.18021
G01 X-3.23103 Y-3.18438
G01 X-3.23221 Y-3.18800
G01 X-3.23364 Y-3.19068
G01 X-3.23625 Y-3.19395
G01 X-3.30604 Y-3.26374
G01 X-3.30868 Y-3.26593
G01 X-3.31200 Y-3.26779
G01 X-3.31562 Y-3.26897
G01 X-3.31979 Y-3.26944
G01 X-3.35372 Y-3.26944
G01 X-3.35636 Y-3.27253
G01 X-3.36118 Y-3.27639
G01 X-3.36666 Y-3.27923
G01 X-3.37258 Y-3.28095
G01 X-3.37835 Y-3.28150
G01 X-3.42204 Y-3.28148
G01 X-3.42741 Y-3.28095
G01 X-3.43334 Y-3.27923
G01 X-3.43946 Y-3.27596
G01 X-3.44364 Y-3.27253
G01 X-3.44761 Y-3.26781
G01 X-3.45059 Y-3.26240
G01 X-3.45237 Y-3.25677
G01 X-3.50008 Y-3.30905
G01 X-3.44607 Y-3.30905
G01 X-3.44364 Y-3.30621
G01 X-3.43946 Y-3.30278
G01 X-3.43405 Y-3.29981
G01 X-3.42817 Y-3.29794
G01 X-3.42204 Y-3.29726
G01 X-3.37835 Y-3.29724
G01 X-3.37258 Y-3.29779
G01 X-3.36666 Y-3.29951
G01 X-3.36118 Y-3.30235
G01 X-3.35636 Y-3.30621
G01 X-3.35196 Y-3.31157
G01 X-3.34912 Y-3.31705
G01 X-3.34740 Y-3.32298
G01 X-3.34687 Y-3.32835
G01 X-3.34740 Y-3.33450
G01 X-3.34912 Y-3.34043
G01 X-3.35196 Y-3.34591
G01 X-3.35636 Y-3.35127
G01 X-3.36054 Y-3.35470
G01 X-3.36594 Y-3.35767
G01 X-3.37258 Y-3.35969
G01 X-3.37835 Y-3.36024
G01 X-3.42165 Y-3.36024
G01 X-3.42741 Y-3.35969
G01 X-3.43334 Y-3.35797
G01 X-3.43882 Y-3.35513
G01 X-3.44364 Y-3.35127
G01 X-3.44607 Y-3.34843
G01 X-3.67160 Y-3.34841
G01 X-3.67502 Y-3.34805
G01 X-3.67801 Y-3.34723
G01 X-3.72277 Y-3.33089
G01 X-3.72736 Y-3.33457
G01 X-3.73383 Y-3.33803
G01 X-3.74156 Y-3.34045
G01 X-3.74961 Y-3.34132
G01 X-3.75768 Y-3.34060
G01 X-3.76546 Y-3.33832
G01 X-3.77328 Y-3.33414
G01 X-3.77949 Y-3.32894
G01 X-3.78457 Y-3.32264
G01 X-3.78803 Y-3.31617
G01 X-3.79045 Y-3.30844
G01 X-3.79132 Y-3.29961
G01 X-3.79045 Y-3.29156
G01 X-3.78832 Y-3.28454
G01 X-3.78457 Y-3.27736
G01 X-3.77949 Y-3.27106
G01 X-3.77264 Y-3.26543
G01 X-3.76546 Y-3.26168
G01 X-3.75844 Y-3.25955
G01 X-3.75039 Y-3.25868
G01 X-3.74156 Y-3.25955
G01 X-3.73454 Y-3.26168
G01 X-3.72736 Y-3.26543
G01 X-3.72105 Y-3.27051
G01 X-3.72022 Y-3.27141
G01 X-3.67280 Y-3.30722
G01 X-3.66778 Y-3.30905
G01 X-3.66243 Y-3.30905
G01 X-3.68967 Y-3.30106
G01 X-3.70924 Y-3.29392
G01 X-3.70955 Y-3.29156
G01 X-3.71168 Y-3.28454
G01 X-3.71286 Y-3.28216
G04 P0 ( dwell for no time -- G64 should not smooth over this point )
G00 Z0.08000 ( retract )

G00 X-3.86930 Y-3.37193 ( rapid move to begin. )
G01 F0.50000
( Mill infeed pass 1/1 )
G01 Z-0.04000
G04 P0 ( dwell for no time -- G64 should not smooth over this point )
G01 F1.00000
G01 X-3.86930 Y-3.37193
G01 X-3.86944 Y-3.37037
G01 X-3.86944 Y-3.34331
G01 X-3.88777 Y-3.34327
G01 X-3.96886 Y-3.31944
G01 X-4.00866 Y-3.31944
G01 X-4.00870 Y-3.33975
G01 X-3.93114 Y-3.31944
G01 X-3.89134 Y-3.31944
G01 X-3.89130 Y-3.33974
G04 P0 ( dwell for no time -- G64 should not smooth over this point )
G00 Z0.08000 ( retract )

G00 X-3.50008 Y-3.30905 ( rapid move to begin. )
G01 F0.50000
( Mill infeed pass 1/1 )
G01 Z-0.04000
G04 P0 ( dwell for no time -- G64 should not smooth over this point )
G01 F1.00000
G01 X-3.50008 Y-3.30905
G01 X-3.45237 Y-3.24323
G01 X-3.45059 Y-3.23760
G01 X-3.44761 Y-3.23219
G01 X-3.44364 Y-3.22747
G01 X-3.43882 Y-3.22361
G01 X-3.43334 Y-3.22077
G01 X-3.42741 Y-3.21905
G01 X-3.42204 Y-3.21852
G01 X-3.37796 Y-3.21852
G01 X-3.37183 Y-3.21920
G01 X-3.36594 Y-3.22107
G01 X-3.36054 Y-3.22404
G01 X-3.35636 Y-3.22747
G01 X-3.35372 Y-3.23056
G01 X-3.32784 Y-3.23056
G01 X-3.26944 Y-3.17216
G01 X-3.26944 Y-2.98848
G01 X-3.27436 Y-2.98576
G01 X-3.28028 Y-2.98090
G01 X-3.35501 Y-3.15026
G01 X-3.35196 Y-3.15409
G01 X-3.34941 Y-3.15886
G01 X-3.34740 Y-3.16550
G01 X-3.34687 Y-3.17087
G01 X-3.34740 Y-3.17702
G01 X-3.34941 Y-3.18366
G01 X-3.35196 Y-3.18843
G01 X-3.35582 Y-3.19324
G01 X-3.36118 Y-3.19765
G01 X-3.36594 Y-3.20019
G01 X-3.37183 Y-3.20206
G01 X-3.37835 Y-3.20275
G01 X-3.42165 Y-3.20275
G01 X-3.42741 Y-3.20221
G01 X-3.43334 Y-3.20049
G01 X-3.43882 Y-3.19765
G01 X-3.44364 Y-3.19379
G01 X-3.44607 Y-3.19095
G01 X-4.04280 Y-3.19095
G01 X-4.04626 Y-3.19062
G01 X-4.04997 Y-3.18958
G01 X-4.05341 Y-3.18783
G01 X-4.05672 Y-3.18518
G01 X-4.26573 Y-2.97618
G01 X-4.26968 Y-2.98087
G01 X-4.27564 Y-2.98576
G01 X-4.28308 Y-2.98983
G01 X-4.28515 Y-2.99053
G01 X-4.39656 Y-3.03632
G01 X-4.39749 Y-3.03351
G01 X-4.39893 Y-3.03084
G01 X-4.40154 Y-3.02756
G01 X-4.53056 Y-2.89854
G01 X-4.53056 Y-2.87953
G01 X-4.52441 Y-2.87953
G01 X-4.52290 Y-2.87923
G01 X-4.52222 Y-2.87886
G01 X-4.52114 Y-2.87778
G01 X-4.52077 Y-2.87710
G01 X-4.52047 Y-2.87559
G01 X-4.52047 Y-2.82441
G01 X-4.52077 Y-2.82290
G01 X-4.52163 Y-2.82163
G01 X-4.52222 Y-2.82113
G01 X-4.52364 Y-2.82055
G01 X-4.57636 Y-2.82055
G01 X-4.57778 Y-2.82113
G01 X-4.57886 Y-2.82222
G01 X-4.57923 Y-2.82290
G01 X-4.57953 Y-2.82441
G01 X-4.57953 Y-2.83056
G01 X-4.60039 Y-2.83058
G01 X-4.60417 Y-2.83103
G01 X-4.60779 Y-2.83221
G01 X-4.61111 Y-2.83407
G01 X-4.61374 Y-2.83625
G01 X-4.68654 Y-2.90905
G01 X-4.69194 Y-2.90749
G01 X-4.69961 Y-2.90673
G01 X-4.70882 Y-2.90764
G01 X-4.71620 Y-2.90988
G01 X-4.72372 Y-2.91381
G01 X-4.73087 Y-2.91968
G01 X-4.73619 Y-2.92628
G01 X-4.74012 Y-2.93380
G01 X-4.74236 Y-2.94118
G01 X-4.74327 Y-2.94961
G01 X-4.74251 Y-2.95806
G01 X-4.74012 Y-2.96620
G01 X-4.73619 Y-2.97372
G01 X-4.73087 Y-2.98032
G01 X-4.72436 Y-2.98576
G01 X-4.71691 Y-2.98983
G01 X-4.70882 Y-2.99236
G01 X-4.70038 Y-2.99327
G01 X-4.69194 Y-2.99251
G01 X-4.68380 Y-2.99012
G01 X-4.67628 Y-2.98619
G01 X-4.67530 Y-2.98549
G04 P0 ( dwell for no time -- G64 should not smooth over this point )
G00 Z0.08000 ( retract )

G00 X-4.43959 Y-3.34843 ( rapid move to begin. )
G01 F0.50000
( Mill infeed pass 1/1 )
G01 Z-0.04000
G04 P0 ( dwell for no time -- G64 should not smooth over this point )
G01 F1.00000
G01 X-4.43959 Y-3.34843
G01 X-4.45393 Y-3.34843
G01 X-4.45636 Y-3.35127
G01 X-4.45972 Y-3.35403
G04 P0 ( dwell for no time -- G64 should not smooth over this point )
G00 Z0.08000 ( retract )

G00 X-4.39709 Y-3.25222 ( rapid move to begin. )
G01 F0.50000
( Mill infeed pass 1/1 )
G01 Z-0.04000
G04 P0 ( dwell for no time -- G64 should not smooth over this point )
G01 F1.00000
G01 X-4.39709 Y-3.25222
G01 X-4.39749 Y-3.25328
G01 X-4.39893 Y-3.25596
G01 X-4.40154 Y-3.25924
G01 X-4.40604 Y-3.26374
G01 X-4.40868 Y-3.26593
G01 X-4.41271 Y-3.26809
G01 X-4.41638 Y-3.26912
G01 X-4.41979 Y-3.26944
G01 X-4.45372 Y-3.26944
G01 X-4.45636 Y-3.27253
G01 X-4.46118 Y-3.27639
G01 X-4.46666 Y-3.27923
G01 X-4.47258 Y-3.28095
G01 X-4.47835 Y-3.28150
G01 X-4.52165 Y-3.28150
G01 X-4.52742 Y-3.28095
G01 X-4.53334 Y-3.27923
G01 X-4.53946 Y-3.27596
G01 X-4.54364 Y-3.27253
G01 X-4.54670 Y-3.26892
G01 X-4.58927 Y-3.19070
G01 X-4.55205 Y-3.24216
G01 X-4.55059 Y-3.23760
G01 X-4.54804 Y-3.23283
G01 X-4.54364 Y-3.22747
G01 X-4.53882 Y-3.22361
G01 X-4.53406 Y-3.22107
G01 X-4.52742 Y-3.21905
G01 X-4.52165 Y-3.21850
G01 X-4.47835 Y-3.21850
G01 X-4.47258 Y-3.21905
G01 X-4.46666 Y-3.22077
G01 X-4.46118 Y-3.22361
G01 X-4.45636 Y-3.22747
G01 X-4.45372 Y-3.23056
G01 X-4.43472 Y-3.23056
G01 X-4.43472 Y-3.04935
G01 X-4.56489 Y-2.91896
G01 X-4.56593 Y-2.91770
G01 X-4.56809 Y-2.91366
G01 X-4.56912 Y-2.91000
G01 X-4.56942 Y-2.90698
G01 X-4.56944 Y-2.87953
G01 X-4.57636 Y-2.87945
G01 X-4.57778 Y-2.87886
G01 X-4.57837 Y-2.87837
G01 X-4.57886 Y-2.87778
G01 X-4.57945 Y-2.87636
G01 X-4.57953 Y-2.86944
G01 X-4.59195 Y-2.86944
G01 X-4.65905 Y-2.93654
G01 X-4.65749 Y-2.94194
G01 X-4.65673 Y-2.95034
G01 X-4.53851 Y-3.14471
G01 X-4.53946 Y-3.14530
G01 X-4.54364 Y-3.14873
G01 X-4.54627 Y-3.15182
G01 X-4.58147 Y-3.15182
G01 X-4.75541 Y-2.97788
G01 X-4.75541 Y-2.92212
G01 X-4.64163 Y-2.80835
G01 X-4.16494 Y-2.80835
G01 X-4.15155 Y-2.82173
G01 X-4.26691 Y-2.91931
G01 X-4.28031 Y-2.90591
G01 X-4.28031 Y-2.85000
G01 X-4.28063 Y-2.84654
G01 X-4.28198 Y-2.84212
G01 X-4.28386 Y-2.83875
G01 X-4.28636 Y-2.83582
G01 X-4.28939 Y-2.83343
G01 X-4.29212 Y-2.83198
G01 X-4.29578 Y-2.83079
G01 X-4.30000 Y-2.83031
G01 X-4.42969 Y-2.83031
G01 X-4.43098 Y-2.82886
G01 X-4.43486 Y-2.82568
G01 X-4.43992 Y-2.82288
G01 X-4.44544 Y-2.82113
G01 X-4.45119 Y-2.82049
G01 X-4.45695 Y-2.82098
G01 X-4.46251 Y-2.82259
G01 X-4.46765 Y-2.82525
G01 X-4.47217 Y-2.82886
G01 X-4.47632 Y-2.83393
G01 X-4.47869 Y-2.83835
G01 X-4.48044 Y-2.84386
G01 X-4.48108 Y-2.84961
G01 X-4.48044 Y-2.85614
G01 X-4.47869 Y-2.86165
G01 X-4.47632 Y-2.86607
G01 X-4.47271 Y-2.87059
G01 X-4.46765 Y-2.87475
G01 X-4.46251 Y-2.87741
G01 X-4.45771 Y-2.87887
G01 X-4.45196 Y-2.87951
G01 X-4.44660 Y-2.87906
G01 X-4.39088 Y-2.86969
G01 X-4.31969 Y-2.86969
G01 X-4.31969 Y-2.91166
G01 X-4.32436 Y-2.91424
G01 X-4.33087 Y-2.91968
G01 X-4.33619 Y-2.92628
G01 X-4.33983 Y-2.93309
G01 X-4.34091 Y-2.93641
G01 X-4.41525 Y-2.86969
G01 X-4.42969 Y-2.86969
G01 X-4.43098 Y-2.87114
G01 X-4.43543 Y-2.87470
G01 X-4.34256 Y-2.95752
G01 X-4.34236 Y-2.95882
G01 X-4.34012 Y-2.96620
G01 X-4.33619 Y-2.97372
G01 X-4.33032 Y-2.98087
G01 X-4.32436 Y-2.98576
G01 X-4.32323 Y-2.98645
G01 X-4.32436 Y-2.98576
G01 X-4.33032 Y-2.98087
G01 X-4.33619 Y-2.97372
G01 X-4.34012 Y-2.96620
G01 X-4.34236 Y-2.95882
G01 X-4.34256 Y-2.95752
G01 X-4.39656 Y-3.03632
G04 P0 ( dwell for no time -- G64 should not smooth over this point )
G00 Z0.08000 ( retract )

G00 X-4.48150 Y-3.13976 ( rapid move to begin. )
G01 F0.50000
( Mill infeed pass 1/1 )
G01 Z-0.04000
G04 P0 ( dwell for no time -- G64 should not smooth over this point )
G01 F1.00000
G01 X-4.48150 Y-3.13976
G01 X-4.47796 Y-3.13978
G01 X-4.47183 Y-3.14046
G01 X-4.46594 Y-3.14233
G01 X-4.46054 Y-3.14530
G01 X-4.45582 Y-3.14927
G01 X-4.45196 Y-3.15409
G01 X-4.44912 Y-3.15957
G01 X-4.44755 Y-3.16474
G01 X-4.44687 Y-3.17087
G01 X-4.44740 Y-3.17702
G01 X-4.44941 Y-3.18366
G01 X-4.45196 Y-3.18843
G01 X-4.45582 Y-3.19324
G01 X-4.46054 Y-3.19722
G01 X-4.46594 Y-3.20019
G01 X-4.47183 Y-3.20206
G01 X-4.47835 Y-3.20275
G01 X-4.52204 Y-3.20274
G01 X-4.52817 Y-3.20206
G01 X-4.53406 Y-3.20019
G01 X-4.53946 Y-3.19722
G01 X-4.54364 Y-3.19379
G01 X-4.54627 Y-3.19070
G01 X-4.58927 Y-3.19070
G01 X-4.54670 Y-3.26892
G01 X-4.54670 Y-3.30982
G01 X-4.54364 Y-3.30621
G01 X-4.53946 Y-3.30278
G01 X-4.53406 Y-3.29981
G01 X-4.52817 Y-3.29794
G01 X-4.52165 Y-3.29724
G01 X-4.47835 Y-3.29724
G01 X-4.47258 Y-3.29779
G01 X-4.46666 Y-3.29951
G01 X-4.46118 Y-3.30235
G01 X-4.45636 Y-3.30621
G01 X-4.45393 Y-3.30905
G01 X-4.19026 Y-3.30905
G01 X-4.19060 Y-3.30768
G01 X-4.19132 Y-3.30038
G01 X-4.19060 Y-3.29232
G01 X-4.18832 Y-3.28454
G01 X-4.18748 Y-3.28281
G04 P0 ( dwell for no time -- G64 should not smooth over this point )
G00 Z0.08000 ( retract )

G00 X-4.04805 Y-3.13817 ( rapid move to begin. )
G01 F0.50000
( Mill infeed pass 1/1 )
G01 Z-0.04000
G04 P0 ( dwell for no time -- G64 should not smooth over this point )
G01 F1.00000
G01 X-4.04805 Y-3.13817
G01 X-4.03465 Y-3.15157
G01 X-4.01570 Y-3.15157
G04 P0 ( dwell for no time -- G64 should not smooth over this point )
G00 Z0.08000 ( retract )

G00 X-4.09109 Y-3.25928 ( rapid move to begin. )
G01 F0.50000
( Mill infeed pass 1/1 )
G01 Z-0.04000
G04 P0 ( dwell for no time -- G64 should not smooth over this point )
G01 F1.00000
G01 X-4.09109 Y-3.25928
G01 X-4.09134 Y-3.26063
G01 X-4.09134 Y-3.33937
G01 X-4.09109 Y-3.34072
G01 X-4.15189 Y-3.34117
G01 X-4.15768 Y-3.34060
G01 X-4.16164 Y-3.33948
G01 X-4.16482 Y-3.34266
G01 X-4.16720 Y-3.34464
G01 X-4.16482 Y-3.34266
G01 X-4.16164 Y-3.33948
G01 X-4.15768 Y-3.34060
G01 X-4.15189 Y-3.34117
G01 X-4.09109 Y-3.34072
G01 X-4.13073 Y-3.33637
G01 X-4.12672 Y-3.33414
G01 X-4.12106 Y-3.32949
G01 X-4.11543 Y-3.32264
G01 X-4.11168 Y-3.31546
G01 X-4.10955 Y-3.30844
G01 X-4.10868 Y-3.29961
G01 X-4.10955 Y-3.29156
G01 X-4.11168 Y-3.28454
G01 X-4.11543 Y-3.27736
G01 X-4.12106 Y-3.27051
G01 X-4.12672 Y-3.26586
G01 X-4.13073 Y-3.26363
G01 X-4.08669 Y-3.25669
G01 X-4.01260 Y-3.25669
G01 X-4.01109 Y-3.25699
G01 X-4.00981 Y-3.25785
G01 X-4.00932 Y-3.25844
G01 X-4.00874 Y-3.25986
G01 X-4.00866 Y-3.28056
G01 X-3.89134 Y-3.28056
G01 X-3.89126 Y-3.25986
G01 X-3.89067 Y-3.25844
G01 X-3.88959 Y-3.25736
G01 X-3.88891 Y-3.25699
G01 X-3.88740 Y-3.25669
G01 X-3.81260 Y-3.25669
G01 X-3.81109 Y-3.25699
G01 X-3.80981 Y-3.25785
G01 X-3.80896 Y-3.25912
G01 X-3.80866 Y-3.26063
G01 X-3.80874 Y-3.34014
G01 X-3.80932 Y-3.34156
G01 X-3.80981 Y-3.34215
G01 X-3.81109 Y-3.34301
G01 X-3.81183 Y-3.34323
G01 X-3.83056 Y-3.34331
G01 X-3.83056 Y-3.36232
G01 X-3.81352 Y-3.37936
G01 X-3.35738 Y-3.37936
G01 X-3.18759 Y-3.20957
G01 X-3.18759 Y-2.81876
G01 X-3.21876 Y-2.78759
G01 X-3.57407 Y-2.78749
G01 X-3.71070 Y-2.93056
G01 X-3.68848 Y-2.93056
G01 X-3.68576 Y-2.92564
G01 X-3.68090 Y-2.91972
G04 P0 ( dwell for no time -- G64 should not smooth over this point )
G00 Z0.08000 ( retract )

G00 X-3.68090 Y-2.98028 ( rapid move to begin. )
G01 F0.50000
( Mill infeed pass 1/1 )
G01 Z-0.04000
G04 P0 ( dwell for no time -- G64 should not smooth over this point )
G01 F1.00000
G01 X-3.68090 Y-2.98028
G01 X-3.68576 Y-2.97436
G01 X-3.68848 Y-2.96944
G01 X-3.71070 Y-2.96944
G04 P0 ( dwell for no time -- G64 should not smooth over this point )
G00 Z0.08000 ( retract )

G00 X-3.96880 Y-2.93056 ( rapid move to begin. )
G01 F0.50000
( Mill infeed pass 1/1 )
G01 Z-0.04000
G04 P0 ( dwell for no time -- G64 should not smooth over this point )
G01 F1.00000
G01 X-3.96880 Y-2.93056
G01 X-3.98775 Y-2.93056
G01 X-4.14314 Y-2.77516
G01 X-4.14519 Y-2.77346
G01 X-4.28616 Y-2.59084
G01 X-4.28308 Y-2.58983
G01 X-4.27628 Y-2.58619
G01 X-4.27445 Y-2.58479
G01 X-4.07284 Y-2.68559
G01 X-4.07284 Y-2.81300
G01 X-4.07276 Y-2.81377
G01 X-4.07217 Y-2.81519
G01 X-4.07109 Y-2.81627
G01 X-4.07041 Y-2.81664
G01 X-4.06890 Y-2.81694
G01 X-3.97722 Y-2.81694
G04 P0 ( dwell for no time -- G64 should not smooth over this point )
G00 Z0.08000 ( retract )

G00 X-4.07284 Y-2.56056 ( rapid move to begin. )
G01 F0.50000
( Mill infeed pass 1/1 )
G01 Z-0.04000
G04 P0 ( dwell for no time -- G64 should not smooth over this point )
G01 F1.00000
G01 X-4.07284 Y-2.56056
G01 X-4.20222 Y-2.57688
G01 X-4.25673 Y-2.54962
G01 X-4.25749 Y-2.54194
G01 X-4.25905 Y-2.53654
G01 X-4.21579 Y-2.49328
G04 P0 ( dwell for no time -- G64 should not smooth over this point )
G00 Z0.08000 ( retract )

G00 X-4.27168 Y-2.49420 ( rapid move to begin. )
G01 F0.50000
( Mill infeed pass 1/1 )
G01 Z-0.04000
G04 P0 ( dwell for no time -- G64 should not smooth over this point )
G01 F1.00000
G01 X-4.27168 Y-2.49420
G01 X-4.28653 Y-2.50905
G01 X-4.29194 Y-2.50749
G01 X-4.29926 Y-2.50677
G04 P0 ( dwell for no time -- G64 should not smooth over this point )
G00 Z0.08000 ( retract )

G00 X-4.33077 Y-2.51958 ( rapid move to begin. )
G01 F0.50000
( Mill infeed pass 1/1 )
G01 Z-0.04000
G04 P0 ( dwell for no time -- G64 should not smooth over this point )
G01 F1.00000
G01 X-4.33077 Y-2.51958
G01 X-4.33576 Y-2.52564
G01 X-4.33834 Y-2.53031
G01 X-4.36040 Y-2.53031
G04 P0 ( dwell for no time -- G64 should not smooth over this point )
G00 Z0.08000 ( retract )

G00 X-4.33078 Y-2.58041 ( rapid move to begin. )
G01 F0.50000
( Mill infeed pass 1/1 )
G01 Z-0.04000
G04 P0 ( dwell for no time -- G64 should not smooth over this point )
G01 F1.00000
G01 X-4.33078 Y-2.58041
G01 X-4.33576 Y-2.57436
G01 X-4.33834 Y-2.56969
G01 X-4.36039 Y-2.56969
G04 P0 ( dwell for no time -- G64 should not smooth over this point )
G00 Z0.08000 ( retract )

G00 X-4.63960 Y-2.53031 ( rapid move to begin. )
G01 F0.50000
( Mill infeed pass 1/1 )
G01 Z-0.04000
G04 P0 ( dwell for no time -- G64 should not smooth over this point )
G01 F1.00000
G01 X-4.63960 Y-2.53031
G01 X-4.66165 Y-2.53031
G01 X-4.66424 Y-2.52564
G01 X-4.66923 Y-2.51958
G04 P0 ( dwell for no time -- G64 should not smooth over this point )
G00 Z0.08000 ( retract )

G00 X-4.63961 Y-2.56969 ( rapid move to begin. )
G01 F0.50000
( Mill infeed pass 1/1 )
G01 Z-0.04000
G04 P0 ( dwell for no time -- G64 should not smooth over this point )
G01 F1.00000
G01 X-4.63961 Y-2.56969
G01 X-4.66165 Y-2.56969
G01 X-4.66424 Y-2.57436
G01 X-4.66923 Y-2.58042

G04 P0 ( dwell for no time -- G64 should not smooth over this point )
G00 Z1.000000 ( retract )

M5 ( Spindle off. )
G04 P1.000000
M9 ( Coolant off. )
M2 ( Program end. )

