( pcb2gcode 1.3.2 )
( Software-independent Gcode )
( This file uses a mill head of 0.04000inch to drill the 1 bit sizes. )
( Bit sizes: [0.11811 inch] )

G94       (Inches per minute feed rate.)
G20       (Units == INCHES.)
G91.1     (Incremental arc distance mode.)
G90       (Absolute coordinates.)
S10000    (RPM spindle speed.)
G01 F100.00000 (Feedrate)
M3        (Spindle on clockwise.)
G04 P1.00000
G00 Z0.08000

G0 X3.92254 Y-2.39823
G1 Z-0.02963
G2 X3.99880 Y-2.38130 I0.03813 J0.00846
G1 X4.07746 Y-2.73563
G2 X4.00120 Y-2.75256 I-0.03813 J-0.00846
G1 X3.92254 Y-2.39823
G1 Z-0.05926
G2 X3.99880 Y-2.38130 I0.03813 J0.00846
G1 X4.07746 Y-2.73563
G2 X4.00120 Y-2.75256 I-0.03813 J-0.00846
G1 X3.92254 Y-2.39823
G1 Z-0.08889
G2 X3.99880 Y-2.38130 I0.03813 J0.00846
G1 X4.07746 Y-2.73563
G2 X4.00120 Y-2.75256 I-0.03813 J-0.00846
G1 X3.92254 Y-2.39823
G1 Z-0.11852
G2 X3.99880 Y-2.38130 I0.03813 J0.00846
G1 X4.07746 Y-2.73563
G2 X4.00120 Y-2.75256 I-0.03813 J-0.00846
G1 X3.92254 Y-2.39823
G1 Z-0.14815
G2 X3.99880 Y-2.38130 I0.03813 J0.00846
G1 X4.07746 Y-2.73563
G2 X4.00120 Y-2.75256 I-0.03813 J-0.00846
G1 X3.92254 Y-2.39823
G1 Z-0.17778
G2 X3.99880 Y-2.38130 I0.03813 J0.00846
G1 X4.07746 Y-2.73563
G2 X4.00120 Y-2.75256 I-0.03813 J-0.00846
G1 X3.92254 Y-2.39823
G1 Z-0.20741
G2 X3.99880 Y-2.38130 I0.03813 J0.00846
G1 X4.07746 Y-2.73563
G2 X4.00120 Y-2.75256 I-0.03813 J-0.00846
G1 X3.92254 Y-2.39823
G1 Z-0.23704
G2 X3.99880 Y-2.38130 I0.03813 J0.00846
G1 X4.07746 Y-2.73563
G2 X4.00120 Y-2.75256 I-0.03813 J-0.00846
G1 X3.92254 Y-2.39823
G1 Z-0.26667
G2 X3.99880 Y-2.38130 I0.03813 J0.00846
G1 X4.07746 Y-2.73563
G2 X4.00120 Y-2.75256 I-0.03813 J-0.00846
G1 X3.92254 Y-2.39823
G1 Z-0.29630
G2 X3.99880 Y-2.38130 I0.03813 J0.00846
G1 X4.07746 Y-2.73563
G2 X4.00120 Y-2.75256 I-0.03813 J-0.00846
G1 X3.92254 Y-2.39823
G1 Z-0.32593
G2 X3.99880 Y-2.38130 I0.03813 J0.00846
G1 X4.07746 Y-2.73563
G2 X4.00120 Y-2.75256 I-0.03813 J-0.00846
G1 X3.92254 Y-2.39823
G1 Z-0.35556
G2 X3.99880 Y-2.38130 I0.03813 J0.00846
G1 X4.07746 Y-2.73563
G2 X4.00120 Y-2.75256 I-0.03813 J-0.00846
G1 X3.92254 Y-2.39823
G1 Z-0.38519
G2 X3.99880 Y-2.38130 I0.03813 J0.00846
G1 X4.07746 Y-2.73563
G2 X4.00120 Y-2.75256 I-0.03813 J-0.00846
G1 X3.92254 Y-2.39823
G1 Z-0.41481
G2 X3.99880 Y-2.38130 I0.03813 J0.00846
G1 X4.07746 Y-2.73563
G2 X4.00120 Y-2.75256 I-0.03813 J-0.00846
G1 X3.92254 Y-2.39823
G1 Z-0.44444
G2 X3.99880 Y-2.38130 I0.03813 J0.00846
G1 X4.07746 Y-2.73563
G2 X4.00120 Y-2.75256 I-0.03813 J-0.00846
G1 X3.92254 Y-2.39823
G1 Z-0.47407
G2 X3.99880 Y-2.38130 I0.03813 J0.00846
G1 X4.07746 Y-2.73563
G2 X4.00120 Y-2.75256 I-0.03813 J-0.00846
G1 X3.92254 Y-2.39823
G1 Z-0.50370
G2 X3.99880 Y-2.38130 I0.03813 J0.00846
G1 X4.07746 Y-2.73563
G2 X4.00120 Y-2.75256 I-0.03813 J-0.00846
G1 X3.92254 Y-2.39823
G1 Z-0.53333
G2 X3.99880 Y-2.38130 I0.03813 J0.00846
G1 X4.07746 Y-2.73563
G2 X4.00120 Y-2.75256 I-0.03813 J-0.00846
G1 X3.92254 Y-2.39823
G1 Z-0.56296
G2 X3.99880 Y-2.38130 I0.03813 J0.00846
G1 X4.07746 Y-2.73563
G2 X4.00120 Y-2.75256 I-0.03813 J-0.00846
G1 X3.92254 Y-2.39823
G1 Z-0.59259
G2 X3.99880 Y-2.38130 I0.03813 J0.00846
G1 X4.07746 Y-2.73563
G2 X4.00120 Y-2.75256 I-0.03813 J-0.00846
G1 X3.92254 Y-2.39823
G1 Z-0.62222
G2 X3.99880 Y-2.38130 I0.03813 J0.00846
G1 X4.07746 Y-2.73563
G2 X4.00120 Y-2.75256 I-0.03813 J-0.00846
G1 X3.92254 Y-2.39823
G1 Z-0.65185
G2 X3.99880 Y-2.38130 I0.03813 J0.00846
G1 X4.07746 Y-2.73563
G2 X4.00120 Y-2.75256 I-0.03813 J-0.00846
G1 X3.92254 Y-2.39823
G1 Z-0.68148
G2 X3.99880 Y-2.38130 I0.03813 J0.00846
G1 X4.07746 Y-2.73563
G2 X4.00120 Y-2.75256 I-0.03813 J-0.00846
G1 X3.92254 Y-2.39823
G1 Z-0.71111
G2 X3.99880 Y-2.38130 I0.03813 J0.00846
G1 X4.07746 Y-2.73563
G2 X4.00120 Y-2.75256 I-0.03813 J-0.00846
G1 X3.92254 Y-2.39823
G1 Z-0.74074
G2 X3.99880 Y-2.38130 I0.03813 J0.00846
G1 X4.07746 Y-2.73563
G2 X4.00120 Y-2.75256 I-0.03813 J-0.00846
G1 X3.92254 Y-2.39823
G1 Z-0.77037
G2 X3.99880 Y-2.38130 I0.03813 J0.00846
G1 X4.07746 Y-2.73563
G2 X4.00120 Y-2.75256 I-0.03813 J-0.00846
G1 X3.92254 Y-2.39823
G1 Z-0.80000
G2 X3.99880 Y-2.38130 I0.03813 J0.00846
G1 X4.07746 Y-2.73563
G2 X4.00120 Y-2.75256 I-0.03813 J-0.00846
G1 X3.92254 Y-2.39823
G1 Z-0.82963
G2 X3.99880 Y-2.38130 I0.03813 J0.00846
G1 X4.07746 Y-2.73563
G2 X4.00120 Y-2.75256 I-0.03813 J-0.00846
G1 X3.92254 Y-2.39823
G1 Z-0.85926
G2 X3.99880 Y-2.38130 I0.03813 J0.00846
G1 X4.07746 Y-2.73563
G2 X4.00120 Y-2.75256 I-0.03813 J-0.00846
G1 X3.92254 Y-2.39823
G1 Z-0.88889
G2 X3.99880 Y-2.38130 I0.03813 J0.00846
G1 X4.07746 Y-2.73563
G2 X4.00120 Y-2.75256 I-0.03813 J-0.00846
G1 X3.92254 Y-2.39823
G1 Z-0.91852
G2 X3.99880 Y-2.38130 I0.03813 J0.00846
G1 X4.07746 Y-2.73563
G2 X4.00120 Y-2.75256 I-0.03813 J-0.00846
G1 X3.92254 Y-2.39823
G1 Z-0.94815
G2 X3.99880 Y-2.38130 I0.03813 J0.00846
G1 X4.07746 Y-2.73563
G2 X4.00120 Y-2.75256 I-0.03813 J-0.00846
G1 X3.92254 Y-2.39823
G1 Z-0.97778
G2 X3.99880 Y-2.38130 I0.03813 J0.00846
G1 X4.07746 Y-2.73563
G2 X4.00120 Y-2.75256 I-0.03813 J-0.00846
G1 X3.92254 Y-2.39823
G1 Z-1.00741
G2 X3.99880 Y-2.38130 I0.03813 J0.00846
G1 X4.07746 Y-2.73563
G2 X4.00120 Y-2.75256 I-0.03813 J-0.00846
G1 X3.92254 Y-2.39823
G1 Z-1.03704
G2 X3.99880 Y-2.38130 I0.03813 J0.00846
G1 X4.07746 Y-2.73563
G2 X4.00120 Y-2.75256 I-0.03813 J-0.00846
G1 X3.92254 Y-2.39823
G1 Z-1.06667
G2 X3.99880 Y-2.38130 I0.03813 J0.00846
G1 X4.07746 Y-2.73563
G2 X4.00120 Y-2.75256 I-0.03813 J-0.00846
G1 X3.92254 Y-2.39823
G1 Z-1.09630
G2 X3.99880 Y-2.38130 I0.03813 J0.00846
G1 X4.07746 Y-2.73563
G2 X4.00120 Y-2.75256 I-0.03813 J-0.00846
G1 X3.92254 Y-2.39823
G1 Z-1.12593
G2 X3.99880 Y-2.38130 I0.03813 J0.00846
G1 X4.07746 Y-2.73563
G2 X4.00120 Y-2.75256 I-0.03813 J-0.00846
G1 X3.92254 Y-2.39823
G1 Z-1.15556
G2 X3.99880 Y-2.38130 I0.03813 J0.00846
G1 X4.07746 Y-2.73563
G2 X4.00120 Y-2.75256 I-0.03813 J-0.00846
G1 X3.92254 Y-2.39823
G1 Z-1.18519
G2 X3.99880 Y-2.38130 I0.03813 J0.00846
G1 X4.07746 Y-2.73563
G2 X4.00120 Y-2.75256 I-0.03813 J-0.00846
G1 X3.92254 Y-2.39823
G1 Z-1.21481
G2 X3.99880 Y-2.38130 I0.03813 J0.00846
G1 X4.07746 Y-2.73563
G2 X4.00120 Y-2.75256 I-0.03813 J-0.00846
G1 X3.92254 Y-2.39823
G1 Z-1.24444
G2 X3.99880 Y-2.38130 I0.03813 J0.00846
G1 X4.07746 Y-2.73563
G2 X4.00120 Y-2.75256 I-0.03813 J-0.00846
G1 X3.92254 Y-2.39823
G1 Z-1.27407
G2 X3.99880 Y-2.38130 I0.03813 J0.00846
G1 X4.07746 Y-2.73563
G2 X4.00120 Y-2.75256 I-0.03813 J-0.00846
G1 X3.92254 Y-2.39823
G1 Z-1.30370
G2 X3.99880 Y-2.38130 I0.03813 J0.00846
G1 X4.07746 Y-2.73563
G2 X4.00120 Y-2.75256 I-0.03813 J-0.00846
G1 X3.92254 Y-2.39823
G1 Z-1.33333
G2 X3.99880 Y-2.38130 I0.03813 J0.00846
G1 X4.07746 Y-2.73563
G2 X4.00120 Y-2.75256 I-0.03813 J-0.00846
G1 X3.92254 Y-2.39823
G1 Z-1.36296
G2 X3.99880 Y-2.38130 I0.03813 J0.00846
G1 X4.07746 Y-2.73563
G2 X4.00120 Y-2.75256 I-0.03813 J-0.00846
G1 X3.92254 Y-2.39823
G1 Z-1.39259
G2 X3.99880 Y-2.38130 I0.03813 J0.00846
G1 X4.07746 Y-2.73563
G2 X4.00120 Y-2.75256 I-0.03813 J-0.00846
G1 X3.92254 Y-2.39823
G1 Z-1.42222
G2 X3.99880 Y-2.38130 I0.03813 J0.00846
G1 X4.07746 Y-2.73563
G2 X4.00120 Y-2.75256 I-0.03813 J-0.00846
G1 X3.92254 Y-2.39823
G1 Z-1.45185
G2 X3.99880 Y-2.38130 I0.03813 J0.00846
G1 X4.07746 Y-2.73563
G2 X4.00120 Y-2.75256 I-0.03813 J-0.00846
G1 X3.92254 Y-2.39823
G1 Z-1.48148
G2 X3.99880 Y-2.38130 I0.03813 J0.00846
G1 X4.07746 Y-2.73563
G2 X4.00120 Y-2.75256 I-0.03813 J-0.00846
G1 X3.92254 Y-2.39823
G1 Z-1.51111
G2 X3.99880 Y-2.38130 I0.03813 J0.00846
G1 X4.07746 Y-2.73563
G2 X4.00120 Y-2.75256 I-0.03813 J-0.00846
G1 X3.92254 Y-2.39823
G1 Z-1.54074
G2 X3.99880 Y-2.38130 I0.03813 J0.00846
G1 X4.07746 Y-2.73563
G2 X4.00120 Y-2.75256 I-0.03813 J-0.00846
G1 X3.92254 Y-2.39823
G1 Z-1.57037
G2 X3.99880 Y-2.38130 I0.03813 J0.00846
G1 X4.07746 Y-2.73563
G2 X4.00120 Y-2.75256 I-0.03813 J-0.00846
G1 X3.92254 Y-2.39823
G1 Z-1.60000
G2 X3.99880 Y-2.38130 I0.03813 J0.00846
G1 X4.07746 Y-2.73563
G2 X4.00120 Y-2.75256 I-0.03813 J-0.00846
G1 X3.92254 Y-2.39823
G0 Z0.08000

G00 Z1.000 ( All done -- retract )

M5      (Spindle off.)
G04 P1.000000
M9      (Coolant off.)
M2      (Program end.)

