( pcb2gcode 2.5.0 )
( Software-independent Gcode )
( This file uses a mill head of 0.04000inch to drill the 2 hole sizes. )
( Hole sizes: [0.0394094inch] [0.11811inch] )

G94       (Inches per minute feed rate.)
G20       (Units == INCHES.)
G91.1     (Incremental arc distance mode.)
G90       (Absolute coordinates.)
S10000    (RPM spindle speed.)

G01 F100.00000 (Feedrate)
G00 Z1.00000 (Retract to tool change height)
T2
M5        (Spindle stop.)
G04 P1.00000
(MSG, Change tool bit to drill size 0.04000inch)
M6        (Tool change.)
M0        (Temporary machine stop.)
M3        (Spindle on clockwise.)
G04 P1.00000
G00 Z0.08000

G0 X3.25000 Y-2.55000
G1 Z-1.60000 F50.00000
G1 Z0.08000 F50.00000

G0 X3.65000 Y-2.55000
G1 Z-1.60000 F50.00000
G1 Z0.08000 F50.00000

G0 X3.81500 Y-2.66535
G1 Z0.02963 F50.00000
G1 F100.00000
G1 X3.81500 Y-2.58665 Z0.01481
G1 X3.81500 Y-2.66535 Z-0.00000
G1 X3.81500 Y-2.58665 Z-0.01481
G1 X3.81500 Y-2.66535 Z-0.02963
G1 X3.81500 Y-2.58665 Z-0.04444
G1 X3.81500 Y-2.66535 Z-0.05926
G1 X3.81500 Y-2.58665 Z-0.07407
G1 X3.81500 Y-2.66535 Z-0.08889
G1 X3.81500 Y-2.58665 Z-0.10370
G1 X3.81500 Y-2.66535 Z-0.11852
G1 X3.81500 Y-2.58665 Z-0.13333
G1 X3.81500 Y-2.66535 Z-0.14815
G1 X3.81500 Y-2.58665 Z-0.16296
G1 X3.81500 Y-2.66535 Z-0.17778
G1 X3.81500 Y-2.58665 Z-0.19259
G1 X3.81500 Y-2.66535 Z-0.20741
G1 X3.81500 Y-2.58665 Z-0.22222
G1 X3.81500 Y-2.66535 Z-0.23704
G1 X3.81500 Y-2.58665 Z-0.25185
G1 X3.81500 Y-2.66535 Z-0.26667
G1 X3.81500 Y-2.58665 Z-0.28148
G1 X3.81500 Y-2.66535 Z-0.29630
G1 X3.81500 Y-2.58665 Z-0.31111
G1 X3.81500 Y-2.66535 Z-0.32593
G1 X3.81500 Y-2.58665 Z-0.34074
G1 X3.81500 Y-2.66535 Z-0.35556
G1 X3.81500 Y-2.58665 Z-0.37037
G1 X3.81500 Y-2.66535 Z-0.38519
G1 X3.81500 Y-2.58665 Z-0.40000
G1 X3.81500 Y-2.66535 Z-0.41481
G1 X3.81500 Y-2.58665 Z-0.42963
G1 X3.81500 Y-2.66535 Z-0.44444
G1 X3.81500 Y-2.58665 Z-0.45926
G1 X3.81500 Y-2.66535 Z-0.47407
G1 X3.81500 Y-2.58665 Z-0.48889
G1 X3.81500 Y-2.66535 Z-0.50370
G1 X3.81500 Y-2.58665 Z-0.51852
G1 X3.81500 Y-2.66535 Z-0.53333
G1 X3.81500 Y-2.58665 Z-0.54815
G1 X3.81500 Y-2.66535 Z-0.56296
G1 X3.81500 Y-2.58665 Z-0.57778
G1 X3.81500 Y-2.66535 Z-0.59259
G1 X3.81500 Y-2.58665 Z-0.60741
G1 X3.81500 Y-2.66535 Z-0.62222
G1 X3.81500 Y-2.58665 Z-0.63704
G1 X3.81500 Y-2.66535 Z-0.65185
G1 X3.81500 Y-2.58665 Z-0.66667
G1 X3.81500 Y-2.66535 Z-0.68148
G1 X3.81500 Y-2.58665 Z-0.69630
G1 X3.81500 Y-2.66535 Z-0.71111
G1 X3.81500 Y-2.58665 Z-0.72593
G1 X3.81500 Y-2.66535 Z-0.74074
G1 X3.81500 Y-2.58665 Z-0.75556
G1 X3.81500 Y-2.66535 Z-0.77037
G1 X3.81500 Y-2.58665 Z-0.78519
G1 X3.81500 Y-2.66535 Z-0.80000
G1 X3.81500 Y-2.58665 Z-0.81481
G1 X3.81500 Y-2.66535 Z-0.82963
G1 X3.81500 Y-2.58665 Z-0.84444
G1 X3.81500 Y-2.66535 Z-0.85926
G1 X3.81500 Y-2.58665 Z-0.87407
G1 X3.81500 Y-2.66535 Z-0.88889
G1 X3.81500 Y-2.58665 Z-0.90370
G1 X3.81500 Y-2.66535 Z-0.91852
G1 X3.81500 Y-2.58665 Z-0.93333
G1 X3.81500 Y-2.66535 Z-0.94815
G1 X3.81500 Y-2.58665 Z-0.96296
G1 X3.81500 Y-2.66535 Z-0.97778
G1 X3.81500 Y-2.58665 Z-0.99259
G1 X3.81500 Y-2.66535 Z-1.00741
G1 X3.81500 Y-2.58665 Z-1.02222
G1 X3.81500 Y-2.66535 Z-1.03704
G1 X3.81500 Y-2.58665 Z-1.05185
G1 X3.81500 Y-2.66535 Z-1.06667
G1 X3.81500 Y-2.58665 Z-1.08148
G1 X3.81500 Y-2.66535 Z-1.09630
G1 X3.81500 Y-2.58665 Z-1.11111
G1 X3.81500 Y-2.66535 Z-1.12593
G1 X3.81500 Y-2.58665 Z-1.14074
G1 X3.81500 Y-2.66535 Z-1.15556
G1 X3.81500 Y-2.58665 Z-1.17037
G1 X3.81500 Y-2.66535 Z-1.18519
G1 X3.81500 Y-2.58665 Z-1.20000
G1 X3.81500 Y-2.66535 Z-1.21481
G1 X3.81500 Y-2.58665 Z-1.22963
G1 X3.81500 Y-2.66535 Z-1.24444
G1 X3.81500 Y-2.58665 Z-1.25926
G1 X3.81500 Y-2.66535 Z-1.27407
G1 X3.81500 Y-2.58665 Z-1.28889
G1 X3.81500 Y-2.66535 Z-1.30370
G1 X3.81500 Y-2.58665 Z-1.31852
G1 X3.81500 Y-2.66535 Z-1.33333
G1 X3.81500 Y-2.58665 Z-1.34815
G1 X3.81500 Y-2.66535 Z-1.36296
G1 X3.81500 Y-2.58665 Z-1.37778
G1 X3.81500 Y-2.66535 Z-1.39259
G1 X3.81500 Y-2.58665 Z-1.40741
G1 X3.81500 Y-2.66535 Z-1.42222
G1 X3.81500 Y-2.58665 Z-1.43704
G1 X3.81500 Y-2.66535 Z-1.45185
G1 X3.81500 Y-2.58665 Z-1.46667
G1 X3.81500 Y-2.66535 Z-1.48148
G1 X3.81500 Y-2.58665 Z-1.49630
G1 X3.81500 Y-2.66535 Z-1.51111
G1 X3.81500 Y-2.58665 Z-1.52593
G1 X3.81500 Y-2.66535 Z-1.54074
G1 X3.81500 Y-2.58665 Z-1.55556
G1 X3.81500 Y-2.66535 Z-1.57037
G1 X3.81500 Y-2.58665 Z-1.58519
G1 X3.81500 Y-2.66535 Z-1.60000
G1 X3.81500 Y-2.58665
G1 Z0.08000 F50.00000

G0 X3.96067 Y-2.50791
G1 Z0.02963 F50.00000
G1 F100.00000
G1 X4.03933 Y-2.50791 Z0.01481
G1 X3.96067 Y-2.50791 Z-0.00000
G1 X4.03933 Y-2.50791 Z-0.01481
G1 X3.96067 Y-2.50791 Z-0.02963
G1 X4.03933 Y-2.50791 Z-0.04444
G1 X3.96067 Y-2.50791 Z-0.05926
G1 X4.03933 Y-2.50791 Z-0.07407
G1 X3.96067 Y-2.50791 Z-0.08889
G1 X4.03933 Y-2.50791 Z-0.10370
G1 X3.96067 Y-2.50791 Z-0.11852
G1 X4.03933 Y-2.50791 Z-0.13333
G1 X3.96067 Y-2.50791 Z-0.14815
G1 X4.03933 Y-2.50791 Z-0.16296
G1 X3.96067 Y-2.50791 Z-0.17778
G1 X4.03933 Y-2.50791 Z-0.19259
G1 X3.96067 Y-2.50791 Z-0.20741
G1 X4.03933 Y-2.50791 Z-0.22222
G1 X3.96067 Y-2.50791 Z-0.23704
G1 X4.03933 Y-2.50791 Z-0.25185
G1 X3.96067 Y-2.50791 Z-0.26667
G1 X4.03933 Y-2.50791 Z-0.28148
G1 X3.96067 Y-2.50791 Z-0.29630
G1 X4.03933 Y-2.50791 Z-0.31111
G1 X3.96067 Y-2.50791 Z-0.32593
G1 X4.03933 Y-2.50791 Z-0.34074
G1 X3.96067 Y-2.50791 Z-0.35556
G1 X4.03933 Y-2.50791 Z-0.37037
G1 X3.96067 Y-2.50791 Z-0.38519
G1 X4.03933 Y-2.50791 Z-0.40000
G1 X3.96067 Y-2.50791 Z-0.41481
G1 X4.03933 Y-2.50791 Z-0.42963
G1 X3.96067 Y-2.50791 Z-0.44444
G1 X4.03933 Y-2.50791 Z-0.45926
G1 X3.96067 Y-2.50791 Z-0.47407
G1 X4.03933 Y-2.50791 Z-0.48889
G1 X3.96067 Y-2.50791 Z-0.50370
G1 X4.03933 Y-2.50791 Z-0.51852
G1 X3.96067 Y-2.50791 Z-0.53333
G1 X4.03933 Y-2.50791 Z-0.54815
G1 X3.96067 Y-2.50791 Z-0.56296
G1 X4.03933 Y-2.50791 Z-0.57778
G1 X3.96067 Y-2.50791 Z-0.59259
G1 X4.03933 Y-2.50791 Z-0.60741
G1 X3.96067 Y-2.50791 Z-0.62222
G1 X4.03933 Y-2.50791 Z-0.63704
G1 X3.96067 Y-2.50791 Z-0.65185
G1 X4.03933 Y-2.50791 Z-0.66667
G1 X3.96067 Y-2.50791 Z-0.68148
G1 X4.03933 Y-2.50791 Z-0.69630
G1 X3.96067 Y-2.50791 Z-0.71111
G1 X4.03933 Y-2.50791 Z-0.72593
G1 X3.96067 Y-2.50791 Z-0.74074
G1 X4.03933 Y-2.50791 Z-0.75556
G1 X3.96067 Y-2.50791 Z-0.77037
G1 X4.03933 Y-2.50791 Z-0.78519
G1 X3.96067 Y-2.50791 Z-0.80000
G1 X4.03933 Y-2.50791 Z-0.81481
G1 X3.96067 Y-2.50791 Z-0.82963
G1 X4.03933 Y-2.50791 Z-0.84444
G1 X3.96067 Y-2.50791 Z-0.85926
G1 X4.03933 Y-2.50791 Z-0.87407
G1 X3.96067 Y-2.50791 Z-0.88889
G1 X4.03933 Y-2.50791 Z-0.90370
G1 X3.96067 Y-2.50791 Z-0.91852
G1 X4.03933 Y-2.50791 Z-0.93333
G1 X3.96067 Y-2.50791 Z-0.94815
G1 X4.03933 Y-2.50791 Z-0.96296
G1 X3.96067 Y-2.50791 Z-0.97778
G1 X4.03933 Y-2.50791 Z-0.99259
G1 X3.96067 Y-2.50791 Z-1.00741
G1 X4.03933 Y-2.50791 Z-1.02222
G1 X3.96067 Y-2.50791 Z-1.03704
G1 X4.03933 Y-2.50791 Z-1.05185
G1 X3.96067 Y-2.50791 Z-1.06667
G1 X4.03933 Y-2.50791 Z-1.08148
G1 X3.96067 Y-2.50791 Z-1.09630
G1 X4.03933 Y-2.50791 Z-1.11111
G1 X3.96067 Y-2.50791 Z-1.12593
G1 X4.03933 Y-2.50791 Z-1.14074
G1 X3.96067 Y-2.50791 Z-1.15556
G1 X4.03933 Y-2.50791 Z-1.17037
G1 X3.96067 Y-2.50791 Z-1.18519
G1 X4.03933 Y-2.50791 Z-1.20000
G1 X3.96067 Y-2.50791 Z-1.21481
G1 X4.03933 Y-2.50791 Z-1.22963
G1 X3.96067 Y-2.50791 Z-1.24444
G1 X4.03933 Y-2.50791 Z-1.25926
G1 X3.96067 Y-2.50791 Z-1.27407
G1 X4.03933 Y-2.50791 Z-1.28889
G1 X3.96067 Y-2.50791 Z-1.30370
G1 X4.03933 Y-2.50791 Z-1.31852
G1 X3.96067 Y-2.50791 Z-1.33333
G1 X4.03933 Y-2.50791 Z-1.34815
G1 X3.96067 Y-2.50791 Z-1.36296
G1 X4.03933 Y-2.50791 Z-1.37778
G1 X3.96067 Y-2.50791 Z-1.39259
G1 X4.03933 Y-2.50791 Z-1.40741
G1 X3.96067 Y-2.50791 Z-1.42222
G1 X4.03933 Y-2.50791 Z-1.43704
G1 X3.96067 Y-2.50791 Z-1.45185
G1 X4.03933 Y-2.50791 Z-1.46667
G1 X3.96067 Y-2.50791 Z-1.48148
G1 X4.03933 Y-2.50791 Z-1.49630
G1 X3.96067 Y-2.50791 Z-1.51111
G1 X4.03933 Y-2.50791 Z-1.52593
G1 X3.96067 Y-2.50791 Z-1.54074
G1 X4.03933 Y-2.50791 Z-1.55556
G1 X3.96067 Y-2.50791 Z-1.57037
G1 X4.03933 Y-2.50791 Z-1.58519
G1 X3.96067 Y-2.50791 Z-1.60000
G1 X4.03933 Y-2.50791
G1 Z0.08000 F50.00000

G0 X4.30000 Y-2.55000
G1 Z-1.60000 F50.00000
G1 Z0.08000 F50.00000

G0 X4.70000 Y-2.55000
G1 Z-1.60000 F50.00000
G1 Z0.08000 F50.00000

G0 X4.70000 Y-2.95000
G1 Z-1.60000 F50.00000
G1 Z0.08000 F50.00000

G0 X4.30000 Y-2.95000
G1 Z-1.60000 F50.00000
G1 Z0.08000 F50.00000

G0 X4.15000 Y-3.30000
G1 Z-1.60000 F50.00000
G1 Z0.08000 F50.00000

G0 X4.05000 Y-3.30000
G1 Z-1.60000 F50.00000
G1 Z0.08000 F50.00000

G0 X3.85000 Y-3.30000
G1 Z-1.60000 F50.00000
G1 Z0.08000 F50.00000

G0 X3.75000 Y-3.30000
G1 Z-1.60000 F50.00000
G1 Z0.08000 F50.00000

G0 X3.65000 Y-2.95000
G1 Z-1.60000 F50.00000
G1 Z0.08000 F50.00000

G0 X3.25000 Y-2.95000
G1 Z-1.60000 F50.00000
G1 Z0.08000 F50.00000

G0 X3.95091 Y-2.39193
G1 Z0.02963 F50.00000
G1 F100.00000
G2 X3.97043 Y-2.38760 Z0.02845 I0.00976 J0.00217
G1 X4.04909 Y-2.74193 Z0.01481
G2 X4.02957 Y-2.74626 Z0.01363 I-0.00976 J-0.00217
G1 X3.95091 Y-2.39193 Z-0.00000
G2 X3.97043 Y-2.38760 Z-0.00118 I0.00976 J0.00217
G1 X4.04909 Y-2.74193 Z-0.01481
G2 X4.02957 Y-2.74626 Z-0.01599 I-0.00976 J-0.00217
G1 X3.95091 Y-2.39193 Z-0.02963
G2 X3.97043 Y-2.38760 Z-0.03081 I0.00976 J0.00217
G1 X4.04909 Y-2.74193 Z-0.04444
G2 X4.02957 Y-2.74626 Z-0.04562 I-0.00976 J-0.00217
G1 X3.95091 Y-2.39193 Z-0.05926
G2 X3.97043 Y-2.38760 Z-0.06044 I0.00976 J0.00217
G1 X4.04909 Y-2.74193 Z-0.07407
G2 X4.02957 Y-2.74626 Z-0.07525 I-0.00976 J-0.00217
G1 X3.95091 Y-2.39193 Z-0.08889
G2 X3.97043 Y-2.38760 Z-0.09007 I0.00976 J0.00217
G1 X4.04909 Y-2.74193 Z-0.10370
G2 X4.02957 Y-2.74626 Z-0.10488 I-0.00976 J-0.00217
G1 X3.95091 Y-2.39193 Z-0.11852
G2 X3.97043 Y-2.38760 Z-0.11970 I0.00976 J0.00217
G1 X4.04909 Y-2.74193 Z-0.13333
G2 X4.02957 Y-2.74626 Z-0.13451 I-0.00976 J-0.00217
G1 X3.95091 Y-2.39193 Z-0.14815
G2 X3.97043 Y-2.38760 Z-0.14933 I0.00976 J0.00217
G1 X4.04909 Y-2.74193 Z-0.16296
G2 X4.02957 Y-2.74626 Z-0.16414 I-0.00976 J-0.00217
G1 X3.95091 Y-2.39193 Z-0.17778
G2 X3.97043 Y-2.38760 Z-0.17896 I0.00976 J0.00217
G1 X4.04909 Y-2.74193 Z-0.19259
G2 X4.02957 Y-2.74626 Z-0.19377 I-0.00976 J-0.00217
G1 X3.95091 Y-2.39193 Z-0.20741
G2 X3.97043 Y-2.38760 Z-0.20859 I0.00976 J0.00217
G1 X4.04909 Y-2.74193 Z-0.22222
G2 X4.02957 Y-2.74626 Z-0.22340 I-0.00976 J-0.00217
G1 X3.95091 Y-2.39193 Z-0.23704
G2 X3.97043 Y-2.38760 Z-0.23822 I0.00976 J0.00217
G1 X4.04909 Y-2.74193 Z-0.25185
G2 X4.02957 Y-2.74626 Z-0.25303 I-0.00976 J-0.00217
G1 X3.95091 Y-2.39193 Z-0.26667
G2 X3.97043 Y-2.38760 Z-0.26785 I0.00976 J0.00217
G1 X4.04909 Y-2.74193 Z-0.28148
G2 X4.02957 Y-2.74626 Z-0.28266 I-0.00976 J-0.00217
G1 X3.95091 Y-2.39193 Z-0.29630
G2 X3.97043 Y-2.38760 Z-0.29748 I0.00976 J0.00217
G1 X4.04909 Y-2.74193 Z-0.31111
G2 X4.02957 Y-2.74626 Z-0.31229 I-0.00976 J-0.00217
G1 X3.95091 Y-2.39193 Z-0.32593
G2 X3.97043 Y-2.38760 Z-0.32711 I0.00976 J0.00217
G1 X4.04909 Y-2.74193 Z-0.34074
G2 X4.02957 Y-2.74626 Z-0.34192 I-0.00976 J-0.00217
G1 X3.95091 Y-2.39193 Z-0.35556
G2 X3.97043 Y-2.38760 Z-0.35674 I0.00976 J0.00217
G1 X4.04909 Y-2.74193 Z-0.37037
G2 X4.02957 Y-2.74626 Z-0.37155 I-0.00976 J-0.00217
G1 X3.95091 Y-2.39193 Z-0.38519
G2 X3.97043 Y-2.38760 Z-0.38637 I0.00976 J0.00217
G1 X4.04909 Y-2.74193 Z-0.40000
G2 X4.02957 Y-2.74626 Z-0.40118 I-0.00976 J-0.00217
G1 X3.95091 Y-2.39193 Z-0.41481
G2 X3.97043 Y-2.38760 Z-0.41599 I0.00976 J0.00217
G1 X4.04909 Y-2.74193 Z-0.42963
G2 X4.02957 Y-2.74626 Z-0.43081 I-0.00976 J-0.00217
G1 X3.95091 Y-2.39193 Z-0.44444
G2 X3.97043 Y-2.38760 Z-0.44562 I0.00976 J0.00217
G1 X4.04909 Y-2.74193 Z-0.45926
G2 X4.02957 Y-2.74626 Z-0.46044 I-0.00976 J-0.00217
G1 X3.95091 Y-2.39193 Z-0.47407
G2 X3.97043 Y-2.38760 Z-0.47525 I0.00976 J0.00217
G1 X4.04909 Y-2.74193 Z-0.48889
G2 X4.02957 Y-2.74626 Z-0.49007 I-0.00976 J-0.00217
G1 X3.95091 Y-2.39193 Z-0.50370
G2 X3.97043 Y-2.38760 Z-0.50488 I0.00976 J0.00217
G1 X4.04909 Y-2.74193 Z-0.51852
G2 X4.02957 Y-2.74626 Z-0.51970 I-0.00976 J-0.00217
G1 X3.95091 Y-2.39193 Z-0.53333
G2 X3.97043 Y-2.38760 Z-0.53451 I0.00976 J0.00217
G1 X4.04909 Y-2.74193 Z-0.54815
G2 X4.02957 Y-2.74626 Z-0.54933 I-0.00976 J-0.00217
G1 X3.95091 Y-2.39193 Z-0.56296
G2 X3.97043 Y-2.38760 Z-0.56414 I0.00976 J0.00217
G1 X4.04909 Y-2.74193 Z-0.57778
G2 X4.02957 Y-2.74626 Z-0.57896 I-0.00976 J-0.00217
G1 X3.95091 Y-2.39193 Z-0.59259
G2 X3.97043 Y-2.38760 Z-0.59377 I0.00976 J0.00217
G1 X4.04909 Y-2.74193 Z-0.60741
G2 X4.02957 Y-2.74626 Z-0.60859 I-0.00976 J-0.00217
G1 X3.95091 Y-2.39193 Z-0.62222
G2 X3.97043 Y-2.38760 Z-0.62340 I0.00976 J0.00217
G1 X4.04909 Y-2.74193 Z-0.63704
G2 X4.02957 Y-2.74626 Z-0.63822 I-0.00976 J-0.00217
G1 X3.95091 Y-2.39193 Z-0.65185
G2 X3.97043 Y-2.38760 Z-0.65303 I0.00976 J0.00217
G1 X4.04909 Y-2.74193 Z-0.66667
G2 X4.02957 Y-2.74626 Z-0.66785 I-0.00976 J-0.00217
G1 X3.95091 Y-2.39193 Z-0.68148
G2 X3.97043 Y-2.38760 Z-0.68266 I0.00976 J0.00217
G1 X4.04909 Y-2.74193 Z-0.69630
G2 X4.02957 Y-2.74626 Z-0.69748 I-0.00976 J-0.00217
G1 X3.95091 Y-2.39193 Z-0.71111
G2 X3.97043 Y-2.38760 Z-0.71229 I0.00976 J0.00217
G1 X4.04909 Y-2.74193 Z-0.72593
G2 X4.02957 Y-2.74626 Z-0.72711 I-0.00976 J-0.00217
G1 X3.95091 Y-2.39193 Z-0.74074
G2 X3.97043 Y-2.38760 Z-0.74192 I0.00976 J0.00217
G1 X4.04909 Y-2.74193 Z-0.75556
G2 X4.02957 Y-2.74626 Z-0.75674 I-0.00976 J-0.00217
G1 X3.95091 Y-2.39193 Z-0.77037
G2 X3.97043 Y-2.38760 Z-0.77155 I0.00976 J0.00217
G1 X4.04909 Y-2.74193 Z-0.78519
G2 X4.02957 Y-2.74626 Z-0.78637 I-0.00976 J-0.00217
G1 X3.95091 Y-2.39193 Z-0.80000
G2 X3.97043 Y-2.38760 Z-0.80118 I0.00976 J0.00217
G1 X4.04909 Y-2.74193 Z-0.81481
G2 X4.02957 Y-2.74626 Z-0.81599 I-0.00976 J-0.00217
G1 X3.95091 Y-2.39193 Z-0.82963
G2 X3.97043 Y-2.38760 Z-0.83081 I0.00976 J0.00217
G1 X4.04909 Y-2.74193 Z-0.84444
G2 X4.02957 Y-2.74626 Z-0.84562 I-0.00976 J-0.00217
G1 X3.95091 Y-2.39193 Z-0.85926
G2 X3.97043 Y-2.38760 Z-0.86044 I0.00976 J0.00217
G1 X4.04909 Y-2.74193 Z-0.87407
G2 X4.02957 Y-2.74626 Z-0.87525 I-0.00976 J-0.00217
G1 X3.95091 Y-2.39193 Z-0.88889
G2 X3.97043 Y-2.38760 Z-0.89007 I0.00976 J0.00217
G1 X4.04909 Y-2.74193 Z-0.90370
G2 X4.02957 Y-2.74626 Z-0.90488 I-0.00976 J-0.00217
G1 X3.95091 Y-2.39193 Z-0.91852
G2 X3.97043 Y-2.38760 Z-0.91970 I0.00976 J0.00217
G1 X4.04909 Y-2.74193 Z-0.93333
G2 X4.02957 Y-2.74626 Z-0.93451 I-0.00976 J-0.00217
G1 X3.95091 Y-2.39193 Z-0.94815
G2 X3.97043 Y-2.38760 Z-0.94933 I0.00976 J0.00217
G1 X4.04909 Y-2.74193 Z-0.96296
G2 X4.02957 Y-2.74626 Z-0.96414 I-0.00976 J-0.00217
G1 X3.95091 Y-2.39193 Z-0.97778
G2 X3.97043 Y-2.38760 Z-0.97896 I0.00976 J0.00217
G1 X4.04909 Y-2.74193 Z-0.99259
G2 X4.02957 Y-2.74626 Z-0.99377 I-0.00976 J-0.00217
G1 X3.95091 Y-2.39193 Z-1.00741
G2 X3.97043 Y-2.38760 Z-1.00859 I0.00976 J0.00217
G1 X4.04909 Y-2.74193 Z-1.02222
G2 X4.02957 Y-2.74626 Z-1.02340 I-0.00976 J-0.00217
G1 X3.95091 Y-2.39193 Z-1.03704
G2 X3.97043 Y-2.38760 Z-1.03822 I0.00976 J0.00217
G1 X4.04909 Y-2.74193 Z-1.05185
G2 X4.02957 Y-2.74626 Z-1.05303 I-0.00976 J-0.00217
G1 X3.95091 Y-2.39193 Z-1.06667
G2 X3.97043 Y-2.38760 Z-1.06785 I0.00976 J0.00217
G1 X4.04909 Y-2.74193 Z-1.08148
G2 X4.02957 Y-2.74626 Z-1.08266 I-0.00976 J-0.00217
G1 X3.95091 Y-2.39193 Z-1.09630
G2 X3.97043 Y-2.38760 Z-1.09748 I0.00976 J0.00217
G1 X4.04909 Y-2.74193 Z-1.11111
G2 X4.02957 Y-2.74626 Z-1.11229 I-0.00976 J-0.00217
G1 X3.95091 Y-2.39193 Z-1.12593
G2 X3.97043 Y-2.38760 Z-1.12711 I0.00976 J0.00217
G1 X4.04909 Y-2.74193 Z-1.14074
G2 X4.02957 Y-2.74626 Z-1.14192 I-0.00976 J-0.00217
G1 X3.95091 Y-2.39193 Z-1.15556
G2 X3.97043 Y-2.38760 Z-1.15674 I0.00976 J0.00217
G1 X4.04909 Y-2.74193 Z-1.17037
G2 X4.02957 Y-2.74626 Z-1.17155 I-0.00976 J-0.00217
G1 X3.95091 Y-2.39193 Z-1.18519
G2 X3.97043 Y-2.38760 Z-1.18637 I0.00976 J0.00217
G1 X4.04909 Y-2.74193 Z-1.20000
G2 X4.02957 Y-2.74626 Z-1.20118 I-0.00976 J-0.00217
G1 X3.95091 Y-2.39193 Z-1.21481
G2 X3.97043 Y-2.38760 Z-1.21599 I0.00976 J0.00217
G1 X4.04909 Y-2.74193 Z-1.22963
G2 X4.02957 Y-2.74626 Z-1.23081 I-0.00976 J-0.00217
G1 X3.95091 Y-2.39193 Z-1.24444
G2 X3.97043 Y-2.38760 Z-1.24562 I0.00976 J0.00217
G1 X4.04909 Y-2.74193 Z-1.25926
G2 X4.02957 Y-2.74626 Z-1.26044 I-0.00976 J-0.00217
G1 X3.95091 Y-2.39193 Z-1.27407
G2 X3.97043 Y-2.38760 Z-1.27525 I0.00976 J0.00217
G1 X4.04909 Y-2.74193 Z-1.28889
G2 X4.02957 Y-2.74626 Z-1.29007 I-0.00976 J-0.00217
G1 X3.95091 Y-2.39193 Z-1.30370
G2 X3.97043 Y-2.38760 Z-1.30488 I0.00976 J0.00217
G1 X4.04909 Y-2.74193 Z-1.31852
G2 X4.02957 Y-2.74626 Z-1.31970 I-0.00976 J-0.00217
G1 X3.95091 Y-2.39193 Z-1.33333
G2 X3.97043 Y-2.38760 Z-1.33451 I0.00976 J0.00217
G1 X4.04909 Y-2.74193 Z-1.34815
G2 X4.02957 Y-2.74626 Z-1.34933 I-0.00976 J-0.00217
G1 X3.95091 Y-2.39193 Z-1.36296
G2 X3.97043 Y-2.38760 Z-1.36414 I0.00976 J0.00217
G1 X4.04909 Y-2.74193 Z-1.37778
G2 X4.02957 Y-2.74626 Z-1.37896 I-0.00976 J-0.00217
G1 X3.95091 Y-2.39193 Z-1.39259
G2 X3.97043 Y-2.38760 Z-1.39377 I0.00976 J0.00217
G1 X4.04909 Y-2.74193 Z-1.40741
G2 X4.02957 Y-2.74626 Z-1.40859 I-0.00976 J-0.00217
G1 X3.95091 Y-2.39193 Z-1.42222
G2 X3.97043 Y-2.38760 Z-1.42340 I0.00976 J0.00217
G1 X4.04909 Y-2.74193 Z-1.43704
G2 X4.02957 Y-2.74626 Z-1.43822 I-0.00976 J-0.00217
G1 X3.95091 Y-2.39193 Z-1.45185
G2 X3.97043 Y-2.38760 Z-1.45303 I0.00976 J0.00217
G1 X4.04909 Y-2.74193 Z-1.46667
G2 X4.02957 Y-2.74626 Z-1.46785 I-0.00976 J-0.00217
G1 X3.95091 Y-2.39193 Z-1.48148
G2 X3.97043 Y-2.38760 Z-1.48266 I0.00976 J0.00217
G1 X4.04909 Y-2.74193 Z-1.49630
G2 X4.02957 Y-2.74626 Z-1.49748 I-0.00976 J-0.00217
G1 X3.95091 Y-2.39193 Z-1.51111
G2 X3.97043 Y-2.38760 Z-1.51229 I0.00976 J0.00217
G1 X4.04909 Y-2.74193 Z-1.52593
G2 X4.02957 Y-2.74626 Z-1.52711 I-0.00976 J-0.00217
G1 X3.95091 Y-2.39193 Z-1.54074
G2 X3.97043 Y-2.38760 Z-1.54192 I0.00976 J0.00217
G1 X4.04909 Y-2.74193 Z-1.55556
G2 X4.02957 Y-2.74626 Z-1.55674 I-0.00976 J-0.00217
G1 X3.95091 Y-2.39193 Z-1.57037
G2 X3.97043 Y-2.38760 Z-1.57155 I0.00976 J0.00217
G1 X4.04909 Y-2.74193 Z-1.58519
G2 X4.02957 Y-2.74626 Z-1.58637 I-0.00976 J-0.00217
G1 X3.95091 Y-2.39193 Z-1.60000
G2 X3.97043 Y-2.38760 I0.00976 J0.00217
G1 X4.04909 Y-2.74193
G2 X4.02957 Y-2.74626 I-0.00976 J-0.00217
G1 X3.95091 Y-2.39193
G1 Z0.02963 F50.00000

G0 X3.93672 Y-2.39508
G1 Z0.02963 F50.00000
G1 F100.00000
G2 X3.98461 Y-2.38445 Z0.02704 I0.02394 J0.00532
G1 X4.06328 Y-2.73878 Z0.01481
G2 X4.01539 Y-2.74941 Z0.01222 I-0.02394 J-0.00532
G1 X3.93672 Y-2.39508 Z-0.00000
G2 X3.98461 Y-2.38445 Z-0.00259 I0.02394 J0.00532
G1 X4.06328 Y-2.73878 Z-0.01481
G2 X4.01539 Y-2.74941 Z-0.01741 I-0.02394 J-0.00532
G1 X3.93672 Y-2.39508 Z-0.02963
G2 X3.98461 Y-2.38445 Z-0.03222 I0.02394 J0.00532
G1 X4.06328 Y-2.73878 Z-0.04444
G2 X4.01539 Y-2.74941 Z-0.04704 I-0.02394 J-0.00532
G1 X3.93672 Y-2.39508 Z-0.05926
G2 X3.98461 Y-2.38445 Z-0.06185 I0.02394 J0.00532
G1 X4.06328 Y-2.73878 Z-0.07407
G2 X4.01539 Y-2.74941 Z-0.07667 I-0.02394 J-0.00532
G1 X3.93672 Y-2.39508 Z-0.08889
G2 X3.98461 Y-2.38445 Z-0.09148 I0.02394 J0.00532
G1 X4.06328 Y-2.73878 Z-0.10370
G2 X4.01539 Y-2.74941 Z-0.10630 I-0.02394 J-0.00532
G1 X3.93672 Y-2.39508 Z-0.11852
G2 X3.98461 Y-2.38445 Z-0.12111 I0.02394 J0.00532
G1 X4.06328 Y-2.73878 Z-0.13333
G2 X4.01539 Y-2.74941 Z-0.13593 I-0.02394 J-0.00532
G1 X3.93672 Y-2.39508 Z-0.14815
G2 X3.98461 Y-2.38445 Z-0.15074 I0.02394 J0.00532
G1 X4.06328 Y-2.73878 Z-0.16296
G2 X4.01539 Y-2.74941 Z-0.16556 I-0.02394 J-0.00532
G1 X3.93672 Y-2.39508 Z-0.17778
G2 X3.98461 Y-2.38445 Z-0.18037 I0.02394 J0.00532
G1 X4.06328 Y-2.73878 Z-0.19259
G2 X4.01539 Y-2.74941 Z-0.19519 I-0.02394 J-0.00532
G1 X3.93672 Y-2.39508 Z-0.20741
G2 X3.98461 Y-2.38445 Z-0.21000 I0.02394 J0.00532
G1 X4.06328 Y-2.73878 Z-0.22222
G2 X4.01539 Y-2.74941 Z-0.22482 I-0.02394 J-0.00532
G1 X3.93672 Y-2.39508 Z-0.23704
G2 X3.98461 Y-2.38445 Z-0.23963 I0.02394 J0.00532
G1 X4.06328 Y-2.73878 Z-0.25185
G2 X4.01539 Y-2.74941 Z-0.25445 I-0.02394 J-0.00532
G1 X3.93672 Y-2.39508 Z-0.26667
G2 X3.98461 Y-2.38445 Z-0.26926 I0.02394 J0.00532
G1 X4.06328 Y-2.73878 Z-0.28148
G2 X4.01539 Y-2.74941 Z-0.28408 I-0.02394 J-0.00532
G1 X3.93672 Y-2.39508 Z-0.29630
G2 X3.98461 Y-2.38445 Z-0.29889 I0.02394 J0.00532
G1 X4.06328 Y-2.73878 Z-0.31111
G2 X4.01539 Y-2.74941 Z-0.31371 I-0.02394 J-0.00532
G1 X3.93672 Y-2.39508 Z-0.32593
G2 X3.98461 Y-2.38445 Z-0.32852 I0.02394 J0.00532
G1 X4.06328 Y-2.73878 Z-0.34074
G2 X4.01539 Y-2.74941 Z-0.34334 I-0.02394 J-0.00532
G1 X3.93672 Y-2.39508 Z-0.35556
G2 X3.98461 Y-2.38445 Z-0.35815 I0.02394 J0.00532
G1 X4.06328 Y-2.73878 Z-0.37037
G2 X4.01539 Y-2.74941 Z-0.37296 I-0.02394 J-0.00532
G1 X3.93672 Y-2.39508 Z-0.38519
G2 X3.98461 Y-2.38445 Z-0.38778 I0.02394 J0.00532
G1 X4.06328 Y-2.73878 Z-0.40000
G2 X4.01539 Y-2.74941 Z-0.40259 I-0.02394 J-0.00532
G1 X3.93672 Y-2.39508 Z-0.41481
G2 X3.98461 Y-2.38445 Z-0.41741 I0.02394 J0.00532
G1 X4.06328 Y-2.73878 Z-0.42963
G2 X4.01539 Y-2.74941 Z-0.43222 I-0.02394 J-0.00532
G1 X3.93672 Y-2.39508 Z-0.44444
G2 X3.98461 Y-2.38445 Z-0.44704 I0.02394 J0.00532
G1 X4.06328 Y-2.73878 Z-0.45926
G2 X4.01539 Y-2.74941 Z-0.46185 I-0.02394 J-0.00532
G1 X3.93672 Y-2.39508 Z-0.47407
G2 X3.98461 Y-2.38445 Z-0.47667 I0.02394 J0.00532
G1 X4.06328 Y-2.73878 Z-0.48889
G2 X4.01539 Y-2.74941 Z-0.49148 I-0.02394 J-0.00532
G1 X3.93672 Y-2.39508 Z-0.50370
G2 X3.98461 Y-2.38445 Z-0.50630 I0.02394 J0.00532
G1 X4.06328 Y-2.73878 Z-0.51852
G2 X4.01539 Y-2.74941 Z-0.52111 I-0.02394 J-0.00532
G1 X3.93672 Y-2.39508 Z-0.53333
G2 X3.98461 Y-2.38445 Z-0.53593 I0.02394 J0.00532
G1 X4.06328 Y-2.73878 Z-0.54815
G2 X4.01539 Y-2.74941 Z-0.55074 I-0.02394 J-0.00532
G1 X3.93672 Y-2.39508 Z-0.56296
G2 X3.98461 Y-2.38445 Z-0.56556 I0.02394 J0.00532
G1 X4.06328 Y-2.73878 Z-0.57778
G2 X4.01539 Y-2.74941 Z-0.58037 I-0.02394 J-0.00532
G1 X3.93672 Y-2.39508 Z-0.59259
G2 X3.98461 Y-2.38445 Z-0.59519 I0.02394 J0.00532
G1 X4.06328 Y-2.73878 Z-0.60741
G2 X4.01539 Y-2.74941 Z-0.61000 I-0.02394 J-0.00532
G1 X3.93672 Y-2.39508 Z-0.62222
G2 X3.98461 Y-2.38445 Z-0.62482 I0.02394 J0.00532
G1 X4.06328 Y-2.73878 Z-0.63704
G2 X4.01539 Y-2.74941 Z-0.63963 I-0.02394 J-0.00532
G1 X3.93672 Y-2.39508 Z-0.65185
G2 X3.98461 Y-2.38445 Z-0.65445 I0.02394 J0.00532
G1 X4.06328 Y-2.73878 Z-0.66667
G2 X4.01539 Y-2.74941 Z-0.66926 I-0.02394 J-0.00532
G1 X3.93672 Y-2.39508 Z-0.68148
G2 X3.98461 Y-2.38445 Z-0.68408 I0.02394 J0.00532
G1 X4.06328 Y-2.73878 Z-0.69630
G2 X4.01539 Y-2.74941 Z-0.69889 I-0.02394 J-0.00532
G1 X3.93672 Y-2.39508 Z-0.71111
G2 X3.98461 Y-2.38445 Z-0.71371 I0.02394 J0.00532
G1 X4.06328 Y-2.73878 Z-0.72593
G2 X4.01539 Y-2.74941 Z-0.72852 I-0.02394 J-0.00532
G1 X3.93672 Y-2.39508 Z-0.74074
G2 X3.98461 Y-2.38445 Z-0.74334 I0.02394 J0.00532
G1 X4.06328 Y-2.73878 Z-0.75556
G2 X4.01539 Y-2.74941 Z-0.75815 I-0.02394 J-0.00532
G1 X3.93672 Y-2.39508 Z-0.77037
G2 X3.98461 Y-2.38445 Z-0.77296 I0.02394 J0.00532
G1 X4.06328 Y-2.73878 Z-0.78519
G2 X4.01539 Y-2.74941 Z-0.78778 I-0.02394 J-0.00532
G1 X3.93672 Y-2.39508 Z-0.80000
G2 X3.98461 Y-2.38445 Z-0.80259 I0.02394 J0.00532
G1 X4.06328 Y-2.73878 Z-0.81481
G2 X4.01539 Y-2.74941 Z-0.81741 I-0.02394 J-0.00532
G1 X3.93672 Y-2.39508 Z-0.82963
G2 X3.98461 Y-2.38445 Z-0.83222 I0.02394 J0.00532
G1 X4.06328 Y-2.73878 Z-0.84444
G2 X4.01539 Y-2.74941 Z-0.84704 I-0.02394 J-0.00532
G1 X3.93672 Y-2.39508 Z-0.85926
G2 X3.98461 Y-2.38445 Z-0.86185 I0.02394 J0.00532
G1 X4.06328 Y-2.73878 Z-0.87407
G2 X4.01539 Y-2.74941 Z-0.87667 I-0.02394 J-0.00532
G1 X3.93672 Y-2.39508 Z-0.88889
G2 X3.98461 Y-2.38445 Z-0.89148 I0.02394 J0.00532
G1 X4.06328 Y-2.73878 Z-0.90370
G2 X4.01539 Y-2.74941 Z-0.90630 I-0.02394 J-0.00532
G1 X3.93672 Y-2.39508 Z-0.91852
G2 X3.98461 Y-2.38445 Z-0.92111 I0.02394 J0.00532
G1 X4.06328 Y-2.73878 Z-0.93333
G2 X4.01539 Y-2.74941 Z-0.93593 I-0.02394 J-0.00532
G1 X3.93672 Y-2.39508 Z-0.94815
G2 X3.98461 Y-2.38445 Z-0.95074 I0.02394 J0.00532
G1 X4.06328 Y-2.73878 Z-0.96296
G2 X4.01539 Y-2.74941 Z-0.96556 I-0.02394 J-0.00532
G1 X3.93672 Y-2.39508 Z-0.97778
G2 X3.98461 Y-2.38445 Z-0.98037 I0.02394 J0.00532
G1 X4.06328 Y-2.73878 Z-0.99259
G2 X4.01539 Y-2.74941 Z-0.99519 I-0.02394 J-0.00532
G1 X3.93672 Y-2.39508 Z-1.00741
G2 X3.98461 Y-2.38445 Z-1.01000 I0.02394 J0.00532
G1 X4.06328 Y-2.73878 Z-1.02222
G2 X4.01539 Y-2.74941 Z-1.02482 I-0.02394 J-0.00532
G1 X3.93672 Y-2.39508 Z-1.03704
G2 X3.98461 Y-2.38445 Z-1.03963 I0.02394 J0.00532
G1 X4.06328 Y-2.73878 Z-1.05185
G2 X4.01539 Y-2.74941 Z-1.05445 I-0.02394 J-0.00532
G1 X3.93672 Y-2.39508 Z-1.06667
G2 X3.98461 Y-2.38445 Z-1.06926 I0.02394 J0.00532
G1 X4.06328 Y-2.73878 Z-1.08148
G2 X4.01539 Y-2.74941 Z-1.08408 I-0.02394 J-0.00532
G1 X3.93672 Y-2.39508 Z-1.09630
G2 X3.98461 Y-2.38445 Z-1.09889 I0.02394 J0.00532
G1 X4.06328 Y-2.73878 Z-1.11111
G2 X4.01539 Y-2.74941 Z-1.11371 I-0.02394 J-0.00532
G1 X3.93672 Y-2.39508 Z-1.12593
G2 X3.98461 Y-2.38445 Z-1.12852 I0.02394 J0.00532
G1 X4.06328 Y-2.73878 Z-1.14074
G2 X4.01539 Y-2.74941 Z-1.14334 I-0.02394 J-0.00532
G1 X3.93672 Y-2.39508 Z-1.15556
G2 X3.98461 Y-2.38445 Z-1.15815 I0.02394 J0.00532
G1 X4.06328 Y-2.73878 Z-1.17037
G2 X4.01539 Y-2.74941 Z-1.17296 I-0.02394 J-0.00532
G1 X3.93672 Y-2.39508 Z-1.18519
G2 X3.98461 Y-2.38445 Z-1.18778 I0.02394 J0.00532
G1 X4.06328 Y-2.73878 Z-1.20000
G2 X4.01539 Y-2.74941 Z-1.20259 I-0.02394 J-0.00532
G1 X3.93672 Y-2.39508 Z-1.21481
G2 X3.98461 Y-2.38445 Z-1.21741 I0.02394 J0.00532
G1 X4.06328 Y-2.73878 Z-1.22963
G2 X4.01539 Y-2.74941 Z-1.23222 I-0.02394 J-0.00532
G1 X3.93672 Y-2.39508 Z-1.24444
G2 X3.98461 Y-2.38445 Z-1.24704 I0.02394 J0.00532
G1 X4.06328 Y-2.73878 Z-1.25926
G2 X4.01539 Y-2.74941 Z-1.26185 I-0.02394 J-0.00532
G1 X3.93672 Y-2.39508 Z-1.27407
G2 X3.98461 Y-2.38445 Z-1.27667 I0.02394 J0.00532
G1 X4.06328 Y-2.73878 Z-1.28889
G2 X4.01539 Y-2.74941 Z-1.29148 I-0.02394 J-0.00532
G1 X3.93672 Y-2.39508 Z-1.30370
G2 X3.98461 Y-2.38445 Z-1.30630 I0.02394 J0.00532
G1 X4.06328 Y-2.73878 Z-1.31852
G2 X4.01539 Y-2.74941 Z-1.32111 I-0.02394 J-0.00532
G1 X3.93672 Y-2.39508 Z-1.33333
G2 X3.98461 Y-2.38445 Z-1.33593 I0.02394 J0.00532
G1 X4.06328 Y-2.73878 Z-1.34815
G2 X4.01539 Y-2.74941 Z-1.35074 I-0.02394 J-0.00532
G1 X3.93672 Y-2.39508 Z-1.36296
G2 X3.98461 Y-2.38445 Z-1.36556 I0.02394 J0.00532
G1 X4.06328 Y-2.73878 Z-1.37778
G2 X4.01539 Y-2.74941 Z-1.38037 I-0.02394 J-0.00532
G1 X3.93672 Y-2.39508 Z-1.39259
G2 X3.98461 Y-2.38445 Z-1.39519 I0.02394 J0.00532
G1 X4.06328 Y-2.73878 Z-1.40741
G2 X4.01539 Y-2.74941 Z-1.41000 I-0.02394 J-0.00532
G1 X3.93672 Y-2.39508 Z-1.42222
G2 X3.98461 Y-2.38445 Z-1.42482 I0.02394 J0.00532
G1 X4.06328 Y-2.73878 Z-1.43704
G2 X4.01539 Y-2.74941 Z-1.43963 I-0.02394 J-0.00532
G1 X3.93672 Y-2.39508 Z-1.45185
G2 X3.98461 Y-2.38445 Z-1.45445 I0.02394 J0.00532
G1 X4.06328 Y-2.73878 Z-1.46667
G2 X4.01539 Y-2.74941 Z-1.46926 I-0.02394 J-0.00532
G1 X3.93672 Y-2.39508 Z-1.48148
G2 X3.98461 Y-2.38445 Z-1.48408 I0.02394 J0.00532
G1 X4.06328 Y-2.73878 Z-1.49630
G2 X4.01539 Y-2.74941 Z-1.49889 I-0.02394 J-0.00532
G1 X3.93672 Y-2.39508 Z-1.51111
G2 X3.98461 Y-2.38445 Z-1.51371 I0.02394 J0.00532
G1 X4.06328 Y-2.73878 Z-1.52593
G2 X4.01539 Y-2.74941 Z-1.52852 I-0.02394 J-0.00532
G1 X3.93672 Y-2.39508 Z-1.54074
G2 X3.98461 Y-2.38445 Z-1.54334 I0.02394 J0.00532
G1 X4.06328 Y-2.73878 Z-1.55556
G2 X4.01539 Y-2.74941 Z-1.55815 I-0.02394 J-0.00532
G1 X3.93672 Y-2.39508 Z-1.57037
G2 X3.98461 Y-2.38445 Z-1.57296 I0.02394 J0.00532
G1 X4.06328 Y-2.73878 Z-1.58519
G2 X4.01539 Y-2.74941 Z-1.58778 I-0.02394 J-0.00532
G1 X3.93672 Y-2.39508 Z-1.60000
G2 X3.98461 Y-2.38445 I0.02394 J0.00532
G1 X4.06328 Y-2.73878
G2 X4.01539 Y-2.74941 I-0.02394 J-0.00532
G1 X3.93672 Y-2.39508
G1 Z0.02963 F50.00000

G0 X3.92254 Y-2.39823
G1 Z0.02963 F50.00000
G1 F100.00000
G2 X3.99880 Y-2.38130 Z0.02589 I0.03813 J0.00846
G1 X4.07746 Y-2.73563 Z0.01481
G2 X4.00120 Y-2.75256 Z0.01107 I-0.03813 J-0.00846
G1 X3.92254 Y-2.39823 Z-0.00000
G2 X3.99880 Y-2.38130 Z-0.00374 I0.03813 J0.00846
G1 X4.07746 Y-2.73563 Z-0.01481
G2 X4.00120 Y-2.75256 Z-0.01856 I-0.03813 J-0.00846
G1 X3.92254 Y-2.39823 Z-0.02963
G2 X3.99880 Y-2.38130 Z-0.03337 I0.03813 J0.00846
G1 X4.07746 Y-2.73563 Z-0.04444
G2 X4.00120 Y-2.75256 Z-0.04819 I-0.03813 J-0.00846
G1 X3.92254 Y-2.39823 Z-0.05926
G2 X3.99880 Y-2.38130 Z-0.06300 I0.03813 J0.00846
G1 X4.07746 Y-2.73563 Z-0.07407
G2 X4.00120 Y-2.75256 Z-0.07782 I-0.03813 J-0.00846
G1 X3.92254 Y-2.39823 Z-0.08889
G2 X3.99880 Y-2.38130 Z-0.09263 I0.03813 J0.00846
G1 X4.07746 Y-2.73563 Z-0.10370
G2 X4.00120 Y-2.75256 Z-0.10745 I-0.03813 J-0.00846
G1 X3.92254 Y-2.39823 Z-0.11852
G2 X3.99880 Y-2.38130 Z-0.12226 I0.03813 J0.00846
G1 X4.07746 Y-2.73563 Z-0.13333
G2 X4.00120 Y-2.75256 Z-0.13708 I-0.03813 J-0.00846
G1 X3.92254 Y-2.39823 Z-0.14815
G2 X3.99880 Y-2.38130 Z-0.15189 I0.03813 J0.00846
G1 X4.07746 Y-2.73563 Z-0.16296
G2 X4.00120 Y-2.75256 Z-0.16671 I-0.03813 J-0.00846
G1 X3.92254 Y-2.39823 Z-0.17778
G2 X3.99880 Y-2.38130 Z-0.18152 I0.03813 J0.00846
G1 X4.07746 Y-2.73563 Z-0.19259
G2 X4.00120 Y-2.75256 Z-0.19634 I-0.03813 J-0.00846
G1 X3.92254 Y-2.39823 Z-0.20741
G2 X3.99880 Y-2.38130 Z-0.21115 I0.03813 J0.00846
G1 X4.07746 Y-2.73563 Z-0.22222
G2 X4.00120 Y-2.75256 Z-0.22597 I-0.03813 J-0.00846
G1 X3.92254 Y-2.39823 Z-0.23704
G2 X3.99880 Y-2.38130 Z-0.24078 I0.03813 J0.00846
G1 X4.07746 Y-2.73563 Z-0.25185
G2 X4.00120 Y-2.75256 Z-0.25559 I-0.03813 J-0.00846
G1 X3.92254 Y-2.39823 Z-0.26667
G2 X3.99880 Y-2.38130 Z-0.27041 I0.03813 J0.00846
G1 X4.07746 Y-2.73563 Z-0.28148
G2 X4.00120 Y-2.75256 Z-0.28522 I-0.03813 J-0.00846
G1 X3.92254 Y-2.39823 Z-0.29630
G2 X3.99880 Y-2.38130 Z-0.30004 I0.03813 J0.00846
G1 X4.07746 Y-2.73563 Z-0.31111
G2 X4.00120 Y-2.75256 Z-0.31485 I-0.03813 J-0.00846
G1 X3.92254 Y-2.39823 Z-0.32593
G2 X3.99880 Y-2.38130 Z-0.32967 I0.03813 J0.00846
G1 X4.07746 Y-2.73563 Z-0.34074
G2 X4.00120 Y-2.75256 Z-0.34448 I-0.03813 J-0.00846
G1 X3.92254 Y-2.39823 Z-0.35556
G2 X3.99880 Y-2.38130 Z-0.35930 I0.03813 J0.00846
G1 X4.07746 Y-2.73563 Z-0.37037
G2 X4.00120 Y-2.75256 Z-0.37411 I-0.03813 J-0.00846
G1 X3.92254 Y-2.39823 Z-0.38519
G2 X3.99880 Y-2.38130 Z-0.38893 I0.03813 J0.00846
G1 X4.07746 Y-2.73563 Z-0.40000
G2 X4.00120 Y-2.75256 Z-0.40374 I-0.03813 J-0.00846
G1 X3.92254 Y-2.39823 Z-0.41481
G2 X3.99880 Y-2.38130 Z-0.41856 I0.03813 J0.00846
G1 X4.07746 Y-2.73563 Z-0.42963
G2 X4.00120 Y-2.75256 Z-0.43337 I-0.03813 J-0.00846
G1 X3.92254 Y-2.39823 Z-0.44444
G2 X3.99880 Y-2.38130 Z-0.44819 I0.03813 J0.00846
G1 X4.07746 Y-2.73563 Z-0.45926
G2 X4.00120 Y-2.75256 Z-0.46300 I-0.03813 J-0.00846
G1 X3.92254 Y-2.39823 Z-0.47407
G2 X3.99880 Y-2.38130 Z-0.47782 I0.03813 J0.00846
G1 X4.07746 Y-2.73563 Z-0.48889
G2 X4.00120 Y-2.75256 Z-0.49263 I-0.03813 J-0.00846
G1 X3.92254 Y-2.39823 Z-0.50370
G2 X3.99880 Y-2.38130 Z-0.50745 I0.03813 J0.00846
G1 X4.07746 Y-2.73563 Z-0.51852
G2 X4.00120 Y-2.75256 Z-0.52226 I-0.03813 J-0.00846
G1 X3.92254 Y-2.39823 Z-0.53333
G2 X3.99880 Y-2.38130 Z-0.53708 I0.03813 J0.00846
G1 X4.07746 Y-2.73563 Z-0.54815
G2 X4.00120 Y-2.75256 Z-0.55189 I-0.03813 J-0.00846
G1 X3.92254 Y-2.39823 Z-0.56296
G2 X3.99880 Y-2.38130 Z-0.56671 I0.03813 J0.00846
G1 X4.07746 Y-2.73563 Z-0.57778
G2 X4.00120 Y-2.75256 Z-0.58152 I-0.03813 J-0.00846
G1 X3.92254 Y-2.39823 Z-0.59259
G2 X3.99880 Y-2.38130 Z-0.59634 I0.03813 J0.00846
G1 X4.07746 Y-2.73563 Z-0.60741
G2 X4.00120 Y-2.75256 Z-0.61115 I-0.03813 J-0.00846
G1 X3.92254 Y-2.39823 Z-0.62222
G2 X3.99880 Y-2.38130 Z-0.62597 I0.03813 J0.00846
G1 X4.07746 Y-2.73563 Z-0.63704
G2 X4.00120 Y-2.75256 Z-0.64078 I-0.03813 J-0.00846
G1 X3.92254 Y-2.39823 Z-0.65185
G2 X3.99880 Y-2.38130 Z-0.65559 I0.03813 J0.00846
G1 X4.07746 Y-2.73563 Z-0.66667
G2 X4.00120 Y-2.75256 Z-0.67041 I-0.03813 J-0.00846
G1 X3.92254 Y-2.39823 Z-0.68148
G2 X3.99880 Y-2.38130 Z-0.68522 I0.03813 J0.00846
G1 X4.07746 Y-2.73563 Z-0.69630
G2 X4.00120 Y-2.75256 Z-0.70004 I-0.03813 J-0.00846
G1 X3.92254 Y-2.39823 Z-0.71111
G2 X3.99880 Y-2.38130 Z-0.71485 I0.03813 J0.00846
G1 X4.07746 Y-2.73563 Z-0.72593
G2 X4.00120 Y-2.75256 Z-0.72967 I-0.03813 J-0.00846
G1 X3.92254 Y-2.39823 Z-0.74074
G2 X3.99880 Y-2.38130 Z-0.74448 I0.03813 J0.00846
G1 X4.07746 Y-2.73563 Z-0.75556
G2 X4.00120 Y-2.75256 Z-0.75930 I-0.03813 J-0.00846
G1 X3.92254 Y-2.39823 Z-0.77037
G2 X3.99880 Y-2.38130 Z-0.77411 I0.03813 J0.00846
G1 X4.07746 Y-2.73563 Z-0.78519
G2 X4.00120 Y-2.75256 Z-0.78893 I-0.03813 J-0.00846
G1 X3.92254 Y-2.39823 Z-0.80000
G2 X3.99880 Y-2.38130 Z-0.80374 I0.03813 J0.00846
G1 X4.07746 Y-2.73563 Z-0.81481
G2 X4.00120 Y-2.75256 Z-0.81856 I-0.03813 J-0.00846
G1 X3.92254 Y-2.39823 Z-0.82963
G2 X3.99880 Y-2.38130 Z-0.83337 I0.03813 J0.00846
G1 X4.07746 Y-2.73563 Z-0.84444
G2 X4.00120 Y-2.75256 Z-0.84819 I-0.03813 J-0.00846
G1 X3.92254 Y-2.39823 Z-0.85926
G2 X3.99880 Y-2.38130 Z-0.86300 I0.03813 J0.00846
G1 X4.07746 Y-2.73563 Z-0.87407
G2 X4.00120 Y-2.75256 Z-0.87782 I-0.03813 J-0.00846
G1 X3.92254 Y-2.39823 Z-0.88889
G2 X3.99880 Y-2.38130 Z-0.89263 I0.03813 J0.00846
G1 X4.07746 Y-2.73563 Z-0.90370
G2 X4.00120 Y-2.75256 Z-0.90745 I-0.03813 J-0.00846
G1 X3.92254 Y-2.39823 Z-0.91852
G2 X3.99880 Y-2.38130 Z-0.92226 I0.03813 J0.00846
G1 X4.07746 Y-2.73563 Z-0.93333
G2 X4.00120 Y-2.75256 Z-0.93708 I-0.03813 J-0.00846
G1 X3.92254 Y-2.39823 Z-0.94815
G2 X3.99880 Y-2.38130 Z-0.95189 I0.03813 J0.00846
G1 X4.07746 Y-2.73563 Z-0.96296
G2 X4.00120 Y-2.75256 Z-0.96671 I-0.03813 J-0.00846
G1 X3.92254 Y-2.39823 Z-0.97778
G2 X3.99880 Y-2.38130 Z-0.98152 I0.03813 J0.00846
G1 X4.07746 Y-2.73563 Z-0.99259
G2 X4.00120 Y-2.75256 Z-0.99634 I-0.03813 J-0.00846
G1 X3.92254 Y-2.39823 Z-1.00741
G2 X3.99880 Y-2.38130 Z-1.01115 I0.03813 J0.00846
G1 X4.07746 Y-2.73563 Z-1.02222
G2 X4.00120 Y-2.75256 Z-1.02597 I-0.03813 J-0.00846
G1 X3.92254 Y-2.39823 Z-1.03704
G2 X3.99880 Y-2.38130 Z-1.04078 I0.03813 J0.00846
G1 X4.07746 Y-2.73563 Z-1.05185
G2 X4.00120 Y-2.75256 Z-1.05559 I-0.03813 J-0.00846
G1 X3.92254 Y-2.39823 Z-1.06667
G2 X3.99880 Y-2.38130 Z-1.07041 I0.03813 J0.00846
G1 X4.07746 Y-2.73563 Z-1.08148
G2 X4.00120 Y-2.75256 Z-1.08522 I-0.03813 J-0.00846
G1 X3.92254 Y-2.39823 Z-1.09630
G2 X3.99880 Y-2.38130 Z-1.10004 I0.03813 J0.00846
G1 X4.07746 Y-2.73563 Z-1.11111
G2 X4.00120 Y-2.75256 Z-1.11485 I-0.03813 J-0.00846
G1 X3.92254 Y-2.39823 Z-1.12593
G2 X3.99880 Y-2.38130 Z-1.12967 I0.03813 J0.00846
G1 X4.07746 Y-2.73563 Z-1.14074
G2 X4.00120 Y-2.75256 Z-1.14448 I-0.03813 J-0.00846
G1 X3.92254 Y-2.39823 Z-1.15556
G2 X3.99880 Y-2.38130 Z-1.15930 I0.03813 J0.00846
G1 X4.07746 Y-2.73563 Z-1.17037
G2 X4.00120 Y-2.75256 Z-1.17411 I-0.03813 J-0.00846
G1 X3.92254 Y-2.39823 Z-1.18519
G2 X3.99880 Y-2.38130 Z-1.18893 I0.03813 J0.00846
G1 X4.07746 Y-2.73563 Z-1.20000
G2 X4.00120 Y-2.75256 Z-1.20374 I-0.03813 J-0.00846
G1 X3.92254 Y-2.39823 Z-1.21481
G2 X3.99880 Y-2.38130 Z-1.21856 I0.03813 J0.00846
G1 X4.07746 Y-2.73563 Z-1.22963
G2 X4.00120 Y-2.75256 Z-1.23337 I-0.03813 J-0.00846
G1 X3.92254 Y-2.39823 Z-1.24444
G2 X3.99880 Y-2.38130 Z-1.24819 I0.03813 J0.00846
G1 X4.07746 Y-2.73563 Z-1.25926
G2 X4.00120 Y-2.75256 Z-1.26300 I-0.03813 J-0.00846
G1 X3.92254 Y-2.39823 Z-1.27407
G2 X3.99880 Y-2.38130 Z-1.27782 I0.03813 J0.00846
G1 X4.07746 Y-2.73563 Z-1.28889
G2 X4.00120 Y-2.75256 Z-1.29263 I-0.03813 J-0.00846
G1 X3.92254 Y-2.39823 Z-1.30370
G2 X3.99880 Y-2.38130 Z-1.30745 I0.03813 J0.00846
G1 X4.07746 Y-2.73563 Z-1.31852
G2 X4.00120 Y-2.75256 Z-1.32226 I-0.03813 J-0.00846
G1 X3.92254 Y-2.39823 Z-1.33333
G2 X3.99880 Y-2.38130 Z-1.33708 I0.03813 J0.00846
G1 X4.07746 Y-2.73563 Z-1.34815
G2 X4.00120 Y-2.75256 Z-1.35189 I-0.03813 J-0.00846
G1 X3.92254 Y-2.39823 Z-1.36296
G2 X3.99880 Y-2.38130 Z-1.36671 I0.03813 J0.00846
G1 X4.07746 Y-2.73563 Z-1.37778
G2 X4.00120 Y-2.75256 Z-1.38152 I-0.03813 J-0.00846
G1 X3.92254 Y-2.39823 Z-1.39259
G2 X3.99880 Y-2.38130 Z-1.39634 I0.03813 J0.00846
G1 X4.07746 Y-2.73563 Z-1.40741
G2 X4.00120 Y-2.75256 Z-1.41115 I-0.03813 J-0.00846
G1 X3.92254 Y-2.39823 Z-1.42222
G2 X3.99880 Y-2.38130 Z-1.42597 I0.03813 J0.00846
G1 X4.07746 Y-2.73563 Z-1.43704
G2 X4.00120 Y-2.75256 Z-1.44078 I-0.03813 J-0.00846
G1 X3.92254 Y-2.39823 Z-1.45185
G2 X3.99880 Y-2.38130 Z-1.45559 I0.03813 J0.00846
G1 X4.07746 Y-2.73563 Z-1.46667
G2 X4.00120 Y-2.75256 Z-1.47041 I-0.03813 J-0.00846
G1 X3.92254 Y-2.39823 Z-1.48148
G2 X3.99880 Y-2.38130 Z-1.48522 I0.03813 J0.00846
G1 X4.07746 Y-2.73563 Z-1.49630
G2 X4.00120 Y-2.75256 Z-1.50004 I-0.03813 J-0.00846
G1 X3.92254 Y-2.39823 Z-1.51111
G2 X3.99880 Y-2.38130 Z-1.51485 I0.03813 J0.00846
G1 X4.07746 Y-2.73563 Z-1.52593
G2 X4.00120 Y-2.75256 Z-1.52967 I-0.03813 J-0.00846
G1 X3.92254 Y-2.39823 Z-1.54074
G2 X3.99880 Y-2.38130 Z-1.54448 I0.03813 J0.00846
G1 X4.07746 Y-2.73563 Z-1.55556
G2 X4.00120 Y-2.75256 Z-1.55930 I-0.03813 J-0.00846
G1 X3.92254 Y-2.39823 Z-1.57037
G2 X3.99880 Y-2.38130 Z-1.57411 I0.03813 J0.00846
G1 X4.07746 Y-2.73563 Z-1.58519
G2 X4.00120 Y-2.75256 Z-1.58893 I-0.03813 J-0.00846
G1 X3.92254 Y-2.39823 Z-1.60000
G2 X3.99880 Y-2.38130 I0.03813 J0.00846
G1 X4.07746 Y-2.73563
G2 X4.00120 Y-2.75256 I-0.03813 J-0.00846
G1 X3.92254 Y-2.39823
G1 Z0.08000 F50.00000

G00 Z1.000000 ( All done -- retract )

M5      (Spindle off.)
G04 P1.000000
M9      (Coolant off.)
M2      (Program end.)

