( pcb2gcode 1.3.2 )
( Software-independent Gcode )
( This file uses a mill head of 0.04000inch to drill the 2 bit sizes. )
( Bit sizes: [0.0394094 inch] [0.11811 inch] )

G94       (Inches per minute feed rate.)
G20       (Units == INCHES.)
G91.1     (Incremental arc distance mode.)
G90       (Absolute coordinates.)
S10000    (RPM spindle speed.)
G01 F100.00000 (Feedrate)
M3        (Spindle on clockwise.)
G04 P1.00000
G00 Z0.08000

G0 X3.25000 Y-2.55000
G1 Z-1.60000
G0 Z0.08000

G0 X3.65000 Y-2.55000
G1 Z-1.60000
G0 Z0.08000

G0 X3.81500 Y-2.66535
G1 Z0.02963 F100.00000
G1 X3.81500 Y-2.58665 Z0.01481
G1 X3.81500 Y-2.66535 Z-0.00000
G1 X3.81500 Y-2.58665 Z-0.01481
G1 X3.81500 Y-2.66535 Z-0.02963
G1 X3.81500 Y-2.58665 Z-0.04444
G1 X3.81500 Y-2.66535 Z-0.05926
G1 X3.81500 Y-2.58665 Z-0.07407
G1 X3.81500 Y-2.66535 Z-0.08889
G1 X3.81500 Y-2.58665 Z-0.10370
G1 X3.81500 Y-2.66535 Z-0.11852
G1 X3.81500 Y-2.58665 Z-0.13333
G1 X3.81500 Y-2.66535 Z-0.14815
G1 X3.81500 Y-2.58665 Z-0.16296
G1 X3.81500 Y-2.66535 Z-0.17778
G1 X3.81500 Y-2.58665 Z-0.19259
G1 X3.81500 Y-2.66535 Z-0.20741
G1 X3.81500 Y-2.58665 Z-0.22222
G1 X3.81500 Y-2.66535 Z-0.23704
G1 X3.81500 Y-2.58665 Z-0.25185
G1 X3.81500 Y-2.66535 Z-0.26667
G1 X3.81500 Y-2.58665 Z-0.28148
G1 X3.81500 Y-2.66535 Z-0.29630
G1 X3.81500 Y-2.58665 Z-0.31111
G1 X3.81500 Y-2.66535 Z-0.32593
G1 X3.81500 Y-2.58665 Z-0.34074
G1 X3.81500 Y-2.66535 Z-0.35556
G1 X3.81500 Y-2.58665 Z-0.37037
G1 X3.81500 Y-2.66535 Z-0.38519
G1 X3.81500 Y-2.58665 Z-0.40000
G1 X3.81500 Y-2.66535 Z-0.41481
G1 X3.81500 Y-2.58665 Z-0.42963
G1 X3.81500 Y-2.66535 Z-0.44444
G1 X3.81500 Y-2.58665 Z-0.45926
G1 X3.81500 Y-2.66535 Z-0.47407
G1 X3.81500 Y-2.58665 Z-0.48889
G1 X3.81500 Y-2.66535 Z-0.50370
G1 X3.81500 Y-2.58665 Z-0.51852
G1 X3.81500 Y-2.66535 Z-0.53333
G1 X3.81500 Y-2.58665 Z-0.54815
G1 X3.81500 Y-2.66535 Z-0.56296
G1 X3.81500 Y-2.58665 Z-0.57778
G1 X3.81500 Y-2.66535 Z-0.59259
G1 X3.81500 Y-2.58665 Z-0.60741
G1 X3.81500 Y-2.66535 Z-0.62222
G1 X3.81500 Y-2.58665 Z-0.63704
G1 X3.81500 Y-2.66535 Z-0.65185
G1 X3.81500 Y-2.58665 Z-0.66667
G1 X3.81500 Y-2.66535 Z-0.68148
G1 X3.81500 Y-2.58665 Z-0.69630
G1 X3.81500 Y-2.66535 Z-0.71111
G1 X3.81500 Y-2.58665 Z-0.72593
G1 X3.81500 Y-2.66535 Z-0.74074
G1 X3.81500 Y-2.58665 Z-0.75556
G1 X3.81500 Y-2.66535 Z-0.77037
G1 X3.81500 Y-2.58665 Z-0.78519
G1 X3.81500 Y-2.66535 Z-0.80000
G1 X3.81500 Y-2.58665 Z-0.81481
G1 X3.81500 Y-2.66535 Z-0.82963
G1 X3.81500 Y-2.58665 Z-0.84444
G1 X3.81500 Y-2.66535 Z-0.85926
G1 X3.81500 Y-2.58665 Z-0.87407
G1 X3.81500 Y-2.66535 Z-0.88889
G1 X3.81500 Y-2.58665 Z-0.90370
G1 X3.81500 Y-2.66535 Z-0.91852
G1 X3.81500 Y-2.58665 Z-0.93333
G1 X3.81500 Y-2.66535 Z-0.94815
G1 X3.81500 Y-2.58665 Z-0.96296
G1 X3.81500 Y-2.66535 Z-0.97778
G1 X3.81500 Y-2.58665 Z-0.99259
G1 X3.81500 Y-2.66535 Z-1.00741
G1 X3.81500 Y-2.58665 Z-1.02222
G1 X3.81500 Y-2.66535 Z-1.03704
G1 X3.81500 Y-2.58665 Z-1.05185
G1 X3.81500 Y-2.66535 Z-1.06667
G1 X3.81500 Y-2.58665 Z-1.08148
G1 X3.81500 Y-2.66535 Z-1.09630
G1 X3.81500 Y-2.58665 Z-1.11111
G1 X3.81500 Y-2.66535 Z-1.12593
G1 X3.81500 Y-2.58665 Z-1.14074
G1 X3.81500 Y-2.66535 Z-1.15556
G1 X3.81500 Y-2.58665 Z-1.17037
G1 X3.81500 Y-2.66535 Z-1.18519
G1 X3.81500 Y-2.58665 Z-1.20000
G1 X3.81500 Y-2.66535 Z-1.21481
G1 X3.81500 Y-2.58665 Z-1.22963
G1 X3.81500 Y-2.66535 Z-1.24444
G1 X3.81500 Y-2.58665 Z-1.25926
G1 X3.81500 Y-2.66535 Z-1.27407
G1 X3.81500 Y-2.58665 Z-1.28889
G1 X3.81500 Y-2.66535 Z-1.30370
G1 X3.81500 Y-2.58665 Z-1.31852
G1 X3.81500 Y-2.66535 Z-1.33333
G1 X3.81500 Y-2.58665 Z-1.34815
G1 X3.81500 Y-2.66535 Z-1.36296
G1 X3.81500 Y-2.58665 Z-1.37778
G1 X3.81500 Y-2.66535 Z-1.39259
G1 X3.81500 Y-2.58665 Z-1.40741
G1 X3.81500 Y-2.66535 Z-1.42222
G1 X3.81500 Y-2.58665 Z-1.43704
G1 X3.81500 Y-2.66535 Z-1.45185
G1 X3.81500 Y-2.58665 Z-1.46667
G1 X3.81500 Y-2.66535 Z-1.48148
G1 X3.81500 Y-2.58665 Z-1.49630
G1 X3.81500 Y-2.66535 Z-1.51111
G1 X3.81500 Y-2.58665 Z-1.52593
G1 X3.81500 Y-2.66535 Z-1.54074
G1 X3.81500 Y-2.58665 Z-1.55556
G1 X3.81500 Y-2.66535 Z-1.57037
G1 X3.81500 Y-2.58665 Z-1.58519
G1 X3.81500 Y-2.66535 Z-1.60000
G1 X3.81500 Y-2.58665
G0 Z0.08000

G0 X3.96067 Y-2.50791
G1 Z0.02963 F100.00000
G1 X4.03933 Y-2.50791 Z0.01481
G1 X3.96067 Y-2.50791 Z-0.00000
G1 X4.03933 Y-2.50791 Z-0.01481
G1 X3.96067 Y-2.50791 Z-0.02963
G1 X4.03933 Y-2.50791 Z-0.04444
G1 X3.96067 Y-2.50791 Z-0.05926
G1 X4.03933 Y-2.50791 Z-0.07407
G1 X3.96067 Y-2.50791 Z-0.08889
G1 X4.03933 Y-2.50791 Z-0.10370
G1 X3.96067 Y-2.50791 Z-0.11852
G1 X4.03933 Y-2.50791 Z-0.13333
G1 X3.96067 Y-2.50791 Z-0.14815
G1 X4.03933 Y-2.50791 Z-0.16296
G1 X3.96067 Y-2.50791 Z-0.17778
G1 X4.03933 Y-2.50791 Z-0.19259
G1 X3.96067 Y-2.50791 Z-0.20741
G1 X4.03933 Y-2.50791 Z-0.22222
G1 X3.96067 Y-2.50791 Z-0.23704
G1 X4.03933 Y-2.50791 Z-0.25185
G1 X3.96067 Y-2.50791 Z-0.26667
G1 X4.03933 Y-2.50791 Z-0.28148
G1 X3.96067 Y-2.50791 Z-0.29630
G1 X4.03933 Y-2.50791 Z-0.31111
G1 X3.96067 Y-2.50791 Z-0.32593
G1 X4.03933 Y-2.50791 Z-0.34074
G1 X3.96067 Y-2.50791 Z-0.35556
G1 X4.03933 Y-2.50791 Z-0.37037
G1 X3.96067 Y-2.50791 Z-0.38519
G1 X4.03933 Y-2.50791 Z-0.40000
G1 X3.96067 Y-2.50791 Z-0.41481
G1 X4.03933 Y-2.50791 Z-0.42963
G1 X3.96067 Y-2.50791 Z-0.44444
G1 X4.03933 Y-2.50791 Z-0.45926
G1 X3.96067 Y-2.50791 Z-0.47407
G1 X4.03933 Y-2.50791 Z-0.48889
G1 X3.96067 Y-2.50791 Z-0.50370
G1 X4.03933 Y-2.50791 Z-0.51852
G1 X3.96067 Y-2.50791 Z-0.53333
G1 X4.03933 Y-2.50791 Z-0.54815
G1 X3.96067 Y-2.50791 Z-0.56296
G1 X4.03933 Y-2.50791 Z-0.57778
G1 X3.96067 Y-2.50791 Z-0.59259
G1 X4.03933 Y-2.50791 Z-0.60741
G1 X3.96067 Y-2.50791 Z-0.62222
G1 X4.03933 Y-2.50791 Z-0.63704
G1 X3.96067 Y-2.50791 Z-0.65185
G1 X4.03933 Y-2.50791 Z-0.66667
G1 X3.96067 Y-2.50791 Z-0.68148
G1 X4.03933 Y-2.50791 Z-0.69630
G1 X3.96067 Y-2.50791 Z-0.71111
G1 X4.03933 Y-2.50791 Z-0.72593
G1 X3.96067 Y-2.50791 Z-0.74074
G1 X4.03933 Y-2.50791 Z-0.75556
G1 X3.96067 Y-2.50791 Z-0.77037
G1 X4.03933 Y-2.50791 Z-0.78519
G1 X3.96067 Y-2.50791 Z-0.80000
G1 X4.03933 Y-2.50791 Z-0.81481
G1 X3.96067 Y-2.50791 Z-0.82963
G1 X4.03933 Y-2.50791 Z-0.84444
G1 X3.96067 Y-2.50791 Z-0.85926
G1 X4.03933 Y-2.50791 Z-0.87407
G1 X3.96067 Y-2.50791 Z-0.88889
G1 X4.03933 Y-2.50791 Z-0.90370
G1 X3.96067 Y-2.50791 Z-0.91852
G1 X4.03933 Y-2.50791 Z-0.93333
G1 X3.96067 Y-2.50791 Z-0.94815
G1 X4.03933 Y-2.50791 Z-0.96296
G1 X3.96067 Y-2.50791 Z-0.97778
G1 X4.03933 Y-2.50791 Z-0.99259
G1 X3.96067 Y-2.50791 Z-1.00741
G1 X4.03933 Y-2.50791 Z-1.02222
G1 X3.96067 Y-2.50791 Z-1.03704
G1 X4.03933 Y-2.50791 Z-1.05185
G1 X3.96067 Y-2.50791 Z-1.06667
G1 X4.03933 Y-2.50791 Z-1.08148
G1 X3.96067 Y-2.50791 Z-1.09630
G1 X4.03933 Y-2.50791 Z-1.11111
G1 X3.96067 Y-2.50791 Z-1.12593
G1 X4.03933 Y-2.50791 Z-1.14074
G1 X3.96067 Y-2.50791 Z-1.15556
G1 X4.03933 Y-2.50791 Z-1.17037
G1 X3.96067 Y-2.50791 Z-1.18519
G1 X4.03933 Y-2.50791 Z-1.20000
G1 X3.96067 Y-2.50791 Z-1.21481
G1 X4.03933 Y-2.50791 Z-1.22963
G1 X3.96067 Y-2.50791 Z-1.24444
G1 X4.03933 Y-2.50791 Z-1.25926
G1 X3.96067 Y-2.50791 Z-1.27407
G1 X4.03933 Y-2.50791 Z-1.28889
G1 X3.96067 Y-2.50791 Z-1.30370
G1 X4.03933 Y-2.50791 Z-1.31852
G1 X3.96067 Y-2.50791 Z-1.33333
G1 X4.03933 Y-2.50791 Z-1.34815
G1 X3.96067 Y-2.50791 Z-1.36296
G1 X4.03933 Y-2.50791 Z-1.37778
G1 X3.96067 Y-2.50791 Z-1.39259
G1 X4.03933 Y-2.50791 Z-1.40741
G1 X3.96067 Y-2.50791 Z-1.42222
G1 X4.03933 Y-2.50791 Z-1.43704
G1 X3.96067 Y-2.50791 Z-1.45185
G1 X4.03933 Y-2.50791 Z-1.46667
G1 X3.96067 Y-2.50791 Z-1.48148
G1 X4.03933 Y-2.50791 Z-1.49630
G1 X3.96067 Y-2.50791 Z-1.51111
G1 X4.03933 Y-2.50791 Z-1.52593
G1 X3.96067 Y-2.50791 Z-1.54074
G1 X4.03933 Y-2.50791 Z-1.55556
G1 X3.96067 Y-2.50791 Z-1.57037
G1 X4.03933 Y-2.50791 Z-1.58519
G1 X3.96067 Y-2.50791 Z-1.60000
G1 X4.03933 Y-2.50791
G0 Z0.08000

G0 X4.30000 Y-2.55000
G1 Z-1.60000
G0 Z0.08000

G0 X4.70000 Y-2.55000
G1 Z-1.60000
G0 Z0.08000

G0 X4.70000 Y-2.95000
G1 Z-1.60000
G0 Z0.08000

G0 X4.30000 Y-2.95000
G1 Z-1.60000
G0 Z0.08000

G0 X4.15000 Y-3.30000
G1 Z-1.60000
G0 Z0.08000

G0 X4.05000 Y-3.30000
G1 Z-1.60000
G0 Z0.08000

G0 X3.85000 Y-3.30000
G1 Z-1.60000
G0 Z0.08000

G0 X3.75000 Y-3.30000
G1 Z-1.60000
G0 Z0.08000

G0 X3.65000 Y-2.95000
G1 Z-1.60000
G0 Z0.08000

G0 X3.25000 Y-2.95000
G1 Z-1.60000
G0 Z0.08000

G0 X3.92254 Y-2.39823
G1 Z0.02963 F100.00000
G2 X3.99880 Y-2.38130 Z0.02589 I0.03813 J0.00846
G1 X4.07746 Y-2.73563 Z0.01481
G2 X4.00120 Y-2.75256 Z0.01107 I-0.03813 J-0.00846
G1 X3.92254 Y-2.39823 Z-0.00000
G2 X3.99880 Y-2.38130 Z-0.00374 I0.03813 J0.00846
G1 X4.07746 Y-2.73563 Z-0.01481
G2 X4.00120 Y-2.75256 Z-0.01856 I-0.03813 J-0.00846
G1 X3.92254 Y-2.39823 Z-0.02963
G2 X3.99880 Y-2.38130 Z-0.03337 I0.03813 J0.00846
G1 X4.07746 Y-2.73563 Z-0.04444
G2 X4.00120 Y-2.75256 Z-0.04819 I-0.03813 J-0.00846
G1 X3.92254 Y-2.39823 Z-0.05926
G2 X3.99880 Y-2.38130 Z-0.06300 I0.03813 J0.00846
G1 X4.07746 Y-2.73563 Z-0.07407
G2 X4.00120 Y-2.75256 Z-0.07782 I-0.03813 J-0.00846
G1 X3.92254 Y-2.39823 Z-0.08889
G2 X3.99880 Y-2.38130 Z-0.09263 I0.03813 J0.00846
G1 X4.07746 Y-2.73563 Z-0.10370
G2 X4.00120 Y-2.75256 Z-0.10745 I-0.03813 J-0.00846
G1 X3.92254 Y-2.39823 Z-0.11852
G2 X3.99880 Y-2.38130 Z-0.12226 I0.03813 J0.00846
G1 X4.07746 Y-2.73563 Z-0.13333
G2 X4.00120 Y-2.75256 Z-0.13708 I-0.03813 J-0.00846
G1 X3.92254 Y-2.39823 Z-0.14815
G2 X3.99880 Y-2.38130 Z-0.15189 I0.03813 J0.00846
G1 X4.07746 Y-2.73563 Z-0.16296
G2 X4.00120 Y-2.75256 Z-0.16671 I-0.03813 J-0.00846
G1 X3.92254 Y-2.39823 Z-0.17778
G2 X3.99880 Y-2.38130 Z-0.18152 I0.03813 J0.00846
G1 X4.07746 Y-2.73563 Z-0.19259
G2 X4.00120 Y-2.75256 Z-0.19634 I-0.03813 J-0.00846
G1 X3.92254 Y-2.39823 Z-0.20741
G2 X3.99880 Y-2.38130 Z-0.21115 I0.03813 J0.00846
G1 X4.07746 Y-2.73563 Z-0.22222
G2 X4.00120 Y-2.75256 Z-0.22597 I-0.03813 J-0.00846
G1 X3.92254 Y-2.39823 Z-0.23704
G2 X3.99880 Y-2.38130 Z-0.24078 I0.03813 J0.00846
G1 X4.07746 Y-2.73563 Z-0.25185
G2 X4.00120 Y-2.75256 Z-0.25559 I-0.03813 J-0.00846
G1 X3.92254 Y-2.39823 Z-0.26667
G2 X3.99880 Y-2.38130 Z-0.27041 I0.03813 J0.00846
G1 X4.07746 Y-2.73563 Z-0.28148
G2 X4.00120 Y-2.75256 Z-0.28522 I-0.03813 J-0.00846
G1 X3.92254 Y-2.39823 Z-0.29630
G2 X3.99880 Y-2.38130 Z-0.30004 I0.03813 J0.00846
G1 X4.07746 Y-2.73563 Z-0.31111
G2 X4.00120 Y-2.75256 Z-0.31485 I-0.03813 J-0.00846
G1 X3.92254 Y-2.39823 Z-0.32593
G2 X3.99880 Y-2.38130 Z-0.32967 I0.03813 J0.00846
G1 X4.07746 Y-2.73563 Z-0.34074
G2 X4.00120 Y-2.75256 Z-0.34448 I-0.03813 J-0.00846
G1 X3.92254 Y-2.39823 Z-0.35556
G2 X3.99880 Y-2.38130 Z-0.35930 I0.03813 J0.00846
G1 X4.07746 Y-2.73563 Z-0.37037
G2 X4.00120 Y-2.75256 Z-0.37411 I-0.03813 J-0.00846
G1 X3.92254 Y-2.39823 Z-0.38519
G2 X3.99880 Y-2.38130 Z-0.38893 I0.03813 J0.00846
G1 X4.07746 Y-2.73563 Z-0.40000
G2 X4.00120 Y-2.75256 Z-0.40374 I-0.03813 J-0.00846
G1 X3.92254 Y-2.39823 Z-0.41481
G2 X3.99880 Y-2.38130 Z-0.41856 I0.03813 J0.00846
G1 X4.07746 Y-2.73563 Z-0.42963
G2 X4.00120 Y-2.75256 Z-0.43337 I-0.03813 J-0.00846
G1 X3.92254 Y-2.39823 Z-0.44444
G2 X3.99880 Y-2.38130 Z-0.44819 I0.03813 J0.00846
G1 X4.07746 Y-2.73563 Z-0.45926
G2 X4.00120 Y-2.75256 Z-0.46300 I-0.03813 J-0.00846
G1 X3.92254 Y-2.39823 Z-0.47407
G2 X3.99880 Y-2.38130 Z-0.47782 I0.03813 J0.00846
G1 X4.07746 Y-2.73563 Z-0.48889
G2 X4.00120 Y-2.75256 Z-0.49263 I-0.03813 J-0.00846
G1 X3.92254 Y-2.39823 Z-0.50370
G2 X3.99880 Y-2.38130 Z-0.50745 I0.03813 J0.00846
G1 X4.07746 Y-2.73563 Z-0.51852
G2 X4.00120 Y-2.75256 Z-0.52226 I-0.03813 J-0.00846
G1 X3.92254 Y-2.39823 Z-0.53333
G2 X3.99880 Y-2.38130 Z-0.53708 I0.03813 J0.00846
G1 X4.07746 Y-2.73563 Z-0.54815
G2 X4.00120 Y-2.75256 Z-0.55189 I-0.03813 J-0.00846
G1 X3.92254 Y-2.39823 Z-0.56296
G2 X3.99880 Y-2.38130 Z-0.56671 I0.03813 J0.00846
G1 X4.07746 Y-2.73563 Z-0.57778
G2 X4.00120 Y-2.75256 Z-0.58152 I-0.03813 J-0.00846
G1 X3.92254 Y-2.39823 Z-0.59259
G2 X3.99880 Y-2.38130 Z-0.59634 I0.03813 J0.00846
G1 X4.07746 Y-2.73563 Z-0.60741
G2 X4.00120 Y-2.75256 Z-0.61115 I-0.03813 J-0.00846
G1 X3.92254 Y-2.39823 Z-0.62222
G2 X3.99880 Y-2.38130 Z-0.62597 I0.03813 J0.00846
G1 X4.07746 Y-2.73563 Z-0.63704
G2 X4.00120 Y-2.75256 Z-0.64078 I-0.03813 J-0.00846
G1 X3.92254 Y-2.39823 Z-0.65185
G2 X3.99880 Y-2.38130 Z-0.65559 I0.03813 J0.00846
G1 X4.07746 Y-2.73563 Z-0.66667
G2 X4.00120 Y-2.75256 Z-0.67041 I-0.03813 J-0.00846
G1 X3.92254 Y-2.39823 Z-0.68148
G2 X3.99880 Y-2.38130 Z-0.68522 I0.03813 J0.00846
G1 X4.07746 Y-2.73563 Z-0.69630
G2 X4.00120 Y-2.75256 Z-0.70004 I-0.03813 J-0.00846
G1 X3.92254 Y-2.39823 Z-0.71111
G2 X3.99880 Y-2.38130 Z-0.71485 I0.03813 J0.00846
G1 X4.07746 Y-2.73563 Z-0.72593
G2 X4.00120 Y-2.75256 Z-0.72967 I-0.03813 J-0.00846
G1 X3.92254 Y-2.39823 Z-0.74074
G2 X3.99880 Y-2.38130 Z-0.74448 I0.03813 J0.00846
G1 X4.07746 Y-2.73563 Z-0.75556
G2 X4.00120 Y-2.75256 Z-0.75930 I-0.03813 J-0.00846
G1 X3.92254 Y-2.39823 Z-0.77037
G2 X3.99880 Y-2.38130 Z-0.77411 I0.03813 J0.00846
G1 X4.07746 Y-2.73563 Z-0.78519
G2 X4.00120 Y-2.75256 Z-0.78893 I-0.03813 J-0.00846
G1 X3.92254 Y-2.39823 Z-0.80000
G2 X3.99880 Y-2.38130 Z-0.80374 I0.03813 J0.00846
G1 X4.07746 Y-2.73563 Z-0.81481
G2 X4.00120 Y-2.75256 Z-0.81856 I-0.03813 J-0.00846
G1 X3.92254 Y-2.39823 Z-0.82963
G2 X3.99880 Y-2.38130 Z-0.83337 I0.03813 J0.00846
G1 X4.07746 Y-2.73563 Z-0.84444
G2 X4.00120 Y-2.75256 Z-0.84819 I-0.03813 J-0.00846
G1 X3.92254 Y-2.39823 Z-0.85926
G2 X3.99880 Y-2.38130 Z-0.86300 I0.03813 J0.00846
G1 X4.07746 Y-2.73563 Z-0.87407
G2 X4.00120 Y-2.75256 Z-0.87782 I-0.03813 J-0.00846
G1 X3.92254 Y-2.39823 Z-0.88889
G2 X3.99880 Y-2.38130 Z-0.89263 I0.03813 J0.00846
G1 X4.07746 Y-2.73563 Z-0.90370
G2 X4.00120 Y-2.75256 Z-0.90745 I-0.03813 J-0.00846
G1 X3.92254 Y-2.39823 Z-0.91852
G2 X3.99880 Y-2.38130 Z-0.92226 I0.03813 J0.00846
G1 X4.07746 Y-2.73563 Z-0.93333
G2 X4.00120 Y-2.75256 Z-0.93708 I-0.03813 J-0.00846
G1 X3.92254 Y-2.39823 Z-0.94815
G2 X3.99880 Y-2.38130 Z-0.95189 I0.03813 J0.00846
G1 X4.07746 Y-2.73563 Z-0.96296
G2 X4.00120 Y-2.75256 Z-0.96671 I-0.03813 J-0.00846
G1 X3.92254 Y-2.39823 Z-0.97778
G2 X3.99880 Y-2.38130 Z-0.98152 I0.03813 J0.00846
G1 X4.07746 Y-2.73563 Z-0.99259
G2 X4.00120 Y-2.75256 Z-0.99634 I-0.03813 J-0.00846
G1 X3.92254 Y-2.39823 Z-1.00741
G2 X3.99880 Y-2.38130 Z-1.01115 I0.03813 J0.00846
G1 X4.07746 Y-2.73563 Z-1.02222
G2 X4.00120 Y-2.75256 Z-1.02597 I-0.03813 J-0.00846
G1 X3.92254 Y-2.39823 Z-1.03704
G2 X3.99880 Y-2.38130 Z-1.04078 I0.03813 J0.00846
G1 X4.07746 Y-2.73563 Z-1.05185
G2 X4.00120 Y-2.75256 Z-1.05559 I-0.03813 J-0.00846
G1 X3.92254 Y-2.39823 Z-1.06667
G2 X3.99880 Y-2.38130 Z-1.07041 I0.03813 J0.00846
G1 X4.07746 Y-2.73563 Z-1.08148
G2 X4.00120 Y-2.75256 Z-1.08522 I-0.03813 J-0.00846
G1 X3.92254 Y-2.39823 Z-1.09630
G2 X3.99880 Y-2.38130 Z-1.10004 I0.03813 J0.00846
G1 X4.07746 Y-2.73563 Z-1.11111
G2 X4.00120 Y-2.75256 Z-1.11485 I-0.03813 J-0.00846
G1 X3.92254 Y-2.39823 Z-1.12593
G2 X3.99880 Y-2.38130 Z-1.12967 I0.03813 J0.00846
G1 X4.07746 Y-2.73563 Z-1.14074
G2 X4.00120 Y-2.75256 Z-1.14448 I-0.03813 J-0.00846
G1 X3.92254 Y-2.39823 Z-1.15556
G2 X3.99880 Y-2.38130 Z-1.15930 I0.03813 J0.00846
G1 X4.07746 Y-2.73563 Z-1.17037
G2 X4.00120 Y-2.75256 Z-1.17411 I-0.03813 J-0.00846
G1 X3.92254 Y-2.39823 Z-1.18519
G2 X3.99880 Y-2.38130 Z-1.18893 I0.03813 J0.00846
G1 X4.07746 Y-2.73563 Z-1.20000
G2 X4.00120 Y-2.75256 Z-1.20374 I-0.03813 J-0.00846
G1 X3.92254 Y-2.39823 Z-1.21481
G2 X3.99880 Y-2.38130 Z-1.21856 I0.03813 J0.00846
G1 X4.07746 Y-2.73563 Z-1.22963
G2 X4.00120 Y-2.75256 Z-1.23337 I-0.03813 J-0.00846
G1 X3.92254 Y-2.39823 Z-1.24444
G2 X3.99880 Y-2.38130 Z-1.24819 I0.03813 J0.00846
G1 X4.07746 Y-2.73563 Z-1.25926
G2 X4.00120 Y-2.75256 Z-1.26300 I-0.03813 J-0.00846
G1 X3.92254 Y-2.39823 Z-1.27407
G2 X3.99880 Y-2.38130 Z-1.27782 I0.03813 J0.00846
G1 X4.07746 Y-2.73563 Z-1.28889
G2 X4.00120 Y-2.75256 Z-1.29263 I-0.03813 J-0.00846
G1 X3.92254 Y-2.39823 Z-1.30370
G2 X3.99880 Y-2.38130 Z-1.30745 I0.03813 J0.00846
G1 X4.07746 Y-2.73563 Z-1.31852
G2 X4.00120 Y-2.75256 Z-1.32226 I-0.03813 J-0.00846
G1 X3.92254 Y-2.39823 Z-1.33333
G2 X3.99880 Y-2.38130 Z-1.33708 I0.03813 J0.00846
G1 X4.07746 Y-2.73563 Z-1.34815
G2 X4.00120 Y-2.75256 Z-1.35189 I-0.03813 J-0.00846
G1 X3.92254 Y-2.39823 Z-1.36296
G2 X3.99880 Y-2.38130 Z-1.36671 I0.03813 J0.00846
G1 X4.07746 Y-2.73563 Z-1.37778
G2 X4.00120 Y-2.75256 Z-1.38152 I-0.03813 J-0.00846
G1 X3.92254 Y-2.39823 Z-1.39259
G2 X3.99880 Y-2.38130 Z-1.39634 I0.03813 J0.00846
G1 X4.07746 Y-2.73563 Z-1.40741
G2 X4.00120 Y-2.75256 Z-1.41115 I-0.03813 J-0.00846
G1 X3.92254 Y-2.39823 Z-1.42222
G2 X3.99880 Y-2.38130 Z-1.42597 I0.03813 J0.00846
G1 X4.07746 Y-2.73563 Z-1.43704
G2 X4.00120 Y-2.75256 Z-1.44078 I-0.03813 J-0.00846
G1 X3.92254 Y-2.39823 Z-1.45185
G2 X3.99880 Y-2.38130 Z-1.45559 I0.03813 J0.00846
G1 X4.07746 Y-2.73563 Z-1.46667
G2 X4.00120 Y-2.75256 Z-1.47041 I-0.03813 J-0.00846
G1 X3.92254 Y-2.39823 Z-1.48148
G2 X3.99880 Y-2.38130 Z-1.48522 I0.03813 J0.00846
G1 X4.07746 Y-2.73563 Z-1.49630
G2 X4.00120 Y-2.75256 Z-1.50004 I-0.03813 J-0.00846
G1 X3.92254 Y-2.39823 Z-1.51111
G2 X3.99880 Y-2.38130 Z-1.51485 I0.03813 J0.00846
G1 X4.07746 Y-2.73563 Z-1.52593
G2 X4.00120 Y-2.75256 Z-1.52967 I-0.03813 J-0.00846
G1 X3.92254 Y-2.39823 Z-1.54074
G2 X3.99880 Y-2.38130 Z-1.54448 I0.03813 J0.00846
G1 X4.07746 Y-2.73563 Z-1.55556
G2 X4.00120 Y-2.75256 Z-1.55930 I-0.03813 J-0.00846
G1 X3.92254 Y-2.39823 Z-1.57037
G2 X3.99880 Y-2.38130 Z-1.57411 I0.03813 J0.00846
G1 X4.07746 Y-2.73563 Z-1.58519
G2 X4.00120 Y-2.75256 Z-1.58893 I-0.03813 J-0.00846
G1 X3.92254 Y-2.39823 Z-1.60000
G2 X3.99880 Y-2.38130 I0.03813 J0.00846
G1 X4.07746 Y-2.73563
G2 X4.00120 Y-2.75256 I-0.03813 J-0.00846
G1 X3.92254 Y-2.39823
G0 Z0.08000

G00 Z1.000 ( All done -- retract )

M5      (Spindle off.)
G04 P1.000000
M9      (Coolant off.)
M2      (Program end.)

