( pcb2gcode 2.5.0 )
( Software-independent Gcode )

G94 ( Inches per minute feed rate. )
G20 ( Units == INCHES. )

G90 ( Absolute coordinates. )
G00 S12000 ( RPM spindle speed. )
G64 P0.00040 ( set maximum deviation from commanded toolpath )
G01 F360.00000 ( Feedrate. )


G00 Z1.00000 (Retract to tool change height)
T1
M5      (Spindle stop.)
G04 P1.00000 (Wait for spindle to stop)
(MSG, Change tool bit to mill diameter 0.01969in)
M6      (Tool change.)
M0      (Temporary machine stop.)
M3 ( Spindle on clockwise. )
G04 P1.00000 (Wait for spindle to get up to speed)
( Piece #1, position [0;0] )

G04 P0 ( dwell for no time -- G64 should not smooth over this point )
G00 Z0.08000 ( retract )

G00 X3.16249 Y-3.21714 ( rapid move to begin. )
G01 F180.00000
( Mill infeed pass 1/1 )
G01 Z-0.04000
G04 P0 ( dwell for no time -- G64 should not smooth over this point )
G01 F360.00000
G01 X3.16249 Y-3.21714
G01 X3.16249 Y-2.81119
G01 X3.16265 Y-2.80962
G01 X3.16297 Y-2.80856
G01 X3.16348 Y-2.80759
G01 X3.16449 Y-2.80637
G01 X3.20637 Y-2.76449
G01 X3.20759 Y-2.76348
G01 X3.20856 Y-2.76297
G01 X3.20962 Y-2.76265
G01 X3.21119 Y-2.76249
G01 X3.56653 Y-2.76249
G01 X3.56855 Y-2.76228
G01 X3.57011 Y-2.76182
G01 X3.57191 Y-2.76089
G01 X3.57349 Y-2.75961
G01 X3.71076 Y-2.62234
G01 X3.71198 Y-2.62134
G01 X3.71295 Y-2.62082
G01 X3.71400 Y-2.62050
G01 X3.71558 Y-2.62034
G01 X3.74691 Y-2.62031
G01 X3.74852 Y-2.62004
G01 X3.75042 Y-2.61934
G01 X3.75215 Y-2.61827
G01 X3.75334 Y-2.61717
G01 X3.75455 Y-2.61554
G01 X3.75527 Y-2.61408
G01 X3.75573 Y-2.61252
G01 X3.75593 Y-2.61091
G01 X3.75594 Y-2.56694
G01 X3.86198 Y-2.56694
G01 X3.86360 Y-2.56681
G01 X3.86479 Y-2.56653
G01 X3.86630 Y-2.56594
G01 X3.86736 Y-2.56534
G01 X3.86894 Y-2.56406
G01 X3.92876 Y-2.50424
G01 X3.92998 Y-2.50324
G01 X3.93095 Y-2.50272
G01 X3.93403 Y-2.50199
G01 X3.93623 Y-2.50100
G01 X3.93783 Y-2.49978
G01 X3.93937 Y-2.49793
G01 X3.94042 Y-2.49576
G01 X3.94093 Y-2.49300
G01 X3.94094 Y-2.44884
G01 X4.05906 Y-2.44884
G01 X4.05906 Y-2.56696
G01 X3.94094 Y-2.56696
G01 X3.94094 Y-2.53182
G01 X3.94081 Y-2.53020
G01 X3.94041 Y-2.52862
G01 X3.93934 Y-2.52644
G01 X3.93806 Y-2.52486
G01 X3.93648 Y-2.52358
G01 X3.93430 Y-2.52251
G01 X3.93232 Y-2.52205
G01 X3.92988 Y-2.52205
G01 X3.92752 Y-2.52265
G01 X3.92572 Y-2.52358
G01 X3.92414 Y-2.52486
G01 X3.87694 Y-2.57206
G01 X3.87544 Y-2.57398
G01 X3.87447 Y-2.57621
G01 X3.87419 Y-2.57740
G01 X3.87406 Y-2.57902
G01 X3.87406 Y-2.68506
G01 X3.75594 Y-2.68506
G01 X3.75593 Y-2.64109
G01 X3.75573 Y-2.63948
G01 X3.75541 Y-2.63830
G01 X3.75434 Y-2.63612
G01 X3.75277 Y-2.63426
G01 X3.75114 Y-2.63304
G01 X3.74930 Y-2.63219
G01 X3.74732 Y-2.63173
G01 X3.72030 Y-2.63173
G01 X3.71871 Y-2.63207
G01 X3.71720 Y-2.63266
G01 X3.71580 Y-2.63349
G01 X3.71456 Y-2.63454
G01 X3.57729 Y-2.77181
G01 X3.57607 Y-2.77281
G01 X3.57510 Y-2.77333
G01 X3.57404 Y-2.77365
G01 X3.57247 Y-2.77381
G01 X3.21713 Y-2.77381
G01 X3.21511 Y-2.77401
G01 X3.21355 Y-2.77448
G01 X3.21209 Y-2.77519
G01 X3.21077 Y-2.77614
G01 X3.17641 Y-2.81047
G01 X3.17541 Y-2.81175
G01 X3.17463 Y-2.81318
G01 X3.17411 Y-2.81472
G01 X3.17384 Y-2.81632
G01 X3.17381 Y-3.21161
G01 X3.17401 Y-3.21322
G01 X3.17463 Y-3.21516
G01 X3.17541 Y-3.21658
G01 X3.17669 Y-3.21816
G01 X3.34879 Y-3.39026
G01 X3.35003 Y-3.39131
G01 X3.35142 Y-3.39214
G01 X3.35294 Y-3.39273
G01 X3.35453 Y-3.39306
G01 X3.81515 Y-3.39314
G01 X3.81757 Y-3.39284
G01 X3.81983 Y-3.39195
G01 X3.82181 Y-3.39054
G01 X3.84174 Y-3.37061
G01 X3.84295 Y-3.36899
G01 X3.84367 Y-3.36753
G01 X3.84413 Y-3.36597
G01 X3.84433 Y-3.36436
G01 X3.84433 Y-3.33896
G01 X3.84413 Y-3.33735
G01 X3.84381 Y-3.33617
G01 X3.84274 Y-3.33399
G01 X3.84174 Y-3.33270
G01 X3.84022 Y-3.33136
G01 X3.83845 Y-3.33036
G01 X3.83652 Y-3.32974
G01 X3.83450 Y-3.32953
G01 X3.82244 Y-3.32953
G01 X3.82244 Y-3.27047
G01 X3.87756 Y-3.27047
G01 X3.87757 Y-3.28491
G01 X3.87777 Y-3.28652
G01 X3.87823 Y-3.28808
G01 X3.87895 Y-3.28954
G01 X3.87963 Y-3.29054
G01 X3.88044 Y-3.29146
G01 X3.88168 Y-3.29251
G01 X3.88308 Y-3.29334
G01 X3.88421 Y-3.29381
G01 X3.88578 Y-3.29421
G01 X3.88740 Y-3.29434
G01 X4.01382 Y-3.29427
G01 X4.01501 Y-3.29404
G01 X4.01655 Y-3.29351
G01 X4.01864 Y-3.29227
G01 X4.01956 Y-3.29146
G01 X4.02061 Y-3.29022
G01 X4.02125 Y-3.28918
G01 X4.02191 Y-3.28769
G01 X4.02231 Y-3.28612
G01 X4.02243 Y-3.28491
G01 X4.02244 Y-3.27047
G01 X4.07756 Y-3.27047
G01 X4.07756 Y-3.32953
G01 X4.02244 Y-3.32953
G01 X4.02243 Y-3.31509
G01 X4.02231 Y-3.31388
G01 X4.02191 Y-3.31230
G01 X4.02125 Y-3.31081
G01 X4.02061 Y-3.30978
G01 X4.01956 Y-3.30854
G01 X4.01864 Y-3.30773
G01 X4.01655 Y-3.30649
G01 X4.01501 Y-3.30596
G01 X4.01382 Y-3.30573
G01 X3.88740 Y-3.30566
G01 X3.88578 Y-3.30579
G01 X3.88459 Y-3.30607
G01 X3.88236 Y-3.30704
G01 X3.88044 Y-3.30854
G01 X3.87895 Y-3.31046
G01 X3.87797 Y-3.31269
G01 X3.87757 Y-3.31509
G01 X3.87756 Y-3.32953
G01 X3.86509 Y-3.32953
G01 X3.86269 Y-3.32994
G01 X3.86046 Y-3.33091
G01 X3.85883 Y-3.33213
G01 X3.85749 Y-3.33365
G01 X3.85649 Y-3.33542
G01 X3.85587 Y-3.33735
G01 X3.85567 Y-3.33896
G01 X3.85566 Y-3.36989
G01 X3.85550 Y-3.37146
G01 X3.85518 Y-3.37252
G01 X3.85466 Y-3.37349
G01 X3.85366 Y-3.37471
G01 X3.82591 Y-3.40246
G01 X3.82469 Y-3.40346
G01 X3.82372 Y-3.40398
G01 X3.82266 Y-3.40430
G01 X3.82109 Y-3.40446
G01 X3.34981 Y-3.40446
G01 X3.34823 Y-3.40430
G01 X3.34718 Y-3.40398
G01 X3.34621 Y-3.40346
G01 X3.34498 Y-3.40246
G01 X3.16449 Y-3.22196
G01 X3.16348 Y-3.22074
G01 X3.16297 Y-3.21977
G01 X3.16265 Y-3.21872
G01 X3.16249 Y-3.21714
G04 P0 ( dwell for no time -- G64 should not smooth over this point )
G00 Z0.08000 ( retract )

G00 X3.36068 Y-3.32874 ( rapid move to begin. )
G01 F180.00000
( Mill infeed pass 1/1 )
G01 Z-0.04000
G04 P0 ( dwell for no time -- G64 should not smooth over this point )
G01 F360.00000
G01 X3.36068 Y-3.32874
G01 X3.36102 Y-3.33219
G01 X3.36202 Y-3.33550
G01 X3.36366 Y-3.33856
G01 X3.36585 Y-3.34123
G01 X3.36853 Y-3.34343
G01 X3.37158 Y-3.34506
G01 X3.37490 Y-3.34607
G01 X3.37883 Y-3.34646
G01 X3.42117 Y-3.34646
G01 X3.42510 Y-3.34607
G01 X3.42842 Y-3.34506
G01 X3.43147 Y-3.34343
G01 X3.43415 Y-3.34123
G01 X3.43715 Y-3.33763
G01 X3.43909 Y-3.33608
G01 X3.44135 Y-3.33507
G01 X3.44379 Y-3.33466
G01 X3.67083 Y-3.33465
G01 X3.67228 Y-3.33452
G01 X3.67369 Y-3.33414
G01 X3.72016 Y-3.31718
G01 X3.72254 Y-3.31663
G01 X3.72377 Y-3.31658
G01 X3.72539 Y-3.31676
G01 X3.72772 Y-3.31752
G01 X3.72946 Y-3.31857
G01 X3.73472 Y-3.32288
G01 X3.73947 Y-3.32542
G01 X3.74463 Y-3.32698
G01 X3.75000 Y-3.32751
G01 X3.75537 Y-3.32698
G01 X3.76053 Y-3.32542
G01 X3.76528 Y-3.32287
G01 X3.76945 Y-3.31945
G01 X3.77287 Y-3.31528
G01 X3.77542 Y-3.31053
G01 X3.77698 Y-3.30537
G01 X3.77751 Y-3.30000
G01 X3.77698 Y-3.29463
G01 X3.77542 Y-3.28947
G01 X3.77287 Y-3.28471
G01 X3.76945 Y-3.28055
G01 X3.76528 Y-3.27712
G01 X3.76053 Y-3.27458
G01 X3.75537 Y-3.27302
G01 X3.75000 Y-3.27249
G01 X3.74463 Y-3.27302
G01 X3.73947 Y-3.27458
G01 X3.73472 Y-3.27712
G01 X3.73055 Y-3.28055
G01 X3.72713 Y-3.28471
G01 X3.72458 Y-3.28947
G01 X3.72302 Y-3.29463
G01 X3.72260 Y-3.29854
G01 X3.72217 Y-3.30012
G01 X3.72168 Y-3.30125
G01 X3.72105 Y-3.30230
G01 X3.72003 Y-3.30357
G01 X3.71813 Y-3.30512
G01 X3.71629 Y-3.30601
G01 X3.67185 Y-3.32224
G01 X3.66976 Y-3.32275
G01 X3.44379 Y-3.32282
G01 X3.44135 Y-3.32241
G01 X3.43909 Y-3.32140
G01 X3.43715 Y-3.31985
G01 X3.43415 Y-3.31625
G01 X3.43147 Y-3.31405
G01 X3.42842 Y-3.31242
G01 X3.42510 Y-3.31141
G01 X3.42117 Y-3.31102
G01 X3.37883 Y-3.31102
G01 X3.37490 Y-3.31141
G01 X3.37158 Y-3.31242
G01 X3.36853 Y-3.31405
G01 X3.36585 Y-3.31625
G01 X3.36366 Y-3.31892
G01 X3.36202 Y-3.32198
G01 X3.36102 Y-3.32529
G01 X3.36068 Y-3.32874
G01 X3.42033 Y-3.32874
G04 P0 ( dwell for no time -- G64 should not smooth over this point )
G00 Z0.08000 ( retract )

G00 X3.42033 Y-3.25000 ( rapid move to begin. )
G01 F180.00000
( Mill infeed pass 1/1 )
G01 Z-0.04000
G04 P0 ( dwell for no time -- G64 should not smooth over this point )
G01 F360.00000
G01 X3.42033 Y-3.25000
G01 X3.37967 Y-3.25000
G04 P0 ( dwell for no time -- G64 should not smooth over this point )
G00 Z0.08000 ( retract )

G00 X3.42033 Y-3.17126 ( rapid move to begin. )
G01 F180.00000
( Mill infeed pass 1/1 )
G01 Z-0.04000
G04 P0 ( dwell for no time -- G64 should not smooth over this point )
G01 F360.00000
G01 X3.42033 Y-3.17126
G01 X3.36068 Y-3.17126
G01 X3.36102 Y-3.17471
G01 X3.36202 Y-3.17802
G01 X3.36366 Y-3.18108
G01 X3.36585 Y-3.18375
G01 X3.36853 Y-3.18595
G01 X3.37158 Y-3.18758
G01 X3.37490 Y-3.18859
G01 X3.37883 Y-3.18898
G01 X3.42117 Y-3.18898
G01 X3.42510 Y-3.18859
G01 X3.42842 Y-3.18758
G01 X3.43147 Y-3.18595
G01 X3.43415 Y-3.18375
G01 X3.43715 Y-3.18015
G01 X3.43909 Y-3.17860
G01 X3.44057 Y-3.17786
G01 X3.44175 Y-3.17748
G01 X3.44421 Y-3.17717
G01 X4.04232 Y-3.17717
G01 X4.04395 Y-3.17701
G01 X4.04505 Y-3.17667
G01 X4.04606 Y-3.17613
G01 X4.04732 Y-3.17509
G01 X4.26026 Y-2.96226
G01 X4.26127 Y-2.96157
G01 X4.26274 Y-2.96086
G01 X4.26390 Y-2.96049
G01 X4.26551 Y-2.96022
G01 X4.26714 Y-2.96023
G01 X4.26835 Y-2.96041
G01 X4.27066 Y-2.96121
G01 X4.27238 Y-2.96229
G01 X4.27358 Y-2.96340
G01 X4.27457 Y-2.96469
G01 X4.27550 Y-2.96637
G01 X4.27917 Y-2.97083
G01 X4.28363 Y-2.97449
G01 X4.28873 Y-2.97722
G01 X4.29425 Y-2.97889
G01 X4.30000 Y-2.97946
G01 X4.30575 Y-2.97889
G01 X4.31127 Y-2.97722
G01 X4.31637 Y-2.97449
G01 X4.32083 Y-2.97083
G01 X4.32449 Y-2.96637
G01 X4.32722 Y-2.96127
G01 X4.32889 Y-2.95575
G01 X4.32946 Y-2.95000
G01 X4.32889 Y-2.94425
G01 X4.32722 Y-2.93873
G01 X4.32449 Y-2.93363
G01 X4.32083 Y-2.92917
G01 X4.31637 Y-2.92550
G01 X4.31075 Y-2.92250
G01 X4.30882 Y-2.92100
G01 X4.30776 Y-2.91976
G01 X4.30710 Y-2.91872
G01 X4.30645 Y-2.91723
G01 X4.30612 Y-2.91604
G01 X4.30591 Y-2.91401
G01 X4.30591 Y-2.86534
G01 X4.30621 Y-2.86333
G01 X4.30709 Y-2.86106
G01 X4.30824 Y-2.85939
G01 X4.30970 Y-2.85798
G01 X4.31107 Y-2.85709
G01 X4.31255 Y-2.85644
G01 X4.31413 Y-2.85604
G01 X4.31575 Y-2.85591
G01 X4.43197 Y-2.85592
G01 X4.43441 Y-2.85633
G01 X4.43667 Y-2.85734
G01 X4.43832 Y-2.85860
G01 X4.44047 Y-2.86110
G01 X4.44285 Y-2.86305
G01 X4.44557 Y-2.86450
G01 X4.44851 Y-2.86540
G01 X4.45157 Y-2.86570
G01 X4.45464 Y-2.86540
G01 X4.45758 Y-2.86450
G01 X4.46030 Y-2.86305
G01 X4.46268 Y-2.86110
G01 X4.46463 Y-2.85872
G01 X4.46608 Y-2.85601
G01 X4.46697 Y-2.85306
G01 X4.46727 Y-2.85000
G01 X4.46697 Y-2.84694
G01 X4.46608 Y-2.84399
G01 X4.46463 Y-2.84128
G01 X4.46268 Y-2.83890
G01 X4.46030 Y-2.83695
G01 X4.45758 Y-2.83549
G01 X4.45464 Y-2.83460
G01 X4.45157 Y-2.83430
G01 X4.44851 Y-2.83460
G01 X4.44557 Y-2.83549
G01 X4.44285 Y-2.83695
G01 X4.44047 Y-2.83890
G01 X4.43861 Y-2.84111
G01 X4.43702 Y-2.84243
G01 X4.43480 Y-2.84354
G01 X4.43238 Y-2.84406
G01 X4.30048 Y-2.84409
G01 X4.29886 Y-2.84425
G01 X4.29776 Y-2.84459
G01 X4.29674 Y-2.84513
G01 X4.29586 Y-2.84586
G01 X4.29513 Y-2.84674
G01 X4.29459 Y-2.84776
G01 X4.29425 Y-2.84886
G01 X4.29409 Y-2.85048
G01 X4.29408 Y-2.90795
G01 X4.29388 Y-2.90956
G01 X4.29342 Y-2.91112
G01 X4.29270 Y-2.91258
G01 X4.29202 Y-2.91358
G01 X4.04324 Y-3.16247
G01 X4.04132 Y-3.16396
G01 X4.03909 Y-3.16494
G01 X4.03790 Y-3.16522
G01 X4.03628 Y-3.16535
G01 X3.44421 Y-3.16535
G01 X3.44175 Y-3.16504
G01 X3.44019 Y-3.16449
G01 X3.43909 Y-3.16391
G01 X3.43715 Y-3.16237
G01 X3.43415 Y-3.15877
G01 X3.43147 Y-3.15657
G01 X3.42842 Y-3.15494
G01 X3.42510 Y-3.15393
G01 X3.42117 Y-3.15354
G01 X3.37883 Y-3.15354
G01 X3.37490 Y-3.15393
G01 X3.37158 Y-3.15494
G01 X3.36853 Y-3.15657
G01 X3.36585 Y-3.15877
G01 X3.36366 Y-3.16144
G01 X3.36202 Y-3.16450
G01 X3.36102 Y-3.16781
G01 X3.36068 Y-3.17126
G04 P0 ( dwell for no time -- G64 should not smooth over this point )
G00 Z0.08000 ( retract )

G00 X3.22054 Y-2.95000 ( rapid move to begin. )
G01 F180.00000
( Mill infeed pass 1/1 )
G01 Z-0.04000
G04 P0 ( dwell for no time -- G64 should not smooth over this point )
G01 F360.00000
G01 X3.22054 Y-2.95000
G01 X3.22111 Y-2.94425
G01 X3.22278 Y-2.93873
G01 X3.22551 Y-2.93363
G01 X3.22917 Y-2.92917
G01 X3.23363 Y-2.92550
G01 X3.23873 Y-2.92278
G01 X3.24425 Y-2.92111
G01 X3.25000 Y-2.92054
G01 X3.25575 Y-2.92111
G01 X3.26212 Y-2.92303
G01 X3.26454 Y-2.92334
G01 X3.26617 Y-2.92321
G01 X3.26736 Y-2.92294
G01 X3.26889 Y-2.92235
G01 X3.27029 Y-2.92151
G01 X3.27154 Y-2.92046
G01 X3.34566 Y-2.84634
G01 X3.34688 Y-2.84533
G01 X3.34785 Y-2.84482
G01 X3.34890 Y-2.84450
G01 X3.35048 Y-2.84434
G01 X3.37441 Y-2.84434
G01 X3.37603 Y-2.84421
G01 X3.37722 Y-2.84393
G01 X3.37873 Y-2.84334
G01 X3.38013 Y-2.84251
G01 X3.38137 Y-2.84146
G01 X3.38242 Y-2.84022
G01 X3.38325 Y-2.83882
G01 X3.38384 Y-2.83731
G01 X3.38418 Y-2.83572
G01 X3.38425 Y-2.83425
G01 X3.41575 Y-2.83425
G01 X3.41575 Y-2.86575
G01 X3.38425 Y-2.86575
G01 X3.38418 Y-2.86428
G01 X3.38384 Y-2.86269
G01 X3.38325 Y-2.86118
G01 X3.38242 Y-2.85978
G01 X3.38137 Y-2.85854
G01 X3.38013 Y-2.85749
G01 X3.37873 Y-2.85666
G01 X3.37722 Y-2.85607
G01 X3.37603 Y-2.85579
G01 X3.37441 Y-2.85566
G01 X3.35601 Y-2.85567
G01 X3.35400 Y-2.85596
G01 X3.35210 Y-2.85666
G01 X3.35070 Y-2.85749
G01 X3.34946 Y-2.85854
G01 X3.27954 Y-2.92846
G01 X3.27848 Y-2.92971
G01 X3.27765 Y-2.93111
G01 X3.27706 Y-2.93263
G01 X3.27679 Y-2.93383
G01 X3.27669 Y-2.93627
G01 X3.27697 Y-2.93788
G01 X3.27889 Y-2.94425
G01 X3.27946 Y-2.95000
G01 X3.27889 Y-2.95575
G01 X3.27722 Y-2.96127
G01 X3.27449 Y-2.96637
G01 X3.27083 Y-2.97083
G01 X3.26637 Y-2.97449
G01 X3.26050 Y-2.97764
G01 X3.25917 Y-2.97858
G01 X3.25828 Y-2.97943
G01 X3.25727 Y-2.98071
G01 X3.25649 Y-2.98215
G01 X3.25596 Y-2.98369
G01 X3.25569 Y-2.98530
G01 X3.25567 Y-3.17420
G01 X3.25587 Y-3.17581
G01 X3.25633 Y-3.17737
G01 X3.25726 Y-3.17917
G01 X3.25826 Y-3.18046
G01 X3.31925 Y-3.24146
G01 X3.32016 Y-3.24227
G01 X3.32152 Y-3.24316
G01 X3.32340 Y-3.24393
G01 X3.32580 Y-3.24433
G01 X3.35559 Y-3.24434
G01 X3.35764 Y-3.24412
G01 X3.35961 Y-3.24348
G01 X3.36172 Y-3.24220
G01 X3.36293 Y-3.24106
G01 X3.36585 Y-3.23751
G01 X3.36853 Y-3.23531
G01 X3.37158 Y-3.23368
G01 X3.37490 Y-3.23267
G01 X3.37883 Y-3.23228
G01 X3.42117 Y-3.23228
G01 X3.42510 Y-3.23267
G01 X3.42842 Y-3.23368
G01 X3.43147 Y-3.23531
G01 X3.43415 Y-3.23751
G01 X3.43634 Y-3.24018
G01 X3.43798 Y-3.24324
G01 X3.43898 Y-3.24655
G01 X3.43932 Y-3.25000
G01 X3.43898 Y-3.25345
G01 X3.43798 Y-3.25676
G01 X3.43634 Y-3.25982
G01 X3.43415 Y-3.26249
G01 X3.43147 Y-3.26469
G01 X3.42842 Y-3.26632
G01 X3.42510 Y-3.26733
G01 X3.42117 Y-3.26772
G01 X3.37883 Y-3.26772
G01 X3.37490 Y-3.26733
G01 X3.37158 Y-3.26632
G01 X3.36853 Y-3.26469
G01 X3.36585 Y-3.26249
G01 X3.36293 Y-3.25894
G01 X3.36172 Y-3.25780
G01 X3.35961 Y-3.25651
G01 X3.35764 Y-3.25587
G01 X3.35559 Y-3.25566
G01 X3.32027 Y-3.25566
G01 X3.31869 Y-3.25550
G01 X3.31764 Y-3.25518
G01 X3.31667 Y-3.25466
G01 X3.31544 Y-3.25366
G01 X3.24634 Y-3.18455
G01 X3.24533 Y-3.18333
G01 X3.24482 Y-3.18236
G01 X3.24450 Y-3.18131
G01 X3.24434 Y-3.17973
G01 X3.24427 Y-2.98489
G01 X3.24393 Y-2.98330
G01 X3.24333 Y-2.98178
G01 X3.24249 Y-2.98037
G01 X3.24143 Y-2.97913
G01 X3.23950 Y-2.97764
G01 X3.23363 Y-2.97449
G01 X3.22917 Y-2.97083
G01 X3.22551 Y-2.96637
G01 X3.22278 Y-2.96127
G01 X3.22111 Y-2.95575
G01 X3.22054 Y-2.95000
G01 X3.23834 Y-2.95000
G01 X3.23856 Y-2.94773
G01 X3.23923 Y-2.94554
G01 X3.23891 Y-2.94541
G01 X3.23923 Y-2.94554
G01 X3.24030 Y-2.94352
G01 X3.24175 Y-2.94175
G01 X3.24151 Y-2.94151
G01 X3.24175 Y-2.94175
G01 X3.24352 Y-2.94030
G01 X3.24554 Y-2.93923
G01 X3.24540 Y-2.93891
G01 X3.24554 Y-2.93923
G01 X3.24772 Y-2.93856
G01 X3.25000 Y-2.93834
G01 X3.25001 Y-2.93792
G01 X3.25000 Y-2.93834
G01 X3.25227 Y-2.93856
G01 X3.25735 Y-2.94009
G01 X3.25943 Y-2.94057
G01 X3.26162 Y-2.93838
G01 X3.25943 Y-2.94057
G01 X3.25991 Y-2.94265
G01 X3.26144 Y-2.94773
G01 X3.26166 Y-2.95000
G01 X3.26207 Y-2.94999
G01 X3.26166 Y-2.95000
G01 X3.26144 Y-2.95227
G01 X3.26077 Y-2.95446
G01 X3.26109 Y-2.95459
G01 X3.26077 Y-2.95446
G01 X3.25969 Y-2.95648
G01 X3.25825 Y-2.95824
G01 X3.25853 Y-2.95854
G01 X3.25825 Y-2.95824
G01 X3.25648 Y-2.95969
G01 X3.25010 Y-2.96327
G01 X3.25012 Y-2.96630
G01 X3.25010 Y-2.96327
G01 X3.25000 Y-2.96333
G01 X3.24784 Y-2.96201
G01 X3.24352 Y-2.95969
G01 X3.24175 Y-2.95824
G01 X3.24145 Y-2.95856
G01 X3.24175 Y-2.95824
G01 X3.24030 Y-2.95648
G01 X3.23923 Y-2.95446
G01 X3.23891 Y-2.95459
G01 X3.23923 Y-2.95446
G01 X3.23856 Y-2.95227
G01 X3.23834 Y-2.95000
G04 P0 ( dwell for no time -- G64 should not smooth over this point )
G00 Z0.08000 ( retract )

G00 X3.48272 Y-2.85000 ( rapid move to begin. )
G01 F180.00000
( Mill infeed pass 1/1 )
G01 Z-0.04000
G04 P0 ( dwell for no time -- G64 should not smooth over this point )
G01 F360.00000
G01 X3.48272 Y-2.85000
G01 X3.48303 Y-2.85306
G01 X3.48392 Y-2.85601
G01 X3.48537 Y-2.85872
G01 X3.48732 Y-2.86110
G01 X3.48970 Y-2.86305
G01 X3.49242 Y-2.86450
G01 X3.49536 Y-2.86540
G01 X3.49843 Y-2.86570
G01 X3.50163 Y-2.86542
G01 X3.50369 Y-2.86561
G01 X3.50604 Y-2.86639
G01 X3.50812 Y-2.86774
G01 X3.59408 Y-2.95366
G01 X3.59531 Y-2.95466
G01 X3.59628 Y-2.95518
G01 X3.59733 Y-2.95550
G01 X3.59891 Y-2.95566
G01 X3.61429 Y-2.95567
G01 X3.61591 Y-2.95587
G01 X3.61785 Y-2.95649
G01 X3.61995 Y-2.95775
G01 X3.62167 Y-2.95949
G01 X3.62256 Y-2.96086
G01 X3.62550 Y-2.96637
G01 X3.62917 Y-2.97083
G01 X3.63363 Y-2.97449
G01 X3.63873 Y-2.97722
G01 X3.64425 Y-2.97889
G01 X3.65000 Y-2.97946
G01 X3.65575 Y-2.97889
G01 X3.66127 Y-2.97722
G01 X3.66637 Y-2.97449
G01 X3.67083 Y-2.97083
G01 X3.67449 Y-2.96637
G01 X3.67764 Y-2.96050
G01 X3.67913 Y-2.95857
G01 X3.68038 Y-2.95751
G01 X3.68215 Y-2.95649
G01 X3.68369 Y-2.95596
G01 X3.68530 Y-2.95569
G01 X3.99532 Y-2.95566
G01 X3.99689 Y-2.95550
G01 X3.99795 Y-2.95518
G01 X3.99892 Y-2.95466
G01 X4.00014 Y-2.95366
G01 X4.15635 Y-2.79745
G01 X4.15726 Y-2.79664
G01 X4.15862 Y-2.79575
G01 X4.16011 Y-2.79510
G01 X4.16169 Y-2.79470
G01 X4.16331 Y-2.79457
G01 X4.64327 Y-2.79457
G01 X4.64529 Y-2.79478
G01 X4.64722 Y-2.79540
G01 X4.64865 Y-2.79617
G01 X4.65023 Y-2.79745
G01 X4.76631 Y-2.91353
G01 X4.76759 Y-2.91511
G01 X4.76819 Y-2.91617
G01 X4.76878 Y-2.91768
G01 X4.76906 Y-2.91887
G01 X4.76919 Y-2.92049
G01 X4.76919 Y-2.97951
G01 X4.76898 Y-2.98153
G01 X4.76836 Y-2.98346
G01 X4.76759 Y-2.98489
G01 X4.76631 Y-2.98647
G01 X4.59006 Y-3.16272
G01 X4.58882 Y-3.16377
G01 X4.58778 Y-3.16441
G01 X4.58629 Y-3.16507
G01 X4.58512 Y-3.16539
G01 X4.58350 Y-3.16559
G01 X4.54358 Y-3.16557
G01 X4.54116 Y-3.16505
G01 X4.54002 Y-3.16457
G01 X4.53860 Y-3.16371
G01 X4.53707 Y-3.16232
G01 X4.53415 Y-3.15877
G01 X4.53147 Y-3.15657
G01 X4.52841 Y-3.15494
G01 X4.52510 Y-3.15393
G01 X4.52117 Y-3.15354
G01 X4.47883 Y-3.15354
G01 X4.47490 Y-3.15393
G01 X4.47158 Y-3.15494
G01 X4.46853 Y-3.15657
G01 X4.46585 Y-3.15877
G01 X4.46366 Y-3.16144
G01 X4.46202 Y-3.16450
G01 X4.46102 Y-3.16781
G01 X4.46068 Y-3.17126
G01 X4.46102 Y-3.17471
G01 X4.46202 Y-3.17802
G01 X4.46366 Y-3.18108
G01 X4.46585 Y-3.18375
G01 X4.46853 Y-3.18595
G01 X4.47158 Y-3.18758
G01 X4.47490 Y-3.18859
G01 X4.47883 Y-3.18898
G01 X4.52117 Y-3.18898
G01 X4.52510 Y-3.18859
G01 X4.52841 Y-3.18758
G01 X4.53147 Y-3.18595
G01 X4.53415 Y-3.18375
G01 X4.53707 Y-3.18020
G01 X4.53828 Y-3.17906
G01 X4.54039 Y-3.17777
G01 X4.54276 Y-3.17706
G01 X4.54441 Y-3.17692
G01 X4.58903 Y-3.17692
G01 X4.59061 Y-3.17676
G01 X4.59166 Y-3.17644
G01 X4.59263 Y-3.17592
G01 X4.59386 Y-3.17492
G01 X4.77851 Y-2.99027
G01 X4.77951 Y-2.98904
G01 X4.78003 Y-2.98807
G01 X4.78035 Y-2.98702
G01 X4.78051 Y-2.98544
G01 X4.78051 Y-2.91455
G01 X4.78035 Y-2.91298
G01 X4.78003 Y-2.91192
G01 X4.77951 Y-2.91095
G01 X4.77851 Y-2.90973
G01 X4.65403 Y-2.78525
G01 X4.65280 Y-2.78424
G01 X4.65183 Y-2.78373
G01 X4.65078 Y-2.78341
G01 X4.64920 Y-2.78325
G01 X4.15737 Y-2.78325
G01 X4.15579 Y-2.78341
G01 X4.15474 Y-2.78373
G01 X4.15377 Y-2.78424
G01 X4.15255 Y-2.78525
G01 X3.99634 Y-2.94146
G01 X3.99476 Y-2.94274
G01 X3.99333 Y-2.94351
G01 X3.99140 Y-2.94413
G01 X3.98979 Y-2.94433
G01 X3.68530 Y-2.94431
G01 X3.68369 Y-2.94404
G01 X3.68215 Y-2.94351
G01 X3.68038 Y-2.94249
G01 X3.67913 Y-2.94143
G01 X3.67764 Y-2.93950
G01 X3.67449 Y-2.93363
G01 X3.67083 Y-2.92917
G01 X3.66637 Y-2.92550
G01 X3.66127 Y-2.92278
G01 X3.65575 Y-2.92111
G01 X3.65000 Y-2.92054
G01 X3.64425 Y-2.92111
G01 X3.63873 Y-2.92278
G01 X3.63363 Y-2.92550
G01 X3.62917 Y-2.92917
G01 X3.62550 Y-2.93363
G01 X3.62256 Y-2.93914
G01 X3.62167 Y-2.94051
G01 X3.62027 Y-2.94199
G01 X3.61822 Y-2.94333
G01 X3.61631 Y-2.94404
G01 X3.61429 Y-2.94433
G01 X3.60485 Y-2.94434
G01 X3.60323 Y-2.94421
G01 X3.60165 Y-2.94381
G01 X3.60016 Y-2.94316
G01 X3.59880 Y-2.94227
G01 X3.59789 Y-2.94146
G01 X3.51644 Y-2.86000
G01 X3.51566 Y-2.85904
G01 X3.51482 Y-2.85761
G01 X3.51403 Y-2.85526
G01 X3.51384 Y-2.85320
G01 X3.51412 Y-2.85000
G01 X3.51382 Y-2.84694
G01 X3.51293 Y-2.84399
G01 X3.51148 Y-2.84128
G01 X3.50953 Y-2.83890
G01 X3.50715 Y-2.83695
G01 X3.50443 Y-2.83549
G01 X3.50149 Y-2.83460
G01 X3.49843 Y-2.83430
G01 X3.49536 Y-2.83460
G01 X3.49242 Y-2.83549
G01 X3.48970 Y-2.83695
G01 X3.48732 Y-2.83890
G01 X3.48537 Y-2.84128
G01 X3.48392 Y-2.84399
G01 X3.48303 Y-2.84694
G01 X3.48272 Y-2.85000
G04 P0 ( dwell for no time -- G64 should not smooth over this point )
G00 Z0.08000 ( retract )

G00 X3.66334 Y-2.95000 ( rapid move to begin. )
G01 F180.00000
( Mill infeed pass 1/1 )
G01 Z-0.04000
G04 P0 ( dwell for no time -- G64 should not smooth over this point )
G01 F360.00000
G01 X3.66334 Y-2.95000
G01 X3.66201 Y-2.95216
G01 X3.65970 Y-2.95648
G01 X3.65824 Y-2.95824
G01 X3.65854 Y-2.95853
G01 X3.65824 Y-2.95824
G01 X3.65648 Y-2.95969
G01 X3.65446 Y-2.96077
G01 X3.65459 Y-2.96109
G01 X3.65446 Y-2.96077
G01 X3.65227 Y-2.96144
G01 X3.65000 Y-2.96166
G01 X3.65000 Y-2.96201
G01 X3.65000 Y-2.96166
G01 X3.64772 Y-2.96144
G01 X3.64554 Y-2.96077
G01 X3.64540 Y-2.96109
G01 X3.64554 Y-2.96077
G01 X3.64352 Y-2.95969
G01 X3.64175 Y-2.95824
G01 X3.64146 Y-2.95853
G01 X3.64175 Y-2.95824
G01 X3.64030 Y-2.95648
G01 X3.63673 Y-2.95010
G01 X3.63370 Y-2.95011
G01 X3.63673 Y-2.95010
G01 X3.63666 Y-2.95000
G01 X3.63799 Y-2.94784
G01 X3.64030 Y-2.94352
G01 X3.64175 Y-2.94175
G01 X3.64144 Y-2.94145
G01 X3.64175 Y-2.94175
G01 X3.64352 Y-2.94030
G01 X3.64554 Y-2.93923
G01 X3.64540 Y-2.93891
G01 X3.64554 Y-2.93923
G01 X3.64772 Y-2.93856
G01 X3.65000 Y-2.93834
G01 X3.65000 Y-2.93799
G01 X3.65000 Y-2.93834
G01 X3.65227 Y-2.93856
G01 X3.65446 Y-2.93923
G01 X3.65459 Y-2.93891
G01 X3.65446 Y-2.93923
G01 X3.65648 Y-2.94030
G01 X3.65824 Y-2.94175
G01 X3.65854 Y-2.94147
G01 X3.65824 Y-2.94175
G01 X3.65970 Y-2.94352
G01 X3.66201 Y-2.94784
G01 X3.66334 Y-2.95000
G01 X3.66644 Y-2.95000
G04 P0 ( dwell for no time -- G64 should not smooth over this point )
G00 Z0.08000 ( retract )

G00 X3.73696 Y-3.30529 ( rapid move to begin. )
G01 F180.00000
( Mill infeed pass 1/1 )
G01 Z-0.04000
G04 P0 ( dwell for no time -- G64 should not smooth over this point )
G01 F360.00000
G01 X3.73696 Y-3.30529
G01 X3.73976 Y-3.30415
G01 X3.73951 Y-3.30397
G01 X3.74014 Y-3.30106
G01 X3.74047 Y-3.29811
G01 X3.74103 Y-3.29628
G01 X3.74064 Y-3.29613
G01 X3.74103 Y-3.29628
G01 X3.74192 Y-3.29460
G01 X3.74313 Y-3.29313
G01 X3.74289 Y-3.29289
G01 X3.74313 Y-3.29313
G01 X3.74460 Y-3.29192
G01 X3.74628 Y-3.29103
G01 X3.74615 Y-3.29071
G01 X3.74628 Y-3.29103
G01 X3.74810 Y-3.29047
G01 X3.75000 Y-3.29029
G01 X3.75000 Y-3.28994
G01 X3.75000 Y-3.29029
G01 X3.75189 Y-3.29047
G01 X3.75372 Y-3.29103
G01 X3.75385 Y-3.29071
G01 X3.75372 Y-3.29103
G01 X3.75540 Y-3.29192
G01 X3.75687 Y-3.29313
G01 X3.75711 Y-3.29289
G01 X3.75687 Y-3.29313
G01 X3.75807 Y-3.29460
G01 X3.75897 Y-3.29628
G01 X3.75929 Y-3.29615
G01 X3.75897 Y-3.29628
G01 X3.75953 Y-3.29811
G01 X3.75971 Y-3.30000
G01 X3.76006 Y-3.30000
G01 X3.75971 Y-3.30000
G01 X3.75953 Y-3.30189
G01 X3.75897 Y-3.30372
G01 X3.75929 Y-3.30385
G01 X3.75897 Y-3.30372
G01 X3.75807 Y-3.30539
G01 X3.75687 Y-3.30687
G01 X3.75711 Y-3.30711
G01 X3.75687 Y-3.30687
G01 X3.75540 Y-3.30808
G01 X3.75372 Y-3.30897
G01 X3.75385 Y-3.30929
G01 X3.75372 Y-3.30897
G01 X3.75189 Y-3.30952
G01 X3.75000 Y-3.30971
G01 X3.75000 Y-3.31006
G01 X3.75000 Y-3.30971
G01 X3.74810 Y-3.30952
G01 X3.74628 Y-3.30897
G01 X3.74611 Y-3.30937
G01 X3.74628 Y-3.30897
G01 X3.74461 Y-3.30808
G01 X3.73976 Y-3.30415
G04 P0 ( dwell for no time -- G64 should not smooth over this point )
G00 Z0.08000 ( retract )

G00 X3.83482 Y-3.28292 ( rapid move to begin. )
G01 F180.00000
( Mill infeed pass 1/1 )
G01 Z-0.04000
G04 P0 ( dwell for no time -- G64 should not smooth over this point )
G01 F360.00000
G01 X3.83482 Y-3.28292
G01 X3.84015 Y-3.28819
G01 X3.84015 Y-3.31240
G01 X3.84046 Y-3.31247
G01 X3.83717 Y-3.31489
G01 X3.84046 Y-3.31247
G01 X3.84317 Y-3.31321
G01 X3.84687 Y-3.31474
G01 X3.85000 Y-3.31659
G01 X3.84999 Y-3.31904
G01 X3.85000 Y-3.31659
G01 X3.85242 Y-3.31511
G01 X3.85533 Y-3.31376
G01 X3.85760 Y-3.31297
G01 X3.86002 Y-3.31236
G01 X3.86201 Y-3.31422
G01 X3.86002 Y-3.31236
G01 X3.86050 Y-3.30953
G01 X3.86137 Y-3.30645
G01 X3.86278 Y-3.30313
G01 X3.86462 Y-3.30000
G01 X3.86684 Y-3.29999
G01 X3.86462 Y-3.30000
G01 X3.86334 Y-3.29793
G01 X3.86226 Y-3.29578
G01 X3.86137 Y-3.29355
G01 X3.86068 Y-3.29124
G01 X3.86009 Y-3.28819
G01 X3.86299 Y-3.28445
G01 X3.86009 Y-3.28819
G01 X3.84015 Y-3.28819
G04 P0 ( dwell for no time -- G64 should not smooth over this point )
G00 Z0.08000 ( retract )

G00 X4.05985 Y-3.31181 ( rapid move to begin. )
G01 F180.00000
( Mill infeed pass 1/1 )
G01 Z-0.04000
G04 P0 ( dwell for no time -- G64 should not smooth over this point )
G01 F360.00000
G01 X4.05985 Y-3.31181
G01 X4.03991 Y-3.31181
G01 X4.03700 Y-3.31554
G01 X4.03991 Y-3.31181
G01 X4.03932 Y-3.30876
G01 X4.03863 Y-3.30645
G01 X4.03774 Y-3.30422
G01 X4.03666 Y-3.30207
G01 X4.03540 Y-3.30002
G01 X4.03316 Y-3.30003
G01 X4.03540 Y-3.30002
G01 X4.03774 Y-3.29578
G01 X4.03863 Y-3.29355
G01 X4.03932 Y-3.29124
G01 X4.03991 Y-3.28819
G01 X4.03700 Y-3.28445
G01 X4.03991 Y-3.28819
G01 X4.05985 Y-3.28819
G01 X4.06503 Y-3.28300
G01 X4.05985 Y-3.28819
G01 X4.05985 Y-3.31181
G01 X4.06503 Y-3.31700
G04 P0 ( dwell for no time -- G64 should not smooth over this point )
G00 Z0.08000 ( retract )

G00 X4.12249 Y-3.30000 ( rapid move to begin. )
G01 F180.00000
( Mill infeed pass 1/1 )
G01 Z-0.04000
G04 P0 ( dwell for no time -- G64 should not smooth over this point )
G01 F360.00000
G01 X4.12249 Y-3.30000
G01 X4.12302 Y-3.29463
G01 X4.12458 Y-3.28947
G01 X4.12713 Y-3.28471
G01 X4.13055 Y-3.28055
G01 X4.13471 Y-3.27712
G01 X4.13947 Y-3.27458
G01 X4.14463 Y-3.27302
G01 X4.15000 Y-3.27249
G01 X4.15537 Y-3.27302
G01 X4.16053 Y-3.27458
G01 X4.16528 Y-3.27712
G01 X4.16945 Y-3.28055
G01 X4.17287 Y-3.28471
G01 X4.17542 Y-3.28947
G01 X4.17698 Y-3.29463
G01 X4.17751 Y-3.30000
G01 X4.17698 Y-3.30537
G01 X4.17561 Y-3.30990
G01 X4.17526 Y-3.31149
G01 X4.17521 Y-3.31353
G01 X4.17559 Y-3.31554
G01 X4.17601 Y-3.31669
G01 X4.17678 Y-3.31813
G01 X4.17860 Y-3.32023
G01 X4.17954 Y-3.32100
G01 X4.18094 Y-3.32183
G01 X4.18207 Y-3.32230
G01 X4.18364 Y-3.32270
G01 X4.18526 Y-3.32283
G01 X4.45621 Y-3.32282
G01 X4.45865 Y-3.32241
G01 X4.46091 Y-3.32140
G01 X4.46285 Y-3.31985
G01 X4.46585 Y-3.31625
G01 X4.46853 Y-3.31405
G01 X4.47158 Y-3.31242
G01 X4.47490 Y-3.31141
G01 X4.47883 Y-3.31102
G01 X4.52117 Y-3.31102
G01 X4.52510 Y-3.31141
G01 X4.52841 Y-3.31242
G01 X4.53147 Y-3.31405
G01 X4.53415 Y-3.31625
G01 X4.53634 Y-3.31892
G01 X4.53798 Y-3.32198
G01 X4.53898 Y-3.32529
G01 X4.53932 Y-3.32874
G01 X4.53898 Y-3.33219
G01 X4.53798 Y-3.33550
G01 X4.53634 Y-3.33856
G01 X4.53415 Y-3.34123
G01 X4.53147 Y-3.34343
G01 X4.52841 Y-3.34506
G01 X4.52510 Y-3.34607
G01 X4.52117 Y-3.34646
G01 X4.47883 Y-3.34646
G01 X4.47490 Y-3.34607
G01 X4.47158 Y-3.34506
G01 X4.46853 Y-3.34343
G01 X4.46585 Y-3.34123
G01 X4.46285 Y-3.33763
G01 X4.46091 Y-3.33608
G01 X4.45865 Y-3.33507
G01 X4.45621 Y-3.33466
G01 X4.17922 Y-3.33465
G01 X4.17760 Y-3.33449
G01 X4.17650 Y-3.33415
G01 X4.17548 Y-3.33361
G01 X4.17422 Y-3.33257
G01 X4.16879 Y-3.32726
G01 X4.16743 Y-3.32636
G01 X4.16554 Y-3.32559
G01 X4.16353 Y-3.32522
G01 X4.16149 Y-3.32527
G01 X4.15990 Y-3.32561
G01 X4.15537 Y-3.32698
G01 X4.15000 Y-3.32751
G01 X4.14463 Y-3.32698
G01 X4.13947 Y-3.32542
G01 X4.13471 Y-3.32287
G01 X4.13055 Y-3.31945
G01 X4.12713 Y-3.31528
G01 X4.12458 Y-3.31053
G01 X4.12302 Y-3.30537
G01 X4.12249 Y-3.30000
G01 X4.14029 Y-3.30000
G01 X4.14047 Y-3.29811
G01 X4.14103 Y-3.29628
G01 X4.14071 Y-3.29615
G01 X4.14103 Y-3.29628
G01 X4.14192 Y-3.29460
G01 X4.14313 Y-3.29313
G01 X4.14289 Y-3.29289
G01 X4.14313 Y-3.29313
G01 X4.14460 Y-3.29192
G01 X4.14628 Y-3.29103
G01 X4.14615 Y-3.29071
G01 X4.14628 Y-3.29103
G01 X4.14811 Y-3.29047
G01 X4.15000 Y-3.29029
G01 X4.15000 Y-3.28994
G01 X4.15000 Y-3.29029
G01 X4.15189 Y-3.29047
G01 X4.15372 Y-3.29103
G01 X4.15385 Y-3.29071
G01 X4.15372 Y-3.29103
G01 X4.15540 Y-3.29192
G01 X4.15687 Y-3.29313
G01 X4.15711 Y-3.29289
G01 X4.15687 Y-3.29313
G01 X4.15808 Y-3.29460
G01 X4.15897 Y-3.29628
G01 X4.15929 Y-3.29615
G01 X4.15897 Y-3.29628
G01 X4.15953 Y-3.29811
G01 X4.15971 Y-3.30000
G01 X4.16011 Y-3.30001
G01 X4.15971 Y-3.30000
G01 X4.15953 Y-3.30189
G01 X4.15843 Y-3.30553
G01 X4.15791 Y-3.30788
G01 X4.16015 Y-3.31013
G01 X4.15791 Y-3.30788
G01 X4.15189 Y-3.30952
G01 X4.15000 Y-3.30971
G01 X4.15001 Y-3.31012
G01 X4.15000 Y-3.30971
G01 X4.14811 Y-3.30952
G01 X4.14628 Y-3.30897
G01 X4.14615 Y-3.30929
G01 X4.14628 Y-3.30897
G01 X4.14460 Y-3.30808
G01 X4.14313 Y-3.30687
G01 X4.14289 Y-3.30711
G01 X4.14313 Y-3.30687
G01 X4.14192 Y-3.30539
G01 X4.14103 Y-3.30372
G01 X4.14071 Y-3.30385
G01 X4.14103 Y-3.30372
G01 X4.14047 Y-3.30189
G01 X4.14029 Y-3.30000
G04 P0 ( dwell for no time -- G64 should not smooth over this point )
G00 Z0.08000 ( retract )

G00 X4.47967 Y-3.32874 ( rapid move to begin. )
G01 F180.00000
( Mill infeed pass 1/1 )
G01 Z-0.04000
G04 P0 ( dwell for no time -- G64 should not smooth over this point )
G01 F360.00000
G01 X4.47967 Y-3.32874
G01 X4.52033 Y-3.32874
G04 P0 ( dwell for no time -- G64 should not smooth over this point )
G00 Z0.08000 ( retract )

G00 X4.52033 Y-3.25000 ( rapid move to begin. )
G01 F180.00000
( Mill infeed pass 1/1 )
G01 Z-0.04000
G04 P0 ( dwell for no time -- G64 should not smooth over this point )
G01 F360.00000
G01 X4.52033 Y-3.25000
G01 X4.47970 Y-3.25000
G01 X4.40963 Y-3.24501
G01 X4.40963 Y-3.04179
G01 X4.40978 Y-3.04021
G01 X4.41010 Y-3.03916
G01 X4.41062 Y-3.03819
G01 X4.41163 Y-3.03696
G01 X4.54146 Y-2.90713
G01 X4.54296 Y-2.90521
G01 X4.54393 Y-2.90298
G01 X4.54433 Y-2.90058
G01 X4.54427 Y-2.87437
G01 X4.54381 Y-2.87239
G01 X4.54316 Y-2.87091
G01 X4.54227 Y-2.86955
G01 X4.54086 Y-2.86808
G01 X4.53954 Y-2.86714
G01 X4.53770 Y-2.86628
G01 X4.53612 Y-2.86588
G01 X4.53425 Y-2.86575
G01 X4.53425 Y-2.83425
G01 X4.56575 Y-2.83425
G01 X4.56582 Y-2.83572
G01 X4.56616 Y-2.83731
G01 X4.56675 Y-2.83882
G01 X4.56758 Y-2.84022
G01 X4.56863 Y-2.84146
G01 X4.56987 Y-2.84251
G01 X4.57127 Y-2.84334
G01 X4.57278 Y-2.84393
G01 X4.57397 Y-2.84421
G01 X4.57559 Y-2.84434
G01 X4.59952 Y-2.84434
G01 X4.60109 Y-2.84450
G01 X4.60215 Y-2.84482
G01 X4.60312 Y-2.84533
G01 X4.60434 Y-2.84634
G01 X4.67846 Y-2.92046
G01 X4.68039 Y-2.92196
G01 X4.68186 Y-2.92268
G01 X4.68303 Y-2.92305
G01 X4.68464 Y-2.92331
G01 X4.68587 Y-2.92333
G01 X4.68788 Y-2.92303
G01 X4.69425 Y-2.92111
G01 X4.70000 Y-2.92054
G01 X4.70575 Y-2.92111
G01 X4.71127 Y-2.92278
G01 X4.71637 Y-2.92550
G01 X4.72083 Y-2.92917
G01 X4.72449 Y-2.93363
G01 X4.72722 Y-2.93873
G01 X4.72889 Y-2.94425
G01 X4.72946 Y-2.95000
G01 X4.72889 Y-2.95575
G01 X4.72722 Y-2.96127
G01 X4.72449 Y-2.96637
G01 X4.72083 Y-2.97083
G01 X4.71637 Y-2.97449
G01 X4.71127 Y-2.97722
G01 X4.70575 Y-2.97889
G01 X4.70000 Y-2.97946
G01 X4.69425 Y-2.97889
G01 X4.68873 Y-2.97722
G01 X4.68363 Y-2.97449
G01 X4.67917 Y-2.97083
G01 X4.67551 Y-2.96637
G01 X4.67278 Y-2.96127
G01 X4.67111 Y-2.95575
G01 X4.67054 Y-2.95000
G01 X4.67111 Y-2.94425
G01 X4.67303 Y-2.93788
G01 X4.67331 Y-2.93627
G01 X4.67333 Y-2.93505
G01 X4.67305 Y-2.93303
G01 X4.67252 Y-2.93148
G01 X4.67174 Y-2.93004
G01 X4.67046 Y-2.92846
G01 X4.60054 Y-2.85854
G01 X4.59930 Y-2.85749
G01 X4.59826 Y-2.85684
G01 X4.59678 Y-2.85619
G01 X4.59439 Y-2.85569
G01 X4.57518 Y-2.85567
G01 X4.57357 Y-2.85587
G01 X4.57201 Y-2.85633
G01 X4.57055 Y-2.85704
G01 X4.56892 Y-2.85826
G01 X4.56758 Y-2.85978
G01 X4.56658 Y-2.86155
G01 X4.56596 Y-2.86348
G01 X4.56575 Y-2.86575
G01 X4.56428 Y-2.86582
G01 X4.56269 Y-2.86616
G01 X4.56118 Y-2.86675
G01 X4.55978 Y-2.86758
G01 X4.55854 Y-2.86863
G01 X4.55749 Y-2.86987
G01 X4.55666 Y-2.87127
G01 X4.55607 Y-2.87278
G01 X4.55579 Y-2.87397
G01 X4.55566 Y-2.87559
G01 X4.55566 Y-2.90611
G01 X4.55550 Y-2.90768
G01 X4.55518 Y-2.90874
G01 X4.55466 Y-2.90971
G01 X4.55366 Y-2.91093
G01 X4.42383 Y-3.04076
G01 X4.42278 Y-3.04200
G01 X4.42194 Y-3.04340
G01 X4.42135 Y-3.04491
G01 X4.42098 Y-3.04691
G01 X4.42094 Y-3.23450
G01 X4.42124 Y-3.23692
G01 X4.42213 Y-3.23918
G01 X4.42354 Y-3.24117
G01 X4.42507 Y-3.24251
G01 X4.42721 Y-3.24367
G01 X4.42917 Y-3.24421
G01 X4.43079 Y-3.24434
G01 X4.45641 Y-3.24431
G01 X4.45884 Y-3.24379
G01 X4.45998 Y-3.24331
G01 X4.46139 Y-3.24245
G01 X4.46293 Y-3.24106
G01 X4.46585 Y-3.23751
G01 X4.46853 Y-3.23531
G01 X4.47158 Y-3.23368
G01 X4.47490 Y-3.23267
G01 X4.47883 Y-3.23228
G01 X4.52117 Y-3.23228
G01 X4.52510 Y-3.23267
G01 X4.52841 Y-3.23368
G01 X4.53147 Y-3.23531
G01 X4.53415 Y-3.23751
G01 X4.53634 Y-3.24018
G01 X4.53798 Y-3.24324
G01 X4.53898 Y-3.24655
G01 X4.53932 Y-3.25000
G01 X4.53898 Y-3.25345
G01 X4.53798 Y-3.25676
G01 X4.53634 Y-3.25982
G01 X4.53415 Y-3.26249
G01 X4.53147 Y-3.26469
G01 X4.52841 Y-3.26632
G01 X4.52510 Y-3.26733
G01 X4.52117 Y-3.26772
G01 X4.47883 Y-3.26772
G01 X4.47490 Y-3.26733
G01 X4.47158 Y-3.26632
G01 X4.46853 Y-3.26469
G01 X4.46585 Y-3.26249
G01 X4.46293 Y-3.25894
G01 X4.46172 Y-3.25780
G01 X4.45961 Y-3.25651
G01 X4.45764 Y-3.25587
G01 X4.45559 Y-3.25566
G01 X4.42027 Y-3.25566
G01 X4.41869 Y-3.25550
G01 X4.41764 Y-3.25518
G01 X4.41667 Y-3.25466
G01 X4.41544 Y-3.25366
G01 X4.41163 Y-3.24984
G01 X4.41062 Y-3.24862
G01 X4.41010 Y-3.24764
G01 X4.40978 Y-3.24659
G01 X4.40963 Y-3.24501
G04 P0 ( dwell for no time -- G64 should not smooth over this point )
G00 Z0.08000 ( retract )

G00 X4.47967 Y-3.17126 ( rapid move to begin. )
G01 F180.00000
( Mill infeed pass 1/1 )
G01 Z-0.04000
G04 P0 ( dwell for no time -- G64 should not smooth over this point )
G01 F360.00000
G01 X4.47967 Y-3.17126
G01 X4.52033 Y-3.17126
G04 P0 ( dwell for no time -- G64 should not smooth over this point )
G00 Z0.08000 ( retract )

G00 X4.69055 Y-2.94069 ( rapid move to begin. )
G01 F180.00000
( Mill infeed pass 1/1 )
G01 Z-0.04000
G04 P0 ( dwell for no time -- G64 should not smooth over this point )
G01 F360.00000
G01 X4.69055 Y-2.94069
G01 X4.69057 Y-2.94057
G01 X4.69265 Y-2.94009
G01 X4.69773 Y-2.93856
G01 X4.70000 Y-2.93834
G01 X4.69999 Y-2.93790
G01 X4.70000 Y-2.93834
G01 X4.70227 Y-2.93856
G01 X4.70446 Y-2.93923
G01 X4.70459 Y-2.93891
G01 X4.70446 Y-2.93923
G01 X4.70648 Y-2.94030
G01 X4.70824 Y-2.94175
G01 X4.70849 Y-2.94151
G01 X4.70824 Y-2.94175
G01 X4.70969 Y-2.94352
G01 X4.71077 Y-2.94554
G01 X4.71109 Y-2.94541
G01 X4.71077 Y-2.94554
G01 X4.71144 Y-2.94773
G01 X4.71166 Y-2.95000
G01 X4.71201 Y-2.95000
G01 X4.71166 Y-2.95000
G01 X4.71144 Y-2.95227
G01 X4.71077 Y-2.95446
G01 X4.71109 Y-2.95459
G01 X4.71077 Y-2.95446
G01 X4.70969 Y-2.95648
G01 X4.70824 Y-2.95824
G01 X4.70849 Y-2.95849
G01 X4.70824 Y-2.95824
G01 X4.70648 Y-2.95969
G01 X4.70446 Y-2.96077
G01 X4.70459 Y-2.96109
G01 X4.70446 Y-2.96077
G01 X4.70227 Y-2.96144
G01 X4.70000 Y-2.96166
G01 X4.70000 Y-2.96201
G01 X4.70000 Y-2.96166
G01 X4.69773 Y-2.96144
G01 X4.69554 Y-2.96077
G01 X4.69541 Y-2.96109
G01 X4.69554 Y-2.96077
G01 X4.69352 Y-2.95969
G01 X4.69175 Y-2.95824
G01 X4.69151 Y-2.95849
G01 X4.69175 Y-2.95824
G01 X4.69030 Y-2.95648
G01 X4.68923 Y-2.95446
G01 X4.68891 Y-2.95459
G01 X4.68923 Y-2.95446
G01 X4.68856 Y-2.95227
G01 X4.68834 Y-2.95000
G01 X4.68792 Y-2.94999
G01 X4.68834 Y-2.95000
G01 X4.68856 Y-2.94773
G01 X4.69055 Y-2.94069
G01 X4.68839 Y-2.93856
G04 P0 ( dwell for no time -- G64 should not smooth over this point )
G00 Z0.08000 ( retract )

G00 X4.28282 Y-2.94798 ( rapid move to begin. )
G01 F180.00000
( Mill infeed pass 1/1 )
G01 Z-0.04000
G04 P0 ( dwell for no time -- G64 should not smooth over this point )
G01 F360.00000
G01 X4.28282 Y-2.94798
G01 X4.28528 Y-2.95005
G01 X4.28721 Y-2.95208
G01 X4.28893 Y-2.95430
G01 X4.29028 Y-2.95644
G01 X4.29175 Y-2.95824
G01 X4.29166 Y-2.95834
G01 X4.29175 Y-2.95824
G01 X4.29352 Y-2.95969
G01 X4.29342 Y-2.95986
G01 X4.29352 Y-2.95969
G01 X4.29554 Y-2.96077
G01 X4.29772 Y-2.96144
G01 X4.29766 Y-2.96178
G01 X4.29772 Y-2.96144
G01 X4.30000 Y-2.96166
G01 X4.30227 Y-2.96144
G01 X4.30234 Y-2.96178
G01 X4.30227 Y-2.96144
G01 X4.30446 Y-2.96077
G01 X4.30648 Y-2.95969
G01 X4.30667 Y-2.95998
G01 X4.30648 Y-2.95969
G01 X4.30825 Y-2.95824
G01 X4.30969 Y-2.95648
G01 X4.30998 Y-2.95667
G01 X4.30969 Y-2.95648
G01 X4.31077 Y-2.95446
G01 X4.31144 Y-2.95227
G01 X4.31178 Y-2.95234
G01 X4.31144 Y-2.95227
G01 X4.31166 Y-2.95000
G01 X4.31144 Y-2.94773
G01 X4.31178 Y-2.94766
G01 X4.31144 Y-2.94773
G01 X4.31077 Y-2.94554
G01 X4.30969 Y-2.94352
G01 X4.30998 Y-2.94333
G01 X4.30969 Y-2.94352
G01 X4.30825 Y-2.94175
G01 X4.30648 Y-2.94030
G01 X4.30658 Y-2.94017
G01 X4.30648 Y-2.94030
G01 X4.30102 Y-2.93730
G01 X4.29872 Y-2.93568
G01 X4.29677 Y-2.93399
G01 X4.29642 Y-2.92799
G01 X4.29677 Y-2.93399
G01 X4.28282 Y-2.94798
G01 X4.27507 Y-2.94811
G04 P0 ( dwell for no time -- G64 should not smooth over this point )
G00 Z0.08000 ( retract )

G00 X3.99146 Y-2.51382 ( rapid move to begin. )
G01 F180.00000
( Mill infeed pass 1/1 )
G01 Z-0.04000
G04 P0 ( dwell for no time -- G64 should not smooth over this point )
G01 F360.00000
G01 X3.99146 Y-2.51382
G01 X3.99106 Y-2.51253
G01 X3.99045 Y-2.51256
G01 X3.99106 Y-2.51253
G01 X3.99095 Y-2.51221
G01 X3.99235 Y-2.50725
G01 X3.99338 Y-2.50198
G01 X3.99024 Y-2.49808
G01 X3.99338 Y-2.50198
G01 X4.00591 Y-2.50198
G01 X4.01110 Y-2.49680
G01 X4.00591 Y-2.50198
G01 X4.00591 Y-2.51382
G01 X4.01110 Y-2.51900
G01 X4.00591 Y-2.51382
G01 X3.99146 Y-2.51382
G01 X3.98891 Y-2.51727
G01 X3.97094 Y-2.51241
G01 X3.97200 Y-2.51242
G01 X3.97421 Y-2.51801
G01 X3.97559 Y-2.52345
G01 X3.97628 Y-2.52901
G01 X3.97637 Y-2.53153
G01 X3.97236 Y-2.53602
G01 X3.97637 Y-2.53153
G01 X4.02363 Y-2.53153
G01 X4.02882 Y-2.53672
G01 X4.02363 Y-2.53153
G01 X4.02363 Y-2.48427
G01 X4.02882 Y-2.47908
G01 X4.02363 Y-2.48427
G01 X3.97637 Y-2.48427
G01 X3.97156 Y-2.47929
G01 X3.97637 Y-2.48427
G01 X3.97634 Y-2.49420
G01 X3.97586 Y-2.49940
G01 X3.97456 Y-2.50528
G01 X3.97341 Y-2.50870
G01 X3.97190 Y-2.51221
G01 X3.97200 Y-2.51242
G01 X3.94640 Y-2.51241
G01 X3.95058 Y-2.51233
G01 X3.95271 Y-2.51473
G01 X3.95455 Y-2.51735
G01 X3.95624 Y-2.52054
G01 X3.95750 Y-2.52392
G01 X3.95830 Y-2.52743
G01 X3.95865 Y-2.53142
G01 X3.95866 Y-2.54924
G01 X3.95348 Y-2.55443
G01 X3.95866 Y-2.54924
G01 X4.04134 Y-2.54924
G01 X4.04653 Y-2.55443
G01 X4.04134 Y-2.54924
G01 X4.04134 Y-2.46656
G01 X4.04653 Y-2.46137
G01 X4.04134 Y-2.46656
G01 X3.95866 Y-2.46656
G01 X3.95362 Y-2.46145
G01 X3.95866 Y-2.46656
G01 X3.95861 Y-2.49420
G01 X3.95836 Y-2.49660
G01 X3.95781 Y-2.49936
G01 X3.95712 Y-2.50167
G01 X3.95623 Y-2.50390
G01 X3.95410 Y-2.50777
G01 X3.95243 Y-2.51004
G01 X3.95046 Y-2.51221
G01 X3.95058 Y-2.51233
G04 P0 ( dwell for no time -- G64 should not smooth over this point )
G00 Z0.08000 ( retract )

G00 X3.80715 Y-2.62600 ( rapid move to begin. )
G01 F180.00000
( Mill infeed pass 1/1 )
G01 Z-0.04000
G04 P0 ( dwell for no time -- G64 should not smooth over this point )
G01 F360.00000
G01 X3.80715 Y-2.62600
G01 X3.80835 Y-2.63191
G01 X3.80509 Y-2.63591
G01 X3.80835 Y-2.63191
G01 X3.82091 Y-2.63191
G01 X3.82610 Y-2.63710
G01 X3.82091 Y-2.63191
G01 X3.82091 Y-2.62008
G01 X3.82610 Y-2.61490
G01 X3.82091 Y-2.62008
G01 X3.80835 Y-2.62008
G01 X3.80509 Y-2.61609
G01 X3.80835 Y-2.62008
G01 X3.80715 Y-2.62600
G01 X3.78822 Y-2.62614
G01 X3.78869 Y-2.62614
G01 X3.78956 Y-2.62881
G01 X3.79035 Y-2.63193
G01 X3.79097 Y-2.63549
G01 X3.79135 Y-2.64029
G01 X3.79137 Y-2.64963
G01 X3.78643 Y-2.65468
G01 X3.79137 Y-2.64963
G01 X3.83863 Y-2.64963
G01 X3.84382 Y-2.65482
G01 X3.83863 Y-2.64963
G01 X3.83863 Y-2.60237
G01 X3.84382 Y-2.59718
G01 X3.83863 Y-2.60237
G01 X3.79137 Y-2.60237
G01 X3.78643 Y-2.59732
G01 X3.79137 Y-2.60237
G01 X3.79135 Y-2.61171
G01 X3.79107 Y-2.61571
G01 X3.79026 Y-2.62046
G01 X3.78869 Y-2.62614
G01 X3.76670 Y-2.62603
G01 X3.76890 Y-2.62602
G01 X3.77090 Y-2.62949
G01 X3.77199 Y-2.63207
G01 X3.77282 Y-2.63476
G01 X3.77337 Y-2.63751
G01 X3.77363 Y-2.64030
G01 X3.77366 Y-2.66734
G01 X3.76854 Y-2.67249
G01 X3.77366 Y-2.66734
G01 X3.85634 Y-2.66734
G01 X3.86153 Y-2.67253
G01 X3.85634 Y-2.66734
G01 X3.85634 Y-2.58466
G01 X3.86153 Y-2.57947
G01 X3.85634 Y-2.58466
G01 X3.77366 Y-2.58466
G01 X3.76854 Y-2.57951
G01 X3.77366 Y-2.58466
G01 X3.77366 Y-2.61050
G01 X3.77347 Y-2.61370
G01 X3.77291 Y-2.61685
G01 X3.77199 Y-2.61992
G01 X3.77073 Y-2.62287
G01 X3.76890 Y-2.62602
G04 P0 ( dwell for no time -- G64 should not smooth over this point )
G00 Z0.08000 ( retract )

G00 X3.63664 Y-2.55002 ( rapid move to begin. )
G01 F180.00000
( Mill infeed pass 1/1 )
G01 Z-0.04000
G04 P0 ( dwell for no time -- G64 should not smooth over this point )
G01 F360.00000
G01 X3.63664 Y-2.55002
G01 X3.63793 Y-2.55206
G01 X3.64030 Y-2.55648
G01 X3.64175 Y-2.55824
G01 X3.64146 Y-2.55853
G01 X3.64175 Y-2.55824
G01 X3.64352 Y-2.55970
G01 X3.64554 Y-2.56077
G01 X3.64540 Y-2.56109
G01 X3.64554 Y-2.56077
G01 X3.64772 Y-2.56144
G01 X3.65000 Y-2.56166
G01 X3.65000 Y-2.56201
G01 X3.65000 Y-2.56166
G01 X3.65227 Y-2.56144
G01 X3.65446 Y-2.56077
G01 X3.65459 Y-2.56109
G01 X3.65446 Y-2.56077
G01 X3.65648 Y-2.55970
G01 X3.65824 Y-2.55824
G01 X3.65849 Y-2.55849
G01 X3.65824 Y-2.55824
G01 X3.65970 Y-2.55648
G01 X3.66077 Y-2.55446
G01 X3.66109 Y-2.55459
G01 X3.66077 Y-2.55446
G01 X3.66144 Y-2.55227
G01 X3.66166 Y-2.55000
G01 X3.66207 Y-2.54999
G01 X3.66166 Y-2.55000
G01 X3.66144 Y-2.54772
G01 X3.65991 Y-2.54265
G01 X3.65943 Y-2.54057
G01 X3.66162 Y-2.53837
G01 X3.65943 Y-2.54057
G01 X3.65697 Y-2.53998
G01 X3.65227 Y-2.53856
G01 X3.65000 Y-2.53834
G01 X3.65001 Y-2.53792
G01 X3.65000 Y-2.53834
G01 X3.64772 Y-2.53856
G01 X3.64554 Y-2.53923
G01 X3.64540 Y-2.53891
G01 X3.64554 Y-2.53923
G01 X3.64352 Y-2.54030
G01 X3.64175 Y-2.54175
G01 X3.64146 Y-2.54147
G01 X3.64175 Y-2.54175
G01 X3.64030 Y-2.54352
G01 X3.63793 Y-2.54794
G01 X3.63664 Y-2.55002
G01 X3.23799 Y-2.55000
G01 X3.23834 Y-2.55000
G01 X3.23856 Y-2.54772
G01 X3.23923 Y-2.54554
G01 X3.23891 Y-2.54541
G01 X3.23923 Y-2.54554
G01 X3.24030 Y-2.54352
G01 X3.24175 Y-2.54175
G01 X3.24151 Y-2.54151
G01 X3.24175 Y-2.54175
G01 X3.24352 Y-2.54030
G01 X3.24554 Y-2.53923
G01 X3.24540 Y-2.53891
G01 X3.24554 Y-2.53923
G01 X3.24772 Y-2.53856
G01 X3.25000 Y-2.53834
G01 X3.25000 Y-2.53799
G01 X3.25000 Y-2.53834
G01 X3.25227 Y-2.53856
G01 X3.25446 Y-2.53923
G01 X3.25459 Y-2.53891
G01 X3.25446 Y-2.53923
G01 X3.25648 Y-2.54030
G01 X3.25825 Y-2.54175
G01 X3.25854 Y-2.54147
G01 X3.25825 Y-2.54175
G01 X3.25969 Y-2.54352
G01 X3.26207 Y-2.54794
G01 X3.26336 Y-2.54998
G01 X3.26649 Y-2.54998
G01 X3.26336 Y-2.54998
G01 X3.26207 Y-2.55206
G01 X3.25969 Y-2.55648
G01 X3.25825 Y-2.55824
G01 X3.25854 Y-2.55853
G01 X3.25825 Y-2.55824
G01 X3.25648 Y-2.55970
G01 X3.25446 Y-2.56077
G01 X3.25459 Y-2.56109
G01 X3.25446 Y-2.56077
G01 X3.25227 Y-2.56144
G01 X3.25000 Y-2.56166
G01 X3.25000 Y-2.56201
G01 X3.25000 Y-2.56166
G01 X3.24772 Y-2.56144
G01 X3.24554 Y-2.56077
G01 X3.24540 Y-2.56109
G01 X3.24554 Y-2.56077
G01 X3.24352 Y-2.55970
G01 X3.24175 Y-2.55824
G01 X3.24151 Y-2.55849
G01 X3.24175 Y-2.55824
G01 X3.24030 Y-2.55648
G01 X3.23923 Y-2.55446
G01 X3.23891 Y-2.55459
G01 X3.23923 Y-2.55446
G01 X3.23856 Y-2.55227
G01 X3.23834 Y-2.55000
G01 X3.22054 Y-2.55000
G01 X3.22111 Y-2.55575
G01 X3.22278 Y-2.56127
G01 X3.22551 Y-2.56637
G01 X3.22917 Y-2.57083
G01 X3.23363 Y-2.57449
G01 X3.23873 Y-2.57722
G01 X3.24425 Y-2.57889
G01 X3.25000 Y-2.57946
G01 X3.25575 Y-2.57889
G01 X3.26127 Y-2.57722
G01 X3.26637 Y-2.57449
G01 X3.27083 Y-2.57083
G01 X3.27449 Y-2.56637
G01 X3.27750 Y-2.56075
G01 X3.27845 Y-2.55942
G01 X3.27929 Y-2.55853
G01 X3.28092 Y-2.55731
G01 X3.28239 Y-2.55659
G01 X3.28396 Y-2.55612
G01 X3.28599 Y-2.55591
G01 X3.61442 Y-2.55592
G01 X3.61604 Y-2.55612
G01 X3.61799 Y-2.55674
G01 X3.61976 Y-2.55776
G01 X3.62100 Y-2.55882
G01 X3.62249 Y-2.56075
G01 X3.62550 Y-2.56637
G01 X3.62917 Y-2.57083
G01 X3.63363 Y-2.57449
G01 X3.63873 Y-2.57722
G01 X3.64425 Y-2.57889
G01 X3.65000 Y-2.57946
G01 X3.65575 Y-2.57889
G01 X3.66127 Y-2.57722
G01 X3.66637 Y-2.57449
G01 X3.67083 Y-2.57083
G01 X3.67449 Y-2.56637
G01 X3.67722 Y-2.56127
G01 X3.67889 Y-2.55575
G01 X3.67946 Y-2.55000
G01 X3.67889 Y-2.54425
G01 X3.67697 Y-2.53788
G01 X3.67669 Y-2.53627
G01 X3.67666 Y-2.53505
G01 X3.67686 Y-2.53343
G01 X3.67732 Y-2.53186
G01 X3.67804 Y-2.53039
G01 X3.67899 Y-2.52906
G01 X3.79596 Y-2.41204
G01 X3.79754 Y-2.41076
G01 X3.79972 Y-2.40969
G01 X3.80130 Y-2.40929
G01 X3.80292 Y-2.40916
G01 X4.14708 Y-2.40916
G01 X4.14949 Y-2.40946
G01 X4.15176 Y-2.41034
G01 X4.15312 Y-2.41123
G01 X4.15404 Y-2.41204
G01 X4.27127 Y-2.52938
G01 X4.27235 Y-2.53111
G01 X4.27294 Y-2.53263
G01 X4.27327 Y-2.53423
G01 X4.27333 Y-2.53587
G01 X4.27303 Y-2.53788
G01 X4.27111 Y-2.54425
G01 X4.27054 Y-2.55000
G01 X4.27063 Y-2.55305
G01 X4.27031 Y-2.55465
G01 X4.26956 Y-2.55655
G01 X4.26892 Y-2.55759
G01 X4.26788 Y-2.55885
G01 X4.26664 Y-2.55992
G01 X4.26525 Y-2.56077
G01 X4.01803 Y-2.68434
G01 X4.01644 Y-2.68482
G01 X4.01438 Y-2.68504
G01 X3.94094 Y-2.68504
G01 X3.94094 Y-2.80316
G01 X4.05906 Y-2.80316
G01 X4.05907 Y-2.68275
G01 X4.05935 Y-2.68076
G01 X4.05987 Y-2.67923
G01 X4.06086 Y-2.67748
G01 X4.06219 Y-2.67596
G01 X4.06450 Y-2.67435
G01 X4.27094 Y-2.57114
G01 X4.27246 Y-2.57061
G01 X4.27446 Y-2.57029
G01 X4.27607 Y-2.57034
G01 X4.27804 Y-2.57077
G01 X4.28057 Y-2.57203
G01 X4.28363 Y-2.57449
G01 X4.28873 Y-2.57722
G01 X4.29425 Y-2.57889
G01 X4.30000 Y-2.57946
G01 X4.30575 Y-2.57889
G01 X4.31127 Y-2.57722
G01 X4.31637 Y-2.57449
G01 X4.32083 Y-2.57083
G01 X4.32449 Y-2.56637
G01 X4.32750 Y-2.56075
G01 X4.32872 Y-2.55911
G01 X4.32960 Y-2.55826
G01 X4.33092 Y-2.55731
G01 X4.33239 Y-2.55659
G01 X4.33373 Y-2.55617
G01 X4.28583 Y-2.55701
G01 X4.04974 Y-2.67893
G01 X4.02950 Y-2.71292
G01 X4.01110 Y-2.73299
G01 X4.00591 Y-2.73818
G01 X4.00591 Y-2.75001
G01 X4.01110 Y-2.75520
G01 X4.00591 Y-2.75001
G01 X3.99408 Y-2.75001
G01 X3.98889 Y-2.75520
G01 X3.99408 Y-2.75001
G01 X3.99408 Y-2.73818
G01 X3.98889 Y-2.73299
G01 X3.99408 Y-2.73818
G01 X4.00591 Y-2.73818
G01 X4.01110 Y-2.73299
G01 X4.02950 Y-2.71292
G01 X4.02360 Y-2.71952
G01 X4.02002 Y-2.72012
G01 X4.01640 Y-2.72043
G01 X3.97637 Y-2.72047
G01 X3.97118 Y-2.71528
G01 X3.97637 Y-2.72047
G01 X3.97637 Y-2.76773
G01 X3.97118 Y-2.77292
G01 X3.97637 Y-2.76773
G01 X4.02363 Y-2.76773
G01 X4.02882 Y-2.77292
G01 X4.02363 Y-2.76773
G01 X4.02360 Y-2.71952
G01 X4.02950 Y-2.71292
G01 X4.04974 Y-2.67893
G01 X4.04134 Y-2.69253
G01 X4.04134 Y-2.78544
G01 X4.04653 Y-2.79063
G01 X4.04134 Y-2.78544
G01 X3.95866 Y-2.78544
G01 X3.95347 Y-2.79063
G01 X3.95866 Y-2.78544
G01 X3.95866 Y-2.70276
G01 X3.95347 Y-2.69757
G01 X3.95866 Y-2.70276
G01 X4.01558 Y-2.70273
G01 X4.01836 Y-2.70247
G01 X4.02110 Y-2.70192
G01 X4.02377 Y-2.70111
G01 X4.02635 Y-2.70002
G01 X4.04134 Y-2.69253
G01 X4.04974 Y-2.67893
G01 X4.28812 Y-2.55590
G01 X4.29118 Y-2.55784
G01 X4.29352 Y-2.55970
G01 X4.29347 Y-2.55979
G01 X4.29352 Y-2.55970
G01 X4.29554 Y-2.56077
G01 X4.29772 Y-2.56144
G01 X4.29768 Y-2.56162
G01 X4.29772 Y-2.56144
G01 X4.30000 Y-2.56166
G01 X4.30001 Y-2.56185
G01 X4.30000 Y-2.56166
G01 X4.30227 Y-2.56144
G01 X4.30446 Y-2.56077
G01 X4.30459 Y-2.56109
G01 X4.30446 Y-2.56077
G01 X4.30648 Y-2.55970
G01 X4.30825 Y-2.55824
G01 X4.30854 Y-2.55853
G01 X4.30825 Y-2.55824
G01 X4.30969 Y-2.55648
G01 X4.31207 Y-2.55206
G01 X4.31337 Y-2.55000
G01 X4.31652 Y-2.55000
G01 X4.31337 Y-2.55000
G01 X4.31207 Y-2.54794
G01 X4.30969 Y-2.54352
G01 X4.30825 Y-2.54175
G01 X4.30854 Y-2.54147
G01 X4.30825 Y-2.54175
G01 X4.30648 Y-2.54030
G01 X4.30446 Y-2.53923
G01 X4.30459 Y-2.53891
G01 X4.30446 Y-2.53923
G01 X4.30227 Y-2.53856
G01 X4.30000 Y-2.53834
G01 X4.29999 Y-2.53790
G01 X4.30000 Y-2.53834
G01 X4.29772 Y-2.53856
G01 X4.29265 Y-2.54009
G01 X4.29057 Y-2.54057
G01 X4.29055 Y-2.54069
G01 X4.28862 Y-2.53870
G01 X4.29055 Y-2.54069
G01 X4.28987 Y-2.54342
G01 X4.28856 Y-2.54772
G01 X4.28846 Y-2.54771
G01 X4.28856 Y-2.54772
G01 X4.28833 Y-2.55006
G01 X4.28837 Y-2.55326
G01 X4.28812 Y-2.55590
G01 X4.28583 Y-2.55701
G01 X4.68664 Y-2.55002
G01 X4.68793 Y-2.55206
G01 X4.69030 Y-2.55648
G01 X4.69175 Y-2.55824
G01 X4.69146 Y-2.55853
G01 X4.69175 Y-2.55824
G01 X4.69352 Y-2.55970
G01 X4.69554 Y-2.56077
G01 X4.69541 Y-2.56109
G01 X4.69554 Y-2.56077
G01 X4.69773 Y-2.56144
G01 X4.70000 Y-2.56166
G01 X4.70000 Y-2.56201
G01 X4.70000 Y-2.56166
G01 X4.70227 Y-2.56144
G01 X4.70446 Y-2.56077
G01 X4.70459 Y-2.56109
G01 X4.70446 Y-2.56077
G01 X4.70648 Y-2.55970
G01 X4.70824 Y-2.55824
G01 X4.70849 Y-2.55849
G01 X4.70824 Y-2.55824
G01 X4.70969 Y-2.55648
G01 X4.71077 Y-2.55446
G01 X4.71109 Y-2.55459
G01 X4.71077 Y-2.55446
G01 X4.71144 Y-2.55227
G01 X4.71166 Y-2.55000
G01 X4.71201 Y-2.55000
G01 X4.71166 Y-2.55000
G01 X4.71144 Y-2.54772
G01 X4.71077 Y-2.54554
G01 X4.71109 Y-2.54541
G01 X4.71077 Y-2.54554
G01 X4.70969 Y-2.54352
G01 X4.70824 Y-2.54175
G01 X4.70849 Y-2.54151
G01 X4.70824 Y-2.54175
G01 X4.70648 Y-2.54030
G01 X4.70446 Y-2.53923
G01 X4.70459 Y-2.53891
G01 X4.70446 Y-2.53923
G01 X4.70227 Y-2.53856
G01 X4.70000 Y-2.53834
G01 X4.70000 Y-2.53799
G01 X4.70000 Y-2.53834
G01 X4.69773 Y-2.53856
G01 X4.69554 Y-2.53923
G01 X4.69541 Y-2.53891
G01 X4.69554 Y-2.53923
G01 X4.69352 Y-2.54030
G01 X4.69175 Y-2.54175
G01 X4.69146 Y-2.54147
G01 X4.69175 Y-2.54175
G01 X4.69030 Y-2.54352
G01 X4.68793 Y-2.54794
G01 X4.68664 Y-2.55002
G01 X4.33373 Y-2.55617
G01 X4.33598 Y-2.55591
G01 X4.66442 Y-2.55592
G01 X4.66604 Y-2.55612
G01 X4.66799 Y-2.55674
G01 X4.66976 Y-2.55776
G01 X4.67100 Y-2.55882
G01 X4.67249 Y-2.56075
G01 X4.67551 Y-2.56637
G01 X4.67917 Y-2.57083
G01 X4.68363 Y-2.57449
G01 X4.68873 Y-2.57722
G01 X4.69425 Y-2.57889
G01 X4.70000 Y-2.57946
G01 X4.70575 Y-2.57889
G01 X4.71127 Y-2.57722
G01 X4.71637 Y-2.57449
G01 X4.72083 Y-2.57083
G01 X4.72449 Y-2.56637
G01 X4.72722 Y-2.56127
G01 X4.72889 Y-2.55575
G01 X4.72946 Y-2.55000
G01 X4.72889 Y-2.54425
G01 X4.72722 Y-2.53873
G01 X4.72449 Y-2.53363
G01 X4.72083 Y-2.52917
G01 X4.71637 Y-2.52550
G01 X4.71127 Y-2.52278
G01 X4.70575 Y-2.52111
G01 X4.70000 Y-2.52054
G01 X4.69425 Y-2.52111
G01 X4.68873 Y-2.52278
G01 X4.68363 Y-2.52550
G01 X4.67917 Y-2.52917
G01 X4.67551 Y-2.53363
G01 X4.67249 Y-2.53925
G01 X4.67100 Y-2.54118
G01 X4.66976 Y-2.54224
G01 X4.66799 Y-2.54325
G01 X4.66604 Y-2.54388
G01 X4.66442 Y-2.54408
G01 X4.33598 Y-2.54409
G01 X4.33356 Y-2.54379
G01 X4.33239 Y-2.54341
G01 X4.33092 Y-2.54269
G01 X4.32960 Y-2.54174
G01 X4.32845 Y-2.54058
G01 X4.32750 Y-2.53925
G01 X4.32449 Y-2.53363
G01 X4.32083 Y-2.52917
G01 X4.31637 Y-2.52550
G01 X4.31127 Y-2.52278
G01 X4.30575 Y-2.52111
G01 X4.30000 Y-2.52054
G01 X4.29425 Y-2.52111
G01 X4.28788 Y-2.52303
G01 X4.28627 Y-2.52331
G01 X4.28505 Y-2.52333
G01 X4.28383 Y-2.52321
G01 X4.28224 Y-2.52282
G01 X4.28075 Y-2.52216
G01 X4.27938 Y-2.52127
G01 X4.15784 Y-2.39984
G01 X4.15662 Y-2.39883
G01 X4.15564 Y-2.39832
G01 X4.15459 Y-2.39800
G01 X4.15301 Y-2.39784
G01 X3.79698 Y-2.39784
G01 X3.79541 Y-2.39800
G01 X3.79435 Y-2.39832
G01 X3.79338 Y-2.39883
G01 X3.79216 Y-2.39984
G01 X3.67094 Y-2.52101
G01 X3.66961 Y-2.52196
G01 X3.66814 Y-2.52268
G01 X3.66657 Y-2.52314
G01 X3.66495 Y-2.52333
G01 X3.66372 Y-2.52331
G01 X3.66212 Y-2.52303
G01 X3.65575 Y-2.52111
G01 X3.65000 Y-2.52054
G01 X3.64425 Y-2.52111
G01 X3.63873 Y-2.52278
G01 X3.63363 Y-2.52550
G01 X3.62917 Y-2.52917
G01 X3.62550 Y-2.53363
G01 X3.62249 Y-2.53925
G01 X3.62128 Y-2.54089
G01 X3.62008 Y-2.54200
G01 X3.61872 Y-2.54290
G01 X3.61722 Y-2.54355
G01 X3.61564 Y-2.54396
G01 X3.61401 Y-2.54409
G01 X3.28517 Y-2.54406
G01 X3.28356 Y-2.54379
G01 X3.28201 Y-2.54325
G01 X3.28024 Y-2.54224
G01 X3.27900 Y-2.54118
G01 X3.27750 Y-2.53925
G01 X3.27449 Y-2.53363
G01 X3.27083 Y-2.52917
G01 X3.26637 Y-2.52550
G01 X3.26127 Y-2.52278
G01 X3.25575 Y-2.52111
G01 X3.25000 Y-2.52054
G01 X3.24425 Y-2.52111
G01 X3.23873 Y-2.52278
G01 X3.23363 Y-2.52550
G01 X3.22917 Y-2.52917
G01 X3.22551 Y-2.53363
G01 X3.22278 Y-2.53873
G01 X3.22111 Y-2.54425
G01 X3.22054 Y-2.55000
( Piece #2, position [1;0] )

G04 P0 ( dwell for no time -- G64 should not smooth over this point )
G00 Z0.08000 ( retract )

G00 X5.13651 Y-3.21714 ( rapid move to begin. )
G01 F180.00000
( Mill infeed pass 1/1 )
G01 Z-0.04000
G04 P0 ( dwell for no time -- G64 should not smooth over this point )
G01 F360.00000
G01 X5.13651 Y-3.21714
G01 X5.13651 Y-2.81119
G01 X5.13666 Y-2.80962
G01 X5.13698 Y-2.80856
G01 X5.13750 Y-2.80759
G01 X5.13851 Y-2.80637
G01 X5.18038 Y-2.76449
G01 X5.18161 Y-2.76348
G01 X5.18258 Y-2.76297
G01 X5.18363 Y-2.76265
G01 X5.18521 Y-2.76249
G01 X5.54054 Y-2.76249
G01 X5.54256 Y-2.76228
G01 X5.54412 Y-2.76182
G01 X5.54593 Y-2.76089
G01 X5.54750 Y-2.75961
G01 X5.68477 Y-2.62234
G01 X5.68600 Y-2.62134
G01 X5.68697 Y-2.62082
G01 X5.68802 Y-2.62050
G01 X5.68960 Y-2.62034
G01 X5.72093 Y-2.62031
G01 X5.72253 Y-2.62004
G01 X5.72444 Y-2.61934
G01 X5.72616 Y-2.61827
G01 X5.72736 Y-2.61717
G01 X5.72857 Y-2.61554
G01 X5.72928 Y-2.61408
G01 X5.72975 Y-2.61252
G01 X5.72995 Y-2.61091
G01 X5.72996 Y-2.56694
G01 X5.83599 Y-2.56694
G01 X5.83761 Y-2.56681
G01 X5.83880 Y-2.56653
G01 X5.84032 Y-2.56594
G01 X5.84138 Y-2.56534
G01 X5.84295 Y-2.56406
G01 X5.90277 Y-2.50424
G01 X5.90400 Y-2.50324
G01 X5.90497 Y-2.50272
G01 X5.90805 Y-2.50199
G01 X5.91024 Y-2.50100
G01 X5.91184 Y-2.49978
G01 X5.91339 Y-2.49793
G01 X5.91444 Y-2.49576
G01 X5.91495 Y-2.49300
G01 X5.91496 Y-2.44884
G01 X6.03307 Y-2.44884
G01 X6.03307 Y-2.56696
G01 X5.91496 Y-2.56696
G01 X5.91496 Y-2.53182
G01 X5.91482 Y-2.53020
G01 X5.91442 Y-2.52862
G01 X5.91335 Y-2.52644
G01 X5.91207 Y-2.52486
G01 X5.91050 Y-2.52358
G01 X5.90831 Y-2.52251
G01 X5.90633 Y-2.52205
G01 X5.90390 Y-2.52205
G01 X5.90154 Y-2.52265
G01 X5.89973 Y-2.52358
G01 X5.89816 Y-2.52486
G01 X5.85096 Y-2.57206
G01 X5.84946 Y-2.57398
G01 X5.84848 Y-2.57621
G01 X5.84821 Y-2.57740
G01 X5.84807 Y-2.57902
G01 X5.84807 Y-2.68506
G01 X5.72996 Y-2.68506
G01 X5.72995 Y-2.64109
G01 X5.72975 Y-2.63948
G01 X5.72942 Y-2.63830
G01 X5.72835 Y-2.63612
G01 X5.72678 Y-2.63426
G01 X5.72515 Y-2.63304
G01 X5.72331 Y-2.63219
G01 X5.72133 Y-2.63173
G01 X5.69432 Y-2.63173
G01 X5.69273 Y-2.63207
G01 X5.69121 Y-2.63266
G01 X5.68982 Y-2.63349
G01 X5.68858 Y-2.63454
G01 X5.55131 Y-2.77181
G01 X5.55008 Y-2.77281
G01 X5.54911 Y-2.77333
G01 X5.54806 Y-2.77365
G01 X5.54648 Y-2.77381
G01 X5.19115 Y-2.77381
G01 X5.18913 Y-2.77401
G01 X5.18757 Y-2.77448
G01 X5.18611 Y-2.77519
G01 X5.18479 Y-2.77614
G01 X5.15042 Y-2.81047
G01 X5.14942 Y-2.81175
G01 X5.14865 Y-2.81318
G01 X5.14812 Y-2.81472
G01 X5.14786 Y-2.81632
G01 X5.14783 Y-3.21161
G01 X5.14803 Y-3.21322
G01 X5.14865 Y-3.21516
G01 X5.14942 Y-3.21658
G01 X5.15070 Y-3.21816
G01 X5.32280 Y-3.39026
G01 X5.32404 Y-3.39131
G01 X5.32544 Y-3.39214
G01 X5.32695 Y-3.39273
G01 X5.32854 Y-3.39306
G01 X5.78916 Y-3.39314
G01 X5.79158 Y-3.39284
G01 X5.79385 Y-3.39195
G01 X5.79583 Y-3.39054
G01 X5.81576 Y-3.37061
G01 X5.81697 Y-3.36899
G01 X5.81768 Y-3.36753
G01 X5.81815 Y-3.36597
G01 X5.81835 Y-3.36436
G01 X5.81835 Y-3.33896
G01 X5.81815 Y-3.33735
G01 X5.81782 Y-3.33617
G01 X5.81675 Y-3.33399
G01 X5.81576 Y-3.33270
G01 X5.81423 Y-3.33136
G01 X5.81247 Y-3.33036
G01 X5.81053 Y-3.32974
G01 X5.80852 Y-3.32953
G01 X5.79646 Y-3.32953
G01 X5.79646 Y-3.27047
G01 X5.85157 Y-3.27047
G01 X5.85158 Y-3.28491
G01 X5.85178 Y-3.28652
G01 X5.85225 Y-3.28808
G01 X5.85296 Y-3.28954
G01 X5.85365 Y-3.29054
G01 X5.85446 Y-3.29146
G01 X5.85570 Y-3.29251
G01 X5.85709 Y-3.29334
G01 X5.85822 Y-3.29381
G01 X5.85980 Y-3.29421
G01 X5.86142 Y-3.29434
G01 X5.98783 Y-3.29427
G01 X5.98903 Y-3.29404
G01 X5.99057 Y-3.29351
G01 X5.99266 Y-3.29227
G01 X5.99357 Y-3.29146
G01 X5.99462 Y-3.29022
G01 X5.99527 Y-3.28918
G01 X5.99592 Y-3.28769
G01 X5.99632 Y-3.28612
G01 X5.99645 Y-3.28491
G01 X5.99645 Y-3.27047
G01 X6.05157 Y-3.27047
G01 X6.05157 Y-3.32953
G01 X5.99645 Y-3.32953
G01 X5.99645 Y-3.31509
G01 X5.99632 Y-3.31388
G01 X5.99592 Y-3.31230
G01 X5.99527 Y-3.31081
G01 X5.99462 Y-3.30978
G01 X5.99357 Y-3.30854
G01 X5.99266 Y-3.30773
G01 X5.99057 Y-3.30649
G01 X5.98903 Y-3.30596
G01 X5.98783 Y-3.30573
G01 X5.86142 Y-3.30566
G01 X5.85980 Y-3.30579
G01 X5.85861 Y-3.30607
G01 X5.85638 Y-3.30704
G01 X5.85446 Y-3.30854
G01 X5.85296 Y-3.31046
G01 X5.85198 Y-3.31269
G01 X5.85158 Y-3.31509
G01 X5.85157 Y-3.32953
G01 X5.83911 Y-3.32953
G01 X5.83671 Y-3.32994
G01 X5.83448 Y-3.33091
G01 X5.83285 Y-3.33213
G01 X5.83150 Y-3.33365
G01 X5.83050 Y-3.33542
G01 X5.82988 Y-3.33735
G01 X5.82968 Y-3.33896
G01 X5.82967 Y-3.36989
G01 X5.82952 Y-3.37146
G01 X5.82920 Y-3.37252
G01 X5.82868 Y-3.37349
G01 X5.82767 Y-3.37471
G01 X5.79993 Y-3.40246
G01 X5.79870 Y-3.40346
G01 X5.79773 Y-3.40398
G01 X5.79668 Y-3.40430
G01 X5.79510 Y-3.40446
G01 X5.32382 Y-3.40446
G01 X5.32225 Y-3.40430
G01 X5.32119 Y-3.40398
G01 X5.32022 Y-3.40346
G01 X5.31900 Y-3.40246
G01 X5.13851 Y-3.22196
G01 X5.13750 Y-3.22074
G01 X5.13698 Y-3.21977
G01 X5.13666 Y-3.21872
G01 X5.13651 Y-3.21714
G04 P0 ( dwell for no time -- G64 should not smooth over this point )
G00 Z0.08000 ( retract )

G00 X5.33469 Y-3.32874 ( rapid move to begin. )
G01 F180.00000
( Mill infeed pass 1/1 )
G01 Z-0.04000
G04 P0 ( dwell for no time -- G64 should not smooth over this point )
G01 F360.00000
G01 X5.33469 Y-3.32874
G01 X5.33503 Y-3.33219
G01 X5.33604 Y-3.33550
G01 X5.33767 Y-3.33856
G01 X5.33987 Y-3.34123
G01 X5.34255 Y-3.34343
G01 X5.34560 Y-3.34506
G01 X5.34891 Y-3.34607
G01 X5.35284 Y-3.34646
G01 X5.39519 Y-3.34646
G01 X5.39912 Y-3.34607
G01 X5.40243 Y-3.34506
G01 X5.40548 Y-3.34343
G01 X5.40816 Y-3.34123
G01 X5.41117 Y-3.33763
G01 X5.41310 Y-3.33608
G01 X5.41537 Y-3.33507
G01 X5.41781 Y-3.33466
G01 X5.64484 Y-3.33465
G01 X5.64630 Y-3.33452
G01 X5.64770 Y-3.33414
G01 X5.69418 Y-3.31718
G01 X5.69656 Y-3.31663
G01 X5.69778 Y-3.31658
G01 X5.69941 Y-3.31676
G01 X5.70173 Y-3.31752
G01 X5.70348 Y-3.31857
G01 X5.70873 Y-3.32288
G01 X5.71349 Y-3.32542
G01 X5.71865 Y-3.32698
G01 X5.72402 Y-3.32751
G01 X5.72938 Y-3.32698
G01 X5.73454 Y-3.32542
G01 X5.73930 Y-3.32287
G01 X5.74347 Y-3.31945
G01 X5.74689 Y-3.31528
G01 X5.74943 Y-3.31053
G01 X5.75100 Y-3.30537
G01 X5.75153 Y-3.30000
G01 X5.75100 Y-3.29463
G01 X5.74943 Y-3.28947
G01 X5.74689 Y-3.28471
G01 X5.74347 Y-3.28055
G01 X5.73930 Y-3.27712
G01 X5.73454 Y-3.27458
G01 X5.72938 Y-3.27302
G01 X5.72402 Y-3.27249
G01 X5.71865 Y-3.27302
G01 X5.71349 Y-3.27458
G01 X5.70873 Y-3.27712
G01 X5.70456 Y-3.28055
G01 X5.70114 Y-3.28471
G01 X5.69860 Y-3.28947
G01 X5.69703 Y-3.29463
G01 X5.69661 Y-3.29854
G01 X5.69619 Y-3.30012
G01 X5.69570 Y-3.30125
G01 X5.69507 Y-3.30230
G01 X5.69404 Y-3.30357
G01 X5.69214 Y-3.30512
G01 X5.69031 Y-3.30601
G01 X5.64586 Y-3.32224
G01 X5.64378 Y-3.32275
G01 X5.41781 Y-3.32282
G01 X5.41537 Y-3.32241
G01 X5.41310 Y-3.32140
G01 X5.41117 Y-3.31985
G01 X5.40816 Y-3.31625
G01 X5.40548 Y-3.31405
G01 X5.40243 Y-3.31242
G01 X5.39912 Y-3.31141
G01 X5.39519 Y-3.31102
G01 X5.35284 Y-3.31102
G01 X5.34891 Y-3.31141
G01 X5.34560 Y-3.31242
G01 X5.34255 Y-3.31405
G01 X5.33987 Y-3.31625
G01 X5.33767 Y-3.31892
G01 X5.33604 Y-3.32198
G01 X5.33503 Y-3.32529
G01 X5.33469 Y-3.32874
G01 X5.39434 Y-3.32874
G04 P0 ( dwell for no time -- G64 should not smooth over this point )
G00 Z0.08000 ( retract )

G00 X5.39434 Y-3.25000 ( rapid move to begin. )
G01 F180.00000
( Mill infeed pass 1/1 )
G01 Z-0.04000
G04 P0 ( dwell for no time -- G64 should not smooth over this point )
G01 F360.00000
G01 X5.39434 Y-3.25000
G01 X5.35369 Y-3.25000
G04 P0 ( dwell for no time -- G64 should not smooth over this point )
G00 Z0.08000 ( retract )

G00 X5.39434 Y-3.17126 ( rapid move to begin. )
G01 F180.00000
( Mill infeed pass 1/1 )
G01 Z-0.04000
G04 P0 ( dwell for no time -- G64 should not smooth over this point )
G01 F360.00000
G01 X5.39434 Y-3.17126
G01 X5.33469 Y-3.17126
G01 X5.33503 Y-3.17471
G01 X5.33604 Y-3.17802
G01 X5.33767 Y-3.18108
G01 X5.33987 Y-3.18375
G01 X5.34255 Y-3.18595
G01 X5.34560 Y-3.18758
G01 X5.34891 Y-3.18859
G01 X5.35284 Y-3.18898
G01 X5.39519 Y-3.18898
G01 X5.39912 Y-3.18859
G01 X5.40243 Y-3.18758
G01 X5.40548 Y-3.18595
G01 X5.40816 Y-3.18375
G01 X5.41117 Y-3.18015
G01 X5.41310 Y-3.17860
G01 X5.41458 Y-3.17786
G01 X5.41577 Y-3.17748
G01 X5.41822 Y-3.17717
G01 X6.01634 Y-3.17717
G01 X6.01796 Y-3.17701
G01 X6.01906 Y-3.17667
G01 X6.02007 Y-3.17613
G01 X6.02134 Y-3.17509
G01 X6.23428 Y-2.96226
G01 X6.23529 Y-2.96157
G01 X6.23675 Y-2.96086
G01 X6.23792 Y-2.96049
G01 X6.23953 Y-2.96022
G01 X6.24116 Y-2.96023
G01 X6.24237 Y-2.96041
G01 X6.24467 Y-2.96121
G01 X6.24640 Y-2.96229
G01 X6.24759 Y-2.96340
G01 X6.24859 Y-2.96469
G01 X6.24952 Y-2.96637
G01 X6.25318 Y-2.97083
G01 X6.25765 Y-2.97449
G01 X6.26274 Y-2.97722
G01 X6.26827 Y-2.97889
G01 X6.27402 Y-2.97946
G01 X6.27976 Y-2.97889
G01 X6.28529 Y-2.97722
G01 X6.29038 Y-2.97449
G01 X6.29485 Y-2.97083
G01 X6.29851 Y-2.96637
G01 X6.30123 Y-2.96127
G01 X6.30291 Y-2.95575
G01 X6.30347 Y-2.95000
G01 X6.30291 Y-2.94425
G01 X6.30123 Y-2.93873
G01 X6.29851 Y-2.93363
G01 X6.29485 Y-2.92917
G01 X6.29038 Y-2.92550
G01 X6.28477 Y-2.92250
G01 X6.28283 Y-2.92100
G01 X6.28177 Y-2.91976
G01 X6.28112 Y-2.91872
G01 X6.28046 Y-2.91723
G01 X6.28013 Y-2.91604
G01 X6.27992 Y-2.91401
G01 X6.27993 Y-2.86534
G01 X6.28022 Y-2.86333
G01 X6.28111 Y-2.86106
G01 X6.28225 Y-2.85939
G01 X6.28372 Y-2.85798
G01 X6.28508 Y-2.85709
G01 X6.28657 Y-2.85644
G01 X6.28814 Y-2.85604
G01 X6.28977 Y-2.85591
G01 X6.40598 Y-2.85592
G01 X6.40843 Y-2.85633
G01 X6.41069 Y-2.85734
G01 X6.41233 Y-2.85860
G01 X6.41449 Y-2.86110
G01 X6.41687 Y-2.86305
G01 X6.41958 Y-2.86450
G01 X6.42253 Y-2.86540
G01 X6.42559 Y-2.86570
G01 X6.42865 Y-2.86540
G01 X6.43160 Y-2.86450
G01 X6.43431 Y-2.86305
G01 X6.43669 Y-2.86110
G01 X6.43864 Y-2.85872
G01 X6.44010 Y-2.85601
G01 X6.44099 Y-2.85306
G01 X6.44129 Y-2.85000
G01 X6.44099 Y-2.84694
G01 X6.44010 Y-2.84399
G01 X6.43864 Y-2.84128
G01 X6.43669 Y-2.83890
G01 X6.43431 Y-2.83695
G01 X6.43160 Y-2.83549
G01 X6.42865 Y-2.83460
G01 X6.42559 Y-2.83430
G01 X6.42253 Y-2.83460
G01 X6.41958 Y-2.83549
G01 X6.41687 Y-2.83695
G01 X6.41449 Y-2.83890
G01 X6.41263 Y-2.84111
G01 X6.41104 Y-2.84243
G01 X6.40882 Y-2.84354
G01 X6.40640 Y-2.84406
G01 X6.27450 Y-2.84409
G01 X6.27287 Y-2.84425
G01 X6.27177 Y-2.84459
G01 X6.27076 Y-2.84513
G01 X6.26987 Y-2.84586
G01 X6.26914 Y-2.84674
G01 X6.26860 Y-2.84776
G01 X6.26827 Y-2.84886
G01 X6.26811 Y-2.85048
G01 X6.26810 Y-2.90795
G01 X6.26790 Y-2.90956
G01 X6.26743 Y-2.91112
G01 X6.26672 Y-2.91258
G01 X6.26603 Y-2.91358
G01 X6.01725 Y-3.16247
G01 X6.01533 Y-3.16396
G01 X6.01310 Y-3.16494
G01 X6.01191 Y-3.16522
G01 X6.01029 Y-3.16535
G01 X5.41822 Y-3.16535
G01 X5.41576 Y-3.16504
G01 X5.41420 Y-3.16449
G01 X5.41310 Y-3.16391
G01 X5.41117 Y-3.16237
G01 X5.40816 Y-3.15877
G01 X5.40548 Y-3.15657
G01 X5.40243 Y-3.15494
G01 X5.39912 Y-3.15393
G01 X5.39519 Y-3.15354
G01 X5.35284 Y-3.15354
G01 X5.34891 Y-3.15393
G01 X5.34560 Y-3.15494
G01 X5.34255 Y-3.15657
G01 X5.33987 Y-3.15877
G01 X5.33767 Y-3.16144
G01 X5.33604 Y-3.16450
G01 X5.33503 Y-3.16781
G01 X5.33469 Y-3.17126
G04 P0 ( dwell for no time -- G64 should not smooth over this point )
G00 Z0.08000 ( retract )

G00 X5.19456 Y-2.95000 ( rapid move to begin. )
G01 F180.00000
( Mill infeed pass 1/1 )
G01 Z-0.04000
G04 P0 ( dwell for no time -- G64 should not smooth over this point )
G01 F360.00000
G01 X5.19456 Y-2.95000
G01 X5.19512 Y-2.94425
G01 X5.19680 Y-2.93873
G01 X5.19952 Y-2.93363
G01 X5.20318 Y-2.92917
G01 X5.20765 Y-2.92550
G01 X5.21274 Y-2.92278
G01 X5.21827 Y-2.92111
G01 X5.22402 Y-2.92054
G01 X5.22976 Y-2.92111
G01 X5.23613 Y-2.92303
G01 X5.23856 Y-2.92334
G01 X5.24019 Y-2.92321
G01 X5.24138 Y-2.92294
G01 X5.24290 Y-2.92235
G01 X5.24431 Y-2.92151
G01 X5.24555 Y-2.92046
G01 X5.31967 Y-2.84634
G01 X5.32090 Y-2.84533
G01 X5.32187 Y-2.84482
G01 X5.32292 Y-2.84450
G01 X5.32450 Y-2.84434
G01 X5.34842 Y-2.84434
G01 X5.35004 Y-2.84421
G01 X5.35123 Y-2.84393
G01 X5.35275 Y-2.84334
G01 X5.35414 Y-2.84251
G01 X5.35538 Y-2.84146
G01 X5.35643 Y-2.84022
G01 X5.35727 Y-2.83882
G01 X5.35786 Y-2.83731
G01 X5.35819 Y-2.83572
G01 X5.35827 Y-2.83425
G01 X5.38976 Y-2.83425
G01 X5.38976 Y-2.86575
G01 X5.35827 Y-2.86575
G01 X5.35819 Y-2.86428
G01 X5.35786 Y-2.86269
G01 X5.35727 Y-2.86118
G01 X5.35643 Y-2.85978
G01 X5.35538 Y-2.85854
G01 X5.35414 Y-2.85749
G01 X5.35275 Y-2.85666
G01 X5.35123 Y-2.85607
G01 X5.35004 Y-2.85579
G01 X5.34842 Y-2.85566
G01 X5.33003 Y-2.85567
G01 X5.32802 Y-2.85596
G01 X5.32611 Y-2.85666
G01 X5.32472 Y-2.85749
G01 X5.32348 Y-2.85854
G01 X5.25356 Y-2.92846
G01 X5.25250 Y-2.92971
G01 X5.25167 Y-2.93111
G01 X5.25107 Y-2.93263
G01 X5.25080 Y-2.93383
G01 X5.25071 Y-2.93627
G01 X5.25099 Y-2.93788
G01 X5.25291 Y-2.94425
G01 X5.25347 Y-2.95000
G01 X5.25291 Y-2.95575
G01 X5.25123 Y-2.96127
G01 X5.24851 Y-2.96637
G01 X5.24485 Y-2.97083
G01 X5.24038 Y-2.97449
G01 X5.23452 Y-2.97764
G01 X5.23319 Y-2.97858
G01 X5.23230 Y-2.97943
G01 X5.23129 Y-2.98071
G01 X5.23051 Y-2.98215
G01 X5.22998 Y-2.98369
G01 X5.22971 Y-2.98530
G01 X5.22968 Y-3.17420
G01 X5.22988 Y-3.17581
G01 X5.23035 Y-3.17737
G01 X5.23128 Y-3.17917
G01 X5.23227 Y-3.18046
G01 X5.29326 Y-3.24146
G01 X5.29418 Y-3.24227
G01 X5.29554 Y-3.24316
G01 X5.29741 Y-3.24393
G01 X5.29982 Y-3.24433
G01 X5.32960 Y-3.24434
G01 X5.33166 Y-3.24412
G01 X5.33362 Y-3.24348
G01 X5.33574 Y-3.24220
G01 X5.33694 Y-3.24106
G01 X5.33987 Y-3.23751
G01 X5.34255 Y-3.23531
G01 X5.34560 Y-3.23368
G01 X5.34891 Y-3.23267
G01 X5.35284 Y-3.23228
G01 X5.39519 Y-3.23228
G01 X5.39912 Y-3.23267
G01 X5.40243 Y-3.23368
G01 X5.40548 Y-3.23531
G01 X5.40816 Y-3.23751
G01 X5.41036 Y-3.24018
G01 X5.41199 Y-3.24324
G01 X5.41300 Y-3.24655
G01 X5.41334 Y-3.25000
G01 X5.41300 Y-3.25345
G01 X5.41199 Y-3.25676
G01 X5.41036 Y-3.25982
G01 X5.40816 Y-3.26249
G01 X5.40548 Y-3.26469
G01 X5.40243 Y-3.26632
G01 X5.39912 Y-3.26733
G01 X5.39519 Y-3.26772
G01 X5.35284 Y-3.26772
G01 X5.34891 Y-3.26733
G01 X5.34560 Y-3.26632
G01 X5.34255 Y-3.26469
G01 X5.33987 Y-3.26249
G01 X5.33694 Y-3.25894
G01 X5.33574 Y-3.25780
G01 X5.33362 Y-3.25651
G01 X5.33166 Y-3.25587
G01 X5.32960 Y-3.25566
G01 X5.29429 Y-3.25566
G01 X5.29271 Y-3.25550
G01 X5.29166 Y-3.25518
G01 X5.29069 Y-3.25466
G01 X5.28946 Y-3.25366
G01 X5.22036 Y-3.18455
G01 X5.21935 Y-3.18333
G01 X5.21883 Y-3.18236
G01 X5.21851 Y-3.18131
G01 X5.21836 Y-3.17973
G01 X5.21828 Y-2.98489
G01 X5.21794 Y-2.98330
G01 X5.21735 Y-2.98178
G01 X5.21651 Y-2.98037
G01 X5.21545 Y-2.97913
G01 X5.21351 Y-2.97764
G01 X5.20765 Y-2.97449
G01 X5.20318 Y-2.97083
G01 X5.19952 Y-2.96637
G01 X5.19680 Y-2.96127
G01 X5.19512 Y-2.95575
G01 X5.19456 Y-2.95000
G01 X5.21235 Y-2.95000
G01 X5.21258 Y-2.94773
G01 X5.21324 Y-2.94554
G01 X5.21292 Y-2.94541
G01 X5.21324 Y-2.94554
G01 X5.21432 Y-2.94352
G01 X5.21577 Y-2.94175
G01 X5.21552 Y-2.94151
G01 X5.21577 Y-2.94175
G01 X5.21754 Y-2.94030
G01 X5.21955 Y-2.93923
G01 X5.21942 Y-2.93891
G01 X5.21955 Y-2.93923
G01 X5.22174 Y-2.93856
G01 X5.22402 Y-2.93834
G01 X5.22402 Y-2.93792
G01 X5.22402 Y-2.93834
G01 X5.22629 Y-2.93856
G01 X5.23137 Y-2.94009
G01 X5.23344 Y-2.94057
G01 X5.23564 Y-2.93838
G01 X5.23344 Y-2.94057
G01 X5.23392 Y-2.94265
G01 X5.23545 Y-2.94773
G01 X5.23568 Y-2.95000
G01 X5.23609 Y-2.94999
G01 X5.23568 Y-2.95000
G01 X5.23545 Y-2.95227
G01 X5.23479 Y-2.95446
G01 X5.23511 Y-2.95459
G01 X5.23479 Y-2.95446
G01 X5.23371 Y-2.95648
G01 X5.23226 Y-2.95824
G01 X5.23255 Y-2.95854
G01 X5.23226 Y-2.95824
G01 X5.23049 Y-2.95969
G01 X5.22411 Y-2.96327
G01 X5.22413 Y-2.96630
G01 X5.22411 Y-2.96327
G01 X5.22402 Y-2.96333
G01 X5.22186 Y-2.96201
G01 X5.21754 Y-2.95969
G01 X5.21577 Y-2.95824
G01 X5.21547 Y-2.95856
G01 X5.21577 Y-2.95824
G01 X5.21432 Y-2.95648
G01 X5.21324 Y-2.95446
G01 X5.21292 Y-2.95459
G01 X5.21324 Y-2.95446
G01 X5.21258 Y-2.95227
G01 X5.21235 Y-2.95000
G04 P0 ( dwell for no time -- G64 should not smooth over this point )
G00 Z0.08000 ( retract )

G00 X5.45674 Y-2.85000 ( rapid move to begin. )
G01 F180.00000
( Mill infeed pass 1/1 )
G01 Z-0.04000
G04 P0 ( dwell for no time -- G64 should not smooth over this point )
G01 F360.00000
G01 X5.45674 Y-2.85000
G01 X5.45704 Y-2.85306
G01 X5.45793 Y-2.85601
G01 X5.45939 Y-2.85872
G01 X5.46134 Y-2.86110
G01 X5.46372 Y-2.86305
G01 X5.46643 Y-2.86450
G01 X5.46938 Y-2.86540
G01 X5.47244 Y-2.86570
G01 X5.47564 Y-2.86542
G01 X5.47770 Y-2.86561
G01 X5.48005 Y-2.86639
G01 X5.48213 Y-2.86774
G01 X5.56810 Y-2.95366
G01 X5.56932 Y-2.95466
G01 X5.57029 Y-2.95518
G01 X5.57135 Y-2.95550
G01 X5.57292 Y-2.95566
G01 X5.58830 Y-2.95567
G01 X5.58993 Y-2.95587
G01 X5.59187 Y-2.95649
G01 X5.59397 Y-2.95775
G01 X5.59569 Y-2.95949
G01 X5.59658 Y-2.96086
G01 X5.59952 Y-2.96637
G01 X5.60318 Y-2.97083
G01 X5.60765 Y-2.97449
G01 X5.61274 Y-2.97722
G01 X5.61827 Y-2.97889
G01 X5.62402 Y-2.97946
G01 X5.62976 Y-2.97889
G01 X5.63529 Y-2.97722
G01 X5.64038 Y-2.97449
G01 X5.64485 Y-2.97083
G01 X5.64851 Y-2.96637
G01 X5.65165 Y-2.96050
G01 X5.65315 Y-2.95857
G01 X5.65439 Y-2.95751
G01 X5.65616 Y-2.95649
G01 X5.65771 Y-2.95596
G01 X5.65932 Y-2.95569
G01 X5.96933 Y-2.95566
G01 X5.97091 Y-2.95550
G01 X5.97196 Y-2.95518
G01 X5.97293 Y-2.95466
G01 X5.97416 Y-2.95366
G01 X6.13036 Y-2.79745
G01 X6.13128 Y-2.79664
G01 X6.13264 Y-2.79575
G01 X6.13413 Y-2.79510
G01 X6.13570 Y-2.79470
G01 X6.13732 Y-2.79457
G01 X6.61728 Y-2.79457
G01 X6.61930 Y-2.79478
G01 X6.62124 Y-2.79540
G01 X6.62267 Y-2.79617
G01 X6.62424 Y-2.79745
G01 X6.74032 Y-2.91353
G01 X6.74160 Y-2.91511
G01 X6.74221 Y-2.91617
G01 X6.74280 Y-2.91768
G01 X6.74307 Y-2.91887
G01 X6.74321 Y-2.92049
G01 X6.74321 Y-2.97951
G01 X6.74300 Y-2.98153
G01 X6.74238 Y-2.98346
G01 X6.74160 Y-2.98489
G01 X6.74032 Y-2.98647
G01 X6.56407 Y-3.16272
G01 X6.56283 Y-3.16377
G01 X6.56180 Y-3.16441
G01 X6.56031 Y-3.16507
G01 X6.55913 Y-3.16539
G01 X6.55752 Y-3.16559
G01 X6.51760 Y-3.16557
G01 X6.51518 Y-3.16505
G01 X6.51403 Y-3.16457
G01 X6.51262 Y-3.16371
G01 X6.51109 Y-3.16232
G01 X6.50816 Y-3.15877
G01 X6.50548 Y-3.15657
G01 X6.50243 Y-3.15494
G01 X6.49912 Y-3.15393
G01 X6.49519 Y-3.15354
G01 X6.45284 Y-3.15354
G01 X6.44891 Y-3.15393
G01 X6.44560 Y-3.15494
G01 X6.44255 Y-3.15657
G01 X6.43987 Y-3.15877
G01 X6.43767 Y-3.16144
G01 X6.43604 Y-3.16450
G01 X6.43503 Y-3.16781
G01 X6.43469 Y-3.17126
G01 X6.43503 Y-3.17471
G01 X6.43604 Y-3.17802
G01 X6.43767 Y-3.18108
G01 X6.43987 Y-3.18375
G01 X6.44255 Y-3.18595
G01 X6.44560 Y-3.18758
G01 X6.44891 Y-3.18859
G01 X6.45284 Y-3.18898
G01 X6.49519 Y-3.18898
G01 X6.49912 Y-3.18859
G01 X6.50243 Y-3.18758
G01 X6.50548 Y-3.18595
G01 X6.50816 Y-3.18375
G01 X6.51109 Y-3.18020
G01 X6.51229 Y-3.17906
G01 X6.51441 Y-3.17777
G01 X6.51678 Y-3.17706
G01 X6.51843 Y-3.17692
G01 X6.56305 Y-3.17692
G01 X6.56463 Y-3.17676
G01 X6.56568 Y-3.17644
G01 X6.56665 Y-3.17592
G01 X6.56788 Y-3.17492
G01 X6.75252 Y-2.99027
G01 X6.75353 Y-2.98904
G01 X6.75405 Y-2.98807
G01 X6.75437 Y-2.98702
G01 X6.75452 Y-2.98544
G01 X6.75452 Y-2.91455
G01 X6.75437 Y-2.91298
G01 X6.75405 Y-2.91192
G01 X6.75353 Y-2.91095
G01 X6.75252 Y-2.90973
G01 X6.62804 Y-2.78525
G01 X6.62682 Y-2.78424
G01 X6.62585 Y-2.78373
G01 X6.62480 Y-2.78341
G01 X6.62322 Y-2.78325
G01 X6.13139 Y-2.78325
G01 X6.12981 Y-2.78341
G01 X6.12876 Y-2.78373
G01 X6.12779 Y-2.78424
G01 X6.12656 Y-2.78525
G01 X5.97035 Y-2.94146
G01 X5.96878 Y-2.94274
G01 X5.96735 Y-2.94351
G01 X5.96541 Y-2.94413
G01 X5.96380 Y-2.94433
G01 X5.65932 Y-2.94431
G01 X5.65771 Y-2.94404
G01 X5.65616 Y-2.94351
G01 X5.65439 Y-2.94249
G01 X5.65315 Y-2.94143
G01 X5.65165 Y-2.93950
G01 X5.64851 Y-2.93363
G01 X5.64485 Y-2.92917
G01 X5.64038 Y-2.92550
G01 X5.63529 Y-2.92278
G01 X5.62976 Y-2.92111
G01 X5.62402 Y-2.92054
G01 X5.61827 Y-2.92111
G01 X5.61274 Y-2.92278
G01 X5.60765 Y-2.92550
G01 X5.60318 Y-2.92917
G01 X5.59952 Y-2.93363
G01 X5.59658 Y-2.93914
G01 X5.59569 Y-2.94051
G01 X5.59428 Y-2.94199
G01 X5.59224 Y-2.94333
G01 X5.59032 Y-2.94404
G01 X5.58830 Y-2.94433
G01 X5.57886 Y-2.94434
G01 X5.57724 Y-2.94421
G01 X5.57566 Y-2.94381
G01 X5.57418 Y-2.94316
G01 X5.57281 Y-2.94227
G01 X5.57190 Y-2.94146
G01 X5.49046 Y-2.86000
G01 X5.48967 Y-2.85904
G01 X5.48883 Y-2.85761
G01 X5.48805 Y-2.85526
G01 X5.48786 Y-2.85320
G01 X5.48814 Y-2.85000
G01 X5.48784 Y-2.84694
G01 X5.48695 Y-2.84399
G01 X5.48549 Y-2.84128
G01 X5.48354 Y-2.83890
G01 X5.48116 Y-2.83695
G01 X5.47845 Y-2.83549
G01 X5.47550 Y-2.83460
G01 X5.47244 Y-2.83430
G01 X5.46938 Y-2.83460
G01 X5.46643 Y-2.83549
G01 X5.46372 Y-2.83695
G01 X5.46134 Y-2.83890
G01 X5.45939 Y-2.84128
G01 X5.45793 Y-2.84399
G01 X5.45704 Y-2.84694
G01 X5.45674 Y-2.85000
G04 P0 ( dwell for no time -- G64 should not smooth over this point )
G00 Z0.08000 ( retract )

G00 X5.63735 Y-2.95000 ( rapid move to begin. )
G01 F180.00000
( Mill infeed pass 1/1 )
G01 Z-0.04000
G04 P0 ( dwell for no time -- G64 should not smooth over this point )
G01 F360.00000
G01 X5.63735 Y-2.95000
G01 X5.63602 Y-2.95216
G01 X5.63371 Y-2.95648
G01 X5.63226 Y-2.95824
G01 X5.63256 Y-2.95853
G01 X5.63226 Y-2.95824
G01 X5.63049 Y-2.95969
G01 X5.62848 Y-2.96077
G01 X5.62861 Y-2.96109
G01 X5.62848 Y-2.96077
G01 X5.62629 Y-2.96144
G01 X5.62402 Y-2.96166
G01 X5.62402 Y-2.96201
G01 X5.62402 Y-2.96166
G01 X5.62174 Y-2.96144
G01 X5.61955 Y-2.96077
G01 X5.61942 Y-2.96109
G01 X5.61955 Y-2.96077
G01 X5.61754 Y-2.95969
G01 X5.61577 Y-2.95824
G01 X5.61547 Y-2.95853
G01 X5.61577 Y-2.95824
G01 X5.61432 Y-2.95648
G01 X5.61075 Y-2.95010
G01 X5.60772 Y-2.95011
G01 X5.61075 Y-2.95010
G01 X5.61068 Y-2.95000
G01 X5.61201 Y-2.94784
G01 X5.61432 Y-2.94352
G01 X5.61577 Y-2.94175
G01 X5.61545 Y-2.94145
G01 X5.61577 Y-2.94175
G01 X5.61754 Y-2.94030
G01 X5.61955 Y-2.93923
G01 X5.61942 Y-2.93891
G01 X5.61955 Y-2.93923
G01 X5.62174 Y-2.93856
G01 X5.62402 Y-2.93834
G01 X5.62402 Y-2.93799
G01 X5.62402 Y-2.93834
G01 X5.62629 Y-2.93856
G01 X5.62848 Y-2.93923
G01 X5.62861 Y-2.93891
G01 X5.62848 Y-2.93923
G01 X5.63049 Y-2.94030
G01 X5.63226 Y-2.94175
G01 X5.63256 Y-2.94147
G01 X5.63226 Y-2.94175
G01 X5.63371 Y-2.94352
G01 X5.63602 Y-2.94784
G01 X5.63735 Y-2.95000
G01 X5.64045 Y-2.95000
G04 P0 ( dwell for no time -- G64 should not smooth over this point )
G00 Z0.08000 ( retract )

G00 X5.71097 Y-3.30529 ( rapid move to begin. )
G01 F180.00000
( Mill infeed pass 1/1 )
G01 Z-0.04000
G04 P0 ( dwell for no time -- G64 should not smooth over this point )
G01 F360.00000
G01 X5.71097 Y-3.30529
G01 X5.71377 Y-3.30415
G01 X5.71353 Y-3.30397
G01 X5.71415 Y-3.30106
G01 X5.71449 Y-3.29811
G01 X5.71504 Y-3.29628
G01 X5.71466 Y-3.29613
G01 X5.71504 Y-3.29628
G01 X5.71594 Y-3.29460
G01 X5.71715 Y-3.29313
G01 X5.71690 Y-3.29289
G01 X5.71715 Y-3.29313
G01 X5.71862 Y-3.29192
G01 X5.72030 Y-3.29103
G01 X5.72017 Y-3.29071
G01 X5.72030 Y-3.29103
G01 X5.72212 Y-3.29047
G01 X5.72402 Y-3.29029
G01 X5.72402 Y-3.28994
G01 X5.72402 Y-3.29029
G01 X5.72591 Y-3.29047
G01 X5.72773 Y-3.29103
G01 X5.72786 Y-3.29071
G01 X5.72773 Y-3.29103
G01 X5.72941 Y-3.29192
G01 X5.73088 Y-3.29313
G01 X5.73113 Y-3.29289
G01 X5.73088 Y-3.29313
G01 X5.73209 Y-3.29460
G01 X5.73299 Y-3.29628
G01 X5.73331 Y-3.29615
G01 X5.73299 Y-3.29628
G01 X5.73354 Y-3.29811
G01 X5.73373 Y-3.30000
G01 X5.73407 Y-3.30000
G01 X5.73373 Y-3.30000
G01 X5.73354 Y-3.30189
G01 X5.73299 Y-3.30372
G01 X5.73331 Y-3.30385
G01 X5.73299 Y-3.30372
G01 X5.73209 Y-3.30539
G01 X5.73088 Y-3.30687
G01 X5.73113 Y-3.30711
G01 X5.73088 Y-3.30687
G01 X5.72941 Y-3.30808
G01 X5.72773 Y-3.30897
G01 X5.72786 Y-3.30929
G01 X5.72773 Y-3.30897
G01 X5.72591 Y-3.30952
G01 X5.72402 Y-3.30971
G01 X5.72402 Y-3.31006
G01 X5.72402 Y-3.30971
G01 X5.72212 Y-3.30952
G01 X5.72030 Y-3.30897
G01 X5.72012 Y-3.30937
G01 X5.72030 Y-3.30897
G01 X5.71863 Y-3.30808
G01 X5.71377 Y-3.30415
G04 P0 ( dwell for no time -- G64 should not smooth over this point )
G00 Z0.08000 ( retract )

G00 X5.80883 Y-3.28292 ( rapid move to begin. )
G01 F180.00000
( Mill infeed pass 1/1 )
G01 Z-0.04000
G04 P0 ( dwell for no time -- G64 should not smooth over this point )
G01 F360.00000
G01 X5.80883 Y-3.28292
G01 X5.81417 Y-3.28819
G01 X5.81417 Y-3.31240
G01 X5.81448 Y-3.31247
G01 X5.81119 Y-3.31489
G01 X5.81448 Y-3.31247
G01 X5.81718 Y-3.31321
G01 X5.82088 Y-3.31474
G01 X5.82401 Y-3.31659
G01 X5.82401 Y-3.31904
G01 X5.82401 Y-3.31659
G01 X5.82644 Y-3.31511
G01 X5.82934 Y-3.31376
G01 X5.83161 Y-3.31297
G01 X5.83404 Y-3.31236
G01 X5.83602 Y-3.31422
G01 X5.83404 Y-3.31236
G01 X5.83451 Y-3.30953
G01 X5.83539 Y-3.30645
G01 X5.83679 Y-3.30313
G01 X5.83863 Y-3.30000
G01 X5.84086 Y-3.29999
G01 X5.83863 Y-3.30000
G01 X5.83735 Y-3.29793
G01 X5.83628 Y-3.29578
G01 X5.83539 Y-3.29355
G01 X5.83470 Y-3.29124
G01 X5.83411 Y-3.28819
G01 X5.83701 Y-3.28445
G01 X5.83411 Y-3.28819
G01 X5.81417 Y-3.28819
G04 P0 ( dwell for no time -- G64 should not smooth over this point )
G00 Z0.08000 ( retract )

G00 X6.03386 Y-3.31181 ( rapid move to begin. )
G01 F180.00000
( Mill infeed pass 1/1 )
G01 Z-0.04000
G04 P0 ( dwell for no time -- G64 should not smooth over this point )
G01 F360.00000
G01 X6.03386 Y-3.31181
G01 X6.01392 Y-3.31181
G01 X6.01102 Y-3.31554
G01 X6.01392 Y-3.31181
G01 X6.01333 Y-3.30876
G01 X6.01264 Y-3.30645
G01 X6.01175 Y-3.30422
G01 X6.01068 Y-3.30207
G01 X6.00941 Y-3.30002
G01 X6.00717 Y-3.30003
G01 X6.00941 Y-3.30002
G01 X6.01175 Y-3.29578
G01 X6.01264 Y-3.29355
G01 X6.01333 Y-3.29124
G01 X6.01392 Y-3.28819
G01 X6.01102 Y-3.28445
G01 X6.01392 Y-3.28819
G01 X6.03386 Y-3.28819
G01 X6.03905 Y-3.28300
G01 X6.03386 Y-3.28819
G01 X6.03386 Y-3.31181
G01 X6.03905 Y-3.31700
G04 P0 ( dwell for no time -- G64 should not smooth over this point )
G00 Z0.08000 ( retract )

G00 X6.09650 Y-3.30000 ( rapid move to begin. )
G01 F180.00000
( Mill infeed pass 1/1 )
G01 Z-0.04000
G04 P0 ( dwell for no time -- G64 should not smooth over this point )
G01 F360.00000
G01 X6.09650 Y-3.30000
G01 X6.09703 Y-3.29463
G01 X6.09860 Y-3.28947
G01 X6.10114 Y-3.28471
G01 X6.10456 Y-3.28055
G01 X6.10873 Y-3.27712
G01 X6.11349 Y-3.27458
G01 X6.11865 Y-3.27302
G01 X6.12402 Y-3.27249
G01 X6.12938 Y-3.27302
G01 X6.13454 Y-3.27458
G01 X6.13930 Y-3.27712
G01 X6.14347 Y-3.28055
G01 X6.14689 Y-3.28471
G01 X6.14943 Y-3.28947
G01 X6.15100 Y-3.29463
G01 X6.15153 Y-3.30000
G01 X6.15100 Y-3.30537
G01 X6.14962 Y-3.30990
G01 X6.14928 Y-3.31149
G01 X6.14923 Y-3.31353
G01 X6.14960 Y-3.31554
G01 X6.15002 Y-3.31669
G01 X6.15080 Y-3.31813
G01 X6.15261 Y-3.32023
G01 X6.15356 Y-3.32100
G01 X6.15496 Y-3.32183
G01 X6.15608 Y-3.32230
G01 X6.15766 Y-3.32270
G01 X6.15928 Y-3.32283
G01 X6.43022 Y-3.32282
G01 X6.43266 Y-3.32241
G01 X6.43493 Y-3.32140
G01 X6.43686 Y-3.31985
G01 X6.43987 Y-3.31625
G01 X6.44255 Y-3.31405
G01 X6.44560 Y-3.31242
G01 X6.44891 Y-3.31141
G01 X6.45284 Y-3.31102
G01 X6.49519 Y-3.31102
G01 X6.49912 Y-3.31141
G01 X6.50243 Y-3.31242
G01 X6.50548 Y-3.31405
G01 X6.50816 Y-3.31625
G01 X6.51036 Y-3.31892
G01 X6.51199 Y-3.32198
G01 X6.51300 Y-3.32529
G01 X6.51334 Y-3.32874
G01 X6.51300 Y-3.33219
G01 X6.51199 Y-3.33550
G01 X6.51036 Y-3.33856
G01 X6.50816 Y-3.34123
G01 X6.50548 Y-3.34343
G01 X6.50243 Y-3.34506
G01 X6.49912 Y-3.34607
G01 X6.49519 Y-3.34646
G01 X6.45284 Y-3.34646
G01 X6.44891 Y-3.34607
G01 X6.44560 Y-3.34506
G01 X6.44255 Y-3.34343
G01 X6.43987 Y-3.34123
G01 X6.43686 Y-3.33763
G01 X6.43493 Y-3.33608
G01 X6.43266 Y-3.33507
G01 X6.43022 Y-3.33466
G01 X6.15324 Y-3.33465
G01 X6.15161 Y-3.33449
G01 X6.15051 Y-3.33415
G01 X6.14950 Y-3.33361
G01 X6.14824 Y-3.33257
G01 X6.14281 Y-3.32726
G01 X6.14144 Y-3.32636
G01 X6.13955 Y-3.32559
G01 X6.13755 Y-3.32522
G01 X6.13551 Y-3.32527
G01 X6.13391 Y-3.32561
G01 X6.12938 Y-3.32698
G01 X6.12402 Y-3.32751
G01 X6.11865 Y-3.32698
G01 X6.11349 Y-3.32542
G01 X6.10873 Y-3.32287
G01 X6.10456 Y-3.31945
G01 X6.10114 Y-3.31528
G01 X6.09860 Y-3.31053
G01 X6.09703 Y-3.30537
G01 X6.09650 Y-3.30000
G01 X6.11430 Y-3.30000
G01 X6.11449 Y-3.29811
G01 X6.11504 Y-3.29628
G01 X6.11472 Y-3.29615
G01 X6.11504 Y-3.29628
G01 X6.11594 Y-3.29460
G01 X6.11715 Y-3.29313
G01 X6.11690 Y-3.29289
G01 X6.11715 Y-3.29313
G01 X6.11862 Y-3.29192
G01 X6.12030 Y-3.29103
G01 X6.12016 Y-3.29071
G01 X6.12030 Y-3.29103
G01 X6.12212 Y-3.29047
G01 X6.12402 Y-3.29029
G01 X6.12402 Y-3.28994
G01 X6.12402 Y-3.29029
G01 X6.12591 Y-3.29047
G01 X6.12773 Y-3.29103
G01 X6.12786 Y-3.29071
G01 X6.12773 Y-3.29103
G01 X6.12941 Y-3.29192
G01 X6.13088 Y-3.29313
G01 X6.13113 Y-3.29289
G01 X6.13088 Y-3.29313
G01 X6.13209 Y-3.29460
G01 X6.13299 Y-3.29628
G01 X6.13331 Y-3.29615
G01 X6.13299 Y-3.29628
G01 X6.13354 Y-3.29811
G01 X6.13373 Y-3.30000
G01 X6.13413 Y-3.30001
G01 X6.13373 Y-3.30000
G01 X6.13354 Y-3.30189
G01 X6.13245 Y-3.30553
G01 X6.13192 Y-3.30788
G01 X6.13417 Y-3.31013
G01 X6.13192 Y-3.30788
G01 X6.12591 Y-3.30952
G01 X6.12402 Y-3.30971
G01 X6.12402 Y-3.31012
G01 X6.12402 Y-3.30971
G01 X6.12212 Y-3.30952
G01 X6.12030 Y-3.30897
G01 X6.12016 Y-3.30929
G01 X6.12030 Y-3.30897
G01 X6.11862 Y-3.30808
G01 X6.11715 Y-3.30687
G01 X6.11690 Y-3.30711
G01 X6.11715 Y-3.30687
G01 X6.11594 Y-3.30539
G01 X6.11504 Y-3.30372
G01 X6.11472 Y-3.30385
G01 X6.11504 Y-3.30372
G01 X6.11449 Y-3.30189
G01 X6.11430 Y-3.30000
G04 P0 ( dwell for no time -- G64 should not smooth over this point )
G00 Z0.08000 ( retract )

G00 X6.45369 Y-3.32874 ( rapid move to begin. )
G01 F180.00000
( Mill infeed pass 1/1 )
G01 Z-0.04000
G04 P0 ( dwell for no time -- G64 should not smooth over this point )
G01 F360.00000
G01 X6.45369 Y-3.32874
G01 X6.49434 Y-3.32874
G04 P0 ( dwell for no time -- G64 should not smooth over this point )
G00 Z0.08000 ( retract )

G00 X6.49434 Y-3.25000 ( rapid move to begin. )
G01 F180.00000
( Mill infeed pass 1/1 )
G01 Z-0.04000
G04 P0 ( dwell for no time -- G64 should not smooth over this point )
G01 F360.00000
G01 X6.49434 Y-3.25000
G01 X6.45372 Y-3.25000
G01 X6.38364 Y-3.24501
G01 X6.38364 Y-3.04179
G01 X6.38380 Y-3.04021
G01 X6.38412 Y-3.03916
G01 X6.38464 Y-3.03819
G01 X6.38564 Y-3.03696
G01 X6.51547 Y-2.90713
G01 X6.51697 Y-2.90521
G01 X6.51795 Y-2.90298
G01 X6.51835 Y-2.90058
G01 X6.51828 Y-2.87437
G01 X6.51782 Y-2.87239
G01 X6.51717 Y-2.87091
G01 X6.51628 Y-2.86955
G01 X6.51488 Y-2.86808
G01 X6.51355 Y-2.86714
G01 X6.51171 Y-2.86628
G01 X6.51014 Y-2.86588
G01 X6.50827 Y-2.86575
G01 X6.50827 Y-2.83425
G01 X6.53976 Y-2.83425
G01 X6.53984 Y-2.83572
G01 X6.54017 Y-2.83731
G01 X6.54076 Y-2.83882
G01 X6.54160 Y-2.84022
G01 X6.54265 Y-2.84146
G01 X6.54389 Y-2.84251
G01 X6.54528 Y-2.84334
G01 X6.54680 Y-2.84393
G01 X6.54799 Y-2.84421
G01 X6.54961 Y-2.84434
G01 X6.57353 Y-2.84434
G01 X6.57511 Y-2.84450
G01 X6.57616 Y-2.84482
G01 X6.57713 Y-2.84533
G01 X6.57836 Y-2.84634
G01 X6.65248 Y-2.92046
G01 X6.65441 Y-2.92196
G01 X6.65588 Y-2.92268
G01 X6.65704 Y-2.92305
G01 X6.65866 Y-2.92331
G01 X6.65988 Y-2.92333
G01 X6.66190 Y-2.92303
G01 X6.66827 Y-2.92111
G01 X6.67402 Y-2.92054
G01 X6.67976 Y-2.92111
G01 X6.68529 Y-2.92278
G01 X6.69038 Y-2.92550
G01 X6.69485 Y-2.92917
G01 X6.69851 Y-2.93363
G01 X6.70123 Y-2.93873
G01 X6.70291 Y-2.94425
G01 X6.70347 Y-2.95000
G01 X6.70291 Y-2.95575
G01 X6.70123 Y-2.96127
G01 X6.69851 Y-2.96637
G01 X6.69485 Y-2.97083
G01 X6.69038 Y-2.97449
G01 X6.68529 Y-2.97722
G01 X6.67976 Y-2.97889
G01 X6.67402 Y-2.97946
G01 X6.66827 Y-2.97889
G01 X6.66274 Y-2.97722
G01 X6.65765 Y-2.97449
G01 X6.65318 Y-2.97083
G01 X6.64952 Y-2.96637
G01 X6.64680 Y-2.96127
G01 X6.64512 Y-2.95575
G01 X6.64456 Y-2.95000
G01 X6.64512 Y-2.94425
G01 X6.64704 Y-2.93788
G01 X6.64732 Y-2.93627
G01 X6.64735 Y-2.93505
G01 X6.64706 Y-2.93303
G01 X6.64654 Y-2.93148
G01 X6.64576 Y-2.93004
G01 X6.64447 Y-2.92846
G01 X6.57455 Y-2.85854
G01 X6.57331 Y-2.85749
G01 X6.57228 Y-2.85684
G01 X6.57079 Y-2.85619
G01 X6.56841 Y-2.85569
G01 X6.54920 Y-2.85567
G01 X6.54759 Y-2.85587
G01 X6.54603 Y-2.85633
G01 X6.54457 Y-2.85704
G01 X6.54294 Y-2.85826
G01 X6.54160 Y-2.85978
G01 X6.54059 Y-2.86155
G01 X6.53997 Y-2.86348
G01 X6.53976 Y-2.86575
G01 X6.53830 Y-2.86582
G01 X6.53671 Y-2.86616
G01 X6.53519 Y-2.86675
G01 X6.53380 Y-2.86758
G01 X6.53256 Y-2.86863
G01 X6.53150 Y-2.86987
G01 X6.53067 Y-2.87127
G01 X6.53008 Y-2.87278
G01 X6.52981 Y-2.87397
G01 X6.52967 Y-2.87559
G01 X6.52967 Y-2.90611
G01 X6.52952 Y-2.90768
G01 X6.52920 Y-2.90874
G01 X6.52868 Y-2.90971
G01 X6.52767 Y-2.91093
G01 X6.39784 Y-3.04076
G01 X6.39679 Y-3.04200
G01 X6.39596 Y-3.04340
G01 X6.39537 Y-3.04491
G01 X6.39499 Y-3.04691
G01 X6.39496 Y-3.23450
G01 X6.39526 Y-3.23692
G01 X6.39615 Y-3.23918
G01 X6.39756 Y-3.24117
G01 X6.39908 Y-3.24251
G01 X6.40122 Y-3.24367
G01 X6.40318 Y-3.24421
G01 X6.40480 Y-3.24434
G01 X6.43043 Y-3.24431
G01 X6.43285 Y-3.24379
G01 X6.43400 Y-3.24331
G01 X6.43541 Y-3.24245
G01 X6.43694 Y-3.24106
G01 X6.43987 Y-3.23751
G01 X6.44255 Y-3.23531
G01 X6.44560 Y-3.23368
G01 X6.44891 Y-3.23267
G01 X6.45284 Y-3.23228
G01 X6.49519 Y-3.23228
G01 X6.49912 Y-3.23267
G01 X6.50243 Y-3.23368
G01 X6.50548 Y-3.23531
G01 X6.50816 Y-3.23751
G01 X6.51036 Y-3.24018
G01 X6.51199 Y-3.24324
G01 X6.51300 Y-3.24655
G01 X6.51334 Y-3.25000
G01 X6.51300 Y-3.25345
G01 X6.51199 Y-3.25676
G01 X6.51036 Y-3.25982
G01 X6.50816 Y-3.26249
G01 X6.50548 Y-3.26469
G01 X6.50243 Y-3.26632
G01 X6.49912 Y-3.26733
G01 X6.49519 Y-3.26772
G01 X6.45284 Y-3.26772
G01 X6.44891 Y-3.26733
G01 X6.44560 Y-3.26632
G01 X6.44255 Y-3.26469
G01 X6.43987 Y-3.26249
G01 X6.43694 Y-3.25894
G01 X6.43574 Y-3.25780
G01 X6.43362 Y-3.25651
G01 X6.43166 Y-3.25587
G01 X6.42960 Y-3.25566
G01 X6.39429 Y-3.25566
G01 X6.39271 Y-3.25550
G01 X6.39165 Y-3.25518
G01 X6.39068 Y-3.25466
G01 X6.38946 Y-3.25366
G01 X6.38564 Y-3.24984
G01 X6.38464 Y-3.24862
G01 X6.38412 Y-3.24764
G01 X6.38380 Y-3.24659
G01 X6.38364 Y-3.24501
G04 P0 ( dwell for no time -- G64 should not smooth over this point )
G00 Z0.08000 ( retract )

G00 X6.45369 Y-3.17126 ( rapid move to begin. )
G01 F180.00000
( Mill infeed pass 1/1 )
G01 Z-0.04000
G04 P0 ( dwell for no time -- G64 should not smooth over this point )
G01 F360.00000
G01 X6.45369 Y-3.17126
G01 X6.49434 Y-3.17126
G04 P0 ( dwell for no time -- G64 should not smooth over this point )
G00 Z0.08000 ( retract )

G00 X6.66456 Y-2.94069 ( rapid move to begin. )
G01 F180.00000
( Mill infeed pass 1/1 )
G01 Z-0.04000
G04 P0 ( dwell for no time -- G64 should not smooth over this point )
G01 F360.00000
G01 X6.66456 Y-2.94069
G01 X6.66459 Y-2.94057
G01 X6.66666 Y-2.94009
G01 X6.67174 Y-2.93856
G01 X6.67402 Y-2.93834
G01 X6.67400 Y-2.93790
G01 X6.67402 Y-2.93834
G01 X6.67629 Y-2.93856
G01 X6.67848 Y-2.93923
G01 X6.67861 Y-2.93891
G01 X6.67848 Y-2.93923
G01 X6.68049 Y-2.94030
G01 X6.68226 Y-2.94175
G01 X6.68251 Y-2.94151
G01 X6.68226 Y-2.94175
G01 X6.68371 Y-2.94352
G01 X6.68479 Y-2.94554
G01 X6.68511 Y-2.94541
G01 X6.68479 Y-2.94554
G01 X6.68545 Y-2.94773
G01 X6.68568 Y-2.95000
G01 X6.68602 Y-2.95000
G01 X6.68568 Y-2.95000
G01 X6.68545 Y-2.95227
G01 X6.68479 Y-2.95446
G01 X6.68511 Y-2.95459
G01 X6.68479 Y-2.95446
G01 X6.68371 Y-2.95648
G01 X6.68226 Y-2.95824
G01 X6.68251 Y-2.95849
G01 X6.68226 Y-2.95824
G01 X6.68049 Y-2.95969
G01 X6.67848 Y-2.96077
G01 X6.67861 Y-2.96109
G01 X6.67848 Y-2.96077
G01 X6.67629 Y-2.96144
G01 X6.67402 Y-2.96166
G01 X6.67402 Y-2.96201
G01 X6.67402 Y-2.96166
G01 X6.67174 Y-2.96144
G01 X6.66955 Y-2.96077
G01 X6.66942 Y-2.96109
G01 X6.66955 Y-2.96077
G01 X6.66754 Y-2.95969
G01 X6.66577 Y-2.95824
G01 X6.66552 Y-2.95849
G01 X6.66577 Y-2.95824
G01 X6.66432 Y-2.95648
G01 X6.66324 Y-2.95446
G01 X6.66292 Y-2.95459
G01 X6.66324 Y-2.95446
G01 X6.66258 Y-2.95227
G01 X6.66235 Y-2.95000
G01 X6.66194 Y-2.94999
G01 X6.66235 Y-2.95000
G01 X6.66258 Y-2.94773
G01 X6.66456 Y-2.94069
G01 X6.66241 Y-2.93856
G04 P0 ( dwell for no time -- G64 should not smooth over this point )
G00 Z0.08000 ( retract )

G00 X6.25684 Y-2.94798 ( rapid move to begin. )
G01 F180.00000
( Mill infeed pass 1/1 )
G01 Z-0.04000
G04 P0 ( dwell for no time -- G64 should not smooth over this point )
G01 F360.00000
G01 X6.25684 Y-2.94798
G01 X6.25929 Y-2.95005
G01 X6.26123 Y-2.95208
G01 X6.26295 Y-2.95430
G01 X6.26429 Y-2.95644
G01 X6.26577 Y-2.95824
G01 X6.26567 Y-2.95834
G01 X6.26577 Y-2.95824
G01 X6.26754 Y-2.95969
G01 X6.26744 Y-2.95986
G01 X6.26754 Y-2.95969
G01 X6.26955 Y-2.96077
G01 X6.27174 Y-2.96144
G01 X6.27167 Y-2.96178
G01 X6.27174 Y-2.96144
G01 X6.27402 Y-2.96166
G01 X6.27629 Y-2.96144
G01 X6.27636 Y-2.96178
G01 X6.27629 Y-2.96144
G01 X6.27848 Y-2.96077
G01 X6.28049 Y-2.95969
G01 X6.28069 Y-2.95998
G01 X6.28049 Y-2.95969
G01 X6.28226 Y-2.95824
G01 X6.28371 Y-2.95648
G01 X6.28400 Y-2.95667
G01 X6.28371 Y-2.95648
G01 X6.28479 Y-2.95446
G01 X6.28545 Y-2.95227
G01 X6.28579 Y-2.95234
G01 X6.28545 Y-2.95227
G01 X6.28568 Y-2.95000
G01 X6.28545 Y-2.94773
G01 X6.28579 Y-2.94766
G01 X6.28545 Y-2.94773
G01 X6.28479 Y-2.94554
G01 X6.28371 Y-2.94352
G01 X6.28400 Y-2.94333
G01 X6.28371 Y-2.94352
G01 X6.28226 Y-2.94175
G01 X6.28049 Y-2.94030
G01 X6.28060 Y-2.94017
G01 X6.28049 Y-2.94030
G01 X6.27504 Y-2.93730
G01 X6.27274 Y-2.93568
G01 X6.27078 Y-2.93399
G01 X6.27043 Y-2.92799
G01 X6.27078 Y-2.93399
G01 X6.25684 Y-2.94798
G01 X6.24909 Y-2.94811
G04 P0 ( dwell for no time -- G64 should not smooth over this point )
G00 Z0.08000 ( retract )

G00 X5.96547 Y-2.51382 ( rapid move to begin. )
G01 F180.00000
( Mill infeed pass 1/1 )
G01 Z-0.04000
G04 P0 ( dwell for no time -- G64 should not smooth over this point )
G01 F360.00000
G01 X5.96547 Y-2.51382
G01 X5.96507 Y-2.51253
G01 X5.96447 Y-2.51256
G01 X5.96507 Y-2.51253
G01 X5.96497 Y-2.51221
G01 X5.96637 Y-2.50725
G01 X5.96740 Y-2.50198
G01 X5.96425 Y-2.49808
G01 X5.96740 Y-2.50198
G01 X5.97993 Y-2.50198
G01 X5.98512 Y-2.49680
G01 X5.97993 Y-2.50198
G01 X5.97993 Y-2.51382
G01 X5.98512 Y-2.51900
G01 X5.97993 Y-2.51382
G01 X5.96547 Y-2.51382
G01 X5.96292 Y-2.51727
G01 X5.94496 Y-2.51241
G01 X5.94602 Y-2.51242
G01 X5.94823 Y-2.51801
G01 X5.94960 Y-2.52345
G01 X5.95030 Y-2.52901
G01 X5.95038 Y-2.53153
G01 X5.94637 Y-2.53602
G01 X5.95038 Y-2.53153
G01 X5.99764 Y-2.53153
G01 X6.00283 Y-2.53672
G01 X5.99764 Y-2.53153
G01 X5.99764 Y-2.48427
G01 X6.00283 Y-2.47908
G01 X5.99764 Y-2.48427
G01 X5.95039 Y-2.48427
G01 X5.94557 Y-2.47929
G01 X5.95039 Y-2.48427
G01 X5.95036 Y-2.49420
G01 X5.94987 Y-2.49940
G01 X5.94857 Y-2.50528
G01 X5.94742 Y-2.50870
G01 X5.94592 Y-2.51221
G01 X5.94602 Y-2.51242
G01 X5.92042 Y-2.51241
G01 X5.92460 Y-2.51233
G01 X5.92673 Y-2.51473
G01 X5.92857 Y-2.51735
G01 X5.93026 Y-2.52054
G01 X5.93151 Y-2.52392
G01 X5.93232 Y-2.52743
G01 X5.93267 Y-2.53142
G01 X5.93267 Y-2.54924
G01 X5.92749 Y-2.55443
G01 X5.93267 Y-2.54924
G01 X6.01536 Y-2.54924
G01 X6.02055 Y-2.55443
G01 X6.01536 Y-2.54924
G01 X6.01536 Y-2.46656
G01 X6.02055 Y-2.46137
G01 X6.01536 Y-2.46656
G01 X5.93267 Y-2.46656
G01 X5.92764 Y-2.46145
G01 X5.93267 Y-2.46656
G01 X5.93262 Y-2.49420
G01 X5.93238 Y-2.49660
G01 X5.93183 Y-2.49936
G01 X5.93114 Y-2.50167
G01 X5.93024 Y-2.50390
G01 X5.92812 Y-2.50777
G01 X5.92645 Y-2.51004
G01 X5.92447 Y-2.51221
G01 X5.92460 Y-2.51233
G04 P0 ( dwell for no time -- G64 should not smooth over this point )
G00 Z0.08000 ( retract )

G00 X5.78116 Y-2.62600 ( rapid move to begin. )
G01 F180.00000
( Mill infeed pass 1/1 )
G01 Z-0.04000
G04 P0 ( dwell for no time -- G64 should not smooth over this point )
G01 F360.00000
G01 X5.78116 Y-2.62600
G01 X5.78237 Y-2.63191
G01 X5.77910 Y-2.63591
G01 X5.78237 Y-2.63191
G01 X5.79493 Y-2.63191
G01 X5.80012 Y-2.63710
G01 X5.79493 Y-2.63191
G01 X5.79493 Y-2.62008
G01 X5.80012 Y-2.61490
G01 X5.79493 Y-2.62008
G01 X5.78237 Y-2.62008
G01 X5.77910 Y-2.61609
G01 X5.78237 Y-2.62008
G01 X5.78116 Y-2.62600
G01 X5.76223 Y-2.62614
G01 X5.76270 Y-2.62614
G01 X5.76357 Y-2.62881
G01 X5.76436 Y-2.63193
G01 X5.76498 Y-2.63549
G01 X5.76537 Y-2.64029
G01 X5.76539 Y-2.64963
G01 X5.76045 Y-2.65468
G01 X5.76539 Y-2.64963
G01 X5.81264 Y-2.64963
G01 X5.81783 Y-2.65482
G01 X5.81264 Y-2.64963
G01 X5.81264 Y-2.60237
G01 X5.81783 Y-2.59718
G01 X5.81264 Y-2.60237
G01 X5.76539 Y-2.60237
G01 X5.76045 Y-2.59732
G01 X5.76539 Y-2.60237
G01 X5.76537 Y-2.61171
G01 X5.76508 Y-2.61571
G01 X5.76428 Y-2.62046
G01 X5.76270 Y-2.62614
G01 X5.74071 Y-2.62603
G01 X5.74292 Y-2.62602
G01 X5.74492 Y-2.62949
G01 X5.74601 Y-2.63207
G01 X5.74683 Y-2.63476
G01 X5.74738 Y-2.63751
G01 X5.74765 Y-2.64030
G01 X5.74767 Y-2.66734
G01 X5.74256 Y-2.67249
G01 X5.74767 Y-2.66734
G01 X5.83036 Y-2.66734
G01 X5.83555 Y-2.67253
G01 X5.83036 Y-2.66734
G01 X5.83036 Y-2.58466
G01 X5.83555 Y-2.57947
G01 X5.83036 Y-2.58466
G01 X5.74767 Y-2.58466
G01 X5.74256 Y-2.57951
G01 X5.74767 Y-2.58466
G01 X5.74767 Y-2.61050
G01 X5.74749 Y-2.61370
G01 X5.74693 Y-2.61685
G01 X5.74601 Y-2.61992
G01 X5.74474 Y-2.62287
G01 X5.74292 Y-2.62602
G04 P0 ( dwell for no time -- G64 should not smooth over this point )
G00 Z0.08000 ( retract )

G00 X5.61065 Y-2.55002 ( rapid move to begin. )
G01 F180.00000
( Mill infeed pass 1/1 )
G01 Z-0.04000
G04 P0 ( dwell for no time -- G64 should not smooth over this point )
G01 F360.00000
G01 X5.61065 Y-2.55002
G01 X5.61194 Y-2.55206
G01 X5.61432 Y-2.55648
G01 X5.61577 Y-2.55824
G01 X5.61548 Y-2.55853
G01 X5.61577 Y-2.55824
G01 X5.61754 Y-2.55970
G01 X5.61955 Y-2.56077
G01 X5.61942 Y-2.56109
G01 X5.61955 Y-2.56077
G01 X5.62174 Y-2.56144
G01 X5.62402 Y-2.56166
G01 X5.62402 Y-2.56201
G01 X5.62402 Y-2.56166
G01 X5.62629 Y-2.56144
G01 X5.62848 Y-2.56077
G01 X5.62861 Y-2.56109
G01 X5.62848 Y-2.56077
G01 X5.63049 Y-2.55970
G01 X5.63226 Y-2.55824
G01 X5.63251 Y-2.55849
G01 X5.63226 Y-2.55824
G01 X5.63371 Y-2.55648
G01 X5.63479 Y-2.55446
G01 X5.63511 Y-2.55459
G01 X5.63479 Y-2.55446
G01 X5.63545 Y-2.55227
G01 X5.63568 Y-2.55000
G01 X5.63609 Y-2.54999
G01 X5.63568 Y-2.55000
G01 X5.63545 Y-2.54772
G01 X5.63392 Y-2.54265
G01 X5.63344 Y-2.54057
G01 X5.63564 Y-2.53837
G01 X5.63344 Y-2.54057
G01 X5.63098 Y-2.53998
G01 X5.62629 Y-2.53856
G01 X5.62402 Y-2.53834
G01 X5.62402 Y-2.53792
G01 X5.62402 Y-2.53834
G01 X5.62174 Y-2.53856
G01 X5.61955 Y-2.53923
G01 X5.61942 Y-2.53891
G01 X5.61955 Y-2.53923
G01 X5.61754 Y-2.54030
G01 X5.61577 Y-2.54175
G01 X5.61547 Y-2.54147
G01 X5.61577 Y-2.54175
G01 X5.61432 Y-2.54352
G01 X5.61194 Y-2.54794
G01 X5.61065 Y-2.55002
G01 X5.21201 Y-2.55000
G01 X5.21235 Y-2.55000
G01 X5.21258 Y-2.54772
G01 X5.21324 Y-2.54554
G01 X5.21292 Y-2.54541
G01 X5.21324 Y-2.54554
G01 X5.21432 Y-2.54352
G01 X5.21577 Y-2.54175
G01 X5.21552 Y-2.54151
G01 X5.21577 Y-2.54175
G01 X5.21754 Y-2.54030
G01 X5.21955 Y-2.53923
G01 X5.21942 Y-2.53891
G01 X5.21955 Y-2.53923
G01 X5.22174 Y-2.53856
G01 X5.22402 Y-2.53834
G01 X5.22402 Y-2.53799
G01 X5.22402 Y-2.53834
G01 X5.22629 Y-2.53856
G01 X5.22848 Y-2.53923
G01 X5.22861 Y-2.53891
G01 X5.22848 Y-2.53923
G01 X5.23049 Y-2.54030
G01 X5.23226 Y-2.54175
G01 X5.23255 Y-2.54147
G01 X5.23226 Y-2.54175
G01 X5.23371 Y-2.54352
G01 X5.23609 Y-2.54794
G01 X5.23738 Y-2.54998
G01 X5.24051 Y-2.54998
G01 X5.23738 Y-2.54998
G01 X5.23609 Y-2.55206
G01 X5.23371 Y-2.55648
G01 X5.23226 Y-2.55824
G01 X5.23256 Y-2.55853
G01 X5.23226 Y-2.55824
G01 X5.23049 Y-2.55970
G01 X5.22848 Y-2.56077
G01 X5.22861 Y-2.56109
G01 X5.22848 Y-2.56077
G01 X5.22629 Y-2.56144
G01 X5.22402 Y-2.56166
G01 X5.22402 Y-2.56201
G01 X5.22402 Y-2.56166
G01 X5.22174 Y-2.56144
G01 X5.21955 Y-2.56077
G01 X5.21942 Y-2.56109
G01 X5.21955 Y-2.56077
G01 X5.21754 Y-2.55970
G01 X5.21577 Y-2.55824
G01 X5.21552 Y-2.55849
G01 X5.21577 Y-2.55824
G01 X5.21432 Y-2.55648
G01 X5.21324 Y-2.55446
G01 X5.21292 Y-2.55459
G01 X5.21324 Y-2.55446
G01 X5.21258 Y-2.55227
G01 X5.21235 Y-2.55000
G01 X5.19456 Y-2.55000
G01 X5.19512 Y-2.55575
G01 X5.19680 Y-2.56127
G01 X5.19952 Y-2.56637
G01 X5.20318 Y-2.57083
G01 X5.20765 Y-2.57449
G01 X5.21274 Y-2.57722
G01 X5.21827 Y-2.57889
G01 X5.22402 Y-2.57946
G01 X5.22976 Y-2.57889
G01 X5.23529 Y-2.57722
G01 X5.24038 Y-2.57449
G01 X5.24485 Y-2.57083
G01 X5.24851 Y-2.56637
G01 X5.25152 Y-2.56075
G01 X5.25246 Y-2.55942
G01 X5.25331 Y-2.55853
G01 X5.25494 Y-2.55731
G01 X5.25641 Y-2.55659
G01 X5.25797 Y-2.55612
G01 X5.26000 Y-2.55591
G01 X5.58844 Y-2.55592
G01 X5.59006 Y-2.55612
G01 X5.59200 Y-2.55674
G01 X5.59377 Y-2.55776
G01 X5.59502 Y-2.55882
G01 X5.59651 Y-2.56075
G01 X5.59952 Y-2.56637
G01 X5.60318 Y-2.57083
G01 X5.60765 Y-2.57449
G01 X5.61274 Y-2.57722
G01 X5.61827 Y-2.57889
G01 X5.62402 Y-2.57946
G01 X5.62976 Y-2.57889
G01 X5.63529 Y-2.57722
G01 X5.64038 Y-2.57449
G01 X5.64485 Y-2.57083
G01 X5.64851 Y-2.56637
G01 X5.65123 Y-2.56127
G01 X5.65291 Y-2.55575
G01 X5.65347 Y-2.55000
G01 X5.65291 Y-2.54425
G01 X5.65099 Y-2.53788
G01 X5.65071 Y-2.53627
G01 X5.65068 Y-2.53505
G01 X5.65088 Y-2.53343
G01 X5.65134 Y-2.53186
G01 X5.65205 Y-2.53039
G01 X5.65300 Y-2.52906
G01 X5.76998 Y-2.41204
G01 X5.77155 Y-2.41076
G01 X5.77374 Y-2.40969
G01 X5.77532 Y-2.40929
G01 X5.77694 Y-2.40916
G01 X6.12109 Y-2.40916
G01 X6.12351 Y-2.40946
G01 X6.12578 Y-2.41034
G01 X6.12714 Y-2.41123
G01 X6.12805 Y-2.41204
G01 X6.24529 Y-2.52938
G01 X6.24636 Y-2.53111
G01 X6.24696 Y-2.53263
G01 X6.24729 Y-2.53423
G01 X6.24735 Y-2.53587
G01 X6.24704 Y-2.53788
G01 X6.24512 Y-2.54425
G01 X6.24456 Y-2.55000
G01 X6.24464 Y-2.55305
G01 X6.24433 Y-2.55465
G01 X6.24357 Y-2.55655
G01 X6.24294 Y-2.55759
G01 X6.24189 Y-2.55885
G01 X6.24066 Y-2.55992
G01 X6.23926 Y-2.56077
G01 X5.99204 Y-2.68434
G01 X5.99046 Y-2.68482
G01 X5.98840 Y-2.68504
G01 X5.91496 Y-2.68504
G01 X5.91496 Y-2.80316
G01 X6.03307 Y-2.80316
G01 X6.03308 Y-2.68275
G01 X6.03337 Y-2.68076
G01 X6.03389 Y-2.67923
G01 X6.03488 Y-2.67748
G01 X6.03620 Y-2.67596
G01 X6.03851 Y-2.67435
G01 X6.24495 Y-2.57114
G01 X6.24648 Y-2.57061
G01 X6.24847 Y-2.57029
G01 X6.25009 Y-2.57034
G01 X6.25206 Y-2.57077
G01 X6.25459 Y-2.57203
G01 X6.25765 Y-2.57449
G01 X6.26274 Y-2.57722
G01 X6.26827 Y-2.57889
G01 X6.27402 Y-2.57946
G01 X6.27976 Y-2.57889
G01 X6.28529 Y-2.57722
G01 X6.29038 Y-2.57449
G01 X6.29485 Y-2.57083
G01 X6.29851 Y-2.56637
G01 X6.30152 Y-2.56075
G01 X6.30273 Y-2.55911
G01 X6.30361 Y-2.55826
G01 X6.30494 Y-2.55731
G01 X6.30641 Y-2.55659
G01 X6.30774 Y-2.55617
G01 X6.25984 Y-2.55701
G01 X6.02376 Y-2.67893
G01 X6.00351 Y-2.71292
G01 X5.98512 Y-2.73299
G01 X5.97993 Y-2.73818
G01 X5.97993 Y-2.75001
G01 X5.98512 Y-2.75520
G01 X5.97993 Y-2.75001
G01 X5.96810 Y-2.75001
G01 X5.96291 Y-2.75520
G01 X5.96810 Y-2.75001
G01 X5.96810 Y-2.73818
G01 X5.96291 Y-2.73299
G01 X5.96810 Y-2.73818
G01 X5.97993 Y-2.73818
G01 X5.98512 Y-2.73299
G01 X6.00351 Y-2.71292
G01 X5.99762 Y-2.71952
G01 X5.99403 Y-2.72012
G01 X5.99041 Y-2.72043
G01 X5.95039 Y-2.72047
G01 X5.94520 Y-2.71528
G01 X5.95039 Y-2.72047
G01 X5.95039 Y-2.76773
G01 X5.94520 Y-2.77292
G01 X5.95039 Y-2.76773
G01 X5.99764 Y-2.76773
G01 X6.00284 Y-2.77292
G01 X5.99764 Y-2.76773
G01 X5.99762 Y-2.71952
G01 X6.00351 Y-2.71292
G01 X6.02376 Y-2.67893
G01 X6.01536 Y-2.69253
G01 X6.01536 Y-2.78544
G01 X6.02055 Y-2.79063
G01 X6.01536 Y-2.78544
G01 X5.93267 Y-2.78544
G01 X5.92748 Y-2.79063
G01 X5.93267 Y-2.78544
G01 X5.93267 Y-2.70276
G01 X5.92749 Y-2.69757
G01 X5.93267 Y-2.70276
G01 X5.98959 Y-2.70273
G01 X5.99238 Y-2.70247
G01 X5.99511 Y-2.70192
G01 X5.99779 Y-2.70111
G01 X6.00036 Y-2.70002
G01 X6.01536 Y-2.69253
G01 X6.02376 Y-2.67893
G01 X6.26213 Y-2.55590
G01 X6.26520 Y-2.55784
G01 X6.26754 Y-2.55970
G01 X6.26749 Y-2.55979
G01 X6.26754 Y-2.55970
G01 X6.26955 Y-2.56077
G01 X6.27174 Y-2.56144
G01 X6.27169 Y-2.56162
G01 X6.27174 Y-2.56144
G01 X6.27402 Y-2.56166
G01 X6.27402 Y-2.56185
G01 X6.27402 Y-2.56166
G01 X6.27629 Y-2.56144
G01 X6.27848 Y-2.56077
G01 X6.27861 Y-2.56109
G01 X6.27848 Y-2.56077
G01 X6.28049 Y-2.55970
G01 X6.28226 Y-2.55824
G01 X6.28255 Y-2.55853
G01 X6.28226 Y-2.55824
G01 X6.28371 Y-2.55648
G01 X6.28609 Y-2.55206
G01 X6.28739 Y-2.55000
G01 X6.29054 Y-2.55000
G01 X6.28739 Y-2.55000
G01 X6.28609 Y-2.54794
G01 X6.28371 Y-2.54352
G01 X6.28226 Y-2.54175
G01 X6.28255 Y-2.54147
G01 X6.28226 Y-2.54175
G01 X6.28049 Y-2.54030
G01 X6.27848 Y-2.53923
G01 X6.27861 Y-2.53891
G01 X6.27848 Y-2.53923
G01 X6.27629 Y-2.53856
G01 X6.27402 Y-2.53834
G01 X6.27400 Y-2.53790
G01 X6.27402 Y-2.53834
G01 X6.27174 Y-2.53856
G01 X6.26666 Y-2.54009
G01 X6.26459 Y-2.54057
G01 X6.26456 Y-2.54069
G01 X6.26263 Y-2.53870
G01 X6.26456 Y-2.54069
G01 X6.26388 Y-2.54342
G01 X6.26258 Y-2.54772
G01 X6.26247 Y-2.54771
G01 X6.26258 Y-2.54772
G01 X6.26235 Y-2.55006
G01 X6.26238 Y-2.55326
