( pcb2gcode 2.0.0 )
( Software-independent Gcode )

G94 ( Inches per minute feed rate. )
G20 ( Units == INCHES. )

G90 ( Absolute coordinates. )
G00 S12000 ( RPM spindle speed. )
G64 P0.00040 ( set maximum deviation from commanded toolpath )
G01 F360.00000 ( Feedrate. )


G00 Z1.00000 (Retract to tool change height)
T0
M5      (Spindle stop.)
G04 P1.00000 (Wait for spindle to stop)
(MSG, Change tool bit to mill diameter 0.01969in)
M6      (Tool change.)
M0      (Temporary machine stop.)
M3 ( Spindle on clockwise. )
G04 P1.00000 (Wait for spindle to get up to speed)
( Piece #1, position [0;0] )

G04 P0 ( dwell for no time -- G64 should not smooth over this point )
G00 Z0.08000 ( retract )

G00 X3.16249 Y-3.21714 ( rapid move to begin. )
G01 F180.00000
( Mill infeed pass 1/1 )
G01 Z-0.04000
G04 P0 ( dwell for no time -- G64 should not smooth over this point )
G01 F360.00000
G01 X3.16249 Y-3.21714
G01 X3.16249 Y-2.81119
G01 X3.16297 Y-2.80856
G01 X3.16449 Y-2.80637
G01 X3.20637 Y-2.76449
G01 X3.20856 Y-2.76297
G01 X3.21120 Y-2.76249
G01 X3.56653 Y-2.76249
G01 X3.57030 Y-2.76174
G01 X3.57349 Y-2.75961
G01 X3.71198 Y-2.62134
G01 X3.71558 Y-2.62034
G01 X3.74610 Y-2.62034
G01 X3.74987 Y-2.61959
G01 X3.75306 Y-2.61746
G01 X3.75519 Y-2.61427
G01 X3.75594 Y-2.61050
G01 X3.75594 Y-2.56694
G01 X3.86198 Y-2.56694
G01 X3.86745 Y-2.56528
G01 X3.92876 Y-2.50424
G01 X3.93095 Y-2.50272
G01 X3.93553 Y-2.50139
G01 X3.93948 Y-2.49776
G01 X3.94094 Y-2.49260
G01 X3.94094 Y-2.44884
G01 X4.05906 Y-2.44884
G01 X4.05906 Y-2.56696
G01 X3.94094 Y-2.56696
G01 X3.94094 Y-2.53182
G01 X3.94019 Y-2.52805
G01 X3.93657 Y-2.52364
G01 X3.93302 Y-2.52217
G01 X3.92918 Y-2.52217
G01 X3.92563 Y-2.52364
G01 X3.87694 Y-2.57206
G01 X3.87481 Y-2.57525
G01 X3.87406 Y-2.57902
G01 X3.87406 Y-2.68506
G01 X3.75594 Y-2.68506
G01 X3.75594 Y-2.64150
G01 X3.75428 Y-2.63603
G01 X3.75157 Y-2.63332
G01 X3.74802 Y-2.63185
G01 X3.71960 Y-2.63185
G01 X3.71456 Y-2.63454
G01 X3.57729 Y-2.77181
G01 X3.57404 Y-2.77365
G01 X3.21713 Y-2.77381
G01 X3.21336 Y-2.77455
G01 X3.21017 Y-2.77669
G01 X3.17669 Y-2.81017
G01 X3.17455 Y-2.81336
G01 X3.17381 Y-2.81713
G01 X3.17381 Y-3.21120
G01 X3.17455 Y-3.21497
G01 X3.17669 Y-3.21816
G01 X3.34879 Y-3.39026
G01 X3.35383 Y-3.39295
G01 X3.81707 Y-3.39295
G01 X3.82211 Y-3.39026
G01 X3.84146 Y-3.37091
G01 X3.84359 Y-3.36772
G01 X3.84434 Y-3.36395
G01 X3.84434 Y-3.33937
G01 X3.84268 Y-3.33390
G01 X3.83997 Y-3.33119
G01 X3.83642 Y-3.32972
G01 X3.82244 Y-3.32953
G01 X3.82244 Y-3.27047
G01 X3.87756 Y-3.27047
G01 X3.87756 Y-3.28450
G01 X3.87831 Y-3.28827
G01 X3.88193 Y-3.29268
G01 X3.88740 Y-3.29434
G01 X4.01452 Y-3.29415
G01 X4.01956 Y-3.29146
G01 X4.02169 Y-3.28827
G01 X4.02244 Y-3.28450
G01 X4.02244 Y-3.27047
G01 X4.07756 Y-3.27047
G01 X4.07756 Y-3.32953
G01 X4.02244 Y-3.32953
G01 X4.02244 Y-3.31550
G01 X4.02169 Y-3.31173
G01 X4.01956 Y-3.30854
G01 X4.01452 Y-3.30585
G01 X3.88548 Y-3.30585
G01 X3.88044 Y-3.30854
G01 X3.87831 Y-3.31173
G01 X3.87756 Y-3.31550
G01 X3.87756 Y-3.32953
G01 X3.86358 Y-3.32972
G01 X3.86003 Y-3.33119
G01 X3.85641 Y-3.33560
G01 X3.85566 Y-3.33937
G01 X3.85566 Y-3.36989
G01 X3.85466 Y-3.37349
G01 X3.82591 Y-3.40246
G01 X3.82266 Y-3.40430
G01 X3.34823 Y-3.40430
G01 X3.34498 Y-3.40246
G01 X3.16449 Y-3.22196
G01 X3.16297 Y-3.21977
G01 X3.16249 Y-3.21714
G04 P0 ( dwell for no time -- G64 should not smooth over this point )
G00 Z0.08000 ( retract )

G00 X3.36078 Y-3.33059 ( rapid move to begin. )
G01 F180.00000
( Mill infeed pass 1/1 )
G01 Z-0.04000
G04 P0 ( dwell for no time -- G64 should not smooth over this point )
G01 F360.00000
G01 X3.36078 Y-3.33059
G01 X3.36155 Y-3.32328
G01 X3.36522 Y-3.31692
G01 X3.37116 Y-3.31261
G01 X3.37467 Y-3.31146
G01 X3.37886 Y-3.31102
G01 X3.42114 Y-3.31102
G01 X3.42533 Y-3.31146
G01 X3.43203 Y-3.31445
G01 X3.43881 Y-3.32130
G01 X3.44409 Y-3.32283
G01 X3.67019 Y-3.32268
G01 X3.71796 Y-3.30522
G01 X3.72168 Y-3.30128
G01 X3.72487 Y-3.28881
G01 X3.72775 Y-3.28383
G01 X3.73159 Y-3.27956
G01 X3.73625 Y-3.27618
G01 X3.74150 Y-3.27384
G01 X3.74712 Y-3.27264
G01 X3.75287 Y-3.27264
G01 X3.75850 Y-3.27384
G01 X3.76375 Y-3.27618
G01 X3.76840 Y-3.27956
G01 X3.77225 Y-3.28383
G01 X3.77513 Y-3.28881
G01 X3.77690 Y-3.29428
G01 X3.77750 Y-3.30000
G01 X3.77690 Y-3.30572
G01 X3.77513 Y-3.31119
G01 X3.77225 Y-3.31617
G01 X3.76665 Y-3.32171
G01 X3.76375 Y-3.32382
G01 X3.75850 Y-3.32616
G01 X3.75287 Y-3.32735
G01 X3.74713 Y-3.32735
G01 X3.74150 Y-3.32616
G01 X3.73625 Y-3.32382
G01 X3.72790 Y-3.31747
G01 X3.72220 Y-3.31664
G01 X3.67369 Y-3.33414
G01 X3.67083 Y-3.33465
G01 X3.44409 Y-3.33465
G01 X3.43881 Y-3.33618
G01 X3.43203 Y-3.34303
G01 X3.42532 Y-3.34602
G01 X3.42114 Y-3.34646
G01 X3.37886 Y-3.34646
G01 X3.37467 Y-3.34602
G01 X3.36796 Y-3.34303
G01 X3.36305 Y-3.33757
G01 X3.36078 Y-3.33059
G04 P0 ( dwell for no time -- G64 should not smooth over this point )
G00 Z0.08000 ( retract )

G00 X3.36078 Y-3.17311 ( rapid move to begin. )
G01 F180.00000
( Mill infeed pass 1/1 )
G01 Z-0.04000
G04 P0 ( dwell for no time -- G64 should not smooth over this point )
G01 F360.00000
G01 X3.36078 Y-3.17311
G01 X3.36155 Y-3.16580
G01 X3.36522 Y-3.15944
G01 X3.37116 Y-3.15512
G01 X3.37467 Y-3.15398
G01 X3.37886 Y-3.15354
G01 X3.42114 Y-3.15354
G01 X3.42532 Y-3.15398
G01 X3.43203 Y-3.15697
G01 X3.43881 Y-3.16382
G01 X3.44409 Y-3.16535
G01 X4.03820 Y-3.16516
G01 X4.04324 Y-3.16247
G01 X4.29243 Y-2.91301
G01 X4.29409 Y-2.90754
G01 X4.29409 Y-2.85048
G01 X4.29459 Y-2.84776
G01 X4.29674 Y-2.84513
G01 X4.30048 Y-2.84409
G01 X4.43151 Y-2.84409
G01 X4.43625 Y-2.84287
G01 X4.44373 Y-2.83641
G01 X4.44753 Y-2.83490
G01 X4.45321 Y-2.83439
G01 X4.45942 Y-2.83641
G01 X4.46207 Y-2.83834
G01 X4.46547 Y-2.84286
G01 X4.46692 Y-2.84674
G01 X4.46692 Y-2.85326
G01 X4.46427 Y-2.85922
G01 X4.45942 Y-2.86359
G01 X4.45322 Y-2.86561
G01 X4.44993 Y-2.86561
G01 X4.44373 Y-2.86359
G01 X4.43625 Y-2.85712
G01 X4.43151 Y-2.85591
G01 X4.31575 Y-2.85591
G01 X4.31028 Y-2.85757
G01 X4.30757 Y-2.86028
G01 X4.30591 Y-2.86575
G01 X4.30608 Y-2.91604
G01 X4.30866 Y-2.92101
G01 X4.31971 Y-2.92811
G01 X4.32383 Y-2.93269
G01 X4.32691 Y-2.93802
G01 X4.32881 Y-2.94388
G01 X4.32945 Y-2.95000
G01 X4.32881 Y-2.95612
G01 X4.32691 Y-2.96198
G01 X4.32383 Y-2.96731
G01 X4.31971 Y-2.97189
G01 X4.31473 Y-2.97551
G01 X4.30910 Y-2.97801
G01 X4.30519 Y-2.97884
G01 X4.29692 Y-2.97929
G01 X4.29090 Y-2.97801
G01 X4.28527 Y-2.97551
G01 X4.28029 Y-2.97189
G01 X4.27617 Y-2.96731
G01 X4.27370 Y-2.96344
G01 X4.27051 Y-2.96107
G01 X4.26862 Y-2.96041
G01 X4.26464 Y-2.96029
G01 X4.26094 Y-2.96176
G01 X4.04732 Y-3.17509
G01 X4.04395 Y-3.17701
G01 X3.44409 Y-3.17717
G01 X3.43881 Y-3.17870
G01 X3.43203 Y-3.18555
G01 X3.42532 Y-3.18854
G01 X3.42114 Y-3.18898
G01 X3.37886 Y-3.18898
G01 X3.37467 Y-3.18854
G01 X3.36796 Y-3.18555
G01 X3.36305 Y-3.18009
G01 X3.36078 Y-3.17311
G04 P0 ( dwell for no time -- G64 should not smooth over this point )
G00 Z0.08000 ( retract )

G00 X3.22055 Y-2.95000 ( rapid move to begin. )
G01 F180.00000
( Mill infeed pass 1/1 )
G01 Z-0.04000
G04 P0 ( dwell for no time -- G64 should not smooth over this point )
G01 F360.00000
G01 X3.22055 Y-2.95000
G01 X3.22119 Y-2.94387
G01 X3.22309 Y-2.93802
G01 X3.22617 Y-2.93269
G01 X3.23029 Y-2.92811
G01 X3.23527 Y-2.92449
G01 X3.24090 Y-2.92199
G01 X3.24692 Y-2.92071
G01 X3.25308 Y-2.92071
G01 X3.26430 Y-2.92345
G01 X3.26991 Y-2.92181
G01 X3.34688 Y-2.84533
G01 X3.35048 Y-2.84434
G01 X3.37633 Y-2.84415
G01 X3.37988 Y-2.84268
G01 X3.38259 Y-2.83997
G01 X3.38406 Y-2.83642
G01 X3.38425 Y-2.83425
G01 X3.41575 Y-2.83425
G01 X3.41575 Y-2.86575
G01 X3.38425 Y-2.86575
G01 X3.38406 Y-2.86358
G01 X3.38259 Y-2.86003
G01 X3.37988 Y-2.85732
G01 X3.37633 Y-2.85585
G01 X3.35642 Y-2.85566
G01 X3.35265 Y-2.85641
G01 X3.34946 Y-2.85854
G01 X3.27947 Y-2.92853
G01 X3.27744 Y-2.93148
G01 X3.27667 Y-2.93677
G01 X3.27881 Y-2.94388
G01 X3.27945 Y-2.95000
G01 X3.27881 Y-2.95612
G01 X3.27691 Y-2.96198
G01 X3.27383 Y-2.96731
G01 X3.26971 Y-2.97189
G01 X3.25842 Y-2.97910
G01 X3.25637 Y-2.98225
G01 X3.25566 Y-2.98594
G01 X3.25566 Y-3.17379
G01 X3.25641 Y-3.17756
G01 X3.25854 Y-3.18075
G01 X3.31925 Y-3.24146
G01 X3.32244 Y-3.24359
G01 X3.32621 Y-3.24434
G01 X3.35757 Y-3.24417
G01 X3.36247 Y-3.24167
G01 X3.36796 Y-3.23571
G01 X3.37467 Y-3.23272
G01 X3.37886 Y-3.23228
G01 X3.42114 Y-3.23228
G01 X3.42532 Y-3.23272
G01 X3.43203 Y-3.23571
G01 X3.43478 Y-3.23818
G01 X3.43845 Y-3.24454
G01 X3.43922 Y-3.24815
G01 X3.43922 Y-3.25185
G01 X3.43695 Y-3.25883
G01 X3.43203 Y-3.26429
G01 X3.42532 Y-3.26728
G01 X3.42114 Y-3.26772
G01 X3.37886 Y-3.26772
G01 X3.37467 Y-3.26728
G01 X3.37116 Y-3.26613
G01 X3.36796 Y-3.26429
G01 X3.36100 Y-3.25719
G01 X3.35757 Y-3.25583
G01 X3.32027 Y-3.25566
G01 X3.31764 Y-3.25518
G01 X3.31544 Y-3.25366
G01 X3.24533 Y-3.18333
G01 X3.24434 Y-3.17973
G01 X3.24416 Y-2.98406
G01 X3.24158 Y-2.97910
G01 X3.23029 Y-2.97189
G01 X3.22617 Y-2.96731
G01 X3.22309 Y-2.96198
G01 X3.22126 Y-2.95634
G01 X3.22055 Y-2.95000
G01 X3.23836 Y-2.95000
G01 X3.23861 Y-2.95242
G01 X3.24058 Y-2.95684
G01 X3.24418 Y-2.96008
G01 X3.25000 Y-2.96319
G01 X3.25582 Y-2.96008
G01 X3.25942 Y-2.95684
G01 X3.26138 Y-2.95242
G01 X3.26164 Y-2.95000
G01 X3.25946 Y-2.94062
G01 X3.25122 Y-2.93842
G01 X3.24640 Y-2.93893
G01 X3.24221 Y-2.94135
G01 X3.23937 Y-2.94527
G01 X3.23836 Y-2.95000
G04 P0 ( dwell for no time -- G64 should not smooth over this point )
G00 Z0.08000 ( retract )

G00 X3.48273 Y-2.85000 ( rapid move to begin. )
G01 F180.00000
( Mill infeed pass 1/1 )
G01 Z-0.04000
G04 P0 ( dwell for no time -- G64 should not smooth over this point )
G01 F360.00000
G01 X3.48273 Y-2.85000
G01 X3.48307 Y-2.84674
G01 X3.48573 Y-2.84077
G01 X3.49058 Y-2.83641
G01 X3.49550 Y-2.83466
G01 X3.50007 Y-2.83439
G01 X3.50627 Y-2.83641
G01 X3.50893 Y-2.83834
G01 X3.51276 Y-2.84362
G01 X3.51378 Y-2.84674
G01 X3.51413 Y-2.85577
G01 X3.51671 Y-2.86028
G01 X3.59789 Y-2.94146
G01 X3.60292 Y-2.94415
G01 X3.61389 Y-2.94434
G01 X3.61735 Y-2.94371
G01 X3.62158 Y-2.94064
G01 X3.62617 Y-2.93269
G01 X3.63029 Y-2.92811
G01 X3.63527 Y-2.92449
G01 X3.64090 Y-2.92199
G01 X3.64692 Y-2.92071
G01 X3.65308 Y-2.92071
G01 X3.65910 Y-2.92199
G01 X3.66473 Y-2.92449
G01 X3.66971 Y-2.92811
G01 X3.67383 Y-2.93269
G01 X3.67880 Y-2.94109
G01 X3.68211 Y-2.94349
G01 X3.68611 Y-2.94434
G01 X3.98938 Y-2.94434
G01 X3.99315 Y-2.94359
G01 X3.99634 Y-2.94146
G01 X4.15255 Y-2.78525
G01 X4.15579 Y-2.78341
G01 X4.65078 Y-2.78341
G01 X4.65403 Y-2.78525
G01 X4.77951 Y-2.91095
G01 X4.78051 Y-2.91456
G01 X4.78035 Y-2.98702
G01 X4.77851 Y-2.99027
G01 X4.59263 Y-3.17592
G01 X4.58903 Y-3.17692
G01 X4.54243 Y-3.17709
G01 X4.53753 Y-3.17958
G01 X4.53203 Y-3.18555
G01 X4.52532 Y-3.18854
G01 X4.52114 Y-3.18898
G01 X4.47886 Y-3.18898
G01 X4.47467 Y-3.18854
G01 X4.47116 Y-3.18739
G01 X4.46522 Y-3.18308
G01 X4.46155 Y-3.17672
G01 X4.46078 Y-3.16941
G01 X4.46155 Y-3.16580
G01 X4.46522 Y-3.15944
G01 X4.47116 Y-3.15512
G01 X4.47467 Y-3.15398
G01 X4.47886 Y-3.15354
G01 X4.52114 Y-3.15354
G01 X4.52532 Y-3.15398
G01 X4.53203 Y-3.15697
G01 X4.53899 Y-3.16407
G01 X4.54427 Y-3.16560
G01 X4.58310 Y-3.16560
G01 X4.58857 Y-3.16394
G01 X4.76631 Y-2.98647
G01 X4.76844 Y-2.98327
G01 X4.76919 Y-2.97951
G01 X4.76919 Y-2.92049
G01 X4.76753 Y-2.91502
G01 X4.65023 Y-2.79745
G01 X4.64703 Y-2.79531
G01 X4.64327 Y-2.79457
G01 X4.16139 Y-2.79475
G01 X4.15635 Y-2.79745
G01 X4.00014 Y-2.95366
G01 X3.99795 Y-2.95518
G01 X3.99532 Y-2.95566
G01 X3.68611 Y-2.95566
G01 X3.68211 Y-2.95651
G01 X3.67880 Y-2.95891
G01 X3.67383 Y-2.96731
G01 X3.66971 Y-2.97189
G01 X3.66473 Y-2.97551
G01 X3.65910 Y-2.97801
G01 X3.65308 Y-2.97929
G01 X3.64481 Y-2.97884
G01 X3.64090 Y-2.97801
G01 X3.63527 Y-2.97551
G01 X3.63029 Y-2.97189
G01 X3.62617 Y-2.96731
G01 X3.62120 Y-2.95891
G01 X3.61789 Y-2.95651
G01 X3.61389 Y-2.95566
G01 X3.59891 Y-2.95566
G01 X3.59531 Y-2.95466
G01 X3.50876 Y-2.86834
G01 X3.50365 Y-2.86563
G01 X3.49678 Y-2.86561
G01 X3.49357 Y-2.86492
G01 X3.48792 Y-2.86166
G01 X3.48409 Y-2.85638
G01 X3.48273 Y-2.85000
G04 P0 ( dwell for no time -- G64 should not smooth over this point )
G00 Z0.08000 ( retract )

G00 X3.63652 Y-2.95003 ( rapid move to begin. )
G01 F180.00000
( Mill infeed pass 1/1 )
G01 Z-0.04000
G04 P0 ( dwell for no time -- G64 should not smooth over this point )
G01 F360.00000
G01 X3.63652 Y-2.95003
G01 X3.64221 Y-2.95865
G01 X3.64640 Y-2.96107
G01 X3.65122 Y-2.96157
G01 X3.65360 Y-2.96107
G01 X3.65779 Y-2.95865
G01 X3.66350 Y-2.95000
G01 X3.65779 Y-2.94135
G01 X3.65360 Y-2.93893
G01 X3.64878 Y-2.93842
G01 X3.64640 Y-2.93893
G01 X3.64221 Y-2.94135
G01 X3.63652 Y-2.95003
G04 P0 ( dwell for no time -- G64 should not smooth over this point )
G00 Z0.08000 ( retract )

G00 X3.73950 Y-3.30387 ( rapid move to begin. )
G01 F180.00000
( Mill infeed pass 1/1 )
G01 Z-0.04000
G04 P0 ( dwell for no time -- G64 should not smooth over this point )
G01 F360.00000
G01 X3.73950 Y-3.30387
G01 X3.74515 Y-3.30839
G01 X3.74701 Y-3.30922
G01 X3.74899 Y-3.30964
G01 X3.75299 Y-3.30922
G01 X3.75648 Y-3.30720
G01 X3.75885 Y-3.30394
G01 X3.75969 Y-3.30000
G01 X3.75885 Y-3.29606
G01 X3.75648 Y-3.29280
G01 X3.75484 Y-3.29161
G01 X3.75101 Y-3.29036
G01 X3.74701 Y-3.29078
G01 X3.74351 Y-3.29280
G01 X3.74115 Y-3.29606
G01 X3.73950 Y-3.30387
G04 P0 ( dwell for no time -- G64 should not smooth over this point )
G00 Z0.08000 ( retract )

G00 X3.84016 Y-3.31243 ( rapid move to begin. )
G01 F180.00000
( Mill infeed pass 1/1 )
G01 Z-0.04000
G04 P0 ( dwell for no time -- G64 should not smooth over this point )
G01 F360.00000
G01 X3.84016 Y-3.31243
G01 X3.84505 Y-3.31391
G01 X3.85000 Y-3.31661
G01 X3.85495 Y-3.31391
G01 X3.86015 Y-3.31234
G01 X3.86194 Y-3.30495
G01 X3.86464 Y-3.30000
G01 X3.86194 Y-3.29505
G01 X3.86021 Y-3.28819
G01 X3.84016 Y-3.28819
G01 X3.84016 Y-3.31243
G04 P0 ( dwell for no time -- G64 should not smooth over this point )
G00 Z0.08000 ( retract )

G00 X4.03536 Y-3.30000 ( rapid move to begin. )
G01 F180.00000
( Mill infeed pass 1/1 )
G01 Z-0.04000
G04 P0 ( dwell for no time -- G64 should not smooth over this point )
G01 F360.00000
G01 X4.03536 Y-3.30000
G01 X4.03806 Y-3.29505
G01 X4.03979 Y-3.28819
G01 X4.05984 Y-3.28819
G01 X4.05984 Y-3.31181
G01 X4.03979 Y-3.31181
G01 X4.03806 Y-3.30495
G01 X4.03536 Y-3.30000
G04 P0 ( dwell for no time -- G64 should not smooth over this point )
G00 Z0.08000 ( retract )

G00 X4.12249 Y-3.30000 ( rapid move to begin. )
G01 F180.00000
( Mill infeed pass 1/1 )
G01 Z-0.04000
G04 P0 ( dwell for no time -- G64 should not smooth over this point )
G01 F360.00000
G01 X4.12249 Y-3.30000
G01 X4.12310 Y-3.30572
G01 X4.12487 Y-3.31119
G01 X4.12775 Y-3.31617
G01 X4.13159 Y-3.32044
G01 X4.13625 Y-3.32382
G01 X4.14150 Y-3.32616
G01 X4.14712 Y-3.32735
G01 X4.15287 Y-3.32735
G01 X4.16259 Y-3.32519
G01 X4.16645 Y-3.32591
G01 X4.16972 Y-3.32808
G01 X4.17548 Y-3.33361
G01 X4.17922 Y-3.33465
G01 X4.45591 Y-3.33465
G01 X4.46119 Y-3.33618
G01 X4.46796 Y-3.34303
G01 X4.47467 Y-3.34602
G01 X4.47886 Y-3.34646
G01 X4.52114 Y-3.34646
G01 X4.52532 Y-3.34602
G01 X4.53203 Y-3.34303
G01 X4.53695 Y-3.33757
G01 X4.53922 Y-3.33059
G01 X4.53845 Y-3.32328
G01 X4.53478 Y-3.31692
G01 X4.52884 Y-3.31261
G01 X4.52532 Y-3.31146
G01 X4.52114 Y-3.31102
G01 X4.47886 Y-3.31102
G01 X4.47467 Y-3.31146
G01 X4.46796 Y-3.31445
G01 X4.46119 Y-3.32130
G01 X4.45591 Y-3.32283
G01 X4.18334 Y-3.32264
G01 X4.17830 Y-3.31995
G01 X4.17541 Y-3.31501
G01 X4.17522 Y-3.31142
G01 X4.17690 Y-3.30572
G01 X4.17750 Y-3.30000
G01 X4.17690 Y-3.29428
G01 X4.17513 Y-3.28881
G01 X4.17225 Y-3.28383
G01 X4.16840 Y-3.27956
G01 X4.16375 Y-3.27618
G01 X4.15850 Y-3.27384
G01 X4.15287 Y-3.27264
G01 X4.14712 Y-3.27264
G01 X4.14150 Y-3.27384
G01 X4.13625 Y-3.27618
G01 X4.13159 Y-3.27956
G01 X4.12775 Y-3.28383
G01 X4.12487 Y-3.28881
G01 X4.12310 Y-3.29428
G01 X4.12249 Y-3.30000
G01 X4.14031 Y-3.30000
G01 X4.14115 Y-3.29606
G01 X4.14351 Y-3.29280
G01 X4.14701 Y-3.29078
G01 X4.15101 Y-3.29036
G01 X4.15484 Y-3.29161
G01 X4.15784 Y-3.29430
G01 X4.15948 Y-3.29799
G01 X4.15969 Y-3.30000
G01 X4.15791 Y-3.30800
G01 X4.15101 Y-3.30964
G01 X4.14701 Y-3.30922
G01 X4.14351 Y-3.30720
G01 X4.14115 Y-3.30394
G01 X4.14031 Y-3.30000
G04 P0 ( dwell for no time -- G64 should not smooth over this point )
G00 Z0.08000 ( retract )

G00 X4.40963 Y-3.24501 ( rapid move to begin. )
G01 F180.00000
( Mill infeed pass 1/1 )
G01 Z-0.04000
G04 P0 ( dwell for no time -- G64 should not smooth over this point )
G01 F360.00000
G01 X4.40963 Y-3.24501
G01 X4.41062 Y-3.24861
G01 X4.41764 Y-3.25518
G01 X4.42027 Y-3.25566
G01 X4.45757 Y-3.25583
G01 X4.46100 Y-3.25719
G01 X4.46796 Y-3.26429
G01 X4.47116 Y-3.26613
G01 X4.47467 Y-3.26728
G01 X4.47886 Y-3.26772
G01 X4.52114 Y-3.26772
G01 X4.52532 Y-3.26728
G01 X4.52884 Y-3.26613
G01 X4.53478 Y-3.26182
G01 X4.53845 Y-3.25546
G01 X4.53922 Y-3.24815
G01 X4.53695 Y-3.24117
G01 X4.53203 Y-3.23571
G01 X4.52532 Y-3.23272
G01 X4.52114 Y-3.23228
G01 X4.47886 Y-3.23228
G01 X4.47467 Y-3.23272
G01 X4.46796 Y-3.23571
G01 X4.46100 Y-3.24281
G01 X4.45573 Y-3.24434
G01 X4.42887 Y-3.24415
G01 X4.42532 Y-3.24268
G01 X4.42260 Y-3.23997
G01 X4.42094 Y-3.23450
G01 X4.42094 Y-3.04772
G01 X4.42169 Y-3.04396
G01 X4.42383 Y-3.04076
G01 X4.55466 Y-2.90971
G01 X4.55566 Y-2.90611
G01 X4.55585 Y-2.87367
G01 X4.55732 Y-2.87012
G01 X4.56003 Y-2.86741
G01 X4.56358 Y-2.86594
G01 X4.56575 Y-2.86575
G01 X4.56650 Y-2.86173
G01 X4.56863 Y-2.85854
G01 X4.57182 Y-2.85641
G01 X4.57559 Y-2.85566
G01 X4.59358 Y-2.85566
G01 X4.59905 Y-2.85732
G01 X4.67053 Y-2.92853
G01 X4.67256 Y-2.93148
G01 X4.67340 Y-2.93497
G01 X4.67119 Y-2.94388
G01 X4.67055 Y-2.95000
G01 X4.67119 Y-2.95612
G01 X4.67309 Y-2.96198
G01 X4.67617 Y-2.96731
G01 X4.68029 Y-2.97189
G01 X4.68527 Y-2.97551
G01 X4.69090 Y-2.97801
G01 X4.69692 Y-2.97929
G01 X4.70308 Y-2.97929
G01 X4.70910 Y-2.97801
G01 X4.71473 Y-2.97551
G01 X4.71971 Y-2.97189
G01 X4.72383 Y-2.96731
G01 X4.72691 Y-2.96198
G01 X4.72881 Y-2.95612
G01 X4.72945 Y-2.95000
G01 X4.72881 Y-2.94388
G01 X4.72691 Y-2.93802
G01 X4.72383 Y-2.93269
G01 X4.71971 Y-2.92811
G01 X4.71473 Y-2.92449
G01 X4.70910 Y-2.92199
G01 X4.70308 Y-2.92071
G01 X4.69692 Y-2.92071
G01 X4.68570 Y-2.92345
G01 X4.68009 Y-2.92181
G01 X4.60434 Y-2.84634
G01 X4.60215 Y-2.84482
G01 X4.59952 Y-2.84434
G01 X4.57367 Y-2.84415
G01 X4.57012 Y-2.84268
G01 X4.56741 Y-2.83997
G01 X4.56594 Y-2.83642
G01 X4.56575 Y-2.83425
G01 X4.53425 Y-2.83425
G01 X4.53425 Y-2.86575
G01 X4.53642 Y-2.86594
G01 X4.53997 Y-2.86741
G01 X4.54268 Y-2.87012
G01 X4.54415 Y-2.87367
G01 X4.54434 Y-2.90017
G01 X4.54268 Y-2.90564
G01 X4.41163 Y-3.03696
G01 X4.41010 Y-3.03916
G01 X4.40963 Y-3.04179
G01 X4.40963 Y-3.24501
G04 P0 ( dwell for no time -- G64 should not smooth over this point )
G00 Z0.08000 ( retract )

G00 X4.68836 Y-2.95000 ( rapid move to begin. )
G01 F180.00000
( Mill infeed pass 1/1 )
G01 Z-0.04000
G04 P0 ( dwell for no time -- G64 should not smooth over this point )
G01 F360.00000
G01 X4.68836 Y-2.95000
G01 X4.69054 Y-2.94062
G01 X4.69878 Y-2.93842
G01 X4.70122 Y-2.93842
G01 X4.70582 Y-2.93992
G01 X4.70942 Y-2.94316
G01 X4.71138 Y-2.94758
G01 X4.71164 Y-2.95000
G01 X4.71063 Y-2.95473
G01 X4.70779 Y-2.95865
G01 X4.70360 Y-2.96107
G01 X4.69878 Y-2.96157
G01 X4.69418 Y-2.96008
G01 X4.69058 Y-2.95684
G01 X4.68862 Y-2.95242
G01 X4.68836 Y-2.95000
G04 P0 ( dwell for no time -- G64 should not smooth over this point )
G00 Z0.08000 ( retract )

G00 X4.68645 Y-2.55000 ( rapid move to begin. )
G01 F180.00000
( Mill infeed pass 1/1 )
G01 Z-0.04000
G04 P0 ( dwell for no time -- G64 should not smooth over this point )
G01 F360.00000
G01 X4.68645 Y-2.55000
G01 X4.69221 Y-2.54135
G01 X4.69640 Y-2.53893
G01 X4.69878 Y-2.53842
G01 X4.70360 Y-2.53893
G01 X4.70779 Y-2.54135
G01 X4.71063 Y-2.54527
G01 X4.71164 Y-2.55000
G01 X4.71063 Y-2.55473
G01 X4.70779 Y-2.55865
G01 X4.70360 Y-2.56107
G01 X4.70122 Y-2.56157
G01 X4.69640 Y-2.56107
G01 X4.69221 Y-2.55865
G01 X4.68645 Y-2.55000
G01 X4.31011 Y-2.55567
G01 X4.30582 Y-2.56008
G01 X4.30360 Y-2.56107
G01 X4.29878 Y-2.56157
G01 X4.29418 Y-2.56008
G01 X4.28801 Y-2.55600
G01 X4.31011 Y-2.55567
G01 X4.31354 Y-2.55000
G01 X4.30779 Y-2.54135
G01 X4.30360 Y-2.53893
G01 X4.29878 Y-2.53842
G01 X4.29054 Y-2.54062
G01 X4.28862 Y-2.54758
G01 X4.28801 Y-2.55600
G04 P0 ( dwell for no time -- G64 should not smooth over this point )
G00 Z0.08000 ( retract )

G00 X4.28285 Y-2.94792 ( rapid move to begin. )
G01 F180.00000
( Mill infeed pass 1/1 )
G01 Z-0.04000
G04 P0 ( dwell for no time -- G64 should not smooth over this point )
G01 F360.00000
G01 X4.28285 Y-2.94792
G01 X4.29674 Y-2.93402
G01 X4.29993 Y-2.93674
G01 X4.30582 Y-2.93992
G01 X4.30942 Y-2.94316
G01 X4.31138 Y-2.94758
G01 X4.31138 Y-2.95242
G01 X4.30942 Y-2.95684
G01 X4.30779 Y-2.95865
G01 X4.30360 Y-2.96107
G01 X4.29878 Y-2.96157
G01 X4.29640 Y-2.96107
G01 X4.29221 Y-2.95865
G01 X4.28694 Y-2.95167
G01 X4.28285 Y-2.94792
G04 P0 ( dwell for no time -- G64 should not smooth over this point )
G00 Z0.08000 ( retract )

G00 X3.99409 Y-2.75001 ( rapid move to begin. )
G01 F180.00000
( Mill infeed pass 1/1 )
G01 Z-0.04000
G04 P0 ( dwell for no time -- G64 should not smooth over this point )
G01 F360.00000
G01 X3.99409 Y-2.75001
G01 X4.00591 Y-2.75001
G01 X4.00591 Y-2.73819
G01 X3.99409 Y-2.73819
G01 X3.99409 Y-2.75001
G01 X3.97637 Y-2.76772
G01 X4.02362 Y-2.76772
G01 X4.02362 Y-2.71940
G01 X4.01438 Y-2.72047
G01 X3.97637 Y-2.72047
G01 X3.97637 Y-2.76772
G01 X3.95866 Y-2.78544
G01 X4.04134 Y-2.78544
G01 X4.04134 Y-2.69253
G01 X4.02671 Y-2.69985
G01 X4.01862 Y-2.70243
G01 X3.95866 Y-2.70276
G01 X3.95866 Y-2.78544
G04 P0 ( dwell for no time -- G64 should not smooth over this point )
G00 Z0.08000 ( retract )

G00 X3.99070 Y-2.51234 ( rapid move to begin. )
G01 F180.00000
( Mill infeed pass 1/1 )
G01 Z-0.04000
G04 P0 ( dwell for no time -- G64 should not smooth over this point )
G01 F360.00000
G01 X3.99070 Y-2.51234
G01 X3.99322 Y-2.50199
G01 X4.00591 Y-2.50199
G01 X4.00591 Y-2.51381
G01 X3.99114 Y-2.51381
G01 X3.99070 Y-2.51234
G01 X3.97170 Y-2.51220
G01 X3.97551 Y-2.52299
G01 X3.97635 Y-2.53152
G01 X4.02362 Y-2.53152
G01 X4.02362 Y-2.48427
G01 X3.97637 Y-2.48427
G01 X3.97561 Y-2.50088
G01 X3.97334 Y-2.50889
G01 X3.97170 Y-2.51220
G01 X3.95037 Y-2.51216
G01 X3.95456 Y-2.50705
G01 X3.95681 Y-2.50251
G01 X3.95819 Y-2.49764
G01 X3.95866 Y-2.46656
G01 X4.04134 Y-2.46656
G01 X4.04134 Y-2.54924
G01 X3.95866 Y-2.54924
G01 X3.95866 Y-2.53182
G01 X3.95813 Y-2.52644
G01 X3.95656 Y-2.52127
G01 X3.95401 Y-2.51651
G01 X3.95037 Y-2.51216
G04 P0 ( dwell for no time -- G64 should not smooth over this point )
G00 Z0.08000 ( retract )

G00 X3.80691 Y-2.62600 ( rapid move to begin. )
G01 F180.00000
( Mill infeed pass 1/1 )
G01 Z-0.04000
G04 P0 ( dwell for no time -- G64 should not smooth over this point )
G01 F360.00000
G01 X3.80691 Y-2.62600
G01 X3.80815 Y-2.62009
G01 X3.82091 Y-2.62009
G01 X3.82091 Y-2.63191
G01 X3.80815 Y-2.63191
G01 X3.80691 Y-2.62600
G01 X3.78848 Y-2.62600
G01 X3.79051 Y-2.61933
G01 X3.79137 Y-2.61050
G01 X3.79137 Y-2.60237
G01 X3.83862 Y-2.60237
G01 X3.83862 Y-2.64962
G01 X3.79137 Y-2.64962
G01 X3.79137 Y-2.64150
G01 X3.79051 Y-2.63267
G01 X3.78848 Y-2.62600
G01 X3.76886 Y-2.62600
G01 X3.77156 Y-2.62105
G01 X3.77313 Y-2.61588
G01 X3.77366 Y-2.61050
G01 X3.77366 Y-2.58466
G01 X3.85634 Y-2.58466
G01 X3.85634 Y-2.66734
G01 X3.77366 Y-2.66734
G01 X3.77366 Y-2.64150
G01 X3.77313 Y-2.63612
G01 X3.77156 Y-2.63095
G01 X3.76886 Y-2.62600
G04 P0 ( dwell for no time -- G64 should not smooth over this point )
G00 Z0.08000 ( retract )

G00 X3.63646 Y-2.55000 ( rapid move to begin. )
G01 F180.00000
( Mill infeed pass 1/1 )
G01 Z-0.04000
G04 P0 ( dwell for no time -- G64 should not smooth over this point )
G01 F360.00000
G01 X3.63646 Y-2.55000
G01 X3.64221 Y-2.54135
G01 X3.64640 Y-2.53893
G01 X3.65122 Y-2.53842
G01 X3.65946 Y-2.54062
G01 X3.66164 Y-2.55000
G01 X3.66063 Y-2.55473
G01 X3.65779 Y-2.55865
G01 X3.65360 Y-2.56107
G01 X3.64878 Y-2.56157
G01 X3.64640 Y-2.56107
G01 X3.64221 Y-2.55865
G01 X3.63646 Y-2.55000
G01 X3.26354 Y-2.55000
G04 P0 ( dwell for no time -- G64 should not smooth over this point )
G00 Z0.08000 ( retract )

G00 X3.26354 Y-2.55000 ( rapid move to begin. )
G01 F180.00000
( Mill infeed pass 1/1 )
G01 Z-0.04000
G04 P0 ( dwell for no time -- G64 should not smooth over this point )
G01 F360.00000
G01 X3.26354 Y-2.55000
G01 X3.25935 Y-2.54309
G01 X3.25582 Y-2.53992
G01 X3.25360 Y-2.53893
G01 X3.24878 Y-2.53842
G01 X3.24640 Y-2.53893
G01 X3.24221 Y-2.54135
G01 X3.23937 Y-2.54527
G01 X3.23836 Y-2.55000
G01 X3.26354 Y-2.55000
G01 X3.25779 Y-2.55865
G01 X3.25360 Y-2.56107
G01 X3.25122 Y-2.56157
G01 X3.24640 Y-2.56107
G01 X3.24221 Y-2.55865
G01 X3.23937 Y-2.55473
G01 X3.23836 Y-2.55000
G01 X3.22055 Y-2.55000
G01 X3.22119 Y-2.54387
G01 X3.22309 Y-2.53802
G01 X3.22617 Y-2.53269
G01 X3.22992 Y-2.52853
G01 X3.23527 Y-2.52449
G01 X3.24090 Y-2.52199
G01 X3.24692 Y-2.52071
G01 X3.25374 Y-2.52085
G01 X3.25910 Y-2.52199
G01 X3.26473 Y-2.52449
G01 X3.26971 Y-2.52811
G01 X3.27381 Y-2.53266
G01 X3.27747 Y-2.53911
G01 X3.27967 Y-2.54176
G01 X3.28264 Y-2.54349
G01 X3.28603 Y-2.54409
G01 X3.61569 Y-2.54394
G01 X3.61892 Y-2.54276
G01 X3.62154 Y-2.54054
G01 X3.62619 Y-2.53266
G01 X3.63029 Y-2.52811
G01 X3.63527 Y-2.52449
G01 X3.64090 Y-2.52199
G01 X3.64692 Y-2.52071
G01 X3.65308 Y-2.52071
G01 X3.66430 Y-2.52345
G01 X3.66990 Y-2.52181
G01 X3.79216 Y-2.39984
G01 X3.79435 Y-2.39832
G01 X3.79698 Y-2.39784
G01 X4.15459 Y-2.39800
G01 X4.15784 Y-2.39984
G01 X4.28009 Y-2.52181
G01 X4.28570 Y-2.52345
G01 X4.29692 Y-2.52071
G01 X4.30308 Y-2.52071
G01 X4.30910 Y-2.52199
G01 X4.31473 Y-2.52449
G01 X4.31971 Y-2.52811
G01 X4.32381 Y-2.53266
G01 X4.32846 Y-2.54054
G01 X4.33108 Y-2.54276
G01 X4.33431 Y-2.54394
G01 X4.66397 Y-2.54409
G01 X4.66735 Y-2.54349
G01 X4.67033 Y-2.54176
G01 X4.67253 Y-2.53911
G01 X4.67619 Y-2.53266
G01 X4.68029 Y-2.52811
G01 X4.68527 Y-2.52449
G01 X4.69090 Y-2.52199
G01 X4.69692 Y-2.52071
G01 X4.70308 Y-2.52071
G01 X4.70910 Y-2.52199
G01 X4.71473 Y-2.52449
G01 X4.71971 Y-2.52811
G01 X4.72383 Y-2.53269
G01 X4.72691 Y-2.53802
G01 X4.72881 Y-2.54388
G01 X4.72945 Y-2.55000
G01 X4.72881 Y-2.55612
G01 X4.72691 Y-2.56198
G01 X4.72294 Y-2.56829
G01 X4.71971 Y-2.57189
G01 X4.71473 Y-2.57551
G01 X4.70910 Y-2.57801
G01 X4.70308 Y-2.57929
G01 X4.69692 Y-2.57929
G01 X4.69090 Y-2.57801
G01 X4.68527 Y-2.57551
G01 X4.68029 Y-2.57189
G01 X4.67619 Y-2.56734
G01 X4.67253 Y-2.56088
G01 X4.67033 Y-2.55824
G01 X4.66735 Y-2.55651
G01 X4.66397 Y-2.55591
G01 X4.33603 Y-2.55591
G01 X4.33264 Y-2.55651
G01 X4.32967 Y-2.55824
G01 X4.32747 Y-2.56088
G01 X4.32381 Y-2.56734
G01 X4.31971 Y-2.57189
G01 X4.31473 Y-2.57551
G01 X4.30910 Y-2.57801
G01 X4.30308 Y-2.57929
G01 X4.29692 Y-2.57929
G01 X4.29090 Y-2.57801
G01 X4.28527 Y-2.57551
G01 X4.27749 Y-2.57065
G01 X4.27218 Y-2.57070
G01 X4.06450 Y-2.67435
G01 X4.06162 Y-2.67654
G01 X4.05972 Y-2.67961
G01 X4.05906 Y-2.68316
G01 X4.05906 Y-2.80316
G01 X3.94094 Y-2.80316
G01 X3.94094 Y-2.68504
G01 X4.01438 Y-2.68504
G01 X4.01738 Y-2.68458
G01 X4.26526 Y-2.56077
G01 X4.26836 Y-2.55833
G01 X4.27026 Y-2.55486
G01 X4.27119 Y-2.54388
G01 X4.27340 Y-2.53497
G01 X4.27256 Y-2.53148
G01 X4.27053 Y-2.52853
G01 X4.15404 Y-2.41204
G01 X4.14900 Y-2.40935
G01 X3.80292 Y-2.40916
G01 X3.79915 Y-2.40991
G01 X3.79596 Y-2.41204
G01 X3.67947 Y-2.52853
G01 X3.67744 Y-2.53148
G01 X3.67660 Y-2.53497
G01 X3.67881 Y-2.54388
G01 X3.67945 Y-2.55000
G01 X3.67881 Y-2.55612
G01 X3.67691 Y-2.56198
G01 X3.67383 Y-2.56731
G01 X3.66971 Y-2.57189
G01 X3.66473 Y-2.57551
G01 X3.65910 Y-2.57801
G01 X3.65308 Y-2.57929
G01 X3.64692 Y-2.57929
G01 X3.64090 Y-2.57801
G01 X3.63527 Y-2.57551
G01 X3.63029 Y-2.57189
G01 X3.62619 Y-2.56734
G01 X3.62252 Y-2.56088
G01 X3.62033 Y-2.55824
G01 X3.61735 Y-2.55651
G01 X3.61397 Y-2.55591
G01 X3.28603 Y-2.55591
G01 X3.28264 Y-2.55651
G01 X3.27967 Y-2.55824
G01 X3.27747 Y-2.56088
G01 X3.27381 Y-2.56734
G01 X3.26971 Y-2.57189
G01 X3.26473 Y-2.57551
G01 X3.25910 Y-2.57801
G01 X3.25308 Y-2.57929
G01 X3.24692 Y-2.57929
G01 X3.24090 Y-2.57801
G01 X3.23527 Y-2.57551
G01 X3.23029 Y-2.57189
G01 X3.22823 Y-2.56960
G01 X3.22617 Y-2.56731
G01 X3.22309 Y-2.56198
G01 X3.22119 Y-2.55612
G01 X3.22055 Y-2.55000
( Piece #2, position [1;0] )

G04 P0 ( dwell for no time -- G64 should not smooth over this point )
G00 Z0.08000 ( retract )

G00 X5.13651 Y-3.21714 ( rapid move to begin. )
G01 F180.00000
( Mill infeed pass 1/1 )
G01 Z-0.04000
G04 P0 ( dwell for no time -- G64 should not smooth over this point )
G01 F360.00000
G01 X5.13651 Y-3.21714
G01 X5.13651 Y-2.81119
G01 X5.13698 Y-2.80856
G01 X5.13851 Y-2.80637
G01 X5.18038 Y-2.76449
G01 X5.18258 Y-2.76297
G01 X5.18521 Y-2.76249
G01 X5.54054 Y-2.76249
G01 X5.54431 Y-2.76174
G01 X5.54750 Y-2.75961
G01 X5.68600 Y-2.62134
G01 X5.68960 Y-2.62034
G01 X5.72012 Y-2.62034
G01 X5.72388 Y-2.61959
G01 X5.72707 Y-2.61746
G01 X5.72921 Y-2.61427
G01 X5.72996 Y-2.61050
G01 X5.72996 Y-2.56694
G01 X5.83599 Y-2.56694
G01 X5.84146 Y-2.56528
G01 X5.90277 Y-2.50424
G01 X5.90497 Y-2.50272
G01 X5.90954 Y-2.50139
G01 X5.91349 Y-2.49776
G01 X5.91496 Y-2.49260
G01 X5.91496 Y-2.44884
G01 X6.03307 Y-2.44884
G01 X6.03307 Y-2.56696
G01 X5.91496 Y-2.56696
G01 X5.91496 Y-2.53182
G01 X5.91421 Y-2.52805
G01 X5.91058 Y-2.52364
G01 X5.90704 Y-2.52217
G01 X5.90319 Y-2.52217
G01 X5.89965 Y-2.52364
G01 X5.85096 Y-2.57206
G01 X5.84882 Y-2.57525
G01 X5.84807 Y-2.57902
G01 X5.84807 Y-2.68506
G01 X5.72996 Y-2.68506
G01 X5.72996 Y-2.64150
G01 X5.72830 Y-2.63603
G01 X5.72558 Y-2.63332
G01 X5.72204 Y-2.63185
G01 X5.69362 Y-2.63185
G01 X5.68858 Y-2.63454
G01 X5.55131 Y-2.77181
G01 X5.54806 Y-2.77365
G01 X5.19115 Y-2.77381
G01 X5.18738 Y-2.77455
G01 X5.18419 Y-2.77669
G01 X5.15070 Y-2.81017
G01 X5.14857 Y-2.81336
G01 X5.14782 Y-2.81713
G01 X5.14782 Y-3.21120
G01 X5.14857 Y-3.21497
G01 X5.15070 Y-3.21816
G01 X5.32280 Y-3.39026
G01 X5.32784 Y-3.39295
G01 X5.79108 Y-3.39295
G01 X5.79612 Y-3.39026
G01 X5.81547 Y-3.37091
G01 X5.81761 Y-3.36772
G01 X5.81836 Y-3.36395
G01 X5.81836 Y-3.33937
G01 X5.81670 Y-3.33390
G01 X5.81398 Y-3.33119
G01 X5.81044 Y-3.32972
G01 X5.79646 Y-3.32953
G01 X5.79646 Y-3.27047
G01 X5.85157 Y-3.27047
G01 X5.85157 Y-3.28450
G01 X5.85232 Y-3.28827
G01 X5.85595 Y-3.29268
G01 X5.86142 Y-3.29434
G01 X5.98853 Y-3.29415
G01 X5.99357 Y-3.29146
G01 X5.99571 Y-3.28827
G01 X5.99645 Y-3.28450
G01 X5.99645 Y-3.27047
G01 X6.05157 Y-3.27047
G01 X6.05157 Y-3.32953
G01 X5.99645 Y-3.32953
G01 X5.99645 Y-3.31550
G01 X5.99571 Y-3.31173
G01 X5.99357 Y-3.30854
G01 X5.98853 Y-3.30585
G01 X5.85950 Y-3.30585
G01 X5.85446 Y-3.30854
G01 X5.85232 Y-3.31173
G01 X5.85157 Y-3.31550
G01 X5.85157 Y-3.32953
G01 X5.83759 Y-3.32972
G01 X5.83405 Y-3.33119
G01 X5.83042 Y-3.33560
G01 X5.82967 Y-3.33937
G01 X5.82967 Y-3.36989
G01 X5.82868 Y-3.37349
G01 X5.79993 Y-3.40246
G01 X5.79668 Y-3.40430
G01 X5.32225 Y-3.40430
G01 X5.31900 Y-3.40246
G01 X5.13851 Y-3.22196
G01 X5.13698 Y-3.21977
G01 X5.13651 Y-3.21714
G04 P0 ( dwell for no time -- G64 should not smooth over this point )
G00 Z0.08000 ( retract )

G00 X5.33480 Y-3.33059 ( rapid move to begin. )
G01 F180.00000
( Mill infeed pass 1/1 )
G01 Z-0.04000
G04 P0 ( dwell for no time -- G64 should not smooth over this point )
G01 F360.00000
G01 X5.33480 Y-3.33059
G01 X5.33556 Y-3.32328
G01 X5.33924 Y-3.31692
G01 X5.34518 Y-3.31261
G01 X5.34869 Y-3.31146
G01 X5.35288 Y-3.31102
G01 X5.39515 Y-3.31102
G01 X5.39934 Y-3.31146
G01 X5.40605 Y-3.31445
G01 X5.41283 Y-3.32130
G01 X5.41810 Y-3.32283
G01 X5.64420 Y-3.32268
G01 X5.69198 Y-3.30522
G01 X5.69570 Y-3.30128
G01 X5.69889 Y-3.28881
G01 X5.70176 Y-3.28383
G01 X5.70561 Y-3.27956
G01 X5.71026 Y-3.27618
G01 X5.71552 Y-3.27384
G01 X5.72114 Y-3.27264
G01 X5.72689 Y-3.27264
G01 X5.73251 Y-3.27384
G01 X5.73777 Y-3.27618
G01 X5.74242 Y-3.27956
G01 X5.74627 Y-3.28383
G01 X5.74914 Y-3.28881
G01 X5.75092 Y-3.29428
G01 X5.75152 Y-3.30000
G01 X5.75092 Y-3.30572
G01 X5.74914 Y-3.31119
G01 X5.74627 Y-3.31617
G01 X5.74067 Y-3.32171
G01 X5.73777 Y-3.32382
G01 X5.73251 Y-3.32616
G01 X5.72689 Y-3.32735
G01 X5.72114 Y-3.32735
G01 X5.71552 Y-3.32616
G01 X5.71026 Y-3.32382
G01 X5.70191 Y-3.31747
G01 X5.69621 Y-3.31664
G01 X5.64770 Y-3.33414
G01 X5.64484 Y-3.33465
G01 X5.41810 Y-3.33465
G01 X5.41283 Y-3.33618
G01 X5.40605 Y-3.34303
G01 X5.39934 Y-3.34602
G01 X5.39515 Y-3.34646
G01 X5.35288 Y-3.34646
G01 X5.34869 Y-3.34602
G01 X5.34198 Y-3.34303
G01 X5.33707 Y-3.33757
G01 X5.33480 Y-3.33059
G04 P0 ( dwell for no time -- G64 should not smooth over this point )
G00 Z0.08000 ( retract )

G00 X5.33480 Y-3.17311 ( rapid move to begin. )
G01 F180.00000
( Mill infeed pass 1/1 )
G01 Z-0.04000
G04 P0 ( dwell for no time -- G64 should not smooth over this point )
G01 F360.00000
G01 X5.33480 Y-3.17311
G01 X5.33556 Y-3.16580
G01 X5.33924 Y-3.15944
G01 X5.34518 Y-3.15512
G01 X5.34869 Y-3.15398
G01 X5.35288 Y-3.15354
G01 X5.39515 Y-3.15354
G01 X5.39934 Y-3.15398
G01 X5.40605 Y-3.15697
G01 X5.41283 Y-3.16382
G01 X5.41810 Y-3.16535
G01 X6.01222 Y-3.16516
G01 X6.01725 Y-3.16247
G01 X6.26645 Y-2.91301
G01 X6.26811 Y-2.90754
G01 X6.26811 Y-2.85048
G01 X6.26860 Y-2.84776
G01 X6.27076 Y-2.84513
G01 X6.27450 Y-2.84409
G01 X6.40552 Y-2.84409
G01 X6.41027 Y-2.84287
G01 X6.41774 Y-2.83641
G01 X6.42154 Y-2.83490
G01 X6.42723 Y-2.83439
G01 X6.43344 Y-2.83641
G01 X6.43609 Y-2.83834
G01 X6.43949 Y-2.84286
G01 X6.44094 Y-2.84674
G01 X6.44094 Y-2.85326
G01 X6.43829 Y-2.85922
G01 X6.43344 Y-2.86359
G01 X6.42723 Y-2.86561
G01 X6.42395 Y-2.86561
G01 X6.41774 Y-2.86359
G01 X6.41027 Y-2.85712
G01 X6.40552 Y-2.85591
G01 X6.28976 Y-2.85591
G01 X6.28430 Y-2.85757
G01 X6.28158 Y-2.86028
G01 X6.27992 Y-2.86575
G01 X6.28009 Y-2.91604
G01 X6.28267 Y-2.92101
G01 X6.29372 Y-2.92811
G01 X6.29784 Y-2.93269
G01 X6.30092 Y-2.93802
G01 X6.30282 Y-2.94388
G01 X6.30347 Y-2.95000
G01 X6.30282 Y-2.95612
G01 X6.30092 Y-2.96198
G01 X6.29784 Y-2.96731
G01 X6.29372 Y-2.97189
G01 X6.28874 Y-2.97551
G01 X6.28312 Y-2.97801
G01 X6.27920 Y-2.97884
G01 X6.27094 Y-2.97929
G01 X6.26491 Y-2.97801
G01 X6.25929 Y-2.97551
G01 X6.25431 Y-2.97189
G01 X6.25019 Y-2.96731
G01 X6.24772 Y-2.96344
G01 X6.24453 Y-2.96107
G01 X6.24264 Y-2.96041
G01 X6.23866 Y-2.96029
G01 X6.23496 Y-2.96176
G01 X6.02134 Y-3.17509
G01 X6.01796 Y-3.17701
G01 X5.41810 Y-3.17717
G01 X5.41283 Y-3.17870
G01 X5.40605 Y-3.18555
G01 X5.39934 Y-3.18854
G01 X5.39515 Y-3.18898
G01 X5.35288 Y-3.18898
G01 X5.34869 Y-3.18854
G01 X5.34198 Y-3.18555
G01 X5.33707 Y-3.18009
G01 X5.33480 Y-3.17311
G04 P0 ( dwell for no time -- G64 should not smooth over this point )
G00 Z0.08000 ( retract )

G00 X5.19456 Y-2.95000 ( rapid move to begin. )
G01 F180.00000
( Mill infeed pass 1/1 )
G01 Z-0.04000
G04 P0 ( dwell for no time -- G64 should not smooth over this point )
G01 F360.00000
G01 X5.19456 Y-2.95000
G01 X5.19521 Y-2.94387
G01 X5.19711 Y-2.93802
G01 X5.20019 Y-2.93269
G01 X5.20431 Y-2.92811
G01 X5.20929 Y-2.92449
G01 X5.21491 Y-2.92199
G01 X5.22094 Y-2.92071
G01 X5.22709 Y-2.92071
G01 X5.23832 Y-2.92345
G01 X5.24392 Y-2.92181
G01 X5.32090 Y-2.84533
G01 X5.32450 Y-2.84434
G01 X5.35034 Y-2.84415
G01 X5.35389 Y-2.84268
G01 X5.35661 Y-2.83997
G01 X5.35808 Y-2.83642
G01 X5.35827 Y-2.83425
G01 X5.38976 Y-2.83425
G01 X5.38976 Y-2.86575
G01 X5.35827 Y-2.86575
G01 X5.35808 Y-2.86358
G01 X5.35661 Y-2.86003
G01 X5.35389 Y-2.85732
G01 X5.35034 Y-2.85585
G01 X5.33044 Y-2.85566
G01 X5.32667 Y-2.85641
G01 X5.32348 Y-2.85854
G01 X5.25349 Y-2.92853
G01 X5.25146 Y-2.93148
G01 X5.25069 Y-2.93677
G01 X5.25282 Y-2.94388
G01 X5.25347 Y-2.95000
G01 X5.25282 Y-2.95612
G01 X5.25092 Y-2.96198
G01 X5.24784 Y-2.96731
G01 X5.24372 Y-2.97189
G01 X5.23243 Y-2.97910
G01 X5.23039 Y-2.98225
G01 X5.22967 Y-2.98594
G01 X5.22967 Y-3.17379
G01 X5.23042 Y-3.17756
G01 X5.23256 Y-3.18075
G01 X5.29326 Y-3.24146
G01 X5.29646 Y-3.24359
G01 X5.30022 Y-3.24434
G01 X5.33159 Y-3.24417
G01 X5.33648 Y-3.24167
G01 X5.34198 Y-3.23571
G01 X5.34869 Y-3.23272
G01 X5.35288 Y-3.23228
G01 X5.39515 Y-3.23228
G01 X5.39934 Y-3.23272
G01 X5.40605 Y-3.23571
G01 X5.40879 Y-3.23818
G01 X5.41247 Y-3.24454
G01 X5.41323 Y-3.24815
G01 X5.41323 Y-3.25185
G01 X5.41096 Y-3.25883
G01 X5.40605 Y-3.26429
G01 X5.39934 Y-3.26728
G01 X5.39515 Y-3.26772
G01 X5.35288 Y-3.26772
G01 X5.34869 Y-3.26728
G01 X5.34518 Y-3.26613
G01 X5.34198 Y-3.26429
G01 X5.33502 Y-3.25719
G01 X5.33159 Y-3.25583
G01 X5.29429 Y-3.25566
G01 X5.29165 Y-3.25518
G01 X5.28946 Y-3.25366
G01 X5.21935 Y-3.18333
G01 X5.21836 Y-3.17973
G01 X5.21818 Y-2.98406
G01 X5.21560 Y-2.97910
G01 X5.20431 Y-2.97189
G01 X5.20019 Y-2.96731
G01 X5.19711 Y-2.96198
G01 X5.19527 Y-2.95634
G01 X5.19456 Y-2.95000
G01 X5.21238 Y-2.95000
G01 X5.21263 Y-2.95242
G01 X5.21460 Y-2.95684
G01 X5.21820 Y-2.96008
G01 X5.22401 Y-2.96319
G01 X5.22983 Y-2.96008
G01 X5.23343 Y-2.95684
G01 X5.23540 Y-2.95242
G01 X5.23565 Y-2.95000
G01 X5.23347 Y-2.94062
G01 X5.22523 Y-2.93842
G01 X5.22042 Y-2.93893
G01 X5.21623 Y-2.94135
G01 X5.21338 Y-2.94527
G01 X5.21238 Y-2.95000
G04 P0 ( dwell for no time -- G64 should not smooth over this point )
G00 Z0.08000 ( retract )

G00 X5.45675 Y-2.85000 ( rapid move to begin. )
G01 F180.00000
( Mill infeed pass 1/1 )
G01 Z-0.04000
G04 P0 ( dwell for no time -- G64 should not smooth over this point )
G01 F360.00000
G01 X5.45675 Y-2.85000
G01 X5.45709 Y-2.84674
G01 X5.45974 Y-2.84077
G01 X5.46459 Y-2.83641
G01 X5.46952 Y-2.83466
G01 X5.47408 Y-2.83439
G01 X5.48029 Y-2.83641
G01 X5.48294 Y-2.83834
G01 X5.48678 Y-2.84362
G01 X5.48779 Y-2.84674
G01 X5.48815 Y-2.85577
G01 X5.49072 Y-2.86028
G01 X5.57190 Y-2.94146
G01 X5.57694 Y-2.94415
G01 X5.58790 Y-2.94434
G01 X5.59136 Y-2.94371
G01 X5.59560 Y-2.94064
G01 X5.60019 Y-2.93269
G01 X5.60431 Y-2.92811
G01 X5.60929 Y-2.92449
G01 X5.61491 Y-2.92199
G01 X5.62094 Y-2.92071
G01 X5.62709 Y-2.92071
G01 X5.63312 Y-2.92199
G01 X5.63874 Y-2.92449
G01 X5.64372 Y-2.92811
G01 X5.64784 Y-2.93269
G01 X5.65281 Y-2.94109
G01 X5.65612 Y-2.94349
G01 X5.66013 Y-2.94434
G01 X5.96339 Y-2.94434
G01 X5.96716 Y-2.94359
G01 X5.97035 Y-2.94146
G01 X6.12656 Y-2.78525
G01 X6.12981 Y-2.78341
G01 X6.62480 Y-2.78341
G01 X6.62804 Y-2.78525
G01 X6.75353 Y-2.91095
G01 X6.75452 Y-2.91456
G01 X6.75437 Y-2.98702
G01 X6.75252 Y-2.99027
G01 X6.56665 Y-3.17592
G01 X6.56305 Y-3.17692
G01 X6.51644 Y-3.17709
G01 X6.51155 Y-3.17958
G01 X6.50605 Y-3.18555
G01 X6.49934 Y-3.18854
G01 X6.49515 Y-3.18898
G01 X6.45288 Y-3.18898
G01 X6.44869 Y-3.18854
G01 X6.44518 Y-3.18739
G01 X6.43924 Y-3.18308
G01 X6.43556 Y-3.17672
G01 X6.43480 Y-3.16941
G01 X6.43556 Y-3.16580
G01 X6.43924 Y-3.15944
G01 X6.44518 Y-3.15512
G01 X6.44869 Y-3.15398
G01 X6.45288 Y-3.15354
G01 X6.49515 Y-3.15354
G01 X6.49934 Y-3.15398
G01 X6.50605 Y-3.15697
G01 X6.51301 Y-3.16407
G01 X6.51828 Y-3.16560
G01 X6.55711 Y-3.16560
G01 X6.56258 Y-3.16394
G01 X6.74032 Y-2.98647
G01 X6.74246 Y-2.98327
G01 X6.74321 Y-2.97951
G01 X6.74321 Y-2.92049
G01 X6.74155 Y-2.91502
G01 X6.62424 Y-2.79745
G01 X6.62105 Y-2.79531
G01 X6.61728 Y-2.79457
G01 X6.13540 Y-2.79475
G01 X6.13036 Y-2.79745
G01 X5.97416 Y-2.95366
G01 X5.97196 Y-2.95518
G01 X5.96933 Y-2.95566
G01 X5.66013 Y-2.95566
G01 X5.65612 Y-2.95651
G01 X5.65281 Y-2.95891
G01 X5.64784 Y-2.96731
G01 X5.64372 Y-2.97189
G01 X5.63874 Y-2.97551
G01 X5.63312 Y-2.97801
G01 X5.62709 Y-2.97929
G01 X5.61883 Y-2.97884
G01 X5.61491 Y-2.97801
G01 X5.60929 Y-2.97551
G01 X5.60431 Y-2.97189
G01 X5.60019 Y-2.96731
G01 X5.59522 Y-2.95891
G01 X5.59191 Y-2.95651
G01 X5.58790 Y-2.95566
G01 X5.57292 Y-2.95566
G01 X5.56932 Y-2.95466
G01 X5.48278 Y-2.86834
G01 X5.47766 Y-2.86563
G01 X5.47080 Y-2.86561
G01 X5.46759 Y-2.86492
G01 X5.46194 Y-2.86166
G01 X5.45810 Y-2.85638
G01 X5.45675 Y-2.85000
G04 P0 ( dwell for no time -- G64 should not smooth over this point )
G00 Z0.08000 ( retract )

G00 X5.61054 Y-2.95003 ( rapid move to begin. )
G01 F180.00000
( Mill infeed pass 1/1 )
G01 Z-0.04000
G04 P0 ( dwell for no time -- G64 should not smooth over this point )
G01 F360.00000
G01 X5.61054 Y-2.95003
G01 X5.61623 Y-2.95865
G01 X5.62042 Y-2.96107
G01 X5.62523 Y-2.96157
G01 X5.62761 Y-2.96107
G01 X5.63180 Y-2.95865
G01 X5.63751 Y-2.95000
G01 X5.63180 Y-2.94135
G01 X5.62761 Y-2.93893
G01 X5.62280 Y-2.93842
G01 X5.62042 Y-2.93893
G01 X5.61623 Y-2.94135
G01 X5.61054 Y-2.95003
G04 P0 ( dwell for no time -- G64 should not smooth over this point )
G00 Z0.08000 ( retract )

G00 X5.71351 Y-3.30387 ( rapid move to begin. )
G01 F180.00000
( Mill infeed pass 1/1 )
G01 Z-0.04000
G04 P0 ( dwell for no time -- G64 should not smooth over this point )
G01 F360.00000
G01 X5.71351 Y-3.30387
G01 X5.71917 Y-3.30839
G01 X5.72102 Y-3.30922
G01 X5.72300 Y-3.30964
G01 X5.72701 Y-3.30922
G01 X5.73050 Y-3.30720
G01 X5.73287 Y-3.30394
G01 X5.73371 Y-3.30000
G01 X5.73287 Y-3.29606
G01 X5.73050 Y-3.29280
G01 X5.72886 Y-3.29161
G01 X5.72503 Y-3.29036
G01 X5.72102 Y-3.29078
G01 X5.71753 Y-3.29280
G01 X5.71516 Y-3.29606
G01 X5.71351 Y-3.30387
G04 P0 ( dwell for no time -- G64 should not smooth over this point )
G00 Z0.08000 ( retract )

G00 X5.81417 Y-3.31243 ( rapid move to begin. )
G01 F180.00000
( Mill infeed pass 1/1 )
G01 Z-0.04000
G04 P0 ( dwell for no time -- G64 should not smooth over this point )
G01 F360.00000
G01 X5.81417 Y-3.31243
G01 X5.81906 Y-3.31391
G01 X5.82402 Y-3.31661
G01 X5.82897 Y-3.31391
G01 X5.83417 Y-3.31234
G01 X5.83596 Y-3.30495
G01 X5.83866 Y-3.30000
G01 X5.83596 Y-3.29505
G01 X5.83422 Y-3.28819
G01 X5.81417 Y-3.28819
G01 X5.81417 Y-3.31243
G04 P0 ( dwell for no time -- G64 should not smooth over this point )
G00 Z0.08000 ( retract )

G00 X6.00937 Y-3.30000 ( rapid move to begin. )
G01 F180.00000
( Mill infeed pass 1/1 )
G01 Z-0.04000
G04 P0 ( dwell for no time -- G64 should not smooth over this point )
G01 F360.00000
G01 X6.00937 Y-3.30000
G01 X6.01207 Y-3.29505
G01 X6.01381 Y-3.28819
G01 X6.03386 Y-3.28819
G01 X6.03386 Y-3.31181
G01 X6.01381 Y-3.31181
G01 X6.01207 Y-3.30495
G01 X6.00937 Y-3.30000
G04 P0 ( dwell for no time -- G64 should not smooth over this point )
G00 Z0.08000 ( retract )

G00 X6.09651 Y-3.30000 ( rapid move to begin. )
G01 F180.00000
( Mill infeed pass 1/1 )
G01 Z-0.04000
G04 P0 ( dwell for no time -- G64 should not smooth over this point )
G01 F360.00000
G01 X6.09651 Y-3.30000
G01 X6.09711 Y-3.30572
G01 X6.09889 Y-3.31119
G01 X6.10176 Y-3.31617
G01 X6.10561 Y-3.32044
G01 X6.11026 Y-3.32382
G01 X6.11551 Y-3.32616
G01 X6.12114 Y-3.32735
G01 X6.12689 Y-3.32735
G01 X6.13660 Y-3.32519
G01 X6.14046 Y-3.32591
G01 X6.14374 Y-3.32808
G01 X6.14950 Y-3.33361
G01 X6.15324 Y-3.33465
G01 X6.42993 Y-3.33465
G01 X6.43520 Y-3.33618
G01 X6.44198 Y-3.34303
G01 X6.44869 Y-3.34602
G01 X6.45288 Y-3.34646
G01 X6.49515 Y-3.34646
G01 X6.49934 Y-3.34602
G01 X6.50605 Y-3.34303
G01 X6.51096 Y-3.33757
G01 X6.51323 Y-3.33059
G01 X6.51247 Y-3.32328
G01 X6.50879 Y-3.31692
G01 X6.50285 Y-3.31261
G01 X6.49934 Y-3.31146
G01 X6.49515 Y-3.31102
G01 X6.45288 Y-3.31102
G01 X6.44869 Y-3.31146
G01 X6.44198 Y-3.31445
G01 X6.43520 Y-3.32130
G01 X6.42993 Y-3.32283
G01 X6.15736 Y-3.32264
G01 X6.15232 Y-3.31995
G01 X6.14943 Y-3.31501
G01 X6.14924 Y-3.31142
G01 X6.15092 Y-3.30572
G01 X6.15152 Y-3.30000
G01 X6.15092 Y-3.29428
G01 X6.14914 Y-3.28881
G01 X6.14627 Y-3.28383
G01 X6.14242 Y-3.27956
G01 X6.13777 Y-3.27618
G01 X6.13251 Y-3.27384
G01 X6.12689 Y-3.27264
G01 X6.12114 Y-3.27264
G01 X6.11551 Y-3.27384
G01 X6.11026 Y-3.27618
G01 X6.10561 Y-3.27956
G01 X6.10176 Y-3.28383
G01 X6.09889 Y-3.28881
G01 X6.09711 Y-3.29428
G01 X6.09651 Y-3.30000
G01 X6.11432 Y-3.30000
G01 X6.11516 Y-3.29606
G01 X6.11753 Y-3.29280
G01 X6.12102 Y-3.29078
G01 X6.12503 Y-3.29036
G01 X6.12886 Y-3.29161
G01 X6.13186 Y-3.29430
G01 X6.13349 Y-3.29799
G01 X6.13371 Y-3.30000
G01 X6.13193 Y-3.30800
G01 X6.12503 Y-3.30964
G01 X6.12102 Y-3.30922
G01 X6.11753 Y-3.30720
G01 X6.11516 Y-3.30394
G01 X6.11432 Y-3.30000
G04 P0 ( dwell for no time -- G64 should not smooth over this point )
G00 Z0.08000 ( retract )

G00 X6.38364 Y-3.24501 ( rapid move to begin. )
G01 F180.00000
( Mill infeed pass 1/1 )
G01 Z-0.04000
G04 P0 ( dwell for no time -- G64 should not smooth over this point )
G01 F360.00000
G01 X6.38364 Y-3.24501
G01 X6.38464 Y-3.24861
G01 X6.39166 Y-3.25518
G01 X6.39429 Y-3.25566
G01 X6.43159 Y-3.25583
G01 X6.43502 Y-3.25719
G01 X6.44198 Y-3.26429
G01 X6.44518 Y-3.26613
G01 X6.44869 Y-3.26728
G01 X6.45288 Y-3.26772
G01 X6.49515 Y-3.26772
G01 X6.49934 Y-3.26728
G01 X6.50285 Y-3.26613
G01 X6.50879 Y-3.26182
G01 X6.51247 Y-3.25546
G01 X6.51323 Y-3.24815
G01 X6.51096 Y-3.24117
G01 X6.50605 Y-3.23571
G01 X6.49934 Y-3.23272
G01 X6.49515 Y-3.23228
G01 X6.45288 Y-3.23228
G01 X6.44869 Y-3.23272
G01 X6.44198 Y-3.23571
G01 X6.43502 Y-3.24281
G01 X6.42974 Y-3.24434
G01 X6.40288 Y-3.24415
G01 X6.39933 Y-3.24268
G01 X6.39662 Y-3.23997
G01 X6.39496 Y-3.23450
G01 X6.39496 Y-3.04772
G01 X6.39571 Y-3.04396
G01 X6.39784 Y-3.04076
G01 X6.52868 Y-2.90971
G01 X6.52967 Y-2.90611
G01 X6.52986 Y-2.87367
G01 X6.53133 Y-2.87012
G01 X6.53405 Y-2.86741
G01 X6.53759 Y-2.86594
G01 X6.53976 Y-2.86575
G01 X6.54051 Y-2.86173
G01 X6.54265 Y-2.85854
G01 X6.54584 Y-2.85641
G01 X6.54961 Y-2.85566
G01 X6.56759 Y-2.85566
G01 X6.57306 Y-2.85732
G01 X6.64454 Y-2.92853
G01 X6.64657 Y-2.93148
G01 X6.64741 Y-2.93497
G01 X6.64521 Y-2.94388
G01 X6.64456 Y-2.95000
G01 X6.64521 Y-2.95612
G01 X6.64711 Y-2.96198
G01 X6.65019 Y-2.96731
G01 X6.65431 Y-2.97189
G01 X6.65929 Y-2.97551
G01 X6.66491 Y-2.97801
G01 X6.67094 Y-2.97929
G01 X6.67709 Y-2.97929
G01 X6.68312 Y-2.97801
G01 X6.68874 Y-2.97551
G01 X6.69372 Y-2.97189
G01 X6.69784 Y-2.96731
G01 X6.70092 Y-2.96198
G01 X6.70282 Y-2.95612
G01 X6.70347 Y-2.95000
G01 X6.70282 Y-2.94388
G01 X6.70092 Y-2.93802
G01 X6.69784 Y-2.93269
G01 X6.69372 Y-2.92811
G01 X6.68874 Y-2.92449
G01 X6.68312 Y-2.92199
G01 X6.67709 Y-2.92071
G01 X6.67094 Y-2.92071
G01 X6.65971 Y-2.92345
G01 X6.65411 Y-2.92181
G01 X6.57836 Y-2.84634
G01 X6.57616 Y-2.84482
G01 X6.57353 Y-2.84434
G01 X6.54769 Y-2.84415
G01 X6.54414 Y-2.84268
G01 X6.54142 Y-2.83997
G01 X6.53995 Y-2.83642
G01 X6.53976 Y-2.83425
G01 X6.50827 Y-2.83425
G01 X6.50827 Y-2.86575
G01 X6.51044 Y-2.86594
G01 X6.51398 Y-2.86741
G01 X6.51670 Y-2.87012
G01 X6.51817 Y-2.87367
G01 X6.51836 Y-2.90017
G01 X6.51670 Y-2.90564
G01 X6.38564 Y-3.03696
G01 X6.38412 Y-3.03916
G01 X6.38364 Y-3.04179
G01 X6.38364 Y-3.24501
G04 P0 ( dwell for no time -- G64 should not smooth over this point )
G00 Z0.08000 ( retract )

G00 X6.66238 Y-2.95000 ( rapid move to begin. )
G01 F180.00000
( Mill infeed pass 1/1 )
G01 Z-0.04000
G04 P0 ( dwell for no time -- G64 should not smooth over this point )
G01 F360.00000
G01 X6.66238 Y-2.95000
G01 X6.66456 Y-2.94062
G01 X6.67280 Y-2.93842
G01 X6.67523 Y-2.93842
G01 X6.67983 Y-2.93992
G01 X6.68343 Y-2.94316
G01 X6.68540 Y-2.94758
G01 X6.68565 Y-2.95000
G01 X6.68465 Y-2.95473
G01 X6.68180 Y-2.95865
G01 X6.67761 Y-2.96107
G01 X6.67280 Y-2.96157
G01 X6.66820 Y-2.96008
G01 X6.66460 Y-2.95684
G01 X6.66263 Y-2.95242
G01 X6.66238 Y-2.95000
G04 P0 ( dwell for no time -- G64 should not smooth over this point )
G00 Z0.08000 ( retract )

G00 X6.66047 Y-2.55000 ( rapid move to begin. )
G01 F180.00000
( Mill infeed pass 1/1 )
G01 Z-0.04000
G04 P0 ( dwell for no time -- G64 should not smooth over this point )
G01 F360.00000
G01 X6.66047 Y-2.55000
G01 X6.66623 Y-2.54135
G01 X6.67042 Y-2.53893
G01 X6.67280 Y-2.53842
G01 X6.67761 Y-2.53893
G01 X6.68180 Y-2.54135
G01 X6.68465 Y-2.54527
G01 X6.68565 Y-2.55000
G01 X6.68465 Y-2.55473
G01 X6.68180 Y-2.55865
G01 X6.67761 Y-2.56107
G01 X6.67523 Y-2.56157
G01 X6.67042 Y-2.56107
G01 X6.66623 Y-2.55865
G01 X6.66047 Y-2.55000
G01 X6.28412 Y-2.55567
G01 X6.27983 Y-2.56008
G01 X6.27761 Y-2.56107
G01 X6.27280 Y-2.56157
G01 X6.26820 Y-2.56008
G01 X6.26203 Y-2.55600
G01 X6.28412 Y-2.55567
G01 X6.28756 Y-2.55000
G01 X6.28180 Y-2.54135
G01 X6.27761 Y-2.53893
G01 X6.27280 Y-2.53842
G01 X6.26456 Y-2.54062
G01 X6.26263 Y-2.54758
G01 X6.26203 Y-2.55600
G04 P0 ( dwell for no time -- G64 should not smooth over this point )
G00 Z0.08000 ( retract )

G00 X6.25686 Y-2.94792 ( rapid move to begin. )
G01 F180.00000
( Mill infeed pass 1/1 )
G01 Z-0.04000
G04 P0 ( dwell for no time -- G64 should not smooth over this point )
G01 F360.00000
G01 X6.25686 Y-2.94792
G01 X6.27076 Y-2.93402
G01 X6.27395 Y-2.93674
G01 X6.27983 Y-2.93992
G01 X6.28343 Y-2.94316
G01 X6.28540 Y-2.94758
G01 X6.28540 Y-2.95242
G01 X6.28343 Y-2.95684
G01 X6.28180 Y-2.95865
G01 X6.27761 Y-2.96107
G01 X6.27280 Y-2.96157
G01 X6.27042 Y-2.96107
G01 X6.26623 Y-2.95865
G01 X6.26095 Y-2.95167
G01 X6.25686 Y-2.94792
G04 P0 ( dwell for no time -- G64 should not smooth over this point )
G00 Z0.08000 ( retract )

G00 X5.96811 Y-2.75001 ( rapid move to begin. )
G01 F180.00000
( Mill infeed pass 1/1 )
G01 Z-0.04000
G04 P0 ( dwell for no time -- G64 should not smooth over this point )
G01 F360.00000
G01 X5.96811 Y-2.75001
G01 X5.97992 Y-2.75001
G01 X5.97992 Y-2.73819
G01 X5.96811 Y-2.73819
G01 X5.96811 Y-2.75001
G01 X5.95039 Y-2.76772
G01 X5.99764 Y-2.76772
G01 X5.99764 Y-2.71940
G01 X5.98840 Y-2.72047
G01 X5.95039 Y-2.72047
G01 X5.95039 Y-2.76772
G01 X5.93267 Y-2.78544
G01 X6.01536 Y-2.78544
G01 X6.01536 Y-2.69253
G01 X6.00072 Y-2.69985
G01 X5.99264 Y-2.70243
G01 X5.93267 Y-2.70276
G01 X5.93267 Y-2.78544
G04 P0 ( dwell for no time -- G64 should not smooth over this point )
G00 Z0.08000 ( retract )

G00 X5.96472 Y-2.51234 ( rapid move to begin. )
G01 F180.00000
( Mill infeed pass 1/1 )
G01 Z-0.04000
G04 P0 ( dwell for no time -- G64 should not smooth over this point )
G01 F360.00000
G01 X5.96472 Y-2.51234
G01 X5.96724 Y-2.50199
G01 X5.97992 Y-2.50199
G01 X5.97992 Y-2.51381
G01 X5.96516 Y-2.51381
G01 X5.96472 Y-2.51234
G01 X5.94572 Y-2.51220
G01 X5.94952 Y-2.52299
G01 X5.95036 Y-2.53152
G01 X5.99764 Y-2.53152
G01 X5.99764 Y-2.48427
G01 X5.95039 Y-2.48427
G01 X5.94963 Y-2.50088
G01 X5.94736 Y-2.50889
G01 X5.94572 Y-2.51220
G01 X5.92439 Y-2.51216
G01 X5.92858 Y-2.50705
G01 X5.93083 Y-2.50251
G01 X5.93221 Y-2.49764
G01 X5.93267 Y-2.46656
G01 X6.01536 Y-2.46656
G01 X6.01536 Y-2.54924
G01 X5.93267 Y-2.54924
G01 X5.93267 Y-2.53182
G01 X5.93214 Y-2.52644
G01 X5.93058 Y-2.52127
G01 X5.92803 Y-2.51651
G01 X5.92439 Y-2.51216
G04 P0 ( dwell for no time -- G64 should not smooth over this point )
G00 Z0.08000 ( retract )

G00 X5.78092 Y-2.62600 ( rapid move to begin. )
G01 F180.00000
( Mill infeed pass 1/1 )
G01 Z-0.04000
G04 P0 ( dwell for no time -- G64 should not smooth over this point )
G01 F360.00000
G01 X5.78092 Y-2.62600
G01 X5.78216 Y-2.62009
G01 X5.79492 Y-2.62009
G01 X5.79492 Y-2.63191
G01 X5.78216 Y-2.63191
G01 X5.78092 Y-2.62600
G01 X5.76250 Y-2.62600
G01 X5.76452 Y-2.61933
G01 X5.76539 Y-2.61050
G01 X5.76539 Y-2.60237
G01 X5.81264 Y-2.60237
G01 X5.81264 Y-2.64962
G01 X5.76539 Y-2.64962
G01 X5.76539 Y-2.64150
G01 X5.76452 Y-2.63267
G01 X5.76250 Y-2.62600
G01 X5.74287 Y-2.62600
G01 X5.74558 Y-2.62105
G01 X5.74714 Y-2.61588
G01 X5.74767 Y-2.61050
G01 X5.74767 Y-2.58466
G01 X5.83036 Y-2.58466
G01 X5.83036 Y-2.66734
G01 X5.74767 Y-2.66734
G01 X5.74767 Y-2.64150
G01 X5.74714 Y-2.63612
G01 X5.74558 Y-2.63095
G01 X5.74287 Y-2.62600
G04 P0 ( dwell for no time -- G64 should not smooth over this point )
G00 Z0.08000 ( retract )

G00 X5.61047 Y-2.55000 ( rapid move to begin. )
G01 F180.00000
( Mill infeed pass 1/1 )
G01 Z-0.04000
G04 P0 ( dwell for no time -- G64 should not smooth over this point )
G01 F360.00000
G01 X5.61047 Y-2.55000
G01 X5.61623 Y-2.54135
G01 X5.62042 Y-2.53893
G01 X5.62523 Y-2.53842
G01 X5.63347 Y-2.54062
G01 X5.63565 Y-2.55000
G01 X5.63465 Y-2.55473
G01 X5.63180 Y-2.55865
G01 X5.62761 Y-2.56107
G01 X5.62280 Y-2.56157
G01 X5.62042 Y-2.56107
G01 X5.61623 Y-2.55865
G01 X5.61047 Y-2.55000
G01 X5.23756 Y-2.55000
G04 P0 ( dwell for no time -- G64 should not smooth over this point )
G00 Z0.08000 ( retract )

G00 X5.23756 Y-2.55000 ( rapid move to begin. )
G01 F180.00000
( Mill infeed pass 1/1 )
G01 Z-0.04000
G04 P0 ( dwell for no time -- G64 should not smooth over this point )
G01 F360.00000
G01 X5.23756 Y-2.55000
G01 X5.23337 Y-2.54309
G01 X5.22983 Y-2.53992
G01 X5.22761 Y-2.53893
G01 X5.22280 Y-2.53842
G01 X5.22042 Y-2.53893
G01 X5.21623 Y-2.54135
G01 X5.21338 Y-2.54527
G01 X5.21238 Y-2.55000
G01 X5.23756 Y-2.55000
G01 X5.23180 Y-2.55865
G01 X5.22761 Y-2.56107
G01 X5.22523 Y-2.56157
G01 X5.22042 Y-2.56107
G01 X5.21623 Y-2.55865
G01 X5.21338 Y-2.55473
G01 X5.21238 Y-2.55000
G01 X5.19456 Y-2.55000
G01 X5.19521 Y-2.54387
G01 X5.19711 Y-2.53802
G01 X5.20019 Y-2.53269
G01 X5.20393 Y-2.52853
G01 X5.20929 Y-2.52449
G01 X5.21491 Y-2.52199
G01 X5.22094 Y-2.52071
G01 X5.22775 Y-2.52085
G01 X5.23312 Y-2.52199
G01 X5.23874 Y-2.52449
G01 X5.24372 Y-2.52811
G01 X5.24782 Y-2.53266
G01 X5.25149 Y-2.53911
G01 X5.25369 Y-2.54176
G01 X5.25666 Y-2.54349
G01 X5.26005 Y-2.54409
G01 X5.58970 Y-2.54394
G01 X5.59293 Y-2.54276
G01 X5.59556 Y-2.54054
G01 X5.60021 Y-2.53266
G01 X5.60431 Y-2.52811
G01 X5.60929 Y-2.52449
G01 X5.61491 Y-2.52199
G01 X5.62094 Y-2.52071
G01 X5.62709 Y-2.52071
G01 X5.63832 Y-2.52345
G01 X5.64392 Y-2.52181
G01 X5.76617 Y-2.39984
G01 X5.76837 Y-2.39832
G01 X5.77100 Y-2.39784
G01 X6.12861 Y-2.39800
G01 X6.13186 Y-2.39984
G01 X6.25411 Y-2.52181
G01 X6.25971 Y-2.52345
G01 X6.27094 Y-2.52071
G01 X6.27709 Y-2.52071
G01 X6.28312 Y-2.52199
G01 X6.28874 Y-2.52449
G01 X6.29372 Y-2.52811
G01 X6.29782 Y-2.53266
G01 X6.30247 Y-2.54054
G01 X6.30510 Y-2.54276
G01 X6.30833 Y-2.54394
G01 X6.63798 Y-2.54409
G01 X6.64137 Y-2.54349
G01 X6.64434 Y-2.54176
G01 X6.64654 Y-2.53911
G01 X6.65021 Y-2.53266
G01 X6.65431 Y-2.52811
G01 X6.65929 Y-2.52449
G01 X6.66491 Y-2.52199
G01 X6.67094 Y-2.52071
G01 X6.67709 Y-2.52071
G01 X6.68312 Y-2.52199
G01 X6.68874 Y-2.52449
G01 X6.69372 Y-2.52811
G01 X6.69784 Y-2.53269
G01 X6.70092 Y-2.53802
G01 X6.70282 Y-2.54388
G01 X6.70347 Y-2.55000
G01 X6.70282 Y-2.55612
G01 X6.70092 Y-2.56198
G01 X6.69696 Y-2.56829
G01 X6.69372 Y-2.57189
G01 X6.68874 Y-2.57551
G01 X6.68312 Y-2.57801
G01 X6.67709 Y-2.57929
G01 X6.67094 Y-2.57929
G01 X6.66491 Y-2.57801
G01 X6.65929 Y-2.57551
G01 X6.65431 Y-2.57189
G01 X6.65021 Y-2.56734
G01 X6.64654 Y-2.56088
G01 X6.64434 Y-2.55824
G01 X6.64137 Y-2.55651
G01 X6.63798 Y-2.55591
G01 X6.31005 Y-2.55591
G01 X6.30666 Y-2.55651
G01 X6.30369 Y-2.55824
G01 X6.30149 Y-2.56088
G01 X6.29782 Y-2.56734
G01 X6.29372 Y-2.57189
G01 X6.28874 Y-2.57551
G01 X6.28312 Y-2.57801
G01 X6.27709 Y-2.57929
G01 X6.27094 Y-2.57929
G01 X6.26491 Y-2.57801
G01 X6.25929 Y-2.57551
G01 X6.25150 Y-2.57065
G01 X6.24620 Y-2.57070
G01 X6.03851 Y-2.67435
G01 X6.03563 Y-2.67654
G01 X6.03374 Y-2.67961
G01 X6.03307 Y-2.68316
G01 X6.03307 Y-2.80316
G01 X5.91496 Y-2.80316
G01 X5.91496 Y-2.68504
G01 X5.98840 Y-2.68504
G01 X5.99139 Y-2.68458
G01 X6.23927 Y-2.56077
G01 X6.24238 Y-2.55833
G01 X6.24428 Y-2.55486
G01 X6.24521 Y-2.54388
G01 X6.24741 Y-2.53497
G01 X6.24657 Y-2.53148
G01 X6.24454 Y-2.52853
G01 X6.12805 Y-2.41204
G01 X6.12301 Y-2.40935
G01 X5.77694 Y-2.40916
G01 X5.77317 Y-2.40991
G01 X5.76998 Y-2.41204
G01 X5.65349 Y-2.52853
G01 X5.65146 Y-2.53148
G01 X5.65062 Y-2.53497
G01 X5.65282 Y-2.54388
G01 X5.65347 Y-2.55000
G01 X5.65282 Y-2.55612
G01 X5.65092 Y-2.56198
G01 X5.64784 Y-2.56731
G01 X5.64372 Y-2.57189
G01 X5.63874 Y-2.57551
G01 X5.63312 Y-2.57801
G01 X5.62709 Y-2.57929
G01 X5.62094 Y-2.57929
G01 X5.61491 Y-2.57801
G01 X5.60929 Y-2.57551
G01 X5.60431 Y-2.57189
G01 X5.60021 Y-2.56734
G01 X5.59654 Y-2.56088
G01 X5.59434 Y-2.55824
G01 X5.59137 Y-2.55651
G01 X5.58798 Y-2.55591
G01 X5.26005 Y-2.55591
G01 X5.25666 Y-2.55651
G01 X5.25369 Y-2.55824
G01 X5.25149 Y-2.56088
G01 X5.24782 Y-2.56734
G01 X5.24372 Y-2.57189
G01 X5.23874 Y-2.57551
G01 X5.23312 Y-2.57801
G01 X5.22709 Y-2.57929
G01 X5.22094 Y-2.57929
G01 X5.21491 Y-2.57801
G01 X5.20929 Y-2.57551
G01 X5.20431 Y-2.57189
G01 X5.20225 Y-2.56960
G01 X5.20019 Y-2.56731
G01 X5.19711 Y-2.56198
G01 X5.19521 Y-2.55612
G01 X5.19456 Y-2.55000
( Piece #3, position [0;1] )

G04 P0 ( dwell for no time -- G64 should not smooth over this point )
G00 Z0.08000 ( retract )

G00 X5.13651 Y-1.84312 ( rapid move to begin. )
G01 F180.00000
( Mill infeed pass 1/1 )
G01 Z-0.04000
G04 P0 ( dwell for no time -- G64 should not smooth over this point )
G01 F360.00000
G01 X5.13651 Y-1.84312
G01 X5.13651 Y-1.43718
G01 X5.13698 Y-1.43455
G01 X5.13851 Y-1.43235
G01 X5.18038 Y-1.39047
G01 X5.18258 Y-1.38895
G01 X5.18521 Y-1.38848
G01 X5.54054 Y-1.38848
G01 X5.54431 Y-1.38773
G01 X5.54750 Y-1.38559
G01 X5.68600 Y-1.24732
G01 X5.68960 Y-1.24633
G01 X5.72012 Y-1.24633
G01 X5.72388 Y-1.24558
G01 X5.72707 Y-1.24344
G01 X5.72921 Y-1.24025
G01 X5.72996 Y-1.23648
G01 X5.72996 Y-1.19293
G01 X5.83599 Y-1.19293
G01 X5.84146 Y-1.19127
G01 X5.90277 Y-1.13023
G01 X5.90497 Y-1.12870
G01 X5.90954 Y-1.12737
G01 X5.91349 Y-1.12374
G01 X5.91496 Y-1.11858
G01 X5.91496 Y-1.07483
G01 X6.03307 Y-1.07483
G01 X6.03307 Y-1.19294
G01 X5.91496 Y-1.19294
G01 X5.91496 Y-1.15780
G01 X5.91421 Y-1.15404
G01 X5.91058 Y-1.14962
G01 X5.90704 Y-1.14815
G01 X5.90319 Y-1.14815
G01 X5.89965 Y-1.14962
G01 X5.85096 Y-1.19804
G01 X5.84882 Y-1.20124
G01 X5.84807 Y-1.20500
G01 X5.84807 Y-1.31104
G01 X5.72996 Y-1.31104
G01 X5.72996 Y-1.26748
G01 X5.72830 Y-1.26202
G01 X5.72558 Y-1.25930
G01 X5.72204 Y-1.25783
G01 X5.69362 Y-1.25783
G01 X5.68858 Y-1.26052
G01 X5.55131 Y-1.39779
G01 X5.54806 Y-1.39964
G01 X5.19115 Y-1.39979
G01 X5.18738 Y-1.40054
G01 X5.18419 Y-1.40267
G01 X5.15070 Y-1.43616
G01 X5.14857 Y-1.43935
G01 X5.14782 Y-1.44312
G01 X5.14782 Y-1.83719
G01 X5.14857 Y-1.84095
G01 X5.15070 Y-1.84415
G01 X5.32280 Y-2.01624
G01 X5.32784 Y-2.01894
G01 X5.79108 Y-2.01894
G01 X5.79612 Y-2.01624
G01 X5.81547 Y-1.99689
G01 X5.81761 Y-1.99370
G01 X5.81836 Y-1.98993
G01 X5.81836 Y-1.96535
G01 X5.81670 Y-1.95989
G01 X5.81398 Y-1.95717
G01 X5.81044 Y-1.95570
G01 X5.79646 Y-1.95551
G01 X5.79646 Y-1.89646
G01 X5.85157 Y-1.89646
G01 X5.85157 Y-1.91048
G01 X5.85232 Y-1.91425
G01 X5.85595 Y-1.91867
G01 X5.86142 Y-1.92033
G01 X5.98853 Y-1.92014
G01 X5.99357 Y-1.91744
G01 X5.99571 Y-1.91425
G01 X5.99645 Y-1.91048
G01 X5.99645 Y-1.89646
G01 X6.05157 Y-1.89646
G01 X6.05157 Y-1.95551
G01 X5.99645 Y-1.95551
G01 X5.99645 Y-1.94148
G01 X5.99571 Y-1.93772
G01 X5.99357 Y-1.93452
G01 X5.98853 Y-1.93183
G01 X5.85950 Y-1.93183
G01 X5.85446 Y-1.93452
G01 X5.85232 Y-1.93772
G01 X5.85157 Y-1.94148
G01 X5.85157 Y-1.95551
G01 X5.83759 Y-1.95570
G01 X5.83405 Y-1.95717
G01 X5.83042 Y-1.96159
G01 X5.82967 Y-1.96535
G01 X5.82967 Y-1.99587
G01 X5.82868 Y-1.99947
G01 X5.79993 Y-2.02844
G01 X5.79668 Y-2.03029
G01 X5.32225 Y-2.03029
G01 X5.31900 Y-2.02844
G01 X5.13851 Y-1.84795
G01 X5.13698 Y-1.84575
G01 X5.13651 Y-1.84312
G04 P0 ( dwell for no time -- G64 should not smooth over this point )
G00 Z0.08000 ( retract )

G00 X5.33480 Y-1.95657 ( rapid move to begin. )
G01 F180.00000
( Mill infeed pass 1/1 )
G01 Z-0.04000
G04 P0 ( dwell for no time -- G64 should not smooth over this point )
G01 F360.00000
G01 X5.33480 Y-1.95657
G01 X5.33556 Y-1.94927
G01 X5.33924 Y-1.94291
G01 X5.34518 Y-1.93859
G01 X5.34869 Y-1.93745
G01 X5.35288 Y-1.93701
G01 X5.39515 Y-1.93701
G01 X5.39934 Y-1.93745
G01 X5.40605 Y-1.94043
G01 X5.41283 Y-1.94728
G01 X5.41810 Y-1.94882
G01 X5.64420 Y-1.94867
G01 X5.69198 Y-1.93121
G01 X5.69570 Y-1.92726
G01 X5.69889 Y-1.91480
G01 X5.70176 Y-1.90982
G01 X5.70561 Y-1.90554
G01 X5.71026 Y-1.90216
G01 X5.71552 Y-1.89983
G01 X5.72114 Y-1.89863
G01 X5.72689 Y-1.89863
G01 X5.73251 Y-1.89983
G01 X5.73777 Y-1.90216
G01 X5.74242 Y-1.90554
G01 X5.74627 Y-1.90982
G01 X5.74914 Y-1.91480
G01 X5.75092 Y-1.92027
G01 X5.75152 Y-1.92598
G01 X5.75092 Y-1.93170
G01 X5.74914 Y-1.93717
G01 X5.74627 Y-1.94215
G01 X5.74067 Y-1.94770
G01 X5.73777 Y-1.94980
G01 X5.73251 Y-1.95214
G01 X5.72689 Y-1.95334
G01 X5.72114 Y-1.95334
G01 X5.71552 Y-1.95214
G01 X5.71026 Y-1.94980
G01 X5.70191 Y-1.94346
G01 X5.69621 Y-1.94262
G01 X5.64770 Y-1.96013
G01 X5.64484 Y-1.96063
G01 X5.41810 Y-1.96063
G01 X5.41283 Y-1.96216
G01 X5.40605 Y-1.96901
G01 X5.39934 Y-1.97200
G01 X5.39515 Y-1.97244
G01 X5.35288 Y-1.97244
G01 X5.34869 Y-1.97200
G01 X5.34198 Y-1.96901
G01 X5.33707 Y-1.96356
G01 X5.33480 Y-1.95657
G04 P0 ( dwell for no time -- G64 should not smooth over this point )
G00 Z0.08000 ( retract )

G00 X5.33480 Y-1.79909 ( rapid move to begin. )
G01 F180.00000
( Mill infeed pass 1/1 )
G01 Z-0.04000
G04 P0 ( dwell for no time -- G64 should not smooth over this point )
G01 F360.00000
G01 X5.33480 Y-1.79909
G01 X5.33556 Y-1.79179
G01 X5.33924 Y-1.78543
G01 X5.34518 Y-1.78111
G01 X5.34869 Y-1.77997
G01 X5.35288 Y-1.77953
G01 X5.39515 Y-1.77953
G01 X5.39934 Y-1.77997
G01 X5.40605 Y-1.78295
G01 X5.41283 Y-1.78980
G01 X5.41810 Y-1.79134
G01 X6.01222 Y-1.79115
G01 X6.01725 Y-1.78845
G01 X6.26645 Y-1.53899
G01 X6.26811 Y-1.53352
G01 X6.26811 Y-1.47647
G01 X6.26860 Y-1.47374
G01 X6.27076 Y-1.47111
G01 X6.27450 Y-1.47008
G01 X6.40552 Y-1.47008
G01 X6.41027 Y-1.46886
G01 X6.41774 Y-1.46239
G01 X6.42154 Y-1.46089
G01 X6.42723 Y-1.46038
G01 X6.43344 Y-1.46239
G01 X6.43609 Y-1.46432
G01 X6.43949 Y-1.46884
G01 X6.44094 Y-1.47272
G01 X6.44094 Y-1.47925
G01 X6.43829 Y-1.48521
G01 X6.43344 Y-1.48958
G01 X6.42723 Y-1.49159
G01 X6.42395 Y-1.49159
G01 X6.41774 Y-1.48958
G01 X6.41027 Y-1.48311
G01 X6.40552 Y-1.48189
G01 X6.28976 Y-1.48189
G01 X6.28430 Y-1.48355
G01 X6.28158 Y-1.48626
G01 X6.27992 Y-1.49173
G01 X6.28009 Y-1.54203
G01 X6.28267 Y-1.54699
G01 X6.29372 Y-1.55410
G01 X6.29784 Y-1.55867
G01 X6.30092 Y-1.56400
G01 X6.30282 Y-1.56986
G01 X6.30347 Y-1.57598
G01 X6.30282 Y-1.58211
G01 X6.30092 Y-1.58796
G01 X6.29784 Y-1.59330
G01 X6.29372 Y-1.59787
G01 X6.28874 Y-1.60149
G01 X6.28312 Y-1.60400
G01 X6.27920 Y-1.60483
G01 X6.27094 Y-1.60528
G01 X6.26491 Y-1.60400
G01 X6.25929 Y-1.60149
G01 X6.25431 Y-1.59787
G01 X6.25019 Y-1.59330
G01 X6.24772 Y-1.58943
G01 X6.24453 Y-1.58705
G01 X6.24264 Y-1.58639
G01 X6.23866 Y-1.58628
G01 X6.23496 Y-1.58775
G01 X6.02134 Y-1.80108
G01 X6.01796 Y-1.80299
G01 X5.41810 Y-1.80315
G01 X5.41283 Y-1.80468
G01 X5.40605 Y-1.81153
G01 X5.39934 Y-1.81452
G01 X5.39515 Y-1.81496
G01 X5.35288 Y-1.81496
G01 X5.34869 Y-1.81452
G01 X5.34198 Y-1.81153
G01 X5.33707 Y-1.80607
G01 X5.33480 Y-1.79909
G04 P0 ( dwell for no time -- G64 should not smooth over this point )
G00 Z0.08000 ( retract )

G00 X5.19456 Y-1.57598 ( rapid move to begin. )
G01 F180.00000
( Mill infeed pass 1/1 )
G01 Z-0.04000
G04 P0 ( dwell for no time -- G64 should not smooth over this point )
G01 F360.00000
G01 X5.19456 Y-1.57598
G01 X5.19521 Y-1.56986
G01 X5.19711 Y-1.56400
G01 X5.20019 Y-1.55867
G01 X5.20431 Y-1.55410
G01 X5.20929 Y-1.55048
G01 X5.21491 Y-1.54797
G01 X5.22094 Y-1.54669
G01 X5.22709 Y-1.54669
G01 X5.23832 Y-1.54943
G01 X5.24392 Y-1.54780
G01 X5.32090 Y-1.47132
G01 X5.32450 Y-1.47033
G01 X5.35034 Y-1.47014
G01 X5.35389 Y-1.46867
G01 X5.35661 Y-1.46595
G01 X5.35808 Y-1.46240
G01 X5.35827 Y-1.46024
G01 X5.38976 Y-1.46024
G01 X5.38976 Y-1.49173
G01 X5.35827 Y-1.49173
G01 X5.35808 Y-1.48956
G01 X5.35661 Y-1.48602
G01 X5.35389 Y-1.48330
G01 X5.35034 Y-1.48183
G01 X5.33044 Y-1.48164
G01 X5.32667 Y-1.48239
G01 X5.32348 Y-1.48452
G01 X5.25349 Y-1.55451
G01 X5.25146 Y-1.55747
G01 X5.25069 Y-1.56276
G01 X5.25282 Y-1.56986
G01 X5.25347 Y-1.57598
G01 X5.25282 Y-1.58211
G01 X5.25092 Y-1.58796
G01 X5.24784 Y-1.59330
G01 X5.24372 Y-1.59787
G01 X5.23243 Y-1.60508
G01 X5.23039 Y-1.60823
G01 X5.22967 Y-1.61192
G01 X5.22967 Y-1.79978
G01 X5.23042 Y-1.80354
G01 X5.23256 Y-1.80674
G01 X5.29326 Y-1.86744
G01 X5.29646 Y-1.86958
G01 X5.30022 Y-1.87033
G01 X5.33159 Y-1.87015
G01 X5.33648 Y-1.86766
G01 X5.34198 Y-1.86170
G01 X5.34869 Y-1.85871
G01 X5.35288 Y-1.85827
G01 X5.39515 Y-1.85827
G01 X5.39934 Y-1.85871
G01 X5.40605 Y-1.86169
G01 X5.40879 Y-1.86417
G01 X5.41247 Y-1.87053
G01 X5.41323 Y-1.87414
G01 X5.41323 Y-1.87783
G01 X5.41096 Y-1.88482
G01 X5.40605 Y-1.89027
G01 X5.39934 Y-1.89326
G01 X5.39515 Y-1.89370
G01 X5.35288 Y-1.89370
G01 X5.34869 Y-1.89326
G01 X5.34518 Y-1.89212
G01 X5.34198 Y-1.89027
G01 X5.33502 Y-1.88317
G01 X5.33159 Y-1.88182
G01 X5.29429 Y-1.88164
G01 X5.29165 Y-1.88117
G01 X5.28946 Y-1.87964
G01 X5.21935 Y-1.80931
G01 X5.21836 Y-1.80571
G01 X5.21818 Y-1.61004
G01 X5.21560 Y-1.60508
G01 X5.20431 Y-1.59787
G01 X5.20019 Y-1.59330
G01 X5.19711 Y-1.58796
G01 X5.19527 Y-1.58232
G01 X5.19456 Y-1.57598
G01 X5.21238 Y-1.57598
G01 X5.21263 Y-1.57840
G01 X5.21460 Y-1.58283
G01 X5.21820 Y-1.58606
G01 X5.22401 Y-1.58917
G01 X5.22983 Y-1.58606
G01 X5.23343 Y-1.58283
G01 X5.23540 Y-1.57840
G01 X5.23565 Y-1.57598
G01 X5.23347 Y-1.56661
G01 X5.22523 Y-1.56441
G01 X5.22042 Y-1.56491
G01 X5.21623 Y-1.56733
G01 X5.21338 Y-1.57125
G01 X5.21238 Y-1.57598
G04 P0 ( dwell for no time -- G64 should not smooth over this point )
G00 Z0.08000 ( retract )

G00 X5.45675 Y-1.47598 ( rapid move to begin. )
G01 F180.00000
( Mill infeed pass 1/1 )
G01 Z-0.04000
G04 P0 ( dwell for no time -- G64 should not smooth over this point )
G01 F360.00000
G01 X5.45675 Y-1.47598
G01 X5.45709 Y-1.47272
G01 X5.45974 Y-1.46676
G01 X5.46459 Y-1.46239
G01 X5.46952 Y-1.46065
G01 X5.47408 Y-1.46038
G01 X5.48029 Y-1.46239
G01 X5.48294 Y-1.46432
G01 X5.48678 Y-1.46960
G01 X5.48779 Y-1.47272
G01 X5.48815 Y-1.48175
G01 X5.49072 Y-1.48627
G01 X5.57190 Y-1.56744
G01 X5.57694 Y-1.57014
G01 X5.58790 Y-1.57033
G01 X5.59136 Y-1.56970
G01 X5.59560 Y-1.56662
G01 X5.60019 Y-1.55867
G01 X5.60431 Y-1.55410
G01 X5.60929 Y-1.55048
G01 X5.61491 Y-1.54797
G01 X5.62094 Y-1.54669
G01 X5.62709 Y-1.54669
G01 X5.63312 Y-1.54797
G01 X5.63874 Y-1.55048
G01 X5.64372 Y-1.55410
G01 X5.64784 Y-1.55867
G01 X5.65281 Y-1.56707
G01 X5.65612 Y-1.56948
G01 X5.66013 Y-1.57033
G01 X5.96339 Y-1.57033
G01 X5.96716 Y-1.56958
G01 X5.97035 Y-1.56744
G01 X6.12656 Y-1.41123
G01 X6.12981 Y-1.40939
G01 X6.62480 Y-1.40939
G01 X6.62804 Y-1.41123
G01 X6.75353 Y-1.53694
G01 X6.75452 Y-1.54054
G01 X6.75437 Y-1.61301
G01 X6.75252 Y-1.61625
G01 X6.56665 Y-1.80191
G01 X6.56305 Y-1.80290
G01 X6.51644 Y-1.80307
G01 X6.51155 Y-1.80557
G01 X6.50605 Y-1.81153
G01 X6.49934 Y-1.81452
G01 X6.49515 Y-1.81496
G01 X6.45288 Y-1.81496
G01 X6.44869 Y-1.81452
G01 X6.44518 Y-1.81338
G01 X6.43924 Y-1.80906
G01 X6.43556 Y-1.80270
G01 X6.43480 Y-1.79540
G01 X6.43556 Y-1.79179
G01 X6.43924 Y-1.78543
G01 X6.44518 Y-1.78111
G01 X6.44869 Y-1.77997
G01 X6.45288 Y-1.77953
G01 X6.49515 Y-1.77953
G01 X6.49934 Y-1.77997
G01 X6.50605 Y-1.78295
G01 X6.51301 Y-1.79005
G01 X6.51828 Y-1.79159
G01 X6.55711 Y-1.79159
G01 X6.56258 Y-1.78993
G01 X6.74032 Y-1.61245
G01 X6.74246 Y-1.60926
G01 X6.74321 Y-1.60549
G01 X6.74321 Y-1.54648
G01 X6.74155 Y-1.54101
G01 X6.62424 Y-1.42343
G01 X6.62105 Y-1.42130
G01 X6.61728 Y-1.42055
G01 X6.13540 Y-1.42074
G01 X6.13036 Y-1.42343
G01 X5.97416 Y-1.57964
G01 X5.97196 Y-1.58117
G01 X5.96933 Y-1.58164
G01 X5.66013 Y-1.58164
G01 X5.65612 Y-1.58249
G01 X5.65281 Y-1.58490
G01 X5.64784 Y-1.59330
G01 X5.64372 Y-1.59787
G01 X5.63874 Y-1.60149
G01 X5.63312 Y-1.60400
G01 X5.62709 Y-1.60528
G01 X5.61883 Y-1.60483
G01 X5.61491 Y-1.60400
G01 X5.60929 Y-1.60149
G01 X5.60431 Y-1.59787
G01 X5.60019 Y-1.59330
G01 X5.59522 Y-1.58490
G01 X5.59191 Y-1.58249
G01 X5.58790 Y-1.58164
G01 X5.57292 Y-1.58164
G01 X5.56932 Y-1.58065
G01 X5.48278 Y-1.49432
G01 X5.47766 Y-1.49162
G01 X5.47080 Y-1.49159
G01 X5.46759 Y-1.49091
G01 X5.46194 Y-1.48765
G01 X5.45810 Y-1.48237
G01 X5.45675 Y-1.47598
G04 P0 ( dwell for no time -- G64 should not smooth over this point )
G00 Z0.08000 ( retract )

G00 X5.61054 Y-1.57601 ( rapid move to begin. )
G01 F180.00000
( Mill infeed pass 1/1 )
G01 Z-0.04000
G04 P0 ( dwell for no time -- G64 should not smooth over this point )
G01 F360.00000
G01 X5.61054 Y-1.57601
G01 X5.61623 Y-1.58463
G01 X5.62042 Y-1.58705
G01 X5.62523 Y-1.58756
G01 X5.62761 Y-1.58705
G01 X5.63180 Y-1.58463
G01 X5.63751 Y-1.57598
G01 X5.63180 Y-1.56733
G01 X5.62761 Y-1.56491
G01 X5.62280 Y-1.56441
G01 X5.62042 Y-1.56491
G01 X5.61623 Y-1.56733
G01 X5.61054 Y-1.57601
G04 P0 ( dwell for no time -- G64 should not smooth over this point )
G00 Z0.08000 ( retract )

G00 X5.71351 Y-1.92986 ( rapid move to begin. )
G01 F180.00000
( Mill infeed pass 1/1 )
G01 Z-0.04000
G04 P0 ( dwell for no time -- G64 should not smooth over this point )
G01 F360.00000
G01 X5.71351 Y-1.92986
G01 X5.71917 Y-1.93438
G01 X5.72102 Y-1.93520
G01 X5.72300 Y-1.93562
G01 X5.72701 Y-1.93520
G01 X5.73050 Y-1.93319
G01 X5.73287 Y-1.92993
G01 X5.73371 Y-1.92598
G01 X5.73287 Y-1.92204
G01 X5.73050 Y-1.91878
G01 X5.72886 Y-1.91759
G01 X5.72503 Y-1.91635
G01 X5.72102 Y-1.91677
G01 X5.71753 Y-1.91878
G01 X5.71516 Y-1.92204
G01 X5.71351 Y-1.92986
G04 P0 ( dwell for no time -- G64 should not smooth over this point )
G00 Z0.08000 ( retract )

G00 X5.81417 Y-1.93841 ( rapid move to begin. )
G01 F180.00000
( Mill infeed pass 1/1 )
G01 Z-0.04000
G04 P0 ( dwell for no time -- G64 should not smooth over this point )
G01 F360.00000
G01 X5.81417 Y-1.93841
G01 X5.81906 Y-1.93989
G01 X5.82402 Y-1.94259
G01 X5.82897 Y-1.93989
G01 X5.83417 Y-1.93832
G01 X5.83596 Y-1.93094
G01 X5.83866 Y-1.92598
G01 X5.83596 Y-1.92103
G01 X5.83422 Y-1.91417
G01 X5.81417 Y-1.91417
G01 X5.81417 Y-1.93841
G04 P0 ( dwell for no time -- G64 should not smooth over this point )
G00 Z0.08000 ( retract )

G00 X6.00937 Y-1.92598 ( rapid move to begin. )
G01 F180.00000
( Mill infeed pass 1/1 )
G01 Z-0.04000
G04 P0 ( dwell for no time -- G64 should not smooth over this point )
G01 F360.00000
G01 X6.00937 Y-1.92598
G01 X6.01207 Y-1.92103
G01 X6.01381 Y-1.91417
G01 X6.03386 Y-1.91417
G01 X6.03386 Y-1.93780
G01 X6.01381 Y-1.93780
G01 X6.01207 Y-1.93094
G01 X6.00937 Y-1.92598
G04 P0 ( dwell for no time -- G64 should not smooth over this point )
G00 Z0.08000 ( retract )

G00 X6.09651 Y-1.92598 ( rapid move to begin. )
G01 F180.00000
( Mill infeed pass 1/1 )
G01 Z-0.04000
G04 P0 ( dwell for no time -- G64 should not smooth over this point )
G01 F360.00000
G01 X6.09651 Y-1.92598
G01 X6.09711 Y-1.93170
G01 X6.09889 Y-1.93717
G01 X6.10176 Y-1.94215
G01 X6.10561 Y-1.94642
G01 X6.11026 Y-1.94980
G01 X6.11551 Y-1.95214
G01 X6.12114 Y-1.95334
G01 X6.12689 Y-1.95334
G01 X6.13660 Y-1.95118
G01 X6.14046 Y-1.95189
G01 X6.14374 Y-1.95406
G01 X6.14950 Y-1.95960
G01 X6.15324 Y-1.96063
G01 X6.42993 Y-1.96063
G01 X6.43520 Y-1.96216
G01 X6.44198 Y-1.96901
G01 X6.44869 Y-1.97200
G01 X6.45288 Y-1.97244
G01 X6.49515 Y-1.97244
G01 X6.49934 Y-1.97200
G01 X6.50605 Y-1.96901
G01 X6.51096 Y-1.96356
G01 X6.51323 Y-1.95657
G01 X6.51247 Y-1.94927
G01 X6.50879 Y-1.94291
G01 X6.50285 Y-1.93859
G01 X6.49934 Y-1.93745
G01 X6.49515 Y-1.93701
G01 X6.45288 Y-1.93701
G01 X6.44869 Y-1.93745
G01 X6.44198 Y-1.94043
G01 X6.43520 Y-1.94728
G01 X6.42993 Y-1.94882
G01 X6.15736 Y-1.94863
G01 X6.15232 Y-1.94593
G01 X6.14943 Y-1.94099
G01 X6.14924 Y-1.93741
G01 X6.15092 Y-1.93170
G01 X6.15152 Y-1.92598
G01 X6.15092 Y-1.92026
G01 X6.14914 Y-1.91480
G01 X6.14627 Y-1.90982
G01 X6.14242 Y-1.90554
G01 X6.13777 Y-1.90216
G01 X6.13251 Y-1.89983
G01 X6.12689 Y-1.89863
G01 X6.12114 Y-1.89863
G01 X6.11551 Y-1.89983
G01 X6.11026 Y-1.90216
G01 X6.10561 Y-1.90554
G01 X6.10176 Y-1.90982
G01 X6.09889 Y-1.91480
G01 X6.09711 Y-1.92027
G01 X6.09651 Y-1.92598
G01 X6.11432 Y-1.92598
G01 X6.11516 Y-1.92204
G01 X6.11753 Y-1.91878
G01 X6.12102 Y-1.91677
G01 X6.12503 Y-1.91635
G01 X6.12886 Y-1.91759
G01 X6.13186 Y-1.92029
G01 X6.13349 Y-1.92397
G01 X6.13371 Y-1.92598
G01 X6.13193 Y-1.93398
G01 X6.12503 Y-1.93562
G01 X6.12102 Y-1.93520
G01 X6.11753 Y-1.93319
G01 X6.11516 Y-1.92993
G01 X6.11432 Y-1.92598
G04 P0 ( dwell for no time -- G64 should not smooth over this point )
G00 Z0.08000 ( retract )

G00 X6.38364 Y-1.87100 ( rapid move to begin. )
G01 F180.00000
( Mill infeed pass 1/1 )
G01 Z-0.04000
G04 P0 ( dwell for no time -- G64 should not smooth over this point )
G01 F360.00000
G01 X6.38364 Y-1.87100
G01 X6.38464 Y-1.87460
G01 X6.39166 Y-1.88117
G01 X6.39429 Y-1.88164
G01 X6.43159 Y-1.88182
G01 X6.43502 Y-1.88317
G01 X6.44198 Y-1.89027
G01 X6.44518 Y-1.89212
G01 X6.44869 Y-1.89326
G01 X6.45288 Y-1.89370
G01 X6.49515 Y-1.89370
G01 X6.49934 Y-1.89326
G01 X6.50285 Y-1.89212
G01 X6.50879 Y-1.88780
G01 X6.51247 Y-1.88144
G01 X6.51323 Y-1.87414
G01 X6.51096 Y-1.86715
G01 X6.50605 Y-1.86169
G01 X6.49934 Y-1.85871
G01 X6.49515 Y-1.85827
G01 X6.45288 Y-1.85827
G01 X6.44869 Y-1.85871
G01 X6.44198 Y-1.86169
G01 X6.43502 Y-1.86879
G01 X6.42974 Y-1.87033
G01 X6.40288 Y-1.87014
G01 X6.39933 Y-1.86867
G01 X6.39662 Y-1.86595
G01 X6.39496 Y-1.86048
G01 X6.39496 Y-1.67371
G01 X6.39571 Y-1.66994
G01 X6.39784 Y-1.66675
G01 X6.52868 Y-1.53569
G01 X6.52967 Y-1.53209
G01 X6.52986 Y-1.49965
G01 X6.53133 Y-1.49611
G01 X6.53405 Y-1.49339
G01 X6.53759 Y-1.49192
G01 X6.53976 Y-1.49173
G01 X6.54051 Y-1.48772
G01 X6.54265 Y-1.48452
G01 X6.54584 Y-1.48239
G01 X6.54961 Y-1.48164
G01 X6.56759 Y-1.48164
G01 X6.57306 Y-1.48330
G01 X6.64454 Y-1.55451
G01 X6.64657 Y-1.55747
G01 X6.64741 Y-1.56096
G01 X6.64521 Y-1.56986
G01 X6.64456 Y-1.57598
G01 X6.64521 Y-1.58211
G01 X6.64711 Y-1.58796
G01 X6.65019 Y-1.59330
G01 X6.65431 Y-1.59787
G01 X6.65929 Y-1.60149
G01 X6.66491 Y-1.60400
G01 X6.67094 Y-1.60528
G01 X6.67709 Y-1.60528
G01 X6.68312 Y-1.60400
G01 X6.68874 Y-1.60149
G01 X6.69372 Y-1.59787
G01 X6.69784 Y-1.59330
G01 X6.70092 Y-1.58796
G01 X6.70282 Y-1.58211
G01 X6.70347 Y-1.57598
G01 X6.70282 Y-1.56986
G01 X6.70092 Y-1.56400
G01 X6.69784 Y-1.55867
G01 X6.69372 Y-1.55410
G01 X6.68874 Y-1.55048
G01 X6.68312 Y-1.54797
G01 X6.67709 Y-1.54669
G01 X6.67094 Y-1.54669
G01 X6.65971 Y-1.54943
G01 X6.65411 Y-1.54780
G01 X6.57836 Y-1.47233
G01 X6.57616 Y-1.47080
G01 X6.57353 Y-1.47033
G01 X6.54769 Y-1.47014
G01 X6.54414 Y-1.46867
G01 X6.54142 Y-1.46595
G01 X6.53995 Y-1.46240
G01 X6.53976 Y-1.46024
G01 X6.50827 Y-1.46024
G01 X6.50827 Y-1.49173
G01 X6.51044 Y-1.49192
G01 X6.51398 Y-1.49339
G01 X6.51670 Y-1.49611
G01 X6.51817 Y-1.49965
G01 X6.51836 Y-1.52615
G01 X6.51670 Y-1.53162
G01 X6.38564 Y-1.66294
G01 X6.38412 Y-1.66514
G01 X6.38364 Y-1.66777
G01 X6.38364 Y-1.87100
G04 P0 ( dwell for no time -- G64 should not smooth over this point )
G00 Z0.08000 ( retract )

G00 X6.66238 Y-1.57598 ( rapid move to begin. )
G01 F180.00000
( Mill infeed pass 1/1 )
G01 Z-0.04000
G04 P0 ( dwell for no time -- G64 should not smooth over this point )
G01 F360.00000
G01 X6.66238 Y-1.57598
G01 X6.66456 Y-1.56661
G01 X6.67280 Y-1.56441
G01 X6.67523 Y-1.56441
G01 X6.67983 Y-1.56590
G01 X6.68343 Y-1.56914
G01 X6.68540 Y-1.57356
G01 X6.68565 Y-1.57598
G01 X6.68465 Y-1.58072
G01 X6.68180 Y-1.58463
G01 X6.67761 Y-1.58705
G01 X6.67280 Y-1.58756
G01 X6.66820 Y-1.58606
G01 X6.66460 Y-1.58283
G01 X6.66263 Y-1.57840
G01 X6.66238 Y-1.57598
G04 P0 ( dwell for no time -- G64 should not smooth over this point )
G00 Z0.08000 ( retract )

G00 X6.66047 Y-1.17598 ( rapid move to begin. )
G01 F180.00000
( Mill infeed pass 1/1 )
G01 Z-0.04000
G04 P0 ( dwell for no time -- G64 should not smooth over this point )
G01 F360.00000
G01 X6.66047 Y-1.17598
G01 X6.66623 Y-1.16733
G01 X6.67042 Y-1.16491
G01 X6.67280 Y-1.16441
G01 X6.67761 Y-1.16491
G01 X6.68180 Y-1.16733
G01 X6.68465 Y-1.17125
G01 X6.68565 Y-1.17598
G01 X6.68465 Y-1.18072
G01 X6.68180 Y-1.18463
G01 X6.67761 Y-1.18705
G01 X6.67523 Y-1.18756
G01 X6.67042 Y-1.18705
G01 X6.66623 Y-1.18463
G01 X6.66047 Y-1.17598
G01 X6.28412 Y-1.18166
G01 X6.27983 Y-1.18606
G01 X6.27761 Y-1.18705
G01 X6.27280 Y-1.18756
G01 X6.26820 Y-1.18606
G01 X6.26203 Y-1.18199
G01 X6.28412 Y-1.18166
G01 X6.28756 Y-1.17598
G01 X6.28180 Y-1.16733
G01 X6.27761 Y-1.16491
G01 X6.27280 Y-1.16441
G01 X6.26456 Y-1.16661
G01 X6.26263 Y-1.17356
G01 X6.26203 Y-1.18199
G04 P0 ( dwell for no time -- G64 should not smooth over this point )
G00 Z0.08000 ( retract )

G00 X6.25686 Y-1.57390 ( rapid move to begin. )
G01 F180.00000
( Mill infeed pass 1/1 )
G01 Z-0.04000
G04 P0 ( dwell for no time -- G64 should not smooth over this point )
G01 F360.00000
G01 X6.25686 Y-1.57390
G01 X6.27076 Y-1.56000
G01 X6.27395 Y-1.56273
G01 X6.27983 Y-1.56590
G01 X6.28343 Y-1.56914
G01 X6.28540 Y-1.57356
G01 X6.28540 Y-1.57840
G01 X6.28343 Y-1.58283
G01 X6.28180 Y-1.58463
G01 X6.27761 Y-1.58705
G01 X6.27280 Y-1.58756
G01 X6.27042 Y-1.58705
G01 X6.26623 Y-1.58463
G01 X6.26095 Y-1.57765
G01 X6.25686 Y-1.57390
G04 P0 ( dwell for no time -- G64 should not smooth over this point )
G00 Z0.08000 ( retract )

G00 X5.96811 Y-1.37599 ( rapid move to begin. )
G01 F180.00000
( Mill infeed pass 1/1 )
G01 Z-0.04000
G04 P0 ( dwell for no time -- G64 should not smooth over this point )
G01 F360.00000
G01 X5.96811 Y-1.37599
G01 X5.97992 Y-1.37599
G01 X5.97992 Y-1.36418
G01 X5.96811 Y-1.36418
G01 X5.96811 Y-1.37599
G01 X5.95039 Y-1.39371
G01 X5.99764 Y-1.39371
G01 X5.99764 Y-1.34538
G01 X5.98840 Y-1.34646
G01 X5.95039 Y-1.34646
G01 X5.95039 Y-1.39371
G01 X5.93267 Y-1.41142
G01 X6.01536 Y-1.41142
G01 X6.01536 Y-1.31852
G01 X6.00072 Y-1.32583
G01 X5.99264 Y-1.32841
G01 X5.93267 Y-1.32874
G01 X5.93267 Y-1.41142
G04 P0 ( dwell for no time -- G64 should not smooth over this point )
G00 Z0.08000 ( retract )

G00 X5.96472 Y-1.13832 ( rapid move to begin. )
G01 F180.00000
( Mill infeed pass 1/1 )
G01 Z-0.04000
G04 P0 ( dwell for no time -- G64 should not smooth over this point )
G01 F360.00000
G01 X5.96472 Y-1.13832
G01 X5.96724 Y-1.12798
G01 X5.97992 Y-1.12798
G01 X5.97992 Y-1.13979
G01 X5.96516 Y-1.13979
G01 X5.96472 Y-1.13832
G01 X5.94572 Y-1.13818
G01 X5.94952 Y-1.14897
G01 X5.95036 Y-1.15751
G01 X5.99764 Y-1.15751
G01 X5.99764 Y-1.11026
G01 X5.95039 Y-1.11026
G01 X5.94963 Y-1.12687
G01 X5.94736 Y-1.13488
G01 X5.94572 Y-1.13818
G01 X5.92439 Y-1.13814
G01 X5.92858 Y-1.13304
G01 X5.93083 Y-1.12850
G01 X5.93221 Y-1.12363
G01 X5.93267 Y-1.09254
G01 X6.01536 Y-1.09254
G01 X6.01536 Y-1.17522
G01 X5.93267 Y-1.17522
G01 X5.93267 Y-1.15780
G01 X5.93214 Y-1.15243
G01 X5.93058 Y-1.14726
G01 X5.92803 Y-1.14249
G01 X5.92439 Y-1.13814
G04 P0 ( dwell for no time -- G64 should not smooth over this point )
G00 Z0.08000 ( retract )

G00 X5.78092 Y-1.25198 ( rapid move to begin. )
G01 F180.00000
( Mill infeed pass 1/1 )
G01 Z-0.04000
G04 P0 ( dwell for no time -- G64 should not smooth over this point )
G01 F360.00000
G01 X5.78092 Y-1.25198
G01 X5.78216 Y-1.24608
G01 X5.79492 Y-1.24608
G01 X5.79492 Y-1.25789
G01 X5.78216 Y-1.25789
G01 X5.78092 Y-1.25198
G01 X5.76250 Y-1.25198
G01 X5.76452 Y-1.24532
G01 X5.76539 Y-1.23648
G01 X5.76539 Y-1.22836
G01 X5.81264 Y-1.22836
G01 X5.81264 Y-1.27561
G01 X5.76539 Y-1.27561
G01 X5.76539 Y-1.26748
G01 X5.76452 Y-1.25865
G01 X5.76250 Y-1.25198
G01 X5.74287 Y-1.25198
G01 X5.74558 Y-1.24703
G01 X5.74714 Y-1.24186
G01 X5.74767 Y-1.23648
G01 X5.74767 Y-1.21064
G01 X5.83036 Y-1.21064
G01 X5.83036 Y-1.29332
G01 X5.74767 Y-1.29332
G01 X5.74767 Y-1.26748
G01 X5.74714 Y-1.26211
G01 X5.74558 Y-1.25694
G01 X5.74287 Y-1.25198
G04 P0 ( dwell for no time -- G64 should not smooth over this point )
G00 Z0.08000 ( retract )

G00 X5.61047 Y-1.17598 ( rapid move to begin. )
G01 F180.00000
( Mill infeed pass 1/1 )
G01 Z-0.04000
G04 P0 ( dwell for no time -- G64 should not smooth over this point )
G01 F360.00000
G01 X5.61047 Y-1.17598
G01 X5.61623 Y-1.16733
G01 X5.62042 Y-1.16491
G01 X5.62523 Y-1.16441
G01 X5.63347 Y-1.16661
G01 X5.63565 Y-1.17598
G01 X5.63465 Y-1.18072
G01 X5.63180 Y-1.18463
G01 X5.62761 Y-1.18705
G01 X5.62280 Y-1.18756
G01 X5.62042 Y-1.18705
G01 X5.61623 Y-1.18463
G01 X5.61047 Y-1.17598
G01 X5.23756 Y-1.17598
G04 P0 ( dwell for no time -- G64 should not smooth over this point )
G00 Z0.08000 ( retract )

G00 X5.23756 Y-1.17598 ( rapid move to begin. )
G01 F180.00000
( Mill infeed pass 1/1 )
G01 Z-0.04000
G04 P0 ( dwell for no time -- G64 should not smooth over this point )
G01 F360.00000
G01 X5.23756 Y-1.17598
G01 X5.23337 Y-1.16907
G01 X5.22983 Y-1.16590
G01 X5.22761 Y-1.16491
G01 X5.22280 Y-1.16441
G01 X5.22042 Y-1.16491
G01 X5.21623 Y-1.16733
G01 X5.21338 Y-1.17125
G01 X5.21238 Y-1.17598
G01 X5.23756 Y-1.17598
G01 X5.23180 Y-1.18463
G01 X5.22761 Y-1.18705
G01 X5.22523 Y-1.18756
G01 X5.22042 Y-1.18705
G01 X5.21623 Y-1.18463
G01 X5.21338 Y-1.18072
G01 X5.21238 Y-1.17598
G01 X5.19456 Y-1.17598
G01 X5.19521 Y-1.16986
G01 X5.19711 Y-1.16400
G01 X5.20019 Y-1.15867
G01 X5.20393 Y-1.15451
G01 X5.20929 Y-1.15048
G01 X5.21491 Y-1.14797
G01 X5.22094 Y-1.14669
G01 X5.22775 Y-1.14683
G01 X5.23312 Y-1.14797
G01 X5.23874 Y-1.15048
G01 X5.24372 Y-1.15410
G01 X5.24782 Y-1.15865
G01 X5.25149 Y-1.16510
G01 X5.25369 Y-1.16775
G01 X5.25666 Y-1.16948
G01 X5.26005 Y-1.17008
G01 X5.58970 Y-1.16993
G01 X5.59293 Y-1.16874
G01 X5.59556 Y-1.16652
G01 X5.60021 Y-1.15865
G01 X5.60431 Y-1.15410
G01 X5.60929 Y-1.15048
G01 X5.61491 Y-1.14797
G01 X5.62094 Y-1.14669
G01 X5.62709 Y-1.14669
G01 X5.63832 Y-1.14943
G01 X5.64392 Y-1.14780
G01 X5.76617 Y-1.02582
G01 X5.76837 Y-1.02430
G01 X5.77100 Y-1.02383
G01 X6.12861 Y-1.02398
G01 X6.13186 Y-1.02583
G01 X6.25411 Y-1.14780
G01 X6.25971 Y-1.14943
G01 X6.27094 Y-1.14669
G01 X6.27709 Y-1.14669
G01 X6.28312 Y-1.14797
G01 X6.28874 Y-1.15048
G01 X6.29372 Y-1.15410
G01 X6.29782 Y-1.15865
G01 X6.30247 Y-1.16652
G01 X6.30510 Y-1.16874
G01 X6.30833 Y-1.16993
G01 X6.63798 Y-1.17008
G01 X6.64137 Y-1.16948
G01 X6.64434 Y-1.16775
G01 X6.64654 Y-1.16510
G01 X6.65021 Y-1.15865
G01 X6.65431 Y-1.15410
G01 X6.65929 Y-1.15048
G01 X6.66491 Y-1.14797
G01 X6.67094 Y-1.14669
G01 X6.67709 Y-1.14669
G01 X6.68312 Y-1.14797
G01 X6.68874 Y-1.15048
G01 X6.69372 Y-1.15410
G01 X6.69784 Y-1.15867
G01 X6.70092 Y-1.16400
G01 X6.70282 Y-1.16986
G01 X6.70347 Y-1.17598
G01 X6.70282 Y-1.18211
G01 X6.70092 Y-1.18796
G01 X6.69696 Y-1.19428
G01 X6.69372 Y-1.19787
G01 X6.68874 Y-1.20149
G01 X6.68312 Y-1.20400
G01 X6.67709 Y-1.20528
G01 X6.67094 Y-1.20528
G01 X6.66491 Y-1.20400
G01 X6.65929 Y-1.20149
G01 X6.65431 Y-1.19787
G01 X6.65021 Y-1.19332
G01 X6.64654 Y-1.18687
G01 X6.64434 Y-1.18422
G01 X6.64137 Y-1.18249
G01 X6.63798 Y-1.18189
G01 X6.31005 Y-1.18189
G01 X6.30666 Y-1.18249
G01 X6.30369 Y-1.18422
G01 X6.30149 Y-1.18687
G01 X6.29782 Y-1.19332
G01 X6.29372 Y-1.19787
G01 X6.28874 Y-1.20149
G01 X6.28312 Y-1.20400
G01 X6.27709 Y-1.20528
G01 X6.27094 Y-1.20528
G01 X6.26491 Y-1.20400
G01 X6.25929 Y-1.20149
G01 X6.25150 Y-1.19663
G01 X6.24620 Y-1.19668
G01 X6.03851 Y-1.30034
G01 X6.03563 Y-1.30252
G01 X6.03374 Y-1.30559
G01 X6.03307 Y-1.30914
G01 X6.03307 Y-1.42914
G01 X5.91496 Y-1.42914
G01 X5.91496 Y-1.31103
G01 X5.98840 Y-1.31103
G01 X5.99139 Y-1.31056
G01 X6.23927 Y-1.18675
G01 X6.24238 Y-1.18431
G01 X6.24428 Y-1.18085
G01 X6.24521 Y-1.16986
G01 X6.24741 Y-1.16096
G01 X6.24657 Y-1.15747
G01 X6.24454 Y-1.15451
G01 X6.12805 Y-1.03802
G01 X6.12301 Y-1.03533
G01 X5.77694 Y-1.03514
G01 X5.77317 Y-1.03589
G01 X5.76998 Y-1.03802
G01 X5.65349 Y-1.15451
G01 X5.65146 Y-1.15747
G01 X5.65062 Y-1.16096
G01 X5.65282 Y-1.16986
G01 X5.65347 Y-1.17598
G01 X5.65282 Y-1.18211
G01 X5.65092 Y-1.18796
G01 X5.64784 Y-1.19330
G01 X5.64372 Y-1.19787
G01 X5.63874 Y-1.20149
G01 X5.63312 Y-1.20400
G01 X5.62709 Y-1.20528
G01 X5.62094 Y-1.20528
G01 X5.61491 Y-1.20400
G01 X5.60929 Y-1.20149
G01 X5.60431 Y-1.19787
G01 X5.60021 Y-1.19332
G01 X5.59654 Y-1.18687
G01 X5.59434 Y-1.18422
G01 X5.59137 Y-1.18249
G01 X5.58798 Y-1.18189
G01 X5.26005 Y-1.18189
G01 X5.25666 Y-1.18249
G01 X5.25369 Y-1.18422
G01 X5.25149 Y-1.18687
G01 X5.24782 Y-1.19332
G01 X5.24372 Y-1.19787
G01 X5.23874 Y-1.20149
G01 X5.23312 Y-1.20400
G01 X5.22709 Y-1.20528
G01 X5.22094 Y-1.20528
G01 X5.21491 Y-1.20400
G01 X5.20929 Y-1.20149
G01 X5.20431 Y-1.19787
G01 X5.20225 Y-1.19558
G01 X5.20019 Y-1.19330
G01 X5.19711 Y-1.18796
G01 X5.19521 Y-1.18211
G01 X5.19456 Y-1.17598
( Piece #4, position [1;1] )

G04 P0 ( dwell for no time -- G64 should not smooth over this point )
G00 Z0.08000 ( retract )

G00 X3.16249 Y-1.84312 ( rapid move to begin. )
G01 F180.00000
( Mill infeed pass 1/1 )
G01 Z-0.04000
G04 P0 ( dwell for no time -- G64 should not smooth over this point )
G01 F360.00000
G01 X3.16249 Y-1.84312
G01 X3.16249 Y-1.43718
G01 X3.16297 Y-1.43455
G01 X3.16449 Y-1.43235
G01 X3.20637 Y-1.39047
G01 X3.20856 Y-1.38895
G01 X3.21120 Y-1.38848
G01 X3.56653 Y-1.38848
G01 X3.57030 Y-1.38773
G01 X3.57349 Y-1.38559
G01 X3.71198 Y-1.24732
G01 X3.71558 Y-1.24633
G01 X3.74610 Y-1.24633
G01 X3.74987 Y-1.24558
G01 X3.75306 Y-1.24344
G01 X3.75519 Y-1.24025
G01 X3.75594 Y-1.23648
G01 X3.75594 Y-1.19293
G01 X3.86198 Y-1.19293
G01 X3.86745 Y-1.19127
G01 X3.92876 Y-1.13023
G01 X3.93095 Y-1.12870
G01 X3.93553 Y-1.12737
G01 X3.93948 Y-1.12374
G01 X3.94094 Y-1.11858
G01 X3.94094 Y-1.07483
G01 X4.05906 Y-1.07483
G01 X4.05906 Y-1.19294
G01 X3.94094 Y-1.19294
G01 X3.94094 Y-1.15780
G01 X3.94019 Y-1.15404
G01 X3.93657 Y-1.14962
G01 X3.93302 Y-1.14815
G01 X3.92918 Y-1.14815
G01 X3.92563 Y-1.14962
G01 X3.87694 Y-1.19804
G01 X3.87481 Y-1.20124
G01 X3.87406 Y-1.20500
G01 X3.87406 Y-1.31104
G01 X3.75594 Y-1.31104
G01 X3.75594 Y-1.26748
G01 X3.75428 Y-1.26202
G01 X3.75157 Y-1.25930
G01 X3.74802 Y-1.25783
G01 X3.71960 Y-1.25783
G01 X3.71456 Y-1.26052
G01 X3.57729 Y-1.39779
G01 X3.57404 Y-1.39964
G01 X3.21713 Y-1.39979
G01 X3.21336 Y-1.40054
G01 X3.21017 Y-1.40267
G01 X3.17669 Y-1.43616
G01 X3.17455 Y-1.43935
G01 X3.17381 Y-1.44312
G01 X3.17381 Y-1.83719
G01 X3.17455 Y-1.84095
G01 X3.17669 Y-1.84415
G01 X3.34879 Y-2.01624
G01 X3.35383 Y-2.01894
G01 X3.81707 Y-2.01894
G01 X3.82211 Y-2.01624
G01 X3.84146 Y-1.99689
G01 X3.84359 Y-1.99370
G01 X3.84434 Y-1.98993
G01 X3.84434 Y-1.96535
G01 X3.84268 Y-1.95989
G01 X3.83997 Y-1.95717
G01 X3.83642 Y-1.95570
G01 X3.82244 Y-1.95551
G01 X3.82244 Y-1.89646
G01 X3.87756 Y-1.89646
G01 X3.87756 Y-1.91048
G01 X3.87831 Y-1.91425
G01 X3.88193 Y-1.91867
G01 X3.88740 Y-1.92033
G01 X4.01452 Y-1.92014
G01 X4.01956 Y-1.91744
G01 X4.02169 Y-1.91425
G01 X4.02244 Y-1.91048
G01 X4.02244 Y-1.89646
G01 X4.07756 Y-1.89646
G01 X4.07756 Y-1.95551
G01 X4.02244 Y-1.95551
G01 X4.02244 Y-1.94148
G01 X4.02169 Y-1.93772
G01 X4.01956 Y-1.93452
G01 X4.01452 Y-1.93183
G01 X3.88548 Y-1.93183
G01 X3.88044 Y-1.93452
G01 X3.87831 Y-1.93772
G01 X3.87756 Y-1.94148
G01 X3.87756 Y-1.95551
G01 X3.86358 Y-1.95570
G01 X3.86003 Y-1.95717
G01 X3.85641 Y-1.96159
G01 X3.85566 Y-1.96535
G01 X3.85566 Y-1.99587
G01 X3.85466 Y-1.99947
G01 X3.82591 Y-2.02844
G01 X3.82266 Y-2.03029
G01 X3.34823 Y-2.03029
G01 X3.34498 Y-2.02844
G01 X3.16449 Y-1.84795
G01 X3.16297 Y-1.84575
G01 X3.16249 Y-1.84312
G04 P0 ( dwell for no time -- G64 should not smooth over this point )
G00 Z0.08000 ( retract )

G00 X3.36078 Y-1.95657 ( rapid move to begin. )
G01 F180.00000
( Mill infeed pass 1/1 )
G01 Z-0.04000
G04 P0 ( dwell for no time -- G64 should not smooth over this point )
G01 F360.00000
G01 X3.36078 Y-1.95657
G01 X3.36155 Y-1.94927
G01 X3.36522 Y-1.94291
G01 X3.37116 Y-1.93859
G01 X3.37467 Y-1.93745
G01 X3.37886 Y-1.93701
G01 X3.42114 Y-1.93701
G01 X3.42533 Y-1.93745
G01 X3.43203 Y-1.94043
G01 X3.43881 Y-1.94728
G01 X3.44409 Y-1.94882
G01 X3.67019 Y-1.94867
G01 X3.71796 Y-1.93121
G01 X3.72168 Y-1.92726
G01 X3.72487 Y-1.91480
G01 X3.72775 Y-1.90982
G01 X3.73159 Y-1.90554
G01 X3.73625 Y-1.90216
G01 X3.74150 Y-1.89983
G01 X3.74712 Y-1.89863
G01 X3.75287 Y-1.89863
G01 X3.75850 Y-1.89983
G01 X3.76375 Y-1.90216
G01 X3.76840 Y-1.90554
G01 X3.77225 Y-1.90982
G01 X3.77513 Y-1.91480
G01 X3.77690 Y-1.92027
G01 X3.77750 Y-1.92598
G01 X3.77690 Y-1.93170
G01 X3.77513 Y-1.93717
G01 X3.77225 Y-1.94215
G01 X3.76665 Y-1.94770
G01 X3.76375 Y-1.94980
G01 X3.75850 Y-1.95214
G01 X3.75287 Y-1.95334
G01 X3.74713 Y-1.95334
G01 X3.74150 Y-1.95214
G01 X3.73625 Y-1.94980
G01 X3.72790 Y-1.94346
G01 X3.72220 Y-1.94262
G01 X3.67369 Y-1.96013
G01 X3.67083 Y-1.96063
G01 X3.44409 Y-1.96063
G01 X3.43881 Y-1.96216
G01 X3.43203 Y-1.96901
G01 X3.42532 Y-1.97200
G01 X3.42114 Y-1.97244
G01 X3.37886 Y-1.97244
G01 X3.37467 Y-1.97200
G01 X3.36796 Y-1.96901
G01 X3.36305 Y-1.96356
G01 X3.36078 Y-1.95657
G04 P0 ( dwell for no time -- G64 should not smooth over this point )
G00 Z0.08000 ( retract )

G00 X3.36078 Y-1.79909 ( rapid move to begin. )
G01 F180.00000
( Mill infeed pass 1/1 )
G01 Z-0.04000
G04 P0 ( dwell for no time -- G64 should not smooth over this point )
G01 F360.00000
G01 X3.36078 Y-1.79909
G01 X3.36155 Y-1.79179
G01 X3.36522 Y-1.78543
G01 X3.37116 Y-1.78111
G01 X3.37467 Y-1.77997
G01 X3.37886 Y-1.77953
G01 X3.42114 Y-1.77953
G01 X3.42532 Y-1.77997
G01 X3.43203 Y-1.78295
G01 X3.43881 Y-1.78980
G01 X3.44409 Y-1.79134
G01 X4.03820 Y-1.79115
G01 X4.04324 Y-1.78845
G01 X4.29243 Y-1.53899
G01 X4.29409 Y-1.53352
G01 X4.29409 Y-1.47647
G01 X4.29459 Y-1.47374
G01 X4.29674 Y-1.47111
G01 X4.30048 Y-1.47008
G01 X4.43151 Y-1.47008
G01 X4.43625 Y-1.46886
G01 X4.44373 Y-1.46239
G01 X4.44753 Y-1.46089
G01 X4.45321 Y-1.46038
G01 X4.45942 Y-1.46239
G01 X4.46207 Y-1.46432
G01 X4.46547 Y-1.46884
G01 X4.46692 Y-1.47272
G01 X4.46692 Y-1.47925
G01 X4.46427 Y-1.48521
G01 X4.45942 Y-1.48958
G01 X4.45322 Y-1.49159
G01 X4.44993 Y-1.49159
G01 X4.44373 Y-1.48958
G01 X4.43625 Y-1.48311
G01 X4.43151 Y-1.48189
G01 X4.31575 Y-1.48189
G01 X4.31028 Y-1.48355
G01 X4.30757 Y-1.48626
G01 X4.30591 Y-1.49173
G01 X4.30608 Y-1.54203
G01 X4.30866 Y-1.54699
G01 X4.31971 Y-1.55410
G01 X4.32383 Y-1.55867
G01 X4.32691 Y-1.56400
G01 X4.32881 Y-1.56986
G01 X4.32945 Y-1.57598
G01 X4.32881 Y-1.58211
G01 X4.32691 Y-1.58796
G01 X4.32383 Y-1.59330
G01 X4.31971 Y-1.59787
G01 X4.31473 Y-1.60149
G01 X4.30910 Y-1.60400
G01 X4.30519 Y-1.60483
G01 X4.29692 Y-1.60528
G01 X4.29090 Y-1.60400
G01 X4.28527 Y-1.60149
G01 X4.28029 Y-1.59787
G01 X4.27617 Y-1.59330
G01 X4.27370 Y-1.58943
G01 X4.27051 Y-1.58705
G01 X4.26862 Y-1.58639
G01 X4.26464 Y-1.58628
G01 X4.26094 Y-1.58775
G01 X4.04732 Y-1.80108
G01 X4.04395 Y-1.80299
G01 X3.44409 Y-1.80315
G01 X3.43881 Y-1.80468
G01 X3.43203 Y-1.81153
G01 X3.42532 Y-1.81452
G01 X3.42114 Y-1.81496
G01 X3.37886 Y-1.81496
G01 X3.37467 Y-1.81452
G01 X3.36796 Y-1.81153
G01 X3.36305 Y-1.80607
G01 X3.36078 Y-1.79909
G04 P0 ( dwell for no time -- G64 should not smooth over this point )
G00 Z0.08000 ( retract )

G00 X3.22055 Y-1.57598 ( rapid move to begin. )
G01 F180.00000
( Mill infeed pass 1/1 )
G01 Z-0.04000
G04 P0 ( dwell for no time -- G64 should not smooth over this point )
G01 F360.00000
G01 X3.22055 Y-1.57598
G01 X3.22119 Y-1.56986
G01 X3.22309 Y-1.56400
G01 X3.22617 Y-1.55867
G01 X3.23029 Y-1.55410
G01 X3.23527 Y-1.55048
G01 X3.24090 Y-1.54797
G01 X3.24692 Y-1.54669
G01 X3.25308 Y-1.54669
G01 X3.26430 Y-1.54943
G01 X3.26991 Y-1.54780
G01 X3.34688 Y-1.47132
G01 X3.35048 Y-1.47033
G01 X3.37633 Y-1.47014
G01 X3.37988 Y-1.46867
G01 X3.38259 Y-1.46595
G01 X3.38406 Y-1.46240
G01 X3.38425 Y-1.46024
G01 X3.41575 Y-1.46024
G01 X3.41575 Y-1.49173
G01 X3.38425 Y-1.49173
G01 X3.38406 Y-1.48956
G01 X3.38259 Y-1.48602
G01 X3.37988 Y-1.48330
G01 X3.37633 Y-1.48183
G01 X3.35642 Y-1.48164
G01 X3.35265 Y-1.48239
G01 X3.34946 Y-1.48452
G01 X3.27947 Y-1.55451
G01 X3.27744 Y-1.55747
G01 X3.27667 Y-1.56276
G01 X3.27881 Y-1.56986
G01 X3.27945 Y-1.57598
G01 X3.27881 Y-1.58211
G01 X3.27691 Y-1.58796
G01 X3.27383 Y-1.59330
G01 X3.26971 Y-1.59787
G01 X3.25842 Y-1.60508
G01 X3.25637 Y-1.60823
G01 X3.25566 Y-1.61192
G01 X3.25566 Y-1.79978
G01 X3.25641 Y-1.80354
G01 X3.25854 Y-1.80674
G01 X3.31925 Y-1.86744
G01 X3.32244 Y-1.86958
G01 X3.32621 Y-1.87033
G01 X3.35757 Y-1.87015
G01 X3.36247 Y-1.86766
G01 X3.36796 Y-1.86170
G01 X3.37467 Y-1.85871
G01 X3.37886 Y-1.85827
G01 X3.42114 Y-1.85827
G01 X3.42532 Y-1.85871
G01 X3.43203 Y-1.86169
G01 X3.43478 Y-1.86417
G01 X3.43845 Y-1.87053
G01 X3.43922 Y-1.87414
G01 X3.43922 Y-1.87783
G01 X3.43695 Y-1.88482
G01 X3.43203 Y-1.89027
G01 X3.42532 Y-1.89326
G01 X3.42114 Y-1.89370
G01 X3.37886 Y-1.89370
G01 X3.37467 Y-1.89326
G01 X3.37116 Y-1.89212
G01 X3.36796 Y-1.89027
G01 X3.36100 Y-1.88317
G01 X3.35757 Y-1.88182
G01 X3.32027 Y-1.88164
G01 X3.31764 Y-1.88117
G01 X3.31544 Y-1.87964
G01 X3.24533 Y-1.80931
G01 X3.24434 Y-1.80571
G01 X3.24416 Y-1.61004
G01 X3.24158 Y-1.60508
G01 X3.23029 Y-1.59787
G01 X3.22617 Y-1.59330
G01 X3.22309 Y-1.58796
G01 X3.22126 Y-1.58232
G01 X3.22055 Y-1.57598
G01 X3.23836 Y-1.57598
G01 X3.23861 Y-1.57840
G01 X3.24058 Y-1.58283
G01 X3.24418 Y-1.58606
G01 X3.25000 Y-1.58917
G01 X3.25582 Y-1.58606
G01 X3.25942 Y-1.58283
G01 X3.26138 Y-1.57840
G01 X3.26164 Y-1.57598
G01 X3.25946 Y-1.56661
G01 X3.25122 Y-1.56441
G01 X3.24640 Y-1.56491
G01 X3.24221 Y-1.56733
G01 X3.23937 Y-1.57125
G01 X3.23836 Y-1.57598
G04 P0 ( dwell for no time -- G64 should not smooth over this point )
G00 Z0.08000 ( retract )

G00 X3.48273 Y-1.47598 ( rapid move to begin. )
G01 F180.00000
( Mill infeed pass 1/1 )
G01 Z-0.04000
G04 P0 ( dwell for no time -- G64 should not smooth over this point )
G01 F360.00000
G01 X3.48273 Y-1.47598
G01 X3.48307 Y-1.47272
G01 X3.48573 Y-1.46676
G01 X3.49058 Y-1.46239
G01 X3.49550 Y-1.46065
G01 X3.50007 Y-1.46038
G01 X3.50627 Y-1.46239
G01 X3.50893 Y-1.46432
G01 X3.51276 Y-1.46960
G01 X3.51378 Y-1.47272
G01 X3.51413 Y-1.48175
G01 X3.51671 Y-1.48627
G01 X3.59789 Y-1.56744
G01 X3.60292 Y-1.57014
G01 X3.61389 Y-1.57033
G01 X3.61735 Y-1.56970
G01 X3.62158 Y-1.56662
G01 X3.62617 Y-1.55867
G01 X3.63029 Y-1.55410
G01 X3.63527 Y-1.55048
G01 X3.64090 Y-1.54797
G01 X3.64692 Y-1.54669
G01 X3.65308 Y-1.54669
G01 X3.65910 Y-1.54797
G01 X3.66473 Y-1.55048
G01 X3.66971 Y-1.55410
G01 X3.67383 Y-1.55867
G01 X3.67880 Y-1.56707
G01 X3.68211 Y-1.56948
G01 X3.68611 Y-1.57033
G01 X3.98938 Y-1.57033
G01 X3.99315 Y-1.56958
G01 X3.99634 Y-1.56744
G01 X4.15255 Y-1.41123
G01 X4.15579 Y-1.40939
G01 X4.65078 Y-1.40939
G01 X4.65403 Y-1.41123
G01 X4.77951 Y-1.53694
G01 X4.78051 Y-1.54054
G01 X4.78035 Y-1.61301
G01 X4.77851 Y-1.61625
G01 X4.59263 Y-1.80191
G01 X4.58903 Y-1.80290
G01 X4.54243 Y-1.80307
G01 X4.53753 Y-1.80557
G01 X4.53203 Y-1.81153
G01 X4.52532 Y-1.81452
G01 X4.52114 Y-1.81496
G01 X4.47886 Y-1.81496
G01 X4.47467 Y-1.81452
G01 X4.47116 Y-1.81338
G01 X4.46522 Y-1.80906
G01 X4.46155 Y-1.80270
G01 X4.46078 Y-1.79540
G01 X4.46155 Y-1.79179
G01 X4.46522 Y-1.78543
G01 X4.47116 Y-1.78111
G01 X4.47467 Y-1.77997
G01 X4.47886 Y-1.77953
G01 X4.52114 Y-1.77953
G01 X4.52532 Y-1.77997
G01 X4.53203 Y-1.78295
G01 X4.53899 Y-1.79005
G01 X4.54427 Y-1.79159
G01 X4.58310 Y-1.79159
G01 X4.58857 Y-1.78993
G01 X4.76631 Y-1.61245
G01 X4.76844 Y-1.60926
G01 X4.76919 Y-1.60549
G01 X4.76919 Y-1.54648
G01 X4.76753 Y-1.54101
G01 X4.65023 Y-1.42343
G01 X4.64703 Y-1.42130
G01 X4.64327 Y-1.42055
G01 X4.16139 Y-1.42074
G01 X4.15635 Y-1.42343
G01 X4.00014 Y-1.57964
G01 X3.99795 Y-1.58117
G01 X3.99532 Y-1.58164
G01 X3.68611 Y-1.58164
G01 X3.68211 Y-1.58249
G01 X3.67880 Y-1.58490
G01 X3.67383 Y-1.59330
G01 X3.66971 Y-1.59787
G01 X3.66473 Y-1.60149
G01 X3.65910 Y-1.60400
G01 X3.65308 Y-1.60528
G01 X3.64481 Y-1.60483
G01 X3.64090 Y-1.60400
G01 X3.63527 Y-1.60149
G01 X3.63029 Y-1.59787
G01 X3.62617 Y-1.59330
G01 X3.62120 Y-1.58490
G01 X3.61789 Y-1.58249
G01 X3.61389 Y-1.58164
G01 X3.59891 Y-1.58164
G01 X3.59531 Y-1.58065
G01 X3.50876 Y-1.49432
G01 X3.50365 Y-1.49162
G01 X3.49678 Y-1.49159
G01 X3.49357 Y-1.49091
G01 X3.48792 Y-1.48765
G01 X3.48409 Y-1.48237
G01 X3.48273 Y-1.47598
G04 P0 ( dwell for no time -- G64 should not smooth over this point )
G00 Z0.08000 ( retract )

G00 X3.63652 Y-1.57601 ( rapid move to begin. )
G01 F180.00000
( Mill infeed pass 1/1 )
G01 Z-0.04000
G04 P0 ( dwell for no time -- G64 should not smooth over this point )
G01 F360.00000
G01 X3.63652 Y-1.57601
G01 X3.64221 Y-1.58463
G01 X3.64640 Y-1.58705
G01 X3.65122 Y-1.58756
G01 X3.65360 Y-1.58705
G01 X3.65779 Y-1.58463
G01 X3.66350 Y-1.57598
G01 X3.65779 Y-1.56733
G01 X3.65360 Y-1.56491
G01 X3.64878 Y-1.56441
G01 X3.64640 Y-1.56491
G01 X3.64221 Y-1.56733
G01 X3.63652 Y-1.57601
G04 P0 ( dwell for no time -- G64 should not smooth over this point )
G00 Z0.08000 ( retract )

G00 X3.73950 Y-1.92986 ( rapid move to begin. )
G01 F180.00000
( Mill infeed pass 1/1 )
G01 Z-0.04000
G04 P0 ( dwell for no time -- G64 should not smooth over this point )
G01 F360.00000
G01 X3.73950 Y-1.92986
G01 X3.74515 Y-1.93438
G01 X3.74701 Y-1.93520
G01 X3.74899 Y-1.93562
G01 X3.75299 Y-1.93520
G01 X3.75648 Y-1.93319
G01 X3.75885 Y-1.92993
G01 X3.75969 Y-1.92598
G01 X3.75885 Y-1.92204
G01 X3.75648 Y-1.91878
G01 X3.75484 Y-1.91759
G01 X3.75101 Y-1.91635
G01 X3.74701 Y-1.91677
G01 X3.74351 Y-1.91878
G01 X3.74115 Y-1.92204
G01 X3.73950 Y-1.92986
G04 P0 ( dwell for no time -- G64 should not smooth over this point )
G00 Z0.08000 ( retract )

G00 X3.84016 Y-1.93841 ( rapid move to begin. )
G01 F180.00000
( Mill infeed pass 1/1 )
G01 Z-0.04000
G04 P0 ( dwell for no time -- G64 should not smooth over this point )
G01 F360.00000
G01 X3.84016 Y-1.93841
G01 X3.84505 Y-1.93989
G01 X3.85000 Y-1.94259
G01 X3.85495 Y-1.93989
G01 X3.86015 Y-1.93832
G01 X3.86194 Y-1.93094
G01 X3.86464 Y-1.92598
G01 X3.86194 Y-1.92103
G01 X3.86021 Y-1.91417
G01 X3.84016 Y-1.91417
G01 X3.84016 Y-1.93841
G04 P0 ( dwell for no time -- G64 should not smooth over this point )
G00 Z0.08000 ( retract )

G00 X4.03536 Y-1.92598 ( rapid move to begin. )
G01 F180.00000
( Mill infeed pass 1/1 )
G01 Z-0.04000
G04 P0 ( dwell for no time -- G64 should not smooth over this point )
G01 F360.00000
G01 X4.03536 Y-1.92598
G01 X4.03806 Y-1.92103
G01 X4.03979 Y-1.91417
G01 X4.05984 Y-1.91417
G01 X4.05984 Y-1.93780
G01 X4.03979 Y-1.93780
G01 X4.03806 Y-1.93094
G01 X4.03536 Y-1.92598
G04 P0 ( dwell for no time -- G64 should not smooth over this point )
G00 Z0.08000 ( retract )

G00 X4.12249 Y-1.92598 ( rapid move to begin. )
G01 F180.00000
( Mill infeed pass 1/1 )
G01 Z-0.04000
G04 P0 ( dwell for no time -- G64 should not smooth over this point )
G01 F360.00000
G01 X4.12249 Y-1.92598
G01 X4.12310 Y-1.93170
G01 X4.12487 Y-1.93717
G01 X4.12775 Y-1.94215
G01 X4.13159 Y-1.94642
G01 X4.13625 Y-1.94980
G01 X4.14150 Y-1.95214
G01 X4.14712 Y-1.95334
G01 X4.15287 Y-1.95334
G01 X4.16259 Y-1.95118
G01 X4.16645 Y-1.95189
G01 X4.16972 Y-1.95406
G01 X4.17548 Y-1.95960
G01 X4.17922 Y-1.96063
G01 X4.45591 Y-1.96063
G01 X4.46119 Y-1.96216
G01 X4.46796 Y-1.96901
G01 X4.47467 Y-1.97200
G01 X4.47886 Y-1.97244
G01 X4.52114 Y-1.97244
G01 X4.52532 Y-1.97200
G01 X4.53203 Y-1.96901
G01 X4.53695 Y-1.96356
G01 X4.53922 Y-1.95657
G01 X4.53845 Y-1.94927
G01 X4.53478 Y-1.94291
G01 X4.52884 Y-1.93859
G01 X4.52532 Y-1.93745
G01 X4.52114 Y-1.93701
G01 X4.47886 Y-1.93701
G01 X4.47467 Y-1.93745
G01 X4.46796 Y-1.94043
G01 X4.46119 Y-1.94728
G01 X4.45591 Y-1.94882
G01 X4.18334 Y-1.94863
G01 X4.17830 Y-1.94593
G01 X4.17541 Y-1.94099
G01 X4.17522 Y-1.93741
G01 X4.17690 Y-1.93170
G01 X4.17750 Y-1.92598
G01 X4.17690 Y-1.92026
G01 X4.17513 Y-1.91480
G01 X4.17225 Y-1.90982
G01 X4.16840 Y-1.90554
G01 X4.16375 Y-1.90216
G01 X4.15850 Y-1.89983
G01 X4.15287 Y-1.89863
G01 X4.14712 Y-1.89863
G01 X4.14150 Y-1.89983
G01 X4.13625 Y-1.90216
G01 X4.13159 Y-1.90554
G01 X4.12775 Y-1.90982
G01 X4.12487 Y-1.91480
G01 X4.12310 Y-1.92027
G01 X4.12249 Y-1.92598
G01 X4.14031 Y-1.92598
G01 X4.14115 Y-1.92204
G01 X4.14351 Y-1.91878
G01 X4.14701 Y-1.91677
G01 X4.15101 Y-1.91635
G01 X4.15484 Y-1.91759
G01 X4.15784 Y-1.92029
G01 X4.15948 Y-1.92397
G01 X4.15969 Y-1.92598
G01 X4.15791 Y-1.93398
G01 X4.15101 Y-1.93562
G01 X4.14701 Y-1.93520
G01 X4.14351 Y-1.93319
G01 X4.14115 Y-1.92993
G01 X4.14031 Y-1.92598
G04 P0 ( dwell for no time -- G64 should not smooth over this point )
G00 Z0.08000 ( retract )

G00 X4.40963 Y-1.87100 ( rapid move to begin. )
G01 F180.00000
( Mill infeed pass 1/1 )
G01 Z-0.04000
G04 P0 ( dwell for no time -- G64 should not smooth over this point )
G01 F360.00000
G01 X4.40963 Y-1.87100
G01 X4.41062 Y-1.87460
G01 X4.41764 Y-1.88117
G01 X4.42027 Y-1.88164
G01 X4.45757 Y-1.88182
G01 X4.46100 Y-1.88317
G01 X4.46796 Y-1.89027
G01 X4.47116 Y-1.89212
G01 X4.47467 Y-1.89326
G01 X4.47886 Y-1.89370
G01 X4.52114 Y-1.89370
G01 X4.52532 Y-1.89326
G01 X4.52884 Y-1.89212
G01 X4.53478 Y-1.88780
G01 X4.53845 Y-1.88144
G01 X4.53922 Y-1.87414
G01 X4.53695 Y-1.86715
G01 X4.53203 Y-1.86169
G01 X4.52532 Y-1.85871
G01 X4.52114 Y-1.85827
G01 X4.47886 Y-1.85827
G01 X4.47467 Y-1.85871
G01 X4.46796 Y-1.86169
G01 X4.46100 Y-1.86879
G01 X4.45573 Y-1.87033
G01 X4.42887 Y-1.87014
G01 X4.42532 Y-1.86867
G01 X4.42260 Y-1.86595
G01 X4.42094 Y-1.86048
G01 X4.42094 Y-1.67371
G01 X4.42169 Y-1.66994
G01 X4.42383 Y-1.66675
G01 X4.55466 Y-1.53569
G01 X4.55566 Y-1.53209
G01 X4.55585 Y-1.49965
G01 X4.55732 Y-1.49611
G01 X4.56003 Y-1.49339
G01 X4.56358 Y-1.49192
G01 X4.56575 Y-1.49173
G01 X4.56650 Y-1.48772
G01 X4.56863 Y-1.48452
G01 X4.57182 Y-1.48239
G01 X4.57559 Y-1.48164
G01 X4.59358 Y-1.48164
G01 X4.59905 Y-1.48330
G01 X4.67053 Y-1.55451
G01 X4.67256 Y-1.55747
G01 X4.67340 Y-1.56096
