( pcb2gcode 2.5.0 )
( Software-independent Gcode )

G94 ( Inches per minute feed rate. )
G20 ( Units == INCHES. )

G90 ( Absolute coordinates. )
G00 S12000 ( RPM spindle speed. )
G64 P0.00040 ( set maximum deviation from commanded toolpath )
G01 F360.00000 ( Feedrate. )


G00 Z1.00000 (Retract to tool change height)
T1
M5      (Spindle stop.)
G04 P1.00000 (Wait for spindle to stop)
(MSG, Change tool bit to mill diameter 0.01969in)
M6      (Tool change.)
M0      (Temporary machine stop.)
M3 ( Spindle on clockwise. )
G04 P1.00000 (Wait for spindle to get up to speed)
( Piece #1, position [0;0] )

G04 P0 ( dwell for no time -- G64 should not smooth over this point )
G00 Z0.08000 ( retract )

G00 X3.16249 Y-3.21730 ( rapid move to begin. )
G01 F180.00000
( Mill infeed pass 1/1 )
G01 Z-0.04000
G04 P0 ( dwell for no time -- G64 should not smooth over this point )
G01 F360.00000
G01 X3.16249 Y-3.21730
G01 X3.16249 Y-2.81123
G01 X3.16268 Y-2.80942
G01 X3.16291 Y-2.80863
G01 X3.16359 Y-2.80740
G01 X3.16418 Y-2.80668
G01 X3.20639 Y-2.76447
G01 X3.20829 Y-2.76307
G01 X3.21004 Y-2.76256
G01 X3.21103 Y-2.76249
G01 X3.56653 Y-2.76249
G01 X3.56855 Y-2.76228
G01 X3.57010 Y-2.76182
G01 X3.57191 Y-2.76089
G01 X3.57349 Y-2.75961
G01 X3.71171 Y-2.62151
G01 X3.71295 Y-2.62080
G01 X3.71467 Y-2.62039
G01 X3.74733 Y-2.62026
G01 X3.74931 Y-2.61980
G01 X3.75079 Y-2.61915
G01 X3.75215 Y-2.61826
G01 X3.75335 Y-2.61716
G01 X3.75434 Y-2.61588
G01 X3.75511 Y-2.61445
G01 X3.75573 Y-2.61252
G01 X3.75593 Y-2.61091
G01 X3.75594 Y-2.56694
G01 X3.86198 Y-2.56694
G01 X3.86360 Y-2.56681
G01 X3.86479 Y-2.56653
G01 X3.86593 Y-2.56611
G01 X3.86736 Y-2.56534
G01 X3.86894 Y-2.56406
G01 X3.92903 Y-2.50398
G01 X3.93068 Y-2.50282
G01 X3.93431 Y-2.50183
G01 X3.93615 Y-2.50098
G01 X3.93807 Y-2.49948
G01 X3.93934 Y-2.49791
G01 X3.93994 Y-2.49685
G01 X3.94053 Y-2.49533
G01 X3.94093 Y-2.49294
G01 X3.94094 Y-2.44884
G01 X4.05906 Y-2.44884
G01 X4.05906 Y-2.56696
G01 X3.94094 Y-2.56696
G01 X3.94094 Y-2.53182
G01 X3.94081 Y-2.53020
G01 X3.94041 Y-2.52862
G01 X3.93934 Y-2.52644
G01 X3.93806 Y-2.52486
G01 X3.93648 Y-2.52358
G01 X3.93430 Y-2.52251
G01 X3.93232 Y-2.52205
G01 X3.92988 Y-2.52205
G01 X3.92752 Y-2.52265
G01 X3.92572 Y-2.52358
G01 X3.92414 Y-2.52486
G01 X3.87694 Y-2.57206
G01 X3.87544 Y-2.57398
G01 X3.87447 Y-2.57621
G01 X3.87419 Y-2.57740
G01 X3.87406 Y-2.57902
G01 X3.87406 Y-2.68506
G01 X3.75594 Y-2.68506
G01 X3.75593 Y-2.64109
G01 X3.75573 Y-2.63948
G01 X3.75541 Y-2.63830
G01 X3.75434 Y-2.63612
G01 X3.75277 Y-2.63426
G01 X3.75114 Y-2.63304
G01 X3.74930 Y-2.63219
G01 X3.74732 Y-2.63173
G01 X3.72030 Y-2.63173
G01 X3.71871 Y-2.63207
G01 X3.71720 Y-2.63266
G01 X3.71580 Y-2.63349
G01 X3.71456 Y-2.63454
G01 X3.57718 Y-2.77192
G01 X3.57590 Y-2.77296
G01 X3.57475 Y-2.77348
G01 X3.57256 Y-2.77381
G01 X3.21713 Y-2.77381
G01 X3.21511 Y-2.77401
G01 X3.21355 Y-2.77448
G01 X3.21209 Y-2.77519
G01 X3.21077 Y-2.77614
G01 X3.17641 Y-2.81047
G01 X3.17541 Y-2.81175
G01 X3.17463 Y-2.81318
G01 X3.17411 Y-2.81472
G01 X3.17384 Y-2.81632
G01 X3.17381 Y-3.21161
G01 X3.17401 Y-3.21322
G01 X3.17463 Y-3.21516
G01 X3.17541 Y-3.21658
G01 X3.17669 Y-3.21816
G01 X3.34879 Y-3.39026
G01 X3.35003 Y-3.39131
G01 X3.35142 Y-3.39214
G01 X3.35294 Y-3.39273
G01 X3.35453 Y-3.39306
G01 X3.81515 Y-3.39314
G01 X3.81757 Y-3.39284
G01 X3.81983 Y-3.39195
G01 X3.82181 Y-3.39054
G01 X3.84174 Y-3.37061
G01 X3.84295 Y-3.36899
G01 X3.84367 Y-3.36753
G01 X3.84413 Y-3.36597
G01 X3.84433 Y-3.36436
G01 X3.84433 Y-3.33896
G01 X3.84413 Y-3.33735
G01 X3.84381 Y-3.33617
G01 X3.84274 Y-3.33399
G01 X3.84174 Y-3.33270
G01 X3.84022 Y-3.33136
G01 X3.83845 Y-3.33036
G01 X3.83652 Y-3.32974
G01 X3.83450 Y-3.32953
G01 X3.82244 Y-3.32953
G01 X3.82244 Y-3.27047
G01 X3.87756 Y-3.27047
G01 X3.87757 Y-3.28491
G01 X3.87777 Y-3.28652
G01 X3.87823 Y-3.28808
G01 X3.87895 Y-3.28954
G01 X3.87963 Y-3.29054
G01 X3.88044 Y-3.29146
G01 X3.88168 Y-3.29251
G01 X3.88308 Y-3.29334
G01 X3.88421 Y-3.29381
G01 X3.88578 Y-3.29421
G01 X3.88740 Y-3.29434
G01 X4.01382 Y-3.29427
G01 X4.01501 Y-3.29404
G01 X4.01655 Y-3.29351
G01 X4.01864 Y-3.29227
G01 X4.01956 Y-3.29146
G01 X4.02061 Y-3.29022
G01 X4.02125 Y-3.28918
G01 X4.02191 Y-3.28769
G01 X4.02231 Y-3.28612
G01 X4.02243 Y-3.28491
G01 X4.02244 Y-3.27047
G01 X4.07756 Y-3.27047
G01 X4.07756 Y-3.32953
G01 X4.02244 Y-3.32953
G01 X4.02243 Y-3.31509
G01 X4.02231 Y-3.31388
G01 X4.02191 Y-3.31230
G01 X4.02125 Y-3.31081
G01 X4.02061 Y-3.30978
G01 X4.01956 Y-3.30854
G01 X4.01864 Y-3.30773
G01 X4.01655 Y-3.30649
G01 X4.01501 Y-3.30596
G01 X4.01382 Y-3.30573
G01 X3.88740 Y-3.30566
G01 X3.88578 Y-3.30579
G01 X3.88459 Y-3.30607
G01 X3.88236 Y-3.30704
G01 X3.88044 Y-3.30854
G01 X3.87895 Y-3.31046
G01 X3.87797 Y-3.31269
G01 X3.87757 Y-3.31509
G01 X3.87756 Y-3.32953
G01 X3.86509 Y-3.32953
G01 X3.86269 Y-3.32994
G01 X3.86046 Y-3.33091
G01 X3.85883 Y-3.33213
G01 X3.85749 Y-3.33365
G01 X3.85649 Y-3.33542
G01 X3.85587 Y-3.33735
G01 X3.85567 Y-3.33896
G01 X3.85566 Y-3.36992
G01 X3.85553 Y-3.37133
G01 X3.85516 Y-3.37258
G01 X3.85471 Y-3.37343
G01 X3.85388 Y-3.37449
G01 X3.82523 Y-3.40307
G01 X3.82372 Y-3.40400
G01 X3.82201 Y-3.40441
G01 X3.34978 Y-3.40446
G01 X3.34824 Y-3.40431
G01 X3.34751 Y-3.40412
G01 X3.34589 Y-3.40324
G01 X3.16438 Y-3.22185
G01 X3.16368 Y-3.22105
G01 X3.16291 Y-3.21972
G01 X3.16256 Y-3.21829
G01 X3.16249 Y-3.21730
G04 P0 ( dwell for no time -- G64 should not smooth over this point )
G00 Z0.08000 ( retract )

G00 X3.36065 Y-3.32806 ( rapid move to begin. )
G01 F180.00000
( Mill infeed pass 1/1 )
G01 Z-0.04000
G04 P0 ( dwell for no time -- G64 should not smooth over this point )
G01 F360.00000
G01 X3.36065 Y-3.32806
G01 X3.36086 Y-3.33150
G01 X3.36178 Y-3.33499
G01 X3.36329 Y-3.33805
G01 X3.36560 Y-3.34103
G01 X3.36833 Y-3.34334
G01 X3.37146 Y-3.34505
G01 X3.37491 Y-3.34611
G01 X3.37838 Y-3.34646
G01 X3.42163 Y-3.34645
G01 X3.42404 Y-3.34628
G01 X3.42598 Y-3.34590
G01 X3.42807 Y-3.34524
G01 X3.42988 Y-3.34441
G01 X3.43159 Y-3.34339
G01 X3.43331 Y-3.34205
G01 X3.43485 Y-3.34053
G01 X3.43707 Y-3.33777
G01 X3.43859 Y-3.33645
G01 X3.44110 Y-3.33517
G01 X3.44386 Y-3.33466
G01 X3.67203 Y-3.33457
G01 X3.67357 Y-3.33418
G01 X3.72016 Y-3.31718
G01 X3.72255 Y-3.31663
G01 X3.72377 Y-3.31659
G01 X3.72540 Y-3.31676
G01 X3.72773 Y-3.31752
G01 X3.72948 Y-3.31858
G01 X3.73275 Y-3.32147
G01 X3.73514 Y-3.32319
G01 X3.73767 Y-3.32463
G01 X3.74070 Y-3.32593
G01 X3.74348 Y-3.32676
G01 X3.74669 Y-3.32734
G01 X3.74995 Y-3.32754
G01 X3.75290 Y-3.32739
G01 X3.75552 Y-3.32699
G01 X3.75775 Y-3.32643
G01 X3.76031 Y-3.32555
G01 X3.76241 Y-3.32459
G01 X3.76476 Y-3.32326
G01 X3.76666 Y-3.32194
G01 X3.76873 Y-3.32020
G01 X3.77035 Y-3.31857
G01 X3.77208 Y-3.31648
G01 X3.77338 Y-3.31458
G01 X3.77468 Y-3.31224
G01 X3.77574 Y-3.30980
G01 X3.77657 Y-3.30726
G01 X3.77710 Y-3.30498
G01 X3.77742 Y-3.30268
G01 X3.77755 Y-3.30000
G01 X3.77742 Y-3.29735
G01 X3.77704 Y-3.29473
G01 X3.77641 Y-3.29215
G01 X3.77553 Y-3.28965
G01 X3.77441 Y-3.28724
G01 X3.77307 Y-3.28495
G01 X3.77153 Y-3.28282
G01 X3.76954 Y-3.28058
G01 X3.76760 Y-3.27881
G01 X3.76550 Y-3.27723
G01 X3.76293 Y-3.27568
G01 X3.76056 Y-3.27456
G01 X3.75806 Y-3.27366
G01 X3.75552 Y-3.27301
G01 X3.75255 Y-3.27257
G01 X3.74990 Y-3.27245
G01 X3.74760 Y-3.27256
G01 X3.74494 Y-3.27292
G01 X3.74236 Y-3.27353
G01 X3.73983 Y-3.27440
G01 X3.73772 Y-3.27534
G01 X3.73538 Y-3.27665
G01 X3.73318 Y-3.27818
G01 X3.72975 Y-3.28132
G01 X3.72803 Y-3.28338
G01 X3.72653 Y-3.28557
G01 X3.72524 Y-3.28792
G01 X3.72432 Y-3.29003
G01 X3.72347 Y-3.29257
G01 X3.72288 Y-3.29517
G01 X3.72225 Y-3.29933
G01 X3.72153 Y-3.30126
G01 X3.72015 Y-3.30331
G01 X3.71896 Y-3.30445
G01 X3.71796 Y-3.30518
G01 X3.71611 Y-3.30608
G01 X3.67185 Y-3.32224
G01 X3.66976 Y-3.32275
G01 X3.44386 Y-3.32282
G01 X3.44109 Y-3.32231
G01 X3.43858 Y-3.32102
G01 X3.43706 Y-3.31969
G01 X3.43489 Y-3.31699
G01 X3.43349 Y-3.31558
G01 X3.43177 Y-3.31422
G01 X3.43007 Y-3.31317
G01 X3.42825 Y-3.31231
G01 X3.42634 Y-3.31167
G01 X3.42440 Y-3.31125
G01 X3.42209 Y-3.31104
G01 X3.37709 Y-3.31109
G01 X3.37499 Y-3.31136
G01 X3.37290 Y-3.31190
G01 X3.37089 Y-3.31269
G01 X3.36894 Y-3.31374
G01 X3.36757 Y-3.31469
G01 X3.36505 Y-3.31705
G01 X3.36398 Y-3.31840
G01 X3.36224 Y-3.32138
G01 X3.36112 Y-3.32464
G01 X3.36065 Y-3.32806
G04 P0 ( dwell for no time -- G64 should not smooth over this point )
G00 Z0.08000 ( retract )

G00 X3.37906 Y-3.25000 ( rapid move to begin. )
G01 F180.00000
( Mill infeed pass 1/1 )
G01 Z-0.04000
G04 P0 ( dwell for no time -- G64 should not smooth over this point )
G01 F360.00000
G01 X3.37906 Y-3.25000
G01 X3.38518 Y-3.25000
G01 X3.37906 Y-3.25000
G04 P0 ( dwell for no time -- G64 should not smooth over this point )
G00 Z0.08000 ( retract )

G00 X3.36065 Y-3.17058 ( rapid move to begin. )
G01 F180.00000
( Mill infeed pass 1/1 )
G01 Z-0.04000
G04 P0 ( dwell for no time -- G64 should not smooth over this point )
G01 F360.00000
G01 X3.36065 Y-3.17058
G01 X3.36086 Y-3.17402
G01 X3.36178 Y-3.17751
G01 X3.36326 Y-3.18052
G01 X3.36465 Y-3.18247
G01 X3.36609 Y-3.18402
G01 X3.36786 Y-3.18552
G01 X3.36982 Y-3.18677
G01 X3.37173 Y-3.18767
G01 X3.37393 Y-3.18840
G01 X3.37621 Y-3.18883
G01 X3.37865 Y-3.18898
G01 X3.42153 Y-3.18897
G01 X3.42489 Y-3.18866
G01 X3.42805 Y-3.18777
G01 X3.42963 Y-3.18707
G01 X3.43254 Y-3.18522
G01 X3.43503 Y-3.18286
G01 X3.43730 Y-3.18005
G01 X3.43923 Y-3.17855
G01 X3.44146 Y-3.17758
G01 X3.44265 Y-3.17730
G01 X3.44427 Y-3.17717
G01 X4.04242 Y-3.17717
G01 X4.04448 Y-3.17690
G01 X4.04594 Y-3.17625
G01 X4.04721 Y-3.17521
G01 X4.25924 Y-2.96318
G01 X4.26046 Y-2.96214
G01 X4.26258 Y-2.96098
G01 X4.26532 Y-2.96034
G01 X4.26813 Y-2.96049
G01 X4.27042 Y-2.96125
G01 X4.27214 Y-2.96230
G01 X4.27362 Y-2.96367
G01 X4.27652 Y-2.96785
G01 X4.27888 Y-2.97058
G01 X4.28156 Y-2.97302
G01 X4.28421 Y-2.97491
G01 X4.28738 Y-2.97665
G01 X4.29072 Y-2.97799
G01 X4.29422 Y-2.97892
G01 X4.29743 Y-2.97938
G01 X4.30105 Y-2.97947
G01 X4.30463 Y-2.97912
G01 X4.30816 Y-2.97834
G01 X4.31123 Y-2.97727
G01 X4.31448 Y-2.97569
G01 X4.31752 Y-2.97372
G01 X4.32002 Y-2.97165
G01 X4.32256 Y-2.96900
G01 X4.32435 Y-2.96665
G01 X4.32590 Y-2.96411
G01 X4.32733 Y-2.96109
G01 X4.32831 Y-2.95828
G01 X4.32900 Y-2.95537
G01 X4.32939 Y-2.95242
G01 X4.32948 Y-2.94908
G01 X4.32924 Y-2.94619
G01 X4.32846 Y-2.94227
G01 X4.32731 Y-2.93889
G01 X4.32577 Y-2.93567
G01 X4.32363 Y-2.93236
G01 X4.32134 Y-2.92965
G01 X4.31845 Y-2.92700
G01 X4.31526 Y-2.92477
G01 X4.31051 Y-2.92227
G01 X4.30888 Y-2.92099
G01 X4.30780 Y-2.91974
G01 X4.30694 Y-2.91833
G01 X4.30633 Y-2.91679
G01 X4.30598 Y-2.91518
G01 X4.30594 Y-2.86494
G01 X4.30632 Y-2.86294
G01 X4.30709 Y-2.86106
G01 X4.30824 Y-2.85939
G01 X4.30970 Y-2.85798
G01 X4.31107 Y-2.85709
G01 X4.31255 Y-2.85644
G01 X4.31413 Y-2.85604
G01 X4.31575 Y-2.85591
G01 X4.43182 Y-2.85592
G01 X4.43347 Y-2.85613
G01 X4.43466 Y-2.85646
G01 X4.43689 Y-2.85758
G01 X4.43848 Y-2.85890
G01 X4.44052 Y-2.86119
G01 X4.44197 Y-2.86246
G01 X4.44389 Y-2.86372
G01 X4.44559 Y-2.86454
G01 X4.44777 Y-2.86526
G01 X4.44963 Y-2.86560
G01 X4.45192 Y-2.86572
G01 X4.45526 Y-2.86530
G01 X4.45854 Y-2.86411
G01 X4.46147 Y-2.86223
G01 X4.46371 Y-2.86001
G01 X4.46560 Y-2.85713
G01 X4.46682 Y-2.85390
G01 X4.46730 Y-2.85049
G01 X4.46726 Y-2.84873
G01 X4.46671 Y-2.84573
G01 X4.46580 Y-2.84332
G01 X4.46459 Y-2.84118
G01 X4.46305 Y-2.83926
G01 X4.46124 Y-2.83760
G01 X4.45918 Y-2.83625
G01 X4.45694 Y-2.83523
G01 X4.45457 Y-2.83457
G01 X4.45201 Y-2.83428
G01 X4.45044 Y-2.83431
G01 X4.44841 Y-2.83459
G01 X4.44682 Y-2.83500
G01 X4.44491 Y-2.83575
G01 X4.44346 Y-2.83652
G01 X4.44181 Y-2.83767
G01 X4.44032 Y-2.83901
G01 X4.43826 Y-2.84131
G01 X4.43670 Y-2.84255
G01 X4.43454 Y-2.84358
G01 X4.43220 Y-2.84406
G01 X4.30010 Y-2.84410
G01 X4.29807 Y-2.84445
G01 X4.29675 Y-2.84510
G01 X4.29570 Y-2.84602
G01 X4.29498 Y-2.84699
G01 X4.29436 Y-2.84831
G01 X4.29417 Y-2.84921
G01 X4.29408 Y-2.90796
G01 X4.29388 Y-2.90957
G01 X4.29342 Y-2.91112
G01 X4.29270 Y-2.91258
G01 X4.29202 Y-2.91359
G01 X4.04324 Y-3.16247
G01 X4.04132 Y-3.16396
G01 X4.03909 Y-3.16494
G01 X4.03790 Y-3.16522
G01 X4.03628 Y-3.16535
G01 X3.44427 Y-3.16535
G01 X3.44148 Y-3.16495
G01 X3.43926 Y-3.16398
G01 X3.43734 Y-3.16250
G01 X3.43489 Y-3.15951
G01 X3.43349 Y-3.15810
G01 X3.43177 Y-3.15674
G01 X3.43009 Y-3.15570
G01 X3.42810 Y-3.15477
G01 X3.42620 Y-3.15415
G01 X3.42423 Y-3.15375
G01 X3.42211 Y-3.15356
G01 X3.37709 Y-3.15361
G01 X3.37499 Y-3.15388
G01 X3.37290 Y-3.15442
G01 X3.37089 Y-3.15521
G01 X3.36894 Y-3.15626
G01 X3.36757 Y-3.15721
G01 X3.36505 Y-3.15957
G01 X3.36304 Y-3.16236
G01 X3.36224 Y-3.16390
G01 X3.36112 Y-3.16716
G01 X3.36065 Y-3.17058
G04 P0 ( dwell for no time -- G64 should not smooth over this point )
G00 Z0.08000 ( retract )

G00 X3.22051 Y-2.95027 ( rapid move to begin. )
G01 F180.00000
( Mill infeed pass 1/1 )
G01 Z-0.04000
G04 P0 ( dwell for no time -- G64 should not smooth over this point )
G01 F360.00000
G01 X3.22051 Y-2.95027
G01 X3.22069 Y-2.95332
G01 X3.22111 Y-2.95593
G01 X3.22187 Y-2.95888
G01 X3.22278 Y-2.96137
G01 X3.22410 Y-2.96412
G01 X3.22547 Y-2.96638
G01 X3.22729 Y-2.96882
G01 X3.22909 Y-2.97080
G01 X3.23106 Y-2.97261
G01 X3.23349 Y-2.97444
G01 X3.23576 Y-2.97583
G01 X3.23953 Y-2.97771
G01 X3.24146 Y-2.97920
G01 X3.24251 Y-2.98045
G01 X3.24334 Y-2.98184
G01 X3.24393 Y-2.98336
G01 X3.24427 Y-2.98495
G01 X3.24434 Y-3.17989
G01 X3.24459 Y-3.18175
G01 X3.24545 Y-3.18352
G01 X3.31576 Y-3.25396
G01 X3.31647 Y-3.25456
G01 X3.31771 Y-3.25523
G01 X3.31849 Y-3.25547
G01 X3.32030 Y-3.25566
G01 X3.35556 Y-3.25566
G01 X3.35760 Y-3.25587
G01 X3.35992 Y-3.25667
G01 X3.36165 Y-3.25777
G01 X3.36285 Y-3.25889
G01 X3.36491 Y-3.26152
G01 X3.36631 Y-3.26298
G01 X3.36788 Y-3.26427
G01 X3.36940 Y-3.26528
G01 X3.37123 Y-3.26621
G01 X3.37297 Y-3.26687
G01 X3.37475 Y-3.26733
G01 X3.37683 Y-3.26764
G01 X3.42226 Y-3.26770
G01 X3.42388 Y-3.26757
G01 X3.42699 Y-3.26688
G01 X3.42830 Y-3.26641
G01 X3.43099 Y-3.26504
G01 X3.43233 Y-3.26412
G01 X3.43445 Y-3.26224
G01 X3.43644 Y-3.25973
G01 X3.43781 Y-3.25725
G01 X3.43840 Y-3.25576
G01 X3.43913 Y-3.25285
G01 X3.43936 Y-3.24984
G01 X3.43907 Y-3.24683
G01 X3.43871 Y-3.24525
G01 X3.43774 Y-3.24259
G01 X3.43624 Y-3.23997
G01 X3.43433 Y-3.23763
G01 X3.43316 Y-3.23654
G01 X3.43070 Y-3.23478
G01 X3.42797 Y-3.23346
G01 X3.42526 Y-3.23267
G01 X3.42199 Y-3.23230
G01 X3.37855 Y-3.23228
G01 X3.37608 Y-3.23244
G01 X3.37249 Y-3.23329
G01 X3.36911 Y-3.23489
G01 X3.36615 Y-3.23717
G01 X3.36487 Y-3.23852
G01 X3.36286 Y-3.24110
G01 X3.36166 Y-3.24222
G01 X3.35955 Y-3.24349
G01 X3.35760 Y-3.24413
G01 X3.35556 Y-3.24434
G01 X3.32580 Y-3.24433
G01 X3.32340 Y-3.24393
G01 X3.32152 Y-3.24316
G01 X3.32016 Y-3.24227
G01 X3.31925 Y-3.24146
G01 X3.25826 Y-3.18046
G01 X3.25726 Y-3.17917
G01 X3.25633 Y-3.17737
G01 X3.25587 Y-3.17581
G01 X3.25567 Y-3.17420
G01 X3.25569 Y-2.98535
G01 X3.25596 Y-2.98375
G01 X3.25649 Y-2.98221
G01 X3.25726 Y-2.98078
G01 X3.25826 Y-2.97950
G01 X3.25914 Y-2.97865
G01 X3.26047 Y-2.97771
G01 X3.26424 Y-2.97583
G01 X3.26651 Y-2.97444
G01 X3.26894 Y-2.97261
G01 X3.27091 Y-2.97080
G01 X3.27271 Y-2.96882
G01 X3.27453 Y-2.96638
G01 X3.27590 Y-2.96412
G01 X3.27722 Y-2.96137
G01 X3.27813 Y-2.95888
G01 X3.27889 Y-2.95593
G01 X3.27931 Y-2.95332
G01 X3.27949 Y-2.95027
G01 X3.27940 Y-2.94763
G01 X3.27900 Y-2.94463
G01 X3.27830 Y-2.94170
G01 X3.27700 Y-2.93782
G01 X3.27673 Y-2.93621
G01 X3.27682 Y-2.93378
G01 X3.27710 Y-2.93258
G01 X3.27769 Y-2.93107
G01 X3.27852 Y-2.92967
G01 X3.27957 Y-2.92842
G01 X3.34946 Y-2.85854
G01 X3.35070 Y-2.85749
G01 X3.35210 Y-2.85666
G01 X3.35400 Y-2.85596
G01 X3.35601 Y-2.85567
G01 X3.37441 Y-2.85566
G01 X3.37603 Y-2.85579
G01 X3.37722 Y-2.85607
G01 X3.37873 Y-2.85666
G01 X3.38013 Y-2.85749
G01 X3.38137 Y-2.85854
G01 X3.38242 Y-2.85978
G01 X3.38325 Y-2.86118
G01 X3.38384 Y-2.86269
G01 X3.38418 Y-2.86428
G01 X3.38425 Y-2.86575
G01 X3.41575 Y-2.86575
G01 X3.41575 Y-2.83425
G01 X3.38425 Y-2.83425
G01 X3.38418 Y-2.83571
G01 X3.38384 Y-2.83730
G01 X3.38326 Y-2.83881
G01 X3.38243 Y-2.84021
G01 X3.38138 Y-2.84145
G01 X3.38014 Y-2.84250
G01 X3.37875 Y-2.84333
G01 X3.37724 Y-2.84393
G01 X3.37566 Y-2.84426
G01 X3.37444 Y-2.84434
G01 X3.34924 Y-2.84442
G01 X3.34724 Y-2.84509
G01 X3.34656 Y-2.84556
G01 X3.27157 Y-2.92043
G01 X3.27033 Y-2.92148
G01 X3.26893 Y-2.92231
G01 X3.26742 Y-2.92290
G01 X3.26623 Y-2.92317
G01 X3.26462 Y-2.92331
G01 X3.26220 Y-2.92301
G01 X3.25814 Y-2.92165
G01 X3.25522 Y-2.92097
G01 X3.25222 Y-2.92059
G01 X3.24958 Y-2.92051
G01 X3.24656 Y-2.92071
G01 X3.24360 Y-2.92121
G01 X3.24069 Y-2.92201
G01 X3.23822 Y-2.92296
G01 X3.23551 Y-2.92431
G01 X3.23296 Y-2.92592
G01 X3.23087 Y-2.92755
G01 X3.22867 Y-2.92963
G01 X3.22670 Y-2.93192
G01 X3.22515 Y-2.93410
G01 X3.22382 Y-2.93641
G01 X3.22256 Y-2.93919
G01 X3.22170 Y-2.94169
G01 X3.22100 Y-2.94463
G01 X3.22060 Y-2.94763
G01 X3.22051 Y-2.95027
G01 X3.23824 Y-2.95005
G01 X3.23844 Y-2.94786
G01 X3.23903 Y-2.94574
G01 X3.23873 Y-2.94562
G01 X3.23903 Y-2.94574
G01 X3.24009 Y-2.94366
G01 X3.24150 Y-2.94188
G01 X3.24124 Y-2.94163
G01 X3.24150 Y-2.94188
G01 X3.24315 Y-2.94043
G01 X3.24536 Y-2.93919
G01 X3.24521 Y-2.93886
G01 X3.24536 Y-2.93919
G01 X3.24745 Y-2.93852
G01 X3.24989 Y-2.93824
G01 X3.24990 Y-2.93779
G01 X3.24989 Y-2.93824
G01 X3.25208 Y-2.93843
G01 X3.25325 Y-2.93870
G01 X3.25682 Y-2.93990
G01 X3.25946 Y-2.94054
G01 X3.26162 Y-2.93837
G01 X3.25946 Y-2.94054
G01 X3.26012 Y-2.94324
G01 X3.26127 Y-2.94666
G01 X3.26156 Y-2.94786
G01 X3.26176 Y-2.95005
G01 X3.26219 Y-2.95004
G01 X3.26176 Y-2.95005
G01 X3.26153 Y-2.95231
G01 X3.26088 Y-2.95448
G01 X3.26113 Y-2.95458
G01 X3.26088 Y-2.95448
G01 X3.25981 Y-2.95648
G01 X3.25902 Y-2.95755
G01 X3.25917 Y-2.95768
G01 X3.25902 Y-2.95755
G01 X3.25760 Y-2.95898
G01 X3.25653 Y-2.95978
G01 X3.25660 Y-2.95988
G01 X3.25653 Y-2.95978
G01 X3.25270 Y-2.96176
G01 X3.25029 Y-2.96319
G01 X3.25035 Y-2.96539
G01 X3.25029 Y-2.96319
G01 X3.25000 Y-2.96338
G01 X3.24730 Y-2.96176
G01 X3.24424 Y-2.96035
G01 X3.24166 Y-2.95830
G01 X3.24147 Y-2.95847
G01 X3.24166 Y-2.95830
G01 X3.24018 Y-2.95648
G01 X3.23912 Y-2.95448
G01 X3.23881 Y-2.95461
G01 X3.23912 Y-2.95448
G01 X3.23847 Y-2.95231
G01 X3.23824 Y-2.95005
G04 P0 ( dwell for no time -- G64 should not smooth over this point )
G00 Z0.08000 ( retract )

G00 X3.48275 Y-2.84893 ( rapid move to begin. )
G01 F180.00000
( Mill infeed pass 1/1 )
G01 Z-0.04000
G04 P0 ( dwell for no time -- G64 should not smooth over this point )
G01 F360.00000
G01 X3.48275 Y-2.84893
G01 X3.48277 Y-2.85135
G01 X3.48317 Y-2.85378
G01 X3.48394 Y-2.85611
G01 X3.48506 Y-2.85826
G01 X3.48677 Y-2.86055
G01 X3.48812 Y-2.86188
G01 X3.48942 Y-2.86290
G01 X3.49114 Y-2.86394
G01 X3.49294 Y-2.86474
G01 X3.49482 Y-2.86531
G01 X3.49676 Y-2.86564
G01 X3.49876 Y-2.86573
G01 X3.50150 Y-2.86552
G01 X3.50352 Y-2.86565
G01 X3.50620 Y-2.86652
G01 X3.50823 Y-2.86785
G01 X3.59483 Y-2.95434
G01 X3.59619 Y-2.95518
G01 X3.59786 Y-2.95558
G01 X3.61429 Y-2.95567
G01 X3.61631 Y-2.95598
G01 X3.61786 Y-2.95652
G01 X3.61995 Y-2.95779
G01 X3.62167 Y-2.95955
G01 X3.62255 Y-2.96093
G01 X3.62475 Y-2.96524
G01 X3.62729 Y-2.96880
G01 X3.63018 Y-2.97183
G01 X3.63348 Y-2.97442
G01 X3.63711 Y-2.97652
G01 X3.64100 Y-2.97808
G01 X3.64508 Y-2.97907
G01 X3.64940 Y-2.97949
G01 X3.65167 Y-2.97945
G01 X3.65356 Y-2.97928
G01 X3.65802 Y-2.97838
G01 X3.65983 Y-2.97781
G01 X3.66194 Y-2.97697
G01 X3.66590 Y-2.97484
G01 X3.66777 Y-2.97355
G01 X3.67089 Y-2.97082
G01 X3.67243 Y-2.96915
G01 X3.67508 Y-2.96552
G01 X3.67763 Y-2.96062
G01 X3.67912 Y-2.95867
G01 X3.68037 Y-2.95759
G01 X3.68177 Y-2.95675
G01 X3.68330 Y-2.95614
G01 X3.68532 Y-2.95576
G01 X3.99541 Y-2.95566
G01 X3.99766 Y-2.95532
G01 X3.99880 Y-2.95478
G01 X4.00003 Y-2.95377
G01 X4.15635 Y-2.79745
G01 X4.15726 Y-2.79664
G01 X4.15862 Y-2.79575
G01 X4.16011 Y-2.79510
G01 X4.16169 Y-2.79470
G01 X4.16331 Y-2.79457
G01 X4.64327 Y-2.79457
G01 X4.64529 Y-2.79478
G01 X4.64722 Y-2.79540
G01 X4.64865 Y-2.79617
G01 X4.65023 Y-2.79745
G01 X4.76631 Y-2.91353
G01 X4.76759 Y-2.91511
G01 X4.76819 Y-2.91617
G01 X4.76878 Y-2.91768
G01 X4.76906 Y-2.91887
G01 X4.76919 Y-2.92049
G01 X4.76919 Y-2.97951
G01 X4.76898 Y-2.98153
G01 X4.76836 Y-2.98346
G01 X4.76759 Y-2.98489
G01 X4.76631 Y-2.98647
G01 X4.59006 Y-3.16272
G01 X4.58882 Y-3.16377
G01 X4.58778 Y-3.16441
G01 X4.58629 Y-3.16507
G01 X4.58512 Y-3.16539
G01 X4.58350 Y-3.16559
G01 X4.54362 Y-3.16557
G01 X4.54240 Y-3.16539
G01 X4.54083 Y-3.16492
G01 X4.53868 Y-3.16374
G01 X4.53715 Y-3.16237
G01 X4.53508 Y-3.15972
G01 X4.53380 Y-3.15838
G01 X4.53082 Y-3.15612
G01 X4.52919 Y-3.15524
G01 X4.52729 Y-3.15448
G01 X4.52368 Y-3.15367
G01 X4.52137 Y-3.15354
G01 X4.47839 Y-3.15354
G01 X4.47582 Y-3.15374
G01 X4.47374 Y-3.15417
G01 X4.47153 Y-3.15493
G01 X4.46961 Y-3.15587
G01 X4.46782 Y-3.15703
G01 X4.46604 Y-3.15855
G01 X4.46461 Y-3.16011
G01 X4.46322 Y-3.16207
G01 X4.46175 Y-3.16509
G01 X4.46087 Y-3.16843
G01 X4.46068 Y-3.17015
G01 X4.46080 Y-3.17359
G01 X4.46157 Y-3.17693
G01 X4.46228 Y-3.17870
G01 X4.46402 Y-3.18166
G01 X4.46631 Y-3.18424
G01 X4.46900 Y-3.18629
G01 X4.47096 Y-3.18734
G01 X4.47297 Y-3.18812
G01 X4.47506 Y-3.18865
G01 X4.47718 Y-3.18892
G01 X4.52239 Y-3.18895
G01 X4.52445 Y-3.18874
G01 X4.52641 Y-3.18831
G01 X4.52830 Y-3.18766
G01 X4.53028 Y-3.18671
G01 X4.53195 Y-3.18566
G01 X4.53365 Y-3.18427
G01 X4.53503 Y-3.18284
G01 X4.53689 Y-3.18044
G01 X4.53836 Y-3.17902
G01 X4.54009 Y-3.17793
G01 X4.54240 Y-3.17713
G01 X4.54444 Y-3.17692
G01 X4.58975 Y-3.17690
G01 X4.59140 Y-3.17656
G01 X4.59300 Y-3.17569
G01 X4.77872 Y-2.99005
G01 X4.77956 Y-2.98899
G01 X4.78004 Y-2.98808
G01 X4.78049 Y-2.98609
G01 X4.78049 Y-2.91397
G01 X4.78031 Y-2.91276
G01 X4.77948 Y-2.91089
G01 X4.77853 Y-2.90975
G01 X4.65381 Y-2.78504
G01 X4.65275 Y-2.78420
G01 X4.65178 Y-2.78369
G01 X4.64979 Y-2.78327
G01 X4.15721 Y-2.78325
G01 X4.15563 Y-2.78341
G01 X4.15402 Y-2.78406
G01 X4.15266 Y-2.78514
G01 X3.99634 Y-2.94146
G01 X3.99476 Y-2.94274
G01 X3.99333 Y-2.94351
G01 X3.99140 Y-2.94413
G01 X3.98979 Y-2.94433
G01 X3.68534 Y-2.94431
G01 X3.68372 Y-2.94403
G01 X3.68217 Y-2.94349
G01 X3.68073 Y-2.94270
G01 X3.67914 Y-2.94139
G01 X3.67765 Y-2.93943
G01 X3.67525 Y-2.93476
G01 X3.67271 Y-2.93120
G01 X3.66969 Y-2.92804
G01 X3.66640 Y-2.92549
G01 X3.66246 Y-2.92327
G01 X3.65840 Y-2.92172
G01 X3.65418 Y-2.92080
G01 X3.64980 Y-2.92051
G01 X3.64626 Y-2.92075
G01 X3.64273 Y-2.92142
G01 X3.63928 Y-2.92252
G01 X3.63624 Y-2.92391
G01 X3.63424 Y-2.92506
G01 X3.63201 Y-2.92662
G01 X3.62993 Y-2.92838
G01 X3.62673 Y-2.93187
G01 X3.62514 Y-2.93412
G01 X3.62395 Y-2.93616
G01 X3.62233 Y-2.93947
G01 X3.62138 Y-2.94081
G01 X3.61992 Y-2.94224
G01 X3.61818 Y-2.94333
G01 X3.61626 Y-2.94404
G01 X3.61424 Y-2.94433
G01 X3.60485 Y-2.94434
G01 X3.60283 Y-2.94413
G01 X3.60127 Y-2.94367
G01 X3.60016 Y-2.94316
G01 X3.59880 Y-2.94227
G01 X3.59789 Y-2.94146
G01 X3.51655 Y-2.86011
G01 X3.51497 Y-2.85781
G01 X3.51417 Y-2.85555
G01 X3.51394 Y-2.85357
G01 X3.51415 Y-2.84998
G01 X3.51403 Y-2.84803
G01 X3.51367 Y-2.84614
G01 X3.51295 Y-2.84396
G01 X3.51211 Y-2.84226
G01 X3.51086 Y-2.84038
G01 X3.50936 Y-2.83870
G01 X3.50784 Y-2.83739
G01 X3.50516 Y-2.83578
G01 X3.50353 Y-2.83512
G01 X3.50041 Y-2.83439
G01 X3.49726 Y-2.83431
G01 X3.49554 Y-2.83453
G01 X3.49221 Y-2.83554
G01 X3.48945 Y-2.83708
G01 X3.48806 Y-2.83816
G01 X3.48588 Y-2.84050
G01 X3.48515 Y-2.84156
G01 X3.48394 Y-2.84389
G01 X3.48318 Y-2.84618
G01 X3.48275 Y-2.84893
G04 P0 ( dwell for no time -- G64 should not smooth over this point )
G00 Z0.08000 ( retract )

G00 X3.66339 Y-2.95001 ( rapid move to begin. )
G01 F180.00000
( Mill infeed pass 1/1 )
G01 Z-0.04000
G04 P0 ( dwell for no time -- G64 should not smooth over this point )
G01 F360.00000
G01 X3.66339 Y-2.95001
G01 X3.66177 Y-2.95270
G01 X3.66025 Y-2.95592
G01 X3.65871 Y-2.95791
G01 X3.65774 Y-2.95888
G01 X3.65793 Y-2.95910
G01 X3.65774 Y-2.95888
G01 X3.65664 Y-2.95971
G01 X3.65387 Y-2.96112
G01 X3.65396 Y-2.96139
G01 X3.65387 Y-2.96112
G01 X3.65100 Y-2.96173
G01 X3.65012 Y-2.96176
G01 X3.65012 Y-2.96200
G01 X3.65012 Y-2.96176
G01 X3.64804 Y-2.96156
G01 X3.64642 Y-2.96116
G01 X3.64632 Y-2.96144
G01 X3.64642 Y-2.96116
G01 X3.64487 Y-2.96054
G01 X3.64343 Y-2.95971
G01 X3.64212 Y-2.95868
G01 X3.64193 Y-2.95891
G01 X3.64212 Y-2.95868
G01 X3.63965 Y-2.95576
G01 X3.63821 Y-2.95265
G01 X3.63677 Y-2.95023
G01 X3.63452 Y-2.95026
G01 X3.63677 Y-2.95023
G01 X3.63661 Y-2.95000
G01 X3.63814 Y-2.94747
G01 X3.64005 Y-2.94372
G01 X3.63996 Y-2.94365
G01 X3.64005 Y-2.94372
G01 X3.64195 Y-2.94142
G01 X3.64180 Y-2.94124
G01 X3.64195 Y-2.94142
G01 X3.64377 Y-2.94002
G01 X3.64567 Y-2.93908
G01 X3.64556 Y-2.93880
G01 X3.64567 Y-2.93908
G01 X3.64710 Y-2.93862
G01 X3.64980 Y-2.93827
G01 X3.64980 Y-2.93797
G01 X3.64980 Y-2.93827
G01 X3.65203 Y-2.93841
G01 X3.65433 Y-2.93905
G01 X3.65444 Y-2.93877
G01 X3.65433 Y-2.93905
G01 X3.65754 Y-2.94096
G01 X3.65771 Y-2.94076
G01 X3.65754 Y-2.94096
G01 X3.65903 Y-2.94252
G01 X3.66036 Y-2.94423
G01 X3.66179 Y-2.94734
G01 X3.66339 Y-2.95001
G01 X3.66585 Y-2.95002
G04 P0 ( dwell for no time -- G64 should not smooth over this point )
G00 Z0.08000 ( retract )

G00 X3.73665 Y-3.30487 ( rapid move to begin. )
G01 F180.00000
( Mill infeed pass 1/1 )
G01 Z-0.04000
G04 P0 ( dwell for no time -- G64 should not smooth over this point )
G01 F360.00000
G01 X3.73665 Y-3.30487
G01 X3.73943 Y-3.30391
G01 X3.74033 Y-3.29830
G01 X3.74115 Y-3.29575
G01 X3.74077 Y-3.29558
G01 X3.74115 Y-3.29575
G01 X3.74217 Y-3.29408
G01 X3.74337 Y-3.29276
G01 X3.74316 Y-3.29253
G01 X3.74337 Y-3.29276
G01 X3.74479 Y-3.29168
G01 X3.74631 Y-3.29090
G01 X3.74620 Y-3.29062
G01 X3.74631 Y-3.29090
G01 X3.74820 Y-3.29035
G01 X3.74990 Y-3.29018
G01 X3.74990 Y-3.28984
G01 X3.74990 Y-3.29018
G01 X3.75203 Y-3.29040
G01 X3.75376 Y-3.29094
G01 X3.75389 Y-3.29061
G01 X3.75376 Y-3.29094
G01 X3.75557 Y-3.29193
G01 X3.75691 Y-3.29304
G01 X3.75716 Y-3.29279
G01 X3.75691 Y-3.29304
G01 X3.75822 Y-3.29464
G01 X3.75909 Y-3.29631
G01 X3.75942 Y-3.29618
G01 X3.75909 Y-3.29631
G01 X3.75963 Y-3.29812
G01 X3.75981 Y-3.30000
G01 X3.76013 Y-3.30000
G01 X3.75981 Y-3.30000
G01 X3.75966 Y-3.30178
G01 X3.75917 Y-3.30349
G01 X3.75946 Y-3.30360
G01 X3.75917 Y-3.30349
G01 X3.75829 Y-3.30525
G01 X3.75721 Y-3.30666
G01 X3.75748 Y-3.30692
G01 X3.75721 Y-3.30666
G01 X3.75588 Y-3.30786
G01 X3.75373 Y-3.30908
G01 X3.75388 Y-3.30943
G01 X3.75373 Y-3.30908
G01 X3.75203 Y-3.30960
G01 X3.75005 Y-3.30980
G01 X3.75005 Y-3.31009
G01 X3.75005 Y-3.30980
G01 X3.74882 Y-3.30973
G01 X3.74675 Y-3.30925
G01 X3.74667 Y-3.30949
G01 X3.74675 Y-3.30925
G01 X3.74382 Y-3.30772
G01 X3.74164 Y-3.30566
G01 X3.73943 Y-3.30391
G04 P0 ( dwell for no time -- G64 should not smooth over this point )
G00 Z0.08000 ( retract )

G00 X3.83482 Y-3.28292 ( rapid move to begin. )
G01 F180.00000
( Mill infeed pass 1/1 )
G01 Z-0.04000
G04 P0 ( dwell for no time -- G64 should not smooth over this point )
G01 F360.00000
G01 X3.83482 Y-3.28292
G01 X3.84015 Y-3.28819
G01 X3.84015 Y-3.31240
G01 X3.84046 Y-3.31247
G01 X3.83717 Y-3.31489
G01 X3.84046 Y-3.31247
G01 X3.84317 Y-3.31321
G01 X3.84687 Y-3.31474
G01 X3.85000 Y-3.31659
G01 X3.84999 Y-3.31904
G01 X3.85000 Y-3.31659
G01 X3.85242 Y-3.31511
G01 X3.85533 Y-3.31376
G01 X3.85760 Y-3.31297
G01 X3.86002 Y-3.31236
G01 X3.86201 Y-3.31422
G01 X3.86002 Y-3.31236
G01 X3.86050 Y-3.30953
G01 X3.86137 Y-3.30645
G01 X3.86278 Y-3.30313
G01 X3.86462 Y-3.30000
G01 X3.86684 Y-3.29999
G01 X3.86462 Y-3.30000
G01 X3.86334 Y-3.29793
G01 X3.86226 Y-3.29578
G01 X3.86137 Y-3.29355
G01 X3.86068 Y-3.29124
G01 X3.86009 Y-3.28819
G01 X3.86299 Y-3.28445
G01 X3.86009 Y-3.28819
G01 X3.84015 Y-3.28819
G04 P0 ( dwell for no time -- G64 should not smooth over this point )
G00 Z0.08000 ( retract )

G00 X4.05985 Y-3.31181 ( rapid move to begin. )
G01 F180.00000
( Mill infeed pass 1/1 )
G01 Z-0.04000
G04 P0 ( dwell for no time -- G64 should not smooth over this point )
G01 F360.00000
G01 X4.05985 Y-3.31181
G01 X4.03991 Y-3.31181
G01 X4.03700 Y-3.31554
G01 X4.03991 Y-3.31181
G01 X4.03932 Y-3.30876
G01 X4.03863 Y-3.30645
G01 X4.03774 Y-3.30422
G01 X4.03666 Y-3.30207
G01 X4.03540 Y-3.30002
G01 X4.03316 Y-3.30003
G01 X4.03540 Y-3.30002
G01 X4.03774 Y-3.29578
G01 X4.03863 Y-3.29355
G01 X4.03932 Y-3.29124
G01 X4.03991 Y-3.28819
G01 X4.03700 Y-3.28445
G01 X4.03991 Y-3.28819
G01 X4.05985 Y-3.28819
G01 X4.06503 Y-3.28300
G01 X4.05985 Y-3.28819
G01 X4.05985 Y-3.31181
G01 X4.06503 Y-3.31700
G04 P0 ( dwell for no time -- G64 should not smooth over this point )
G00 Z0.08000 ( retract )

G00 X4.12246 Y-3.29977 ( rapid move to begin. )
G01 F180.00000
( Mill infeed pass 1/1 )
G01 Z-0.04000
G04 P0 ( dwell for no time -- G64 should not smooth over this point )
G01 F360.00000
G01 X4.12246 Y-3.29977
G01 X4.12267 Y-3.30341
G01 X4.12325 Y-3.30657
G01 X4.12421 Y-3.30966
G01 X4.12551 Y-3.31260
G01 X4.12736 Y-3.31568
G01 X4.12934 Y-3.31821
G01 X4.13162 Y-3.32051
G01 X4.13416 Y-3.32253
G01 X4.13692 Y-3.32423
G01 X4.13983 Y-3.32559
G01 X4.14324 Y-3.32670
G01 X4.14637 Y-3.32730
G01 X4.14995 Y-3.32754
G01 X4.15316 Y-3.32736
G01 X4.15635 Y-3.32680
G01 X4.16161 Y-3.32536
G01 X4.16324 Y-3.32529
G01 X4.16525 Y-3.32558
G01 X4.16716 Y-3.32628
G01 X4.16889 Y-3.32735
G01 X4.17548 Y-3.33364
G01 X4.17706 Y-3.33439
G01 X4.17911 Y-3.33465
G01 X4.45613 Y-3.33466
G01 X4.45891 Y-3.33517
G01 X4.46142 Y-3.33646
G01 X4.46294 Y-3.33779
G01 X4.46510 Y-3.34047
G01 X4.46663 Y-3.34200
G01 X4.46833 Y-3.34333
G01 X4.47018 Y-3.34444
G01 X4.47217 Y-3.34533
G01 X4.47405 Y-3.34591
G01 X4.47619 Y-3.34631
G01 X4.47865 Y-3.34646
G01 X4.52137 Y-3.34646
G01 X4.52461 Y-3.34619
G01 X4.52767 Y-3.34539
G01 X4.53052 Y-3.34407
G01 X4.53323 Y-3.34214
G01 X4.53543 Y-3.33985
G01 X4.53688 Y-3.33775
G01 X4.53798 Y-3.33557
G01 X4.53876 Y-3.33325
G01 X4.53922 Y-3.33086
G01 X4.53934 Y-3.32842
G01 X4.53913 Y-3.32598
G01 X4.53858 Y-3.32360
G01 X4.53771 Y-3.32132
G01 X4.53654 Y-3.31918
G01 X4.53508 Y-3.31722
G01 X4.53336 Y-3.31548
G01 X4.53143 Y-3.31399
G01 X4.52930 Y-3.31278
G01 X4.52703 Y-3.31188
G01 X4.52466 Y-3.31130
G01 X4.52205 Y-3.31104
G01 X4.47847 Y-3.31102
G01 X4.47511 Y-3.31134
G01 X4.47195 Y-3.31223
G01 X4.47037 Y-3.31293
G01 X4.46746 Y-3.31478
G01 X4.46497 Y-3.31714
G01 X4.46270 Y-3.31995
G01 X4.46077 Y-3.32144
G01 X4.45854 Y-3.32242
G01 X4.45614 Y-3.32282
G01 X4.18526 Y-3.32283
G01 X4.18364 Y-3.32270
G01 X4.18207 Y-3.32230
G01 X4.18094 Y-3.32183
G01 X4.17954 Y-3.32100
G01 X4.17860 Y-3.32023
G01 X4.17762 Y-3.31921
G01 X4.17668 Y-3.31790
G01 X4.17559 Y-3.31530
G01 X4.17529 Y-3.31330
G01 X4.17535 Y-3.31169
G01 X4.17693 Y-3.30578
G01 X4.17738 Y-3.30297
G01 X4.17754 Y-3.29970
G01 X4.17732 Y-3.29647
G01 X4.17671 Y-3.29329
G01 X4.17574 Y-3.29020
G01 X4.17442 Y-3.28726
G01 X4.17256 Y-3.28420
G01 X4.17056 Y-3.28168
G01 X4.16829 Y-3.27941
G01 X4.16545 Y-3.27720
G01 X4.16269 Y-3.27556
G01 X4.15973 Y-3.27424
G01 X4.15664 Y-3.27327
G01 X4.15345 Y-3.27268
G01 X4.15017 Y-3.27245
G01 X4.14757 Y-3.27256
G01 X4.14497 Y-3.27292
G01 X4.14205 Y-3.27362
G01 X4.13958 Y-3.27450
G01 X4.13720 Y-3.27561
G01 X4.13462 Y-3.27715
G01 X4.13251 Y-3.27871
G01 X4.13057 Y-3.28048
G01 X4.12856 Y-3.28271
G01 X4.12701 Y-3.28483
G01 X4.12566 Y-3.28711
G01 X4.12453 Y-3.28951
G01 X4.12364 Y-3.29201
G01 X4.12299 Y-3.29458
G01 X4.12259 Y-3.29720
G01 X4.12246 Y-3.29977
G01 X4.14020 Y-3.29973
G01 X4.14038 Y-3.29807
G01 X4.14093 Y-3.29626
G01 X4.14062 Y-3.29613
G01 X4.14093 Y-3.29626
G01 X4.14181 Y-3.29459
G01 X4.14313 Y-3.29300
G01 X4.14288 Y-3.29275
G01 X4.14313 Y-3.29300
G01 X4.14447 Y-3.29190
G01 X4.14629 Y-3.29092
G01 X4.14616 Y-3.29060
G01 X4.14629 Y-3.29092
G01 X4.14827 Y-3.29034
G01 X4.14993 Y-3.29019
G01 X4.14993 Y-3.28987
G01 X4.14993 Y-3.29019
G01 X4.15123 Y-3.29028
G01 X4.15346 Y-3.29083
G01 X4.15362 Y-3.29046
G01 X4.15346 Y-3.29083
G01 X4.15544 Y-3.29186
G01 X4.15731 Y-3.29348
G01 X4.15761 Y-3.29320
G01 X4.15731 Y-3.29348
G01 X4.15871 Y-3.29553
G01 X4.15916 Y-3.29651
G01 X4.15942 Y-3.29641
G01 X4.15916 Y-3.29651
G01 X4.15972 Y-3.29874
G01 X4.15980 Y-3.29989
G01 X4.16017 Y-3.29990
G01 X4.15980 Y-3.29989
G01 X4.15961 Y-3.30188
G01 X4.15801 Y-3.30791
G01 X4.16029 Y-3.31016
G01 X4.15801 Y-3.30791
G01 X4.15226 Y-3.30953
G01 X4.15005 Y-3.30979
G01 X4.15006 Y-3.31019
G01 X4.15005 Y-3.30979
G01 X4.14865 Y-3.30970
G01 X4.14632 Y-3.30908
G01 X4.14621 Y-3.30936
G01 X4.14632 Y-3.30908
G01 X4.14436 Y-3.30801
G01 X4.14346 Y-3.30730
G01 X4.14319 Y-3.30758
G01 X4.14346 Y-3.30730
G01 X4.14199 Y-3.30563
G01 X4.14083 Y-3.30344
G01 X4.14043 Y-3.30360
G01 X4.14083 Y-3.30344
G01 X4.14029 Y-3.30127
G01 X4.14020 Y-3.29973
G04 P0 ( dwell for no time -- G64 should not smooth over this point )
G00 Z0.08000 ( retract )

G00 X4.28269 Y-2.94807 ( rapid move to begin. )
G01 F180.00000
( Mill infeed pass 1/1 )
G01 Z-0.04000
G04 P0 ( dwell for no time -- G64 should not smooth over this point )
G01 F360.00000
G01 X4.28269 Y-2.94807
G01 X4.28485 Y-2.94986
G01 X4.28709 Y-2.95217
G01 X4.29062 Y-2.95707
G01 X4.29270 Y-2.95921
G01 X4.29247 Y-2.95948
G01 X4.29270 Y-2.95921
G01 X4.29497 Y-2.96061
G01 X4.29630 Y-2.96115
G01 X4.29624 Y-2.96132
G01 X4.29630 Y-2.96115
G01 X4.29892 Y-2.96170
G01 X4.29890 Y-2.96190
G01 X4.29892 Y-2.96170
G01 X4.30042 Y-2.96173
G01 X4.30331 Y-2.96127
G01 X4.30343 Y-2.96164
G01 X4.30331 Y-2.96127
G01 X4.30577 Y-2.96023
G01 X4.30793 Y-2.95866
G01 X4.30815 Y-2.95892
G01 X4.30793 Y-2.95866
G01 X4.30907 Y-2.95748
G01 X4.31029 Y-2.95568
G01 X4.31057 Y-2.95582
G01 X4.31029 Y-2.95568
G01 X4.31128 Y-2.95330
G01 X4.31171 Y-2.95102
G01 X4.31216 Y-2.95106
G01 X4.31171 Y-2.95102
G01 X4.31167 Y-2.94866
G01 X4.31088 Y-2.94557
G01 X4.31125 Y-2.94543
G01 X4.31088 Y-2.94557
G01 X4.31029 Y-2.94435
G01 X4.30854 Y-2.94194
G01 X4.30879 Y-2.94169
G01 X4.30854 Y-2.94194
G01 X4.30734 Y-2.94085
G01 X4.30607 Y-2.93996
G01 X4.30065 Y-2.93699
G01 X4.29870 Y-2.93558
G01 X4.29681 Y-2.93395
G01 X4.29631 Y-2.92869
G01 X4.29681 Y-2.93395
G01 X4.28269 Y-2.94807
G01 X4.27482 Y-2.94823
G04 P0 ( dwell for no time -- G64 should not smooth over this point )
G00 Z0.08000 ( retract )

G00 X4.40963 Y-3.24511 ( rapid move to begin. )
G01 F180.00000
( Mill infeed pass 1/1 )
G01 Z-0.04000
G04 P0 ( dwell for no time -- G64 should not smooth over this point )
G01 F360.00000
G01 X4.40963 Y-3.24511
G01 X4.40973 Y-3.24644
G01 X4.41021 Y-3.24792
G01 X4.41135 Y-3.24955
G01 X4.41606 Y-3.25422
G01 X4.41692 Y-3.25482
G01 X4.41817 Y-3.25538
G01 X4.41983 Y-3.25565
G01 X4.45556 Y-3.25566
G01 X4.45761 Y-3.25587
G01 X4.45956 Y-3.25651
G01 X4.46167 Y-3.25779
G01 X4.46287 Y-3.25891
G01 X4.46483 Y-3.26143
G01 X4.46599 Y-3.26268
G01 X4.46869 Y-3.26484
G01 X4.47018 Y-3.26571
G01 X4.47336 Y-3.26699
G01 X4.47678 Y-3.26764
G01 X4.52163 Y-3.26771
G01 X4.52402 Y-3.26754
G01 X4.52765 Y-3.26666
G01 X4.53052 Y-3.26533
G01 X4.53185 Y-3.26448
G01 X4.53310 Y-3.26351
G01 X4.53532 Y-3.26125
G01 X4.53627 Y-3.25999
G01 X4.53782 Y-3.25723
G01 X4.53885 Y-3.25424
G01 X4.53932 Y-3.25111
G01 X4.53935 Y-3.24953
G01 X4.53924 Y-3.24795
G01 X4.53860 Y-3.24486
G01 X4.53741 Y-3.24193
G01 X4.53572 Y-3.23925
G01 X4.53359 Y-3.23692
G01 X4.53237 Y-3.23591
G01 X4.52970 Y-3.23422
G01 X4.52824 Y-3.23356
G01 X4.52537 Y-3.23269
G01 X4.52381 Y-3.23242
G01 X4.52217 Y-3.23230
G01 X4.47857 Y-3.23228
G01 X4.47592 Y-3.23247
G01 X4.47235 Y-3.23334
G01 X4.46899 Y-3.23497
G01 X4.46605 Y-3.23727
G01 X4.46476 Y-3.23865
G01 X4.46289 Y-3.24107
G01 X4.46136 Y-3.24245
G01 X4.45919 Y-3.24365
G01 X4.45761 Y-3.24413
G01 X4.45639 Y-3.24431
G01 X4.43079 Y-3.24434
G01 X4.42917 Y-3.24421
G01 X4.42721 Y-3.24367
G01 X4.42507 Y-3.24251
G01 X4.42354 Y-3.24117
G01 X4.42213 Y-3.23918
G01 X4.42124 Y-3.23692
G01 X4.42094 Y-3.23450
G01 X4.42098 Y-3.04691
G01 X4.42135 Y-3.04491
G01 X4.42194 Y-3.04340
G01 X4.42278 Y-3.04200
G01 X4.42383 Y-3.04076
G01 X4.55447 Y-2.91002
G01 X4.55528 Y-2.90855
G01 X4.55561 Y-2.90702
G01 X4.55566 Y-2.87557
G01 X4.55579 Y-2.87396
G01 X4.55607 Y-2.87277
G01 X4.55666 Y-2.87126
G01 X4.55749 Y-2.86986
G01 X4.55854 Y-2.86863
G01 X4.55978 Y-2.86758
G01 X4.56118 Y-2.86675
G01 X4.56269 Y-2.86616
G01 X4.56428 Y-2.86582
G01 X4.56575 Y-2.86575
G01 X4.56596 Y-2.86348
G01 X4.56658 Y-2.86155
G01 X4.56758 Y-2.85978
G01 X4.56892 Y-2.85826
G01 X4.57055 Y-2.85704
G01 X4.57201 Y-2.85633
G01 X4.57357 Y-2.85587
G01 X4.57518 Y-2.85567
G01 X4.59439 Y-2.85569
G01 X4.59678 Y-2.85619
G01 X4.59826 Y-2.85684
G01 X4.59930 Y-2.85749
G01 X4.60054 Y-2.85854
G01 X4.67042 Y-2.92842
G01 X4.67148 Y-2.92967
G01 X4.67248 Y-2.93144
G01 X4.67310 Y-2.93337
G01 X4.67330 Y-2.93499
G01 X4.67309 Y-2.93742
G01 X4.67169 Y-2.94173
G01 X4.67106 Y-2.94431
G01 X4.67063 Y-2.94733
G01 X4.67050 Y-2.95000
G01 X4.67063 Y-2.95267
G01 X4.67106 Y-2.95569
G01 X4.67169 Y-2.95828
G01 X4.67256 Y-2.96081
G01 X4.67382 Y-2.96359
G01 X4.67516 Y-2.96590
G01 X4.67670 Y-2.96808
G01 X4.67867 Y-2.97037
G01 X4.68087 Y-2.97245
G01 X4.68298 Y-2.97409
G01 X4.68525 Y-2.97554
G01 X4.68760 Y-2.97676
G01 X4.69069 Y-2.97798
G01 X4.69419 Y-2.97891
G01 X4.69778 Y-2.97941
G01 X4.70102 Y-2.97947
G01 X4.70465 Y-2.97912
G01 X4.70782 Y-2.97843
G01 X4.71127 Y-2.97725
G01 X4.71422 Y-2.97584
G01 X4.71700 Y-2.97410
G01 X4.71984 Y-2.97182
G01 X4.72212 Y-2.96950
G01 X4.72434 Y-2.96665
G01 X4.72620 Y-2.96354
G01 X4.72753 Y-2.96058
G01 X4.72862 Y-2.95710
G01 X4.72923 Y-2.95391
G01 X4.72949 Y-2.95032
G01 X4.72926 Y-2.94639
G01 X4.72862 Y-2.94290
G01 X4.72742 Y-2.93917
G01 X4.72576 Y-2.93565
G01 X4.72363 Y-2.93236
G01 X4.72134 Y-2.92965
G01 X4.71845 Y-2.92700
G01 X4.71526 Y-2.92477
G01 X4.71180 Y-2.92298
G01 X4.70814 Y-2.92166
G01 X4.70433 Y-2.92083
G01 X4.70045 Y-2.92052
G01 X4.69656 Y-2.92071
G01 X4.69273 Y-2.92142
G01 X4.68766 Y-2.92304
G01 X4.68568 Y-2.92330
G01 X4.68290 Y-2.92299
G01 X4.68032 Y-2.92191
G01 X4.67843 Y-2.92043
G01 X4.60344 Y-2.84556
G01 X4.60221 Y-2.84482
G01 X4.60076 Y-2.84442
G01 X4.57556 Y-2.84434
G01 X4.57434 Y-2.84426
G01 X4.57276 Y-2.84393
G01 X4.57125 Y-2.84333
G01 X4.56985 Y-2.84250
G01 X4.56862 Y-2.84145
G01 X4.56757 Y-2.84021
G01 X4.56674 Y-2.83881
G01 X4.56616 Y-2.83730
G01 X4.56582 Y-2.83571
G01 X4.56575 Y-2.83425
G01 X4.53425 Y-2.83425
G01 X4.53425 Y-2.86575
G01 X4.53612 Y-2.86588
G01 X4.53770 Y-2.86628
G01 X4.53954 Y-2.86714
G01 X4.54086 Y-2.86808
G01 X4.54227 Y-2.86955
G01 X4.54316 Y-2.87091
G01 X4.54381 Y-2.87239
G01 X4.54427 Y-2.87437
G01 X4.54433 Y-2.90058
G01 X4.54393 Y-2.90298
G01 X4.54296 Y-2.90521
G01 X4.54146 Y-2.90713
G01 X4.41137 Y-3.03723
G01 X4.41021 Y-3.03888
G01 X4.40969 Y-3.04063
G01 X4.40963 Y-3.24511
G01 X4.47913 Y-3.25000
G01 X4.49018 Y-3.25000
G01 X4.47913 Y-3.25000
G04 P0 ( dwell for no time -- G64 should not smooth over this point )
G00 Z0.08000 ( retract )

G00 X4.47926 Y-3.32874 ( rapid move to begin. )
G01 F180.00000
( Mill infeed pass 1/1 )
G01 Z-0.04000
G04 P0 ( dwell for no time -- G64 should not smooth over this point )
G01 F360.00000
G01 X4.47926 Y-3.32874
G01 X4.48944 Y-3.32874
G01 X4.47926 Y-3.32874
G04 P0 ( dwell for no time -- G64 should not smooth over this point )
G00 Z0.08000 ( retract )

G00 X4.69046 Y-2.94091 ( rapid move to begin. )
G01 F180.00000
( Mill infeed pass 1/1 )
G01 Z-0.04000
G04 P0 ( dwell for no time -- G64 should not smooth over this point )
G01 F360.00000
G01 X4.69046 Y-2.94091
G01 X4.68976 Y-2.94362
G01 X4.68847 Y-2.94767
G01 X4.68835 Y-2.94765
G01 X4.68847 Y-2.94767
G01 X4.68828 Y-2.94900
G01 X4.68828 Y-2.95100
G01 X4.68802 Y-2.95103
G01 X4.68828 Y-2.95100
G01 X4.68871 Y-2.95330
G01 X4.68959 Y-2.95547
G01 X4.68928 Y-2.95563
G01 X4.68959 Y-2.95547
G01 X4.69067 Y-2.95716
G01 X4.69242 Y-2.95899
G01 X4.69220 Y-2.95924
G01 X4.69242 Y-2.95899
G01 X4.69412 Y-2.96019
G01 X4.69623 Y-2.96113
G01 X4.69614 Y-2.96141
G01 X4.69623 Y-2.96113
G01 X4.69769 Y-2.96151
G01 X4.70035 Y-2.96174
G01 X4.70036 Y-2.96204
G01 X4.70035 Y-2.96174
G01 X4.70306 Y-2.96134
G01 X4.70455 Y-2.96083
G01 X4.70470 Y-2.96117
G01 X4.70455 Y-2.96083
G01 X4.70672 Y-2.95963
G01 X4.70877 Y-2.95781
G01 X4.70903 Y-2.95806
G01 X4.70877 Y-2.95781
G01 X4.70969 Y-2.95663
G01 X4.71094 Y-2.95427
G01 X4.71121 Y-2.95437
G01 X4.71094 Y-2.95427
G01 X4.71141 Y-2.95277
G01 X4.71174 Y-2.95019
G01 X4.71205 Y-2.95019
G01 X4.71174 Y-2.95019
G01 X4.71164 Y-2.94850
G01 X4.71091 Y-2.94569
G01 X4.71122 Y-2.94557
G01 X4.71091 Y-2.94569
G01 X4.71025 Y-2.94429
G01 X4.70854 Y-2.94194
G01 X4.70879 Y-2.94170
G01 X4.70854 Y-2.94194
G01 X4.70734 Y-2.94085
G01 X4.70607 Y-2.93996
G01 X4.70470 Y-2.93925
G01 X4.70484 Y-2.93892
G01 X4.70470 Y-2.93925
G01 X4.70324 Y-2.93872
G01 X4.70172 Y-2.93839
G01 X4.70018 Y-2.93827
G01 X4.70019 Y-2.93802
G01 X4.70018 Y-2.93827
G01 X4.69863 Y-2.93835
G01 X4.69710 Y-2.93863
G01 X4.69708 Y-2.93853
G01 X4.69710 Y-2.93863
G01 X4.69354 Y-2.93979
G01 X4.69053 Y-2.94054
G01 X4.69046 Y-2.94091
G01 X4.68886 Y-2.93938
G04 P0 ( dwell for no time -- G64 should not smooth over this point )
G00 Z0.08000 ( retract )

G00 X4.68675 Y-2.55030 ( rapid move to begin. )
G01 F180.00000
( Mill infeed pass 1/1 )
G01 Z-0.04000
G04 P0 ( dwell for no time -- G64 should not smooth over this point )
G01 F360.00000
G01 X4.68675 Y-2.55030
G01 X4.68655 Y-2.55000
G01 X4.68802 Y-2.54765
G01 X4.68962 Y-2.54445
G01 X4.69060 Y-2.54291
G01 X4.69160 Y-2.54175
G01 X4.69124 Y-2.54141
G01 X4.69160 Y-2.54175
G01 X4.69373 Y-2.54009
G01 X4.69557 Y-2.53910
G01 X4.69545 Y-2.53881
G01 X4.69557 Y-2.53910
G01 X4.69761 Y-2.53847
G01 X4.69965 Y-2.53823
G01 X4.69965 Y-2.53785
G01 X4.69965 Y-2.53823
G01 X4.70273 Y-2.53856
G01 X4.70488 Y-2.53930
G01 X4.70504 Y-2.53894
G01 X4.70488 Y-2.53930
G01 X4.70684 Y-2.54043
G01 X4.70850 Y-2.54188
G01 X4.70874 Y-2.54165
G01 X4.70850 Y-2.54188
G01 X4.70991 Y-2.54366
G01 X4.71096 Y-2.54574
G01 X4.71127 Y-2.54562
G01 X4.71096 Y-2.54574
G01 X4.71153 Y-2.54767
G01 X4.71176 Y-2.55000
G01 X4.71207 Y-2.55000
G01 X4.71176 Y-2.55000
G01 X4.71153 Y-2.55233
G01 X4.71096 Y-2.55425
G01 X4.71126 Y-2.55437
G01 X4.71096 Y-2.55425
G01 X4.70991 Y-2.55634
G01 X4.70859 Y-2.55804
G01 X4.70882 Y-2.55826
G01 X4.70859 Y-2.55804
G01 X4.70704 Y-2.55942
G01 X4.70510 Y-2.56060
G01 X4.70526 Y-2.56096
G01 X4.70510 Y-2.56060
G01 X4.70290 Y-2.56140
G01 X4.69975 Y-2.56177
G01 X4.69975 Y-2.56217
G01 X4.69975 Y-2.56177
G01 X4.69728 Y-2.56146
G01 X4.69557 Y-2.56091
G01 X4.69548 Y-2.56115
G01 X4.69557 Y-2.56091
G01 X4.69390 Y-2.56008
G01 X4.69245 Y-2.55903
G01 X4.69232 Y-2.55919
G01 X4.69245 Y-2.55903
G01 X4.69121 Y-2.55783
G01 X4.69012 Y-2.55641
G01 X4.69003 Y-2.55647
G01 X4.69012 Y-2.55641
G01 X4.68821 Y-2.55270
G01 X4.68675 Y-2.55030
G01 X4.28797 Y-2.55601
G01 X4.29016 Y-2.55734
G01 X4.29367 Y-2.55990
G01 X4.29469 Y-2.56048
G01 X4.29461 Y-2.56066
G01 X4.29469 Y-2.56048
G01 X4.29614 Y-2.56109
G01 X4.29882 Y-2.56169
G01 X4.29879 Y-2.56205
G01 X4.29882 Y-2.56169
G01 X4.30137 Y-2.56167
G01 X4.30386 Y-2.56109
G01 X4.30401 Y-2.56153
G01 X4.30386 Y-2.56109
G01 X4.30654 Y-2.55976
G01 X4.30844 Y-2.55816
G01 X4.30878 Y-2.55849
G01 X4.30844 Y-2.55816
G01 X4.31013 Y-2.55596
G01 X4.31206 Y-2.55221
G01 X4.31345 Y-2.55000
G01 X4.31653 Y-2.54999
G01 X4.31345 Y-2.55000
G01 X4.31193 Y-2.54755
G01 X4.31026 Y-2.54424
G01 X4.30830 Y-2.54167
G01 X4.30860 Y-2.54138
G01 X4.30830 Y-2.54167
G01 X4.30655 Y-2.54023
G01 X4.30455 Y-2.53915
G01 X4.30468 Y-2.53884
G01 X4.30455 Y-2.53915
G01 X4.30239 Y-2.53848
G01 X4.30006 Y-2.53823
G01 X4.30007 Y-2.53798
G01 X4.30006 Y-2.53823
G01 X4.29680 Y-2.53860
G01 X4.29356 Y-2.53978
G01 X4.29054 Y-2.54054
G01 X4.29049 Y-2.54079
G01 X4.28881 Y-2.53919
G01 X4.29049 Y-2.54079
G01 X4.28980 Y-2.54350
G01 X4.28870 Y-2.54678
G01 X4.28840 Y-2.54810
G01 X4.28829 Y-2.54808
G01 X4.28840 Y-2.54810
G01 X4.28826 Y-2.54947
G01 X4.28823 Y-2.55323
G01 X4.28797 Y-2.55601
G01 X4.04974 Y-2.67893
G01 X4.02950 Y-2.71292
G01 X4.02360 Y-2.71952
G01 X4.02363 Y-2.76773
G01 X4.02882 Y-2.77292
G01 X4.02363 Y-2.76773
G01 X3.97637 Y-2.76773
G01 X3.97118 Y-2.77292
G01 X3.97637 Y-2.76773
G01 X3.97637 Y-2.72047
G01 X3.97118 Y-2.71528
G01 X3.97637 Y-2.72047
G01 X4.01640 Y-2.72043
G01 X4.02002 Y-2.72012
G01 X4.02360 Y-2.71952
G01 X4.02950 Y-2.71292
G01 X4.01110 Y-2.73299
G01 X4.00591 Y-2.73818
G01 X3.99408 Y-2.73818
G01 X3.98889 Y-2.73299
G01 X3.99408 Y-2.73818
G01 X3.99408 Y-2.75001
G01 X3.98889 Y-2.75520
G01 X3.99408 Y-2.75001
G01 X4.00591 Y-2.75001
G01 X4.01110 Y-2.75520
G01 X4.00591 Y-2.75001
G01 X4.00591 Y-2.73818
G01 X4.01110 Y-2.73299
G01 X4.02950 Y-2.71292
G01 X4.04974 Y-2.67893
G01 X4.04134 Y-2.69253
G01 X4.02562 Y-2.70036
G01 X4.02264 Y-2.70149
G01 X4.01954 Y-2.70227
G01 X4.01717 Y-2.70261
G01 X4.01478 Y-2.70275
G01 X3.95866 Y-2.70276
G01 X3.95347 Y-2.69757
G01 X3.95866 Y-2.70276
G01 X3.95866 Y-2.78544
G01 X3.95347 Y-2.79063
G01 X3.95866 Y-2.78544
G01 X4.04134 Y-2.78544
G01 X4.04653 Y-2.79063
G01 X4.04134 Y-2.78544
G01 X4.04134 Y-2.69253
G04 P0 ( dwell for no time -- G64 should not smooth over this point )
G00 Z0.08000 ( retract )

G00 X3.99146 Y-2.51382 ( rapid move to begin. )
G01 F180.00000
( Mill infeed pass 1/1 )
G01 Z-0.04000
G04 P0 ( dwell for no time -- G64 should not smooth over this point )
G01 F360.00000
G01 X3.99146 Y-2.51382
G01 X3.99106 Y-2.51253
G01 X3.99045 Y-2.51256
G01 X3.99106 Y-2.51253
G01 X3.99094 Y-2.51217
G01 X3.99234 Y-2.50723
G01 X3.99337 Y-2.50198
G01 X3.99022 Y-2.49807
G01 X3.99337 Y-2.50198
G01 X4.00591 Y-2.50198
G01 X4.01110 Y-2.49680
G01 X4.00591 Y-2.50198
G01 X4.00591 Y-2.51382
G01 X4.01110 Y-2.51900
G01 X4.00591 Y-2.51382
G01 X3.99146 Y-2.51382
G01 X3.98891 Y-2.51727
G01 X3.97095 Y-2.51241
G01 X3.97200 Y-2.51242
G01 X3.97421 Y-2.51801
G01 X3.97559 Y-2.52345
G01 X3.97628 Y-2.52901
G01 X3.97637 Y-2.53153
G01 X3.97236 Y-2.53602
G01 X3.97637 Y-2.53153
G01 X4.02363 Y-2.53153
G01 X4.02882 Y-2.53672
G01 X4.02363 Y-2.53153
G01 X4.02363 Y-2.48427
G01 X4.02882 Y-2.47908
G01 X4.02363 Y-2.48427
G01 X3.97637 Y-2.48427
G01 X3.97156 Y-2.47929
G01 X3.97637 Y-2.48427
G01 X3.97634 Y-2.49414
G01 X3.97585 Y-2.49935
G01 X3.97525 Y-2.50252
G01 X3.97454 Y-2.50525
G01 X3.97339 Y-2.50869
G01 X3.97188 Y-2.51218
G01 X3.97200 Y-2.51242
G01 X3.94645 Y-2.51242
G01 X3.95058 Y-2.51233
G01 X3.95271 Y-2.51473
G01 X3.95455 Y-2.51735
G01 X3.95624 Y-2.52054
G01 X3.95750 Y-2.52392
G01 X3.95830 Y-2.52743
G01 X3.95865 Y-2.53142
G01 X3.95866 Y-2.54924
G01 X3.95348 Y-2.55443
G01 X3.95866 Y-2.54924
G01 X4.04134 Y-2.54924
G01 X4.04653 Y-2.55443
G01 X4.04134 Y-2.54924
G01 X4.04134 Y-2.46656
G01 X4.04653 Y-2.46137
G01 X4.04134 Y-2.46656
G01 X3.95866 Y-2.46656
G01 X3.95362 Y-2.46145
G01 X3.95866 Y-2.46656
G01 X3.95861 Y-2.49413
G01 X3.95831 Y-2.49690
G01 X3.95782 Y-2.49925
G01 X3.95714 Y-2.50155
G01 X3.95626 Y-2.50377
G01 X3.95415 Y-2.50762
G01 X3.95225 Y-2.51019
G01 X3.95042 Y-2.51218
G01 X3.95058 Y-2.51233
G04 P0 ( dwell for no time -- G64 should not smooth over this point )
G00 Z0.08000 ( retract )

G00 X3.80715 Y-2.62600 ( rapid move to begin. )
G01 F180.00000
( Mill infeed pass 1/1 )
G01 Z-0.04000
G04 P0 ( dwell for no time -- G64 should not smooth over this point )
G01 F360.00000
G01 X3.80715 Y-2.62600
G01 X3.80835 Y-2.63191
G01 X3.80509 Y-2.63591
G01 X3.80835 Y-2.63191
G01 X3.82091 Y-2.63191
G01 X3.82610 Y-2.63710
G01 X3.82091 Y-2.63191
G01 X3.82091 Y-2.62008
G01 X3.82610 Y-2.61490
G01 X3.82091 Y-2.62008
G01 X3.80835 Y-2.62008
G01 X3.80509 Y-2.61609
G01 X3.80835 Y-2.62008
G01 X3.80715 Y-2.62600
G01 X3.78868 Y-2.62614
G01 X3.79017 Y-2.63115
G01 X3.79107 Y-2.63629
G01 X3.79135 Y-2.64029
G01 X3.79137 Y-2.64963
G01 X3.78643 Y-2.65468
G01 X3.79137 Y-2.64963
G01 X3.83863 Y-2.64963
G01 X3.84382 Y-2.65482
G01 X3.83863 Y-2.64963
G01 X3.83863 Y-2.60237
G01 X3.84382 Y-2.59718
G01 X3.83863 Y-2.60237
G01 X3.79137 Y-2.60237
G01 X3.78643 Y-2.59732
G01 X3.79137 Y-2.60237
G01 X3.79135 Y-2.61170
G01 X3.79107 Y-2.61571
G01 X3.79026 Y-2.62045
G01 X3.78868 Y-2.62614
G01 X3.76891 Y-2.62605
G01 X3.77073 Y-2.62286
G01 X3.77200 Y-2.61992
G01 X3.77291 Y-2.61685
G01 X3.77347 Y-2.61370
G01 X3.77366 Y-2.61050
G01 X3.77366 Y-2.58466
G01 X3.76854 Y-2.57951
G01 X3.77366 Y-2.58466
G01 X3.85634 Y-2.58466
G01 X3.86153 Y-2.57947
G01 X3.85634 Y-2.58466
G01 X3.85634 Y-2.66734
G01 X3.86153 Y-2.67253
G01 X3.85634 Y-2.66734
G01 X3.77366 Y-2.66734
G01 X3.76854 Y-2.67249
G01 X3.77366 Y-2.66734
G01 X3.77366 Y-2.64150
G01 X3.77347 Y-2.63830
G01 X3.77309 Y-2.63593
G01 X3.77238 Y-2.63321
G01 X3.77140 Y-2.63058
G01 X3.77016 Y-2.62807
G01 X3.76890 Y-2.62602
G01 X3.76670 Y-2.62604
G01 X3.76891 Y-2.62605
G04 P0 ( dwell for no time -- G64 should not smooth over this point )
G00 Z0.08000 ( retract )

G00 X3.63675 Y-2.55030 ( rapid move to begin. )
G01 F180.00000
( Mill infeed pass 1/1 )
G01 Z-0.04000
G04 P0 ( dwell for no time -- G64 should not smooth over this point )
G01 F360.00000
G01 X3.63675 Y-2.55030
G01 X3.63655 Y-2.55000
G01 X3.63826 Y-2.54720
G01 X3.63967 Y-2.54420
G01 X3.64170 Y-2.54167
G01 X3.64153 Y-2.54149
G01 X3.64170 Y-2.54167
G01 X3.64345 Y-2.54023
G01 X3.64545 Y-2.53915
G01 X3.64532 Y-2.53884
G01 X3.64545 Y-2.53915
G01 X3.64761 Y-2.53848
G01 X3.64994 Y-2.53823
G01 X3.64995 Y-2.53780
G01 X3.64994 Y-2.53823
G01 X3.65318 Y-2.53868
G01 X3.65682 Y-2.53990
G01 X3.65946 Y-2.54054
G01 X3.66155 Y-2.53843
G01 X3.65946 Y-2.54054
G01 X3.66008 Y-2.54311
G01 X3.66130 Y-2.54678
G01 X3.66174 Y-2.54947
G01 X3.66207 Y-2.54945
G01 X3.66174 Y-2.54947
G01 X3.66164 Y-2.55174
G01 X3.66119 Y-2.55365
G01 X3.66154 Y-2.55377
G01 X3.66119 Y-2.55365
G01 X3.66030 Y-2.55568
G01 X3.65851 Y-2.55813
G01 X3.65878 Y-2.55838
G01 X3.65851 Y-2.55813
G01 X3.65689 Y-2.55954
G01 X3.65497 Y-2.56067
G01 X3.65512 Y-2.56100
G01 X3.65497 Y-2.56067
G01 X3.65208 Y-2.56158
G01 X3.65006 Y-2.56177
G01 X3.65007 Y-2.56215
G01 X3.65006 Y-2.56177
G01 X3.64808 Y-2.56162
G01 X3.64562 Y-2.56093
G01 X3.64552 Y-2.56119
G01 X3.64562 Y-2.56093
G01 X3.64401 Y-2.56013
G01 X3.64245 Y-2.55903
G01 X3.64232 Y-2.55919
G01 X3.64245 Y-2.55903
G01 X3.64121 Y-2.55783
G01 X3.64012 Y-2.55641
G01 X3.64003 Y-2.55647
G01 X3.64012 Y-2.55641
G01 X3.63821 Y-2.55270
G01 X3.63675 Y-2.55030
G01 X3.23824 Y-2.54993
G01 X3.23848 Y-2.55237
G01 X3.23912 Y-2.55448
G01 X3.23880 Y-2.55461
G01 X3.23912 Y-2.55448
G01 X3.24018 Y-2.55648
G01 X3.24166 Y-2.55830
G01 X3.24141 Y-2.55855
G01 X3.24166 Y-2.55830
G01 X3.24341 Y-2.55974
G01 X3.24551 Y-2.56087
G01 X3.24539 Y-2.56116
G01 X3.24551 Y-2.56087
G01 X3.24761 Y-2.56152
G01 X3.24959 Y-2.56175
G01 X3.24959 Y-2.56215
G01 X3.24959 Y-2.56175
G01 X3.25160 Y-2.56161
G01 X3.25324 Y-2.56127
G01 X3.25526 Y-2.56053
G01 X3.25541 Y-2.56086
G01 X3.25526 Y-2.56053
G01 X3.25809 Y-2.55854
G01 X3.25823 Y-2.55868
G01 X3.25809 Y-2.55854
G01 X3.26031 Y-2.55587
G01 X3.26179 Y-2.55270
G01 X3.26345 Y-2.55000
G01 X3.26324 Y-2.54970
G01 X3.26550 Y-2.54965
G01 X3.26324 Y-2.54970
G01 X3.26179 Y-2.54730
G01 X3.26009 Y-2.54377
G01 X3.25795 Y-2.54133
G01 X3.25811 Y-2.54114
G01 X3.25795 Y-2.54133
G01 X3.25627 Y-2.54009
G01 X3.25387 Y-2.53888
G01 X3.25398 Y-2.53856
G01 X3.25387 Y-2.53888
G01 X3.25137 Y-2.53831
G01 X3.24972 Y-2.53823
G01 X3.24971 Y-2.53790
G01 X3.24972 Y-2.53823
G01 X3.24726 Y-2.53856
G01 X3.24512 Y-2.53930
G01 X3.24498 Y-2.53898
G01 X3.24512 Y-2.53930
G01 X3.24315 Y-2.54043
G01 X3.24150 Y-2.54188
G01 X3.24126 Y-2.54165
G01 X3.24150 Y-2.54188
G01 X3.24009 Y-2.54366
G01 X3.23903 Y-2.54574
G01 X3.23873 Y-2.54562
G01 X3.23903 Y-2.54574
G01 X3.23847 Y-2.54767
G01 X3.23824 Y-2.54993
G01 X3.22050 Y-2.54997
G01 X3.22066 Y-2.55299
G01 X3.22111 Y-2.55596
G01 X3.22187 Y-2.55888
G01 X3.22278 Y-2.56137
G01 X3.22410 Y-2.56412
G01 X3.22547 Y-2.56638
G01 X3.22729 Y-2.56882
G01 X3.22909 Y-2.57080
G01 X3.23106 Y-2.57261
G01 X3.23347 Y-2.57443
G01 X3.23604 Y-2.57598
G01 X3.23875 Y-2.57726
G01 X3.24160 Y-2.57827
G01 X3.24417 Y-2.57891
G01 X3.24718 Y-2.57936
G01 X3.24972 Y-2.57949
G01 X3.25403 Y-2.57920
G01 X3.25814 Y-2.57834
G01 X3.26224 Y-2.57684
G01 X3.26590 Y-2.57484
G01 X3.26951 Y-2.57212
G01 X3.27243 Y-2.56915
G01 X3.27509 Y-2.56550
G01 X3.27780 Y-2.56040
G01 X3.27937 Y-2.55853
G01 X3.28100 Y-2.55731
G01 X3.28247 Y-2.55659
G01 X3.28443 Y-2.55604
G01 X3.28606 Y-2.55591
G01 X3.61435 Y-2.55592
G01 X3.61597 Y-2.55612
G01 X3.61753 Y-2.55659
G01 X3.61900 Y-2.55731
G01 X3.62063 Y-2.55853
G01 X3.62148 Y-2.55942
G01 X3.62242 Y-2.56075
G01 X3.62517 Y-2.56592
G01 X3.62787 Y-2.56951
G01 X3.63108 Y-2.57263
G01 X3.63499 Y-2.57539
G01 X3.63902 Y-2.57738
G01 X3.64097 Y-2.57809
G01 X3.64534 Y-2.57913
G01 X3.65015 Y-2.57950
G01 X3.65252 Y-2.57939
G01 X3.65522 Y-2.57903
G01 X3.65785 Y-2.57843
G01 X3.66044 Y-2.57759
G01 X3.66260 Y-2.57667
G01 X3.66501 Y-2.57539
G01 X3.66726 Y-2.57392
G01 X3.66938 Y-2.57224
G01 X3.67133 Y-2.57037
G01 X3.67310 Y-2.56834
G01 X3.67469 Y-2.56613
G01 X3.67590 Y-2.56412
G01 X3.67709 Y-2.56167
G01 X3.67804 Y-2.55914
G01 X3.67877 Y-2.55652
G01 X3.67920 Y-2.55421
G01 X3.67946 Y-2.55152
G01 X3.67946 Y-2.54853
G01 X3.67910 Y-2.54522
G01 X3.67838 Y-2.54199
G01 X3.67699 Y-2.53777
G01 X3.67672 Y-2.53617
G01 X3.67670 Y-2.53496
G01 X3.67690 Y-2.53335
G01 X3.67737 Y-2.53180
G01 X3.67808 Y-2.53034
G01 X3.67903 Y-2.52902
G01 X3.79596 Y-2.41204
G01 X3.79754 Y-2.41076
G01 X3.79972 Y-2.40969
G01 X3.80130 Y-2.40929
G01 X3.80292 Y-2.40916
G01 X4.14708 Y-2.40916
G01 X4.14949 Y-2.40946
G01 X4.15176 Y-2.41034
G01 X4.15312 Y-2.41123
G01 X4.15404 Y-2.41204
G01 X4.27123 Y-2.52934
G01 X4.27230 Y-2.53105
G01 X4.27289 Y-2.53256
G01 X4.27327 Y-2.53455
G01 X4.27327 Y-2.53617
G01 X4.27301 Y-2.53777
G01 X4.27161 Y-2.54199
G01 X4.27090 Y-2.54522
G01 X4.27054 Y-2.54852
G01 X4.27047 Y-2.55324
G01 X4.27014 Y-2.55482
G01 X4.26938 Y-2.55669
G01 X4.26850 Y-2.55804
G01 X4.26742 Y-2.55924
G01 X4.26510 Y-2.56084
G01 X4.01803 Y-2.68434
G01 X4.01644 Y-2.68482
G01 X4.01438 Y-2.68504
G01 X3.94094 Y-2.68504
G01 X3.94094 Y-2.80316
G01 X4.05906 Y-2.80316
G01 X4.05907 Y-2.68275
G01 X4.05935 Y-2.68076
G01 X4.05987 Y-2.67923
G01 X4.06064 Y-2.67781
G01 X4.06162 Y-2.67654
G01 X4.06312 Y-2.67519
G01 X4.06450 Y-2.67435
G01 X4.27039 Y-2.57141
G01 X4.27187 Y-2.57081
G01 X4.27343 Y-2.57046
G01 X4.27503 Y-2.57037
G01 X4.27662 Y-2.57054
G01 X4.27817 Y-2.57097
G01 X4.27996 Y-2.57184
G01 X4.28399 Y-2.57477
G01 X4.28682 Y-2.57638
G01 X4.29017 Y-2.57780
G01 X4.29329 Y-2.57872
G01 X4.29688 Y-2.57932
G01 X4.30015 Y-2.57949
G01 X4.30344 Y-2.57929
G01 X4.30669 Y-2.57872
G01 X4.30983 Y-2.57780
G01 X4.31316 Y-2.57639
G01 X4.31630 Y-2.57458
G01 X4.31892 Y-2.57262
G01 X4.32131 Y-2.57039
G01 X4.32366 Y-2.56760
G01 X4.32546 Y-2.56489
G01 X4.32768 Y-2.56059
G01 X4.32918 Y-2.55871
G01 X4.33041 Y-2.55769
G01 X4.33216 Y-2.55671
G01 X4.33368 Y-2.55620
G01 X4.33566 Y-2.55592
G01 X4.66435 Y-2.55592
G01 X4.66597 Y-2.55612
G01 X4.66753 Y-2.55659
G01 X4.66900 Y-2.55731
G01 X4.67063 Y-2.55853
G01 X4.67148 Y-2.55942
G01 X4.67242 Y-2.56075
G01 X4.67517 Y-2.56592
G01 X4.67787 Y-2.56951
G01 X4.68108 Y-2.57263
G01 X4.68473 Y-2.57524
G01 X4.68877 Y-2.57728
G01 X4.69304 Y-2.57867
G01 X4.69748 Y-2.57939
G01 X4.70192 Y-2.57944
G01 X4.70463 Y-2.57913
G01 X4.70727 Y-2.57859
G01 X4.70983 Y-2.57781
G01 X4.71265 Y-2.57665
G01 X4.71499 Y-2.57540
G01 X4.71753 Y-2.57372
G01 X4.71960 Y-2.57204
G01 X4.72154 Y-2.57016
G01 X4.72329 Y-2.56811
G01 X4.72484 Y-2.56590
G01 X4.72618 Y-2.56359
G01 X4.72744 Y-2.56081
G01 X4.72831 Y-2.55828
G01 X4.72894 Y-2.55569
G01 X4.72937 Y-2.55267
G01 X4.72950 Y-2.55000
G01 X4.72937 Y-2.54733
G01 X4.72894 Y-2.54431
G01 X4.72831 Y-2.54171
G01 X4.72744 Y-2.53919
G01 X4.72618 Y-2.53641
G01 X4.72484 Y-2.53410
G01 X4.72330 Y-2.53192
G01 X4.72133 Y-2.52963
G01 X4.71913 Y-2.52755
G01 X4.71704 Y-2.52592
G01 X4.71446 Y-2.52429
G01 X4.71210 Y-2.52310
G01 X4.70926 Y-2.52199
G01 X4.70671 Y-2.52128
G01 X4.70371 Y-2.52074
G01 X4.70100 Y-2.52052
G01 X4.69656 Y-2.52070
G01 X4.69215 Y-2.52156
G01 X4.68806 Y-2.52303
G01 X4.68423 Y-2.52509
G01 X4.68074 Y-2.52766
G01 X4.67766 Y-2.53073
G01 X4.67498 Y-2.53437
G01 X4.67220 Y-2.53960
G01 X4.67063 Y-2.54147
G01 X4.66900 Y-2.54269
G01 X4.66753 Y-2.54341
G01 X4.66597 Y-2.54388
G01 X4.66435 Y-2.54408
G01 X4.33606 Y-2.54409
G01 X4.33365 Y-2.54379
G01 X4.33212 Y-2.54327
G01 X4.33070 Y-2.54250
G01 X4.32857 Y-2.54064
G01 X4.32763 Y-2.53933
G01 X4.32576 Y-2.53563
G01 X4.32436 Y-2.53337
G01 X4.32251 Y-2.53094
G01 X4.32071 Y-2.52900
G01 X4.31844 Y-2.52698
G01 X4.31630 Y-2.52542
G01 X4.31367 Y-2.52386
G01 X4.31128 Y-2.52274
G01 X4.30840 Y-2.52173
G01 X4.30583 Y-2.52109
G01 X4.30282 Y-2.52064
G01 X4.30015 Y-2.52050
G01 X4.29748 Y-2.52061
G01 X4.29446 Y-2.52103
G01 X4.29188 Y-2.52164
G01 X4.28780 Y-2.52301
G01 X4.28619 Y-2.52327
G01 X4.28497 Y-2.52330
G01 X4.28336 Y-2.52310
G01 X4.28181 Y-2.52263
G01 X4.28034 Y-2.52192
G01 X4.27934 Y-2.52123
G01 X4.15757 Y-2.39958
G01 X4.15592 Y-2.39842
G01 X4.15444 Y-2.39795
G01 X4.15311 Y-2.39784
G01 X3.79695 Y-2.39784
G01 X3.79554 Y-2.39797
G01 X3.79429 Y-2.39834
G01 X3.79344 Y-2.39879
G01 X3.79238 Y-2.39962
G01 X3.67066 Y-2.52123
G01 X3.66930 Y-2.52212
G01 X3.66819 Y-2.52263
G01 X3.66664 Y-2.52310
G01 X3.66502 Y-2.52330
G01 X3.66340 Y-2.52323
G01 X3.66220 Y-2.52301
G01 X3.65812 Y-2.52164
G01 X3.65554 Y-2.52103
G01 X3.65252 Y-2.52061
G01 X3.64985 Y-2.52050
G01 X3.64718 Y-2.52064
G01 X3.64417 Y-2.52109
G01 X3.64160 Y-2.52173
G01 X3.63872 Y-2.52274
G01 X3.63632 Y-2.52386
G01 X3.63370 Y-2.52542
G01 X3.63156 Y-2.52698
G01 X3.62928 Y-2.52900
G01 X3.62749 Y-2.53094
G01 X3.62564 Y-2.53337
G01 X3.62424 Y-2.53563
G01 X3.62237 Y-2.53933
G01 X3.62115 Y-2.54094
G01 X3.61996 Y-2.54203
G01 X3.61860 Y-2.54292
G01 X3.61712 Y-2.54356
G01 X3.61555 Y-2.54396
G01 X3.61394 Y-2.54409
G01 X3.28524 Y-2.54406
G01 X3.28363 Y-2.54379
G01 X3.28209 Y-2.54326
G01 X3.28032 Y-2.54224
G01 X3.27908 Y-2.54119
G01 X3.27758 Y-2.53925
G01 X3.27502 Y-2.53437
G01 X3.27234 Y-2.53073
G01 X3.26926 Y-2.52766
G01 X3.26577 Y-2.52509
G01 X3.26194 Y-2.52303
G01 X3.25785 Y-2.52156
G01 X3.25344 Y-2.52070
G01 X3.24900 Y-2.52052
G01 X3.24629 Y-2.52074
G01 X3.24329 Y-2.52128
G01 X3.24074 Y-2.52199
G01 X3.23790 Y-2.52310
G01 X3.23553 Y-2.52429
G01 X3.23296 Y-2.52592
G01 X3.23087 Y-2.52755
G01 X3.22867 Y-2.52963
G01 X3.22670 Y-2.53192
G01 X3.22515 Y-2.53410
G01 X3.22382 Y-2.53641
G01 X3.22256 Y-2.53919
G01 X3.22169 Y-2.54171
G01 X3.22106 Y-2.54431
G01 X3.22063 Y-2.54733
G01 X3.22050 Y-2.54997
( Piece #2, position [1;0] )

G04 P0 ( dwell for no time -- G64 should not smooth over this point )
G00 Z0.08000 ( retract )

G00 X5.13651 Y-3.21730 ( rapid move to begin. )
G01 F180.00000
( Mill infeed pass 1/1 )
G01 Z-0.04000
G04 P0 ( dwell for no time -- G64 should not smooth over this point )
G01 F360.00000
G01 X5.13651 Y-3.21730
G01 X5.13651 Y-2.81123
G01 X5.13670 Y-2.80942
G01 X5.13693 Y-2.80863
G01 X5.13760 Y-2.80740
G01 X5.13820 Y-2.80668
G01 X5.18041 Y-2.76447
G01 X5.18230 Y-2.76307
G01 X5.18405 Y-2.76256
G01 X5.18505 Y-2.76249
G01 X5.54054 Y-2.76249
G01 X5.54256 Y-2.76228
G01 X5.54412 Y-2.76182
G01 X5.54593 Y-2.76089
G01 X5.54750 Y-2.75961
G01 X5.68572 Y-2.62151
G01 X5.68696 Y-2.62080
G01 X5.68868 Y-2.62039
G01 X5.72135 Y-2.62026
G01 X5.72332 Y-2.61980
G01 X5.72481 Y-2.61915
G01 X5.72617 Y-2.61826
G01 X5.72736 Y-2.61716
G01 X5.72836 Y-2.61588
G01 X5.72913 Y-2.61445
G01 X5.72975 Y-2.61252
G01 X5.72995 Y-2.61091
G01 X5.72996 Y-2.56694
G01 X5.83599 Y-2.56694
G01 X5.83761 Y-2.56681
G01 X5.83880 Y-2.56653
G01 X5.83995 Y-2.56611
G01 X5.84138 Y-2.56534
G01 X5.84295 Y-2.56406
G01 X5.90304 Y-2.50398
G01 X5.90469 Y-2.50282
G01 X5.90833 Y-2.50183
G01 X5.91017 Y-2.50098
G01 X5.91208 Y-2.49948
G01 X5.91336 Y-2.49791
G01 X5.91396 Y-2.49685
G01 X5.91455 Y-2.49533
G01 X5.91495 Y-2.49294
G01 X5.91496 Y-2.44884
G01 X6.03307 Y-2.44884
G01 X6.03307 Y-2.56696
G01 X5.91496 Y-2.56696
G01 X5.91496 Y-2.53182
G01 X5.91482 Y-2.53020
G01 X5.91442 Y-2.52862
G01 X5.91335 Y-2.52644
G01 X5.91207 Y-2.52486
G01 X5.91050 Y-2.52358
G01 X5.90831 Y-2.52251
G01 X5.90633 Y-2.52205
G01 X5.90390 Y-2.52205
G01 X5.90154 Y-2.52265
G01 X5.89973 Y-2.52358
G01 X5.89816 Y-2.52486
G01 X5.85096 Y-2.57206
G01 X5.84946 Y-2.57398
G01 X5.84848 Y-2.57621
G01 X5.84821 Y-2.57740
G01 X5.84807 Y-2.57902
G01 X5.84807 Y-2.68506
G01 X5.72996 Y-2.68506
G01 X5.72995 Y-2.64109
G01 X5.72975 Y-2.63948
G01 X5.72942 Y-2.63830
G01 X5.72835 Y-2.63612
G01 X5.72678 Y-2.63426
G01 X5.72515 Y-2.63304
G01 X5.72331 Y-2.63219
G01 X5.72133 Y-2.63173
G01 X5.69432 Y-2.63173
G01 X5.69273 Y-2.63207
G01 X5.69121 Y-2.63266
G01 X5.68982 Y-2.63349
G01 X5.68858 Y-2.63454
G01 X5.55119 Y-2.77192
G01 X5.54991 Y-2.77296
G01 X5.54877 Y-2.77348
G01 X5.54658 Y-2.77381
G01 X5.19115 Y-2.77381
G01 X5.18913 Y-2.77401
G01 X5.18757 Y-2.77448
G01 X5.18611 Y-2.77519
G01 X5.18479 Y-2.77614
G01 X5.15042 Y-2.81047
G01 X5.14942 Y-2.81175
G01 X5.14865 Y-2.81318
G01 X5.14812 Y-2.81472
G01 X5.14786 Y-2.81632
G01 X5.14783 Y-3.21161
G01 X5.14803 Y-3.21322
G01 X5.14865 Y-3.21516
G01 X5.14942 Y-3.21658
G01 X5.15070 Y-3.21816
G01 X5.32280 Y-3.39026
G01 X5.32404 Y-3.39131
G01 X5.32544 Y-3.39214
G01 X5.32695 Y-3.39273
G01 X5.32854 Y-3.39306
G01 X5.78916 Y-3.39314
G01 X5.79158 Y-3.39284
G01 X5.79385 Y-3.39195
G01 X5.79583 Y-3.39054
G01 X5.81576 Y-3.37061
G01 X5.81697 Y-3.36899
G01 X5.81768 Y-3.36753
G01 X5.81815 Y-3.36597
G01 X5.81835 Y-3.36436
G01 X5.81835 Y-3.33896
G01 X5.81815 Y-3.33735
G01 X5.81782 Y-3.33617
G01 X5.81675 Y-3.33399
G01 X5.81576 Y-3.33270
G01 X5.81423 Y-3.33136
G01 X5.81247 Y-3.33036
G01 X5.81053 Y-3.32974
G01 X5.80852 Y-3.32953
G01 X5.79646 Y-3.32953
G01 X5.79646 Y-3.27047
G01 X5.85157 Y-3.27047
G01 X5.85158 Y-3.28491
G01 X5.85178 Y-3.28652
G01 X5.85225 Y-3.28808
G01 X5.85296 Y-3.28954
G01 X5.85365 Y-3.29054
G01 X5.85446 Y-3.29146
G01 X5.85570 Y-3.29251
G01 X5.85709 Y-3.29334
G01 X5.85822 Y-3.29381
G01 X5.85980 Y-3.29421
G01 X5.86142 Y-3.29434
G01 X5.98783 Y-3.29427
G01 X5.98903 Y-3.29404
G01 X5.99057 Y-3.29351
G01 X5.99266 Y-3.29227
G01 X5.99357 Y-3.29146
G01 X5.99462 Y-3.29022
G01 X5.99527 Y-3.28918
G01 X5.99592 Y-3.28769
G01 X5.99632 Y-3.28612
G01 X5.99645 Y-3.28491
G01 X5.99645 Y-3.27047
G01 X6.05157 Y-3.27047
G01 X6.05157 Y-3.32953
G01 X5.99645 Y-3.32953
G01 X5.99645 Y-3.31509
G01 X5.99632 Y-3.31388
G01 X5.99592 Y-3.31230
G01 X5.99527 Y-3.31081
G01 X5.99462 Y-3.30978
G01 X5.99357 Y-3.30854
G01 X5.99266 Y-3.30773
G01 X5.99057 Y-3.30649
G01 X5.98903 Y-3.30596
G01 X5.98783 Y-3.30573
G01 X5.86142 Y-3.30566
G01 X5.85980 Y-3.30579
G01 X5.85861 Y-3.30607
G01 X5.85638 Y-3.30704
G01 X5.85446 Y-3.30854
G01 X5.85296 Y-3.31046
G01 X5.85198 Y-3.31269
G01 X5.85158 Y-3.31509
G01 X5.85157 Y-3.32953
G01 X5.83911 Y-3.32953
G01 X5.83671 Y-3.32994
G01 X5.83448 Y-3.33091
G01 X5.83285 Y-3.33213
G01 X5.83150 Y-3.33365
G01 X5.83050 Y-3.33542
G01 X5.82988 Y-3.33735
G01 X5.82968 Y-3.33896
G01 X5.82967 Y-3.36992
G01 X5.82954 Y-3.37133
G01 X5.82917 Y-3.37258
G01 X5.82872 Y-3.37343
G01 X5.82789 Y-3.37449
G01 X5.79924 Y-3.40307
G01 X5.79774 Y-3.40400
G01 X5.79603 Y-3.40441
G01 X5.32379 Y-3.40446
G01 X5.32225 Y-3.40431
G01 X5.32153 Y-3.40412
G01 X5.31991 Y-3.40324
G01 X5.13839 Y-3.22185
G01 X5.13769 Y-3.22105
G01 X5.13693 Y-3.21972
G01 X5.13657 Y-3.21829
G01 X5.13651 Y-3.21730
G04 P0 ( dwell for no time -- G64 should not smooth over this point )
G00 Z0.08000 ( retract )

G00 X5.33467 Y-3.32806 ( rapid move to begin. )
G01 F180.00000
( Mill infeed pass 1/1 )
G01 Z-0.04000
G04 P0 ( dwell for no time -- G64 should not smooth over this point )
G01 F360.00000
G01 X5.33467 Y-3.32806
G01 X5.33487 Y-3.33150
G01 X5.33580 Y-3.33499
G01 X5.33730 Y-3.33805
G01 X5.33962 Y-3.34103
G01 X5.34234 Y-3.34334
G01 X5.34548 Y-3.34505
G01 X5.34893 Y-3.34611
G01 X5.35240 Y-3.34646
G01 X5.39564 Y-3.34645
G01 X5.39806 Y-3.34628
G01 X5.39999 Y-3.34590
G01 X5.40208 Y-3.34524
G01 X5.40390 Y-3.34441
G01 X5.40561 Y-3.34339
G01 X5.40733 Y-3.34205
G01 X5.40886 Y-3.34053
G01 X5.41109 Y-3.33777
G01 X5.41260 Y-3.33645
G01 X5.41511 Y-3.33517
G01 X5.41788 Y-3.33466
G01 X5.64604 Y-3.33457
G01 X5.64759 Y-3.33418
G01 X5.69417 Y-3.31718
G01 X5.69656 Y-3.31663
G01 X5.69779 Y-3.31659
G01 X5.69942 Y-3.31676
G01 X5.70174 Y-3.31752
G01 X5.70349 Y-3.31858
G01 X5.70676 Y-3.32147
G01 X5.70915 Y-3.32319
G01 X5.71169 Y-3.32463
G01 X5.71472 Y-3.32593
G01 X5.71749 Y-3.32676
G01 X5.72071 Y-3.32734
G01 X5.72397 Y-3.32754
G01 X5.72691 Y-3.32739
G01 X5.72953 Y-3.32699
G01 X5.73177 Y-3.32643
G01 X5.73433 Y-3.32555
G01 X5.73643 Y-3.32459
G01 X5.73878 Y-3.32326
G01 X5.74067 Y-3.32194
G01 X5.74274 Y-3.32020
G01 X5.74437 Y-3.31857
G01 X5.74609 Y-3.31648
G01 X5.74739 Y-3.31458
G01 X5.74870 Y-3.31224
G01 X5.74976 Y-3.30980
G01 X5.75059 Y-3.30726
G01 X5.75111 Y-3.30498
G01 X5.75143 Y-3.30268
G01 X5.75156 Y-3.30000
G01 X5.75143 Y-3.29735
G01 X5.75105 Y-3.29473
G01 X5.75042 Y-3.29215
G01 X5.74954 Y-3.28965
G01 X5.74843 Y-3.28724
G01 X5.74709 Y-3.28495
G01 X5.74555 Y-3.28282
G01 X5.74355 Y-3.28058
G01 X5.74162 Y-3.27881
G01 X5.73952 Y-3.27723
G01 X5.73695 Y-3.27568
G01 X5.73457 Y-3.27456
G01 X5.73208 Y-3.27366
G01 X5.72953 Y-3.27301
G01 X5.72656 Y-3.27257
G01 X5.72391 Y-3.27245
G01 X5.72161 Y-3.27256
G01 X5.71896 Y-3.27292
G01 X5.71638 Y-3.27353
G01 X5.71384 Y-3.27440
G01 X5.71174 Y-3.27534
G01 X5.70940 Y-3.27665
G01 X5.70720 Y-3.27818
G01 X5.70376 Y-3.28132
G01 X5.70204 Y-3.28338
G01 X5.70055 Y-3.28557
G01 X5.69926 Y-3.28792
G01 X5.69833 Y-3.29003
G01 X5.69749 Y-3.29257
G01 X5.69689 Y-3.29517
G01 X5.69627 Y-3.29933
G01 X5.69554 Y-3.30126
G01 X5.69416 Y-3.30331
G01 X5.69298 Y-3.30445
G01 X5.69197 Y-3.30518
G01 X5.69012 Y-3.30608
G01 X5.64586 Y-3.32224
G01 X5.64378 Y-3.32275
G01 X5.41788 Y-3.32282
G01 X5.41511 Y-3.32231
G01 X5.41259 Y-3.32102
G01 X5.41107 Y-3.31969
G01 X5.40891 Y-3.31699
G01 X5.40751 Y-3.31558
G01 X5.40579 Y-3.31422
G01 X5.40409 Y-3.31317
G01 X5.40227 Y-3.31231
G01 X5.40036 Y-3.31167
G01 X5.39841 Y-3.31125
G01 X5.39611 Y-3.31104
G01 X5.35111 Y-3.31109
G01 X5.34900 Y-3.31136
G01 X5.34691 Y-3.31190
G01 X5.34491 Y-3.31269
G01 X5.34296 Y-3.31374
G01 X5.34159 Y-3.31469
G01 X5.33907 Y-3.31705
G01 X5.33799 Y-3.31840
G01 X5.33626 Y-3.32138
G01 X5.33514 Y-3.32464
G01 X5.33467 Y-3.32806
G04 P0 ( dwell for no time -- G64 should not smooth over this point )
G00 Z0.08000 ( retract )

G00 X5.35307 Y-3.25000 ( rapid move to begin. )
G01 F180.00000
( Mill infeed pass 1/1 )
G01 Z-0.04000
G04 P0 ( dwell for no time -- G64 should not smooth over this point )
G01 F360.00000
G01 X5.35307 Y-3.25000
G01 X5.35919 Y-3.25000
G01 X5.35307 Y-3.25000
G04 P0 ( dwell for no time -- G64 should not smooth over this point )
G00 Z0.08000 ( retract )

G00 X5.33467 Y-3.17058 ( rapid move to begin. )
G01 F180.00000
( Mill infeed pass 1/1 )
G01 Z-0.04000
G04 P0 ( dwell for no time -- G64 should not smooth over this point )
G01 F360.00000
G01 X5.33467 Y-3.17058
G01 X5.33487 Y-3.17402
G01 X5.33580 Y-3.17751
G01 X5.33727 Y-3.18052
G01 X5.33867 Y-3.18247
G01 X5.34010 Y-3.18402
G01 X5.34188 Y-3.18552
G01 X5.34383 Y-3.18677
G01 X5.34575 Y-3.18767
G01 X5.34795 Y-3.18840
G01 X5.35023 Y-3.18883
G01 X5.35266 Y-3.18898
G01 X5.39554 Y-3.18897
G01 X5.39890 Y-3.18866
G01 X5.40207 Y-3.18777
G01 X5.40365 Y-3.18707
G01 X5.40656 Y-3.18522
G01 X5.40904 Y-3.18286
G01 X5.41132 Y-3.18005
G01 X5.41324 Y-3.17855
G01 X5.41547 Y-3.17758
G01 X5.41666 Y-3.17730
G01 X5.41828 Y-3.17717
G01 X6.01643 Y-3.17717
G01 X6.01849 Y-3.17690
G01 X6.01995 Y-3.17625
G01 X6.02122 Y-3.17521
G01 X6.23325 Y-2.96318
G01 X6.23448 Y-2.96214
G01 X6.23660 Y-2.96098
G01 X6.23934 Y-2.96034
G01 X6.24215 Y-2.96049
G01 X6.24444 Y-2.96125
G01 X6.24616 Y-2.96230
G01 X6.24763 Y-2.96367
G01 X6.25054 Y-2.96785
G01 X6.25290 Y-2.97058
G01 X6.25558 Y-2.97302
G01 X6.25822 Y-2.97491
G01 X6.26139 Y-2.97665
G01 X6.26473 Y-2.97799
G01 X6.26823 Y-2.97892
G01 X6.27144 Y-2.97938
G01 X6.27506 Y-2.97947
G01 X6.27864 Y-2.97912
G01 X6.28218 Y-2.97834
G01 X6.28524 Y-2.97727
G01 X6.28850 Y-2.97569
G01 X6.29154 Y-2.97372
G01 X6.29404 Y-2.97165
G01 X6.29658 Y-2.96900
G01 X6.29836 Y-2.96665
G01 X6.29991 Y-2.96411
G01 X6.30134 Y-2.96109
G01 X6.30232 Y-2.95828
G01 X6.30302 Y-2.95537
G01 X6.30341 Y-2.95242
G01 X6.30349 Y-2.94908
G01 X6.30326 Y-2.94619
G01 X6.30247 Y-2.94227
G01 X6.30133 Y-2.93889
G01 X6.29979 Y-2.93567
G01 X6.29764 Y-2.93236
G01 X6.29535 Y-2.92965
G01 X6.29247 Y-2.92700
G01 X6.28927 Y-2.92477
G01 X6.28452 Y-2.92227
G01 X6.28290 Y-2.92099
G01 X6.28182 Y-2.91974
G01 X6.28096 Y-2.91833
G01 X6.28035 Y-2.91679
G01 X6.28000 Y-2.91518
G01 X6.27996 Y-2.86494
G01 X6.28033 Y-2.86294
G01 X6.28111 Y-2.86106
G01 X6.28225 Y-2.85939
G01 X6.28372 Y-2.85798
G01 X6.28508 Y-2.85709
G01 X6.28657 Y-2.85644
G01 X6.28814 Y-2.85604
G01 X6.28977 Y-2.85591
G01 X6.40584 Y-2.85592
G01 X6.40748 Y-2.85613
G01 X6.40868 Y-2.85646
G01 X6.41090 Y-2.85758
G01 X6.41249 Y-2.85890
G01 X6.41454 Y-2.86119
G01 X6.41599 Y-2.86246
G01 X6.41790 Y-2.86372
G01 X6.41961 Y-2.86454
G01 X6.42179 Y-2.86526
G01 X6.42365 Y-2.86560
G01 X6.42594 Y-2.86572
G01 X6.42928 Y-2.86530
G01 X6.43255 Y-2.86411
G01 X6.43549 Y-2.86223
G01 X6.43773 Y-2.86001
G01 X6.43962 Y-2.85713
G01 X6.44083 Y-2.85390
G01 X6.44132 Y-2.85049
G01 X6.44127 Y-2.84873
G01 X6.44073 Y-2.84573
G01 X6.43982 Y-2.84332
G01 X6.43860 Y-2.84118
G01 X6.43707 Y-2.83926
G01 X6.43525 Y-2.83760
G01 X6.43320 Y-2.83625
G01 X6.43096 Y-2.83523
G01 X6.42859 Y-2.83457
G01 X6.42603 Y-2.83428
G01 X6.42446 Y-2.83431
G01 X6.42243 Y-2.83459
G01 X6.42084 Y-2.83500
G01 X6.41893 Y-2.83575
G01 X6.41747 Y-2.83652
G01 X6.41582 Y-2.83767
G01 X6.41434 Y-2.83901
G01 X6.41228 Y-2.84131
G01 X6.41071 Y-2.84255
G01 X6.40856 Y-2.84358
G01 X6.40622 Y-2.84406
G01 X6.27412 Y-2.84410
G01 X6.27208 Y-2.84445
G01 X6.27077 Y-2.84510
G01 X6.26972 Y-2.84602
G01 X6.26900 Y-2.84699
G01 X6.26838 Y-2.84831
G01 X6.26819 Y-2.84921
G01 X6.26810 Y-2.90796
G01 X6.26790 Y-2.90957
G01 X6.26743 Y-2.91112
G01 X6.26672 Y-2.91258
G01 X6.26603 Y-2.91359
G01 X6.01725 Y-3.16247
G01 X6.01533 Y-3.16396
G01 X6.01310 Y-3.16494
G01 X6.01191 Y-3.16522
G01 X6.01029 Y-3.16535
G01 X5.41828 Y-3.16535
G01 X5.41549 Y-3.16495
G01 X5.41327 Y-3.16398
G01 X5.41136 Y-3.16250
G01 X5.40891 Y-3.15951
G01 X5.40751 Y-3.15810
G01 X5.40579 Y-3.15674
G01 X5.40411 Y-3.15570
G01 X5.40211 Y-3.15477
G01 X5.40022 Y-3.15415
G01 X5.39825 Y-3.15375
G01 X5.39613 Y-3.15356
G01 X5.35111 Y-3.15361
G01 X5.34900 Y-3.15388
G01 X5.34691 Y-3.15442
G01 X5.34491 Y-3.15521
G01 X5.34296 Y-3.15626
G01 X5.34159 Y-3.15721
G01 X5.33907 Y-3.15957
G01 X5.33705 Y-3.16236
G01 X5.33626 Y-3.16390
G01 X5.33514 Y-3.16716
G01 X5.33467 Y-3.17058
G04 P0 ( dwell for no time -- G64 should not smooth over this point )
G00 Z0.08000 ( retract )

G00 X5.19452 Y-2.95027 ( rapid move to begin. )
G01 F180.00000
( Mill infeed pass 1/1 )
G01 Z-0.04000
G04 P0 ( dwell for no time -- G64 should not smooth over this point )
G01 F360.00000
G01 X5.19452 Y-2.95027
G01 X5.19471 Y-2.95332
G01 X5.19512 Y-2.95593
G01 X5.19589 Y-2.95888
G01 X5.19680 Y-2.96137
G01 X5.19812 Y-2.96412
G01 X5.19949 Y-2.96638
G01 X5.20131 Y-2.96882
G01 X5.20310 Y-2.97080
G01 X5.20507 Y-2.97261
G01 X5.20751 Y-2.97444
G01 X5.20977 Y-2.97583
G01 X5.21355 Y-2.97771
G01 X5.21547 Y-2.97920
G01 X5.21652 Y-2.98045
G01 X5.21736 Y-2.98184
G01 X5.21795 Y-2.98336
G01 X5.21828 Y-2.98495
G01 X5.21836 Y-3.17989
G01 X5.21861 Y-3.18175
G01 X5.21946 Y-3.18352
G01 X5.28977 Y-3.25396
G01 X5.29049 Y-3.25456
G01 X5.29172 Y-3.25523
G01 X5.29251 Y-3.25547
G01 X5.29432 Y-3.25566
G01 X5.32957 Y-3.25566
G01 X5.33161 Y-3.25587
G01 X5.33393 Y-3.25667
G01 X5.33567 Y-3.25777
G01 X5.33687 Y-3.25889
G01 X5.33893 Y-3.26152
G01 X5.34032 Y-3.26298
G01 X5.34189 Y-3.26427
G01 X5.34342 Y-3.26528
G01 X5.34525 Y-3.26621
G01 X5.34698 Y-3.26687
G01 X5.34877 Y-3.26733
G01 X5.35084 Y-3.26764
G01 X5.39627 Y-3.26770
G01 X5.39789 Y-3.26757
G01 X5.40100 Y-3.26688
G01 X5.40232 Y-3.26641
G01 X5.40501 Y-3.26504
G01 X5.40635 Y-3.26412
G01 X5.40847 Y-3.26224
G01 X5.41046 Y-3.25973
G01 X5.41182 Y-3.25725
G01 X5.41241 Y-3.25576
G01 X5.41315 Y-3.25285
G01 X5.41338 Y-3.24984
G01 X5.41309 Y-3.24683
G01 X5.41273 Y-3.24525
G01 X5.41175 Y-3.24259
G01 X5.41026 Y-3.23997
G01 X5.40834 Y-3.23763
G01 X5.40717 Y-3.23654
G01 X5.40472 Y-3.23478
G01 X5.40198 Y-3.23346
G01 X5.39928 Y-3.23267
G01 X5.39600 Y-3.23230
G01 X5.35257 Y-3.23228
G01 X5.35010 Y-3.23244
G01 X5.34650 Y-3.23329
G01 X5.34313 Y-3.23489
G01 X5.34017 Y-3.23717
G01 X5.33888 Y-3.23852
G01 X5.33688 Y-3.24110
G01 X5.33568 Y-3.24222
G01 X5.33357 Y-3.24349
G01 X5.33162 Y-3.24413
G01 X5.32957 Y-3.24434
G01 X5.29982 Y-3.24433
G01 X5.29741 Y-3.24393
G01 X5.29554 Y-3.24316
G01 X5.29418 Y-3.24227
G01 X5.29326 Y-3.24146
G01 X5.23227 Y-3.18046
G01 X5.23128 Y-3.17917
G01 X5.23035 Y-3.17737
G01 X5.22988 Y-3.17581
G01 X5.22968 Y-3.17420
G01 X5.22971 Y-2.98535
G01 X5.22997 Y-2.98375
G01 X5.23050 Y-2.98221
G01 X5.23128 Y-2.98078
G01 X5.23228 Y-2.97950
G01 X5.23316 Y-2.97865
G01 X5.23448 Y-2.97771
G01 X5.23826 Y-2.97583
G01 X5.24052 Y-2.97444
G01 X5.24296 Y-2.97261
G01 X5.24493 Y-2.97080
G01 X5.24672 Y-2.96882
G01 X5.24854 Y-2.96638
G01 X5.24991 Y-2.96412
G01 X5.25123 Y-2.96137
G01 X5.25214 Y-2.95888
G01 X5.25291 Y-2.95593
G01 X5.25332 Y-2.95332
G01 X5.25351 Y-2.95027
G01 X5.25342 Y-2.94763
G01 X5.25302 Y-2.94463
G01 X5.25232 Y-2.94170
G01 X5.25101 Y-2.93782
G01 X5.25074 Y-2.93621
G01 X5.25084 Y-2.93378
G01 X5.25111 Y-2.93258
G01 X5.25170 Y-2.93107
G01 X5.25254 Y-2.92967
G01 X5.25359 Y-2.92842
G01 X5.32348 Y-2.85854
G01 X5.32472 Y-2.85749
G01 X5.32611 Y-2.85666
G01 X5.32802 Y-2.85596
G01 X5.33003 Y-2.85567
G01 X5.34842 Y-2.85566
G01 X5.35004 Y-2.85579
G01 X5.35123 Y-2.85607
G01 X5.35275 Y-2.85666
G01 X5.35414 Y-2.85749
G01 X5.35538 Y-2.85854
G01 X5.35643 Y-2.85978
G01 X5.35727 Y-2.86118
G01 X5.35786 Y-2.86269
G01 X5.35819 Y-2.86428
G01 X5.35827 Y-2.86575
G01 X5.38976 Y-2.86575
G01 X5.38976 Y-2.83425
G01 X5.35827 Y-2.83425
G01 X5.35819 Y-2.83571
G01 X5.35786 Y-2.83730
G01 X5.35727 Y-2.83881
G01 X5.35644 Y-2.84021
G01 X5.35540 Y-2.84145
G01 X5.35416 Y-2.84250
G01 X5.35277 Y-2.84333
G01 X5.35126 Y-2.84393
G01 X5.34967 Y-2.84426
G01 X5.34846 Y-2.84434
G01 X5.32325 Y-2.84442
G01 X5.32125 Y-2.84509
G01 X5.32058 Y-2.84556
G01 X5.24558 Y-2.92043
G01 X5.24434 Y-2.92148
G01 X5.24295 Y-2.92231
G01 X5.24144 Y-2.92290
G01 X5.24025 Y-2.92317
G01 X5.23863 Y-2.92331
G01 X5.23622 Y-2.92301
G01 X5.23216 Y-2.92165
G01 X5.22924 Y-2.92097
G01 X5.22624 Y-2.92059
G01 X5.22359 Y-2.92051
G01 X5.22057 Y-2.92071
G01 X5.21762 Y-2.92121
G01 X5.21471 Y-2.92201
G01 X5.21223 Y-2.92296
G01 X5.20953 Y-2.92431
G01 X5.20697 Y-2.92592
G01 X5.20488 Y-2.92755
G01 X5.20269 Y-2.92963
G01 X5.20071 Y-2.93192
G01 X5.19917 Y-2.93410
G01 X5.19783 Y-2.93641
G01 X5.19657 Y-2.93919
G01 X5.19571 Y-2.94169
G01 X5.19501 Y-2.94463
G01 X5.19461 Y-2.94763
G01 X5.19452 Y-2.95027
G01 X5.21225 Y-2.95005
G01 X5.21245 Y-2.94786
G01 X5.21305 Y-2.94574
G01 X5.21274 Y-2.94562
G01 X5.21305 Y-2.94574
G01 X5.21411 Y-2.94366
G01 X5.21551 Y-2.94188
G01 X5.21526 Y-2.94163
G01 X5.21551 Y-2.94188
G01 X5.21717 Y-2.94043
G01 X5.21937 Y-2.93919
G01 X5.21923 Y-2.93886
G01 X5.21937 Y-2.93919
G01 X5.22147 Y-2.93852
G01 X5.22391 Y-2.93824
G01 X5.22391 Y-2.93779
G01 X5.22391 Y-2.93824
G01 X5.22610 Y-2.93843
G01 X5.22726 Y-2.93870
G01 X5.23084 Y-2.93990
G01 X5.23348 Y-2.94054
G01 X5.23564 Y-2.93837
G01 X5.23348 Y-2.94054
G01 X5.23414 Y-2.94324
G01 X5.23529 Y-2.94666
G01 X5.23558 Y-2.94786
G01 X5.23578 Y-2.95005
G01 X5.23620 Y-2.95004
G01 X5.23578 Y-2.95005
G01 X5.23555 Y-2.95231
G01 X5.23489 Y-2.95448
G01 X5.23514 Y-2.95458
G01 X5.23489 Y-2.95448
G01 X5.23383 Y-2.95648
G01 X5.23303 Y-2.95755
G01 X5.23318 Y-2.95768
G01 X5.23303 Y-2.95755
G01 X5.23161 Y-2.95898
G01 X5.23055 Y-2.95978
G01 X5.23062 Y-2.95988
G01 X5.23055 Y-2.95978
G01 X5.22672 Y-2.96176
G01 X5.22431 Y-2.96319
G01 X5.22436 Y-2.96539
G01 X5.22431 Y-2.96319
G01 X5.22402 Y-2.96338
G01 X5.22131 Y-2.96176
G01 X5.21825 Y-2.96035
G01 X5.21567 Y-2.95830
G01 X5.21549 Y-2.95847
G01 X5.21567 Y-2.95830
G01 X5.21420 Y-2.95648
G01 X5.21314 Y-2.95448
G01 X5.21282 Y-2.95461
G01 X5.21314 Y-2.95448
G01 X5.21248 Y-2.95231
G01 X5.21225 Y-2.95005
G04 P0 ( dwell for no time -- G64 should not smooth over this point )
G00 Z0.08000 ( retract )

G00 X5.45676 Y-2.84893 ( rapid move to begin. )
G01 F180.00000
( Mill infeed pass 1/1 )
G01 Z-0.04000
G04 P0 ( dwell for no time -- G64 should not smooth over this point )
G01 F360.00000
G01 X5.45676 Y-2.84893
G01 X5.45678 Y-2.85135
G01 X5.45718 Y-2.85378
G01 X5.45796 Y-2.85611
G01 X5.45907 Y-2.85826
G01 X5.46079 Y-2.86055
G01 X5.46213 Y-2.86188
G01 X5.46343 Y-2.86290
G01 X5.46515 Y-2.86394
G01 X5.46695 Y-2.86474
G01 X5.46884 Y-2.86531
G01 X5.47078 Y-2.86564
G01 X5.47277 Y-2.86573
G01 X5.47552 Y-2.86552
G01 X5.47753 Y-2.86565
G01 X5.48022 Y-2.86652
G01 X5.48224 Y-2.86785
G01 X5.56884 Y-2.95434
G01 X5.57020 Y-2.95518
G01 X5.57188 Y-2.95558
G01 X5.58831 Y-2.95567
G01 X5.59033 Y-2.95598
G01 X5.59187 Y-2.95652
G01 X5.59397 Y-2.95779
G01 X5.59569 Y-2.95955
G01 X5.59656 Y-2.96093
G01 X5.59876 Y-2.96524
G01 X5.60130 Y-2.96880
G01 X5.60420 Y-2.97183
G01 X5.60750 Y-2.97442
G01 X5.61113 Y-2.97652
G01 X5.61502 Y-2.97808
G01 X5.61909 Y-2.97907
G01 X5.62342 Y-2.97949
G01 X5.62569 Y-2.97945
G01 X5.62758 Y-2.97928
G01 X5.63203 Y-2.97838
G01 X5.63385 Y-2.97781
G01 X5.63596 Y-2.97697
G01 X5.63991 Y-2.97484
G01 X5.64178 Y-2.97355
G01 X5.64491 Y-2.97082
G01 X5.64645 Y-2.96915
G01 X5.64910 Y-2.96552
G01 X5.65164 Y-2.96062
G01 X5.65313 Y-2.95867
G01 X5.65438 Y-2.95759
G01 X5.65579 Y-2.95675
G01 X5.65732 Y-2.95614
G01 X5.65933 Y-2.95576
G01 X5.96943 Y-2.95566
G01 X5.97168 Y-2.95532
G01 X5.97282 Y-2.95478
G01 X5.97404 Y-2.95377
G01 X6.13036 Y-2.79745
G01 X6.13128 Y-2.79664
G01 X6.13264 Y-2.79575
G01 X6.13413 Y-2.79510
G01 X6.13570 Y-2.79470
G01 X6.13732 Y-2.79457
G01 X6.61728 Y-2.79457
G01 X6.61930 Y-2.79478
G01 X6.62124 Y-2.79540
G01 X6.62267 Y-2.79617
G01 X6.62424 Y-2.79745
G01 X6.74032 Y-2.91353
G01 X6.74160 Y-2.91511
G01 X6.74221 Y-2.91617
G01 X6.74280 Y-2.91768
G01 X6.74307 Y-2.91887
G01 X6.74321 Y-2.92049
G01 X6.74321 Y-2.97951
G01 X6.74300 Y-2.98153
G01 X6.74238 Y-2.98346
G01 X6.74160 Y-2.98489
G01 X6.74032 Y-2.98647
G01 X6.56407 Y-3.16272
G01 X6.56283 Y-3.16377
G01 X6.56180 Y-3.16441
G01 X6.56031 Y-3.16507
G01 X6.55913 Y-3.16539
G01 X6.55752 Y-3.16559
G01 X6.51763 Y-3.16557
G01 X6.51642 Y-3.16539
G01 X6.51485 Y-3.16492
G01 X6.51269 Y-3.16374
G01 X6.51116 Y-3.16237
G01 X6.50909 Y-3.15972
G01 X6.50781 Y-3.15838
G01 X6.50484 Y-3.15612
G01 X6.50321 Y-3.15524
G01 X6.50130 Y-3.15448
G01 X6.49770 Y-3.15367
G01 X6.49539 Y-3.15354
G01 X6.45241 Y-3.15354
G01 X6.44983 Y-3.15374
G01 X6.44776 Y-3.15417
G01 X6.44555 Y-3.15493
G01 X6.44363 Y-3.15587
G01 X6.44184 Y-3.15703
G01 X6.44005 Y-3.15855
G01 X6.43862 Y-3.16011
G01 X6.43724 Y-3.16207
G01 X6.43576 Y-3.16509
G01 X6.43488 Y-3.16843
G01 X6.43469 Y-3.17015
G01 X6.43481 Y-3.17359
G01 X6.43559 Y-3.17693
G01 X6.43630 Y-3.17870
G01 X6.43803 Y-3.18166
G01 X6.44032 Y-3.18424
G01 X6.44302 Y-3.18629
G01 X6.44497 Y-3.18734
G01 X6.44698 Y-3.18812
G01 X6.44907 Y-3.18865
G01 X6.45119 Y-3.18892
G01 X6.49640 Y-3.18895
G01 X6.49846 Y-3.18874
G01 X6.50043 Y-3.18831
G01 X6.50232 Y-3.18766
G01 X6.50430 Y-3.18671
G01 X6.50596 Y-3.18566
G01 X6.50767 Y-3.18427
G01 X6.50905 Y-3.18284
G01 X6.51091 Y-3.18044
G01 X6.51237 Y-3.17902
G01 X6.51410 Y-3.17793
G01 X6.51642 Y-3.17713
G01 X6.51845 Y-3.17692
G01 X6.56376 Y-3.17690
G01 X6.56541 Y-3.17656
G01 X6.56701 Y-3.17569
G01 X6.75274 Y-2.99005
G01 X6.75357 Y-2.98899
G01 X6.75405 Y-2.98808
G01 X6.75450 Y-2.98609
G01 X6.75450 Y-2.91397
G01 X6.75433 Y-2.91276
G01 X6.75349 Y-2.91089
G01 X6.75255 Y-2.90975
G01 X6.62782 Y-2.78504
G01 X6.62676 Y-2.78420
G01 X6.62579 Y-2.78369
G01 X6.62380 Y-2.78327
G01 X6.13123 Y-2.78325
G01 X6.12965 Y-2.78341
G01 X6.12803 Y-2.78406
G01 X6.12668 Y-2.78514
G01 X5.97035 Y-2.94146
G01 X5.96878 Y-2.94274
G01 X5.96735 Y-2.94351
G01 X5.96541 Y-2.94413
G01 X5.96380 Y-2.94433
G01 X5.65936 Y-2.94431
G01 X5.65774 Y-2.94403
G01 X5.65618 Y-2.94349
G01 X5.65474 Y-2.94270
G01 X5.65316 Y-2.94139
G01 X5.65167 Y-2.93943
G01 X5.64927 Y-2.93476
G01 X5.64673 Y-2.93120
G01 X5.64371 Y-2.92804
G01 X5.64042 Y-2.92549
G01 X5.63648 Y-2.92327
G01 X5.63242 Y-2.92172
G01 X5.62820 Y-2.92080
G01 X5.62381 Y-2.92051
G01 X5.62028 Y-2.92075
G01 X5.61675 Y-2.92142
G01 X5.61330 Y-2.92252
G01 X5.61025 Y-2.92391
G01 X5.60826 Y-2.92506
G01 X5.60603 Y-2.92662
G01 X5.60395 Y-2.92838
G01 X5.60074 Y-2.93187
G01 X5.59916 Y-2.93412
G01 X5.59796 Y-2.93616
G01 X5.59634 Y-2.93947
G01 X5.59540 Y-2.94081
G01 X5.59393 Y-2.94224
G01 X5.59220 Y-2.94333
G01 X5.59028 Y-2.94404
G01 X5.58826 Y-2.94433
G01 X5.57886 Y-2.94434
G01 X5.57684 Y-2.94413
G01 X5.57528 Y-2.94367
G01 X5.57418 Y-2.94316
G01 X5.57281 Y-2.94227
G01 X5.57190 Y-2.94146
G01 X5.49056 Y-2.86011
G01 X5.48898 Y-2.85781
G01 X5.48819 Y-2.85555
G01 X5.48796 Y-2.85357
G01 X5.48817 Y-2.84998
G01 X5.48805 Y-2.84803
G01 X5.48768 Y-2.84614
G01 X5.48696 Y-2.84396
G01 X5.48613 Y-2.84226
G01 X5.48488 Y-2.84038
G01 X5.48338 Y-2.83870
G01 X5.48185 Y-2.83739
G01 X5.47918 Y-2.83578
G01 X5.47755 Y-2.83512
G01 X5.47443 Y-2.83439
G01 X5.47127 Y-2.83431
G01 X5.46956 Y-2.83453
G01 X5.46623 Y-2.83554
G01 X5.46346 Y-2.83708
G01 X5.46207 Y-2.83816
G01 X5.45989 Y-2.84050
G01 X5.45916 Y-2.84156
G01 X5.45796 Y-2.84389
G01 X5.45720 Y-2.84618
G01 X5.45676 Y-2.84893
G04 P0 ( dwell for no time -- G64 should not smooth over this point )
G00 Z0.08000 ( retract )

G00 X5.63741 Y-2.95001 ( rapid move to begin. )
G01 F180.00000
( Mill infeed pass 1/1 )
G01 Z-0.04000
G04 P0 ( dwell for no time -- G64 should not smooth over this point )
G01 F360.00000
G01 X5.63741 Y-2.95001
G01 X5.63579 Y-2.95270
G01 X5.63426 Y-2.95592
G01 X5.63272 Y-2.95791
G01 X5.63175 Y-2.95888
G01 X5.63194 Y-2.95910
G01 X5.63175 Y-2.95888
G01 X5.63066 Y-2.95971
G01 X5.62788 Y-2.96112
G01 X5.62798 Y-2.96139
G01 X5.62788 Y-2.96112
G01 X5.62502 Y-2.96173
G01 X5.62414 Y-2.96176
G01 X5.62414 Y-2.96200
G01 X5.62414 Y-2.96176
G01 X5.62206 Y-2.96156
G01 X5.62044 Y-2.96116
G01 X5.62034 Y-2.96144
G01 X5.62044 Y-2.96116
G01 X5.61889 Y-2.96054
G01 X5.61745 Y-2.95971
G01 X5.61613 Y-2.95868
G01 X5.61594 Y-2.95891
G01 X5.61613 Y-2.95868
G01 X5.61366 Y-2.95576
G01 X5.61222 Y-2.95265
G01 X5.61079 Y-2.95023
G01 X5.60854 Y-2.95026
G01 X5.61079 Y-2.95023
G01 X5.61063 Y-2.95000
G01 X5.61216 Y-2.94747
G01 X5.61407 Y-2.94372
G01 X5.61397 Y-2.94365
G01 X5.61407 Y-2.94372
G01 X5.61597 Y-2.94142
G01 X5.61581 Y-2.94124
G01 X5.61597 Y-2.94142
G01 X5.61778 Y-2.94002
G01 X5.61969 Y-2.93908
G01 X5.61958 Y-2.93880
G01 X5.61969 Y-2.93908
G01 X5.62112 Y-2.93862
G01 X5.62381 Y-2.93827
G01 X5.62381 Y-2.93797
G01 X5.62381 Y-2.93827
G01 X5.62604 Y-2.93841
G01 X5.62835 Y-2.93905
G01 X5.62845 Y-2.93877
G01 X5.62835 Y-2.93905
G01 X5.63156 Y-2.94096
G01 X5.63173 Y-2.94076
G01 X5.63156 Y-2.94096
G01 X5.63305 Y-2.94252
G01 X5.63437 Y-2.94423
G01 X5.63580 Y-2.94734
G01 X5.63741 Y-2.95001
G01 X5.63986 Y-2.95002
G04 P0 ( dwell for no time -- G64 should not smooth over this point )
G00 Z0.08000 ( retract )

G00 X5.71067 Y-3.30487 ( rapid move to begin. )
G01 F180.00000
( Mill infeed pass 1/1 )
G01 Z-0.04000
G04 P0 ( dwell for no time -- G64 should not smooth over this point )
G01 F360.00000
G01 X5.71067 Y-3.30487
G01 X5.71344 Y-3.30391
G01 X5.71435 Y-3.29830
G01 X5.71516 Y-3.29575
G01 X5.71478 Y-3.29558
G01 X5.71516 Y-3.29575
G01 X5.71619 Y-3.29408
G01 X5.71738 Y-3.29276
G01 X5.71717 Y-3.29253
G01 X5.71738 Y-3.29276
G01 X5.71881 Y-3.29168
G01 X5.72033 Y-3.29090
G01 X5.72022 Y-3.29062
G01 X5.72033 Y-3.29090
G01 X5.72221 Y-3.29035
G01 X5.72391 Y-3.29018
G01 X5.72391 Y-3.28984
G01 X5.72391 Y-3.29018
G01 X5.72604 Y-3.29040
G01 X5.72778 Y-3.29094
G01 X5.72791 Y-3.29061
G01 X5.72778 Y-3.29094
G01 X5.72959 Y-3.29193
G01 X5.73093 Y-3.29304
G01 X5.73117 Y-3.29279
G01 X5.73093 Y-3.29304
G01 X5.73223 Y-3.29464
G01 X5.73311 Y-3.29631
G01 X5.73343 Y-3.29618
G01 X5.73311 Y-3.29631
G01 X5.73365 Y-3.29812
G01 X5.73383 Y-3.30000
G01 X5.73414 Y-3.30000
G01 X5.73383 Y-3.30000
G01 X5.73367 Y-3.30178
G01 X5.73319 Y-3.30349
G01 X5.73348 Y-3.30360
G01 X5.73319 Y-3.30349
G01 X5.73231 Y-3.30525
G01 X5.73122 Y-3.30666
G01 X5.73150 Y-3.30692
G01 X5.73122 Y-3.30666
G01 X5.72990 Y-3.30786
G01 X5.72775 Y-3.30908
G01 X5.72790 Y-3.30943
G01 X5.72775 Y-3.30908
G01 X5.72604 Y-3.30960
G01 X5.72406 Y-3.30980
G01 X5.72407 Y-3.31009
G01 X5.72406 Y-3.30980
G01 X5.72284 Y-3.30973
G01 X5.72077 Y-3.30925
G01 X5.72068 Y-3.30949
G01 X5.72077 Y-3.30925
G01 X5.71784 Y-3.30772
G01 X5.71566 Y-3.30566
G01 X5.71344 Y-3.30391
G04 P0 ( dwell for no time -- G64 should not smooth over this point )
G00 Z0.08000 ( retract )

G00 X5.80883 Y-3.28292 ( rapid move to begin. )
G01 F180.00000
( Mill infeed pass 1/1 )
G01 Z-0.04000
G04 P0 ( dwell for no time -- G64 should not smooth over this point )
G01 F360.00000
G01 X5.80883 Y-3.28292
G01 X5.81417 Y-3.28819
G01 X5.81417 Y-3.31240
G01 X5.81448 Y-3.31247
G01 X5.81119 Y-3.31489
G01 X5.81448 Y-3.31247
G01 X5.81718 Y-3.31321
G01 X5.82088 Y-3.31474
G01 X5.82401 Y-3.31659
G01 X5.82401 Y-3.31904
G01 X5.82401 Y-3.31659
G01 X5.82644 Y-3.31511
G01 X5.82934 Y-3.31376
G01 X5.83161 Y-3.31297
G01 X5.83404 Y-3.31236
G01 X5.83602 Y-3.31422
G01 X5.83404 Y-3.31236
G01 X5.83451 Y-3.30953
G01 X5.83539 Y-3.30645
G01 X5.83679 Y-3.30313
G01 X5.83863 Y-3.30000
G01 X5.84086 Y-3.29999
G01 X5.83863 Y-3.30000
G01 X5.83735 Y-3.29793
G01 X5.83628 Y-3.29578
G01 X5.83539 Y-3.29355
G01 X5.83470 Y-3.29124
G01 X5.83411 Y-3.28819
G01 X5.83701 Y-3.28445
G01 X5.83411 Y-3.28819
G01 X5.81417 Y-3.28819
G04 P0 ( dwell for no time -- G64 should not smooth over this point )
G00 Z0.08000 ( retract )

G00 X6.03386 Y-3.31181 ( rapid move to begin. )
G01 F180.00000
( Mill infeed pass 1/1 )
G01 Z-0.04000
G04 P0 ( dwell for no time -- G64 should not smooth over this point )
G01 F360.00000
G01 X6.03386 Y-3.31181
G01 X6.01392 Y-3.31181
G01 X6.01102 Y-3.31554
G01 X6.01392 Y-3.31181
G01 X6.01333 Y-3.30876
G01 X6.01264 Y-3.30645
G01 X6.01175 Y-3.30422
G01 X6.01068 Y-3.30207
G01 X6.00941 Y-3.30002
G01 X6.00717 Y-3.30003
G01 X6.00941 Y-3.30002
G01 X6.01175 Y-3.29578
G01 X6.01264 Y-3.29355
G01 X6.01333 Y-3.29124
G01 X6.01392 Y-3.28819
G01 X6.01102 Y-3.28445
G01 X6.01392 Y-3.28819
G01 X6.03386 Y-3.28819
G01 X6.03905 Y-3.28300
G01 X6.03386 Y-3.28819
G01 X6.03386 Y-3.31181
G01 X6.03905 Y-3.31700
G04 P0 ( dwell for no time -- G64 should not smooth over this point )
G00 Z0.08000 ( retract )

G00 X6.09647 Y-3.29977 ( rapid move to begin. )
G01 F180.00000
( Mill infeed pass 1/1 )
G01 Z-0.04000
G04 P0 ( dwell for no time -- G64 should not smooth over this point )
G01 F360.00000
G01 X6.09647 Y-3.29977
G01 X6.09669 Y-3.30341
G01 X6.09727 Y-3.30657
G01 X6.09822 Y-3.30966
G01 X6.09953 Y-3.31260
G01 X6.10137 Y-3.31568
G01 X6.10335 Y-3.31821
G01 X6.10564 Y-3.32051
G01 X6.10817 Y-3.32253
G01 X6.11093 Y-3.32423
G01 X6.11384 Y-3.32559
G01 X6.11726 Y-3.32670
G01 X6.12039 Y-3.32730
G01 X6.12397 Y-3.32754
G01 X6.12718 Y-3.32736
G01 X6.13037 Y-3.32680
G01 X6.13563 Y-3.32536
G01 X6.13725 Y-3.32529
G01 X6.13927 Y-3.32558
G01 X6.14118 Y-3.32628
G01 X6.14290 Y-3.32735
G01 X6.14949 Y-3.33364
G01 X6.15107 Y-3.33439
G01 X6.15313 Y-3.33465
G01 X6.43015 Y-3.33466
G01 X6.43292 Y-3.33517
G01 X6.43544 Y-3.33646
G01 X6.43695 Y-3.33779
G01 X6.43911 Y-3.34047
G01 X6.44065 Y-3.34200
G01 X6.44235 Y-3.34333
G01 X6.44420 Y-3.34444
G01 X6.44618 Y-3.34533
G01 X6.44807 Y-3.34591
G01 X6.45021 Y-3.34631
G01 X6.45266 Y-3.34646
G01 X6.49538 Y-3.34646
G01 X6.49862 Y-3.34619
G01 X6.50168 Y-3.34539
G01 X6.50453 Y-3.34407
G01 X6.50724 Y-3.34214
G01 X6.50945 Y-3.33985
G01 X6.51089 Y-3.33775
G01 X6.51199 Y-3.33557
G01 X6.51278 Y-3.33325
G01 X6.51323 Y-3.33086
G01 X6.51336 Y-3.32842
G01 X6.51315 Y-3.32598
G01 X6.51260 Y-3.32360
G01 X6.51173 Y-3.32132
G01 X6.51055 Y-3.31918
G01 X6.50910 Y-3.31722
G01 X6.50738 Y-3.31548
G01 X6.50544 Y-3.31399
G01 X6.50332 Y-3.31278
G01 X6.50105 Y-3.31188
G01 X6.49867 Y-3.31130
G01 X6.49606 Y-3.31104
G01 X6.45248 Y-3.31102
G01 X6.44913 Y-3.31134
G01 X6.44596 Y-3.31223
G01 X6.44438 Y-3.31293
G01 X6.44147 Y-3.31478
G01 X6.43899 Y-3.31714
G01 X6.43671 Y-3.31995
G01 X6.43479 Y-3.32144
G01 X6.43256 Y-3.32242
G01 X6.43015 Y-3.32282
G01 X6.15928 Y-3.32283
G01 X6.15766 Y-3.32270
G01 X6.15608 Y-3.32230
G01 X6.15496 Y-3.32183
G01 X6.15356 Y-3.32100
G01 X6.15261 Y-3.32023
G01 X6.15163 Y-3.31921
G01 X6.15069 Y-3.31790
G01 X6.14961 Y-3.31530
G01 X6.14931 Y-3.31330
G01 X6.14937 Y-3.31169
G01 X6.15094 Y-3.30578
G01 X6.15140 Y-3.30297
G01 X6.15155 Y-3.29970
G01 X6.15133 Y-3.29647
G01 X6.15073 Y-3.29329
G01 X6.14975 Y-3.29020
G01 X6.14843 Y-3.28726
G01 X6.14657 Y-3.28420
G01 X6.14458 Y-3.28168
G01 X6.14230 Y-3.27941
G01 X6.13947 Y-3.27720
G01 X6.13671 Y-3.27556
G01 X6.13375 Y-3.27424
G01 X6.13066 Y-3.27327
G01 X6.12747 Y-3.27268
G01 X6.12418 Y-3.27245
G01 X6.12159 Y-3.27256
G01 X6.11898 Y-3.27292
G01 X6.11607 Y-3.27362
G01 X6.11359 Y-3.27450
G01 X6.11121 Y-3.27561
G01 X6.10864 Y-3.27715
G01 X6.10653 Y-3.27871
G01 X6.10458 Y-3.28048
G01 X6.10257 Y-3.28271
G01 X6.10102 Y-3.28483
G01 X6.09967 Y-3.28711
G01 X6.09854 Y-3.28951
G01 X6.09765 Y-3.29201
G01 X6.09700 Y-3.29458
G01 X6.09661 Y-3.29720
G01 X6.09647 Y-3.29977
G01 X6.11421 Y-3.29973
G01 X6.11439 Y-3.29807
G01 X6.11494 Y-3.29626
G01 X6.11463 Y-3.29613
G01 X6.11494 Y-3.29626
G01 X6.11582 Y-3.29459
G01 X6.11714 Y-3.29300
G01 X6.11689 Y-3.29275
G01 X6.11714 Y-3.29300
G01 X6.11848 Y-3.29190
G01 X6.12030 Y-3.29092
G01 X6.12017 Y-3.29060
G01 X6.12030 Y-3.29092
G01 X6.12229 Y-3.29034
G01 X6.12395 Y-3.29019
G01 X6.12394 Y-3.28987
G01 X6.12395 Y-3.29019
G01 X6.12524 Y-3.29028
G01 X6.12748 Y-3.29083
G01 X6.12763 Y-3.29046
G01 X6.12748 Y-3.29083
G01 X6.12946 Y-3.29186
G01 X6.13133 Y-3.29348
G01 X6.13162 Y-3.29320
G01 X6.13133 Y-3.29348
G01 X6.13273 Y-3.29553
G01 X6.13317 Y-3.29651
G01 X6.13344 Y-3.29641
G01 X6.13317 Y-3.29651
G01 X6.13373 Y-3.29874
G01 X6.13381 Y-3.29989
G01 X6.13418 Y-3.29990
G01 X6.13381 Y-3.29989
G01 X6.13363 Y-3.30188
G01 X6.13203 Y-3.30791
G01 X6.13430 Y-3.31016
G01 X6.13203 Y-3.30791
G01 X6.12627 Y-3.30953
G01 X6.12406 Y-3.30979
G01 X6.12407 Y-3.31019
G01 X6.12406 Y-3.30979
G01 X6.12266 Y-3.30970
G01 X6.12034 Y-3.30908
G01 X6.12023 Y-3.30936
G01 X6.12034 Y-3.30908
G01 X6.11838 Y-3.30801
G01 X6.11748 Y-3.30730
G01 X6.11721 Y-3.30758
G01 X6.11748 Y-3.30730
G01 X6.11600 Y-3.30563
G01 X6.11484 Y-3.30344
G01 X6.11445 Y-3.30360
G01 X6.11484 Y-3.30344
G01 X6.11431 Y-3.30127
G01 X6.11421 Y-3.29973
G04 P0 ( dwell for no time -- G64 should not smooth over this point )
G00 Z0.08000 ( retract )

G00 X6.25671 Y-2.94807 ( rapid move to begin. )
G01 F180.00000
( Mill infeed pass 1/1 )
G01 Z-0.04000
G04 P0 ( dwell for no time -- G64 should not smooth over this point )
G01 F360.00000
G01 X6.25671 Y-2.94807
G01 X6.25887 Y-2.94986
G01 X6.26110 Y-2.95217
G01 X6.26463 Y-2.95707
G01 X6.26672 Y-2.95921
G01 X6.26649 Y-2.95948
G01 X6.26672 Y-2.95921
G01 X6.26899 Y-2.96061
G01 X6.27032 Y-2.96115
G01 X6.27026 Y-2.96132
G01 X6.27032 Y-2.96115
G01 X6.27293 Y-2.96170
G01 X6.27292 Y-2.96190
G01 X6.27293 Y-2.96170
G01 X6.27443 Y-2.96173
G01 X6.27732 Y-2.96127
G01 X6.27744 Y-2.96164
G01 X6.27732 Y-2.96127
G01 X6.27978 Y-2.96023
G01 X6.28195 Y-2.95866
G01 X6.28217 Y-2.95892
G01 X6.28195 Y-2.95866
G01 X6.28308 Y-2.95748
G01 X6.28431 Y-2.95568
G01 X6.28458 Y-2.95582
G01 X6.28431 Y-2.95568
G01 X6.28530 Y-2.95330
G01 X6.28572 Y-2.95102
G01 X6.28618 Y-2.95106
G01 X6.28572 Y-2.95102
G01 X6.28569 Y-2.94866
G01 X6.28489 Y-2.94557
G01 X6.28527 Y-2.94543
G01 X6.28489 Y-2.94557
G01 X6.28430 Y-2.94435
G01 X6.28255 Y-2.94194
G01 X6.28281 Y-2.94169
G01 X6.28255 Y-2.94194
G01 X6.28136 Y-2.94085
G01 X6.28009 Y-2.93996
G01 X6.27467 Y-2.93699
G01 X6.27271 Y-2.93558
G01 X6.27082 Y-2.93395
G01 X6.27033 Y-2.92869
G01 X6.27082 Y-2.93395
G01 X6.25671 Y-2.94807
G01 X6.24884 Y-2.94823
G04 P0 ( dwell for no time -- G64 should not smooth over this point )
G00 Z0.08000 ( retract )

G00 X6.38364 Y-3.24511 ( rapid move to begin. )
G01 F180.00000
( Mill infeed pass 1/1 )
G01 Z-0.04000
G04 P0 ( dwell for no time -- G64 should not smooth over this point )
G01 F360.00000
G01 X6.38364 Y-3.24511
G01 X6.38375 Y-3.24644
G01 X6.38422 Y-3.24792
G01 X6.38537 Y-3.24955
G01 X6.39008 Y-3.25422
G01 X6.39094 Y-3.25482
G01 X6.39219 Y-3.25538
G01 X6.39385 Y-3.25565
G01 X6.42958 Y-3.25566
G01 X6.43162 Y-3.25587
G01 X6.43358 Y-3.25651
G01 X6.43569 Y-3.25779
G01 X6.43689 Y-3.25891
G01 X6.43884 Y-3.26143
G01 X6.44001 Y-3.26268
G01 X6.44270 Y-3.26484
G01 X6.44419 Y-3.26571
G01 X6.44737 Y-3.26699
G01 X6.45080 Y-3.26764
G01 X6.49564 Y-3.26771
G01 X6.49804 Y-3.26754
G01 X6.50166 Y-3.26666
G01 X6.50453 Y-3.26533
G01 X6.50587 Y-3.26448
G01 X6.50712 Y-3.26351
G01 X6.50934 Y-3.26125
G01 X6.51029 Y-3.25999
G01 X6.51183 Y-3.25723
G01 X6.51286 Y-3.25424
G01 X6.51334 Y-3.25111
G01 X6.51337 Y-3.24953
G01 X6.51326 Y-3.24795
G01 X6.51261 Y-3.24486
G01 X6.51143 Y-3.24193
G01 X6.50974 Y-3.23925
G01 X6.50760 Y-3.23692
G01 X6.50639 Y-3.23591
G01 X6.50371 Y-3.23422
G01 X6.50225 Y-3.23356
G01 X6.49938 Y-3.23269
G01 X6.49782 Y-3.23242
G01 X6.49618 Y-3.23230
G01 X6.45259 Y-3.23228
G01 X6.44994 Y-3.23247
G01 X6.44637 Y-3.23334
G01 X6.44301 Y-3.23497
G01 X6.44006 Y-3.23727
G01 X6.43878 Y-3.23865
G01 X6.43690 Y-3.24107
G01 X6.43537 Y-3.24245
G01 X6.43321 Y-3.24365
G01 X6.43163 Y-3.24413
G01 X6.43040 Y-3.24431
G01 X6.40480 Y-3.24434
G01 X6.40318 Y-3.24421
G01 X6.40122 Y-3.24367
G01 X6.39908 Y-3.24251
G01 X6.39756 Y-3.24117
G01 X6.39615 Y-3.23918
G01 X6.39526 Y-3.23692
G01 X6.39496 Y-3.23450
G01 X6.39499 Y-3.04691
G01 X6.39537 Y-3.04491
G01 X6.39596 Y-3.04340
G01 X6.39679 Y-3.04200
G01 X6.39784 Y-3.04076
G01 X6.52849 Y-2.91002
G01 X6.52930 Y-2.90855
G01 X6.52963 Y-2.90702
G01 X6.52967 Y-2.87557
G01 X6.52981 Y-2.87396
G01 X6.53009 Y-2.87277
G01 X6.53068 Y-2.87126
G01 X6.53151 Y-2.86986
G01 X6.53256 Y-2.86863
G01 X6.53380 Y-2.86758
G01 X6.53520 Y-2.86675
G01 X6.53671 Y-2.86616
G01 X6.53830 Y-2.86582
G01 X6.53976 Y-2.86575
G01 X6.53997 Y-2.86348
G01 X6.54059 Y-2.86155
G01 X6.54160 Y-2.85978
G01 X6.54294 Y-2.85826
G01 X6.54457 Y-2.85704
G01 X6.54603 Y-2.85633
G01 X6.54759 Y-2.85587
G01 X6.54920 Y-2.85567
G01 X6.56841 Y-2.85569
G01 X6.57079 Y-2.85619
G01 X6.57228 Y-2.85684
G01 X6.57331 Y-2.85749
G01 X6.57455 Y-2.85854
G01 X6.64444 Y-2.92842
G01 X6.64549 Y-2.92967
G01 X6.64650 Y-2.93144
G01 X6.64712 Y-2.93337
G01 X6.64731 Y-2.93499
G01 X6.64711 Y-2.93742
G01 X6.64570 Y-2.94173
G01 X6.64507 Y-2.94431
G01 X6.64464 Y-2.94733
G01 X6.64452 Y-2.95000
G01 X6.64464 Y-2.95267
G01 X6.64507 Y-2.95569
G01 X6.64571 Y-2.95828
G01 X6.64657 Y-2.96081
G01 X6.64783 Y-2.96359
G01 X6.64917 Y-2.96590
G01 X6.65071 Y-2.96808
G01 X6.65269 Y-2.97037
G01 X6.65488 Y-2.97245
G01 X6.65699 Y-2.97409
G01 X6.65927 Y-2.97554
G01 X6.66162 Y-2.97676
G01 X6.66471 Y-2.97798
G01 X6.66821 Y-2.97891
G01 X6.67179 Y-2.97941
G01 X6.67504 Y-2.97947
G01 X6.67867 Y-2.97912
G01 X6.68184 Y-2.97843
G01 X6.68529 Y-2.97725
G01 X6.68824 Y-2.97584
G01 X6.69101 Y-2.97410
G01 X6.69386 Y-2.97182
G01 X6.69613 Y-2.96950
G01 X6.69836 Y-2.96665
G01 X6.70021 Y-2.96354
G01 X6.70154 Y-2.96058
G01 X6.70264 Y-2.95710
G01 X6.70325 Y-2.95391
G01 X6.70350 Y-2.95032
G01 X6.70328 Y-2.94639
G01 X6.70264 Y-2.94290
G01 X6.70144 Y-2.93917
G01 X6.69977 Y-2.93565
G01 X6.69764 Y-2.93236
G01 X6.69535 Y-2.92965
G01 X6.69247 Y-2.92700
G01 X6.68927 Y-2.92477
G01 X6.68582 Y-2.92298
G01 X6.68215 Y-2.92166
G01 X6.67835 Y-2.92083
G01 X6.67446 Y-2.92052
G01 X6.67058 Y-2.92071
G01 X6.66674 Y-2.92142
G01 X6.66168 Y-2.92304
G01 X6.65969 Y-2.92330
G01 X6.65692 Y-2.92299
G01 X6.65434 Y-2.92191
G01 X6.65245 Y-2.92043
G01 X6.57745 Y-2.84556
G01 X6.57623 Y-2.84482
G01 X6.57478 Y-2.84442
G01 X6.54957 Y-2.84434
G01 X6.54836 Y-2.84426
G01 X6.54677 Y-2.84393
G01 X6.54526 Y-2.84333
G01 X6.54387 Y-2.84250
G01 X6.54263 Y-2.84145
G01 X6.54159 Y-2.84021
G01 X6.54076 Y-2.83881
G01 X6.54017 Y-2.83730
G01 X6.53984 Y-2.83571
G01 X6.53976 Y-2.83425
G01 X6.50827 Y-2.83425
G01 X6.50827 Y-2.86575
G01 X6.51014 Y-2.86588
G01 X6.51171 Y-2.86628
G01 X6.51355 Y-2.86714
G01 X6.51488 Y-2.86808
G01 X6.51628 Y-2.86955
G01 X6.51717 Y-2.87091
G01 X6.51782 Y-2.87239
G01 X6.51828 Y-2.87437
G01 X6.51835 Y-2.90058
G01 X6.51795 Y-2.90298
G01 X6.51697 Y-2.90521
G01 X6.51547 Y-2.90713
G01 X6.38538 Y-3.03723
G01 X6.38422 Y-3.03888
G01 X6.38371 Y-3.04063
G01 X6.38364 Y-3.24511
G01 X6.45314 Y-3.25000
G01 X6.46420 Y-3.25000
G01 X6.45314 Y-3.25000
G04 P0 ( dwell for no time -- G64 should not smooth over this point )
G00 Z0.08000 ( retract )

G00 X6.45328 Y-3.32874 ( rapid move to begin. )
G01 F180.00000
( Mill infeed pass 1/1 )
G01 Z-0.04000
G04 P0 ( dwell for no time -- G64 should not smooth over this point )
G01 F360.00000
G01 X6.45328 Y-3.32874
G01 X6.46345 Y-3.32874
G01 X6.45328 Y-3.32874
G04 P0 ( dwell for no time -- G64 should not smooth over this point )
G00 Z0.08000 ( retract )

G00 X6.66448 Y-2.94091 ( rapid move to begin. )
G01 F180.00000
( Mill infeed pass 1/1 )
G01 Z-0.04000
G04 P0 ( dwell for no time -- G64 should not smooth over this point )
G01 F360.00000
G01 X6.66448 Y-2.94091
G01 X6.66378 Y-2.94362
G01 X6.66249 Y-2.94767
G01 X6.66237 Y-2.94765
G01 X6.66249 Y-2.94767
G01 X6.66230 Y-2.94900
G01 X6.66230 Y-2.95100
G01 X6.66204 Y-2.95103
G01 X6.66230 Y-2.95100
G01 X6.66272 Y-2.95330
G01 X6.66360 Y-2.95547
G01 X6.66330 Y-2.95563
G01 X6.66360 Y-2.95547
G01 X6.66469 Y-2.95716
G01 X6.66643 Y-2.95899
G01 X6.66622 Y-2.95924
G01 X6.66643 Y-2.95899
G01 X6.66813 Y-2.96019
G01 X6.67025 Y-2.96113
G01 X6.67016 Y-2.96141
G01 X6.67025 Y-2.96113
G01 X6.67170 Y-2.96151
G01 X6.67436 Y-2.96174
G01 X6.67437 Y-2.96204
G01 X6.67436 Y-2.96174
G01 X6.67707 Y-2.96134
G01 X6.67856 Y-2.96083
G01 X6.67871 Y-2.96117
G01 X6.67856 Y-2.96083
G01 X6.68074 Y-2.95963
G01 X6.68279 Y-2.95781
G01 X6.68305 Y-2.95806
G01 X6.68279 Y-2.95781
G01 X6.68371 Y-2.95663
G01 X6.68496 Y-2.95427
G01 X6.68523 Y-2.95437
G01 X6.68496 Y-2.95427
G01 X6.68543 Y-2.95277
G01 X6.68575 Y-2.95019
G01 X6.68606 Y-2.95019
G01 X6.68575 Y-2.95019
G01 X6.68566 Y-2.94850
G01 X6.68493 Y-2.94569
G01 X6.68524 Y-2.94557
G01 X6.68493 Y-2.94569
G01 X6.68426 Y-2.94429
G01 X6.68255 Y-2.94194
G01 X6.68280 Y-2.94170
G01 X6.68255 Y-2.94194
G01 X6.68136 Y-2.94085
G01 X6.68009 Y-2.93996
G01 X6.67871 Y-2.93925
G01 X6.67885 Y-2.93892
G01 X6.67871 Y-2.93925
G01 X6.67725 Y-2.93872
G01 X6.67574 Y-2.93839
G01 X6.67419 Y-2.93827
G01 X6.67421 Y-2.93802
G01 X6.67419 Y-2.93827
G01 X6.67265 Y-2.93835
G01 X6.67112 Y-2.93863
G01 X6.67110 Y-2.93853
G01 X6.67112 Y-2.93863
G01 X6.66755 Y-2.93979
G01 X6.66455 Y-2.94054
G01 X6.66448 Y-2.94091
G01 X6.66287 Y-2.93938
G04 P0 ( dwell for no time -- G64 should not smooth over this point )
G00 Z0.08000 ( retract )

G00 X6.66077 Y-2.55030 ( rapid move to begin. )
G01 F180.00000
( Mill infeed pass 1/1 )
G01 Z-0.04000
G04 P0 ( dwell for no time -- G64 should not smooth over this point )
G01 F360.00000
G01 X6.66077 Y-2.55030
G01 X6.66057 Y-2.55000
G01 X6.66203 Y-2.54765
G01 X6.66363 Y-2.54445
G01 X6.66462 Y-2.54291
G01 X6.66562 Y-2.54175
G01 X6.66526 Y-2.54141
G01 X6.66562 Y-2.54175
G01 X6.66775 Y-2.54009
G01 X6.66959 Y-2.53910
G01 X6.66946 Y-2.53881
G01 X6.66959 Y-2.53910
G01 X6.67163 Y-2.53847
G01 X6.67367 Y-2.53823
G01 X6.67366 Y-2.53785
G01 X6.67367 Y-2.53823
G01 X6.67675 Y-2.53856
G01 X6.67890 Y-2.53930
G01 X6.67905 Y-2.53894
G01 X6.67890 Y-2.53930
G01 X6.68086 Y-2.54043
G01 X6.68252 Y-2.54188
G01 X6.68276 Y-2.54165
G01 X6.68252 Y-2.54188
G01 X6.68392 Y-2.54366
G01 X6.68498 Y-2.54574
G01 X6.68528 Y-2.54562
G01 X6.68498 Y-2.54574
G01 X6.68554 Y-2.54767
G01 X6.68578 Y-2.55000
G01 X6.68609 Y-2.55000
G01 X6.68578 Y-2.55000
G01 X6.68554 Y-2.55233
G01 X6.68498 Y-2.55425
G01 X6.68527 Y-2.55437
G01 X6.68498 Y-2.55425
G01 X6.68392 Y-2.55634
G01 X6.68260 Y-2.55804
G01 X6.68284 Y-2.55826
G01 X6.68260 Y-2.55804
G01 X6.68105 Y-2.55942
G01 X6.67911 Y-2.56060
G01 X6.67927 Y-2.56096
G01 X6.67911 Y-2.56060
G01 X6.67692 Y-2.56140
G01 X6.67377 Y-2.56177
G01 X6.67377 Y-2.56217
G01 X6.67377 Y-2.56177
G01 X6.67130 Y-2.56146
G01 X6.66959 Y-2.56091
G01 X6.66949 Y-2.56115
G01 X6.66959 Y-2.56091
G01 X6.66792 Y-2.56008
G01 X6.66646 Y-2.55903
G01 X6.66633 Y-2.55919
G01 X6.66646 Y-2.55903
G01 X6.66522 Y-2.55783
G01 X6.66414 Y-2.55641
G01 X6.66405 Y-2.55647
G01 X6.66414 Y-2.55641
G01 X6.66222 Y-2.55270
G01 X6.66077 Y-2.55030
G01 X6.26199 Y-2.55601
G01 X6.26417 Y-2.55734
G01 X6.26769 Y-2.55990
G01 X6.26871 Y-2.56048
G01 X6.26862 Y-2.56066
G01 X6.26871 Y-2.56048
G01 X6.27016 Y-2.56109
G01 X6.27283 Y-2.56169
G01 X6.27280 Y-2.56205
G01 X6.27283 Y-2.56169
G01 X6.27539 Y-2.56167
G01 X6.27787 Y-2.56109
G01 X6.27803 Y-2.56153
G01 X6.27787 Y-2.56109
G01 X6.28056 Y-2.55976
G01 X6.28246 Y-2.55816
G01 X6.28279 Y-2.55849
G01 X6.28246 Y-2.55816
G01 X6.28414 Y-2.55596
G01 X6.28607 Y-2.55221
G01 X6.28746 Y-2.55000
G01 X6.29055 Y-2.54999
G01 X6.28746 Y-2.55000
G01 X6.28594 Y-2.54755
G01 X6.28427 Y-2.54424
G01 X6.28232 Y-2.54167
G01 X6.28261 Y-2.54138
G01 X6.28232 Y-2.54167
G01 X6.28056 Y-2.54023
G01 X6.27857 Y-2.53915
G01 X6.27870 Y-2.53884
G01 X6.27857 Y-2.53915
G01 X6.27640 Y-2.53848
G01 X6.27407 Y-2.53823
