( pcb2gcode 2.5.0 )
( Software-independent Gcode )

G94 ( Inches per minute feed rate. )
G20 ( Units == INCHES. )

G90 ( Absolute coordinates. )
G00 S12000 ( RPM spindle speed. )
G64 P0.00040 ( set maximum deviation from commanded toolpath )
G01 F360.00000 ( Feedrate. )


G00 Z1.00000 (Retract to tool change height)
T1
M5      (Spindle stop.)
G04 P1.00000 (Wait for spindle to stop)
(MSG, Change tool bit to mill diameter 0.01969in)
M6      (Tool change.)
M0      (Temporary machine stop.)
M3 ( Spindle on clockwise. )
G04 P1.00000 (Wait for spindle to get up to speed)
( Piece #1, position [0;0] )

G04 P0 ( dwell for no time -- G64 should not smooth over this point )
G00 Z0.08000 ( retract )

G00 X3.16249 Y-3.21714 ( rapid move to begin. )
G01 F180.00000
( Mill infeed pass 1/1 )
G01 Z-0.04000
G04 P0 ( dwell for no time -- G64 should not smooth over this point )
G01 F360.00000
G01 X3.16249 Y-3.21714
G01 X3.16249 Y-2.81119
G01 X3.16265 Y-2.80962
G01 X3.16297 Y-2.80856
G01 X3.16348 Y-2.80759
G01 X3.16449 Y-2.80637
G01 X3.20637 Y-2.76449
G01 X3.20759 Y-2.76348
G01 X3.20856 Y-2.76297
G01 X3.20962 Y-2.76265
G01 X3.21119 Y-2.76249
G01 X3.56653 Y-2.76249
G01 X3.56855 Y-2.76228
G01 X3.57011 Y-2.76182
G01 X3.57191 Y-2.76089
G01 X3.57349 Y-2.75961
G01 X3.71076 Y-2.62234
G01 X3.71198 Y-2.62134
G01 X3.71295 Y-2.62082
G01 X3.71400 Y-2.62050
G01 X3.71558 Y-2.62034
G01 X3.74691 Y-2.62031
G01 X3.74852 Y-2.62004
G01 X3.75042 Y-2.61934
G01 X3.75215 Y-2.61827
G01 X3.75334 Y-2.61717
G01 X3.75455 Y-2.61554
G01 X3.75527 Y-2.61408
G01 X3.75573 Y-2.61252
G01 X3.75593 Y-2.61091
G01 X3.75594 Y-2.56694
G01 X3.86198 Y-2.56694
G01 X3.86360 Y-2.56681
G01 X3.86479 Y-2.56653
G01 X3.86630 Y-2.56594
G01 X3.86736 Y-2.56534
G01 X3.86894 Y-2.56406
G01 X3.92876 Y-2.50424
G01 X3.92998 Y-2.50324
G01 X3.93095 Y-2.50272
G01 X3.93403 Y-2.50199
G01 X3.93623 Y-2.50100
G01 X3.93783 Y-2.49978
G01 X3.93937 Y-2.49793
G01 X3.94042 Y-2.49576
G01 X3.94093 Y-2.49300
G01 X3.94094 Y-2.44884
G01 X4.05906 Y-2.44884
G01 X4.05906 Y-2.56696
G01 X3.94094 Y-2.56696
G01 X3.94094 Y-2.53182
G01 X3.94081 Y-2.53020
G01 X3.94041 Y-2.52862
G01 X3.93934 Y-2.52644
G01 X3.93806 Y-2.52486
G01 X3.93648 Y-2.52358
G01 X3.93430 Y-2.52251
G01 X3.93232 Y-2.52205
G01 X3.92988 Y-2.52205
G01 X3.92752 Y-2.52265
G01 X3.92572 Y-2.52358
G01 X3.92414 Y-2.52486
G01 X3.87694 Y-2.57206
G01 X3.87544 Y-2.57398
G01 X3.87447 Y-2.57621
G01 X3.87419 Y-2.57740
G01 X3.87406 Y-2.57902
G01 X3.87406 Y-2.68506
G01 X3.75594 Y-2.68506
G01 X3.75593 Y-2.64109
G01 X3.75573 Y-2.63948
G01 X3.75541 Y-2.63830
G01 X3.75434 Y-2.63612
G01 X3.75277 Y-2.63426
G01 X3.75114 Y-2.63304
G01 X3.74930 Y-2.63219
G01 X3.74732 Y-2.63173
G01 X3.72030 Y-2.63173
G01 X3.71871 Y-2.63207
G01 X3.71720 Y-2.63266
G01 X3.71580 Y-2.63349
G01 X3.71456 Y-2.63454
G01 X3.57729 Y-2.77181
G01 X3.57607 Y-2.77281
G01 X3.57510 Y-2.77333
G01 X3.57404 Y-2.77365
G01 X3.57247 Y-2.77381
G01 X3.21713 Y-2.77381
G01 X3.21511 Y-2.77401
G01 X3.21355 Y-2.77448
G01 X3.21209 Y-2.77519
G01 X3.21077 Y-2.77614
G01 X3.17641 Y-2.81047
G01 X3.17541 Y-2.81175
G01 X3.17463 Y-2.81318
G01 X3.17411 Y-2.81472
G01 X3.17384 Y-2.81632
G01 X3.17381 Y-3.21161
G01 X3.17401 Y-3.21322
G01 X3.17463 Y-3.21516
G01 X3.17541 Y-3.21658
G01 X3.17669 Y-3.21816
G01 X3.34879 Y-3.39026
G01 X3.35003 Y-3.39131
G01 X3.35142 Y-3.39214
G01 X3.35294 Y-3.39273
G01 X3.35453 Y-3.39306
G01 X3.81515 Y-3.39314
G01 X3.81757 Y-3.39284
G01 X3.81983 Y-3.39195
G01 X3.82181 Y-3.39054
G01 X3.84174 Y-3.37061
G01 X3.84295 Y-3.36899
G01 X3.84367 Y-3.36753
G01 X3.84413 Y-3.36597
G01 X3.84433 Y-3.36436
G01 X3.84433 Y-3.33896
G01 X3.84413 Y-3.33735
G01 X3.84381 Y-3.33617
G01 X3.84274 Y-3.33399
G01 X3.84174 Y-3.33270
G01 X3.84022 Y-3.33136
G01 X3.83845 Y-3.33036
G01 X3.83652 Y-3.32974
G01 X3.83450 Y-3.32953
G01 X3.82244 Y-3.32953
G01 X3.82244 Y-3.27047
G01 X3.87756 Y-3.27047
G01 X3.87757 Y-3.28491
G01 X3.87777 Y-3.28652
G01 X3.87823 Y-3.28808
G01 X3.87895 Y-3.28954
G01 X3.87963 Y-3.29054
G01 X3.88044 Y-3.29146
G01 X3.88168 Y-3.29251
G01 X3.88308 Y-3.29334
G01 X3.88421 Y-3.29381
G01 X3.88578 Y-3.29421
G01 X3.88740 Y-3.29434
G01 X4.01382 Y-3.29427
G01 X4.01501 Y-3.29404
G01 X4.01655 Y-3.29351
G01 X4.01864 Y-3.29227
G01 X4.01956 Y-3.29146
G01 X4.02061 Y-3.29022
G01 X4.02125 Y-3.28918
G01 X4.02191 Y-3.28769
G01 X4.02231 Y-3.28612
G01 X4.02243 Y-3.28491
G01 X4.02244 Y-3.27047
G01 X4.07756 Y-3.27047
G01 X4.07756 Y-3.32953
G01 X4.02244 Y-3.32953
G01 X4.02243 Y-3.31509
G01 X4.02231 Y-3.31388
G01 X4.02191 Y-3.31230
G01 X4.02125 Y-3.31081
G01 X4.02061 Y-3.30978
G01 X4.01956 Y-3.30854
G01 X4.01864 Y-3.30773
G01 X4.01655 Y-3.30649
G01 X4.01501 Y-3.30596
G01 X4.01382 Y-3.30573
G01 X3.88740 Y-3.30566
G01 X3.88578 Y-3.30579
G01 X3.88459 Y-3.30607
G01 X3.88236 Y-3.30704
G01 X3.88044 Y-3.30854
G01 X3.87895 Y-3.31046
G01 X3.87797 Y-3.31269
G01 X3.87757 Y-3.31509
G01 X3.87756 Y-3.32953
G01 X3.86509 Y-3.32953
G01 X3.86269 Y-3.32994
G01 X3.86046 Y-3.33091
G01 X3.85883 Y-3.33213
G01 X3.85749 Y-3.33365
G01 X3.85649 Y-3.33542
G01 X3.85587 Y-3.33735
G01 X3.85567 Y-3.33896
G01 X3.85566 Y-3.36989
G01 X3.85550 Y-3.37146
G01 X3.85518 Y-3.37252
G01 X3.85466 Y-3.37349
G01 X3.85366 Y-3.37471
G01 X3.82591 Y-3.40246
G01 X3.82469 Y-3.40346
G01 X3.82372 Y-3.40398
G01 X3.82266 Y-3.40430
G01 X3.82109 Y-3.40446
G01 X3.34981 Y-3.40446
G01 X3.34823 Y-3.40430
G01 X3.34718 Y-3.40398
G01 X3.34621 Y-3.40346
G01 X3.34498 Y-3.40246
G01 X3.16449 Y-3.22196
G01 X3.16348 Y-3.22074
G01 X3.16297 Y-3.21977
G01 X3.16265 Y-3.21872
G01 X3.16249 Y-3.21714
G04 P0 ( dwell for no time -- G64 should not smooth over this point )
G00 Z0.08000 ( retract )

G00 X3.36068 Y-3.32874 ( rapid move to begin. )
G01 F180.00000
( Mill infeed pass 1/1 )
G01 Z-0.04000
G04 P0 ( dwell for no time -- G64 should not smooth over this point )
G01 F360.00000
G01 X3.36068 Y-3.32874
G01 X3.36102 Y-3.33219
G01 X3.36202 Y-3.33550
G01 X3.36366 Y-3.33856
G01 X3.36585 Y-3.34123
G01 X3.36853 Y-3.34343
G01 X3.37158 Y-3.34506
G01 X3.37490 Y-3.34607
G01 X3.37883 Y-3.34646
G01 X3.42117 Y-3.34646
G01 X3.42510 Y-3.34607
G01 X3.42842 Y-3.34506
G01 X3.43147 Y-3.34343
G01 X3.43415 Y-3.34123
G01 X3.43715 Y-3.33763
G01 X3.43909 Y-3.33608
G01 X3.44135 Y-3.33507
G01 X3.44379 Y-3.33466
G01 X3.67083 Y-3.33465
G01 X3.67228 Y-3.33452
G01 X3.67369 Y-3.33414
G01 X3.72016 Y-3.31718
G01 X3.72254 Y-3.31663
G01 X3.72377 Y-3.31659
G01 X3.72539 Y-3.31676
G01 X3.72772 Y-3.31752
G01 X3.72947 Y-3.31858
G01 X3.73279 Y-3.32150
G01 X3.73524 Y-3.32326
G01 X3.73787 Y-3.32473
G01 X3.74065 Y-3.32591
G01 X3.74354 Y-3.32678
G01 X3.74651 Y-3.32732
G01 X3.74952 Y-3.32754
G01 X3.75258 Y-3.32742
G01 X3.75509 Y-3.32707
G01 X3.75760 Y-3.32648
G01 X3.76003 Y-3.32566
G01 X3.76246 Y-3.32457
G01 X3.76470 Y-3.32330
G01 X3.76681 Y-3.32183
G01 X3.76884 Y-3.32010
G01 X3.77063 Y-3.31826
G01 X3.77224 Y-3.31625
G01 X3.77366 Y-3.31411
G01 X3.77491 Y-3.31176
G01 X3.77590 Y-3.30938
G01 X3.77666 Y-3.30692
G01 X3.77719 Y-3.30441
G01 X3.77749 Y-3.30176
G01 X3.77754 Y-3.29920
G01 X3.77732 Y-3.29647
G01 X3.77684 Y-3.29379
G01 X3.77609 Y-3.29117
G01 X3.77513 Y-3.28871
G01 X3.77389 Y-3.28628
G01 X3.77242 Y-3.28399
G01 X3.77072 Y-3.28185
G01 X3.76889 Y-3.27995
G01 X3.76681 Y-3.27817
G01 X3.76464 Y-3.27666
G01 X3.76226 Y-3.27533
G01 X3.75976 Y-3.27424
G01 X3.75716 Y-3.27340
G01 X3.75459 Y-3.27284
G01 X3.75188 Y-3.27252
G01 X3.74913 Y-3.27246
G01 X3.74666 Y-3.27265
G01 X3.74419 Y-3.27307
G01 X3.74177 Y-3.27371
G01 X3.73941 Y-3.27456
G01 X3.73715 Y-3.27563
G01 X3.73499 Y-3.27690
G01 X3.73296 Y-3.27836
G01 X3.73106 Y-3.27999
G01 X3.72932 Y-3.28179
G01 X3.72776 Y-3.28375
G01 X3.72637 Y-3.28583
G01 X3.72518 Y-3.28804
G01 X3.72420 Y-3.29034
G01 X3.72343 Y-3.29272
G01 X3.72288 Y-3.29516
G01 X3.72225 Y-3.29933
G01 X3.72153 Y-3.30126
G01 X3.72015 Y-3.30331
G01 X3.71896 Y-3.30445
G01 X3.71796 Y-3.30518
G01 X3.71611 Y-3.30608
G01 X3.67185 Y-3.32224
G01 X3.66976 Y-3.32275
G01 X3.44379 Y-3.32282
G01 X3.44135 Y-3.32241
G01 X3.43909 Y-3.32140
G01 X3.43715 Y-3.31985
G01 X3.43415 Y-3.31625
G01 X3.43147 Y-3.31405
G01 X3.42842 Y-3.31242
G01 X3.42510 Y-3.31141
G01 X3.42117 Y-3.31102
G01 X3.37883 Y-3.31102
G01 X3.37490 Y-3.31141
G01 X3.37158 Y-3.31242
G01 X3.36853 Y-3.31405
G01 X3.36585 Y-3.31625
G01 X3.36366 Y-3.31892
G01 X3.36202 Y-3.32198
G01 X3.36102 Y-3.32529
G01 X3.36068 Y-3.32874
G01 X3.42033 Y-3.32874
G04 P0 ( dwell for no time -- G64 should not smooth over this point )
G00 Z0.08000 ( retract )

G00 X3.42033 Y-3.25000 ( rapid move to begin. )
G01 F180.00000
( Mill infeed pass 1/1 )
G01 Z-0.04000
G04 P0 ( dwell for no time -- G64 should not smooth over this point )
G01 F360.00000
G01 X3.42033 Y-3.25000
G01 X3.37967 Y-3.25000
G04 P0 ( dwell for no time -- G64 should not smooth over this point )
G00 Z0.08000 ( retract )

G00 X3.42033 Y-3.17126 ( rapid move to begin. )
G01 F180.00000
( Mill infeed pass 1/1 )
G01 Z-0.04000
G04 P0 ( dwell for no time -- G64 should not smooth over this point )
G01 F360.00000
G01 X3.42033 Y-3.17126
G01 X3.36068 Y-3.17126
G01 X3.36102 Y-3.17471
G01 X3.36202 Y-3.17802
G01 X3.36366 Y-3.18108
G01 X3.36585 Y-3.18375
G01 X3.36853 Y-3.18595
G01 X3.37158 Y-3.18758
G01 X3.37490 Y-3.18859
G01 X3.37883 Y-3.18898
G01 X3.42117 Y-3.18898
G01 X3.42510 Y-3.18859
G01 X3.42842 Y-3.18758
G01 X3.43147 Y-3.18595
G01 X3.43415 Y-3.18375
G01 X3.43715 Y-3.18015
G01 X3.43909 Y-3.17860
G01 X3.44057 Y-3.17786
G01 X3.44175 Y-3.17748
G01 X3.44421 Y-3.17717
G01 X4.04232 Y-3.17717
G01 X4.04395 Y-3.17701
G01 X4.04505 Y-3.17667
G01 X4.04606 Y-3.17613
G01 X4.04732 Y-3.17509
G01 X4.26014 Y-2.96238
G01 X4.26258 Y-2.96099
G01 X4.26531 Y-2.96034
G01 X4.26772 Y-2.96042
G01 X4.27041 Y-2.96125
G01 X4.27213 Y-2.96229
G01 X4.27360 Y-2.96366
G01 X4.27663 Y-2.96798
G01 X4.27894 Y-2.97064
G01 X4.28155 Y-2.97300
G01 X4.28442 Y-2.97504
G01 X4.28752 Y-2.97672
G01 X4.29071 Y-2.97799
G01 X4.29412 Y-2.97890
G01 X4.29760 Y-2.97939
G01 X4.30113 Y-2.97947
G01 X4.30455 Y-2.97914
G01 X4.30799 Y-2.97838
G01 X4.31132 Y-2.97723
G01 X4.31448 Y-2.97569
G01 X4.31744 Y-2.97378
G01 X4.32015 Y-2.97153
G01 X4.32260 Y-2.96895
G01 X4.32443 Y-2.96653
G01 X4.32602 Y-2.96389
G01 X4.32729 Y-2.96119
G01 X4.32831 Y-2.95828
G01 X4.32902 Y-2.95529
G01 X4.32940 Y-2.95233
G01 X4.32948 Y-2.94925
G01 X4.32925 Y-2.94625
G01 X4.32850 Y-2.94243
G01 X4.32732 Y-2.93889
G01 X4.32564 Y-2.93545
G01 X4.32360 Y-2.93232
G01 X4.32111 Y-2.92941
G01 X4.31834 Y-2.92691
G01 X4.31520 Y-2.92473
G01 X4.31051 Y-2.92227
G01 X4.30889 Y-2.92100
G01 X4.30780 Y-2.91975
G01 X4.30694 Y-2.91833
G01 X4.30633 Y-2.91680
G01 X4.30598 Y-2.91518
G01 X4.30594 Y-2.86494
G01 X4.30632 Y-2.86294
G01 X4.30709 Y-2.86106
G01 X4.30824 Y-2.85939
G01 X4.30970 Y-2.85798
G01 X4.31107 Y-2.85709
G01 X4.31255 Y-2.85644
G01 X4.31413 Y-2.85604
G01 X4.31575 Y-2.85591
G01 X4.43182 Y-2.85592
G01 X4.43426 Y-2.85633
G01 X4.43652 Y-2.85734
G01 X4.43817 Y-2.85860
G01 X4.44057 Y-2.86123
G01 X4.44216 Y-2.86260
G01 X4.44384 Y-2.86370
G01 X4.44575 Y-2.86461
G01 X4.44766 Y-2.86523
G01 X4.44973 Y-2.86562
G01 X4.45173 Y-2.86573
G01 X4.45389 Y-2.86556
G01 X4.45711 Y-2.86473
G01 X4.46012 Y-2.86321
G01 X4.46270 Y-2.86113
G01 X4.46482 Y-2.85849
G01 X4.46633 Y-2.85547
G01 X4.46715 Y-2.85221
G01 X4.46727 Y-2.84883
G01 X4.46668 Y-2.84562
G01 X4.46576 Y-2.84322
G01 X4.46453 Y-2.84110
G01 X4.46298 Y-2.83919
G01 X4.46116 Y-2.83754
G01 X4.45910 Y-2.83620
G01 X4.45686 Y-2.83520
G01 X4.45449 Y-2.83455
G01 X4.45195 Y-2.83428
G01 X4.45021 Y-2.83433
G01 X4.44838 Y-2.83460
G01 X4.44660 Y-2.83507
G01 X4.44489 Y-2.83576
G01 X4.44327 Y-2.83664
G01 X4.44176 Y-2.83770
G01 X4.44039 Y-2.83894
G01 X4.43825 Y-2.84133
G01 X4.43668 Y-2.84256
G01 X4.43453 Y-2.84358
G01 X4.43220 Y-2.84406
G01 X4.30048 Y-2.84409
G01 X4.29886 Y-2.84425
G01 X4.29776 Y-2.84459
G01 X4.29674 Y-2.84513
G01 X4.29586 Y-2.84586
G01 X4.29513 Y-2.84674
G01 X4.29459 Y-2.84776
G01 X4.29425 Y-2.84886
G01 X4.29409 Y-2.85048
G01 X4.29408 Y-2.90795
G01 X4.29388 Y-2.90956
G01 X4.29342 Y-2.91112
G01 X4.29270 Y-2.91258
G01 X4.29202 Y-2.91358
G01 X4.04324 Y-3.16247
G01 X4.04132 Y-3.16396
G01 X4.03909 Y-3.16494
G01 X4.03790 Y-3.16522
G01 X4.03628 Y-3.16535
G01 X3.44421 Y-3.16535
G01 X3.44175 Y-3.16504
G01 X3.44019 Y-3.16449
G01 X3.43909 Y-3.16391
G01 X3.43715 Y-3.16237
G01 X3.43415 Y-3.15877
G01 X3.43147 Y-3.15657
G01 X3.42842 Y-3.15494
G01 X3.42510 Y-3.15393
G01 X3.42117 Y-3.15354
G01 X3.37883 Y-3.15354
G01 X3.37490 Y-3.15393
G01 X3.37158 Y-3.15494
G01 X3.36853 Y-3.15657
G01 X3.36585 Y-3.15877
G01 X3.36366 Y-3.16144
G01 X3.36202 Y-3.16450
G01 X3.36102 Y-3.16781
G01 X3.36068 Y-3.17126
G04 P0 ( dwell for no time -- G64 should not smooth over this point )
G00 Z0.08000 ( retract )

G00 X3.22051 Y-2.95037 ( rapid move to begin. )
G01 F180.00000
( Mill infeed pass 1/1 )
G01 Z-0.04000
G04 P0 ( dwell for no time -- G64 should not smooth over this point )
G01 F360.00000
G01 X3.22051 Y-2.95037
G01 X3.22068 Y-2.95322
G01 X3.22113 Y-2.95603
G01 X3.22184 Y-2.95879
G01 X3.22279 Y-2.96139
G01 X3.22398 Y-2.96389
G01 X3.22544 Y-2.96634
G01 X3.22713 Y-2.96863
G01 X3.22904 Y-2.97075
G01 X3.23114 Y-2.97268
G01 X3.23341 Y-2.97439
G01 X3.23584 Y-2.97587
G01 X3.23987 Y-2.97792
G01 X3.24145 Y-2.97920
G01 X3.24250 Y-2.98044
G01 X3.24334 Y-2.98184
G01 X3.24393 Y-2.98335
G01 X3.24427 Y-2.98495
G01 X3.24434 Y-3.17973
G01 X3.24450 Y-3.18131
G01 X3.24482 Y-3.18236
G01 X3.24533 Y-3.18333
G01 X3.24634 Y-3.18455
G01 X3.31544 Y-3.25366
G01 X3.31667 Y-3.25466
G01 X3.31764 Y-3.25518
G01 X3.31869 Y-3.25550
G01 X3.32027 Y-3.25566
G01 X3.35559 Y-3.25566
G01 X3.35764 Y-3.25587
G01 X3.35961 Y-3.25651
G01 X3.36172 Y-3.25780
G01 X3.36293 Y-3.25894
G01 X3.36585 Y-3.26249
G01 X3.36853 Y-3.26469
G01 X3.37158 Y-3.26632
G01 X3.37490 Y-3.26733
G01 X3.37883 Y-3.26772
G01 X3.42117 Y-3.26772
G01 X3.42510 Y-3.26733
G01 X3.42842 Y-3.26632
G01 X3.43147 Y-3.26469
G01 X3.43415 Y-3.26249
G01 X3.43634 Y-3.25982
G01 X3.43798 Y-3.25676
G01 X3.43898 Y-3.25345
G01 X3.43932 Y-3.25000
G01 X3.43898 Y-3.24655
G01 X3.43798 Y-3.24324
G01 X3.43634 Y-3.24018
G01 X3.43415 Y-3.23751
G01 X3.43147 Y-3.23531
G01 X3.42842 Y-3.23368
G01 X3.42510 Y-3.23267
G01 X3.42117 Y-3.23228
G01 X3.37883 Y-3.23228
G01 X3.37490 Y-3.23267
G01 X3.37158 Y-3.23368
G01 X3.36853 Y-3.23531
G01 X3.36585 Y-3.23751
G01 X3.36293 Y-3.24106
G01 X3.36172 Y-3.24220
G01 X3.35961 Y-3.24348
G01 X3.35764 Y-3.24412
G01 X3.35559 Y-3.24434
G01 X3.32580 Y-3.24433
G01 X3.32340 Y-3.24393
G01 X3.32152 Y-3.24316
G01 X3.32016 Y-3.24227
G01 X3.31925 Y-3.24146
G01 X3.25826 Y-3.18046
G01 X3.25726 Y-3.17917
G01 X3.25633 Y-3.17737
G01 X3.25587 Y-3.17581
G01 X3.25567 Y-3.17420
G01 X3.25569 Y-2.98536
G01 X3.25596 Y-2.98375
G01 X3.25649 Y-2.98221
G01 X3.25726 Y-2.98078
G01 X3.25826 Y-2.97950
G01 X3.25914 Y-2.97865
G01 X3.26047 Y-2.97771
G01 X3.26423 Y-2.97584
G01 X3.26665 Y-2.97435
G01 X3.26892 Y-2.97263
G01 X3.27101 Y-2.97070
G01 X3.27291 Y-2.96857
G01 X3.27460 Y-2.96628
G01 X3.27605 Y-2.96383
G01 X3.27726 Y-2.96125
G01 X3.27822 Y-2.95857
G01 X3.27892 Y-2.95581
G01 X3.27934 Y-2.95299
G01 X3.27949 Y-2.95015
G01 X3.27937 Y-2.94730
G01 X3.27897 Y-2.94448
G01 X3.27831 Y-2.94171
G01 X3.27700 Y-2.93782
G01 X3.27673 Y-2.93621
G01 X3.27670 Y-2.93499
G01 X3.27690 Y-2.93337
G01 X3.27769 Y-2.93107
G01 X3.27852 Y-2.92967
G01 X3.27957 Y-2.92842
G01 X3.34946 Y-2.85854
G01 X3.35070 Y-2.85749
G01 X3.35210 Y-2.85666
G01 X3.35400 Y-2.85596
G01 X3.35601 Y-2.85567
G01 X3.37441 Y-2.85566
G01 X3.37603 Y-2.85579
G01 X3.37722 Y-2.85607
G01 X3.37873 Y-2.85666
G01 X3.38013 Y-2.85749
G01 X3.38137 Y-2.85854
G01 X3.38242 Y-2.85978
G01 X3.38325 Y-2.86118
G01 X3.38384 Y-2.86269
G01 X3.38418 Y-2.86428
G01 X3.38425 Y-2.86575
G01 X3.41575 Y-2.86575
G01 X3.41575 Y-2.83425
G01 X3.38425 Y-2.83425
G01 X3.38418 Y-2.83572
G01 X3.38384 Y-2.83731
G01 X3.38325 Y-2.83882
G01 X3.38242 Y-2.84022
G01 X3.38137 Y-2.84146
G01 X3.38013 Y-2.84251
G01 X3.37873 Y-2.84334
G01 X3.37722 Y-2.84393
G01 X3.37603 Y-2.84421
G01 X3.37441 Y-2.84434
G01 X3.35048 Y-2.84434
G01 X3.34890 Y-2.84450
G01 X3.34785 Y-2.84482
G01 X3.34688 Y-2.84533
G01 X3.34566 Y-2.84634
G01 X3.27157 Y-2.92042
G01 X3.27033 Y-2.92148
G01 X3.26894 Y-2.92231
G01 X3.26781 Y-2.92277
G01 X3.26623 Y-2.92317
G01 X3.26461 Y-2.92331
G01 X3.26219 Y-2.92300
G01 X3.25821 Y-2.92167
G01 X3.25537 Y-2.92100
G01 X3.25247 Y-2.92061
G01 X3.24955 Y-2.92051
G01 X3.24663 Y-2.92070
G01 X3.24375 Y-2.92117
G01 X3.24092 Y-2.92193
G01 X3.23827 Y-2.92294
G01 X3.23564 Y-2.92423
G01 X3.23316 Y-2.92578
G01 X3.23084 Y-2.92757
G01 X3.22878 Y-2.92951
G01 X3.22685 Y-2.93172
G01 X3.22516 Y-2.93410
G01 X3.22370 Y-2.93664
G01 X3.22251 Y-2.93931
G01 X3.22161 Y-2.94201
G01 X3.22098 Y-2.94470
G01 X3.22061 Y-2.94753
G01 X3.22051 Y-2.95037
G01 X3.23824 Y-2.95015
G01 X3.23843 Y-2.94787
G01 X3.23903 Y-2.94575
G01 X3.23871 Y-2.94563
G01 X3.23903 Y-2.94575
G01 X3.24010 Y-2.94366
G01 X3.24155 Y-2.94182
G01 X3.24129 Y-2.94157
G01 X3.24155 Y-2.94182
G01 X3.24329 Y-2.94034
G01 X3.24534 Y-2.93920
G01 X3.24520 Y-2.93888
G01 X3.24534 Y-2.93920
G01 X3.24751 Y-2.93851
G01 X3.24982 Y-2.93824
G01 X3.24982 Y-2.93779
G01 X3.24982 Y-2.93824
G01 X3.25214 Y-2.93844
G01 X3.25328 Y-2.93871
G01 X3.25679 Y-2.93989
G01 X3.25946 Y-2.94054
G01 X3.26163 Y-2.93836
G01 X3.25946 Y-2.94054
G01 X3.26001 Y-2.94286
G01 X3.26155 Y-2.94780
G01 X3.26176 Y-2.95006
G01 X3.26219 Y-2.95005
G01 X3.26176 Y-2.95006
G01 X3.26153 Y-2.95232
G01 X3.26087 Y-2.95449
G01 X3.26111 Y-2.95458
G01 X3.26087 Y-2.95449
G01 X3.25981 Y-2.95649
G01 X3.25914 Y-2.95741
G01 X3.25928 Y-2.95752
G01 X3.25914 Y-2.95741
G01 X3.25754 Y-2.95902
G01 X3.25664 Y-2.95971
G01 X3.25672 Y-2.95981
G01 X3.25664 Y-2.95971
G01 X3.25270 Y-2.96177
G01 X3.25029 Y-2.96319
G01 X3.25035 Y-2.96540
G01 X3.25029 Y-2.96319
G01 X3.25000 Y-2.96339
G01 X3.24727 Y-2.96175
G01 X3.24431 Y-2.96039
G01 X3.24164 Y-2.95827
G01 X3.24146 Y-2.95845
G01 X3.24164 Y-2.95827
G01 X3.24021 Y-2.95652
G01 X3.23915 Y-2.95454
G01 X3.23884 Y-2.95467
G01 X3.23915 Y-2.95454
G01 X3.23849 Y-2.95240
G01 X3.23824 Y-2.95015
G04 P0 ( dwell for no time -- G64 should not smooth over this point )
G00 Z0.08000 ( retract )

G00 X3.22050 Y-2.54999 ( rapid move to begin. )
G01 F180.00000
( Mill infeed pass 1/1 )
G01 Z-0.04000
G04 P0 ( dwell for no time -- G64 should not smooth over this point )
G01 F360.00000
G01 X3.22050 Y-2.54999
G01 X3.22064 Y-2.54716
G01 X3.22105 Y-2.54433
G01 X3.22171 Y-2.54165
G01 X3.22265 Y-2.53895
G01 X3.22380 Y-2.53644
G01 X3.22524 Y-2.53397
G01 X3.22690 Y-2.53166
G01 X3.22878 Y-2.52952
G01 X3.23085 Y-2.52756
G01 X3.23304 Y-2.52587
G01 X3.23545 Y-2.52434
G01 X3.23791 Y-2.52309
G01 X3.24057 Y-2.52205
G01 X3.24332 Y-2.52127
G01 X3.24603 Y-2.52077
G01 X3.24892 Y-2.52052
G01 X3.25329 Y-2.52068
G01 X3.25764 Y-2.52151
G01 X3.26174 Y-2.52293
G01 X3.26565 Y-2.52499
G01 X3.26921 Y-2.52761
G01 X3.27234 Y-2.53073
G01 X3.27497 Y-2.53429
G01 X3.27758 Y-2.53925
G01 X3.27908 Y-2.54119
G01 X3.28032 Y-2.54224
G01 X3.28209 Y-2.54326
G01 X3.28363 Y-2.54379
G01 X3.28524 Y-2.54406
G01 X3.61394 Y-2.54409
G01 X3.61555 Y-2.54396
G01 X3.61712 Y-2.54356
G01 X3.61860 Y-2.54292
G01 X3.61996 Y-2.54204
G01 X3.62115 Y-2.54094
G01 X3.62237 Y-2.53933
G01 X3.62423 Y-2.53564
G01 X3.62574 Y-2.53322
G01 X3.62747 Y-2.53096
G01 X3.62941 Y-2.52888
G01 X3.63154 Y-2.52699
G01 X3.63385 Y-2.52532
G01 X3.63631 Y-2.52387
G01 X3.63881 Y-2.52271
G01 X3.64150 Y-2.52176
G01 X3.64426 Y-2.52107
G01 X3.64709 Y-2.52065
G01 X3.64984 Y-2.52050
G01 X3.65270 Y-2.52063
G01 X3.65551 Y-2.52102
G01 X3.65828 Y-2.52169
G01 X3.66218 Y-2.52300
G01 X3.66379 Y-2.52327
G01 X3.66501 Y-2.52330
G01 X3.66662 Y-2.52310
G01 X3.66818 Y-2.52264
G01 X3.66965 Y-2.52192
G01 X3.67097 Y-2.52098
G01 X3.79216 Y-2.39984
G01 X3.79338 Y-2.39883
G01 X3.79435 Y-2.39832
G01 X3.79541 Y-2.39800
G01 X3.79698 Y-2.39784
G01 X4.15301 Y-2.39784
G01 X4.15459 Y-2.39800
G01 X4.15564 Y-2.39832
G01 X4.15662 Y-2.39883
G01 X4.15784 Y-2.39984
G01 X4.27934 Y-2.52123
G01 X4.28070 Y-2.52212
G01 X4.28181 Y-2.52264
G01 X4.28337 Y-2.52310
G01 X4.28499 Y-2.52330
G01 X4.28621 Y-2.52327
G01 X4.28782 Y-2.52300
G01 X4.29171 Y-2.52169
G01 X4.29448 Y-2.52102
G01 X4.29730 Y-2.52063
G01 X4.30016 Y-2.52050
G01 X4.30291 Y-2.52065
G01 X4.30574 Y-2.52107
G01 X4.30850 Y-2.52176
G01 X4.31119 Y-2.52271
G01 X4.31369 Y-2.52387
G01 X4.31615 Y-2.52532
G01 X4.31846 Y-2.52699
G01 X4.32059 Y-2.52888
G01 X4.32253 Y-2.53096
G01 X4.32426 Y-2.53322
G01 X4.32577 Y-2.53564
G01 X4.32763 Y-2.53933
G01 X4.32858 Y-2.54064
G01 X4.32972 Y-2.54178
G01 X4.33104 Y-2.54272
G01 X4.33366 Y-2.54379
G01 X4.33606 Y-2.54409
G01 X4.66435 Y-2.54408
G01 X4.66597 Y-2.54388
G01 X4.66791 Y-2.54326
G01 X4.66934 Y-2.54248
G01 X4.67063 Y-2.54147
G01 X4.67220 Y-2.53960
G01 X4.67503 Y-2.53429
G01 X4.67766 Y-2.53073
G01 X4.68079 Y-2.52761
G01 X4.68435 Y-2.52499
G01 X4.68826 Y-2.52293
G01 X4.69236 Y-2.52151
G01 X4.69671 Y-2.52068
G01 X4.70107 Y-2.52052
G01 X4.70397 Y-2.52077
G01 X4.70668 Y-2.52127
G01 X4.70943 Y-2.52205
G01 X4.71209 Y-2.52309
G01 X4.71455 Y-2.52434
G01 X4.71696 Y-2.52587
G01 X4.71915 Y-2.52756
G01 X4.72122 Y-2.52952
G01 X4.72310 Y-2.53166
G01 X4.72476 Y-2.53397
G01 X4.72619 Y-2.53644
G01 X4.72735 Y-2.53895
G01 X4.72829 Y-2.54165
G01 X4.72895 Y-2.54433
G01 X4.72936 Y-2.54716
G01 X4.72950 Y-2.55001
G01 X4.72937 Y-2.55277
G01 X4.72898 Y-2.55552
G01 X4.72833 Y-2.55821
G01 X4.72743 Y-2.56084
G01 X4.72630 Y-2.56336
G01 X4.72492 Y-2.56577
G01 X4.72333 Y-2.56805
G01 X4.72153 Y-2.57016
G01 X4.71955 Y-2.57209
G01 X4.71739 Y-2.57383
G01 X4.71507 Y-2.57536
G01 X4.71262 Y-2.57666
G01 X4.71006 Y-2.57773
G01 X4.70742 Y-2.57855
G01 X4.70470 Y-2.57912
G01 X4.70190 Y-2.57944
G01 X4.69737 Y-2.57938
G01 X4.69294 Y-2.57864
G01 X4.68868 Y-2.57724
G01 X4.68467 Y-2.57520
G01 X4.68102 Y-2.57258
G01 X4.67781 Y-2.56944
G01 X4.67511 Y-2.56584
G01 X4.67220 Y-2.56039
G01 X4.67062 Y-2.55852
G01 X4.66934 Y-2.55752
G01 X4.66790 Y-2.55674
G01 X4.66636 Y-2.55621
G01 X4.66435 Y-2.55592
G01 X4.33566 Y-2.55592
G01 X4.33368 Y-2.55620
G01 X4.33216 Y-2.55671
G01 X4.33041 Y-2.55769
G01 X4.32918 Y-2.55871
G01 X4.32768 Y-2.56059
G01 X4.32546 Y-2.56487
G01 X4.32355 Y-2.56774
G01 X4.32132 Y-2.57037
G01 X4.31886 Y-2.57267
G01 X4.31616 Y-2.57467
G01 X4.31316 Y-2.57639
G01 X4.30999 Y-2.57775
G01 X4.30677 Y-2.57870
G01 X4.30336 Y-2.57930
G01 X4.30000 Y-2.57949
G01 X4.29664 Y-2.57930
G01 X4.29323 Y-2.57870
G01 X4.29001 Y-2.57775
G01 X4.28684 Y-2.57639
G01 X4.28385 Y-2.57467
G01 X4.27998 Y-2.57185
G01 X4.27818 Y-2.57097
G01 X4.27664 Y-2.57055
G01 X4.27504 Y-2.57037
G01 X4.27344 Y-2.57046
G01 X4.27188 Y-2.57081
G01 X4.27039 Y-2.57141
G01 X4.06450 Y-2.67435
G01 X4.06312 Y-2.67519
G01 X4.06162 Y-2.67654
G01 X4.06064 Y-2.67781
G01 X4.05987 Y-2.67923
G01 X4.05935 Y-2.68076
G01 X4.05907 Y-2.68275
G01 X4.05906 Y-2.80316
G01 X3.94094 Y-2.80316
G01 X3.94094 Y-2.68504
G01 X4.01438 Y-2.68504
G01 X4.01644 Y-2.68482
G01 X4.01803 Y-2.68434
G01 X4.26510 Y-2.56084
G01 X4.26741 Y-2.55924
G01 X4.26850 Y-2.55805
G01 X4.26937 Y-2.55670
G01 X4.27002 Y-2.55522
G01 X4.27047 Y-2.55326
G01 X4.27055 Y-2.54835
G01 X4.27091 Y-2.54514
G01 X4.27159 Y-2.54208
G01 X4.27302 Y-2.53776
G01 X4.27328 Y-2.53616
G01 X4.27327 Y-2.53454
G01 X4.27289 Y-2.53256
G01 X4.27230 Y-2.53105
G01 X4.27123 Y-2.52934
G01 X4.15404 Y-2.41204
G01 X4.15312 Y-2.41123
G01 X4.15176 Y-2.41034
G01 X4.14949 Y-2.40946
G01 X4.14708 Y-2.40916
G01 X3.80292 Y-2.40916
G01 X3.80130 Y-2.40929
G01 X3.79972 Y-2.40969
G01 X3.79754 Y-2.41076
G01 X3.79596 Y-2.41204
G01 X3.67902 Y-2.52902
G01 X3.67808 Y-2.53035
G01 X3.67736 Y-2.53181
G01 X3.67690 Y-2.53337
G01 X3.67669 Y-2.53539
G01 X3.67699 Y-2.53781
G01 X3.67833 Y-2.54179
G01 X3.67900 Y-2.54464
G01 X3.67938 Y-2.54745
G01 X3.67949 Y-2.55039
G01 X3.67934 Y-2.55307
G01 X3.67893 Y-2.55574
G01 X3.67829 Y-2.55835
G01 X3.67738 Y-2.56098
G01 X3.67626 Y-2.56343
G01 X3.67492 Y-2.56577
G01 X3.67338 Y-2.56799
G01 X3.67164 Y-2.57005
G01 X3.66972 Y-2.57194
G01 X3.66763 Y-2.57365
G01 X3.66539 Y-2.57516
G01 X3.66303 Y-2.57646
G01 X3.66056 Y-2.57754
G01 X3.65800 Y-2.57839
G01 X3.65529 Y-2.57902
G01 X3.65259 Y-2.57938
G01 X3.65030 Y-2.57950
G01 X3.64575 Y-2.57919
G01 X3.64121 Y-2.57816
G01 X3.63696 Y-2.57646
G01 X3.63500 Y-2.57540
G01 X3.63119 Y-2.57272
G01 X3.62791 Y-2.56955
G01 X3.62516 Y-2.56591
G01 X3.62241 Y-2.56074
G01 X3.62147 Y-2.55941
G01 X3.62062 Y-2.55852
G01 X3.61934 Y-2.55752
G01 X3.61790 Y-2.55674
G01 X3.61636 Y-2.55621
G01 X3.61435 Y-2.55592
G01 X3.28606 Y-2.55591
G01 X3.28403 Y-2.55612
G01 X3.28246 Y-2.55659
G01 X3.28100 Y-2.55731
G01 X3.27936 Y-2.55854
G01 X3.27779 Y-2.56041
G01 X3.27505 Y-2.56559
G01 X3.27253 Y-2.56904
G01 X3.26955 Y-2.57209
G01 X3.26616 Y-2.57468
G01 X3.26429 Y-2.57581
G01 X3.26041 Y-2.57760
G01 X3.25640 Y-2.57880
G01 X3.25209 Y-2.57943
G01 X3.25007 Y-2.57950
G01 X3.24707 Y-2.57935
G01 X3.24427 Y-2.57893
G01 X3.24142 Y-2.57822
G01 X3.23875 Y-2.57727
G01 X3.23610 Y-2.57601
G01 X3.23366 Y-2.57456
G01 X3.23131 Y-2.57282
G01 X3.22914 Y-2.57086
G01 X3.22718 Y-2.56869
G01 X3.22544 Y-2.56633
G01 X3.22398 Y-2.56390
G01 X3.22273 Y-2.56125
G01 X3.22178 Y-2.55858
G01 X3.22107 Y-2.55573
G01 X3.22065 Y-2.55293
G01 X3.22050 Y-2.54999
G01 X3.23824 Y-2.54998
G01 X3.23846 Y-2.54772
G01 X3.23910 Y-2.54558
G01 X3.23879 Y-2.54546
G01 X3.23910 Y-2.54558
G01 X3.24013 Y-2.54361
G01 X3.24154 Y-2.54183
G01 X3.24130 Y-2.54161
G01 X3.24154 Y-2.54183
G01 X3.24322 Y-2.54039
G01 X3.24517 Y-2.53928
G01 X3.24503 Y-2.53897
G01 X3.24517 Y-2.53928
G01 X3.24735 Y-2.53854
G01 X3.24969 Y-2.53823
G01 X3.24968 Y-2.53791
G01 X3.24969 Y-2.53823
G01 X3.25215 Y-2.53842
G01 X3.25388 Y-2.53888
G01 X3.25398 Y-2.53859
G01 X3.25388 Y-2.53888
G01 X3.25624 Y-2.54002
G01 X3.25767 Y-2.54106
G01 X3.25783 Y-2.54087
G01 X3.25767 Y-2.54106
G01 X3.26004 Y-2.54367
G01 X3.26179 Y-2.54731
G01 X3.26325 Y-2.54971
G01 X3.26553 Y-2.54966
G01 X3.26325 Y-2.54971
G01 X3.26344 Y-2.55000
G01 X3.26178 Y-2.55272
G01 X3.26000 Y-2.55622
G01 X3.26010 Y-2.55629
G01 X3.26000 Y-2.55622
G01 X3.25898 Y-2.55761
G01 X3.25780 Y-2.55882
G01 X3.25796 Y-2.55900
G01 X3.25780 Y-2.55882
G01 X3.25569 Y-2.56031
G01 X3.25414 Y-2.56102
G01 X3.25424 Y-2.56129
G01 X3.25414 Y-2.56102
G01 X3.25257 Y-2.56149
G01 X3.25019 Y-2.56177
G01 X3.25019 Y-2.56209
G01 X3.25019 Y-2.56177
G01 X3.24773 Y-2.56154
G01 X3.24553 Y-2.56088
G01 X3.24539 Y-2.56121
G01 X3.24553 Y-2.56088
G01 X3.24350 Y-2.55980
G01 X3.24168 Y-2.55831
G01 X3.24144 Y-2.55856
G01 X3.24168 Y-2.55831
G01 X3.24020 Y-2.55650
G01 X3.23912 Y-2.55447
G01 X3.23880 Y-2.55460
G01 X3.23912 Y-2.55447
G01 X3.23846 Y-2.55227
G01 X3.23824 Y-2.54998
G01 X3.63673 Y-2.55027
G01 X3.63819 Y-2.55266
G01 X3.64009 Y-2.55636
G01 X3.64000 Y-2.55642
G01 X3.64009 Y-2.55636
G01 X3.64118 Y-2.55780
G01 X3.64248 Y-2.55906
G01 X3.64234 Y-2.55923
G01 X3.64248 Y-2.55906
G01 X3.64403 Y-2.56014
G01 X3.64566 Y-2.56094
G01 X3.64556 Y-2.56120
G01 X3.64566 Y-2.56094
G01 X3.64832 Y-2.56165
G01 X3.65012 Y-2.56177
G01 X3.65013 Y-2.56217
G01 X3.65012 Y-2.56177
G01 X3.65320 Y-2.56132
G01 X3.65520 Y-2.56055
G01 X3.65535 Y-2.56089
G01 X3.65520 Y-2.56055
G01 X3.65703 Y-2.55943
G01 X3.65863 Y-2.55800
G01 X3.65885 Y-2.55820
G01 X3.65863 Y-2.55800
G01 X3.65994 Y-2.55629
G01 X3.66091 Y-2.55439
G01 X3.66119 Y-2.55450
G01 X3.66091 Y-2.55439
G01 X3.66154 Y-2.55229
G01 X3.66176 Y-2.55020
G01 X3.66218 Y-2.55019
G01 X3.66176 Y-2.55020
G01 X3.66172 Y-2.54897
G01 X3.66129 Y-2.54672
G01 X3.66011 Y-2.54321
G01 X3.65946 Y-2.54054
G01 X3.66164 Y-2.53837
G01 X3.65946 Y-2.54054
G01 X3.65714 Y-2.53999
G01 X3.65220 Y-2.53844
G01 X3.64992 Y-2.53824
G01 X3.64993 Y-2.53781
G01 X3.64992 Y-2.53824
G01 X3.64771 Y-2.53846
G01 X3.64552 Y-2.53912
G01 X3.64540 Y-2.53882
G01 X3.64552 Y-2.53912
G01 X3.64356 Y-2.54016
G01 X3.64179 Y-2.54158
G01 X3.64162 Y-2.54139
G01 X3.64179 Y-2.54158
G01 X3.63966 Y-2.54423
G01 X3.63826 Y-2.54720
G01 X3.63655 Y-2.55000
G01 X3.63673 Y-2.55027
G04 P0 ( dwell for no time -- G64 should not smooth over this point )
G00 Z0.08000 ( retract )

G00 X3.48275 Y-2.84886 ( rapid move to begin. )
G01 F180.00000
( Mill infeed pass 1/1 )
G01 Z-0.04000
G04 P0 ( dwell for no time -- G64 should not smooth over this point )
G01 F360.00000
G01 X3.48275 Y-2.84886
G01 X3.48277 Y-2.85138
G01 X3.48319 Y-2.85386
G01 X3.48400 Y-2.85624
G01 X3.48518 Y-2.85847
G01 X3.48676 Y-2.86055
G01 X3.48805 Y-2.86182
G01 X3.48955 Y-2.86298
G01 X3.49125 Y-2.86400
G01 X3.49299 Y-2.86476
G01 X3.49481 Y-2.86531
G01 X3.49669 Y-2.86563
G01 X3.49859 Y-2.86573
G01 X3.50155 Y-2.86552
G01 X3.50355 Y-2.86566
G01 X3.50585 Y-2.86636
G01 X3.50823 Y-2.86785
G01 X3.59408 Y-2.95366
G01 X3.59531 Y-2.95466
G01 X3.59628 Y-2.95518
G01 X3.59733 Y-2.95550
G01 X3.59891 Y-2.95566
G01 X3.61424 Y-2.95567
G01 X3.61589 Y-2.95587
G01 X3.61786 Y-2.95652
G01 X3.61997 Y-2.95781
G01 X3.62170 Y-2.95959
G01 X3.62258 Y-2.96099
G01 X3.62481 Y-2.96532
G01 X3.62724 Y-2.96874
G01 X3.63013 Y-2.97178
G01 X3.63342 Y-2.97438
G01 X3.63704 Y-2.97648
G01 X3.64093 Y-2.97805
G01 X3.64500 Y-2.97906
G01 X3.64934 Y-2.97949
G01 X3.65135 Y-2.97947
G01 X3.65574 Y-2.97894
G01 X3.66000 Y-2.97775
G01 X3.66396 Y-2.97599
G01 X3.66775 Y-2.97356
G01 X3.67102 Y-2.97070
G01 X3.67383 Y-2.96739
G01 X3.67616 Y-2.96363
G01 X3.67763 Y-2.96061
G01 X3.67912 Y-2.95866
G01 X3.68071 Y-2.95736
G01 X3.68215 Y-2.95657
G01 X3.68370 Y-2.95603
G01 X3.68532 Y-2.95576
G01 X3.99532 Y-2.95566
G01 X3.99689 Y-2.95550
G01 X3.99795 Y-2.95518
G01 X3.99892 Y-2.95466
G01 X4.00014 Y-2.95366
G01 X4.15635 Y-2.79745
G01 X4.15726 Y-2.79664
G01 X4.15862 Y-2.79575
G01 X4.16011 Y-2.79510
G01 X4.16169 Y-2.79470
G01 X4.16331 Y-2.79457
G01 X4.64327 Y-2.79457
G01 X4.64529 Y-2.79478
G01 X4.64722 Y-2.79540
G01 X4.64865 Y-2.79617
G01 X4.65023 Y-2.79745
G01 X4.76631 Y-2.91353
G01 X4.76759 Y-2.91511
G01 X4.76819 Y-2.91617
G01 X4.76878 Y-2.91768
G01 X4.76906 Y-2.91887
G01 X4.76919 Y-2.92049
G01 X4.76919 Y-2.97951
G01 X4.76898 Y-2.98153
G01 X4.76836 Y-2.98346
G01 X4.76759 Y-2.98489
G01 X4.76631 Y-2.98647
G01 X4.59006 Y-3.16272
G01 X4.58882 Y-3.16377
G01 X4.58778 Y-3.16441
G01 X4.58629 Y-3.16507
G01 X4.58512 Y-3.16539
G01 X4.58350 Y-3.16559
G01 X4.54358 Y-3.16557
G01 X4.54116 Y-3.16505
G01 X4.54002 Y-3.16457
G01 X4.53860 Y-3.16371
G01 X4.53707 Y-3.16232
G01 X4.53415 Y-3.15877
G01 X4.53147 Y-3.15657
G01 X4.52841 Y-3.15494
G01 X4.52510 Y-3.15393
G01 X4.52117 Y-3.15354
G01 X4.47883 Y-3.15354
G01 X4.47490 Y-3.15393
G01 X4.47158 Y-3.15494
G01 X4.46853 Y-3.15657
G01 X4.46585 Y-3.15877
G01 X4.46366 Y-3.16144
G01 X4.46202 Y-3.16450
G01 X4.46102 Y-3.16781
G01 X4.46068 Y-3.17126
G01 X4.46102 Y-3.17471
G01 X4.46202 Y-3.17802
G01 X4.46366 Y-3.18108
G01 X4.46585 Y-3.18375
G01 X4.46853 Y-3.18595
G01 X4.47158 Y-3.18758
G01 X4.47490 Y-3.18859
G01 X4.47883 Y-3.18898
G01 X4.52117 Y-3.18898
G01 X4.52510 Y-3.18859
G01 X4.52841 Y-3.18758
G01 X4.53147 Y-3.18595
G01 X4.53415 Y-3.18375
G01 X4.53707 Y-3.18020
G01 X4.53828 Y-3.17906
G01 X4.54039 Y-3.17777
G01 X4.54276 Y-3.17706
G01 X4.54441 Y-3.17692
G01 X4.58903 Y-3.17692
G01 X4.59061 Y-3.17676
G01 X4.59166 Y-3.17644
G01 X4.59263 Y-3.17592
G01 X4.59386 Y-3.17492
G01 X4.77851 Y-2.99027
G01 X4.77951 Y-2.98904
G01 X4.78003 Y-2.98807
G01 X4.78035 Y-2.98702
G01 X4.78051 Y-2.98544
G01 X4.78051 Y-2.91455
G01 X4.78035 Y-2.91298
G01 X4.78003 Y-2.91192
G01 X4.77951 Y-2.91095
G01 X4.77851 Y-2.90973
G01 X4.65403 Y-2.78525
G01 X4.65280 Y-2.78424
G01 X4.65183 Y-2.78373
G01 X4.65078 Y-2.78341
G01 X4.64920 Y-2.78325
G01 X4.15737 Y-2.78325
G01 X4.15579 Y-2.78341
G01 X4.15474 Y-2.78373
G01 X4.15377 Y-2.78424
G01 X4.15255 Y-2.78525
G01 X3.99634 Y-2.94146
G01 X3.99476 Y-2.94274
G01 X3.99333 Y-2.94351
G01 X3.99140 Y-2.94413
G01 X3.98979 Y-2.94433
G01 X3.68535 Y-2.94431
G01 X3.68372 Y-2.94403
G01 X3.68180 Y-2.94332
G01 X3.68039 Y-2.94247
G01 X3.67914 Y-2.94139
G01 X3.67765 Y-2.93943
G01 X3.67512 Y-2.93453
G01 X3.67263 Y-2.93107
G01 X3.66966 Y-2.92801
G01 X3.66621 Y-2.92535
G01 X3.66249 Y-2.92327
G01 X3.65842 Y-2.92173
G01 X3.65426 Y-2.92081
G01 X3.65012 Y-2.92050
G01 X3.64649 Y-2.92072
G01 X3.64295 Y-2.92137
G01 X3.63952 Y-2.92244
G01 X3.63615 Y-2.92396
G01 X3.63410 Y-2.92515
G01 X3.63201 Y-2.92662
G01 X3.63006 Y-2.92826
G01 X3.62831 Y-2.93001
G01 X3.62671 Y-2.93189
G01 X3.62523 Y-2.93398
G01 X3.62398 Y-2.93610
G01 X3.62232 Y-2.93948
G01 X3.62138 Y-2.94082
G01 X3.61991 Y-2.94224
G01 X3.61818 Y-2.94333
G01 X3.61626 Y-2.94404
G01 X3.61424 Y-2.94433
G01 X3.60485 Y-2.94434
G01 X3.60283 Y-2.94413
G01 X3.60127 Y-2.94367
G01 X3.60016 Y-2.94316
G01 X3.59880 Y-2.94227
G01 X3.59789 Y-2.94146
G01 X3.51655 Y-2.86011
G01 X3.51515 Y-2.85816
G01 X3.51417 Y-2.85554
G01 X3.51394 Y-2.85356
G01 X3.51415 Y-2.85007
G01 X3.51402 Y-2.84797
G01 X3.51363 Y-2.84599
G01 X3.51296 Y-2.84400
G01 X3.51208 Y-2.84219
G01 X3.51092 Y-2.84044
G01 X3.50954 Y-2.83887
G01 X3.50791 Y-2.83745
G01 X3.50519 Y-2.83579
G01 X3.50373 Y-2.83519
G01 X3.50049 Y-2.83440
G01 X3.49725 Y-2.83431
G01 X3.49559 Y-2.83452
G01 X3.49248 Y-2.83543
G01 X3.48954 Y-2.83701
G01 X3.48707 Y-2.83911
G01 X3.48598 Y-2.84037
G01 X3.48511 Y-2.84162
G01 X3.48391 Y-2.84398
G01 X3.48313 Y-2.84638
G01 X3.48275 Y-2.84886
G04 P0 ( dwell for no time -- G64 should not smooth over this point )
G00 Z0.08000 ( retract )

G00 X3.66339 Y-2.95001 ( rapid move to begin. )
G01 F180.00000
( Mill infeed pass 1/1 )
G01 Z-0.04000
G04 P0 ( dwell for no time -- G64 should not smooth over this point )
G01 F360.00000
G01 X3.66339 Y-2.95001
G01 X3.66179 Y-2.95266
G01 X3.66006 Y-2.95629
G01 X3.65776 Y-2.95886
G01 X3.65792 Y-2.95905
G01 X3.65776 Y-2.95886
G01 X3.65635 Y-2.95992
G01 X3.65401 Y-2.96107
G01 X3.65410 Y-2.96134
G01 X3.65401 Y-2.96107
G01 X3.65231 Y-2.96155
G01 X3.65014 Y-2.96177
G01 X3.65015 Y-2.96202
G01 X3.65014 Y-2.96177
G01 X3.64801 Y-2.96155
G01 X3.64639 Y-2.96116
G01 X3.64629 Y-2.96144
G01 X3.64639 Y-2.96116
G01 X3.64485 Y-2.96053
G01 X3.64341 Y-2.95969
G01 X3.64210 Y-2.95866
G01 X3.64191 Y-2.95888
G01 X3.64210 Y-2.95866
G01 X3.63992 Y-2.95613
G01 X3.63814 Y-2.95252
G01 X3.63669 Y-2.95011
G01 X3.63429 Y-2.95013
G01 X3.63669 Y-2.95011
G01 X3.63661 Y-2.95000
G01 X3.63813 Y-2.94750
G01 X3.64011 Y-2.94362
G01 X3.64003 Y-2.94356
G01 X3.64011 Y-2.94362
G01 X3.64203 Y-2.94134
G01 X3.64188 Y-2.94116
G01 X3.64203 Y-2.94134
G01 X3.64367 Y-2.94008
G01 X3.64582 Y-2.93902
G01 X3.64571 Y-2.93873
G01 X3.64582 Y-2.93902
G01 X3.64862 Y-2.93834
G01 X3.65033 Y-2.93824
G01 X3.65034 Y-2.93793
G01 X3.65033 Y-2.93824
G01 X3.65257 Y-2.93851
G01 X3.65419 Y-2.93899
G01 X3.65429 Y-2.93873
G01 X3.65419 Y-2.93899
G01 X3.65646 Y-2.94015
G01 X3.65785 Y-2.94122
G01 X3.65800 Y-2.94104
G01 X3.65785 Y-2.94122
G01 X3.66009 Y-2.94376
G01 X3.66179 Y-2.94734
G01 X3.66339 Y-2.95001
G01 X3.66586 Y-2.95002
G04 P0 ( dwell for no time -- G64 should not smooth over this point )
G00 Z0.08000 ( retract )

G00 X3.73650 Y-3.30507 ( rapid move to begin. )
G01 F180.00000
( Mill infeed pass 1/1 )
G01 Z-0.04000
G04 P0 ( dwell for no time -- G64 should not smooth over this point )
G01 F360.00000
G01 X3.73650 Y-3.30507
G01 X3.73941 Y-3.30390
G01 X3.74053 Y-3.29741
G01 X3.74042 Y-3.29737
G01 X3.74053 Y-3.29741
G01 X3.74158 Y-3.29495
G01 X3.74139 Y-3.29483
G01 X3.74158 Y-3.29495
G01 X3.74263 Y-3.29351
G01 X3.74393 Y-3.29229
G01 X3.74374 Y-3.29205
G01 X3.74393 Y-3.29229
G01 X3.74542 Y-3.29132
G01 X3.74707 Y-3.29063
G01 X3.74697 Y-3.29034
G01 X3.74707 Y-3.29063
G01 X3.74881 Y-3.29026
G01 X3.75067 Y-3.29021
G01 X3.75069 Y-3.28989
G01 X3.75067 Y-3.29021
G01 X3.75254 Y-3.29052
G01 X3.75437 Y-3.29121
G01 X3.75452 Y-3.29091
G01 X3.75437 Y-3.29121
G01 X3.75597 Y-3.29222
G01 X3.75737 Y-3.29352
G01 X3.75763 Y-3.29329
G01 X3.75737 Y-3.29352
G01 X3.75851 Y-3.29511
G01 X3.75929 Y-3.29684
G01 X3.75961 Y-3.29673
G01 X3.75929 Y-3.29684
G01 X3.75973 Y-3.29874
G01 X3.75979 Y-3.30061
G01 X3.76013 Y-3.30063
G01 X3.75979 Y-3.30061
G01 X3.75950 Y-3.30247
G01 X3.75888 Y-3.30417
G01 X3.75917 Y-3.30431
G01 X3.75888 Y-3.30417
G01 X3.75793 Y-3.30579
G01 X3.75672 Y-3.30715
G01 X3.75694 Y-3.30739
G01 X3.75672 Y-3.30715
G01 X3.75524 Y-3.30830
G01 X3.75356 Y-3.30915
G01 X3.75368 Y-3.30946
G01 X3.75356 Y-3.30915
G01 X3.75181 Y-3.30965
G01 X3.74983 Y-3.30980
G01 X3.74983 Y-3.31009
G01 X3.74983 Y-3.30980
G01 X3.74770 Y-3.30953
G01 X3.74667 Y-3.30922
G01 X3.74649 Y-3.30964
G01 X3.74667 Y-3.30922
G01 X3.74568 Y-3.30880
G01 X3.74388 Y-3.30766
G01 X3.73941 Y-3.30390
G04 P0 ( dwell for no time -- G64 should not smooth over this point )
G00 Z0.08000 ( retract )

G00 X3.83482 Y-3.28292 ( rapid move to begin. )
G01 F180.00000
( Mill infeed pass 1/1 )
G01 Z-0.04000
G04 P0 ( dwell for no time -- G64 should not smooth over this point )
G01 F360.00000
G01 X3.83482 Y-3.28292
G01 X3.84015 Y-3.28819
G01 X3.84015 Y-3.31240
G01 X3.84046 Y-3.31247
G01 X3.83717 Y-3.31489
G01 X3.84046 Y-3.31247
G01 X3.84317 Y-3.31321
G01 X3.84687 Y-3.31474
G01 X3.85000 Y-3.31659
G01 X3.84999 Y-3.31904
G01 X3.85000 Y-3.31659
G01 X3.85242 Y-3.31511
G01 X3.85533 Y-3.31376
G01 X3.85760 Y-3.31297
G01 X3.86002 Y-3.31236
G01 X3.86201 Y-3.31422
G01 X3.86002 Y-3.31236
G01 X3.86050 Y-3.30953
G01 X3.86137 Y-3.30645
G01 X3.86278 Y-3.30313
G01 X3.86462 Y-3.30000
G01 X3.86684 Y-3.29999
G01 X3.86462 Y-3.30000
G01 X3.86334 Y-3.29793
G01 X3.86226 Y-3.29578
G01 X3.86137 Y-3.29355
G01 X3.86068 Y-3.29124
G01 X3.86009 Y-3.28819
G01 X3.86299 Y-3.28445
G01 X3.86009 Y-3.28819
G01 X3.84015 Y-3.28819
G04 P0 ( dwell for no time -- G64 should not smooth over this point )
G00 Z0.08000 ( retract )

G00 X4.05985 Y-3.31181 ( rapid move to begin. )
G01 F180.00000
( Mill infeed pass 1/1 )
G01 Z-0.04000
G04 P0 ( dwell for no time -- G64 should not smooth over this point )
G01 F360.00000
G01 X4.05985 Y-3.31181
G01 X4.03991 Y-3.31181
G01 X4.03700 Y-3.31554
G01 X4.03991 Y-3.31181
G01 X4.03932 Y-3.30876
G01 X4.03863 Y-3.30645
G01 X4.03774 Y-3.30422
G01 X4.03666 Y-3.30207
G01 X4.03540 Y-3.30002
G01 X4.03316 Y-3.30003
G01 X4.03540 Y-3.30002
G01 X4.03774 Y-3.29578
G01 X4.03863 Y-3.29355
G01 X4.03932 Y-3.29124
G01 X4.03991 Y-3.28819
G01 X4.03700 Y-3.28445
G01 X4.03991 Y-3.28819
G01 X4.05985 Y-3.28819
G01 X4.06503 Y-3.28300
G01 X4.05985 Y-3.28819
G01 X4.05985 Y-3.31181
G01 X4.06503 Y-3.31700
G04 P0 ( dwell for no time -- G64 should not smooth over this point )
G00 Z0.08000 ( retract )

G00 X4.12246 Y-3.29928 ( rapid move to begin. )
G01 F180.00000
( Mill infeed pass 1/1 )
G01 Z-0.04000
G04 P0 ( dwell for no time -- G64 should not smooth over this point )
G01 F360.00000
G01 X4.12246 Y-3.29928
G01 X4.12266 Y-3.29662
G01 X4.12313 Y-3.29394
G01 X4.12386 Y-3.29131
G01 X4.12481 Y-3.28884
G01 X4.12600 Y-3.28648
G01 X4.12746 Y-3.28416
G01 X4.12908 Y-3.28208
G01 X4.13096 Y-3.28010
G01 X4.13301 Y-3.27831
G01 X4.13524 Y-3.27674
G01 X4.13754 Y-3.27543
G01 X4.14004 Y-3.27432
G01 X4.14254 Y-3.27348
G01 X4.14520 Y-3.27287
G01 X4.14790 Y-3.27253
G01 X4.15058 Y-3.27246
G01 X4.15385 Y-3.27273
G01 X4.15703 Y-3.27337
G01 X4.16010 Y-3.27438
G01 X4.16311 Y-3.27578
G01 X4.16585 Y-3.27748
G01 X4.16845 Y-3.27955
G01 X4.17072 Y-3.28185
G01 X4.17275 Y-3.28448
G01 X4.17441 Y-3.28725
G01 X4.17574 Y-3.29020
G01 X4.17671 Y-3.29329
G01 X4.17732 Y-3.29648
G01 X4.17754 Y-3.29963
G01 X4.17740 Y-3.30281
G01 X4.17696 Y-3.30562
G01 X4.17556 Y-3.31052
G01 X4.17531 Y-3.31211
G01 X4.17537 Y-3.31413
G01 X4.17570 Y-3.31570
G01 X4.17612 Y-3.31683
G01 X4.17689 Y-3.31825
G01 X4.17788 Y-3.31952
G01 X4.17890 Y-3.32050
G01 X4.18094 Y-3.32183
G01 X4.18207 Y-3.32230
G01 X4.18364 Y-3.32270
G01 X4.18526 Y-3.32283
G01 X4.45621 Y-3.32282
G01 X4.45865 Y-3.32241
G01 X4.46091 Y-3.32140
G01 X4.46285 Y-3.31985
G01 X4.46585 Y-3.31625
G01 X4.46853 Y-3.31405
G01 X4.47158 Y-3.31242
G01 X4.47490 Y-3.31141
G01 X4.47883 Y-3.31102
G01 X4.52117 Y-3.31102
G01 X4.52510 Y-3.31141
G01 X4.52841 Y-3.31242
G01 X4.53147 Y-3.31405
G01 X4.53415 Y-3.31625
G01 X4.53634 Y-3.31892
G01 X4.53798 Y-3.32198
G01 X4.53898 Y-3.32529
G01 X4.53932 Y-3.32874
G01 X4.53898 Y-3.33219
G01 X4.53798 Y-3.33550
G01 X4.53634 Y-3.33856
G01 X4.53415 Y-3.34123
G01 X4.53147 Y-3.34343
G01 X4.52841 Y-3.34506
G01 X4.52510 Y-3.34607
G01 X4.52117 Y-3.34646
G01 X4.47883 Y-3.34646
G01 X4.47490 Y-3.34607
G01 X4.47158 Y-3.34506
G01 X4.46853 Y-3.34343
G01 X4.46585 Y-3.34123
G01 X4.46285 Y-3.33763
G01 X4.46091 Y-3.33608
G01 X4.45865 Y-3.33507
G01 X4.45621 Y-3.33466
G01 X4.17922 Y-3.33465
G01 X4.17760 Y-3.33449
G01 X4.17650 Y-3.33415
G01 X4.17548 Y-3.33361
G01 X4.17422 Y-3.33257
G01 X4.16890 Y-3.32736
G01 X4.16753 Y-3.32647
G01 X4.16566 Y-3.32569
G01 X4.16366 Y-3.32531
G01 X4.16204 Y-3.32531
G01 X4.16043 Y-3.32558
G01 X4.15624 Y-3.32682
G01 X4.15298 Y-3.32738
G01 X4.14959 Y-3.32754
G01 X4.14629 Y-3.32729
G01 X4.14305 Y-3.32665
G01 X4.13983 Y-3.32559
G01 X4.13676 Y-3.32415
G01 X4.13396 Y-3.32239
G01 X4.13139 Y-3.32031
G01 X4.12904 Y-3.31786
G01 X4.12705 Y-3.31522
G01 X4.12535 Y-3.31228
G01 X4.12406 Y-3.30925
G01 X4.12312 Y-3.30599
G01 X4.12259 Y-3.30264
G01 X4.12246 Y-3.29928
G01 X4.14020 Y-3.29962
G01 X4.14043 Y-3.29784
G01 X4.14103 Y-3.29602
G01 X4.14072 Y-3.29589
G01 X4.14103 Y-3.29602
G01 X4.14198 Y-3.29434
G01 X4.14322 Y-3.29291
G01 X4.14298 Y-3.29266
G01 X4.14322 Y-3.29291
G01 X4.14476 Y-3.29170
G01 X4.14647 Y-3.29085
G01 X4.14634 Y-3.29053
G01 X4.14647 Y-3.29085
G01 X4.14829 Y-3.29034
G01 X4.15009 Y-3.29019
G01 X4.15010 Y-3.28988
G01 X4.15009 Y-3.29019
G01 X4.15137 Y-3.29030
G01 X4.15358 Y-3.29088
G01 X4.15373 Y-3.29052
G01 X4.15358 Y-3.29088
G01 X4.15562 Y-3.29198
G01 X4.15736 Y-3.29353
G01 X4.15764 Y-3.29326
G01 X4.15736 Y-3.29353
G01 X4.15810 Y-3.29449
G01 X4.15916 Y-3.29651
G01 X4.15942 Y-3.29642
G01 X4.15916 Y-3.29651
G01 X4.15950 Y-3.29761
G01 X4.15980 Y-3.29987
G01 X4.16017 Y-3.29987
G01 X4.15980 Y-3.29987
G01 X4.15963 Y-3.30179
G01 X4.15800 Y-3.30798
G01 X4.16033 Y-3.31031
G01 X4.15800 Y-3.30798
G01 X4.15221 Y-3.30954
G01 X4.14984 Y-3.30979
G01 X4.14984 Y-3.31018
G01 X4.14984 Y-3.30979
G01 X4.14754 Y-3.30948
G01 X4.14638 Y-3.30910
G01 X4.14627 Y-3.30937
G01 X4.14638 Y-3.30910
G01 X4.14528 Y-3.30858
G01 X4.14339 Y-3.30723
G01 X4.14311 Y-3.30752
G01 X4.14339 Y-3.30723
G01 X4.14185 Y-3.30543
G01 X4.14078 Y-3.30330
G01 X4.14039 Y-3.30346
G01 X4.14078 Y-3.30330
G01 X4.14025 Y-3.30092
G01 X4.14020 Y-3.29962
G04 P0 ( dwell for no time -- G64 should not smooth over this point )
G00 Z0.08000 ( retract )

G00 X4.47967 Y-3.32874 ( rapid move to begin. )
G01 F180.00000
( Mill infeed pass 1/1 )
G01 Z-0.04000
G04 P0 ( dwell for no time -- G64 should not smooth over this point )
G01 F360.00000
G01 X4.47967 Y-3.32874
G01 X4.52033 Y-3.32874
G04 P0 ( dwell for no time -- G64 should not smooth over this point )
G00 Z0.08000 ( retract )

G00 X4.52033 Y-3.25000 ( rapid move to begin. )
G01 F180.00000
( Mill infeed pass 1/1 )
G01 Z-0.04000
G04 P0 ( dwell for no time -- G64 should not smooth over this point )
G01 F360.00000
G01 X4.52033 Y-3.25000
G01 X4.47970 Y-3.25000
G01 X4.40963 Y-3.24501
G01 X4.40963 Y-3.04179
G01 X4.40978 Y-3.04021
G01 X4.41010 Y-3.03916
G01 X4.41062 Y-3.03819
G01 X4.41163 Y-3.03696
G01 X4.54146 Y-2.90713
G01 X4.54296 Y-2.90521
G01 X4.54393 Y-2.90298
G01 X4.54433 Y-2.90058
G01 X4.54427 Y-2.87437
G01 X4.54381 Y-2.87239
G01 X4.54316 Y-2.87091
G01 X4.54227 Y-2.86955
G01 X4.54086 Y-2.86808
G01 X4.53954 Y-2.86714
G01 X4.53770 Y-2.86628
G01 X4.53612 Y-2.86588
G01 X4.53425 Y-2.86575
G01 X4.53425 Y-2.83425
G01 X4.56575 Y-2.83425
G01 X4.56582 Y-2.83572
G01 X4.56616 Y-2.83731
G01 X4.56675 Y-2.83882
G01 X4.56758 Y-2.84022
G01 X4.56863 Y-2.84146
G01 X4.56987 Y-2.84251
G01 X4.57127 Y-2.84334
G01 X4.57278 Y-2.84393
G01 X4.57397 Y-2.84421
G01 X4.57559 Y-2.84434
G01 X4.59952 Y-2.84434
G01 X4.60109 Y-2.84450
G01 X4.60215 Y-2.84482
G01 X4.60312 Y-2.84533
G01 X4.60434 Y-2.84634
G01 X4.67842 Y-2.92042
G01 X4.68032 Y-2.92190
G01 X4.68290 Y-2.92299
G01 X4.68568 Y-2.92330
G01 X4.68766 Y-2.92304
G01 X4.69273 Y-2.92142
G01 X4.69649 Y-2.92072
G01 X4.70029 Y-2.92051
G01 X4.70418 Y-2.92081
G01 X4.70800 Y-2.92162
G01 X4.71159 Y-2.92289
G01 X4.71500 Y-2.92461
G01 X4.71823 Y-2.92682
G01 X4.72096 Y-2.92925
G01 X4.72337 Y-2.93202
G01 X4.72538 Y-2.93499
G01 X4.72706 Y-2.93827
G01 X4.72828 Y-2.94164
G01 X4.72910 Y-2.94522
G01 X4.72947 Y-2.94888
G01 X4.72938 Y-2.95246
G01 X4.72885 Y-2.95610
G01 X4.72787 Y-2.95964
G01 X4.72645 Y-2.96303
G01 X4.72467 Y-2.96615
G01 X4.72253 Y-2.96903
G01 X4.71998 Y-2.97169
G01 X4.71720 Y-2.97395
G01 X4.71409 Y-2.97590
G01 X4.71076 Y-2.97745
G01 X4.70726 Y-2.97858
G01 X4.70374 Y-2.97925
G01 X4.70007 Y-2.97949
G01 X4.69641 Y-2.97927
G01 X4.69280 Y-2.97860
G01 X4.68930 Y-2.97748
G01 X4.68597 Y-2.97594
G01 X4.68372 Y-2.97460
G01 X4.68154 Y-2.97301
G01 X4.67952 Y-2.97123
G01 X4.67766 Y-2.96926
G01 X4.67604 Y-2.96721
G01 X4.67457 Y-2.96494
G01 X4.67331 Y-2.96256
G01 X4.67227 Y-2.96006
G01 X4.67149 Y-2.95757
G01 X4.67092 Y-2.95492
G01 X4.67059 Y-2.95225
G01 X4.67051 Y-2.94955
G01 X4.67067 Y-2.94686
G01 X4.67108 Y-2.94419
G01 X4.67173 Y-2.94157
G01 X4.67309 Y-2.93744
G01 X4.67330 Y-2.93501
G01 X4.67301 Y-2.93299
G01 X4.67248 Y-2.93144
G01 X4.67171 Y-2.93001
G01 X4.67042 Y-2.92842
G01 X4.60054 Y-2.85854
G01 X4.59930 Y-2.85749
G01 X4.59826 Y-2.85684
G01 X4.59678 Y-2.85619
G01 X4.59439 Y-2.85569
G01 X4.57518 Y-2.85567
G01 X4.57357 Y-2.85587
G01 X4.57201 Y-2.85633
G01 X4.57055 Y-2.85704
G01 X4.56892 Y-2.85826
G01 X4.56758 Y-2.85978
G01 X4.56658 Y-2.86155
G01 X4.56596 Y-2.86348
G01 X4.56575 Y-2.86575
G01 X4.56428 Y-2.86582
G01 X4.56269 Y-2.86616
G01 X4.56118 Y-2.86675
G01 X4.55978 Y-2.86758
G01 X4.55854 Y-2.86863
G01 X4.55749 Y-2.86987
G01 X4.55666 Y-2.87127
G01 X4.55607 Y-2.87278
G01 X4.55579 Y-2.87397
G01 X4.55566 Y-2.87559
G01 X4.55566 Y-2.90611
G01 X4.55550 Y-2.90768
G01 X4.55518 Y-2.90874
G01 X4.55466 Y-2.90971
G01 X4.55366 Y-2.91093
G01 X4.42383 Y-3.04076
G01 X4.42278 Y-3.04200
G01 X4.42194 Y-3.04340
G01 X4.42135 Y-3.04491
G01 X4.42098 Y-3.04691
G01 X4.42094 Y-3.23450
G01 X4.42124 Y-3.23692
G01 X4.42213 Y-3.23918
G01 X4.42354 Y-3.24117
G01 X4.42507 Y-3.24251
G01 X4.42721 Y-3.24367
G01 X4.42917 Y-3.24421
G01 X4.43079 Y-3.24434
G01 X4.45641 Y-3.24431
G01 X4.45884 Y-3.24379
G01 X4.45998 Y-3.24331
G01 X4.46139 Y-3.24245
G01 X4.46293 Y-3.24106
G01 X4.46585 Y-3.23751
G01 X4.46853 Y-3.23531
G01 X4.47158 Y-3.23368
G01 X4.47490 Y-3.23267
G01 X4.47883 Y-3.23228
G01 X4.52117 Y-3.23228
G01 X4.52510 Y-3.23267
G01 X4.52841 Y-3.23368
G01 X4.53147 Y-3.23531
G01 X4.53415 Y-3.23751
G01 X4.53634 Y-3.24018
G01 X4.53798 Y-3.24324
G01 X4.53898 Y-3.24655
G01 X4.53932 Y-3.25000
G01 X4.53898 Y-3.25345
G01 X4.53798 Y-3.25676
G01 X4.53634 Y-3.25982
G01 X4.53415 Y-3.26249
G01 X4.53147 Y-3.26469
G01 X4.52841 Y-3.26632
G01 X4.52510 Y-3.26733
G01 X4.52117 Y-3.26772
G01 X4.47883 Y-3.26772
G01 X4.47490 Y-3.26733
G01 X4.47158 Y-3.26632
G01 X4.46853 Y-3.26469
G01 X4.46585 Y-3.26249
G01 X4.46293 Y-3.25894
G01 X4.46172 Y-3.25780
G01 X4.45961 Y-3.25651
G01 X4.45764 Y-3.25587
G01 X4.45559 Y-3.25566
G01 X4.42027 Y-3.25566
G01 X4.41869 Y-3.25550
G01 X4.41764 Y-3.25518
G01 X4.41667 Y-3.25466
G01 X4.41544 Y-3.25366
G01 X4.41163 Y-3.24984
G01 X4.41062 Y-3.24862
G01 X4.41010 Y-3.24764
G01 X4.40978 Y-3.24659
G01 X4.40963 Y-3.24501
G04 P0 ( dwell for no time -- G64 should not smooth over this point )
G00 Z0.08000 ( retract )

G00 X4.47967 Y-3.17126 ( rapid move to begin. )
G01 F180.00000
( Mill infeed pass 1/1 )
G01 Z-0.04000
G04 P0 ( dwell for no time -- G64 should not smooth over this point )
G01 F360.00000
G01 X4.47967 Y-3.17126
G01 X4.52033 Y-3.17126
G04 P0 ( dwell for no time -- G64 should not smooth over this point )
G00 Z0.08000 ( retract )

G00 X4.69053 Y-2.94058 ( rapid move to begin. )
G01 F180.00000
( Mill infeed pass 1/1 )
G01 Z-0.04000
G04 P0 ( dwell for no time -- G64 should not smooth over this point )
G01 F360.00000
G01 X4.69053 Y-2.94058
G01 X4.68986 Y-2.94330
G01 X4.68846 Y-2.94768
G01 X4.68836 Y-2.94766
G01 X4.68846 Y-2.94768
G01 X4.68827 Y-2.95090
G01 X4.68804 Y-2.95092
G01 X4.68827 Y-2.95090
G01 X4.68863 Y-2.95303
G01 X4.68935 Y-2.95501
G01 X4.68909 Y-2.95513
G01 X4.68935 Y-2.95501
G01 X4.69045 Y-2.95688
G01 X4.69183 Y-2.95846
G01 X4.69160 Y-2.95871
G01 X4.69183 Y-2.95846
G01 X4.69351 Y-2.95981
G01 X4.69573 Y-2.96094
G01 X4.69561 Y-2.96124
G01 X4.69573 Y-2.96094
G01 X4.69713 Y-2.96138
G01 X4.70003 Y-2.96174
G01 X4.70003 Y-2.96205
G01 X4.70003 Y-2.96174
G01 X4.70288 Y-2.96138
G01 X4.70428 Y-2.96093
G01 X4.70440 Y-2.96122
G01 X4.70428 Y-2.96093
G01 X4.70561 Y-2.96031
G01 X4.70794 Y-2.95864
G01 X4.70815 Y-2.95887
G01 X4.70794 Y-2.95864
G01 X4.70898 Y-2.95756
G01 X4.71052 Y-2.95520
G01 X4.71080 Y-2.95534
G01 X4.71052 Y-2.95520
G01 X4.71149 Y-2.95243
G01 X4.71170 Y-2.95097
G01 X4.71212 Y-2.95099
G01 X4.71170 Y-2.95097
G01 X4.71159 Y-2.94810
G01 X4.71078 Y-2.94534
G01 X4.71117 Y-2.94519
G01 X4.71078 Y-2.94534
G01 X4.71010 Y-2.94401
G01 X4.70834 Y-2.94174
G01 X4.70857 Y-2.94151
G01 X4.70834 Y-2.94174
G01 X4.70596 Y-2.93989
G01 X4.70461 Y-2.93921
G01 X4.70475 Y-2.93889
G01 X4.70461 Y-2.93921
G01 X4.70320 Y-2.93871
G01 X4.70166 Y-2.93838
G01 X4.70010 Y-2.93826
G01 X4.70009 Y-2.93782
G01 X4.70010 Y-2.93826
G01 X4.69712 Y-2.93862
G01 X4.69053 Y-2.94058
G01 X4.68862 Y-2.93858
G04 P0 ( dwell for no time -- G64 should not smooth over this point )
G00 Z0.08000 ( retract )

G00 X4.68447 Y-2.55032 ( rapid move to begin. )
G01 F180.00000
( Mill infeed pass 1/1 )
G01 Z-0.04000
G04 P0 ( dwell for no time -- G64 should not smooth over this point )
G01 F360.00000
G01 X4.68447 Y-2.55032
G01 X4.68673 Y-2.55027
G01 X4.68655 Y-2.55000
G01 X4.68821 Y-2.54731
G01 X4.68955 Y-2.54443
G01 X4.69171 Y-2.54164
G01 X4.69153 Y-2.54146
G01 X4.69171 Y-2.54164
G01 X4.69375 Y-2.54002
G01 X4.69531 Y-2.53920
G01 X4.69519 Y-2.53891
G01 X4.69531 Y-2.53920
G01 X4.69693 Y-2.53863
G01 X4.69953 Y-2.53823
G01 X4.69953 Y-2.53784
G01 X4.69953 Y-2.53823
G01 X4.70265 Y-2.53854
G01 X4.70483 Y-2.53928
G01 X4.70499 Y-2.53891
G01 X4.70483 Y-2.53928
G01 X4.70678 Y-2.54039
G01 X4.70846 Y-2.54183
G01 X4.70870 Y-2.54161
G01 X4.70846 Y-2.54183
G01 X4.70987 Y-2.54361
G01 X4.71090 Y-2.54558
G01 X4.71121 Y-2.54545
G01 X4.71090 Y-2.54558
G01 X4.71154 Y-2.54772
G01 X4.71176 Y-2.55002
G01 X4.71209 Y-2.55002
G01 X4.71176 Y-2.55002
G01 X4.71155 Y-2.55220
G01 X4.71094 Y-2.55432
G01 X4.71124 Y-2.55444
G01 X4.71094 Y-2.55432
G01 X4.70994 Y-2.55629
G01 X4.70859 Y-2.55804
G01 X4.70882 Y-2.55825
G01 X4.70859 Y-2.55804
G01 X4.70693 Y-2.55950
G01 X4.70503 Y-2.56063
G01 X4.70519 Y-2.56098
G01 X4.70503 Y-2.56063
G01 X4.70296 Y-2.56139
G01 X4.69990 Y-2.56177
G01 X4.69991 Y-2.56210
G01 X4.69990 Y-2.56177
G01 X4.69806 Y-2.56161
G01 X4.69632 Y-2.56118
G01 X4.69623 Y-2.56144
G01 X4.69632 Y-2.56118
G01 X4.69466 Y-2.56049
G01 X4.69242 Y-2.55901
G01 X4.69226 Y-2.55922
G01 X4.69242 Y-2.55901
G01 X4.69114 Y-2.55776
G01 X4.69007 Y-2.55632
G01 X4.68998 Y-2.55638
G01 X4.69007 Y-2.55632
G01 X4.68819 Y-2.55266
G01 X4.68673 Y-2.55027
G01 X4.28797 Y-2.55601
G01 X4.28988 Y-2.55716
G01 X4.29356 Y-2.55982
G01 X4.29476 Y-2.56051
G01 X4.29467 Y-2.56069
G01 X4.29476 Y-2.56051
G01 X4.29729 Y-2.56143
G01 X4.29868 Y-2.56167
G01 X4.29864 Y-2.56204
G01 X4.29868 Y-2.56167
G01 X4.30132 Y-2.56167
G01 X4.30396 Y-2.56106
G01 X4.30413 Y-2.56151
G01 X4.30396 Y-2.56106
G01 X4.30645 Y-2.55982
G01 X4.30848 Y-2.55813
G01 X4.30881 Y-2.55844
G01 X4.30848 Y-2.55813
G01 X4.31014 Y-2.55592
G01 X4.31206 Y-2.55221
G01 X4.31345 Y-2.55000
G01 X4.31655 Y-2.54999
G01 X4.31345 Y-2.55000
G01 X4.31193 Y-2.54756
G01 X4.31027 Y-2.54427
G01 X4.30898 Y-2.54241
G01 X4.30821 Y-2.54158
G01 X4.30851 Y-2.54128
G01 X4.30821 Y-2.54158
G01 X4.30644 Y-2.54016
G01 X4.30448 Y-2.53912
G01 X4.30460 Y-2.53882
G01 X4.30448 Y-2.53912
G01 X4.30229 Y-2.53846
G01 X4.30008 Y-2.53824
G01 X4.30006 Y-2.53778
G01 X4.30008 Y-2.53824
G01 X4.29780 Y-2.53844
G01 X4.29669 Y-2.53871
G01 X4.29324 Y-2.53988
G01 X4.29053 Y-2.54054
G01 X4.29050 Y-2.54071
G01 X4.28862 Y-2.53878
G01 X4.29050 Y-2.54071
G01 X4.28981 Y-2.54345
G01 X4.28841 Y-2.54805
G01 X4.28830 Y-2.54803
G01 X4.28841 Y-2.54805
G01 X4.28826 Y-2.54935
G01 X4.28823 Y-2.55330
G01 X4.28797 Y-2.55601
G01 X4.04974 Y-2.67893
G01 X4.02950 Y-2.71292
G01 X4.02360 Y-2.71952
G01 X4.02363 Y-2.76773
G01 X4.02882 Y-2.77292
G01 X4.02363 Y-2.76773
G01 X3.97637 Y-2.76773
G01 X3.97118 Y-2.77292
G01 X3.97637 Y-2.76773
G01 X3.97637 Y-2.72047
G01 X3.97118 Y-2.71528
G01 X3.97637 Y-2.72047
G01 X4.01640 Y-2.72043
G01 X4.02002 Y-2.72012
G01 X4.02360 Y-2.71952
G01 X4.02950 Y-2.71292
G01 X4.01110 Y-2.73299
G01 X4.00591 Y-2.73818
G01 X3.99408 Y-2.73818
G01 X3.98889 Y-2.73299
G01 X3.99408 Y-2.73818
G01 X3.99408 Y-2.75001
G01 X3.98889 Y-2.75520
G01 X3.99408 Y-2.75001
G01 X4.00591 Y-2.75001
G01 X4.01110 Y-2.75520
G01 X4.00591 Y-2.75001
G01 X4.00591 Y-2.73818
G01 X4.01110 Y-2.73299
G01 X4.02950 Y-2.71292
G01 X4.04974 Y-2.67893
G01 X4.04134 Y-2.69253
G01 X4.02562 Y-2.70036
G01 X4.02264 Y-2.70149
G01 X4.01954 Y-2.70227
G01 X4.01717 Y-2.70261
G01 X4.01478 Y-2.70275
G01 X3.95866 Y-2.70276
G01 X3.95347 Y-2.69757
G01 X3.95866 Y-2.70276
G01 X3.95866 Y-2.78544
G01 X3.95347 Y-2.79063
G01 X3.95866 Y-2.78544
G01 X4.04134 Y-2.78544
G01 X4.04653 Y-2.79063
G01 X4.04134 Y-2.78544
G01 X4.04134 Y-2.69253
G04 P0 ( dwell for no time -- G64 should not smooth over this point )
G00 Z0.08000 ( retract )

G00 X3.99146 Y-2.51382 ( rapid move to begin. )
G01 F180.00000
( Mill infeed pass 1/1 )
G01 Z-0.04000
G04 P0 ( dwell for no time -- G64 should not smooth over this point )
G01 F360.00000
G01 X3.99146 Y-2.51382
G01 X3.99106 Y-2.51253
G01 X3.99045 Y-2.51256
G01 X3.99106 Y-2.51253
G01 X3.99095 Y-2.51221
G01 X3.99235 Y-2.50725
G01 X3.99338 Y-2.50198
G01 X3.99024 Y-2.49808
G01 X3.99338 Y-2.50198
G01 X4.00591 Y-2.50198
G01 X4.01110 Y-2.49680
G01 X4.00591 Y-2.50198
G01 X4.00591 Y-2.51382
G01 X4.01110 Y-2.51900
G01 X4.00591 Y-2.51382
G01 X3.99146 Y-2.51382
G01 X3.98891 Y-2.51727
G01 X3.97094 Y-2.51241
G01 X3.97200 Y-2.51242
G01 X3.97421 Y-2.51801
G01 X3.97559 Y-2.52345
G01 X3.97628 Y-2.52901
G01 X3.97637 Y-2.53153
G01 X3.97236 Y-2.53602
G01 X3.97637 Y-2.53153
G01 X4.02363 Y-2.53153
G01 X4.02882 Y-2.53672
G01 X4.02363 Y-2.53153
G01 X4.02363 Y-2.48427
G01 X4.02882 Y-2.47908
G01 X4.02363 Y-2.48427
G01 X3.97637 Y-2.48427
G01 X3.97156 Y-2.47929
G01 X3.97637 Y-2.48427
G01 X3.97634 Y-2.49420
G01 X3.97586 Y-2.49940
G01 X3.97456 Y-2.50528
G01 X3.97341 Y-2.50870
G01 X3.97190 Y-2.51221
G01 X3.97200 Y-2.51242
G01 X3.94640 Y-2.51241
G01 X3.95058 Y-2.51233
G01 X3.95271 Y-2.51473
G01 X3.95455 Y-2.51735
G01 X3.95624 Y-2.52054
G01 X3.95750 Y-2.52392
G01 X3.95830 Y-2.52743
G01 X3.95865 Y-2.53142
G01 X3.95866 Y-2.54924
G01 X3.95348 Y-2.55443
G01 X3.95866 Y-2.54924
G01 X4.04134 Y-2.54924
G01 X4.04653 Y-2.55443
G01 X4.04134 Y-2.54924
G01 X4.04134 Y-2.46656
G01 X4.04653 Y-2.46137
G01 X4.04134 Y-2.46656
G01 X3.95866 Y-2.46656
G01 X3.95362 Y-2.46145
G01 X3.95866 Y-2.46656
G01 X3.95861 Y-2.49420
G01 X3.95836 Y-2.49660
G01 X3.95781 Y-2.49936
G01 X3.95712 Y-2.50167
G01 X3.95623 Y-2.50390
G01 X3.95410 Y-2.50777
G01 X3.95243 Y-2.51004
G01 X3.95046 Y-2.51221
G01 X3.95058 Y-2.51233
G04 P0 ( dwell for no time -- G64 should not smooth over this point )
G00 Z0.08000 ( retract )

G00 X3.80715 Y-2.62600 ( rapid move to begin. )
G01 F180.00000
( Mill infeed pass 1/1 )
G01 Z-0.04000
G04 P0 ( dwell for no time -- G64 should not smooth over this point )
G01 F360.00000
G01 X3.80715 Y-2.62600
G01 X3.80835 Y-2.62008
G01 X3.80509 Y-2.61609
G01 X3.80835 Y-2.62008
G01 X3.82091 Y-2.62008
G01 X3.82610 Y-2.61490
G01 X3.82091 Y-2.62008
G01 X3.82091 Y-2.63191
G01 X3.82610 Y-2.63710
G01 X3.82091 Y-2.63191
G01 X3.80835 Y-2.63191
G01 X3.80509 Y-2.63591
G01 X3.80835 Y-2.63191
G01 X3.80715 Y-2.62600
G01 X3.78868 Y-2.62614
G01 X3.79017 Y-2.63115
G01 X3.79107 Y-2.63629
G01 X3.79135 Y-2.64029
G01 X3.79137 Y-2.64963
G01 X3.78643 Y-2.65468
G01 X3.79137 Y-2.64963
G01 X3.83863 Y-2.64963
G01 X3.84382 Y-2.65482
G01 X3.83863 Y-2.64963
G01 X3.83863 Y-2.60237
G01 X3.84382 Y-2.59718
G01 X3.83863 Y-2.60237
G01 X3.79137 Y-2.60237
G01 X3.78643 Y-2.59732
G01 X3.79137 Y-2.60237
G01 X3.79135 Y-2.61171
G01 X3.79107 Y-2.61571
G01 X3.79026 Y-2.62046
G01 X3.78868 Y-2.62614
G01 X3.76891 Y-2.62605
G01 X3.77073 Y-2.62287
G01 X3.77199 Y-2.61992
G01 X3.77291 Y-2.61685
G01 X3.77347 Y-2.61370
G01 X3.77366 Y-2.61050
G01 X3.77366 Y-2.58466
G01 X3.76854 Y-2.57951
G01 X3.77366 Y-2.58466
G01 X3.85634 Y-2.58466
G01 X3.86153 Y-2.57947
G01 X3.85634 Y-2.58466
G01 X3.85634 Y-2.66734
G01 X3.86153 Y-2.67253
G01 X3.85634 Y-2.66734
G01 X3.77366 Y-2.66734
G01 X3.76854 Y-2.67249
G01 X3.77366 Y-2.66734
G01 X3.77366 Y-2.64150
G01 X3.77347 Y-2.63830
G01 X3.77309 Y-2.63593
G01 X3.77238 Y-2.63321
G01 X3.77140 Y-2.63058
G01 X3.77016 Y-2.62807
G01 X3.76890 Y-2.62602
G01 X3.76670 Y-2.62603
G01 X3.76891 Y-2.62605
G04 P0 ( dwell for no time -- G64 should not smooth over this point )
G00 Z0.08000 ( retract )

G00 X4.27538 Y-2.94848 ( rapid move to begin. )
G01 F180.00000
( Mill infeed pass 1/1 )
G01 Z-0.04000
G04 P0 ( dwell for no time -- G64 should not smooth over this point )
G01 F360.00000
G01 X4.27538 Y-2.94848
G01 X4.28297 Y-2.94828
G01 X4.28269 Y-2.94807
G01 X4.29681 Y-2.93395
G01 X4.29625 Y-2.92856
G01 X4.29681 Y-2.93395
G01 X4.29872 Y-2.93560
G01 X4.30102 Y-2.93723
G01 X4.30605 Y-2.93994
G01 X4.30839 Y-2.94179
G01 X4.30864 Y-2.94155
G01 X4.30839 Y-2.94179
G01 X4.30940 Y-2.94298
G01 X4.31088 Y-2.94559
G01 X4.31126 Y-2.94545
G01 X4.31088 Y-2.94559
G01 X4.31134 Y-2.94697
G01 X4.31167 Y-2.94866
G01 X4.31172 Y-2.95094
G01 X4.31216 Y-2.95097
G01 X4.31172 Y-2.95094
G01 X4.31128 Y-2.95330
G01 X4.31038 Y-2.95552
G01 X4.31066 Y-2.95566
G01 X4.31038 Y-2.95552
G01 X4.30906 Y-2.95748
G01 X4.30802 Y-2.95857
G01 X4.30820 Y-2.95877
G01 X4.30802 Y-2.95857
G01 X4.30577 Y-2.96023
G01 X4.30451 Y-2.96084
G01 X4.30465 Y-2.96121
G01 X4.30451 Y-2.96084
G01 X4.30180 Y-2.96161
G01 X4.29904 Y-2.96170
G01 X4.29904 Y-2.96199
G01 X4.29904 Y-2.96170
G01 X4.29629 Y-2.96114
G01 X4.29622 Y-2.96133
G01 X4.29629 Y-2.96114
G01 X4.29380 Y-2.95997
G01 X4.29265 Y-2.95916
G01 X4.29242 Y-2.95943
G01 X4.29265 Y-2.95916
G01 X4.29069 Y-2.95716
G01 X4.28730 Y-2.95242
G01 X4.28510 Y-2.95009
G01 X4.28297 Y-2.94828
( Piece #2, position [1;0] )

G04 P0 ( dwell for no time -- G64 should not smooth over this point )
G00 Z0.08000 ( retract )

G00 X5.13651 Y-3.21714 ( rapid move to begin. )
G01 F180.00000
( Mill infeed pass 1/1 )
G01 Z-0.04000
G04 P0 ( dwell for no time -- G64 should not smooth over this point )
G01 F360.00000
G01 X5.13651 Y-3.21714
G01 X5.13651 Y-2.81119
G01 X5.13666 Y-2.80962
G01 X5.13698 Y-2.80856
G01 X5.13750 Y-2.80759
G01 X5.13851 Y-2.80637
G01 X5.18038 Y-2.76449
G01 X5.18161 Y-2.76348
G01 X5.18258 Y-2.76297
G01 X5.18363 Y-2.76265
G01 X5.18521 Y-2.76249
G01 X5.54054 Y-2.76249
G01 X5.54256 Y-2.76228
G01 X5.54412 Y-2.76182
G01 X5.54593 Y-2.76089
G01 X5.54750 Y-2.75961
G01 X5.68477 Y-2.62234
G01 X5.68600 Y-2.62134
G01 X5.68697 Y-2.62082
G01 X5.68802 Y-2.62050
G01 X5.68960 Y-2.62034
G01 X5.72093 Y-2.62031
G01 X5.72253 Y-2.62004
G01 X5.72444 Y-2.61934
G01 X5.72616 Y-2.61827
G01 X5.72736 Y-2.61717
G01 X5.72857 Y-2.61554
G01 X5.72928 Y-2.61408
G01 X5.72975 Y-2.61252
G01 X5.72995 Y-2.61091
G01 X5.72996 Y-2.56694
G01 X5.83599 Y-2.56694
G01 X5.83761 Y-2.56681
G01 X5.83880 Y-2.56653
G01 X5.84032 Y-2.56594
G01 X5.84138 Y-2.56534
G01 X5.84295 Y-2.56406
G01 X5.90277 Y-2.50424
G01 X5.90400 Y-2.50324
G01 X5.90497 Y-2.50272
G01 X5.90805 Y-2.50199
G01 X5.91024 Y-2.50100
G01 X5.91184 Y-2.49978
G01 X5.91339 Y-2.49793
G01 X5.91444 Y-2.49576
G01 X5.91495 Y-2.49300
G01 X5.91496 Y-2.44884
G01 X6.03307 Y-2.44884
G01 X6.03307 Y-2.56696
G01 X5.91496 Y-2.56696
G01 X5.91496 Y-2.53182
G01 X5.91482 Y-2.53020
G01 X5.91442 Y-2.52862
G01 X5.91335 Y-2.52644
G01 X5.91207 Y-2.52486
G01 X5.91050 Y-2.52358
G01 X5.90831 Y-2.52251
G01 X5.90633 Y-2.52205
G01 X5.90390 Y-2.52205
G01 X5.90154 Y-2.52265
G01 X5.89973 Y-2.52358
G01 X5.89816 Y-2.52486
G01 X5.85096 Y-2.57206
G01 X5.84946 Y-2.57398
G01 X5.84848 Y-2.57621
G01 X5.84821 Y-2.57740
G01 X5.84807 Y-2.57902
G01 X5.84807 Y-2.68506
G01 X5.72996 Y-2.68506
G01 X5.72995 Y-2.64109
G01 X5.72975 Y-2.63948
G01 X5.72942 Y-2.63830
G01 X5.72835 Y-2.63612
G01 X5.72678 Y-2.63426
G01 X5.72515 Y-2.63304
G01 X5.72331 Y-2.63219
G01 X5.72133 Y-2.63173
G01 X5.69432 Y-2.63173
G01 X5.69273 Y-2.63207
G01 X5.69121 Y-2.63266
G01 X5.68982 Y-2.63349
G01 X5.68858 Y-2.63454
G01 X5.55131 Y-2.77181
G01 X5.55008 Y-2.77281
G01 X5.54911 Y-2.77333
G01 X5.54806 Y-2.77365
G01 X5.54648 Y-2.77381
G01 X5.19115 Y-2.77381
G01 X5.18913 Y-2.77401
G01 X5.18757 Y-2.77448
G01 X5.18611 Y-2.77519
G01 X5.18479 Y-2.77614
G01 X5.15042 Y-2.81047
G01 X5.14942 Y-2.81175
G01 X5.14865 Y-2.81318
G01 X5.14812 Y-2.81472
G01 X5.14786 Y-2.81632
G01 X5.14783 Y-3.21161
G01 X5.14803 Y-3.21322
G01 X5.14865 Y-3.21516
G01 X5.14942 Y-3.21658
G01 X5.15070 Y-3.21816
G01 X5.32280 Y-3.39026
G01 X5.32404 Y-3.39131
G01 X5.32544 Y-3.39214
G01 X5.32695 Y-3.39273
G01 X5.32854 Y-3.39306
G01 X5.78916 Y-3.39314
G01 X5.79158 Y-3.39284
G01 X5.79385 Y-3.39195
G01 X5.79583 Y-3.39054
G01 X5.81576 Y-3.37061
G01 X5.81697 Y-3.36899
G01 X5.81768 Y-3.36753
G01 X5.81815 Y-3.36597
G01 X5.81835 Y-3.36436
G01 X5.81835 Y-3.33896
G01 X5.81815 Y-3.33735
G01 X5.81782 Y-3.33617
G01 X5.81675 Y-3.33399
G01 X5.81576 Y-3.33270
G01 X5.81423 Y-3.33136
G01 X5.81247 Y-3.33036
G01 X5.81053 Y-3.32974
G01 X5.80852 Y-3.32953
G01 X5.79646 Y-3.32953
G01 X5.79646 Y-3.27047
G01 X5.85157 Y-3.27047
G01 X5.85158 Y-3.28491
G01 X5.85178 Y-3.28652
G01 X5.85225 Y-3.28808
G01 X5.85296 Y-3.28954
G01 X5.85365 Y-3.29054
G01 X5.85446 Y-3.29146
G01 X5.85570 Y-3.29251
G01 X5.85709 Y-3.29334
G01 X5.85822 Y-3.29381
G01 X5.85980 Y-3.29421
G01 X5.86142 Y-3.29434
G01 X5.98783 Y-3.29427
G01 X5.98903 Y-3.29404
G01 X5.99057 Y-3.29351
G01 X5.99266 Y-3.29227
G01 X5.99357 Y-3.29146
G01 X5.99462 Y-3.29022
G01 X5.99527 Y-3.28918
G01 X5.99592 Y-3.28769
G01 X5.99632 Y-3.28612
G01 X5.99645 Y-3.28491
G01 X5.99645 Y-3.27047
G01 X6.05157 Y-3.27047
G01 X6.05157 Y-3.32953
G01 X5.99645 Y-3.32953
G01 X5.99645 Y-3.31509
G01 X5.99632 Y-3.31388
G01 X5.99592 Y-3.31230
G01 X5.99527 Y-3.31081
G01 X5.99462 Y-3.30978
G01 X5.99357 Y-3.30854
G01 X5.99266 Y-3.30773
G01 X5.99057 Y-3.30649
G01 X5.98903 Y-3.30596
G01 X5.98783 Y-3.30573
G01 X5.86142 Y-3.30566
G01 X5.85980 Y-3.30579
G01 X5.85861 Y-3.30607
G01 X5.85638 Y-3.30704
G01 X5.85446 Y-3.30854
G01 X5.85296 Y-3.31046
G01 X5.85198 Y-3.31269
G01 X5.85158 Y-3.31509
G01 X5.85157 Y-3.32953
G01 X5.83911 Y-3.32953
G01 X5.83671 Y-3.32994
G01 X5.83448 Y-3.33091
G01 X5.83285 Y-3.33213
G01 X5.83150 Y-3.33365
G01 X5.83050 Y-3.33542
G01 X5.82988 Y-3.33735
G01 X5.82968 Y-3.33896
G01 X5.82967 Y-3.36989
G01 X5.82952 Y-3.37146
G01 X5.82920 Y-3.37252
G01 X5.82868 Y-3.37349
G01 X5.82767 Y-3.37471
G01 X5.79993 Y-3.40246
G01 X5.79870 Y-3.40346
G01 X5.79773 Y-3.40398
G01 X5.79668 Y-3.40430
G01 X5.79510 Y-3.40446
G01 X5.32382 Y-3.40446
G01 X5.32225 Y-3.40430
G01 X5.32119 Y-3.40398
G01 X5.32022 Y-3.40346
G01 X5.31900 Y-3.40246
G01 X5.13851 Y-3.22196
G01 X5.13750 Y-3.22074
G01 X5.13698 Y-3.21977
G01 X5.13666 Y-3.21872
G01 X5.13651 Y-3.21714
G04 P0 ( dwell for no time -- G64 should not smooth over this point )
G00 Z0.08000 ( retract )

G00 X5.33469 Y-3.32874 ( rapid move to begin. )
G01 F180.00000
( Mill infeed pass 1/1 )
G01 Z-0.04000
G04 P0 ( dwell for no time -- G64 should not smooth over this point )
G01 F360.00000
G01 X5.33469 Y-3.32874
G01 X5.33503 Y-3.33219
G01 X5.33604 Y-3.33550
G01 X5.33767 Y-3.33856
G01 X5.33987 Y-3.34123
G01 X5.34255 Y-3.34343
G01 X5.34560 Y-3.34506
G01 X5.34891 Y-3.34607
G01 X5.35284 Y-3.34646
G01 X5.39519 Y-3.34646
G01 X5.39912 Y-3.34607
G01 X5.40243 Y-3.34506
G01 X5.40548 Y-3.34343
G01 X5.40816 Y-3.34123
G01 X5.41117 Y-3.33763
G01 X5.41310 Y-3.33608
G01 X5.41537 Y-3.33507
G01 X5.41781 Y-3.33466
G01 X5.64484 Y-3.33465
G01 X5.64630 Y-3.33452
G01 X5.64770 Y-3.33414
G01 X5.69417 Y-3.31718
G01 X5.69656 Y-3.31663
G01 X5.69778 Y-3.31659
G01 X5.69941 Y-3.31676
G01 X5.70174 Y-3.31752
G01 X5.70349 Y-3.31858
G01 X5.70680 Y-3.32150
G01 X5.70926 Y-3.32326
G01 X5.71189 Y-3.32473
G01 X5.71467 Y-3.32591
G01 X5.71756 Y-3.32678
G01 X5.72053 Y-3.32732
G01 X5.72354 Y-3.32754
G01 X5.72659 Y-3.32742
G01 X5.72910 Y-3.32707
G01 X5.73161 Y-3.32648
G01 X5.73405 Y-3.32566
G01 X5.73648 Y-3.32457
G01 X5.73871 Y-3.32330
G01 X5.74082 Y-3.32183
G01 X5.74285 Y-3.32010
G01 X5.74464 Y-3.31826
G01 X5.74626 Y-3.31625
G01 X5.74768 Y-3.31411
G01 X5.74893 Y-3.31176
G01 X5.74992 Y-3.30938
G01 X5.75068 Y-3.30692
G01 X5.75121 Y-3.30441
G01 X5.75151 Y-3.30176
G01 X5.75155 Y-3.29920
G01 X5.75134 Y-3.29647
G01 X5.75085 Y-3.29379
G01 X5.75011 Y-3.29117
G01 X5.74914 Y-3.28871
G01 X5.74790 Y-3.28628
G01 X5.74643 Y-3.28399
G01 X5.74473 Y-3.28185
G01 X5.74290 Y-3.27995
G01 X5.74082 Y-3.27817
G01 X5.73866 Y-3.27666
G01 X5.73627 Y-3.27533
G01 X5.73378 Y-3.27424
G01 X5.73118 Y-3.27340
G01 X5.72860 Y-3.27284
G01 X5.72589 Y-3.27252
G01 X5.72315 Y-3.27246
G01 X5.72067 Y-3.27265
G01 X5.71820 Y-3.27307
G01 X5.71578 Y-3.27371
G01 X5.71343 Y-3.27456
G01 X5.71116 Y-3.27563
G01 X5.70901 Y-3.27690
G01 X5.70697 Y-3.27836
G01 X5.70508 Y-3.27999
G01 X5.70334 Y-3.28179
G01 X5.70177 Y-3.28375
G01 X5.70039 Y-3.28583
G01 X5.69920 Y-3.28804
G01 X5.69822 Y-3.29034
G01 X5.69744 Y-3.29272
G01 X5.69689 Y-3.29516
G01 X5.69627 Y-3.29933
G01 X5.69554 Y-3.30126
G01 X5.69416 Y-3.30331
G01 X5.69298 Y-3.30445
G01 X5.69197 Y-3.30518
G01 X5.69012 Y-3.30608
G01 X5.64586 Y-3.32224
G01 X5.64378 Y-3.32275
G01 X5.41781 Y-3.32282
G01 X5.41537 Y-3.32241
G01 X5.41310 Y-3.32140
G01 X5.41117 Y-3.31985
G01 X5.40816 Y-3.31625
G01 X5.40548 Y-3.31405
G01 X5.40243 Y-3.31242
G01 X5.39912 Y-3.31141
G01 X5.39519 Y-3.31102
G01 X5.35284 Y-3.31102
G01 X5.34891 Y-3.31141
G01 X5.34560 Y-3.31242
G01 X5.34255 Y-3.31405
G01 X5.33987 Y-3.31625
G01 X5.33767 Y-3.31892
G01 X5.33604 Y-3.32198
G01 X5.33503 Y-3.32529
G01 X5.33469 Y-3.32874
G01 X5.39434 Y-3.32874
G04 P0 ( dwell for no time -- G64 should not smooth over this point )
G00 Z0.08000 ( retract )

G00 X5.39434 Y-3.25000 ( rapid move to begin. )
G01 F180.00000
( Mill infeed pass 1/1 )
G01 Z-0.04000
G04 P0 ( dwell for no time -- G64 should not smooth over this point )
G01 F360.00000
G01 X5.39434 Y-3.25000
G01 X5.35369 Y-3.25000
G04 P0 ( dwell for no time -- G64 should not smooth over this point )
G00 Z0.08000 ( retract )

G00 X5.39434 Y-3.17126 ( rapid move to begin. )
G01 F180.00000
( Mill infeed pass 1/1 )
G01 Z-0.04000
G04 P0 ( dwell for no time -- G64 should not smooth over this point )
G01 F360.00000
G01 X5.39434 Y-3.17126
G01 X5.33469 Y-3.17126
G01 X5.33503 Y-3.17471
G01 X5.33604 Y-3.17802
G01 X5.33767 Y-3.18108
G01 X5.33987 Y-3.18375
G01 X5.34255 Y-3.18595
G01 X5.34560 Y-3.18758
G01 X5.34891 Y-3.18859
G01 X5.35284 Y-3.18898
G01 X5.39519 Y-3.18898
G01 X5.39912 Y-3.18859
G01 X5.40243 Y-3.18758
G01 X5.40548 Y-3.18595
G01 X5.40816 Y-3.18375
G01 X5.41117 Y-3.18015
G01 X5.41310 Y-3.17860
G01 X5.41458 Y-3.17786
G01 X5.41577 Y-3.17748
G01 X5.41822 Y-3.17717
G01 X6.01634 Y-3.17717
G01 X6.01796 Y-3.17701
G01 X6.01906 Y-3.17667
G01 X6.02007 Y-3.17613
G01 X6.02134 Y-3.17509
G01 X6.23416 Y-2.96238
G01 X6.23659 Y-2.96099
G01 X6.23933 Y-2.96034
G01 X6.24174 Y-2.96042
G01 X6.24442 Y-2.96125
G01 X6.24614 Y-2.96229
G01 X6.24761 Y-2.96366
G01 X6.25064 Y-2.96798
G01 X6.25295 Y-2.97064
G01 X6.25556 Y-2.97300
G01 X6.25843 Y-2.97504
G01 X6.26153 Y-2.97672
G01 X6.26473 Y-2.97799
G01 X6.26813 Y-2.97890
G01 X6.27162 Y-2.97939
G01 X6.27515 Y-2.97947
G01 X6.27856 Y-2.97914
G01 X6.28201 Y-2.97838
G01 X6.28533 Y-2.97723
G01 X6.28850 Y-2.97569
G01 X6.29146 Y-2.97378
G01 X6.29417 Y-2.97153
G01 X6.29662 Y-2.96895
G01 X6.29844 Y-2.96653
G01 X6.30003 Y-2.96389
G01 X6.30130 Y-2.96119
G01 X6.30232 Y-2.95828
G01 X6.30303 Y-2.95529
G01 X6.30342 Y-2.95233
G01 X6.30350 Y-2.94925
G01 X6.30327 Y-2.94625
G01 X6.30252 Y-2.94243
G01 X6.30133 Y-2.93889
G01 X6.29966 Y-2.93545
G01 X6.29762 Y-2.93232
G01 X6.29512 Y-2.92941
G01 X6.29235 Y-2.92691
G01 X6.28921 Y-2.92473
G01 X6.28453 Y-2.92227
G01 X6.28290 Y-2.92100
G01 X6.28182 Y-2.91975
G01 X6.28096 Y-2.91833
G01 X6.28035 Y-2.91680
G01 X6.28000 Y-2.91518
G01 X6.27996 Y-2.86494
G01 X6.28033 Y-2.86294
G01 X6.28111 Y-2.86106
G01 X6.28225 Y-2.85939
G01 X6.28372 Y-2.85798
G01 X6.28508 Y-2.85709
G01 X6.28657 Y-2.85644
G01 X6.28814 Y-2.85604
G01 X6.28977 Y-2.85591
G01 X6.40583 Y-2.85592
G01 X6.40828 Y-2.85633
G01 X6.41054 Y-2.85734
G01 X6.41218 Y-2.85860
G01 X6.41458 Y-2.86123
G01 X6.41618 Y-2.86260
G01 X6.41786 Y-2.86370
G01 X6.41976 Y-2.86461
G01 X6.42167 Y-2.86523
G01 X6.42374 Y-2.86562
G01 X6.42575 Y-2.86573
G01 X6.42791 Y-2.86556
G01 X6.43112 Y-2.86473
G01 X6.43414 Y-2.86321
G01 X6.43671 Y-2.86113
G01 X6.43883 Y-2.85849
G01 X6.44034 Y-2.85547
G01 X6.44117 Y-2.85221
G01 X6.44128 Y-2.84883
G01 X6.44070 Y-2.84562
G01 X6.43977 Y-2.84322
G01 X6.43854 Y-2.84110
G01 X6.43700 Y-2.83919
G01 X6.43518 Y-2.83754
G01 X6.43312 Y-2.83620
G01 X6.43088 Y-2.83520
G01 X6.42851 Y-2.83455
G01 X6.42597 Y-2.83428
G01 X6.42422 Y-2.83433
G01 X6.42240 Y-2.83460
G01 X6.42062 Y-2.83507
G01 X6.41891 Y-2.83576
G01 X6.41728 Y-2.83664
G01 X6.41578 Y-2.83770
G01 X6.41441 Y-2.83894
G01 X6.41226 Y-2.84133
G01 X6.41070 Y-2.84256
G01 X6.40855 Y-2.84358
G01 X6.40622 Y-2.84406
G01 X6.27450 Y-2.84409
G01 X6.27287 Y-2.84425
G01 X6.27177 Y-2.84459
G01 X6.27076 Y-2.84513
G01 X6.26987 Y-2.84586
G01 X6.26914 Y-2.84674
G01 X6.26860 Y-2.84776
G01 X6.26827 Y-2.84886
G01 X6.26811 Y-2.85048
G01 X6.26810 Y-2.90795
G01 X6.26790 Y-2.90956
G01 X6.26743 Y-2.91112
G01 X6.26672 Y-2.91258
G01 X6.26603 Y-2.91358
G01 X6.01725 Y-3.16247
G01 X6.01533 Y-3.16396
G01 X6.01310 Y-3.16494
G01 X6.01191 Y-3.16522
G01 X6.01029 Y-3.16535
G01 X5.41822 Y-3.16535
G01 X5.41576 Y-3.16504
G01 X5.41420 Y-3.16449
G01 X5.41310 Y-3.16391
G01 X5.41117 Y-3.16237
G01 X5.40816 Y-3.15877
G01 X5.40548 Y-3.15657
G01 X5.40243 Y-3.15494
G01 X5.39912 Y-3.15393
G01 X5.39519 Y-3.15354
G01 X5.35284 Y-3.15354
G01 X5.34891 Y-3.15393
G01 X5.34560 Y-3.15494
G01 X5.34255 Y-3.15657
G01 X5.33987 Y-3.15877
G01 X5.33767 Y-3.16144
G01 X5.33604 Y-3.16450
G01 X5.33503 Y-3.16781
G01 X5.33469 Y-3.17126
G04 P0 ( dwell for no time -- G64 should not smooth over this point )
G00 Z0.08000 ( retract )

G00 X5.19452 Y-2.95037 ( rapid move to begin. )
G01 F180.00000
( Mill infeed pass 1/1 )
G01 Z-0.04000
G04 P0 ( dwell for no time -- G64 should not smooth over this point )
G01 F360.00000
G01 X5.19452 Y-2.95037
G01 X5.19470 Y-2.95322
G01 X5.19514 Y-2.95603
G01 X5.19586 Y-2.95879
G01 X5.19681 Y-2.96139
G01 X5.19799 Y-2.96389
G01 X5.19946 Y-2.96634
G01 X5.20115 Y-2.96863
G01 X5.20305 Y-2.97075
G01 X5.20515 Y-2.97268
G01 X5.20743 Y-2.97439
G01 X5.20986 Y-2.97587
G01 X5.21388 Y-2.97792
G01 X5.21547 Y-2.97920
G01 X5.21652 Y-2.98044
G01 X5.21735 Y-2.98184
G01 X5.21795 Y-2.98335
G01 X5.21828 Y-2.98495
G01 X5.21836 Y-3.17973
G01 X5.21851 Y-3.18131
G01 X5.21883 Y-3.18236
G01 X5.21935 Y-3.18333
G01 X5.22036 Y-3.18455
G01 X5.28946 Y-3.25366
G01 X5.29069 Y-3.25466
G01 X5.29166 Y-3.25518
G01 X5.29271 Y-3.25550
G01 X5.29429 Y-3.25566
G01 X5.32960 Y-3.25566
G01 X5.33166 Y-3.25587
G01 X5.33362 Y-3.25651
G01 X5.33574 Y-3.25780
G01 X5.33694 Y-3.25894
G01 X5.33987 Y-3.26249
G01 X5.34255 Y-3.26469
G01 X5.34560 Y-3.26632
G01 X5.34891 Y-3.26733
G01 X5.35284 Y-3.26772
G01 X5.39519 Y-3.26772
G01 X5.39912 Y-3.26733
G01 X5.40243 Y-3.26632
G01 X5.40548 Y-3.26469
G01 X5.40816 Y-3.26249
G01 X5.41036 Y-3.25982
G01 X5.41199 Y-3.25676
G01 X5.41300 Y-3.25345
G01 X5.41334 Y-3.25000
G01 X5.41300 Y-3.24655
G01 X5.41199 Y-3.24324
G01 X5.41036 Y-3.24018
G01 X5.40816 Y-3.23751
G01 X5.40548 Y-3.23531
G01 X5.40243 Y-3.23368
G01 X5.39912 Y-3.23267
G01 X5.39519 Y-3.23228
G01 X5.35284 Y-3.23228
G01 X5.34891 Y-3.23267
G01 X5.34560 Y-3.23368
G01 X5.34255 Y-3.23531
G01 X5.33987 Y-3.23751
G01 X5.33694 Y-3.24106
G01 X5.33574 Y-3.24220
G01 X5.33362 Y-3.24348
G01 X5.33166 Y-3.24412
G01 X5.32960 Y-3.24434
G01 X5.29982 Y-3.24433
G01 X5.29741 Y-3.24393
G01 X5.29554 Y-3.24316
G01 X5.29418 Y-3.24227
G01 X5.29326 Y-3.24146
G01 X5.23227 Y-3.18046
G01 X5.23128 Y-3.17917
G01 X5.23035 Y-3.17737
G01 X5.22988 Y-3.17581
G01 X5.22968 Y-3.17420
G01 X5.22971 Y-2.98536
G01 X5.22997 Y-2.98375
G01 X5.23050 Y-2.98221
G01 X5.23128 Y-2.98078
G01 X5.23228 Y-2.97950
G01 X5.23316 Y-2.97865
G01 X5.23448 Y-2.97771
G01 X5.23824 Y-2.97584
G01 X5.24067 Y-2.97435
G01 X5.24294 Y-2.97263
G01 X5.24503 Y-2.97070
G01 X5.24693 Y-2.96857
G01 X5.24861 Y-2.96628
G01 X5.25007 Y-2.96383
G01 X5.25128 Y-2.96125
G01 X5.25224 Y-2.95857
G01 X5.25293 Y-2.95581
G01 X5.25336 Y-2.95299
G01 X5.25351 Y-2.95015
G01 X5.25339 Y-2.94730
G01 X5.25299 Y-2.94448
G01 X5.25232 Y-2.94171
G01 X5.25101 Y-2.93782
G01 X5.25074 Y-2.93621
G01 X5.25072 Y-2.93499
G01 X5.25092 Y-2.93337
G01 X5.25171 Y-2.93107
G01 X5.25254 Y-2.92967
G01 X5.25359 Y-2.92842
G01 X5.32348 Y-2.85854
G01 X5.32472 Y-2.85749
G01 X5.32611 Y-2.85666
G01 X5.32802 Y-2.85596
G01 X5.33003 Y-2.85567
G01 X5.34842 Y-2.85566
G01 X5.35004 Y-2.85579
G01 X5.35123 Y-2.85607
G01 X5.35275 Y-2.85666
G01 X5.35414 Y-2.85749
G01 X5.35538 Y-2.85854
G01 X5.35643 Y-2.85978
G01 X5.35727 Y-2.86118
G01 X5.35786 Y-2.86269
G01 X5.35819 Y-2.86428
G01 X5.35827 Y-2.86575
G01 X5.38976 Y-2.86575
G01 X5.38976 Y-2.83425
G01 X5.35827 Y-2.83425
G01 X5.35819 Y-2.83572
G01 X5.35786 Y-2.83731
G01 X5.35727 Y-2.83882
G01 X5.35643 Y-2.84022
G01 X5.35538 Y-2.84146
G01 X5.35414 Y-2.84251
G01 X5.35275 Y-2.84334
G01 X5.35123 Y-2.84393
G01 X5.35004 Y-2.84421
G01 X5.34842 Y-2.84434
G01 X5.32450 Y-2.84434
G01 X5.32292 Y-2.84450
G01 X5.32187 Y-2.84482
G01 X5.32090 Y-2.84533
G01 X5.31967 Y-2.84634
G01 X5.24559 Y-2.92042
G01 X5.24435 Y-2.92148
G01 X5.24295 Y-2.92231
G01 X5.24182 Y-2.92277
G01 X5.24025 Y-2.92317
G01 X5.23863 Y-2.92331
G01 X5.23621 Y-2.92300
G01 X5.23223 Y-2.92167
G01 X5.22938 Y-2.92100
G01 X5.22649 Y-2.92061
G01 X5.22357 Y-2.92051
G01 X5.22065 Y-2.92070
G01 X5.21777 Y-2.92117
G01 X5.21494 Y-2.92193
G01 X5.21228 Y-2.92294
G01 X5.20966 Y-2.92423
G01 X5.20718 Y-2.92578
G01 X5.20486 Y-2.92757
G01 X5.20279 Y-2.92951
G01 X5.20087 Y-2.93172
G01 X5.19917 Y-2.93410
G01 X5.19772 Y-2.93664
G01 X5.19652 Y-2.93931
G01 X5.19562 Y-2.94201
G01 X5.19500 Y-2.94470
G01 X5.19462 Y-2.94753
G01 X5.19452 Y-2.95037
G01 X5.21225 Y-2.95015
G01 X5.21245 Y-2.94787
G01 X5.21305 Y-2.94575
G01 X5.21273 Y-2.94563
G01 X5.21305 Y-2.94575
G01 X5.21411 Y-2.94366
G01 X5.21556 Y-2.94182
G01 X5.21531 Y-2.94157
G01 X5.21556 Y-2.94182
G01 X5.21730 Y-2.94034
G01 X5.21935 Y-2.93920
G01 X5.21921 Y-2.93888
G01 X5.21935 Y-2.93920
G01 X5.22152 Y-2.93851
G01 X5.22384 Y-2.93824
G01 X5.22384 Y-2.93779
G01 X5.22384 Y-2.93824
G01 X5.22616 Y-2.93844
G01 X5.22729 Y-2.93871
G01 X5.23081 Y-2.93989
G01 X5.23348 Y-2.94054
G01 X5.23565 Y-2.93836
G01 X5.23348 Y-2.94054
G01 X5.23403 Y-2.94286
G01 X5.23557 Y-2.94780
G01 X5.23578 Y-2.95006
G01 X5.23620 Y-2.95005
G01 X5.23578 Y-2.95006
G01 X5.23555 Y-2.95232
G01 X5.23489 Y-2.95449
G01 X5.23513 Y-2.95458
G01 X5.23489 Y-2.95449
G01 X5.23382 Y-2.95649
G01 X5.23315 Y-2.95741
G01 X5.23330 Y-2.95752
G01 X5.23315 Y-2.95741
G01 X5.23156 Y-2.95902
G01 X5.23065 Y-2.95971
G01 X5.23073 Y-2.95981
G01 X5.23065 Y-2.95971
G01 X5.22672 Y-2.96177
G01 X5.22431 Y-2.96319
G01 X5.22436 Y-2.96540
G01 X5.22431 Y-2.96319
G01 X5.22402 Y-2.96339
G01 X5.22128 Y-2.96175
G01 X5.21833 Y-2.96039
G01 X5.21566 Y-2.95827
G01 X5.21547 Y-2.95845
G01 X5.21566 Y-2.95827
G01 X5.21422 Y-2.95652
G01 X5.21316 Y-2.95454
G01 X5.21286 Y-2.95467
G01 X5.21316 Y-2.95454
G01 X5.21250 Y-2.95240
G01 X5.21225 Y-2.95015
G04 P0 ( dwell for no time -- G64 should not smooth over this point )
G00 Z0.08000 ( retract )

G00 X5.19452 Y-2.54999 ( rapid move to begin. )
G01 F180.00000
( Mill infeed pass 1/1 )
G01 Z-0.04000
G04 P0 ( dwell for no time -- G64 should not smooth over this point )
G01 F360.00000
G01 X5.19452 Y-2.54999
G01 X5.19466 Y-2.54716
G01 X5.19507 Y-2.54433
G01 X5.19573 Y-2.54165
G01 X5.19667 Y-2.53895
G01 X5.19782 Y-2.53644
G01 X5.19925 Y-2.53397
G01 X5.20091 Y-2.53166
G01 X5.20279 Y-2.52952
G01 X5.20487 Y-2.52756
G01 X5.20705 Y-2.52587
G01 X5.20947 Y-2.52434
G01 X5.21193 Y-2.52309
G01 X5.21459 Y-2.52205
G01 X5.21733 Y-2.52127
G01 X5.22005 Y-2.52077
G01 X5.22294 Y-2.52052
G01 X5.22731 Y-2.52068
G01 X5.23166 Y-2.52151
G01 X5.23575 Y-2.52293
G01 X5.23966 Y-2.52499
G01 X5.24323 Y-2.52761
G01 X5.24635 Y-2.53073
G01 X5.24898 Y-2.53429
G01 X5.25160 Y-2.53925
G01 X5.25309 Y-2.54119
G01 X5.25433 Y-2.54224
G01 X5.25611 Y-2.54326
G01 X5.25765 Y-2.54379
G01 X5.25926 Y-2.54406
G01 X5.58795 Y-2.54409
G01 X5.58957 Y-2.54396
G01 X5.59114 Y-2.54356
G01 X5.59262 Y-2.54292
G01 X5.59398 Y-2.54204
G01 X5.59517 Y-2.54094
G01 X5.59638 Y-2.53933
G01 X5.59825 Y-2.53564
G01 X5.59975 Y-2.53322
G01 X5.60148 Y-2.53096
G01 X5.60342 Y-2.52888
G01 X5.60556 Y-2.52699
G01 X5.60786 Y-2.52532
G01 X5.61032 Y-2.52387
G01 X5.61283 Y-2.52271
G01 X5.61552 Y-2.52176
G01 X5.61828 Y-2.52107
G01 X5.62110 Y-2.52065
G01 X5.62386 Y-2.52050
G01 X5.62671 Y-2.52063
G01 X5.62953 Y-2.52102
G01 X5.63230 Y-2.52169
G01 X5.63620 Y-2.52300
G01 X5.63780 Y-2.52327
G01 X5.63902 Y-2.52330
G01 X5.64064 Y-2.52310
G01 X5.64220 Y-2.52264
G01 X5.64366 Y-2.52192
G01 X5.64499 Y-2.52098
G01 X5.76617 Y-2.39984
G01 X5.76740 Y-2.39883
G01 X5.76837 Y-2.39832
G01 X5.76942 Y-2.39800
G01 X5.77100 Y-2.39784
G01 X6.12703 Y-2.39784
G01 X6.12861 Y-2.39800
G01 X6.12966 Y-2.39832
G01 X6.13063 Y-2.39883
G01 X6.13186 Y-2.39984
G01 X6.25336 Y-2.52123
G01 X6.25472 Y-2.52212
G01 X6.25583 Y-2.52264
G01 X6.25739 Y-2.52310
G01 X6.25901 Y-2.52330
G01 X6.26023 Y-2.52327
G01 X6.26183 Y-2.52300
G01 X6.26573 Y-2.52169
G01 X6.26850 Y-2.52102
G01 X6.27132 Y-2.52063
G01 X6.27417 Y-2.52050
G01 X6.27693 Y-2.52065
G01 X6.27975 Y-2.52107
G01 X6.28251 Y-2.52176
G01 X6.28520 Y-2.52271
G01 X6.28771 Y-2.52387
G01 X6.29017 Y-2.52532
G01 X6.29247 Y-2.52699
G01 X6.29461 Y-2.52888
G01 X6.29655 Y-2.53096
G01 X6.29828 Y-2.53322
G01 X6.29978 Y-2.53564
G01 X6.30165 Y-2.53933
G01 X6.30259 Y-2.54064
G01 X6.30374 Y-2.54178
G01 X6.30506 Y-2.54272
G01 X6.30767 Y-2.54379
G01 X6.31008 Y-2.54409
G01 X6.63836 Y-2.54408
G01 X6.63998 Y-2.54388
G01 X6.64192 Y-2.54326
G01 X6.64336 Y-2.54248
G01 X6.64464 Y-2.54147
G01 X6.64622 Y-2.53960
G01 X6.64905 Y-2.53429
G01 X6.65168 Y-2.53073
G01 X6.65480 Y-2.52761
G01 X6.65837 Y-2.52499
G01 X6.66228 Y-2.52293
G01 X6.66637 Y-2.52151
G01 X6.67072 Y-2.52068
G01 X6.67509 Y-2.52052
G01 X6.67798 Y-2.52077
G01 X6.68070 Y-2.52127
G01 X6.68344 Y-2.52205
G01 X6.68610 Y-2.52309
G01 X6.68856 Y-2.52434
G01 X6.69098 Y-2.52587
G01 X6.69316 Y-2.52756
G01 X6.69524 Y-2.52952
G01 X6.69712 Y-2.53166
G01 X6.69878 Y-2.53397
G01 X6.70021 Y-2.53644
G01 X6.70136 Y-2.53895
G01 X6.70230 Y-2.54165
G01 X6.70296 Y-2.54433
G01 X6.70337 Y-2.54716
G01 X6.70351 Y-2.55001
G01 X6.70338 Y-2.55277
G01 X6.70299 Y-2.55552
G01 X6.70235 Y-2.55821
G01 X6.70145 Y-2.56084
G01 X6.70031 Y-2.56336
G01 X6.69894 Y-2.56577
G01 X6.69735 Y-2.56805
G01 X6.69555 Y-2.57016
G01 X6.69356 Y-2.57209
G01 X6.69140 Y-2.57383
G01 X6.68909 Y-2.57536
G01 X6.68664 Y-2.57666
G01 X6.68408 Y-2.57773
G01 X6.68143 Y-2.57855
G01 X6.67872 Y-2.57912
G01 X6.67592 Y-2.57944
G01 X6.67139 Y-2.57938
G01 X6.66696 Y-2.57864
G01 X6.66269 Y-2.57724
G01 X6.65868 Y-2.57520
G01 X6.65503 Y-2.57258
G01 X6.65182 Y-2.56944
G01 X6.64913 Y-2.56584
G01 X6.64621 Y-2.56039
G01 X6.64464 Y-2.55852
G01 X6.64335 Y-2.55752
G01 X6.64192 Y-2.55674
G01 X6.64038 Y-2.55621
G01 X6.63836 Y-2.55592
G01 X6.30967 Y-2.55592
G01 X6.30769 Y-2.55620
G01 X6.30617 Y-2.55671
G01 X6.30443 Y-2.55769
G01 X6.30319 Y-2.55871
G01 X6.30169 Y-2.56059
G01 X6.29948 Y-2.56487
G01 X6.29757 Y-2.56774
G01 X6.29534 Y-2.57037
G01 X6.29288 Y-2.57267
G01 X6.29017 Y-2.57467
G01 X6.28718 Y-2.57639
G01 X6.28400 Y-2.57775
G01 X6.28078 Y-2.57870
G01 X6.27737 Y-2.57930
G01 X6.27402 Y-2.57949
G01 X6.27066 Y-2.57930
G01 X6.26725 Y-2.57870
G01 X6.26403 Y-2.57775
G01 X6.26085 Y-2.57639
G01 X6.25786 Y-2.57467
G01 X6.25400 Y-2.57185
G01 X6.25220 Y-2.57097
G01 X6.25065 Y-2.57055
G01 X6.24906 Y-2.57037
G01 X6.24746 Y-2.57046
G01 X6.24589 Y-2.57081
G01 X6.24440 Y-2.57141
G01 X6.03851 Y-2.67435
G01 X6.03713 Y-2.67519
G01 X6.03563 Y-2.67654
G01 X6.03465 Y-2.67781
G01 X6.03389 Y-2.67923
G01 X6.03337 Y-2.68076
G01 X6.03308 Y-2.68275
G01 X6.03307 Y-2.80316
G01 X5.91496 Y-2.80316
G01 X5.91496 Y-2.68504
G01 X5.98840 Y-2.68504
G01 X5.99046 Y-2.68482
G01 X5.99204 Y-2.68434
G01 X6.23912 Y-2.56084
G01 X6.24143 Y-2.55924
G01 X6.24251 Y-2.55805
G01 X6.24339 Y-2.55670
G01 X6.24403 Y-2.55522
G01 X6.24448 Y-2.55326
G01 X6.24457 Y-2.54835
G01 X6.24492 Y-2.54514
G01 X6.24560 Y-2.54208
G01 X6.24703 Y-2.53776
G01 X6.24729 Y-2.53616
G01 X6.24729 Y-2.53454
G01 X6.24691 Y-2.53256
G01 X6.24632 Y-2.53105
G01 X6.24524 Y-2.52934
G01 X6.12805 Y-2.41204
G01 X6.12714 Y-2.41123
G01 X6.12578 Y-2.41034
G01 X6.12351 Y-2.40946
G01 X6.12109 Y-2.40916
G01 X5.77694 Y-2.40916
G01 X5.77532 Y-2.40929
G01 X5.77374 Y-2.40969
G01 X5.77155 Y-2.41076
G01 X5.76998 Y-2.41204
G01 X5.65304 Y-2.52902
G01 X5.65209 Y-2.53035
G01 X5.65138 Y-2.53181
G01 X5.65092 Y-2.53337
G01 X5.65071 Y-2.53539
G01 X5.65101 Y-2.53781
G01 X5.65234 Y-2.54179
G01 X5.65302 Y-2.54464
G01 X5.65340 Y-2.54745
G01 X5.65351 Y-2.55039
G01 X5.65335 Y-2.55307
G01 X5.65295 Y-2.55574
G01 X5.65231 Y-2.55835
G01 X5.65139 Y-2.56098
G01 X5.65028 Y-2.56343
G01 X5.64894 Y-2.56577
G01 X5.64739 Y-2.56799
G01 X5.64565 Y-2.57005
G01 X5.64373 Y-2.57194
G01 X5.64164 Y-2.57365
G01 X5.63941 Y-2.57516
G01 X5.63704 Y-2.57646
G01 X5.63457 Y-2.57754
G01 X5.63202 Y-2.57839
G01 X5.62930 Y-2.57902
G01 X5.62660 Y-2.57938
G01 X5.62431 Y-2.57950
G01 X5.61976 Y-2.57919
G01 X5.61522 Y-2.57816
G01 X5.61098 Y-2.57646
G01 X5.60901 Y-2.57540
G01 X5.60520 Y-2.57272
G01 X5.60192 Y-2.56955
G01 X5.59917 Y-2.56591
G01 X5.59643 Y-2.56074
G01 X5.59548 Y-2.55941
G01 X5.59464 Y-2.55852
G01 X5.59335 Y-2.55752
G01 X5.59192 Y-2.55674
G01 X5.59038 Y-2.55621
G01 X5.58836 Y-2.55592
G01 X5.26008 Y-2.55591
G01 X5.25804 Y-2.55612
G01 X5.25648 Y-2.55659
G01 X5.25501 Y-2.55731
G01 X5.25338 Y-2.55854
G01 X5.25181 Y-2.56041
G01 X5.24906 Y-2.56559
G01 X5.24655 Y-2.56904
G01 X5.24356 Y-2.57209
G01 X5.24018 Y-2.57468
G01 X5.23830 Y-2.57581
G01 X5.23443 Y-2.57760
G01 X5.23042 Y-2.57880
G01 X5.22611 Y-2.57943
G01 X5.22408 Y-2.57950
G01 X5.22109 Y-2.57935
G01 X5.21829 Y-2.57893
G01 X5.21544 Y-2.57822
G01 X5.21277 Y-2.57727
G01 X5.21011 Y-2.57601
G01 X5.20768 Y-2.57456
G01 X5.20533 Y-2.57282
G01 X5.20316 Y-2.57086
G01 X5.20120 Y-2.56869
G01 X5.19946 Y-2.56633
G01 X5.19800 Y-2.56390
G01 X5.19675 Y-2.56125
G01 X5.19579 Y-2.55858
G01 X5.19508 Y-2.55573
G01 X5.19466 Y-2.55293
G01 X5.19452 Y-2.54999
G01 X5.21225 Y-2.54998
G01 X5.21247 Y-2.54772
G01 X5.21312 Y-2.54558
G01 X5.21281 Y-2.54546
G01 X5.21312 Y-2.54558
G01 X5.21414 Y-2.54361
G01 X5.21555 Y-2.54183
G01 X5.21532 Y-2.54161
G01 X5.21555 Y-2.54183
G01 X5.21724 Y-2.54039
G01 X5.21918 Y-2.53928
G01 X5.21904 Y-2.53897
G01 X5.21918 Y-2.53928
G01 X5.22136 Y-2.53854
G01 X5.22371 Y-2.53823
G01 X5.22369 Y-2.53791
G01 X5.22371 Y-2.53823
G01 X5.22617 Y-2.53842
G01 X5.22789 Y-2.53888
G01 X5.22799 Y-2.53859
G01 X5.22789 Y-2.53888
G01 X5.23026 Y-2.54002
G01 X5.23168 Y-2.54106
G01 X5.23184 Y-2.54087
G01 X5.23168 Y-2.54106
G01 X5.23406 Y-2.54367
G01 X5.23581 Y-2.54731
G01 X5.23726 Y-2.54971
G01 X5.23954 Y-2.54966
G01 X5.23726 Y-2.54971
G01 X5.23746 Y-2.55000
G01 X5.23579 Y-2.55272
G01 X5.23401 Y-2.55622
G01 X5.23412 Y-2.55629
G01 X5.23401 Y-2.55622
G01 X5.23300 Y-2.55761
G01 X5.23182 Y-2.55882
G01 X5.23197 Y-2.55900
G01 X5.23182 Y-2.55882
G01 X5.22971 Y-2.56031
G01 X5.22816 Y-2.56102
G01 X5.22826 Y-2.56129
G01 X5.22816 Y-2.56102
G01 X5.22659 Y-2.56149
G01 X5.22421 Y-2.56177
G01 X5.22421 Y-2.56209
G01 X5.22421 Y-2.56177
G01 X5.22175 Y-2.56154
G01 X5.21954 Y-2.56088
G01 X5.21941 Y-2.56121
G01 X5.21954 Y-2.56088
G01 X5.21751 Y-2.55980
G01 X5.21570 Y-2.55831
G01 X5.21545 Y-2.55856
G01 X5.21570 Y-2.55831
G01 X5.21421 Y-2.55650
G01 X5.21314 Y-2.55447
G01 X5.21281 Y-2.55460
G01 X5.21314 Y-2.55447
G01 X5.21248 Y-2.55227
G01 X5.21225 Y-2.54998
G01 X5.61075 Y-2.55027
G01 X5.61221 Y-2.55266
G01 X5.61411 Y-2.55636
G01 X5.61402 Y-2.55642
G01 X5.61411 Y-2.55636
G01 X5.61520 Y-2.55780
G01 X5.61650 Y-2.55906
G01 X5.61636 Y-2.55923
G01 X5.61650 Y-2.55906
G01 X5.61804 Y-2.56014
G01 X5.61968 Y-2.56094
G01 X5.61958 Y-2.56120
G01 X5.61968 Y-2.56094
G01 X5.62233 Y-2.56165
G01 X5.62413 Y-2.56177
G01 X5.62414 Y-2.56217
G01 X5.62413 Y-2.56177
G01 X5.62722 Y-2.56132
G01 X5.62921 Y-2.56055
G01 X5.62937 Y-2.56089
G01 X5.62921 Y-2.56055
G01 X5.63105 Y-2.55943
G01 X5.63264 Y-2.55800
G01 X5.63286 Y-2.55820
G01 X5.63264 Y-2.55800
G01 X5.63396 Y-2.55629
G01 X5.63493 Y-2.55439
G01 X5.63521 Y-2.55450
G01 X5.63493 Y-2.55439
G01 X5.63556 Y-2.55229
G01 X5.63578 Y-2.55020
G01 X5.63620 Y-2.55019
G01 X5.63578 Y-2.55020
G01 X5.63573 Y-2.54897
G01 X5.63531 Y-2.54672
G01 X5.63413 Y-2.54321
G01 X5.63348 Y-2.54054
G01 X5.63566 Y-2.53837
G01 X5.63348 Y-2.54054
G01 X5.63116 Y-2.53999
G01 X5.62621 Y-2.53844
G01 X5.62394 Y-2.53824
G01 X5.62395 Y-2.53781
G01 X5.62394 Y-2.53824
G01 X5.62173 Y-2.53846
G01 X5.61954 Y-2.53912
G01 X5.61941 Y-2.53882
G01 X5.61954 Y-2.53912
G01 X5.61757 Y-2.54016
G01 X5.61580 Y-2.54158
G01 X5.61563 Y-2.54139
G01 X5.61580 Y-2.54158
G01 X5.61367 Y-2.54423
G01 X5.61228 Y-2.54720
G01 X5.61057 Y-2.55000
G01 X5.61075 Y-2.55027
G04 P0 ( dwell for no time -- G64 should not smooth over this point )
G00 Z0.08000 ( retract )

G00 X5.45676 Y-2.84886 ( rapid move to begin. )
G01 F180.00000
( Mill infeed pass 1/1 )
G01 Z-0.04000
G04 P0 ( dwell for no time -- G64 should not smooth over this point )
G01 F360.00000
G01 X5.45676 Y-2.84886
G01 X5.45678 Y-2.85138
G01 X5.45721 Y-2.85386
G01 X5.45802 Y-2.85624
G01 X5.45920 Y-2.85847
G01 X5.46078 Y-2.86055
G01 X5.46206 Y-2.86182
G01 X5.46356 Y-2.86298
G01 X5.46527 Y-2.86400
G01 X5.46700 Y-2.86476
G01 X5.46883 Y-2.86531
G01 X5.47071 Y-2.86563
G01 X5.47260 Y-2.86573
G01 X5.47556 Y-2.86552
G01 X5.47757 Y-2.86566
G01 X5.47987 Y-2.86636
G01 X5.48225 Y-2.86785
G01 X5.56810 Y-2.95366
G01 X5.56932 Y-2.95466
G01 X5.57029 Y-2.95518
G01 X5.57135 Y-2.95550
G01 X5.57292 Y-2.95566
G01 X5.58826 Y-2.95567
G01 X5.58990 Y-2.95587
G01 X5.59187 Y-2.95652
G01 X5.59399 Y-2.95781
G01 X5.59572 Y-2.95959
G01 X5.59660 Y-2.96099
G01 X5.59883 Y-2.96532
G01 X5.60125 Y-2.96874
G01 X5.60414 Y-2.97178
G01 X5.60743 Y-2.97438
G01 X5.61106 Y-2.97648
G01 X5.61495 Y-2.97805
G01 X5.61902 Y-2.97906
G01 X5.62336 Y-2.97949
G01 X5.62536 Y-2.97947
G01 X5.62976 Y-2.97894
G01 X5.63402 Y-2.97775
G01 X5.63797 Y-2.97599
G01 X5.64177 Y-2.97356
G01 X5.64503 Y-2.97070
G01 X5.64785 Y-2.96739
G01 X5.65018 Y-2.96363
G01 X5.65165 Y-2.96061
G01 X5.65314 Y-2.95866
G01 X5.65472 Y-2.95736
G01 X5.65616 Y-2.95657
G01 X5.65771 Y-2.95603
G01 X5.65933 Y-2.95576
G01 X5.96933 Y-2.95566
G01 X5.97091 Y-2.95550
G01 X5.97196 Y-2.95518
G01 X5.97293 Y-2.95466
G01 X5.97416 Y-2.95366
G01 X6.13036 Y-2.79745
G01 X6.13128 Y-2.79664
G01 X6.13264 Y-2.79575
G01 X6.13413 Y-2.79510
G01 X6.13570 Y-2.79470
G01 X6.13732 Y-2.79457
G01 X6.61728 Y-2.79457
G01 X6.61930 Y-2.79478
G01 X6.62124 Y-2.79540
G01 X6.62267 Y-2.79617
G01 X6.62424 Y-2.79745
G01 X6.74032 Y-2.91353
G01 X6.74160 Y-2.91511
G01 X6.74221 Y-2.91617
G01 X6.74280 Y-2.91768
G01 X6.74307 Y-2.91887
G01 X6.74321 Y-2.92049
G01 X6.74321 Y-2.97951
G01 X6.74300 Y-2.98153
G01 X6.74238 Y-2.98346
G01 X6.74160 Y-2.98489
G01 X6.74032 Y-2.98647
G01 X6.56407 Y-3.16272
G01 X6.56283 Y-3.16377
G01 X6.56180 Y-3.16441
G01 X6.56031 Y-3.16507
G01 X6.55913 Y-3.16539
G01 X6.55752 Y-3.16559
G01 X6.51760 Y-3.16557
G01 X6.51518 Y-3.16505
G01 X6.51403 Y-3.16457
G01 X6.51262 Y-3.16371
G01 X6.51109 Y-3.16232
G01 X6.50816 Y-3.15877
G01 X6.50548 Y-3.15657
G01 X6.50243 Y-3.15494
G01 X6.49912 Y-3.15393
G01 X6.49519 Y-3.15354
G01 X6.45284 Y-3.15354
G01 X6.44891 Y-3.15393
G01 X6.44560 Y-3.15494
G01 X6.44255 Y-3.15657
G01 X6.43987 Y-3.15877
G01 X6.43767 Y-3.16144
G01 X6.43604 Y-3.16450
G01 X6.43503 Y-3.16781
G01 X6.43469 Y-3.17126
G01 X6.43503 Y-3.17471
G01 X6.43604 Y-3.17802
G01 X6.43767 Y-3.18108
G01 X6.43987 Y-3.18375
G01 X6.44255 Y-3.18595
G01 X6.44560 Y-3.18758
G01 X6.44891 Y-3.18859
G01 X6.45284 Y-3.18898
G01 X6.49519 Y-3.18898
G01 X6.49912 Y-3.18859
G01 X6.50243 Y-3.18758
G01 X6.50548 Y-3.18595
G01 X6.50816 Y-3.18375
G01 X6.51109 Y-3.18020
G01 X6.51229 Y-3.17906
G01 X6.51441 Y-3.17777
G01 X6.51678 Y-3.17706
G01 X6.51843 Y-3.17692
G01 X6.56305 Y-3.17692
G01 X6.56463 Y-3.17676
G01 X6.56568 Y-3.17644
G01 X6.56665 Y-3.17592
G01 X6.56788 Y-3.17492
G01 X6.75252 Y-2.99027
G01 X6.75353 Y-2.98904
G01 X6.75405 Y-2.98807
G01 X6.75437 Y-2.98702
G01 X6.75452 Y-2.98544
G01 X6.75452 Y-2.91455
G01 X6.75437 Y-2.91298
G01 X6.75405 Y-2.91192
G01 X6.75353 Y-2.91095
G01 X6.75252 Y-2.90973
G01 X6.62804 Y-2.78525
G01 X6.62682 Y-2.78424
G01 X6.62585 Y-2.78373
G01 X6.62480 Y-2.78341
G01 X6.62322 Y-2.78325
G01 X6.13139 Y-2.78325
G01 X6.12981 Y-2.78341
G01 X6.12876 Y-2.78373
G01 X6.12779 Y-2.78424
G01 X6.12656 Y-2.78525
G01 X5.97035 Y-2.94146
G01 X5.96878 Y-2.94274
G01 X5.96735 Y-2.94351
G01 X5.96541 Y-2.94413
G01 X5.96380 Y-2.94433
G01 X5.65936 Y-2.94431
G01 X5.65774 Y-2.94403
G01 X5.65581 Y-2.94332
G01 X5.65441 Y-2.94247
G01 X5.65316 Y-2.94139
G01 X5.65167 Y-2.93943
G01 X5.64914 Y-2.93453
G01 X5.64664 Y-2.93107
G01 X5.64368 Y-2.92801
G01 X5.64023 Y-2.92535
G01 X5.63651 Y-2.92327
G01 X5.63244 Y-2.92173
G01 X5.62827 Y-2.92081
G01 X5.62413 Y-2.92050
G01 X5.62051 Y-2.92072
G01 X5.61696 Y-2.92137
G01 X5.61353 Y-2.92244
G01 X5.61017 Y-2.92396
G01 X5.60812 Y-2.92515
G01 X5.60603 Y-2.92662
G01 X5.60407 Y-2.92826
G01 X5.60233 Y-2.93001
G01 X5.60073 Y-2.93189
G01 X5.59925 Y-2.93398
G01 X5.59800 Y-2.93610
G01 X5.59633 Y-2.93948
G01 X5.59539 Y-2.94082
G01 X5.59392 Y-2.94224
G01 X5.59219 Y-2.94333
G01 X5.59028 Y-2.94404
G01 X5.58826 Y-2.94433
G01 X5.57886 Y-2.94434
G01 X5.57684 Y-2.94413
G01 X5.57528 Y-2.94367
G01 X5.57418 Y-2.94316
G01 X5.57281 Y-2.94227
G01 X5.57190 Y-2.94146
G01 X5.49056 Y-2.86011
G01 X5.48916 Y-2.85816
G01 X5.48818 Y-2.85554
G01 X5.48796 Y-2.85356
G01 X5.48817 Y-2.85007
G01 X5.48804 Y-2.84797
G01 X5.48765 Y-2.84599
G01 X5.48698 Y-2.84400
G01 X5.48609 Y-2.84219
G01 X5.48493 Y-2.84044
G01 X5.48355 Y-2.83887
G01 X5.48192 Y-2.83745
G01 X5.47920 Y-2.83579
G01 X5.47774 Y-2.83519
G01 X5.47451 Y-2.83440
G01 X5.47127 Y-2.83431
G01 X5.46961 Y-2.83452
G01 X5.46650 Y-2.83543
G01 X5.46356 Y-2.83701
G01 X5.46108 Y-2.83911
G01 X5.46000 Y-2.84037
G01 X5.45913 Y-2.84162
G01 X5.45792 Y-2.84398
G01 X5.45715 Y-2.84638
G01 X5.45676 Y-2.84886
G04 P0 ( dwell for no time -- G64 should not smooth over this point )
G00 Z0.08000 ( retract )

G00 X5.63741 Y-2.95001 ( rapid move to begin. )
G01 F180.00000
( Mill infeed pass 1/1 )
G01 Z-0.04000
G04 P0 ( dwell for no time -- G64 should not smooth over this point )
G01 F360.00000
G01 X5.63741 Y-2.95001
G01 X5.63581 Y-2.95266
G01 X5.63408 Y-2.95629
G01 X5.63177 Y-2.95886
G01 X5.63193 Y-2.95905
G01 X5.63177 Y-2.95886
G01 X5.63036 Y-2.95992
G01 X5.62802 Y-2.96107
G01 X5.62812 Y-2.96134
G01 X5.62802 Y-2.96107
G01 X5.62632 Y-2.96155
G01 X5.62416 Y-2.96177
G01 X5.62416 Y-2.96202
G01 X5.62416 Y-2.96177
G01 X5.62203 Y-2.96155
G01 X5.62041 Y-2.96116
G01 X5.62031 Y-2.96144
G01 X5.62041 Y-2.96116
G01 X5.61886 Y-2.96053
G01 X5.61742 Y-2.95969
G01 X5.61611 Y-2.95866
G01 X5.61593 Y-2.95888
G01 X5.61611 Y-2.95866
G01 X5.61393 Y-2.95613
G01 X5.61216 Y-2.95252
G01 X5.61071 Y-2.95011
G01 X5.60830 Y-2.95013
G01 X5.61071 Y-2.95011
G01 X5.61063 Y-2.95000
G01 X5.61214 Y-2.94750
G01 X5.61413 Y-2.94362
G01 X5.61404 Y-2.94356
G01 X5.61413 Y-2.94362
G01 X5.61605 Y-2.94134
G01 X5.61590 Y-2.94116
G01 X5.61605 Y-2.94134
G01 X5.61769 Y-2.94008
G01 X5.61984 Y-2.93902
G01 X5.61973 Y-2.93873
G01 X5.61984 Y-2.93902
G01 X5.62263 Y-2.93834
G01 X5.62435 Y-2.93824
G01 X5.62435 Y-2.93793
G01 X5.62435 Y-2.93824
G01 X5.62659 Y-2.93851
G01 X5.62820 Y-2.93899
G01 X5.62830 Y-2.93873
G01 X5.62820 Y-2.93899
G01 X5.63047 Y-2.94015
G01 X5.63186 Y-2.94122
G01 X5.63202 Y-2.94104
G01 X5.63186 Y-2.94122
G01 X5.63411 Y-2.94376
G01 X5.63580 Y-2.94734
G01 X5.63741 Y-2.95001
G01 X5.63988 Y-2.95002
G04 P0 ( dwell for no time -- G64 should not smooth over this point )
G00 Z0.08000 ( retract )

G00 X5.71052 Y-3.30507 ( rapid move to begin. )
G01 F180.00000
( Mill infeed pass 1/1 )
G01 Z-0.04000
G04 P0 ( dwell for no time -- G64 should not smooth over this point )
G01 F360.00000
G01 X5.71052 Y-3.30507
G01 X5.71342 Y-3.30390
G01 X5.71455 Y-3.29741
G01 X5.71443 Y-3.29737
G01 X5.71455 Y-3.29741
G01 X5.71560 Y-3.29495
G01 X5.71540 Y-3.29483
G01 X5.71560 Y-3.29495
G01 X5.71665 Y-3.29351
G01 X5.71794 Y-3.29229
G01 X5.71776 Y-3.29205
G01 X5.71794 Y-3.29229
G01 X5.71944 Y-3.29132
G01 X5.72108 Y-3.29063
G01 X5.72099 Y-3.29034
G01 X5.72108 Y-3.29063
G01 X5.72282 Y-3.29026
G01 X5.72468 Y-3.29021
G01 X5.72471 Y-3.28989
G01 X5.72468 Y-3.29021
G01 X5.72655 Y-3.29052
G01 X5.72838 Y-3.29121
G01 X5.72853 Y-3.29091
G01 X5.72838 Y-3.29121
G01 X5.72999 Y-3.29222
G01 X5.73138 Y-3.29352
G01 X5.73164 Y-3.29329
G01 X5.73138 Y-3.29352
G01 X5.73252 Y-3.29511
G01 X5.73330 Y-3.29684
G01 X5.73363 Y-3.29673
G01 X5.73330 Y-3.29684
G01 X5.73375 Y-3.29874
G01 X5.73381 Y-3.30061
G01 X5.73414 Y-3.30063
G01 X5.73381 Y-3.30061
G01 X5.73352 Y-3.30247
G01 X5.73290 Y-3.30417
G01 X5.73319 Y-3.30431
G01 X5.73290 Y-3.30417
G01 X5.73194 Y-3.30579
G01 X5.73074 Y-3.30715
G01 X5.73096 Y-3.30739
G01 X5.73074 Y-3.30715
G01 X5.72925 Y-3.30830
G01 X5.72757 Y-3.30915
G01 X5.72770 Y-3.30946
G01 X5.72757 Y-3.30915
G01 X5.72583 Y-3.30965
G01 X5.72384 Y-3.30980
G01 X5.72384 Y-3.31009
G01 X5.72384 Y-3.30980
G01 X5.72172 Y-3.30953
G01 X5.72069 Y-3.30922
G01 X5.72051 Y-3.30964
G01 X5.72069 Y-3.30922
G01 X5.71970 Y-3.30880
G01 X5.71790 Y-3.30766
G01 X5.71342 Y-3.30390
G04 P0 ( dwell for no time -- G64 should not smooth over this point )
G00 Z0.08000 ( retract )

G00 X5.80883 Y-3.28292 ( rapid move to begin. )
G01 F180.00000
( Mill infeed pass 1/1 )
G01 Z-0.04000
G04 P0 ( dwell for no time -- G64 should not smooth over this point )
G01 F360.00000
G01 X5.80883 Y-3.28292
G01 X5.81417 Y-3.28819
G01 X5.81417 Y-3.31240
G01 X5.81448 Y-3.31247
G01 X5.81119 Y-3.31489
G01 X5.81448 Y-3.31247
G01 X5.81718 Y-3.31321
G01 X5.82088 Y-3.31474
G01 X5.82401 Y-3.31659
G01 X5.82401 Y-3.31904
G01 X5.82401 Y-3.31659
G01 X5.82644 Y-3.31511
G01 X5.82934 Y-3.31376
G01 X5.83161 Y-3.31297
G01 X5.83404 Y-3.31236
G01 X5.83602 Y-3.31422
G01 X5.83404 Y-3.31236
G01 X5.83451 Y-3.30953
G01 X5.83539 Y-3.30645
G01 X5.83679 Y-3.30313
G01 X5.83863 Y-3.30000
G01 X5.84086 Y-3.29999
G01 X5.83863 Y-3.30000
G01 X5.83735 Y-3.29793
G01 X5.83628 Y-3.29578
G01 X5.83539 Y-3.29355
G01 X5.83470 Y-3.29124
G01 X5.83411 Y-3.28819
G01 X5.83701 Y-3.28445
G01 X5.83411 Y-3.28819
G01 X5.81417 Y-3.28819
G04 P0 ( dwell for no time -- G64 should not smooth over this point )
G00 Z0.08000 ( retract )

G00 X6.03386 Y-3.31181 ( rapid move to begin. )
G01 F180.00000
( Mill infeed pass 1/1 )
G01 Z-0.04000
G04 P0 ( dwell for no time -- G64 should not smooth over this point )
G01 F360.00000
G01 X6.03386 Y-3.31181
G01 X6.01392 Y-3.31181
G01 X6.01102 Y-3.31554
G01 X6.01392 Y-3.31181
G01 X6.01333 Y-3.30876
G01 X6.01264 Y-3.30645
G01 X6.01175 Y-3.30422
G01 X6.01068 Y-3.30207
G01 X6.00941 Y-3.30002
G01 X6.00717 Y-3.30003
G01 X6.00941 Y-3.30002
G01 X6.01175 Y-3.29578
G01 X6.01264 Y-3.29355
G01 X6.01333 Y-3.29124
G01 X6.01392 Y-3.28819
G01 X6.01102 Y-3.28445
G01 X6.01392 Y-3.28819
G01 X6.03386 Y-3.28819
G01 X6.03905 Y-3.28300
G01 X6.03386 Y-3.28819
G01 X6.03386 Y-3.31181
G01 X6.03905 Y-3.31700
G04 P0 ( dwell for no time -- G64 should not smooth over this point )
G00 Z0.08000 ( retract )

G00 X6.09648 Y-3.29928 ( rapid move to begin. )
G01 F180.00000
( Mill infeed pass 1/1 )
G01 Z-0.04000
G04 P0 ( dwell for no time -- G64 should not smooth over this point )
G01 F360.00000
G01 X6.09648 Y-3.29928
G01 X6.09668 Y-3.29662
G01 X6.09714 Y-3.29394
G01 X6.09787 Y-3.29131
G01 X6.09883 Y-3.28884
G01 X6.10002 Y-3.28648
G01 X6.10148 Y-3.28416
G01 X6.10309 Y-3.28208
G01 X6.10497 Y-3.28010
G01 X6.10703 Y-3.27831
G01 X6.10926 Y-3.27674
G01 X6.11155 Y-3.27543
G01 X6.11405 Y-3.27432
G01 X6.11655 Y-3.27348
G01 X6.11922 Y-3.27287
G01 X6.12192 Y-3.27253
G01 X6.12459 Y-3.27246
G01 X6.12787 Y-3.27273
G01 X6.13104 Y-3.27337
G01 X6.13411 Y-3.27438
G01 X6.13713 Y-3.27578
G01 X6.13987 Y-3.27748
G01 X6.14247 Y-3.27955
G01 X6.14473 Y-3.28185
G01 X6.14677 Y-3.28448
G01 X6.14843 Y-3.28725
G01 X6.14976 Y-3.29020
G01 X6.15073 Y-3.29329
G01 X6.15133 Y-3.29648
G01 X6.15155 Y-3.29963
G01 X6.15141 Y-3.30281
G01 X6.15098 Y-3.30562
G01 X6.14958 Y-3.31052
G01 X6.14932 Y-3.31211
G01 X6.14938 Y-3.31413
G01 X6.14972 Y-3.31570
G01 X6.15014 Y-3.31683
G01 X6.15091 Y-3.31825
G01 X6.15190 Y-3.31952
G01 X6.15292 Y-3.32050
G01 X6.15496 Y-3.32183
G01 X6.15608 Y-3.32230
G01 X6.15766 Y-3.32270
G01 X6.15928 Y-3.32283
G01 X6.43022 Y-3.32282
G01 X6.43266 Y-3.32241
G01 X6.43493 Y-3.32140
G01 X6.43686 Y-3.31985
G01 X6.43987 Y-3.31625
G01 X6.44255 Y-3.31405
G01 X6.44560 Y-3.31242
G01 X6.44891 Y-3.31141
G01 X6.45284 Y-3.31102
G01 X6.49519 Y-3.31102
G01 X6.49912 Y-3.31141
G01 X6.50243 Y-3.31242
G01 X6.50548 Y-3.31405
G01 X6.50816 Y-3.31625
G01 X6.51036 Y-3.31892
G01 X6.51199 Y-3.32198
G01 X6.51300 Y-3.32529
G01 X6.51334 Y-3.32874
G01 X6.51300 Y-3.33219
G01 X6.51199 Y-3.33550
G01 X6.51036 Y-3.33856
G01 X6.50816 Y-3.34123
G01 X6.50548 Y-3.34343
G01 X6.50243 Y-3.34506
G01 X6.49912 Y-3.34607
G01 X6.49519 Y-3.34646
G01 X6.45284 Y-3.34646
G01 X6.44891 Y-3.34607
G01 X6.44560 Y-3.34506
G01 X6.44255 Y-3.34343
G01 X6.43987 Y-3.34123
G01 X6.43686 Y-3.33763
G01 X6.43493 Y-3.33608
G01 X6.43266 Y-3.33507
G01 X6.43022 Y-3.33466
G01 X6.15324 Y-3.33465
G01 X6.15161 Y-3.33449
G01 X6.15051 Y-3.33415
G01 X6.14950 Y-3.33361
G01 X6.14824 Y-3.33257
G01 X6.14291 Y-3.32736
G01 X6.14155 Y-3.32647
G01 X6.13967 Y-3.32569
G01 X6.13768 Y-3.32531
G01 X6.13605 Y-3.32531
G01 X6.13445 Y-3.32558
G01 X6.13025 Y-3.32682
G01 X6.12700 Y-3.32738
G01 X6.12360 Y-3.32754
G01 X6.12031 Y-3.32729
G01 X6.11706 Y-3.32665
G01 X6.11384 Y-3.32559
G01 X6.11077 Y-3.32415
G01 X6.10798 Y-3.32239
G01 X6.10541 Y-3.32031
G01 X6.10305 Y-3.31786
G01 X6.10106 Y-3.31522
G01 X6.09937 Y-3.31228
G01 X6.09807 Y-3.30925
G01 X6.09713 Y-3.30599
G01 X6.09660 Y-3.30264
G01 X6.09648 Y-3.29928
G01 X6.11422 Y-3.29962
G01 X6.11444 Y-3.29784
G01 X6.11504 Y-3.29602
G01 X6.11474 Y-3.29589
G01 X6.11504 Y-3.29602
G01 X6.11600 Y-3.29434
G01 X6.11723 Y-3.29291
G01 X6.11699 Y-3.29266
G01 X6.11723 Y-3.29291
G01 X6.11877 Y-3.29170
G01 X6.12048 Y-3.29085
G01 X6.12036 Y-3.29053
G01 X6.12048 Y-3.29085
G01 X6.12231 Y-3.29034
G01 X6.12411 Y-3.29019
G01 X6.12411 Y-3.28988
G01 X6.12411 Y-3.29019
G01 X6.12539 Y-3.29030
G01 X6.12759 Y-3.29088
G01 X6.12775 Y-3.29052
G01 X6.12759 Y-3.29088
G01 X6.12964 Y-3.29198
G01 X6.13137 Y-3.29353
G01 X6.13166 Y-3.29326
G01 X6.13137 Y-3.29353
G01 X6.13212 Y-3.29449
G01 X6.13317 Y-3.29651
G01 X6.13343 Y-3.29642
G01 X6.13317 Y-3.29651
G01 X6.13352 Y-3.29761
G01 X6.13381 Y-3.29987
G01 X6.13419 Y-3.29987
G01 X6.13381 Y-3.29987
G01 X6.13365 Y-3.30179
G01 X6.13202 Y-3.30798
G01 X6.13434 Y-3.31031
G01 X6.13202 Y-3.30798
G01 X6.12622 Y-3.30954
G01 X6.12385 Y-3.30979
G01 X6.12386 Y-3.31018
G01 X6.12385 Y-3.30979
G01 X6.12156 Y-3.30948
G01 X6.12040 Y-3.30910
G01 X6.12029 Y-3.30937
G01 X6.12040 Y-3.30910
G01 X6.11929 Y-3.30858
G01 X6.11741 Y-3.30723
G01 X6.11713 Y-3.30752
G01 X6.11741 Y-3.30723
G01 X6.11586 Y-3.30543
G01 X6.11480 Y-3.30330
G01 X6.11440 Y-3.30346
G01 X6.11480 Y-3.30330
G01 X6.11426 Y-3.30092
G01 X6.11422 Y-3.29962
G04 P0 ( dwell for no time -- G64 should not smooth over this point )
G00 Z0.08000 ( retract )

G00 X6.45369 Y-3.32874 ( rapid move to begin. )
G01 F180.00000
( Mill infeed pass 1/1 )
G01 Z-0.04000
G04 P0 ( dwell for no time -- G64 should not smooth over this point )
G01 F360.00000
G01 X6.45369 Y-3.32874
G01 X6.49434 Y-3.32874
G04 P0 ( dwell for no time -- G64 should not smooth over this point )
G00 Z0.08000 ( retract )

G00 X6.49434 Y-3.25000 ( rapid move to begin. )
G01 F180.00000
( Mill infeed pass 1/1 )
G01 Z-0.04000
G04 P0 ( dwell for no time -- G64 should not smooth over this point )
G01 F360.00000
G01 X6.49434 Y-3.25000
G01 X6.45372 Y-3.25000
G01 X6.38364 Y-3.24501
G01 X6.38364 Y-3.04179
G01 X6.38380 Y-3.04021
G01 X6.38412 Y-3.03916
G01 X6.38464 Y-3.03819
G01 X6.38564 Y-3.03696
G01 X6.51547 Y-2.90713
G01 X6.51697 Y-2.90521
G01 X6.51795 Y-2.90298
G01 X6.51835 Y-2.90058
G01 X6.51828 Y-2.87437
G01 X6.51782 Y-2.87239
G01 X6.51717 Y-2.87091
G01 X6.51628 Y-2.86955
G01 X6.51488 Y-2.86808
G01 X6.51355 Y-2.86714
G01 X6.51171 Y-2.86628
G01 X6.51014 Y-2.86588
G01 X6.50827 Y-2.86575
G01 X6.50827 Y-2.83425
G01 X6.53976 Y-2.83425
G01 X6.53984 Y-2.83572
G01 X6.54017 Y-2.83731
G01 X6.54076 Y-2.83882
G01 X6.54160 Y-2.84022
G01 X6.54265 Y-2.84146
G01 X6.54389 Y-2.84251
G01 X6.54528 Y-2.84334
G01 X6.54680 Y-2.84393
G01 X6.54799 Y-2.84421
G01 X6.54961 Y-2.84434
G01 X6.57353 Y-2.84434
G01 X6.57511 Y-2.84450
