( pcb2gcode 2.2.2 )
( Software-independent Gcode )

G94 ( Inches per minute feed rate. )
G20 ( Units == INCHES. )

G90 ( Absolute coordinates. )
G00 S12000 ( RPM spindle speed. )
G64 P0.00040 ( set maximum deviation from commanded toolpath )
G01 F360.00000 ( Feedrate. )


G00 Z1.00000 (Retract to tool change height)
T0
M5      (Spindle stop.)
G04 P1.00000 (Wait for spindle to stop)
(MSG, Change tool bit to mill diameter 0.01969in)
M6      (Tool change.)
M0      (Temporary machine stop.)
M3 ( Spindle on clockwise. )
G04 P1.00000 (Wait for spindle to get up to speed)
( Piece #1, position [0;0] )

G04 P0 ( dwell for no time -- G64 should not smooth over this point )
G00 Z0.08000 ( retract )

G00 X3.22055 Y-2.55000 ( rapid move to begin. )
G01 F180.00000
( Mill infeed pass 1/1 )
G01 Z-0.04000
G04 P0 ( dwell for no time -- G64 should not smooth over this point )
G01 F360.00000
G01 X3.22055 Y-2.55000
G01 X3.22119 Y-2.55612
G01 X3.22309 Y-2.56198
G01 X3.22617 Y-2.56731
G01 X3.23029 Y-2.57189
G01 X3.23527 Y-2.57551
G01 X3.24090 Y-2.57801
G01 X3.24692 Y-2.57929
G01 X3.25308 Y-2.57929
G01 X3.25910 Y-2.57801
G01 X3.26473 Y-2.57551
G01 X3.26971 Y-2.57189
G01 X3.27381 Y-2.56734
G01 X3.27747 Y-2.56088
G01 X3.27868 Y-2.55920
G01 X3.28021 Y-2.55781
G01 X3.28200 Y-2.55677
G01 X3.28397 Y-2.55613
G01 X3.28603 Y-2.55591
G01 X3.61397 Y-2.55591
G01 X3.61603 Y-2.55613
G01 X3.61800 Y-2.55677
G01 X3.61978 Y-2.55781
G01 X3.62132 Y-2.55920
G01 X3.62252 Y-2.56088
G01 X3.62619 Y-2.56734
G01 X3.63029 Y-2.57189
G01 X3.63527 Y-2.57551
G01 X3.64090 Y-2.57801
G01 X3.64692 Y-2.57929
G01 X3.65308 Y-2.57929
G01 X3.65910 Y-2.57801
G01 X3.66473 Y-2.57551
G01 X3.66971 Y-2.57189
G01 X3.67383 Y-2.56731
G01 X3.67691 Y-2.56198
G01 X3.67881 Y-2.55612
G01 X3.67945 Y-2.55000
G01 X3.67881 Y-2.54388
G01 X3.67707 Y-2.53853
G01 X3.67667 Y-2.53677
G01 X3.67660 Y-2.53497
G01 X3.67686 Y-2.53319
G01 X3.67744 Y-2.53148
G01 X3.67832 Y-2.52991
G01 X3.67947 Y-2.52853
G01 X3.79596 Y-2.41204
G01 X3.79745 Y-2.41081
G01 X3.79915 Y-2.40991
G01 X3.80100 Y-2.40935
G01 X3.80292 Y-2.40916
G01 X4.14708 Y-2.40916
G01 X4.14900 Y-2.40935
G01 X4.15085 Y-2.40991
G01 X4.15255 Y-2.41081
G01 X4.15404 Y-2.41204
G01 X4.27053 Y-2.52853
G01 X4.27168 Y-2.52991
G01 X4.27256 Y-2.53148
G01 X4.27314 Y-2.53319
G01 X4.27340 Y-2.53497
G01 X4.27332 Y-2.53677
G01 X4.27293 Y-2.53853
G01 X4.27119 Y-2.54388
G01 X4.27055 Y-2.55000
G01 X4.27065 Y-2.55292
G01 X4.27026 Y-2.55486
G01 X4.26949 Y-2.55669
G01 X4.26836 Y-2.55833
G01 X4.26693 Y-2.55970
G01 X4.26526 Y-2.56077
G01 X4.01878 Y-2.68400
G01 X4.01664 Y-2.68478
G01 X4.01438 Y-2.68504
G01 X3.94094 Y-2.68504
G01 X3.94094 Y-2.80316
G01 X4.05906 Y-2.80316
G01 X4.05906 Y-2.68316
G01 X4.05922 Y-2.68135
G01 X4.05972 Y-2.67961
G01 X4.06053 Y-2.67798
G01 X4.06162 Y-2.67654
G01 X4.06296 Y-2.67531
G01 X4.06450 Y-2.67435
G01 X4.27052 Y-2.57135
G01 X4.27218 Y-2.57070
G01 X4.27394 Y-2.57036
G01 X4.27573 Y-2.57034
G01 X4.27749 Y-2.57065
G01 X4.27917 Y-2.57127
G01 X4.28070 Y-2.57219
G01 X4.28527 Y-2.57551
G01 X4.29090 Y-2.57801
G01 X4.29692 Y-2.57929
G01 X4.30308 Y-2.57929
G01 X4.30910 Y-2.57801
G01 X4.31473 Y-2.57551
G01 X4.31971 Y-2.57189
G01 X4.32381 Y-2.56734
G01 X4.32747 Y-2.56088
G01 X4.32868 Y-2.55920
G01 X4.33021 Y-2.55781
G01 X4.33200 Y-2.55677
G01 X4.33397 Y-2.55613
G01 X4.33603 Y-2.55591
G01 X4.66397 Y-2.55591
G01 X4.66603 Y-2.55613
G01 X4.66800 Y-2.55677
G01 X4.66979 Y-2.55781
G01 X4.67132 Y-2.55920
G01 X4.67253 Y-2.56088
G01 X4.67619 Y-2.56734
G01 X4.68029 Y-2.57189
G01 X4.68527 Y-2.57551
G01 X4.69090 Y-2.57801
G01 X4.69692 Y-2.57929
G01 X4.70308 Y-2.57929
G01 X4.70910 Y-2.57801
G01 X4.71473 Y-2.57551
G01 X4.71971 Y-2.57189
G01 X4.72383 Y-2.56731
G01 X4.72691 Y-2.56198
G01 X4.72881 Y-2.55612
G01 X4.72945 Y-2.55000
G01 X4.72881 Y-2.54388
G01 X4.72691 Y-2.53802
G01 X4.72383 Y-2.53269
G01 X4.71971 Y-2.52811
G01 X4.71473 Y-2.52449
G01 X4.70910 Y-2.52199
G01 X4.70308 Y-2.52071
G01 X4.69692 Y-2.52071
G01 X4.69090 Y-2.52199
G01 X4.68527 Y-2.52449
G01 X4.68029 Y-2.52811
G01 X4.67619 Y-2.53266
G01 X4.67253 Y-2.53911
G01 X4.67132 Y-2.54080
G01 X4.66979 Y-2.54219
G01 X4.66800 Y-2.54323
G01 X4.66603 Y-2.54387
G01 X4.66397 Y-2.54409
G01 X4.33603 Y-2.54409
G01 X4.33397 Y-2.54387
G01 X4.33200 Y-2.54323
G01 X4.33021 Y-2.54219
G01 X4.32868 Y-2.54080
G01 X4.32747 Y-2.53911
G01 X4.32381 Y-2.53266
G01 X4.31971 Y-2.52811
G01 X4.31473 Y-2.52449
G01 X4.30910 Y-2.52199
G01 X4.30308 Y-2.52071
G01 X4.29692 Y-2.52071
G01 X4.29090 Y-2.52199
G01 X4.28766 Y-2.52321
G01 X4.28570 Y-2.52345
G01 X4.28373 Y-2.52328
G01 X4.28184 Y-2.52273
G01 X4.28009 Y-2.52181
G01 X4.27857 Y-2.52056
G01 X4.15784 Y-2.39984
G01 X4.15662 Y-2.39883
G01 X4.15564 Y-2.39832
G01 X4.15459 Y-2.39800
G01 X4.15301 Y-2.39784
G01 X3.79698 Y-2.39784
G01 X3.79541 Y-2.39800
G01 X3.79435 Y-2.39832
G01 X3.79338 Y-2.39883
G01 X3.79216 Y-2.39984
G01 X3.67143 Y-2.52056
G01 X3.66990 Y-2.52181
G01 X3.66816 Y-2.52273
G01 X3.66627 Y-2.52328
G01 X3.66430 Y-2.52345
G01 X3.66234 Y-2.52321
G01 X3.65910 Y-2.52199
G01 X3.65308 Y-2.52071
G01 X3.64692 Y-2.52071
G01 X3.64090 Y-2.52199
G01 X3.63527 Y-2.52449
G01 X3.63029 Y-2.52811
G01 X3.62619 Y-2.53266
G01 X3.62252 Y-2.53911
G01 X3.62132 Y-2.54080
G01 X3.61978 Y-2.54219
G01 X3.61800 Y-2.54323
G01 X3.61603 Y-2.54387
G01 X3.61397 Y-2.54409
G01 X3.28603 Y-2.54409
G01 X3.28397 Y-2.54387
G01 X3.28200 Y-2.54323
G01 X3.28021 Y-2.54219
G01 X3.27868 Y-2.54080
G01 X3.27747 Y-2.53911
G01 X3.27381 Y-2.53266
G01 X3.26971 Y-2.52811
G01 X3.26473 Y-2.52449
G01 X3.25910 Y-2.52199
G01 X3.25308 Y-2.52071
G01 X3.24692 Y-2.52071
G01 X3.24090 Y-2.52199
G01 X3.23527 Y-2.52449
G01 X3.23029 Y-2.52811
G01 X3.22617 Y-2.53269
G01 X3.22309 Y-2.53802
G01 X3.22119 Y-2.54388
G01 X3.22055 Y-2.55000
G01 X3.23836 Y-2.55000
G01 X3.23861 Y-2.55242
G01 X3.23936 Y-2.55473
G01 X3.23900 Y-2.55490
G01 X3.23936 Y-2.55473
G01 X3.24058 Y-2.55684
G01 X3.24221 Y-2.55865
G01 X3.24194 Y-2.55895
G01 X3.24221 Y-2.55865
G01 X3.24418 Y-2.56008
G01 X3.24640 Y-2.56107
G01 X3.24628 Y-2.56145
G01 X3.24640 Y-2.56107
G01 X3.24878 Y-2.56158
G01 X3.25122 Y-2.56158
G01 X3.25126 Y-2.56197
G01 X3.25122 Y-2.56158
G01 X3.25360 Y-2.56107
G01 X3.25582 Y-2.56008
G01 X3.25602 Y-2.56042
G01 X3.25582 Y-2.56008
G01 X3.25779 Y-2.55865
G01 X3.25936 Y-2.55691
G01 X3.25950 Y-2.55703
G01 X3.25936 Y-2.55691
G01 X3.26208 Y-2.55213
G01 X3.26360 Y-2.55000
G01 X3.26695 Y-2.54993
G01 X3.26360 Y-2.55000
G01 X3.26208 Y-2.54787
G01 X3.25936 Y-2.54309
G01 X3.25779 Y-2.54135
G01 X3.25811 Y-2.54101
G01 X3.25779 Y-2.54135
G01 X3.25582 Y-2.53992
G01 X3.25360 Y-2.53893
G01 X3.25372 Y-2.53855
G01 X3.25360 Y-2.53893
G01 X3.25122 Y-2.53842
G01 X3.24878 Y-2.53842
G01 X3.24874 Y-2.53803
G01 X3.24878 Y-2.53842
G01 X3.24640 Y-2.53893
G01 X3.24418 Y-2.53992
G01 X3.24398 Y-2.53958
G01 X3.24418 Y-2.53992
G01 X3.24221 Y-2.54135
G01 X3.24058 Y-2.54316
G01 X3.24041 Y-2.54302
G01 X3.24058 Y-2.54316
G01 X3.23936 Y-2.54526
G01 X3.23916 Y-2.54519
G01 X3.23936 Y-2.54526
G01 X3.23861 Y-2.54758
G01 X3.23836 Y-2.55000
G01 X3.63640 Y-2.55000
G01 X3.63792 Y-2.55213
G01 X3.64064 Y-2.55691
G01 X3.64221 Y-2.55865
G01 X3.64189 Y-2.55899
G01 X3.64221 Y-2.55865
G01 X3.64418 Y-2.56008
G01 X3.64640 Y-2.56107
G01 X3.64632 Y-2.56128
G01 X3.64640 Y-2.56107
G01 X3.64878 Y-2.56158
G01 X3.64877 Y-2.56180
G01 X3.64878 Y-2.56158
G01 X3.65122 Y-2.56158
G01 X3.65360 Y-2.56107
G01 X3.65372 Y-2.56145
G01 X3.65360 Y-2.56107
G01 X3.65582 Y-2.56008
G01 X3.65779 Y-2.55865
G01 X3.65805 Y-2.55895
G01 X3.65779 Y-2.55865
G01 X3.65942 Y-2.55684
G01 X3.66064 Y-2.55473
G01 X3.66100 Y-2.55490
G01 X3.66064 Y-2.55473
G01 X3.66139 Y-2.55242
G01 X3.66164 Y-2.55000
G01 X3.66208 Y-2.55000
G01 X3.66164 Y-2.55000
G01 X3.66139 Y-2.54758
G01 X3.66023 Y-2.54400
G01 X3.65946 Y-2.54062
G01 X3.66158 Y-2.53857
G01 X3.65946 Y-2.54062
G01 X3.65851 Y-2.54051
G01 X3.65393 Y-2.53900
G01 X3.65122 Y-2.53842
G01 X3.65124 Y-2.53812
G01 X3.65122 Y-2.53842
G01 X3.64878 Y-2.53842
G01 X3.64640 Y-2.53893
G01 X3.64628 Y-2.53855
G01 X3.64640 Y-2.53893
G01 X3.64418 Y-2.53992
G01 X3.64221 Y-2.54135
G01 X3.64189 Y-2.54101
G01 X3.64221 Y-2.54135
G01 X3.64064 Y-2.54309
G01 X3.63792 Y-2.54787
G01 X3.63640 Y-2.55000
G04 P0 ( dwell for no time -- G64 should not smooth over this point )
G00 Z0.08000 ( retract )

G00 X3.76639 Y-2.62600 ( rapid move to begin. )
G01 F180.00000
( Mill infeed pass 1/1 )
G01 Z-0.04000
G04 P0 ( dwell for no time -- G64 should not smooth over this point )
G01 F360.00000
G01 X3.76639 Y-2.62600
G01 X3.76885 Y-2.62600
G01 X3.77156 Y-2.63095
G01 X3.77313 Y-2.63612
G01 X3.77366 Y-2.64150
G01 X3.77366 Y-2.66734
G01 X3.76847 Y-2.67253
G01 X3.77366 Y-2.66734
G01 X3.85634 Y-2.66734
G01 X3.86153 Y-2.67253
G01 X3.85634 Y-2.66734
G01 X3.85634 Y-2.58466
G01 X3.86153 Y-2.57947
G01 X3.85634 Y-2.58466
G01 X3.77366 Y-2.58466
G01 X3.76847 Y-2.57947
G01 X3.77366 Y-2.58466
G01 X3.77366 Y-2.61050
G01 X3.77313 Y-2.61587
G01 X3.77156 Y-2.62105
G01 X3.76885 Y-2.62600
G01 X3.78848 Y-2.62600
G01 X3.79050 Y-2.63267
G01 X3.79137 Y-2.64150
G01 X3.79137 Y-2.64963
G01 X3.78618 Y-2.65482
G01 X3.79137 Y-2.64963
G01 X3.83863 Y-2.64963
G01 X3.84382 Y-2.65482
G01 X3.83863 Y-2.64963
G01 X3.83863 Y-2.60237
G01 X3.84382 Y-2.59718
G01 X3.83863 Y-2.60237
G01 X3.79137 Y-2.60237
G01 X3.78618 Y-2.59718
G01 X3.79137 Y-2.60237
G01 X3.79137 Y-2.61050
G01 X3.79050 Y-2.61933
G01 X3.78848 Y-2.62600
G01 X3.80690 Y-2.62600
G01 X3.80787 Y-2.62921
G01 X3.80814 Y-2.63191
G01 X3.80492 Y-2.63588
G01 X3.80814 Y-2.63191
G01 X3.82091 Y-2.63191
G01 X3.82610 Y-2.63710
G01 X3.82091 Y-2.63191
G01 X3.82091 Y-2.62008
G01 X3.82610 Y-2.61490
G01 X3.82091 Y-2.62008
G01 X3.80814 Y-2.62008
G01 X3.80492 Y-2.61612
G01 X3.80814 Y-2.62008
G01 X3.80787 Y-2.62279
G01 X3.80690 Y-2.62600
G04 P0 ( dwell for no time -- G64 should not smooth over this point )
G00 Z0.08000 ( retract )

G00 X3.95036 Y-2.51215 ( rapid move to begin. )
G01 F180.00000
( Mill infeed pass 1/1 )
G01 Z-0.04000
G04 P0 ( dwell for no time -- G64 should not smooth over this point )
G01 F360.00000
G01 X3.95036 Y-2.51215
G01 X3.95335 Y-2.50886
G01 X3.95625 Y-2.50385
G01 X3.95805 Y-2.49835
G01 X3.95866 Y-2.49260
G01 X3.95866 Y-2.46656
G01 X3.95347 Y-2.46137
G01 X3.95866 Y-2.46656
G01 X4.04134 Y-2.46656
G01 X4.04653 Y-2.46137
G01 X4.04134 Y-2.46656
G01 X4.04134 Y-2.54924
G01 X4.04653 Y-2.55443
G01 X4.04134 Y-2.54924
G01 X3.95866 Y-2.54924
G01 X3.95347 Y-2.55443
G01 X3.95866 Y-2.54924
G01 X3.95866 Y-2.53182
G01 X3.95813 Y-2.52644
G01 X3.95656 Y-2.52127
G01 X3.95401 Y-2.51651
G01 X3.95058 Y-2.51233
G01 X3.95036 Y-2.51215
G01 X3.94458 Y-2.51204
G01 X3.97173 Y-2.51227
G01 X3.97292 Y-2.51450
G01 X3.97550 Y-2.52299
G01 X3.97634 Y-2.53153
G01 X3.97218 Y-2.53612
G01 X3.97634 Y-2.53153
G01 X4.02363 Y-2.53153
G01 X4.02882 Y-2.53672
G01 X4.02363 Y-2.53153
G01 X4.02363 Y-2.48427
G01 X4.02882 Y-2.47908
G01 X4.02363 Y-2.48427
G01 X3.97637 Y-2.48427
G01 X3.97118 Y-2.47908
G01 X3.97637 Y-2.48427
G01 X3.97637 Y-2.49260
G01 X3.97537 Y-2.50205
G01 X3.97242 Y-2.51109
G01 X3.97173 Y-2.51227
G01 X3.97066 Y-2.51227
G01 X3.98855 Y-2.51730
G01 X3.99114 Y-2.51382
G01 X4.00591 Y-2.51382
G01 X4.01110 Y-2.51900
G01 X4.00591 Y-2.51382
G01 X4.00591 Y-2.50198
G01 X4.01110 Y-2.49680
G01 X4.00591 Y-2.50198
G01 X3.99309 Y-2.50198
G01 X3.98900 Y-2.49744
G01 X3.99309 Y-2.50198
G01 X3.99269 Y-2.50575
G01 X3.99062 Y-2.51210
G01 X3.98976 Y-2.51209
G01 X3.99062 Y-2.51210
G01 X3.99114 Y-2.51382
G04 P0 ( dwell for no time -- G64 should not smooth over this point )
G00 Z0.08000 ( retract )

G00 X4.28801 Y-2.55600 ( rapid move to begin. )
G01 F180.00000
( Mill infeed pass 1/1 )
G01 Z-0.04000
G04 P0 ( dwell for no time -- G64 should not smooth over this point )
G01 F360.00000
G01 X4.28801 Y-2.55600
G01 X4.28828 Y-2.55464
G01 X4.28827 Y-2.55085
G01 X4.28853 Y-2.54756
G01 X4.28977 Y-2.54400
G01 X4.29054 Y-2.54062
G01 X4.28864 Y-2.53871
G01 X4.29054 Y-2.54062
G01 X4.29149 Y-2.54051
G01 X4.29608 Y-2.53900
G01 X4.29878 Y-2.53842
G01 X4.29876 Y-2.53827
G01 X4.29878 Y-2.53842
G01 X4.30123 Y-2.53832
G01 X4.30360 Y-2.53893
G01 X4.30368 Y-2.53872
G01 X4.30360 Y-2.53893
G01 X4.30582 Y-2.53992
G01 X4.30779 Y-2.54135
G01 X4.30811 Y-2.54101
G01 X4.30779 Y-2.54135
G01 X4.30936 Y-2.54309
G01 X4.31208 Y-2.54787
G01 X4.31360 Y-2.55000
G01 X4.31723 Y-2.55000
G01 X4.31360 Y-2.55000
G01 X4.31208 Y-2.55213
G01 X4.30936 Y-2.55691
G01 X4.30779 Y-2.55865
G01 X4.30811 Y-2.55899
G01 X4.30779 Y-2.55865
G01 X4.30582 Y-2.56008
G01 X4.30360 Y-2.56107
G01 X4.30372 Y-2.56145
G01 X4.30360 Y-2.56107
G01 X4.30122 Y-2.56158
G01 X4.29878 Y-2.56158
G01 X4.29874 Y-2.56197
G01 X4.29878 Y-2.56158
G01 X4.29640 Y-2.56107
G01 X4.29418 Y-2.56008
G01 X4.29411 Y-2.56023
G01 X4.29418 Y-2.56008
G01 X4.29111 Y-2.55786
G01 X4.28801 Y-2.55600
G01 X4.04974 Y-2.67893
G01 X4.04134 Y-2.69253
G01 X4.04134 Y-2.78544
G01 X4.04653 Y-2.79063
G01 X4.04134 Y-2.78544
G01 X3.95866 Y-2.78544
G01 X3.95347 Y-2.79063
G01 X3.95866 Y-2.78544
G01 X3.95866 Y-2.70276
G01 X3.95347 Y-2.69757
G01 X3.95866 Y-2.70276
G01 X4.01438 Y-2.70276
G01 X4.02071 Y-2.70202
G01 X4.02670 Y-2.69985
G01 X4.04134 Y-2.69253
G01 X4.04974 Y-2.67893
G01 X4.02956 Y-2.71273
G01 X4.01110 Y-2.73299
G01 X4.00591 Y-2.73818
G01 X4.00591 Y-2.75001
G01 X4.01110 Y-2.75520
G01 X4.00591 Y-2.75001
G01 X3.99408 Y-2.75001
G01 X3.98889 Y-2.75520
G01 X3.99408 Y-2.75001
G01 X3.99408 Y-2.73818
G01 X3.98889 Y-2.73299
G01 X3.99408 Y-2.73818
G01 X4.00591 Y-2.73818
G01 X4.01110 Y-2.73299
G01 X4.02956 Y-2.71273
G01 X4.02363 Y-2.71939
G01 X4.01438 Y-2.72047
G01 X3.97637 Y-2.72047
G01 X3.97118 Y-2.71528
G01 X3.97637 Y-2.72047
G01 X3.97637 Y-2.76773
G01 X3.97118 Y-2.77292
G01 X3.97637 Y-2.76773
G01 X4.02363 Y-2.76773
G01 X4.02882 Y-2.77292
G01 X4.02363 Y-2.76773
G01 X4.02363 Y-2.71939
G04 P0 ( dwell for no time -- G64 should not smooth over this point )
G00 Z0.08000 ( retract )

G00 X4.27494 Y-2.94809 ( rapid move to begin. )
G01 F180.00000
( Mill infeed pass 1/1 )
G01 Z-0.04000
G04 P0 ( dwell for no time -- G64 should not smooth over this point )
G01 F360.00000
G01 X4.27494 Y-2.94809
G01 X4.28284 Y-2.94792
G01 X4.29674 Y-2.93402
G01 X4.29649 Y-2.92761
G01 X4.29674 Y-2.93402
G01 X4.29993 Y-2.93674
G01 X4.30453 Y-2.93934
G01 X4.30582 Y-2.93992
G01 X4.30589 Y-2.93981
G01 X4.30582 Y-2.93992
G01 X4.30779 Y-2.94135
G01 X4.30942 Y-2.94316
G01 X4.30974 Y-2.94292
G01 X4.30942 Y-2.94316
G01 X4.31064 Y-2.94526
G01 X4.31139 Y-2.94758
G01 X4.31177 Y-2.94750
G01 X4.31139 Y-2.94758
G01 X4.31164 Y-2.95000
G01 X4.31139 Y-2.95242
G01 X4.31161 Y-2.95246
G01 X4.31139 Y-2.95242
G01 X4.31064 Y-2.95473
G01 X4.31083 Y-2.95484
G01 X4.31064 Y-2.95473
G01 X4.30942 Y-2.95684
G01 X4.30779 Y-2.95865
G01 X4.30805 Y-2.95894
G01 X4.30779 Y-2.95865
G01 X4.30582 Y-2.96008
G01 X4.30360 Y-2.96107
G01 X4.30372 Y-2.96145
G01 X4.30360 Y-2.96107
G01 X4.30122 Y-2.96158
G01 X4.29878 Y-2.96158
G01 X4.29877 Y-2.96180
G01 X4.29878 Y-2.96158
G01 X4.29640 Y-2.96107
G01 X4.29632 Y-2.96128
G01 X4.29640 Y-2.96107
G01 X4.29418 Y-2.96008
G01 X4.29221 Y-2.95865
G01 X4.29197 Y-2.95892
G01 X4.29221 Y-2.95865
G01 X4.29058 Y-2.95684
G01 X4.28694 Y-2.95167
G01 X4.28284 Y-2.94792
G04 P0 ( dwell for no time -- G64 should not smooth over this point )
G00 Z0.08000 ( retract )

G00 X4.68277 Y-2.55000 ( rapid move to begin. )
G01 F180.00000
( Mill infeed pass 1/1 )
G01 Z-0.04000
G04 P0 ( dwell for no time -- G64 should not smooth over this point )
G01 F360.00000
G01 X4.68277 Y-2.55000
G01 X4.68640 Y-2.55000
G01 X4.68792 Y-2.54787
G01 X4.69064 Y-2.54309
G01 X4.69221 Y-2.54135
G01 X4.69189 Y-2.54101
G01 X4.69221 Y-2.54135
G01 X4.69418 Y-2.53992
G01 X4.69640 Y-2.53893
G01 X4.69628 Y-2.53855
G01 X4.69640 Y-2.53893
G01 X4.69878 Y-2.53842
G01 X4.70122 Y-2.53842
G01 X4.70123 Y-2.53820
G01 X4.70122 Y-2.53842
G01 X4.70360 Y-2.53893
G01 X4.70368 Y-2.53872
G01 X4.70360 Y-2.53893
G01 X4.70582 Y-2.53992
G01 X4.70779 Y-2.54135
G01 X4.70805 Y-2.54105
G01 X4.70779 Y-2.54135
G01 X4.70942 Y-2.54316
G01 X4.71063 Y-2.54526
G01 X4.71100 Y-2.54510
G01 X4.71063 Y-2.54526
G01 X4.71139 Y-2.54758
G01 X4.71164 Y-2.55000
G01 X4.71204 Y-2.55000
G01 X4.71164 Y-2.55000
G01 X4.71139 Y-2.55242
G01 X4.71063 Y-2.55473
G01 X4.71100 Y-2.55490
G01 X4.71063 Y-2.55473
G01 X4.70942 Y-2.55684
G01 X4.70779 Y-2.55865
G01 X4.70805 Y-2.55895
G01 X4.70779 Y-2.55865
G01 X4.70582 Y-2.56008
G01 X4.70360 Y-2.56107
G01 X4.70372 Y-2.56145
G01 X4.70360 Y-2.56107
G01 X4.70122 Y-2.56158
G01 X4.69878 Y-2.56158
G01 X4.69877 Y-2.56180
G01 X4.69878 Y-2.56158
G01 X4.69640 Y-2.56107
G01 X4.69632 Y-2.56128
G01 X4.69640 Y-2.56107
G01 X4.69418 Y-2.56008
G01 X4.69221 Y-2.55865
G01 X4.69189 Y-2.55899
G01 X4.69221 Y-2.55865
G01 X4.69064 Y-2.55691
G01 X4.68792 Y-2.55213
G01 X4.68640 Y-2.55000
G04 P0 ( dwell for no time -- G64 should not smooth over this point )
G00 Z0.08000 ( retract )

G00 X4.68842 Y-2.93857 ( rapid move to begin. )
G01 F180.00000
( Mill infeed pass 1/1 )
G01 Z-0.04000
G04 P0 ( dwell for no time -- G64 should not smooth over this point )
G01 F360.00000
G01 X4.68842 Y-2.93857
G01 X4.69054 Y-2.94062
G01 X4.68977 Y-2.94400
G01 X4.68861 Y-2.94758
G01 X4.68836 Y-2.95000
G01 X4.68792 Y-2.94999
G01 X4.68836 Y-2.95000
G01 X4.68861 Y-2.95242
G01 X4.68936 Y-2.95473
G01 X4.68900 Y-2.95490
G01 X4.68936 Y-2.95473
G01 X4.69058 Y-2.95684
G01 X4.69221 Y-2.95865
G01 X4.69194 Y-2.95894
G01 X4.69221 Y-2.95865
G01 X4.69418 Y-2.96008
G01 X4.69640 Y-2.96107
G01 X4.69632 Y-2.96128
G01 X4.69640 Y-2.96107
G01 X4.69878 Y-2.96158
G01 X4.69877 Y-2.96180
G01 X4.69878 Y-2.96158
G01 X4.70122 Y-2.96158
G01 X4.70360 Y-2.96107
G01 X4.70372 Y-2.96145
G01 X4.70360 Y-2.96107
G01 X4.70582 Y-2.96008
G01 X4.70779 Y-2.95865
G01 X4.70805 Y-2.95894
G01 X4.70779 Y-2.95865
G01 X4.70942 Y-2.95684
G01 X4.71063 Y-2.95473
G01 X4.71100 Y-2.95490
G01 X4.71063 Y-2.95473
G01 X4.71139 Y-2.95242
G01 X4.71164 Y-2.95000
G01 X4.71204 Y-2.95000
G01 X4.71164 Y-2.95000
G01 X4.71139 Y-2.94758
G01 X4.71063 Y-2.94526
G01 X4.71100 Y-2.94510
G01 X4.71063 Y-2.94526
G01 X4.70942 Y-2.94316
G01 X4.70779 Y-2.94135
G01 X4.70805 Y-2.94105
G01 X4.70779 Y-2.94135
G01 X4.70582 Y-2.93992
G01 X4.70360 Y-2.93893
G01 X4.70368 Y-2.93872
G01 X4.70360 Y-2.93893
G01 X4.70123 Y-2.93832
G01 X4.69878 Y-2.93842
G01 X4.69876 Y-2.93827
G01 X4.69878 Y-2.93842
G01 X4.69608 Y-2.93900
G01 X4.69149 Y-2.94051
G01 X4.69054 Y-2.94062
G04 P0 ( dwell for no time -- G64 should not smooth over this point )
G00 Z0.08000 ( retract )

G00 X4.52023 Y-3.17126 ( rapid move to begin. )
G01 F180.00000
( Mill infeed pass 1/1 )
G01 Z-0.04000
G04 P0 ( dwell for no time -- G64 should not smooth over this point )
G01 F360.00000
G01 X4.52023 Y-3.17126
G01 X4.47977 Y-3.17126
G04 P0 ( dwell for no time -- G64 should not smooth over this point )
G00 Z0.08000 ( retract )

G00 X4.40963 Y-3.24501 ( rapid move to begin. )
G01 F180.00000
( Mill infeed pass 1/1 )
G01 Z-0.04000
G04 P0 ( dwell for no time -- G64 should not smooth over this point )
G01 F360.00000
G01 X4.40963 Y-3.24501
G01 X4.40963 Y-3.04179
G01 X4.40978 Y-3.04021
G01 X4.41010 Y-3.03916
G01 X4.41062 Y-3.03819
G01 X4.41163 Y-3.03696
G01 X4.54146 Y-2.90713
G01 X4.54268 Y-2.90564
G01 X4.54359 Y-2.90394
G01 X4.54415 Y-2.90209
G01 X4.54434 Y-2.90017
G01 X4.54434 Y-2.87559
G01 X4.54415 Y-2.87367
G01 X4.54359 Y-2.87182
G01 X4.54268 Y-2.87012
G01 X4.54146 Y-2.86863
G01 X4.53997 Y-2.86741
G01 X4.53827 Y-2.86650
G01 X4.53642 Y-2.86594
G01 X4.53425 Y-2.86575
G01 X4.53425 Y-2.83425
G01 X4.56575 Y-2.83425
G01 X4.56594 Y-2.83642
G01 X4.56650 Y-2.83827
G01 X4.56741 Y-2.83997
G01 X4.56863 Y-2.84146
G01 X4.57012 Y-2.84268
G01 X4.57182 Y-2.84359
G01 X4.57367 Y-2.84415
G01 X4.57559 Y-2.84434
G01 X4.59952 Y-2.84434
G01 X4.60109 Y-2.84450
G01 X4.60215 Y-2.84482
G01 X4.60312 Y-2.84533
G01 X4.60434 Y-2.84634
G01 X4.67857 Y-2.92056
G01 X4.68009 Y-2.92181
G01 X4.68184 Y-2.92273
G01 X4.68373 Y-2.92328
G01 X4.68570 Y-2.92345
G01 X4.68766 Y-2.92321
G01 X4.69090 Y-2.92199
G01 X4.69692 Y-2.92071
G01 X4.70308 Y-2.92071
G01 X4.70910 Y-2.92199
G01 X4.71473 Y-2.92449
G01 X4.71971 Y-2.92811
G01 X4.72383 Y-2.93269
G01 X4.72691 Y-2.93802
G01 X4.72881 Y-2.94388
G01 X4.72945 Y-2.95000
G01 X4.72881 Y-2.95612
G01 X4.72691 Y-2.96198
G01 X4.72383 Y-2.96731
G01 X4.71971 Y-2.97189
G01 X4.71473 Y-2.97551
G01 X4.70910 Y-2.97801
G01 X4.70308 Y-2.97929
G01 X4.69692 Y-2.97929
G01 X4.69090 Y-2.97801
G01 X4.68527 Y-2.97551
G01 X4.68029 Y-2.97189
G01 X4.67617 Y-2.96731
G01 X4.67309 Y-2.96198
G01 X4.67119 Y-2.95612
G01 X4.67055 Y-2.95000
G01 X4.67119 Y-2.94388
G01 X4.67293 Y-2.93853
G01 X4.67333 Y-2.93677
G01 X4.67340 Y-2.93497
G01 X4.67314 Y-2.93319
G01 X4.67256 Y-2.93148
G01 X4.67168 Y-2.92991
G01 X4.67053 Y-2.92853
G01 X4.60054 Y-2.85854
G01 X4.59905 Y-2.85732
G01 X4.59735 Y-2.85641
G01 X4.59550 Y-2.85585
G01 X4.59358 Y-2.85566
G01 X4.57559 Y-2.85566
G01 X4.57367 Y-2.85585
G01 X4.57182 Y-2.85641
G01 X4.57012 Y-2.85732
G01 X4.56863 Y-2.85854
G01 X4.56741 Y-2.86003
G01 X4.56650 Y-2.86173
G01 X4.56594 Y-2.86358
G01 X4.56575 Y-2.86575
G01 X4.56358 Y-2.86594
G01 X4.56173 Y-2.86650
G01 X4.56003 Y-2.86741
G01 X4.55854 Y-2.86863
G01 X4.55732 Y-2.87012
G01 X4.55641 Y-2.87182
G01 X4.55585 Y-2.87367
G01 X4.55566 Y-2.87559
G01 X4.55566 Y-2.90611
G01 X4.55550 Y-2.90768
G01 X4.55518 Y-2.90874
G01 X4.55466 Y-2.90971
G01 X4.55366 Y-2.91093
G01 X4.42383 Y-3.04076
G01 X4.42260 Y-3.04225
G01 X4.42169 Y-3.04396
G01 X4.42113 Y-3.04580
G01 X4.42094 Y-3.04772
G01 X4.42094 Y-3.23450
G01 X4.42113 Y-3.23642
G01 X4.42169 Y-3.23827
G01 X4.42260 Y-3.23997
G01 X4.42383 Y-3.24146
G01 X4.42532 Y-3.24268
G01 X4.42702 Y-3.24359
G01 X4.42887 Y-3.24415
G01 X4.43079 Y-3.24434
G01 X4.45573 Y-3.24434
G01 X4.45757 Y-3.24417
G01 X4.45935 Y-3.24365
G01 X4.46100 Y-3.24281
G01 X4.46247 Y-3.24167
G01 X4.46369 Y-3.24029
G01 X4.46522 Y-3.23818
G01 X4.46796 Y-3.23571
G01 X4.47116 Y-3.23386
G01 X4.47467 Y-3.23272
G01 X4.47886 Y-3.23228
G01 X4.52114 Y-3.23228
G01 X4.52532 Y-3.23272
G01 X4.52884 Y-3.23386
G01 X4.53203 Y-3.23571
G01 X4.53478 Y-3.23818
G01 X4.53695 Y-3.24117
G01 X4.53845 Y-3.24454
G01 X4.53922 Y-3.24815
G01 X4.53922 Y-3.25185
G01 X4.53845 Y-3.25546
G01 X4.53695 Y-3.25883
G01 X4.53478 Y-3.26182
G01 X4.53203 Y-3.26429
G01 X4.52884 Y-3.26613
G01 X4.52532 Y-3.26728
G01 X4.52114 Y-3.26772
G01 X4.47886 Y-3.26772
G01 X4.47467 Y-3.26728
G01 X4.47116 Y-3.26613
G01 X4.46796 Y-3.26429
G01 X4.46522 Y-3.26182
G01 X4.46369 Y-3.25971
G01 X4.46247 Y-3.25833
G01 X4.46100 Y-3.25719
G01 X4.45935 Y-3.25635
G01 X4.45757 Y-3.25583
G01 X4.45573 Y-3.25566
G01 X4.42027 Y-3.25566
G01 X4.41869 Y-3.25550
G01 X4.41764 Y-3.25518
G01 X4.41667 Y-3.25466
G01 X4.41544 Y-3.25366
G01 X4.41163 Y-3.24984
G01 X4.41062 Y-3.24862
G01 X4.41010 Y-3.24764
G01 X4.40978 Y-3.24659
G01 X4.40963 Y-3.24501
G01 X4.47979 Y-3.25000
G01 X4.52023 Y-3.25000
G04 P0 ( dwell for no time -- G64 should not smooth over this point )
G00 Z0.08000 ( retract )

G00 X4.52023 Y-3.32874 ( rapid move to begin. )
G01 F180.00000
( Mill infeed pass 1/1 )
G01 Z-0.04000
G04 P0 ( dwell for no time -- G64 should not smooth over this point )
G01 F360.00000
G01 X4.52023 Y-3.32874
G01 X4.47977 Y-3.32874
G04 P0 ( dwell for no time -- G64 should not smooth over this point )
G00 Z0.08000 ( retract )

G00 X4.14031 Y-3.30000 ( rapid move to begin. )
G01 F180.00000
( Mill infeed pass 1/1 )
G01 Z-0.04000
G04 P0 ( dwell for no time -- G64 should not smooth over this point )
G01 F360.00000
G01 X4.14031 Y-3.30000
G01 X4.14052 Y-3.30201
G01 X4.14114 Y-3.30394
G01 X4.14078 Y-3.30410
G01 X4.14114 Y-3.30394
G01 X4.14216 Y-3.30570
G01 X4.14351 Y-3.30720
G01 X4.14325 Y-3.30750
G01 X4.14351 Y-3.30720
G01 X4.14515 Y-3.30839
G01 X4.14700 Y-3.30922
G01 X4.14688 Y-3.30959
G01 X4.14700 Y-3.30922
G01 X4.14899 Y-3.30964
G01 X4.15101 Y-3.30964
G01 X4.15103 Y-3.30990
G01 X4.15101 Y-3.30964
G01 X4.15442 Y-3.30892
G01 X4.15680 Y-3.30813
G01 X4.15791 Y-3.30800
G01 X4.16018 Y-3.31023
G01 X4.15791 Y-3.30800
G01 X4.15877 Y-3.30419
G01 X4.15948 Y-3.30201
G01 X4.15969 Y-3.30000
G01 X4.16011 Y-3.30000
G01 X4.15969 Y-3.30000
G01 X4.15948 Y-3.29798
G01 X4.15885 Y-3.29606
G01 X4.15922 Y-3.29590
G01 X4.15885 Y-3.29606
G01 X4.15784 Y-3.29430
G01 X4.15649 Y-3.29280
G01 X4.15675 Y-3.29250
G01 X4.15649 Y-3.29280
G01 X4.15485 Y-3.29161
G01 X4.15299 Y-3.29078
G01 X4.15312 Y-3.29040
G01 X4.15299 Y-3.29078
G01 X4.15101 Y-3.29036
G01 X4.14899 Y-3.29036
G01 X4.14898 Y-3.29014
G01 X4.14899 Y-3.29036
G01 X4.14700 Y-3.29078
G01 X4.14693 Y-3.29057
G01 X4.14700 Y-3.29078
G01 X4.14515 Y-3.29161
G01 X4.14351 Y-3.29280
G01 X4.14325 Y-3.29250
G01 X4.14351 Y-3.29280
G01 X4.14216 Y-3.29430
G01 X4.14114 Y-3.29606
G01 X4.14078 Y-3.29590
G01 X4.14114 Y-3.29606
G01 X4.14052 Y-3.29798
G01 X4.14031 Y-3.30000
G01 X4.12249 Y-3.30000
G01 X4.12310 Y-3.30572
G01 X4.12487 Y-3.31119
G01 X4.12775 Y-3.31617
G01 X4.13159 Y-3.32044
G01 X4.13625 Y-3.32382
G01 X4.14150 Y-3.32616
G01 X4.14712 Y-3.32735
G01 X4.15287 Y-3.32735
G01 X4.15850 Y-3.32616
G01 X4.16063 Y-3.32543
G01 X4.16259 Y-3.32519
G01 X4.16455 Y-3.32536
G01 X4.16645 Y-3.32591
G01 X4.16819 Y-3.32683
G01 X4.16972 Y-3.32808
G01 X4.17422 Y-3.33257
G01 X4.17548 Y-3.33361
G01 X4.17650 Y-3.33415
G01 X4.17760 Y-3.33449
G01 X4.17922 Y-3.33465
G01 X4.45591 Y-3.33465
G01 X4.45775 Y-3.33482
G01 X4.45953 Y-3.33534
G01 X4.46119 Y-3.33618
G01 X4.46265 Y-3.33731
G01 X4.46522 Y-3.34056
G01 X4.46796 Y-3.34303
G01 X4.47116 Y-3.34488
G01 X4.47467 Y-3.34602
G01 X4.47886 Y-3.34646
G01 X4.52114 Y-3.34646
G01 X4.52532 Y-3.34602
G01 X4.52884 Y-3.34488
G01 X4.53203 Y-3.34303
G01 X4.53478 Y-3.34056
G01 X4.53695 Y-3.33757
G01 X4.53845 Y-3.33420
G01 X4.53922 Y-3.33059
G01 X4.53922 Y-3.32689
G01 X4.53845 Y-3.32328
G01 X4.53695 Y-3.31991
G01 X4.53478 Y-3.31692
G01 X4.53203 Y-3.31445
G01 X4.52884 Y-3.31260
G01 X4.52532 Y-3.31146
G01 X4.52114 Y-3.31102
G01 X4.47886 Y-3.31102
G01 X4.47467 Y-3.31146
G01 X4.47116 Y-3.31260
G01 X4.46796 Y-3.31445
G01 X4.46522 Y-3.31692
G01 X4.46265 Y-3.32016
G01 X4.46119 Y-3.32130
G01 X4.45953 Y-3.32214
G01 X4.45775 Y-3.32266
G01 X4.45591 Y-3.32283
G01 X4.18526 Y-3.32283
G01 X4.18334 Y-3.32264
G01 X4.18150 Y-3.32208
G01 X4.17980 Y-3.32117
G01 X4.17830 Y-3.31995
G01 X4.17687 Y-3.31828
G01 X4.17599 Y-3.31671
G01 X4.17541 Y-3.31501
G01 X4.17515 Y-3.31322
G01 X4.17522 Y-3.31142
G01 X4.17562 Y-3.30967
G01 X4.17690 Y-3.30572
G01 X4.17750 Y-3.30000
G01 X4.17690 Y-3.29428
G01 X4.17513 Y-3.28881
G01 X4.17225 Y-3.28383
G01 X4.16840 Y-3.27956
G01 X4.16375 Y-3.27618
G01 X4.15850 Y-3.27384
G01 X4.15287 Y-3.27264
G01 X4.14712 Y-3.27264
G01 X4.14150 Y-3.27384
G01 X4.13625 Y-3.27618
G01 X4.13159 Y-3.27956
G01 X4.12775 Y-3.28383
G01 X4.12487 Y-3.28881
G01 X4.12310 Y-3.29428
G01 X4.12249 Y-3.30000
G04 P0 ( dwell for no time -- G64 should not smooth over this point )
G00 Z0.08000 ( retract )

G00 X4.06503 Y-3.31700 ( rapid move to begin. )
G01 F180.00000
( Mill infeed pass 1/1 )
G01 Z-0.04000
G04 P0 ( dwell for no time -- G64 should not smooth over this point )
G01 F360.00000
G01 X4.06503 Y-3.31700
G01 X4.05985 Y-3.31181
G01 X4.05985 Y-3.28819
G01 X4.06503 Y-3.28300
G01 X4.05985 Y-3.28819
G01 X4.03979 Y-3.28819
G01 X4.03688 Y-3.28445
G01 X4.03979 Y-3.28819
G01 X4.03963 Y-3.28987
G01 X4.03806 Y-3.29505
G01 X4.03551 Y-3.29981
G01 X4.03535 Y-3.30000
G01 X4.03289 Y-3.30000
G01 X4.03535 Y-3.30000
G01 X4.03551 Y-3.30019
G01 X4.03806 Y-3.30495
G01 X4.03963 Y-3.31012
G01 X4.03979 Y-3.31181
G01 X4.03688 Y-3.31555
G01 X4.03979 Y-3.31181
G01 X4.05985 Y-3.31181
G04 P0 ( dwell for no time -- G64 should not smooth over this point )
G00 Z0.08000 ( retract )

G00 X3.84015 Y-3.28819 ( rapid move to begin. )
G01 F180.00000
( Mill infeed pass 1/1 )
G01 Z-0.04000
G04 P0 ( dwell for no time -- G64 should not smooth over this point )
G01 F360.00000
G01 X3.84015 Y-3.28819
G01 X3.84015 Y-3.31243
G01 X3.83667 Y-3.31501
G01 X3.84015 Y-3.31243
G01 X3.84504 Y-3.31391
G01 X3.85000 Y-3.31661
G01 X3.85000 Y-3.31908
G01 X3.85000 Y-3.31661
G01 X3.85495 Y-3.31391
G01 X3.86016 Y-3.31234
G01 X3.86212 Y-3.31419
G01 X3.86016 Y-3.31234
G01 X3.86037 Y-3.31012
G01 X3.86194 Y-3.30495
G01 X3.86464 Y-3.30000
G01 X3.86711 Y-3.30000
G01 X3.86464 Y-3.30000
G01 X3.86449 Y-3.29981
G01 X3.86194 Y-3.29505
G01 X3.86037 Y-3.28987
G01 X3.86021 Y-3.28819
G01 X3.86312 Y-3.28445
G01 X3.86021 Y-3.28819
G01 X3.84015 Y-3.28819
G01 X3.83497 Y-3.28300
G04 P0 ( dwell for no time -- G64 should not smooth over this point )
G00 Z0.08000 ( retract )

G00 X3.73950 Y-3.30388 ( rapid move to begin. )
G01 F180.00000
( Mill infeed pass 1/1 )
G01 Z-0.04000
G04 P0 ( dwell for no time -- G64 should not smooth over this point )
G01 F360.00000
G01 X3.73950 Y-3.30388
G01 X3.74014 Y-3.30426
G01 X3.74280 Y-3.30669
G01 X3.74515 Y-3.30839
G01 X3.74508 Y-3.30852
G01 X3.74515 Y-3.30839
G01 X3.74697 Y-3.30931
G01 X3.74899 Y-3.30964
G01 X3.74898 Y-3.30986
G01 X3.74899 Y-3.30964
G01 X3.75101 Y-3.30964
G01 X3.75299 Y-3.30922
G01 X3.75312 Y-3.30959
G01 X3.75299 Y-3.30922
G01 X3.75485 Y-3.30839
G01 X3.75649 Y-3.30720
G01 X3.75675 Y-3.30750
G01 X3.75649 Y-3.30720
G01 X3.75784 Y-3.30570
G01 X3.75886 Y-3.30394
G01 X3.75922 Y-3.30410
G01 X3.75886 Y-3.30394
G01 X3.75948 Y-3.30201
G01 X3.75969 Y-3.30000
G01 X3.76009 Y-3.30000
G01 X3.75969 Y-3.30000
G01 X3.75948 Y-3.29798
G01 X3.75886 Y-3.29606
G01 X3.75906 Y-3.29598
G01 X3.75886 Y-3.29606
G01 X3.75784 Y-3.29430
G01 X3.75801 Y-3.29416
G01 X3.75784 Y-3.29430
G01 X3.75649 Y-3.29280
G01 X3.75485 Y-3.29161
G01 X3.75504 Y-3.29126
G01 X3.75485 Y-3.29161
G01 X3.75299 Y-3.29078
G01 X3.75101 Y-3.29036
G01 X3.75105 Y-3.28997
G01 X3.75101 Y-3.29036
G01 X3.74899 Y-3.29036
G01 X3.74700 Y-3.29078
G01 X3.74688 Y-3.29040
G01 X3.74700 Y-3.29078
G01 X3.74515 Y-3.29161
G01 X3.74351 Y-3.29280
G01 X3.74325 Y-3.29250
G01 X3.74351 Y-3.29280
G01 X3.74216 Y-3.29430
G01 X3.74114 Y-3.29606
G01 X3.74078 Y-3.29589
G01 X3.74114 Y-3.29606
G01 X3.74052 Y-3.29798
G01 X3.74034 Y-3.29964
G01 X3.73950 Y-3.30388
G01 X3.73658 Y-3.30492
G04 P0 ( dwell for no time -- G64 should not smooth over this point )
G00 Z0.08000 ( retract )

G00 X3.42023 Y-3.17126 ( rapid move to begin. )
G01 F180.00000
( Mill infeed pass 1/1 )
G01 Z-0.04000
G04 P0 ( dwell for no time -- G64 should not smooth over this point )
G01 F360.00000
G01 X3.42023 Y-3.17126
G01 X3.37976 Y-3.17126
G01 X3.36078 Y-3.17311
G01 X3.36078 Y-3.16941
G01 X3.36155 Y-3.16580
G01 X3.36305 Y-3.16243
G01 X3.36522 Y-3.15944
G01 X3.36796 Y-3.15697
G01 X3.37116 Y-3.15512
G01 X3.37467 Y-3.15398
G01 X3.37886 Y-3.15354
G01 X3.42114 Y-3.15354
G01 X3.42532 Y-3.15398
G01 X3.42884 Y-3.15512
G01 X3.43203 Y-3.15697
G01 X3.43478 Y-3.15944
G01 X3.43735 Y-3.16268
G01 X3.43881 Y-3.16382
G01 X3.44046 Y-3.16466
G01 X3.44224 Y-3.16518
G01 X3.44409 Y-3.16535
G01 X4.03628 Y-3.16535
G01 X4.03820 Y-3.16516
G01 X4.04005 Y-3.16460
G01 X4.04175 Y-3.16369
G01 X4.04324 Y-3.16247
G01 X4.29121 Y-2.91450
G01 X4.29243 Y-2.91301
G01 X4.29334 Y-2.91131
G01 X4.29390 Y-2.90946
G01 X4.29409 Y-2.90754
G01 X4.29409 Y-2.85048
G01 X4.29425 Y-2.84886
G01 X4.29459 Y-2.84776
G01 X4.29513 Y-2.84674
G01 X4.29586 Y-2.84586
G01 X4.29674 Y-2.84513
G01 X4.29776 Y-2.84459
G01 X4.29886 Y-2.84425
G01 X4.30048 Y-2.84409
G01 X4.43151 Y-2.84409
G01 X4.43356 Y-2.84388
G01 X4.43551 Y-2.84324
G01 X4.43729 Y-2.84221
G01 X4.43882 Y-2.84084
G01 X4.44107 Y-2.83834
G01 X4.44373 Y-2.83641
G01 X4.44672 Y-2.83507
G01 X4.44993 Y-2.83439
G01 X4.45322 Y-2.83439
G01 X4.45642 Y-2.83507
G01 X4.45942 Y-2.83641
G01 X4.46208 Y-2.83834
G01 X4.46427 Y-2.84077
G01 X4.46591 Y-2.84362
G01 X4.46692 Y-2.84674
G01 X4.46727 Y-2.85000
G01 X4.46692 Y-2.85326
G01 X4.46591 Y-2.85638
G01 X4.46427 Y-2.85922
G01 X4.46208 Y-2.86166
G01 X4.45942 Y-2.86359
G01 X4.45642 Y-2.86492
G01 X4.45322 Y-2.86561
G01 X4.44993 Y-2.86561
G01 X4.44672 Y-2.86492
G01 X4.44373 Y-2.86359
G01 X4.44107 Y-2.86166
G01 X4.43882 Y-2.85916
G01 X4.43729 Y-2.85779
G01 X4.43551 Y-2.85676
G01 X4.43356 Y-2.85612
G01 X4.43151 Y-2.85591
G01 X4.31575 Y-2.85591
G01 X4.31383 Y-2.85610
G01 X4.31198 Y-2.85666
G01 X4.31028 Y-2.85757
G01 X4.30879 Y-2.85879
G01 X4.30757 Y-2.86028
G01 X4.30666 Y-2.86198
G01 X4.30610 Y-2.86383
G01 X4.30591 Y-2.86575
G01 X4.30590 Y-2.91417
G01 X4.30608 Y-2.91605
G01 X4.30661 Y-2.91785
G01 X4.30748 Y-2.91953
G01 X4.30866 Y-2.92101
G01 X4.31009 Y-2.92223
G01 X4.31174 Y-2.92316
G01 X4.31473 Y-2.92449
G01 X4.31971 Y-2.92811
G01 X4.32383 Y-2.93269
G01 X4.32691 Y-2.93802
G01 X4.32881 Y-2.94388
G01 X4.32945 Y-2.95000
G01 X4.32881 Y-2.95612
G01 X4.32691 Y-2.96198
G01 X4.32383 Y-2.96731
G01 X4.31971 Y-2.97189
G01 X4.31473 Y-2.97551
G01 X4.30910 Y-2.97801
G01 X4.30308 Y-2.97929
G01 X4.29692 Y-2.97929
G01 X4.29090 Y-2.97801
G01 X4.28527 Y-2.97551
G01 X4.28029 Y-2.97189
G01 X4.27617 Y-2.96731
G01 X4.27487 Y-2.96507
G01 X4.27370 Y-2.96344
G01 X4.27223 Y-2.96209
G01 X4.27051 Y-2.96107
G01 X4.26862 Y-2.96041
G01 X4.26664 Y-2.96015
G01 X4.26464 Y-2.96029
G01 X4.26272 Y-2.96084
G01 X4.26094 Y-2.96176
G01 X4.25939 Y-2.96303
G01 X4.04732 Y-3.17509
G01 X4.04606 Y-3.17613
G01 X4.04505 Y-3.17667
G01 X4.04395 Y-3.17701
G01 X4.04232 Y-3.17717
G01 X3.44409 Y-3.17717
G01 X3.44225 Y-3.17734
G01 X3.44047 Y-3.17786
G01 X3.43881 Y-3.17870
G01 X3.43735 Y-3.17983
G01 X3.43478 Y-3.18308
G01 X3.43203 Y-3.18555
G01 X3.42884 Y-3.18739
G01 X3.42532 Y-3.18854
G01 X3.42114 Y-3.18898
G01 X3.37886 Y-3.18898
G01 X3.37467 Y-3.18854
G01 X3.37116 Y-3.18739
G01 X3.36796 Y-3.18555
G01 X3.36522 Y-3.18308
G01 X3.36305 Y-3.18009
G01 X3.36155 Y-3.17672
G01 X3.36078 Y-3.17311
G04 P0 ( dwell for no time -- G64 should not smooth over this point )
G00 Z0.08000 ( retract )

G00 X3.37976 Y-3.25000 ( rapid move to begin. )
G01 F180.00000
( Mill infeed pass 1/1 )
G01 Z-0.04000
G04 P0 ( dwell for no time -- G64 should not smooth over this point )
G01 F360.00000
G01 X3.37976 Y-3.25000
G01 X3.42023 Y-3.25000
G04 P0 ( dwell for no time -- G64 should not smooth over this point )
G00 Z0.08000 ( retract )

G00 X3.42023 Y-3.32874 ( rapid move to begin. )
G01 F180.00000
( Mill infeed pass 1/1 )
G01 Z-0.04000
G04 P0 ( dwell for no time -- G64 should not smooth over this point )
G01 F360.00000
G01 X3.42023 Y-3.32874
G01 X3.37979 Y-3.32874
G01 X3.36078 Y-3.33059
G01 X3.36078 Y-3.32689
G01 X3.36155 Y-3.32328
G01 X3.36305 Y-3.31991
G01 X3.36522 Y-3.31692
G01 X3.36796 Y-3.31445
G01 X3.37116 Y-3.31260
G01 X3.37467 Y-3.31146
G01 X3.37886 Y-3.31102
G01 X3.42114 Y-3.31102
G01 X3.42532 Y-3.31146
G01 X3.42884 Y-3.31260
G01 X3.43203 Y-3.31445
G01 X3.43478 Y-3.31692
G01 X3.43735 Y-3.32016
G01 X3.43881 Y-3.32130
G01 X3.44047 Y-3.32214
G01 X3.44224 Y-3.32266
G01 X3.44409 Y-3.32283
G01 X3.66847 Y-3.32283
G01 X3.67019 Y-3.32268
G01 X3.67185 Y-3.32224
G01 X3.71631 Y-3.30601
G01 X3.71796 Y-3.30522
G01 X3.71944 Y-3.30415
G01 X3.72070 Y-3.30282
G01 X3.72168 Y-3.30128
G01 X3.72237 Y-3.29958
G01 X3.72273 Y-3.29779
G01 X3.72310 Y-3.29428
G01 X3.72487 Y-3.28881
G01 X3.72775 Y-3.28383
G01 X3.73159 Y-3.27956
G01 X3.73625 Y-3.27618
G01 X3.74150 Y-3.27384
G01 X3.74712 Y-3.27264
G01 X3.75287 Y-3.27264
G01 X3.75850 Y-3.27384
G01 X3.76375 Y-3.27618
G01 X3.76840 Y-3.27956
G01 X3.77225 Y-3.28383
G01 X3.77513 Y-3.28881
G01 X3.77690 Y-3.29428
G01 X3.77750 Y-3.30000
G01 X3.77690 Y-3.30572
G01 X3.77513 Y-3.31119
G01 X3.77225 Y-3.31617
G01 X3.76840 Y-3.32044
G01 X3.76375 Y-3.32382
G01 X3.75850 Y-3.32616
G01 X3.75287 Y-3.32735
G01 X3.74712 Y-3.32735
G01 X3.74150 Y-3.32616
G01 X3.73625 Y-3.32382
G01 X3.73159 Y-3.32044
G01 X3.72957 Y-3.31847
G01 X3.72790 Y-3.31747
G01 X3.72607 Y-3.31682
G01 X3.72414 Y-3.31654
G01 X3.72220 Y-3.31664
G01 X3.72031 Y-3.31712
G01 X3.67369 Y-3.33414
G01 X3.67228 Y-3.33452
G01 X3.67083 Y-3.33465
G01 X3.44409 Y-3.33465
G01 X3.44224 Y-3.33482
G01 X3.44047 Y-3.33534
G01 X3.43881 Y-3.33618
G01 X3.43735 Y-3.33731
G01 X3.43478 Y-3.34056
G01 X3.43203 Y-3.34303
G01 X3.42884 Y-3.34488
G01 X3.42532 Y-3.34602
G01 X3.42114 Y-3.34646
G01 X3.37886 Y-3.34646
G01 X3.37467 Y-3.34602
G01 X3.37116 Y-3.34488
G01 X3.36796 Y-3.34303
G01 X3.36522 Y-3.34056
G01 X3.36305 Y-3.33757
G01 X3.36155 Y-3.33420
G01 X3.36078 Y-3.33059
G04 P0 ( dwell for no time -- G64 should not smooth over this point )
G00 Z0.08000 ( retract )

G00 X3.16249 Y-3.21714 ( rapid move to begin. )
G01 F180.00000
( Mill infeed pass 1/1 )
G01 Z-0.04000
G04 P0 ( dwell for no time -- G64 should not smooth over this point )
G01 F360.00000
G01 X3.16249 Y-3.21714
G01 X3.16265 Y-3.21872
G01 X3.16297 Y-3.21977
G01 X3.16348 Y-3.22074
G01 X3.16449 Y-3.22196
G01 X3.34498 Y-3.40246
G01 X3.34621 Y-3.40346
G01 X3.34718 Y-3.40398
G01 X3.34823 Y-3.40430
G01 X3.34981 Y-3.40446
G01 X3.82109 Y-3.40446
G01 X3.82266 Y-3.40430
G01 X3.82372 Y-3.40398
G01 X3.82469 Y-3.40346
G01 X3.82591 Y-3.40246
G01 X3.85366 Y-3.37471
G01 X3.85466 Y-3.37349
G01 X3.85518 Y-3.37252
G01 X3.85550 Y-3.37146
G01 X3.85566 Y-3.36989
G01 X3.85566 Y-3.33937
G01 X3.85585 Y-3.33745
G01 X3.85641 Y-3.33560
G01 X3.85732 Y-3.33390
G01 X3.85854 Y-3.33241
G01 X3.86003 Y-3.33119
G01 X3.86173 Y-3.33028
G01 X3.86358 Y-3.32972
G01 X3.86550 Y-3.32953
G01 X3.87756 Y-3.32953
G01 X3.87756 Y-3.31550
G01 X3.87775 Y-3.31358
G01 X3.87831 Y-3.31173
G01 X3.87922 Y-3.31003
G01 X3.88044 Y-3.30854
G01 X3.88193 Y-3.30732
G01 X3.88363 Y-3.30641
G01 X3.88548 Y-3.30585
G01 X3.88740 Y-3.30566
G01 X4.01260 Y-3.30566
G01 X4.01452 Y-3.30585
G01 X4.01636 Y-3.30641
G01 X4.01807 Y-3.30732
G01 X4.01956 Y-3.30854
G01 X4.02078 Y-3.31003
G01 X4.02169 Y-3.31173
G01 X4.02225 Y-3.31358
G01 X4.02244 Y-3.31550
G01 X4.02244 Y-3.32953
G01 X4.07756 Y-3.32953
G01 X4.07756 Y-3.27047
G01 X4.02244 Y-3.27047
G01 X4.02244 Y-3.28450
G01 X4.02225 Y-3.28642
G01 X4.02169 Y-3.28827
G01 X4.02078 Y-3.28997
G01 X4.01956 Y-3.29146
G01 X4.01807 Y-3.29268
G01 X4.01636 Y-3.29359
G01 X4.01452 Y-3.29415
G01 X4.01260 Y-3.29434
G01 X3.88740 Y-3.29434
G01 X3.88548 Y-3.29415
G01 X3.88363 Y-3.29359
G01 X3.88193 Y-3.29268
G01 X3.88044 Y-3.29146
G01 X3.87922 Y-3.28997
G01 X3.87831 Y-3.28827
G01 X3.87775 Y-3.28642
G01 X3.87756 Y-3.28450
G01 X3.87756 Y-3.27047
G01 X3.82244 Y-3.27047
G01 X3.82244 Y-3.32953
G01 X3.83450 Y-3.32953
G01 X3.83642 Y-3.32972
G01 X3.83827 Y-3.33028
G01 X3.83997 Y-3.33119
G01 X3.84146 Y-3.33241
G01 X3.84268 Y-3.33390
G01 X3.84359 Y-3.33560
G01 X3.84415 Y-3.33745
G01 X3.84434 Y-3.33937
G01 X3.84434 Y-3.36395
G01 X3.84415 Y-3.36587
G01 X3.84359 Y-3.36772
G01 X3.84268 Y-3.36942
G01 X3.84146 Y-3.37091
G01 X3.82211 Y-3.39026
G01 X3.82062 Y-3.39148
G01 X3.81892 Y-3.39239
G01 X3.81707 Y-3.39295
G01 X3.81515 Y-3.39314
G01 X3.35575 Y-3.39314
G01 X3.35383 Y-3.39295
G01 X3.35198 Y-3.39239
G01 X3.35028 Y-3.39148
G01 X3.34879 Y-3.39026
G01 X3.17669 Y-3.21816
G01 X3.17546 Y-3.21667
G01 X3.17455 Y-3.21497
G01 X3.17400 Y-3.21312
G01 X3.17381 Y-3.21120
G01 X3.17381 Y-2.81713
G01 X3.17400 Y-2.81521
G01 X3.17455 Y-2.81336
G01 X3.17546 Y-2.81166
G01 X3.17669 Y-2.81017
G01 X3.21017 Y-2.77669
G01 X3.21166 Y-2.77547
G01 X3.21336 Y-2.77455
G01 X3.21521 Y-2.77400
G01 X3.21713 Y-2.77381
G01 X3.57247 Y-2.77381
G01 X3.57404 Y-2.77365
G01 X3.57510 Y-2.77333
G01 X3.57607 Y-2.77281
G01 X3.57729 Y-2.77181
G01 X3.71456 Y-2.63454
G01 X3.71605 Y-2.63332
G01 X3.71775 Y-2.63241
G01 X3.71960 Y-2.63185
G01 X3.72152 Y-2.63166
G01 X3.74610 Y-2.63166
G01 X3.74802 Y-2.63185
G01 X3.74987 Y-2.63241
G01 X3.75157 Y-2.63332
G01 X3.75306 Y-2.63454
G01 X3.75428 Y-2.63603
G01 X3.75519 Y-2.63773
G01 X3.75575 Y-2.63958
G01 X3.75594 Y-2.64150
G01 X3.75594 Y-2.68506
G01 X3.87406 Y-2.68506
G01 X3.87406 Y-2.57902
G01 X3.87425 Y-2.57710
G01 X3.87481 Y-2.57525
G01 X3.87572 Y-2.57355
G01 X3.87694 Y-2.57206
G01 X3.92414 Y-2.52486
G01 X3.92563 Y-2.52364
G01 X3.92733 Y-2.52273
G01 X3.92918 Y-2.52217
G01 X3.93110 Y-2.52198
G01 X3.93302 Y-2.52217
G01 X3.93487 Y-2.52273
G01 X3.93657 Y-2.52364
G01 X3.93806 Y-2.52486
G01 X3.93928 Y-2.52635
G01 X3.94019 Y-2.52805
G01 X3.94075 Y-2.52990
G01 X3.94094 Y-2.53182
G01 X3.94094 Y-2.56696
G01 X4.05906 Y-2.56696
G01 X4.05906 Y-2.44884
G01 X3.94094 Y-2.44884
G01 X3.94094 Y-2.49260
G01 X3.94073 Y-2.49465
G01 X3.94008 Y-2.49662
G01 X3.93905 Y-2.49840
G01 X3.93766 Y-2.49993
G01 X3.93598 Y-2.50114
G01 X3.93409 Y-2.50197
G01 X3.93095 Y-2.50272
G01 X3.92998 Y-2.50324
G01 X3.92876 Y-2.50424
G01 X3.86894 Y-2.56406
G01 X3.86745 Y-2.56528
G01 X3.86575 Y-2.56619
G01 X3.86390 Y-2.56675
G01 X3.86198 Y-2.56694
G01 X3.75594 Y-2.56694
G01 X3.75594 Y-2.61050
G01 X3.75575 Y-2.61242
G01 X3.75519 Y-2.61427
G01 X3.75428 Y-2.61597
G01 X3.75306 Y-2.61746
G01 X3.75157 Y-2.61868
G01 X3.74987 Y-2.61959
G01 X3.74802 Y-2.62015
G01 X3.74610 Y-2.62034
G01 X3.71558 Y-2.62034
G01 X3.71400 Y-2.62050
G01 X3.71295 Y-2.62082
G01 X3.71198 Y-2.62134
G01 X3.71076 Y-2.62234
G01 X3.57349 Y-2.75961
G01 X3.57200 Y-2.76083
G01 X3.57030 Y-2.76174
G01 X3.56845 Y-2.76230
G01 X3.56653 Y-2.76249
G01 X3.21119 Y-2.76249
G01 X3.20962 Y-2.76265
G01 X3.20856 Y-2.76297
G01 X3.20759 Y-2.76348
G01 X3.20637 Y-2.76449
G01 X3.16449 Y-2.80637
G01 X3.16348 Y-2.80759
G01 X3.16297 Y-2.80856
G01 X3.16265 Y-2.80962
G01 X3.16249 Y-2.81119
G01 X3.16249 Y-3.21714
G04 P0 ( dwell for no time -- G64 should not smooth over this point )
G00 Z0.08000 ( retract )

G00 X3.22055 Y-2.95000 ( rapid move to begin. )
G01 F180.00000
( Mill infeed pass 1/1 )
G01 Z-0.04000
G04 P0 ( dwell for no time -- G64 should not smooth over this point )
G01 F360.00000
G01 X3.22055 Y-2.95000
G01 X3.22119 Y-2.94388
G01 X3.22309 Y-2.93802
G01 X3.22617 Y-2.93269
G01 X3.23029 Y-2.92811
G01 X3.23527 Y-2.92449
G01 X3.24090 Y-2.92199
G01 X3.24692 Y-2.92071
G01 X3.25308 Y-2.92071
G01 X3.25910 Y-2.92199
G01 X3.26234 Y-2.92321
G01 X3.26430 Y-2.92345
G01 X3.26627 Y-2.92328
G01 X3.26816 Y-2.92273
G01 X3.26991 Y-2.92181
G01 X3.27143 Y-2.92056
G01 X3.34566 Y-2.84634
G01 X3.34688 Y-2.84533
G01 X3.34785 Y-2.84482
G01 X3.34890 Y-2.84450
G01 X3.35048 Y-2.84434
G01 X3.37441 Y-2.84434
G01 X3.37633 Y-2.84415
G01 X3.37818 Y-2.84359
G01 X3.37988 Y-2.84268
G01 X3.38137 Y-2.84146
G01 X3.38259 Y-2.83997
G01 X3.38350 Y-2.83827
G01 X3.38406 Y-2.83642
G01 X3.38425 Y-2.83425
G01 X3.41575 Y-2.83425
G01 X3.41575 Y-2.86575
G01 X3.38425 Y-2.86575
G01 X3.38406 Y-2.86358
G01 X3.38350 Y-2.86173
G01 X3.38259 Y-2.86003
G01 X3.38137 Y-2.85854
G01 X3.37988 Y-2.85732
G01 X3.37818 Y-2.85641
G01 X3.37633 Y-2.85585
G01 X3.37441 Y-2.85566
G01 X3.35642 Y-2.85566
G01 X3.35450 Y-2.85585
G01 X3.35265 Y-2.85641
G01 X3.35095 Y-2.85732
G01 X3.34946 Y-2.85854
G01 X3.27947 Y-2.92853
G01 X3.27832 Y-2.92991
G01 X3.27744 Y-2.93148
G01 X3.27686 Y-2.93319
G01 X3.27660 Y-2.93497
G01 X3.27667 Y-2.93677
G01 X3.27707 Y-2.93853
G01 X3.27881 Y-2.94388
G01 X3.27945 Y-2.95000
G01 X3.27881 Y-2.95612
G01 X3.27691 Y-2.96198
G01 X3.27383 Y-2.96731
G01 X3.26971 Y-2.97189
G01 X3.26473 Y-2.97551
G01 X3.26150 Y-2.97695
G01 X3.25985 Y-2.97787
G01 X3.25842 Y-2.97910
G01 X3.25725 Y-2.98058
G01 X3.25637 Y-2.98225
G01 X3.25584 Y-2.98406
G01 X3.25566 Y-2.98594
G01 X3.25566 Y-3.17379
G01 X3.25585 Y-3.17571
G01 X3.25641 Y-3.17756
G01 X3.25732 Y-3.17926
G01 X3.25854 Y-3.18075
G01 X3.31925 Y-3.24146
G01 X3.32074 Y-3.24268
G01 X3.32244 Y-3.24359
G01 X3.32429 Y-3.24415
G01 X3.32621 Y-3.24434
G01 X3.35573 Y-3.24434
G01 X3.35757 Y-3.24417
G01 X3.35935 Y-3.24365
G01 X3.36100 Y-3.24281
G01 X3.36247 Y-3.24167
G01 X3.36369 Y-3.24029
G01 X3.36522 Y-3.23818
G01 X3.36796 Y-3.23571
G01 X3.37116 Y-3.23386
G01 X3.37467 Y-3.23272
G01 X3.37886 Y-3.23228
G01 X3.42114 Y-3.23228
G01 X3.42532 Y-3.23272
G01 X3.42884 Y-3.23386
G01 X3.43203 Y-3.23571
G01 X3.43478 Y-3.23818
G01 X3.43695 Y-3.24117
G01 X3.43845 Y-3.24454
G01 X3.43922 Y-3.24815
G01 X3.43922 Y-3.25185
G01 X3.43845 Y-3.25546
G01 X3.43695 Y-3.25883
G01 X3.43478 Y-3.26182
G01 X3.43203 Y-3.26429
G01 X3.42884 Y-3.26613
G01 X3.42532 Y-3.26728
G01 X3.42114 Y-3.26772
G01 X3.37886 Y-3.26772
G01 X3.37467 Y-3.26728
G01 X3.37116 Y-3.26613
G01 X3.36796 Y-3.26429
G01 X3.36522 Y-3.26182
G01 X3.36369 Y-3.25971
G01 X3.36247 Y-3.25833
G01 X3.36100 Y-3.25719
G01 X3.35935 Y-3.25635
G01 X3.35757 Y-3.25583
G01 X3.35573 Y-3.25566
G01 X3.32027 Y-3.25566
G01 X3.31869 Y-3.25550
G01 X3.31764 Y-3.25518
G01 X3.31667 Y-3.25466
G01 X3.31544 Y-3.25366
G01 X3.24634 Y-3.18455
G01 X3.24533 Y-3.18333
G01 X3.24482 Y-3.18236
G01 X3.24450 Y-3.18131
G01 X3.24434 Y-3.17973
G01 X3.24434 Y-2.98594
G01 X3.24416 Y-2.98406
G01 X3.24363 Y-2.98225
G01 X3.24275 Y-2.98058
G01 X3.24158 Y-2.97910
G01 X3.24015 Y-2.97787
G01 X3.23850 Y-2.97695
G01 X3.23527 Y-2.97551
G01 X3.23029 Y-2.97189
G01 X3.22617 Y-2.96731
G01 X3.22309 Y-2.96198
G01 X3.22119 Y-2.95612
G01 X3.22055 Y-2.95000
G01 X3.23836 Y-2.95000
G01 X3.23861 Y-2.94758
G01 X3.23822 Y-2.94750
G01 X3.23861 Y-2.94758
G01 X3.23936 Y-2.94526
G01 X3.24058 Y-2.94316
G01 X3.24026 Y-2.94292
G01 X3.24058 Y-2.94316
G01 X3.24221 Y-2.94135
G01 X3.24418 Y-2.93992
G01 X3.24398 Y-2.93958
G01 X3.24418 Y-2.93992
G01 X3.24640 Y-2.93893
G01 X3.24878 Y-2.93842
G01 X3.24875 Y-2.93820
G01 X3.24878 Y-2.93842
G01 X3.25122 Y-2.93842
G01 X3.25124 Y-2.93827
G01 X3.25122 Y-2.93842
G01 X3.25392 Y-2.93900
G01 X3.25851 Y-2.94051
G01 X3.25946 Y-2.94062
G01 X3.26158 Y-2.93857
G01 X3.25946 Y-2.94062
G01 X3.26023 Y-2.94400
G01 X3.26139 Y-2.94758
G01 X3.26164 Y-2.95000
G01 X3.26207 Y-2.94999
G01 X3.26164 Y-2.95000
G01 X3.26139 Y-2.95242
G01 X3.26064 Y-2.95473
G01 X3.26084 Y-2.95481
G01 X3.26064 Y-2.95473
G01 X3.25942 Y-2.95684
G01 X3.25959 Y-2.95698
G01 X3.25942 Y-2.95684
G01 X3.25779 Y-2.95865
G01 X3.25582 Y-2.96008
G01 X3.25590 Y-2.96019
G01 X3.25582 Y-2.96008
G01 X3.25429 Y-2.96076
G01 X3.25000 Y-2.96319
G01 X3.25000 Y-2.96556
G01 X3.25000 Y-2.96319
G01 X3.24571 Y-2.96076
G01 X3.24418 Y-2.96008
G01 X3.24410 Y-2.96019
G01 X3.24418 Y-2.96008
G01 X3.24221 Y-2.95865
G01 X3.24058 Y-2.95684
G01 X3.24026 Y-2.95708
G01 X3.24058 Y-2.95684
G01 X3.23936 Y-2.95473
G01 X3.23861 Y-2.95242
G01 X3.23822 Y-2.95250
G01 X3.23861 Y-2.95242
G01 X3.23836 Y-2.95000
G04 P0 ( dwell for no time -- G64 should not smooth over this point )
G00 Z0.08000 ( retract )

G00 X3.48273 Y-2.85000 ( rapid move to begin. )
G01 F180.00000
( Mill infeed pass 1/1 )
G01 Z-0.04000
G04 P0 ( dwell for no time -- G64 should not smooth over this point )
G01 F360.00000
G01 X3.48273 Y-2.85000
G01 X3.48307 Y-2.85326
G01 X3.48409 Y-2.85638
G01 X3.48573 Y-2.85922
G01 X3.48792 Y-2.86166
G01 X3.49058 Y-2.86359
G01 X3.49357 Y-2.86492
G01 X3.49678 Y-2.86561
G01 X3.50035 Y-2.86561
G01 X3.50170 Y-2.86546
G01 X3.50365 Y-2.86563
G01 X3.50552 Y-2.86619
G01 X3.50725 Y-2.86710
G01 X3.50876 Y-2.86834
G01 X3.59408 Y-2.95366
G01 X3.59531 Y-2.95466
G01 X3.59628 Y-2.95518
G01 X3.59733 Y-2.95550
G01 X3.59891 Y-2.95566
G01 X3.61389 Y-2.95566
G01 X3.61593 Y-2.95587
G01 X3.61789 Y-2.95651
G01 X3.61967 Y-2.95754
G01 X3.62120 Y-2.95891
G01 X3.62241 Y-2.96058
G01 X3.62617 Y-2.96731
G01 X3.63029 Y-2.97189
G01 X3.63527 Y-2.97551
G01 X3.64090 Y-2.97801
G01 X3.64692 Y-2.97929
G01 X3.65308 Y-2.97929
G01 X3.65910 Y-2.97801
G01 X3.66473 Y-2.97551
G01 X3.66971 Y-2.97189
G01 X3.67383 Y-2.96731
G01 X3.67759 Y-2.96058
G01 X3.67880 Y-2.95891
G01 X3.68033 Y-2.95754
G01 X3.68211 Y-2.95651
G01 X3.68406 Y-2.95587
G01 X3.68611 Y-2.95566
G01 X3.99532 Y-2.95566
G01 X3.99689 Y-2.95550
G01 X3.99795 Y-2.95518
G01 X3.99892 Y-2.95466
G01 X4.00014 Y-2.95366
G01 X4.15635 Y-2.79745
G01 X4.15784 Y-2.79623
G01 X4.15954 Y-2.79531
G01 X4.16139 Y-2.79475
G01 X4.16331 Y-2.79457
G01 X4.64327 Y-2.79457
G01 X4.64519 Y-2.79475
G01 X4.64703 Y-2.79531
G01 X4.64873 Y-2.79623
G01 X4.65023 Y-2.79745
G01 X4.76631 Y-2.91353
G01 X4.76753 Y-2.91502
G01 X4.76844 Y-2.91672
G01 X4.76900 Y-2.91857
G01 X4.76919 Y-2.92049
G01 X4.76919 Y-2.97951
G01 X4.76900 Y-2.98143
G01 X4.76844 Y-2.98327
G01 X4.76753 Y-2.98497
G01 X4.76631 Y-2.98647
G01 X4.59006 Y-3.16272
G01 X4.58857 Y-3.16394
G01 X4.58686 Y-3.16485
G01 X4.58502 Y-3.16541
G01 X4.58310 Y-3.16560
G01 X4.54427 Y-3.16560
G01 X4.54242 Y-3.16543
G01 X4.54065 Y-3.16491
G01 X4.53899 Y-3.16407
G01 X4.53753 Y-3.16293
G01 X4.53631 Y-3.16154
G01 X4.53478 Y-3.15944
G01 X4.53203 Y-3.15697
G01 X4.52884 Y-3.15512
G01 X4.52532 Y-3.15398
G01 X4.52114 Y-3.15354
G01 X4.47886 Y-3.15354
G01 X4.47467 Y-3.15398
G01 X4.47116 Y-3.15512
G01 X4.46796 Y-3.15697
G01 X4.46522 Y-3.15944
G01 X4.46305 Y-3.16243
G01 X4.46155 Y-3.16580
G01 X4.46078 Y-3.16941
G01 X4.46078 Y-3.17311
G01 X4.46155 Y-3.17672
G01 X4.46305 Y-3.18009
G01 X4.46522 Y-3.18308
G01 X4.46796 Y-3.18555
G01 X4.47116 Y-3.18739
G01 X4.47467 Y-3.18854
G01 X4.47886 Y-3.18898
G01 X4.52114 Y-3.18898
G01 X4.52532 Y-3.18854
G01 X4.52884 Y-3.18739
G01 X4.53203 Y-3.18555
G01 X4.53478 Y-3.18308
G01 X4.53631 Y-3.18097
G01 X4.53753 Y-3.17958
G01 X4.53900 Y-3.17845
G01 X4.54065 Y-3.17761
G01 X4.54243 Y-3.17709
G01 X4.54427 Y-3.17692
G01 X4.58903 Y-3.17692
G01 X4.59061 Y-3.17676
G01 X4.59166 Y-3.17644
G01 X4.59263 Y-3.17592
G01 X4.59386 Y-3.17492
G01 X4.77851 Y-2.99027
G01 X4.77951 Y-2.98904
G01 X4.78003 Y-2.98807
G01 X4.78035 Y-2.98702
G01 X4.78051 Y-2.98544
G01 X4.78051 Y-2.91455
G01 X4.78035 Y-2.91298
G01 X4.78003 Y-2.91192
G01 X4.77951 Y-2.91095
G01 X4.77851 Y-2.90973
G01 X4.65403 Y-2.78525
G01 X4.65280 Y-2.78424
G01 X4.65183 Y-2.78373
G01 X4.65078 Y-2.78341
G01 X4.64920 Y-2.78325
G01 X4.15737 Y-2.78325
G01 X4.15579 Y-2.78341
G01 X4.15474 Y-2.78373
G01 X4.15377 Y-2.78424
G01 X4.15255 Y-2.78525
G01 X3.99634 Y-2.94146
G01 X3.99485 Y-2.94268
G01 X3.99315 Y-2.94359
G01 X3.99130 Y-2.94415
G01 X3.98938 Y-2.94434
G01 X3.68611 Y-2.94434
G01 X3.68406 Y-2.94413
G01 X3.68211 Y-2.94349
G01 X3.68033 Y-2.94246
G01 X3.67880 Y-2.94109
G01 X3.67759 Y-2.93942
G01 X3.67383 Y-2.93269
G01 X3.66971 Y-2.92811
G01 X3.66473 Y-2.92449
G01 X3.65910 Y-2.92199
G01 X3.65308 Y-2.92071
G01 X3.64692 Y-2.92071
G01 X3.64090 Y-2.92199
G01 X3.63527 Y-2.92449
G01 X3.63029 Y-2.92811
G01 X3.62617 Y-2.93269
G01 X3.62241 Y-2.93942
G01 X3.62120 Y-2.94109
G01 X3.61967 Y-2.94246
G01 X3.61789 Y-2.94349
G01 X3.61593 Y-2.94413
G01 X3.61389 Y-2.94434
G01 X3.60485 Y-2.94434
G01 X3.60292 Y-2.94415
G01 X3.60108 Y-2.94359
G01 X3.59938 Y-2.94268
G01 X3.59789 Y-2.94146
G01 X3.51671 Y-2.86028
G01 X3.51558 Y-2.85894
G01 X3.51472 Y-2.85742
G01 X3.51413 Y-2.85577
G01 X3.51385 Y-2.85404
G01 X3.51412 Y-2.85000
G01 X3.51378 Y-2.84674
G01 X3.51276 Y-2.84362
G01 X3.51112 Y-2.84077
G01 X3.50893 Y-2.83834
G01 X3.50627 Y-2.83641
G01 X3.50327 Y-2.83507
G01 X3.50007 Y-2.83439
G01 X3.49678 Y-2.83439
G01 X3.49357 Y-2.83507
G01 X3.49058 Y-2.83641
G01 X3.48792 Y-2.83834
G01 X3.48573 Y-2.84077
G01 X3.48409 Y-2.84362
G01 X3.48307 Y-2.84674
G01 X3.48273 Y-2.85000
G04 P0 ( dwell for no time -- G64 should not smooth over this point )
G00 Z0.08000 ( retract )

G00 X3.63299 Y-2.95000 ( rapid move to begin. )
G01 F180.00000
( Mill infeed pass 1/1 )
G01 Z-0.04000
G04 P0 ( dwell for no time -- G64 should not smooth over this point )
G01 F360.00000
G01 X3.63299 Y-2.95000
G01 X3.63650 Y-2.95000
G01 X3.63775 Y-2.94828
G01 X3.64058 Y-2.94316
G01 X3.64221 Y-2.94135
G01 X3.64188 Y-2.94099
G01 X3.64221 Y-2.94135
G01 X3.64418 Y-2.93992
G01 X3.64640 Y-2.93893
G01 X3.64628 Y-2.93855
G01 X3.64640 Y-2.93893
G01 X3.64878 Y-2.93842
G01 X3.65122 Y-2.93842
G01 X3.65123 Y-2.93820
G01 X3.65122 Y-2.93842
G01 X3.65360 Y-2.93893
G01 X3.65368 Y-2.93872
G01 X3.65360 Y-2.93893
G01 X3.65582 Y-2.93992
G01 X3.65779 Y-2.94135
G01 X3.65812 Y-2.94099
G01 X3.65779 Y-2.94135
G01 X3.65942 Y-2.94316
G01 X3.66225 Y-2.94828
G01 X3.66350 Y-2.95000
G01 X3.66701 Y-2.95000
G01 X3.66350 Y-2.95000
G01 X3.66225 Y-2.95172
G01 X3.65942 Y-2.95684
G01 X3.65779 Y-2.95865
G01 X3.65812 Y-2.95901
G01 X3.65779 Y-2.95865
G01 X3.65582 Y-2.96008
G01 X3.65360 Y-2.96107
G01 X3.65372 Y-2.96145
G01 X3.65360 Y-2.96107
G01 X3.65122 Y-2.96158
G01 X3.64878 Y-2.96158
G01 X3.64877 Y-2.96180
G01 X3.64878 Y-2.96158
G01 X3.64640 Y-2.96107
G01 X3.64632 Y-2.96128
G01 X3.64640 Y-2.96107
G01 X3.64418 Y-2.96008
G01 X3.64221 Y-2.95865
G01 X3.64188 Y-2.95901
G01 X3.64221 Y-2.95865
G01 X3.64058 Y-2.95684
G01 X3.63775 Y-2.95172
G01 X3.63650 Y-2.95000
( Piece #2, position [1;0] )

G04 P0 ( dwell for no time -- G64 should not smooth over this point )
G00 Z0.08000 ( retract )

G00 X5.19456 Y-2.55000 ( rapid move to begin. )
G01 F180.00000
( Mill infeed pass 1/1 )
G01 Z-0.04000
G04 P0 ( dwell for no time -- G64 should not smooth over this point )
G01 F360.00000
G01 X5.19456 Y-2.55000
G01 X5.19521 Y-2.55612
G01 X5.19711 Y-2.56198
G01 X5.20019 Y-2.56731
G01 X5.20431 Y-2.57189
G01 X5.20929 Y-2.57551
G01 X5.21491 Y-2.57801
G01 X5.22094 Y-2.57929
G01 X5.22709 Y-2.57929
G01 X5.23312 Y-2.57801
G01 X5.23874 Y-2.57551
G01 X5.24372 Y-2.57189
G01 X5.24782 Y-2.56734
G01 X5.25149 Y-2.56088
G01 X5.25270 Y-2.55920
G01 X5.25423 Y-2.55781
G01 X5.25602 Y-2.55677
G01 X5.25799 Y-2.55613
G01 X5.26005 Y-2.55591
G01 X5.58798 Y-2.55591
G01 X5.59004 Y-2.55613
G01 X5.59201 Y-2.55677
G01 X5.59380 Y-2.55781
G01 X5.59533 Y-2.55920
G01 X5.59654 Y-2.56088
G01 X5.60021 Y-2.56734
G01 X5.60431 Y-2.57189
G01 X5.60929 Y-2.57551
G01 X5.61491 Y-2.57801
G01 X5.62094 Y-2.57929
G01 X5.62709 Y-2.57929
G01 X5.63312 Y-2.57801
G01 X5.63874 Y-2.57551
G01 X5.64372 Y-2.57189
G01 X5.64784 Y-2.56731
G01 X5.65092 Y-2.56198
G01 X5.65282 Y-2.55612
G01 X5.65347 Y-2.55000
G01 X5.65282 Y-2.54388
G01 X5.65109 Y-2.53853
G01 X5.65069 Y-2.53677
G01 X5.65062 Y-2.53497
G01 X5.65088 Y-2.53319
G01 X5.65146 Y-2.53148
G01 X5.65234 Y-2.52991
G01 X5.65349 Y-2.52853
G01 X5.76998 Y-2.41204
G01 X5.77147 Y-2.41081
G01 X5.77317 Y-2.40991
G01 X5.77502 Y-2.40935
G01 X5.77694 Y-2.40916
G01 X6.12109 Y-2.40916
G01 X6.12301 Y-2.40935
G01 X6.12486 Y-2.40991
G01 X6.12656 Y-2.41081
G01 X6.12805 Y-2.41204
G01 X6.24454 Y-2.52853
G01 X6.24569 Y-2.52991
G01 X6.24657 Y-2.53148
G01 X6.24715 Y-2.53319
G01 X6.24741 Y-2.53497
G01 X6.24734 Y-2.53677
G01 X6.24694 Y-2.53853
G01 X6.24521 Y-2.54388
G01 X6.24456 Y-2.55000
G01 X6.24467 Y-2.55292
G01 X6.24428 Y-2.55486
G01 X6.24350 Y-2.55669
G01 X6.24238 Y-2.55833
G01 X6.24095 Y-2.55970
G01 X6.23927 Y-2.56077
G01 X5.99280 Y-2.68400
G01 X5.99066 Y-2.68478
G01 X5.98840 Y-2.68504
G01 X5.91496 Y-2.68504
G01 X5.91496 Y-2.80316
G01 X6.03307 Y-2.80316
G01 X6.03307 Y-2.68316
G01 X6.03324 Y-2.68135
G01 X6.03374 Y-2.67961
G01 X6.03454 Y-2.67798
G01 X6.03563 Y-2.67654
G01 X6.03697 Y-2.67531
G01 X6.03851 Y-2.67435
G01 X6.24453 Y-2.57135
G01 X6.24620 Y-2.57070
G01 X6.24795 Y-2.57036
G01 X6.24974 Y-2.57034
G01 X6.25150 Y-2.57065
G01 X6.25318 Y-2.57127
G01 X6.25472 Y-2.57219
G01 X6.25929 Y-2.57551
G01 X6.26491 Y-2.57801
G01 X6.27094 Y-2.57929
G01 X6.27709 Y-2.57929
G01 X6.28312 Y-2.57801
G01 X6.28874 Y-2.57551
G01 X6.29372 Y-2.57189
G01 X6.29782 Y-2.56734
G01 X6.30149 Y-2.56088
G01 X6.30270 Y-2.55920
G01 X6.30423 Y-2.55781
G01 X6.30602 Y-2.55677
G01 X6.30799 Y-2.55613
G01 X6.31005 Y-2.55591
G01 X6.63798 Y-2.55591
G01 X6.64004 Y-2.55613
G01 X6.64201 Y-2.55677
G01 X6.64380 Y-2.55781
G01 X6.64533 Y-2.55920
G01 X6.64654 Y-2.56088
G01 X6.65021 Y-2.56734
G01 X6.65431 Y-2.57189
G01 X6.65929 Y-2.57551
G01 X6.66491 Y-2.57801
G01 X6.67094 Y-2.57929
G01 X6.67709 Y-2.57929
G01 X6.68312 Y-2.57801
G01 X6.68874 Y-2.57551
G01 X6.69372 Y-2.57189
G01 X6.69784 Y-2.56731
G01 X6.70092 Y-2.56198
G01 X6.70282 Y-2.55612
G01 X6.70347 Y-2.55000
G01 X6.70282 Y-2.54388
G01 X6.70092 Y-2.53802
G01 X6.69784 Y-2.53269
G01 X6.69372 Y-2.52811
G01 X6.68874 Y-2.52449
G01 X6.68312 Y-2.52199
G01 X6.67709 Y-2.52071
G01 X6.67094 Y-2.52071
G01 X6.66491 Y-2.52199
G01 X6.65929 Y-2.52449
G01 X6.65431 Y-2.52811
G01 X6.65021 Y-2.53266
G01 X6.64654 Y-2.53911
G01 X6.64533 Y-2.54080
G01 X6.64380 Y-2.54219
G01 X6.64201 Y-2.54323
G01 X6.64004 Y-2.54387
G01 X6.63798 Y-2.54409
G01 X6.31005 Y-2.54409
G01 X6.30799 Y-2.54387
G01 X6.30602 Y-2.54323
G01 X6.30423 Y-2.54219
G01 X6.30270 Y-2.54080
G01 X6.30149 Y-2.53911
G01 X6.29782 Y-2.53266
G01 X6.29372 Y-2.52811
G01 X6.28874 Y-2.52449
G01 X6.28312 Y-2.52199
G01 X6.27709 Y-2.52071
G01 X6.27094 Y-2.52071
G01 X6.26491 Y-2.52199
G01 X6.26167 Y-2.52321
G01 X6.25971 Y-2.52345
G01 X6.25775 Y-2.52328
G01 X6.25585 Y-2.52273
G01 X6.25411 Y-2.52181
G01 X6.25258 Y-2.52056
G01 X6.13186 Y-2.39984
G01 X6.13063 Y-2.39883
G01 X6.12966 Y-2.39832
G01 X6.12861 Y-2.39800
G01 X6.12703 Y-2.39784
G01 X5.77100 Y-2.39784
G01 X5.76942 Y-2.39800
G01 X5.76837 Y-2.39832
G01 X5.76740 Y-2.39883
G01 X5.76617 Y-2.39984
G01 X5.64545 Y-2.52056
G01 X5.64392 Y-2.52181
G01 X5.64218 Y-2.52273
G01 X5.64028 Y-2.52328
G01 X5.63832 Y-2.52345
G01 X5.63636 Y-2.52321
G01 X5.63312 Y-2.52199
G01 X5.62709 Y-2.52071
G01 X5.62094 Y-2.52071
G01 X5.61491 Y-2.52199
G01 X5.60929 Y-2.52449
G01 X5.60431 Y-2.52811
G01 X5.60021 Y-2.53266
G01 X5.59654 Y-2.53911
G01 X5.59533 Y-2.54080
G01 X5.59380 Y-2.54219
G01 X5.59201 Y-2.54323
G01 X5.59004 Y-2.54387
G01 X5.58798 Y-2.54409
G01 X5.26005 Y-2.54409
G01 X5.25799 Y-2.54387
G01 X5.25602 Y-2.54323
G01 X5.25423 Y-2.54219
G01 X5.25270 Y-2.54080
G01 X5.25149 Y-2.53911
G01 X5.24782 Y-2.53266
G01 X5.24372 Y-2.52811
G01 X5.23874 Y-2.52449
G01 X5.23312 Y-2.52199
G01 X5.22709 Y-2.52071
G01 X5.22094 Y-2.52071
G01 X5.21491 Y-2.52199
G01 X5.20929 Y-2.52449
G01 X5.20431 Y-2.52811
G01 X5.20019 Y-2.53269
G01 X5.19711 Y-2.53802
G01 X5.19521 Y-2.54388
G01 X5.19456 Y-2.55000
G01 X5.21237 Y-2.55000
G01 X5.21263 Y-2.55242
G01 X5.21338 Y-2.55473
G01 X5.21302 Y-2.55490
G01 X5.21338 Y-2.55473
G01 X5.21460 Y-2.55684
G01 X5.21623 Y-2.55865
G01 X5.21596 Y-2.55895
G01 X5.21623 Y-2.55865
G01 X5.21819 Y-2.56008
G01 X5.22042 Y-2.56107
G01 X5.22030 Y-2.56145
G01 X5.22042 Y-2.56107
G01 X5.22280 Y-2.56158
G01 X5.22523 Y-2.56158
G01 X5.22527 Y-2.56197
G01 X5.22523 Y-2.56158
G01 X5.22761 Y-2.56107
G01 X5.22984 Y-2.56008
G01 X5.23003 Y-2.56042
G01 X5.22984 Y-2.56008
G01 X5.23180 Y-2.55865
G01 X5.23337 Y-2.55691
G01 X5.23352 Y-2.55703
G01 X5.23337 Y-2.55691
G01 X5.23609 Y-2.55213
G01 X5.23762 Y-2.55000
G01 X5.24096 Y-2.54993
G01 X5.23762 Y-2.55000
G01 X5.23609 Y-2.54787
G01 X5.23337 Y-2.54309
G01 X5.23180 Y-2.54135
G01 X5.23213 Y-2.54101
G01 X5.23180 Y-2.54135
G01 X5.22984 Y-2.53992
G01 X5.22761 Y-2.53893
G01 X5.22773 Y-2.53855
G01 X5.22761 Y-2.53893
G01 X5.22523 Y-2.53842
G01 X5.22280 Y-2.53842
G01 X5.22276 Y-2.53803
G01 X5.22280 Y-2.53842
G01 X5.22042 Y-2.53893
G01 X5.21819 Y-2.53992
G01 X5.21800 Y-2.53958
G01 X5.21819 Y-2.53992
G01 X5.21623 Y-2.54135
G01 X5.21460 Y-2.54316
G01 X5.21442 Y-2.54302
G01 X5.21460 Y-2.54316
G01 X5.21338 Y-2.54526
G01 X5.21317 Y-2.54519
G01 X5.21338 Y-2.54526
G01 X5.21263 Y-2.54758
G01 X5.21237 Y-2.55000
G01 X5.61041 Y-2.55000
G01 X5.61194 Y-2.55213
G01 X5.61466 Y-2.55691
G01 X5.61623 Y-2.55865
G01 X5.61590 Y-2.55899
G01 X5.61623 Y-2.55865
G01 X5.61819 Y-2.56008
G01 X5.62042 Y-2.56107
G01 X5.62034 Y-2.56128
G01 X5.62042 Y-2.56107
G01 X5.62280 Y-2.56158
G01 X5.62279 Y-2.56180
G01 X5.62280 Y-2.56158
G01 X5.62523 Y-2.56158
G01 X5.62761 Y-2.56107
G01 X5.62773 Y-2.56145
G01 X5.62761 Y-2.56107
G01 X5.62984 Y-2.56008
G01 X5.63180 Y-2.55865
G01 X5.63207 Y-2.55895
G01 X5.63180 Y-2.55865
G01 X5.63343 Y-2.55684
G01 X5.63465 Y-2.55473
G01 X5.63501 Y-2.55490
G01 X5.63465 Y-2.55473
G01 X5.63540 Y-2.55242
G01 X5.63566 Y-2.55000
G01 X5.63609 Y-2.55000
G01 X5.63566 Y-2.55000
G01 X5.63540 Y-2.54758
G01 X5.63424 Y-2.54400
G01 X5.63348 Y-2.54062
G01 X5.63559 Y-2.53857
G01 X5.63348 Y-2.54062
G01 X5.63252 Y-2.54051
G01 X5.62794 Y-2.53900
G01 X5.62523 Y-2.53842
G01 X5.62526 Y-2.53812
G01 X5.62523 Y-2.53842
G01 X5.62280 Y-2.53842
G01 X5.62042 Y-2.53893
G01 X5.62030 Y-2.53855
G01 X5.62042 Y-2.53893
G01 X5.61819 Y-2.53992
G01 X5.61623 Y-2.54135
G01 X5.61590 Y-2.54101
G01 X5.61623 Y-2.54135
G01 X5.61466 Y-2.54309
G01 X5.61194 Y-2.54787
G01 X5.61041 Y-2.55000
G04 P0 ( dwell for no time -- G64 should not smooth over this point )
G00 Z0.08000 ( retract )

G00 X5.74041 Y-2.62600 ( rapid move to begin. )
G01 F180.00000
( Mill infeed pass 1/1 )
G01 Z-0.04000
G04 P0 ( dwell for no time -- G64 should not smooth over this point )
G01 F360.00000
G01 X5.74041 Y-2.62600
G01 X5.74287 Y-2.62600
G01 X5.74557 Y-2.63095
G01 X5.74714 Y-2.63612
G01 X5.74767 Y-2.64150
G01 X5.74767 Y-2.66734
G01 X5.74248 Y-2.67253
G01 X5.74767 Y-2.66734
G01 X5.83036 Y-2.66734
G01 X5.83555 Y-2.67253
G01 X5.83036 Y-2.66734
G01 X5.83036 Y-2.58466
G01 X5.83555 Y-2.57947
G01 X5.83036 Y-2.58466
G01 X5.74767 Y-2.58466
G01 X5.74248 Y-2.57947
G01 X5.74767 Y-2.58466
G01 X5.74767 Y-2.61050
G01 X5.74714 Y-2.61587
G01 X5.74557 Y-2.62105
G01 X5.74287 Y-2.62600
G01 X5.76249 Y-2.62600
G01 X5.76452 Y-2.63267
G01 X5.76539 Y-2.64150
G01 X5.76539 Y-2.64963
G01 X5.76020 Y-2.65482
G01 X5.76539 Y-2.64963
G01 X5.81264 Y-2.64963
G01 X5.81783 Y-2.65482
G01 X5.81264 Y-2.64963
G01 X5.81264 Y-2.60237
G01 X5.81783 Y-2.59718
G01 X5.81264 Y-2.60237
G01 X5.76539 Y-2.60237
G01 X5.76020 Y-2.59718
G01 X5.76539 Y-2.60237
G01 X5.76539 Y-2.61050
G01 X5.76452 Y-2.61933
G01 X5.76249 Y-2.62600
G01 X5.78091 Y-2.62600
G01 X5.78189 Y-2.62921
G01 X5.78216 Y-2.63191
G01 X5.77894 Y-2.63588
G01 X5.78216 Y-2.63191
G01 X5.79493 Y-2.63191
G01 X5.80012 Y-2.63710
G01 X5.79493 Y-2.63191
G01 X5.79493 Y-2.62008
G01 X5.80012 Y-2.61490
G01 X5.79493 Y-2.62008
G01 X5.78216 Y-2.62008
G01 X5.77894 Y-2.61612
G01 X5.78216 Y-2.62008
G01 X5.78189 Y-2.62279
G01 X5.78091 Y-2.62600
G04 P0 ( dwell for no time -- G64 should not smooth over this point )
G00 Z0.08000 ( retract )

G00 X5.92438 Y-2.51215 ( rapid move to begin. )
G01 F180.00000
( Mill infeed pass 1/1 )
G01 Z-0.04000
G04 P0 ( dwell for no time -- G64 should not smooth over this point )
G01 F360.00000
G01 X5.92438 Y-2.51215
G01 X5.92736 Y-2.50886
G01 X5.93027 Y-2.50385
G01 X5.93206 Y-2.49835
G01 X5.93267 Y-2.49260
G01 X5.93267 Y-2.46656
G01 X5.92748 Y-2.46137
G01 X5.93267 Y-2.46656
G01 X6.01536 Y-2.46656
G01 X6.02055 Y-2.46137
G01 X6.01536 Y-2.46656
G01 X6.01536 Y-2.54924
G01 X6.02055 Y-2.55443
G01 X6.01536 Y-2.54924
G01 X5.93267 Y-2.54924
G01 X5.92748 Y-2.55443
G01 X5.93267 Y-2.54924
G01 X5.93267 Y-2.53182
G01 X5.93214 Y-2.52644
G01 X5.93057 Y-2.52127
G01 X5.92803 Y-2.51651
G01 X5.92460 Y-2.51233
G01 X5.92438 Y-2.51215
G01 X5.91860 Y-2.51204
G01 X5.94575 Y-2.51227
G01 X5.94694 Y-2.51450
G01 X5.94952 Y-2.52299
G01 X5.95036 Y-2.53153
G01 X5.94620 Y-2.53612
G01 X5.95036 Y-2.53153
G01 X5.99764 Y-2.53153
G01 X6.00283 Y-2.53672
G01 X5.99764 Y-2.53153
G01 X5.99764 Y-2.48427
G01 X6.00283 Y-2.47908
G01 X5.99764 Y-2.48427
G01 X5.95039 Y-2.48427
G01 X5.94520 Y-2.47908
G01 X5.95039 Y-2.48427
G01 X5.95039 Y-2.49260
G01 X5.94939 Y-2.50205
G01 X5.94644 Y-2.51109
G01 X5.94575 Y-2.51227
G01 X5.94468 Y-2.51227
G01 X5.96257 Y-2.51730
G01 X5.96515 Y-2.51382
G01 X5.97993 Y-2.51382
G01 X5.98512 Y-2.51900
G01 X5.97993 Y-2.51382
G01 X5.97993 Y-2.50198
G01 X5.98512 Y-2.49680
G01 X5.97993 Y-2.50198
G01 X5.96711 Y-2.50198
G01 X5.96302 Y-2.49744
G01 X5.96711 Y-2.50198
G01 X5.96671 Y-2.50575
G01 X5.96464 Y-2.51210
G01 X5.96378 Y-2.51209
G01 X5.96464 Y-2.51210
G01 X5.96515 Y-2.51382
G04 P0 ( dwell for no time -- G64 should not smooth over this point )
G00 Z0.08000 ( retract )

G00 X6.26202 Y-2.55600 ( rapid move to begin. )
G01 F180.00000
( Mill infeed pass 1/1 )
G01 Z-0.04000
G04 P0 ( dwell for no time -- G64 should not smooth over this point )
G01 F360.00000
G01 X6.26202 Y-2.55600
G01 X6.26230 Y-2.55464
G01 X6.26228 Y-2.55085
G01 X6.26254 Y-2.54756
G01 X6.26379 Y-2.54400
G01 X6.26455 Y-2.54062
G01 X6.26266 Y-2.53871
G01 X6.26455 Y-2.54062
G01 X6.26551 Y-2.54051
G01 X6.27009 Y-2.53900
G01 X6.27280 Y-2.53842
G01 X6.27278 Y-2.53827
G01 X6.27280 Y-2.53842
G01 X6.27524 Y-2.53832
G01 X6.27761 Y-2.53893
G01 X6.27769 Y-2.53872
G01 X6.27761 Y-2.53893
G01 X6.27984 Y-2.53992
G01 X6.28180 Y-2.54135
G01 X6.28213 Y-2.54101
G01 X6.28180 Y-2.54135
G01 X6.28337 Y-2.54309
G01 X6.28609 Y-2.54787
G01 X6.28762 Y-2.55000
G01 X6.29125 Y-2.55000
G01 X6.28762 Y-2.55000
G01 X6.28609 Y-2.55213
G01 X6.28337 Y-2.55691
G01 X6.28180 Y-2.55865
G01 X6.28213 Y-2.55899
G01 X6.28180 Y-2.55865
G01 X6.27984 Y-2.56008
G01 X6.27761 Y-2.56107
G01 X6.27773 Y-2.56145
G01 X6.27761 Y-2.56107
G01 X6.27523 Y-2.56158
G01 X6.27280 Y-2.56158
G01 X6.27276 Y-2.56197
G01 X6.27280 Y-2.56158
G01 X6.27042 Y-2.56107
G01 X6.26819 Y-2.56008
G01 X6.26812 Y-2.56023
G01 X6.26819 Y-2.56008
G01 X6.26513 Y-2.55786
G01 X6.26202 Y-2.55600
G01 X6.02376 Y-2.67893
G01 X6.01536 Y-2.69253
G01 X6.01536 Y-2.78544
G01 X6.02055 Y-2.79063
G01 X6.01536 Y-2.78544
G01 X5.93267 Y-2.78544
G01 X5.92748 Y-2.79063
G01 X5.93267 Y-2.78544
G01 X5.93267 Y-2.70276
G01 X5.92748 Y-2.69757
G01 X5.93267 Y-2.70276
G01 X5.98840 Y-2.70276
G01 X5.99473 Y-2.70202
G01 X6.00072 Y-2.69985
G01 X6.01536 Y-2.69253
G01 X6.02376 Y-2.67893
G01 X6.00358 Y-2.71273
G01 X5.98512 Y-2.73299
G01 X5.97993 Y-2.73818
G01 X5.97993 Y-2.75001
G01 X5.98512 Y-2.75520
G01 X5.97993 Y-2.75001
G01 X5.96810 Y-2.75001
G01 X5.96291 Y-2.75520
G01 X5.96810 Y-2.75001
G01 X5.96810 Y-2.73818
G01 X5.96291 Y-2.73299
G01 X5.96810 Y-2.73818
G01 X5.97993 Y-2.73818
G01 X5.98512 Y-2.73299
G01 X6.00358 Y-2.71273
G01 X5.99764 Y-2.71939
G01 X5.98840 Y-2.72047
G01 X5.95039 Y-2.72047
G01 X5.94520 Y-2.71528
G01 X5.95039 Y-2.72047
G01 X5.95039 Y-2.76773
G01 X5.94520 Y-2.77292
G01 X5.95039 Y-2.76773
G01 X5.99764 Y-2.76773
G01 X6.00283 Y-2.77292
G01 X5.99764 Y-2.76773
G01 X5.99764 Y-2.71939
G04 P0 ( dwell for no time -- G64 should not smooth over this point )
G00 Z0.08000 ( retract )

G00 X6.24896 Y-2.94809 ( rapid move to begin. )
G01 F180.00000
( Mill infeed pass 1/1 )
G01 Z-0.04000
G04 P0 ( dwell for no time -- G64 should not smooth over this point )
G01 F360.00000
G01 X6.24896 Y-2.94809
G01 X6.25686 Y-2.94792
G01 X6.27076 Y-2.93402
G01 X6.27051 Y-2.92761
G01 X6.27076 Y-2.93402
G01 X6.27395 Y-2.93674
G01 X6.27855 Y-2.93934
G01 X6.27984 Y-2.93992
G01 X6.27991 Y-2.93981
G01 X6.27984 Y-2.93992
G01 X6.28180 Y-2.94135
G01 X6.28343 Y-2.94316
G01 X6.28375 Y-2.94292
G01 X6.28343 Y-2.94316
G01 X6.28465 Y-2.94526
G01 X6.28540 Y-2.94758
G01 X6.28579 Y-2.94750
G01 X6.28540 Y-2.94758
G01 X6.28566 Y-2.95000
G01 X6.28540 Y-2.95242
G01 X6.28562 Y-2.95246
G01 X6.28540 Y-2.95242
G01 X6.28465 Y-2.95473
G01 X6.28485 Y-2.95484
G01 X6.28465 Y-2.95473
G01 X6.28343 Y-2.95684
G01 X6.28180 Y-2.95865
G01 X6.28207 Y-2.95894
G01 X6.28180 Y-2.95865
G01 X6.27984 Y-2.96008
G01 X6.27761 Y-2.96107
G01 X6.27773 Y-2.96145
G01 X6.27761 Y-2.96107
G01 X6.27523 Y-2.96158
G01 X6.27280 Y-2.96158
G01 X6.27279 Y-2.96180
G01 X6.27280 Y-2.96158
G01 X6.27042 Y-2.96107
G01 X6.27034 Y-2.96128
G01 X6.27042 Y-2.96107
G01 X6.26819 Y-2.96008
G01 X6.26623 Y-2.95865
G01 X6.26599 Y-2.95892
G01 X6.26623 Y-2.95865
G01 X6.26460 Y-2.95684
G01 X6.26095 Y-2.95167
G01 X6.25686 Y-2.94792
G04 P0 ( dwell for no time -- G64 should not smooth over this point )
G00 Z0.08000 ( retract )

G00 X6.65678 Y-2.55000 ( rapid move to begin. )
G01 F180.00000
( Mill infeed pass 1/1 )
G01 Z-0.04000
G04 P0 ( dwell for no time -- G64 should not smooth over this point )
G01 F360.00000
G01 X6.65678 Y-2.55000
G01 X6.66041 Y-2.55000
G01 X6.66194 Y-2.54787
G01 X6.66466 Y-2.54309
G01 X6.66623 Y-2.54135
G01 X6.66590 Y-2.54101
G01 X6.66623 Y-2.54135
G01 X6.66819 Y-2.53992
G01 X6.67042 Y-2.53893
G01 X6.67030 Y-2.53855
G01 X6.67042 Y-2.53893
G01 X6.67280 Y-2.53842
G01 X6.67523 Y-2.53842
G01 X6.67524 Y-2.53820
G01 X6.67523 Y-2.53842
G01 X6.67761 Y-2.53893
G01 X6.67769 Y-2.53872
G01 X6.67761 Y-2.53893
G01 X6.67984 Y-2.53992
G01 X6.68180 Y-2.54135
G01 X6.68207 Y-2.54105
G01 X6.68180 Y-2.54135
G01 X6.68343 Y-2.54316
G01 X6.68465 Y-2.54526
G01 X6.68501 Y-2.54510
G01 X6.68465 Y-2.54526
G01 X6.68540 Y-2.54758
G01 X6.68566 Y-2.55000
G01 X6.68605 Y-2.55000
G01 X6.68566 Y-2.55000
G01 X6.68540 Y-2.55242
G01 X6.68465 Y-2.55473
G01 X6.68501 Y-2.55490
G01 X6.68465 Y-2.55473
G01 X6.68343 Y-2.55684
G01 X6.68180 Y-2.55865
G01 X6.68207 Y-2.55895
G01 X6.68180 Y-2.55865
G01 X6.67984 Y-2.56008
G01 X6.67761 Y-2.56107
G01 X6.67773 Y-2.56145
G01 X6.67761 Y-2.56107
G01 X6.67523 Y-2.56158
G01 X6.67280 Y-2.56158
G01 X6.67279 Y-2.56180
G01 X6.67280 Y-2.56158
G01 X6.67042 Y-2.56107
G01 X6.67034 Y-2.56128
G01 X6.67042 Y-2.56107
G01 X6.66819 Y-2.56008
G01 X6.66623 Y-2.55865
G01 X6.66590 Y-2.55899
G01 X6.66623 Y-2.55865
G01 X6.66466 Y-2.55691
G01 X6.66194 Y-2.55213
G01 X6.66041 Y-2.55000
G04 P0 ( dwell for no time -- G64 should not smooth over this point )
G00 Z0.08000 ( retract )

G00 X6.66244 Y-2.93857 ( rapid move to begin. )
G01 F180.00000
( Mill infeed pass 1/1 )
G01 Z-0.04000
G04 P0 ( dwell for no time -- G64 should not smooth over this point )
G01 F360.00000
G01 X6.66244 Y-2.93857
G01 X6.66455 Y-2.94062
G01 X6.66379 Y-2.94400
G01 X6.66263 Y-2.94758
G01 X6.66237 Y-2.95000
G01 X6.66194 Y-2.94999
G01 X6.66237 Y-2.95000
G01 X6.66263 Y-2.95242
G01 X6.66338 Y-2.95473
G01 X6.66302 Y-2.95490
G01 X6.66338 Y-2.95473
G01 X6.66460 Y-2.95684
G01 X6.66623 Y-2.95865
G01 X6.66596 Y-2.95894
G01 X6.66623 Y-2.95865
G01 X6.66819 Y-2.96008
G01 X6.67042 Y-2.96107
G01 X6.67034 Y-2.96128
G01 X6.67042 Y-2.96107
G01 X6.67280 Y-2.96158
G01 X6.67279 Y-2.96180
G01 X6.67280 Y-2.96158
G01 X6.67523 Y-2.96158
G01 X6.67761 Y-2.96107
G01 X6.67773 Y-2.96145
G01 X6.67761 Y-2.96107
G01 X6.67984 Y-2.96008
G01 X6.68180 Y-2.95865
G01 X6.68207 Y-2.95894
G01 X6.68180 Y-2.95865
G01 X6.68343 Y-2.95684
G01 X6.68465 Y-2.95473
G01 X6.68501 Y-2.95490
G01 X6.68465 Y-2.95473
G01 X6.68540 Y-2.95242
G01 X6.68566 Y-2.95000
G01 X6.68605 Y-2.95000
G01 X6.68566 Y-2.95000
G01 X6.68540 Y-2.94758
G01 X6.68465 Y-2.94526
G01 X6.68501 Y-2.94510
G01 X6.68465 Y-2.94526
G01 X6.68343 Y-2.94316
G01 X6.68180 Y-2.94135
G01 X6.68207 Y-2.94105
G01 X6.68180 Y-2.94135
G01 X6.67984 Y-2.93992
G01 X6.67761 Y-2.93893
G01 X6.67769 Y-2.93872
G01 X6.67761 Y-2.93893
G01 X6.67524 Y-2.93832
G01 X6.67280 Y-2.93842
G01 X6.67278 Y-2.93827
G01 X6.67280 Y-2.93842
G01 X6.67009 Y-2.93900
G01 X6.66551 Y-2.94051
G01 X6.66455 Y-2.94062
G04 P0 ( dwell for no time -- G64 should not smooth over this point )
G00 Z0.08000 ( retract )

G00 X6.49425 Y-3.17126 ( rapid move to begin. )
G01 F180.00000
( Mill infeed pass 1/1 )
G01 Z-0.04000
G04 P0 ( dwell for no time -- G64 should not smooth over this point )
G01 F360.00000
G01 X6.49425 Y-3.17126
G01 X6.45378 Y-3.17126
G04 P0 ( dwell for no time -- G64 should not smooth over this point )
G00 Z0.08000 ( retract )

G00 X6.38364 Y-3.24501 ( rapid move to begin. )
G01 F180.00000
( Mill infeed pass 1/1 )
G01 Z-0.04000
G04 P0 ( dwell for no time -- G64 should not smooth over this point )
G01 F360.00000
G01 X6.38364 Y-3.24501
G01 X6.38364 Y-3.04179
G01 X6.38380 Y-3.04021
G01 X6.38412 Y-3.03916
G01 X6.38464 Y-3.03819
G01 X6.38564 Y-3.03696
G01 X6.51547 Y-2.90713
G01 X6.51670 Y-2.90564
G01 X6.51761 Y-2.90394
G01 X6.51817 Y-2.90209
G01 X6.51836 Y-2.90017
G01 X6.51836 Y-2.87559
G01 X6.51817 Y-2.87367
G01 X6.51761 Y-2.87182
G01 X6.51670 Y-2.87012
G01 X6.51547 Y-2.86863
G01 X6.51398 Y-2.86741
G01 X6.51228 Y-2.86650
G01 X6.51044 Y-2.86594
G01 X6.50827 Y-2.86575
G01 X6.50827 Y-2.83425
G01 X6.53976 Y-2.83425
G01 X6.53995 Y-2.83642
G01 X6.54051 Y-2.83827
G01 X6.54142 Y-2.83997
G01 X6.54265 Y-2.84146
G01 X6.54414 Y-2.84268
G01 X6.54584 Y-2.84359
G01 X6.54769 Y-2.84415
G01 X6.54961 Y-2.84434
G01 X6.57353 Y-2.84434
G01 X6.57511 Y-2.84450
G01 X6.57616 Y-2.84482
G01 X6.57713 Y-2.84533
G01 X6.57836 Y-2.84634
G01 X6.65258 Y-2.92056
G01 X6.65411 Y-2.92181
G01 X6.65585 Y-2.92273
G01 X6.65775 Y-2.92328
G01 X6.65971 Y-2.92345
G01 X6.66167 Y-2.92321
G01 X6.66491 Y-2.92199
G01 X6.67094 Y-2.92071
G01 X6.67709 Y-2.92071
G01 X6.68312 Y-2.92199
G01 X6.68874 Y-2.92449
G01 X6.69372 Y-2.92811
G01 X6.69784 Y-2.93269
G01 X6.70092 Y-2.93802
G01 X6.70282 Y-2.94388
G01 X6.70347 Y-2.95000
G01 X6.70282 Y-2.95612
G01 X6.70092 Y-2.96198
G01 X6.69784 Y-2.96731
G01 X6.69372 Y-2.97189
G01 X6.68874 Y-2.97551
G01 X6.68312 Y-2.97801
G01 X6.67709 Y-2.97929
G01 X6.67094 Y-2.97929
G01 X6.66491 Y-2.97801
G01 X6.65929 Y-2.97551
G01 X6.65431 Y-2.97189
G01 X6.65019 Y-2.96731
G01 X6.64711 Y-2.96198
G01 X6.64521 Y-2.95612
G01 X6.64456 Y-2.95000
G01 X6.64521 Y-2.94388
G01 X6.64694 Y-2.93853
G01 X6.64734 Y-2.93677
G01 X6.64741 Y-2.93497
G01 X6.64715 Y-2.93319
G01 X6.64657 Y-2.93148
G01 X6.64569 Y-2.92991
G01 X6.64454 Y-2.92853
G01 X6.57455 Y-2.85854
G01 X6.57306 Y-2.85732
G01 X6.57136 Y-2.85641
G01 X6.56951 Y-2.85585
G01 X6.56759 Y-2.85566
G01 X6.54961 Y-2.85566
G01 X6.54769 Y-2.85585
G01 X6.54584 Y-2.85641
G01 X6.54414 Y-2.85732
G01 X6.54265 Y-2.85854
G01 X6.54142 Y-2.86003
G01 X6.54051 Y-2.86173
G01 X6.53995 Y-2.86358
G01 X6.53976 Y-2.86575
G01 X6.53759 Y-2.86594
G01 X6.53575 Y-2.86650
G01 X6.53405 Y-2.86741
G01 X6.53256 Y-2.86863
G01 X6.53133 Y-2.87012
G01 X6.53042 Y-2.87182
G01 X6.52986 Y-2.87367
G01 X6.52967 Y-2.87559
G01 X6.52967 Y-2.90611
G01 X6.52952 Y-2.90768
G01 X6.52920 Y-2.90874
G01 X6.52868 Y-2.90971
G01 X6.52767 Y-2.91093
G01 X6.39784 Y-3.04076
G01 X6.39662 Y-3.04225
G01 X6.39571 Y-3.04396
G01 X6.39515 Y-3.04580
G01 X6.39496 Y-3.04772
G01 X6.39496 Y-3.23450
G01 X6.39515 Y-3.23642
G01 X6.39571 Y-3.23827
G01 X6.39662 Y-3.23997
G01 X6.39784 Y-3.24146
G01 X6.39933 Y-3.24268
G01 X6.40104 Y-3.24359
G01 X6.40288 Y-3.24415
G01 X6.40480 Y-3.24434
G01 X6.42974 Y-3.24434
G01 X6.43159 Y-3.24417
G01 X6.43337 Y-3.24365
G01 X6.43502 Y-3.24281
G01 X6.43648 Y-3.24167
G01 X6.43771 Y-3.24029
G01 X6.43924 Y-3.23818
G01 X6.44198 Y-3.23571
G01 X6.44518 Y-3.23386
G01 X6.44869 Y-3.23272
G01 X6.45288 Y-3.23228
G01 X6.49515 Y-3.23228
G01 X6.49934 Y-3.23272
G01 X6.50285 Y-3.23386
G01 X6.50605 Y-3.23571
G01 X6.50879 Y-3.23818
G01 X6.51096 Y-3.24117
G01 X6.51247 Y-3.24454
G01 X6.51323 Y-3.24815
G01 X6.51323 Y-3.25185
G01 X6.51247 Y-3.25546
G01 X6.51096 Y-3.25883
G01 X6.50879 Y-3.26182
G01 X6.50605 Y-3.26429
G01 X6.50285 Y-3.26613
G01 X6.49934 Y-3.26728
G01 X6.49515 Y-3.26772
G01 X6.45288 Y-3.26772
G01 X6.44869 Y-3.26728
G01 X6.44518 Y-3.26613
G01 X6.44198 Y-3.26429
G01 X6.43924 Y-3.26182
G01 X6.43771 Y-3.25971
G01 X6.43648 Y-3.25833
G01 X6.43502 Y-3.25719
G01 X6.43337 Y-3.25635
G01 X6.43159 Y-3.25583
G01 X6.42974 Y-3.25566
G01 X6.39429 Y-3.25566
G01 X6.39271 Y-3.25550
G01 X6.39165 Y-3.25518
G01 X6.39068 Y-3.25466
G01 X6.38946 Y-3.25366
G01 X6.38564 Y-3.24984
G01 X6.38464 Y-3.24862
G01 X6.38412 Y-3.24764
G01 X6.38380 Y-3.24659
G01 X6.38364 Y-3.24501
G01 X6.45381 Y-3.25000
G01 X6.49425 Y-3.25000
G04 P0 ( dwell for no time -- G64 should not smooth over this point )
G00 Z0.08000 ( retract )

G00 X6.49425 Y-3.32874 ( rapid move to begin. )
G01 F180.00000
( Mill infeed pass 1/1 )
G01 Z-0.04000
G04 P0 ( dwell for no time -- G64 should not smooth over this point )
G01 F360.00000
G01 X6.49425 Y-3.32874
G01 X6.45378 Y-3.32874
G04 P0 ( dwell for no time -- G64 should not smooth over this point )
G00 Z0.08000 ( retract )

G00 X6.11432 Y-3.30000 ( rapid move to begin. )
G01 F180.00000
( Mill infeed pass 1/1 )
G01 Z-0.04000
G04 P0 ( dwell for no time -- G64 should not smooth over this point )
G01 F360.00000
G01 X6.11432 Y-3.30000
G01 X6.11453 Y-3.30201
G01 X6.11516 Y-3.30394
G01 X6.11480 Y-3.30410
G01 X6.11516 Y-3.30394
G01 X6.11617 Y-3.30570
G01 X6.11753 Y-3.30720
G01 X6.11726 Y-3.30750
G01 X6.11753 Y-3.30720
G01 X6.11917 Y-3.30839
G01 X6.12102 Y-3.30922
G01 X6.12090 Y-3.30959
G01 X6.12102 Y-3.30922
G01 X6.12300 Y-3.30964
G01 X6.12503 Y-3.30964
G01 X6.12504 Y-3.30990
G01 X6.12503 Y-3.30964
G01 X6.12843 Y-3.30892
G01 X6.13081 Y-3.30813
G01 X6.13193 Y-3.30800
G01 X6.13419 Y-3.31023
G01 X6.13193 Y-3.30800
G01 X6.13279 Y-3.30419
G01 X6.13350 Y-3.30201
G01 X6.13371 Y-3.30000
G01 X6.13412 Y-3.30000
G01 X6.13371 Y-3.30000
G01 X6.13350 Y-3.29798
G01 X6.13287 Y-3.29606
G01 X6.13323 Y-3.29590
G01 X6.13287 Y-3.29606
G01 X6.13186 Y-3.29430
G01 X6.13050 Y-3.29280
G01 X6.13076 Y-3.29250
G01 X6.13050 Y-3.29280
G01 X6.12886 Y-3.29161
G01 X6.12701 Y-3.29078
G01 X6.12713 Y-3.29040
G01 X6.12701 Y-3.29078
G01 X6.12503 Y-3.29036
G01 X6.12300 Y-3.29036
G01 X6.12299 Y-3.29014
G01 X6.12300 Y-3.29036
G01 X6.12102 Y-3.29078
G01 X6.12094 Y-3.29057
G01 X6.12102 Y-3.29078
G01 X6.11917 Y-3.29161
G01 X6.11753 Y-3.29280
G01 X6.11726 Y-3.29250
G01 X6.11753 Y-3.29280
G01 X6.11617 Y-3.29430
G01 X6.11516 Y-3.29606
G01 X6.11480 Y-3.29590
G01 X6.11516 Y-3.29606
G01 X6.11453 Y-3.29798
G01 X6.11432 Y-3.30000
G01 X6.09651 Y-3.30000
G01 X6.09711 Y-3.30572
G01 X6.09889 Y-3.31119
G01 X6.10176 Y-3.31617
G01 X6.10561 Y-3.32044
G01 X6.11026 Y-3.32382
G01 X6.11551 Y-3.32616
G01 X6.12114 Y-3.32735
G01 X6.12689 Y-3.32735
G01 X6.13251 Y-3.32616
G01 X6.13465 Y-3.32543
G01 X6.13660 Y-3.32519
G01 X6.13857 Y-3.32536
G01 X6.14046 Y-3.32591
G01 X6.14221 Y-3.32683
G01 X6.14374 Y-3.32808
G01 X6.14824 Y-3.33257
G01 X6.14950 Y-3.33361
G01 X6.15051 Y-3.33415
G01 X6.15161 Y-3.33449
G01 X6.15324 Y-3.33465
G01 X6.42993 Y-3.33465
G01 X6.43177 Y-3.33482
G01 X6.43355 Y-3.33534
G01 X6.43520 Y-3.33618
G01 X6.43666 Y-3.33731
G01 X6.43924 Y-3.34056
G01 X6.44198 Y-3.34303
G01 X6.44518 Y-3.34488
G01 X6.44869 Y-3.34602
G01 X6.45288 Y-3.34646
G01 X6.49515 Y-3.34646
G01 X6.49934 Y-3.34602
G01 X6.50285 Y-3.34488
G01 X6.50605 Y-3.34303
G01 X6.50879 Y-3.34056
G01 X6.51096 Y-3.33757
G01 X6.51247 Y-3.33420
G01 X6.51323 Y-3.33059
G01 X6.51323 Y-3.32689
G01 X6.51247 Y-3.32328
G01 X6.51096 Y-3.31991
G01 X6.50879 Y-3.31692
G01 X6.50605 Y-3.31445
G01 X6.50285 Y-3.31260
G01 X6.49934 Y-3.31146
G01 X6.49515 Y-3.31102
G01 X6.45288 Y-3.31102
G01 X6.44869 Y-3.31146
G01 X6.44518 Y-3.31260
G01 X6.44198 Y-3.31445
G01 X6.43924 Y-3.31692
G01 X6.43666 Y-3.32016
G01 X6.43520 Y-3.32130
G01 X6.43355 Y-3.32214
G01 X6.43177 Y-3.32266
G01 X6.42993 Y-3.32283
G01 X6.15928 Y-3.32283
G01 X6.15736 Y-3.32264
G01 X6.15551 Y-3.32208
G01 X6.15381 Y-3.32117
G01 X6.15232 Y-3.31995
G01 X6.15089 Y-3.31828
G01 X6.15000 Y-3.31671
G01 X6.14943 Y-3.31501
G01 X6.14917 Y-3.31322
G01 X6.14924 Y-3.31142
G01 X6.14964 Y-3.30967
G01 X6.15092 Y-3.30572
G01 X6.15152 Y-3.30000
G01 X6.15092 Y-3.29428
G01 X6.14914 Y-3.28881
G01 X6.14627 Y-3.28383
G01 X6.14242 Y-3.27956
G01 X6.13777 Y-3.27618
G01 X6.13251 Y-3.27384
G01 X6.12689 Y-3.27264
G01 X6.12114 Y-3.27264
G01 X6.11551 Y-3.27384
G01 X6.11026 Y-3.27618
G01 X6.10561 Y-3.27956
G01 X6.10176 Y-3.28383
G01 X6.09889 Y-3.28881
G01 X6.09711 Y-3.29428
G01 X6.09651 Y-3.30000
G04 P0 ( dwell for no time -- G64 should not smooth over this point )
G00 Z0.08000 ( retract )

G00 X6.03905 Y-3.31700 ( rapid move to begin. )
G01 F180.00000
( Mill infeed pass 1/1 )
G01 Z-0.04000
G04 P0 ( dwell for no time -- G64 should not smooth over this point )
G01 F360.00000
G01 X6.03905 Y-3.31700
G01 X6.03386 Y-3.31181
G01 X6.03386 Y-3.28819
G01 X6.03905 Y-3.28300
G01 X6.03386 Y-3.28819
G01 X6.01381 Y-3.28819
G01 X6.01090 Y-3.28445
G01 X6.01381 Y-3.28819
G01 X6.01364 Y-3.28987
G01 X6.01207 Y-3.29505
G01 X6.00953 Y-3.29981
G01 X6.00937 Y-3.30000
G01 X6.00691 Y-3.30000
G01 X6.00937 Y-3.30000
G01 X6.00953 Y-3.30019
G01 X6.01207 Y-3.30495
G01 X6.01364 Y-3.31012
G01 X6.01381 Y-3.31181
G01 X6.01090 Y-3.31555
G01 X6.01381 Y-3.31181
G01 X6.03386 Y-3.31181
G04 P0 ( dwell for no time -- G64 should not smooth over this point )
G00 Z0.08000 ( retract )

G00 X5.81417 Y-3.28819 ( rapid move to begin. )
G01 F180.00000
( Mill infeed pass 1/1 )
G01 Z-0.04000
G04 P0 ( dwell for no time -- G64 should not smooth over this point )
G01 F360.00000
G01 X5.81417 Y-3.28819
G01 X5.81417 Y-3.31243
G01 X5.81068 Y-3.31501
G01 X5.81417 Y-3.31243
G01 X5.81906 Y-3.31391
G01 X5.82402 Y-3.31661
G01 X5.82402 Y-3.31908
G01 X5.82402 Y-3.31661
G01 X5.82897 Y-3.31391
G01 X5.83417 Y-3.31234
G01 X5.83613 Y-3.31419
G01 X5.83417 Y-3.31234
G01 X5.83439 Y-3.31012
G01 X5.83596 Y-3.30495
G01 X5.83866 Y-3.30000
G01 X5.84112 Y-3.30000
G01 X5.83866 Y-3.30000
G01 X5.83850 Y-3.29981
G01 X5.83596 Y-3.29505
G01 X5.83439 Y-3.28987
G01 X5.83422 Y-3.28819
G01 X5.83713 Y-3.28445
G01 X5.83422 Y-3.28819
G01 X5.81417 Y-3.28819
G01 X5.80898 Y-3.28300
G04 P0 ( dwell for no time -- G64 should not smooth over this point )
G00 Z0.08000 ( retract )

G00 X5.71351 Y-3.30388 ( rapid move to begin. )
G01 F180.00000
( Mill infeed pass 1/1 )
G01 Z-0.04000
G04 P0 ( dwell for no time -- G64 should not smooth over this point )
G01 F360.00000
G01 X5.71351 Y-3.30388
G01 X5.71416 Y-3.30426
G01 X5.71682 Y-3.30669
G01 X5.71917 Y-3.30839
G01 X5.71909 Y-3.30852
G01 X5.71917 Y-3.30839
G01 X5.72099 Y-3.30931
G01 X5.72300 Y-3.30964
G01 X5.72299 Y-3.30986
G01 X5.72300 Y-3.30964
G01 X5.72503 Y-3.30964
G01 X5.72701 Y-3.30922
G01 X5.72713 Y-3.30959
G01 X5.72701 Y-3.30922
G01 X5.72886 Y-3.30839
G01 X5.73050 Y-3.30720
G01 X5.73077 Y-3.30750
G01 X5.73050 Y-3.30720
G01 X5.73186 Y-3.30570
G01 X5.73287 Y-3.30394
G01 X5.73323 Y-3.30410
G01 X5.73287 Y-3.30394
G01 X5.73350 Y-3.30201
G01 X5.73371 Y-3.30000
G01 X5.73410 Y-3.30000
G01 X5.73371 Y-3.30000
G01 X5.73350 Y-3.29798
G01 X5.73287 Y-3.29606
G01 X5.73308 Y-3.29598
G01 X5.73287 Y-3.29606
G01 X5.73186 Y-3.29430
G01 X5.73203 Y-3.29416
G01 X5.73186 Y-3.29430
G01 X5.73050 Y-3.29280
G01 X5.72886 Y-3.29161
G01 X5.72906 Y-3.29126
G01 X5.72886 Y-3.29161
G01 X5.72701 Y-3.29078
G01 X5.72503 Y-3.29036
G01 X5.72507 Y-3.28997
G01 X5.72503 Y-3.29036
G01 X5.72300 Y-3.29036
G01 X5.72102 Y-3.29078
G01 X5.72090 Y-3.29040
G01 X5.72102 Y-3.29078
G01 X5.71917 Y-3.29161
G01 X5.71753 Y-3.29280
G01 X5.71726 Y-3.29250
G01 X5.71753 Y-3.29280
G01 X5.71617 Y-3.29430
G01 X5.71516 Y-3.29606
G01 X5.71480 Y-3.29589
G01 X5.71516 Y-3.29606
G01 X5.71453 Y-3.29798
G01 X5.71436 Y-3.29964
G01 X5.71351 Y-3.30388
G01 X5.71060 Y-3.30492
G04 P0 ( dwell for no time -- G64 should not smooth over this point )
G00 Z0.08000 ( retract )

G00 X5.39425 Y-3.17126 ( rapid move to begin. )
G01 F180.00000
( Mill infeed pass 1/1 )
G01 Z-0.04000
G04 P0 ( dwell for no time -- G64 should not smooth over this point )
G01 F360.00000
G01 X5.39425 Y-3.17126
G01 X5.35378 Y-3.17126
G01 X5.33480 Y-3.17311
G01 X5.33480 Y-3.16941
G01 X5.33556 Y-3.16580
G01 X5.33707 Y-3.16243
G01 X5.33924 Y-3.15944
G01 X5.34198 Y-3.15697
G01 X5.34518 Y-3.15512
G01 X5.34869 Y-3.15398
G01 X5.35288 Y-3.15354
G01 X5.39515 Y-3.15354
G01 X5.39934 Y-3.15398
G01 X5.40285 Y-3.15512
G01 X5.40605 Y-3.15697
G01 X5.40879 Y-3.15944
G01 X5.41137 Y-3.16268
G01 X5.41283 Y-3.16382
G01 X5.41448 Y-3.16466
G01 X5.41626 Y-3.16518
G01 X5.41810 Y-3.16535
G01 X6.01029 Y-3.16535
G01 X6.01222 Y-3.16516
G01 X6.01406 Y-3.16460
G01 X6.01576 Y-3.16369
G01 X6.01725 Y-3.16247
G01 X6.26522 Y-2.91450
G01 X6.26645 Y-2.91301
G01 X6.26736 Y-2.91131
G01 X6.26792 Y-2.90946
G01 X6.26811 Y-2.90754
G01 X6.26811 Y-2.85048
G01 X6.26827 Y-2.84886
G01 X6.26860 Y-2.84776
G01 X6.26914 Y-2.84674
G01 X6.26987 Y-2.84586
G01 X6.27076 Y-2.84513
G01 X6.27177 Y-2.84459
G01 X6.27287 Y-2.84425
G01 X6.27450 Y-2.84409
G01 X6.40552 Y-2.84409
G01 X6.40757 Y-2.84388
G01 X6.40953 Y-2.84324
G01 X6.41131 Y-2.84221
G01 X6.41284 Y-2.84084
G01 X6.41509 Y-2.83834
G01 X6.41774 Y-2.83641
G01 X6.42074 Y-2.83507
G01 X6.42395 Y-2.83439
G01 X6.42723 Y-2.83439
G01 X6.43044 Y-2.83507
G01 X6.43344 Y-2.83641
G01 X6.43609 Y-2.83834
G01 X6.43829 Y-2.84077
G01 X6.43993 Y-2.84362
G01 X6.44094 Y-2.84674
G01 X6.44128 Y-2.85000
G01 X6.44094 Y-2.85326
G01 X6.43993 Y-2.85638
G01 X6.43829 Y-2.85922
G01 X6.43609 Y-2.86166
G01 X6.43344 Y-2.86359
G01 X6.43044 Y-2.86492
G01 X6.42723 Y-2.86561
G01 X6.42395 Y-2.86561
G01 X6.42074 Y-2.86492
G01 X6.41774 Y-2.86359
G01 X6.41509 Y-2.86166
G01 X6.41284 Y-2.85916
G01 X6.41131 Y-2.85779
G01 X6.40953 Y-2.85676
G01 X6.40757 Y-2.85612
G01 X6.40552 Y-2.85591
G01 X6.28977 Y-2.85591
G01 X6.28785 Y-2.85610
G01 X6.28600 Y-2.85666
G01 X6.28430 Y-2.85757
G01 X6.28281 Y-2.85879
G01 X6.28158 Y-2.86028
G01 X6.28067 Y-2.86198
G01 X6.28011 Y-2.86383
G01 X6.27992 Y-2.86575
G01 X6.27991 Y-2.91417
G01 X6.28009 Y-2.91605
G01 X6.28063 Y-2.91785
G01 X6.28150 Y-2.91953
G01 X6.28267 Y-2.92101
G01 X6.28411 Y-2.92223
G01 X6.28575 Y-2.92316
G01 X6.28874 Y-2.92449
G01 X6.29372 Y-2.92811
G01 X6.29784 Y-2.93269
G01 X6.30092 Y-2.93802
G01 X6.30282 Y-2.94388
G01 X6.30347 Y-2.95000
G01 X6.30282 Y-2.95612
G01 X6.30092 Y-2.96198
G01 X6.29784 Y-2.96731
G01 X6.29372 Y-2.97189
G01 X6.28874 Y-2.97551
G01 X6.28312 Y-2.97801
G01 X6.27709 Y-2.97929
G01 X6.27094 Y-2.97929
G01 X6.26491 Y-2.97801
G01 X6.25929 Y-2.97551
G01 X6.25431 Y-2.97189
G01 X6.25019 Y-2.96731
G01 X6.24889 Y-2.96507
G01 X6.24772 Y-2.96344
G01 X6.24624 Y-2.96209
G01 X6.24453 Y-2.96107
G01 X6.24264 Y-2.96041
G01 X6.24065 Y-2.96015
G01 X6.23866 Y-2.96029
G01 X6.23673 Y-2.96084
G01 X6.23496 Y-2.96176
G01 X6.23341 Y-2.96303
G01 X6.02134 Y-3.17509
G01 X6.02007 Y-3.17613
G01 X6.01906 Y-3.17667
G01 X6.01796 Y-3.17701
G01 X6.01634 Y-3.17717
G01 X5.41810 Y-3.17717
G01 X5.41626 Y-3.17734
G01 X5.41448 Y-3.17786
G01 X5.41283 Y-3.17870
G01 X5.41137 Y-3.17983
G01 X5.40879 Y-3.18308
G01 X5.40605 Y-3.18555
G01 X5.40285 Y-3.18739
G01 X5.39934 Y-3.18854
G01 X5.39515 Y-3.18898
G01 X5.35288 Y-3.18898
G01 X5.34869 Y-3.18854
G01 X5.34518 Y-3.18739
G01 X5.34198 Y-3.18555
G01 X5.33924 Y-3.18308
G01 X5.33707 Y-3.18009
G01 X5.33556 Y-3.17672
G01 X5.33480 Y-3.17311
G04 P0 ( dwell for no time -- G64 should not smooth over this point )
G00 Z0.08000 ( retract )

G00 X5.35378 Y-3.25000 ( rapid move to begin. )
G01 F180.00000
( Mill infeed pass 1/1 )
G01 Z-0.04000
G04 P0 ( dwell for no time -- G64 should not smooth over this point )
G01 F360.00000
G01 X5.35378 Y-3.25000
G01 X5.39425 Y-3.25000
G04 P0 ( dwell for no time -- G64 should not smooth over this point )
G00 Z0.08000 ( retract )

G00 X5.39425 Y-3.32874 ( rapid move to begin. )
G01 F180.00000
( Mill infeed pass 1/1 )
G01 Z-0.04000
G04 P0 ( dwell for no time -- G64 should not smooth over this point )
G01 F360.00000
G01 X5.39425 Y-3.32874
G01 X5.35381 Y-3.32874
G01 X5.33480 Y-3.33059
G01 X5.33480 Y-3.32689
G01 X5.33556 Y-3.32328
G01 X5.33707 Y-3.31991
G01 X5.33924 Y-3.31692
G01 X5.34198 Y-3.31445
G01 X5.34518 Y-3.31260
G01 X5.34869 Y-3.31146
G01 X5.35288 Y-3.31102
G01 X5.39515 Y-3.31102
G01 X5.39934 Y-3.31146
G01 X5.40285 Y-3.31260
G01 X5.40605 Y-3.31445
G01 X5.40879 Y-3.31692
G01 X5.41137 Y-3.32016
G01 X5.41283 Y-3.32130
G01 X5.41448 Y-3.32214
G01 X5.41626 Y-3.32266
G01 X5.41810 Y-3.32283
G01 X5.64249 Y-3.32283
G01 X5.64420 Y-3.32268
G01 X5.64586 Y-3.32224
G01 X5.69033 Y-3.30601
G01 X5.69198 Y-3.30522
G01 X5.69346 Y-3.30415
G01 X5.69471 Y-3.30282
G01 X5.69570 Y-3.30128
G01 X5.69638 Y-3.29958
G01 X5.69674 Y-3.29779
G01 X5.69711 Y-3.29428
G01 X5.69889 Y-3.28881
G01 X5.70176 Y-3.28383
G01 X5.70561 Y-3.27956
G01 X5.71026 Y-3.27618
G01 X5.71552 Y-3.27384
G01 X5.72114 Y-3.27264
G01 X5.72689 Y-3.27264
G01 X5.73251 Y-3.27384
G01 X5.73777 Y-3.27618
G01 X5.74242 Y-3.27956
G01 X5.74627 Y-3.28383
G01 X5.74914 Y-3.28881
G01 X5.75092 Y-3.29428
G01 X5.75152 Y-3.30000
G01 X5.75092 Y-3.30572
G01 X5.74914 Y-3.31119
G01 X5.74627 Y-3.31617
G01 X5.74242 Y-3.32044
G01 X5.73777 Y-3.32382
G01 X5.73251 Y-3.32616
G01 X5.72689 Y-3.32735
G01 X5.72114 Y-3.32735
G01 X5.71552 Y-3.32616
G01 X5.71026 Y-3.32382
G01 X5.70561 Y-3.32044
G01 X5.70358 Y-3.31847
G01 X5.70191 Y-3.31747
G01 X5.70008 Y-3.31682
G01 X5.69816 Y-3.31654
G01 X5.69621 Y-3.31664
G01 X5.69433 Y-3.31712
G01 X5.64770 Y-3.33414
G01 X5.64630 Y-3.33452
G01 X5.64484 Y-3.33465
G01 X5.41810 Y-3.33465
G01 X5.41626 Y-3.33482
G01 X5.41448 Y-3.33534
G01 X5.41283 Y-3.33618
G01 X5.41137 Y-3.33731
G01 X5.40879 Y-3.34056
G01 X5.40605 Y-3.34303
G01 X5.40285 Y-3.34488
G01 X5.39934 Y-3.34602
G01 X5.39515 Y-3.34646
G01 X5.35288 Y-3.34646
G01 X5.34869 Y-3.34602
G01 X5.34518 Y-3.34488
G01 X5.34198 Y-3.34303
G01 X5.33924 Y-3.34056
G01 X5.33707 Y-3.33757
G01 X5.33556 Y-3.33420
G01 X5.33480 Y-3.33059
G04 P0 ( dwell for no time -- G64 should not smooth over this point )
G00 Z0.08000 ( retract )

G00 X5.13651 Y-3.21714 ( rapid move to begin. )
G01 F180.00000
( Mill infeed pass 1/1 )
G01 Z-0.04000
G04 P0 ( dwell for no time -- G64 should not smooth over this point )
G01 F360.00000
G01 X5.13651 Y-3.21714
G01 X5.13666 Y-3.21872
G01 X5.13698 Y-3.21977
G01 X5.13750 Y-3.22074
G01 X5.13851 Y-3.22196
G01 X5.31900 Y-3.40246
G01 X5.32022 Y-3.40346
G01 X5.32119 Y-3.40398
G01 X5.32225 Y-3.40430
G01 X5.32382 Y-3.40446
G01 X5.79510 Y-3.40446
G01 X5.79668 Y-3.40430
G01 X5.79773 Y-3.40398
G01 X5.79870 Y-3.40346
G01 X5.79993 Y-3.40246
G01 X5.82767 Y-3.37471
G01 X5.82868 Y-3.37349
G01 X5.82920 Y-3.37252
G01 X5.82952 Y-3.37146
G01 X5.82967 Y-3.36989
G01 X5.82967 Y-3.33937
G01 X5.82986 Y-3.33745
G01 X5.83042 Y-3.33560
G01 X5.83133 Y-3.33390
G01 X5.83256 Y-3.33241
G01 X5.83405 Y-3.33119
G01 X5.83575 Y-3.33028
G01 X5.83759 Y-3.32972
G01 X5.83952 Y-3.32953
G01 X5.85157 Y-3.32953
G01 X5.85157 Y-3.31550
G01 X5.85176 Y-3.31358
G01 X5.85232 Y-3.31173
G01 X5.85323 Y-3.31003
G01 X5.85446 Y-3.30854
G01 X5.85595 Y-3.30732
G01 X5.85765 Y-3.30641
G01 X5.85950 Y-3.30585
G01 X5.86142 Y-3.30566
G01 X5.98661 Y-3.30566
G01 X5.98853 Y-3.30585
G01 X5.99038 Y-3.30641
G01 X5.99208 Y-3.30732
G01 X5.99357 Y-3.30854
G01 X5.99480 Y-3.31003
G01 X5.99571 Y-3.31173
G01 X5.99627 Y-3.31358
G01 X5.99645 Y-3.31550
G01 X5.99645 Y-3.32953
G01 X6.05157 Y-3.32953
G01 X6.05157 Y-3.27047
G01 X5.99645 Y-3.27047
G01 X5.99645 Y-3.28450
G01 X5.99627 Y-3.28642
G01 X5.99571 Y-3.28827
G01 X5.99480 Y-3.28997
G01 X5.99357 Y-3.29146
G01 X5.99208 Y-3.29268
G01 X5.99038 Y-3.29359
G01 X5.98853 Y-3.29415
G01 X5.98661 Y-3.29434
G01 X5.86142 Y-3.29434
G01 X5.85950 Y-3.29415
G01 X5.85765 Y-3.29359
G01 X5.85595 Y-3.29268
G01 X5.85446 Y-3.29146
G01 X5.85323 Y-3.28997
G01 X5.85232 Y-3.28827
G01 X5.85176 Y-3.28642
G01 X5.85157 Y-3.28450
G01 X5.85157 Y-3.27047
G01 X5.79646 Y-3.27047
G01 X5.79646 Y-3.32953
G01 X5.80852 Y-3.32953
G01 X5.81044 Y-3.32972
G01 X5.81228 Y-3.33028
G01 X5.81398 Y-3.33119
G01 X5.81547 Y-3.33241
G01 X5.81670 Y-3.33390
G01 X5.81761 Y-3.33560
G01 X5.81817 Y-3.33745
G01 X5.81836 Y-3.33937
G01 X5.81836 Y-3.36395
G01 X5.81817 Y-3.36587
G01 X5.81761 Y-3.36772
G01 X5.81670 Y-3.36942
G01 X5.81547 Y-3.37091
G01 X5.79612 Y-3.39026
G01 X5.79463 Y-3.39148
G01 X5.79293 Y-3.39239
G01 X5.79108 Y-3.39295
G01 X5.78916 Y-3.39314
G01 X5.32976 Y-3.39314
G01 X5.32784 Y-3.39295
G01 X5.32599 Y-3.39239
G01 X5.32429 Y-3.39148
G01 X5.32280 Y-3.39026
G01 X5.15070 Y-3.21816
G01 X5.14948 Y-3.21667
G01 X5.14857 Y-3.21497
G01 X5.14801 Y-3.21312
G01 X5.14782 Y-3.21120
G01 X5.14782 Y-2.81713
G01 X5.14801 Y-2.81521
G01 X5.14857 Y-2.81336
G01 X5.14948 Y-2.81166
G01 X5.15070 Y-2.81017
G01 X5.18419 Y-2.77669
G01 X5.18568 Y-2.77547
G01 X5.18738 Y-2.77455
G01 X5.18923 Y-2.77400
G01 X5.19115 Y-2.77381
G01 X5.54648 Y-2.77381
G01 X5.54806 Y-2.77365
G01 X5.54911 Y-2.77333
G01 X5.55008 Y-2.77281
G01 X5.55131 Y-2.77181
G01 X5.68858 Y-2.63454
G01 X5.69007 Y-2.63332
G01 X5.69177 Y-2.63241
G01 X5.69362 Y-2.63185
G01 X5.69554 Y-2.63166
G01 X5.72012 Y-2.63166
G01 X5.72204 Y-2.63185
G01 X5.72388 Y-2.63241
G01 X5.72558 Y-2.63332
G01 X5.72707 Y-2.63454
G01 X5.72830 Y-2.63603
G01 X5.72921 Y-2.63773
G01 X5.72977 Y-2.63958
G01 X5.72996 Y-2.64150
G01 X5.72996 Y-2.68506
G01 X5.84807 Y-2.68506
G01 X5.84807 Y-2.57902
G01 X5.84826 Y-2.57710
G01 X5.84882 Y-2.57525
G01 X5.84973 Y-2.57355
G01 X5.85096 Y-2.57206
G01 X5.89816 Y-2.52486
G01 X5.89965 Y-2.52364
G01 X5.90135 Y-2.52273
G01 X5.90319 Y-2.52217
G01 X5.90512 Y-2.52198
G01 X5.90704 Y-2.52217
G01 X5.90888 Y-2.52273
G01 X5.91058 Y-2.52364
G01 X5.91207 Y-2.52486
G01 X5.91330 Y-2.52635
G01 X5.91421 Y-2.52805
G01 X5.91477 Y-2.52990
G01 X5.91496 Y-2.53182
G01 X5.91496 Y-2.56696
G01 X6.03307 Y-2.56696
G01 X6.03307 Y-2.44884
G01 X5.91496 Y-2.44884
G01 X5.91496 Y-2.49260
G01 X5.91474 Y-2.49465
G01 X5.91410 Y-2.49662
G01 X5.91306 Y-2.49840
G01 X5.91167 Y-2.49993
G01 X5.91000 Y-2.50114
G01 X5.90810 Y-2.50197
G01 X5.90497 Y-2.50272
G01 X5.90400 Y-2.50324
G01 X5.90277 Y-2.50424
G01 X5.84295 Y-2.56406
G01 X5.84146 Y-2.56528
G01 X5.83976 Y-2.56619
G01 X5.83791 Y-2.56675
G01 X5.83599 Y-2.56694
G01 X5.72996 Y-2.56694
G01 X5.72996 Y-2.61050
G01 X5.72977 Y-2.61242
G01 X5.72921 Y-2.61427
G01 X5.72830 Y-2.61597
G01 X5.72707 Y-2.61746
G01 X5.72558 Y-2.61868
G01 X5.72388 Y-2.61959
G01 X5.72204 Y-2.62015
G01 X5.72012 Y-2.62034
G01 X5.68960 Y-2.62034
G01 X5.68802 Y-2.62050
G01 X5.68697 Y-2.62082
G01 X5.68600 Y-2.62134
G01 X5.68477 Y-2.62234
G01 X5.54750 Y-2.75961
G01 X5.54601 Y-2.76083
G01 X5.54431 Y-2.76174
G01 X5.54246 Y-2.76230
G01 X5.54054 Y-2.76249
G01 X5.18521 Y-2.76249
G01 X5.18363 Y-2.76265
G01 X5.18258 Y-2.76297
G01 X5.18161 Y-2.76348
G01 X5.18038 Y-2.76449
G01 X5.13851 Y-2.80637
G01 X5.13750 Y-2.80759
G01 X5.13698 Y-2.80856
G01 X5.13666 Y-2.80962
G01 X5.13651 Y-2.81119
G01 X5.13651 Y-3.21714
G04 P0 ( dwell for no time -- G64 should not smooth over this point )
G00 Z0.08000 ( retract )

G00 X5.19456 Y-2.95000 ( rapid move to begin. )
G01 F180.00000
( Mill infeed pass 1/1 )
G01 Z-0.04000
G04 P0 ( dwell for no time -- G64 should not smooth over this point )
G01 F360.00000
G01 X5.19456 Y-2.95000
G01 X5.19521 Y-2.94388
G01 X5.19711 Y-2.93802
G01 X5.20019 Y-2.93269
G01 X5.20431 Y-2.92811
G01 X5.20929 Y-2.92449
G01 X5.21491 Y-2.92199
G01 X5.22094 Y-2.92071
G01 X5.22709 Y-2.92071
G01 X5.23312 Y-2.92199
G01 X5.23636 Y-2.92321
G01 X5.23832 Y-2.92345
G01 X5.24028 Y-2.92328
G01 X5.24218 Y-2.92273
G01 X5.24392 Y-2.92181
G01 X5.24545 Y-2.92056
G01 X5.31967 Y-2.84634
G01 X5.32090 Y-2.84533
G01 X5.32187 Y-2.84482
G01 X5.32292 Y-2.84450
G01 X5.32450 Y-2.84434
G01 X5.34842 Y-2.84434
G01 X5.35034 Y-2.84415
G01 X5.35219 Y-2.84359
G01 X5.35389 Y-2.84268
G01 X5.35538 Y-2.84146
G01 X5.35661 Y-2.83997
G01 X5.35752 Y-2.83827
G01 X5.35808 Y-2.83642
G01 X5.35827 Y-2.83425
G01 X5.38976 Y-2.83425
G01 X5.38976 Y-2.86575
G01 X5.35827 Y-2.86575
G01 X5.35808 Y-2.86358
G01 X5.35752 Y-2.86173
G01 X5.35661 Y-2.86003
G01 X5.35538 Y-2.85854
G01 X5.35389 Y-2.85732
G01 X5.35219 Y-2.85641
G01 X5.35034 Y-2.85585
G01 X5.34842 Y-2.85566
G01 X5.33044 Y-2.85566
G01 X5.32852 Y-2.85585
G01 X5.32667 Y-2.85641
G01 X5.32497 Y-2.85732
G01 X5.32348 Y-2.85854
G01 X5.25349 Y-2.92853
G01 X5.25234 Y-2.92991
G01 X5.25146 Y-2.93148
G01 X5.25088 Y-2.93319
G01 X5.25062 Y-2.93497
G01 X5.25069 Y-2.93677
G01 X5.25109 Y-2.93853
G01 X5.25282 Y-2.94388
G01 X5.25347 Y-2.95000
G01 X5.25282 Y-2.95612
G01 X5.25092 Y-2.96198
G01 X5.24784 Y-2.96731
G01 X5.24372 Y-2.97189
G01 X5.23874 Y-2.97551
G01 X5.23551 Y-2.97695
G01 X5.23387 Y-2.97787
G01 X5.23243 Y-2.97910
G01 X5.23126 Y-2.98058
G01 X5.23039 Y-2.98225
G01 X5.22985 Y-2.98406
G01 X5.22967 Y-2.98594
G01 X5.22967 Y-3.17379
G01 X5.22986 Y-3.17571
G01 X5.23042 Y-3.17756
G01 X5.23133 Y-3.17926
G01 X5.23256 Y-3.18075
G01 X5.29326 Y-3.24146
G01 X5.29475 Y-3.24268
G01 X5.29646 Y-3.24359
G01 X5.29830 Y-3.24415
G01 X5.30022 Y-3.24434
G01 X5.32974 Y-3.24434
G01 X5.33159 Y-3.24417
G01 X5.33337 Y-3.24365
G01 X5.33502 Y-3.24281
G01 X5.33648 Y-3.24167
G01 X5.33771 Y-3.24029
G01 X5.33924 Y-3.23818
G01 X5.34198 Y-3.23571
G01 X5.34518 Y-3.23386
G01 X5.34869 Y-3.23272
G01 X5.35288 Y-3.23228
G01 X5.39515 Y-3.23228
G01 X5.39934 Y-3.23272
G01 X5.40285 Y-3.23386
G01 X5.40605 Y-3.23571
G01 X5.40879 Y-3.23818
G01 X5.41096 Y-3.24117
G01 X5.41247 Y-3.24454
G01 X5.41323 Y-3.24815
G01 X5.41323 Y-3.25185
G01 X5.41247 Y-3.25546
G01 X5.41096 Y-3.25883
G01 X5.40879 Y-3.26182
G01 X5.40605 Y-3.26429
G01 X5.40285 Y-3.26613
G01 X5.39934 Y-3.26728
G01 X5.39515 Y-3.26772
G01 X5.35288 Y-3.26772
G01 X5.34869 Y-3.26728
G01 X5.34518 Y-3.26613
G01 X5.34198 Y-3.26429
G01 X5.33924 Y-3.26182
G01 X5.33771 Y-3.25971
G01 X5.33648 Y-3.25833
G01 X5.33502 Y-3.25719
G01 X5.33337 Y-3.25635
G01 X5.33159 Y-3.25583
G01 X5.32974 Y-3.25566
G01 X5.29429 Y-3.25566
G01 X5.29271 Y-3.25550
G01 X5.29166 Y-3.25518
G01 X5.29069 Y-3.25466
G01 X5.28946 Y-3.25366
G01 X5.22036 Y-3.18455
G01 X5.21935 Y-3.18333
G01 X5.21883 Y-3.18236
G01 X5.21851 Y-3.18131
G01 X5.21836 Y-3.17973
G01 X5.21836 Y-2.98594
G01 X5.21818 Y-2.98406
G01 X5.21764 Y-2.98225
G01 X5.21677 Y-2.98058
G01 X5.21560 Y-2.97910
G01 X5.21416 Y-2.97787
G01 X5.21252 Y-2.97695
G01 X5.20929 Y-2.97551
G01 X5.20431 Y-2.97189
G01 X5.20019 Y-2.96731
G01 X5.19711 Y-2.96198
G01 X5.19521 Y-2.95612
G01 X5.19456 Y-2.95000
G01 X5.21237 Y-2.95000
G01 X5.21263 Y-2.94758
G01 X5.21224 Y-2.94750
G01 X5.21263 Y-2.94758
G01 X5.21338 Y-2.94526
G01 X5.21460 Y-2.94316
G01 X5.21428 Y-2.94292
G01 X5.21460 Y-2.94316
G01 X5.21623 Y-2.94135
G01 X5.21819 Y-2.93992
G01 X5.21800 Y-2.93958
G01 X5.21819 Y-2.93992
G01 X5.22042 Y-2.93893
G01 X5.22280 Y-2.93842
G01 X5.22276 Y-2.93820
G01 X5.22280 Y-2.93842
G01 X5.22523 Y-2.93842
G01 X5.22525 Y-2.93827
G01 X5.22523 Y-2.93842
G01 X5.22794 Y-2.93900
G01 X5.23252 Y-2.94051
G01 X5.23348 Y-2.94062
G01 X5.23559 Y-2.93857
G01 X5.23348 Y-2.94062
G01 X5.23424 Y-2.94400
G01 X5.23540 Y-2.94758
G01 X5.23566 Y-2.95000
G01 X5.23609 Y-2.94999
G01 X5.23566 Y-2.95000
G01 X5.23540 Y-2.95242
G01 X5.23465 Y-2.95473
G01 X5.23486 Y-2.95481
G01 X5.23465 Y-2.95473
G01 X5.23343 Y-2.95684
G01 X5.23361 Y-2.95698
G01 X5.23343 Y-2.95684
G01 X5.23180 Y-2.95865
G01 X5.22984 Y-2.96008
G01 X5.22991 Y-2.96019
G01 X5.22984 Y-2.96008
G01 X5.22831 Y-2.96076
G01 X5.22402 Y-2.96319
G01 X5.22402 Y-2.96556
G01 X5.22402 Y-2.96319
G01 X5.21972 Y-2.96076
G01 X5.21819 Y-2.96008
G01 X5.21812 Y-2.96019
G01 X5.21819 Y-2.96008
G01 X5.21623 Y-2.95865
G01 X5.21460 Y-2.95684
G01 X5.21428 Y-2.95708
G01 X5.21460 Y-2.95684
G01 X5.21338 Y-2.95473
G01 X5.21263 Y-2.95242
G01 X5.21224 Y-2.95250
G01 X5.21263 Y-2.95242
G01 X5.21237 Y-2.95000
G04 P0 ( dwell for no time -- G64 should not smooth over this point )
G00 Z0.08000 ( retract )

G00 X5.45675 Y-2.85000 ( rapid move to begin. )
G01 F180.00000
( Mill infeed pass 1/1 )
G01 Z-0.04000
G04 P0 ( dwell for no time -- G64 should not smooth over this point )
G01 F360.00000
G01 X5.45675 Y-2.85000
G01 X5.45709 Y-2.85326
G01 X5.45810 Y-2.85638
G01 X5.45974 Y-2.85922
G01 X5.46194 Y-2.86166
G01 X5.46459 Y-2.86359
G01 X5.46759 Y-2.86492
G01 X5.47080 Y-2.86561
G01 X5.47436 Y-2.86561
G01 X5.47572 Y-2.86546
G01 X5.47766 Y-2.86563
G01 X5.47954 Y-2.86619
G01 X5.48127 Y-2.86710
G01 X5.48278 Y-2.86834
G01 X5.56810 Y-2.95366
G01 X5.56932 Y-2.95466
G01 X5.57029 Y-2.95518
G01 X5.57135 Y-2.95550
G01 X5.57292 Y-2.95566
G01 X5.58790 Y-2.95566
G01 X5.58995 Y-2.95587
G01 X5.59191 Y-2.95651
G01 X5.59369 Y-2.95754
G01 X5.59522 Y-2.95891
G01 X5.59643 Y-2.96058
G01 X5.60019 Y-2.96731
G01 X5.60431 Y-2.97189
G01 X5.60929 Y-2.97551
G01 X5.61491 Y-2.97801
G01 X5.62094 Y-2.97929
G01 X5.62709 Y-2.97929
G01 X5.63312 Y-2.97801
G01 X5.63874 Y-2.97551
G01 X5.64372 Y-2.97189
G01 X5.64784 Y-2.96731
G01 X5.65160 Y-2.96058
G01 X5.65281 Y-2.95891
G01 X5.65434 Y-2.95754
G01 X5.65612 Y-2.95651
G01 X5.65808 Y-2.95587
G01 X5.66013 Y-2.95566
G01 X5.96933 Y-2.95566
G01 X5.97091 Y-2.95550
G01 X5.97196 Y-2.95518
G01 X5.97293 Y-2.95466
G01 X5.97416 Y-2.95366
G01 X6.13036 Y-2.79745
G01 X6.13186 Y-2.79623
G01 X6.13356 Y-2.79531
G01 X6.13540 Y-2.79475
G01 X6.13732 Y-2.79457
G01 X6.61728 Y-2.79457
G01 X6.61920 Y-2.79475
G01 X6.62105 Y-2.79531
G01 X6.62275 Y-2.79623
G01 X6.62424 Y-2.79745
G01 X6.74032 Y-2.91353
G01 X6.74155 Y-2.91502
G01 X6.74246 Y-2.91672
G01 X6.74302 Y-2.91857
G01 X6.74321 Y-2.92049
G01 X6.74321 Y-2.97951
G01 X6.74302 Y-2.98143
G01 X6.74246 Y-2.98327
G01 X6.74155 Y-2.98497
G01 X6.74032 Y-2.98647
G01 X6.56407 Y-3.16272
G01 X6.56258 Y-3.16394
G01 X6.56088 Y-3.16485
G01 X6.55903 Y-3.16541
G01 X6.55711 Y-3.16560
G01 X6.51828 Y-3.16560
G01 X6.51644 Y-3.16543
G01 X6.51466 Y-3.16491
G01 X6.51301 Y-3.16407
G01 X6.51155 Y-3.16293
G01 X6.51032 Y-3.16154
G01 X6.50879 Y-3.15944
G01 X6.50605 Y-3.15697
G01 X6.50285 Y-3.15512
G01 X6.49934 Y-3.15398
G01 X6.49515 Y-3.15354
G01 X6.45288 Y-3.15354
G01 X6.44869 Y-3.15398
G01 X6.44518 Y-3.15512
G01 X6.44198 Y-3.15697
G01 X6.43924 Y-3.15944
G01 X6.43707 Y-3.16243
G01 X6.43556 Y-3.16580
G01 X6.43480 Y-3.16941
G01 X6.43480 Y-3.17311
G01 X6.43556 Y-3.17672
G01 X6.43707 Y-3.18009
G01 X6.43924 Y-3.18308
G01 X6.44198 Y-3.18555
G01 X6.44518 Y-3.18739
G01 X6.44869 Y-3.18854
G01 X6.45288 Y-3.18898
G01 X6.49515 Y-3.18898
G01 X6.49934 Y-3.18854
G01 X6.50285 Y-3.18739
G01 X6.50605 Y-3.18555
G01 X6.50879 Y-3.18308
G01 X6.51032 Y-3.18097
G01 X6.51155 Y-3.17958
G01 X6.51301 Y-3.17845
G01 X6.51466 Y-3.17761
G01 X6.51644 Y-3.17709
G01 X6.51829 Y-3.17692
G01 X6.56305 Y-3.17692
G01 X6.56463 Y-3.17676
G01 X6.56568 Y-3.17644
G01 X6.56665 Y-3.17592
G01 X6.56788 Y-3.17492
G01 X6.75252 Y-2.99027
G01 X6.75353 Y-2.98904
G01 X6.75405 Y-2.98807
G01 X6.75437 Y-2.98702
G01 X6.75452 Y-2.98544
G01 X6.75452 Y-2.91455
G01 X6.75437 Y-2.91298
G01 X6.75405 Y-2.91192
G01 X6.75353 Y-2.91095
G01 X6.75252 Y-2.90973
G01 X6.62804 Y-2.78525
G01 X6.62682 Y-2.78424
G01 X6.62585 Y-2.78373
G01 X6.62480 Y-2.78341
G01 X6.62322 Y-2.78325
G01 X6.13139 Y-2.78325
G01 X6.12981 Y-2.78341
G01 X6.12876 Y-2.78373
G01 X6.12779 Y-2.78424
G01 X6.12656 Y-2.78525
G01 X5.97035 Y-2.94146
G01 X5.96886 Y-2.94268
G01 X5.96716 Y-2.94359
G01 X5.96531 Y-2.94415
G01 X5.96339 Y-2.94434
G01 X5.66013 Y-2.94434
G01 X5.65808 Y-2.94413
G01 X5.65612 Y-2.94349
G01 X5.65434 Y-2.94246
G01 X5.65281 Y-2.94109
G01 X5.65160 Y-2.93942
G01 X5.64784 Y-2.93269
G01 X5.64372 Y-2.92811
G01 X5.63874 Y-2.92449
G01 X5.63312 Y-2.92199
G01 X5.62709 Y-2.92071
G01 X5.62094 Y-2.92071
G01 X5.61491 Y-2.92199
G01 X5.60929 Y-2.92449
G01 X5.60431 Y-2.92811
