( pcb2gcode 2.5.0 )
( Software-independent Gcode )

G94 ( Inches per minute feed rate. )
G20 ( Units == INCHES. )

G90 ( Absolute coordinates. )
G00 S12000 ( RPM spindle speed. )
G64 P0.00040 ( set maximum deviation from commanded toolpath )
G01 F360.00000 ( Feedrate. )


G00 Z1.00000 (Retract to tool change height)
T1
M5      (Spindle stop.)
G04 P1.00000 (Wait for spindle to stop)
(MSG, Change tool bit to mill diameter 0.01969in)
M6      (Tool change.)
M0      (Temporary machine stop.)
M3 ( Spindle on clockwise. )
G04 P1.00000 (Wait for spindle to get up to speed)
( Piece #1, position [0;0] )

G04 P0 ( dwell for no time -- G64 should not smooth over this point )
G00 Z0.08000 ( retract )

G00 X3.22054 Y-2.55000 ( rapid move to begin. )
G01 F180.00000
( Mill infeed pass 1/1 )
G01 Z-0.04000
G04 P0 ( dwell for no time -- G64 should not smooth over this point )
G01 F360.00000
G01 X3.22054 Y-2.55000
G01 X3.22111 Y-2.55575
G01 X3.22278 Y-2.56127
G01 X3.22551 Y-2.56637
G01 X3.22917 Y-2.57083
G01 X3.23363 Y-2.57449
G01 X3.23873 Y-2.57722
G01 X3.24425 Y-2.57889
G01 X3.25000 Y-2.57946
G01 X3.25575 Y-2.57889
G01 X3.26127 Y-2.57722
G01 X3.26637 Y-2.57449
G01 X3.27083 Y-2.57083
G01 X3.27449 Y-2.56637
G01 X3.27730 Y-2.56111
G01 X3.27850 Y-2.55936
G01 X3.28004 Y-2.55790
G01 X3.28186 Y-2.55681
G01 X3.28388 Y-2.55614
G01 X3.28599 Y-2.55591
G01 X3.61401 Y-2.55591
G01 X3.61612 Y-2.55614
G01 X3.61814 Y-2.55681
G01 X3.61996 Y-2.55790
G01 X3.62150 Y-2.55936
G01 X3.62270 Y-2.56111
G01 X3.62550 Y-2.56637
G01 X3.62917 Y-2.57083
G01 X3.63363 Y-2.57449
G01 X3.63873 Y-2.57722
G01 X3.64425 Y-2.57889
G01 X3.65000 Y-2.57946
G01 X3.65575 Y-2.57889
G01 X3.66127 Y-2.57722
G01 X3.66637 Y-2.57449
G01 X3.67083 Y-2.57083
G01 X3.67449 Y-2.56637
G01 X3.67722 Y-2.56127
G01 X3.67889 Y-2.55575
G01 X3.67946 Y-2.55000
G01 X3.67889 Y-2.54425
G01 X3.67708 Y-2.53828
G01 X3.67669 Y-2.53619
G01 X3.67675 Y-2.53407
G01 X3.67726 Y-2.53201
G01 X3.67821 Y-2.53011
G01 X3.67954 Y-2.52846
G01 X3.79596 Y-2.41204
G01 X3.79745 Y-2.41081
G01 X3.79915 Y-2.40991
G01 X3.80100 Y-2.40935
G01 X3.80292 Y-2.40916
G01 X4.14708 Y-2.40916
G01 X4.14900 Y-2.40935
G01 X4.15085 Y-2.40991
G01 X4.15255 Y-2.41081
G01 X4.15404 Y-2.41204
G01 X4.27046 Y-2.52846
G01 X4.27159 Y-2.52982
G01 X4.27247 Y-2.53136
G01 X4.27305 Y-2.53303
G01 X4.27332 Y-2.53478
G01 X4.27328 Y-2.53654
G01 X4.27292 Y-2.53828
G01 X4.27111 Y-2.54425
G01 X4.27054 Y-2.55000
G01 X4.27063 Y-2.55298
G01 X4.27024 Y-2.55491
G01 X4.26946 Y-2.55673
G01 X4.26834 Y-2.55835
G01 X4.26691 Y-2.55972
G01 X4.26525 Y-2.56077
G01 X4.01878 Y-2.68400
G01 X4.01664 Y-2.68478
G01 X4.01438 Y-2.68504
G01 X3.94094 Y-2.68504
G01 X3.94094 Y-2.80316
G01 X4.05906 Y-2.80316
G01 X4.05906 Y-2.68316
G01 X4.05922 Y-2.68135
G01 X4.05972 Y-2.67961
G01 X4.06053 Y-2.67798
G01 X4.06162 Y-2.67654
G01 X4.06296 Y-2.67531
G01 X4.06450 Y-2.67435
G01 X4.27057 Y-2.57132
G01 X4.27233 Y-2.57064
G01 X4.27419 Y-2.57031
G01 X4.27607 Y-2.57034
G01 X4.27792 Y-2.57073
G01 X4.27965 Y-2.57146
G01 X4.28122 Y-2.57251
G01 X4.28363 Y-2.57449
G01 X4.28873 Y-2.57722
G01 X4.29425 Y-2.57889
G01 X4.30000 Y-2.57946
G01 X4.30575 Y-2.57889
G01 X4.31127 Y-2.57722
G01 X4.31637 Y-2.57449
G01 X4.32083 Y-2.57083
G01 X4.32449 Y-2.56637
G01 X4.32730 Y-2.56111
G01 X4.32850 Y-2.55936
G01 X4.33004 Y-2.55790
G01 X4.33186 Y-2.55681
G01 X4.33380 Y-2.55616
G01 X4.28568 Y-2.55700
G01 X4.04974 Y-2.67893
G01 X4.02956 Y-2.71273
G01 X4.01110 Y-2.73299
G01 X4.00591 Y-2.73818
G01 X4.00591 Y-2.75001
G01 X4.01110 Y-2.75520
G01 X4.00591 Y-2.75001
G01 X3.99408 Y-2.75001
G01 X3.98889 Y-2.75520
G01 X3.99408 Y-2.75001
G01 X3.99408 Y-2.73818
G01 X3.98889 Y-2.73299
G01 X3.99408 Y-2.73818
G01 X4.00591 Y-2.73818
G01 X4.01110 Y-2.73299
G01 X4.02956 Y-2.71273
G01 X4.02363 Y-2.71939
G01 X4.01438 Y-2.72047
G01 X3.97637 Y-2.72047
G01 X3.97118 Y-2.71528
G01 X3.97637 Y-2.72047
G01 X3.97637 Y-2.76773
G01 X3.97118 Y-2.77292
G01 X3.97637 Y-2.76773
G01 X4.02363 Y-2.76773
G01 X4.02882 Y-2.77292
G01 X4.02363 Y-2.76773
G01 X4.02363 Y-2.71939
G01 X4.02956 Y-2.71273
G01 X4.04974 Y-2.67893
G01 X4.04134 Y-2.69253
G01 X4.04134 Y-2.78544
G01 X4.04653 Y-2.79063
G01 X4.04134 Y-2.78544
G01 X3.95866 Y-2.78544
G01 X3.95347 Y-2.79063
G01 X3.95866 Y-2.78544
G01 X3.95866 Y-2.70276
G01 X3.95347 Y-2.69757
G01 X3.95866 Y-2.70276
G01 X4.01438 Y-2.70276
G01 X4.02071 Y-2.70202
G01 X4.02670 Y-2.69985
G01 X4.04134 Y-2.69253
G01 X4.04974 Y-2.67893
G01 X4.28568 Y-2.55700
G01 X4.28803 Y-2.55586
G01 X4.29246 Y-2.55882
G01 X4.29352 Y-2.55970
G01 X4.29347 Y-2.55979
G01 X4.29352 Y-2.55970
G01 X4.29554 Y-2.56077
G01 X4.29772 Y-2.56144
G01 X4.29766 Y-2.56178
G01 X4.29772 Y-2.56144
G01 X4.30000 Y-2.56166
G01 X4.30227 Y-2.56144
G01 X4.30234 Y-2.56178
G01 X4.30227 Y-2.56144
G01 X4.30446 Y-2.56077
G01 X4.30648 Y-2.55970
G01 X4.30667 Y-2.55998
G01 X4.30648 Y-2.55970
G01 X4.30825 Y-2.55824
G01 X4.30969 Y-2.55648
G01 X4.30980 Y-2.55656
G01 X4.30969 Y-2.55648
G01 X4.31168 Y-2.55276
G01 X4.31357 Y-2.55000
G01 X4.31670 Y-2.54995
G01 X4.31357 Y-2.55000
G01 X4.31168 Y-2.54724
G01 X4.30969 Y-2.54352
G01 X4.30825 Y-2.54175
G01 X4.30840 Y-2.54161
G01 X4.30825 Y-2.54175
G01 X4.30648 Y-2.54030
G01 X4.30658 Y-2.54014
G01 X4.30648 Y-2.54030
G01 X4.30446 Y-2.53923
G01 X4.30227 Y-2.53856
G01 X4.30234 Y-2.53822
G01 X4.30227 Y-2.53856
G01 X4.30000 Y-2.53834
G01 X4.29772 Y-2.53856
G01 X4.29770 Y-2.53842
G01 X4.29772 Y-2.53856
G01 X4.29342 Y-2.53987
G01 X4.29048 Y-2.54048
G01 X4.28822 Y-2.53834
G01 X4.29048 Y-2.54048
G01 X4.28987 Y-2.54342
G01 X4.28856 Y-2.54772
G01 X4.28845 Y-2.54770
G01 X4.28856 Y-2.54772
G01 X4.28826 Y-2.55077
G01 X4.28826 Y-2.55479
G01 X4.28803 Y-2.55586
G01 X4.28568 Y-2.55700
G01 X4.68643 Y-2.55000
G01 X4.68832 Y-2.54724
G01 X4.69030 Y-2.54352
G01 X4.69020 Y-2.54344
G01 X4.69030 Y-2.54352
G01 X4.69175 Y-2.54175
G01 X4.69352 Y-2.54030
G01 X4.69333 Y-2.54002
G01 X4.69352 Y-2.54030
G01 X4.69554 Y-2.53923
G01 X4.69773 Y-2.53856
G01 X4.69766 Y-2.53822
G01 X4.69773 Y-2.53856
G01 X4.70000 Y-2.53834
G01 X4.70227 Y-2.53856
G01 X4.70234 Y-2.53822
G01 X4.70227 Y-2.53856
G01 X4.70446 Y-2.53923
G01 X4.70648 Y-2.54030
G01 X4.70667 Y-2.54002
G01 X4.70648 Y-2.54030
G01 X4.70824 Y-2.54175
G01 X4.70969 Y-2.54352
G01 X4.70998 Y-2.54333
G01 X4.70969 Y-2.54352
G01 X4.71077 Y-2.54554
G01 X4.71144 Y-2.54772
G01 X4.71178 Y-2.54766
G01 X4.71144 Y-2.54772
G01 X4.71166 Y-2.55000
G01 X4.71144 Y-2.55227
G01 X4.71178 Y-2.55234
G01 X4.71144 Y-2.55227
G01 X4.71077 Y-2.55446
G01 X4.70969 Y-2.55648
G01 X4.70998 Y-2.55667
G01 X4.70969 Y-2.55648
G01 X4.70824 Y-2.55824
G01 X4.70648 Y-2.55970
G01 X4.70667 Y-2.55998
G01 X4.70648 Y-2.55970
G01 X4.70446 Y-2.56077
G01 X4.70227 Y-2.56144
G01 X4.70234 Y-2.56178
G01 X4.70227 Y-2.56144
G01 X4.70000 Y-2.56166
G01 X4.69773 Y-2.56144
G01 X4.69766 Y-2.56178
G01 X4.69773 Y-2.56144
G01 X4.69554 Y-2.56077
G01 X4.69352 Y-2.55970
G01 X4.69333 Y-2.55998
G01 X4.69352 Y-2.55970
G01 X4.69175 Y-2.55824
G01 X4.69030 Y-2.55648
G01 X4.69015 Y-2.55659
G01 X4.69030 Y-2.55648
G01 X4.68832 Y-2.55276
G01 X4.68643 Y-2.55000
G01 X4.33380 Y-2.55616
G01 X4.33598 Y-2.55591
G01 X4.66401 Y-2.55591
G01 X4.66612 Y-2.55614
G01 X4.66814 Y-2.55681
G01 X4.66995 Y-2.55790
G01 X4.67150 Y-2.55936
G01 X4.67270 Y-2.56111
G01 X4.67551 Y-2.56637
G01 X4.67917 Y-2.57083
G01 X4.68363 Y-2.57449
G01 X4.68873 Y-2.57722
G01 X4.69425 Y-2.57889
G01 X4.70000 Y-2.57946
G01 X4.70575 Y-2.57889
G01 X4.71127 Y-2.57722
G01 X4.71637 Y-2.57449
G01 X4.72083 Y-2.57083
G01 X4.72449 Y-2.56637
G01 X4.72722 Y-2.56127
G01 X4.72889 Y-2.55575
G01 X4.72946 Y-2.55000
G01 X4.72889 Y-2.54425
G01 X4.72722 Y-2.53873
G01 X4.72449 Y-2.53363
G01 X4.72083 Y-2.52917
G01 X4.71637 Y-2.52550
G01 X4.71127 Y-2.52278
G01 X4.70575 Y-2.52111
G01 X4.70000 Y-2.52054
G01 X4.69425 Y-2.52111
G01 X4.68873 Y-2.52278
G01 X4.68363 Y-2.52550
G01 X4.67917 Y-2.52917
G01 X4.67551 Y-2.53363
G01 X4.67270 Y-2.53889
G01 X4.67150 Y-2.54064
G01 X4.66995 Y-2.54210
G01 X4.66814 Y-2.54319
G01 X4.66612 Y-2.54386
G01 X4.66401 Y-2.54409
G01 X4.33598 Y-2.54409
G01 X4.33387 Y-2.54386
G01 X4.33186 Y-2.54319
G01 X4.33004 Y-2.54210
G01 X4.32850 Y-2.54064
G01 X4.32730 Y-2.53889
G01 X4.32449 Y-2.53363
G01 X4.32083 Y-2.52917
G01 X4.31637 Y-2.52550
G01 X4.31127 Y-2.52278
G01 X4.30575 Y-2.52111
G01 X4.30000 Y-2.52054
G01 X4.29425 Y-2.52111
G01 X4.28828 Y-2.52292
G01 X4.28655 Y-2.52328
G01 X4.28478 Y-2.52332
G01 X4.28303 Y-2.52305
G01 X4.28136 Y-2.52246
G01 X4.27982 Y-2.52159
G01 X4.27846 Y-2.52046
G01 X4.15784 Y-2.39984
G01 X4.15662 Y-2.39883
G01 X4.15564 Y-2.39832
G01 X4.15459 Y-2.39800
G01 X4.15301 Y-2.39784
G01 X3.79698 Y-2.39784
G01 X3.79541 Y-2.39800
G01 X3.79435 Y-2.39832
G01 X3.79338 Y-2.39883
G01 X3.79216 Y-2.39984
G01 X3.67154 Y-2.52046
G01 X3.67018 Y-2.52159
G01 X3.66864 Y-2.52246
G01 X3.66697 Y-2.52305
G01 X3.66522 Y-2.52332
G01 X3.66345 Y-2.52328
G01 X3.66172 Y-2.52292
G01 X3.65575 Y-2.52111
G01 X3.65000 Y-2.52054
G01 X3.64425 Y-2.52111
G01 X3.63873 Y-2.52278
G01 X3.63363 Y-2.52550
G01 X3.62917 Y-2.52917
G01 X3.62550 Y-2.53363
G01 X3.62270 Y-2.53889
G01 X3.62150 Y-2.54064
G01 X3.61996 Y-2.54210
G01 X3.61814 Y-2.54319
G01 X3.61612 Y-2.54386
G01 X3.61401 Y-2.54409
G01 X3.28599 Y-2.54409
G01 X3.28388 Y-2.54386
G01 X3.28186 Y-2.54319
G01 X3.28004 Y-2.54210
G01 X3.27850 Y-2.54064
G01 X3.27730 Y-2.53889
G01 X3.27449 Y-2.53363
G01 X3.27083 Y-2.52917
G01 X3.26637 Y-2.52550
G01 X3.26127 Y-2.52278
G01 X3.25575 Y-2.52111
G01 X3.25000 Y-2.52054
G01 X3.24425 Y-2.52111
G01 X3.23873 Y-2.52278
G01 X3.23363 Y-2.52550
G01 X3.22917 Y-2.52917
G01 X3.22551 Y-2.53363
G01 X3.22278 Y-2.53873
G01 X3.22111 Y-2.54425
G01 X3.22054 Y-2.55000
G01 X3.23834 Y-2.55000
G01 X3.23856 Y-2.55227
G01 X3.23822 Y-2.55234
G01 X3.23856 Y-2.55227
G01 X3.23923 Y-2.55446
G01 X3.24030 Y-2.55648
G01 X3.24002 Y-2.55667
G01 X3.24030 Y-2.55648
G01 X3.24175 Y-2.55824
G01 X3.24352 Y-2.55970
G01 X3.24333 Y-2.55998
G01 X3.24352 Y-2.55970
G01 X3.24554 Y-2.56077
G01 X3.24772 Y-2.56144
G01 X3.24766 Y-2.56178
G01 X3.24772 Y-2.56144
G01 X3.25000 Y-2.56166
G01 X3.25227 Y-2.56144
G01 X3.25234 Y-2.56178
G01 X3.25227 Y-2.56144
G01 X3.25446 Y-2.56077
G01 X3.25648 Y-2.55970
G01 X3.25667 Y-2.55998
G01 X3.25648 Y-2.55970
G01 X3.25825 Y-2.55824
G01 X3.25969 Y-2.55648
G01 X3.25980 Y-2.55656
G01 X3.25969 Y-2.55648
G01 X3.26168 Y-2.55276
G01 X3.26357 Y-2.55000
G01 X3.26687 Y-2.54990
G01 X3.26357 Y-2.55000
G01 X3.26168 Y-2.54724
G01 X3.25969 Y-2.54352
G01 X3.25985 Y-2.54341
G01 X3.25969 Y-2.54352
G01 X3.25825 Y-2.54175
G01 X3.25648 Y-2.54030
G01 X3.25667 Y-2.54002
G01 X3.25648 Y-2.54030
G01 X3.25446 Y-2.53923
G01 X3.25227 Y-2.53856
G01 X3.25234 Y-2.53822
G01 X3.25227 Y-2.53856
G01 X3.25000 Y-2.53834
G01 X3.24772 Y-2.53856
G01 X3.24766 Y-2.53822
G01 X3.24772 Y-2.53856
G01 X3.24554 Y-2.53923
G01 X3.24352 Y-2.54030
G01 X3.24333 Y-2.54002
G01 X3.24352 Y-2.54030
G01 X3.24175 Y-2.54175
G01 X3.24030 Y-2.54352
G01 X3.24002 Y-2.54333
G01 X3.24030 Y-2.54352
G01 X3.23923 Y-2.54554
G01 X3.23856 Y-2.54772
G01 X3.23822 Y-2.54766
G01 X3.23856 Y-2.54772
G01 X3.23834 Y-2.55000
G01 X3.63313 Y-2.55010
G01 X3.63643 Y-2.55000
G01 X3.63832 Y-2.54724
G01 X3.64030 Y-2.54352
G01 X3.64020 Y-2.54344
G01 X3.64030 Y-2.54352
G01 X3.64175 Y-2.54175
G01 X3.64352 Y-2.54030
G01 X3.64333 Y-2.54002
G01 X3.64352 Y-2.54030
G01 X3.64554 Y-2.53923
G01 X3.64772 Y-2.53856
G01 X3.64768 Y-2.53837
G01 X3.64772 Y-2.53856
G01 X3.65000 Y-2.53834
G01 X3.65001 Y-2.53811
G01 X3.65000 Y-2.53834
G01 X3.65227 Y-2.53856
G01 X3.65658 Y-2.53987
G01 X3.65958 Y-2.54049
G01 X3.66170 Y-2.53830
G01 X3.65958 Y-2.54049
G01 X3.66013 Y-2.54342
G01 X3.66144 Y-2.54772
G01 X3.66158 Y-2.54771
G01 X3.66144 Y-2.54772
G01 X3.66166 Y-2.55000
G01 X3.66144 Y-2.55227
G01 X3.66178 Y-2.55234
G01 X3.66144 Y-2.55227
G01 X3.66077 Y-2.55446
G01 X3.65970 Y-2.55648
G01 X3.65998 Y-2.55667
G01 X3.65970 Y-2.55648
G01 X3.65824 Y-2.55824
G01 X3.65648 Y-2.55970
G01 X3.65667 Y-2.55998
G01 X3.65648 Y-2.55970
G01 X3.65446 Y-2.56077
G01 X3.65227 Y-2.56144
G01 X3.65232 Y-2.56162
G01 X3.65227 Y-2.56144
G01 X3.65000 Y-2.56166
G01 X3.64999 Y-2.56185
G01 X3.65000 Y-2.56166
G01 X3.64772 Y-2.56144
G01 X3.64554 Y-2.56077
G01 X3.64540 Y-2.56109
G01 X3.64554 Y-2.56077
G01 X3.64352 Y-2.55970
G01 X3.64175 Y-2.55824
G01 X3.64147 Y-2.55852
G01 X3.64175 Y-2.55824
G01 X3.64030 Y-2.55648
G01 X3.63832 Y-2.55276
G01 X3.63643 Y-2.55000
G04 P0 ( dwell for no time -- G64 should not smooth over this point )
G00 Z0.08000 ( retract )

G00 X3.76902 Y-2.62620 ( rapid move to begin. )
G01 F180.00000
( Mill infeed pass 1/1 )
G01 Z-0.04000
G04 P0 ( dwell for no time -- G64 should not smooth over this point )
G01 F360.00000
G01 X3.76902 Y-2.62620
G01 X3.76681 Y-2.62622
G01 X3.76901 Y-2.62619
G01 X3.77156 Y-2.63095
G01 X3.77313 Y-2.63612
G01 X3.77366 Y-2.64150
G01 X3.77366 Y-2.66734
G01 X3.76847 Y-2.67253
G01 X3.77366 Y-2.66734
G01 X3.85634 Y-2.66734
G01 X3.86153 Y-2.67253
G01 X3.85634 Y-2.66734
G01 X3.85634 Y-2.58466
G01 X3.86153 Y-2.57947
G01 X3.85634 Y-2.58466
G01 X3.77366 Y-2.58466
G01 X3.76847 Y-2.57947
G01 X3.77366 Y-2.58466
G01 X3.77366 Y-2.61050
G01 X3.77313 Y-2.61587
G01 X3.77156 Y-2.62105
G01 X3.76885 Y-2.62600
G01 X3.76902 Y-2.62620
G01 X3.78848 Y-2.62600
G01 X3.79050 Y-2.63267
G01 X3.79137 Y-2.64150
G01 X3.79137 Y-2.64963
G01 X3.78618 Y-2.65482
G01 X3.79137 Y-2.64963
G01 X3.83863 Y-2.64963
G01 X3.84382 Y-2.65482
G01 X3.83863 Y-2.64963
G01 X3.83863 Y-2.60237
G01 X3.84382 Y-2.59718
G01 X3.83863 Y-2.60237
G01 X3.79137 Y-2.60237
G01 X3.78618 Y-2.59718
G01 X3.79137 Y-2.60237
G01 X3.79137 Y-2.61050
G01 X3.79050 Y-2.61933
G01 X3.78848 Y-2.62600
G01 X3.80690 Y-2.62600
G01 X3.80787 Y-2.62921
G01 X3.80814 Y-2.63191
G01 X3.80492 Y-2.63588
G01 X3.80814 Y-2.63191
G01 X3.82091 Y-2.63191
G01 X3.82610 Y-2.63710
G01 X3.82091 Y-2.63191
G01 X3.82091 Y-2.62008
G01 X3.82610 Y-2.61490
G01 X3.82091 Y-2.62008
G01 X3.80814 Y-2.62008
G01 X3.80492 Y-2.61612
G01 X3.80814 Y-2.62008
G01 X3.80787 Y-2.62279
G01 X3.80690 Y-2.62600
G04 P0 ( dwell for no time -- G64 should not smooth over this point )
G00 Z0.08000 ( retract )

G00 X3.95058 Y-2.51233 ( rapid move to begin. )
G01 F180.00000
( Mill infeed pass 1/1 )
G01 Z-0.04000
G04 P0 ( dwell for no time -- G64 should not smooth over this point )
G01 F360.00000
G01 X3.95058 Y-2.51233
G01 X3.95036 Y-2.51215
G01 X3.95335 Y-2.50886
G01 X3.95625 Y-2.50385
G01 X3.95805 Y-2.49835
G01 X3.95866 Y-2.49260
G01 X3.95866 Y-2.46656
G01 X3.95347 Y-2.46137
G01 X3.95866 Y-2.46656
G01 X4.04134 Y-2.46656
G01 X4.04653 Y-2.46137
G01 X4.04134 Y-2.46656
G01 X4.04134 Y-2.54924
G01 X4.04653 Y-2.55443
G01 X4.04134 Y-2.54924
G01 X3.95866 Y-2.54924
G01 X3.95347 Y-2.55443
G01 X3.95866 Y-2.54924
G01 X3.95866 Y-2.53182
G01 X3.95813 Y-2.52644
G01 X3.95656 Y-2.52127
G01 X3.95401 Y-2.51651
G01 X3.95058 Y-2.51233
G01 X3.94625 Y-2.51255
G01 X3.97008 Y-2.51239
G01 X3.97173 Y-2.51227
G01 X3.97292 Y-2.51450
G01 X3.97550 Y-2.52299
G01 X3.97634 Y-2.53153
G01 X3.97218 Y-2.53612
G01 X3.97634 Y-2.53153
G01 X4.02363 Y-2.53153
G01 X4.02882 Y-2.53672
G01 X4.02363 Y-2.53153
G01 X4.02363 Y-2.48427
G01 X4.02882 Y-2.47908
G01 X4.02363 Y-2.48427
G01 X3.97637 Y-2.48427
G01 X3.97118 Y-2.47908
G01 X3.97637 Y-2.48427
G01 X3.97637 Y-2.49260
G01 X3.97537 Y-2.50205
G01 X3.97242 Y-2.51109
G01 X3.97173 Y-2.51227
G01 X3.97008 Y-2.51239
G01 X3.98855 Y-2.51730
G01 X3.99114 Y-2.51382
G01 X4.00591 Y-2.51382
G01 X4.01110 Y-2.51900
G01 X4.00591 Y-2.51382
G01 X4.00591 Y-2.50198
G01 X4.01110 Y-2.49680
G01 X4.00591 Y-2.50198
G01 X3.99309 Y-2.50198
G01 X3.98900 Y-2.49744
G01 X3.99309 Y-2.50198
G01 X3.99269 Y-2.50575
G01 X3.99062 Y-2.51210
G01 X3.98976 Y-2.51209
G01 X3.99062 Y-2.51210
G01 X3.99114 Y-2.51382
G04 P0 ( dwell for no time -- G64 should not smooth over this point )
G00 Z0.08000 ( retract )

G00 X4.27214 Y-2.94920 ( rapid move to begin. )
G01 F180.00000
( Mill infeed pass 1/1 )
G01 Z-0.04000
G04 P0 ( dwell for no time -- G64 should not smooth over this point )
G01 F360.00000
G01 X4.27214 Y-2.94920
G01 X4.28276 Y-2.94800
G01 X4.29685 Y-2.93391
G01 X4.29644 Y-2.92821
G01 X4.29685 Y-2.93391
G01 X4.29785 Y-2.93497
G01 X4.30276 Y-2.93832
G01 X4.30648 Y-2.94030
G01 X4.30659 Y-2.94015
G01 X4.30648 Y-2.94030
G01 X4.30825 Y-2.94175
G01 X4.30969 Y-2.94352
G01 X4.30998 Y-2.94333
G01 X4.30969 Y-2.94352
G01 X4.31077 Y-2.94554
G01 X4.31144 Y-2.94773
G01 X4.31178 Y-2.94766
G01 X4.31144 Y-2.94773
G01 X4.31166 Y-2.95000
G01 X4.31144 Y-2.95227
G01 X4.31178 Y-2.95234
G01 X4.31144 Y-2.95227
G01 X4.31077 Y-2.95446
G01 X4.30969 Y-2.95648
G01 X4.30998 Y-2.95667
G01 X4.30969 Y-2.95648
G01 X4.30825 Y-2.95824
G01 X4.30648 Y-2.95969
G01 X4.30667 Y-2.95998
G01 X4.30648 Y-2.95969
G01 X4.30446 Y-2.96077
G01 X4.30227 Y-2.96144
G01 X4.30234 Y-2.96178
G01 X4.30227 Y-2.96144
G01 X4.30000 Y-2.96166
G01 X4.29772 Y-2.96144
G01 X4.29766 Y-2.96178
G01 X4.29772 Y-2.96144
G01 X4.29554 Y-2.96077
G01 X4.29352 Y-2.95969
G01 X4.29342 Y-2.95986
G01 X4.29352 Y-2.95969
G01 X4.29175 Y-2.95824
G01 X4.29165 Y-2.95834
G01 X4.29175 Y-2.95824
G01 X4.28985 Y-2.95592
G01 X4.28741 Y-2.95232
G01 X4.28332 Y-2.94835
G01 X4.28276 Y-2.94800
G04 P0 ( dwell for no time -- G64 should not smooth over this point )
G00 Z0.08000 ( retract )

G00 X4.68822 Y-2.93834 ( rapid move to begin. )
G01 F180.00000
( Mill infeed pass 1/1 )
G01 Z-0.04000
G04 P0 ( dwell for no time -- G64 should not smooth over this point )
G01 F360.00000
G01 X4.68822 Y-2.93834
G01 X4.69048 Y-2.94048
G01 X4.68987 Y-2.94342
G01 X4.68856 Y-2.94773
G01 X4.68837 Y-2.94770
G01 X4.68856 Y-2.94773
G01 X4.68834 Y-2.95000
G01 X4.68856 Y-2.95227
G01 X4.68822 Y-2.95234
G01 X4.68856 Y-2.95227
G01 X4.68923 Y-2.95446
G01 X4.69030 Y-2.95648
G01 X4.69002 Y-2.95667
G01 X4.69030 Y-2.95648
G01 X4.69175 Y-2.95824
G01 X4.69352 Y-2.95969
G01 X4.69333 Y-2.95998
G01 X4.69352 Y-2.95969
G01 X4.69554 Y-2.96077
G01 X4.69773 Y-2.96144
G01 X4.69766 Y-2.96178
G01 X4.69773 Y-2.96144
G01 X4.70000 Y-2.96166
G01 X4.70227 Y-2.96144
G01 X4.70234 Y-2.96178
G01 X4.70227 Y-2.96144
G01 X4.70446 Y-2.96077
G01 X4.70648 Y-2.95969
G01 X4.70667 Y-2.95998
G01 X4.70648 Y-2.95969
G01 X4.70824 Y-2.95824
G01 X4.70969 Y-2.95648
G01 X4.70998 Y-2.95667
G01 X4.70969 Y-2.95648
G01 X4.71077 Y-2.95446
G01 X4.71144 Y-2.95227
G01 X4.71178 Y-2.95234
G01 X4.71144 Y-2.95227
G01 X4.71166 Y-2.95000
G01 X4.71144 Y-2.94773
G01 X4.71178 Y-2.94766
G01 X4.71144 Y-2.94773
G01 X4.71077 Y-2.94554
G01 X4.70969 Y-2.94352
G01 X4.70998 Y-2.94333
G01 X4.70969 Y-2.94352
G01 X4.70824 Y-2.94175
G01 X4.70648 Y-2.94030
G01 X4.70667 Y-2.94002
G01 X4.70648 Y-2.94030
G01 X4.70446 Y-2.93923
G01 X4.70227 Y-2.93856
G01 X4.70234 Y-2.93822
G01 X4.70227 Y-2.93856
G01 X4.70000 Y-2.93834
G01 X4.69773 Y-2.93856
G01 X4.69771 Y-2.93842
G01 X4.69773 Y-2.93856
G01 X4.69342 Y-2.93987
G01 X4.69048 Y-2.94048
G04 P0 ( dwell for no time -- G64 should not smooth over this point )
G00 Z0.08000 ( retract )

G00 X4.52033 Y-3.17126 ( rapid move to begin. )
G01 F180.00000
( Mill infeed pass 1/1 )
G01 Z-0.04000
G04 P0 ( dwell for no time -- G64 should not smooth over this point )
G01 F360.00000
G01 X4.52033 Y-3.17126
G01 X4.47967 Y-3.17126
G04 P0 ( dwell for no time -- G64 should not smooth over this point )
G00 Z0.08000 ( retract )

G00 X4.52033 Y-3.32874 ( rapid move to begin. )
G01 F180.00000
( Mill infeed pass 1/1 )
G01 Z-0.04000
G04 P0 ( dwell for no time -- G64 should not smooth over this point )
G01 F360.00000
G01 X4.52033 Y-3.32874
G01 X4.47967 Y-3.32874
G04 P0 ( dwell for no time -- G64 should not smooth over this point )
G00 Z0.08000 ( retract )

G00 X4.52033 Y-3.25000 ( rapid move to begin. )
G01 F180.00000
( Mill infeed pass 1/1 )
G01 Z-0.04000
G04 P0 ( dwell for no time -- G64 should not smooth over this point )
G01 F360.00000
G01 X4.52033 Y-3.25000
G01 X4.47970 Y-3.25000
G01 X4.40963 Y-3.24501
G01 X4.40963 Y-3.04179
G01 X4.40978 Y-3.04021
G01 X4.41010 Y-3.03916
G01 X4.41062 Y-3.03819
G01 X4.41163 Y-3.03696
G01 X4.54146 Y-2.90713
G01 X4.54268 Y-2.90564
G01 X4.54359 Y-2.90394
G01 X4.54415 Y-2.90209
G01 X4.54434 Y-2.90017
G01 X4.54434 Y-2.87559
G01 X4.54415 Y-2.87367
G01 X4.54359 Y-2.87182
G01 X4.54268 Y-2.87012
G01 X4.54146 Y-2.86863
G01 X4.53997 Y-2.86741
G01 X4.53827 Y-2.86650
G01 X4.53642 Y-2.86594
G01 X4.53425 Y-2.86575
G01 X4.53425 Y-2.83425
G01 X4.56575 Y-2.83425
G01 X4.56594 Y-2.83642
G01 X4.56650 Y-2.83827
G01 X4.56741 Y-2.83997
G01 X4.56863 Y-2.84146
G01 X4.57012 Y-2.84268
G01 X4.57182 Y-2.84359
G01 X4.57367 Y-2.84415
G01 X4.57559 Y-2.84434
G01 X4.59952 Y-2.84434
G01 X4.60109 Y-2.84450
G01 X4.60215 Y-2.84482
G01 X4.60312 Y-2.84533
G01 X4.60434 Y-2.84634
G01 X4.67846 Y-2.92046
G01 X4.67982 Y-2.92159
G01 X4.68136 Y-2.92246
G01 X4.68303 Y-2.92305
G01 X4.68478 Y-2.92332
G01 X4.68654 Y-2.92328
G01 X4.68828 Y-2.92292
G01 X4.69425 Y-2.92111
G01 X4.70000 Y-2.92054
G01 X4.70575 Y-2.92111
G01 X4.71127 Y-2.92278
G01 X4.71637 Y-2.92550
G01 X4.72083 Y-2.92917
G01 X4.72449 Y-2.93363
G01 X4.72722 Y-2.93873
G01 X4.72889 Y-2.94425
G01 X4.72946 Y-2.95000
G01 X4.72889 Y-2.95575
G01 X4.72722 Y-2.96127
G01 X4.72449 Y-2.96637
G01 X4.72083 Y-2.97083
G01 X4.71637 Y-2.97449
G01 X4.71127 Y-2.97722
G01 X4.70575 Y-2.97889
G01 X4.70000 Y-2.97946
G01 X4.69425 Y-2.97889
G01 X4.68873 Y-2.97722
G01 X4.68363 Y-2.97449
G01 X4.67917 Y-2.97083
G01 X4.67551 Y-2.96637
G01 X4.67278 Y-2.96127
G01 X4.67111 Y-2.95575
G01 X4.67054 Y-2.95000
G01 X4.67111 Y-2.94425
G01 X4.67292 Y-2.93828
G01 X4.67328 Y-2.93655
G01 X4.67332 Y-2.93478
G01 X4.67305 Y-2.93303
G01 X4.67246 Y-2.93136
G01 X4.67159 Y-2.92982
G01 X4.67046 Y-2.92846
G01 X4.60054 Y-2.85854
G01 X4.59905 Y-2.85732
G01 X4.59735 Y-2.85641
G01 X4.59550 Y-2.85585
G01 X4.59358 Y-2.85566
G01 X4.57559 Y-2.85566
G01 X4.57367 Y-2.85585
G01 X4.57182 Y-2.85641
G01 X4.57012 Y-2.85732
G01 X4.56863 Y-2.85854
G01 X4.56741 Y-2.86003
G01 X4.56650 Y-2.86173
G01 X4.56594 Y-2.86358
G01 X4.56575 Y-2.86575
G01 X4.56358 Y-2.86594
G01 X4.56173 Y-2.86650
G01 X4.56003 Y-2.86741
G01 X4.55854 Y-2.86863
G01 X4.55732 Y-2.87012
G01 X4.55641 Y-2.87182
G01 X4.55585 Y-2.87367
G01 X4.55566 Y-2.87559
G01 X4.55566 Y-2.90611
G01 X4.55550 Y-2.90768
G01 X4.55518 Y-2.90874
G01 X4.55466 Y-2.90971
G01 X4.55366 Y-2.91093
G01 X4.42383 Y-3.04076
G01 X4.42260 Y-3.04225
G01 X4.42169 Y-3.04396
G01 X4.42113 Y-3.04580
G01 X4.42094 Y-3.04772
G01 X4.42094 Y-3.23450
G01 X4.42113 Y-3.23642
G01 X4.42169 Y-3.23827
G01 X4.42260 Y-3.23997
G01 X4.42383 Y-3.24146
G01 X4.42532 Y-3.24268
G01 X4.42702 Y-3.24359
G01 X4.42887 Y-3.24415
G01 X4.43079 Y-3.24434
G01 X4.45559 Y-3.24434
G01 X4.45732 Y-3.24419
G01 X4.45899 Y-3.24373
G01 X4.46056 Y-3.24299
G01 X4.46198 Y-3.24198
G01 X4.46319 Y-3.24074
G01 X4.46585 Y-3.23751
G01 X4.46853 Y-3.23531
G01 X4.47158 Y-3.23368
G01 X4.47490 Y-3.23267
G01 X4.47883 Y-3.23228
G01 X4.52117 Y-3.23228
G01 X4.52510 Y-3.23267
G01 X4.52841 Y-3.23368
G01 X4.53147 Y-3.23531
G01 X4.53415 Y-3.23751
G01 X4.53634 Y-3.24018
G01 X4.53798 Y-3.24324
G01 X4.53898 Y-3.24655
G01 X4.53932 Y-3.25000
G01 X4.53898 Y-3.25345
G01 X4.53798 Y-3.25676
G01 X4.53634 Y-3.25982
G01 X4.53415 Y-3.26249
G01 X4.53147 Y-3.26469
G01 X4.52841 Y-3.26632
G01 X4.52510 Y-3.26733
G01 X4.52117 Y-3.26772
G01 X4.47883 Y-3.26772
G01 X4.47490 Y-3.26733
G01 X4.47158 Y-3.26632
G01 X4.46853 Y-3.26469
G01 X4.46585 Y-3.26249
G01 X4.46319 Y-3.25926
G01 X4.46198 Y-3.25801
G01 X4.46056 Y-3.25701
G01 X4.45899 Y-3.25626
G01 X4.45732 Y-3.25581
G01 X4.45559 Y-3.25566
G01 X4.42027 Y-3.25566
G01 X4.41869 Y-3.25550
G01 X4.41764 Y-3.25518
G01 X4.41667 Y-3.25466
G01 X4.41544 Y-3.25366
G01 X4.41163 Y-3.24984
G01 X4.41062 Y-3.24862
G01 X4.41010 Y-3.24764
G01 X4.40978 Y-3.24659
G01 X4.40963 Y-3.24501
G04 P0 ( dwell for no time -- G64 should not smooth over this point )
G00 Z0.08000 ( retract )

G00 X4.14047 Y-3.30189 ( rapid move to begin. )
G01 F180.00000
( Mill infeed pass 1/1 )
G01 Z-0.04000
G04 P0 ( dwell for no time -- G64 should not smooth over this point )
G01 F360.00000
G01 X4.14047 Y-3.30189
G01 X4.14029 Y-3.30000
G01 X4.14047 Y-3.29811
G01 X4.14013 Y-3.29804
G01 X4.14047 Y-3.29811
G01 X4.14103 Y-3.29628
G01 X4.14192 Y-3.29460
G01 X4.14164 Y-3.29441
G01 X4.14192 Y-3.29460
G01 X4.14313 Y-3.29313
G01 X4.14460 Y-3.29192
G01 X4.14441 Y-3.29164
G01 X4.14460 Y-3.29192
G01 X4.14628 Y-3.29103
G01 X4.14811 Y-3.29047
G01 X4.14804 Y-3.29013
G01 X4.14811 Y-3.29047
G01 X4.15000 Y-3.29029
G01 X4.15189 Y-3.29047
G01 X4.15196 Y-3.29013
G01 X4.15189 Y-3.29047
G01 X4.15372 Y-3.29103
G01 X4.15540 Y-3.29192
G01 X4.15559 Y-3.29164
G01 X4.15540 Y-3.29192
G01 X4.15687 Y-3.29313
G01 X4.15808 Y-3.29460
G01 X4.15836 Y-3.29441
G01 X4.15808 Y-3.29460
G01 X4.15897 Y-3.29628
G01 X4.15953 Y-3.29811
G01 X4.15986 Y-3.29804
G01 X4.15953 Y-3.29811
G01 X4.15971 Y-3.30000
G01 X4.15953 Y-3.30189
G01 X4.15972 Y-3.30192
G01 X4.15953 Y-3.30189
G01 X4.15866 Y-3.30475
G01 X4.15799 Y-3.30799
G01 X4.16029 Y-3.31019
G01 X4.15799 Y-3.30799
G01 X4.15475 Y-3.30866
G01 X4.15189 Y-3.30952
G01 X4.15191 Y-3.30966
G01 X4.15189 Y-3.30952
G01 X4.15000 Y-3.30971
G01 X4.14811 Y-3.30952
G01 X4.14804 Y-3.30986
G01 X4.14811 Y-3.30952
G01 X4.14628 Y-3.30897
G01 X4.14460 Y-3.30808
G01 X4.14441 Y-3.30836
G01 X4.14460 Y-3.30808
G01 X4.14313 Y-3.30687
G01 X4.14192 Y-3.30539
G01 X4.14164 Y-3.30559
G01 X4.14192 Y-3.30539
G01 X4.14103 Y-3.30372
G01 X4.14047 Y-3.30189
G01 X4.14013 Y-3.30196
G01 X4.12249 Y-3.30000
G01 X4.12302 Y-3.30537
G01 X4.12458 Y-3.31053
G01 X4.12713 Y-3.31528
G01 X4.13055 Y-3.31945
G01 X4.13471 Y-3.32287
G01 X4.13947 Y-3.32542
G01 X4.14463 Y-3.32698
G01 X4.15000 Y-3.32751
G01 X4.15537 Y-3.32698
G01 X4.15990 Y-3.32561
G01 X4.16163 Y-3.32525
G01 X4.16340 Y-3.32521
G01 X4.16514 Y-3.32548
G01 X4.16681 Y-3.32606
G01 X4.16836 Y-3.32693
G01 X4.16971 Y-3.32807
G01 X4.17422 Y-3.33257
G01 X4.17548 Y-3.33361
G01 X4.17650 Y-3.33415
G01 X4.17760 Y-3.33449
G01 X4.17922 Y-3.33465
G01 X4.45579 Y-3.33465
G01 X4.45795 Y-3.33489
G01 X4.46000 Y-3.33559
G01 X4.46185 Y-3.33673
G01 X4.46340 Y-3.33825
G01 X4.46585 Y-3.34123
G01 X4.46853 Y-3.34343
G01 X4.47158 Y-3.34506
G01 X4.47490 Y-3.34607
G01 X4.47883 Y-3.34646
G01 X4.52117 Y-3.34646
G01 X4.52510 Y-3.34607
G01 X4.52841 Y-3.34506
G01 X4.53147 Y-3.34343
G01 X4.53415 Y-3.34123
G01 X4.53634 Y-3.33856
G01 X4.53798 Y-3.33550
G01 X4.53898 Y-3.33219
G01 X4.53932 Y-3.32874
G01 X4.53898 Y-3.32529
G01 X4.53798 Y-3.32198
G01 X4.53634 Y-3.31892
G01 X4.53415 Y-3.31625
G01 X4.53147 Y-3.31405
G01 X4.52841 Y-3.31242
G01 X4.52510 Y-3.31141
G01 X4.52117 Y-3.31102
G01 X4.47883 Y-3.31102
G01 X4.47490 Y-3.31141
G01 X4.47158 Y-3.31242
G01 X4.46853 Y-3.31405
G01 X4.46585 Y-3.31625
G01 X4.46340 Y-3.31923
G01 X4.46218 Y-3.32047
G01 X4.46077 Y-3.32148
G01 X4.45920 Y-3.32222
G01 X4.45752 Y-3.32268
G01 X4.45579 Y-3.32283
G01 X4.18526 Y-3.32283
G01 X4.18334 Y-3.32264
G01 X4.18150 Y-3.32208
G01 X4.17980 Y-3.32117
G01 X4.17830 Y-3.31995
G01 X4.17693 Y-3.31835
G01 X4.17606 Y-3.31682
G01 X4.17548 Y-3.31514
G01 X4.17521 Y-3.31340
G01 X4.17525 Y-3.31163
G01 X4.17561 Y-3.30990
G01 X4.17698 Y-3.30537
G01 X4.17751 Y-3.30000
G01 X4.17698 Y-3.29463
G01 X4.17542 Y-3.28947
G01 X4.17287 Y-3.28471
G01 X4.16945 Y-3.28055
G01 X4.16528 Y-3.27712
G01 X4.16053 Y-3.27458
G01 X4.15537 Y-3.27302
G01 X4.15000 Y-3.27249
G01 X4.14463 Y-3.27302
G01 X4.13947 Y-3.27458
G01 X4.13471 Y-3.27712
G01 X4.13055 Y-3.28055
G01 X4.12713 Y-3.28471
G01 X4.12458 Y-3.28947
G01 X4.12302 Y-3.29463
G01 X4.12249 Y-3.30000
G04 P0 ( dwell for no time -- G64 should not smooth over this point )
G00 Z0.08000 ( retract )

G00 X4.06503 Y-3.31700 ( rapid move to begin. )
G01 F180.00000
( Mill infeed pass 1/1 )
G01 Z-0.04000
G04 P0 ( dwell for no time -- G64 should not smooth over this point )
G01 F360.00000
G01 X4.06503 Y-3.31700
G01 X4.05985 Y-3.31181
G01 X4.05985 Y-3.28819
G01 X4.06503 Y-3.28300
G01 X4.05985 Y-3.28819
G01 X4.03979 Y-3.28819
G01 X4.03688 Y-3.28445
G01 X4.03979 Y-3.28819
G01 X4.03963 Y-3.28987
G01 X4.03806 Y-3.29505
G01 X4.03535 Y-3.30000
G01 X4.03551 Y-3.30019
G01 X4.03330 Y-3.30023
G01 X4.03551 Y-3.30019
G01 X4.03806 Y-3.30495
G01 X4.03963 Y-3.31012
G01 X4.03979 Y-3.31181
G01 X4.03688 Y-3.31555
G01 X4.03979 Y-3.31181
G01 X4.05985 Y-3.31181
G04 P0 ( dwell for no time -- G64 should not smooth over this point )
G00 Z0.08000 ( retract )

G00 X3.84015 Y-3.28819 ( rapid move to begin. )
G01 F180.00000
( Mill infeed pass 1/1 )
G01 Z-0.04000
G04 P0 ( dwell for no time -- G64 should not smooth over this point )
G01 F360.00000
G01 X3.84015 Y-3.28819
G01 X3.84015 Y-3.31243
G01 X3.83667 Y-3.31501
G01 X3.84015 Y-3.31243
G01 X3.84504 Y-3.31391
G01 X3.85000 Y-3.31661
G01 X3.85000 Y-3.31908
G01 X3.85000 Y-3.31661
G01 X3.85495 Y-3.31391
G01 X3.86016 Y-3.31234
G01 X3.86212 Y-3.31419
G01 X3.86016 Y-3.31234
G01 X3.86037 Y-3.31012
G01 X3.86194 Y-3.30495
G01 X3.86464 Y-3.30000
G01 X3.86711 Y-3.30000
G01 X3.86464 Y-3.30000
G01 X3.86449 Y-3.29981
G01 X3.86194 Y-3.29505
G01 X3.86037 Y-3.28987
G01 X3.86021 Y-3.28819
G01 X3.86312 Y-3.28445
G01 X3.86021 Y-3.28819
G01 X3.84015 Y-3.28819
G01 X3.83497 Y-3.28300
G04 P0 ( dwell for no time -- G64 should not smooth over this point )
G00 Z0.08000 ( retract )

G00 X3.73944 Y-3.30409 ( rapid move to begin. )
G01 F180.00000
( Mill infeed pass 1/1 )
G01 Z-0.04000
G04 P0 ( dwell for no time -- G64 should not smooth over this point )
G01 F360.00000
G01 X3.73944 Y-3.30409
G01 X3.74034 Y-3.29947
G01 X3.74047 Y-3.29811
G01 X3.74037 Y-3.29807
G01 X3.74047 Y-3.29811
G01 X3.74103 Y-3.29628
G01 X3.74192 Y-3.29460
G01 X3.74164 Y-3.29441
G01 X3.74192 Y-3.29460
G01 X3.74313 Y-3.29313
G01 X3.74460 Y-3.29192
G01 X3.74441 Y-3.29164
G01 X3.74460 Y-3.29192
G01 X3.74628 Y-3.29103
G01 X3.74810 Y-3.29047
G01 X3.74804 Y-3.29013
G01 X3.74810 Y-3.29047
G01 X3.75000 Y-3.29029
G01 X3.75189 Y-3.29047
G01 X3.75196 Y-3.29013
G01 X3.75189 Y-3.29047
G01 X3.75372 Y-3.29103
G01 X3.75540 Y-3.29192
G01 X3.75559 Y-3.29164
G01 X3.75540 Y-3.29192
G01 X3.75687 Y-3.29313
G01 X3.75807 Y-3.29460
G01 X3.75836 Y-3.29441
G01 X3.75807 Y-3.29460
G01 X3.75897 Y-3.29628
G01 X3.75953 Y-3.29811
G01 X3.75987 Y-3.29804
G01 X3.75953 Y-3.29811
G01 X3.75971 Y-3.30000
G01 X3.75953 Y-3.30189
G01 X3.75987 Y-3.30196
G01 X3.75953 Y-3.30189
G01 X3.75897 Y-3.30372
G01 X3.75807 Y-3.30539
G01 X3.75836 Y-3.30559
G01 X3.75807 Y-3.30539
G01 X3.75687 Y-3.30687
G01 X3.75540 Y-3.30808
G01 X3.75559 Y-3.30836
G01 X3.75540 Y-3.30808
G01 X3.75372 Y-3.30897
G01 X3.75189 Y-3.30952
G01 X3.75196 Y-3.30986
G01 X3.75189 Y-3.30952
G01 X3.75000 Y-3.30971
G01 X3.74810 Y-3.30952
G01 X3.74804 Y-3.30986
G01 X3.74810 Y-3.30952
G01 X3.74628 Y-3.30897
G01 X3.74461 Y-3.30808
G01 X3.74451 Y-3.30825
G01 X3.74461 Y-3.30808
G01 X3.74103 Y-3.30514
G01 X3.73944 Y-3.30409
G01 X3.73628 Y-3.30545
G04 P0 ( dwell for no time -- G64 should not smooth over this point )
G00 Z0.08000 ( retract )

G00 X3.42033 Y-3.17126 ( rapid move to begin. )
G01 F180.00000
( Mill infeed pass 1/1 )
G01 Z-0.04000
G04 P0 ( dwell for no time -- G64 should not smooth over this point )
G01 F360.00000
G01 X3.42033 Y-3.17126
G01 X3.36068 Y-3.17126
G01 X3.36102 Y-3.17471
G01 X3.36202 Y-3.17802
G01 X3.36366 Y-3.18108
G01 X3.36585 Y-3.18375
G01 X3.36853 Y-3.18595
G01 X3.37158 Y-3.18758
G01 X3.37490 Y-3.18859
G01 X3.37883 Y-3.18898
G01 X3.42117 Y-3.18898
G01 X3.42510 Y-3.18859
G01 X3.42842 Y-3.18758
G01 X3.43147 Y-3.18595
G01 X3.43415 Y-3.18375
G01 X3.43660 Y-3.18076
G01 X3.43782 Y-3.17952
G01 X3.43923 Y-3.17852
G01 X3.44080 Y-3.17777
G01 X3.44248 Y-3.17732
G01 X3.44421 Y-3.17717
G01 X4.04232 Y-3.17717
G01 X4.04395 Y-3.17701
G01 X4.04505 Y-3.17667
G01 X4.04606 Y-3.17613
G01 X4.04732 Y-3.17509
G01 X4.25934 Y-2.96307
G01 X4.26093 Y-2.96179
G01 X4.26274 Y-2.96086
G01 X4.26470 Y-2.96032
G01 X4.26673 Y-2.96020
G01 X4.26875 Y-2.96050
G01 X4.27066 Y-2.96121
G01 X4.27238 Y-2.96229
G01 X4.27384 Y-2.96371
G01 X4.27550 Y-2.96637
G01 X4.27917 Y-2.97083
G01 X4.28363 Y-2.97449
G01 X4.28873 Y-2.97722
G01 X4.29425 Y-2.97889
G01 X4.30000 Y-2.97946
G01 X4.30575 Y-2.97889
G01 X4.31127 Y-2.97722
G01 X4.31637 Y-2.97449
G01 X4.32083 Y-2.97083
G01 X4.32449 Y-2.96637
G01 X4.32722 Y-2.96127
G01 X4.32889 Y-2.95575
G01 X4.32946 Y-2.95000
G01 X4.32889 Y-2.94425
G01 X4.32722 Y-2.93873
G01 X4.32449 Y-2.93363
G01 X4.32083 Y-2.92917
G01 X4.31637 Y-2.92550
G01 X4.31111 Y-2.92270
G01 X4.30936 Y-2.92150
G01 X4.30790 Y-2.91995
G01 X4.30681 Y-2.91813
G01 X4.30614 Y-2.91612
G01 X4.30591 Y-2.91401
G01 X4.30591 Y-2.86575
G01 X4.30610 Y-2.86383
G01 X4.30666 Y-2.86198
G01 X4.30757 Y-2.86028
G01 X4.30879 Y-2.85879
G01 X4.31028 Y-2.85757
G01 X4.31198 Y-2.85666
G01 X4.31383 Y-2.85610
G01 X4.31575 Y-2.85591
G01 X4.43155 Y-2.85591
G01 X4.43328 Y-2.85606
G01 X4.43496 Y-2.85651
G01 X4.43653 Y-2.85726
G01 X4.43795 Y-2.85826
G01 X4.44047 Y-2.86110
G01 X4.44285 Y-2.86305
G01 X4.44557 Y-2.86450
G01 X4.44851 Y-2.86540
G01 X4.45157 Y-2.86570
G01 X4.45464 Y-2.86540
G01 X4.45758 Y-2.86450
G01 X4.46030 Y-2.86305
G01 X4.46268 Y-2.86110
G01 X4.46463 Y-2.85872
G01 X4.46608 Y-2.85601
G01 X4.46697 Y-2.85306
G01 X4.46727 Y-2.85000
G01 X4.46697 Y-2.84694
G01 X4.46608 Y-2.84399
G01 X4.46463 Y-2.84128
G01 X4.46268 Y-2.83890
G01 X4.46030 Y-2.83695
G01 X4.45758 Y-2.83549
G01 X4.45464 Y-2.83460
G01 X4.45157 Y-2.83430
G01 X4.44851 Y-2.83460
G01 X4.44557 Y-2.83549
G01 X4.44285 Y-2.83695
G01 X4.44047 Y-2.83890
G01 X4.43795 Y-2.84173
G01 X4.43653 Y-2.84274
G01 X4.43496 Y-2.84348
G01 X4.43328 Y-2.84394
G01 X4.43155 Y-2.84409
G01 X4.30048 Y-2.84409
G01 X4.29886 Y-2.84425
G01 X4.29776 Y-2.84459
G01 X4.29674 Y-2.84513
G01 X4.29586 Y-2.84586
G01 X4.29513 Y-2.84674
G01 X4.29459 Y-2.84776
G01 X4.29425 Y-2.84886
G01 X4.29409 Y-2.85048
G01 X4.29409 Y-2.90754
G01 X4.29390 Y-2.90946
G01 X4.29334 Y-2.91131
G01 X4.29243 Y-2.91301
G01 X4.29121 Y-2.91450
G01 X4.04324 Y-3.16247
G01 X4.04175 Y-3.16369
G01 X4.04005 Y-3.16460
G01 X4.03820 Y-3.16516
G01 X4.03628 Y-3.16535
G01 X3.44421 Y-3.16535
G01 X3.44205 Y-3.16511
G01 X3.44000 Y-3.16441
G01 X3.43815 Y-3.16327
G01 X3.43660 Y-3.16175
G01 X3.43415 Y-3.15877
G01 X3.43147 Y-3.15657
G01 X3.42842 Y-3.15494
G01 X3.42510 Y-3.15393
G01 X3.42117 Y-3.15354
G01 X3.37883 Y-3.15354
G01 X3.37490 Y-3.15393
G01 X3.37158 Y-3.15494
G01 X3.36853 Y-3.15657
G01 X3.36585 Y-3.15877
G01 X3.36366 Y-3.16144
G01 X3.36202 Y-3.16450
G01 X3.36102 Y-3.16781
G01 X3.36068 Y-3.17126
G04 P0 ( dwell for no time -- G64 should not smooth over this point )
G00 Z0.08000 ( retract )

G00 X3.37967 Y-3.25000 ( rapid move to begin. )
G01 F180.00000
( Mill infeed pass 1/1 )
G01 Z-0.04000
G04 P0 ( dwell for no time -- G64 should not smooth over this point )
G01 F360.00000
G01 X3.37967 Y-3.25000
G01 X3.42033 Y-3.25000
G04 P0 ( dwell for no time -- G64 should not smooth over this point )
G00 Z0.08000 ( retract )

G00 X3.42033 Y-3.32874 ( rapid move to begin. )
G01 F180.00000
( Mill infeed pass 1/1 )
G01 Z-0.04000
G04 P0 ( dwell for no time -- G64 should not smooth over this point )
G01 F360.00000
G01 X3.42033 Y-3.32874
G01 X3.36068 Y-3.32874
G01 X3.36102 Y-3.32529
G01 X3.36202 Y-3.32198
G01 X3.36366 Y-3.31892
G01 X3.36585 Y-3.31625
G01 X3.36853 Y-3.31405
G01 X3.37158 Y-3.31242
G01 X3.37490 Y-3.31141
G01 X3.37883 Y-3.31102
G01 X3.42117 Y-3.31102
G01 X3.42510 Y-3.31141
G01 X3.42842 Y-3.31242
G01 X3.43147 Y-3.31405
G01 X3.43415 Y-3.31625
G01 X3.43660 Y-3.31923
G01 X3.43782 Y-3.32047
G01 X3.43923 Y-3.32148
G01 X3.44080 Y-3.32222
G01 X3.44248 Y-3.32268
G01 X3.44421 Y-3.32283
G01 X3.66847 Y-3.32283
G01 X3.67019 Y-3.32268
G01 X3.67185 Y-3.32224
G01 X3.71629 Y-3.30601
G01 X3.71795 Y-3.30523
G01 X3.71944 Y-3.30414
G01 X3.72070 Y-3.30280
G01 X3.72168 Y-3.30125
G01 X3.72236 Y-3.29954
G01 X3.72271 Y-3.29773
G01 X3.72302 Y-3.29463
G01 X3.72458 Y-3.28947
G01 X3.72713 Y-3.28471
G01 X3.73055 Y-3.28055
G01 X3.73472 Y-3.27712
G01 X3.73947 Y-3.27458
G01 X3.74463 Y-3.27302
G01 X3.75000 Y-3.27249
G01 X3.75537 Y-3.27302
G01 X3.76053 Y-3.27458
G01 X3.76528 Y-3.27712
G01 X3.76945 Y-3.28055
G01 X3.77287 Y-3.28471
G01 X3.77542 Y-3.28947
G01 X3.77698 Y-3.29463
G01 X3.77751 Y-3.30000
G01 X3.77698 Y-3.30537
G01 X3.77542 Y-3.31053
G01 X3.77287 Y-3.31528
G01 X3.76945 Y-3.31945
G01 X3.76528 Y-3.32287
G01 X3.76053 Y-3.32542
G01 X3.75537 Y-3.32698
G01 X3.75000 Y-3.32751
G01 X3.74463 Y-3.32698
G01 X3.73947 Y-3.32542
G01 X3.73472 Y-3.32288
G01 X3.72979 Y-3.31882
G01 X3.72808 Y-3.31770
G01 X3.72619 Y-3.31695
G01 X3.72418 Y-3.31660
G01 X3.72214 Y-3.31668
G01 X3.72016 Y-3.31718
G01 X3.67369 Y-3.33414
G01 X3.67228 Y-3.33452
G01 X3.67083 Y-3.33465
G01 X3.44421 Y-3.33465
G01 X3.44205 Y-3.33489
G01 X3.44000 Y-3.33559
G01 X3.43815 Y-3.33673
G01 X3.43660 Y-3.33825
G01 X3.43415 Y-3.34123
G01 X3.43147 Y-3.34343
G01 X3.42842 Y-3.34506
G01 X3.42510 Y-3.34607
G01 X3.42117 Y-3.34646
G01 X3.37883 Y-3.34646
G01 X3.37490 Y-3.34607
G01 X3.37158 Y-3.34506
G01 X3.36853 Y-3.34343
G01 X3.36585 Y-3.34123
G01 X3.36366 Y-3.33856
G01 X3.36202 Y-3.33550
G01 X3.36102 Y-3.33219
G01 X3.36068 Y-3.32874
G04 P0 ( dwell for no time -- G64 should not smooth over this point )
G00 Z0.08000 ( retract )

G00 X3.16249 Y-3.21714 ( rapid move to begin. )
G01 F180.00000
( Mill infeed pass 1/1 )
G01 Z-0.04000
G04 P0 ( dwell for no time -- G64 should not smooth over this point )
G01 F360.00000
G01 X3.16249 Y-3.21714
G01 X3.16265 Y-3.21872
G01 X3.16297 Y-3.21977
G01 X3.16348 Y-3.22074
G01 X3.16449 Y-3.22196
G01 X3.34498 Y-3.40246
G01 X3.34621 Y-3.40346
G01 X3.34718 Y-3.40398
G01 X3.34823 Y-3.40430
G01 X3.34981 Y-3.40446
G01 X3.82109 Y-3.40446
G01 X3.82266 Y-3.40430
G01 X3.82372 Y-3.40398
G01 X3.82469 Y-3.40346
G01 X3.82591 Y-3.40246
G01 X3.85366 Y-3.37471
G01 X3.85466 Y-3.37349
G01 X3.85518 Y-3.37252
G01 X3.85550 Y-3.37146
G01 X3.85566 Y-3.36989
G01 X3.85566 Y-3.33937
G01 X3.85585 Y-3.33745
G01 X3.85641 Y-3.33560
G01 X3.85732 Y-3.33390
G01 X3.85854 Y-3.33241
G01 X3.86003 Y-3.33119
G01 X3.86173 Y-3.33028
G01 X3.86358 Y-3.32972
G01 X3.86550 Y-3.32953
G01 X3.87756 Y-3.32953
G01 X3.87756 Y-3.31550
G01 X3.87775 Y-3.31358
G01 X3.87831 Y-3.31173
G01 X3.87922 Y-3.31003
G01 X3.88044 Y-3.30854
G01 X3.88193 Y-3.30732
G01 X3.88363 Y-3.30641
G01 X3.88548 Y-3.30585
G01 X3.88740 Y-3.30566
G01 X4.01260 Y-3.30566
G01 X4.01452 Y-3.30585
G01 X4.01636 Y-3.30641
G01 X4.01807 Y-3.30732
G01 X4.01956 Y-3.30854
G01 X4.02078 Y-3.31003
G01 X4.02169 Y-3.31173
G01 X4.02225 Y-3.31358
G01 X4.02244 Y-3.31550
G01 X4.02244 Y-3.32953
G01 X4.07756 Y-3.32953
G01 X4.07756 Y-3.27047
G01 X4.02244 Y-3.27047
G01 X4.02244 Y-3.28450
G01 X4.02225 Y-3.28642
G01 X4.02169 Y-3.28827
G01 X4.02078 Y-3.28997
G01 X4.01956 Y-3.29146
G01 X4.01807 Y-3.29268
G01 X4.01636 Y-3.29359
G01 X4.01452 Y-3.29415
G01 X4.01260 Y-3.29434
G01 X3.88740 Y-3.29434
G01 X3.88548 Y-3.29415
G01 X3.88363 Y-3.29359
G01 X3.88193 Y-3.29268
G01 X3.88044 Y-3.29146
G01 X3.87922 Y-3.28997
G01 X3.87831 Y-3.28827
G01 X3.87775 Y-3.28642
G01 X3.87756 Y-3.28450
G01 X3.87756 Y-3.27047
G01 X3.82244 Y-3.27047
G01 X3.82244 Y-3.32953
G01 X3.83450 Y-3.32953
G01 X3.83642 Y-3.32972
G01 X3.83827 Y-3.33028
G01 X3.83997 Y-3.33119
G01 X3.84146 Y-3.33241
G01 X3.84268 Y-3.33390
G01 X3.84359 Y-3.33560
G01 X3.84415 Y-3.33745
G01 X3.84434 Y-3.33937
G01 X3.84434 Y-3.36395
G01 X3.84415 Y-3.36587
G01 X3.84359 Y-3.36772
G01 X3.84268 Y-3.36942
G01 X3.84146 Y-3.37091
G01 X3.82211 Y-3.39026
G01 X3.82062 Y-3.39148
G01 X3.81892 Y-3.39239
G01 X3.81707 Y-3.39295
G01 X3.81515 Y-3.39314
G01 X3.35575 Y-3.39314
G01 X3.35383 Y-3.39295
G01 X3.35198 Y-3.39239
G01 X3.35028 Y-3.39148
G01 X3.34879 Y-3.39026
G01 X3.17669 Y-3.21816
G01 X3.17546 Y-3.21667
G01 X3.17455 Y-3.21497
G01 X3.17400 Y-3.21312
G01 X3.17381 Y-3.21120
G01 X3.17381 Y-2.81713
G01 X3.17400 Y-2.81521
G01 X3.17455 Y-2.81336
G01 X3.17546 Y-2.81166
G01 X3.17669 Y-2.81017
G01 X3.21017 Y-2.77669
G01 X3.21166 Y-2.77547
G01 X3.21336 Y-2.77455
G01 X3.21521 Y-2.77400
G01 X3.21713 Y-2.77381
G01 X3.57247 Y-2.77381
G01 X3.57404 Y-2.77365
G01 X3.57510 Y-2.77333
G01 X3.57607 Y-2.77281
G01 X3.57729 Y-2.77181
G01 X3.71456 Y-2.63454
G01 X3.71605 Y-2.63332
G01 X3.71775 Y-2.63241
G01 X3.71960 Y-2.63185
G01 X3.72152 Y-2.63166
G01 X3.74610 Y-2.63166
G01 X3.74802 Y-2.63185
G01 X3.74987 Y-2.63241
G01 X3.75157 Y-2.63332
G01 X3.75306 Y-2.63454
G01 X3.75428 Y-2.63603
G01 X3.75519 Y-2.63773
G01 X3.75575 Y-2.63958
G01 X3.75594 Y-2.64150
G01 X3.75594 Y-2.68506
G01 X3.87406 Y-2.68506
G01 X3.87406 Y-2.57902
G01 X3.87425 Y-2.57710
G01 X3.87481 Y-2.57525
G01 X3.87572 Y-2.57355
G01 X3.87694 Y-2.57206
G01 X3.92414 Y-2.52486
G01 X3.92563 Y-2.52364
G01 X3.92733 Y-2.52273
G01 X3.92918 Y-2.52217
G01 X3.93110 Y-2.52198
G01 X3.93302 Y-2.52217
G01 X3.93487 Y-2.52273
G01 X3.93657 Y-2.52364
G01 X3.93806 Y-2.52486
G01 X3.93928 Y-2.52635
G01 X3.94019 Y-2.52805
G01 X3.94075 Y-2.52990
G01 X3.94094 Y-2.53182
G01 X3.94094 Y-2.56696
G01 X4.05906 Y-2.56696
G01 X4.05906 Y-2.44884
G01 X3.94094 Y-2.44884
G01 X3.94094 Y-2.49260
G01 X3.94073 Y-2.49465
G01 X3.94008 Y-2.49662
G01 X3.93905 Y-2.49840
G01 X3.93766 Y-2.49993
G01 X3.93598 Y-2.50114
G01 X3.93409 Y-2.50197
G01 X3.93095 Y-2.50272
G01 X3.92998 Y-2.50324
G01 X3.92876 Y-2.50424
G01 X3.86894 Y-2.56406
G01 X3.86745 Y-2.56528
G01 X3.86575 Y-2.56619
G01 X3.86390 Y-2.56675
G01 X3.86198 Y-2.56694
G01 X3.75594 Y-2.56694
G01 X3.75594 Y-2.61050
G01 X3.75575 Y-2.61242
G01 X3.75519 Y-2.61427
G01 X3.75428 Y-2.61597
G01 X3.75306 Y-2.61746
G01 X3.75157 Y-2.61868
G01 X3.74987 Y-2.61959
G01 X3.74802 Y-2.62015
G01 X3.74610 Y-2.62034
G01 X3.71558 Y-2.62034
G01 X3.71400 Y-2.62050
G01 X3.71295 Y-2.62082
G01 X3.71198 Y-2.62134
G01 X3.71076 Y-2.62234
G01 X3.57349 Y-2.75961
G01 X3.57200 Y-2.76083
G01 X3.57030 Y-2.76174
G01 X3.56845 Y-2.76230
G01 X3.56653 Y-2.76249
G01 X3.21119 Y-2.76249
G01 X3.20962 Y-2.76265
G01 X3.20856 Y-2.76297
G01 X3.20759 Y-2.76348
G01 X3.20637 Y-2.76449
G01 X3.16449 Y-2.80637
G01 X3.16348 Y-2.80759
G01 X3.16297 Y-2.80856
G01 X3.16265 Y-2.80962
G01 X3.16249 Y-2.81119
G01 X3.16249 Y-3.21714
G04 P0 ( dwell for no time -- G64 should not smooth over this point )
G00 Z0.08000 ( retract )

G00 X3.22054 Y-2.95000 ( rapid move to begin. )
G01 F180.00000
( Mill infeed pass 1/1 )
G01 Z-0.04000
G04 P0 ( dwell for no time -- G64 should not smooth over this point )
G01 F360.00000
G01 X3.22054 Y-2.95000
G01 X3.22111 Y-2.94425
G01 X3.22278 Y-2.93873
G01 X3.22551 Y-2.93363
G01 X3.22917 Y-2.92917
G01 X3.23363 Y-2.92550
G01 X3.23873 Y-2.92278
G01 X3.24425 Y-2.92111
G01 X3.25000 Y-2.92054
G01 X3.25575 Y-2.92111
G01 X3.26172 Y-2.92292
G01 X3.26345 Y-2.92328
G01 X3.26522 Y-2.92332
G01 X3.26697 Y-2.92305
G01 X3.26864 Y-2.92246
G01 X3.27018 Y-2.92159
G01 X3.27154 Y-2.92046
G01 X3.34566 Y-2.84634
G01 X3.34688 Y-2.84533
G01 X3.34785 Y-2.84482
G01 X3.34890 Y-2.84450
G01 X3.35048 Y-2.84434
G01 X3.37441 Y-2.84434
G01 X3.37633 Y-2.84415
G01 X3.37818 Y-2.84359
G01 X3.37988 Y-2.84268
G01 X3.38137 Y-2.84146
G01 X3.38259 Y-2.83997
G01 X3.38350 Y-2.83827
G01 X3.38406 Y-2.83642
G01 X3.38425 Y-2.83425
G01 X3.41575 Y-2.83425
G01 X3.41575 Y-2.86575
G01 X3.38425 Y-2.86575
G01 X3.38406 Y-2.86358
G01 X3.38350 Y-2.86173
G01 X3.38259 Y-2.86003
G01 X3.38137 Y-2.85854
G01 X3.37988 Y-2.85732
G01 X3.37818 Y-2.85641
G01 X3.37633 Y-2.85585
G01 X3.37441 Y-2.85566
G01 X3.35642 Y-2.85566
G01 X3.35450 Y-2.85585
G01 X3.35265 Y-2.85641
G01 X3.35095 Y-2.85732
G01 X3.34946 Y-2.85854
G01 X3.27954 Y-2.92846
G01 X3.27841 Y-2.92982
G01 X3.27753 Y-2.93136
G01 X3.27695 Y-2.93303
G01 X3.27668 Y-2.93478
G01 X3.27672 Y-2.93655
G01 X3.27708 Y-2.93828
G01 X3.27889 Y-2.94425
G01 X3.27946 Y-2.95000
G01 X3.27889 Y-2.95575
G01 X3.27722 Y-2.96127
G01 X3.27449 Y-2.96637
G01 X3.27083 Y-2.97083
G01 X3.26637 Y-2.97449
G01 X3.26086 Y-2.97744
G01 X3.25911 Y-2.97863
G01 X3.25765 Y-2.98018
G01 X3.25656 Y-2.98200
G01 X3.25589 Y-2.98401
G01 X3.25566 Y-2.98612
G01 X3.25566 Y-3.17379
G01 X3.25585 Y-3.17571
G01 X3.25641 Y-3.17756
G01 X3.25732 Y-3.17926
G01 X3.25854 Y-3.18075
G01 X3.31925 Y-3.24146
G01 X3.32074 Y-3.24268
G01 X3.32244 Y-3.24359
G01 X3.32429 Y-3.24415
G01 X3.32621 Y-3.24434
G01 X3.35559 Y-3.24434
G01 X3.35732 Y-3.24419
G01 X3.35899 Y-3.24373
G01 X3.36056 Y-3.24299
G01 X3.36198 Y-3.24198
G01 X3.36320 Y-3.24074
G01 X3.36585 Y-3.23751
G01 X3.36853 Y-3.23531
G01 X3.37158 Y-3.23368
G01 X3.37490 Y-3.23267
G01 X3.37883 Y-3.23228
G01 X3.42117 Y-3.23228
G01 X3.42510 Y-3.23267
G01 X3.42842 Y-3.23368
G01 X3.43147 Y-3.23531
G01 X3.43415 Y-3.23751
G01 X3.43634 Y-3.24018
G01 X3.43798 Y-3.24324
G01 X3.43898 Y-3.24655
G01 X3.43932 Y-3.25000
G01 X3.43898 Y-3.25345
G01 X3.43798 Y-3.25676
G01 X3.43634 Y-3.25982
G01 X3.43415 Y-3.26249
G01 X3.43147 Y-3.26469
G01 X3.42842 Y-3.26632
G01 X3.42510 Y-3.26733
G01 X3.42117 Y-3.26772
G01 X3.37883 Y-3.26772
G01 X3.37490 Y-3.26733
G01 X3.37158 Y-3.26632
G01 X3.36853 Y-3.26469
G01 X3.36585 Y-3.26249
G01 X3.36320 Y-3.25926
G01 X3.36198 Y-3.25801
G01 X3.36056 Y-3.25701
G01 X3.35899 Y-3.25626
G01 X3.35732 Y-3.25581
G01 X3.35559 Y-3.25566
G01 X3.32027 Y-3.25566
G01 X3.31869 Y-3.25550
G01 X3.31764 Y-3.25518
G01 X3.31667 Y-3.25466
G01 X3.31544 Y-3.25366
G01 X3.24634 Y-3.18455
G01 X3.24533 Y-3.18333
G01 X3.24482 Y-3.18236
G01 X3.24450 Y-3.18131
G01 X3.24434 Y-3.17973
G01 X3.24434 Y-2.98612
G01 X3.24411 Y-2.98401
G01 X3.24344 Y-2.98200
G01 X3.24235 Y-2.98018
G01 X3.24089 Y-2.97863
G01 X3.23914 Y-2.97744
G01 X3.23363 Y-2.97449
G01 X3.22917 Y-2.97083
G01 X3.22551 Y-2.96637
G01 X3.22278 Y-2.96127
G01 X3.22111 Y-2.95575
G01 X3.22054 Y-2.95000
G01 X3.23834 Y-2.95000
G01 X3.23856 Y-2.94773
G01 X3.23822 Y-2.94766
G01 X3.23856 Y-2.94773
G01 X3.23923 Y-2.94554
G01 X3.24030 Y-2.94352
G01 X3.24002 Y-2.94333
G01 X3.24030 Y-2.94352
G01 X3.24175 Y-2.94175
G01 X3.24352 Y-2.94030
G01 X3.24333 Y-2.94002
G01 X3.24352 Y-2.94030
G01 X3.24554 Y-2.93923
G01 X3.24772 Y-2.93856
G01 X3.24766 Y-2.93822
G01 X3.24772 Y-2.93856
G01 X3.25000 Y-2.93834
G01 X3.25227 Y-2.93856
G01 X3.25229 Y-2.93842
G01 X3.25227 Y-2.93856
G01 X3.25658 Y-2.93987
G01 X3.25952 Y-2.94048
G01 X3.26148 Y-2.93851
G01 X3.25952 Y-2.94048
G01 X3.26013 Y-2.94342
G01 X3.26144 Y-2.94773
G01 X3.26158 Y-2.94771
G01 X3.26144 Y-2.94773
G01 X3.26166 Y-2.95000
G01 X3.26144 Y-2.95227
G01 X3.26178 Y-2.95234
G01 X3.26144 Y-2.95227
G01 X3.26077 Y-2.95446
G01 X3.25969 Y-2.95648
G01 X3.25998 Y-2.95667
G01 X3.25969 Y-2.95648
G01 X3.25825 Y-2.95824
G01 X3.25648 Y-2.95969
G01 X3.25659 Y-2.95985
G01 X3.25648 Y-2.95969
G01 X3.25251 Y-2.96182
G01 X3.25000 Y-2.96353
G01 X3.25011 Y-2.96681
G01 X3.25000 Y-2.96353
G01 X3.24749 Y-2.96182
G01 X3.24352 Y-2.95969
G01 X3.24343 Y-2.95981
G01 X3.24352 Y-2.95969
G01 X3.24175 Y-2.95824
G01 X3.24030 Y-2.95648
G01 X3.24002 Y-2.95667
G01 X3.24030 Y-2.95648
G01 X3.23923 Y-2.95446
G01 X3.23856 Y-2.95227
G01 X3.23822 Y-2.95234
G01 X3.23856 Y-2.95227
G01 X3.23834 Y-2.95000
G04 P0 ( dwell for no time -- G64 should not smooth over this point )
G00 Z0.08000 ( retract )

G00 X3.48272 Y-2.85000 ( rapid move to begin. )
G01 F180.00000
( Mill infeed pass 1/1 )
G01 Z-0.04000
G04 P0 ( dwell for no time -- G64 should not smooth over this point )
G01 F360.00000
G01 X3.48272 Y-2.85000
G01 X3.48303 Y-2.85306
G01 X3.48392 Y-2.85601
G01 X3.48537 Y-2.85872
G01 X3.48732 Y-2.86110
G01 X3.48970 Y-2.86305
G01 X3.49242 Y-2.86450
G01 X3.49536 Y-2.86540
G01 X3.49843 Y-2.86570
G01 X3.50254 Y-2.86545
G01 X3.50425 Y-2.86574
G01 X3.50589 Y-2.86632
G01 X3.50739 Y-2.86719
G01 X3.50873 Y-2.86830
G01 X3.59408 Y-2.95366
G01 X3.59531 Y-2.95466
G01 X3.59628 Y-2.95518
G01 X3.59733 Y-2.95550
G01 X3.59891 Y-2.95566
G01 X3.61388 Y-2.95566
G01 X3.61599 Y-2.95589
G01 X3.61800 Y-2.95656
G01 X3.61982 Y-2.95765
G01 X3.62136 Y-2.95911
G01 X3.62256 Y-2.96086
G01 X3.62550 Y-2.96637
G01 X3.62917 Y-2.97083
G01 X3.63363 Y-2.97449
G01 X3.63873 Y-2.97722
G01 X3.64425 Y-2.97889
G01 X3.65000 Y-2.97946
G01 X3.65575 Y-2.97889
G01 X3.66127 Y-2.97722
G01 X3.66637 Y-2.97449
G01 X3.67083 Y-2.97083
G01 X3.67449 Y-2.96637
G01 X3.67744 Y-2.96086
G01 X3.67863 Y-2.95911
G01 X3.68018 Y-2.95765
G01 X3.68200 Y-2.95656
G01 X3.68401 Y-2.95589
G01 X3.68612 Y-2.95566
G01 X3.99532 Y-2.95566
G01 X3.99689 Y-2.95550
G01 X3.99795 Y-2.95518
G01 X3.99892 Y-2.95466
G01 X4.00014 Y-2.95366
G01 X4.15635 Y-2.79745
G01 X4.15784 Y-2.79623
G01 X4.15954 Y-2.79531
G01 X4.16139 Y-2.79475
G01 X4.16331 Y-2.79457
G01 X4.64327 Y-2.79457
G01 X4.64519 Y-2.79475
G01 X4.64703 Y-2.79531
G01 X4.64873 Y-2.79623
G01 X4.65023 Y-2.79745
G01 X4.76631 Y-2.91353
G01 X4.76753 Y-2.91502
G01 X4.76844 Y-2.91672
G01 X4.76900 Y-2.91857
G01 X4.76919 Y-2.92049
G01 X4.76919 Y-2.97951
G01 X4.76900 Y-2.98143
G01 X4.76844 Y-2.98327
G01 X4.76753 Y-2.98497
G01 X4.76631 Y-2.98647
G01 X4.59006 Y-3.16272
G01 X4.58857 Y-3.16394
G01 X4.58686 Y-3.16485
G01 X4.58502 Y-3.16541
G01 X4.58310 Y-3.16560
G01 X4.54441 Y-3.16560
G01 X4.54225 Y-3.16536
G01 X4.54020 Y-3.16466
G01 X4.53836 Y-3.16352
G01 X4.53680 Y-3.16200
G01 X4.53415 Y-3.15877
G01 X4.53147 Y-3.15657
G01 X4.52841 Y-3.15494
G01 X4.52510 Y-3.15393
G01 X4.52117 Y-3.15354
G01 X4.47883 Y-3.15354
G01 X4.47490 Y-3.15393
G01 X4.47158 Y-3.15494
G01 X4.46853 Y-3.15657
G01 X4.46585 Y-3.15877
G01 X4.46366 Y-3.16144
G01 X4.46202 Y-3.16450
G01 X4.46102 Y-3.16781
G01 X4.46068 Y-3.17126
G01 X4.46102 Y-3.17471
G01 X4.46202 Y-3.17802
G01 X4.46366 Y-3.18108
G01 X4.46585 Y-3.18375
G01 X4.46853 Y-3.18595
G01 X4.47158 Y-3.18758
G01 X4.47490 Y-3.18859
G01 X4.47883 Y-3.18898
G01 X4.52117 Y-3.18898
G01 X4.52510 Y-3.18859
G01 X4.52841 Y-3.18758
G01 X4.53147 Y-3.18595
G01 X4.53415 Y-3.18375
G01 X4.53681 Y-3.18051
G01 X4.53802 Y-3.17927
G01 X4.53944 Y-3.17827
G01 X4.54101 Y-3.17752
G01 X4.54268 Y-3.17707
G01 X4.54441 Y-3.17692
G01 X4.58903 Y-3.17692
G01 X4.59061 Y-3.17676
G01 X4.59166 Y-3.17644
G01 X4.59263 Y-3.17592
G01 X4.59386 Y-3.17492
G01 X4.77851 Y-2.99027
G01 X4.77951 Y-2.98904
G01 X4.78003 Y-2.98807
G01 X4.78035 Y-2.98702
G01 X4.78051 Y-2.98544
G01 X4.78051 Y-2.91455
G01 X4.78035 Y-2.91298
G01 X4.78003 Y-2.91192
G01 X4.77951 Y-2.91095
G01 X4.77851 Y-2.90973
G01 X4.65403 Y-2.78525
G01 X4.65280 Y-2.78424
G01 X4.65183 Y-2.78373
G01 X4.65078 Y-2.78341
G01 X4.64920 Y-2.78325
G01 X4.15737 Y-2.78325
G01 X4.15579 Y-2.78341
G01 X4.15474 Y-2.78373
G01 X4.15377 Y-2.78424
G01 X4.15255 Y-2.78525
G01 X3.99634 Y-2.94146
G01 X3.99485 Y-2.94268
G01 X3.99315 Y-2.94359
G01 X3.99130 Y-2.94415
G01 X3.98938 Y-2.94434
G01 X3.68612 Y-2.94434
G01 X3.68401 Y-2.94411
G01 X3.68200 Y-2.94344
G01 X3.68018 Y-2.94235
G01 X3.67863 Y-2.94089
G01 X3.67744 Y-2.93914
G01 X3.67449 Y-2.93363
G01 X3.67083 Y-2.92917
G01 X3.66637 Y-2.92550
G01 X3.66127 Y-2.92278
G01 X3.65575 Y-2.92111
G01 X3.65000 Y-2.92054
G01 X3.64425 Y-2.92111
G01 X3.63873 Y-2.92278
G01 X3.63363 Y-2.92550
G01 X3.62917 Y-2.92917
G01 X3.62550 Y-2.93363
G01 X3.62256 Y-2.93914
G01 X3.62136 Y-2.94089
G01 X3.61982 Y-2.94235
G01 X3.61800 Y-2.94344
G01 X3.61599 Y-2.94411
G01 X3.61388 Y-2.94434
G01 X3.60485 Y-2.94434
G01 X3.60292 Y-2.94415
G01 X3.60108 Y-2.94359
G01 X3.59938 Y-2.94268
G01 X3.59789 Y-2.94146
G01 X3.51673 Y-2.86030
G01 X3.51537 Y-2.85861
G01 X3.51442 Y-2.85666
G01 X3.51392 Y-2.85455
G01 X3.51389 Y-2.85238
G01 X3.51412 Y-2.85000
G01 X3.51382 Y-2.84694
G01 X3.51293 Y-2.84399
G01 X3.51148 Y-2.84128
G01 X3.50953 Y-2.83890
G01 X3.50715 Y-2.83695
G01 X3.50443 Y-2.83549
G01 X3.50149 Y-2.83460
G01 X3.49843 Y-2.83430
G01 X3.49536 Y-2.83460
G01 X3.49242 Y-2.83549
G01 X3.48970 Y-2.83695
G01 X3.48732 Y-2.83890
G01 X3.48537 Y-2.84128
G01 X3.48392 Y-2.84399
G01 X3.48303 Y-2.84694
G01 X3.48272 Y-2.85000
G04 P0 ( dwell for no time -- G64 should not smooth over this point )
G00 Z0.08000 ( retract )

G00 X3.63319 Y-2.95011 ( rapid move to begin. )
G01 F180.00000
( Mill infeed pass 1/1 )
G01 Z-0.04000
G04 P0 ( dwell for no time -- G64 should not smooth over this point )
G01 F360.00000
G01 X3.63319 Y-2.95011
G01 X3.63647 Y-2.95000
G01 X3.63818 Y-2.95251
G01 X3.64030 Y-2.95648
G01 X3.64015 Y-2.95659
G01 X3.64030 Y-2.95648
G01 X3.64175 Y-2.95824
G01 X3.64352 Y-2.95969
G01 X3.64333 Y-2.95998
G01 X3.64352 Y-2.95969
G01 X3.64554 Y-2.96077
G01 X3.64772 Y-2.96144
G01 X3.64766 Y-2.96178
G01 X3.64772 Y-2.96144
G01 X3.65000 Y-2.96166
G01 X3.65227 Y-2.96144
G01 X3.65234 Y-2.96178
G01 X3.65227 Y-2.96144
G01 X3.65446 Y-2.96077
G01 X3.65648 Y-2.95969
G01 X3.65658 Y-2.95986
G01 X3.65648 Y-2.95969
G01 X3.65824 Y-2.95824
G01 X3.65841 Y-2.95839
G01 X3.65824 Y-2.95824
G01 X3.65970 Y-2.95648
G01 X3.66182 Y-2.95251
G01 X3.66353 Y-2.95000
G01 X3.66662 Y-2.95005
G01 X3.66353 Y-2.95000
G01 X3.66182 Y-2.94749
G01 X3.65970 Y-2.94352
G01 X3.65981 Y-2.94344
G01 X3.65970 Y-2.94352
G01 X3.65824 Y-2.94175
G01 X3.65648 Y-2.94030
G01 X3.65667 Y-2.94002
G01 X3.65648 Y-2.94030
G01 X3.65446 Y-2.93923
G01 X3.65227 Y-2.93856
G01 X3.65234 Y-2.93822
G01 X3.65227 Y-2.93856
G01 X3.65000 Y-2.93834
G01 X3.64772 Y-2.93856
G01 X3.64766 Y-2.93822
G01 X3.64772 Y-2.93856
G01 X3.64554 Y-2.93923
G01 X3.64352 Y-2.94030
G01 X3.64333 Y-2.94002
G01 X3.64352 Y-2.94030
G01 X3.64175 Y-2.94175
G01 X3.64030 Y-2.94352
G01 X3.64019 Y-2.94344
G01 X3.64030 Y-2.94352
G01 X3.63818 Y-2.94749
G01 X3.63647 Y-2.95000
( Piece #2, position [1;0] )

G04 P0 ( dwell for no time -- G64 should not smooth over this point )
G00 Z0.08000 ( retract )

G00 X5.19456 Y-2.55000 ( rapid move to begin. )
G01 F180.00000
( Mill infeed pass 1/1 )
G01 Z-0.04000
G04 P0 ( dwell for no time -- G64 should not smooth over this point )
G01 F360.00000
G01 X5.19456 Y-2.55000
G01 X5.19512 Y-2.55575
G01 X5.19680 Y-2.56127
G01 X5.19952 Y-2.56637
G01 X5.20318 Y-2.57083
G01 X5.20765 Y-2.57449
G01 X5.21274 Y-2.57722
G01 X5.21827 Y-2.57889
G01 X5.22402 Y-2.57946
G01 X5.22976 Y-2.57889
G01 X5.23529 Y-2.57722
G01 X5.24038 Y-2.57449
G01 X5.24485 Y-2.57083
G01 X5.24851 Y-2.56637
G01 X5.25132 Y-2.56111
G01 X5.25252 Y-2.55936
G01 X5.25406 Y-2.55790
G01 X5.25588 Y-2.55681
G01 X5.25789 Y-2.55614
G01 X5.26000 Y-2.55591
G01 X5.58803 Y-2.55591
G01 X5.59014 Y-2.55614
G01 X5.59215 Y-2.55681
G01 X5.59397 Y-2.55790
G01 X5.59551 Y-2.55936
G01 X5.59671 Y-2.56111
G01 X5.59952 Y-2.56637
G01 X5.60318 Y-2.57083
G01 X5.60765 Y-2.57449
G01 X5.61274 Y-2.57722
G01 X5.61827 Y-2.57889
G01 X5.62402 Y-2.57946
G01 X5.62976 Y-2.57889
G01 X5.63529 Y-2.57722
G01 X5.64038 Y-2.57449
G01 X5.64485 Y-2.57083
G01 X5.64851 Y-2.56637
G01 X5.65123 Y-2.56127
G01 X5.65291 Y-2.55575
G01 X5.65347 Y-2.55000
G01 X5.65291 Y-2.54425
G01 X5.65110 Y-2.53828
G01 X5.65070 Y-2.53619
G01 X5.65077 Y-2.53407
G01 X5.65128 Y-2.53201
G01 X5.65223 Y-2.53011
G01 X5.65356 Y-2.52846
G01 X5.76998 Y-2.41204
G01 X5.77147 Y-2.41081
G01 X5.77317 Y-2.40991
G01 X5.77502 Y-2.40935
G01 X5.77694 Y-2.40916
G01 X6.12109 Y-2.40916
G01 X6.12301 Y-2.40935
G01 X6.12486 Y-2.40991
G01 X6.12656 Y-2.41081
G01 X6.12805 Y-2.41204
G01 X6.24447 Y-2.52846
G01 X6.24561 Y-2.52982
G01 X6.24648 Y-2.53136
G01 X6.24706 Y-2.53303
G01 X6.24734 Y-2.53478
G01 X6.24729 Y-2.53654
G01 X6.24693 Y-2.53828
G01 X6.24512 Y-2.54425
G01 X6.24456 Y-2.55000
G01 X6.24465 Y-2.55298
G01 X6.24425 Y-2.55491
G01 X6.24348 Y-2.55673
G01 X6.24235 Y-2.55835
G01 X6.24093 Y-2.55972
G01 X6.23926 Y-2.56077
G01 X5.99280 Y-2.68400
G01 X5.99066 Y-2.68478
G01 X5.98840 Y-2.68504
G01 X5.91496 Y-2.68504
G01 X5.91496 Y-2.80316
G01 X6.03307 Y-2.80316
G01 X6.03307 Y-2.68316
G01 X6.03324 Y-2.68135
G01 X6.03374 Y-2.67961
G01 X6.03454 Y-2.67798
G01 X6.03563 Y-2.67654
G01 X6.03697 Y-2.67531
G01 X6.03851 Y-2.67435
G01 X6.24459 Y-2.57132
G01 X6.24635 Y-2.57064
G01 X6.24820 Y-2.57031
G01 X6.25009 Y-2.57034
G01 X6.25193 Y-2.57073
G01 X6.25367 Y-2.57146
G01 X6.25523 Y-2.57251
G01 X6.25765 Y-2.57449
G01 X6.26274 Y-2.57722
G01 X6.26827 Y-2.57889
G01 X6.27402 Y-2.57946
G01 X6.27976 Y-2.57889
G01 X6.28529 Y-2.57722
G01 X6.29038 Y-2.57449
G01 X6.29485 Y-2.57083
G01 X6.29851 Y-2.56637
G01 X6.30132 Y-2.56111
G01 X6.30252 Y-2.55936
G01 X6.30406 Y-2.55790
G01 X6.30588 Y-2.55681
G01 X6.30782 Y-2.55616
G01 X6.25969 Y-2.55700
G01 X6.02376 Y-2.67893
G01 X6.00358 Y-2.71273
G01 X5.98512 Y-2.73299
G01 X5.97993 Y-2.73818
G01 X5.97993 Y-2.75001
G01 X5.98512 Y-2.75520
G01 X5.97993 Y-2.75001
G01 X5.96810 Y-2.75001
G01 X5.96291 Y-2.75520
G01 X5.96810 Y-2.75001
G01 X5.96810 Y-2.73818
G01 X5.96291 Y-2.73299
G01 X5.96810 Y-2.73818
G01 X5.97993 Y-2.73818
G01 X5.98512 Y-2.73299
G01 X6.00358 Y-2.71273
G01 X5.99764 Y-2.71939
G01 X5.98840 Y-2.72047
G01 X5.95039 Y-2.72047
G01 X5.94520 Y-2.71528
G01 X5.95039 Y-2.72047
G01 X5.95039 Y-2.76773
G01 X5.94520 Y-2.77292
G01 X5.95039 Y-2.76773
G01 X5.99764 Y-2.76773
G01 X6.00283 Y-2.77292
G01 X5.99764 Y-2.76773
G01 X5.99764 Y-2.71939
G01 X6.00358 Y-2.71273
G01 X6.02376 Y-2.67893
G01 X6.01536 Y-2.69253
G01 X6.01536 Y-2.78544
G01 X6.02055 Y-2.79063
G01 X6.01536 Y-2.78544
G01 X5.93267 Y-2.78544
G01 X5.92748 Y-2.79063
G01 X5.93267 Y-2.78544
G01 X5.93267 Y-2.70276
G01 X5.92748 Y-2.69757
G01 X5.93267 Y-2.70276
G01 X5.98840 Y-2.70276
G01 X5.99473 Y-2.70202
G01 X6.00072 Y-2.69985
G01 X6.01536 Y-2.69253
G01 X6.02376 Y-2.67893
G01 X6.25969 Y-2.55700
G01 X6.26205 Y-2.55586
G01 X6.26647 Y-2.55882
G01 X6.26754 Y-2.55970
G01 X6.26749 Y-2.55979
G01 X6.26754 Y-2.55970
G01 X6.26955 Y-2.56077
G01 X6.27174 Y-2.56144
G01 X6.27167 Y-2.56178
G01 X6.27174 Y-2.56144
G01 X6.27402 Y-2.56166
G01 X6.27629 Y-2.56144
G01 X6.27636 Y-2.56178
G01 X6.27629 Y-2.56144
G01 X6.27848 Y-2.56077
G01 X6.28049 Y-2.55970
G01 X6.28069 Y-2.55998
G01 X6.28049 Y-2.55970
G01 X6.28226 Y-2.55824
G01 X6.28371 Y-2.55648
G01 X6.28382 Y-2.55656
G01 X6.28371 Y-2.55648
G01 X6.28570 Y-2.55276
G01 X6.28758 Y-2.55000
G01 X6.29072 Y-2.54995
G01 X6.28758 Y-2.55000
G01 X6.28570 Y-2.54724
G01 X6.28371 Y-2.54352
G01 X6.28226 Y-2.54175
G01 X6.28242 Y-2.54161
G01 X6.28226 Y-2.54175
G01 X6.28049 Y-2.54030
G01 X6.28059 Y-2.54014
G01 X6.28049 Y-2.54030
G01 X6.27848 Y-2.53923
G01 X6.27629 Y-2.53856
G01 X6.27636 Y-2.53822
G01 X6.27629 Y-2.53856
G01 X6.27402 Y-2.53834
G01 X6.27174 Y-2.53856
G01 X6.27172 Y-2.53842
G01 X6.27174 Y-2.53856
G01 X6.26743 Y-2.53987
G01 X6.26449 Y-2.54048
G01 X6.26223 Y-2.53834
G01 X6.26449 Y-2.54048
G01 X6.26388 Y-2.54342
G01 X6.26258 Y-2.54772
G01 X6.26246 Y-2.54770
G01 X6.26258 Y-2.54772
G01 X6.26228 Y-2.55077
G01 X6.26227 Y-2.55479
G01 X6.26205 Y-2.55586
G01 X6.25969 Y-2.55700
G01 X6.66045 Y-2.55000
G01 X6.66233 Y-2.54724
G01 X6.66432 Y-2.54352
G01 X6.66421 Y-2.54344
G01 X6.66432 Y-2.54352
G01 X6.66577 Y-2.54175
G01 X6.66754 Y-2.54030
G01 X6.66734 Y-2.54002
G01 X6.66754 Y-2.54030
G01 X6.66955 Y-2.53923
G01 X6.67174 Y-2.53856
G01 X6.67167 Y-2.53822
G01 X6.67174 Y-2.53856
G01 X6.67402 Y-2.53834
G01 X6.67629 Y-2.53856
G01 X6.67636 Y-2.53822
G01 X6.67629 Y-2.53856
G01 X6.67848 Y-2.53923
G01 X6.68049 Y-2.54030
G01 X6.68069 Y-2.54002
G01 X6.68049 Y-2.54030
G01 X6.68226 Y-2.54175
G01 X6.68371 Y-2.54352
G01 X6.68400 Y-2.54333
G01 X6.68371 Y-2.54352
G01 X6.68479 Y-2.54554
G01 X6.68545 Y-2.54772
G01 X6.68579 Y-2.54766
G01 X6.68545 Y-2.54772
G01 X6.68568 Y-2.55000
G01 X6.68545 Y-2.55227
G01 X6.68579 Y-2.55234
G01 X6.68545 Y-2.55227
G01 X6.68479 Y-2.55446
G01 X6.68371 Y-2.55648
G01 X6.68400 Y-2.55667
G01 X6.68371 Y-2.55648
G01 X6.68226 Y-2.55824
G01 X6.68049 Y-2.55970
G01 X6.68069 Y-2.55998
G01 X6.68049 Y-2.55970
G01 X6.67848 Y-2.56077
G01 X6.67629 Y-2.56144
G01 X6.67636 Y-2.56178
G01 X6.67629 Y-2.56144
G01 X6.67402 Y-2.56166
G01 X6.67174 Y-2.56144
G01 X6.67167 Y-2.56178
G01 X6.67174 Y-2.56144
G01 X6.66955 Y-2.56077
G01 X6.66754 Y-2.55970
G01 X6.66734 Y-2.55998
G01 X6.66754 Y-2.55970
G01 X6.66577 Y-2.55824
G01 X6.66432 Y-2.55648
G01 X6.66416 Y-2.55659
G01 X6.66432 Y-2.55648
G01 X6.66233 Y-2.55276
G01 X6.66045 Y-2.55000
G01 X6.30782 Y-2.55616
G01 X6.31000 Y-2.55591
G01 X6.63803 Y-2.55591
G01 X6.64014 Y-2.55614
G01 X6.64215 Y-2.55681
G01 X6.64397 Y-2.55790
G01 X6.64551 Y-2.55936
G01 X6.64671 Y-2.56111
G01 X6.64952 Y-2.56637
G01 X6.65318 Y-2.57083
G01 X6.65765 Y-2.57449
G01 X6.66274 Y-2.57722
G01 X6.66827 Y-2.57889
G01 X6.67402 Y-2.57946
G01 X6.67976 Y-2.57889
G01 X6.68529 Y-2.57722
G01 X6.69038 Y-2.57449
G01 X6.69485 Y-2.57083
G01 X6.69851 Y-2.56637
G01 X6.70123 Y-2.56127
G01 X6.70291 Y-2.55575
G01 X6.70347 Y-2.55000
G01 X6.70291 Y-2.54425
G01 X6.70123 Y-2.53873
G01 X6.69851 Y-2.53363
G01 X6.69485 Y-2.52917
G01 X6.69038 Y-2.52550
G01 X6.68529 Y-2.52278
G01 X6.67976 Y-2.52111
G01 X6.67402 Y-2.52054
G01 X6.66827 Y-2.52111
G01 X6.66274 Y-2.52278
G01 X6.65765 Y-2.52550
G01 X6.65318 Y-2.52917
G01 X6.64952 Y-2.53363
G01 X6.64671 Y-2.53889
G01 X6.64551 Y-2.54064
G01 X6.64397 Y-2.54210
G01 X6.64215 Y-2.54319
G01 X6.64014 Y-2.54386
G01 X6.63803 Y-2.54409
G01 X6.31000 Y-2.54409
G01 X6.30789 Y-2.54386
G01 X6.30588 Y-2.54319
G01 X6.30406 Y-2.54210
G01 X6.30252 Y-2.54064
G01 X6.30132 Y-2.53889
G01 X6.29851 Y-2.53363
G01 X6.29485 Y-2.52917
G01 X6.29038 Y-2.52550
G01 X6.28529 Y-2.52278
G01 X6.27976 Y-2.52111
G01 X6.27402 Y-2.52054
G01 X6.26827 Y-2.52111
G01 X6.26229 Y-2.52292
G01 X6.26056 Y-2.52328
G01 X6.25879 Y-2.52332
G01 X6.25704 Y-2.52305
G01 X6.25537 Y-2.52246
G01 X6.25383 Y-2.52159
G01 X6.25248 Y-2.52046
G01 X6.13186 Y-2.39984
G01 X6.13063 Y-2.39883
G01 X6.12966 Y-2.39832
G01 X6.12861 Y-2.39800
G01 X6.12703 Y-2.39784
G01 X5.77100 Y-2.39784
G01 X5.76942 Y-2.39800
G01 X5.76837 Y-2.39832
G01 X5.76740 Y-2.39883
G01 X5.76617 Y-2.39984
G01 X5.64555 Y-2.52046
G01 X5.64420 Y-2.52159
G01 X5.64266 Y-2.52246
G01 X5.64099 Y-2.52305
G01 X5.63924 Y-2.52332
G01 X5.63747 Y-2.52328
G01 X5.63574 Y-2.52292
G01 X5.62976 Y-2.52111
G01 X5.62402 Y-2.52054
G01 X5.61827 Y-2.52111
G01 X5.61274 Y-2.52278
G01 X5.60765 Y-2.52550
G01 X5.60318 Y-2.52917
G01 X5.59952 Y-2.53363
G01 X5.59671 Y-2.53889
G01 X5.59551 Y-2.54064
G01 X5.59397 Y-2.54210
G01 X5.59215 Y-2.54319
G01 X5.59014 Y-2.54386
G01 X5.58803 Y-2.54409
G01 X5.26000 Y-2.54409
G01 X5.25789 Y-2.54386
G01 X5.25588 Y-2.54319
G01 X5.25406 Y-2.54210
G01 X5.25252 Y-2.54064
G01 X5.25132 Y-2.53889
G01 X5.24851 Y-2.53363
G01 X5.24485 Y-2.52917
G01 X5.24038 Y-2.52550
G01 X5.23529 Y-2.52278
G01 X5.22976 Y-2.52111
G01 X5.22402 Y-2.52054
G01 X5.21827 Y-2.52111
G01 X5.21274 Y-2.52278
G01 X5.20765 Y-2.52550
G01 X5.20318 Y-2.52917
G01 X5.19952 Y-2.53363
G01 X5.19680 Y-2.53873
G01 X5.19512 Y-2.54425
G01 X5.19456 Y-2.55000
G01 X5.21235 Y-2.55000
G01 X5.21258 Y-2.55227
G01 X5.21224 Y-2.55234
G01 X5.21258 Y-2.55227
G01 X5.21324 Y-2.55446
G01 X5.21432 Y-2.55648
G01 X5.21403 Y-2.55667
G01 X5.21432 Y-2.55648
G01 X5.21577 Y-2.55824
G01 X5.21754 Y-2.55970
G01 X5.21734 Y-2.55998
G01 X5.21754 Y-2.55970
G01 X5.21955 Y-2.56077
G01 X5.22174 Y-2.56144
G01 X5.22167 Y-2.56178
G01 X5.22174 Y-2.56144
G01 X5.22402 Y-2.56166
G01 X5.22629 Y-2.56144
G01 X5.22636 Y-2.56178
G01 X5.22629 Y-2.56144
G01 X5.22848 Y-2.56077
G01 X5.23049 Y-2.55970
G01 X5.23069 Y-2.55998
G01 X5.23049 Y-2.55970
G01 X5.23226 Y-2.55824
G01 X5.23371 Y-2.55648
G01 X5.23382 Y-2.55656
G01 X5.23371 Y-2.55648
G01 X5.23570 Y-2.55276
G01 X5.23758 Y-2.55000
G01 X5.24089 Y-2.54990
G01 X5.23758 Y-2.55000
G01 X5.23570 Y-2.54724
G01 X5.23371 Y-2.54352
G01 X5.23387 Y-2.54341
G01 X5.23371 Y-2.54352
G01 X5.23226 Y-2.54175
G01 X5.23049 Y-2.54030
G01 X5.23069 Y-2.54002
G01 X5.23049 Y-2.54030
G01 X5.22848 Y-2.53923
G01 X5.22629 Y-2.53856
G01 X5.22636 Y-2.53822
G01 X5.22629 Y-2.53856
G01 X5.22402 Y-2.53834
G01 X5.22174 Y-2.53856
G01 X5.22167 Y-2.53822
G01 X5.22174 Y-2.53856
G01 X5.21955 Y-2.53923
G01 X5.21754 Y-2.54030
G01 X5.21734 Y-2.54002
G01 X5.21754 Y-2.54030
G01 X5.21577 Y-2.54175
G01 X5.21432 Y-2.54352
G01 X5.21403 Y-2.54333
G01 X5.21432 Y-2.54352
G01 X5.21324 Y-2.54554
G01 X5.21258 Y-2.54772
G01 X5.21224 Y-2.54766
G01 X5.21258 Y-2.54772
G01 X5.21235 Y-2.55000
G01 X5.60714 Y-2.55010
G01 X5.61045 Y-2.55000
G01 X5.61233 Y-2.54724
G01 X5.61432 Y-2.54352
G01 X5.61421 Y-2.54344
G01 X5.61432 Y-2.54352
G01 X5.61577 Y-2.54175
G01 X5.61754 Y-2.54030
G01 X5.61734 Y-2.54002
G01 X5.61754 Y-2.54030
G01 X5.61955 Y-2.53923
G01 X5.62174 Y-2.53856
G01 X5.62169 Y-2.53837
G01 X5.62174 Y-2.53856
G01 X5.62402 Y-2.53834
G01 X5.62403 Y-2.53811
G01 X5.62402 Y-2.53834
G01 X5.62629 Y-2.53856
G01 X5.63059 Y-2.53987
G01 X5.63359 Y-2.54049
G01 X5.63572 Y-2.53830
G01 X5.63359 Y-2.54049
G01 X5.63414 Y-2.54342
G01 X5.63545 Y-2.54772
G01 X5.63559 Y-2.54771
G01 X5.63545 Y-2.54772
G01 X5.63568 Y-2.55000
G01 X5.63545 Y-2.55227
G01 X5.63579 Y-2.55234
G01 X5.63545 Y-2.55227
G01 X5.63479 Y-2.55446
G01 X5.63371 Y-2.55648
G01 X5.63400 Y-2.55667
G01 X5.63371 Y-2.55648
G01 X5.63226 Y-2.55824
G01 X5.63049 Y-2.55970
G01 X5.63069 Y-2.55998
G01 X5.63049 Y-2.55970
G01 X5.62848 Y-2.56077
G01 X5.62629 Y-2.56144
G01 X5.62634 Y-2.56162
G01 X5.62629 Y-2.56144
G01 X5.62402 Y-2.56166
G01 X5.62401 Y-2.56185
G01 X5.62402 Y-2.56166
G01 X5.62174 Y-2.56144
G01 X5.61955 Y-2.56077
G01 X5.61942 Y-2.56109
G01 X5.61955 Y-2.56077
G01 X5.61754 Y-2.55970
G01 X5.61577 Y-2.55824
G01 X5.61548 Y-2.55852
G01 X5.61577 Y-2.55824
G01 X5.61432 Y-2.55648
G01 X5.61233 Y-2.55276
G01 X5.61045 Y-2.55000
G04 P0 ( dwell for no time -- G64 should not smooth over this point )
G00 Z0.08000 ( retract )

G00 X5.74303 Y-2.62620 ( rapid move to begin. )
G01 F180.00000
( Mill infeed pass 1/1 )
G01 Z-0.04000
G04 P0 ( dwell for no time -- G64 should not smooth over this point )
G01 F360.00000
G01 X5.74303 Y-2.62620
G01 X5.74082 Y-2.62622
G01 X5.74303 Y-2.62619
G01 X5.74557 Y-2.63095
G01 X5.74714 Y-2.63612
G01 X5.74767 Y-2.64150
G01 X5.74767 Y-2.66734
G01 X5.74248 Y-2.67253
G01 X5.74767 Y-2.66734
G01 X5.83036 Y-2.66734
G01 X5.83555 Y-2.67253
G01 X5.83036 Y-2.66734
G01 X5.83036 Y-2.58466
G01 X5.83555 Y-2.57947
G01 X5.83036 Y-2.58466
G01 X5.74767 Y-2.58466
G01 X5.74248 Y-2.57947
G01 X5.74767 Y-2.58466
G01 X5.74767 Y-2.61050
G01 X5.74714 Y-2.61587
G01 X5.74557 Y-2.62105
G01 X5.74287 Y-2.62600
G01 X5.74303 Y-2.62620
G01 X5.76249 Y-2.62600
G01 X5.76452 Y-2.63267
G01 X5.76539 Y-2.64150
G01 X5.76539 Y-2.64963
G01 X5.76020 Y-2.65482
G01 X5.76539 Y-2.64963
G01 X5.81264 Y-2.64963
G01 X5.81783 Y-2.65482
G01 X5.81264 Y-2.64963
G01 X5.81264 Y-2.60237
G01 X5.81783 Y-2.59718
G01 X5.81264 Y-2.60237
G01 X5.76539 Y-2.60237
G01 X5.76020 Y-2.59718
G01 X5.76539 Y-2.60237
G01 X5.76539 Y-2.61050
G01 X5.76452 Y-2.61933
G01 X5.76249 Y-2.62600
G01 X5.78091 Y-2.62600
G01 X5.78189 Y-2.62921
G01 X5.78216 Y-2.63191
G01 X5.77894 Y-2.63588
G01 X5.78216 Y-2.63191
G01 X5.79493 Y-2.63191
G01 X5.80012 Y-2.63710
G01 X5.79493 Y-2.63191
G01 X5.79493 Y-2.62008
G01 X5.80012 Y-2.61490
G01 X5.79493 Y-2.62008
G01 X5.78216 Y-2.62008
G01 X5.77894 Y-2.61612
G01 X5.78216 Y-2.62008
G01 X5.78189 Y-2.62279
G01 X5.78091 Y-2.62600
G04 P0 ( dwell for no time -- G64 should not smooth over this point )
G00 Z0.08000 ( retract )

G00 X5.92460 Y-2.51233 ( rapid move to begin. )
G01 F180.00000
( Mill infeed pass 1/1 )
G01 Z-0.04000
G04 P0 ( dwell for no time -- G64 should not smooth over this point )
G01 F360.00000
G01 X5.92460 Y-2.51233
G01 X5.92438 Y-2.51215
G01 X5.92736 Y-2.50886
G01 X5.93027 Y-2.50385
G01 X5.93206 Y-2.49835
G01 X5.93267 Y-2.49260
G01 X5.93267 Y-2.46656
G01 X5.92748 Y-2.46137
G01 X5.93267 Y-2.46656
G01 X6.01536 Y-2.46656
G01 X6.02055 Y-2.46137
G01 X6.01536 Y-2.46656
G01 X6.01536 Y-2.54924
G01 X6.02055 Y-2.55443
G01 X6.01536 Y-2.54924
G01 X5.93267 Y-2.54924
G01 X5.92748 Y-2.55443
G01 X5.93267 Y-2.54924
G01 X5.93267 Y-2.53182
G01 X5.93214 Y-2.52644
G01 X5.93057 Y-2.52127
G01 X5.92803 Y-2.51651
G01 X5.92460 Y-2.51233
G01 X5.92027 Y-2.51255
G01 X5.94410 Y-2.51239
G01 X5.94575 Y-2.51227
G01 X5.94694 Y-2.51450
G01 X5.94952 Y-2.52299
G01 X5.95036 Y-2.53153
G01 X5.94620 Y-2.53612
G01 X5.95036 Y-2.53153
G01 X5.99764 Y-2.53153
G01 X6.00283 Y-2.53672
G01 X5.99764 Y-2.53153
G01 X5.99764 Y-2.48427
G01 X6.00283 Y-2.47908
G01 X5.99764 Y-2.48427
G01 X5.95039 Y-2.48427
G01 X5.94520 Y-2.47908
G01 X5.95039 Y-2.48427
G01 X5.95039 Y-2.49260
G01 X5.94939 Y-2.50205
G01 X5.94644 Y-2.51109
G01 X5.94575 Y-2.51227
G01 X5.94410 Y-2.51239
G01 X5.96257 Y-2.51730
G01 X5.96515 Y-2.51382
G01 X5.97993 Y-2.51382
G01 X5.98512 Y-2.51900
G01 X5.97993 Y-2.51382
G01 X5.97993 Y-2.50198
G01 X5.98512 Y-2.49680
G01 X5.97993 Y-2.50198
G01 X5.96711 Y-2.50198
G01 X5.96302 Y-2.49744
G01 X5.96711 Y-2.50198
G01 X5.96671 Y-2.50575
G01 X5.96464 Y-2.51210
G01 X5.96378 Y-2.51209
G01 X5.96464 Y-2.51210
G01 X5.96515 Y-2.51382
G04 P0 ( dwell for no time -- G64 should not smooth over this point )
G00 Z0.08000 ( retract )

G00 X6.24616 Y-2.94920 ( rapid move to begin. )
G01 F180.00000
( Mill infeed pass 1/1 )
G01 Z-0.04000
G04 P0 ( dwell for no time -- G64 should not smooth over this point )
G01 F360.00000
G01 X6.24616 Y-2.94920
G01 X6.25677 Y-2.94800
G01 X6.27087 Y-2.93391
G01 X6.27046 Y-2.92821
G01 X6.27087 Y-2.93391
G01 X6.27187 Y-2.93497
G01 X6.27678 Y-2.93832
G01 X6.28049 Y-2.94030
G01 X6.28061 Y-2.94015
G01 X6.28049 Y-2.94030
G01 X6.28226 Y-2.94175
G01 X6.28371 Y-2.94352
G01 X6.28400 Y-2.94333
G01 X6.28371 Y-2.94352
G01 X6.28479 Y-2.94554
G01 X6.28545 Y-2.94773
G01 X6.28579 Y-2.94766
G01 X6.28545 Y-2.94773
G01 X6.28568 Y-2.95000
G01 X6.28545 Y-2.95227
G01 X6.28579 Y-2.95234
G01 X6.28545 Y-2.95227
G01 X6.28479 Y-2.95446
G01 X6.28371 Y-2.95648
G01 X6.28400 Y-2.95667
G01 X6.28371 Y-2.95648
G01 X6.28226 Y-2.95824
G01 X6.28049 Y-2.95969
G01 X6.28069 Y-2.95998
G01 X6.28049 Y-2.95969
G01 X6.27848 Y-2.96077
G01 X6.27629 Y-2.96144
G01 X6.27636 Y-2.96178
G01 X6.27629 Y-2.96144
G01 X6.27402 Y-2.96166
G01 X6.27174 Y-2.96144
G01 X6.27167 Y-2.96178
G01 X6.27174 Y-2.96144
G01 X6.26955 Y-2.96077
G01 X6.26754 Y-2.95969
G01 X6.26744 Y-2.95986
G01 X6.26754 Y-2.95969
G01 X6.26577 Y-2.95824
G01 X6.26567 Y-2.95834
G01 X6.26577 Y-2.95824
G01 X6.26387 Y-2.95592
G01 X6.26143 Y-2.95232
G01 X6.25733 Y-2.94835
G01 X6.25677 Y-2.94800
G04 P0 ( dwell for no time -- G64 should not smooth over this point )
G00 Z0.08000 ( retract )

G00 X6.66223 Y-2.93834 ( rapid move to begin. )
G01 F180.00000
( Mill infeed pass 1/1 )
G01 Z-0.04000
G04 P0 ( dwell for no time -- G64 should not smooth over this point )
G01 F360.00000
G01 X6.66223 Y-2.93834
G01 X6.66449 Y-2.94048
G01 X6.66388 Y-2.94342
G01 X6.66258 Y-2.94773
G01 X6.66239 Y-2.94770
G01 X6.66258 Y-2.94773
G01 X6.66235 Y-2.95000
G01 X6.66258 Y-2.95227
G01 X6.66224 Y-2.95234
G01 X6.66258 Y-2.95227
G01 X6.66324 Y-2.95446
G01 X6.66432 Y-2.95648
G01 X6.66403 Y-2.95667
G01 X6.66432 Y-2.95648
G01 X6.66577 Y-2.95824
G01 X6.66754 Y-2.95969
G01 X6.66734 Y-2.95998
G01 X6.66754 Y-2.95969
G01 X6.66955 Y-2.96077
G01 X6.67174 Y-2.96144
G01 X6.67167 Y-2.96178
G01 X6.67174 Y-2.96144
G01 X6.67402 Y-2.96166
G01 X6.67629 Y-2.96144
G01 X6.67636 Y-2.96178
G01 X6.67629 Y-2.96144
G01 X6.67848 Y-2.96077
G01 X6.68049 Y-2.95969
G01 X6.68069 Y-2.95998
G01 X6.68049 Y-2.95969
G01 X6.68226 Y-2.95824
G01 X6.68371 Y-2.95648
G01 X6.68400 Y-2.95667
G01 X6.68371 Y-2.95648
G01 X6.68479 Y-2.95446
G01 X6.68545 Y-2.95227
G01 X6.68579 Y-2.95234
G01 X6.68545 Y-2.95227
G01 X6.68568 Y-2.95000
G01 X6.68545 Y-2.94773
G01 X6.68579 Y-2.94766
G01 X6.68545 Y-2.94773
G01 X6.68479 Y-2.94554
G01 X6.68371 Y-2.94352
G01 X6.68400 Y-2.94333
G01 X6.68371 Y-2.94352
G01 X6.68226 Y-2.94175
G01 X6.68049 Y-2.94030
G01 X6.68069 Y-2.94002
G01 X6.68049 Y-2.94030
G01 X6.67848 Y-2.93923
G01 X6.67629 Y-2.93856
G01 X6.67636 Y-2.93822
G01 X6.67629 Y-2.93856
G01 X6.67402 Y-2.93834
G01 X6.67174 Y-2.93856
G01 X6.67172 Y-2.93842
G01 X6.67174 Y-2.93856
G01 X6.66743 Y-2.93987
G01 X6.66449 Y-2.94048
G04 P0 ( dwell for no time -- G64 should not smooth over this point )
G00 Z0.08000 ( retract )

G00 X6.49434 Y-3.17126 ( rapid move to begin. )
G01 F180.00000
( Mill infeed pass 1/1 )
G01 Z-0.04000
G04 P0 ( dwell for no time -- G64 should not smooth over this point )
G01 F360.00000
G01 X6.49434 Y-3.17126
G01 X6.45369 Y-3.17126
G04 P0 ( dwell for no time -- G64 should not smooth over this point )
G00 Z0.08000 ( retract )

G00 X6.49434 Y-3.32874 ( rapid move to begin. )
G01 F180.00000
( Mill infeed pass 1/1 )
G01 Z-0.04000
G04 P0 ( dwell for no time -- G64 should not smooth over this point )
G01 F360.00000
G01 X6.49434 Y-3.32874
G01 X6.45369 Y-3.32874
G04 P0 ( dwell for no time -- G64 should not smooth over this point )
G00 Z0.08000 ( retract )

G00 X6.49434 Y-3.25000 ( rapid move to begin. )
G01 F180.00000
( Mill infeed pass 1/1 )
G01 Z-0.04000
G04 P0 ( dwell for no time -- G64 should not smooth over this point )
G01 F360.00000
G01 X6.49434 Y-3.25000
G01 X6.45372 Y-3.25000
G01 X6.38364 Y-3.24501
G01 X6.38364 Y-3.04179
G01 X6.38380 Y-3.04021
G01 X6.38412 Y-3.03916
G01 X6.38464 Y-3.03819
G01 X6.38564 Y-3.03696
G01 X6.51547 Y-2.90713
G01 X6.51670 Y-2.90564
G01 X6.51761 Y-2.90394
G01 X6.51817 Y-2.90209
G01 X6.51836 Y-2.90017
G01 X6.51836 Y-2.87559
G01 X6.51817 Y-2.87367
G01 X6.51761 Y-2.87182
G01 X6.51670 Y-2.87012
G01 X6.51547 Y-2.86863
G01 X6.51398 Y-2.86741
G01 X6.51228 Y-2.86650
G01 X6.51044 Y-2.86594
G01 X6.50827 Y-2.86575
G01 X6.50827 Y-2.83425
G01 X6.53976 Y-2.83425
G01 X6.53995 Y-2.83642
G01 X6.54051 Y-2.83827
G01 X6.54142 Y-2.83997
G01 X6.54265 Y-2.84146
G01 X6.54414 Y-2.84268
G01 X6.54584 Y-2.84359
G01 X6.54769 Y-2.84415
G01 X6.54961 Y-2.84434
G01 X6.57353 Y-2.84434
G01 X6.57511 Y-2.84450
G01 X6.57616 Y-2.84482
G01 X6.57713 Y-2.84533
G01 X6.57836 Y-2.84634
G01 X6.65248 Y-2.92046
G01 X6.65383 Y-2.92159
G01 X6.65537 Y-2.92246
G01 X6.65704 Y-2.92305
G01 X6.65879 Y-2.92332
G01 X6.66056 Y-2.92328
G01 X6.66229 Y-2.92292
G01 X6.66827 Y-2.92111
G01 X6.67402 Y-2.92054
G01 X6.67976 Y-2.92111
G01 X6.68529 Y-2.92278
G01 X6.69038 Y-2.92550
G01 X6.69485 Y-2.92917
G01 X6.69851 Y-2.93363
G01 X6.70123 Y-2.93873
G01 X6.70291 Y-2.94425
G01 X6.70347 Y-2.95000
G01 X6.70291 Y-2.95575
G01 X6.70123 Y-2.96127
G01 X6.69851 Y-2.96637
G01 X6.69485 Y-2.97083
G01 X6.69038 Y-2.97449
G01 X6.68529 Y-2.97722
G01 X6.67976 Y-2.97889
G01 X6.67402 Y-2.97946
G01 X6.66827 Y-2.97889
G01 X6.66274 Y-2.97722
G01 X6.65765 Y-2.97449
G01 X6.65318 Y-2.97083
G01 X6.64952 Y-2.96637
G01 X6.64680 Y-2.96127
G01 X6.64512 Y-2.95575
G01 X6.64456 Y-2.95000
G01 X6.64512 Y-2.94425
G01 X6.64693 Y-2.93828
G01 X6.64729 Y-2.93655
G01 X6.64734 Y-2.93478
G01 X6.64706 Y-2.93303
G01 X6.64648 Y-2.93136
G01 X6.64561 Y-2.92982
G01 X6.64447 Y-2.92846
G01 X6.57455 Y-2.85854
G01 X6.57306 Y-2.85732
G01 X6.57136 Y-2.85641
G01 X6.56951 Y-2.85585
G01 X6.56759 Y-2.85566
G01 X6.54961 Y-2.85566
G01 X6.54769 Y-2.85585
G01 X6.54584 Y-2.85641
G01 X6.54414 Y-2.85732
G01 X6.54265 Y-2.85854
G01 X6.54142 Y-2.86003
G01 X6.54051 Y-2.86173
G01 X6.53995 Y-2.86358
G01 X6.53976 Y-2.86575
G01 X6.53759 Y-2.86594
G01 X6.53575 Y-2.86650
G01 X6.53405 Y-2.86741
G01 X6.53256 Y-2.86863
G01 X6.53133 Y-2.87012
G01 X6.53042 Y-2.87182
G01 X6.52986 Y-2.87367
G01 X6.52967 Y-2.87559
G01 X6.52967 Y-2.90611
G01 X6.52952 Y-2.90768
G01 X6.52920 Y-2.90874
G01 X6.52868 Y-2.90971
G01 X6.52767 Y-2.91093
G01 X6.39784 Y-3.04076
G01 X6.39662 Y-3.04225
G01 X6.39571 Y-3.04396
G01 X6.39515 Y-3.04580
G01 X6.39496 Y-3.04772
G01 X6.39496 Y-3.23450
G01 X6.39515 Y-3.23642
G01 X6.39571 Y-3.23827
G01 X6.39662 Y-3.23997
G01 X6.39784 Y-3.24146
G01 X6.39933 Y-3.24268
G01 X6.40104 Y-3.24359
G01 X6.40288 Y-3.24415
G01 X6.40480 Y-3.24434
G01 X6.42960 Y-3.24434
G01 X6.43133 Y-3.24419
G01 X6.43301 Y-3.24373
G01 X6.43458 Y-3.24299
G01 X6.43599 Y-3.24198
G01 X6.43721 Y-3.24074
G01 X6.43987 Y-3.23751
G01 X6.44255 Y-3.23531
G01 X6.44560 Y-3.23368
G01 X6.44891 Y-3.23267
G01 X6.45284 Y-3.23228
G01 X6.49519 Y-3.23228
G01 X6.49912 Y-3.23267
G01 X6.50243 Y-3.23368
G01 X6.50548 Y-3.23531
G01 X6.50816 Y-3.23751
G01 X6.51036 Y-3.24018
G01 X6.51199 Y-3.24324
G01 X6.51300 Y-3.24655
G01 X6.51334 Y-3.25000
G01 X6.51300 Y-3.25345
G01 X6.51199 Y-3.25676
G01 X6.51036 Y-3.25982
G01 X6.50816 Y-3.26249
G01 X6.50548 Y-3.26469
G01 X6.50243 Y-3.26632
G01 X6.49912 Y-3.26733
G01 X6.49519 Y-3.26772
G01 X6.45284 Y-3.26772
G01 X6.44891 Y-3.26733
G01 X6.44560 Y-3.26632
G01 X6.44255 Y-3.26469
G01 X6.43987 Y-3.26249
G01 X6.43721 Y-3.25926
G01 X6.43599 Y-3.25801
G01 X6.43458 Y-3.25701
G01 X6.43301 Y-3.25626
G01 X6.43133 Y-3.25581
G01 X6.42960 Y-3.25566
G01 X6.39429 Y-3.25566
G01 X6.39271 Y-3.25550
G01 X6.39165 Y-3.25518
G01 X6.39068 Y-3.25466
G01 X6.38946 Y-3.25366
G01 X6.38564 Y-3.24984
G01 X6.38464 Y-3.24862
G01 X6.38412 Y-3.24764
G01 X6.38380 Y-3.24659
G01 X6.38364 Y-3.24501
G04 P0 ( dwell for no time -- G64 should not smooth over this point )
G00 Z0.08000 ( retract )

G00 X6.11449 Y-3.30189 ( rapid move to begin. )
G01 F180.00000
( Mill infeed pass 1/1 )
G01 Z-0.04000
G04 P0 ( dwell for no time -- G64 should not smooth over this point )
G01 F360.00000
G01 X6.11449 Y-3.30189
G01 X6.11430 Y-3.30000
G01 X6.11449 Y-3.29811
G01 X6.11415 Y-3.29804
G01 X6.11449 Y-3.29811
G01 X6.11504 Y-3.29628
G01 X6.11594 Y-3.29460
G01 X6.11565 Y-3.29441
G01 X6.11594 Y-3.29460
G01 X6.11715 Y-3.29313
G01 X6.11862 Y-3.29192
G01 X6.11843 Y-3.29164
G01 X6.11862 Y-3.29192
G01 X6.12030 Y-3.29103
G01 X6.12212 Y-3.29047
G01 X6.12205 Y-3.29013
G01 X6.12212 Y-3.29047
G01 X6.12402 Y-3.29029
G01 X6.12591 Y-3.29047
G01 X6.12598 Y-3.29013
G01 X6.12591 Y-3.29047
G01 X6.12773 Y-3.29103
G01 X6.12941 Y-3.29192
G01 X6.12960 Y-3.29164
G01 X6.12941 Y-3.29192
G01 X6.13088 Y-3.29313
G01 X6.13209 Y-3.29460
G01 X6.13238 Y-3.29441
G01 X6.13209 Y-3.29460
G01 X6.13299 Y-3.29628
G01 X6.13354 Y-3.29811
G01 X6.13388 Y-3.29804
G01 X6.13354 Y-3.29811
G01 X6.13373 Y-3.30000
G01 X6.13354 Y-3.30189
G01 X6.13373 Y-3.30192
G01 X6.13354 Y-3.30189
G01 X6.13267 Y-3.30475
G01 X6.13200 Y-3.30799
G01 X6.13430 Y-3.31019
G01 X6.13200 Y-3.30799
G01 X6.12877 Y-3.30866
G01 X6.12591 Y-3.30952
G01 X6.12593 Y-3.30966
G01 X6.12591 Y-3.30952
G01 X6.12402 Y-3.30971
G01 X6.12212 Y-3.30952
G01 X6.12205 Y-3.30986
G01 X6.12212 Y-3.30952
G01 X6.12030 Y-3.30897
G01 X6.11862 Y-3.30808
G01 X6.11843 Y-3.30836
G01 X6.11862 Y-3.30808
G01 X6.11715 Y-3.30687
G01 X6.11594 Y-3.30539
G01 X6.11565 Y-3.30559
G01 X6.11594 Y-3.30539
G01 X6.11504 Y-3.30372
G01 X6.11449 Y-3.30189
G01 X6.11415 Y-3.30196
G01 X6.09650 Y-3.30000
G01 X6.09703 Y-3.30537
G01 X6.09860 Y-3.31053
G01 X6.10114 Y-3.31528
G01 X6.10456 Y-3.31945
G01 X6.10873 Y-3.32287
G01 X6.11349 Y-3.32542
G01 X6.11865 Y-3.32698
G01 X6.12402 Y-3.32751
G01 X6.12938 Y-3.32698
G01 X6.13391 Y-3.32561
G01 X6.13564 Y-3.32525
G01 X6.13741 Y-3.32521
G01 X6.13916 Y-3.32548
G01 X6.14083 Y-3.32606
G01 X6.14237 Y-3.32693
G01 X6.14373 Y-3.32807
G01 X6.14824 Y-3.33257
G01 X6.14950 Y-3.33361
G01 X6.15051 Y-3.33415
G01 X6.15161 Y-3.33449
G01 X6.15324 Y-3.33465
G01 X6.42981 Y-3.33465
G01 X6.43196 Y-3.33489
G01 X6.43402 Y-3.33559
G01 X6.43586 Y-3.33673
G01 X6.43742 Y-3.33825
G01 X6.43987 Y-3.34123
G01 X6.44255 Y-3.34343
G01 X6.44560 Y-3.34506
G01 X6.44891 Y-3.34607
G01 X6.45284 Y-3.34646
G01 X6.49519 Y-3.34646
G01 X6.49912 Y-3.34607
G01 X6.50243 Y-3.34506
G01 X6.50548 Y-3.34343
G01 X6.50816 Y-3.34123
G01 X6.51036 Y-3.33856
G01 X6.51199 Y-3.33550
G01 X6.51300 Y-3.33219
G01 X6.51334 Y-3.32874
G01 X6.51300 Y-3.32529
G01 X6.51199 Y-3.32198
G01 X6.51036 Y-3.31892
G01 X6.50816 Y-3.31625
G01 X6.50548 Y-3.31405
G01 X6.50243 Y-3.31242
G01 X6.49912 Y-3.31141
G01 X6.49519 Y-3.31102
G01 X6.45284 Y-3.31102
G01 X6.44891 Y-3.31141
G01 X6.44560 Y-3.31242
G01 X6.44255 Y-3.31405
G01 X6.43987 Y-3.31625
G01 X6.43742 Y-3.31923
G01 X6.43620 Y-3.32047
G01 X6.43478 Y-3.32148
G01 X6.43321 Y-3.32222
G01 X6.43154 Y-3.32268
G01 X6.42981 Y-3.32283
G01 X6.15928 Y-3.32283
G01 X6.15736 Y-3.32264
G01 X6.15551 Y-3.32208
G01 X6.15381 Y-3.32117
G01 X6.15232 Y-3.31995
G01 X6.15095 Y-3.31835
G01 X6.15008 Y-3.31682
G01 X6.14949 Y-3.31514
G01 X6.14922 Y-3.31340
G01 X6.14926 Y-3.31163
G01 X6.14962 Y-3.30990
G01 X6.15100 Y-3.30537
G01 X6.15153 Y-3.30000
G01 X6.15100 Y-3.29463
G01 X6.14943 Y-3.28947
G01 X6.14689 Y-3.28471
G01 X6.14347 Y-3.28055
G01 X6.13930 Y-3.27712
G01 X6.13454 Y-3.27458
G01 X6.12938 Y-3.27302
G01 X6.12402 Y-3.27249
G01 X6.11865 Y-3.27302
G01 X6.11349 Y-3.27458
G01 X6.10873 Y-3.27712
G01 X6.10456 Y-3.28055
G01 X6.10114 Y-3.28471
G01 X6.09860 Y-3.28947
G01 X6.09703 Y-3.29463
G01 X6.09650 Y-3.30000
G04 P0 ( dwell for no time -- G64 should not smooth over this point )
G00 Z0.08000 ( retract )

G00 X6.03905 Y-3.31700 ( rapid move to begin. )
G01 F180.00000
( Mill infeed pass 1/1 )
G01 Z-0.04000
G04 P0 ( dwell for no time -- G64 should not smooth over this point )
G01 F360.00000
G01 X6.03905 Y-3.31700
G01 X6.03386 Y-3.31181
G01 X6.03386 Y-3.28819
G01 X6.03905 Y-3.28300
G01 X6.03386 Y-3.28819
G01 X6.01381 Y-3.28819
G01 X6.01090 Y-3.28445
G01 X6.01381 Y-3.28819
G01 X6.01364 Y-3.28987
G01 X6.01207 Y-3.29505
G01 X6.00937 Y-3.30000
G01 X6.00953 Y-3.30019
G01 X6.00732 Y-3.30023
G01 X6.00953 Y-3.30019
G01 X6.01207 Y-3.30495
G01 X6.01364 Y-3.31012
G01 X6.01381 Y-3.31181
G01 X6.01090 Y-3.31555
G01 X6.01381 Y-3.31181
G01 X6.03386 Y-3.31181
G04 P0 ( dwell for no time -- G64 should not smooth over this point )
G00 Z0.08000 ( retract )

G00 X5.81417 Y-3.28819 ( rapid move to begin. )
G01 F180.00000
( Mill infeed pass 1/1 )
G01 Z-0.04000
G04 P0 ( dwell for no time -- G64 should not smooth over this point )
G01 F360.00000
G01 X5.81417 Y-3.28819
G01 X5.81417 Y-3.31243
G01 X5.81068 Y-3.31501
G01 X5.81417 Y-3.31243
G01 X5.81906 Y-3.31391
G01 X5.82401 Y-3.31661
G01 X5.82401 Y-3.31908
G01 X5.82401 Y-3.31661
G01 X5.82897 Y-3.31391
G01 X5.83417 Y-3.31234
G01 X5.83613 Y-3.31419
G01 X5.83417 Y-3.31234
G01 X5.83439 Y-3.31012
G01 X5.83596 Y-3.30495
G01 X5.83866 Y-3.30000
G01 X5.84112 Y-3.30000
G01 X5.83866 Y-3.30000
G01 X5.83850 Y-3.29981
G01 X5.83596 Y-3.29505
G01 X5.83439 Y-3.28987
G01 X5.83422 Y-3.28819
G01 X5.83713 Y-3.28445
G01 X5.83422 Y-3.28819
G01 X5.81417 Y-3.28819
G01 X5.80898 Y-3.28300
G04 P0 ( dwell for no time -- G64 should not smooth over this point )
G00 Z0.08000 ( retract )

G00 X5.71346 Y-3.30409 ( rapid move to begin. )
G01 F180.00000
( Mill infeed pass 1/1 )
G01 Z-0.04000
G04 P0 ( dwell for no time -- G64 should not smooth over this point )
G01 F360.00000
G01 X5.71346 Y-3.30409
G01 X5.71436 Y-3.29947
G01 X5.71449 Y-3.29811
G01 X5.71438 Y-3.29807
G01 X5.71449 Y-3.29811
G01 X5.71504 Y-3.29628
G01 X5.71594 Y-3.29460
G01 X5.71565 Y-3.29441
G01 X5.71594 Y-3.29460
G01 X5.71715 Y-3.29313
G01 X5.71862 Y-3.29192
G01 X5.71843 Y-3.29164
G01 X5.71862 Y-3.29192
G01 X5.72030 Y-3.29103
G01 X5.72212 Y-3.29047
G01 X5.72205 Y-3.29013
G01 X5.72212 Y-3.29047
G01 X5.72402 Y-3.29029
G01 X5.72591 Y-3.29047
G01 X5.72598 Y-3.29013
G01 X5.72591 Y-3.29047
G01 X5.72773 Y-3.29103
G01 X5.72941 Y-3.29192
G01 X5.72960 Y-3.29164
G01 X5.72941 Y-3.29192
G01 X5.73088 Y-3.29313
G01 X5.73209 Y-3.29460
G01 X5.73238 Y-3.29441
G01 X5.73209 Y-3.29460
G01 X5.73299 Y-3.29628
G01 X5.73354 Y-3.29811
G01 X5.73388 Y-3.29804
G01 X5.73354 Y-3.29811
G01 X5.73373 Y-3.30000
G01 X5.73354 Y-3.30189
G01 X5.73388 Y-3.30196
G01 X5.73354 Y-3.30189
G01 X5.73299 Y-3.30372
G01 X5.73209 Y-3.30539
G01 X5.73238 Y-3.30559
G01 X5.73209 Y-3.30539
G01 X5.73088 Y-3.30687
G01 X5.72941 Y-3.30808
G01 X5.72960 Y-3.30836
G01 X5.72941 Y-3.30808
G01 X5.72773 Y-3.30897
G01 X5.72591 Y-3.30952
G01 X5.72598 Y-3.30986
G01 X5.72591 Y-3.30952
G01 X5.72402 Y-3.30971
G01 X5.72212 Y-3.30952
G01 X5.72205 Y-3.30986
G01 X5.72212 Y-3.30952
G01 X5.72030 Y-3.30897
G01 X5.71863 Y-3.30808
G01 X5.71853 Y-3.30825
G01 X5.71863 Y-3.30808
G01 X5.71505 Y-3.30514
G01 X5.71346 Y-3.30409
G01 X5.71030 Y-3.30545
G04 P0 ( dwell for no time -- G64 should not smooth over this point )
G00 Z0.08000 ( retract )

G00 X5.39434 Y-3.17126 ( rapid move to begin. )
G01 F180.00000
( Mill infeed pass 1/1 )
G01 Z-0.04000
G04 P0 ( dwell for no time -- G64 should not smooth over this point )
G01 F360.00000
G01 X5.39434 Y-3.17126
G01 X5.33469 Y-3.17126
G01 X5.33503 Y-3.17471
G01 X5.33604 Y-3.17802
G01 X5.33767 Y-3.18108
G01 X5.33987 Y-3.18375
G01 X5.34255 Y-3.18595
G01 X5.34560 Y-3.18758
G01 X5.34891 Y-3.18859
G01 X5.35284 Y-3.18898
G01 X5.39519 Y-3.18898
G01 X5.39912 Y-3.18859
G01 X5.40243 Y-3.18758
G01 X5.40548 Y-3.18595
G01 X5.40816 Y-3.18375
G01 X5.41062 Y-3.18076
G01 X5.41183 Y-3.17952
G01 X5.41325 Y-3.17852
G01 X5.41482 Y-3.17777
G01 X5.41649 Y-3.17732
G01 X5.41822 Y-3.17717
G01 X6.01634 Y-3.17717
G01 X6.01796 Y-3.17701
G01 X6.01906 Y-3.17667
G01 X6.02007 Y-3.17613
G01 X6.02134 Y-3.17509
G01 X6.23336 Y-2.96307
G01 X6.23494 Y-2.96179
G01 X6.23675 Y-2.96086
G01 X6.23872 Y-2.96032
G01 X6.24075 Y-2.96020
G01 X6.24276 Y-2.96050
G01 X6.24467 Y-2.96121
G01 X6.24640 Y-2.96229
G01 X6.24786 Y-2.96371
G01 X6.24952 Y-2.96637
G01 X6.25318 Y-2.97083
G01 X6.25765 Y-2.97449
G01 X6.26274 Y-2.97722
G01 X6.26827 Y-2.97889
G01 X6.27402 Y-2.97946
G01 X6.27976 Y-2.97889
G01 X6.28529 Y-2.97722
G01 X6.29038 Y-2.97449
G01 X6.29485 Y-2.97083
G01 X6.29851 Y-2.96637
G01 X6.30123 Y-2.96127
G01 X6.30291 Y-2.95575
G01 X6.30347 Y-2.95000
G01 X6.30291 Y-2.94425
G01 X6.30123 Y-2.93873
G01 X6.29851 Y-2.93363
G01 X6.29485 Y-2.92917
G01 X6.29038 Y-2.92550
G01 X6.28513 Y-2.92270
G01 X6.28337 Y-2.92150
G01 X6.28192 Y-2.91995
G01 X6.28083 Y-2.91813
G01 X6.28015 Y-2.91612
G01 X6.27992 Y-2.91401
G01 X6.27992 Y-2.86575
G01 X6.28011 Y-2.86383
G01 X6.28067 Y-2.86198
G01 X6.28158 Y-2.86028
G01 X6.28281 Y-2.85879
G01 X6.28430 Y-2.85757
G01 X6.28600 Y-2.85666
G01 X6.28784 Y-2.85610
G01 X6.28977 Y-2.85591
G01 X6.40557 Y-2.85591
G01 X6.40730 Y-2.85606
G01 X6.40898 Y-2.85651
G01 X6.41055 Y-2.85726
G01 X6.41196 Y-2.85826
G01 X6.41449 Y-2.86110
G01 X6.41687 Y-2.86305
G01 X6.41958 Y-2.86450
G01 X6.42253 Y-2.86540
G01 X6.42559 Y-2.86570
G01 X6.42865 Y-2.86540
G01 X6.43160 Y-2.86450
G01 X6.43431 Y-2.86305
G01 X6.43669 Y-2.86110
G01 X6.43864 Y-2.85872
G01 X6.44010 Y-2.85601
G01 X6.44099 Y-2.85306
G01 X6.44129 Y-2.85000
G01 X6.44099 Y-2.84694
G01 X6.44010 Y-2.84399
G01 X6.43864 Y-2.84128
G01 X6.43669 Y-2.83890
G01 X6.43431 Y-2.83695
G01 X6.43160 Y-2.83549
G01 X6.42865 Y-2.83460
G01 X6.42559 Y-2.83430
G01 X6.42253 Y-2.83460
G01 X6.41958 Y-2.83549
G01 X6.41687 Y-2.83695
G01 X6.41449 Y-2.83890
G01 X6.41196 Y-2.84173
G01 X6.41055 Y-2.84274
G01 X6.40898 Y-2.84348
G01 X6.40730 Y-2.84394
G01 X6.40557 Y-2.84409
G01 X6.27450 Y-2.84409
G01 X6.27287 Y-2.84425
G01 X6.27177 Y-2.84459
G01 X6.27076 Y-2.84513
G01 X6.26987 Y-2.84586
G01 X6.26914 Y-2.84674
G01 X6.26860 Y-2.84776
G01 X6.26827 Y-2.84886
G01 X6.26811 Y-2.85048
G01 X6.26811 Y-2.90754
G01 X6.26792 Y-2.90946
G01 X6.26736 Y-2.91131
G01 X6.26645 Y-2.91301
G01 X6.26522 Y-2.91450
G01 X6.01725 Y-3.16247
G01 X6.01576 Y-3.16369
G01 X6.01406 Y-3.16460
G01 X6.01222 Y-3.16516
G01 X6.01029 Y-3.16535
G01 X5.41822 Y-3.16535
G01 X5.41607 Y-3.16511
G01 X5.41401 Y-3.16441
G01 X5.41217 Y-3.16327
G01 X5.41061 Y-3.16175
G01 X5.40816 Y-3.15877
G01 X5.40548 Y-3.15657
G01 X5.40243 Y-3.15494
G01 X5.39912 Y-3.15393
G01 X5.39519 Y-3.15354
G01 X5.35284 Y-3.15354
G01 X5.34891 Y-3.15393
G01 X5.34560 Y-3.15494
G01 X5.34255 Y-3.15657
G01 X5.33987 Y-3.15877
G01 X5.33767 Y-3.16144
G01 X5.33604 Y-3.16450
G01 X5.33503 Y-3.16781
G01 X5.33469 Y-3.17126
G04 P0 ( dwell for no time -- G64 should not smooth over this point )
G00 Z0.08000 ( retract )

G00 X5.35369 Y-3.25000 ( rapid move to begin. )
G01 F180.00000
( Mill infeed pass 1/1 )
G01 Z-0.04000
G04 P0 ( dwell for no time -- G64 should not smooth over this point )
G01 F360.00000
G01 X5.35369 Y-3.25000
G01 X5.39434 Y-3.25000
G04 P0 ( dwell for no time -- G64 should not smooth over this point )
G00 Z0.08000 ( retract )

G00 X5.39434 Y-3.32874 ( rapid move to begin. )
G01 F180.00000
( Mill infeed pass 1/1 )
G01 Z-0.04000
G04 P0 ( dwell for no time -- G64 should not smooth over this point )
G01 F360.00000
G01 X5.39434 Y-3.32874
G01 X5.33469 Y-3.32874
G01 X5.33503 Y-3.32529
G01 X5.33604 Y-3.32198
G01 X5.33767 Y-3.31892
G01 X5.33987 Y-3.31625
G01 X5.34255 Y-3.31405
G01 X5.34560 Y-3.31242
G01 X5.34891 Y-3.31141
G01 X5.35284 Y-3.31102
G01 X5.39519 Y-3.31102
G01 X5.39912 Y-3.31141
G01 X5.40243 Y-3.31242
G01 X5.40548 Y-3.31405
G01 X5.40816 Y-3.31625
G01 X5.41061 Y-3.31923
G01 X5.41183 Y-3.32047
G01 X5.41325 Y-3.32148
G01 X5.41482 Y-3.32222
G01 X5.41649 Y-3.32268
G01 X5.41822 Y-3.32283
G01 X5.64249 Y-3.32283
G01 X5.64420 Y-3.32268
G01 X5.64586 Y-3.32224
G01 X5.69031 Y-3.30601
G01 X5.69197 Y-3.30523
G01 X5.69345 Y-3.30414
G01 X5.69471 Y-3.30280
G01 X5.69570 Y-3.30125
G01 X5.69638 Y-3.29954
G01 X5.69673 Y-3.29773
G01 X5.69703 Y-3.29463
G01 X5.69860 Y-3.28947
G01 X5.70114 Y-3.28471
G01 X5.70456 Y-3.28055
G01 X5.70873 Y-3.27712
G01 X5.71349 Y-3.27458
G01 X5.71865 Y-3.27302
G01 X5.72402 Y-3.27249
G01 X5.72938 Y-3.27302
G01 X5.73454 Y-3.27458
G01 X5.73930 Y-3.27712
G01 X5.74347 Y-3.28055
G01 X5.74689 Y-3.28471
G01 X5.74943 Y-3.28947
G01 X5.75100 Y-3.29463
G01 X5.75153 Y-3.30000
G01 X5.75100 Y-3.30537
G01 X5.74943 Y-3.31053
G01 X5.74689 Y-3.31528
G01 X5.74347 Y-3.31945
G01 X5.73930 Y-3.32287
G01 X5.73454 Y-3.32542
G01 X5.72938 Y-3.32698
G01 X5.72402 Y-3.32751
G01 X5.71865 Y-3.32698
G01 X5.71349 Y-3.32542
G01 X5.70873 Y-3.32288
G01 X5.70380 Y-3.31882
G01 X5.70210 Y-3.31770
G01 X5.70020 Y-3.31695
G01 X5.69819 Y-3.31660
G01 X5.69615 Y-3.31668
G01 X5.69418 Y-3.31718
G01 X5.64770 Y-3.33414
G01 X5.64630 Y-3.33452
G01 X5.64484 Y-3.33465
G01 X5.41822 Y-3.33465
G01 X5.41607 Y-3.33489
G01 X5.41401 Y-3.33559
G01 X5.41217 Y-3.33673
G01 X5.41061 Y-3.33825
G01 X5.40816 Y-3.34123
G01 X5.40548 Y-3.34343
G01 X5.40243 Y-3.34506
G01 X5.39912 Y-3.34607
G01 X5.39519 Y-3.34646
G01 X5.35284 Y-3.34646
G01 X5.34891 Y-3.34607
G01 X5.34560 Y-3.34506
G01 X5.34255 Y-3.34343
G01 X5.33987 Y-3.34123
G01 X5.33767 Y-3.33856
G01 X5.33604 Y-3.33550
G01 X5.33503 Y-3.33219
G01 X5.33469 Y-3.32874
G04 P0 ( dwell for no time -- G64 should not smooth over this point )
G00 Z0.08000 ( retract )

G00 X5.13651 Y-3.21714 ( rapid move to begin. )
G01 F180.00000
( Mill infeed pass 1/1 )
G01 Z-0.04000
G04 P0 ( dwell for no time -- G64 should not smooth over this point )
G01 F360.00000
G01 X5.13651 Y-3.21714
G01 X5.13666 Y-3.21872
G01 X5.13698 Y-3.21977
G01 X5.13750 Y-3.22074
G01 X5.13851 Y-3.22196
G01 X5.31900 Y-3.40246
G01 X5.32022 Y-3.40346
G01 X5.32119 Y-3.40398
G01 X5.32225 Y-3.40430
G01 X5.32382 Y-3.40446
G01 X5.79510 Y-3.40446
G01 X5.79668 Y-3.40430
G01 X5.79773 Y-3.40398
G01 X5.79870 Y-3.40346
G01 X5.79993 Y-3.40246
G01 X5.82767 Y-3.37471
G01 X5.82868 Y-3.37349
G01 X5.82920 Y-3.37252
G01 X5.82952 Y-3.37146
G01 X5.82967 Y-3.36989
G01 X5.82967 Y-3.33937
G01 X5.82986 Y-3.33745
G01 X5.83042 Y-3.33560
G01 X5.83133 Y-3.33390
G01 X5.83256 Y-3.33241
G01 X5.83405 Y-3.33119
G01 X5.83575 Y-3.33028
G01 X5.83759 Y-3.32972
G01 X5.83952 Y-3.32953
G01 X5.85157 Y-3.32953
G01 X5.85157 Y-3.31550
G01 X5.85176 Y-3.31358
G01 X5.85232 Y-3.31173
G01 X5.85323 Y-3.31003
G01 X5.85446 Y-3.30854
G01 X5.85595 Y-3.30732
G01 X5.85765 Y-3.30641
G01 X5.85950 Y-3.30585
G01 X5.86142 Y-3.30566
G01 X5.98661 Y-3.30566
G01 X5.98853 Y-3.30585
G01 X5.99038 Y-3.30641
G01 X5.99208 Y-3.30732
G01 X5.99357 Y-3.30854
G01 X5.99480 Y-3.31003
G01 X5.99571 Y-3.31173
G01 X5.99627 Y-3.31358
G01 X5.99645 Y-3.31550
G01 X5.99645 Y-3.32953
G01 X6.05157 Y-3.32953
G01 X6.05157 Y-3.27047
G01 X5.99645 Y-3.27047
G01 X5.99645 Y-3.28450
G01 X5.99627 Y-3.28642
G01 X5.99571 Y-3.28827
G01 X5.99480 Y-3.28997
G01 X5.99357 Y-3.29146
G01 X5.99208 Y-3.29268
G01 X5.99038 Y-3.29359
G01 X5.98853 Y-3.29415
G01 X5.98661 Y-3.29434
G01 X5.86142 Y-3.29434
G01 X5.85950 Y-3.29415
G01 X5.85765 Y-3.29359
G01 X5.85595 Y-3.29268
G01 X5.85446 Y-3.29146
G01 X5.85323 Y-3.28997
G01 X5.85232 Y-3.28827
G01 X5.85176 Y-3.28642
G01 X5.85157 Y-3.28450
G01 X5.85157 Y-3.27047
G01 X5.79646 Y-3.27047
G01 X5.79646 Y-3.32953
G01 X5.80852 Y-3.32953
G01 X5.81044 Y-3.32972
G01 X5.81228 Y-3.33028
G01 X5.81398 Y-3.33119
G01 X5.81547 Y-3.33241
G01 X5.81670 Y-3.33390
G01 X5.81761 Y-3.33560
G01 X5.81817 Y-3.33745
G01 X5.81836 Y-3.33937
G01 X5.81836 Y-3.36395
G01 X5.81817 Y-3.36587
G01 X5.81761 Y-3.36772
G01 X5.81670 Y-3.36942
G01 X5.81547 Y-3.37091
G01 X5.79612 Y-3.39026
G01 X5.79463 Y-3.39148
G01 X5.79293 Y-3.39239
G01 X5.79108 Y-3.39295
G01 X5.78916 Y-3.39314
G01 X5.32976 Y-3.39314
G01 X5.32784 Y-3.39295
G01 X5.32599 Y-3.39239
G01 X5.32429 Y-3.39148
G01 X5.32280 Y-3.39026
G01 X5.15070 Y-3.21816
G01 X5.14948 Y-3.21667
G01 X5.14857 Y-3.21497
G01 X5.14801 Y-3.21312
G01 X5.14782 Y-3.21120
G01 X5.14782 Y-2.81713
G01 X5.14801 Y-2.81521
G01 X5.14857 Y-2.81336
G01 X5.14948 Y-2.81166
G01 X5.15070 Y-2.81017
G01 X5.18419 Y-2.77669
G01 X5.18568 Y-2.77547
G01 X5.18738 Y-2.77455
G01 X5.18923 Y-2.77400
G01 X5.19115 Y-2.77381
G01 X5.54648 Y-2.77381
G01 X5.54806 Y-2.77365
G01 X5.54911 Y-2.77333
G01 X5.55008 Y-2.77281
G01 X5.55131 Y-2.77181
G01 X5.68858 Y-2.63454
G01 X5.69007 Y-2.63332
G01 X5.69177 Y-2.63241
G01 X5.69362 Y-2.63185
G01 X5.69554 Y-2.63166
G01 X5.72012 Y-2.63166
G01 X5.72204 Y-2.63185
G01 X5.72388 Y-2.63241
G01 X5.72558 Y-2.63332
G01 X5.72707 Y-2.63454
G01 X5.72830 Y-2.63603
G01 X5.72921 Y-2.63773
G01 X5.72977 Y-2.63958
G01 X5.72996 Y-2.64150
G01 X5.72996 Y-2.68506
G01 X5.84807 Y-2.68506
G01 X5.84807 Y-2.57902
G01 X5.84826 Y-2.57710
G01 X5.84882 Y-2.57525
G01 X5.84973 Y-2.57355
G01 X5.85096 Y-2.57206
G01 X5.89816 Y-2.52486
G01 X5.89965 Y-2.52364
G01 X5.90135 Y-2.52273
G01 X5.90319 Y-2.52217
G01 X5.90512 Y-2.52198
G01 X5.90704 Y-2.52217
G01 X5.90888 Y-2.52273
G01 X5.91058 Y-2.52364
G01 X5.91207 Y-2.52486
G01 X5.91330 Y-2.52635
G01 X5.91421 Y-2.52805
G01 X5.91477 Y-2.52990
G01 X5.91496 Y-2.53182
G01 X5.91496 Y-2.56696
G01 X6.03307 Y-2.56696
G01 X6.03307 Y-2.44884
G01 X5.91496 Y-2.44884
G01 X5.91496 Y-2.49260
G01 X5.91474 Y-2.49465
G01 X5.91410 Y-2.49662
G01 X5.91306 Y-2.49840
G01 X5.91167 Y-2.49993
G01 X5.91000 Y-2.50114
G01 X5.90810 Y-2.50197
G01 X5.90497 Y-2.50272
G01 X5.90400 Y-2.50324
G01 X5.90277 Y-2.50424
G01 X5.84295 Y-2.56406
G01 X5.84146 Y-2.56528
G01 X5.83976 Y-2.56619
G01 X5.83791 Y-2.56675
G01 X5.83599 Y-2.56694
G01 X5.72996 Y-2.56694
G01 X5.72996 Y-2.61050
G01 X5.72977 Y-2.61242
G01 X5.72921 Y-2.61427
G01 X5.72830 Y-2.61597
G01 X5.72707 Y-2.61746
G01 X5.72558 Y-2.61868
G01 X5.72388 Y-2.61959
G01 X5.72204 Y-2.62015
G01 X5.72012 Y-2.62034
G01 X5.68960 Y-2.62034
G01 X5.68802 Y-2.62050
G01 X5.68697 Y-2.62082
G01 X5.68600 Y-2.62134
G01 X5.68477 Y-2.62234
G01 X5.54750 Y-2.75961
G01 X5.54601 Y-2.76083
G01 X5.54431 Y-2.76174
G01 X5.54246 Y-2.76230
G01 X5.54054 Y-2.76249
G01 X5.18521 Y-2.76249
G01 X5.18363 Y-2.76265
G01 X5.18258 Y-2.76297
G01 X5.18161 Y-2.76348
G01 X5.18038 Y-2.76449
G01 X5.13851 Y-2.80637
G01 X5.13750 Y-2.80759
G01 X5.13698 Y-2.80856
G01 X5.13666 Y-2.80962
G01 X5.13651 Y-2.81119
G01 X5.13651 Y-3.21714
G04 P0 ( dwell for no time -- G64 should not smooth over this point )
G00 Z0.08000 ( retract )

G00 X5.19456 Y-2.95000 ( rapid move to begin. )
G01 F180.00000
( Mill infeed pass 1/1 )
G01 Z-0.04000
G04 P0 ( dwell for no time -- G64 should not smooth over this point )
G01 F360.00000
G01 X5.19456 Y-2.95000
G01 X5.19512 Y-2.94425
G01 X5.19680 Y-2.93873
G01 X5.19952 Y-2.93363
G01 X5.20318 Y-2.92917
G01 X5.20765 Y-2.92550
G01 X5.21274 Y-2.92278
G01 X5.21827 Y-2.92111
G01 X5.22402 Y-2.92054
G01 X5.22976 Y-2.92111
G01 X5.23574 Y-2.92292
G01 X5.23747 Y-2.92328
G01 X5.23924 Y-2.92332
G01 X5.24099 Y-2.92305
G01 X5.24266 Y-2.92246
G01 X5.24420 Y-2.92159
G01 X5.24555 Y-2.92046
G01 X5.31967 Y-2.84634
G01 X5.32090 Y-2.84533
G01 X5.32187 Y-2.84482
G01 X5.32292 Y-2.84450
G01 X5.32450 Y-2.84434
G01 X5.34842 Y-2.84434
G01 X5.35034 Y-2.84415
G01 X5.35219 Y-2.84359
G01 X5.35389 Y-2.84268
G01 X5.35538 Y-2.84146
G01 X5.35661 Y-2.83997
G01 X5.35752 Y-2.83827
G01 X5.35808 Y-2.83642
G01 X5.35827 Y-2.83425
G01 X5.38976 Y-2.83425
G01 X5.38976 Y-2.86575
G01 X5.35827 Y-2.86575
G01 X5.35808 Y-2.86358
G01 X5.35752 Y-2.86173
G01 X5.35661 Y-2.86003
G01 X5.35538 Y-2.85854
G01 X5.35389 Y-2.85732
G01 X5.35219 Y-2.85641
G01 X5.35034 Y-2.85585
G01 X5.34842 Y-2.85566
G01 X5.33044 Y-2.85566
G01 X5.32852 Y-2.85585
G01 X5.32667 Y-2.85641
G01 X5.32497 Y-2.85732
G01 X5.32348 Y-2.85854
G01 X5.25356 Y-2.92846
G01 X5.25242 Y-2.92982
G01 X5.25155 Y-2.93136
G01 X5.25097 Y-2.93303
G01 X5.25069 Y-2.93478
G01 X5.25074 Y-2.93655
G01 X5.25110 Y-2.93828
G01 X5.25291 Y-2.94425
G01 X5.25347 Y-2.95000
G01 X5.25291 Y-2.95575
G01 X5.25123 Y-2.96127
G01 X5.24851 Y-2.96637
G01 X5.24485 Y-2.97083
G01 X5.24038 Y-2.97449
G01 X5.23488 Y-2.97744
G01 X5.23312 Y-2.97863
G01 X5.23167 Y-2.98018
G01 X5.23058 Y-2.98200
G01 X5.22990 Y-2.98401
G01 X5.22967 Y-2.98612
G01 X5.22967 Y-3.17379
G01 X5.22986 Y-3.17571
G01 X5.23042 Y-3.17756
G01 X5.23133 Y-3.17926
G01 X5.23256 Y-3.18075
G01 X5.29326 Y-3.24146
G01 X5.29475 Y-3.24268
G01 X5.29646 Y-3.24359
G01 X5.29830 Y-3.24415
G01 X5.30022 Y-3.24434
G01 X5.32960 Y-3.24434
G01 X5.33133 Y-3.24419
G01 X5.33301 Y-3.24373
G01 X5.33458 Y-3.24299
G01 X5.33599 Y-3.24198
G01 X5.33721 Y-3.24074
G01 X5.33987 Y-3.23751
G01 X5.34255 Y-3.23531
G01 X5.34560 Y-3.23368
G01 X5.34891 Y-3.23267
G01 X5.35284 Y-3.23228
G01 X5.39519 Y-3.23228
G01 X5.39912 Y-3.23267
G01 X5.40243 Y-3.23368
G01 X5.40548 Y-3.23531
G01 X5.40816 Y-3.23751
G01 X5.41036 Y-3.24018
G01 X5.41199 Y-3.24324
G01 X5.41300 Y-3.24655
G01 X5.41334 Y-3.25000
G01 X5.41300 Y-3.25345
G01 X5.41199 Y-3.25676
G01 X5.41036 Y-3.25982
G01 X5.40816 Y-3.26249
G01 X5.40548 Y-3.26469
G01 X5.40243 Y-3.26632
G01 X5.39912 Y-3.26733
G01 X5.39519 Y-3.26772
G01 X5.35284 Y-3.26772
G01 X5.34891 Y-3.26733
G01 X5.34560 Y-3.26632
G01 X5.34255 Y-3.26469
G01 X5.33987 Y-3.26249
G01 X5.33721 Y-3.25926
G01 X5.33599 Y-3.25801
G01 X5.33458 Y-3.25701
G01 X5.33301 Y-3.25626
G01 X5.33133 Y-3.25581
G01 X5.32960 Y-3.25566
G01 X5.29429 Y-3.25566
G01 X5.29271 Y-3.25550
G01 X5.29166 Y-3.25518
G01 X5.29069 Y-3.25466
G01 X5.28946 Y-3.25366
G01 X5.22036 Y-3.18455
G01 X5.21935 Y-3.18333
G01 X5.21883 Y-3.18236
G01 X5.21851 Y-3.18131
G01 X5.21836 Y-3.17973
G01 X5.21836 Y-2.98612
G01 X5.21813 Y-2.98401
G01 X5.21745 Y-2.98200
G01 X5.21636 Y-2.98018
G01 X5.21491 Y-2.97863
G01 X5.21315 Y-2.97744
G01 X5.20765 Y-2.97449
G01 X5.20318 Y-2.97083
G01 X5.19952 Y-2.96637
G01 X5.19680 Y-2.96127
G01 X5.19512 Y-2.95575
G01 X5.19456 Y-2.95000
G01 X5.21235 Y-2.95000
G01 X5.21258 Y-2.94773
G01 X5.21224 Y-2.94766
G01 X5.21258 Y-2.94773
G01 X5.21324 Y-2.94554
G01 X5.21432 Y-2.94352
G01 X5.21403 Y-2.94333
G01 X5.21432 Y-2.94352
G01 X5.21577 Y-2.94175
G01 X5.21754 Y-2.94030
G01 X5.21734 Y-2.94002
G01 X5.21754 Y-2.94030
G01 X5.21955 Y-2.93923
G01 X5.22174 Y-2.93856
G01 X5.22167 Y-2.93822
G01 X5.22174 Y-2.93856
G01 X5.22402 Y-2.93834
G01 X5.22629 Y-2.93856
G01 X5.22631 Y-2.93842
G01 X5.22629 Y-2.93856
G01 X5.23060 Y-2.93987
G01 X5.23354 Y-2.94048
G01 X5.23550 Y-2.93851
G01 X5.23354 Y-2.94048
G01 X5.23415 Y-2.94342
G01 X5.23545 Y-2.94773
G01 X5.23560 Y-2.94771
G01 X5.23545 Y-2.94773
G01 X5.23568 Y-2.95000
G01 X5.23545 Y-2.95227
G01 X5.23579 Y-2.95234
G01 X5.23545 Y-2.95227
G01 X5.23479 Y-2.95446
G01 X5.23371 Y-2.95648
G01 X5.23400 Y-2.95667
G01 X5.23371 Y-2.95648
G01 X5.23226 Y-2.95824
G01 X5.23049 Y-2.95969
G01 X5.23061 Y-2.95985
G01 X5.23049 Y-2.95969
G01 X5.22653 Y-2.96182
G01 X5.22402 Y-2.96353
G01 X5.22412 Y-2.96681
G01 X5.22402 Y-2.96353
G01 X5.22150 Y-2.96182
G01 X5.21754 Y-2.95969
G01 X5.21745 Y-2.95981
G01 X5.21754 Y-2.95969
G01 X5.21577 Y-2.95824
G01 X5.21432 Y-2.95648
G01 X5.21403 Y-2.95667
G01 X5.21432 Y-2.95648
G01 X5.21324 Y-2.95446
G01 X5.21258 Y-2.95227
G01 X5.21224 Y-2.95234
G01 X5.21258 Y-2.95227
G01 X5.21235 Y-2.95000
G04 P0 ( dwell for no time -- G64 should not smooth over this point )
G00 Z0.08000 ( retract )

G00 X5.45674 Y-2.85000 ( rapid move to begin. )
G01 F180.00000
( Mill infeed pass 1/1 )
G01 Z-0.04000
G04 P0 ( dwell for no time -- G64 should not smooth over this point )
G01 F360.00000
G01 X5.45674 Y-2.85000
G01 X5.45704 Y-2.85306
G01 X5.45793 Y-2.85601
G01 X5.45939 Y-2.85872
G01 X5.46134 Y-2.86110
G01 X5.46372 Y-2.86305
G01 X5.46643 Y-2.86450
G01 X5.46938 Y-2.86540
G01 X5.47244 Y-2.86570
G01 X5.47655 Y-2.86545
G01 X5.47827 Y-2.86574
G01 X5.47990 Y-2.86632
G01 X5.48141 Y-2.86719
G01 X5.48274 Y-2.86830
G01 X5.56810 Y-2.95366
G01 X5.56932 Y-2.95466
G01 X5.57029 Y-2.95518
G01 X5.57135 Y-2.95550
G01 X5.57292 Y-2.95566
G01 X5.58790 Y-2.95566
G01 X5.59001 Y-2.95589
G01 X5.59202 Y-2.95656
G01 X5.59384 Y-2.95765
G01 X5.59538 Y-2.95911
G01 X5.59658 Y-2.96086
G01 X5.59952 Y-2.96637
G01 X5.60318 Y-2.97083
G01 X5.60765 Y-2.97449
G01 X5.61274 Y-2.97722
G01 X5.61827 Y-2.97889
G01 X5.62402 Y-2.97946
G01 X5.62976 Y-2.97889
G01 X5.63529 Y-2.97722
G01 X5.64038 Y-2.97449
G01 X5.64485 Y-2.97083
G01 X5.64851 Y-2.96637
G01 X5.65145 Y-2.96086
G01 X5.65265 Y-2.95911
G01 X5.65419 Y-2.95765
G01 X5.65601 Y-2.95656
G01 X5.65802 Y-2.95589
G01 X5.66013 Y-2.95566
G01 X5.96933 Y-2.95566
G01 X5.97091 Y-2.95550
G01 X5.97196 Y-2.95518
G01 X5.97293 Y-2.95466
G01 X5.97416 Y-2.95366
G01 X6.13036 Y-2.79745
G01 X6.13186 Y-2.79623
G01 X6.13356 Y-2.79531
G01 X6.13540 Y-2.79475
G01 X6.13732 Y-2.79457
G01 X6.61728 Y-2.79457
G01 X6.61920 Y-2.79475
G01 X6.62105 Y-2.79531
G01 X6.62275 Y-2.79623
G01 X6.62424 Y-2.79745
G01 X6.74032 Y-2.91353
G01 X6.74155 Y-2.91502
G01 X6.74246 Y-2.91672
G01 X6.74302 Y-2.91857
G01 X6.74321 Y-2.92049
G01 X6.74321 Y-2.97951
G01 X6.74302 Y-2.98143
G01 X6.74246 Y-2.98327
G01 X6.74155 Y-2.98497
G01 X6.74032 Y-2.98647
G01 X6.56407 Y-3.16272
G01 X6.56258 Y-3.16394
G01 X6.56088 Y-3.16485
G01 X6.55903 Y-3.16541
G01 X6.55711 Y-3.16560
G01 X6.51843 Y-3.16560
G01 X6.51627 Y-3.16536
G01 X6.51422 Y-3.16466
