( pcb2gcode 2.0.0 )
( Software-independent Gcode )

G94 ( Inches per minute feed rate. )
G20 ( Units == INCHES. )

G90 ( Absolute coordinates. )
G00 S12000 ( RPM spindle speed. )
G64 P0.00040 ( set maximum deviation from commanded toolpath )
G01 F360.00000 ( Feedrate. )


G00 Z1.00000 (Retract to tool change height)
T0
M5      (Spindle stop.)
G04 P1.00000 (Wait for spindle to stop)
(MSG, Change tool bit to mill diameter 0.01969in)
M6      (Tool change.)
M0      (Temporary machine stop.)
M3 ( Spindle on clockwise. )
G04 P1.00000 (Wait for spindle to get up to speed)
( Piece #1, position [0;0] )

G04 P0 ( dwell for no time -- G64 should not smooth over this point )
G00 Z0.08000 ( retract )

G00 X3.22055 Y-2.55000 ( rapid move to begin. )
G01 F180.00000
( Mill infeed pass 1/1 )
G01 Z-0.04000
G04 P0 ( dwell for no time -- G64 should not smooth over this point )
G01 F360.00000
G01 X3.22055 Y-2.55000
G01 X3.22119 Y-2.55612
G01 X3.22309 Y-2.56198
G01 X3.22617 Y-2.56731
G01 X3.22823 Y-2.56960
G01 X3.23029 Y-2.57189
G01 X3.23527 Y-2.57551
G01 X3.24090 Y-2.57801
G01 X3.24692 Y-2.57929
G01 X3.25308 Y-2.57929
G01 X3.25910 Y-2.57801
G01 X3.26473 Y-2.57551
G01 X3.26971 Y-2.57189
G01 X3.27381 Y-2.56734
G01 X3.27747 Y-2.56088
G01 X3.27846 Y-2.55946
G01 X3.27967 Y-2.55824
G01 X3.28108 Y-2.55724
G01 X3.28264 Y-2.55651
G01 X3.28431 Y-2.55606
G01 X3.28603 Y-2.55591
G01 X3.61397 Y-2.55591
G01 X3.61569 Y-2.55606
G01 X3.61735 Y-2.55651
G01 X3.61892 Y-2.55724
G01 X3.62033 Y-2.55824
G01 X3.62154 Y-2.55946
G01 X3.62252 Y-2.56088
G01 X3.62619 Y-2.56734
G01 X3.63029 Y-2.57189
G01 X3.63527 Y-2.57551
G01 X3.64090 Y-2.57801
G01 X3.64692 Y-2.57929
G01 X3.65308 Y-2.57929
G01 X3.65910 Y-2.57801
G01 X3.66473 Y-2.57551
G01 X3.66971 Y-2.57189
G01 X3.67383 Y-2.56731
G01 X3.67691 Y-2.56198
G01 X3.67881 Y-2.55612
G01 X3.67945 Y-2.55000
G01 X3.67881 Y-2.54388
G01 X3.67707 Y-2.53853
G01 X3.67667 Y-2.53677
G01 X3.67660 Y-2.53497
G01 X3.67686 Y-2.53319
G01 X3.67744 Y-2.53148
G01 X3.67832 Y-2.52991
G01 X3.67947 Y-2.52853
G01 X3.79596 Y-2.41204
G01 X3.79713 Y-2.41104
G01 X3.79845 Y-2.41023
G01 X3.79988 Y-2.40964
G01 X3.80138 Y-2.40928
G01 X3.80292 Y-2.40916
G01 X4.14708 Y-2.40916
G01 X4.14900 Y-2.40935
G01 X4.15085 Y-2.40991
G01 X4.15255 Y-2.41081
G01 X4.15404 Y-2.41204
G01 X4.27053 Y-2.52853
G01 X4.27168 Y-2.52991
G01 X4.27256 Y-2.53148
G01 X4.27314 Y-2.53319
G01 X4.27340 Y-2.53497
G01 X4.27332 Y-2.53677
G01 X4.27293 Y-2.53853
G01 X4.27119 Y-2.54388
G01 X4.27055 Y-2.55000
G01 X4.27067 Y-2.55263
G01 X4.27041 Y-2.55432
G01 X4.26986 Y-2.55593
G01 X4.26905 Y-2.55742
G01 X4.26798 Y-2.55875
G01 X4.26671 Y-2.55988
G01 X4.26526 Y-2.56077
G01 X4.01878 Y-2.68400
G01 X4.01738 Y-2.68458
G01 X4.01590 Y-2.68492
G01 X4.01438 Y-2.68504
G01 X3.94094 Y-2.68504
G01 X3.94094 Y-2.80316
G01 X4.05906 Y-2.80316
G01 X4.05906 Y-2.68316
G01 X4.05922 Y-2.68135
G01 X4.05972 Y-2.67961
G01 X4.06053 Y-2.67798
G01 X4.06162 Y-2.67654
G01 X4.06296 Y-2.67531
G01 X4.06450 Y-2.67435
G01 X4.27052 Y-2.57135
G01 X4.27218 Y-2.57070
G01 X4.27394 Y-2.57036
G01 X4.27573 Y-2.57034
G01 X4.27749 Y-2.57065
G01 X4.27917 Y-2.57127
G01 X4.28070 Y-2.57219
G01 X4.28527 Y-2.57551
G01 X4.29090 Y-2.57801
G01 X4.29692 Y-2.57929
G01 X4.30308 Y-2.57929
G01 X4.30910 Y-2.57801
G01 X4.31473 Y-2.57551
G01 X4.31971 Y-2.57189
G01 X4.32381 Y-2.56734
G01 X4.32747 Y-2.56088
G01 X4.32846 Y-2.55946
G01 X4.32967 Y-2.55824
G01 X4.33108 Y-2.55724
G01 X4.33264 Y-2.55651
G01 X4.33431 Y-2.55606
G01 X4.33603 Y-2.55591
G01 X4.66397 Y-2.55591
G01 X4.66569 Y-2.55606
G01 X4.66735 Y-2.55651
G01 X4.66892 Y-2.55724
G01 X4.67033 Y-2.55824
G01 X4.67154 Y-2.55946
G01 X4.67253 Y-2.56088
G01 X4.67619 Y-2.56734
G01 X4.68029 Y-2.57189
G01 X4.68527 Y-2.57551
G01 X4.69090 Y-2.57801
G01 X4.69692 Y-2.57929
G01 X4.70308 Y-2.57929
G01 X4.70910 Y-2.57801
G01 X4.71473 Y-2.57551
G01 X4.71971 Y-2.57189
G01 X4.72294 Y-2.56829
G01 X4.72383 Y-2.56731
G01 X4.72691 Y-2.56198
G01 X4.72881 Y-2.55612
G01 X4.72945 Y-2.55000
G01 X4.72881 Y-2.54388
G01 X4.72691 Y-2.53802
G01 X4.72383 Y-2.53269
G01 X4.71971 Y-2.52811
G01 X4.71473 Y-2.52449
G01 X4.70910 Y-2.52199
G01 X4.70308 Y-2.52071
G01 X4.69692 Y-2.52071
G01 X4.69090 Y-2.52199
G01 X4.68527 Y-2.52449
G01 X4.68029 Y-2.52811
G01 X4.67619 Y-2.53266
G01 X4.67253 Y-2.53911
G01 X4.67154 Y-2.54054
G01 X4.67033 Y-2.54176
G01 X4.66892 Y-2.54276
G01 X4.66735 Y-2.54349
G01 X4.66569 Y-2.54394
G01 X4.66397 Y-2.54409
G01 X4.33603 Y-2.54409
G01 X4.33431 Y-2.54394
G01 X4.33264 Y-2.54349
G01 X4.33108 Y-2.54276
G01 X4.32967 Y-2.54176
G01 X4.32846 Y-2.54054
G01 X4.32747 Y-2.53911
G01 X4.32381 Y-2.53266
G01 X4.31971 Y-2.52811
G01 X4.31473 Y-2.52449
G01 X4.30910 Y-2.52199
G01 X4.30308 Y-2.52071
G01 X4.29692 Y-2.52071
G01 X4.29090 Y-2.52199
G01 X4.28793 Y-2.52315
G01 X4.28626 Y-2.52342
G01 X4.28457 Y-2.52340
G01 X4.28291 Y-2.52309
G01 X4.28132 Y-2.52251
G01 X4.27986 Y-2.52165
G01 X4.27857 Y-2.52056
G01 X4.15777 Y-2.39977
G01 X4.15681 Y-2.39895
G01 X4.15524 Y-2.39815
G01 X4.15311 Y-2.39784
G01 X3.79689 Y-2.39784
G01 X3.79562 Y-2.39794
G01 X3.79447 Y-2.39827
G01 X3.79319 Y-2.39895
G01 X3.79223 Y-2.39977
G01 X3.67143 Y-2.52056
G01 X3.67014 Y-2.52165
G01 X3.66868 Y-2.52251
G01 X3.66709 Y-2.52309
G01 X3.66543 Y-2.52340
G01 X3.66374 Y-2.52342
G01 X3.66207 Y-2.52315
G01 X3.65910 Y-2.52199
G01 X3.65308 Y-2.52071
G01 X3.64692 Y-2.52071
G01 X3.64090 Y-2.52199
G01 X3.63527 Y-2.52449
G01 X3.63029 Y-2.52811
G01 X3.62619 Y-2.53266
G01 X3.62252 Y-2.53911
G01 X3.62154 Y-2.54054
G01 X3.62033 Y-2.54176
G01 X3.61892 Y-2.54276
G01 X3.61735 Y-2.54349
G01 X3.61569 Y-2.54394
G01 X3.61397 Y-2.54409
G01 X3.28603 Y-2.54409
G01 X3.28431 Y-2.54394
G01 X3.28264 Y-2.54349
G01 X3.28108 Y-2.54276
G01 X3.27967 Y-2.54176
G01 X3.27846 Y-2.54054
G01 X3.27747 Y-2.53911
G01 X3.27381 Y-2.53266
G01 X3.26971 Y-2.52811
G01 X3.26473 Y-2.52449
G01 X3.25910 Y-2.52199
G01 X3.25374 Y-2.52085
G01 X3.25308 Y-2.52071
G01 X3.24692 Y-2.52071
G01 X3.24090 Y-2.52199
G01 X3.23527 Y-2.52449
G01 X3.23029 Y-2.52811
G01 X3.22992 Y-2.52853
G01 X3.22617 Y-2.53269
G01 X3.22309 Y-2.53802
G01 X3.22119 Y-2.54387
G01 X3.22055 Y-2.55000
G01 X3.23836 Y-2.55000
G01 X3.23861 Y-2.55242
G01 X3.23937 Y-2.55473
G01 X3.24058 Y-2.55684
G01 X3.24221 Y-2.55865
G01 X3.24418 Y-2.56008
G01 X3.24640 Y-2.56107
G01 X3.24878 Y-2.56157
G01 X3.25122 Y-2.56157
G01 X3.25360 Y-2.56107
G01 X3.25582 Y-2.56008
G01 X3.25779 Y-2.55865
G01 X3.25935 Y-2.55691
G01 X3.26207 Y-2.55213
G01 X3.26354 Y-2.55000
G01 X3.26207 Y-2.54787
G01 X3.25935 Y-2.54309
G01 X3.25779 Y-2.54135
G01 X3.25582 Y-2.53992
G01 X3.25360 Y-2.53893
G01 X3.25122 Y-2.53842
G01 X3.24878 Y-2.53842
G01 X3.24640 Y-2.53893
G01 X3.24418 Y-2.53992
G01 X3.24221 Y-2.54135
G01 X3.24058 Y-2.54316
G01 X3.23937 Y-2.54527
G01 X3.23861 Y-2.54758
G01 X3.23836 Y-2.55000
G01 X3.63646 Y-2.55000
G01 X3.63793 Y-2.55213
G01 X3.64064 Y-2.55691
G01 X3.64221 Y-2.55865
G01 X3.64418 Y-2.56008
G01 X3.64640 Y-2.56107
G01 X3.64878 Y-2.56157
G01 X3.65122 Y-2.56157
G01 X3.65360 Y-2.56107
G01 X3.65582 Y-2.56008
G01 X3.65779 Y-2.55865
G01 X3.65942 Y-2.55684
G01 X3.66063 Y-2.55473
G01 X3.66138 Y-2.55242
G01 X3.66164 Y-2.55000
G01 X3.66138 Y-2.54758
G01 X3.66022 Y-2.54400
G01 X3.65945 Y-2.54061
G01 X3.65774 Y-2.54033
G01 X3.65385 Y-2.53898
G01 X3.65122 Y-2.53842
G01 X3.64878 Y-2.53842
G01 X3.64640 Y-2.53893
G01 X3.64418 Y-2.53992
G01 X3.64221 Y-2.54135
G01 X3.64065 Y-2.54309
G01 X3.63793 Y-2.54787
G01 X3.63646 Y-2.55000
G04 P0 ( dwell for no time -- G64 should not smooth over this point )
G00 Z0.08000 ( retract )

G00 X3.76876 Y-2.62600 ( rapid move to begin. )
G01 F180.00000
( Mill infeed pass 1/1 )
G01 Z-0.04000
G04 P0 ( dwell for no time -- G64 should not smooth over this point )
G01 F360.00000
G01 X3.76876 Y-2.62600
G01 X3.76997 Y-2.62772
G01 X3.77200 Y-2.63207
G01 X3.77324 Y-2.63671
G01 X3.77366 Y-2.64150
G01 X3.77366 Y-2.66734
G01 X3.85634 Y-2.66734
G01 X3.85634 Y-2.58466
G01 X3.77366 Y-2.58466
G01 X3.77366 Y-2.61050
G01 X3.77324 Y-2.61529
G01 X3.77200 Y-2.61992
G01 X3.76997 Y-2.62428
G01 X3.76876 Y-2.62600
G01 X3.78864 Y-2.62600
G01 X3.79069 Y-2.63364
G01 X3.79137 Y-2.64150
G01 X3.79137 Y-2.64962
G01 X3.83862 Y-2.64962
G01 X3.83862 Y-2.60237
G01 X3.79137 Y-2.60237
G01 X3.79137 Y-2.61050
G01 X3.79069 Y-2.61836
G01 X3.78864 Y-2.62600
G01 X3.80691 Y-2.62600
G01 X3.80814 Y-2.62144
G01 X3.80825 Y-2.62009
G01 X3.82091 Y-2.62009
G01 X3.82091 Y-2.63191
G01 X3.80825 Y-2.63191
G01 X3.80814 Y-2.63056
G01 X3.80691 Y-2.62600
G04 P0 ( dwell for no time -- G64 should not smooth over this point )
G00 Z0.08000 ( retract )

G00 X3.95031 Y-2.51221 ( rapid move to begin. )
G01 F180.00000
( Mill infeed pass 1/1 )
G01 Z-0.04000
G04 P0 ( dwell for no time -- G64 should not smooth over this point )
G01 F360.00000
G01 X3.95031 Y-2.51221
G01 X3.95152 Y-2.51110
G01 X3.95456 Y-2.50705
G01 X3.95681 Y-2.50251
G01 X3.95819 Y-2.49764
G01 X3.95866 Y-2.49260
G01 X3.95866 Y-2.46656
G01 X4.04134 Y-2.46656
G01 X4.04134 Y-2.54924
G01 X3.95866 Y-2.54924
G01 X3.95866 Y-2.53182
G01 X3.95821 Y-2.52685
G01 X3.95687 Y-2.52205
G01 X3.95468 Y-2.51756
G01 X3.95173 Y-2.51355
G01 X3.95031 Y-2.51221
G01 X3.97170 Y-2.51220
G01 X3.97334 Y-2.50889
G01 X3.97561 Y-2.50088
G01 X3.97637 Y-2.49260
G01 X3.97637 Y-2.48427
G01 X4.02362 Y-2.48427
G01 X4.02362 Y-2.53152
G01 X3.97635 Y-2.53152
G01 X3.97563 Y-2.52366
G01 X3.97343 Y-2.51577
G01 X3.97170 Y-2.51220
G01 X3.99075 Y-2.51217
G01 X3.99303 Y-2.50413
G01 X3.99322 Y-2.50199
G01 X4.00591 Y-2.50199
G01 X4.00591 Y-2.51381
G01 X3.99120 Y-2.51381
G01 X3.99075 Y-2.51217
G04 P0 ( dwell for no time -- G64 should not smooth over this point )
G00 Z0.08000 ( retract )

G00 X4.28801 Y-2.55600 ( rapid move to begin. )
G01 F180.00000
( Mill infeed pass 1/1 )
G01 Z-0.04000
G04 P0 ( dwell for no time -- G64 should not smooth over this point )
G01 F360.00000
G01 X4.28801 Y-2.55600
G01 X4.29112 Y-2.55785
G01 X4.29418 Y-2.56008
G01 X4.29640 Y-2.56107
G01 X4.29878 Y-2.56157
G01 X4.30122 Y-2.56157
G01 X4.30360 Y-2.56107
G01 X4.30582 Y-2.56008
G01 X4.30779 Y-2.55865
G01 X4.30936 Y-2.55691
G01 X4.31207 Y-2.55213
G01 X4.31354 Y-2.55000
G01 X4.31207 Y-2.54787
G01 X4.30935 Y-2.54309
G01 X4.30779 Y-2.54135
G01 X4.30582 Y-2.53992
G01 X4.30360 Y-2.53893
G01 X4.30122 Y-2.53842
G01 X4.29878 Y-2.53842
G01 X4.29615 Y-2.53898
G01 X4.29226 Y-2.54033
G01 X4.29054 Y-2.54061
G01 X4.28978 Y-2.54400
G01 X4.28862 Y-2.54758
G01 X4.28829 Y-2.55065
G01 X4.28835 Y-2.55385
G01 X4.28801 Y-2.55600
G01 X4.68645 Y-2.55000
G01 X4.68792 Y-2.55213
G01 X4.69064 Y-2.55691
G01 X4.69221 Y-2.55865
G01 X4.69418 Y-2.56008
G01 X4.69640 Y-2.56107
G01 X4.69878 Y-2.56157
G01 X4.70122 Y-2.56157
G01 X4.70360 Y-2.56107
G01 X4.70582 Y-2.56008
G01 X4.70779 Y-2.55865
G01 X4.70942 Y-2.55684
G01 X4.71063 Y-2.55473
G01 X4.71138 Y-2.55242
G01 X4.71164 Y-2.55000
G01 X4.71138 Y-2.54758
G01 X4.71063 Y-2.54527
G01 X4.70942 Y-2.54316
G01 X4.70779 Y-2.54135
G01 X4.70582 Y-2.53992
G01 X4.70360 Y-2.53893
G01 X4.70122 Y-2.53842
G01 X4.69878 Y-2.53842
G01 X4.69640 Y-2.53893
G01 X4.69418 Y-2.53992
G01 X4.69221 Y-2.54135
G01 X4.69064 Y-2.54309
G01 X4.68792 Y-2.54787
G01 X4.68645 Y-2.55000
G04 P0 ( dwell for no time -- G64 should not smooth over this point )
G00 Z0.08000 ( retract )

G00 X4.68836 Y-2.95000 ( rapid move to begin. )
G01 F180.00000
( Mill infeed pass 1/1 )
G01 Z-0.04000
G04 P0 ( dwell for no time -- G64 should not smooth over this point )
G01 F360.00000
G01 X4.68836 Y-2.95000
G01 X4.68862 Y-2.95242
G01 X4.68937 Y-2.95473
G01 X4.69058 Y-2.95684
G01 X4.69221 Y-2.95865
G01 X4.69418 Y-2.96008
G01 X4.69640 Y-2.96107
G01 X4.69878 Y-2.96157
G01 X4.70122 Y-2.96157
G01 X4.70360 Y-2.96107
G01 X4.70582 Y-2.96008
G01 X4.70779 Y-2.95865
G01 X4.70942 Y-2.95684
G01 X4.71063 Y-2.95473
G01 X4.71138 Y-2.95242
G01 X4.71164 Y-2.95000
G01 X4.71138 Y-2.94758
G01 X4.71063 Y-2.94527
G01 X4.70942 Y-2.94316
G01 X4.70779 Y-2.94135
G01 X4.70582 Y-2.93992
G01 X4.70360 Y-2.93893
G01 X4.70122 Y-2.93842
G01 X4.69878 Y-2.93842
G01 X4.69615 Y-2.93898
G01 X4.69226 Y-2.94033
G01 X4.69055 Y-2.94061
G01 X4.68978 Y-2.94400
G01 X4.68862 Y-2.94758
G01 X4.68836 Y-2.95000
G04 P0 ( dwell for no time -- G64 should not smooth over this point )
G00 Z0.08000 ( retract )

G00 X4.40963 Y-3.24501 ( rapid move to begin. )
G01 F180.00000
( Mill infeed pass 1/1 )
G01 Z-0.04000
G04 P0 ( dwell for no time -- G64 should not smooth over this point )
G01 F360.00000
G01 X4.40963 Y-3.24501
G01 X4.40963 Y-3.04179
G01 X4.40978 Y-3.04021
G01 X4.41010 Y-3.03916
G01 X4.41062 Y-3.03819
G01 X4.41163 Y-3.03696
G01 X4.54146 Y-2.90713
G01 X4.54268 Y-2.90564
G01 X4.54359 Y-2.90394
G01 X4.54415 Y-2.90209
G01 X4.54434 Y-2.90017
G01 X4.54434 Y-2.87559
G01 X4.54419 Y-2.87388
G01 X4.54375 Y-2.87222
G01 X4.54302 Y-2.87067
G01 X4.54204 Y-2.86926
G01 X4.54083 Y-2.86805
G01 X4.53942 Y-2.86707
G01 X4.53787 Y-2.86634
G01 X4.53621 Y-2.86590
G01 X4.53425 Y-2.86575
G01 X4.53425 Y-2.83425
G01 X4.56575 Y-2.83425
G01 X4.56594 Y-2.83642
G01 X4.56650 Y-2.83827
G01 X4.56741 Y-2.83997
G01 X4.56863 Y-2.84146
G01 X4.57012 Y-2.84268
G01 X4.57182 Y-2.84359
G01 X4.57367 Y-2.84415
G01 X4.57559 Y-2.84434
G01 X4.59962 Y-2.84434
G01 X4.60088 Y-2.84444
G01 X4.60255 Y-2.84499
G01 X4.60427 Y-2.84627
G01 X4.67857 Y-2.92056
G01 X4.67986 Y-2.92165
G01 X4.68132 Y-2.92251
G01 X4.68291 Y-2.92309
G01 X4.68457 Y-2.92340
G01 X4.68626 Y-2.92342
G01 X4.68793 Y-2.92315
G01 X4.69090 Y-2.92199
G01 X4.69692 Y-2.92071
G01 X4.70308 Y-2.92071
G01 X4.70910 Y-2.92199
G01 X4.71473 Y-2.92449
G01 X4.71971 Y-2.92811
G01 X4.72383 Y-2.93269
G01 X4.72691 Y-2.93802
G01 X4.72881 Y-2.94388
G01 X4.72945 Y-2.95000
G01 X4.72881 Y-2.95612
G01 X4.72691 Y-2.96198
G01 X4.72383 Y-2.96731
G01 X4.71971 Y-2.97189
G01 X4.71473 Y-2.97551
G01 X4.70910 Y-2.97801
G01 X4.70308 Y-2.97929
G01 X4.69692 Y-2.97929
G01 X4.69090 Y-2.97801
G01 X4.68527 Y-2.97551
G01 X4.68029 Y-2.97189
G01 X4.67617 Y-2.96731
G01 X4.67309 Y-2.96198
G01 X4.67119 Y-2.95612
G01 X4.67055 Y-2.95000
G01 X4.67119 Y-2.94388
G01 X4.67293 Y-2.93853
G01 X4.67333 Y-2.93677
G01 X4.67340 Y-2.93497
G01 X4.67314 Y-2.93319
G01 X4.67256 Y-2.93148
G01 X4.67168 Y-2.92991
G01 X4.67053 Y-2.92853
G01 X4.60054 Y-2.85854
G01 X4.59936 Y-2.85754
G01 X4.59805 Y-2.85673
G01 X4.59662 Y-2.85614
G01 X4.59512 Y-2.85578
G01 X4.59358 Y-2.85566
G01 X4.57559 Y-2.85566
G01 X4.57388 Y-2.85581
G01 X4.57222 Y-2.85625
G01 X4.57067 Y-2.85698
G01 X4.56926 Y-2.85796
G01 X4.56805 Y-2.85917
G01 X4.56707 Y-2.86058
G01 X4.56634 Y-2.86213
G01 X4.56590 Y-2.86379
G01 X4.56575 Y-2.86575
G01 X4.56358 Y-2.86594
G01 X4.56173 Y-2.86650
G01 X4.56003 Y-2.86741
G01 X4.55854 Y-2.86863
G01 X4.55732 Y-2.87012
G01 X4.55641 Y-2.87182
G01 X4.55585 Y-2.87367
G01 X4.55566 Y-2.87559
G01 X4.55566 Y-2.90611
G01 X4.55550 Y-2.90768
G01 X4.55518 Y-2.90874
G01 X4.55466 Y-2.90971
G01 X4.55366 Y-2.91093
G01 X4.42383 Y-3.04076
G01 X4.42282 Y-3.04194
G01 X4.42202 Y-3.04325
G01 X4.42143 Y-3.04468
G01 X4.42106 Y-3.04618
G01 X4.42094 Y-3.04772
G01 X4.42094 Y-3.23450
G01 X4.42113 Y-3.23642
G01 X4.42169 Y-3.23827
G01 X4.42260 Y-3.23997
G01 X4.42383 Y-3.24146
G01 X4.42532 Y-3.24268
G01 X4.42702 Y-3.24359
G01 X4.42887 Y-3.24415
G01 X4.43079 Y-3.24434
G01 X4.45573 Y-3.24434
G01 X4.45757 Y-3.24417
G01 X4.45935 Y-3.24365
G01 X4.46100 Y-3.24281
G01 X4.46247 Y-3.24167
G01 X4.46369 Y-3.24029
G01 X4.46522 Y-3.23818
G01 X4.46796 Y-3.23571
G01 X4.47116 Y-3.23386
G01 X4.47467 Y-3.23272
G01 X4.47886 Y-3.23228
G01 X4.52114 Y-3.23228
G01 X4.52532 Y-3.23272
G01 X4.52884 Y-3.23386
G01 X4.53203 Y-3.23571
G01 X4.53478 Y-3.23818
G01 X4.53695 Y-3.24117
G01 X4.53845 Y-3.24454
G01 X4.53922 Y-3.24815
G01 X4.53922 Y-3.25185
G01 X4.53845 Y-3.25546
G01 X4.53695 Y-3.25883
G01 X4.53478 Y-3.26182
G01 X4.53203 Y-3.26429
G01 X4.52884 Y-3.26613
G01 X4.52532 Y-3.26728
G01 X4.52114 Y-3.26772
G01 X4.47886 Y-3.26772
G01 X4.47467 Y-3.26728
G01 X4.47116 Y-3.26613
G01 X4.46796 Y-3.26429
G01 X4.46522 Y-3.26182
G01 X4.46369 Y-3.25971
G01 X4.46247 Y-3.25833
G01 X4.46100 Y-3.25719
G01 X4.45935 Y-3.25635
G01 X4.45757 Y-3.25583
G01 X4.45573 Y-3.25566
G01 X4.42017 Y-3.25566
G01 X4.41805 Y-3.25535
G01 X4.41648 Y-3.25455
G01 X4.41551 Y-3.25373
G01 X4.41163 Y-3.24984
G01 X4.41062 Y-3.24861
G01 X4.41010 Y-3.24764
G01 X4.40978 Y-3.24659
G01 X4.40963 Y-3.24501
G04 P0 ( dwell for no time -- G64 should not smooth over this point )
G00 Z0.08000 ( retract )

G00 X4.14031 Y-3.30000 ( rapid move to begin. )
G01 F180.00000
( Mill infeed pass 1/1 )
G01 Z-0.04000
G04 P0 ( dwell for no time -- G64 should not smooth over this point )
G01 F360.00000
G01 X4.14031 Y-3.30000
G01 X4.14052 Y-3.30201
G01 X4.14115 Y-3.30394
G01 X4.14216 Y-3.30570
G01 X4.14351 Y-3.30720
G01 X4.14515 Y-3.30839
G01 X4.14701 Y-3.30922
G01 X4.14899 Y-3.30964
G01 X4.15101 Y-3.30964
G01 X4.15407 Y-3.30899
G01 X4.15603 Y-3.30831
G01 X4.15791 Y-3.30801
G01 X4.15877 Y-3.30419
G01 X4.15948 Y-3.30201
G01 X4.15969 Y-3.30000
G01 X4.15948 Y-3.29799
G01 X4.15885 Y-3.29606
G01 X4.15784 Y-3.29430
G01 X4.15648 Y-3.29280
G01 X4.15484 Y-3.29161
G01 X4.15299 Y-3.29078
G01 X4.15101 Y-3.29036
G01 X4.14899 Y-3.29036
G01 X4.14701 Y-3.29078
G01 X4.14515 Y-3.29161
G01 X4.14351 Y-3.29280
G01 X4.14216 Y-3.29430
G01 X4.14115 Y-3.29606
G01 X4.14052 Y-3.29798
G01 X4.14031 Y-3.30000
G01 X4.12249 Y-3.30000
G01 X4.12310 Y-3.30572
G01 X4.12487 Y-3.31119
G01 X4.12775 Y-3.31617
G01 X4.13159 Y-3.32044
G01 X4.13625 Y-3.32382
G01 X4.14150 Y-3.32616
G01 X4.14712 Y-3.32735
G01 X4.15287 Y-3.32735
G01 X4.15850 Y-3.32616
G01 X4.16036 Y-3.32549
G01 X4.16202 Y-3.32522
G01 X4.16372 Y-3.32524
G01 X4.16538 Y-3.32555
G01 X4.16697 Y-3.32613
G01 X4.16843 Y-3.32699
G01 X4.16972 Y-3.32808
G01 X4.17422 Y-3.33257
G01 X4.17548 Y-3.33361
G01 X4.17650 Y-3.33415
G01 X4.17760 Y-3.33449
G01 X4.17922 Y-3.33465
G01 X4.45591 Y-3.33465
G01 X4.45775 Y-3.33482
G01 X4.45953 Y-3.33534
G01 X4.46119 Y-3.33618
G01 X4.46265 Y-3.33731
G01 X4.46522 Y-3.34056
G01 X4.46796 Y-3.34303
G01 X4.47116 Y-3.34488
G01 X4.47467 Y-3.34602
G01 X4.47886 Y-3.34646
G01 X4.52114 Y-3.34646
G01 X4.52532 Y-3.34602
G01 X4.52884 Y-3.34488
G01 X4.53203 Y-3.34303
G01 X4.53478 Y-3.34056
G01 X4.53695 Y-3.33757
G01 X4.53845 Y-3.33420
G01 X4.53922 Y-3.33059
G01 X4.53922 Y-3.32689
G01 X4.53845 Y-3.32328
G01 X4.53695 Y-3.31991
G01 X4.53478 Y-3.31692
G01 X4.53203 Y-3.31445
G01 X4.52884 Y-3.31261
G01 X4.52532 Y-3.31146
G01 X4.52114 Y-3.31102
G01 X4.47886 Y-3.31102
G01 X4.47467 Y-3.31146
G01 X4.47116 Y-3.31261
G01 X4.46796 Y-3.31445
G01 X4.46522 Y-3.31692
G01 X4.46265 Y-3.32016
G01 X4.46119 Y-3.32130
G01 X4.45953 Y-3.32214
G01 X4.45775 Y-3.32266
G01 X4.45591 Y-3.32283
G01 X4.18526 Y-3.32283
G01 X4.18334 Y-3.32264
G01 X4.18150 Y-3.32208
G01 X4.17980 Y-3.32117
G01 X4.17830 Y-3.31995
G01 X4.17687 Y-3.31828
G01 X4.17599 Y-3.31671
G01 X4.17541 Y-3.31501
G01 X4.17515 Y-3.31322
G01 X4.17522 Y-3.31142
G01 X4.17562 Y-3.30967
G01 X4.17690 Y-3.30572
G01 X4.17750 Y-3.30000
G01 X4.17690 Y-3.29428
G01 X4.17513 Y-3.28881
G01 X4.17225 Y-3.28383
G01 X4.16840 Y-3.27956
G01 X4.16375 Y-3.27618
G01 X4.15850 Y-3.27384
G01 X4.15287 Y-3.27264
G01 X4.14712 Y-3.27264
G01 X4.14150 Y-3.27384
G01 X4.13625 Y-3.27618
G01 X4.13159 Y-3.27956
G01 X4.12775 Y-3.28383
G01 X4.12487 Y-3.28881
G01 X4.12310 Y-3.29428
G01 X4.12249 Y-3.30000
G04 P0 ( dwell for no time -- G64 should not smooth over this point )
G00 Z0.08000 ( retract )

G00 X4.03536 Y-3.30000 ( rapid move to begin. )
G01 F180.00000
( Mill infeed pass 1/1 )
G01 Z-0.04000
G04 P0 ( dwell for no time -- G64 should not smooth over this point )
G01 F360.00000
G01 X4.03536 Y-3.30000
G01 X4.03806 Y-3.30495
G01 X4.03963 Y-3.31012
G01 X4.03979 Y-3.31181
G01 X4.05984 Y-3.31181
G01 X4.05984 Y-3.28819
G01 X4.03979 Y-3.28819
G01 X4.03963 Y-3.28988
G01 X4.03806 Y-3.29505
G01 X4.03536 Y-3.30000
G04 P0 ( dwell for no time -- G64 should not smooth over this point )
G00 Z0.08000 ( retract )

G00 X3.84016 Y-3.31243 ( rapid move to begin. )
G01 F180.00000
( Mill infeed pass 1/1 )
G01 Z-0.04000
G04 P0 ( dwell for no time -- G64 should not smooth over this point )
G01 F360.00000
G01 X3.84016 Y-3.31243
G01 X3.84016 Y-3.28819
G01 X3.86021 Y-3.28819
G01 X3.86037 Y-3.28988
G01 X3.86194 Y-3.29505
G01 X3.86464 Y-3.30000
G01 X3.86194 Y-3.30495
G01 X3.86037 Y-3.31012
G01 X3.86015 Y-3.31234
G01 X3.85495 Y-3.31391
G01 X3.85000 Y-3.31661
G01 X3.84505 Y-3.31391
G01 X3.84016 Y-3.31243
G04 P0 ( dwell for no time -- G64 should not smooth over this point )
G00 Z0.08000 ( retract )

G00 X3.73949 Y-3.30390 ( rapid move to begin. )
G01 F180.00000
( Mill infeed pass 1/1 )
G01 Z-0.04000
G04 P0 ( dwell for no time -- G64 should not smooth over this point )
G01 F360.00000
G01 X3.73949 Y-3.30390
G01 X3.74035 Y-3.29964
G01 X3.74052 Y-3.29798
G01 X3.74115 Y-3.29606
G01 X3.74216 Y-3.29430
G01 X3.74351 Y-3.29280
G01 X3.74515 Y-3.29161
G01 X3.74701 Y-3.29078
G01 X3.74899 Y-3.29036
G01 X3.75101 Y-3.29036
G01 X3.75299 Y-3.29078
G01 X3.75484 Y-3.29161
G01 X3.75648 Y-3.29280
G01 X3.75784 Y-3.29430
G01 X3.75885 Y-3.29606
G01 X3.75948 Y-3.29799
G01 X3.75969 Y-3.30000
G01 X3.75948 Y-3.30201
G01 X3.75885 Y-3.30394
G01 X3.75784 Y-3.30570
G01 X3.75648 Y-3.30720
G01 X3.75484 Y-3.30839
G01 X3.75299 Y-3.30922
G01 X3.75101 Y-3.30964
G01 X3.74899 Y-3.30964
G01 X3.74701 Y-3.30922
G01 X3.74515 Y-3.30839
G01 X3.74297 Y-3.30681
G01 X3.74076 Y-3.30473
G01 X3.73949 Y-3.30390
G04 P0 ( dwell for no time -- G64 should not smooth over this point )
G00 Z0.08000 ( retract )

G00 X3.36078 Y-3.17311 ( rapid move to begin. )
G01 F180.00000
( Mill infeed pass 1/1 )
G01 Z-0.04000
G04 P0 ( dwell for no time -- G64 should not smooth over this point )
G01 F360.00000
G01 X3.36078 Y-3.17311
G01 X3.36155 Y-3.17672
G01 X3.36305 Y-3.18009
G01 X3.36522 Y-3.18308
G01 X3.36796 Y-3.18555
G01 X3.37116 Y-3.18739
G01 X3.37467 Y-3.18854
G01 X3.37886 Y-3.18898
G01 X3.42114 Y-3.18898
G01 X3.42532 Y-3.18854
G01 X3.42884 Y-3.18739
G01 X3.43203 Y-3.18555
G01 X3.43478 Y-3.18308
G01 X3.43735 Y-3.17983
G01 X3.43881 Y-3.17870
G01 X3.44047 Y-3.17786
G01 X3.44225 Y-3.17734
G01 X3.44409 Y-3.17717
G01 X4.04232 Y-3.17717
G01 X4.04395 Y-3.17701
G01 X4.04505 Y-3.17667
G01 X4.04606 Y-3.17613
G01 X4.04732 Y-3.17509
G01 X4.25939 Y-2.96303
G01 X4.26077 Y-2.96188
G01 X4.26235 Y-2.96100
G01 X4.26405 Y-2.96042
G01 X4.26584 Y-2.96016
G01 X4.26764 Y-2.96023
G01 X4.26939 Y-2.96062
G01 X4.27105 Y-2.96134
G01 X4.27254 Y-2.96234
G01 X4.27384 Y-2.96359
G01 X4.27617 Y-2.96731
G01 X4.28029 Y-2.97189
G01 X4.28527 Y-2.97551
G01 X4.29090 Y-2.97801
G01 X4.29692 Y-2.97929
G01 X4.30308 Y-2.97929
G01 X4.30519 Y-2.97884
G01 X4.30910 Y-2.97801
G01 X4.31473 Y-2.97551
G01 X4.31971 Y-2.97189
G01 X4.32383 Y-2.96731
G01 X4.32691 Y-2.96198
G01 X4.32881 Y-2.95612
G01 X4.32945 Y-2.95000
G01 X4.32881 Y-2.94388
G01 X4.32691 Y-2.93802
G01 X4.32383 Y-2.93269
G01 X4.31971 Y-2.92811
G01 X4.31473 Y-2.92449
G01 X4.31174 Y-2.92316
G01 X4.31009 Y-2.92223
G01 X4.30866 Y-2.92101
G01 X4.30749 Y-2.91953
G01 X4.30661 Y-2.91786
G01 X4.30608 Y-2.91605
G01 X4.30590 Y-2.91417
G01 X4.30591 Y-2.86575
G01 X4.30610 Y-2.86383
G01 X4.30666 Y-2.86198
G01 X4.30757 Y-2.86028
G01 X4.30879 Y-2.85879
G01 X4.31028 Y-2.85757
G01 X4.31198 Y-2.85666
G01 X4.31383 Y-2.85610
G01 X4.31575 Y-2.85591
G01 X4.43151 Y-2.85591
G01 X4.43315 Y-2.85604
G01 X4.43475 Y-2.85645
G01 X4.43625 Y-2.85712
G01 X4.43762 Y-2.85804
G01 X4.43882 Y-2.85916
G01 X4.44107 Y-2.86166
G01 X4.44373 Y-2.86359
G01 X4.44672 Y-2.86492
G01 X4.44993 Y-2.86561
G01 X4.45322 Y-2.86561
G01 X4.45642 Y-2.86492
G01 X4.45942 Y-2.86359
G01 X4.46207 Y-2.86166
G01 X4.46427 Y-2.85922
G01 X4.46591 Y-2.85638
G01 X4.46692 Y-2.85326
G01 X4.46727 Y-2.85000
G01 X4.46692 Y-2.84674
G01 X4.46591 Y-2.84362
G01 X4.46547 Y-2.84286
G01 X4.46427 Y-2.84077
G01 X4.46207 Y-2.83834
G01 X4.45942 Y-2.83641
G01 X4.45642 Y-2.83507
G01 X4.45321 Y-2.83439
G01 X4.44993 Y-2.83439
G01 X4.44753 Y-2.83490
G01 X4.44672 Y-2.83507
G01 X4.44373 Y-2.83641
G01 X4.44107 Y-2.83834
G01 X4.43882 Y-2.84084
G01 X4.43762 Y-2.84196
G01 X4.43625 Y-2.84287
G01 X4.43475 Y-2.84355
G01 X4.43315 Y-2.84395
G01 X4.43151 Y-2.84409
G01 X4.30048 Y-2.84409
G01 X4.29886 Y-2.84425
G01 X4.29776 Y-2.84459
G01 X4.29674 Y-2.84513
G01 X4.29586 Y-2.84586
G01 X4.29513 Y-2.84674
G01 X4.29459 Y-2.84776
G01 X4.29425 Y-2.84886
G01 X4.29409 Y-2.85048
G01 X4.29409 Y-2.90754
G01 X4.29397 Y-2.90908
G01 X4.29361 Y-2.91058
G01 X4.29302 Y-2.91201
G01 X4.29221 Y-2.91332
G01 X4.29121 Y-2.91450
G01 X4.04324 Y-3.16247
G01 X4.04175 Y-3.16369
G01 X4.04005 Y-3.16460
G01 X4.03820 Y-3.16516
G01 X4.03628 Y-3.16535
G01 X3.44409 Y-3.16535
G01 X3.44224 Y-3.16518
G01 X3.44046 Y-3.16466
G01 X3.43881 Y-3.16382
G01 X3.43735 Y-3.16268
G01 X3.43478 Y-3.15944
G01 X3.43203 Y-3.15697
G01 X3.42884 Y-3.15512
G01 X3.42532 Y-3.15398
G01 X3.42114 Y-3.15354
G01 X3.37886 Y-3.15354
G01 X3.37467 Y-3.15398
G01 X3.37116 Y-3.15512
G01 X3.36796 Y-3.15697
G01 X3.36522 Y-3.15944
G01 X3.36305 Y-3.16243
G01 X3.36155 Y-3.16580
G01 X3.36078 Y-3.16941
G01 X3.36078 Y-3.17311
G04 P0 ( dwell for no time -- G64 should not smooth over this point )
G00 Z0.08000 ( retract )

G00 X3.36078 Y-3.33059 ( rapid move to begin. )
G01 F180.00000
( Mill infeed pass 1/1 )
G01 Z-0.04000
G04 P0 ( dwell for no time -- G64 should not smooth over this point )
G01 F360.00000
G01 X3.36078 Y-3.33059
G01 X3.36155 Y-3.33420
G01 X3.36305 Y-3.33757
G01 X3.36522 Y-3.34056
G01 X3.36796 Y-3.34303
G01 X3.37116 Y-3.34488
G01 X3.37467 Y-3.34602
G01 X3.37886 Y-3.34646
G01 X3.42114 Y-3.34646
G01 X3.42532 Y-3.34602
G01 X3.42884 Y-3.34488
G01 X3.43203 Y-3.34303
G01 X3.43478 Y-3.34056
G01 X3.43735 Y-3.33731
G01 X3.43881 Y-3.33618
G01 X3.44047 Y-3.33534
G01 X3.44224 Y-3.33482
G01 X3.44409 Y-3.33465
G01 X3.67083 Y-3.33465
G01 X3.67228 Y-3.33452
G01 X3.67369 Y-3.33414
G01 X3.72031 Y-3.31712
G01 X3.72193 Y-3.31669
G01 X3.72358 Y-3.31653
G01 X3.72525 Y-3.31665
G01 X3.72687 Y-3.31705
G01 X3.72839 Y-3.31772
G01 X3.72979 Y-3.31864
G01 X3.73159 Y-3.32044
G01 X3.73625 Y-3.32382
G01 X3.74150 Y-3.32616
G01 X3.74713 Y-3.32735
G01 X3.75287 Y-3.32735
G01 X3.75850 Y-3.32616
G01 X3.76375 Y-3.32382
G01 X3.76665 Y-3.32171
G01 X3.76840 Y-3.32044
G01 X3.77225 Y-3.31617
G01 X3.77513 Y-3.31119
G01 X3.77690 Y-3.30572
G01 X3.77750 Y-3.30000
G01 X3.77690 Y-3.29428
G01 X3.77513 Y-3.28881
G01 X3.77225 Y-3.28383
G01 X3.76840 Y-3.27956
G01 X3.76375 Y-3.27618
G01 X3.75850 Y-3.27384
G01 X3.75287 Y-3.27264
G01 X3.74712 Y-3.27264
G01 X3.74150 Y-3.27384
G01 X3.73625 Y-3.27618
G01 X3.73159 Y-3.27956
G01 X3.72775 Y-3.28383
G01 X3.72487 Y-3.28881
G01 X3.72310 Y-3.29428
G01 X3.72273 Y-3.29779
G01 X3.72237 Y-3.29958
G01 X3.72168 Y-3.30128
G01 X3.72070 Y-3.30282
G01 X3.71944 Y-3.30415
G01 X3.71796 Y-3.30522
G01 X3.71631 Y-3.30601
G01 X3.67185 Y-3.32224
G01 X3.67019 Y-3.32268
G01 X3.66847 Y-3.32283
G01 X3.44409 Y-3.32283
G01 X3.44224 Y-3.32266
G01 X3.44047 Y-3.32214
G01 X3.43881 Y-3.32130
G01 X3.43735 Y-3.32016
G01 X3.43478 Y-3.31692
G01 X3.43203 Y-3.31445
G01 X3.42884 Y-3.31260
G01 X3.42533 Y-3.31146
G01 X3.42114 Y-3.31102
G01 X3.37886 Y-3.31102
G01 X3.37467 Y-3.31146
G01 X3.37116 Y-3.31261
G01 X3.36796 Y-3.31445
G01 X3.36522 Y-3.31692
G01 X3.36305 Y-3.31991
G01 X3.36155 Y-3.32328
G01 X3.36078 Y-3.32689
G01 X3.36078 Y-3.33059
G04 P0 ( dwell for no time -- G64 should not smooth over this point )
G00 Z0.08000 ( retract )

G00 X3.16249 Y-3.21714 ( rapid move to begin. )
G01 F180.00000
( Mill infeed pass 1/1 )
G01 Z-0.04000
G04 P0 ( dwell for no time -- G64 should not smooth over this point )
G01 F360.00000
G01 X3.16249 Y-3.21714
G01 X3.16265 Y-3.21872
G01 X3.16297 Y-3.21977
G01 X3.16348 Y-3.22074
G01 X3.16449 Y-3.22196
G01 X3.34498 Y-3.40246
G01 X3.34621 Y-3.40346
G01 X3.34718 Y-3.40398
G01 X3.34823 Y-3.40430
G01 X3.34981 Y-3.40446
G01 X3.82109 Y-3.40446
G01 X3.82266 Y-3.40430
G01 X3.82372 Y-3.40398
G01 X3.82469 Y-3.40346
G01 X3.82591 Y-3.40246
G01 X3.85455 Y-3.37368
G01 X3.85535 Y-3.37211
G01 X3.85566 Y-3.36998
G01 X3.85566 Y-3.33937
G01 X3.85585 Y-3.33745
G01 X3.85641 Y-3.33560
G01 X3.85732 Y-3.33390
G01 X3.85854 Y-3.33241
G01 X3.86003 Y-3.33119
G01 X3.86173 Y-3.33028
G01 X3.86358 Y-3.32972
G01 X3.86550 Y-3.32953
G01 X3.87756 Y-3.32953
G01 X3.87756 Y-3.31550
G01 X3.87775 Y-3.31358
G01 X3.87831 Y-3.31173
G01 X3.87922 Y-3.31003
G01 X3.88044 Y-3.30854
G01 X3.88193 Y-3.30732
G01 X3.88363 Y-3.30641
G01 X3.88548 Y-3.30585
G01 X3.88740 Y-3.30566
G01 X4.01260 Y-3.30566
G01 X4.01452 Y-3.30585
G01 X4.01636 Y-3.30641
G01 X4.01807 Y-3.30732
G01 X4.01956 Y-3.30854
G01 X4.02078 Y-3.31003
G01 X4.02169 Y-3.31173
G01 X4.02225 Y-3.31358
G01 X4.02244 Y-3.31550
G01 X4.02244 Y-3.32953
G01 X4.07756 Y-3.32953
G01 X4.07756 Y-3.27047
G01 X4.02244 Y-3.27047
G01 X4.02244 Y-3.28450
G01 X4.02225 Y-3.28642
G01 X4.02169 Y-3.28827
G01 X4.02078 Y-3.28997
G01 X4.01956 Y-3.29146
G01 X4.01807 Y-3.29268
G01 X4.01636 Y-3.29359
G01 X4.01452 Y-3.29415
G01 X4.01260 Y-3.29434
G01 X3.88740 Y-3.29434
G01 X3.88548 Y-3.29415
G01 X3.88363 Y-3.29359
G01 X3.88193 Y-3.29268
G01 X3.88044 Y-3.29146
G01 X3.87922 Y-3.28997
G01 X3.87831 Y-3.28827
G01 X3.87775 Y-3.28642
G01 X3.87756 Y-3.28450
G01 X3.87756 Y-3.27047
G01 X3.82244 Y-3.27047
G01 X3.82244 Y-3.32953
G01 X3.83450 Y-3.32953
G01 X3.83642 Y-3.32972
G01 X3.83827 Y-3.33028
G01 X3.83997 Y-3.33119
G01 X3.84146 Y-3.33241
G01 X3.84268 Y-3.33390
G01 X3.84359 Y-3.33560
G01 X3.84415 Y-3.33745
G01 X3.84434 Y-3.33937
G01 X3.84434 Y-3.36395
G01 X3.84422 Y-3.36549
G01 X3.84386 Y-3.36699
G01 X3.84327 Y-3.36842
G01 X3.84246 Y-3.36973
G01 X3.84146 Y-3.37091
G01 X3.82211 Y-3.39026
G01 X3.82062 Y-3.39148
G01 X3.81892 Y-3.39239
G01 X3.81707 Y-3.39295
G01 X3.81515 Y-3.39314
G01 X3.35575 Y-3.39314
G01 X3.35421 Y-3.39302
G01 X3.35270 Y-3.39266
G01 X3.35128 Y-3.39207
G01 X3.34996 Y-3.39126
G01 X3.34879 Y-3.39026
G01 X3.17669 Y-3.21816
G01 X3.17569 Y-3.21699
G01 X3.17488 Y-3.21567
G01 X3.17429 Y-3.21424
G01 X3.17393 Y-3.21274
G01 X3.17381 Y-3.21120
G01 X3.17381 Y-2.81713
G01 X3.17400 Y-2.81521
G01 X3.17455 Y-2.81336
G01 X3.17546 Y-2.81166
G01 X3.17669 Y-2.81017
G01 X3.21017 Y-2.77669
G01 X3.21135 Y-2.77569
G01 X3.21266 Y-2.77488
G01 X3.21409 Y-2.77429
G01 X3.21559 Y-2.77393
G01 X3.21713 Y-2.77381
G01 X3.57247 Y-2.77381
G01 X3.57404 Y-2.77365
G01 X3.57510 Y-2.77333
G01 X3.57607 Y-2.77281
G01 X3.57729 Y-2.77181
G01 X3.71456 Y-2.63454
G01 X3.71605 Y-2.63332
G01 X3.71775 Y-2.63241
G01 X3.71960 Y-2.63185
G01 X3.72152 Y-2.63166
G01 X3.74610 Y-2.63166
G01 X3.74781 Y-2.63181
G01 X3.74947 Y-2.63225
G01 X3.75102 Y-2.63298
G01 X3.75243 Y-2.63396
G01 X3.75364 Y-2.63517
G01 X3.75462 Y-2.63658
G01 X3.75535 Y-2.63813
G01 X3.75579 Y-2.63979
G01 X3.75594 Y-2.64150
G01 X3.75594 Y-2.68506
G01 X3.87406 Y-2.68506
G01 X3.87406 Y-2.57902
G01 X3.87425 Y-2.57710
G01 X3.87481 Y-2.57525
G01 X3.87572 Y-2.57355
G01 X3.87694 Y-2.57206
G01 X3.92414 Y-2.52486
G01 X3.92551 Y-2.52372
G01 X3.92706 Y-2.52284
G01 X3.92874 Y-2.52226
G01 X3.93051 Y-2.52199
G01 X3.93229 Y-2.52205
G01 X3.93403 Y-2.52242
G01 X3.93567 Y-2.52311
G01 X3.93717 Y-2.52407
G01 X3.93847 Y-2.52529
G01 X3.93952 Y-2.52673
G01 X3.94030 Y-2.52833
G01 X3.94078 Y-2.53005
G01 X3.94094 Y-2.53182
G01 X3.94094 Y-2.56696
G01 X4.05906 Y-2.56696
G01 X4.05906 Y-2.44884
G01 X3.94094 Y-2.44884
G01 X3.94094 Y-2.49260
G01 X3.94078 Y-2.49440
G01 X3.94028 Y-2.49614
G01 X3.93948 Y-2.49776
G01 X3.93839 Y-2.49921
G01 X3.93706 Y-2.50043
G01 X3.93553 Y-2.50139
G01 X3.93384 Y-2.50205
G01 X3.93095 Y-2.50272
G01 X3.92998 Y-2.50324
G01 X3.92876 Y-2.50424
G01 X3.86894 Y-2.56406
G01 X3.86745 Y-2.56528
G01 X3.86575 Y-2.56619
G01 X3.86390 Y-2.56675
G01 X3.86198 Y-2.56694
G01 X3.75594 Y-2.56694
G01 X3.75594 Y-2.61050
G01 X3.75579 Y-2.61221
G01 X3.75535 Y-2.61387
G01 X3.75462 Y-2.61542
G01 X3.75364 Y-2.61683
G01 X3.75243 Y-2.61804
G01 X3.75102 Y-2.61902
G01 X3.74947 Y-2.61975
G01 X3.74781 Y-2.62019
G01 X3.74610 Y-2.62034
G01 X3.71558 Y-2.62034
G01 X3.71400 Y-2.62050
G01 X3.71295 Y-2.62082
G01 X3.71198 Y-2.62134
G01 X3.71076 Y-2.62234
G01 X3.57349 Y-2.75961
G01 X3.57200 Y-2.76083
G01 X3.57030 Y-2.76174
G01 X3.56845 Y-2.76230
G01 X3.56653 Y-2.76249
G01 X3.21120 Y-2.76249
G01 X3.20962 Y-2.76265
G01 X3.20856 Y-2.76297
G01 X3.20759 Y-2.76348
G01 X3.20637 Y-2.76449
G01 X3.16449 Y-2.80637
G01 X3.16348 Y-2.80759
G01 X3.16297 Y-2.80856
G01 X3.16265 Y-2.80962
G01 X3.16249 Y-2.81119
G01 X3.16249 Y-3.21714
G04 P0 ( dwell for no time -- G64 should not smooth over this point )
G00 Z0.08000 ( retract )

G00 X3.22055 Y-2.95000 ( rapid move to begin. )
G01 F180.00000
( Mill infeed pass 1/1 )
G01 Z-0.04000
G04 P0 ( dwell for no time -- G64 should not smooth over this point )
G01 F360.00000
G01 X3.22055 Y-2.95000
G01 X3.22119 Y-2.94387
G01 X3.22309 Y-2.93802
G01 X3.22617 Y-2.93269
G01 X3.23029 Y-2.92811
G01 X3.23527 Y-2.92449
G01 X3.24090 Y-2.92199
G01 X3.24692 Y-2.92071
G01 X3.25308 Y-2.92071
G01 X3.25910 Y-2.92199
G01 X3.26207 Y-2.92315
G01 X3.26374 Y-2.92342
G01 X3.26543 Y-2.92340
G01 X3.26709 Y-2.92309
G01 X3.26868 Y-2.92251
G01 X3.27014 Y-2.92165
G01 X3.27143 Y-2.92056
G01 X3.34566 Y-2.84634
G01 X3.34688 Y-2.84533
G01 X3.34785 Y-2.84482
G01 X3.34890 Y-2.84450
G01 X3.35048 Y-2.84434
G01 X3.37441 Y-2.84434
G01 X3.37633 Y-2.84415
G01 X3.37818 Y-2.84359
G01 X3.37988 Y-2.84268
G01 X3.38137 Y-2.84146
G01 X3.38259 Y-2.83997
G01 X3.38350 Y-2.83827
G01 X3.38406 Y-2.83642
G01 X3.38425 Y-2.83425
G01 X3.41575 Y-2.83425
G01 X3.41575 Y-2.86575
G01 X3.38425 Y-2.86575
G01 X3.38410 Y-2.86379
G01 X3.38366 Y-2.86213
G01 X3.38293 Y-2.86058
G01 X3.38195 Y-2.85917
G01 X3.38074 Y-2.85796
G01 X3.37933 Y-2.85698
G01 X3.37778 Y-2.85625
G01 X3.37612 Y-2.85581
G01 X3.37441 Y-2.85566
G01 X3.35642 Y-2.85566
G01 X3.35450 Y-2.85585
G01 X3.35265 Y-2.85641
G01 X3.35095 Y-2.85732
G01 X3.34946 Y-2.85854
G01 X3.27947 Y-2.92853
G01 X3.27832 Y-2.92991
G01 X3.27744 Y-2.93148
G01 X3.27686 Y-2.93319
G01 X3.27660 Y-2.93497
G01 X3.27667 Y-2.93677
G01 X3.27707 Y-2.93853
G01 X3.27881 Y-2.94388
G01 X3.27945 Y-2.95000
G01 X3.27881 Y-2.95612
G01 X3.27691 Y-2.96198
G01 X3.27383 Y-2.96731
G01 X3.26971 Y-2.97189
G01 X3.26473 Y-2.97551
G01 X3.26150 Y-2.97695
G01 X3.25985 Y-2.97787
G01 X3.25842 Y-2.97910
G01 X3.25725 Y-2.98058
G01 X3.25637 Y-2.98225
G01 X3.25584 Y-2.98406
G01 X3.25566 Y-2.98594
G01 X3.25566 Y-3.17379
G01 X3.25585 Y-3.17571
G01 X3.25641 Y-3.17756
G01 X3.25732 Y-3.17926
G01 X3.25854 Y-3.18075
G01 X3.31925 Y-3.24146
G01 X3.32042 Y-3.24246
G01 X3.32174 Y-3.24327
G01 X3.32316 Y-3.24386
G01 X3.32467 Y-3.24422
G01 X3.32621 Y-3.24434
G01 X3.35573 Y-3.24434
G01 X3.35757 Y-3.24417
G01 X3.35935 Y-3.24365
G01 X3.36100 Y-3.24281
G01 X3.36247 Y-3.24167
G01 X3.36369 Y-3.24029
G01 X3.36522 Y-3.23818
G01 X3.36796 Y-3.23571
G01 X3.37116 Y-3.23386
G01 X3.37467 Y-3.23272
G01 X3.37886 Y-3.23228
G01 X3.42114 Y-3.23228
G01 X3.42532 Y-3.23272
G01 X3.42884 Y-3.23386
G01 X3.43203 Y-3.23571
G01 X3.43478 Y-3.23818
G01 X3.43695 Y-3.24117
G01 X3.43845 Y-3.24454
G01 X3.43922 Y-3.24815
G01 X3.43922 Y-3.25185
G01 X3.43845 Y-3.25546
G01 X3.43695 Y-3.25883
G01 X3.43478 Y-3.26182
G01 X3.43203 Y-3.26429
G01 X3.42884 Y-3.26613
G01 X3.42532 Y-3.26728
G01 X3.42114 Y-3.26772
G01 X3.37886 Y-3.26772
G01 X3.37467 Y-3.26728
G01 X3.37116 Y-3.26613
G01 X3.36796 Y-3.26429
G01 X3.36522 Y-3.26182
G01 X3.36369 Y-3.25971
G01 X3.36247 Y-3.25833
G01 X3.36100 Y-3.25719
G01 X3.35935 Y-3.25635
G01 X3.35757 Y-3.25583
G01 X3.35573 Y-3.25566
G01 X3.32017 Y-3.25566
G01 X3.31891 Y-3.25556
G01 X3.31723 Y-3.25501
G01 X3.31551 Y-3.25373
G01 X3.24634 Y-3.18455
G01 X3.24533 Y-3.18333
G01 X3.24482 Y-3.18236
G01 X3.24450 Y-3.18131
G01 X3.24434 Y-3.17973
G01 X3.24434 Y-2.98594
G01 X3.24416 Y-2.98406
G01 X3.24363 Y-2.98225
G01 X3.24275 Y-2.98058
G01 X3.24158 Y-2.97910
G01 X3.24015 Y-2.97787
G01 X3.23850 Y-2.97695
G01 X3.23527 Y-2.97551
G01 X3.23029 Y-2.97189
G01 X3.22617 Y-2.96731
G01 X3.22309 Y-2.96198
G01 X3.22126 Y-2.95634
G01 X3.22055 Y-2.95000
G01 X3.23836 Y-2.95000
G01 X3.23861 Y-2.94758
G01 X3.23937 Y-2.94527
G01 X3.24058 Y-2.94316
G01 X3.24221 Y-2.94135
G01 X3.24418 Y-2.93992
G01 X3.24640 Y-2.93893
G01 X3.24878 Y-2.93842
G01 X3.25122 Y-2.93842
G01 X3.25385 Y-2.93898
G01 X3.25774 Y-2.94033
G01 X3.25945 Y-2.94061
G01 X3.26022 Y-2.94400
G01 X3.26138 Y-2.94758
G01 X3.26164 Y-2.95000
G01 X3.26138 Y-2.95242
G01 X3.26063 Y-2.95473
G01 X3.25942 Y-2.95684
G01 X3.25779 Y-2.95865
G01 X3.25582 Y-2.96008
G01 X3.25429 Y-2.96076
G01 X3.25000 Y-2.96319
G01 X3.24571 Y-2.96076
G01 X3.24418 Y-2.96008
G01 X3.24221 Y-2.95865
G01 X3.24058 Y-2.95684
G01 X3.23937 Y-2.95473
G01 X3.23861 Y-2.95242
G01 X3.23836 Y-2.95000
G04 P0 ( dwell for no time -- G64 should not smooth over this point )
G00 Z0.08000 ( retract )

G00 X3.48273 Y-2.85000 ( rapid move to begin. )
G01 F180.00000
( Mill infeed pass 1/1 )
G01 Z-0.04000
G04 P0 ( dwell for no time -- G64 should not smooth over this point )
G01 F360.00000
G01 X3.48273 Y-2.85000
G01 X3.48307 Y-2.84674
G01 X3.48409 Y-2.84362
G01 X3.48573 Y-2.84077
G01 X3.48792 Y-2.83834
G01 X3.49058 Y-2.83641
G01 X3.49357 Y-2.83507
G01 X3.49550 Y-2.83466
G01 X3.49679 Y-2.83439
G01 X3.50007 Y-2.83439
G01 X3.50327 Y-2.83507
G01 X3.50627 Y-2.83641
G01 X3.50893 Y-2.83834
G01 X3.51112 Y-2.84077
G01 X3.51276 Y-2.84362
G01 X3.51378 Y-2.84674
G01 X3.51412 Y-2.85000
G01 X3.51385 Y-2.85404
G01 X3.51413 Y-2.85577
G01 X3.51472 Y-2.85742
G01 X3.51558 Y-2.85894
G01 X3.51671 Y-2.86028
G01 X3.59789 Y-2.94146
G01 X3.59938 Y-2.94268
G01 X3.60108 Y-2.94359
G01 X3.60292 Y-2.94415
G01 X3.60485 Y-2.94434
G01 X3.61389 Y-2.94434
G01 X3.61565 Y-2.94418
G01 X3.61735 Y-2.94371
G01 X3.61894 Y-2.94295
G01 X3.62036 Y-2.94191
G01 X3.62158 Y-2.94064
G01 X3.62256 Y-2.93916
G01 X3.62617 Y-2.93269
G01 X3.63029 Y-2.92811
G01 X3.63527 Y-2.92449
G01 X3.64090 Y-2.92199
G01 X3.64692 Y-2.92071
G01 X3.65308 Y-2.92071
G01 X3.65910 Y-2.92199
G01 X3.66473 Y-2.92449
G01 X3.66971 Y-2.92811
G01 X3.67383 Y-2.93269
G01 X3.67744 Y-2.93916
G01 X3.67842 Y-2.94064
G01 X3.67964 Y-2.94191
G01 X3.68106 Y-2.94295
G01 X3.68265 Y-2.94371
G01 X3.68435 Y-2.94418
G01 X3.68611 Y-2.94434
G01 X3.98938 Y-2.94434
G01 X3.99092 Y-2.94422
G01 X3.99242 Y-2.94386
G01 X3.99385 Y-2.94327
G01 X3.99516 Y-2.94246
G01 X3.99634 Y-2.94146
G01 X4.15261 Y-2.78518
G01 X4.15358 Y-2.78436
G01 X4.15515 Y-2.78356
G01 X4.15728 Y-2.78325
G01 X4.64920 Y-2.78325
G01 X4.65078 Y-2.78341
G01 X4.65183 Y-2.78373
G01 X4.65280 Y-2.78424
G01 X4.65403 Y-2.78525
G01 X4.77940 Y-2.91076
G01 X4.78020 Y-2.91233
G01 X4.78051 Y-2.91446
G01 X4.78041 Y-2.98681
G01 X4.77986 Y-2.98848
G01 X4.77857 Y-2.99021
G01 X4.59386 Y-3.17492
G01 X4.59263 Y-3.17592
G01 X4.59166 Y-3.17644
G01 X4.59061 Y-3.17676
G01 X4.58903 Y-3.17692
G01 X4.54427 Y-3.17692
G01 X4.54243 Y-3.17709
G01 X4.54065 Y-3.17761
G01 X4.53900 Y-3.17845
G01 X4.53753 Y-3.17958
G01 X4.53631 Y-3.18097
G01 X4.53478 Y-3.18308
G01 X4.53203 Y-3.18555
G01 X4.52884 Y-3.18739
G01 X4.52532 Y-3.18854
G01 X4.52114 Y-3.18898
G01 X4.47886 Y-3.18898
G01 X4.47467 Y-3.18854
G01 X4.47116 Y-3.18739
G01 X4.46797 Y-3.18555
G01 X4.46522 Y-3.18308
G01 X4.46305 Y-3.18009
G01 X4.46155 Y-3.17672
G01 X4.46078 Y-3.17311
G01 X4.46078 Y-3.16941
G01 X4.46155 Y-3.16580
G01 X4.46305 Y-3.16243
G01 X4.46522 Y-3.15944
G01 X4.46797 Y-3.15697
G01 X4.47116 Y-3.15512
G01 X4.47467 Y-3.15398
G01 X4.47886 Y-3.15354
G01 X4.52114 Y-3.15354
G01 X4.52532 Y-3.15398
G01 X4.52884 Y-3.15512
G01 X4.53203 Y-3.15697
G01 X4.53478 Y-3.15944
G01 X4.53631 Y-3.16154
G01 X4.53753 Y-3.16293
G01 X4.53899 Y-3.16407
G01 X4.54065 Y-3.16491
G01 X4.54242 Y-3.16543
G01 X4.54427 Y-3.16560
G01 X4.58310 Y-3.16560
G01 X4.58502 Y-3.16541
G01 X4.58686 Y-3.16485
G01 X4.58857 Y-3.16394
G01 X4.59006 Y-3.16272
G01 X4.76631 Y-2.98647
G01 X4.76731 Y-2.98529
G01 X4.76812 Y-2.98398
G01 X4.76871 Y-2.98255
G01 X4.76907 Y-2.98105
G01 X4.76919 Y-2.97951
G01 X4.76919 Y-2.92049
G01 X4.76907 Y-2.91895
G01 X4.76871 Y-2.91745
G01 X4.76812 Y-2.91602
G01 X4.76731 Y-2.91471
G01 X4.76631 Y-2.91353
G01 X4.65023 Y-2.79745
G01 X4.64873 Y-2.79623
G01 X4.64703 Y-2.79531
G01 X4.64519 Y-2.79475
G01 X4.64327 Y-2.79457
G01 X4.16331 Y-2.79457
G01 X4.16177 Y-2.79469
G01 X4.16027 Y-2.79505
G01 X4.15884 Y-2.79564
G01 X4.15752 Y-2.79645
G01 X4.15635 Y-2.79745
G01 X4.00007 Y-2.95373
G01 X3.99911 Y-2.95455
G01 X3.99754 Y-2.95535
G01 X3.99541 Y-2.95566
G01 X3.68611 Y-2.95566
G01 X3.68435 Y-2.95581
G01 X3.68265 Y-2.95628
G01 X3.68106 Y-2.95705
G01 X3.67964 Y-2.95809
G01 X3.67842 Y-2.95936
G01 X3.67744 Y-2.96083
G01 X3.67383 Y-2.96731
G01 X3.66971 Y-2.97189
G01 X3.66473 Y-2.97551
G01 X3.65910 Y-2.97801
G01 X3.65308 Y-2.97929
G01 X3.64692 Y-2.97929
G01 X3.64481 Y-2.97884
G01 X3.64090 Y-2.97801
G01 X3.63527 Y-2.97551
G01 X3.63029 Y-2.97189
G01 X3.62617 Y-2.96731
G01 X3.62256 Y-2.96083
G01 X3.62158 Y-2.95936
G01 X3.62036 Y-2.95809
G01 X3.61894 Y-2.95705
G01 X3.61735 Y-2.95628
G01 X3.61565 Y-2.95581
G01 X3.61389 Y-2.95566
G01 X3.59891 Y-2.95566
G01 X3.59733 Y-2.95550
G01 X3.59628 Y-2.95518
G01 X3.59531 Y-2.95466
G01 X3.59408 Y-2.95366
G01 X3.50876 Y-2.86834
G01 X3.50752 Y-2.86729
G01 X3.50612 Y-2.86645
G01 X3.50460 Y-2.86586
G01 X3.50300 Y-2.86553
G01 X3.50137 Y-2.86547
G01 X3.50027 Y-2.86561
G01 X3.49678 Y-2.86561
G01 X3.49357 Y-2.86492
G01 X3.49058 Y-2.86359
G01 X3.48792 Y-2.86166
G01 X3.48573 Y-2.85922
G01 X3.48409 Y-2.85638
G01 X3.48307 Y-2.85326
G01 X3.48273 Y-2.85000
G04 P0 ( dwell for no time -- G64 should not smooth over this point )
G00 Z0.08000 ( retract )

G00 X3.63654 Y-2.95000 ( rapid move to begin. )
G01 F180.00000
( Mill infeed pass 1/1 )
G01 Z-0.04000
G04 P0 ( dwell for no time -- G64 should not smooth over this point )
G01 F360.00000
G01 X3.63654 Y-2.95000
G01 X3.63816 Y-2.95244
G01 X3.64058 Y-2.95684
G01 X3.64221 Y-2.95865
G01 X3.64418 Y-2.96008
G01 X3.64640 Y-2.96107
G01 X3.64878 Y-2.96157
G01 X3.65122 Y-2.96157
G01 X3.65360 Y-2.96107
G01 X3.65582 Y-2.96008
G01 X3.65779 Y-2.95865
G01 X3.65942 Y-2.95684
G01 X3.66184 Y-2.95244
G01 X3.66345 Y-2.95000
G01 X3.66184 Y-2.94756
G01 X3.65942 Y-2.94316
G01 X3.65779 Y-2.94135
G01 X3.65582 Y-2.93992
G01 X3.65360 Y-2.93893
G01 X3.65122 Y-2.93842
G01 X3.64878 Y-2.93842
G01 X3.64640 Y-2.93893
G01 X3.64418 Y-2.93992
G01 X3.64221 Y-2.94135
G01 X3.64058 Y-2.94316
G01 X3.63816 Y-2.94756
G01 X3.63654 Y-2.95000
G04 P0 ( dwell for no time -- G64 should not smooth over this point )
G00 Z0.08000 ( retract )

G00 X3.95866 Y-2.78544 ( rapid move to begin. )
G01 F180.00000
( Mill infeed pass 1/1 )
G01 Z-0.04000
G04 P0 ( dwell for no time -- G64 should not smooth over this point )
G01 F360.00000
G01 X3.95866 Y-2.78544
G01 X3.95866 Y-2.70276
G01 X4.01438 Y-2.70276
G01 X4.01862 Y-2.70243
G01 X4.02276 Y-2.70145
G01 X4.02671 Y-2.69985
G01 X4.04134 Y-2.69253
G01 X4.04134 Y-2.78544
G01 X3.95866 Y-2.78544
G01 X3.97637 Y-2.76772
G01 X3.97637 Y-2.72047
G01 X4.01438 Y-2.72047
G01 X4.02135 Y-2.71993
G01 X4.02362 Y-2.71940
G01 X4.02362 Y-2.76772
G01 X3.97637 Y-2.76772
G01 X3.99409 Y-2.75001
G01 X4.00591 Y-2.75001
G01 X4.00591 Y-2.73819
G01 X3.99409 Y-2.73819
G01 X3.99409 Y-2.75001
G04 P0 ( dwell for no time -- G64 should not smooth over this point )
G00 Z0.08000 ( retract )

G00 X4.28280 Y-2.94797 ( rapid move to begin. )
G01 F180.00000
( Mill infeed pass 1/1 )
G01 Z-0.04000
G04 P0 ( dwell for no time -- G64 should not smooth over this point )
G01 F360.00000
G01 X4.28280 Y-2.94797
G01 X4.29674 Y-2.93402
G01 X4.29993 Y-2.93674
G01 X4.30453 Y-2.93935
G01 X4.30582 Y-2.93992
G01 X4.30779 Y-2.94135
G01 X4.30942 Y-2.94316
G01 X4.31063 Y-2.94527
G01 X4.31138 Y-2.94758
G01 X4.31164 Y-2.95000
G01 X4.31138 Y-2.95242
G01 X4.31063 Y-2.95473
G01 X4.30942 Y-2.95684
G01 X4.30779 Y-2.95865
G01 X4.30582 Y-2.96008
G01 X4.30360 Y-2.96107
G01 X4.30122 Y-2.96157
G01 X4.29878 Y-2.96157
G01 X4.29640 Y-2.96107
G01 X4.29418 Y-2.96008
G01 X4.29221 Y-2.95865
G01 X4.29058 Y-2.95684
G01 X4.28731 Y-2.95209
G01 X4.28369 Y-2.94857
G01 X4.28280 Y-2.94797
( Piece #2, position [1;0] )

G04 P0 ( dwell for no time -- G64 should not smooth over this point )
G00 Z0.08000 ( retract )

G00 X5.19456 Y-2.55000 ( rapid move to begin. )
G01 F180.00000
( Mill infeed pass 1/1 )
G01 Z-0.04000
G04 P0 ( dwell for no time -- G64 should not smooth over this point )
G01 F360.00000
G01 X5.19456 Y-2.55000
G01 X5.19521 Y-2.55612
G01 X5.19711 Y-2.56198
G01 X5.20019 Y-2.56731
G01 X5.20225 Y-2.56960
G01 X5.20431 Y-2.57189
G01 X5.20929 Y-2.57551
G01 X5.21491 Y-2.57801
G01 X5.22094 Y-2.57929
G01 X5.22709 Y-2.57929
G01 X5.23312 Y-2.57801
G01 X5.23874 Y-2.57551
G01 X5.24372 Y-2.57189
G01 X5.24782 Y-2.56734
G01 X5.25149 Y-2.56088
G01 X5.25247 Y-2.55946
G01 X5.25369 Y-2.55824
G01 X5.25510 Y-2.55724
G01 X5.25666 Y-2.55651
G01 X5.25833 Y-2.55606
G01 X5.26005 Y-2.55591
G01 X5.58798 Y-2.55591
G01 X5.58970 Y-2.55606
G01 X5.59137 Y-2.55651
G01 X5.59293 Y-2.55724
G01 X5.59434 Y-2.55824
G01 X5.59556 Y-2.55946
G01 X5.59654 Y-2.56088
G01 X5.60021 Y-2.56734
G01 X5.60431 Y-2.57189
G01 X5.60929 Y-2.57551
G01 X5.61491 Y-2.57801
G01 X5.62094 Y-2.57929
G01 X5.62709 Y-2.57929
G01 X5.63312 Y-2.57801
G01 X5.63874 Y-2.57551
G01 X5.64372 Y-2.57189
G01 X5.64784 Y-2.56731
G01 X5.65092 Y-2.56198
G01 X5.65282 Y-2.55612
G01 X5.65347 Y-2.55000
G01 X5.65282 Y-2.54388
G01 X5.65109 Y-2.53853
G01 X5.65069 Y-2.53677
G01 X5.65062 Y-2.53497
G01 X5.65088 Y-2.53319
G01 X5.65146 Y-2.53148
G01 X5.65234 Y-2.52991
G01 X5.65349 Y-2.52853
G01 X5.76998 Y-2.41204
G01 X5.77115 Y-2.41104
G01 X5.77247 Y-2.41023
G01 X5.77389 Y-2.40964
G01 X5.77540 Y-2.40928
G01 X5.77694 Y-2.40916
G01 X6.12109 Y-2.40916
G01 X6.12301 Y-2.40935
G01 X6.12486 Y-2.40991
G01 X6.12656 Y-2.41081
G01 X6.12805 Y-2.41204
G01 X6.24454 Y-2.52853
G01 X6.24569 Y-2.52991
G01 X6.24657 Y-2.53148
G01 X6.24715 Y-2.53319
G01 X6.24741 Y-2.53497
G01 X6.24734 Y-2.53677
G01 X6.24694 Y-2.53853
G01 X6.24521 Y-2.54388
G01 X6.24456 Y-2.55000
G01 X6.24469 Y-2.55263
G01 X6.24443 Y-2.55432
G01 X6.24388 Y-2.55593
G01 X6.24306 Y-2.55742
G01 X6.24200 Y-2.55875
G01 X6.24072 Y-2.55988
G01 X6.23927 Y-2.56077
G01 X5.99280 Y-2.68400
G01 X5.99139 Y-2.68458
G01 X5.98991 Y-2.68492
G01 X5.98840 Y-2.68504
G01 X5.91496 Y-2.68504
G01 X5.91496 Y-2.80316
G01 X6.03307 Y-2.80316
G01 X6.03307 Y-2.68316
G01 X6.03324 Y-2.68135
G01 X6.03374 Y-2.67961
G01 X6.03454 Y-2.67798
G01 X6.03563 Y-2.67654
G01 X6.03697 Y-2.67531
G01 X6.03851 Y-2.67435
G01 X6.24453 Y-2.57135
G01 X6.24620 Y-2.57070
G01 X6.24795 Y-2.57036
G01 X6.24974 Y-2.57034
G01 X6.25150 Y-2.57065
G01 X6.25318 Y-2.57127
G01 X6.25472 Y-2.57219
G01 X6.25929 Y-2.57551
G01 X6.26491 Y-2.57801
G01 X6.27094 Y-2.57929
G01 X6.27709 Y-2.57929
G01 X6.28312 Y-2.57801
G01 X6.28874 Y-2.57551
G01 X6.29372 Y-2.57189
G01 X6.29782 Y-2.56734
G01 X6.30149 Y-2.56088
G01 X6.30247 Y-2.55946
G01 X6.30369 Y-2.55824
G01 X6.30510 Y-2.55724
G01 X6.30666 Y-2.55651
G01 X6.30833 Y-2.55606
G01 X6.31005 Y-2.55591
G01 X6.63798 Y-2.55591
G01 X6.63970 Y-2.55606
G01 X6.64137 Y-2.55651
G01 X6.64293 Y-2.55724
G01 X6.64434 Y-2.55824
G01 X6.64556 Y-2.55946
G01 X6.64654 Y-2.56088
G01 X6.65021 Y-2.56734
G01 X6.65431 Y-2.57189
G01 X6.65929 Y-2.57551
G01 X6.66491 Y-2.57801
G01 X6.67094 Y-2.57929
G01 X6.67709 Y-2.57929
G01 X6.68312 Y-2.57801
G01 X6.68874 Y-2.57551
G01 X6.69372 Y-2.57189
G01 X6.69696 Y-2.56829
G01 X6.69784 Y-2.56731
G01 X6.70092 Y-2.56198
G01 X6.70282 Y-2.55612
G01 X6.70347 Y-2.55000
G01 X6.70282 Y-2.54388
G01 X6.70092 Y-2.53802
G01 X6.69784 Y-2.53269
G01 X6.69372 Y-2.52811
G01 X6.68874 Y-2.52449
G01 X6.68312 Y-2.52199
G01 X6.67709 Y-2.52071
G01 X6.67094 Y-2.52071
G01 X6.66491 Y-2.52199
G01 X6.65929 Y-2.52449
G01 X6.65431 Y-2.52811
G01 X6.65021 Y-2.53266
G01 X6.64654 Y-2.53911
G01 X6.64556 Y-2.54054
G01 X6.64434 Y-2.54176
G01 X6.64293 Y-2.54276
G01 X6.64137 Y-2.54349
G01 X6.63970 Y-2.54394
G01 X6.63798 Y-2.54409
G01 X6.31005 Y-2.54409
G01 X6.30833 Y-2.54394
G01 X6.30666 Y-2.54349
G01 X6.30510 Y-2.54276
G01 X6.30369 Y-2.54176
G01 X6.30247 Y-2.54054
G01 X6.30149 Y-2.53911
G01 X6.29782 Y-2.53266
G01 X6.29372 Y-2.52811
G01 X6.28874 Y-2.52449
G01 X6.28312 Y-2.52199
G01 X6.27709 Y-2.52071
G01 X6.27094 Y-2.52071
G01 X6.26491 Y-2.52199
G01 X6.26195 Y-2.52315
G01 X6.26028 Y-2.52342
G01 X6.25859 Y-2.52340
G01 X6.25692 Y-2.52309
G01 X6.25534 Y-2.52251
G01 X6.25388 Y-2.52165
G01 X6.25258 Y-2.52056
G01 X6.13179 Y-2.39977
G01 X6.13082 Y-2.39895
G01 X6.12925 Y-2.39815
G01 X6.12713 Y-2.39784
G01 X5.77090 Y-2.39784
G01 X5.76963 Y-2.39794
G01 X5.76849 Y-2.39827
G01 X5.76721 Y-2.39895
G01 X5.76624 Y-2.39977
G01 X5.64545 Y-2.52056
G01 X5.64415 Y-2.52165
G01 X5.64269 Y-2.52251
G01 X5.64111 Y-2.52309
G01 X5.63944 Y-2.52340
G01 X5.63775 Y-2.52342
G01 X5.63608 Y-2.52315
G01 X5.63312 Y-2.52199
G01 X5.62709 Y-2.52071
G01 X5.62094 Y-2.52071
G01 X5.61491 Y-2.52199
G01 X5.60929 Y-2.52449
G01 X5.60431 Y-2.52811
G01 X5.60021 Y-2.53266
G01 X5.59654 Y-2.53911
G01 X5.59556 Y-2.54054
G01 X5.59434 Y-2.54176
G01 X5.59293 Y-2.54276
G01 X5.59137 Y-2.54349
G01 X5.58970 Y-2.54394
G01 X5.58798 Y-2.54409
G01 X5.26005 Y-2.54409
G01 X5.25833 Y-2.54394
G01 X5.25666 Y-2.54349
G01 X5.25510 Y-2.54276
G01 X5.25369 Y-2.54176
G01 X5.25247 Y-2.54054
G01 X5.25149 Y-2.53911
G01 X5.24782 Y-2.53266
G01 X5.24372 Y-2.52811
G01 X5.23874 Y-2.52449
G01 X5.23312 Y-2.52199
G01 X5.22775 Y-2.52085
G01 X5.22709 Y-2.52071
G01 X5.22094 Y-2.52071
G01 X5.21491 Y-2.52199
G01 X5.20929 Y-2.52449
G01 X5.20431 Y-2.52811
G01 X5.20393 Y-2.52853
G01 X5.20019 Y-2.53269
G01 X5.19711 Y-2.53802
G01 X5.19521 Y-2.54387
G01 X5.19456 Y-2.55000
G01 X5.21238 Y-2.55000
G01 X5.21263 Y-2.55242
G01 X5.21338 Y-2.55473
G01 X5.21460 Y-2.55684
G01 X5.21623 Y-2.55865
G01 X5.21820 Y-2.56008
G01 X5.22042 Y-2.56107
G01 X5.22280 Y-2.56157
G01 X5.22523 Y-2.56157
G01 X5.22761 Y-2.56107
G01 X5.22983 Y-2.56008
G01 X5.23180 Y-2.55865
G01 X5.23337 Y-2.55691
G01 X5.23609 Y-2.55213
G01 X5.23756 Y-2.55000
G01 X5.23609 Y-2.54787
G01 X5.23337 Y-2.54309
G01 X5.23180 Y-2.54135
G01 X5.22983 Y-2.53992
G01 X5.22761 Y-2.53893
G01 X5.22523 Y-2.53842
G01 X5.22280 Y-2.53842
G01 X5.22042 Y-2.53893
G01 X5.21820 Y-2.53992
G01 X5.21623 Y-2.54135
G01 X5.21460 Y-2.54316
G01 X5.21338 Y-2.54527
G01 X5.21263 Y-2.54758
G01 X5.21238 Y-2.55000
G01 X5.61047 Y-2.55000
G01 X5.61194 Y-2.55213
G01 X5.61466 Y-2.55691
G01 X5.61623 Y-2.55865
G01 X5.61820 Y-2.56008
G01 X5.62042 Y-2.56107
G01 X5.62280 Y-2.56157
G01 X5.62523 Y-2.56157
G01 X5.62761 Y-2.56107
G01 X5.62983 Y-2.56008
G01 X5.63180 Y-2.55865
G01 X5.63343 Y-2.55684
G01 X5.63465 Y-2.55473
G01 X5.63540 Y-2.55242
G01 X5.63565 Y-2.55000
G01 X5.63540 Y-2.54758
G01 X5.63424 Y-2.54400
G01 X5.63347 Y-2.54061
G01 X5.63175 Y-2.54033
G01 X5.62786 Y-2.53898
G01 X5.62523 Y-2.53842
G01 X5.62280 Y-2.53842
G01 X5.62042 Y-2.53893
G01 X5.61820 Y-2.53992
G01 X5.61623 Y-2.54135
G01 X5.61466 Y-2.54309
G01 X5.61194 Y-2.54787
G01 X5.61047 Y-2.55000
G04 P0 ( dwell for no time -- G64 should not smooth over this point )
G00 Z0.08000 ( retract )

G00 X5.74278 Y-2.62600 ( rapid move to begin. )
G01 F180.00000
( Mill infeed pass 1/1 )
G01 Z-0.04000
G04 P0 ( dwell for no time -- G64 should not smooth over this point )
G01 F360.00000
G01 X5.74278 Y-2.62600
G01 X5.74398 Y-2.62772
G01 X5.74601 Y-2.63207
G01 X5.74726 Y-2.63671
G01 X5.74767 Y-2.64150
G01 X5.74767 Y-2.66734
G01 X5.83036 Y-2.66734
G01 X5.83036 Y-2.58466
G01 X5.74767 Y-2.58466
G01 X5.74767 Y-2.61050
G01 X5.74726 Y-2.61529
G01 X5.74601 Y-2.61992
G01 X5.74398 Y-2.62428
G01 X5.74278 Y-2.62600
G01 X5.76265 Y-2.62600
G01 X5.76470 Y-2.63364
G01 X5.76539 Y-2.64150
G01 X5.76539 Y-2.64962
G01 X5.81264 Y-2.64962
G01 X5.81264 Y-2.60237
G01 X5.76539 Y-2.60237
G01 X5.76539 Y-2.61050
G01 X5.76470 Y-2.61836
G01 X5.76265 Y-2.62600
G01 X5.78093 Y-2.62600
G01 X5.78215 Y-2.62144
G01 X5.78227 Y-2.62009
G01 X5.79492 Y-2.62009
G01 X5.79492 Y-2.63191
G01 X5.78227 Y-2.63191
G01 X5.78215 Y-2.63056
G01 X5.78093 Y-2.62600
G04 P0 ( dwell for no time -- G64 should not smooth over this point )
G00 Z0.08000 ( retract )

G00 X5.92433 Y-2.51221 ( rapid move to begin. )
G01 F180.00000
( Mill infeed pass 1/1 )
G01 Z-0.04000
G04 P0 ( dwell for no time -- G64 should not smooth over this point )
G01 F360.00000
G01 X5.92433 Y-2.51221
G01 X5.92553 Y-2.51110
G01 X5.92858 Y-2.50705
G01 X5.93083 Y-2.50251
G01 X5.93221 Y-2.49764
G01 X5.93267 Y-2.49260
G01 X5.93267 Y-2.46656
G01 X6.01536 Y-2.46656
G01 X6.01536 Y-2.54924
G01 X5.93267 Y-2.54924
G01 X5.93267 Y-2.53182
G01 X5.93222 Y-2.52685
G01 X5.93088 Y-2.52205
G01 X5.92870 Y-2.51756
G01 X5.92574 Y-2.51355
G01 X5.92433 Y-2.51221
G01 X5.94571 Y-2.51220
G01 X5.94736 Y-2.50889
G01 X5.94963 Y-2.50088
G01 X5.95039 Y-2.49260
G01 X5.95039 Y-2.48427
G01 X5.99764 Y-2.48427
G01 X5.99764 Y-2.53152
G01 X5.95036 Y-2.53152
G01 X5.94965 Y-2.52366
G01 X5.94745 Y-2.51577
G01 X5.94571 Y-2.51220
G01 X5.96476 Y-2.51217
G01 X5.96704 Y-2.50413
G01 X5.96724 Y-2.50199
G01 X5.97992 Y-2.50199
G01 X5.97992 Y-2.51381
G01 X5.96522 Y-2.51381
G01 X5.96476 Y-2.51217
G04 P0 ( dwell for no time -- G64 should not smooth over this point )
G00 Z0.08000 ( retract )

G00 X6.26203 Y-2.55600 ( rapid move to begin. )
G01 F180.00000
( Mill infeed pass 1/1 )
G01 Z-0.04000
G04 P0 ( dwell for no time -- G64 should not smooth over this point )
G01 F360.00000
G01 X6.26203 Y-2.55600
G01 X6.26513 Y-2.55785
G01 X6.26820 Y-2.56008
G01 X6.27042 Y-2.56107
G01 X6.27280 Y-2.56157
G01 X6.27523 Y-2.56157
G01 X6.27761 Y-2.56107
G01 X6.27983 Y-2.56008
G01 X6.28180 Y-2.55865
G01 X6.28337 Y-2.55691
G01 X6.28609 Y-2.55213
G01 X6.28756 Y-2.55000
G01 X6.28609 Y-2.54787
G01 X6.28337 Y-2.54309
G01 X6.28180 Y-2.54135
G01 X6.27983 Y-2.53992
G01 X6.27761 Y-2.53893
G01 X6.27523 Y-2.53842
G01 X6.27280 Y-2.53842
G01 X6.27017 Y-2.53898
G01 X6.26628 Y-2.54033
G01 X6.26456 Y-2.54061
G01 X6.26379 Y-2.54400
G01 X6.26263 Y-2.54758
G01 X6.26231 Y-2.55065
G01 X6.26237 Y-2.55385
G01 X6.26203 Y-2.55600
G01 X6.66047 Y-2.55000
G01 X6.66194 Y-2.55213
G01 X6.66466 Y-2.55691
G01 X6.66623 Y-2.55865
G01 X6.66820 Y-2.56008
G01 X6.67042 Y-2.56107
G01 X6.67280 Y-2.56157
G01 X6.67523 Y-2.56157
G01 X6.67761 Y-2.56107
G01 X6.67983 Y-2.56008
G01 X6.68180 Y-2.55865
G01 X6.68343 Y-2.55684
G01 X6.68465 Y-2.55473
G01 X6.68540 Y-2.55242
G01 X6.68565 Y-2.55000
G01 X6.68540 Y-2.54758
G01 X6.68465 Y-2.54527
G01 X6.68343 Y-2.54316
G01 X6.68180 Y-2.54135
G01 X6.67983 Y-2.53992
G01 X6.67761 Y-2.53893
G01 X6.67523 Y-2.53842
G01 X6.67280 Y-2.53842
G01 X6.67042 Y-2.53893
G01 X6.66820 Y-2.53992
G01 X6.66623 Y-2.54135
G01 X6.66466 Y-2.54309
G01 X6.66194 Y-2.54787
G01 X6.66047 Y-2.55000
G04 P0 ( dwell for no time -- G64 should not smooth over this point )
G00 Z0.08000 ( retract )

G00 X6.66238 Y-2.95000 ( rapid move to begin. )
G01 F180.00000
( Mill infeed pass 1/1 )
G01 Z-0.04000
G04 P0 ( dwell for no time -- G64 should not smooth over this point )
G01 F360.00000
G01 X6.66238 Y-2.95000
G01 X6.66263 Y-2.95242
G01 X6.66338 Y-2.95473
G01 X6.66460 Y-2.95684
G01 X6.66623 Y-2.95865
G01 X6.66820 Y-2.96008
G01 X6.67042 Y-2.96107
G01 X6.67280 Y-2.96157
G01 X6.67523 Y-2.96157
G01 X6.67761 Y-2.96107
G01 X6.67983 Y-2.96008
G01 X6.68180 Y-2.95865
G01 X6.68343 Y-2.95684
G01 X6.68465 Y-2.95473
G01 X6.68540 Y-2.95242
G01 X6.68565 Y-2.95000
G01 X6.68540 Y-2.94758
G01 X6.68465 Y-2.94527
G01 X6.68343 Y-2.94316
G01 X6.68180 Y-2.94135
G01 X6.67983 Y-2.93992
G01 X6.67761 Y-2.93893
G01 X6.67523 Y-2.93842
G01 X6.67280 Y-2.93842
G01 X6.67017 Y-2.93898
G01 X6.66628 Y-2.94033
G01 X6.66456 Y-2.94061
G01 X6.66379 Y-2.94400
G01 X6.66263 Y-2.94758
G01 X6.66238 Y-2.95000
G04 P0 ( dwell for no time -- G64 should not smooth over this point )
G00 Z0.08000 ( retract )

G00 X6.38364 Y-3.24501 ( rapid move to begin. )
G01 F180.00000
( Mill infeed pass 1/1 )
G01 Z-0.04000
G04 P0 ( dwell for no time -- G64 should not smooth over this point )
G01 F360.00000
G01 X6.38364 Y-3.24501
G01 X6.38364 Y-3.04179
G01 X6.38380 Y-3.04021
G01 X6.38412 Y-3.03916
G01 X6.38464 Y-3.03819
G01 X6.38564 Y-3.03696
G01 X6.51547 Y-2.90713
G01 X6.51670 Y-2.90564
G01 X6.51761 Y-2.90394
G01 X6.51817 Y-2.90209
G01 X6.51836 Y-2.90017
G01 X6.51836 Y-2.87559
G01 X6.51821 Y-2.87388
G01 X6.51776 Y-2.87222
G01 X6.51704 Y-2.87067
G01 X6.51605 Y-2.86926
G01 X6.51484 Y-2.86805
G01 X6.51344 Y-2.86707
G01 X6.51188 Y-2.86634
G01 X6.51022 Y-2.86590
G01 X6.50827 Y-2.86575
G01 X6.50827 Y-2.83425
G01 X6.53976 Y-2.83425
G01 X6.53995 Y-2.83642
G01 X6.54051 Y-2.83827
G01 X6.54142 Y-2.83997
G01 X6.54265 Y-2.84146
G01 X6.54414 Y-2.84268
G01 X6.54584 Y-2.84359
G01 X6.54769 Y-2.84415
G01 X6.54961 Y-2.84434
G01 X6.57363 Y-2.84434
G01 X6.57490 Y-2.84444
G01 X6.57657 Y-2.84499
G01 X6.57829 Y-2.84627
G01 X6.65258 Y-2.92056
G01 X6.65388 Y-2.92165
G01 X6.65534 Y-2.92251
G01 X6.65692 Y-2.92309
G01 X6.65859 Y-2.92340
G01 X6.66028 Y-2.92342
G01 X6.66195 Y-2.92315
G01 X6.66491 Y-2.92199
G01 X6.67094 Y-2.92071
G01 X6.67709 Y-2.92071
G01 X6.68312 Y-2.92199
G01 X6.68874 Y-2.92449
G01 X6.69372 Y-2.92811
G01 X6.69784 Y-2.93269
G01 X6.70092 Y-2.93802
G01 X6.70282 Y-2.94388
G01 X6.70347 Y-2.95000
G01 X6.70282 Y-2.95612
G01 X6.70092 Y-2.96198
G01 X6.69784 Y-2.96731
G01 X6.69372 Y-2.97189
G01 X6.68874 Y-2.97551
G01 X6.68312 Y-2.97801
G01 X6.67709 Y-2.97929
G01 X6.67094 Y-2.97929
G01 X6.66491 Y-2.97801
G01 X6.65929 Y-2.97551
G01 X6.65431 Y-2.97189
G01 X6.65019 Y-2.96731
G01 X6.64711 Y-2.96198
G01 X6.64521 Y-2.95612
G01 X6.64456 Y-2.95000
G01 X6.64521 Y-2.94388
G01 X6.64694 Y-2.93853
G01 X6.64734 Y-2.93677
G01 X6.64741 Y-2.93497
G01 X6.64715 Y-2.93319
G01 X6.64657 Y-2.93148
G01 X6.64569 Y-2.92991
G01 X6.64454 Y-2.92853
G01 X6.57455 Y-2.85854
G01 X6.57338 Y-2.85754
G01 X6.57206 Y-2.85673
G01 X6.57064 Y-2.85614
G01 X6.56913 Y-2.85578
G01 X6.56759 Y-2.85566
G01 X6.54961 Y-2.85566
G01 X6.54790 Y-2.85581
G01 X6.54624 Y-2.85625
G01 X6.54468 Y-2.85698
G01 X6.54328 Y-2.85796
G01 X6.54207 Y-2.85917
G01 X6.54108 Y-2.86058
G01 X6.54036 Y-2.86213
G01 X6.53991 Y-2.86379
G01 X6.53976 Y-2.86575
G01 X6.53759 Y-2.86594
G01 X6.53575 Y-2.86650
G01 X6.53405 Y-2.86741
G01 X6.53256 Y-2.86863
G01 X6.53133 Y-2.87012
G01 X6.53042 Y-2.87182
G01 X6.52986 Y-2.87367
G01 X6.52967 Y-2.87559
G01 X6.52967 Y-2.90611
G01 X6.52952 Y-2.90768
G01 X6.52920 Y-2.90874
G01 X6.52868 Y-2.90971
G01 X6.52767 Y-2.91093
G01 X6.39784 Y-3.04076
G01 X6.39684 Y-3.04194
G01 X6.39603 Y-3.04325
G01 X6.39544 Y-3.04468
G01 X6.39508 Y-3.04618
G01 X6.39496 Y-3.04772
G01 X6.39496 Y-3.23450
G01 X6.39515 Y-3.23642
G01 X6.39571 Y-3.23827
G01 X6.39662 Y-3.23997
G01 X6.39784 Y-3.24146
G01 X6.39933 Y-3.24268
G01 X6.40104 Y-3.24359
G01 X6.40288 Y-3.24415
G01 X6.40480 Y-3.24434
G01 X6.42974 Y-3.24434
G01 X6.43159 Y-3.24417
G01 X6.43337 Y-3.24365
G01 X6.43502 Y-3.24281
G01 X6.43648 Y-3.24167
G01 X6.43771 Y-3.24029
G01 X6.43924 Y-3.23818
G01 X6.44198 Y-3.23571
G01 X6.44518 Y-3.23386
G01 X6.44869 Y-3.23272
G01 X6.45288 Y-3.23228
G01 X6.49515 Y-3.23228
G01 X6.49934 Y-3.23272
G01 X6.50285 Y-3.23386
G01 X6.50605 Y-3.23571
G01 X6.50879 Y-3.23818
G01 X6.51096 Y-3.24117
G01 X6.51247 Y-3.24454
G01 X6.51323 Y-3.24815
G01 X6.51323 Y-3.25185
G01 X6.51247 Y-3.25546
G01 X6.51096 Y-3.25883
G01 X6.50879 Y-3.26182
G01 X6.50605 Y-3.26429
G01 X6.50285 Y-3.26613
G01 X6.49934 Y-3.26728
G01 X6.49515 Y-3.26772
G01 X6.45288 Y-3.26772
G01 X6.44869 Y-3.26728
G01 X6.44518 Y-3.26613
G01 X6.44198 Y-3.26429
G01 X6.43924 Y-3.26182
G01 X6.43771 Y-3.25971
G01 X6.43648 Y-3.25833
G01 X6.43502 Y-3.25719
G01 X6.43337 Y-3.25635
G01 X6.43159 Y-3.25583
G01 X6.42974 Y-3.25566
G01 X6.39419 Y-3.25566
G01 X6.39206 Y-3.25535
G01 X6.39049 Y-3.25455
G01 X6.38953 Y-3.25373
G01 X6.38564 Y-3.24984
G01 X6.38464 Y-3.24861
G01 X6.38412 Y-3.24764
G01 X6.38380 Y-3.24659
G01 X6.38364 Y-3.24501
G04 P0 ( dwell for no time -- G64 should not smooth over this point )
G00 Z0.08000 ( retract )

G00 X6.11432 Y-3.30000 ( rapid move to begin. )
G01 F180.00000
( Mill infeed pass 1/1 )
G01 Z-0.04000
G04 P0 ( dwell for no time -- G64 should not smooth over this point )
G01 F360.00000
G01 X6.11432 Y-3.30000
G01 X6.11454 Y-3.30201
G01 X6.11516 Y-3.30394
G01 X6.11617 Y-3.30570
G01 X6.11753 Y-3.30720
G01 X6.11917 Y-3.30839
G01 X6.12102 Y-3.30922
G01 X6.12300 Y-3.30964
G01 X6.12503 Y-3.30964
G01 X6.12809 Y-3.30899
G01 X6.13004 Y-3.30831
G01 X6.13192 Y-3.30801
G01 X6.13279 Y-3.30419
G01 X6.13349 Y-3.30201
G01 X6.13371 Y-3.30000
G01 X6.13349 Y-3.29799
G01 X6.13287 Y-3.29606
G01 X6.13186 Y-3.29430
G01 X6.13050 Y-3.29280
G01 X6.12886 Y-3.29161
G01 X6.12701 Y-3.29078
G01 X6.12503 Y-3.29036
G01 X6.12300 Y-3.29036
G01 X6.12102 Y-3.29078
G01 X6.11917 Y-3.29161
G01 X6.11753 Y-3.29280
G01 X6.11617 Y-3.29430
G01 X6.11516 Y-3.29606
G01 X6.11454 Y-3.29798
G01 X6.11432 Y-3.30000
G01 X6.09651 Y-3.30000
G01 X6.09711 Y-3.30572
G01 X6.09889 Y-3.31119
G01 X6.10176 Y-3.31617
G01 X6.10561 Y-3.32044
G01 X6.11026 Y-3.32382
G01 X6.11551 Y-3.32616
G01 X6.12114 Y-3.32735
G01 X6.12689 Y-3.32735
G01 X6.13251 Y-3.32616
G01 X6.13437 Y-3.32549
G01 X6.13604 Y-3.32522
G01 X6.13773 Y-3.32524
G01 X6.13939 Y-3.32555
G01 X6.14098 Y-3.32613
G01 X6.14244 Y-3.32699
G01 X6.14374 Y-3.32808
G01 X6.14824 Y-3.33257
G01 X6.14950 Y-3.33361
G01 X6.15051 Y-3.33415
G01 X6.15161 Y-3.33449
G01 X6.15324 Y-3.33465
G01 X6.42993 Y-3.33465
G01 X6.43177 Y-3.33482
G01 X6.43355 Y-3.33534
G01 X6.43520 Y-3.33618
G01 X6.43666 Y-3.33731
G01 X6.43924 Y-3.34056
G01 X6.44198 Y-3.34303
G01 X6.44518 Y-3.34488
G01 X6.44869 Y-3.34602
G01 X6.45288 Y-3.34646
G01 X6.49515 Y-3.34646
G01 X6.49934 Y-3.34602
G01 X6.50285 Y-3.34488
G01 X6.50605 Y-3.34303
G01 X6.50879 Y-3.34056
G01 X6.51096 Y-3.33757
G01 X6.51247 Y-3.33420
G01 X6.51323 Y-3.33059
G01 X6.51323 Y-3.32689
G01 X6.51247 Y-3.32328
G01 X6.51096 Y-3.31991
G01 X6.50879 Y-3.31692
G01 X6.50605 Y-3.31445
G01 X6.50285 Y-3.31261
G01 X6.49934 Y-3.31146
G01 X6.49515 Y-3.31102
G01 X6.45288 Y-3.31102
G01 X6.44869 Y-3.31146
G01 X6.44518 Y-3.31261
G01 X6.44198 Y-3.31445
G01 X6.43924 Y-3.31692
G01 X6.43666 Y-3.32016
G01 X6.43520 Y-3.32130
G01 X6.43355 Y-3.32214
G01 X6.43177 Y-3.32266
G01 X6.42993 Y-3.32283
G01 X6.15928 Y-3.32283
G01 X6.15736 Y-3.32264
G01 X6.15551 Y-3.32208
G01 X6.15381 Y-3.32117
G01 X6.15232 Y-3.31995
G01 X6.15089 Y-3.31828
G01 X6.15000 Y-3.31671
G01 X6.14943 Y-3.31501
G01 X6.14917 Y-3.31322
G01 X6.14924 Y-3.31142
G01 X6.14964 Y-3.30967
G01 X6.15092 Y-3.30572
G01 X6.15152 Y-3.30000
G01 X6.15092 Y-3.29428
G01 X6.14914 Y-3.28881
G01 X6.14627 Y-3.28383
G01 X6.14242 Y-3.27956
G01 X6.13777 Y-3.27618
G01 X6.13251 Y-3.27384
G01 X6.12689 Y-3.27264
G01 X6.12114 Y-3.27264
G01 X6.11551 Y-3.27384
G01 X6.11026 Y-3.27618
G01 X6.10561 Y-3.27956
G01 X6.10176 Y-3.28383
G01 X6.09889 Y-3.28881
G01 X6.09711 Y-3.29428
G01 X6.09651 Y-3.30000
G04 P0 ( dwell for no time -- G64 should not smooth over this point )
G00 Z0.08000 ( retract )

G00 X6.00937 Y-3.30000 ( rapid move to begin. )
G01 F180.00000
( Mill infeed pass 1/1 )
G01 Z-0.04000
G04 P0 ( dwell for no time -- G64 should not smooth over this point )
G01 F360.00000
G01 X6.00937 Y-3.30000
G01 X6.01207 Y-3.30495
G01 X6.01364 Y-3.31012
G01 X6.01381 Y-3.31181
G01 X6.03386 Y-3.31181
G01 X6.03386 Y-3.28819
G01 X6.01381 Y-3.28819
G01 X6.01364 Y-3.28988
G01 X6.01207 Y-3.29505
G01 X6.00937 Y-3.30000
G04 P0 ( dwell for no time -- G64 should not smooth over this point )
G00 Z0.08000 ( retract )

G00 X5.81417 Y-3.31243 ( rapid move to begin. )
G01 F180.00000
( Mill infeed pass 1/1 )
G01 Z-0.04000
G04 P0 ( dwell for no time -- G64 should not smooth over this point )
G01 F360.00000
G01 X5.81417 Y-3.31243
G01 X5.81417 Y-3.28819
G01 X5.83422 Y-3.28819
G01 X5.83439 Y-3.28988
G01 X5.83596 Y-3.29505
G01 X5.83866 Y-3.30000
G01 X5.83596 Y-3.30495
G01 X5.83439 Y-3.31012
G01 X5.83417 Y-3.31234
G01 X5.82897 Y-3.31391
G01 X5.82402 Y-3.31661
G01 X5.81906 Y-3.31391
G01 X5.81417 Y-3.31243
G04 P0 ( dwell for no time -- G64 should not smooth over this point )
G00 Z0.08000 ( retract )

G00 X5.71351 Y-3.30390 ( rapid move to begin. )
G01 F180.00000
( Mill infeed pass 1/1 )
G01 Z-0.04000
G04 P0 ( dwell for no time -- G64 should not smooth over this point )
G01 F360.00000
G01 X5.71351 Y-3.30390
G01 X5.71436 Y-3.29964
G01 X5.71454 Y-3.29798
G01 X5.71516 Y-3.29606
G01 X5.71618 Y-3.29430
G01 X5.71753 Y-3.29280
G01 X5.71917 Y-3.29161
G01 X5.72102 Y-3.29078
G01 X5.72300 Y-3.29036
G01 X5.72503 Y-3.29036
G01 X5.72701 Y-3.29078
G01 X5.72886 Y-3.29161
G01 X5.73050 Y-3.29280
G01 X5.73186 Y-3.29430
G01 X5.73287 Y-3.29606
G01 X5.73349 Y-3.29799
G01 X5.73371 Y-3.30000
G01 X5.73349 Y-3.30201
G01 X5.73287 Y-3.30394
G01 X5.73186 Y-3.30570
G01 X5.73050 Y-3.30720
G01 X5.72886 Y-3.30839
G01 X5.72701 Y-3.30922
G01 X5.72503 Y-3.30964
G01 X5.72300 Y-3.30964
G01 X5.72102 Y-3.30922
G01 X5.71917 Y-3.30839
G01 X5.71699 Y-3.30681
G01 X5.71478 Y-3.30473
G01 X5.71351 Y-3.30390
G04 P0 ( dwell for no time -- G64 should not smooth over this point )
G00 Z0.08000 ( retract )

G00 X5.33480 Y-3.17311 ( rapid move to begin. )
G01 F180.00000
( Mill infeed pass 1/1 )
G01 Z-0.04000
G04 P0 ( dwell for no time -- G64 should not smooth over this point )
G01 F360.00000
G01 X5.33480 Y-3.17311
G01 X5.33556 Y-3.17672
G01 X5.33707 Y-3.18009
G01 X5.33924 Y-3.18308
G01 X5.34198 Y-3.18555
G01 X5.34518 Y-3.18739
G01 X5.34869 Y-3.18854
G01 X5.35288 Y-3.18898
G01 X5.39515 Y-3.18898
G01 X5.39934 Y-3.18854
G01 X5.40285 Y-3.18739
G01 X5.40605 Y-3.18555
G01 X5.40879 Y-3.18308
G01 X5.41137 Y-3.17983
G01 X5.41283 Y-3.17870
G01 X5.41448 Y-3.17786
G01 X5.41626 Y-3.17734
G01 X5.41810 Y-3.17717
G01 X6.01633 Y-3.17717
G01 X6.01796 Y-3.17701
G01 X6.01906 Y-3.17667
G01 X6.02007 Y-3.17613
G01 X6.02134 Y-3.17509
G01 X6.23341 Y-2.96303
G01 X6.23479 Y-2.96188
G01 X6.23636 Y-2.96100
G01 X6.23807 Y-2.96042
G01 X6.23985 Y-2.96016
G01 X6.24165 Y-2.96023
G01 X6.24341 Y-2.96062
G01 X6.24506 Y-2.96134
G01 X6.24656 Y-2.96234
G01 X6.24785 Y-2.96359
G01 X6.25019 Y-2.96731
G01 X6.25431 Y-2.97189
G01 X6.25929 Y-2.97551
G01 X6.26491 Y-2.97801
G01 X6.27094 Y-2.97929
G01 X6.27709 Y-2.97929
G01 X6.27920 Y-2.97884
G01 X6.28312 Y-2.97801
G01 X6.28874 Y-2.97551
G01 X6.29372 Y-2.97189
G01 X6.29784 Y-2.96731
G01 X6.30092 Y-2.96198
G01 X6.30282 Y-2.95612
G01 X6.30347 Y-2.95000
G01 X6.30282 Y-2.94388
G01 X6.30092 Y-2.93802
G01 X6.29784 Y-2.93269
G01 X6.29372 Y-2.92811
G01 X6.28874 Y-2.92449
G01 X6.28575 Y-2.92316
G01 X6.28411 Y-2.92223
G01 X6.28268 Y-2.92101
G01 X6.28150 Y-2.91953
G01 X6.28063 Y-2.91786
G01 X6.28009 Y-2.91605
G01 X6.27991 Y-2.91417
G01 X6.27992 Y-2.86575
G01 X6.28011 Y-2.86383
G01 X6.28067 Y-2.86198
G01 X6.28158 Y-2.86028
G01 X6.28281 Y-2.85879
G01 X6.28430 Y-2.85757
G01 X6.28600 Y-2.85666
G01 X6.28785 Y-2.85610
G01 X6.28976 Y-2.85591
G01 X6.40552 Y-2.85591
G01 X6.40717 Y-2.85604
G01 X6.40876 Y-2.85645
G01 X6.41027 Y-2.85712
G01 X6.41164 Y-2.85804
G01 X6.41284 Y-2.85916
G01 X6.41509 Y-2.86166
G01 X6.41774 Y-2.86359
G01 X6.42074 Y-2.86492
G01 X6.42395 Y-2.86561
G01 X6.42723 Y-2.86561
G01 X6.43044 Y-2.86492
G01 X6.43344 Y-2.86359
G01 X6.43609 Y-2.86166
G01 X6.43829 Y-2.85922
G01 X6.43993 Y-2.85638
G01 X6.44094 Y-2.85326
G01 X6.44128 Y-2.85000
G01 X6.44094 Y-2.84674
G01 X6.43993 Y-2.84362
G01 X6.43949 Y-2.84286
G01 X6.43829 Y-2.84077
G01 X6.43609 Y-2.83834
G01 X6.43344 Y-2.83641
G01 X6.43044 Y-2.83507
G01 X6.42723 Y-2.83439
G01 X6.42395 Y-2.83439
G01 X6.42154 Y-2.83490
G01 X6.42074 Y-2.83507
G01 X6.41774 Y-2.83641
G01 X6.41509 Y-2.83834
G01 X6.41284 Y-2.84084
G01 X6.41164 Y-2.84196
G01 X6.41027 Y-2.84287
G01 X6.40876 Y-2.84355
G01 X6.40717 Y-2.84395
G01 X6.40552 Y-2.84409
G01 X6.27450 Y-2.84409
G01 X6.27287 Y-2.84425
G01 X6.27177 Y-2.84459
G01 X6.27076 Y-2.84513
G01 X6.26987 Y-2.84586
G01 X6.26914 Y-2.84674
G01 X6.26860 Y-2.84776
G01 X6.26827 Y-2.84886
G01 X6.26811 Y-2.85048
G01 X6.26811 Y-2.90754
G01 X6.26799 Y-2.90908
G01 X6.26763 Y-2.91058
G01 X6.26703 Y-2.91201
G01 X6.26623 Y-2.91332
G01 X6.26522 Y-2.91450
G01 X6.01725 Y-3.16247
G01 X6.01576 Y-3.16369
G01 X6.01406 Y-3.16460
G01 X6.01222 Y-3.16516
G01 X6.01029 Y-3.16535
G01 X5.41810 Y-3.16535
G01 X5.41626 Y-3.16518
G01 X5.41448 Y-3.16466
G01 X5.41283 Y-3.16382
G01 X5.41137 Y-3.16268
G01 X5.40879 Y-3.15944
G01 X5.40605 Y-3.15697
G01 X5.40285 Y-3.15512
G01 X5.39934 Y-3.15398
G01 X5.39515 Y-3.15354
G01 X5.35288 Y-3.15354
G01 X5.34869 Y-3.15398
G01 X5.34518 Y-3.15512
G01 X5.34198 Y-3.15697
G01 X5.33924 Y-3.15944
G01 X5.33707 Y-3.16243
G01 X5.33556 Y-3.16580
G01 X5.33480 Y-3.16941
G01 X5.33480 Y-3.17311
G04 P0 ( dwell for no time -- G64 should not smooth over this point )
G00 Z0.08000 ( retract )

G00 X5.33480 Y-3.33059 ( rapid move to begin. )
G01 F180.00000
( Mill infeed pass 1/1 )
G01 Z-0.04000
G04 P0 ( dwell for no time -- G64 should not smooth over this point )
G01 F360.00000
G01 X5.33480 Y-3.33059
G01 X5.33556 Y-3.33420
G01 X5.33707 Y-3.33757
G01 X5.33924 Y-3.34056
G01 X5.34198 Y-3.34303
G01 X5.34518 Y-3.34488
G01 X5.34869 Y-3.34602
G01 X5.35288 Y-3.34646
G01 X5.39515 Y-3.34646
G01 X5.39934 Y-3.34602
G01 X5.40285 Y-3.34488
G01 X5.40605 Y-3.34303
G01 X5.40879 Y-3.34056
G01 X5.41137 Y-3.33731
G01 X5.41283 Y-3.33618
G01 X5.41448 Y-3.33534
G01 X5.41626 Y-3.33482
G01 X5.41810 Y-3.33465
G01 X5.64484 Y-3.33465
G01 X5.64630 Y-3.33452
G01 X5.64770 Y-3.33414
G01 X5.69433 Y-3.31712
G01 X5.69594 Y-3.31669
G01 X5.69760 Y-3.31653
G01 X5.69926 Y-3.31665
G01 X5.70088 Y-3.31705
G01 X5.70241 Y-3.31772
G01 X5.70380 Y-3.31864
G01 X5.70561 Y-3.32044
G01 X5.71026 Y-3.32382
G01 X5.71552 Y-3.32616
G01 X5.72114 Y-3.32735
G01 X5.72689 Y-3.32735
G01 X5.73251 Y-3.32616
G01 X5.73777 Y-3.32382
G01 X5.74067 Y-3.32171
G01 X5.74242 Y-3.32044
G01 X5.74627 Y-3.31617
G01 X5.74914 Y-3.31119
G01 X5.75092 Y-3.30572
G01 X5.75152 Y-3.30000
G01 X5.75092 Y-3.29428
G01 X5.74914 Y-3.28881
G01 X5.74627 Y-3.28383
G01 X5.74242 Y-3.27956
G01 X5.73777 Y-3.27618
G01 X5.73251 Y-3.27384
G01 X5.72689 Y-3.27264
G01 X5.72114 Y-3.27264
G01 X5.71552 Y-3.27384
G01 X5.71026 Y-3.27618
G01 X5.70561 Y-3.27956
G01 X5.70176 Y-3.28383
G01 X5.69889 Y-3.28881
G01 X5.69711 Y-3.29428
G01 X5.69674 Y-3.29779
G01 X5.69638 Y-3.29958
G01 X5.69570 Y-3.30128
G01 X5.69471 Y-3.30282
G01 X5.69346 Y-3.30415
G01 X5.69198 Y-3.30522
G01 X5.69033 Y-3.30601
G01 X5.64586 Y-3.32224
G01 X5.64420 Y-3.32268
G01 X5.64249 Y-3.32283
G01 X5.41810 Y-3.32283
G01 X5.41626 Y-3.32266
G01 X5.41448 Y-3.32214
G01 X5.41283 Y-3.32130
G01 X5.41137 Y-3.32016
G01 X5.40879 Y-3.31692
G01 X5.40605 Y-3.31445
G01 X5.40285 Y-3.31260
G01 X5.39934 Y-3.31146
G01 X5.39515 Y-3.31102
G01 X5.35288 Y-3.31102
G01 X5.34869 Y-3.31146
G01 X5.34518 Y-3.31261
G01 X5.34198 Y-3.31445
G01 X5.33924 Y-3.31692
G01 X5.33707 Y-3.31991
G01 X5.33556 Y-3.32328
G01 X5.33480 Y-3.32689
G01 X5.33480 Y-3.33059
G04 P0 ( dwell for no time -- G64 should not smooth over this point )
G00 Z0.08000 ( retract )

G00 X5.13651 Y-3.21714 ( rapid move to begin. )
G01 F180.00000
( Mill infeed pass 1/1 )
G01 Z-0.04000
G04 P0 ( dwell for no time -- G64 should not smooth over this point )
G01 F360.00000
G01 X5.13651 Y-3.21714
G01 X5.13666 Y-3.21872
G01 X5.13698 Y-3.21977
G01 X5.13750 Y-3.22074
G01 X5.13851 Y-3.22196
G01 X5.31900 Y-3.40246
G01 X5.32022 Y-3.40346
G01 X5.32119 Y-3.40398
G01 X5.32225 Y-3.40430
G01 X5.32383 Y-3.40446
G01 X5.79510 Y-3.40446
G01 X5.79668 Y-3.40430
G01 X5.79773 Y-3.40398
G01 X5.79870 Y-3.40346
G01 X5.79993 Y-3.40246
G01 X5.82857 Y-3.37368
G01 X5.82937 Y-3.37211
G01 X5.82967 Y-3.36998
G01 X5.82967 Y-3.33937
G01 X5.82986 Y-3.33745
G01 X5.83042 Y-3.33560
G01 X5.83133 Y-3.33390
G01 X5.83256 Y-3.33241
G01 X5.83405 Y-3.33119
G01 X5.83575 Y-3.33028
G01 X5.83759 Y-3.32972
G01 X5.83951 Y-3.32953
G01 X5.85157 Y-3.32953
G01 X5.85157 Y-3.31550
G01 X5.85176 Y-3.31358
G01 X5.85232 Y-3.31173
G01 X5.85323 Y-3.31003
G01 X5.85446 Y-3.30854
G01 X5.85595 Y-3.30732
G01 X5.85765 Y-3.30641
G01 X5.85950 Y-3.30585
G01 X5.86142 Y-3.30566
G01 X5.98661 Y-3.30566
G01 X5.98853 Y-3.30585
G01 X5.99038 Y-3.30641
G01 X5.99208 Y-3.30732
G01 X5.99357 Y-3.30854
G01 X5.99480 Y-3.31003
G01 X5.99571 Y-3.31173
G01 X5.99627 Y-3.31358
G01 X5.99645 Y-3.31550
G01 X5.99645 Y-3.32953
G01 X6.05157 Y-3.32953
G01 X6.05157 Y-3.27047
G01 X5.99645 Y-3.27047
G01 X5.99645 Y-3.28450
G01 X5.99627 Y-3.28642
G01 X5.99571 Y-3.28827
G01 X5.99480 Y-3.28997
G01 X5.99357 Y-3.29146
G01 X5.99208 Y-3.29268
G01 X5.99038 Y-3.29359
G01 X5.98853 Y-3.29415
G01 X5.98661 Y-3.29434
G01 X5.86142 Y-3.29434
G01 X5.85950 Y-3.29415
G01 X5.85765 Y-3.29359
G01 X5.85595 Y-3.29268
G01 X5.85446 Y-3.29146
G01 X5.85323 Y-3.28997
G01 X5.85232 Y-3.28827
G01 X5.85176 Y-3.28642
G01 X5.85157 Y-3.28450
G01 X5.85157 Y-3.27047
G01 X5.79646 Y-3.27047
G01 X5.79646 Y-3.32953
G01 X5.80852 Y-3.32953
G01 X5.81044 Y-3.32972
G01 X5.81228 Y-3.33028
G01 X5.81398 Y-3.33119
G01 X5.81547 Y-3.33241
G01 X5.81670 Y-3.33390
G01 X5.81761 Y-3.33560
G01 X5.81817 Y-3.33745
G01 X5.81836 Y-3.33937
G01 X5.81836 Y-3.36395
G01 X5.81824 Y-3.36549
G01 X5.81788 Y-3.36699
G01 X5.81728 Y-3.36842
G01 X5.81648 Y-3.36973
G01 X5.81547 Y-3.37091
G01 X5.79612 Y-3.39026
G01 X5.79463 Y-3.39148
G01 X5.79293 Y-3.39239
G01 X5.79108 Y-3.39295
G01 X5.78916 Y-3.39314
G01 X5.32976 Y-3.39314
G01 X5.32822 Y-3.39302
G01 X5.32672 Y-3.39266
G01 X5.32529 Y-3.39207
G01 X5.32398 Y-3.39126
G01 X5.32280 Y-3.39026
G01 X5.15070 Y-3.21816
G01 X5.14970 Y-3.21699
G01 X5.14889 Y-3.21567
G01 X5.14830 Y-3.21424
G01 X5.14794 Y-3.21274
G01 X5.14782 Y-3.21120
G01 X5.14782 Y-2.81713
G01 X5.14801 Y-2.81521
G01 X5.14857 Y-2.81336
G01 X5.14948 Y-2.81166
G01 X5.15070 Y-2.81017
G01 X5.18419 Y-2.77669
G01 X5.18536 Y-2.77569
G01 X5.18668 Y-2.77488
G01 X5.18810 Y-2.77429
G01 X5.18961 Y-2.77393
G01 X5.19115 Y-2.77381
G01 X5.54648 Y-2.77381
G01 X5.54806 Y-2.77365
G01 X5.54911 Y-2.77333
G01 X5.55008 Y-2.77281
G01 X5.55131 Y-2.77181
G01 X5.68858 Y-2.63454
G01 X5.69007 Y-2.63332
G01 X5.69177 Y-2.63241
G01 X5.69362 Y-2.63185
G01 X5.69554 Y-2.63166
G01 X5.72012 Y-2.63166
G01 X5.72182 Y-2.63181
G01 X5.72348 Y-2.63225
G01 X5.72504 Y-2.63298
G01 X5.72644 Y-2.63396
G01 X5.72765 Y-2.63517
G01 X5.72864 Y-2.63658
G01 X5.72936 Y-2.63813
G01 X5.72981 Y-2.63979
G01 X5.72996 Y-2.64150
G01 X5.72996 Y-2.68506
G01 X5.84807 Y-2.68506
G01 X5.84807 Y-2.57902
G01 X5.84826 Y-2.57710
G01 X5.84882 Y-2.57525
G01 X5.84973 Y-2.57355
G01 X5.85096 Y-2.57206
G01 X5.89816 Y-2.52486
G01 X5.89952 Y-2.52372
G01 X5.90108 Y-2.52284
G01 X5.90276 Y-2.52226
G01 X5.90452 Y-2.52199
G01 X5.90630 Y-2.52205
G01 X5.90804 Y-2.52242
G01 X5.90969 Y-2.52311
G01 X5.91119 Y-2.52407
G01 X5.91248 Y-2.52529
G01 X5.91354 Y-2.52673
G01 X5.91432 Y-2.52833
G01 X5.91480 Y-2.53005
G01 X5.91496 Y-2.53182
G01 X5.91496 Y-2.56696
G01 X6.03307 Y-2.56696
G01 X6.03307 Y-2.44884
G01 X5.91496 Y-2.44884
G01 X5.91496 Y-2.49260
G01 X5.91479 Y-2.49440
G01 X5.91430 Y-2.49614
G01 X5.91349 Y-2.49776
G01 X5.91241 Y-2.49921
G01 X5.91107 Y-2.50043
G01 X5.90954 Y-2.50139
G01 X5.90786 Y-2.50205
G01 X5.90497 Y-2.50272
G01 X5.90400 Y-2.50324
G01 X5.90277 Y-2.50424
G01 X5.84295 Y-2.56406
G01 X5.84146 Y-2.56528
G01 X5.83976 Y-2.56619
G01 X5.83791 Y-2.56675
G01 X5.83599 Y-2.56694
G01 X5.72996 Y-2.56694
G01 X5.72996 Y-2.61050
G01 X5.72981 Y-2.61221
G01 X5.72936 Y-2.61387
G01 X5.72864 Y-2.61542
G01 X5.72765 Y-2.61683
G01 X5.72644 Y-2.61804
G01 X5.72504 Y-2.61902
G01 X5.72348 Y-2.61975
G01 X5.72182 Y-2.62019
G01 X5.72012 Y-2.62034
G01 X5.68960 Y-2.62034
G01 X5.68802 Y-2.62050
G01 X5.68697 Y-2.62082
G01 X5.68600 Y-2.62134
G01 X5.68477 Y-2.62234
G01 X5.54750 Y-2.75961
G01 X5.54601 Y-2.76083
G01 X5.54431 Y-2.76174
G01 X5.54246 Y-2.76230
G01 X5.54054 Y-2.76249
G01 X5.18521 Y-2.76249
G01 X5.18363 Y-2.76265
G01 X5.18258 Y-2.76297
G01 X5.18161 Y-2.76348
G01 X5.18038 Y-2.76449
G01 X5.13851 Y-2.80637
G01 X5.13750 Y-2.80759
G01 X5.13698 Y-2.80856
G01 X5.13666 Y-2.80962
G01 X5.13651 Y-2.81119
G01 X5.13651 Y-3.21714
G04 P0 ( dwell for no time -- G64 should not smooth over this point )
G00 Z0.08000 ( retract )

G00 X5.19456 Y-2.95000 ( rapid move to begin. )
G01 F180.00000
( Mill infeed pass 1/1 )
G01 Z-0.04000
G04 P0 ( dwell for no time -- G64 should not smooth over this point )
G01 F360.00000
G01 X5.19456 Y-2.95000
G01 X5.19521 Y-2.94387
G01 X5.19711 Y-2.93802
G01 X5.20019 Y-2.93269
G01 X5.20431 Y-2.92811
G01 X5.20929 Y-2.92449
G01 X5.21491 Y-2.92199
G01 X5.22094 Y-2.92071
G01 X5.22709 Y-2.92071
G01 X5.23312 Y-2.92199
G01 X5.23608 Y-2.92315
G01 X5.23775 Y-2.92342
G01 X5.23944 Y-2.92340
G01 X5.24111 Y-2.92309
G01 X5.24269 Y-2.92251
G01 X5.24415 Y-2.92165
G01 X5.24545 Y-2.92056
G01 X5.31967 Y-2.84634
G01 X5.32090 Y-2.84533
G01 X5.32187 Y-2.84482
G01 X5.32292 Y-2.84450
G01 X5.32450 Y-2.84434
G01 X5.34842 Y-2.84434
G01 X5.35034 Y-2.84415
G01 X5.35219 Y-2.84359
G01 X5.35389 Y-2.84268
G01 X5.35538 Y-2.84146
G01 X5.35661 Y-2.83997
G01 X5.35752 Y-2.83827
G01 X5.35808 Y-2.83642
G01 X5.35827 Y-2.83425
G01 X5.38976 Y-2.83425
G01 X5.38976 Y-2.86575
G01 X5.35827 Y-2.86575
G01 X5.35812 Y-2.86379
G01 X5.35767 Y-2.86213
G01 X5.35695 Y-2.86058
G01 X5.35596 Y-2.85917
G01 X5.35475 Y-2.85796
G01 X5.35335 Y-2.85698
G01 X5.35179 Y-2.85625
G01 X5.35013 Y-2.85581
G01 X5.34842 Y-2.85566
G01 X5.33044 Y-2.85566
G01 X5.32852 Y-2.85585
G01 X5.32667 Y-2.85641
G01 X5.32497 Y-2.85732
G01 X5.32348 Y-2.85854
G01 X5.25349 Y-2.92853
G01 X5.25234 Y-2.92991
G01 X5.25146 Y-2.93148
G01 X5.25088 Y-2.93319
G01 X5.25062 Y-2.93497
G01 X5.25069 Y-2.93677
G01 X5.25109 Y-2.93853
G01 X5.25282 Y-2.94388
G01 X5.25347 Y-2.95000
G01 X5.25282 Y-2.95612
G01 X5.25092 Y-2.96198
G01 X5.24784 Y-2.96731
G01 X5.24372 Y-2.97189
G01 X5.23874 Y-2.97551
G01 X5.23551 Y-2.97695
G01 X5.23387 Y-2.97787
G01 X5.23243 Y-2.97910
G01 X5.23126 Y-2.98058
G01 X5.23039 Y-2.98225
G01 X5.22985 Y-2.98406
G01 X5.22967 Y-2.98594
G01 X5.22967 Y-3.17379
G01 X5.22986 Y-3.17571
G01 X5.23042 Y-3.17756
G01 X5.23133 Y-3.17926
G01 X5.23256 Y-3.18075
G01 X5.29326 Y-3.24146
G01 X5.29444 Y-3.24246
G01 X5.29575 Y-3.24327
G01 X5.29718 Y-3.24386
G01 X5.29868 Y-3.24422
G01 X5.30022 Y-3.24434
G01 X5.32974 Y-3.24434
G01 X5.33159 Y-3.24417
G01 X5.33337 Y-3.24365
G01 X5.33502 Y-3.24281
G01 X5.33648 Y-3.24167
G01 X5.33771 Y-3.24029
G01 X5.33924 Y-3.23818
G01 X5.34198 Y-3.23571
G01 X5.34518 Y-3.23386
G01 X5.34869 Y-3.23272
G01 X5.35288 Y-3.23228
G01 X5.39515 Y-3.23228
G01 X5.39934 Y-3.23272
G01 X5.40285 Y-3.23386
G01 X5.40605 Y-3.23571
G01 X5.40879 Y-3.23818
G01 X5.41096 Y-3.24117
G01 X5.41247 Y-3.24454
G01 X5.41323 Y-3.24815
G01 X5.41323 Y-3.25185
G01 X5.41247 Y-3.25546
G01 X5.41096 Y-3.25883
G01 X5.40879 Y-3.26182
G01 X5.40605 Y-3.26429
G01 X5.40285 Y-3.26613
G01 X5.39934 Y-3.26728
G01 X5.39515 Y-3.26772
G01 X5.35288 Y-3.26772
G01 X5.34869 Y-3.26728
G01 X5.34518 Y-3.26613
G01 X5.34198 Y-3.26429
G01 X5.33924 Y-3.26182
G01 X5.33771 Y-3.25971
G01 X5.33648 Y-3.25833
G01 X5.33502 Y-3.25719
G01 X5.33337 Y-3.25635
G01 X5.33159 Y-3.25583
G01 X5.32974 Y-3.25566
G01 X5.29419 Y-3.25566
G01 X5.29292 Y-3.25556
G01 X5.29125 Y-3.25501
G01 X5.28953 Y-3.25373
G01 X5.22036 Y-3.18455
G01 X5.21935 Y-3.18333
G01 X5.21883 Y-3.18236
G01 X5.21851 Y-3.18131
G01 X5.21836 Y-3.17973
G01 X5.21836 Y-2.98594
G01 X5.21818 Y-2.98406
G01 X5.21764 Y-2.98225
G01 X5.21677 Y-2.98058
G01 X5.21560 Y-2.97910
G01 X5.21416 Y-2.97787
G01 X5.21252 Y-2.97695
G01 X5.20929 Y-2.97551
G01 X5.20431 Y-2.97189
G01 X5.20019 Y-2.96731
G01 X5.19711 Y-2.96198
G01 X5.19527 Y-2.95634
G01 X5.19456 Y-2.95000
G01 X5.21238 Y-2.95000
G01 X5.21263 Y-2.94758
G01 X5.21338 Y-2.94527
G01 X5.21460 Y-2.94316
G01 X5.21623 Y-2.94135
G01 X5.21820 Y-2.93992
G01 X5.22042 Y-2.93893
G01 X5.22280 Y-2.93842
G01 X5.22523 Y-2.93842
G01 X5.22786 Y-2.93898
G01 X5.23175 Y-2.94033
G01 X5.23347 Y-2.94061
G01 X5.23424 Y-2.94400
G01 X5.23540 Y-2.94758
G01 X5.23565 Y-2.95000
G01 X5.23540 Y-2.95242
G01 X5.23465 Y-2.95473
G01 X5.23343 Y-2.95684
G01 X5.23180 Y-2.95865
G01 X5.22983 Y-2.96008
G01 X5.22831 Y-2.96076
G01 X5.22401 Y-2.96319
G01 X5.21972 Y-2.96076
G01 X5.21820 Y-2.96008
G01 X5.21623 Y-2.95865
G01 X5.21460 Y-2.95684
G01 X5.21338 Y-2.95473
G01 X5.21263 Y-2.95242
G01 X5.21238 Y-2.95000
G04 P0 ( dwell for no time -- G64 should not smooth over this point )
G00 Z0.08000 ( retract )

G00 X5.45675 Y-2.85000 ( rapid move to begin. )
G01 F180.00000
( Mill infeed pass 1/1 )
G01 Z-0.04000
G04 P0 ( dwell for no time -- G64 should not smooth over this point )
G01 F360.00000
G01 X5.45675 Y-2.85000
G01 X5.45709 Y-2.84674
G01 X5.45810 Y-2.84362
G01 X5.45974 Y-2.84077
G01 X5.46194 Y-2.83834
G01 X5.46459 Y-2.83641
G01 X5.46759 Y-2.83507
G01 X5.46952 Y-2.83466
G01 X5.47080 Y-2.83439
G01 X5.47408 Y-2.83439
G01 X5.47729 Y-2.83507
G01 X5.48029 Y-2.83641
G01 X5.48294 Y-2.83834
G01 X5.48514 Y-2.84077
G01 X5.48678 Y-2.84362
G01 X5.48779 Y-2.84674
G01 X5.48813 Y-2.85000
G01 X5.48787 Y-2.85404
G01 X5.48815 Y-2.85577
G01 X5.48873 Y-2.85742
G01 X5.48960 Y-2.85894
G01 X5.49072 Y-2.86028
G01 X5.57190 Y-2.94146
G01 X5.57339 Y-2.94268
G01 X5.57509 Y-2.94359
G01 X5.57694 Y-2.94415
G01 X5.57886 Y-2.94434
G01 X5.58790 Y-2.94434
G01 X5.58966 Y-2.94418
G01 X5.59136 Y-2.94371
G01 X5.59295 Y-2.94295
G01 X5.59438 Y-2.94191
G01 X5.59560 Y-2.94064
G01 X5.59657 Y-2.93916
G01 X5.60019 Y-2.93269
G01 X5.60431 Y-2.92811
G01 X5.60929 Y-2.92449
G01 X5.61491 Y-2.92199
G01 X5.62094 Y-2.92071
G01 X5.62709 Y-2.92071
G01 X5.63312 Y-2.92199
G01 X5.63874 Y-2.92449
G01 X5.64372 Y-2.92811
G01 X5.64784 Y-2.93269
G01 X5.65146 Y-2.93916
G01 X5.65243 Y-2.94064
G01 X5.65365 Y-2.94191
G01 X5.65508 Y-2.94295
G01 X5.65667 Y-2.94371
G01 X5.65837 Y-2.94418
G01 X5.66013 Y-2.94434
G01 X5.96339 Y-2.94434
G01 X5.96493 Y-2.94422
G01 X5.96644 Y-2.94386
G01 X5.96786 Y-2.94327
G01 X5.96918 Y-2.94246
G01 X5.97035 Y-2.94146
G01 X6.12663 Y-2.78518
G01 X6.12760 Y-2.78436
G01 X6.12917 Y-2.78356
G01 X6.13129 Y-2.78325
G01 X6.62322 Y-2.78325
G01 X6.62480 Y-2.78341
G01 X6.62585 Y-2.78373
G01 X6.62682 Y-2.78424
G01 X6.62804 Y-2.78525
G01 X6.75342 Y-2.91076
G01 X6.75422 Y-2.91233
G01 X6.75452 Y-2.91446
G01 X6.75442 Y-2.98681
G01 X6.75388 Y-2.98848
G01 X6.75259 Y-2.99021
G01 X6.56788 Y-3.17492
G01 X6.56665 Y-3.17592
G01 X6.56568 Y-3.17644
G01 X6.56463 Y-3.17676
G01 X6.56305 Y-3.17692
G01 X6.51829 Y-3.17692
G01 X6.51644 Y-3.17709
G01 X6.51466 Y-3.17761
G01 X6.51301 Y-3.17845
G01 X6.51155 Y-3.17958
G01 X6.51032 Y-3.18097
G01 X6.50879 Y-3.18308
G01 X6.50605 Y-3.18555
G01 X6.50285 Y-3.18739
G01 X6.49934 Y-3.18854
G01 X6.49515 Y-3.18898
G01 X6.45288 Y-3.18898
G01 X6.44869 Y-3.18854
G01 X6.44518 Y-3.18739
G01 X6.44198 Y-3.18555
G01 X6.43924 Y-3.18308
G01 X6.43707 Y-3.18009
G01 X6.43556 Y-3.17672
G01 X6.43480 Y-3.17311
G01 X6.43480 Y-3.16941
G01 X6.43556 Y-3.16580
G01 X6.43707 Y-3.16243
G01 X6.43924 Y-3.15944
G01 X6.44198 Y-3.15697
G01 X6.44518 Y-3.15512
G01 X6.44869 Y-3.15398
G01 X6.45288 Y-3.15354
G01 X6.49515 Y-3.15354
G01 X6.49934 Y-3.15398
G01 X6.50285 Y-3.15512
G01 X6.50605 Y-3.15697
G01 X6.50879 Y-3.15944
G01 X6.51032 Y-3.16154
G01 X6.51155 Y-3.16293
G01 X6.51301 Y-3.16407
G01 X6.51466 Y-3.16491
G01 X6.51644 Y-3.16543
G01 X6.51828 Y-3.16560
G01 X6.55711 Y-3.16560
G01 X6.55903 Y-3.16541
G01 X6.56088 Y-3.16485
G01 X6.56258 Y-3.16394
G01 X6.56407 Y-3.16272
G01 X6.74032 Y-2.98647
G01 X6.74133 Y-2.98529
G01 X6.74213 Y-2.98398
G01 X6.74273 Y-2.98255
G01 X6.74309 Y-2.98105
G01 X6.74321 Y-2.97951
G01 X6.74321 Y-2.92049
G01 X6.74309 Y-2.91895
G01 X6.74273 Y-2.91745
G01 X6.74213 Y-2.91602
G01 X6.74133 Y-2.91471
G01 X6.74032 Y-2.91353
G01 X6.62424 Y-2.79745
G01 X6.62275 Y-2.79623
G01 X6.62105 Y-2.79531
G01 X6.61920 Y-2.79475
G01 X6.61728 Y-2.79457
G01 X6.13732 Y-2.79457
G01 X6.13578 Y-2.79469
G01 X6.13428 Y-2.79505
G01 X6.13285 Y-2.79564
G01 X6.13154 Y-2.79645
G01 X6.13036 Y-2.79745
G01 X5.97409 Y-2.95373
G01 X5.97312 Y-2.95455
G01 X5.97155 Y-2.95535
G01 X5.96943 Y-2.95566
G01 X5.66013 Y-2.95566
G01 X5.65837 Y-2.95581
G01 X5.65667 Y-2.95628
G01 X5.65508 Y-2.95705
G01 X5.65365 Y-2.95809
G01 X5.65243 Y-2.95936
G01 X5.65146 Y-2.96083
G01 X5.64784 Y-2.96731
G01 X5.64372 Y-2.97189
G01 X5.63874 Y-2.97551
G01 X5.63312 Y-2.97801
G01 X5.62709 Y-2.97929
G01 X5.62094 Y-2.97929
G01 X5.61883 Y-2.97884
G01 X5.61491 Y-2.97801
G01 X5.60929 Y-2.97551
G01 X5.60431 Y-2.97189
G01 X5.60019 Y-2.96731
G01 X5.59657 Y-2.96083
G01 X5.59560 Y-2.95936
G01 X5.59438 Y-2.95809
G01 X5.59295 Y-2.95705
G01 X5.59136 Y-2.95628
G01 X5.58966 Y-2.95581
G01 X5.58790 Y-2.95566
G01 X5.57292 Y-2.95566
G01 X5.57135 Y-2.95550
G01 X5.57029 Y-2.95518
G01 X5.56932 Y-2.95466
G01 X5.56810 Y-2.95366
G01 X5.48278 Y-2.86834
G01 X5.48154 Y-2.86729
G01 X5.48013 Y-2.86645
G01 X5.47862 Y-2.86586
G01 X5.47702 Y-2.86553
G01 X5.47539 Y-2.86547
G01 X5.47429 Y-2.86561
G01 X5.47080 Y-2.86561
G01 X5.46759 Y-2.86492
G01 X5.46459 Y-2.86359
G01 X5.46194 Y-2.86166
G01 X5.45974 Y-2.85922
G01 X5.45810 Y-2.85638
G01 X5.45709 Y-2.85326
G01 X5.45675 Y-2.85000
G04 P0 ( dwell for no time -- G64 should not smooth over this point )
G00 Z0.08000 ( retract )

G00 X5.61056 Y-2.95000 ( rapid move to begin. )
G01 F180.00000
( Mill infeed pass 1/1 )
G01 Z-0.04000
G04 P0 ( dwell for no time -- G64 should not smooth over this point )
G01 F360.00000
G01 X5.61056 Y-2.95000
G01 X5.61217 Y-2.95244
G01 X5.61460 Y-2.95684
G01 X5.61623 Y-2.95865
G01 X5.61820 Y-2.96008
G01 X5.62042 Y-2.96107
G01 X5.62280 Y-2.96157
G01 X5.62523 Y-2.96157
G01 X5.62761 Y-2.96107
G01 X5.62983 Y-2.96008
G01 X5.63180 Y-2.95865
G01 X5.63343 Y-2.95684
G01 X5.63586 Y-2.95244
G01 X5.63747 Y-2.95000
G01 X5.63586 Y-2.94756
G01 X5.63343 Y-2.94316
G01 X5.63180 Y-2.94135
G01 X5.62983 Y-2.93992
G01 X5.62761 Y-2.93893
G01 X5.62523 Y-2.93842
G01 X5.62280 Y-2.93842
G01 X5.62042 Y-2.93893
G01 X5.61820 Y-2.93992
G01 X5.61623 Y-2.94135
G01 X5.61460 Y-2.94316
G01 X5.61217 Y-2.94756
G01 X5.61056 Y-2.95000
G04 P0 ( dwell for no time -- G64 should not smooth over this point )
G00 Z0.08000 ( retract )

G00 X5.93267 Y-2.78544 ( rapid move to begin. )
G01 F180.00000
( Mill infeed pass 1/1 )
G01 Z-0.04000
G04 P0 ( dwell for no time -- G64 should not smooth over this point )
G01 F360.00000
G01 X5.93267 Y-2.78544
G01 X5.93267 Y-2.70276
G01 X5.98840 Y-2.70276
G01 X5.99264 Y-2.70243
G01 X5.99678 Y-2.70145
G01 X6.00072 Y-2.69985
G01 X6.01536 Y-2.69253
G01 X6.01536 Y-2.78544
G01 X5.93267 Y-2.78544
G01 X5.95039 Y-2.76772
G01 X5.95039 Y-2.72047
G01 X5.98840 Y-2.72047
G01 X5.99537 Y-2.71993
G01 X5.99764 Y-2.71940
G01 X5.99764 Y-2.76772
G01 X5.95039 Y-2.76772
G01 X5.96811 Y-2.75001
G01 X5.97992 Y-2.75001
G01 X5.97992 Y-2.73819
G01 X5.96811 Y-2.73819
G01 X5.96811 Y-2.75001
G04 P0 ( dwell for no time -- G64 should not smooth over this point )
G00 Z0.08000 ( retract )

G00 X6.25681 Y-2.94797 ( rapid move to begin. )
G01 F180.00000
( Mill infeed pass 1/1 )
G01 Z-0.04000
G04 P0 ( dwell for no time -- G64 should not smooth over this point )
G01 F360.00000
G01 X6.25681 Y-2.94797
G01 X6.27076 Y-2.93402
G01 X6.27395 Y-2.93674
G01 X6.27855 Y-2.93935
G01 X6.27983 Y-2.93992
G01 X6.28180 Y-2.94135
G01 X6.28343 Y-2.94316
G01 X6.28465 Y-2.94527
G01 X6.28540 Y-2.94758
G01 X6.28565 Y-2.95000
G01 X6.28540 Y-2.95242
G01 X6.28465 Y-2.95473
G01 X6.28343 Y-2.95684
G01 X6.28180 Y-2.95865
G01 X6.27983 Y-2.96008
G01 X6.27761 Y-2.96107
G01 X6.27523 Y-2.96157
G01 X6.27280 Y-2.96157
G01 X6.27042 Y-2.96107
G01 X6.26820 Y-2.96008
G01 X6.26623 Y-2.95865
G01 X6.26460 Y-2.95684
G01 X6.26132 Y-2.95209
G01 X6.25771 Y-2.94857
G01 X6.25681 Y-2.94797
( Piece #3, position [0;1] )

G04 P0 ( dwell for no time -- G64 should not smooth over this point )
G00 Z0.08000 ( retract )

G00 X5.19456 Y-1.17598 ( rapid move to begin. )
G01 F180.00000
( Mill infeed pass 1/1 )
G01 Z-0.04000
G04 P0 ( dwell for no time -- G64 should not smooth over this point )
G01 F360.00000
G01 X5.19456 Y-1.17598
G01 X5.19521 Y-1.18211
G01 X5.19711 Y-1.18796
G01 X5.20019 Y-1.19330
G01 X5.20225 Y-1.19558
G01 X5.20431 Y-1.19787
G01 X5.20929 Y-1.20149
G01 X5.21491 Y-1.20400
G01 X5.22094 Y-1.20528
G01 X5.22709 Y-1.20528
G01 X5.23312 Y-1.20400
G01 X5.23874 Y-1.20149
G01 X5.24372 Y-1.19787
G01 X5.24782 Y-1.19332
G01 X5.25149 Y-1.18687
G01 X5.25247 Y-1.18545
G01 X5.25369 Y-1.18422
G01 X5.25510 Y-1.18323
G01 X5.25666 Y-1.18249
G01 X5.25833 Y-1.18204
G01 X5.26005 Y-1.18189
G01 X5.58798 Y-1.18189
G01 X5.58970 Y-1.18204
G01 X5.59137 Y-1.18249
G01 X5.59293 Y-1.18323
G01 X5.59434 Y-1.18422
G01 X5.59556 Y-1.18545
G01 X5.59654 Y-1.18687
G01 X5.60021 Y-1.19332
G01 X5.60431 Y-1.19787
G01 X5.60929 Y-1.20149
G01 X5.61491 Y-1.20400
G01 X5.62094 Y-1.20528
G01 X5.62709 Y-1.20528
G01 X5.63312 Y-1.20400
G01 X5.63874 Y-1.20149
G01 X5.64372 Y-1.19787
G01 X5.64784 Y-1.19330
G01 X5.65092 Y-1.18796
G01 X5.65282 Y-1.18211
G01 X5.65347 Y-1.17598
G01 X5.65282 Y-1.16986
G01 X5.65109 Y-1.16451
G01 X5.65069 Y-1.16276
G01 X5.65062 Y-1.16096
G01 X5.65088 Y-1.15917
G01 X5.65146 Y-1.15747
G01 X5.65234 Y-1.15590
G01 X5.65349 Y-1.15451
G01 X5.76998 Y-1.03802
G01 X5.77115 Y-1.03702
G01 X5.77247 Y-1.03621
G01 X5.77389 Y-1.03562
G01 X5.77540 Y-1.03526
G01 X5.77694 Y-1.03514
G01 X6.12109 Y-1.03514
G01 X6.12301 Y-1.03533
G01 X6.12486 Y-1.03589
G01 X6.12656 Y-1.03680
G01 X6.12805 Y-1.03802
G01 X6.24454 Y-1.15451
G01 X6.24569 Y-1.15590
G01 X6.24657 Y-1.15747
G01 X6.24715 Y-1.15917
G01 X6.24741 Y-1.16096
G01 X6.24734 Y-1.16276
G01 X6.24694 Y-1.16451
G01 X6.24521 Y-1.16986
G01 X6.24456 Y-1.17598
G01 X6.24469 Y-1.17862
G01 X6.24443 Y-1.18030
G01 X6.24388 Y-1.18191
G01 X6.24306 Y-1.18340
G01 X6.24200 Y-1.18473
G01 X6.24072 Y-1.18586
G01 X6.23927 Y-1.18675
G01 X5.99280 Y-1.30999
G01 X5.99139 Y-1.31056
G01 X5.98991 Y-1.31091
G01 X5.98840 Y-1.31103
G01 X5.91496 Y-1.31103
G01 X5.91496 Y-1.42914
G01 X6.03307 Y-1.42914
G01 X6.03307 Y-1.30914
G01 X6.03324 Y-1.30734
G01 X6.03374 Y-1.30559
G01 X6.03454 Y-1.30397
G01 X6.03563 Y-1.30252
G01 X6.03697 Y-1.30130
G01 X6.03851 Y-1.30034
G01 X6.24453 Y-1.19733
G01 X6.24620 Y-1.19668
G01 X6.24795 Y-1.19634
G01 X6.24974 Y-1.19632
G01 X6.25150 Y-1.19663
G01 X6.25318 Y-1.19726
G01 X6.25472 Y-1.19817
G01 X6.25929 Y-1.20149
G01 X6.26491 Y-1.20400
G01 X6.27094 Y-1.20528
G01 X6.27709 Y-1.20528
G01 X6.28312 Y-1.20400
G01 X6.28874 Y-1.20149
G01 X6.29372 Y-1.19787
G01 X6.29782 Y-1.19332
G01 X6.30149 Y-1.18687
G01 X6.30247 Y-1.18545
G01 X6.30369 Y-1.18422
G01 X6.30510 Y-1.18323
G01 X6.30666 Y-1.18249
G01 X6.30833 Y-1.18204
G01 X6.31005 Y-1.18189
G01 X6.63798 Y-1.18189
G01 X6.63970 Y-1.18204
G01 X6.64137 Y-1.18249
G01 X6.64293 Y-1.18323
G01 X6.64434 Y-1.18422
G01 X6.64556 Y-1.18545
G01 X6.64654 Y-1.18687
G01 X6.65021 Y-1.19332
G01 X6.65431 Y-1.19787
G01 X6.65929 Y-1.20149
G01 X6.66491 Y-1.20400
G01 X6.67094 Y-1.20528
G01 X6.67709 Y-1.20528
G01 X6.68312 Y-1.20400
G01 X6.68874 Y-1.20149
G01 X6.69372 Y-1.19787
G01 X6.69696 Y-1.19428
G01 X6.69784 Y-1.19330
G01 X6.70092 Y-1.18796
G01 X6.70282 Y-1.18211
G01 X6.70347 Y-1.17598
G01 X6.70282 Y-1.16986
G01 X6.70092 Y-1.16400
G01 X6.69784 Y-1.15867
G01 X6.69372 Y-1.15410
G01 X6.68874 Y-1.15048
G01 X6.68312 Y-1.14797
G01 X6.67709 Y-1.14669
G01 X6.67094 Y-1.14669
G01 X6.66491 Y-1.14797
G01 X6.65929 Y-1.15048
G01 X6.65431 Y-1.15410
G01 X6.65021 Y-1.15865
G01 X6.64654 Y-1.16510
G01 X6.64556 Y-1.16652
G01 X6.64434 Y-1.16775
G01 X6.64293 Y-1.16874
G01 X6.64137 Y-1.16948
G01 X6.63970 Y-1.16993
G01 X6.63798 Y-1.17008
G01 X6.31005 Y-1.17008
G01 X6.30833 Y-1.16993
G01 X6.30666 Y-1.16948
G01 X6.30510 Y-1.16874
G01 X6.30369 Y-1.16775
G01 X6.30247 Y-1.16652
G01 X6.30149 Y-1.16510
G01 X6.29782 Y-1.15865
G01 X6.29372 Y-1.15410
G01 X6.28874 Y-1.15048
G01 X6.28312 Y-1.14797
G01 X6.27709 Y-1.14669
G01 X6.27094 Y-1.14669
G01 X6.26491 Y-1.14797
G01 X6.26195 Y-1.14913
G01 X6.26028 Y-1.14941
G01 X6.25859 Y-1.14939
G01 X6.25692 Y-1.14908
G01 X6.25534 Y-1.14849
G01 X6.25388 Y-1.14764
G01 X6.25258 Y-1.14655
G01 X6.13179 Y-1.02576
G01 X6.13082 Y-1.02493
G01 X6.12925 Y-1.02413
G01 X6.12713 Y-1.02383
G01 X5.77090 Y-1.02383
G01 X5.76963 Y-1.02393
G01 X5.76849 Y-1.02425
G01 X5.76721 Y-1.02493
G01 X5.76624 Y-1.02576
G01 X5.64545 Y-1.14655
G01 X5.64415 Y-1.14764
G01 X5.64269 Y-1.14849
G01 X5.64111 Y-1.14908
G01 X5.63944 Y-1.14939
G01 X5.63775 Y-1.14941
G01 X5.63608 Y-1.14913
G01 X5.63312 Y-1.14797
G01 X5.62709 Y-1.14669
G01 X5.62094 Y-1.14669
G01 X5.61491 Y-1.14797
G01 X5.60929 Y-1.15048
G01 X5.60431 Y-1.15410
G01 X5.60021 Y-1.15865
G01 X5.59654 Y-1.16510
G01 X5.59556 Y-1.16652
G01 X5.59434 Y-1.16775
G01 X5.59293 Y-1.16874
G01 X5.59137 Y-1.16948
G01 X5.58970 Y-1.16993
G01 X5.58798 Y-1.17008
G01 X5.26005 Y-1.17008
G01 X5.25833 Y-1.16993
G01 X5.25666 Y-1.16948
G01 X5.25510 Y-1.16874
G01 X5.25369 Y-1.16775
G01 X5.25247 Y-1.16652
G01 X5.25149 Y-1.16510
G01 X5.24782 Y-1.15865
G01 X5.24372 Y-1.15410
G01 X5.23874 Y-1.15048
G01 X5.23312 Y-1.14797
G01 X5.22775 Y-1.14683
G01 X5.22709 Y-1.14669
G01 X5.22094 Y-1.14669
G01 X5.21491 Y-1.14797
G01 X5.20929 Y-1.15048
G01 X5.20431 Y-1.15410
G01 X5.20393 Y-1.15451
G01 X5.20019 Y-1.15867
G01 X5.19711 Y-1.16400
G01 X5.19521 Y-1.16986
G01 X5.19456 Y-1.17598
G01 X5.21238 Y-1.17598
G01 X5.21263 Y-1.17840
G01 X5.21338 Y-1.18072
G01 X5.21460 Y-1.18283
G01 X5.21623 Y-1.18463
G01 X5.21820 Y-1.18606
G01 X5.22042 Y-1.18705
G01 X5.22280 Y-1.18756
G01 X5.22523 Y-1.18756
G01 X5.22761 Y-1.18705
G01 X5.22983 Y-1.18606
G01 X5.23180 Y-1.18463
G01 X5.23337 Y-1.18289
G01 X5.23609 Y-1.17811
G01 X5.23756 Y-1.17598
G01 X5.23609 Y-1.17386
G01 X5.23337 Y-1.16907
G01 X5.23180 Y-1.16733
G01 X5.22983 Y-1.16590
G01 X5.22761 Y-1.16491
G01 X5.22523 Y-1.16441
G01 X5.22280 Y-1.16441
G01 X5.22042 Y-1.16491
G01 X5.21820 Y-1.16590
G01 X5.21623 Y-1.16733
G01 X5.21460 Y-1.16914
G01 X5.21338 Y-1.17125
G01 X5.21263 Y-1.17356
G01 X5.21238 Y-1.17598
G01 X5.61047 Y-1.17598
G01 X5.61194 Y-1.17811
G01 X5.61466 Y-1.18289
G01 X5.61623 Y-1.18463
G01 X5.61820 Y-1.18606
G01 X5.62042 Y-1.18705
G01 X5.62280 Y-1.18756
G01 X5.62523 Y-1.18756
G01 X5.62761 Y-1.18705
G01 X5.62983 Y-1.18606
G01 X5.63180 Y-1.18463
G01 X5.63343 Y-1.18282
G01 X5.63465 Y-1.18072
G01 X5.63540 Y-1.17840
G01 X5.63565 Y-1.17598
G01 X5.63540 Y-1.17356
G01 X5.63424 Y-1.16999
G01 X5.63347 Y-1.16659
G01 X5.63175 Y-1.16631
G01 X5.62786 Y-1.16497
G01 X5.62523 Y-1.16441
G01 X5.62280 Y-1.16441
G01 X5.62042 Y-1.16491
G01 X5.61820 Y-1.16590
G01 X5.61623 Y-1.16733
G01 X5.61466 Y-1.16907
G01 X5.61194 Y-1.17386
G01 X5.61047 Y-1.17598
G04 P0 ( dwell for no time -- G64 should not smooth over this point )
G00 Z0.08000 ( retract )

G00 X5.74278 Y-1.25198 ( rapid move to begin. )
G01 F180.00000
( Mill infeed pass 1/1 )
G01 Z-0.04000
G04 P0 ( dwell for no time -- G64 should not smooth over this point )
G01 F360.00000
G01 X5.74278 Y-1.25198
G01 X5.74398 Y-1.25370
G01 X5.74601 Y-1.25806
G01 X5.74726 Y-1.26270
G01 X5.74767 Y-1.26748
G01 X5.74767 Y-1.29332
G01 X5.83036 Y-1.29332
G01 X5.83036 Y-1.21064
G01 X5.74767 Y-1.21064
G01 X5.74767 Y-1.23648
G01 X5.74726 Y-1.24127
G01 X5.74601 Y-1.24591
G01 X5.74398 Y-1.25026
G01 X5.74278 Y-1.25198
G01 X5.76265 Y-1.25198
G01 X5.76470 Y-1.25962
G01 X5.76539 Y-1.26748
G01 X5.76539 Y-1.27561
G01 X5.81264 Y-1.27561
G01 X5.81264 Y-1.22836
G01 X5.76539 Y-1.22836
G01 X5.76539 Y-1.23648
G01 X5.76470 Y-1.24435
G01 X5.76265 Y-1.25198
G01 X5.78093 Y-1.25198
G01 X5.78215 Y-1.24742
G01 X5.78227 Y-1.24608
G01 X5.79492 Y-1.24608
G01 X5.79492 Y-1.25789
G01 X5.78227 Y-1.25789
G01 X5.78215 Y-1.25655
G01 X5.78093 Y-1.25198
G04 P0 ( dwell for no time -- G64 should not smooth over this point )
G00 Z0.08000 ( retract )

G00 X5.92433 Y-1.13820 ( rapid move to begin. )
G01 F180.00000
( Mill infeed pass 1/1 )
G01 Z-0.04000
G04 P0 ( dwell for no time -- G64 should not smooth over this point )
G01 F360.00000
G01 X5.92433 Y-1.13820
G01 X5.92553 Y-1.13709
G01 X5.92858 Y-1.13304
G01 X5.93083 Y-1.12850
G01 X5.93221 Y-1.12363
G01 X5.93267 Y-1.11858
G01 X5.93267 Y-1.09254
G01 X6.01536 Y-1.09254
G01 X6.01536 Y-1.17522
G01 X5.93267 Y-1.17522
G01 X5.93267 Y-1.15780
G01 X5.93222 Y-1.15284
G01 X5.93088 Y-1.14803
G01 X5.92870 Y-1.14355
G01 X5.92574 Y-1.13953
G01 X5.92433 Y-1.13820
G01 X5.94571 Y-1.13819
G01 X5.94736 Y-1.13488
G01 X5.94963 Y-1.12687
G01 X5.95039 Y-1.11858
G01 X5.95039 Y-1.11026
G01 X5.99764 Y-1.11026
G01 X5.99764 Y-1.15751
G01 X5.95036 Y-1.15751
G01 X5.94965 Y-1.14964
G01 X5.94745 Y-1.14175
G01 X5.94571 Y-1.13819
G01 X5.96476 Y-1.13816
G01 X5.96704 Y-1.13011
G01 X5.96724 Y-1.12798
G01 X5.97992 Y-1.12798
G01 X5.97992 Y-1.13979
G01 X5.96522 Y-1.13979
G01 X5.96476 Y-1.13816
G04 P0 ( dwell for no time -- G64 should not smooth over this point )
G00 Z0.08000 ( retract )

G00 X6.26203 Y-1.18199 ( rapid move to begin. )
G01 F180.00000
( Mill infeed pass 1/1 )
G01 Z-0.04000
G04 P0 ( dwell for no time -- G64 should not smooth over this point )
G01 F360.00000
G01 X6.26203 Y-1.18199
G01 X6.26513 Y-1.18384
G01 X6.26820 Y-1.18606
G01 X6.27042 Y-1.18705
G01 X6.27280 Y-1.18756
G01 X6.27523 Y-1.18756
G01 X6.27761 Y-1.18705
G01 X6.27983 Y-1.18606
G01 X6.28180 Y-1.18463
G01 X6.28337 Y-1.18289
G01 X6.28609 Y-1.17811
G01 X6.28756 Y-1.17598
G01 X6.28609 Y-1.17386
G01 X6.28337 Y-1.16907
G01 X6.28180 Y-1.16733
G01 X6.27983 Y-1.16590
G01 X6.27761 Y-1.16491
G01 X6.27523 Y-1.16441
G01 X6.27280 Y-1.16441
G01 X6.27017 Y-1.16497
G01 X6.26628 Y-1.16631
G01 X6.26456 Y-1.16659
G01 X6.26379 Y-1.16999
G01 X6.26263 Y-1.17356
G01 X6.26231 Y-1.17663
G01 X6.26237 Y-1.17983
G01 X6.26203 Y-1.18199
G01 X6.66047 Y-1.17598
G01 X6.66194 Y-1.17811
G01 X6.66466 Y-1.18289
G01 X6.66623 Y-1.18463
G01 X6.66820 Y-1.18606
G01 X6.67042 Y-1.18705
G01 X6.67280 Y-1.18756
G01 X6.67523 Y-1.18756
G01 X6.67761 Y-1.18705
G01 X6.67983 Y-1.18606
G01 X6.68180 Y-1.18463
G01 X6.68343 Y-1.18282
G01 X6.68465 Y-1.18072
G01 X6.68540 Y-1.17840
G01 X6.68565 Y-1.17598
G01 X6.68540 Y-1.17356
G01 X6.68465 Y-1.17125
G01 X6.68343 Y-1.16914
G01 X6.68180 Y-1.16733
G01 X6.67983 Y-1.16590
G01 X6.67761 Y-1.16491
G01 X6.67523 Y-1.16441
G01 X6.67280 Y-1.16441
G01 X6.67042 Y-1.16491
G01 X6.66820 Y-1.16590
G01 X6.66623 Y-1.16733
G01 X6.66466 Y-1.16907
G01 X6.66194 Y-1.17386
G01 X6.66047 Y-1.17598
G04 P0 ( dwell for no time -- G64 should not smooth over this point )
G00 Z0.08000 ( retract )

G00 X6.66238 Y-1.57598 ( rapid move to begin. )
G01 F180.00000
( Mill infeed pass 1/1 )
G01 Z-0.04000
G04 P0 ( dwell for no time -- G64 should not smooth over this point )
G01 F360.00000
G01 X6.66238 Y-1.57598
G01 X6.66263 Y-1.57840
G01 X6.66338 Y-1.58072
G01 X6.66460 Y-1.58283
G01 X6.66623 Y-1.58463
G01 X6.66820 Y-1.58606
G01 X6.67042 Y-1.58705
G01 X6.67280 Y-1.58756
G01 X6.67523 Y-1.58756
G01 X6.67761 Y-1.58705
G01 X6.67983 Y-1.58606
G01 X6.68180 Y-1.58463
G01 X6.68343 Y-1.58283
G01 X6.68465 Y-1.58072
G01 X6.68540 Y-1.57840
G01 X6.68565 Y-1.57598
G01 X6.68540 Y-1.57356
G01 X6.68465 Y-1.57125
G01 X6.68343 Y-1.56914
G01 X6.68180 Y-1.56733
G01 X6.67983 Y-1.56590
G01 X6.67761 Y-1.56491
G01 X6.67523 Y-1.56441
G01 X6.67280 Y-1.56441
G01 X6.67017 Y-1.56497
G01 X6.66628 Y-1.56631
G01 X6.66456 Y-1.56659
G01 X6.66379 Y-1.56999
G01 X6.66263 Y-1.57356
G01 X6.66238 Y-1.57598
G04 P0 ( dwell for no time -- G64 should not smooth over this point )
G00 Z0.08000 ( retract )

G00 X6.38364 Y-1.87100 ( rapid move to begin. )
G01 F180.00000
( Mill infeed pass 1/1 )
G01 Z-0.04000
G04 P0 ( dwell for no time -- G64 should not smooth over this point )
G01 F360.00000
G01 X6.38364 Y-1.87100
G01 X6.38364 Y-1.66777
G01 X6.38380 Y-1.66619
G01 X6.38412 Y-1.66514
G01 X6.38464 Y-1.66417
G01 X6.38564 Y-1.66294
G01 X6.51547 Y-1.53311
G01 X6.51670 Y-1.53162
G01 X6.51761 Y-1.52992
G01 X6.51817 Y-1.52807
G01 X6.51836 Y-1.52615
G01 X6.51836 Y-1.50157
G01 X6.51821 Y-1.49987
G01 X6.51776 Y-1.49821
G01 X6.51704 Y-1.49665
G01 X6.51605 Y-1.49525
G01 X6.51484 Y-1.49403
G01 X6.51344 Y-1.49305
G01 X6.51188 Y-1.49233
G01 X6.51022 Y-1.49188
G01 X6.50827 Y-1.49173
G01 X6.50827 Y-1.46024
G01 X6.53976 Y-1.46024
G01 X6.53995 Y-1.46240
G01 X6.54051 Y-1.46425
G01 X6.54142 Y-1.46595
G01 X6.54265 Y-1.46744
G01 X6.54414 Y-1.46867
G01 X6.54584 Y-1.46958
G01 X6.54769 Y-1.47014
G01 X6.54961 Y-1.47033
G01 X6.57363 Y-1.47033
G01 X6.57490 Y-1.47043
G01 X6.57657 Y-1.47097
G01 X6.57829 Y-1.47226
G01 X6.65258 Y-1.54655
G01 X6.65388 Y-1.54764
G01 X6.65534 Y-1.54849
G01 X6.65692 Y-1.54908
G01 X6.65859 Y-1.54939
G01 X6.66028 Y-1.54941
G01 X6.66195 Y-1.54913
G01 X6.66491 Y-1.54797
G01 X6.67094 Y-1.54669
G01 X6.67709 Y-1.54669
G01 X6.68312 Y-1.54797
G01 X6.68874 Y-1.55048
G01 X6.69372 Y-1.55410
G01 X6.69784 Y-1.55867
G01 X6.70092 Y-1.56400
G01 X6.70282 Y-1.56986
G01 X6.70347 Y-1.57598
G01 X6.70282 Y-1.58211
G01 X6.70092 Y-1.58796
G01 X6.69784 Y-1.59330
G01 X6.69372 Y-1.59787
G01 X6.68874 Y-1.60149
G01 X6.68312 Y-1.60400
G01 X6.67709 Y-1.60528
G01 X6.67094 Y-1.60528
G01 X6.66491 Y-1.60400
G01 X6.65929 Y-1.60149
G01 X6.65431 Y-1.59787
G01 X6.65019 Y-1.59330
G01 X6.64711 Y-1.58796
G01 X6.64521 Y-1.58211
G01 X6.64456 Y-1.57598
G01 X6.64521 Y-1.56986
G01 X6.64694 Y-1.56451
G01 X6.64734 Y-1.56276
G01 X6.64741 Y-1.56096
G01 X6.64715 Y-1.55917
G01 X6.64657 Y-1.55747
G01 X6.64569 Y-1.55590
G01 X6.64454 Y-1.55451
G01 X6.57455 Y-1.48452
G01 X6.57338 Y-1.48352
G01 X6.57206 Y-1.48271
G01 X6.57064 Y-1.48212
G01 X6.56913 Y-1.48176
G01 X6.56759 Y-1.48164
G01 X6.54961 Y-1.48164
G01 X6.54790 Y-1.48179
G01 X6.54624 Y-1.48224
G01 X6.54468 Y-1.48296
G01 X6.54328 Y-1.48394
G01 X6.54207 Y-1.48516
G01 X6.54108 Y-1.48656
G01 X6.54036 Y-1.48812
G01 X6.53991 Y-1.48977
G01 X6.53976 Y-1.49173
G01 X6.53759 Y-1.49192
