( pcb2gcode 2.1.0 )
( Software-independent Gcode )

G94 ( Inches per minute feed rate. )
G20 ( Units == INCHES. )

G90 ( Absolute coordinates. )
G00 S12000 ( RPM spindle speed. )
G64 P0.00040 ( set maximum deviation from commanded toolpath )
G01 F360.00000 ( Feedrate. )


G00 Z1.00000 (Retract to tool change height)
T0
M5      (Spindle stop.)
G04 P1.00000 (Wait for spindle to stop)
(MSG, Change tool bit to mill diameter 0.01969in)
M6      (Tool change.)
M0      (Temporary machine stop.)
M3 ( Spindle on clockwise. )
G04 P1.00000 (Wait for spindle to get up to speed)
( Piece #1, position [0;0] )

G04 P0 ( dwell for no time -- G64 should not smooth over this point )
G00 Z0.08000 ( retract )

G00 X3.22055 Y-2.55000 ( rapid move to begin. )
G01 F180.00000
( Mill infeed pass 1/1 )
G01 Z-0.04000
G04 P0 ( dwell for no time -- G64 should not smooth over this point )
G01 F360.00000
G01 X3.22055 Y-2.55000
G01 X3.22119 Y-2.55612
G01 X3.22309 Y-2.56198
G01 X3.22617 Y-2.56731
G01 X3.22823 Y-2.56960
G01 X3.23029 Y-2.57189
G01 X3.23527 Y-2.57551
G01 X3.24090 Y-2.57801
G01 X3.24692 Y-2.57929
G01 X3.25308 Y-2.57929
G01 X3.25910 Y-2.57801
G01 X3.26473 Y-2.57551
G01 X3.26971 Y-2.57189
G01 X3.27381 Y-2.56734
G01 X3.27747 Y-2.56088
G01 X3.27846 Y-2.55946
G01 X3.27967 Y-2.55824
G01 X3.28108 Y-2.55724
G01 X3.28264 Y-2.55651
G01 X3.28431 Y-2.55606
G01 X3.28603 Y-2.55591
G01 X3.61397 Y-2.55591
G01 X3.61569 Y-2.55606
G01 X3.61735 Y-2.55651
G01 X3.61892 Y-2.55724
G01 X3.62033 Y-2.55824
G01 X3.62154 Y-2.55946
G01 X3.62252 Y-2.56088
G01 X3.62619 Y-2.56734
G01 X3.63029 Y-2.57189
G01 X3.63527 Y-2.57551
G01 X3.64090 Y-2.57801
G01 X3.64692 Y-2.57929
G01 X3.65308 Y-2.57929
G01 X3.65910 Y-2.57801
G01 X3.66473 Y-2.57551
G01 X3.66971 Y-2.57189
G01 X3.67383 Y-2.56731
G01 X3.67691 Y-2.56198
G01 X3.67881 Y-2.55612
G01 X3.67945 Y-2.55000
G01 X3.67881 Y-2.54388
G01 X3.67707 Y-2.53853
G01 X3.67667 Y-2.53677
G01 X3.67660 Y-2.53497
G01 X3.67686 Y-2.53319
G01 X3.67744 Y-2.53148
G01 X3.67832 Y-2.52991
G01 X3.67947 Y-2.52853
G01 X3.79596 Y-2.41204
G01 X3.79713 Y-2.41104
G01 X3.79845 Y-2.41023
G01 X3.79988 Y-2.40964
G01 X3.80138 Y-2.40928
G01 X3.80292 Y-2.40916
G01 X4.14708 Y-2.40916
G01 X4.14900 Y-2.40935
G01 X4.15085 Y-2.40991
G01 X4.15255 Y-2.41082
G01 X4.15404 Y-2.41204
G01 X4.27053 Y-2.52853
G01 X4.27168 Y-2.52991
G01 X4.27256 Y-2.53148
G01 X4.27314 Y-2.53319
G01 X4.27340 Y-2.53497
G01 X4.27332 Y-2.53677
G01 X4.27293 Y-2.53853
G01 X4.27119 Y-2.54388
G01 X4.27055 Y-2.55000
G01 X4.27067 Y-2.55263
G01 X4.27041 Y-2.55432
G01 X4.26986 Y-2.55593
G01 X4.26905 Y-2.55742
G01 X4.26798 Y-2.55875
G01 X4.26671 Y-2.55988
G01 X4.26526 Y-2.56077
G01 X4.01878 Y-2.68400
G01 X4.01738 Y-2.68458
G01 X4.01590 Y-2.68492
G01 X4.01438 Y-2.68504
G01 X3.94094 Y-2.68504
G01 X3.94094 Y-2.80316
G01 X4.05906 Y-2.80316
G01 X4.05906 Y-2.68316
G01 X4.05922 Y-2.68135
G01 X4.05972 Y-2.67961
G01 X4.06053 Y-2.67798
G01 X4.06162 Y-2.67654
G01 X4.06296 Y-2.67531
G01 X4.06450 Y-2.67435
G01 X4.27052 Y-2.57135
G01 X4.27218 Y-2.57070
G01 X4.27394 Y-2.57036
G01 X4.27573 Y-2.57034
G01 X4.27749 Y-2.57065
G01 X4.27917 Y-2.57127
G01 X4.28070 Y-2.57219
G01 X4.28527 Y-2.57551
G01 X4.29090 Y-2.57801
G01 X4.29692 Y-2.57929
G01 X4.30308 Y-2.57929
G01 X4.30910 Y-2.57801
G01 X4.31473 Y-2.57551
G01 X4.31971 Y-2.57189
G01 X4.32381 Y-2.56734
G01 X4.32747 Y-2.56088
G01 X4.32846 Y-2.55946
G01 X4.32967 Y-2.55824
G01 X4.33108 Y-2.55724
G01 X4.33264 Y-2.55651
G01 X4.33431 Y-2.55606
G01 X4.33603 Y-2.55591
G01 X4.66397 Y-2.55591
G01 X4.66569 Y-2.55606
G01 X4.66735 Y-2.55651
G01 X4.66892 Y-2.55724
G01 X4.67033 Y-2.55824
G01 X4.67154 Y-2.55946
G01 X4.67253 Y-2.56088
G01 X4.67619 Y-2.56734
G01 X4.68029 Y-2.57189
G01 X4.68527 Y-2.57551
G01 X4.69090 Y-2.57801
G01 X4.69692 Y-2.57929
G01 X4.70308 Y-2.57929
G01 X4.70910 Y-2.57801
G01 X4.71473 Y-2.57551
G01 X4.71971 Y-2.57189
G01 X4.72294 Y-2.56829
G01 X4.72383 Y-2.56731
G01 X4.72691 Y-2.56198
G01 X4.72881 Y-2.55612
G01 X4.72945 Y-2.55000
G01 X4.72881 Y-2.54388
G01 X4.72691 Y-2.53802
G01 X4.72383 Y-2.53269
G01 X4.71971 Y-2.52811
G01 X4.71473 Y-2.52449
G01 X4.70910 Y-2.52199
G01 X4.70308 Y-2.52071
G01 X4.69692 Y-2.52071
G01 X4.69090 Y-2.52199
G01 X4.68527 Y-2.52449
G01 X4.68029 Y-2.52811
G01 X4.67619 Y-2.53266
G01 X4.67253 Y-2.53911
G01 X4.67154 Y-2.54054
G01 X4.67033 Y-2.54176
G01 X4.66892 Y-2.54276
G01 X4.66735 Y-2.54349
G01 X4.66569 Y-2.54394
G01 X4.66397 Y-2.54409
G01 X4.33603 Y-2.54409
G01 X4.33431 Y-2.54394
G01 X4.33264 Y-2.54349
G01 X4.33108 Y-2.54276
G01 X4.32967 Y-2.54176
G01 X4.32846 Y-2.54054
G01 X4.32747 Y-2.53911
G01 X4.32381 Y-2.53266
G01 X4.31971 Y-2.52811
G01 X4.31473 Y-2.52449
G01 X4.30910 Y-2.52199
G01 X4.30308 Y-2.52071
G01 X4.29692 Y-2.52071
G01 X4.29090 Y-2.52199
G01 X4.28793 Y-2.52315
G01 X4.28626 Y-2.52342
G01 X4.28457 Y-2.52340
G01 X4.28291 Y-2.52309
G01 X4.28132 Y-2.52251
G01 X4.27986 Y-2.52165
G01 X4.27857 Y-2.52056
G01 X4.15784 Y-2.39984
G01 X4.15662 Y-2.39884
G01 X4.15565 Y-2.39832
G01 X4.15459 Y-2.39800
G01 X4.15301 Y-2.39784
G01 X3.79698 Y-2.39784
G01 X3.79541 Y-2.39800
G01 X3.79435 Y-2.39832
G01 X3.79338 Y-2.39884
G01 X3.79216 Y-2.39984
G01 X3.67143 Y-2.52056
G01 X3.67014 Y-2.52165
G01 X3.66868 Y-2.52251
G01 X3.66709 Y-2.52309
G01 X3.66543 Y-2.52340
G01 X3.66374 Y-2.52342
G01 X3.66207 Y-2.52315
G01 X3.65910 Y-2.52199
G01 X3.65308 Y-2.52071
G01 X3.64692 Y-2.52071
G01 X3.64090 Y-2.52199
G01 X3.63527 Y-2.52449
G01 X3.63029 Y-2.52811
G01 X3.62619 Y-2.53266
G01 X3.62252 Y-2.53911
G01 X3.62154 Y-2.54054
G01 X3.62033 Y-2.54176
G01 X3.61892 Y-2.54276
G01 X3.61735 Y-2.54349
G01 X3.61569 Y-2.54394
G01 X3.61397 Y-2.54409
G01 X3.28603 Y-2.54409
G01 X3.28431 Y-2.54394
G01 X3.28264 Y-2.54349
G01 X3.28108 Y-2.54276
G01 X3.27967 Y-2.54176
G01 X3.27846 Y-2.54054
G01 X3.27747 Y-2.53911
G01 X3.27381 Y-2.53266
G01 X3.26971 Y-2.52811
G01 X3.26473 Y-2.52449
G01 X3.25910 Y-2.52199
G01 X3.25374 Y-2.52085
G01 X3.25308 Y-2.52071
G01 X3.24692 Y-2.52071
G01 X3.24090 Y-2.52199
G01 X3.23527 Y-2.52449
G01 X3.23029 Y-2.52811
G01 X3.22992 Y-2.52853
G01 X3.22617 Y-2.53269
G01 X3.22309 Y-2.53802
G01 X3.22119 Y-2.54387
G01 X3.22055 Y-2.55000
G01 X3.23836 Y-2.55000
G01 X3.23861 Y-2.55242
G01 X3.23839 Y-2.55245
G01 X3.23861 Y-2.55242
G01 X3.23936 Y-2.55473
G01 X3.23917 Y-2.55484
G01 X3.23936 Y-2.55473
G01 X3.24058 Y-2.55684
G01 X3.24221 Y-2.55865
G01 X3.24194 Y-2.55895
G01 X3.24221 Y-2.55865
G01 X3.24418 Y-2.56008
G01 X3.24640 Y-2.56107
G01 X3.24628 Y-2.56145
G01 X3.24640 Y-2.56107
G01 X3.24878 Y-2.56158
G01 X3.25122 Y-2.56158
G01 X3.25126 Y-2.56197
G01 X3.25122 Y-2.56158
G01 X3.25360 Y-2.56107
G01 X3.25582 Y-2.56008
G01 X3.25602 Y-2.56042
G01 X3.25582 Y-2.56008
G01 X3.25779 Y-2.55865
G01 X3.25936 Y-2.55691
G01 X3.25951 Y-2.55703
G01 X3.25936 Y-2.55691
G01 X3.26208 Y-2.55213
G01 X3.26355 Y-2.55000
G01 X3.26682 Y-2.54993
G01 X3.26355 Y-2.55000
G01 X3.26208 Y-2.54787
G01 X3.25936 Y-2.54309
G01 X3.25779 Y-2.54135
G01 X3.25812 Y-2.54100
G01 X3.25779 Y-2.54135
G01 X3.25582 Y-2.53992
G01 X3.25360 Y-2.53893
G01 X3.25372 Y-2.53855
G01 X3.25360 Y-2.53893
G01 X3.25122 Y-2.53842
G01 X3.24878 Y-2.53842
G01 X3.24874 Y-2.53803
G01 X3.24878 Y-2.53842
G01 X3.24640 Y-2.53893
G01 X3.24418 Y-2.53992
G01 X3.24398 Y-2.53957
G01 X3.24418 Y-2.53992
G01 X3.24221 Y-2.54135
G01 X3.24058 Y-2.54316
G01 X3.24026 Y-2.54292
G01 X3.24058 Y-2.54316
G01 X3.23936 Y-2.54526
G01 X3.23861 Y-2.54758
G01 X3.23822 Y-2.54750
G01 X3.23861 Y-2.54758
G01 X3.23836 Y-2.55000
G01 X3.63645 Y-2.55000
G01 X3.63792 Y-2.54787
G01 X3.64064 Y-2.54309
G01 X3.64221 Y-2.54135
G01 X3.64188 Y-2.54100
G01 X3.64221 Y-2.54135
G01 X3.64418 Y-2.53992
G01 X3.64640 Y-2.53893
G01 X3.64628 Y-2.53855
G01 X3.64640 Y-2.53893
G01 X3.64878 Y-2.53842
G01 X3.65122 Y-2.53842
G01 X3.65124 Y-2.53812
G01 X3.65122 Y-2.53842
G01 X3.65385 Y-2.53898
G01 X3.65774 Y-2.54033
G01 X3.65946 Y-2.54060
G01 X3.66158 Y-2.53855
G01 X3.65946 Y-2.54060
G01 X3.66023 Y-2.54400
G01 X3.66139 Y-2.54758
G01 X3.66164 Y-2.55000
G01 X3.66208 Y-2.55000
G01 X3.66164 Y-2.55000
G01 X3.66139 Y-2.55242
G01 X3.66064 Y-2.55473
G01 X3.66100 Y-2.55490
G01 X3.66064 Y-2.55473
G01 X3.65942 Y-2.55684
G01 X3.65779 Y-2.55865
G01 X3.65805 Y-2.55895
G01 X3.65779 Y-2.55865
G01 X3.65582 Y-2.56008
G01 X3.65360 Y-2.56107
G01 X3.65372 Y-2.56145
G01 X3.65360 Y-2.56107
G01 X3.65122 Y-2.56158
G01 X3.64878 Y-2.56158
G01 X3.64874 Y-2.56197
G01 X3.64878 Y-2.56158
G01 X3.64640 Y-2.56107
G01 X3.64418 Y-2.56008
G01 X3.64408 Y-2.56028
G01 X3.64418 Y-2.56008
G01 X3.64221 Y-2.55865
G01 X3.64201 Y-2.55885
G01 X3.64221 Y-2.55865
G01 X3.64064 Y-2.55691
G01 X3.63792 Y-2.55213
G01 X3.63645 Y-2.55000
G04 P0 ( dwell for no time -- G64 should not smooth over this point )
G00 Z0.08000 ( retract )

G00 X3.76884 Y-2.62598 ( rapid move to begin. )
G01 F180.00000
( Mill infeed pass 1/1 )
G01 Z-0.04000
G04 P0 ( dwell for no time -- G64 should not smooth over this point )
G01 F360.00000
G01 X3.76884 Y-2.62598
G01 X3.76639 Y-2.62595
G01 X3.76880 Y-2.62594
G01 X3.76901 Y-2.62619
G01 X3.77156 Y-2.63095
G01 X3.77313 Y-2.63612
G01 X3.77366 Y-2.64150
G01 X3.77366 Y-2.66734
G01 X3.76847 Y-2.67253
G01 X3.77366 Y-2.66734
G01 X3.85634 Y-2.66734
G01 X3.86153 Y-2.67253
G01 X3.85634 Y-2.66734
G01 X3.85634 Y-2.58466
G01 X3.86153 Y-2.57947
G01 X3.85634 Y-2.58466
G01 X3.77366 Y-2.58466
G01 X3.76862 Y-2.57955
G01 X3.77366 Y-2.58466
G01 X3.77366 Y-2.61050
G01 X3.77324 Y-2.61529
G01 X3.77199 Y-2.61992
G01 X3.76996 Y-2.62428
G01 X3.76880 Y-2.62594
G01 X3.78854 Y-2.62620
G01 X3.79050 Y-2.63267
G01 X3.79137 Y-2.64150
G01 X3.79137 Y-2.64963
G01 X3.78618 Y-2.65482
G01 X3.79137 Y-2.64963
G01 X3.83863 Y-2.64963
G01 X3.84382 Y-2.65482
G01 X3.83863 Y-2.64963
G01 X3.83863 Y-2.60237
G01 X3.84382 Y-2.59718
G01 X3.83863 Y-2.60237
G01 X3.79137 Y-2.60237
G01 X3.78666 Y-2.59745
G01 X3.79137 Y-2.60237
G01 X3.79137 Y-2.61050
G01 X3.79068 Y-2.61836
G01 X3.78864 Y-2.62598
G01 X3.78854 Y-2.62620
G01 X3.78782 Y-2.62621
G01 X3.80690 Y-2.62601
G01 X3.80787 Y-2.62921
G01 X3.80814 Y-2.63191
G01 X3.80492 Y-2.63588
G01 X3.80814 Y-2.63191
G01 X3.82091 Y-2.63191
G01 X3.82610 Y-2.63710
G01 X3.82091 Y-2.63191
G01 X3.82091 Y-2.62008
G01 X3.82610 Y-2.61490
G01 X3.82091 Y-2.62008
G01 X3.80824 Y-2.62008
G01 X3.80515 Y-2.61621
G01 X3.80824 Y-2.62008
G01 X3.80813 Y-2.62144
G01 X3.80690 Y-2.62601
G04 P0 ( dwell for no time -- G64 should not smooth over this point )
G00 Z0.08000 ( retract )

G00 X3.95037 Y-2.51216 ( rapid move to begin. )
G01 F180.00000
( Mill infeed pass 1/1 )
G01 Z-0.04000
G04 P0 ( dwell for no time -- G64 should not smooth over this point )
G01 F360.00000
G01 X3.95037 Y-2.51216
G01 X3.95401 Y-2.51651
G01 X3.95656 Y-2.52128
G01 X3.95813 Y-2.52644
G01 X3.95866 Y-2.53182
G01 X3.95866 Y-2.54924
G01 X3.95347 Y-2.55443
G01 X3.95866 Y-2.54924
G01 X4.04134 Y-2.54924
G01 X4.04653 Y-2.55443
G01 X4.04134 Y-2.54924
G01 X4.04134 Y-2.46656
G01 X4.04653 Y-2.46137
G01 X4.04134 Y-2.46656
G01 X3.95866 Y-2.46656
G01 X3.95364 Y-2.46146
G01 X3.95866 Y-2.46656
G01 X3.95866 Y-2.49260
G01 X3.95819 Y-2.49764
G01 X3.95681 Y-2.50251
G01 X3.95456 Y-2.50705
G01 X3.95152 Y-2.51110
G01 X3.95037 Y-2.51216
G01 X3.94507 Y-2.51218
G01 X3.97170 Y-2.51220
G01 X3.97334 Y-2.50889
G01 X3.97560 Y-2.50088
G01 X3.97637 Y-2.49260
G01 X3.97637 Y-2.48427
G01 X3.97169 Y-2.47937
G01 X3.97637 Y-2.48427
G01 X4.02363 Y-2.48427
G01 X4.02882 Y-2.47908
G01 X4.02363 Y-2.48427
G01 X4.02363 Y-2.53153
G01 X4.02882 Y-2.53672
G01 X4.02363 Y-2.53153
G01 X3.97634 Y-2.53153
G01 X3.97218 Y-2.53612
G01 X3.97634 Y-2.53153
G01 X3.97550 Y-2.52299
G01 X3.97292 Y-2.51450
G01 X3.97170 Y-2.51220
G01 X3.97018 Y-2.51211
G01 X3.98855 Y-2.51730
G01 X3.99114 Y-2.51382
G01 X4.00591 Y-2.51382
G01 X4.01110 Y-2.51900
G01 X4.00591 Y-2.51382
G01 X4.00591 Y-2.50198
G01 X4.01110 Y-2.49680
G01 X4.00591 Y-2.50198
G01 X3.99322 Y-2.50198
G01 X3.99025 Y-2.49820
G01 X3.99322 Y-2.50198
G01 X3.99302 Y-2.50413
G01 X3.99069 Y-2.51234
G01 X3.99004 Y-2.51236
G01 X3.99069 Y-2.51234
G01 X3.99114 Y-2.51382
G04 P0 ( dwell for no time -- G64 should not smooth over this point )
G00 Z0.08000 ( retract )

G00 X4.28530 Y-2.55741 ( rapid move to begin. )
G01 F180.00000
( Mill infeed pass 1/1 )
G01 Z-0.04000
G04 P0 ( dwell for no time -- G64 should not smooth over this point )
G01 F360.00000
G01 X4.28530 Y-2.55741
G01 X4.28801 Y-2.55601
G01 X4.29111 Y-2.55786
G01 X4.29418 Y-2.56008
G01 X4.29640 Y-2.56107
G01 X4.29631 Y-2.56130
G01 X4.29640 Y-2.56107
G01 X4.29878 Y-2.56158
G01 X4.29877 Y-2.56180
G01 X4.29878 Y-2.56158
G01 X4.30122 Y-2.56158
G01 X4.30360 Y-2.56107
G01 X4.30365 Y-2.56128
G01 X4.30360 Y-2.56107
G01 X4.30582 Y-2.56008
G01 X4.30594 Y-2.56026
G01 X4.30582 Y-2.56008
G01 X4.30779 Y-2.55865
G01 X4.30936 Y-2.55691
G01 X4.30951 Y-2.55703
G01 X4.30936 Y-2.55691
G01 X4.31208 Y-2.55213
G01 X4.31355 Y-2.55000
G01 X4.31655 Y-2.55000
G01 X4.31355 Y-2.55000
G01 X4.31208 Y-2.54787
G01 X4.30936 Y-2.54309
G01 X4.30951 Y-2.54297
G01 X4.30936 Y-2.54309
G01 X4.30779 Y-2.54135
G01 X4.30582 Y-2.53992
G01 X4.30602 Y-2.53958
G01 X4.30582 Y-2.53992
G01 X4.30360 Y-2.53893
G01 X4.30122 Y-2.53842
G01 X4.30126 Y-2.53802
G01 X4.30122 Y-2.53842
G01 X4.29878 Y-2.53842
G01 X4.29614 Y-2.53892
G01 X4.29226 Y-2.54033
G01 X4.29054 Y-2.54060
G01 X4.28871 Y-2.53879
G01 X4.29054 Y-2.54060
G01 X4.28977 Y-2.54400
G01 X4.28852 Y-2.54756
G01 X4.28829 Y-2.55065
G01 X4.28835 Y-2.55385
G01 X4.28801 Y-2.55601
G04 P0 ( dwell for no time -- G64 should not smooth over this point )
G00 Z0.08000 ( retract )

G00 X4.28279 Y-2.94797 ( rapid move to begin. )
G01 F180.00000
( Mill infeed pass 1/1 )
G01 Z-0.04000
G04 P0 ( dwell for no time -- G64 should not smooth over this point )
G01 F360.00000
G01 X4.28279 Y-2.94797
G01 X4.28369 Y-2.94857
G01 X4.28730 Y-2.95209
G01 X4.29058 Y-2.95684
G01 X4.29221 Y-2.95865
G01 X4.29207 Y-2.95879
G01 X4.29221 Y-2.95865
G01 X4.29418 Y-2.96008
G01 X4.29408 Y-2.96028
G01 X4.29418 Y-2.96008
G01 X4.29640 Y-2.96107
G01 X4.29878 Y-2.96158
G01 X4.29874 Y-2.96197
G01 X4.29878 Y-2.96158
G01 X4.30122 Y-2.96158
G01 X4.30360 Y-2.96107
G01 X4.30372 Y-2.96145
G01 X4.30360 Y-2.96107
G01 X4.30582 Y-2.96008
G01 X4.30779 Y-2.95865
G01 X4.30805 Y-2.95894
G01 X4.30779 Y-2.95865
G01 X4.30942 Y-2.95684
G01 X4.31064 Y-2.95473
G01 X4.31083 Y-2.95484
G01 X4.31064 Y-2.95473
G01 X4.31139 Y-2.95242
G01 X4.31161 Y-2.95246
G01 X4.31139 Y-2.95242
G01 X4.31164 Y-2.95000
G01 X4.31139 Y-2.94758
G01 X4.31177 Y-2.94750
G01 X4.31139 Y-2.94758
G01 X4.31064 Y-2.94526
G01 X4.30942 Y-2.94316
G01 X4.30974 Y-2.94292
G01 X4.30942 Y-2.94316
G01 X4.30779 Y-2.94135
G01 X4.30582 Y-2.93992
G01 X4.30589 Y-2.93981
G01 X4.30582 Y-2.93992
G01 X4.30453 Y-2.93934
G01 X4.29993 Y-2.93674
G01 X4.29674 Y-2.93402
G01 X4.29649 Y-2.92761
G01 X4.29674 Y-2.93402
G01 X4.28279 Y-2.94797
G01 X4.27487 Y-2.94815
G04 P0 ( dwell for no time -- G64 should not smooth over this point )
G00 Z0.08000 ( retract )

G00 X3.99408 Y-2.75001 ( rapid move to begin. )
G01 F180.00000
( Mill infeed pass 1/1 )
G01 Z-0.04000
G04 P0 ( dwell for no time -- G64 should not smooth over this point )
G01 F360.00000
G01 X3.99408 Y-2.75001
G01 X4.00591 Y-2.75001
G01 X4.01110 Y-2.75520
G01 X4.00591 Y-2.75001
G01 X4.00591 Y-2.73818
G01 X4.01110 Y-2.73299
G01 X4.00591 Y-2.73818
G01 X3.99408 Y-2.73818
G01 X3.98889 Y-2.73299
G01 X3.99408 Y-2.73818
G01 X3.99408 Y-2.75001
G01 X3.97637 Y-2.76773
G01 X4.02363 Y-2.76773
G01 X4.02882 Y-2.77292
G01 X4.02363 Y-2.76773
G01 X4.02363 Y-2.71939
G01 X4.02956 Y-2.71272
G01 X4.02363 Y-2.71939
G01 X4.02135 Y-2.71993
G01 X4.01438 Y-2.72047
G01 X3.97637 Y-2.72047
G01 X3.97118 Y-2.71528
G01 X3.97637 Y-2.72047
G01 X3.97637 Y-2.76773
G01 X3.95866 Y-2.78544
G01 X4.04134 Y-2.78544
G01 X4.04653 Y-2.79063
G01 X4.04134 Y-2.78544
G01 X4.04134 Y-2.69253
G01 X4.04974 Y-2.67893
G01 X4.04134 Y-2.69253
G01 X4.02670 Y-2.69985
G01 X4.02276 Y-2.70145
G01 X4.01862 Y-2.70243
G01 X4.01438 Y-2.70276
G01 X3.95866 Y-2.70276
G01 X3.95350 Y-2.69763
G01 X3.95866 Y-2.70276
G01 X3.95866 Y-2.78544
G01 X3.95347 Y-2.79063
G04 P0 ( dwell for no time -- G64 should not smooth over this point )
G00 Z0.08000 ( retract )

G00 X3.66692 Y-2.95000 ( rapid move to begin. )
G01 F180.00000
( Mill infeed pass 1/1 )
G01 Z-0.04000
G04 P0 ( dwell for no time -- G64 should not smooth over this point )
G01 F360.00000
G01 X3.66692 Y-2.95000
G01 X3.66346 Y-2.95000
G01 X3.66185 Y-2.95244
G01 X3.65942 Y-2.95684
G01 X3.65779 Y-2.95865
G01 X3.65813 Y-2.95901
G01 X3.65779 Y-2.95865
G01 X3.65582 Y-2.96008
G01 X3.65360 Y-2.96107
G01 X3.65372 Y-2.96145
G01 X3.65360 Y-2.96107
G01 X3.65122 Y-2.96158
G01 X3.64878 Y-2.96158
G01 X3.64877 Y-2.96180
G01 X3.64878 Y-2.96158
G01 X3.64640 Y-2.96107
G01 X3.64632 Y-2.96128
G01 X3.64640 Y-2.96107
G01 X3.64418 Y-2.96008
G01 X3.64221 Y-2.95865
G01 X3.64187 Y-2.95901
G01 X3.64221 Y-2.95865
G01 X3.64058 Y-2.95684
G01 X3.63815 Y-2.95244
G01 X3.63654 Y-2.95000
G01 X3.63308 Y-2.95000
G01 X3.63654 Y-2.95000
G01 X3.63815 Y-2.94756
G01 X3.64058 Y-2.94316
G01 X3.64221 Y-2.94135
G01 X3.64187 Y-2.94099
G01 X3.64221 Y-2.94135
G01 X3.64418 Y-2.93992
G01 X3.64640 Y-2.93893
G01 X3.64628 Y-2.93855
G01 X3.64640 Y-2.93893
G01 X3.64878 Y-2.93842
G01 X3.65122 Y-2.93842
G01 X3.65123 Y-2.93820
G01 X3.65122 Y-2.93842
G01 X3.65360 Y-2.93893
G01 X3.65368 Y-2.93872
G01 X3.65360 Y-2.93893
G01 X3.65582 Y-2.93992
G01 X3.65779 Y-2.94135
G01 X3.65813 Y-2.94099
G01 X3.65779 Y-2.94135
G01 X3.65942 Y-2.94316
G01 X3.66185 Y-2.94756
G01 X3.66346 Y-2.95000
G04 P0 ( dwell for no time -- G64 should not smooth over this point )
G00 Z0.08000 ( retract )

G00 X3.48273 Y-2.85000 ( rapid move to begin. )
G01 F180.00000
( Mill infeed pass 1/1 )
G01 Z-0.04000
G04 P0 ( dwell for no time -- G64 should not smooth over this point )
G01 F360.00000
G01 X3.48273 Y-2.85000
G01 X3.48307 Y-2.85326
G01 X3.48409 Y-2.85638
G01 X3.48573 Y-2.85922
G01 X3.48792 Y-2.86166
G01 X3.49058 Y-2.86359
G01 X3.49357 Y-2.86492
G01 X3.49678 Y-2.86561
G01 X3.50027 Y-2.86561
G01 X3.50138 Y-2.86547
G01 X3.50301 Y-2.86553
G01 X3.50460 Y-2.86586
G01 X3.50612 Y-2.86645
G01 X3.50752 Y-2.86729
G01 X3.50877 Y-2.86834
G01 X3.59409 Y-2.95366
G01 X3.59531 Y-2.95466
G01 X3.59628 Y-2.95518
G01 X3.59734 Y-2.95550
G01 X3.59891 Y-2.95566
G01 X3.61389 Y-2.95566
G01 X3.61565 Y-2.95581
G01 X3.61735 Y-2.95628
G01 X3.61894 Y-2.95705
G01 X3.62036 Y-2.95809
G01 X3.62158 Y-2.95936
G01 X3.62256 Y-2.96083
G01 X3.62617 Y-2.96731
G01 X3.63029 Y-2.97189
G01 X3.63527 Y-2.97551
G01 X3.64090 Y-2.97801
G01 X3.64481 Y-2.97884
G01 X3.64692 Y-2.97929
G01 X3.65308 Y-2.97929
G01 X3.65910 Y-2.97801
G01 X3.66473 Y-2.97551
G01 X3.66971 Y-2.97189
G01 X3.67383 Y-2.96731
G01 X3.67744 Y-2.96083
G01 X3.67842 Y-2.95936
G01 X3.67964 Y-2.95809
G01 X3.68106 Y-2.95705
G01 X3.68265 Y-2.95628
G01 X3.68435 Y-2.95581
G01 X3.68611 Y-2.95566
G01 X3.99532 Y-2.95566
G01 X3.99689 Y-2.95550
G01 X3.99795 Y-2.95518
G01 X3.99892 Y-2.95466
G01 X4.00014 Y-2.95366
G01 X4.15635 Y-2.79745
G01 X4.15784 Y-2.79623
G01 X4.15954 Y-2.79532
G01 X4.16139 Y-2.79476
G01 X4.16331 Y-2.79457
G01 X4.64327 Y-2.79457
G01 X4.64519 Y-2.79476
G01 X4.64704 Y-2.79532
G01 X4.64874 Y-2.79623
G01 X4.65023 Y-2.79745
G01 X4.76631 Y-2.91353
G01 X4.76731 Y-2.91471
G01 X4.76812 Y-2.91602
G01 X4.76871 Y-2.91745
G01 X4.76907 Y-2.91895
G01 X4.76919 Y-2.92049
G01 X4.76919 Y-2.97951
G01 X4.76907 Y-2.98105
G01 X4.76871 Y-2.98255
G01 X4.76812 Y-2.98398
G01 X4.76731 Y-2.98529
G01 X4.76631 Y-2.98647
G01 X4.59006 Y-3.16272
G01 X4.58857 Y-3.16394
G01 X4.58687 Y-3.16485
G01 X4.58502 Y-3.16541
G01 X4.58310 Y-3.16560
G01 X4.54427 Y-3.16560
G01 X4.54243 Y-3.16543
G01 X4.54065 Y-3.16491
G01 X4.53900 Y-3.16407
G01 X4.53753 Y-3.16293
G01 X4.53631 Y-3.16154
G01 X4.53478 Y-3.15944
G01 X4.53203 Y-3.15697
G01 X4.52884 Y-3.15512
G01 X4.52532 Y-3.15398
G01 X4.52114 Y-3.15354
G01 X4.47886 Y-3.15354
G01 X4.47467 Y-3.15398
G01 X4.47116 Y-3.15512
G01 X4.46797 Y-3.15697
G01 X4.46522 Y-3.15944
G01 X4.46305 Y-3.16243
G01 X4.46155 Y-3.16580
G01 X4.46078 Y-3.16941
G01 X4.46078 Y-3.17311
G01 X4.46155 Y-3.17672
G01 X4.46305 Y-3.18009
G01 X4.46522 Y-3.18308
G01 X4.46797 Y-3.18555
G01 X4.47116 Y-3.18739
G01 X4.47467 Y-3.18854
G01 X4.47886 Y-3.18898
G01 X4.52114 Y-3.18898
G01 X4.52532 Y-3.18854
G01 X4.52884 Y-3.18739
G01 X4.53203 Y-3.18555
G01 X4.53478 Y-3.18308
G01 X4.53631 Y-3.18097
G01 X4.53753 Y-3.17958
G01 X4.53900 Y-3.17845
G01 X4.54065 Y-3.17761
G01 X4.54242 Y-3.17709
G01 X4.54427 Y-3.17692
G01 X4.58904 Y-3.17692
G01 X4.59061 Y-3.17676
G01 X4.59167 Y-3.17644
G01 X4.59264 Y-3.17592
G01 X4.59386 Y-3.17492
G01 X4.77851 Y-2.99027
G01 X4.77951 Y-2.98905
G01 X4.78003 Y-2.98808
G01 X4.78035 Y-2.98702
G01 X4.78051 Y-2.98544
G01 X4.78051 Y-2.91455
G01 X4.78035 Y-2.91297
G01 X4.78003 Y-2.91192
G01 X4.77951 Y-2.91095
G01 X4.77851 Y-2.90973
G01 X4.65403 Y-2.78525
G01 X4.65281 Y-2.78424
G01 X4.65184 Y-2.78373
G01 X4.65078 Y-2.78341
G01 X4.64921 Y-2.78325
G01 X4.15737 Y-2.78325
G01 X4.15580 Y-2.78341
G01 X4.15474 Y-2.78373
G01 X4.15377 Y-2.78424
G01 X4.15255 Y-2.78525
G01 X3.99634 Y-2.94146
G01 X3.99516 Y-2.94246
G01 X3.99385 Y-2.94327
G01 X3.99242 Y-2.94386
G01 X3.99092 Y-2.94422
G01 X3.98938 Y-2.94434
G01 X3.68611 Y-2.94434
G01 X3.68435 Y-2.94418
G01 X3.68265 Y-2.94371
G01 X3.68106 Y-2.94295
G01 X3.67964 Y-2.94191
G01 X3.67842 Y-2.94064
G01 X3.67744 Y-2.93916
G01 X3.67383 Y-2.93269
G01 X3.66971 Y-2.92811
G01 X3.66473 Y-2.92449
G01 X3.65910 Y-2.92199
G01 X3.65308 Y-2.92071
G01 X3.64692 Y-2.92071
G01 X3.64090 Y-2.92199
G01 X3.63527 Y-2.92449
G01 X3.63029 Y-2.92811
G01 X3.62617 Y-2.93269
G01 X3.62256 Y-2.93916
G01 X3.62158 Y-2.94064
G01 X3.62036 Y-2.94191
G01 X3.61894 Y-2.94295
G01 X3.61735 Y-2.94371
G01 X3.61565 Y-2.94418
G01 X3.61389 Y-2.94434
G01 X3.60485 Y-2.94434
G01 X3.60331 Y-2.94422
G01 X3.60181 Y-2.94386
G01 X3.60038 Y-2.94327
G01 X3.59906 Y-2.94246
G01 X3.59789 Y-2.94146
G01 X3.51671 Y-2.86028
G01 X3.51558 Y-2.85893
G01 X3.51472 Y-2.85741
G01 X3.51413 Y-2.85576
G01 X3.51385 Y-2.85404
G01 X3.51412 Y-2.85000
G01 X3.51378 Y-2.84674
G01 X3.51276 Y-2.84362
G01 X3.51112 Y-2.84077
G01 X3.50893 Y-2.83834
G01 X3.50627 Y-2.83641
G01 X3.50327 Y-2.83507
G01 X3.50007 Y-2.83439
G01 X3.49679 Y-2.83439
G01 X3.49550 Y-2.83466
G01 X3.49357 Y-2.83507
G01 X3.49058 Y-2.83641
G01 X3.48792 Y-2.83834
G01 X3.48573 Y-2.84077
G01 X3.48409 Y-2.84362
G01 X3.48307 Y-2.84674
G01 X3.48273 Y-2.85000
G04 P0 ( dwell for no time -- G64 should not smooth over this point )
G00 Z0.08000 ( retract )

G00 X3.23836 Y-2.95000 ( rapid move to begin. )
G01 F180.00000
( Mill infeed pass 1/1 )
G01 Z-0.04000
G04 P0 ( dwell for no time -- G64 should not smooth over this point )
G01 F360.00000
G01 X3.23836 Y-2.95000
G01 X3.23861 Y-2.95242
G01 X3.23840 Y-2.95248
G01 X3.23861 Y-2.95242
G01 X3.23936 Y-2.95473
G01 X3.24058 Y-2.95684
G01 X3.24026 Y-2.95708
G01 X3.24058 Y-2.95684
G01 X3.24221 Y-2.95865
G01 X3.24418 Y-2.96008
G01 X3.24410 Y-2.96019
G01 X3.24418 Y-2.96008
G01 X3.24571 Y-2.96076
G01 X3.25000 Y-2.96319
G01 X3.25000 Y-2.96556
G01 X3.25000 Y-2.96319
G01 X3.25429 Y-2.96076
G01 X3.25582 Y-2.96008
G01 X3.25590 Y-2.96019
G01 X3.25582 Y-2.96008
G01 X3.25779 Y-2.95865
G01 X3.25942 Y-2.95684
G01 X3.25974 Y-2.95708
G01 X3.25942 Y-2.95684
G01 X3.26064 Y-2.95473
G01 X3.26139 Y-2.95242
G01 X3.26160 Y-2.95248
G01 X3.26139 Y-2.95242
G01 X3.26164 Y-2.95000
G01 X3.26189 Y-2.94998
G01 X3.26164 Y-2.95000
G01 X3.26139 Y-2.94758
G01 X3.26023 Y-2.94400
G01 X3.25946 Y-2.94061
G01 X3.26158 Y-2.93854
G01 X3.25946 Y-2.94061
G01 X3.25774 Y-2.94033
G01 X3.25385 Y-2.93898
G01 X3.25122 Y-2.93842
G01 X3.25124 Y-2.93827
G01 X3.25122 Y-2.93842
G01 X3.24878 Y-2.93842
G01 X3.24875 Y-2.93820
G01 X3.24878 Y-2.93842
G01 X3.24640 Y-2.93893
G01 X3.24418 Y-2.93992
G01 X3.24408 Y-2.93972
G01 X3.24418 Y-2.93992
G01 X3.24221 Y-2.94135
G01 X3.24205 Y-2.94119
G01 X3.24221 Y-2.94135
G01 X3.24058 Y-2.94316
G01 X3.23936 Y-2.94526
G01 X3.23900 Y-2.94510
G01 X3.23936 Y-2.94526
G01 X3.23861 Y-2.94758
G01 X3.23836 Y-2.95000
G01 X3.22055 Y-2.95000
G01 X3.22126 Y-2.95634
G01 X3.22309 Y-2.96198
G01 X3.22617 Y-2.96731
G01 X3.23029 Y-2.97189
G01 X3.23527 Y-2.97551
G01 X3.23850 Y-2.97695
G01 X3.24015 Y-2.97787
G01 X3.24158 Y-2.97910
G01 X3.24275 Y-2.98058
G01 X3.24363 Y-2.98225
G01 X3.24416 Y-2.98406
G01 X3.24434 Y-2.98594
G01 X3.24434 Y-3.17972
G01 X3.24450 Y-3.18130
G01 X3.24482 Y-3.18236
G01 X3.24533 Y-3.18333
G01 X3.24634 Y-3.18455
G01 X3.31545 Y-3.25366
G01 X3.31667 Y-3.25466
G01 X3.31764 Y-3.25518
G01 X3.31869 Y-3.25550
G01 X3.32027 Y-3.25566
G01 X3.35573 Y-3.25566
G01 X3.35757 Y-3.25583
G01 X3.35935 Y-3.25635
G01 X3.36100 Y-3.25719
G01 X3.36247 Y-3.25833
G01 X3.36369 Y-3.25971
G01 X3.36522 Y-3.26182
G01 X3.36796 Y-3.26429
G01 X3.37116 Y-3.26613
G01 X3.37467 Y-3.26728
G01 X3.37886 Y-3.26772
G01 X3.42114 Y-3.26772
G01 X3.42532 Y-3.26728
G01 X3.42884 Y-3.26613
G01 X3.43203 Y-3.26429
G01 X3.43478 Y-3.26182
G01 X3.43695 Y-3.25883
G01 X3.43845 Y-3.25546
G01 X3.43922 Y-3.25185
G01 X3.43922 Y-3.24815
G01 X3.43845 Y-3.24454
G01 X3.43695 Y-3.24117
G01 X3.43478 Y-3.23818
G01 X3.43203 Y-3.23571
G01 X3.42884 Y-3.23386
G01 X3.42532 Y-3.23272
G01 X3.42114 Y-3.23228
G01 X3.37886 Y-3.23228
G01 X3.37467 Y-3.23272
G01 X3.37116 Y-3.23386
G01 X3.36796 Y-3.23571
G01 X3.36522 Y-3.23818
G01 X3.36369 Y-3.24029
G01 X3.36247 Y-3.24167
G01 X3.36100 Y-3.24281
G01 X3.35935 Y-3.24365
G01 X3.35757 Y-3.24417
G01 X3.35573 Y-3.24434
G01 X3.32621 Y-3.24434
G01 X3.32429 Y-3.24415
G01 X3.32244 Y-3.24359
G01 X3.32074 Y-3.24268
G01 X3.31925 Y-3.24146
G01 X3.25854 Y-3.18075
G01 X3.25732 Y-3.17926
G01 X3.25641 Y-3.17756
G01 X3.25585 Y-3.17571
G01 X3.25566 Y-3.17379
G01 X3.25566 Y-2.98594
G01 X3.25584 Y-2.98406
G01 X3.25637 Y-2.98225
G01 X3.25725 Y-2.98058
G01 X3.25842 Y-2.97910
G01 X3.25985 Y-2.97787
G01 X3.26150 Y-2.97695
G01 X3.26473 Y-2.97551
G01 X3.26971 Y-2.97189
G01 X3.27383 Y-2.96731
G01 X3.27691 Y-2.96198
G01 X3.27881 Y-2.95612
G01 X3.27945 Y-2.95000
G01 X3.27881 Y-2.94388
G01 X3.27707 Y-2.93853
G01 X3.27667 Y-2.93677
G01 X3.27660 Y-2.93497
G01 X3.27686 Y-2.93319
G01 X3.27744 Y-2.93148
G01 X3.27832 Y-2.92991
G01 X3.27947 Y-2.92853
G01 X3.34946 Y-2.85854
G01 X3.35095 Y-2.85732
G01 X3.35265 Y-2.85641
G01 X3.35450 Y-2.85585
G01 X3.35642 Y-2.85566
G01 X3.37441 Y-2.85566
G01 X3.37612 Y-2.85581
G01 X3.37778 Y-2.85625
G01 X3.37933 Y-2.85698
G01 X3.38074 Y-2.85796
G01 X3.38195 Y-2.85917
G01 X3.38293 Y-2.86058
G01 X3.38366 Y-2.86213
G01 X3.38410 Y-2.86379
G01 X3.38425 Y-2.86575
G01 X3.41575 Y-2.86575
G01 X3.41575 Y-2.83425
G01 X3.38425 Y-2.83425
G01 X3.38406 Y-2.83642
G01 X3.38350 Y-2.83827
G01 X3.38259 Y-2.83997
G01 X3.38137 Y-2.84146
G01 X3.37988 Y-2.84268
G01 X3.37818 Y-2.84359
G01 X3.37633 Y-2.84415
G01 X3.37441 Y-2.84434
G01 X3.35048 Y-2.84434
G01 X3.34890 Y-2.84450
G01 X3.34785 Y-2.84482
G01 X3.34688 Y-2.84533
G01 X3.34566 Y-2.84634
G01 X3.27143 Y-2.92056
G01 X3.27014 Y-2.92165
G01 X3.26868 Y-2.92251
G01 X3.26709 Y-2.92309
G01 X3.26543 Y-2.92340
G01 X3.26374 Y-2.92342
G01 X3.26207 Y-2.92315
G01 X3.25910 Y-2.92199
G01 X3.25308 Y-2.92071
G01 X3.24692 Y-2.92071
G01 X3.24090 Y-2.92199
G01 X3.23527 Y-2.92449
G01 X3.23029 Y-2.92811
G01 X3.22617 Y-2.93269
G01 X3.22309 Y-2.93802
G01 X3.22119 Y-2.94387
G01 X3.22055 Y-2.95000
G04 P0 ( dwell for no time -- G64 should not smooth over this point )
G00 Z0.08000 ( retract )

G00 X3.16249 Y-3.21713 ( rapid move to begin. )
G01 F180.00000
( Mill infeed pass 1/1 )
G01 Z-0.04000
G04 P0 ( dwell for no time -- G64 should not smooth over this point )
G01 F360.00000
G01 X3.16249 Y-3.21713
G01 X3.16249 Y-2.81119
G01 X3.16265 Y-2.80961
G01 X3.16297 Y-2.80856
G01 X3.16349 Y-2.80759
G01 X3.16449 Y-2.80637
G01 X3.20637 Y-2.76449
G01 X3.20759 Y-2.76349
G01 X3.20856 Y-2.76297
G01 X3.20961 Y-2.76265
G01 X3.21119 Y-2.76249
G01 X3.56653 Y-2.76249
G01 X3.56845 Y-2.76230
G01 X3.57030 Y-2.76174
G01 X3.57200 Y-2.76083
G01 X3.57349 Y-2.75961
G01 X3.71076 Y-2.62234
G01 X3.71198 Y-2.62134
G01 X3.71295 Y-2.62082
G01 X3.71400 Y-2.62050
G01 X3.71558 Y-2.62034
G01 X3.74610 Y-2.62034
G01 X3.74781 Y-2.62019
G01 X3.74947 Y-2.61975
G01 X3.75102 Y-2.61902
G01 X3.75243 Y-2.61804
G01 X3.75364 Y-2.61683
G01 X3.75462 Y-2.61542
G01 X3.75535 Y-2.61387
G01 X3.75579 Y-2.61221
G01 X3.75594 Y-2.61050
G01 X3.75594 Y-2.56694
G01 X3.86198 Y-2.56694
G01 X3.86390 Y-2.56675
G01 X3.86575 Y-2.56619
G01 X3.86745 Y-2.56528
G01 X3.86894 Y-2.56406
G01 X3.92876 Y-2.50424
G01 X3.92998 Y-2.50324
G01 X3.93095 Y-2.50272
G01 X3.93384 Y-2.50205
G01 X3.93553 Y-2.50139
G01 X3.93706 Y-2.50043
G01 X3.93839 Y-2.49921
G01 X3.93948 Y-2.49776
G01 X3.94028 Y-2.49614
G01 X3.94078 Y-2.49440
G01 X3.94094 Y-2.49260
G01 X3.94094 Y-2.44884
G01 X4.05906 Y-2.44884
G01 X4.05906 Y-2.56696
G01 X3.94094 Y-2.56696
G01 X3.94094 Y-2.53182
G01 X3.94075 Y-2.52990
G01 X3.94019 Y-2.52805
G01 X3.93928 Y-2.52635
G01 X3.93806 Y-2.52486
G01 X3.93657 Y-2.52364
G01 X3.93487 Y-2.52273
G01 X3.93302 Y-2.52217
G01 X3.93110 Y-2.52198
G01 X3.92918 Y-2.52217
G01 X3.92733 Y-2.52273
G01 X3.92563 Y-2.52364
G01 X3.92414 Y-2.52486
G01 X3.87694 Y-2.57206
G01 X3.87594 Y-2.57323
G01 X3.87513 Y-2.57455
G01 X3.87454 Y-2.57598
G01 X3.87418 Y-2.57748
G01 X3.87406 Y-2.57902
G01 X3.87406 Y-2.68506
G01 X3.75594 Y-2.68506
G01 X3.75594 Y-2.64150
G01 X3.75575 Y-2.63958
G01 X3.75519 Y-2.63773
G01 X3.75428 Y-2.63603
G01 X3.75306 Y-2.63454
G01 X3.75157 Y-2.63332
G01 X3.74987 Y-2.63241
G01 X3.74802 Y-2.63185
G01 X3.74610 Y-2.63166
G01 X3.72152 Y-2.63166
G01 X3.71960 Y-2.63185
G01 X3.71775 Y-2.63241
G01 X3.71605 Y-2.63332
G01 X3.71456 Y-2.63454
G01 X3.57729 Y-2.77181
G01 X3.57607 Y-2.77281
G01 X3.57510 Y-2.77333
G01 X3.57404 Y-2.77365
G01 X3.57246 Y-2.77381
G01 X3.21713 Y-2.77381
G01 X3.21521 Y-2.77400
G01 X3.21336 Y-2.77456
G01 X3.21166 Y-2.77547
G01 X3.21017 Y-2.77669
G01 X3.17669 Y-2.81017
G01 X3.17547 Y-2.81166
G01 X3.17456 Y-2.81336
G01 X3.17400 Y-2.81521
G01 X3.17381 Y-2.81713
G01 X3.17381 Y-3.21120
G01 X3.17400 Y-3.21312
G01 X3.17456 Y-3.21497
G01 X3.17547 Y-3.21667
G01 X3.17669 Y-3.21816
G01 X3.34879 Y-3.39026
G01 X3.35028 Y-3.39148
G01 X3.35198 Y-3.39239
G01 X3.35383 Y-3.39295
G01 X3.35575 Y-3.39314
G01 X3.81515 Y-3.39314
G01 X3.81707 Y-3.39295
G01 X3.81892 Y-3.39239
G01 X3.82062 Y-3.39148
G01 X3.82211 Y-3.39026
G01 X3.84146 Y-3.37091
G01 X3.84268 Y-3.36942
G01 X3.84359 Y-3.36772
G01 X3.84415 Y-3.36587
G01 X3.84434 Y-3.36395
G01 X3.84434 Y-3.33937
G01 X3.84415 Y-3.33745
G01 X3.84359 Y-3.33560
G01 X3.84268 Y-3.33390
G01 X3.84146 Y-3.33241
G01 X3.83997 Y-3.33119
G01 X3.83827 Y-3.33028
G01 X3.83642 Y-3.32972
G01 X3.83450 Y-3.32953
G01 X3.82244 Y-3.32953
G01 X3.82244 Y-3.27047
G01 X3.87756 Y-3.27047
G01 X3.87756 Y-3.28450
G01 X3.87775 Y-3.28642
G01 X3.87831 Y-3.28827
G01 X3.87922 Y-3.28997
G01 X3.88044 Y-3.29146
G01 X3.88193 Y-3.29268
G01 X3.88363 Y-3.29359
G01 X3.88548 Y-3.29415
G01 X3.88740 Y-3.29434
G01 X4.01260 Y-3.29434
G01 X4.01452 Y-3.29415
G01 X4.01636 Y-3.29359
G01 X4.01807 Y-3.29268
G01 X4.01956 Y-3.29146
G01 X4.02078 Y-3.28997
G01 X4.02169 Y-3.28827
G01 X4.02225 Y-3.28642
G01 X4.02244 Y-3.28450
G01 X4.02244 Y-3.27047
G01 X4.07756 Y-3.27047
G01 X4.07756 Y-3.32953
G01 X4.02244 Y-3.32953
G01 X4.02244 Y-3.31550
G01 X4.02225 Y-3.31358
G01 X4.02169 Y-3.31173
G01 X4.02078 Y-3.31003
G01 X4.01956 Y-3.30854
G01 X4.01807 Y-3.30732
G01 X4.01636 Y-3.30641
G01 X4.01452 Y-3.30585
G01 X4.01260 Y-3.30566
G01 X3.88740 Y-3.30566
G01 X3.88548 Y-3.30585
G01 X3.88363 Y-3.30641
G01 X3.88193 Y-3.30732
G01 X3.88044 Y-3.30854
G01 X3.87922 Y-3.31003
G01 X3.87831 Y-3.31173
G01 X3.87775 Y-3.31358
G01 X3.87756 Y-3.31550
G01 X3.87756 Y-3.32953
G01 X3.86550 Y-3.32953
G01 X3.86358 Y-3.32972
G01 X3.86173 Y-3.33028
G01 X3.86003 Y-3.33119
G01 X3.85854 Y-3.33241
G01 X3.85732 Y-3.33390
G01 X3.85641 Y-3.33560
G01 X3.85585 Y-3.33745
G01 X3.85566 Y-3.33937
G01 X3.85566 Y-3.36989
G01 X3.85550 Y-3.37146
G01 X3.85518 Y-3.37252
G01 X3.85466 Y-3.37349
G01 X3.85366 Y-3.37471
G01 X3.82591 Y-3.40246
G01 X3.82469 Y-3.40346
G01 X3.82372 Y-3.40398
G01 X3.82266 Y-3.40430
G01 X3.82109 Y-3.40446
G01 X3.34981 Y-3.40446
G01 X3.34823 Y-3.40430
G01 X3.34718 Y-3.40398
G01 X3.34621 Y-3.40346
G01 X3.34499 Y-3.40246
G01 X3.16449 Y-3.22196
G01 X3.16349 Y-3.22074
G01 X3.16297 Y-3.21977
G01 X3.16265 Y-3.21871
G01 X3.16249 Y-3.21713
G04 P0 ( dwell for no time -- G64 should not smooth over this point )
G00 Z0.08000 ( retract )

G00 X3.36078 Y-3.33059 ( rapid move to begin. )
G01 F180.00000
( Mill infeed pass 1/1 )
G01 Z-0.04000
G04 P0 ( dwell for no time -- G64 should not smooth over this point )
G01 F360.00000
G01 X3.36078 Y-3.33059
G01 X3.36155 Y-3.33420
G01 X3.36305 Y-3.33757
G01 X3.36522 Y-3.34056
G01 X3.36796 Y-3.34303
G01 X3.37116 Y-3.34488
G01 X3.37467 Y-3.34602
G01 X3.37886 Y-3.34646
G01 X3.42114 Y-3.34646
G01 X3.42532 Y-3.34602
G01 X3.42884 Y-3.34488
G01 X3.43203 Y-3.34303
G01 X3.43478 Y-3.34056
G01 X3.43735 Y-3.33731
G01 X3.43881 Y-3.33618
G01 X3.44047 Y-3.33534
G01 X3.44224 Y-3.33482
G01 X3.44409 Y-3.33465
G01 X3.67083 Y-3.33465
G01 X3.67228 Y-3.33452
G01 X3.67369 Y-3.33414
G01 X3.72031 Y-3.31712
G01 X3.72193 Y-3.31669
G01 X3.72358 Y-3.31653
G01 X3.72525 Y-3.31665
G01 X3.72687 Y-3.31705
G01 X3.72839 Y-3.31772
G01 X3.72979 Y-3.31864
G01 X3.73159 Y-3.32044
G01 X3.73625 Y-3.32382
G01 X3.74150 Y-3.32616
G01 X3.74713 Y-3.32735
G01 X3.75287 Y-3.32735
G01 X3.75850 Y-3.32616
G01 X3.76375 Y-3.32382
G01 X3.76665 Y-3.32171
G01 X3.76840 Y-3.32044
G01 X3.77225 Y-3.31617
G01 X3.77513 Y-3.31119
G01 X3.77690 Y-3.30572
G01 X3.77750 Y-3.30000
G01 X3.77690 Y-3.29428
G01 X3.77513 Y-3.28881
G01 X3.77225 Y-3.28383
G01 X3.76840 Y-3.27956
G01 X3.76375 Y-3.27618
G01 X3.75850 Y-3.27384
G01 X3.75287 Y-3.27264
G01 X3.74712 Y-3.27264
G01 X3.74150 Y-3.27384
G01 X3.73625 Y-3.27618
G01 X3.73159 Y-3.27956
G01 X3.72775 Y-3.28383
G01 X3.72487 Y-3.28881
G01 X3.72310 Y-3.29428
G01 X3.72273 Y-3.29779
G01 X3.72237 Y-3.29958
G01 X3.72168 Y-3.30128
G01 X3.72070 Y-3.30282
G01 X3.71944 Y-3.30415
G01 X3.71796 Y-3.30522
G01 X3.71631 Y-3.30601
G01 X3.67185 Y-3.32224
G01 X3.67019 Y-3.32268
G01 X3.66847 Y-3.32283
G01 X3.44409 Y-3.32283
G01 X3.44224 Y-3.32266
G01 X3.44047 Y-3.32214
G01 X3.43881 Y-3.32130
G01 X3.43735 Y-3.32016
G01 X3.43478 Y-3.31692
G01 X3.43203 Y-3.31445
G01 X3.42884 Y-3.31260
G01 X3.42533 Y-3.31146
G01 X3.42114 Y-3.31102
G01 X3.37886 Y-3.31102
G01 X3.37467 Y-3.31146
G01 X3.37116 Y-3.31261
G01 X3.36796 Y-3.31445
G01 X3.36522 Y-3.31692
G01 X3.36305 Y-3.31991
G01 X3.36155 Y-3.32328
G01 X3.36078 Y-3.32689
G01 X3.36078 Y-3.33059
G01 X3.37979 Y-3.32874
G01 X3.42023 Y-3.32874
G04 P0 ( dwell for no time -- G64 should not smooth over this point )
G00 Z0.08000 ( retract )

G00 X3.42023 Y-3.25000 ( rapid move to begin. )
G01 F180.00000
( Mill infeed pass 1/1 )
G01 Z-0.04000
G04 P0 ( dwell for no time -- G64 should not smooth over this point )
G01 F360.00000
G01 X3.42023 Y-3.25000
G01 X3.37976 Y-3.25000
G04 P0 ( dwell for no time -- G64 should not smooth over this point )
G00 Z0.08000 ( retract )

G00 X3.36078 Y-3.17311 ( rapid move to begin. )
G01 F180.00000
( Mill infeed pass 1/1 )
G01 Z-0.04000
G04 P0 ( dwell for no time -- G64 should not smooth over this point )
G01 F360.00000
G01 X3.36078 Y-3.17311
G01 X3.36155 Y-3.17672
G01 X3.36305 Y-3.18009
G01 X3.36522 Y-3.18308
G01 X3.36796 Y-3.18555
G01 X3.37116 Y-3.18739
G01 X3.37467 Y-3.18854
G01 X3.37886 Y-3.18898
G01 X3.42114 Y-3.18898
G01 X3.42532 Y-3.18854
G01 X3.42884 Y-3.18739
G01 X3.43203 Y-3.18555
G01 X3.43478 Y-3.18308
G01 X3.43735 Y-3.17984
G01 X3.43881 Y-3.17870
G01 X3.44047 Y-3.17786
G01 X3.44224 Y-3.17734
G01 X3.44409 Y-3.17717
G01 X4.04232 Y-3.17717
G01 X4.04394 Y-3.17701
G01 X4.04504 Y-3.17667
G01 X4.04606 Y-3.17613
G01 X4.04732 Y-3.17509
G01 X4.25939 Y-2.96302
G01 X4.26077 Y-2.96187
G01 X4.26235 Y-2.96099
G01 X4.26405 Y-2.96041
G01 X4.26583 Y-2.96015
G01 X4.26763 Y-2.96023
G01 X4.26939 Y-2.96062
G01 X4.27104 Y-2.96133
G01 X4.27254 Y-2.96233
G01 X4.27383 Y-2.96359
G01 X4.27617 Y-2.96731
G01 X4.28029 Y-2.97189
G01 X4.28527 Y-2.97551
G01 X4.29090 Y-2.97801
G01 X4.29692 Y-2.97929
G01 X4.30308 Y-2.97929
G01 X4.30519 Y-2.97884
G01 X4.30910 Y-2.97801
G01 X4.31473 Y-2.97551
G01 X4.31971 Y-2.97189
G01 X4.32383 Y-2.96731
G01 X4.32691 Y-2.96198
G01 X4.32881 Y-2.95612
G01 X4.32945 Y-2.95000
G01 X4.32881 Y-2.94388
G01 X4.32691 Y-2.93802
G01 X4.32383 Y-2.93269
G01 X4.31971 Y-2.92811
G01 X4.31473 Y-2.92449
G01 X4.31173 Y-2.92316
G01 X4.31009 Y-2.92223
G01 X4.30866 Y-2.92101
G01 X4.30748 Y-2.91953
G01 X4.30661 Y-2.91785
G01 X4.30608 Y-2.91604
G01 X4.30590 Y-2.91417
G01 X4.30591 Y-2.86575
G01 X4.30610 Y-2.86383
G01 X4.30666 Y-2.86198
G01 X4.30757 Y-2.86028
G01 X4.30879 Y-2.85879
G01 X4.31028 Y-2.85757
G01 X4.31198 Y-2.85666
G01 X4.31383 Y-2.85610
G01 X4.31575 Y-2.85591
G01 X4.43151 Y-2.85591
G01 X4.43315 Y-2.85604
G01 X4.43475 Y-2.85645
G01 X4.43625 Y-2.85712
G01 X4.43762 Y-2.85804
G01 X4.43882 Y-2.85916
G01 X4.44107 Y-2.86166
G01 X4.44373 Y-2.86359
G01 X4.44672 Y-2.86492
G01 X4.44993 Y-2.86561
G01 X4.45322 Y-2.86561
G01 X4.45642 Y-2.86492
G01 X4.45942 Y-2.86359
G01 X4.46207 Y-2.86166
G01 X4.46427 Y-2.85922
G01 X4.46591 Y-2.85638
G01 X4.46692 Y-2.85326
G01 X4.46727 Y-2.85000
G01 X4.46692 Y-2.84674
G01 X4.46591 Y-2.84362
G01 X4.46547 Y-2.84286
G01 X4.46427 Y-2.84077
G01 X4.46207 Y-2.83834
G01 X4.45942 Y-2.83641
G01 X4.45642 Y-2.83507
G01 X4.45321 Y-2.83439
G01 X4.44993 Y-2.83439
G01 X4.44753 Y-2.83490
G01 X4.44672 Y-2.83507
G01 X4.44373 Y-2.83641
G01 X4.44107 Y-2.83834
G01 X4.43882 Y-2.84084
G01 X4.43762 Y-2.84196
G01 X4.43625 Y-2.84287
G01 X4.43475 Y-2.84355
G01 X4.43315 Y-2.84395
G01 X4.43151 Y-2.84409
G01 X4.30048 Y-2.84409
G01 X4.29886 Y-2.84425
G01 X4.29776 Y-2.84459
G01 X4.29674 Y-2.84513
G01 X4.29586 Y-2.84586
G01 X4.29513 Y-2.84674
G01 X4.29459 Y-2.84776
G01 X4.29425 Y-2.84886
G01 X4.29409 Y-2.85048
G01 X4.29409 Y-2.90754
G01 X4.29397 Y-2.90908
G01 X4.29361 Y-2.91058
G01 X4.29302 Y-2.91200
G01 X4.29221 Y-2.91332
G01 X4.29121 Y-2.91450
G01 X4.04324 Y-3.16247
G01 X4.04206 Y-3.16347
G01 X4.04074 Y-3.16428
G01 X4.03932 Y-3.16487
G01 X4.03782 Y-3.16523
G01 X4.03628 Y-3.16535
G01 X3.44409 Y-3.16535
G01 X3.44224 Y-3.16518
G01 X3.44047 Y-3.16466
G01 X3.43881 Y-3.16382
G01 X3.43735 Y-3.16268
G01 X3.43478 Y-3.15944
G01 X3.43203 Y-3.15697
G01 X3.42884 Y-3.15512
G01 X3.42532 Y-3.15398
G01 X3.42114 Y-3.15354
G01 X3.37886 Y-3.15354
G01 X3.37467 Y-3.15398
G01 X3.37116 Y-3.15512
G01 X3.36796 Y-3.15697
G01 X3.36522 Y-3.15944
G01 X3.36305 Y-3.16243
G01 X3.36155 Y-3.16580
G01 X3.36078 Y-3.16941
G01 X3.36078 Y-3.17311
G01 X3.37976 Y-3.17126
G01 X3.42023 Y-3.17126
G04 P0 ( dwell for no time -- G64 should not smooth over this point )
G00 Z0.08000 ( retract )

G00 X3.73625 Y-3.30517 ( rapid move to begin. )
G01 F180.00000
( Mill infeed pass 1/1 )
G01 Z-0.04000
G04 P0 ( dwell for no time -- G64 should not smooth over this point )
G01 F360.00000
G01 X3.73625 Y-3.30517
G01 X3.73949 Y-3.30390
G01 X3.74034 Y-3.29964
G01 X3.74052 Y-3.29799
G01 X3.74114 Y-3.29606
G01 X3.74078 Y-3.29589
G01 X3.74114 Y-3.29606
G01 X3.74216 Y-3.29430
G01 X3.74351 Y-3.29280
G01 X3.74325 Y-3.29250
G01 X3.74351 Y-3.29280
G01 X3.74515 Y-3.29161
G01 X3.74700 Y-3.29078
G01 X3.74693 Y-3.29057
G01 X3.74700 Y-3.29078
G01 X3.74899 Y-3.29036
G01 X3.74898 Y-3.29014
G01 X3.74899 Y-3.29036
G01 X3.75101 Y-3.29036
G01 X3.75299 Y-3.29078
G01 X3.75312 Y-3.29040
G01 X3.75299 Y-3.29078
G01 X3.75485 Y-3.29161
G01 X3.75649 Y-3.29280
G01 X3.75675 Y-3.29250
G01 X3.75649 Y-3.29280
G01 X3.75784 Y-3.29430
G01 X3.75886 Y-3.29606
G01 X3.75922 Y-3.29590
G01 X3.75886 Y-3.29606
G01 X3.75948 Y-3.29798
G01 X3.75969 Y-3.30000
G01 X3.76009 Y-3.30000
G01 X3.75969 Y-3.30000
G01 X3.75948 Y-3.30201
G01 X3.75886 Y-3.30394
G01 X3.75922 Y-3.30410
G01 X3.75886 Y-3.30394
G01 X3.75784 Y-3.30570
G01 X3.75649 Y-3.30720
G01 X3.75675 Y-3.30750
G01 X3.75649 Y-3.30720
G01 X3.75485 Y-3.30839
G01 X3.75299 Y-3.30922
G01 X3.75312 Y-3.30959
G01 X3.75299 Y-3.30922
G01 X3.75101 Y-3.30964
G01 X3.74899 Y-3.30964
G01 X3.74898 Y-3.30986
G01 X3.74899 Y-3.30964
G01 X3.74700 Y-3.30922
G01 X3.74686 Y-3.30956
G01 X3.74700 Y-3.30922
G01 X3.74515 Y-3.30839
G01 X3.74297 Y-3.30681
G01 X3.74076 Y-3.30474
G01 X3.73949 Y-3.30390
G04 P0 ( dwell for no time -- G64 should not smooth over this point )
G00 Z0.08000 ( retract )

G00 X3.83497 Y-3.28300 ( rapid move to begin. )
G01 F180.00000
( Mill infeed pass 1/1 )
G01 Z-0.04000
G04 P0 ( dwell for no time -- G64 should not smooth over this point )
G01 F360.00000
G01 X3.83497 Y-3.28300
G01 X3.84015 Y-3.28819
G01 X3.86021 Y-3.28819
G01 X3.86312 Y-3.28445
G01 X3.86021 Y-3.28819
G01 X3.86037 Y-3.28988
G01 X3.86194 Y-3.29505
G01 X3.86449 Y-3.29981
G01 X3.86464 Y-3.30000
G01 X3.86711 Y-3.30000
G01 X3.86464 Y-3.30000
G01 X3.86194 Y-3.30495
G01 X3.86037 Y-3.31012
G01 X3.86016 Y-3.31234
G01 X3.86212 Y-3.31419
G01 X3.86016 Y-3.31234
G01 X3.85495 Y-3.31391
G01 X3.85000 Y-3.31661
G01 X3.85000 Y-3.31908
G01 X3.85000 Y-3.31661
G01 X3.84504 Y-3.31391
G01 X3.84015 Y-3.31243
G01 X3.83667 Y-3.31501
G01 X3.84015 Y-3.31243
G01 X3.84015 Y-3.28819
G04 P0 ( dwell for no time -- G64 should not smooth over this point )
G00 Z0.08000 ( retract )

G00 X4.05985 Y-3.31181 ( rapid move to begin. )
G01 F180.00000
( Mill infeed pass 1/1 )
G01 Z-0.04000
G04 P0 ( dwell for no time -- G64 should not smooth over this point )
G01 F360.00000
G01 X4.05985 Y-3.31181
G01 X4.03979 Y-3.31181
G01 X4.03688 Y-3.31555
G01 X4.03979 Y-3.31181
G01 X4.03963 Y-3.31012
G01 X4.03806 Y-3.30495
G01 X4.03551 Y-3.30019
G01 X4.03535 Y-3.30000
G01 X4.03289 Y-3.30000
G01 X4.03535 Y-3.30000
G01 X4.03551 Y-3.29981
G01 X4.03806 Y-3.29505
G01 X4.03963 Y-3.28988
G01 X4.03979 Y-3.28819
G01 X4.03688 Y-3.28445
G01 X4.03979 Y-3.28819
G01 X4.05985 Y-3.28819
G01 X4.06503 Y-3.28300
G01 X4.05985 Y-3.28819
G01 X4.05985 Y-3.31181
G01 X4.06503 Y-3.31700
G04 P0 ( dwell for no time -- G64 should not smooth over this point )
G00 Z0.08000 ( retract )

G00 X4.12249 Y-3.30000 ( rapid move to begin. )
G01 F180.00000
( Mill infeed pass 1/1 )
G01 Z-0.04000
G04 P0 ( dwell for no time -- G64 should not smooth over this point )
G01 F360.00000
G01 X4.12249 Y-3.30000
G01 X4.12310 Y-3.29428
G01 X4.12487 Y-3.28881
G01 X4.12775 Y-3.28383
G01 X4.13159 Y-3.27956
G01 X4.13625 Y-3.27618
G01 X4.14150 Y-3.27384
G01 X4.14712 Y-3.27264
G01 X4.15287 Y-3.27264
G01 X4.15850 Y-3.27384
G01 X4.16375 Y-3.27618
G01 X4.16840 Y-3.27956
G01 X4.17225 Y-3.28383
G01 X4.17513 Y-3.28881
G01 X4.17690 Y-3.29428
G01 X4.17750 Y-3.30000
G01 X4.17690 Y-3.30572
G01 X4.17562 Y-3.30967
G01 X4.17522 Y-3.31142
G01 X4.17515 Y-3.31322
G01 X4.17541 Y-3.31501
G01 X4.17599 Y-3.31671
G01 X4.17687 Y-3.31828
G01 X4.17830 Y-3.31995
G01 X4.17980 Y-3.32117
G01 X4.18150 Y-3.32208
G01 X4.18334 Y-3.32264
G01 X4.18526 Y-3.32283
G01 X4.45591 Y-3.32283
G01 X4.45775 Y-3.32266
G01 X4.45953 Y-3.32214
G01 X4.46119 Y-3.32130
G01 X4.46265 Y-3.32016
G01 X4.46522 Y-3.31692
G01 X4.46796 Y-3.31445
G01 X4.47116 Y-3.31261
G01 X4.47467 Y-3.31146
G01 X4.47886 Y-3.31102
G01 X4.52114 Y-3.31102
G01 X4.52532 Y-3.31146
G01 X4.52884 Y-3.31261
G01 X4.53203 Y-3.31445
G01 X4.53478 Y-3.31692
G01 X4.53695 Y-3.31991
G01 X4.53845 Y-3.32328
G01 X4.53922 Y-3.32689
G01 X4.53922 Y-3.33059
G01 X4.53845 Y-3.33420
G01 X4.53695 Y-3.33757
G01 X4.53478 Y-3.34056
G01 X4.53203 Y-3.34303
G01 X4.52884 Y-3.34488
G01 X4.52532 Y-3.34602
G01 X4.52114 Y-3.34646
G01 X4.47886 Y-3.34646
G01 X4.47467 Y-3.34602
G01 X4.47116 Y-3.34488
G01 X4.46796 Y-3.34303
G01 X4.46522 Y-3.34056
G01 X4.46265 Y-3.33731
G01 X4.46118 Y-3.33618
G01 X4.45953 Y-3.33534
G01 X4.45775 Y-3.33482
G01 X4.45591 Y-3.33465
G01 X4.17922 Y-3.33465
G01 X4.17760 Y-3.33449
G01 X4.17650 Y-3.33415
G01 X4.17548 Y-3.33361
G01 X4.17422 Y-3.33257
G01 X4.16972 Y-3.32808
G01 X4.16843 Y-3.32699
G01 X4.16697 Y-3.32613
G01 X4.16538 Y-3.32555
G01 X4.16372 Y-3.32524
G01 X4.16202 Y-3.32522
G01 X4.16036 Y-3.32549
G01 X4.15850 Y-3.32616
G01 X4.15287 Y-3.32735
G01 X4.14712 Y-3.32735
G01 X4.14150 Y-3.32616
G01 X4.13625 Y-3.32382
G01 X4.13159 Y-3.32044
G01 X4.12775 Y-3.31617
G01 X4.12487 Y-3.31119
G01 X4.12310 Y-3.30572
G01 X4.12249 Y-3.30000
G01 X4.14013 Y-3.30210
G01 X4.14052 Y-3.30201
G01 X4.14031 Y-3.30000
G01 X4.14052 Y-3.29798
G01 X4.14030 Y-3.29795
G01 X4.14052 Y-3.29798
G01 X4.14114 Y-3.29606
G01 X4.14095 Y-3.29596
G01 X4.14114 Y-3.29606
G01 X4.14216 Y-3.29430
G01 X4.14351 Y-3.29280
G01 X4.14325 Y-3.29250
G01 X4.14351 Y-3.29280
G01 X4.14515 Y-3.29161
G01 X4.14700 Y-3.29078
G01 X4.14688 Y-3.29040
G01 X4.14700 Y-3.29078
G01 X4.14899 Y-3.29036
G01 X4.15101 Y-3.29036
G01 X4.15105 Y-3.28997
G01 X4.15101 Y-3.29036
G01 X4.15299 Y-3.29078
G01 X4.15485 Y-3.29161
G01 X4.15504 Y-3.29126
G01 X4.15485 Y-3.29161
G01 X4.15649 Y-3.29280
G01 X4.15784 Y-3.29430
G01 X4.15816 Y-3.29407
G01 X4.15784 Y-3.29430
G01 X4.15885 Y-3.29606
G01 X4.15948 Y-3.29798
G01 X4.15987 Y-3.29790
G01 X4.15948 Y-3.29798
G01 X4.15969 Y-3.30000
G01 X4.15948 Y-3.30201
G01 X4.15963 Y-3.30203
G01 X4.15948 Y-3.30201
G01 X4.15877 Y-3.30419
G01 X4.15791 Y-3.30801
G01 X4.16014 Y-3.31042
G01 X4.15791 Y-3.30801
G01 X4.15603 Y-3.30831
G01 X4.15407 Y-3.30899
G01 X4.15101 Y-3.30964
G01 X4.14899 Y-3.30964
G01 X4.14895 Y-3.31020
G01 X4.14899 Y-3.30964
G01 X4.14700 Y-3.30922
G01 X4.14515 Y-3.30839
G01 X4.14496 Y-3.30874
G01 X4.14515 Y-3.30839
G01 X4.14351 Y-3.30720
G01 X4.14216 Y-3.30570
G01 X4.14184 Y-3.30593
G01 X4.14216 Y-3.30570
G01 X4.14114 Y-3.30394
G01 X4.14052 Y-3.30201
G04 P0 ( dwell for no time -- G64 should not smooth over this point )
G00 Z0.08000 ( retract )

G00 X4.47977 Y-3.32874 ( rapid move to begin. )
G01 F180.00000
( Mill infeed pass 1/1 )
G01 Z-0.04000
G04 P0 ( dwell for no time -- G64 should not smooth over this point )
G01 F360.00000
G01 X4.47977 Y-3.32874
G01 X4.52023 Y-3.32874
G04 P0 ( dwell for no time -- G64 should not smooth over this point )
G00 Z0.08000 ( retract )

G00 X4.52023 Y-3.25000 ( rapid move to begin. )
G01 F180.00000
( Mill infeed pass 1/1 )
G01 Z-0.04000
G04 P0 ( dwell for no time -- G64 should not smooth over this point )
G01 F360.00000
G01 X4.52023 Y-3.25000
G01 X4.47979 Y-3.25000
G01 X4.40963 Y-3.24501
G01 X4.40963 Y-3.04178
G01 X4.40979 Y-3.04020
G01 X4.41011 Y-3.03915
G01 X4.41062 Y-3.03818
G01 X4.41163 Y-3.03696
G01 X4.54146 Y-2.90713
G01 X4.54246 Y-2.90595
G01 X4.54327 Y-2.90464
G01 X4.54386 Y-2.90321
G01 X4.54422 Y-2.90171
G01 X4.54434 Y-2.90017
G01 X4.54434 Y-2.87559
G01 X4.54419 Y-2.87388
G01 X4.54375 Y-2.87222
G01 X4.54302 Y-2.87067
G01 X4.54204 Y-2.86926
G01 X4.54083 Y-2.86805
G01 X4.53942 Y-2.86707
G01 X4.53787 Y-2.86634
G01 X4.53621 Y-2.86590
G01 X4.53425 Y-2.86575
G01 X4.53425 Y-2.83425
G01 X4.56575 Y-2.83425
G01 X4.56590 Y-2.83621
G01 X4.56634 Y-2.83787
G01 X4.56707 Y-2.83942
G01 X4.56805 Y-2.84083
G01 X4.56926 Y-2.84204
G01 X4.57067 Y-2.84302
G01 X4.57222 Y-2.84375
G01 X4.57388 Y-2.84419
G01 X4.57559 Y-2.84434
G01 X4.59952 Y-2.84434
G01 X4.60109 Y-2.84450
G01 X4.60215 Y-2.84482
G01 X4.60312 Y-2.84533
G01 X4.60434 Y-2.84634
G01 X4.67857 Y-2.92056
G01 X4.67986 Y-2.92165
G01 X4.68132 Y-2.92251
G01 X4.68291 Y-2.92309
G01 X4.68457 Y-2.92340
G01 X4.68626 Y-2.92342
G01 X4.68793 Y-2.92315
G01 X4.69090 Y-2.92199
G01 X4.69692 Y-2.92071
G01 X4.70308 Y-2.92071
G01 X4.70910 Y-2.92199
G01 X4.71473 Y-2.92449
G01 X4.71971 Y-2.92811
G01 X4.72383 Y-2.93269
G01 X4.72691 Y-2.93802
G01 X4.72881 Y-2.94388
G01 X4.72945 Y-2.95000
G01 X4.72881 Y-2.95612
G01 X4.72691 Y-2.96198
G01 X4.72383 Y-2.96731
G01 X4.71971 Y-2.97189
G01 X4.71473 Y-2.97551
G01 X4.70910 Y-2.97801
G01 X4.70308 Y-2.97929
G01 X4.69692 Y-2.97929
G01 X4.69090 Y-2.97801
G01 X4.68527 Y-2.97551
G01 X4.68029 Y-2.97189
G01 X4.67617 Y-2.96731
G01 X4.67309 Y-2.96198
G01 X4.67119 Y-2.95612
G01 X4.67055 Y-2.95000
G01 X4.67119 Y-2.94388
G01 X4.67293 Y-2.93853
G01 X4.67333 Y-2.93677
G01 X4.67340 Y-2.93497
G01 X4.67314 Y-2.93319
G01 X4.67256 Y-2.93148
G01 X4.67168 Y-2.92991
G01 X4.67053 Y-2.92853
G01 X4.60054 Y-2.85854
G01 X4.59936 Y-2.85754
G01 X4.59805 Y-2.85673
G01 X4.59662 Y-2.85614
G01 X4.59512 Y-2.85578
G01 X4.59358 Y-2.85566
G01 X4.57559 Y-2.85566
G01 X4.57388 Y-2.85581
G01 X4.57222 Y-2.85625
G01 X4.57067 Y-2.85698
G01 X4.56926 Y-2.85796
G01 X4.56805 Y-2.85917
G01 X4.56707 Y-2.86058
G01 X4.56634 Y-2.86213
G01 X4.56590 Y-2.86379
G01 X4.56575 Y-2.86575
G01 X4.56379 Y-2.86590
G01 X4.56213 Y-2.86634
G01 X4.56058 Y-2.86707
G01 X4.55917 Y-2.86805
G01 X4.55796 Y-2.86926
G01 X4.55698 Y-2.87067
G01 X4.55625 Y-2.87222
G01 X4.55581 Y-2.87388
G01 X4.55566 Y-2.87559
G01 X4.55566 Y-2.90611
G01 X4.55550 Y-2.90768
G01 X4.55518 Y-2.90874
G01 X4.55466 Y-2.90971
G01 X4.55366 Y-2.91093
G01 X4.42383 Y-3.04076
G01 X4.42283 Y-3.04194
G01 X4.42202 Y-3.04325
G01 X4.42143 Y-3.04468
G01 X4.42107 Y-3.04618
G01 X4.42095 Y-3.04772
G01 X4.42095 Y-3.23450
G01 X4.42114 Y-3.23642
G01 X4.42170 Y-3.23827
G01 X4.42261 Y-3.23997
G01 X4.42383 Y-3.24146
G01 X4.42532 Y-3.24268
G01 X4.42702 Y-3.24359
G01 X4.42887 Y-3.24415
G01 X4.43079 Y-3.24434
G01 X4.45573 Y-3.24434
G01 X4.45757 Y-3.24417
G01 X4.45935 Y-3.24365
G01 X4.46100 Y-3.24281
G01 X4.46247 Y-3.24167
G01 X4.46369 Y-3.24029
G01 X4.46522 Y-3.23818
G01 X4.46796 Y-3.23571
G01 X4.47116 Y-3.23386
G01 X4.47467 Y-3.23272
G01 X4.47886 Y-3.23228
G01 X4.52114 Y-3.23228
G01 X4.52532 Y-3.23272
G01 X4.52884 Y-3.23386
G01 X4.53203 Y-3.23571
G01 X4.53478 Y-3.23818
G01 X4.53695 Y-3.24117
G01 X4.53845 Y-3.24454
G01 X4.53922 Y-3.24815
G01 X4.53922 Y-3.25185
G01 X4.53845 Y-3.25546
G01 X4.53695 Y-3.25883
G01 X4.53478 Y-3.26182
G01 X4.53203 Y-3.26429
G01 X4.52884 Y-3.26613
G01 X4.52532 Y-3.26728
G01 X4.52114 Y-3.26772
G01 X4.47886 Y-3.26772
G01 X4.47467 Y-3.26728
G01 X4.47116 Y-3.26613
G01 X4.46796 Y-3.26429
G01 X4.46522 Y-3.26182
G01 X4.46369 Y-3.25971
G01 X4.46247 Y-3.25833
G01 X4.46100 Y-3.25719
G01 X4.45935 Y-3.25635
G01 X4.45757 Y-3.25583
G01 X4.45573 Y-3.25566
G01 X4.42027 Y-3.25566
G01 X4.41869 Y-3.25550
G01 X4.41764 Y-3.25518
G01 X4.41667 Y-3.25466
G01 X4.41545 Y-3.25366
G01 X4.41163 Y-3.24984
G01 X4.41062 Y-3.24862
G01 X4.41011 Y-3.24765
G01 X4.40979 Y-3.24659
G01 X4.40963 Y-3.24501
G04 P0 ( dwell for no time -- G64 should not smooth over this point )
G00 Z0.08000 ( retract )

G00 X4.47976 Y-3.17126 ( rapid move to begin. )
G01 F180.00000
( Mill infeed pass 1/1 )
G01 Z-0.04000
G04 P0 ( dwell for no time -- G64 should not smooth over this point )
G01 F360.00000
G01 X4.47976 Y-3.17126
G01 X4.52023 Y-3.17126
G04 P0 ( dwell for no time -- G64 should not smooth over this point )
G00 Z0.08000 ( retract )

G00 X4.69054 Y-2.94061 ( rapid move to begin. )
G01 F180.00000
( Mill infeed pass 1/1 )
G01 Z-0.04000
G04 P0 ( dwell for no time -- G64 should not smooth over this point )
G01 F360.00000
G01 X4.69054 Y-2.94061
G01 X4.69226 Y-2.94033
G01 X4.69615 Y-2.93898
G01 X4.69878 Y-2.93842
G01 X4.69876 Y-2.93812
G01 X4.69878 Y-2.93842
G01 X4.70122 Y-2.93842
G01 X4.70360 Y-2.93893
G01 X4.70372 Y-2.93855
G01 X4.70360 Y-2.93893
G01 X4.70582 Y-2.93992
G01 X4.70779 Y-2.94135
G01 X4.70805 Y-2.94105
G01 X4.70779 Y-2.94135
G01 X4.70942 Y-2.94316
G01 X4.71063 Y-2.94527
G01 X4.71100 Y-2.94510
G01 X4.71063 Y-2.94527
G01 X4.71139 Y-2.94758
G01 X4.71164 Y-2.95000
G01 X4.71204 Y-2.95000
G01 X4.71164 Y-2.95000
G01 X4.71139 Y-2.95242
G01 X4.71063 Y-2.95473
G01 X4.71084 Y-2.95481
G01 X4.71063 Y-2.95473
G01 X4.70942 Y-2.95684
G01 X4.70959 Y-2.95698
G01 X4.70942 Y-2.95684
G01 X4.70779 Y-2.95865
G01 X4.70582 Y-2.96008
G01 X4.70602 Y-2.96042
G01 X4.70582 Y-2.96008
G01 X4.70360 Y-2.96107
G01 X4.70122 Y-2.96158
G01 X4.70126 Y-2.96197
G01 X4.70122 Y-2.96158
G01 X4.69878 Y-2.96158
G01 X4.69640 Y-2.96107
G01 X4.69628 Y-2.96145
G01 X4.69640 Y-2.96107
G01 X4.69418 Y-2.96008
G01 X4.69221 Y-2.95865
G01 X4.69194 Y-2.95894
G01 X4.69221 Y-2.95865
G01 X4.69058 Y-2.95684
G01 X4.68936 Y-2.95473
G01 X4.68900 Y-2.95490
G01 X4.68936 Y-2.95473
G01 X4.68861 Y-2.95242
G01 X4.68836 Y-2.95000
G01 X4.68792 Y-2.94999
G01 X4.68836 Y-2.95000
G01 X4.68861 Y-2.94758
G01 X4.68977 Y-2.94400
G01 X4.69054 Y-2.94061
G01 X4.68842 Y-2.93854
G04 P0 ( dwell for no time -- G64 should not smooth over this point )
G00 Z0.08000 ( retract )

G00 X4.68645 Y-2.55000 ( rapid move to begin. )
G01 F180.00000
( Mill infeed pass 1/1 )
G01 Z-0.04000
G04 P0 ( dwell for no time -- G64 should not smooth over this point )
G01 F360.00000
G01 X4.68645 Y-2.55000
G01 X4.68792 Y-2.55213
G01 X4.69064 Y-2.55691
G01 X4.69049 Y-2.55703
G01 X4.69064 Y-2.55691
G01 X4.69221 Y-2.55865
G01 X4.69418 Y-2.56008
G01 X4.69398 Y-2.56042
G01 X4.69418 Y-2.56008
G01 X4.69640 Y-2.56107
G01 X4.69878 Y-2.56158
G01 X4.69874 Y-2.56197
G01 X4.69878 Y-2.56158
G01 X4.70122 Y-2.56158
G01 X4.70360 Y-2.56107
G01 X4.70372 Y-2.56145
G01 X4.70360 Y-2.56107
G01 X4.70582 Y-2.56008
G01 X4.70779 Y-2.55865
G01 X4.70805 Y-2.55895
G01 X4.70779 Y-2.55865
G01 X4.70942 Y-2.55684
G01 X4.71063 Y-2.55473
G01 X4.71100 Y-2.55490
G01 X4.71063 Y-2.55473
G01 X4.71139 Y-2.55242
G01 X4.71164 Y-2.55000
G01 X4.71204 Y-2.55000
G01 X4.71164 Y-2.55000
G01 X4.71139 Y-2.54758
G01 X4.71063 Y-2.54527
G01 X4.71084 Y-2.54519
G01 X4.71063 Y-2.54527
G01 X4.70942 Y-2.54316
G01 X4.70959 Y-2.54302
G01 X4.70942 Y-2.54316
G01 X4.70779 Y-2.54135
G01 X4.70582 Y-2.53992
G01 X4.70602 Y-2.53958
G01 X4.70582 Y-2.53992
G01 X4.70360 Y-2.53893
G01 X4.70122 Y-2.53842
G01 X4.70126 Y-2.53803
G01 X4.70122 Y-2.53842
G01 X4.69878 Y-2.53842
G01 X4.69640 Y-2.53893
G01 X4.69628 Y-2.53855
G01 X4.69640 Y-2.53893
G01 X4.69418 Y-2.53992
G01 X4.69221 Y-2.54135
G01 X4.69188 Y-2.54100
G01 X4.69221 Y-2.54135
G01 X4.69064 Y-2.54309
G01 X4.68792 Y-2.54787
G01 X4.68645 Y-2.55000
G01 X4.68318 Y-2.54993
( Piece #2, position [1;0] )

G04 P0 ( dwell for no time -- G64 should not smooth over this point )
G00 Z0.08000 ( retract )

G00 X5.19456 Y-2.55000 ( rapid move to begin. )
G01 F180.00000
( Mill infeed pass 1/1 )
G01 Z-0.04000
G04 P0 ( dwell for no time -- G64 should not smooth over this point )
G01 F360.00000
G01 X5.19456 Y-2.55000
G01 X5.19521 Y-2.55612
G01 X5.19711 Y-2.56198
G01 X5.20019 Y-2.56731
G01 X5.20225 Y-2.56960
G01 X5.20431 Y-2.57189
G01 X5.20929 Y-2.57551
G01 X5.21491 Y-2.57801
G01 X5.22094 Y-2.57929
G01 X5.22709 Y-2.57929
G01 X5.23312 Y-2.57801
G01 X5.23874 Y-2.57551
G01 X5.24372 Y-2.57189
G01 X5.24782 Y-2.56734
G01 X5.25149 Y-2.56088
G01 X5.25247 Y-2.55946
G01 X5.25369 Y-2.55824
G01 X5.25510 Y-2.55724
G01 X5.25666 Y-2.55651
G01 X5.25833 Y-2.55606
G01 X5.26005 Y-2.55591
G01 X5.58798 Y-2.55591
G01 X5.58970 Y-2.55606
G01 X5.59137 Y-2.55651
G01 X5.59293 Y-2.55724
G01 X5.59434 Y-2.55824
G01 X5.59556 Y-2.55946
G01 X5.59654 Y-2.56088
G01 X5.60021 Y-2.56734
G01 X5.60431 Y-2.57189
G01 X5.60929 Y-2.57551
G01 X5.61491 Y-2.57801
G01 X5.62094 Y-2.57929
G01 X5.62709 Y-2.57929
G01 X5.63312 Y-2.57801
G01 X5.63874 Y-2.57551
G01 X5.64372 Y-2.57189
G01 X5.64784 Y-2.56731
G01 X5.65092 Y-2.56198
G01 X5.65282 Y-2.55612
G01 X5.65347 Y-2.55000
G01 X5.65282 Y-2.54388
G01 X5.65109 Y-2.53853
G01 X5.65069 Y-2.53677
G01 X5.65062 Y-2.53497
G01 X5.65088 Y-2.53319
G01 X5.65146 Y-2.53148
G01 X5.65234 Y-2.52991
G01 X5.65349 Y-2.52853
G01 X5.76998 Y-2.41204
G01 X5.77115 Y-2.41104
G01 X5.77247 Y-2.41023
G01 X5.77389 Y-2.40964
G01 X5.77540 Y-2.40928
G01 X5.77694 Y-2.40916
G01 X6.12109 Y-2.40916
G01 X6.12301 Y-2.40935
G01 X6.12486 Y-2.40991
G01 X6.12656 Y-2.41082
G01 X6.12805 Y-2.41204
G01 X6.24454 Y-2.52853
G01 X6.24569 Y-2.52991
G01 X6.24657 Y-2.53148
G01 X6.24715 Y-2.53319
G01 X6.24741 Y-2.53497
G01 X6.24734 Y-2.53677
G01 X6.24694 Y-2.53853
G01 X6.24521 Y-2.54388
G01 X6.24456 Y-2.55000
G01 X6.24469 Y-2.55263
G01 X6.24443 Y-2.55432
G01 X6.24388 Y-2.55593
G01 X6.24306 Y-2.55742
G01 X6.24200 Y-2.55875
G01 X6.24072 Y-2.55988
G01 X6.23927 Y-2.56077
G01 X5.99280 Y-2.68400
G01 X5.99139 Y-2.68458
G01 X5.98991 Y-2.68492
G01 X5.98840 Y-2.68504
G01 X5.91496 Y-2.68504
G01 X5.91496 Y-2.80316
G01 X6.03307 Y-2.80316
G01 X6.03307 Y-2.68316
G01 X6.03324 Y-2.68135
G01 X6.03374 Y-2.67961
G01 X6.03454 Y-2.67798
G01 X6.03563 Y-2.67654
G01 X6.03697 Y-2.67531
G01 X6.03851 Y-2.67435
G01 X6.24453 Y-2.57135
G01 X6.24620 Y-2.57070
G01 X6.24795 Y-2.57036
G01 X6.24974 Y-2.57034
G01 X6.25150 Y-2.57065
G01 X6.25318 Y-2.57127
G01 X6.25472 Y-2.57219
G01 X6.25929 Y-2.57551
G01 X6.26491 Y-2.57801
G01 X6.27094 Y-2.57929
G01 X6.27709 Y-2.57929
G01 X6.28312 Y-2.57801
G01 X6.28874 Y-2.57551
G01 X6.29372 Y-2.57189
G01 X6.29782 Y-2.56734
G01 X6.30149 Y-2.56088
G01 X6.30247 Y-2.55946
G01 X6.30369 Y-2.55824
G01 X6.30510 Y-2.55724
G01 X6.30666 Y-2.55651
G01 X6.30833 Y-2.55606
G01 X6.31005 Y-2.55591
G01 X6.63798 Y-2.55591
G01 X6.63970 Y-2.55606
G01 X6.64137 Y-2.55651
G01 X6.64293 Y-2.55724
G01 X6.64434 Y-2.55824
G01 X6.64556 Y-2.55946
G01 X6.64654 Y-2.56088
G01 X6.65021 Y-2.56734
G01 X6.65431 Y-2.57189
G01 X6.65929 Y-2.57551
G01 X6.66491 Y-2.57801
G01 X6.67094 Y-2.57929
G01 X6.67709 Y-2.57929
G01 X6.68312 Y-2.57801
G01 X6.68874 Y-2.57551
G01 X6.69372 Y-2.57189
G01 X6.69696 Y-2.56829
G01 X6.69784 Y-2.56731
G01 X6.70092 Y-2.56198
G01 X6.70282 Y-2.55612
G01 X6.70347 Y-2.55000
G01 X6.70282 Y-2.54388
G01 X6.70092 Y-2.53802
G01 X6.69784 Y-2.53269
G01 X6.69372 Y-2.52811
G01 X6.68874 Y-2.52449
G01 X6.68312 Y-2.52199
G01 X6.67709 Y-2.52071
G01 X6.67094 Y-2.52071
G01 X6.66491 Y-2.52199
G01 X6.65929 Y-2.52449
G01 X6.65431 Y-2.52811
G01 X6.65021 Y-2.53266
G01 X6.64654 Y-2.53911
G01 X6.64556 Y-2.54054
G01 X6.64434 Y-2.54176
G01 X6.64293 Y-2.54276
G01 X6.64137 Y-2.54349
G01 X6.63970 Y-2.54394
G01 X6.63798 Y-2.54409
G01 X6.31005 Y-2.54409
G01 X6.30833 Y-2.54394
G01 X6.30666 Y-2.54349
G01 X6.30510 Y-2.54276
G01 X6.30369 Y-2.54176
G01 X6.30247 Y-2.54054
G01 X6.30149 Y-2.53911
G01 X6.29782 Y-2.53266
G01 X6.29372 Y-2.52811
G01 X6.28874 Y-2.52449
G01 X6.28312 Y-2.52199
G01 X6.27709 Y-2.52071
G01 X6.27094 Y-2.52071
G01 X6.26491 Y-2.52199
G01 X6.26195 Y-2.52315
G01 X6.26028 Y-2.52342
G01 X6.25859 Y-2.52340
G01 X6.25692 Y-2.52309
G01 X6.25534 Y-2.52251
G01 X6.25388 Y-2.52165
G01 X6.25258 Y-2.52056
G01 X6.13186 Y-2.39984
G01 X6.13063 Y-2.39884
G01 X6.12966 Y-2.39832
G01 X6.12861 Y-2.39800
G01 X6.12703 Y-2.39784
G01 X5.77100 Y-2.39784
G01 X5.76942 Y-2.39800
G01 X5.76837 Y-2.39832
G01 X5.76740 Y-2.39884
G01 X5.76617 Y-2.39984
G01 X5.64545 Y-2.52056
G01 X5.64415 Y-2.52165
G01 X5.64269 Y-2.52251
G01 X5.64111 Y-2.52309
G01 X5.63944 Y-2.52340
G01 X5.63775 Y-2.52342
G01 X5.63608 Y-2.52315
G01 X5.63312 Y-2.52199
G01 X5.62709 Y-2.52071
G01 X5.62094 Y-2.52071
G01 X5.61491 Y-2.52199
G01 X5.60929 Y-2.52449
G01 X5.60431 Y-2.52811
G01 X5.60021 Y-2.53266
G01 X5.59654 Y-2.53911
G01 X5.59556 Y-2.54054
G01 X5.59434 Y-2.54176
G01 X5.59293 Y-2.54276
G01 X5.59137 Y-2.54349
G01 X5.58970 Y-2.54394
G01 X5.58798 Y-2.54409
G01 X5.26005 Y-2.54409
G01 X5.25833 Y-2.54394
G01 X5.25666 Y-2.54349
G01 X5.25510 Y-2.54276
G01 X5.25369 Y-2.54176
G01 X5.25247 Y-2.54054
G01 X5.25149 Y-2.53911
G01 X5.24782 Y-2.53266
G01 X5.24372 Y-2.52811
G01 X5.23874 Y-2.52449
G01 X5.23312 Y-2.52199
G01 X5.22775 Y-2.52085
G01 X5.22709 Y-2.52071
G01 X5.22094 Y-2.52071
G01 X5.21491 Y-2.52199
G01 X5.20929 Y-2.52449
G01 X5.20431 Y-2.52811
G01 X5.20393 Y-2.52853
G01 X5.20019 Y-2.53269
G01 X5.19711 Y-2.53802
G01 X5.19521 Y-2.54387
G01 X5.19456 Y-2.55000
G01 X5.21237 Y-2.55000
G01 X5.21263 Y-2.55242
G01 X5.21241 Y-2.55245
G01 X5.21263 Y-2.55242
G01 X5.21338 Y-2.55473
G01 X5.21318 Y-2.55484
G01 X5.21338 Y-2.55473
G01 X5.21460 Y-2.55684
G01 X5.21623 Y-2.55865
G01 X5.21596 Y-2.55895
G01 X5.21623 Y-2.55865
G01 X5.21819 Y-2.56008
G01 X5.22042 Y-2.56107
G01 X5.22030 Y-2.56145
G01 X5.22042 Y-2.56107
G01 X5.22280 Y-2.56158
G01 X5.22523 Y-2.56158
G01 X5.22527 Y-2.56197
G01 X5.22523 Y-2.56158
G01 X5.22761 Y-2.56107
G01 X5.22984 Y-2.56008
G01 X5.23003 Y-2.56042
G01 X5.22984 Y-2.56008
G01 X5.23180 Y-2.55865
G01 X5.23337 Y-2.55691
G01 X5.23352 Y-2.55703
G01 X5.23337 Y-2.55691
G01 X5.23609 Y-2.55213
G01 X5.23756 Y-2.55000
G01 X5.24084 Y-2.54993
G01 X5.23756 Y-2.55000
G01 X5.23609 Y-2.54787
G01 X5.23337 Y-2.54309
G01 X5.23180 Y-2.54135
G01 X5.23213 Y-2.54100
G01 X5.23180 Y-2.54135
G01 X5.22984 Y-2.53992
G01 X5.22761 Y-2.53893
G01 X5.22773 Y-2.53855
G01 X5.22761 Y-2.53893
G01 X5.22523 Y-2.53842
G01 X5.22280 Y-2.53842
G01 X5.22276 Y-2.53803
G01 X5.22280 Y-2.53842
G01 X5.22042 Y-2.53893
G01 X5.21819 Y-2.53992
G01 X5.21800 Y-2.53957
G01 X5.21819 Y-2.53992
G01 X5.21623 Y-2.54135
G01 X5.21460 Y-2.54316
G01 X5.21428 Y-2.54292
G01 X5.21460 Y-2.54316
G01 X5.21338 Y-2.54526
G01 X5.21263 Y-2.54758
G01 X5.21224 Y-2.54750
G01 X5.21263 Y-2.54758
G01 X5.21237 Y-2.55000
G01 X5.61047 Y-2.55000
G01 X5.61194 Y-2.54787
G01 X5.61466 Y-2.54309
G01 X5.61622 Y-2.54135
G01 X5.61590 Y-2.54100
G01 X5.61622 Y-2.54135
G01 X5.61819 Y-2.53992
G01 X5.62042 Y-2.53893
G01 X5.62030 Y-2.53855
G01 X5.62042 Y-2.53893
G01 X5.62280 Y-2.53842
G01 X5.62523 Y-2.53842
G01 X5.62525 Y-2.53812
G01 X5.62523 Y-2.53842
G01 X5.62786 Y-2.53898
G01 X5.63176 Y-2.54033
G01 X5.63347 Y-2.54060
G01 X5.63560 Y-2.53855
G01 X5.63347 Y-2.54060
G01 X5.63424 Y-2.54400
G01 X5.63540 Y-2.54758
G01 X5.63566 Y-2.55000
G01 X5.63609 Y-2.55000
G01 X5.63566 Y-2.55000
G01 X5.63540 Y-2.55242
G01 X5.63465 Y-2.55473
G01 X5.63501 Y-2.55490
G01 X5.63465 Y-2.55473
G01 X5.63343 Y-2.55684
G01 X5.63180 Y-2.55865
G01 X5.63207 Y-2.55895
G01 X5.63180 Y-2.55865
G01 X5.62984 Y-2.56008
G01 X5.62761 Y-2.56107
G01 X5.62773 Y-2.56145
G01 X5.62761 Y-2.56107
G01 X5.62523 Y-2.56158
G01 X5.62280 Y-2.56158
G01 X5.62276 Y-2.56197
G01 X5.62280 Y-2.56158
G01 X5.62042 Y-2.56107
G01 X5.61819 Y-2.56008
G01 X5.61809 Y-2.56028
G01 X5.61819 Y-2.56008
G01 X5.61622 Y-2.55865
G01 X5.61602 Y-2.55885
G01 X5.61622 Y-2.55865
G01 X5.61466 Y-2.55691
G01 X5.61194 Y-2.55213
G01 X5.61047 Y-2.55000
G04 P0 ( dwell for no time -- G64 should not smooth over this point )
G00 Z0.08000 ( retract )

G00 X5.74286 Y-2.62598 ( rapid move to begin. )
G01 F180.00000
( Mill infeed pass 1/1 )
G01 Z-0.04000
G04 P0 ( dwell for no time -- G64 should not smooth over this point )
G01 F360.00000
G01 X5.74286 Y-2.62598
G01 X5.74040 Y-2.62595
G01 X5.74282 Y-2.62594
G01 X5.74303 Y-2.62619
G01 X5.74557 Y-2.63095
G01 X5.74714 Y-2.63612
G01 X5.74767 Y-2.64150
G01 X5.74767 Y-2.66734
G01 X5.74248 Y-2.67253
G01 X5.74767 Y-2.66734
G01 X5.83036 Y-2.66734
G01 X5.83555 Y-2.67253
G01 X5.83036 Y-2.66734
G01 X5.83036 Y-2.58466
G01 X5.83555 Y-2.57947
G01 X5.83036 Y-2.58466
G01 X5.74767 Y-2.58466
G01 X5.74264 Y-2.57955
G01 X5.74767 Y-2.58466
G01 X5.74767 Y-2.61050
G01 X5.74725 Y-2.61529
G01 X5.74601 Y-2.61992
G01 X5.74398 Y-2.62428
G01 X5.74282 Y-2.62594
G01 X5.76255 Y-2.62620
G01 X5.76452 Y-2.63267
G01 X5.76539 Y-2.64150
G01 X5.76539 Y-2.64963
G01 X5.76020 Y-2.65482
G01 X5.76539 Y-2.64963
G01 X5.81264 Y-2.64963
G01 X5.81783 Y-2.65482
G01 X5.81264 Y-2.64963
G01 X5.81264 Y-2.60237
G01 X5.81783 Y-2.59718
G01 X5.81264 Y-2.60237
G01 X5.76539 Y-2.60237
G01 X5.76067 Y-2.59745
G01 X5.76539 Y-2.60237
G01 X5.76539 Y-2.61050
G01 X5.76470 Y-2.61836
G01 X5.76266 Y-2.62598
G01 X5.76255 Y-2.62620
G01 X5.76183 Y-2.62621
G01 X5.78092 Y-2.62601
G01 X5.78189 Y-2.62921
G01 X5.78216 Y-2.63191
G01 X5.77894 Y-2.63588
G01 X5.78216 Y-2.63191
G01 X5.79493 Y-2.63191
G01 X5.80012 Y-2.63710
G01 X5.79493 Y-2.63191
G01 X5.79493 Y-2.62008
G01 X5.80012 Y-2.61490
G01 X5.79493 Y-2.62008
G01 X5.78226 Y-2.62008
G01 X5.77917 Y-2.61621
G01 X5.78226 Y-2.62008
G01 X5.78214 Y-2.62144
G01 X5.78092 Y-2.62601
G04 P0 ( dwell for no time -- G64 should not smooth over this point )
G00 Z0.08000 ( retract )

G00 X5.92438 Y-2.51216 ( rapid move to begin. )
G01 F180.00000
( Mill infeed pass 1/1 )
G01 Z-0.04000
G04 P0 ( dwell for no time -- G64 should not smooth over this point )
G01 F360.00000
G01 X5.92438 Y-2.51216
G01 X5.92803 Y-2.51651
G01 X5.93057 Y-2.52128
G01 X5.93214 Y-2.52644
G01 X5.93267 Y-2.53182
G01 X5.93267 Y-2.54924
G01 X5.92748 Y-2.55443
G01 X5.93267 Y-2.54924
G01 X6.01536 Y-2.54924
G01 X6.02055 Y-2.55443
G01 X6.01536 Y-2.54924
G01 X6.01536 Y-2.46656
G01 X6.02055 Y-2.46137
G01 X6.01536 Y-2.46656
G01 X5.93267 Y-2.46656
G01 X5.92765 Y-2.46146
G01 X5.93267 Y-2.46656
G01 X5.93267 Y-2.49260
G01 X5.93221 Y-2.49764
G01 X5.93082 Y-2.50251
G01 X5.92858 Y-2.50705
G01 X5.92553 Y-2.51110
G01 X5.92438 Y-2.51216
G01 X5.91909 Y-2.51218
G01 X5.94571 Y-2.51220
G01 X5.94735 Y-2.50889
G01 X5.94962 Y-2.50088
G01 X5.95039 Y-2.49260
G01 X5.95039 Y-2.48427
G01 X5.94570 Y-2.47937
G01 X5.95039 Y-2.48427
G01 X5.99764 Y-2.48427
G01 X6.00283 Y-2.47908
G01 X5.99764 Y-2.48427
G01 X5.99764 Y-2.53153
G01 X6.00283 Y-2.53672
G01 X5.99764 Y-2.53153
G01 X5.95036 Y-2.53153
G01 X5.94620 Y-2.53612
G01 X5.95036 Y-2.53153
G01 X5.94952 Y-2.52299
G01 X5.94694 Y-2.51450
G01 X5.94571 Y-2.51220
G01 X5.94420 Y-2.51211
G01 X5.96257 Y-2.51730
G01 X5.96515 Y-2.51382
G01 X5.97993 Y-2.51382
G01 X5.98512 Y-2.51900
G01 X5.97993 Y-2.51382
G01 X5.97993 Y-2.50198
G01 X5.98512 Y-2.49680
G01 X5.97993 Y-2.50198
G01 X5.96723 Y-2.50198
G01 X5.96426 Y-2.49820
G01 X5.96723 Y-2.50198
G01 X5.96704 Y-2.50413
G01 X5.96471 Y-2.51234
G01 X5.96406 Y-2.51236
G01 X5.96471 Y-2.51234
G01 X5.96515 Y-2.51382
G04 P0 ( dwell for no time -- G64 should not smooth over this point )
G00 Z0.08000 ( retract )

G00 X6.25931 Y-2.55741 ( rapid move to begin. )
G01 F180.00000
( Mill infeed pass 1/1 )
G01 Z-0.04000
G04 P0 ( dwell for no time -- G64 should not smooth over this point )
G01 F360.00000
G01 X6.25931 Y-2.55741
G01 X6.26203 Y-2.55601
G01 X6.26513 Y-2.55786
G01 X6.26819 Y-2.56008
G01 X6.27042 Y-2.56107
G01 X6.27033 Y-2.56130
G01 X6.27042 Y-2.56107
G01 X6.27280 Y-2.56158
G01 X6.27279 Y-2.56180
G01 X6.27280 Y-2.56158
G01 X6.27523 Y-2.56158
G01 X6.27761 Y-2.56107
G01 X6.27767 Y-2.56128
G01 X6.27761 Y-2.56107
G01 X6.27984 Y-2.56008
G01 X6.27995 Y-2.56026
G01 X6.27984 Y-2.56008
G01 X6.28180 Y-2.55865
G01 X6.28337 Y-2.55691
G01 X6.28352 Y-2.55703
G01 X6.28337 Y-2.55691
G01 X6.28609 Y-2.55213
G01 X6.28756 Y-2.55000
G01 X6.29057 Y-2.55000
G01 X6.28756 Y-2.55000
G01 X6.28609 Y-2.54787
G01 X6.28337 Y-2.54309
G01 X6.28352 Y-2.54297
G01 X6.28337 Y-2.54309
G01 X6.28180 Y-2.54135
G01 X6.27984 Y-2.53992
G01 X6.28003 Y-2.53958
G01 X6.27984 Y-2.53992
G01 X6.27761 Y-2.53893
G01 X6.27523 Y-2.53842
G01 X6.27527 Y-2.53802
G01 X6.27523 Y-2.53842
G01 X6.27280 Y-2.53842
G01 X6.27016 Y-2.53892
G01 X6.26627 Y-2.54033
G01 X6.26456 Y-2.54060
G01 X6.26273 Y-2.53879
G01 X6.26456 Y-2.54060
G01 X6.26379 Y-2.54400
G01 X6.26254 Y-2.54756
G01 X6.26231 Y-2.55065
G01 X6.26236 Y-2.55385
G01 X6.26203 Y-2.55601
G04 P0 ( dwell for no time -- G64 should not smooth over this point )
G00 Z0.08000 ( retract )

G00 X6.25680 Y-2.94797 ( rapid move to begin. )
G01 F180.00000
( Mill infeed pass 1/1 )
G01 Z-0.04000
G04 P0 ( dwell for no time -- G64 should not smooth over this point )
G01 F360.00000
G01 X6.25680 Y-2.94797
G01 X6.25771 Y-2.94857
G01 X6.26132 Y-2.95209
G01 X6.26460 Y-2.95684
G01 X6.26622 Y-2.95865
G01 X6.26608 Y-2.95879
G01 X6.26622 Y-2.95865
G01 X6.26819 Y-2.96008
G01 X6.26809 Y-2.96028
G01 X6.26819 Y-2.96008
G01 X6.27042 Y-2.96107
G01 X6.27280 Y-2.96158
G01 X6.27276 Y-2.96197
G01 X6.27280 Y-2.96158
G01 X6.27523 Y-2.96158
G01 X6.27761 Y-2.96107
G01 X6.27773 Y-2.96145
G01 X6.27761 Y-2.96107
G01 X6.27984 Y-2.96008
G01 X6.28180 Y-2.95865
G01 X6.28207 Y-2.95894
G01 X6.28180 Y-2.95865
G01 X6.28343 Y-2.95684
G01 X6.28465 Y-2.95473
G01 X6.28485 Y-2.95484
G01 X6.28465 Y-2.95473
G01 X6.28540 Y-2.95242
G01 X6.28562 Y-2.95246
G01 X6.28540 Y-2.95242
G01 X6.28566 Y-2.95000
G01 X6.28540 Y-2.94758
G01 X6.28579 Y-2.94750
G01 X6.28540 Y-2.94758
G01 X6.28465 Y-2.94526
G01 X6.28343 Y-2.94316
G01 X6.28375 Y-2.94292
G01 X6.28343 Y-2.94316
G01 X6.28180 Y-2.94135
G01 X6.27984 Y-2.93992
G01 X6.27991 Y-2.93981
G01 X6.27984 Y-2.93992
G01 X6.27855 Y-2.93934
G01 X6.27395 Y-2.93674
G01 X6.27076 Y-2.93402
G01 X6.27050 Y-2.92761
G01 X6.27076 Y-2.93402
G01 X6.25680 Y-2.94797
G01 X6.24888 Y-2.94815
G04 P0 ( dwell for no time -- G64 should not smooth over this point )
G00 Z0.08000 ( retract )

G00 X5.96810 Y-2.75001 ( rapid move to begin. )
G01 F180.00000
( Mill infeed pass 1/1 )
G01 Z-0.04000
G04 P0 ( dwell for no time -- G64 should not smooth over this point )
G01 F360.00000
G01 X5.96810 Y-2.75001
G01 X5.97993 Y-2.75001
G01 X5.98512 Y-2.75520
G01 X5.97993 Y-2.75001
G01 X5.97993 Y-2.73818
G01 X5.98512 Y-2.73299
G01 X5.97993 Y-2.73818
G01 X5.96810 Y-2.73818
G01 X5.96291 Y-2.73299
G01 X5.96810 Y-2.73818
G01 X5.96810 Y-2.75001
G01 X5.95039 Y-2.76773
G01 X5.99764 Y-2.76773
G01 X6.00283 Y-2.77292
G01 X5.99764 Y-2.76773
G01 X5.99764 Y-2.71939
G01 X6.00358 Y-2.71272
G01 X5.99764 Y-2.71939
G01 X5.99537 Y-2.71993
G01 X5.98840 Y-2.72047
G01 X5.95039 Y-2.72047
G01 X5.94520 Y-2.71528
G01 X5.95039 Y-2.72047
G01 X5.95039 Y-2.76773
G01 X5.93267 Y-2.78544
G01 X6.01536 Y-2.78544
G01 X6.02055 Y-2.79063
G01 X6.01536 Y-2.78544
G01 X6.01536 Y-2.69253
G01 X6.02376 Y-2.67893
G01 X6.01536 Y-2.69253
G01 X6.00072 Y-2.69985
G01 X5.99678 Y-2.70145
G01 X5.99264 Y-2.70243
G01 X5.98840 Y-2.70276
G01 X5.93267 Y-2.70276
G01 X5.92752 Y-2.69763
G01 X5.93267 Y-2.70276
G01 X5.93267 Y-2.78544
G01 X5.92748 Y-2.79063
G04 P0 ( dwell for no time -- G64 should not smooth over this point )
G00 Z0.08000 ( retract )

G00 X5.64094 Y-2.95000 ( rapid move to begin. )
G01 F180.00000
( Mill infeed pass 1/1 )
G01 Z-0.04000
G04 P0 ( dwell for no time -- G64 should not smooth over this point )
G01 F360.00000
G01 X5.64094 Y-2.95000
G01 X5.63747 Y-2.95000
G01 X5.63586 Y-2.95244
G01 X5.63343 Y-2.95684
G01 X5.63180 Y-2.95865
G01 X5.63214 Y-2.95901
G01 X5.63180 Y-2.95865
G01 X5.62984 Y-2.96008
G01 X5.62761 Y-2.96107
G01 X5.62773 Y-2.96145
G01 X5.62761 Y-2.96107
G01 X5.62523 Y-2.96158
G01 X5.62280 Y-2.96158
G01 X5.62279 Y-2.96180
G01 X5.62280 Y-2.96158
G01 X5.62042 Y-2.96107
G01 X5.62034 Y-2.96128
G01 X5.62042 Y-2.96107
G01 X5.61819 Y-2.96008
G01 X5.61622 Y-2.95865
G01 X5.61588 Y-2.95901
G01 X5.61622 Y-2.95865
G01 X5.61460 Y-2.95684
G01 X5.61217 Y-2.95244
G01 X5.61056 Y-2.95000
G01 X5.60709 Y-2.95000
G01 X5.61056 Y-2.95000
G01 X5.61217 Y-2.94756
G01 X5.61460 Y-2.94316
G01 X5.61622 Y-2.94135
G01 X5.61589 Y-2.94099
G01 X5.61622 Y-2.94135
G01 X5.61819 Y-2.93992
G01 X5.62042 Y-2.93893
G01 X5.62029 Y-2.93855
G01 X5.62042 Y-2.93893
G01 X5.62280 Y-2.93842
G01 X5.62523 Y-2.93842
G01 X5.62524 Y-2.93820
G01 X5.62523 Y-2.93842
G01 X5.62761 Y-2.93893
G01 X5.62769 Y-2.93872
G01 X5.62761 Y-2.93893
G01 X5.62984 Y-2.93992
G01 X5.63180 Y-2.94135
G01 X5.63214 Y-2.94099
G01 X5.63180 Y-2.94135
G01 X5.63343 Y-2.94316
G01 X5.63586 Y-2.94756
G01 X5.63747 Y-2.95000
G04 P0 ( dwell for no time -- G64 should not smooth over this point )
G00 Z0.08000 ( retract )

G00 X5.45675 Y-2.85000 ( rapid move to begin. )
G01 F180.00000
( Mill infeed pass 1/1 )
G01 Z-0.04000
G04 P0 ( dwell for no time -- G64 should not smooth over this point )
G01 F360.00000
G01 X5.45675 Y-2.85000
G01 X5.45709 Y-2.85326
G01 X5.45810 Y-2.85638
G01 X5.45974 Y-2.85922
G01 X5.46194 Y-2.86166
G01 X5.46459 Y-2.86359
G01 X5.46759 Y-2.86492
G01 X5.47080 Y-2.86561
G01 X5.47428 Y-2.86561
G01 X5.47539 Y-2.86547
G01 X5.47702 Y-2.86553
G01 X5.47862 Y-2.86586
G01 X5.48014 Y-2.86645
G01 X5.48154 Y-2.86729
G01 X5.48278 Y-2.86834
G01 X5.56810 Y-2.95366
G01 X5.56933 Y-2.95466
G01 X5.57030 Y-2.95518
G01 X5.57135 Y-2.95550
G01 X5.57293 Y-2.95566
G01 X5.58790 Y-2.95566
G01 X5.58966 Y-2.95581
G01 X5.59136 Y-2.95628
G01 X5.59295 Y-2.95705
G01 X5.59438 Y-2.95809
G01 X5.59560 Y-2.95936
G01 X5.59657 Y-2.96083
G01 X5.60019 Y-2.96731
G01 X5.60431 Y-2.97189
G01 X5.60929 Y-2.97551
G01 X5.61491 Y-2.97801
G01 X5.61883 Y-2.97884
G01 X5.62094 Y-2.97929
G01 X5.62709 Y-2.97929
G01 X5.63312 Y-2.97801
G01 X5.63874 Y-2.97551
G01 X5.64372 Y-2.97189
G01 X5.64784 Y-2.96731
G01 X5.65146 Y-2.96083
G01 X5.65243 Y-2.95936
G01 X5.65365 Y-2.95809
G01 X5.65508 Y-2.95705
G01 X5.65667 Y-2.95628
G01 X5.65837 Y-2.95581
G01 X5.66013 Y-2.95566
G01 X5.96933 Y-2.95566
G01 X5.97091 Y-2.95550
G01 X5.97196 Y-2.95518
G01 X5.97293 Y-2.95466
G01 X5.97416 Y-2.95366
G01 X6.13036 Y-2.79745
G01 X6.13186 Y-2.79623
G01 X6.13356 Y-2.79532
G01 X6.13541 Y-2.79476
G01 X6.13733 Y-2.79457
G01 X6.61728 Y-2.79457
G01 X6.61920 Y-2.79476
G01 X6.62105 Y-2.79532
G01 X6.62275 Y-2.79623
G01 X6.62424 Y-2.79745
G01 X6.74032 Y-2.91353
G01 X6.74133 Y-2.91471
G01 X6.74213 Y-2.91602
G01 X6.74273 Y-2.91745
G01 X6.74309 Y-2.91895
G01 X6.74321 Y-2.92049
G01 X6.74321 Y-2.97951
G01 X6.74309 Y-2.98105
G01 X6.74273 Y-2.98255
G01 X6.74213 Y-2.98398
G01 X6.74133 Y-2.98529
G01 X6.74032 Y-2.98647
G01 X6.56407 Y-3.16272
G01 X6.56258 Y-3.16394
G01 X6.56088 Y-3.16485
G01 X6.55903 Y-3.16541
G01 X6.55711 Y-3.16560
G01 X6.51829 Y-3.16560
G01 X6.51644 Y-3.16543
G01 X6.51466 Y-3.16491
G01 X6.51301 Y-3.16407
G01 X6.51155 Y-3.16293
G01 X6.51032 Y-3.16154
G01 X6.50879 Y-3.15944
G01 X6.50605 Y-3.15697
G01 X6.50285 Y-3.15512
G01 X6.49934 Y-3.15398
G01 X6.49515 Y-3.15354
G01 X6.45288 Y-3.15354
G01 X6.44869 Y-3.15398
G01 X6.44518 Y-3.15512
G01 X6.44198 Y-3.15697
G01 X6.43924 Y-3.15944
G01 X6.43707 Y-3.16243
G01 X6.43556 Y-3.16580
G01 X6.43480 Y-3.16941
G01 X6.43480 Y-3.17311
G01 X6.43556 Y-3.17672
G01 X6.43707 Y-3.18009
G01 X6.43924 Y-3.18308
G01 X6.44198 Y-3.18555
G01 X6.44518 Y-3.18739
G01 X6.44869 Y-3.18854
G01 X6.45288 Y-3.18898
G01 X6.49515 Y-3.18898
G01 X6.49934 Y-3.18854
G01 X6.50285 Y-3.18739
G01 X6.50605 Y-3.18555
G01 X6.50879 Y-3.18308
G01 X6.51032 Y-3.18097
G01 X6.51155 Y-3.17958
G01 X6.51301 Y-3.17845
G01 X6.51466 Y-3.17761
G01 X6.51644 Y-3.17709
G01 X6.51829 Y-3.17692
G01 X6.56305 Y-3.17692
G01 X6.56463 Y-3.17676
G01 X6.56568 Y-3.17644
G01 X6.56665 Y-3.17592
G01 X6.56788 Y-3.17492
G01 X6.75252 Y-2.99027
G01 X6.75353 Y-2.98905
G01 X6.75405 Y-2.98808
G01 X6.75437 Y-2.98702
G01 X6.75452 Y-2.98544
G01 X6.75452 Y-2.91455
G01 X6.75437 Y-2.91297
G01 X6.75405 Y-2.91192
G01 X6.75353 Y-2.91095
G01 X6.75252 Y-2.90973
G01 X6.62805 Y-2.78525
G01 X6.62682 Y-2.78424
G01 X6.62585 Y-2.78373
G01 X6.62480 Y-2.78341
G01 X6.62322 Y-2.78325
G01 X6.13139 Y-2.78325
G01 X6.12981 Y-2.78341
G01 X6.12876 Y-2.78373
G01 X6.12779 Y-2.78424
G01 X6.12656 Y-2.78525
G01 X5.97035 Y-2.94146
G01 X5.96918 Y-2.94246
G01 X5.96786 Y-2.94327
G01 X5.96644 Y-2.94386
G01 X5.96493 Y-2.94422
G01 X5.96339 Y-2.94434
G01 X5.66013 Y-2.94434
G01 X5.65837 Y-2.94418
G01 X5.65667 Y-2.94371
G01 X5.65508 Y-2.94295
G01 X5.65365 Y-2.94191
G01 X5.65243 Y-2.94064
G01 X5.65146 Y-2.93916
G01 X5.64784 Y-2.93269
G01 X5.64372 Y-2.92811
G01 X5.63874 Y-2.92449
G01 X5.63312 Y-2.92199
G01 X5.62709 Y-2.92071
G01 X5.62094 Y-2.92071
G01 X5.61491 Y-2.92199
G01 X5.60929 Y-2.92449
G01 X5.60431 Y-2.92811
G01 X5.60019 Y-2.93269
G01 X5.59657 Y-2.93916
G01 X5.59560 Y-2.94064
G01 X5.59438 Y-2.94191
G01 X5.59295 Y-2.94295
G01 X5.59136 Y-2.94371
G01 X5.58966 Y-2.94418
G01 X5.58790 Y-2.94434
G01 X5.57887 Y-2.94434
G01 X5.57733 Y-2.94422
G01 X5.57582 Y-2.94386
G01 X5.57440 Y-2.94327
G01 X5.57308 Y-2.94246
G01 X5.57191 Y-2.94146
G01 X5.49072 Y-2.86028
G01 X5.48960 Y-2.85893
G01 X5.48873 Y-2.85741
G01 X5.48815 Y-2.85576
G01 X5.48787 Y-2.85404
G01 X5.48813 Y-2.85000
G01 X5.48779 Y-2.84674
G01 X5.48678 Y-2.84362
G01 X5.48514 Y-2.84077
G01 X5.48294 Y-2.83834
G01 X5.48029 Y-2.83641
G01 X5.47729 Y-2.83507
G01 X5.47408 Y-2.83439
G01 X5.47080 Y-2.83439
G01 X5.46952 Y-2.83466
G01 X5.46759 Y-2.83507
G01 X5.46459 Y-2.83641
G01 X5.46194 Y-2.83834
G01 X5.45974 Y-2.84077
G01 X5.45810 Y-2.84362
G01 X5.45709 Y-2.84674
G01 X5.45675 Y-2.85000
G04 P0 ( dwell for no time -- G64 should not smooth over this point )
G00 Z0.08000 ( retract )

G00 X5.21237 Y-2.95000 ( rapid move to begin. )
G01 F180.00000
( Mill infeed pass 1/1 )
G01 Z-0.04000
G04 P0 ( dwell for no time -- G64 should not smooth over this point )
G01 F360.00000
G01 X5.21237 Y-2.95000
G01 X5.21263 Y-2.95242
G01 X5.21241 Y-2.95248
G01 X5.21263 Y-2.95242
G01 X5.21338 Y-2.95473
G01 X5.21460 Y-2.95684
G01 X5.21428 Y-2.95708
G01 X5.21460 Y-2.95684
G01 X5.21623 Y-2.95865
G01 X5.21819 Y-2.96008
G01 X5.21812 Y-2.96019
G01 X5.21819 Y-2.96008
G01 X5.21972 Y-2.96076
G01 X5.22402 Y-2.96319
G01 X5.22402 Y-2.96556
G01 X5.22402 Y-2.96319
G01 X5.22831 Y-2.96076
G01 X5.22984 Y-2.96008
G01 X5.22991 Y-2.96019
G01 X5.22984 Y-2.96008
G01 X5.23180 Y-2.95865
G01 X5.23343 Y-2.95684
G01 X5.23375 Y-2.95708
G01 X5.23343 Y-2.95684
G01 X5.23465 Y-2.95473
G01 X5.23540 Y-2.95242
G01 X5.23562 Y-2.95248
G01 X5.23540 Y-2.95242
G01 X5.23566 Y-2.95000
G01 X5.23591 Y-2.94998
G01 X5.23566 Y-2.95000
G01 X5.23540 Y-2.94758
G01 X5.23424 Y-2.94400
G01 X5.23347 Y-2.94061
G01 X5.23560 Y-2.93854
G01 X5.23347 Y-2.94061
G01 X5.23176 Y-2.94033
G01 X5.22786 Y-2.93898
G01 X5.22523 Y-2.93842
G01 X5.22525 Y-2.93827
G01 X5.22523 Y-2.93842
G01 X5.22280 Y-2.93842
G01 X5.22276 Y-2.93820
G01 X5.22280 Y-2.93842
G01 X5.22042 Y-2.93893
G01 X5.21819 Y-2.93992
G01 X5.21809 Y-2.93972
G01 X5.21819 Y-2.93992
G01 X5.21623 Y-2.94135
G01 X5.21607 Y-2.94119
G01 X5.21623 Y-2.94135
G01 X5.21460 Y-2.94316
G01 X5.21338 Y-2.94526
G01 X5.21302 Y-2.94510
G01 X5.21338 Y-2.94526
G01 X5.21263 Y-2.94758
G01 X5.21237 Y-2.95000
G01 X5.19456 Y-2.95000
G01 X5.19527 Y-2.95634
G01 X5.19711 Y-2.96198
G01 X5.20019 Y-2.96731
G01 X5.20431 Y-2.97189
G01 X5.20929 Y-2.97551
G01 X5.21252 Y-2.97695
G01 X5.21416 Y-2.97787
G01 X5.21560 Y-2.97910
G01 X5.21677 Y-2.98058
G01 X5.21764 Y-2.98225
G01 X5.21818 Y-2.98406
G01 X5.21836 Y-2.98594
G01 X5.21836 Y-3.17972
G01 X5.21851 Y-3.18130
G01 X5.21883 Y-3.18236
G01 X5.21935 Y-3.18333
G01 X5.22036 Y-3.18455
G01 X5.28946 Y-3.25366
G01 X5.29069 Y-3.25466
G01 X5.29166 Y-3.25518
G01 X5.29271 Y-3.25550
G01 X5.29429 Y-3.25566
G01 X5.32974 Y-3.25566
G01 X5.33159 Y-3.25583
G01 X5.33337 Y-3.25635
G01 X5.33502 Y-3.25719
G01 X5.33648 Y-3.25833
G01 X5.33771 Y-3.25971
G01 X5.33924 Y-3.26182
G01 X5.34198 Y-3.26429
G01 X5.34518 Y-3.26613
G01 X5.34869 Y-3.26728
G01 X5.35288 Y-3.26772
G01 X5.39515 Y-3.26772
G01 X5.39934 Y-3.26728
G01 X5.40285 Y-3.26613
G01 X5.40605 Y-3.26429
G01 X5.40879 Y-3.26182
G01 X5.41096 Y-3.25883
G01 X5.41247 Y-3.25546
G01 X5.41323 Y-3.25185
G01 X5.41323 Y-3.24815
G01 X5.41247 Y-3.24454
G01 X5.41096 Y-3.24117
G01 X5.40879 Y-3.23818
G01 X5.40605 Y-3.23571
G01 X5.40285 Y-3.23386
G01 X5.39934 Y-3.23272
G01 X5.39515 Y-3.23228
G01 X5.35288 Y-3.23228
G01 X5.34869 Y-3.23272
G01 X5.34518 Y-3.23386
G01 X5.34198 Y-3.23571
G01 X5.33924 Y-3.23818
G01 X5.33771 Y-3.24029
G01 X5.33648 Y-3.24167
G01 X5.33502 Y-3.24281
G01 X5.33337 Y-3.24365
G01 X5.33159 Y-3.24417
G01 X5.32974 Y-3.24434
G01 X5.30023 Y-3.24434
G01 X5.29831 Y-3.24415
G01 X5.29646 Y-3.24359
G01 X5.29476 Y-3.24268
G01 X5.29327 Y-3.24146
G01 X5.23256 Y-3.18075
G01 X5.23133 Y-3.17926
G01 X5.23042 Y-3.17756
G01 X5.22986 Y-3.17571
G01 X5.22967 Y-3.17379
G01 X5.22967 Y-2.98594
G01 X5.22985 Y-2.98406
G01 X5.23039 Y-2.98225
G01 X5.23126 Y-2.98058
G01 X5.23243 Y-2.97910
G01 X5.23387 Y-2.97787
G01 X5.23551 Y-2.97695
G01 X5.23874 Y-2.97551
G01 X5.24372 Y-2.97189
G01 X5.24784 Y-2.96731
G01 X5.25092 Y-2.96198
G01 X5.25282 Y-2.95612
G01 X5.25347 Y-2.95000
G01 X5.25282 Y-2.94388
G01 X5.25109 Y-2.93853
G01 X5.25069 Y-2.93677
G01 X5.25062 Y-2.93497
G01 X5.25088 Y-2.93319
G01 X5.25146 Y-2.93148
G01 X5.25234 Y-2.92991
G01 X5.25349 Y-2.92853
G01 X5.32348 Y-2.85854
G01 X5.32497 Y-2.85732
G01 X5.32667 Y-2.85641
G01 X5.32852 Y-2.85585
G01 X5.33044 Y-2.85566
G01 X5.34842 Y-2.85566
G01 X5.35013 Y-2.85581
G01 X5.35179 Y-2.85625
G01 X5.35335 Y-2.85698
G01 X5.35475 Y-2.85796
G01 X5.35596 Y-2.85917
G01 X5.35695 Y-2.86058
G01 X5.35767 Y-2.86213
G01 X5.35812 Y-2.86379
G01 X5.35827 Y-2.86575
G01 X5.38976 Y-2.86575
G01 X5.38976 Y-2.83425
G01 X5.35827 Y-2.83425
G01 X5.35808 Y-2.83642
G01 X5.35752 Y-2.83827
G01 X5.35661 Y-2.83997
G01 X5.35538 Y-2.84146
G01 X5.35389 Y-2.84268
G01 X5.35219 Y-2.84359
G01 X5.35034 Y-2.84415
G01 X5.34842 Y-2.84434
G01 X5.32450 Y-2.84434
G01 X5.32292 Y-2.84450
G01 X5.32187 Y-2.84482
G01 X5.32090 Y-2.84533
G01 X5.31967 Y-2.84634
G01 X5.24545 Y-2.92056
G01 X5.24415 Y-2.92165
G01 X5.24269 Y-2.92251
G01 X5.24111 Y-2.92309
G01 X5.23944 Y-2.92340
G01 X5.23775 Y-2.92342
G01 X5.23608 Y-2.92315
G01 X5.23312 Y-2.92199
G01 X5.22709 Y-2.92071
G01 X5.22094 Y-2.92071
G01 X5.21491 Y-2.92199
G01 X5.20929 Y-2.92449
G01 X5.20431 Y-2.92811
G01 X5.20019 Y-2.93269
G01 X5.19711 Y-2.93802
G01 X5.19521 Y-2.94387
G01 X5.19456 Y-2.95000
G04 P0 ( dwell for no time -- G64 should not smooth over this point )
G00 Z0.08000 ( retract )

G00 X5.13651 Y-3.21713 ( rapid move to begin. )
G01 F180.00000
( Mill infeed pass 1/1 )
G01 Z-0.04000
G04 P0 ( dwell for no time -- G64 should not smooth over this point )
G01 F360.00000
G01 X5.13651 Y-3.21713
G01 X5.13651 Y-2.81119
G01 X5.13666 Y-2.80961
G01 X5.13698 Y-2.80856
G01 X5.13750 Y-2.80759
G01 X5.13851 Y-2.80637
G01 X5.18038 Y-2.76449
G01 X5.18161 Y-2.76349
G01 X5.18258 Y-2.76297
G01 X5.18363 Y-2.76265
G01 X5.18521 Y-2.76249
G01 X5.54054 Y-2.76249
G01 X5.54246 Y-2.76230
G01 X5.54431 Y-2.76174
G01 X5.54601 Y-2.76083
G01 X5.54750 Y-2.75961
G01 X5.68477 Y-2.62234
G01 X5.68600 Y-2.62134
G01 X5.68697 Y-2.62082
G01 X5.68802 Y-2.62050
G01 X5.68960 Y-2.62034
G01 X5.72012 Y-2.62034
G01 X5.72182 Y-2.62019
G01 X5.72348 Y-2.61975
G01 X5.72504 Y-2.61902
G01 X5.72644 Y-2.61804
G01 X5.72765 Y-2.61683
G01 X5.72864 Y-2.61542
G01 X5.72936 Y-2.61387
G01 X5.72981 Y-2.61221
G01 X5.72996 Y-2.61050
G01 X5.72996 Y-2.56694
G01 X5.83599 Y-2.56694
G01 X5.83791 Y-2.56675
G01 X5.83976 Y-2.56619
G01 X5.84146 Y-2.56528
G01 X5.84295 Y-2.56406
G01 X5.90277 Y-2.50424
G01 X5.90400 Y-2.50324
G01 X5.90497 Y-2.50272
G01 X5.90786 Y-2.50205
G01 X5.90954 Y-2.50139
G01 X5.91107 Y-2.50043
G01 X5.91241 Y-2.49921
G01 X5.91349 Y-2.49776
G01 X5.91430 Y-2.49614
G01 X5.91479 Y-2.49440
G01 X5.91496 Y-2.49260
G01 X5.91496 Y-2.44884
G01 X6.03307 Y-2.44884
G01 X6.03307 Y-2.56696
G01 X5.91496 Y-2.56696
G01 X5.91496 Y-2.53182
G01 X5.91477 Y-2.52990
G01 X5.91421 Y-2.52805
G01 X5.91330 Y-2.52635
G01 X5.91207 Y-2.52486
G01 X5.91058 Y-2.52364
G01 X5.90888 Y-2.52273
G01 X5.90704 Y-2.52217
G01 X5.90512 Y-2.52198
G01 X5.90319 Y-2.52217
G01 X5.90135 Y-2.52273
G01 X5.89965 Y-2.52364
G01 X5.89816 Y-2.52486
G01 X5.85096 Y-2.57206
G01 X5.84995 Y-2.57323
G01 X5.84915 Y-2.57455
G01 X5.84855 Y-2.57598
G01 X5.84819 Y-2.57748
G01 X5.84807 Y-2.57902
G01 X5.84807 Y-2.68506
G01 X5.72996 Y-2.68506
G01 X5.72996 Y-2.64150
G01 X5.72977 Y-2.63958
G01 X5.72921 Y-2.63773
G01 X5.72830 Y-2.63603
G01 X5.72707 Y-2.63454
G01 X5.72558 Y-2.63332
G01 X5.72388 Y-2.63241
G01 X5.72204 Y-2.63185
G01 X5.72011 Y-2.63166
G01 X5.69554 Y-2.63166
G01 X5.69362 Y-2.63185
G01 X5.69177 Y-2.63241
G01 X5.69007 Y-2.63332
G01 X5.68858 Y-2.63454
G01 X5.55131 Y-2.77181
G01 X5.55008 Y-2.77281
G01 X5.54911 Y-2.77333
G01 X5.54806 Y-2.77365
G01 X5.54648 Y-2.77381
G01 X5.19115 Y-2.77381
G01 X5.18923 Y-2.77400
G01 X5.18738 Y-2.77456
G01 X5.18568 Y-2.77547
G01 X5.18419 Y-2.77669
G01 X5.15071 Y-2.81017
G01 X5.14948 Y-2.81166
G01 X5.14857 Y-2.81336
G01 X5.14801 Y-2.81521
G01 X5.14782 Y-2.81713
G01 X5.14782 Y-3.21120
G01 X5.14801 Y-3.21312
G01 X5.14857 Y-3.21497
G01 X5.14948 Y-3.21667
G01 X5.15071 Y-3.21816
G01 X5.32281 Y-3.39026
G01 X5.32430 Y-3.39148
G01 X5.32600 Y-3.39239
G01 X5.32785 Y-3.39295
G01 X5.32977 Y-3.39314
G01 X5.78916 Y-3.39314
G01 X5.79108 Y-3.39295
G01 X5.79293 Y-3.39239
G01 X5.79463 Y-3.39148
G01 X5.79612 Y-3.39026
G01 X5.81547 Y-3.37091
G01 X5.81670 Y-3.36942
G01 X5.81761 Y-3.36772
G01 X5.81817 Y-3.36587
G01 X5.81836 Y-3.36395
G01 X5.81836 Y-3.33937
G01 X5.81817 Y-3.33745
G01 X5.81761 Y-3.33560
G01 X5.81670 Y-3.33390
G01 X5.81547 Y-3.33241
G01 X5.81398 Y-3.33119
G01 X5.81228 Y-3.33028
G01 X5.81044 Y-3.32972
G01 X5.80852 Y-3.32953
G01 X5.79646 Y-3.32953
G01 X5.79646 Y-3.27047
G01 X5.85157 Y-3.27047
G01 X5.85157 Y-3.28450
G01 X5.85176 Y-3.28642
G01 X5.85232 Y-3.28827
G01 X5.85323 Y-3.28997
G01 X5.85446 Y-3.29146
G01 X5.85595 Y-3.29268
G01 X5.85765 Y-3.29359
G01 X5.85950 Y-3.29415
G01 X5.86142 Y-3.29434
G01 X5.98661 Y-3.29434
G01 X5.98853 Y-3.29415
G01 X5.99038 Y-3.29359
G01 X5.99208 Y-3.29268
G01 X5.99357 Y-3.29146
G01 X5.99480 Y-3.28997
G01 X5.99571 Y-3.28827
G01 X5.99627 Y-3.28642
G01 X5.99645 Y-3.28450
G01 X5.99645 Y-3.27047
G01 X6.05157 Y-3.27047
G01 X6.05157 Y-3.32953
G01 X5.99645 Y-3.32953
G01 X5.99645 Y-3.31550
G01 X5.99627 Y-3.31358
G01 X5.99571 Y-3.31173
G01 X5.99480 Y-3.31003
G01 X5.99357 Y-3.30854
G01 X5.99208 Y-3.30732
G01 X5.99038 Y-3.30641
G01 X5.98853 Y-3.30585
G01 X5.98661 Y-3.30566
G01 X5.86142 Y-3.30566
G01 X5.85950 Y-3.30585
G01 X5.85765 Y-3.30641
G01 X5.85595 Y-3.30732
G01 X5.85446 Y-3.30854
G01 X5.85323 Y-3.31003
G01 X5.85232 Y-3.31173
G01 X5.85176 Y-3.31358
G01 X5.85157 Y-3.31550
G01 X5.85157 Y-3.32953
G01 X5.83951 Y-3.32953
G01 X5.83759 Y-3.32972
G01 X5.83575 Y-3.33028
G01 X5.83405 Y-3.33119
G01 X5.83256 Y-3.33241
G01 X5.83133 Y-3.33390
G01 X5.83042 Y-3.33560
G01 X5.82986 Y-3.33745
G01 X5.82967 Y-3.33937
G01 X5.82967 Y-3.36989
G01 X5.82952 Y-3.37146
G01 X5.82920 Y-3.37252
G01 X5.82868 Y-3.37349
G01 X5.82767 Y-3.37471
G01 X5.79993 Y-3.40246
G01 X5.79870 Y-3.40346
G01 X5.79773 Y-3.40398
G01 X5.79668 Y-3.40430
G01 X5.79510 Y-3.40446
G01 X5.32383 Y-3.40446
G01 X5.32225 Y-3.40430
G01 X5.32120 Y-3.40398
G01 X5.32023 Y-3.40346
G01 X5.31900 Y-3.40246
G01 X5.13851 Y-3.22196
G01 X5.13750 Y-3.22074
G01 X5.13698 Y-3.21977
G01 X5.13666 Y-3.21871
G01 X5.13651 Y-3.21713
G04 P0 ( dwell for no time -- G64 should not smooth over this point )
G00 Z0.08000 ( retract )

G00 X5.33480 Y-3.33059 ( rapid move to begin. )
G01 F180.00000
( Mill infeed pass 1/1 )
G01 Z-0.04000
G04 P0 ( dwell for no time -- G64 should not smooth over this point )
G01 F360.00000
G01 X5.33480 Y-3.33059
G01 X5.33556 Y-3.33420
G01 X5.33707 Y-3.33757
G01 X5.33924 Y-3.34056
G01 X5.34198 Y-3.34303
G01 X5.34518 Y-3.34488
G01 X5.34869 Y-3.34602
G01 X5.35288 Y-3.34646
G01 X5.39515 Y-3.34646
G01 X5.39934 Y-3.34602
G01 X5.40285 Y-3.34488
G01 X5.40605 Y-3.34303
G01 X5.40879 Y-3.34056
G01 X5.41137 Y-3.33731
G01 X5.41283 Y-3.33618
G01 X5.41448 Y-3.33534
G01 X5.41626 Y-3.33482
G01 X5.41810 Y-3.33465
G01 X5.64484 Y-3.33465
G01 X5.64630 Y-3.33452
G01 X5.64771 Y-3.33414
G01 X5.69433 Y-3.31712
G01 X5.69594 Y-3.31669
G01 X5.69760 Y-3.31653
G01 X5.69926 Y-3.31665
G01 X5.70088 Y-3.31705
G01 X5.70241 Y-3.31772
G01 X5.70380 Y-3.31864
G01 X5.70561 Y-3.32044
G01 X5.71026 Y-3.32382
G01 X5.71552 Y-3.32616
G01 X5.72114 Y-3.32735
G01 X5.72689 Y-3.32735
G01 X5.73251 Y-3.32616
G01 X5.73777 Y-3.32382
G01 X5.74067 Y-3.32171
G01 X5.74242 Y-3.32044
G01 X5.74627 Y-3.31617
G01 X5.74914 Y-3.31119
G01 X5.75092 Y-3.30572
G01 X5.75152 Y-3.30000
G01 X5.75092 Y-3.29428
G01 X5.74914 Y-3.28881
G01 X5.74627 Y-3.28383
G01 X5.74242 Y-3.27956
G01 X5.73777 Y-3.27618
G01 X5.73251 Y-3.27384
G01 X5.72689 Y-3.27264
G01 X5.72114 Y-3.27264
G01 X5.71552 Y-3.27384
G01 X5.71026 Y-3.27618
G01 X5.70561 Y-3.27956
G01 X5.70176 Y-3.28383
G01 X5.69889 Y-3.28881
G01 X5.69711 Y-3.29428
G01 X5.69674 Y-3.29779
G01 X5.69638 Y-3.29958
G01 X5.69570 Y-3.30128
G01 X5.69471 Y-3.30282
G01 X5.69346 Y-3.30415
G01 X5.69198 Y-3.30522
G01 X5.69033 Y-3.30601
G01 X5.64587 Y-3.32224
G01 X5.64420 Y-3.32268
G01 X5.64249 Y-3.32283
G01 X5.41810 Y-3.32283
G01 X5.41626 Y-3.32266
G01 X5.41448 Y-3.32214
G01 X5.41283 Y-3.32130
G01 X5.41137 Y-3.32016
G01 X5.40879 Y-3.31692
G01 X5.40605 Y-3.31445
G01 X5.40285 Y-3.31260
G01 X5.39934 Y-3.31146
G01 X5.39515 Y-3.31102
G01 X5.35288 Y-3.31102
G01 X5.34869 Y-3.31146
G01 X5.34518 Y-3.31261
G01 X5.34198 Y-3.31445
G01 X5.33924 Y-3.31692
G01 X5.33707 Y-3.31991
G01 X5.33556 Y-3.32328
G01 X5.33480 Y-3.32689
G01 X5.33480 Y-3.33059
G01 X5.35380 Y-3.32874
G01 X5.39425 Y-3.32874
G04 P0 ( dwell for no time -- G64 should not smooth over this point )
G00 Z0.08000 ( retract )

G00 X5.39425 Y-3.25000 ( rapid move to begin. )
G01 F180.00000
( Mill infeed pass 1/1 )
G01 Z-0.04000
G04 P0 ( dwell for no time -- G64 should not smooth over this point )
G01 F360.00000
G01 X5.39425 Y-3.25000
G01 X5.35378 Y-3.25000
G04 P0 ( dwell for no time -- G64 should not smooth over this point )
G00 Z0.08000 ( retract )

G00 X5.33480 Y-3.17311 ( rapid move to begin. )
G01 F180.00000
( Mill infeed pass 1/1 )
G01 Z-0.04000
G04 P0 ( dwell for no time -- G64 should not smooth over this point )
G01 F360.00000
G01 X5.33480 Y-3.17311
G01 X5.33556 Y-3.17672
G01 X5.33707 Y-3.18009
G01 X5.33924 Y-3.18308
G01 X5.34198 Y-3.18555
G01 X5.34518 Y-3.18739
G01 X5.34869 Y-3.18854
G01 X5.35288 Y-3.18898
G01 X5.39515 Y-3.18898
G01 X5.39934 Y-3.18854
G01 X5.40285 Y-3.18739
G01 X5.40605 Y-3.18555
G01 X5.40879 Y-3.18308
G01 X5.41137 Y-3.17984
G01 X5.41283 Y-3.17870
G01 X5.41448 Y-3.17786
G01 X5.41626 Y-3.17734
G01 X5.41810 Y-3.17717
G01 X6.01633 Y-3.17717
G01 X6.01796 Y-3.17701
G01 X6.01906 Y-3.17667
G01 X6.02007 Y-3.17613
G01 X6.02133 Y-3.17509
G01 X6.23340 Y-2.96302
G01 X6.23479 Y-2.96187
G01 X6.23636 Y-2.96099
G01 X6.23807 Y-2.96041
G01 X6.23985 Y-2.96015
G01 X6.24165 Y-2.96023
G01 X6.24341 Y-2.96062
G01 X6.24506 Y-2.96133
G01 X6.24656 Y-2.96233
G01 X6.24785 Y-2.96359
G01 X6.25019 Y-2.96731
G01 X6.25431 Y-2.97189
G01 X6.25929 Y-2.97551
G01 X6.26491 Y-2.97801
G01 X6.27094 Y-2.97929
G01 X6.27709 Y-2.97929
G01 X6.27920 Y-2.97884
G01 X6.28312 Y-2.97801
G01 X6.28874 Y-2.97551
G01 X6.29372 Y-2.97189
G01 X6.29784 Y-2.96731
G01 X6.30092 Y-2.96198
G01 X6.30282 Y-2.95612
G01 X6.30347 Y-2.95000
G01 X6.30282 Y-2.94388
G01 X6.30092 Y-2.93802
G01 X6.29784 Y-2.93269
G01 X6.29372 Y-2.92811
G01 X6.28874 Y-2.92449
G01 X6.28575 Y-2.92316
G01 X6.28411 Y-2.92223
G01 X6.28267 Y-2.92101
G01 X6.28150 Y-2.91953
G01 X6.28063 Y-2.91785
G01 X6.28009 Y-2.91604
G01 X6.27991 Y-2.91417
G01 X6.27992 Y-2.86575
G01 X6.28011 Y-2.86383
G01 X6.28067 Y-2.86198
G01 X6.28158 Y-2.86028
G01 X6.28281 Y-2.85879
G01 X6.28430 Y-2.85757
G01 X6.28600 Y-2.85666
G01 X6.28785 Y-2.85610
G01 X6.28977 Y-2.85591
G01 X6.40552 Y-2.85591
G01 X6.40717 Y-2.85604
G01 X6.40876 Y-2.85645
G01 X6.41027 Y-2.85712
G01 X6.41164 Y-2.85804
G01 X6.41284 Y-2.85916
G01 X6.41509 Y-2.86166
G01 X6.41774 Y-2.86359
G01 X6.42074 Y-2.86492
G01 X6.42395 Y-2.86561
G01 X6.42723 Y-2.86561
G01 X6.43044 Y-2.86492
G01 X6.43344 Y-2.86359
G01 X6.43609 Y-2.86166
G01 X6.43829 Y-2.85922
G01 X6.43993 Y-2.85638
G01 X6.44094 Y-2.85326
G01 X6.44128 Y-2.85000
G01 X6.44094 Y-2.84674
G01 X6.43993 Y-2.84362
G01 X6.43949 Y-2.84286
G01 X6.43829 Y-2.84077
G01 X6.43609 Y-2.83834
G01 X6.43344 Y-2.83641
G01 X6.43044 Y-2.83507
G01 X6.42723 Y-2.83439
G01 X6.42395 Y-2.83439
G01 X6.42154 Y-2.83490
G01 X6.42074 Y-2.83507
G01 X6.41774 Y-2.83641
G01 X6.41509 Y-2.83834
G01 X6.41284 Y-2.84084
G01 X6.41164 Y-2.84196
G01 X6.41027 Y-2.84287
G01 X6.40876 Y-2.84355
G01 X6.40717 Y-2.84395
G01 X6.40552 Y-2.84409
G01 X6.27450 Y-2.84409
G01 X6.27287 Y-2.84425
G01 X6.27177 Y-2.84459
G01 X6.27076 Y-2.84513
G01 X6.26987 Y-2.84586
G01 X6.26914 Y-2.84674
G01 X6.26860 Y-2.84776
G01 X6.26827 Y-2.84886
G01 X6.26811 Y-2.85048
G01 X6.26811 Y-2.90754
G01 X6.26799 Y-2.90908
G01 X6.26763 Y-2.91058
G01 X6.26703 Y-2.91200
G01 X6.26623 Y-2.91332
G01 X6.26522 Y-2.91450
G01 X6.01725 Y-3.16247
G01 X6.01608 Y-3.16347
G01 X6.01476 Y-3.16428
G01 X6.01333 Y-3.16487
G01 X6.01183 Y-3.16523
G01 X6.01029 Y-3.16535
G01 X5.41810 Y-3.16535
G01 X5.41626 Y-3.16518
G01 X5.41448 Y-3.16466
G01 X5.41283 Y-3.16382
G01 X5.41137 Y-3.16268
G01 X5.40879 Y-3.15944
G01 X5.40605 Y-3.15697
G01 X5.40285 Y-3.15512
G01 X5.39934 Y-3.15398
G01 X5.39515 Y-3.15354
G01 X5.35288 Y-3.15354
G01 X5.34869 Y-3.15398
G01 X5.34518 Y-3.15512
G01 X5.34198 Y-3.15697
G01 X5.33924 Y-3.15944
G01 X5.33707 Y-3.16243
G01 X5.33556 Y-3.16580
G01 X5.33480 Y-3.16941
G01 X5.33480 Y-3.17311
G01 X5.35378 Y-3.17126
G01 X5.39425 Y-3.17126
G04 P0 ( dwell for no time -- G64 should not smooth over this point )
G00 Z0.08000 ( retract )

G00 X5.71027 Y-3.30517 ( rapid move to begin. )
G01 F180.00000
( Mill infeed pass 1/1 )
G01 Z-0.04000
G04 P0 ( dwell for no time -- G64 should not smooth over this point )
G01 F360.00000
G01 X5.71027 Y-3.30517
G01 X5.71351 Y-3.30390
G01 X5.71436 Y-3.29964
G01 X5.71453 Y-3.29799
G01 X5.71516 Y-3.29606
G01 X5.71480 Y-3.29589
G01 X5.71516 Y-3.29606
G01 X5.71617 Y-3.29430
G01 X5.71753 Y-3.29280
G01 X5.71726 Y-3.29250
G01 X5.71753 Y-3.29280
G01 X5.71917 Y-3.29161
G01 X5.72102 Y-3.29078
G01 X5.72094 Y-3.29057
G01 X5.72102 Y-3.29078
G01 X5.72300 Y-3.29036
G01 X5.72299 Y-3.29014
G01 X5.72300 Y-3.29036
G01 X5.72503 Y-3.29036
G01 X5.72701 Y-3.29078
G01 X5.72713 Y-3.29040
G01 X5.72701 Y-3.29078
G01 X5.72886 Y-3.29161
G01 X5.73050 Y-3.29280
G01 X5.73077 Y-3.29250
G01 X5.73050 Y-3.29280
G01 X5.73186 Y-3.29430
G01 X5.73287 Y-3.29606
G01 X5.73323 Y-3.29590
G01 X5.73287 Y-3.29606
G01 X5.73350 Y-3.29798
G01 X5.73371 Y-3.30000
G01 X5.73410 Y-3.30000
G01 X5.73371 Y-3.30000
G01 X5.73350 Y-3.30201
G01 X5.73287 Y-3.30394
G01 X5.73323 Y-3.30410
G01 X5.73287 Y-3.30394
G01 X5.73186 Y-3.30570
G01 X5.73050 Y-3.30720
G01 X5.73077 Y-3.30750
G01 X5.73050 Y-3.30720
G01 X5.72886 Y-3.30839
G01 X5.72701 Y-3.30922
G01 X5.72713 Y-3.30959
G01 X5.72701 Y-3.30922
G01 X5.72503 Y-3.30964
G01 X5.72300 Y-3.30964
G01 X5.72299 Y-3.30986
G01 X5.72300 Y-3.30964
G01 X5.72102 Y-3.30922
G01 X5.72087 Y-3.30956
G01 X5.72102 Y-3.30922
G01 X5.71917 Y-3.30839
G01 X5.71699 Y-3.30681
G01 X5.71478 Y-3.30474
G01 X5.71351 Y-3.30390
G04 P0 ( dwell for no time -- G64 should not smooth over this point )
G00 Z0.08000 ( retract )

G00 X5.80898 Y-3.28300 ( rapid move to begin. )
G01 F180.00000
( Mill infeed pass 1/1 )
G01 Z-0.04000
G04 P0 ( dwell for no time -- G64 should not smooth over this point )
G01 F360.00000
G01 X5.80898 Y-3.28300
G01 X5.81417 Y-3.28819
G01 X5.83422 Y-3.28819
G01 X5.83713 Y-3.28445
G01 X5.83422 Y-3.28819
G01 X5.83439 Y-3.28988
G01 X5.83596 Y-3.29505
G01 X5.83850 Y-3.29981
G01 X5.83866 Y-3.30000
G01 X5.84112 Y-3.30000
G01 X5.83866 Y-3.30000
G01 X5.83596 Y-3.30495
G01 X5.83439 Y-3.31012
G01 X5.83417 Y-3.31234
G01 X5.83613 Y-3.31419
G01 X5.83417 Y-3.31234
G01 X5.82897 Y-3.31391
G01 X5.82401 Y-3.31661
G01 X5.82401 Y-3.31908
G01 X5.82401 Y-3.31661
G01 X5.81906 Y-3.31391
G01 X5.81417 Y-3.31243
G01 X5.81068 Y-3.31501
G01 X5.81417 Y-3.31243
G01 X5.81417 Y-3.28819
G04 P0 ( dwell for no time -- G64 should not smooth over this point )
G00 Z0.08000 ( retract )

G00 X6.03386 Y-3.31181 ( rapid move to begin. )
G01 F180.00000
( Mill infeed pass 1/1 )
G01 Z-0.04000
G04 P0 ( dwell for no time -- G64 should not smooth over this point )
G01 F360.00000
G01 X6.03386 Y-3.31181
G01 X6.01381 Y-3.31181
G01 X6.01090 Y-3.31555
G01 X6.01381 Y-3.31181
G01 X6.01364 Y-3.31012
G01 X6.01207 Y-3.30495
G01 X6.00953 Y-3.30019
G01 X6.00937 Y-3.30000
G01 X6.00691 Y-3.30000
G01 X6.00937 Y-3.30000
G01 X6.00953 Y-3.29981
G01 X6.01207 Y-3.29505
G01 X6.01364 Y-3.28988
G01 X6.01381 Y-3.28819
G01 X6.01090 Y-3.28445
G01 X6.01381 Y-3.28819
G01 X6.03386 Y-3.28819
G01 X6.03905 Y-3.28300
G01 X6.03386 Y-3.28819
G01 X6.03386 Y-3.31181
G01 X6.03905 Y-3.31700
G04 P0 ( dwell for no time -- G64 should not smooth over this point )
G00 Z0.08000 ( retract )

G00 X6.09651 Y-3.30000 ( rapid move to begin. )
G01 F180.00000
( Mill infeed pass 1/1 )
G01 Z-0.04000
G04 P0 ( dwell for no time -- G64 should not smooth over this point )
G01 F360.00000
G01 X6.09651 Y-3.30000
G01 X6.09711 Y-3.29428
G01 X6.09889 Y-3.28881
G01 X6.10176 Y-3.28383
G01 X6.10561 Y-3.27956
G01 X6.11026 Y-3.27618
G01 X6.11551 Y-3.27384
G01 X6.12114 Y-3.27264
G01 X6.12689 Y-3.27264
G01 X6.13251 Y-3.27384
G01 X6.13777 Y-3.27618
G01 X6.14242 Y-3.27956
G01 X6.14627 Y-3.28383
G01 X6.14914 Y-3.28881
G01 X6.15092 Y-3.29428
G01 X6.15152 Y-3.30000
G01 X6.15092 Y-3.30572
G01 X6.14964 Y-3.30967
G01 X6.14924 Y-3.31142
G01 X6.14917 Y-3.31322
G01 X6.14943 Y-3.31501
G01 X6.15000 Y-3.31671
G01 X6.15089 Y-3.31828
G01 X6.15232 Y-3.31995
G01 X6.15381 Y-3.32117
G01 X6.15551 Y-3.32208
G01 X6.15736 Y-3.32264
G01 X6.15928 Y-3.32283
G01 X6.42993 Y-3.32283
G01 X6.43177 Y-3.32266
G01 X6.43355 Y-3.32214
G01 X6.43520 Y-3.32130
G01 X6.43666 Y-3.32016
G01 X6.43924 Y-3.31692
G01 X6.44198 Y-3.31445
G01 X6.44518 Y-3.31261
G01 X6.44869 Y-3.31146
G01 X6.45288 Y-3.31102
G01 X6.49515 Y-3.31102
G01 X6.49934 Y-3.31146
G01 X6.50285 Y-3.31261
G01 X6.50605 Y-3.31445
G01 X6.50879 Y-3.31692
G01 X6.51096 Y-3.31991
G01 X6.51247 Y-3.32328
G01 X6.51323 Y-3.32689
G01 X6.51323 Y-3.33059
G01 X6.51247 Y-3.33420
G01 X6.51096 Y-3.33757
G01 X6.50879 Y-3.34056
G01 X6.50605 Y-3.34303
G01 X6.50285 Y-3.34488
G01 X6.49934 Y-3.34602
G01 X6.49515 Y-3.34646
G01 X6.45288 Y-3.34646
G01 X6.44869 Y-3.34602
G01 X6.44518 Y-3.34488
G01 X6.44198 Y-3.34303
G01 X6.43924 Y-3.34056
G01 X6.43666 Y-3.33731
G01 X6.43520 Y-3.33618
G01 X6.43355 Y-3.33534
G01 X6.43177 Y-3.33482
G01 X6.42993 Y-3.33465
G01 X6.15324 Y-3.33465
G01 X6.15161 Y-3.33449
G01 X6.15051 Y-3.33415
G01 X6.14950 Y-3.33361
G01 X6.14824 Y-3.33257
G01 X6.14374 Y-3.32808
G01 X6.14244 Y-3.32699
G01 X6.14098 Y-3.32613
G01 X6.13939 Y-3.32555
G01 X6.13773 Y-3.32524
G01 X6.13604 Y-3.32522
G01 X6.13437 Y-3.32549
G01 X6.13251 Y-3.32616
G01 X6.12689 Y-3.32735
G01 X6.12114 Y-3.32735
G01 X6.11551 Y-3.32616
G01 X6.11026 Y-3.32382
G01 X6.10561 Y-3.32044
G01 X6.10176 Y-3.31617
G01 X6.09889 Y-3.31119
G01 X6.09711 Y-3.30572
G01 X6.09651 Y-3.30000
G01 X6.11415 Y-3.30210
G01 X6.11453 Y-3.30201
G01 X6.11432 Y-3.30000
G01 X6.11453 Y-3.29798
G01 X6.11432 Y-3.29795
G01 X6.11453 Y-3.29798
G01 X6.11516 Y-3.29606
G01 X6.11496 Y-3.29596
G01 X6.11516 Y-3.29606
G01 X6.11617 Y-3.29430
G01 X6.11753 Y-3.29280
G01 X6.11726 Y-3.29250
G01 X6.11753 Y-3.29280
G01 X6.11917 Y-3.29161
G01 X6.12102 Y-3.29078
G01 X6.12090 Y-3.29040
G01 X6.12102 Y-3.29078
G01 X6.12300 Y-3.29036
G01 X6.12503 Y-3.29036
G01 X6.12507 Y-3.28997
G01 X6.12503 Y-3.29036
G01 X6.12701 Y-3.29078
G01 X6.12886 Y-3.29161
G01 X6.12906 Y-3.29126
G01 X6.12886 Y-3.29161
G01 X6.13050 Y-3.29280
G01 X6.13186 Y-3.29430
G01 X6.13218 Y-3.29407
G01 X6.13186 Y-3.29430
G01 X6.13287 Y-3.29606
G01 X6.13350 Y-3.29798
G01 X6.13388 Y-3.29790
G01 X6.13350 Y-3.29798
G01 X6.13371 Y-3.30000
G01 X6.13350 Y-3.30201
G01 X6.13364 Y-3.30203
G01 X6.13350 Y-3.30201
G01 X6.13279 Y-3.30419
G01 X6.13193 Y-3.30801
G01 X6.13416 Y-3.31042
G01 X6.13193 Y-3.30801
G01 X6.13004 Y-3.30831
G01 X6.12809 Y-3.30899
G01 X6.12503 Y-3.30964
G01 X6.12300 Y-3.30964
G01 X6.12296 Y-3.31020
G01 X6.12300 Y-3.30964
G01 X6.12102 Y-3.30922
G01 X6.11917 Y-3.30839
G01 X6.11897 Y-3.30874
G01 X6.11917 Y-3.30839
G01 X6.11753 Y-3.30720
G01 X6.11617 Y-3.30570
G01 X6.11585 Y-3.30593
G01 X6.11617 Y-3.30570
G01 X6.11516 Y-3.30394
G01 X6.11453 Y-3.30201
G04 P0 ( dwell for no time -- G64 should not smooth over this point )
G00 Z0.08000 ( retract )

G00 X6.45378 Y-3.32874 ( rapid move to begin. )
G01 F180.00000
( Mill infeed pass 1/1 )
G01 Z-0.04000
G04 P0 ( dwell for no time -- G64 should not smooth over this point )
G01 F360.00000
G01 X6.45378 Y-3.32874
G01 X6.49425 Y-3.32874
G04 P0 ( dwell for no time -- G64 should not smooth over this point )
G00 Z0.08000 ( retract )

G00 X6.49425 Y-3.25000 ( rapid move to begin. )
G01 F180.00000
( Mill infeed pass 1/1 )
G01 Z-0.04000
G04 P0 ( dwell for no time -- G64 should not smooth over this point )
G01 F360.00000
G01 X6.49425 Y-3.25000
G01 X6.45381 Y-3.25000
G01 X6.38365 Y-3.24501
G01 X6.38365 Y-3.04178
G01 X6.38380 Y-3.04020
G01 X6.38412 Y-3.03915
G01 X6.38464 Y-3.03818
G01 X6.38565 Y-3.03696
G01 X6.51547 Y-2.90713
G01 X6.51648 Y-2.90595
G01 X6.51728 Y-2.90464
G01 X6.51788 Y-2.90321
G01 X6.51824 Y-2.90171
G01 X6.51836 Y-2.90017
G01 X6.51836 Y-2.87559
G01 X6.51821 Y-2.87388
G01 X6.51776 Y-2.87222
G01 X6.51704 Y-2.87067
G01 X6.51605 Y-2.86926
G01 X6.51484 Y-2.86805
G01 X6.51344 Y-2.86707
G01 X6.51188 Y-2.86634
G01 X6.51022 Y-2.86590
G01 X6.50827 Y-2.86575
G01 X6.50827 Y-2.83425
G01 X6.53976 Y-2.83425
G01 X6.53991 Y-2.83621
G01 X6.54036 Y-2.83787
G01 X6.54108 Y-2.83942
G01 X6.54207 Y-2.84083
G01 X6.54328 Y-2.84204
G01 X6.54468 Y-2.84302
G01 X6.54624 Y-2.84375
G01 X6.54790 Y-2.84419
G01 X6.54961 Y-2.84434
G01 X6.57353 Y-2.84434
G01 X6.57511 Y-2.84450
G01 X6.57616 Y-2.84482
G01 X6.57713 Y-2.84533
G01 X6.57836 Y-2.84634
G01 X6.65258 Y-2.92056
G01 X6.65388 Y-2.92165
G01 X6.65534 Y-2.92251
G01 X6.65692 Y-2.92309
G01 X6.65859 Y-2.92340
G01 X6.66028 Y-2.92342
G01 X6.66195 Y-2.92315
G01 X6.66491 Y-2.92199
G01 X6.67094 Y-2.92071
G01 X6.67709 Y-2.92071
G01 X6.68312 Y-2.92199
G01 X6.68874 Y-2.92449
G01 X6.69372 Y-2.92811
G01 X6.69784 Y-2.93269
G01 X6.70092 Y-2.93802
G01 X6.70282 Y-2.94388
G01 X6.70347 Y-2.95000
G01 X6.70282 Y-2.95612
G01 X6.70092 Y-2.96198
G01 X6.69784 Y-2.96731
G01 X6.69372 Y-2.97189
G01 X6.68874 Y-2.97551
G01 X6.68312 Y-2.97801
G01 X6.67709 Y-2.97929
G01 X6.67094 Y-2.97929
G01 X6.66491 Y-2.97801
G01 X6.65929 Y-2.97551
G01 X6.65431 Y-2.97189
G01 X6.65019 Y-2.96731
G01 X6.64711 Y-2.96198
G01 X6.64521 Y-2.95612
G01 X6.64456 Y-2.95000
G01 X6.64521 Y-2.94388
G01 X6.64694 Y-2.93853
G01 X6.64734 Y-2.93677
G01 X6.64741 Y-2.93497
G01 X6.64715 Y-2.93319
G01 X6.64657 Y-2.93148
G01 X6.64569 Y-2.92991
G01 X6.64454 Y-2.92853
G01 X6.57455 Y-2.85854
G01 X6.57338 Y-2.85754
G01 X6.57206 Y-2.85673
G01 X6.57064 Y-2.85614
G01 X6.56913 Y-2.85578
