( pcb2gcode 1.3.2 )
( Gcode for linuxcnc )

G94 ( Inches per minute feed rate. )
G20 ( Units == INCHES. )

G90 ( Absolute coordinates. )
G00 S10000 ( RPM spindle speed. )
G64 P0.00040 ( set maximum deviation from commanded toolpath )
G01 F100.00000 ( Feedrate. )

G01 F100.00000 ( Feedrate. )
M3 ( Spindle on clockwise. )
G04 P1.00000

o1 sub ( Main subroutine )

G04 P0 ( dwell for no time -- G64 should not smooth over this point )
G00 Z0.08000 ( retract )

G00 X4.59665 Y-3.45000 ( rapid move to begin. )
G01 Z-0.00512 F50.00000 ( plunge. )
G04 P0 ( dwell for no time -- G64 should not smooth over this point )
G01 F100.00000
G01 X4.59665 Y-3.45000
G01 X4.59665 Y-2.30000
G01 X4.59721 Y-2.29816
G01 X4.59872 Y-2.29691
G01 X6.50000 Y-2.29665
G01 X6.50237 Y-2.29763
G01 X6.65309 Y-2.44872
G01 X6.65334 Y-3.45000
G01 X6.65279 Y-3.45184
G01 X6.65128 Y-3.45309
G01 X4.59985 Y-3.45333
G01 X4.59753 Y-3.45226
G01 X4.59665 Y-3.45000

o1 endsub

o1 call
G92 X[#5420-[2.060693]]
o1 call
G92 X[#5420-[2.060693]]
o1 call
G92 Y[#5421-[1.160693]]
o1 call
G92 X[#5420-[-2.060693]]
o1 call
G92 X[#5420-[-2.060693]]
o1 call
G92 Y[#5421-[-1.160693]]

G04 P0 ( dwell for no time -- G64 should not smooth over this point )
G00 Z1.000 ( retract )

M5 ( Spindle off. )
G04 P1.000000
M9 ( Coolant off. )
M2 ( Program end. )

