( pcb2gcode 1.3.2 )
( Gcode for linuxcnc )

G94 ( Inches per minute feed rate. )
G20 ( Units == INCHES. )

G90 ( Absolute coordinates. )
G00 S10000 ( RPM spindle speed. )
G64 P0.00040 ( set maximum deviation from commanded toolpath )
G01 F100.00000 ( Feedrate. )

G01 F100.00000 ( Feedrate. )
M3 ( Spindle on clockwise. )
G04 P1.00000

o1 sub ( Main subroutine )

G04 P0 ( dwell for no time -- G64 should not smooth over this point )
G00 Z0.08000 ( retract )

G00 X4.19705 Y-3.45000 ( rapid move to begin. )
G01 Z-0.13000 F50.00000 ( plunge. )
G04 P0 ( dwell for no time -- G64 should not smooth over this point )
G01 F100.00000
G01 X4.19705 Y-3.45000
G01 X4.19705 Y-2.30000
G01 X4.20138 Y-2.24131
G01 X4.21477 Y-2.18224
G01 X4.24478 Y-2.10980
G01 X4.28834 Y-2.04460
G01 X4.34511 Y-1.98807
G01 X4.40170 Y-1.94924
G01 X4.46409 Y-1.92066
G01 X4.53045 Y-1.90317
G01 X4.59882 Y-1.89727
G01 X6.49995 Y-1.89705
G01 X6.57801 Y-1.90473
G01 X6.65516 Y-1.92836
G01 X6.72449 Y-1.96544
G01 X6.78523 Y-2.01537
G01 X6.93587 Y-2.16633
G01 X6.98548 Y-2.22689
G01 X7.02234 Y-2.29595
G01 X7.04505 Y-2.37087
G01 X7.05273 Y-2.44878
G01 X7.05295 Y-3.44991
G01 X7.04863 Y-3.50865
G01 X7.03523 Y-3.56775
G01 X7.00522 Y-3.64020
G01 X6.96166 Y-3.70540
G01 X6.90489 Y-3.76193
G01 X6.84830 Y-3.80076
G01 X6.78590 Y-3.82934
G01 X6.71954 Y-3.84683
G01 X6.65117 Y-3.85273
G01 X4.59989 Y-3.85294
G01 X4.54140 Y-3.84864
G01 X4.48418 Y-3.83585
G01 X4.42740 Y-3.81386
G01 X4.36178 Y-3.77492
G01 X4.30475 Y-3.72422
G01 X4.25839 Y-3.66362
G01 X4.22437 Y-3.59532
G01 X4.20374 Y-3.52289
G01 X4.19705 Y-3.45000

o1 endsub

o1 call
G92 X[#5420-[2.859905]]
o1 call
G92 X[#5420-[2.859905]]
o1 call
G92 Y[#5421-[1.959906]]
o1 call
G92 X[#5420-[-2.859905]]
o1 call
G92 X[#5420-[-2.859905]]
o1 call
G92 Y[#5421-[-1.959906]]

G04 P0 ( dwell for no time -- G64 should not smooth over this point )
G00 Z1.000 ( retract )

M5 ( Spindle off. )
G04 P1.000000
M9 ( Coolant off. )
M2 ( Program end. )

