( pcb2gcode 1.3.2 )
( Gcode for linuxcnc )

G94 ( Inches per minute feed rate. )
G20 ( Units == INCHES. )

G90 ( Absolute coordinates. )
G00 S10000 ( RPM spindle speed. )
G64 P0.00040 ( set maximum deviation from commanded toolpath )
G01 F100.00000 ( Feedrate. )

G01 F100.00000 ( Feedrate. )
M3 ( Spindle on clockwise. )
G04 P1.00000

o1 sub ( Main subroutine )

G04 P0 ( dwell for no time -- G64 should not smooth over this point )
G00 Z0.08000 ( retract )

G00 X4.56752 Y-3.45000 ( rapid move to begin. )
G01 Z-0.00512 F50.00000 ( plunge. )
G04 P0 ( dwell for no time -- G64 should not smooth over this point )
G01 F100.00000
G01 X4.56752 Y-3.45000
G01 X4.56752 Y-2.30000
G01 X4.56846 Y-2.29225
G01 X4.57222 Y-2.28318
G01 X4.57808 Y-2.27603
G01 X4.58247 Y-2.27272
G01 X4.58757 Y-2.26999
G01 X4.59424 Y-2.26809
G01 X4.60000 Y-2.26752
G01 X6.50000 Y-2.26752
G01 X6.50576 Y-2.26809
G01 X6.51243 Y-2.26999
G01 X6.51849 Y-2.27336
G01 X6.52297 Y-2.27703
G01 X6.67297 Y-2.42703
G01 X6.67664 Y-2.43151
G01 X6.68001 Y-2.43757
G01 X6.68191 Y-2.44424
G01 X6.68248 Y-2.45000
G01 X6.68248 Y-3.45000
G01 X6.68154 Y-3.45775
G01 X6.67778 Y-3.46682
G01 X6.67192 Y-3.47397
G01 X6.66753 Y-3.47728
G01 X6.66243 Y-3.48001
G01 X6.65576 Y-3.48191
G01 X6.65000 Y-3.48248
G01 X4.59985 Y-3.48246
G01 X4.59327 Y-3.48172
G01 X4.58658 Y-3.47958
G01 X4.58045 Y-3.47586
G01 X4.57586 Y-3.47173
G01 X4.57223 Y-3.46674
G01 X4.56936 Y-3.46077
G01 X4.56803 Y-3.45553
G01 X4.56752 Y-3.45000
G04 P0 ( dwell for no time -- G64 should not smooth over this point )
G00 Z0.08000 ( retract )

G00 X4.63248 Y-3.41752 ( rapid move to begin. )
G01 Z-0.00512 F50.00000 ( plunge. )
G04 P0 ( dwell for no time -- G64 should not smooth over this point )
G01 F100.00000
G01 X4.63248 Y-3.41752
G01 X4.63248 Y-2.33248
G01 X6.48655 Y-2.33248
G01 X6.61752 Y-2.46345
G01 X6.61752 Y-3.41752
G01 X4.63248 Y-3.41752

o1 endsub

o1 call
G92 X[#5420-[2.118960]]
o1 call
G92 X[#5420-[2.118960]]
o1 call
G92 Y[#5421-[1.218961]]
o1 call
G92 X[#5420-[-2.118960]]
o1 call
G92 X[#5420-[-2.118960]]
o1 call
G92 Y[#5421-[-1.218961]]

G04 P0 ( dwell for no time -- G64 should not smooth over this point )
G00 Z1.000 ( retract )

M5 ( Spindle off. )
G04 P1.000000
M9 ( Coolant off. )
M2 ( Program end. )

