( pcb2gcode 2.2.2 )
( Software-independent Gcode )

G94 ( Inches per minute feed rate. )
G20 ( Units == INCHES. )

G90 ( Absolute coordinates. )
G00 S24000 ( RPM spindle speed. )
G64 P0.00040 ( set maximum deviation from commanded toolpath )
G01 F0.04000 ( Feedrate. )


G00 Z1.60000 (Retract to tool change height)
T0
M5      (Spindle stop.)
G04 P1.00000 (Wait for spindle to stop)
(MSG, Change tool bit to cutter diameter 0.02000in)
M6      (Tool change.)
M0      (Temporary machine stop.)
M3 ( Spindle on clockwise. )
G04 P1.00000 (Wait for spindle to get up to speed)
G04 P0 ( dwell for no time -- G64 should not smooth over this point )
G00 Z0.05000 ( retract )

G00 X5.46000 Y-3.99000 ( rapid move to begin. )
G01 Z-0.04000 F0.02000 ( plunge. )
G04 P0 ( dwell for no time -- G64 should not smooth over this point )
G01 F0.04000
G01 X5.46000 Y-3.86000
G01 X5.64000 Y-3.86000
G01 X5.64000 Y-3.99000
G01 X5.46000 Y-3.99000
G01 Z-0.08000 F0.02000 ( plunge. )
G04 P0 ( dwell for no time -- G64 should not smooth over this point )
G01 F0.04000
G01 X5.46000 Y-3.86000
G01 X5.64000 Y-3.86000
G01 X5.64000 Y-3.99000
G01 X5.46000 Y-3.99000
G04 P0 ( dwell for no time -- G64 should not smooth over this point )
G00 Z0.05000 ( retract )

G00 X5.66000 Y-4.24000 ( rapid move to begin. )
G01 Z-0.04000 F0.02000 ( plunge. )
G04 P0 ( dwell for no time -- G64 should not smooth over this point )
G01 F0.04000
G01 X5.66000 Y-4.01000
G01 X5.99000 Y-4.01000
G01 X5.99000 Y-4.24000
G01 X5.66000 Y-4.24000
G01 Z-0.08000 F0.02000 ( plunge. )
G04 P0 ( dwell for no time -- G64 should not smooth over this point )
G01 F0.04000
G01 X5.66000 Y-4.01000
G01 X5.99000 Y-4.01000
G01 X5.99000 Y-4.24000
G01 X5.66000 Y-4.24000
G04 P0 ( dwell for no time -- G64 should not smooth over this point )
G00 Z0.05000 ( retract )

G00 X6.01000 Y-2.99000 ( rapid move to begin. )
G01 Z-0.04000 F0.02000 ( plunge. )
G04 P0 ( dwell for no time -- G64 should not smooth over this point )
G01 F0.04000
G01 X6.01000 Y-2.71000
G01 X6.29000 Y-2.71000
G01 X6.29000 Y-2.99000
G01 X6.01000 Y-2.99000
G01 Z-0.08000 F0.02000 ( plunge. )
G04 P0 ( dwell for no time -- G64 should not smooth over this point )
G01 F0.04000
G01 X6.01000 Y-2.71000
G01 X6.29000 Y-2.71000
G01 X6.29000 Y-2.99000
G01 X6.01000 Y-2.99000
G04 P0 ( dwell for no time -- G64 should not smooth over this point )
G00 Z0.05000 ( retract )

G00 X5.46000 Y-3.14000 ( rapid move to begin. )
G01 Z-0.04000 F0.02000 ( plunge. )
G04 P0 ( dwell for no time -- G64 should not smooth over this point )
G01 F0.04000
G01 X5.46000 Y-2.61000
G01 X5.89000 Y-2.61000
G01 X5.89000 Y-2.69000
G01 X5.55000 Y-2.69000
G01 X5.54805 Y-2.69019
G01 X5.54617 Y-2.69076
G01 X5.54444 Y-2.69169
G01 X5.54293 Y-2.69293
G01 X5.54169 Y-2.69444
G01 X5.54076 Y-2.69617
G01 X5.54019 Y-2.69805
G01 X5.54000 Y-2.70000
G01 X5.54000 Y-3.14000
G01 X5.46000 Y-3.14000
G01 Z-0.08000 F0.02000 ( plunge. )
G04 P0 ( dwell for no time -- G64 should not smooth over this point )
G01 F0.04000
G01 X5.46000 Y-2.61000
G01 X5.89000 Y-2.61000
G01 X5.89000 Y-2.69000
G01 X5.55000 Y-2.69000
G01 X5.54805 Y-2.69019
G01 X5.54617 Y-2.69076
G01 X5.54444 Y-2.69169
G01 X5.54293 Y-2.69293
G01 X5.54169 Y-2.69444
G01 X5.54076 Y-2.69617
G01 X5.54019 Y-2.69805
G01 X5.54000 Y-2.70000
G01 X5.54000 Y-3.14000
G01 X5.46000 Y-3.14000
G04 P0 ( dwell for no time -- G64 should not smooth over this point )
G00 Z0.05000 ( retract )

G00 X4.99000 Y-4.50000 ( rapid move to begin. )
G01 Z-0.04000 F0.02000 ( plunge. )
G04 P0 ( dwell for no time -- G64 should not smooth over this point )
G01 F0.04000
G01 X4.99000 Y-2.50000
G01 X4.99019 Y-2.49805
G01 X4.99076 Y-2.49617
G01 X4.99169 Y-2.49444
G01 X4.99293 Y-2.49293
G01 X4.99444 Y-2.49168
G01 X4.99617 Y-2.49076
G01 X4.99805 Y-2.49019
G01 X5.00000 Y-2.49000
G01 X6.50000 Y-2.49000
G01 X6.50195 Y-2.49019
G01 X6.50383 Y-2.49076
G01 X6.50556 Y-2.49168
G01 X6.50707 Y-2.49293
G01 X6.50831 Y-2.49444
G01 X6.50924 Y-2.49617
G01 X6.50981 Y-2.49805
G01 X6.51000 Y-2.50000
G01 X6.51000 Y-3.16977
G01 X6.52684 Y-3.16077
G01 X6.53257 Y-3.15840
G01 X6.58563 Y-3.14230
G01 X6.59172 Y-3.14109
G01 X6.64690 Y-3.13566
G01 X6.65212 Y-3.13561
G01 X6.70828 Y-3.14109
G01 X6.71342 Y-3.14206
G01 X6.76743 Y-3.15840
G01 X6.77227 Y-3.16035
G01 X6.82291 Y-3.18741
G01 X6.82722 Y-3.19035
G01 X6.87008 Y-3.22553
G01 X6.87381 Y-3.22919
G01 X6.87505 Y-3.23070
G01 X6.87741 Y-3.23423
G01 X6.87835 Y-3.23598
G01 X6.87997 Y-3.23991
G01 X6.88053 Y-3.24176
G01 X6.88136 Y-3.24592
G01 X6.88155 Y-3.24788
G01 X6.88155 Y-3.25212
G01 X6.88136 Y-3.25407
G01 X6.88053 Y-3.25824
G01 X6.87996 Y-3.26011
G01 X6.87834 Y-3.26403
G01 X6.87741 Y-3.26577
G01 X6.87505 Y-3.26930
G01 X6.87381 Y-3.27081
G01 X6.87081 Y-3.27381
G01 X6.86930 Y-3.27505
G01 X6.86577 Y-3.27741
G01 X6.86402 Y-3.27834
G01 X6.86009 Y-3.27996
G01 X6.85824 Y-3.28053
G01 X6.85408 Y-3.28136
G01 X6.85212 Y-3.28155
G01 X6.84788 Y-3.28155
G01 X6.84593 Y-3.28136
G01 X6.84176 Y-3.28053
G01 X6.83989 Y-3.27996
G01 X6.83597 Y-3.27834
G01 X6.83423 Y-3.27741
G01 X6.82991 Y-3.27447
G01 X6.78947 Y-3.24126
G01 X6.74606 Y-3.21807
G01 X6.69898 Y-3.20378
G01 X6.65000 Y-3.19897
G01 X6.60102 Y-3.20378
G01 X6.55394 Y-3.21807
G01 X6.51053 Y-3.24127
G01 X6.51000 Y-3.24170
G01 X6.51000 Y-4.50000
G01 X6.50981 Y-4.50195
G01 X6.50924 Y-4.50383
G01 X6.50831 Y-4.50556
G01 X6.50707 Y-4.50707
G01 X6.50556 Y-4.50831
G01 X6.50383 Y-4.50924
G01 X6.50195 Y-4.50981
G01 X6.50000 Y-4.51000
G01 X5.00000 Y-4.51000
G01 X4.99805 Y-4.50981
G01 X4.99617 Y-4.50924
G01 X4.99444 Y-4.50831
G01 X4.99293 Y-4.50707
G01 X4.99169 Y-4.50556
G01 X4.99076 Y-4.50383
G01 X4.99019 Y-4.50195
G01 X4.99000 Y-4.50000
G01 Z-0.08000 F0.02000 ( plunge. )
G04 P0 ( dwell for no time -- G64 should not smooth over this point )
G01 F0.04000
G01 X4.99000 Y-2.50000
G01 X4.99019 Y-2.49805
G01 X4.99076 Y-2.49617
G01 X4.99169 Y-2.49444
G01 X4.99293 Y-2.49293
G01 X4.99444 Y-2.49168
G01 X4.99617 Y-2.49076
G01 X4.99805 Y-2.49019
G01 X5.00000 Y-2.49000
G01 X6.50000 Y-2.49000
G01 X6.50195 Y-2.49019
G01 X6.50383 Y-2.49076
G01 X6.50556 Y-2.49168
G01 X6.50707 Y-2.49293
G01 X6.50831 Y-2.49444
G01 X6.50924 Y-2.49617
G01 X6.50981 Y-2.49805
G01 X6.51000 Y-2.50000
G01 X6.51000 Y-3.16977
G01 X6.52684 Y-3.16077
G01 X6.53257 Y-3.15840
G01 X6.58563 Y-3.14230
G01 X6.59172 Y-3.14109
G01 X6.64690 Y-3.13566
G01 X6.65212 Y-3.13561
G01 X6.70828 Y-3.14109
G01 X6.71342 Y-3.14206
G01 X6.76743 Y-3.15840
G01 X6.77227 Y-3.16035
G01 X6.82291 Y-3.18741
G01 X6.82722 Y-3.19035
G01 X6.87008 Y-3.22553
G01 X6.87381 Y-3.22919
G01 X6.87505 Y-3.23070
G01 X6.87741 Y-3.23423
G01 X6.87835 Y-3.23598
G01 X6.87997 Y-3.23991
G01 X6.88053 Y-3.24176
G01 X6.88136 Y-3.24592
G01 X6.88155 Y-3.24788
G01 X6.88155 Y-3.25212
G01 X6.88136 Y-3.25407
G01 X6.88053 Y-3.25824
G01 X6.87996 Y-3.26011
G01 X6.87834 Y-3.26403
G01 X6.87741 Y-3.26577
G01 X6.87505 Y-3.26930
G01 X6.87381 Y-3.27081
G01 X6.87081 Y-3.27381
G01 X6.86930 Y-3.27505
G01 X6.86577 Y-3.27741
G01 X6.86402 Y-3.27834
G01 X6.86009 Y-3.27996
G01 X6.85824 Y-3.28053
G01 X6.85408 Y-3.28136
G01 X6.85212 Y-3.28155
G01 X6.84788 Y-3.28155
G01 X6.84593 Y-3.28136
G01 X6.84176 Y-3.28053
G01 X6.83989 Y-3.27996
G01 X6.83597 Y-3.27834
G01 X6.83423 Y-3.27741
G01 X6.82991 Y-3.27447
G01 X6.78947 Y-3.24126
G01 X6.74606 Y-3.21807
G01 X6.69898 Y-3.20378
G01 X6.65000 Y-3.19897
G01 X6.60102 Y-3.20378
G01 X6.55394 Y-3.21807
G01 X6.51053 Y-3.24127
G01 X6.51000 Y-3.24170
G01 X6.51000 Y-4.50000
G01 X6.50981 Y-4.50195
G01 X6.50924 Y-4.50383
G01 X6.50831 Y-4.50556
G01 X6.50707 Y-4.50707
G01 X6.50556 Y-4.50831
G01 X6.50383 Y-4.50924
G01 X6.50195 Y-4.50981
G01 X6.50000 Y-4.51000
G01 X5.00000 Y-4.51000
G01 X4.99805 Y-4.50981
G01 X4.99617 Y-4.50924
G01 X4.99444 Y-4.50831
G01 X4.99293 Y-4.50707
G01 X4.99169 Y-4.50556
G01 X4.99076 Y-4.50383
G01 X4.99019 Y-4.50195
G01 X4.99000 Y-4.50000

G04 P0 ( dwell for no time -- G64 should not smooth over this point )
G00 Z1.600000 ( retract )

M5 ( Spindle off. )
G04 P1.000000
M9 ( Coolant off. )
M2 ( Program end. )

