( pcb2gcode 2.0.0 )
( Software-independent Gcode )

G94 ( Inches per minute feed rate. )
G20 ( Units == INCHES. )

G90 ( Absolute coordinates. )
G00 S24000 ( RPM spindle speed. )
G64 P0.00040 ( set maximum deviation from commanded toolpath )
G01 F0.04000 ( Feedrate. )


G00 Z1.60000 (Retract to tool change height)
T0
M5      (Spindle stop.)
G04 P1.00000 (Wait for spindle to stop)
(MSG, Change tool bit to cutter diameter 0.02000in)
M6      (Tool change.)
M0      (Temporary machine stop.)
M3 ( Spindle on clockwise. )
G04 P1.00000 (Wait for spindle to get up to speed)
G04 P0 ( dwell for no time -- G64 should not smooth over this point )
G00 Z0.05000 ( retract )

G00 X4.99000 Y-4.50000 ( rapid move to begin. )
G01 Z-0.04000 F0.02000 ( plunge. )
G04 P0 ( dwell for no time -- G64 should not smooth over this point )
G01 F0.04000
G01 X4.99000 Y-2.50000
G01 X4.99169 Y-2.49444
G01 X4.99444 Y-2.49168
G01 X5.00000 Y-2.49000
G01 X6.50000 Y-2.49000
G01 X6.50556 Y-2.49168
G01 X6.50831 Y-2.49444
G01 X6.51000 Y-2.50000
G01 X6.50984 Y-3.18825
G01 X6.50858 Y-3.19160
G01 X6.50622 Y-3.19429
G01 X6.48509 Y-3.20613
G01 X6.44299 Y-3.24068
G01 X6.40431 Y-3.28780
G01 X6.37739 Y-3.33885
G01 X6.36158 Y-3.39097
G01 X6.35561 Y-3.44834
G01 X6.35563 Y-3.45129
G01 X6.35715 Y-3.45586
G01 X6.35859 Y-3.45782
G01 X6.36251 Y-3.46063
G01 X6.36723 Y-3.46160
G01 X6.37194 Y-3.46056
G01 X6.37404 Y-3.45934
G01 X6.37724 Y-3.45573
G01 X6.37880 Y-3.45062
G01 X6.38436 Y-3.39616
G01 X6.39922 Y-3.34718
G01 X6.42518 Y-3.29860
G01 X6.45904 Y-3.25766
G01 X6.49536 Y-3.22812
G01 X6.49929 Y-3.22700
G01 X6.50333 Y-3.22755
G01 X6.50518 Y-3.22842
G01 X6.50681 Y-3.22966
G01 X6.50917 Y-3.23299
G01 X6.51000 Y-3.23698
G01 X6.51000 Y-4.50000
G01 X6.50831 Y-4.50556
G01 X6.50556 Y-4.50831
G01 X6.50000 Y-4.51000
G01 X5.00000 Y-4.51000
G01 X4.99617 Y-4.50924
G01 X4.99293 Y-4.50707
G01 X4.99076 Y-4.50383
G01 X4.99000 Y-4.50000
G01 Z-0.08000 F0.02000 ( plunge. )
G04 P0 ( dwell for no time -- G64 should not smooth over this point )
G01 F0.04000
G01 X4.99000 Y-2.50000
G01 X4.99169 Y-2.49444
G01 X4.99444 Y-2.49168
G01 X5.00000 Y-2.49000
G01 X6.50000 Y-2.49000
G01 X6.50556 Y-2.49168
G01 X6.50831 Y-2.49444
G01 X6.51000 Y-2.50000
G01 X6.50984 Y-3.18825
G01 X6.50858 Y-3.19160
G01 X6.50622 Y-3.19429
G01 X6.48509 Y-3.20613
G01 X6.44299 Y-3.24068
G01 X6.40431 Y-3.28780
G01 X6.37739 Y-3.33885
G01 X6.36158 Y-3.39097
G01 X6.35561 Y-3.44834
G01 X6.35563 Y-3.45129
G01 X6.35715 Y-3.45586
G01 X6.35859 Y-3.45782
G01 X6.36251 Y-3.46063
G01 X6.36723 Y-3.46160
G01 X6.37194 Y-3.46056
G01 X6.37404 Y-3.45934
G01 X6.37724 Y-3.45573
G01 X6.37880 Y-3.45062
G01 X6.38436 Y-3.39616
G01 X6.39922 Y-3.34718
G01 X6.42518 Y-3.29860
G01 X6.45904 Y-3.25766
G01 X6.49536 Y-3.22812
G01 X6.49929 Y-3.22700
G01 X6.50333 Y-3.22755
G01 X6.50518 Y-3.22842
G01 X6.50681 Y-3.22966
G01 X6.50917 Y-3.23299
G01 X6.51000 Y-3.23698
G01 X6.51000 Y-4.50000
G01 X6.50831 Y-4.50556
G01 X6.50556 Y-4.50831
G01 X6.50000 Y-4.51000
G01 X5.00000 Y-4.51000
G01 X4.99617 Y-4.50924
G01 X4.99293 Y-4.50707
G01 X4.99076 Y-4.50383
G01 X4.99000 Y-4.50000
G04 P0 ( dwell for no time -- G64 should not smooth over this point )
G00 Z0.05000 ( retract )

G00 X5.66000 Y-4.24000 ( rapid move to begin. )
G01 Z-0.04000 F0.02000 ( plunge. )
G04 P0 ( dwell for no time -- G64 should not smooth over this point )
G01 F0.04000
G01 X5.99000 Y-4.24000
G01 X5.99000 Y-4.01000
G01 X5.66000 Y-4.01000
G01 X5.66000 Y-4.24000
G01 Z-0.08000 F0.02000 ( plunge. )
G04 P0 ( dwell for no time -- G64 should not smooth over this point )
G01 F0.04000
G01 X5.99000 Y-4.24000
G01 X5.99000 Y-4.01000
G01 X5.66000 Y-4.01000
G01 X5.66000 Y-4.24000
G04 P0 ( dwell for no time -- G64 should not smooth over this point )
G00 Z0.05000 ( retract )

G00 X5.46000 Y-3.99000 ( rapid move to begin. )
G01 Z-0.04000 F0.02000 ( plunge. )
G04 P0 ( dwell for no time -- G64 should not smooth over this point )
G01 F0.04000
G01 X5.64000 Y-3.99000
G01 X5.64000 Y-3.86000
G01 X5.46000 Y-3.86000
G01 X5.46000 Y-3.99000
G01 Z-0.08000 F0.02000 ( plunge. )
G04 P0 ( dwell for no time -- G64 should not smooth over this point )
G01 F0.04000
G01 X5.64000 Y-3.99000
G01 X5.64000 Y-3.86000
G01 X5.46000 Y-3.86000
G01 X5.46000 Y-3.99000
G04 P0 ( dwell for no time -- G64 should not smooth over this point )
G00 Z0.05000 ( retract )

G00 X5.58063 Y-3.35203 ( rapid move to begin. )
G01 Z-0.04000 F0.02000 ( plunge. )
G04 P0 ( dwell for no time -- G64 should not smooth over this point )
G01 F0.04000
G01 X5.58063 Y-3.34796
G01 X5.58148 Y-3.34398
G01 X5.58314 Y-3.34026
G01 X5.58553 Y-3.33697
G01 X5.58855 Y-3.33425
G01 X5.59208 Y-3.33221
G01 X5.59595 Y-3.33095
G01 X5.60052 Y-3.33047
G01 X5.77047 Y-3.33047
G01 X5.77430 Y-3.32971
G01 X5.77754 Y-3.32754
G01 X5.77971 Y-3.32430
G01 X5.78047 Y-3.32047
G01 X5.78047 Y-3.15052
G01 X5.78095 Y-3.14595
G01 X5.78221 Y-3.14208
G01 X5.78425 Y-3.13855
G01 X5.78697 Y-3.13553
G01 X5.79026 Y-3.13314
G01 X5.79398 Y-3.13148
G01 X5.79796 Y-3.13063
G01 X5.80203 Y-3.13063
G01 X5.80602 Y-3.13148
G01 X5.80974 Y-3.13314
G01 X5.81303 Y-3.13553
G01 X5.81575 Y-3.13855
G01 X5.81779 Y-3.14208
G01 X5.81905 Y-3.14595
G01 X5.81953 Y-3.15052
G01 X5.81953 Y-3.35000
G01 X5.82121 Y-3.35555
G01 X5.82570 Y-3.35924
G01 X5.82953 Y-3.36000
G01 X6.24000 Y-3.36000
G01 X6.24000 Y-3.74000
G01 X5.81000 Y-3.74000
G01 X5.81000 Y-3.37953
G01 X5.80831 Y-3.37397
G01 X5.80556 Y-3.37121
G01 X5.80000 Y-3.36953
G01 X5.60052 Y-3.36953
G01 X5.59595 Y-3.36905
G01 X5.59208 Y-3.36779
G01 X5.58855 Y-3.36575
G01 X5.58553 Y-3.36303
G01 X5.58314 Y-3.35974
G01 X5.58148 Y-3.35602
G01 X5.58063 Y-3.35203
G01 Z-0.08000 F0.02000 ( plunge. )
G04 P0 ( dwell for no time -- G64 should not smooth over this point )
G01 F0.04000
G01 X5.58063 Y-3.34796
G01 X5.58148 Y-3.34398
G01 X5.58314 Y-3.34026
G01 X5.58553 Y-3.33697
G01 X5.58855 Y-3.33425
G01 X5.59208 Y-3.33221
G01 X5.59595 Y-3.33095
G01 X5.60052 Y-3.33047
G01 X5.77047 Y-3.33047
G01 X5.77430 Y-3.32971
G01 X5.77754 Y-3.32754
G01 X5.77971 Y-3.32430
G01 X5.78047 Y-3.32047
G01 X5.78047 Y-3.15052
G01 X5.78095 Y-3.14595
G01 X5.78221 Y-3.14208
G01 X5.78425 Y-3.13855
G01 X5.78697 Y-3.13553
G01 X5.79026 Y-3.13314
G01 X5.79398 Y-3.13148
G01 X5.79796 Y-3.13063
G01 X5.80203 Y-3.13063
G01 X5.80602 Y-3.13148
G01 X5.80974 Y-3.13314
G01 X5.81303 Y-3.13553
G01 X5.81575 Y-3.13855
G01 X5.81779 Y-3.14208
G01 X5.81905 Y-3.14595
G01 X5.81953 Y-3.15052
G01 X5.81953 Y-3.35000
G01 X5.82121 Y-3.35555
G01 X5.82570 Y-3.35924
G01 X5.82953 Y-3.36000
G01 X6.24000 Y-3.36000
G01 X6.24000 Y-3.74000
G01 X5.81000 Y-3.74000
G01 X5.81000 Y-3.37953
G01 X5.80831 Y-3.37397
G01 X5.80556 Y-3.37121
G01 X5.80000 Y-3.36953
G01 X5.60052 Y-3.36953
G01 X5.59595 Y-3.36905
G01 X5.59208 Y-3.36779
G01 X5.58855 Y-3.36575
G01 X5.58553 Y-3.36303
G01 X5.58314 Y-3.35974
G01 X5.58148 Y-3.35602
G01 X5.58063 Y-3.35203
G04 P0 ( dwell for no time -- G64 should not smooth over this point )
G00 Z0.05000 ( retract )

G00 X5.46000 Y-3.14000 ( rapid move to begin. )
G01 Z-0.04000 F0.02000 ( plunge. )
G04 P0 ( dwell for no time -- G64 should not smooth over this point )
G01 F0.04000
G01 X5.46000 Y-2.61000
G01 X5.89000 Y-2.61000
G01 X5.89000 Y-2.69000
G01 X5.55000 Y-2.69000
G01 X5.54444 Y-2.69169
G01 X5.54169 Y-2.69444
G01 X5.54000 Y-2.70000
G01 X5.54000 Y-3.14000
G01 X5.46000 Y-3.14000
G01 Z-0.08000 F0.02000 ( plunge. )
G04 P0 ( dwell for no time -- G64 should not smooth over this point )
G01 F0.04000
G01 X5.46000 Y-2.61000
G01 X5.89000 Y-2.61000
G01 X5.89000 Y-2.69000
G01 X5.55000 Y-2.69000
G01 X5.54444 Y-2.69169
G01 X5.54169 Y-2.69444
G01 X5.54000 Y-2.70000
G01 X5.54000 Y-3.14000
G01 X5.46000 Y-3.14000
G04 P0 ( dwell for no time -- G64 should not smooth over this point )
G00 Z0.05000 ( retract )

G00 X6.01000 Y-2.99000 ( rapid move to begin. )
G01 Z-0.04000 F0.02000 ( plunge. )
G04 P0 ( dwell for no time -- G64 should not smooth over this point )
G01 F0.04000
G01 X6.01000 Y-2.71000
G01 X6.29000 Y-2.71000
G01 X6.29000 Y-2.99000
G01 X6.01000 Y-2.99000
G01 Z-0.08000 F0.02000 ( plunge. )
G04 P0 ( dwell for no time -- G64 should not smooth over this point )
G01 F0.04000
G01 X6.01000 Y-2.71000
G01 X6.29000 Y-2.71000
G01 X6.29000 Y-2.99000
G01 X6.01000 Y-2.99000

G04 P0 ( dwell for no time -- G64 should not smooth over this point )
G00 Z1.600 ( retract )

M5 ( Spindle off. )
G04 P1.000000
M9 ( Coolant off. )
M2 ( Program end. )

