( pcb2gcode 2.0.0 )
( Software-independent Gcode )

G94 ( Inches per minute feed rate. )
G20 ( Units == INCHES. )

G90 ( Absolute coordinates. )
G00 S24000 ( RPM spindle speed. )
G64 P0.00040 ( set maximum deviation from commanded toolpath )
G01 F0.04000 ( Feedrate. )


G00 Z1.60000 (Retract to tool change height)
T0
M5      (Spindle stop.)
G04 P1.00000 (Wait for spindle to stop)
(MSG, Change tool bit to cutter diameter 0.02000in)
M6      (Tool change.)
M0      (Temporary machine stop.)
M3 ( Spindle on clockwise. )
G04 P1.00000 (Wait for spindle to get up to speed)
G04 P0 ( dwell for no time -- G64 should not smooth over this point )
G00 Z0.05000 ( retract )

G00 X4.99000 Y-4.50000 ( rapid move to begin. )
G01 Z-0.04000 F0.02000 ( plunge. )
G04 P0 ( dwell for no time -- G64 should not smooth over this point )
G01 F0.04000
G01 X4.99000 Y-2.50000
G01 X4.99019 Y-2.49805
G01 X4.99076 Y-2.49617
G01 X4.99169 Y-2.49444
G01 X4.99293 Y-2.49293
G01 X4.99444 Y-2.49168
G01 X4.99617 Y-2.49076
G01 X4.99805 Y-2.49019
G01 X5.00000 Y-2.49000
G01 X6.50000 Y-2.49000
G01 X6.50195 Y-2.49019
G01 X6.50383 Y-2.49076
G01 X6.50556 Y-2.49168
G01 X6.50707 Y-2.49293
G01 X6.50831 Y-2.49444
G01 X6.50924 Y-2.49617
G01 X6.50981 Y-2.49805
G01 X6.51000 Y-2.50000
G01 X6.51000 Y-3.18645
G01 X6.50984 Y-3.18824
G01 X6.50936 Y-3.18998
G01 X6.50858 Y-3.19159
G01 X6.50752 Y-3.19305
G01 X6.50622 Y-3.19429
G01 X6.50471 Y-3.19527
G01 X6.48780 Y-3.20431
G01 X6.48509 Y-3.20612
G01 X6.44299 Y-3.24068
G01 X6.44068 Y-3.24299
G01 X6.40612 Y-3.28509
G01 X6.40431 Y-3.28780
G01 X6.37864 Y-3.33583
G01 X6.37740 Y-3.33885
G01 X6.36158 Y-3.39097
G01 X6.36094 Y-3.39417
G01 X6.35562 Y-3.44830
G01 X6.35566 Y-3.45146
G01 X6.35628 Y-3.45398
G01 X6.35743 Y-3.45630
G01 X6.35908 Y-3.45831
G01 X6.36113 Y-3.45990
G01 X6.36349 Y-3.46099
G01 X6.36602 Y-3.46153
G01 X6.36862 Y-3.46150
G01 X6.37114 Y-3.46088
G01 X6.37346 Y-3.45973
G01 X6.37547 Y-3.45808
G01 X6.37706 Y-3.45603
G01 X6.37815 Y-3.45367
G01 X6.37881 Y-3.45058
G01 X6.38398 Y-3.39809
G01 X6.38436 Y-3.39616
G01 X6.39922 Y-3.34718
G01 X6.39997 Y-3.34537
G01 X6.42409 Y-3.30023
G01 X6.42518 Y-3.29860
G01 X6.45765 Y-3.25904
G01 X6.45904 Y-3.25766
G01 X6.49366 Y-3.22924
G01 X6.49536 Y-3.22811
G01 X6.49727 Y-3.22735
G01 X6.49929 Y-3.22700
G01 X6.50133 Y-3.22706
G01 X6.50333 Y-3.22754
G01 X6.50518 Y-3.22842
G01 X6.50681 Y-3.22965
G01 X6.50816 Y-3.23120
G01 X6.50917 Y-3.23298
G01 X6.50979 Y-3.23493
G01 X6.51000 Y-3.23697
G01 X6.51000 Y-4.50000
G01 X6.50981 Y-4.50195
G01 X6.50924 Y-4.50383
G01 X6.50831 Y-4.50556
G01 X6.50707 Y-4.50707
G01 X6.50556 Y-4.50831
G01 X6.50383 Y-4.50924
G01 X6.50195 Y-4.50981
G01 X6.50000 Y-4.51000
G01 X5.00000 Y-4.51000
G01 X4.99805 Y-4.50981
G01 X4.99617 Y-4.50924
G01 X4.99444 Y-4.50831
G01 X4.99293 Y-4.50707
G01 X4.99169 Y-4.50556
G01 X4.99076 Y-4.50383
G01 X4.99019 Y-4.50195
G01 X4.99000 Y-4.50000
G01 Z-0.08000 F0.02000 ( plunge. )
G04 P0 ( dwell for no time -- G64 should not smooth over this point )
G01 F0.04000
G01 X4.99000 Y-2.50000
G01 X4.99019 Y-2.49805
G01 X4.99076 Y-2.49617
G01 X4.99169 Y-2.49444
G01 X4.99293 Y-2.49293
G01 X4.99444 Y-2.49168
G01 X4.99617 Y-2.49076
G01 X4.99805 Y-2.49019
G01 X5.00000 Y-2.49000
G01 X6.50000 Y-2.49000
G01 X6.50195 Y-2.49019
G01 X6.50383 Y-2.49076
G01 X6.50556 Y-2.49168
G01 X6.50707 Y-2.49293
G01 X6.50831 Y-2.49444
G01 X6.50924 Y-2.49617
G01 X6.50981 Y-2.49805
G01 X6.51000 Y-2.50000
G01 X6.51000 Y-3.18645
G01 X6.50984 Y-3.18824
G01 X6.50936 Y-3.18998
G01 X6.50858 Y-3.19159
G01 X6.50752 Y-3.19305
G01 X6.50622 Y-3.19429
G01 X6.50471 Y-3.19527
G01 X6.48780 Y-3.20431
G01 X6.48509 Y-3.20612
G01 X6.44299 Y-3.24068
G01 X6.44068 Y-3.24299
G01 X6.40612 Y-3.28509
G01 X6.40431 Y-3.28780
G01 X6.37864 Y-3.33583
G01 X6.37740 Y-3.33885
G01 X6.36158 Y-3.39097
G01 X6.36094 Y-3.39417
G01 X6.35562 Y-3.44830
G01 X6.35566 Y-3.45146
G01 X6.35628 Y-3.45398
G01 X6.35743 Y-3.45630
G01 X6.35908 Y-3.45831
G01 X6.36113 Y-3.45990
G01 X6.36349 Y-3.46099
G01 X6.36602 Y-3.46153
G01 X6.36862 Y-3.46150
G01 X6.37114 Y-3.46088
G01 X6.37346 Y-3.45973
G01 X6.37547 Y-3.45808
G01 X6.37706 Y-3.45603
G01 X6.37815 Y-3.45367
G01 X6.37881 Y-3.45058
G01 X6.38398 Y-3.39809
G01 X6.38436 Y-3.39616
G01 X6.39922 Y-3.34718
G01 X6.39997 Y-3.34537
G01 X6.42409 Y-3.30023
G01 X6.42518 Y-3.29860
G01 X6.45765 Y-3.25904
G01 X6.45904 Y-3.25766
G01 X6.49366 Y-3.22924
G01 X6.49536 Y-3.22811
G01 X6.49727 Y-3.22735
G01 X6.49929 Y-3.22700
G01 X6.50133 Y-3.22706
G01 X6.50333 Y-3.22754
G01 X6.50518 Y-3.22842
G01 X6.50681 Y-3.22965
G01 X6.50816 Y-3.23120
G01 X6.50917 Y-3.23298
G01 X6.50979 Y-3.23493
G01 X6.51000 Y-3.23697
G01 X6.51000 Y-4.50000
G01 X6.50981 Y-4.50195
G01 X6.50924 Y-4.50383
G01 X6.50831 Y-4.50556
G01 X6.50707 Y-4.50707
G01 X6.50556 Y-4.50831
G01 X6.50383 Y-4.50924
G01 X6.50195 Y-4.50981
G01 X6.50000 Y-4.51000
G01 X5.00000 Y-4.51000
G01 X4.99805 Y-4.50981
G01 X4.99617 Y-4.50924
G01 X4.99444 Y-4.50831
G01 X4.99293 Y-4.50707
G01 X4.99169 Y-4.50556
G01 X4.99076 Y-4.50383
G01 X4.99019 Y-4.50195
G01 X4.99000 Y-4.50000
G04 P0 ( dwell for no time -- G64 should not smooth over this point )
G00 Z0.05000 ( retract )

G00 X5.66000 Y-4.24000 ( rapid move to begin. )
G01 Z-0.04000 F0.02000 ( plunge. )
G04 P0 ( dwell for no time -- G64 should not smooth over this point )
G01 F0.04000
G01 X5.99000 Y-4.24000
G01 X5.99000 Y-4.01000
G01 X5.66000 Y-4.01000
G01 X5.66000 Y-4.24000
G01 Z-0.08000 F0.02000 ( plunge. )
G04 P0 ( dwell for no time -- G64 should not smooth over this point )
G01 F0.04000
G01 X5.99000 Y-4.24000
G01 X5.99000 Y-4.01000
G01 X5.66000 Y-4.01000
G01 X5.66000 Y-4.24000
G04 P0 ( dwell for no time -- G64 should not smooth over this point )
G00 Z0.05000 ( retract )

G00 X5.46000 Y-3.99000 ( rapid move to begin. )
G01 Z-0.04000 F0.02000 ( plunge. )
G04 P0 ( dwell for no time -- G64 should not smooth over this point )
G01 F0.04000
G01 X5.64000 Y-3.99000
G01 X5.64000 Y-3.86000
G01 X5.46000 Y-3.86000
G01 X5.46000 Y-3.99000
G01 Z-0.08000 F0.02000 ( plunge. )
G04 P0 ( dwell for no time -- G64 should not smooth over this point )
G01 F0.04000
G01 X5.64000 Y-3.99000
G01 X5.64000 Y-3.86000
G01 X5.46000 Y-3.86000
G01 X5.46000 Y-3.99000
G04 P0 ( dwell for no time -- G64 should not smooth over this point )
G00 Z0.05000 ( retract )

G00 X5.58054 Y-3.35000 ( rapid move to begin. )
G01 Z-0.04000 F0.02000 ( plunge. )
G04 P0 ( dwell for no time -- G64 should not smooth over this point )
G01 F0.04000
G01 X5.58102 Y-3.35433
G01 X5.58246 Y-3.35845
G01 X5.58478 Y-3.36213
G01 X5.58786 Y-3.36522
G01 X5.59155 Y-3.36754
G01 X5.59567 Y-3.36898
G01 X5.60056 Y-3.36953
G01 X5.80000 Y-3.36953
G01 X5.80195 Y-3.36972
G01 X5.80383 Y-3.37029
G01 X5.80556 Y-3.37121
G01 X5.80707 Y-3.37246
G01 X5.80831 Y-3.37397
G01 X5.80924 Y-3.37570
G01 X5.80981 Y-3.37758
G01 X5.81000 Y-3.37953
G01 X5.81000 Y-3.74000
G01 X6.24000 Y-3.74000
G01 X6.24000 Y-3.36000
G01 X5.82953 Y-3.36000
G01 X5.82758 Y-3.35981
G01 X5.82570 Y-3.35924
G01 X5.82397 Y-3.35831
G01 X5.82246 Y-3.35707
G01 X5.82121 Y-3.35555
G01 X5.82029 Y-3.35383
G01 X5.81972 Y-3.35195
G01 X5.81953 Y-3.35000
G01 X5.81953 Y-3.15056
G01 X5.81898 Y-3.14567
G01 X5.81754 Y-3.14155
G01 X5.81522 Y-3.13786
G01 X5.81213 Y-3.13478
G01 X5.80844 Y-3.13246
G01 X5.80433 Y-3.13102
G01 X5.80000 Y-3.13054
G01 X5.79567 Y-3.13102
G01 X5.79155 Y-3.13246
G01 X5.78786 Y-3.13478
G01 X5.78478 Y-3.13786
G01 X5.78246 Y-3.14155
G01 X5.78102 Y-3.14567
G01 X5.78047 Y-3.15056
G01 X5.78047 Y-3.32047
G01 X5.78028 Y-3.32242
G01 X5.77971 Y-3.32430
G01 X5.77879 Y-3.32603
G01 X5.77754 Y-3.32754
G01 X5.77603 Y-3.32879
G01 X5.77430 Y-3.32971
G01 X5.77242 Y-3.33028
G01 X5.77047 Y-3.33047
G01 X5.60056 Y-3.33047
G01 X5.59567 Y-3.33102
G01 X5.59155 Y-3.33246
G01 X5.58786 Y-3.33478
G01 X5.58478 Y-3.33786
G01 X5.58246 Y-3.34155
G01 X5.58102 Y-3.34567
G01 X5.58054 Y-3.35000
G01 Z-0.08000 F0.02000 ( plunge. )
G04 P0 ( dwell for no time -- G64 should not smooth over this point )
G01 F0.04000
G01 X5.58102 Y-3.35433
G01 X5.58246 Y-3.35845
G01 X5.58478 Y-3.36213
G01 X5.58786 Y-3.36522
G01 X5.59155 Y-3.36754
G01 X5.59567 Y-3.36898
G01 X5.60056 Y-3.36953
G01 X5.80000 Y-3.36953
G01 X5.80195 Y-3.36972
G01 X5.80383 Y-3.37029
G01 X5.80556 Y-3.37121
G01 X5.80707 Y-3.37246
G01 X5.80831 Y-3.37397
G01 X5.80924 Y-3.37570
G01 X5.80981 Y-3.37758
G01 X5.81000 Y-3.37953
G01 X5.81000 Y-3.74000
G01 X6.24000 Y-3.74000
G01 X6.24000 Y-3.36000
G01 X5.82953 Y-3.36000
G01 X5.82758 Y-3.35981
G01 X5.82570 Y-3.35924
G01 X5.82397 Y-3.35831
G01 X5.82246 Y-3.35707
G01 X5.82121 Y-3.35555
G01 X5.82029 Y-3.35383
G01 X5.81972 Y-3.35195
G01 X5.81953 Y-3.35000
G01 X5.81953 Y-3.15056
G01 X5.81898 Y-3.14567
G01 X5.81754 Y-3.14155
G01 X5.81522 Y-3.13786
G01 X5.81213 Y-3.13478
G01 X5.80844 Y-3.13246
G01 X5.80433 Y-3.13102
G01 X5.80000 Y-3.13054
G01 X5.79567 Y-3.13102
G01 X5.79155 Y-3.13246
G01 X5.78786 Y-3.13478
G01 X5.78478 Y-3.13786
G01 X5.78246 Y-3.14155
G01 X5.78102 Y-3.14567
G01 X5.78047 Y-3.15056
G01 X5.78047 Y-3.32047
G01 X5.78028 Y-3.32242
G01 X5.77971 Y-3.32430
G01 X5.77879 Y-3.32603
G01 X5.77754 Y-3.32754
G01 X5.77603 Y-3.32879
G01 X5.77430 Y-3.32971
G01 X5.77242 Y-3.33028
G01 X5.77047 Y-3.33047
G01 X5.60056 Y-3.33047
G01 X5.59567 Y-3.33102
G01 X5.59155 Y-3.33246
G01 X5.58786 Y-3.33478
G01 X5.58478 Y-3.33786
G01 X5.58246 Y-3.34155
G01 X5.58102 Y-3.34567
G01 X5.58054 Y-3.35000
G04 P0 ( dwell for no time -- G64 should not smooth over this point )
G00 Z0.05000 ( retract )

G00 X5.46000 Y-3.14000 ( rapid move to begin. )
G01 Z-0.04000 F0.02000 ( plunge. )
G04 P0 ( dwell for no time -- G64 should not smooth over this point )
G01 F0.04000
G01 X5.46000 Y-2.61000
G01 X5.89000 Y-2.61000
G01 X5.89000 Y-2.69000
G01 X5.55000 Y-2.69000
G01 X5.54805 Y-2.69019
G01 X5.54617 Y-2.69076
G01 X5.54444 Y-2.69169
G01 X5.54293 Y-2.69293
G01 X5.54169 Y-2.69444
G01 X5.54076 Y-2.69617
G01 X5.54019 Y-2.69805
G01 X5.54000 Y-2.70000
G01 X5.54000 Y-3.14000
G01 X5.46000 Y-3.14000
G01 Z-0.08000 F0.02000 ( plunge. )
G04 P0 ( dwell for no time -- G64 should not smooth over this point )
G01 F0.04000
G01 X5.46000 Y-2.61000
G01 X5.89000 Y-2.61000
G01 X5.89000 Y-2.69000
G01 X5.55000 Y-2.69000
G01 X5.54805 Y-2.69019
G01 X5.54617 Y-2.69076
G01 X5.54444 Y-2.69169
G01 X5.54293 Y-2.69293
G01 X5.54169 Y-2.69444
G01 X5.54076 Y-2.69617
G01 X5.54019 Y-2.69805
G01 X5.54000 Y-2.70000
G01 X5.54000 Y-3.14000
G01 X5.46000 Y-3.14000
G04 P0 ( dwell for no time -- G64 should not smooth over this point )
G00 Z0.05000 ( retract )

G00 X6.01000 Y-2.99000 ( rapid move to begin. )
G01 Z-0.04000 F0.02000 ( plunge. )
G04 P0 ( dwell for no time -- G64 should not smooth over this point )
G01 F0.04000
G01 X6.01000 Y-2.71000
G01 X6.29000 Y-2.71000
G01 X6.29000 Y-2.99000
G01 X6.01000 Y-2.99000
G01 Z-0.08000 F0.02000 ( plunge. )
G04 P0 ( dwell for no time -- G64 should not smooth over this point )
G01 F0.04000
G01 X6.01000 Y-2.71000
G01 X6.29000 Y-2.71000
G01 X6.29000 Y-2.99000
G01 X6.01000 Y-2.99000

G04 P0 ( dwell for no time -- G64 should not smooth over this point )
G00 Z1.600000 ( retract )

M5 ( Spindle off. )
G04 P1.000000
M9 ( Coolant off. )
M2 ( Program end. )

