( pcb2gcode 2.5.0 )
( Software-independent Gcode )

G94 ( Inches per minute feed rate. )
G20 ( Units == INCHES. )

G90 ( Absolute coordinates. )
G00 S24000 ( RPM spindle speed. )
G64 P0.00040 ( set maximum deviation from commanded toolpath )
G01 F0.04000 ( Feedrate. )


G00 Z1.60000 (Retract to tool change height)
T1
M5      (Spindle stop.)
G04 P1.00000 (Wait for spindle to stop)
(MSG, Change tool bit to cutter diameter 0.02000in)
M6      (Tool change.)
M0      (Temporary machine stop.)
M3 ( Spindle on clockwise. )
G04 P1.00000 (Wait for spindle to get up to speed)
G04 P0 ( dwell for no time -- G64 should not smooth over this point )
G00 Z0.05000 ( retract )

G00 X5.46000 Y-3.99000 ( rapid move to begin. )
G01 Z-0.04000 F0.02000 ( plunge. )
G04 P0 ( dwell for no time -- G64 should not smooth over this point )
G01 F0.04000
G01 X5.46000 Y-3.86000
G01 X5.64000 Y-3.86000
G01 X5.64000 Y-3.99000
G01 X5.46000 Y-3.99000
G01 Z-0.08000 F0.02000 ( plunge. )
G04 P0 ( dwell for no time -- G64 should not smooth over this point )
G01 F0.04000
G01 X5.46000 Y-3.86000
G01 X5.64000 Y-3.86000
G01 X5.64000 Y-3.99000
G01 X5.46000 Y-3.99000
G04 P0 ( dwell for no time -- G64 should not smooth over this point )
G00 Z0.05000 ( retract )

G00 X5.66000 Y-4.24000 ( rapid move to begin. )
G01 Z-0.04000 F0.02000 ( plunge. )
G04 P0 ( dwell for no time -- G64 should not smooth over this point )
G01 F0.04000
G01 X5.66000 Y-4.01000
G01 X5.99000 Y-4.01000
G01 X5.99000 Y-4.24000
G01 X5.66000 Y-4.24000
G01 Z-0.08000 F0.02000 ( plunge. )
G04 P0 ( dwell for no time -- G64 should not smooth over this point )
G01 F0.04000
G01 X5.66000 Y-4.01000
G01 X5.99000 Y-4.01000
G01 X5.99000 Y-4.24000
G01 X5.66000 Y-4.24000
G04 P0 ( dwell for no time -- G64 should not smooth over this point )
G00 Z0.05000 ( retract )

G00 X6.01000 Y-2.99000 ( rapid move to begin. )
G01 Z-0.04000 F0.02000 ( plunge. )
G04 P0 ( dwell for no time -- G64 should not smooth over this point )
G01 F0.04000
G01 X6.01000 Y-2.71000
G01 X6.29000 Y-2.71000
G01 X6.29000 Y-2.99000
G01 X6.01000 Y-2.99000
G01 Z-0.08000 F0.02000 ( plunge. )
G04 P0 ( dwell for no time -- G64 should not smooth over this point )
G01 F0.04000
G01 X6.01000 Y-2.71000
G01 X6.29000 Y-2.71000
G01 X6.29000 Y-2.99000
G01 X6.01000 Y-2.99000
G04 P0 ( dwell for no time -- G64 should not smooth over this point )
G00 Z0.05000 ( retract )

G00 X5.46000 Y-3.14000 ( rapid move to begin. )
G01 Z-0.04000 F0.02000 ( plunge. )
G04 P0 ( dwell for no time -- G64 should not smooth over this point )
G01 F0.04000
G01 X5.46000 Y-2.61000
G01 X5.89000 Y-2.61000
G01 X5.89000 Y-2.69000
G01 X5.55000 Y-2.69000
G01 X5.54761 Y-2.69029
G01 X5.54571 Y-2.69096
G01 X5.54368 Y-2.69225
G01 X5.54225 Y-2.69367
G01 X5.54134 Y-2.69500
G01 X5.54065 Y-2.69645
G01 X5.54013 Y-2.69840
G01 X5.54000 Y-2.70000
G01 X5.54000 Y-3.14000
G01 X5.46000 Y-3.14000
G01 Z-0.08000 F0.02000 ( plunge. )
G04 P0 ( dwell for no time -- G64 should not smooth over this point )
G01 F0.04000
G01 X5.46000 Y-2.61000
G01 X5.89000 Y-2.61000
G01 X5.89000 Y-2.69000
G01 X5.55000 Y-2.69000
G01 X5.54761 Y-2.69029
G01 X5.54571 Y-2.69096
G01 X5.54368 Y-2.69225
G01 X5.54225 Y-2.69367
G01 X5.54134 Y-2.69500
G01 X5.54065 Y-2.69645
G01 X5.54013 Y-2.69840
G01 X5.54000 Y-2.70000
G01 X5.54000 Y-3.14000
G01 X5.46000 Y-3.14000
G04 P0 ( dwell for no time -- G64 should not smooth over this point )
G00 Z0.05000 ( retract )

G00 X5.58052 Y-3.35000 ( rapid move to begin. )
G01 Z-0.04000 F0.02000 ( plunge. )
G04 P0 ( dwell for no time -- G64 should not smooth over this point )
G01 F0.04000
G01 X5.58089 Y-3.35380
G01 X5.58200 Y-3.35745
G01 X5.58380 Y-3.36082
G01 X5.58623 Y-3.36377
G01 X5.58918 Y-3.36620
G01 X5.59255 Y-3.36800
G01 X5.59620 Y-3.36910
G01 X5.60049 Y-3.36953
G01 X5.80040 Y-3.36953
G01 X5.80278 Y-3.36992
G01 X5.80500 Y-3.37087
G01 X5.80693 Y-3.37231
G01 X5.80866 Y-3.37453
G01 X5.80961 Y-3.37675
G01 X5.81000 Y-3.37953
G01 X5.81000 Y-3.74000
G01 X6.24000 Y-3.74000
G01 X6.24000 Y-3.36000
G01 X5.82953 Y-3.36000
G01 X5.82713 Y-3.35971
G01 X5.82488 Y-3.35885
G01 X5.82260 Y-3.35721
G01 X5.82108 Y-3.35534
G01 X5.81992 Y-3.35278
G01 X5.81954 Y-3.35040
G01 X5.81953 Y-3.15049
G01 X5.81910 Y-3.14620
G01 X5.81800 Y-3.14255
G01 X5.81620 Y-3.13918
G01 X5.81377 Y-3.13623
G01 X5.81082 Y-3.13380
G01 X5.80745 Y-3.13200
G01 X5.80380 Y-3.13090
G01 X5.80000 Y-3.13052
G01 X5.79620 Y-3.13090
G01 X5.79254 Y-3.13200
G01 X5.78918 Y-3.13380
G01 X5.78623 Y-3.13623
G01 X5.78380 Y-3.13918
G01 X5.78200 Y-3.14255
G01 X5.78090 Y-3.14620
G01 X5.78047 Y-3.15049
G01 X5.78047 Y-3.32047
G01 X5.78027 Y-3.32247
G01 X5.77967 Y-3.32439
G01 X5.77870 Y-3.32615
G01 X5.77768 Y-3.32740
G01 X5.77615 Y-3.32870
G01 X5.77439 Y-3.32967
G01 X5.77247 Y-3.33027
G01 X5.77047 Y-3.33047
G01 X5.60049 Y-3.33047
G01 X5.59620 Y-3.33089
G01 X5.59255 Y-3.33200
G01 X5.58918 Y-3.33380
G01 X5.58623 Y-3.33623
G01 X5.58380 Y-3.33918
G01 X5.58200 Y-3.34254
G01 X5.58089 Y-3.34620
G01 X5.58052 Y-3.35000
G01 Z-0.08000 F0.02000 ( plunge. )
G04 P0 ( dwell for no time -- G64 should not smooth over this point )
G01 F0.04000
G01 X5.58089 Y-3.35380
G01 X5.58200 Y-3.35745
G01 X5.58380 Y-3.36082
G01 X5.58623 Y-3.36377
G01 X5.58918 Y-3.36620
G01 X5.59255 Y-3.36800
G01 X5.59620 Y-3.36910
G01 X5.60049 Y-3.36953
G01 X5.80040 Y-3.36953
G01 X5.80278 Y-3.36992
G01 X5.80500 Y-3.37087
G01 X5.80693 Y-3.37231
G01 X5.80866 Y-3.37453
G01 X5.80961 Y-3.37675
G01 X5.81000 Y-3.37953
G01 X5.81000 Y-3.74000
G01 X6.24000 Y-3.74000
G01 X6.24000 Y-3.36000
G01 X5.82953 Y-3.36000
G01 X5.82713 Y-3.35971
G01 X5.82488 Y-3.35885
G01 X5.82260 Y-3.35721
G01 X5.82108 Y-3.35534
G01 X5.81992 Y-3.35278
G01 X5.81954 Y-3.35040
G01 X5.81953 Y-3.15049
G01 X5.81910 Y-3.14620
G01 X5.81800 Y-3.14255
G01 X5.81620 Y-3.13918
G01 X5.81377 Y-3.13623
G01 X5.81082 Y-3.13380
G01 X5.80745 Y-3.13200
G01 X5.80380 Y-3.13090
G01 X5.80000 Y-3.13052
G01 X5.79620 Y-3.13090
G01 X5.79254 Y-3.13200
G01 X5.78918 Y-3.13380
G01 X5.78623 Y-3.13623
G01 X5.78380 Y-3.13918
G01 X5.78200 Y-3.14255
G01 X5.78090 Y-3.14620
G01 X5.78047 Y-3.15049
G01 X5.78047 Y-3.32047
G01 X5.78027 Y-3.32247
G01 X5.77967 Y-3.32439
G01 X5.77870 Y-3.32615
G01 X5.77768 Y-3.32740
G01 X5.77615 Y-3.32870
G01 X5.77439 Y-3.32967
G01 X5.77247 Y-3.33027
G01 X5.77047 Y-3.33047
G01 X5.60049 Y-3.33047
G01 X5.59620 Y-3.33089
G01 X5.59255 Y-3.33200
G01 X5.58918 Y-3.33380
G01 X5.58623 Y-3.33623
G01 X5.58380 Y-3.33918
G01 X5.58200 Y-3.34254
G01 X5.58089 Y-3.34620
G01 X5.58052 Y-3.35000
G04 P0 ( dwell for no time -- G64 should not smooth over this point )
G00 Z0.05000 ( retract )

G00 X4.99000 Y-4.50000 ( rapid move to begin. )
G01 Z-0.04000 F0.02000 ( plunge. )
G04 P0 ( dwell for no time -- G64 should not smooth over this point )
G01 F0.04000
G01 X4.99000 Y-2.50000
G01 X4.99013 Y-2.49839
G01 X4.99051 Y-2.49683
G01 X4.99115 Y-2.49535
G01 X4.99200 Y-2.49399
G01 X4.99337 Y-2.49251
G01 X4.99535 Y-2.49114
G01 X4.99761 Y-2.49029
G01 X5.00000 Y-2.49000
G01 X6.50000 Y-2.49000
G01 X6.50160 Y-2.49013
G01 X6.50317 Y-2.49051
G01 X6.50465 Y-2.49114
G01 X6.50601 Y-2.49200
G01 X6.50748 Y-2.49337
G01 X6.50885 Y-2.49535
G01 X6.50971 Y-2.49761
G01 X6.51000 Y-2.50000
G01 X6.51000 Y-3.18646
G01 X6.50987 Y-3.18805
G01 X6.50936 Y-3.18998
G01 X6.50868 Y-3.19142
G01 X6.50752 Y-3.19305
G01 X6.50606 Y-3.19441
G01 X6.50471 Y-3.19527
G01 X6.48780 Y-3.20431
G01 X6.48509 Y-3.20613
G01 X6.44299 Y-3.24068
G01 X6.44068 Y-3.24299
G01 X6.40613 Y-3.28509
G01 X6.40431 Y-3.28780
G01 X6.37864 Y-3.33583
G01 X6.37739 Y-3.33885
G01 X6.36158 Y-3.39097
G01 X6.36095 Y-3.39417
G01 X6.35561 Y-3.44837
G01 X6.35561 Y-3.45114
G01 X6.35605 Y-3.45337
G01 X6.35692 Y-3.45547
G01 X6.35819 Y-3.45736
G01 X6.35979 Y-3.45897
G01 X6.36169 Y-3.46023
G01 X6.36379 Y-3.46110
G01 X6.36602 Y-3.46155
G01 X6.36829 Y-3.46155
G01 X6.37052 Y-3.46110
G01 X6.37263 Y-3.46023
G01 X6.37452 Y-3.45897
G01 X6.37613 Y-3.45736
G01 X6.37739 Y-3.45547
G01 X6.37826 Y-3.45337
G01 X6.37880 Y-3.45065
G01 X6.38398 Y-3.39808
G01 X6.38436 Y-3.39616
G01 X6.39963 Y-3.34608
G01 X6.42471 Y-3.29923
G01 X6.45765 Y-3.25904
G01 X6.45874 Y-3.25791
G01 X6.49463 Y-3.22854
G01 X6.49720 Y-3.22738
G01 X6.49878 Y-3.22705
G01 X6.50038 Y-3.22698
G01 X6.50315 Y-3.22749
G01 X6.50567 Y-3.22874
G01 X6.50748 Y-3.23034
G01 X6.50885 Y-3.23232
G01 X6.50971 Y-3.23458
G01 X6.51000 Y-3.23698
G01 X6.51000 Y-4.50000
G01 X6.50987 Y-4.50160
G01 X6.50948 Y-4.50317
G01 X6.50885 Y-4.50465
G01 X6.50799 Y-4.50601
G01 X6.50663 Y-4.50748
G01 X6.50465 Y-4.50885
G01 X6.50239 Y-4.50971
G01 X6.50000 Y-4.51000
G01 X5.00000 Y-4.51000
G01 X4.99840 Y-4.50987
G01 X4.99645 Y-4.50935
G01 X4.99465 Y-4.50845
G01 X4.99307 Y-4.50721
G01 X4.99177 Y-4.50568
G01 X4.99080 Y-4.50392
G01 X4.99020 Y-4.50200
G01 X4.99000 Y-4.50000
G01 Z-0.08000 F0.02000 ( plunge. )
G04 P0 ( dwell for no time -- G64 should not smooth over this point )
G01 F0.04000
G01 X4.99000 Y-2.50000
G01 X4.99013 Y-2.49839
G01 X4.99051 Y-2.49683
G01 X4.99115 Y-2.49535
G01 X4.99200 Y-2.49399
G01 X4.99337 Y-2.49251
G01 X4.99535 Y-2.49114
G01 X4.99761 Y-2.49029
G01 X5.00000 Y-2.49000
G01 X6.50000 Y-2.49000
G01 X6.50160 Y-2.49013
G01 X6.50317 Y-2.49051
G01 X6.50465 Y-2.49114
G01 X6.50601 Y-2.49200
G01 X6.50748 Y-2.49337
G01 X6.50885 Y-2.49535
G01 X6.50971 Y-2.49761
G01 X6.51000 Y-2.50000
G01 X6.51000 Y-3.18646
G01 X6.50987 Y-3.18805
G01 X6.50936 Y-3.18998
G01 X6.50868 Y-3.19142
G01 X6.50752 Y-3.19305
G01 X6.50606 Y-3.19441
G01 X6.50471 Y-3.19527
G01 X6.48780 Y-3.20431
G01 X6.48509 Y-3.20613
G01 X6.44299 Y-3.24068
G01 X6.44068 Y-3.24299
G01 X6.40613 Y-3.28509
G01 X6.40431 Y-3.28780
G01 X6.37864 Y-3.33583
G01 X6.37739 Y-3.33885
G01 X6.36158 Y-3.39097
G01 X6.36095 Y-3.39417
G01 X6.35561 Y-3.44837
G01 X6.35561 Y-3.45114
G01 X6.35605 Y-3.45337
G01 X6.35692 Y-3.45547
G01 X6.35819 Y-3.45736
G01 X6.35979 Y-3.45897
G01 X6.36169 Y-3.46023
G01 X6.36379 Y-3.46110
G01 X6.36602 Y-3.46155
G01 X6.36829 Y-3.46155
G01 X6.37052 Y-3.46110
G01 X6.37263 Y-3.46023
G01 X6.37452 Y-3.45897
G01 X6.37613 Y-3.45736
G01 X6.37739 Y-3.45547
G01 X6.37826 Y-3.45337
G01 X6.37880 Y-3.45065
G01 X6.38398 Y-3.39808
G01 X6.38436 Y-3.39616
G01 X6.39963 Y-3.34608
G01 X6.42471 Y-3.29923
G01 X6.45765 Y-3.25904
G01 X6.45874 Y-3.25791
G01 X6.49463 Y-3.22854
G01 X6.49720 Y-3.22738
G01 X6.49878 Y-3.22705
G01 X6.50038 Y-3.22698
G01 X6.50315 Y-3.22749
G01 X6.50567 Y-3.22874
G01 X6.50748 Y-3.23034
G01 X6.50885 Y-3.23232
G01 X6.50971 Y-3.23458
G01 X6.51000 Y-3.23698
G01 X6.51000 Y-4.50000
G01 X6.50987 Y-4.50160
G01 X6.50948 Y-4.50317
G01 X6.50885 Y-4.50465
G01 X6.50799 Y-4.50601
G01 X6.50663 Y-4.50748
G01 X6.50465 Y-4.50885
G01 X6.50239 Y-4.50971
G01 X6.50000 Y-4.51000
G01 X5.00000 Y-4.51000
G01 X4.99840 Y-4.50987
G01 X4.99645 Y-4.50935
G01 X4.99465 Y-4.50845
G01 X4.99307 Y-4.50721
G01 X4.99177 Y-4.50568
G01 X4.99080 Y-4.50392
G01 X4.99020 Y-4.50200
G01 X4.99000 Y-4.50000

G04 P0 ( dwell for no time -- G64 should not smooth over this point )
G00 Z1.600000 ( retract )

M5 ( Spindle off. )
G04 P1.000000
M9 ( Coolant off. )
M2 ( Program end. )

