( pcb2gcode 2.5.0 )
( Software-independent Gcode )

G94 ( Inches per minute feed rate. )
G20 ( Units == INCHES. )

G90 ( Absolute coordinates. )
G00 S24000 ( RPM spindle speed. )
G64 P0.00040 ( set maximum deviation from commanded toolpath )
G01 F0.04000 ( Feedrate. )


G00 Z1.60000 (Retract to tool change height)
T1
M5      (Spindle stop.)
G04 P1.00000 (Wait for spindle to stop)
(MSG, Change tool bit to cutter diameter 0.02000in)
M6      (Tool change.)
M0      (Temporary machine stop.)
M3 ( Spindle on clockwise. )
G04 P1.00000 (Wait for spindle to get up to speed)
G04 P0 ( dwell for no time -- G64 should not smooth over this point )
G00 Z0.05000 ( retract )

G00 X5.46000 Y-3.99000 ( rapid move to begin. )
G01 Z-0.04000 F0.02000 ( plunge. )
G04 P0 ( dwell for no time -- G64 should not smooth over this point )
G01 F0.04000
G01 X5.46000 Y-3.86000
G01 X5.64000 Y-3.86000
G01 X5.64000 Y-3.99000
G01 X5.46000 Y-3.99000
G01 Z-0.08000 F0.02000 ( plunge. )
G04 P0 ( dwell for no time -- G64 should not smooth over this point )
G01 F0.04000
G01 X5.46000 Y-3.86000
G01 X5.64000 Y-3.86000
G01 X5.64000 Y-3.99000
G01 X5.46000 Y-3.99000
G04 P0 ( dwell for no time -- G64 should not smooth over this point )
G00 Z0.05000 ( retract )

G00 X5.66000 Y-4.24000 ( rapid move to begin. )
G01 Z-0.04000 F0.02000 ( plunge. )
G04 P0 ( dwell for no time -- G64 should not smooth over this point )
G01 F0.04000
G01 X5.66000 Y-4.01000
G01 X5.99000 Y-4.01000
G01 X5.99000 Y-4.24000
G01 X5.66000 Y-4.24000
G01 Z-0.08000 F0.02000 ( plunge. )
G04 P0 ( dwell for no time -- G64 should not smooth over this point )
G01 F0.04000
G01 X5.66000 Y-4.01000
G01 X5.99000 Y-4.01000
G01 X5.99000 Y-4.24000
G01 X5.66000 Y-4.24000
G04 P0 ( dwell for no time -- G64 should not smooth over this point )
G00 Z0.05000 ( retract )

G00 X6.01000 Y-2.99000 ( rapid move to begin. )
G01 Z-0.04000 F0.02000 ( plunge. )
G04 P0 ( dwell for no time -- G64 should not smooth over this point )
G01 F0.04000
G01 X6.01000 Y-2.71000
G01 X6.29000 Y-2.71000
G01 X6.29000 Y-2.99000
G01 X6.01000 Y-2.99000
G01 Z-0.08000 F0.02000 ( plunge. )
G04 P0 ( dwell for no time -- G64 should not smooth over this point )
G01 F0.04000
G01 X6.01000 Y-2.71000
G01 X6.29000 Y-2.71000
G01 X6.29000 Y-2.99000
G01 X6.01000 Y-2.99000
G04 P0 ( dwell for no time -- G64 should not smooth over this point )
G00 Z0.05000 ( retract )

G00 X5.46000 Y-3.14000 ( rapid move to begin. )
G01 Z-0.04000 F0.02000 ( plunge. )
G04 P0 ( dwell for no time -- G64 should not smooth over this point )
G01 F0.04000
G01 X5.46000 Y-2.61000
G01 X5.89000 Y-2.61000
G01 X5.89000 Y-2.69000
G01 X5.55000 Y-2.69000
G01 X5.54761 Y-2.69029
G01 X5.54571 Y-2.69096
G01 X5.54368 Y-2.69225
G01 X5.54225 Y-2.69367
G01 X5.54134 Y-2.69500
G01 X5.54065 Y-2.69645
G01 X5.54013 Y-2.69840
G01 X5.54000 Y-2.70000
G01 X5.54000 Y-3.14000
G01 X5.46000 Y-3.14000
G01 Z-0.08000 F0.02000 ( plunge. )
G04 P0 ( dwell for no time -- G64 should not smooth over this point )
G01 F0.04000
G01 X5.46000 Y-2.61000
G01 X5.89000 Y-2.61000
G01 X5.89000 Y-2.69000
G01 X5.55000 Y-2.69000
G01 X5.54761 Y-2.69029
G01 X5.54571 Y-2.69096
G01 X5.54368 Y-2.69225
G01 X5.54225 Y-2.69367
G01 X5.54134 Y-2.69500
G01 X5.54065 Y-2.69645
G01 X5.54013 Y-2.69840
G01 X5.54000 Y-2.70000
G01 X5.54000 Y-3.14000
G01 X5.46000 Y-3.14000
G04 P0 ( dwell for no time -- G64 should not smooth over this point )
G00 Z0.05000 ( retract )

G00 X5.58049 Y-3.35053 ( rapid move to begin. )
G01 Z-0.04000 F0.02000 ( plunge. )
G04 P0 ( dwell for no time -- G64 should not smooth over this point )
G01 F0.04000
G01 X5.58052 Y-3.34884
G01 X5.58106 Y-3.34534
G01 X5.58153 Y-3.34368
G01 X5.58294 Y-3.34052
G01 X5.58364 Y-3.33936
G01 X5.58575 Y-3.33669
G01 X5.58824 Y-3.33443
G01 X5.59084 Y-3.33277
G01 X5.59413 Y-3.33139
G01 X5.59721 Y-3.33069
G01 X5.60034 Y-3.33047
G01 X5.77047 Y-3.33047
G01 X5.77247 Y-3.33027
G01 X5.77439 Y-3.32967
G01 X5.77615 Y-3.32870
G01 X5.77768 Y-3.32740
G01 X5.77870 Y-3.32615
G01 X5.77967 Y-3.32439
G01 X5.78027 Y-3.32247
G01 X5.78047 Y-3.32047
G01 X5.78047 Y-3.15037
G01 X5.78073 Y-3.14691
G01 X5.78153 Y-3.14368
G01 X5.78292 Y-3.14055
G01 X5.78505 Y-3.13745
G01 X5.78750 Y-3.13501
G01 X5.79032 Y-3.13305
G01 X5.79346 Y-3.13161
G01 X5.79681 Y-3.13075
G01 X5.80023 Y-3.13048
G01 X5.80368 Y-3.13083
G01 X5.80700 Y-3.13178
G01 X5.81037 Y-3.13347
G01 X5.81310 Y-3.13553
G01 X5.81545 Y-3.13807
G01 X5.81733 Y-3.14102
G01 X5.81865 Y-3.14425
G01 X5.81936 Y-3.14754
G01 X5.81953 Y-3.15031
G01 X5.81954 Y-3.35040
G01 X5.81992 Y-3.35278
G01 X5.82108 Y-3.35534
G01 X5.82260 Y-3.35721
G01 X5.82488 Y-3.35885
G01 X5.82713 Y-3.35971
G01 X5.82953 Y-3.36000
G01 X6.24000 Y-3.36000
G01 X6.24000 Y-3.74000
G01 X5.81000 Y-3.74000
G01 X5.81000 Y-3.37953
G01 X5.80961 Y-3.37675
G01 X5.80866 Y-3.37453
G01 X5.80721 Y-3.37260
G01 X5.80500 Y-3.37087
G01 X5.80278 Y-3.36992
G01 X5.80040 Y-3.36953
G01 X5.60034 Y-3.36953
G01 X5.59724 Y-3.36931
G01 X5.59368 Y-3.36847
G01 X5.59055 Y-3.36708
G01 X5.58748 Y-3.36497
G01 X5.58486 Y-3.36232
G01 X5.58294 Y-3.35948
G01 X5.58144 Y-3.35603
G01 X5.58063 Y-3.35239
G01 X5.58049 Y-3.35053
G01 Z-0.08000 F0.02000 ( plunge. )
G04 P0 ( dwell for no time -- G64 should not smooth over this point )
G01 F0.04000
G01 X5.58052 Y-3.34884
G01 X5.58106 Y-3.34534
G01 X5.58153 Y-3.34368
G01 X5.58294 Y-3.34052
G01 X5.58364 Y-3.33936
G01 X5.58575 Y-3.33669
G01 X5.58824 Y-3.33443
G01 X5.59084 Y-3.33277
G01 X5.59413 Y-3.33139
G01 X5.59721 Y-3.33069
G01 X5.60034 Y-3.33047
G01 X5.77047 Y-3.33047
G01 X5.77247 Y-3.33027
G01 X5.77439 Y-3.32967
G01 X5.77615 Y-3.32870
G01 X5.77768 Y-3.32740
G01 X5.77870 Y-3.32615
G01 X5.77967 Y-3.32439
G01 X5.78027 Y-3.32247
G01 X5.78047 Y-3.32047
G01 X5.78047 Y-3.15037
G01 X5.78073 Y-3.14691
G01 X5.78153 Y-3.14368
G01 X5.78292 Y-3.14055
G01 X5.78505 Y-3.13745
G01 X5.78750 Y-3.13501
G01 X5.79032 Y-3.13305
G01 X5.79346 Y-3.13161
G01 X5.79681 Y-3.13075
G01 X5.80023 Y-3.13048
G01 X5.80368 Y-3.13083
G01 X5.80700 Y-3.13178
G01 X5.81037 Y-3.13347
G01 X5.81310 Y-3.13553
G01 X5.81545 Y-3.13807
G01 X5.81733 Y-3.14102
G01 X5.81865 Y-3.14425
G01 X5.81936 Y-3.14754
G01 X5.81953 Y-3.15031
G01 X5.81954 Y-3.35040
G01 X5.81992 Y-3.35278
G01 X5.82108 Y-3.35534
G01 X5.82260 Y-3.35721
G01 X5.82488 Y-3.35885
G01 X5.82713 Y-3.35971
G01 X5.82953 Y-3.36000
G01 X6.24000 Y-3.36000
G01 X6.24000 Y-3.74000
G01 X5.81000 Y-3.74000
G01 X5.81000 Y-3.37953
G01 X5.80961 Y-3.37675
G01 X5.80866 Y-3.37453
G01 X5.80721 Y-3.37260
G01 X5.80500 Y-3.37087
G01 X5.80278 Y-3.36992
G01 X5.80040 Y-3.36953
G01 X5.60034 Y-3.36953
G01 X5.59724 Y-3.36931
G01 X5.59368 Y-3.36847
G01 X5.59055 Y-3.36708
G01 X5.58748 Y-3.36497
G01 X5.58486 Y-3.36232
G01 X5.58294 Y-3.35948
G01 X5.58144 Y-3.35603
G01 X5.58063 Y-3.35239
G01 X5.58049 Y-3.35053
G04 P0 ( dwell for no time -- G64 should not smooth over this point )
G00 Z0.05000 ( retract )

G00 X4.99000 Y-4.50000 ( rapid move to begin. )
G01 Z-0.04000 F0.02000 ( plunge. )
G04 P0 ( dwell for no time -- G64 should not smooth over this point )
G01 F0.04000
G01 X4.99000 Y-2.50000
G01 X4.99013 Y-2.49839
G01 X4.99051 Y-2.49683
G01 X4.99115 Y-2.49535
G01 X4.99200 Y-2.49399
G01 X4.99337 Y-2.49251
G01 X4.99535 Y-2.49114
G01 X4.99761 Y-2.49029
G01 X5.00000 Y-2.49000
G01 X6.50000 Y-2.49000
G01 X6.50160 Y-2.49013
G01 X6.50317 Y-2.49051
G01 X6.50465 Y-2.49114
G01 X6.50601 Y-2.49200
G01 X6.50748 Y-2.49337
G01 X6.50885 Y-2.49535
G01 X6.50971 Y-2.49761
G01 X6.51000 Y-2.50000
G01 X6.51000 Y-3.18547
G01 X6.50987 Y-3.18707
G01 X6.50936 Y-3.18900
G01 X6.50868 Y-3.19044
G01 X6.50778 Y-3.19176
G01 X6.50637 Y-3.19318
G01 X6.47264 Y-3.21494
G01 X6.43866 Y-3.24494
G01 X6.40970 Y-3.27980
G01 X6.38643 Y-3.31869
G01 X6.36940 Y-3.36069
G01 X6.35896 Y-3.40523
G01 X6.35557 Y-3.44865
G01 X6.35562 Y-3.45143
G01 X6.35579 Y-3.45252
G01 X6.35614 Y-3.45377
G01 X6.35722 Y-3.45606
G01 X6.35814 Y-3.45736
G01 X6.35994 Y-3.45913
G01 X6.36085 Y-3.45977
G01 X6.36310 Y-3.46090
G01 X6.36419 Y-3.46125
G01 X6.36752 Y-3.46162
G01 X6.36867 Y-3.46154
G01 X6.37194 Y-3.46061
G01 X6.37379 Y-3.45956
G01 X6.37556 Y-3.45806
G01 X6.37645 Y-3.45701
G01 X6.37765 Y-3.45503
G01 X6.37844 Y-3.45285
G01 X6.37869 Y-3.45153
G01 X6.38209 Y-3.40839
G01 X6.39164 Y-3.36777
G01 X6.40732 Y-3.32910
G01 X6.42875 Y-3.29329
G01 X6.45542 Y-3.26120
G01 X6.48639 Y-3.23381
G01 X6.49495 Y-3.22826
G01 X6.49756 Y-3.22720
G01 X6.49996 Y-3.22689
G01 X6.50197 Y-3.22709
G01 X6.50389 Y-3.22768
G01 X6.50566 Y-3.22865
G01 X6.50747 Y-3.23025
G01 X6.50885 Y-3.23224
G01 X6.50971 Y-3.23449
G01 X6.51000 Y-3.23689
G01 X6.51000 Y-4.50000
G01 X6.50987 Y-4.50160
G01 X6.50948 Y-4.50317
G01 X6.50885 Y-4.50465
G01 X6.50799 Y-4.50601
G01 X6.50663 Y-4.50748
G01 X6.50465 Y-4.50885
G01 X6.50239 Y-4.50971
G01 X6.50000 Y-4.51000
G01 X5.00000 Y-4.51000
G01 X4.99840 Y-4.50987
G01 X4.99645 Y-4.50935
G01 X4.99465 Y-4.50845
G01 X4.99307 Y-4.50721
G01 X4.99177 Y-4.50568
G01 X4.99080 Y-4.50392
G01 X4.99020 Y-4.50200
G01 X4.99000 Y-4.50000
G01 Z-0.08000 F0.02000 ( plunge. )
G04 P0 ( dwell for no time -- G64 should not smooth over this point )
G01 F0.04000
G01 X4.99000 Y-2.50000
G01 X4.99013 Y-2.49839
G01 X4.99051 Y-2.49683
G01 X4.99115 Y-2.49535
G01 X4.99200 Y-2.49399
G01 X4.99337 Y-2.49251
G01 X4.99535 Y-2.49114
G01 X4.99761 Y-2.49029
G01 X5.00000 Y-2.49000
G01 X6.50000 Y-2.49000
G01 X6.50160 Y-2.49013
G01 X6.50317 Y-2.49051
G01 X6.50465 Y-2.49114
G01 X6.50601 Y-2.49200
G01 X6.50748 Y-2.49337
G01 X6.50885 Y-2.49535
G01 X6.50971 Y-2.49761
G01 X6.51000 Y-2.50000
G01 X6.51000 Y-3.18547
G01 X6.50987 Y-3.18707
G01 X6.50936 Y-3.18900
G01 X6.50868 Y-3.19044
G01 X6.50778 Y-3.19176
G01 X6.50637 Y-3.19318
G01 X6.47264 Y-3.21494
G01 X6.43866 Y-3.24494
G01 X6.40970 Y-3.27980
G01 X6.38643 Y-3.31869
G01 X6.36940 Y-3.36069
G01 X6.35896 Y-3.40523
G01 X6.35557 Y-3.44865
G01 X6.35562 Y-3.45143
G01 X6.35579 Y-3.45252
G01 X6.35614 Y-3.45377
G01 X6.35722 Y-3.45606
G01 X6.35814 Y-3.45736
G01 X6.35994 Y-3.45913
G01 X6.36085 Y-3.45977
G01 X6.36310 Y-3.46090
G01 X6.36419 Y-3.46125
G01 X6.36752 Y-3.46162
G01 X6.36867 Y-3.46154
G01 X6.37194 Y-3.46061
G01 X6.37379 Y-3.45956
G01 X6.37556 Y-3.45806
G01 X6.37645 Y-3.45701
G01 X6.37765 Y-3.45503
G01 X6.37844 Y-3.45285
G01 X6.37869 Y-3.45153
G01 X6.38209 Y-3.40839
G01 X6.39164 Y-3.36777
G01 X6.40732 Y-3.32910
G01 X6.42875 Y-3.29329
G01 X6.45542 Y-3.26120
G01 X6.48639 Y-3.23381
G01 X6.49495 Y-3.22826
G01 X6.49756 Y-3.22720
G01 X6.49996 Y-3.22689
G01 X6.50197 Y-3.22709
G01 X6.50389 Y-3.22768
G01 X6.50566 Y-3.22865
G01 X6.50747 Y-3.23025
G01 X6.50885 Y-3.23224
G01 X6.50971 Y-3.23449
G01 X6.51000 Y-3.23689
G01 X6.51000 Y-4.50000
G01 X6.50987 Y-4.50160
G01 X6.50948 Y-4.50317
G01 X6.50885 Y-4.50465
G01 X6.50799 Y-4.50601
G01 X6.50663 Y-4.50748
G01 X6.50465 Y-4.50885
G01 X6.50239 Y-4.50971
G01 X6.50000 Y-4.51000
G01 X5.00000 Y-4.51000
G01 X4.99840 Y-4.50987
G01 X4.99645 Y-4.50935
G01 X4.99465 Y-4.50845
G01 X4.99307 Y-4.50721
G01 X4.99177 Y-4.50568
G01 X4.99080 Y-4.50392
G01 X4.99020 Y-4.50200
G01 X4.99000 Y-4.50000

G04 P0 ( dwell for no time -- G64 should not smooth over this point )
G00 Z1.600000 ( retract )

M5 ( Spindle off. )
G04 P1.000000
M9 ( Coolant off. )
M2 ( Program end. )

