( pcb2gcode 2.0.0 )
( Software-independent Gcode )

G94 ( Inches per minute feed rate. )
G20 ( Units == INCHES. )

G90 ( Absolute coordinates. )
G00 S24000 ( RPM spindle speed. )
G64 P0.00040 ( set maximum deviation from commanded toolpath )
G01 F0.04000 ( Feedrate. )


G00 Z1.60000 (Retract to tool change height)
T0
M5      (Spindle stop.)
G04 P1.00000 (Wait for spindle to stop)
(MSG, Change tool bit to cutter diameter 0.02000in)
M6      (Tool change.)
M0      (Temporary machine stop.)
M3 ( Spindle on clockwise. )
G04 P1.00000 (Wait for spindle to get up to speed)
G04 P0 ( dwell for no time -- G64 should not smooth over this point )
G00 Z0.05000 ( retract )

G00 X4.99000 Y-4.50000 ( rapid move to begin. )
G01 Z-0.04000 F0.02000 ( plunge. )
G04 P0 ( dwell for no time -- G64 should not smooth over this point )
G01 F0.04000
G01 X4.99000 Y-2.50000
G01 X4.99169 Y-2.49444
G01 X4.99444 Y-2.49168
G01 X5.00000 Y-2.49000
G01 X6.50000 Y-2.49000
G01 X6.50556 Y-2.49168
G01 X6.50831 Y-2.49444
G01 X6.51000 Y-2.50000
G01 X6.51000 Y-3.16977
G01 X6.52684 Y-3.16077
G01 X6.53257 Y-3.15840
G01 X6.58563 Y-3.14230
G01 X6.59172 Y-3.14109
G01 X6.64690 Y-3.13565
G01 X6.65212 Y-3.13561
G01 X6.70828 Y-3.14109
G01 X6.71342 Y-3.14206
G01 X6.76835 Y-3.15873
G01 X6.77316 Y-3.16077
G01 X6.82290 Y-3.18741
G01 X6.82722 Y-3.19035
G01 X6.87008 Y-3.22553
G01 X6.87403 Y-3.22946
G01 X6.87830 Y-3.23581
G01 X6.88031 Y-3.24101
G01 X6.88161 Y-3.24960
G01 X6.88101 Y-3.25618
G01 X6.87904 Y-3.26249
G01 X6.87581 Y-3.26826
G01 X6.87294 Y-3.27176
G01 X6.86791 Y-3.27605
G01 X6.86211 Y-3.27921
G01 X6.85577 Y-3.28108
G01 X6.84814 Y-3.28160
G01 X6.84263 Y-3.28074
G01 X6.83544 Y-3.27811
G01 X6.82992 Y-3.27447
G01 X6.78947 Y-3.24127
G01 X6.74607 Y-3.21807
G01 X6.69897 Y-3.20379
G01 X6.65000 Y-3.19896
G01 X6.60102 Y-3.20379
G01 X6.55393 Y-3.21807
G01 X6.51000 Y-3.24171
G01 X6.51000 Y-4.50000
G01 X6.50831 Y-4.50556
G01 X6.50556 Y-4.50831
G01 X6.50000 Y-4.51000
G01 X5.00000 Y-4.51000
G01 X4.99617 Y-4.50924
G01 X4.99293 Y-4.50707
G01 X4.99076 Y-4.50383
G01 X4.99000 Y-4.50000
G01 Z-0.08000 F0.02000 ( plunge. )
G04 P0 ( dwell for no time -- G64 should not smooth over this point )
G01 F0.04000
G01 X4.99000 Y-2.50000
G01 X4.99169 Y-2.49444
G01 X4.99444 Y-2.49168
G01 X5.00000 Y-2.49000
G01 X6.50000 Y-2.49000
G01 X6.50556 Y-2.49168
G01 X6.50831 Y-2.49444
G01 X6.51000 Y-2.50000
G01 X6.51000 Y-3.16977
G01 X6.52684 Y-3.16077
G01 X6.53257 Y-3.15840
G01 X6.58563 Y-3.14230
G01 X6.59172 Y-3.14109
G01 X6.64690 Y-3.13565
G01 X6.65212 Y-3.13561
G01 X6.70828 Y-3.14109
G01 X6.71342 Y-3.14206
G01 X6.76835 Y-3.15873
G01 X6.77316 Y-3.16077
G01 X6.82290 Y-3.18741
G01 X6.82722 Y-3.19035
G01 X6.87008 Y-3.22553
G01 X6.87403 Y-3.22946
G01 X6.87830 Y-3.23581
G01 X6.88031 Y-3.24101
G01 X6.88161 Y-3.24960
G01 X6.88101 Y-3.25618
G01 X6.87904 Y-3.26249
G01 X6.87581 Y-3.26826
G01 X6.87294 Y-3.27176
G01 X6.86791 Y-3.27605
G01 X6.86211 Y-3.27921
G01 X6.85577 Y-3.28108
G01 X6.84814 Y-3.28160
G01 X6.84263 Y-3.28074
G01 X6.83544 Y-3.27811
G01 X6.82992 Y-3.27447
G01 X6.78947 Y-3.24127
G01 X6.74607 Y-3.21807
G01 X6.69897 Y-3.20379
G01 X6.65000 Y-3.19896
G01 X6.60102 Y-3.20379
G01 X6.55393 Y-3.21807
G01 X6.51000 Y-3.24171
G01 X6.51000 Y-4.50000
G01 X6.50831 Y-4.50556
G01 X6.50556 Y-4.50831
G01 X6.50000 Y-4.51000
G01 X5.00000 Y-4.51000
G01 X4.99617 Y-4.50924
G01 X4.99293 Y-4.50707
G01 X4.99076 Y-4.50383
G01 X4.99000 Y-4.50000
G04 P0 ( dwell for no time -- G64 should not smooth over this point )
G00 Z0.05000 ( retract )

G00 X5.66000 Y-4.24000 ( rapid move to begin. )
G01 Z-0.04000 F0.02000 ( plunge. )
G04 P0 ( dwell for no time -- G64 should not smooth over this point )
G01 F0.04000
G01 X5.66000 Y-4.01000
G01 X5.99000 Y-4.01000
G01 X5.99000 Y-4.24000
G01 X5.66000 Y-4.24000
G01 Z-0.08000 F0.02000 ( plunge. )
G04 P0 ( dwell for no time -- G64 should not smooth over this point )
G01 F0.04000
G01 X5.66000 Y-4.01000
G01 X5.99000 Y-4.01000
G01 X5.99000 Y-4.24000
G01 X5.66000 Y-4.24000
G04 P0 ( dwell for no time -- G64 should not smooth over this point )
G00 Z0.05000 ( retract )

G00 X5.46000 Y-3.14000 ( rapid move to begin. )
G01 Z-0.04000 F0.02000 ( plunge. )
G04 P0 ( dwell for no time -- G64 should not smooth over this point )
G01 F0.04000
G01 X5.46000 Y-2.61000
G01 X5.89000 Y-2.61000
G01 X5.89000 Y-2.69000
G01 X5.55000 Y-2.69000
G01 X5.54444 Y-2.69169
G01 X5.54169 Y-2.69444
G01 X5.54000 Y-2.70000
G01 X5.54000 Y-3.14000
G01 X5.46000 Y-3.14000
G01 Z-0.08000 F0.02000 ( plunge. )
G04 P0 ( dwell for no time -- G64 should not smooth over this point )
G01 F0.04000
G01 X5.46000 Y-2.61000
G01 X5.89000 Y-2.61000
G01 X5.89000 Y-2.69000
G01 X5.55000 Y-2.69000
G01 X5.54444 Y-2.69169
G01 X5.54169 Y-2.69444
G01 X5.54000 Y-2.70000
G01 X5.54000 Y-3.14000
G01 X5.46000 Y-3.14000
G04 P0 ( dwell for no time -- G64 should not smooth over this point )
G00 Z0.05000 ( retract )

G00 X6.01000 Y-2.99000 ( rapid move to begin. )
G01 Z-0.04000 F0.02000 ( plunge. )
G04 P0 ( dwell for no time -- G64 should not smooth over this point )
G01 F0.04000
G01 X6.01000 Y-2.71000
G01 X6.29000 Y-2.71000
G01 X6.29000 Y-2.99000
G01 X6.01000 Y-2.99000
G01 Z-0.08000 F0.02000 ( plunge. )
G04 P0 ( dwell for no time -- G64 should not smooth over this point )
G01 F0.04000
G01 X6.01000 Y-2.71000
G01 X6.29000 Y-2.71000
G01 X6.29000 Y-2.99000
G01 X6.01000 Y-2.99000

G04 P0 ( dwell for no time -- G64 should not smooth over this point )
G00 Z1.600 ( retract )

M5 ( Spindle off. )
G04 P1.000000
M9 ( Coolant off. )
M2 ( Program end. )

