( pcb2gcode 2.5.0 )
( Software-independent Gcode )

G94 ( Millimeters per minute feed rate. )
G21 ( Units == Millimeters. )

G90 ( Absolute coordinates. )
G00 S1000 ( RPM spindle speed. )
G64 P0.01016 ( set maximum deviation from commanded toolpath )
G01 F30.00000 ( Feedrate. )


G00 Z10.00000 (Retract to tool change height)
T1
M5      (Spindle stop.)
G04 P5.00000 (Wait for spindle to stop)
(MSG, Change tool bit to mill diameter 1.00000mm)
M6      (Tool change.)
M0      (Temporary machine stop.)
M3 ( Spindle on clockwise. )
G04 P3.00000 (Wait for spindle to get up to speed)
G04 P0 ( dwell for no time -- G64 should not smooth over this point )
G00 Z1.00000 ( retract )

G00 X-42.59697 Y33.38891 ( rapid move to begin. )
G01 F20.00000
( Mill infeed pass 1/1 )
G01 Z-0.30000
G04 P0 ( dwell for no time -- G64 should not smooth over this point )
G01 F30.00000
G01 X-42.59697 Y33.38891
G01 X-42.60233 Y33.03222
G01 X-42.62255 Y32.65566
G01 X-42.66118 Y32.24192
G01 X-42.71013 Y31.86991
G01 X-42.91310 Y31.75417
G01 X-43.80037 Y31.47200
G01 X-43.25508 Y31.64543
G01 X-43.21795 Y31.85874
G01 X-43.18643 Y32.06966
G01 X-43.13923 Y32.48122
G01 X-43.10954 Y32.87613
G01 X-43.09735 Y33.26183
G01 X-43.10205 Y33.65784
G01 X-43.12496 Y34.06341
G01 X-43.16575 Y34.47562
G01 X-43.22453 Y34.88781
G01 X-43.30017 Y35.28690
G01 X-43.39374 Y35.68217
G01 X-43.47848 Y35.98537
G01 X-43.58437 Y36.32243
G01 X-43.69656 Y36.63823
G01 X-43.81650 Y36.94024
G01 X-43.94302 Y37.22853
G01 X-44.08411 Y37.52126
G01 X-44.25851 Y37.85169
G01 X-44.41485 Y38.12494
G01 X-44.58063 Y38.39256
G01 X-44.76148 Y38.66256
G01 X-44.95195 Y38.92586
G01 X-45.15820 Y39.18999
G01 X-45.37814 Y39.45341
G01 X-45.60207 Y39.70274
G01 X-45.82074 Y39.92921
G01 X-46.06209 Y40.16172
G01 X-46.38147 Y40.44437
G01 X-46.72716 Y40.72412
G01 X-47.06242 Y40.97101
G01 X-47.39157 Y41.19123
G01 X-47.73892 Y41.40182
G01 X-48.13826 Y41.61958
G01 X-48.50298 Y41.79842
G01 X-48.86599 Y41.95676
G01 X-49.15929 Y42.07114
G01 X-49.48535 Y42.18470
G01 X-49.82301 Y42.28869
G01 X-50.15634 Y42.37881
G01 X-50.52268 Y42.46227
G01 X-50.89218 Y42.53037
G01 X-51.27429 Y42.58419
G01 X-51.61288 Y42.61668
G01 X-51.91915 Y42.71940
G01 X-52.25019 Y42.81566
G01 X-52.57475 Y42.89689
G01 X-52.92827 Y42.97103
G01 X-53.76357 Y42.59511
G01 X-53.51859 Y42.56438
G01 X-53.26847 Y42.52549
G01 X-52.93693 Y42.46336
G01 X-52.68796 Y42.40987
G01 X-52.45054 Y42.35155
G01 X-52.19537 Y42.28069
G01 X-51.93287 Y42.19872
G01 X-51.71636 Y42.12333
G01 X-51.62436 Y42.11790
G01 X-51.37351 Y42.09237
G01 X-51.01049 Y42.04297
G01 X-50.65001 Y41.97797
G01 X-50.30252 Y41.89994
G01 X-49.91956 Y41.79593
G01 X-49.70762 Y41.73103
G01 X-49.49518 Y41.66042
G01 X-49.29419 Y41.58783
G01 X-49.10452 Y41.51401
G01 X-48.74001 Y41.35712
G01 X-48.51949 Y41.25217
G01 X-48.30206 Y41.14091
G01 X-48.05378 Y41.00579
G01 X-47.82538 Y40.87221
G01 X-47.61835 Y40.74267
G01 X-47.39836 Y40.59568
G01 X-47.19124 Y40.44795
G01 X-46.98065 Y40.28780
G01 X-46.76094 Y40.10993
G01 X-46.57514 Y39.95141
G01 X-46.38655 Y39.78067
G01 X-46.19592 Y39.59720
G01 X-46.01108 Y39.40790
G01 X-45.83900 Y39.22052
G01 X-45.67260 Y39.02809
G01 X-45.49369 Y38.80922
G01 X-45.34446 Y38.61587
G01 X-45.20087 Y38.41834
G01 X-45.06300 Y38.21674
G01 X-44.93638 Y38.01991
G01 X-44.81520 Y37.81966
G01 X-44.69470 Y37.60724
G01 X-44.57126 Y37.37577
G01 X-44.46209 Y37.15728
G01 X-44.36344 Y36.94506
G01 X-44.27063 Y36.73018
G01 X-44.18378 Y36.51283
G01 X-44.09958 Y36.28360
G01 X-44.01891 Y36.04232
G01 X-43.94538 Y35.80112
G01 X-43.88010 Y35.56577
G01 X-43.82392 Y35.33856
G01 X-43.77197 Y35.09993
G01 X-43.72691 Y34.85990
G01 X-43.69021 Y34.62873
G01 X-43.65991 Y34.39665
G01 X-43.63204 Y34.12559
G01 X-43.61398 Y33.89224
G01 X-43.60200 Y33.64829
G01 X-43.59709 Y33.41428
G01 X-43.59907 Y33.15990
G01 X-43.60814 Y32.91583
G01 X-43.62503 Y32.66201
G01 X-43.64871 Y32.41096
G01 X-43.67759 Y32.16844
G01 X-43.71017 Y31.94695
G01 X-43.75236 Y31.70639
G01 X-43.80037 Y31.47200
G01 X-44.35643 Y31.29554
G01 X-44.31007 Y31.48475
G01 X-44.26237 Y31.70403
G01 X-44.22084 Y31.92452
G01 X-44.18698 Y32.13603
G01 X-44.15643 Y32.36862
G01 X-44.13245 Y32.59958
G01 X-44.11444 Y32.82323
G01 X-44.10311 Y33.03712
G01 X-44.09765 Y33.24103
G01 X-44.09765 Y33.46544
G01 X-44.10311 Y33.66935
G01 X-44.11513 Y33.89340
G01 X-44.13245 Y34.10689
G01 X-44.15881 Y34.35812
G01 X-44.18698 Y34.57044
G01 X-44.22259 Y34.79198
G01 X-44.26440 Y35.01245
G01 X-44.31007 Y35.22172
G01 X-44.36389 Y35.43955
G01 X-44.41812 Y35.63620
G01 X-44.48810 Y35.86772
G01 X-44.55135 Y36.06028
G01 X-44.62297 Y36.26068
G01 X-44.70751 Y36.47788
G01 X-44.79018 Y36.67397
G01 X-44.88670 Y36.88611
G01 X-44.98475 Y37.08634
G01 X-45.09204 Y37.29101
G01 X-45.19049 Y37.46967
G01 X-45.30400 Y37.66322
G01 X-45.42290 Y37.85352
G01 X-45.53557 Y38.02357
G01 X-45.76760 Y38.34663
G01 X-46.03288 Y38.67948
G01 X-46.28609 Y38.96957
G01 X-46.53859 Y39.23284
G01 X-46.81784 Y39.49797
G01 X-47.10171 Y39.74290
G01 X-47.41959 Y39.99464
G01 X-47.58413 Y40.11521
G01 X-47.75170 Y40.23154
G01 X-48.06927 Y40.43535
G01 X-48.39612 Y40.62397
G01 X-48.77247 Y40.81937
G01 X-49.13178 Y40.98392
G01 X-49.48926 Y41.12697
G01 X-49.84356 Y41.24957
G01 X-50.24140 Y41.36763
G01 X-50.61775 Y41.46012
G01 X-50.90775 Y41.51838
G01 X-51.20978 Y41.56733
G01 X-51.51346 Y41.60469
G01 X-51.74465 Y41.62646
G01 X-51.81981 Y41.62986
G01 X-51.91300 Y41.66481
G01 X-52.20701 Y41.76169
G01 X-52.56756 Y41.86535
G01 X-52.92268 Y41.94988
G01 X-53.33385 Y42.02941
G01 X-53.64531 Y42.07706
G01 X-53.94830 Y42.11147
G01 X-54.30129 Y42.13860
G01 X-54.62839 Y42.15140
G01 X-54.74155 Y42.15272
G01 X-56.05041 Y41.55813
G01 X-55.72958 Y41.60009
G01 X-55.47792 Y41.62529
G01 X-55.20535 Y41.64294
G01 X-54.90418 Y41.65176
G01 X-54.63103 Y41.65138
G01 X-54.38841 Y41.64269
G01 X-54.07726 Y41.62097
G01 X-53.81318 Y41.59428
G01 X-53.58046 Y41.56288
G01 X-53.35887 Y41.52605
G01 X-53.06644 Y41.46923
G01 X-52.82781 Y41.41541
G01 X-52.61074 Y41.35925
G01 X-52.38567 Y41.29364
G01 X-52.07119 Y41.19049
G01 X-51.92344 Y41.13560
G01 X-51.79398 Y41.12882
G01 X-51.53236 Y41.10391
G01 X-51.33073 Y41.07934
G01 X-51.13985 Y41.05097
G01 X-50.78052 Y40.98379
G01 X-50.58245 Y40.93891
G01 X-50.39545 Y40.89133
G01 X-50.19027 Y40.83317
G01 X-49.93053 Y40.75212
G01 X-49.71946 Y40.67891
G01 X-49.51065 Y40.59946
G01 X-49.31362 Y40.51785
G01 X-49.10056 Y40.42207
G01 X-48.89967 Y40.32430
G01 X-48.68568 Y40.21216
G01 X-48.49038 Y40.10365
G01 X-48.30704 Y39.99469
G01 X-48.11839 Y39.87500
G01 X-47.94171 Y39.75557
G01 X-47.77666 Y39.63718
G01 X-47.59889 Y39.50185
G01 X-47.39538 Y39.33698
G01 X-47.23323 Y39.19847
G01 X-47.06021 Y39.04155
G01 X-46.88497 Y38.87216
G01 X-46.72228 Y38.70455
G01 X-46.56491 Y38.53195
G01 X-46.41296 Y38.35456
G01 X-46.24182 Y38.14305
G01 X-46.10072 Y37.95692
G01 X-45.95401 Y37.74971
G01 X-45.81439 Y37.53767
G01 X-45.68718 Y37.32977
G01 X-45.57657 Y37.13566
G01 X-45.44405 Y36.88646
G01 X-45.34085 Y36.67694
G01 X-45.24421 Y36.46429
G01 X-45.15424 Y36.24875
G01 X-45.07103 Y36.03048
G01 X-44.97586 Y35.75180
G01 X-44.87464 Y35.41329
G01 X-44.79701 Y35.10821
G01 X-44.73603 Y34.82010
G01 X-44.68642 Y34.52980
G01 X-44.64604 Y34.21758
G01 X-44.61581 Y33.88596
G01 X-44.60004 Y33.57156
G01 X-44.59747 Y33.25675
G01 X-44.60758 Y32.95228
G01 X-44.62910 Y32.65856
G01 X-44.66656 Y32.31746
G01 X-44.71238 Y32.01627
G01 X-44.77255 Y31.70728
G01 X-44.84306 Y31.41088
G01 X-44.92622 Y31.11536
G01 X-44.35643 Y31.29554
G01 X-45.51157 Y30.92912
G01 X-45.44212 Y31.13839
G01 X-45.37238 Y31.37017
G01 X-45.31924 Y31.56674
G01 X-45.26963 Y31.77469
G01 X-45.22640 Y31.98406
G01 X-45.19120 Y32.18462
G01 X-45.16051 Y32.39618
G01 X-45.13732 Y32.59846
G01 X-45.11802 Y32.80910
G01 X-45.10466 Y33.02249
G01 X-45.09783 Y33.23615
G01 X-45.09783 Y33.47032
G01 X-45.10466 Y33.68398
G01 X-45.11802 Y33.89737
G01 X-45.14149 Y34.14850
G01 X-45.16725 Y34.36074
G01 X-45.19945 Y34.57209
G01 X-45.23811 Y34.78235
G01 X-45.28317 Y34.99134
G01 X-45.33199 Y35.18901
G01 X-45.38942 Y35.39495
G01 X-45.46072 Y35.62627
G01 X-45.53316 Y35.83821
G01 X-45.60489 Y36.02876
G01 X-45.68614 Y36.22652
G01 X-45.77337 Y36.42169
G01 X-45.87110 Y36.62322
G01 X-45.97875 Y36.82860
G01 X-46.07758 Y37.00661
G01 X-46.18157 Y37.18166
G01 X-46.29059 Y37.35362
G01 X-46.41040 Y37.53068
G01 X-46.60943 Y37.80132
G01 X-46.83877 Y38.08425
G01 X-47.05480 Y38.32807
G01 X-47.27468 Y38.55446
G01 X-47.51969 Y38.78428
G01 X-47.79724 Y39.02009
G01 X-48.06226 Y39.22654
G01 X-48.31154 Y39.40297
G01 X-48.59434 Y39.58430
G01 X-48.86764 Y39.74208
G01 X-49.17227 Y39.90162
G01 X-49.47671 Y40.04358
G01 X-49.77813 Y40.16715
G01 X-50.06564 Y40.27015
G01 X-50.41364 Y40.37757
G01 X-50.73876 Y40.46215
G01 X-51.04752 Y40.52733
G01 X-51.38920 Y40.58270
G01 X-51.77097 Y40.62506
G01 X-51.98257 Y40.64084
G01 X-52.02669 Y40.64330
G01 X-52.02728 Y40.64051
G01 X-52.02669 Y40.64330
G01 X-52.15324 Y40.68963
G01 X-52.43695 Y40.78544
G01 X-52.63073 Y40.84523
G01 X-52.81635 Y40.89679
G01 X-53.00335 Y40.94325
G01 X-53.19151 Y40.98453
G01 X-53.44302 Y41.03317
G01 X-53.64289 Y41.06664
G01 X-53.83357 Y41.09309
G01 X-54.02491 Y41.11427
G01 X-54.43698 Y41.14452
G01 X-54.78148 Y41.15283
G01 X-55.19458 Y41.14292
G01 X-55.40703 Y41.12941
G01 X-55.61894 Y41.10944
G01 X-55.88825 Y41.07635
G01 X-56.11866 Y41.04076
G01 X-56.34774 Y40.99750
G01 X-56.60271 Y40.94124
G01 X-56.81873 Y40.88719
G01 X-57.02323 Y40.82920
G01 X-57.27908 Y40.74772
G01 X-57.47037 Y40.68148
G01 X-57.67847 Y40.60226
G01 X-57.86537 Y40.52451
G01 X-58.09475 Y40.42253
G01 X-58.30468 Y40.32113
G01 X-58.50222 Y40.21767
G01 X-58.73877 Y40.08476
G01 X-58.94702 Y39.95900
G01 X-59.13397 Y39.83744
G01 X-59.37326 Y39.67079
G01 X-59.55228 Y39.53782
G01 X-59.75045 Y39.37988
G01 X-59.95695 Y39.20388
G01 X-60.12988 Y39.04752
G01 X-60.28314 Y38.89980
G01 X-60.49327 Y38.68323
G01 X-60.64377 Y38.51869
G01 X-60.80831 Y38.32598
G01 X-60.97105 Y38.12167
G01 X-61.11733 Y37.92731
G01 X-61.25111 Y37.73637
G01 X-61.40994 Y37.49182
G01 X-61.52101 Y37.31024
G01 X-61.62650 Y37.12535
G01 X-61.72632 Y36.93734
G01 X-61.84722 Y36.69444
G01 X-61.95223 Y36.46381
G01 X-62.04140 Y36.24842
G01 X-62.14156 Y35.98535
G01 X-62.21715 Y35.76483
G01 X-62.28537 Y35.54189
G01 X-62.35723 Y35.28024
G01 X-62.41176 Y35.05357
G01 X-62.46058 Y34.81525
G01 X-62.50691 Y34.54791
G01 X-62.53958 Y34.31708
G01 X-62.56360 Y34.09539
G01 X-62.58517 Y33.81474
G01 X-62.59609 Y33.57791
G01 X-62.09144 Y33.02084
G01 X-62.09873 Y33.44225
G01 X-62.09254 Y33.66567
G01 X-62.08100 Y33.85835
G01 X-62.06198 Y34.08868
G01 X-62.03627 Y34.31070
G01 X-62.00463 Y34.52170
G01 X-61.96038 Y34.76922
G01 X-61.91852 Y34.96805
G01 X-61.87046 Y35.16546
G01 X-61.80366 Y35.40788
G01 X-61.74428 Y35.60219
G01 X-61.67196 Y35.81370
G01 X-61.58636 Y36.03927
G01 X-61.51756 Y36.20872
G01 X-61.43981 Y36.38537
G01 X-61.35233 Y36.56879
G01 X-61.23793 Y36.79271
G01 X-61.13496 Y36.97956
G01 X-61.03122 Y37.15426
G01 X-60.89650 Y37.36657
G01 X-60.77704 Y37.54333
G01 X-60.64573 Y37.72421
G01 X-60.51034 Y37.89886
G01 X-60.37562 Y38.06426
G01 X-60.23554 Y38.22520
G01 X-60.10432 Y38.36675
G01 X-59.92891 Y38.54691
G01 X-59.78992 Y38.68087
G01 X-59.64702 Y38.81064
G01 X-59.45617 Y38.97434
G01 X-59.31418 Y39.08958
G01 X-59.04568 Y39.29029
G01 X-58.86414 Y39.41633
G01 X-58.71121 Y39.51656
G01 X-58.42373 Y39.68902
G01 X-58.23943 Y39.79139
G01 X-58.05909 Y39.88496
G01 X-57.88513 Y39.96858
G01 X-57.69257 Y40.05443
G01 X-57.37273 Y40.18455
G01 X-57.19112 Y40.24981
G01 X-56.99333 Y40.31503
G01 X-56.66181 Y40.41153
G01 X-56.28851 Y40.49908
G01 X-55.95892 Y40.56042
G01 X-55.55856 Y40.61308
G01 X-55.21432 Y40.64124
G01 X-54.82082 Y40.65270
G01 X-54.47551 Y40.64579
G01 X-54.06233 Y40.61554
G01 X-53.88021 Y40.59502
G01 X-53.69872 Y40.56936
G01 X-53.50805 Y40.53672
G01 X-53.25582 Y40.48722
G01 X-53.06677 Y40.44439
G01 X-52.88900 Y40.39865
G01 X-52.66375 Y40.33291
G01 X-52.42674 Y40.25516
G01 X-52.20571 Y40.17645
G01 X-52.13063 Y40.14765
G01 X-52.13144 Y40.14373
G01 X-52.13063 Y40.14765
G01 X-52.07272 Y40.14503
G01 X-51.85039 Y40.13009
G01 X-51.45771 Y40.08742
G01 X-51.12525 Y40.03317
G01 X-50.80592 Y39.96416
G01 X-50.53950 Y39.89352
G01 X-50.24062 Y39.80142
G01 X-49.97338 Y39.70650
G01 X-49.71054 Y39.60002
G01 X-49.53493 Y39.52128
G01 X-49.36175 Y39.43739
G01 X-49.01405 Y39.25120
G01 X-48.85566 Y39.15801
G01 X-48.69139 Y39.05486
G01 X-48.53026 Y38.94684
G01 X-48.38065 Y38.84011
G01 X-48.21804 Y38.71661
G01 X-48.03765 Y38.57051
G01 X-47.89129 Y38.44554
G01 X-47.76353 Y38.33010
G01 X-47.62442 Y38.19713
G01 X-47.48931 Y38.06012
G01 X-47.35830 Y37.91915
G01 X-47.23808 Y37.78207
G01 X-47.09056 Y37.60379
G01 X-46.97715 Y37.45921
G01 X-46.86188 Y37.30318
G01 X-46.75134 Y37.14377
G01 X-46.64560 Y36.98113
G01 X-46.54479 Y36.81542
G01 X-46.44893 Y36.64676
G01 X-46.34941 Y36.46035
G01 X-46.26336 Y36.28822
G01 X-46.18243 Y36.11362
G01 X-46.10672 Y35.93671
G01 X-46.03628 Y35.75761
G01 X-45.97116 Y35.57654
G01 X-45.91746 Y35.41293
G01 X-45.85642 Y35.21045
G01 X-45.80301 Y35.01337
G01 X-45.74078 Y34.74484
G01 X-45.68998 Y34.47392
G01 X-45.65195 Y34.21121
G01 X-45.62241 Y33.92935
G01 X-45.60382 Y33.65431
G01 X-45.59694 Y33.38896
G01 X-45.60054 Y33.13377
G01 X-45.61492 Y32.86872
G01 X-45.64355 Y32.56623
G01 X-45.67712 Y32.31322
G01 X-45.72257 Y32.05170
G01 X-45.77629 Y31.80217
G01 X-45.84525 Y31.53529
G01 X-45.93593 Y31.23565
G01 X-46.02564 Y30.97731
G01 X-46.12102 Y30.73519
G01 X-45.51157 Y30.92912
G01 X-46.79119 Y30.52310
G01 X-46.76508 Y30.53136
G01 X-46.70006 Y30.66397
G01 X-46.59206 Y30.90489
G01 X-46.49828 Y31.14083
G01 X-46.42409 Y31.35155
G01 X-46.35508 Y31.57248
G01 X-46.30009 Y31.76801
G01 X-46.24949 Y31.97517
G01 X-46.20819 Y32.17403
G01 X-46.17207 Y32.38421
G01 X-46.14347 Y32.59554
G01 X-46.12005 Y32.82582
G01 X-46.10618 Y33.01827
G01 X-46.09851 Y33.21106
G01 X-46.09704 Y33.40402
G01 X-46.10219 Y33.60704
G01 X-46.11500 Y33.81992
G01 X-46.13559 Y34.04027
G01 X-46.15889 Y34.23181
G01 X-46.19005 Y34.43252
G01 X-46.22800 Y34.63204
G01 X-46.27265 Y34.83018
G01 X-46.32401 Y35.02668
G01 X-46.38693 Y35.23884
G01 X-46.45015 Y35.43186
G01 X-46.51261 Y35.60366
G01 X-46.58418 Y35.78283
G01 X-46.66569 Y35.96886
G01 X-46.75348 Y36.15205
G01 X-46.85584 Y36.34824
G01 X-46.94446 Y36.50811
G01 X-47.04324 Y36.67387
G01 X-47.20415 Y36.92050
G01 X-47.38312 Y37.16703
G01 X-47.59203 Y37.42634
G01 X-47.78700 Y37.64704
G01 X-47.98532 Y37.85080
G01 X-48.19307 Y38.04493
G01 X-48.44735 Y38.25992
G01 X-48.66406 Y38.42786
G01 X-48.90513 Y38.59703
G01 X-49.16292 Y38.75936
G01 X-49.40170 Y38.89411
G01 X-49.69827 Y39.04552
G01 X-49.94836 Y39.15788
G01 X-50.22240 Y39.26573
G01 X-50.48202 Y39.35395
G01 X-50.78202 Y39.44203
G01 X-50.96916 Y39.48908
G01 X-51.14775 Y39.52806
G01 X-51.31742 Y39.55989
G01 X-51.50808 Y39.58966
G01 X-51.68948 Y39.61219
G01 X-51.93002 Y39.63495
G01 X-52.16319 Y39.64856
G01 X-52.23477 Y39.65092
G01 X-52.23573 Y39.64645
G01 X-52.23477 Y39.65092
G01 X-52.29024 Y39.67317
G01 X-52.51816 Y39.75796
G01 X-52.77310 Y39.84315
G01 X-52.96733 Y39.90152
G01 X-53.13388 Y39.94597
G01 X-53.31155 Y39.98778
G01 X-53.72405 Y40.06705
G01 X-54.05885 Y40.11257
G01 X-54.41239 Y40.14170
G01 X-54.71775 Y40.15255
G01 X-55.05112 Y40.14795
G01 X-55.25458 Y40.13789
G01 X-55.44746 Y40.12194
G01 X-55.70781 Y40.09161
G01 X-55.89930 Y40.06357
G01 X-56.11978 Y40.02344
G01 X-56.35600 Y39.97195
G01 X-56.54411 Y39.92550
G01 X-56.72084 Y39.87589
G01 X-56.97807 Y39.79403
G01 X-57.16092 Y39.72989
G01 X-57.35104 Y39.65605
G01 X-57.56405 Y39.56487
G01 X-57.74004 Y39.48435
G01 X-57.91335 Y39.39819
G01 X-58.08378 Y39.30650
G01 X-58.29361 Y39.18651
G01 X-58.46689 Y39.07935
G01 X-58.64479 Y38.96058
G01 X-58.86656 Y38.80261
G01 X-59.05188 Y38.65928
G01 X-59.26046 Y38.48428
G01 X-59.42015 Y38.34196
G01 X-59.57468 Y38.19406
G01 X-59.75032 Y38.01346
G01 X-59.88822 Y37.86353
G01 X-60.02746 Y37.70112
G01 X-60.19076 Y37.49611
G01 X-60.31893 Y37.32487
G01 X-60.44659 Y37.14069
G01 X-60.58276 Y36.92876
G01 X-60.69287 Y36.74537
G01 X-60.78680 Y36.57615
G01 X-60.91077 Y36.33373
G01 X-60.99780 Y36.14953
G01 X-61.08240 Y35.95307
G01 X-61.17778 Y35.70892
G01 X-61.24918 Y35.50729
G01 X-61.31047 Y35.31301
G01 X-61.38108 Y35.06061
G01 X-61.43419 Y34.84291
G01 X-61.47915 Y34.62335
G01 X-61.52182 Y34.37509
G01 X-61.55096 Y34.16318
G01 X-61.57252 Y33.95035
G01 X-61.59028 Y33.69907
G01 X-61.59807 Y33.48530
G01 X-61.59840 Y33.28157
G01 X-61.58944 Y32.98906
G01 X-61.56813 Y32.70466
G01 X-61.53137 Y32.39701
G01 X-60.86460 Y31.64952
G01 X-60.92812 Y31.89651
G01 X-60.99124 Y32.19148
G01 X-61.03021 Y32.42389
G01 X-61.06663 Y32.71530
G01 X-61.08763 Y32.96986
G01 X-61.09779 Y33.25279
G01 X-61.09772 Y33.49800
G01 X-61.08738 Y33.73280
G01 X-61.06541 Y34.00481
G01 X-61.03534 Y34.24817
G01 X-60.98088 Y34.56755
G01 X-60.92924 Y34.80727
G01 X-60.85144 Y35.10067
G01 X-60.77953 Y35.33511
G01 X-60.69724 Y35.56612
G01 X-60.58436 Y35.84788
G01 X-60.47819 Y36.08022
G01 X-60.33554 Y36.35967
G01 X-60.21436 Y36.57285
G01 X-60.07501 Y36.79551
G01 X-59.94349 Y36.99027
G01 X-59.80377 Y37.17925
G01 X-59.62719 Y37.40053
G01 X-59.45213 Y37.60036
G01 X-59.24936 Y37.81232
G01 X-59.08764 Y37.96845
G01 X-58.84428 Y38.18232
G01 X-58.66176 Y38.33035
G01 X-58.47309 Y38.47046
G01 X-58.21403 Y38.64747
G01 X-58.00527 Y38.77612
G01 X-57.75838 Y38.91468
G01 X-57.59491 Y38.99898
G01 X-57.42871 Y39.07777
G01 X-57.21594 Y39.17084
G01 X-57.05432 Y39.23581
G01 X-56.88101 Y39.29898
G01 X-56.66262 Y39.37086
G01 X-56.48579 Y39.42326
G01 X-56.32722 Y39.46484
G01 X-56.09069 Y39.51879
G01 X-55.91025 Y39.55443
G01 X-55.71861 Y39.58549
G01 X-55.50875 Y39.61232
G01 X-55.32577 Y39.63106
G01 X-55.15249 Y39.64315
G01 X-54.74691 Y39.65278
G01 X-54.48137 Y39.64485
G01 X-54.17942 Y39.62222
G01 X-53.92758 Y39.59243
G01 X-53.67739 Y39.55108
G01 X-53.33558 Y39.48049
G01 X-53.16728 Y39.43802
G01 X-53.00035 Y39.39024
G01 X-52.58984 Y39.25247
G01 X-52.36235 Y39.16263
G01 X-52.33924 Y39.15283
G01 X-52.34046 Y39.14732
G01 X-52.33924 Y39.15283
G01 X-52.24389 Y39.15100
G01 X-51.96926 Y39.13650
G01 X-51.71806 Y39.11229
G01 X-51.48585 Y39.08092
G01 X-51.27518 Y39.04366
G01 X-51.06614 Y38.99825
G01 X-50.84917 Y38.94198
G01 X-50.63670 Y38.87846
G01 X-50.33820 Y38.77539
G01 X-50.06477 Y38.66360
G01 X-49.79772 Y38.53729
G01 X-49.50366 Y38.37925
G01 X-49.25111 Y38.22596
G01 X-49.00719 Y38.05936
G01 X-48.78047 Y37.88628
G01 X-48.52518 Y37.67117
G01 X-48.31723 Y37.47592
G01 X-48.10600 Y37.25509
G01 X-47.88289 Y36.99322
G01 X-47.71459 Y36.77569
G01 X-47.55736 Y36.55002
G01 X-47.40130 Y36.29922
G01 X-47.24527 Y36.01563
G01 X-47.11974 Y35.75952
G01 X-47.05007 Y35.60097
G01 X-46.98911 Y35.44979
G01 X-46.92924 Y35.28728
G01 X-46.87456 Y35.12297
G01 X-46.81631 Y34.93013
G01 X-46.77364 Y34.77283
G01 X-46.73343 Y34.60438
G01 X-46.69480 Y34.41471
G01 X-46.66590 Y34.24395
G01 X-46.64240 Y34.07237
G01 X-46.60836 Y33.70956
G01 X-46.59988 Y33.53659
G01 X-46.59681 Y33.35325
G01 X-46.59955 Y33.18007
G01 X-46.60709 Y33.01726
G01 X-46.62038 Y32.84459
G01 X-46.64240 Y32.63410
G01 X-46.66590 Y32.46252
G01 X-46.69480 Y32.29176
G01 X-46.72907 Y32.12201
G01 X-46.76864 Y31.95340
G01 X-46.81631 Y31.77634
G01 X-46.87148 Y31.59323
G01 X-46.92254 Y31.43842
G01 X-46.98180 Y31.27568
G01 X-47.05007 Y31.10550
G01 X-47.11974 Y30.94695
G01 X-47.26427 Y30.65478
G01 X-47.36064 Y30.47789
G01 X-47.45934 Y30.31040
G01 X-46.79119 Y30.52310
G01 X-49.13465 Y29.77802
G01 X-48.24428 Y30.06156
G01 X-48.13282 Y30.20609
G01 X-48.02690 Y30.35432
G01 X-47.85741 Y30.61828
G01 X-47.70051 Y30.89935
G01 X-47.57090 Y31.16265
G01 X-47.45330 Y31.44253
G01 X-47.34987 Y31.73870
G01 X-47.29777 Y31.91126
G01 X-47.25302 Y32.07738
G01 X-47.18809 Y32.37393
G01 X-47.14126 Y32.67387
G01 X-47.11197 Y32.96397
G01 X-47.09927 Y33.19638
G01 X-47.09792 Y33.45950
G01 X-47.10971 Y33.71223
G01 X-47.13641 Y33.99241
G01 X-47.17382 Y34.25284
G01 X-47.22490 Y34.51095
G01 X-47.29221 Y34.77575
G01 X-47.37478 Y35.04481
G01 X-47.46061 Y35.28281
G01 X-47.55838 Y35.51616
G01 X-47.67707 Y35.76226
G01 X-47.81133 Y36.00963
G01 X-47.95380 Y36.24275
G01 X-48.11479 Y36.47595
G01 X-48.27587 Y36.68398
G01 X-48.49180 Y36.93620
G01 X-48.70318 Y37.15410
G01 X-48.93508 Y37.36536
G01 X-49.20910 Y37.58677
G01 X-49.45644 Y37.76274
G01 X-49.71402 Y37.92342
G01 X-50.02373 Y38.09129
G01 X-50.30790 Y38.22413
G01 X-50.55230 Y38.32162
G01 X-50.81115 Y38.40909
G01 X-51.10119 Y38.49195
G01 X-51.38758 Y38.55618
G01 X-51.68722 Y38.60482
G01 X-51.98811 Y38.63642
G01 X-52.30465 Y38.65230
G01 X-52.44457 Y38.65314
G01 X-52.44625 Y38.64508
G01 X-52.44457 Y38.65314
G01 X-52.70246 Y38.76060
G01 X-52.87340 Y38.82276
G01 X-53.11905 Y38.90368
G01 X-53.27480 Y38.94912
G01 X-53.43192 Y38.98948
G01 X-53.78229 Y39.06205
G01 X-53.94333 Y39.08938
G01 X-54.11533 Y39.11265
G01 X-54.46870 Y39.14330
G01 X-54.75572 Y39.15283
G01 X-55.10103 Y39.14513
G01 X-55.39755 Y39.12177
G01 X-55.75008 Y39.07473
G01 X-56.02191 Y39.02202
G01 X-56.19707 Y38.98196
G01 X-56.36301 Y38.93843
G01 X-56.68607 Y38.83723
G01 X-56.95107 Y38.73919
G01 X-57.27487 Y38.59814
G01 X-57.54939 Y38.45928
G01 X-57.83123 Y38.29764
G01 X-58.08033 Y38.13510
G01 X-58.23674 Y38.02454
G01 X-58.35962 Y37.93193
G01 X-58.48749 Y37.82906
G01 X-58.64093 Y37.69792
G01 X-58.86618 Y37.48834
G01 X-59.11200 Y37.23132
G01 X-59.29843 Y37.01291
G01 X-59.50867 Y36.73886
G01 X-59.66427 Y36.50981
G01 X-59.76630 Y36.34765
G01 X-59.84423 Y36.21499
G01 X-60.00506 Y35.90933
G01 X-60.12975 Y35.63932
G01 X-60.25269 Y35.32751
G01 X-60.34082 Y35.06500
G01 X-60.43295 Y34.73211
G01 X-60.49772 Y34.43135
G01 X-60.53038 Y34.24258
G01 X-60.55495 Y34.06993
G01 X-60.58596 Y33.73625
G01 X-60.59871 Y33.43910
G01 X-60.59360 Y33.10400
G01 X-60.57242 Y32.79704
G01 X-60.53110 Y32.46679
G01 X-60.48291 Y32.19864
G01 X-60.40874 Y31.87863
G01 X-60.32965 Y31.60740
G01 X-60.22035 Y31.29095
G01 X-60.15556 Y31.12905
G01 X-60.08312 Y30.96285
G01 X-59.97291 Y30.73133
G01 X-59.95812 Y30.70258
G01 X-59.28873 Y30.53621
G01 X-59.44547 Y30.80441
G01 X-59.54855 Y31.00050
G01 X-59.67755 Y31.28274
G01 X-59.77090 Y31.51655
G01 X-59.86671 Y31.80156
G01 X-59.93290 Y32.03570
G01 X-59.99894 Y32.32755
G01 X-60.04344 Y32.58734
G01 X-60.07679 Y32.86605
G01 X-60.09335 Y33.10715
G01 X-60.09902 Y33.40738
G01 X-60.08807 Y33.68909
G01 X-60.05878 Y34.00816
G01 X-60.01070 Y34.31474
G01 X-59.95754 Y34.57110
G01 X-59.88820 Y34.83211
G01 X-59.80288 Y35.10084
G01 X-59.69566 Y35.38131
G01 X-59.59394 Y35.61159
G01 X-59.46310 Y35.87064
G01 X-59.33826 Y36.08923
G01 X-59.17047 Y36.35032
G01 X-59.02904 Y36.54628
G01 X-58.84817 Y36.77326
G01 X-58.68086 Y36.96134
G01 X-58.46338 Y37.18273
G01 X-58.29211 Y37.33866
G01 X-58.06120 Y37.53061
G01 X-57.87514 Y37.66850
G01 X-57.61769 Y37.84178
G01 X-57.34096 Y38.00328
G01 X-57.12661 Y38.11491
G01 X-56.81538 Y38.25446
G01 X-56.54048 Y38.35865
G01 X-56.21627 Y38.46030
G01 X-56.06908 Y38.49853
G01 X-55.87385 Y38.54257
G01 X-55.58645 Y38.59421
G01 X-55.23819 Y38.63492
G01 X-54.96674 Y38.64978
G01 X-54.77723 Y38.65288
G01 X-54.60609 Y38.64961
G01 X-54.30637 Y38.62969
G01 X-54.07581 Y38.60348
G01 X-53.92631 Y38.57998
G01 X-53.74467 Y38.54567
G01 X-53.51498 Y38.49510
G01 X-53.26865 Y38.42659
G01 X-52.95483 Y38.32123
G01 X-52.68110 Y38.21115
G01 X-52.55481 Y38.15314
G01 X-52.55671 Y38.14470
G01 X-52.55481 Y38.15314
G01 X-52.31450 Y38.15240
G01 X-52.14000 Y38.14582
G01 X-51.86677 Y38.12263
G01 X-51.65532 Y38.09528
G01 X-51.43541 Y38.05591
G01 X-51.22756 Y38.00818
G01 X-50.97562 Y37.93655
G01 X-50.78268 Y37.87323
G01 X-50.62103 Y37.81260
G01 X-50.47112 Y37.74991
G01 X-50.32357 Y37.68184
G01 X-50.17859 Y37.60851
G01 X-50.01092 Y37.51737
G01 X-49.86241 Y37.42936
G01 X-49.70894 Y37.33005
G01 X-49.55964 Y37.22459
G01 X-49.42269 Y37.11948
G01 X-49.26752 Y36.99175
G01 X-49.14572 Y36.88420
G01 X-49.01344 Y36.75804
G01 X-48.89332 Y36.63406
G01 X-48.78469 Y36.51324
G01 X-48.64953 Y36.35101
G01 X-48.54351 Y36.21476
G01 X-48.44857 Y36.08288
G01 X-48.35845 Y35.94768
G01 X-48.27328 Y35.80933
G01 X-48.19315 Y35.66798
G01 X-48.10412 Y35.49919
G01 X-48.02916 Y35.34367
G01 X-47.95251 Y35.16660
G01 X-47.89043 Y35.00552
G01 X-47.83148 Y34.83249
G01 X-47.77344 Y34.64006
G01 X-47.72952 Y34.47311
G01 X-47.69404 Y34.31454
G01 X-47.66432 Y34.15480
G01 X-47.64039 Y33.99409
G01 X-47.61748 Y33.78418
G01 X-47.60483 Y33.62221
G01 X-47.59744 Y33.42940
G01 X-47.59830 Y33.23646
G01 X-47.60745 Y33.04372
G01 X-47.62523 Y32.84355
G01 X-47.64583 Y32.67212
G01 X-47.67301 Y32.50164
G01 X-47.70669 Y32.33232
G01 X-47.74938 Y32.15460
G01 X-47.79338 Y31.99818
G01 X-47.86335 Y31.77756
G01 X-47.92619 Y31.60591
G01 X-47.99190 Y31.44627
G01 X-48.06368 Y31.28927
G01 X-48.14143 Y31.13512
G01 X-48.24768 Y30.94101
G01 X-48.35299 Y30.76732
G01 X-48.44857 Y30.62359
G01 X-48.54351 Y30.49171
G01 X-48.64316 Y30.36336
G01 X-48.77140 Y30.20863
G01 X-48.88639 Y30.07985
G01 X-48.99190 Y29.96997
G01 X-49.10846 Y29.85679
G01 X-49.22804 Y29.74871
G01 X-49.13465 Y29.77802
G01 X-49.65720 Y29.61251
G01 X-50.26744 Y29.44068
G01 X-50.67988 Y29.34792
G01 X-51.14183 Y29.26880
G01 X-51.95087 Y29.18882
G01 X-52.39977 Y29.17657
G01 X-52.63703 Y29.17657
G01 X-52.69080 Y29.17261
G01 X-52.94394 Y29.11594
G01 X-53.27459 Y29.05458
G01 X-53.65689 Y28.99860
G01 X-53.83207 Y28.97843
G01 X-54.69753 Y29.25879
G01 X-55.41244 Y29.48107
G01 X-56.19813 Y29.71452
G01 X-56.67926 Y29.85143
G01 X-57.46217 Y30.06644
G01 X-58.02917 Y30.21642
G01 X-59.09892 Y30.48952
G01 X-60.05198 Y30.72524
G01 X-61.18974 Y32.01558
G01 X-61.78301 Y32.67898
G01 X-63.06543 Y34.09655
G01 X-63.04356 Y34.31357
G01 X-63.01905 Y34.50420
G01 X-62.94755 Y34.93107
G01 X-62.86607 Y35.30674
G01 X-62.75581 Y35.71479
G01 X-62.69939 Y35.89853
G01 X-62.63493 Y36.09033
G01 X-62.48131 Y36.49492
G01 X-62.32789 Y36.84740
G01 X-62.15858 Y37.19007
G01 X-62.07308 Y37.35085
G01 X-61.96843 Y37.53574
G01 X-61.85858 Y37.71758
G01 X-61.72916 Y37.92042
G01 X-61.52251 Y38.22027
G01 X-61.27816 Y38.54005
G01 X-61.03155 Y38.83492
G01 X-60.89576 Y38.98494
G01 X-60.74387 Y39.14460
G01 X-60.47722 Y39.40724
G01 X-60.20079 Y39.65384
G01 X-61.50915 Y39.04678
G01 X-61.65842 Y38.86515
G01 X-61.82639 Y38.64976
G01 X-61.95390 Y38.47686
G01 X-62.09388 Y38.27513
G01 X-62.24806 Y38.03741
G01 X-62.37125 Y37.83693
G01 X-62.49345 Y37.62398
G01 X-62.60907 Y37.40737
G01 X-62.76668 Y37.08933
G01 X-62.90808 Y36.77155
G01 X-63.05334 Y36.40328
G01 X-63.17414 Y36.05540
G01 X-63.28913 Y35.66592
G01 X-63.37470 Y35.32878
G01 X-63.44554 Y34.98827
G01 X-63.51100 Y34.59594
G01 X-63.27366 Y34.32493
G01 X-63.06543 Y34.09655
G01 X-63.27366 Y34.32493
G01 X-63.93663 Y35.08200
G01 X-63.88798 Y35.32441
G01 X-63.83525 Y35.55317
G01 X-63.77892 Y35.77054
G01 X-63.70160 Y36.04268
G01 X-63.63439 Y36.25693
G01 X-63.55809 Y36.47895
G01 X-63.38240 Y36.93315
G01 X-63.29370 Y37.13942
G01 X-63.19517 Y37.35253
G01 X-63.06454 Y37.61489
G01 X-62.96952 Y37.79558
G01 X-62.86002 Y37.99162
G01 X-62.74539 Y38.18471
G01 X-62.60000 Y38.41539
G01 X-62.48182 Y38.59406
G01 X-63.31339 Y38.20607
G01 X-63.46386 Y37.93109
G01 X-63.61006 Y37.64283
G01 X-63.73160 Y37.38481
G01 X-63.84491 Y37.12307
G01 X-63.99621 Y36.73676
G01 X-64.12304 Y36.37107
G01 X-64.18636 Y36.16673
G01 X-64.25245 Y35.93422
G01 X-64.34386 Y35.57595
G01 X-63.93663 Y35.08200
G01 X-64.54026 Y35.81646
G01 X-64.73568 Y36.06259
G01 X-64.67104 Y36.29086
G01 X-64.60218 Y36.51435
G01 X-64.52784 Y36.73610
G01 X-64.45164 Y36.94641
G01 X-64.34960 Y37.20943
G01 X-64.26403 Y37.41610
G01 X-64.16939 Y37.62995
G01 X-64.06243 Y37.85591
G01 X-61.02906 Y39.26995
G01 X-57.90171 Y40.71290
G01 X-55.54002 Y41.79065
G01 X-52.17163 Y43.31218
G01 X-51.81973 Y43.21198
G01 X-51.50937 Y43.10944
G01 X-51.26512 Y43.08648
G01 X-50.97198 Y43.04853
G01 X-50.69022 Y43.00324
G01 X-50.41991 Y42.95158
G01 X-50.02251 Y42.86072
G01 X-49.62934 Y42.75287
G01 X-49.19632 Y42.61513
G01 X-48.79685 Y42.46786
G01 X-48.42292 Y42.31109
G01 X-48.05601 Y42.13852
G01 X-47.65330 Y41.92732
G01 X-47.29162 Y41.71800
G01 X-46.94799 Y41.49865
G01 X-46.59765 Y41.25267
G01 X-46.27461 Y41.00398
G01 X-45.92599 Y40.71216
G01 X-45.62673 Y40.43858
G01 X-45.33240 Y40.14518
G01 X-45.05117 Y39.83919
G01 X-44.79737 Y39.53863
G01 X-44.54588 Y39.21775
G01 X-44.30842 Y38.88636
G01 X-44.09079 Y38.55375
G01 X-43.88223 Y38.20345
G01 X-43.67085 Y37.81153
G01 X-43.49321 Y37.44707
G01 X-43.33128 Y37.07534
G01 X-43.17848 Y36.67798
G01 X-43.04965 Y36.29353
G01 X-42.92242 Y35.85573
G01 X-42.82382 Y35.44964
G01 X-42.74670 Y35.05972
G01 X-42.68196 Y34.63658
G01 X-42.63410 Y34.19305
G01 X-42.60677 Y33.78627
G01 X-42.59697 Y33.38891
G01 X-43.09694 Y33.38370
G01 X-44.09694 Y33.38383
G01 X-44.59691 Y33.37862
G01 X-45.59689 Y33.37875
G01 X-47.09683 Y33.36841
G01 X-48.09680 Y33.36854
G01 X-48.59678 Y33.36333
G01 X-49.09678 Y33.36338
G01 X-49.10298 Y33.16041
G01 X-49.12355 Y32.94009
G01 X-49.15068 Y32.75935
G01 X-49.18636 Y32.59044
G01 X-49.24877 Y32.36760
G01 X-49.30714 Y32.19437
G01 X-49.38420 Y32.00651
G01 X-49.46907 Y31.83324
G01 X-49.57674 Y31.63994
G01 X-49.68146 Y31.47792
G01 X-49.79010 Y31.33090
G01 X-49.94478 Y31.14535
G01 X-50.07770 Y31.00550
G01 X-50.21166 Y30.88117
G01 X-50.39037 Y30.73413
G01 X-50.55492 Y30.61508
G01 X-50.66604 Y30.54380
G01 X-50.78019 Y30.47746
G01 X-50.93988 Y30.39303
G01 X-51.06850 Y30.33248
G01 X-51.19040 Y30.28173
G01 X-51.31440 Y30.23641
G01 X-51.48677 Y30.18241
G01 X-51.60432 Y30.15021
G01 X-51.74298 Y30.11868
G01 X-51.89299 Y30.09227
G01 X-52.02390 Y30.07556
G01 X-52.20386 Y30.05950
G01 X-52.37640 Y30.05336
G01 X-52.91552 Y30.05328
G01 X-52.91882 Y30.06710
G01 X-52.91552 Y30.05328
G01 X-52.94165 Y30.03862
G01 X-53.10515 Y29.95206
G01 X-53.25179 Y29.88328
G01 X-53.48473 Y29.78810
G01 X-53.64490 Y29.73329
G01 X-53.77337 Y29.69453
G01 X-54.03820 Y29.63034
G01 X-54.28531 Y29.58841
G01 X-54.54993 Y29.56187
G01 X-54.77248 Y29.55394
G01 X-54.98302 Y29.55775
G01 X-55.19191 Y29.57388
G01 X-55.36154 Y29.59537
G01 X-55.55869 Y29.63019
G01 X-55.72750 Y29.66865
G01 X-55.94050 Y29.72882
G01 X-56.09481 Y29.78125
G01 X-56.27251 Y29.85071
G01 X-56.43054 Y29.92145
G01 X-56.62767 Y30.02216
G01 X-56.76003 Y30.09844
G01 X-56.93786 Y30.21233
G01 X-57.07055 Y30.30698
G01 X-57.24312 Y30.44345
G01 X-57.35625 Y30.54243
G01 X-57.50519 Y30.68544
G01 X-57.62196 Y30.80949
G01 X-57.77133 Y30.98531
G01 X-57.86387 Y31.10690
G01 X-57.98416 Y31.28043
G01 X-58.06986 Y31.41904
G01 X-58.17723 Y31.61261
G01 X-58.24418 Y31.74992
G01 X-58.32820 Y31.94365
G01 X-58.38513 Y32.09635
G01 X-58.45208 Y32.30560
G01 X-58.49038 Y32.45096
G01 X-58.53608 Y32.66260
G01 X-58.56148 Y32.82091
G01 X-58.58561 Y33.03019
G01 X-58.59521 Y33.18266
G01 X-58.59910 Y33.39379
G01 X-58.59358 Y33.55668
G01 X-58.57451 Y33.78741
G01 X-58.55358 Y33.93874
G01 X-58.51566 Y34.14646
G01 X-58.47781 Y34.30499
G01 X-58.41967 Y34.50798
G01 X-58.37001 Y34.65246
G01 X-58.28861 Y34.85830
G01 X-58.22048 Y35.00636
G01 X-58.11881 Y35.20295
G01 X-58.04139 Y35.33468
G01 X-57.92666 Y35.51194
G01 X-57.83090 Y35.64379
G01 X-57.69927 Y35.80892
G01 X-57.59798 Y35.92327
G01 X-57.45109 Y36.07498
G01 X-57.32409 Y36.19269
G01 X-57.15475 Y36.33521
G01 X-57.03270 Y36.42713
G01 X-56.85871 Y36.54679
G01 X-56.72851 Y36.62670
G01 X-56.52572 Y36.73843
G01 X-56.39735 Y36.80049
G01 X-56.19554 Y36.88738
G01 X-56.04507 Y36.94278
G01 X-55.83872 Y37.00828
G01 X-55.69323 Y37.04610
G01 X-55.48729 Y37.09038
G01 X-55.33644 Y37.11466
G01 X-55.11655 Y37.13988
G01 X-54.96405 Y37.14923
G01 X-54.76311 Y37.15288
G01 X-54.55956 Y37.14496
G01 X-54.29032 Y37.11890
G01 X-53.99898 Y37.06696
G01 X-53.79199 Y37.01712
G01 X-53.49690 Y36.92215
G01 X-53.30584 Y36.84722
G01 X-53.18458 Y36.79160
G01 X-52.98824 Y36.69340
G01 X-52.91534 Y36.65319
G01 X-52.91859 Y36.63965
G01 X-52.91534 Y36.65319
G01 X-52.37640 Y36.65311
G01 X-52.20386 Y36.64697
G01 X-52.02390 Y36.63091
G01 X-51.89299 Y36.61420
G01 X-51.74298 Y36.58779
G01 X-51.60432 Y36.55626
G01 X-51.48677 Y36.52406
G01 X-51.31440 Y36.47006
G01 X-51.19040 Y36.42474
G01 X-51.06850 Y36.37399
G01 X-50.93988 Y36.31344
G01 X-50.78019 Y36.22901
G01 X-50.66604 Y36.16267
G01 X-50.55492 Y36.09139
G01 X-50.39843 Y35.97857
G01 X-50.22703 Y35.83861
G01 X-50.09220 Y35.71517
G01 X-49.96518 Y35.58377
G01 X-49.81545 Y35.40730
G01 X-49.70483 Y35.26180
G01 X-49.59792 Y35.10120
G01 X-49.50155 Y34.93407
G01 X-49.40546 Y34.74608
G01 X-49.32520 Y34.55954
G01 X-49.26084 Y34.37768
G01 X-49.19617 Y34.15546
G01 X-49.15626 Y33.97710
G01 X-49.12477 Y33.77646
G01 X-49.10364 Y33.55619
G01 X-49.09678 Y33.36338
G01 X-49.59678 Y33.36346
G01 X-49.59929 Y33.24078
G01 X-49.60780 Y33.11837
G01 X-49.62525 Y32.95825
G01 X-49.64664 Y32.82706
G01 X-49.67254 Y32.70712
G01 X-49.70429 Y32.58861
G01 X-49.75225 Y32.43483
G01 X-49.79833 Y32.31015
G01 X-49.84666 Y32.19737
G01 X-49.90048 Y32.08711
G01 X-49.97714 Y31.94545
G01 X-50.04618 Y31.83186
G01 X-50.11519 Y31.73039
G01 X-50.18908 Y31.63245
G01 X-50.29159 Y31.50819
G01 X-50.38105 Y31.40989
G01 X-50.52093 Y31.27510
G01 X-50.69197 Y31.13296
G01 X-50.83264 Y31.03085
G01 X-50.98006 Y30.93877
G01 X-51.16703 Y30.83847
G01 X-51.33464 Y30.76252
G01 X-51.50744 Y30.69910
G01 X-51.72080 Y30.63646
G01 X-51.85047 Y30.60708
G01 X-51.97137 Y30.58610
G01 X-52.08298 Y30.57210
G01 X-52.26383 Y30.55681
G01 X-52.38648 Y30.55330
G01 X-53.05392 Y30.55328
G01 X-53.05814 Y30.56948
G01 X-53.05392 Y30.55328
G01 X-53.17660 Y30.48005
G01 X-53.34925 Y30.38907
G01 X-53.52016 Y30.31193
G01 X-53.64472 Y30.26199
G01 X-53.80485 Y30.20703
G01 X-53.92359 Y30.17180
G01 X-54.06779 Y30.13570
G01 X-54.18902 Y30.11038
G01 X-54.36519 Y30.08208
G01 X-54.63002 Y30.05773
G01 X-54.74132 Y30.05407
G01 X-54.91000 Y30.05521
G01 X-55.17124 Y30.07439
G01 X-55.31388 Y30.09415
G01 X-55.50230 Y30.12905
G01 X-55.63184 Y30.16052
G01 X-55.80609 Y30.21066
G01 X-55.93212 Y30.25419
G01 X-56.11960 Y30.32890
G01 X-56.23131 Y30.38056
G01 X-56.39257 Y30.46346
G01 X-56.51663 Y30.53573
G01 X-56.67743 Y30.63987
G01 X-56.78531 Y30.71820
G01 X-56.92633 Y30.83029
G01 X-57.02483 Y30.91696
G01 X-57.15955 Y31.04695
G01 X-57.24248 Y31.13519
G01 X-57.35356 Y31.26417
G01 X-57.45427 Y31.39374
G01 X-57.58597 Y31.58543
G01 X-57.70311 Y31.78632
G01 X-57.77334 Y31.92320
G01 X-57.85902 Y32.11721
G01 X-57.91637 Y32.27095
G01 X-57.97946 Y32.47151
G01 X-58.03006 Y32.68299
G01 X-58.06092 Y32.85172
G01 X-58.08731 Y33.07149
G01 X-58.09602 Y33.21479
G01 X-58.09839 Y33.43712
G01 X-58.08475 Y33.65901
G01 X-58.06874 Y33.80171
G01 X-58.03102 Y34.02081
G01 X-57.99084 Y34.19046
G01 X-57.93105 Y34.39391
G01 X-57.85340 Y34.60222
G01 X-57.78784 Y34.75264
G01 X-57.69668 Y34.93272
G01 X-57.61431 Y35.07463
G01 X-57.49242 Y35.26056
G01 X-57.35749 Y35.43724
G01 X-57.25097 Y35.56206
G01 X-57.10405 Y35.71499
G01 X-56.98348 Y35.82629
G01 X-56.81236 Y35.96823
G01 X-56.63148 Y36.09749
G01 X-56.48401 Y36.19050
G01 X-56.28927 Y36.29777
G01 X-56.07809 Y36.39477
G01 X-55.93745 Y36.45073
G01 X-55.74060 Y36.51593
G01 X-55.57490 Y36.56028
G01 X-55.35760 Y36.60567
G01 X-55.14746 Y36.63419
G01 X-54.96347 Y36.64890
G01 X-54.75143 Y36.65278
G01 X-54.60794 Y36.64715
G01 X-54.39722 Y36.62860
G01 X-54.24584 Y36.60544
G01 X-53.99283 Y36.55306
G01 X-53.85399 Y36.51420
G01 X-53.63708 Y36.44123
G01 X-53.45943 Y36.36838
G01 X-53.23665 Y36.25916
G01 X-53.05425 Y36.15319
G01 X-53.05811 Y36.13798
G01 X-53.05425 Y36.15319
G01 X-52.36604 Y36.15301
G01 X-52.20261 Y36.14565
G01 X-51.99162 Y36.12330
G01 X-51.78047 Y36.08443
G01 X-51.55621 Y36.02271
G01 X-51.36312 Y35.95540
G01 X-51.18537 Y35.87704
G01 X-50.98893 Y35.77280
G01 X-50.84115 Y35.68131
G01 X-50.69197 Y35.57351
G01 X-50.52858 Y35.43818
G01 X-50.39528 Y35.31128
G01 X-50.27828 Y35.18273
G01 X-50.14539 Y35.01733
G01 X-50.03518 Y34.85739
G01 X-49.94250 Y34.69838
G01 X-49.83823 Y34.49046
G01 X-49.76919 Y34.31987
G01 X-49.70429 Y34.11786
G01 X-49.65885 Y33.93953
G01 X-49.62665 Y33.75833
G01 X-49.60430 Y33.54733
G01 X-49.59678 Y33.36346
G01 X-50.09675 Y33.35828
G01 X-50.10363 Y33.18728
G01 X-50.12761 Y32.97885
G01 X-50.16182 Y32.81119
G01 X-50.21163 Y32.63862
G01 X-50.26609 Y32.48706
G01 X-50.33256 Y32.34035
G01 X-50.42284 Y32.17352
G01 X-50.51575 Y32.02983
G01 X-50.64498 Y31.86458
G01 X-50.75271 Y31.74482
G01 X-50.86967 Y31.63413
G01 X-51.02454 Y31.50796
G01 X-51.18245 Y31.40011
G01 X-51.34800 Y31.30753
G01 X-51.49334 Y31.23811
G01 X-51.64381 Y31.18063
G01 X-51.80597 Y31.13115
G01 X-51.94308 Y31.09844
G01 X-52.08209 Y31.07550
G01 X-52.26246 Y31.05777
G01 X-52.38638 Y31.05330
G01 X-53.20266 Y31.05328
G01 X-53.20731 Y31.07047
G01 X-53.20266 Y31.05328
G01 X-53.34196 Y30.96280
G01 X-53.43820 Y30.90677
G01 X-53.63022 Y30.80934
G01 X-53.76629 Y30.75097
G01 X-53.86301 Y30.71495
G01 X-54.04394 Y30.65724
G01 X-54.26893 Y30.60408
G01 X-54.48529 Y30.57101
G01 X-54.72029 Y30.55447
G01 X-54.94015 Y30.55686
G01 X-55.17769 Y30.57901
G01 X-55.41625 Y30.62206
G01 X-55.63238 Y30.68028
G01 X-55.73075 Y30.71287
G01 X-55.86230 Y30.76344
G01 X-56.01381 Y30.83080
G01 X-56.20266 Y30.93027
G01 X-56.41721 Y31.06791
G01 X-56.57809 Y31.19133
G01 X-56.68607 Y31.28470
G01 X-56.83517 Y31.43080
G01 X-56.96130 Y31.57451
G01 X-57.05064 Y31.68884
G01 X-57.16565 Y31.85625
G01 X-57.26758 Y32.03191
G01 X-57.33280 Y32.16151
G01 X-57.41284 Y32.34820
G01 X-57.47832 Y32.54009
G01 X-57.51642 Y32.67766
G01 X-57.55777 Y32.87187
G01 X-57.58594 Y33.08177
G01 X-57.59577 Y33.21614
G01 X-57.59867 Y33.41921
G01 X-57.58609 Y33.62193
G01 X-57.56854 Y33.76595
G01 X-57.53166 Y33.96567
G01 X-57.47967 Y34.16201
G01 X-57.43425 Y34.29980
G01 X-57.35902 Y34.48845
G01 X-57.26961 Y34.67082
G01 X-57.20352 Y34.78822
G01 X-57.09336 Y34.95886
G01 X-56.96405 Y35.12868
G01 X-56.86923 Y35.23851
G01 X-56.72734 Y35.38383
G01 X-56.58272 Y35.51123
G01 X-56.46872 Y35.60097
G01 X-56.31020 Y35.71065
G01 X-56.13504 Y35.81339
G01 X-56.01538 Y35.87534
G01 X-55.81132 Y35.96399
G01 X-55.62359 Y36.02866
G01 X-55.48622 Y36.06747
G01 X-55.27815 Y36.11202
G01 X-55.07685 Y36.13902
G01 X-54.93217 Y36.14976
G01 X-54.71871 Y36.15205
G01 X-54.51597 Y36.13851
G01 X-54.35117 Y36.11639
G01 X-54.11922 Y36.06927
G01 X-53.99235 Y36.03358
G01 X-53.77538 Y35.95908
G01 X-53.62481 Y35.89371
G01 X-53.40208 Y35.77958
G01 X-53.20500 Y35.65319
G01 X-53.21089 Y35.63328
G01 X-53.20500 Y35.65319
G01 X-52.37604 Y35.65309
G01 X-52.21097 Y35.64456
G01 X-52.03228 Y35.62391
G01 X-51.86444 Y35.59053
G01 X-51.65334 Y35.52904
G01 X-51.50259 Y35.47229
G01 X-51.36586 Y35.40826
G01 X-51.18245 Y35.30636
G01 X-51.04879 Y35.21654
G01 X-50.91580 Y35.11136
G01 X-50.80277 Y35.01123
G01 X-50.69764 Y34.90285
G01 X-50.57605 Y34.75728
G01 X-50.48715 Y34.63521
G01 X-50.40775 Y34.50679
G01 X-50.32360 Y34.34809
G01 X-50.26233 Y34.21007
G01 X-50.21163 Y34.06785
G01 X-50.16182 Y33.89528
G01 X-50.12921 Y33.73755
G01 X-50.10541 Y33.53925
G01 X-50.09705 Y33.38848
G01 X-50.09675 Y33.35828
G01 X-50.59675 Y33.35830
G01 X-50.60127 Y33.23656
G01 X-50.62144 Y33.05706
G01 X-50.64806 Y32.92777
G01 X-50.69017 Y32.78360
G01 X-50.73180 Y32.66910
G01 X-50.77803 Y32.56742
G01 X-50.85418 Y32.42633
G01 X-50.92017 Y32.32391
G01 X-51.02507 Y32.18952
G01 X-51.10612 Y32.09856
G01 X-51.19431 Y32.01446
G01 X-51.31826 Y31.91276
G01 X-51.40937 Y31.84822
G01 X-51.51402 Y31.78574
G01 X-51.65669 Y31.71261
G01 X-51.78854 Y31.65955
G01 X-51.94176 Y31.61236
G01 X-52.05054 Y31.58686
G01 X-52.16086 Y31.56953
G01 X-52.31260 Y31.55561
G01 X-53.36812 Y31.55325
G01 X-53.37482 Y31.57517
G01 X-53.36812 Y31.55325
G01 X-53.48008 Y31.46936
G01 X-53.60327 Y31.38907
G01 X-53.78305 Y31.29011
G01 X-53.95524 Y31.21388
G01 X-54.14447 Y31.14853
G01 X-54.31851 Y31.10418
G01 X-54.50489 Y31.07228
G01 X-54.65884 Y31.05788
G01 X-54.83616 Y31.05401
G01 X-54.95991 Y31.05932
G01 X-55.11909 Y31.07571
G01 X-55.32054 Y31.11309
G01 X-55.50819 Y31.16524
G01 X-55.67108 Y31.22552
G01 X-55.77746 Y31.27179
G01 X-55.94104 Y31.35655
G01 X-56.08828 Y31.44868
G01 X-56.18262 Y31.51622
G01 X-56.31658 Y31.62460
G01 X-56.45432 Y31.75599
G01 X-56.57555 Y31.89265
G01 X-56.64086 Y31.97548
G01 X-56.73974 Y32.11825
G01 X-56.82188 Y32.25919
G01 X-56.87487 Y32.36242
G01 X-56.94390 Y32.52180
G01 X-57.00004 Y32.68596
G01 X-57.03062 Y32.79595
G01 X-57.06593 Y32.96183
G01 X-57.08856 Y33.13283
G01 X-57.09661 Y33.24857
G01 X-57.09803 Y33.43280
G01 X-57.08310 Y33.62698
G01 X-57.05734 Y33.78807
G01 X-57.03296 Y33.90151
G01 X-56.98541 Y34.06854
G01 X-56.92478 Y34.23128
G01 X-56.87792 Y34.33742
G01 X-56.79798 Y34.49163
G01 X-56.70611 Y34.63902
G01 X-56.64515 Y34.72510
G01 X-56.53662 Y34.86069
G01 X-56.41767 Y34.98723
G01 X-56.33311 Y35.06668
G01 X-56.19971 Y35.17788
G01 X-56.05790 Y35.27819
G01 X-55.95899 Y35.33884
G01 X-55.78704 Y35.43021
G01 X-55.62849 Y35.49861
G01 X-55.46801 Y35.55347
G01 X-55.35803 Y35.58405
G01 X-55.18849 Y35.62010
G01 X-55.01627 Y35.64268
G01 X-54.90053 Y35.65055
G01 X-54.73741 Y35.65241
G01 X-54.55498 Y35.63998
G01 X-54.43504 Y35.62347
G01 X-54.22163 Y35.57946
G01 X-54.01122 Y35.51293
G01 X-53.90845 Y35.47359
G01 X-53.71310 Y35.37984
G01 X-53.59174 Y35.30996
G01 X-53.45219 Y35.21664
G01 X-53.36794 Y35.15322
G01 X-53.37462 Y35.13140
G01 X-53.36794 Y35.15322
G01 X-52.39672 Y35.15322
G01 X-52.30211 Y35.15022
G01 X-52.14071 Y35.13440
G01 X-52.02067 Y35.11347
G01 X-51.90277 Y35.08286
G01 X-51.74089 Y35.02942
G01 X-51.62913 Y34.98088
G01 X-51.49621 Y34.91090
G01 X-51.40091 Y34.85269
G01 X-51.30221 Y34.78126
G01 X-51.18669 Y34.68527
G01 X-51.10612 Y34.60791
G01 X-51.03155 Y34.52477
G01 X-50.92603 Y34.39086
G01 X-50.85418 Y34.28014
G01 X-50.78722 Y34.15716
G01 X-50.73965 Y34.05609
G01 X-50.69972 Y33.95180
G01 X-50.65583 Y33.80816
G01 X-50.63033 Y33.69940
G01 X-50.61301 Y33.58909
G01 X-50.59921 Y33.43951
G01 X-50.59675 Y33.35830
G01 X-51.09672 Y33.35840
G01 X-51.09972 Y33.27580
G01 X-51.11529 Y33.13521
G01 X-51.13437 Y33.04423
G01 X-51.16566 Y32.93826
G01 X-51.19367 Y32.86054
G01 X-51.22804 Y32.78535
G01 X-51.28560 Y32.67913
G01 X-51.33043 Y32.60971
G01 X-51.41156 Y32.50672
G01 X-51.46660 Y32.44505
G01 X-51.52654 Y32.38815
G01 X-51.61991 Y32.31149
G01 X-51.68743 Y32.26382
G01 X-51.75865 Y32.22188
G01 X-51.86606 Y32.16664
G01 X-51.96208 Y32.12859
G01 X-52.07770 Y32.09353
G01 X-52.15832 Y32.07532
G01 X-52.24015 Y32.06382
G01 X-52.36726 Y32.05368
G01 X-53.55463 Y32.05325
G01 X-53.56499 Y32.08226
G01 X-53.55463 Y32.05325
G01 X-53.67556 Y31.94754
G01 X-53.76680 Y31.87898
G01 X-53.85605 Y31.82076
G01 X-53.99997 Y31.74068
G01 X-54.14419 Y31.67682
G01 X-54.29461 Y31.62551
G01 X-54.43888 Y31.58975
G01 X-54.59486 Y31.56496
G01 X-54.72882 Y31.55465
G01 X-54.85602 Y31.55424
G01 X-54.99369 Y31.56400
G01 X-55.06352 Y31.57309
G01 X-55.19923 Y31.59821
G01 X-55.34167 Y31.63707
G01 X-55.48950 Y31.69135
G01 X-55.57055 Y31.72717
G01 X-55.69288 Y31.79061
G01 X-55.80962 Y31.86384
G01 X-55.87383 Y31.90946
G01 X-55.99288 Y32.00580
G01 X-56.10202 Y32.11093
G01 X-56.19590 Y32.21802
G01 X-56.24424 Y32.28020
G01 X-56.32760 Y32.40207
G01 X-56.40489 Y32.53928
G01 X-56.46199 Y32.66470
G01 X-56.49084 Y32.73798
G01 X-56.53697 Y32.88307
G01 X-56.57228 Y33.04149
G01 X-56.58988 Y33.17288
G01 X-56.59641 Y33.25137
G01 X-56.59859 Y33.40885
G01 X-56.58686 Y33.56590
G01 X-56.56483 Y33.70194
G01 X-56.54822 Y33.77893
G01 X-56.50763 Y33.92089
G01 X-56.45518 Y34.05891
G01 X-56.42242 Y34.13054
G01 X-56.35861 Y34.25269
G01 X-56.27403 Y34.38555
G01 X-56.18419 Y34.50272
G01 X-56.13258 Y34.56221
G01 X-56.02922 Y34.66765
G01 X-55.90962 Y34.77014
G01 X-55.78955 Y34.85609
G01 X-55.72285 Y34.89795
G01 X-55.60212 Y34.96440
G01 X-55.46557 Y35.02528
G01 X-55.27088 Y35.09040
G01 X-55.13296 Y35.12190
G01 X-55.05521 Y35.13445
G01 X-54.92803 Y35.14865
G01 X-54.79029 Y35.15289
G01 X-54.71155 Y35.15076
G01 X-54.57152 Y35.13874
G01 X-54.38783 Y35.10509
G01 X-54.28991 Y35.07887
G01 X-54.11186 Y35.01672
G01 X-53.94168 Y34.93516
G01 X-53.84449 Y34.87786
G01 X-53.73908 Y34.80714
G01 X-53.67452 Y34.75805
G01 X-53.55504 Y34.65322
G01 X-53.56667 Y34.62218
G01 X-53.55504 Y34.65322
G01 X-52.36726 Y34.65279
G01 X-52.22989 Y34.64159
G01 X-52.14816 Y34.62924
G01 X-52.05778 Y34.60735
G01 X-51.93287 Y34.56749
G01 X-51.84737 Y34.53105
G01 X-51.74953 Y34.47966
G01 X-51.68743 Y34.44265
G01 X-51.61991 Y34.39498
G01 X-51.52654 Y34.31832
G01 X-51.46660 Y34.26143
G01 X-51.41816 Y34.20770
G01 X-51.33642 Y34.10516
G01 X-51.28560 Y34.02734
G01 X-51.22804 Y33.92112
G01 X-51.19766 Y33.85548
G01 X-51.17206 Y33.78784
G01 X-51.13975 Y33.68220
G01 X-51.12070 Y33.60179
G01 X-51.10950 Y33.53034
G01 X-51.09779 Y33.39973
G01 X-51.09672 Y33.35840
G01 X-51.59667 Y33.35325
G01 X-51.61023 Y33.20682
G01 X-51.64402 Y33.08393
G01 X-51.66548 Y33.02909
G01 X-51.70627 Y32.95086
G01 X-51.75461 Y32.87702
G01 X-51.83802 Y32.78068
G01 X-51.95225 Y32.68805
G01 X-52.08153 Y32.61797
G01 X-52.20246 Y32.57776
G01 X-52.26967 Y32.56371
G01 X-52.38689 Y32.55333
G01 X-53.77558 Y32.55322
G01 X-53.81762 Y32.50123
G01 X-53.88394 Y32.43042
G01 X-53.96306 Y32.35818
G01 X-54.05351 Y32.28858
G01 X-54.15199 Y32.22605
G01 X-54.25341 Y32.17380
G01 X-54.33317 Y32.13979
G01 X-54.41516 Y32.11165
G01 X-54.52895 Y32.08180
G01 X-54.63456 Y32.06384
G01 X-54.74828 Y32.05427
G01 X-54.83459 Y32.05399
G01 X-54.97535 Y32.06532
G01 X-55.08338 Y32.08464
G01 X-55.18788 Y32.11302
G01 X-55.32613 Y32.16473
G01 X-55.46578 Y32.23743
G01 X-55.55653 Y32.29646
G01 X-55.64911 Y32.36933
G01 X-55.73941 Y32.45521
G01 X-55.81033 Y32.53641
G01 X-55.90197 Y32.66443
G01 X-55.95993 Y32.76735
G01 X-56.00436 Y32.86610
G01 X-56.05463 Y33.01477
G01 X-56.07962 Y33.12698
G01 X-56.09473 Y33.24365
G01 X-56.09783 Y33.41088
G01 X-56.09011 Y33.50900
G01 X-56.07233 Y33.61581
G01 X-56.03159 Y33.76788
G01 X-55.98886 Y33.87801
G01 X-55.93621 Y33.98375
G01 X-55.84563 Y34.12437
G01 X-55.77810 Y34.20900
G01 X-55.70339 Y34.28738
G01 X-55.57581 Y34.39554
G01 X-55.48658 Y34.45683
G01 X-55.38356 Y34.51464
G01 X-55.26684 Y34.56633
G01 X-55.16707 Y34.59985
G01 X-55.00477 Y34.63681
G01 X-54.88742 Y34.65027
G01 X-54.77916 Y34.65297
G01 X-54.62344 Y34.64118
G01 X-54.44917 Y34.60486
G01 X-54.32854 Y34.56457
G01 X-54.27589 Y34.54240
G01 X-54.14655 Y34.47738
G01 X-54.03370 Y34.40290
G01 X-53.98978 Y34.36993
G01 X-53.88709 Y34.27918
G01 X-53.77497 Y34.15325
G01 X-52.38689 Y34.15314
G01 X-52.25026 Y34.13968
G01 X-52.11808 Y34.10280
G01 X-52.06368 Y34.08027
G01 X-51.99433 Y34.04365
G01 X-51.92050 Y33.99533
G01 X-51.82415 Y33.91192
G01 X-51.73706 Y33.80580
G01 X-51.67404 Y33.69503
G01 X-51.64107 Y33.61319
G01 X-51.61023 Y33.49965
G01 X-51.59667 Y33.35325
G04 P0 ( dwell for no time -- G64 should not smooth over this point )
G00 Z1.00000 ( retract )

G00 X-51.09215 Y29.27617 ( rapid move to begin. )
G01 F20.00000
( Mill infeed pass 1/1 )
G01 Z-0.30000
G04 P0 ( dwell for no time -- G64 should not smooth over this point )
G01 F30.00000
G01 X-51.09215 Y29.27617
G01 X-50.96990 Y29.29745
G01 X-50.71829 Y29.39443
G01 X-50.47780 Y29.50611
G01 X-50.21097 Y29.65087
G01 X-50.00356 Y29.78081
G01 X-49.81260 Y29.91703
G01 X-49.59226 Y30.09491
G01 X-49.41080 Y30.25915
G01 X-49.25357 Y30.41922
G01 X-49.09906 Y30.59570
G01 X-48.93602 Y30.80177
G01 X-48.78507 Y31.01975
G01 X-48.65886 Y31.22945
G01 X-48.53137 Y31.47083
G01 X-48.42604 Y31.70301
G01 X-48.34240 Y31.92216
G01 X-48.25746 Y32.19229
G01 X-48.20171 Y32.40961
G01 X-48.15652 Y32.63979
G01 X-48.12386 Y32.88236
G01 X-48.10224 Y33.14423
G01 X-48.09693 Y33.38893
G01 X-48.10661 Y33.63351
G01 X-48.13567 Y33.92543
G01 X-48.17450 Y34.16709
G01 X-48.22553 Y34.39602
G01 X-48.30389 Y34.66813
G01 X-48.38080 Y34.88974
G01 X-48.47057 Y35.10643
G01 X-48.57288 Y35.31751
G01 X-48.69950 Y35.54778
G01 X-48.83569 Y35.76330
G01 X-48.96051 Y35.93734
G01 X-49.09906 Y36.11077
G01 X-49.21227 Y36.24209
G01 X-49.34542 Y36.38291
G01 X-49.47768 Y36.51021
G01 X-49.62347 Y36.63785
G01 X-49.78829 Y36.77084
G01 X-49.95299 Y36.89121
G01 X-50.10628 Y36.99223
G01 X-50.27292 Y37.09109
G01 X-50.47780 Y37.20036
G01 X-50.65281 Y37.28354
G01 X-50.82215 Y37.35443
G01 X-51.00419 Y37.42078
G01 X-51.20635 Y37.48392
G01 X-51.38359 Y37.53183
G01 X-51.55283 Y37.56955
G01 X-51.70340 Y37.59670
G01 X-51.86500 Y37.61930
G01 X-52.04473 Y37.63764
G01 X-52.20546 Y37.64859
G01 X-52.35644 Y37.65296
G01 X-52.67030 Y37.65316
G01 X-52.67251 Y37.64300
G01 X-52.67030 Y37.65316
G01 X-52.78140 Y37.70727
G01 X-52.93111 Y37.77458
G01 X-53.06433 Y37.82840
G01 X-53.37792 Y37.93683
G01 X-53.60198 Y38.00140
G01 X-53.81950 Y38.05085
G01 X-54.13207 Y38.10645
G01 X-54.35420 Y38.13198
G01 X-54.64467 Y38.15067
G01 X-54.78602 Y38.15288
G01 X-54.95564 Y38.14991
G01 X-55.17751 Y38.13825
G01 X-55.48655 Y38.10343
G01 X-55.72547 Y38.06274
G01 X-56.00037 Y38.00041
G01 X-56.24525 Y37.92957
G01 X-56.51955 Y37.83439
G01 X-56.79836 Y37.71661
G01 X-57.02516 Y37.60577
G01 X-57.28729 Y37.45801
G01 X-57.49107 Y37.32682
G01 X-57.72711 Y37.15697
G01 X-57.95922 Y36.96551
G01 X-58.13074 Y36.80892
G01 X-58.34052 Y36.59320
G01 X-58.49960 Y36.41034
G01 X-58.67212 Y36.18890
G01 X-58.82086 Y35.97257
G01 X-58.97773 Y35.71580
G01 X-59.11710 Y35.44913
G01 X-59.22162 Y35.21934
G01 X-59.32655 Y34.94811
G01 X-59.39813 Y34.72716
G01 X-59.47329 Y34.44624
G01 X-59.51992 Y34.21870
G01 X-59.56567 Y33.92132
G01 X-59.59208 Y33.61144
G01 X-59.59914 Y33.36920
G01 X-59.59196 Y33.08855
G01 X-59.57212 Y32.84703
G01 X-59.53122 Y32.54713
G01 X-59.47319 Y32.26267
G01 X-59.40923 Y32.01591
G01 X-59.31588 Y31.72859
G01 X-59.23183 Y31.51208
G01 X-59.11251 Y31.24688
G01 X-59.00001 Y31.03222
G01 X-58.85241 Y30.78168
G01 X-58.68289 Y30.53306
G01 X-58.54316 Y30.34944
G01 X-57.54609 Y30.08909
G01 X-57.62170 Y30.10911
G01 X-57.73108 Y30.20837
G01 X-57.84515 Y30.31830
G01 X-57.94515 Y30.42171
G01 X-58.15040 Y30.65887
G01 X-58.27931 Y30.82823
G01 X-58.43207 Y31.05244
G01 X-58.57428 Y31.29531
G01 X-58.66315 Y31.46616
G01 X-58.77027 Y31.70436
G01 X-58.84037 Y31.88371
G01 X-58.92239 Y32.13285
G01 X-58.97822 Y32.34126
G01 X-59.02863 Y32.57652
G01 X-59.06028 Y32.77954
G01 X-59.08721 Y33.02927
G01 X-59.09818 Y33.29021
G01 X-59.09597 Y33.52330
G01 X-59.07753 Y33.78383
G01 X-59.05249 Y33.98500
G01 X-59.01052 Y34.22223
G01 X-58.96468 Y34.41967
G01 X-58.89257 Y34.67072
G01 X-58.83255 Y34.84298
G01 X-58.73920 Y35.07603
G01 X-58.65749 Y35.25042
G01 X-58.53580 Y35.48151
G01 X-58.40456 Y35.69551
G01 X-58.30260 Y35.84679
G01 X-58.14426 Y36.05449
G01 X-58.02038 Y36.20193
G01 X-57.84124 Y36.39198
G01 X-57.69478 Y36.53213
G01 X-57.53552 Y36.66983
G01 X-57.41683 Y36.76482
G01 X-57.29412 Y36.85461
G01 X-57.10309 Y36.98408
G01 X-56.96428 Y37.06790
G01 X-56.77106 Y37.17445
G01 X-56.62549 Y37.24592
G01 X-56.45092 Y37.32294
G01 X-56.27881 Y37.39063
G01 X-56.09953 Y37.45118
G01 X-55.96192 Y37.49307
G01 X-55.81272 Y37.53165
G01 X-55.62638 Y37.57267
G01 X-55.46669 Y37.60102
G01 X-55.24787 Y37.62921
G01 X-55.08633 Y37.64361
G01 X-54.81516 Y37.65271
G01 X-54.61249 Y37.64900
G01 X-54.33060 Y37.62743
G01 X-54.09689 Y37.59467
G01 X-53.87381 Y37.55161
G01 X-53.71417 Y37.51397
G01 X-53.55646 Y37.46889
G01 X-53.34856 Y37.39995
G01 X-53.19641 Y37.34316
G01 X-53.03779 Y37.27516
G01 X-52.78834 Y37.15316
G01 X-52.79065 Y37.14260
G01 X-52.78834 Y37.15316
G01 X-52.32596 Y37.15245
G01 X-52.15435 Y37.14476
G01 X-51.95491 Y37.12637
G01 X-51.77470 Y37.10175
G01 X-51.58610 Y37.06566
G01 X-51.40955 Y37.02197
G01 X-51.21768 Y36.96462
G01 X-51.03645 Y36.90125
G01 X-50.84973 Y36.82390
G01 X-50.68578 Y36.74519
G01 X-50.48298 Y36.63539
G01 X-50.32779 Y36.54054
G01 X-50.16955 Y36.43180
G01 X-50.04110 Y36.33363
G01 X-49.86426 Y36.18563
G01 X-49.73127 Y36.06155
G01 X-49.60490 Y35.93071
G01 X-49.49195 Y35.80130
G01 X-49.34212 Y35.61293
G01 X-49.23719 Y35.46437
G01 X-49.14008 Y35.31055
G01 X-49.03287 Y35.11789
G01 X-48.95563 Y34.96445
G01 X-48.87834 Y34.78870
G01 X-48.81410 Y34.61855
G01 X-48.74743 Y34.40839
G01 X-48.69782 Y34.22292
G01 X-48.66028 Y34.04494
G01 X-48.63203 Y33.86526
G01 X-48.60988 Y33.65604
G01 X-48.59853 Y33.46437
G01 X-48.59749 Y33.28251
G01 X-48.60590 Y33.10080
G01 X-48.62703 Y32.88132
G01 X-48.65494 Y32.69137
G01 X-48.69094 Y32.51309
G01 X-48.73615 Y32.33692
G01 X-48.79785 Y32.13578
G01 X-48.86330 Y31.95528
G01 X-48.92604 Y31.80626
G01 X-48.99104 Y31.66933
G01 X-49.07986 Y31.50116
G01 X-49.15571 Y31.36994
G01 X-49.23719 Y31.24210
G01 X-49.32411 Y31.11792
G01 X-49.40371 Y31.01343
G01 X-49.52451 Y30.86654
G01 X-49.62550 Y30.75351
G01 X-49.73127 Y30.64492
G01 X-49.84166 Y30.54104
G01 X-49.94864 Y30.44848
G01 X-50.08075 Y30.34152
G01 X-50.19413 Y30.25691
G01 X-50.32779 Y30.16593
G01 X-50.46551 Y30.08122
G01 X-50.71280 Y29.94757
G01 X-50.94254 Y29.84256
G01 X-51.17922 Y29.75437
G01 X-51.44859 Y29.67401
G01 X-51.61577 Y29.63443
G01 X-51.77470 Y29.60472
G01 X-51.92479 Y29.58356
G01 X-52.11404 Y29.56474
G01 X-52.25527 Y29.55615
G01 X-52.38661 Y29.55331
G01 X-52.78841 Y29.55331
G01 X-52.79098 Y29.56423
G01 X-52.78841 Y29.55331
G01 X-52.91546 Y29.48805
G01 X-53.04401 Y29.42841
G01 X-53.25704 Y29.33949
G01 X-53.46535 Y29.26603
G01 X-53.63312 Y29.21457
G01 X-53.84724 Y29.16032
G01 X-54.00896 Y29.12676
G01 X-54.19303 Y29.09654
G01 X-54.48907 Y28.66677
G01 X-54.34681 Y28.62077
G01 X-54.33454 Y28.60878
G01 X-54.18778 Y28.45552
G01 X-54.05524 Y28.29989
G01 X-54.07416 Y28.25714
G01 X-54.05524 Y28.29989
G01 X-49.53452 Y28.29954
G01 X-49.31247 Y28.28928
G01 X-49.04301 Y28.26057
G01 X-48.81402 Y28.22085
G01 X-48.58819 Y28.16601
G01 X-48.40605 Y28.11135
G01 X-48.26267 Y28.06215
G01 X-48.12157 Y28.00678
G01 X-47.97387 Y27.94104
G01 X-47.83828 Y27.87327
G01 X-47.65388 Y27.77200
G01 X-47.51616 Y27.68730
G01 X-47.37430 Y27.59042
G01 X-47.26117 Y27.50548
G01 X-47.14481 Y27.41120
G01 X-46.96328 Y27.25044
G01 X-46.04151 Y26.33035
G01 X-46.27606 Y25.85570
G01 X-47.30989 Y26.89007
G01 X-47.40770 Y26.97874
G01 X-47.52312 Y27.07485
G01 X-47.71812 Y27.22100
G01 X-47.86307 Y27.31470
G01 X-48.00425 Y27.39514
G01 X-48.17387 Y27.48252
G01 X-48.34103 Y27.55643
G01 X-48.50277 Y27.61678
G01 X-48.69467 Y27.67650
G01 X-48.85192 Y27.71732
G01 X-49.02116 Y27.75128
G01 X-49.16183 Y27.77190
G01 X-49.31123 Y27.78740
G01 X-49.44293 Y27.79654
G01 X-49.56475 Y27.79984
G01 X-54.30162 Y27.79992
G01 X-54.32549 Y27.75034
G01 X-54.30162 Y27.79992
G01 X-54.35006 Y27.86642
G01 X-54.42511 Y27.96243
G01 X-54.54805 Y28.10835
G01 X-54.64513 Y28.21224
G01 X-54.74701 Y28.31140
G01 X-54.93802 Y28.47533
G01 X-55.10799 Y28.60408
G01 X-55.28668 Y28.72044
G01 X-55.48894 Y28.83286
G01 X-55.66250 Y28.91711
G01 X-55.85064 Y28.99357
G01 X-56.08033 Y29.06839
G01 X-56.26682 Y29.11782
G01 X-56.45612 Y29.15514
G01 X-56.63730 Y29.17919
G01 X-56.85785 Y29.19705
G01 X-57.07106 Y29.19956
G01 X-57.29402 Y29.18597
G01 X-57.44337 Y29.16987
G01 X-57.57388 Y29.15006
G01 X-57.80220 Y29.10101
G01 X-58.04375 Y29.03012
G01 X-58.24403 Y28.95694
G01 X-58.45678 Y28.86067
G01 X-58.67832 Y28.74114
G01 X-58.87529 Y28.61572
G01 X-59.01431 Y28.51335
G01 X-59.18004 Y28.37685
G01 X-58.98688 Y27.87325
G01 X-58.87575 Y27.97861
G01 X-58.75261 Y28.08239
G01 X-58.64763 Y28.16398
G01 X-58.53849 Y28.23985
G01 X-58.40776 Y28.32003
G01 X-58.25701 Y28.40139
G01 X-58.13720 Y28.45895
G01 X-58.01449 Y28.51008
G01 X-57.88924 Y28.55460
G01 X-57.72528 Y28.60411
G01 X-57.58627 Y28.63832
G01 X-57.45564 Y28.66291
G01 X-57.32389 Y28.68054
G01 X-57.13285 Y28.69689
G01 X-56.98975 Y28.70040
G01 X-56.84667 Y28.69573
G01 X-56.63542 Y28.67586
G01 X-56.47380 Y28.65054
G01 X-56.30431 Y28.61211
G01 X-56.11071 Y28.55460
G01 X-55.94741 Y28.49504
G01 X-55.79786 Y28.42875
G01 X-55.61000 Y28.33012
G01 X-55.47002 Y28.24544
G01 X-55.31142 Y28.13327
G01 X-55.14721 Y27.99890
G01 X-55.01289 Y27.87310
G01 X-54.88818 Y27.73774
G01 X-54.79235 Y27.62126
G01 X-54.71846 Y27.52331
G01 X-54.64393 Y27.41323
G01 X-54.57566 Y27.29992
G01 X-54.60804 Y27.23993
G01 X-54.57566 Y27.29992
G01 X-49.55438 Y27.29974
G01 X-49.42154 Y27.29456
G01 X-49.26114 Y27.28003
G01 X-49.14961 Y27.26558
G01 X-49.02878 Y27.24412
G01 X-48.87951 Y27.20896
G01 X-48.70552 Y27.15725
G01 X-48.57054 Y27.10957
G01 X-48.44783 Y27.05847
G01 X-48.32802 Y27.00089
G01 X-48.15959 Y26.90932
G01 X-48.03803 Y26.83373
G01 X-47.92099 Y26.75131
G01 X-47.74781 Y26.61178
G01 X-47.62703 Y26.50142
G01 X-46.67357 Y25.54798
G01 X-46.59005 Y25.45806
G01 X-46.51278 Y25.36657
G01 X-46.75983 Y24.86353
G01 X-46.87319 Y25.01758
G01 X-46.95693 Y25.11814
G01 X-47.03415 Y25.20155
G01 X-47.97344 Y26.14084
G01 X-48.07250 Y26.23157
G01 X-48.18896 Y26.32687
G01 X-48.29475 Y26.40388
G01 X-48.40536 Y26.47381
G01 X-48.55423 Y26.55499
G01 X-48.67247 Y26.61110
G01 X-48.81311 Y26.66606
G01 X-48.95563 Y26.71094
G01 X-49.07239 Y26.74193
G01 X-49.20074 Y26.76746
G01 X-49.40960 Y26.79222
G01 X-49.57473 Y26.79990
G01 X-54.88320 Y26.79992
G01 X-54.92806 Y26.72654
G01 X-54.88320 Y26.79992
G01 X-54.93134 Y26.90434
G01 X-54.99631 Y27.02763
G01 X-55.04685 Y27.11470
G01 X-55.10174 Y27.19911
G01 X-55.19816 Y27.32811
G01 X-55.27426 Y27.41988
G01 X-55.34896 Y27.50165
G01 X-55.47297 Y27.61958
G01 X-55.62783 Y27.74574
G01 X-55.75165 Y27.83215
G01 X-55.88165 Y27.90896
G01 X-56.05061 Y27.99514
G01 X-56.20903 Y28.05984
G01 X-56.38985 Y28.11711
G01 X-56.54634 Y28.15526
G01 X-56.69539 Y28.17947
G01 X-56.88424 Y28.19707
G01 X-56.99493 Y28.20043
G01 X-57.09559 Y28.19814
G01 X-57.34449 Y28.17411
G01 X-57.54202 Y28.13535
G01 X-57.76242 Y28.06984
G01 X-57.86615 Y28.03108
G01 X-57.95848 Y27.99093
G01 X-58.17098 Y27.87942
G01 X-58.33976 Y27.76969
G01 X-58.50407 Y27.63926
G01 X-58.65099 Y27.50165
G01 X-58.78779 Y27.34521
G01 X-58.57215 Y26.77444
G01 X-58.51599 Y26.87069
G01 X-58.45269 Y26.96271
G01 X-58.35861 Y27.07978
G01 X-58.28347 Y27.16243
G01 X-58.20237 Y27.23924
G01 X-58.08647 Y27.33474
G01 X-57.99577 Y27.39992
G01 X-57.90044 Y27.45814
G01 X-57.77669 Y27.52367
G01 X-57.66526 Y27.57294
G01 X-57.56961 Y27.60701
G01 X-57.41558 Y27.65156
G01 X-57.28612 Y27.67731
G01 X-57.14700 Y27.69321
G01 X-57.03552 Y27.70002
G01 X-56.92384 Y27.69852
G01 X-56.74398 Y27.68163
G01 X-56.61403 Y27.65852
G01 X-56.43034 Y27.60701
G01 X-56.30647 Y27.56149
G01 X-56.18706 Y27.50525
G01 X-56.02120 Y27.41102
G01 X-55.90548 Y27.32850
G01 X-55.76743 Y27.21201
G01 X-55.65455 Y27.09522
G01 X-55.52343 Y26.92979
G01 X-55.44231 Y26.80094
G01 X-55.35099 Y26.62197
G01 X-55.29974 Y26.48941
G01 X-55.24503 Y26.29995
G01 X-55.31632 Y26.20287
G01 X-55.24503 Y26.29995
G01 X-49.58507 Y26.29995
G01 X-49.49045 Y26.29692
G01 X-49.36940 Y26.28593
G01 X-49.21898 Y26.26230
G01 X-49.12035 Y26.23815
G01 X-48.97691 Y26.19365
G01 X-48.89155 Y26.16098
G01 X-48.79020 Y26.11410
G01 X-48.67575 Y26.05265
G01 X-48.58083 Y25.99378
G01 X-48.49058 Y25.92802
G01 X-48.38131 Y25.83754
G01 X-48.31230 Y25.77274
G01 X-47.34441 Y24.80155
G01 X-47.24695 Y24.68443
G01 X-47.17555 Y24.58570
G01 X-47.11730 Y24.49040
G01 X-47.04306 Y24.34859
G01 X-47.42835 Y23.95370
G01 X-47.47593 Y24.09218
G01 X-47.54855 Y24.23706
G01 X-47.61471 Y24.34186
G01 X-47.70244 Y24.45149
G01 X-47.75576 Y24.50915
G01 X-48.68697 Y25.43970
G01 X-48.78400 Y25.52243
G01 X-48.85002 Y25.57216
G01 X-48.91989 Y25.61628
G01 X-49.02642 Y25.67320
G01 X-49.10193 Y25.70683
G01 X-49.17011 Y25.73099
G01 X-49.28606 Y25.76485
G01 X-49.37724 Y25.78296
G01 X-49.50661 Y25.79688
G01 X-49.58507 Y25.79995
G01 X-55.69999 Y25.79995
G01 X-55.83042 Y25.66256
G01 X-55.69999 Y25.79995
G01 X-55.70306 Y25.97889
G01 X-55.71409 Y26.08781
G01 X-55.72597 Y26.15913
G01 X-55.77208 Y26.32525
G01 X-55.82216 Y26.44981
G01 X-55.90499 Y26.60104
G01 X-55.97101 Y26.69350
G01 X-56.07710 Y26.81602
G01 X-56.15346 Y26.88560
G01 X-56.28203 Y26.98422
G01 X-56.42292 Y27.06436
G01 X-56.51685 Y27.10731
G01 X-56.67101 Y27.15743
G01 X-56.79216 Y27.18349
G01 X-56.93286 Y27.19819
G01 X-57.03613 Y27.19979
G01 X-57.18731 Y27.18636
G01 X-57.29897 Y27.16535
G01 X-57.43458 Y27.12512
G01 X-57.53999 Y27.08272
G01 X-57.67408 Y27.01158
G01 X-57.77677 Y26.94221
G01 X-57.88556 Y26.85181
G01 X-57.95823 Y26.77838
G01 X-58.05414 Y26.66075
G01 X-58.12140 Y26.55667
G01 X-58.18657 Y26.43109
G01 X-58.22787 Y26.32525
G01 X-58.27184 Y26.16926
G01 X-58.29252 Y26.02517
G04 P0 ( dwell for no time -- G64 should not smooth over this point )
G00 Z1.00000 ( retract )

G00 X-53.94996 Y20.16536 ( rapid move to begin. )
G01 F20.00000
( Mill infeed pass 1/1 )
G01 Z-0.30000
G04 P0 ( dwell for no time -- G64 should not smooth over this point )
G01 F30.00000
G01 X-53.94996 Y20.16536
G01 X-53.77790 Y19.74997
G01 X-53.94996 Y19.33456
G01 X-53.94996 Y18.60172
G01 X-53.96012 Y18.55079
G01 X-53.94823 Y18.61040
G01 X-53.90566 Y18.69097
G01 X-53.86807 Y18.74843
G01 X-53.80586 Y18.82424
G01 X-53.13185 Y19.49948
G01 X-53.48798 Y19.14335
G01 X-53.34025 Y19.49999
G01 X-53.13185 Y19.49948
G01 X-53.00866 Y19.62254
G01 X-52.93383 Y19.68594
G01 X-52.86599 Y19.73280
G01 X-52.84805 Y19.73105
G01 X-52.86395 Y19.73260
G01 X-53.48801 Y20.35663
G01 X-53.13096 Y19.99958
G01 X-53.34028 Y19.99996
G01 X-53.48801 Y20.35663
G01 X-53.77434 Y20.64296
G01 X-53.77475 Y20.65774
G01 X-53.77429 Y20.64098
G01 X-53.79009 Y20.62353
G01 X-53.90109 Y20.51601
G01 X-53.94996 Y20.47634
G01 X-53.94996 Y19.33456
G04 P0 ( dwell for no time -- G64 should not smooth over this point )
G00 Z1.00000 ( retract )

G00 X-53.01963 Y22.13826 ( rapid move to begin. )
G01 F20.00000
( Mill infeed pass 1/1 )
G01 Z-0.30000
G04 P0 ( dwell for no time -- G64 should not smooth over this point )
G01 F30.00000
G01 X-53.01963 Y22.13826
G01 X-53.08049 Y22.18078
G01 X-53.18481 Y22.23524
G01 X-53.24003 Y22.25561
G01 X-53.35356 Y22.28642
G01 X-53.47056 Y22.29909
G01 X-53.53921 Y22.29843
G01 X-53.66568 Y22.28258
G01 X-53.70452 Y22.27242
G01 X-53.70863 Y22.26053
G01 X-53.70452 Y22.27242
G01 X-53.70713 Y22.27605
G01 X-53.79923 Y22.38619
G01 X-53.86296 Y22.45035
G01 X-53.92031 Y22.49993
G01 X-53.94866 Y22.51011
G01 X-53.92031 Y22.49993
G01 X-53.38135 Y22.49995
G01 X-53.01963 Y22.13826
G01 X-52.93749 Y22.06247
G01 X-52.66246 Y21.78746
G01 X-52.58024 Y21.71164
G01 X-51.95659 Y21.08802
G01 X-51.86380 Y21.05477
G01 X-51.81514 Y21.05000
G01 X-51.86380 Y21.05477
G01 X-51.95659 Y21.08802
G01 X-51.91859 Y21.05000
G01 X-51.21422 Y21.05000
G01 X-50.98677 Y21.06112
G01 X-50.98611 Y21.05660
G01 X-50.98677 Y21.06112
G01 X-50.93559 Y21.07039
G01 X-50.88740 Y21.09003
G01 X-50.88476 Y21.08444
G01 X-50.88740 Y21.09003
G01 X-50.84432 Y21.11924
G01 X-50.84102 Y21.11558
G01 X-50.84432 Y21.11924
G01 X-50.80826 Y21.15673
G01 X-50.74498 Y21.23836
G01 X-50.80826 Y21.15673
G01 X-50.84432 Y21.11924
G01 X-50.88740 Y21.09003
G01 X-50.93559 Y21.07039
G01 X-50.98677 Y21.06112
G01 X-51.06383 Y21.05538
G01 X-51.21422 Y21.05000
G01 X-50.83134 Y21.05000
G01 X-50.74498 Y21.13636
G01 X-50.74498 Y21.70471
G01 X-50.73480 Y21.72414
G01 X-50.74651 Y21.70189
G01 X-50.78705 Y21.67423
G01 X-50.87318 Y21.62731
G01 X-50.92710 Y21.60372
G01 X-51.06855 Y21.56353
G01 X-51.13211 Y21.55571
G01 X-51.13457 Y21.55241
G01 X-51.18900 Y21.55068
G01 X-51.13211 Y21.55571
G01 X-51.21499 Y21.54997
G01 X-52.10000 Y21.54997
G01 X-52.21724 Y21.55922
G01 X-52.29423 Y21.57451
G01 X-52.40614 Y21.61088
G01 X-52.51948 Y21.66917
G01 X-52.58024 Y21.71164
G04 P0 ( dwell for no time -- G64 should not smooth over this point )
G00 Z1.00000 ( retract )

G00 X-50.82995 Y23.04966 ( rapid move to begin. )
G01 F20.00000
( Mill infeed pass 1/1 )
G01 Z-0.30000
G04 P0 ( dwell for no time -- G64 should not smooth over this point )
G01 F30.00000
G01 X-50.82995 Y23.04966
G01 X-50.82995 Y23.13396
G01 X-50.90935 Y23.14979
G01 X-51.14801 Y23.17326
G01 X-51.65494 Y23.17275
G01 X-51.75105 Y23.19167
G01 X-51.85661 Y23.23803
G01 X-52.31856 Y23.69993
G01 X-51.66535 Y23.69995
G01 X-51.60498 Y23.67496
G01 X-51.21496 Y23.67496
G01 X-51.06769 Y23.67054
G01 X-50.82964 Y23.64407
G01 X-50.57996 Y23.59020
G01 X-50.50249 Y23.60940
G01 X-50.27150 Y23.65332
G01 X-50.09223 Y23.66988
G01 X-49.99462 Y23.66988
G01 X-49.99309 Y23.68055
G01 X-49.99462 Y23.66988
G01 X-49.93650 Y23.65418
G01 X-49.82484 Y23.60839
G01 X-49.91641 Y23.69995
G01 X-52.31856 Y23.69993
G01 X-52.34310 Y23.71009
G01 X-52.31856 Y23.69993
G01 X-51.76860 Y23.14999
G01 X-51.19535 Y23.14959
G01 X-51.08793 Y23.13950
G01 X-51.02073 Y23.12546
G01 X-50.89977 Y23.08525
G01 X-50.80399 Y23.03567
G01 X-50.76241 Y23.00963
G01 X-50.67811 Y22.94232
G01 X-50.64242 Y22.90867
G01 X-50.57996 Y22.83498
G01 X-50.57996 Y22.81878
G01 X-50.57996 Y22.83498
G01 X-50.51067 Y22.91568
G01 X-50.42118 Y22.99208
G01 X-50.36447 Y23.03079
G01 X-50.27798 Y23.07702
G01 X-50.21428 Y23.10267
G01 X-50.11064 Y23.13259
G01 X-50.01410 Y23.14560
G01 X-50.11064 Y23.13259
G01 X-50.20493 Y23.10562
G01 X-50.26015 Y23.08525
G01 X-50.32997 Y23.04966
G01 X-50.32997 Y23.13396
G01 X-50.20394 Y23.15672
G01 X-50.07252 Y23.16973
G01 X-50.01410 Y23.14560
G01 X-49.91555 Y23.14910
G01 X-49.81793 Y23.13950
G01 X-49.76973 Y23.13041
G01 X-49.66635 Y23.09955
G01 X-49.60318 Y23.07265
G01 X-49.49241 Y23.00963
G01 X-49.47653 Y22.99807
G01 X-49.46482 Y22.97582
G01 X-49.47498 Y22.99518
G01 X-49.47498 Y23.25853
G01 X-49.82484 Y23.60839
G04 P0 ( dwell for no time -- G64 should not smooth over this point )
G00 Z1.00000 ( retract )

G00 X-46.31152 Y24.64214 ( rapid move to begin. )
G01 F20.00000
( Mill infeed pass 1/1 )
G01 Z-0.30000
G04 P0 ( dwell for no time -- G64 should not smooth over this point )
G01 F30.00000
G01 X-46.31152 Y24.64214
G01 X-46.15007 Y24.64989
G01 X-45.98911 Y24.64463
G01 X-45.79046 Y24.62362
G01 X-45.62231 Y24.59195
G01 X-45.42036 Y24.53505
G01 X-45.27814 Y24.48436
G01 X-45.13110 Y24.41862
G01 X-44.95526 Y24.32385
G01 X-44.82805 Y24.24250
G01 X-44.70733 Y24.15179
G01 X-44.56306 Y24.02868
G01 X-44.43590 Y23.89960
G01 X-44.30809 Y23.74610
G01 X-44.21983 Y23.62357
G01 X-44.14106 Y23.49475
G01 X-44.04878 Y23.31761
G01 X-44.00436 Y23.21616
G01 X-43.96560 Y23.11243
G01 X-43.89768 Y22.88225
G01 X-43.85991 Y22.68451
G01 X-43.83768 Y22.45327
G01 X-43.83502 Y22.34999
G01 X-43.83502 Y19.52381
G01 X-43.83951 Y19.38955
G01 X-43.85724 Y19.20921
G01 X-43.88018 Y19.07017
G01 X-43.91289 Y18.93306
G01 X-43.96237 Y18.77090
G01 X-44.01200 Y18.63900
G01 X-44.06633 Y18.51993
G01 X-44.15099 Y18.36151
G01 X-44.22541 Y18.24182
G01 X-44.29580 Y18.14363
G01 X-44.37685 Y18.04289
G01 X-44.50865 Y17.89747
G01 X-45.40001 Y17.00614
G01 X-45.43803 Y17.02189
G01 X-45.40001 Y17.00614
G01 X-45.40001 Y5.79999
G01 X-45.40451 Y5.66572
G01 X-45.41858 Y5.51538
G01 X-45.43585 Y5.39580
G01 X-45.45800 Y5.28731
G01 X-45.48614 Y5.18018
G01 X-45.53722 Y5.01851
G01 X-45.58485 Y4.89661
G01 X-45.63582 Y4.78709
G01 X-45.71101 Y4.64642
G01 X-45.77928 Y4.53476
G01 X-45.85470 Y4.42783
G01 X-45.94842 Y4.31112
G01 X-46.07364 Y4.17365
G01 X-47.67364 Y2.57366
G01 X-47.80316 Y2.45504
G01 X-47.95205 Y2.33667
G01 X-48.10295 Y2.23639
G01 X-48.29609 Y2.13134
G01 X-48.46185 Y2.05821
G01 X-48.55662 Y2.02418
G01 X-48.68017 Y1.98615
G01 X-48.84633 Y1.94518
G01 X-49.01537 Y1.91859
G01 X-49.23798 Y1.90096
G01 X-62.97064 Y1.90012
G01 X-63.12543 Y1.90772
G01 X-63.34422 Y1.93416
G01 X-63.50178 Y1.96756
G01 X-63.68377 Y2.02105
G01 X-63.79746 Y2.06190
G01 X-63.90848 Y2.10952
G01 X-64.00757 Y2.15900
G01 X-64.14699 Y2.23639
G01 X-64.24028 Y2.29606
G01 X-64.33015 Y2.36080
G01 X-64.44679 Y2.45504
G01 X-64.53177 Y2.53050
G01 X-68.13359 Y6.13100
G01 X-68.24492 Y6.25318
G01 X-68.38094 Y6.42658
G01 X-68.44246 Y6.51863
G01 X-68.50365 Y6.62282
G01 X-68.57309 Y6.75513
G01 X-68.63060 Y6.88381
G01 X-68.67578 Y7.00664
G01 X-68.72206 Y7.15924
G01 X-68.75069 Y7.27662
G01 X-68.77218 Y7.39551
G01 X-68.79224 Y7.57453
G01 X-68.79971 Y7.71898
G01 X-68.79994 Y9.26478
G01 X-68.74152 Y9.37374
G01 X-68.70314 Y9.45479
G01 X-68.53631 Y9.85650
G01 X-68.51073 Y9.92698
G01 X-68.39092 Y10.32111
G01 X-68.37352 Y10.39172
G01 X-68.29997 Y10.76541
G01 X-68.29997 Y7.75000
G01 X-68.29697 Y7.65538
G01 X-68.27360 Y7.44377
G01 X-68.25346 Y7.34426
G01 X-68.22961 Y7.25604
G01 X-68.19367 Y7.14182
G01 X-68.15704 Y7.04713
G01 X-68.11409 Y6.95510
G01 X-68.04759 Y6.83186
G01 X-67.99377 Y6.74576
G01 X-67.93426 Y6.66349
G01 X-67.85135 Y6.56209
G01 X-67.78018 Y6.48465
G01 X-64.20020 Y2.90512
G01 X-64.13787 Y2.84861
G01 X-64.03647 Y2.76570
G01 X-63.89431 Y2.66789
G01 X-63.69921 Y2.56362
G01 X-63.60579 Y2.52379
G01 X-63.51961 Y2.49344
G01 X-63.37544 Y2.45133
G01 X-63.25619 Y2.42636
G01 X-63.08654 Y2.40622
G01 X-62.96050 Y2.40005
G01 X-49.27892 Y2.40015
G01 X-49.17389 Y2.40530
G01 X-49.03391 Y2.42019
G01 X-48.92396 Y2.43975
G01 X-48.82551 Y2.46459
G01 X-48.69180 Y2.50629
G01 X-48.58776 Y2.54693
G01 X-48.49604 Y2.59050
G01 X-48.36432 Y2.66266
G01 X-48.28733 Y2.71188
G01 X-48.21347 Y2.76570
G01 X-48.11207 Y2.84861
G01 X-48.04217 Y2.91244
G01 X-46.42719 Y4.52719
G01 X-46.34860 Y4.61208
G01 X-46.25950 Y4.72153
G01 X-46.19495 Y4.81266
G01 X-46.13737 Y4.90837
G01 X-46.06793 Y5.04154
G01 X-46.02749 Y5.13469
G01 X-45.99343 Y5.23034
G01 X-45.95132 Y5.37451
G01 X-45.92635 Y5.49377
G01 X-45.90529 Y5.67390
G01 X-45.89998 Y5.79999
G01 X-45.89998 Y17.21322
G01 X-45.93806 Y17.22900
G01 X-45.89998 Y17.21322
G01 X-44.84743 Y18.26600
G01 X-44.77004 Y18.35198
G01 X-44.67024 Y18.47794
G01 X-44.59765 Y18.58815
G01 X-44.53019 Y18.71088
G01 X-44.48193 Y18.81160
G01 X-44.44129 Y18.91563
G01 X-44.39409 Y19.06887
G01 X-44.36859 Y19.17763
G01 X-44.35127 Y19.28795
G01 X-44.33735 Y19.43969
G01 X-44.33504 Y22.36051
G01 X-44.33946 Y22.46556
G01 X-44.35381 Y22.60597
G01 X-44.38150 Y22.75571
G01 X-44.42844 Y22.91961
G01 X-44.47007 Y23.03412
G01 X-44.52549 Y23.15390
G01 X-44.60288 Y23.29431
G01 X-44.67621 Y23.40407
G01 X-44.79620 Y23.55238
G01 X-44.89501 Y23.65459
G01 X-44.96344 Y23.71514
G01 X-45.07273 Y23.80270
G01 X-45.15620 Y23.86053
G01 X-45.23450 Y23.90765
G01 X-45.35825 Y23.97318
G01 X-45.45084 Y24.01489
G01 X-45.54604 Y24.05022
G01 X-45.67027 Y24.08814
G01 X-45.76890 Y24.11232
G01 X-45.86892 Y24.12977
G01 X-46.00819 Y24.14458
G01 X-46.09943 Y24.14953
G01 X-46.19081 Y24.14892
G01 X-46.28200 Y24.14273
G01 X-46.41108 Y24.12832
G01 X-46.51997 Y24.10823
G01 X-46.51997 Y23.59017
G01 X-46.43397 Y23.61486
G01 X-46.35299 Y23.63140
G01 X-46.16082 Y23.64964
G01 X-46.07817 Y23.64837
G01 X-45.96816 Y23.63833
G01 X-45.89658 Y23.62789
G01 X-45.82597 Y23.61232
G01 X-45.71017 Y23.57788
G01 X-45.64228 Y23.55299
G01 X-45.56709 Y23.51862
G01 X-45.46981 Y23.46630
G01 X-45.40844 Y23.42799
G01 X-45.35002 Y23.38537
G01 X-45.25706 Y23.30823
G01 X-45.19770 Y23.25070
G01 X-45.09958 Y23.13493
G01 X-45.04555 Y23.05926
G01 X-44.97108 Y22.92703
G01 X-44.93196 Y22.84268
G01 X-44.88381 Y22.69879
G01 X-44.85897 Y22.59853
G01 X-44.83979 Y22.44799
G01 X-44.83499 Y22.34999
G01 X-44.83517 Y19.50418
G01 X-44.84555 Y19.36725
G01 X-44.85706 Y19.28541
G01 X-44.87527 Y19.20479
G01 X-44.90707 Y19.09900
G01 X-44.95272 Y18.98378
G01 X-45.02915 Y18.84081
G01 X-45.09323 Y18.74700
G01 X-45.18853 Y18.63288
G01 X-46.39998 Y17.42034
G01 X-46.43783 Y17.43596
G01 X-46.39998 Y17.42034
G01 X-46.39998 Y5.79999
G01 X-46.41162 Y5.63316
G01 X-46.42810 Y5.53118
G01 X-46.47532 Y5.36537
G01 X-46.50092 Y5.29773
G01 X-46.53133 Y5.23210
G01 X-46.58365 Y5.13481
G01 X-46.62195 Y5.07345
G01 X-46.66458 Y5.01503
G01 X-46.73384 Y4.93098
G01 X-48.40905 Y3.25354
G01 X-48.51502 Y3.16459
G01 X-48.59068 Y3.11056
G01 X-48.72292 Y3.03609
G01 X-48.81684 Y2.99314
G01 X-48.96107 Y2.94587
G01 X-49.05141 Y2.92397
G01 X-49.20196 Y2.90479
G01 X-49.29998 Y2.89999
G01 X-62.97943 Y2.90043
G01 X-63.12708 Y2.91280
G01 X-63.21877 Y2.92811
G01 X-63.36495 Y2.96893
G01 X-63.45222 Y3.00093
G01 X-63.58804 Y3.06862
G01 X-63.67650 Y3.12196
G01 X-63.79649 Y3.21483
G01 X-63.86921 Y3.28074
G01 X-67.43296 Y6.84477
G01 X-67.53537 Y6.96504
G01 X-67.59496 Y7.04941
G01 X-67.66862 Y7.18210
G01 X-67.71424 Y7.28617
G01 X-67.75409 Y7.41108
G01 X-67.77599 Y7.50143
G01 X-67.78833 Y7.58317
G01 X-67.79979 Y7.73036
G01 X-67.79877 Y12.01753
G01 X-67.78300 Y12.17628
G01 X-67.75409 Y12.30737
G01 X-67.72463 Y12.40307
G01 X-67.69903 Y12.47071
G01 X-67.66862 Y12.53632
G01 X-67.61630 Y12.63363
G01 X-67.54172 Y12.74524
G01 X-67.47253 Y12.83002
G01 X-67.41925 Y12.88768
G01 X-67.24947 Y13.05745
G01 X-67.21394 Y13.04328
G01 X-67.24947 Y13.05745
G01 X-67.24947 Y17.13151
G01 X-67.21142 Y17.14726
G01 X-67.24947 Y17.13151
G01 X-70.91921 Y20.80123
G01 X-70.97250 Y20.85889
G01 X-71.05414 Y20.96018
G01 X-71.10580 Y21.03747
G01 X-71.16387 Y21.14342
G01 X-71.19902 Y21.21822
G01 X-71.22462 Y21.28586
G01 X-71.25967 Y21.40146
G01 X-71.27789 Y21.48208
G01 X-71.28939 Y21.56391
G01 X-71.29963 Y21.69462
G01 X-71.29836 Y21.77727
G01 X-71.28716 Y21.89757
G01 X-71.27397 Y21.97915
G01 X-71.25693 Y22.04944
G01 X-71.22462 Y22.15507
G01 X-71.19496 Y22.23221
G01 X-71.15904 Y22.30666
G01 X-71.09496 Y22.42104
G01 X-71.03537 Y22.50542
G01 X-70.93008 Y22.62866
G01 X-70.85444 Y22.69901
G01 X-70.73504 Y22.79266
G01 X-70.64713 Y22.84689
G01 X-70.51172 Y22.91545
G01 X-70.41495 Y22.95152
G01 X-70.26877 Y22.99233
G01 X-70.16679 Y23.00882
G01 X-70.00514 Y23.02045
G01 X-69.91226 Y23.01659
G01 X-69.76158 Y22.99838
G01 X-69.66107 Y22.97458
G01 X-69.51685 Y22.92731
G01 X-69.43209 Y22.88911
G01 X-69.29940 Y22.81545
G01 X-69.20695 Y22.74943
G01 X-69.08772 Y22.64661
G01 X-66.19441 Y19.75338
G01 X-66.10637 Y19.60405
G01 X-66.06316 Y19.53941
G01 X-65.87899 Y19.29963
G01 X-65.82910 Y19.24182
G01 X-65.61661 Y19.02605
G01 X-65.56200 Y18.97743
G01 X-65.38948 Y18.83951
G01 X-65.38755 Y18.64723
G01 X-65.37505 Y18.46689
G01 X-65.34734 Y18.19504
G01 X-65.37505 Y18.46689
G01 X-65.38796 Y18.64721
G01 X-65.38948 Y18.83951
G01 X-65.61709 Y19.02554
G01 X-65.82969 Y19.24129
G01 X-65.87899 Y19.29963
G01 X-66.06385 Y19.53892
G01 X-66.10637 Y19.60405
G01 X-66.27513 Y19.89018
G01 X-66.40472 Y20.16628
G01 X-66.81899 Y21.16940
G01 X-66.98094 Y21.63343
G01 X-67.09385 Y22.09185
G01 X-67.10672 Y22.15258
G01 X-67.18460 Y22.65695
G01 X-67.19760 Y22.77740
G01 X-67.37066 Y22.84420
G01 X-68.33677 Y23.24438
G01 X-68.54132 Y23.32332
G01 X-68.97611 Y23.45825
G01 X-69.43054 Y23.54890
G01 X-69.78081 Y23.58352
G01 X-70.17268 Y23.58581
G01 X-70.56938 Y23.54890
G01 X-70.77553 Y23.51367
G01 X-70.89640 Y23.42652
G01 X-71.16999 Y23.20214
G01 X-71.48396 Y22.88791
G01 X-71.56696 Y22.59990
G01 X-71.63105 Y22.27864
G01 X-71.67105 Y21.87405
G01 X-71.66877 Y21.52043
G01 X-71.63798 Y21.20890
G01 X-71.55523 Y20.79414
G01 X-71.45099 Y20.45137
G01 X-71.35035 Y20.18916
G01 X-68.20545 Y17.04444
G01 X-68.05709 Y16.88813
G01 X-68.02791 Y16.84876
G01 X-68.01767 Y16.85465
G01 X-68.02791 Y16.84876
G01 X-68.00695 Y16.80446
G01 X-67.98493 Y16.74203
G01 X-67.85178 Y16.29534
G01 X-67.77678 Y15.91757
G01 X-67.73956 Y15.59159
G01 X-67.67055 Y15.36857
G01 X-67.59418 Y15.07073
G01 X-67.53951 Y14.78521
G01 X-67.52184 Y14.67289
G01 X-67.48696 Y14.33086
G01 X-67.47568 Y14.09101
G01 X-67.47573 Y13.95684
G01 X-67.48376 Y13.71951
G01 X-67.49250 Y13.58801
G01 X-67.52138 Y13.33678
G01 X-67.53588 Y13.24102
G01 X-67.54792 Y13.19350
G01 X-67.53893 Y13.19042
G01 X-67.54792 Y13.19350
G01 X-67.56900 Y13.14928
G01 X-67.80124 Y12.76152
G01 X-67.97020 Y12.46411
G01 X-68.12486 Y11.78364
G01 X-68.22511 Y11.45433
G01 X-68.25064 Y11.38215
G01 X-68.25818 Y11.16206
G01 X-68.29316 Y10.81123
G01 X-68.30400 Y10.74026
G01 X-68.39021 Y10.32093
G01 X-68.50695 Y9.93846
G01 X-68.53580 Y9.85632
G01 X-68.70766 Y9.44364
G01 X-68.74152 Y9.37374
G01 X-68.98670 Y8.91601
G01 X-69.02917 Y8.84679
G01 X-69.37002 Y8.33841
G01 X-69.42041 Y8.26994
G01 X-69.92330 Y7.65871
G01 X-73.56828 Y3.67261
G01 X-74.72182 Y2.41734
G01 X-74.55355 Y2.16649
G01 X-74.37519 Y1.91816
G01 X-74.18890 Y1.67566
G01 X-73.99084 Y1.43322
G01 X-73.77138 Y1.18074
G01 X-73.55025 Y0.94343
G01 X-72.60900 Y0.00000
G01 X-70.48772 Y0.00000
G01 X-71.19480 Y0.00000
G01 X-72.75111 Y1.55641
G01 X-72.91352 Y1.72496
G01 X-73.05769 Y1.88270
G01 X-73.19127 Y2.03624
G01 X-73.34562 Y2.22260
G01 X-73.58261 Y2.52816
G01 X-73.81110 Y2.85260
G01 X-74.02022 Y3.18077
G01 X-73.66693 Y3.56522
G01 X-73.46272 Y3.23251
G01 X-73.34385 Y3.05440
G01 X-73.22022 Y2.87947
G01 X-73.09198 Y2.70792
G01 X-72.97202 Y2.55572
G01 X-72.82429 Y2.37658
G01 X-72.68393 Y2.21480
G01 X-72.54626 Y2.06426
G01 X-72.39046 Y1.90279
G01 X-70.48772 Y0.00000
G01 X-43.17639 Y0.00000
G01 X-42.46021 Y0.71742
G01 X-42.30807 Y0.87955
G01 X-42.16118 Y1.04640
G01 X-41.96288 Y1.28775
G01 X-41.78452 Y1.52301
G01 X-41.61625 Y1.76558
G01 X-41.45310 Y2.02374
G01 X-41.30137 Y2.28879
G01 X-41.14256 Y2.59377
G01 X-41.00962 Y2.87998
G01 X-40.89336 Y3.16240
G01 X-40.78305 Y3.46890
G01 X-40.67564 Y3.81691
G01 X-40.59809 Y4.11231
G01 X-40.53352 Y4.41081
G01 X-40.48051 Y4.72191
G01 X-40.44160 Y5.03509
G01 X-40.41237 Y5.38587
G01 X-40.40058 Y5.71914
G01 X-40.40012 Y15.00878
G01 X-40.42489 Y15.01689
G01 X-40.40012 Y15.00878
G01 X-40.33528 Y15.09184
G01 X-40.16035 Y15.32969
G01 X-39.99563 Y15.57467
G01 X-39.87241 Y15.77378
G01 X-39.76578 Y15.95907
G01 X-39.64650 Y16.18132
G01 X-39.54203 Y16.39087
G01 X-39.45280 Y16.58516
G01 X-39.37724 Y16.76321
G01 X-39.30302 Y16.95282
G01 X-39.23106 Y17.15414
G01 X-39.17130 Y17.33812
G01 X-39.09682 Y17.58973
G01 X-39.04270 Y17.79656
G01 X-38.99489 Y18.00494
G01 X-38.93772 Y18.30494
G01 X-38.89243 Y18.61726
G01 X-38.85717 Y18.96854
G01 X-38.83967 Y19.27121
G01 X-38.83513 Y19.51370
G01 X-38.83584 Y22.45103
G01 X-38.84404 Y22.70354
G01 X-38.86136 Y22.95558
G01 X-38.89243 Y23.25652
G01 X-38.92946 Y23.51860
G01 X-38.97638 Y23.77910
G01 X-39.03073 Y24.02774
G01 X-39.09139 Y24.26442
G01 X-39.16530 Y24.51621
G01 X-39.24430 Y24.75814
G01 X-39.33574 Y25.00655
G01 X-39.42842 Y25.23261
G01 X-39.53327 Y25.46452
G01 X-39.64650 Y25.69246
G01 X-39.78067 Y25.94138
G01 X-39.90391 Y26.15235
G01 X-40.04003 Y26.36738
G01 X-40.21953 Y26.62695
G01 X-40.39789 Y26.86220
G01 X-40.61003 Y27.11976
G01 X-40.81389 Y27.34716
G01 X-41.02021 Y27.55834
G01 X-41.24282 Y27.76743
G01 X-41.46647 Y27.96014
G01 X-41.72727 Y28.16824
G01 X-41.98259 Y28.35374
G01 X-42.23738 Y28.52212
G01 X-42.49928 Y28.67922
G01 X-42.78348 Y28.83375
G01 X-43.03885 Y28.96037
G01 X-43.31795 Y29.08440
G01 X-43.60217 Y29.19611
G01 X-43.87858 Y29.29136
G01 X-43.62046 Y29.73271
G01 X-43.35302 Y29.63672
G01 X-43.08922 Y29.53057
G01 X-42.83883 Y29.41881
G01 X-42.57464 Y29.28869
G01 X-42.29928 Y29.14053
G01 X-42.05397 Y28.99674
G01 X-41.80583 Y28.83814
G01 X-41.58056 Y28.68181
G01 X-41.34515 Y28.50487
G01 X-41.10246 Y28.30769
G01 X-40.90319 Y28.13446
G01 X-40.69558 Y27.94018
G01 X-40.48846 Y27.73081
G01 X-40.30990 Y27.53632
G01 X-40.13182 Y27.32781
G01 X-39.92418 Y27.06748
G01 X-39.75011 Y26.82994
G01 X-39.59654 Y26.60277
G01 X-39.44617 Y26.36144
G01 X-39.31483 Y26.13241
G01 X-39.17310 Y25.86512
G01 X-39.04899 Y25.60927
G01 X-38.93469 Y25.34892
G01 X-38.82680 Y25.07491
G01 X-38.72974 Y24.79685
G01 X-38.64066 Y24.50772
G01 X-38.56627 Y24.23328
G01 X-38.50442 Y23.96617
G01 X-38.45065 Y23.68695
G01 X-38.40886 Y23.41596
G01 X-38.37800 Y23.15373
G01 X-38.35052 Y22.83028
G01 X-38.33914 Y22.59536
G01 X-38.33518 Y22.38065
G01 X-38.33513 Y19.51358
G01 X-38.33792 Y19.31929
G01 X-38.35397 Y18.99247
G01 X-38.38651 Y18.63926
G01 X-38.42621 Y18.33720
G01 X-38.48204 Y18.01706
G01 X-38.52619 Y17.80842
G01 X-38.58133 Y17.58145
G01 X-38.64066 Y17.36606
G01 X-38.71412 Y17.12524
G01 X-38.78532 Y16.91348
G01 X-38.86279 Y16.70390
G01 X-38.93861 Y16.51549
G01 X-39.02786 Y16.31066
G01 X-39.12766 Y16.09949
G01 X-39.23398 Y15.89151
G01 X-39.35938 Y15.66156
G01 X-39.48821 Y15.44279
G01 X-39.65811 Y15.17777
G01 X-39.82700 Y14.93652
G01 X-39.90012 Y14.83799
G01 X-39.92319 Y14.84526
G01 X-39.90012 Y14.83799
G01 X-39.90022 Y5.75907
G01 X-39.90640 Y5.49328
G01 X-39.92275 Y5.21767
G01 X-39.95377 Y4.89524
G01 X-39.98968 Y4.62341
G01 X-40.04704 Y4.29324
G01 X-40.11907 Y3.96596
G01 X-40.20566 Y3.64223
G01 X-40.31394 Y3.29522
G01 X-40.42778 Y2.98008
G01 X-40.54747 Y2.68892
G01 X-40.68371 Y2.39390
G01 X-40.84104 Y2.08895
G01 X-40.99044 Y1.82344
G01 X-41.16154 Y1.54716
G01 X-41.34447 Y1.27859
G01 X-41.53258 Y1.02616
G01 X-41.74261 Y0.76703
G01 X-41.94457 Y0.53612
G01 X-42.11996 Y0.35014
G01 X-42.46931 Y0.00000
G01 X-41.76304 Y0.00000
G01 X-41.55691 Y0.21925
G01 X-41.34942 Y0.45781
G01 X-41.13291 Y0.72563
G01 X-40.93799 Y0.98740
G01 X-40.76509 Y1.23985
G01 X-40.60198 Y1.49873
G01 X-40.45382 Y1.75471
G01 X-40.30182 Y2.03977
G01 X-40.16845 Y2.31297
G01 X-40.04556 Y2.59103
G01 X-39.93690 Y2.86408
G01 X-39.83512 Y3.15051
G01 X-39.73571 Y3.46807
G01 X-39.65692 Y3.75315
G01 X-39.58440 Y4.06090
G01 X-39.52410 Y4.37126
G01 X-39.47213 Y4.71411
G01 X-39.43289 Y5.07677
G01 X-39.40952 Y5.41254
G01 X-39.40045 Y5.72859
G01 X-39.40012 Y14.67343
G01 X-39.42154 Y14.67990
G01 X-39.40012 Y14.67343
G01 X-39.31430 Y14.79464
G01 X-39.14463 Y15.04927
G01 X-38.98999 Y15.30139
G01 X-38.87404 Y15.50533
G01 X-38.74145 Y15.75458
G01 X-38.63800 Y15.96344
G01 X-38.53660 Y16.18450
G01 X-38.45342 Y16.38038
G01 X-38.37191 Y16.58790
G01 X-38.29291 Y16.80715
G01 X-38.22334 Y17.01897
G01 X-38.14793 Y17.27025
G01 X-38.09192 Y17.47698
G01 X-38.03696 Y17.70504
G01 X-37.98870 Y17.93461
G01 X-37.93127 Y18.26623
G01 X-37.88783 Y18.59999
G01 X-37.85479 Y18.96326
G01 X-37.83828 Y19.29943
G01 X-37.83513 Y19.52381
G01 X-37.83515 Y22.37039
G01 X-37.83828 Y22.57435
G01 X-37.84661 Y22.77816
G01 X-37.86789 Y23.07318
G01 X-37.90455 Y23.41560
G01 X-37.94719 Y23.70828
G01 X-38.00064 Y23.99919
G01 X-38.06480 Y24.28794
G01 X-38.13683 Y24.56426
G01 X-38.23553 Y24.89345
G01 X-38.32647 Y25.16223
G01 X-38.43439 Y25.44641
G01 X-38.55717 Y25.73558
G01 X-38.69121 Y26.01968
G01 X-38.83030 Y26.28776
G01 X-38.96939 Y26.53716
G01 X-39.12276 Y26.79009
G01 X-39.29111 Y27.04556
G01 X-39.46304 Y27.28625
G01 X-39.63739 Y27.51244
G01 X-39.85621 Y27.77683
G01 X-40.05181 Y27.99613
G01 X-40.25537 Y28.20810
G01 X-40.47396 Y28.41935
G01 X-40.70045 Y28.62214
G01 X-40.95661 Y28.83482
G01 X-41.19870 Y29.02191
G01 X-41.46464 Y29.21112
G01 X-41.72077 Y29.37850
G01 X-41.99197 Y29.54104
G01 X-42.25801 Y29.68714
G01 X-42.52897 Y29.82498
G01 X-42.79567 Y29.94835
G01 X-43.07616 Y30.06557
G01 X-43.35396 Y30.16959
G04 P0 ( dwell for no time -- G64 should not smooth over this point )
G00 Z1.00000 ( retract )

G00 X-44.04741 Y29.99298 ( rapid move to begin. )
G01 F20.00000
( Mill infeed pass 1/1 )
G01 Z-0.30000
G04 P0 ( dwell for no time -- G64 should not smooth over this point )
G01 F30.00000
G01 X-44.04741 Y29.99298
G01 X-44.22381 Y30.16501
G01 X-44.38967 Y30.31701
G01 X-44.56003 Y30.46395
G01 X-44.77487 Y30.63883
G01 X-45.35995 Y30.45264
G01 X-45.08889 Y30.24972
G01 X-44.80088 Y30.01251
G01 X-44.56831 Y29.80266
G01 X-44.30842 Y29.54688
G01 X-44.56687 Y29.09824
G01 X-44.92234 Y29.44924
G01 X-45.07212 Y29.58564
G01 X-45.22607 Y29.71729
G01 X-45.42254 Y29.87596
G01 X-45.59379 Y30.00494
G01 X-45.78612 Y30.13967
G01 X-45.96943 Y30.25874
G01 X-46.61527 Y30.05430
G01 X-46.38629 Y29.92676
G01 X-46.15294 Y29.78285
G01 X-45.93466 Y29.63431
G01 X-45.71512 Y29.47005
G01 X-45.48873 Y29.28503
G01 X-45.29877 Y29.11663
G01 X-45.15924 Y28.98333
G01 X-44.82534 Y28.64963
G01 X-45.07804 Y28.21097
G01 X-45.12224 Y27.04178
G01 X-44.89707 Y26.98684
G01 X-44.66539 Y26.91828
G01 X-44.46361 Y26.84927
G01 X-44.27469 Y26.77475
G01 X-44.06184 Y26.67859
G01 X-43.83811 Y26.56319
G01 X-43.66143 Y26.46304
G01 X-43.47251 Y26.34379
G01 X-43.30609 Y26.22735
G01 X-43.13720 Y26.09715
G01 X-42.95203 Y25.94199
G01 X-42.77340 Y25.77617
G01 X-42.62465 Y25.62337
G01 X-42.48333 Y25.46368
G01 X-42.32481 Y25.26810
G01 X-42.18683 Y25.07963
G01 X-42.09125 Y24.93589
G01 X-42.00126 Y24.78857
G01 X-41.92176 Y24.64684
G01 X-41.82420 Y24.45959
G01 X-41.75067 Y24.30341
G01 X-41.68315 Y24.14453
G01 X-41.62524 Y23.99271
G01 X-41.56974 Y23.82924
G01 X-41.51170 Y23.63681
G01 X-41.47261 Y23.48959
G01 X-41.43436 Y23.32124
G01 X-41.40258 Y23.15154
G01 X-41.37482 Y22.96061
G01 X-41.35288 Y22.75014
G01 X-41.34074 Y22.57590
G01 X-41.33548 Y22.41161
G01 X-41.33736 Y19.38000
G01 X-41.35110 Y19.14411
G01 X-41.38270 Y18.85274
G01 X-41.42240 Y18.61231
G01 X-41.47261 Y18.38419
G01 X-41.51729 Y18.21744
G01 X-41.58224 Y18.00588
G01 X-41.63921 Y17.84292
G01 X-41.70238 Y17.68226
G01 X-41.77167 Y17.52415
G01 X-41.85158 Y17.35976
G01 X-41.95097 Y17.17345
G01 X-42.04289 Y17.01546
G01 X-42.14680 Y16.85290
G01 X-42.26362 Y16.68673
G01 X-42.38142 Y16.53393
G01 X-42.52387 Y16.36273
G01 X-42.68333 Y16.18839
G01 X-42.90007 Y15.97061
G01 X-42.93641 Y15.98529
G01 X-42.90007 Y15.97061
G01 X-42.90007 Y5.78970
G01 X-42.90738 Y5.54327
G01 X-42.93857 Y5.19943
G01 X-42.98173 Y4.91841
G01 X-43.01432 Y4.75922
G01 X-43.04754 Y4.62100
G01 X-43.14093 Y4.30139
G01 X-43.24060 Y4.02430
G01 X-43.29923 Y3.88369
G01 X-43.36258 Y3.74515
G01 X-43.51597 Y3.44962
G01 X-43.66720 Y3.19697
G01 X-43.79872 Y3.00396
G01 X-43.94642 Y2.81010
G01 X-44.10913 Y2.61569
G01 X-44.28419 Y2.42778
G01 X-45.99427 Y0.71996
G01 X-46.13890 Y0.58887
G01 X-46.31009 Y0.44643
G01 X-46.46290 Y0.32863
G01 X-46.60379 Y0.22885
G01 X-46.79163 Y0.10790
G01 X-46.97870 Y0.00000
G01 X-48.37864 Y0.00000
G01 X-48.12922 Y0.06358
G01 X-47.83044 Y0.15928
G01 X-47.57473 Y0.26142
G01 X-47.32665 Y0.38087
G01 X-47.07037 Y0.52362
G01 X-46.94936 Y0.59944
G01 X-46.83115 Y0.67953
G01 X-46.61949 Y0.83924
G01 X-46.48091 Y0.95415
G01 X-46.36826 Y1.05471
G01 X-46.26658 Y1.15237
G01 X-44.63113 Y2.78808
G01 X-44.49384 Y2.93540
G01 X-44.35853 Y3.09578
G01 X-44.24538 Y3.24028
G01 X-44.14467 Y3.38148
G01 X-44.04484 Y3.53553
G01 X-43.95216 Y3.69400
G01 X-43.85285 Y3.88107
G01 X-43.77802 Y4.03748
G01 X-43.70250 Y4.21592
G01 X-43.63900 Y4.38818
G01 X-43.57804 Y4.58033
G01 X-43.53644 Y4.72755
G01 X-43.49613 Y4.89618
G01 X-43.46666 Y5.04632
G01 X-43.43893 Y5.22778
G01 X-43.41833 Y5.41795
G01 X-43.40563 Y5.58864
G01 X-43.40050 Y5.73956
G01 X-43.40004 Y16.17772
G01 X-43.43758 Y16.19313
G01 X-43.40004 Y16.17772
G01 X-43.05209 Y16.52633
G01 X-42.88914 Y16.70474
G01 X-42.73613 Y16.89123
G01 X-42.61452 Y17.05498
G01 X-42.49598 Y17.23337
G01 X-42.38716 Y17.41782
G01 X-42.28325 Y17.61401
G01 X-42.20053 Y17.78922
G01 X-42.12270 Y17.97776
G01 X-42.05460 Y18.17004
G01 X-41.98742 Y18.39229
G01 X-41.93550 Y18.60009
G01 X-41.89479 Y18.81035
G01 X-41.86654 Y19.01236
G01 X-41.84360 Y19.26219
G01 X-41.83510 Y19.50367
G01 X-41.83510 Y22.37011
G01 X-41.84498 Y22.63168
G01 X-41.86540 Y22.85129
G01 X-41.88831 Y23.02314
G01 X-41.92273 Y23.21385
G01 X-41.96380 Y23.39276
G01 X-42.01010 Y23.55987
G01 X-42.08066 Y23.78105
G01 X-42.14884 Y23.96244
G01 X-42.22572 Y24.14031
G01 X-42.33019 Y24.35035
G01 X-42.46918 Y24.59703
G01 X-42.60865 Y24.81044
G01 X-42.75508 Y25.00658
G01 X-42.93692 Y25.22365
G01 X-43.10530 Y25.40127
G01 X-43.29191 Y25.57501
G01 X-43.51043 Y25.75509
G01 X-43.70804 Y25.89952
G01 X-43.92287 Y26.03680
G01 X-44.17974 Y26.17851
G01 X-44.40039 Y26.28443
G01 X-44.62711 Y26.37666
G01 X-44.84929 Y26.45186
G01 X-45.10207 Y26.52365
G01 X-45.36224 Y26.57983
G01 X-45.59242 Y26.11049
G01 X-45.40357 Y26.07887
G01 X-45.22602 Y26.03927
G01 X-45.07014 Y25.99637
G01 X-44.85058 Y25.92588
G01 X-44.69013 Y25.86452
G01 X-44.51462 Y25.78672
G01 X-44.30954 Y25.68130
G01 X-44.16897 Y25.60142
G01 X-44.00707 Y25.49822
G01 X-43.85912 Y25.39243
G01 X-43.68691 Y25.25474
G01 X-43.55749 Y25.14178
G01 X-43.42666 Y25.01542
G01 X-43.30929 Y24.88997
G01 X-43.16727 Y24.72134
G01 X-43.06834 Y24.59342
G01 X-42.98673 Y24.47788
G01 X-42.90982 Y24.35913
G01 X-42.83779 Y24.23737
G01 X-42.76166 Y24.09680
G01 X-42.64797 Y23.85997
G01 X-42.59788 Y23.73854
G01 X-42.54906 Y23.60574
G01 X-42.46093 Y23.31761
G01 X-42.42473 Y23.17041
G01 X-42.39854 Y23.04169
G01 X-42.36075 Y22.78172
G01 X-42.34490 Y22.61250
G01 X-42.33680 Y22.46112
G01 X-42.33680 Y19.41266
G01 X-42.34815 Y19.22099
G01 X-42.37436 Y18.98172
G01 X-42.40804 Y18.78246
G01 X-42.45574 Y18.57571
G01 X-42.51152 Y18.38335
G01 X-42.55237 Y18.25849
G01 X-42.60903 Y18.10705
G01 X-42.67263 Y17.95841
G01 X-42.74302 Y17.81287
G01 X-42.83283 Y17.64523
G01 X-42.90982 Y17.51465
G01 X-42.99809 Y17.37919
G01 X-43.08038 Y17.26410
G01 X-43.16727 Y17.15244
G01 X-43.28259 Y17.01414
G01 X-43.39849 Y16.88737
G01 X-43.90004 Y16.38483
G01 X-43.93796 Y16.40050
G01 X-43.90004 Y16.38483
G01 X-43.90004 Y5.78988
G01 X-43.90426 Y5.62823
G01 X-43.92912 Y5.33811
G01 X-43.96539 Y5.09834
G01 X-44.02074 Y4.85188
G01 X-44.10111 Y4.58252
G01 X-44.18543 Y4.35513
G01 X-44.28980 Y4.12511
G01 X-44.42287 Y3.87751
G01 X-44.55739 Y3.66372
G01 X-44.64538 Y3.54028
G01 X-44.74505 Y3.41297
G01 X-44.87428 Y3.25994
G01 X-44.99166 Y3.13454
G01 X-46.63453 Y1.49167
G01 X-46.79031 Y1.34760
G01 X-46.97606 Y1.19449
G01 X-47.15535 Y1.06309
G01 X-47.34265 Y0.94336
G01 X-47.57105 Y0.81727
G01 X-47.77146 Y0.72111
G01 X-47.99655 Y0.63089
G01 X-48.22546 Y0.55651
G01 X-48.43028 Y0.50109
G01 X-48.63810 Y0.45822
G01 X-48.79797 Y0.43401
G01 X-48.98710 Y0.41405
G01 X-49.13833 Y0.40378
G01 X-49.27976 Y0.40008
G01 X-62.96007 Y0.40005
G01 X-63.13180 Y0.40475
G01 X-63.29304 Y0.41689
G01 X-63.49205 Y0.43937
G01 X-63.64168 Y0.46355
G01 X-63.79997 Y0.49647
G01 X-63.96629 Y0.53942
G01 X-64.15783 Y0.59794
G01 X-64.31023 Y0.65197
G01 X-64.45997 Y0.71298
G01 X-64.62484 Y0.78981
G01 X-64.79319 Y0.87828
G01 X-64.92464 Y0.95374
G01 X-65.06111 Y1.04046
G01 X-65.19342 Y1.13335
G01 X-65.32133 Y1.23228
G01 X-65.46723 Y1.35423
G01 X-65.59370 Y1.47051
G01 X-69.19407 Y5.07017
G01 X-69.33237 Y5.21754
G01 X-69.48038 Y5.39438
G01 X-69.62539 Y5.58874
G01 X-69.76176 Y5.80136
G01 X-69.90110 Y6.05706
G01 X-70.00288 Y6.27715
G01 X-70.09242 Y6.51335
G01 X-70.17403 Y6.78236
G01 X-70.23080 Y7.02848
G01 X-70.26956 Y7.27735
G01 X-71.46676 Y6.71096
G01 X-73.32459 Y4.68127
G01 X-73.59609 Y4.80210
G01 X-73.85147 Y4.92872
G01 X-74.15334 Y5.09336
G01 X-74.42337 Y5.25668
G01 X-74.67742 Y5.42618
G01 X-74.92385 Y5.60659
G01 X-75.19200 Y5.82183
G01 X-75.41481 Y6.01551
G01 X-75.57828 Y6.16862
G01 X-75.72967 Y6.31957
G01 X-75.87638 Y6.47504
G01 X-76.02492 Y6.64268
G01 X-76.19253 Y6.84461
G01 X-76.33056 Y7.02102
G01 X-76.46873 Y7.21004
G01 X-76.58931 Y7.38657
G01 X-76.70444 Y7.56674
G01 X-76.81910 Y7.75912
G01 X-76.95047 Y7.99798
G01 X-77.04836 Y8.18805
G01 X-77.14463 Y8.39025
G01 X-77.23045 Y8.58606
G01 X-77.31389 Y8.79391
G01 X-77.39065 Y9.00433
G01 X-77.45760 Y9.20735
G01 X-77.53264 Y9.45881
G01 X-77.58737 Y9.66549
G01 X-77.63792 Y9.88367
G01 X-77.67963 Y10.09335
G01 X-77.71643 Y10.31428
G01 X-77.74495 Y10.52617
G01 X-77.76903 Y10.75657
G01 X-77.78874 Y11.01857
G01 X-77.79860 Y11.28111
G01 X-77.79911 Y12.35103
G01 X-77.78463 Y12.71107
G01 X-77.74267 Y12.72756
G01 X-77.78463 Y12.71107
G01 X-79.01889 Y13.94534
G01 X-79.15260 Y14.08316
G01 X-79.28920 Y14.23213
G01 X-79.54894 Y14.54003
G01 X-79.69893 Y14.73289
G01 X-79.83629 Y14.92253
G01 X-79.96723 Y15.11663
G01 X-80.09684 Y15.32374
G01 X-80.21917 Y15.53525
G01 X-80.35712 Y15.79369
G01 X-80.46037 Y16.00385
G01 X-80.56054 Y16.22669
G01 X-80.68193 Y16.52900
G01 X-80.79222 Y16.84632
G01 X-80.89626 Y17.19537
G01 X-80.97705 Y17.52143
G01 X-81.03685 Y17.82092
G01 X-81.08747 Y18.15302
G01 X-81.12615 Y18.52458
G01 X-81.14528 Y18.84738
G01 X-81.14982 Y19.08988
G01 X-81.14982 Y23.91006
G01 X-81.14563 Y24.14247
G01 X-81.13573 Y24.34433
G01 X-81.11998 Y24.54582
G01 X-81.09615 Y24.77618
G01 X-81.06943 Y24.97803
G01 X-81.03685 Y25.17902
G01 X-80.99842 Y25.37899
G01 X-80.95422 Y25.57770
G01 X-80.90687 Y25.76528
G01 X-80.79842 Y26.13424
G01 X-80.69257 Y26.44234
G01 X-80.56456 Y26.76390
G01 X-80.42079 Y27.07876
G01 X-80.24371 Y27.42011
G01 X-80.07043 Y27.71973
G01 X-79.87680 Y28.01884
G01 X-79.66205 Y28.31579
G01 X-79.52969 Y28.48369
G01 X-79.34922 Y28.69954
G01 X-79.20772 Y28.85770
G01 X-79.05443 Y29.01871
G01 X-76.90866 Y31.16445
G01 X-76.68788 Y31.37223
G01 X-76.48166 Y31.55089
G01 X-76.27818 Y31.71596
G01 X-76.09159 Y31.85742
G01 X-75.90036 Y31.99257
G01 X-75.69614 Y32.12666
G01 X-75.48735 Y32.25358
G01 X-75.29218 Y32.36344
G01 X-75.05083 Y32.49016
G01 X-74.82144 Y32.60037
G01 X-74.60696 Y32.69437
G01 X-74.38949 Y32.78114
G01 X-74.15959 Y32.86387
G01 X-73.93671 Y32.93557
G01 X-73.69457 Y33.00623
G01 X-73.44788 Y33.06887
G01 X-73.19909 Y33.12251
G01 X-72.95858 Y33.16547
G01 X-72.67628 Y33.20494
G01 X-72.36536 Y33.23613
G01 X-72.09305 Y33.25325
G01 X-71.82028 Y33.25975
G01 X-67.17393 Y33.25909
G01 X-66.94162 Y33.25188
G01 X-66.73990 Y33.23933
G01 X-66.47972 Y33.21517
G01 X-66.25496 Y33.18769
G01 X-66.25496 Y28.56743
G01 X-66.36629 Y28.60766
G01 X-66.51036 Y28.65237
G01 X-66.70871 Y28.70205
G01 X-66.93075 Y28.73776
G01 X-67.08089 Y28.75237
G01 X-67.19319 Y28.75857
G01 X-71.78998 Y28.75991
G01 X-71.90242 Y28.75737
G01 X-72.02482 Y28.74886
G01 X-72.18492 Y28.73141
G01 X-72.32617 Y28.70810
G01 X-72.43608 Y28.68412
G01 X-72.55459 Y28.65237
G01 X-72.70834 Y28.60441
G01 X-72.83303 Y28.55834
G01 X-72.93651 Y28.51424
G01 X-73.04700 Y28.46088
G01 X-73.17994 Y28.38961
G01 X-73.28545 Y28.32694
G01 X-73.37936 Y28.26504
G01 X-73.47036 Y28.19895
G01 X-73.67336 Y28.03129
G01 X-73.76983 Y27.93985
G01 X-75.90757 Y25.79853
G01 X-76.05121 Y25.62878
G01 X-76.16086 Y25.48095
G01 X-76.25931 Y25.32548
G01 X-76.36017 Y25.13879
G01 X-76.43287 Y24.98090
G01 X-76.49441 Y24.81837
G01 X-76.55631 Y24.61539
G01 X-76.59812 Y24.43617
G01 X-76.63111 Y24.21372
G01 X-76.64524 Y24.05327
G01 X-76.64986 Y23.92042
G01 X-76.64991 Y19.08975
G01 X-76.64389 Y18.92628
G01 X-76.62537 Y18.73542
G01 X-76.60193 Y18.58386
G01 X-76.56924 Y18.43400
G01 X-76.51646 Y18.24970
G01 X-76.47046 Y18.11414
G01 X-76.41262 Y17.97207
G01 X-76.34148 Y17.82478
G01 X-76.25415 Y17.66565
G01 X-76.16662 Y17.52745
G01 X-76.07026 Y17.39524
G01 X-75.94841 Y17.24721
G01 X-75.82985 Y17.12011
G01 X-73.25416 Y14.54442
G01 X-73.20163 Y14.56256
G01 X-73.25416 Y14.54442
G01 X-73.26592 Y14.47231
G01 X-73.28875 Y14.24927
G01 X-73.29876 Y14.05707
G01 X-73.29856 Y13.90576
G01 X-73.27651 Y13.61829
G01 X-73.25162 Y13.43736
G01 X-73.22546 Y13.30810
G01 X-73.17580 Y13.10599
G01 X-73.17057 Y13.08682
G01 X-73.15627 Y13.08661
G01 X-73.17057 Y13.08682
G01 X-73.20897 Y12.95555
G01 X-73.23783 Y12.83630
G01 X-73.27003 Y12.65509
G01 X-73.29157 Y12.45428
G01 X-73.29985 Y12.27044
G01 X-73.29891 Y11.34092
G01 X-73.29157 Y11.20818
G01 X-73.27537 Y11.04793
G01 X-73.25736 Y10.92657
G01 X-73.23343 Y10.80623
G01 X-73.20087 Y10.67735
G01 X-73.15411 Y10.52322
G01 X-73.11324 Y10.40750
G01 X-73.06676 Y10.29396
G01 X-73.01017 Y10.17367
G01 X-72.93955 Y10.04037
G01 X-72.82236 Y9.84842
G01 X-72.68837 Y9.66777
G01 X-72.59168 Y9.55203
G01 X-72.50140 Y9.45444
G01 X-72.42106 Y9.37572
G01 X-72.32947 Y9.29406
G01 X-72.20471 Y9.19221
G01 X-72.10613 Y9.11911
G01 X-72.00412 Y9.05096
G01 X-71.90776 Y8.99292
G01 X-71.67441 Y8.87103
G01 X-71.55254 Y8.81791
G01 X-71.43770 Y8.77468
G01 X-71.17585 Y8.69572
G01 X-71.06625 Y8.67039
G01 X-70.93544 Y8.64687
G01 X-70.68388 Y8.61931
G01 X-70.56133 Y8.61329
G01 X-70.42841 Y8.61355
G01 X-70.30588 Y8.62007
G01 X-70.16590 Y8.63354
G01 X-70.04431 Y8.65005
G01 X-69.93369 Y8.67039
G01 X-69.82409 Y8.69572
G01 X-69.71124 Y8.72731
G01 X-69.44799 Y9.11997
G01 X-69.18513 Y9.60448
G01 X-69.25135 Y9.48101
G01 X-69.34642 Y9.42353
G01 X-69.50512 Y9.33938
G01 X-69.62447 Y9.28568
G01 X-69.75663 Y9.23668
G01 X-69.91896 Y9.18774
G01 X-70.02661 Y9.16178
G01 X-70.14550 Y9.14029
G01 X-70.31396 Y9.12119
G01 X-70.41441 Y9.11436
G01 X-70.52516 Y9.11268
G01 X-70.63580 Y9.11713
G01 X-70.78457 Y9.13110
G01 X-70.88429 Y9.14499
G01 X-70.99300 Y9.16605
G01 X-71.09071 Y9.19041
G01 X-71.23377 Y9.23356
G01 X-71.33808 Y9.27072
G01 X-71.43100 Y9.30948
G01 X-71.53082 Y9.35746
G01 X-71.66226 Y9.42851
G01 X-71.75675 Y9.48629
G01 X-71.83976 Y9.54326
G01 X-71.92762 Y9.61067
G01 X-72.03455 Y9.70003
G01 X-72.12274 Y9.78261
G01 X-72.21243 Y9.87791
G01 X-72.30179 Y9.98484
G01 X-72.42066 Y10.14727
G01 X-72.48893 Y10.25893
G01 X-72.57308 Y10.41763
G01 X-72.63059 Y10.54631
G01 X-72.67890 Y10.67869
G01 X-72.72734 Y10.84120
G01 X-72.76051 Y10.98850
G01 X-72.78136 Y11.12789
G01 X-72.79726 Y11.30920
G01 X-72.79991 Y12.26030
G01 X-72.79030 Y12.44603
G01 X-72.76747 Y12.63429
G01 X-72.72988 Y12.81153
G01 X-72.68505 Y12.96459
G01 X-72.64535 Y13.07871
G01 X-72.62500 Y13.08054
G01 X-72.64448 Y13.08090
G01 X-72.67588 Y13.17605
G01 X-72.73493 Y13.40627
G01 X-72.75929 Y13.52469
G01 X-72.77758 Y13.65438
G01 X-72.79470 Y13.84181
G01 X-72.79957 Y13.95494
G01 X-72.79808 Y14.06817
G01 X-72.78764 Y14.25080
G01 X-72.77529 Y14.37086
G01 X-72.75571 Y14.48996
G01 X-72.71636 Y14.67556
G01 X-72.70895 Y14.70630
G01 X-72.64646 Y14.72550
G01 X-72.70895 Y14.70630
G01 X-75.51237 Y17.51066
G01 X-75.58156 Y17.58739
G01 X-75.66439 Y17.68803
G01 X-75.77618 Y17.84320
G01 X-75.83396 Y17.93768
G01 X-75.89568 Y18.05127
G01 X-75.97678 Y18.22447
G01 X-76.04100 Y18.40461
G01 X-76.07734 Y18.52869
G01 X-76.10274 Y18.63646
G01 X-76.13249 Y18.82539
G01 X-76.14470 Y18.95544
G01 X-76.14953 Y19.05864
G01 X-76.14991 Y23.91029
G01 X-76.14224 Y24.07542
G01 X-76.12898 Y24.20455
G01 X-76.11410 Y24.30414
G01 X-76.07988 Y24.46152
G01 X-76.02891 Y24.63376
G01 X-75.98059 Y24.76614
G01 X-75.91862 Y24.90386
G01 X-75.83396 Y25.06226
G01 X-75.75390 Y25.19030
G01 X-75.66439 Y25.31191
G01 X-75.54051 Y25.45903
G01 X-73.35662 Y27.64353
G01 X-73.19401 Y27.78064
G01 X-73.05515 Y27.88067
G01 X-72.90826 Y27.96845
G01 X-72.80285 Y28.02410
G01 X-72.70255 Y28.07109
G01 X-72.60925 Y28.10891
G01 X-72.51416 Y28.14198
G01 X-72.39038 Y28.17934
G01 X-72.28299 Y28.20640
G01 X-72.09455 Y28.23896
G01 X-71.86229 Y28.25862
G01 X-67.25432 Y28.25981
G01 X-67.13045 Y28.25468
G01 X-66.98038 Y28.24018
G01 X-66.87081 Y28.22407
G01 X-66.75252 Y28.19961
G01 X-66.64554 Y28.17094
G01 X-66.48404 Y28.11932
G01 X-66.37162 Y28.07508
G01 X-66.25496 Y28.02049
G01 X-66.25496 Y28.56743
G01 X-66.25496 Y23.65489
G01 X-66.98658 Y23.23191
G01 X-67.18219 Y23.30732
G01 X-68.14825 Y23.70747
G01 X-68.36415 Y23.79088
G01 X-68.42867 Y23.81443
G01 X-68.83646 Y23.93902
G01 X-68.91924 Y23.95913
G01 X-69.29217 Y24.03351
G01 X-69.37517 Y24.04656
G01 X-69.80890 Y24.08603
G01 X-70.19112 Y24.08601
G01 X-70.62470 Y24.04623
G01 X-70.69559 Y24.03564
G01 X-70.91837 Y23.99609
G01 X-70.91929 Y23.99924
G01 X-70.91837 Y23.99609
G01 X-70.97118 Y23.98052
G01 X-71.01931 Y23.95377
G01 X-71.02079 Y23.95644
G01 X-71.01931 Y23.95377
G01 X-71.20875 Y23.81700
G01 X-71.49234 Y23.58537
G01 X-71.55370 Y23.52873
G01 X-71.80824 Y23.27420
G01 X-71.89427 Y23.17913
G01 X-71.89803 Y23.18194
G01 X-71.89427 Y23.17913
G01 X-71.92617 Y23.13427
G01 X-71.94751 Y23.08352
G01 X-71.95033 Y23.08469
G01 X-71.94751 Y23.08352
G01 X-72.03636 Y22.78454
G01 X-72.05345 Y22.71547
G01 X-72.12259 Y22.37039
G01 X-72.13547 Y22.28736
G01 X-72.16833 Y21.95129
G01 X-72.17164 Y21.56079
G01 X-72.16694 Y21.47740
G01 X-72.13407 Y21.14141
G01 X-72.05609 Y20.73727
G01 X-72.03597 Y20.65449
G01 X-71.92424 Y20.28845
G01 X-71.82564 Y20.03008
G01 X-71.79325 Y19.95188
G01 X-71.77016 Y19.90865
G01 X-71.77862 Y19.90306
G01 X-71.77016 Y19.90865
G01 X-71.73907 Y19.87078
G01 X-68.56128 Y16.69298
G01 X-68.46037 Y16.58699
G01 X-68.33900 Y16.17960
G01 X-68.27086 Y15.83792
G01 X-68.23375 Y15.51061
G01 X-68.22288 Y15.45656
G01 X-68.12758 Y15.14516
G01 X-68.06438 Y14.87584
G01 X-68.01856 Y14.61041
G01 X-67.99511 Y14.41011
G01 X-67.98567 Y14.29487
G01 X-67.97619 Y14.07442
G01 X-67.97573 Y13.95969
G01 X-67.98328 Y13.74160
G01 X-67.99148 Y13.62939
G01 X-68.02283 Y13.36477
G01 X-68.15770 Y13.14153
G01 X-68.34901 Y12.81242
G01 X-68.42702 Y12.67059
G01 X-68.45211 Y12.60231
G01 X-68.45536 Y12.60348
G01 X-68.45211 Y12.60231
G01 X-68.47060 Y12.51598
G01 X-68.60873 Y11.91123
G01 X-68.70169 Y11.60564
G01 X-68.73484 Y11.51379
G01 X-68.74614 Y11.47163
G01 X-68.74932 Y11.47224
G01 X-68.74614 Y11.47163
G01 X-68.75635 Y11.20508
G01 X-68.78861 Y10.87864
G01 X-68.86268 Y10.49548
G01 X-69.00045 Y10.04250
G01 X-69.18513 Y9.60448
G01 X-69.44799 Y9.11997
G01 X-69.78200 Y8.62175
G01 X-69.81828 Y8.57283
G01 X-70.30560 Y7.98129
G01 X-71.46676 Y6.71096
G01 X-71.69861 Y6.76516
G01 X-71.95015 Y6.83811
G01 X-72.15226 Y6.90621
G01 X-72.36026 Y6.98772
G01 X-72.58223 Y7.08830
G01 X-72.81471 Y7.20893
G01 X-73.00831 Y7.32041
G01 X-73.20453 Y7.44708
G01 X-73.40199 Y7.58993
G01 X-73.60590 Y7.75432
G01 X-73.77336 Y7.90217
G01 X-73.93328 Y8.05818
G01 X-74.09866 Y8.23717
G01 X-74.26622 Y8.43846
G01 X-74.40122 Y8.61647
G01 X-74.53274 Y8.80948
G01 X-74.66411 Y9.02670
G01 X-74.79256 Y9.26653
G01 X-74.89665 Y9.48690
G01 X-74.98504 Y9.70308
G01 X-75.06520 Y9.93323
G01 X-75.14730 Y10.21385
G01 X-75.20264 Y10.45119
G01 X-75.24653 Y10.70122
G01 X-75.26718 Y10.86239
G01 X-75.28634 Y11.06353
G01 X-75.29609 Y11.22761
G01 X-75.29985 Y11.39195
G01 X-75.29985 Y12.27051
G01 X-75.29520 Y12.45540
G01 X-75.28385 Y12.62967
G01 X-75.26376 Y12.83038
G01 X-75.23566 Y13.03150
G01 X-75.22342 Y13.10300
G01 X-75.21986 Y13.10295
G01 X-75.22342 Y13.10300
G01 X-75.23023 Y13.14348
G01 X-75.25593 Y13.32375
G01 X-75.28890 Y13.67226
G01 X-75.29393 Y13.75583
G01 X-75.26673 Y13.76883
G01 X-75.29393 Y13.75583
G01 X-77.26576 Y15.72778
G01 X-77.37208 Y15.83934
G01 X-77.48120 Y15.96225
G01 X-77.61623 Y16.12595
G01 X-77.72735 Y16.27109
G01 X-77.83815 Y16.42908
G01 X-77.94206 Y16.59164
G01 X-78.03891 Y16.75851
G01 X-78.14714 Y16.96309
G01 X-78.23429 Y17.14655
G01 X-78.30934 Y17.32430
G01 X-78.38333 Y17.52430
G01 X-78.45331 Y17.74492
G01 X-78.50241 Y17.92100
G01 X-78.54643 Y18.10885
G01 X-78.58237 Y18.29841
G01 X-78.61137 Y18.49943
G01 X-78.63385 Y18.72028
G01 X-78.64650 Y18.92536
G01 X-78.64988 Y19.08970
