( pcb2gcode 2.5.0 )
( Software-independent Gcode )

G94 ( Millimeters per minute feed rate. )
G21 ( Units == Millimeters. )

G90 ( Absolute coordinates. )
G00 S1000 ( RPM spindle speed. )
G64 P0.01016 ( set maximum deviation from commanded toolpath )
G01 F30.00000 ( Feedrate. )


G00 Z10.00000 (Retract to tool change height)
T1
M5      (Spindle stop.)
G04 P5.00000 (Wait for spindle to stop)
(MSG, Change tool bit to mill diameter 1.00000mm)
M6      (Tool change.)
M0      (Temporary machine stop.)
M3 ( Spindle on clockwise. )
G04 P3.00000 (Wait for spindle to get up to speed)
G04 P0 ( dwell for no time -- G64 should not smooth over this point )
G00 Z1.00000 ( retract )

G00 X-42.59697 Y33.38891 ( rapid move to begin. )
G01 F20.00000
( Mill infeed pass 1/1 )
G01 Z-0.30000
G04 P0 ( dwell for no time -- G64 should not smooth over this point )
G01 F30.00000
G01 X-42.59697 Y33.38891
G01 X-42.60233 Y33.03222
G01 X-42.62255 Y32.65566
G01 X-42.66118 Y32.24192
G01 X-42.71013 Y31.86991
G01 X-42.91310 Y31.75417
G01 X-43.80037 Y31.47200
G01 X-43.25508 Y31.64543
G01 X-43.21795 Y31.85874
G01 X-43.18643 Y32.06966
G01 X-43.13923 Y32.48122
G01 X-43.10954 Y32.87613
G01 X-43.09735 Y33.26183
G01 X-43.10205 Y33.65784
G01 X-43.12496 Y34.06341
G01 X-43.16575 Y34.47562
G01 X-43.22453 Y34.88781
G01 X-43.30017 Y35.28690
G01 X-43.39374 Y35.68217
G01 X-43.47848 Y35.98537
G01 X-43.58437 Y36.32243
G01 X-43.69656 Y36.63823
G01 X-43.81650 Y36.94024
G01 X-43.94302 Y37.22853
G01 X-44.08411 Y37.52126
G01 X-44.25851 Y37.85169
G01 X-44.41485 Y38.12494
G01 X-44.58063 Y38.39256
G01 X-44.76148 Y38.66256
G01 X-44.95195 Y38.92586
G01 X-45.15820 Y39.18999
G01 X-45.37814 Y39.45341
G01 X-45.60207 Y39.70274
G01 X-45.82074 Y39.92921
G01 X-46.06209 Y40.16172
G01 X-46.38147 Y40.44437
G01 X-46.72716 Y40.72412
G01 X-47.06242 Y40.97101
G01 X-47.39157 Y41.19123
G01 X-47.73892 Y41.40182
G01 X-48.13826 Y41.61958
G01 X-48.50298 Y41.79842
G01 X-48.86599 Y41.95676
G01 X-49.15929 Y42.07114
G01 X-49.48535 Y42.18470
G01 X-49.82301 Y42.28869
G01 X-50.15634 Y42.37881
G01 X-50.52268 Y42.46227
G01 X-50.89218 Y42.53037
G01 X-51.27429 Y42.58419
G01 X-51.61262 Y42.61668
G01 X-51.92517 Y42.72095
G01 X-52.26754 Y42.82026
G01 X-52.59370 Y42.90141
G01 X-52.92715 Y42.97114
G01 X-53.76245 Y42.59504
G01 X-53.52443 Y42.56514
G01 X-53.26405 Y42.52455
G01 X-52.95481 Y42.46725
G01 X-52.69713 Y42.41216
G01 X-52.44127 Y42.34909
G01 X-52.20696 Y42.28386
G01 X-51.96495 Y42.20883
G01 X-51.71613 Y42.12333
G01 X-51.62436 Y42.11790
G01 X-51.37351 Y42.09237
G01 X-51.01049 Y42.04297
G01 X-50.65001 Y41.97797
G01 X-50.30252 Y41.89994
G01 X-49.91956 Y41.79593
G01 X-49.70762 Y41.73103
G01 X-49.49518 Y41.66042
G01 X-49.29419 Y41.58783
G01 X-49.10452 Y41.51401
G01 X-48.74001 Y41.35712
G01 X-48.51949 Y41.25217
G01 X-48.30206 Y41.14091
G01 X-48.05378 Y41.00579
G01 X-47.82538 Y40.87221
G01 X-47.61835 Y40.74267
G01 X-47.39836 Y40.59568
G01 X-47.19124 Y40.44795
G01 X-46.98065 Y40.28780
G01 X-46.76094 Y40.10993
G01 X-46.57514 Y39.95141
G01 X-46.38655 Y39.78067
G01 X-46.19592 Y39.59720
G01 X-46.01108 Y39.40790
G01 X-45.83900 Y39.22052
G01 X-45.67260 Y39.02809
G01 X-45.49369 Y38.80922
G01 X-45.34446 Y38.61587
G01 X-45.20087 Y38.41834
G01 X-45.06300 Y38.21674
G01 X-44.93638 Y38.01991
G01 X-44.81520 Y37.81966
G01 X-44.69470 Y37.60724
G01 X-44.57126 Y37.37577
G01 X-44.46209 Y37.15728
G01 X-44.36344 Y36.94506
G01 X-44.27063 Y36.73018
G01 X-44.18378 Y36.51283
G01 X-44.09958 Y36.28360
G01 X-44.01891 Y36.04232
G01 X-43.94538 Y35.80112
G01 X-43.88010 Y35.56577
G01 X-43.82392 Y35.33856
G01 X-43.77197 Y35.09993
G01 X-43.72691 Y34.85990
G01 X-43.69021 Y34.62873
G01 X-43.65991 Y34.39665
G01 X-43.63204 Y34.12559
G01 X-43.61398 Y33.89224
G01 X-43.60200 Y33.64829
G01 X-43.59709 Y33.41428
G01 X-43.59907 Y33.15990
G01 X-43.60814 Y32.91583
G01 X-43.62503 Y32.66201
G01 X-43.64871 Y32.41096
G01 X-43.67759 Y32.16844
G01 X-43.71017 Y31.94695
G01 X-43.75236 Y31.70639
G01 X-43.80037 Y31.47200
G01 X-44.58081 Y31.22508
G01 X-44.35645 Y31.29557
G01 X-44.27268 Y31.65406
G01 X-44.20728 Y32.00499
G01 X-44.15643 Y32.36862
G01 X-44.11873 Y32.76219
G01 X-44.10197 Y33.06770
G01 X-44.09686 Y33.35325
G01 X-44.10197 Y33.63877
G01 X-44.11873 Y33.94428
G01 X-44.14957 Y34.27705
G01 X-44.18698 Y34.57044
G01 X-44.23339 Y34.85223
G01 X-44.29422 Y35.15210
G01 X-44.35620 Y35.40994
G01 X-44.42381 Y35.65578
G01 X-44.51281 Y35.94494
G01 X-44.60197 Y36.20361
G01 X-44.69613 Y36.44969
G01 X-44.80242 Y36.70181
G01 X-44.91728 Y36.95012
G01 X-45.03585 Y37.18540
G01 X-45.17542 Y37.44303
G01 X-45.30928 Y37.67193
G01 X-45.46183 Y37.91336
G01 X-45.61114 Y38.13254
G01 X-45.76760 Y38.34663
G01 X-45.93107 Y38.55542
G01 X-46.12455 Y38.78776
G01 X-46.31355 Y38.99939
G01 X-46.46018 Y39.15362
G01 X-46.61812 Y39.31097
G01 X-46.77291 Y39.45699
G01 X-46.93153 Y39.59885
G01 X-47.08606 Y39.72999
G01 X-47.29823 Y39.90147
G01 X-47.47684 Y40.03731
G01 X-47.65081 Y40.16225
G01 X-47.83658 Y40.28811
G01 X-48.01713 Y40.40332
G01 X-48.19190 Y40.50853
G01 X-48.37824 Y40.61417
G01 X-48.60049 Y40.73284
G01 X-48.79071 Y40.82824
G01 X-48.98339 Y40.91856
G01 X-49.18776 Y41.00764
G01 X-49.48926 Y41.12697
G01 X-49.79535 Y41.23398
G01 X-50.14316 Y41.34028
G01 X-50.45875 Y41.42341
G01 X-50.79751 Y41.49755
G01 X-51.13912 Y41.55694
G01 X-51.49319 Y41.60256
G01 X-51.73449 Y41.62562
G01 X-51.81963 Y41.62984
G01 X-51.93784 Y41.67332
G01 X-52.25712 Y41.77690
G01 X-52.48186 Y41.84226
G01 X-52.68862 Y41.89616
G01 X-52.89674 Y41.94452
G01 X-53.09606 Y41.98539
G01 X-53.37630 Y42.03647
G01 X-53.61770 Y42.07330
G01 X-53.88033 Y42.10484
G01 X-54.14388 Y42.12770
G01 X-54.45872 Y42.14632
G01 X-54.74012 Y42.15280
G01 X-56.05160 Y41.55808
G01 X-55.79293 Y41.59275
G01 X-55.45026 Y41.62753
G01 X-55.18772 Y41.64378
G01 X-54.87279 Y41.65244
G01 X-54.60708 Y41.65087
G01 X-54.34160 Y41.63990
G01 X-54.02603 Y41.61666
G01 X-53.72130 Y41.58275
G01 X-53.48879 Y41.54833
G01 X-53.20787 Y41.49771
G01 X-52.98984 Y41.45305
G01 X-52.79283 Y41.40688
G01 X-52.57764 Y41.34996
G01 X-52.37394 Y41.28968
G01 X-52.05618 Y41.18541
G01 X-51.92278 Y41.13809
G01 X-51.92344 Y41.13512
G01 X-51.92278 Y41.13809
G01 X-51.73287 Y41.12364
G01 X-51.42139 Y41.09108
G01 X-51.16995 Y41.05577
G01 X-50.91986 Y41.01198
G01 X-50.66152 Y40.95750
G01 X-50.41506 Y40.89657
G01 X-50.19027 Y40.83317
G01 X-49.91125 Y40.74571
G01 X-49.67178 Y40.66141
G01 X-49.42591 Y40.56517
G01 X-49.18357 Y40.46035
G01 X-48.95418 Y40.35156
G01 X-48.67674 Y40.20736
G01 X-48.45522 Y40.08331
G01 X-48.22086 Y39.94099
G01 X-48.00023 Y39.79593
G01 X-47.79302 Y39.64922
G01 X-47.57496 Y39.48298
G01 X-47.34865 Y39.29786
G01 X-47.14987 Y39.12410
G01 X-46.95731 Y38.94343
G01 X-46.76422 Y38.74874
G01 X-46.57837 Y38.54717
G01 X-46.41296 Y38.35456
G01 X-46.26696 Y38.17498
G01 X-46.13697 Y38.00589
G01 X-46.01185 Y37.83320
G01 X-45.88609 Y37.64851
G01 X-45.77123 Y37.46884
G01 X-45.66153 Y37.28593
G01 X-45.56194 Y37.10894
G01 X-45.44405 Y36.88646
G01 X-45.35394 Y36.70445
G01 X-45.26054 Y36.50148
G01 X-45.18091 Y36.31463
G01 X-45.09920 Y36.10668
G01 X-45.03031 Y35.91563
G01 X-44.96359 Y35.71306
G01 X-44.89674 Y35.49147
G01 X-44.83798 Y35.27593
G01 X-44.77906 Y35.02896
G01 X-44.72851 Y34.78017
G01 X-44.68642 Y34.52980
G01 X-44.65051 Y34.25797
G01 X-44.62201 Y33.96696
G01 X-44.60552 Y33.71362
G01 X-44.59747 Y33.44972
G01 X-44.59851 Y33.19584
G01 X-44.60870 Y32.93199
G01 X-44.62724 Y32.67878
G01 X-44.65886 Y32.37791
G01 X-44.69417 Y32.12648
G01 X-44.73603 Y31.88637
G01 X-44.79244 Y31.61805
G01 X-44.85338 Y31.37159
G01 X-44.92622 Y31.11536
G01 X-44.58081 Y31.22508
G01 X-49.13465 Y29.77802
G01 X-48.24405 Y30.06184
G01 X-48.06744 Y30.29621
G01 X-47.91027 Y30.53197
G01 X-47.77158 Y30.76738
G01 X-47.62708 Y31.04368
G01 X-47.51390 Y31.29237
G01 X-47.41106 Y31.55640
G01 X-47.31202 Y31.86270
G01 X-47.24573 Y32.10684
G01 X-47.19376 Y32.34411
G01 X-47.15485 Y32.57359
G01 X-47.12764 Y32.79455
G01 X-47.10511 Y33.06496
G01 X-47.09711 Y33.29757
G01 X-47.09960 Y33.52020
G01 X-47.11197 Y33.74250
G01 X-47.13641 Y33.99241
G01 X-47.16716 Y34.21291
G01 X-47.21189 Y34.45162
G01 X-47.26559 Y34.67811
G01 X-47.33788 Y34.92911
G01 X-47.41106 Y35.15007
G01 X-47.49061 Y35.35802
G01 X-47.57933 Y35.56221
G01 X-47.67707 Y35.76226
G01 X-47.77649 Y35.94793
G01 X-47.87308 Y36.11420
G01 X-47.97600 Y36.27664
G01 X-48.08507 Y36.43498
G01 X-48.20638 Y36.59701
G01 X-48.35840 Y36.78398
G01 X-48.49180 Y36.93620
G01 X-48.62416 Y37.07569
G01 X-48.76175 Y37.21001
G01 X-48.91207 Y37.34554
G01 X-49.08954 Y37.49322
G01 X-49.24956 Y37.61712
G01 X-49.41448 Y37.73447
G01 X-49.57544 Y37.83968
G01 X-49.74910 Y37.94364
G01 X-49.93389 Y38.04468
G01 X-50.20612 Y38.17904
G01 X-50.48601 Y38.29665
G01 X-50.75321 Y38.39088
G01 X-51.07183 Y38.48435
G01 X-51.23899 Y38.52504
G01 X-51.41737 Y38.56185
G01 X-51.58699 Y38.59063
G01 X-51.75750 Y38.61354
G01 X-51.98811 Y38.63642
G01 X-52.17180 Y38.64808
G01 X-52.44465 Y38.65314
G01 X-52.44633 Y38.64508
G01 X-52.44465 Y38.65314
G01 X-52.46200 Y38.66091
G01 X-52.73332 Y38.77239
G01 X-52.90487 Y38.83350
G01 X-53.17505 Y38.92042
G01 X-53.35049 Y38.96924
G01 X-53.52758 Y39.01163
G01 X-53.93728 Y39.08834
G01 X-54.12971 Y39.11435
G01 X-54.30261 Y39.13127
G01 X-54.53604 Y39.14686
G01 X-54.72874 Y39.15270
G01 X-54.91140 Y39.15141
G01 X-55.13421 Y39.14343
G01 X-55.31582 Y39.12997
G01 X-55.52747 Y39.10678
G01 X-55.70837 Y39.08151
G01 X-55.87825 Y39.05159
G01 X-56.11688 Y39.00109
G01 X-56.28485 Y38.95974
G01 X-56.47073 Y38.90668
G01 X-56.69341 Y38.83480
G01 X-56.86567 Y38.77264
G01 X-57.02617 Y38.70820
G01 X-57.23098 Y38.61836
G01 X-57.39577 Y38.53960
G01 X-57.54868 Y38.45974
G01 X-57.75216 Y38.34511
G01 X-57.89938 Y38.25519
G01 X-58.04342 Y38.16025
G01 X-58.23496 Y38.02596
G01 X-58.39684 Y37.90264
G01 X-58.59231 Y37.73995
G01 X-58.72947 Y37.61862
G01 X-58.86935 Y37.48517
G01 X-59.01827 Y37.33201
G01 X-59.14210 Y37.19772
G01 X-59.26092 Y37.05901
G01 X-59.40011 Y36.88425
G01 X-59.50938 Y36.73790
G01 X-59.60763 Y36.59609
G01 X-59.73973 Y36.39101
G01 X-59.83354 Y36.23373
G01 X-59.91680 Y36.08212
G01 X-60.02721 Y35.86434
G01 X-60.10422 Y35.69818
G01 X-60.17509 Y35.52932
G01 X-60.26208 Y35.30150
G01 X-60.31786 Y35.13826
G01 X-60.37075 Y34.96343
G01 X-60.42668 Y34.75764
G01 X-60.47232 Y34.55987
G01 X-60.51743 Y34.32033
G01 X-60.54443 Y34.14946
G01 X-60.56655 Y33.96767
G01 X-60.58535 Y33.74466
G01 X-60.59559 Y33.56181
G01 X-60.59912 Y33.38886
G01 X-60.59518 Y33.15495
G01 X-60.58682 Y32.97248
G01 X-60.57080 Y32.78035
G01 X-60.54565 Y32.56857
G01 X-60.51850 Y32.38795
G01 X-60.48680 Y32.21838
G01 X-60.43882 Y31.99996
G01 X-60.39373 Y31.82247
G01 X-60.34217 Y31.64672
G01 X-60.26887 Y31.42452
G01 X-60.20930 Y31.26214
G01 X-60.14016 Y31.09255
G01 X-60.04476 Y30.87914
G01 X-59.95815 Y30.70240
G01 X-59.28878 Y30.53629
G01 X-59.38332 Y30.69397
G01 X-59.49699 Y30.89930
G01 X-59.57913 Y31.06390
G01 X-59.66734 Y31.25897
G01 X-59.72998 Y31.40923
G01 X-59.79051 Y31.57126
G01 X-59.86109 Y31.78365
G01 X-59.91281 Y31.95935
G01 X-59.95733 Y32.13697
G01 X-60.00839 Y32.37629
G01 X-60.03925 Y32.55764
G01 X-60.06549 Y32.76001
G01 X-60.08187 Y32.92269
G01 X-60.09279 Y33.09610
G01 X-60.09894 Y33.33036
G01 X-60.09726 Y33.50331
G01 X-60.08964 Y33.66592
G01 X-60.07194 Y33.88904
G01 X-60.05055 Y34.07092
G01 X-60.02358 Y34.24177
G01 X-59.98609 Y34.44225
G01 X-59.94283 Y34.63155
G01 X-59.88088 Y34.85794
G01 X-59.82599 Y35.03351
G01 X-59.76760 Y35.19716
G01 X-59.68566 Y35.40557
G01 X-59.62051 Y35.55474
G01 X-59.54080 Y35.71964
G01 X-59.44707 Y35.90021
G01 X-59.35637 Y36.05931
G01 X-59.22630 Y36.26599
G01 X-59.12317 Y36.41832
G01 X-59.02015 Y36.55822
G01 X-58.90011 Y36.71042
G01 X-58.79483 Y36.83554
G01 X-58.69902 Y36.94181
G01 X-58.55106 Y37.09629
G01 X-58.44202 Y37.20308
G01 X-58.32942 Y37.30607
G01 X-58.17494 Y37.43848
G01 X-58.05625 Y37.53444
G01 X-57.93438 Y37.62632
G01 X-57.63125 Y37.83317
G01 X-57.49163 Y37.91826
G01 X-57.32275 Y38.01344
G01 X-57.18711 Y38.08489
G01 X-57.04914 Y38.15169
G01 X-56.85343 Y38.23835
G01 X-56.70263 Y38.29967
G01 X-56.54970 Y38.35550
G01 X-56.35630 Y38.41867
G01 X-56.20995 Y38.46200
G01 X-56.06224 Y38.50035
G01 X-55.70306 Y38.57551
G01 X-55.54152 Y38.60081
G01 X-55.33875 Y38.62517
G01 X-55.18531 Y38.63911
G01 X-55.03146 Y38.64778
G01 X-54.82714 Y38.65283
G01 X-54.68407 Y38.65192
G01 X-54.53090 Y38.64590
G01 X-54.32811 Y38.63170
G01 X-54.11724 Y38.60904
G01 X-53.91760 Y38.57826
G01 X-53.64810 Y38.52619
G01 X-53.41074 Y38.46784
G01 X-53.21557 Y38.40945
G01 X-52.90754 Y38.30371
G01 X-52.64407 Y38.19459
G01 X-52.55496 Y38.15314
G01 X-52.55684 Y38.14470
G01 X-52.55496 Y38.15314
G01 X-52.31450 Y38.15240
G01 X-52.14000 Y38.14582
G01 X-51.97610 Y38.13345
G01 X-51.79616 Y38.11463
G01 X-51.64526 Y38.09373
G01 X-51.48522 Y38.06581
G01 X-51.31633 Y38.02982
G01 X-51.09035 Y37.97092
G01 X-50.82101 Y37.88659
G01 X-50.58334 Y37.79744
G01 X-50.36942 Y37.70368
G01 X-50.21458 Y37.62733
G01 X-50.03749 Y37.53231
G01 X-49.88837 Y37.44531
G01 X-49.73424 Y37.34704
G01 X-49.60069 Y37.25448
G01 X-49.46254 Y37.15095
G01 X-49.29078 Y37.01141
G01 X-49.16073 Y36.89787
G01 X-49.02065 Y36.76518
G01 X-48.89332 Y36.63406
G01 X-48.77140 Y36.49784
G01 X-48.64953 Y36.35101
G01 X-48.54351 Y36.21476
G01 X-48.44857 Y36.08288
G01 X-48.35299 Y35.93915
G01 X-48.26300 Y35.79183
G01 X-48.14143 Y35.57135
G01 X-48.06368 Y35.41720
G01 X-47.98385 Y35.24156
G01 X-47.91164 Y35.06264
G01 X-47.84397 Y34.87115
G01 X-47.77344 Y34.64006
G01 X-47.72477 Y34.45335
G01 X-47.68413 Y34.26473
G01 X-47.65015 Y34.06450
G01 X-47.62731 Y33.88314
G01 X-47.60745 Y33.66275
G01 X-47.59782 Y33.44972
G01 X-47.59782 Y33.25675
G01 X-47.60610 Y33.06399
G01 X-47.62731 Y32.82333
G01 X-47.65015 Y32.64197
G01 X-47.68413 Y32.44174
G01 X-47.72477 Y32.25312
G01 X-47.77344 Y32.06641
G01 X-47.83767 Y31.85465
G01 X-47.90095 Y31.67235
G01 X-47.97194 Y31.49295
G01 X-48.04626 Y31.32595
G01 X-48.12729 Y31.16209
G01 X-48.23257 Y30.96745
G01 X-48.34753 Y30.77591
G01 X-48.47186 Y30.59029
G01 X-48.59899 Y30.41907
G01 X-48.75820 Y30.22404
G01 X-48.90719 Y30.05760
G01 X-49.05698 Y29.90578
G01 X-49.22804 Y29.74871
G01 X-49.13465 Y29.77802
G01 X-49.65720 Y29.61251
G01 X-50.21539 Y29.45371
G01 X-50.67988 Y29.34792
G01 X-51.09215 Y29.27617
G01 X-51.95087 Y29.18882
G01 X-52.39977 Y29.17657
G01 X-52.63700 Y29.17657
G01 X-52.69062 Y29.17246
G01 X-52.95141 Y29.11450
G01 X-53.43060 Y29.03050
G01 X-53.83327 Y28.97889
G01 X-54.68818 Y29.25587
G01 X-55.39717 Y29.47642
G01 X-56.21106 Y29.71830
G01 X-56.67540 Y29.85023
G01 X-57.48950 Y30.07388
G01 X-57.99409 Y30.20741
G01 X-59.10570 Y30.49125
G01 X-60.05185 Y30.72506
G01 X-61.20133 Y32.02866
G01 X-61.78870 Y32.68515
G01 X-63.06536 Y34.09648
G01 X-63.04394 Y34.31012
G01 X-63.01798 Y34.51195
G01 X-62.98827 Y34.70298
G01 X-62.94496 Y34.94362
G01 X-62.86459 Y35.31311
G01 X-62.75517 Y35.71723
G01 X-62.63612 Y36.08685
G01 X-62.48052 Y36.49680
G01 X-62.33467 Y36.83279
G01 X-62.15918 Y37.18862
G01 X-62.05858 Y37.37712
G01 X-61.96294 Y37.54514
G01 X-61.85764 Y37.71928
G01 X-61.73701 Y37.90795
G01 X-61.51700 Y38.22794
G01 X-61.27499 Y38.54417
G01 X-61.15215 Y38.69459
G01 X-61.01192 Y38.85707
G01 X-60.73338 Y39.15540
G01 X-60.47209 Y39.41206
G01 X-60.20252 Y39.65232
G01 X-59.00710 Y40.20536
G01 X-56.82303 Y41.20670
G01 X-54.32544 Y42.34114
G01 X-52.17287 Y43.31249
G01 X-51.82652 Y43.21376
G01 X-51.50924 Y43.10944
G01 X-51.34620 Y43.09534
G01 X-51.11336 Y43.06799
G01 X-50.69022 Y43.00324
G01 X-50.30031 Y42.92613
G01 X-49.89421 Y42.82752
G01 X-49.48547 Y42.70929
G01 X-49.12929 Y42.59184
G01 X-48.76858 Y42.45666
G01 X-48.40440 Y42.30284
G01 X-48.20188 Y42.20944
G01 X-48.00163 Y42.11129
G01 X-47.59980 Y41.89768
G01 X-47.22216 Y41.67530
G01 X-46.87199 Y41.44726
G01 X-46.68832 Y41.31861
G01 X-46.50776 Y41.18567
G01 X-46.32239 Y41.04216
G01 X-46.15012 Y40.90238
G01 X-45.98723 Y40.76532
G01 X-45.81241 Y40.61107
G01 X-45.51756 Y40.33274
G01 X-45.21416 Y40.01978
G01 X-45.07128 Y39.86197
G01 X-44.91891 Y39.68552
G01 X-44.61988 Y39.31514
G01 X-44.47316 Y39.11940
G01 X-44.34314 Y38.93673
G01 X-44.10161 Y38.57102
G01 X-43.88223 Y38.20345
G01 X-43.65239 Y37.77544
G01 X-43.55361 Y37.57549
G01 X-43.45955 Y37.37328
G01 X-43.37027 Y37.16891
G01 X-43.28208 Y36.95309
G01 X-43.13481 Y36.55362
G01 X-43.06179 Y36.33221
G01 X-42.98838 Y36.09127
G01 X-42.87693 Y35.67798
G01 X-42.78224 Y35.25009
G01 X-42.74144 Y35.02960
G01 X-42.70586 Y34.80819
G01 X-42.65249 Y34.38347
G01 X-42.63057 Y34.15243
G01 X-42.61315 Y33.90842
G01 X-42.60134 Y33.64370
G01 X-42.59697 Y33.38891
G01 X-43.09694 Y33.38370
G01 X-44.09694 Y33.38383
G01 X-44.59691 Y33.37862
G01 X-45.59689 Y33.37875
G01 X-47.09683 Y33.36841
G01 X-48.09680 Y33.36854
G01 X-48.59678 Y33.36333
G01 X-49.09678 Y33.36338
G01 X-49.10298 Y33.16041
G01 X-49.12355 Y32.94009
G01 X-49.15068 Y32.75935
G01 X-49.18636 Y32.59044
G01 X-49.24877 Y32.36760
G01 X-49.30714 Y32.19437
G01 X-49.38006 Y32.01576
G01 X-49.46432 Y31.84220
G01 X-49.56632 Y31.65737
G01 X-49.66995 Y31.49463
G01 X-49.78382 Y31.33890
G01 X-49.93132 Y31.16057
G01 X-50.06330 Y31.01983
G01 X-50.20404 Y30.88785
G01 X-50.38237 Y30.74035
G01 X-50.53810 Y30.62648
G01 X-50.64874 Y30.55445
G01 X-50.77130 Y30.48239
G01 X-50.92177 Y30.40217
G01 X-51.04999 Y30.34073
G01 X-51.17148 Y30.28920
G01 X-51.29520 Y30.24304
G01 X-51.58466 Y30.15524
G01 X-51.73302 Y30.12072
G01 X-51.88293 Y30.09379
G01 X-52.02390 Y30.07556
G01 X-52.19375 Y30.06016
G01 X-52.37640 Y30.05336
G01 X-52.91549 Y30.05328
G01 X-52.91884 Y30.06725
G01 X-52.91549 Y30.05328
G01 X-52.95826 Y30.02945
G01 X-53.12212 Y29.94358
G01 X-53.26286 Y29.87855
G01 X-53.40264 Y29.81947
G01 X-53.51569 Y29.77690
G01 X-53.78597 Y29.69288
G01 X-54.00060 Y29.63824
G01 X-54.23990 Y29.59511
G01 X-54.42445 Y29.57210
G01 X-54.67088 Y29.55554
G01 X-54.87642 Y29.55440
G01 X-55.02097 Y29.55986
G01 X-55.21523 Y29.57619
G01 X-55.38826 Y29.59981
G01 X-55.58861 Y29.63624
G01 X-55.75684 Y29.67642
G01 X-55.97177 Y29.73873
G01 X-56.15381 Y29.80373
G01 X-56.33334 Y29.87670
G01 X-56.49039 Y29.95094
G01 X-56.68043 Y30.05150
G01 X-56.87245 Y30.16898
G01 X-57.02419 Y30.27291
G01 X-57.20194 Y30.40944
G01 X-57.32582 Y30.51505
G01 X-57.47403 Y30.65445
G01 X-57.60105 Y30.78635
G01 X-57.75376 Y30.96359
G01 X-57.84731 Y31.08419
G01 X-57.97012 Y31.25932
G01 X-58.06255 Y31.40641
G01 X-58.16727 Y31.59336
G01 X-58.23516 Y31.73080
G01 X-58.32127 Y31.92650
G01 X-58.38226 Y32.08833
G01 X-58.45084 Y32.30136
G01 X-58.48988 Y32.44891
G01 X-58.53511 Y32.65805
G01 X-58.56145 Y32.81944
G01 X-58.58492 Y33.02213
G01 X-58.59480 Y33.17509
G01 X-58.59915 Y33.38886
G01 X-58.59328 Y33.56173
G01 X-58.57476 Y33.78474
G01 X-58.55246 Y33.94601
G01 X-58.51345 Y34.15645
G01 X-58.47522 Y34.31543
G01 X-58.41548 Y34.52119
G01 X-58.36486 Y34.66589
G01 X-58.28594 Y34.86450
G01 X-58.21759 Y35.01225
G01 X-58.11439 Y35.21083
G01 X-58.03141 Y35.35086
G01 X-57.91992 Y35.52154
G01 X-57.82356 Y35.65365
G01 X-57.69597 Y35.81288
G01 X-57.60103 Y35.91992
G01 X-57.45244 Y36.07364
G01 X-57.33331 Y36.18461
G01 X-57.16237 Y36.32906
G01 X-57.03263 Y36.42733
G01 X-56.85612 Y36.54834
G01 X-56.71670 Y36.63376
G01 X-56.53794 Y36.73216
G01 X-56.40006 Y36.79919
G01 X-56.20382 Y36.88405
G01 X-56.05125 Y36.94072
G01 X-55.83791 Y37.00843
G01 X-55.68036 Y37.04933
G01 X-55.48097 Y37.09137
G01 X-55.31952 Y37.11722
G01 X-55.11630 Y37.13988
G01 X-54.97279 Y37.14895
G01 X-54.76855 Y37.15301
G01 X-54.63576 Y37.14938
G01 X-54.48330 Y37.13932
G01 X-54.29247 Y37.11915
G01 X-54.00256 Y37.06800
G01 X-53.80281 Y37.02002
G01 X-53.51031 Y36.92690
G01 X-53.30929 Y36.84869
G01 X-53.19710 Y36.79759
G01 X-52.99565 Y36.69754
G01 X-52.91534 Y36.65319
G01 X-52.91859 Y36.63968
G01 X-52.91534 Y36.65319
G01 X-52.37640 Y36.65311
G01 X-52.20386 Y36.64697
G01 X-52.02390 Y36.63091
G01 X-51.89299 Y36.61420
G01 X-51.74298 Y36.58779
G01 X-51.60432 Y36.55626
G01 X-51.32400 Y36.47331
G01 X-51.19040 Y36.42474
G01 X-51.07783 Y36.37811
G01 X-50.93988 Y36.31344
G01 X-50.79799 Y36.23876
G01 X-50.67470 Y36.16795
G01 X-50.56335 Y36.09703
G01 X-50.40648 Y35.98474
G01 X-50.23472 Y35.84522
G01 X-50.09949 Y35.72226
G01 X-49.97201 Y35.59127
G01 X-49.82185 Y35.41519
G01 X-49.70483 Y35.26180
G01 X-49.59792 Y35.10120
G01 X-49.50155 Y34.93407
G01 X-49.40546 Y34.74608
G01 X-49.32520 Y34.55954
G01 X-49.26084 Y34.37768
G01 X-49.19617 Y34.15546
G01 X-49.15626 Y33.97710
G01 X-49.12477 Y33.77646
G01 X-49.10364 Y33.55619
G01 X-49.09678 Y33.36338
G01 X-49.59678 Y33.36346
G01 X-49.59929 Y33.24078
G01 X-49.60780 Y33.11837
G01 X-49.62525 Y32.95825
G01 X-49.64664 Y32.82706
G01 X-49.67254 Y32.70712
G01 X-49.70429 Y32.58861
G01 X-49.75225 Y32.43483
G01 X-49.79833 Y32.31015
G01 X-49.84666 Y32.19737
G01 X-49.90048 Y32.08711
G01 X-49.97714 Y31.94545
G01 X-50.04618 Y31.83186
G01 X-50.11519 Y31.73039
G01 X-50.18908 Y31.63245
G01 X-50.29159 Y31.50819
G01 X-50.38105 Y31.40989
G01 X-50.52093 Y31.27510
G01 X-50.69197 Y31.13296
G01 X-50.83264 Y31.03085
G01 X-50.98006 Y30.93877
G01 X-51.16703 Y30.83847
G01 X-51.33464 Y30.76252
G01 X-51.50744 Y30.69910
G01 X-51.72080 Y30.63646
G01 X-51.85047 Y30.60708
G01 X-51.97137 Y30.58610
G01 X-52.08298 Y30.57210
G01 X-52.26383 Y30.55681
G01 X-52.38648 Y30.55330
G01 X-53.05400 Y30.55328
G01 X-53.05819 Y30.56941
G01 X-53.05400 Y30.55328
G01 X-53.18440 Y30.47571
G01 X-53.35745 Y30.38505
G01 X-53.52616 Y30.30952
G01 X-53.63822 Y30.26438
G01 X-53.75234 Y30.22470
G01 X-53.94645 Y30.16692
G01 X-54.06339 Y30.13657
G01 X-54.18168 Y30.11190
G01 X-54.35285 Y30.08379
G01 X-54.46573 Y30.07043
G01 X-54.62961 Y30.05770
G01 X-54.90741 Y30.05513
G01 X-55.17284 Y30.07451
G01 X-55.30312 Y30.09252
G01 X-55.50311 Y30.12923
G01 X-55.63161 Y30.16052
G01 X-55.81729 Y30.21424
G01 X-55.94210 Y30.25793
G01 X-56.12295 Y30.33042
G01 X-56.23585 Y30.38267
G01 X-56.38980 Y30.46186
G01 X-56.50357 Y30.52780
G01 X-56.66781 Y30.63314
G01 X-56.76036 Y30.69976
G01 X-56.91297 Y30.81899
G01 X-57.01259 Y30.90603
G01 X-57.15231 Y31.03956
G01 X-57.23616 Y31.12828
G01 X-57.34931 Y31.25907
G01 X-57.44957 Y31.38731
G01 X-57.58345 Y31.58152
G01 X-57.69821 Y31.77703
G01 X-57.76943 Y31.91528
G01 X-57.85284 Y32.10212
G01 X-57.91388 Y32.26392
G01 X-57.98109 Y32.47738
G01 X-58.03031 Y32.68523
G01 X-58.06051 Y32.84832
G01 X-58.08660 Y33.06310
G01 X-58.09602 Y33.21832
G01 X-58.09823 Y33.44227
G01 X-58.08406 Y33.66562
G01 X-58.06801 Y33.80715
G01 X-58.02932 Y34.02856
G01 X-57.99120 Y34.18997
G01 X-57.92988 Y34.39744
G01 X-57.85068 Y34.60902
G01 X-57.78525 Y34.75807
G01 X-57.69300 Y34.93940
G01 X-57.61106 Y35.08004
G01 X-57.48668 Y35.26864
G01 X-57.35510 Y35.44034
G01 X-57.25406 Y35.55855
G01 X-57.10545 Y35.71362
G01 X-56.97827 Y35.83081
G01 X-56.80573 Y35.97331
G01 X-56.62290 Y36.10303
G01 X-56.48259 Y36.19152
G01 X-56.28383 Y36.30054
G01 X-56.07807 Y36.39472
G01 X-55.93629 Y36.45116
G01 X-55.74309 Y36.51496
G01 X-55.59598 Y36.55550
G01 X-55.38594 Y36.60049
G01 X-55.21170 Y36.62677
G01 X-55.00995 Y36.64648
G01 X-54.79598 Y36.65304
G01 X-54.63017 Y36.64831
G01 X-54.40624 Y36.62970
G01 X-54.25465 Y36.60684
G01 X-54.00622 Y36.55644
G01 X-53.86004 Y36.51575
G01 X-53.63881 Y36.44191
G01 X-53.47020 Y36.37323
G01 X-53.24229 Y36.26239
G01 X-53.05481 Y36.15319
G01 X-53.05867 Y36.13800
G01 X-53.05481 Y36.15319
G01 X-52.36604 Y36.15301
G01 X-52.20261 Y36.14565
G01 X-51.99162 Y36.12330
G01 X-51.78047 Y36.08443
G01 X-51.55621 Y36.02271
G01 X-51.36312 Y35.95540
G01 X-51.18537 Y35.87704
G01 X-50.98893 Y35.77280
G01 X-50.84115 Y35.68131
G01 X-50.69197 Y35.57351
G01 X-50.52858 Y35.43818
G01 X-50.39528 Y35.31128
G01 X-50.27828 Y35.18273
G01 X-50.14539 Y35.01733
G01 X-50.03518 Y34.85739
G01 X-49.94250 Y34.69838
G01 X-49.83823 Y34.49046
G01 X-49.76919 Y34.31987
G01 X-49.70429 Y34.11786
G01 X-49.65885 Y33.93953
G01 X-49.62665 Y33.75833
G01 X-49.60430 Y33.54733
G01 X-49.59678 Y33.36346
G01 X-50.09675 Y33.35828
G01 X-50.10363 Y33.18728
G01 X-50.12761 Y32.97885
G01 X-50.16182 Y32.81119
G01 X-50.21163 Y32.63862
G01 X-50.26609 Y32.48706
G01 X-50.33256 Y32.34035
G01 X-50.42284 Y32.17352
G01 X-50.51575 Y32.02983
G01 X-50.64498 Y31.86458
G01 X-50.75271 Y31.74482
G01 X-50.86967 Y31.63413
G01 X-51.02454 Y31.50796
G01 X-51.18245 Y31.40011
G01 X-51.34800 Y31.30753
G01 X-51.49334 Y31.23811
G01 X-51.64381 Y31.18063
G01 X-51.80597 Y31.13115
G01 X-51.94308 Y31.09844
G01 X-52.08209 Y31.07550
G01 X-52.26246 Y31.05777
G01 X-52.38638 Y31.05330
G01 X-53.20274 Y31.05328
G01 X-53.20848 Y31.07309
G01 X-53.20274 Y31.05328
G01 X-53.33954 Y30.96433
G01 X-53.43769 Y30.90702
G01 X-53.63032 Y30.80934
G01 X-53.76123 Y30.75308
G01 X-53.86492 Y30.71416
G01 X-54.10700 Y30.64121
G01 X-54.26398 Y30.60515
G01 X-54.47619 Y30.57202
G01 X-54.71221 Y30.55475
G01 X-54.93837 Y30.55676
G01 X-55.16923 Y30.57789
G01 X-55.40764 Y30.62013
G01 X-55.63362 Y30.68071
G01 X-55.78737 Y30.73413
G01 X-55.90954 Y30.78295
G01 X-56.01002 Y30.82877
G01 X-56.20459 Y30.93143
G01 X-56.41581 Y31.06699
G01 X-56.57675 Y31.18990
G01 X-56.68419 Y31.28340
G01 X-56.82996 Y31.42531
G01 X-56.96433 Y31.57807
G01 X-57.05180 Y31.69046
G01 X-57.16626 Y31.85719
G01 X-57.26760 Y32.03158
G01 X-57.33062 Y32.15721
G01 X-57.41114 Y32.34375
G01 X-57.47710 Y32.53621
G01 X-57.51538 Y32.67337
G01 X-57.55937 Y32.88119
G01 X-57.58487 Y33.07116
G01 X-57.59587 Y33.22132
G01 X-57.59879 Y33.41431
G01 X-57.58637 Y33.61736
G01 X-57.56816 Y33.76887
G01 X-57.53115 Y33.96783
G01 X-57.47951 Y34.16280
G01 X-57.43550 Y34.29627
G01 X-57.35643 Y34.49427
G01 X-57.27108 Y34.66767
G01 X-57.19608 Y34.80057
G01 X-57.09122 Y34.96180
G01 X-56.96918 Y35.12238
G01 X-56.87779 Y35.22917
G01 X-56.72927 Y35.38197
G01 X-56.58427 Y35.50971
G01 X-56.46443 Y35.60420
G01 X-56.29745 Y35.71875
G01 X-56.13187 Y35.81524
G01 X-56.01586 Y35.87509
G01 X-55.81137 Y35.96396
G01 X-55.61891 Y36.02987
G01 X-55.47200 Y36.07107
G01 X-55.27380 Y36.11268
G01 X-55.06418 Y36.14034
G01 X-54.92605 Y36.15002
G01 X-54.72466 Y36.15220
G01 X-54.52359 Y36.13932
G01 X-54.37551 Y36.12040
G01 X-54.13588 Y36.07341
G01 X-53.99738 Y36.03480
G01 X-53.77487 Y35.95891
G01 X-53.63347 Y35.89782
G01 X-53.41457 Y35.78675
G01 X-53.20492 Y35.65319
G01 X-53.21021 Y35.63473
G01 X-53.20492 Y35.65319
G01 X-52.37604 Y35.65309
G01 X-52.21097 Y35.64456
G01 X-52.03228 Y35.62391
G01 X-51.86444 Y35.59053
G01 X-51.65334 Y35.52904
G01 X-51.50259 Y35.47229
G01 X-51.36586 Y35.40826
G01 X-51.18245 Y35.30636
G01 X-51.04879 Y35.21654
G01 X-50.91580 Y35.11136
G01 X-50.80277 Y35.01123
G01 X-50.69764 Y34.90285
G01 X-50.57605 Y34.75728
G01 X-50.48715 Y34.63521
G01 X-50.40775 Y34.50679
G01 X-50.32360 Y34.34809
G01 X-50.26233 Y34.21007
G01 X-50.21163 Y34.06785
G01 X-50.16182 Y33.89528
G01 X-50.12921 Y33.73755
G01 X-50.10541 Y33.53925
G01 X-50.09705 Y33.38848
G01 X-50.09675 Y33.35828
G01 X-50.59675 Y33.35830
G01 X-50.60127 Y33.23656
G01 X-50.62144 Y33.05706
G01 X-50.64806 Y32.92777
G01 X-50.69017 Y32.78360
G01 X-50.73180 Y32.66910
G01 X-50.77803 Y32.56742
G01 X-50.85418 Y32.42633
G01 X-50.92017 Y32.32391
G01 X-51.02507 Y32.18952
G01 X-51.10612 Y32.09856
G01 X-51.19431 Y32.01446
G01 X-51.31826 Y31.91276
G01 X-51.40937 Y31.84822
G01 X-51.51402 Y31.78574
G01 X-51.65669 Y31.71261
G01 X-51.78854 Y31.65955
G01 X-51.94176 Y31.61236
G01 X-52.05054 Y31.58686
G01 X-52.16086 Y31.56953
G01 X-52.31260 Y31.55561
G01 X-53.36819 Y31.55325
G01 X-53.37492 Y31.57520
G01 X-53.36819 Y31.55325
G01 X-53.47287 Y31.47444
G01 X-53.60159 Y31.39013
G01 X-53.78166 Y31.29079
G01 X-53.95920 Y31.21236
G01 X-54.07309 Y31.17207
G01 X-54.30688 Y31.10667
G01 X-54.49702 Y31.07332
G01 X-54.66062 Y31.05762
G01 X-54.84543 Y31.05412
G01 X-54.95895 Y31.05920
G01 X-55.11162 Y31.07472
G01 X-55.31216 Y31.11114
G01 X-55.47909 Y31.15635
G01 X-55.59466 Y31.19564
G01 X-55.76433 Y31.26547
G01 X-55.93702 Y31.35427
G01 X-56.10154 Y31.45732
G01 X-56.24027 Y31.56113
G01 X-56.32592 Y31.63316
G01 X-56.45102 Y31.75254
G01 X-56.57273 Y31.88929
G01 X-56.64205 Y31.97713
G01 X-56.74058 Y32.11960
G01 X-56.82285 Y32.26049
G01 X-56.87385 Y32.36064
G01 X-56.94294 Y32.51926
G01 X-57.00215 Y32.69252
G01 X-57.02932 Y32.79056
G01 X-57.06730 Y32.96999
G01 X-57.08853 Y33.13176
G01 X-57.09636 Y33.24390
G01 X-57.09826 Y33.42701
G01 X-57.08599 Y33.59950
G01 X-57.07106 Y33.71040
G01 X-57.03821 Y33.88053
G01 X-56.98587 Y34.06714
G01 X-56.92168 Y34.23900
G01 X-56.87609 Y34.34118
G01 X-56.79122 Y34.50344
G01 X-56.70443 Y34.64118
G01 X-56.63943 Y34.73287
G01 X-56.53044 Y34.86770
G01 X-56.41142 Y34.99353
G01 X-56.32955 Y35.06978
G01 X-56.19656 Y35.18030
G01 X-56.04655 Y35.28553
G01 X-55.88831 Y35.37859
G01 X-55.78818 Y35.42962
G01 X-55.61983 Y35.50196
G01 X-55.45592 Y35.55705
G01 X-55.34800 Y35.58662
G01 X-55.17840 Y35.62177
G01 X-55.01653 Y35.64260
G01 X-54.90383 Y35.65050
G01 X-54.74063 Y35.65246
G01 X-54.55796 Y35.64037
G01 X-54.43792 Y35.62378
G01 X-54.23024 Y35.58169
G01 X-54.01841 Y35.51542
G01 X-53.90614 Y35.47257
G01 X-53.71506 Y35.38113
G01 X-53.59377 Y35.31088
G01 X-53.45074 Y35.21565
G01 X-53.36797 Y35.15322
G01 X-53.37462 Y35.13143
G01 X-53.36797 Y35.15322
G01 X-52.39672 Y35.15322
G01 X-52.30211 Y35.15022
G01 X-52.14071 Y35.13440
G01 X-52.02067 Y35.11347
G01 X-51.90277 Y35.08286
G01 X-51.74089 Y35.02942
G01 X-51.62913 Y34.98088
G01 X-51.49621 Y34.91090
G01 X-51.40091 Y34.85269
G01 X-51.30221 Y34.78126
G01 X-51.18669 Y34.68527
G01 X-51.10612 Y34.60791
G01 X-51.03155 Y34.52477
G01 X-50.92603 Y34.39086
G01 X-50.85418 Y34.28014
G01 X-50.78722 Y34.15716
G01 X-50.73965 Y34.05609
G01 X-50.69972 Y33.95180
G01 X-50.65583 Y33.80816
G01 X-50.63033 Y33.69940
G01 X-50.61301 Y33.58909
G01 X-50.59921 Y33.43951
G01 X-50.59675 Y33.35830
G01 X-51.09672 Y33.35840
G01 X-51.09972 Y33.27580
G01 X-51.11529 Y33.13521
G01 X-51.13437 Y33.04423
G01 X-51.16566 Y32.93826
G01 X-51.19367 Y32.86054
G01 X-51.22804 Y32.78535
G01 X-51.28560 Y32.67913
G01 X-51.33043 Y32.60971
G01 X-51.41156 Y32.50672
G01 X-51.46660 Y32.44505
G01 X-51.52654 Y32.38815
G01 X-51.61991 Y32.31149
G01 X-51.68743 Y32.26382
G01 X-51.75865 Y32.22188
G01 X-51.86606 Y32.16664
G01 X-51.96208 Y32.12859
G01 X-52.07770 Y32.09353
G01 X-52.15832 Y32.07532
G01 X-52.24015 Y32.06382
G01 X-52.36726 Y32.05368
G01 X-53.55488 Y32.05325
G01 X-53.56535 Y32.08249
G01 X-53.55488 Y32.05325
G01 X-53.67096 Y31.95119
G01 X-53.76083 Y31.88320
G01 X-53.85493 Y31.82153
G01 X-53.99842 Y31.74141
G01 X-54.13853 Y31.67916
G01 X-54.22387 Y31.64881
G01 X-54.40898 Y31.59620
G01 X-54.58963 Y31.56555
G01 X-54.71223 Y31.55539
G01 X-54.84543 Y31.55412
G01 X-54.97850 Y31.56252
G01 X-55.05701 Y31.57217
G01 X-55.19684 Y31.59768
G01 X-55.34403 Y31.63783
G01 X-55.49661 Y31.69437
G01 X-55.57408 Y31.72874
G01 X-55.69054 Y31.78929
G01 X-55.80266 Y31.85886
G01 X-55.92765 Y31.95142
G01 X-55.99011 Y32.00357
G01 X-56.10029 Y32.10911
G01 X-56.19427 Y32.21609
G01 X-56.24426 Y32.28030
G01 X-56.33156 Y32.40849
G01 X-56.40283 Y32.53522
G01 X-56.46298 Y32.66664
G01 X-56.49232 Y32.74253
G01 X-56.53829 Y32.88800
G01 X-56.57350 Y33.04863
G01 X-56.59107 Y33.18226
G01 X-56.59651 Y33.25625
G01 X-56.59859 Y33.40920
G01 X-56.58836 Y33.55124
G01 X-56.57720 Y33.63186
G01 X-56.54954 Y33.77413
G01 X-56.50657 Y33.92406
G01 X-56.44733 Y34.07745
G01 X-56.38444 Y34.20521
G01 X-56.34462 Y34.27618
G01 X-56.26600 Y34.39693
G01 X-56.17012 Y34.51997
G01 X-56.07141 Y34.62609
G01 X-56.01282 Y34.68256
G01 X-55.90405 Y34.77445
G01 X-55.77916 Y34.86285
G01 X-55.71620 Y34.90204
G01 X-55.59783 Y34.96650
G01 X-55.46613 Y35.02503
G01 X-55.39943 Y35.04994
G01 X-55.26352 Y35.09241
G01 X-55.12410 Y35.12337
G01 X-55.05089 Y35.13534
G01 X-54.92036 Y35.14918
G01 X-54.78846 Y35.15309
G01 X-54.57106 Y35.13866
G01 X-54.39956 Y35.10783
G01 X-54.30022 Y35.08179
G01 X-54.11678 Y35.01875
G01 X-53.95064 Y34.94006
G01 X-53.85313 Y34.88312
G01 X-53.73515 Y34.80443
G01 X-53.67175 Y34.75573
G01 X-53.55552 Y34.65322
G01 X-53.56715 Y34.62218
G01 X-53.55552 Y34.65322
G01 X-52.36726 Y34.65279
G01 X-52.22989 Y34.64159
G01 X-52.14816 Y34.62924
G01 X-52.05778 Y34.60735
G01 X-51.93287 Y34.56749
G01 X-51.84737 Y34.53105
G01 X-51.74953 Y34.47966
G01 X-51.68743 Y34.44265
G01 X-51.61991 Y34.39498
G01 X-51.52654 Y34.31832
G01 X-51.46660 Y34.26143
G01 X-51.41816 Y34.20770
G01 X-51.33642 Y34.10516
G01 X-51.28560 Y34.02734
G01 X-51.22804 Y33.92112
G01 X-51.19766 Y33.85548
G01 X-51.17206 Y33.78784
G01 X-51.13975 Y33.68220
G01 X-51.12070 Y33.60179
G01 X-51.10950 Y33.53034
G01 X-51.09779 Y33.39973
G01 X-51.09672 Y33.35840
G01 X-51.59667 Y33.35325
G01 X-51.61023 Y33.20682
G01 X-51.64402 Y33.08393
G01 X-51.66548 Y33.02909
G01 X-51.70627 Y32.95086
G01 X-51.75461 Y32.87702
G01 X-51.83802 Y32.78068
G01 X-51.95225 Y32.68805
G01 X-52.08153 Y32.61797
G01 X-52.20246 Y32.57776
G01 X-52.26967 Y32.56371
G01 X-52.38689 Y32.55333
G01 X-53.77546 Y32.55322
G01 X-53.87703 Y32.43732
G01 X-53.95971 Y32.36100
G01 X-54.04876 Y32.29193
G01 X-54.15232 Y32.22584
G01 X-54.24305 Y32.17847
G01 X-54.35547 Y32.13166
G01 X-54.52090 Y32.08350
G01 X-54.64122 Y32.06293
G01 X-54.74322 Y32.05447
G01 X-54.83509 Y32.05406
G01 X-54.97038 Y32.06466
G01 X-55.08150 Y32.08424
G01 X-55.18945 Y32.11355
G01 X-55.33098 Y32.16689
G01 X-55.43992 Y32.22196
G01 X-55.51937 Y32.27116
G01 X-55.64668 Y32.36725
G01 X-55.73542 Y32.45104
G01 X-55.80924 Y32.53511
G01 X-55.90286 Y32.66582
G01 X-55.96103 Y32.76951
G01 X-56.00634 Y32.87039
G01 X-56.05470 Y33.01505
G01 X-56.08066 Y33.13303
G01 X-56.09458 Y33.24149
G01 X-56.09778 Y33.41172
G01 X-56.08960 Y33.51312
G01 X-56.07070 Y33.62338
G01 X-56.02910 Y33.77471
G01 X-55.98455 Y33.88766
G01 X-55.93410 Y33.98751
G01 X-55.84170 Y34.12980
G01 X-55.77924 Y34.20765
G01 X-55.70299 Y34.28776
G01 X-55.57086 Y34.39917
G01 X-55.47990 Y34.46097
G01 X-55.37586 Y34.51847
G01 X-55.26522 Y34.56696
G01 X-55.15902 Y34.60214
G01 X-54.99273 Y34.63872
G01 X-54.89037 Y34.65007
G01 X-54.78739 Y34.65309
G01 X-54.63019 Y34.64209
G01 X-54.50205 Y34.61847
G01 X-54.44678 Y34.60372
G01 X-54.31363 Y34.55904
G01 X-54.18722 Y34.49935
G01 X-54.13726 Y34.47148
G01 X-54.03601 Y34.40453
G01 X-53.98813 Y34.36849
G01 X-53.88282 Y34.27486
G01 X-53.77508 Y34.15325
G01 X-52.38689 Y34.15314
G01 X-52.25026 Y34.13968
G01 X-52.11808 Y34.10280
G01 X-52.06368 Y34.08027
G01 X-51.99433 Y34.04365
G01 X-51.92050 Y33.99533
G01 X-51.82415 Y33.91192
G01 X-51.73706 Y33.80580
G01 X-51.67404 Y33.69503
G01 X-51.64107 Y33.61319
G01 X-51.61023 Y33.49965
G01 X-51.59667 Y33.35325
G04 P0 ( dwell for no time -- G64 should not smooth over this point )
G00 Z1.00000 ( retract )

G00 X-58.29252 Y26.02514 ( rapid move to begin. )
G01 F20.00000
( Mill infeed pass 1/1 )
G01 Z-0.30000
G04 P0 ( dwell for no time -- G64 should not smooth over this point )
G01 F30.00000
G01 X-58.29252 Y26.02514
G01 X-58.27184 Y26.16926
G01 X-58.22787 Y26.32525
G01 X-58.18657 Y26.43109
G01 X-58.12140 Y26.55667
G01 X-58.05414 Y26.66075
G01 X-57.95823 Y26.77838
G01 X-57.88556 Y26.85181
G01 X-57.77677 Y26.94221
G01 X-57.67408 Y27.01158
G01 X-57.53999 Y27.08272
G01 X-57.43458 Y27.12512
G01 X-57.29897 Y27.16535
G01 X-57.18731 Y27.18636
G01 X-57.03613 Y27.19979
G01 X-56.93286 Y27.19819
G01 X-56.79216 Y27.18349
G01 X-56.67101 Y27.15743
G01 X-56.51685 Y27.10731
G01 X-56.42292 Y27.06436
G01 X-56.28203 Y26.98422
G01 X-56.15346 Y26.88560
G01 X-56.07710 Y26.81602
G01 X-55.97101 Y26.69350
G01 X-55.90499 Y26.60104
G01 X-55.82216 Y26.44981
G01 X-55.77208 Y26.32525
G01 X-55.72597 Y26.15913
G01 X-55.71409 Y26.08781
G01 X-55.70306 Y25.97889
G01 X-55.69999 Y25.79995
G01 X-55.83042 Y25.66256
G01 X-55.69999 Y25.79995
G01 X-49.58507 Y25.79995
G01 X-49.50661 Y25.79688
G01 X-49.37724 Y25.78296
G01 X-49.28606 Y25.76485
G01 X-49.17011 Y25.73099
G01 X-49.10193 Y25.70683
G01 X-49.02642 Y25.67320
G01 X-48.91989 Y25.61628
G01 X-48.85002 Y25.57216
G01 X-48.78400 Y25.52243
G01 X-48.68697 Y25.43970
G01 X-47.75576 Y24.50915
G01 X-47.70244 Y24.45149
G01 X-47.61471 Y24.34186
G01 X-47.54855 Y24.23706
G01 X-47.47593 Y24.09218
G01 X-47.42835 Y23.95370
G01 X-47.04306 Y24.34859
G01 X-47.11730 Y24.49040
G01 X-47.17555 Y24.58570
G01 X-47.24695 Y24.68443
G01 X-47.34441 Y24.80155
G01 X-48.31230 Y25.77274
G01 X-48.38131 Y25.83754
G01 X-48.49058 Y25.92802
G01 X-48.58083 Y25.99378
G01 X-48.67575 Y26.05265
G01 X-48.79020 Y26.11410
G01 X-48.89155 Y26.16098
G01 X-48.97691 Y26.19365
G01 X-49.12035 Y26.23815
G01 X-49.21898 Y26.26230
G01 X-49.36940 Y26.28593
G01 X-49.49045 Y26.29692
G01 X-49.58507 Y26.29995
G01 X-55.24503 Y26.29995
G01 X-55.31632 Y26.20287
G01 X-55.24503 Y26.29995
G01 X-55.29974 Y26.48941
G01 X-55.35099 Y26.62197
G01 X-55.44231 Y26.80094
G01 X-55.52343 Y26.92979
G01 X-55.65455 Y27.09522
G01 X-55.76743 Y27.21201
G01 X-55.90548 Y27.32850
G01 X-56.02120 Y27.41102
G01 X-56.18706 Y27.50525
G01 X-56.30647 Y27.56149
G01 X-56.43034 Y27.60701
G01 X-56.61403 Y27.65852
G01 X-56.74398 Y27.68163
G01 X-56.92384 Y27.69852
G01 X-57.03552 Y27.70002
G01 X-57.14700 Y27.69321
G01 X-57.28612 Y27.67731
G01 X-57.41558 Y27.65156
G01 X-57.56961 Y27.60701
G01 X-57.66526 Y27.57294
G01 X-57.77669 Y27.52367
G01 X-57.90044 Y27.45814
G01 X-57.99577 Y27.39992
G01 X-58.08647 Y27.33474
G01 X-58.20237 Y27.23924
G01 X-58.28347 Y27.16243
G01 X-58.35861 Y27.07978
G01 X-58.45269 Y26.96271
G01 X-58.51599 Y26.87069
G01 X-58.57309 Y26.77269
G01 X-58.78794 Y27.34498
G01 X-58.65099 Y27.50165
G01 X-58.50407 Y27.63926
G01 X-58.33976 Y27.76969
G01 X-58.17098 Y27.87942
G01 X-57.95848 Y27.99093
G01 X-57.86615 Y28.03108
G01 X-57.76242 Y28.06984
G01 X-57.54202 Y28.13535
G01 X-57.34449 Y28.17411
G01 X-57.09559 Y28.19814
G01 X-56.99493 Y28.20043
G01 X-56.88424 Y28.19707
G01 X-56.69539 Y28.17947
G01 X-56.54634 Y28.15526
G01 X-56.38985 Y28.11711
G01 X-56.20903 Y28.05984
G01 X-56.05061 Y27.99514
G01 X-55.88165 Y27.90896
G01 X-55.75165 Y27.83215
G01 X-55.62783 Y27.74574
G01 X-55.47297 Y27.61958
G01 X-55.34896 Y27.50165
G01 X-55.27426 Y27.41988
G01 X-55.19816 Y27.32811
G01 X-55.10174 Y27.19911
G01 X-55.04685 Y27.11470
G01 X-54.99631 Y27.02763
G01 X-54.93134 Y26.90434
G01 X-54.88320 Y26.79992
G01 X-54.92806 Y26.72654
G01 X-54.88320 Y26.79992
G01 X-49.57473 Y26.79990
G01 X-49.40960 Y26.79222
G01 X-49.20074 Y26.76746
G01 X-49.08220 Y26.74419
G01 X-48.95563 Y26.71094
G01 X-48.81311 Y26.66606
G01 X-48.67247 Y26.61110
G01 X-48.55423 Y26.55499
G01 X-48.40536 Y26.47381
G01 X-48.29475 Y26.40388
G01 X-48.18896 Y26.32687
G01 X-48.07250 Y26.23157
G01 X-47.97344 Y26.14084
G01 X-47.03415 Y25.20155
G01 X-46.95693 Y25.11814
G01 X-46.87319 Y25.01758
G01 X-46.75983 Y24.86353
G01 X-46.51278 Y25.36657
G01 X-46.59005 Y25.45806
G01 X-46.67357 Y25.54798
G01 X-47.62703 Y26.50142
G01 X-47.74781 Y26.61178
G01 X-47.92099 Y26.75131
G01 X-48.03803 Y26.83373
G01 X-48.15959 Y26.90932
G01 X-48.32802 Y27.00089
G01 X-48.44783 Y27.05847
G01 X-48.57054 Y27.10957
G01 X-48.70552 Y27.15725
G01 X-48.87951 Y27.20896
G01 X-49.02878 Y27.24412
G01 X-49.14961 Y27.26558
G01 X-49.26114 Y27.28003
G01 X-49.42154 Y27.29456
G01 X-49.55438 Y27.29974
G01 X-54.57566 Y27.29992
G01 X-54.60804 Y27.23993
G01 X-54.57566 Y27.29992
G01 X-54.64393 Y27.41323
G01 X-54.71846 Y27.52331
G01 X-54.79235 Y27.62126
G01 X-54.88818 Y27.73774
G01 X-55.01289 Y27.87310
G01 X-55.14721 Y27.99890
G01 X-55.31142 Y28.13327
G01 X-55.47002 Y28.24544
G01 X-55.61000 Y28.33012
G01 X-55.79786 Y28.42875
G01 X-55.94741 Y28.49504
G01 X-56.11071 Y28.55460
G01 X-56.30431 Y28.61211
G01 X-56.47380 Y28.65054
G01 X-56.63542 Y28.67586
G01 X-56.84667 Y28.69573
G01 X-56.98975 Y28.70040
G01 X-57.13285 Y28.69689
G01 X-57.32389 Y28.68054
G01 X-57.45564 Y28.66291
G01 X-57.58627 Y28.63832
G01 X-57.72528 Y28.60411
G01 X-57.88924 Y28.55460
G01 X-58.01449 Y28.51008
G01 X-58.13720 Y28.45895
G01 X-58.25701 Y28.40139
G01 X-58.40776 Y28.32003
G01 X-58.53849 Y28.23985
G01 X-58.64763 Y28.16398
G01 X-58.75261 Y28.08239
G01 X-58.87575 Y27.97861
G01 X-58.98749 Y27.87261
G01 X-59.17966 Y28.37718
G01 X-59.01431 Y28.51335
G01 X-58.87529 Y28.61572
G01 X-58.67832 Y28.74114
G01 X-58.45678 Y28.86067
G01 X-58.24403 Y28.95694
G01 X-58.04375 Y29.03012
G01 X-57.80220 Y29.10101
G01 X-57.57388 Y29.15006
G01 X-57.44337 Y29.16987
G01 X-57.29402 Y29.18597
G01 X-57.07106 Y29.19956
G01 X-56.85785 Y29.19705
G01 X-56.63730 Y29.17919
G01 X-56.45612 Y29.15514
G01 X-56.26682 Y29.11782
G01 X-56.08033 Y29.06839
G01 X-55.85064 Y28.99357
G01 X-55.66250 Y28.91711
G01 X-55.48894 Y28.83286
G01 X-55.28668 Y28.72044
G01 X-55.10799 Y28.60408
G01 X-54.93802 Y28.47533
G01 X-54.74701 Y28.31140
G01 X-54.64513 Y28.21224
G01 X-54.54805 Y28.10835
G01 X-54.42511 Y27.96243
G01 X-54.35006 Y27.86642
G01 X-54.30162 Y27.79992
G01 X-54.32549 Y27.75034
G01 X-54.30162 Y27.79992
G01 X-49.56475 Y27.79984
G01 X-49.44293 Y27.79654
G01 X-49.31123 Y27.78740
G01 X-49.16183 Y27.77190
G01 X-49.02116 Y27.75128
G01 X-48.85192 Y27.71732
G01 X-48.69467 Y27.67650
G01 X-48.50277 Y27.61678
G01 X-48.34103 Y27.55643
G01 X-48.17387 Y27.48252
G01 X-48.00425 Y27.39514
G01 X-47.86307 Y27.31470
G01 X-47.71812 Y27.22100
G01 X-47.52312 Y27.07485
G01 X-47.40770 Y26.97874
G01 X-47.30989 Y26.89007
G01 X-46.27606 Y25.85570
G01 X-46.04151 Y26.33035
G01 X-46.96328 Y27.25044
G01 X-47.14481 Y27.41120
G01 X-47.26117 Y27.50548
G01 X-47.37430 Y27.59042
G01 X-47.51616 Y27.68730
G01 X-47.65388 Y27.77200
G01 X-47.83828 Y27.87327
G01 X-47.97387 Y27.94104
G01 X-48.12157 Y28.00678
G01 X-48.26267 Y28.06215
G01 X-48.40605 Y28.11135
G01 X-48.59795 Y28.16870
G01 X-48.81402 Y28.22085
G01 X-49.04301 Y28.26057
G01 X-49.31247 Y28.28928
G01 X-49.53452 Y28.29954
G01 X-54.05524 Y28.29989
G01 X-54.07416 Y28.25714
G01 X-54.05524 Y28.29989
G01 X-54.19456 Y28.46301
G01 X-54.34683 Y28.62077
G01 X-54.32356 Y29.13875
G01 X-54.19301 Y29.09654
G01 X-53.92809 Y29.14256
G01 X-53.69324 Y29.19936
G01 X-53.42207 Y29.28059
G01 X-53.20464 Y29.36019
G01 X-53.02707 Y29.43601
G01 X-52.89613 Y29.49755
G01 X-52.78829 Y29.55331
G01 X-52.79085 Y29.56428
G01 X-52.78829 Y29.55331
G01 X-52.34617 Y29.55366
G01 X-52.12413 Y29.56392
G01 X-51.93485 Y29.58239
G01 X-51.79464 Y29.60152
G01 X-51.63556 Y29.63032
G01 X-51.48773 Y29.66395
G01 X-51.36096 Y29.69826
G01 X-51.18882 Y29.75120
G01 X-51.05535 Y29.79809
G01 X-50.92388 Y29.85033
G01 X-50.80378 Y29.90357
G01 X-50.67678 Y29.96590
G01 X-50.52695 Y30.04617
G01 X-50.39617 Y30.12277
G01 X-50.26045 Y30.21066
G01 X-50.13701 Y30.29864
G01 X-50.02535 Y30.38554
G01 X-49.88705 Y30.50085
G01 X-49.77488 Y30.60281
G01 X-49.66724 Y30.70951
G01 X-49.57102 Y30.81325
G01 X-49.47910 Y30.92077
G01 X-49.37879 Y31.04528
G01 X-49.28867 Y31.16715
G01 X-49.20394 Y31.29280
G01 X-49.12469 Y31.42204
G01 X-49.02812 Y31.59750
G01 X-48.96434 Y31.72376
G01 X-48.89774 Y31.87111
G01 X-48.84156 Y32.01187
G01 X-48.78532 Y32.17421
G01 X-48.72266 Y32.38561
G01 X-48.68212 Y32.55254
G01 X-48.64819 Y32.73123
G01 X-48.62358 Y32.91144
G01 X-48.60384 Y33.13105
G01 X-48.59701 Y33.31281
G01 X-48.59962 Y33.49468
G01 X-48.61077 Y33.66610
G01 X-48.63610 Y33.89531
G01 X-48.66589 Y34.07473
G01 X-48.70257 Y34.24255
G01 X-48.75032 Y34.41807
G01 X-48.82081 Y34.63762
G01 X-48.88992 Y34.81675
G01 X-48.96434 Y34.98271
G01 X-49.06538 Y35.17867
G01 X-49.15047 Y35.32789
G01 X-49.24847 Y35.48113
G01 X-49.35426 Y35.62909
G01 X-49.49195 Y35.80130
G01 X-49.61176 Y35.93816
G01 X-49.74575 Y36.07567
G01 X-49.87945 Y36.19899
G01 X-50.04110 Y36.33363
G01 X-50.18593 Y36.44367
G01 X-50.33627 Y36.54600
G01 X-50.49175 Y36.64041
G01 X-50.68578 Y36.74519
G01 X-50.84973 Y36.82390
G01 X-51.03645 Y36.90125
G01 X-51.21768 Y36.96462
G01 X-51.40955 Y37.02197
G01 X-51.58610 Y37.06566
G01 X-51.77470 Y37.10175
G01 X-51.95491 Y37.12637
G01 X-52.15435 Y37.14476
G01 X-52.32596 Y37.15245
G01 X-52.78783 Y37.15316
G01 X-52.79017 Y37.14257
G01 X-52.78783 Y37.15316
G01 X-53.03401 Y37.27338
G01 X-53.19265 Y37.34168
G01 X-53.35450 Y37.40206
G01 X-53.56695 Y37.47181
G01 X-53.72329 Y37.51633
G01 X-53.89148 Y37.55560
G01 X-54.10167 Y37.59530
G01 X-54.33563 Y37.62802
G01 X-54.61028 Y37.64872
G01 X-54.82267 Y37.65283
G01 X-55.09504 Y37.64303
G01 X-55.24518 Y37.62947
G01 X-55.46626 Y37.60117
G01 X-55.61564 Y37.57452
G01 X-55.81426 Y37.53147
G01 X-55.99128 Y37.48453
G01 X-56.18526 Y37.42317
G01 X-56.32902 Y37.37196
G01 X-56.46108 Y37.31857
G01 X-56.62816 Y37.24463
G01 X-56.77342 Y37.17326
G01 X-56.96867 Y37.06561
G01 X-57.10697 Y36.98151
G01 X-57.29173 Y36.85647
G01 X-57.40679 Y36.77252
G01 X-57.52620 Y36.67745
G01 X-57.69569 Y36.53132
G01 X-57.82831 Y36.40501
G01 X-57.98271 Y36.24356
G01 X-58.09590 Y36.11408
G01 X-58.21599 Y35.96350
G01 X-58.32947 Y35.80839
G01 X-58.44080 Y35.63884
G01 X-58.52025 Y35.50854
G01 X-58.59396 Y35.37491
G01 X-58.68558 Y35.19325
G01 X-58.75256 Y35.04489
G01 X-58.83473 Y34.83689
G01 X-58.88827 Y34.68413
G01 X-58.95122 Y34.47026
G01 X-58.99086 Y34.31334
G01 X-59.02320 Y34.15474
G01 X-59.06138 Y33.92391
G01 X-59.08975 Y33.63029
G01 X-59.09902 Y33.40666
G01 X-59.09297 Y33.12236
G01 X-59.07395 Y32.89049
G01 X-59.03460 Y32.60961
G01 X-58.97357 Y32.32183
G01 X-58.91116 Y32.09633
G01 X-58.81931 Y31.82671
G01 X-58.70867 Y31.56425
G01 X-58.61157 Y31.36402
G01 X-58.47210 Y31.11703
G01 X-58.34512 Y30.92209
G01 X-58.17705 Y30.69217
G01 X-57.98637 Y30.46707
G01 X-57.83191 Y30.30510
G01 X-57.62140 Y30.10891
G01 X-58.54322 Y30.34947
G01 X-58.69056 Y30.54383
G01 X-58.86041 Y30.79432
G01 X-59.00814 Y31.04627
G01 X-59.11451 Y31.25122
G01 X-59.23082 Y31.50949
G01 X-59.31548 Y31.72762
G01 X-59.40692 Y32.00811
G01 X-59.47349 Y32.26410
G01 X-59.53183 Y32.55068
G01 X-59.57143 Y32.84004
G01 X-59.59198 Y33.09018
G01 X-59.59914 Y33.38378
G01 X-59.59107 Y33.62782
G01 X-59.56440 Y33.93183
G01 X-59.53148 Y34.15322
G01 X-59.47250 Y34.44977
G01 X-59.39963 Y34.72223
G01 X-59.32868 Y34.94197
G01 X-59.22305 Y35.21586
G01 X-59.11794 Y35.44743
G01 X-58.98152 Y35.70902
G01 X-58.85561 Y35.91819
G01 X-58.68683 Y36.16889
G01 X-58.50181 Y36.40772
G01 X-58.33692 Y36.59698
G01 X-58.13181 Y36.80788
G01 X-57.96674 Y36.95906
G01 X-57.73158 Y37.15355
G01 X-57.48381 Y37.33147
G01 X-57.28975 Y37.45662
G01 X-57.02661 Y37.60503
G01 X-56.80113 Y37.71529
G01 X-56.53954 Y37.82665
G01 X-56.30954 Y37.90856
G01 X-56.01721 Y37.99614
G01 X-55.72011 Y38.06350
G01 X-55.47266 Y38.10559
G01 X-55.18064 Y38.13797
G01 X-54.87594 Y38.15199
G01 X-54.64503 Y38.15062
G01 X-54.36260 Y38.13284
G01 X-54.14023 Y38.10754
G01 X-53.83987 Y38.05522
G01 X-53.61374 Y38.00442
G01 X-53.38130 Y37.93754
G01 X-53.06588 Y37.82901
G01 X-52.92578 Y37.77229
G01 X-52.78791 Y37.71029
G01 X-52.66964 Y37.65316
G01 X-52.67183 Y37.64308
G01 X-52.66964 Y37.65316
G01 X-52.35644 Y37.65296
G01 X-52.20546 Y37.64859
G01 X-52.04473 Y37.63764
G01 X-51.86500 Y37.61930
G01 X-51.70340 Y37.59670
G01 X-51.55283 Y37.56955
G01 X-51.38359 Y37.53183
G01 X-51.20635 Y37.48392
G01 X-51.00419 Y37.42078
G01 X-50.82215 Y37.35443
G01 X-50.65281 Y37.28354
G01 X-50.47780 Y37.20036
G01 X-50.27292 Y37.09109
G01 X-50.10628 Y36.99223
G01 X-49.95299 Y36.89121
G01 X-49.78829 Y36.77084
G01 X-49.62347 Y36.63785
G01 X-49.47768 Y36.51021
G01 X-49.34542 Y36.38291
G01 X-49.21227 Y36.24209
G01 X-49.09906 Y36.11077
G01 X-48.96051 Y35.93734
G01 X-48.83569 Y35.76330
G01 X-48.69950 Y35.54778
G01 X-48.57288 Y35.31751
G01 X-48.47057 Y35.10643
G01 X-48.38080 Y34.88974
G01 X-48.30389 Y34.66813
G01 X-48.22553 Y34.39602
G01 X-48.17450 Y34.16709
G01 X-48.13567 Y33.92543
G01 X-48.10661 Y33.63351
G01 X-48.09693 Y33.38893
G01 X-48.10224 Y33.14423
G01 X-48.12386 Y32.88236
G01 X-48.15652 Y32.63979
G01 X-48.20171 Y32.40961
G01 X-48.25746 Y32.19229
G01 X-48.34240 Y31.92216
G01 X-48.42604 Y31.70301
G01 X-48.53137 Y31.47083
G01 X-48.65886 Y31.22945
G01 X-48.78507 Y31.01975
G01 X-48.93602 Y30.80177
G01 X-49.09906 Y30.59570
G01 X-49.25357 Y30.41922
G01 X-49.41080 Y30.25915
G01 X-49.59226 Y30.09491
G01 X-49.81260 Y29.91703
G01 X-50.00356 Y29.78081
G01 X-50.21097 Y29.65087
G01 X-50.47780 Y29.50611
G01 X-50.71829 Y29.39443
G01 X-50.96988 Y29.29745
G01 X-51.09215 Y29.27617
G04 P0 ( dwell for no time -- G64 should not smooth over this point )
G00 Z1.00000 ( retract )

G00 X-60.25045 Y48.46747 ( rapid move to begin. )
G01 F20.00000
( Mill infeed pass 1/1 )
G01 Z-0.30000
G04 P0 ( dwell for no time -- G64 should not smooth over this point )
G01 F30.00000
G01 X-60.25045 Y48.46747
G01 X-60.26376 Y48.29726
G01 X-60.29663 Y48.13028
G01 X-60.33066 Y48.01476
G01 X-60.37473 Y47.90214
G01 X-60.45223 Y47.74778
G01 X-60.54618 Y47.60526
G01 X-60.62411 Y47.50882
G01 X-60.70991 Y47.41929
G01 X-60.83938 Y47.30803
G01 X-60.97382 Y47.21659
G01 X-61.08878 Y47.15360
G01 X-61.19906 Y47.10519
G01 X-61.35957 Y47.05172
G01 X-61.52469 Y47.01743
G01 X-61.64483 Y47.00369
G01 X-61.76523 Y47.00041
G01 X-61.93506 Y47.01146
G01 X-62.10493 Y47.04276
G01 X-62.26048 Y47.08997
G01 X-62.37354 Y47.13575
G01 X-62.49096 Y47.19627
G01 X-62.63289 Y47.28738
G01 X-62.76543 Y47.39653
G01 X-62.85133 Y47.48167
G01 X-62.92921 Y47.57351
G01 X-63.02634 Y47.71202
G01 X-63.10246 Y47.85164
G01 X-63.15385 Y47.97171
G01 X-63.19142 Y48.08614
G01 X-63.22934 Y48.25205
G01 X-63.24740 Y48.41210
G01 X-63.24788 Y48.57110
G01 X-63.23622 Y48.70270
G01 X-63.21443 Y48.82269
G01 X-63.16800 Y48.98906
G01 X-63.10673 Y49.13965
G01 X-63.02525 Y49.28908
G01 X-62.95809 Y49.38903
G01 X-62.87574 Y49.49106
G01 X-62.75443 Y49.61402
G01 X-62.61946 Y49.72177
G01 X-62.51839 Y49.78819
G01 X-62.41240 Y49.84542
G01 X-62.25680 Y49.91176
G01 X-62.09749 Y49.95883
G01 X-61.97935 Y49.98232
G01 X-61.84903 Y49.99655
G01 X-61.67631 Y49.99815
G01 X-61.50712 Y49.97983
G01 X-61.38908 Y49.95591
G01 X-61.26338 Y49.91870
G01 X-61.11354 Y49.85824
G01 X-60.98682 Y49.79134
G01 X-60.89086 Y49.72916
G01 X-60.75693 Y49.62416
G01 X-60.62942 Y49.49662
G01 X-60.55650 Y49.40859
G01 X-60.47524 Y49.29053
G01 X-60.40699 Y49.16802
G01 X-60.35802 Y49.05799
G01 X-60.30344 Y48.89680
G01 X-60.26755 Y48.72784
G01 X-60.25319 Y48.59752
G01 X-60.25045 Y48.46747
G01 X-59.75048 Y48.46328
G01 X-59.75167 Y48.42038
G01 X-59.76290 Y48.27681
G01 X-59.77362 Y48.19622
G01 X-59.80262 Y48.04425
G01 X-59.84430 Y47.89409
G01 X-59.86849 Y47.82299
G01 X-59.92957 Y47.67169
G01 X-60.00326 Y47.52673
G01 X-60.04428 Y47.45652
G01 X-60.12972 Y47.32754
G01 X-60.22579 Y47.20557
G01 X-60.27283 Y47.15215
G01 X-60.38164 Y47.04138
G01 X-60.50656 Y46.93379
G01 X-60.56318 Y46.89071
G01 X-60.69764 Y46.79925
G01 X-60.83998 Y46.71946
G01 X-60.90745 Y46.68647
G01 X-61.05111 Y46.62609
G01 X-61.19871 Y46.57788
G01 X-61.27125 Y46.55845
G01 X-61.42385 Y46.52678
G01 X-61.57796 Y46.50781
G01 X-61.65289 Y46.50268
G01 X-61.80872 Y46.50087
G01 X-61.96305 Y46.51179
G01 X-62.04369 Y46.52211
G01 X-62.20351 Y46.55210
G01 X-62.35040 Y46.59292
G01 X-62.42756 Y46.61852
G01 X-62.57828 Y46.67961
G01 X-62.77917 Y46.78517
G01 X-62.90074 Y46.86440
G01 X-62.96106 Y46.90918
G01 X-63.07915 Y47.00557
G01 X-63.18867 Y47.11162
G01 X-63.24016 Y47.16628
G01 X-63.33960 Y47.28629
G01 X-63.45753 Y47.45871
G01 X-63.52827 Y47.58543
G01 X-63.56126 Y47.65289
G01 X-63.62189 Y47.79581
G01 X-63.67076 Y47.94380
G01 X-63.69020 Y48.01636
G01 X-63.72187 Y48.16605
G01 X-63.74699 Y48.39160
G01 X-63.74950 Y48.53671
G01 X-63.74620 Y48.61174
G01 X-63.73254 Y48.76355
G01 X-63.70417 Y48.92368
G01 X-63.68804 Y48.99297
G01 X-63.64176 Y49.14887
G01 X-63.56187 Y49.34676
G01 X-63.48646 Y49.49144
G01 X-63.44808 Y49.55601
G01 X-63.36729 Y49.67656
G01 X-63.27064 Y49.79807
G01 X-63.21689 Y49.85911
G01 X-63.10920 Y49.96701
G01 X-62.94519 Y50.10353
G01 X-62.80165 Y50.20069
G01 X-62.73709 Y50.23907
G01 X-62.59878 Y50.31090
G01 X-62.43559 Y50.37869
G01 X-62.28710 Y50.42596
G01 X-62.20838 Y50.44641
G01 X-62.06665 Y50.47475
G01 X-61.91242 Y50.49271
G01 X-61.83130 Y50.49810
G01 X-61.66869 Y50.49830
G01 X-61.43224 Y50.47442
G01 X-61.27943 Y50.44382
G01 X-61.12050 Y50.39789
G01 X-61.05332 Y50.37447
G01 X-60.91093 Y50.31537
G01 X-60.76338 Y50.23932
G01 X-60.69360 Y50.19761
G01 X-60.57298 Y50.11694
G01 X-60.42845 Y50.00112
G01 X-60.30371 Y49.88080
G01 X-60.25281 Y49.82555
G01 X-60.15558 Y49.70739
G01 X-60.05612 Y49.56335
G01 X-59.97412 Y49.41903
G01 X-59.93643 Y49.34194
G01 X-59.87966 Y49.20839
G01 X-59.82218 Y49.03234
G01 X-59.78380 Y48.86388
G01 X-59.77191 Y48.79373
G01 X-59.75424 Y48.62980
G01 X-59.75048 Y48.46328
G01 X-59.25050 Y48.46132
G01 X-59.25099 Y48.43028
G01 X-59.26455 Y48.23620
G01 X-59.28022 Y48.11525
G01 X-59.31718 Y47.92442
G01 X-59.36361 Y47.75647
G01 X-59.39988 Y47.64862
G01 X-59.47240 Y47.46925
G01 X-59.55927 Y47.29678
G01 X-59.61499 Y47.19985
G01 X-59.72216 Y47.03790
G01 X-59.83602 Y46.89236
G01 X-59.90549 Y46.81291
G01 X-60.03511 Y46.68088
G01 X-60.18190 Y46.55348
G01 X-60.27052 Y46.48530
G01 X-60.43023 Y46.37674
G01 X-60.58941 Y46.28660
G01 X-60.69112 Y46.23554
G01 X-60.86104 Y46.16341
G01 X-61.04578 Y46.10184
G01 X-61.15561 Y46.07202
G01 X-61.33633 Y46.03448
G01 X-61.51926 Y46.01126
G01 X-61.63277 Y46.00306
G01 X-61.81733 Y46.00092
G01 X-62.01126 Y46.01411
G01 X-62.12218 Y46.02828
G01 X-62.31194 Y46.06399
G01 X-62.49812 Y46.11520
G01 X-62.61364 Y46.15437
G01 X-62.78303 Y46.22348
G01 X-62.95532 Y46.31065
G01 X-63.04524 Y46.36183
G01 X-63.18253 Y46.45137
G01 X-63.27391 Y46.51919
G01 X-63.41521 Y46.63537
G01 X-63.54686 Y46.76267
G01 X-63.61750 Y46.83826
G01 X-63.72883 Y46.97230
G01 X-63.88057 Y47.19213
G01 X-64.00350 Y47.41779
G01 X-64.07696 Y47.58690
G01 X-64.11260 Y47.68405
G01 X-64.16678 Y47.86048
G01 X-64.20482 Y48.03016
G01 X-64.22367 Y48.14037
G01 X-64.24280 Y48.31281
G01 X-64.24773 Y48.40580
G01 X-64.24831 Y48.59038
G01 X-64.23449 Y48.77389
G01 X-64.21976 Y48.88474
G01 X-64.18976 Y49.04456
G01 X-64.16238 Y49.15296
G01 X-64.10889 Y49.32789
G01 X-64.04150 Y49.49797
G01 X-63.99484 Y49.59960
G01 X-63.90813 Y49.76170
G01 X-63.86485 Y49.83229
G01 X-63.76111 Y49.98494
G01 X-63.65260 Y50.12080
G01 X-63.59238 Y50.18966
G01 X-63.45641 Y50.32680
G01 X-63.37259 Y50.40081
G01 X-63.22969 Y50.51501
G01 X-63.06922 Y50.62306
G01 X-62.97120 Y50.68087
G01 X-62.79772 Y50.76975
G01 X-62.59843 Y50.85156
G01 X-62.42228 Y50.90742
G01 X-62.30976 Y50.93604
G01 X-62.12832 Y50.97115
G01 X-61.93533 Y50.99281
G01 X-61.81349 Y50.99837
G01 X-61.62043 Y50.99657
G01 X-61.40704 Y50.97625
G01 X-61.20508 Y50.93955
G01 X-61.09467 Y50.91196
G01 X-60.91009 Y50.85466
G01 X-60.74019 Y50.78631
G01 X-60.62787 Y50.73348
G01 X-60.43755 Y50.62741
G01 X-60.27527 Y50.51864
G01 X-60.10768 Y50.38474
G01 X-59.95312 Y50.23731
G01 X-59.87570 Y50.15390
G01 X-59.75764 Y50.01011
G01 X-59.63981 Y49.84046
G01 X-59.53752 Y49.66274
G01 X-59.48241 Y49.55151
G01 X-59.40702 Y49.37176
G01 X-59.34090 Y49.16787
G01 X-59.29516 Y48.96983
G01 X-59.27499 Y48.84953
G01 X-59.25490 Y48.65619
G01 X-59.25050 Y48.46132
G01 X-58.75050 Y48.45931
G01 X-58.75630 Y48.31712
G01 X-58.77756 Y48.09457
G01 X-58.81845 Y47.86439
G01 X-58.85490 Y47.71636
G01 X-58.91400 Y47.52185
G01 X-58.99894 Y47.30407
G01 X-59.05919 Y47.17514
G01 X-59.12965 Y47.03996
G01 X-59.18048 Y46.95190
G01 X-59.31466 Y46.74822
G01 X-59.44578 Y46.57979
G01 X-59.53928 Y46.47250
G01 X-59.69622 Y46.31324
G01 X-59.86508 Y46.16666
G01 X-59.97786 Y46.07989
G01 X-60.16285 Y45.95426
G01 X-60.34827 Y45.84860
G01 X-60.48454 Y45.78022
G01 X-60.68108 Y45.69691
G01 X-60.90275 Y45.62272
G01 X-61.04009 Y45.58553
G01 X-61.24908 Y45.54212
G01 X-61.47084 Y45.51360
G01 X-61.61281 Y45.50346
G01 X-61.83640 Y45.50128
G01 X-62.05949 Y45.51644
G01 X-62.21067 Y45.53615
G01 X-62.43028 Y45.57817
G01 X-62.64587 Y45.63750
G01 X-62.78070 Y45.68297
G01 X-62.99705 Y45.77151
G01 X-63.19650 Y45.87258
G01 X-63.31974 Y45.94375
G01 X-63.48105 Y46.04992
G01 X-63.58679 Y46.12917
G01 X-63.74371 Y46.25838
G01 X-63.89756 Y46.40631
G01 X-63.99482 Y46.51019
G01 X-64.11831 Y46.65868
G01 X-64.19070 Y46.75685
G01 X-64.30376 Y46.92579
G01 X-64.40401 Y47.10262
G01 X-64.45468 Y47.20232
G01 X-64.53990 Y47.39800
G01 X-64.58562 Y47.52200
G01 X-64.64838 Y47.72599
G01 X-64.69347 Y47.92421
G01 X-64.71796 Y48.06439
G01 X-64.73878 Y48.24616
G01 X-64.74717 Y48.37803
G01 X-64.74884 Y48.58131
G01 X-64.73462 Y48.79426
G01 X-64.72243 Y48.90541
G01 X-64.68748 Y49.10567
G01 X-64.66350 Y49.21489
G01 X-64.60493 Y49.42012
G01 X-64.56172 Y49.54501
G01 X-64.48875 Y49.72380
G01 X-64.43188 Y49.84311
G01 X-64.33005 Y50.03068
G01 X-64.22565 Y50.19314
G01 X-64.14295 Y50.30894
G01 X-64.01493 Y50.46685
G01 X-63.93294 Y50.55718
G01 X-63.79624 Y50.69357
G01 X-63.72062 Y50.76152
G01 X-63.60292 Y50.85842
G01 X-63.48092 Y50.94986
G01 X-63.28504 Y51.07744
G01 X-63.07051 Y51.19355
G01 X-62.84704 Y51.29124
G01 X-62.70399 Y51.34399
G01 X-62.48954 Y51.40736
G01 X-62.29086 Y51.45037
G01 X-62.14024 Y51.47391
G01 X-61.90750 Y51.49581
G01 X-61.67374 Y51.49868
G01 X-61.52149 Y51.49055
G01 X-61.30933 Y51.46741
G01 X-61.06970 Y51.42172
G01 X-60.82505 Y51.35321
G01 X-60.67176 Y51.29891
G01 X-60.44771 Y51.20251
G01 X-60.23244 Y51.08781
G01 X-60.01060 Y50.94420
G01 X-59.82599 Y50.80084
G01 X-59.70392 Y50.69337
G01 X-59.52538 Y50.51262
G01 X-59.37540 Y50.33327
G01 X-59.24578 Y50.15111
G01 X-59.16021 Y50.01280
G01 X-59.08634 Y49.87943
G01 X-59.03669 Y49.77925
G01 X-58.94154 Y49.55464
G01 X-58.86524 Y49.32294
G01 X-58.83918 Y49.22469
G01 X-58.80651 Y49.07577
G01 X-58.78065 Y48.92551
G01 X-58.75625 Y48.69302
G01 X-58.75050 Y48.45931
G01 X-58.25053 Y48.45731
G01 X-58.25721 Y48.28644
G01 X-58.28261 Y48.02363
G01 X-58.32663 Y47.77379
G01 X-58.36884 Y47.59775
G01 X-58.43892 Y47.36574
G01 X-58.52988 Y47.12973
G01 X-58.60600 Y46.96336
G01 X-58.72531 Y46.73902
G01 X-58.86707 Y46.51637
G01 X-58.96722 Y46.37778
G01 X-59.12300 Y46.18728
G01 X-59.29219 Y46.00865
G01 X-59.41698 Y45.89173
G01 X-59.61985 Y45.72290
G01 X-59.82726 Y45.57611
G01 X-59.97382 Y45.48459
G01 X-60.20524 Y45.35940
G01 X-60.42647 Y45.26046
G01 X-60.59576 Y45.19628
G01 X-60.82718 Y45.12391
G01 X-61.07298 Y45.06666
G01 X-61.25146 Y45.03616
G01 X-61.50249 Y45.00880
G01 X-61.74468 Y45.00055
G01 X-61.92568 Y45.00489
G01 X-62.17846 Y45.02638
G01 X-62.43919 Y45.06923
G01 X-62.60782 Y45.10705
G01 X-62.83244 Y45.17182
G01 X-63.00465 Y45.23364
G01 X-63.22952 Y45.32813
G01 X-63.46401 Y45.44883
G01 X-63.60244 Y45.53092
G01 X-63.78738 Y45.65416
G01 X-63.89967 Y45.73918
G01 X-64.07981 Y45.88815
G01 X-64.24833 Y46.05000
G01 X-64.34544 Y46.15200
G01 X-64.48903 Y46.32165
G01 X-64.58618 Y46.44995
G01 X-64.70002 Y46.61710
G01 X-64.78816 Y46.76364
G01 X-64.89278 Y46.95970
G01 X-64.99128 Y47.18124
G01 X-65.05222 Y47.34100
G01 X-65.11930 Y47.55289
G01 X-65.15410 Y47.68936
G01 X-65.19774 Y47.89808
G01 X-65.21877 Y48.03884
G01 X-65.24239 Y48.27024
G01 X-65.24932 Y48.50242
G01 X-65.24694 Y48.64324
G01 X-65.23030 Y48.86526
G01 X-65.21298 Y49.00653
G01 X-65.17122 Y49.23655
G01 X-65.13322 Y49.39469
G01 X-65.07571 Y49.58966
G01 X-65.02860 Y49.72395
G01 X-64.94389 Y49.93089
G01 X-64.87353 Y50.07755
G01 X-64.76238 Y50.28187
G01 X-64.63703 Y50.47745
G01 X-64.54341 Y50.60836
G01 X-64.40998 Y50.77402
G01 X-64.27320 Y50.92438
G01 X-64.15080 Y51.04635
G01 X-64.05296 Y51.13518
G01 X-63.82321 Y51.31981
G01 X-63.58768 Y51.47838
G01 X-63.48390 Y51.54003
G01 X-63.34125 Y51.61658
G01 X-63.15956 Y51.70297
G01 X-62.91565 Y51.80013
G01 X-62.64298 Y51.88405
G01 X-62.38217 Y51.94196
G01 X-62.18329 Y51.97224
G01 X-62.03178 Y51.98816
G01 X-61.91006 Y51.99621
G01 X-61.59500 Y51.99652
G01 X-61.31199 Y51.97208
G01 X-61.12317 Y51.94259
G01 X-60.87654 Y51.88905
G01 X-60.58563 Y51.80058
G01 X-60.34042 Y51.70297
G01 X-60.18553 Y51.63048
G01 X-59.96927 Y51.51308
G01 X-59.75383 Y51.37460
G01 X-59.61606 Y51.27333
G01 X-59.41261 Y51.10503
G01 X-59.22330 Y50.92139
G01 X-59.10166 Y50.78730
G01 X-59.00359 Y50.66919
G01 X-58.92803 Y50.56993
G01 X-58.81779 Y50.41057
G01 X-58.74847 Y50.29967
G01 X-58.65447 Y50.13206
G01 X-58.59958 Y50.02456
G01 X-58.51726 Y49.83996
G01 X-58.46902 Y49.71839
G01 X-58.40479 Y49.52655
G01 X-58.37029 Y49.40953
G01 X-58.34370 Y49.30089
G01 X-58.30049 Y49.09188
G01 X-58.28243 Y48.97123
G01 X-58.25983 Y48.75985
G01 X-58.25312 Y48.63930
G01 X-58.25053 Y48.45731
G01 X-57.75056 Y48.45314
G01 X-57.75881 Y48.24639
G01 X-57.78492 Y47.97285
G01 X-57.83316 Y47.69183
G01 X-57.87989 Y47.49025
G01 X-57.96232 Y47.21426
G01 X-58.05714 Y46.96485
G01 X-58.13946 Y46.77898
G01 X-58.26097 Y46.54431
G01 X-58.35980 Y46.37837
G01 X-58.51426 Y46.14847
G01 X-58.68505 Y45.93041
G01 X-58.81268 Y45.78546
G01 X-59.00732 Y45.58840
G01 X-59.21578 Y45.40606
G01 X-59.36785 Y45.28698
G01 X-59.58522 Y45.13669
G01 X-59.75032 Y45.03646
G01 X-59.99455 Y44.90583
G01 X-60.24832 Y44.79303
G01 X-60.43229 Y44.72376
G01 X-60.70719 Y44.63837
G01 X-60.95749 Y44.58002
G01 X-61.16122 Y44.54388
G01 X-61.42665 Y44.51327
G01 X-61.61260 Y44.50309
G01 X-61.87996 Y44.50220
G01 X-62.15591 Y44.52112
G01 X-62.35758 Y44.54690
G01 X-62.60744 Y44.59313
G01 X-62.80462 Y44.64258
G01 X-63.06696 Y44.72308
G01 X-63.32266 Y44.82274
G01 X-63.49845 Y44.90273
G01 X-63.72464 Y45.02168
G01 X-63.87554 Y45.11208
G01 X-64.06373 Y45.23720
G01 X-64.19637 Y45.33628
G01 X-64.40068 Y45.50443
G01 X-64.51237 Y45.60827
G01 X-64.69276 Y45.79079
G01 X-64.85364 Y45.97778
G01 X-64.95585 Y46.10801
G01 X-65.09664 Y46.31032
G01 X-65.18483 Y46.45043
G01 X-65.29484 Y46.64784
G01 X-65.36863 Y46.79605
G01 X-65.47046 Y47.03181
G01 X-65.53782 Y47.21649
G01 X-65.61298 Y47.46226
G01 X-65.67076 Y47.71233
G01 X-65.70345 Y47.89236
G01 X-65.73048 Y48.11451
G01 X-65.74531 Y48.31052
G01 X-65.74942 Y48.54682
G01 X-65.74396 Y48.71227
G01 X-65.72573 Y48.93625
G01 X-65.69994 Y49.12766
G01 X-65.65242 Y49.37730
G01 X-65.61038 Y49.54491
G01 X-65.54003 Y49.77849
G01 X-65.48067 Y49.94077
G01 X-65.38229 Y50.17506
G01 X-65.31044 Y50.32098
G01 X-65.19233 Y50.53711
G01 X-65.12141 Y50.65141
G01 X-65.00096 Y50.83028
G01 X-64.91409 Y50.94618
G01 X-64.79842 Y51.08890
G01 X-64.71844 Y51.18100
G01 X-64.62763 Y51.27704
G01 X-64.48328 Y51.42017
G01 X-64.36987 Y51.52207
G01 X-64.21283 Y51.65115
G01 X-64.10767 Y51.73121
G01 X-64.00754 Y51.80094
G01 X-63.81824 Y51.92365
G01 X-63.69271 Y51.99593
G01 X-63.50165 Y52.09588
G01 X-63.38910 Y52.14838
G01 X-63.22855 Y52.21559
G01 X-63.10307 Y52.26411
G01 X-62.97557 Y52.30696
G01 X-62.79993 Y52.35948
G01 X-62.65202 Y52.39657
G01 X-62.47214 Y52.43380
G01 X-62.33950 Y52.45618
G01 X-62.12553 Y52.48130
G01 X-61.99383 Y52.49248
G01 X-61.86180 Y52.49784
G01 X-61.65850 Y52.49855
G01 X-61.41494 Y52.48491
G01 X-61.24179 Y52.46726
G01 X-61.09843 Y52.44633
G01 X-60.88672 Y52.40536
G01 X-60.74583 Y52.37168
G01 X-60.44263 Y52.28021
G01 X-60.31857 Y52.23459
G01 X-60.15840 Y52.16883
G01 X-59.94291 Y52.06794
G01 X-59.78992 Y51.98641
G01 X-59.67570 Y51.91996
G01 X-59.41936 Y51.75080
G01 X-59.31990 Y51.67648
G01 X-59.17662 Y51.56154
G01 X-59.00219 Y51.40589
G01 X-58.86417 Y51.26926
G01 X-58.77248 Y51.17084
G01 X-58.63351 Y51.00665
G01 X-58.55205 Y50.90259
G01 X-58.42302 Y50.71951
G01 X-58.33897 Y50.58903
G01 X-58.22221 Y50.38377
G01 X-58.16021 Y50.26439
G01 X-58.06290 Y50.04905
G01 X-58.00860 Y49.91473
G01 X-57.93255 Y49.69119
G01 X-57.89165 Y49.55487
G01 X-57.85505 Y49.40684
G01 X-57.80794 Y49.17788
G01 X-57.78553 Y49.02703
G01 X-57.76168 Y48.80305
G01 X-57.75348 Y48.65842
G01 X-57.75056 Y48.45314
G01 X-57.25056 Y48.45116
G01 X-57.25899 Y48.22599
G01 X-57.28480 Y47.94225
G01 X-57.31538 Y47.74126
G01 X-57.37164 Y47.46097
G01 X-57.44703 Y47.18500
G01 X-57.50753 Y47.00003
G01 X-57.61533 Y46.72477
G01 X-57.70883 Y46.52162
G01 X-57.83163 Y46.28761
G01 X-57.95246 Y46.08746
G01 X-58.11263 Y45.85066
G01 X-58.28828 Y45.62577
G01 X-58.43961 Y45.45236
G01 X-58.63135 Y45.25604
G01 X-58.77504 Y45.12478
G01 X-58.99399 Y44.94276
G01 X-59.23336 Y44.77078
G01 X-59.40389 Y44.66006
G01 X-59.66991 Y44.51025
G01 X-59.86285 Y44.41515
G01 X-60.09754 Y44.31459
G01 X-60.30935 Y44.23773
G01 X-60.59272 Y44.15140
G01 X-60.86145 Y44.08927
G01 X-61.08332 Y44.04995
G01 X-61.36737 Y44.01657
G01 X-61.57184 Y44.00403
G01 X-61.84765 Y44.00113
G01 X-62.14336 Y44.01828
G01 X-62.33546 Y44.03832
G01 X-62.62619 Y44.08688
G01 X-62.82479 Y44.13039
G01 X-63.06957 Y44.19859
G01 X-63.23399 Y44.25180
G01 X-63.48992 Y44.35089
G01 X-63.66667 Y44.42871
G01 X-63.90218 Y44.54898
G01 X-64.06261 Y44.63981
G01 X-64.28608 Y44.78332
G01 X-64.45275 Y44.90242
G01 X-64.65194 Y45.06135
G01 X-64.78953 Y45.18195
G01 X-64.97909 Y45.36666
G01 X-65.11859 Y45.51667
G01 X-65.27599 Y45.70456
G01 X-65.39349 Y45.85970
G01 X-65.55405 Y46.09638
G01 X-65.66901 Y46.29015
G01 X-65.79329 Y46.52488
G01 X-65.90586 Y46.77659
G01 X-65.98425 Y46.97687
G01 X-66.05750 Y47.20003
G01 X-66.11501 Y47.40730
G01 X-66.17162 Y47.66615
G01 X-66.20485 Y47.86671
G01 X-66.23154 Y48.09934
G01 X-66.24582 Y48.31397
G01 X-66.24912 Y48.57953
G01 X-66.24168 Y48.76376
G01 X-66.21760 Y49.03752
G01 X-66.18818 Y49.23869
G01 X-66.13776 Y49.49812
G01 X-66.09304 Y49.67554
G01 X-66.02019 Y49.91900
G01 X-65.96957 Y50.06284
G01 X-65.89405 Y50.25159
G01 X-65.78915 Y50.48303
G01 X-65.62466 Y50.78827
G01 X-65.45369 Y51.05494
G01 X-65.30861 Y51.25336
G01 X-65.17383 Y51.41938
G01 X-65.08694 Y51.51895
G01 X-64.85255 Y51.75888
G01 X-64.75573 Y51.84884
G01 X-64.64775 Y51.94155
G01 X-64.40853 Y52.13063
G01 X-64.30038 Y52.20658
G01 X-64.12139 Y52.32403
G01 X-63.98956 Y52.40292
G01 X-63.81900 Y52.49515
G01 X-63.58862 Y52.60683
G01 X-63.27602 Y52.73324
G01 X-63.14021 Y52.77932
G01 X-62.94633 Y52.83771
G01 X-62.79126 Y52.87762
G01 X-62.60366 Y52.91747
G01 X-62.34090 Y52.96052
G01 X-62.14847 Y52.98156
G01 X-62.00656 Y52.99260
G01 X-61.87450 Y52.99768
G01 X-61.67120 Y52.99873
G01 X-61.41735 Y52.98709
G01 X-61.21464 Y52.96743
G01 X-61.08261 Y52.95016
G01 X-60.95131 Y52.92786
G01 X-60.73122 Y52.88300
G01 X-60.58225 Y52.84539
G01 X-60.40620 Y52.79365
G01 X-60.15622 Y52.70790
G01 X-59.85533 Y52.58158
G01 X-59.71728 Y52.51414
G01 X-59.54738 Y52.42364
G01 X-59.32457 Y52.28938
G01 X-59.18845 Y52.19941
G01 X-59.07176 Y52.11602
G01 X-58.88736 Y51.97084
G01 X-58.77844 Y51.87922
G01 X-58.67334 Y51.78326
G01 X-58.52808 Y51.64059
G01 X-58.35454 Y51.45235
G01 X-58.23758 Y51.31227
G01 X-58.15145 Y51.20178
G01 X-57.96646 Y50.93581
G01 X-57.88048 Y50.79629
G01 X-57.78556 Y50.62733
G01 X-57.66628 Y50.38926
G01 X-57.58472 Y50.20211
G01 X-57.53593 Y50.07821
G01 X-57.48868 Y49.94280
G01 X-57.42140 Y49.72957
G01 X-57.38241 Y49.58215
G01 X-57.33847 Y49.38365
G01 X-57.29379 Y49.12319
G01 X-57.25930 Y48.78832
G01 X-57.25317 Y48.65530
G01 X-57.25056 Y48.45116
G01 X-56.75058 Y48.44915
G01 X-56.76064 Y48.18507
G01 X-56.79234 Y47.85114
G01 X-56.81325 Y47.71037
G01 X-56.84782 Y47.52035
G01 X-56.90324 Y47.27235
G01 X-56.98714 Y46.97918
G01 X-57.07479 Y46.72983
G01 X-57.19902 Y46.42924
G01 X-57.34403 Y46.13811
G01 X-57.41741 Y46.00443
G01 X-57.49582 Y45.87364
G01 X-57.61777 Y45.68622
G01 X-57.69900 Y45.56935
G01 X-57.79686 Y45.43943
G01 X-57.92442 Y45.28111
G01 X-58.11411 Y45.06892
G01 X-58.24174 Y44.93783
G01 X-58.35188 Y44.83237
G01 X-58.46595 Y44.73115
G01 X-58.64517 Y44.58104
G01 X-58.79076 Y44.47022
G01 X-58.96577 Y44.34799
G01 X-59.09325 Y44.26433
G01 X-59.21505 Y44.19067
G01 X-59.41944 Y44.07718
G01 X-59.54598 Y44.01205
G01 X-59.68406 Y43.94731
G01 X-59.87085 Y43.86702
G01 X-60.12797 Y43.77108
G01 X-60.33130 Y43.70608
G01 X-60.48786 Y43.66199
G01 X-60.64608 Y43.62430
G01 X-60.86508 Y43.57906
G01 X-61.02566 Y43.55313
G01 X-61.21735 Y43.52955
G01 X-61.35898 Y43.51548
G01 X-61.51118 Y43.50598
G01 X-61.72457 Y43.50070
G01 X-61.86691 Y43.50144
G01 X-62.06998 Y43.51124
G01 X-62.37361 Y43.53911
G01 X-62.57465 Y43.56948
G01 X-62.85408 Y43.62351
G01 X-63.06104 Y43.67588
G01 X-63.34331 Y43.76075
G01 X-63.52494 Y43.82643
G01 X-63.78824 Y43.93448
G01 X-63.98108 Y44.02610
G01 X-64.24110 Y44.16494
G01 X-64.42362 Y44.27563
G01 X-64.65171 Y44.42826
G01 X-64.81442 Y44.55018
G01 X-65.04234 Y44.73712
G01 X-65.18486 Y44.86747
G01 X-65.38633 Y45.06852
G01 X-65.52921 Y45.22711
G01 X-65.71592 Y45.45523
G01 X-65.83576 Y45.61947
G01 X-65.99372 Y45.85619
G01 X-66.09715 Y46.03123
G01 X-66.23119 Y46.28231
G01 X-66.31275 Y46.45741
G01 X-66.42232 Y46.72005
G01 X-66.49024 Y46.91169
G01 X-66.57624 Y47.19363
G01 X-66.62219 Y47.38124
G01 X-66.68056 Y47.67016
G01 X-66.70820 Y47.86132
G01 X-66.73792 Y48.15459
G01 X-66.74701 Y48.34753
G01 X-66.74841 Y48.62198
G01 X-66.73703 Y48.84532
G01 X-66.72156 Y49.02764
G01 X-66.70495 Y49.16899
G01 X-66.65023 Y49.48959
G01 X-66.60175 Y49.70793
G01 X-66.51859 Y50.00130
G01 X-66.44358 Y50.22273
G01 X-66.32560 Y50.51491
G01 X-66.21249 Y50.75377
G01 X-66.05697 Y51.03945
G01 X-65.89347 Y51.29685
G01 X-65.74658 Y51.50419
G01 X-65.55575 Y51.74206
G01 X-65.39316 Y51.92395
G01 X-65.16294 Y52.15372
G01 X-64.98803 Y52.30889
G01 X-64.74206 Y52.50579
G01 X-64.55941 Y52.63485
G01 X-64.40650 Y52.73530
G01 X-64.28509 Y52.80957
G01 X-64.00838 Y52.96032
G01 X-63.78816 Y53.06530
G01 X-63.50607 Y53.18115
G01 X-63.26581 Y53.26390
G01 X-62.97272 Y53.34810
G01 X-62.66482 Y53.41506
G01 X-62.41390 Y53.45527
G01 X-62.10043 Y53.48750
G01 X-61.86688 Y53.49789
G01 X-61.55179 Y53.49596
G01 X-61.32863 Y53.48120
G01 X-61.14659 Y53.46294
G01 X-60.99546 Y53.44264
G01 X-60.69564 Y53.38704
G01 X-60.45845 Y53.32989
G01 X-60.21476 Y53.25786
G01 X-60.05106 Y53.20241
G01 X-59.89935 Y53.14381
G01 X-59.65617 Y53.04031
G01 X-59.49160 Y52.96032
G01 X-59.26772 Y52.84008
G01 X-59.11926 Y52.75156
G01 X-58.93189 Y52.62954
G01 X-58.79879 Y52.53601
G01 X-58.66963 Y52.43716
G01 X-58.48843 Y52.28943
G01 X-58.33720 Y52.15354
G01 X-58.16313 Y51.98262
G01 X-58.04456 Y51.85689
G01 X-57.87934 Y51.66383
G01 X-57.76557 Y51.52050
G01 X-57.67001 Y51.38887
G01 X-57.52244 Y51.16962
G01 X-57.43826 Y51.03045
G01 X-57.31985 Y50.81717
G01 X-57.23341 Y50.64442
G01 X-57.13852 Y50.43076
G01 X-57.07761 Y50.27993
G01 X-57.01967 Y50.11710
G01 X-56.95447 Y49.91387
G01 X-56.90575 Y49.73747
G01 X-56.84774 Y49.47966
G01 X-56.81444 Y49.29972
G01 X-56.79056 Y49.12855
G01 X-56.76278 Y48.85553
G01 X-56.75379 Y48.68294
G01 X-56.75058 Y48.44915
G01 X-51.25077 Y48.42065
G01 X-51.25517 Y48.17603
G01 X-51.26589 Y47.93158
G01 X-51.28204 Y47.69767
G01 X-51.31003 Y47.38380
G01 X-51.33713 Y47.15154
G01 X-51.36993 Y46.92002
G01 X-51.45707 Y46.42929
G01 X-51.50752 Y46.18987
G01 X-51.56167 Y45.96173
G01 X-51.61597 Y45.75465
G01 X-51.69728 Y45.47070
G01 X-51.75750 Y45.27591
G01 X-51.83530 Y45.04393
G01 X-51.91544 Y44.82356
G01 X-52.00421 Y44.59590
G01 X-52.08885 Y44.38886
G01 X-52.18247 Y44.17461
G01 X-52.27696 Y43.97187
G01 X-52.37764 Y43.76862
G01 X-56.11139 Y42.08028
G01 X-58.56130 Y40.96060
G01 X-61.62327 Y39.54567
G01 X-64.27396 Y38.30818
G01 X-64.49068 Y38.36490
G01 X-64.74485 Y38.43734
G01 X-65.14219 Y38.56325
G01 X-65.52413 Y38.70277
G01 X-65.77891 Y38.80480
G01 X-65.99410 Y38.89632
G01 X-66.38094 Y39.07699
G01 X-66.81406 Y39.30269
G01 X-67.17635 Y39.51112
G01 X-67.54612 Y39.74602
G01 X-67.88219 Y39.97696
G01 X-68.20804 Y40.22209
G01 X-68.57075 Y40.51760
G01 X-68.73938 Y40.66454
G01 X-68.90451 Y40.81541
G01 X-69.23954 Y41.14208
G01 X-69.52008 Y41.43802
G01 X-69.67555 Y41.61356
G01 X-69.84632 Y41.81589
G01 X-70.09427 Y42.12669
G01 X-70.34065 Y42.46430
G01 X-70.50146 Y42.69979
G01 X-70.61840 Y42.87911
G01 X-70.82983 Y43.22778
G01 X-71.05129 Y43.62920
G01 X-71.24233 Y44.01238
G01 X-71.43636 Y44.45010
G01 X-71.58358 Y44.81942
G01 X-71.72467 Y45.22366
G01 X-71.85617 Y45.65221
G01 X-71.96110 Y46.05678
G01 X-72.05990 Y46.51433
G01 X-72.13392 Y46.94514
G01 X-72.16536 Y47.17684
G01 X-72.19414 Y47.42947
G01 X-72.23003 Y47.85614
G01 X-72.24631 Y48.26358
G01 X-72.24931 Y48.54872
G01 X-72.24624 Y48.77298
G01 X-72.23577 Y49.03785
G01 X-72.21791 Y49.30231
G01 X-72.18992 Y49.61618
G01 X-72.15208 Y49.92906
G01 X-72.10897 Y50.21044
G01 X-72.04880 Y50.54044
G01 X-71.99264 Y50.80912
G01 X-71.92876 Y51.07607
G01 X-71.85718 Y51.34107
G01 X-71.76468 Y51.65293
G01 X-71.67601 Y51.92344
G01 X-71.58645 Y52.17213
G01 X-71.45170 Y52.51237
G01 X-71.35663 Y52.73708
G01 X-71.23410 Y53.00523
G01 X-71.11258 Y53.25133
G01 X-70.98172 Y53.49999
G01 X-69.82737 Y53.49997
G01 X-70.40987 Y53.49997
G01 X-70.54802 Y53.25074
G01 X-70.72566 Y52.90787
G01 X-70.90148 Y52.52997
G01 X-71.06846 Y52.12603
G01 X-71.19892 Y51.77323
G01 X-71.31157 Y51.42502
G01 X-71.42831 Y51.01435
G01 X-71.52038 Y50.62873
G01 X-71.60699 Y50.17955
G01 X-71.66656 Y49.78758
G01 X-71.70059 Y49.48451
G01 X-71.73128 Y49.10038
G01 X-71.74568 Y48.78741
G01 X-71.74926 Y48.49431
G01 X-71.74263 Y48.13000
G01 X-71.72643 Y47.81710
G01 X-71.70039 Y47.51502
G01 X-71.65541 Y47.13183
G01 X-71.60771 Y46.82030
G01 X-71.55119 Y46.52061
G01 X-71.47270 Y46.16420
G01 X-71.39252 Y45.85086
G01 X-71.30715 Y45.55990
G01 X-71.19076 Y45.20400
G01 X-71.08665 Y44.91921
G01 X-70.97298 Y44.63811
G01 X-70.83928 Y44.33194
G01 X-70.71807 Y44.07621
G01 X-70.58411 Y43.81548
G01 X-70.41777 Y43.51421
G01 X-70.27354 Y43.27073
G01 X-70.12173 Y43.03187
G01 X-69.92254 Y42.73885
G01 X-69.75076 Y42.50136
G01 X-69.56499 Y42.26171
G01 X-69.34543 Y41.99672
G01 X-69.15882 Y41.78394
G01 X-68.96560 Y41.57716
G01 X-68.70065 Y41.31213
G01 X-68.49382 Y41.11655
G01 X-68.27319 Y40.92100
G01 X-68.04627 Y40.73276
G01 X-67.79186 Y40.53218
G01 X-67.54767 Y40.35242
G01 X-67.31442 Y40.19217
G01 X-67.00827 Y39.99456
G01 X-66.75684 Y39.84396
G01 X-66.50060 Y39.70162
G01 X-66.18514 Y39.53800
G01 X-65.90995 Y39.40653
G01 X-65.63045 Y39.28448
G01 X-65.30015 Y39.15222
G01 X-65.03284 Y39.05440
G01 X-64.76253 Y38.96510
G01 X-64.41148 Y38.86182
G01 X-64.12636 Y38.78671
G01 X-63.82903 Y38.71890
G01 X-63.52375 Y38.66007
G01 X-62.69352 Y39.04757
G01 X-63.03970 Y39.08816
G01 X-63.37107 Y39.14061
G01 X-63.77031 Y39.21760
G01 X-64.13614 Y39.30508
G01 X-64.52735 Y39.41590
G01 X-64.86581 Y39.52568
G01 X-65.18044 Y39.64208
G01 X-65.57526 Y39.80454
G01 X-65.91645 Y39.96289
G01 X-66.25963 Y40.13975
G01 X-66.56032 Y40.30807
G01 X-66.84538 Y40.48298
G01 X-67.16659 Y40.69593
G01 X-67.44607 Y40.89748
G01 X-67.78874 Y41.16753
G01 X-68.04442 Y41.38473
G01 X-68.23969 Y41.56286
G01 X-68.45846 Y41.77525
G01 X-68.62910 Y41.94861
G01 X-68.78792 Y42.11925
G01 X-68.96174 Y42.31731
G01 X-69.16263 Y42.55920
G01 X-69.31871 Y42.75882
G01 X-69.46288 Y42.95470
G01 X-69.64744 Y43.22173
G01 X-69.76433 Y43.39961
G01 X-69.90281 Y43.62379
G01 X-70.02935 Y43.84330
G01 X-70.16994 Y44.10169
G01 X-70.28454 Y44.32767
G01 X-70.39234 Y44.55698
G01 X-70.51383 Y44.83600
G01 X-70.61284 Y45.08020
G01 X-70.70761 Y45.33692
G01 X-70.80969 Y45.64502
G01 X-70.88619 Y45.89719
G01 X-70.95236 Y46.14177
G01 X-71.01340 Y46.39810
G01 X-71.07852 Y46.70628
G01 X-71.12686 Y46.97649
G01 X-71.16514 Y47.23803
G01 X-71.20352 Y47.57102
G01 X-71.22564 Y47.82345
G01 X-71.24022 Y48.07638
G01 X-71.24865 Y48.42114
G01 X-71.24830 Y48.66437
G01 X-71.24007 Y48.92774
G01 X-71.22287 Y49.20087
G01 X-71.19511 Y49.51468
G01 X-71.16219 Y49.78720
G01 X-71.11878 Y50.06853
G01 X-71.06155 Y50.37841
G01 X-71.00633 Y50.63688
G01 X-70.94309 Y50.89355
G01 X-70.84911 Y51.22611
G01 X-70.77695 Y51.45921
G01 X-70.69470 Y51.69969
G01 X-70.60529 Y51.93762
G01 X-70.48249 Y52.23883
G01 X-70.36280 Y52.50825
G01 X-70.24301 Y52.75524
G01 X-70.08719 Y53.05209
G01 X-69.95838 Y53.28199
G01 X-69.82737 Y53.49997
G01 X-68.62366 Y53.49997
G01 X-69.23197 Y53.49997
G01 X-69.40042 Y53.23975
G01 X-69.56163 Y52.96896
G01 X-69.76435 Y52.59321
G01 X-69.92051 Y52.27350
G01 X-70.06229 Y51.94717
G01 X-70.15320 Y51.72078
G01 X-70.22429 Y51.53028
G01 X-70.33994 Y51.18306
G01 X-70.46303 Y50.75306
G01 X-70.54736 Y50.39695
G01 X-70.62539 Y49.98756
G01 X-70.66999 Y49.69612
G01 X-70.70382 Y49.40325
G01 X-70.73321 Y49.03848
G01 X-70.74703 Y48.72363
G01 X-70.74870 Y48.42881
G01 X-70.73864 Y48.05284
G01 X-70.71898 Y47.75868
G01 X-70.68551 Y47.43511
G01 X-70.64378 Y47.12274
G01 X-70.59554 Y46.84220
G01 X-70.52252 Y46.49399
G01 X-70.45551 Y46.21736
G01 X-70.37283 Y45.92378
G01 X-70.26425 Y45.58495
G01 X-70.17174 Y45.32653
G01 X-70.06257 Y45.05267
G01 X-69.94540 Y44.78216
G01 X-69.84210 Y44.56112
G01 X-69.72737 Y44.33433
G01 X-69.58632 Y44.07545
G01 X-69.46928 Y43.87304
G01 X-69.34091 Y43.66555
G01 X-69.22912 Y43.49570
G01 X-69.04977 Y43.23659
G01 X-68.91703 Y43.05658
G01 X-68.76654 Y42.86453
G01 X-68.57802 Y42.63789
G01 X-68.41020 Y42.44701
G01 X-68.22933 Y42.25427
G01 X-68.02077 Y42.04594
G01 X-67.86649 Y41.89837
G01 X-67.69306 Y41.74152
G01 X-67.50728 Y41.58336
G01 X-67.27756 Y41.39860
G01 X-67.09161 Y41.25684
G01 X-66.90992 Y41.12638
G01 X-66.71617 Y40.99550
G01 X-66.45946 Y40.83088
G01 X-66.24107 Y40.70088
G01 X-66.03660 Y40.58747
G01 X-65.76614 Y40.44653
G01 X-65.53736 Y40.33586
G01 X-65.29581 Y40.22855
G01 X-65.04165 Y40.12489
G01 X-64.82326 Y40.04135
G01 X-64.58323 Y39.95781
G01 X-64.36015 Y39.88773
G01 X-64.08651 Y39.80942
G01 X-63.82055 Y39.74158
G01 X-63.55240 Y39.68290
G01 X-63.20244 Y39.61882
G01 X-62.91085 Y39.57533
G01 X-62.62797 Y39.54356
G01 X-62.27326 Y39.51597
G01 X-62.00920 Y39.50388
G01 X-61.72015 Y39.50063
G01 X-60.06793 Y40.26647
G01 X-60.41248 Y40.10609
G01 X-60.64738 Y40.07277
G01 X-60.94092 Y40.03921
G01 X-61.32754 Y40.01079
G01 X-61.72492 Y40.00063
G01 X-62.08192 Y40.00673
G01 X-62.46833 Y40.03157
G01 X-62.76172 Y40.06060
G01 X-63.06378 Y40.10274
G01 X-63.42400 Y40.16715
G01 X-63.75164 Y40.23924
G01 X-64.02687 Y40.31183
G01 X-64.40650 Y40.42603
G01 X-64.68486 Y40.52319
G01 X-65.01592 Y40.65349
G01 X-65.28641 Y40.77076
G01 X-65.56116 Y40.90314
G01 X-65.88526 Y41.07431
G01 X-66.15880 Y41.23304
G01 X-66.47645 Y41.43629
G01 X-66.71986 Y41.60449
G01 X-66.94838 Y41.77586
G01 X-67.22565 Y41.99941
G01 X-67.44805 Y42.19293
G01 X-67.64812 Y42.38084
G01 X-67.89301 Y42.62575
G01 X-68.12084 Y42.87360
G01 X-68.34459 Y43.13819
G01 X-68.52765 Y43.37060
G01 X-68.70141 Y43.61005
G01 X-68.90090 Y43.90573
G01 X-69.06699 Y44.17487
G01 X-69.23669 Y44.47697
G01 X-69.37281 Y44.73966
G01 X-69.49430 Y44.99818
G01 X-69.63075 Y45.31667
G01 X-69.73715 Y45.59272
G01 X-69.85739 Y45.95015
G01 X-69.94210 Y46.23364
G01 X-70.01789 Y46.53016
G01 X-70.09122 Y46.86833
G01 X-70.14169 Y47.14850
G01 X-70.18150 Y47.43033
G01 X-70.21848 Y47.77458
G01 X-70.23938 Y48.07991
G01 X-70.24891 Y48.44672
G01 X-70.24637 Y48.74255
G01 X-70.23285 Y49.02789
G01 X-70.20342 Y49.38286
G01 X-70.16671 Y49.68563
G01 X-70.12137 Y49.96663
G01 X-70.05767 Y50.29599
G01 X-69.98548 Y50.60274
G01 X-69.88360 Y50.96480
G01 X-69.79084 Y51.25532
G01 X-69.69001 Y51.53236
G01 X-69.56008 Y51.85263
G01 X-69.44396 Y52.11252
G01 X-69.31805 Y52.36782
G01 X-69.15455 Y52.67295
G01 X-68.99443 Y52.94569
G01 X-68.79524 Y53.25382
G01 X-68.62366 Y53.49997
G01 X-58.43524 Y53.49997
G01 X-59.45909 Y53.49997
G01 X-59.29290 Y53.42024
G01 X-59.08599 Y53.31112
G01 X-58.93405 Y53.22433
G01 X-58.78558 Y53.13172
G01 X-58.60816 Y53.01397
G01 X-58.46056 Y52.90759
G01 X-58.25371 Y52.74445
G01 X-58.12150 Y52.63314
G01 X-57.98629 Y52.50983
G01 X-57.81962 Y52.34630
G01 X-57.70093 Y52.22210
G01 X-57.58703 Y52.09342
G01 X-57.44360 Y51.92067
G01 X-57.33070 Y51.77379
G01 X-57.18378 Y51.56462
G01 X-57.08439 Y51.41224
G01 X-57.00128 Y51.27353
G01 X-56.89277 Y51.07877
G01 X-56.81856 Y50.93513
G01 X-56.74952 Y50.78887
G01 X-56.66463 Y50.59380
G01 X-56.60494 Y50.44351
G01 X-56.54746 Y50.28159
G01 X-56.47898 Y50.06889
G01 X-56.43453 Y49.91242
G01 X-56.39803 Y49.76437
G01 X-56.35292 Y49.55573
G01 X-56.32186 Y49.38570
G01 X-56.29735 Y49.21463
G01 X-56.27367 Y49.00285
G01 X-56.26070 Y48.84166
G01 X-56.25351 Y48.68009
G01 X-56.25054 Y48.46737
G01 X-56.25353 Y48.30567
G01 X-56.26158 Y48.15429
G01 X-56.28203 Y47.91149
G01 X-56.30146 Y47.74999
G01 X-56.32671 Y47.58931
G01 X-56.36585 Y47.37989
G01 X-56.40299 Y47.21212
G01 X-56.44375 Y47.05563
G01 X-56.50327 Y46.85137
G01 X-56.55379 Y46.69775
G01 X-56.60979 Y46.54606
G01 X-56.68899 Y46.34796
G01 X-56.75879 Y46.18985
G01 X-56.82999 Y46.04360
G01 X-56.93842 Y45.83648
G01 X-57.01904 Y45.69521
G01 X-57.09920 Y45.56547
G01 X-57.22755 Y45.37070
G01 X-57.33931 Y45.21454
G01 X-57.48939 Y45.02335
G01 X-57.58807 Y44.90458
G01 X-57.69074 Y44.78929
G01 X-57.82490 Y44.64858
G01 X-57.94654 Y44.52724
G01 X-58.05767 Y44.42412
G01 X-58.23412 Y44.27174
G01 X-58.36018 Y44.16895
G01 X-58.49811 Y44.06481
G01 X-58.67303 Y43.94248
G01 X-58.92124 Y43.78343
G01 X-59.14258 Y43.65861
G01 X-59.28563 Y43.58317
G01 X-59.44047 Y43.50873
G01 X-59.61685 Y43.43151
G01 X-59.76650 Y43.37022
G01 X-59.90872 Y43.31769
G01 X-60.27534 Y43.20154
G01 X-60.45144 Y43.15584
G01 X-60.65919 Y43.10997
G01 X-60.80808 Y43.08135
G01 X-60.95784 Y43.05775
G01 X-61.19919 Y43.02844
G01 X-61.34009 Y43.01541
G01 X-61.51164 Y43.00555
G01 X-61.70412 Y43.00096
G01 X-61.90625 Y43.00230
G01 X-62.09805 Y43.01198
G01 X-62.35116 Y43.03321
G01 X-62.59297 Y43.06550
G01 X-62.84311 Y43.11030
G01 X-63.05156 Y43.15638
G01 X-63.33576 Y43.23456
G01 X-63.51999 Y43.29267
G01 X-63.72047 Y43.36603
G01 X-63.98369 Y43.47423
G01 X-64.17696 Y43.56494
G01 X-64.39304 Y43.67751
G01 X-64.58613 Y43.78777
G01 X-64.80800 Y43.92953
G01 X-64.96614 Y44.03844
G01 X-65.11950 Y44.15401
G01 X-65.30901 Y44.30728
G01 X-65.46169 Y44.44154
G01 X-65.67322 Y44.64649
G01 X-65.80589 Y44.78533
G01 X-65.93901 Y44.93745
G01 X-66.11770 Y45.15752
G01 X-66.23700 Y45.32069
G01 X-66.38994 Y45.54738
G01 X-66.50538 Y45.73740
G01 X-66.64617 Y45.99503
G01 X-66.74322 Y46.19511
G01 X-66.83997 Y46.41814
G01 X-66.92735 Y46.64441
G01 X-67.00363 Y46.87522
G01 X-67.06052 Y47.06917
G01 X-67.10647 Y47.25563
G01 X-67.15686 Y47.49414
G01 X-67.19047 Y47.69465
G01 X-67.22529 Y47.98708
G01 X-67.24106 Y48.18860
G01 X-67.24907 Y48.47196
G01 X-67.24774 Y48.65388
G01 X-67.23766 Y48.85578
G01 X-67.21363 Y49.12893
G01 X-67.18341 Y49.35052
G01 X-67.13802 Y49.60056
G01 X-67.09425 Y49.79911
G01 X-67.04442 Y49.98573
G01 X-66.97406 Y50.21931
G01 X-66.90332 Y50.42073
G01 X-66.79286 Y50.69403
G01 X-66.69529 Y50.90650
G01 X-66.56380 Y51.15865
G01 X-66.46865 Y51.32545
G01 X-66.31043 Y51.57277
G01 X-66.19512 Y51.73878
G01 X-66.06616 Y51.90734
G01 X-65.88476 Y52.12651
G01 X-65.74066 Y52.28400
G01 X-65.56154 Y52.46428
G01 X-65.39748 Y52.61628
G01 X-65.19492 Y52.78600
G01 X-65.03474 Y52.91125
G01 X-64.87749 Y53.02341
G01 X-64.66576 Y53.16294
G01 X-64.49258 Y53.26720
G01 X-64.23411 Y53.40647
G01 X-64.04082 Y53.49997
G01 X-65.06411 Y53.49997
G01 X-65.31110 Y53.32880
G01 X-65.45636 Y53.21750
G01 X-65.60607 Y53.09547
G01 X-65.82771 Y52.90114
G01 X-66.09514 Y52.63670
G01 X-66.29329 Y52.41844
G01 X-66.51676 Y52.14323
G01 X-66.61300 Y52.01422
G01 X-66.70505 Y51.88217
G01 X-66.81633 Y51.71341
G01 X-66.90622 Y51.56792
G01 X-67.07693 Y51.25870
G01 X-67.15943 Y51.09538
G01 X-67.23179 Y50.93843
G01 X-67.32943 Y50.70381
G01 X-67.38795 Y50.55205
G01 X-67.44150 Y50.39845
G01 X-67.49004 Y50.24318
G01 X-67.55166 Y50.02822
G01 X-67.60037 Y49.83084
G01 X-67.63355 Y49.67158
G01 X-67.67680 Y49.43150
G01 X-67.70149 Y49.26046
G01 X-67.72026 Y49.08865
G01 X-67.73812 Y48.86648
G01 X-67.74670 Y48.69566
G01 X-67.74939 Y48.51461
G01 X-67.74525 Y48.27227
G01 X-67.73662 Y48.10145
G01 X-67.72217 Y47.93104
G01 X-67.69572 Y47.69927
G01 X-67.67068 Y47.52828
G01 X-67.63774 Y47.34827
G01 X-67.58849 Y47.12038
G01 X-67.55252 Y46.97382
G01 X-67.50642 Y46.80913
G01 X-67.43319 Y46.57809
G01 X-67.37660 Y46.41670
G01 X-67.31452 Y46.25731
G01 X-67.22318 Y46.04360
G01 X-67.15161 Y45.88827
G01 X-67.07942 Y45.74441
G01 X-66.96837 Y45.54035
G01 X-66.88244 Y45.39247
G01 X-66.78049 Y45.23080
G01 X-66.64983 Y45.03859
G01 X-66.54975 Y44.89988
G01 X-66.45130 Y44.77255
G01 X-66.30314 Y44.59361
G01 X-66.19042 Y44.46499
G01 X-66.06634 Y44.33308
G01 X-65.90845 Y44.17621
G01 X-65.78277 Y44.05760
G01 X-65.64528 Y43.93682
G01 X-65.32883 Y43.68444
G01 X-65.16527 Y43.56725
G01 X-64.99682 Y43.45554
G01 X-64.73068 Y43.29298
G01 X-64.37274 Y43.10398
G01 X-64.22560 Y43.03466
G01 X-64.06688 Y42.96628
G01 X-63.84961 Y42.87992
G01 X-63.67739 Y42.81810
G01 X-63.51275 Y42.76552
G01 X-63.26838 Y42.69585
G01 X-63.09076 Y42.65181
G01 X-62.93162 Y42.61815
G01 X-62.70153 Y42.57665
G01 X-62.53061 Y42.55110
G01 X-62.33866 Y42.52953
G01 X-62.11616 Y42.51203
G01 X-61.94534 Y42.50329
G01 X-61.78441 Y42.50042
G01 X-61.54207 Y42.50428
G01 X-61.35113 Y42.51335
G01 X-61.16069 Y42.52973
G01 X-60.90994 Y42.55963
G01 X-60.73097 Y42.58727
G01 X-60.54326 Y42.62344
G01 X-60.31654 Y42.67403
G01 X-60.10265 Y42.73088
G01 X-59.83287 Y42.81541
G01 X-59.66193 Y42.87517
G01 X-59.48396 Y42.94490
G01 X-59.25223 Y43.04505
G01 X-59.07961 Y43.12714
G01 X-58.92792 Y43.20614
G01 X-58.71507 Y43.32465
G01 X-58.51561 Y43.44667
G01 X-58.28002 Y43.60639
G01 X-58.12376 Y43.71993
G01 X-57.97199 Y43.83941
G01 X-57.79381 Y43.99029
G01 X-57.65160 Y44.11800
G01 X-57.52148 Y44.24393
G01 X-57.35254 Y44.41876
G01 X-57.21650 Y44.56986
G01 X-57.04215 Y44.78183
G01 X-56.92541 Y44.93318
G01 X-56.80888 Y45.09719
G01 X-56.66986 Y45.30880
G01 X-56.57439 Y45.46488
G01 X-56.48465 Y45.62437
G01 X-56.36311 Y45.85906
G01 X-56.27629 Y46.04291
G01 X-56.19323 Y46.23958
G01 X-56.07543 Y46.55114
G01 X-56.00512 Y46.77159
G01 X-55.92465 Y47.06341
G01 X-55.87020 Y47.30895
G01 X-55.81683 Y47.60864
G01 X-55.78673 Y47.84052
G01 X-55.76324 Y48.11342
G01 X-55.75145 Y48.37471
G01 X-55.75287 Y48.65731
G01 X-55.76268 Y48.88850
G01 X-55.78097 Y49.09896
G01 X-55.81241 Y49.36114
G01 X-55.85242 Y49.60183
G01 X-55.91622 Y49.90003
G01 X-55.98320 Y50.15570
G01 X-56.07205 Y50.43642
G01 X-56.15015 Y50.65423
G01 X-56.27083 Y50.94277
G01 X-56.36831 Y51.15260
G01 X-56.47055 Y51.34892
G01 X-56.63085 Y51.62928
G01 X-56.75567 Y51.82410
G01 X-56.92430 Y52.06512
G01 X-57.07990 Y52.26606
G01 X-57.28264 Y52.50508
G01 X-57.43362 Y52.66690
G01 X-57.64279 Y52.87312
G01 X-57.83920 Y53.04998
G01 X-58.05955 Y53.22961
G01 X-58.24418 Y53.36908
G01 X-58.43524 Y53.49997
G01 X-56.85295 Y53.49997
G01 X-57.59788 Y53.49997
G01 X-57.40375 Y53.33307
G01 X-57.22615 Y53.16576
G01 X-57.00387 Y52.94097
G01 X-56.82681 Y52.74305
G01 X-56.63992 Y52.51671
G01 X-56.48843 Y52.31582
G01 X-56.29862 Y52.03962
G01 X-56.15356 Y51.80505
G01 X-56.00433 Y51.53802
G01 X-55.88904 Y51.31016
G01 X-55.75181 Y51.00274
G01 X-55.66126 Y50.77496
G01 X-55.55259 Y50.45646
G01 X-55.48257 Y50.22276
G01 X-55.42072 Y49.97625
G01 X-55.35422 Y49.65784
G01 X-55.32559 Y49.48740
G01 X-55.30235 Y49.31616
G01 X-55.27779 Y49.09348
G01 X-55.26179 Y48.88982
G01 X-55.25386 Y48.70610
G01 X-55.25056 Y48.46142
G01 X-55.25356 Y48.28779
G01 X-55.26270 Y48.10415
G01 X-55.28229 Y47.86058
G01 X-55.30479 Y47.65850
G01 X-55.33309 Y47.46744
G01 X-55.37291 Y47.24728
G01 X-55.41005 Y47.06722
G01 X-55.45320 Y46.88848
G01 X-55.56357 Y46.50618
G01 X-55.62244 Y46.33199
G01 X-55.68338 Y46.16938
G01 X-55.77449 Y45.94301
G01 X-55.86580 Y45.73885
G01 X-55.94662 Y45.57469
G01 X-56.06976 Y45.34083
G01 X-56.17119 Y45.16460
G01 X-56.27350 Y45.00077
G01 X-56.39699 Y44.81375
G01 X-56.51515 Y44.64708
G01 X-56.62671 Y44.50093
G01 X-56.80547 Y44.28117
G01 X-56.95208 Y44.11523
G01 X-57.11955 Y43.93951
G01 X-57.26466 Y43.79570
G01 X-57.40738 Y43.66415
G01 X-57.61601 Y43.48500
G01 X-57.76646 Y43.36385
G01 X-57.93755 Y43.23618
G01 X-58.12950 Y43.10273
G01 X-58.28248 Y43.00230
G01 X-58.45627 Y42.89676
G01 X-58.68718 Y42.76791
G01 X-58.85020 Y42.68285
G01 X-59.03455 Y42.59478
G01 X-59.26831 Y42.49311
G01 X-59.44857 Y42.42117
G01 X-59.62157 Y42.35892
G01 X-59.87382 Y42.27746
G01 X-60.06028 Y42.22356
G01 X-60.23859 Y42.17863
G01 X-60.47763 Y42.12636
G01 X-60.65835 Y42.09242
G01 X-60.85022 Y42.06316
G01 X-61.11344 Y42.03195
G01 X-61.30681 Y42.01523
G01 X-61.50064 Y42.00533
G01 X-61.75550 Y42.00045
G01 X-61.93937 Y42.00286
G01 X-62.14344 Y42.01274
G01 X-62.37676 Y42.03093
G01 X-62.57887 Y42.05315
G01 X-62.78001 Y42.08285
G01 X-63.04006 Y42.12991
G01 X-63.22891 Y42.17058
G01 X-63.41618 Y42.21785
G01 X-63.66048 Y42.28785
G01 X-63.86365 Y42.35336
G01 X-64.04519 Y42.41940
G01 X-64.29050 Y42.51775
G01 X-64.46736 Y42.59537
G01 X-64.64140 Y42.67916
G01 X-64.87589 Y42.80179
G01 X-65.04495 Y42.89715
G01 X-65.21915 Y43.00390
G01 X-65.43210 Y43.14401
G01 X-65.57406 Y43.24403
G01 X-65.72888 Y43.36108
G01 X-65.92707 Y43.52061
G01 X-66.08867 Y43.66011
G01 X-66.23012 Y43.79166
G01 X-66.41833 Y43.97789
G01 X-66.55161 Y44.11899
G01 X-66.67980 Y44.26471
G01 X-66.88038 Y44.50916
G01 X-67.05049 Y44.73905
G01 X-67.24947 Y45.03544
G01 X-67.41112 Y45.30773
G01 X-67.56946 Y45.60479
G01 X-67.69847 Y45.88274
G01 X-67.83421 Y46.21289
G01 X-67.89283 Y46.37634
G01 X-67.95282 Y46.56044
G01 X-68.04327 Y46.87453
G01 X-68.12643 Y47.24232
G01 X-68.17738 Y47.53267
G01 X-68.21808 Y47.86584
G01 X-68.24149 Y48.17138
G01 X-68.24937 Y48.50790
G01 X-68.24358 Y48.78365
G01 X-68.22214 Y49.08875
G01 X-68.18554 Y49.41197
G01 X-68.13083 Y49.73259
G01 X-68.07416 Y50.00117
G01 X-68.00131 Y50.27633
G01 X-67.90560 Y50.58720
G01 X-67.80393 Y50.86391
G01 X-67.66618 Y51.19190
G01 X-67.52331 Y51.48415
G01 X-67.37723 Y51.75283
G01 X-67.22836 Y51.99703
G01 X-67.04033 Y52.27625
G01 X-66.84310 Y52.53688
G01 X-66.62864 Y52.79494
G01 X-66.42839 Y53.01125
G01 X-66.16009 Y53.27482
G01 X-66.03914 Y53.38361
G01 X-65.90134 Y53.49997
G01 X-66.64759 Y53.49997
G01 X-66.66829 Y53.47937
G01 X-66.90190 Y53.23865
G01 X-67.10954 Y53.00160
G01 X-67.34401 Y52.70754
G01 X-67.53875 Y52.43439
G01 X-67.72110 Y52.15283
G01 X-67.88376 Y51.87112
G01 X-68.06542 Y51.51877
G01 X-68.14205 Y51.35260
G01 X-68.20974 Y51.19357
G01 X-68.29306 Y50.98603
G01 X-68.36623 Y50.78550
G01 X-68.43225 Y50.58245
G01 X-68.50350 Y50.33853
G01 X-68.55221 Y50.15161
G01 X-68.59491 Y49.96322
G01 X-68.67152 Y49.54323
G01 X-68.69778 Y49.35187
G01 X-68.71787 Y49.15977
G01 X-68.73697 Y48.91656
G01 X-68.74690 Y48.70331
G01 X-68.74937 Y48.51014
G01 X-68.74523 Y48.25604
G01 X-68.73557 Y48.05296
G01 X-68.72102 Y47.87054
G01 X-68.69450 Y47.62802
G01 X-68.67009 Y47.44667
G01 X-68.64015 Y47.26615
G01 X-68.60258 Y47.07666
G01 X-68.54947 Y46.83857
G01 X-68.49598 Y46.63189
G01 X-68.44124 Y46.44664
G01 X-68.35602 Y46.18573
G01 X-68.28981 Y46.00430
G01 X-68.21383 Y45.81568
G01 X-68.10827 Y45.57339
G01 X-68.02095 Y45.38977
G01 X-67.92745 Y45.20923
G01 X-67.80416 Y44.98701
G01 X-67.69981 Y44.81248
G01 X-67.60091 Y44.65853
G01 X-67.45171 Y44.44037
G01 X-67.33799 Y44.28424
G01 X-67.21292 Y44.12394
G01 X-67.05691 Y43.93636
G01 X-66.92938 Y43.79128
G01 X-66.80434 Y43.65767
G01 X-66.61015 Y43.46374
G01 X-66.47739 Y43.33778
G01 X-66.34086 Y43.21594
G01 X-66.20068 Y43.09831
G01 X-65.99385 Y42.93380
G01 X-65.82235 Y42.80665
G01 X-65.65491 Y42.69130
G01 X-65.44168 Y42.55305
G01 X-65.27630 Y42.45323
G01 X-65.11674 Y42.36362
G01 X-64.89174 Y42.24551
G01 X-64.69982 Y42.15201
G01 X-64.49530 Y42.06146
G01 X-64.26914 Y41.97002
G01 X-64.08826 Y41.90225
G01 X-63.90528 Y41.84038
G01 X-63.73995 Y41.79001
G01 X-63.47557 Y41.71638
G01 X-63.28776 Y41.67114
G01 X-63.09863 Y41.63197
G01 X-62.83841 Y41.58574
G01 X-62.63719 Y41.55656
G01 X-62.42497 Y41.53327
G01 X-62.15134 Y41.51221
G01 X-61.95837 Y41.50322
G01 X-61.77539 Y41.50042
G01 X-61.50097 Y41.50507
G01 X-61.28774 Y41.51539
G01 X-61.06488 Y41.53431
G01 X-60.79231 Y41.56646
G01 X-60.58124 Y41.59837
G01 X-60.38136 Y41.63571
G01 X-60.12315 Y41.69214
G01 X-59.89660 Y41.74998
G01 X-59.70156 Y41.80741
G01 X-59.42137 Y41.89908
G01 X-59.22107 Y41.97294
G01 X-59.03288 Y42.04988
G01 X-58.81870 Y42.14368
G01 X-58.60799 Y42.24500
G01 X-58.41916 Y42.34462
G01 X-58.14497 Y42.49991
G01 X-57.92965 Y42.63492
G01 X-57.70298 Y42.78968
G01 X-57.53021 Y42.91508
G01 X-57.36991 Y43.04015
G01 X-57.14434 Y43.22991
G01 X-56.98515 Y43.37220
G01 X-56.82397 Y43.52724
G01 X-56.64690 Y43.70954
G01 X-56.50946 Y43.85937
G01 X-56.36425 Y44.02948
G01 X-56.19300 Y44.24396
G01 X-56.05963 Y44.42351
G01 X-55.94429 Y44.59094
G01 X-55.78437 Y44.83859
G01 X-55.67528 Y45.02211
G01 X-55.57279 Y45.20938
G01 X-55.43913 Y45.47212
G01 X-55.33733 Y45.69386
G01 X-55.21096 Y46.00458
G01 X-55.12057 Y46.25297
G01 X-55.04404 Y46.49531
G01 X-54.95506 Y46.81875
G01 X-54.90093 Y47.05665
G01 X-54.84304 Y47.36640
G01 X-54.80594 Y47.61784
G01 X-54.78122 Y47.85035
G01 X-54.75884 Y48.15446
G01 X-54.75064 Y48.43899
G01 X-54.75475 Y48.74392
G01 X-54.76789 Y48.99774
G01 X-54.80080 Y49.33155
G01 X-54.83294 Y49.57341
G01 X-54.87883 Y49.83371
G01 X-54.94345 Y50.13173
G01 X-55.00400 Y50.36810
G01 X-55.07723 Y50.61146
G01 X-55.16783 Y50.88128
G01 X-55.26629 Y51.13749
G01 X-55.40014 Y51.44506
G01 X-55.52501 Y51.70086
G01 X-55.68102 Y51.98628
G01 X-55.80550 Y52.19611
G01 X-55.93842 Y52.40073
G01 X-56.12554 Y52.66682
G01 X-56.28706 Y52.87604
G01 X-56.49618 Y53.12519
G01 X-56.67451 Y53.32029
G01 X-56.85295 Y53.49997
G01 X-55.50558 Y53.49997
G01 X-56.16009 Y53.49997
G01 X-55.93532 Y53.23583
G01 X-55.76400 Y53.01839
G01 X-55.55590 Y52.72700
G01 X-55.39979 Y52.49037
G01 X-55.24917 Y52.23833
G01 X-55.07444 Y51.91801
G01 X-54.95440 Y51.67239
G01 X-54.81983 Y51.36619
G01 X-54.70919 Y51.08331
G01 X-54.60187 Y50.76645
G01 X-54.52273 Y50.50363
G01 X-54.45476 Y50.23769
G01 X-54.38226 Y49.89977
G01 X-54.33571 Y49.62926
G01 X-54.29146 Y49.27630
G01 X-54.26641 Y48.99391
G01 X-54.25506 Y48.76129
G01 X-54.25064 Y48.49774
G01 X-54.25349 Y48.27501
G01 X-54.26398 Y48.05248
G01 X-54.28745 Y47.75909
G01 X-54.31353 Y47.52673
G01 X-54.34630 Y47.30549
G01 X-54.39336 Y47.04558
G01 X-54.43677 Y46.83742
G01 X-54.48696 Y46.63082
G01 X-54.56060 Y46.36717
G01 X-54.62638 Y46.15437
G01 X-54.70644 Y45.92493
G01 X-54.80192 Y45.67908
G01 X-54.87609 Y45.50075
G01 X-54.96420 Y45.30628
G01 X-55.06331 Y45.10578
G01 X-55.20609 Y44.83631
G01 X-55.32338 Y44.63405
G01 X-55.44233 Y44.44464
G01 X-55.59395 Y44.21665
G01 X-55.74182 Y44.01121
G01 X-55.94226 Y43.75589
G01 X-56.09372 Y43.57512
G01 X-56.25864 Y43.39247
G01 X-56.45666 Y43.18747
G01 X-56.61650 Y43.03232
G01 X-56.78919 Y42.87609
G01 X-57.00583 Y42.69191
G01 X-57.19696 Y42.54030
G01 X-57.38538 Y42.40179
G01 X-57.63674 Y42.22915
G01 X-57.82536 Y42.10896
G01 X-58.01799 Y41.99532
G01 X-58.26712 Y41.85849
G01 X-58.48388 Y41.74866
G01 X-58.69531 Y41.65107
G01 X-58.95655 Y41.54002
G01 X-59.17392 Y41.45648
G01 X-59.39417 Y41.38077
G01 X-59.65538 Y41.29890
G01 X-59.88972 Y41.23454
G01 X-60.10648 Y41.18328
G01 X-60.41428 Y41.12009
G01 X-60.68418 Y41.07660
G01 X-60.96594 Y41.04208
G01 X-61.20793 Y41.01976
G01 X-61.43033 Y41.00726
G01 X-61.73437 Y41.00058
G01 X-61.96724 Y41.00327
G01 X-62.18974 Y41.01366
G01 X-62.48331 Y41.03654
G01 X-62.71567 Y41.06255
G01 X-62.94697 Y41.09690
G01 X-63.23703 Y41.14952
G01 X-63.46556 Y41.19898
G01 X-63.69215 Y41.25661
G01 X-63.97539 Y41.33840
G01 X-64.19771 Y41.41079
G01 X-64.40782 Y41.48750
G01 X-64.68138 Y41.59730
G01 X-64.90459 Y41.69583
G01 X-65.10581 Y41.79344
G01 X-65.37536 Y41.93512
G01 X-65.56898 Y42.04528
G01 X-65.75016 Y42.15653
G01 X-65.99580 Y42.31805
G01 X-66.18587 Y42.45262
G01 X-66.37099 Y42.59392
G01 X-66.61528 Y42.79270
G01 X-66.79847 Y42.95384
G01 X-66.96098 Y43.10751
G01 X-67.15486 Y43.30090
G01 X-67.32067 Y43.47855
G01 X-67.46674 Y43.64672
G01 X-67.66563 Y43.88998
G01 X-67.81767 Y44.09237
G01 X-67.99090 Y44.34233
G01 X-68.11234 Y44.52910
G01 X-68.23235 Y44.72866
G01 X-68.38925 Y45.01253
G01 X-68.51223 Y45.25668
G01 X-68.66108 Y45.58982
G01 X-68.75630 Y45.82434
G01 X-68.85201 Y46.09120
G01 X-68.95546 Y46.41990
G01 X-69.02884 Y46.69373
G01 X-69.09547 Y46.99061
G01 X-69.14667 Y47.26028
G01 X-69.18521 Y47.52177
G01 X-69.22077 Y47.84456
G01 X-69.24053 Y48.12739
G01 X-69.24904 Y48.46173
G01 X-69.24678 Y48.71486
G01 X-69.23535 Y48.95759
G01 X-69.20860 Y49.28136
G01 X-69.17825 Y49.53368
G01 X-69.13626 Y49.79467
G01 X-69.07398 Y50.11392
G01 X-69.00215 Y50.41031
G01 X-68.91510 Y50.71316
G01 X-68.83001 Y50.97409
G01 X-68.73773 Y51.22182
G01 X-68.60129 Y51.55037
G01 X-68.47604 Y51.81727
G01 X-68.32549 Y52.10538
G01 X-68.20075 Y52.32563
G01 X-68.06753 Y52.54087
G01 X-67.90451 Y52.78552
G01 X-67.74437 Y53.00706
G01 X-67.52382 Y53.28509
G01 X-67.33997 Y53.49997
G01 X-67.99334 Y53.49997
G01 X-68.18696 Y53.25001
G01 X-68.36722 Y52.99438
G01 X-68.50621 Y52.78308
G01 X-68.62796 Y52.58549
G01 X-68.74307 Y52.38397
G01 X-68.86705 Y52.15141
G01 X-68.96260 Y51.96048
G01 X-69.05229 Y51.76675
G01 X-69.13217 Y51.57978
G01 X-69.23768 Y51.31544
G01 X-69.31378 Y51.10513
G01 X-69.37708 Y50.91191
G01 X-69.46054 Y50.62918
G01 X-69.51528 Y50.42281
G01 X-69.56153 Y50.22482
G01 X-69.60202 Y50.02555
G01 X-69.65036 Y49.75540
G01 X-69.68531 Y49.51392
G01 X-69.70801 Y49.31186
G01 X-69.73090 Y49.03884
G01 X-69.74266 Y48.83737
G01 X-69.74873 Y48.62556
G01 X-69.74718 Y48.33229
G01 X-69.74119 Y48.13056
G01 X-69.72864 Y47.91903
G01 X-69.70865 Y47.69795
G01 X-69.67692 Y47.42564
G01 X-69.64258 Y47.19434
G01 X-69.60052 Y46.96432
G01 X-69.54309 Y46.69643
G01 X-69.49328 Y46.49046
G01 X-69.43443 Y46.27641
G01 X-69.34716 Y45.99640
G01 X-69.28226 Y45.80532
G01 X-69.20822 Y45.60677
G01 X-69.12821 Y45.41058
G01 X-69.02308 Y45.16940
G01 X-68.91485 Y44.94154
G01 X-68.81287 Y44.74436
G01 X-68.68069 Y44.50537
G01 X-68.57279 Y44.32300
G01 X-68.45389 Y44.13555
G01 X-68.28330 Y43.88460
G01 X-68.15930 Y43.71276
G01 X-68.01132 Y43.52107
G01 X-67.85679 Y43.33375
G01 X-67.71841 Y43.17327
G01 X-67.56832 Y43.00972
G01 X-67.42742 Y42.86524
G01 X-67.22392 Y42.66669
G01 X-67.05897 Y42.51564
G01 X-66.89710 Y42.37645
G01 X-66.66814 Y42.19148
G01 X-66.49974 Y42.06286
G01 X-66.30264 Y41.92217
G01 X-66.08359 Y41.77660
G01 X-65.91300 Y41.66878
G01 X-65.73937 Y41.56591
G01 X-65.56284 Y41.46809
G01 X-65.31079 Y41.33685
G01 X-65.11859 Y41.24394
G01 X-64.92362 Y41.15694
G01 X-64.66014 Y41.04930
G01 X-64.46055 Y40.97348
G01 X-64.24910 Y40.90060
G01 X-64.03543 Y40.83451
G01 X-63.73193 Y40.74980
G01 X-63.43508 Y40.67978
G01 X-63.06553 Y40.60988
G01 X-62.77402 Y40.56593
G01 X-62.48090 Y40.53431
G01 X-62.11730 Y40.50881
G01 X-61.81471 Y40.50055
G01 X-61.50127 Y40.50469
G01 X-61.20897 Y40.51844
G01 X-60.93757 Y40.54221
G01 X-60.58637 Y40.58549
G01 X-60.26790 Y40.63881
G01 X-59.94149 Y40.70779
G01 X-59.65756 Y40.77863
G01 X-59.39612 Y40.85519
G01 X-59.05056 Y40.96949
G01 X-58.75828 Y41.08089
G01 X-58.45157 Y41.21224
G01 X-58.20514 Y41.32842
G01 X-57.95457 Y41.45892
G01 X-57.67118 Y41.61828
G01 X-57.40331 Y41.78430
G01 X-57.09272 Y41.99639
G01 X-56.84779 Y42.17812
G01 X-56.61876 Y42.36377
G01 X-56.32935 Y42.61670
G01 X-56.11797 Y42.81904
G01 X-55.88546 Y43.05950
G01 X-55.66893 Y43.30225
G01 X-55.46326 Y43.55399
G01 X-55.28597 Y43.78678
G01 X-55.12979 Y44.01000
G01 X-54.94205 Y44.29945
G01 X-54.79669 Y44.54421
G01 X-54.61932 Y44.87586
G01 X-54.48968 Y45.14063
G01 X-54.36354 Y45.42942
G01 X-54.23098 Y45.76912
G01 X-54.13289 Y46.05551
G01 X-54.04363 Y46.35597
G01 X-53.96959 Y46.63907
G01 X-53.90744 Y46.92500
G01 X-53.84800 Y47.25462
G01 X-53.80487 Y47.56678
G01 X-53.77134 Y47.93097
G01 X-53.75567 Y48.20295
G01 X-53.75059 Y48.47534
G01 X-53.75712 Y48.82909
G01 X-53.77693 Y49.15136
G01 X-53.81292 Y49.49365
G01 X-53.85247 Y49.77554
G01 X-53.90144 Y50.04562
G01 X-53.97302 Y50.37333
G01 X-54.04970 Y50.66853
G01 X-54.17061 Y51.05649
G01 X-54.26474 Y51.32286
G01 X-54.37744 Y51.60378
G01 X-54.52577 Y51.93609
G01 X-54.66116 Y52.20686
G01 X-54.81726 Y52.49032
G01 X-54.96184 Y52.73304
G01 X-55.11610 Y52.96974
G01 X-55.31472 Y53.25214
G01 X-55.50558 Y53.49997
G01 X-52.51808 Y53.49997
G01 X-52.36807 Y53.21432
G01 X-52.23492 Y52.93898
G01 X-52.09014 Y52.61315
G01 X-51.97008 Y52.32085
G01 X-51.85976 Y52.02469
G01 X-51.73411 Y51.64798
G01 X-51.64889 Y51.36576
G01 X-51.57246 Y51.08100
G01 X-51.50493 Y50.79403
G01 X-51.42479 Y50.40577
G01 X-51.37363 Y50.10511
G01 X-51.33337 Y49.81303
G01 X-51.29362 Y49.44877
G01 X-51.26929 Y49.13366
G01 X-51.25524 Y48.80775
G01 X-51.25077 Y48.42065
G04 P0 ( dwell for no time -- G64 should not smooth over this point )
G00 Z1.00000 ( retract )

G00 X-53.13243 Y43.42709 ( rapid move to begin. )
G01 F20.00000
( Mill infeed pass 1/1 )
G01 Z-0.30000
G04 P0 ( dwell for no time -- G64 should not smooth over this point )
G01 F30.00000
G01 X-53.13243 Y43.42709
G01 X-53.01978 Y43.62394
G01 X-52.91828 Y43.81177
G01 X-52.79723 Y44.04672
G01 X-52.69934 Y44.24784
G01 X-52.53040 Y44.62884
G01 X-52.35976 Y45.06295
G01 X-52.28859 Y45.26290
G01 X-52.21305 Y45.49343
G01 X-52.08361 Y45.94050
G01 X-51.98570 Y46.34314
G01 X-51.90366 Y46.76036
G01 X-51.84145 Y47.15192
G01 X-51.79560 Y47.55596
G01 X-51.76284 Y48.00049
G01 X-51.75372 Y48.23280
G01 X-51.75065 Y48.44501
G01 X-51.75768 Y48.88006
G01 X-51.78189 Y49.29373
G01 X-51.83401 Y49.78751
G01 X-51.89398 Y50.18969
G01 X-51.96556 Y50.55895
G01 X-52.06642 Y50.99467
G01 X-52.16738 Y51.35705
G01 X-52.30134 Y51.77229
G01 X-52.42611 Y52.11409
G01 X-52.56055 Y52.44127
G01 X-52.73126 Y52.81943
G01 X-52.91836 Y53.18917
G01 X-53.09070 Y53.49997
G01 X-53.67244 Y53.49997
G01 X-53.49212 Y53.19418
G01 X-53.37419 Y52.98112
G01 X-53.27081 Y52.78356
G01 X-53.11292 Y52.45466
G01 X-52.94790 Y52.07300
G01 X-52.80698 Y51.70376
G01 X-52.67569 Y51.30891
G01 X-52.57879 Y50.97714
G01 X-52.48880 Y50.61191
G01 X-52.40622 Y50.21379
G01 X-52.34716 Y49.85261
G01 X-52.29141 Y49.37851
G01 X-52.26357 Y49.00458
G01 X-52.25542 Y48.80204
G01 X-52.25097 Y48.54844
G01 X-52.25509 Y48.19376
G01 X-52.27399 Y47.83955
G01 X-52.31602 Y47.38423
G01 X-52.34338 Y47.17250
G01 X-52.37945 Y46.94149
G01 X-52.43251 Y46.65172
G01 X-52.47561 Y46.44329
G01 X-52.52390 Y46.23600
G01 X-52.57739 Y46.02998
G01 X-52.65255 Y45.76661
G01 X-52.71864 Y45.55366
G01 X-52.78359 Y45.36163
G01 X-52.86390 Y45.14281
G01 X-52.96451 Y44.88777
G01 X-53.04732 Y44.69100
G01 X-53.13075 Y44.50555
G01 X-53.22313 Y44.31307
G01 X-53.44424 Y43.88955
G01 X-53.55486 Y43.69516
G01 X-53.68130 Y43.48648
G01 X-53.84124 Y43.23893
