( pcb2gcode 2.5.0 )
( Software-independent Gcode )

G94 ( Millimeters per minute feed rate. )
G21 ( Units == Millimeters. )

G90 ( Absolute coordinates. )
G00 S1000 ( RPM spindle speed. )
G64 P0.01016 ( set maximum deviation from commanded toolpath )
G01 F30.00000 ( Feedrate. )


G00 Z10.00000 (Retract to tool change height)
T1
M5      (Spindle stop.)
G04 P5.00000 (Wait for spindle to stop)
(MSG, Change tool bit to mill diameter 1.00000mm)
M6      (Tool change.)
M0      (Temporary machine stop.)
M3 ( Spindle on clockwise. )
G04 P3.00000 (Wait for spindle to get up to speed)
G04 P0 ( dwell for no time -- G64 should not smooth over this point )
G00 Z1.00000 ( retract )

G00 X-48.37844 Y0.00000 ( rapid move to begin. )
G01 F20.00000
( Mill infeed pass 1/1 )
G01 Z-0.30000
G04 P0 ( dwell for no time -- G64 should not smooth over this point )
G01 F30.00000
G01 X-48.37844 Y0.00000
G01 X-48.17222 Y0.05116
G01 X-47.92850 Y0.12507
G01 X-47.71779 Y0.20170
G01 X-47.53021 Y0.28156
G01 X-47.30140 Y0.39345
G01 X-47.12365 Y0.49152
G01 X-46.93415 Y0.60965
G01 X-46.75152 Y0.73817
G01 X-46.52023 Y0.91986
G01 X-46.31007 Y1.10975
G01 X-44.55975 Y2.86255
G01 X-44.45028 Y2.98450
G01 X-44.33278 Y3.12659
G01 X-44.23298 Y3.25653
G01 X-44.14431 Y3.38206
G01 X-44.04975 Y3.52829
G01 X-43.95086 Y3.69585
G01 X-43.87286 Y3.84000
G01 X-43.80517 Y3.97794
G01 X-43.73885 Y4.12780
G01 X-43.67113 Y4.29847
G01 X-43.61713 Y4.45107
G01 X-43.56933 Y4.60573
G01 X-43.52783 Y4.76217
G01 X-43.48462 Y4.95191
G01 X-43.45526 Y5.11317
G01 X-43.43253 Y5.27548
G01 X-43.40791 Y5.54906
G01 X-43.40009 Y5.77990
G01 X-43.40004 Y16.17792
G01 X-43.43768 Y16.19341
G01 X-43.40004 Y16.17792
G01 X-43.06547 Y16.51269
G01 X-42.95986 Y16.62417
G01 X-42.84543 Y16.75531
G01 X-42.73680 Y16.89130
G01 X-42.60985 Y17.06415
G01 X-42.51297 Y17.20736
G01 X-42.42750 Y17.34584
G01 X-42.34294 Y17.49666
G01 X-42.26499 Y17.65099
G01 X-42.19778 Y17.79920
G01 X-42.12034 Y17.98749
G01 X-42.06103 Y18.14954
G01 X-42.00876 Y18.31401
G01 X-41.96364 Y18.48058
G01 X-41.91152 Y18.71873
G01 X-41.87510 Y18.93829
G01 X-41.85094 Y19.15952
G01 X-41.83687 Y19.40296
G01 X-41.83576 Y22.38154
G01 X-41.83865 Y22.52289
G01 X-41.84729 Y22.67412
G01 X-41.86281 Y22.83496
G01 X-41.88282 Y22.98573
G01 X-41.93342 Y23.26442
G01 X-41.96860 Y23.41202
G01 X-42.01180 Y23.56853
G01 X-42.05699 Y23.71339
G01 X-42.10408 Y23.84699
G01 X-42.15976 Y23.98817
G01 X-42.22862 Y24.14628
G01 X-42.29415 Y24.28316
G01 X-42.35994 Y24.40859
G01 X-42.52046 Y24.67854
G01 X-42.60466 Y24.80480
G01 X-42.68749 Y24.91969
G01 X-42.83217 Y25.10252
G01 X-42.95813 Y25.24773
G01 X-43.09092 Y25.38669
G01 X-43.24520 Y25.53345
G01 X-43.38231 Y25.65331
G01 X-43.54086 Y25.77899
G01 X-43.72229 Y25.90876
G01 X-43.87492 Y26.00803
G01 X-44.04965 Y26.11011
G01 X-44.23888 Y26.20889
G01 X-44.40507 Y26.28656
G01 X-44.58416 Y26.36022
G01 X-44.76661 Y26.42512
G01 X-44.98116 Y26.49146
G01 X-45.16890 Y26.53990
G01 X-45.36211 Y26.57978
G01 X-45.12897 Y27.04325
G01 X-44.86895 Y26.97927
G01 X-44.58688 Y26.89228
G01 X-44.34959 Y26.80536
G01 X-44.10842 Y26.70099
G01 X-43.85447 Y26.57307
G01 X-43.62353 Y26.44043
G01 X-43.40085 Y26.29438
G01 X-43.16179 Y26.11813
G01 X-42.95752 Y25.94727
G01 X-42.73380 Y25.73665
G01 X-42.55115 Y25.54287
G01 X-42.37993 Y25.33891
G01 X-42.23139 Y25.14305
G01 X-42.08282 Y24.92205
G01 X-41.94119 Y24.68451
G01 X-41.81368 Y24.43912
G01 X-41.71277 Y24.21499
G01 X-41.63675 Y24.02474
G01 X-41.56634 Y23.82149
G01 X-41.50271 Y23.60534
G01 X-41.45285 Y23.40663
G01 X-41.41208 Y23.20587
G01 X-41.37767 Y22.98319
G01 X-41.35443 Y22.78002
G01 X-41.34094 Y22.58621
G01 X-41.33581 Y22.39200
G01 X-41.33510 Y19.50436
G01 X-41.34485 Y19.22696
G01 X-41.36469 Y18.99221
G01 X-41.39486 Y18.76890
G01 X-41.44449 Y18.50741
G01 X-41.49649 Y18.28952
G01 X-41.56238 Y18.06481
G01 X-41.63626 Y17.85336
G01 X-41.73977 Y17.59864
G01 X-41.83304 Y17.39582
G01 X-41.94612 Y17.18015
G01 X-42.07068 Y16.97093
G01 X-42.20053 Y16.77703
G01 X-42.37010 Y16.54815
G01 X-42.47906 Y16.41409
G01 X-42.59997 Y16.27683
G01 X-42.90007 Y15.97083
G01 X-42.93631 Y15.98544
G01 X-42.90007 Y15.97083
G01 X-42.90047 Y5.73933
G01 X-42.90555 Y5.57766
G01 X-42.91559 Y5.42635
G01 X-42.93400 Y5.23380
G01 X-42.95709 Y5.06247
G01 X-42.98292 Y4.91216
G01 X-43.01381 Y4.76278
G01 X-43.05701 Y4.58419
G01 X-43.09796 Y4.43608
G01 X-43.17393 Y4.20230
G01 X-43.27340 Y3.94492
G01 X-43.37309 Y3.72219
G01 X-43.48470 Y3.50517
G01 X-43.62839 Y3.25902
G01 X-43.76237 Y3.05509
G01 X-43.91348 Y2.85069
G01 X-44.08907 Y2.63784
G01 X-44.29155 Y2.42054
G01 X-45.91327 Y0.79875
G01 X-46.06140 Y0.65728
G01 X-46.27926 Y0.47079
G01 X-46.52343 Y0.28560
G01 X-46.75167 Y0.13241
G01 X-46.97692 Y0.00000
G01 X-46.06986 Y0.00000
G01 X-45.82848 Y0.19553
G01 X-45.60324 Y0.40229
G01 X-43.93801 Y2.06700
G01 X-43.74154 Y2.27592
G01 X-43.62171 Y2.41605
G01 X-43.48864 Y2.58262
G01 X-43.37464 Y2.73721
G01 X-43.27220 Y2.88757
G01 X-43.17007 Y3.05026
G01 X-43.05823 Y3.24312
G01 X-42.96819 Y3.41285
G01 X-42.88475 Y3.58584
G01 X-42.80802 Y3.76189
G01 X-42.72986 Y3.96062
G01 X-42.66885 Y4.13367
G01 X-42.61424 Y4.30881
G01 X-42.56362 Y4.49572
G01 X-42.51292 Y4.71305
G01 X-42.47675 Y4.90169
G01 X-42.44785 Y5.09156
G01 X-42.42918 Y5.25221
G01 X-42.41201 Y5.45473
G01 X-42.40342 Y5.61708
G01 X-42.40007 Y5.78980
G01 X-42.40007 Y15.76375
G01 X-42.43532 Y15.77774
G01 X-42.40007 Y15.76375
G01 X-42.20596 Y15.96692
G01 X-42.02232 Y16.18209
G01 X-41.89875 Y16.34195
G01 X-41.75069 Y16.54805
G01 X-41.63949 Y16.71737
G01 X-41.53022 Y16.89981
G01 X-41.43347 Y17.07777
G01 X-41.34399 Y17.25950
G01 X-41.26982 Y17.42603
G01 X-41.18130 Y17.64320
G01 X-41.11833 Y17.81579
G01 X-41.05880 Y18.00034
G01 X-41.00904 Y18.17721
G01 X-40.96581 Y18.35574
G01 X-40.91363 Y18.61584
G01 X-40.87584 Y18.86783
G01 X-40.85095 Y19.12140
G01 X-40.83649 Y19.40408
G01 X-40.83594 Y22.41238
G01 X-40.84231 Y22.62594
G01 X-40.85874 Y22.84915
G01 X-40.87696 Y23.01093
G01 X-40.90769 Y23.22286
G01 X-40.93878 Y23.39332
G01 X-40.97343 Y23.55268
G01 X-41.01859 Y23.73051
G01 X-41.07223 Y23.91677
G01 X-41.12260 Y24.07188
G01 X-41.18163 Y24.23480
G01 X-41.24231 Y24.38616
G01 X-41.32420 Y24.57303
G01 X-41.39918 Y24.72926
G01 X-41.47952 Y24.88278
G01 X-41.57033 Y25.04219
G01 X-41.67721 Y25.21600
G01 X-41.77304 Y25.36035
G01 X-41.87383 Y25.50130
G01 X-42.00497 Y25.67046
G01 X-42.16908 Y25.86561
G01 X-42.32130 Y26.03025
G01 X-42.48074 Y26.18791
G01 X-42.64627 Y26.33944
G01 X-42.82597 Y26.48996
G01 X-43.00431 Y26.62591
G01 X-43.21350 Y26.77170
G01 X-43.40304 Y26.89151
G01 X-43.58879 Y26.99784
G01 X-43.81500 Y27.11480
G01 X-44.01790 Y27.20868
G01 X-44.22478 Y27.29339
G01 X-44.42562 Y27.36555
G01 X-44.67830 Y27.44488
G01 X-44.89069 Y27.50157
G01 X-44.64652 Y27.95514
G01 X-44.33222 Y27.86113
G01 X-44.07207 Y27.77025
G01 X-43.78876 Y27.65412
G01 X-43.53057 Y27.53169
G01 X-43.25262 Y27.38283
G01 X-43.00098 Y27.23012
G01 X-42.71617 Y27.03459
G01 X-42.48262 Y26.85542
G01 X-42.25145 Y26.65720
G01 X-42.00881 Y26.42575
G01 X-41.80728 Y26.21120
G01 X-41.61076 Y25.97813
G01 X-41.43799 Y25.75245
G01 X-41.26608 Y25.50112
G01 X-41.10218 Y25.23208
G01 X-40.95760 Y24.96406
G01 X-40.84861 Y24.73490
G01 X-40.74147 Y24.48227
G01 X-40.65318 Y24.24435
G01 X-40.57884 Y24.01235
G01 X-40.50873 Y23.75753
G01 X-40.45229 Y23.51011
G01 X-40.40734 Y23.26035
G01 X-40.37063 Y22.98865
G01 X-40.34541 Y22.69589
G01 X-40.33594 Y22.41235
G01 X-40.33665 Y19.39272
G01 X-40.35212 Y19.08736
G01 X-40.37741 Y18.82465
G01 X-40.41699 Y18.55346
G01 X-40.47178 Y18.27433
G01 X-40.53385 Y18.01851
G01 X-40.60810 Y17.76590
G01 X-40.69436 Y17.51716
G01 X-40.80007 Y17.25323
G01 X-40.90822 Y17.01137
G01 X-41.03273 Y16.76601
G01 X-41.16408 Y16.53593
G01 X-41.31203 Y16.30396
G01 X-41.52585 Y16.00576
G01 X-41.71643 Y15.76730
G01 X-41.90007 Y15.56093
G01 X-41.93187 Y15.57284
G01 X-41.90007 Y15.56093
G01 X-41.90068 Y5.71833
G01 X-41.90599 Y5.54490
G01 X-41.91599 Y5.38190
G01 X-41.93304 Y5.18881
G01 X-41.95338 Y5.01691
G01 X-41.97911 Y4.84574
G01 X-42.00825 Y4.68546
G01 X-42.04439 Y4.51617
G01 X-42.08777 Y4.33812
G01 X-42.15968 Y4.08417
G01 X-42.24716 Y3.82443
G01 X-42.35475 Y3.54970
G01 X-42.46710 Y3.29875
G01 X-42.59669 Y3.04488
G01 X-42.73870 Y2.79740
G01 X-42.88031 Y2.57376
G01 X-43.03253 Y2.35717
G01 X-43.14393 Y2.21163
G01 X-43.27317 Y2.05326
G01 X-43.38742 Y1.92184
G01 X-43.51284 Y1.78669
G01 X-45.30014 Y0.00000
G01 X-44.59082 Y0.00000
G01 X-43.15922 Y1.43307
G01 X-42.95181 Y1.65979
G01 X-42.73743 Y1.91966
G01 X-42.61495 Y2.08105
G01 X-42.50367 Y2.23815
G01 X-42.39753 Y2.39870
G01 X-42.29656 Y2.56261
G01 X-42.18983 Y2.74721
G01 X-42.09410 Y2.92580
G01 X-41.99580 Y3.12585
G01 X-41.91297 Y3.31071
G01 X-41.82877 Y3.51754
G01 X-41.76141 Y3.69761
G01 X-41.69679 Y3.88935
G01 X-41.64145 Y4.07342
G01 X-41.58955 Y4.26900
G01 X-41.53880 Y4.48643
G01 X-41.49951 Y4.68521
G01 X-41.46842 Y4.87517
G01 X-41.43898 Y5.10631
G01 X-41.41701 Y5.34965
G01 X-41.40431 Y5.57466
G01 X-41.40012 Y5.77949
G01 X-41.40010 Y15.36840
G01 X-41.42872 Y15.37853
G01 X-41.40010 Y15.36840
G01 X-41.33690 Y15.44180
G01 X-41.15885 Y15.66243
G01 X-40.96631 Y15.92448
G01 X-40.84099 Y16.10985
G01 X-40.72268 Y16.29976
G01 X-40.62133 Y16.47614
G01 X-40.51684 Y16.67401
G01 X-40.42829 Y16.85714
G01 X-40.34599 Y17.04317
G01 X-40.25377 Y17.26928
G01 X-40.17675 Y17.47891
G01 X-40.11056 Y17.68155
G01 X-40.05161 Y17.88640
G01 X-39.99997 Y18.09323
G01 X-39.95727 Y18.29196
G01 X-39.90762 Y18.57085
G01 X-39.87226 Y18.84169
G01 X-39.84706 Y19.14512
G01 X-39.83614 Y19.41218
G01 X-39.83601 Y22.42304
G01 X-39.84595 Y22.71941
G01 X-39.87160 Y23.02507
G01 X-39.90005 Y23.24804
G01 X-39.92989 Y23.43793
G01 X-39.96583 Y23.62678
G01 X-40.00779 Y23.81435
G01 X-40.05575 Y24.00051
G01 X-40.12067 Y24.22446
G01 X-40.18377 Y24.41672
G01 X-40.25328 Y24.60676
G01 X-40.32918 Y24.79431
G01 X-40.41917 Y24.99843
G01 X-40.50238 Y25.17170
G01 X-40.60076 Y25.35999
G01 X-40.70060 Y25.53599
G01 X-40.82217 Y25.73498
G01 X-40.93337 Y25.90404
G01 X-41.05018 Y26.06924
G01 X-41.19763 Y26.26215
G01 X-41.38524 Y26.48834
G01 X-41.55503 Y26.67579
G01 X-41.72534 Y26.84884
G01 X-41.93245 Y27.04282
G01 X-42.13179 Y27.21445
G01 X-42.33040 Y27.37107
G01 X-42.54393 Y27.52547
G01 X-42.75430 Y27.66588
G01 X-42.97916 Y27.80236
G01 X-43.19184 Y27.91948
G01 X-43.43677 Y28.04262
G01 X-43.66796 Y28.14673
G01 X-43.91284 Y28.24455
G01 X-44.13286 Y28.32202
G01 X-44.39547 Y28.40401
G01 X-44.14185 Y28.84978
G01 X-43.88490 Y28.76591
G01 X-43.64612 Y28.67779
G01 X-43.41096 Y28.58038
G01 X-43.17065 Y28.46941
G01 X-42.91650 Y28.33944
G01 X-42.68508 Y28.20967
G01 X-42.45915 Y28.07058
G01 X-42.23908 Y27.92237
G01 X-42.01615 Y27.76027
G01 X-41.80027 Y27.58910
G01 X-41.59941 Y27.41577
G01 X-41.39052 Y27.22067
G01 X-41.19684 Y27.02471
G01 X-41.02509 Y26.83609
G01 X-40.83500 Y26.60912
G01 X-40.68465 Y26.41580
G01 X-40.53591 Y26.20853
G01 X-40.38996 Y25.98699
G01 X-40.24211 Y25.74234
G01 X-40.11399 Y25.51003
G01 X-39.99545 Y25.27267
G01 X-39.87841 Y25.01189
G01 X-39.78250 Y24.77549
G01 X-39.69593 Y24.53554
G01 X-39.61597 Y24.28255
G01 X-39.54033 Y24.00691
G01 X-39.48257 Y23.75842
G01 X-39.43459 Y23.50788
G01 X-39.39225 Y23.22523
G01 X-39.36279 Y22.96206
G01 X-39.34305 Y22.67753
G01 X-39.33601 Y22.42299
G01 X-39.33510 Y19.51528
G01 X-39.33922 Y19.29257
G01 X-39.35913 Y18.95798
G01 X-39.38974 Y18.66364
G01 X-39.43723 Y18.35092
G01 X-39.49924 Y18.04086
G01 X-39.54623 Y17.84289
G01 X-39.59939 Y17.64652
G01 X-39.65555 Y17.46159
G01 X-39.72400 Y17.25922
G01 X-39.79535 Y17.06867
G01 X-39.88798 Y16.84254
G01 X-39.96583 Y16.66601
G01 X-40.05793 Y16.47368
G01 X-40.16113 Y16.27556
G01 X-40.26593 Y16.08983
G01 X-40.37678 Y15.90766
G01 X-40.49923 Y15.72082
G01 X-40.69446 Y15.44777
G01 X-40.86288 Y15.23037
G01 X-40.90010 Y15.18481
G01 X-40.92621 Y15.19359
G01 X-40.90010 Y15.18481
G01 X-40.90038 Y5.73943
G01 X-40.91140 Y5.41683
G01 X-40.93865 Y5.08317
G01 X-40.97863 Y4.76979
G01 X-41.03380 Y4.45874
G01 X-41.10876 Y4.13065
G01 X-41.19006 Y3.83553
G01 X-41.28859 Y3.53494
G01 X-41.40505 Y3.22984
G01 X-41.52651 Y2.94927
G01 X-41.66103 Y2.67475
G01 X-41.79811 Y2.42446
G01 X-41.97734 Y2.12771
G01 X-42.12450 Y1.90736
G01 X-42.28671 Y1.68509
G01 X-42.47772 Y1.44572
G01 X-42.64505 Y1.25186
G01 X-42.85574 Y1.02817
G01 X-43.88373 Y0.00000
G01 X-43.17665 Y0.00000
G01 X-42.50258 Y0.67422
G01 X-42.29430 Y0.89423
G01 X-42.14772 Y1.06121
G01 X-41.99313 Y1.24892
G01 X-41.86240 Y1.41719
G01 X-41.73685 Y1.58938
G01 X-41.61102 Y1.77376
G01 X-41.49644 Y1.95341
G01 X-41.36662 Y2.17185
G01 X-41.25811 Y2.36695
G01 X-41.16040 Y2.55631
G01 X-41.06426 Y2.75778
G01 X-40.97459 Y2.96222
G01 X-40.89476 Y3.16024
G01 X-40.81663 Y3.36989
G01 X-40.74833 Y3.57228
G01 X-40.68623 Y3.77665
G01 X-40.63291 Y3.97297
G01 X-40.58018 Y4.19044
G01 X-40.53395 Y4.40883
G01 X-40.49471 Y4.62859
G01 X-40.46515 Y4.82938
G01 X-40.43934 Y5.05112
G01 X-40.41699 Y5.31421
G01 X-40.40469 Y5.54683
G01 X-40.40017 Y5.76958
G01 X-40.40012 Y15.00904
G01 X-40.42458 Y15.01699
G01 X-40.40012 Y15.00904
G01 X-40.18293 Y15.30053
G01 X-39.98913 Y15.58567
G01 X-39.81468 Y15.87119
G01 X-39.67279 Y16.12875
G01 X-39.54617 Y16.38287
G01 X-39.42997 Y16.64193
G01 X-39.30020 Y16.96309
G01 X-39.20137 Y17.24157
G01 X-39.11999 Y17.50441
G01 X-39.04417 Y17.79003
G01 X-38.98021 Y18.07870
G01 X-38.93040 Y18.34876
G01 X-38.89124 Y18.62056
G01 X-38.86190 Y18.90385
G01 X-38.84313 Y19.18879
G01 X-38.83513 Y19.51530
G01 X-38.83609 Y22.43310
G01 X-38.84653 Y22.75779
G01 X-38.87307 Y23.09177
G01 X-38.91224 Y23.40445
G01 X-38.95654 Y23.67547
G01 X-39.01366 Y23.95446
G01 X-39.08476 Y24.24072
G01 X-39.16672 Y24.52433
G01 X-39.26002 Y24.80414
G01 X-39.36121 Y25.07033
G01 X-39.48110 Y25.35121
G01 X-39.64422 Y25.69032
G01 X-39.82016 Y26.01140
G01 X-40.02837 Y26.34930
G01 X-40.24246 Y26.65877
G01 X-40.36502 Y26.82113
G01 X-40.49227 Y26.98016
G01 X-40.73108 Y27.25768
G01 X-40.99131 Y27.52951
G01 X-41.28051 Y27.80137
G01 X-41.56768 Y28.04452
G01 X-41.85925 Y28.26596
G01 X-42.17838 Y28.48445
G01 X-42.49974 Y28.68018
G01 X-42.66875 Y28.77393
G01 X-42.84914 Y28.86794
G01 X-43.17848 Y29.02433
G01 X-43.52496 Y29.16697
G01 X-43.70573 Y29.23296
G01 X-43.88173 Y29.29186
G01 X-44.07243 Y28.97182
G01 X-44.56981 Y28.09768
G01 X-45.00850 Y27.28277
G01 X-45.38947 Y26.52542
G01 X-46.52213 Y24.20841
G01 X-46.51799 Y23.78555
G01 X-46.52023 Y23.05106
G01 X-47.87496 Y23.45837
G01 X-47.79373 Y23.56350
G01 X-47.61878 Y23.75901
G01 X-46.97964 Y24.41082
G01 X-45.80877 Y26.80449
G01 X-46.62350 Y27.61729
G01 X-46.79605 Y27.77137
G01 X-47.01065 Y27.94391
G01 X-47.13465 Y28.03334
G01 X-47.26198 Y28.11798
G01 X-47.39244 Y28.19768
G01 X-47.55264 Y28.28882
G01 X-47.68916 Y28.35933
G01 X-47.82828 Y28.42456
G01 X-47.96031 Y28.48056
G01 X-48.12271 Y28.54333
G01 X-48.25827 Y28.59006
G01 X-48.40529 Y28.63474
G01 X-48.70369 Y28.70779
G01 X-48.84440 Y28.73540
G01 X-48.98603 Y28.75796
G01 X-49.26101 Y28.78706
G01 X-49.54458 Y28.79969
G01 X-50.94331 Y28.79989
G01 X-51.18948 Y28.75737
G01 X-50.38842 Y28.89849
G01 X-49.63069 Y29.09768
G01 X-43.38142 Y31.08053
G01 X-43.51241 Y30.86849
G01 X-43.64873 Y30.99544
G01 X-43.51241 Y30.86849
G01 X-44.04652 Y29.99209
G01 X-43.78053 Y30.43245
G01 X-44.05709 Y30.69034
G01 X-44.20570 Y30.81924
G01 X-44.77423 Y30.63898
G01 X-44.58820 Y30.48772
G01 X-44.38739 Y30.31498
G01 X-44.21495 Y30.15663
G01 X-44.04652 Y29.99209
G01 X-44.50324 Y29.22560
G01 X-44.82897 Y28.65318
G01 X-45.15896 Y28.98308
G01 X-45.29993 Y29.11770
G01 X-45.47631 Y29.27444
G01 X-45.70407 Y29.46199
G01 X-45.91492 Y29.62036
G01 X-46.14098 Y29.77485
G01 X-46.35642 Y29.90855
G01 X-46.61367 Y30.05468
G01 X-47.30755 Y29.83370
G01 X-47.01982 Y29.70169
G01 X-46.73216 Y29.54879
G01 X-46.43504 Y29.36959
G01 X-46.29907 Y29.27916
G01 X-46.15759 Y29.17871
G01 X-45.92381 Y28.99722
G01 X-45.67583 Y28.78399
G01 X-45.51246 Y28.62946
G01 X-45.08269 Y28.19977
G01 X-45.33014 Y27.74010
G01 X-45.85144 Y28.26151
G01 X-45.97639 Y28.38122
G01 X-46.21433 Y28.58872
G01 X-46.42998 Y28.75831
G01 X-46.57042 Y28.85895
G01 X-46.70567 Y28.94917
G01 X-47.00184 Y29.12692
G01 X-47.27951 Y29.27210
G01 X-47.56572 Y29.39961
G01 X-47.83056 Y29.50088
G01 X-48.09134 Y29.58493
G01 X-49.07496 Y29.27253
G01 X-48.91357 Y29.25267
G01 X-48.75294 Y29.22697
G01 X-48.59332 Y29.19547
G01 X-48.40478 Y29.15194
G01 X-48.24766 Y29.10970
G01 X-48.10183 Y29.06497
G01 X-47.94806 Y29.01183
G01 X-47.77710 Y28.94579
G01 X-47.63656 Y28.88648
G01 X-47.49813 Y28.82245
G01 X-47.34397 Y28.74427
G01 X-47.21052 Y28.67040
G01 X-47.05332 Y28.57724
G01 X-46.91713 Y28.48999
G01 X-46.78416 Y28.39791
G01 X-46.64659 Y28.29491
G01 X-46.44309 Y28.12755
G01 X-46.27034 Y27.97142
G01 X-45.57212 Y27.27498
G01 X-45.83702 Y26.74831
G01 X-45.45040 Y27.51671
G01 X-45.00583 Y28.34239
G01 X-44.57256 Y29.10388
G01 X-44.93611 Y29.46215
G01 X-45.09351 Y29.60444
G01 X-45.27154 Y29.75549
G01 X-45.43857 Y29.88897
G01 X-45.60989 Y30.01686
G01 X-45.78533 Y30.13906
G01 X-45.96953 Y30.25841
G01 X-45.35965 Y30.45259
G01 X-45.09112 Y30.25211
G01 X-44.80164 Y30.01317
G01 X-44.56819 Y29.80253
G01 X-44.31055 Y29.54899
G01 X-44.50324 Y29.22560
G04 P0 ( dwell for no time -- G64 should not smooth over this point )
G00 Z1.00000 ( retract )

G00 X-49.82675 Y23.61032 ( rapid move to begin. )
G01 F20.00000
( Mill infeed pass 1/1 )
G01 Z-0.30000
G04 P0 ( dwell for no time -- G64 should not smooth over this point )
G01 F30.00000
G01 X-49.82675 Y23.61032
G01 X-49.47498 Y23.25853
G01 X-49.47496 Y22.99670
G01 X-49.46480 Y22.97623
G01 X-49.47831 Y22.99924
G01 X-49.57948 Y23.06137
G01 X-49.63170 Y23.08565
G01 X-49.73828 Y23.12279
G01 X-49.88093 Y23.14738
G01 X-50.01544 Y23.14682
G01 X-50.06988 Y23.16991
G01 X-50.16515 Y23.16157
G01 X-50.33051 Y23.13534
G01 X-50.33175 Y23.05007
G01 X-50.27432 Y23.07829
G01 X-50.17793 Y23.11527
G01 X-50.06713 Y23.13996
G01 X-50.01544 Y23.14682
G01 X-50.06713 Y23.13996
G01 X-50.17793 Y23.11527
G01 X-50.27432 Y23.07829
G01 X-50.33175 Y23.05007
G01 X-50.42761 Y22.98799
G01 X-50.51237 Y22.91255
G01 X-50.54857 Y22.87504
G01 X-50.58037 Y22.83450
G01 X-50.58021 Y22.81751
G01 X-50.58037 Y22.83450
G01 X-50.63030 Y22.89602
G01 X-50.71336 Y22.97194
G01 X-50.75537 Y23.00478
G01 X-50.86883 Y23.07097
G01 X-50.94247 Y23.10214
G01 X-51.01905 Y23.12518
G01 X-51.07617 Y23.13762
G01 X-51.17468 Y23.14890
G01 X-51.76840 Y23.14979
G01 X-52.31856 Y23.69993
G01 X-52.34310 Y23.71009
G01 X-52.31856 Y23.69993
G01 X-49.91641 Y23.69995
G01 X-49.82675 Y23.61032
G01 X-49.94051 Y23.65621
G01 X-49.99352 Y23.67034
G01 X-49.99205 Y23.68050
G01 X-49.99352 Y23.67034
G01 X-50.04834 Y23.67257
G01 X-50.23409 Y23.65799
G01 X-50.39584 Y23.63213
G01 X-50.57874 Y23.59002
G01 X-50.69647 Y23.61860
G01 X-50.85685 Y23.64852
G01 X-51.07102 Y23.67095
G01 X-51.19365 Y23.67460
G01 X-51.60457 Y23.67478
G01 X-51.66535 Y23.69995
G01 X-52.31856 Y23.69993
G01 X-51.85661 Y23.23803
G01 X-51.75072 Y23.19155
G01 X-51.65468 Y23.17257
G01 X-51.19812 Y23.17460
G01 X-51.06858 Y23.16904
G01 X-50.93774 Y23.15446
G01 X-50.83051 Y23.13579
G01 X-50.82995 Y23.05106
G04 P0 ( dwell for no time -- G64 should not smooth over this point )
G00 Z1.00000 ( retract )

G00 X-50.74498 Y21.24032 ( rapid move to begin. )
G01 F20.00000
( Mill infeed pass 1/1 )
G01 Z-0.30000
G04 P0 ( dwell for no time -- G64 should not smooth over this point )
G01 F30.00000
G01 X-50.74498 Y21.24032
G01 X-50.74498 Y21.13636
G01 X-50.83134 Y21.05000
G01 X-51.91872 Y21.05000
G01 X-52.58532 Y21.71603
G01 X-52.65529 Y21.78007
G01 X-52.95229 Y22.07689
G01 X-53.01971 Y22.13849
G01 X-53.38130 Y22.49995
G01 X-53.92047 Y22.49995
G01 X-53.94830 Y22.51006
G01 X-53.92047 Y22.49995
G01 X-53.86951 Y22.45642
G01 X-53.79555 Y22.38251
G01 X-53.70474 Y22.27270
G01 X-53.70896 Y22.26102
G01 X-53.70474 Y22.27270
G01 X-53.59834 Y22.29386
G01 X-53.49403 Y22.29978
G01 X-53.43012 Y22.29622
G01 X-53.33723 Y22.28324
G01 X-53.24681 Y22.25815
G01 X-53.18681 Y22.23595
G01 X-53.10276 Y22.19422
G01 X-53.05753 Y22.16602
G01 X-53.00835 Y22.12876
G01 X-52.65529 Y21.78007
G01 X-52.55796 Y21.69526
G01 X-52.49791 Y21.65617
G01 X-52.39616 Y21.60720
G01 X-52.34719 Y21.58931
G01 X-52.26726 Y21.56805
G01 X-52.20421 Y21.55718
G01 X-52.11001 Y21.55007
G01 X-51.18956 Y21.55076
G01 X-51.16906 Y21.55180
G01 X-51.76637 Y21.55055
G01 X-51.13525 Y21.55358
G01 X-51.14765 Y21.55292
G01 X-51.01247 Y21.57669
G01 X-50.92502 Y21.60544
G01 X-50.85011 Y21.63841
G01 X-50.80523 Y21.66305
G01 X-50.74493 Y21.70445
G01 X-50.73482 Y21.72411
G01 X-50.74493 Y21.70445
G01 X-50.74498 Y21.24032
G01 X-50.81219 Y21.15337
G01 X-50.80996 Y21.15124
G01 X-50.81219 Y21.15337
G01 X-50.84666 Y21.11858
G01 X-50.88733 Y21.09117
G01 X-50.88265 Y21.08256
G01 X-50.88733 Y21.09117
G01 X-50.93251 Y21.07222
G01 X-50.98054 Y21.06247
G01 X-50.97991 Y21.05894
G01 X-50.98054 Y21.06247
G01 X-51.17003 Y21.05083
G01 X-51.81488 Y21.05022
G01 X-51.86362 Y21.05497
G01 X-51.86451 Y21.05000
G01 X-51.86362 Y21.05497
G01 X-51.95712 Y21.08838
G04 P0 ( dwell for no time -- G64 should not smooth over this point )
G00 Z1.00000 ( retract )

G00 X-53.48798 Y19.14335 ( rapid move to begin. )
G01 F20.00000
( Mill infeed pass 1/1 )
G01 Z-0.30000
G04 P0 ( dwell for no time -- G64 should not smooth over this point )
G01 F30.00000
G01 X-53.48798 Y19.14335
G01 X-53.34025 Y19.49999
G01 X-53.13169 Y19.49963
G01 X-53.00751 Y19.62363
G01 X-52.94490 Y19.67842
G01 X-52.86538 Y19.73334
G01 X-52.84780 Y19.73082
G01 X-52.86454 Y19.73321
G01 X-53.13106 Y19.99968
G01 X-53.34028 Y19.99996
G01 X-53.48801 Y20.35663
G01 X-53.77434 Y20.64296
G01 X-53.77477 Y20.65777
G01 X-53.77429 Y20.64093
G01 X-53.78795 Y20.62587
G01 X-53.89883 Y20.51799
G01 X-53.94996 Y20.47646
G01 X-53.94996 Y18.60075
G01 X-53.94996 Y19.33456
G01 X-53.77790 Y19.74997
G01 X-53.94996 Y20.16536
G01 X-53.94996 Y20.47646
G01 X-53.89090 Y20.52549
G01 X-53.77434 Y20.64296
G01 X-52.86454 Y19.73321
G01 X-52.93723 Y19.68447
G01 X-53.00751 Y19.62363
G01 X-53.80043 Y18.83026
G01 X-53.87355 Y18.74134
G01 X-53.92247 Y18.66130
G01 X-53.94731 Y18.61292
G01 X-53.96009 Y18.55038
G04 P0 ( dwell for no time -- G64 should not smooth over this point )
G00 Z1.00000 ( retract )

G00 X-58.29285 Y26.02606 ( rapid move to begin. )
G01 F20.00000
( Mill infeed pass 1/1 )
G01 Z-0.30000
G04 P0 ( dwell for no time -- G64 should not smooth over this point )
G01 F30.00000
G01 X-58.29285 Y26.02606
G01 X-58.27606 Y26.14821
G01 X-58.24111 Y26.28720
G01 X-58.18632 Y26.43040
G01 X-58.14238 Y26.52070
G01 X-58.06763 Y26.64155
G01 X-57.99940 Y26.73119
G01 X-57.90799 Y26.83076
G01 X-57.79795 Y26.92669
G01 X-57.67776 Y27.00947
G01 X-57.58594 Y27.06047
G01 X-57.46415 Y27.11475
G01 X-57.31820 Y27.16055
G01 X-57.21010 Y27.18300
G01 X-57.05940 Y27.19908
G01 X-56.90794 Y27.19636
G01 X-56.80804 Y27.18618
G01 X-56.65922 Y27.15463
G01 X-56.55193 Y27.12039
G01 X-56.42018 Y27.06393
G01 X-56.28780 Y26.98773
G01 X-56.19824 Y26.92316
G01 X-56.08429 Y26.82324
G01 X-55.97728 Y26.70221
G01 X-55.91272 Y26.61265
G01 X-55.85554 Y26.51610
G01 X-55.82234 Y26.45105
G01 X-55.75960 Y26.28699
G01 X-55.72610 Y26.15822
G01 X-55.70286 Y25.98430
G01 X-55.70014 Y25.79995
G01 X-55.83725 Y25.65870
G01 X-55.70014 Y25.79995
G01 X-49.58507 Y25.79995
G01 X-49.46574 Y25.79408
G01 X-49.39452 Y25.78590
G01 X-49.27417 Y25.76137
G01 X-49.19505 Y25.74008
G01 X-49.08936 Y25.70117
G01 X-49.02365 Y25.67249
G01 X-48.95131 Y25.63404
G01 X-48.84776 Y25.57061
G01 X-48.78332 Y25.52266
G01 X-48.68878 Y25.44140
G01 X-47.74855 Y24.50168
G01 X-47.68652 Y24.43366
G01 X-47.59808 Y24.31793
G01 X-47.51360 Y24.17394
G01 X-47.46694 Y24.06942
G01 X-47.43836 Y23.99038
G01 X-47.42767 Y23.95408
G01 X-47.43999 Y23.94148
G01 X-47.04263 Y24.34763
G01 X-47.09615 Y24.45415
G01 X-47.17565 Y24.58560
G01 X-47.24093 Y24.67742
G01 X-47.33869 Y24.79576
G01 X-48.31215 Y25.77262
G01 X-48.38416 Y25.84000
G01 X-48.48545 Y25.92461
G01 X-48.57659 Y25.99083
G01 X-48.69886 Y26.06563
G01 X-48.78697 Y26.11331
G01 X-48.87808 Y26.15499
G01 X-49.00988 Y26.20551
G01 X-49.10572 Y26.23467
G01 X-49.23358 Y26.26464
G01 X-49.39193 Y26.28938
G01 X-49.58507 Y26.29995
G01 X-55.24492 Y26.29995
G01 X-55.31472 Y26.20411
G01 X-55.24492 Y26.29995
G01 X-55.28513 Y26.44475
G01 X-55.35656 Y26.63444
G01 X-55.42427 Y26.76924
G01 X-55.52651 Y26.93429
G01 X-55.58170 Y27.00812
G01 X-55.64726 Y27.08676
G01 X-55.75285 Y27.19829
G01 X-55.88434 Y27.31234
G01 X-55.98302 Y27.38559
G01 X-56.13987 Y27.48105
G01 X-56.26537 Y27.54361
G01 X-56.41530 Y27.60274
G01 X-56.54975 Y27.64269
G01 X-56.71942 Y27.67838
G01 X-56.88233 Y27.69568
G01 X-57.00509 Y27.70027
G01 X-57.11769 Y27.69641
G01 X-57.27032 Y27.67950
G01 X-57.38122 Y27.65958
G01 X-57.49031 Y27.63144
G01 X-57.63433 Y27.58493
G01 X-57.73608 Y27.54264
G01 X-57.86425 Y27.47935
G01 X-57.96110 Y27.42181
G01 X-58.07941 Y27.34086
G01 X-58.16704 Y27.27007
G01 X-58.27276 Y27.17325
G01 X-58.36958 Y27.06754
G01 X-58.43890 Y26.98186
G01 X-58.49633 Y26.89974
G01 X-58.57337 Y26.77442
G01 X-58.78810 Y27.34673
G01 X-58.69937 Y27.44970
G01 X-58.62988 Y27.52321
G01 X-58.54921 Y27.59987
G01 X-58.44929 Y27.68610
G01 X-58.29501 Y27.80066
G01 X-58.19264 Y27.86682
G01 X-58.10509 Y27.91752
G01 X-57.90369 Y28.01531
G01 X-57.80865 Y28.05354
G01 X-57.71180 Y28.08684
G01 X-57.50717 Y28.14376
G01 X-57.30944 Y28.17868
G01 X-57.18876 Y28.19227
G01 X-57.07850 Y28.19911
G01 X-56.96803 Y28.19982
G01 X-56.84670 Y28.19448
G01 X-56.69674 Y28.18036
G01 X-56.54830 Y28.15499
G01 X-56.36964 Y28.11221
G01 X-56.21381 Y28.06159
G01 X-56.05247 Y27.99613
G01 X-55.91482 Y27.92791
G01 X-55.74863 Y27.82992
G01 X-55.60893 Y27.73182
G01 X-55.46138 Y27.60939
G01 X-55.33860 Y27.49085
G01 X-55.19969 Y27.33096
G01 X-55.09814 Y27.19377
G01 X-55.04398 Y27.10919
G01 X-54.97279 Y26.98610
G01 X-54.92651 Y26.89576
G01 X-54.88351 Y26.79992
G01 X-54.92819 Y26.72674
G01 X-54.88351 Y26.79992
G01 X-49.57455 Y26.79990
G01 X-49.38730 Y26.79098
G01 X-49.22462 Y26.77142
G01 X-49.04405 Y26.73454
G01 X-48.92520 Y26.70320
G01 X-48.79889 Y26.66108
G01 X-48.65632 Y26.60393
G01 X-48.52703 Y26.54188
G01 X-48.38497 Y26.46114
G01 X-48.27519 Y26.39045
G01 X-48.17816 Y26.31900
G01 X-48.06155 Y26.22212
G01 X-47.97285 Y26.14028
G01 X-47.01273 Y25.17945
G01 X-46.92388 Y25.08052
G01 X-46.82871 Y24.96129
G01 X-46.75833 Y24.86096
G01 X-46.76513 Y24.84694
G01 X-46.51263 Y25.36764
G01 X-46.58947 Y25.45806
G01 X-46.67336 Y25.54768
G01 X-47.61944 Y26.49395
G01 X-47.74687 Y26.61097
G01 X-47.92101 Y26.75169
G01 X-48.05459 Y26.84437
G01 X-48.20270 Y26.93386
G01 X-48.32708 Y27.00132
G01 X-48.45510 Y27.06164
G01 X-48.61494 Y27.12611
G01 X-48.74875 Y27.17211
G01 X-48.88497 Y27.21046
G01 X-49.05319 Y27.24843
G01 X-49.17267 Y27.26936
G01 X-49.29302 Y27.28448
G01 X-49.44453 Y27.29596
G01 X-49.56498 Y27.29984
G01 X-54.57604 Y27.29992
G01 X-54.60863 Y27.23970
G01 X-54.57604 Y27.29992
G01 X-54.64462 Y27.41384
G01 X-54.71249 Y27.51516
G01 X-54.79151 Y27.62103
G01 X-54.87581 Y27.72316
G01 X-54.99867 Y27.85864
G01 X-55.12351 Y27.97802
G01 X-55.28742 Y28.11521
G01 X-55.44398 Y28.22814
G01 X-55.62636 Y28.33941
G01 X-55.76913 Y28.41536
G01 X-55.91653 Y28.48191
G01 X-56.10598 Y28.55382
G01 X-56.27050 Y28.60340
G01 X-56.46842 Y28.64899
G01 X-56.63885 Y28.67703
G01 X-56.80070 Y28.69260
G01 X-56.96346 Y28.69982
G01 X-57.10573 Y28.69842
G01 X-57.24766 Y28.68894
G01 X-57.41954 Y28.66832
G01 X-57.54972 Y28.64592
G01 X-57.68840 Y28.61414
G01 X-57.86417 Y28.56306
G01 X-57.98835 Y28.52014
G01 X-58.11939 Y28.46669
G01 X-58.27479 Y28.39309
G01 X-58.39844 Y28.32616
G01 X-58.50971 Y28.25788
G01 X-58.63521 Y28.17317
G01 X-58.74723 Y28.08823
G01 X-58.87768 Y27.97691
G01 X-58.98802 Y27.87211
G01 X-59.17966 Y28.37718
G01 X-59.03448 Y28.49860
G01 X-58.89447 Y28.60213
G01 X-58.70572 Y28.72519
G01 X-58.50895 Y28.83494
G01 X-58.27697 Y28.94322
G01 X-58.05653 Y29.02628
G01 X-57.81104 Y29.09887
G01 X-57.58083 Y29.14876
G01 X-57.30682 Y29.18554
G01 X-57.08193 Y29.19938
G01 X-56.88731 Y29.19773
G01 X-56.64215 Y29.18082
G01 X-56.43931 Y29.15224
G01 X-56.22884 Y29.10817
G01 X-56.04083 Y29.05793
G01 X-55.85648 Y28.99557
G01 X-55.65719 Y28.91475
G01 X-55.47281 Y28.82552
G01 X-55.26824 Y28.70878
G01 X-55.08861 Y28.59049
G01 X-54.92580 Y28.46616
G01 X-54.74023 Y28.30507
G01 X-54.63779 Y28.20472
G01 X-54.54706 Y28.10723
G01 X-54.43428 Y27.97465
G01 X-54.35219 Y27.86977
G01 X-54.30152 Y27.79992
G01 X-54.32539 Y27.75034
G01 X-54.30152 Y27.79992
G01 X-49.56457 Y27.79984
G01 X-49.43147 Y27.79598
G01 X-49.27821 Y27.78529
G01 X-49.03450 Y27.75349
G01 X-48.83389 Y27.71226
G01 X-48.66523 Y27.66901
G01 X-48.49937 Y27.61605
G01 X-48.32716 Y27.55026
G01 X-48.16780 Y27.48008
G01 X-48.03079 Y27.41056
G01 X-47.85335 Y27.30828
G01 X-47.71570 Y27.21935
G01 X-47.52680 Y27.07861
G01 X-47.40133 Y26.97317
G01 X-47.31022 Y26.89037
G01 X-46.27499 Y25.85474
G01 X-46.04040 Y26.32903
G01 X-46.96432 Y27.25143
G01 X-47.07115 Y27.34866
G01 X-47.18060 Y27.44140
G01 X-47.35667 Y27.57790
G01 X-47.49000 Y27.67000
G01 X-47.61873 Y27.75064
G01 X-47.77737 Y27.84188
G01 X-47.93071 Y27.92087
G01 X-48.07842 Y27.98821
G01 X-48.24821 Y28.05651
G01 X-48.40120 Y28.11076
G01 X-48.55657 Y28.15788
G01 X-48.81339 Y28.21996
G01 X-49.03305 Y28.25958
G01 X-49.26490 Y28.28595
G01 X-49.51534 Y28.29921
G01 X-54.05440 Y28.29989
G01 X-54.07325 Y28.25727
G01 X-54.05440 Y28.29989
G01 X-54.19771 Y28.46649
G01 X-54.34683 Y28.62077
G01 X-54.19298 Y29.09651
G01 X-53.98734 Y29.13090
G01 X-53.81018 Y29.16893
G01 X-53.65450 Y29.21038
G01 X-53.40297 Y29.28694
G01 X-53.22331 Y29.35270
G01 X-53.00817 Y29.44447
G01 X-52.78829 Y29.55331
G01 X-52.79100 Y29.56530
G01 X-52.78829 Y29.55331
G01 X-52.36581 Y29.55343
G01 X-52.20104 Y29.55877
G01 X-52.03721 Y29.57129
G01 X-51.87615 Y29.58930
G01 X-51.71615 Y29.61475
G01 X-51.55745 Y29.64759
G01 X-51.39007 Y29.68996
G01 X-51.14808 Y29.76430
G01 X-50.91209 Y29.85595
G01 X-50.64577 Y29.98094
G01 X-50.41649 Y30.11030
G01 X-50.29723 Y30.18701
G01 X-50.14707 Y30.29128
G01 X-50.02621 Y30.38335
G01 X-49.91715 Y30.47393
G01 X-49.80447 Y30.57581
G01 X-49.67366 Y30.70355
G01 X-49.56960 Y30.81421
G01 X-49.47041 Y30.92928
G01 X-49.37633 Y31.04855
G01 X-49.27463 Y31.18813
G01 X-49.19015 Y31.31439
G01 X-49.11120 Y31.44418
G01 X-49.03798 Y31.57728
G01 X-48.95215 Y31.75008
G01 X-48.89429 Y31.87951
G01 X-48.83813 Y32.02069
G01 X-48.77892 Y32.19308
G01 X-48.71926 Y32.39778
G01 X-48.67938 Y32.56524
G01 X-48.64778 Y32.73448
G01 X-48.61842 Y32.95586
G01 X-48.60359 Y33.12739
G01 X-48.59711 Y33.30956
G01 X-48.60056 Y33.50196
G01 X-48.61428 Y33.71472
G01 X-48.63716 Y33.90575
G01 X-48.66851 Y34.08533
G01 X-48.71547 Y34.29345
G01 X-48.76739 Y34.47910
G01 X-48.82594 Y34.65210
G01 X-48.90447 Y34.85055
G01 X-48.98024 Y35.01674
G01 X-49.06460 Y35.17872
G01 X-49.17232 Y35.36290
G01 X-49.27199 Y35.51552
G01 X-49.37328 Y35.65472
G01 X-49.51428 Y35.82789
G01 X-49.62878 Y35.95647
G01 X-49.76404 Y36.09332
G01 X-49.89894 Y36.21593
G01 X-50.06320 Y36.35182
G01 X-50.21778 Y36.46640
G01 X-50.37844 Y36.57229
G01 X-50.56205 Y36.68027
G01 X-50.72304 Y36.76470
G01 X-50.88814 Y36.84067
G01 X-51.04752 Y36.90447
G01 X-51.24920 Y36.97399
G01 X-51.41565 Y37.02380
G01 X-51.59433 Y37.06749
G01 X-51.77511 Y37.10170
G01 X-51.95740 Y37.12639
G01 X-52.16124 Y37.14524
G01 X-52.33523 Y37.15263
G01 X-52.78783 Y37.15316
G01 X-52.79014 Y37.14265
G01 X-52.78783 Y37.15316
G01 X-53.03401 Y37.27338
G01 X-53.19265 Y37.34168
G01 X-53.37373 Y37.40864
G01 X-53.58638 Y37.47778
G01 X-53.74297 Y37.52139
G01 X-53.91140 Y37.55969
G01 X-54.14218 Y37.60213
G01 X-54.39697 Y37.63396
G01 X-54.70126 Y37.65207
G01 X-55.00469 Y37.64806
G01 X-55.24518 Y37.62947
G01 X-55.42623 Y37.60719
G01 X-55.58587 Y37.58037
G01 X-55.81426 Y37.53147
G01 X-55.99128 Y37.48453
G01 X-56.20456 Y37.41669
G01 X-56.36697 Y37.35725
G01 X-56.58211 Y37.26556
G01 X-56.74644 Y37.18715
G01 X-56.94230 Y37.08067
G01 X-57.08990 Y36.99238
G01 X-57.28338 Y36.86228
G01 X-57.41490 Y36.76632
G01 X-57.54957 Y36.65781
G01 X-57.72574 Y36.50384
G01 X-57.84974 Y36.38329
G01 X-58.00316 Y36.22111
G01 X-58.12798 Y36.07496
G01 X-58.28274 Y35.87445
G01 X-58.38574 Y35.72429
G01 X-58.52025 Y35.50854
G01 X-58.60801 Y35.34781
G01 X-58.71995 Y35.11946
G01 X-58.79089 Y34.95063
G01 X-58.87877 Y34.71296
G01 X-58.94850 Y34.48002
G01 X-58.99310 Y34.30349
G01 X-59.04116 Y34.05462
G01 X-59.06783 Y33.87344
G01 X-59.08975 Y33.63029
G01 X-59.09859 Y33.43719
G01 X-59.09539 Y33.18302
G01 X-59.08497 Y33.00123
G01 X-59.05787 Y32.75957
G01 X-59.02917 Y32.57977
G01 X-58.97829 Y32.34162
G01 X-58.92889 Y32.15472
G01 X-58.85058 Y31.91276
G01 X-58.78579 Y31.74149
G01 X-58.68345 Y31.50903
G01 X-58.58774 Y31.31939
G01 X-58.45096 Y31.08254
G01 X-58.29849 Y30.85541
G01 X-58.17072 Y30.68419
G01 X-58.00661 Y30.48991
G01 X-57.83191 Y30.30510
G01 X-57.62130 Y30.10883
G01 X-57.49084 Y30.07411
G04 P0 ( dwell for no time -- G64 should not smooth over this point )
G00 Z1.00000 ( retract )

G00 X-60.56155 Y28.69974 ( rapid move to begin. )
G01 F20.00000
( Mill infeed pass 1/1 )
G01 Z-0.30000
G04 P0 ( dwell for no time -- G64 should not smooth over this point )
G01 F30.00000
G01 X-60.56155 Y28.69974
G01 X-59.83745 Y28.69954
G01 X-59.64702 Y28.19949
G01 X-60.75705 Y28.19984
G01 X-60.86531 Y27.92273
G01 X-60.94273 Y27.69911
G01 X-59.59869 Y27.69946
G01 X-59.45551 Y27.69471
G01 X-59.22924 Y27.10124
G01 X-59.25497 Y27.16776
G01 X-59.38553 Y27.18689
G01 X-59.51743 Y27.19735
G01 X-60.88964 Y27.19987
G01 X-61.00201 Y27.19619
G01 X-61.10971 Y27.18666
G01 X-61.20661 Y26.85379
G01 X-61.24984 Y26.65811
G01 X-61.06310 Y26.68869
G01 X-60.91027 Y26.69962
G01 X-59.57867 Y26.69918
G01 X-59.46689 Y26.69268
G01 X-59.35589 Y26.67787
G01 X-59.20595 Y26.64844
G01 X-59.07839 Y26.61239
G01 X-59.04187 Y26.59974
G01 X-58.74903 Y25.81819
G01 X-58.76107 Y25.85062
G01 X-58.84626 Y25.92644
G01 X-58.93638 Y25.99319
G01 X-59.02432 Y26.04475
G01 X-59.14357 Y26.10216
G01 X-59.22904 Y26.13556
G01 X-59.32716 Y26.16330
G01 X-59.44718 Y26.18621
G01 X-59.52800 Y26.19616
G01 X-59.60938 Y26.19952
G01 X-60.87976 Y26.19992
G01 X-60.99195 Y26.19365
G01 X-61.18276 Y26.16096
G01 X-61.26124 Y26.13878
G01 X-61.34443 Y26.10736
G01 X-61.36889 Y25.90818
G01 X-61.37318 Y25.83155
G01 X-61.37397 Y25.58659
G01 X-61.36912 Y25.51275
G01 X-61.37397 Y25.58659
G01 X-61.37318 Y25.83155
G01 X-61.36889 Y25.90818
G01 X-61.31530 Y26.34503
G01 X-61.29838 Y26.43861
G01 X-61.20661 Y26.85379
G01 X-61.07300 Y27.31280
G01 X-61.02723 Y27.45514
G01 X-60.86531 Y27.92273
G01 X-60.35248 Y29.24035
G01 X-60.19419 Y29.69166
G01 X-60.02038 Y29.19959
G01 X-60.36821 Y29.19966
G01 X-60.02038 Y29.19959
G01 X-59.88144 Y28.81584
G01 X-59.19960 Y27.02316
G01 X-58.74903 Y25.81819
G01 X-58.67403 Y25.58057
G01 X-58.61855 Y25.32667
G01 X-58.59315 Y25.10706
G01 X-58.57822 Y24.77760
G01 X-58.54987 Y24.52657
G01 X-58.50710 Y24.31268
G01 X-58.46618 Y24.15822
G01 X-58.36582 Y23.83594
G01 X-58.49831 Y23.62794
G01 X-58.47690 Y23.65812
G01 X-58.44101 Y23.74920
G01 X-58.41802 Y23.82746
G01 X-58.39546 Y23.93241
G01 X-58.42871 Y23.78809
G01 X-58.47690 Y23.65812
G01 X-58.66160 Y23.42299
G01 X-58.83171 Y23.24997
G01 X-60.91880 Y23.24969
G01 X-61.04374 Y23.42043
G01 X-61.10092 Y23.43483
G01 X-61.14870 Y23.45263
G01 X-61.23191 Y23.49099
G01 X-61.28466 Y23.52192
G01 X-61.37321 Y23.59055
G01 X-61.41070 Y23.62510
G01 X-61.44979 Y23.67008
G01 X-61.46013 Y23.70028
G01 X-61.44979 Y23.67008
G01 X-61.39612 Y23.61082
G01 X-61.30138 Y23.53366
G01 X-61.24097 Y23.49571
G01 X-61.14870 Y23.45263
G01 X-61.09117 Y23.43186
G01 X-60.97153 Y23.40709
G01 X-60.91080 Y23.40087
G01 X-59.62005 Y23.40003
G01 X-59.55886 Y23.40379
G01 X-59.46818 Y23.41712
G01 X-59.41860 Y23.42899
G01 X-59.28644 Y23.48215
G01 X-59.20689 Y23.52772
G01 X-59.10384 Y23.61082
G01 X-59.06854 Y23.64760
G01 X-59.01748 Y23.71113
G01 X-58.96872 Y23.78875
G01 X-58.92922 Y23.87145
G01 X-58.91141 Y23.91921
G01 X-58.88093 Y24.05835
G01 X-58.87583 Y24.12924
G01 X-58.87519 Y24.95982
G01 X-58.88391 Y25.06167
G01 X-58.90042 Y25.14150
G01 X-58.93656 Y25.24757
G01 X-58.96945 Y25.31087
G01 X-59.04184 Y25.42156
G01 X-59.09018 Y25.47402
G01 X-59.19003 Y25.56081
G01 X-59.25043 Y25.59875
G01 X-59.36069 Y25.65126
G01 X-59.44837 Y25.67800
G01 X-59.53851 Y25.69444
G01 X-59.59935 Y25.69939
G01 X-60.89015 Y25.69980
G01 X-60.95121 Y25.69484
G01 X-61.06155 Y25.67584
G01 X-61.13927 Y25.65126
G01 X-61.24992 Y25.59936
G01 X-61.30953 Y25.56020
G01 X-61.40348 Y25.48207
G01 X-61.48250 Y25.38885
G01 X-61.52167 Y25.32924
G01 X-61.58202 Y25.20010
G01 X-61.58118 Y25.16899
G01 X-61.58814 Y25.19924
G01 X-61.66998 Y25.30097
G01 X-62.91763 Y26.54755
G01 X-63.00742 Y26.61961
G01 X-63.08773 Y26.66764
G01 X-63.13454 Y26.69060
G01 X-63.27056 Y26.73721
G01 X-63.42050 Y26.75893
G01 X-64.75519 Y26.75969
G01 X-64.88727 Y26.74529
G01 X-65.00846 Y26.71158
G01 X-65.05786 Y26.69149
G01 X-65.13218 Y26.65418
G01 X-65.22743 Y26.58958
G01 X-65.28930 Y26.53599
G01 X-65.37676 Y26.43734
G01 X-65.41521 Y26.37925
G01 X-65.47922 Y26.25344
G01 X-65.51833 Y26.11765
G01 X-65.53081 Y26.03800
G01 X-65.53317 Y25.90615
G01 X-65.51214 Y25.77584
G01 X-65.49111 Y25.69909
G01 X-65.44224 Y25.58806
G01 X-65.40223 Y25.51923
G01 X-65.32090 Y25.41570
G01 X-65.27043 Y25.36642
G01 X-65.17195 Y25.28984
G01 X-65.08298 Y25.23962
G01 X-64.98163 Y25.19893
G01 X-64.87571 Y25.17244
G01 X-64.78618 Y25.16180
G01 X-63.79139 Y25.16000
G01 X-63.04999 Y24.41859
G01 X-63.04999 Y18.96252
G01 X-63.04999 Y19.39981
G01 X-63.20241 Y19.12968
G01 X-63.04999 Y18.96252
G01 X-63.04996 Y18.53575
G01 X-63.03983 Y18.51772
G01 X-63.05123 Y18.53801
G01 X-63.15474 Y18.58361
G01 X-63.22339 Y18.60301
G01 X-63.33333 Y18.62198
G01 X-64.20434 Y18.62493
G01 X-64.31679 Y18.61569
G01 X-64.37668 Y18.60332
G01 X-64.47394 Y18.57301
G01 X-64.58290 Y18.51790
G01 X-64.63500 Y18.48589
G01 X-64.68283 Y18.44777
G01 X-64.76970 Y18.36191
G01 X-64.81361 Y18.30568
G01 X-64.85024 Y18.24360
G01 X-64.81361 Y18.30568
G01 X-64.77645 Y18.35427
G01 X-64.69032 Y18.44086
G01 X-64.65146 Y18.47383
G01 X-64.60068 Y18.50794
G01 X-64.50190 Y18.56059
G01 X-64.44529 Y18.58371
G01 X-64.37668 Y18.60332
G01 X-64.30668 Y18.61706
G01 X-64.21468 Y18.62485
G01 X-63.41849 Y18.62376
G01 X-63.55446 Y18.77461
G01 X-63.61768 Y18.83794
G01 X-63.84836 Y18.82518
G01 X-64.20061 Y18.82518
G01 X-64.32474 Y18.82125
G01 X-64.47198 Y18.80766
G01 X-64.88824 Y18.74721
G01 X-64.87688 Y18.51289
G01 X-64.85024 Y18.24360
G01 X-64.88814 Y18.17246
G01 X-64.91011 Y18.11536
G01 X-64.93878 Y17.99669
G01 X-64.94821 Y17.92613
G01 X-64.94937 Y16.59458
G01 X-64.93322 Y16.47332
G01 X-64.91961 Y16.41368
G01 X-64.87460 Y16.30012
G01 X-64.84694 Y16.24559
G01 X-64.81282 Y16.19481
G01 X-64.73571 Y16.10009
G01 X-64.69029 Y16.05910
G01 X-64.60114 Y15.99133
G01 X-64.54778 Y15.96149
G01 X-64.44524 Y15.91638
G01 X-64.38656 Y15.89913
G01 X-64.28649 Y15.88056
G01 X-64.22570 Y15.87556
G01 X-63.83193 Y15.87525
G01 X-64.23586 Y15.87589
G01 X-64.28649 Y15.88056
G01 X-64.37660 Y15.89697
G01 X-64.45481 Y15.91993
G01 X-64.55692 Y15.96598
G01 X-64.61808 Y16.00271
G01 X-64.68577 Y16.05549
G01 X-64.61559 Y15.89250
G01 X-64.50353 Y15.69314
G01 X-64.47262 Y15.64505
G01 X-64.30762 Y15.42113
G01 X-64.03927 Y15.68917
G01 X-63.93525 Y15.78709
G01 X-63.83193 Y15.87525
G01 X-63.40470 Y15.87505
G01 X-63.38776 Y15.88526
G01 X-63.40500 Y15.87485
G01 X-63.43851 Y15.80434
G01 X-63.45814 Y15.75018
G01 X-63.48529 Y15.64932
G01 X-63.49970 Y15.51724
G01 X-63.49995 Y6.53539
G01 X-63.99992 Y7.74167
G01 X-63.99980 Y15.02186
G01 X-63.69362 Y15.32788
G01 X-63.60074 Y15.41549
G01 X-63.49980 Y15.50093
G01 X-63.60074 Y15.41549
G01 X-63.69362 Y15.32788
G01 X-64.07483 Y14.94828
G01 X-64.07501 Y12.49832
G01 X-64.08290 Y12.27552
G01 X-64.11346 Y11.99749
G01 X-64.16492 Y11.72507
G01 X-64.24333 Y11.43307
G01 X-64.34991 Y11.13622
G01 X-64.34993 Y8.58672
G01 X-63.49995 Y6.53539
G01 X-63.49893 Y6.41797
G01 X-63.48425 Y6.29310
G01 X-63.45009 Y6.17207
G01 X-63.39776 Y6.05874
G01 X-63.32832 Y5.95587
G01 X-63.28720 Y5.90702
G01 X-62.38098 Y4.99999
G01 X-62.35644 Y4.98983
G01 X-62.38098 Y4.99999
G01 X-62.61859 Y4.99999
G01 X-65.69997 Y8.08137
G01 X-65.69997 Y11.63777
G01 X-65.35504 Y11.98448
G01 X-65.32077 Y12.02439
G01 X-65.27919 Y12.08268
G01 X-65.24536 Y12.14069
G01 X-65.20000 Y12.23950
G01 X-65.17124 Y12.33373
G01 X-65.15471 Y12.43147
G01 X-65.15019 Y12.49845
G01 X-65.14970 Y15.86908
G01 X-65.09812 Y15.74317
G01 X-65.06266 Y15.66850
G01 X-64.92817 Y15.42905
G01 X-64.87988 Y15.35486
G01 X-64.68882 Y15.09563
G01 X-64.64986 Y15.04805
G01 X-64.65024 Y12.48814
G01 X-64.66048 Y12.35558
G01 X-64.67691 Y12.25456
G01 X-64.69604 Y12.17488
G01 X-64.74523 Y12.02941
G01 X-64.82151 Y11.87303
G01 X-64.85885 Y11.81184
G01 X-64.91138 Y11.73693
G01 X-65.00109 Y11.63127
G01 X-65.20000 Y11.43135
G01 X-65.23716 Y11.44656
G01 X-65.20000 Y11.43135
G01 X-65.20000 Y8.28845
G01 X-65.23805 Y8.27270
G01 X-65.20000 Y8.28845
G01 X-64.46185 Y7.55033
G01 X-63.96149 Y6.34286
G01 X-64.83091 Y8.44133
G01 X-64.84513 Y8.48822
G01 X-64.85456 Y8.48634
G01 X-64.84513 Y8.48822
G01 X-64.84993 Y8.53699
G01 X-64.84991 Y11.18362
G01 X-64.85550 Y11.18446
G01 X-64.84991 Y11.18362
G01 X-64.84513 Y11.23224
G01 X-64.83099 Y11.27902
G01 X-64.72174 Y11.57986
G01 X-64.66294 Y11.79292
G01 X-64.61351 Y12.03797
G01 X-64.58247 Y12.30912
G01 X-64.57500 Y12.50315
G01 X-64.57480 Y14.96098
G01 X-64.68882 Y15.09563
G01 X-64.87988 Y15.35486
G01 X-64.92890 Y15.42857
G01 X-65.06324 Y15.66822
G01 X-65.14970 Y15.86908
G01 X-65.14991 Y17.69041
G01 X-65.15953 Y17.79232
G01 X-65.16840 Y17.84276
G01 X-65.20096 Y17.95048
G01 X-65.22425 Y18.00733
G01 X-65.29647 Y18.13209
G01 X-65.38384 Y18.23570
G01 X-69.44931 Y22.30018
G01 X-69.48538 Y22.33290
G01 X-69.54909 Y22.38121
G01 X-69.63522 Y22.43224
G01 X-69.70189 Y22.46188
G01 X-69.81962 Y22.49975
G01 X-69.91142 Y22.51512
G01 X-69.97949 Y22.51977
G01 X-70.07885 Y22.51634
G01 X-70.16750 Y22.50272
G01 X-70.26328 Y22.47588
G01 X-70.36369 Y22.43300
G01 X-70.44106 Y22.38761
G01 X-70.48853 Y22.35342
G01 X-70.56344 Y22.28807
G01 X-70.63166 Y22.21116
G01 X-70.69910 Y22.10747
G01 X-70.72798 Y22.05198
G01 X-70.76394 Y21.95782
G01 X-70.79110 Y21.83859
G01 X-70.79902 Y21.71565
G01 X-70.79518 Y21.63615
G01 X-70.77517 Y21.52660
G01 X-70.75261 Y21.45027
G01 X-70.69808 Y21.33044
G01 X-70.66656 Y21.27880
G01 X-70.59927 Y21.19079
G01 X-66.74950 Y17.33862
G01 X-66.74950 Y12.85004
G01 X-67.08765 Y12.51100
G01 X-67.12308 Y12.46962
G01 X-67.17086 Y12.40389
G01 X-67.22760 Y12.30079
G01 X-67.26537 Y12.19886
G01 X-67.28419 Y12.12444
G01 X-67.29793 Y12.02063
G01 X-67.29989 Y7.74017
G01 X-67.28120 Y7.57817
G01 X-67.25564 Y7.48868
G01 X-67.23471 Y7.43405
G01 X-67.19969 Y7.36216
G01 X-67.15168 Y7.28637
G01 X-67.06568 Y7.18429
G01 X-63.50752 Y3.62633
G01 X-63.42220 Y3.55430
G01 X-63.31803 Y3.48968
G01 X-63.20516 Y3.44185
G01 X-63.10998 Y3.41638
G01 X-63.05314 Y3.40708
G01 X-62.94999 Y3.39997
G01 X-49.29998 Y3.39997
G01 X-49.17742 Y3.41005
G01 X-49.10585 Y3.42428
G01 X-49.00648 Y3.45575
G01 X-48.90318 Y3.50553
G01 X-48.85035 Y3.53903
G01 X-48.75571 Y3.61366
G01 X-47.12716 Y5.24165
G01 X-47.04949 Y5.33428
G01 X-46.98365 Y5.44396
G01 X-46.93895 Y5.55333
G01 X-46.91253 Y5.65879
G01 X-46.89996 Y5.79999
G01 X-46.89996 Y17.62745
G01 X-45.54883 Y18.97934
G01 X-45.46996 Y19.08150
G01 X-45.43765 Y19.13171
G01 X-45.38416 Y19.25152
G01 X-45.36387 Y19.31071
G01 X-45.34179 Y19.41970
G01 X-45.33496 Y19.52391
G01 X-45.33577 Y22.38032
G01 X-45.34893 Y22.49838
G01 X-45.37646 Y22.60402
G01 X-45.41812 Y22.70493
G01 X-45.46267 Y22.78278
G01 X-45.49595 Y22.83089
G01 X-45.56044 Y22.90658
G01 X-45.62632 Y22.96744
G01 X-45.69879 Y23.02035
G01 X-45.74906 Y23.05025
G01 X-45.83402 Y23.09106
G01 X-45.93232 Y23.12325
G01 X-45.99127 Y23.13683
G01 X-46.11251 Y23.14875
G01 X-46.19211 Y23.14760
G01 X-46.32183 Y23.12751
G01 X-46.40725 Y23.10079
G01 X-46.52775 Y23.04692
G01 X-46.63671 Y22.97262
G01 X-46.68952 Y22.92579
G01 X-46.75784 Y22.85050
G01 X-46.76996 Y22.83595
G01 X-46.76996 Y22.81944
G01 X-46.76996 Y22.83595
G01 X-46.80410 Y22.87781
G01 X-46.88992 Y22.96203
G01 X-46.94860 Y23.00541
G01 X-47.02612 Y23.05390
G01 X-47.07042 Y23.07664
G01 X-47.19404 Y23.12071
G01 X-47.26178 Y23.13691
G01 X-47.40242 Y23.14964
G01 X-47.48533 Y23.14484
G01 X-47.39246 Y23.14928
G01 X-47.24220 Y23.13325
G01 X-47.09800 Y23.08809
G01 X-47.02023 Y23.05042
G01 X-47.01918 Y23.65703
G01 X-47.06945 Y23.60526
G01 X-47.01982 Y23.58974
G01 X-47.06945 Y23.60526
G01 X-47.25322 Y23.41786
G01 X-47.35556 Y23.30640
G01 X-47.40976 Y23.24318
G01 X-47.48533 Y23.14484
G01 X-47.61182 Y23.12274
G01 X-47.73592 Y23.07763
G01 X-47.79101 Y23.05050
G01 X-47.87422 Y22.99696
G01 X-47.88512 Y22.97387
G01 X-47.87496 Y22.99538
G01 X-47.88299 Y22.97839
G01 X-47.87496 Y22.99538
G01 X-47.87496 Y23.58992
G01 X-47.88507 Y23.71268
G01 X-47.89701 Y23.77554
G01 X-47.92627 Y23.87153
G01 X-47.96244 Y23.95362
G01 X-48.00783 Y24.03099
G01 X-48.03595 Y24.07084
G01 X-48.09498 Y24.14087
G01 X-49.03475 Y25.08039
G01 X-49.10656 Y25.14087
G01 X-49.15045 Y25.17115
G01 X-49.23762 Y25.22057
G01 X-49.32888 Y25.25776
G01 X-49.46241 Y25.29042
G01 X-49.58507 Y25.29997
G01 X-56.16859 Y25.29997
G01 X-56.20001 Y25.33137
G01 X-56.20014 Y25.91082
G01 X-56.20357 Y25.96914
G01 X-56.21637 Y26.05979
G01 X-56.22798 Y26.10968
G01 X-56.26532 Y26.21625
G01 X-56.29229 Y26.27272
G01 X-56.34639 Y26.36182
G01 X-56.41238 Y26.44280
G01 X-56.45765 Y26.48806
G01 X-56.54741 Y26.56009
G01 X-56.65254 Y26.62108
G01 X-56.74380 Y26.65827
G01 X-56.85947 Y26.68765
G01 X-56.93352 Y26.69703
G01 X-57.03796 Y26.69951
G01 X-57.16275 Y26.68374
G01 X-57.28048 Y26.64960
G01 X-57.38779 Y26.60015
G01 X-57.48724 Y26.53495
G01 X-57.56910 Y26.46269
G01 X-57.64566 Y26.37269
G01 X-57.71027 Y26.26853
G01 X-57.75145 Y26.17366
G01 X-57.76933 Y26.11892
G01 X-57.78904 Y26.03216
G01 X-57.79894 Y25.93246
G01 X-57.79988 Y24.98999
G01 X-57.78317 Y24.83838
G01 X-57.75259 Y24.72939
G01 X-57.69968 Y24.61214
G01 X-57.63445 Y24.51270
G01 X-57.56557 Y24.43419
G01 X-57.04416 Y23.91357
G01 X-56.92435 Y23.82185
G01 X-56.91744 Y23.81753
G01 X-56.89699 Y23.81994
G01 X-56.91327 Y23.81801
G01 X-57.18117 Y23.55012
G01 X-57.95482 Y23.54999
G01 X-58.06793 Y23.37046
G01 X-57.88840 Y23.54999
G01 X-58.06793 Y23.37046
G01 X-58.28355 Y23.09459
G01 X-58.47712 Y22.89747
G01 X-58.48459 Y22.46676
G01 X-58.49663 Y22.35832
G01 X-58.52124 Y22.21004
G01 X-58.87362 Y21.85751
G01 X-58.88512 Y21.82965
G01 X-58.87502 Y21.85601
G01 X-58.87593 Y21.88058
G01 X-58.88340 Y21.96175
G01 X-58.89856 Y22.03148
G01 X-58.94492 Y22.16617
G01 X-58.97369 Y22.22015
G01 X-59.01588 Y22.28367
G01 X-58.99122 Y22.43196
G01 X-58.98406 Y22.50575
G01 X-58.97900 Y22.74999
G01 X-60.91964 Y22.74969
G01 X-60.95848 Y22.69995
G01 X-61.04029 Y22.57913
G01 X-61.11034 Y22.56119
G01 X-61.16787 Y22.54039
G01 X-61.21357 Y22.51781
G01 X-61.30971 Y22.46046
G01 X-61.35830 Y22.42332
G01 X-61.42474 Y22.36010
G01 X-61.44905 Y22.33221
G01 X-61.46015 Y22.30135
G01 X-61.45002 Y22.32970
G01 X-61.45002 Y22.86579
G01 X-61.35721 Y23.00176
G01 X-61.45002 Y23.12817
G01 X-61.44999 Y23.67056
G01 X-61.45002 Y22.32970
G01 X-61.41047 Y22.37466
G01 X-61.34260 Y22.43635
G01 X-61.29254 Y22.47151
G01 X-61.20463 Y22.52271
G01 X-61.15845 Y22.54435
G01 X-61.11034 Y22.56119
G01 X-60.96175 Y22.59493
G01 X-60.90095 Y22.59868
G01 X-59.61596 Y22.59990
G01 X-59.46424 Y22.58210
G01 X-59.37014 Y22.55403
G01 X-59.27720 Y22.51349
G01 X-59.23247 Y22.48906
G01 X-59.19043 Y22.46020
G01 X-59.11200 Y22.39541
G01 X-59.04852 Y22.32927
G01 X-58.96844 Y22.21139
G01 X-58.92952 Y22.12840
G01 X-58.88868 Y21.99190
G01 X-58.88091 Y21.94151
G01 X-58.87502 Y21.85601
G01 X-56.91327 Y23.81801
G01 X-56.94975 Y23.83912
G01 X-57.02960 Y23.90064
G01 X-57.18152 Y24.05032
G01 X-57.90890 Y24.05177
G01 X-57.91738 Y24.07892
G01 X-57.89018 Y24.05172
G01 X-57.91738 Y24.07892
G01 X-57.98355 Y24.28888
G01 X-58.02183 Y24.43521
G01 X-58.05566 Y24.60732
G01 X-58.08043 Y24.82494
G01 X-58.09412 Y25.14343
G01 X-58.11774 Y25.35964
G01 X-58.12500 Y25.41067
G01 X-58.19026 Y25.70940
G01 X-58.21385 Y25.79002
G01 X-58.27852 Y25.98738
G01 X-58.43801 Y26.41765
G01 X-59.45370 Y29.09928
G01 X-59.70158 Y29.79377
G01 X-59.81865 Y30.15292
G01 X-59.40920 Y30.05188
G01 X-59.56338 Y29.95808
G01 X-59.72122 Y29.85404
G01 X-59.56338 Y29.95808
G01 X-59.40920 Y30.05188
G01 X-58.58286 Y29.84355
G01 X-57.74990 Y29.62567
G01 X-58.66534 Y29.86468
G01 X-58.80014 Y29.80487
G01 X-58.99173 Y29.71112
G01 X-59.17755 Y29.60817
G01 X-59.38347 Y29.47860
G01 X-59.54817 Y29.36395
G01 X-59.36816 Y28.87208
G01 X-59.18502 Y29.00909
G01 X-58.98070 Y29.14310
G01 X-58.78647 Y29.25417
G01 X-58.58566 Y29.35321
G01 X-58.38980 Y29.43713
G01 X-58.18922 Y29.50896
G01 X-57.95543 Y29.57792
G01 X-57.74990 Y29.62567
G01 X-56.74187 Y29.34973
G01 X-56.02554 Y29.14307
G01 X-55.62171 Y29.02209
G01 X-54.83987 Y28.77955
G01 X-53.93809 Y28.48676
G01 X-53.88402 Y28.47518
G01 X-53.88508 Y28.46398
G01 X-53.88402 Y28.47518
G01 X-53.82872 Y28.47576
G01 X-53.35549 Y28.53586
G01 X-52.86139 Y28.62265
G01 X-52.60993 Y28.67660
G01 X-52.39136 Y28.67665
G01 X-51.97117 Y28.68694
G01 X-51.25128 Y28.74881
G01 X-51.18948 Y28.75737
G01 X-50.93848 Y29.30809
G01 X-50.80897 Y29.35742
G01 X-50.66815 Y29.41696
G01 X-50.51981 Y29.48521
G01 X-50.39228 Y29.54922
G01 X-50.25824 Y29.62278
G01 X-50.14445 Y29.69064
G01 X-49.88989 Y29.86037
G01 X-49.67122 Y30.02740
G01 X-49.47201 Y30.20210
G01 X-49.25497 Y30.41772
G01 X-49.15916 Y30.52346
G01 X-49.06073 Y30.64048
G01 X-48.88258 Y30.87654
G01 X-48.75223 Y31.07136
G01 X-48.62863 Y31.28244
G01 X-48.50846 Y31.51883
G01 X-48.40981 Y31.74266
G01 X-48.32502 Y31.97210
G01 X-48.24245 Y32.24545
G01 X-48.18776 Y32.47339
G01 X-48.16104 Y32.61357
G01 X-48.13935 Y32.75462
G01 X-48.11761 Y32.93699
G01 X-48.10501 Y33.08934
G01 X-48.09851 Y33.23191
G01 X-48.09708 Y33.37458
G01 X-48.11057 Y33.69043
G01 X-48.12368 Y33.83252
G01 X-48.14184 Y33.97407
G01 X-48.19109 Y34.24479
G01 X-48.22782 Y34.40430
G01 X-48.26757 Y34.55271
G01 X-48.31298 Y34.69950
G01 X-48.36043 Y34.83483
G01 X-48.47631 Y35.11939
G01 X-48.54189 Y35.25835
G01 X-48.60300 Y35.37666
G01 X-48.76239 Y35.65050
G01 X-48.84031 Y35.77003
G01 X-48.92848 Y35.89495
G01 X-49.02772 Y36.02436
G01 X-49.13851 Y36.15784
G01 X-49.33109 Y36.36841
G01 X-49.43290 Y36.46841
G01 X-49.53818 Y36.56470
G01 X-49.78171 Y36.76630
G01 X-49.94626 Y36.88659
G01 X-50.13409 Y37.00904
G01 X-50.35393 Y37.13645
G01 X-50.56139 Y37.24181
G01 X-50.75588 Y37.32731
G01 X-50.95461 Y37.40236
G01 X-51.19690 Y37.48136
G01 X-51.43368 Y37.54387
G01 X-51.59345 Y37.57742
G01 X-51.74440 Y37.60295
G01 X-51.88603 Y37.62154
G01 X-52.07947 Y37.64056
G01 X-52.22258 Y37.64938
G01 X-52.37622 Y37.65311
G01 X-52.66964 Y37.65316
G01 X-52.67183 Y37.64305
G01 X-52.66964 Y37.65316
G01 X-52.82443 Y37.72733
G01 X-52.98156 Y37.79561
G01 X-53.16045 Y37.86388
G01 X-53.41013 Y37.94666
G01 X-53.58447 Y37.99683
G01 X-53.75105 Y38.03691
G01 X-53.99956 Y38.08499
G01 X-54.16037 Y38.11036
G01 X-54.33220 Y38.13012
G01 X-54.52468 Y38.14460
G01 X-54.68516 Y38.15182
G01 X-54.82572 Y38.15283
G01 X-55.00799 Y38.14831
G01 X-55.16037 Y38.13957
G01 X-55.29207 Y38.12733
G01 X-55.51244 Y38.09990
G01 X-55.73979 Y38.05946
G01 X-56.02704 Y37.99355
G01 X-56.31922 Y37.90544
G01 X-56.52056 Y37.83401
G01 X-56.78282 Y37.72350
G01 X-56.98208 Y37.62822
G01 X-57.23796 Y37.48740
G01 X-57.44225 Y37.35962
G01 X-57.65846 Y37.20866
G01 X-57.84273 Y37.06449
G01 X-58.06531 Y36.87084
G01 X-58.23938 Y36.69962
G01 X-58.43727 Y36.48466
G01 X-58.62074 Y36.25741
G01 X-58.76173 Y36.06201
G01 X-58.92015 Y35.81456
G01 X-59.01098 Y35.65553
G01 X-59.10890 Y35.46566
G01 X-59.17024 Y35.33711
G01 X-59.23468 Y35.18761
G01 X-59.31505 Y34.97974
G01 X-59.36729 Y34.82782
G01 X-59.42990 Y34.61504
G01 X-59.47019 Y34.45952
G01 X-59.50417 Y34.30252
G01 X-59.54331 Y34.08296
G01 X-59.56440 Y33.93183
G01 X-59.57971 Y33.77997
G01 X-59.59345 Y33.58718
G01 X-59.59884 Y33.42447
G01 X-59.59579 Y33.19054
G01 X-59.58782 Y33.02003
G01 X-59.57143 Y32.84004
G01 X-59.54301 Y32.62008
G01 X-59.51568 Y32.46176
G01 X-59.47349 Y32.26410
G01 X-59.43453 Y32.10603
G01 X-59.39218 Y31.95940
G01 X-59.32889 Y31.76605
G01 X-59.27291 Y31.61320
G01 X-59.21075 Y31.46273
G01 X-59.11451 Y31.25122
G01 X-59.04177 Y31.10799
G01 X-58.93836 Y30.92318
G01 X-58.86041 Y30.79432
G01 X-58.77197 Y30.66019
G01 X-58.64878 Y30.48617
G01 X-58.54332 Y30.34960
G01 X-59.95787 Y30.70184
G01 X-60.06173 Y30.91599
G01 X-60.17933 Y31.18645
G01 X-60.25876 Y31.39572
G01 X-60.34217 Y31.64672
G01 X-60.39907 Y31.84210
G01 X-60.45241 Y32.05947
G01 X-60.50798 Y32.32798
G01 X-60.54565 Y32.56857
G01 X-60.57382 Y32.81065
G01 X-60.59035 Y33.03328
G01 X-60.59881 Y33.31764
G01 X-60.59597 Y33.55162
G01 X-60.57679 Y33.85622
G01 X-60.55632 Y34.05868
G01 X-60.52431 Y34.28020
G01 X-60.47232 Y34.55987
G01 X-60.41659 Y34.79696
G01 X-60.34512 Y35.05109
G01 X-60.27235 Y35.27283
G01 X-60.18258 Y35.51039
G01 X-60.09597 Y35.71679
G01 X-60.00928 Y35.90087
G01 X-59.88802 Y36.13594
G01 X-59.76638 Y36.34768
G01 X-59.61885 Y36.57917
G01 X-59.49155 Y36.76256
G01 X-59.32472 Y36.98009
G01 X-59.18891 Y37.14430
G01 X-59.03925 Y37.30993
G01 X-58.82574 Y37.52789
G01 X-58.66145 Y37.67991
G01 X-58.46801 Y37.84503
G01 X-58.23496 Y38.02596
G01 X-57.94207 Y38.22779
G01 X-57.70829 Y38.37059
G01 X-57.40484 Y38.53505
G01 X-57.25864 Y38.60566
G01 X-57.08228 Y38.68412
G01 X-56.82760 Y38.78699
G01 X-56.49018 Y38.90068
G01 X-56.21586 Y38.97747
G01 X-55.87825 Y39.05159
G01 X-55.57782 Y39.10043
G01 X-55.24525 Y39.13599
G01 X-55.08368 Y39.14600
G01 X-54.91140 Y39.15141
G01 X-54.60700 Y39.14988
G01 X-54.27205 Y39.12873
G01 X-53.98783 Y39.09591
G01 X-53.67627 Y39.04204
G01 X-53.37010 Y38.97427
G01 X-53.22362 Y38.93462
G01 X-53.05915 Y38.88433
G01 X-52.84747 Y38.81382
G01 X-52.66723 Y38.74694
G01 X-52.44465 Y38.65314
G01 X-52.44633 Y38.64508
G01 X-52.44465 Y38.65314
G01 X-52.15092 Y38.64709
G01 X-51.96698 Y38.63464
G01 X-51.74338 Y38.61166
G01 X-51.57191 Y38.58819
G01 X-51.38138 Y38.55494
G01 X-51.20216 Y38.51669
G01 X-51.03429 Y38.47452
G01 X-50.76129 Y38.39253
G01 X-50.57838 Y38.32997
G01 X-50.42654 Y38.27267
G01 X-50.14725 Y38.15207
G01 X-49.88469 Y38.01956
G01 X-49.69038 Y37.90892
G01 X-49.53439 Y37.81339
G01 X-49.38202 Y37.71219
G01 X-49.22530 Y37.59939
G01 X-49.07305 Y37.48065
G01 X-48.90168 Y37.33653
G01 X-48.75853 Y37.20696
G01 X-48.62761 Y37.07920
G01 X-48.49459 Y36.93925
G01 X-48.36709 Y36.79426
G01 X-48.23115 Y36.62931
G01 X-48.10829 Y36.46741
G01 X-48.00341 Y36.31753
G01 X-47.90407 Y36.16394
G01 X-47.78977 Y35.97166
G01 X-47.69734 Y35.80328
G01 X-47.59851 Y35.60407
G01 X-47.50092 Y35.38197
G01 X-47.40940 Y35.14585
G01 X-47.32942 Y34.90613
G01 X-47.26165 Y34.66267
G01 X-47.20501 Y34.41532
G01 X-47.16262 Y34.18548
G01 X-47.12990 Y33.94380
G01 X-47.11029 Y33.72109
G01 X-47.09785 Y33.43648
G01 X-47.09894 Y33.20275
G01 X-47.11095 Y32.96935
G01 X-47.13874 Y32.69605
G01 X-47.17037 Y32.47474
G01 X-47.21609 Y32.23517
G01 X-47.27082 Y32.00794
G01 X-47.35693 Y31.71515
G01 X-47.44070 Y31.47530
G01 X-47.54471 Y31.22143
G01 X-47.66241 Y30.97322
G01 X-47.78116 Y30.74863
G01 X-47.92205 Y30.51320
G01 X-48.06384 Y30.30240
G01 X-48.24367 Y30.06115
G01 X-49.29944 Y29.72570
G01 X-49.22738 Y29.74876
G01 X-49.00732 Y29.95562
G01 X-48.90127 Y30.06402
G01 X-48.79896 Y30.17594
G01 X-48.70046 Y30.29120
G01 X-48.60592 Y30.40974
G01 X-48.42716 Y30.65546
G01 X-48.27989 Y30.88523
G01 X-48.14684 Y31.12351
G01 X-48.01812 Y31.38757
G01 X-47.92043 Y31.62061
G01 X-47.83285 Y31.86841
G01 X-47.75035 Y32.15033
G01 X-47.69112 Y32.40639
G01 X-47.64692 Y32.66544
G01 X-47.61352 Y32.95729
G01 X-47.59894 Y33.20956
G01 X-47.59884 Y33.47237
G01 X-47.61413 Y33.75561
G01 X-47.64288 Y34.01685
G01 X-47.68487 Y34.26602
G01 X-47.74971 Y34.55327
G01 X-47.81931 Y34.79775
G01 X-47.90260 Y35.03790
G01 X-48.00610 Y35.29246
G01 X-48.11951 Y35.53125
G01 X-48.23648 Y35.74539
G01 X-48.38997 Y35.99591
G01 X-48.54057 Y36.21131
G01 X-48.70348 Y36.41753
G01 X-48.89035 Y36.63089
G01 X-49.07493 Y36.81796
G01 X-49.27011 Y36.99396
G01 X-49.50630 Y37.18509
G01 X-49.68682 Y37.31496
G01 X-49.87353 Y37.43576
G01 X-50.10153 Y37.56830
G01 X-50.29947 Y37.67071
G01 X-50.49291 Y37.75923
G01 X-50.69985 Y37.84204
G01 X-50.95941 Y37.93127
G01 X-51.17455 Y37.99449
G01 X-51.34272 Y38.03597
G01 X-51.50241 Y38.06906
G01 X-51.68334 Y38.09934
G01 X-51.85522 Y38.12116
G01 X-52.05898 Y38.14046
G01 X-52.24308 Y38.15052
G01 X-52.55496 Y38.15314
G01 X-52.55684 Y38.14473
G01 X-52.55496 Y38.15314
G01 X-52.57013 Y38.16038
G01 X-52.83157 Y38.27424
G01 X-53.00322 Y38.33861
G01 X-53.24470 Y38.41877
G01 X-53.41074 Y38.46784
G01 X-53.56863 Y38.50818
G01 X-53.71790 Y38.54077
G01 X-53.93751 Y38.58174
G01 X-54.20746 Y38.61996
G01 X-54.50030 Y38.64407
G01 X-54.74538 Y38.65286
G01 X-55.00068 Y38.64887
G01 X-55.26720 Y38.63233
G01 X-55.56176 Y38.59797
G01 X-55.79351 Y38.55870
G01 X-56.08201 Y38.49553
G01 X-56.31741 Y38.43071
G01 X-56.59770 Y38.33866
G01 X-56.81594 Y38.25420
G01 X-57.06765 Y38.14305
G01 X-57.29582 Y38.02809
G01 X-57.55310 Y37.88166
G01 X-57.74235 Y37.76033
G01 X-57.98350 Y37.59007
G01 X-58.16712 Y37.44501
G01 X-58.39739 Y37.24473
G01 X-58.56534 Y37.08176
G01 X-58.75419 Y36.88146
G01 X-58.88721 Y36.72627
G01 X-59.04487 Y36.52566
G01 X-59.16402 Y36.35959
G01 X-59.28142 Y36.18045
G01 X-59.38223 Y36.01550
G01 X-59.47110 Y35.85538
G01 X-59.58149 Y35.63760
G01 X-59.65782 Y35.47113
G01 X-59.72731 Y35.30168
G01 X-59.81614 Y35.06257
G01 X-59.87222 Y34.88736
G01 X-59.93526 Y34.66127
G01 X-59.98609 Y34.44225
G01 X-60.02881 Y34.21169
G01 X-60.05723 Y34.02048
G01 X-60.07656 Y33.83839
G01 X-60.09320 Y33.60499
G01 X-60.09889 Y33.42193
G01 X-60.09505 Y33.15739
G01 X-60.08505 Y32.96346
G01 X-60.06668 Y32.77017
G01 X-60.03303 Y32.51723
G01 X-59.99851 Y32.32615
G01 X-59.95043 Y32.10725
G01 X-59.90742 Y31.93971
G01 X-59.85177 Y31.75460
G01 X-59.77682 Y31.53293
G01 X-59.69935 Y31.33382
G01 X-59.59648 Y31.10093
G01 X-59.51583 Y30.93560
G01 X-59.39343 Y30.71172
G01 X-59.29955 Y30.55353
G01 X-59.28944 Y30.53735
G01 X-57.90283 Y30.18373
G01 X-57.05483 Y29.95607
G01 X-56.29191 Y29.74152
G01 X-55.80487 Y29.59918
G01 X-55.10342 Y29.38569
G01 X-54.68724 Y29.25569
G01 X-53.83327 Y28.97889
G01 X-53.43060 Y29.03050
G01 X-52.95141 Y29.11450
G01 X-52.69067 Y29.17251
G01 X-52.63700 Y29.17657
G01 X-52.39939 Y29.17657
G01 X-52.00856 Y29.18587
G01 X-51.30985 Y29.24576
G01 X-50.55093 Y29.37507
G01 X-49.76277 Y29.58010
G01 X-47.44100 Y30.31592
G01 X-47.45927 Y30.31012
G01 X-47.35840 Y30.48048
G01 X-47.27031 Y30.64172
G01 X-47.17385 Y30.83324
G01 X-47.09610 Y30.99971
G01 X-46.98268 Y31.27309
G01 X-46.87791 Y31.57159
G01 X-46.78093 Y31.90491
G01 X-46.73981 Y32.07347
G01 X-46.70600 Y32.23324
G01 X-46.65403 Y32.54532
G01 X-46.61400 Y32.91065
G01 X-46.60359 Y33.07364
G01 X-46.59782 Y33.24705
G01 X-46.60141 Y33.56341
G01 X-46.62383 Y33.90981
G01 X-46.64156 Y34.07214
G01 X-46.66567 Y34.24398
G01 X-46.72569 Y34.56498
G01 X-46.76912 Y34.75385
G01 X-46.81299 Y34.92129
G01 X-46.90976 Y35.23239
G01 X-47.02825 Y35.54702
G01 X-47.12924 Y35.78065
G01 X-47.24565 Y36.01842
G01 X-47.37334 Y36.25030
G01 X-47.52160 Y36.49469
G01 X-47.66427 Y36.70625
G01 X-47.82287 Y36.91900
G01 X-48.00455 Y37.13975
G01 X-48.16785 Y37.32233
G01 X-48.34641 Y37.50457
G01 X-48.54087 Y37.68512
G01 X-48.75121 Y37.86337
G01 X-48.96096 Y38.02588
G01 X-49.17831 Y38.17810
G01 X-49.38527 Y38.30917
G01 X-49.63226 Y38.45141
G01 X-49.86685 Y38.57229
G01 X-50.11633 Y38.68575
G01 X-50.38070 Y38.79014
G01 X-50.67932 Y38.89151
G01 X-50.95303 Y38.97023
G01 X-51.12111 Y39.01107
G01 X-51.29035 Y39.04661
G01 X-51.47064 Y39.07841
G01 X-51.64186 Y39.10292
G01 X-51.86484 Y39.12735
G01 X-52.04864 Y39.14211
G01 X-52.29428 Y39.15217
G01 X-52.33927 Y39.15283
G01 X-52.34048 Y39.14737
G01 X-52.33927 Y39.15283
G01 X-52.35717 Y39.16042
G01 X-52.58476 Y39.25062
G01 X-52.97104 Y39.38095
G01 X-53.26568 Y39.46357
G01 X-53.57447 Y39.53162
G01 X-53.82453 Y39.57671
G01 X-54.03563 Y39.60668
G01 X-54.24775 Y39.62844
G01 X-54.51058 Y39.64620
G01 X-54.72234 Y39.65265
G01 X-54.92412 Y39.65123
G01 X-55.15839 Y39.64285
G01 X-55.40245 Y39.62392
G01 X-55.61444 Y39.59982
G01 X-55.78427 Y39.57571
G01 X-55.96313 Y39.54442
G01 X-56.15150 Y39.50543
G01 X-56.46776 Y39.42822
G01 X-56.80812 Y39.32367
G01 X-56.96191 Y39.27033
G01 X-57.12353 Y39.20868
G01 X-57.45899 Y39.06385
G01 X-57.73918 Y38.92499
G01 X-58.03864 Y38.75654
G01 X-58.30252 Y38.58870
G01 X-58.48607 Y38.46137
G01 X-58.61705 Y38.36472
G01 X-58.85475 Y38.17323
G01 X-59.00110 Y38.04699
G01 X-59.13598 Y37.92309
G01 X-59.25952 Y37.80203
G01 X-59.40047 Y37.65565
G01 X-59.60882 Y37.42245
G01 X-59.84161 Y37.12995
G01 X-60.03381 Y36.85812
G01 X-60.22873 Y36.54877
G01 X-60.30943 Y36.40739
G01 X-60.39056 Y36.25464
G01 X-60.47737 Y36.08194
G01 X-60.55876 Y35.90658
G01 X-60.62629 Y35.74735
G01 X-60.70021 Y35.55807
G01 X-60.75865 Y35.39681
G01 X-60.81204 Y35.23384
G01 X-60.91301 Y34.87387
G01 X-60.98050 Y34.56851
G01 X-61.04250 Y34.19777
G01 X-61.06625 Y33.99569
G01 X-61.08311 Y33.79292
G01 X-61.09312 Y33.63044
G01 X-61.09848 Y33.45754
G01 X-61.09840 Y33.28459
G01 X-61.09178 Y33.05155
G01 X-61.08235 Y32.89038
G01 X-61.06610 Y32.70954
G01 X-61.03668 Y32.46859
G01 X-61.00186 Y32.24939
G01 X-60.96257 Y32.05147
G01 X-60.89815 Y31.77410
G01 X-60.86457 Y31.64944
G01 X-60.76556 Y31.53824
G01 X-61.53165 Y32.39790
G01 X-61.56150 Y32.64014
G01 X-61.57948 Y32.83349
G01 X-61.59119 Y33.02732
G01 X-61.59825 Y33.27187
G01 X-61.59856 Y33.45500
G01 X-61.59282 Y33.64824
G01 X-61.56084 Y34.07430
G01 X-61.53777 Y34.26625
G01 X-61.50684 Y34.46737
G01 X-61.46467 Y34.69797
G01 X-61.41931 Y34.90775
G01 X-61.37181 Y35.09604
G01 X-61.30496 Y35.33168
G01 X-61.24275 Y35.52637
G01 X-61.17755 Y35.70928
G01 X-61.08890 Y35.93709
G01 X-61.00915 Y36.12429
G01 X-60.92307 Y36.30869
G01 X-60.81286 Y36.52655
G01 X-60.71070 Y36.71420
G01 X-60.61255 Y36.88075
G01 X-60.47608 Y37.09553
G01 X-60.37331 Y37.24811
G01 X-60.24756 Y37.42202
G01 X-60.10354 Y37.60737
G01 X-59.99353 Y37.74183
G01 X-59.87285 Y37.88070
G01 X-59.74799 Y38.01577
G01 X-59.57057 Y38.19809
G01 X-59.42358 Y38.33881
G01 X-59.26419 Y38.48110
G01 X-59.08538 Y38.63200
G01 X-58.92569 Y38.75814
G01 X-58.76183 Y38.87879
G01 X-58.56059 Y39.01770
G01 X-58.39757 Y39.12319
G01 X-58.22236 Y39.22847
G01 X-58.01751 Y39.34305
G01 X-57.83618 Y39.43741
G01 X-57.65175 Y39.52552
G01 X-57.44662 Y39.61605
G01 X-57.12488 Y39.74308
G01 X-56.95175 Y39.80277
G01 X-56.71894 Y39.87630
G01 X-56.54264 Y39.92590
G01 X-56.37482 Y39.96781
G01 X-55.98554 Y40.04879
G01 X-55.80398 Y40.07848
G01 X-55.62161 Y40.10261
G01 X-55.40037 Y40.12639
G01 X-55.21947 Y40.14013
G01 X-55.02816 Y40.14869
G01 X-54.79377 Y40.15298
G01 X-54.51790 Y40.14709
G01 X-54.19306 Y40.12560
G01 X-53.93197 Y40.09756
G01 X-53.65247 Y40.05461
G01 X-53.28427 Y39.98191
G01 X-53.10683 Y39.93909
G01 X-52.94048 Y39.89370
G01 X-52.76583 Y39.84043
G01 X-52.51539 Y39.75705
G01 X-52.28730 Y39.67203
G01 X-52.23477 Y39.65092
G01 X-52.23571 Y39.64650
G01 X-52.23477 Y39.65092
G01 X-52.17140 Y39.64889
G01 X-51.92593 Y39.63462
G01 X-51.69174 Y39.61219
G01 X-51.51016 Y39.58979
G01 X-51.32934 Y39.56185
G01 X-51.13945 Y39.52639
G01 X-50.97061 Y39.48951
G01 X-50.78329 Y39.44254
G01 X-50.46182 Y39.34673
G01 X-50.24029 Y39.27107
G01 X-50.05969 Y39.20292
G01 X-49.89071 Y39.13304
G01 X-49.72393 Y39.05804
G01 X-49.56858 Y38.98257
G01 X-49.38870 Y38.88809
G01 X-49.19424 Y38.77721
G01 X-49.03808 Y38.68265
G01 X-48.88487 Y38.58339
G01 X-48.72650 Y38.47358
G01 X-48.57979 Y38.36492
G01 X-48.43645 Y38.25187
G01 X-48.26518 Y38.10815
G01 X-48.12878 Y37.98682
G01 X-48.00341 Y37.86845
G01 X-47.87443 Y37.73924
G01 X-47.74943 Y37.60617
G01 X-47.62856 Y37.46937
G01 X-47.49808 Y37.31349
G01 X-47.38502 Y37.17016
G01 X-47.27636 Y37.02345
G01 X-47.16092 Y36.85664
G01 X-47.06191 Y36.70325
G01 X-46.97273 Y36.55571
G01 X-46.86694 Y36.37054
G01 X-46.77700 Y36.20036
G01 X-46.69254 Y36.02736
G01 X-46.62173 Y35.87036
G01 X-46.55170 Y35.70199
G01 X-46.47524 Y35.50300
G01 X-46.40580 Y35.30191
G01 X-46.34352 Y35.09848
G01 X-46.28848 Y34.89297
G01 X-46.23801 Y34.67532
G01 X-46.19805 Y34.47644
G01 X-46.16483 Y34.27633
G01 X-46.13841 Y34.07522
G01 X-46.11962 Y33.88342
G01 X-46.10435 Y33.64006
G01 X-46.09810 Y33.45759
G01 X-46.09780 Y33.24461
G01 X-46.10456 Y33.04187
G01 X-46.11817 Y32.83948
G01 X-46.13742 Y32.64776
G01 X-46.16742 Y32.41596
G01 X-46.20412 Y32.19587
G01 X-46.24895 Y31.97730
G01 X-46.30189 Y31.76054
G01 X-46.36872 Y31.52602
G01 X-46.43328 Y31.32308
G01 X-46.50501 Y31.12252
G01 X-46.58774 Y30.91531
G01 X-46.67385 Y30.72049
G01 X-46.76549 Y30.53110
G01 X-47.44100 Y30.31592
G01 X-44.52092 Y31.24421
G01 X-46.12467 Y30.73377
G01 X-45.51136 Y30.92905
G01 X-45.44024 Y31.14302
G01 X-45.36488 Y31.39585
G01 X-45.30552 Y31.62112
G01 X-45.25368 Y31.84820
G01 X-45.21297 Y32.05696
G01 X-45.17715 Y32.27687
G01 X-45.14339 Y32.53857
G01 X-45.12048 Y32.77037
G01 X-45.10631 Y32.98259
G01 X-45.09859 Y33.19513
G01 X-45.09732 Y33.40781
G01 X-45.10253 Y33.62043
G01 X-45.11540 Y33.86369
G01 X-45.13290 Y34.07565
G01 X-45.15813 Y34.29704
G01 X-45.18876 Y34.50750
G01 X-45.22579 Y34.71695
G01 X-45.26694 Y34.91527
G01 X-45.32267 Y35.15274
G01 X-45.38061 Y35.36833
G01 X-45.44230 Y35.57229
G01 X-45.51017 Y35.77427
G01 X-45.58416 Y35.97412
G01 X-45.67527 Y36.20033
G01 X-45.80390 Y36.48738
G01 X-45.94530 Y36.76835
G01 X-46.11469 Y37.06934
G01 X-46.27964 Y37.33648
G01 X-46.46229 Y37.60419
G01 X-46.64461 Y37.84722
G01 X-46.87026 Y38.12126
G01 X-47.06607 Y38.34018
G01 X-47.28533 Y38.56490
G01 X-47.51443 Y38.77955
G01 X-47.77638 Y39.00383
G01 X-48.01514 Y39.19172
G01 X-48.26183 Y39.36909
G01 X-48.51598 Y39.53556
G01 X-48.81281 Y39.71191
G01 X-49.08139 Y39.85669
G01 X-49.42091 Y40.01892
G01 X-49.75918 Y40.15903
G01 X-49.95012 Y40.22915
G01 X-50.16236 Y40.30088
G01 X-50.49307 Y40.39994
G01 X-50.68974 Y40.45057
G01 X-50.87788 Y40.49334
G01 X-51.06711 Y40.53091
G01 X-51.25733 Y40.56327
G01 X-51.47854 Y40.59415
G01 X-51.70094 Y40.61844
G01 X-51.93246 Y40.63769
G01 X-52.02662 Y40.64330
G01 X-52.02718 Y40.64053
G01 X-52.02662 Y40.64330
G01 X-52.05908 Y40.65547
G01 X-52.25059 Y40.72346
G01 X-52.61831 Y40.84135
G01 X-52.90254 Y40.91894
G01 X-53.20975 Y40.98856
G01 X-53.51925 Y41.04645
G01 X-53.76989 Y41.08480
G01 X-54.03185 Y41.11503
G01 X-54.32524 Y41.13792
G01 X-54.56776 Y41.14963
G01 X-54.81053 Y41.15293
G01 X-55.11513 Y41.14635
G01 X-55.34977 Y41.13367
G01 X-55.62448 Y41.10878
G01 X-55.98638 Y41.06227
G01 X-56.26544 Y41.01371
G01 X-56.60299 Y40.94140
G01 X-56.91815 Y40.85976
G01 X-57.24865 Y40.75775
G01 X-57.51772 Y40.66413
G01 X-57.77334 Y40.56355
G01 X-58.08944 Y40.42491
G01 X-58.34421 Y40.30109
G01 X-58.65594 Y40.13238
G01 X-58.90847 Y39.98305
G01 X-59.15452 Y39.82326
G01 X-59.45355 Y39.61232
G01 X-59.68688 Y39.43172
G01 X-59.92830 Y39.22883
G01 X-60.14735 Y39.03114
G01 X-60.35784 Y38.82438
G01 X-60.59452 Y38.57363
G01 X-60.79973 Y38.33647
G01 X-61.00143 Y38.08278
G01 X-61.17516 Y37.84636
G01 X-61.37742 Y37.54300
G01 X-61.52683 Y37.30043
G01 X-61.66622 Y37.05200
G01 X-61.82340 Y36.74387
G01 X-61.94288 Y36.48525
G01 X-62.05174 Y36.22200
G01 X-62.16203 Y35.92782
G01 X-62.25068 Y35.65878
G01 X-62.34758 Y35.31784
G01 X-62.42065 Y35.01286
G01 X-62.49276 Y34.63447
G01 X-62.54138 Y34.30227
G01 X-62.56213 Y34.11007
G01 X-62.57872 Y33.90727
G01 X-62.59606 Y33.57870
G01 X-62.09132 Y33.02010
G01 X-62.09889 Y33.32018
G01 X-62.09629 Y33.56435
G01 X-62.08522 Y33.79810
G01 X-62.05954 Y34.11243
G01 X-62.02886 Y34.36493
G01 X-61.99012 Y34.60603
G01 X-61.93658 Y34.88560
G01 X-61.87135 Y35.16262
G01 X-61.79241 Y35.44664
G01 X-61.71560 Y35.68885
G01 X-61.62939 Y35.92789
G01 X-61.50846 Y36.23013
G01 X-61.39972 Y36.47128
G01 X-61.25853 Y36.75327
G01 X-61.13160 Y36.98537
G01 X-61.00079 Y37.20351
G01 X-60.84037 Y37.45095
G01 X-60.69434 Y37.65890
G01 X-60.50252 Y37.90892
G01 X-60.34761 Y38.09736
G01 X-60.17194 Y38.29477
G01 X-59.95363 Y38.52222
G01 X-59.77062 Y38.69888
G01 X-59.57311 Y38.87485
G01 X-59.36242 Y39.05108
G01 X-59.15299 Y39.21272
G01 X-58.88708 Y39.40045
G01 X-58.67453 Y39.53970
G01 X-58.44786 Y39.67556
G01 X-58.16272 Y39.83210
G01 X-57.93514 Y39.94516
G01 X-57.66615 Y40.06588
G01 X-57.48764 Y40.14005
G01 X-57.30700 Y40.20889
G01 X-57.13402 Y40.26911
G01 X-56.91119 Y40.34051
G01 X-56.57792 Y40.43309
G01 X-56.19064 Y40.51884
G01 X-55.83994 Y40.57848
G01 X-55.44635 Y40.62425
G01 X-55.10192 Y40.64650
G01 X-54.71579 Y40.65262
G01 X-54.43136 Y40.64340
G01 X-54.11666 Y40.62080
G01 X-53.85331 Y40.59151
G01 X-53.60139 Y40.55326
G01 X-53.21097 Y40.47782
G01 X-53.03197 Y40.43591
G01 X-52.85428 Y40.38897
G01 X-52.65847 Y40.33093
G01 X-52.41625 Y40.25168
G01 X-52.19515 Y40.17251
G01 X-52.13043 Y40.14765
G01 X-52.13139 Y40.14376
G01 X-52.13043 Y40.14765
G01 X-52.10993 Y40.14678
G01 X-51.88501 Y40.13294
G01 X-51.51953 Y40.09540
G01 X-51.22819 Y40.05179
G01 X-50.91925 Y39.99062
G01 X-50.61367 Y39.91458
G01 X-50.32174 Y39.82697
G01 X-50.00440 Y39.71719
G01 X-49.69307 Y39.59230
G01 X-49.41598 Y39.46497
G01 X-49.13625 Y39.31989
G01 X-48.84560 Y39.15141
G01 X-48.57161 Y38.97518
G01 X-48.32307 Y38.79769
G01 X-48.07529 Y38.60223
G01 X-47.81321 Y38.37572
G01 X-47.58487 Y38.15786
G01 X-47.36056 Y37.92164
G01 X-47.14771 Y37.67465
G01 X-46.95226 Y37.42687
G01 X-46.76905 Y37.16990
G01 X-46.65756 Y36.99952
G01 X-46.55147 Y36.82571
G01 X-46.43476 Y36.62223
G01 X-46.32985 Y36.42408
G01 X-46.24045 Y36.24090
G01 X-46.16087 Y36.06437
G01 X-46.08284 Y35.87605
G01 X-45.99920 Y35.65690
G01 X-45.93280 Y35.46419
G01 X-45.87250 Y35.26947
G01 X-45.82089 Y35.08286
G01 X-45.77034 Y34.87489
G01 X-45.72721 Y34.67562
G01 X-45.68685 Y34.45530
G01 X-45.65541 Y34.24382
G01 X-45.63095 Y34.03143
G01 X-45.61416 Y33.82851
G01 X-45.60148 Y33.58424
G01 X-45.59706 Y33.37049
G01 X-45.59940 Y33.16686
G01 X-45.60870 Y32.95327
G01 X-45.62409 Y32.75023
G01 X-45.65071 Y32.50710
G01 X-45.67540 Y32.32551
G01 X-45.71068 Y32.11464
G01 X-45.75068 Y31.91497
G01 X-45.79450 Y31.72656
G01 X-45.84662 Y31.52973
G01 X-45.91649 Y31.29531
G01 X-45.98391 Y31.09242
G01 X-46.06907 Y30.86341
G01 X-46.12124 Y30.73486
G01 X-46.12467 Y30.73377
G01 X-44.92592 Y31.11543
G01 X-44.86397 Y31.33146
G01 X-44.80639 Y31.55800
G01 X-44.75589 Y31.78622
G01 X-44.71601 Y31.99587
G01 X-44.67921 Y32.22668
G01 X-44.64464 Y32.49925
G01 X-44.62366 Y32.71162
G01 X-44.60872 Y32.92450
G01 X-44.59907 Y33.16821
G01 X-44.59719 Y33.39178
G01 X-44.60161 Y33.60514
G01 X-44.61408 Y33.85924
G01 X-44.63128 Y34.08215
G01 X-44.65510 Y34.30445
G01 X-44.68556 Y34.52594
G01 X-44.72442 Y34.75642
G01 X-44.76831 Y34.97565
G01 X-44.82523 Y35.22409
G01 X-44.87903 Y35.43140
G01 X-44.94472 Y35.65657
G01 X-45.01411 Y35.86993
G01 X-45.08985 Y36.08113
G01 X-45.17918 Y36.30917
G01 X-45.27098 Y36.52502
G01 X-45.36951 Y36.73790
G01 X-45.47461 Y36.94758
G01 X-45.58624 Y37.15388
G01 X-45.70900 Y37.36558
G01 X-45.83725 Y37.57303
G01 X-45.95495 Y37.75105
G01 X-46.08363 Y37.93388
G01 X-46.21149 Y38.10475
G01 X-46.37646 Y38.31115
G01 X-46.58154 Y38.55072
G01 X-46.76765 Y38.75235
G01 X-46.95373 Y38.93993
G01 X-47.16137 Y39.13449
G01 X-47.39201 Y39.33439
G01 X-47.60506 Y39.50729
G01 X-47.81606 Y39.66632
G01 X-48.03254 Y39.81780
G01 X-48.27148 Y39.97231
G01 X-48.55152 Y40.13850
G01 X-48.78362 Y40.26553
G01 X-49.02002 Y40.38427
G01 X-49.26980 Y40.49870
G01 X-49.52362 Y40.60391
G01 X-49.78110 Y40.69974
G01 X-50.03190 Y40.78422
G01 X-50.23566 Y40.84681
G01 X-50.47059 Y40.91120
G01 X-50.69759 Y40.96573
G01 X-51.00597 Y41.02799
G01 X-51.30670 Y41.07589
G01 X-51.66995 Y41.11780
G01 X-51.88153 Y41.13538
G01 X-51.92278 Y41.13809
G01 X-51.92344 Y41.13512
G01 X-51.92278 Y41.13809
G01 X-52.05618 Y41.18541
G01 X-52.34498 Y41.28061
G01 X-52.55819 Y41.34447
G01 X-52.77317 Y41.40195
G01 X-52.97007 Y41.44869
G01 X-53.18798 Y41.49392
G01 X-53.44846 Y41.54160
G01 X-53.68079 Y41.57729
G01 X-53.98531 Y41.61285
G01 X-54.31099 Y41.63802
G01 X-54.58666 Y41.65036
G01 X-54.85237 Y41.65265
G01 X-55.16750 Y41.64465
G01 X-55.45026 Y41.62753
G01 X-55.79293 Y41.59275
G01 X-56.05160 Y41.55808
G01 X-54.74012 Y42.15280
G01 X-54.39773 Y42.14360
G01 X-54.00187 Y42.11648
G01 X-53.65803 Y42.07871
G01 X-53.32616 Y42.02788
G01 X-52.92656 Y41.95097
G01 X-52.56045 Y41.86344
G01 X-52.20853 Y41.76184
G01 X-51.93784 Y41.67332
G01 X-51.81963 Y41.62994
G01 X-51.70955 Y41.62351
G01 X-51.46713 Y41.59951
G01 X-51.10503 Y41.55158
G01 X-50.76541 Y41.49118
G01 X-50.40899 Y41.41132
G01 X-50.10528 Y41.32958
G01 X-49.80501 Y41.23599
G01 X-49.47806 Y41.12179
G01 X-49.15637 Y40.99410
G01 X-48.96056 Y40.90833
G01 X-48.78540 Y40.82623
G01 X-48.59419 Y40.73060
G01 X-48.41453 Y40.63482
G01 X-48.02713 Y40.40906
G01 X-47.84641 Y40.29436
G01 X-47.68560 Y40.18643
G01 X-47.51098 Y40.06266
G01 X-47.33971 Y39.93426
G01 X-47.17984 Y39.80774
G01 X-47.01520 Y39.67069
G01 X-46.71830 Y39.40637
G01 X-46.43491 Y39.12763
G01 X-46.25383 Y38.93414
G01 X-46.07268 Y38.72697
G01 X-45.88477 Y38.49855
G01 X-45.71139 Y38.27186
G01 X-45.56351 Y38.06434
G01 X-45.40585 Y37.82647
G01 X-45.27230 Y37.60942
G01 X-45.12516 Y37.35360
G01 X-44.99193 Y37.10226
G01 X-44.87202 Y36.85558
G01 X-44.76064 Y36.60491
G01 X-44.66125 Y36.35985
G01 X-44.56567 Y36.10275
G01 X-44.47896 Y35.84252
G01 X-44.40667 Y35.59907
G01 X-44.33733 Y35.33369
G01 X-44.27200 Y35.04565
G01 X-44.21807 Y34.76539
G01 X-44.17418 Y34.48340
G01 X-44.13834 Y34.17974
G01 X-44.11475 Y33.88510
G01 X-44.10024 Y33.56925
G01 X-44.09735 Y33.27367
G01 X-44.10492 Y32.98838
G01 X-44.13143 Y32.60199
G01 X-44.17990 Y32.18673
G01 X-44.24269 Y31.80456
G01 X-44.32389 Y31.42587
G01 X-44.35620 Y31.29608
G01 X-44.52092 Y31.24421
G01 X-43.25508 Y31.64540
G01 X-43.80034 Y31.47192
G01 X-43.74477 Y31.74708
G01 X-43.69481 Y32.04741
G01 X-43.65295 Y32.36986
G01 X-43.62351 Y32.67286
G01 X-43.60494 Y32.97674
G01 X-43.59755 Y33.25063
G01 X-43.59946 Y33.54494
G01 X-43.61134 Y33.83940
G01 X-43.63098 Y34.12287
G01 X-43.66006 Y34.40552
G01 X-43.69859 Y34.68705
G01 X-43.74650 Y34.96714
G01 X-43.80375 Y35.24545
G01 X-43.88137 Y35.57102
G01 X-43.95688 Y35.84425
G01 X-44.04464 Y36.12444
G01 X-44.18513 Y36.51504
G01 X-44.26781 Y36.72235
G01 X-44.35541 Y36.92713
G01 X-44.44835 Y37.12957
G01 X-44.53743 Y37.31143
G01 X-44.73341 Y37.67732
G01 X-44.95160 Y38.04364
G01 X-45.06712 Y38.22271
G01 X-45.18708 Y38.39886
G01 X-45.31144 Y38.57193
G01 X-45.44631 Y38.74983
G01 X-45.57939 Y38.91631
G01 X-45.72310 Y39.08773
G01 X-45.89079 Y39.27810
G01 X-46.05002 Y39.44877
G01 X-46.22112 Y39.62212
G01 X-46.40453 Y39.79741
G01 X-46.59310 Y39.96713
G01 X-46.78670 Y40.13177
G01 X-46.97611 Y40.28486
G01 X-47.16168 Y40.42644
G01 X-47.36772 Y40.57447
G01 X-47.56960 Y40.71074
G01 X-47.78395 Y40.84648
G01 X-48.01133 Y40.98140
G01 X-48.21568 Y41.09588
G01 X-48.42309 Y41.20472
G01 X-48.65185 Y41.31645
G01 X-48.86518 Y41.41318
G01 X-49.24224 Y41.56725
G01 X-49.63602 Y41.70667
G01 X-49.98466 Y41.81518
G01 X-50.34747 Y41.91099
G01 X-50.68433 Y41.98483
G01 X-51.02388 Y42.04495
G01 X-51.36561 Y42.09125
G01 X-51.61818 Y42.11734
G01 X-51.71603 Y42.12382
G01 X-51.96495 Y42.20883
G01 X-52.20696 Y42.28386
G01 X-52.44127 Y42.34909
G01 X-52.69713 Y42.41216
G01 X-52.95481 Y42.46725
G01 X-53.26405 Y42.52455
G01 X-53.52443 Y42.56514
G01 X-53.76245 Y42.59504
G01 X-52.92715 Y42.97114
G01 X-52.59370 Y42.90141
G01 X-52.26754 Y42.82026
G01 X-51.94463 Y42.72699
G01 X-51.61257 Y42.61701
G01 X-51.25408 Y42.58155
G01 X-50.89266 Y42.53034
G01 X-50.51377 Y42.46044
G01 X-50.15789 Y42.37932
G01 X-49.83477 Y42.29232
G01 X-49.53439 Y42.19971
G01 X-49.19729 Y42.08396
G01 X-48.86462 Y41.95569
G01 X-48.48174 Y41.78884
G01 X-48.10702 Y41.60439
G01 X-47.75888 Y41.41297
G01 X-47.38428 Y41.18625
G01 X-47.05449 Y40.96555
G01 X-46.72668 Y40.72430
G01 X-46.55114 Y40.58536
G01 X-46.37875 Y40.44208
G01 X-46.08873 Y40.18636
G01 X-45.88220 Y39.99006
G01 X-45.68200 Y39.78735
G01 X-45.48149 Y39.57081
G01 X-45.30786 Y39.37119
G01 X-45.11355 Y39.13538
G01 X-44.93344 Y38.90162
G01 X-44.75528 Y38.65372
G01 X-44.59669 Y38.41702
G01 X-44.44040 Y38.16670
G01 X-44.28155 Y37.89396
G01 X-44.15064 Y37.65266
G01 X-44.01828 Y37.38913
G01 X-43.89463 Y37.12144
G01 X-43.78363 Y36.85924
G01 X-43.66948 Y36.56513
G01 X-43.57177 Y36.28690
G01 X-43.48902 Y36.02512
G01 X-43.40908 Y35.74128
G01 X-43.33850 Y35.45497
G01 X-43.26994 Y35.13638
G01 X-43.22087 Y34.86605
G01 X-43.17738 Y34.57418
G01 X-43.14350 Y34.28103
G01 X-43.12059 Y34.00725
G01 X-43.10423 Y33.70212
G01 X-43.09737 Y33.41728
G01 X-43.09953 Y33.13237
G01 X-43.11127 Y32.83750
G01 X-43.13451 Y32.52290
G01 X-43.16981 Y32.19892
G01 X-43.20891 Y31.91670
G01 X-43.25508 Y31.64540
G01 X-42.91221 Y31.75452
G01 X-42.71028 Y31.86976
G01 X-42.65552 Y32.29087
G01 X-42.62135 Y32.66437
G01 X-42.60131 Y33.05919
G01 X-42.59763 Y33.44436
G04 P0 ( dwell for no time -- G64 should not smooth over this point )
G00 Z1.00000 ( retract )

G00 X-43.88173 Y29.29186 ( rapid move to begin. )
G01 F20.00000
( Mill infeed pass 1/1 )
G01 Z-0.30000
G04 P0 ( dwell for no time -- G64 should not smooth over this point )
G01 F30.00000
G01 X-43.88173 Y29.29186
G01 X-43.61950 Y29.73197
G01 X-43.34370 Y29.63296
G01 X-43.08914 Y29.53052
G01 X-42.82930 Y29.41457
G01 X-42.57406 Y29.28882
G01 X-42.23504 Y29.10474
G01 X-41.91467 Y28.90934
G01 X-41.74571 Y28.79712
G01 X-41.57929 Y28.68046
G01 X-41.27182 Y28.44813
G01 X-40.97670 Y28.20030
G01 X-40.69382 Y27.93799
G01 X-40.43802 Y27.67749
G01 X-40.18211 Y27.38935
G01 X-39.97112 Y27.12905
G01 X-39.78328 Y26.87696
G01 X-39.60617 Y26.61719
G01 X-39.42918 Y26.33266
G01 X-39.27853 Y26.06830
G01 X-39.12982 Y25.77986
G01 X-39.00592 Y25.51311
G01 X-38.87627 Y25.20414
G01 X-38.76368 Y24.89977
G01 X-38.66726 Y24.60053
G01 X-38.57742 Y24.27773
G01 X-38.50556 Y23.97166
G01 X-38.44661 Y23.66282
G01 X-38.39896 Y23.34151
G01 X-38.36573 Y23.03963
G01 X-38.34427 Y22.72652
G01 X-38.33584 Y22.38243
G01 X-38.33513 Y19.51556
G01 X-38.33835 Y19.30392
G01 X-38.35682 Y18.95091
G01 X-38.38456 Y18.64792
G01 X-38.42766 Y18.32625
G01 X-38.48463 Y18.00675
G01 X-38.53330 Y17.77835
G01 X-38.58854 Y17.55193
G01 X-38.64511 Y17.34678
G01 X-38.71371 Y17.12404
G01 X-38.78237 Y16.92265
G01 X-38.86040 Y16.71381
G01 X-38.96416 Y16.45971
G01 X-39.05016 Y16.26387
G01 X-39.14620 Y16.06141
G01 X-39.25303 Y15.85293
G01 X-39.36632 Y15.64787
G01 X-39.48595 Y15.44645
G01 X-39.64567 Y15.19799
G01 X-39.82105 Y14.94777
G01 X-39.90012 Y14.84018
G01 X-39.92314 Y14.84739
G01 X-39.90012 Y14.84018
G01 X-39.90045 Y5.72884
G01 X-39.91059 Y5.40380
G01 X-39.93726 Y5.04858
G01 X-39.97480 Y4.72440
G01 X-40.02458 Y4.41221
G01 X-40.08524 Y4.11234
G01 X-40.16494 Y3.78610
G01 X-40.25191 Y3.48397
G01 X-40.34805 Y3.19529
G01 X-40.47096 Y2.87241
G01 X-40.58671 Y2.60025
G01 X-40.71765 Y2.32374
G01 X-40.86964 Y2.03495
G01 X-41.03863 Y1.74374
G01 X-41.19672 Y1.49380
G01 X-41.36453 Y1.25026
G01 X-41.55440 Y0.99748
G01 X-41.75989 Y0.74549
G01 X-41.95379 Y0.52563
G01 X-42.12064 Y0.34950
G01 X-42.46956 Y0.00000
G01 X-41.76314 Y0.00000
G01 X-41.53162 Y0.24679
G01 X-41.32008 Y0.49187
G01 X-41.09834 Y0.76982
G01 X-40.90043 Y1.04041
G01 X-40.77485 Y1.22530
G01 X-40.66522 Y1.39637
G01 X-40.44323 Y1.77297
G01 X-40.34175 Y1.96065
G01 X-40.24981 Y2.14183
G01 X-40.15824 Y2.33454
G01 X-40.07985 Y2.51092
G01 X-40.00198 Y2.69860
G01 X-39.91712 Y2.91747
G01 X-39.84498 Y3.11942
G01 X-39.78440 Y3.30370
G01 X-39.72547 Y3.49931
G01 X-39.66901 Y3.70619
G01 X-39.61310 Y3.93398
G01 X-39.56748 Y4.14238
G01 X-39.49911 Y4.52232
G01 X-39.45021 Y4.89499
G01 X-39.41508 Y5.31101
G01 X-39.40091 Y5.68785
G01 X-39.40012 Y14.67642
G01 X-39.42182 Y14.68303
G01 X-39.40012 Y14.67642
G01 X-39.32865 Y14.77648
G01 X-39.15799 Y15.02941
G01 X-38.99708 Y15.28867
G01 X-38.88542 Y15.48260
G01 X-38.76987 Y15.69761
G01 X-38.66533 Y15.90690
G01 X-38.56281 Y16.12842
G01 X-38.45522 Y16.38145
G01 X-38.37628 Y16.57947
G01 X-38.29924 Y16.78912
G01 X-38.22502 Y17.01048
G01 X-38.15728 Y17.23393
G01 X-38.09860 Y17.44942
G01 X-38.04597 Y17.66646
G01 X-37.99502 Y17.90535
G01 X-37.93396 Y18.24713
G01 X-37.88893 Y18.58109
G01 X-37.85946 Y18.89628
G01 X-37.83942 Y19.26181
G01 X-37.83513 Y19.52577
G01 X-37.83754 Y22.53552
G01 X-37.84968 Y22.84105
G01 X-37.87155 Y23.12563
G01 X-37.90094 Y23.38903
G01 X-37.94630 Y23.70229
G01 X-37.99550 Y23.97359
G01 X-38.05870 Y24.26289
G01 X-38.12446 Y24.52014
G01 X-38.20973 Y24.81448
G01 X-38.29573 Y25.07643
G01 X-38.39441 Y25.34481
G01 X-38.49858 Y25.60005
G01 X-38.63213 Y25.89842
G01 X-38.75397 Y26.14577
G01 X-38.88423 Y26.38872
G01 X-39.01752 Y26.61839
G01 X-39.17963 Y26.87843
G01 X-39.29880 Y27.05674
G01 X-39.42268 Y27.23177
G01 X-39.54501 Y27.39535
G01 X-39.67787 Y27.56365
G01 X-39.82778 Y27.74460
G01 X-39.96908 Y27.90591
G01 X-40.11465 Y28.06339
G01 X-40.27162 Y28.22410
G01 X-40.42562 Y28.37335
G01 X-40.59827 Y28.53273
G01 X-40.75968 Y28.67393
G01 X-40.93279 Y28.81716
G01 X-41.10982 Y28.95547
G01 X-41.28237 Y29.08280
G01 X-41.47485 Y29.21759
G01 X-41.64508 Y29.33042
G01 X-41.84434 Y29.45475
G01 X-42.05608 Y29.57820
G01 X-42.25338 Y29.68561
G01 X-42.48970 Y29.80614
G01 X-42.70164 Y29.90637
G01 X-42.90703 Y29.99638
G01 X-43.13385 Y30.08798
G01 X-43.35516 Y30.16969
G01 X-43.61950 Y29.73197
G01 X-43.08759 Y30.60476
G01 X-42.79555 Y30.49148
G01 X-42.49743 Y30.36275
G01 X-42.21350 Y30.22727
G01 X-41.90677 Y30.06710
G01 X-41.63253 Y29.91071
G01 X-41.37284 Y29.74980
G01 X-41.11909 Y29.57965
G01 X-40.84632 Y29.38300
G01 X-40.59733 Y29.18894
G01 X-40.36337 Y28.99247
G01 X-40.11414 Y28.76672
G01 X-39.89464 Y28.55422
G01 X-39.68293 Y28.33395
G01 X-39.47927 Y28.10624
G01 X-39.27084 Y27.85547
G01 X-39.07739 Y27.60599
G01 X-38.89332 Y27.34950
G01 X-38.71892 Y27.08636
G01 X-38.53828 Y26.79073
G01 X-38.38839 Y26.52451
G01 X-38.24816 Y26.25306
G01 X-38.11778 Y25.97678
G01 X-37.98880 Y25.67729
G01 X-37.87440 Y25.38306
G01 X-37.77099 Y25.08479
G01 X-37.68435 Y24.80244
G01 X-37.59904 Y24.48773
G01 X-37.52759 Y24.18022
G01 X-37.46937 Y23.88032
G01 X-37.42339 Y23.58857
G01 X-37.38098 Y23.24527
G01 X-37.35436 Y22.93125
G01 X-37.34102 Y22.66729
G01 X-37.33592 Y22.40303
G01 X-37.33780 Y19.31126
G01 X-37.35360 Y18.96415
G01 X-37.38408 Y18.59851
G01 X-37.42710 Y18.25498
G01 X-37.48222 Y17.92346
G01 X-37.53455 Y17.66377
G01 X-37.58664 Y17.43580
G01 X-37.64765 Y17.19953
G01 X-37.70953 Y16.98455
G01 X-37.78344 Y16.75201
G01 X-37.86401 Y16.52166
G01 X-37.94740 Y16.30317
G01 X-38.04420 Y16.06779
G01 X-38.14653 Y15.83538
G01 X-38.24679 Y15.62433
G01 X-38.35756 Y15.40713
G01 X-38.48451 Y15.17553
G01 X-38.65055 Y14.89608
G01 X-38.81016 Y14.64848
G01 X-38.90015 Y14.51676
G01 X-38.92042 Y14.52273
G01 X-38.90015 Y14.51676
G01 X-38.90053 Y5.71823
G01 X-38.91097 Y5.37091
G01 X-38.93632 Y5.01416
G01 X-38.97048 Y4.69199
G01 X-39.01526 Y4.38135
G01 X-39.06947 Y4.08249
G01 X-39.13200 Y3.79562
G01 X-39.20912 Y3.48963
G01 X-39.29418 Y3.19621
G01 X-39.38638 Y2.91564
G01 X-39.49197 Y2.62895
G01 X-39.61023 Y2.33749
G01 X-39.73863 Y2.05110
G01 X-39.86825 Y1.78765
G01 X-40.01183 Y1.51999
G01 X-40.18021 Y1.23081
G01 X-40.34747 Y0.96523
G01 X-40.51272 Y0.72253
G01 X-40.69237 Y0.47762
G01 X-40.89370 Y0.22322
G01 X-41.08224 Y0.00000
G01 X-40.43108 Y0.00000
G01 X-40.26063 Y0.21961
G01 X-40.10490 Y0.43327
G01 X-39.94429 Y0.66835
G01 X-39.79654 Y0.89974
G01 X-39.56990 Y1.28585
G01 X-39.37526 Y1.65451
G01 X-39.27792 Y1.85593
G01 X-39.18969 Y2.05039
G01 X-39.02687 Y2.44544
G01 X-38.88809 Y2.82735
G01 X-38.76109 Y3.23461
G01 X-38.70231 Y3.45031
G01 X-38.64851 Y3.66761
G01 X-38.56152 Y4.07530
G01 X-38.49637 Y4.46646
G01 X-38.44851 Y4.86011
G01 X-38.41549 Y5.27459
G01 X-38.40096 Y5.67868
G01 X-38.40015 Y14.36218
G01 X-38.41928 Y14.36761
G01 X-38.40015 Y14.36218
G01 X-38.30612 Y14.50523
G01 X-38.15090 Y14.75522
G01 X-37.99903 Y15.01905
G01 X-37.88400 Y15.23370
G01 X-37.77483 Y15.45138
G01 X-37.67158 Y15.67195
G01 X-37.57435 Y15.89522
G01 X-37.47785 Y16.13090
G01 X-37.39101 Y16.35933
G01 X-37.31364 Y16.58038
G01 X-37.23907 Y16.81307
G01 X-37.17356 Y17.03791
G01 X-37.11146 Y17.27426
G01 X-37.05799 Y17.50228
G01 X-37.00805 Y17.74149
G01 X-36.94458 Y18.10167
G01 X-36.89695 Y18.45401
G01 X-36.86406 Y18.79785
G01 X-36.84163 Y19.18226
G01 X-36.83516 Y19.51589
G01 X-36.83607 Y22.43351
G01 X-36.84420 Y22.75792
G01 X-36.86564 Y23.10201
G01 X-36.89784 Y23.42492
G01 X-36.94420 Y23.76719
G01 X-36.99899 Y24.08763
G01 X-37.06531 Y24.40587
G01 X-37.14046 Y24.71171
G01 X-37.23734 Y25.05413
G01 X-37.33371 Y25.35395
G01 X-37.44775 Y25.66921
G01 X-37.57346 Y25.97998
G01 X-37.71834 Y26.30503
G01 X-37.85687 Y26.58786
G01 X-38.01016 Y26.87452
G01 X-38.16320 Y27.13810
G01 X-38.35189 Y27.43982
G01 X-38.47630 Y27.62550
G01 X-38.61128 Y27.81623
G01 X-38.75113 Y28.00340
G01 X-38.88943 Y28.17899
G01 X-39.03817 Y28.35958
G01 X-39.19797 Y28.54376
G01 X-39.34874 Y28.70873
G01 X-39.51785 Y28.88437
G01 X-39.69901 Y29.06238
G01 X-39.88493 Y29.23586
G01 X-40.05202 Y29.38429
G01 X-40.23058 Y29.53502
G01 X-40.41300 Y29.68104
G01 X-40.58280 Y29.81018
G01 X-40.78907 Y29.95889
G01 X-40.98171 Y30.09115
G01 X-41.19491 Y30.22918
G01 X-41.42067 Y30.36628
G01 X-41.64145 Y30.49184
G01 X-41.89303 Y30.62529
G01 X-42.12996 Y30.74302
G01 X-42.35168 Y30.84546
G01 X-42.59489 Y30.94960
G01 X-42.81902 Y31.03816
G01 X-43.08759 Y30.60476
G01 X-42.63233 Y31.33855
G01 X-42.46245 Y31.43550
G01 X-42.17500 Y31.31406
G01 X-41.78049 Y31.12874
G01 X-41.37627 Y30.91655
G01 X-41.18244 Y30.80621
G01 X-40.99128 Y30.69135
G01 X-40.81137 Y30.57756
G01 X-40.61729 Y30.44833
G01 X-40.32740 Y30.24309
G01 X-40.05323 Y30.03426
G01 X-39.78681 Y29.81561
G01 X-39.52850 Y29.58744
G01 X-39.25593 Y29.32923
G01 X-39.01458 Y29.08318
G01 X-38.77561 Y28.82095
G01 X-38.54661 Y28.54996
G01 X-38.34496 Y28.29537
G01 X-38.15227 Y28.03441
G01 X-37.97422 Y27.77548
G01 X-37.78890 Y27.48488
G01 X-37.61295 Y27.18806
G01 X-37.45730 Y26.90348
G01 X-37.30706 Y26.60459
G01 X-37.16744 Y26.30061
G01 X-37.03356 Y25.98260
G01 X-36.91466 Y25.66993
G01 X-36.80996 Y25.36289
G01 X-36.71857 Y25.06223
G01 X-36.62860 Y24.72911
G01 X-36.55271 Y24.40333
G01 X-36.48832 Y24.07506
G01 X-36.43412 Y23.73470
G01 X-36.39642 Y23.44138
G01 X-36.36935 Y23.16737
G01 X-36.34913 Y22.87229
G01 X-36.33833 Y22.58695
G01 X-36.33521 Y19.49562
G01 X-36.34379 Y19.11929
G01 X-36.36757 Y18.73357
G01 X-36.40333 Y18.37040
G01 X-36.45146 Y18.01889
G01 X-36.49569 Y17.75907
G01 X-36.55332 Y17.47037
G01 X-36.60452 Y17.24292
G01 X-36.66650 Y16.99720
G01 X-36.73787 Y16.74348
G01 X-36.81313 Y16.50147
G01 X-36.89480 Y16.26156
G01 X-36.97920 Y16.03339
G01 X-37.09680 Y15.74135
G01 X-37.20567 Y15.48889
G01 X-37.31738 Y15.24886
G01 X-37.44041 Y15.00302
G01 X-37.59037 Y14.72524
G01 X-37.74948 Y14.45263
G01 X-37.90018 Y14.21221
G01 X-37.91821 Y14.21719
G01 X-37.90018 Y14.21221
G01 X-37.90051 Y5.71889
G01 X-37.90881 Y5.39460
G01 X-37.92819 Y5.07081
G01 X-37.95857 Y4.73718
G01 X-38.00005 Y4.40525
G01 X-38.04963 Y4.09494
G01 X-38.10528 Y3.80629
G01 X-38.16985 Y3.51950
G01 X-38.25296 Y3.19504
G01 X-38.33513 Y2.91280
G01 X-38.42929 Y2.62364
G01 X-38.52550 Y2.35659
G01 X-38.63693 Y2.07320
G01 X-38.75248 Y1.80289
G01 X-38.88072 Y1.52715
G01 X-39.01305 Y1.26464
G01 X-39.14844 Y1.01519
G01 X-39.31183 Y0.73442
G01 X-39.45616 Y0.50185
G01 X-39.63005 Y0.24011
G01 X-39.80091 Y0.00000
G01 X-65.27335 Y0.00000
G01 X-65.41397 Y0.08146
G01 X-65.56037 Y0.17297
G01 X-65.78681 Y0.32814
G01 X-66.01122 Y0.50333
G01 X-66.25593 Y0.72019
G01 X-69.89404 Y4.35592
G01 X-70.02864 Y4.49649
G01 X-70.21017 Y4.70510
G01 X-70.36745 Y4.90718
G01 X-70.53542 Y5.15214
G01 X-70.67380 Y5.37967
G01 X-70.79391 Y5.60581
G01 X-70.91456 Y5.86598
G01 X-71.01225 Y6.11370
G01 X-71.09818 Y6.37466
G01 X-71.48479 Y5.95025
G01 X-71.38213 Y5.68777
G01 X-71.26798 Y5.43717
G01 X-71.15665 Y5.21937
G01 X-71.02953 Y4.99854
G01 X-70.88030 Y4.76712
G01 X-70.73219 Y4.55978
G01 X-70.58025 Y4.36809
G01 X-70.40032 Y4.16202
G01 X-70.24759 Y4.00238
G01 X-66.68333 Y0.43820
G01 X-66.50073 Y0.26594
G01 X-66.28575 Y0.08174
G01 X-66.18244 Y0.00000
G01 X-65.27335 Y0.00000
G01 X-66.94970 Y0.00000
G01 X-70.60113 Y3.64884
G01 X-70.82391 Y3.88521
G01 X-70.98929 Y4.07815
G01 X-71.13968 Y4.26979
G01 X-71.27575 Y4.45953
G01 X-71.42069 Y4.68051
G01 X-71.54052 Y4.88089
G01 X-71.65175 Y5.08617
G01 X-71.77174 Y5.33296
G01 X-71.86193 Y5.53921
G01 X-72.23168 Y5.13641
G01 X-72.12658 Y4.91698
G01 X-72.02325 Y4.71985
G01 X-71.91271 Y4.52666
G01 X-71.78954 Y4.32925
G01 X-71.65383 Y4.12732
G01 X-71.51058 Y3.93128
G01 X-71.36595 Y3.74901
G01 X-71.20727 Y3.56392
G01 X-71.09005 Y3.43515
G01 X-70.95467 Y3.29524
G01 X-67.65935 Y0.00000
G01 X-66.94970 Y0.00000
G01 X-68.36646 Y0.00000
G01 X-71.31535 Y2.94889
G01 X-71.55772 Y3.20561
G01 X-71.71111 Y3.38221
G01 X-71.85271 Y3.55641
G01 X-71.98822 Y3.73540
G01 X-72.12317 Y3.92740
G01 X-72.25731 Y4.13248
G01 X-72.37387 Y4.32435
G01 X-72.49340 Y4.53809
G01 X-72.59645 Y4.73916
G01 X-72.95667 Y4.34449
G01 X-72.85299 Y4.15453
G01 X-72.73966 Y3.96159
G01 X-72.62576 Y3.78089
G01 X-72.48395 Y3.56951
G01 X-72.35320 Y3.38793
G01 X-72.21672 Y3.21059
G01 X-72.08777 Y3.05331
G01 X-71.93417 Y2.87650
G01 X-71.67613 Y2.60261
G01 X-69.07355 Y0.00000
G01 X-68.36646 Y0.00000
G01 X-72.60900 Y0.00000
G01 X-73.50079 Y0.89253
G01 X-73.68253 Y1.08344
G01 X-73.85891 Y1.27927
G01 X-74.08890 Y1.54993
G01 X-74.32076 Y1.84475
G01 X-74.52340 Y2.12354
G01 X-74.72065 Y2.41666
G01 X-69.98787 Y7.58612
G01 X-69.71066 Y7.90306
G01 X-69.38338 Y8.31820
G01 X-69.07416 Y8.77176
G01 X-68.84820 Y9.16127
G01 X-68.69519 Y9.46983
G01 X-68.53870 Y9.84540
G01 X-68.44746 Y10.11751
G01 X-68.36364 Y10.42606
G01 X-68.29903 Y10.76625
G01 X-68.25877 Y11.13180
G01 X-68.24990 Y11.38116
G01 X-68.22519 Y11.45062
G01 X-68.12963 Y11.76155
G01 X-67.97121 Y12.46190
G01 X-67.78826 Y12.78392
G01 X-67.57022 Y13.14480
G01 X-67.54754 Y13.19126
G01 X-67.53850 Y13.18811
G01 X-67.54754 Y13.19126
G01 X-67.53487 Y13.24138
G01 X-67.50733 Y13.44305
G01 X-67.49255 Y13.58191
G01 X-67.47957 Y13.79080
G01 X-67.47510 Y14.08166
G01 X-67.48407 Y14.29497
G01 X-67.50230 Y14.51646
G01 X-67.53779 Y14.77495
G01 X-67.57045 Y14.95974
G01 X-67.63893 Y15.25262
G01 X-67.73847 Y15.58841
G01 X-67.74782 Y15.68986
G01 X-67.78503 Y15.97043
G01 X-67.84541 Y16.26794
G01 X-67.94492 Y16.62481
G01 X-68.00532 Y16.80185
G01 X-68.02819 Y16.85051
G01 X-68.02003 Y16.85544
G01 X-68.02819 Y16.85051
G01 X-68.06093 Y16.89318
G01 X-68.19102 Y17.02953
G01 X-71.35020 Y20.18906
G01 X-71.47771 Y20.53006
G01 X-71.58291 Y20.91045
G01 X-71.59534 Y20.96783
G01 X-71.65525 Y21.35314
G01 X-71.66059 Y21.40976
G01 X-71.67344 Y21.78421
G01 X-71.65038 Y22.13836
G01 X-71.60674 Y22.41984
G01 X-71.53123 Y22.73480
G01 X-71.48584 Y22.88515
G01 X-71.36717 Y23.01349
G01 X-71.16973 Y23.20282
G01 X-70.98106 Y23.36170
G01 X-70.77542 Y23.51352
G01 X-70.53138 Y23.55449
G01 X-70.28960 Y23.57935
G01 X-69.98376 Y23.58984
G01 X-69.71195 Y23.57948
G01 X-69.37726 Y23.54064
G01 X-68.96816 Y23.45657
G01 X-68.63827 Y23.35787
G01 X-68.35668 Y23.25223
G01 X-68.22587 Y23.19805
G01 X-67.08793 Y22.06038
G01 X-68.22587 Y23.19805
G01 X-67.37063 Y22.84385
G01 X-67.19573 Y22.77488
G01 X-67.15953 Y22.47049
G01 X-67.09308 Y22.08129
G01 X-66.97576 Y21.61837
G01 X-66.81252 Y21.15086
G01 X-66.40655 Y20.17001
G01 X-66.30586 Y19.94924
G01 X-66.26322 Y19.86905
G01 X-66.09019 Y19.58007
G01 X-66.04046 Y19.50603
G01 X-65.82730 Y19.23839
G01 X-65.78547 Y19.19381
G01 X-65.56256 Y18.97659
G01 X-65.39001 Y18.84114
G01 X-65.38999 Y18.77157
G01 X-65.37592 Y18.48127
G01 X-65.34795 Y18.19595
G04 P0 ( dwell for no time -- G64 should not smooth over this point )
G00 Z1.00000 ( retract )

G00 X-65.77348 Y20.02439 ( rapid move to begin. )
G01 F20.00000
( Mill infeed pass 1/1 )
G01 Z-0.30000
G04 P0 ( dwell for no time -- G64 should not smooth over this point )
G01 F30.00000
G01 X-65.77348 Y20.02439
G01 X-65.79349 Y20.15302
G01 X-65.79972 Y20.25518
G01 X-65.79908 Y21.25617
G01 X-65.79283 Y21.35764
G01 X-65.78041 Y21.43803
G01 X-65.75593 Y21.54720
G01 X-65.71295 Y21.68324
G01 X-65.67523 Y21.76691
G01 X-65.62133 Y21.86501
G01 X-65.54297 Y21.98423
G01 X-65.47698 Y22.06198
G01 X-65.39029 Y22.14801
G01 X-65.33706 Y22.19559
G01 X-65.27226 Y22.24514
G01 X-65.19481 Y22.29434
G01 X-65.07800 Y22.35660
G01 X-65.00345 Y22.38972
G01 X-64.92646 Y22.41667
G01 X-64.76817 Y22.45578
G01 X-64.61554 Y22.47311
G01 X-63.91532 Y22.47379
G01 X-64.02842 Y22.59858
G01 X-64.40381 Y22.97466
G01 X-64.65613 Y22.97151
G01 X-64.78890 Y22.95827
G01 X-64.89951 Y22.93965
G01 X-65.03794 Y22.90493
G01 X-65.13518 Y22.87422
G01 X-65.23947 Y22.83287
G01 X-65.34036 Y22.78388
G01 X-65.44775 Y22.72566
G01 X-65.53429 Y22.67171
G01 X-65.62499 Y22.60570
G01 X-65.70294 Y22.53999
G01 X-65.81999 Y22.42660
G01 X-65.88884 Y22.35139
G01 X-65.95849 Y22.26346
G01 X-66.02672 Y22.16188
G01 X-66.10226 Y22.02912
G01 X-66.14348 Y21.94712
G01 X-66.18694 Y21.84370
G01 X-66.22255 Y21.73732
G01 X-66.26375 Y21.56922
G01 X-66.28234 Y21.46925
G01 X-66.29563 Y21.34794
G01 X-66.29913 Y21.21792
G01 X-66.34780 Y21.33544
G01 X-66.49677 Y21.76343
G01 X-66.59695 Y22.15772
G01 X-66.55311 Y22.24626
G01 X-66.48905 Y22.36206
G01 X-66.39720 Y22.50907
G01 X-66.27993 Y22.66325
G01 X-66.15554 Y22.79823
G01 X-65.99974 Y22.94479
G01 X-65.92065 Y23.00917
G01 X-65.83837 Y23.06945
G01 X-65.68298 Y23.16711
G01 X-65.54838 Y23.23930
G01 X-65.45557 Y23.28393
G04 P0 ( dwell for no time -- G64 should not smooth over this point )
G00 Z1.00000 ( retract )

G00 X-68.16928 Y23.71578 ( rapid move to begin. )
G01 F20.00000
( Mill infeed pass 1/1 )
G01 Z-0.30000
G04 P0 ( dwell for no time -- G64 should not smooth over this point )
G01 F30.00000
G01 X-68.16928 Y23.71578
G01 X-67.18132 Y23.30661
G01 X-66.98806 Y23.23074
G01 X-66.25448 Y23.65535
G01 X-66.25466 Y24.47755
G01 X-66.37078 Y24.40407
G01 X-66.46972 Y24.35019
G01 X-66.61020 Y24.28822
G01 X-66.70611 Y24.25228
G01 X-66.81419 Y24.22040
G01 X-66.96283 Y24.18751
G01 X-67.07187 Y24.17158
G01 X-67.19308 Y24.16221
G01 X-71.04438 Y24.15997
G01 X-71.06013 Y24.19795
G01 X-71.04438 Y24.15997
G01 X-72.05000 Y23.15439
G01 X-72.08807 Y23.17016
G01 X-72.05000 Y23.15439
G01 X-72.05000 Y22.71550
G01 X-72.09683 Y22.51903
G01 X-72.14258 Y22.23315
G01 X-72.17105 Y21.87283
G01 X-72.17346 Y21.78952
G01 X-72.16003 Y21.38517
G01 X-72.15233 Y21.29874
G01 X-72.08825 Y20.88370
G01 X-72.05002 Y20.72366
G01 X-72.05000 Y19.84543
G01 X-72.08802 Y19.82970
G01 X-72.05000 Y19.84543
G01 X-68.66471 Y16.45694
G01 X-68.58744 Y16.36494
G01 X-68.50426 Y16.25072
G01 X-68.44556 Y16.15745
G01 X-68.38833 Y16.05046
G01 X-68.33705 Y15.93878
G01 X-68.29115 Y15.81429
G01 X-68.25699 Y15.69903
G01 X-68.24406 Y15.62857
G04 P0 ( dwell for no time -- G64 should not smooth over this point )
G00 Z1.00000 ( retract )

G00 X-67.74947 Y15.70220 ( rapid move to begin. )
G01 F20.00000
( Mill infeed pass 1/1 )
G01 Z-0.30000
G04 P0 ( dwell for no time -- G64 should not smooth over this point )
G01 F30.00000
G01 X-67.74947 Y15.70220
G01 X-67.74947 Y16.92443
G01 X-67.71142 Y16.94020
G01 X-67.74947 Y16.92443
G01 X-71.28713 Y20.46237
G01 X-71.34979 Y20.52993
G01 X-71.41441 Y20.60936
G01 X-71.49282 Y20.71550
G01 X-71.55739 Y20.81820
G01 X-71.59534 Y20.96783
G01 X-71.65525 Y21.35314
G01 X-71.66059 Y21.40976
G01 X-71.67344 Y21.78421
G01 X-71.64667 Y22.16925
G01 X-71.60674 Y22.41984
G01 X-71.55942 Y22.61720
G01 X-71.46755 Y22.76130
G01 X-71.38871 Y22.86561
G01 X-71.27260 Y22.99310
G01 X-71.17499 Y23.08362
G01 X-71.04634 Y23.18507
G01 X-70.89978 Y23.27897
G01 X-70.77293 Y23.34580
G01 X-70.62201 Y23.40953
G01 X-70.52483 Y23.44184
G01 X-70.38622 Y23.47849
G01 X-70.28553 Y23.49726
G01 X-70.15345 Y23.51385
G01 X-70.04093 Y23.51961
G01 X-69.90781 Y23.51804
G01 X-69.80575 Y23.50966
G01 X-69.68498 Y23.49251
G01 X-69.58648 Y23.47217
G01 X-69.48952 Y23.44527
G01 X-69.34561 Y23.39630
G01 X-69.23435 Y23.34951
G01 X-69.14477 Y23.30376
G01 X-69.02999 Y23.23671
G01 X-68.95379 Y23.18484
G01 X-68.84833 Y23.10366
G01 X-68.74231 Y23.00735
G01 X-66.76113 Y21.02668
G01 X-66.40251 Y20.16079
G01 X-66.30043 Y19.94035
G01 X-66.26322 Y19.86905
G01 X-66.19286 Y19.75152
G01 X-69.10327 Y22.66114
G01 X-69.16567 Y22.71730
G01 X-69.25663 Y22.78677
G01 X-69.32712 Y22.83249
G01 X-69.41782 Y22.88273
G01 X-69.52287 Y22.92878
G01 X-69.68012 Y22.98012
G01 X-69.77184 Y23.00013
G01 X-69.90601 Y23.01705
G01 X-70.04147 Y23.01954
G01 X-70.14619 Y23.01182
G01 X-70.27987 Y22.98995
G01 X-70.41045 Y22.95388
G01 X-70.54601 Y22.89980
G01 X-70.63951 Y22.85197
G01 X-70.75394 Y22.77948
G01 X-70.85995 Y22.69515
G01 X-70.93557 Y22.62226
G01 X-71.02429 Y22.52081
G01 X-71.11632 Y22.38339
G01 X-71.16267 Y22.30178
G01 X-71.19729 Y22.22584
G01 X-71.23417 Y22.12871
G01 X-71.25492 Y22.05817
G01 X-71.27819 Y21.95721
G01 X-71.29127 Y21.86427
G01 X-71.29843 Y21.74080
G01 X-71.29877 Y21.66808
G01 X-71.29379 Y21.59551
G01 X-71.25973 Y21.40234
G01 X-71.23748 Y21.32226
G01 X-71.21261 Y21.25391
G01 X-71.15802 Y21.13232
G01 X-71.12023 Y21.06102
G01 X-71.07682 Y20.99300
G01 X-71.00964 Y20.90313
G01 X-70.92635 Y20.80862
G01 X-67.24947 Y17.13151
G01 X-67.21142 Y17.14729
G01 X-67.24947 Y17.13151
G01 X-67.24947 Y13.05684
G01 X-67.21244 Y13.04171
G01 X-67.24947 Y13.05684
G01 X-67.43395 Y12.87198
G01 X-67.52092 Y12.77242
G01 X-67.58107 Y12.68979
G01 X-67.61947 Y12.62924
G01 X-67.69372 Y12.48324
G01 X-67.74863 Y12.32896
G01 X-67.77690 Y12.20940
G01 X-67.78988 Y12.12941
G01 X-67.79712 Y12.04961
G01 X-67.79979 Y7.73036
G01 X-67.79397 Y7.64068
G01 X-67.77297 Y7.48759
G01 X-67.75069 Y7.39640
G01 X-67.71124 Y7.27796
G01 X-67.65531 Y7.15460
G01 X-67.60337 Y7.06333
G01 X-67.52620 Y6.95201
G01 X-67.43289 Y6.84469
G01 X-63.84107 Y3.25364
G01 X-63.73274 Y3.16207
G01 X-63.61356 Y3.08287
G01 X-63.52563 Y3.03446
G01 X-63.41392 Y2.98630
G01 X-63.31709 Y2.95300
G01 X-63.19771 Y2.92390
G01 X-63.10660 Y2.90995
G01 X-62.97132 Y2.90022
G01 X-49.28972 Y2.90004
G01 X-49.20790 Y2.90424
G01 X-49.06434 Y2.92161
G01 X-48.97280 Y2.94234
G01 X-48.85599 Y2.97830
G01 X-48.76315 Y3.01653
G01 X-48.62614 Y3.08826
G01 X-48.53986 Y3.14686
G01 X-48.41845 Y3.24449
G01 X-46.75223 Y4.91018
G01 X-46.70501 Y4.96413
G01 X-46.63595 Y5.05310
G01 X-46.59693 Y5.11325
G01 X-46.53651 Y5.22018
G01 X-46.50257 Y5.29478
G01 X-46.46577 Y5.39173
G01 X-46.44502 Y5.46227
G01 X-46.42007 Y5.57238
G01 X-46.40798 Y5.66374
G01 X-46.39998 Y5.79999
G01 X-46.39998 Y17.42039
G01 X-46.43785 Y17.43603
G01 X-46.39998 Y17.42039
G01 X-45.17332 Y18.64911
G01 X-45.12724 Y18.70400
G01 X-45.06648 Y18.78622
G01 X-45.00438 Y18.88213
G01 X-44.95775 Y18.97497
G01 X-44.89353 Y19.13854
G01 X-44.87149 Y19.21901
G01 X-44.85102 Y19.32081
G01 X-44.84177 Y19.39376
G01 X-44.83517 Y19.50446
G01 X-44.83567 Y22.37069
G01 X-44.84362 Y22.49622
G01 X-44.87032 Y22.65032
G01 X-44.91543 Y22.80013
G01 X-44.97832 Y22.94339
G01 X-45.06394 Y23.08672
G01 X-45.15345 Y23.20199
G01 X-45.20308 Y23.25624
G01 X-45.26310 Y23.31352
G01 X-45.36041 Y23.39355
G01 X-45.48213 Y23.47407
G01 X-45.61891 Y23.54313
G01 X-45.68436 Y23.56874
G01 X-45.79071 Y23.60275
G01 X-45.90862 Y23.62992
G01 X-46.08068 Y23.64770
G01 X-46.20532 Y23.64798
G01 X-46.38947 Y23.62368
G01 X-46.51980 Y23.59155
G01 X-46.52099 Y24.10747
G01 X-46.31388 Y24.14026
G01 X-46.15033 Y24.14979
G01 X-46.04796 Y24.14664
G01 X-45.92594 Y24.13638
G01 X-45.76648 Y24.11184
G01 X-45.66849 Y24.08786
G01 X-45.55193 Y24.05172
G01 X-45.40847 Y23.99683
G01 X-45.22615 Y23.90361
G01 X-45.08063 Y23.80813
G01 X-44.95985 Y23.71324
G01 X-44.82650 Y23.58603
G01 X-44.70717 Y23.44557
G01 X-44.61904 Y23.31979
G01 X-44.53212 Y23.16897
G01 X-44.45691 Y23.00072
G01 X-44.42574 Y22.91397
G01 X-44.39689 Y22.81570
G01 X-44.36308 Y22.66587
G01 X-44.34256 Y22.51377
G01 X-44.33573 Y22.38106
G01 X-44.33669 Y19.45223
G01 X-44.34672 Y19.31937
G01 X-44.36138 Y19.21800
G01 X-44.39097 Y19.07883
G01 X-44.42493 Y18.96303
G01 X-44.48767 Y18.80276
G01 X-44.53466 Y18.70037
G01 X-44.59453 Y18.59303
G01 X-44.65696 Y18.49925
G01 X-44.74794 Y18.37764
G01 X-44.83395 Y18.27995
G01 X-45.89998 Y17.21330
G01 X-45.93747 Y17.22869
G01 X-45.89998 Y17.21330
G01 X-45.89998 Y5.79999
G01 X-45.90463 Y5.68190
G01 X-45.92168 Y5.52160
G01 X-45.94238 Y5.41338
G01 X-45.97827 Y5.27502
G01 X-46.01489 Y5.16849
G01 X-46.06925 Y5.03799
G01 X-46.11939 Y4.93987
G01 X-46.19696 Y4.80990
G01 X-46.26036 Y4.71975
G01 X-46.34347 Y4.61716
G01 X-46.42007 Y4.53456
G01 X-48.04913 Y2.90568
G01 X-48.18073 Y2.79176
G01 X-48.27834 Y2.71874
G01 X-48.36239 Y2.66347
G01 X-48.45888 Y2.60932
G01 X-48.59701 Y2.54307
G01 X-48.70211 Y2.50246
G01 X-48.81928 Y2.46616
G01 X-48.92660 Y2.43916
G01 X-49.02563 Y2.42151
G01 X-49.17717 Y2.40502
G01 X-49.27948 Y2.40015
G01 X-62.95982 Y2.40005
G01 X-63.07788 Y2.40546
G01 X-63.23823 Y2.42326
G01 X-63.35608 Y2.44701
G01 X-63.50193 Y2.48671
G01 X-63.58687 Y2.51701
G01 X-63.69964 Y2.56400
G01 X-63.78263 Y2.60416
G01 X-63.86297 Y2.64935
G01 X-63.96599 Y2.71468
G01 X-64.03937 Y2.76710
G01 X-64.10947 Y2.82382
G01 X-64.20081 Y2.90568
G01 X-67.78714 Y6.49176
G01 X-67.87629 Y6.59066
G01 X-67.93420 Y6.66237
G01 X-67.98762 Y6.73750
G01 X-68.05879 Y6.85000
G01 X-68.10715 Y6.94030
G01 X-68.15892 Y7.05175
G01 X-68.19245 Y7.13763
G01 X-68.22999 Y7.25404
