( pcb2gcode 2.5.0 )
( Software-independent Gcode )

G94 ( Millimeters per minute feed rate. )
G21 ( Units == Millimeters. )

G90 ( Absolute coordinates. )
G00 S1000 ( RPM spindle speed. )
G64 P0.01016 ( set maximum deviation from commanded toolpath )
G01 F30.00000 ( Feedrate. )


G00 Z10.00000 (Retract to tool change height)
T0
M5      (Spindle stop.)
G04 P5.00000 (Wait for spindle to stop)
(MSG, Change tool bit to mill diameter 1.00000mm)
M6      (Tool change.)
M0      (Temporary machine stop.)
M3 ( Spindle on clockwise. )
G04 P3.00000 (Wait for spindle to get up to speed)
G04 P0 ( dwell for no time -- G64 should not smooth over this point )
G00 Z1.00000 ( retract )

G00 X-45.07804 Y28.21097 ( rapid move to begin. )
G01 F20.00000
( Mill infeed pass 1/1 )
G01 Z-0.30000
G04 P0 ( dwell for no time -- G64 should not smooth over this point )
G01 F30.00000
G01 X-45.07804 Y28.21097
G01 X-44.82534 Y28.64963
G01 X-45.13044 Y28.95470
G01 X-45.56671 Y29.35011
G01 X-45.61215 Y29.38742
G01 X-46.59010 Y30.04086
G01 X-46.61527 Y30.05430
G01 X-46.00407 Y30.24772
G01 X-45.29498 Y29.77393
G01 X-45.24952 Y29.73662
G01 X-44.77690 Y29.30827
G01 X-44.56687 Y29.09824
G01 X-44.30842 Y29.54688
G01 X-44.42336 Y29.66182
G01 X-44.93232 Y30.12310
G01 X-44.97779 Y30.16042
G01 X-45.39734 Y30.44076
G01 X-44.79064 Y30.63380
G01 X-44.66062 Y30.54693
G01 X-44.61515 Y30.50962
G01 X-44.04741 Y29.99298
G01 X-43.78183 Y30.42834
G01 X-44.21086 Y30.81719
G01 X-43.66003 Y30.99194
G01 X-43.51678 Y30.86209
G01 X-43.78183 Y30.42834
G04 P0 ( dwell for no time -- G64 should not smooth over this point )
G00 Z1.00000 ( retract )

G00 X-44.38457 Y31.28670 ( rapid move to begin. )
G01 F20.00000
( Mill infeed pass 1/1 )
G01 Z-0.30000
G04 P0 ( dwell for no time -- G64 should not smooth over this point )
G01 F30.00000
G01 X-44.38457 Y31.28670
G01 X-44.14116 Y32.51058
G01 X-44.13540 Y32.56912
G01 X-44.13540 Y34.13735
G01 X-44.14116 Y34.19589
G01 X-44.44710 Y35.73399
G01 X-44.46417 Y35.79028
G01 X-45.06432 Y37.23914
G01 X-45.09204 Y37.29101
G01 X-45.96331 Y38.59494
G01 X-46.00062 Y38.64041
G01 X-47.10953 Y39.74932
G01 X-47.15500 Y39.78664
G01 X-48.45893 Y40.65791
G01 X-48.51080 Y40.68562
G01 X-49.95967 Y41.28577
G01 X-50.01595 Y41.30284
G01 X-51.55405 Y41.60878
G01 X-51.88146 Y41.62776
G01 X-51.88306 Y41.62085
G01 X-51.88146 Y41.62776
G01 X-52.17109 Y41.74772
G01 X-52.32118 Y41.79326
G01 X-53.85930 Y42.09920
G01 X-54.01536 Y42.11457
G01 X-54.82669 Y42.11457
G01 X-55.47365 Y41.81843
G01 X-56.16882 Y41.50650
G01 X-55.69067 Y41.60162
G01 X-55.53461 Y41.61699
G01 X-54.06438 Y41.61699
G01 X-53.90830 Y41.60162
G01 X-52.46629 Y41.31480
G01 X-52.31625 Y41.26926
G01 X-51.98717 Y41.13296
G01 X-51.98877 Y41.12600
G01 X-51.98717 Y41.13296
G01 X-51.60305 Y41.11120
G01 X-50.16109 Y40.82438
G01 X-50.10480 Y40.80731
G01 X-48.74651 Y40.24467
G01 X-48.69464 Y40.21694
G01 X-47.47219 Y39.40012
G01 X-47.42673 Y39.36284
G01 X-46.38711 Y38.32322
G01 X-46.34982 Y38.27775
G01 X-45.53301 Y37.05530
G01 X-45.50527 Y37.00343
G01 X-44.94263 Y35.64514
G01 X-44.92556 Y35.58885
G01 X-44.63875 Y34.14687
G01 X-44.63298 Y34.08835
G01 X-44.63298 Y32.61812
G01 X-44.63875 Y32.55960
G01 X-44.92625 Y31.11538
G01 X-45.53966 Y30.92018
G01 X-45.42109 Y31.20649
G01 X-45.40402 Y31.26275
G01 X-45.13633 Y32.60860
G01 X-45.13057 Y32.66712
G01 X-45.13057 Y34.03935
G01 X-45.13633 Y34.09787
G01 X-45.40402 Y35.44372
G01 X-45.42109 Y35.49998
G01 X-45.94621 Y36.76774
G01 X-45.97395 Y36.81961
G01 X-46.73630 Y37.96058
G01 X-46.77362 Y38.00602
G01 X-47.74392 Y38.97633
G01 X-47.78936 Y39.01364
G01 X-48.93033 Y39.77599
G01 X-48.98220 Y39.80373
G01 X-50.24996 Y40.32885
G01 X-50.30622 Y40.34592
G01 X-51.65204 Y40.61361
G01 X-52.09289 Y40.63817
G01 X-52.09449 Y40.63116
G01 X-52.09289 Y40.63817
G01 X-52.46136 Y40.79080
G01 X-52.61145 Y40.83634
G01 X-53.95732 Y41.10403
G01 X-54.11338 Y41.11940
G01 X-55.48559 Y41.11940
G01 X-55.64167 Y41.10403
G01 X-56.98752 Y40.83634
G01 X-57.13758 Y40.79080
G01 X-58.40534 Y40.26568
G01 X-58.54365 Y40.19177
G01 X-59.68462 Y39.42939
G01 X-59.80582 Y39.32989
G01 X-60.77613 Y38.35961
G01 X-60.87562 Y38.23838
G01 X-61.63798 Y37.09741
G01 X-61.71192 Y36.95911
G01 X-62.23704 Y35.69134
G01 X-62.28255 Y35.54128
G01 X-62.55027 Y34.19544
G01 X-62.56564 Y34.03935
G01 X-62.56564 Y33.54408
G01 X-62.06805 Y32.99701
G01 X-62.06805 Y33.99036
G01 X-62.05268 Y34.14644
G01 X-61.80409 Y35.39614
G01 X-61.75858 Y35.54621
G01 X-61.27097 Y36.72342
G01 X-61.19703 Y36.86172
G01 X-60.48913 Y37.92118
G01 X-60.38964 Y38.04242
G01 X-59.48865 Y38.94341
G01 X-59.36742 Y39.04290
G01 X-58.30796 Y39.75080
G01 X-58.16966 Y39.82474
G01 X-56.99244 Y40.31234
G01 X-56.84238 Y40.35788
G01 X-55.59265 Y40.60645
G01 X-55.43659 Y40.62184
G01 X-54.16240 Y40.62184
G01 X-54.00632 Y40.60645
G01 X-52.75661 Y40.35788
G01 X-52.60652 Y40.31234
G01 X-52.19857 Y40.14338
G01 X-52.20015 Y40.13632
G01 X-52.19857 Y40.14338
G01 X-51.75961 Y40.12181
G01 X-51.70109 Y40.11605
G01 X-50.45136 Y39.86746
G01 X-50.39510 Y39.85039
G01 X-49.21788 Y39.36276
G01 X-49.16602 Y39.33505
G01 X-48.10656 Y38.62715
G01 X-48.06109 Y38.58984
G01 X-47.16010 Y37.68885
G01 X-47.12279 Y37.64338
G01 X-46.41489 Y36.58392
G01 X-46.38718 Y36.53206
G01 X-45.89955 Y35.35484
G01 X-45.88248 Y35.29858
G01 X-45.63389 Y34.04885
G01 X-45.62813 Y33.99033
G01 X-45.62813 Y32.71614
G01 X-45.63389 Y32.65762
G01 X-45.88248 Y31.40789
G01 X-45.89955 Y31.35163
G01 X-46.16000 Y30.72280
G01 X-46.77981 Y30.52669
G01 X-46.37801 Y31.49676
G01 X-46.36094 Y31.55305
G01 X-46.13148 Y32.70661
G01 X-46.12571 Y32.76514
G01 X-46.12571 Y33.94133
G01 X-46.13148 Y33.99986
G01 X-46.36094 Y35.15342
G01 X-46.37801 Y35.20971
G01 X-46.82813 Y36.29637
G01 X-46.85584 Y36.34824
G01 X-47.50930 Y37.32619
G01 X-47.54662 Y37.37165
G01 X-48.37829 Y38.20333
G01 X-48.42375 Y38.24064
G01 X-49.40170 Y38.89411
G01 X-49.45357 Y38.92182
G01 X-50.54023 Y39.37193
G01 X-50.59652 Y39.38900
G01 X-51.75009 Y39.61846
G01 X-51.80861 Y39.62423
G01 X-52.30429 Y39.64856
G01 X-52.30586 Y39.64150
G01 X-52.30429 Y39.64856
G01 X-52.75163 Y39.83388
G01 X-52.90175 Y39.87942
G01 X-54.05531 Y40.10886
G01 X-54.21140 Y40.12425
G01 X-55.38757 Y40.12425
G01 X-55.54365 Y40.10886
G01 X-56.69722 Y39.87942
G01 X-56.84731 Y39.83388
G01 X-57.93395 Y39.38379
G01 X-58.07227 Y39.30985
G01 X-59.05022 Y38.65641
G01 X-59.17146 Y38.55692
G01 X-60.00313 Y37.72522
G01 X-60.10262 Y37.60399
G01 X-60.75609 Y36.62604
G01 X-60.83000 Y36.48774
G01 X-61.28012 Y35.40107
G01 X-61.32563 Y35.25101
G01 X-61.55510 Y34.09742
G01 X-61.57046 Y33.94136
G01 X-61.57046 Y32.76516
G01 X-61.55510 Y32.60910
G01 X-61.50770 Y32.37083
G01 X-60.85533 Y31.64159
G01 X-61.05751 Y32.65810
G01 X-61.07290 Y32.81418
G01 X-61.07290 Y33.89234
G01 X-61.05751 Y34.04842
G01 X-60.84717 Y35.10587
G01 X-60.80166 Y35.25594
G01 X-60.38906 Y36.25202
G01 X-60.31512 Y36.39035
G01 X-59.71614 Y37.28682
G01 X-59.61664 Y37.40803
G01 X-58.85426 Y38.17041
G01 X-58.73303 Y38.26990
G01 X-57.83656 Y38.86891
G01 X-57.69826 Y38.94282
G01 X-56.70217 Y39.35542
G01 X-56.55208 Y39.40096
G01 X-55.49463 Y39.61130
G01 X-55.33857 Y39.62667
G01 X-54.26039 Y39.62667
G01 X-54.10434 Y39.61130
G01 X-53.04688 Y39.40096
G01 X-52.89680 Y39.35542
G01 X-52.40840 Y39.15313
G01 X-52.41003 Y39.14600
G01 X-52.40840 Y39.15313
G01 X-52.39672 Y39.15313
G01 X-51.85763 Y39.12664
G01 X-51.79911 Y39.12088
G01 X-50.74166 Y38.91054
G01 X-50.68537 Y38.89347
G01 X-49.68928 Y38.48087
G01 X-49.63742 Y38.45314
G01 X-48.74095 Y37.85415
G01 X-48.69548 Y37.81684
G01 X-47.93310 Y37.05446
G01 X-47.89579 Y37.00899
G01 X-47.29681 Y36.11253
G01 X-47.26907 Y36.06066
G01 X-46.85647 Y35.06457
G01 X-46.83940 Y35.00829
G01 X-46.62907 Y33.95083
G01 X-46.62330 Y33.89231
G01 X-46.62330 Y32.81416
G01 X-46.62907 Y32.75564
G01 X-46.83940 Y31.69818
G01 X-46.85647 Y31.64190
G01 X-47.26907 Y30.64581
G01 X-47.29681 Y30.59394
G01 X-47.49348 Y30.29953
G04 P0 ( dwell for no time -- G64 should not smooth over this point )
G00 Z1.00000 ( retract )

G00 X-46.31243 Y24.64031 ( rapid move to begin. )
G01 F20.00000
( Mill infeed pass 1/1 )
G01 Z-0.30000
G04 P0 ( dwell for no time -- G64 should not smooth over this point )
G01 F30.00000
G01 X-46.31243 Y24.64031
G01 X-45.93895 Y24.64031
G01 X-45.88043 Y24.63455
G01 X-45.49590 Y24.55807
G01 X-45.43961 Y24.54100
G01 X-45.07738 Y24.39096
G01 X-45.02551 Y24.36322
G01 X-44.69953 Y24.14542
G01 X-44.65406 Y24.10811
G01 X-44.37685 Y23.83089
G01 X-44.33954 Y23.78542
G01 X-44.12173 Y23.45944
G01 X-44.09399 Y23.40757
G01 X-43.94396 Y23.04534
G01 X-43.92689 Y22.98906
G01 X-43.85041 Y22.60453
G01 X-43.83502 Y22.34999
G01 X-43.83502 Y19.52381
G01 X-43.85041 Y19.26925
G01 X-43.92689 Y18.88472
G01 X-43.94396 Y18.82844
G01 X-44.09399 Y18.46621
G01 X-44.12173 Y18.41434
G01 X-44.33954 Y18.08836
G01 X-44.50865 Y17.89747
G01 X-45.40001 Y17.00614
G01 X-45.43806 Y17.02189
G01 X-45.40001 Y17.00614
G01 X-45.40001 Y5.79999
G01 X-45.41540 Y5.54543
G01 X-45.49188 Y5.16090
G01 X-45.50895 Y5.10461
G01 X-45.65899 Y4.74238
G01 X-45.68673 Y4.69052
G01 X-45.90453 Y4.36453
G01 X-46.07364 Y4.17365
G01 X-47.67364 Y2.57366
G01 X-47.86452 Y2.40454
G01 X-48.19051 Y2.18674
G01 X-48.24237 Y2.15900
G01 X-48.60460 Y2.00896
G01 X-48.66089 Y1.99189
G01 X-49.04542 Y1.91541
G01 X-49.10394 Y1.90965
G01 X-49.29998 Y1.90002
G01 X-62.94999 Y1.90002
G01 X-63.20452 Y1.91541
G01 X-63.58905 Y1.99189
G01 X-63.64534 Y2.00896
G01 X-64.00757 Y2.15900
G01 X-64.05944 Y2.18674
G01 X-64.38542 Y2.40454
G01 X-64.57630 Y2.57366
G01 X-68.12631 Y6.12366
G01 X-68.29542 Y6.31454
G01 X-68.51322 Y6.64053
G01 X-68.54096 Y6.69239
G01 X-68.69100 Y7.05462
G01 X-68.70807 Y7.11091
G01 X-68.78455 Y7.49544
G01 X-68.79031 Y7.55396
G01 X-68.79994 Y7.75000
G01 X-68.79994 Y9.26478
G01 X-68.70766 Y9.44364
G01 X-68.53580 Y9.85632
G01 X-68.50695 Y9.93846
G01 X-68.39021 Y10.32093
G01 X-68.30400 Y10.74026
G01 X-68.29316 Y10.81123
G01 X-68.25818 Y11.16206
G01 X-68.25064 Y11.38215
G01 X-68.22511 Y11.45433
G01 X-68.12486 Y11.78364
G01 X-67.96921 Y12.46871
G01 X-67.74058 Y12.86665
G01 X-67.56921 Y13.15014
G01 X-67.54825 Y13.19444
G01 X-67.53868 Y13.19121
G01 X-67.54825 Y13.19444
G01 X-67.53634 Y13.24196
G01 X-67.51775 Y13.36731
G01 X-67.48645 Y13.67363
G01 X-67.47830 Y13.85509
G01 X-67.47797 Y14.15720
G01 X-67.48722 Y14.32626
G01 X-67.51714 Y14.63264
G01 X-67.54312 Y14.80160
G01 X-67.60395 Y15.10960
G01 X-67.64965 Y15.28968
G01 X-67.73898 Y15.58536
G01 X-67.77678 Y15.91757
G01 X-67.85178 Y16.29534
G01 X-67.98493 Y16.74203
G01 X-68.00695 Y16.80446
G01 X-68.02791 Y16.84876
G01 X-68.01767 Y16.85465
G01 X-68.02791 Y16.84876
G01 X-68.05709 Y16.88813
G01 X-68.20545 Y17.04444
G01 X-71.35035 Y20.18916
G01 X-71.45099 Y20.45137
G01 X-71.56696 Y20.84100
G01 X-71.63105 Y21.16226
G01 X-71.66877 Y21.52043
G01 X-71.67105 Y21.87405
G01 X-71.63798 Y22.23198
G01 X-71.56696 Y22.59990
G01 X-71.48396 Y22.88791
G01 X-71.16999 Y23.20214
G01 X-70.89640 Y23.42652
G01 X-70.77553 Y23.51367
G01 X-70.56938 Y23.54890
G01 X-70.21919 Y23.58352
G01 X-69.82734 Y23.58581
G01 X-69.38391 Y23.54199
G01 X-68.97611 Y23.45825
G01 X-68.59151 Y23.34128
G01 X-68.33677 Y23.24438
G01 X-67.37066 Y22.84420
G01 X-67.19506 Y22.77643
G01 X-67.15257 Y22.41824
G01 X-67.04734 Y21.88538
G01 X-67.02798 Y21.80600
G01 X-66.90076 Y21.38611
G01 X-66.80388 Y21.12929
G01 X-66.41038 Y20.17931
G01 X-66.35052 Y20.04268
G01 X-66.19131 Y19.73941
G01 X-66.01917 Y19.47588
G01 X-65.98161 Y19.42689
G01 X-65.82954 Y19.24098
G01 X-65.62034 Y19.02838
G01 X-65.38852 Y18.83588
G01 X-65.38496 Y18.59270
G01 X-65.34770 Y18.19547
G01 X-65.38460 Y18.59272
G01 X-65.38852 Y18.67710
G01 X-65.38852 Y18.83588
G01 X-65.61993 Y19.02882
G01 X-65.82908 Y19.24139
G01 X-66.01861 Y19.47629
G01 X-66.15882 Y19.68579
G01 X-66.20446 Y19.76341
G01 X-69.08074 Y22.63971
G01 X-69.19892 Y22.74291
G01 X-69.36191 Y22.85182
G01 X-69.41378 Y22.87953
G01 X-69.59488 Y22.95456
G01 X-69.65117 Y22.97163
G01 X-69.84342 Y23.00989
G01 X-69.90197 Y23.01565
G01 X-70.09798 Y23.01565
G01 X-70.15653 Y23.00989
G01 X-70.34878 Y22.97163
G01 X-70.40507 Y22.95456
G01 X-70.58617 Y22.87953
G01 X-70.63804 Y22.85182
G01 X-70.80103 Y22.74291
G01 X-70.84649 Y22.70559
G01 X-70.98510 Y22.56699
G01 X-71.02241 Y22.52152
G01 X-71.13133 Y22.35853
G01 X-71.15904 Y22.30666
G01 X-71.23407 Y22.12556
G01 X-71.25114 Y22.06927
G01 X-71.28939 Y21.87702
G01 X-71.29516 Y21.81847
G01 X-71.29516 Y21.62246
G01 X-71.28939 Y21.56391
G01 X-71.25114 Y21.37166
G01 X-71.23407 Y21.31538
G01 X-71.15904 Y21.13427
G01 X-71.13133 Y21.08241
G01 X-71.02241 Y20.91941
G01 X-70.91921 Y20.80123
G01 X-67.24947 Y17.13151
G01 X-67.21142 Y17.14726
G01 X-67.24947 Y17.13151
G01 X-67.24947 Y13.05745
G01 X-67.21277 Y13.04254
G01 X-67.24947 Y13.05745
G01 X-67.41925 Y12.88768
G01 X-67.52245 Y12.76947
G01 X-67.63134 Y12.60650
G01 X-67.65907 Y12.55464
G01 X-67.73408 Y12.37353
G01 X-67.75115 Y12.31727
G01 X-67.78940 Y12.12499
G01 X-67.79517 Y12.06647
G01 X-67.79997 Y11.96848
G01 X-67.79997 Y7.75000
G01 X-67.78940 Y7.59343
G01 X-67.75115 Y7.40118
G01 X-67.73408 Y7.34489
G01 X-67.65905 Y7.16379
G01 X-67.63134 Y7.11192
G01 X-67.52242 Y6.94893
G01 X-67.41922 Y6.83075
G01 X-63.86921 Y3.28074
G01 X-63.75103 Y3.17749
G01 X-63.58804 Y3.06862
G01 X-63.53617 Y3.04091
G01 X-63.35507 Y2.96588
G01 X-63.29878 Y2.94881
G01 X-63.10653 Y2.91056
G01 X-62.94999 Y2.89999
G01 X-49.29998 Y2.89999
G01 X-49.14341 Y2.91056
G01 X-48.95116 Y2.94881
G01 X-48.89487 Y2.96588
G01 X-48.71377 Y3.04091
G01 X-48.66190 Y3.06862
G01 X-48.49891 Y3.17749
G01 X-48.45345 Y3.21483
G01 X-48.38073 Y3.28074
G01 X-46.78073 Y4.88074
G01 X-46.71484 Y4.95346
G01 X-46.67753 Y4.99892
G01 X-46.56861 Y5.16191
G01 X-46.54090 Y5.21378
G01 X-46.46587 Y5.39488
G01 X-46.44880 Y5.45117
G01 X-46.41055 Y5.64342
G01 X-46.39998 Y5.79999
G01 X-46.39998 Y17.42034
G01 X-46.43778 Y17.43593
G01 X-46.39998 Y17.42034
G01 X-45.21573 Y18.60456
G01 X-45.11253 Y18.72275
G01 X-45.00362 Y18.88574
G01 X-44.97591 Y18.93760
G01 X-44.90088 Y19.11871
G01 X-44.88381 Y19.17499
G01 X-44.84555 Y19.36725
G01 X-44.83979 Y19.42579
G01 X-44.83499 Y19.52381
G01 X-44.83499 Y22.34999
G01 X-44.84555 Y22.50653
G01 X-44.88381 Y22.69879
G01 X-44.90088 Y22.75507
G01 X-44.97591 Y22.93617
G01 X-45.00362 Y22.98804
G01 X-45.11253 Y23.15103
G01 X-45.14985 Y23.19650
G01 X-45.28845 Y23.33511
G01 X-45.33392 Y23.37242
G01 X-45.49691 Y23.48133
G01 X-45.54878 Y23.50905
G01 X-45.72988 Y23.58408
G01 X-45.78617 Y23.60115
G01 X-45.97842 Y23.63940
G01 X-46.03697 Y23.64516
G01 X-46.23298 Y23.64516
G01 X-46.29153 Y23.63940
G01 X-46.48378 Y23.60115
G01 X-46.51997 Y23.59017
G01 X-46.51997 Y24.10127
G01 X-46.34052 Y24.13696
G01 X-46.28200 Y24.14273
G01 X-45.98794 Y24.14273
G01 X-45.92942 Y24.13696
G01 X-45.64103 Y24.07961
G01 X-45.58474 Y24.06254
G01 X-45.31309 Y23.95002
G01 X-45.26123 Y23.92228
G01 X-45.01672 Y23.75893
G01 X-44.97126 Y23.72162
G01 X-44.76333 Y23.51369
G01 X-44.72602 Y23.46823
G01 X-44.56267 Y23.22373
G01 X-44.53494 Y23.17186
G01 X-44.42242 Y22.90021
G01 X-44.40535 Y22.84392
G01 X-44.34799 Y22.55553
G01 X-44.34223 Y22.49701
G01 X-44.33499 Y22.34999
G01 X-44.33499 Y19.52381
G01 X-44.34799 Y19.31825
G01 X-44.40535 Y19.02986
G01 X-44.42242 Y18.97357
G01 X-44.53494 Y18.70192
G01 X-44.56267 Y18.65005
G01 X-44.72602 Y18.40555
G01 X-44.86219 Y18.25102
G01 X-45.89998 Y17.21322
G01 X-45.93763 Y17.22872
G01 X-45.89998 Y17.21322
G01 X-45.89998 Y5.79999
G01 X-45.91299 Y5.59443
G01 X-45.97034 Y5.30603
G01 X-45.98741 Y5.24975
G01 X-46.09993 Y4.97810
G01 X-46.12767 Y4.92623
G01 X-46.29102 Y4.68173
G01 X-46.32833 Y4.63626
G01 X-46.42719 Y4.52719
G01 X-48.02718 Y2.92720
G01 X-48.18172 Y2.79103
G01 X-48.42622 Y2.62768
G01 X-48.47808 Y2.59994
G01 X-48.74974 Y2.48742
G01 X-48.80602 Y2.47035
G01 X-49.09442 Y2.41300
G01 X-49.29998 Y2.40000
G01 X-62.94999 Y2.40000
G01 X-63.15553 Y2.41300
G01 X-63.44392 Y2.47035
G01 X-63.50020 Y2.48742
G01 X-63.77186 Y2.59994
G01 X-63.82372 Y2.62768
G01 X-64.06822 Y2.79103
G01 X-64.22276 Y2.92720
G01 X-67.77276 Y6.47720
G01 X-67.90893 Y6.63174
G01 X-68.07228 Y6.87624
G01 X-68.10002 Y6.92810
G01 X-68.21254 Y7.19976
G01 X-68.22961 Y7.25604
G01 X-68.28696 Y7.54443
G01 X-68.29273 Y7.60296
G01 X-68.29997 Y7.75000
G01 X-68.29997 Y10.76541
G01 X-68.37619 Y10.37991
G01 X-68.39425 Y10.30910
G01 X-68.50695 Y9.93846
G01 X-68.53631 Y9.85650
G01 X-68.70802 Y9.44382
G01 X-68.74152 Y9.37374
G01 X-68.98127 Y8.92668
G01 X-69.02196 Y8.85718
G01 X-69.37002 Y8.33841
G01 X-69.42041 Y8.26994
G01 X-69.93115 Y7.64990
G01 X-73.65111 Y3.58244
G01 X-72.93338 Y2.50828
G01 X-72.89607 Y2.46281
G01 X-72.36884 Y1.88112
G01 X-70.48772 Y0.00000
G01 X-71.19480 Y0.00000
G01 X-72.72238 Y1.52758
G01 X-73.28256 Y2.14561
G01 X-73.31987 Y2.19108
G01 X-73.99762 Y3.20540
G01 X-73.65111 Y3.58244
G01 X-74.69060 Y2.45130
G01 X-74.09287 Y1.55672
G01 X-74.05555 Y1.51125
G01 X-73.42950 Y0.82045
G01 X-72.60900 Y0.00000
G01 X-43.17639 Y0.00000
G01 X-42.53819 Y0.63820
G01 X-42.07688 Y1.14719
G01 X-42.03957 Y1.19263
G01 X-41.27721 Y2.33360
G01 X-41.24947 Y2.38547
G01 X-40.72435 Y3.65323
G01 X-40.70728 Y3.70949
G01 X-40.43959 Y5.05534
G01 X-40.43383 Y5.11386
G01 X-40.40012 Y5.79999
G01 X-40.40012 Y15.02791
G01 X-40.42133 Y15.03429
G01 X-40.40012 Y15.02791
G01 X-39.71221 Y16.05742
G01 X-39.68448 Y16.10929
G01 X-39.15936 Y17.37705
G01 X-39.14229 Y17.43332
G01 X-38.87460 Y18.77916
G01 X-38.86883 Y18.83768
G01 X-38.83513 Y19.52381
G01 X-38.83513 Y22.34999
G01 X-38.86883 Y23.03610
G01 X-38.87460 Y23.09462
G01 X-39.14229 Y24.44046
G01 X-39.15936 Y24.49673
G01 X-39.68448 Y25.76449
G01 X-39.71221 Y25.81636
G01 X-40.47457 Y26.95732
G01 X-40.51188 Y27.00277
G01 X-41.48219 Y27.97307
G01 X-41.52763 Y28.01038
G01 X-42.66860 Y28.77274
G01 X-42.72046 Y28.80048
G01 X-43.88378 Y29.28234
G01 X-44.13433 Y28.84742
G01 X-42.95615 Y28.35951
G01 X-42.90428 Y28.33179
G01 X-41.84482 Y27.62390
G01 X-41.79936 Y27.58658
G01 X-40.89837 Y26.68560
G01 X-40.86106 Y26.64013
G01 X-40.15316 Y25.58064
G01 X-40.12545 Y25.52880
G01 X-39.63782 Y24.35159
G01 X-39.62075 Y24.29533
G01 X-39.37216 Y23.04560
G01 X-39.36639 Y22.98708
G01 X-39.33510 Y22.34999
G01 X-39.33510 Y19.52381
G01 X-39.36639 Y18.88670
G01 X-39.37216 Y18.82818
G01 X-39.62075 Y17.57845
G01 X-39.63782 Y17.52219
G01 X-40.12545 Y16.34498
G01 X-40.15316 Y16.29311
G01 X-40.86106 Y15.23365
G01 X-40.90010 Y15.18628
G01 X-40.92166 Y15.19283
G01 X-40.90010 Y15.18628
G01 X-40.90010 Y5.79999
G01 X-40.93139 Y5.16288
G01 X-40.93715 Y5.10436
G01 X-41.18574 Y3.85463
G01 X-41.20281 Y3.79837
G01 X-41.69044 Y2.62115
G01 X-41.71815 Y2.56929
G01 X-42.42605 Y1.50983
G01 X-42.46336 Y1.46436
G01 X-42.89174 Y0.99174
G01 X-43.88350 Y0.00000
G01 X-44.59059 Y0.00000
G01 X-43.24528 Y1.34529
G01 X-42.84988 Y1.78156
G01 X-42.81256 Y1.82702
G01 X-42.15910 Y2.80497
G01 X-42.13139 Y2.85684
G01 X-41.68127 Y3.94350
G01 X-41.66420 Y3.99979
G01 X-41.43474 Y5.15336
G01 X-41.42897 Y5.21188
G01 X-41.40010 Y5.79999
G01 X-41.40010 Y15.37825
G01 X-41.43248 Y15.39052
G01 X-41.40010 Y15.37825
G01 X-41.24757 Y15.55085
G01 X-40.59410 Y16.52880
G01 X-40.56639 Y16.58066
G01 X-40.11628 Y17.66733
G01 X-40.09921 Y17.72361
G01 X-39.86974 Y18.87718
G01 X-39.86398 Y18.93570
G01 X-39.83510 Y19.52381
G01 X-39.83510 Y22.34999
G01 X-39.86398 Y22.93808
G01 X-39.86974 Y22.99660
G01 X-40.09921 Y24.15017
G01 X-40.11628 Y24.20645
G01 X-40.56639 Y25.29312
G01 X-40.59410 Y25.34498
G01 X-41.24757 Y26.32291
G01 X-41.28488 Y26.36840
G01 X-42.11655 Y27.20007
G01 X-42.16202 Y27.23739
G01 X-43.13997 Y27.89085
G01 X-43.19184 Y27.91856
G01 X-44.27850 Y28.36868
G01 X-44.33479 Y28.38574
G01 X-44.39356 Y28.39740
G01 X-44.64207 Y27.96609
G01 X-45.13235 Y27.02240
G01 X-44.77019 Y26.95037
G01 X-44.71391 Y26.93330
G01 X-43.89892 Y26.59570
G01 X-43.84705 Y26.56799
G01 X-43.11358 Y26.07790
G01 X-43.06814 Y26.04059
G01 X-42.44437 Y25.41679
G01 X-42.40705 Y25.37137
G01 X-41.91696 Y24.63790
G01 X-41.88925 Y24.58603
G01 X-41.55166 Y23.77105
G01 X-41.53459 Y23.71476
G01 X-41.36250 Y22.84959
G01 X-41.35674 Y22.79104
G01 X-41.33507 Y22.34999
G01 X-41.33507 Y19.52381
G01 X-41.35674 Y19.08274
G01 X-41.36250 Y19.02419
G01 X-41.53459 Y18.15902
G01 X-41.55166 Y18.10273
G01 X-41.88925 Y17.28775
G01 X-41.91696 Y17.23588
G01 X-42.40705 Y16.50241
G01 X-42.74091 Y16.12974
G01 X-42.90007 Y15.97061
G01 X-42.93459 Y15.98414
G01 X-42.90007 Y15.97061
G01 X-42.90007 Y5.79999
G01 X-42.92173 Y5.35892
G01 X-42.92750 Y5.30037
G01 X-43.09958 Y4.43520
G01 X-43.11665 Y4.37891
G01 X-43.45424 Y3.56392
G01 X-43.48196 Y3.51206
G01 X-43.97205 Y2.77858
G01 X-44.30591 Y2.40591
G01 X-45.90590 Y0.80592
G01 X-46.27857 Y0.47206
G01 X-46.98510 Y0.00000
G01 X-48.47280 Y0.00000
G01 X-48.08032 Y0.07805
G01 X-48.02403 Y0.09512
G01 X-47.29960 Y0.39520
G01 X-47.24773 Y0.42291
G01 X-46.59577 Y0.85855
G01 X-46.25947 Y1.15948
G01 X-44.65947 Y2.75948
G01 X-44.35853 Y3.09578
G01 X-43.92290 Y3.74774
G01 X-43.89519 Y3.79961
G01 X-43.59511 Y4.52404
G01 X-43.57804 Y4.58033
G01 X-43.42506 Y5.34939
G01 X-43.40004 Y5.79999
G01 X-43.40004 Y16.17772
G01 X-43.43811 Y16.19349
G01 X-43.40004 Y16.17772
G01 X-43.09448 Y16.48330
G01 X-42.79354 Y16.81960
G01 X-42.35790 Y17.47157
G01 X-42.33019 Y17.52343
G01 X-42.03012 Y18.24787
G01 X-42.01305 Y18.30415
G01 X-41.86006 Y19.07322
G01 X-41.83504 Y19.52381
G01 X-41.83504 Y22.34999
G01 X-41.85432 Y22.74204
G01 X-41.86006 Y22.80056
G01 X-42.01305 Y23.56963
G01 X-42.03012 Y23.62591
G01 X-42.33019 Y24.35035
G01 X-42.35790 Y24.40221
G01 X-42.79354 Y25.05418
G01 X-42.83085 Y25.09964
G01 X-43.38531 Y25.65408
G01 X-43.43077 Y25.69141
G01 X-44.08274 Y26.12705
G01 X-44.13461 Y26.15474
G01 X-44.85904 Y26.45481
G01 X-44.91533 Y26.47188
G01 X-45.37123 Y26.56258
G01 X-45.59750 Y26.10023
G01 X-45.06046 Y25.99342
G01 X-45.00420 Y25.97635
G01 X-44.37032 Y25.71379
G01 X-44.31845 Y25.68608
G01 X-43.74797 Y25.30490
G01 X-43.70250 Y25.26759
G01 X-43.21736 Y24.78245
G01 X-43.18005 Y24.73698
G01 X-42.79887 Y24.16650
G01 X-42.77114 Y24.11463
G01 X-42.50858 Y23.48075
G01 X-42.49151 Y23.42449
G01 X-42.35765 Y22.75157
G01 X-42.33504 Y22.34999
G01 X-42.33504 Y19.52381
G01 X-42.35765 Y19.12221
G01 X-42.49151 Y18.44929
G01 X-42.50858 Y18.39303
G01 X-42.77114 Y17.75915
G01 X-42.79887 Y17.70728
G01 X-43.18005 Y17.13680
G01 X-43.44802 Y16.83685
G01 X-43.90004 Y16.38483
G01 X-43.93809 Y16.40058
G01 X-43.90004 Y16.38483
G01 X-43.90004 Y5.79999
G01 X-43.91688 Y5.45691
G01 X-43.92265 Y5.39839
G01 X-44.05650 Y4.72547
G01 X-44.07357 Y4.66921
G01 X-44.33613 Y4.03532
G01 X-44.36387 Y3.98346
G01 X-44.74505 Y3.41297
G01 X-45.01302 Y3.11302
G01 X-46.61301 Y1.51303
G01 X-46.91296 Y1.24506
G01 X-47.48345 Y0.86388
G01 X-47.53531 Y0.83614
G01 X-48.16919 Y0.57358
G01 X-48.22546 Y0.55651
G01 X-48.89838 Y0.42266
G01 X-49.29998 Y0.40005
G01 X-62.94999 Y0.40005
G01 X-63.35156 Y0.42266
G01 X-64.02448 Y0.55651
G01 X-64.08075 Y0.57358
G01 X-64.71463 Y0.83614
G01 X-64.76649 Y0.86388
G01 X-65.33698 Y1.24506
G01 X-65.63693 Y1.51303
G01 X-69.18693 Y5.06303
G01 X-69.45490 Y5.36298
G01 X-69.83608 Y5.93347
G01 X-69.86382 Y5.98533
G01 X-70.12638 Y6.61921
G01 X-70.14345 Y6.67548
G01 X-70.26430 Y7.28315
G01 X-70.68144 Y6.82970
G01 X-70.62191 Y6.53034
G01 X-70.60484 Y6.47405
G01 X-70.30476 Y5.74962
G01 X-70.27705 Y5.69775
G01 X-69.84141 Y5.04579
G01 X-69.80410 Y5.00032
G01 X-69.54048 Y4.70949
G01 X-65.99047 Y1.15948
G01 X-65.69964 Y0.89586
G01 X-65.65417 Y0.85855
G01 X-65.00221 Y0.42291
G01 X-64.95034 Y0.39520
G01 X-64.22591 Y0.09512
G01 X-64.16962 Y0.07805
G01 X-63.77714 Y0.00000
G04 P0 ( dwell for no time -- G64 should not smooth over this point )
G00 Z1.00000 ( retract )

G00 X-71.09706 Y6.37433 ( rapid move to begin. )
G01 F20.00000
( Mill infeed pass 1/1 )
G01 Z-0.30000
G04 P0 ( dwell for no time -- G64 should not smooth over this point )
G01 F30.00000
G01 X-71.09706 Y6.37433
G01 X-71.08330 Y6.32892
G01 X-70.74571 Y5.51393
G01 X-70.71799 Y5.46207
G01 X-70.22790 Y4.72859
G01 X-69.89404 Y4.35592
G01 X-66.34404 Y0.80592
G01 X-65.97137 Y0.47206
G01 X-65.26484 Y0.00000
G01 X-66.16047 Y0.00000
G01 X-66.28854 Y0.08557
G01 X-66.33401 Y0.12286
G01 X-66.69758 Y0.45237
G01 X-70.24759 Y4.00238
G01 X-70.57710 Y4.36596
G01 X-70.61439 Y4.41142
G01 X-71.15894 Y5.22638
G01 X-71.18667 Y5.27825
G01 X-71.47090 Y5.96450
G01 X-71.84240 Y5.56115
G01 X-71.62762 Y5.04256
G01 X-71.59988 Y4.99069
G01 X-71.00090 Y4.09423
G01 X-70.96359 Y4.04876
G01 X-70.60113 Y3.64884
G01 X-67.05112 Y0.09883
G01 X-66.94206 Y0.00000
G01 X-67.65935 Y0.00000
G01 X-70.95467 Y3.29524
G01 X-71.35007 Y3.73156
G01 X-71.38739 Y3.77703
G01 X-72.04085 Y4.75498
G01 X-72.06856 Y4.80685
G01 X-72.21370 Y5.15727
G01 X-72.58408 Y4.75120
G01 X-72.50951 Y4.57116
G01 X-72.48180 Y4.51929
G01 X-71.77390 Y3.45984
G01 X-71.73659 Y3.41437
G01 X-71.30821 Y2.94175
G01 X-68.36646 Y0.00000
G01 X-69.07355 Y0.00000
G01 X-71.66176 Y2.58821
G01 X-72.12307 Y3.09720
G01 X-72.16038 Y3.14264
G01 X-72.92274 Y4.28361
G01 X-72.95444 Y4.34510
G01 X-73.30526 Y3.96047
G01 X-72.54687 Y2.82547
G01 X-72.50958 Y2.78000
G01 X-72.01530 Y2.23467
G01 X-69.78063 Y0.00000
G04 P0 ( dwell for no time -- G64 should not smooth over this point )
G00 Z1.00000 ( retract )

G00 X-71.90191 Y0.00000 ( rapid move to begin. )
G01 F20.00000
( Mill infeed pass 1/1 )
G01 Z-0.30000
G04 P0 ( dwell for no time -- G64 should not smooth over this point )
G01 F30.00000
G01 X-71.90191 Y0.00000
G01 X-73.07595 Y1.17401
G01 X-73.66907 Y1.82844
G01 X-73.70638 Y1.87388
G01 X-74.34412 Y2.82834
G04 P0 ( dwell for no time -- G64 should not smooth over this point )
G00 Z1.00000 ( retract )

G00 X-74.73125 Y3.14599 ( rapid move to begin. )
G01 F20.00000
( Mill infeed pass 1/1 )
G01 Z-0.30000
G04 P0 ( dwell for no time -- G64 should not smooth over this point )
G01 F30.00000
G01 X-74.73125 Y3.14599
G01 X-74.85725 Y3.19819
G01 X-74.90912 Y3.22593
G01 X-76.37607 Y4.20609
G01 X-76.42151 Y4.24340
G01 X-77.66906 Y5.49095
G01 X-77.70637 Y5.53639
G01 X-78.68653 Y7.00334
G01 X-78.71427 Y7.05521
G01 X-79.38943 Y8.68517
G01 X-79.40650 Y8.74146
G01 X-79.75069 Y10.47184
G01 X-79.75646 Y10.53036
G01 X-79.79979 Y11.41250
G01 X-79.79979 Y11.89787
G01 X-79.76171 Y11.91362
G01 X-79.79979 Y11.89787
G01 X-80.42595 Y12.52400
G01 X-81.01907 Y13.17841
G01 X-81.05638 Y13.22387
G01 X-82.03654 Y14.69083
G01 X-82.06428 Y14.74269
G01 X-82.73943 Y16.37266
G01 X-82.75650 Y16.42895
G01 X-83.10070 Y18.15932
G01 X-83.10646 Y18.21785
G01 X-83.14980 Y19.09999
G01 X-83.14980 Y23.89998
G01 X-83.10646 Y24.78212
G01 X-83.10070 Y24.84064
G01 X-82.75650 Y26.57102
G01 X-82.73941 Y26.62730
G01 X-82.06425 Y28.25727
G01 X-82.03654 Y28.30914
G01 X-81.05633 Y29.77609
G01 X-81.01901 Y29.82156
G01 X-80.42590 Y30.47596
G01 X-78.36588 Y32.53595
G01 X-77.71148 Y33.12907
G01 X-77.66601 Y33.16638
G01 X-76.19909 Y34.14654
G01 X-76.14722 Y34.17425
G01 X-74.51725 Y34.84941
G01 X-74.46099 Y34.86648
G01 X-72.73061 Y35.21067
G01 X-72.67209 Y35.21644
G01 X-71.78998 Y35.25977
G01 X-67.27500 Y35.25977
G01 X-66.39286 Y35.21644
G01 X-66.33434 Y35.21067
G01 X-66.25496 Y35.19488
G01 X-66.25496 Y34.68756
G01 X-66.38333 Y34.71309
G01 X-66.44185 Y34.71885
G01 X-67.27500 Y34.75977
G01 X-71.78998 Y34.75977
G01 X-72.62310 Y34.71885
G01 X-72.68162 Y34.71309
G01 X-74.31583 Y34.38802
G01 X-74.37211 Y34.37095
G01 X-75.91153 Y33.73331
G01 X-75.96340 Y33.70560
G01 X-77.34882 Y32.77987
G01 X-77.39428 Y32.74258
G01 X-78.01234 Y32.18241
G01 X-80.07236 Y30.12242
G01 X-80.63253 Y29.50436
G01 X-80.66984 Y29.45889
G01 X-81.59557 Y28.07345
G01 X-81.62331 Y28.02158
G01 X-82.26095 Y26.48217
G01 X-82.27804 Y26.42588
G01 X-82.60311 Y24.79162
G01 X-82.60888 Y24.73310
G01 X-82.64980 Y23.89998
G01 X-82.64980 Y19.09999
G01 X-82.60888 Y18.26684
G01 X-82.60311 Y18.20832
G01 X-82.27804 Y16.57408
G01 X-82.26097 Y16.51780
G01 X-81.62331 Y14.97838
G01 X-81.59560 Y14.92651
G01 X-80.66987 Y13.54107
G01 X-80.63255 Y13.49560
G01 X-80.07238 Y12.87755
G01 X-79.29979 Y12.10495
G01 X-79.26174 Y12.12073
G01 X-79.29979 Y12.10495
G01 X-79.29979 Y11.41250
G01 X-79.25887 Y10.57935
G01 X-79.25311 Y10.52083
G01 X-78.92804 Y8.88660
G01 X-78.91097 Y8.83031
G01 X-78.27330 Y7.29089
G01 X-78.24559 Y7.23903
G01 X-77.31986 Y5.85358
G01 X-77.28255 Y5.80812
G01 X-76.10434 Y4.62991
G01 X-76.05888 Y4.59260
G01 X-74.67343 Y3.66687
G01 X-74.62157 Y3.63916
G01 X-74.37277 Y3.53609
G01 X-74.01430 Y3.92618
G01 X-74.38588 Y4.08010
G01 X-74.43775 Y4.10781
G01 X-75.74168 Y4.97909
G01 X-75.78715 Y5.01640
G01 X-76.89606 Y6.12531
G01 X-76.93337 Y6.17078
G01 X-77.80465 Y7.47471
G01 X-77.83236 Y7.52658
G01 X-78.43251 Y8.97545
G01 X-78.44958 Y9.03173
G01 X-78.75552 Y10.56983
G01 X-78.76129 Y10.62838
G01 X-78.79982 Y11.41250
G01 X-78.79982 Y12.24999
G01 X-78.79690 Y12.30914
G01 X-78.75847 Y12.32499
G01 X-78.79690 Y12.30914
G01 X-79.71884 Y13.23111
G01 X-80.24607 Y13.81280
G01 X-80.28338 Y13.85827
G01 X-81.15465 Y15.16220
G01 X-81.18236 Y15.21407
G01 X-81.78251 Y16.66293
G01 X-81.79958 Y16.71922
G01 X-82.10553 Y18.25732
G01 X-82.11129 Y18.31586
G01 X-82.14982 Y19.09999
G01 X-82.14982 Y23.89998
G01 X-82.11129 Y24.68410
G01 X-82.10553 Y24.74262
G01 X-81.79958 Y26.28074
G01 X-81.78249 Y26.33701
G01 X-81.18236 Y27.78590
G01 X-81.15463 Y27.83776
G01 X-80.28335 Y29.14170
G01 X-80.24604 Y29.18717
G01 X-79.71881 Y29.76888
G01 X-77.65880 Y31.82887
G01 X-77.07711 Y32.35607
G01 X-77.03165 Y32.39338
G01 X-75.72771 Y33.26463
G01 X-75.67585 Y33.29236
G01 X-74.22698 Y33.89249
G01 X-74.17069 Y33.90956
G01 X-72.63260 Y34.21550
G01 X-72.57407 Y34.22127
G01 X-71.78998 Y34.25980
G01 X-67.27500 Y34.25980
G01 X-66.49088 Y34.22127
G01 X-66.43233 Y34.21550
G01 X-66.25496 Y34.18022
G01 X-66.25496 Y31.64357
G01 X-66.67739 Y31.72760
G01 X-66.73591 Y31.73336
G01 X-67.27500 Y31.75986
G01 X-71.78998 Y31.75986
G01 X-72.32904 Y31.73336
G01 X-72.38756 Y31.72760
G01 X-73.44501 Y31.51726
G01 X-73.50130 Y31.50019
G01 X-74.49739 Y31.08759
G01 X-74.54925 Y31.05988
G01 X-75.44570 Y30.46090
G01 X-75.49116 Y30.42359
G01 X-75.89109 Y30.06113
G01 X-77.95110 Y28.00114
G01 X-78.31356 Y27.60121
G01 X-78.35087 Y27.55575
G01 X-78.94988 Y26.65928
G01 X-78.97759 Y26.60741
G01 X-79.39021 Y25.61133
G01 X-79.40728 Y25.55504
G01 X-79.61762 Y24.49759
G01 X-79.62339 Y24.43904
G01 X-79.64988 Y23.89998
G01 X-79.64988 Y19.09999
G01 X-79.62339 Y18.56090
G01 X-79.61762 Y18.50238
G01 X-79.40728 Y17.44492
G01 X-79.39021 Y17.38864
G01 X-78.97762 Y16.39255
G01 X-78.94988 Y16.34068
G01 X-78.35090 Y15.44422
G01 X-78.31358 Y15.39875
G01 X-77.95113 Y14.99883
G01 X-76.25812 Y13.30584
G01 X-76.23825 Y13.31646
G01 X-76.25801 Y13.30482
G01 X-76.21735 Y13.10033
G01 X-76.20846 Y13.10041
G01 X-76.21735 Y13.10033
G01 X-76.26761 Y12.84760
G01 X-76.27338 Y12.78908
G01 X-76.29987 Y12.24999
G01 X-76.29987 Y11.41250
G01 X-76.27338 Y10.87341
G01 X-76.26761 Y10.81489
G01 X-76.05728 Y9.75744
G01 X-76.04021 Y9.70115
G01 X-75.62761 Y8.70506
G01 X-75.59987 Y8.65320
G01 X-75.00089 Y7.75673
G01 X-74.96358 Y7.71126
G01 X-74.20120 Y6.94888
G01 X-74.15573 Y6.91157
G01 X-73.25926 Y6.31259
G01 X-73.20740 Y6.28485
G01 X-72.22894 Y5.87957
G01 X-71.84151 Y6.30017
G01 X-73.30051 Y4.70769
G01 X-73.91448 Y4.96199
G01 X-73.96635 Y4.98973
G01 X-75.10732 Y5.75208
G01 X-75.15276 Y5.78940
G01 X-76.12306 Y6.75970
G01 X-76.16038 Y6.80514
G01 X-76.92273 Y7.94611
G01 X-76.95047 Y7.99798
G01 X-77.47559 Y9.26574
G01 X-77.49266 Y9.32200
G01 X-77.76035 Y10.66785
G01 X-77.76611 Y10.72637
G01 X-77.79982 Y11.41250
G01 X-77.79982 Y12.24999
G01 X-77.77752 Y12.70396
G01 X-77.73375 Y12.72083
G01 X-77.77752 Y12.70396
G01 X-79.01175 Y13.93820
G01 X-79.47307 Y14.44719
G01 X-79.51038 Y14.49263
G01 X-80.27274 Y15.63360
G01 X-80.30047 Y15.68547
G01 X-80.82559 Y16.95323
G01 X-80.84266 Y17.00949
G01 X-81.11035 Y18.35534
G01 X-81.11612 Y18.41386
G01 X-81.14982 Y19.09999
G01 X-81.14982 Y23.89998
G01 X-81.11612 Y24.58608
G01 X-81.11035 Y24.64460
G01 X-80.84266 Y25.99045
G01 X-80.82559 Y26.04673
G01 X-80.30045 Y27.31450
G01 X-80.27274 Y27.36637
G01 X-79.51036 Y28.50733
G01 X-79.47304 Y28.55280
G01 X-79.01173 Y29.06177
G01 X-76.95171 Y31.12176
G01 X-76.44272 Y31.58307
G01 X-76.39726 Y31.62038
G01 X-75.25631 Y32.38274
G01 X-75.20445 Y32.41045
G01 X-73.93671 Y32.93557
G01 X-73.88042 Y32.95264
G01 X-72.53460 Y33.22033
G01 X-72.47606 Y33.22610
G01 X-71.78998 Y33.25980
G01 X-67.27500 Y33.25980
G01 X-66.58887 Y33.22610
G01 X-66.53035 Y33.22033
G01 X-66.25496 Y33.16557
G01 X-66.25496 Y33.67288
G01 X-66.48135 Y33.71792
G01 X-66.53987 Y33.72368
G01 X-67.27500 Y33.75980
G01 X-71.78998 Y33.75980
G01 X-72.52508 Y33.72368
G01 X-72.58360 Y33.71792
G01 X-74.02556 Y33.43110
G01 X-74.08184 Y33.41403
G01 X-75.44013 Y32.85139
G01 X-75.49200 Y32.82368
G01 X-76.71445 Y32.00687
G01 X-76.75992 Y31.96958
G01 X-77.30526 Y31.47532
G01 X-79.36527 Y29.41533
G01 X-79.85953 Y28.86997
G01 X-79.89684 Y28.82453
G01 X-80.71368 Y27.60205
G01 X-80.74139 Y27.55019
G01 X-81.30405 Y26.19187
G01 X-81.32112 Y26.13561
G01 X-81.60794 Y24.69360
G01 X-81.61371 Y24.63508
G01 X-81.64982 Y23.89998
G01 X-81.64982 Y19.09999
G01 X-81.61371 Y18.36486
G01 X-81.60794 Y18.30634
G01 X-81.32112 Y16.86436
G01 X-81.30405 Y16.80807
G01 X-80.74142 Y15.44978
G01 X-80.71368 Y15.39791
G01 X-79.89687 Y14.17546
G01 X-79.85958 Y14.12999
G01 X-79.36530 Y13.58466
G01 X-78.28722 Y12.50655
G01 X-78.24785 Y12.52261
G01 X-78.28722 Y12.50655
G01 X-78.29982 Y12.24999
G01 X-78.29982 Y11.41250
G01 X-78.26370 Y10.67737
G01 X-78.25793 Y10.61885
G01 X-77.97112 Y9.17687
G01 X-77.95405 Y9.12058
G01 X-77.39141 Y7.76229
G01 X-77.36368 Y7.71042
G01 X-76.54686 Y6.48797
G01 X-76.50958 Y6.44248
G01 X-75.46995 Y5.40288
G01 X-75.42449 Y5.36560
G01 X-74.20204 Y4.54878
G01 X-74.15017 Y4.52105
G01 X-73.65703 Y4.31678
G01 X-72.58746 Y5.48947
G01 X-73.44311 Y5.84390
G01 X-73.49498 Y5.87162
G01 X-74.47293 Y6.52506
G01 X-74.51839 Y6.56237
G01 X-75.35007 Y7.39407
G01 X-75.38738 Y7.43953
G01 X-76.04084 Y8.41748
G01 X-76.06856 Y8.46935
G01 X-76.51867 Y9.55601
G01 X-76.53574 Y9.61230
G01 X-76.76520 Y10.76587
G01 X-76.77097 Y10.82439
G01 X-76.79985 Y11.41250
G01 X-76.79985 Y12.24999
G01 X-76.77097 Y12.83807
G01 X-76.76520 Y12.89662
G01 X-76.73048 Y13.07109
G01 X-76.67013 Y13.09022
G01 X-76.73048 Y13.07109
G01 X-78.30467 Y14.64528
G01 X-78.70007 Y15.08155
G01 X-78.73738 Y15.12702
G01 X-79.39085 Y16.10497
G01 X-79.41856 Y16.15684
G01 X-79.86867 Y17.24350
G01 X-79.88574 Y17.29979
G01 X-80.11521 Y18.45335
G01 X-80.12097 Y18.51188
G01 X-80.14985 Y19.09999
G01 X-80.14985 Y23.89998
G01 X-80.12097 Y24.48806
G01 X-80.11521 Y24.54659
G01 X-79.88574 Y25.70018
G01 X-79.86867 Y25.75646
G01 X-79.41856 Y26.84313
G01 X-79.39082 Y26.89497
G01 X-78.73736 Y27.87294
G01 X-78.70005 Y27.91841
G01 X-78.30464 Y28.35468
G01 X-76.24463 Y30.41467
G01 X-75.80836 Y30.81007
G01 X-75.76289 Y30.84739
G01 X-74.78494 Y31.50083
G01 X-74.73307 Y31.52856
G01 X-73.64644 Y31.97865
G01 X-73.59015 Y31.99572
G01 X-72.43658 Y32.22518
G01 X-72.37804 Y32.23095
G01 X-71.78998 Y32.25983
G01 X-67.27500 Y32.25983
G01 X-66.68689 Y32.23095
G01 X-66.62837 Y32.22518
G01 X-66.25496 Y32.15091
G01 X-66.25496 Y32.65823
G01 X-66.57937 Y32.72277
G01 X-66.63789 Y32.72853
G01 X-67.27500 Y32.75983
G01 X-71.78998 Y32.75983
G01 X-72.42706 Y32.72853
G01 X-72.48558 Y32.72277
G01 X-73.73529 Y32.47418
G01 X-73.79157 Y32.45711
G01 X-74.96876 Y31.96951
G01 X-75.02063 Y31.94177
G01 X-76.08009 Y31.23387
G01 X-76.12553 Y31.19658
G01 X-76.59817 Y30.76821
G01 X-78.65819 Y28.70822
G01 X-79.08656 Y28.23561
G01 X-79.12387 Y28.19014
G01 X-79.83177 Y27.13068
G01 X-79.85950 Y27.07881
G01 X-80.34713 Y25.90160
G01 X-80.36420 Y25.84531
G01 X-80.61279 Y24.59561
G01 X-80.61856 Y24.53706
G01 X-80.64985 Y23.89998
G01 X-80.64985 Y19.09999
G01 X-80.61856 Y18.46288
G01 X-80.61279 Y18.40436
G01 X-80.36420 Y17.15463
G01 X-80.34713 Y17.09837
G01 X-79.85950 Y15.92115
G01 X-79.83179 Y15.86928
G01 X-79.12390 Y14.80983
G01 X-79.08658 Y14.76436
G01 X-78.65821 Y14.29174
G01 X-77.26721 Y12.90074
G01 X-77.22329 Y12.91763
G01 X-77.26721 Y12.90074
G01 X-77.29985 Y12.24999
G01 X-77.29985 Y11.41250
G01 X-77.26855 Y10.77539
G01 X-77.26279 Y10.71687
G01 X-77.01420 Y9.46714
G01 X-76.99713 Y9.41088
G01 X-76.50950 Y8.23366
G01 X-76.48179 Y8.18180
G01 X-75.77389 Y7.12234
G01 X-75.73658 Y7.07687
G01 X-74.83559 Y6.17588
G01 X-74.79012 Y6.13857
G01 X-73.73066 Y5.43067
G01 X-73.67880 Y5.40296
G01 X-72.94400 Y5.09859
G01 X-72.58746 Y5.48947
G01 X-73.81743 Y4.14091
G01 X-75.08972 Y2.75590
G01 X-75.14481 Y2.78498
G01 X-76.69324 Y3.81960
G01 X-76.73871 Y3.85691
G01 X-78.05555 Y5.17375
G01 X-78.09286 Y5.21922
G01 X-79.12748 Y6.76765
G01 X-79.15521 Y6.81952
G01 X-79.86789 Y8.54004
G01 X-79.88496 Y8.59633
G01 X-80.24828 Y10.42281
G01 X-80.25402 Y10.48134
G01 X-80.29976 Y11.41250
G01 X-80.29976 Y11.69076
G01 X-80.26171 Y11.70653
G01 X-80.29976 Y11.69076
G01 X-80.77949 Y12.17046
G01 X-81.40555 Y12.86124
G01 X-81.44286 Y12.90671
G01 X-82.47748 Y14.45514
G01 X-82.50522 Y14.50701
G01 X-83.21789 Y16.22753
G01 X-83.23496 Y16.28381
G01 X-83.59828 Y18.11030
G01 X-83.60402 Y18.16882
G01 X-83.64977 Y19.09999
G01 X-83.64977 Y23.89998
G01 X-83.60402 Y24.83112
G01 X-83.59826 Y24.88964
G01 X-83.23496 Y26.71615
G01 X-83.21787 Y26.77244
G01 X-82.50519 Y28.49298
G01 X-82.47748 Y28.54485
G01 X-81.44284 Y30.09328
G01 X-81.40553 Y30.13875
G01 X-80.77944 Y30.82950
G01 X-78.71943 Y32.88949
G01 X-78.02867 Y33.51555
G01 X-77.98321 Y33.55287
G01 X-76.43477 Y34.58748
G01 X-76.38291 Y34.61522
G01 X-74.66239 Y35.32787
G01 X-74.60612 Y35.34494
G01 X-72.77964 Y35.70826
G01 X-72.72109 Y35.71400
G01 X-71.78998 Y35.75975
G01 X-67.27500 Y35.75975
G01 X-66.34383 Y35.71400
G01 X-66.25496 Y35.70221
G01 X-66.25496 Y34.18022
G01 X-65.75499 Y33.16557
G04 P0 ( dwell for no time -- G64 should not smooth over this point )
G00 Z1.00000 ( retract )

G00 X-66.25496 Y29.09364 ( rapid move to begin. )
G01 F20.00000
( Mill infeed pass 1/1 )
G01 Z-0.30000
G04 P0 ( dwell for no time -- G64 should not smooth over this point )
G01 F30.00000
G01 X-66.25496 Y29.09364
G01 X-66.34561 Y29.12496
G01 X-66.92242 Y29.23969
G01 X-67.27500 Y29.25991
G01 X-71.78998 Y29.25991
G01 X-72.14253 Y29.23969
G01 X-72.71931 Y29.12496
G01 X-72.77560 Y29.10789
G01 X-73.31893 Y28.88285
G01 X-73.37080 Y28.85511
G01 X-73.85977 Y28.52839
G01 X-74.12337 Y28.29339
G01 X-76.18339 Y26.23337
G01 X-76.38108 Y26.01526
G01 X-76.41839 Y25.96977
G01 X-76.74513 Y25.48082
G01 X-76.77285 Y25.42893
G01 X-76.99792 Y24.88562
G01 X-77.01498 Y24.82934
G01 X-77.12972 Y24.25253
G01 X-77.14993 Y23.89998
G01 X-77.14993 Y19.09999
G01 X-77.12972 Y18.74741
G01 X-77.01498 Y18.17060
G01 X-76.99792 Y18.11434
G01 X-76.77285 Y17.57101
G01 X-76.74513 Y17.51914
G01 X-76.41841 Y17.03017
G01 X-76.38110 Y16.98470
G01 X-76.18339 Y16.76657
G01 X-73.77880 Y14.36197
G01 X-73.73958 Y14.37797
G01 X-73.77880 Y14.36197
G01 X-73.78548 Y14.29403
G01 X-73.78548 Y13.70594
G01 X-73.77011 Y13.54986
G01 X-73.68070 Y13.10033
G01 X-73.67090 Y13.10033
G01 X-73.68070 Y13.10033
G01 X-73.77971 Y12.60257
G01 X-73.78548 Y12.54402
G01 X-73.79993 Y12.24999
G01 X-73.79993 Y11.41250
G01 X-73.78548 Y11.11844
G01 X-73.77971 Y11.05992
G01 X-73.66498 Y10.48311
G01 X-73.64791 Y10.42685
G01 X-73.42284 Y9.88352
G01 X-73.39513 Y9.83165
G01 X-73.06841 Y9.34268
G01 X-73.03110 Y9.29721
G01 X-72.61525 Y8.88136
G01 X-72.56978 Y8.84405
G01 X-72.08081 Y8.51733
G01 X-72.02894 Y8.48962
G01 X-71.48561 Y8.26455
G01 X-71.42935 Y8.24748
G01 X-70.85254 Y8.13275
G01 X-70.79402 Y8.12698
G01 X-70.18378 Y8.12917
G01 X-69.81828 Y8.57283
G04 P0 ( dwell for no time -- G64 should not smooth over this point )
G00 Z1.00000 ( retract )

G00 X-71.16107 Y7.04677 ( rapid move to begin. )
G01 F20.00000
( Mill infeed pass 1/1 )
G01 Z-0.30000
G04 P0 ( dwell for no time -- G64 should not smooth over this point )
G01 F30.00000
G01 X-71.16107 Y7.04677
G01 X-71.84151 Y6.30017
G01 X-72.00989 Y6.33364
G01 X-72.06618 Y6.35069
G01 X-72.97171 Y6.72579
G01 X-73.02358 Y6.75353
G01 X-73.83854 Y7.29808
G01 X-73.88400 Y7.33537
G01 X-74.57709 Y8.02846
G01 X-74.61438 Y8.07392
G01 X-75.15893 Y8.88888
G01 X-75.18667 Y8.94075
G01 X-75.56175 Y9.84628
G01 X-75.57882 Y9.90257
G01 X-75.77003 Y10.86388
G01 X-75.77579 Y10.92241
G01 X-75.79987 Y11.41250
G01 X-75.79987 Y12.24999
G01 X-75.77579 Y12.74006
G01 X-75.77003 Y12.79860
G01 X-75.71001 Y13.10033
G01 X-75.70020 Y13.10033
G01 X-75.71001 Y13.10033
G01 X-75.76043 Y13.35385
G01 X-75.77582 Y13.53061
G01 X-75.74669 Y13.54419
G01 X-75.77582 Y13.53061
G01 X-77.59758 Y15.35237
G01 X-77.92710 Y15.71595
G01 X-77.96439 Y15.76141
G01 X-78.50894 Y16.57637
G01 X-78.53667 Y16.62824
G01 X-78.91175 Y17.53377
G01 X-78.92882 Y17.59006
G01 X-79.12003 Y18.55137
G01 X-79.12580 Y18.60989
G01 X-79.14988 Y19.09999
G01 X-79.14988 Y23.89998
G01 X-79.12580 Y24.39005
G01 X-79.12003 Y24.44857
G01 X-78.92882 Y25.40988
G01 X-78.91175 Y25.46617
G01 X-78.53665 Y26.37173
G01 X-78.50894 Y26.42359
G01 X-77.96439 Y27.23855
G01 X-77.92707 Y27.28402
G01 X-77.59756 Y27.64760
G01 X-75.53754 Y29.70759
G01 X-75.17397 Y30.03707
G01 X-75.12853 Y30.07439
G01 X-74.31354 Y30.61891
G01 X-74.26168 Y30.64665
G01 X-73.35614 Y31.02173
G01 X-73.29988 Y31.03880
G01 X-72.33856 Y31.23001
G01 X-72.28004 Y31.23578
G01 X-71.78998 Y31.25986
G01 X-67.27500 Y31.25986
G01 X-66.78491 Y31.23578
G01 X-66.72638 Y31.23001
G01 X-66.25499 Y31.13623
G01 X-66.25496 Y30.62892
G01 X-66.77538 Y30.73243
G01 X-66.83393 Y30.73819
G01 X-67.27500 Y30.75986
G01 X-71.78998 Y30.75986
G01 X-72.23102 Y30.73819
G01 X-72.28954 Y30.73243
G01 X-73.15474 Y30.56034
G01 X-73.21100 Y30.54327
G01 X-74.02599 Y30.20571
G01 X-74.07786 Y30.17797
G01 X-74.81133 Y29.68790
G01 X-74.85680 Y29.65059
G01 X-75.18400 Y29.35402
G01 X-77.24402 Y27.29403
G01 X-77.54056 Y26.96682
G01 X-77.57787 Y26.92136
G01 X-78.06797 Y26.18791
G01 X-78.09570 Y26.13604
G01 X-78.43329 Y25.32103
G01 X-78.45036 Y25.26477
G01 X-78.62245 Y24.39957
G01 X-78.62821 Y24.34105
G01 X-78.64988 Y23.89998
G01 X-78.64988 Y19.09999
G01 X-78.62821 Y18.65892
G01 X-78.62245 Y18.60037
G01 X-78.45036 Y17.73519
G01 X-78.43329 Y17.67891
G01 X-78.09570 Y16.86392
G01 X-78.06799 Y16.81206
G01 X-77.57790 Y16.07858
G01 X-77.24404 Y15.70591
G01 X-75.27823 Y13.74013
G01 X-75.24504 Y13.75476
G01 X-75.27823 Y13.74013
G01 X-75.27823 Y13.55893
G01 X-75.26287 Y13.40284
G01 X-75.20269 Y13.10033
G01 X-75.19289 Y13.10033
G01 X-75.20269 Y13.10033
G01 X-75.27244 Y12.74956
G01 X-75.27821 Y12.69106
G01 X-75.29987 Y12.24999
G01 X-75.29987 Y11.41250
G01 X-75.27821 Y10.97143
G01 X-75.27244 Y10.91288
G01 X-75.10036 Y10.04771
G01 X-75.08329 Y9.99142
G01 X-74.74570 Y9.17644
G01 X-74.71799 Y9.12457
G01 X-74.22789 Y8.39109
G01 X-74.19058 Y8.34565
G01 X-73.56681 Y7.72188
G01 X-73.52137 Y7.68457
G01 X-72.78789 Y7.19447
G01 X-72.73602 Y7.16676
G01 X-71.92104 Y6.82917
G01 X-71.86475 Y6.81210
G01 X-71.44984 Y6.72958
G01 X-70.30560 Y7.98129
G01 X-69.81828 Y8.57283
G01 X-69.78200 Y8.62175
G01 X-69.44799 Y9.11997
G01 X-69.18513 Y9.60448
G01 X-69.00045 Y10.04250
G01 X-68.86268 Y10.49548
G01 X-68.78861 Y10.87864
G01 X-68.75635 Y11.20508
G01 X-68.74614 Y11.47163
G01 X-68.74934 Y11.47224
G01 X-68.74614 Y11.47163
G01 X-68.73484 Y11.51379
G01 X-68.70169 Y11.60564
G01 X-68.60873 Y11.91123
G01 X-68.44000 Y12.64577
G01 X-68.44525 Y12.64783
G01 X-68.44000 Y12.64577
G01 X-68.42382 Y12.68039
G01 X-68.24977 Y12.98633
G01 X-68.02366 Y13.36426
G01 X-68.01322 Y13.43464
G01 X-67.98539 Y13.71669
G01 X-67.97827 Y13.86124
G01 X-67.97827 Y14.13876
G01 X-67.98539 Y14.28328
G01 X-68.01322 Y14.56525
G01 X-68.03466 Y14.70990
G01 X-68.09367 Y15.00571
G01 X-68.13001 Y15.15085
G01 X-68.22564 Y15.46294
G01 X-68.27086 Y15.83792
G01 X-68.33900 Y16.17960
G01 X-68.46037 Y16.58699
G01 X-68.56128 Y16.69298
G01 X-71.73907 Y19.87078
G01 X-71.77016 Y19.90865
G01 X-71.77862 Y19.90306
G01 X-71.77016 Y19.90865
G01 X-71.79325 Y19.95188
G01 X-71.82564 Y20.03008
G01 X-71.92424 Y20.28845
G01 X-72.03597 Y20.65449
G01 X-72.05609 Y20.73727
G01 X-72.13407 Y21.14141
G01 X-72.16694 Y21.47740
G01 X-72.17164 Y21.56079
G01 X-72.17072 Y21.89246
G01 X-72.16833 Y21.95129
G01 X-72.13547 Y22.28736
G01 X-72.12259 Y22.37039
G01 X-72.05609 Y22.70364
G01 X-72.03636 Y22.78454
G01 X-71.94751 Y23.08352
G01 X-71.95033 Y23.08469
G01 X-71.94751 Y23.08352
G01 X-71.92617 Y23.13427
G01 X-71.89427 Y23.17913
G01 X-71.89803 Y23.18194
G01 X-71.89427 Y23.17913
G01 X-71.80824 Y23.27420
G01 X-71.54481 Y23.53719
G01 X-71.49234 Y23.58537
G01 X-71.20875 Y23.81700
G01 X-71.01931 Y23.95377
G01 X-71.02079 Y23.95644
G01 X-71.01931 Y23.95377
G01 X-70.97118 Y23.98052
G01 X-70.91837 Y23.99609
G01 X-70.91929 Y23.99924
G01 X-70.91837 Y23.99609
G01 X-70.69559 Y24.03564
G01 X-70.62470 Y24.04623
G01 X-70.19112 Y24.08601
G01 X-69.80890 Y24.08603
G01 X-69.37517 Y24.04656
G01 X-69.29217 Y24.03351
G01 X-68.91924 Y23.95913
G01 X-68.83646 Y23.93902
G01 X-68.42867 Y23.81443
G01 X-68.36415 Y23.79088
G01 X-68.14825 Y23.70747
G01 X-67.18219 Y23.30732
G01 X-66.98618 Y23.23175
G01 X-66.25496 Y23.65484
G01 X-66.25496 Y28.55506
G01 X-66.25496 Y28.01650
G01 X-66.57962 Y28.15097
G01 X-66.63591 Y28.16804
G01 X-67.02044 Y28.24452
G01 X-67.27500 Y28.25991
G01 X-71.78998 Y28.25991
G01 X-72.04451 Y28.24452
G01 X-72.42904 Y28.16804
G01 X-72.48533 Y28.15097
G01 X-72.84753 Y28.00093
G01 X-72.89940 Y27.97322
G01 X-73.22538 Y27.75539
G01 X-73.41629 Y27.58628
G01 X-75.47630 Y25.52629
G01 X-75.60810 Y25.38087
G01 X-75.64542 Y25.33541
G01 X-75.86322 Y25.00942
G01 X-75.89096 Y24.95756
G01 X-76.04100 Y24.59533
G01 X-76.05806 Y24.53907
G01 X-76.13454 Y24.15454
G01 X-76.14994 Y23.89998
G01 X-76.14994 Y19.09999
G01 X-76.13454 Y18.84543
G01 X-76.05806 Y18.46090
G01 X-76.04100 Y18.40461
G01 X-75.89096 Y18.04238
G01 X-75.86322 Y17.99052
G01 X-75.64542 Y17.66453
G01 X-75.47630 Y17.47365
G01 X-72.70524 Y14.70259
G01 X-72.64149 Y14.72184
G01 X-72.70524 Y14.70259
G01 X-72.77496 Y14.35209
G01 X-72.79033 Y14.19601
G01 X-72.79033 Y13.80396
G01 X-72.77496 Y13.64788
G01 X-72.69846 Y13.26332
G01 X-72.65294 Y13.11328
G01 X-72.63719 Y13.07523
G01 X-72.60694 Y13.07450
G01 X-72.63719 Y13.07523
G01 X-72.69099 Y12.94536
G01 X-72.70806 Y12.88908
G01 X-72.78454 Y12.50455
G01 X-72.79993 Y12.24999
G01 X-72.79993 Y11.41250
G01 X-72.78454 Y11.15794
G01 X-72.70806 Y10.77341
G01 X-72.69099 Y10.71712
G01 X-72.54095 Y10.35489
G01 X-72.51322 Y10.30303
G01 X-72.29541 Y9.97704
G01 X-72.25810 Y9.93158
G01 X-71.98088 Y9.65436
G01 X-71.93542 Y9.61705
G01 X-71.60943 Y9.39924
G01 X-71.55757 Y9.37151
G01 X-71.19534 Y9.22147
G01 X-71.13905 Y9.20440
G01 X-70.75452 Y9.12792
G01 X-70.69600 Y9.12216
G01 X-70.30395 Y9.12216
G01 X-70.24543 Y9.12792
G01 X-69.86090 Y9.20440
G01 X-69.80461 Y9.22147
G01 X-69.44238 Y9.37151
G01 X-69.39051 Y9.39924
G01 X-69.24195 Y9.49848
G01 X-69.44799 Y9.11997
G01 X-69.71124 Y8.72731
G01 X-70.19641 Y8.63034
G01 X-70.25493 Y8.62457
G01 X-70.74502 Y8.62457
G01 X-70.80354 Y8.63034
G01 X-71.28421 Y8.72594
G01 X-71.34047 Y8.74301
G01 X-71.79325 Y8.93056
G01 X-71.84512 Y8.95828
G01 X-72.25261 Y9.23056
G01 X-72.29805 Y9.26785
G01 X-72.64461 Y9.61441
G01 X-72.68190 Y9.65985
G01 X-72.95418 Y10.06734
G01 X-72.98190 Y10.11921
G01 X-73.16945 Y10.57199
G01 X-73.18652 Y10.62825
G01 X-73.28212 Y11.10892
G01 X-73.29993 Y11.41250
G01 X-73.29993 Y12.24999
G01 X-73.28789 Y12.49502
G01 X-73.28212 Y12.55354
G01 X-73.18652 Y13.03424
G01 X-73.16892 Y13.09179
G01 X-73.15883 Y13.09182
G01 X-73.16892 Y13.09179
G01 X-73.17692 Y13.11819
G01 X-73.27252 Y13.59888
G01 X-73.28792 Y13.75494
G01 X-73.28792 Y14.24503
G01 X-73.27252 Y14.40109
G01 X-73.24570 Y14.53596
G01 X-73.18941 Y14.55466
G01 X-73.24570 Y14.53596
G01 X-75.82985 Y17.12011
G01 X-76.03190 Y17.34734
G01 X-76.30419 Y17.75483
G01 X-76.33190 Y17.80670
G01 X-76.51946 Y18.25948
G01 X-76.53652 Y18.31574
G01 X-76.63213 Y18.79641
G01 X-76.64994 Y19.09999
G01 X-76.64994 Y23.89998
G01 X-76.63213 Y24.20353
G01 X-76.53652 Y24.68420
G01 X-76.51946 Y24.74046
G01 X-76.33190 Y25.19324
G01 X-76.30419 Y25.24511
G01 X-76.03190 Y25.65260
G01 X-75.82985 Y25.87983
G01 X-73.76983 Y27.93985
G01 X-73.54258 Y28.14190
G01 X-73.13508 Y28.41417
G01 X-73.08324 Y28.44188
G01 X-72.63046 Y28.62943
G01 X-72.57418 Y28.64650
G01 X-72.09353 Y28.74211
G01 X-71.78998 Y28.75991
G01 X-67.27500 Y28.75991
G01 X-66.97142 Y28.74211
G01 X-66.49075 Y28.64650
G01 X-66.43449 Y28.62943
G01 X-66.25496 Y28.55506
G01 X-66.25496 Y29.61427
G01 X-66.87340 Y29.73728
G01 X-67.27500 Y29.75988
G01 X-71.78998 Y29.75988
G01 X-72.19155 Y29.73728
G01 X-72.86445 Y29.60342
G01 X-72.92073 Y29.58635
G01 X-73.55462 Y29.32379
G01 X-73.60648 Y29.29608
G01 X-74.17694 Y28.91490
G01 X-74.22241 Y28.87759
G01 X-74.47691 Y28.64693
G01 X-76.53693 Y26.58692
G01 X-76.80490 Y26.28699
G01 X-77.18608 Y25.71651
G01 X-77.21379 Y25.66464
G01 X-77.47638 Y25.03076
G01 X-77.49344 Y24.97447
G01 X-77.62730 Y24.30155
G01 X-77.64991 Y23.89998
G01 X-77.64991 Y19.09999
G01 X-77.62730 Y18.69839
G01 X-77.49344 Y18.02547
G01 X-77.47638 Y17.96920
G01 X-77.21382 Y17.33532
G01 X-77.18608 Y17.28346
G01 X-76.80490 Y16.71297
G01 X-76.76759 Y16.66751
G01 X-76.53693 Y16.41302
G01 X-74.28306 Y14.15915
G01 X-74.24501 Y14.17490
G01 X-74.28306 Y14.15915
G01 X-74.28306 Y13.65695
G01 X-74.26770 Y13.50086
G01 X-74.18802 Y13.10033
G01 X-74.17824 Y13.10033
G01 X-74.18802 Y13.10033
G01 X-74.27730 Y12.65156
G01 X-74.28306 Y12.59304
G01 X-74.29990 Y12.24999
G01 X-74.29990 Y11.41250
G01 X-74.28306 Y11.06942
G01 X-74.27730 Y11.01090
G01 X-74.14344 Y10.33798
G01 X-74.12637 Y10.28172
G01 X-73.86381 Y9.64783
G01 X-73.83607 Y9.59597
G01 X-73.45489 Y9.02548
G01 X-73.41758 Y8.98002
G01 X-72.93244 Y8.49488
G01 X-72.88698 Y8.45757
G01 X-72.31649 Y8.07639
G01 X-72.26463 Y8.04865
G01 X-71.63074 Y7.78609
G01 X-71.57448 Y7.76902
G01 X-70.90156 Y7.63516
G01 X-70.84304 Y7.62940
G01 X-70.62523 Y7.62940
G01 X-71.05797 Y7.15896
G01 X-71.71962 Y7.29056
G01 X-71.77590 Y7.30763
G01 X-72.50034 Y7.60771
G01 X-72.55220 Y7.63542
G01 X-73.20417 Y8.07105
G01 X-73.24964 Y8.10837
G01 X-73.80409 Y8.66282
G01 X-73.84141 Y8.70829
G01 X-74.27704 Y9.36026
G01 X-74.30475 Y9.41212
G01 X-74.60483 Y10.13656
G01 X-74.62190 Y10.19284
G01 X-74.77488 Y10.96190
G01 X-74.79990 Y11.41250
G01 X-74.79990 Y12.24999
G01 X-74.77486 Y12.70058
G01 X-74.69535 Y13.10033
G01 X-74.68555 Y13.10033
G01 X-74.69535 Y13.10033
G01 X-74.76528 Y13.45187
G01 X-74.78065 Y13.60792
G01 X-74.78065 Y13.94963
G01 X-74.74260 Y13.96540
G01 X-74.78065 Y13.94963
G01 X-76.89047 Y16.05948
G01 X-77.15410 Y16.35031
G01 X-77.19141 Y16.39578
G01 X-77.62705 Y17.04774
G01 X-77.65476 Y17.09961
G01 X-77.95484 Y17.82404
G01 X-77.97190 Y17.88033
G01 X-78.12489 Y18.64939
G01 X-78.14991 Y19.09999
G01 X-78.14991 Y23.89998
G01 X-78.12489 Y24.35055
G01 X-77.97190 Y25.11961
G01 X-77.95484 Y25.17590
G01 X-77.65476 Y25.90033
G01 X-77.62702 Y25.95220
G01 X-77.19139 Y26.60419
G01 X-76.89047 Y26.94048
G01 X-74.83046 Y29.00048
G01 X-74.53960 Y29.26408
G01 X-74.49414 Y29.30139
G01 X-73.84217 Y29.73702
G01 X-73.79030 Y29.76474
G01 X-73.06587 Y30.06481
G01 X-73.00961 Y30.08188
G01 X-72.24055 Y30.23486
G01 X-71.78998 Y30.25988
G01 X-67.27500 Y30.25988
G01 X-66.88292 Y30.24060
G01 X-66.82440 Y30.23486
G01 X-66.25499 Y30.12158
G01 X-66.25496 Y29.61427
G01 X-66.25496 Y31.64357
G01 X-65.75499 Y33.16557
G01 X-65.47963 Y33.22033
G01 X-65.42110 Y33.22610
G01 X-64.73500 Y33.25980
G01 X-63.45999 Y33.25980
G01 X-62.96048 Y33.23526
G01 X-62.43488 Y32.65721
G01 X-62.76437 Y32.72277
G01 X-62.82289 Y32.72853
G01 X-63.45999 Y32.75983
G01 X-64.73500 Y32.75983
G01 X-65.37208 Y32.72853
G01 X-65.43060 Y32.72277
G01 X-65.75499 Y32.65823
G01 X-65.75499 Y32.15091
G01 X-65.38161 Y32.22518
G01 X-65.32309 Y32.23095
G01 X-64.73500 Y32.25983
G01 X-63.45999 Y32.25983
G01 X-62.87191 Y32.23095
G01 X-62.81336 Y32.22518
G01 X-61.88263 Y32.04004
G01 X-61.19487 Y31.27080
G01 X-61.74867 Y31.50019
G01 X-61.80493 Y31.51726
G01 X-62.86238 Y31.72760
G01 X-62.92091 Y31.73336
G01 X-63.45999 Y31.75986
G01 X-64.73500 Y31.75986
G01 X-65.27406 Y31.73336
G01 X-65.33258 Y31.72760
G01 X-65.75499 Y31.64357
G01 X-65.75499 Y31.13626
G01 X-65.28359 Y31.23001
G01 X-65.22507 Y31.23578
G01 X-64.73500 Y31.25986
G01 X-63.45999 Y31.25986
G01 X-62.96990 Y31.23578
G01 X-62.91138 Y31.23001
G01 X-61.95009 Y31.03880
G01 X-61.89381 Y31.02173
G01 X-60.98827 Y30.64665
G01 X-60.93640 Y30.61894
G01 X-60.50366 Y30.32978
G01 X-60.70816 Y29.72943
G01 X-60.66973 Y29.84231
G01 X-61.17209 Y30.17797
G01 X-61.22396 Y30.20571
G01 X-62.03894 Y30.54327
G01 X-62.09523 Y30.56034
G01 X-62.96040 Y30.73243
G01 X-63.01892 Y30.73819
G01 X-63.45999 Y30.75986
G01 X-64.73500 Y30.75986
G01 X-65.17604 Y30.73819
G01 X-65.23459 Y30.73243
G01 X-65.75499 Y30.62892
G01 X-65.75499 Y29.09367
G01 X-65.66436 Y29.12496
G01 X-65.08755 Y29.23969
G01 X-64.73500 Y29.25991
G01 X-63.45999 Y29.25991
G01 X-63.16594 Y29.24546
G01 X-63.10742 Y29.23969
G01 X-62.53063 Y29.12496
G01 X-62.47435 Y29.10789
G01 X-61.93104 Y28.88285
G01 X-61.87918 Y28.85511
G01 X-61.39020 Y28.52842
G01 X-61.22215 Y28.38000
G01 X-61.41402 Y27.87373
G01 X-61.48014 Y27.93985
G01 X-61.70737 Y28.14190
G01 X-62.11486 Y28.41417
G01 X-62.16673 Y28.44190
G01 X-62.61948 Y28.62943
G01 X-62.67577 Y28.64650
G01 X-63.15641 Y28.74211
G01 X-63.45999 Y28.75991
G01 X-64.73500 Y28.75991
G01 X-64.98003 Y28.74787
G01 X-65.03855 Y28.74211
G01 X-65.51922 Y28.64650
G01 X-65.57548 Y28.62943
G01 X-65.75499 Y28.55509
G01 X-65.75499 Y28.01650
G01 X-65.43035 Y28.15097
G01 X-65.37406 Y28.16804
G01 X-64.98953 Y28.24452
G01 X-64.73500 Y28.25991
G01 X-63.45999 Y28.25991
G01 X-63.26396 Y28.25029
G01 X-63.20544 Y28.24452
G01 X-62.82091 Y28.16804
G01 X-62.76462 Y28.15097
G01 X-62.40242 Y28.00093
G01 X-62.35055 Y27.97322
G01 X-62.02456 Y27.75539
G01 X-61.83368 Y27.58630
G01 X-61.58832 Y27.34094
G01 X-61.68923 Y26.98090
G01 X-61.73462 Y26.78016
G01 X-62.18723 Y27.23274
G01 X-62.34176 Y27.36891
G01 X-62.58623 Y27.53225
G01 X-62.63810 Y27.55999
G01 X-62.90975 Y27.67251
G01 X-62.96604 Y27.68958
G01 X-63.25443 Y27.74693
G01 X-63.45999 Y27.75994
G01 X-64.73500 Y27.75994
G01 X-64.94054 Y27.74693
G01 X-65.22893 Y27.68958
G01 X-65.28521 Y27.67251
G01 X-65.55687 Y27.55999
G01 X-65.60873 Y27.53225
G01 X-65.75499 Y27.43454
G01 X-65.75499 Y26.76401
G01 X-65.72011 Y26.80647
G01 X-65.58150 Y26.94508
G01 X-65.53604 Y26.98239
G01 X-65.37305 Y27.09131
G01 X-65.32118 Y27.11902
G01 X-65.14008 Y27.19405
G01 X-65.08379 Y27.21112
G01 X-64.89154 Y27.24937
G01 X-64.73500 Y27.25994
G01 X-63.45999 Y27.25994
G01 X-63.30343 Y27.24937
G01 X-63.11118 Y27.21112
G01 X-63.05489 Y27.19405
G01 X-62.87379 Y27.11905
G01 X-62.82192 Y27.09131
G01 X-62.65893 Y26.98239
G01 X-62.61346 Y26.94511
G01 X-62.54077 Y26.87919
G01 X-61.84290 Y26.18135
G01 X-61.86917 Y25.92253
G01 X-61.87374 Y25.83665
G01 X-61.87460 Y25.59731
G01 X-61.86970 Y25.50107
G01 X-61.87460 Y25.59731
G01 X-61.87437 Y25.83668
G01 X-61.86917 Y25.92253
G01 X-61.83602 Y26.25512
G01 X-61.82192 Y26.34785
G01 X-61.71270 Y26.88847
G01 X-61.57031 Y27.40510
G01 X-61.37372 Y27.98618
G01 X-60.76544 Y29.56936
G01 X-60.46579 Y30.44088
G01 X-61.27519 Y31.36161
G01 X-62.20010 Y32.39747
G01 X-63.77041 Y34.13216
G01 X-64.35212 Y34.79731
G01 X-64.92850 Y35.50194
G01 X-65.11788 Y35.74095
G01 X-65.66614 Y35.71400
G01 X-65.75499 Y35.70221
G01 X-65.75499 Y34.68756
G01 X-65.75499 Y35.19488
G01 X-65.67564 Y35.21067
G01 X-65.61712 Y35.21644
G01 X-64.73040 Y35.25977
G01 X-64.31948 Y34.75977
G01 X-64.73500 Y34.75977
G01 X-65.56812 Y34.71885
G01 X-65.62664 Y34.71309
G01 X-65.75499 Y34.68756
G01 X-65.75499 Y33.67291
G01 X-65.75499 Y34.18022
G01 X-65.57764 Y34.21550
G01 X-65.51910 Y34.22127
G01 X-64.73500 Y34.25980
G01 X-63.88207 Y34.25980
G01 X-63.43259 Y33.75845
G01 X-64.73500 Y33.75980
G01 X-65.47010 Y33.72368
G01 X-65.52862 Y33.71792
G01 X-65.75499 Y33.67291
G01 X-65.75499 Y29.61427
G01 X-65.75499 Y30.12158
G01 X-65.18557 Y30.23486
G01 X-64.73500 Y30.25988
G01 X-63.45999 Y30.25988
G01 X-63.06792 Y30.24063
G01 X-63.00940 Y30.23486
G01 X-62.24036 Y30.08188
G01 X-62.18408 Y30.06481
G01 X-61.45964 Y29.76476
G01 X-61.40778 Y29.73702
G01 X-60.84504 Y29.36100
G01 X-61.02916 Y28.87894
G01 X-61.07300 Y28.91490
G01 X-61.64349 Y29.29608
G01 X-61.69533 Y29.32379
G01 X-62.32921 Y29.58635
G01 X-62.38550 Y29.60342
G01 X-63.05840 Y29.73728
G01 X-63.45999 Y29.75988
G01 X-64.73500 Y29.75988
G01 X-65.13657 Y29.73728
G01 X-65.75499 Y29.61427
G01 X-65.75499 Y23.77102
G01 X-65.46807 Y23.78456
G01 X-65.75499 Y23.90341
G01 X-65.46807 Y23.78456
G01 X-64.65181 Y23.81626
G01 X-64.65113 Y23.82223
G01 X-64.65181 Y23.81626
G01 X-64.60155 Y23.81286
G01 X-64.55301 Y23.79944
G01 X-64.50813 Y23.77658
G01 X-64.49949 Y23.79137
G01 X-64.50813 Y23.77658
G01 X-64.46873 Y23.74516
G01 X-64.37320 Y23.65174
G01 X-63.69820 Y22.97674
G01 X-63.54996 Y22.82005
G01 X-63.69820 Y22.97674
G01 X-64.04996 Y23.32850
G01 X-64.04996 Y24.00440
G01 X-64.01189 Y24.02014
G01 X-64.04996 Y24.00440
G01 X-64.20554 Y24.15997
G01 X-64.19004 Y24.19685
G01 X-64.20554 Y24.15997
G01 X-64.73500 Y24.15997
G01 X-64.94054 Y24.17298
G01 X-65.22893 Y24.23033
G01 X-65.28521 Y24.24740
G01 X-65.55687 Y24.35992
G01 X-65.60873 Y24.38766
G01 X-65.75499 Y24.48537
G01 X-65.75499 Y25.15591
G01 X-65.72011 Y25.11344
G01 X-65.58150 Y24.97483
G01 X-65.53604 Y24.93752
G01 X-65.37305 Y24.82860
G01 X-65.32118 Y24.80089
G01 X-65.14008 Y24.72586
G01 X-65.08379 Y24.70879
G01 X-64.89154 Y24.67054
G01 X-64.73500 Y24.65997
G01 X-63.99845 Y24.65997
G01 X-63.98268 Y24.69802
G01 X-63.99845 Y24.65997
G01 X-63.54996 Y24.21148
G01 X-63.51191 Y24.22726
G01 X-63.54996 Y24.21148
G01 X-63.54996 Y22.82005
G01 X-63.34613 Y22.57565
G01 X-63.29464 Y22.50722
G01 X-63.17056 Y22.32144
G01 X-63.04999 Y22.10125
G04 P0 ( dwell for no time -- G64 should not smooth over this point )
G00 Z1.00000 ( retract )

G00 X-61.36881 Y25.51339 ( rapid move to begin. )
G01 F20.00000
( Mill infeed pass 1/1 )
G01 Z-0.30000
G04 P0 ( dwell for no time -- G64 should not smooth over this point )
G01 F30.00000
G01 X-61.36881 Y25.51339
G01 X-61.37458 Y25.60256
G01 X-61.37110 Y25.87846
G01 X-61.33856 Y26.19880
G01 X-61.32830 Y26.26794
G01 X-61.22604 Y26.77239
G01 X-61.09056 Y27.26416
G01 X-60.90602 Y27.80937
G01 X-60.29742 Y29.39344
G01 X-60.19030 Y29.69910
G01 X-60.02083 Y29.19992
G01 X-60.37133 Y29.19992
G01 X-60.02083 Y29.19992
G01 X-59.85960 Y28.75968
G01 X-59.64789 Y28.19994
G01 X-60.75571 Y28.19994
G01 X-60.56231 Y28.69992
G01 X-59.83702 Y28.69992
G01 X-59.25276 Y27.16017
G01 X-59.45302 Y27.69149
G01 X-59.62498 Y27.69994
G01 X-60.87499 Y27.69994
G01 X-60.94618 Y27.69644
G01 X-61.09056 Y27.26416
G01 X-61.11240 Y27.18625
G01 X-60.87499 Y27.19995
G01 X-59.62498 Y27.19995
G01 X-59.38020 Y27.18552
G01 X-59.25276 Y27.16017
G01 X-58.75922 Y25.84513
G01 X-59.03852 Y26.59342
G01 X-59.09389 Y26.61633
G01 X-59.14080 Y26.63058
G01 X-59.42919 Y26.68793
G01 X-59.62498 Y26.69997
G01 X-60.87499 Y26.69997
G01 X-61.07079 Y26.68793
G01 X-61.25040 Y26.65222
G01 X-61.32830 Y26.26794
G01 X-61.34842 Y26.10165
G01 X-61.26094 Y26.13787
G01 X-61.21405 Y26.15212
G01 X-61.02177 Y26.19032
G01 X-60.97300 Y26.19517
G01 X-60.87499 Y26.19997
G01 X-59.62498 Y26.19997
G01 X-59.52698 Y26.19517
G01 X-59.47819 Y26.19032
G01 X-59.28594 Y26.15212
G01 X-59.23902 Y26.13787
G01 X-59.05792 Y26.06286
G01 X-59.01472 Y26.03978
G01 X-58.85170 Y25.93083
G01 X-58.81383 Y25.89977
G01 X-58.75922 Y25.84513
G01 X-58.73140 Y25.76764
G01 X-58.65675 Y25.51572
G01 X-58.61093 Y25.27648
G01 X-58.59178 Y25.08245
G01 X-58.58086 Y24.81461
G01 X-58.55109 Y24.53660
G01 X-58.48850 Y24.24024
G01 X-58.36399 Y23.83147
G01 X-58.50758 Y23.61466
G01 X-58.48485 Y23.64872
G01 X-58.43709 Y23.76404
G01 X-58.42287 Y23.81093
G01 X-58.39755 Y23.93810
G01 X-58.42287 Y23.81093
G01 X-58.43709 Y23.76404
G01 X-58.48485 Y23.64872
G01 X-58.52978 Y23.58476
G01 X-58.67377 Y23.40922
G01 X-58.83046 Y23.24997
G01 X-60.91888 Y23.24997
G01 X-60.98657 Y23.33678
G01 X-61.04318 Y23.42121
G01 X-61.04316 Y22.57877
G01 X-60.98657 Y22.66320
G01 X-60.91890 Y22.74997
G01 X-58.97631 Y22.74997
G01 X-58.97865 Y22.57171
G01 X-58.99747 Y22.37631
G01 X-59.01388 Y22.28106
G01 X-58.97616 Y22.22457
G01 X-58.95304 Y22.18136
G01 X-58.91555 Y22.09081
G01 X-58.90133 Y22.04390
G01 X-58.88220 Y21.94776
G01 X-58.87740 Y21.89899
G01 X-58.87524 Y21.85540
G01 X-58.88528 Y21.82891
G01 X-58.87524 Y21.85540
G01 X-58.88220 Y21.94776
G01 X-58.90133 Y22.04390
G01 X-58.91555 Y22.09081
G01 X-58.95304 Y22.18136
G01 X-58.97616 Y22.22457
G01 X-59.03062 Y22.30608
G01 X-59.06171 Y22.34395
G01 X-59.13102 Y22.41326
G01 X-59.16889 Y22.44435
G01 X-59.25040 Y22.49881
G01 X-59.29361 Y22.52193
G01 X-59.38418 Y22.55942
G01 X-59.43107 Y22.57367
G01 X-59.52721 Y22.59277
G01 X-59.62498 Y22.59998
G01 X-60.87499 Y22.59998
G01 X-60.97278 Y22.59277
G01 X-61.06889 Y22.57367
G01 X-61.11580 Y22.55942
G01 X-61.20635 Y22.52193
G01 X-61.24959 Y22.49881
G01 X-61.33107 Y22.44435
G01 X-61.36897 Y22.41326
G01 X-61.44994 Y22.32975
G01 X-61.46010 Y22.30135
G01 X-61.44994 Y22.32975
G01 X-61.44997 Y23.13010
G01 X-61.44997 Y22.86983
G01 X-61.35926 Y22.99998
G01 X-61.44997 Y23.13010
G01 X-61.44997 Y23.67026
G01 X-61.46010 Y23.69863
G01 X-61.44997 Y23.67026
G01 X-61.36897 Y23.58669
G01 X-61.33107 Y23.55560
G01 X-61.24959 Y23.50115
G01 X-61.20635 Y23.47806
G01 X-61.11580 Y23.44054
G01 X-61.06889 Y23.42632
G01 X-60.97278 Y23.40719
G01 X-60.87499 Y23.39998
G01 X-59.62498 Y23.39998
G01 X-59.52721 Y23.40719
G01 X-59.43107 Y23.42632
G01 X-59.38418 Y23.44054
G01 X-59.29361 Y23.47806
G01 X-59.25040 Y23.50115
G01 X-59.16889 Y23.55560
G01 X-59.13102 Y23.58669
G01 X-59.06171 Y23.65601
G01 X-59.03062 Y23.69391
G01 X-58.97616 Y23.77539
G01 X-58.95304 Y23.81862
G01 X-58.91555 Y23.90917
G01 X-58.90133 Y23.95606
G01 X-58.88220 Y24.05220
G01 X-58.87499 Y24.14999
G01 X-58.87499 Y24.94999
G01 X-58.88220 Y25.04778
G01 X-58.90133 Y25.14389
G01 X-58.91555 Y25.19081
G01 X-58.95304 Y25.28136
G01 X-58.97616 Y25.32459
G01 X-59.03062 Y25.40607
G01 X-59.06171 Y25.44394
G01 X-59.13102 Y25.51326
G01 X-59.16889 Y25.54435
G01 X-59.25040 Y25.59881
G01 X-59.29361 Y25.62192
G01 X-59.38418 Y25.65944
G01 X-59.43107 Y25.67366
G01 X-59.52721 Y25.69279
G01 X-59.57598 Y25.69759
G01 X-60.87499 Y25.70000
G01 X-60.97278 Y25.69279
G01 X-61.06889 Y25.67366
G01 X-61.11580 Y25.65944
G01 X-61.20635 Y25.62192
G01 X-61.24959 Y25.59881
G01 X-61.33107 Y25.54435
G01 X-61.36881 Y25.51339
G01 X-61.43826 Y25.44394
G01 X-61.46937 Y25.40607
G01 X-61.52380 Y25.32459
G01 X-61.54692 Y25.28136
G01 X-61.58372 Y25.19251
G01 X-61.58034 Y25.16525
G01 X-61.58306 Y25.18750
G01 X-61.58070 Y25.16807
G01 X-61.58306 Y25.18750
G01 X-61.61402 Y25.23386
G01 X-61.68431 Y25.31567
G01 X-62.93066 Y26.55860
G01 X-62.97612 Y26.59591
G01 X-63.05761 Y26.65037
G01 X-63.10947 Y26.67808
G01 X-63.20003 Y26.71559
G01 X-63.25631 Y26.73266
G01 X-63.35245 Y26.75179
G01 X-63.41097 Y26.75755
G01 X-64.73500 Y26.75997
G01 X-64.84252 Y26.75179
G01 X-64.93866 Y26.73266
G01 X-64.99494 Y26.71559
G01 X-65.08549 Y26.67808
G01 X-65.13736 Y26.65037
G01 X-65.21884 Y26.59591
G01 X-65.26431 Y26.55860
G01 X-65.33363 Y26.48928
G01 X-65.37094 Y26.44381
G01 X-65.42540 Y26.36233
G01 X-65.45311 Y26.31044
G01 X-65.49062 Y26.21991
G01 X-65.50769 Y26.16363
G01 X-65.52682 Y26.06746
G01 X-65.53258 Y26.00896
G01 X-65.53258 Y25.91095
G01 X-65.52682 Y25.85240
G01 X-65.50769 Y25.75629
G01 X-65.49062 Y25.70000
G01 X-65.45311 Y25.60945
G01 X-65.42540 Y25.55758
G01 X-65.37094 Y25.47610
G01 X-65.33363 Y25.43063
G01 X-65.26431 Y25.36132
G01 X-65.21884 Y25.32400
G01 X-65.13736 Y25.26955
G01 X-65.08549 Y25.24183
G01 X-64.99494 Y25.20432
G01 X-64.93866 Y25.18725
G01 X-64.84252 Y25.16812
G01 X-64.78400 Y25.16236
G01 X-63.79134 Y25.15994
G01 X-63.04999 Y24.41859
G01 X-63.04999 Y18.96072
G01 X-63.04999 Y19.39869
G01 X-63.14183 Y19.22734
G01 X-63.20290 Y19.13054
G01 X-63.09449 Y19.01429
G01 X-63.04999 Y18.96072
G01 X-63.04999 Y18.53695
G01 X-63.03983 Y18.52000
G01 X-63.04999 Y18.53695
G01 X-63.15918 Y18.58442
G01 X-63.20607 Y18.59864
G01 X-63.30221 Y18.61777
G01 X-63.35098 Y18.62257
G01 X-64.20000 Y18.62498
G01 X-64.29776 Y18.61777
G01 X-64.39390 Y18.59864
G01 X-64.44079 Y18.58442
G01 X-64.53137 Y18.54693
G01 X-64.57457 Y18.52381
G01 X-64.65608 Y18.46936
G01 X-64.69395 Y18.43827
G01 X-64.76327 Y18.36895
G01 X-64.79436 Y18.33108
G01 X-64.85034 Y18.24672
G01 X-64.79436 Y18.33108
G01 X-64.76327 Y18.36895
G01 X-64.69395 Y18.43827
G01 X-64.65608 Y18.46936
G01 X-64.57457 Y18.52381
G01 X-64.53137 Y18.54693
G01 X-64.44079 Y18.58442
G01 X-64.39390 Y18.59864
G01 X-64.29776 Y18.61777
G01 X-64.20000 Y18.62498
G01 X-63.42121 Y18.62498
G01 X-63.50724 Y18.72518
G01 X-63.61831 Y18.83976
G01 X-63.77554 Y18.82734
G01 X-64.19693 Y18.82498
G01 X-64.32385 Y18.82089
G01 X-64.50068 Y18.80342
G01 X-64.88854 Y18.74794
G01 X-64.88852 Y18.68322
G01 X-64.87752 Y18.51434
G01 X-64.85034 Y18.24672
G01 X-64.87193 Y18.20636
G01 X-64.90942 Y18.11579
G01 X-64.92364 Y18.06890
G01 X-64.94277 Y17.97276
G01 X-64.94757 Y17.92399
G01 X-64.94998 Y16.62499
G01 X-64.94277 Y16.52720
G01 X-64.92364 Y16.43108
G01 X-64.90942 Y16.38417
G01 X-64.87193 Y16.29362
G01 X-64.84882 Y16.25039
G01 X-64.79436 Y16.16890
G01 X-64.76327 Y16.13101
G01 X-64.69395 Y16.06172
G01 X-64.65608 Y16.03063
G01 X-64.57457 Y15.97617
G01 X-64.53137 Y15.95305
G01 X-64.44079 Y15.91554
G01 X-64.39390 Y15.90131
G01 X-64.29776 Y15.88219
G01 X-64.20000 Y15.87500
G01 X-63.83111 Y15.87500
G01 X-64.20000 Y15.87500
G01 X-64.29776 Y15.88219
G01 X-64.39390 Y15.90131
G01 X-64.44079 Y15.91554
G01 X-64.53137 Y15.95305
G01 X-64.57457 Y15.97617
G01 X-64.65608 Y16.03063
G01 X-64.69395 Y16.06172
G01 X-64.68727 Y16.05620
G01 X-64.62433 Y15.90992
G01 X-64.51803 Y15.71625
G01 X-64.39591 Y15.53413
G01 X-64.30663 Y15.42186
G01 X-63.96815 Y15.75638
G01 X-63.83111 Y15.87500
G01 X-63.40338 Y15.87500
G01 X-63.38567 Y15.88585
G01 X-63.40338 Y15.87500
G01 X-63.41808 Y15.84754
G01 X-63.45560 Y15.75699
G01 X-63.47267 Y15.70071
G01 X-63.49180 Y15.60457
G01 X-63.49997 Y15.49705
G01 X-63.49997 Y6.53550
G01 X-63.99995 Y7.74169
G01 X-63.99995 Y15.02146
G01 X-63.70325 Y15.31816
G01 X-63.57336 Y15.43952
G01 X-63.49982 Y15.50010
G01 X-63.57336 Y15.43952
G01 X-63.70325 Y15.31816
G01 X-64.07473 Y14.94902
G01 X-64.07473 Y12.51900
G01 X-64.08042 Y12.31770
G01 X-64.11775 Y11.97097
G01 X-64.17676 Y11.67354
G01 X-64.28367 Y11.31346
G01 X-64.34996 Y11.13513
G01 X-64.34996 Y8.58670
G01 X-63.49997 Y6.53550
G01 X-63.49756 Y6.40095
G01 X-63.49180 Y6.34246
G01 X-63.47267 Y6.24632
G01 X-63.45560 Y6.19006
G01 X-63.41808 Y6.09948
G01 X-63.39037 Y6.04761
G01 X-63.33592 Y5.96613
G01 X-63.26566 Y5.88432
G01 X-62.38133 Y4.99999
G01 X-62.35682 Y4.98983
G01 X-62.38133 Y4.99999
G01 X-62.61859 Y4.99999
G01 X-65.69997 Y8.08137
G01 X-65.69997 Y11.63711
G01 X-65.38379 Y11.95332
G01 X-65.31353 Y12.03513
G01 X-65.25908 Y12.11664
G01 X-65.23137 Y12.16850
G01 X-65.19385 Y12.25906
G01 X-65.17678 Y12.31532
G01 X-65.15765 Y12.41146
G01 X-65.14948 Y12.51900
G01 X-65.14948 Y15.86558
G01 X-65.07363 Y15.69049
G01 X-64.94358 Y15.45369
G01 X-64.80104 Y15.24104
G01 X-64.64950 Y15.05174
G01 X-64.64950 Y12.51900
G01 X-64.66007 Y12.36246
G01 X-64.69832 Y12.17018
G01 X-64.71539 Y12.11392
G01 X-64.79040 Y11.93282
G01 X-64.81813 Y11.88095
G01 X-64.92702 Y11.71796
G01 X-65.03022 Y11.59977
G01 X-65.20000 Y11.43000
G01 X-65.23670 Y11.44491
G01 X-65.20000 Y11.43000
G01 X-65.20000 Y8.28845
G01 X-65.23805 Y8.27270
G01 X-65.20000 Y8.28845
G01 X-64.46187 Y7.55033
G01 X-63.96144 Y6.34284
G01 X-64.83093 Y8.44131
G01 X-64.84516 Y8.48822
G01 X-64.85458 Y8.48634
G01 X-64.84516 Y8.48822
G01 X-64.84996 Y8.53699
G01 X-64.85209 Y11.18171
G01 X-64.84577 Y11.22716
G01 X-64.83436 Y11.27150
G01 X-64.76025 Y11.46475
G01 X-64.66401 Y11.78938
G01 X-64.61191 Y12.05055
G01 X-64.58019 Y12.34844
G01 X-64.57470 Y12.52205
G01 X-64.57470 Y14.96098
G01 X-64.80139 Y15.24079
G01 X-64.94402 Y15.45344
G01 X-65.07414 Y15.69024
G01 X-65.14948 Y15.86558
G01 X-65.14948 Y17.66999
G01 X-65.15765 Y17.77751
G01 X-65.17678 Y17.87365
G01 X-65.19385 Y17.92994
G01 X-65.23137 Y18.02049
G01 X-65.25908 Y18.07235
G01 X-65.31353 Y18.15384
G01 X-65.38379 Y18.23568
G01 X-69.43428 Y22.28616
G01 X-69.51612 Y22.35642
G01 X-69.59760 Y22.41088
G01 X-69.64947 Y22.43859
G01 X-69.74002 Y22.47610
G01 X-69.79630 Y22.49317
G01 X-69.89244 Y22.51230
G01 X-69.95096 Y22.51807
G01 X-70.04898 Y22.51807
G01 X-70.10751 Y22.51230
G01 X-70.20364 Y22.49317
G01 X-70.25993 Y22.47610
G01 X-70.35048 Y22.43859
G01 X-70.40235 Y22.41088
G01 X-70.48383 Y22.35642
G01 X-70.52930 Y22.31911
G01 X-70.59861 Y22.24979
G01 X-70.63593 Y22.20432
G01 X-70.69038 Y22.12284
G01 X-70.71810 Y22.07097
G01 X-70.75561 Y21.98042
G01 X-70.77268 Y21.92414
G01 X-70.79181 Y21.82800
G01 X-70.79757 Y21.76948
G01 X-70.79757 Y21.67146
G01 X-70.79181 Y21.61294
G01 X-70.77268 Y21.51680
G01 X-70.75561 Y21.46051
G01 X-70.71810 Y21.36996
G01 X-70.69038 Y21.31809
G01 X-70.63593 Y21.23661
G01 X-70.59861 Y21.19114
G01 X-66.74950 Y17.33860
G01 X-66.74950 Y12.85034
G01 X-67.06568 Y12.53414
G01 X-67.13593 Y12.45232
G01 X-67.19039 Y12.37082
G01 X-67.21810 Y12.31895
G01 X-67.25562 Y12.22840
G01 X-67.27269 Y12.17214
G01 X-67.29181 Y12.07600
G01 X-67.29999 Y11.96848
G01 X-67.29999 Y7.75000
G01 X-67.29181 Y7.64245
G01 X-67.27269 Y7.54631
G01 X-67.25562 Y7.49003
G01 X-67.21810 Y7.39948
G01 X-67.19039 Y7.34761
G01 X-67.13593 Y7.26613
G01 X-67.06568 Y7.18429
G01 X-63.51567 Y3.63428
G01 X-63.43383 Y3.56403
G01 X-63.35235 Y3.50957
G01 X-63.30048 Y3.48186
G01 X-63.20993 Y3.44434
G01 X-63.15365 Y3.42727
G01 X-63.05751 Y3.40815
G01 X-62.94999 Y3.39997
G01 X-49.29998 Y3.39997
G01 X-49.19243 Y3.40815
G01 X-49.09629 Y3.42727
G01 X-49.04001 Y3.44434
G01 X-48.94946 Y3.48186
G01 X-48.89759 Y3.50957
G01 X-48.81611 Y3.56403
G01 X-48.73427 Y3.63428
G01 X-47.13427 Y5.23428
G01 X-47.06402 Y5.31612
G01 X-47.00956 Y5.39760
G01 X-46.98185 Y5.44947
G01 X-46.94433 Y5.54002
G01 X-46.92726 Y5.59631
G01 X-46.90814 Y5.69244
G01 X-46.89996 Y5.79999
G01 X-46.89996 Y17.62742
G01 X-45.53633 Y18.99448
G01 X-45.49902 Y19.03994
G01 X-45.44456 Y19.12142
G01 X-45.41685 Y19.17329
G01 X-45.37934 Y19.26384
G01 X-45.36227 Y19.32013
G01 X-45.34314 Y19.41627
G01 X-45.33737 Y19.47479
G01 X-45.33496 Y22.34999
G01 X-45.34314 Y22.45751
G01 X-45.36227 Y22.55365
G01 X-45.37934 Y22.60994
G01 X-45.41685 Y22.70049
G01 X-45.44456 Y22.75235
G01 X-45.49902 Y22.83384
G01 X-45.53633 Y22.87930
G01 X-45.60565 Y22.94862
G01 X-45.65112 Y22.98593
G01 X-45.73260 Y23.04039
G01 X-45.78447 Y23.06810
G01 X-45.87502 Y23.10562
G01 X-45.93130 Y23.12269
G01 X-46.02744 Y23.14181
G01 X-46.08596 Y23.14758
G01 X-46.18398 Y23.14758
G01 X-46.24250 Y23.14181
G01 X-46.33864 Y23.12269
G01 X-46.39493 Y23.10562
G01 X-46.48548 Y23.06810
G01 X-46.51997 Y23.04966
G01 X-47.87496 Y23.46152
G01 X-47.73783 Y23.62924
G01 X-47.67704 Y23.69716
G01 X-46.97628 Y24.41633
G01 X-46.31012 Y25.78611
G01 X-45.82140 Y26.78064
G01 X-45.08327 Y28.20142
G01 X-44.14804 Y29.82516
G01 X-43.38251 Y31.08023
G01 X-48.09807 Y29.58335
G01 X-47.34621 Y29.82168
G01 X-46.87766 Y29.62763
G01 X-46.82579 Y29.59989
G01 X-45.92935 Y29.00093
G01 X-45.88388 Y28.96362
G01 X-45.48398 Y28.60116
G01 X-45.08358 Y28.20078
G01 X-45.82140 Y26.78064
G01 X-45.32533 Y27.73545
G01 X-45.83750 Y28.24762
G01 X-46.20108 Y28.57711
G01 X-46.24654 Y28.61442
G01 X-47.06148 Y29.15895
G01 X-47.11334 Y29.18666
G01 X-48.01888 Y29.56174
G01 X-48.07516 Y29.57881
G01 X-48.09807 Y29.58335
G01 X-49.51666 Y29.13266
G01 X-50.09004 Y28.96941
G01 X-50.57610 Y28.85862
G01 X-51.07440 Y28.77332
G01 X-51.92017 Y28.68922
G01 X-52.39057 Y28.67668
G01 X-52.61719 Y28.67660
G01 X-53.29779 Y28.54538
G01 X-53.82804 Y28.47584
G01 X-53.88351 Y28.47513
G01 X-53.88453 Y28.46385
G01 X-53.88351 Y28.47513
G01 X-53.93776 Y28.48666
G01 X-54.35547 Y28.62539
G01 X-55.29697 Y28.92369
G01 X-56.04269 Y29.14899
G01 X-56.78439 Y29.36273
G01 X-57.81030 Y29.64358
G01 X-58.87286 Y29.91904
G01 X-59.81487 Y30.15270
G01 X-59.70918 Y29.83697
G01 X-59.39475 Y30.04708
G01 X-59.70918 Y29.83697
G01 X-59.58528 Y29.46674
G01 X-59.36643 Y28.86911
G01 X-59.54326 Y29.34940
G01 X-59.05221 Y29.67754
G01 X-59.00034 Y29.70525
G01 X-58.63300 Y29.85740
G01 X-57.70943 Y29.61653
G01 X-58.07448 Y29.54393
G01 X-58.13074 Y29.52686
G01 X-58.76463 Y29.26431
G01 X-58.81649 Y29.23657
G01 X-59.36643 Y28.86911
G01 X-58.63933 Y26.95514
G01 X-58.29254 Y26.02497
G01 X-58.57227 Y26.77422
G01 X-58.40893 Y27.01872
G01 X-58.37161 Y27.06418
G01 X-58.16369 Y27.27211
G01 X-58.11822 Y27.30942
G01 X-57.87372 Y27.47277
G01 X-57.82186 Y27.50050
G01 X-57.55020 Y27.61303
G01 X-57.49392 Y27.63009
G01 X-57.20552 Y27.68745
G01 X-57.14700 Y27.69321
G01 X-56.85295 Y27.69321
G01 X-56.79443 Y27.68745
G01 X-56.50603 Y27.63009
G01 X-56.44975 Y27.61303
G01 X-56.17809 Y27.50050
G01 X-56.12623 Y27.47277
G01 X-55.88173 Y27.30942
G01 X-55.83626 Y27.27211
G01 X-55.62834 Y27.06418
G01 X-55.59102 Y27.01872
G01 X-55.42768 Y26.77422
G01 X-55.39994 Y26.72235
G01 X-55.28742 Y26.45070
G01 X-55.27035 Y26.39441
G01 X-55.25155 Y26.29995
G01 X-55.33662 Y26.19228
G01 X-55.25155 Y26.29995
G01 X-49.58507 Y26.29995
G01 X-49.37950 Y26.28692
G01 X-49.09111 Y26.22959
G01 X-49.03483 Y26.21252
G01 X-48.76317 Y26.09997
G01 X-48.71131 Y26.07226
G01 X-48.46683 Y25.90891
G01 X-48.31230 Y25.77274
G01 X-47.40222 Y24.86271
G01 X-47.30336 Y24.75362
G01 X-47.26605 Y24.70818
G01 X-47.10267 Y24.46368
G01 X-47.07496 Y24.41181
G01 X-47.04707 Y24.34453
G01 X-47.42835 Y23.95370
G01 X-47.44088 Y23.99500
G01 X-47.51591 Y24.17610
G01 X-47.54362 Y24.22797
G01 X-47.65253 Y24.39098
G01 X-47.68985 Y24.43643
G01 X-47.75576 Y24.50915
G01 X-48.66584 Y25.41920
G01 X-48.78400 Y25.52243
G01 X-48.94699 Y25.63132
G01 X-48.99886 Y25.65905
G01 X-49.17996 Y25.73406
G01 X-49.23625 Y25.75113
G01 X-49.42850 Y25.78938
G01 X-49.58507 Y25.79995
G01 X-55.69999 Y25.79995
G01 X-55.83362 Y25.66071
G01 X-55.69999 Y25.79995
G01 X-55.69999 Y25.90048
G01 X-55.71056 Y26.05702
G01 X-55.74881 Y26.24927
G01 X-55.76588 Y26.30556
G01 X-55.84091 Y26.48666
G01 X-55.86862 Y26.53853
G01 X-55.97754 Y26.70152
G01 X-56.01485 Y26.74699
G01 X-56.15346 Y26.88560
G01 X-56.19892 Y26.92291
G01 X-56.36191 Y27.03182
G01 X-56.41378 Y27.05953
G01 X-56.59488 Y27.13457
G01 X-56.65117 Y27.15163
G01 X-56.84342 Y27.18989
G01 X-56.90197 Y27.19565
G01 X-57.09798 Y27.19565
G01 X-57.15653 Y27.18989
G01 X-57.34878 Y27.15163
G01 X-57.40507 Y27.13457
G01 X-57.58617 Y27.05953
G01 X-57.63804 Y27.03182
G01 X-57.80103 Y26.92291
G01 X-57.84649 Y26.88560
G01 X-57.98510 Y26.74699
G01 X-58.02241 Y26.70152
G01 X-58.13133 Y26.53853
G01 X-58.15904 Y26.48666
G01 X-58.23407 Y26.30556
G01 X-58.25114 Y26.24927
G01 X-58.28939 Y26.05702
G01 X-58.29254 Y26.02497
G01 X-58.25482 Y25.91892
G01 X-58.18193 Y25.68054
G01 X-58.12175 Y25.39294
G01 X-58.09358 Y25.12540
G01 X-58.08269 Y24.85763
G01 X-58.05653 Y24.61633
G01 X-58.00405 Y24.36581
G01 X-57.90872 Y24.04994
G01 X-57.88843 Y24.04994
G01 X-57.91789 Y24.07940
G01 X-57.88843 Y24.04994
G01 X-57.18183 Y24.05042
G01 X-57.06567 Y23.93427
G01 X-56.98383 Y23.86401
G01 X-56.91396 Y23.81733
G01 X-56.89806 Y23.81885
G01 X-56.91396 Y23.81733
G01 X-58.87547 Y21.85482
G01 X-58.51756 Y22.21375
G01 X-58.50042 Y22.32195
G01 X-58.47883 Y22.54128
G01 X-58.47667 Y22.89668
G01 X-58.29059 Y23.08690
G01 X-58.13936 Y23.27234
G01 X-58.09518 Y23.33191
G01 X-57.94990 Y23.54997
G01 X-57.88845 Y23.54997
G01 X-58.07248 Y23.36592
G01 X-57.88845 Y23.54997
G01 X-57.18096 Y23.55035
G01 X-56.91396 Y23.81733
G01 X-56.98383 Y23.86401
G01 X-57.06567 Y23.93427
G01 X-57.56567 Y24.43427
G01 X-57.63593 Y24.51611
G01 X-57.69038 Y24.59759
G01 X-57.71810 Y24.64946
G01 X-57.75561 Y24.74001
G01 X-57.77268 Y24.79629
G01 X-57.79181 Y24.89243
G01 X-57.79757 Y24.95095
G01 X-57.79999 Y25.90048
G01 X-57.79181 Y26.00800
G01 X-57.77268 Y26.10414
G01 X-57.75561 Y26.16043
G01 X-57.71810 Y26.25098
G01 X-57.69038 Y26.30282
G01 X-57.63593 Y26.38433
G01 X-57.59861 Y26.42979
G01 X-57.52930 Y26.49911
G01 X-57.48383 Y26.53640
G01 X-57.40235 Y26.59088
G01 X-57.35048 Y26.61859
G01 X-57.25993 Y26.65611
G01 X-57.20364 Y26.67317
G01 X-57.10751 Y26.69230
G01 X-57.04898 Y26.69807
G01 X-56.95097 Y26.69807
G01 X-56.89244 Y26.69230
G01 X-56.79630 Y26.67317
G01 X-56.74002 Y26.65611
G01 X-56.64947 Y26.61859
G01 X-56.59760 Y26.59088
G01 X-56.51612 Y26.53640
G01 X-56.47065 Y26.49911
G01 X-56.40133 Y26.42979
G01 X-56.36402 Y26.38433
G01 X-56.30956 Y26.30282
G01 X-56.28185 Y26.25098
G01 X-56.24434 Y26.16043
G01 X-56.22727 Y26.10414
G01 X-56.20814 Y26.00800
G01 X-56.19996 Y25.90048
G01 X-56.19996 Y25.33134
G01 X-56.16859 Y25.29997
G01 X-49.58507 Y25.29997
G01 X-49.47752 Y25.29180
G01 X-49.38138 Y25.27267
G01 X-49.32512 Y25.25560
G01 X-49.23455 Y25.21809
G01 X-49.18268 Y25.19037
G01 X-49.10120 Y25.13592
G01 X-49.01938 Y25.06566
G01 X-48.10930 Y24.15560
G01 X-48.03902 Y24.07379
G01 X-47.98456 Y23.99228
G01 X-47.95685 Y23.94041
G01 X-47.91934 Y23.84986
G01 X-47.90227 Y23.79358
G01 X-47.88314 Y23.69744
G01 X-47.87737 Y23.63892
G01 X-47.87491 Y22.99523
G01 X-47.88510 Y22.97587
G01 X-47.87491 Y22.99523
G01 X-47.80735 Y23.04039
G01 X-47.75548 Y23.06810
G01 X-47.66493 Y23.10562
G01 X-47.60864 Y23.12269
G01 X-47.51250 Y23.14181
G01 X-47.45398 Y23.14758
G01 X-47.35596 Y23.14758
G01 X-47.29744 Y23.14181
G01 X-47.20130 Y23.12269
G01 X-47.14502 Y23.10562
G01 X-47.05447 Y23.06810
G01 X-47.01995 Y23.04966
G01 X-47.05447 Y23.06810
G01 X-47.14502 Y23.10562
G01 X-47.20130 Y23.12269
G01 X-47.29744 Y23.14181
G01 X-47.35596 Y23.14758
G01 X-47.45398 Y23.14758
G01 X-47.51250 Y23.14181
G01 X-47.48779 Y23.14425
G01 X-47.35568 Y23.30676
G01 X-47.30778 Y23.35964
G01 X-47.01995 Y23.65632
G01 X-47.01995 Y23.59017
G01 X-47.07090 Y23.60407
G01 X-47.01995 Y23.59017
G01 X-47.01995 Y23.04966
G01 X-46.92112 Y22.98593
G01 X-46.87565 Y22.94862
G01 X-46.80633 Y22.87930
G01 X-46.76996 Y22.83498
G01 X-46.76996 Y22.81705
G01 X-46.76996 Y22.83498
G01 X-46.73361 Y22.87930
G01 X-46.66430 Y22.94862
G01 X-46.61883 Y22.98593
G01 X-46.51997 Y23.04966
G01 X-46.51997 Y24.21125
G01 X-45.82782 Y25.63419
G01 X-46.06798 Y25.13790
G01 X-45.88993 Y25.13790
G01 X-45.83140 Y25.13213
G01 X-45.35073 Y25.03653
G01 X-45.29447 Y25.01946
G01 X-44.84169 Y24.83190
G01 X-44.78983 Y24.80419
G01 X-44.38233 Y24.53190
G01 X-44.33689 Y24.49462
G01 X-43.99034 Y24.14806
G01 X-43.95305 Y24.10262
G01 X-43.68076 Y23.69513
G01 X-43.65305 Y23.64326
G01 X-43.46550 Y23.19048
G01 X-43.44843 Y23.13422
G01 X-43.35282 Y22.65355
G01 X-43.34706 Y22.59503
G01 X-43.33502 Y22.34999
G01 X-43.33502 Y19.52381
G01 X-43.35282 Y19.22023
G01 X-43.44843 Y18.73956
G01 X-43.46550 Y18.68330
G01 X-43.65305 Y18.23052
G01 X-43.68076 Y18.17865
G01 X-43.95305 Y17.77116
G01 X-44.15511 Y17.54393
G01 X-44.90001 Y16.79903
G01 X-44.93720 Y16.81422
G01 X-44.90001 Y16.79903
G01 X-44.90001 Y5.79999
G01 X-44.91782 Y5.49641
G01 X-45.01342 Y5.01574
G01 X-45.03049 Y4.95948
G01 X-45.21805 Y4.50670
G01 X-45.24576 Y4.45483
G01 X-45.51804 Y4.04734
G01 X-45.72010 Y3.82011
G01 X-47.32010 Y2.22011
G01 X-47.50189 Y2.05534
G01 X-47.54733 Y2.01806
G01 X-47.95482 Y1.74577
G01 X-48.00669 Y1.71806
G01 X-48.45947 Y1.53050
G01 X-48.51573 Y1.51343
G01 X-48.99640 Y1.41783
G01 X-49.29998 Y1.40002
G01 X-62.94999 Y1.40002
G01 X-63.25354 Y1.41783
G01 X-63.73421 Y1.51343
G01 X-63.79047 Y1.53050
G01 X-64.24325 Y1.71806
G01 X-64.29512 Y1.74577
G01 X-64.70261 Y2.01806
G01 X-64.74805 Y2.05534
G01 X-64.92984 Y2.22011
G01 X-68.47985 Y5.77012
G01 X-68.68190 Y5.99735
G01 X-68.95419 Y6.40484
G01 X-68.98190 Y6.45671
G01 X-69.16946 Y6.90949
G01 X-69.18653 Y6.96575
G01 X-69.28213 Y7.44642
G01 X-69.28790 Y7.50494
G01 X-69.29994 Y7.75000
G01 X-69.29994 Y8.44291
G01 X-69.41998 Y8.26961
G01 X-69.79994 Y7.80852
G01 X-69.78548 Y7.45594
G01 X-69.77972 Y7.39742
G01 X-69.66499 Y6.82061
G01 X-69.64792 Y6.76435
G01 X-69.42285 Y6.22102
G01 X-69.39514 Y6.16915
G01 X-69.06842 Y5.68018
G01 X-69.03110 Y5.63471
G01 X-68.83339 Y5.41658
G01 X-65.28338 Y1.86657
G01 X-65.06525 Y1.66886
G01 X-65.01978 Y1.63154
G01 X-64.53081 Y1.30482
G01 X-64.47894 Y1.27711
G01 X-63.93561 Y1.05204
G01 X-63.87935 Y1.03497
G01 X-63.30254 Y0.92024
G01 X-62.94999 Y0.90002
G01 X-49.29998 Y0.90002
G01 X-48.94740 Y0.92024
G01 X-48.37059 Y1.03497
G01 X-48.31433 Y1.05204
G01 X-47.77100 Y1.27711
G01 X-47.71913 Y1.30482
G01 X-47.23016 Y1.63154
G01 X-46.96656 Y1.86657
G01 X-45.36656 Y3.46657
G01 X-45.16885 Y3.68470
G01 X-45.13153 Y3.73017
G01 X-44.80481 Y4.21914
G01 X-44.77710 Y4.27101
G01 X-44.55203 Y4.81434
G01 X-44.53496 Y4.87060
G01 X-44.42023 Y5.44741
G01 X-44.40001 Y5.79999
G01 X-44.40001 Y16.59191
G01 X-44.43809 Y16.60769
G01 X-44.40001 Y16.59191
G01 X-43.80156 Y17.19039
G01 X-43.60385 Y17.40852
G01 X-43.56654 Y17.45399
G01 X-43.23982 Y17.94297
G01 X-43.21211 Y17.99483
G01 X-42.98704 Y18.53816
G01 X-42.96997 Y18.59443
G01 X-42.85524 Y19.17123
G01 X-42.84947 Y19.22976
G01 X-42.83502 Y19.52381
G01 X-42.83502 Y22.34999
G01 X-42.84947 Y22.64402
G01 X-42.85524 Y22.70255
G01 X-42.96997 Y23.27935
G01 X-42.98704 Y23.33562
G01 X-43.21211 Y23.87895
G01 X-43.23982 Y23.93081
G01 X-43.56654 Y24.41979
G01 X-43.60385 Y24.46525
G01 X-44.01970 Y24.88110
G01 X-44.06516 Y24.91842
G01 X-44.55414 Y25.24514
G01 X-44.60601 Y25.27285
G01 X-45.14934 Y25.49792
G01 X-45.20560 Y25.51499
G01 X-45.78241 Y25.62972
G01 X-45.82782 Y25.63419
G01 X-45.37613 Y26.55316
G01 X-44.65455 Y27.94201
G01 X-44.89346 Y27.48222
G01 X-44.62506 Y27.42882
G01 X-44.56877 Y27.41176
G01 X-43.66324 Y27.03667
G01 X-43.61137 Y27.00894
G01 X-42.79641 Y26.46439
G01 X-42.75094 Y26.42710
G01 X-42.05785 Y25.73401
G01 X-42.02057 Y25.68854
G01 X-41.47602 Y24.87358
G01 X-41.44828 Y24.82172
G01 X-41.07320 Y23.91618
G01 X-41.05613 Y23.85990
G01 X-40.86492 Y22.89858
G01 X-40.85915 Y22.84006
G01 X-40.83507 Y22.34999
G01 X-40.83507 Y19.52381
G01 X-40.85915 Y19.03372
G01 X-40.86492 Y18.97520
G01 X-41.05613 Y18.01388
G01 X-41.07320 Y17.95760
G01 X-41.44828 Y17.05206
G01 X-41.47602 Y17.00019
G01 X-42.02057 Y16.18524
G01 X-42.05785 Y16.13977
G01 X-42.40007 Y15.76352
G01 X-42.43327 Y15.77624
G01 X-42.40007 Y15.76352
G01 X-42.40007 Y5.79999
G01 X-42.42415 Y5.30990
G01 X-42.42991 Y5.25137
G01 X-42.62112 Y4.29006
G01 X-42.63819 Y4.23377
G01 X-43.01327 Y3.32824
G01 X-43.04101 Y3.27637
G01 X-43.58556 Y2.46141
G01 X-43.62285 Y2.41595
G01 X-43.95236 Y2.05237
G01 X-45.55236 Y0.45237
G01 X-45.91594 Y0.12286
G01 X-45.96140 Y0.08557
G01 X-46.08947 Y0.00000
G01 X-45.30788 Y0.00000
G01 X-45.19882 Y0.09883
G01 X-43.59882 Y1.69883
G01 X-43.23636 Y2.09875
G01 X-43.19905 Y2.14422
G01 X-42.60007 Y3.04068
G01 X-42.57233 Y3.09255
G01 X-42.15973 Y4.08864
G01 X-42.14266 Y4.14492
G01 X-41.93233 Y5.20238
G01 X-41.92656 Y5.26090
G01 X-41.90007 Y5.79999
G01 X-41.90007 Y15.57023
G01 X-41.93294 Y15.58277
G01 X-41.90007 Y15.57023
G01 X-41.63405 Y15.86804
G01 X-41.03507 Y16.76451
G01 X-41.00733 Y16.81637
G01 X-40.59474 Y17.81246
G01 X-40.57767 Y17.86875
G01 X-40.36733 Y18.92620
G01 X-40.36157 Y18.98472
G01 X-40.33507 Y19.52381
G01 X-40.33507 Y22.34999
G01 X-40.36157 Y22.88906
G01 X-40.36733 Y22.94758
G01 X-40.57767 Y24.00503
G01 X-40.59474 Y24.06132
G01 X-41.00733 Y25.05740
G01 X-41.03507 Y25.10927
G01 X-41.63405 Y26.00574
G01 X-41.67137 Y26.05121
G01 X-42.43375 Y26.81359
G01 X-42.47921 Y26.85090
G01 X-43.37568 Y27.44988
G01 X-43.42755 Y27.47762
G01 X-44.42363 Y27.89022
G01 X-44.47992 Y27.90728
G01 X-44.65455 Y27.94201
G01 X-43.71812 Y29.56989
G01 X-43.01213 Y30.72905
G01 X-42.63337 Y31.33814
G01 X-42.51231 Y31.40715
G01 X-41.54200 Y31.00522
G01 X-41.49014 Y30.97748
G01 X-39.94170 Y29.94287
G01 X-39.89624 Y29.90555
G01 X-38.57940 Y28.58872
G01 X-38.54209 Y28.54325
G01 X-37.50747 Y26.99482
G01 X-37.47973 Y26.94295
G01 X-36.76706 Y25.22243
G01 X-36.74999 Y25.16614
G01 X-36.38667 Y23.33965
G01 X-36.38093 Y23.28113
G01 X-36.33518 Y22.34999
G01 X-36.33518 Y19.52381
G01 X-36.38093 Y18.59265
G01 X-36.38667 Y18.53413
G01 X-36.74999 Y16.70764
G01 X-36.76706 Y16.65135
G01 X-37.47973 Y14.93083
G01 X-37.50747 Y14.87896
G01 X-37.90018 Y14.29121
G01 X-37.92116 Y14.29751
G01 X-37.90018 Y14.29121
G01 X-37.90018 Y5.79999
G01 X-37.94592 Y4.86882
G01 X-37.95166 Y4.81030
G01 X-38.31499 Y2.98381
G01 X-38.33205 Y2.92753
G01 X-39.04473 Y1.20701
G01 X-39.07246 Y1.15514
G01 X-39.84429 Y0.00000
G01 X-41.09469 Y0.00000
G01 X-40.44272 Y0.00000
G01 X-39.51341 Y1.39083
G01 X-39.48567 Y1.44269
G01 X-38.81051 Y3.07266
G01 X-38.79345 Y3.12895
G01 X-38.44925 Y4.85932
G01 X-38.44348 Y4.91785
G01 X-38.40015 Y5.79999
G01 X-38.40015 Y14.43855
G01 X-38.42121 Y14.44485
G01 X-38.40015 Y14.43855
G01 X-37.94841 Y15.11465
G01 X-37.92068 Y15.16652
G01 X-37.24552 Y16.79649
G01 X-37.22845 Y16.85277
G01 X-36.88425 Y18.58315
G01 X-36.87849 Y18.64167
G01 X-36.83516 Y19.52381
G01 X-36.83516 Y22.34999
G01 X-36.87849 Y23.23211
G01 X-36.88425 Y23.29063
G01 X-37.22845 Y25.02101
G01 X-37.24552 Y25.07729
G01 X-37.92068 Y26.70726
G01 X-37.94841 Y26.75913
G01 X-38.92857 Y28.22608
G01 X-38.96589 Y28.27152
G01 X-40.21343 Y29.51907
G01 X-40.25887 Y29.55638
G01 X-41.72582 Y30.53654
G01 X-41.77769 Y30.56428
G01 X-42.84076 Y31.00461
G01 X-43.10576 Y30.57581
G01 X-42.01338 Y30.12331
G01 X-41.96151 Y30.09560
G01 X-40.57607 Y29.16987
G01 X-40.53060 Y29.13256
G01 X-39.35240 Y27.95435
G01 X-39.31509 Y27.90889
G01 X-38.38936 Y26.52344
G01 X-38.36165 Y26.47155
G01 X-37.72398 Y24.93216
G01 X-37.70691 Y24.87587
G01 X-37.38184 Y23.24163
G01 X-37.37607 Y23.18311
G01 X-37.33516 Y22.34999
G01 X-37.33516 Y19.52381
G01 X-37.37607 Y18.69067
G01 X-37.38184 Y18.63214
G01 X-37.70691 Y16.99791
G01 X-37.72398 Y16.94162
G01 X-38.36165 Y15.40220
G01 X-38.38936 Y15.35034
G01 X-38.90015 Y14.58590
G01 X-38.92126 Y14.59222
G01 X-38.90015 Y14.58590
G01 X-38.90015 Y5.79999
G01 X-38.94107 Y4.96684
G01 X-38.94684 Y4.90832
G01 X-39.27191 Y3.27403
G01 X-39.28897 Y3.21775
G01 X-39.92664 Y1.67838
G01 X-39.95435 Y1.62646
G01 X-40.88008 Y0.24107
G01 X-41.09469 Y0.00000
G01 X-42.46931 Y0.00000
G01 X-41.76867 Y0.00000
G01 X-41.30388 Y0.51280
G01 X-41.26657 Y0.55827
G01 X-40.39530 Y1.86220
G01 X-40.36758 Y1.91407
G01 X-39.76743 Y3.36293
G01 X-39.75036 Y3.41922
G01 X-39.44442 Y4.95732
G01 X-39.43866 Y5.01586
G01 X-39.40012 Y5.79999
G01 X-39.40012 Y14.73322
G01 X-39.42128 Y14.73957
G01 X-39.40012 Y14.73322
G01 X-38.83030 Y15.58602
G01 X-38.80259 Y15.63789
G01 X-38.20244 Y17.08676
G01 X-38.18537 Y17.14304
G01 X-37.87943 Y18.68114
G01 X-37.87366 Y18.73969
G01 X-37.83513 Y19.52381
G01 X-37.83513 Y22.34999
G01 X-37.87366 Y23.13409
G01 X-37.87943 Y23.19264
G01 X-38.18537 Y24.73074
G01 X-38.20244 Y24.78702
G01 X-38.80259 Y26.23589
G01 X-38.83030 Y26.28776
G01 X-39.70157 Y27.59169
G01 X-39.73888 Y27.63716
G01 X-40.84780 Y28.74607
G01 X-40.89326 Y28.78338
G01 X-42.19720 Y29.65465
G01 X-42.24906 Y29.68236
G01 X-43.36839 Y30.14602
G01 X-43.63049 Y29.71599
G01 X-42.48478 Y29.24142
G01 X-42.43291 Y29.21368
G01 X-41.21046 Y28.39687
G01 X-41.16499 Y28.35958
G01 X-40.12537 Y27.31996
G01 X-40.08808 Y27.27449
G01 X-39.27127 Y26.05204
G01 X-39.24353 Y26.00015
G01 X-38.68090 Y24.64189
G01 X-38.66383 Y24.58560
G01 X-38.37701 Y23.14362
G01 X-38.37125 Y23.08509
G01 X-38.33513 Y22.34999
G01 X-38.33513 Y19.52381
G01 X-38.37125 Y18.78868
G01 X-38.37701 Y18.73016
G01 X-38.66383 Y17.28818
G01 X-38.68090 Y17.23189
G01 X-39.24353 Y15.87360
G01 X-39.27127 Y15.82174
G01 X-39.90012 Y14.88056
G01 X-39.92131 Y14.88694
G01 X-39.90012 Y14.88056
G01 X-39.90012 Y5.79999
G01 X-39.93624 Y5.06486
G01 X-39.94201 Y5.00634
G01 X-40.22882 Y3.56436
G01 X-40.24589 Y3.50807
G01 X-40.80853 Y2.14978
G01 X-40.83627 Y2.09791
G01 X-41.65308 Y0.87546
G01 X-41.69037 Y0.82995
G01 X-42.18465 Y0.28466
G01 X-42.46931 Y0.00000
G01 X-43.17639 Y0.00000
G04 P0 ( dwell for no time -- G64 should not smooth over this point )
G00 Z1.00000 ( retract )

G00 X-55.41663 Y11.57729 ( rapid move to begin. )
G01 F20.00000
( Mill infeed pass 1/1 )
G01 Z-0.30000
G04 P0 ( dwell for no time -- G64 should not smooth over this point )
G01 F30.00000
G01 X-55.41663 Y11.57729
G01 X-55.44754 Y11.58748
G01 X-55.80240 Y11.58748
G01 X-55.83329 Y11.57732
G01 X-55.80240 Y11.58748
G01 X-55.70804 Y11.67735
G01 X-55.67850 Y11.71334
G01 X-55.62496 Y11.79342
G01 X-55.62496 Y11.81461
G01 X-55.62496 Y11.79342
G01 X-55.57147 Y11.71334
G01 X-55.54193 Y11.67735
G01 X-55.44754 Y11.58748
G04 P0 ( dwell for no time -- G64 should not smooth over this point )
G00 Z1.00000 ( retract )

G00 X-61.21245 Y6.80093 ( rapid move to begin. )
G01 F20.00000
( Mill infeed pass 1/1 )
G01 Z-0.30000
G04 P0 ( dwell for no time -- G64 should not smooth over this point )
G01 F30.00000
G01 X-61.21245 Y6.80093
G01 X-61.39998 Y6.98845
G01 X-61.43803 Y6.97268
G01 X-61.39998 Y6.98845
G01 X-61.39998 Y7.76244
G01 X-61.40767 Y7.99998
G01 X-61.39998 Y8.23752
G01 X-61.39998 Y8.80684
G01 X-61.38238 Y8.79645
G01 X-61.33904 Y8.78063
G01 X-61.27473 Y8.77341
G01 X-61.33884 Y8.61865
G01 X-61.35235 Y8.57410
G01 X-61.39061 Y8.38185
G01 X-61.39515 Y8.33549
G01 X-61.46145 Y6.34284
G01 X-61.31860 Y6.19999
G01 X-60.96353 Y6.19999
G01 X-61.21245 Y6.80093
G01 X-61.21245 Y7.11512
G01 X-61.19414 Y7.12023
G01 X-61.21245 Y7.11512
G01 X-61.24186 Y7.15914
G01 X-61.26381 Y7.20021
G01 X-61.33884 Y7.38132
G01 X-61.35235 Y7.42587
G01 X-61.39061 Y7.61815
G01 X-61.39998 Y7.76244
G01 X-61.43465 Y8.83092
G01 X-61.45680 Y8.85035
G01 X-61.48532 Y8.88662
G01 X-61.58319 Y9.03816
G01 X-61.70069 Y9.23420
G01 X-61.80341 Y9.42584
G01 X-61.89995 Y9.63056
G01 X-61.79805 Y9.41441
G01 X-61.70069 Y9.23420
G01 X-61.58349 Y9.03798
G01 X-61.48532 Y8.88662
G01 X-61.45680 Y8.85035
G01 X-61.46168 Y8.84578
G01 X-61.45680 Y8.85035
G01 X-61.43465 Y8.83092
G01 X-61.44994 Y9.30212
G01 X-61.43465 Y8.83092
G01 X-61.38238 Y8.79645
G01 X-61.39089 Y8.77849
G01 X-61.38238 Y8.79645
G01 X-61.33904 Y8.78063
G01 X-61.29353 Y8.77306
G01 X-61.24740 Y8.77397
G01 X-61.20221 Y8.78337
G01 X-61.06668 Y8.82475
G01 X-60.91156 Y8.86590
G01 X-60.72205 Y8.91172
G01 X-60.59581 Y8.93910
G01 X-60.38205 Y8.97545
G01 X-60.20491 Y8.99869
G01 X-60.17994 Y8.97412
G01 X-60.25784 Y8.96803
G01 X-60.35396 Y8.94890
G01 X-60.39851 Y8.93539
G01 X-60.48908 Y8.89787
G01 X-60.53013 Y8.87593
G01 X-60.61164 Y8.82147
G01 X-60.64763 Y8.79193
G01 X-60.71692 Y8.72261
G01 X-60.74646 Y8.68662
G01 X-60.80092 Y8.60514
G01 X-60.82287 Y8.56407
G01 X-60.86038 Y8.47352
G01 X-60.87389 Y8.42896
G01 X-60.89302 Y8.33283
G01 X-60.89998 Y8.23750
G01 X-60.89998 Y7.76249
G01 X-60.89302 Y7.66714
G01 X-60.87389 Y7.57100
G01 X-60.86038 Y7.52645
G01 X-60.82287 Y7.43590
G01 X-60.80092 Y7.39483
G01 X-60.74646 Y7.31335
G01 X-60.71248 Y7.27288
G01 X-60.71248 Y6.19999
G01 X-61.31860 Y6.19999
G01 X-61.89995 Y6.78134
G01 X-61.89993 Y10.46632
G01 X-61.91011 Y10.53297
G01 X-61.89993 Y10.46632
G01 X-61.86482 Y10.38162
G01 X-61.77242 Y10.20872
G01 X-61.71796 Y10.12721
G01 X-61.59360 Y9.97567
G01 X-61.52429 Y9.90638
G01 X-61.37275 Y9.78202
G01 X-61.29127 Y9.72757
G01 X-61.11837 Y9.63516
G01 X-61.02782 Y9.59764
G01 X-60.84021 Y9.54072
G01 X-60.74407 Y9.52162
G01 X-60.54900 Y9.50239
G01 X-60.45098 Y9.50239
G01 X-60.25589 Y9.52162
G01 X-60.20692 Y9.53135
G01 X-60.25589 Y9.52162
G01 X-60.45098 Y9.50239
G01 X-60.54900 Y9.50239
G01 X-60.74407 Y9.52162
G01 X-60.84021 Y9.54072
G01 X-61.02782 Y9.59764
G01 X-61.11837 Y9.63516
G01 X-61.29127 Y9.72757
G01 X-61.37275 Y9.78202
G01 X-61.44677 Y9.84275
G01 X-61.35411 Y9.64529
G01 X-61.26876 Y9.48611
G01 X-61.16653 Y9.31553
G01 X-60.84153 Y9.39724
G01 X-60.69112 Y9.43041
G01 X-60.45898 Y9.46950
G01 X-60.23704 Y9.49782
G01 X-60.20692 Y9.53135
G01 X-60.15975 Y9.54072
G01 X-60.00336 Y9.58817
G01 X-59.71624 Y9.58814
G01 X-59.70003 Y9.59828
G01 X-59.72307 Y9.58385
G01 X-59.74768 Y9.54413
G01 X-59.78101 Y9.45810
G01 X-59.81108 Y9.35241
G01 X-59.82805 Y9.26170
G01 X-59.82805 Y9.16945
G01 X-59.81791 Y9.06003
G01 X-59.80339 Y8.98238
G01 X-59.78045 Y8.96483
G01 X-59.79373 Y8.97499
G01 X-60.17994 Y8.97412
G04 P0 ( dwell for no time -- G64 should not smooth over this point )
G00 Z1.00000 ( retract )

G00 X-59.47499 Y12.63376 ( rapid move to begin. )
G01 F20.00000
( Mill infeed pass 1/1 )
G01 Z-0.30000
G04 P0 ( dwell for no time -- G64 should not smooth over this point )
G01 F30.00000
G01 X-59.47499 Y12.63376
G01 X-59.56595 Y12.78377
G01 X-59.52043 Y12.87097
G01 X-59.38154 Y13.11466
G01 X-59.35609 Y13.17795
G01 X-59.35162 Y13.17633
G01 X-59.35609 Y13.17795
G01 X-59.33107 Y13.27912
G01 X-59.29998 Y13.43604
G01 X-59.29998 Y13.74999
G01 X-59.29180 Y13.85750
G01 X-59.27268 Y13.95364
G01 X-59.25561 Y14.00993
G01 X-59.23648 Y14.05606
G01 X-59.25020 Y14.10673
G01 X-59.28576 Y14.17119
G01 X-59.25020 Y14.10673
G01 X-59.23648 Y14.05606
G01 X-59.21809 Y14.10048
G01 X-59.18937 Y14.15387
G01 X-59.24753 Y14.15959
G01 X-59.34133 Y14.18806
G01 X-59.42777 Y14.23426
G01 X-59.50354 Y14.29644
G01 X-59.56572 Y14.37221
G01 X-59.61192 Y14.45865
G01 X-59.64037 Y14.55245
G01 X-59.65000 Y14.64998
G01 X-59.64994 Y16.25265
G01 X-59.63981 Y16.29321
G01 X-59.65116 Y16.25039
G01 X-59.70562 Y16.16890
G01 X-59.73671 Y16.13101
G01 X-59.80600 Y16.06172
G01 X-59.84390 Y16.03063
G01 X-59.89996 Y15.99316
G01 X-59.89996 Y14.68930
G01 X-59.81992 Y14.54183
G01 X-59.78241 Y14.45128
G01 X-59.73689 Y14.30119
G01 X-59.71776 Y14.20508
G01 X-59.70240 Y14.04899
G01 X-59.70240 Y13.95098
G01 X-59.71776 Y13.79492
G01 X-59.73689 Y13.69878
G01 X-59.78241 Y13.54869
G01 X-59.81992 Y13.45814
G01 X-59.89386 Y13.31984
G01 X-59.94832 Y13.23833
G01 X-60.04778 Y13.11709
G01 X-60.11710 Y13.04778
G01 X-60.23991 Y12.94724
G01 X-60.11710 Y13.04778
G01 X-60.04778 Y13.11709
G01 X-59.94832 Y13.23833
G01 X-59.89386 Y13.31984
G01 X-59.81992 Y13.45814
G01 X-59.79206 Y13.52540
G01 X-59.83275 Y13.33282
G01 X-59.96031 Y13.10869
G01 X-60.02236 Y12.98880
G01 X-60.23991 Y12.94724
G01 X-60.31984 Y12.89385
G01 X-60.45815 Y12.81991
G01 X-60.54870 Y12.78242
G01 X-60.69876 Y12.73688
G01 X-60.79490 Y12.71775
G01 X-60.95098 Y12.70239
G01 X-61.04900 Y12.70239
G01 X-61.20506 Y12.71775
G01 X-61.30120 Y12.73688
G01 X-61.36957 Y12.75761
G01 X-61.45050 Y12.74775
G01 X-61.47788 Y12.79340
G01 X-61.54184 Y12.81991
G01 X-61.45129 Y12.78242
G01 X-61.36957 Y12.75761
G01 X-61.45129 Y12.78242
G01 X-61.54184 Y12.81991
G01 X-61.68014 Y12.89385
G01 X-61.76165 Y12.94831
G01 X-61.88286 Y13.04778
G01 X-61.89993 Y13.06485
G01 X-61.91009 Y13.08931
G01 X-61.89993 Y13.06485
G01 X-61.89995 Y12.36939
G01 X-61.89995 Y12.52510
G01 X-61.85858 Y12.45748
G01 X-61.89995 Y12.36939
G01 X-61.89998 Y11.53340
G01 X-61.91011 Y11.46698
G01 X-61.89993 Y11.53366
G01 X-61.86482 Y11.61837
G01 X-61.77242 Y11.79126
G01 X-61.71796 Y11.87275
G01 X-61.59360 Y12.02428
G01 X-61.52429 Y12.09360
G01 X-61.37275 Y12.21796
G01 X-61.30783 Y12.26132
G01 X-61.37275 Y12.21796
G01 X-61.44671 Y12.15723
G01 X-61.40384 Y12.24948
G01 X-61.30783 Y12.26132
G01 X-61.11837 Y12.36482
G01 X-61.02782 Y12.40234
G01 X-60.84021 Y12.45923
G01 X-60.74407 Y12.47836
G01 X-60.54900 Y12.49759
G01 X-60.45098 Y12.49759
G01 X-60.25589 Y12.47836
G01 X-60.15975 Y12.45923
G01 X-59.97217 Y12.40234
G01 X-59.90171 Y12.37315
G01 X-59.97217 Y12.40234
G01 X-60.14819 Y12.45573
G01 X-59.97148 Y12.48913
G01 X-59.90171 Y12.37315
G01 X-59.70872 Y12.27242
G01 X-59.62721 Y12.21796
G01 X-59.47567 Y12.09360
G01 X-59.45449 Y12.05812
G01 X-59.47014 Y12.08880
G01 X-59.47499 Y12.16249
G01 X-59.47499 Y12.66248
G01 X-59.46800 Y12.75784
G01 X-59.44890 Y12.85397
G01 X-59.43539 Y12.89853
G01 X-59.39787 Y12.98908
G01 X-59.37593 Y13.03012
G01 X-59.29998 Y13.13779
G01 X-59.29998 Y13.43604
G04 P0 ( dwell for no time -- G64 should not smooth over this point )
G00 Z1.00000 ( retract )

G00 X-61.49995 Y15.67355 ( rapid move to begin. )
G01 F20.00000
( Mill infeed pass 1/1 )
G01 Z-0.30000
G04 P0 ( dwell for no time -- G64 should not smooth over this point )
G01 F30.00000
G01 X-61.49995 Y15.67355
G01 X-61.53186 Y15.59651
G01 X-61.55957 Y15.54465
G01 X-61.61402 Y15.46316
G01 X-61.68428 Y15.38133
G01 X-61.89995 Y15.16565
G01 X-61.89993 Y14.93512
G01 X-61.91009 Y14.91066
G01 X-61.89993 Y14.93512
G01 X-61.88286 Y14.95217
G01 X-61.76165 Y15.05166
G01 X-61.68014 Y15.10612
G01 X-61.54184 Y15.18006
G01 X-61.49998 Y15.19740
G01 X-61.49995 Y15.67355
G01 X-61.48979 Y15.73710
G04 P0 ( dwell for no time -- G64 should not smooth over this point )
G00 Z1.00000 ( retract )

G00 X-68.78861 Y10.87864 ( rapid move to begin. )
G01 F20.00000
( Mill infeed pass 1/1 )
G01 Z-0.30000
G04 P0 ( dwell for no time -- G64 should not smooth over this point )
G01 F30.00000
G01 X-68.78861 Y10.87864
G01 X-68.79308 Y10.84862
G01 X-68.89994 Y10.59061
G01 X-68.92768 Y10.53874
G01 X-69.09102 Y10.29424
G01 X-69.12834 Y10.24877
G01 X-69.33626 Y10.04085
G01 X-69.38173 Y10.00354
G01 X-69.62623 Y9.84019
G01 X-69.67809 Y9.81245
G01 X-69.94975 Y9.69993
G01 X-70.00603 Y9.68286
G01 X-70.29442 Y9.62551
G01 X-70.35295 Y9.61974
G01 X-70.64700 Y9.61974
G01 X-70.70552 Y9.62551
G01 X-70.99391 Y9.68286
G01 X-71.05020 Y9.69993
G01 X-71.32185 Y9.81245
G01 X-71.37372 Y9.84019
G01 X-71.61822 Y10.00354
G01 X-71.66369 Y10.04085
G01 X-71.87161 Y10.24877
G01 X-71.90892 Y10.29424
G01 X-72.07227 Y10.53874
G01 X-72.10001 Y10.59061
G01 X-72.21253 Y10.86226
G01 X-72.22960 Y10.91855
G01 X-72.28695 Y11.20694
G01 X-72.29996 Y11.41250
G01 X-72.29996 Y12.24999
G01 X-72.28695 Y12.45552
G01 X-72.22960 Y12.74394
G01 X-72.21253 Y12.80023
G01 X-72.09998 Y13.07188
G01 X-72.09843 Y13.07480
G01 X-72.06181 Y13.07396
G01 X-72.09843 Y13.07480
G01 X-72.17448 Y13.25842
G01 X-72.22000 Y13.40848
G01 X-72.27738 Y13.69690
G01 X-72.29274 Y13.85296
G01 X-72.29274 Y14.14701
G01 X-72.27738 Y14.30310
G01 X-72.22000 Y14.59149
G01 X-72.17448 Y14.74155
G01 X-72.13425 Y14.83868
G01 X-72.04680 Y14.85870
G01 X-72.13425 Y14.83868
G01 X-75.12276 Y17.82719
G01 X-75.25893 Y17.98173
G01 X-75.42228 Y18.22623
G01 X-75.45001 Y18.27809
G01 X-75.56254 Y18.54975
G01 X-75.57961 Y18.60603
G01 X-75.63696 Y18.89442
G01 X-75.64996 Y19.09999
G01 X-75.64996 Y23.89998
G01 X-75.63696 Y24.10551
G01 X-75.57961 Y24.39391
G01 X-75.56254 Y24.45019
G01 X-75.45001 Y24.72187
G01 X-75.42228 Y24.77374
G01 X-75.25890 Y25.01821
G01 X-75.12276 Y25.17275
G01 X-73.06274 Y27.23274
G01 X-72.95365 Y27.33159
G01 X-72.90821 Y27.36891
G01 X-72.66371 Y27.53225
G01 X-72.61184 Y27.55999
G01 X-72.34019 Y27.67251
G01 X-72.28390 Y27.68958
G01 X-71.99551 Y27.74693
G01 X-71.78998 Y27.75994
G01 X-67.27500 Y27.75994
G01 X-67.06944 Y27.74693
G01 X-66.78104 Y27.68958
G01 X-66.72476 Y27.67251
G01 X-66.45311 Y27.55999
G01 X-66.40124 Y27.53225
G01 X-66.25496 Y27.43454
G01 X-66.25496 Y26.76395
G01 X-66.28986 Y26.80647
G01 X-66.42847 Y26.94508
G01 X-66.47393 Y26.98239
G01 X-66.63693 Y27.09131
G01 X-66.68879 Y27.11902
G01 X-66.86989 Y27.19405
G01 X-66.92618 Y27.21112
G01 X-67.11843 Y27.24937
G01 X-67.17698 Y27.25514
G01 X-67.27500 Y27.25994
G01 X-71.78998 Y27.25994
G01 X-71.94652 Y27.24937
G01 X-72.13877 Y27.21112
G01 X-72.19505 Y27.19405
G01 X-72.37616 Y27.11902
G01 X-72.42802 Y27.09131
G01 X-72.59102 Y26.98239
G01 X-72.70918 Y26.87919
G01 X-74.76919 Y24.81920
G01 X-74.87242 Y24.70102
G01 X-74.98133 Y24.53803
G01 X-75.00904 Y24.48616
G01 X-75.08408 Y24.30506
G01 X-75.10115 Y24.24877
G01 X-75.13940 Y24.05652
G01 X-75.14996 Y23.89998
G01 X-75.14996 Y19.09999
G01 X-75.13940 Y18.94342
G01 X-75.10115 Y18.75117
G01 X-75.08408 Y18.69488
G01 X-75.00904 Y18.51378
G01 X-74.98133 Y18.46191
G01 X-74.87242 Y18.29892
G01 X-74.76922 Y18.18074
G01 X-71.52993 Y14.94147
G01 X-71.40489 Y14.95900
G01 X-71.52993 Y14.94147
G01 X-71.54708 Y14.91585
G01 X-71.62101 Y14.77752
G01 X-71.69602 Y14.59641
G01 X-71.74154 Y14.44635
G01 X-71.77979 Y14.25407
G01 X-71.79516 Y14.09802
G01 X-71.79516 Y13.90198
G01 X-71.77979 Y13.74590
G01 X-71.74154 Y13.55364
G01 X-71.69602 Y13.40355
G01 X-71.62101 Y13.22243
G01 X-71.54708 Y13.08415
G01 X-71.52368 Y13.04912
G01 X-71.44113 Y13.04689
G01 X-71.52368 Y13.04912
G01 X-71.63133 Y12.88804
G01 X-71.65904 Y12.83619
G01 X-71.73407 Y12.65507
G01 X-71.75114 Y12.59881
G01 X-71.78939 Y12.40653
G01 X-71.79996 Y12.24999
G01 X-71.79996 Y11.41250
G01 X-71.78939 Y11.25593
G01 X-71.75114 Y11.06368
G01 X-71.73407 Y11.00739
G01 X-71.65904 Y10.82629
G01 X-71.63133 Y10.77443
G01 X-71.52241 Y10.61143
G01 X-71.48510 Y10.56597
G01 X-71.34649 Y10.42736
G01 X-71.30103 Y10.39005
G01 X-71.13803 Y10.28113
G01 X-71.08617 Y10.25342
G01 X-70.90507 Y10.17839
G01 X-70.84878 Y10.16132
G01 X-70.65653 Y10.12307
G01 X-70.59798 Y10.11730
G01 X-70.40197 Y10.11730
G01 X-70.34342 Y10.12307
G01 X-70.15117 Y10.16132
G01 X-70.09488 Y10.17839
G01 X-69.91378 Y10.25342
G01 X-69.86191 Y10.28113
G01 X-69.69892 Y10.39005
G01 X-69.65345 Y10.42736
G01 X-69.51485 Y10.56597
G01 X-69.47753 Y10.61143
G01 X-69.36862 Y10.77443
G01 X-69.34091 Y10.82629
G01 X-69.26588 Y11.00739
G01 X-69.24881 Y11.06368
G01 X-69.21055 Y11.25593
G01 X-69.19999 Y11.41250
G01 X-69.19999 Y11.71148
G01 X-69.23260 Y11.72482
G01 X-69.19999 Y11.71148
G01 X-69.08076 Y11.83068
G01 X-68.97756 Y11.94887
G01 X-68.86862 Y12.11186
G01 X-68.84091 Y12.16373
G01 X-68.76588 Y12.34486
G01 X-68.74881 Y12.40112
G01 X-68.71056 Y12.59340
G01 X-68.70479 Y12.65192
G01 X-68.69999 Y12.76124
G01 X-68.72552 Y12.77163
G01 X-68.69999 Y12.76124
G01 X-68.66131 Y12.79992
