( pcb2gcode 2.5.0 )
( Software-independent Gcode )

G94 ( Millimeters per minute feed rate. )
G21 ( Units == Millimeters. )

G90 ( Absolute coordinates. )
G00 S1000 ( RPM spindle speed. )
G64 P0.01016 ( set maximum deviation from commanded toolpath )
G01 F30.00000 ( Feedrate. )


G00 Z10.00000 (Retract to tool change height)
T0
M5      (Spindle stop.)
G04 P5.00000 (Wait for spindle to stop)
(MSG, Change tool bit to mill diameter 1.00000mm)
M6      (Tool change.)
M0      (Temporary machine stop.)
M3 ( Spindle on clockwise. )
G04 P3.00000 (Wait for spindle to get up to speed)
G04 P0 ( dwell for no time -- G64 should not smooth over this point )
G00 Z1.00000 ( retract )

G00 X-7.38320 Y7.24812 ( rapid move to begin. )
G01 F20.00000
( Mill infeed pass 1/1 )
G01 Z-0.30000
G04 P0 ( dwell for no time -- G64 should not smooth over this point )
G01 F30.00000
G01 X-7.38320 Y7.24812
G01 X-7.44344 Y7.23875
G01 X-7.44347 Y7.23262
G01 X-7.44344 Y7.23875
G01 X-7.49026 Y7.24240
G01 X-7.52371 Y7.25150
G01 X-7.59310 Y7.32856
G01 X-7.67080 Y7.39851
G01 X-7.80611 Y7.49681
G01 X-7.89663 Y7.54908
G01 X-8.04941 Y7.61710
G01 X-8.14883 Y7.64941
G01 X-8.21959 Y7.66442
G01 X-8.23547 Y7.65744
G01 X-8.21614 Y7.66597
G01 X-8.19800 Y7.70077
G01 X-8.15637 Y7.80247
G01 X-8.13626 Y7.86834
G01 X-8.14372 Y7.88538
G01 X-8.13686 Y7.86973
G01 X-8.10336 Y7.85040
G01 X-7.95058 Y7.78236
G01 X-7.85117 Y7.75007
G01 X-7.68756 Y7.71530
G01 X-7.58360 Y7.70438
G01 X-7.41637 Y7.70438
G01 X-7.31241 Y7.71530
G01 X-7.14883 Y7.75007
G01 X-7.04941 Y7.78236
G01 X-6.89661 Y7.85040
G01 X-6.80608 Y7.90265
G01 X-6.67080 Y8.00097
G01 X-6.59310 Y8.07090
G01 X-6.48117 Y8.19518
G01 X-6.41975 Y8.27976
G01 X-6.33613 Y8.42460
G01 X-6.29996 Y8.50585
G01 X-6.28980 Y8.56473
G01 X-6.29996 Y8.50585
G01 X-6.29999 Y8.33135
G01 X-7.43186 Y7.19948
G01 X-7.47771 Y7.19948
G01 X-7.52371 Y7.25150
G04 P0 ( dwell for no time -- G64 should not smooth over this point )
G00 Z1.00000 ( retract )

G00 X-9.39960 Y12.23805 ( rapid move to begin. )
G01 F20.00000
( Mill infeed pass 1/1 )
G01 Z-0.30000
G04 P0 ( dwell for no time -- G64 should not smooth over this point )
G01 F30.00000
G01 X-9.39960 Y12.23805
G01 X-9.02767 Y12.08400
G01 X-8.88487 Y11.96243
G01 X-8.63440 Y11.76993
G01 X-8.48269 Y11.66696
G01 X-8.19198 Y11.48880
G01 X-8.02922 Y11.40130
G01 X-7.77286 Y11.27554
G01 X-7.77408 Y11.27224
G01 X-7.77286 Y11.27554
G01 X-7.71992 Y11.25662
G01 X-7.63397 Y11.24981
G01 X-7.59049 Y11.23180
G01 X-7.32810 Y10.94189
G01 X-7.20095 Y10.78484
G01 X-7.03867 Y10.56241
G01 X-6.93722 Y10.40620
G01 X-6.83837 Y10.23562
G01 X-6.74797 Y10.05510
G01 X-6.80608 Y10.09731
G01 X-6.89661 Y10.14959
G01 X-7.04941 Y10.21761
G01 X-7.14883 Y10.24992
G01 X-7.31241 Y10.28469
G01 X-7.41637 Y10.29561
G01 X-7.58360 Y10.29561
G01 X-7.68756 Y10.28469
G01 X-7.85117 Y10.24992
G01 X-7.95058 Y10.21761
G01 X-8.04443 Y10.17580
G01 X-10.62505 Y12.75641
G01 X-10.62772 Y13.40226
G01 X-10.63320 Y13.45423
G01 X-10.65492 Y13.55646
G01 X-10.67107 Y13.60617
G01 X-10.71359 Y13.70167
G01 X-10.73973 Y13.74694
G01 X-10.80117 Y13.83149
G01 X-10.83612 Y13.87033
G01 X-10.91382 Y13.94028
G01 X-10.95609 Y13.97099
G01 X-11.04661 Y14.02326
G01 X-11.09436 Y14.04452
G01 X-11.19378 Y14.07683
G01 X-11.24491 Y14.08770
G01 X-11.34882 Y14.09931
G01 X-12.65166 Y14.09863
G01 X-12.75504 Y14.08770
G01 X-12.80620 Y14.07683
G01 X-12.90559 Y14.04452
G01 X-12.95334 Y14.02326
G01 X-13.04387 Y13.97099
G01 X-13.08613 Y13.94028
G01 X-13.16385 Y13.87033
G01 X-13.19881 Y13.83149
G01 X-13.25804 Y13.74999
G01 X-14.12497 Y13.74999
G01 X-14.12497 Y17.65976
G01 X-14.09578 Y17.68097
G01 X-14.01811 Y17.75092
G01 X-13.90620 Y17.87520
G01 X-13.84475 Y17.95976
G01 X-13.76114 Y18.10459
G01 X-13.71862 Y18.20009
G01 X-13.66695 Y18.35915
G01 X-13.65496 Y18.41533
G01 X-13.66695 Y18.35915
G01 X-13.71862 Y18.20009
G01 X-13.76114 Y18.10459
G01 X-13.84475 Y17.95976
G01 X-13.90498 Y17.87688
G01 X-13.90498 Y17.45181
G01 X-13.90990 Y17.45110
G01 X-13.90498 Y17.45181
G01 X-13.90078 Y17.40626
G01 X-13.88836 Y17.36222
G01 X-13.85697 Y17.28577
G01 X-13.91714 Y17.09069
G01 X-13.96253 Y16.88462
G01 X-13.99428 Y16.62016
G01 X-13.99746 Y16.54815
G01 X-13.99794 Y15.54516
G01 X-13.96467 Y15.22839
G01 X-13.92014 Y15.02184
G01 X-13.90383 Y14.95682
G01 X-13.83129 Y14.73540
G01 X-13.80239 Y14.65839
G01 X-13.67798 Y14.38648
G01 X-13.68067 Y14.38488
G01 X-13.67798 Y14.38648
G01 X-13.65357 Y14.34780
G01 X-13.62499 Y14.31689
G01 X-13.62499 Y14.24996
G01 X-13.48255 Y14.25250
G01 X-13.62499 Y14.24996
G01 X-13.77142 Y14.10355
G01 X-13.62499 Y14.24996
G01 X-13.62499 Y14.31689
G01 X-13.58585 Y14.28681
G01 X-13.54480 Y14.26657
G01 X-13.55019 Y14.25430
G01 X-13.54480 Y14.26657
G01 X-13.50076 Y14.25418
G01 X-13.45522 Y14.24998
G01 X-11.74669 Y14.24978
G01 X-11.39198 Y14.09997
G01 X-11.32268 Y14.09794
G01 X-11.24491 Y14.08770
G01 X-11.19378 Y14.07683
G01 X-11.09436 Y14.04452
G01 X-11.04661 Y14.02326
G01 X-10.95609 Y13.97099
G01 X-10.91382 Y13.94028
G01 X-10.83612 Y13.87033
G01 X-10.80117 Y13.83149
G01 X-10.73973 Y13.74694
G01 X-10.71359 Y13.70167
G01 X-10.67107 Y13.60617
G01 X-10.65492 Y13.55646
G01 X-10.63320 Y13.45423
G01 X-10.62500 Y13.33343
G01 X-10.45916 Y12.95364
G01 X-10.39510 Y12.82964
G01 X-10.36472 Y12.78369
G01 X-10.37189 Y12.77770
G01 X-10.36472 Y12.78369
G01 X-10.32502 Y12.74554
G01 X-10.22106 Y12.66609
G01 X-9.97389 Y12.50587
G01 X-9.71555 Y12.37198
G01 X-9.39960 Y12.23805
G01 X-7.91007 Y10.74854
G01 X-7.92876 Y10.69238
G01 X-7.91007 Y10.74854
G01 X-7.79153 Y10.77374
G01 X-7.58360 Y10.79558
G01 X-7.41637 Y10.79558
G01 X-7.18998 Y10.76980
G01 X-7.03867 Y10.56241
G01 X-6.93722 Y10.40620
G01 X-6.83837 Y10.23562
G01 X-6.74797 Y10.05510
G01 X-6.67080 Y9.99901
G01 X-6.59310 Y9.92906
G01 X-6.48117 Y9.80478
G01 X-6.41975 Y9.72022
G01 X-6.33613 Y9.57537
G01 X-6.29996 Y9.49411
G01 X-6.28980 Y9.43526
G01 X-6.29996 Y9.49411
G01 X-6.29999 Y10.27808
G01 X-6.30522 Y10.28982
G01 X-6.40237 Y10.48045
G01 X-6.51378 Y10.67359
G01 X-6.63072 Y10.85162
G01 X-6.80075 Y11.08464
G01 X-6.94350 Y11.26218
G01 X-7.27083 Y11.61999
G01 X-7.26844 Y11.62279
G01 X-7.27083 Y11.61999
G01 X-7.30872 Y11.65108
G01 X-7.35079 Y11.67633
G01 X-7.48899 Y11.73096
G01 X-7.48807 Y11.73414
G01 X-7.48899 Y11.73096
G01 X-7.53585 Y11.74516
G01 X-7.60473 Y11.74996
G01 X-7.80438 Y11.84791
G01 X-7.94746 Y11.92560
G01 X-8.21609 Y12.08997
G01 X-8.34542 Y12.17887
G01 X-8.57542 Y12.35522
G01 X-8.76300 Y12.51204
G01 X-8.76064 Y12.51600
G01 X-8.76300 Y12.51204
G01 X-8.79881 Y12.53038
G01 X-9.50443 Y12.82563
G01 X-9.55261 Y12.84841
G01 X-9.77410 Y12.96937
G01 X-9.97585 Y13.10777
G01 X-10.03320 Y13.22372
G01 X-10.16790 Y13.53655
G01 X-10.03320 Y13.22372
G01 X-9.97585 Y13.10777
G01 X-9.92779 Y13.07196
G01 X-9.73267 Y12.94453
G01 X-9.50443 Y12.82563
G01 X-9.20826 Y12.70000
G01 X-8.73806 Y12.70000
G01 X-8.72800 Y12.72847
G01 X-8.73806 Y12.70000
G01 X-8.62307 Y12.59647
G01 X-8.48777 Y12.49817
G01 X-8.30671 Y12.39363
G01 X-8.15393 Y12.32560
G01 X-7.95510 Y12.26101
G01 X-7.79153 Y12.22624
G01 X-7.58360 Y12.20437
G01 X-7.41637 Y12.20437
G01 X-7.30458 Y12.21613
G01 X-7.28787 Y12.25906
G01 X-7.30458 Y12.21613
G01 X-6.79996 Y11.71151
G01 X-6.76191 Y11.72726
G01 X-6.79996 Y11.71151
G01 X-6.79996 Y11.08354
G01 X-6.63072 Y10.85162
G01 X-6.51441 Y10.67321
G01 X-6.39595 Y10.46861
G01 X-6.29999 Y10.27808
G01 X-6.29999 Y11.91859
G01 X-7.13570 Y12.75433
G01 X-7.31241 Y12.71529
G01 X-7.41637 Y12.70434
G01 X-7.58360 Y12.70434
G01 X-7.68756 Y12.71529
G01 X-7.85117 Y12.75004
G01 X-7.95058 Y12.78237
G01 X-8.10336 Y12.85037
G01 X-8.19389 Y12.90264
G01 X-8.32919 Y13.00096
G01 X-8.40687 Y13.07092
G01 X-8.52226 Y13.19997
G01 X-9.49998 Y13.19997
G01 X-9.60750 Y13.20813
G01 X-9.70364 Y13.22728
G01 X-9.75992 Y13.24435
G01 X-9.85048 Y13.28186
G01 X-9.90234 Y13.30957
G01 X-9.98383 Y13.36403
G01 X-10.06564 Y13.43429
G01 X-11.53137 Y14.90000
G01 X-12.62499 Y14.90000
G01 X-12.67729 Y14.90205
G01 X-12.75504 Y14.91229
G01 X-12.80620 Y14.92316
G01 X-12.90559 Y14.95544
G01 X-12.95334 Y14.97670
G01 X-13.04387 Y15.02898
G01 X-13.08613 Y15.05969
G01 X-13.16385 Y15.12964
G01 X-13.19881 Y15.16847
G01 X-13.26025 Y15.25303
G01 X-13.28638 Y15.29829
G01 X-13.32890 Y15.39380
G01 X-13.34506 Y15.44350
G01 X-13.36678 Y15.54574
G01 X-13.37498 Y15.64998
G01 X-13.37498 Y16.44998
G01 X-13.36678 Y16.55422
G01 X-13.34506 Y16.65648
G01 X-13.32890 Y16.70619
G01 X-13.28638 Y16.80167
G01 X-13.26025 Y16.84693
G01 X-13.19881 Y16.93149
G01 X-13.16385 Y16.97035
G01 X-13.08613 Y17.04028
G01 X-13.04387 Y17.07101
G01 X-12.95334 Y17.12326
G01 X-12.90559 Y17.14452
G01 X-12.79997 Y17.17815
G01 X-12.79997 Y17.45079
G01 X-12.83556 Y17.46237
G01 X-12.98834 Y17.53039
G01 X-13.07887 Y17.58267
G01 X-13.21417 Y17.68097
G01 X-13.29187 Y17.75092
G01 X-13.40378 Y17.87520
G01 X-13.46523 Y17.95976
G01 X-13.54884 Y18.10459
G01 X-13.59136 Y18.20009
G01 X-13.64303 Y18.35915
G01 X-13.65496 Y18.41533
G01 X-13.65499 Y18.46544
G01 X-13.65496 Y18.41533
G01 X-13.64303 Y18.35915
G01 X-13.59136 Y18.20009
G01 X-13.54884 Y18.10459
G01 X-13.46523 Y17.95976
G01 X-13.40498 Y17.87682
G01 X-13.40498 Y17.50063
G01 X-13.35982 Y17.39389
G01 X-13.34546 Y17.34825
G01 X-13.34005 Y17.30068
G01 X-13.31793 Y17.30116
G01 X-13.34005 Y17.30068
G01 X-13.34384 Y17.25298
G01 X-13.43249 Y16.96761
G01 X-13.47727 Y16.74736
G01 X-13.49550 Y16.57424
G01 X-13.49997 Y16.44670
G01 X-13.49997 Y15.65323
G01 X-13.49550 Y15.52567
G01 X-13.47727 Y15.35260
G01 X-13.43249 Y15.13235
G01 X-13.35791 Y14.89644
G01 X-13.29500 Y14.74996
G01 X-11.69700 Y14.75219
G01 X-11.64847 Y14.74503
G01 X-11.60155 Y14.73083
G01 X-11.60081 Y14.73330
G01 X-11.60155 Y14.73083
G01 X-11.18845 Y14.55707
G04 P0 ( dwell for no time -- G64 should not smooth over this point )
G00 Z1.00000 ( retract )

G00 X-8.81601 Y15.40861 ( rapid move to begin. )
G01 F20.00000
( Mill infeed pass 1/1 )
G01 Z-0.30000
G04 P0 ( dwell for no time -- G64 should not smooth over this point )
G01 F30.00000
G01 X-8.81601 Y15.40861
G01 X-8.82096 Y15.39408
G01 X-8.89663 Y15.35039
G01 X-9.04941 Y15.28237
G01 X-9.14883 Y15.25006
G01 X-9.31240 Y15.21529
G01 X-9.41636 Y15.20436
G01 X-9.57298 Y15.20436
G01 X-9.59914 Y15.21615
G01 X-9.57298 Y15.20436
G01 X-9.16861 Y14.80000
G01 X-8.52226 Y14.80000
G01 X-8.42775 Y14.90584
G01 X-8.41121 Y14.90904
G01 X-8.42775 Y14.90584
G01 X-8.53257 Y14.96692
G01 X-8.60110 Y15.02880
G01 X-8.67550 Y15.10967
G01 X-8.73143 Y15.18305
G01 X-8.77293 Y15.26548
G01 X-8.81309 Y15.36776
G01 X-8.82081 Y15.39451
G01 X-8.81512 Y15.41120
G04 P0 ( dwell for no time -- G64 should not smooth over this point )
G00 Z1.00000 ( retract )

G00 X-10.64321 Y19.01182 ( rapid move to begin. )
G01 F20.00000
( Mill infeed pass 1/1 )
G01 Z-0.30000
G04 P0 ( dwell for no time -- G64 should not smooth over this point )
G01 F30.00000
G01 X-10.64321 Y19.01182
G01 X-10.29998 Y18.66859
G01 X-10.29998 Y17.52023
G01 X-10.32919 Y17.49900
G01 X-10.40686 Y17.42907
G01 X-10.51877 Y17.30479
G01 X-10.58022 Y17.22021
G01 X-10.66383 Y17.07538
G01 X-10.70635 Y16.97987
G01 X-10.74651 Y16.85625
G01 X-10.74339 Y16.83294
G01 X-10.74651 Y16.85625
G01 X-10.80117 Y16.93149
G01 X-10.83612 Y16.97035
G01 X-10.91382 Y17.04028
G01 X-10.95609 Y17.07101
G01 X-11.04661 Y17.12326
G01 X-11.09436 Y17.14452
G01 X-11.19995 Y17.17815
G01 X-11.19995 Y18.15216
G01 X-11.17862 Y18.20009
G01 X-11.12695 Y18.35915
G01 X-11.10521 Y18.46141
G01 X-11.08773 Y18.62772
G01 X-11.08773 Y18.73225
G01 X-11.10521 Y18.89859
G01 X-11.12695 Y19.00083
G01 X-11.17862 Y19.15988
G01 X-11.22114 Y19.25538
G01 X-11.30475 Y19.40022
G01 X-11.36620 Y19.48477
G01 X-11.47811 Y19.60908
G01 X-11.55578 Y19.67901
G01 X-11.69109 Y19.77730
G01 X-11.78161 Y19.82958
G01 X-11.93439 Y19.89760
G01 X-12.03381 Y19.92991
G01 X-12.19741 Y19.96468
G01 X-12.27231 Y19.97255
G01 X-12.40297 Y20.03471
G01 X-12.55806 Y20.09897
G01 X-12.74260 Y20.16404
G01 X-12.91250 Y20.21436
G01 X-13.16398 Y20.27431
G01 X-13.20076 Y20.28111
G01 X-13.37277 Y20.18182
G01 X-13.40498 Y20.15841
G01 X-13.37277 Y20.18182
G01 X-13.20076 Y20.28111
G01 X-13.24765 Y20.28980
G01 X-13.40498 Y20.20900
G01 X-13.40498 Y19.48312
G01 X-13.46523 Y19.40022
G01 X-13.54884 Y19.25538
G01 X-13.59136 Y19.15988
G01 X-13.64303 Y19.00083
G01 X-13.65496 Y18.94454
G01 X-13.65499 Y18.89432
G01 X-13.65496 Y18.94454
G01 X-13.64303 Y19.00083
G01 X-13.59136 Y19.15988
G01 X-13.54884 Y19.25538
G01 X-13.46523 Y19.40022
G01 X-13.40378 Y19.48477
G01 X-13.29187 Y19.60908
G01 X-13.21417 Y19.67901
G01 X-13.07887 Y19.77730
G01 X-12.98834 Y19.82958
G01 X-12.83556 Y19.89760
G01 X-12.73612 Y19.92991
G01 X-12.57257 Y19.96468
G01 X-12.46861 Y19.97560
G01 X-12.30137 Y19.97560
G01 X-12.19741 Y19.96468
G01 X-12.03381 Y19.92991
G01 X-11.93439 Y19.89760
G01 X-11.78161 Y19.82958
G01 X-11.69109 Y19.77730
G01 X-11.55578 Y19.67901
G01 X-11.47811 Y19.60908
G01 X-11.36620 Y19.48477
G01 X-11.30475 Y19.40022
G01 X-11.22114 Y19.25538
G01 X-11.17862 Y19.15988
G01 X-11.12695 Y19.00083
G01 X-11.10521 Y18.89859
G01 X-11.09449 Y18.79661
G01 X-11.02970 Y18.66074
G01 X-10.95154 Y18.46661
G01 X-10.97176 Y18.26080
G01 X-11.00084 Y18.06324
G01 X-10.99995 Y17.76682
G01 X-11.04631 Y17.64535
G01 X-11.09858 Y17.48861
G01 X-11.10945 Y17.44071
G01 X-11.11933 Y17.44195
G01 X-11.10945 Y17.44071
G01 X-11.11075 Y17.39158
G01 X-11.10404 Y17.34292
G01 X-11.05065 Y17.12506
G01 X-10.95609 Y17.07101
G01 X-10.91382 Y17.04028
G01 X-10.83612 Y16.97035
G01 X-10.80117 Y16.93149
G01 X-10.74651 Y16.85625
G01 X-10.70635 Y16.97987
G01 X-10.66383 Y17.07538
G01 X-10.56427 Y17.24216
G01 X-10.60087 Y17.40060
G01 X-10.51657 Y17.63090
G01 X-10.50414 Y17.67492
G01 X-10.49746 Y17.67375
G01 X-10.50414 Y17.67492
G01 X-10.49995 Y17.72049
G01 X-10.49995 Y18.04350
G01 X-10.47521 Y18.20189
G01 X-10.45507 Y18.39303
G01 X-10.44964 Y18.49011
G01 X-10.44181 Y18.49062
G01 X-10.44964 Y18.49011
G01 X-10.45187 Y18.53905
G01 X-10.49261 Y18.67426
G01 X-10.57554 Y18.86996
G01 X-10.64321 Y19.01182
G01 X-12.05352 Y20.42216
G01 X-12.20569 Y20.49419
G01 X-12.37280 Y20.56379
G01 X-12.58222 Y20.63808
G01 X-12.79002 Y20.69917
G01 X-13.01257 Y20.75221
G01 X-12.99855 Y21.00997
G01 X-12.99390 Y21.36818
G01 X-12.95067 Y21.31929
G01 X-12.05352 Y20.42216
G01 X-12.98362 Y21.35566
G01 X-13.02090 Y21.40113
G01 X-13.07539 Y21.48261
G01 X-13.10310 Y21.53448
G01 X-13.14061 Y21.62503
G01 X-13.15768 Y21.68131
G01 X-13.17681 Y21.77745
G01 X-13.18499 Y21.88500
G01 X-13.18499 Y25.27973
G01 X-13.21417 Y25.30097
G01 X-13.29187 Y25.37092
G01 X-13.40378 Y25.49520
G01 X-13.46523 Y25.57976
G01 X-13.54884 Y25.72459
G01 X-13.59136 Y25.82009
G01 X-13.64303 Y25.97915
G01 X-13.65496 Y26.03533
G01 X-13.65499 Y26.08544
G01 X-13.65496 Y26.03533
G01 X-13.64303 Y25.97915
G01 X-13.59136 Y25.82009
G01 X-13.54884 Y25.72459
G01 X-13.46523 Y25.57976
G01 X-13.40498 Y25.49685
G01 X-13.40498 Y25.07176
G01 X-13.40198 Y25.07145
G01 X-13.40498 Y25.07176
G01 X-13.40917 Y25.02621
G01 X-13.42951 Y24.96155
G01 X-13.42667 Y24.96061
G01 X-13.42951 Y24.96155
G01 X-13.53038 Y24.73488
G01 X-13.59413 Y24.60899
G01 X-13.54897 Y24.55271
G01 X-13.35585 Y24.28352
G01 X-13.24331 Y24.08702
G01 X-13.18499 Y23.96462
G01 X-13.63627 Y23.74897
G01 X-13.72161 Y23.79828
G01 X-13.76937 Y23.81954
G01 X-13.86878 Y23.85182
G01 X-13.99769 Y23.87293
G01 X-14.04998 Y23.87498
G01 X-14.90228 Y23.87293
G01 X-15.03119 Y23.85182
G01 X-15.13060 Y23.81954
G01 X-15.19997 Y23.78578
G01 X-15.19997 Y24.83498
G01 X-15.20815 Y24.94250
G01 X-15.22760 Y25.03975
G01 X-15.24234 Y25.05326
G01 X-15.22760 Y25.03975
G01 X-15.11257 Y25.01529
G01 X-15.00861 Y25.00437
G01 X-14.84137 Y25.00437
G01 X-14.73741 Y25.01529
G01 X-14.57381 Y25.05006
G01 X-14.47439 Y25.08237
G01 X-14.32161 Y25.15039
G01 X-14.23109 Y25.20267
G01 X-14.09578 Y25.30097
G01 X-14.01811 Y25.37092
G01 X-13.90620 Y25.49520
G01 X-13.84475 Y25.57976
G01 X-13.76114 Y25.72459
G01 X-13.71862 Y25.82009
G01 X-13.66695 Y25.97915
G01 X-13.65496 Y26.03533
G01 X-13.66695 Y25.97915
G01 X-13.71862 Y25.82009
G01 X-13.76114 Y25.72459
G01 X-13.84475 Y25.57976
G01 X-13.90498 Y25.49688
G01 X-13.90498 Y25.12215
G01 X-13.98427 Y24.94463
G01 X-14.06055 Y24.79495
G01 X-14.26340 Y24.75182
G01 X-14.53982 Y24.71097
G01 X-14.66934 Y24.82728
G01 X-14.84617 Y25.00437
G01 X-15.00861 Y25.00437
G01 X-15.11257 Y25.01529
G01 X-15.22760 Y25.03975
G01 X-15.20815 Y24.94250
G01 X-15.20238 Y24.88397
G01 X-15.19997 Y24.65106
G01 X-15.01813 Y24.46899
G01 X-14.79123 Y24.26475
G01 X-14.79329 Y24.26198
G01 X-14.79123 Y24.26475
G01 X-14.74904 Y24.23417
G01 X-14.70147 Y24.21298
G01 X-14.70490 Y24.20244
G01 X-14.70147 Y24.21298
G01 X-14.65052 Y24.20214
G01 X-14.59845 Y24.20209
G01 X-14.59845 Y24.19929
G01 X-14.59845 Y24.20209
G01 X-14.42413 Y24.22004
G01 X-14.17853 Y24.25903
G01 X-13.98692 Y24.29942
G01 X-13.94920 Y24.25294
G01 X-13.77958 Y24.01590
G01 X-13.68572 Y23.85398
G01 X-13.63627 Y23.74897
G01 X-13.58882 Y23.71529
G01 X-13.51112 Y23.64534
G01 X-13.47617 Y23.60651
G01 X-13.41473 Y23.52192
G01 X-13.38859 Y23.47666
G01 X-13.34607 Y23.38118
G01 X-13.32992 Y23.33147
G01 X-13.30815 Y23.22924
G01 X-13.30000 Y23.12500
G01 X-13.30000 Y21.87499
G01 X-13.30815 Y21.77075
G01 X-13.32992 Y21.66851
G01 X-13.34607 Y21.61880
G01 X-13.38859 Y21.52330
G01 X-13.41473 Y21.47804
G01 X-13.47617 Y21.39348
G01 X-13.51112 Y21.35464
G01 X-13.58882 Y21.28469
G01 X-13.63109 Y21.25398
G01 X-13.72161 Y21.20171
G01 X-13.76937 Y21.18045
G01 X-13.86878 Y21.14814
G01 X-13.99769 Y21.12703
G01 X-14.05082 Y21.12498
G01 X-14.87696 Y21.12635
G01 X-14.98008 Y21.13727
G01 X-15.03119 Y21.14814
G01 X-15.13060 Y21.18045
G01 X-15.19997 Y21.21418
G01 X-15.19997 Y20.14499
G01 X-15.20815 Y20.03745
G01 X-15.22755 Y19.94024
G01 X-15.24229 Y19.92673
G01 X-15.22755 Y19.94024
G01 X-15.11257 Y19.96468
G01 X-15.00861 Y19.97560
G01 X-14.84137 Y19.97560
G01 X-14.73741 Y19.96468
G01 X-14.57381 Y19.92991
G01 X-14.47439 Y19.89760
G01 X-14.32161 Y19.82958
G01 X-14.23109 Y19.77730
G01 X-14.09578 Y19.67901
G01 X-14.01811 Y19.60908
G01 X-13.90620 Y19.48477
G01 X-13.84475 Y19.40022
G01 X-13.76114 Y19.25538
G01 X-13.71862 Y19.15988
G01 X-13.66695 Y19.00083
G01 X-13.65496 Y18.94454
G01 X-13.66695 Y19.00083
G01 X-13.71862 Y19.15988
G01 X-13.76114 Y19.25538
G01 X-13.84475 Y19.40022
G01 X-13.90498 Y19.48310
G01 X-13.90498 Y20.15841
G01 X-13.91072 Y20.16257
G01 X-13.90498 Y20.15841
G01 X-13.90498 Y20.16130
G01 X-14.25928 Y20.23783
G01 X-14.52890 Y20.27832
G01 X-14.66949 Y20.15251
G01 X-14.84615 Y19.97560
G01 X-15.00861 Y19.97560
G01 X-15.11257 Y19.96468
G01 X-15.22755 Y19.94024
G01 X-15.20815 Y20.03745
G01 X-15.20238 Y20.09597
G01 X-15.19997 Y20.32889
G01 X-15.01813 Y20.51096
G01 X-14.76997 Y20.73285
G01 X-14.77264 Y20.73661
G01 X-14.76997 Y20.73285
G01 X-14.72900 Y20.75985
G01 X-14.68354 Y20.77832
G01 X-14.68633 Y20.78772
G01 X-14.68354 Y20.77832
G01 X-14.63535 Y20.78754
G01 X-14.58631 Y20.78718
G01 X-14.58623 Y20.79043
G01 X-14.58631 Y20.78718
G01 X-14.40871 Y20.76803
G01 X-14.17399 Y20.73090
G01 X-13.80330 Y20.65091
G01 X-13.76482 Y20.65909
G01 X-13.56601 Y20.72368
G01 X-13.51519 Y20.74669
G01 X-13.56601 Y20.72368
G01 X-13.76482 Y20.65909
G01 X-13.80330 Y20.65091
G01 X-13.68864 Y20.62571
G01 X-13.51872 Y20.71332
G01 X-13.50686 Y20.84431
G01 X-13.49820 Y21.02909
G01 X-13.49385 Y21.37382
G04 P0 ( dwell for no time -- G64 should not smooth over this point )
G00 Z1.00000 ( retract )

G00 X-15.72499 Y16.04477 ( rapid move to begin. )
G01 F20.00000
( Mill infeed pass 1/1 )
G01 Z-0.30000
G04 P0 ( dwell for no time -- G64 should not smooth over this point )
G01 F30.00000
G01 X-15.72499 Y16.04477
G01 X-15.72496 Y10.44097
G01 X-15.71462 Y10.42124
G01 X-15.72496 Y10.44097
G01 X-15.82585 Y10.50173
G01 X-15.84772 Y10.50940
G01 X-15.86291 Y10.50402
G01 X-15.84630 Y10.50994
G01 X-15.79608 Y10.61880
G01 X-15.77993 Y10.66851
G01 X-15.75819 Y10.77074
G01 X-15.75272 Y10.82271
G01 X-15.74998 Y10.87498
G01 X-15.74998 Y12.12499
G01 X-15.75819 Y12.22924
G01 X-15.77993 Y12.33147
G01 X-15.79608 Y12.38118
G01 X-15.83858 Y12.47668
G01 X-15.86471 Y12.52195
G01 X-15.92616 Y12.60650
G01 X-15.96113 Y12.64534
G01 X-16.03880 Y12.71529
G01 X-16.08110 Y12.74600
G01 X-16.13746 Y12.77856
G01 X-16.13746 Y13.21087
G01 X-16.06382 Y13.25969
G01 X-15.98612 Y13.32964
G01 X-15.95115 Y13.36848
G01 X-15.88973 Y13.45303
G01 X-15.86360 Y13.49830
G01 X-15.82108 Y13.59380
G01 X-15.80492 Y13.64351
G01 X-15.78318 Y13.74574
G01 X-15.77497 Y13.84998
G01 X-15.77497 Y15.14998
G01 X-15.78318 Y15.25422
G01 X-15.80492 Y15.35648
G01 X-15.82108 Y15.40619
G01 X-15.86360 Y15.50167
G01 X-15.88973 Y15.54693
G01 X-15.95115 Y15.63149
G01 X-15.98612 Y15.67033
G01 X-16.06382 Y15.74028
G01 X-16.10609 Y15.77101
G01 X-16.19661 Y15.82326
G01 X-16.24437 Y15.84452
G01 X-16.34378 Y15.87683
G01 X-16.47269 Y15.89794
G01 X-16.66497 Y15.89999
G01 X-16.66497 Y17.65976
G01 X-16.63578 Y17.68097
G01 X-16.55811 Y17.75092
G01 X-16.44620 Y17.87520
G01 X-16.38475 Y17.95976
G01 X-16.30114 Y18.10459
G01 X-16.25862 Y18.20009
G01 X-16.20695 Y18.35915
G01 X-16.19496 Y18.41543
G01 X-16.19499 Y18.46544
G01 X-16.19496 Y18.41543
G01 X-16.18303 Y18.35915
G01 X-16.13136 Y18.20009
G01 X-16.08884 Y18.10459
G01 X-16.00523 Y17.95976
G01 X-15.94378 Y17.87520
G01 X-15.83187 Y17.75092
G01 X-15.75417 Y17.68097
G01 X-15.72499 Y17.65973
G01 X-15.72499 Y16.04477
G01 X-15.84396 Y16.25491
G01 X-15.94498 Y16.40373
G01 X-15.94498 Y17.87682
G01 X-16.00523 Y17.95976
G01 X-16.08884 Y18.10459
G01 X-16.13136 Y18.20009
G01 X-16.18303 Y18.35915
G01 X-16.19496 Y18.41543
G01 X-16.20695 Y18.35915
G01 X-16.25862 Y18.20009
G01 X-16.30114 Y18.10459
G01 X-16.38475 Y17.95976
G01 X-16.44498 Y17.87688
G01 X-16.44495 Y16.32422
G01 X-16.44759 Y16.32394
G01 X-16.44495 Y16.32422
G01 X-16.43972 Y16.27325
G01 X-16.42417 Y16.22443
G01 X-16.43136 Y16.22156
G01 X-16.42417 Y16.22443
G01 X-16.39903 Y16.17980
G01 X-16.27337 Y15.99870
G01 X-16.16362 Y15.80421
G04 P0 ( dwell for no time -- G64 should not smooth over this point )
G00 Z1.00000 ( retract )

G00 X-23.50069 Y15.54592 ( rapid move to begin. )
G01 F20.00000
( Mill infeed pass 1/1 )
G01 Z-0.30000
G04 P0 ( dwell for no time -- G64 should not smooth over this point )
G01 F30.00000
G01 X-23.50069 Y15.54592
G01 X-23.45334 Y15.57327
G01 X-23.40562 Y15.59453
G01 X-23.34499 Y15.61422
G01 X-23.34499 Y17.65973
G01 X-23.37417 Y17.68097
G01 X-23.45187 Y17.75092
G01 X-23.56378 Y17.87520
G01 X-23.62523 Y17.95976
G01 X-23.70884 Y18.10459
G01 X-23.75136 Y18.20009
G01 X-23.80303 Y18.35915
G01 X-23.81496 Y18.41543
G01 X-23.81496 Y18.46544
G01 X-23.81496 Y18.41543
G01 X-23.80303 Y18.35915
G01 X-23.75136 Y18.20009
G01 X-23.70884 Y18.10459
G01 X-23.62523 Y17.95976
G01 X-23.56498 Y17.87682
G01 X-23.56498 Y17.69991
G01 X-23.51420 Y17.56763
G01 X-23.50168 Y17.52343
G01 X-23.49442 Y17.52470
G01 X-23.50168 Y17.52343
G01 X-23.49746 Y17.47771
G01 X-23.49746 Y16.00002
G01 X-23.46127 Y15.89603
G01 X-23.45652 Y15.85412
G01 X-23.44552 Y15.85486
G01 X-23.45652 Y15.85412
G01 X-23.47102 Y15.72623
G01 X-23.50069 Y15.54592
G01 X-23.54387 Y15.52100
G01 X-23.58616 Y15.49029
G01 X-23.66383 Y15.42034
G01 X-23.69881 Y15.38150
G01 X-23.76025 Y15.29692
G01 X-23.78639 Y15.25168
G01 X-23.80755 Y15.20408
G01 X-23.81321 Y15.16659
G01 X-23.80635 Y15.21181
G01 X-23.82992 Y15.33147
G01 X-23.84608 Y15.38117
G01 X-23.88860 Y15.47668
G01 X-23.91471 Y15.52194
G01 X-23.97615 Y15.60650
G01 X-24.01113 Y15.64533
G01 X-24.08880 Y15.71528
G01 X-24.14996 Y15.75692
G01 X-24.14996 Y17.78216
G01 X-24.06620 Y17.87520
G01 X-24.00475 Y17.95976
G01 X-23.92114 Y18.10459
G01 X-23.87862 Y18.20009
G01 X-23.82695 Y18.35915
G01 X-23.81496 Y18.41543
G01 X-23.82695 Y18.35915
G01 X-23.87862 Y18.20009
G01 X-23.92114 Y18.10459
G01 X-24.00475 Y17.95976
G01 X-24.06498 Y17.87688
G01 X-24.06498 Y17.65358
G01 X-24.06081 Y17.60814
G01 X-24.06752 Y17.60692
G01 X-24.06081 Y17.60814
G01 X-24.04847 Y17.56423
G01 X-23.99746 Y17.43136
G01 X-23.99746 Y15.95181
G01 X-24.00140 Y15.95133
G01 X-23.99746 Y15.95181
G01 X-23.99294 Y15.90449
G01 X-23.96305 Y15.81772
G01 X-23.99416 Y15.62651
G04 P0 ( dwell for no time -- G64 should not smooth over this point )
G00 Z1.00000 ( retract )

G00 X-26.67533 Y13.19997 ( rapid move to begin. )
G01 F20.00000
( Mill infeed pass 1/1 )
G01 Z-0.30000
G04 P0 ( dwell for no time -- G64 should not smooth over this point )
G01 F30.00000
G01 X-26.67533 Y13.19997
G01 X-26.48135 Y13.19997
G01 X-26.05603 Y13.62532
G01 X-26.07005 Y13.66850
G01 X-26.09179 Y13.77074
G01 X-26.09997 Y13.87498
G01 X-26.09997 Y15.12499
G01 X-26.09179 Y15.22923
G01 X-26.07005 Y15.33147
G01 X-26.05390 Y15.38117
G01 X-26.01138 Y15.47668
G01 X-25.98527 Y15.52194
G01 X-25.92382 Y15.60650
G01 X-25.88885 Y15.64533
G01 X-25.81118 Y15.71528
G01 X-25.74999 Y15.75692
G01 X-25.74999 Y17.56598
G01 X-25.77889 Y17.58267
G01 X-25.91417 Y17.68097
G01 X-25.99185 Y17.75092
G01 X-26.10378 Y17.87520
G01 X-26.16523 Y17.95976
G01 X-26.24884 Y18.10459
G01 X-26.29136 Y18.20009
G01 X-26.34300 Y18.35915
G01 X-26.35496 Y18.41543
G01 X-26.35499 Y18.46544
G01 X-26.35496 Y18.41543
G01 X-26.34300 Y18.35915
G01 X-26.29136 Y18.20009
G01 X-26.24884 Y18.10459
G01 X-26.16523 Y17.95976
G01 X-26.10498 Y17.87685
G01 X-26.10498 Y17.50073
G01 X-26.05496 Y17.38945
G01 X-26.04249 Y17.34083
G01 X-26.03744 Y17.29092
G01 X-26.03490 Y17.29120
G01 X-26.04026 Y16.01079
G01 X-26.03769 Y16.01051
G01 X-26.04026 Y16.01079
G01 X-26.04745 Y15.94955
G01 X-26.06205 Y15.90617
G01 X-26.05936 Y15.90530
G01 X-26.06205 Y15.90617
G01 X-26.24996 Y15.48224
G01 X-26.24996 Y13.75748
G01 X-26.24689 Y13.75715
G01 X-26.24996 Y13.75748
G01 X-26.25613 Y13.70228
G01 X-26.27434 Y13.64981
G01 X-26.27010 Y13.64823
G01 X-26.27434 Y13.64981
G01 X-26.39065 Y13.43185
G01 X-26.38839 Y13.43033
G01 X-26.39065 Y13.43185
G01 X-26.43675 Y13.36584
G01 X-26.47338 Y13.33327
G01 X-26.46987 Y13.32934
G01 X-26.47338 Y13.33327
G01 X-26.67533 Y13.19997
G01 X-27.15115 Y13.19929
G01 X-27.25506 Y13.18768
G01 X-27.30619 Y13.17683
G01 X-27.40561 Y13.14453
G01 X-27.45336 Y13.12327
G01 X-27.54389 Y13.07099
G01 X-27.58615 Y13.04028
G01 X-27.66385 Y12.97031
G01 X-27.69880 Y12.93147
G01 X-27.75803 Y12.84999
G01 X-28.44998 Y12.84999
G01 X-28.55750 Y12.84181
G01 X-28.65364 Y12.82268
G01 X-28.70992 Y12.80561
G01 X-28.80048 Y12.76810
G01 X-28.85234 Y12.74039
G01 X-28.93383 Y12.68593
G01 X-29.01566 Y12.61567
G01 X-31.06567 Y10.56566
G01 X-31.13593 Y10.48382
G01 X-31.19039 Y10.40234
G01 X-31.21810 Y10.35047
G01 X-31.25561 Y10.25992
G01 X-31.27268 Y10.20364
G01 X-31.29181 Y10.10750
G01 X-31.29999 Y9.99998
G01 X-31.29999 Y9.02023
G01 X-31.32917 Y8.99902
G01 X-31.40687 Y8.92907
G01 X-31.51878 Y8.80478
G01 X-31.58020 Y8.72023
G01 X-31.66384 Y8.57537
G01 X-31.70636 Y8.47989
G01 X-31.75803 Y8.32084
G01 X-31.77977 Y8.21858
G01 X-31.79724 Y8.05226
G01 X-31.79724 Y7.94771
G01 X-31.79501 Y7.92637
G01 X-31.78190 Y7.89889
G01 X-31.79501 Y7.92637
G01 X-31.93428 Y8.06567
G01 X-32.01612 Y8.13592
G01 X-32.09760 Y8.19038
G01 X-32.14947 Y8.21809
G01 X-32.24002 Y8.25561
G01 X-32.29630 Y8.27268
G01 X-32.39244 Y8.29180
G01 X-32.45096 Y8.29757
G01 X-36.91860 Y8.29998
G01 X-37.01285 Y8.39424
G01 X-37.04684 Y8.41385
G01 X-37.01285 Y8.39424
G01 X-36.98006 Y8.38728
G01 X-36.87613 Y8.37636
G01 X-36.02385 Y8.37636
G01 X-35.91989 Y8.38728
G01 X-35.86879 Y8.39815
G01 X-35.76937 Y8.43044
G01 X-35.72162 Y8.45170
G01 X-35.63109 Y8.50397
G01 X-35.58880 Y8.53470
G01 X-35.51113 Y8.60463
G01 X-35.47615 Y8.64347
G01 X-35.41471 Y8.72805
G01 X-35.38860 Y8.77331
G01 X-35.34608 Y8.86879
G01 X-35.32993 Y8.91850
G01 X-35.30818 Y9.02073
G01 X-35.29998 Y9.12498
G01 X-35.29998 Y10.01860
G01 X-33.11860 Y12.19998
G01 X-31.52226 Y12.19998
G01 X-31.40687 Y12.07092
G01 X-31.32917 Y12.00097
G01 X-31.19389 Y11.90267
G01 X-31.10337 Y11.85040
G01 X-30.95056 Y11.78237
G01 X-30.85114 Y11.75007
G01 X-30.68757 Y11.71529
G01 X-30.58361 Y11.70437
G01 X-30.41637 Y11.70437
G01 X-30.31241 Y11.71529
G01 X-30.14881 Y11.75007
G01 X-30.04939 Y11.78237
G01 X-29.89661 Y11.85040
G01 X-29.80609 Y11.90267
G01 X-29.67078 Y12.00097
G01 X-29.59311 Y12.07092
G01 X-29.48120 Y12.19520
G01 X-29.41975 Y12.27976
G01 X-29.33614 Y12.42459
G01 X-29.29362 Y12.52009
G01 X-29.24195 Y12.67915
G01 X-29.22021 Y12.78138
G01 X-29.20274 Y12.94773
G01 X-29.20274 Y13.04003
G01 X-29.15074 Y13.12291
G01 X-29.11983 Y13.16261
G01 X-29.12600 Y13.16871
G01 X-29.11983 Y13.16261
G01 X-29.08158 Y13.19538
G01 X-29.03756 Y13.21979
G01 X-29.04317 Y13.23490
G01 X-29.03756 Y13.21979
G01 X-28.98953 Y13.23490
G01 X-28.93944 Y13.24005
G01 X-28.84500 Y13.24018
G01 X-28.93944 Y13.24005
G01 X-28.98953 Y13.23490
G01 X-29.03756 Y13.21979
G01 X-29.08158 Y13.19538
G01 X-29.11983 Y13.16261
G01 X-29.15074 Y13.12291
G01 X-29.20274 Y13.04003
G01 X-29.21353 Y13.15507
G01 X-29.00073 Y13.36784
G01 X-28.91117 Y13.28468
G01 X-28.86888 Y13.25397
G01 X-28.77835 Y13.20170
G01 X-28.73060 Y13.18044
G01 X-28.63118 Y13.14816
G01 X-28.58008 Y13.13729
G01 X-28.50228 Y13.12702
G01 X-28.44914 Y13.12497
G01 X-27.62385 Y13.12634
G01 X-27.51991 Y13.13729
G01 X-27.46878 Y13.14816
G01 X-27.36936 Y13.18044
G01 X-27.32161 Y13.20170
G01 X-27.23109 Y13.25397
G01 X-27.18882 Y13.28468
G01 X-27.11112 Y13.35463
G01 X-27.07617 Y13.39347
G01 X-27.01473 Y13.47805
G01 X-26.98859 Y13.52332
G01 X-26.94607 Y13.61879
G01 X-26.92992 Y13.66850
G01 X-26.90820 Y13.77074
G01 X-26.90271 Y13.82273
G01 X-26.90000 Y13.87498
G01 X-26.90000 Y15.12499
G01 X-26.90271 Y15.17726
G01 X-26.90820 Y15.22923
G01 X-26.92992 Y15.33147
G01 X-26.94607 Y15.38117
G01 X-26.98859 Y15.47668
G01 X-27.01473 Y15.52194
G01 X-27.04963 Y15.56997
G01 X-26.98902 Y15.64112
G01 X-26.93457 Y15.72260
G01 X-26.90686 Y15.77447
G01 X-26.86934 Y15.86502
G01 X-26.85227 Y15.92130
G01 X-26.83314 Y16.01744
G01 X-26.82497 Y16.12499
G01 X-26.82497 Y17.65976
G01 X-26.79578 Y17.68097
G01 X-26.71811 Y17.75092
G01 X-26.60620 Y17.87520
G01 X-26.54475 Y17.95976
G01 X-26.46114 Y18.10459
G01 X-26.41862 Y18.20009
G01 X-26.36693 Y18.35915
G01 X-26.35496 Y18.41543
G01 X-26.36693 Y18.35915
G01 X-26.41862 Y18.20009
G01 X-26.46114 Y18.10459
G01 X-26.54475 Y17.95976
G01 X-26.60495 Y17.87688
G01 X-26.60495 Y17.45181
G01 X-26.60078 Y17.40626
G01 X-26.60863 Y17.40477
G01 X-26.60078 Y17.40626
G01 X-26.58836 Y17.36222
G01 X-26.53746 Y17.24002
G01 X-26.53904 Y16.06372
G01 X-26.72908 Y15.63489
G01 X-26.73175 Y15.63576
G01 X-26.72908 Y15.63489
G01 X-26.74470 Y15.58595
G01 X-26.74998 Y15.53484
G01 X-26.75263 Y15.53512
G01 X-26.74998 Y15.53484
G01 X-26.74998 Y13.81742
G01 X-26.80830 Y13.70978
G01 X-26.94518 Y13.62146
G04 P0 ( dwell for no time -- G64 should not smooth over this point )
G00 Z1.00000 ( retract )

G00 X-29.87512 Y14.75618 ( rapid move to begin. )
G01 F20.00000
( Mill infeed pass 1/1 )
G01 Z-0.30000
G04 P0 ( dwell for no time -- G64 should not smooth over this point )
G01 F30.00000
G01 X-29.87512 Y14.75618
G01 X-29.56568 Y15.06568
G01 X-29.48384 Y15.13594
G01 X-29.40235 Y15.19039
G01 X-29.35049 Y15.21811
G01 X-29.25994 Y15.25562
G01 X-29.18163 Y15.27708
G01 X-29.16687 Y15.34117
G01 X-29.15013 Y15.35974
G01 X-29.16687 Y15.34117
G01 X-29.29890 Y15.28237
G01 X-29.39832 Y15.25006
G01 X-29.56192 Y15.21529
G01 X-29.66585 Y15.20436
G01 X-29.83311 Y15.20436
G01 X-29.93708 Y15.21529
G01 X-30.02420 Y15.23380
G01 X-30.23365 Y15.16954
G01 X-30.43197 Y15.12227
G01 X-30.55920 Y15.09870
G01 X-31.73712 Y15.35148
G01 X-31.75163 Y15.37663
G01 X-31.73712 Y15.35148
G01 X-31.75551 Y15.35544
G01 X-31.70215 Y15.64648
G01 X-31.65942 Y15.82440
G01 X-31.57172 Y16.12212
G01 X-31.51424 Y16.28442
G01 X-31.41947 Y16.51396
G01 X-31.34873 Y16.66225
G01 X-31.27218 Y16.80350
G01 X-30.90603 Y17.08800
G01 X-31.27218 Y16.80350
G01 X-31.34873 Y16.66225
G01 X-31.41947 Y16.51396
G01 X-31.52818 Y16.24503
G01 X-31.48305 Y16.02466
G01 X-31.43136 Y15.86558
G01 X-31.34634 Y15.67459
G01 X-31.26273 Y15.52976
G01 X-31.13984 Y15.36062
G01 X-31.02793 Y15.23634
G01 X-30.97378 Y15.18757
G01 X-30.55920 Y15.09870
G01 X-30.43197 Y15.12227
G01 X-30.23365 Y15.16954
G01 X-30.02420 Y15.23380
G01 X-30.10065 Y15.25006
G01 X-30.20007 Y15.28237
G01 X-30.35285 Y15.35039
G01 X-30.44337 Y15.40266
G01 X-30.57868 Y15.50096
G01 X-30.65635 Y15.57091
G01 X-30.76826 Y15.69519
G01 X-30.82971 Y15.77975
G01 X-30.91332 Y15.92461
G01 X-30.95584 Y16.02008
G01 X-31.00753 Y16.17914
G01 X-31.02927 Y16.28140
G01 X-31.04675 Y16.44772
G01 X-31.04675 Y16.55224
G01 X-31.02927 Y16.71858
G01 X-31.00753 Y16.82082
G01 X-30.95584 Y16.97987
G01 X-30.91332 Y17.07538
G01 X-30.82971 Y17.22021
G01 X-30.76826 Y17.30479
G01 X-30.65635 Y17.42907
G01 X-30.59999 Y17.47985
G01 X-30.59996 Y17.81475
G01 X-30.58980 Y17.83977
G01 X-30.59996 Y17.81475
G01 X-30.67078 Y17.75097
G01 X-30.80609 Y17.65267
G01 X-30.89661 Y17.60040
G01 X-31.04942 Y17.53238
G01 X-31.14881 Y17.50007
G01 X-31.20641 Y17.48782
G01 X-31.61160 Y17.17492
G01 X-31.64822 Y17.14236
G01 X-31.65533 Y17.14853
G01 X-31.64822 Y17.14236
G01 X-31.67957 Y17.10042
G01 X-31.79798 Y16.88371
G01 X-31.87362 Y16.72321
G01 X-31.97883 Y16.46931
G01 X-32.04571 Y16.28280
G01 X-32.14451 Y15.94742
G01 X-32.18990 Y15.75661
G01 X-32.26773 Y15.33428
G01 X-32.44251 Y15.26187
G01 X-32.24474 Y15.45966
G01 X-32.19270 Y15.74335
G01 X-32.24474 Y15.45966
G01 X-32.44251 Y15.26187
G01 X-33.54565 Y14.80495
G01 X-33.67151 Y14.74927
G01 X-33.65485 Y14.75666
G01 X-31.99948 Y16.41198
G01 X-31.87362 Y16.72321
G01 X-31.79140 Y16.89481
G01 X-31.67781 Y17.10327
G01 X-31.64822 Y17.14236
G01 X-31.61160 Y17.17492
G01 X-31.20641 Y17.48782
G01 X-31.31241 Y17.46529
G01 X-31.41637 Y17.45437
G01 X-31.58360 Y17.45437
G01 X-31.65653 Y17.46204
G01 X-34.18431 Y14.93429
G01 X-34.26612 Y14.86403
G01 X-34.34761 Y14.80957
G01 X-34.39947 Y14.78186
G01 X-34.49002 Y14.74434
G01 X-34.54631 Y14.72728
G01 X-34.64245 Y14.70815
G01 X-34.74999 Y14.69997
G01 X-37.57323 Y14.69997
G01 X-37.59606 Y14.61879
G01 X-37.63858 Y14.52331
G01 X-37.66472 Y14.47805
G01 X-37.72616 Y14.39347
G01 X-37.76114 Y14.35463
G01 X-37.83881 Y14.28468
G01 X-37.88110 Y14.25397
G01 X-37.97163 Y14.20170
G01 X-38.01935 Y14.18044
G01 X-38.11877 Y14.14816
G01 X-38.16990 Y14.13728
G01 X-38.27386 Y14.12636
G01 X-39.12611 Y14.12636
G01 X-39.23007 Y14.13728
G01 X-39.28120 Y14.14816
G01 X-39.38062 Y14.18044
G01 X-39.42834 Y14.20170
G01 X-39.44993 Y14.21417
G01 X-39.46012 Y14.23170
G01 X-39.44993 Y14.21417
G01 X-39.44996 Y13.78783
G01 X-39.39017 Y13.72177
G01 X-39.44996 Y13.68077
G01 X-39.44996 Y13.78783
G01 X-39.45237 Y13.62964
G01 X-39.45814 Y13.57112
G01 X-39.47726 Y13.47498
G01 X-39.49433 Y13.41869
G01 X-39.53185 Y13.32814
G01 X-39.53612 Y13.32012
G01 X-39.55308 Y13.30996
G01 X-39.53612 Y13.32012
G01 X-39.41635 Y13.32012
G01 X-39.31242 Y13.30917
G01 X-39.14882 Y13.27440
G01 X-39.04940 Y13.24211
G01 X-38.89662 Y13.17409
G01 X-38.80609 Y13.12182
G01 X-38.67079 Y13.02352
G01 X-38.59312 Y12.95354
G01 X-38.47597 Y12.82210
G01 X-38.41694 Y12.81631
G01 X-38.32080 Y12.79718
G01 X-38.26452 Y12.78011
G01 X-38.17396 Y12.74260
G01 X-38.12210 Y12.71488
G01 X-38.04061 Y12.66043
G01 X-37.95878 Y12.59017
G01 X-37.43427 Y12.06566
G01 X-37.36401 Y11.98382
G01 X-37.30955 Y11.90234
G01 X-37.28184 Y11.85047
G01 X-37.24432 Y11.75992
G01 X-37.22726 Y11.70363
G01 X-37.20813 Y11.60750
G01 X-37.19995 Y11.46213
G01 X-37.06338 Y11.61326
G01 X-36.90066 Y11.78291
G01 X-36.84753 Y11.95898
G01 X-36.82642 Y12.05126
G01 X-36.86861 Y12.13802
G01 X-36.97752 Y12.30102
G01 X-37.01484 Y12.34648
G01 X-37.08072 Y12.41920
G01 X-37.60523 Y12.94371
G01 X-37.67795 Y13.00960
G01 X-37.72342 Y13.04689
G01 X-37.88641 Y13.15583
G01 X-37.95265 Y13.18948
G01 X-38.14412 Y13.20287
G01 X-38.20472 Y13.21562
G01 X-38.20538 Y13.21267
G01 X-38.20472 Y13.21562
G01 X-38.35451 Y13.26716
G01 X-38.55085 Y13.33129
G01 X-38.75255 Y13.38552
G01 X-38.90843 Y13.41867
G01 X-38.94811 Y13.42545
G01 X-39.15600 Y13.27595
G01 X-39.31242 Y13.30917
G01 X-39.15600 Y13.27595
G01 X-38.94811 Y13.42545
G01 X-38.75255 Y13.38552
G01 X-38.55085 Y13.33129
G01 X-38.20472 Y13.21562
G01 X-38.14412 Y13.20287
G01 X-37.45095 Y13.15291
G01 X-37.08644 Y13.13200
G01 X-36.73140 Y12.77696
G01 X-37.08644 Y13.13200
G01 X-36.92032 Y13.12532
G01 X-36.72497 Y13.04440
G01 X-36.73404 Y12.72365
G01 X-36.76975 Y12.35362
G01 X-36.83386 Y12.01354
G01 X-36.90066 Y11.78291
G01 X-37.06338 Y11.61326
G01 X-37.19995 Y11.46213
G01 X-37.19993 Y11.03582
G01 X-37.21009 Y11.01829
G01 X-37.19993 Y11.03582
G01 X-37.13061 Y11.06952
G01 X-37.03119 Y11.10183
G01 X-36.98006 Y11.11270
G01 X-36.87722 Y11.12363
G01 X-36.45680 Y11.12454
G01 X-34.01568 Y13.56566
G01 X-33.93384 Y13.63594
G01 X-33.85236 Y13.69040
G01 X-33.80049 Y13.71811
G01 X-33.70994 Y13.75562
G01 X-33.65365 Y13.77269
G01 X-33.55751 Y13.79182
G01 X-33.45000 Y13.80000
G01 X-31.52226 Y13.80000
G01 X-31.40687 Y13.92908
G01 X-31.32917 Y13.99901
G01 X-31.19389 Y14.09730
G01 X-31.10337 Y14.14958
G01 X-30.95056 Y14.21760
G01 X-30.85114 Y14.24991
G01 X-30.68757 Y14.28468
G01 X-30.58361 Y14.29560
G01 X-30.41637 Y14.29560
G01 X-30.34340 Y14.28793
G01 X-29.87512 Y14.75618
G01 X-30.11117 Y14.68473
G01 X-30.32209 Y14.63383
G01 X-30.51721 Y14.59796
G01 X-30.56603 Y14.59380
G01 X-30.56621 Y14.58526
G01 X-30.56603 Y14.59380
G01 X-30.61475 Y14.59923
G01 X-32.01175 Y14.89913
G01 X-33.35150 Y14.34419
G01 X-33.46618 Y14.29339
G01 X-33.59247 Y14.23205
G01 X-34.38004 Y13.82260
G01 X-34.52287 Y13.75321
G01 X-34.65431 Y13.69497
G01 X-35.75748 Y13.23802
G01 X-36.23145 Y12.76406
G01 X-35.75748 Y13.23802
G01 X-36.22497 Y13.04440
G01 X-36.23493 Y12.69322
G01 X-36.27270 Y12.29921
G01 X-36.28631 Y12.20236
G01 X-36.34730 Y11.89830
G01 X-36.36714 Y11.82025
G01 X-36.43734 Y11.58763
G01 X-36.46335 Y11.52817
G01 X-36.45223 Y11.52190
G01 X-36.46335 Y11.52817
G01 X-36.49241 Y11.48890
G01 X-36.54793 Y11.42751
G01 X-36.69657 Y11.27343
G01 X-36.83147 Y11.12373
G01 X-36.69657 Y11.27343
G01 X-36.54793 Y11.42751
G01 X-36.49241 Y11.48890
G01 X-36.46335 Y11.52817
G01 X-36.44128 Y11.57564
G01 X-36.36714 Y11.82025
G01 X-36.33638 Y11.95205
G01 X-34.54519 Y13.74323
G01 X-34.38004 Y13.82260
G01 X-33.59247 Y14.23205
G01 X-33.45147 Y14.29990
G01 X-31.73806 Y14.29997
G01 X-31.72800 Y14.27147
G01 X-31.73806 Y14.29997
G01 X-31.62308 Y14.40350
G01 X-31.48777 Y14.50183
G01 X-31.30672 Y14.60635
G01 X-31.15394 Y14.67437
G01 X-31.07886 Y14.69875
G01 X-31.84185 Y14.86256
G01 X-31.92590 Y14.79997
G01 X-31.91746 Y14.77457
G01 X-31.92590 Y14.79997
G01 X-32.25114 Y14.79997
G01 X-33.67151 Y14.74927
G01 X-33.81990 Y14.67734
G01 X-34.60747 Y14.26787
G01 X-34.74839 Y14.20005
G01 X-37.25210 Y14.20000
G01 X-37.27770 Y14.25179
G01 X-37.25210 Y14.20000
G01 X-37.35459 Y14.05893
G01 X-37.38956 Y14.02009
G01 X-37.54493 Y13.88019
G01 X-37.58720 Y13.84948
G01 X-37.76825 Y13.74496
G01 X-37.81600 Y13.72370
G01 X-37.92344 Y13.68877
G01 X-37.94857 Y13.69078
G01 X-37.41397 Y13.65156
G01 X-37.07740 Y13.63205
G01 X-37.00496 Y13.70000
G01 X-37.01885 Y13.73508
G01 X-37.00496 Y13.70000
G01 X-35.94872 Y13.70000
G01 X-34.74839 Y14.20005
G01 X-36.47496 Y13.48202
G01 X-36.77011 Y13.60427
G01 X-36.81207 Y13.61747
G01 X-36.81065 Y13.62367
G01 X-36.81207 Y13.61747
G01 X-36.85568 Y13.62309
G01 X-37.14940 Y13.63495
G01 X-38.07297 Y13.69906
G01 X-38.41471 Y13.81300
G01 X-38.64209 Y13.87320
G01 X-38.89339 Y13.92334
G01 X-38.94491 Y13.97485
G01 X-39.08158 Y14.12636
G04 P0 ( dwell for no time -- G64 should not smooth over this point )
G00 Z1.00000 ( retract )

G00 X-42.94756 Y16.17129 ( rapid move to begin. )
G01 F20.00000
( Mill infeed pass 1/1 )
G01 Z-0.30000
G04 P0 ( dwell for no time -- G64 should not smooth over this point )
G01 F30.00000
G01 X-42.94756 Y16.17129
G01 X-42.94993 Y14.87363
G01 X-42.94177 Y14.77073
G01 X-42.92006 Y14.66850
G01 X-42.90390 Y14.61879
G01 X-42.86138 Y14.52331
G01 X-42.83525 Y14.47805
G01 X-42.77380 Y14.39347
G01 X-42.73885 Y14.35463
G01 X-42.66115 Y14.28468
G01 X-42.62379 Y14.25753
G01 X-42.94993 Y13.93139
G01 X-42.96009 Y13.90688
G01 X-42.94993 Y13.93139
G01 X-42.94993 Y16.12613
G01 X-42.94756 Y16.17129
G01 X-42.93479 Y16.19816
G04 P0 ( dwell for no time -- G64 should not smooth over this point )
G00 Z1.00000 ( retract )

G00 X-36.35870 Y23.14999 ( rapid move to begin. )
G01 F20.00000
( Mill infeed pass 1/1 )
G01 Z-0.30000
G04 P0 ( dwell for no time -- G64 should not smooth over this point )
G01 F30.00000
G01 X-36.35870 Y23.14999
G01 X-34.28134 Y23.14999
G01 X-34.25683 Y23.13983
G01 X-34.28134 Y23.14999
G01 X-34.74329 Y23.61192
G01 X-35.15055 Y23.78060
G01 X-35.29973 Y23.84943
G01 X-35.26135 Y24.02937
G01 X-35.21326 Y24.18862
G01 X-35.18599 Y24.26320
G01 X-35.17268 Y24.19629
G01 X-35.15561 Y24.14001
G01 X-35.11809 Y24.04946
G01 X-35.09038 Y23.99759
G01 X-35.03592 Y23.91611
G01 X-34.96567 Y23.83427
G01 X-34.74329 Y23.61192
G01 X-34.96567 Y23.83427
G01 X-35.03592 Y23.91611
G01 X-35.09038 Y23.99759
G01 X-35.11809 Y24.04946
G01 X-35.15561 Y24.14001
G01 X-35.17268 Y24.19629
G01 X-35.19180 Y24.29243
G01 X-35.19998 Y24.39998
G01 X-35.19996 Y24.88580
G01 X-35.18979 Y24.91031
G01 X-35.19996 Y24.88580
G01 X-35.65865 Y24.42708
G01 X-35.69010 Y24.33914
G01 X-35.74552 Y24.15670
G01 X-35.80122 Y23.89050
G01 X-36.23208 Y23.71420
G01 X-36.32149 Y23.68222
G01 X-36.49027 Y23.63246
G01 X-36.43000 Y23.67272
G01 X-36.31789 Y23.76787
G01 X-35.65865 Y24.42708
G01 X-36.35423 Y23.73490
G01 X-36.43000 Y23.67272
G01 X-36.51151 Y23.61827
G01 X-36.59795 Y23.57206
G01 X-36.68850 Y23.53455
G01 X-36.78230 Y23.50610
G01 X-36.87844 Y23.48697
G01 X-37.02500 Y23.47496
G01 X-39.03777 Y23.47496
G01 X-39.05334 Y23.48512
G01 X-39.03777 Y23.47496
G01 X-39.02243 Y23.44052
G01 X-38.99101 Y23.30844
G01 X-38.98499 Y23.22500
G01 X-38.98499 Y23.14999
G01 X-36.35870 Y23.14999
G01 X-36.17021 Y23.20562
G01 X-36.05479 Y23.24628
G01 X-35.58941 Y23.43706
G01 X-35.50514 Y23.39274
G01 X-35.35045 Y23.32231
G01 X-34.93463 Y23.14999
G04 P0 ( dwell for no time -- G64 should not smooth over this point )
G00 Z1.00000 ( retract )

G00 X-31.29996 Y28.51539 ( rapid move to begin. )
G01 F20.00000
( Mill infeed pass 1/1 )
G01 Z-0.30000
G04 P0 ( dwell for no time -- G64 should not smooth over this point )
G01 F30.00000
G01 X-31.29996 Y28.51539
G01 X-31.09834 Y28.02875
G01 X-31.00690 Y27.83322
G01 X-31.31523 Y27.66093
G01 X-31.32727 Y27.60048
G01 X-31.34434 Y27.54419
G01 X-31.38185 Y27.45364
G01 X-31.40956 Y27.40177
G01 X-31.48424 Y27.29560
G01 X-31.40956 Y27.40177
G01 X-31.38185 Y27.45364
G01 X-31.34434 Y27.54419
G01 X-31.32727 Y27.60048
G01 X-31.31523 Y27.66093
G01 X-31.30238 Y27.75514
G01 X-31.29994 Y29.27637
G01 X-31.31010 Y29.33990
G01 X-31.29994 Y29.27637
G01 X-31.26809 Y29.19946
G01 X-31.24037 Y29.14759
G01 X-31.18592 Y29.06611
G01 X-31.11566 Y28.98427
G01 X-30.83801 Y28.70665
G01 X-30.64002 Y28.22867
G01 X-30.57688 Y28.08971
G01 X-30.49026 Y27.92506
G01 X-30.45341 Y27.86347
G01 X-30.43479 Y27.81879
G01 X-30.42437 Y27.77386
G01 X-30.34878 Y27.74881
G01 X-30.15653 Y27.71056
G01 X-30.09798 Y27.70480
G01 X-29.99999 Y27.70000
G01 X-29.23804 Y27.70000
G01 X-29.22765 Y27.69062
G01 X-28.76047 Y27.94025
G01 X-29.22765 Y27.69062
G01 X-29.25646 Y27.65555
G01 X-29.28615 Y27.59997
G01 X-29.25295 Y27.53904
G01 X-29.28615 Y27.59997
G01 X-30.46519 Y27.59997
G01 X-30.44683 Y27.63004
G01 X-30.43822 Y27.62585
G01 X-30.44683 Y27.63004
G01 X-30.43001 Y27.67543
G01 X-30.42227 Y27.72324
G01 X-30.41272 Y27.72263
G01 X-30.42227 Y27.72324
G01 X-30.42437 Y27.77386
G01 X-30.42227 Y27.72324
G01 X-30.43001 Y27.67543
G01 X-30.44683 Y27.63004
G01 X-30.47208 Y27.58872
G01 X-30.50482 Y27.55306
G01 X-30.54383 Y27.52438
G01 X-30.54149 Y27.52126
G01 X-30.54383 Y27.52438
G01 X-30.74424 Y27.40729
G01 X-31.07083 Y27.22456
G01 X-31.14881 Y27.24991
G01 X-31.31241 Y27.28468
G01 X-31.41637 Y27.29560
G01 X-31.48424 Y27.29560
G01 X-31.50573 Y27.28544
G01 X-31.48424 Y27.29560
G01 X-31.41637 Y27.29560
G01 X-31.31241 Y27.28468
G01 X-31.14881 Y27.24991
G01 X-31.04942 Y27.21760
G01 X-30.89661 Y27.14958
G01 X-30.81071 Y27.10000
G01 X-28.92499 Y27.10000
G01 X-28.91539 Y27.19753
G01 X-28.88694 Y27.29133
G01 X-28.84073 Y27.37777
G01 X-28.77853 Y27.45354
G01 X-28.70276 Y27.51572
G01 X-28.61633 Y27.56192
G01 X-28.52252 Y27.59037
G01 X-28.42499 Y27.60000
G01 X-28.29999 Y27.60000
G01 X-28.29999 Y27.73919
G01 X-28.35115 Y27.75006
G01 X-28.45057 Y27.78237
G01 X-28.60335 Y27.85039
G01 X-28.69387 Y27.90266
G01 X-28.82918 Y28.00096
G01 X-28.90688 Y28.07091
G01 X-29.02224 Y28.19997
G01 X-29.99999 Y28.19997
G01 X-30.10751 Y28.20815
G01 X-30.20365 Y28.22727
G01 X-30.25993 Y28.24434
G01 X-30.35049 Y28.28186
G01 X-30.40235 Y28.30957
G01 X-30.48384 Y28.36403
G01 X-30.56567 Y28.43428
G01 X-30.83801 Y28.70665
G04 P0 ( dwell for no time -- G64 should not smooth over this point )
G00 Z1.00000 ( retract )

G00 X-30.34165 Y32.87362 ( rapid move to begin. )
G01 F20.00000
( Mill infeed pass 1/1 )
G01 Z-0.30000
G04 P0 ( dwell for no time -- G64 should not smooth over this point )
G01 F30.00000
G01 X-30.34165 Y32.87362
G01 X-30.03438 Y33.00090
G01 X-29.80878 Y33.07819
G01 X-29.65907 Y32.92688
G01 X-29.40558 Y32.64347
G01 X-29.24998 Y32.26196
G01 X-29.24998 Y30.46004
G01 X-29.25277 Y30.45976
G01 X-29.24998 Y30.46004
G01 X-29.24437 Y30.40743
G01 X-29.22783 Y30.35717
G01 X-29.23377 Y30.35485
G01 X-29.22783 Y30.35717
G01 X-29.20106 Y30.31152
G01 X-29.20601 Y30.30746
G01 X-29.20106 Y30.31152
G01 X-29.16530 Y30.27253
G01 X-29.12214 Y30.24193
G01 X-29.12555 Y30.23652
G01 X-29.12214 Y30.24193
G01 X-29.07378 Y30.22031
G01 X-28.68135 Y30.10456
G01 X-28.60335 Y30.14957
G01 X-28.45057 Y30.21759
G01 X-28.35115 Y30.24990
G01 X-28.28315 Y30.26435
G01 X-28.35115 Y30.24990
G01 X-28.45057 Y30.21759
G01 X-28.60335 Y30.14957
G01 X-28.69387 Y30.09732
G01 X-28.82918 Y29.99900
G01 X-28.90688 Y29.92907
G01 X-29.02227 Y29.79999
G01 X-29.66860 Y29.79999
G01 X-29.74995 Y29.88135
G01 X-29.74995 Y30.24307
G01 X-29.68882 Y30.28470
G01 X-29.61114 Y30.35463
G01 X-29.57617 Y30.39349
G01 X-29.51472 Y30.47804
G01 X-29.48859 Y30.52331
G01 X-29.44607 Y30.61879
G01 X-29.42991 Y30.66849
G01 X-29.40820 Y30.77075
G01 X-29.40274 Y30.82272
G01 X-29.39999 Y30.87500
G01 X-29.39999 Y32.12498
G01 X-29.40274 Y32.17725
G01 X-29.40820 Y32.22922
G01 X-29.42991 Y32.33148
G01 X-29.44607 Y32.38119
G01 X-29.48859 Y32.47667
G01 X-29.51472 Y32.52193
G01 X-29.57617 Y32.60649
G01 X-29.61114 Y32.64535
G01 X-29.68882 Y32.71528
G01 X-29.73111 Y32.74601
G01 X-29.82161 Y32.79826
G01 X-29.86936 Y32.81952
G01 X-29.96877 Y32.85183
G01 X-30.01990 Y32.86270
G01 X-30.12387 Y32.87362
G01 X-30.97611 Y32.87362
G01 X-30.99712 Y32.87141
G01 X-31.02453 Y32.85838
G01 X-30.99712 Y32.87141
G01 X-29.76108 Y34.10750
G01 X-30.53306 Y33.33552
G01 X-30.20700 Y33.47019
G01 X-29.94078 Y33.56054
G01 X-29.86420 Y33.82836
G01 X-29.76108 Y34.10750
G01 X-29.68427 Y34.18429
G01 X-29.61401 Y34.26612
G01 X-29.55955 Y34.34761
G01 X-29.53184 Y34.39947
G01 X-29.49433 Y34.49002
G01 X-29.47726 Y34.54631
G01 X-29.45737 Y34.65022
G01 X-29.46639 Y34.66970
G01 X-29.45864 Y34.65299
G01 X-29.40662 Y34.62078
G01 X-29.32059 Y34.58746
G01 X-29.21490 Y34.55739
G01 X-29.17515 Y34.54999
G01 X-29.15991 Y34.55741
G01 X-29.17515 Y34.54999
G01 X-29.20634 Y34.47989
G01 X-29.25803 Y34.32084
G01 X-29.27977 Y34.21858
G01 X-29.29725 Y34.05226
G01 X-29.29501 Y33.92645
G01 X-29.39034 Y33.66767
G01 X-29.45707 Y33.43356
G01 X-29.29037 Y33.26463
G01 X-29.08993 Y33.04395
G01 X-28.99286 Y32.92828
G01 X-28.98640 Y32.93242
G01 X-28.99286 Y32.92828
G01 X-28.95610 Y32.86564
G01 X-28.76758 Y32.40181
G01 X-28.75443 Y32.35660
G01 X-28.74482 Y32.35853
G01 X-28.75443 Y32.35660
G01 X-28.74998 Y32.30971
G01 X-28.74998 Y30.64591
G01 X-28.53835 Y30.58384
G01 X-28.51140 Y30.52331
G01 X-28.48526 Y30.47804
G01 X-28.42382 Y30.39349
G01 X-28.38884 Y30.35463
G01 X-28.31117 Y30.28470
G01 X-28.28315 Y30.26435
G01 X-28.25775 Y30.25922
G01 X-28.28315 Y30.26435
G01 X-28.31117 Y30.28470
G01 X-28.38884 Y30.35463
G01 X-28.42382 Y30.39349
G01 X-28.48526 Y30.47804
G01 X-28.51140 Y30.52331
G01 X-28.55389 Y30.61879
G01 X-28.57005 Y30.66849
G01 X-28.59179 Y30.77075
G01 X-28.59999 Y30.87500
G01 X-28.59999 Y32.12498
G01 X-28.59179 Y32.22922
G01 X-28.57005 Y32.33148
G01 X-28.54117 Y32.40979
G01 X-28.63591 Y32.51609
G01 X-28.69037 Y32.59760
G01 X-28.71810 Y32.64946
G01 X-28.75562 Y32.74002
G01 X-28.77269 Y32.79630
G01 X-28.79181 Y32.89244
G01 X-28.79895 Y32.97900
G01 X-28.82918 Y33.00098
G01 X-28.90688 Y33.07090
G01 X-29.01876 Y33.19518
G01 X-29.08021 Y33.27977
G01 X-29.16385 Y33.42460
G01 X-29.20634 Y33.52010
G01 X-29.25803 Y33.67916
G01 X-29.27977 Y33.78139
G01 X-29.29501 Y33.92645
G04 P0 ( dwell for no time -- G64 should not smooth over this point )
G00 Z1.00000 ( retract )

G00 X-27.04996 Y34.88113 ( rapid move to begin. )
G01 F20.00000
( Mill infeed pass 1/1 )
G01 Z-0.30000
G04 P0 ( dwell for no time -- G64 should not smooth over this point )
G01 F30.00000
G01 X-27.04996 Y34.88113
G01 X-27.07195 Y34.90559
G01 X-27.09057 Y34.90864
G01 X-27.07462 Y34.90603
G01 X-27.04932 Y34.92035
G01 X-27.03980 Y34.93834
G01 X-27.04996 Y34.91923
G01 X-27.04996 Y34.88113
G01 X-27.03980 Y34.85467
G04 P0 ( dwell for no time -- G64 should not smooth over this point )
G00 Z1.00000 ( retract )

G00 X-26.78397 Y33.54972 ( rapid move to begin. )
G01 F20.00000
( Mill infeed pass 1/1 )
G01 Z-0.30000
G04 P0 ( dwell for no time -- G64 should not smooth over this point )
G01 F30.00000
G01 X-26.78397 Y33.54972
G01 X-26.77279 Y33.50311
G01 X-26.87086 Y33.27773
G01 X-26.88613 Y33.22665
G01 X-26.89713 Y33.22866
G01 X-26.88613 Y33.22665
G01 X-26.89022 Y33.17352
G01 X-26.88295 Y33.12074
G01 X-26.88631 Y33.12025
G01 X-26.88295 Y33.12074
G01 X-26.84206 Y32.96801
G01 X-26.81404 Y32.93387
G01 X-26.75959 Y32.85236
G01 X-26.73347 Y32.80354
G01 X-26.63109 Y32.74601
G01 X-26.58882 Y32.71528
G01 X-26.51110 Y32.64535
G01 X-26.47617 Y32.60649
G01 X-26.41470 Y32.52193
G01 X-26.38859 Y32.47667
G01 X-26.37495 Y32.44604
G01 X-26.36479 Y32.39841
G01 X-26.37495 Y32.44604
G01 X-26.37495 Y32.95000
G01 X-26.36677 Y33.05424
G01 X-26.35827 Y33.09432
G01 X-26.37681 Y33.16188
G01 X-26.28156 Y33.37758
G01 X-26.26497 Y33.42940
G01 X-26.25999 Y33.48360
G01 X-26.26688 Y33.53758
G01 X-26.29781 Y33.66646
G01 X-26.26688 Y33.53758
G01 X-26.25999 Y33.48360
G01 X-26.24960 Y33.48360
G01 X-26.25999 Y33.48360
G01 X-26.26497 Y33.42940
G01 X-26.28156 Y33.37758
G01 X-26.27876 Y33.37669
G01 X-26.28156 Y33.37758
G01 X-26.37681 Y33.16188
G01 X-26.35827 Y33.09432
G01 X-26.34506 Y33.15647
G01 X-26.32888 Y33.20618
G01 X-26.28638 Y33.30166
G01 X-26.26025 Y33.34692
G01 X-26.19880 Y33.43151
G01 X-26.13114 Y33.49978
G01 X-26.70498 Y34.07362
G01 X-26.71806 Y34.10110
G01 X-26.70498 Y34.07362
G01 X-26.70272 Y34.05226
G01 X-26.70272 Y33.94773
G01 X-26.72022 Y33.78139
G01 X-26.74193 Y33.67916
G01 X-26.79362 Y33.52010
G01 X-26.83614 Y33.42460
G01 X-26.91976 Y33.27977
G01 X-26.98120 Y33.19518
G01 X-27.02034 Y33.15172
G01 X-26.88430 Y33.01568
G01 X-26.84206 Y32.96801
G04 P0 ( dwell for no time -- G64 should not smooth over this point )
G00 Z1.00000 ( retract )

G00 X-25.15563 Y34.77265 ( rapid move to begin. )
G01 F20.00000
( Mill infeed pass 1/1 )
G01 Z-0.30000
G04 P0 ( dwell for no time -- G64 should not smooth over this point )
G01 F30.00000
G01 X-25.15563 Y34.77265
G01 X-25.17838 Y34.80976
G01 X-25.20366 Y34.88756
G01 X-25.22540 Y34.98982
G01 X-25.24724 Y35.19772
G01 X-25.24724 Y35.30224
G01 X-25.22540 Y35.51017
G01 X-25.20366 Y35.61240
G01 X-25.13907 Y35.81123
G01 X-25.12441 Y35.84412
G01 X-25.10925 Y35.85332
G01 X-25.12748 Y35.84227
G01 X-25.21491 Y35.85860
G01 X-25.32060 Y35.88868
G01 X-25.40663 Y35.92200
G01 X-25.44552 Y35.94611
G01 X-25.46010 Y35.96932
G01 X-25.44991 Y35.95309
G01 X-25.44991 Y35.08134
G01 X-25.17838 Y34.80976
G04 P0 ( dwell for no time -- G64 should not smooth over this point )
G00 Z1.00000 ( retract )

G00 X-17.28084 Y40.89949 ( rapid move to begin. )
G01 F20.00000
( Mill infeed pass 1/1 )
G01 Z-0.30000
G04 P0 ( dwell for no time -- G64 should not smooth over this point )
G01 F30.00000
G01 X-17.28084 Y40.89949
G01 X-17.98160 Y41.60022
G01 X-17.98665 Y41.61965
G01 X-17.98160 Y41.60022
G01 X-18.00078 Y41.53289
G01 X-18.03410 Y41.44686
G01 X-18.08269 Y41.36840
G01 X-18.14891 Y41.28071
G01 X-18.15714 Y41.27167
G01 X-18.17459 Y41.26814
G01 X-18.15742 Y41.27160
G01 X-18.04662 Y41.22229
G01 X-17.95610 Y41.17002
G01 X-17.78696 Y41.04714
G01 X-17.70929 Y40.97718
G01 X-17.63931 Y40.89949
G01 X-17.28084 Y40.89949
G01 X-17.25633 Y40.88933
G04 P0 ( dwell for no time -- G64 should not smooth over this point )
G00 Z1.00000 ( retract )

G00 X-18.52496 Y48.49551 ( rapid move to begin. )
G01 F20.00000
( Mill infeed pass 1/1 )
G01 Z-0.30000
G04 P0 ( dwell for no time -- G64 should not smooth over this point )
G01 F30.00000
G01 X-18.52496 Y48.49551
G01 X-18.52498 Y48.27499
G01 X-18.51538 Y48.17745
G01 X-18.48693 Y48.08365
G01 X-18.44073 Y47.99721
G01 X-18.37855 Y47.92144
G01 X-18.30278 Y47.85926
G01 X-18.28277 Y47.84857
G01 X-18.36080 Y47.77049
G01 X-18.36514 Y47.75180
G01 X-18.35892 Y47.77872
G01 X-18.37837 Y47.82315
G01 X-18.43154 Y47.91931
G01 X-18.48345 Y47.99564
G01 X-18.54853 Y48.06112
G01 X-18.63286 Y48.13158
G01 X-18.70883 Y48.18395
G01 X-18.73611 Y48.19609
G01 X-18.75818 Y48.19223
G01 X-18.74195 Y48.19508
G01 X-18.65574 Y48.29081
G01 X-18.59430 Y48.37537
G01 X-18.52496 Y48.49551
G01 X-18.51480 Y48.53343
G04 P0 ( dwell for no time -- G64 should not smooth over this point )
G00 Z1.00000 ( retract )

G00 X-18.90527 Y50.19962 ( rapid move to begin. )
G01 F20.00000
( Mill infeed pass 1/1 )
G01 Z-0.30000
G04 P0 ( dwell for no time -- G64 should not smooth over this point )
G01 F30.00000
G01 X-18.90527 Y50.19962
G01 X-18.91497 Y50.20668
G01 X-18.91497 Y50.45359
G01 X-18.86859 Y50.49998
G01 X-16.13136 Y50.49998
G01 X-15.86034 Y50.22898
G01 X-15.84381 Y50.22682
G01 X-15.86476 Y50.22738
G01 X-15.88592 Y50.21047
G01 X-15.88953 Y50.19441
G01 X-15.88613 Y50.20950
G01 X-15.90926 Y50.25278
G01 X-15.97144 Y50.32855
G01 X-16.04721 Y50.39073
G01 X-16.13365 Y50.43693
G01 X-16.22745 Y50.46538
G01 X-16.32499 Y50.47498
G01 X-18.02498 Y50.47498
G01 X-18.12254 Y50.46538
G01 X-18.21632 Y50.43693
G01 X-18.30278 Y50.39073
G01 X-18.37855 Y50.32855
G01 X-18.44073 Y50.25278
G01 X-18.48693 Y50.16632
G01 X-18.51538 Y50.07254
G01 X-18.52498 Y49.97498
G01 X-18.52496 Y49.75449
G01 X-18.51480 Y49.71656
G01 X-18.52496 Y49.75449
G01 X-18.59430 Y49.87460
G01 X-18.65574 Y49.95916
G01 X-18.77466 Y50.09124
G01 X-18.85234 Y50.16116
G01 X-18.90527 Y50.19962
G01 X-18.91281 Y50.23836
G01 X-18.91497 Y50.30996
G01 X-18.91093 Y50.34267
G01 X-18.89376 Y50.39225
G01 X-18.89872 Y50.39431
G01 X-18.89376 Y50.39225
G01 X-18.86664 Y50.43716
G01 X-18.87116 Y50.44092
G01 X-18.86664 Y50.43716
G01 X-18.83075 Y50.47541
G01 X-18.79531 Y50.49998
G04 P0 ( dwell for no time -- G64 should not smooth over this point )
G00 Z1.00000 ( retract )

G00 X-20.05899 Y51.57231 ( rapid move to begin. )
G01 F20.00000
( Mill infeed pass 1/1 )
G01 Z-0.30000
G04 P0 ( dwell for no time -- G64 should not smooth over this point )
G01 F30.00000
G01 X-20.05899 Y51.57231
G01 X-19.93128 Y51.69997
G01 X-20.05899 Y51.57231
G01 X-20.06338 Y51.55359
G01 X-20.05678 Y51.58184
G01 X-20.08081 Y51.63668
G01 X-20.11581 Y51.69995
G01 X-20.13303 Y51.71011
G01 X-20.11581 Y51.69995
G01 X-19.93128 Y51.69997
G01 X-19.90674 Y51.71013
G04 P0 ( dwell for no time -- G64 should not smooth over this point )
G00 Z1.00000 ( retract )

G00 X-14.39774 Y51.69997 ( rapid move to begin. )
G01 F20.00000
( Mill infeed pass 1/1 )
G01 Z-0.30000
G04 P0 ( dwell for no time -- G64 should not smooth over this point )
G01 F30.00000
G01 X-14.39774 Y51.69997
G01 X-14.48885 Y51.62032
G01 X-14.54671 Y51.54996
G01 X-14.91859 Y51.54996
G01 X-15.06858 Y51.69995
G01 X-15.09311 Y51.71011
G01 X-15.06858 Y51.69995
G01 X-14.39774 Y51.69997
G01 X-14.36644 Y51.71013
G04 P0 ( dwell for no time -- G64 should not smooth over this point )
G00 Z1.00000 ( retract )

G00 X-11.97277 Y49.80755 ( rapid move to begin. )
G01 F20.00000
( Mill infeed pass 1/1 )
G01 Z-0.30000
G04 P0 ( dwell for no time -- G64 should not smooth over this point )
G01 F30.00000
G01 X-11.97277 Y49.80755
G01 X-11.97498 Y51.14999
G01 X-11.97224 Y51.20223
G01 X-11.96678 Y51.25420
G01 X-11.94506 Y51.35644
G01 X-11.92891 Y51.40615
G01 X-11.88639 Y51.50167
G01 X-11.86025 Y51.54694
G01 X-11.78179 Y51.65042
G01 X-11.83135 Y51.69997
G01 X-12.03863 Y51.69997
G01 X-11.97447 Y51.65397
G01 X-11.94204 Y51.61643
G01 X-11.92639 Y51.62685
G01 X-11.94204 Y51.61643
G01 X-11.91763 Y51.57320
G01 X-11.90226 Y51.52606
G01 X-11.89670 Y51.47851
G01 X-11.92891 Y51.40615
G01 X-11.89670 Y51.47851
G01 X-11.90226 Y51.52606
G01 X-11.91763 Y51.57320
G01 X-11.94204 Y51.61643
G01 X-11.97447 Y51.65397
G01 X-12.03863 Y51.69997
G01 X-12.60213 Y51.69995
G01 X-12.63338 Y51.71011
G01 X-12.60213 Y51.69995
G01 X-12.58882 Y51.69027
G01 X-12.51113 Y51.62032
G01 X-12.47615 Y51.58151
G01 X-12.41473 Y51.49693
G01 X-12.38860 Y51.45166
G01 X-12.34608 Y51.35618
G01 X-12.32992 Y51.30648
G01 X-12.30818 Y51.20424
G01 X-12.29998 Y51.09997
G01 X-12.29998 Y50.39998
G01 X-12.30818 Y50.29573
G01 X-12.32992 Y50.19350
G01 X-12.34608 Y50.14379
G01 X-12.38860 Y50.04831
G01 X-12.41473 Y50.00305
G01 X-12.47615 Y49.91847
G01 X-12.51113 Y49.87963
G01 X-12.58882 Y49.80970
G01 X-12.63109 Y49.77897
G01 X-12.68128 Y49.74999
G01 X-12.70150 Y49.74999
G01 X-12.68128 Y49.74999
G01 X-12.63109 Y49.72101
G01 X-12.58882 Y49.69027
G01 X-12.51113 Y49.62035
G01 X-12.47615 Y49.58151
G01 X-12.41473 Y49.49693
G01 X-12.38860 Y49.45167
G01 X-12.34608 Y49.35619
G01 X-12.32992 Y49.30648
G01 X-12.30818 Y49.20422
G01 X-12.30272 Y49.15225
G01 X-12.29998 Y48.68136
G01 X-11.87999 Y48.26135
G01 X-11.87999 Y48.29998
G01 X-11.87039 Y48.39754
G01 X-11.84194 Y48.49132
G01 X-11.79573 Y48.57778
G01 X-11.73353 Y48.65355
G01 X-11.65776 Y48.71573
G01 X-11.61247 Y48.73993
G01 X-11.61247 Y49.21082
G01 X-11.68616 Y49.25969
G01 X-11.76383 Y49.32964
G01 X-11.79881 Y49.36848
G01 X-11.86025 Y49.45304
G01 X-11.88639 Y49.49830
G01 X-11.92891 Y49.59380
G01 X-11.94506 Y49.64351
G01 X-11.96678 Y49.74575
G01 X-11.97277 Y49.80755
G01 X-12.00843 Y49.67729
G01 X-12.02759 Y49.63582
G01 X-12.05205 Y49.59728
G01 X-12.04534 Y49.59210
G01 X-12.05205 Y49.59728
G01 X-12.08308 Y49.56386
G01 X-12.11969 Y49.53663
G01 X-12.11529 Y49.52939
G01 X-12.11969 Y49.53663
G01 X-12.16063 Y49.51649
G01 X-12.20457 Y49.50414
G01 X-12.20313 Y49.49670
G01 X-12.20457 Y49.50414
G01 X-12.24999 Y49.49998
G01 X-12.41694 Y49.49998
G04 P0 ( dwell for no time -- G64 should not smooth over this point )
G00 Z1.00000 ( retract )

G00 X-11.14654 Y45.59998 ( rapid move to begin. )
G01 F20.00000
( Mill infeed pass 1/1 )
G01 Z-0.30000
G04 P0 ( dwell for no time -- G64 should not smooth over this point )
G01 F30.00000
G01 X-11.14654 Y45.59998
G01 X-10.17999 Y45.59998
G01 X-10.08245 Y45.60959
G01 X-9.98865 Y45.63806
G01 X-9.96810 Y45.64903
G01 X-9.96386 Y45.66338
G01 X-9.96795 Y45.64944
G01 X-9.90567 Y45.55051
G01 X-9.84174 Y45.48403
G01 X-9.75858 Y45.41220
G01 X-9.68342 Y45.35856
G01 X-9.59968 Y45.31965
G01 X-9.49617 Y45.28274
G01 X-9.36757 Y45.25523
G01 X-9.32058 Y45.25152
G01 X-5.74998 Y45.24997
G01 X-5.74998 Y44.72678
G01 X-5.73491 Y44.59996
G01 X-11.39998 Y44.59999
G01 X-11.48832 Y44.59127
G01 X-11.49764 Y44.57977
G01 X-11.48832 Y44.59127
G01 X-11.39998 Y44.59999
G01 X-11.14671 Y44.59999
G01 X-10.89665 Y44.84997
G01 X-10.20699 Y44.84997
G01 X-10.12655 Y44.82112
G01 X-9.76704 Y44.72280
G01 X-9.64065 Y44.70296
G01 X-9.40328 Y44.67736
G01 X-6.17852 Y44.67499
G01 X-6.10352 Y44.59999
G01 X-5.73491 Y44.59996
G01 X-5.72270 Y44.58980
G01 X-5.73491 Y44.59996
G01 X-5.74998 Y44.72678
G01 X-5.74998 Y44.95353
G01 X-5.89818 Y45.10176
G01 X-5.93608 Y45.13285
G01 X-5.92887 Y45.14515
G01 X-5.93608 Y45.13285
G01 X-5.97931 Y45.15594
G01 X-6.02620 Y45.17017
G01 X-6.07497 Y45.17497
G01 X-6.07416 Y45.18038
G01 X-6.07497 Y45.17497
G01 X-9.27880 Y45.17497
G01 X-9.37527 Y45.17758
G01 X-9.57971 Y45.19930
G01 X-9.66986 Y45.21490
G01 X-9.83920 Y45.26105
G01 X-9.77892 Y45.42978
G01 X-9.84174 Y45.48403
G01 X-9.90567 Y45.55051
G01 X-9.96795 Y45.64944
G01 X-9.98865 Y45.63806
G01 X-10.08245 Y45.60959
G01 X-10.17999 Y45.59998
G01 X-10.24905 Y45.59998
G01 X-10.33836 Y45.34997
G01 X-10.89660 Y45.34997
G01 X-11.14654 Y45.59998
G01 X-11.37999 Y45.59998
G01 X-11.47752 Y45.60959
G01 X-11.49624 Y45.61528
G01 X-11.51016 Y45.63146
G01 X-11.50000 Y45.61962
G01 X-11.50010 Y45.24647
G01 X-11.50033 Y44.57647
G01 X-11.51049 Y44.56392
G01 X-11.50033 Y44.57647
G01 X-11.50021 Y44.95358
G01 X-11.35372 Y45.10004
G01 X-11.50010 Y45.24647
G04 P0 ( dwell for no time -- G64 should not smooth over this point )
G00 Z1.00000 ( retract )

G00 X-11.89998 Y37.78136 ( rapid move to begin. )
G01 F20.00000
( Mill infeed pass 1/1 )
G01 Z-0.30000
G04 P0 ( dwell for no time -- G64 should not smooth over this point )
G01 F30.00000
G01 X-11.89998 Y37.78136
G01 X-11.89998 Y38.05956
G01 X-11.88982 Y38.07684
G01 X-11.89998 Y38.05956
G01 X-11.96114 Y38.02550
G01 X-12.04559 Y37.98824
G01 X-12.09248 Y37.97719
G01 X-12.11618 Y37.98319
G01 X-12.09693 Y37.97831
G01 X-11.89998 Y37.78136
G01 X-11.88982 Y37.75682
G04 P0 ( dwell for no time -- G64 should not smooth over this point )
G00 Z1.00000 ( retract )

G00 X-7.80125 Y36.55154 ( rapid move to begin. )
G01 F20.00000
( Mill infeed pass 1/1 )
G01 Z-0.30000
G04 P0 ( dwell for no time -- G64 should not smooth over this point )
G01 F30.00000
G01 X-7.80125 Y36.55154
G01 X-7.79841 Y36.55548
G04 P0 ( dwell for no time -- G64 should not smooth over this point )
G00 Z1.00000 ( retract )

G00 X-4.84998 Y35.63468 ( rapid move to begin. )
G01 F20.00000
( Mill infeed pass 1/1 )
G01 Z-0.30000
G04 P0 ( dwell for no time -- G64 should not smooth over this point )
G01 F30.00000
G01 X-4.84998 Y35.63468
G01 X-4.99996 Y35.99675
G01 X-4.99996 Y36.60374
G01 X-4.94015 Y36.65809
G01 X-4.90271 Y36.70087
G01 X-4.89831 Y36.69759
G01 X-4.90271 Y36.70087
G01 X-4.87589 Y36.75098
G01 X-4.86849 Y36.74854
G01 X-4.87589 Y36.75098
G01 X-4.86108 Y36.80584
G01 X-4.85264 Y36.86183
G01 X-4.81767 Y37.10907
G01 X-4.80573 Y37.24605
G01 X-4.83022 Y37.27976
G01 X-4.91383 Y37.42459
G01 X-4.95635 Y37.52009
G01 X-5.00804 Y37.67915
G01 X-5.02976 Y37.78138
G01 X-5.04726 Y37.94773
G01 X-5.04726 Y38.05225
G01 X-5.02976 Y38.21859
G01 X-5.00804 Y38.32083
G01 X-4.95635 Y38.47988
G01 X-4.91383 Y38.57539
G01 X-4.83022 Y38.72022
G01 X-4.76877 Y38.80477
G01 X-4.63608 Y38.94778
G01 X-4.55884 Y39.12855
G01 X-4.34845 Y39.15176
G01 X-4.20058 Y39.21760
G01 X-4.35336 Y39.14958
G01 X-4.44388 Y39.09731
G01 X-4.57919 Y38.99901
G01 X-4.63608 Y38.94778
G01 X-4.57919 Y38.99901
G01 X-4.44388 Y39.09731
G01 X-4.35336 Y39.14958
G01 X-4.20058 Y39.21760
G01 X-4.10116 Y39.24991
G01 X-3.93756 Y39.28468
G01 X-3.83362 Y39.29560
G01 X-3.66636 Y39.29560
G01 X-3.56240 Y39.28468
G01 X-3.52364 Y39.27643
G01 X-3.51114 Y39.26340
G01 X-3.52328 Y39.27607
G01 X-3.53116 Y39.36210
G01 X-3.52252 Y39.45392
G01 X-3.50220 Y39.56190
G01 X-3.48577 Y39.61938
G01 X-3.46301 Y39.63515
G01 X-3.47767 Y39.62499
G01 X-4.25115 Y39.62568
G01 X-4.35508 Y39.63728
G01 X-4.40619 Y39.64816
G01 X-4.50560 Y39.68044
G01 X-4.57200 Y39.71247
G01 X-5.09999 Y39.71247
G01 X-5.09999 Y39.13447
G01 X-5.00022 Y39.36637
G01 X-4.95417 Y39.45740
G01 X-4.92775 Y39.49868
G01 X-4.89379 Y39.53401
G01 X-4.85358 Y39.56202
G01 X-4.80868 Y39.58168
G01 X-4.72747 Y39.60805
G01 X-4.67632 Y39.61892
G01 X-4.40715 Y39.64846
G01 X-4.67632 Y39.61892
G01 X-4.72747 Y39.60805
G01 X-4.72821 Y39.61115
G01 X-4.72747 Y39.60805
G01 X-4.80868 Y39.58168
G01 X-4.85358 Y39.56202
G01 X-4.85765 Y39.56901
G01 X-4.85358 Y39.56202
G01 X-4.89379 Y39.53401
G01 X-4.92775 Y39.49868
G01 X-4.93677 Y39.50559
G01 X-4.92775 Y39.49868
G01 X-4.95417 Y39.45740
G01 X-5.00022 Y39.36637
G01 X-5.09999 Y39.13447
G01 X-5.09999 Y37.69998
G01 X-5.10959 Y37.60244
G01 X-5.13804 Y37.50864
G01 X-5.18424 Y37.42220
G01 X-5.24645 Y37.34643
G01 X-5.30294 Y37.30005
G01 X-5.32221 Y37.28425
G01 X-5.40865 Y37.23805
G01 X-5.50245 Y37.20960
G01 X-5.59999 Y37.19998
G01 X-5.80420 Y37.19998
G01 X-5.59999 Y37.19998
G01 X-5.50245 Y37.20960
G01 X-5.40865 Y37.23805
G01 X-5.32221 Y37.28425
G01 X-5.30294 Y37.30005
G01 X-5.31371 Y37.17211
G01 X-5.33509 Y37.02098
G01 X-5.52445 Y37.10102
G01 X-5.69171 Y37.16541
G01 X-5.80420 Y37.19998
G01 X-7.50247 Y37.19998
G01 X-7.51197 Y37.10343
G01 X-7.53110 Y37.00729
G01 X-7.55955 Y36.91349
G01 X-7.59706 Y36.82294
G01 X-7.64327 Y36.73650
G01 X-7.65665 Y36.71644
G01 X-7.71309 Y36.65494
G01 X-7.65122 Y36.72251
G01 X-7.61888 Y36.74600
G01 X-7.52836 Y36.79828
G01 X-7.48060 Y36.81954
G01 X-7.38119 Y36.85182
G01 X-7.25228 Y36.87293
G01 X-6.34769 Y36.87293
G01 X-6.21878 Y36.85182
G01 X-6.11937 Y36.81954
G01 X-6.07162 Y36.79828
G01 X-5.98109 Y36.74600
G01 X-5.93880 Y36.71529
G01 X-5.86113 Y36.64534
G01 X-5.82615 Y36.60651
G01 X-5.76471 Y36.52192
G01 X-5.73860 Y36.47666
G01 X-5.69608 Y36.38118
G01 X-5.67992 Y36.33147
G01 X-5.65818 Y36.22924
G01 X-5.64998 Y36.12500
G01 X-5.64998 Y35.78136
G01 X-5.31190 Y35.44329
G01 X-5.64998 Y35.78136
G01 X-5.65272 Y36.17725
G01 X-5.65818 Y36.22924
G01 X-5.67992 Y36.33147
G01 X-5.69608 Y36.38118
G01 X-5.73860 Y36.47666
G01 X-5.76471 Y36.52192
G01 X-5.82615 Y36.60651
G01 X-5.86113 Y36.64534
G01 X-5.94563 Y36.72025
G01 X-5.86509 Y36.69640
G01 X-5.71007 Y36.63671
G01 X-5.49996 Y36.54796
G01 X-5.49996 Y35.94702
G01 X-5.49516 Y35.89825
G01 X-5.50393 Y35.89652
G01 X-5.49516 Y35.89825
G01 X-5.48094 Y35.85136
G01 X-5.31190 Y35.44329
G01 X-5.18429 Y35.31568
G01 X-5.11404 Y35.23386
G01 X-5.05958 Y35.15236
G01 X-5.03184 Y35.10049
G01 X-4.99433 Y35.00994
G01 X-4.97726 Y34.95365
G01 X-4.95813 Y34.85751
G01 X-4.94995 Y34.74999
G01 X-4.94995 Y33.47240
G01 X-4.94995 Y34.02185
G01 X-4.90123 Y33.92091
G01 X-4.84995 Y33.82980
G01 X-4.84995 Y33.61007
G01 X-4.94995 Y33.47240
G01 X-4.94993 Y32.92996
G01 X-4.96009 Y32.89879
G01 X-4.94881 Y32.93151
G01 X-4.91383 Y32.97034
G01 X-4.83616 Y33.04029
G01 X-4.79387 Y33.07100
G01 X-4.70334 Y33.12328
G01 X-4.65562 Y33.14454
G01 X-4.55620 Y33.17682
G01 X-4.50507 Y33.18769
G01 X-4.40218 Y33.19861
G01 X-4.24998 Y33.19894
G01 X-4.24998 Y34.14151
G01 X-4.28120 Y34.14814
G01 X-4.38061 Y34.18045
G01 X-4.42836 Y34.20171
G01 X-4.50157 Y34.24398
G01 X-4.45823 Y34.15279
G01 X-4.38239 Y34.01883
G01 X-4.36456 Y33.97984
G01 X-4.35364 Y33.93839
G01 X-4.34995 Y33.89567
G01 X-4.34995 Y33.52531
G01 X-4.35635 Y33.46907
G01 X-4.37525 Y33.41573
G01 X-4.40566 Y33.36798
G01 X-4.54409 Y33.17941
G01 X-4.55620 Y33.17682
G01 X-4.54409 Y33.17941
G01 X-4.40566 Y33.36798
G01 X-4.37525 Y33.41573
G01 X-4.36629 Y33.41167
G01 X-4.37525 Y33.41573
G01 X-4.35635 Y33.46907
G01 X-4.34995 Y33.52531
G01 X-4.34675 Y33.52495
G01 X-4.34995 Y33.52531
G01 X-4.34812 Y33.89582
G01 X-4.35364 Y33.93839
G01 X-4.36456 Y33.97984
G01 X-4.35892 Y33.98175
G01 X-4.36456 Y33.97984
G01 X-4.38239 Y34.01883
G01 X-4.45823 Y34.15279
G01 X-4.50157 Y34.24398
G01 X-4.56115 Y34.28469
G01 X-4.63885 Y34.35464
G01 X-4.67380 Y34.39348
G01 X-4.73525 Y34.47804
G01 X-4.76138 Y34.52330
G01 X-4.80390 Y34.61880
G01 X-4.82006 Y34.66851
G01 X-4.84177 Y34.77075
G01 X-4.84998 Y34.87499
G01 X-4.84998 Y36.12500
G01 X-4.84177 Y36.22924
G01 X-4.82006 Y36.33147
G01 X-4.80390 Y36.38118
G01 X-4.76138 Y36.47666
G01 X-4.73525 Y36.52192
G01 X-4.67380 Y36.60651
G01 X-4.63885 Y36.64534
G01 X-4.56115 Y36.71529
G01 X-4.49999 Y36.75692
G01 X-4.49999 Y36.94341
G01 X-4.57919 Y37.00097
G01 X-4.65686 Y37.07089
G01 X-4.76877 Y37.19520
G01 X-4.80573 Y37.24605
G04 P0 ( dwell for no time -- G64 should not smooth over this point )
G00 Z1.00000 ( retract )

G00 X-7.86323 Y34.52744 ( rapid move to begin. )
G01 F20.00000
( Mill infeed pass 1/1 )
G01 Z-0.30000
G04 P0 ( dwell for no time -- G64 should not smooth over this point )
G01 F30.00000
G01 X-7.86323 Y34.52744
G01 X-8.00844 Y34.67265
G01 X-7.93791 Y34.75101
G01 X-7.93179 Y34.77298
G01 X-7.93773 Y34.75164
G01 X-7.92005 Y34.66851
G01 X-7.90390 Y34.61880
G01 X-7.86323 Y34.52744
G01 X-7.79826 Y34.44430
G04 P0 ( dwell for no time -- G64 should not smooth over this point )
G00 Z1.00000 ( retract )

G00 X-4.96153 Y31.20319 ( rapid move to begin. )
G01 F20.00000
( Mill infeed pass 1/1 )
G01 Z-0.30000
G04 P0 ( dwell for no time -- G64 should not smooth over this point )
G01 F30.00000
G01 X-4.96153 Y31.20319
G01 X-4.95711 Y31.18912
G01 X-4.96011 Y31.18317
G01 X-4.95711 Y31.18912
G01 X-4.94934 Y31.18767
G01 X-4.95711 Y31.18912
G01 X-4.96098 Y31.18145
G04 P0 ( dwell for no time -- G64 should not smooth over this point )
G00 Z1.00000 ( retract )

G00 X-10.22406 Y34.82094 ( rapid move to begin. )
G01 F20.00000
( Mill infeed pass 1/1 )
G01 Z-0.30000
G04 P0 ( dwell for no time -- G64 should not smooth over this point )
G01 F30.00000
G01 X-10.22406 Y34.82094
G01 X-10.19470 Y34.73089
G01 X-10.13971 Y34.59223
G01 X-10.12888 Y34.54776
G01 X-10.12299 Y34.50237
G01 X-10.12472 Y34.30257
G01 X-10.11850 Y34.13867
G01 X-10.08456 Y33.83562
G01 X-10.07478 Y33.83478
G01 X-10.08456 Y33.83562
G01 X-10.08918 Y33.79269
G01 X-10.10112 Y33.75122
G01 X-10.17095 Y33.54545
G01 X-10.20950 Y33.37474
G01 X-10.22891 Y33.33118
G01 X-10.24506 Y33.28147
G01 X-10.26678 Y33.17923
G01 X-10.27224 Y33.12726
G01 X-10.27499 Y33.07499
G01 X-10.27499 Y31.32498
G01 X-10.26678 Y31.22074
G01 X-10.24506 Y31.11851
G01 X-10.22891 Y31.06880
G01 X-10.18639 Y30.97329
G01 X-10.16025 Y30.92803
G01 X-10.09881 Y30.84347
G01 X-10.06384 Y30.80464
G01 X-10.02535 Y30.76999
G01 X-10.06384 Y30.80464
G01 X-10.09881 Y30.84347
G01 X-10.16025 Y30.92803
G01 X-10.18639 Y30.97329
G01 X-10.20953 Y31.02526
G01 X-10.16521 Y30.83456
G01 X-10.14903 Y30.81650
G01 X-10.02535 Y30.76999
G01 X-9.98616 Y30.73469
G01 X-9.94387 Y30.70398
G01 X-9.85335 Y30.65170
G01 X-9.80562 Y30.63044
G01 X-9.70620 Y30.59816
G01 X-9.57730 Y30.57705
G01 X-7.44883 Y30.57568
G01 X-7.34489 Y30.58729
G01 X-7.29379 Y30.59816
G01 X-7.19437 Y30.63044
G01 X-7.14662 Y30.65170
G01 X-7.05609 Y30.70398
G01 X-7.01380 Y30.73469
G01 X-6.93613 Y30.80464
G01 X-6.90115 Y30.84347
G01 X-6.83971 Y30.92803
G01 X-6.81360 Y30.97329
G01 X-6.77108 Y31.06880
G01 X-6.75493 Y31.11851
G01 X-6.73318 Y31.22074
G01 X-6.72498 Y31.32498
G01 X-6.72498 Y33.07499
G01 X-6.73318 Y33.17923
G01 X-6.75493 Y33.28147
G01 X-6.77108 Y33.33118
G01 X-6.81360 Y33.42668
G01 X-6.83971 Y33.47194
G01 X-6.90115 Y33.55650
G01 X-6.93613 Y33.59534
G01 X-7.01380 Y33.66529
G01 X-7.05609 Y33.69600
G01 X-7.14662 Y33.74827
G01 X-7.19437 Y33.76953
G01 X-7.29379 Y33.80184
G01 X-7.42269 Y33.82294
G01 X-7.50494 Y33.82498
G01 X-7.51197 Y33.89653
G01 X-7.53110 Y33.99267
G01 X-7.55955 Y34.08647
G01 X-7.59706 Y34.17702
G01 X-7.64327 Y34.26346
G01 X-7.65668 Y34.28352
G01 X-7.71322 Y34.34514
G01 X-7.65132 Y34.27753
G01 X-7.61888 Y34.25398
G01 X-7.52836 Y34.20171
G01 X-7.48060 Y34.18045
G01 X-7.38119 Y34.14814
G01 X-7.33008 Y34.13730
G01 X-7.22612 Y34.12635
G01 X-6.54997 Y34.12635
G01 X-6.54997 Y33.86127
G01 X-6.59011 Y33.95492
G01 X-6.61558 Y34.00052
G01 X-6.64997 Y34.03981
G01 X-6.69178 Y34.07110
G01 X-6.73918 Y34.09302
G01 X-6.83953 Y34.12635
G01 X-6.73887 Y34.09376
G01 X-6.69178 Y34.07110
G01 X-6.68833 Y34.07626
G01 X-6.69178 Y34.07110
G01 X-6.64997 Y34.03981
G01 X-6.61558 Y34.00052
G01 X-6.60806 Y34.00600
G01 X-6.61558 Y34.00052
G01 X-6.59011 Y33.95492
G01 X-6.54997 Y33.86127
G01 X-6.54997 Y30.58135
G01 X-6.83133 Y30.29999
G01 X-10.41860 Y30.29999
G01 X-10.69995 Y30.58135
G01 X-10.69995 Y30.92778
G01 X-10.66617 Y30.77091
G01 X-10.62914 Y30.63977
G01 X-10.60773 Y30.58856
G01 X-10.57554 Y30.54335
G01 X-10.47392 Y30.43204
G01 X-10.43686 Y30.39999
G01 X-10.39010 Y30.37390
G01 X-10.19683 Y30.29999
G01 X-10.39010 Y30.37390
G01 X-10.43686 Y30.39999
G01 X-10.44283 Y30.39125
G01 X-10.43686 Y30.39999
G01 X-10.47392 Y30.43204
G01 X-10.57554 Y30.54335
G01 X-10.57900 Y30.54081
G01 X-10.57554 Y30.54335
G01 X-10.60773 Y30.58856
G01 X-10.62914 Y30.63977
G01 X-10.63328 Y30.63814
G01 X-10.62914 Y30.63977
G01 X-10.66617 Y30.77091
G01 X-10.69995 Y30.92778
G01 X-10.69995 Y34.66765
G01 X-10.69995 Y33.47217
G01 X-10.65218 Y33.68129
G01 X-10.59142 Y33.86849
G01 X-10.61806 Y34.10791
G01 X-10.62462 Y34.29333
G01 X-10.62469 Y34.45589
G01 X-10.66810 Y34.56986
G01 X-10.69995 Y34.66765
G01 X-10.69995 Y36.24999
G01 X-10.70813 Y36.35751
G01 X-10.72726 Y36.45365
G01 X-10.74433 Y36.50993
G01 X-10.78184 Y36.60049
G01 X-10.80955 Y36.65235
G01 X-10.87298 Y36.74476
G01 X-10.80955 Y36.65235
G01 X-10.79099 Y36.61758
G01 X-10.78520 Y36.70521
G01 X-10.87298 Y36.74476
G01 X-10.93427 Y36.81567
G01 X-11.31857 Y37.19995
G01 X-11.34311 Y37.21011
G01 X-11.31857 Y37.19995
G01 X-9.91365 Y37.19998
G01 X-9.95238 Y37.12751
G01 X-9.98990 Y37.03696
G01 X-10.01834 Y36.94316
G01 X-10.03064 Y36.88131
G01 X-10.09020 Y36.82769
G01 X-10.23008 Y36.67234
G01 X-10.29193 Y36.58707
G01 X-10.27786 Y36.84046
G01 X-10.27974 Y36.88824
G01 X-10.29066 Y36.93477
G01 X-10.31027 Y36.97839
G01 X-10.33780 Y37.01748
G01 X-10.37227 Y37.05060
G01 X-10.41243 Y37.07656
G01 X-10.53666 Y37.14074
G01 X-10.66612 Y37.19998
G01 X-10.52850 Y37.13673
G01 X-10.41243 Y37.07656
G01 X-10.37227 Y37.05060
G01 X-10.36234 Y37.06208
G01 X-10.37227 Y37.05060
G01 X-10.33780 Y37.01748
G01 X-10.31027 Y36.97839
G01 X-10.29066 Y36.93477
G01 X-10.27699 Y36.94016
G01 X-10.29066 Y36.93477
G01 X-10.27974 Y36.88824
G01 X-10.27560 Y36.84054
G01 X-10.29193 Y36.58707
G01 X-10.39604 Y36.40673
G01 X-10.43856 Y36.31123
G01 X-10.50315 Y36.11240
G01 X-10.52490 Y36.01016
G01 X-10.54674 Y35.80224
G01 X-10.54674 Y35.69772
G01 X-10.52490 Y35.48982
G01 X-10.50315 Y35.38756
G01 X-10.43856 Y35.18875
G01 X-10.39604 Y35.09325
G01 X-10.29152 Y34.91220
G01 X-10.23008 Y34.82764
G01 X-10.09020 Y34.67227
G01 X-10.04948 Y34.63562
G01 X-10.04948 Y34.29950
G01 X-10.03747 Y34.15294
G01 X-10.01834 Y34.05680
G01 X-9.98990 Y33.96300
G01 X-9.95238 Y33.87245
G01 X-9.90618 Y33.78601
G01 X-9.87326 Y33.73676
G01 X-9.94387 Y33.69600
G01 X-9.98616 Y33.66529
G01 X-10.06384 Y33.59534
G01 X-10.09881 Y33.55650
G01 X-10.16025 Y33.47194
G01 X-10.18639 Y33.42668
G01 X-10.20950 Y33.37474
G04 P0 ( dwell for no time -- G64 should not smooth over this point )
G00 Z1.00000 ( retract )

G00 X-11.60264 Y29.23565 ( rapid move to begin. )
G01 F20.00000
( Mill infeed pass 1/1 )
G01 Z-0.30000
G04 P0 ( dwell for no time -- G64 should not smooth over this point )
G01 F30.00000
G01 X-11.60264 Y29.23565
G01 X-11.58977 Y29.20837
G01 X-11.58497 Y29.13499
G01 X-11.58494 Y29.06527
G01 X-11.59510 Y29.04696
G01 X-11.58494 Y29.06527
G01 X-11.49802 Y29.11206
G01 X-11.47376 Y29.10675
G01 X-11.49215 Y29.11079
G01 X-11.58977 Y29.20837
G04 P0 ( dwell for no time -- G64 should not smooth over this point )
G00 Z1.00000 ( retract )

G00 X-13.40498 Y27.10312 ( rapid move to begin. )
G01 F20.00000
( Mill infeed pass 1/1 )
G01 Z-0.30000
G04 P0 ( dwell for no time -- G64 should not smooth over this point )
G01 F30.00000
G01 X-13.40498 Y27.10312
G01 X-13.40498 Y28.48699
G01 X-13.40896 Y28.53149
G01 X-13.39667 Y28.53431
G01 X-13.40896 Y28.53149
G01 X-13.42080 Y28.57457
G01 X-13.44013 Y28.61483
G01 X-13.46629 Y28.65102
G01 X-13.46324 Y28.65298
G01 X-13.46629 Y28.65102
G01 X-13.57132 Y28.77182
G01 X-13.73213 Y28.97477
G01 X-13.68758 Y28.96530
G01 X-13.58362 Y28.95437
G01 X-13.41636 Y28.95437
G01 X-13.34341 Y28.96205
G01 X-13.18499 Y28.80360
G01 X-13.18499 Y27.32024
G01 X-13.21417 Y27.29901
G01 X-13.29187 Y27.22908
G01 X-13.40378 Y27.10477
G01 X-13.46523 Y27.02022
G01 X-13.54884 Y26.87538
G01 X-13.59136 Y26.77988
G01 X-13.64303 Y26.62083
G01 X-13.65496 Y26.56464
G01 X-13.65499 Y26.51432
G01 X-13.65496 Y26.56464
G01 X-13.66695 Y26.62083
G01 X-13.71862 Y26.77988
G01 X-13.76114 Y26.87538
G01 X-13.84475 Y27.02022
G01 X-13.90620 Y27.10477
G01 X-14.01811 Y27.22908
G01 X-14.09578 Y27.29901
G01 X-14.12497 Y27.32021
G01 X-14.12497 Y28.92499
G01 X-14.13314 Y29.03250
G01 X-14.15164 Y29.12547
G01 X-14.17086 Y29.15105
G01 X-14.15547 Y29.13047
G01 X-14.10335 Y29.10040
G01 X-13.95057 Y29.03238
G01 X-13.85115 Y29.00007
G01 X-13.73213 Y28.97477
G01 X-13.85115 Y29.00007
G01 X-13.95057 Y29.03238
G01 X-14.10335 Y29.10040
G01 X-14.15547 Y29.13047
G01 X-14.15164 Y29.12547
G01 X-14.13314 Y29.03250
G01 X-14.12738 Y28.97398
G01 X-14.12497 Y28.66492
G01 X-13.95715 Y28.45379
G01 X-13.90495 Y28.39352
G01 X-13.90498 Y27.10310
G04 P0 ( dwell for no time -- G64 should not smooth over this point )
G00 Z1.00000 ( retract )

G00 X-15.02700 Y33.69163 ( rapid move to begin. )
G01 F20.00000
( Mill infeed pass 1/1 )
G01 Z-0.30000
G04 P0 ( dwell for no time -- G64 should not smooth over this point )
G01 F30.00000
G01 X-15.02700 Y33.69163
G01 X-14.98526 Y33.77194
G01 X-14.92382 Y33.85650
G01 X-14.88884 Y33.89533
G01 X-14.81117 Y33.96529
G01 X-14.76888 Y33.99600
G01 X-14.66233 Y34.05685
G01 X-14.66548 Y34.05398
G01 X-14.63060 Y34.06953
G01 X-14.53119 Y34.10184
G01 X-14.40228 Y34.12294
G01 X-13.52304 Y34.12360
G01 X-13.41989 Y34.11268
G01 X-13.36878 Y34.10184
G01 X-13.26937 Y34.06953
G01 X-13.22161 Y34.04827
G01 X-13.13109 Y33.99600
G01 X-13.08882 Y33.96529
G01 X-13.02852 Y33.91098
G01 X-12.87770 Y33.89178
G01 X-12.85857 Y33.82597
G01 X-12.81948 Y33.63244
G01 X-12.80409 Y33.48619
G01 X-12.80013 Y33.37758
G01 X-12.80818 Y33.47923
G01 X-12.82992 Y33.58147
G01 X-12.84605 Y33.63117
G01 X-12.88860 Y33.72668
G01 X-12.91471 Y33.77194
G01 X-12.97615 Y33.85650
G01 X-13.02852 Y33.91098
G01 X-12.97615 Y33.85650
G01 X-12.91471 Y33.77194
G01 X-12.88860 Y33.72668
G01 X-12.84605 Y33.63117
G01 X-12.82992 Y33.58147
G01 X-12.80818 Y33.47923
G01 X-12.79997 Y33.37499
G01 X-12.80183 Y32.05620
G01 X-12.82570 Y31.82821
G01 X-12.86759 Y31.62409
G01 X-12.87323 Y31.62437
G01 X-12.86759 Y31.62409
G01 X-12.86695 Y31.57835
G01 X-12.85806 Y31.53349
G01 X-12.86528 Y31.53143
G01 X-12.85806 Y31.53349
G01 X-12.84112 Y31.49100
G01 X-12.74796 Y31.30507
G01 X-12.84112 Y31.49100
G01 X-12.85806 Y31.53349
G01 X-12.86695 Y31.57835
G01 X-12.86759 Y31.62409
G01 X-12.81948 Y31.86750
G01 X-12.80409 Y32.01375
G01 X-12.79997 Y32.12498
G01 X-12.80818 Y32.02074
G01 X-12.82992 Y31.91850
G01 X-12.84605 Y31.86880
G01 X-12.88860 Y31.77329
G01 X-12.91471 Y31.72803
G01 X-12.97615 Y31.64347
G01 X-13.01110 Y31.60464
G01 X-13.08882 Y31.53468
G01 X-13.14199 Y31.49768
G01 X-13.04940 Y31.46760
G01 X-12.89662 Y31.39958
G01 X-12.80610 Y31.34731
G01 X-12.67079 Y31.24901
G01 X-12.59312 Y31.17906
G01 X-12.48120 Y31.05478
G01 X-12.41976 Y30.97022
G01 X-12.33615 Y30.82539
G01 X-12.29995 Y30.74411
G01 X-12.28979 Y30.68521
G01 X-12.29995 Y30.74411
G01 X-12.29998 Y31.52808
G01 X-12.35497 Y31.63819
G01 X-12.32291 Y31.80870
G01 X-12.30513 Y31.98104
G01 X-12.29998 Y32.12495
G01 X-12.29998 Y31.52808
G01 X-12.30170 Y33.46668
G01 X-12.33165 Y33.75663
G01 X-12.37394 Y33.94913
G01 X-12.41709 Y34.09208
G01 X-12.29998 Y34.32950
G01 X-12.29998 Y33.37499
G01 X-12.29995 Y35.11248
G01 X-12.28979 Y35.16025
G01 X-12.29995 Y35.11248
G01 X-12.31816 Y35.07169
G01 X-12.42268 Y34.89063
G01 X-12.48413 Y34.80605
G01 X-12.62400 Y34.65071
G01 X-12.70168 Y34.58075
G01 X-12.75151 Y34.54456
G01 X-12.82670 Y34.38952
G01 X-12.95979 Y34.40651
G01 X-12.87081 Y34.45787
G01 X-12.75151 Y34.54456
G01 X-12.87081 Y34.45787
G01 X-12.96134 Y34.40562
G01 X-13.15232 Y34.32058
G01 X-13.25174 Y34.28827
G01 X-13.45623 Y34.24481
G01 X-13.56017 Y34.23389
G01 X-13.76924 Y34.23389
G01 X-13.87320 Y34.24481
G01 X-14.07770 Y34.28827
G01 X-14.17709 Y34.32058
G01 X-14.36807 Y34.40562
G01 X-14.45859 Y34.45787
G01 X-14.62773 Y34.58075
G01 X-14.70541 Y34.65071
G01 X-14.82875 Y34.78769
G01 X-14.83299 Y34.80758
G01 X-14.82875 Y34.78769
G01 X-14.86090 Y34.68875
G01 X-14.90342 Y34.59325
G01 X-15.00795 Y34.41220
G01 X-15.06939 Y34.32764
G01 X-15.20929 Y34.17227
G01 X-15.28696 Y34.10234
G01 X-15.45610 Y33.97946
G01 X-15.54663 Y33.92719
G01 X-15.73761 Y33.84215
G01 X-15.83703 Y33.80986
G01 X-16.01473 Y33.77194
G01 X-15.98859 Y33.72668
G01 X-15.94607 Y33.63117
G01 X-15.92991 Y33.58147
G01 X-15.90820 Y33.47923
G01 X-15.90274 Y33.42726
G01 X-15.89999 Y33.37499
G01 X-15.89999 Y32.12498
G01 X-15.90274 Y32.07273
G01 X-15.90820 Y32.02074
G01 X-15.92991 Y31.91850
G01 X-15.94607 Y31.86880
G01 X-15.98859 Y31.77329
G01 X-16.01473 Y31.72803
G01 X-16.07617 Y31.64347
G01 X-16.11114 Y31.60464
G01 X-16.18882 Y31.53468
G01 X-16.24995 Y31.49308
G01 X-16.24995 Y31.25864
G01 X-16.14947 Y31.21810
G01 X-16.09761 Y31.19039
G01 X-16.01612 Y31.13593
G01 X-15.93428 Y31.06567
G01 X-14.73888 Y29.87027
G01 X-14.71615 Y29.83316
G01 X-14.73888 Y29.87027
G01 X-14.75803 Y29.92915
G01 X-14.77978 Y30.03139
G01 X-14.79725 Y30.19773
G01 X-14.79725 Y30.30225
G01 X-14.77978 Y30.46857
G01 X-14.76698 Y30.52722
G01 X-14.83756 Y30.74929
G01 X-15.07978 Y31.33082
G01 X-15.07561 Y31.33326
G01 X-15.07978 Y31.33082
G01 X-15.10109 Y31.37131
G01 X-15.12941 Y31.40725
G01 X-15.24998 Y31.54540
G01 X-15.24998 Y33.41672
G01 X-15.02700 Y33.69163
G01 X-15.05389 Y33.63117
G01 X-15.07005 Y33.58147
G01 X-15.09179 Y33.47923
G01 X-15.10000 Y33.37499
G01 X-15.10000 Y32.12498
G01 X-15.09725 Y32.07273
G01 X-15.09179 Y32.02074
G01 X-15.07005 Y31.91850
G01 X-15.05389 Y31.86880
G01 X-15.01137 Y31.77329
G01 X-14.98526 Y31.72803
G01 X-14.92382 Y31.64347
G01 X-14.88884 Y31.60464
G01 X-14.81117 Y31.53468
G01 X-14.74998 Y31.49305
G01 X-14.74998 Y30.69999
G01 X-14.74384 Y30.61307
G01 X-14.75631 Y30.57601
G01 X-14.77978 Y30.46857
G01 X-14.79725 Y30.30225
G01 X-14.79725 Y30.19773
G01 X-14.77978 Y30.03139
G01 X-14.75803 Y29.92915
G01 X-14.73888 Y29.87027
G01 X-15.24338 Y30.37474
G01 X-15.30264 Y30.56400
G01 X-15.52402 Y31.09681
G01 X-15.69956 Y31.30179
G01 X-15.72656 Y31.34924
G01 X-15.73284 Y31.34672
G01 X-15.72656 Y31.34924
G01 X-15.74404 Y31.40078
G01 X-15.74998 Y31.45490
G01 X-15.75303 Y31.45457
G01 X-15.74998 Y31.45490
G01 X-15.74998 Y33.50105
G01 X-15.74452 Y33.55304
G01 X-15.75529 Y33.55533
G01 X-15.74452 Y33.55304
G01 X-15.72837 Y33.60275
G01 X-15.70223 Y33.64801
G01 X-15.70573 Y33.65015
G01 X-15.70223 Y33.64801
G01 X-15.60706 Y33.77220
G01 X-15.41102 Y34.01220
G04 P0 ( dwell for no time -- G64 should not smooth over this point )
G00 Z1.00000 ( retract )

G00 X-18.53623 Y33.99079 ( rapid move to begin. )
G01 F20.00000
( Mill infeed pass 1/1 )
G01 Z-0.30000
G04 P0 ( dwell for no time -- G64 should not smooth over this point )
G01 F30.00000
G01 X-18.53623 Y33.99079
G01 X-18.51825 Y34.02193
G01 X-18.39537 Y34.19107
G01 X-18.34995 Y34.23930
G01 X-18.32676 Y34.23120
G01 X-18.34995 Y34.23930
G01 X-18.34995 Y34.44999
G01 X-18.33938 Y34.60653
G01 X-18.30113 Y34.79879
G01 X-18.28406 Y34.85507
G01 X-18.22816 Y34.99002
G01 X-18.21764 Y34.98832
G01 X-18.22816 Y34.99002
G01 X-18.24449 Y35.14547
G01 X-18.24449 Y35.35451
G01 X-18.22265 Y35.56244
G01 X-18.17919 Y35.76691
G01 X-18.11457 Y35.96574
G01 X-18.02955 Y36.15672
G01 X-17.92501 Y36.33777
G01 X-17.80215 Y36.50689
G01 X-17.66225 Y36.66226
G01 X-17.50690 Y36.80214
G01 X-17.33776 Y36.92502
G01 X-17.15671 Y37.02954
G01 X-17.03080 Y37.08560
G01 X-16.85392 Y37.04346
G01 X-16.63845 Y36.97963
G01 X-16.44399 Y36.91105
G01 X-16.24706 Y36.82947
G01 X-16.05511 Y36.73500
G01 X-15.83703 Y36.69012
G01 X-15.73761 Y36.65781
G01 X-15.54663 Y36.57277
G01 X-15.45610 Y36.52053
G01 X-15.28696 Y36.39764
G01 X-15.20929 Y36.32769
G01 X-15.08592 Y36.19068
G01 X-15.08171 Y36.17082
G01 X-15.08592 Y36.19068
G01 X-15.05379 Y36.28967
G01 X-15.01681 Y36.37270
G01 X-17.54358 Y38.89946
G01 X-17.63933 Y38.89946
G01 X-17.70929 Y38.82177
G01 X-17.78696 Y38.75184
G01 X-17.95610 Y38.62895
G01 X-18.04662 Y38.57668
G01 X-18.23761 Y38.49167
G01 X-18.33702 Y38.45936
G01 X-18.54149 Y38.41590
G01 X-18.64545 Y38.40498
G01 X-18.85452 Y38.40498
G01 X-18.95848 Y38.41590
G01 X-19.16295 Y38.45936
G01 X-19.26237 Y38.49167
G01 X-19.31891 Y38.51684
G01 X-19.52495 Y38.31077
G01 X-19.52493 Y31.04632
G01 X-19.53509 Y31.01513
G01 X-19.51878 Y31.05478
G01 X-19.40687 Y31.17906
G01 X-19.32920 Y31.24901
G01 X-19.19389 Y31.34731
G01 X-19.10337 Y31.39958
G01 X-18.95056 Y31.46760
G01 X-18.85117 Y31.49991
G01 X-18.68757 Y31.53468
G01 X-18.58361 Y31.54561
G01 X-18.41637 Y31.54561
G01 X-18.31241 Y31.53468
G01 X-18.14881 Y31.49991
G01 X-18.04942 Y31.46760
G01 X-17.89661 Y31.39958
G01 X-17.84998 Y31.37266
G01 X-17.84998 Y31.49305
G01 X-17.91117 Y31.53468
G01 X-17.98884 Y31.60464
G01 X-18.02381 Y31.64347
G01 X-18.08526 Y31.72803
G01 X-18.11139 Y31.77329
G01 X-18.15391 Y31.86880
G01 X-18.17004 Y31.91850
G01 X-18.19178 Y32.02074
G01 X-18.19999 Y32.12498
G01 X-18.19999 Y33.37499
G01 X-18.19178 Y33.47923
G01 X-18.17004 Y33.58147
G01 X-18.15391 Y33.63117
G01 X-18.11139 Y33.72668
G01 X-18.08526 Y33.77194
G01 X-18.02381 Y33.85650
G01 X-17.98884 Y33.89533
G01 X-17.91117 Y33.96529
G01 X-17.84998 Y34.00692
G01 X-17.84998 Y34.44999
G01 X-17.84180 Y34.55751
G01 X-17.82267 Y34.65365
G01 X-17.80560 Y34.70994
G01 X-17.76809 Y34.80049
G01 X-17.74038 Y34.85236
G01 X-17.70685 Y34.90252
G01 X-17.72539 Y34.98982
G01 X-17.74726 Y35.19772
G01 X-17.74726 Y35.30224
G01 X-17.72539 Y35.51017
G01 X-17.70367 Y35.61240
G01 X-17.63906 Y35.81123
G01 X-17.59654 Y35.90674
G01 X-17.49201 Y36.08776
G01 X-17.43057 Y36.17234
G01 X-17.29069 Y36.32769
G01 X-17.21302 Y36.39764
G01 X-17.04388 Y36.52053
G01 X-16.95336 Y36.57277
G01 X-16.76237 Y36.65781
G01 X-16.66296 Y36.69012
G01 X-16.45846 Y36.73358
G01 X-16.35453 Y36.74450
G01 X-16.14546 Y36.74450
G01 X-16.05511 Y36.73500
G01 X-16.24706 Y36.82947
G01 X-16.44399 Y36.91105
G01 X-16.63845 Y36.97963
G01 X-16.85392 Y37.04346
G01 X-17.12341 Y37.10767
G01 X-17.35991 Y37.15149
G01 X-17.68003 Y37.19297
G01 X-18.00995 Y37.01829
G01 X-18.05816 Y36.96978
G01 X-18.00995 Y37.01829
G01 X-18.04739 Y36.99787
G01 X-18.08775 Y36.89271
G01 X-18.19570 Y36.56145
G01 X-18.24833 Y36.36508
G01 X-18.31249 Y36.06419
G01 X-18.34352 Y35.86810
G01 X-18.37339 Y35.58476
G01 X-18.38366 Y35.38883
G01 X-18.38363 Y35.01598
G01 X-18.40680 Y34.87608
G01 X-18.43194 Y34.62180
G01 X-18.44032 Y34.33107
G01 X-18.43616 Y34.33041
G01 X-18.44032 Y34.33107
G01 X-18.52425 Y34.04705
G01 X-18.57632 Y33.80273
G01 X-18.60723 Y33.52940
G01 X-18.61246 Y33.37171
G01 X-18.61246 Y32.17476
G01 X-18.61886 Y32.11853
G01 X-18.60636 Y32.11561
G01 X-18.61886 Y32.11853
G01 X-18.63776 Y32.06519
G01 X-18.66610 Y32.01617
G01 X-18.76887 Y31.89310
G01 X-18.91068 Y31.69874
G01 X-19.01213 Y31.54253
G01 X-19.09201 Y31.40461
G01 X-19.19389 Y31.34731
G01 X-19.32920 Y31.24901
G01 X-19.40687 Y31.17906
G01 X-19.52493 Y31.04632
G01 X-19.52495 Y31.65475
G01 X-19.43491 Y31.80954
G01 X-19.32671 Y31.97705
G01 X-19.16908 Y32.19287
G01 X-19.11246 Y32.26331
G01 X-19.11246 Y33.37499
G01 X-19.10618 Y33.56214
G01 X-19.07804 Y33.83534
G01 X-19.06671 Y33.90052
G01 X-19.00926 Y34.17032
G01 X-18.93745 Y34.40692
G01 X-18.93062 Y34.66488
G01 X-18.90377 Y34.93135
G01 X-18.88221 Y35.07090
G01 X-18.88376 Y35.40846
G01 X-18.87131 Y35.63061
G01 X-18.84078 Y35.92706
G01 X-18.80286 Y36.16195
G01 X-18.73380 Y36.48845
G01 X-18.67314 Y36.71006
G01 X-18.56113 Y37.05377
G01 X-18.52498 Y37.14882
G01 X-18.52498 Y37.41765
G01 X-18.64825 Y37.52522
G01 X-18.52498 Y37.41765
G01 X-18.33359 Y37.43777
G01 X-18.25409 Y37.45464
G01 X-18.37299 Y37.38931
G01 X-18.41851 Y37.35565
G01 X-18.42808 Y37.36612
G01 X-18.41851 Y37.35565
G01 X-18.45526 Y37.31260
G01 X-18.48140 Y37.26241
G01 X-18.48518 Y37.26429
G01 X-18.48140 Y37.26241
G01 X-18.52498 Y37.14882
G01 X-18.48140 Y37.26241
G01 X-18.45526 Y37.31260
G01 X-18.41851 Y37.35565
G01 X-18.37299 Y37.38931
G01 X-17.88790 Y37.64910
G01 X-17.85597 Y37.66754
G01 X-17.85755 Y37.67181
G01 X-17.85597 Y37.66754
G01 X-17.81028 Y37.68811
G01 X-17.76143 Y37.69916
G01 X-17.71134 Y37.70025
G01 X-17.71172 Y37.70800
G01 X-17.71134 Y37.70025
G01 X-17.27543 Y37.64478
G01 X-17.01368 Y37.59551
G01 X-16.71838 Y37.52477
G01 X-16.49021 Y37.45753
G01 X-16.27119 Y37.38077
G01 X-16.03804 Y37.28372
G01 X-15.82090 Y37.17679
G01 X-16.03804 Y37.28372
G01 X-16.27137 Y37.38034
G01 X-16.49031 Y37.45720
G01 X-16.71838 Y37.52477
G01 X-16.92577 Y37.57455
G01 X-17.61208 Y38.26088
G01 X-17.59593 Y38.39604
G01 X-17.61208 Y38.26088
G01 X-17.66222 Y38.22446
G01 X-17.84325 Y38.11994
G01 X-18.03423 Y38.03490
G01 X-18.23306 Y37.97028
G01 X-18.43756 Y37.92682
G01 X-18.64545 Y37.90498
G01 X-18.85452 Y37.90498
G01 X-19.02498 Y37.92289
G01 X-19.17984 Y38.08527
G01 X-19.02498 Y37.92289
G01 X-19.02498 Y34.09625
G04 P0 ( dwell for no time -- G64 should not smooth over this point )
G00 Z1.00000 ( retract )

G00 X-21.51482 Y33.59323 ( rapid move to begin. )
G01 F20.00000
( Mill infeed pass 1/1 )
G01 Z-0.30000
G04 P0 ( dwell for no time -- G64 should not smooth over this point )
G01 F30.00000
G01 X-21.51482 Y33.59323
G01 X-21.52498 Y33.61075
G01 X-21.52498 Y35.10077
G01 X-21.51482 Y35.11799
G01 X-21.53351 Y35.08634
G01 X-21.61667 Y35.04916
G01 X-21.72071 Y35.01375
G01 X-21.81045 Y34.99221
G01 X-21.90262 Y34.98753
G01 X-22.01240 Y34.99211
G01 X-22.10382 Y35.00443
G01 X-22.19145 Y35.03333
G01 X-22.26655 Y35.06610
G01 X-22.27519 Y35.08096
G01 X-22.26655 Y35.06610
G01 X-22.27458 Y34.98982
G01 X-22.28929 Y34.92066
G01 X-21.90133 Y34.52929
G01 X-21.86402 Y34.48383
G01 X-21.80956 Y34.40234
G01 X-21.78185 Y34.35048
G01 X-21.74433 Y34.25993
G01 X-21.72726 Y34.20364
G01 X-21.70814 Y34.10750
G01 X-21.70237 Y34.04898
G01 X-21.69996 Y33.67814
G01 X-21.59437 Y33.64454
G01 X-21.52498 Y33.61075
G04 P0 ( dwell for no time -- G64 should not smooth over this point )
G00 Z1.00000 ( retract )

G00 X-23.56145 Y33.76427 ( rapid move to begin. )
G01 F20.00000
( Mill infeed pass 1/1 )
G01 Z-0.30000
G04 P0 ( dwell for no time -- G64 should not smooth over this point )
G01 F30.00000
G01 X-23.56145 Y33.76427
G01 X-23.54501 Y33.74520
G01 X-23.52035 Y33.70087
G01 X-23.51171 Y33.70438
G01 X-23.52035 Y33.70087
G01 X-23.50513 Y33.65251
G01 X-23.49998 Y33.59635
G01 X-23.45334 Y33.62328
G01 X-23.40562 Y33.64454
G01 X-23.30770 Y33.67634
G01 X-23.42297 Y33.79160
G01 X-23.54151 Y33.76638
G01 X-23.64547 Y33.75546
G01 X-23.85451 Y33.75546
G01 X-23.95847 Y33.76638
G01 X-24.16297 Y33.80986
G01 X-24.26238 Y33.84215
G01 X-24.28207 Y33.85091
G01 X-24.30501 Y33.87225
G01 X-24.28184 Y33.85048
G01 X-24.24433 Y33.75993
G01 X-24.22317 Y33.68307
G01 X-24.09436 Y33.64454
G01 X-24.04661 Y33.62328
G01 X-23.95609 Y33.57100
G01 X-23.91382 Y33.54029
G01 X-23.83612 Y33.47034
G01 X-23.80117 Y33.43151
G01 X-23.74997 Y33.36105
G01 X-23.74997 Y33.34385
G01 X-23.74997 Y33.36105
G01 X-23.69881 Y33.43151
G01 X-23.66383 Y33.47034
G01 X-23.58616 Y33.54029
G01 X-23.54387 Y33.57100
G01 X-23.49998 Y33.59635
G04 P0 ( dwell for no time -- G64 should not smooth over this point )
G00 Z1.00000 ( retract )

G00 X-21.89444 Y31.40001 ( rapid move to begin. )
G01 F20.00000
( Mill infeed pass 1/1 )
G01 Z-0.30000
G04 P0 ( dwell for no time -- G64 should not smooth over this point )
G01 F30.00000
G01 X-21.89444 Y31.40001
G01 X-23.15167 Y31.40136
G01 X-23.25507 Y31.41228
G01 X-23.30620 Y31.42315
G01 X-23.40562 Y31.45546
G01 X-23.45334 Y31.47670
G01 X-23.54387 Y31.52897
G01 X-23.58616 Y31.55970
G01 X-23.66383 Y31.62963
G01 X-23.69881 Y31.66847
G01 X-23.74997 Y31.73887
G01 X-23.74997 Y31.75607
G01 X-23.74997 Y31.73887
G01 X-23.69881 Y31.66847
G01 X-23.66383 Y31.62963
G01 X-23.58616 Y31.55970
G01 X-23.54387 Y31.52897
G01 X-23.49998 Y31.50362
G01 X-23.49998 Y31.24998
G01 X-22.02965 Y31.24947
G01 X-21.89444 Y31.40001
G01 X-21.82269 Y31.40205
G01 X-21.69378 Y31.42315
G01 X-21.59437 Y31.45546
G01 X-21.54662 Y31.47670
G01 X-21.52495 Y31.48922
G01 X-21.51479 Y31.50674
G01 X-21.52495 Y31.48922
G01 X-21.52498 Y31.06265
G01 X-21.58091 Y30.99902
G01 X-21.52498 Y30.93715
G01 X-21.52498 Y31.06265
G01 X-21.52498 Y30.51076
G01 X-21.51482 Y30.49323
G01 X-21.52498 Y30.51076
G01 X-21.54662 Y30.52326
G01 X-21.59437 Y30.54452
G01 X-21.69378 Y30.57682
G01 X-21.74489 Y30.58770
G01 X-21.84832 Y30.59862
G01 X-21.89340 Y30.59867
G01 X-22.02922 Y30.74932
G01 X-23.49998 Y30.74998
G01 X-23.49998 Y30.49636
G01 X-23.54387 Y30.47101
G01 X-23.58616 Y30.44027
G01 X-23.66383 Y30.37035
G01 X-23.69881 Y30.33151
G01 X-23.74997 Y30.26103
G01 X-23.80117 Y30.33151
G01 X-23.83612 Y30.37035
G01 X-23.91382 Y30.44027
G01 X-23.95609 Y30.47101
G01 X-24.04661 Y30.52326
G01 X-24.09436 Y30.54452
G01 X-24.19378 Y30.57682
G01 X-24.24491 Y30.58770
G01 X-24.34803 Y30.59862
G01 X-24.96845 Y30.59963
G01 X-25.78951 Y31.41960
G01 X-25.82382 Y31.43949
G01 X-25.78951 Y31.41960
G01 X-25.75507 Y31.41228
G01 X-25.67729 Y31.40205
G01 X-25.62499 Y31.39999
G01 X-24.37498 Y31.39999
G01 X-24.32268 Y31.40205
G01 X-24.24491 Y31.41228
G01 X-24.19378 Y31.42315
G01 X-24.09436 Y31.45546
G01 X-24.04661 Y31.47670
G01 X-23.95609 Y31.52897
G01 X-23.91382 Y31.55970
G01 X-23.83612 Y31.62963
G01 X-23.80117 Y31.66847
G01 X-23.74997 Y31.73887
G01 X-23.80117 Y31.66847
G01 X-23.83612 Y31.62963
G01 X-23.91382 Y31.55970
G01 X-23.95609 Y31.52897
G01 X-23.99998 Y31.50362
G01 X-23.99998 Y31.24998
G01 X-24.75273 Y31.24962
G01 X-25.11610 Y31.39999
G01 X-25.65113 Y31.40067
G01 X-25.75507 Y31.41228
G01 X-25.78951 Y31.41960
G01 X-25.30724 Y30.93799
G01 X-24.89812 Y30.76867
G01 X-24.85136 Y30.75450
G01 X-24.85309 Y30.74563
G01 X-24.85136 Y30.75450
G01 X-24.80274 Y30.74967
G01 X-23.99998 Y30.74998
G01 X-23.99998 Y30.49633
G01 X-23.95609 Y30.47101
G01 X-23.91382 Y30.44027
G01 X-23.83612 Y30.37035
G01 X-23.80117 Y30.33151
G01 X-23.74997 Y30.26103
G01 X-23.74997 Y30.24386
G01 X-23.74997 Y30.26103
G01 X-23.69881 Y30.33151
G01 X-23.66383 Y30.37035
G01 X-23.58616 Y30.44027
G01 X-23.54387 Y30.47101
G01 X-23.45334 Y30.52326
G01 X-23.40562 Y30.54452
G01 X-23.30620 Y30.57682
G01 X-23.25507 Y30.58770
G01 X-23.17730 Y30.59793
G01 X-23.12444 Y30.59999
G01 X-21.84832 Y30.59862
G04 P0 ( dwell for no time -- G64 should not smooth over this point )
G00 Z1.00000 ( retract )

G00 X-19.21835 Y28.61899 ( rapid move to begin. )
G01 F20.00000
( Mill infeed pass 1/1 )
G01 Z-0.30000
G04 P0 ( dwell for no time -- G64 should not smooth over this point )
G01 F30.00000
G01 X-19.21835 Y28.61899
G01 X-19.01099 Y28.47007
G01 X-18.58084 Y28.14358
G01 X-18.68988 Y27.95115
G01 X-18.78635 Y27.76352
G01 X-18.87517 Y27.56162
G01 X-18.94162 Y27.38829
G01 X-18.98134 Y27.26535
G01 X-18.98907 Y27.26690
G01 X-18.98134 Y27.26535
G01 X-18.98498 Y27.22296
G01 X-18.98498 Y27.10310
G01 X-18.92475 Y27.02022
G01 X-18.84114 Y26.87538
G01 X-18.79862 Y26.77988
G01 X-18.74695 Y26.62083
G01 X-18.73496 Y26.56454
G01 X-18.72303 Y26.62083
G01 X-18.67136 Y26.77988
G01 X-18.62884 Y26.87538
G01 X-18.54523 Y27.02022
G01 X-18.48498 Y27.10312
G01 X-18.48498 Y27.17996
G01 X-18.41078 Y27.37620
G01 X-18.33164 Y27.55341
G01 X-18.25168 Y27.71028
G01 X-18.15724 Y27.87792
G01 X-18.08942 Y27.98958
G01 X-18.00502 Y28.01137
G01 X-18.09359 Y27.98260
G01 X-18.00502 Y28.01137
G01 X-17.77756 Y28.06926
G01 X-17.54861 Y28.09560
G01 X-17.38137 Y28.09560
G01 X-17.17345 Y28.07373
G01 X-17.00987 Y28.03896
G01 X-16.81104 Y27.97437
G01 X-16.65907 Y27.90670
G01 X-16.60352 Y27.81087
G01 X-16.52427 Y27.65532
G01 X-16.44498 Y27.47780
G01 X-16.44498 Y27.10310
G01 X-16.55811 Y27.22908
G01 X-16.63578 Y27.29901
G01 X-16.77109 Y27.39730
G01 X-16.86161 Y27.44958
G01 X-17.01439 Y27.51760
G01 X-17.11381 Y27.54991
G01 X-17.27741 Y27.58468
G01 X-17.38137 Y27.59560
G01 X-17.54861 Y27.59560
G01 X-17.65257 Y27.58468
G01 X-17.81614 Y27.54991
G01 X-17.91556 Y27.51760
G01 X-18.06837 Y27.44958
G01 X-18.15889 Y27.39730
G01 X-18.29417 Y27.29901
G01 X-18.37187 Y27.22908
G01 X-18.48378 Y27.10477
G01 X-18.54523 Y27.02022
G01 X-18.62884 Y26.87538
G01 X-18.67136 Y26.77988
G01 X-18.72303 Y26.62083
G01 X-18.73496 Y26.56454
G01 X-18.73499 Y26.51432
G01 X-18.73496 Y26.56454
G01 X-18.74695 Y26.62083
G01 X-18.79862 Y26.77988
G01 X-18.84114 Y26.87538
G01 X-18.92475 Y27.02022
G01 X-19.00497 Y27.12563
G01 X-19.00497 Y28.00500
G01 X-19.01698 Y28.15153
G01 X-19.03611 Y28.24767
G01 X-19.06455 Y28.34147
G01 X-19.10207 Y28.43202
G01 X-19.14827 Y28.51846
G01 X-19.20273 Y28.59997
G01 X-19.29788 Y28.71208
G01 X-19.52495 Y28.93919
G01 X-19.52495 Y29.45369
G01 X-19.53511 Y29.48485
G01 X-19.51878 Y29.44520
G01 X-19.40687 Y29.32090
G01 X-19.32920 Y29.25097
G01 X-19.19389 Y29.15265
G01 X-19.10337 Y29.10040
G01 X-18.95056 Y29.03238
G01 X-18.85117 Y29.00007
G01 X-18.68757 Y28.96530
G01 X-18.58361 Y28.95437
G01 X-18.41637 Y28.95437
G01 X-18.31241 Y28.96530
G01 X-18.14881 Y29.00007
G01 X-18.04942 Y29.03238
G01 X-17.89661 Y29.10040
G01 X-17.80609 Y29.15265
G01 X-17.67078 Y29.25097
G01 X-17.59311 Y29.32090
G01 X-17.48119 Y29.44520
G01 X-17.41975 Y29.52976
G01 X-17.32483 Y29.69997
G01 X-16.83136 Y29.69997
G01 X-15.72499 Y28.59359
G01 X-15.72499 Y27.32024
G01 X-15.75417 Y27.29901
G01 X-15.83187 Y27.22908
G01 X-15.94498 Y27.10312
G01 X-15.94498 Y27.52819
G01 X-15.94917 Y27.57373
G01 X-15.97464 Y27.65077
G01 X-16.07038 Y27.86507
G01 X-16.16111 Y28.04386
G01 X-16.22496 Y28.15481
G01 X-16.22496 Y28.38651
G01 X-16.18691 Y28.40225
G01 X-16.22496 Y28.38651
G01 X-17.03845 Y29.19999
G01 X-17.04751 Y29.43573
G01 X-17.03845 Y29.19999
G01 X-17.04472 Y29.19999
G01 X-17.10964 Y29.11064
G01 X-17.22156 Y28.98635
G01 X-17.37690 Y28.84648
G01 X-17.51221 Y28.74815
G01 X-17.69326 Y28.64363
G01 X-17.84604 Y28.57561
G01 X-17.96039 Y28.53845
G01 X-18.19885 Y28.47772
G01 X-18.35854 Y28.60401
G01 X-18.62590 Y28.80609
G01 X-18.92498 Y29.02405
G01 X-18.62590 Y28.80609
G01 X-18.35854 Y28.60401
G01 X-18.19938 Y28.47818
G01 X-17.18821 Y28.74228
G01 X-17.08440 Y28.76654
G01 X-17.03929 Y28.77294
G01 X-17.03982 Y28.78219
G01 X-17.03929 Y28.77294
G01 X-16.99374 Y28.77109
G01 X-16.94932 Y28.76098
G01 X-16.94713 Y28.76796
G01 X-16.94932 Y28.76098
G01 X-16.90746 Y28.74297
G01 X-16.79969 Y28.68524
G01 X-16.53207 Y28.52108
G01 X-16.42781 Y28.44983
G01 X-16.39034 Y28.41826
G01 X-16.38127 Y28.42707
G01 X-16.39034 Y28.41826
G01 X-16.35973 Y28.37998
G01 X-16.31668 Y28.31305
G01 X-16.16753 Y28.05570
G01 X-16.07556 Y27.87678
G01 X-15.96159 Y27.61775
G01 X-15.95834 Y27.61877
G01 X-15.96159 Y27.61775
G01 X-15.94917 Y27.57373
G01 X-15.94289 Y27.52837
G01 X-15.94498 Y27.10312
G01 X-16.00523 Y27.02022
G01 X-16.08884 Y26.87538
G01 X-16.13136 Y26.77988
G01 X-16.18303 Y26.62083
G01 X-16.19496 Y26.56451
G01 X-16.19499 Y26.51432
G01 X-16.19496 Y26.56451
G01 X-16.20695 Y26.62083
G01 X-16.25862 Y26.77988
G01 X-16.30114 Y26.87538
G01 X-16.38475 Y27.02022
G01 X-16.44498 Y27.10310
G01 X-16.44498 Y27.47780
G01 X-16.52427 Y27.65532
G01 X-16.60352 Y27.81087
G01 X-16.75199 Y28.06596
G01 X-16.79870 Y28.09806
G01 X-17.06253 Y28.25824
G01 X-17.77756 Y28.06926
G04 P0 ( dwell for no time -- G64 should not smooth over this point )
G00 Z1.00000 ( retract )

G00 X-18.48498 Y25.49685 ( rapid move to begin. )
G01 F20.00000
( Mill infeed pass 1/1 )
G01 Z-0.30000
G04 P0 ( dwell for no time -- G64 should not smooth over this point )
G01 F30.00000
G01 X-18.48498 Y25.49685
G01 X-18.48498 Y25.43124
G01 X-18.36638 Y25.30795
G01 X-18.22785 Y25.22924
G01 X-17.76133 Y24.93655
G01 X-17.61957 Y24.85959
G01 X-17.35915 Y24.73589
G01 X-17.35579 Y24.74064
G01 X-17.35915 Y24.73589
G01 X-17.32128 Y24.70480
G01 X-17.17970 Y24.56322
G01 X-17.10558 Y24.52733
G01 X-17.06771 Y24.49624
G01 X-17.06471 Y24.49998
G01 X-17.06771 Y24.49624
G01 X-16.90144 Y24.32741
G01 X-16.79999 Y24.21230
G01 X-16.79999 Y23.78575
G01 X-16.78983 Y23.76823
G01 X-16.79999 Y23.78575
G01 X-16.79999 Y24.50361
G01 X-17.30842 Y25.01204
G01 X-17.38137 Y25.00437
G01 X-17.54861 Y25.00437
G01 X-17.65257 Y25.01529
G01 X-17.81614 Y25.05006
G01 X-17.91556 Y25.08237
G01 X-18.06837 Y25.15039
G01 X-18.15889 Y25.20267
G01 X-18.29417 Y25.30097
G01 X-18.37187 Y25.37092
G01 X-18.48378 Y25.49520
G01 X-18.54523 Y25.57976
G01 X-18.62884 Y25.72459
G01 X-18.67136 Y25.82009
G01 X-18.72303 Y25.97915
G01 X-18.73496 Y26.03533
G01 X-18.73499 Y26.08544
G01 X-18.73496 Y26.03533
G01 X-18.74695 Y25.97915
G01 X-18.79862 Y25.82009
G01 X-18.84114 Y25.72459
G01 X-18.92475 Y25.57976
G01 X-19.00497 Y25.47432
G01 X-19.00497 Y25.13866
G01 X-18.93110 Y25.09601
G01 X-18.88881 Y25.06528
G01 X-18.81114 Y24.99533
G01 X-18.77616 Y24.95649
G01 X-18.70126 Y24.84859
G01 X-18.63380 Y24.83518
G01 X-18.57751 Y24.81811
G01 X-18.48696 Y24.78060
G01 X-18.43509 Y24.75288
G01 X-18.35361 Y24.69843
G01 X-18.30814 Y24.66111
G01 X-17.51861 Y23.87498
G01 X-17.09768 Y23.87293
G01 X-16.96877 Y23.85182
G01 X-16.86936 Y23.81954
G01 X-16.79999 Y23.78575
G01 X-16.86936 Y23.81954
G01 X-16.96877 Y23.85182
G01 X-17.09768 Y23.87293
G01 X-17.16949 Y23.87498
G01 X-17.26740 Y23.98669
G01 X-17.38610 Y24.10752
G01 X-17.46019 Y24.14344
G01 X-17.49809 Y24.17453
G01 X-17.50042 Y24.17150
G01 X-17.49809 Y24.17453
G01 X-17.63966 Y24.31611
G01 X-17.84040 Y24.41097
G01 X-18.00581 Y24.49987
G01 X-18.48935 Y24.80307
G01 X-18.67266 Y24.90864
G01 X-18.67499 Y24.90569
G01 X-18.67266 Y24.90864
G01 X-18.77809 Y25.01676
G01 X-18.88145 Y25.12098
G01 X-18.88350 Y25.11933
G01 X-18.88112 Y25.12131
G01 X-18.91670 Y25.16299
G01 X-18.94393 Y25.21775
G01 X-18.94787 Y25.21588
G01 X-18.94393 Y25.21775
G01 X-18.98139 Y25.33482
G01 X-18.98653 Y25.33396
G01 X-18.98139 Y25.33482
G01 X-18.98498 Y25.37699
G01 X-18.98498 Y25.49688
G04 P0 ( dwell for no time -- G64 should not smooth over this point )
G00 Z1.00000 ( retract )

