( pcb2gcode 2.5.0 )
( Software-independent Gcode )

G94 ( Millimeters per minute feed rate. )
G21 ( Units == Millimeters. )

G90 ( Absolute coordinates. )
G00 S1000 ( RPM spindle speed. )
G64 P0.01016 ( set maximum deviation from commanded toolpath )
G01 F30.00000 ( Feedrate. )


G00 Z10.00000 (Retract to tool change height)
T1
M5      (Spindle stop.)
G04 P5.00000 (Wait for spindle to stop)
(MSG, Change tool bit to mill diameter 1.00000mm)
M6      (Tool change.)
M0      (Temporary machine stop.)
M3 ( Spindle on clockwise. )
G04 P3.00000 (Wait for spindle to get up to speed)
G04 P0 ( dwell for no time -- G64 should not smooth over this point )
G00 Z1.00000 ( retract )

G00 X-43.17639 Y0.00000 ( rapid move to begin. )
G01 F20.00000
( Mill infeed pass 1/1 )
G01 Z-0.30000
G04 P0 ( dwell for no time -- G64 should not smooth over this point )
G01 F30.00000
G01 X-43.17639 Y0.00000
G01 X-41.08293 Y0.00000
G01 X-40.94328 Y0.16421
G01 X-40.76540 Y0.38392
G01 X-40.62948 Y0.56180
G01 X-40.49827 Y0.74320
G01 X-40.36626 Y0.93647
G01 X-40.23965 Y1.13330
G01 X-40.11846 Y1.33355
G01 X-40.00777 Y1.52814
G01 X-39.88389 Y1.75938
G01 X-39.78311 Y1.95931
G01 X-39.68763 Y2.16179
G01 X-39.58961 Y2.38547
G01 X-39.50541 Y2.59293
G01 X-39.41983 Y2.82166
G01 X-39.34404 Y3.04310
G01 X-39.26601 Y3.29357
G01 X-39.18854 Y3.56776
G01 X-39.12032 Y3.84439
G01 X-39.06332 Y4.11317
G01 X-39.01343 Y4.39369
G01 X-38.97297 Y4.67573
G01 X-38.94008 Y4.97698
G01 X-38.91725 Y5.26098
G01 X-38.90427 Y5.53542
G01 X-38.90015 Y5.78980
G01 X-38.90015 Y14.51447
G01 X-38.92027 Y14.52037
G01 X-38.90015 Y14.51447
G01 X-38.76772 Y14.71130
G01 X-38.64249 Y14.90904
G01 X-38.45756 Y15.22527
G01 X-38.26784 Y15.58282
G01 X-38.12263 Y15.88562
G01 X-37.99337 Y16.18447
G01 X-37.87562 Y16.48808
G01 X-37.76960 Y16.79595
G01 X-37.66950 Y17.12481
G01 X-37.58827 Y17.42961
G01 X-37.51430 Y17.75717
G01 X-37.45499 Y18.07733
G01 X-37.40671 Y18.40967
G01 X-37.36848 Y18.77172
G01 X-37.34488 Y19.11690
G01 X-37.33564 Y19.43222
G01 X-37.33670 Y22.51278
G01 X-37.34488 Y22.75688
G01 X-37.35855 Y22.98035
G01 X-37.38184 Y23.24163
G01 X-37.40798 Y23.47422
G01 X-37.45499 Y23.79645
G01 X-37.51842 Y24.13655
G01 X-37.59317 Y24.46393
G01 X-37.68364 Y24.79787
G01 X-37.79500 Y25.15517
G01 X-37.90396 Y25.46203
G01 X-38.03254 Y25.78324
G01 X-38.17841 Y26.10813
G01 X-38.35684 Y26.46261
G01 X-38.46251 Y26.65740
G01 X-38.57935 Y26.86022
G01 X-38.68544 Y27.03391
G01 X-38.80127 Y27.21348
G01 X-38.91575 Y27.38176
G01 X-39.04026 Y27.55544
G01 X-39.28933 Y27.87736
G01 X-39.44369 Y28.06372
G01 X-39.58405 Y28.22486
G01 X-39.72143 Y28.37500
G01 X-39.87668 Y28.53632
G01 X-40.02146 Y28.67937
G01 X-40.18460 Y28.83266
G01 X-40.48356 Y29.09367
G01 X-40.66306 Y29.24033
G01 X-40.83980 Y29.37774
G01 X-41.02011 Y29.51046
G01 X-41.18699 Y29.62694
G01 X-41.35661 Y29.73941
G01 X-41.54627 Y29.85839
G01 X-41.89882 Y30.06176
G01 X-42.13052 Y30.18478
G01 X-42.32176 Y30.28018
G01 X-42.69237 Y30.44845
G01 X-42.89003 Y30.52963
G01 X-43.08782 Y30.60515
G01 X-42.81960 Y31.03862
G01 X-42.51051 Y30.91442
G01 X-42.20441 Y30.77802
G01 X-41.91264 Y30.63494
G01 X-41.60096 Y30.46854
G01 X-41.31970 Y30.30573
G01 X-41.04452 Y30.13288
G01 X-40.77576 Y29.95021
G01 X-40.50568 Y29.75181
G01 X-40.25887 Y29.55638
G01 X-39.97361 Y29.31513
G01 X-39.74104 Y29.10291
G01 X-39.50183 Y28.86824
G01 X-39.27833 Y28.63230
G01 X-39.05694 Y28.38072
G01 X-38.83294 Y28.10751
G01 X-38.61768 Y27.82466
G01 X-38.43078 Y27.55882
G01 X-38.24823 Y27.27780
G01 X-38.07628 Y26.99014
G01 X-37.91113 Y26.68935
G01 X-37.76381 Y26.39969
G01 X-37.62700 Y26.10490
G01 X-37.49718 Y25.79596
G01 X-37.38237 Y25.49195
G01 X-37.27861 Y25.18400
G01 X-37.17168 Y24.82599
G01 X-37.09243 Y24.52131
G01 X-37.01984 Y24.19416
G01 X-36.95784 Y23.85449
G01 X-36.91270 Y23.54293
G01 X-36.87272 Y23.17145
G01 X-36.84948 Y22.85751
G01 X-36.83874 Y22.60384
G01 X-36.83521 Y22.38045
G01 X-36.83516 Y19.51365
G01 X-36.83874 Y19.26994
G01 X-36.85647 Y18.90479
G01 X-36.89152 Y18.51241
G01 X-36.93465 Y18.16984
G01 X-36.99088 Y17.82917
G01 X-37.03843 Y17.59013
G01 X-37.09007 Y17.36232
G01 X-37.14758 Y17.13596
G01 X-37.20808 Y16.92087
G01 X-37.28786 Y16.66075
G01 X-37.35873 Y16.44886
G01 X-37.43841 Y16.22930
G01 X-37.53531 Y15.98369
G01 X-37.63937 Y15.74101
G01 X-37.74610 Y15.51066
G01 X-37.86396 Y15.27437
G01 X-37.98702 Y15.04318
G01 X-38.13757 Y14.77830
G01 X-38.29698 Y14.51867
G01 X-38.40015 Y14.36055
G01 X-38.41913 Y14.36594
G01 X-38.40015 Y14.36055
G01 X-38.40112 Y5.66796
G01 X-38.41565 Y5.27218
G01 X-38.44925 Y4.85932
G01 X-38.49388 Y4.48622
G01 X-38.55588 Y4.10535
G01 X-38.64102 Y3.69781
G01 X-38.74216 Y3.30436
G01 X-38.87803 Y2.85968
G01 X-39.02149 Y2.45803
G01 X-39.17973 Y2.07292
G01 X-39.36012 Y1.68646
G01 X-39.45715 Y1.49652
G01 X-39.58140 Y1.26596
G01 X-39.78648 Y0.91534
G01 X-39.93378 Y0.68405
G01 X-40.09387 Y0.44907
G01 X-40.25522 Y0.22736
G01 X-40.43182 Y0.00000
G01 X-41.08293 Y0.00000
G01 X-39.80122 Y0.00000
G01 X-39.65804 Y0.19977
G01 X-39.52634 Y0.39370
G01 X-39.39405 Y0.59947
G01 X-39.27749 Y0.79103
G01 X-39.15552 Y1.00307
G01 X-39.02568 Y1.24280
G01 X-38.91468 Y1.45928
G01 X-38.81354 Y1.66936
G01 X-38.71351 Y1.89113
G01 X-38.62304 Y2.10602
G01 X-38.53785 Y2.32306
G01 X-38.45801 Y2.54211
G01 X-38.38047 Y2.77271
G01 X-38.30033 Y3.03261
G01 X-38.24160 Y3.23845
G01 X-38.18019 Y3.47523
G01 X-38.12057 Y3.73344
G01 X-38.07005 Y3.98320
G01 X-38.02304 Y4.25435
G01 X-37.98786 Y4.49643
G01 X-37.95786 Y4.74947
G01 X-37.92977 Y5.05059
G01 X-37.91262 Y5.31360
G01 X-37.90302 Y5.56684
G01 X-37.90018 Y5.77969
G01 X-37.90005 Y14.21140
G01 X-37.91809 Y14.21618
G01 X-37.90005 Y14.21140
G01 X-37.77021 Y14.41872
G01 X-37.64575 Y14.62931
G01 X-37.44651 Y14.99352
G01 X-37.27877 Y15.32898
G01 X-37.14044 Y15.63357
G01 X-37.01293 Y15.94282
G01 X-36.89637 Y16.25638
G01 X-36.78791 Y16.58351
G01 X-36.68743 Y16.92295
G01 X-36.60318 Y17.24858
G01 X-36.52848 Y17.58696
G01 X-36.46782 Y17.91779
G01 X-36.41634 Y18.27078
G01 X-36.37702 Y18.63301
G01 X-36.35212 Y18.95645
G01 X-36.33803 Y19.29067
G01 X-36.33518 Y19.50352
G01 X-36.33711 Y22.54258
G01 X-36.34763 Y22.83635
G01 X-36.36721 Y23.12967
G01 X-36.39721 Y23.44102
G01 X-36.43249 Y23.72424
G01 X-36.49576 Y24.11666
G01 X-36.57765 Y24.51603
G01 X-36.67661 Y24.91151
G01 X-36.79093 Y25.29995
G01 X-36.91674 Y25.67470
G01 X-37.05804 Y26.04394
G01 X-37.21036 Y26.39771
G01 X-37.37691 Y26.74506
G01 X-37.59053 Y27.14688
G01 X-37.80219 Y27.50721
G01 X-38.04095 Y27.87470
G01 X-38.29027 Y28.22265
G01 X-38.44605 Y28.42430
G01 X-38.59873 Y28.61221
G01 X-38.87714 Y28.93428
G01 X-39.02867 Y29.09791
G01 X-39.18400 Y29.25796
G01 X-39.49075 Y29.55315
G01 X-39.81821 Y29.84083
G01 X-40.01287 Y30.00073
G01 X-40.18923 Y30.13923
G01 X-40.53477 Y30.39191
G01 X-40.89131 Y30.62877
G01 X-41.08224 Y30.74637
G01 X-41.27589 Y30.85943
G01 X-41.67668 Y31.07583
G01 X-42.05956 Y31.26194
G01 X-42.46242 Y31.43560
G01 X-42.63337 Y31.33814
G01 X-43.01213 Y30.72905
G01 X-43.59521 Y29.77485
G01 X-43.71812 Y29.56989
G01 X-44.13430 Y28.84742
G01 X-43.80659 Y28.73847
G01 X-43.47675 Y28.60873
G01 X-43.15445 Y28.46118
G01 X-42.82356 Y28.28790
G01 X-42.52438 Y28.11193
G01 X-42.24337 Y27.92608
G01 X-41.98046 Y27.73220
G01 X-41.70614 Y27.50861
G01 X-41.44274 Y27.27137
G01 X-41.20660 Y27.03485
G01 X-40.97635 Y26.77881
G01 X-40.74650 Y26.49644
G01 X-40.55887 Y26.24158
G01 X-40.37302 Y25.96058
G01 X-40.20696 Y25.67925
G01 X-40.03723 Y25.35776
G01 X-39.90840 Y25.08258
G01 X-39.79621 Y24.81115
G01 X-39.69964 Y24.54450
G01 X-39.60612 Y24.24641
G01 X-39.53134 Y23.97051
G01 X-39.47079 Y23.70160
G01 X-39.42009 Y23.42027
G01 X-39.38181 Y23.13699
G01 X-39.34836 Y22.76498
G01 X-39.33548 Y22.42088
G01 X-39.33513 Y19.50354
G01 X-39.34173 Y19.23016
G01 X-39.35984 Y18.95729
G01 X-39.39276 Y18.64556
G01 X-39.43332 Y18.37291
G01 X-39.48326 Y18.11221
G01 X-39.54127 Y17.86367
G01 X-39.61486 Y17.59801
G01 X-39.70614 Y17.31010
G01 X-39.80355 Y17.04376
G01 X-39.91658 Y16.77266
G01 X-40.03723 Y16.51602
G01 X-40.18719 Y16.23027
G01 X-40.33020 Y15.98275
G01 X-40.51249 Y15.69944
G01 X-40.70921 Y15.42595
G01 X-40.90010 Y15.18610
G01 X-40.92682 Y15.19519
G01 X-40.90010 Y15.18610
G01 X-40.90073 Y5.70883
G01 X-40.90673 Y5.50634
G01 X-40.91678 Y5.33443
G01 X-40.95397 Y4.95214
G01 X-41.00708 Y4.59880
G01 X-41.07955 Y4.24891
G01 X-41.15407 Y3.96237
G01 X-41.24861 Y3.65349
G01 X-41.34670 Y3.37665
G01 X-41.45318 Y3.11381
G01 X-41.58877 Y2.81945
G01 X-41.73266 Y2.54231
G01 X-41.87408 Y2.29390
G01 X-42.02631 Y2.05194
G01 X-42.16514 Y1.85003
G01 X-42.32402 Y1.63736
G01 X-42.50865 Y1.40980
G01 X-42.66834 Y1.22657
G01 X-42.87030 Y1.01328
G01 X-43.88350 Y0.00000
G01 X-44.59059 Y0.00000
G01 X-43.23812 Y1.35247
G01 X-43.07647 Y1.52110
G01 X-42.91495 Y1.70360
G01 X-42.72994 Y1.92999
G01 X-42.58343 Y2.12476
G01 X-42.44495 Y2.32532
G01 X-42.27319 Y2.60116
G01 X-42.11236 Y2.89273
G01 X-41.98173 Y3.15666
G01 X-41.86039 Y3.43611
G01 X-41.74680 Y3.74056
G01 X-41.64681 Y4.05818
G01 X-41.56880 Y4.35265
G01 X-41.50398 Y4.66070
G01 X-41.46078 Y4.93146
G01 X-41.42702 Y5.23210
G01 X-41.40782 Y5.49544
G01 X-41.40022 Y5.75935
G01 X-41.40010 Y15.36918
G01 X-41.42885 Y15.37937
G01 X-41.40010 Y15.36918
G01 X-41.38300 Y15.38887
G01 X-41.17749 Y15.63787
G01 X-40.99479 Y15.88163
G01 X-40.86878 Y16.06611
G01 X-40.75499 Y16.24648
G01 X-40.65265 Y16.42191
G01 X-40.54264 Y16.62554
G01 X-40.45148 Y16.80705
G01 X-40.37061 Y16.98224
G01 X-40.29540 Y17.15994
G01 X-40.22247 Y17.34950
G01 X-40.15915 Y17.53177
G01 X-40.08755 Y17.76252
G01 X-40.03578 Y17.94838
G01 X-39.98999 Y18.13583
G01 X-39.93358 Y18.41452
G01 X-39.89174 Y18.68548
G01 X-39.85656 Y19.01662
G01 X-39.83888 Y19.31058
G01 X-39.83510 Y19.51365
G01 X-39.83530 Y22.40077
G01 X-39.84135 Y22.62408
G01 X-39.85656 Y22.85716
G01 X-39.88293 Y23.11776
G01 X-39.91503 Y23.34910
G01 X-39.95417 Y23.56907
G01 X-40.00381 Y23.79731
G01 X-40.05684 Y24.00386
G01 X-40.12519 Y24.23559
G01 X-40.19509 Y24.44778
G01 X-40.26916 Y24.64778
G01 X-40.35026 Y24.84501
G01 X-40.44269 Y25.04841
G01 X-40.54264 Y25.24824
G01 X-40.66761 Y25.47841
G01 X-40.77617 Y25.66195
G01 X-40.89682 Y25.85001
G01 X-41.05432 Y26.07445
G01 X-41.21551 Y26.28354
G01 X-41.40297 Y26.50792
G01 X-41.59499 Y26.71762
G01 X-41.78201 Y26.90401
G01 X-41.97703 Y27.08199
G01 X-42.20931 Y27.27582
G01 X-42.42689 Y27.44267
G01 X-42.66032 Y27.60500
G01 X-42.88376 Y27.74569
G01 X-43.10421 Y27.87157
G01 X-43.38168 Y28.01574
G01 X-43.62130 Y28.12659
G01 X-43.86557 Y28.22682
G01 X-44.12366 Y28.31940
G01 X-44.39069 Y28.40238
G01 X-44.13430 Y28.84742
G01 X-44.64769 Y27.95527
G01 X-44.30705 Y27.85344
G01 X-44.15292 Y27.80038
G01 X-43.98152 Y27.73525
G01 X-43.83103 Y27.67259
G01 X-43.67327 Y27.60116
G01 X-43.51782 Y27.52481
G01 X-43.35772 Y27.44025
G01 X-43.21541 Y27.36078
G01 X-43.06687 Y27.27173
G01 X-42.79516 Y27.09164
G01 X-42.54259 Y26.90213
G01 X-42.26344 Y26.66792
G01 X-42.02664 Y26.44391
G01 X-41.90634 Y26.31933
G01 X-41.79677 Y26.19865
G01 X-41.55755 Y25.91039
G01 X-41.37574 Y25.66477
G01 X-41.20251 Y25.40076
G01 X-41.03987 Y25.11826
G01 X-40.95552 Y24.95804
G01 X-40.87945 Y24.80246
G01 X-40.81236 Y24.65393
G01 X-40.74594 Y24.49398
G01 X-40.67089 Y24.29365
G01 X-40.60673 Y24.10028
G01 X-40.53535 Y23.85822
G01 X-40.48069 Y23.64087
G01 X-40.43683 Y23.43147
G01 X-40.40264 Y23.23061
G01 X-40.37477 Y23.01852
G01 X-40.35171 Y22.77742
G01 X-40.33964 Y22.57405
G01 X-40.33512 Y22.37036
G01 X-40.33507 Y19.52381
G01 X-40.33964 Y19.29973
G01 X-40.35504 Y19.05574
G01 X-40.38702 Y18.75412
G01 X-40.42400 Y18.51246
G01 X-40.47170 Y18.27266
G01 X-40.53266 Y18.02539
G01 X-40.61897 Y17.73464
G01 X-40.70566 Y17.48437
G01 X-40.80027 Y17.24795
G01 X-40.91912 Y16.98864
G01 X-41.05440 Y16.72862
G01 X-41.19184 Y16.49039
G01 X-41.32958 Y16.27619
G01 X-41.52011 Y16.01170
G01 X-41.74335 Y15.73667
G01 X-41.90007 Y15.56118
G01 X-41.93151 Y15.57287
G01 X-41.90007 Y15.56118
G01 X-41.90068 Y5.71848
G01 X-41.90644 Y5.53519
G01 X-41.91671 Y5.37253
G01 X-41.95333 Y5.02021
G01 X-42.00563 Y4.69847
G01 X-42.07690 Y4.38038
G01 X-42.15973 Y4.08864
G01 X-42.23929 Y3.84670
G01 X-42.33380 Y3.59928
G01 X-42.44444 Y3.34749
G01 X-42.56275 Y3.11053
G01 X-42.71488 Y2.83644
G01 X-42.86062 Y2.60320
G01 X-43.01785 Y2.37752
G01 X-43.14149 Y2.21557
G01 X-43.27540 Y2.05171
G01 X-43.39562 Y1.91325
G01 X-43.52039 Y1.77889
G01 X-45.30024 Y0.00000
G01 X-46.06864 Y0.00000
G01 X-45.81428 Y0.20856
G01 X-45.60334 Y0.40211
G01 X-43.95236 Y2.05237
G01 X-43.83161 Y2.17741
G01 X-43.71525 Y2.30657
G01 X-43.57914 Y2.46924
G01 X-43.47870 Y2.59626
G01 X-43.31873 Y2.81775
G01 X-43.16588 Y3.05633
G01 X-43.01327 Y3.32824
G01 X-42.89539 Y3.56347
G01 X-42.78625 Y3.81394
G01 X-42.69425 Y4.06044
G01 X-42.60103 Y4.35800
G01 X-42.53263 Y4.62252
G01 X-42.47708 Y4.90037
G01 X-42.43967 Y5.16080
G01 X-42.41076 Y5.47296
G01 X-42.40032 Y5.74883
G01 X-42.40007 Y15.76352
G01 X-42.43512 Y15.77739
G01 X-42.40007 Y15.76352
G01 X-42.23883 Y15.93126
G01 X-42.12354 Y16.06139
G01 X-42.00136 Y16.20876
G01 X-41.81744 Y16.45028
G01 X-41.67561 Y16.65978
G01 X-41.53957 Y16.88498
G01 X-41.39692 Y17.15082
G01 X-41.28430 Y17.38861
G01 X-41.19156 Y17.61310
G01 X-41.10355 Y17.86105
G01 X-41.01960 Y18.14027
G01 X-40.95874 Y18.38584
G01 X-40.91208 Y18.62419
G01 X-40.87706 Y18.86453
G01 X-40.84937 Y19.14578
G01 X-40.83657 Y19.40110
G01 X-40.83517 Y22.38065
G01 X-40.84013 Y22.57488
G01 X-40.85440 Y22.78913
G01 X-40.87952 Y23.02934
G01 X-40.91038 Y23.23960
G01 X-40.95016 Y23.44837
G01 X-40.99626 Y23.64547
G01 X-41.05029 Y23.84052
G01 X-41.13256 Y24.09909
G01 X-41.20998 Y24.30783
G01 X-41.29250 Y24.50366
G01 X-41.41533 Y24.75901
G01 X-41.56989 Y25.04140
G01 X-41.71986 Y25.28181
G01 X-41.88318 Y25.51336
G01 X-42.09016 Y25.77295
G01 X-42.28513 Y25.99230
G01 X-42.50002 Y26.20675
G01 X-42.71975 Y26.40127
G01 X-42.97159 Y26.60178
G01 X-43.22003 Y26.77627
G01 X-43.47858 Y26.93535
G01 X-43.75297 Y27.08346
G01 X-44.01833 Y27.20881
G01 X-44.29056 Y27.31836
G01 X-44.55909 Y27.40881
G01 X-44.72219 Y27.45722
G01 X-44.88426 Y27.49989
G01 X-44.64769 Y27.95527
G01 X-45.37613 Y26.55316
G01 X-45.82782 Y25.63419
G01 X-45.62119 Y25.60942
G01 X-45.40181 Y25.56734
G01 X-45.21533 Y25.51791
G01 X-44.97611 Y25.43955
G01 X-44.79750 Y25.36662
G01 X-44.62394 Y25.28237
G01 X-44.42168 Y25.16995
G01 X-44.23468 Y25.04773
G01 X-44.08091 Y24.93124
G01 X-43.89694 Y24.77468
G01 X-43.75188 Y24.63254
G01 X-43.61678 Y24.48093
G01 X-43.47898 Y24.30780
G01 X-43.35783 Y24.13234
G01 X-43.25432 Y23.95761
G01 X-43.13941 Y23.73363
G01 X-43.07850 Y23.59403
G01 X-43.02813 Y23.46109
G01 X-42.96997 Y23.27935
G01 X-42.93194 Y23.14237
G01 X-42.90042 Y23.00371
G01 X-42.87401 Y22.85370
G01 X-42.85729 Y22.72276
G01 X-42.84124 Y22.54280
G01 X-42.83502 Y22.34999
G01 X-42.83502 Y19.52381
G01 X-42.83840 Y19.38167
G01 X-42.84754 Y19.24997
G01 X-42.86964 Y19.05023
G01 X-42.90245 Y18.86011
G01 X-42.94477 Y18.68228
G01 X-43.00532 Y18.48002
G01 X-43.06346 Y18.31749
G01 X-43.13088 Y18.15856
G01 X-43.20258 Y18.01277
G01 X-43.31500 Y17.81051
G01 X-43.40250 Y17.67360
G01 X-43.49730 Y17.54165
G01 X-43.62983 Y17.37728
G01 X-43.73098 Y17.26339
G01 X-44.40001 Y16.59191
G01 X-44.43745 Y16.60728
G01 X-44.40001 Y16.59191
G01 X-44.40004 Y5.78983
G01 X-44.40690 Y5.59702
G01 X-44.42681 Y5.38683
G01 X-44.45394 Y5.20609
G01 X-44.48962 Y5.03718
G01 X-44.52915 Y4.89006
G01 X-44.59313 Y4.68887
G01 X-44.65122 Y4.53715
G01 X-44.71744 Y4.38876
G01 X-44.81444 Y4.20126
G01 X-44.89585 Y4.06065
G01 X-44.99054 Y3.91630
G01 X-45.09336 Y3.77764
G01 X-45.22790 Y3.61493
G01 X-45.35223 Y3.48097
G01 X-46.97374 Y1.85941
G01 X-47.09208 Y1.74805
G01 X-47.32589 Y1.55618
G01 X-47.43300 Y1.47897
G01 X-47.54336 Y1.40655
G01 X-47.66569 Y1.33408
G01 X-47.81598 Y1.25354
G01 X-47.93473 Y1.19588
G01 X-48.05591 Y1.14351
G01 X-48.17930 Y1.09652
G01 X-48.30460 Y1.05501
G01 X-48.46825 Y1.00714
G01 X-48.60646 Y0.97376
G01 X-48.72606 Y0.95039
G01 X-48.85657 Y0.93058
G01 X-49.02614 Y0.91255
G01 X-49.15784 Y0.90340
G01 X-49.29998 Y0.90002
G01 X-62.96012 Y0.90005
G01 X-63.10224 Y0.90391
G01 X-63.24402 Y0.91448
G01 X-63.42355 Y0.93464
G01 X-63.57384 Y0.95954
G01 X-63.78169 Y1.00714
G01 X-64.01303 Y1.07668
G01 X-64.19403 Y1.14351
G01 X-64.38859 Y1.23076
G01 X-64.61074 Y1.34912
G01 X-64.78333 Y1.45618
G01 X-64.95631 Y1.58087
G01 X-65.14264 Y1.73459
G01 X-65.28338 Y1.86657
G01 X-68.86900 Y5.45277
G01 X-68.98536 Y5.58030
G01 X-69.11909 Y5.74365
G01 X-69.22099 Y5.88302
G01 X-69.31469 Y6.02798
G01 X-69.44177 Y6.25696
G01 X-69.53293 Y6.44970
G01 X-69.61350 Y6.65808
G01 X-69.68752 Y6.89867
G01 X-69.73849 Y7.11617
G01 X-69.77192 Y7.32676
G01 X-69.79496 Y7.57743
G01 X-69.79994 Y7.80852
G01 X-69.41998 Y8.26961
G01 X-69.29994 Y8.44291
G01 X-69.29986 Y7.72952
G01 X-69.29389 Y7.57629
G01 X-69.27779 Y7.40575
G01 X-69.26077 Y7.28424
G01 X-69.23344 Y7.14372
G01 X-69.20088 Y7.01484
G01 X-69.14769 Y6.84129
G01 X-69.09455 Y6.69742
G01 X-69.02826 Y6.54787
G01 X-68.94934 Y6.39580
G01 X-68.87238 Y6.26316
G01 X-68.78744 Y6.13547
G01 X-68.70123 Y6.02120
G01 X-68.58493 Y5.88185
G01 X-68.47985 Y5.77012
G01 X-64.92260 Y2.21290
G01 X-64.81811 Y2.11503
G01 X-64.69469 Y2.01158
G01 X-64.53096 Y1.88910
G01 X-64.35776 Y1.78041
G01 X-64.14287 Y1.66728
G01 X-63.94539 Y1.58308
G01 X-63.71460 Y1.50757
G01 X-63.51626 Y1.45788
G01 X-63.32466 Y1.42585
G01 X-63.08286 Y1.40355
G01 X-62.94999 Y1.40002
G01 X-49.28974 Y1.40005
G01 X-49.06510 Y1.41107
G01 X-48.90498 Y1.42852
G01 X-48.77379 Y1.44991
G01 X-48.59439 Y1.49098
G01 X-48.38156 Y1.55552
G01 X-48.21903 Y1.61709
G01 X-48.06114 Y1.68979
G01 X-47.87448 Y1.79065
G01 X-47.71898 Y1.88910
G01 X-47.57918 Y1.99235
G01 X-47.40897 Y2.13550
G01 X-47.32010 Y2.22011
G01 X-45.72010 Y3.82011
G01 X-45.60827 Y3.93951
G01 X-45.44865 Y4.13588
G01 X-45.37758 Y4.23591
G01 X-45.31683 Y4.33057
G01 X-45.26039 Y4.42786
G01 X-45.18520 Y4.57030
G01 X-45.13318 Y4.68145
G01 X-45.09036 Y4.78546
G01 X-45.04903 Y4.90098
G01 X-45.00471 Y5.04515
G01 X-44.95183 Y5.26377
G01 X-44.91883 Y5.48625
G01 X-44.90537 Y5.63646
G01 X-44.90019 Y5.76931
G01 X-44.90001 Y16.79903
G01 X-44.93796 Y16.81472
G01 X-44.90001 Y16.79903
G01 X-44.15511 Y17.54393
G01 X-44.01655 Y17.69430
G01 X-43.92734 Y17.80301
G01 X-43.85346 Y17.90095
G01 X-43.77345 Y18.01965
G01 X-43.70532 Y18.13382
G01 X-43.62478 Y18.28498
G01 X-43.56006 Y18.42404
G01 X-43.51449 Y18.53796
G01 X-43.47152 Y18.66374
G01 X-43.42333 Y18.82813
G01 X-43.38881 Y18.97756
G01 X-43.36936 Y19.08833
G01 X-43.35384 Y19.21007
G01 X-43.34038 Y19.36029
G01 X-43.33519 Y19.49313
G01 X-43.33502 Y22.34999
G01 X-43.33804 Y22.47265
G01 X-43.34607 Y22.58484
G01 X-43.36636 Y22.76521
G01 X-43.38683 Y22.88619
G01 X-43.41571 Y23.01596
G01 X-43.44843 Y23.13422
G01 X-43.50400 Y23.30699
G01 X-43.55208 Y23.43092
G01 X-43.60669 Y23.55210
G01 X-43.70532 Y23.73996
G01 X-43.79559 Y23.88850
G01 X-43.90217 Y24.03853
G01 X-44.03654 Y24.20275
G01 X-44.15511 Y24.32985
G01 X-44.28221 Y24.44841
G01 X-44.44642 Y24.58278
G01 X-44.60502 Y24.69495
G01 X-44.75391 Y24.78461
G01 X-44.95129 Y24.88707
G01 X-45.11091 Y24.95588
G01 X-45.27492 Y25.01344
G01 X-45.46900 Y25.06924
G01 X-45.64906 Y25.10737
G01 X-45.82124 Y25.13112
G01 X-46.06265 Y25.14887
G01 X-45.82782 Y25.63419
G01 X-46.51997 Y24.21125
G01 X-46.51997 Y23.04966
G01 X-46.59554 Y23.00394
G01 X-46.68650 Y22.92927
G01 X-46.76996 Y22.83498
G01 X-46.76996 Y22.81878
G01 X-46.76996 Y22.83498
G01 X-46.85345 Y22.92927
G01 X-46.94441 Y23.00394
G01 X-47.01995 Y23.04966
G01 X-47.01995 Y23.59017
G01 X-47.06981 Y23.60516
G01 X-47.01995 Y23.59017
G01 X-47.01995 Y23.65632
G01 X-47.30778 Y23.35964
G01 X-47.35568 Y23.30676
G01 X-47.48779 Y23.14425
G01 X-47.51250 Y23.14181
G01 X-47.39516 Y23.14989
G01 X-47.25855 Y23.13643
G01 X-47.11710 Y23.09625
G01 X-47.01995 Y23.04966
G01 X-47.10793 Y23.09274
G01 X-47.22973 Y23.13041
G01 X-47.27793 Y23.13950
G01 X-47.36574 Y23.14844
G01 X-47.44420 Y23.14844
G01 X-47.57064 Y23.13259
G01 X-47.70201 Y23.09274
G01 X-47.74677 Y23.07265
G01 X-47.84120 Y23.02053
G01 X-47.87336 Y22.99813
G01 X-47.88510 Y22.97587
G01 X-47.87496 Y22.99513
G01 X-47.87506 Y23.59972
G01 X-47.88421 Y23.70722
G01 X-47.89693 Y23.77468
G01 X-47.92871 Y23.87778
G01 X-47.95230 Y23.93170
G01 X-47.99922 Y24.01783
G01 X-48.03287 Y24.06614
G01 X-48.10242 Y24.14859
G01 X-49.02639 Y25.07252
G01 X-49.14059 Y25.16515
G01 X-49.27892 Y25.23907
G01 X-49.42898 Y25.28458
G01 X-49.58507 Y25.29997
G01 X-56.16859 Y25.29997
G01 X-56.19996 Y25.33134
G01 X-56.20007 Y25.91026
G01 X-56.21045 Y26.02751
G01 X-56.22193 Y26.08524
G01 X-56.25371 Y26.18834
G01 X-56.27731 Y26.24226
G01 X-56.31917 Y26.31996
G01 X-56.35788 Y26.37666
G01 X-56.43428 Y26.46617
G01 X-56.52376 Y26.54257
G01 X-56.58048 Y26.58128
G01 X-56.68480 Y26.63574
G01 X-56.79630 Y26.67317
G01 X-56.87294 Y26.68999
G01 X-56.98035 Y26.70007
G01 X-57.02940 Y26.69959
G01 X-57.11726 Y26.69123
G01 X-57.19422 Y26.67594
G01 X-57.31515 Y26.63574
G01 X-57.42790 Y26.57622
G01 X-57.46841 Y26.54854
G01 X-57.53684 Y26.49281
G01 X-57.59232 Y26.43734
G01 X-57.66516 Y26.34493
G01 X-57.72701 Y26.23345
G01 X-57.74954 Y26.17909
G01 X-57.78040 Y26.07569
G01 X-57.78950 Y26.02751
G01 X-57.79910 Y25.92987
G01 X-57.79988 Y24.99015
G01 X-57.78642 Y24.85354
G01 X-57.75267 Y24.73066
G01 X-57.71810 Y24.64946
G01 X-57.68078 Y24.58047
G01 X-57.64807 Y24.53152
G01 X-57.57253 Y24.44128
G01 X-57.05866 Y23.92741
G01 X-56.94444 Y23.83478
G01 X-56.91594 Y23.81712
G01 X-56.89808 Y23.81885
G01 X-56.91594 Y23.81712
G01 X-56.98383 Y23.86401
G01 X-57.05866 Y23.92741
G01 X-57.18183 Y24.05042
G01 X-57.88843 Y24.04994
G01 X-57.91789 Y24.07940
G01 X-57.88843 Y24.04994
G01 X-57.90872 Y24.04994
G01 X-58.00405 Y24.36581
G01 X-58.05653 Y24.61633
G01 X-58.08269 Y24.85763
G01 X-58.09358 Y25.12540
G01 X-58.12175 Y25.39294
G01 X-58.18193 Y25.68054
G01 X-58.25482 Y25.91892
G01 X-58.29254 Y26.02497
G01 X-58.27969 Y26.12868
G01 X-58.25693 Y26.22944
G01 X-58.22462 Y26.33505
G01 X-58.19082 Y26.42169
G01 X-58.12640 Y26.54762
G01 X-58.07799 Y26.62700
G01 X-58.02894 Y26.69350
G01 X-57.93725 Y26.80119
G01 X-57.87789 Y26.85872
G01 X-57.78492 Y26.93586
G01 X-57.71792 Y26.98422
G01 X-57.64713 Y27.02690
G01 X-57.53999 Y27.08272
G01 X-57.44436 Y27.12174
G01 X-57.31899 Y27.16017
G01 X-57.23837 Y27.17838
G01 X-57.15653 Y27.18989
G01 X-57.02582 Y27.20012
G01 X-56.90197 Y27.19565
G01 X-56.80240 Y27.18499
G01 X-56.73118 Y27.17234
G01 X-56.56537 Y27.12512
G01 X-56.44134 Y27.07373
G01 X-56.30817 Y27.00091
G01 X-56.19892 Y26.92291
G01 X-56.12206 Y26.85872
G01 X-56.06987 Y26.80866
G01 X-55.95823 Y26.67726
G01 X-55.91622 Y26.61839
G01 X-55.87855 Y26.55667
G01 X-55.82671 Y26.45910
G01 X-55.79697 Y26.39317
G01 X-55.77208 Y26.32525
G01 X-55.74027 Y26.21945
G01 X-55.72397 Y26.14902
G01 X-55.71279 Y26.07754
G01 X-55.70118 Y25.94953
G01 X-55.69999 Y25.79995
G01 X-55.83042 Y25.66256
G01 X-55.69999 Y25.79995
G01 X-49.58507 Y25.79995
G01 X-49.50661 Y25.79688
G01 X-49.37724 Y25.78296
G01 X-49.28606 Y25.76485
G01 X-49.17011 Y25.73099
G01 X-49.10193 Y25.70683
G01 X-49.02642 Y25.67320
G01 X-48.91989 Y25.61628
G01 X-48.85002 Y25.57216
G01 X-48.78400 Y25.52243
G01 X-48.68697 Y25.43970
G01 X-47.75576 Y24.50915
G01 X-47.70244 Y24.45149
G01 X-47.61471 Y24.34186
G01 X-47.54855 Y24.23706
G01 X-47.47593 Y24.09218
G01 X-47.42835 Y23.95370
G01 X-47.04306 Y24.34859
G01 X-47.11730 Y24.49040
G01 X-47.17555 Y24.58570
G01 X-47.24695 Y24.68443
G01 X-47.34441 Y24.80155
G01 X-48.34245 Y25.80208
G01 X-48.49858 Y25.93426
G01 X-48.63206 Y26.02674
G01 X-48.81748 Y26.12763
G01 X-48.97691 Y26.19365
G01 X-49.13996 Y26.24351
G01 X-49.26884 Y26.27188
G01 X-49.45898 Y26.29464
G01 X-49.58507 Y26.29995
G01 X-55.24503 Y26.29995
G01 X-55.31632 Y26.20287
G01 X-55.24503 Y26.29995
G01 X-55.29344 Y26.47010
G01 X-55.33507 Y26.58461
G01 X-55.39519 Y26.71338
G01 X-55.44731 Y26.80978
G01 X-55.49496 Y26.88778
G01 X-55.57825 Y27.00292
G01 X-55.70235 Y27.14782
G01 X-55.80522 Y27.24589
G01 X-55.94589 Y27.35923
G01 X-56.05564 Y27.43256
G01 X-56.19605 Y27.50995
G01 X-56.31584 Y27.56538
G01 X-56.43034 Y27.60701
G01 X-56.58437 Y27.65156
G01 X-56.72386 Y27.67881
G01 X-56.94413 Y27.69941
G01 X-57.03552 Y27.70002
G01 X-57.13689 Y27.69418
G01 X-57.25597 Y27.68163
G01 X-57.35612 Y27.66487
G01 X-57.45490 Y27.64135
G01 X-57.58891 Y27.60071
G01 X-57.68411 Y27.56538
G01 X-57.77669 Y27.52367
G01 X-57.90044 Y27.45814
G01 X-57.97875 Y27.41102
G01 X-58.07034 Y27.34709
G01 X-58.16369 Y27.27211
G01 X-58.23252 Y27.21201
G01 X-58.29760 Y27.14782
G01 X-58.36514 Y27.07201
G01 X-58.45873 Y26.95456
G01 X-58.52140 Y26.86210
G01 X-58.57227 Y26.77422
G01 X-58.29254 Y26.02497
G01 X-58.63933 Y26.95514
G01 X-58.98706 Y27.87310
G01 X-58.86811 Y27.98542
G01 X-58.73674 Y28.09532
G01 X-58.62282 Y28.18199
G01 X-58.50412 Y28.26200
G01 X-58.38104 Y28.33510
G01 X-58.21131 Y28.42428
G01 X-58.07146 Y28.48729
G01 X-57.93770 Y28.53827
G01 X-57.76460 Y28.59288
G01 X-57.61622 Y28.63167
G01 X-57.47583 Y28.65958
G01 X-57.32389 Y28.68054
G01 X-57.14307 Y28.69634
G01 X-56.98975 Y28.70040
G01 X-56.83646 Y28.69507
G01 X-56.65574 Y28.67828
G01 X-56.49392 Y28.65427
G01 X-56.33400 Y28.61973
G01 X-56.13992 Y28.56393
G01 X-55.99499 Y28.51374
G01 X-55.84411 Y28.45051
G01 X-55.70670 Y28.38239
G01 X-55.54807 Y28.29420
G01 X-55.39382 Y28.19385
G01 X-55.26321 Y28.09532
G01 X-55.09387 Y27.95115
G01 X-54.97022 Y27.82900
G01 X-54.85534 Y27.69855
G01 X-54.77342 Y27.59713
G01 X-54.70073 Y27.49827
G01 X-54.63845 Y27.40462
G01 X-54.57566 Y27.29992
G01 X-54.60804 Y27.23993
G01 X-54.57566 Y27.29992
G01 X-49.55438 Y27.29974
G01 X-49.36038 Y27.28981
G01 X-49.22050 Y27.27536
G01 X-49.10922 Y27.25908
G01 X-48.90917 Y27.21673
G01 X-48.69579 Y27.15410
G01 X-48.57054 Y27.10957
G01 X-48.45718 Y27.06261
G01 X-48.34626 Y27.01016
G01 X-48.22193 Y26.94447
G01 X-48.02949 Y26.82806
G01 X-47.92919 Y26.75740
G01 X-47.84037 Y26.68839
G01 X-47.71695 Y26.58494
G01 X-47.61245 Y26.48704
G01 X-46.67357 Y25.54798
G01 X-46.59005 Y25.45806
G01 X-46.51278 Y25.36657
G01 X-46.97628 Y24.41633
G01 X-47.67704 Y23.69716
G01 X-47.73783 Y23.62924
G01 X-47.87496 Y23.46152
G01 X-46.51997 Y23.04966
G01 X-46.43201 Y23.09274
G01 X-46.32922 Y23.12546
G01 X-46.26201 Y23.13950
G01 X-46.16440 Y23.14910
G01 X-46.09574 Y23.14844
G01 X-45.98855 Y23.13643
G01 X-45.87502 Y23.10562
G01 X-45.81980 Y23.08525
G01 X-45.69874 Y23.02053
G01 X-45.60565 Y22.94862
G01 X-45.54908 Y22.89424
G01 X-45.47532 Y22.80255
G01 X-45.41230 Y22.69178
G01 X-45.38228 Y22.61928
G01 X-45.35035 Y22.50605
G01 X-45.33585 Y22.37941
G01 X-45.33506 Y19.51398
G01 X-45.34852 Y19.37738
G01 X-45.38228 Y19.25450
G01 X-45.40794 Y19.19079
G01 X-45.45922 Y19.09587
G01 X-45.49287 Y19.04759
G01 X-45.55569 Y18.97228
G01 X-46.89996 Y17.62742
G01 X-46.89996 Y5.79999
G01 X-46.90814 Y5.69244
G01 X-46.91736 Y5.63430
G01 X-46.94728 Y5.53067
G01 X-46.97293 Y5.46697
G01 X-47.04032 Y5.34741
G01 X-47.12741 Y5.24129
G01 X-48.74844 Y3.62069
G01 X-48.85550 Y3.53479
G01 X-48.96696 Y3.47294
G01 X-49.04001 Y3.44434
G01 X-49.11519 Y3.42194
G01 X-49.17293 Y3.41046
G01 X-49.29998 Y3.39997
G01 X-62.99898 Y3.40238
G01 X-63.12522 Y3.41955
G01 X-63.26515 Y3.46471
G01 X-63.39444 Y3.53479
G01 X-63.50150 Y3.62069
G01 X-67.06568 Y7.18429
G01 X-67.13593 Y7.26613
G01 X-67.17053 Y7.31375
G01 X-67.22702 Y7.41698
G01 X-67.25562 Y7.49003
G01 X-67.28643 Y7.60357
G01 X-67.29989 Y7.74017
G01 X-67.29959 Y11.98809
G01 X-67.28643 Y12.11489
G01 X-67.25562 Y12.22840
G01 X-67.22702 Y12.30147
G01 X-67.17053 Y12.40470
G01 X-67.14208 Y12.44468
G01 X-67.07256 Y12.52713
G01 X-66.74950 Y12.85034
G01 X-66.74950 Y17.33860
G01 X-70.59231 Y21.18360
G01 X-70.66516 Y21.27601
G01 X-70.72264 Y21.37867
G01 X-70.75267 Y21.45116
G01 X-70.78459 Y21.56440
G01 X-70.79844 Y21.68124
G01 X-70.79844 Y21.75970
G01 X-70.78459 Y21.87654
G01 X-70.75561 Y21.98042
G01 X-70.72701 Y22.05347
G01 X-70.67573 Y22.14839
G01 X-70.64207 Y22.19668
G01 X-70.56567 Y22.28616
G01 X-70.48383 Y22.35642
G01 X-70.43621 Y22.39101
G01 X-70.33298 Y22.44750
G01 X-70.26928 Y22.47316
G01 X-70.15604 Y22.50509
G01 X-70.04898 Y22.51807
G01 X-69.98035 Y22.52007
G01 X-69.87294 Y22.50999
G01 X-69.80573 Y22.49594
G01 X-69.69382 Y22.45957
G01 X-69.58899 Y22.40615
G01 X-69.53941 Y22.37443
G01 X-69.43428 Y22.28616
G01 X-65.38379 Y18.23568
G01 X-65.28984 Y18.12254
G01 X-65.22245 Y18.00299
G01 X-65.19992 Y17.94861
G01 X-65.16906 Y17.84523
G01 X-65.15872 Y17.78726
G01 X-65.14988 Y17.68960
G01 X-65.14948 Y15.86558
G01 X-65.07414 Y15.69024
G01 X-64.94402 Y15.45344
G01 X-64.80139 Y15.24079
G01 X-64.57470 Y14.96098
G01 X-64.57470 Y12.52205
G01 X-64.58019 Y12.34844
G01 X-64.61191 Y12.05055
G01 X-64.66401 Y11.78938
G01 X-64.76025 Y11.46475
G01 X-64.83436 Y11.27150
G01 X-64.84577 Y11.22716
G01 X-64.85209 Y11.18171
G01 X-64.84996 Y8.53699
G01 X-64.84516 Y8.48822
G01 X-64.85458 Y8.48634
G01 X-64.84516 Y8.48822
G01 X-64.83093 Y8.44131
G01 X-63.96144 Y6.34284
G01 X-64.46187 Y7.55033
G01 X-65.20000 Y8.28845
G01 X-65.23805 Y8.27270
G01 X-65.20000 Y8.28845
G01 X-65.20000 Y11.43000
G01 X-65.23731 Y11.44532
G01 X-65.20000 Y11.43000
G01 X-65.01648 Y11.61379
G01 X-64.90147 Y11.75045
G01 X-64.86007 Y11.80973
G01 X-64.82304 Y11.87186
G01 X-64.77622 Y11.96038
G01 X-64.74648 Y12.02629
G01 X-64.72159 Y12.09421
G01 X-64.68979 Y12.20000
G01 X-64.66360 Y12.33165
G01 X-64.64955 Y12.50917
G01 X-64.64950 Y15.05174
G01 X-64.80104 Y15.24104
G01 X-64.94358 Y15.45369
G01 X-65.07363 Y15.69049
G01 X-65.14948 Y15.86558
G01 X-65.14948 Y12.51900
G01 X-65.15997 Y12.39195
G01 X-65.17401 Y12.32474
G01 X-65.21039 Y12.21285
G01 X-65.26380 Y12.10803
G01 X-65.29553 Y12.05845
G01 X-65.37691 Y11.96033
G01 X-65.69997 Y11.63711
G01 X-65.69997 Y8.08137
G01 X-62.61859 Y4.99999
G01 X-62.38133 Y4.99999
G01 X-62.35682 Y4.98983
G01 X-62.38133 Y4.99999
G01 X-63.26566 Y5.88432
G01 X-63.34206 Y5.97378
G01 X-63.38565 Y6.03900
G01 X-63.44275 Y6.15295
G01 X-63.48039 Y6.27474
G01 X-63.48948 Y6.32295
G01 X-63.49843 Y6.41076
G01 X-63.49997 Y6.53550
G01 X-64.34996 Y8.58670
G01 X-64.34996 Y11.13513
G01 X-64.28367 Y11.31346
G01 X-64.17676 Y11.67354
G01 X-64.11775 Y11.97097
G01 X-64.08042 Y12.31770
G01 X-64.07473 Y12.51900
G01 X-64.07473 Y14.94902
G01 X-63.70325 Y15.31816
G01 X-63.57336 Y15.43952
G01 X-63.49992 Y15.49999
G01 X-63.57336 Y15.43952
G01 X-63.70325 Y15.31816
G01 X-63.99995 Y15.02146
G01 X-63.99995 Y7.74169
G01 X-63.49997 Y6.53550
G01 X-63.49987 Y15.50685
G01 X-63.48948 Y15.62407
G01 X-63.47267 Y15.70071
G01 X-63.43119 Y15.82118
G01 X-63.40338 Y15.87500
G01 X-63.38631 Y15.88546
G01 X-63.40338 Y15.87500
G01 X-63.83111 Y15.87500
G01 X-63.96815 Y15.75638
G01 X-64.30663 Y15.42186
G01 X-64.39591 Y15.53413
G01 X-64.51803 Y15.71625
G01 X-64.62433 Y15.90992
G01 X-64.68727 Y16.05620
G01 X-64.69395 Y16.06172
G01 X-64.61666 Y16.00139
G01 X-64.52265 Y15.94851
G01 X-64.45948 Y15.92161
G01 X-64.35590 Y15.89141
G01 X-64.21961 Y15.87538
G01 X-63.83111 Y15.87500
G01 X-64.20980 Y15.87508
G01 X-64.32697 Y15.88595
G01 X-64.38448 Y15.89857
G01 X-64.47790 Y15.92842
G01 X-64.52265 Y15.94851
G01 X-64.60846 Y15.99601
G01 X-64.65608 Y16.03063
G01 X-64.73718 Y16.10167
G01 X-64.80653 Y16.18432
G01 X-64.84409 Y16.24178
G01 X-64.89289 Y16.33797
G01 X-64.92641 Y16.44051
G01 X-64.94046 Y16.50771
G01 X-64.94960 Y16.60535
G01 X-64.94912 Y17.90443
G01 X-64.94046 Y17.99227
G01 X-64.92641 Y18.05948
G01 X-64.89289 Y18.16199
G01 X-64.85034 Y18.24672
G01 X-64.87752 Y18.51434
G01 X-64.88852 Y18.68322
G01 X-64.88854 Y18.74794
G01 X-64.50068 Y18.80342
G01 X-64.32385 Y18.82089
G01 X-64.19693 Y18.82498
G01 X-63.77554 Y18.82734
G01 X-63.61831 Y18.83976
G01 X-63.50724 Y18.72518
G01 X-63.42121 Y18.62498
G01 X-64.20980 Y18.62488
G01 X-64.30752 Y18.61673
G01 X-64.37500 Y18.60398
G01 X-64.45948 Y18.57837
G01 X-64.50498 Y18.56003
G01 X-64.59172 Y18.51421
G01 X-64.64066 Y18.48152
G01 X-64.70889 Y18.42552
G01 X-64.75052 Y18.38388
G01 X-64.81237 Y18.30776
G01 X-64.85034 Y18.24672
G01 X-64.81237 Y18.30776
G01 X-64.74391 Y18.39117
G01 X-64.70150 Y18.43197
G01 X-64.62476 Y18.49305
G01 X-64.57457 Y18.52381
G01 X-64.48699 Y18.56791
G01 X-64.38448 Y18.60141
G01 X-64.32697 Y18.61403
G01 X-64.20000 Y18.62498
G01 X-63.36076 Y18.62346
G01 X-63.25367 Y18.61058
G01 X-63.14981 Y18.58150
G01 X-63.10394 Y18.56405
G01 X-63.04999 Y18.53695
G01 X-63.03983 Y18.52000
G01 X-63.04999 Y18.53695
G01 X-63.04999 Y18.96072
G01 X-63.09449 Y19.01429
G01 X-63.20290 Y19.13054
G01 X-63.14183 Y19.22734
G01 X-63.04999 Y19.39869
G01 X-63.04999 Y18.96072
G01 X-63.04999 Y24.41859
G01 X-63.79134 Y25.15994
G01 X-64.78400 Y25.16236
G01 X-64.89106 Y25.17534
G01 X-65.00429 Y25.20726
G01 X-65.06799 Y25.23292
G01 X-65.17122 Y25.28941
G01 X-65.27185 Y25.36761
G01 X-65.32733 Y25.42309
G01 X-65.40017 Y25.51549
G01 X-65.45765 Y25.61816
G01 X-65.48768 Y25.69065
G01 X-65.51960 Y25.80389
G01 X-65.53345 Y25.92073
G01 X-65.53345 Y25.99919
G01 X-65.51960 Y26.11600
G01 X-65.48455 Y26.23858
G01 X-65.45311 Y26.31044
G01 X-65.38895 Y26.42052
G01 X-65.30754 Y26.51864
G01 X-65.21120 Y26.60206
G01 X-65.14597 Y26.64564
G01 X-65.06799 Y26.68699
G01 X-65.02286 Y26.70622
G01 X-64.89106 Y26.74457
G01 X-64.75461 Y26.75956
G01 X-63.43056 Y26.75908
G01 X-63.29431 Y26.74257
G01 X-63.15385 Y26.69906
G01 X-63.02375 Y26.63050
G01 X-62.92314 Y26.55230
G01 X-61.67742 Y25.30866
G01 X-61.59035 Y25.20254
G01 X-61.58377 Y25.19284
G01 X-61.58070 Y25.16807
G01 X-61.58377 Y25.19284
G01 X-61.57156 Y25.22789
G01 X-61.51423 Y25.34171
G01 X-61.46937 Y25.40607
G01 X-61.39116 Y25.49393
G01 X-61.29978 Y25.56805
G01 X-61.19764 Y25.62644
G01 X-61.12518 Y25.65646
G01 X-61.01166 Y25.68740
G01 X-60.87499 Y25.70000
G01 X-59.59556 Y25.69911
G01 X-59.48832 Y25.68740
G01 X-59.38418 Y25.65944
G01 X-59.31111 Y25.63084
G01 X-59.21652 Y25.57897
G01 X-59.16889 Y25.54435
G01 X-59.09465 Y25.48031
G01 X-59.03062 Y25.40607
G01 X-58.99602 Y25.35845
G01 X-58.94852 Y25.27264
G01 X-58.92493 Y25.21872
G01 X-58.89600 Y25.12499
G01 X-58.88325 Y25.05753
G01 X-58.87499 Y24.94999
G01 X-58.87740 Y24.10097
G01 X-58.89140 Y23.99406
G01 X-58.92162 Y23.89050
G01 X-58.94852 Y23.82733
G01 X-59.00692 Y23.72520
G01 X-59.06800 Y23.64849
G01 X-59.10882 Y23.60605
G01 X-59.18431 Y23.54346
G01 X-59.25040 Y23.50115
G01 X-59.33798 Y23.45708
G01 X-59.44050 Y23.42358
G01 X-59.50770 Y23.40950
G01 X-59.61517 Y23.40008
G01 X-60.87499 Y23.39998
G01 X-61.00199 Y23.41095
G01 X-61.05949 Y23.42358
G01 X-61.15289 Y23.45342
G01 X-61.19764 Y23.47351
G01 X-61.28344 Y23.52101
G01 X-61.33107 Y23.55560
G01 X-61.40531 Y23.61966
G01 X-61.44997 Y23.67026
G01 X-61.46010 Y23.69863
G01 X-61.44997 Y23.67026
G01 X-61.44997 Y23.13010
G01 X-61.35926 Y22.99998
G01 X-61.44997 Y22.86983
G01 X-61.44997 Y23.13010
G01 X-61.44994 Y22.32975
G01 X-61.46010 Y22.30135
G01 X-61.44994 Y22.32975
G01 X-61.41220 Y22.37331
G01 X-61.36897 Y22.41326
G01 X-61.29167 Y22.47359
G01 X-61.17102 Y22.53905
G01 X-61.04161 Y22.58108
G01 X-60.98657 Y22.66320
G01 X-60.91890 Y22.74997
G01 X-58.97631 Y22.74997
G01 X-58.97865 Y22.57171
G01 X-58.99747 Y22.37631
G01 X-59.01337 Y22.28378
G01 X-58.98088 Y22.23318
G01 X-58.93994 Y22.15500
G01 X-58.92162 Y22.10948
G01 X-58.89856 Y22.03447
G01 X-58.88452 Y21.96727
G01 X-58.87585 Y21.87943
G01 X-58.87502 Y21.85601
G01 X-58.88515 Y21.82924
G01 X-58.87502 Y21.85601
G01 X-58.86567 Y21.86567
G01 X-56.91398 Y23.81730
G01 X-57.18096 Y23.55035
G01 X-57.88845 Y23.54997
G01 X-58.07243 Y23.36597
G01 X-57.88845 Y23.54997
G01 X-57.94990 Y23.54997
G01 X-58.09518 Y23.33191
G01 X-58.13936 Y23.27234
G01 X-58.29059 Y23.08690
G01 X-58.47667 Y22.89668
G01 X-58.47883 Y22.54128
G01 X-58.50042 Y22.32195
G01 X-58.51754 Y22.21375
G01 X-58.87502 Y21.85601
G01 X-58.88759 Y21.98665
G01 X-58.91850 Y22.10016
G01 X-58.94852 Y22.17265
G01 X-58.98576 Y22.24171
G01 X-59.01261 Y22.28279
G01 X-59.09465 Y22.38032
G01 X-59.18431 Y22.45652
G01 X-59.22485 Y22.48418
G01 X-59.29361 Y22.52193
G01 X-59.37481 Y22.55650
G01 X-59.48832 Y22.58741
G01 X-59.61517 Y22.59988
G01 X-60.88482 Y22.59988
G01 X-60.98253 Y22.59173
G01 X-61.05002 Y22.57897
G01 X-61.05002 Y23.42098
G01 X-61.04161 Y23.41888
G01 X-60.98657 Y23.33678
G01 X-60.91888 Y23.24997
G01 X-58.83046 Y23.24997
G01 X-58.67377 Y23.40922
G01 X-58.52978 Y23.58476
G01 X-58.47116 Y23.66924
G01 X-58.44329 Y23.74433
G01 X-58.41431 Y23.84074
G01 X-58.39610 Y23.92136
G01 X-58.39724 Y23.93714
G01 X-58.39475 Y23.92906
G01 X-58.40915 Y23.86073
G01 X-58.44654 Y23.73452
G01 X-58.47116 Y23.66924
G01 X-58.50758 Y23.61466
G01 X-58.36399 Y23.83147
G01 X-58.48850 Y24.24024
G01 X-58.55114 Y24.53660
G01 X-58.58086 Y24.81461
G01 X-58.59178 Y25.08245
G01 X-58.61093 Y25.27648
G01 X-58.65675 Y25.51572
G01 X-58.73140 Y25.76764
G01 X-58.92612 Y26.29662
G01 X-59.85878 Y28.75752
G01 X-60.02083 Y29.19992
G01 X-60.37133 Y29.19992
G01 X-60.02083 Y29.19992
G01 X-60.19030 Y29.69910
G01 X-60.29742 Y29.39344
G01 X-60.90602 Y27.80937
G01 X-61.09056 Y27.26416
G01 X-61.22604 Y26.77239
G01 X-61.32830 Y26.26794
G01 X-61.33856 Y26.19880
G01 X-61.37110 Y25.87846
G01 X-61.37458 Y25.60256
G01 X-61.36881 Y25.51339
G01 X-61.37458 Y25.60256
G01 X-61.37407 Y25.81791
G01 X-61.34786 Y26.10703
G01 X-61.18423 Y26.16065
G01 X-61.05258 Y26.18684
G01 X-60.88482 Y26.19992
G01 X-59.62498 Y26.19997
G01 X-59.54654 Y26.19690
G01 X-59.43717 Y26.18544
G01 X-59.33575 Y26.16584
G01 X-59.22917 Y26.13485
G01 X-59.16099 Y26.11064
G01 X-59.08548 Y26.07706
G01 X-58.98759 Y26.02474
G01 X-58.91771 Y25.98059
G01 X-58.85972 Y25.93736
G01 X-58.76267 Y25.85474
G01 X-59.04062 Y26.59906
G01 X-59.06483 Y26.60721
G01 X-59.19945 Y26.64706
G01 X-59.31852 Y26.67287
G01 X-59.47796 Y26.69273
G01 X-59.59343 Y26.69964
G01 X-60.90653 Y26.69964
G01 X-61.10107 Y26.68466
G01 X-61.24892 Y26.65948
G01 X-61.20511 Y26.85598
G01 X-61.11240 Y27.18625
G01 X-60.99891 Y27.19611
G01 X-60.89566 Y27.19984
G01 X-59.60433 Y27.19984
G01 X-59.44954 Y27.19225
G01 X-59.25622 Y27.16939
G01 X-59.45403 Y27.69408
G01 X-59.61477 Y27.69992
G01 X-60.94534 Y27.69895
G01 X-60.75571 Y28.19994
G01 X-59.64789 Y28.19994
G01 X-59.83702 Y28.69992
G01 X-60.56231 Y28.69992
G04 P0 ( dwell for no time -- G64 should not smooth over this point )
G00 Z1.00000 ( retract )

G00 X-65.45537 Y23.28466 ( rapid move to begin. )
G01 F20.00000
( Mill infeed pass 1/1 )
G01 Z-0.30000
G04 P0 ( dwell for no time -- G64 should not smooth over this point )
G01 F30.00000
G01 X-65.45537 Y23.28466
G01 X-65.55273 Y23.23841
G01 X-65.65819 Y23.18222
G01 X-65.81252 Y23.08733
G01 X-65.95765 Y22.97885
G01 X-66.04922 Y22.90209
G01 X-66.13025 Y22.82660
G01 X-66.25991 Y22.68604
G01 X-66.39517 Y22.51238
G01 X-66.49240 Y22.35949
G01 X-66.59319 Y22.16661
G01 X-66.54714 Y21.94489
G01 X-66.42390 Y21.53661
G01 X-66.29997 Y21.21926
G01 X-66.29629 Y21.33008
G01 X-66.28211 Y21.47123
G01 X-66.26329 Y21.58131
G01 X-66.23634 Y21.68970
G01 X-66.19748 Y21.81400
G01 X-66.15278 Y21.92736
G01 X-66.10858 Y22.01878
G01 X-66.03520 Y22.15022
G01 X-65.96718 Y22.25129
G01 X-65.87980 Y22.36117
G01 X-65.81224 Y22.43699
G01 X-65.73972 Y22.50803
G01 X-65.62466 Y22.60514
G01 X-65.54320 Y22.66577
G01 X-65.44909 Y22.72591
G01 X-65.34376 Y22.78357
G01 X-65.24305 Y22.83183
G01 X-65.13901 Y22.87247
G01 X-65.00492 Y22.91413
G01 X-64.89637 Y22.94034
G01 X-64.78615 Y22.95840
G01 X-64.65509 Y22.97128
G01 X-64.40350 Y22.97496
G01 X-64.05385 Y22.62530
G01 X-63.91199 Y22.47499
G01 X-64.61867 Y22.47262
G01 X-64.78877 Y22.45195
G01 X-64.94582 Y22.40984
G01 X-65.02357 Y22.38179
G01 X-65.09873 Y22.34743
G01 X-65.20520 Y22.28924
G01 X-65.28250 Y22.23760
G01 X-65.36911 Y22.16818
G01 X-65.43020 Y22.11250
G01 X-65.48648 Y22.05200
G01 X-65.55641 Y21.96577
G01 X-65.62984 Y21.85340
G01 X-65.67706 Y21.76450
G01 X-65.71064 Y21.68896
G01 X-65.76329 Y21.52424
G01 X-65.77886 Y21.45363
G01 X-65.78930 Y21.38205
G01 X-65.79992 Y21.23481
G01 X-65.79992 Y20.26516
G01 X-65.78930 Y20.11792
G01 X-65.77302 Y20.01695
G04 P0 ( dwell for no time -- G64 should not smooth over this point )
G00 Z1.00000 ( retract )

G00 X-72.05000 Y20.71164 ( rapid move to begin. )
G01 F20.00000
( Mill infeed pass 1/1 )
G01 Z-0.30000
G04 P0 ( dwell for no time -- G64 should not smooth over this point )
G01 F30.00000
G01 X-72.05000 Y20.71164
G01 X-72.05000 Y19.84555
G01 X-72.08802 Y19.82981
G01 X-72.05000 Y19.84555
G01 X-68.66941 Y16.46161
G01 X-68.57195 Y16.34447
G01 X-68.50052 Y16.24576
G01 X-68.43738 Y16.14157
G01 X-68.35935 Y15.98999
G01 X-68.30629 Y15.85813
G01 X-68.25384 Y15.68526
G01 X-68.23362 Y15.50886
G01 X-67.74947 Y15.68336
G01 X-67.74947 Y16.92440
G01 X-67.71142 Y16.94015
G01 X-67.74947 Y16.92440
G01 X-71.27276 Y20.44769
G01 X-71.34446 Y20.52462
G01 X-71.43425 Y20.63397
G01 X-71.48807 Y20.70783
G01 X-71.54248 Y20.79356
G01 X-71.56696 Y20.84100
G01 X-71.63105 Y21.16226
G01 X-71.66877 Y21.52043
G01 X-71.66877 Y21.92056
G01 X-71.63105 Y22.27864
G01 X-71.56501 Y22.60763
G01 X-71.52140 Y22.68210
G01 X-71.47065 Y22.75810
G01 X-71.34540 Y22.91522
G01 X-71.23252 Y23.03201
G01 X-71.07034 Y23.16709
G01 X-70.99577 Y23.21992
G01 X-70.91810 Y23.26808
G01 X-70.75841 Y23.35251
G01 X-70.62727 Y23.40734
G01 X-70.43527 Y23.46660
G01 X-70.27608 Y23.49881
G01 X-70.08625 Y23.51796
G01 X-69.93397 Y23.51900
G01 X-69.73392 Y23.50026
G01 X-69.56468 Y23.46660
G01 X-69.36313 Y23.40384
G01 X-69.27847 Y23.36945
G01 X-69.18706 Y23.32525
G01 X-69.07306 Y23.26297
G01 X-68.98734 Y23.20856
G01 X-68.90548 Y23.14849
G01 X-68.80413 Y23.06495
G01 X-68.72719 Y22.99325
G01 X-66.76189 Y21.02795
G01 X-66.80619 Y21.13509
G01 X-66.90076 Y21.38611
G01 X-67.03070 Y21.81761
G01 X-67.08056 Y22.05368
G01 X-68.22488 Y23.19802
G01 X-68.03362 Y23.66000
G01 X-67.23365 Y23.66040
G01 X-67.10982 Y23.66683
G01 X-66.95041 Y23.68352
G01 X-66.76233 Y23.71799
G01 X-66.57000 Y23.77189
G01 X-66.40881 Y23.82934
G01 X-66.25496 Y23.89942
G01 X-66.25496 Y24.47694
G01 X-66.35686 Y24.41235
G01 X-66.48917 Y24.34128
G01 X-66.59085 Y24.29505
G01 X-66.68605 Y24.25972
G01 X-66.82006 Y24.21908
G01 X-66.92882 Y24.19358
G01 X-67.03913 Y24.17625
G01 X-67.19087 Y24.16233
G01 X-71.04438 Y24.15997
G01 X-71.06013 Y24.19795
G01 X-71.04438 Y24.15997
G01 X-72.05000 Y23.15439
G01 X-72.08807 Y23.17016
G01 X-72.05000 Y23.15439
G01 X-72.05000 Y22.72922
G04 P0 ( dwell for no time -- G64 should not smooth over this point )
G00 Z1.00000 ( retract )

G00 X-65.75499 Y27.44300 ( rapid move to begin. )
G01 F20.00000
( Mill infeed pass 1/1 )
G01 Z-0.30000
G04 P0 ( dwell for no time -- G64 should not smooth over this point )
G01 F30.00000
G01 X-65.75499 Y27.44300
G01 X-65.66190 Y27.50246
G01 X-65.54790 Y27.56474
G01 X-65.46576 Y27.60480
G01 X-65.38133 Y27.63977
G01 X-65.30462 Y27.66649
G01 X-65.16045 Y27.70861
G01 X-65.06121 Y27.73009
G01 X-64.96073 Y27.74483
G01 X-64.84008 Y27.75626
G01 X-64.75603 Y27.75979
G01 X-63.44945 Y27.75989
G01 X-63.32344 Y27.75372
G01 X-63.15377 Y27.73357
G01 X-62.99528 Y27.69814
G01 X-62.87105 Y27.66019
G01 X-62.78527 Y27.62867
G01 X-62.63810 Y27.55999
G01 X-62.54186 Y27.50756
G01 X-62.45576 Y27.45377
G01 X-62.35753 Y27.38168
G01 X-62.22505 Y27.26926
G01 X-61.73462 Y26.78016
G01 X-61.68923 Y26.98090
G01 X-61.58832 Y27.34094
G01 X-61.88575 Y27.63652
G01 X-61.96320 Y27.70490
G01 X-62.07981 Y27.79916
G01 X-62.17803 Y27.86951
G01 X-62.28029 Y27.93383
G01 X-62.42916 Y28.01498
G01 X-62.52896 Y28.06296
G01 X-62.69756 Y28.12933
G01 X-62.91796 Y28.19484
G01 X-63.09556 Y28.23063
G01 X-63.28453 Y28.25222
G01 X-63.44966 Y28.25989
G01 X-64.76599 Y28.25968
G01 X-64.88984 Y28.25392
G01 X-65.03957 Y28.23896
G01 X-65.15898 Y28.22049
G01 X-65.26726 Y28.19725
G01 X-65.43035 Y28.15097
G01 X-65.53540 Y28.11589
G01 X-65.64760 Y28.07106
G01 X-65.75499 Y28.02052
G01 X-65.75496 Y28.56743
G01 X-65.65339 Y28.60441
G01 X-65.51922 Y28.64650
G01 X-65.32128 Y28.69781
G01 X-65.11983 Y28.73276
G01 X-64.87808 Y28.75582
G01 X-64.74521 Y28.75989
G01 X-63.41908 Y28.75958
G01 X-63.23531 Y28.74980
G01 X-63.00432 Y28.72240
G01 X-62.89370 Y28.70205
G01 X-62.78410 Y28.67673
G01 X-62.55128 Y28.60766
G01 X-62.35083 Y28.53083
G01 X-62.16673 Y28.44190
G01 X-61.96452 Y28.32697
G01 X-61.78774 Y28.20515
G01 X-61.59185 Y28.04490
G01 X-61.41402 Y27.87373
G01 X-61.22078 Y28.38356
G01 X-61.40592 Y28.54124
G01 X-61.55972 Y28.65773
G01 X-61.73800 Y28.77469
G01 X-61.94001 Y28.88762
G01 X-62.11326 Y28.97246
G01 X-62.28212 Y29.04241
G01 X-62.46465 Y29.10492
G01 X-62.69718 Y29.17030
G01 X-62.88608 Y29.20954
G01 X-63.08720 Y29.23764
G01 X-63.26716 Y29.25369
G01 X-63.43968 Y29.25983
G01 X-64.74513 Y29.25989
G01 X-64.89741 Y29.25549
G01 X-65.14813 Y29.23311
G01 X-65.33888 Y29.20416
G01 X-65.53721 Y29.16050
G01 X-65.75494 Y29.09725
G01 X-65.75494 Y29.61947
G01 X-65.53568 Y29.67454
G01 X-65.31707 Y29.71475
G01 X-65.04785 Y29.74589
G01 X-64.84612 Y29.75813
G01 X-63.36904 Y29.75872
G01 X-63.14712 Y29.74589
G01 X-62.98809 Y29.72963
G01 X-62.85794 Y29.71168
G01 X-62.62969 Y29.66799
G01 X-62.40485 Y29.60924
G01 X-62.13759 Y29.52214
G01 X-61.90381 Y29.42648
G01 X-61.69533 Y29.32379
G01 X-61.56383 Y29.25216
G01 X-61.44227 Y29.17977
G01 X-61.23285 Y29.03855
G01 X-61.02916 Y28.87894
G01 X-60.84164 Y29.36989
G01 X-61.04994 Y29.52100
G01 X-61.26546 Y29.65719
G01 X-61.53201 Y29.80248
G01 X-61.77219 Y29.91477
G01 X-62.01928 Y30.01089
G01 X-62.28926 Y30.09638
G01 X-62.53627 Y30.15943
G01 X-62.78682 Y30.20662
G01 X-62.92827 Y30.22603
G01 X-63.09799 Y30.24348
G01 X-63.35931 Y30.25861
G01 X-64.83566 Y30.25861
G01 X-65.04681 Y30.24772
G01 X-65.31729 Y30.21968
G01 X-65.53881 Y30.18406
G01 X-65.75491 Y30.13685
G01 X-65.75489 Y30.65018
G01 X-65.53655 Y30.69234
G01 X-65.29517 Y30.72605
G01 X-65.03271 Y30.75000
G01 X-64.78636 Y30.75958
G01 X-63.44971 Y30.75986
G01 X-63.29563 Y30.75686
G01 X-63.12126 Y30.74711
G01 X-62.93007 Y30.72935
G01 X-62.76884 Y30.70941
G01 X-62.59840 Y30.68188
G01 X-62.42916 Y30.64782
G01 X-62.27117 Y30.60984
G01 X-62.11466 Y30.56621
G01 X-61.92281 Y30.50631
G01 X-61.76010 Y30.44863
G01 X-61.60910 Y30.38866
G01 X-61.46957 Y30.32752
G01 X-61.32312 Y30.25714
G01 X-61.12744 Y30.15379
G01 X-60.96904 Y30.06258
G01 X-60.81448 Y29.96501
G01 X-60.66340 Y29.86082
G01 X-60.70816 Y29.72943
G01 X-60.49564 Y30.35330
G01 X-60.75116 Y30.51480
G01 X-61.02406 Y30.66560
G01 X-61.26023 Y30.78157
G01 X-61.52101 Y30.89237
G01 X-61.77803 Y30.98508
G01 X-62.08624 Y31.07802
G01 X-62.36160 Y31.14477
G01 X-62.64031 Y31.19582
G01 X-62.81077 Y31.21909
G01 X-63.00046 Y31.23870
G01 X-63.31684 Y31.25780
G01 X-64.78613 Y31.25960
G01 X-65.04158 Y31.25046
G01 X-65.29367 Y31.22902
G01 X-65.52466 Y31.20034
G01 X-65.75486 Y31.16077
G01 X-65.75483 Y31.66938
G01 X-65.54506 Y31.70250
G01 X-65.36301 Y31.72452
G01 X-65.13195 Y31.74550
G01 X-64.91834 Y31.75678
G01 X-64.73500 Y31.75986
G01 X-63.34793 Y31.75871
G01 X-63.06302 Y31.74550
G01 X-62.75098 Y31.71548
G01 X-62.55921 Y31.68922
G01 X-62.37849 Y31.65810
G01 X-62.17905 Y31.61652
G01 X-62.00097 Y31.57278
G01 X-61.82446 Y31.52315
G01 X-61.60308 Y31.45381
G01 X-61.41105 Y31.38571
G01 X-61.23488 Y31.31604
G01 X-61.90412 Y32.06422
G01 X-62.10176 Y32.11162
G01 X-62.29078 Y32.15038
G01 X-62.58143 Y32.19778
G01 X-62.88202 Y32.23194
G01 X-63.14529 Y32.25157
G01 X-63.40919 Y32.25963
G01 X-64.74513 Y32.25983
G01 X-64.94821 Y32.25604
G01 X-65.16116 Y32.24469
G01 X-65.38161 Y32.22518
G01 X-65.57330 Y32.20319
G01 X-65.75481 Y32.17654
G01 X-65.75499 Y33.69216
G01 X-65.33769 Y33.73554
G01 X-64.94971 Y33.75673
G01 X-64.74521 Y33.75980
G01 X-63.43376 Y33.75975
G01 X-63.88207 Y34.25980
G01 X-64.95936 Y34.25665
G01 X-65.33622 Y34.23717
G01 X-65.75499 Y34.19605
G01 X-65.75499 Y33.69216
G01 X-65.75499 Y34.69945
G01 X-65.40594 Y34.73326
G01 X-65.08090 Y34.75274
G01 X-64.81641 Y34.75939
G01 X-64.31948 Y34.75977
G01 X-64.73040 Y35.25977
G01 X-65.11064 Y35.25192
G01 X-65.41478 Y35.23407
G01 X-65.75499 Y35.20249
G01 X-65.75499 Y34.69945
G01 X-65.75499 Y35.70521
G01 X-65.43383 Y35.73402
G01 X-65.12639 Y35.75169
G01 X-64.92850 Y35.50194
G01 X-64.34676 Y34.79096
G01 X-63.76749 Y34.12889
G01 X-62.46071 Y32.68561
G01 X-62.96693 Y33.24243
G01 X-63.18720 Y33.25449
G01 X-63.39934 Y33.25955
G01 X-64.86637 Y33.25858
G01 X-65.08854 Y33.25089
G01 X-65.29024 Y33.23775
G01 X-65.53025 Y33.21517
G01 X-65.75499 Y33.18769
G04 P0 ( dwell for no time -- G64 should not smooth over this point )
G00 Z1.00000 ( retract )

G00 X-66.25496 Y31.16077 ( rapid move to begin. )
G01 F20.00000
( Mill infeed pass 1/1 )
G01 Z-0.30000
G04 P0 ( dwell for no time -- G64 should not smooth over this point )
G01 F30.00000
G01 X-66.25496 Y31.16077
G01 X-66.46530 Y31.19735
G01 X-66.68610 Y31.22590
G01 X-66.94797 Y31.24916
G01 X-67.19319 Y31.25920
G01 X-71.80019 Y31.25986
G01 X-72.05571 Y31.25280
G01 X-72.34862 Y31.22902
G01 X-72.57961 Y31.20034
G01 X-72.81896 Y31.15902
G01 X-73.06582 Y31.10365
G01 X-73.29988 Y31.03880
G01 X-73.58680 Y30.94561
G01 X-73.83216 Y30.85061
G01 X-74.06305 Y30.74721
G01 X-74.22591 Y30.66560
G01 X-74.41997 Y30.56039
G01 X-74.57681 Y30.46776
G01 X-74.72177 Y30.37510
G01 X-74.87991 Y30.26570
G01 X-75.00973 Y30.16890
G01 X-75.18977 Y30.02407
G01 X-75.32174 Y29.91094
G01 X-75.53030 Y29.71480
G01 X-77.59756 Y27.64760
G01 X-77.71831 Y27.52255
G01 X-77.82796 Y27.40109
G01 X-78.05270 Y27.12778
G01 X-78.14975 Y26.99814
G01 X-78.24257 Y26.86545
G01 X-78.40993 Y26.60012
G01 X-78.57424 Y26.30002
G01 X-78.70474 Y26.02591
G01 X-78.76746 Y25.87661
G01 X-78.82532 Y25.72537
G01 X-78.87825 Y25.57234
G01 X-78.93467 Y25.39053
G01 X-79.01275 Y25.09716
G01 X-79.06410 Y24.84940
G01 X-79.10543 Y24.57933
G01 X-79.13558 Y24.27798
G01 X-79.14884 Y24.00221
G01 X-79.14884 Y18.99773
G01 X-79.13919 Y18.77296
G01 X-79.11904 Y18.54129
G01 X-79.09613 Y18.35038
G01 X-79.06410 Y18.15054
G01 X-79.02621 Y17.96202
G01 X-78.97592 Y17.75551
G01 X-78.90584 Y17.51442
G01 X-78.84239 Y17.32222
G01 X-78.76370 Y17.11394
G01 X-78.67579 Y16.90939
G01 X-78.57886 Y16.70896
G01 X-78.46032 Y16.48760
G01 X-78.34714 Y16.29588
G01 X-78.23121 Y16.11775
G01 X-78.10177 Y15.93659
G01 X-77.97081 Y15.76923
G01 X-77.78732 Y15.55290
G01 X-77.59758 Y15.35237
G01 X-75.77800 Y13.53282
G01 X-75.75126 Y13.54569
G01 X-75.77800 Y13.53282
G01 X-75.74951 Y13.25324
G01 X-75.72992 Y13.10709
G01 X-75.72710 Y13.10709
G01 X-75.72992 Y13.10709
G01 X-75.74183 Y13.02964
G01 X-75.76482 Y12.84889
G01 X-75.78316 Y12.65860
G01 X-75.79482 Y12.47488
G01 X-75.79987 Y12.26020
G01 X-75.79987 Y11.40226
G01 X-75.79650 Y11.22845
G01 X-75.78634 Y11.04468
G01 X-75.76591 Y10.82360
G01 X-75.74613 Y10.66289
G01 X-75.70483 Y10.41329
G01 X-75.65095 Y10.16610
G01 X-75.58466 Y9.92195
G01 X-75.49909 Y9.65383
G01 X-75.41369 Y9.42645
G01 X-75.31735 Y9.20351
G01 X-75.21496 Y8.99447
G01 X-75.07524 Y8.73857
G01 X-74.94288 Y8.52297
G01 X-74.79383 Y8.30613
G01 X-74.63996 Y8.10532
G01 X-74.44555 Y7.87461
G01 X-74.27252 Y7.69003
G01 X-74.09040 Y7.51441
G01 X-73.90742 Y7.35472
G01 X-73.68758 Y7.17895
G01 X-73.48220 Y7.03125
G01 X-73.26958 Y6.89412
G01 X-73.05921 Y6.77276
G01 X-72.80953 Y6.64284
G01 X-72.58878 Y6.54159
G01 X-72.35388 Y6.44759
G01 X-72.12416 Y6.36869
G01 X-71.85215 Y6.28861
G01 X-72.23031 Y5.87807
G01 X-72.45325 Y5.95180
G01 X-72.68180 Y6.03862
G01 X-72.90625 Y6.13552
G01 X-73.12619 Y6.24230
G01 X-73.37532 Y6.37639
G01 X-73.58537 Y6.50151
G01 X-73.81476 Y6.65323
G01 X-74.01207 Y6.79762
G01 X-74.24042 Y6.98137
G01 X-74.41692 Y7.13549
G01 X-74.59391 Y7.30415
G01 X-74.76322 Y7.48050
G01 X-74.92454 Y7.66422
G01 X-75.10864 Y7.89231
G01 X-75.25921 Y8.09770
G01 X-75.40010 Y8.30984
G01 X-75.54605 Y8.55490
G01 X-75.68862 Y8.82259
G01 X-75.80622 Y9.07123
G01 X-75.91488 Y9.33493
G01 X-76.00973 Y9.60394
G01 X-76.10229 Y9.91408
G01 X-76.16761 Y10.18126
G01 X-76.21953 Y10.45136
G01 X-76.25428 Y10.69335
G01 X-76.27991 Y10.94443
G01 X-76.29444 Y11.16805
G01 X-76.29982 Y11.39210
G01 X-76.29982 Y12.27036
G01 X-76.29609 Y12.45370
G01 X-76.27437 Y12.77894
G01 X-76.25052 Y12.99944
G01 X-76.23536 Y13.11024
G01 X-76.23264 Y13.11026
G01 X-76.23536 Y13.11024
G01 X-76.23965 Y13.14287
G01 X-76.25812 Y13.30584
G01 X-76.23167 Y13.31862
G01 X-76.25812 Y13.30584
G01 X-77.95831 Y15.00604
G01 X-78.16792 Y15.22844
G01 X-78.36380 Y15.45999
G01 X-78.50175 Y15.63660
G01 X-78.63241 Y15.81869
G01 X-78.75554 Y16.00596
G01 X-78.87094 Y16.19809
G01 X-78.99669 Y16.42854
G01 X-79.09243 Y16.61986
G01 X-79.18468 Y16.82412
G01 X-79.27213 Y17.04147
G01 X-79.35344 Y17.27205
G01 X-79.43037 Y17.52308
G01 X-79.49024 Y17.74960
G01 X-79.54040 Y17.97848
G01 X-79.58079 Y18.20926
G01 X-79.61018 Y18.43143
G01 X-79.63553 Y18.70301
G01 X-79.64775 Y18.94718
G01 X-79.64874 Y24.01202
G01 X-79.63553 Y24.29695
G01 X-79.60429 Y24.61910
G01 X-79.56271 Y24.90127
G01 X-79.50878 Y25.17099
G01 X-79.46796 Y25.33929
G01 X-79.42471 Y25.49644
G01 X-79.36286 Y25.69883
G01 X-79.31066 Y25.85324
G01 X-79.25021 Y26.01554
G01 X-79.18468 Y26.17584
G01 X-79.11841 Y26.32476
G01 X-79.04320 Y26.48077
G01 X-78.86583 Y26.81072
G01 X-78.77708 Y26.95943
G01 X-78.68369 Y27.10528
G01 X-78.58575 Y27.24810
G01 X-78.48336 Y27.38778
G01 X-78.25481 Y27.67160
G01 X-78.10632 Y27.83947
G01 X-77.95829 Y27.99392
G01 X-75.88387 Y30.06832
G01 X-75.69180 Y30.25069
G01 X-75.54600 Y30.37799
G01 X-75.38232 Y30.51213
G01 X-75.23698 Y30.62394
G01 X-75.09637 Y30.72503
G01 X-74.95263 Y30.82163
G01 X-74.80595 Y30.91368
G01 X-74.64753 Y31.00606
G01 X-74.47938 Y31.09717
G01 X-74.20549 Y31.23268
G01 X-73.92446 Y31.35274
G01 X-73.64689 Y31.45381
G01 X-73.33745 Y31.54870
G01 X-73.04108 Y31.62323
G01 X-72.76114 Y31.67784
G01 X-72.48886 Y31.71668
G01 X-72.16661 Y31.74693
G01 X-71.97331 Y31.75678
G01 X-71.78998 Y31.75986
G01 X-67.19349 Y31.75925
G01 X-66.95933 Y31.75079
G01 X-66.74604 Y31.73435
G01 X-66.49522 Y31.70659
G01 X-66.25496 Y31.66938
G01 X-66.25499 Y32.17652
G01 X-66.48704 Y32.20956
G01 X-66.75768 Y32.23750
G01 X-66.98059 Y32.25262
G01 X-67.20390 Y32.25942
G01 X-71.81027 Y32.25980
G01 X-71.99305 Y32.25640
G01 X-72.18576 Y32.24677
G01 X-72.51738 Y32.21667
G01 X-72.78908 Y32.17990
G01 X-73.07870 Y32.12661
G01 X-73.36536 Y32.05917
G01 X-73.69495 Y31.96372
G01 X-73.97379 Y31.86897
G01 X-74.24763 Y31.76067
G01 X-74.52497 Y31.63463
G01 X-74.69718 Y31.54759
G01 X-74.91837 Y31.42732
G01 X-75.11057 Y31.31345
G01 X-75.28151 Y31.20377
G01 X-75.46515 Y31.07652
G01 X-75.61984 Y30.96118
G01 X-75.81621 Y30.80362
G01 X-75.96314 Y30.67860
G01 X-76.09860 Y30.55584
G01 X-76.24463 Y30.41467
G01 X-78.31897 Y28.34030
G01 X-78.54165 Y28.10363
G01 X-78.64810 Y27.98087
G01 X-78.78849 Y27.80980
G01 X-78.99603 Y27.53388
G01 X-79.18734 Y27.24650
G01 X-79.28186 Y27.09001
G01 X-79.36669 Y26.93967
G01 X-79.46103 Y26.76218
G01 X-79.54223 Y26.59842
G01 X-79.61434 Y26.44155
G01 X-79.68953 Y26.26385
G01 X-79.75547 Y26.09332
G01 X-79.81295 Y25.93056
G01 X-79.92811 Y25.55385
G01 X-79.97162 Y25.38679
G01 X-80.01452 Y25.19865
G01 X-80.04777 Y25.02926
G01 X-80.07767 Y24.84890
G01 X-80.10322 Y24.65766
G01 X-80.12481 Y24.44763
G01 X-80.14642 Y24.10305
G01 X-80.14985 Y23.91011
G01 X-80.14983 Y19.07967
G01 X-80.14531 Y18.86646
G01 X-80.13398 Y18.66367
G01 X-80.11109 Y18.41294
G01 X-80.08356 Y18.19123
G01 X-80.05138 Y17.99069
G01 X-80.01030 Y17.78142
G01 X-79.95933 Y17.56390
G01 X-79.90314 Y17.35818
G01 X-79.81295 Y17.06941
G01 X-79.72316 Y16.82110
G01 X-79.61434 Y16.55841
G01 X-79.49776 Y16.31025
G01 X-79.35206 Y16.03360
G01 X-79.20878 Y15.78798
G01 X-79.05402 Y15.54945
G01 X-78.88816 Y15.31851
G01 X-78.76306 Y15.15852
G01 X-78.60195 Y14.96504
G01 X-78.45969 Y14.80617
G01 X-78.32616 Y14.66687
G01 X-76.74371 Y13.08433
G01 X-76.69588 Y13.10188
G01 X-76.74371 Y13.08433
G01 X-76.74580 Y13.06817
G01 X-76.78542 Y12.66604
G01 X-76.79530 Y12.48352
G01 X-76.79972 Y12.29060
G01 X-76.79972 Y11.37186
G01 X-76.79360 Y11.13838
G01 X-76.78169 Y10.94580
G01 X-76.76109 Y10.72545
G01 X-76.73917 Y10.54397
G01 X-76.71173 Y10.36325
G01 X-76.65382 Y10.06417
G01 X-76.58613 Y9.78799
G01 X-76.49456 Y9.47842
G01 X-76.39484 Y9.19056
G01 X-76.28468 Y8.91746
G01 X-76.16127 Y8.65007
G01 X-76.00696 Y8.35500
G01 X-75.85878 Y8.10049
G01 X-75.71544 Y7.87875
G01 X-75.55644 Y7.65541
G01 X-75.39383 Y7.44738
G01 X-75.19167 Y7.20885
G01 X-75.01171 Y7.01563
G01 X-74.82345 Y6.83052
G01 X-74.62721 Y6.65386
G01 X-74.42563 Y6.48665
G01 X-74.23262 Y6.33786
G01 X-74.01687 Y6.18564
G01 X-73.81197 Y6.05368
G01 X-73.58413 Y5.92026
G01 X-73.33506 Y5.78754
G01 X-73.09714 Y5.67304
G01 X-72.86384 Y5.57291
G01 X-72.60161 Y5.47395
G01 X-73.68073 Y4.29080
G01 X-73.96978 Y4.42773
G01 X-74.23782 Y4.56801
G01 X-74.47651 Y4.70296
G01 X-74.71865 Y4.85203
G01 X-74.95497 Y5.01015
G01 X-75.18512 Y5.17713
G01 X-75.40092 Y5.34632
G01 X-75.64818 Y5.55386
G01 X-75.85128 Y5.73806
G01 X-76.04752 Y5.92958
G01 X-76.24348 Y6.13562
G01 X-76.43150 Y6.34893
G01 X-76.62342 Y6.58277
G01 X-76.79596 Y6.80880
G01 X-76.97117 Y7.05805
G01 X-77.13078 Y7.30552
G01 X-77.30043 Y7.59452
G01 X-77.47104 Y7.91545
G01 X-77.60708 Y8.19935
G01 X-77.73109 Y8.48871
G01 X-77.84285 Y8.78302
G01 X-77.94813 Y9.10115
G01 X-78.04330 Y9.43084
G01 X-78.12413 Y9.76653
G01 X-78.18430 Y10.07552
G01 X-78.23274 Y10.39685
G01 X-78.27038 Y10.74864
G01 X-78.29128 Y11.05469
G01 X-78.29977 Y11.38182
G01 X-78.29781 Y12.42380
G01 X-78.29514 Y12.51450
G01 X-78.25689 Y12.53020
G01 X-78.29514 Y12.51450
G01 X-79.45846 Y13.67947
G01 X-79.62600 Y13.85882
G01 X-79.78094 Y14.03576
G01 X-79.95442 Y14.24645
G01 X-80.10972 Y14.44732
G01 X-80.26390 Y14.66167
G01 X-80.42138 Y14.89840
G01 X-80.56979 Y15.14094
G01 X-80.70411 Y15.38000
G01 X-80.83474 Y15.63017
G01 X-80.96545 Y15.90535
G01 X-81.08109 Y16.17619
G01 X-81.18602 Y16.45138
G01 X-81.28310 Y16.74015
G01 X-81.38013 Y17.06931
G01 X-81.45424 Y17.36479
G01 X-81.51444 Y17.65308
G01 X-81.56621 Y17.96359
G01 X-81.60281 Y18.25582
G01 X-81.63240 Y18.58907
G01 X-81.64731 Y18.90570
G01 X-81.64982 Y23.91019
G01 X-81.64581 Y24.14537
G01 X-81.63695 Y24.33945
G01 X-81.62216 Y24.54344
G01 X-81.59844 Y24.78451
G01 X-81.57472 Y24.97602
G01 X-81.54444 Y25.17686
G01 X-81.50873 Y25.37681
G01 X-81.46763 Y25.57572
G01 X-81.42115 Y25.77343
G01 X-81.36110 Y25.99916
G01 X-81.29514 Y26.22100
G01 X-81.23601 Y26.40470
G01 X-81.16166 Y26.61539
G01 X-81.08109 Y26.82377
G01 X-80.99433 Y27.02964
G01 X-80.90583 Y27.22369
G01 X-80.81185 Y27.41513
G01 X-80.69443 Y27.63784
G01 X-80.58513 Y27.83271
G01 X-80.47543 Y28.01559
G01 X-80.35498 Y28.20375
G01 X-80.24066 Y28.37165
G01 X-80.10970 Y28.55265
G01 X-79.97340 Y28.72969
G01 X-79.82697 Y28.90939
G01 X-79.61224 Y29.15628
G01 X-79.39413 Y29.38633
G01 X-77.29078 Y31.48975
G01 X-77.06134 Y31.70850
G01 X-76.89301 Y31.85775
G01 X-76.69873 Y32.01975
G01 X-76.53162 Y32.15223
G01 X-76.35258 Y32.28586
G01 X-76.16962 Y32.41411
G01 X-75.98293 Y32.53684
G01 X-75.79269 Y32.65396
G01 X-75.60790 Y32.76044
G01 X-75.29601 Y32.92645
G01 X-74.99380 Y33.07126
G01 X-74.68545 Y33.20242
G01 X-74.36193 Y33.32302
G01 X-73.99640 Y33.43989
G01 X-73.67326 Y33.52866
G01 X-73.33653 Y33.60494
G01 X-72.99663 Y33.66564
G01 X-72.69470 Y33.70616
G01 X-72.39267 Y33.73554
G01 X-72.11710 Y33.75266
G01 X-71.82063 Y33.75975
G01 X-67.18295 Y33.75924
G01 X-66.94785 Y33.75266
G01 X-66.72326 Y33.73948
G01 X-66.46113 Y33.71591
G01 X-66.25496 Y33.69213
G01 X-66.25496 Y34.19602
G01 X-66.52133 Y34.22421
G01 X-66.76535 Y34.24354
G01 X-67.00985 Y34.25541
G01 X-67.25458 Y34.25977
G01 X-71.86135 Y34.25947
G01 X-72.25889 Y34.24603
G01 X-72.67318 Y34.21141
G01 X-72.89604 Y34.18515
G01 X-73.09792 Y34.15586
G01 X-73.31903 Y34.11771
G01 X-73.50907 Y34.07979
G01 X-73.71799 Y34.03252
G01 X-73.91570 Y33.98233
G01 X-74.33412 Y33.85917
G01 X-74.52766 Y33.79475
G01 X-74.72906 Y33.72183
G01 X-75.09759 Y33.57220
G01 X-75.28357 Y33.48840
G01 X-75.46736 Y33.39988
G01 X-75.85304 Y33.19620
G01 X-76.06497 Y33.07372
G01 X-76.27305 Y32.94482
G01 X-76.47711 Y32.80961
G01 X-76.66868 Y32.67423
G01 X-76.86426 Y32.52704
G01 X-77.07711 Y32.35607
G01 X-77.24854 Y32.21131
G01 X-77.42337 Y32.05488
G01 X-77.65158 Y31.83608
G01 X-79.78336 Y29.70360
G01 X-79.93101 Y29.54840
G01 X-80.07444 Y29.38935
G01 X-80.20703 Y29.23433
G01 X-80.37238 Y29.03123
G01 X-80.52039 Y28.83827
G01 X-80.66248 Y28.64089
G01 X-80.80403 Y28.43078
G01 X-80.93359 Y28.22494
G01 X-81.06184 Y28.00647
G01 X-81.19664 Y27.75905
G01 X-81.31165 Y27.53332
G01 X-81.41528 Y27.31331
G01 X-81.51995 Y27.07152
G01 X-81.60946 Y26.84539
G01 X-81.68874 Y26.62621
G01 X-81.76463 Y26.39515
G01 X-81.84507 Y26.12512
G01 X-81.90738 Y25.89002
G01 X-81.96463 Y25.64323
G01 X-82.01406 Y25.39477
G01 X-82.06580 Y25.07465
G01 X-82.10453 Y24.75271
G01 X-82.13357 Y24.40960
G01 X-82.14835 Y24.05296
G01 X-82.14980 Y19.07957
G01 X-82.14042 Y18.71254
G01 X-82.11889 Y18.39709
G01 X-82.07781 Y18.01411
G01 X-82.02585 Y17.67126
G01 X-81.96555 Y17.36090
G01 X-81.88279 Y17.01366
G01 X-81.78251 Y16.66293
G01 X-81.67878 Y16.34505
G01 X-81.56184 Y16.03177
G01 X-81.45650 Y15.77924
G01 X-81.34259 Y15.53047
G01 X-81.21553 Y15.27678
G01 X-81.07126 Y15.01018
G01 X-80.93210 Y14.77254
G01 X-80.78485 Y14.53985
G01 X-80.63555 Y14.32067
G01 X-80.47909 Y14.10658
G01 X-80.33482 Y13.92161
G01 X-80.15450 Y13.70322
G01 X-79.99303 Y13.51925
G01 X-79.82600 Y13.34031
G01 X-78.79956 Y12.31184
G01 X-78.76200 Y12.32731
G01 X-78.79956 Y12.31184
G01 X-78.79949 Y11.34110
G01 X-78.78605 Y10.94356
G01 X-78.76327 Y10.64867
G01 X-78.72110 Y10.27608
G01 X-78.67053 Y9.95365
G01 X-78.60246 Y9.61362
G01 X-78.51704 Y9.26704
G01 X-78.41765 Y8.92701
G01 X-78.31529 Y8.61931
G01 X-78.20055 Y8.31604
G01 X-78.07363 Y8.01764
G01 X-77.93017 Y7.71558
G01 X-77.76091 Y7.39402
G01 X-77.59797 Y7.11124
G01 X-77.43485 Y6.85236
G01 X-77.26195 Y6.59991
G01 X-77.07953 Y6.35427
G01 X-76.87673 Y6.10184
G01 X-76.68532 Y5.87888
G01 X-76.49284 Y5.67040
G01 X-76.27856 Y5.45475
G01 X-76.07132 Y5.26098
G01 X-75.84956 Y5.06814
G01 X-75.58237 Y4.85170
G01 X-75.34570 Y4.67431
G01 X-75.10262 Y4.50576
G01 X-74.86218 Y4.35168
G01 X-74.59866 Y4.19621
G01 X-74.29619 Y4.03288
G01 X-74.03511 Y3.90355
G01 X-74.37176 Y2.79827
G01 X-74.16985 Y2.49077
G01 X-73.95083 Y2.18549
G01 X-73.73849 Y1.91323
G01 X-73.46513 Y1.58862
G01 X-73.29462 Y1.40048
G01 X-73.12602 Y1.22448
G01 X-71.90191 Y0.00000
G04 P0 ( dwell for no time -- G64 should not smooth over this point )
G00 Z1.00000 ( retract )

G00 X-69.78063 Y0.00000 ( rapid move to begin. )
G01 F20.00000
( Mill infeed pass 1/1 )
G01 Z-0.30000
G04 P0 ( dwell for no time -- G64 should not smooth over this point )
G01 F30.00000
G01 X-69.78063 Y0.00000
G01 X-72.02975 Y2.24914
G01 X-72.29653 Y2.53164
G01 X-72.43094 Y2.68577
G01 X-72.59173 Y2.88064
G01 X-72.72307 Y3.04863
G01 X-72.84367 Y3.21201
G01 X-72.97118 Y3.39555
G01 X-73.08774 Y3.57414
G01 X-73.19917 Y3.75597
G01 X-73.31207 Y3.95300
G01 X-72.95518 Y4.34431
G01 X-72.85429 Y4.15859
G01 X-72.73633 Y3.95633
G01 X-72.62277 Y3.77518
G01 X-72.50374 Y3.59761
G01 X-72.37329 Y3.41554
G01 X-72.23074 Y3.22974
G01 X-72.06493 Y3.02725
G01 X-71.93247 Y2.87459
G01 X-71.67603 Y2.60251
G01 X-69.07355 Y0.00000
G01 X-68.36646 Y0.00000
G01 X-71.36516 Y2.99941
G01 X-71.51116 Y3.15407
G01 X-71.65203 Y3.31346
G01 X-71.81893 Y3.51533
G01 X-71.94420 Y3.67657
G01 X-72.11672 Y3.91719
G01 X-72.28881 Y4.18280
G01 X-72.43790 Y4.43857
G01 X-72.59579 Y4.73834
G01 X-72.23219 Y5.13700
G01 X-72.12493 Y4.91490
G01 X-72.00207 Y4.68361
G01 X-71.88523 Y4.48135
G01 X-71.76618 Y4.29230
G01 X-71.63427 Y4.09953
G01 X-71.50118 Y3.92008
G01 X-71.32422 Y3.70025
G01 X-71.19168 Y3.54635
G01 X-70.95467 Y3.29524
G01 X-67.65935 Y0.00000
G01 X-66.94970 Y0.00000
G01 X-70.64411 Y3.69230
G01 X-70.76323 Y3.81800
G01 X-70.87834 Y3.94741
G01 X-71.02023 Y4.11790
G01 X-71.12104 Y4.24599
G01 X-71.22986 Y4.39356
G01 X-71.32808 Y4.53621
G01 X-71.43245 Y4.69920
G01 X-71.52094 Y4.84810
G01 X-71.63242 Y5.05153
G01 X-71.70684 Y5.19656
G01 X-71.78540 Y5.36224
G01 X-71.86219 Y5.53969
G01 X-71.48444 Y5.94982
G01 X-71.39452 Y5.71713
G01 X-71.29592 Y5.49516
G01 X-71.19617 Y5.29610
G01 X-71.05480 Y5.04111
G01 X-70.92627 Y4.83504
G01 X-70.79384 Y4.64363
G01 X-70.65896 Y4.46649
G01 X-70.48470 Y4.25658
G01 X-70.37532 Y4.13492
G01 X-70.25480 Y4.00962
G01 X-66.61714 Y0.37374
G01 X-66.42016 Y0.19520
G01 X-66.18130 Y0.00000
G01 X-65.27124 Y0.00000
G01 X-65.52730 Y0.15080
G01 X-65.65453 Y0.23457
G01 X-65.77886 Y0.32261
G01 X-65.90810 Y0.42108
G01 X-66.04846 Y0.53558
G01 X-66.27056 Y0.73411
G01 X-69.91576 Y4.37779
G01 X-70.09082 Y4.56570
G01 X-70.26623 Y4.77596
G01 X-70.40123 Y4.95397
G01 X-70.53275 Y5.14698
G01 X-70.64901 Y5.33776
G01 X-70.76940 Y5.55884
G01 X-70.86752 Y5.75955
G01 X-70.95180 Y5.95544
G01 X-71.02668 Y6.15511
G01 X-71.09706 Y6.37433
G01 X-70.69656 Y6.81335
G01 X-70.63923 Y6.58904
G01 X-70.54753 Y6.29966
G01 X-70.45879 Y6.07157
G01 X-70.36079 Y5.85843
G01 X-70.22782 Y5.60842
G01 X-70.10052 Y5.39938
G01 X-69.94848 Y5.18216
G01 X-69.78485 Y4.97705
G01 X-69.67248 Y4.84795
G01 X-69.54759 Y4.71660
G01 X-65.98336 Y1.15237
G01 X-65.77665 Y0.96070
G01 X-65.63045 Y0.83924
G01 X-65.51780 Y0.75148
G01 X-65.28346 Y0.58834
G01 X-65.15331 Y0.50795
G01 X-65.02913 Y0.43744
G01 X-64.88707 Y0.36210
G01 X-64.74958 Y0.29502
G01 X-64.48649 Y0.18407
G01 X-64.34247 Y0.13244
G01 X-64.15987 Y0.07511
G01 X-64.02240 Y0.03645
G01 X-63.87130 Y0.00000
G04 P0 ( dwell for no time -- G64 should not smooth over this point )
G00 Z1.00000 ( retract )

G00 X-69.81828 Y8.57283 ( rapid move to begin. )
G01 F20.00000
( Mill infeed pass 1/1 )
G01 Z-0.30000
G04 P0 ( dwell for no time -- G64 should not smooth over this point )
G01 F30.00000
G01 X-69.81828 Y8.57283
G01 X-70.18378 Y8.12917
G01 X-70.37814 Y8.11502
G01 X-70.57106 Y8.11340
G01 X-70.75355 Y8.12328
G01 X-70.98360 Y8.14857
G01 X-71.16366 Y8.17997
G01 X-71.34149 Y8.22228
G01 X-71.55340 Y8.28599
G01 X-71.72518 Y8.34845
G01 X-71.86521 Y8.40839
G01 X-71.99300 Y8.47070
G01 X-72.16074 Y8.56163
G01 X-72.29086 Y8.64083
G01 X-72.40854 Y8.72061
G01 X-72.52231 Y8.80588
G01 X-72.66965 Y8.92711
G01 X-72.78253 Y9.02940
G01 X-72.88306 Y9.12993
G01 X-72.98535 Y9.24281
G01 X-73.10658 Y9.39015
G01 X-73.19185 Y9.50392
G01 X-73.27712 Y9.63013
G01 X-73.35083 Y9.75172
G01 X-73.44176 Y9.91946
G01 X-73.50407 Y10.04725
G01 X-73.56401 Y10.18728
G01 X-73.61679 Y10.33018
G01 X-73.67367 Y10.51232
G01 X-73.71032 Y10.64969
G01 X-73.74042 Y10.78862
G01 X-73.76389 Y10.92886
G01 X-73.78548 Y11.11844
G01 X-73.79551 Y11.25007
G01 X-73.79990 Y11.40234
G01 X-73.79993 Y12.24999
G01 X-73.79371 Y12.44280
G01 X-73.77430 Y12.65306
G01 X-73.74956 Y12.82390
G01 X-73.72401 Y12.95342
G01 X-73.69541 Y13.07188
G01 X-73.68939 Y13.09433
G01 X-73.67882 Y13.09426
G01 X-73.68939 Y13.09433
G01 X-73.70308 Y13.14953
G01 X-73.73082 Y13.27859
G01 X-73.75134 Y13.39870
G01 X-73.78647 Y13.71605
G01 X-73.79746 Y13.87815
G01 X-73.79746 Y14.12182
G01 X-73.77880 Y14.36197
G01 X-73.73259 Y14.37922
G01 X-73.77880 Y14.36197
G01 X-76.19055 Y16.77375
G01 X-76.35512 Y16.95346
G01 X-76.48765 Y17.11782
G01 X-76.59942 Y17.27507
G01 X-76.69576 Y17.43039
G01 X-76.79642 Y17.61599
G01 X-76.87485 Y17.78109
G01 X-76.94308 Y17.95064
G01 X-76.99494 Y18.10461
G01 X-77.05547 Y18.31744
G01 X-77.09418 Y18.49608
G01 X-77.12192 Y18.67675
G01 X-77.14305 Y18.89702
G01 X-77.14986 Y19.07967
G01 X-77.14986 Y23.92027
G01 X-77.14656 Y24.04209
G01 X-77.13741 Y24.17379
G01 X-77.12192 Y24.32319
G01 X-77.10129 Y24.46386
G01 X-77.05547 Y24.68250
G01 X-76.98892 Y24.91473
G01 X-76.91775 Y25.11572
G01 X-76.83251 Y25.31118
G01 X-76.71087 Y25.54308
G01 X-76.59942 Y25.72487
G01 X-76.47531 Y25.89827
G01 X-76.32205 Y26.08501
G01 X-76.18339 Y26.23337
G01 X-74.12337 Y28.29339
G01 X-74.02048 Y28.39151
G01 X-73.81227 Y28.56657
G01 X-73.62330 Y28.70378
G01 X-73.43308 Y28.82087
G01 X-73.19198 Y28.94686
G01 X-73.04339 Y29.01259
G01 X-72.88187 Y29.07347
G01 X-72.68037 Y29.13649
G01 X-72.52310 Y29.17731
G01 X-72.36386 Y29.20954
G01 X-72.21319 Y29.23189
G01 X-72.02330 Y29.25082
G01 X-71.85088 Y29.25928
G01 X-67.18361 Y29.25851
G01 X-67.05176 Y29.25158
G01 X-66.91231 Y29.23868
G01 X-66.70109 Y29.20954
G01 X-66.48259 Y29.16298
G01 X-66.25496 Y29.09722
G01 X-66.25496 Y29.61947
G01 X-66.47429 Y29.67454
G01 X-66.69291 Y29.71475
G01 X-66.96212 Y29.74589
G01 X-67.18404 Y29.75872
G01 X-71.88091 Y29.75872
G01 X-72.06254 Y29.74927
G01 X-72.26186 Y29.72963
G01 X-72.44187 Y29.70347
G01 X-72.60052 Y29.67238
G01 X-72.77710 Y29.62869
G01 X-72.96899 Y29.57134
G01 X-73.14077 Y29.51155
G01 X-73.29993 Y29.44696
G01 X-73.44669 Y29.37909
G01 X-73.60648 Y29.29608
G01 X-73.72988 Y29.22687
G01 X-73.85037 Y29.15275
G01 X-73.96777 Y29.07381
G01 X-74.08189 Y28.99019
G01 X-74.32995 Y28.78564
G01 X-74.47691 Y28.64693
G01 X-76.54407 Y26.57978
G01 X-76.66891 Y26.44752
G01 X-76.84922 Y26.23185
G01 X-76.98113 Y26.05293
G01 X-77.11176 Y25.84861
G01 X-77.24193 Y25.61092
G01 X-77.34099 Y25.40069
G01 X-77.42588 Y25.18435
G01 X-77.50777 Y24.92601
G01 X-77.56456 Y24.70066
G01 X-77.59850 Y24.52197
G01 X-77.62311 Y24.34176
G01 X-77.64219 Y24.13224
G01 X-77.64955 Y23.95050
G01 X-77.64920 Y19.02925
G01 X-77.64150 Y18.85762
G01 X-77.62420 Y18.66824
G01 X-77.60477 Y18.51790
G01 X-77.58079 Y18.37847
G01 X-77.54887 Y18.23029
G01 X-77.51328 Y18.09336
G01 X-77.46136 Y17.92094
G01 X-77.40866 Y17.76809
G01 X-77.34498 Y17.60855
G01 X-77.27356 Y17.45231
G01 X-77.17650 Y17.26565
G01 X-77.09621 Y17.12531
G01 X-77.00950 Y16.98884
G01 X-76.91661 Y16.85653
G01 X-76.81768 Y16.72862
G01 X-76.69573 Y16.58272
G01 X-76.54407 Y16.42016
G01 X-74.29571 Y14.17178
G01 X-74.25974 Y14.18699
G01 X-74.29571 Y14.17178
G01 X-74.29990 Y13.98989
G01 X-74.29409 Y13.79799
G01 X-74.26770 Y13.50086
G01 X-74.24958 Y13.35037
G01 X-74.20709 Y13.11163
G01 X-74.20404 Y13.09751
G01 X-74.19617 Y13.09751
G01 X-74.20404 Y13.09751
G01 X-74.21877 Y13.03091
G01 X-74.26058 Y12.79202
G01 X-74.28588 Y12.56287
G01 X-74.29744 Y12.38133
G01 X-74.29955 Y11.36195
G01 X-74.29218 Y11.18022
G01 X-74.27420 Y10.98075
G01 X-74.24684 Y10.78052
G01 X-74.20574 Y10.57234
G01 X-74.15776 Y10.38644
G01 X-74.08916 Y10.16630
G01 X-74.02591 Y9.99574
G01 X-73.94964 Y9.81956
G01 X-73.86856 Y9.65675
G01 X-73.75141 Y9.44649
G01 X-73.67069 Y9.31819
G01 X-73.59040 Y9.20171
G01 X-73.51169 Y9.09653
G01 X-73.40473 Y8.96442
G01 X-73.22944 Y8.76877
G01 X-73.12911 Y8.66902
G01 X-73.03242 Y8.58009
G01 X-72.79193 Y8.38225
G01 X-72.67781 Y8.29864
G01 X-72.56889 Y8.22518
G01 X-72.34319 Y8.09079
G01 X-72.18388 Y8.00682
G01 X-72.04695 Y7.94182
G01 X-71.88853 Y7.87540
G01 X-71.72703 Y7.81682
G01 X-71.52602 Y7.75470
G01 X-71.34997 Y7.70898
G01 X-71.18172 Y7.67425
G01 X-71.01200 Y7.64781
G01 X-70.80278 Y7.62566
G01 X-70.63809 Y7.61528
G01 X-70.36293 Y7.91804
G01 X-71.06567 Y7.15061
G01 X-71.28375 Y7.18462
G01 X-71.51309 Y7.23389
G01 X-71.71962 Y7.29056
G01 X-71.96950 Y7.37179
G01 X-72.17839 Y7.45368
G01 X-72.37321 Y7.54266
G01 X-72.60595 Y7.66468
G01 X-72.79041 Y7.77349
G01 X-72.96879 Y7.89203
G01 X-73.14057 Y8.01995
G01 X-73.33534 Y8.18076
G01 X-73.50783 Y8.33971
G01 X-73.65695 Y8.49346
G01 X-73.79762 Y8.65495
G01 X-73.94847 Y8.84466
G01 X-74.08934 Y9.04481
G01 X-74.21260 Y9.24438
G01 X-74.33785 Y9.47539
G01 X-74.43028 Y9.66859
G01 X-74.51588 Y9.87598
G01 X-74.58972 Y10.08786
G01 X-74.66607 Y10.34994
G01 X-74.71827 Y10.57862
G01 X-74.75698 Y10.80996
G01 X-74.78611 Y11.08060
G01 X-74.79863 Y11.31181
G01 X-74.79909 Y12.33053
G01 X-74.78997 Y12.53167
G01 X-74.76724 Y12.77158
G01 X-74.73503 Y12.99362
G01 X-74.71489 Y13.10074
G01 X-74.70986 Y13.10063
G01 X-74.71489 Y13.10074
G01 X-74.72190 Y13.13873
G01 X-74.75271 Y13.34036
G01 X-74.79147 Y13.74008
G01 X-74.79977 Y13.96878
G01 X-74.76736 Y13.98323
G01 X-74.79977 Y13.96878
G01 X-76.89759 Y16.06659
G01 X-77.06942 Y16.25051
G01 X-77.20429 Y16.41157
G01 X-77.29847 Y16.53215
G01 X-77.40528 Y16.68148
G01 X-77.49974 Y16.82684
G01 X-77.59281 Y16.98508
G01 X-77.68786 Y17.16288
G01 X-77.75923 Y17.30964
G01 X-77.83228 Y17.47804
G01 X-77.89753 Y17.64965
G01 X-77.94887 Y17.80454
G01 X-78.01092 Y18.01769
G01 X-78.05382 Y18.19618
G01 X-78.08676 Y18.36641
G01 X-78.11359 Y18.54802
G01 X-78.13611 Y18.76809
G01 X-78.14706 Y18.94898
G01 X-78.14991 Y19.09999
G01 X-78.14986 Y23.92009
G01 X-78.13998 Y24.18166
G01 X-78.10970 Y24.48227
G01 X-78.08676 Y24.63353
G01 X-78.06017 Y24.77384
G01 X-78.02857 Y24.91308
G01 X-77.99202 Y25.05111
G01 X-77.93972 Y25.22461
G01 X-77.89410 Y25.35992
G01 X-77.83990 Y25.50297
G01 X-77.78029 Y25.64387
G01 X-77.65956 Y25.89134
G01 X-77.57277 Y26.05039
G01 X-77.48895 Y26.19040
G01 X-77.41100 Y26.31006
G01 X-77.32278 Y26.43505
G01 X-77.23619 Y26.54859
G01 X-77.12837 Y26.68064
G01 X-77.01567 Y26.80947
G01 X-76.89759 Y26.93335
G01 X-74.83046 Y29.00048
G01 X-74.68453 Y29.13924
G01 X-74.57062 Y29.23837
G01 X-74.42251 Y29.35882
G01 X-74.30854 Y29.44482
G01 X-74.18309 Y29.53238
G01 X-74.05439 Y29.61510
G01 X-73.92264 Y29.69283
G01 X-73.75423 Y29.78379
G01 X-73.61725 Y29.85193
G01 X-73.42132 Y29.93840
G01 X-73.22104 Y30.01427
G01 X-72.98027 Y30.09064
G01 X-72.79315 Y30.14096
G01 X-72.59378 Y30.18406
G01 X-72.39249 Y30.21696
G01 X-72.15195 Y30.24348
G01 X-71.94095 Y30.25704
G01 X-71.78998 Y30.25988
G01 X-67.19443 Y30.25907
G01 X-66.96316 Y30.24772
G01 X-66.70279 Y30.22100
G01 X-66.47116 Y30.18406
G01 X-66.25496 Y30.13682
G01 X-66.25496 Y35.70521
G01 X-66.50538 Y35.72853
G01 X-66.75824 Y35.74570
G01 X-67.00131 Y35.75581
G01 X-67.25470 Y35.75975
G01 X-71.87105 Y35.75942
G01 X-72.27633 Y35.74730
G01 X-72.68073 Y35.71791
G01 X-73.11372 Y35.66937
G01 X-73.54659 Y35.60100
G01 X-73.96592 Y35.51502
G01 X-74.37112 Y35.41293
G01 X-74.81804 Y35.27920
G01 X-75.23196 Y35.13521
G01 X-75.63881 Y34.97229
G01 X-76.03769 Y34.79079
G01 X-76.30180 Y34.65807
G01 X-76.60462 Y34.49447
G01 X-76.86886 Y34.34060
G01 X-77.12799 Y34.17829
G01 X-77.38179 Y34.00773
G01 X-77.62176 Y33.83519
G01 X-77.85626 Y33.65525
G01 X-78.11445 Y33.44433
G01 X-78.39674 Y33.19739
G01 X-78.66184 Y32.94659
G01 X-80.90723 Y30.69925
G01 X-81.07368 Y30.52181
G01 X-81.21553 Y30.36308
G01 X-81.36679 Y30.18564
G01 X-81.52572 Y29.99085
G01 X-81.66275 Y29.81488
G01 X-81.79559 Y29.63575
G01 X-81.92996 Y29.44520
G01 X-82.05406 Y29.25989
G01 X-82.17911 Y29.06311
G01 X-82.29930 Y28.86332
G01 X-82.40474 Y28.67838
G01 X-82.52424 Y28.45717
G01 X-82.63075 Y28.24975
G01 X-82.72351 Y28.05816
G01 X-82.81195 Y27.86451
G01 X-82.90768 Y27.64084
G01 X-83.05442 Y27.26286
G01 X-83.18183 Y26.88862
G01 X-83.30796 Y26.46291
G01 X-83.40872 Y26.05971
G01 X-83.48995 Y25.66243
G01 X-83.55554 Y25.25207
G01 X-83.60600 Y24.81092
G01 X-83.63572 Y24.41672
G01 X-83.64583 Y24.17364
G01 X-83.64977 Y23.92025
G01 X-83.64977 Y19.07969
G01 X-83.64692 Y18.86684
G01 X-83.62693 Y18.44157
G01 X-83.58551 Y17.98866
G01 X-83.53163 Y17.58455
G01 X-83.46049 Y17.18313
G01 X-83.37700 Y16.80494
G01 X-83.27817 Y16.43047
G01 X-83.15381 Y16.02450
G01 X-83.01210 Y15.62306
G01 X-82.85655 Y15.23766
G01 X-82.69308 Y14.87772
G01 X-82.51952 Y14.53383
G01 X-82.30347 Y14.14374
G01 X-82.08490 Y13.78758
G01 X-81.85086 Y13.44138
G01 X-81.60812 Y13.11387
G01 X-81.34083 Y12.78318
G01 X-81.14170 Y12.55337
G01 X-80.93532 Y12.33000
G01 X-80.29976 Y11.69076
G01 X-80.26357 Y11.70605
G01 X-80.29976 Y11.69076
G01 X-80.29783 Y11.21989
G01 X-80.29113 Y11.00712
G01 X-80.27833 Y10.77430
G01 X-80.25981 Y10.54189
G01 X-80.23322 Y10.28090
G01 X-80.18163 Y9.89706
G01 X-80.11048 Y9.49564
G01 X-80.02699 Y9.11746
G01 X-79.92816 Y8.74298
G01 X-79.81010 Y8.35630
G01 X-79.68343 Y7.99252
G01 X-79.53822 Y7.62483
G01 X-79.38211 Y7.27268
G01 X-79.21188 Y6.92716
G01 X-79.00942 Y6.55340
G01 X-78.80589 Y6.21198
G01 X-78.59400 Y5.88777
G01 X-78.42951 Y5.65455
G01 X-78.27058 Y5.44251
G01 X-78.11221 Y5.24286
G01 X-77.91206 Y5.00301
G01 X-77.71686 Y4.78320
G01 X-77.53614 Y4.59135
G01 X-77.33566 Y4.39044
G01 X-77.14419 Y4.20931
G01 X-76.94778 Y4.03357
G01 X-76.74656 Y3.86334
G01 X-76.51826 Y3.67939
G01 X-76.26614 Y3.48894
G01 X-76.03310 Y3.32415
G01 X-75.81237 Y3.17751
G01 X-75.57018 Y3.02661
G01 X-75.33244 Y2.88798
G01 X-75.08994 Y2.75565
G01 X-74.38840 Y3.51909
G01 X-74.73991 Y3.13657
G01 X-75.05174 Y3.30375
G01 X-75.34130 Y3.47251
G01 X-75.63284 Y3.65747
G01 X-75.90884 Y3.84757
G01 X-76.23358 Y4.09156
G01 X-76.59246 Y4.38727
G01 X-76.75225 Y4.52852
G01 X-76.91600 Y4.68051
G01 X-77.20388 Y4.96710
G01 X-77.35661 Y5.13016
G01 X-77.49857 Y5.28930
G01 X-77.77670 Y5.62318
G01 X-78.02923 Y5.95422
G01 X-78.27175 Y6.30504
G01 X-78.46096 Y6.60590
G01 X-78.64793 Y6.93186
G01 X-78.83078 Y7.28078
G01 X-78.99557 Y7.62970
G01 X-79.13776 Y7.96651
G01 X-79.26951 Y8.31840
G01 X-79.38054 Y8.65604
G01 X-79.49260 Y9.04425
G01 X-79.58143 Y9.40935
G01 X-79.65671 Y9.78781
G01 X-79.71704 Y10.17925
G01 X-79.76034 Y10.57079
G01 X-79.79016 Y10.99624
G01 X-79.79979 Y11.40234
G01 X-79.79979 Y11.89787
G01 X-79.76263 Y11.91341
G01 X-79.79979 Y11.89787
G01 X-80.47601 Y12.57447
G01 X-80.70662 Y12.81763
G01 X-80.91485 Y13.05375
G01 X-81.13936 Y13.32654
G01 X-81.32511 Y13.56804
G01 X-81.50835 Y13.82405
G01 X-81.68797 Y14.09484
G01 X-81.85254 Y14.36322
G01 X-81.99793 Y14.61935
G01 X-82.16715 Y14.94102
G01 X-82.30367 Y15.22468
G01 X-82.43019 Y15.51297
G01 X-82.55013 Y15.81498
G01 X-82.65584 Y16.11152
G01 X-82.75945 Y16.43865
G01 X-82.84261 Y16.73174
G01 X-82.91352 Y17.01759
G01 X-82.97700 Y17.31556
G01 X-83.02874 Y17.60548
G01 X-83.07225 Y17.90703
G01 X-83.11035 Y18.25828
G01 X-83.13247 Y18.54177
G01 X-83.14464 Y18.79537
G01 X-83.14974 Y19.06951
G01 X-83.14814 Y24.07260
G01 X-83.14108 Y24.29591
G01 X-83.12848 Y24.51898
G01 X-83.08792 Y24.96182
G01 X-83.06026 Y25.18354
G01 X-83.02874 Y25.39446
G01 X-82.95282 Y25.80383
G01 X-82.90662 Y26.01201
G01 X-82.85035 Y26.23876
G01 X-82.72755 Y26.66614
G01 X-82.59572 Y27.06108
G01 X-82.44576 Y27.44950
G01 X-82.28231 Y27.82136
G01 X-82.09280 Y28.20345
G01 X-81.97345 Y28.42511
G01 X-81.86796 Y28.61048
G01 X-81.75277 Y28.80192
G01 X-81.63842 Y28.98193
G01 X-81.40301 Y29.32537
G01 X-81.15198 Y29.65752
G01 X-80.86187 Y30.00786
G01 X-80.70657 Y30.18234
G01 X-80.55384 Y30.34541
G01 X-78.32265 Y32.57890
G01 X-78.07226 Y32.81662
G01 X-77.82067 Y33.03801
G01 X-77.57922 Y33.23671
G01 X-77.36253 Y33.40473
G01 X-77.12423 Y33.57776
G01 X-76.88887 Y33.73732
G01 X-76.64859 Y33.88939
G01 X-76.39479 Y34.03879
G01 X-76.10236 Y34.19808
G01 X-75.85791 Y34.32226
G01 X-75.47041 Y34.50046
G01 X-75.09393 Y34.65294
G01 X-74.71095 Y34.78827
G01 X-74.26597 Y34.92325
G01 X-73.88222 Y35.02122
G01 X-73.48456 Y35.10404
G01 X-73.07351 Y35.17024
G01 X-72.66198 Y35.21743
G01 X-72.45962 Y35.23483
G01 X-72.22650 Y35.24918
G01 X-71.80011 Y35.25977
G01 X-67.21406 Y35.25957
G01 X-66.85874 Y35.25015
G01 X-66.50408 Y35.22670
G01 X-66.25496 Y35.20249
G01 X-66.25496 Y34.69945
G01 X-66.52290 Y34.72645
G01 X-66.75631 Y34.74395
G01 X-67.01043 Y34.75566
G01 X-67.24447 Y34.75972
G01 X-71.85101 Y34.75957
G01 X-72.22736 Y34.74852
G01 X-72.61296 Y34.71984
G01 X-73.03524 Y34.67077
G01 X-73.23640 Y34.63994
G01 X-73.44679 Y34.60239
G01 X-73.66610 Y34.55741
G01 X-73.86437 Y34.51151
G01 X-74.25736 Y34.40554
G01 X-74.67224 Y34.27379
G01 X-74.86386 Y34.20524
G01 X-75.06325 Y34.12833
G01 X-75.26995 Y34.04240
G01 X-75.45588 Y33.95960
G01 X-75.64890 Y33.86788
G01 X-75.84857 Y33.76663
G01 X-76.10625 Y33.62747
G01 X-76.31765 Y33.50519
G01 X-76.54262 Y33.36592
G01 X-76.75474 Y33.22546
G01 X-76.96253 Y33.07875
G01 X-77.17391 Y32.91962
G01 X-77.40216 Y32.73610
G01 X-77.58852 Y32.57827
G01 X-77.80752 Y32.38048
G01 X-77.99794 Y32.19679
G01 X-80.08673 Y30.10802
G01 X-80.28432 Y29.90271
G01 X-80.55437 Y29.59821
G01 X-80.83448 Y29.25178
G01 X-81.07500 Y28.92344
G01 X-81.29951 Y28.58392
G01 X-81.41078 Y28.40149
G01 X-81.51249 Y28.22519
G01 X-81.71708 Y27.84097
G01 X-81.88742 Y27.48252
G01 X-81.96821 Y27.29573
G01 X-82.04822 Y27.09756
G01 X-82.17698 Y26.74376
G01 X-82.28975 Y26.38689
G01 X-82.38434 Y26.04353
G01 X-82.46237 Y25.70645
G01 X-82.52996 Y25.34643
G01 X-82.57949 Y25.00401
G01 X-82.61825 Y24.63178
G01 X-82.64147 Y24.27638
G01 X-82.64980 Y23.91014
G01 X-82.64980 Y19.08980
G01 X-82.64685 Y18.87611
G01 X-82.62861 Y18.50006
G01 X-82.58912 Y18.07677
G01 X-82.53651 Y17.69369
G01 X-82.46654 Y17.31340
G01 X-82.38434 Y16.95643
G01 X-82.28393 Y16.59357
G01 X-82.15716 Y16.19844
G01 X-82.02211 Y15.83614
G01 X-81.87492 Y15.48961
G01 X-81.71711 Y15.15900
G01 X-81.52244 Y14.79255
G01 X-81.33179 Y14.46789
G01 X-81.13265 Y14.16040
G01 X-80.92046 Y13.86180
G01 X-80.70845 Y13.58842
G01 X-80.44815 Y13.27841
G01 X-80.29128 Y13.10472
G01 X-80.14391 Y12.94991
G01 X-79.29979 Y12.10495
G01 X-79.26273 Y12.12022
G01 X-79.29979 Y12.10495
G01 X-79.29761 Y11.21915
G01 X-79.28747 Y10.95477
G01 X-79.26824 Y10.68070
G01 X-79.22697 Y10.28824
G01 X-79.16977 Y9.90582
G01 X-79.09524 Y9.52640
G01 X-79.00352 Y9.15076
G01 X-78.88696 Y8.75251
G01 X-78.77322 Y8.41502
G01 X-78.64157 Y8.07316
G01 X-78.49108 Y7.72805
G01 X-78.32542 Y7.38995
G01 X-78.12738 Y7.02531
G01 X-77.93325 Y6.70273
G01 X-77.71920 Y6.38071
G01 X-77.55832 Y6.15800
G01 X-77.40299 Y5.95650
G01 X-77.20442 Y5.71429
G01 X-77.03053 Y5.51487
G01 X-76.84346 Y5.31363
G01 X-76.65001 Y5.11856
G01 X-76.45034 Y4.92981
G01 X-76.25240 Y4.75425
G01 X-76.01153 Y4.55402
G01 X-75.80325 Y4.39087
G01 X-75.58999 Y4.23428
G01 X-75.36348 Y4.07878
G01 X-75.13206 Y3.93068
G01 X-74.89596 Y3.79014
G01 X-74.61260 Y3.63436
G01 X-74.38840 Y3.51909
G01 X-72.60161 Y5.47395
G01 X-73.32459 Y4.68127
G01 X-73.38261 Y4.70593
G01 X-73.59609 Y4.80210
G01 X-73.80625 Y4.90535
G01 X-74.04687 Y5.03344
G01 X-74.24999 Y5.14993
G01 X-74.44910 Y5.27314
G01 X-74.65235 Y5.40873
G01 X-74.83442 Y5.53918
G01 X-75.02815 Y5.68808
G01 X-75.23099 Y5.85455
G01 X-75.40727 Y6.00867
G01 X-75.58560 Y6.17571
G01 X-75.75796 Y6.34883
G01 X-75.93101 Y6.53545
G01 X-76.07104 Y6.69704
G01 X-76.24336 Y6.90824
G01 X-76.39741 Y7.11083
G01 X-76.60610 Y7.41210
G01 X-76.78844 Y7.70628
G01 X-76.98374 Y8.06099
G01 X-77.13614 Y8.37174
G01 X-77.27300 Y8.68964
G01 X-77.39398 Y9.01393
G01 X-77.51300 Y9.39030
G01 X-77.60185 Y9.72482
G01 X-77.67028 Y10.04331
G01 X-77.72524 Y10.37473
G01 X-77.76903 Y10.75657
G01 X-77.79189 Y11.07912
G01 X-77.79977 Y11.38217
G01 X-77.79692 Y12.45207
G01 X-77.78463 Y12.71107
G01 X-77.74267 Y12.72756
G01 X-77.78463 Y12.71107
G01 X-79.05445 Y13.98125
G01 X-79.19402 Y14.12743
G01 X-79.34261 Y14.29281
G01 X-79.51038 Y14.49263
G01 X-79.63725 Y14.65189
G01 X-79.78330 Y14.84777
G01 X-79.93931 Y15.07406
G01 X-80.08104 Y15.29761
G01 X-80.20926 Y15.51747
G01 X-80.34779 Y15.77558
G01 X-80.46037 Y16.00385
G01 X-80.57253 Y16.25481
G01 X-80.67477 Y16.50995
G01 X-80.76689 Y16.76890
G01 X-80.85727 Y17.05826
G01 X-80.92745 Y17.31348
G01 X-80.98793 Y17.57116
G01 X-81.03685 Y17.82092
G01 X-81.07944 Y18.09247
G01 X-81.10936 Y18.34520
G01 X-81.13573 Y18.65561
G01 X-81.14563 Y18.85747
G01 X-81.14977 Y19.06966
G01 X-81.14957 Y23.96061
G01 X-81.13758 Y24.31407
G01 X-81.10626 Y24.68512
G01 X-81.06491 Y25.00826
G01 X-81.00253 Y25.35903
G01 X-80.91983 Y25.71605
G01 X-80.81965 Y26.06622
G01 X-80.71005 Y26.39454
G01 X-80.58831 Y26.70762
G01 X-80.45602 Y27.00531
G01 X-80.30525 Y27.30553
G01 X-80.12811 Y27.62374
G01 X-79.93367 Y27.93439
G01 X-79.74741 Y28.20165
G01 X-79.54251 Y28.46786
G01 X-79.31597 Y28.73759
G01 X-79.06857 Y29.00429
G01 X-76.91585 Y31.15737
G01 X-76.72530 Y31.33827
G01 X-76.52809 Y31.51187
G01 X-76.31811 Y31.68439
G01 X-76.14072 Y31.82112
G01 X-75.94232 Y31.96372
G01 X-75.73051 Y32.10481
G01 X-75.52245 Y32.23293
G01 X-75.31900 Y32.34883
G01 X-75.07808 Y32.47636
G01 X-74.84918 Y32.58759
G01 X-74.55052 Y32.71771
G01 X-74.24616 Y32.83377
G01 X-73.95619 Y32.92963
G01 X-73.59617 Y33.03237
G01 X-73.26897 Y33.10842
G01 X-72.95858 Y33.16547
G01 X-72.64596 Y33.20847
G01 X-72.30491 Y33.24085
G01 X-72.06275 Y33.25449
G01 X-71.82028 Y33.25975
G01 X-67.24467 Y33.25975
G01 X-66.88107 Y33.24873
G01 X-66.48983 Y33.21624
G01 X-66.25496 Y33.18769
G01 X-66.25496 Y32.68256
G01 X-66.48798 Y32.71312
G01 X-66.75895 Y32.73930
G01 X-66.98135 Y32.75320
G01 X-67.21422 Y32.75955
G01 X-71.81022 Y32.75980
G01 X-72.04311 Y32.75490
G01 X-72.26559 Y32.74240
G01 X-72.60740 Y32.70961
G01 X-72.92071 Y32.66501
G01 X-73.25144 Y32.60085
G01 X-73.56853 Y32.52234
G01 X-73.91817 Y32.41728
G01 X-74.22614 Y32.30832
G01 X-74.53760 Y32.17990
G01 X-74.84196 Y32.03550
G01 X-75.05659 Y31.92242
G01 X-75.23450 Y31.82224
G01 X-75.40920 Y31.71650
G01 X-75.59741 Y31.59392
G01 X-75.77300 Y31.47093
G01 X-75.93637 Y31.34845
G01 X-76.13338 Y31.19013
G01 X-76.28773 Y31.05897
G01 X-76.44531 Y30.91614
G01 X-76.59101 Y30.77538
G01 X-78.66535 Y28.70106
G01 X-78.81993 Y28.54058
G01 X-79.02824 Y28.30566
G01 X-79.25610 Y28.02354
G01 X-79.45267 Y27.75323
G01 X-79.62979 Y27.48181
G01 X-79.80289 Y27.18415
G01 X-79.97007 Y26.86233
G01 X-80.10474 Y26.56754
G01 X-80.22806 Y26.25689
G01 X-80.32006 Y25.98864
G01 X-80.40388 Y25.70917
G01 X-80.46966 Y25.45420
G01 X-80.52697 Y25.18679
G01 X-80.57149 Y24.92726
G01 X-80.60545 Y24.66612
G01 X-80.63316 Y24.36551
G01 X-80.64701 Y24.09238
G01 X-80.64985 Y23.89998
G01 X-80.64757 Y18.92780
G01 X-80.63090 Y18.60413
G01 X-80.59473 Y18.24200
G01 X-80.54642 Y17.91891
G01 X-80.48419 Y17.60860
G01 X-80.40144 Y17.28203
G01 X-80.30134 Y16.95348
G01 X-80.19603 Y16.65773
G01 X-80.07655 Y16.36738
G01 X-79.93413 Y16.06502
G01 X-79.76804 Y15.75288
G01 X-79.61193 Y15.48938
G01 X-79.43776 Y15.22514
G01 X-79.28806 Y15.01841
G01 X-79.12390 Y14.80983
G01 X-78.94229 Y14.59456
G01 X-78.74335 Y14.37848
G01 X-77.26721 Y12.90074
G01 X-77.22232 Y12.91775
G01 X-77.26721 Y12.90074
G01 X-77.29322 Y12.54361
G01 X-77.29982 Y12.27023
G01 X-77.29700 Y11.22007
G01 X-77.27932 Y10.89645
G01 X-77.24219 Y10.53424
G01 X-77.19286 Y10.21131
G01 X-77.13193 Y9.91116
G01 X-77.04587 Y9.57489
G01 X-76.93530 Y9.21796
G01 X-76.81653 Y8.89475
G01 X-76.68080 Y8.57829
G01 X-76.52850 Y8.26945
G01 X-76.34153 Y7.93272
G01 X-76.15669 Y7.63892
G01 X-75.95644 Y7.35543
G01 X-75.81892 Y7.17784
G01 X-75.63881 Y6.96057
G01 X-75.49060 Y6.79420
G01 X-75.32964 Y6.62577
G01 X-75.15537 Y6.45632
G01 X-74.99015 Y6.30682
G01 X-74.77432 Y6.12564
G01 X-74.59782 Y5.98673
G01 X-74.40828 Y5.84812
G01 X-74.22241 Y5.72201
G01 X-74.02355 Y5.59712
G01 X-73.82924 Y5.48447
G01 X-73.58911 Y5.35589
G01 X-73.38926 Y5.25734
G01 X-73.18614 Y5.16570
G01 X-72.96521 Y5.07533
G01 X-70.30560 Y7.98129
G01 X-69.81828 Y8.57283
G01 X-69.78200 Y8.62175
G01 X-69.44799 Y9.11997
G01 X-69.41906 Y9.16823
G01 X-69.16257 Y9.65215
G01 X-68.98356 Y10.08972
G01 X-68.86268 Y10.49548
G01 X-68.78861 Y10.87864
G01 X-68.75635 Y11.20508
G01 X-68.74614 Y11.47163
G01 X-68.74932 Y11.47224
G01 X-68.74614 Y11.47163
G01 X-68.73484 Y11.51379
G01 X-68.70169 Y11.60564
G01 X-68.60873 Y11.91123
G01 X-68.44000 Y12.64577
G01 X-68.44525 Y12.64783
G01 X-68.44000 Y12.64577
G01 X-68.42382 Y12.68039
G01 X-68.24977 Y12.98633
G01 X-68.02366 Y13.36426
G01 X-68.01322 Y13.43464
G01 X-67.98539 Y13.71669
G01 X-67.97827 Y13.86124
G01 X-67.97827 Y14.13876
G01 X-67.98539 Y14.28328
G01 X-68.01322 Y14.56525
G01 X-68.03466 Y14.70990
G01 X-68.09367 Y15.00571
G01 X-68.13001 Y15.15085
G01 X-68.22577 Y15.46291
G01 X-68.27086 Y15.83792
G01 X-68.33900 Y16.17960
G01 X-68.46037 Y16.58699
G01 X-68.56128 Y16.69298
G01 X-71.73907 Y19.87078
G01 X-71.77016 Y19.90865
G01 X-71.77862 Y19.90306
G01 X-71.77016 Y19.90865
G01 X-71.79325 Y19.95188
G01 X-71.82564 Y20.03008
G01 X-71.92424 Y20.28845
G01 X-72.03597 Y20.65449
G01 X-72.05609 Y20.73727
G01 X-72.13407 Y21.14141
G01 X-72.16694 Y21.47740
G01 X-72.17164 Y21.56079
G01 X-72.17103 Y21.88019
G01 X-72.16833 Y21.95129
G01 X-72.13547 Y22.28736
G01 X-72.12470 Y22.35822
G01 X-72.05609 Y22.70364
G01 X-72.03636 Y22.78454
G01 X-71.94751 Y23.08352
G01 X-71.95033 Y23.08469
G01 X-71.94751 Y23.08352
G01 X-71.92617 Y23.13427
G01 X-71.89427 Y23.17913
G01 X-71.89803 Y23.18194
G01 X-71.89427 Y23.17913
G01 X-71.80824 Y23.27420
G01 X-71.55370 Y23.52873
G01 X-71.49234 Y23.58537
G01 X-71.20875 Y23.81700
G01 X-71.01931 Y23.95377
G01 X-71.02079 Y23.95644
G01 X-71.01931 Y23.95377
G01 X-70.97118 Y23.98052
G01 X-70.91837 Y23.99609
G01 X-70.91929 Y23.99924
G01 X-70.91837 Y23.99609
G01 X-70.62470 Y24.04623
G01 X-70.19112 Y24.08601
G01 X-69.80890 Y24.08603
G01 X-69.75010 Y24.08260
G01 X-69.37517 Y24.04656
G01 X-69.29217 Y24.03351
G01 X-68.91924 Y23.95913
G01 X-68.83646 Y23.93902
G01 X-68.42867 Y23.81443
G01 X-68.14825 Y23.70747
G01 X-67.18219 Y23.30732
G01 X-66.98618 Y23.23175
G01 X-66.25496 Y23.65484
G01 X-66.25496 Y28.56743
G01 X-66.25496 Y28.02049
G01 X-66.37162 Y28.07508
G01 X-66.48404 Y28.11932
G01 X-66.64554 Y28.17094
G01 X-66.75252 Y28.19961
G01 X-66.87081 Y28.22407
G01 X-66.98038 Y28.24018
G01 X-67.13045 Y28.25468
G01 X-67.25432 Y28.25981
G01 X-71.86229 Y28.25862
G01 X-72.09455 Y28.23896
G01 X-72.28299 Y28.20640
G01 X-72.39038 Y28.17934
G01 X-72.51416 Y28.14198
G01 X-72.60925 Y28.10891
G01 X-72.70255 Y28.07109
G01 X-72.80285 Y28.02410
G01 X-72.90826 Y27.96845
G01 X-73.05515 Y27.88067
G01 X-73.19401 Y27.78064
G01 X-73.35662 Y27.64353
G01 X-75.54051 Y25.45903
G01 X-75.66439 Y25.31191
G01 X-75.75390 Y25.19030
G01 X-75.83396 Y25.06226
G01 X-75.91862 Y24.90386
G01 X-75.98059 Y24.76614
G01 X-76.02891 Y24.63376
G01 X-76.07988 Y24.46152
G01 X-76.11410 Y24.30414
G01 X-76.12898 Y24.20455
G01 X-76.14224 Y24.07542
G01 X-76.14991 Y23.91029
G01 X-76.14953 Y19.05864
G01 X-76.14470 Y18.95544
G01 X-76.13249 Y18.82539
G01 X-76.10274 Y18.63646
G01 X-76.07734 Y18.52869
G01 X-76.04100 Y18.40461
G01 X-75.97678 Y18.22447
G01 X-75.89568 Y18.05127
G01 X-75.83396 Y17.93768
G01 X-75.77618 Y17.84320
G01 X-75.66439 Y17.68803
G01 X-75.58156 Y17.58739
G01 X-75.51237 Y17.51066
G01 X-72.70773 Y14.70510
G01 X-72.64400 Y14.72438
G01 X-72.70773 Y14.70510
G01 X-72.73003 Y14.62001
G01 X-72.75091 Y14.52151
G01 X-72.76813 Y14.41211
G01 X-72.79813 Y14.08554
G01 X-72.79965 Y13.96474
G01 X-72.79462 Y13.85413
G01 X-72.77176 Y13.61785
G01 X-72.75449 Y13.49827
G01 X-72.71774 Y13.33114
G01 X-72.64700 Y13.09403
G01 X-72.64357 Y13.08329
G01 X-72.62343 Y13.08298
G01 X-72.64357 Y13.08329
G01 X-72.67890 Y12.98379
G01 X-72.71936 Y12.85042
G01 X-72.76051 Y12.67396
G01 X-72.78454 Y12.50455
G01 X-72.79543 Y12.38423
G01 X-72.79983 Y12.27064
G01 X-72.79777 Y11.31951
G01 X-72.78136 Y11.12789
G01 X-72.76051 Y10.98850
G01 X-72.72734 Y10.84120
G01 X-72.68200 Y10.68829
G01 X-72.63435 Y10.55566
G01 X-72.57748 Y10.42670
G01 X-72.49389 Y10.26772
G01 X-72.42066 Y10.14727
G01 X-72.30179 Y9.98484
G01 X-72.21908 Y9.88548
G01 X-72.13694 Y9.79688
G01 X-71.98863 Y9.66076
G01 X-71.88815 Y9.57943
G01 X-71.79028 Y9.50857
G01 X-71.61830 Y9.40399
G01 X-71.49483 Y9.33938
G01 X-71.39407 Y9.29343
G01 X-71.21459 Y9.22741
G01 X-71.08099 Y9.18774
G01 X-70.97334 Y9.16178
G01 X-70.77456 Y9.12998
G01 X-70.63580 Y9.11713
G01 X-70.52516 Y9.11268
G01 X-70.32399 Y9.12028
G01 X-70.18538 Y9.13475
G01 X-70.07598 Y9.15195
G01 X-69.97751 Y9.17283
G01 X-69.88018 Y9.19866
G01 X-69.74708 Y9.23988
G01 X-69.64314 Y9.27811
G01 X-69.46913 Y9.35746
G01 X-69.34642 Y9.42353
G01 X-69.25132 Y9.48101
G01 X-69.44799 Y9.11997
G01 X-69.71124 Y8.72731
G01 X-69.91368 Y8.67463
G01 X-70.11513 Y8.63968
G01 X-70.35688 Y8.61662
G01 X-70.57154 Y8.61355
G01 X-70.81370 Y8.63135
G01 X-71.00603 Y8.65868
G01 X-71.20555 Y8.70349
G01 X-71.42805 Y8.77136
G01 X-71.60913 Y8.84164
G01 X-71.78421 Y8.92576
G01 X-71.98680 Y9.04009
G01 X-72.16407 Y9.16117
G01 X-72.35274 Y9.31405
G01 X-72.49424 Y9.44715
G01 X-72.62500 Y9.59081
G01 X-72.77552 Y9.78134
G01 X-72.88312 Y9.94308
G01 X-72.98190 Y10.11921
G01 X-73.05845 Y10.27527
G01 X-73.12398 Y10.43625
G01 X-73.19239 Y10.64786
G01 X-73.23564 Y10.81621
G01 X-73.26711 Y10.98715
G01 X-73.28982 Y11.18781
G01 X-73.29990 Y11.40226
G01 X-73.29985 Y12.27044
G01 X-73.29388 Y12.42370
G01 X-73.27143 Y12.64496
G01 X-73.23996 Y12.82629
G01 X-73.21161 Y12.94567
G01 X-73.16897 Y13.09200
G01 X-73.15401 Y13.09190
G01 X-73.16897 Y13.09200
G01 X-73.18278 Y13.13779
G01 X-73.21692 Y13.26627
G01 X-73.24601 Y13.40645
G01 X-73.27151 Y13.58870
G01 X-73.29157 Y13.79568
G01 X-73.29861 Y13.91818
G01 X-73.29942 Y14.05113
G01 X-73.29391 Y14.17368
G01 X-73.25751 Y14.52288
G01 X-73.25421 Y14.54447
G01 X-73.20359 Y14.56235
G01 X-73.25421 Y14.54447
G01 X-75.88674 Y17.17888
G01 X-75.96840 Y17.27048
G01 X-76.07026 Y17.39524
G01 X-76.20051 Y17.57860
G01 X-76.26955 Y17.69219
G01 X-76.34148 Y17.82478
G01 X-76.39144 Y17.92554
G01 X-76.43680 Y18.02849
G01 X-76.48778 Y18.16224
G01 X-76.53652 Y18.31574
G01 X-76.56924 Y18.43400
G01 X-76.59614 Y18.55373
G01 X-76.62004 Y18.69488
G01 X-76.63790 Y18.85493
G01 X-76.64691 Y18.97731
G01 X-76.64994 Y19.09999
G01 X-76.64859 Y23.98177
G01 X-76.64158 Y24.10427
G01 X-76.62659 Y24.25436
G01 X-76.58997 Y24.47628
G01 X-76.53652 Y24.68420
G01 X-76.49441 Y24.81837
G01 X-76.44836 Y24.94305
G01 X-76.40427 Y25.04653
G01 X-76.35090 Y25.15702
G01 X-76.27960 Y25.28997
G01 X-76.21697 Y25.39545
G01 X-76.15504 Y25.48938
G01 X-76.08898 Y25.58037
G01 X-75.92812 Y25.77577
G01 X-75.82985 Y25.87983
G01 X-73.75530 Y27.95425
G01 X-73.64273 Y28.05839
G01 X-73.51075 Y28.16758
G01 X-73.40448 Y28.24742
G01 X-73.29409 Y28.32151
G01 X-73.17100 Y28.39458
G01 X-73.01047 Y28.47927
G01 X-72.88032 Y28.53888
G01 X-72.74697 Y28.59095
G01 X-72.51525 Y28.66360
G01 X-72.31614 Y28.71003
G01 X-72.11388 Y28.74002
G01 X-71.97387 Y28.75313
G01 X-71.86153 Y28.75890
G01 X-67.26476 Y28.75989
G01 X-67.04012 Y28.74886
G01 X-66.88000 Y28.73141
G01 X-66.74881 Y28.71003
G01 X-66.52999 Y28.65806
G01 X-66.37599 Y28.61089
G01 X-66.25496 Y28.56743
G01 X-66.25499 Y30.65018
G01 X-66.42339 Y30.68366
G01 X-66.59387 Y30.71084
G01 X-66.93626 Y30.74711
G01 X-67.23390 Y30.75968
G01 X-71.80024 Y30.75986
G01 X-72.01588 Y30.75419
G01 X-72.21057 Y30.74017
G01 X-72.46099 Y30.71223
G01 X-72.66153 Y30.68005
G01 X-72.87031 Y30.63657
G01 X-73.07679 Y30.58323
G01 X-73.31751 Y30.50951
G01 X-73.51832 Y30.43779
G01 X-73.72482 Y30.35254
G01 X-73.89957 Y30.27073
G01 X-74.09576 Y30.16837
G01 X-74.23729 Y30.08856
G01 X-74.38441 Y29.99821
G01 X-74.52794 Y29.90230
G01 X-74.67580 Y29.79483
G01 X-74.79561 Y29.70075
G01 X-74.96650 Y29.55757
G01 X-75.17671 Y29.36128
G01 X-77.31582 Y27.22057
G01 X-77.48786 Y27.02989
G01 X-77.66634 Y26.81006
G01 X-77.80388 Y26.62128
G01 X-77.94203 Y26.40833
G01 X-78.06319 Y26.19685
G01 X-78.20043 Y25.92725
G01 X-78.30180 Y25.69451
G01 X-78.38661 Y25.46601
G01 X-78.45621 Y25.24531
G01 X-78.49987 Y25.08880
G01 X-78.54216 Y24.91097
G01 X-78.57546 Y24.74156
G01 X-78.60497 Y24.55088
G01 X-78.62821 Y24.34105
G01 X-78.64257 Y24.15667
G01 X-78.64914 Y23.98215
G01 X-78.64894 Y19.00751
G01 X-78.63713 Y18.76125
G01 X-78.60759 Y18.46920
G01 X-78.57007 Y18.22839
G01 X-78.51717 Y17.98010
G01 X-78.45331 Y17.74492
G01 X-78.36997 Y17.48594
G01 X-78.28646 Y17.26781
G01 X-78.18737 Y17.04515
G01 X-78.05354 Y16.78523
G01 X-77.94206 Y16.59164
G01 X-77.80965 Y16.38704
G01 X-77.66014 Y16.18186
G01 X-77.46108 Y15.93891
G01 X-77.26576 Y15.72778
G01 X-75.29322 Y13.75512
G01 X-75.26599 Y13.76817
G01 X-75.29322 Y13.75512
G01 X-75.28923 Y13.69047
G01 X-75.25299 Y13.31196
G01 X-75.22929 Y13.14094
G01 X-75.22327 Y13.10391
G01 X-75.21971 Y13.10386
G01 X-75.22327 Y13.10391
G01 X-75.23566 Y13.03150
G01 X-75.26376 Y12.83038
G01 X-75.28385 Y12.62967
G01 X-75.29520 Y12.45540
G01 X-75.29985 Y12.27051
G01 X-75.29932 Y11.34057
G01 X-75.29002 Y11.11476
G01 X-75.26937 Y10.88258
G01 X-75.24653 Y10.70122
G01 X-75.21255 Y10.50099
G01 X-75.14730 Y10.21385
G01 X-75.05901 Y9.91390
G01 X-74.96307 Y9.64626
G01 X-74.85471 Y9.39439
G01 X-74.78337 Y9.24844
G01 X-74.70353 Y9.09775
G01 X-74.56538 Y8.86094
G01 X-74.40122 Y8.61647
G01 X-74.22789 Y8.39109
G01 X-74.11199 Y8.25249
G01 X-73.98949 Y8.11685
G01 X-73.86155 Y7.98629
G01 X-73.73595 Y7.86785
G01 X-73.60590 Y7.75432
G01 X-73.43414 Y7.61477
G01 X-73.27948 Y7.49940
G01 X-73.13704 Y7.40186
G01 X-72.99094 Y7.30989
G01 X-72.84143 Y7.22356
G01 X-72.64593 Y7.11990
G01 X-72.47191 Y7.03651
G01 X-72.31334 Y6.96829
G01 X-72.14271 Y6.90275
G01 X-71.97923 Y6.84726
G01 X-71.78680 Y6.78922
G01 X-71.63958 Y6.75013
G01 X-71.46679 Y6.71096
G01 X-71.16107 Y7.04677
G01 X-70.26956 Y7.27735
G01 X-70.25170 Y7.14794
G01 X-70.22691 Y7.00865
G01 X-70.19651 Y6.87047
G01 X-70.15777 Y6.72394
G01 X-70.10827 Y6.56133
G01 X-70.05866 Y6.41810
G01 X-70.00288 Y6.27715
G01 X-69.94106 Y6.13877
G01 X-69.87799 Y6.01213
G01 X-69.78716 Y5.84502
G01 X-69.71444 Y5.72369
G01 X-69.63687 Y5.60537
G01 X-69.55457 Y5.49029
G01 X-69.46768 Y5.37863
G01 X-69.35899 Y5.24797
G01 X-69.25737 Y5.13550
G01 X-65.62979 Y1.50589
G01 X-65.45199 Y1.34097
G01 X-65.26593 Y1.18826
G01 X-65.09459 Y1.06309
G01 X-64.90729 Y0.94336
G01 X-64.70571 Y0.83137
G01 X-64.52456 Y0.74183
G01 X-64.33853 Y0.66289
G01 X-64.15783 Y0.59794
G01 X-63.93711 Y0.53124
G01 X-63.72101 Y0.47909
G01 X-63.49205 Y0.43937
G01 X-63.22256 Y0.41064
G01 X-62.99040 Y0.40025
G01 X-49.20902 Y0.40122
G01 X-48.97704 Y0.41496
G01 X-48.69792 Y0.44826
G01 X-48.45982 Y0.49421
G01 X-48.22546 Y0.55651
G01 X-47.96808 Y0.64130
G01 X-47.74377 Y0.73348
G01 X-47.61606 Y0.79431
G01 X-47.47453 Y0.86865
G01 X-47.26511 Y0.99090
G01 X-47.12213 Y1.08613
G01 X-46.97606 Y1.19449
G01 X-46.80560 Y1.33436
G01 X-46.67082 Y1.45651
G01 X-45.00588 Y3.12016
G01 X-44.90817 Y3.22250
G01 X-44.81469 Y3.32867
G01 X-44.66974 Y3.50802
G01 X-44.54606 Y3.68046
G01 X-44.43306 Y3.86006
G01 X-44.32666 Y4.05315
G01 X-44.23763 Y4.23459
G01 X-44.15922 Y4.42084
G01 X-44.09168 Y4.61132
G01 X-44.02592 Y4.83235
G01 X-43.97304 Y5.05864
G01 X-43.93662 Y5.27794
G01 X-43.90989 Y5.53745
G01 X-43.90017 Y5.76966
G01 X-43.90004 Y16.38483
G01 X-43.93796 Y16.40050
G01 X-43.90004 Y16.38483
G01 X-43.42666 Y16.85836
G01 X-43.30258 Y16.99136
G01 X-43.15457 Y17.16819
G01 X-43.03865 Y17.32123
G01 X-42.92590 Y17.48894
G01 X-42.82791 Y17.65404
G01 X-42.71584 Y17.86705
G01 X-42.63207 Y18.05097
G01 X-42.55907 Y18.23941
G01 X-42.48859 Y18.45897
G01 X-42.43608 Y18.65412
G01 X-42.39674 Y18.84205
G01 X-42.36651 Y19.04185
G01 X-42.34490 Y19.26128
G01 X-42.33504 Y19.51370
G01 X-42.33504 Y22.36008
G01 X-42.34147 Y22.56208
G01 X-42.37299 Y22.88205
G01 X-42.39674 Y23.03173
G01 X-42.42473 Y23.17041
G01 X-42.46623 Y23.33711
G01 X-42.52054 Y23.51938
G01 X-42.56588 Y23.65339
G01 X-42.62044 Y23.79482
G01 X-42.71584 Y24.00673
G01 X-42.84779 Y24.25494
G01 X-42.96984 Y24.45271
G01 X-43.10474 Y24.64194
G01 X-43.27596 Y24.85199
G01 X-43.44088 Y25.02980
G01 X-43.61772 Y25.19573
G01 X-43.81901 Y25.36170
G01 X-44.00707 Y25.49822
G01 X-44.20377 Y25.62200
G01 X-44.45107 Y25.75565
G01 X-44.66214 Y25.85288
G01 X-44.87921 Y25.93589
G01 X-45.13811 Y26.01603
G01 X-45.36394 Y26.07086
G01 X-45.59242 Y26.11049
G01 X-45.37613 Y26.55316
G01 X-45.36224 Y26.57983
G01 X-45.35119 Y26.57785
G01 X-45.09219 Y26.52116
G01 X-44.82981 Y26.44584
G01 X-44.59846 Y26.36589
G01 X-44.38178 Y26.27612
G01 X-44.17070 Y26.17381
G01 X-43.92287 Y26.03680
G01 X-43.70804 Y25.89952
G01 X-43.51043 Y25.75509
G01 X-43.29191 Y25.57501
G01 X-43.10530 Y25.40127
G01 X-42.93692 Y25.22365
G01 X-42.75508 Y25.00658
G01 X-42.60865 Y24.81044
G01 X-42.46918 Y24.59703
G01 X-42.33019 Y24.35035
G01 X-42.22572 Y24.14031
G01 X-42.14884 Y23.96244
G01 X-42.08066 Y23.78105
G01 X-42.01010 Y23.55987
G01 X-41.96380 Y23.39276
G01 X-41.92273 Y23.21385
G01 X-41.88831 Y23.02314
G01 X-41.86540 Y22.85129
G01 X-41.84498 Y22.63168
G01 X-41.83510 Y22.37011
G01 X-41.83510 Y19.50367
G01 X-41.84360 Y19.26219
G01 X-41.86654 Y19.01236
G01 X-41.89479 Y18.81035
G01 X-41.93550 Y18.60009
G01 X-41.98742 Y18.39229
G01 X-42.05460 Y18.17004
G01 X-42.12270 Y17.97776
G01 X-42.20053 Y17.78922
G01 X-42.28325 Y17.61401
G01 X-42.38716 Y17.41782
G01 X-42.49598 Y17.23337
G01 X-42.61452 Y17.05498
G01 X-42.73613 Y16.89123
G01 X-42.88914 Y16.70474
G01 X-43.05209 Y16.52633
G01 X-43.40004 Y16.17772
G01 X-43.43758 Y16.19313
G01 X-43.40004 Y16.17772
G01 X-43.40050 Y5.73956
G01 X-43.40563 Y5.58864
G01 X-43.41833 Y5.41795
G01 X-43.43893 Y5.22778
G01 X-43.46666 Y5.04632
G01 X-43.49613 Y4.89618
G01 X-43.53644 Y4.72755
G01 X-43.57804 Y4.58033
G01 X-43.63900 Y4.38818
G01 X-43.70250 Y4.21592
G01 X-43.77802 Y4.03748
G01 X-43.85285 Y3.88107
G01 X-43.95216 Y3.69400
G01 X-44.04484 Y3.53553
G01 X-44.14467 Y3.38148
G01 X-44.24538 Y3.24028
G01 X-44.35853 Y3.09578
G01 X-44.49384 Y2.93540
G01 X-44.63113 Y2.78808
G01 X-46.26658 Y1.15237
G01 X-46.36826 Y1.05471
G01 X-46.48091 Y0.95415
G01 X-46.61949 Y0.83924
G01 X-46.83115 Y0.67953
G01 X-46.94936 Y0.59944
G01 X-47.07037 Y0.52362
G01 X-47.32665 Y0.38087
G01 X-47.57473 Y0.26142
G01 X-47.83044 Y0.15928
G01 X-48.12922 Y0.06358
G01 X-48.37864 Y0.00000
G01 X-46.97870 Y0.00000
G01 X-46.83514 Y0.08174
G01 X-46.69696 Y0.16721
G01 X-46.52046 Y0.28689
G01 X-46.34184 Y0.42108
G01 X-46.13890 Y0.58887
G01 X-45.96455 Y0.74833
G01 X-44.26262 Y2.44980
G01 X-44.07543 Y2.65445
G01 X-43.87741 Y2.89796
G01 X-43.77512 Y3.03703
G01 X-43.68378 Y3.17142
G01 X-43.59737 Y3.30901
G01 X-43.51104 Y3.45851
G01 X-43.41658 Y3.63593
G01 X-43.34523 Y3.78188
G01 X-43.27520 Y3.93969
G01 X-43.20774 Y4.10959
G01 X-43.14723 Y4.28206
G01 X-43.08798 Y4.47411
G01 X-43.04502 Y4.63083
G01 X-43.00563 Y4.79892
G01 X-42.97449 Y4.95838
G01 X-42.94769 Y5.12892
G01 X-42.93057 Y5.27007
G01 X-42.91132 Y5.48175
G01 X-42.90306 Y5.63562
G01 X-42.90007 Y5.78970
G01 X-42.90007 Y15.97061
G01 X-42.93641 Y15.98529
G01 X-42.90007 Y15.97061
G01 X-42.74091 Y16.12974
G01 X-42.54414 Y16.33952
G01 X-42.35607 Y16.56568
G01 X-42.21599 Y16.75257
G01 X-42.09125 Y16.93789
G01 X-41.98089 Y17.12039
G01 X-41.86555 Y17.33266
