( pcb2gcode 2.5.0 )
( Software-independent Gcode )

G94 ( Millimeters per minute feed rate. )
G21 ( Units == Millimeters. )

G90 ( Absolute coordinates. )
G00 S1000 ( RPM spindle speed. )
G64 P0.01016 ( set maximum deviation from commanded toolpath )
G01 F30.00000 ( Feedrate. )


G00 Z10.00000 (Retract to tool change height)
T0
M5      (Spindle stop.)
G04 P5.00000 (Wait for spindle to stop)
(MSG, Change tool bit to mill diameter 1.00000mm)
M6      (Tool change.)
M0      (Temporary machine stop.)
M3 ( Spindle on clockwise. )
G04 P3.00000 (Wait for spindle to get up to speed)
G04 P0 ( dwell for no time -- G64 should not smooth over this point )
G00 Z1.00000 ( retract )

G00 X-42.64266 Y32.42208 ( rapid move to begin. )
G01 F20.00000
( Mill infeed pass 1/1 )
G01 Z-0.30000
G04 P0 ( dwell for no time -- G64 should not smooth over this point )
G01 F30.00000
G01 X-42.64266 Y32.42208
G01 X-42.64266 Y34.28439
G01 X-42.64840 Y34.34291
G01 X-43.01172 Y36.16940
G01 X-43.02879 Y36.22568
G01 X-43.74147 Y37.94620
G01 X-43.76920 Y37.99807
G01 X-44.80382 Y39.54650
G01 X-44.84113 Y39.59197
G01 X-46.15797 Y40.90881
G01 X-46.20344 Y40.94612
G01 X-47.75187 Y41.98074
G01 X-47.80374 Y42.00848
G01 X-49.52426 Y42.72115
G01 X-49.58055 Y42.73822
G01 X-51.40703 Y43.10154
G01 X-51.69093 Y43.11835
G01 X-51.69167 Y43.11434
G01 X-51.69093 Y43.11835
G01 X-52.22032 Y43.29036
G01 X-54.91861 Y42.07335
G01 X-56.68749 Y41.26926
G01 X-59.94575 Y39.77333
G01 X-62.40244 Y38.63124
G01 X-62.80777 Y38.07341
G01 X-62.89139 Y37.92855
G01 X-63.61415 Y36.30524
G01 X-63.66581 Y36.14618
G01 X-63.90061 Y35.04156
G01 X-63.49197 Y34.57237
G01 X-63.99853 Y35.15396
G01 X-64.30531 Y35.52924
G01 X-64.14132 Y36.30069
G01 X-64.08966 Y36.45974
G01 X-63.32438 Y38.17856
G01 X-63.30782 Y38.20724
G01 X-62.40244 Y38.63124
G01 X-63.99792 Y37.88832
G01 X-64.56517 Y36.61425
G01 X-64.61686 Y36.45520
G01 X-64.70772 Y36.02777
G01 X-64.54026 Y35.81664
G01 X-63.99853 Y35.15396
G01 X-63.45707 Y34.53229
G01 X-61.78286 Y32.68157
G01 X-60.81232 Y31.59341
G01 X-60.05269 Y30.72712
G01 X-59.93679 Y30.69953
G01 X-60.28550 Y31.48282
G01 X-60.33719 Y31.64187
G01 X-60.55451 Y32.66430
G01 X-60.57199 Y32.83062
G01 X-60.57199 Y33.87588
G01 X-60.55451 Y34.04222
G01 X-60.33719 Y35.06465
G01 X-60.28550 Y35.22370
G01 X-59.86036 Y36.17859
G01 X-59.77674 Y36.32345
G01 X-59.16234 Y37.16906
G01 X-59.05045 Y37.29337
G01 X-58.27367 Y37.99279
G01 X-58.13836 Y38.09108
G01 X-57.23313 Y38.61371
G01 X-57.08035 Y38.68174
G01 X-56.08625 Y39.00475
G01 X-55.92265 Y39.03952
G01 X-54.88310 Y39.14877
G01 X-54.71587 Y39.14877
G01 X-53.67632 Y39.03952
G01 X-53.51275 Y39.00475
G01 X-52.51864 Y38.68174
G01 X-52.45438 Y38.65314
G01 X-52.45524 Y38.64856
G01 X-52.45438 Y38.65314
G01 X-52.39672 Y38.65314
G01 X-51.90663 Y38.62906
G01 X-51.84811 Y38.62329
G01 X-50.88677 Y38.43208
G01 X-50.83051 Y38.41501
G01 X-49.92497 Y38.03993
G01 X-49.87310 Y38.01219
G01 X-49.05814 Y37.46764
G01 X-49.01268 Y37.43035
G01 X-48.31959 Y36.73726
G01 X-48.28230 Y36.69180
G01 X-47.73775 Y35.87684
G01 X-47.71001 Y35.82497
G01 X-47.33493 Y34.91944
G01 X-47.31786 Y34.86315
G01 X-47.12665 Y33.90184
G01 X-47.12089 Y33.84332
G01 X-47.12089 Y32.86315
G01 X-47.12665 Y32.80463
G01 X-47.31786 Y31.84332
G01 X-47.33493 Y31.78703
G01 X-47.71001 Y30.88150
G01 X-47.73775 Y30.82963
G01 X-48.25276 Y30.05887
G01 X-49.26866 Y29.73606
G01 X-49.25090 Y29.74160
G01 X-48.70610 Y30.28640
G01 X-48.66879 Y30.33184
G01 X-48.17869 Y31.06532
G01 X-48.15098 Y31.11718
G01 X-47.81339 Y31.93217
G01 X-47.79632 Y31.98846
G01 X-47.62424 Y32.85363
G01 X-47.61847 Y32.91218
G01 X-47.61847 Y33.79429
G01 X-47.62424 Y33.85284
G01 X-47.79632 Y34.71802
G01 X-47.81339 Y34.77430
G01 X-48.15098 Y35.58929
G01 X-48.17869 Y35.64115
G01 X-48.66879 Y36.37463
G01 X-48.70610 Y36.42007
G01 X-49.32987 Y37.04384
G01 X-49.37531 Y37.08116
G01 X-50.10879 Y37.57125
G01 X-50.16066 Y37.59896
G01 X-50.97562 Y37.93655
G01 X-51.03193 Y37.95362
G01 X-51.89710 Y38.12570
G01 X-51.95562 Y38.13147
G01 X-52.39672 Y38.15314
G01 X-52.56261 Y38.15314
G01 X-52.56474 Y38.14412
G01 X-52.56261 Y38.15314
G01 X-52.56919 Y38.15695
G01 X-52.72199 Y38.22497
G01 X-53.61668 Y38.51567
G01 X-53.78028 Y38.55044
G01 X-54.71587 Y38.64879
G01 X-54.88310 Y38.64879
G01 X-55.81868 Y38.55044
G01 X-55.98229 Y38.51567
G01 X-56.87698 Y38.22497
G01 X-57.02976 Y38.15695
G01 X-57.84446 Y37.68659
G01 X-57.97977 Y37.58827
G01 X-58.67888 Y36.95880
G01 X-58.79079 Y36.83452
G01 X-59.34375 Y36.07344
G01 X-59.42736 Y35.92860
G01 X-59.80999 Y35.06920
G01 X-59.86168 Y34.91014
G01 X-60.05726 Y33.98995
G01 X-60.07476 Y33.82363
G01 X-60.07476 Y32.88289
G01 X-60.05726 Y32.71657
G01 X-59.86168 Y31.79638
G01 X-59.80999 Y31.63733
G01 X-59.42736 Y30.77792
G01 X-59.34375 Y30.63309
G01 X-59.27004 Y30.53164
G01 X-59.24771 Y30.52600
G01 X-59.93679 Y30.69953
G01 X-58.28774 Y30.28511
G01 X-57.34881 Y30.03748
G01 X-56.51289 Y29.80568
G01 X-55.50644 Y29.51112
G01 X-54.80746 Y29.29527
G01 X-53.83131 Y28.98028
G01 X-53.35382 Y29.04145
G01 X-52.94475 Y29.11742
G01 X-52.69581 Y29.17264
G01 X-52.64234 Y29.17657
G01 X-52.39977 Y29.17657
G01 X-51.95087 Y29.18882
G01 X-51.09215 Y29.27617
G01 X-50.67988 Y29.34792
G01 X-50.26744 Y29.44068
G01 X-49.65720 Y29.61251
G01 X-42.91310 Y31.75417
G01 X-42.75127 Y31.84644
G01 X-42.64840 Y32.36356
G01 X-42.64266 Y32.42208
G01 X-49.11120 Y33.05919
G01 X-49.11120 Y33.64728
G01 X-49.11697 Y33.70580
G01 X-49.23170 Y34.28261
G01 X-49.24877 Y34.33887
G01 X-49.47384 Y34.88220
G01 X-49.50155 Y34.93407
G01 X-49.82827 Y35.42304
G01 X-49.86558 Y35.46851
G01 X-50.28143 Y35.88436
G01 X-50.32690 Y35.92167
G01 X-50.81585 Y36.24839
G01 X-50.86774 Y36.27610
G01 X-51.41107 Y36.50117
G01 X-51.46733 Y36.51824
G01 X-52.04414 Y36.63297
G01 X-52.10266 Y36.63874
G01 X-52.39672 Y36.65319
G01 X-52.94810 Y36.65319
G01 X-52.95265 Y36.63615
G01 X-52.94810 Y36.65319
G01 X-53.17929 Y36.78667
G01 X-53.33208 Y36.85469
G01 X-53.92854 Y37.04849
G01 X-54.09214 Y37.08326
G01 X-54.71587 Y37.14882
G01 X-54.88310 Y37.14882
G01 X-55.50682 Y37.08326
G01 X-55.67042 Y37.04849
G01 X-56.26689 Y36.85469
G01 X-56.41967 Y36.78667
G01 X-56.96280 Y36.47308
G01 X-57.09811 Y36.37478
G01 X-57.56417 Y35.95512
G01 X-57.67608 Y35.83084
G01 X-58.04474 Y35.32345
G01 X-58.12836 Y35.17862
G01 X-58.38345 Y34.60567
G01 X-58.43511 Y34.44662
G01 X-58.56552 Y33.83316
G01 X-58.58299 Y33.66684
G01 X-58.58299 Y33.03968
G01 X-58.56552 Y32.87334
G01 X-58.43511 Y32.25991
G01 X-58.38345 Y32.10082
G01 X-58.12836 Y31.52790
G01 X-58.04474 Y31.38305
G01 X-57.67608 Y30.87568
G01 X-57.56417 Y30.75140
G01 X-57.09811 Y30.33174
G01 X-56.96280 Y30.23344
G01 X-56.41967 Y29.91985
G01 X-56.26689 Y29.85183
G01 X-55.67042 Y29.65803
G01 X-55.50682 Y29.62326
G01 X-54.88310 Y29.55770
G01 X-54.71587 Y29.55770
G01 X-54.09214 Y29.62326
G01 X-53.92854 Y29.65803
G01 X-53.33208 Y29.85183
G01 X-53.17929 Y29.91985
G01 X-52.96367 Y30.04434
G01 X-52.96807 Y30.06034
G01 X-52.96367 Y30.04434
G01 X-52.35120 Y30.05364
G01 X-52.10266 Y30.06773
G01 X-52.04414 Y30.07350
G01 X-51.46733 Y30.18823
G01 X-51.41107 Y30.20530
G01 X-50.86774 Y30.43037
G01 X-50.81585 Y30.45808
G01 X-50.32690 Y30.78480
G01 X-50.28143 Y30.82211
G01 X-49.86558 Y31.23796
G01 X-49.82827 Y31.28343
G01 X-49.50155 Y31.77240
G01 X-49.47384 Y31.82427
G01 X-49.24877 Y32.36760
G01 X-49.23170 Y32.42386
G01 X-49.11697 Y33.00067
G01 X-49.11120 Y33.05919
G01 X-49.60879 Y33.10819
G01 X-49.60879 Y33.59828
G01 X-49.61456 Y33.65680
G01 X-49.71016 Y34.13747
G01 X-49.72723 Y34.19373
G01 X-49.91478 Y34.64651
G01 X-49.94250 Y34.69838
G01 X-50.21478 Y35.10587
G01 X-50.25207 Y35.15131
G01 X-50.59863 Y35.49787
G01 X-50.64407 Y35.53516
G01 X-51.05156 Y35.80745
G01 X-51.10343 Y35.83516
G01 X-51.55621 Y36.02271
G01 X-51.61247 Y36.03978
G01 X-52.09314 Y36.13539
G01 X-52.15164 Y36.14115
G01 X-52.39672 Y36.15319
G01 X-53.07660 Y36.15319
G01 X-53.08102 Y36.13704
G01 X-53.07660 Y36.15319
G01 X-53.38267 Y36.32990
G01 X-53.53545 Y36.39792
G01 X-54.03251 Y36.55944
G01 X-54.19611 Y36.59421
G01 X-54.71587 Y36.64882
G01 X-54.88310 Y36.64882
G01 X-55.40289 Y36.59421
G01 X-55.56646 Y36.55944
G01 X-56.06352 Y36.39792
G01 X-56.21632 Y36.32990
G01 X-56.66892 Y36.06858
G01 X-56.80423 Y35.97029
G01 X-57.19262 Y35.62058
G01 X-57.30453 Y35.49627
G01 X-57.61172 Y35.07346
G01 X-57.69534 Y34.92863
G01 X-57.90791 Y34.45119
G01 X-57.95960 Y34.29211
G01 X-58.06826 Y33.78091
G01 X-58.08574 Y33.61456
G01 X-58.08574 Y33.09193
G01 X-58.06826 Y32.92561
G01 X-57.95960 Y32.41439
G01 X-57.90791 Y32.25533
G01 X-57.69534 Y31.77789
G01 X-57.61172 Y31.63306
G01 X-57.30453 Y31.21022
G01 X-57.19262 Y31.08594
G01 X-56.80423 Y30.73624
G01 X-56.66892 Y30.63794
G01 X-56.21632 Y30.37662
G01 X-56.06352 Y30.30860
G01 X-55.56646 Y30.14708
G01 X-55.40289 Y30.11231
G01 X-54.88310 Y30.05767
G01 X-54.71587 Y30.05767
G01 X-54.19611 Y30.11231
G01 X-54.03251 Y30.14708
G01 X-53.53545 Y30.30860
G01 X-53.38267 Y30.37662
G01 X-53.07668 Y30.55328
G01 X-53.08120 Y30.57032
G01 X-53.07668 Y30.55328
G01 X-52.39672 Y30.55328
G01 X-52.09314 Y30.57108
G01 X-51.61247 Y30.66669
G01 X-51.55621 Y30.68376
G01 X-51.10343 Y30.87131
G01 X-51.05156 Y30.89902
G01 X-50.64407 Y31.17131
G01 X-50.59863 Y31.20860
G01 X-50.25207 Y31.55516
G01 X-50.21478 Y31.60060
G01 X-49.94250 Y32.00809
G01 X-49.91478 Y32.05996
G01 X-49.72723 Y32.51274
G01 X-49.71016 Y32.56900
G01 X-49.61456 Y33.04967
G01 X-49.60879 Y33.10819
G01 X-50.10638 Y33.15721
G01 X-50.10638 Y33.54926
G01 X-50.11214 Y33.60778
G01 X-50.18862 Y33.99231
G01 X-50.20569 Y34.04860
G01 X-50.35573 Y34.41083
G01 X-50.38347 Y34.46269
G01 X-50.60127 Y34.78868
G01 X-50.63858 Y34.83414
G01 X-50.91580 Y35.11136
G01 X-50.96126 Y35.14867
G01 X-51.28725 Y35.36648
G01 X-51.33909 Y35.39421
G01 X-51.70134 Y35.54425
G01 X-51.75763 Y35.56132
G01 X-52.14216 Y35.63780
G01 X-52.20068 Y35.64357
G01 X-52.39672 Y35.65319
G01 X-53.20896 Y35.65319
G01 X-53.21356 Y35.63653
G01 X-53.20896 Y35.65319
G01 X-53.22395 Y35.66409
G01 X-53.58602 Y35.87313
G01 X-53.73881 Y35.94115
G01 X-54.13647 Y36.07036
G01 X-54.30004 Y36.10513
G01 X-54.71587 Y36.14885
G01 X-54.88310 Y36.14885
G01 X-55.29892 Y36.10513
G01 X-55.46253 Y36.07036
G01 X-55.86016 Y35.94115
G01 X-56.01294 Y35.87313
G01 X-56.37505 Y35.66409
G01 X-56.51035 Y35.56579
G01 X-56.82104 Y35.28601
G01 X-56.93296 Y35.16173
G01 X-57.17873 Y34.82348
G01 X-57.26234 Y34.67862
G01 X-57.43240 Y34.29668
G01 X-57.48409 Y34.13760
G01 X-57.57100 Y33.72863
G01 X-57.58851 Y33.56232
G01 X-57.58851 Y33.14421
G01 X-57.57100 Y32.97789
G01 X-57.48409 Y32.56890
G01 X-57.43240 Y32.40984
G01 X-57.26234 Y32.02788
G01 X-57.17873 Y31.88305
G01 X-56.93296 Y31.54479
G01 X-56.82104 Y31.42051
G01 X-56.51035 Y31.14073
G01 X-56.37505 Y31.04243
G01 X-56.01294 Y30.83339
G01 X-55.86016 Y30.76534
G01 X-55.46253 Y30.63616
G01 X-55.29892 Y30.60139
G01 X-54.88310 Y30.55767
G01 X-54.71587 Y30.55767
G01 X-54.30004 Y30.60139
G01 X-54.13647 Y30.63616
G01 X-53.73881 Y30.76534
G01 X-53.58602 Y30.83339
G01 X-53.22395 Y31.04243
G01 X-53.20901 Y31.05328
G01 X-53.21371 Y31.07060
G01 X-53.20901 Y31.05328
G01 X-52.39672 Y31.05328
G01 X-52.20068 Y31.06290
G01 X-52.14216 Y31.06867
G01 X-51.75763 Y31.14515
G01 X-51.70134 Y31.16222
G01 X-51.33909 Y31.31226
G01 X-51.28725 Y31.33999
G01 X-50.96126 Y31.55780
G01 X-50.91580 Y31.59511
G01 X-50.63858 Y31.87233
G01 X-50.60127 Y31.91779
G01 X-50.38347 Y32.24378
G01 X-50.35573 Y32.29564
G01 X-50.20569 Y32.65787
G01 X-50.18862 Y32.71416
G01 X-50.11214 Y33.09869
G01 X-50.10638 Y33.15721
G01 X-50.60396 Y33.20621
G01 X-50.60396 Y33.50026
G01 X-50.60973 Y33.55878
G01 X-50.66708 Y33.84718
G01 X-50.68415 Y33.90346
G01 X-50.79667 Y34.17512
G01 X-50.82441 Y34.22698
G01 X-50.98773 Y34.47148
G01 X-51.02507 Y34.51695
G01 X-51.23297 Y34.72487
G01 X-51.27846 Y34.76219
G01 X-51.52296 Y34.92553
G01 X-51.57480 Y34.95327
G01 X-51.84648 Y35.06579
G01 X-51.90277 Y35.08286
G01 X-52.19116 Y35.14021
G01 X-52.39672 Y35.15322
G01 X-53.37355 Y35.15322
G01 X-53.38178 Y35.12820
G01 X-53.37355 Y35.15322
G01 X-53.51783 Y35.25959
G01 X-53.78940 Y35.41639
G01 X-53.94218 Y35.48441
G01 X-54.24040 Y35.58131
G01 X-54.40401 Y35.61608
G01 X-54.71587 Y35.64885
G01 X-54.88310 Y35.64885
G01 X-55.19496 Y35.61608
G01 X-55.35856 Y35.58131
G01 X-55.65678 Y35.48441
G01 X-55.80959 Y35.41639
G01 X-56.08114 Y35.25959
G01 X-56.21645 Y35.16127
G01 X-56.44949 Y34.95147
G01 X-56.56141 Y34.82716
G01 X-56.74571 Y34.57346
G01 X-56.82935 Y34.42863
G01 X-56.95688 Y34.14217
G01 X-57.00857 Y33.98312
G01 X-57.07377 Y33.67639
G01 X-57.09125 Y33.51004
G01 X-57.09125 Y33.19648
G01 X-57.07377 Y33.03013
G01 X-57.00857 Y32.72340
G01 X-56.95688 Y32.56435
G01 X-56.82935 Y32.27789
G01 X-56.74571 Y32.13303
G01 X-56.56141 Y31.87934
G01 X-56.44949 Y31.75505
G01 X-56.21645 Y31.54523
G01 X-56.08114 Y31.44693
G01 X-55.80959 Y31.29013
G01 X-55.65678 Y31.22211
G01 X-55.35856 Y31.12521
G01 X-55.19496 Y31.09044
G01 X-54.88310 Y31.05767
G01 X-54.71587 Y31.05767
G01 X-54.40401 Y31.09044
G01 X-54.24040 Y31.12521
G01 X-53.94218 Y31.22211
G01 X-53.78940 Y31.29013
G01 X-53.51783 Y31.44693
G01 X-53.37360 Y31.55325
G01 X-53.38183 Y31.57827
G01 X-53.37360 Y31.55325
G01 X-52.39672 Y31.55325
G01 X-52.19116 Y31.56626
G01 X-51.90277 Y31.62361
G01 X-51.84648 Y31.64068
G01 X-51.57480 Y31.75320
G01 X-51.52296 Y31.78094
G01 X-51.27846 Y31.94428
G01 X-51.23297 Y31.98160
G01 X-51.02507 Y32.18952
G01 X-50.98773 Y32.23499
G01 X-50.82441 Y32.47949
G01 X-50.79667 Y32.53135
G01 X-50.68415 Y32.80301
G01 X-50.66708 Y32.85929
G01 X-50.60973 Y33.14769
G01 X-50.60396 Y33.20621
G01 X-51.10152 Y33.25523
G01 X-51.10152 Y33.45124
G01 X-51.10729 Y33.50979
G01 X-51.14554 Y33.70204
G01 X-51.16261 Y33.75833
G01 X-51.23764 Y33.93943
G01 X-51.26533 Y33.99130
G01 X-51.37427 Y34.15429
G01 X-51.41156 Y34.19975
G01 X-51.55019 Y34.33836
G01 X-51.59563 Y34.37567
G01 X-51.75865 Y34.48459
G01 X-51.81051 Y34.51230
G01 X-51.99162 Y34.58733
G01 X-52.04790 Y34.60440
G01 X-52.24015 Y34.64265
G01 X-52.39672 Y34.65322
G01 X-53.56139 Y34.65322
G01 X-53.57139 Y34.62508
G01 X-53.56139 Y34.65322
G01 X-53.67640 Y34.75678
G01 X-53.81170 Y34.85510
G01 X-53.99275 Y34.95962
G01 X-54.14554 Y35.02764
G01 X-54.34437 Y35.09223
G01 X-54.50794 Y35.12701
G01 X-54.71587 Y35.14888
G01 X-54.88310 Y35.14888
G01 X-55.09103 Y35.12701
G01 X-55.25460 Y35.09223
G01 X-55.45343 Y35.02764
G01 X-55.60621 Y34.95962
G01 X-55.78726 Y34.85510
G01 X-55.92257 Y34.75678
G01 X-56.07792 Y34.61690
G01 X-56.18983 Y34.49262
G01 X-56.31271 Y34.32348
G01 X-56.39633 Y34.17865
G01 X-56.48137 Y33.98766
G01 X-56.53306 Y33.82861
G01 X-56.57652 Y33.62411
G01 X-56.59399 Y33.45779
G01 X-56.59399 Y33.24873
G01 X-56.57652 Y33.08241
G01 X-56.53306 Y32.87791
G01 X-56.48137 Y32.71886
G01 X-56.39633 Y32.52787
G01 X-56.31271 Y32.38304
G01 X-56.18983 Y32.21391
G01 X-56.07792 Y32.08962
G01 X-55.92257 Y31.94975
G01 X-55.78726 Y31.85142
G01 X-55.60621 Y31.74690
G01 X-55.45343 Y31.67888
G01 X-55.25460 Y31.61429
G01 X-55.09103 Y31.57952
G01 X-54.88310 Y31.55765
G01 X-54.71587 Y31.55765
G01 X-54.50794 Y31.57952
G01 X-54.34437 Y31.61429
G01 X-54.14554 Y31.67888
G01 X-53.99275 Y31.74690
G01 X-53.81170 Y31.85142
G01 X-53.67640 Y31.94975
G01 X-53.56144 Y32.05325
G01 X-53.57150 Y32.08175
G01 X-53.56144 Y32.05325
G01 X-52.39672 Y32.05325
G01 X-52.24015 Y32.06382
G01 X-52.04790 Y32.10207
G01 X-51.99162 Y32.11914
G01 X-51.81051 Y32.19417
G01 X-51.75865 Y32.22188
G01 X-51.59563 Y32.33080
G01 X-51.55019 Y32.36811
G01 X-51.41156 Y32.50672
G01 X-51.37427 Y32.55218
G01 X-51.26533 Y32.71517
G01 X-51.23764 Y32.76704
G01 X-51.16261 Y32.94814
G01 X-51.14554 Y33.00443
G01 X-51.10729 Y33.19668
G01 X-51.10152 Y33.25523
G01 X-51.59911 Y33.30423
G01 X-51.59911 Y33.40224
G01 X-51.60488 Y33.46077
G01 X-51.62400 Y33.55691
G01 X-51.64107 Y33.61319
G01 X-51.67859 Y33.70374
G01 X-51.70627 Y33.75561
G01 X-51.76076 Y33.83709
G01 X-51.79807 Y33.88256
G01 X-51.86738 Y33.95188
G01 X-51.91285 Y33.98919
G01 X-51.99433 Y34.04365
G01 X-52.04617 Y34.07136
G01 X-52.13675 Y34.10887
G01 X-52.19304 Y34.12594
G01 X-52.28915 Y34.14507
G01 X-52.39672 Y34.15325
G01 X-53.77721 Y34.15325
G01 X-53.89260 Y34.28233
G01 X-53.97030 Y34.35228
G01 X-54.10561 Y34.45058
G01 X-54.19611 Y34.50285
G01 X-54.34891 Y34.57087
G01 X-54.44833 Y34.60318
G01 X-54.61191 Y34.63795
G01 X-54.71587 Y34.64888
G01 X-54.88310 Y34.64888
G01 X-54.98706 Y34.63795
G01 X-55.15066 Y34.60318
G01 X-55.25008 Y34.57087
G01 X-55.40286 Y34.50285
G01 X-55.49339 Y34.45058
G01 X-55.62869 Y34.35228
G01 X-55.70637 Y34.28233
G01 X-55.81828 Y34.15805
G01 X-55.87972 Y34.07349
G01 X-55.96334 Y33.92866
G01 X-56.00586 Y33.83316
G01 X-56.05755 Y33.67410
G01 X-56.07926 Y33.57184
G01 X-56.09674 Y33.40552
G01 X-56.09674 Y33.30100
G01 X-56.07926 Y33.13466
G01 X-56.05755 Y33.03242
G01 X-56.00586 Y32.87337
G01 X-55.96334 Y32.77786
G01 X-55.87972 Y32.63303
G01 X-55.81828 Y32.54847
G01 X-55.70637 Y32.42417
G01 X-55.62869 Y32.35424
G01 X-55.49339 Y32.25592
G01 X-55.40286 Y32.20367
G01 X-55.25008 Y32.13565
G01 X-55.15066 Y32.10334
G01 X-54.98706 Y32.06857
G01 X-54.88310 Y32.05764
G01 X-54.71587 Y32.05764
G01 X-54.61191 Y32.06857
G01 X-54.44833 Y32.10334
G01 X-54.34891 Y32.13565
G01 X-54.19611 Y32.20367
G01 X-54.10561 Y32.25592
G01 X-53.97030 Y32.35424
G01 X-53.89260 Y32.42417
G01 X-53.77724 Y32.55322
G01 X-52.39672 Y32.55322
G01 X-52.28915 Y32.56140
G01 X-52.19304 Y32.58053
G01 X-52.13675 Y32.59760
G01 X-52.04617 Y32.63511
G01 X-51.99433 Y32.66283
G01 X-51.91285 Y32.71728
G01 X-51.86738 Y32.75460
G01 X-51.79807 Y32.82391
G01 X-51.76076 Y32.86938
G01 X-51.70627 Y32.95086
G01 X-51.67859 Y33.00273
G01 X-51.64107 Y33.09328
G01 X-51.62400 Y33.14957
G01 X-51.60488 Y33.24570
G01 X-51.59911 Y33.30423
G04 P0 ( dwell for no time -- G64 should not smooth over this point )
G00 Z1.00000 ( retract )

G00 X-47.49348 Y30.29953 ( rapid move to begin. )
G01 F20.00000
( Mill infeed pass 1/1 )
G01 Z-0.30000
G04 P0 ( dwell for no time -- G64 should not smooth over this point )
G01 F30.00000
G01 X-47.49348 Y30.29953
G01 X-47.29681 Y30.59394
G01 X-47.26907 Y30.64581
G01 X-46.85647 Y31.64190
G01 X-46.83940 Y31.69818
G01 X-46.62907 Y32.75564
G01 X-46.62330 Y32.81416
G01 X-46.62330 Y33.89231
G01 X-46.62907 Y33.95083
G01 X-46.83940 Y35.00829
G01 X-46.85647 Y35.06457
G01 X-47.26907 Y36.06066
G01 X-47.29681 Y36.11253
G01 X-47.89579 Y37.00899
G01 X-47.93310 Y37.05446
G01 X-48.69548 Y37.81684
G01 X-48.74095 Y37.85415
G01 X-49.63742 Y38.45314
G01 X-49.68928 Y38.48087
G01 X-50.68537 Y38.89347
G01 X-50.74166 Y38.91054
G01 X-51.79911 Y39.12088
G01 X-51.85763 Y39.12664
G01 X-52.35377 Y39.15103
G01 X-52.35456 Y39.14684
G01 X-52.35377 Y39.15103
G01 X-53.40878 Y39.49380
G01 X-53.57238 Y39.52857
G01 X-54.71587 Y39.64876
G01 X-54.88310 Y39.64876
G01 X-56.02661 Y39.52857
G01 X-56.19018 Y39.49380
G01 X-57.28371 Y39.13850
G01 X-57.43649 Y39.07048
G01 X-58.43224 Y38.49558
G01 X-58.56755 Y38.39728
G01 X-59.42200 Y37.62792
G01 X-59.53392 Y37.50363
G01 X-60.20973 Y36.57343
G01 X-60.29338 Y36.42860
G01 X-60.76102 Y35.37821
G01 X-60.81271 Y35.21916
G01 X-61.05177 Y34.09447
G01 X-61.06925 Y33.92815
G01 X-61.06925 Y32.77837
G01 X-61.05177 Y32.61203
G01 X-60.84237 Y31.62699
G01 X-61.50933 Y32.37306
G01 X-61.54903 Y32.55978
G01 X-61.56650 Y32.72610
G01 X-61.56650 Y33.98042
G01 X-61.54903 Y34.14674
G01 X-61.28822 Y35.37364
G01 X-61.23656 Y35.53272
G01 X-60.72637 Y36.67859
G01 X-60.64275 Y36.82342
G01 X-59.90547 Y37.83818
G01 X-59.79358 Y37.96248
G01 X-58.86143 Y38.80178
G01 X-58.72612 Y38.90007
G01 X-57.63986 Y39.52725
G01 X-57.48708 Y39.59527
G01 X-56.29415 Y39.98288
G01 X-56.13055 Y40.01765
G01 X-54.88310 Y40.14876
G01 X-54.71587 Y40.14876
G01 X-53.46842 Y40.01765
G01 X-53.30482 Y39.98288
G01 X-52.27091 Y39.64694
G01 X-52.27170 Y39.64277
G01 X-52.27091 Y39.64694
G01 X-51.80861 Y39.62423
G01 X-51.75009 Y39.61846
G01 X-50.59652 Y39.38900
G01 X-50.54023 Y39.37193
G01 X-49.45357 Y38.92182
G01 X-49.40170 Y38.89411
G01 X-48.42375 Y38.24064
G01 X-48.37829 Y38.20333
G01 X-47.54662 Y37.37165
G01 X-47.50930 Y37.32619
G01 X-46.85584 Y36.34824
G01 X-46.82813 Y36.29637
G01 X-46.37801 Y35.20971
G01 X-46.36094 Y35.15342
G01 X-46.13148 Y33.99986
G01 X-46.12571 Y33.94133
G01 X-46.12571 Y32.76514
G01 X-46.13148 Y32.70661
G01 X-46.36094 Y31.55305
G01 X-46.37801 Y31.49676
G01 X-46.77981 Y30.52669
G01 X-46.16000 Y30.72280
G01 X-45.89955 Y31.35163
G01 X-45.88248 Y31.40789
G01 X-45.63389 Y32.65762
G01 X-45.62813 Y32.71614
G01 X-45.62813 Y33.99033
G01 X-45.63389 Y34.04885
G01 X-45.88248 Y35.29858
G01 X-45.89955 Y35.35484
G01 X-46.38718 Y36.53206
G01 X-46.41489 Y36.58392
G01 X-47.12279 Y37.64338
G01 X-47.16010 Y37.68885
G01 X-48.06109 Y38.58984
G01 X-48.10656 Y38.62715
G01 X-49.16602 Y39.33505
G01 X-49.21788 Y39.36276
G01 X-50.39510 Y39.85039
G01 X-50.45136 Y39.86746
G01 X-51.70109 Y40.11605
G01 X-51.75961 Y40.12181
G01 X-52.18803 Y40.14285
G01 X-52.18885 Y40.13871
G01 X-52.18803 Y40.14285
G01 X-53.20088 Y40.47193
G01 X-53.36446 Y40.50670
G01 X-54.71587 Y40.64874
G01 X-54.88310 Y40.64874
G01 X-56.23451 Y40.50670
G01 X-56.39811 Y40.47193
G01 X-57.69044 Y40.05202
G01 X-57.84322 Y39.98399
G01 X-59.02002 Y39.30457
G01 X-59.15533 Y39.20627
G01 X-60.16513 Y38.29703
G01 X-60.27704 Y38.17275
G01 X-61.07575 Y37.07341
G01 X-61.15936 Y36.92858
G01 X-61.71207 Y35.68723
G01 X-61.76376 Y35.52815
G01 X-62.04626 Y34.19902
G01 X-62.06376 Y34.03267
G01 X-62.06376 Y32.99229
G01 X-62.56099 Y33.53895
G01 X-62.56099 Y34.08495
G01 X-62.54351 Y34.25127
G01 X-62.23927 Y35.68266
G01 X-62.18758 Y35.84171
G01 X-61.59238 Y37.17856
G01 X-61.50874 Y37.32342
G01 X-60.64860 Y38.50731
G01 X-60.53671 Y38.63160
G01 X-59.44921 Y39.61077
G01 X-59.31390 Y39.70909
G01 X-58.04659 Y40.44076
G01 X-57.89379 Y40.50878
G01 X-56.50205 Y40.96101
G01 X-56.33847 Y40.99578
G01 X-54.88310 Y41.14874
G01 X-54.71587 Y41.14874
G01 X-53.26052 Y40.99578
G01 X-53.09692 Y40.96101
G01 X-52.10520 Y40.63878
G01 X-52.10597 Y40.63464
G01 X-52.10520 Y40.63878
G01 X-51.65204 Y40.61361
G01 X-50.30622 Y40.34592
G01 X-50.24996 Y40.32885
G01 X-48.98220 Y39.80373
G01 X-48.93033 Y39.77599
G01 X-47.78936 Y39.01364
G01 X-47.74392 Y38.97633
G01 X-46.77362 Y38.00602
G01 X-46.73630 Y37.96058
G01 X-45.97395 Y36.81961
G01 X-45.94621 Y36.76774
G01 X-45.42109 Y35.49998
G01 X-45.40402 Y35.44372
G01 X-45.13633 Y34.09787
G01 X-45.13057 Y34.03935
G01 X-45.13057 Y32.66712
G01 X-45.13633 Y32.60860
G01 X-45.40402 Y31.26275
G01 X-45.42109 Y31.20649
G01 X-45.53966 Y30.92018
G01 X-44.92625 Y31.11538
G01 X-44.63875 Y32.55960
G01 X-44.63298 Y32.61812
G01 X-44.63298 Y34.08835
G01 X-44.63875 Y34.14687
G01 X-44.92556 Y35.58885
G01 X-44.94263 Y35.64514
G01 X-45.50527 Y37.00343
G01 X-45.53301 Y37.05530
G01 X-46.34982 Y38.27775
G01 X-46.38711 Y38.32322
G01 X-47.42673 Y39.36284
G01 X-47.47219 Y39.40012
G01 X-48.69464 Y40.21694
G01 X-48.74651 Y40.24467
G01 X-50.10480 Y40.80731
G01 X-50.16109 Y40.82438
G01 X-51.60305 Y41.11120
G01 X-52.02238 Y41.13469
G01 X-52.02314 Y41.13058
G01 X-52.02238 Y41.13469
G01 X-52.99296 Y41.45006
G01 X-53.15656 Y41.48483
G01 X-54.71587 Y41.64871
G01 X-54.88310 Y41.64871
G01 X-56.14132 Y41.51648
G01 X-56.37004 Y41.96166
G01 X-55.50738 Y42.73847
G01 X-55.36750 Y42.89382
G01 X-54.44592 Y44.16227
G01 X-54.34139 Y44.34332
G01 X-53.70368 Y45.77568
G01 X-53.63906 Y45.97451
G01 X-53.31308 Y47.50813
G01 X-53.29123 Y47.71603
G01 X-53.29123 Y49.28392
G01 X-53.31308 Y49.49185
G01 X-53.63906 Y51.02548
G01 X-53.70368 Y51.22431
G01 X-54.34139 Y52.65664
G01 X-54.44592 Y52.83766
G01 X-54.92709 Y53.49999
G01 X-55.54172 Y53.49999
G01 X-54.87891 Y52.58770
G01 X-54.77439 Y52.40665
G01 X-54.17919 Y51.06980
G01 X-54.11457 Y50.87097
G01 X-53.81033 Y49.43958
G01 X-53.78849 Y49.23168
G01 X-53.78849 Y47.76831
G01 X-53.81033 Y47.56038
G01 X-54.11457 Y46.12899
G01 X-54.17919 Y45.93019
G01 X-54.77439 Y44.59333
G01 X-54.87891 Y44.41228
G01 X-55.73906 Y43.22839
G01 X-55.87896 Y43.07302
G01 X-56.96643 Y42.09385
G01 X-57.13557 Y41.97096
G01 X-58.40288 Y41.23929
G01 X-58.59386 Y41.15425
G01 X-59.98563 Y40.70203
G01 X-60.19010 Y40.65857
G01 X-61.64547 Y40.50561
G01 X-61.85451 Y40.50561
G01 X-63.30986 Y40.65857
G01 X-63.51435 Y40.70203
G01 X-64.90609 Y41.15425
G01 X-65.09708 Y41.23929
G01 X-66.36441 Y41.97096
G01 X-66.53352 Y42.09385
G01 X-67.62102 Y43.07302
G01 X-67.76090 Y43.22839
G01 X-68.62105 Y44.41228
G01 X-68.72559 Y44.59333
G01 X-69.32079 Y45.93019
G01 X-69.38538 Y46.12899
G01 X-69.68965 Y47.56038
G01 X-69.71149 Y47.76831
G01 X-69.71149 Y49.23168
G01 X-69.68965 Y49.43958
G01 X-69.38538 Y50.87097
G01 X-69.32079 Y51.06980
G01 X-68.72559 Y52.40665
G01 X-68.62105 Y52.58770
G01 X-67.95823 Y53.49999
G01 X-67.33266 Y53.49999
G01 X-67.38935 Y53.43703
G01 X-68.18805 Y52.33772
G01 X-68.29257 Y52.15664
G01 X-68.84528 Y50.91527
G01 X-68.90987 Y50.71646
G01 X-69.19239 Y49.38733
G01 X-69.21424 Y49.17940
G01 X-69.21424 Y47.82055
G01 X-69.19239 Y47.61266
G01 X-68.90987 Y46.28350
G01 X-68.84528 Y46.08469
G01 X-68.29257 Y44.84332
G01 X-68.18805 Y44.66227
G01 X-67.38935 Y43.56293
G01 X-67.24947 Y43.40758
G01 X-66.23964 Y42.49834
G01 X-66.07051 Y42.37546
G01 X-64.89372 Y41.69603
G01 X-64.70274 Y41.61102
G01 X-63.41041 Y41.19110
G01 X-63.20592 Y41.14764
G01 X-61.85451 Y41.00561
G01 X-61.64547 Y41.00561
G01 X-60.29406 Y41.14764
G01 X-60.08957 Y41.19110
G01 X-58.79724 Y41.61102
G01 X-58.60626 Y41.69603
G01 X-57.42945 Y42.37546
G01 X-57.26034 Y42.49834
G01 X-56.25051 Y43.40758
G01 X-56.11063 Y43.56293
G01 X-55.31193 Y44.66227
G01 X-55.20738 Y44.84332
G01 X-54.65470 Y46.08469
G01 X-54.59011 Y46.28350
G01 X-54.30759 Y47.61266
G01 X-54.28572 Y47.82055
G01 X-54.28572 Y49.17940
G01 X-54.30759 Y49.38733
G01 X-54.59011 Y50.71646
G01 X-54.65470 Y50.91527
G01 X-55.20738 Y52.15664
G01 X-55.31193 Y52.33772
G01 X-56.11063 Y53.43703
G01 X-56.16730 Y53.49999
G01 X-56.89102 Y53.49999
G01 X-56.62209 Y53.25783
G01 X-56.48218 Y53.10248
G01 X-55.74492 Y52.08770
G01 X-55.64040 Y51.90665
G01 X-55.13022 Y50.76078
G01 X-55.06563 Y50.56195
G01 X-54.80482 Y49.33505
G01 X-54.78297 Y49.12716
G01 X-54.78297 Y47.87283
G01 X-54.80482 Y47.66493
G01 X-55.06563 Y46.43801
G01 X-55.13022 Y46.23918
G01 X-55.64040 Y45.09331
G01 X-55.74492 Y44.91225
G01 X-56.48218 Y43.89750
G01 X-56.62209 Y43.74215
G01 X-57.55422 Y42.90284
G01 X-57.72335 Y42.77995
G01 X-58.80961 Y42.15280
G01 X-59.00059 Y42.06776
G01 X-60.19353 Y41.68016
G01 X-60.39802 Y41.63670
G01 X-61.64547 Y41.50558
G01 X-61.85451 Y41.50558
G01 X-63.10196 Y41.63670
G01 X-63.30645 Y41.68016
G01 X-64.49936 Y42.06776
G01 X-64.69035 Y42.15280
G01 X-65.77663 Y42.77995
G01 X-65.94577 Y42.90284
G01 X-66.87790 Y43.74215
G01 X-67.01777 Y43.89750
G01 X-67.75506 Y44.91225
G01 X-67.85958 Y45.09331
G01 X-68.36976 Y46.23918
G01 X-68.43436 Y46.43801
G01 X-68.69514 Y47.66493
G01 X-68.71701 Y47.87283
G01 X-68.71701 Y49.12716
G01 X-68.69514 Y49.33505
G01 X-68.43436 Y50.56195
G01 X-68.36976 Y50.76078
G01 X-67.85958 Y51.90665
G01 X-67.75506 Y52.08770
G01 X-67.01777 Y53.10248
G01 X-66.87790 Y53.25783
G01 X-66.60896 Y53.49999
G04 P0 ( dwell for no time -- G64 should not smooth over this point )
G00 Z1.00000 ( retract )

G00 X-64.02840 Y53.49999 ( rapid move to begin. )
G01 F20.00000
( Mill infeed pass 1/1 )
G01 Z-0.30000
G04 P0 ( dwell for no time -- G64 should not smooth over this point )
G01 F30.00000
G01 X-64.02840 Y53.49999
G01 X-64.08026 Y53.47688
G01 X-64.89497 Y53.00652
G01 X-65.06411 Y52.88364
G01 X-65.76322 Y52.25412
G01 X-65.90309 Y52.09878
G01 X-66.45605 Y51.33772
G01 X-66.56057 Y51.15667
G01 X-66.94320 Y50.29728
G01 X-67.00782 Y50.09845
G01 X-67.20340 Y49.17826
G01 X-67.22524 Y48.97036
G01 X-67.22524 Y48.02962
G01 X-67.20340 Y47.82170
G01 X-67.00782 Y46.90153
G01 X-66.94320 Y46.70270
G01 X-66.56057 Y45.84329
G01 X-66.45605 Y45.66224
G01 X-65.90309 Y44.90118
G01 X-65.76322 Y44.74581
G01 X-65.06411 Y44.11635
G01 X-64.89497 Y43.99346
G01 X-64.08026 Y43.52308
G01 X-63.88928 Y43.43806
G01 X-62.99459 Y43.14736
G01 X-62.79010 Y43.10388
G01 X-61.85451 Y43.00555
G01 X-61.64547 Y43.00555
G01 X-60.70989 Y43.10388
G01 X-60.50539 Y43.14736
G01 X-59.61070 Y43.43806
G01 X-59.41972 Y43.52308
G01 X-58.60501 Y43.99346
G01 X-58.43588 Y44.11635
G01 X-57.73677 Y44.74581
G01 X-57.59689 Y44.90118
G01 X-57.04393 Y45.66224
G01 X-56.93941 Y45.84329
G01 X-56.55678 Y46.70270
G01 X-56.49217 Y46.90153
G01 X-56.29659 Y47.82170
G01 X-56.27472 Y48.02962
G01 X-56.27472 Y48.97036
G01 X-56.29659 Y49.17826
G01 X-56.49217 Y50.09845
G01 X-56.55678 Y50.29728
G01 X-56.93941 Y51.15667
G01 X-57.04393 Y51.33772
G01 X-57.59689 Y52.09878
G01 X-57.73677 Y52.25412
G01 X-58.43588 Y52.88364
G01 X-58.60501 Y53.00652
G01 X-59.41972 Y53.47688
G01 X-59.47151 Y53.49997
G04 P0 ( dwell for no time -- G64 should not smooth over this point )
G00 Z1.00000 ( retract )

G00 X-60.25274 Y48.44773 ( rapid move to begin. )
G01 F20.00000
( Mill infeed pass 1/1 )
G01 Z-0.30000
G04 P0 ( dwell for no time -- G64 should not smooth over this point )
G01 F30.00000
G01 X-60.25274 Y48.44773
G01 X-60.27458 Y48.23981
G01 X-60.29632 Y48.13757
G01 X-60.36092 Y47.93874
G01 X-60.40344 Y47.84326
G01 X-60.50796 Y47.66221
G01 X-60.56940 Y47.57763
G01 X-60.70928 Y47.42228
G01 X-60.78698 Y47.35233
G01 X-60.95609 Y47.22945
G01 X-61.04661 Y47.17720
G01 X-61.23760 Y47.09216
G01 X-61.33701 Y47.05985
G01 X-61.54151 Y47.01639
G01 X-61.64547 Y47.00547
G01 X-61.85451 Y47.00547
G01 X-61.95847 Y47.01639
G01 X-62.16297 Y47.05985
G01 X-62.26238 Y47.09216
G01 X-62.45337 Y47.17720
G01 X-62.54387 Y47.22945
G01 X-62.71301 Y47.35233
G01 X-62.79068 Y47.42228
G01 X-62.93058 Y47.57763
G01 X-62.99203 Y47.66221
G01 X-63.09655 Y47.84326
G01 X-63.13907 Y47.93874
G01 X-63.20366 Y48.13757
G01 X-63.22540 Y48.23981
G01 X-63.24724 Y48.44773
G01 X-63.24724 Y48.55225
G01 X-63.22540 Y48.76015
G01 X-63.20366 Y48.86241
G01 X-63.13907 Y49.06124
G01 X-63.09655 Y49.15672
G01 X-62.99203 Y49.33777
G01 X-62.93058 Y49.42233
G01 X-62.79068 Y49.57770
G01 X-62.71301 Y49.64765
G01 X-62.54387 Y49.77051
G01 X-62.45337 Y49.82279
G01 X-62.26238 Y49.90782
G01 X-62.16297 Y49.94011
G01 X-61.95847 Y49.98359
G01 X-61.85451 Y49.99452
G01 X-61.64547 Y49.99452
G01 X-61.54151 Y49.98359
G01 X-61.33701 Y49.94011
G01 X-61.23760 Y49.90782
G01 X-61.04661 Y49.82279
G01 X-60.95609 Y49.77051
G01 X-60.78698 Y49.64765
G01 X-60.70928 Y49.57770
G01 X-60.56940 Y49.42233
G01 X-60.50796 Y49.33777
G01 X-60.40344 Y49.15672
G01 X-60.36092 Y49.06124
G01 X-60.29632 Y48.86241
G01 X-60.27458 Y48.76015
G01 X-60.25274 Y48.55225
G01 X-60.25274 Y48.44773
G01 X-59.75548 Y48.39546
G01 X-59.77733 Y48.18756
G01 X-59.82078 Y47.98306
G01 X-59.88540 Y47.78423
G01 X-59.97042 Y47.59325
G01 X-60.07496 Y47.41220
G01 X-60.19782 Y47.24309
G01 X-60.33773 Y47.08771
G01 X-60.49307 Y46.94784
G01 X-60.66221 Y46.82495
G01 X-60.84326 Y46.72043
G01 X-61.03424 Y46.63539
G01 X-61.23305 Y46.57080
G01 X-61.43755 Y46.52734
G01 X-61.64547 Y46.50547
G01 X-61.85451 Y46.50547
G01 X-62.06244 Y46.52734
G01 X-62.26691 Y46.57080
G01 X-62.46574 Y46.63539
G01 X-62.65672 Y46.72043
G01 X-62.83777 Y46.82495
G01 X-63.00688 Y46.94784
G01 X-63.16226 Y47.08771
G01 X-63.30213 Y47.24309
G01 X-63.42502 Y47.41220
G01 X-63.52954 Y47.59325
G01 X-63.61458 Y47.78423
G01 X-63.67917 Y47.98306
G01 X-63.72266 Y48.18756
G01 X-63.74450 Y48.39546
G01 X-63.74450 Y48.60453
G01 X-63.72266 Y48.81242
G01 X-63.67917 Y49.01692
G01 X-63.61458 Y49.21573
G01 X-63.52954 Y49.40671
G01 X-63.42502 Y49.58776
G01 X-63.30213 Y49.75690
G01 X-63.16226 Y49.91224
G01 X-63.00688 Y50.05215
G01 X-62.83777 Y50.17503
G01 X-62.65672 Y50.27955
G01 X-62.46574 Y50.36457
G01 X-62.26691 Y50.42919
G01 X-62.06244 Y50.47264
G01 X-61.85451 Y50.49449
G01 X-61.64547 Y50.49449
G01 X-61.43755 Y50.47264
G01 X-61.23305 Y50.42919
G01 X-61.03424 Y50.36457
G01 X-60.84326 Y50.27955
G01 X-60.66221 Y50.17503
G01 X-60.49307 Y50.05215
G01 X-60.33773 Y49.91224
G01 X-60.19782 Y49.75690
G01 X-60.07496 Y49.58776
G01 X-59.97042 Y49.40671
G01 X-59.88540 Y49.21573
G01 X-59.82078 Y49.01692
G01 X-59.77733 Y48.81242
G01 X-59.75548 Y48.60453
G01 X-59.75548 Y48.39546
G01 X-59.25823 Y48.34318
G01 X-59.28007 Y48.13529
G01 X-59.34527 Y47.82856
G01 X-59.40989 Y47.62972
G01 X-59.53742 Y47.34326
G01 X-59.64194 Y47.16221
G01 X-59.82627 Y46.90852
G01 X-59.96615 Y46.75317
G01 X-60.19919 Y46.54334
G01 X-60.36833 Y46.42046
G01 X-60.63988 Y46.26366
G01 X-60.83087 Y46.17862
G01 X-61.12911 Y46.08172
G01 X-61.33361 Y46.03826
G01 X-61.64547 Y46.00550
G01 X-61.85451 Y46.00550
G01 X-62.16637 Y46.03826
G01 X-62.37087 Y46.08172
G01 X-62.66909 Y46.17862
G01 X-62.86007 Y46.26366
G01 X-63.13165 Y46.42046
G01 X-63.30079 Y46.54334
G01 X-63.53381 Y46.75317
G01 X-63.67371 Y46.90852
G01 X-63.85801 Y47.16221
G01 X-63.96256 Y47.34326
G01 X-64.09009 Y47.62972
G01 X-64.15471 Y47.82856
G01 X-64.21989 Y48.13529
G01 X-64.24176 Y48.34318
G01 X-64.24176 Y48.65677
G01 X-64.21989 Y48.86470
G01 X-64.15471 Y49.17143
G01 X-64.09009 Y49.37023
G01 X-63.96256 Y49.65672
G01 X-63.85801 Y49.83777
G01 X-63.67371 Y50.09144
G01 X-63.53381 Y50.24681
G01 X-63.30079 Y50.45664
G01 X-63.13165 Y50.57953
G01 X-62.86007 Y50.73632
G01 X-62.66909 Y50.82134
G01 X-62.37087 Y50.91824
G01 X-62.16637 Y50.96167
G01 X-61.85451 Y50.99449
G01 X-61.64547 Y50.99449
G01 X-61.33361 Y50.96167
G01 X-61.12911 Y50.91824
G01 X-60.83087 Y50.82134
G01 X-60.63988 Y50.73632
G01 X-60.36833 Y50.57953
G01 X-60.19919 Y50.45664
G01 X-59.96615 Y50.24681
G01 X-59.82627 Y50.09144
G01 X-59.64194 Y49.83777
G01 X-59.53742 Y49.65672
G01 X-59.40989 Y49.37023
G01 X-59.34527 Y49.17143
G01 X-59.28007 Y48.86470
G01 X-59.25823 Y48.65677
G01 X-59.25823 Y48.34318
G01 X-58.76097 Y48.29094
G01 X-58.78284 Y48.08301
G01 X-58.86976 Y47.67405
G01 X-58.93435 Y47.47522
G01 X-59.10443 Y47.09328
G01 X-59.20895 Y46.91223
G01 X-59.45469 Y46.57397
G01 X-59.59460 Y46.41860
G01 X-59.90532 Y46.13885
G01 X-60.07443 Y46.01596
G01 X-60.43653 Y45.80689
G01 X-60.62751 Y45.72188
G01 X-61.02515 Y45.59267
G01 X-61.22965 Y45.54921
G01 X-61.64547 Y45.50550
G01 X-61.85451 Y45.50550
G01 X-62.27034 Y45.54921
G01 X-62.47483 Y45.59267
G01 X-62.87247 Y45.72188
G01 X-63.06345 Y45.80689
G01 X-63.42553 Y46.01596
G01 X-63.59467 Y46.13885
G01 X-63.90538 Y46.41860
G01 X-64.04526 Y46.57397
G01 X-64.29103 Y46.91223
G01 X-64.39555 Y47.09328
G01 X-64.56561 Y47.47522
G01 X-64.63022 Y47.67405
G01 X-64.71714 Y48.08301
G01 X-64.73899 Y48.29094
G01 X-64.73899 Y48.70905
G01 X-64.71714 Y48.91695
G01 X-64.63022 Y49.32591
G01 X-64.56561 Y49.52474
G01 X-64.39555 Y49.90671
G01 X-64.29103 Y50.08776
G01 X-64.04526 Y50.42601
G01 X-63.90538 Y50.58138
G01 X-63.59467 Y50.86111
G01 X-63.42553 Y50.98402
G01 X-63.06345 Y51.19306
G01 X-62.87247 Y51.27808
G01 X-62.47483 Y51.40729
G01 X-62.27034 Y51.45077
G01 X-61.85451 Y51.49449
G01 X-61.64547 Y51.49449
G01 X-61.22965 Y51.45077
G01 X-61.02515 Y51.40729
G01 X-60.62751 Y51.27808
G01 X-60.43653 Y51.19306
G01 X-60.07443 Y50.98402
G01 X-59.90532 Y50.86111
G01 X-59.59460 Y50.58138
G01 X-59.45469 Y50.42601
G01 X-59.20895 Y50.08776
G01 X-59.10443 Y49.90671
G01 X-58.93435 Y49.52474
G01 X-58.86976 Y49.32591
G01 X-58.78284 Y48.91695
G01 X-58.76097 Y48.70905
G01 X-58.76097 Y48.29094
G01 X-58.26374 Y48.23866
G01 X-58.28558 Y48.03077
G01 X-58.39424 Y47.51954
G01 X-58.45884 Y47.32073
G01 X-58.67141 Y46.84326
G01 X-58.77596 Y46.66221
G01 X-59.08314 Y46.23940
G01 X-59.22302 Y46.08406
G01 X-59.61141 Y45.73433
G01 X-59.78055 Y45.61147
G01 X-60.23315 Y45.35015
G01 X-60.42414 Y45.26511
G01 X-60.92119 Y45.10359
G01 X-61.12568 Y45.06013
G01 X-61.64547 Y45.00550
G01 X-61.85451 Y45.00550
G01 X-62.37430 Y45.06013
G01 X-62.57877 Y45.10359
G01 X-63.07582 Y45.26511
G01 X-63.26680 Y45.35015
G01 X-63.71943 Y45.61147
G01 X-63.88854 Y45.73433
G01 X-64.27694 Y46.08406
G01 X-64.41684 Y46.23940
G01 X-64.72403 Y46.66221
G01 X-64.82855 Y46.84326
G01 X-65.04112 Y47.32073
G01 X-65.10574 Y47.51954
G01 X-65.21440 Y48.03077
G01 X-65.23624 Y48.23866
G01 X-65.23624 Y48.76129
G01 X-65.21440 Y48.96922
G01 X-65.10574 Y49.48042
G01 X-65.04112 Y49.67925
G01 X-64.82855 Y50.15669
G01 X-64.72403 Y50.33775
G01 X-64.41684 Y50.76058
G01 X-64.27694 Y50.91590
G01 X-63.88854 Y51.26563
G01 X-63.71943 Y51.38852
G01 X-63.26680 Y51.64983
G01 X-63.07582 Y51.73487
G01 X-62.57877 Y51.89637
G01 X-62.37430 Y51.93983
G01 X-61.85451 Y51.99444
G01 X-61.64547 Y51.99444
G01 X-61.12568 Y51.93983
G01 X-60.92119 Y51.89637
G01 X-60.42414 Y51.73487
G01 X-60.23315 Y51.64983
G01 X-59.78055 Y51.38852
G01 X-59.61141 Y51.26563
G01 X-59.22302 Y50.91590
G01 X-59.08314 Y50.76058
G01 X-58.77596 Y50.33775
G01 X-58.67141 Y50.15669
G01 X-58.45884 Y49.67925
G01 X-58.39424 Y49.48042
G01 X-58.28558 Y48.96922
G01 X-58.26374 Y48.76129
G01 X-58.26374 Y48.23866
G01 X-57.76648 Y48.18642
G01 X-57.78833 Y47.97849
G01 X-57.91873 Y47.36503
G01 X-57.98332 Y47.16623
G01 X-58.23842 Y46.59328
G01 X-58.34294 Y46.41223
G01 X-58.71157 Y45.90484
G01 X-58.85147 Y45.74949
G01 X-59.31753 Y45.32983
G01 X-59.48667 Y45.20695
G01 X-60.02980 Y44.89338
G01 X-60.22078 Y44.80834
G01 X-60.81725 Y44.61454
G01 X-61.02175 Y44.57108
G01 X-61.64547 Y44.50552
G01 X-61.85451 Y44.50552
G01 X-62.47823 Y44.57108
G01 X-62.68273 Y44.61454
G01 X-63.27920 Y44.80834
G01 X-63.47018 Y44.89338
G01 X-64.01331 Y45.20695
G01 X-64.18245 Y45.32983
G01 X-64.64851 Y45.74949
G01 X-64.78839 Y45.90484
G01 X-65.15702 Y46.41223
G01 X-65.26157 Y46.59328
G01 X-65.51666 Y47.16623
G01 X-65.58125 Y47.36503
G01 X-65.71165 Y47.97849
G01 X-65.73350 Y48.18642
G01 X-65.73350 Y48.81357
G01 X-65.71165 Y49.02147
G01 X-65.58125 Y49.63493
G01 X-65.51666 Y49.83376
G01 X-65.26157 Y50.40671
G01 X-65.15702 Y50.58773
G01 X-64.78839 Y51.09512
G01 X-64.64851 Y51.25049
G01 X-64.18245 Y51.67013
G01 X-64.01331 Y51.79301
G01 X-63.47018 Y52.10660
G01 X-63.27920 Y52.19164
G01 X-62.68273 Y52.38542
G01 X-62.47823 Y52.42890
G01 X-61.85451 Y52.49446
G01 X-61.64547 Y52.49446
G01 X-61.02175 Y52.42890
G01 X-60.81725 Y52.38542
G01 X-60.22078 Y52.19164
G01 X-60.02980 Y52.10660
G01 X-59.48667 Y51.79301
G01 X-59.31753 Y51.67013
G01 X-58.85147 Y51.25049
G01 X-58.71157 Y51.09512
G01 X-58.34294 Y50.58773
G01 X-58.23842 Y50.40671
G01 X-57.98332 Y49.83376
G01 X-57.91873 Y49.63493
G01 X-57.78833 Y49.02147
G01 X-57.76648 Y48.81357
G01 X-57.76648 Y48.18642
G01 X-57.26923 Y48.13414
G01 X-57.29107 Y47.92624
G01 X-57.44322 Y47.21055
G01 X-57.50781 Y47.01172
G01 X-57.80542 Y46.34329
G01 X-57.90994 Y46.16224
G01 X-58.34002 Y45.57029
G01 X-58.47989 Y45.41492
G01 X-59.02366 Y44.92534
G01 X-59.19277 Y44.80245
G01 X-59.82645 Y44.43661
G01 X-60.01743 Y44.35157
G01 X-60.71329 Y44.12549
G01 X-60.91779 Y44.08200
G01 X-61.64547 Y44.00553
G01 X-61.85451 Y44.00553
G01 X-62.58220 Y44.08200
G01 X-62.78669 Y44.12549
G01 X-63.48255 Y44.35157
G01 X-63.67353 Y44.43661
G01 X-64.30719 Y44.80245
G01 X-64.47633 Y44.92534
G01 X-65.02006 Y45.41492
G01 X-65.15997 Y45.57029
G01 X-65.59004 Y46.16224
G01 X-65.69456 Y46.34329
G01 X-65.99217 Y47.01172
G01 X-66.05676 Y47.21055
G01 X-66.20888 Y47.92624
G01 X-66.23075 Y48.13414
G01 X-66.23075 Y48.86584
G01 X-66.20888 Y49.07374
G01 X-66.05676 Y49.78944
G01 X-65.99217 Y49.98827
G01 X-65.69456 Y50.65669
G01 X-65.59004 Y50.83772
G01 X-65.15997 Y51.42969
G01 X-65.02006 Y51.58504
G01 X-64.47633 Y52.07465
G01 X-64.30719 Y52.19748
G01 X-63.67353 Y52.56337
G01 X-63.48255 Y52.64838
G01 X-62.78669 Y52.87449
G01 X-62.58220 Y52.91795
G01 X-61.85451 Y52.99443
G01 X-61.64547 Y52.99443
G01 X-60.91779 Y52.91795
G01 X-60.71329 Y52.87449
G01 X-60.01743 Y52.64838
G01 X-59.82645 Y52.56337
G01 X-59.19277 Y52.19748
G01 X-59.02366 Y52.07465
G01 X-58.47989 Y51.58504
G01 X-58.34002 Y51.42969
G01 X-57.90994 Y50.83772
G01 X-57.80542 Y50.65669
G01 X-57.50781 Y49.98827
G01 X-57.44322 Y49.78944
G01 X-57.29107 Y49.07374
G01 X-57.26923 Y48.86584
G01 X-57.26923 Y48.13414
G01 X-56.77197 Y48.08187
G01 X-56.79384 Y47.87397
G01 X-56.96768 Y47.05604
G01 X-57.03230 Y46.85721
G01 X-57.37240 Y46.09328
G01 X-57.47692 Y45.91225
G01 X-57.96844 Y45.23572
G01 X-58.10834 Y45.08038
G01 X-58.72975 Y44.52084
G01 X-58.89889 Y44.39796
G01 X-59.62307 Y43.97985
G01 X-59.81405 Y43.89483
G01 X-60.60933 Y43.63641
G01 X-60.81382 Y43.59295
G01 X-61.64547 Y43.50555
G01 X-61.85451 Y43.50555
G01 X-62.68616 Y43.59295
G01 X-62.89063 Y43.63641
G01 X-63.68593 Y43.89483
G01 X-63.87691 Y43.97985
G01 X-64.60109 Y44.39796
G01 X-64.77020 Y44.52084
G01 X-65.39164 Y45.08038
G01 X-65.53152 Y45.23572
G01 X-66.02303 Y45.91225
G01 X-66.12758 Y46.09328
G01 X-66.46769 Y46.85721
G01 X-66.53228 Y47.05604
G01 X-66.70614 Y47.87397
G01 X-66.72801 Y48.08187
G01 X-66.72801 Y48.91809
G01 X-66.70614 Y49.12601
G01 X-66.53228 Y49.94394
G01 X-66.46769 Y50.14277
G01 X-66.12758 Y50.90668
G01 X-66.02303 Y51.08771
G01 X-65.53152 Y51.76421
G01 X-65.39164 Y51.91961
G01 X-64.77020 Y52.47912
G01 X-64.60109 Y52.60203
G01 X-63.87691 Y53.02011
G01 X-63.68593 Y53.10515
G01 X-62.89063 Y53.36355
G01 X-62.68616 Y53.40703
G01 X-61.85451 Y53.49443
G01 X-61.64547 Y53.49443
G01 X-60.81382 Y53.40703
G01 X-60.60933 Y53.36355
G01 X-59.81405 Y53.10515
G01 X-59.62307 Y53.02011
G01 X-58.89889 Y52.60203
G01 X-58.72975 Y52.47912
G01 X-58.10834 Y51.91961
G01 X-57.96844 Y51.76421
G01 X-57.47692 Y51.08771
G01 X-57.37240 Y50.90668
G01 X-57.03230 Y50.14277
G01 X-56.96768 Y49.94394
G01 X-56.79384 Y49.12601
G01 X-56.77197 Y48.91809
G01 X-56.77197 Y48.08187
G01 X-51.30221 Y47.50699
G01 X-51.32408 Y47.29907
G01 X-51.73698 Y45.35648
G01 X-51.80157 Y45.15764
G01 X-52.43109 Y43.74380
G01 X-54.98478 Y42.59191
G01 X-54.05153 Y43.01317
G01 X-53.57990 Y43.66230
G01 X-53.47538 Y43.84335
G01 X-52.75260 Y45.46666
G01 X-52.68803 Y45.66549
G01 X-52.31859 Y47.40361
G01 X-52.29672 Y47.61151
G01 X-52.29672 Y49.38847
G01 X-52.31859 Y49.59637
G01 X-52.68803 Y51.33449
G01 X-52.75260 Y51.53332
G01 X-53.47538 Y53.15664
G01 X-53.57990 Y53.33769
G01 X-53.69784 Y53.49999
G01 X-52.53962 Y53.49999
G01 X-51.80157 Y51.84231
G01 X-51.73698 Y51.64348
G01 X-51.32408 Y49.70089
G01 X-51.30221 Y49.49299
G01 X-51.30221 Y47.50699
G04 P0 ( dwell for no time -- G64 should not smooth over this point )
G00 Z1.00000 ( retract )

G00 X-54.31246 Y53.49999 ( rapid move to begin. )
G01 F20.00000
( Mill infeed pass 1/1 )
G01 Z-0.30000
G04 P0 ( dwell for no time -- G64 should not smooth over this point )
G01 F30.00000
G01 X-54.31246 Y53.49999
G01 X-54.01292 Y53.08770
G01 X-53.90838 Y52.90665
G01 X-53.22814 Y51.37879
G01 X-53.16352 Y51.17996
G01 X-52.81579 Y49.54410
G01 X-52.79398 Y49.33620
G01 X-52.79398 Y47.66379
G01 X-52.81579 Y47.45586
G01 X-53.16352 Y45.82000
G01 X-53.22814 Y45.62117
G01 X-53.90838 Y44.09333
G01 X-54.01292 Y43.91228
G01 X-54.96623 Y42.60017
G01 X-56.89407 Y41.72458
G01 X-60.15596 Y40.22697
G01 X-61.96053 Y39.39035
G01 X-63.52931 Y38.65563
G01 X-64.24422 Y38.32499
G01 X-65.92293 Y38.87043
G01 X-66.11391 Y38.95547
G01 X-67.83382 Y39.94846
G01 X-68.00296 Y40.07134
G01 X-69.47886 Y41.40025
G01 X-69.61873 Y41.55559
G01 X-70.78607 Y43.16230
G01 X-70.89061 Y43.34335
G01 X-71.69838 Y45.15764
G01 X-71.76298 Y45.35648
G01 X-72.17590 Y47.29907
G01 X-72.19775 Y47.50699
G01 X-72.19775 Y49.49299
G01 X-72.17590 Y49.70089
G01 X-71.76298 Y51.64348
G01 X-71.69838 Y51.84231
G01 X-70.96034 Y53.49999
G01 X-57.63415 Y53.49997
G01 X-58.46516 Y53.49997
G01 X-58.31111 Y53.41102
G01 X-58.14200 Y53.28813
G01 X-57.36521 Y52.58872
G01 X-57.22531 Y52.43335
G01 X-56.61094 Y51.58773
G01 X-56.50639 Y51.40668
G01 X-56.08124 Y50.45177
G01 X-56.01665 Y50.25296
G01 X-55.79933 Y49.23053
G01 X-55.77749 Y49.02261
G01 X-55.77749 Y47.97735
G01 X-55.79933 Y47.76945
G01 X-56.01665 Y46.74702
G01 X-56.08124 Y46.54819
G01 X-56.50639 Y45.59330
G01 X-56.61094 Y45.41225
G01 X-57.22531 Y44.56661
G01 X-57.36521 Y44.41127
G01 X-58.14200 Y43.71185
G01 X-58.31111 Y43.58897
G01 X-59.21634 Y43.06633
G01 X-59.40732 Y42.98130
G01 X-60.40143 Y42.65828
G01 X-60.60592 Y42.61482
G01 X-61.64547 Y42.50555
G01 X-61.85451 Y42.50555
G01 X-62.89406 Y42.61482
G01 X-63.09855 Y42.65828
G01 X-64.09266 Y42.98130
G01 X-64.28364 Y43.06633
G01 X-65.18885 Y43.58897
G01 X-65.35798 Y43.71185
G01 X-66.13477 Y44.41127
G01 X-66.27465 Y44.56661
G01 X-66.88905 Y45.41225
G01 X-66.99357 Y45.59330
G01 X-67.41871 Y46.54819
G01 X-67.48333 Y46.74702
G01 X-67.70065 Y47.76945
G01 X-67.72250 Y47.97735
G01 X-67.72250 Y49.02261
G01 X-67.70065 Y49.23053
G01 X-67.48333 Y50.25296
G01 X-67.41871 Y50.45177
G01 X-66.99357 Y51.40668
G01 X-66.88905 Y51.58773
G01 X-66.27465 Y52.43335
G01 X-66.13477 Y52.58872
G01 X-65.35798 Y53.28813
G01 X-65.18885 Y53.41102
G01 X-65.03477 Y53.49999
G01 X-65.86583 Y53.49997
G01 X-66.50634 Y52.92329
G01 X-66.64622 Y52.76792
G01 X-67.32204 Y51.83772
G01 X-67.42659 Y51.65664
G01 X-67.89423 Y50.60627
G01 X-67.95884 Y50.40747
G01 X-68.19788 Y49.28278
G01 X-68.21975 Y49.07488
G01 X-68.21975 Y47.92510
G01 X-68.19788 Y47.71718
G01 X-67.95884 Y46.59252
G01 X-67.89423 Y46.39368
G01 X-67.42659 Y45.34332
G01 X-67.32204 Y45.16227
G01 X-66.64622 Y44.23207
G01 X-66.50634 Y44.07670
G01 X-65.65186 Y43.30733
G01 X-65.48275 Y43.18447
G01 X-64.48699 Y42.60957
G01 X-64.29601 Y42.52453
G01 X-63.20249 Y42.16923
G01 X-62.99799 Y42.12577
G01 X-61.85451 Y42.00558
G01 X-61.64547 Y42.00558
G01 X-60.50196 Y42.12577
G01 X-60.29749 Y42.16923
G01 X-59.20397 Y42.52453
G01 X-59.01299 Y42.60957
G01 X-58.01723 Y43.18447
G01 X-57.84809 Y43.30733
G01 X-56.99364 Y44.07670
G01 X-56.85376 Y44.23207
G01 X-56.17792 Y45.16227
G01 X-56.07340 Y45.34332
G01 X-55.60573 Y46.39368
G01 X-55.54114 Y46.59252
G01 X-55.30207 Y47.71718
G01 X-55.28023 Y47.92510
G01 X-55.28023 Y49.07488
G01 X-55.30207 Y49.28278
G01 X-55.54114 Y50.40747
G01 X-55.60573 Y50.60627
G01 X-56.07340 Y51.65664
G01 X-56.17792 Y51.83772
G01 X-56.85376 Y52.76792
G01 X-56.99364 Y52.92329
G01 X-57.63415 Y53.49997
G01 X-53.09629 Y53.49999
G01 X-53.04239 Y53.40662
G01 X-52.27711 Y51.68778
G01 X-52.21249 Y51.48900
G01 X-51.82133 Y49.64864
G01 X-51.79949 Y49.44072
G01 X-51.79949 Y47.55924
G01 X-51.82133 Y47.35134
G01 X-52.21249 Y45.51098
G01 X-52.27711 Y45.31215
G01 X-53.04239 Y43.59333
G01 X-53.13904 Y43.42587
G01 X-53.84617 Y42.55727
G01 X-52.94866 Y42.46296
G01 X-52.78506 Y42.42819
G01 X-51.85667 Y42.12653
G01 X-51.85743 Y42.12245
G01 X-51.85667 Y42.12653
G01 X-51.50505 Y42.10637
G01 X-49.87082 Y41.78130
G01 X-49.81453 Y41.76423
G01 X-48.27511 Y41.12656
G01 X-48.22325 Y41.09885
G01 X-46.83780 Y40.17312
G01 X-46.79234 Y40.13581
G01 X-45.61413 Y38.95761
G01 X-45.57682 Y38.91214
G01 X-44.65109 Y37.52670
G01 X-44.62338 Y37.47483
G01 X-43.98571 Y35.93541
G01 X-43.96864 Y35.87913
G01 X-43.64358 Y34.24489
G01 X-43.63781 Y34.18637
G01 X-43.63781 Y32.52010
G01 X-43.64358 Y32.46158
G01 X-43.84309 Y31.45841
G01 X-43.30154 Y31.63065
G01 X-43.14599 Y32.41258
G01 X-43.14022 Y32.47111
G01 X-43.14022 Y34.23536
G01 X-43.14599 Y34.29389
G01 X-43.49018 Y36.02426
G01 X-43.50725 Y36.08055
G01 X-44.18241 Y37.71052
G01 X-44.21015 Y37.76238
G01 X-45.19031 Y39.22933
G01 X-45.22762 Y39.27478
G01 X-46.47517 Y40.52232
G01 X-46.52061 Y40.55963
G01 X-47.98756 Y41.53979
G01 X-48.03943 Y41.56753
G01 X-49.66940 Y42.24269
G01 X-49.72568 Y42.25976
G01 X-51.45603 Y42.60395
G01 X-51.77381 Y42.62244
G01 X-51.77455 Y42.61838
G01 X-51.77381 Y42.62244
G01 X-52.68110 Y42.91724
G01 X-52.84467 Y42.95201
G01 X-52.94917 Y42.96298
G01 X-54.75089 Y42.14871
G01 X-54.71587 Y42.14871
G01 X-53.05260 Y41.97388
G01 X-52.88902 Y41.93913
G01 X-51.93949 Y41.63060
G01 X-51.94028 Y41.62651
G01 X-51.93949 Y41.63060
G01 X-51.55405 Y41.60878
G01 X-50.01595 Y41.30284
G01 X-49.95967 Y41.28577
G01 X-48.51080 Y40.68562
G01 X-48.45893 Y40.65791
G01 X-47.15500 Y39.78664
G01 X-47.10953 Y39.74932
G01 X-46.00062 Y38.64041
G01 X-45.96331 Y38.59494
G01 X-45.09204 Y37.29101
G01 X-45.06432 Y37.23914
G01 X-44.46417 Y35.79028
G01 X-44.44710 Y35.73399
G01 X-44.14116 Y34.19589
G01 X-44.13540 Y34.13735
G01 X-44.13540 Y32.56912
G01 X-44.14116 Y32.51058
G01 X-44.38457 Y31.28670
G04 P0 ( dwell for no time -- G64 should not smooth over this point )
G00 Z1.00000 ( retract )

G00 X-43.78183 Y30.42834 ( rapid move to begin. )
G01 F20.00000
( Mill infeed pass 1/1 )
G01 Z-0.30000
G04 P0 ( dwell for no time -- G64 should not smooth over this point )
G01 F30.00000
G01 X-43.78183 Y30.42834
G01 X-43.51678 Y30.86209
G01 X-43.66003 Y30.99194
G01 X-44.21086 Y30.81719
G01 X-43.78183 Y30.42834
G01 X-44.04741 Y29.99298
G01 X-44.61515 Y30.50962
G01 X-44.66062 Y30.54693
G01 X-44.79064 Y30.63380
G01 X-45.39734 Y30.44076
G01 X-44.97779 Y30.16042
G01 X-44.93232 Y30.12310
G01 X-44.42336 Y29.66182
G01 X-44.30842 Y29.54688
G01 X-44.56687 Y29.09824
G01 X-44.77690 Y29.30827
G01 X-45.24952 Y29.73662
G01 X-45.29498 Y29.77393
G01 X-46.00407 Y30.24772
G01 X-46.61527 Y30.05430
G01 X-46.59010 Y30.04086
G01 X-45.61215 Y29.38742
G01 X-45.56671 Y29.35011
G01 X-45.13044 Y28.95470
G01 X-44.82534 Y28.64963
G01 X-45.07804 Y28.21097
G04 P0 ( dwell for no time -- G64 should not smooth over this point )
G00 Z1.00000 ( retract )

G00 X-49.07958 Y29.27126 ( rapid move to begin. )
G01 F20.00000
( Mill infeed pass 1/1 )
G01 Z-0.30000
G04 P0 ( dwell for no time -- G64 should not smooth over this point )
G01 F30.00000
G01 X-49.07958 Y29.27126
G01 X-48.22030 Y29.10035
G01 X-48.16401 Y29.08328
G01 X-47.34905 Y28.74571
G01 X-47.29719 Y28.71800
G01 X-46.56371 Y28.22791
G01 X-46.51825 Y28.19062
G01 X-46.19104 Y27.89405
G01 X-45.56709 Y27.27013
G01 X-45.82140 Y26.78064
G01 X-45.80885 Y26.80480
G01 X-46.54459 Y27.54051
G01 X-46.88091 Y27.84142
G01 X-47.53287 Y28.27703
G01 X-47.58474 Y28.30477
G01 X-48.30915 Y28.60482
G01 X-48.36544 Y28.62189
G01 X-49.13447 Y28.77487
G01 X-49.19299 Y28.78064
G01 X-49.58507 Y28.79989
G01 X-50.91273 Y28.79989
G01 X-51.00950 Y28.78305
G01 X-51.09215 Y29.27617
G01 X-51.02581 Y29.28772
G01 X-50.39634 Y29.54845
G01 X-50.34448 Y29.57617
G01 X-49.69251 Y30.01180
G01 X-49.64704 Y30.04911
G01 X-49.09259 Y30.60357
G01 X-49.05527 Y30.64904
G01 X-48.61964 Y31.30100
G01 X-48.59193 Y31.35287
G01 X-48.29185 Y32.07730
G01 X-48.27478 Y32.13359
G01 X-48.12180 Y32.90265
G01 X-48.11606 Y32.96117
G01 X-48.11606 Y33.74530
G01 X-48.12180 Y33.80382
G01 X-48.27478 Y34.57288
G01 X-48.29185 Y34.62917
G01 X-48.59193 Y35.35360
G01 X-48.61964 Y35.40547
G01 X-49.05527 Y36.05743
G01 X-49.09259 Y36.10290
G01 X-49.64704 Y36.65736
G01 X-49.69251 Y36.69467
G01 X-50.34448 Y37.13030
G01 X-50.39634 Y37.15802
G01 X-51.12078 Y37.45809
G01 X-51.17706 Y37.47516
G01 X-51.94610 Y37.62814
G01 X-52.39672 Y37.65316
G01 X-52.69111 Y37.65316
G01 X-52.69385 Y37.64211
G01 X-52.69111 Y37.65316
G01 X-52.77254 Y37.70018
G01 X-52.92537 Y37.76823
G01 X-53.72064 Y38.02662
G01 X-53.88425 Y38.06139
G01 X-54.71587 Y38.14879
G01 X-54.88310 Y38.14879
G01 X-55.71475 Y38.06139
G01 X-55.87832 Y38.02662
G01 X-56.67362 Y37.76823
G01 X-56.82640 Y37.70018
G01 X-57.55058 Y37.28209
G01 X-57.68589 Y37.18377
G01 X-58.30733 Y36.62423
G01 X-58.41921 Y36.49995
G01 X-58.91073 Y35.82345
G01 X-58.99437 Y35.67862
G01 X-59.33448 Y34.91469
G01 X-59.38617 Y34.75563
G01 X-59.56003 Y33.93770
G01 X-59.57750 Y33.77136
G01 X-59.57750 Y32.93516
G01 X-59.56003 Y32.76882
G01 X-59.38617 Y31.95089
G01 X-59.33448 Y31.79183
G01 X-58.99437 Y31.02790
G01 X-58.91073 Y30.88307
G01 X-58.51975 Y30.34492
G01 X-57.58304 Y30.09925
G01 X-57.93575 Y30.41683
G01 X-58.04766 Y30.54111
G01 X-58.47773 Y31.13306
G01 X-58.56135 Y31.27789
G01 X-58.85896 Y31.94634
G01 X-58.91065 Y32.10540
G01 X-59.06277 Y32.82109
G01 X-59.08025 Y32.98741
G01 X-59.08025 Y33.71911
G01 X-59.06277 Y33.88543
G01 X-58.91065 Y34.60112
G01 X-58.85896 Y34.76018
G01 X-58.56135 Y35.42861
G01 X-58.47773 Y35.57346
G01 X-58.04766 Y36.16541
G01 X-57.93575 Y36.28969
G01 X-57.39201 Y36.77928
G01 X-57.25671 Y36.87757
G01 X-56.62303 Y37.24344
G01 X-56.47025 Y37.31146
G01 X-55.77439 Y37.53754
G01 X-55.61079 Y37.57231
G01 X-54.88310 Y37.64882
G01 X-54.71587 Y37.64882
G01 X-53.98818 Y37.57231
G01 X-53.82461 Y37.53754
G01 X-53.12872 Y37.31146
G01 X-52.97594 Y37.24344
G01 X-52.81958 Y37.15316
G01 X-52.82296 Y37.13924
G01 X-52.81958 Y37.15316
G01 X-52.39672 Y37.15316
G01 X-51.99510 Y37.13056
G01 X-51.32220 Y36.99670
G01 X-51.26594 Y36.97963
G01 X-50.63206 Y36.71707
G01 X-50.58019 Y36.68933
G01 X-50.00970 Y36.30816
G01 X-49.96424 Y36.27084
G01 X-49.47910 Y35.78570
G01 X-49.44179 Y35.74024
G01 X-49.06061 Y35.16975
G01 X-49.03287 Y35.11789
G01 X-48.77031 Y34.48401
G01 X-48.75324 Y34.42774
G01 X-48.61938 Y33.75482
G01 X-48.61362 Y33.69630
G01 X-48.61362 Y33.01017
G01 X-48.61938 Y32.95165
G01 X-48.75324 Y32.27873
G01 X-48.77031 Y32.22247
G01 X-49.03287 Y31.58858
G01 X-49.06061 Y31.53672
G01 X-49.44179 Y30.96623
G01 X-49.47910 Y30.92077
G01 X-49.96424 Y30.43563
G01 X-50.00970 Y30.39831
G01 X-50.58019 Y30.01714
G01 X-50.63206 Y29.98940
G01 X-51.26594 Y29.72684
G01 X-51.32220 Y29.70977
G01 X-51.99510 Y29.57591
G01 X-52.34361 Y29.55371
G01 X-52.83182 Y29.54630
G01 X-52.83484 Y29.55801
G01 X-52.83182 Y29.54630
G01 X-52.97594 Y29.46309
G01 X-53.12872 Y29.39506
G01 X-53.82461 Y29.16895
G01 X-53.98818 Y29.13418
G01 X-54.23075 Y29.10870
G01 X-54.40202 Y29.16375
G01 X-54.38135 Y28.63192
G01 X-54.08237 Y28.33294
G01 X-54.05524 Y28.29989
G01 X-54.07157 Y28.26098
G01 X-54.05524 Y28.29989
G01 X-49.58507 Y28.29989
G01 X-49.18349 Y28.27729
G01 X-48.51057 Y28.14343
G01 X-48.45428 Y28.12636
G01 X-47.82043 Y27.86380
G01 X-47.76856 Y27.83609
G01 X-47.19808 Y27.45491
G01 X-46.89813 Y27.18697
G01 X-46.04151 Y26.33035
G01 X-46.27753 Y25.85268
G01 X-46.34159 Y25.92334
G01 X-47.25167 Y26.83340
G01 X-47.46981 Y27.03111
G01 X-47.51527 Y27.06842
G01 X-48.00425 Y27.39514
G01 X-48.05611 Y27.42286
G01 X-48.59942 Y27.64790
G01 X-48.65571 Y27.66497
G01 X-49.23249 Y27.77970
G01 X-49.58507 Y27.79992
G01 X-54.31770 Y27.79992
G01 X-54.34711 Y27.74343
G01 X-54.31770 Y27.79992
G01 X-54.43154 Y27.97028
G01 X-54.46885 Y28.01574
G01 X-54.88470 Y28.43159
G01 X-54.93017 Y28.46890
G01 X-55.41914 Y28.79562
G01 X-55.47101 Y28.82334
G01 X-56.01434 Y29.04841
G01 X-56.07060 Y29.06547
G01 X-56.64741 Y29.18021
G01 X-56.70593 Y29.18597
G01 X-57.29402 Y29.18597
G01 X-57.35254 Y29.18021
G01 X-57.92935 Y29.06547
G01 X-57.98561 Y29.04841
G01 X-58.52894 Y28.82334
G01 X-58.58081 Y28.79562
G01 X-59.06978 Y28.46890
G01 X-59.11525 Y28.43159
G01 X-59.17710 Y28.36974
G01 X-58.98223 Y27.86090
G01 X-58.79805 Y28.04511
G01 X-58.75261 Y28.08239
G01 X-58.34512 Y28.35468
G01 X-58.29325 Y28.38239
G01 X-57.84047 Y28.56995
G01 X-57.78421 Y28.58701
G01 X-57.30354 Y28.68262
G01 X-57.24502 Y28.68839
G01 X-56.75493 Y28.68839
G01 X-56.69641 Y28.68262
G01 X-56.21574 Y28.58701
G01 X-56.15948 Y28.56995
G01 X-55.70670 Y28.38239
G01 X-55.65483 Y28.35468
G01 X-55.24734 Y28.08239
G01 X-55.20190 Y28.04511
G01 X-54.85534 Y27.69855
G01 X-54.81805 Y27.65311
G01 X-54.58206 Y27.29992
G01 X-54.61244 Y27.24229
G01 X-54.58206 Y27.29992
G01 X-49.58507 Y27.29992
G01 X-49.28149 Y27.28211
G01 X-48.80084 Y27.18651
G01 X-48.74456 Y27.16944
G01 X-48.29180 Y26.98191
G01 X-48.23993 Y26.95418
G01 X-47.83247 Y26.68191
G01 X-47.60521 Y26.47983
G01 X-46.69513 Y25.56980
G01 X-46.51278 Y25.36657
G01 X-46.76473 Y24.85352
G01 X-46.87956 Y25.02538
G01 X-47.04867 Y25.21626
G01 X-47.95876 Y26.12629
G01 X-48.14964 Y26.29543
G01 X-48.47562 Y26.51323
G01 X-48.52749 Y26.54092
G01 X-48.88969 Y26.69098
G01 X-48.94598 Y26.70805
G01 X-49.33051 Y26.78453
G01 X-49.58507 Y26.79992
G01 X-54.89349 Y26.79992
G01 X-54.94604 Y26.71912
G01 X-54.89349 Y26.79992
G01 X-54.95900 Y26.95806
G01 X-54.98673 Y27.00993
G01 X-55.20454 Y27.33591
G01 X-55.24185 Y27.38138
G01 X-55.51907 Y27.65859
G01 X-55.56453 Y27.69591
G01 X-55.89052 Y27.91371
G01 X-55.94238 Y27.94145
G01 X-56.30461 Y28.09149
G01 X-56.36090 Y28.10855
G01 X-56.74543 Y28.18503
G01 X-56.80395 Y28.19080
G01 X-57.19600 Y28.19080
G01 X-57.25452 Y28.18503
G01 X-57.63905 Y28.10855
G01 X-57.69534 Y28.09149
G01 X-58.05757 Y27.94145
G01 X-58.10943 Y27.91371
G01 X-58.43542 Y27.69591
G01 X-58.48088 Y27.65859
G01 X-58.75810 Y27.38138
G01 X-58.78802 Y27.34490
G01 X-58.57258 Y26.77366
G01 X-58.40893 Y27.01872
G01 X-58.37161 Y27.06418
G01 X-58.16369 Y27.27211
G01 X-58.11822 Y27.30942
G01 X-57.87372 Y27.47277
G01 X-57.82186 Y27.50050
G01 X-57.55020 Y27.61303
G01 X-57.49392 Y27.63009
G01 X-57.20552 Y27.68745
G01 X-57.14700 Y27.69321
G01 X-56.85295 Y27.69321
G01 X-56.79443 Y27.68745
G01 X-56.50603 Y27.63009
G01 X-56.44975 Y27.61303
G01 X-56.17809 Y27.50050
G01 X-56.12623 Y27.47277
G01 X-55.88173 Y27.30942
G01 X-55.83626 Y27.27211
G01 X-55.62834 Y27.06418
G01 X-55.59102 Y27.01872
G01 X-55.42768 Y26.77422
G01 X-55.39994 Y26.72235
G01 X-55.28742 Y26.45070
G01 X-55.27035 Y26.39441
G01 X-55.25155 Y26.29995
G01 X-55.33662 Y26.19228
G01 X-55.25155 Y26.29995
G01 X-49.58507 Y26.29995
G01 X-49.37950 Y26.28692
G01 X-49.09111 Y26.22959
G01 X-49.03483 Y26.21252
G01 X-48.76317 Y26.09997
G01 X-48.71131 Y26.07226
G01 X-48.46683 Y25.90891
G01 X-48.31230 Y25.77274
G01 X-47.40222 Y24.86271
G01 X-47.30336 Y24.75362
G01 X-47.26605 Y24.70818
G01 X-47.10267 Y24.46368
G01 X-47.07496 Y24.41181
G01 X-47.04707 Y24.34453
G01 X-47.42835 Y23.95370
G01 X-47.44088 Y23.99500
G01 X-47.51591 Y24.17610
G01 X-47.54362 Y24.22797
G01 X-47.65253 Y24.39098
G01 X-47.68985 Y24.43643
G01 X-47.75576 Y24.50915
G01 X-48.66584 Y25.41920
G01 X-48.78400 Y25.52243
G01 X-48.94699 Y25.63132
G01 X-48.99886 Y25.65905
G01 X-49.17996 Y25.73406
G01 X-49.23625 Y25.75113
G01 X-49.42850 Y25.78938
G01 X-49.58507 Y25.79995
G01 X-55.69999 Y25.79995
G01 X-55.83362 Y25.66071
G01 X-55.69999 Y25.79995
G01 X-55.69999 Y25.90048
G01 X-55.71056 Y26.05702
G01 X-55.74881 Y26.24927
G01 X-55.76588 Y26.30556
G01 X-55.84091 Y26.48666
G01 X-55.86862 Y26.53853
G01 X-55.97754 Y26.70152
G01 X-56.01485 Y26.74699
G01 X-56.15346 Y26.88560
G01 X-56.19892 Y26.92291
G01 X-56.36191 Y27.03182
G01 X-56.41378 Y27.05953
G01 X-56.59488 Y27.13457
G01 X-56.65117 Y27.15163
G01 X-56.84342 Y27.18989
G01 X-56.90197 Y27.19565
G01 X-57.09798 Y27.19565
G01 X-57.15653 Y27.18989
G01 X-57.34878 Y27.15163
G01 X-57.40507 Y27.13457
G01 X-57.58617 Y27.05953
G01 X-57.63804 Y27.03182
G01 X-57.80103 Y26.92291
G01 X-57.84649 Y26.88560
G01 X-57.98510 Y26.74699
G01 X-58.02241 Y26.70152
G01 X-58.13133 Y26.53853
G01 X-58.15904 Y26.48666
G01 X-58.23407 Y26.30556
G01 X-58.25114 Y26.24927
G01 X-58.28939 Y26.05702
G01 X-58.29262 Y26.02408
G04 P0 ( dwell for no time -- G64 should not smooth over this point )
G00 Z1.00000 ( retract )

G00 X-58.75970 Y25.84554 ( rapid move to begin. )
G01 F20.00000
( Mill infeed pass 1/1 )
G01 Z-0.30000
G04 P0 ( dwell for no time -- G64 should not smooth over this point )
G01 F30.00000
G01 X-58.75970 Y25.84554
G01 X-58.86994 Y25.94475
G01 X-58.91220 Y25.97551
G01 X-59.09325 Y26.08001
G01 X-59.14100 Y26.10127
G01 X-59.33984 Y26.16589
G01 X-59.39094 Y26.17676
G01 X-59.54652 Y26.19723
G01 X-59.62498 Y26.19997
G01 X-60.87499 Y26.19997
G01 X-60.95345 Y26.19723
G01 X-61.10902 Y26.17676
G01 X-61.16015 Y26.16589
G01 X-61.34671 Y26.10526
G01 X-61.36866 Y25.91506
G01 X-61.37603 Y25.66121
G01 X-61.36759 Y25.51199
G01 X-61.41385 Y25.47033
G01 X-61.33617 Y25.54028
G01 X-61.29388 Y25.57099
G01 X-61.20336 Y25.62327
G01 X-61.15561 Y25.64453
G01 X-61.05619 Y25.67683
G01 X-60.92728 Y25.69794
G01 X-59.59881 Y25.69931
G01 X-59.49490 Y25.68768
G01 X-59.44377 Y25.67683
G01 X-59.34436 Y25.64453
G01 X-59.29663 Y25.62327
G01 X-59.20610 Y25.57099
G01 X-59.16381 Y25.54028
G01 X-59.08614 Y25.47033
G01 X-59.05116 Y25.43147
G01 X-58.98972 Y25.34694
G01 X-58.96359 Y25.30168
G01 X-58.92107 Y25.20617
G01 X-58.90491 Y25.15646
G01 X-58.88319 Y25.05423
G01 X-58.87773 Y25.00226
G01 X-58.87499 Y24.94999
G01 X-58.87499 Y24.14999
G01 X-58.88319 Y24.04575
G01 X-58.90491 Y23.94351
G01 X-58.92107 Y23.89381
G01 X-58.96359 Y23.79830
G01 X-58.98972 Y23.75304
G01 X-59.05116 Y23.66848
G01 X-59.08614 Y23.62965
G01 X-59.16381 Y23.55969
G01 X-59.20610 Y23.52896
G01 X-59.29663 Y23.47671
G01 X-59.34436 Y23.45545
G01 X-59.44377 Y23.42314
G01 X-59.57268 Y23.40204
G01 X-60.87499 Y23.39998
G01 X-60.92728 Y23.40204
G01 X-61.04410 Y23.42055
G01 X-61.04412 Y22.57938
G01 X-60.92048 Y22.74974
G01 X-58.97537 Y22.74999
G01 X-58.97565 Y22.63727
G01 X-58.99262 Y22.41476
G01 X-59.01441 Y22.28096
G01 X-58.96359 Y22.20168
G01 X-58.92107 Y22.10618
G01 X-58.90491 Y22.05647
G01 X-58.88319 Y21.95424
G01 X-58.87773 Y21.90224
G01 X-58.87527 Y21.85535
G01 X-58.88528 Y21.82891
G01 X-58.87527 Y21.85535
G01 X-58.88319 Y21.95424
G01 X-58.90491 Y22.05647
G01 X-58.92107 Y22.10618
G01 X-58.96359 Y22.20168
G01 X-58.98972 Y22.24695
G01 X-59.05116 Y22.33150
G01 X-59.08614 Y22.37034
G01 X-59.16381 Y22.44029
G01 X-59.20610 Y22.47100
G01 X-59.29663 Y22.52327
G01 X-59.34436 Y22.54453
G01 X-59.44377 Y22.57682
G01 X-59.49490 Y22.58769
G01 X-59.59886 Y22.59861
G01 X-60.90112 Y22.59861
G01 X-61.00509 Y22.58769
G01 X-61.05619 Y22.57682
G01 X-61.15561 Y22.54453
G01 X-61.20336 Y22.52327
G01 X-61.29388 Y22.47100
G01 X-61.33617 Y22.44029
G01 X-61.41385 Y22.37034
G01 X-61.44994 Y22.32995
G01 X-61.46010 Y22.29879
G01 X-61.44994 Y22.32995
G01 X-61.44997 Y23.12756
G01 X-61.44997 Y22.87240
G01 X-61.35733 Y22.99995
G01 X-61.44997 Y23.12756
G01 X-61.44997 Y23.67006
G01 X-61.46013 Y23.70122
G01 X-61.44997 Y23.67006
G01 X-61.41385 Y23.62965
G01 X-61.33617 Y23.55969
G01 X-61.29388 Y23.52896
G01 X-61.20336 Y23.47671
G01 X-61.15561 Y23.45545
G01 X-61.04410 Y23.42055
G01 X-60.92010 Y23.24976
G01 X-58.83173 Y23.24997
G01 X-58.71406 Y23.36526
G01 X-58.55757 Y23.54859
G01 X-58.38988 Y23.78913
G01 X-58.36407 Y23.83145
G01 X-58.39767 Y23.93833
G01 X-58.42940 Y23.78900
G01 X-58.44555 Y23.73930
G01 X-58.48513 Y23.65040
G01 X-58.53346 Y23.57999
G01 X-58.48513 Y23.65040
G01 X-58.44555 Y23.73930
G01 X-58.42940 Y23.78900
G01 X-58.39767 Y23.93833
G01 X-58.48850 Y24.24024
G01 X-58.55106 Y24.53663
G01 X-58.58086 Y24.81461
G01 X-58.59236 Y25.09129
G01 X-58.61423 Y25.29883
G01 X-58.67740 Y25.59495
G01 X-58.74941 Y25.81773
G01 X-58.95170 Y26.36495
G01 X-59.85960 Y28.75968
G01 X-60.05690 Y29.30073
G01 X-60.19030 Y29.69910
G01 X-60.29559 Y29.39842
G01 X-60.37133 Y29.19992
G01 X-60.02083 Y29.19992
G01 X-60.37133 Y29.19992
G01 X-60.64143 Y28.49283
G01 X-60.81740 Y28.05006
G01 X-61.10635 Y27.20812
G01 X-61.13427 Y27.11397
G01 X-61.24562 Y26.65887
G01 X-61.13427 Y27.11397
G01 X-61.11423 Y27.18156
G01 X-61.00580 Y27.19586
G01 X-60.87499 Y27.19995
G01 X-59.52033 Y27.19720
G01 X-59.25424 Y27.16426
G01 X-59.03788 Y26.59062
G01 X-59.23587 Y26.65496
G01 X-59.28700 Y26.66581
G01 X-59.54649 Y26.69791
G01 X-60.87499 Y26.69997
G01 X-60.97963 Y26.69654
G01 X-61.24562 Y26.65887
G01 X-61.29556 Y26.45489
G01 X-61.30996 Y26.37719
G01 X-61.36338 Y25.98217
G01 X-61.36866 Y25.91506
G01 X-61.37603 Y25.66121
G01 X-61.36759 Y25.51199
G01 X-61.41385 Y25.47033
G01 X-61.44882 Y25.43147
G01 X-61.51027 Y25.34694
G01 X-61.53638 Y25.30168
G01 X-61.57890 Y25.20617
G01 X-61.58362 Y25.19167
G01 X-61.58034 Y25.16523
G01 X-61.58311 Y25.18758
G01 X-61.61402 Y25.23386
G01 X-61.68431 Y25.31567
G01 X-62.89431 Y26.52563
G01 X-62.97612 Y26.59591
G01 X-63.05761 Y26.65037
G01 X-63.10947 Y26.67808
G01 X-63.20003 Y26.71559
G01 X-63.25631 Y26.73266
G01 X-63.35245 Y26.75179
G01 X-63.45999 Y26.75997
G01 X-64.73500 Y26.75997
G01 X-64.84252 Y26.75179
G01 X-64.93866 Y26.73266
G01 X-64.99494 Y26.71559
G01 X-65.08549 Y26.67808
G01 X-65.13736 Y26.65037
G01 X-65.21884 Y26.59591
G01 X-65.26431 Y26.55860
G01 X-65.33363 Y26.48928
G01 X-65.37094 Y26.44381
G01 X-65.42540 Y26.36233
G01 X-65.45311 Y26.31044
G01 X-65.49062 Y26.21991
G01 X-65.50769 Y26.16363
G01 X-65.52682 Y26.06746
G01 X-65.53258 Y26.00896
G01 X-65.53258 Y25.91095
G01 X-65.52682 Y25.85240
G01 X-65.50769 Y25.75629
G01 X-65.49062 Y25.70000
G01 X-65.45311 Y25.60945
G01 X-65.42540 Y25.55758
G01 X-65.37094 Y25.47610
G01 X-65.33363 Y25.43063
G01 X-65.26431 Y25.36132
G01 X-65.21884 Y25.32400
G01 X-65.13736 Y25.26955
G01 X-65.08549 Y25.24183
G01 X-64.99494 Y25.20432
G01 X-64.93866 Y25.18725
G01 X-64.84252 Y25.16812
G01 X-64.78400 Y25.16236
G01 X-63.79134 Y25.15994
G01 X-63.04999 Y24.41859
G01 X-63.04999 Y18.96214
G01 X-63.04999 Y19.39933
G01 X-63.08956 Y19.32148
G01 X-63.20221 Y19.12937
G01 X-63.04999 Y18.96214
G01 X-63.04999 Y18.53575
G01 X-63.03983 Y18.51823
G01 X-63.04999 Y18.53575
G01 X-63.07163 Y18.54827
G01 X-63.11936 Y18.56953
G01 X-63.21877 Y18.60182
G01 X-63.26990 Y18.61269
G01 X-63.37303 Y18.62361
G01 X-63.41844 Y18.62369
G01 X-63.55377 Y18.77385
G01 X-63.61745 Y18.83763
G01 X-63.83591 Y18.82569
G01 X-64.24503 Y18.82506
G01 X-64.40487 Y18.81530
G01 X-64.89027 Y18.74703
G01 X-64.87729 Y18.51401
G01 X-64.85009 Y18.24624
G01 X-64.86139 Y18.22666
G01 X-64.83525 Y18.27192
G01 X-64.77381 Y18.35650
G01 X-64.73883 Y18.39534
G01 X-64.66116 Y18.46529
G01 X-64.61887 Y18.49600
G01 X-64.52834 Y18.54827
G01 X-64.48062 Y18.56953
G01 X-64.38120 Y18.60182
G01 X-64.25230 Y18.62292
G01 X-64.19916 Y18.62498
G01 X-63.37303 Y18.62361
G01 X-64.19916 Y18.62498
G01 X-64.25230 Y18.62292
G01 X-64.33007 Y18.61269
G01 X-64.38120 Y18.60182
G01 X-64.48062 Y18.56953
G01 X-64.52834 Y18.54827
G01 X-64.61887 Y18.49600
G01 X-64.66116 Y18.46529
G01 X-64.73883 Y18.39534
G01 X-64.77381 Y18.35650
G01 X-64.83525 Y18.27192
G01 X-64.86139 Y18.22666
G01 X-64.90391 Y18.13118
G01 X-64.92006 Y18.08147
G01 X-64.94178 Y17.97924
G01 X-64.94724 Y17.92724
G01 X-64.94998 Y17.87500
G01 X-64.94998 Y16.62499
G01 X-64.94178 Y16.52074
G01 X-64.92006 Y16.41851
G01 X-64.90391 Y16.36880
G01 X-64.86139 Y16.27330
G01 X-64.83525 Y16.22803
G01 X-64.77381 Y16.14348
G01 X-64.73883 Y16.10464
G01 X-64.66116 Y16.03469
G01 X-64.61887 Y16.00398
G01 X-64.52834 Y15.95171
G01 X-64.48062 Y15.93045
G01 X-64.38120 Y15.89814
G01 X-64.33007 Y15.88729
G01 X-64.22611 Y15.87635
G01 X-63.83081 Y15.87635
G01 X-64.22611 Y15.87635
G01 X-64.33007 Y15.88729
G01 X-64.38120 Y15.89814
G01 X-64.48062 Y15.93045
G01 X-64.52834 Y15.95171
G01 X-64.61887 Y16.00398
G01 X-64.68958 Y16.06029
G01 X-64.59576 Y15.85341
G01 X-64.49479 Y15.67914
G01 X-64.30902 Y15.42082
G01 X-63.96937 Y15.75651
G01 X-63.83081 Y15.87635
G01 X-63.40262 Y15.87635
G01 X-63.38567 Y15.88651
G01 X-63.40262 Y15.87635
G01 X-63.41808 Y15.84754
G01 X-63.45560 Y15.75699
G01 X-63.47267 Y15.70071
G01 X-63.49180 Y15.60457
G01 X-63.49997 Y15.49705
G01 X-63.49997 Y6.53550
G01 X-63.99995 Y7.74169
G01 X-63.99995 Y15.02280
G01 X-63.70460 Y15.31816
G01 X-63.57457 Y15.43964
G01 X-63.49975 Y15.50126
G01 X-63.57457 Y15.43964
G01 X-63.70460 Y15.31816
G01 X-64.07473 Y14.94892
G01 X-64.07473 Y12.51900
G01 X-64.08042 Y12.31770
G01 X-64.11775 Y11.97097
G01 X-64.17676 Y11.67354
G01 X-64.28367 Y11.31346
G01 X-64.34996 Y11.13513
G01 X-64.34996 Y8.58670
G01 X-63.49997 Y6.53550
G01 X-63.49756 Y6.40095
G01 X-63.49180 Y6.34246
G01 X-63.47267 Y6.24632
G01 X-63.45560 Y6.19006
G01 X-63.41808 Y6.09948
G01 X-63.39037 Y6.04761
G01 X-63.33592 Y5.96613
G01 X-63.26566 Y5.88432
G01 X-62.38133 Y4.99999
G01 X-62.35682 Y4.98983
G01 X-62.38133 Y4.99999
G01 X-62.61859 Y4.99999
G01 X-65.69997 Y8.08137
G01 X-65.69997 Y11.63711
G01 X-65.38379 Y11.95332
G01 X-65.31353 Y12.03513
G01 X-65.25908 Y12.11664
G01 X-65.23137 Y12.16850
G01 X-65.19385 Y12.25906
G01 X-65.17678 Y12.31532
G01 X-65.15765 Y12.41146
G01 X-65.14948 Y12.51900
G01 X-65.14948 Y15.86316
G01 X-65.07035 Y15.68427
G01 X-65.03822 Y15.62049
G01 X-64.91760 Y15.41216
G01 X-64.87594 Y15.34871
G01 X-64.71544 Y15.12872
G01 X-64.64948 Y15.04785
G01 X-64.64950 Y12.51900
G01 X-64.66007 Y12.36246
G01 X-64.69832 Y12.17018
G01 X-64.71539 Y12.11392
G01 X-64.79040 Y11.93282
G01 X-64.81813 Y11.88095
G01 X-64.92702 Y11.71796
G01 X-65.03022 Y11.59977
G01 X-65.20000 Y11.43000
G01 X-65.23670 Y11.44491
G01 X-65.20000 Y11.43000
G01 X-65.20000 Y8.28845
G01 X-65.23805 Y8.27270
G01 X-65.20000 Y8.28845
G01 X-64.46187 Y7.55033
G01 X-63.96144 Y6.34284
G01 X-64.83093 Y8.44131
G01 X-64.84516 Y8.48822
G01 X-64.85458 Y8.48634
G01 X-64.84516 Y8.48822
G01 X-64.84996 Y8.53699
G01 X-64.85209 Y11.18171
G01 X-64.84577 Y11.22716
G01 X-64.83436 Y11.27150
G01 X-64.76025 Y11.46475
G01 X-64.66401 Y11.78938
G01 X-64.61191 Y12.05055
G01 X-64.58019 Y12.34844
G01 X-64.57470 Y12.52205
G01 X-64.57470 Y14.96182
G01 X-64.71544 Y15.12872
G01 X-64.87594 Y15.34871
G01 X-64.92486 Y15.42260
G01 X-65.03873 Y15.62024
G01 X-65.14948 Y15.86316
G01 X-65.14948 Y17.66999
G01 X-65.15765 Y17.77751
G01 X-65.17678 Y17.87365
G01 X-65.19385 Y17.92994
G01 X-65.23137 Y18.02049
G01 X-65.25908 Y18.07235
G01 X-65.31353 Y18.15384
G01 X-65.38379 Y18.23568
G01 X-69.43428 Y22.28616
G01 X-69.51612 Y22.35642
G01 X-69.59760 Y22.41088
G01 X-69.64947 Y22.43859
G01 X-69.74002 Y22.47610
G01 X-69.79630 Y22.49317
G01 X-69.89244 Y22.51230
G01 X-69.95096 Y22.51807
G01 X-70.04898 Y22.51807
G01 X-70.10751 Y22.51230
G01 X-70.20364 Y22.49317
G01 X-70.25993 Y22.47610
G01 X-70.35048 Y22.43859
G01 X-70.40235 Y22.41088
G01 X-70.48383 Y22.35642
G01 X-70.52930 Y22.31911
G01 X-70.59861 Y22.24979
G01 X-70.63593 Y22.20432
G01 X-70.69038 Y22.12284
G01 X-70.71810 Y22.07097
G01 X-70.75561 Y21.98042
G01 X-70.77268 Y21.92414
G01 X-70.79181 Y21.82800
G01 X-70.79757 Y21.76948
G01 X-70.79757 Y21.67146
G01 X-70.79181 Y21.61294
G01 X-70.77268 Y21.51680
G01 X-70.75561 Y21.46051
G01 X-70.71810 Y21.36996
G01 X-70.69038 Y21.31809
G01 X-70.63593 Y21.23661
G01 X-70.59861 Y21.19114
G01 X-66.74950 Y17.33860
G01 X-66.74950 Y12.85034
G01 X-67.06568 Y12.53414
G01 X-67.13593 Y12.45232
G01 X-67.19039 Y12.37082
G01 X-67.21810 Y12.31895
G01 X-67.25562 Y12.22840
G01 X-67.27269 Y12.17214
G01 X-67.29181 Y12.07600
G01 X-67.29999 Y11.96848
G01 X-67.29999 Y7.75000
G01 X-67.29181 Y7.64245
G01 X-67.27269 Y7.54631
G01 X-67.25562 Y7.49003
G01 X-67.21810 Y7.39948
G01 X-67.19039 Y7.34761
G01 X-67.13593 Y7.26613
G01 X-67.06568 Y7.18429
G01 X-63.51567 Y3.63428
G01 X-63.43383 Y3.56403
G01 X-63.35235 Y3.50957
G01 X-63.30048 Y3.48186
G01 X-63.20993 Y3.44434
G01 X-63.15365 Y3.42727
G01 X-63.05751 Y3.40815
G01 X-62.94999 Y3.39997
G01 X-49.29998 Y3.39997
G01 X-49.19243 Y3.40815
G01 X-49.09629 Y3.42727
G01 X-49.04001 Y3.44434
G01 X-48.94946 Y3.48186
G01 X-48.89759 Y3.50957
G01 X-48.81611 Y3.56403
G01 X-48.73427 Y3.63428
G01 X-47.13427 Y5.23428
G01 X-47.06402 Y5.31612
G01 X-47.00956 Y5.39760
G01 X-46.98185 Y5.44947
G01 X-46.94433 Y5.54002
G01 X-46.92726 Y5.59631
G01 X-46.90814 Y5.69244
G01 X-46.89996 Y5.79999
G01 X-46.89996 Y17.62742
G01 X-45.53633 Y18.99448
G01 X-45.49902 Y19.03994
G01 X-45.44456 Y19.12142
G01 X-45.41685 Y19.17329
G01 X-45.37934 Y19.26384
G01 X-45.36227 Y19.32013
G01 X-45.34314 Y19.41627
G01 X-45.33496 Y19.52381
G01 X-45.33496 Y22.34999
G01 X-45.34314 Y22.45751
G01 X-45.36227 Y22.55365
G01 X-45.37934 Y22.60994
G01 X-45.41685 Y22.70049
G01 X-45.44456 Y22.75235
G01 X-45.49902 Y22.83384
G01 X-45.53633 Y22.87930
G01 X-45.60565 Y22.94862
G01 X-45.65112 Y22.98593
G01 X-45.73260 Y23.04039
G01 X-45.78447 Y23.06810
G01 X-45.87502 Y23.10562
G01 X-45.93130 Y23.12269
G01 X-46.02744 Y23.14181
G01 X-46.08596 Y23.14758
G01 X-46.18398 Y23.14758
G01 X-46.24250 Y23.14181
G01 X-46.33864 Y23.12269
G01 X-46.39493 Y23.10562
G01 X-46.48548 Y23.06810
G01 X-46.51997 Y23.04966
G01 X-47.87496 Y23.46152
G01 X-47.73783 Y23.62924
G01 X-47.67704 Y23.69716
G01 X-46.97628 Y24.41633
G01 X-46.31012 Y25.78611
G01 X-45.82140 Y26.78064
G01 X-45.08327 Y28.20142
G01 X-44.14804 Y29.82516
G01 X-43.38251 Y31.08023
G01 X-48.09807 Y29.58335
G01 X-47.34621 Y29.82168
G01 X-46.87766 Y29.62763
G01 X-46.82579 Y29.59989
G01 X-45.92935 Y29.00093
G01 X-45.88388 Y28.96362
G01 X-45.48398 Y28.60116
G01 X-45.08358 Y28.20078
G01 X-45.82140 Y26.78064
G01 X-45.32533 Y27.73545
G01 X-45.83750 Y28.24762
G01 X-46.20108 Y28.57711
G01 X-46.24654 Y28.61442
G01 X-47.06148 Y29.15895
G01 X-47.11334 Y29.18666
G01 X-48.01888 Y29.56174
G01 X-48.07516 Y29.57881
G01 X-48.09807 Y29.58335
G01 X-49.51666 Y29.13266
G01 X-50.09004 Y28.96941
G01 X-50.57610 Y28.85862
G01 X-51.07440 Y28.77332
G01 X-51.92017 Y28.68922
G01 X-52.39057 Y28.67668
G01 X-52.61541 Y28.67660
G01 X-52.85031 Y28.62641
G01 X-53.28186 Y28.54625
G01 X-53.70716 Y28.49060
G01 X-53.83185 Y28.47749
G01 X-53.88404 Y28.47749
G01 X-53.88511 Y28.46639
G01 X-53.88404 Y28.47749
G01 X-53.93512 Y28.48834
G01 X-54.95729 Y28.81826
G01 X-55.65468 Y29.03360
G01 X-56.48485 Y29.27817
G01 X-57.47829 Y29.55455
G01 X-58.41456 Y29.80146
G01 X-59.81555 Y30.15475
G01 X-59.70918 Y29.83697
G01 X-59.39434 Y30.04731
G01 X-59.70918 Y29.83697
G01 X-59.58528 Y29.46674
G01 X-59.36643 Y28.86911
G01 X-59.54326 Y29.34940
G01 X-59.05221 Y29.67754
G01 X-59.00034 Y29.70525
G01 X-58.63232 Y29.85767
G01 X-57.71170 Y29.61610
G01 X-58.07448 Y29.54393
G01 X-58.13074 Y29.52686
G01 X-58.76463 Y29.26431
G01 X-58.81649 Y29.23657
G01 X-59.36643 Y28.86911
G01 X-58.48330 Y26.53982
G01 X-58.27964 Y25.98898
G01 X-58.19551 Y25.73066
G01 X-58.12655 Y25.42304
G01 X-58.11769 Y25.35773
G01 X-58.09341 Y25.12403
G01 X-58.08269 Y24.85763
G01 X-58.05653 Y24.61633
G01 X-58.00405 Y24.36581
G01 X-57.90885 Y24.04994
G01 X-57.88843 Y24.04994
G01 X-57.91797 Y24.07950
G01 X-57.88843 Y24.04994
G01 X-57.18183 Y24.05045
G01 X-57.06567 Y23.93427
G01 X-56.98383 Y23.86401
G01 X-56.91396 Y23.81733
G01 X-56.89806 Y23.81885
G01 X-56.91396 Y23.81733
G01 X-58.87547 Y21.85482
G01 X-58.51865 Y22.21268
G01 X-58.49602 Y22.35629
G01 X-58.47580 Y22.60542
G01 X-58.47410 Y22.70260
G01 X-58.47878 Y22.89569
G01 X-58.33745 Y23.03511
G01 X-58.17306 Y23.22891
G01 X-58.12503 Y23.29155
G01 X-57.95005 Y23.54997
G01 X-57.88845 Y23.54997
G01 X-58.07718 Y23.36122
G01 X-57.88845 Y23.54997
G01 X-57.18096 Y23.55035
G01 X-56.91396 Y23.81733
G01 X-56.98383 Y23.86401
G01 X-57.06567 Y23.93427
G01 X-57.56567 Y24.43427
G01 X-57.63593 Y24.51611
G01 X-57.69038 Y24.59759
G01 X-57.71810 Y24.64946
G01 X-57.75561 Y24.74001
G01 X-57.77268 Y24.79629
G01 X-57.79181 Y24.89243
G01 X-57.79757 Y24.95095
G01 X-57.79999 Y25.90048
G01 X-57.79181 Y26.00800
G01 X-57.77268 Y26.10414
G01 X-57.75561 Y26.16043
G01 X-57.71810 Y26.25098
G01 X-57.69038 Y26.30282
G01 X-57.63593 Y26.38433
G01 X-57.59861 Y26.42979
G01 X-57.52930 Y26.49911
G01 X-57.48383 Y26.53640
G01 X-57.40235 Y26.59088
G01 X-57.35048 Y26.61859
G01 X-57.25993 Y26.65611
G01 X-57.20364 Y26.67317
G01 X-57.10751 Y26.69230
G01 X-57.04898 Y26.69807
G01 X-56.95097 Y26.69807
G01 X-56.89244 Y26.69230
G01 X-56.79630 Y26.67317
G01 X-56.74002 Y26.65611
G01 X-56.64947 Y26.61859
G01 X-56.59760 Y26.59088
G01 X-56.51612 Y26.53640
G01 X-56.47065 Y26.49911
G01 X-56.40133 Y26.42979
G01 X-56.36402 Y26.38433
G01 X-56.30956 Y26.30282
G01 X-56.28185 Y26.25098
G01 X-56.24434 Y26.16043
G01 X-56.22727 Y26.10414
G01 X-56.20814 Y26.00800
G01 X-56.19996 Y25.90048
G01 X-56.19996 Y25.33134
G01 X-56.16859 Y25.29997
G01 X-49.58507 Y25.29997
G01 X-49.47752 Y25.29180
G01 X-49.38138 Y25.27267
G01 X-49.32512 Y25.25560
G01 X-49.23455 Y25.21809
G01 X-49.18268 Y25.19037
G01 X-49.10120 Y25.13592
G01 X-49.01938 Y25.06566
G01 X-48.10930 Y24.15560
G01 X-48.03902 Y24.07379
G01 X-47.98456 Y23.99228
G01 X-47.95685 Y23.94041
G01 X-47.91934 Y23.84986
G01 X-47.90227 Y23.79358
G01 X-47.88314 Y23.69744
G01 X-47.87737 Y23.63892
G01 X-47.87491 Y22.99523
G01 X-47.88510 Y22.97587
G01 X-47.87491 Y22.99523
G01 X-47.80735 Y23.04039
G01 X-47.75548 Y23.06810
G01 X-47.66493 Y23.10562
G01 X-47.60864 Y23.12269
G01 X-47.51250 Y23.14181
G01 X-47.45398 Y23.14758
G01 X-47.35596 Y23.14758
G01 X-47.29744 Y23.14181
G01 X-47.20130 Y23.12269
G01 X-47.14502 Y23.10562
G01 X-47.05447 Y23.06810
G01 X-47.01995 Y23.04966
G01 X-47.05447 Y23.06810
G01 X-47.14502 Y23.10562
G01 X-47.20130 Y23.12269
G01 X-47.29744 Y23.14181
G01 X-47.35596 Y23.14758
G01 X-47.45398 Y23.14758
G01 X-47.51250 Y23.14181
G01 X-47.48779 Y23.14425
G01 X-47.35568 Y23.30676
G01 X-47.30778 Y23.35964
G01 X-47.01995 Y23.65632
G01 X-47.01995 Y23.59017
G01 X-47.07092 Y23.60407
G01 X-47.01995 Y23.59017
G01 X-47.01995 Y23.04966
G01 X-46.92112 Y22.98593
G01 X-46.87565 Y22.94862
G01 X-46.80633 Y22.87930
G01 X-46.76996 Y22.83498
G01 X-46.76996 Y22.81705
G01 X-46.76996 Y22.83498
G01 X-46.73361 Y22.87930
G01 X-46.66430 Y22.94862
G01 X-46.61883 Y22.98593
G01 X-46.51997 Y23.04966
G01 X-46.51997 Y24.21125
G01 X-45.82782 Y25.63419
G01 X-46.06798 Y25.13790
G01 X-45.88993 Y25.13790
G01 X-45.83140 Y25.13213
G01 X-45.35073 Y25.03653
G01 X-45.29447 Y25.01946
G01 X-44.84169 Y24.83190
G01 X-44.78983 Y24.80419
G01 X-44.38233 Y24.53190
G01 X-44.33689 Y24.49462
G01 X-43.99034 Y24.14806
G01 X-43.95305 Y24.10262
G01 X-43.68076 Y23.69513
G01 X-43.65305 Y23.64326
G01 X-43.46550 Y23.19048
G01 X-43.44843 Y23.13422
G01 X-43.35282 Y22.65355
G01 X-43.34706 Y22.59503
G01 X-43.33502 Y22.34999
G01 X-43.33502 Y19.52381
G01 X-43.35282 Y19.22023
G01 X-43.44843 Y18.73956
G01 X-43.46550 Y18.68330
G01 X-43.65305 Y18.23052
G01 X-43.68076 Y18.17865
G01 X-43.95305 Y17.77116
G01 X-44.15511 Y17.54393
G01 X-44.90001 Y16.79903
G01 X-44.93720 Y16.81422
G01 X-44.90001 Y16.79903
G01 X-44.90001 Y5.79999
G01 X-44.91782 Y5.49641
G01 X-45.01342 Y5.01574
G01 X-45.03049 Y4.95948
G01 X-45.21805 Y4.50670
G01 X-45.24576 Y4.45483
G01 X-45.51804 Y4.04734
G01 X-45.72010 Y3.82011
G01 X-47.32010 Y2.22011
G01 X-47.54733 Y2.01806
G01 X-47.95482 Y1.74577
G01 X-48.00669 Y1.71806
G01 X-48.45947 Y1.53050
G01 X-48.51573 Y1.51343
G01 X-48.99640 Y1.41783
G01 X-49.29998 Y1.40002
G01 X-62.94999 Y1.40002
G01 X-63.19502 Y1.41206
G01 X-63.25354 Y1.41783
G01 X-63.73421 Y1.51343
G01 X-63.79047 Y1.53050
G01 X-64.24325 Y1.71806
G01 X-64.29512 Y1.74577
G01 X-64.70261 Y2.01806
G01 X-64.74805 Y2.05534
G01 X-64.92984 Y2.22011
G01 X-68.47985 Y5.77012
G01 X-68.64462 Y5.95191
G01 X-68.68190 Y5.99735
G01 X-68.95419 Y6.40484
G01 X-68.98190 Y6.45671
G01 X-69.16946 Y6.90949
G01 X-69.18653 Y6.96575
G01 X-69.28213 Y7.44642
G01 X-69.28790 Y7.50494
G01 X-69.29994 Y7.75000
G01 X-69.29994 Y8.44291
G01 X-69.41998 Y8.26961
G01 X-69.79994 Y7.80852
G01 X-69.78548 Y7.45594
G01 X-69.77972 Y7.39742
G01 X-69.66499 Y6.82061
G01 X-69.64792 Y6.76435
G01 X-69.42285 Y6.22102
G01 X-69.39514 Y6.16915
G01 X-69.06842 Y5.68018
G01 X-68.83339 Y5.41658
G01 X-65.28338 Y1.86657
G01 X-65.01978 Y1.63154
G01 X-64.53081 Y1.30482
G01 X-64.47894 Y1.27711
G01 X-63.93561 Y1.05204
G01 X-63.87935 Y1.03497
G01 X-63.30254 Y0.92024
G01 X-62.94999 Y0.90002
G01 X-49.29998 Y0.90002
G01 X-48.94740 Y0.92024
G01 X-48.37059 Y1.03497
G01 X-48.31433 Y1.05204
G01 X-47.77100 Y1.27711
G01 X-47.71913 Y1.30482
G01 X-47.23016 Y1.63154
G01 X-47.18469 Y1.66886
G01 X-46.96656 Y1.86657
G01 X-45.36656 Y3.46657
G01 X-45.16885 Y3.68470
G01 X-45.13153 Y3.73017
G01 X-44.80481 Y4.21914
G01 X-44.77710 Y4.27101
G01 X-44.55203 Y4.81434
G01 X-44.53496 Y4.87060
G01 X-44.42023 Y5.44741
G01 X-44.40001 Y5.79999
G01 X-44.40001 Y16.59191
G01 X-44.43809 Y16.60769
G01 X-44.40001 Y16.59191
G01 X-43.80156 Y17.19039
G01 X-43.60385 Y17.40852
G01 X-43.56654 Y17.45399
G01 X-43.23982 Y17.94297
G01 X-43.21211 Y17.99483
G01 X-42.98704 Y18.53816
G01 X-42.96997 Y18.59443
G01 X-42.85524 Y19.17123
G01 X-42.84947 Y19.22976
G01 X-42.83502 Y19.52381
G01 X-42.83502 Y22.34999
G01 X-42.84947 Y22.64402
G01 X-42.85524 Y22.70255
G01 X-42.96997 Y23.27935
G01 X-42.98704 Y23.33562
G01 X-43.21211 Y23.87895
G01 X-43.23982 Y23.93081
G01 X-43.56654 Y24.41979
G01 X-43.60385 Y24.46525
G01 X-44.01970 Y24.88110
G01 X-44.06516 Y24.91842
G01 X-44.55414 Y25.24514
G01 X-44.60601 Y25.27285
G01 X-45.14934 Y25.49792
G01 X-45.20560 Y25.51499
G01 X-45.78241 Y25.62972
G01 X-45.82782 Y25.63419
G01 X-45.37613 Y26.55316
G01 X-44.65455 Y27.94201
G01 X-44.89346 Y27.48222
G01 X-44.62506 Y27.42882
G01 X-44.56877 Y27.41176
G01 X-43.66324 Y27.03667
G01 X-43.61137 Y27.00894
G01 X-42.79641 Y26.46439
G01 X-42.75094 Y26.42710
G01 X-42.05785 Y25.73401
G01 X-42.02057 Y25.68854
G01 X-41.47602 Y24.87358
G01 X-41.44828 Y24.82172
G01 X-41.07320 Y23.91618
G01 X-41.05613 Y23.85990
G01 X-40.86492 Y22.89858
G01 X-40.85915 Y22.84006
G01 X-40.83507 Y22.34999
G01 X-40.83507 Y19.52381
G01 X-40.85915 Y19.03372
G01 X-40.86492 Y18.97520
G01 X-41.05613 Y18.01388
G01 X-41.07320 Y17.95760
G01 X-41.44828 Y17.05206
G01 X-41.47602 Y17.00019
G01 X-42.02057 Y16.18524
G01 X-42.05785 Y16.13977
G01 X-42.40007 Y15.76352
G01 X-42.43327 Y15.77624
G01 X-42.40007 Y15.76352
G01 X-42.40007 Y5.79999
G01 X-42.42415 Y5.30990
G01 X-42.42991 Y5.25137
G01 X-42.62112 Y4.29006
G01 X-42.63819 Y4.23377
G01 X-43.01327 Y3.32824
G01 X-43.04101 Y3.27637
G01 X-43.58556 Y2.46141
G01 X-43.62285 Y2.41595
G01 X-43.95236 Y2.05237
G01 X-45.55236 Y0.45237
G01 X-45.91594 Y0.12286
G01 X-45.96140 Y0.08557
G01 X-46.08947 Y0.00000
G01 X-45.30788 Y0.00000
G01 X-45.19882 Y0.09883
G01 X-43.59882 Y1.69883
G01 X-43.23636 Y2.09875
G01 X-43.19905 Y2.14422
G01 X-42.60007 Y3.04068
G01 X-42.57233 Y3.09255
G01 X-42.15973 Y4.08864
G01 X-42.14266 Y4.14492
G01 X-41.93233 Y5.20238
G01 X-41.92656 Y5.26090
G01 X-41.90007 Y5.79999
G01 X-41.90007 Y15.57023
G01 X-41.93294 Y15.58277
G01 X-41.90007 Y15.57023
G01 X-41.63405 Y15.86804
G01 X-41.03507 Y16.76451
G01 X-41.00733 Y16.81637
G01 X-40.59474 Y17.81246
G01 X-40.57767 Y17.86875
G01 X-40.36733 Y18.92620
G01 X-40.36157 Y18.98472
G01 X-40.33507 Y19.52381
G01 X-40.33507 Y22.34999
G01 X-40.36157 Y22.88906
G01 X-40.36733 Y22.94758
G01 X-40.57767 Y24.00503
G01 X-40.59474 Y24.06132
G01 X-41.00733 Y25.05740
G01 X-41.03507 Y25.10927
G01 X-41.63405 Y26.00574
G01 X-41.67137 Y26.05121
G01 X-42.43375 Y26.81359
G01 X-42.47921 Y26.85090
G01 X-43.37568 Y27.44988
G01 X-43.42755 Y27.47762
G01 X-44.42363 Y27.89022
G01 X-44.47992 Y27.90728
G01 X-44.65455 Y27.94201
G01 X-43.71812 Y29.56989
G01 X-43.01213 Y30.72905
G01 X-42.63337 Y31.33814
G01 X-42.51231 Y31.40715
G01 X-41.54200 Y31.00522
G01 X-41.49014 Y30.97748
G01 X-39.94170 Y29.94287
G01 X-39.89624 Y29.90555
G01 X-38.57940 Y28.58872
G01 X-38.54209 Y28.54325
G01 X-37.50747 Y26.99482
G01 X-37.47973 Y26.94295
G01 X-36.76706 Y25.22243
G01 X-36.74999 Y25.16614
G01 X-36.38667 Y23.33965
G01 X-36.38093 Y23.28113
G01 X-36.33518 Y22.34999
G01 X-36.33518 Y19.52381
G01 X-36.38093 Y18.59265
G01 X-36.38667 Y18.53413
G01 X-36.74999 Y16.70764
G01 X-36.76706 Y16.65135
G01 X-37.47973 Y14.93083
G01 X-37.50747 Y14.87896
G01 X-37.90018 Y14.29121
G01 X-37.92116 Y14.29751
G01 X-37.90018 Y14.29121
G01 X-37.90018 Y5.79999
G01 X-37.94592 Y4.86882
G01 X-37.95166 Y4.81030
G01 X-38.31499 Y2.98381
G01 X-38.33205 Y2.92753
G01 X-39.04473 Y1.20701
G01 X-39.07246 Y1.15514
G01 X-39.84429 Y0.00000
G01 X-41.09469 Y0.00000
G01 X-40.44272 Y0.00000
G01 X-39.51341 Y1.39083
G01 X-39.48567 Y1.44269
G01 X-38.81051 Y3.07266
G01 X-38.79345 Y3.12895
G01 X-38.44925 Y4.85932
G01 X-38.44348 Y4.91785
G01 X-38.40015 Y5.79999
G01 X-38.40015 Y14.43855
G01 X-38.42121 Y14.44485
G01 X-38.40015 Y14.43855
G01 X-37.94841 Y15.11465
G01 X-37.92068 Y15.16652
G01 X-37.24552 Y16.79649
G01 X-37.22845 Y16.85277
G01 X-36.88425 Y18.58315
G01 X-36.87849 Y18.64167
G01 X-36.83516 Y19.52381
G01 X-36.83516 Y22.34999
G01 X-36.87849 Y23.23211
G01 X-36.88425 Y23.29063
G01 X-37.22845 Y25.02101
G01 X-37.24552 Y25.07729
G01 X-37.92068 Y26.70726
G01 X-37.94841 Y26.75913
G01 X-38.92857 Y28.22608
G01 X-38.96589 Y28.27152
G01 X-40.21343 Y29.51907
G01 X-40.25887 Y29.55638
G01 X-41.72582 Y30.53654
G01 X-41.77769 Y30.56428
G01 X-42.84076 Y31.00461
G01 X-43.10576 Y30.57581
G01 X-42.01338 Y30.12331
G01 X-41.96151 Y30.09560
G01 X-40.57607 Y29.16987
G01 X-40.53060 Y29.13256
G01 X-39.35240 Y27.95435
G01 X-39.31509 Y27.90889
G01 X-38.38936 Y26.52344
G01 X-38.36165 Y26.47155
G01 X-37.72398 Y24.93216
G01 X-37.70691 Y24.87587
G01 X-37.38184 Y23.24163
G01 X-37.37607 Y23.18311
G01 X-37.33516 Y22.34999
G01 X-37.33516 Y19.52381
G01 X-37.37607 Y18.69067
G01 X-37.38184 Y18.63214
G01 X-37.70691 Y16.99791
G01 X-37.72398 Y16.94162
G01 X-38.36165 Y15.40220
G01 X-38.38936 Y15.35034
G01 X-38.90015 Y14.58590
G01 X-38.92126 Y14.59222
G01 X-38.90015 Y14.58590
G01 X-38.90015 Y5.79999
G01 X-38.94107 Y4.96684
G01 X-38.94684 Y4.90832
G01 X-39.27191 Y3.27403
G01 X-39.28897 Y3.21775
G01 X-39.92664 Y1.67838
G01 X-39.95435 Y1.62646
G01 X-40.88008 Y0.24107
G01 X-41.09469 Y0.00000
G01 X-42.46931 Y0.00000
G01 X-41.76867 Y0.00000
G01 X-41.30388 Y0.51280
G01 X-41.26657 Y0.55827
G01 X-40.39530 Y1.86220
G01 X-40.36758 Y1.91407
G01 X-39.76743 Y3.36293
G01 X-39.75036 Y3.41922
G01 X-39.44442 Y4.95732
G01 X-39.43866 Y5.01586
G01 X-39.40012 Y5.79999
G01 X-39.40012 Y14.73322
G01 X-39.42128 Y14.73957
G01 X-39.40012 Y14.73322
G01 X-38.83030 Y15.58602
G01 X-38.80259 Y15.63789
G01 X-38.20244 Y17.08676
G01 X-38.18537 Y17.14304
G01 X-37.87943 Y18.68114
G01 X-37.87366 Y18.73969
G01 X-37.83513 Y19.52381
G01 X-37.83513 Y22.34999
G01 X-37.87366 Y23.13409
G01 X-37.87943 Y23.19264
G01 X-38.18537 Y24.73074
G01 X-38.20244 Y24.78702
G01 X-38.80259 Y26.23589
G01 X-38.83030 Y26.28776
G01 X-39.70157 Y27.59169
G01 X-39.73888 Y27.63716
G01 X-40.84780 Y28.74607
G01 X-40.89326 Y28.78338
G01 X-42.19720 Y29.65465
G01 X-42.24906 Y29.68236
G01 X-43.36839 Y30.14602
G01 X-43.63049 Y29.71599
G01 X-42.48478 Y29.24142
G01 X-42.43291 Y29.21368
G01 X-41.21046 Y28.39687
G01 X-41.16499 Y28.35958
G01 X-40.12537 Y27.31996
G01 X-40.08808 Y27.27449
G01 X-39.27127 Y26.05204
G01 X-39.24353 Y26.00015
G01 X-38.68090 Y24.64189
G01 X-38.66383 Y24.58560
G01 X-38.37701 Y23.14362
G01 X-38.37125 Y23.08509
G01 X-38.33513 Y22.34999
G01 X-38.33513 Y19.52381
G01 X-38.37125 Y18.78868
G01 X-38.37701 Y18.73016
G01 X-38.66383 Y17.28818
G01 X-38.68090 Y17.23189
G01 X-39.24353 Y15.87360
G01 X-39.27127 Y15.82174
G01 X-39.90012 Y14.88056
G01 X-39.92131 Y14.88694
G01 X-39.90012 Y14.88056
G01 X-39.90012 Y5.79999
G01 X-39.93624 Y5.06486
G01 X-39.94201 Y5.00634
G01 X-40.22882 Y3.56436
G01 X-40.24589 Y3.50807
G01 X-40.80853 Y2.14978
G01 X-40.83627 Y2.09791
G01 X-41.65308 Y0.87546
G01 X-41.69037 Y0.82995
G01 X-42.18465 Y0.28466
G01 X-42.46931 Y0.00000
G01 X-43.17639 Y0.00000
G04 P0 ( dwell for no time -- G64 should not smooth over this point )
G00 Z1.00000 ( retract )

G00 X-55.80299 Y11.58748 ( rapid move to begin. )
G01 F20.00000
( Mill infeed pass 1/1 )
G01 Z-0.30000
G04 P0 ( dwell for no time -- G64 should not smooth over this point )
G01 F30.00000
G01 X-55.80299 Y11.58748
G01 X-55.44693 Y11.58745
G01 X-55.41726 Y11.57729
G01 X-55.44693 Y11.58745
G01 X-55.51797 Y11.65144
G01 X-55.55120 Y11.68832
G01 X-55.61264 Y11.77290
G01 X-55.62498 Y11.79426
G01 X-55.62498 Y11.81458
G01 X-55.62498 Y11.79426
G01 X-55.63733 Y11.77290
G01 X-55.69877 Y11.68832
G01 X-55.73199 Y11.65144
G01 X-55.80299 Y11.58748
G01 X-55.83265 Y11.57732
G04 P0 ( dwell for no time -- G64 should not smooth over this point )
G00 Z1.00000 ( retract )

G00 X-60.18032 Y8.97369 ( rapid move to begin. )
G01 F20.00000
( Mill infeed pass 1/1 )
G01 Z-0.30000
G04 P0 ( dwell for no time -- G64 should not smooth over this point )
G01 F30.00000
G01 X-60.18032 Y8.97369
G01 X-59.79363 Y8.97466
G01 X-59.78037 Y8.96455
G01 X-59.80333 Y8.98208
G01 X-59.81791 Y9.06003
G01 X-59.82805 Y9.16945
G01 X-59.82805 Y9.26170
G01 X-59.81108 Y9.35241
G01 X-59.78101 Y9.45810
G01 X-59.74768 Y9.54413
G01 X-59.72266 Y9.58451
G01 X-59.69973 Y9.59889
G01 X-59.71593 Y9.58873
G01 X-59.99790 Y9.58880
G01 X-60.08700 Y9.55985
G01 X-60.20232 Y9.53534
G01 X-60.23681 Y9.49884
G01 X-60.43739 Y9.47275
G01 X-60.61563 Y9.44461
G01 X-60.91095 Y9.38213
G01 X-61.16457 Y9.31398
G01 X-61.29853 Y9.54014
G01 X-61.39909 Y9.73750
G01 X-61.44433 Y9.83877
G01 X-61.29388 Y9.72944
G01 X-61.20336 Y9.67720
G01 X-61.01237 Y9.59216
G01 X-60.91296 Y9.55985
G01 X-60.70846 Y9.51639
G01 X-60.60453 Y9.50547
G01 X-60.39546 Y9.50547
G01 X-60.29150 Y9.51639
G01 X-60.20232 Y9.53534
G01 X-60.29150 Y9.51639
G01 X-60.39546 Y9.50547
G01 X-60.60453 Y9.50547
G01 X-60.70846 Y9.51639
G01 X-60.91296 Y9.55985
G01 X-61.01237 Y9.59216
G01 X-61.20336 Y9.67720
G01 X-61.29388 Y9.72944
G01 X-61.46302 Y9.85233
G01 X-61.54069 Y9.92228
G01 X-61.68057 Y10.07763
G01 X-61.74202 Y10.16221
G01 X-61.84654 Y10.34326
G01 X-61.88906 Y10.43874
G01 X-61.89993 Y10.47222
G01 X-61.91009 Y10.53635
G01 X-61.89993 Y10.47222
G01 X-61.89995 Y6.78134
G01 X-61.31860 Y6.19999
G01 X-60.71248 Y6.19999
G01 X-60.71248 Y7.27306
G01 X-60.78764 Y7.37288
G01 X-60.81248 Y7.41589
G01 X-60.85497 Y7.51139
G01 X-60.87034 Y7.55861
G01 X-60.89205 Y7.66084
G01 X-60.89998 Y7.76249
G01 X-60.89998 Y8.23750
G01 X-60.89205 Y8.33912
G01 X-60.87034 Y8.44139
G01 X-60.85497 Y8.48860
G01 X-60.81248 Y8.58408
G01 X-60.78764 Y8.62708
G01 X-60.72619 Y8.71164
G01 X-60.69297 Y8.74855
G01 X-60.61530 Y8.81850
G01 X-60.57514 Y8.84768
G01 X-60.48461 Y8.89993
G01 X-60.43925 Y8.92012
G01 X-60.33983 Y8.95243
G01 X-60.29127 Y8.96277
G01 X-60.18032 Y8.97369
G01 X-60.20598 Y8.99889
G01 X-60.51794 Y8.95370
G01 X-60.79198 Y8.89648
G01 X-61.20872 Y8.78352
G01 X-61.26053 Y8.77504
G01 X-61.31296 Y8.77758
G01 X-61.36371 Y8.79099
G01 X-61.36564 Y8.78502
G01 X-61.36371 Y8.79099
G01 X-61.41055 Y8.81471
G01 X-61.43714 Y8.83620
G01 X-61.45352 Y9.30895
G01 X-61.43714 Y8.83620
G01 X-61.45139 Y8.84771
G01 X-61.48443 Y8.88848
G01 X-61.48728 Y8.88609
G01 X-61.48443 Y8.88848
G01 X-61.62154 Y9.09922
G01 X-61.74097 Y9.30712
G01 X-61.84750 Y9.51619
G01 X-61.89995 Y9.63285
G01 X-61.84750 Y9.51619
G01 X-61.74097 Y9.30712
G01 X-61.62109 Y9.09950
G01 X-61.48443 Y8.88848
G01 X-61.45139 Y8.84771
G01 X-61.43714 Y8.83620
G01 X-61.39998 Y7.76247
G01 X-61.38931 Y7.60857
G01 X-61.34585 Y7.40410
G01 X-61.33051 Y7.35688
G01 X-61.24547 Y7.16590
G01 X-61.21245 Y7.11162
G01 X-61.20105 Y7.11411
G01 X-61.21245 Y7.11162
G01 X-61.21245 Y6.80093
G01 X-60.96353 Y6.19999
G01 X-61.31860 Y6.19999
G01 X-61.46541 Y6.34680
G01 X-61.39449 Y8.34202
G01 X-61.38931 Y8.39140
G01 X-61.34585 Y8.59587
G01 X-61.33051 Y8.64311
G01 X-61.27151 Y8.77555
G01 X-61.31296 Y8.77758
G01 X-61.36371 Y8.79099
G01 X-61.39998 Y8.80936
G01 X-61.39998 Y8.23752
G01 X-61.40818 Y7.99998
G01 X-61.39998 Y7.76247
G01 X-61.39998 Y6.98845
G01 X-61.43803 Y6.97268
G01 X-61.39998 Y6.98845
G01 X-61.21245 Y6.80093
G04 P0 ( dwell for no time -- G64 should not smooth over this point )
G00 Z1.00000 ( retract )

G00 X-63.77714 Y0.00000 ( rapid move to begin. )
G01 F20.00000
( Mill infeed pass 1/1 )
G01 Z-0.30000
G04 P0 ( dwell for no time -- G64 should not smooth over this point )
G01 F30.00000
G01 X-63.77714 Y0.00000
G01 X-64.16962 Y0.07805
G01 X-64.22591 Y0.09512
G01 X-64.95034 Y0.39520
G01 X-65.00221 Y0.42291
G01 X-65.65417 Y0.85855
G01 X-65.69964 Y0.89586
G01 X-65.99047 Y1.15948
G01 X-69.54048 Y4.70949
G01 X-69.80410 Y5.00032
G01 X-69.84141 Y5.04579
G01 X-70.27705 Y5.69775
G01 X-70.30476 Y5.74962
G01 X-70.60484 Y6.47405
G01 X-70.62191 Y6.53034
G01 X-70.68144 Y6.82970
G01 X-70.26430 Y7.28315
G01 X-70.14345 Y6.67548
G01 X-70.12638 Y6.61921
G01 X-69.86382 Y5.98533
G01 X-69.83608 Y5.93347
G01 X-69.45490 Y5.36298
G01 X-69.18693 Y5.06303
G01 X-65.63693 Y1.51303
G01 X-65.33698 Y1.24506
G01 X-64.76649 Y0.86388
G01 X-64.71463 Y0.83614
G01 X-64.08075 Y0.57358
G01 X-64.02448 Y0.55651
G01 X-63.35156 Y0.42266
G01 X-62.94999 Y0.40005
G01 X-49.29998 Y0.40005
G01 X-48.89838 Y0.42266
G01 X-48.22546 Y0.55651
G01 X-48.16919 Y0.57358
G01 X-47.53531 Y0.83614
G01 X-47.48345 Y0.86388
G01 X-46.91296 Y1.24506
G01 X-46.61301 Y1.51303
G01 X-45.01302 Y3.11302
G01 X-44.74505 Y3.41297
G01 X-44.36387 Y3.98346
G01 X-44.33613 Y4.03532
G01 X-44.07357 Y4.66921
G01 X-44.05650 Y4.72547
G01 X-43.92265 Y5.39839
G01 X-43.91688 Y5.45691
G01 X-43.90004 Y5.79999
G01 X-43.90004 Y16.38483
G01 X-43.93809 Y16.40058
G01 X-43.90004 Y16.38483
G01 X-43.44802 Y16.83685
G01 X-43.18005 Y17.13680
G01 X-42.79887 Y17.70728
G01 X-42.77114 Y17.75915
G01 X-42.50858 Y18.39303
G01 X-42.49151 Y18.44929
G01 X-42.35765 Y19.12221
G01 X-42.33504 Y19.52381
G01 X-42.33504 Y22.34999
G01 X-42.35765 Y22.75157
G01 X-42.49151 Y23.42449
G01 X-42.50858 Y23.48075
G01 X-42.77114 Y24.11463
G01 X-42.79887 Y24.16650
G01 X-43.18005 Y24.73698
G01 X-43.21736 Y24.78245
G01 X-43.70250 Y25.26759
G01 X-43.74797 Y25.30490
G01 X-44.31845 Y25.68608
G01 X-44.37032 Y25.71379
G01 X-45.00420 Y25.97635
G01 X-45.06046 Y25.99342
G01 X-45.59750 Y26.10023
G01 X-45.37123 Y26.56258
G01 X-44.91533 Y26.47188
G01 X-44.85904 Y26.45481
G01 X-44.13461 Y26.15474
G01 X-44.08274 Y26.12705
G01 X-43.43077 Y25.69141
G01 X-43.38531 Y25.65408
G01 X-42.83085 Y25.09964
G01 X-42.79354 Y25.05418
G01 X-42.35790 Y24.40221
G01 X-42.33019 Y24.35035
G01 X-42.03012 Y23.62591
G01 X-42.01305 Y23.56963
G01 X-41.86006 Y22.80056
G01 X-41.85432 Y22.74204
G01 X-41.83504 Y22.34999
G01 X-41.83504 Y19.52381
G01 X-41.86006 Y19.07322
G01 X-42.01305 Y18.30415
G01 X-42.03012 Y18.24787
G01 X-42.33019 Y17.52343
G01 X-42.35790 Y17.47157
G01 X-42.79354 Y16.81960
G01 X-43.09448 Y16.48330
G01 X-43.40004 Y16.17772
G01 X-43.43811 Y16.19349
G01 X-43.40004 Y16.17772
G01 X-43.40004 Y5.79999
G01 X-43.42506 Y5.34939
G01 X-43.57804 Y4.58033
G01 X-43.59511 Y4.52404
G01 X-43.89519 Y3.79961
G01 X-43.92290 Y3.74774
G01 X-44.35853 Y3.09578
G01 X-44.65947 Y2.75948
G01 X-46.25947 Y1.15948
G01 X-46.59577 Y0.85855
G01 X-47.24773 Y0.42291
G01 X-47.29960 Y0.39520
G01 X-48.02403 Y0.09512
G01 X-48.08032 Y0.07805
G01 X-48.47280 Y0.00000
G01 X-46.98510 Y0.00000
G01 X-46.27857 Y0.47206
G01 X-45.90590 Y0.80592
G01 X-44.30591 Y2.40591
G01 X-43.97205 Y2.77858
G01 X-43.48196 Y3.51206
G01 X-43.45424 Y3.56392
G01 X-43.11665 Y4.37891
G01 X-43.09958 Y4.43520
G01 X-42.92750 Y5.30037
G01 X-42.92173 Y5.35892
G01 X-42.90007 Y5.79999
G01 X-42.90007 Y15.97061
G01 X-42.93459 Y15.98414
G01 X-42.90007 Y15.97061
G01 X-42.74091 Y16.12974
G01 X-42.40705 Y16.50241
G01 X-41.91696 Y17.23588
G01 X-41.88925 Y17.28775
G01 X-41.55166 Y18.10273
G01 X-41.53459 Y18.15902
G01 X-41.36250 Y19.02419
G01 X-41.35674 Y19.08274
G01 X-41.33507 Y19.52381
G01 X-41.33507 Y22.34999
G01 X-41.35674 Y22.79104
G01 X-41.36250 Y22.84959
G01 X-41.53459 Y23.71476
G01 X-41.55166 Y23.77105
G01 X-41.88925 Y24.58603
G01 X-41.91696 Y24.63790
G01 X-42.40705 Y25.37137
G01 X-42.44437 Y25.41679
G01 X-43.06814 Y26.04059
G01 X-43.11358 Y26.07790
G01 X-43.84705 Y26.56799
G01 X-43.89892 Y26.59570
G01 X-44.71391 Y26.93330
G01 X-44.77019 Y26.95037
G01 X-45.13235 Y27.02240
G01 X-44.64207 Y27.96609
G01 X-44.39356 Y28.39740
G01 X-44.33479 Y28.38574
G01 X-44.27850 Y28.36868
G01 X-43.19184 Y27.91856
G01 X-43.13997 Y27.89085
G01 X-42.16202 Y27.23739
G01 X-42.11655 Y27.20007
G01 X-41.28488 Y26.36840
G01 X-41.24757 Y26.32291
G01 X-40.59410 Y25.34498
G01 X-40.56639 Y25.29312
G01 X-40.11628 Y24.20645
G01 X-40.09921 Y24.15017
G01 X-39.86974 Y22.99660
G01 X-39.86398 Y22.93808
G01 X-39.83510 Y22.34999
G01 X-39.83510 Y19.52381
G01 X-39.86398 Y18.93570
G01 X-39.86974 Y18.87718
G01 X-40.09921 Y17.72361
G01 X-40.11628 Y17.66733
G01 X-40.56639 Y16.58066
G01 X-40.59410 Y16.52880
G01 X-41.24757 Y15.55085
G01 X-41.40010 Y15.37825
G01 X-41.43248 Y15.39052
G01 X-41.40010 Y15.37825
G01 X-41.40010 Y5.79999
G01 X-41.42897 Y5.21188
G01 X-41.43474 Y5.15336
G01 X-41.66420 Y3.99979
G01 X-41.68127 Y3.94350
G01 X-42.13139 Y2.85684
G01 X-42.15910 Y2.80497
G01 X-42.81256 Y1.82702
G01 X-42.84988 Y1.78156
G01 X-43.24528 Y1.34529
G01 X-44.59059 Y0.00000
G01 X-43.88350 Y0.00000
G01 X-42.89174 Y0.99174
G01 X-42.46336 Y1.46436
G01 X-42.42605 Y1.50983
G01 X-41.71815 Y2.56929
G01 X-41.69044 Y2.62115
G01 X-41.20281 Y3.79837
G01 X-41.18574 Y3.85463
G01 X-40.93715 Y5.10436
G01 X-40.93139 Y5.16288
G01 X-40.90010 Y5.79999
G01 X-40.90010 Y15.18628
G01 X-40.92166 Y15.19283
G01 X-40.90010 Y15.18628
G01 X-40.86106 Y15.23365
G01 X-40.15316 Y16.29311
G01 X-40.12545 Y16.34498
G01 X-39.63782 Y17.52219
G01 X-39.62075 Y17.57845
G01 X-39.37216 Y18.82818
G01 X-39.36639 Y18.88670
G01 X-39.33510 Y19.52381
G01 X-39.33510 Y22.34999
G01 X-39.36639 Y22.98708
G01 X-39.37216 Y23.04560
G01 X-39.62075 Y24.29533
G01 X-39.63782 Y24.35159
G01 X-40.12545 Y25.52880
G01 X-40.15316 Y25.58064
G01 X-40.86106 Y26.64013
G01 X-40.89837 Y26.68560
G01 X-41.79936 Y27.58658
G01 X-41.84482 Y27.62390
G01 X-42.90428 Y28.33179
G01 X-42.95615 Y28.35951
G01 X-44.13433 Y28.84742
G01 X-43.88378 Y29.28234
G01 X-42.72046 Y28.80048
G01 X-42.66860 Y28.77274
G01 X-41.52763 Y28.01038
G01 X-41.48219 Y27.97307
G01 X-40.51188 Y27.00277
G01 X-40.47457 Y26.95732
G01 X-39.71221 Y25.81636
G01 X-39.68448 Y25.76449
G01 X-39.15936 Y24.49673
G01 X-39.14229 Y24.44046
G01 X-38.87460 Y23.09462
G01 X-38.86883 Y23.03610
G01 X-38.83513 Y22.34999
G01 X-38.83513 Y19.52381
G01 X-38.86883 Y18.83768
G01 X-38.87460 Y18.77916
G01 X-39.14229 Y17.43332
G01 X-39.15936 Y17.37705
G01 X-39.68448 Y16.10929
G01 X-39.71221 Y16.05742
G01 X-40.40012 Y15.02791
G01 X-40.42133 Y15.03429
G01 X-40.40012 Y15.02791
G01 X-40.40012 Y5.79999
G01 X-40.43383 Y5.11386
G01 X-40.43959 Y5.05534
G01 X-40.70728 Y3.70949
G01 X-40.72435 Y3.65323
G01 X-41.24947 Y2.38547
G01 X-41.27721 Y2.33360
G01 X-42.03957 Y1.19263
G01 X-42.07688 Y1.14719
G01 X-42.53819 Y0.63820
G01 X-43.17639 Y0.00000
G01 X-72.60900 Y0.00000
G01 X-73.42950 Y0.82045
G01 X-74.05555 Y1.51125
G01 X-74.09287 Y1.55672
G01 X-74.69060 Y2.45130
G01 X-73.65111 Y3.58244
G01 X-73.99762 Y3.20540
G01 X-73.31987 Y2.19108
G01 X-73.28256 Y2.14561
G01 X-72.72238 Y1.52758
G01 X-71.19480 Y0.00000
G01 X-70.48772 Y0.00000
G01 X-72.36884 Y1.88112
G01 X-72.89607 Y2.46281
G01 X-72.93338 Y2.50828
G01 X-73.65111 Y3.58244
G01 X-69.93115 Y7.64990
G01 X-69.42041 Y8.26994
G01 X-69.37002 Y8.33841
G01 X-69.02196 Y8.85718
G01 X-68.98127 Y8.92668
G01 X-68.74152 Y9.37374
G01 X-68.70802 Y9.44382
G01 X-68.53631 Y9.85650
G01 X-68.50695 Y9.93846
G01 X-68.39425 Y10.30910
G01 X-68.37619 Y10.37991
G01 X-68.29997 Y10.76541
G01 X-68.29997 Y7.75000
G01 X-68.29273 Y7.60296
G01 X-68.28696 Y7.54443
G01 X-68.22961 Y7.25604
G01 X-68.21254 Y7.19976
G01 X-68.10002 Y6.92810
G01 X-68.07228 Y6.87624
G01 X-67.90893 Y6.63174
G01 X-67.77276 Y6.47720
G01 X-64.22276 Y2.92720
G01 X-64.06822 Y2.79103
G01 X-63.82372 Y2.62768
G01 X-63.77186 Y2.59994
G01 X-63.50020 Y2.48742
G01 X-63.44392 Y2.47035
G01 X-63.15553 Y2.41300
G01 X-62.94999 Y2.40000
G01 X-49.29998 Y2.40000
G01 X-49.09442 Y2.41300
G01 X-48.80602 Y2.47035
G01 X-48.74974 Y2.48742
G01 X-48.47808 Y2.59994
G01 X-48.42622 Y2.62768
G01 X-48.18172 Y2.79103
G01 X-48.02718 Y2.92720
G01 X-46.42719 Y4.52719
G01 X-46.32833 Y4.63626
G01 X-46.29102 Y4.68173
G01 X-46.12767 Y4.92623
G01 X-46.09993 Y4.97810
G01 X-45.98741 Y5.24975
G01 X-45.97034 Y5.30603
G01 X-45.91299 Y5.59443
G01 X-45.89998 Y5.79999
G01 X-45.89998 Y17.21322
G01 X-45.93763 Y17.22872
G01 X-45.89998 Y17.21322
G01 X-44.86219 Y18.25102
G01 X-44.72602 Y18.40555
G01 X-44.56267 Y18.65005
G01 X-44.53494 Y18.70192
G01 X-44.42242 Y18.97357
G01 X-44.40535 Y19.02986
G01 X-44.34799 Y19.31825
G01 X-44.33499 Y19.52381
G01 X-44.33499 Y22.34999
G01 X-44.34223 Y22.49701
G01 X-44.34799 Y22.55553
G01 X-44.40535 Y22.84392
G01 X-44.42242 Y22.90021
G01 X-44.53494 Y23.17186
G01 X-44.56267 Y23.22373
G01 X-44.72602 Y23.46823
G01 X-44.76333 Y23.51369
G01 X-44.97126 Y23.72162
G01 X-45.01672 Y23.75893
G01 X-45.26123 Y23.92228
G01 X-45.31309 Y23.95002
G01 X-45.58474 Y24.06254
G01 X-45.64103 Y24.07961
G01 X-45.92942 Y24.13696
G01 X-45.98794 Y24.14273
G01 X-46.28200 Y24.14273
G01 X-46.34052 Y24.13696
G01 X-46.51997 Y24.10127
G01 X-46.51997 Y23.59017
G01 X-46.48378 Y23.60115
G01 X-46.29153 Y23.63940
G01 X-46.23298 Y23.64516
G01 X-46.03697 Y23.64516
G01 X-45.97842 Y23.63940
G01 X-45.78617 Y23.60115
G01 X-45.72988 Y23.58408
G01 X-45.54878 Y23.50905
G01 X-45.49691 Y23.48133
G01 X-45.33392 Y23.37242
G01 X-45.28845 Y23.33511
G01 X-45.14985 Y23.19650
G01 X-45.11253 Y23.15103
G01 X-45.00362 Y22.98804
G01 X-44.97591 Y22.93617
G01 X-44.90088 Y22.75507
G01 X-44.88381 Y22.69879
G01 X-44.84555 Y22.50653
G01 X-44.83499 Y22.34999
G01 X-44.83499 Y19.52381
G01 X-44.83979 Y19.42579
G01 X-44.84555 Y19.36725
G01 X-44.88381 Y19.17499
G01 X-44.90088 Y19.11871
G01 X-44.97591 Y18.93760
G01 X-45.00362 Y18.88574
G01 X-45.11253 Y18.72275
G01 X-45.21573 Y18.60456
G01 X-46.39998 Y17.42034
G01 X-46.43778 Y17.43593
G01 X-46.39998 Y17.42034
G01 X-46.39998 Y5.79999
G01 X-46.41055 Y5.64342
G01 X-46.44880 Y5.45117
G01 X-46.46587 Y5.39488
G01 X-46.54090 Y5.21378
G01 X-46.56861 Y5.16191
G01 X-46.67753 Y4.99892
G01 X-46.71484 Y4.95346
G01 X-46.78073 Y4.88074
G01 X-48.38073 Y3.28074
G01 X-48.45345 Y3.21483
G01 X-48.49891 Y3.17749
G01 X-48.66190 Y3.06862
G01 X-48.71377 Y3.04091
G01 X-48.89487 Y2.96588
G01 X-48.95116 Y2.94881
G01 X-49.14341 Y2.91056
G01 X-49.29998 Y2.89999
G01 X-62.94999 Y2.89999
G01 X-63.10653 Y2.91056
G01 X-63.29878 Y2.94881
G01 X-63.35507 Y2.96588
G01 X-63.53617 Y3.04091
G01 X-63.58804 Y3.06862
G01 X-63.75103 Y3.17749
G01 X-63.86921 Y3.28074
G01 X-67.41922 Y6.83075
G01 X-67.52242 Y6.94893
G01 X-67.63134 Y7.11192
G01 X-67.65905 Y7.16379
G01 X-67.73408 Y7.34489
G01 X-67.75115 Y7.40118
G01 X-67.78940 Y7.59343
G01 X-67.79997 Y7.75000
G01 X-67.79997 Y11.96848
G01 X-67.79517 Y12.06647
G01 X-67.78940 Y12.12499
G01 X-67.75115 Y12.31727
G01 X-67.73408 Y12.37353
G01 X-67.65907 Y12.55464
G01 X-67.63134 Y12.60650
G01 X-67.52245 Y12.76947
G01 X-67.41925 Y12.88768
G01 X-67.24947 Y13.05745
G01 X-67.21277 Y13.04254
G01 X-67.24947 Y13.05745
G01 X-67.24947 Y17.13151
G01 X-67.21142 Y17.14726
G01 X-67.24947 Y17.13151
G01 X-70.91921 Y20.80123
G01 X-71.02241 Y20.91941
G01 X-71.13133 Y21.08241
G01 X-71.15904 Y21.13427
G01 X-71.23407 Y21.31538
G01 X-71.25114 Y21.37166
