( pcb2gcode 2.2.2 )
( Gcode for custom )

G94 ( Inches per minute feed rate. )
G20 ( Units == INCHES. )

G90 ( Absolute coordinates. )
G00 S12000 ( RPM spindle speed. )
G64 P0.00040 ( set maximum deviation from commanded toolpath )
G01 F360.00000 ( Feedrate. )

#107 = #5211
#108 = #5212

(MSG, Attach the probe tool)
M0 ( Temporary machine stop. )
G0 Z0.080 ( Move Z to safe height )
G0 X-10.95295 Y-3.35492 ( Move XY to start point )
G0 Z0.080 ( Move Z to probe height )
G38.2 Z-0.1 F2.362205 ( Z-probe )
#500 = 0 ( Probe point [0, 0] is our reference )
G92 Z0 ( Set the current Z as zero-value )

( We now start the real probing: move the Z axis to the probing height, move to )
( the probing XY position, probe it and save the result, parameter #2002, )
( in a numbered parameter; we will make 17 probes on the X-axis and )
( 6 probes on the Y-axis, for a grand total of 102 probes )

G0 Z0.080
X-10.95295 Y-2.97650
G38.2 Z-0.1 F2.362205
#501=#2002
G0 Z0.080
X-10.95295 Y-2.59807
G38.2 Z-0.1 F2.362205
#502=#2002
G0 Z0.080
X-10.95295 Y-2.21965
G38.2 Z-0.1 F2.362205
#503=#2002
G0 Z0.080
X-10.95295 Y-1.84123
G38.2 Z-0.1 F2.362205
#504=#2002
G0 Z0.080
X-10.95295 Y-1.46280
G38.2 Z-0.1 F2.362205
#505=#2002
G0 Z0.080
X-10.56921 Y-1.46280
G38.2 Z-0.1 F2.362205
#511=#2002
G0 Z0.080
X-10.56921 Y-1.84123
G38.2 Z-0.1 F2.362205
#510=#2002
G0 Z0.080
X-10.56921 Y-2.21965
G38.2 Z-0.1 F2.362205
#509=#2002
G0 Z0.080
X-10.56921 Y-2.59807
G38.2 Z-0.1 F2.362205
#508=#2002
G0 Z0.080
X-10.56921 Y-2.97650
G38.2 Z-0.1 F2.362205
#507=#2002
G0 Z0.080
X-10.56921 Y-3.35492
G38.2 Z-0.1 F2.362205
#506=#2002
G0 Z0.080
X-10.18546 Y-3.35492
G38.2 Z-0.1 F2.362205
#512=#2002
G0 Z0.080
X-10.18546 Y-2.97650
G38.2 Z-0.1 F2.362205
#513=#2002
G0 Z0.080
X-10.18546 Y-2.59807
G38.2 Z-0.1 F2.362205
#514=#2002
G0 Z0.080
X-10.18546 Y-2.21965
G38.2 Z-0.1 F2.362205
#515=#2002
G0 Z0.080
X-10.18546 Y-1.84123
G38.2 Z-0.1 F2.362205
#516=#2002
G0 Z0.080
X-10.18546 Y-1.46280
G38.2 Z-0.1 F2.362205
#517=#2002
G0 Z0.080
X-9.80171 Y-1.46280
G38.2 Z-0.1 F2.362205
#523=#2002
G0 Z0.080
X-9.80171 Y-1.84123
G38.2 Z-0.1 F2.362205
#522=#2002
G0 Z0.080
X-9.80171 Y-2.21965
G38.2 Z-0.1 F2.362205
#521=#2002
G0 Z0.080
X-9.80171 Y-2.59807
G38.2 Z-0.1 F2.362205
#520=#2002
G0 Z0.080
X-9.80171 Y-2.97650
G38.2 Z-0.1 F2.362205
#519=#2002
G0 Z0.080
X-9.80171 Y-3.35492
G38.2 Z-0.1 F2.362205
#518=#2002
G0 Z0.080
X-9.41797 Y-3.35492
G38.2 Z-0.1 F2.362205
#524=#2002
G0 Z0.080
X-9.41797 Y-2.97650
G38.2 Z-0.1 F2.362205
#525=#2002
G0 Z0.080
X-9.41797 Y-2.59807
G38.2 Z-0.1 F2.362205
#526=#2002
G0 Z0.080
X-9.41797 Y-2.21965
G38.2 Z-0.1 F2.362205
#527=#2002
G0 Z0.080
X-9.41797 Y-1.84123
G38.2 Z-0.1 F2.362205
#528=#2002
G0 Z0.080
X-9.41797 Y-1.46280
G38.2 Z-0.1 F2.362205
#529=#2002
G0 Z0.080
X-9.03422 Y-1.46280
G38.2 Z-0.1 F2.362205
#535=#2002
G0 Z0.080
X-9.03422 Y-1.84123
G38.2 Z-0.1 F2.362205
#534=#2002
G0 Z0.080
X-9.03422 Y-2.21965
G38.2 Z-0.1 F2.362205
#533=#2002
G0 Z0.080
X-9.03422 Y-2.59807
G38.2 Z-0.1 F2.362205
#532=#2002
G0 Z0.080
X-9.03422 Y-2.97650
G38.2 Z-0.1 F2.362205
#531=#2002
G0 Z0.080
X-9.03422 Y-3.35492
G38.2 Z-0.1 F2.362205
#530=#2002
G0 Z0.080
X-8.65047 Y-3.35492
G38.2 Z-0.1 F2.362205
#536=#2002
G0 Z0.080
X-8.65047 Y-2.97650
G38.2 Z-0.1 F2.362205
#537=#2002
G0 Z0.080
X-8.65047 Y-2.59807
G38.2 Z-0.1 F2.362205
#538=#2002
G0 Z0.080
X-8.65047 Y-2.21965
G38.2 Z-0.1 F2.362205
#539=#2002
G0 Z0.080
X-8.65047 Y-1.84123
G38.2 Z-0.1 F2.362205
#540=#2002
G0 Z0.080
X-8.65047 Y-1.46280
G38.2 Z-0.1 F2.362205
#541=#2002
G0 Z0.080
X-8.26673 Y-1.46280
G38.2 Z-0.1 F2.362205
#547=#2002
G0 Z0.080
X-8.26673 Y-1.84123
G38.2 Z-0.1 F2.362205
#546=#2002
G0 Z0.080
X-8.26673 Y-2.21965
G38.2 Z-0.1 F2.362205
#545=#2002
G0 Z0.080
X-8.26673 Y-2.59807
G38.2 Z-0.1 F2.362205
#544=#2002
G0 Z0.080
X-8.26673 Y-2.97650
G38.2 Z-0.1 F2.362205
#543=#2002
G0 Z0.080
X-8.26673 Y-3.35492
G38.2 Z-0.1 F2.362205
#542=#2002
G0 Z0.080
X-7.88298 Y-3.35492
G38.2 Z-0.1 F2.362205
#548=#2002
G0 Z0.080
X-7.88298 Y-2.97650
G38.2 Z-0.1 F2.362205
#549=#2002
G0 Z0.080
X-7.88298 Y-2.59807
G38.2 Z-0.1 F2.362205
#550=#2002
G0 Z0.080
X-7.88298 Y-2.21965
G38.2 Z-0.1 F2.362205
#551=#2002
G0 Z0.080
X-7.88298 Y-1.84123
G38.2 Z-0.1 F2.362205
#552=#2002
G0 Z0.080
X-7.88298 Y-1.46280
G38.2 Z-0.1 F2.362205
#553=#2002
G0 Z0.080
X-7.49923 Y-1.46280
G38.2 Z-0.1 F2.362205
#559=#2002
G0 Z0.080
X-7.49923 Y-1.84123
G38.2 Z-0.1 F2.362205
#558=#2002
G0 Z0.080
X-7.49923 Y-2.21965
G38.2 Z-0.1 F2.362205
#557=#2002
G0 Z0.080
X-7.49923 Y-2.59807
G38.2 Z-0.1 F2.362205
#556=#2002
G0 Z0.080
X-7.49923 Y-2.97650
G38.2 Z-0.1 F2.362205
#555=#2002
G0 Z0.080
X-7.49923 Y-3.35492
G38.2 Z-0.1 F2.362205
#554=#2002
G0 Z0.080
X-7.11549 Y-3.35492
G38.2 Z-0.1 F2.362205
#560=#2002
G0 Z0.080
X-7.11549 Y-2.97650
G38.2 Z-0.1 F2.362205
#561=#2002
G0 Z0.080
X-7.11549 Y-2.59807
G38.2 Z-0.1 F2.362205
#562=#2002
G0 Z0.080
X-7.11549 Y-2.21965
G38.2 Z-0.1 F2.362205
#563=#2002
G0 Z0.080
X-7.11549 Y-1.84123
G38.2 Z-0.1 F2.362205
#564=#2002
G0 Z0.080
X-7.11549 Y-1.46280
G38.2 Z-0.1 F2.362205
#565=#2002
G0 Z0.080
X-6.73174 Y-1.46280
G38.2 Z-0.1 F2.362205
#571=#2002
G0 Z0.080
X-6.73174 Y-1.84123
G38.2 Z-0.1 F2.362205
#570=#2002
G0 Z0.080
X-6.73174 Y-2.21965
G38.2 Z-0.1 F2.362205
#569=#2002
G0 Z0.080
X-6.73174 Y-2.59807
G38.2 Z-0.1 F2.362205
#568=#2002
G0 Z0.080
X-6.73174 Y-2.97650
G38.2 Z-0.1 F2.362205
#567=#2002
G0 Z0.080
X-6.73174 Y-3.35492
G38.2 Z-0.1 F2.362205
#566=#2002
G0 Z0.080
X-6.34800 Y-3.35492
G38.2 Z-0.1 F2.362205
#572=#2002
G0 Z0.080
X-6.34800 Y-2.97650
G38.2 Z-0.1 F2.362205
#573=#2002
G0 Z0.080
X-6.34800 Y-2.59807
G38.2 Z-0.1 F2.362205
#574=#2002
G0 Z0.080
X-6.34800 Y-2.21965
G38.2 Z-0.1 F2.362205
#575=#2002
G0 Z0.080
X-6.34800 Y-1.84123
G38.2 Z-0.1 F2.362205
#576=#2002
G0 Z0.080
X-6.34800 Y-1.46280
G38.2 Z-0.1 F2.362205
#577=#2002
G0 Z0.080
X-5.96425 Y-1.46280
G38.2 Z-0.1 F2.362205
#583=#2002
G0 Z0.080
X-5.96425 Y-1.84123
G38.2 Z-0.1 F2.362205
#582=#2002
G0 Z0.080
X-5.96425 Y-2.21965
G38.2 Z-0.1 F2.362205
#581=#2002
G0 Z0.080
X-5.96425 Y-2.59807
G38.2 Z-0.1 F2.362205
#580=#2002
G0 Z0.080
X-5.96425 Y-2.97650
G38.2 Z-0.1 F2.362205
#579=#2002
G0 Z0.080
X-5.96425 Y-3.35492
G38.2 Z-0.1 F2.362205
#578=#2002
G0 Z0.080
X-5.58050 Y-3.35492
G38.2 Z-0.1 F2.362205
#584=#2002
G0 Z0.080
X-5.58050 Y-2.97650
G38.2 Z-0.1 F2.362205
#585=#2002
G0 Z0.080
X-5.58050 Y-2.59807
G38.2 Z-0.1 F2.362205
#586=#2002
G0 Z0.080
X-5.58050 Y-2.21965
G38.2 Z-0.1 F2.362205
#587=#2002
G0 Z0.080
X-5.58050 Y-1.84123
G38.2 Z-0.1 F2.362205
#588=#2002
G0 Z0.080
X-5.58050 Y-1.46280
G38.2 Z-0.1 F2.362205
#589=#2002
G0 Z0.080
X-5.19676 Y-1.46280
G38.2 Z-0.1 F2.362205
#595=#2002
G0 Z0.080
X-5.19676 Y-1.84123
G38.2 Z-0.1 F2.362205
#594=#2002
G0 Z0.080
X-5.19676 Y-2.21965
G38.2 Z-0.1 F2.362205
#593=#2002
G0 Z0.080
X-5.19676 Y-2.59807
G38.2 Z-0.1 F2.362205
#592=#2002
G0 Z0.080
X-5.19676 Y-2.97650
G38.2 Z-0.1 F2.362205
#591=#2002
G0 Z0.080
X-5.19676 Y-3.35492
G38.2 Z-0.1 F2.362205
#590=#2002
G0 Z0.080
X-4.81301 Y-3.35492
G38.2 Z-0.1 F2.362205
#596=#2002
G0 Z0.080
X-4.81301 Y-2.97650
G38.2 Z-0.1 F2.362205
#597=#2002
G0 Z0.080
X-4.81301 Y-2.59807
G38.2 Z-0.1 F2.362205
#598=#2002
G0 Z0.080
X-4.81301 Y-2.21965
G38.2 Z-0.1 F2.362205
#599=#2002
G0 Z0.080
X-4.81301 Y-1.84123
G38.2 Z-0.1 F2.362205
#600=#2002
G0 Z0.080
X-4.81301 Y-1.46280
G38.2 Z-0.1 F2.362205
#601=#2002

G0 Z0.080 ( Move Z to safe height )
( Probing has ended, each Z-coordinate will be corrected with a bilinear interpolation )
(MSG, Detach the probe tool)
M0 ( Temporary machine stop. )


G00 Z1.00000 (Retract to tool change height)
T0
M5      (Spindle stop.)
G04 P1.00000 (Wait for spindle to stop)
(MSG, Change tool bit to mill diameter 0.00000in)
M6      (Tool change.)
M0      (Temporary machine stop.)
M3 ( Spindle on clockwise. )
G04 P1.00000 (Wait for spindle to get up to speed)
( Piece #1, position [0;0] )

G04 P0 ( dwell for no time -- G64 should not smooth over this point )
G00 Z0.08000 ( retract )

G00 X-9.16104 Y-2.94286 ( rapid move to begin. )
G01 F180.00000
( Mill infeed pass 1/1 )
#105=[#525+[#526-#525]*0.08889]
#106=[#531+[#532-#531]*0.08889]
#100=[#105+[#106-#105]*0.66952]
G01 Z[-0.04000+#100]
G04 P0 ( dwell for no time -- G64 should not smooth over this point )
G01 F360.00000
#105=[#525+[#526-#525]*0.06859]
#106=[#531+[#532-#531]*0.06859]
#100=[#105+[#106-#105]*0.66754]
X-9.16180 Y-2.95054 Z[#100+-0.04000]
#105=[#525+[#526-#525]*0.04906]
#106=[#531+[#532-#531]*0.04906]
#100=[#105+[#106-#105]*0.66170]
X-9.16404 Y-2.95793 Z[#100+-0.04000]
#105=[#525+[#526-#525]*0.03109]
#106=[#531+[#532-#531]*0.03109]
#100=[#105+[#106-#105]*0.65221]
X-9.16768 Y-2.96473 Z[#100+-0.04000]
#105=[#525+[#526-#525]*0.01532]
#106=[#531+[#532-#531]*0.01532]
#100=[#105+[#106-#105]*0.63947]
X-9.17257 Y-2.97070 Z[#100+-0.04000]
#105=[#525+[#526-#525]*0.00000]
#106=[#531+[#532-#531]*0.00000]
#100=[#105+[#106-#105]*0.62436]
X-9.17837 Y-2.97650 Z[#100+-0.04000]
#105=[#524+[#525-#524]*0.70162]
#106=[#530+[#531-#530]*0.70162]
#100=[#105+[#106-#105]*0.33010]
X-9.29129 Y-3.08941 Z[#100+-0.04000]
#105=[#524+[#525-#524]*0.27046]
#106=[#530+[#531-#530]*0.27046]
#100=[#105+[#106-#105]*0.64901]
X-9.16891 Y-3.25257 Z[#100+-0.04000]
#105=[#524+[#525-#524]*0.25302]
#106=[#530+[#531-#530]*0.25302]
#100=[#105+[#106-#105]*0.65943]
X-9.16491 Y-3.25917 Z[#100+-0.04000]
#105=[#524+[#525-#524]*0.23387]
#106=[#530+[#531-#530]*0.23387]
#100=[#105+[#106-#105]*0.66631]
X-9.16227 Y-3.26642 Z[#100+-0.04000]
#105=[#524+[#525-#524]*0.21370]
#106=[#530+[#531-#530]*0.21370]
#100=[#105+[#106-#105]*0.66936]
X-9.16110 Y-3.27405 Z[#100+-0.04000]
#105=[#524+[#525-#524]*0.19333]
#106=[#530+[#531-#530]*0.19333]
#100=[#105+[#106-#105]*0.66847]
X-9.16144 Y-3.28176 Z[#100+-0.04000]
#105=[#524+[#525-#524]*0.17354]
#106=[#530+[#531-#530]*0.17354]
#100=[#105+[#106-#105]*0.66371]
X-9.16327 Y-3.28925 Z[#100+-0.04000]
#105=[#524+[#525-#524]*0.15504]
#106=[#530+[#531-#530]*0.15504]
#100=[#105+[#106-#105]*0.65521]
X-9.16653 Y-3.29625 Z[#100+-0.04000]
#105=[#524+[#525-#524]*0.13860]
#106=[#530+[#531-#530]*0.13860]
#100=[#105+[#106-#105]*0.64330]
X-9.17110 Y-3.30247 Z[#100+-0.04000]
#105=[#524+[#525-#524]*0.12481]
#106=[#530+[#531-#530]*0.12481]
#100=[#105+[#106-#105]*0.62847]
X-9.17679 Y-3.30769 Z[#100+-0.04000]
#105=[#524+[#525-#524]*0.11424]
#106=[#530+[#531-#530]*0.11424]
#100=[#105+[#106-#105]*0.61128]
X-9.18339 Y-3.31169 Z[#100+-0.04000]
#105=[#524+[#525-#524]*0.10726]
#106=[#530+[#531-#530]*0.10726]
#100=[#105+[#106-#105]*0.59238]
X-9.19064 Y-3.31433 Z[#100+-0.04000]
#105=[#524+[#525-#524]*0.10417]
#106=[#530+[#531-#530]*0.10417]
#100=[#105+[#106-#105]*0.57250]
X-9.19827 Y-3.31550 Z[#100+-0.04000]
#105=[#524+[#525-#524]*0.10507]
#106=[#530+[#531-#530]*0.10507]
#100=[#105+[#106-#105]*0.55241]
X-9.20598 Y-3.31516 Z[#100+-0.04000]
#105=[#524+[#525-#524]*0.10990]
#106=[#530+[#531-#530]*0.10990]
#100=[#105+[#106-#105]*0.53289]
X-9.21347 Y-3.31333 Z[#100+-0.04000]
#105=[#524+[#525-#524]*0.11852]
#106=[#530+[#531-#530]*0.11852]
#100=[#105+[#106-#105]*0.51465]
X-9.22047 Y-3.31007 Z[#100+-0.04000]
#105=[#524+[#525-#524]*0.13059]
#106=[#530+[#531-#530]*0.13059]
#100=[#105+[#106-#105]*0.49844]
X-9.22669 Y-3.30550 Z[#100+-0.04000]
#105=[#524+[#525-#524]*0.14563]
#106=[#530+[#531-#530]*0.14563]
#100=[#105+[#106-#105]*0.48484]
X-9.23191 Y-3.29981 Z[#100+-0.04000]
#105=[#524+[#525-#524]*0.55301]
#106=[#530+[#531-#530]*0.55301]
#100=[#105+[#106-#105]*0.18354]
X-9.34753 Y-3.14565 Z[#100+-0.04000]
#105=[#524+[#525-#524]*0.54246]
#106=[#530+[#531-#530]*0.54246]
#100=[#105+[#106-#105]*0.17315]
X-9.35152 Y-3.14964 Z[#100+-0.04000]
#105=[#524+[#525-#524]*0.20805]
#106=[#530+[#531-#530]*0.20805]
#100=[#105+[#106-#105]*0.17315]
X-9.35152 Y-3.27619 Z[#100+-0.04000]
#105=[#524+[#525-#524]*0.18775]
#106=[#530+[#531-#530]*0.18775]
#100=[#105+[#106-#105]*0.17117]
X-9.35228 Y-3.28387 Z[#100+-0.04000]
#105=[#524+[#525-#524]*0.16822]
#106=[#530+[#531-#530]*0.16822]
#100=[#105+[#106-#105]*0.16533]
X-9.35452 Y-3.29126 Z[#100+-0.04000]
#105=[#524+[#525-#524]*0.15026]
#106=[#530+[#531-#530]*0.15026]
#100=[#105+[#106-#105]*0.15587]
X-9.35815 Y-3.29806 Z[#100+-0.04000]
#105=[#524+[#525-#524]*0.13448]
#106=[#530+[#531-#530]*0.13448]
#100=[#105+[#106-#105]*0.14310]
X-9.36305 Y-3.30403 Z[#100+-0.04000]
#105=[#524+[#525-#524]*0.12153]
#106=[#530+[#531-#530]*0.12153]
#100=[#105+[#106-#105]*0.12754]
X-9.36902 Y-3.30893 Z[#100+-0.04000]
#105=[#524+[#525-#524]*0.11194]
#106=[#530+[#531-#530]*0.11194]
#100=[#105+[#106-#105]*0.10982]
X-9.37582 Y-3.31256 Z[#100+-0.04000]
#105=[#524+[#525-#524]*0.10602]
#106=[#530+[#531-#530]*0.10602]
#100=[#105+[#106-#105]*0.09057]
X-9.38321 Y-3.31480 Z[#100+-0.04000]
#105=[#524+[#525-#524]*0.10401]
#106=[#530+[#531-#530]*0.10401]
#100=[#105+[#106-#105]*0.07055]
X-9.39089 Y-3.31556 Z[#100+-0.04000]
#105=[#524+[#525-#524]*0.10602]
#106=[#530+[#531-#530]*0.10602]
#100=[#105+[#106-#105]*0.05054]
X-9.39857 Y-3.31480 Z[#100+-0.04000]
#105=[#524+[#525-#524]*0.11194]
#106=[#530+[#531-#530]*0.11194]
#100=[#105+[#106-#105]*0.03128]
X-9.40596 Y-3.31256 Z[#100+-0.04000]
#105=[#524+[#525-#524]*0.12153]
#106=[#530+[#531-#530]*0.12153]
#100=[#105+[#106-#105]*0.01356]
X-9.41276 Y-3.30893 Z[#100+-0.04000]
#105=[#524+[#525-#524]*0.13282]
#106=[#530+[#531-#530]*0.13282]
#100=[#105+[#106-#105]*0.00000]
X-9.41797 Y-3.30466 Z[#100+-0.04000]
#105=[#518+[#519-#518]*0.13448]
#106=[#524+[#525-#524]*0.13448]
#100=[#105+[#106-#105]*0.99801]
X-9.41873 Y-3.30403 Z[#100+-0.04000]
#105=[#518+[#519-#518]*0.15026]
#106=[#524+[#525-#524]*0.15026]
#100=[#105+[#106-#105]*0.98524]
X-9.42363 Y-3.29806 Z[#100+-0.04000]
#105=[#518+[#519-#518]*0.16822]
#106=[#524+[#525-#524]*0.16822]
#100=[#105+[#106-#105]*0.97578]
X-9.42726 Y-3.29126 Z[#100+-0.04000]
#105=[#518+[#519-#518]*0.18775]
#106=[#524+[#525-#524]*0.18775]
#100=[#105+[#106-#105]*0.96994]
X-9.42950 Y-3.28387 Z[#100+-0.04000]
#105=[#518+[#519-#518]*0.20805]
#106=[#524+[#525-#524]*0.20805]
#100=[#105+[#106-#105]*0.96796]
X-9.43026 Y-3.27619 Z[#100+-0.04000]
#105=[#519+[#520-#519]*0.00000]
#106=[#525+[#526-#525]*0.00000]
#100=[#105+[#106-#105]*0.96796]
X-9.43026 Y-2.97650 Z[#100+-0.04000]
#105=[#519+[#520-#519]*0.52932]
#106=[#525+[#526-#525]*0.52932]
#100=[#105+[#106-#105]*0.96796]
X-9.43026 Y-2.77619 Z[#100+-0.04000]
#105=[#519+[#520-#519]*0.54961]
#106=[#525+[#526-#525]*0.54961]
#100=[#105+[#106-#105]*0.96994]
X-9.42950 Y-2.76851 Z[#100+-0.04000]
#105=[#519+[#520-#519]*0.56914]
#106=[#525+[#526-#525]*0.56914]
#100=[#105+[#106-#105]*0.97578]
X-9.42726 Y-2.76112 Z[#100+-0.04000]
#105=[#519+[#520-#519]*0.58711]
#106=[#525+[#526-#525]*0.58711]
#100=[#105+[#106-#105]*0.98524]
X-9.42363 Y-2.75432 Z[#100+-0.04000]
#105=[#519+[#520-#519]*0.60289]
#106=[#525+[#526-#525]*0.60289]
#100=[#105+[#106-#105]*0.99801]
X-9.41873 Y-2.74835 Z[#100+-0.04000]
#105=[#525+[#526-#525]*0.60455]
#106=[#531+[#532-#531]*0.60455]
#100=[#105+[#106-#105]*0.00000]
X-9.41797 Y-2.74772 Z[#100+-0.04000]
#105=[#525+[#526-#525]*0.61584]
#106=[#531+[#532-#531]*0.61584]
#100=[#105+[#106-#105]*0.01356]
X-9.41276 Y-2.74345 Z[#100+-0.04000]
#105=[#525+[#526-#525]*0.62543]
#106=[#531+[#532-#531]*0.62543]
#100=[#105+[#106-#105]*0.03128]
X-9.40596 Y-2.73982 Z[#100+-0.04000]
#105=[#525+[#526-#525]*0.63135]
#106=[#531+[#532-#531]*0.63135]
#100=[#105+[#106-#105]*0.05054]
X-9.39857 Y-2.73758 Z[#100+-0.04000]
#105=[#525+[#526-#525]*0.63336]
#106=[#531+[#532-#531]*0.63336]
#100=[#105+[#106-#105]*0.07055]
X-9.39089 Y-2.73682 Z[#100+-0.04000]
#105=[#525+[#526-#525]*0.63135]
#106=[#531+[#532-#531]*0.63135]
#100=[#105+[#106-#105]*0.09057]
X-9.38321 Y-2.73758 Z[#100+-0.04000]
#105=[#525+[#526-#525]*0.62543]
#106=[#531+[#532-#531]*0.62543]
#100=[#105+[#106-#105]*0.10982]
X-9.37582 Y-2.73982 Z[#100+-0.04000]
#105=[#525+[#526-#525]*0.61584]
#106=[#531+[#532-#531]*0.61584]
#100=[#105+[#106-#105]*0.12754]
X-9.36902 Y-2.74345 Z[#100+-0.04000]
#105=[#525+[#526-#525]*0.60289]
#106=[#531+[#532-#531]*0.60289]
#100=[#105+[#106-#105]*0.14310]
X-9.36305 Y-2.74835 Z[#100+-0.04000]
#105=[#525+[#526-#525]*0.58711]
#106=[#531+[#532-#531]*0.58711]
#100=[#105+[#106-#105]*0.15587]
X-9.35815 Y-2.75432 Z[#100+-0.04000]
#105=[#525+[#526-#525]*0.56914]
#106=[#531+[#532-#531]*0.56914]
#100=[#105+[#106-#105]*0.16533]
X-9.35452 Y-2.76112 Z[#100+-0.04000]
#105=[#525+[#526-#525]*0.54961]
#106=[#531+[#532-#531]*0.54961]
#100=[#105+[#106-#105]*0.17117]
X-9.35228 Y-2.76851 Z[#100+-0.04000]
#105=[#525+[#526-#525]*0.52932]
#106=[#531+[#532-#531]*0.52932]
#100=[#105+[#106-#105]*0.17315]
X-9.35152 Y-2.77619 Z[#100+-0.04000]
#105=[#525+[#526-#525]*0.00000]
#106=[#531+[#532-#531]*0.00000]
#100=[#105+[#106-#105]*0.17315]
X-9.35152 Y-2.97650 Z[#100+-0.04000]
#105=[#524+[#525-#524]*0.83674]
#106=[#530+[#531-#530]*0.83674]
#100=[#105+[#106-#105]*0.17315]
X-9.35152 Y-3.03828 Z[#100+-0.04000]
#105=[#525+[#526-#525]*0.00000]
#106=[#531+[#532-#531]*0.00000]
#100=[#105+[#106-#105]*0.33416]
X-9.28973 Y-2.97650 Z[#100+-0.04000]
#105=[#525+[#526-#525]*0.16246]
#106=[#531+[#532-#531]*0.16246]
#100=[#105+[#106-#105]*0.49438]
X-9.22825 Y-2.91502 Z[#100+-0.04000]
#105=[#525+[#526-#525]*0.17540]
#106=[#531+[#532-#531]*0.17540]
#100=[#105+[#106-#105]*0.50993]
X-9.22228 Y-2.91012 Z[#100+-0.04000]
#105=[#525+[#526-#525]*0.18500]
#106=[#531+[#532-#531]*0.18500]
#100=[#105+[#106-#105]*0.52765]
X-9.21548 Y-2.90649 Z[#100+-0.04000]
#105=[#525+[#526-#525]*0.19092]
#106=[#531+[#532-#531]*0.19092]
#100=[#105+[#106-#105]*0.54691]
X-9.20809 Y-2.90425 Z[#100+-0.04000]
#105=[#525+[#526-#525]*0.19292]
#106=[#531+[#532-#531]*0.19292]
#100=[#105+[#106-#105]*0.56692]
X-9.20041 Y-2.90349 Z[#100+-0.04000]
#105=[#525+[#526-#525]*0.19092]
#106=[#531+[#532-#531]*0.19092]
#100=[#105+[#106-#105]*0.58694]
X-9.19273 Y-2.90425 Z[#100+-0.04000]
#105=[#525+[#526-#525]*0.18500]
#106=[#531+[#532-#531]*0.18500]
#100=[#105+[#106-#105]*0.60619]
X-9.18534 Y-2.90649 Z[#100+-0.04000]
#105=[#525+[#526-#525]*0.17538]
#106=[#531+[#532-#531]*0.17538]
#100=[#105+[#106-#105]*0.62391]
X-9.17854 Y-2.91013 Z[#100+-0.04000]
#105=[#525+[#526-#525]*0.16246]
#106=[#531+[#532-#531]*0.16246]
#100=[#105+[#106-#105]*0.63947]
X-9.17257 Y-2.91502 Z[#100+-0.04000]
#105=[#525+[#526-#525]*0.14668]
#106=[#531+[#532-#531]*0.14668]
#100=[#105+[#106-#105]*0.65224]
X-9.16767 Y-2.92099 Z[#100+-0.04000]
#105=[#525+[#526-#525]*0.12871]
#106=[#531+[#532-#531]*0.12871]
#100=[#105+[#106-#105]*0.66170]
X-9.16404 Y-2.92779 Z[#100+-0.04000]
#105=[#525+[#526-#525]*0.10918]
#106=[#531+[#532-#531]*0.10918]
#100=[#105+[#106-#105]*0.66754]
X-9.16180 Y-2.93518 Z[#100+-0.04000]
#105=[#525+[#526-#525]*0.08889]
#106=[#531+[#532-#531]*0.08889]
#100=[#105+[#106-#105]*0.66952]
X-9.16104 Y-2.94286 Z[#100+-0.04000]
G04 P0 ( dwell for no time -- G64 should not smooth over this point )
G00 Z0.08000 ( retract )

G00 X-9.56590 Y-3.24959 ( rapid move to begin. )
G01 F180.00000
( Mill infeed pass 1/1 )
#105=[#518+[#519-#518]*0.27834]
#106=[#524+[#525-#524]*0.27834]
#100=[#105+[#106-#105]*0.61450]
G01 Z[-0.04000+#100]
G04 P0 ( dwell for no time -- G64 should not smooth over this point )
G01 F360.00000
#105=[#518+[#519-#518]*0.25797]
#106=[#524+[#525-#524]*0.25797]
#100=[#105+[#106-#105]*0.61395]
X-9.56611 Y-3.25730 Z[#100+-0.04000]
#105=[#518+[#519-#518]*0.23807]
#106=[#524+[#525-#524]*0.23807]
#100=[#105+[#106-#105]*0.60949]
X-9.56782 Y-3.26483 Z[#100+-0.04000]
#105=[#518+[#519-#518]*0.21944]
#106=[#524+[#525-#524]*0.21944]
#100=[#105+[#106-#105]*0.60129]
X-9.57097 Y-3.27188 Z[#100+-0.04000]
#105=[#518+[#519-#518]*0.20279]
#106=[#524+[#525-#524]*0.20279]
#100=[#105+[#106-#105]*0.58966]
X-9.57543 Y-3.27818 Z[#100+-0.04000]
#105=[#518+[#519-#518]*0.18878]
#106=[#524+[#525-#524]*0.18878]
#100=[#105+[#106-#105]*0.57507]
X-9.58103 Y-3.28348 Z[#100+-0.04000]
#105=[#518+[#519-#518]*0.17792]
#106=[#524+[#525-#524]*0.17792]
#100=[#105+[#106-#105]*0.55805]
X-9.58756 Y-3.28759 Z[#100+-0.04000]
#105=[#518+[#519-#518]*0.11500]
#106=[#524+[#525-#524]*0.11500]
#100=[#105+[#106-#105]*0.43396]
X-9.63518 Y-3.31140 Z[#100+-0.04000]
#105=[#518+[#519-#518]*0.10679]
#106=[#524+[#525-#524]*0.10679]
#100=[#105+[#106-#105]*0.41165]
X-9.64374 Y-3.31451 Z[#100+-0.04000]
#105=[#518+[#519-#518]*0.10401]
#106=[#524+[#525-#524]*0.10401]
#100=[#105+[#106-#105]*0.38807]
X-9.65279 Y-3.31556 Z[#100+-0.04000]
#105=[#518+[#519-#518]*0.10401]
#106=[#524+[#525-#524]*0.10401]
#100=[#105+[#106-#105]*0.13989]
X-9.74803 Y-3.31556 Z[#100+-0.04000]
#105=[#518+[#519-#518]*0.10679]
#106=[#524+[#525-#524]*0.10679]
#100=[#105+[#106-#105]*0.11630]
X-9.75708 Y-3.31451 Z[#100+-0.04000]
#105=[#518+[#519-#518]*0.11500]
#106=[#524+[#525-#524]*0.11500]
#100=[#105+[#106-#105]*0.09400]
X-9.76564 Y-3.31140 Z[#100+-0.04000]
#105=[#512+[#513-#512]*0.16266]
#106=[#518+[#519-#518]*0.16266]
#100=[#105+[#106-#105]*1.00000]
X-9.80171 Y-3.29336 Z[#100+-0.04000]
#105=[#512+[#513-#512]*0.17792]
#106=[#518+[#519-#518]*0.17792]
#100=[#105+[#106-#105]*0.96990]
X-9.81326 Y-3.28759 Z[#100+-0.04000]
#105=[#512+[#513-#512]*0.18656]
#106=[#518+[#519-#518]*0.18656]
#100=[#105+[#106-#105]*0.95581]
X-9.81867 Y-3.28432 Z[#100+-0.04000]
#105=[#512+[#513-#512]*0.19740]
#106=[#518+[#519-#518]*0.19740]
#100=[#105+[#106-#105]*0.94325]
X-9.82349 Y-3.28022 Z[#100+-0.04000]
#105=[#512+[#513-#512]*0.26032]
#106=[#518+[#519-#518]*0.26032]
#100=[#105+[#106-#105]*0.88120]
X-9.84730 Y-3.25641 Z[#100+-0.04000]
#105=[#512+[#513-#512]*0.27305]
#106=[#518+[#519-#518]*0.27305]
#100=[#105+[#106-#105]*0.87052]
X-9.85140 Y-3.25159 Z[#100+-0.04000]
#105=[#512+[#513-#512]*0.28735]
#106=[#518+[#519-#518]*0.28735]
#100=[#105+[#106-#105]*0.86199]
X-9.85467 Y-3.24618 Z[#100+-0.04000]
#105=[#512+[#513-#512]*0.41319]
#106=[#518+[#519-#518]*0.41319]
#100=[#105+[#106-#105]*0.79995]
X-9.87848 Y-3.19856 Z[#100+-0.04000]
#105=[#512+[#513-#512]*0.43581]
#106=[#518+[#519-#518]*0.43581]
#100=[#105+[#106-#105]*0.79184]
X-9.88159 Y-3.19000 Z[#100+-0.04000]
#105=[#512+[#513-#512]*0.45972]
#106=[#518+[#519-#518]*0.45972]
#100=[#105+[#106-#105]*0.78911]
X-9.88264 Y-3.18095 Z[#100+-0.04000]
#105=[#512+[#513-#512]*0.83721]
#106=[#518+[#519-#518]*0.83721]
#100=[#105+[#106-#105]*0.78911]
X-9.88264 Y-3.03810 Z[#100+-0.04000]
#105=[#512+[#513-#512]*0.86113]
#106=[#518+[#519-#518]*0.86113]
#100=[#105+[#106-#105]*0.79184]
X-9.88159 Y-3.02905 Z[#100+-0.04000]
#105=[#512+[#513-#512]*0.88375]
#106=[#518+[#519-#518]*0.88375]
#100=[#105+[#106-#105]*0.79995]
X-9.87848 Y-3.02049 Z[#100+-0.04000]
#105=[#513+[#514-#513]*0.00000]
#106=[#519+[#520-#519]*0.00000]
#100=[#105+[#106-#105]*0.85727]
X-9.85648 Y-2.97650 Z[#100+-0.04000]
#105=[#513+[#514-#513]*0.00958]
#106=[#519+[#520-#519]*0.00958]
#100=[#105+[#106-#105]*0.86199]
X-9.85467 Y-2.97287 Z[#100+-0.04000]
#105=[#513+[#514-#513]*0.02388]
#106=[#519+[#520-#519]*0.02388]
#100=[#105+[#106-#105]*0.87052]
X-9.85140 Y-2.96746 Z[#100+-0.04000]
#105=[#513+[#514-#513]*0.03662]
#106=[#519+[#520-#519]*0.03662]
#100=[#105+[#106-#105]*0.88120]
X-9.84730 Y-2.96264 Z[#100+-0.04000]
#105=[#513+[#514-#513]*0.09954]
#106=[#519+[#520-#519]*0.09954]
#100=[#105+[#106-#105]*0.94325]
X-9.82349 Y-2.93883 Z[#100+-0.04000]
#105=[#513+[#514-#513]*0.11037]
#106=[#519+[#520-#519]*0.11037]
#100=[#105+[#106-#105]*0.95581]
X-9.81867 Y-2.93473 Z[#100+-0.04000]
#105=[#513+[#514-#513]*0.11901]
#106=[#519+[#520-#519]*0.11901]
#100=[#105+[#106-#105]*0.96990]
X-9.81326 Y-2.93146 Z[#100+-0.04000]
#105=[#513+[#514-#513]*0.13427]
#106=[#519+[#520-#519]*0.13427]
#100=[#105+[#106-#105]*1.00000]
X-9.80171 Y-2.92569 Z[#100+-0.04000]
#105=[#519+[#520-#519]*0.18193]
#106=[#525+[#526-#525]*0.18193]
#100=[#105+[#106-#105]*0.09400]
X-9.76564 Y-2.90765 Z[#100+-0.04000]
#105=[#519+[#520-#519]*0.19015]
#106=[#525+[#526-#525]*0.19015]
#100=[#105+[#106-#105]*0.11630]
X-9.75708 Y-2.90454 Z[#100+-0.04000]
#105=[#519+[#520-#519]*0.19292]
#106=[#525+[#526-#525]*0.19292]
#100=[#105+[#106-#105]*0.13989]
X-9.74803 Y-2.90349 Z[#100+-0.04000]
#105=[#519+[#520-#519]*0.19292]
#106=[#525+[#526-#525]*0.19292]
#100=[#105+[#106-#105]*0.38807]
X-9.65279 Y-2.90349 Z[#100+-0.04000]
#105=[#519+[#520-#519]*0.19015]
#106=[#525+[#526-#525]*0.19015]
#100=[#105+[#106-#105]*0.41165]
X-9.64374 Y-2.90454 Z[#100+-0.04000]
#105=[#519+[#520-#519]*0.18193]
#106=[#525+[#526-#525]*0.18193]
#100=[#105+[#106-#105]*0.43396]
X-9.63518 Y-2.90765 Z[#100+-0.04000]
#105=[#519+[#520-#519]*0.11901]
#106=[#525+[#526-#525]*0.11901]
#100=[#105+[#106-#105]*0.55805]
X-9.58756 Y-2.93146 Z[#100+-0.04000]
#105=[#519+[#520-#519]*0.10815]
#106=[#525+[#526-#525]*0.10815]
#100=[#105+[#106-#105]*0.57507]
X-9.58103 Y-2.93557 Z[#100+-0.04000]
#105=[#519+[#520-#519]*0.09415]
#106=[#525+[#526-#525]*0.09415]
#100=[#105+[#106-#105]*0.58966]
X-9.57543 Y-2.94087 Z[#100+-0.04000]
#105=[#519+[#520-#519]*0.07750]
#106=[#525+[#526-#525]*0.07750]
#100=[#105+[#106-#105]*0.60129]
X-9.57097 Y-2.94717 Z[#100+-0.04000]
#105=[#519+[#520-#519]*0.05887]
#106=[#525+[#526-#525]*0.05887]
#100=[#105+[#106-#105]*0.60949]
X-9.56782 Y-2.95422 Z[#100+-0.04000]
#105=[#519+[#520-#519]*0.03897]
#106=[#525+[#526-#525]*0.03897]
#100=[#105+[#106-#105]*0.61395]
X-9.56611 Y-2.96175 Z[#100+-0.04000]
#105=[#519+[#520-#519]*0.01860]
#106=[#525+[#526-#525]*0.01860]
#100=[#105+[#106-#105]*0.61450]
X-9.56590 Y-2.96946 Z[#100+-0.04000]
#105=[#519+[#520-#519]*0.00000]
#106=[#525+[#526-#525]*0.00000]
#100=[#105+[#106-#105]*0.61136]
X-9.56710 Y-2.97650 Z[#100+-0.04000]
#105=[#518+[#519-#518]*0.99849]
#106=[#524+[#525-#524]*0.99849]
#100=[#105+[#106-#105]*0.61111]
X-9.56720 Y-2.97707 Z[#100+-0.04000]
#105=[#518+[#519-#518]*0.97943]
#106=[#524+[#525-#524]*0.97943]
#100=[#105+[#106-#105]*0.60392]
X-9.56996 Y-2.98428 Z[#100+-0.04000]
#105=[#518+[#519-#518]*0.96218]
#106=[#524+[#525-#524]*0.96218]
#100=[#105+[#106-#105]*0.59321]
X-9.57407 Y-2.99081 Z[#100+-0.04000]
#105=[#518+[#519-#518]*0.94738]
#106=[#524+[#525-#524]*0.94738]
#100=[#105+[#106-#105]*0.57940]
X-9.57937 Y-2.99641 Z[#100+-0.04000]
#105=[#518+[#519-#518]*0.93559]
#106=[#524+[#525-#524]*0.93559]
#100=[#105+[#106-#105]*0.56298]
X-9.58567 Y-3.00087 Z[#100+-0.04000]
#105=[#518+[#519-#518]*0.92727]
#106=[#524+[#525-#524]*0.92727]
#100=[#105+[#106-#105]*0.54461]
X-9.59272 Y-3.00402 Z[#100+-0.04000]
#105=[#518+[#519-#518]*0.92275]
#106=[#524+[#525-#524]*0.92275]
#100=[#105+[#106-#105]*0.52498]
X-9.60025 Y-3.00573 Z[#100+-0.04000]
#105=[#518+[#519-#518]*0.92220]
#106=[#524+[#525-#524]*0.92220]
#100=[#105+[#106-#105]*0.50489]
X-9.60796 Y-3.00594 Z[#100+-0.04000]
#105=[#518+[#519-#518]*0.92563]
#106=[#524+[#525-#524]*0.92563]
#100=[#105+[#106-#105]*0.48506]
X-9.61557 Y-3.00464 Z[#100+-0.04000]
#105=[#518+[#519-#518]*0.93292]
#106=[#524+[#525-#524]*0.93292]
#100=[#105+[#106-#105]*0.46627]
X-9.62278 Y-3.00188 Z[#100+-0.04000]
#105=[#518+[#519-#518]*0.98485]
#106=[#524+[#525-#524]*0.98485]
#100=[#105+[#106-#105]*0.36386]
X-9.66208 Y-2.98223 Z[#100+-0.04000]
#105=[#518+[#519-#518]*0.98485]
#106=[#524+[#525-#524]*0.98485]
#100=[#105+[#106-#105]*0.16410]
X-9.73874 Y-2.98223 Z[#100+-0.04000]
#105=[#518+[#519-#518]*0.94046]
#106=[#524+[#525-#524]*0.94046]
#100=[#105+[#106-#105]*0.07656]
X-9.77233 Y-2.99903 Z[#100+-0.04000]
#105=[#518+[#519-#518]*0.90142]
#106=[#524+[#525-#524]*0.90142]
#100=[#105+[#106-#105]*0.03807]
X-9.78710 Y-3.01380 Z[#100+-0.04000]
#105=[#512+[#513-#512]*0.82423]
#106=[#518+[#519-#518]*0.82423]
#100=[#105+[#106-#105]*1.00000]
X-9.80171 Y-3.04301 Z[#100+-0.04000]
#105=[#512+[#513-#512]*0.81266]
#106=[#518+[#519-#518]*0.81266]
#100=[#105+[#106-#105]*0.99430]
X-9.80390 Y-3.04739 Z[#100+-0.04000]
#105=[#512+[#513-#512]*0.48427]
#106=[#518+[#519-#518]*0.48427]
#100=[#105+[#106-#105]*0.99430]
X-9.80390 Y-3.17166 Z[#100+-0.04000]
#105=[#512+[#513-#512]*0.47271]
#106=[#518+[#519-#518]*0.47271]
#100=[#105+[#106-#105]*1.00000]
X-9.80171 Y-3.17604 Z[#100+-0.04000]
#105=[#518+[#519-#518]*0.39551]
#106=[#524+[#525-#524]*0.39551]
#100=[#105+[#106-#105]*0.03807]
X-9.78710 Y-3.20525 Z[#100+-0.04000]
#105=[#518+[#519-#518]*0.35648]
#106=[#524+[#525-#524]*0.35648]
#100=[#105+[#106-#105]*0.07656]
X-9.77233 Y-3.22002 Z[#100+-0.04000]
#105=[#518+[#519-#518]*0.31208]
#106=[#524+[#525-#524]*0.31208]
#100=[#105+[#106-#105]*0.16410]
X-9.73874 Y-3.23682 Z[#100+-0.04000]
#105=[#518+[#519-#518]*0.31208]
#106=[#524+[#525-#524]*0.31208]
#100=[#105+[#106-#105]*0.36386]
X-9.66208 Y-3.23682 Z[#100+-0.04000]
#105=[#518+[#519-#518]*0.36401]
#106=[#524+[#525-#524]*0.36401]
#100=[#105+[#106-#105]*0.46627]
X-9.62278 Y-3.21717 Z[#100+-0.04000]
#105=[#518+[#519-#518]*0.37130]
#106=[#524+[#525-#524]*0.37130]
#100=[#105+[#106-#105]*0.48506]
X-9.61557 Y-3.21441 Z[#100+-0.04000]
#105=[#518+[#519-#518]*0.37474]
#106=[#524+[#525-#524]*0.37474]
#100=[#105+[#106-#105]*0.50489]
X-9.60796 Y-3.21311 Z[#100+-0.04000]
#105=[#518+[#519-#518]*0.37418]
#106=[#524+[#525-#524]*0.37418]
#100=[#105+[#106-#105]*0.52498]
X-9.60025 Y-3.21332 Z[#100+-0.04000]
#105=[#518+[#519-#518]*0.36967]
#106=[#524+[#525-#524]*0.36967]
#100=[#105+[#106-#105]*0.54461]
X-9.59272 Y-3.21503 Z[#100+-0.04000]
#105=[#518+[#519-#518]*0.36134]
#106=[#524+[#525-#524]*0.36134]
#100=[#105+[#106-#105]*0.56298]
X-9.58567 Y-3.21818 Z[#100+-0.04000]
#105=[#518+[#519-#518]*0.34956]
#106=[#524+[#525-#524]*0.34956]
#100=[#105+[#106-#105]*0.57940]
X-9.57937 Y-3.22264 Z[#100+-0.04000]
#105=[#518+[#519-#518]*0.33476]
#106=[#524+[#525-#524]*0.33476]
#100=[#105+[#106-#105]*0.59321]
X-9.57407 Y-3.22824 Z[#100+-0.04000]
#105=[#518+[#519-#518]*0.31750]
#106=[#524+[#525-#524]*0.31750]
#100=[#105+[#106-#105]*0.60392]
X-9.56996 Y-3.23477 Z[#100+-0.04000]
#105=[#518+[#519-#518]*0.29845]
#106=[#524+[#525-#524]*0.29845]
#100=[#105+[#106-#105]*0.61111]
X-9.56720 Y-3.24198 Z[#100+-0.04000]
#105=[#518+[#519-#518]*0.27834]
#106=[#524+[#525-#524]*0.27834]
#100=[#105+[#106-#105]*0.61450]
X-9.56590 Y-3.24959 Z[#100+-0.04000]
G04 P0 ( dwell for no time -- G64 should not smooth over this point )
G00 Z0.08000 ( retract )

G00 X-10.01818 Y-3.27619 ( rapid move to begin. )
G01 F180.00000
( Mill infeed pass 1/1 )
#105=[#512+[#513-#512]*0.20805]
#106=[#518+[#519-#518]*0.20805]
#100=[#105+[#106-#105]*0.43591]
G01 Z[-0.04000+#100]
G04 P0 ( dwell for no time -- G64 should not smooth over this point )
G01 F360.00000
#105=[#512+[#513-#512]*0.90013]
#106=[#518+[#519-#518]*0.90013]
#100=[#105+[#106-#105]*0.43591]
X-10.01818 Y-3.01429 Z[#100+-0.04000]
#105=[#512+[#513-#512]*0.92404]
#106=[#518+[#519-#518]*0.92404]
#100=[#105+[#106-#105]*0.43317]
X-10.01923 Y-3.00524 Z[#100+-0.04000]
#105=[#512+[#513-#512]*0.94667]
#106=[#518+[#519-#518]*0.94667]
#100=[#105+[#106-#105]*0.42507]
X-10.02234 Y-2.99668 Z[#100+-0.04000]
#105=[#513+[#514-#513]*0.00000]
#106=[#519+[#520-#519]*0.00000]
#100=[#105+[#106-#105]*0.39877]
X-10.03243 Y-2.97650 Z[#100+-0.04000]
#105=[#513+[#514-#513]*0.07250]
#106=[#519+[#520-#519]*0.07250]
#100=[#105+[#106-#105]*0.36302]
X-10.04615 Y-2.94906 Z[#100+-0.04000]
#105=[#513+[#514-#513]*0.09124]
#106=[#519+[#520-#519]*0.09124]
#100=[#105+[#106-#105]*0.35116]
X-10.05070 Y-2.94197 Z[#100+-0.04000]
#105=[#513+[#514-#513]*0.10699]
#106=[#519+[#520-#519]*0.10699]
#100=[#105+[#106-#105]*0.33563]
X-10.05666 Y-2.93601 Z[#100+-0.04000]
#105=[#513+[#514-#513]*0.11901]
#106=[#519+[#520-#519]*0.11901]
#100=[#105+[#106-#105]*0.31716]
X-10.06375 Y-2.93146 Z[#100+-0.04000]
#105=[#513+[#514-#513]*0.18193]
#106=[#519+[#520-#519]*0.18193]
#100=[#105+[#106-#105]*0.19306]
X-10.11137 Y-2.90765 Z[#100+-0.04000]
#105=[#513+[#514-#513]*0.19015]
#106=[#519+[#520-#519]*0.19015]
#100=[#105+[#106-#105]*0.17076]
X-10.11993 Y-2.90454 Z[#100+-0.04000]
#105=[#513+[#514-#513]*0.19292]
#106=[#519+[#520-#519]*0.19292]
#100=[#105+[#106-#105]*0.14717]
X-10.12898 Y-2.90349 Z[#100+-0.04000]
#105=[#507+[#508-#507]*0.19292]
#106=[#513+[#514-#513]*0.19292]
#100=[#105+[#106-#105]*1.00000]
X-10.18546 Y-2.90349 Z[#100+-0.04000]
#105=[#507+[#508-#507]*0.19292]
#106=[#513+[#514-#513]*0.19292]
#100=[#105+[#106-#105]*0.89899]
X-10.22422 Y-2.90349 Z[#100+-0.04000]
#105=[#507+[#508-#507]*0.19015]
#106=[#513+[#514-#513]*0.19015]
#100=[#105+[#106-#105]*0.87541]
X-10.23327 Y-2.90454 Z[#100+-0.04000]
#105=[#507+[#508-#507]*0.18193]
#106=[#513+[#514-#513]*0.18193]
#100=[#105+[#106-#105]*0.85310]
X-10.24183 Y-2.90765 Z[#100+-0.04000]
#105=[#507+[#508-#507]*0.11901]
#106=[#513+[#514-#513]*0.11901]
#100=[#105+[#106-#105]*0.72901]
X-10.28945 Y-2.93146 Z[#100+-0.04000]
#105=[#507+[#508-#507]*0.10815]
#106=[#513+[#514-#513]*0.10815]
#100=[#105+[#106-#105]*0.71199]
X-10.29598 Y-2.93557 Z[#100+-0.04000]
#105=[#507+[#508-#507]*0.09415]
#106=[#513+[#514-#513]*0.09415]
#100=[#105+[#106-#105]*0.69740]
X-10.30158 Y-2.94087 Z[#100+-0.04000]
#105=[#507+[#508-#507]*0.07750]
#106=[#513+[#514-#513]*0.07750]
#100=[#105+[#106-#105]*0.68578]
X-10.30604 Y-2.94717 Z[#100+-0.04000]
#105=[#507+[#508-#507]*0.05887]
#106=[#513+[#514-#513]*0.05887]
#100=[#105+[#106-#105]*0.67757]
X-10.30919 Y-2.95422 Z[#100+-0.04000]
#105=[#507+[#508-#507]*0.03897]
#106=[#513+[#514-#513]*0.03897]
#100=[#105+[#106-#105]*0.67311]
X-10.31090 Y-2.96175 Z[#100+-0.04000]
#105=[#507+[#508-#507]*0.01860]
#106=[#513+[#514-#513]*0.01860]
#100=[#105+[#106-#105]*0.67256]
X-10.31111 Y-2.96946 Z[#100+-0.04000]
#105=[#507+[#508-#507]*0.00000]
#106=[#513+[#514-#513]*0.00000]
#100=[#105+[#106-#105]*0.67570]
X-10.30991 Y-2.97650 Z[#100+-0.04000]
#105=[#506+[#507-#506]*0.99849]
#106=[#512+[#513-#512]*0.99849]
#100=[#105+[#106-#105]*0.67595]
X-10.30981 Y-2.97707 Z[#100+-0.04000]
#105=[#506+[#507-#506]*0.97943]
#106=[#512+[#513-#512]*0.97943]
#100=[#105+[#106-#105]*0.68314]
X-10.30705 Y-2.98428 Z[#100+-0.04000]
#105=[#506+[#507-#506]*0.96218]
#106=[#512+[#513-#512]*0.96218]
#100=[#105+[#106-#105]*0.69385]
X-10.30294 Y-2.99081 Z[#100+-0.04000]
#105=[#506+[#507-#506]*0.94738]
#106=[#512+[#513-#512]*0.94738]
#100=[#105+[#106-#105]*0.70766]
X-10.29764 Y-2.99641 Z[#100+-0.04000]
#105=[#506+[#507-#506]*0.93559]
#106=[#512+[#513-#512]*0.93559]
#100=[#105+[#106-#105]*0.72408]
X-10.29134 Y-3.00087 Z[#100+-0.04000]
#105=[#506+[#507-#506]*0.92727]
#106=[#512+[#513-#512]*0.92727]
#100=[#105+[#106-#105]*0.74245]
X-10.28429 Y-3.00402 Z[#100+-0.04000]
#105=[#506+[#507-#506]*0.92275]
#106=[#512+[#513-#512]*0.92275]
#100=[#105+[#106-#105]*0.76208]
X-10.27676 Y-3.00573 Z[#100+-0.04000]
#105=[#506+[#507-#506]*0.92220]
#106=[#512+[#513-#512]*0.92220]
#100=[#105+[#106-#105]*0.78217]
X-10.26905 Y-3.00594 Z[#100+-0.04000]
#105=[#506+[#507-#506]*0.92563]
#106=[#512+[#513-#512]*0.92563]
#100=[#105+[#106-#105]*0.80200]
X-10.26144 Y-3.00464 Z[#100+-0.04000]
#105=[#506+[#507-#506]*0.93292]
#106=[#512+[#513-#512]*0.93292]
#100=[#105+[#106-#105]*0.82079]
X-10.25423 Y-3.00188 Z[#100+-0.04000]
#105=[#506+[#507-#506]*0.98485]
#106=[#512+[#513-#512]*0.98485]
#100=[#105+[#106-#105]*0.92320]
X-10.21493 Y-2.98223 Z[#100+-0.04000]
#105=[#506+[#507-#506]*0.98485]
#106=[#512+[#513-#512]*0.98485]
#100=[#105+[#106-#105]*1.00000]
X-10.18546 Y-2.98223 Z[#100+-0.04000]
#105=[#512+[#513-#512]*0.98485]
#106=[#518+[#519-#518]*0.98485]
#100=[#105+[#106-#105]*0.12296]
X-10.13827 Y-2.98223 Z[#100+-0.04000]
#105=[#512+[#513-#512]*0.94844]
#106=[#518+[#519-#518]*0.94844]
#100=[#105+[#106-#105]*0.19481]
X-10.11070 Y-2.99601 Z[#100+-0.04000]
#105=[#512+[#513-#512]*0.87558]
#106=[#518+[#519-#518]*0.87558]
#100=[#105+[#106-#105]*0.23072]
X-10.09692 Y-3.02358 Z[#100+-0.04000]
#105=[#512+[#513-#512]*0.83861]
#106=[#518+[#519-#518]*0.83861]
#100=[#105+[#106-#105]*0.23072]
X-10.09692 Y-3.03757 Z[#100+-0.04000]
#105=[#512+[#513-#512]*0.81544]
#106=[#518+[#519-#518]*0.81544]
#100=[#105+[#106-#105]*0.18501]
X-10.11446 Y-3.04634 Z[#100+-0.04000]
#105=[#506+[#507-#506]*0.81544]
#106=[#512+[#513-#512]*0.81544]
#100=[#105+[#106-#105]*1.00000]
X-10.18546 Y-3.04634 Z[#100+-0.04000]
#105=[#506+[#507-#506]*0.81544]
#106=[#512+[#513-#512]*0.81544]
#100=[#105+[#106-#105]*0.89899]
X-10.22422 Y-3.04634 Z[#100+-0.04000]
#105=[#506+[#507-#506]*0.81266]
#106=[#512+[#513-#512]*0.81266]
#100=[#105+[#106-#105]*0.87541]
X-10.23327 Y-3.04739 Z[#100+-0.04000]
#105=[#506+[#507-#506]*0.80444]
#106=[#512+[#513-#512]*0.80444]
#100=[#105+[#106-#105]*0.85310]
X-10.24183 Y-3.05050 Z[#100+-0.04000]
#105=[#506+[#507-#506]*0.74152]
#106=[#512+[#513-#512]*0.74152]
#100=[#105+[#106-#105]*0.72901]
X-10.28945 Y-3.07431 Z[#100+-0.04000]
#105=[#506+[#507-#506]*0.72950]
#106=[#512+[#513-#512]*0.72950]
#100=[#105+[#106-#105]*0.71053]
X-10.29654 Y-3.07886 Z[#100+-0.04000]
#105=[#506+[#507-#506]*0.71375]
#106=[#512+[#513-#512]*0.71375]
#100=[#105+[#106-#105]*0.69500]
X-10.30250 Y-3.08482 Z[#100+-0.04000]
#105=[#506+[#507-#506]*0.69502]
#106=[#512+[#513-#512]*0.69502]
#100=[#105+[#106-#105]*0.68314]
X-10.30705 Y-3.09191 Z[#100+-0.04000]
#105=[#506+[#507-#506]*0.56918]
#106=[#512+[#513-#512]*0.56918]
#100=[#105+[#106-#105]*0.62110]
X-10.33086 Y-3.13953 Z[#100+-0.04000]
#105=[#506+[#507-#506]*0.54656]
#106=[#512+[#513-#512]*0.54656]
#100=[#105+[#106-#105]*0.61299]
X-10.33397 Y-3.14809 Z[#100+-0.04000]
#105=[#506+[#507-#506]*0.52264]
#106=[#512+[#513-#512]*0.52264]
#100=[#105+[#106-#105]*0.61026]
X-10.33502 Y-3.15714 Z[#100+-0.04000]
#105=[#506+[#507-#506]*0.39680]
#106=[#512+[#513-#512]*0.39680]
#100=[#105+[#106-#105]*0.61026]
X-10.33502 Y-3.20476 Z[#100+-0.04000]
#105=[#506+[#507-#506]*0.37289]
#106=[#512+[#513-#512]*0.37289]
#100=[#105+[#106-#105]*0.61299]
X-10.33397 Y-3.21381 Z[#100+-0.04000]
#105=[#506+[#507-#506]*0.35027]
#106=[#512+[#513-#512]*0.35027]
#100=[#105+[#106-#105]*0.62110]
X-10.33086 Y-3.22237 Z[#100+-0.04000]
#105=[#506+[#507-#506]*0.22443]
#106=[#512+[#513-#512]*0.22443]
#100=[#105+[#106-#105]*0.68314]
X-10.30705 Y-3.26999 Z[#100+-0.04000]
#105=[#506+[#507-#506]*0.20570]
#106=[#512+[#513-#512]*0.20570]
#100=[#105+[#106-#105]*0.69500]
X-10.30250 Y-3.27708 Z[#100+-0.04000]
#105=[#506+[#507-#506]*0.18995]
#106=[#512+[#513-#512]*0.18995]
#100=[#105+[#106-#105]*0.71053]
X-10.29654 Y-3.28304 Z[#100+-0.04000]
#105=[#506+[#507-#506]*0.17792]
#106=[#512+[#513-#512]*0.17792]
#100=[#105+[#106-#105]*0.72901]
X-10.28945 Y-3.28759 Z[#100+-0.04000]
#105=[#506+[#507-#506]*0.11500]
#106=[#512+[#513-#512]*0.11500]
#100=[#105+[#106-#105]*0.85310]
X-10.24183 Y-3.31140 Z[#100+-0.04000]
#105=[#506+[#507-#506]*0.10679]
#106=[#512+[#513-#512]*0.10679]
#100=[#105+[#106-#105]*0.87541]
X-10.23327 Y-3.31451 Z[#100+-0.04000]
#105=[#506+[#507-#506]*0.10401]
#106=[#512+[#513-#512]*0.10401]
#100=[#105+[#106-#105]*0.89899]
X-10.22422 Y-3.31556 Z[#100+-0.04000]
#105=[#506+[#507-#506]*0.10401]
#106=[#512+[#513-#512]*0.10401]
#100=[#105+[#106-#105]*1.00000]
X-10.18546 Y-3.31556 Z[#100+-0.04000]
#105=[#512+[#513-#512]*0.10401]
#106=[#518+[#519-#518]*0.10401]
#100=[#105+[#106-#105]*0.20922]
X-10.10517 Y-3.31556 Z[#100+-0.04000]
#105=[#512+[#513-#512]*0.10679]
#106=[#518+[#519-#518]*0.10679]
#100=[#105+[#106-#105]*0.23280]
X-10.09612 Y-3.31451 Z[#100+-0.04000]
#105=[#512+[#513-#512]*0.11500]
#106=[#518+[#519-#518]*0.11500]
#100=[#105+[#106-#105]*0.25511]
X-10.08756 Y-3.31140 Z[#100+-0.04000]
#105=[#512+[#513-#512]*0.12415]
#106=[#518+[#519-#518]*0.12415]
#100=[#105+[#106-#105]*0.27317]
X-10.08063 Y-3.30794 Z[#100+-0.04000]
#105=[#512+[#513-#512]*0.12153]
#106=[#518+[#519-#518]*0.12153]
#100=[#105+[#106-#105]*0.27632]
X-10.07942 Y-3.30893 Z[#100+-0.04000]
#105=[#512+[#513-#512]*0.11194]
#106=[#518+[#519-#518]*0.11194]
#100=[#105+[#106-#105]*0.29404]
X-10.07262 Y-3.31256 Z[#100+-0.04000]
#105=[#512+[#513-#512]*0.10602]
#106=[#518+[#519-#518]*0.10602]
#100=[#105+[#106-#105]*0.31330]
X-10.06523 Y-3.31480 Z[#100+-0.04000]
#105=[#512+[#513-#512]*0.10401]
#106=[#518+[#519-#518]*0.10401]
#100=[#105+[#106-#105]*0.33331]
X-10.05755 Y-3.31556 Z[#100+-0.04000]
#105=[#512+[#513-#512]*0.10602]
#106=[#518+[#519-#518]*0.10602]
#100=[#105+[#106-#105]*0.35333]
X-10.04987 Y-3.31480 Z[#100+-0.04000]
#105=[#512+[#513-#512]*0.11194]
#106=[#518+[#519-#518]*0.11194]
#100=[#105+[#106-#105]*0.37258]
X-10.04248 Y-3.31256 Z[#100+-0.04000]
#105=[#512+[#513-#512]*0.12153]
#106=[#518+[#519-#518]*0.12153]
#100=[#105+[#106-#105]*0.39030]
X-10.03568 Y-3.30893 Z[#100+-0.04000]
#105=[#512+[#513-#512]*0.13448]
#106=[#518+[#519-#518]*0.13448]
#100=[#105+[#106-#105]*0.40586]
X-10.02971 Y-3.30403 Z[#100+-0.04000]
#105=[#512+[#513-#512]*0.15026]
#106=[#518+[#519-#518]*0.15026]
#100=[#105+[#106-#105]*0.41863]
X-10.02481 Y-3.29806 Z[#100+-0.04000]
#105=[#512+[#513-#512]*0.16822]
#106=[#518+[#519-#518]*0.16822]
#100=[#105+[#106-#105]*0.42809]
X-10.02118 Y-3.29126 Z[#100+-0.04000]
#105=[#512+[#513-#512]*0.18775]
#106=[#518+[#519-#518]*0.18775]
#100=[#105+[#106-#105]*0.43393]
X-10.01894 Y-3.28387 Z[#100+-0.04000]
#105=[#512+[#513-#512]*0.20805]
#106=[#518+[#519-#518]*0.20805]
#100=[#105+[#106-#105]*0.43591]
X-10.01818 Y-3.27619 Z[#100+-0.04000]
G04 P0 ( dwell for no time -- G64 should not smooth over this point )
G00 Z0.08000 ( retract )

G00 X-10.09692 Y-3.22805 ( rapid move to begin. )
G01 F180.00000
( Mill infeed pass 1/1 )
#105=[#512+[#513-#512]*0.33526]
#106=[#518+[#519-#518]*0.33526]
#100=[#105+[#106-#105]*0.23072]
G01 Z[-0.04000+#100]
G04 P0 ( dwell for no time -- G64 should not smooth over this point )
G01 F360.00000
#105=[#512+[#513-#512]*0.60990]
#106=[#518+[#519-#518]*0.60990]
#100=[#105+[#106-#105]*0.23072]
X-10.09692 Y-3.12412 Z[#100+-0.04000]
#105=[#512+[#513-#512]*0.60736]
#106=[#518+[#519-#518]*0.60736]
#100=[#105+[#106-#105]*0.20922]
X-10.10517 Y-3.12508 Z[#100+-0.04000]
#105=[#506+[#507-#506]*0.60736]
#106=[#512+[#513-#512]*0.60736]
#100=[#105+[#106-#105]*1.00000]
X-10.18546 Y-3.12508 Z[#100+-0.04000]
#105=[#506+[#507-#506]*0.60736]
#106=[#512+[#513-#512]*0.60736]
#100=[#105+[#106-#105]*0.92320]
X-10.21493 Y-3.12508 Z[#100+-0.04000]
#105=[#506+[#507-#506]*0.57095]
#106=[#512+[#513-#512]*0.57095]
#100=[#105+[#106-#105]*0.85135]
X-10.24250 Y-3.13886 Z[#100+-0.04000]
#105=[#506+[#507-#506]*0.49809]
#106=[#512+[#513-#512]*0.49809]
#100=[#105+[#106-#105]*0.81544]
X-10.25628 Y-3.16643 Z[#100+-0.04000]
#105=[#506+[#507-#506]*0.42135]
#106=[#512+[#513-#512]*0.42135]
#100=[#105+[#106-#105]*0.81544]
X-10.25628 Y-3.19547 Z[#100+-0.04000]
#105=[#506+[#507-#506]*0.34850]
#106=[#512+[#513-#512]*0.34850]
#100=[#105+[#106-#105]*0.85135]
X-10.24250 Y-3.22304 Z[#100+-0.04000]
#105=[#506+[#507-#506]*0.31208]
#106=[#512+[#513-#512]*0.31208]
#100=[#105+[#106-#105]*0.92320]
X-10.21493 Y-3.23682 Z[#100+-0.04000]
#105=[#506+[#507-#506]*0.31208]
#106=[#512+[#513-#512]*0.31208]
#100=[#105+[#106-#105]*1.00000]
X-10.18546 Y-3.23682 Z[#100+-0.04000]
#105=[#512+[#513-#512]*0.31208]
#106=[#518+[#519-#518]*0.31208]
#100=[#105+[#106-#105]*0.18501]
X-10.11446 Y-3.23682 Z[#100+-0.04000]
#105=[#512+[#513-#512]*0.33526]
#106=[#518+[#519-#518]*0.33526]
#100=[#105+[#106-#105]*0.23072]
X-10.09692 Y-3.22805 Z[#100+-0.04000]
G04 P0 ( dwell for no time -- G64 should not smooth over this point )
G00 Z0.08000 ( retract )

G00 X-10.44675 Y-3.18095 ( rapid move to begin. )
G01 F180.00000
( Mill infeed pass 1/1 )
#105=[#506+[#507-#506]*0.45972]
#106=[#512+[#513-#512]*0.45972]
#100=[#105+[#106-#105]*0.31910]
G01 Z[-0.04000+#100]
G04 P0 ( dwell for no time -- G64 should not smooth over this point )
G01 F360.00000
#105=[#506+[#507-#506]*0.64848]
#106=[#512+[#513-#512]*0.64848]
#100=[#105+[#106-#105]*0.31910]
X-10.44675 Y-3.10952 Z[#100+-0.04000]
#105=[#506+[#507-#506]*0.67240]
#106=[#512+[#513-#512]*0.67240]
#100=[#105+[#106-#105]*0.31636]
X-10.44780 Y-3.10047 Z[#100+-0.04000]
#105=[#506+[#507-#506]*0.69502]
#106=[#512+[#513-#512]*0.69502]
#100=[#105+[#106-#105]*0.30826]
X-10.45091 Y-3.09191 Z[#100+-0.04000]
#105=[#506+[#507-#506]*0.82085]
#106=[#512+[#513-#512]*0.82085]
#100=[#105+[#106-#105]*0.24621]
X-10.47472 Y-3.04429 Z[#100+-0.04000]
#105=[#506+[#507-#506]*0.83515]
#106=[#512+[#513-#512]*0.83515]
#100=[#105+[#106-#105]*0.23769]
X-10.47799 Y-3.03888 Z[#100+-0.04000]
#105=[#506+[#507-#506]*0.84789]
#106=[#512+[#513-#512]*0.84789]
#100=[#105+[#106-#105]*0.22698]
X-10.48210 Y-3.03406 Z[#100+-0.04000]
#105=[#506+[#507-#506]*0.91078]
#106=[#512+[#513-#512]*0.91078]
#100=[#105+[#106-#105]*0.16494]
X-10.50591 Y-3.01026 Z[#100+-0.04000]
#105=[#506+[#507-#506]*0.92571]
#106=[#512+[#513-#512]*0.92571]
#100=[#105+[#106-#105]*0.14633]
X-10.51305 Y-3.00461 Z[#100+-0.04000]
#105=[#506+[#507-#506]*0.92819]
#106=[#512+[#513-#512]*0.92819]
#100=[#105+[#106-#105]*0.14109]
X-10.51506 Y-3.00367 Z[#100+-0.04000]
#105=[#506+[#507-#506]*0.95240]
#106=[#512+[#513-#512]*0.95240]
#100=[#105+[#106-#105]*0.16496]
X-10.50590 Y-2.99451 Z[#100+-0.04000]
#105=[#506+[#507-#506]*0.96514]
#106=[#512+[#513-#512]*0.96514]
#100=[#105+[#106-#105]*0.17565]
X-10.50180 Y-2.98969 Z[#100+-0.04000]
#105=[#506+[#507-#506]*0.97943]
#106=[#512+[#513-#512]*0.97943]
#100=[#105+[#106-#105]*0.18417]
X-10.49853 Y-2.98428 Z[#100+-0.04000]
#105=[#507+[#508-#507]*0.00000]
#106=[#513+[#514-#513]*0.00000]
#100=[#105+[#106-#105]*0.19431]
X-10.49464 Y-2.97650 Z[#100+-0.04000]
#105=[#507+[#508-#507]*0.10527]
#106=[#513+[#514-#513]*0.10527]
#100=[#105+[#106-#105]*0.24621]
X-10.47472 Y-2.93666 Z[#100+-0.04000]
#105=[#507+[#508-#507]*0.12789]
#106=[#513+[#514-#513]*0.12789]
#100=[#105+[#106-#105]*0.25432]
X-10.47161 Y-2.92810 Z[#100+-0.04000]
#105=[#507+[#508-#507]*0.15181]
#106=[#513+[#514-#513]*0.15181]
#100=[#105+[#106-#105]*0.25705]
X-10.47056 Y-2.91905 Z[#100+-0.04000]
#105=[#507+[#508-#507]*0.27764]
#106=[#513+[#514-#513]*0.27764]
#100=[#105+[#106-#105]*0.25705]
X-10.47056 Y-2.87143 Z[#100+-0.04000]
#105=[#507+[#508-#507]*0.30156]
#106=[#513+[#514-#513]*0.30156]
#100=[#105+[#106-#105]*0.25432]
X-10.47161 Y-2.86238 Z[#100+-0.04000]
#105=[#507+[#508-#507]*0.32418]
#106=[#513+[#514-#513]*0.32418]
#100=[#105+[#106-#105]*0.24621]
X-10.47472 Y-2.85382 Z[#100+-0.04000]
#105=[#507+[#508-#507]*0.45002]
#106=[#513+[#514-#513]*0.45002]
#100=[#105+[#106-#105]*0.18417]
X-10.49853 Y-2.80620 Z[#100+-0.04000]
#105=[#507+[#508-#507]*0.46431]
#106=[#513+[#514-#513]*0.46431]
#100=[#105+[#106-#105]*0.17565]
X-10.50180 Y-2.80079 Z[#100+-0.04000]
#105=[#507+[#508-#507]*0.47705]
#106=[#513+[#514-#513]*0.47705]
#100=[#105+[#106-#105]*0.16496]
X-10.50590 Y-2.79597 Z[#100+-0.04000]
#105=[#507+[#508-#507]*0.53997]
#106=[#513+[#514-#513]*0.53997]
#100=[#105+[#106-#105]*0.10292]
X-10.52971 Y-2.77216 Z[#100+-0.04000]
#105=[#507+[#508-#507]*0.55080]
#106=[#513+[#514-#513]*0.55080]
#100=[#105+[#106-#105]*0.09036]
X-10.53453 Y-2.76806 Z[#100+-0.04000]
#105=[#507+[#508-#507]*0.55944]
#106=[#513+[#514-#513]*0.55944]
#100=[#105+[#106-#105]*0.07626]
X-10.53994 Y-2.76479 Z[#100+-0.04000]
#105=[#501+[#502-#501]*0.59811]
#106=[#507+[#508-#507]*0.59811]
#100=[#105+[#106-#105]*1.00000]
X-10.56921 Y-2.75016 Z[#100+-0.04000]
#105=[#501+[#502-#501]*0.62236]
#106=[#507+[#508-#507]*0.62236]
#100=[#105+[#106-#105]*0.95217]
X-10.58756 Y-2.74098 Z[#100+-0.04000]
#105=[#501+[#502-#501]*0.63058]
#106=[#507+[#508-#507]*0.63058]
#100=[#105+[#106-#105]*0.92986]
X-10.59612 Y-2.73787 Z[#100+-0.04000]
#105=[#501+[#502-#501]*0.63336]
#106=[#507+[#508-#507]*0.63336]
#100=[#105+[#106-#105]*0.90628]
X-10.60517 Y-2.73682 Z[#100+-0.04000]
#105=[#501+[#502-#501]*0.63336]
#106=[#507+[#508-#507]*0.63336]
#100=[#105+[#106-#105]*0.47195]
X-10.77184 Y-2.73682 Z[#100+-0.04000]
#105=[#501+[#502-#501]*0.63135]
#106=[#507+[#508-#507]*0.63135]
#100=[#105+[#106-#105]*0.45194]
X-10.77952 Y-2.73758 Z[#100+-0.04000]
#105=[#501+[#502-#501]*0.62543]
#106=[#507+[#508-#507]*0.62543]
#100=[#105+[#106-#105]*0.43268]
X-10.78691 Y-2.73982 Z[#100+-0.04000]
#105=[#501+[#502-#501]*0.61584]
#106=[#507+[#508-#507]*0.61584]
#100=[#105+[#106-#105]*0.41496]
X-10.79371 Y-2.74345 Z[#100+-0.04000]
#105=[#501+[#502-#501]*0.60289]
#106=[#507+[#508-#507]*0.60289]
#100=[#105+[#106-#105]*0.39940]
X-10.79968 Y-2.74835 Z[#100+-0.04000]
#105=[#501+[#502-#501]*0.58711]
#106=[#507+[#508-#507]*0.58711]
#100=[#105+[#106-#105]*0.38664]
X-10.80458 Y-2.75432 Z[#100+-0.04000]
#105=[#501+[#502-#501]*0.56914]
#106=[#507+[#508-#507]*0.56914]
#100=[#105+[#106-#105]*0.37718]
X-10.80821 Y-2.76112 Z[#100+-0.04000]
#105=[#501+[#502-#501]*0.54961]
#106=[#507+[#508-#507]*0.54961]
#100=[#105+[#106-#105]*0.37134]
X-10.81045 Y-2.76851 Z[#100+-0.04000]
#105=[#501+[#502-#501]*0.52932]
#106=[#507+[#508-#507]*0.52932]
#100=[#105+[#106-#105]*0.36936]
X-10.81121 Y-2.77619 Z[#100+-0.04000]
#105=[#501+[#502-#501]*0.00000]
#106=[#507+[#508-#507]*0.00000]
#100=[#105+[#106-#105]*0.36936]
X-10.81121 Y-2.97650 Z[#100+-0.04000]
#105=[#500+[#501-#500]*0.20805]
#106=[#506+[#507-#506]*0.20805]
#100=[#105+[#106-#105]*0.36936]
X-10.81121 Y-3.27619 Z[#100+-0.04000]
#105=[#500+[#501-#500]*0.18775]
#106=[#506+[#507-#506]*0.18775]
#100=[#105+[#106-#105]*0.37134]
X-10.81045 Y-3.28387 Z[#100+-0.04000]
#105=[#500+[#501-#500]*0.16822]
#106=[#506+[#507-#506]*0.16822]
#100=[#105+[#106-#105]*0.37718]
X-10.80821 Y-3.29126 Z[#100+-0.04000]
#105=[#500+[#501-#500]*0.15026]
#106=[#506+[#507-#506]*0.15026]
#100=[#105+[#106-#105]*0.38664]
X-10.80458 Y-3.29806 Z[#100+-0.04000]
#105=[#500+[#501-#500]*0.13448]
#106=[#506+[#507-#506]*0.13448]
#100=[#105+[#106-#105]*0.39940]
X-10.79968 Y-3.30403 Z[#100+-0.04000]
#105=[#500+[#501-#500]*0.12153]
#106=[#506+[#507-#506]*0.12153]
#100=[#105+[#106-#105]*0.41496]
X-10.79371 Y-3.30893 Z[#100+-0.04000]
#105=[#500+[#501-#500]*0.11194]
#106=[#506+[#507-#506]*0.11194]
#100=[#105+[#106-#105]*0.43268]
X-10.78691 Y-3.31256 Z[#100+-0.04000]
#105=[#500+[#501-#500]*0.10602]
#106=[#506+[#507-#506]*0.10602]
#100=[#105+[#106-#105]*0.45194]
X-10.77952 Y-3.31480 Z[#100+-0.04000]
#105=[#500+[#501-#500]*0.10401]
#106=[#506+[#507-#506]*0.10401]
#100=[#105+[#106-#105]*0.47195]
X-10.77184 Y-3.31556 Z[#100+-0.04000]
#105=[#500+[#501-#500]*0.10401]
#106=[#506+[#507-#506]*0.10401]
#100=[#105+[#106-#105]*0.96832]
X-10.58136 Y-3.31556 Z[#100+-0.04000]
#105=[#500+[#501-#500]*0.10679]
#106=[#506+[#507-#506]*0.10679]
#100=[#105+[#106-#105]*0.99191]
X-10.57231 Y-3.31451 Z[#100+-0.04000]
#105=[#500+[#501-#500]*0.10977]
#106=[#506+[#507-#506]*0.10977]
#100=[#105+[#106-#105]*1.00000]
X-10.56921 Y-3.31338 Z[#100+-0.04000]
#105=[#506+[#507-#506]*0.11500]
#106=[#512+[#513-#512]*0.11500]
#100=[#105+[#106-#105]*0.01421]
X-10.56375 Y-3.31140 Z[#100+-0.04000]
#105=[#506+[#507-#506]*0.17792]
#106=[#512+[#513-#512]*0.17792]
#100=[#105+[#106-#105]*0.13830]
X-10.51613 Y-3.28759 Z[#100+-0.04000]
#105=[#506+[#507-#506]*0.18656]
#106=[#512+[#513-#512]*0.18656]
#100=[#105+[#106-#105]*0.15240]
X-10.51072 Y-3.28432 Z[#100+-0.04000]
#105=[#506+[#507-#506]*0.19740]
#106=[#512+[#513-#512]*0.19740]
#100=[#105+[#106-#105]*0.16496]
X-10.50590 Y-3.28022 Z[#100+-0.04000]
#105=[#506+[#507-#506]*0.26032]
#106=[#512+[#513-#512]*0.26032]
#100=[#105+[#106-#105]*0.22701]
X-10.48209 Y-3.25641 Z[#100+-0.04000]
#105=[#506+[#507-#506]*0.27305]
#106=[#512+[#513-#512]*0.27305]
#100=[#105+[#106-#105]*0.23769]
X-10.47799 Y-3.25159 Z[#100+-0.04000]
#105=[#506+[#507-#506]*0.28735]
#106=[#512+[#513-#512]*0.28735]
#100=[#105+[#106-#105]*0.24621]
X-10.47472 Y-3.24618 Z[#100+-0.04000]
#105=[#506+[#507-#506]*0.41319]
#106=[#512+[#513-#512]*0.41319]
#100=[#105+[#106-#105]*0.30826]
X-10.45091 Y-3.19856 Z[#100+-0.04000]
#105=[#506+[#507-#506]*0.43581]
#106=[#512+[#513-#512]*0.43581]
#100=[#105+[#106-#105]*0.31636]
X-10.44780 Y-3.19000 Z[#100+-0.04000]
#105=[#506+[#507-#506]*0.45972]
#106=[#512+[#513-#512]*0.45972]
#100=[#105+[#106-#105]*0.31910]
X-10.44675 Y-3.18095 Z[#100+-0.04000]
G04 P0 ( dwell for no time -- G64 should not smooth over this point )
G00 Z0.08000 ( retract )

G00 X-10.52549 Y-3.17166 ( rapid move to begin. )
G01 F180.00000
( Mill infeed pass 1/1 )
#105=[#506+[#507-#506]*0.48427]
#106=[#512+[#513-#512]*0.48427]
#100=[#105+[#106-#105]*0.11391]
G01 Z[-0.04000+#100]
G04 P0 ( dwell for no time -- G64 should not smooth over this point )
G01 F360.00000
#105=[#506+[#507-#506]*0.62393]
#106=[#512+[#513-#512]*0.62393]
#100=[#105+[#106-#105]*0.11391]
X-10.52549 Y-3.11881 Z[#100+-0.04000]
#105=[#506+[#507-#506]*0.71267]
#106=[#512+[#513-#512]*0.71267]
#100=[#105+[#106-#105]*0.07016]
X-10.54228 Y-3.08523 Z[#100+-0.04000]
#105=[#506+[#507-#506]*0.74628]
#106=[#512+[#513-#512]*0.74628]
#100=[#105+[#106-#105]*0.03701]
X-10.55500 Y-3.07251 Z[#100+-0.04000]
#105=[#500+[#501-#500]*0.75879]
#106=[#506+[#507-#506]*0.75879]
#100=[#105+[#106-#105]*1.00000]
X-10.56921 Y-3.06778 Z[#100+-0.04000]
#105=[#500+[#501-#500]*0.79609]
#106=[#506+[#507-#506]*0.79609]
#100=[#105+[#106-#105]*0.88962]
X-10.61156 Y-3.05366 Z[#100+-0.04000]
#105=[#500+[#501-#500]*0.79609]
#106=[#506+[#507-#506]*0.79609]
#100=[#105+[#106-#105]*0.57455]
X-10.73247 Y-3.05366 Z[#100+-0.04000]
#105=[#500+[#501-#500]*0.31208]
#106=[#506+[#507-#506]*0.31208]
#100=[#105+[#106-#105]*0.57455]
X-10.73247 Y-3.23682 Z[#100+-0.04000]
#105=[#500+[#501-#500]*0.31208]
#106=[#506+[#507-#506]*0.31208]
#100=[#105+[#106-#105]*0.94411]
X-10.59065 Y-3.23682 Z[#100+-0.04000]
#105=[#500+[#501-#500]*0.34043]
#106=[#506+[#507-#506]*0.34043]
#100=[#105+[#106-#105]*1.00000]
X-10.56921 Y-3.22609 Z[#100+-0.04000]
#105=[#506+[#507-#506]*0.35648]
#106=[#512+[#513-#512]*0.35648]
#100=[#105+[#106-#105]*0.03165]
X-10.55706 Y-3.22002 Z[#100+-0.04000]
#105=[#506+[#507-#506]*0.39551]
#106=[#512+[#513-#512]*0.39551]
#100=[#105+[#106-#105]*0.07013]
X-10.54229 Y-3.20525 Z[#100+-0.04000]
#105=[#506+[#507-#506]*0.48427]
#106=[#512+[#513-#512]*0.48427]
#100=[#105+[#106-#105]*0.11391]
X-10.52549 Y-3.17166 Z[#100+-0.04000]
G04 P0 ( dwell for no time -- G64 should not smooth over this point )
G00 Z0.08000 ( retract )

G00 X-10.54930 Y-2.90976 ( rapid move to begin. )
G01 F180.00000
( Mill infeed pass 1/1 )
#105=[#507+[#508-#507]*0.17636]
#106=[#513+[#514-#513]*0.17636]
#100=[#105+[#106-#105]*0.05187]
G01 Z[-0.04000+#100]
G04 P0 ( dwell for no time -- G64 should not smooth over this point )
G01 F360.00000
#105=[#507+[#508-#507]*0.25309]
#106=[#513+[#514-#513]*0.25309]
#100=[#105+[#106-#105]*0.05187]
X-10.54930 Y-2.88072 Z[#100+-0.04000]
#105=[#507+[#508-#507]*0.34186]
#106=[#513+[#514-#513]*0.34186]
#100=[#105+[#106-#105]*0.00809]
X-10.56610 Y-2.84713 Z[#100+-0.04000]
#105=[#501+[#502-#501]*0.35006]
#106=[#507+[#508-#507]*0.35006]
#100=[#105+[#106-#105]*1.00000]
X-10.56921 Y-2.84403 Z[#100+-0.04000]
#105=[#501+[#502-#501]*0.38089]
#106=[#507+[#508-#507]*0.38089]
#100=[#105+[#106-#105]*0.96960]
X-10.58087 Y-2.83236 Z[#100+-0.04000]
#105=[#501+[#502-#501]*0.42528]
#106=[#507+[#508-#507]*0.42528]
#100=[#105+[#106-#105]*0.88207]
X-10.61446 Y-2.81556 Z[#100+-0.04000]
#105=[#501+[#502-#501]*0.42528]
#106=[#507+[#508-#507]*0.42528]
#100=[#105+[#106-#105]*0.57455]
X-10.73247 Y-2.81556 Z[#100+-0.04000]
#105=[#501+[#502-#501]*0.00417]
#106=[#507+[#508-#507]*0.00417]
#100=[#105+[#106-#105]*0.57455]
X-10.73247 Y-2.97492 Z[#100+-0.04000]
#105=[#501+[#502-#501]*0.00417]
#106=[#507+[#508-#507]*0.00417]
#100=[#105+[#106-#105]*0.88207]
X-10.61446 Y-2.97492 Z[#100+-0.04000]
#105=[#501+[#502-#501]*0.04856]
#106=[#507+[#508-#507]*0.04856]
#100=[#105+[#106-#105]*0.96960]
X-10.58087 Y-2.95812 Z[#100+-0.04000]
#105=[#501+[#502-#501]*0.07939]
#106=[#507+[#508-#507]*0.07939]
#100=[#105+[#106-#105]*1.00000]
X-10.56921 Y-2.94645 Z[#100+-0.04000]
#105=[#507+[#508-#507]*0.08759]
#106=[#513+[#514-#513]*0.08759]
#100=[#105+[#106-#105]*0.00809]
X-10.56610 Y-2.94335 Z[#100+-0.04000]
#105=[#507+[#508-#507]*0.17636]
#106=[#513+[#514-#513]*0.17636]
#100=[#105+[#106-#105]*0.05187]
X-10.54930 Y-2.90976 Z[#100+-0.04000]
G04 P0 ( dwell for no time -- G64 should not smooth over this point )
G00 Z0.08000 ( retract )

G00 X-10.84311 Y-3.35000 ( rapid move to begin. )
G01 F180.00000
( Mill infeed pass 1/1 )
#105=[#500+[#501-#500]*0.01300]
#106=[#506+[#507-#506]*0.01300]
#100=[#105+[#106-#105]*0.28623]
G01 Z[-0.04000+#100]
G04 P0 ( dwell for no time -- G64 should not smooth over this point )
G01 F360.00000
#105=[#500+[#501-#500]*0.00803]
#106=[#506+[#507-#506]*0.00803]
#100=[#105+[#106-#105]*0.28527]
X-10.84348 Y-3.35188 Z[#100+-0.04000]
#105=[#500+[#501-#500]*0.00381]
#106=[#506+[#507-#506]*0.00381]
#100=[#105+[#106-#105]*0.28248]
X-10.84455 Y-3.35348 Z[#100+-0.04000]
#105=[#500+[#501-#500]*0.00098]
#106=[#506+[#507-#506]*0.00098]
#100=[#105+[#106-#105]*0.27831]
X-10.84615 Y-3.35455 Z[#100+-0.04000]
#100=[#500+[#506-#500]*0.27341]
X-10.84803 Y-3.35492 Z[#100+-0.04000]
#105=[#500+[#501-#500]*0.00098]
#106=[#506+[#507-#506]*0.00098]
#100=[#105+[#106-#105]*0.26851]
X-10.84991 Y-3.35455 Z[#100+-0.04000]
#105=[#500+[#501-#500]*0.00381]
#106=[#506+[#507-#506]*0.00381]
#100=[#105+[#106-#105]*0.26434]
X-10.85151 Y-3.35348 Z[#100+-0.04000]
#105=[#500+[#501-#500]*0.12674]
#106=[#506+[#507-#506]*0.12674]
#100=[#105+[#106-#105]*0.14312]
X-10.89803 Y-3.30696 Z[#100+-0.04000]
#105=[#500+[#501-#500]*0.00381]
#106=[#506+[#507-#506]*0.00381]
#100=[#105+[#106-#105]*0.02189]
X-10.94455 Y-3.35348 Z[#100+-0.04000]
#105=[#500+[#501-#500]*0.00098]
#106=[#506+[#507-#506]*0.00098]
#100=[#105+[#106-#105]*0.01772]
X-10.94615 Y-3.35455 Z[#100+-0.04000]
#100=[#500+[#506-#500]*0.01282]
X-10.94803 Y-3.35492 Z[#100+-0.04000]
#105=[#500+[#501-#500]*0.00098]
#106=[#506+[#507-#506]*0.00098]
#100=[#105+[#106-#105]*0.00792]
X-10.94991 Y-3.35455 Z[#100+-0.04000]
#105=[#500+[#501-#500]*0.00381]
#106=[#506+[#507-#506]*0.00381]
#100=[#105+[#106-#105]*0.00375]
X-10.95151 Y-3.35348 Z[#100+-0.04000]
#105=[#500+[#501-#500]*0.00803]
#106=[#506+[#507-#506]*0.00803]
#100=[#105+[#106-#105]*0.00096]
X-10.95258 Y-3.35188 Z[#100+-0.04000]
#100=[#500+[#501-#500]*0.01300]
X-10.95295 Y-3.35000 Z[#100+-0.04000]
#105=[#500+[#501-#500]*0.01797]
#106=[#506+[#507-#506]*0.01797]
#100=[#105+[#106-#105]*0.00096]
X-10.95258 Y-3.34812 Z[#100+-0.04000]
#105=[#500+[#501-#500]*0.02220]
#106=[#506+[#507-#506]*0.02220]
#100=[#105+[#106-#105]*0.00375]
X-10.95151 Y-3.34652 Z[#100+-0.04000]
#105=[#500+[#501-#500]*0.14513]
#106=[#506+[#507-#506]*0.14513]
#100=[#105+[#106-#105]*0.12498]
X-10.90499 Y-3.30000 Z[#100+-0.04000]
#105=[#500+[#501-#500]*0.26806]
#106=[#506+[#507-#506]*0.26806]
#100=[#105+[#106-#105]*0.00375]
X-10.95151 Y-3.25348 Z[#100+-0.04000]
#105=[#500+[#501-#500]*0.27229]
#106=[#506+[#507-#506]*0.27229]
#100=[#105+[#106-#105]*0.00096]
X-10.95258 Y-3.25188 Z[#100+-0.04000]
#100=[#500+[#501-#500]*0.27726]
X-10.95295 Y-3.25000 Z[#100+-0.04000]
#105=[#500+[#501-#500]*0.28222]
#106=[#506+[#507-#506]*0.28222]
#100=[#105+[#106-#105]*0.00096]
X-10.95258 Y-3.24812 Z[#100+-0.04000]
#105=[#500+[#501-#500]*0.28645]
#106=[#506+[#507-#506]*0.28645]
#100=[#105+[#106-#105]*0.00375]
X-10.95151 Y-3.24652 Z[#100+-0.04000]
#105=[#500+[#501-#500]*0.28928]
#106=[#506+[#507-#506]*0.28928]
#100=[#105+[#106-#105]*0.00792]
X-10.94991 Y-3.24545 Z[#100+-0.04000]
#105=[#500+[#501-#500]*0.29026]
#106=[#506+[#507-#506]*0.29026]
#100=[#105+[#106-#105]*0.01282]
X-10.94803 Y-3.24508 Z[#100+-0.04000]
#105=[#500+[#501-#500]*0.28928]
#106=[#506+[#507-#506]*0.28928]
#100=[#105+[#106-#105]*0.01772]
X-10.94615 Y-3.24545 Z[#100+-0.04000]
#105=[#500+[#501-#500]*0.28645]
#106=[#506+[#507-#506]*0.28645]
#100=[#105+[#106-#105]*0.02189]
X-10.94455 Y-3.24652 Z[#100+-0.04000]
#105=[#500+[#501-#500]*0.16352]
#106=[#506+[#507-#506]*0.16352]
#100=[#105+[#106-#105]*0.14312]
X-10.89803 Y-3.29304 Z[#100+-0.04000]
#105=[#500+[#501-#500]*0.28645]
#106=[#506+[#507-#506]*0.28645]
#100=[#105+[#106-#105]*0.26434]
X-10.85151 Y-3.24652 Z[#100+-0.04000]
#105=[#500+[#501-#500]*0.28928]
#106=[#506+[#507-#506]*0.28928]
#100=[#105+[#106-#105]*0.26851]
X-10.84991 Y-3.24545 Z[#100+-0.04000]
#105=[#500+[#501-#500]*0.29026]
#106=[#506+[#507-#506]*0.29026]
#100=[#105+[#106-#105]*0.27341]
X-10.84803 Y-3.24508 Z[#100+-0.04000]
#105=[#500+[#501-#500]*0.28928]
#106=[#506+[#507-#506]*0.28928]
#100=[#105+[#106-#105]*0.27831]
X-10.84615 Y-3.24545 Z[#100+-0.04000]
#105=[#500+[#501-#500]*0.28645]
#106=[#506+[#507-#506]*0.28645]
#100=[#105+[#106-#105]*0.28248]
X-10.84455 Y-3.24652 Z[#100+-0.04000]
#105=[#500+[#501-#500]*0.28222]
#106=[#506+[#507-#506]*0.28222]
#100=[#105+[#106-#105]*0.28527]
X-10.84348 Y-3.24812 Z[#100+-0.04000]
#105=[#500+[#501-#500]*0.27726]
#106=[#506+[#507-#506]*0.27726]
#100=[#105+[#106-#105]*0.28623]
X-10.84311 Y-3.25000 Z[#100+-0.04000]
#105=[#500+[#501-#500]*0.27229]
#106=[#506+[#507-#506]*0.27229]
#100=[#105+[#106-#105]*0.28527]
X-10.84348 Y-3.25188 Z[#100+-0.04000]
#105=[#500+[#501-#500]*0.26806]
#106=[#506+[#507-#506]*0.26806]
#100=[#105+[#106-#105]*0.28248]
X-10.84455 Y-3.25348 Z[#100+-0.04000]
#105=[#500+[#501-#500]*0.14513]
#106=[#506+[#507-#506]*0.14513]
#100=[#105+[#106-#105]*0.16125]
X-10.89107 Y-3.30000 Z[#100+-0.04000]
#105=[#500+[#501-#500]*0.02220]
#106=[#506+[#507-#506]*0.02220]
#100=[#105+[#106-#105]*0.28248]
X-10.84455 Y-3.34652 Z[#100+-0.04000]
#105=[#500+[#501-#500]*0.01797]
#106=[#506+[#507-#506]*0.01797]
#100=[#105+[#106-#105]*0.28527]
X-10.84348 Y-3.34812 Z[#100+-0.04000]
#105=[#500+[#501-#500]*0.01300]
#106=[#506+[#507-#506]*0.01300]
#100=[#105+[#106-#105]*0.28623]
X-10.84311 Y-3.35000 Z[#100+-0.04000]
( Piece #2, position [1;0] )

G04 P0 ( dwell for no time -- G64 should not smooth over this point )
G00 Z0.08000 ( retract )

G00 X-6.98703 Y-2.94286 ( rapid move to begin. )
G01 F180.00000
( Mill infeed pass 1/1 )
#105=[#561+[#562-#561]*0.08889]
#106=[#567+[#568-#567]*0.08889]
#100=[#105+[#106-#105]*0.33476]
G01 Z[-0.04000+#100]
G04 P0 ( dwell for no time -- G64 should not smooth over this point )
G01 F360.00000
#105=[#561+[#562-#561]*0.06859]
#106=[#567+[#568-#567]*0.06859]
#100=[#105+[#106-#105]*0.33278]
X-6.98779 Y-2.95054 Z[#100+-0.04000]
#105=[#561+[#562-#561]*0.04906]
#106=[#567+[#568-#567]*0.04906]
#100=[#105+[#106-#105]*0.32694]
X-6.99003 Y-2.95793 Z[#100+-0.04000]
#105=[#561+[#562-#561]*0.03109]
#106=[#567+[#568-#567]*0.03109]
#100=[#105+[#106-#105]*0.31746]
X-6.99367 Y-2.96473 Z[#100+-0.04000]
#105=[#561+[#562-#561]*0.01532]
#106=[#567+[#568-#567]*0.01532]
#100=[#105+[#106-#105]*0.30471]
X-6.99856 Y-2.97070 Z[#100+-0.04000]
#105=[#561+[#562-#561]*0.00000]
#106=[#567+[#568-#567]*0.00000]
#100=[#105+[#106-#105]*0.28961]
X-7.00435 Y-2.97650 Z[#100+-0.04000]
#100=[#560+[#561-#560]*0.70635]
X-7.11549 Y-3.08762 Z[#100+-0.04000]
#105=[#554+[#555-#554]*0.70162]
#106=[#560+[#561-#560]*0.70162]
#100=[#105+[#106-#105]*0.99534]
X-7.11728 Y-3.08941 Z[#100+-0.04000]
#100=[#560+[#561-#560]*0.69532]
X-7.11549 Y-3.09179 Z[#100+-0.04000]
#105=[#560+[#561-#560]*0.27046]
#106=[#566+[#567-#566]*0.27046]
#100=[#105+[#106-#105]*0.31425]
X-6.99490 Y-3.25257 Z[#100+-0.04000]
#105=[#560+[#561-#560]*0.25302]
#106=[#566+[#567-#566]*0.25302]
#100=[#105+[#106-#105]*0.32467]
X-6.99090 Y-3.25917 Z[#100+-0.04000]
#105=[#560+[#561-#560]*0.23387]
#106=[#566+[#567-#566]*0.23387]
#100=[#105+[#106-#105]*0.33155]
X-6.98826 Y-3.26642 Z[#100+-0.04000]
#105=[#560+[#561-#560]*0.21370]
#106=[#566+[#567-#566]*0.21370]
#100=[#105+[#106-#105]*0.33460]
X-6.98709 Y-3.27405 Z[#100+-0.04000]
#105=[#560+[#561-#560]*0.19333]
#106=[#566+[#567-#566]*0.19333]
#100=[#105+[#106-#105]*0.33372]
X-6.98743 Y-3.28176 Z[#100+-0.04000]
#105=[#560+[#561-#560]*0.17354]
#106=[#566+[#567-#566]*0.17354]
#100=[#105+[#106-#105]*0.32895]
X-6.98926 Y-3.28925 Z[#100+-0.04000]
#105=[#560+[#561-#560]*0.15504]
#106=[#566+[#567-#566]*0.15504]
#100=[#105+[#106-#105]*0.32045]
X-6.99252 Y-3.29625 Z[#100+-0.04000]
#105=[#560+[#561-#560]*0.13860]
#106=[#566+[#567-#566]*0.13860]
#100=[#105+[#106-#105]*0.30854]
X-6.99709 Y-3.30247 Z[#100+-0.04000]
#105=[#560+[#561-#560]*0.12481]
#106=[#566+[#567-#566]*0.12481]
#100=[#105+[#106-#105]*0.29372]
X-7.00278 Y-3.30769 Z[#100+-0.04000]
#105=[#560+[#561-#560]*0.11424]
#106=[#566+[#567-#566]*0.11424]
#100=[#105+[#106-#105]*0.27652]
X-7.00938 Y-3.31169 Z[#100+-0.04000]
#105=[#560+[#561-#560]*0.10726]
#106=[#566+[#567-#566]*0.10726]
#100=[#105+[#106-#105]*0.25762]
X-7.01663 Y-3.31433 Z[#100+-0.04000]
#105=[#560+[#561-#560]*0.10417]
#106=[#566+[#567-#566]*0.10417]
#100=[#105+[#106-#105]*0.23774]
X-7.02426 Y-3.31550 Z[#100+-0.04000]
#105=[#560+[#561-#560]*0.10507]
#106=[#566+[#567-#566]*0.10507]
#100=[#105+[#106-#105]*0.21765]
X-7.03197 Y-3.31516 Z[#100+-0.04000]
#105=[#560+[#561-#560]*0.10990]
#106=[#566+[#567-#566]*0.10990]
#100=[#105+[#106-#105]*0.19813]
X-7.03946 Y-3.31333 Z[#100+-0.04000]
#105=[#560+[#561-#560]*0.11852]
#106=[#566+[#567-#566]*0.11852]
#100=[#105+[#106-#105]*0.17989]
X-7.04646 Y-3.31007 Z[#100+-0.04000]
#105=[#560+[#561-#560]*0.13059]
#106=[#566+[#567-#566]*0.13059]
#100=[#105+[#106-#105]*0.16368]
X-7.05268 Y-3.30550 Z[#100+-0.04000]
#105=[#560+[#561-#560]*0.14563]
#106=[#566+[#567-#566]*0.14563]
#100=[#105+[#106-#105]*0.15008]
X-7.05790 Y-3.29981 Z[#100+-0.04000]
#100=[#560+[#561-#560]*0.34855]
X-7.11549 Y-3.22302 Z[#100+-0.04000]
#105=[#554+[#555-#554]*0.55301]
#106=[#560+[#561-#560]*0.55301]
#100=[#105+[#106-#105]*0.84879]
X-7.17352 Y-3.14565 Z[#100+-0.04000]
#105=[#554+[#555-#554]*0.54246]
#106=[#560+[#561-#560]*0.54246]
#100=[#105+[#106-#105]*0.83839]
X-7.17751 Y-3.14964 Z[#100+-0.04000]
#105=[#554+[#555-#554]*0.20805]
#106=[#560+[#561-#560]*0.20805]
#100=[#105+[#106-#105]*0.83839]
X-7.17751 Y-3.27619 Z[#100+-0.04000]
#105=[#554+[#555-#554]*0.18775]
#106=[#560+[#561-#560]*0.18775]
#100=[#105+[#106-#105]*0.83641]
X-7.17827 Y-3.28387 Z[#100+-0.04000]
#105=[#554+[#555-#554]*0.16822]
#106=[#560+[#561-#560]*0.16822]
#100=[#105+[#106-#105]*0.83057]
X-7.18051 Y-3.29126 Z[#100+-0.04000]
#105=[#554+[#555-#554]*0.15026]
#106=[#560+[#561-#560]*0.15026]
#100=[#105+[#106-#105]*0.82111]
X-7.18414 Y-3.29806 Z[#100+-0.04000]
#105=[#554+[#555-#554]*0.13448]
#106=[#560+[#561-#560]*0.13448]
#100=[#105+[#106-#105]*0.80834]
X-7.18904 Y-3.30403 Z[#100+-0.04000]
#105=[#554+[#555-#554]*0.12153]
#106=[#560+[#561-#560]*0.12153]
#100=[#105+[#106-#105]*0.79279]
X-7.19501 Y-3.30893 Z[#100+-0.04000]
#105=[#554+[#555-#554]*0.11194]
#106=[#560+[#561-#560]*0.11194]
#100=[#105+[#106-#105]*0.77507]
X-7.20181 Y-3.31256 Z[#100+-0.04000]
#105=[#554+[#555-#554]*0.10602]
#106=[#560+[#561-#560]*0.10602]
#100=[#105+[#106-#105]*0.75581]
X-7.20920 Y-3.31480 Z[#100+-0.04000]
#105=[#554+[#555-#554]*0.10401]
#106=[#560+[#561-#560]*0.10401]
#100=[#105+[#106-#105]*0.73580]
X-7.21688 Y-3.31556 Z[#100+-0.04000]
#105=[#554+[#555-#554]*0.10602]
#106=[#560+[#561-#560]*0.10602]
#100=[#105+[#106-#105]*0.71578]
X-7.22456 Y-3.31480 Z[#100+-0.04000]
#105=[#554+[#555-#554]*0.11194]
#106=[#560+[#561-#560]*0.11194]
#100=[#105+[#106-#105]*0.69652]
X-7.23195 Y-3.31256 Z[#100+-0.04000]
#105=[#554+[#555-#554]*0.12153]
#106=[#560+[#561-#560]*0.12153]
#100=[#105+[#106-#105]*0.67880]
X-7.23875 Y-3.30893 Z[#100+-0.04000]
#105=[#554+[#555-#554]*0.13448]
#106=[#560+[#561-#560]*0.13448]
#100=[#105+[#106-#105]*0.66325]
X-7.24472 Y-3.30403 Z[#100+-0.04000]
#105=[#554+[#555-#554]*0.15026]
#106=[#560+[#561-#560]*0.15026]
#100=[#105+[#106-#105]*0.65048]
X-7.24962 Y-3.29806 Z[#100+-0.04000]
#105=[#554+[#555-#554]*0.16822]
#106=[#560+[#561-#560]*0.16822]
#100=[#105+[#106-#105]*0.64102]
X-7.25325 Y-3.29126 Z[#100+-0.04000]
#105=[#554+[#555-#554]*0.18775]
#106=[#560+[#561-#560]*0.18775]
#100=[#105+[#106-#105]*0.63518]
X-7.25549 Y-3.28387 Z[#100+-0.04000]
#105=[#554+[#555-#554]*0.20805]
#106=[#560+[#561-#560]*0.20805]
#100=[#105+[#106-#105]*0.63320]
X-7.25625 Y-3.27619 Z[#100+-0.04000]
#105=[#555+[#556-#555]*0.00000]
#106=[#561+[#562-#561]*0.00000]
#100=[#105+[#106-#105]*0.63320]
X-7.25625 Y-2.97650 Z[#100+-0.04000]
#105=[#555+[#556-#555]*0.52932]
#106=[#561+[#562-#561]*0.52932]
#100=[#105+[#106-#105]*0.63320]
X-7.25625 Y-2.77619 Z[#100+-0.04000]
#105=[#555+[#556-#555]*0.54961]
#106=[#561+[#562-#561]*0.54961]
#100=[#105+[#106-#105]*0.63518]
X-7.25549 Y-2.76851 Z[#100+-0.04000]
#105=[#555+[#556-#555]*0.56914]
#106=[#561+[#562-#561]*0.56914]
#100=[#105+[#106-#105]*0.64102]
X-7.25325 Y-2.76112 Z[#100+-0.04000]
#105=[#555+[#556-#555]*0.58711]
#106=[#561+[#562-#561]*0.58711]
#100=[#105+[#106-#105]*0.65048]
X-7.24962 Y-2.75432 Z[#100+-0.04000]
#105=[#555+[#556-#555]*0.60289]
#106=[#561+[#562-#561]*0.60289]
#100=[#105+[#106-#105]*0.66325]
X-7.24472 Y-2.74835 Z[#100+-0.04000]
#105=[#555+[#556-#555]*0.61584]
#106=[#561+[#562-#561]*0.61584]
#100=[#105+[#106-#105]*0.67880]
X-7.23875 Y-2.74345 Z[#100+-0.04000]
#105=[#555+[#556-#555]*0.62543]
#106=[#561+[#562-#561]*0.62543]
#100=[#105+[#106-#105]*0.69652]
X-7.23195 Y-2.73982 Z[#100+-0.04000]
#105=[#555+[#556-#555]*0.63135]
#106=[#561+[#562-#561]*0.63135]
#100=[#105+[#106-#105]*0.71578]
X-7.22456 Y-2.73758 Z[#100+-0.04000]
#105=[#555+[#556-#555]*0.63336]
#106=[#561+[#562-#561]*0.63336]
#100=[#105+[#106-#105]*0.73580]
X-7.21688 Y-2.73682 Z[#100+-0.04000]
#105=[#555+[#556-#555]*0.63135]
#106=[#561+[#562-#561]*0.63135]
#100=[#105+[#106-#105]*0.75581]
X-7.20920 Y-2.73758 Z[#100+-0.04000]
#105=[#555+[#556-#555]*0.62543]
#106=[#561+[#562-#561]*0.62543]
#100=[#105+[#106-#105]*0.77507]
X-7.20181 Y-2.73982 Z[#100+-0.04000]
#105=[#555+[#556-#555]*0.61584]
#106=[#561+[#562-#561]*0.61584]
#100=[#105+[#106-#105]*0.79279]
X-7.19501 Y-2.74345 Z[#100+-0.04000]
#105=[#555+[#556-#555]*0.60289]
#106=[#561+[#562-#561]*0.60289]
#100=[#105+[#106-#105]*0.80834]
X-7.18904 Y-2.74835 Z[#100+-0.04000]
#105=[#555+[#556-#555]*0.58711]
#106=[#561+[#562-#561]*0.58711]
#100=[#105+[#106-#105]*0.82111]
X-7.18414 Y-2.75432 Z[#100+-0.04000]
#105=[#555+[#556-#555]*0.56914]
#106=[#561+[#562-#561]*0.56914]
#100=[#105+[#106-#105]*0.83057]
X-7.18051 Y-2.76112 Z[#100+-0.04000]
#105=[#555+[#556-#555]*0.54961]
#106=[#561+[#562-#561]*0.54961]
#100=[#105+[#106-#105]*0.83641]
X-7.17827 Y-2.76851 Z[#100+-0.04000]
#105=[#555+[#556-#555]*0.52932]
#106=[#561+[#562-#561]*0.52932]
#100=[#105+[#106-#105]*0.83839]
X-7.17751 Y-2.77619 Z[#100+-0.04000]
#105=[#555+[#556-#555]*0.00000]
#106=[#561+[#562-#561]*0.00000]
#100=[#105+[#106-#105]*0.83839]
X-7.17751 Y-2.97650 Z[#100+-0.04000]
#105=[#554+[#555-#554]*0.83674]
#106=[#560+[#561-#560]*0.83674]
#100=[#105+[#106-#105]*0.83839]
X-7.17751 Y-3.03828 Z[#100+-0.04000]
#105=[#555+[#556-#555]*0.00000]
#106=[#561+[#562-#561]*0.00000]
#100=[#105+[#106-#105]*0.99940]
X-7.11572 Y-2.97650 Z[#100+-0.04000]
#100=[#561+[#562-#561]*0.00061]
X-7.11549 Y-2.97627 Z[#100+-0.04000]
#105=[#561+[#562-#561]*0.16246]
#106=[#567+[#568-#567]*0.16246]
#100=[#105+[#106-#105]*0.15962]
X-7.05424 Y-2.91502 Z[#100+-0.04000]
#105=[#561+[#562-#561]*0.17540]
#106=[#567+[#568-#567]*0.17540]
#100=[#105+[#106-#105]*0.17517]
X-7.04827 Y-2.91012 Z[#100+-0.04000]
#105=[#561+[#562-#561]*0.18500]
#106=[#567+[#568-#567]*0.18500]
#100=[#105+[#106-#105]*0.19289]
X-7.04147 Y-2.90649 Z[#100+-0.04000]
#105=[#561+[#562-#561]*0.19092]
#106=[#567+[#568-#567]*0.19092]
#100=[#105+[#106-#105]*0.21215]
X-7.03408 Y-2.90425 Z[#100+-0.04000]
#105=[#561+[#562-#561]*0.19292]
#106=[#567+[#568-#567]*0.19292]
#100=[#105+[#106-#105]*0.23216]
X-7.02640 Y-2.90349 Z[#100+-0.04000]
#105=[#561+[#562-#561]*0.19092]
#106=[#567+[#568-#567]*0.19092]
#100=[#105+[#106-#105]*0.25218]
X-7.01872 Y-2.90425 Z[#100+-0.04000]
#105=[#561+[#562-#561]*0.18500]
#106=[#567+[#568-#567]*0.18500]
#100=[#105+[#106-#105]*0.27144]
X-7.01133 Y-2.90649 Z[#100+-0.04000]
#105=[#561+[#562-#561]*0.17538]
#106=[#567+[#568-#567]*0.17538]
#100=[#105+[#106-#105]*0.28916]
X-7.00453 Y-2.91013 Z[#100+-0.04000]
#105=[#561+[#562-#561]*0.16246]
#106=[#567+[#568-#567]*0.16246]
#100=[#105+[#106-#105]*0.30471]
X-6.99856 Y-2.91502 Z[#100+-0.04000]
#105=[#561+[#562-#561]*0.14668]
#106=[#567+[#568-#567]*0.14668]
#100=[#105+[#106-#105]*0.31748]
X-6.99366 Y-2.92099 Z[#100+-0.04000]
#105=[#561+[#562-#561]*0.12871]
#106=[#567+[#568-#567]*0.12871]
#100=[#105+[#106-#105]*0.32694]
X-6.99003 Y-2.92779 Z[#100+-0.04000]
#105=[#561+[#562-#561]*0.10918]
#106=[#567+[#568-#567]*0.10918]
#100=[#105+[#106-#105]*0.33278]
X-6.98779 Y-2.93518 Z[#100+-0.04000]
#105=[#561+[#562-#561]*0.08889]
#106=[#567+[#568-#567]*0.08889]
#100=[#105+[#106-#105]*0.33476]
X-6.98703 Y-2.94286 Z[#100+-0.04000]
G04 P0 ( dwell for no time -- G64 should not smooth over this point )
G00 Z0.08000 ( retract )

G00 X-7.39189 Y-3.24959 ( rapid move to begin. )
G01 F180.00000
( Mill infeed pass 1/1 )
#105=[#554+[#555-#554]*0.27834]
#106=[#560+[#561-#560]*0.27834]
#100=[#105+[#106-#105]*0.27974]
G01 Z[-0.04000+#100]
G04 P0 ( dwell for no time -- G64 should not smooth over this point )
G01 F360.00000
#105=[#554+[#555-#554]*0.25797]
#106=[#560+[#561-#560]*0.25797]
#100=[#105+[#106-#105]*0.27919]
X-7.39210 Y-3.25730 Z[#100+-0.04000]
#105=[#554+[#555-#554]*0.23807]
#106=[#560+[#561-#560]*0.23807]
#100=[#105+[#106-#105]*0.27474]
X-7.39381 Y-3.26483 Z[#100+-0.04000]
#105=[#554+[#555-#554]*0.21944]
#106=[#560+[#561-#560]*0.21944]
#100=[#105+[#106-#105]*0.26653]
X-7.39696 Y-3.27188 Z[#100+-0.04000]
#105=[#554+[#555-#554]*0.20279]
#106=[#560+[#561-#560]*0.20279]
#100=[#105+[#106-#105]*0.25490]
X-7.40142 Y-3.27818 Z[#100+-0.04000]
#105=[#554+[#555-#554]*0.18878]
#106=[#560+[#561-#560]*0.18878]
#100=[#105+[#106-#105]*0.24031]
X-7.40702 Y-3.28348 Z[#100+-0.04000]
#105=[#554+[#555-#554]*0.17792]
#106=[#560+[#561-#560]*0.17792]
#100=[#105+[#106-#105]*0.22330]
X-7.41355 Y-3.28759 Z[#100+-0.04000]
#105=[#554+[#555-#554]*0.11500]
#106=[#560+[#561-#560]*0.11500]
#100=[#105+[#106-#105]*0.09920]
X-7.46117 Y-3.31140 Z[#100+-0.04000]
#105=[#554+[#555-#554]*0.10679]
#106=[#560+[#561-#560]*0.10679]
#100=[#105+[#106-#105]*0.07690]
X-7.46973 Y-3.31451 Z[#100+-0.04000]
#105=[#554+[#555-#554]*0.10401]
#106=[#560+[#561-#560]*0.10401]
#100=[#105+[#106-#105]*0.05331]
X-7.47878 Y-3.31556 Z[#100+-0.04000]
#105=[#554+[#555-#554]*0.10401]
#106=[#560+[#561-#560]*0.10401]
#100=[#105+[#106-#105]*0.00000]
X-7.49923 Y-3.31556 Z[#100+-0.04000]
#105=[#548+[#549-#548]*0.10401]
#106=[#554+[#555-#554]*0.10401]
#100=[#105+[#106-#105]*0.80513]
X-7.57402 Y-3.31556 Z[#100+-0.04000]
#105=[#548+[#549-#548]*0.10679]
#106=[#554+[#555-#554]*0.10679]
#100=[#105+[#106-#105]*0.78154]
X-7.58307 Y-3.31451 Z[#100+-0.04000]
#105=[#548+[#549-#548]*0.11500]
#106=[#554+[#555-#554]*0.11500]
#100=[#105+[#106-#105]*0.75924]
X-7.59163 Y-3.31140 Z[#100+-0.04000]
#105=[#548+[#549-#548]*0.17792]
#106=[#554+[#555-#554]*0.17792]
#100=[#105+[#106-#105]*0.63515]
X-7.63925 Y-3.28759 Z[#100+-0.04000]
#105=[#548+[#549-#548]*0.18656]
#106=[#554+[#555-#554]*0.18656]
#100=[#105+[#106-#105]*0.62105]
X-7.64466 Y-3.28432 Z[#100+-0.04000]
#105=[#548+[#549-#548]*0.19740]
#106=[#554+[#555-#554]*0.19740]
#100=[#105+[#106-#105]*0.60849]
X-7.64948 Y-3.28022 Z[#100+-0.04000]
#105=[#548+[#549-#548]*0.26032]
#106=[#554+[#555-#554]*0.26032]
#100=[#105+[#106-#105]*0.54644]
X-7.67329 Y-3.25641 Z[#100+-0.04000]
#105=[#548+[#549-#548]*0.27305]
#106=[#554+[#555-#554]*0.27305]
#100=[#105+[#106-#105]*0.53576]
X-7.67739 Y-3.25159 Z[#100+-0.04000]
#105=[#548+[#549-#548]*0.28735]
#106=[#554+[#555-#554]*0.28735]
#100=[#105+[#106-#105]*0.52724]
X-7.68066 Y-3.24618 Z[#100+-0.04000]
#105=[#548+[#549-#548]*0.41319]
#106=[#554+[#555-#554]*0.41319]
#100=[#105+[#106-#105]*0.46519]
X-7.70447 Y-3.19856 Z[#100+-0.04000]
#105=[#548+[#549-#548]*0.43581]
#106=[#554+[#555-#554]*0.43581]
#100=[#105+[#106-#105]*0.45709]
X-7.70758 Y-3.19000 Z[#100+-0.04000]
#105=[#548+[#549-#548]*0.45972]
#106=[#554+[#555-#554]*0.45972]
#100=[#105+[#106-#105]*0.45435]
X-7.70863 Y-3.18095 Z[#100+-0.04000]
#105=[#548+[#549-#548]*0.83721]
#106=[#554+[#555-#554]*0.83721]
#100=[#105+[#106-#105]*0.45435]
X-7.70863 Y-3.03810 Z[#100+-0.04000]
#105=[#548+[#549-#548]*0.86113]
#106=[#554+[#555-#554]*0.86113]
#100=[#105+[#106-#105]*0.45709]
X-7.70758 Y-3.02905 Z[#100+-0.04000]
#105=[#548+[#549-#548]*0.88375]
#106=[#554+[#555-#554]*0.88375]
#100=[#105+[#106-#105]*0.46519]
X-7.70447 Y-3.02049 Z[#100+-0.04000]
#105=[#549+[#550-#549]*0.00000]
#106=[#555+[#556-#555]*0.00000]
#100=[#105+[#106-#105]*0.52251]
X-7.68247 Y-2.97650 Z[#100+-0.04000]
#105=[#549+[#550-#549]*0.00958]
#106=[#555+[#556-#555]*0.00958]
#100=[#105+[#106-#105]*0.52724]
X-7.68066 Y-2.97287 Z[#100+-0.04000]
#105=[#549+[#550-#549]*0.02388]
#106=[#555+[#556-#555]*0.02388]
#100=[#105+[#106-#105]*0.53576]
X-7.67739 Y-2.96746 Z[#100+-0.04000]
#105=[#549+[#550-#549]*0.03662]
#106=[#555+[#556-#555]*0.03662]
#100=[#105+[#106-#105]*0.54644]
X-7.67329 Y-2.96264 Z[#100+-0.04000]
#105=[#549+[#550-#549]*0.09954]
#106=[#555+[#556-#555]*0.09954]
#100=[#105+[#106-#105]*0.60849]
X-7.64948 Y-2.93883 Z[#100+-0.04000]
#105=[#549+[#550-#549]*0.11037]
#106=[#555+[#556-#555]*0.11037]
#100=[#105+[#106-#105]*0.62105]
X-7.64466 Y-2.93473 Z[#100+-0.04000]
#105=[#549+[#550-#549]*0.11901]
#106=[#555+[#556-#555]*0.11901]
#100=[#105+[#106-#105]*0.63515]
X-7.63925 Y-2.93146 Z[#100+-0.04000]
#105=[#549+[#550-#549]*0.18193]
#106=[#555+[#556-#555]*0.18193]
#100=[#105+[#106-#105]*0.75924]
X-7.59163 Y-2.90765 Z[#100+-0.04000]
#105=[#549+[#550-#549]*0.19015]
#106=[#555+[#556-#555]*0.19015]
#100=[#105+[#106-#105]*0.78154]
X-7.58307 Y-2.90454 Z[#100+-0.04000]
#105=[#549+[#550-#549]*0.19292]
#106=[#555+[#556-#555]*0.19292]
#100=[#105+[#106-#105]*0.80513]
X-7.57402 Y-2.90349 Z[#100+-0.04000]
#105=[#555+[#556-#555]*0.19292]
#106=[#561+[#562-#561]*0.19292]
#100=[#105+[#106-#105]*0.00000]
X-7.49923 Y-2.90349 Z[#100+-0.04000]
#105=[#555+[#556-#555]*0.19292]
#106=[#561+[#562-#561]*0.19292]
#100=[#105+[#106-#105]*0.05331]
X-7.47878 Y-2.90349 Z[#100+-0.04000]
#105=[#555+[#556-#555]*0.19015]
#106=[#561+[#562-#561]*0.19015]
#100=[#105+[#106-#105]*0.07690]
X-7.46973 Y-2.90454 Z[#100+-0.04000]
#105=[#555+[#556-#555]*0.18193]
#106=[#561+[#562-#561]*0.18193]
#100=[#105+[#106-#105]*0.09920]
X-7.46117 Y-2.90765 Z[#100+-0.04000]
#105=[#555+[#556-#555]*0.11901]
#106=[#561+[#562-#561]*0.11901]
#100=[#105+[#106-#105]*0.22330]
X-7.41355 Y-2.93146 Z[#100+-0.04000]
#105=[#555+[#556-#555]*0.10815]
#106=[#561+[#562-#561]*0.10815]
#100=[#105+[#106-#105]*0.24031]
X-7.40702 Y-2.93557 Z[#100+-0.04000]
#105=[#555+[#556-#555]*0.09415]
#106=[#561+[#562-#561]*0.09415]
#100=[#105+[#106-#105]*0.25490]
X-7.40142 Y-2.94087 Z[#100+-0.04000]
#105=[#555+[#556-#555]*0.07750]
#106=[#561+[#562-#561]*0.07750]
#100=[#105+[#106-#105]*0.26653]
X-7.39696 Y-2.94717 Z[#100+-0.04000]
#105=[#555+[#556-#555]*0.05887]
#106=[#561+[#562-#561]*0.05887]
#100=[#105+[#106-#105]*0.27474]
X-7.39381 Y-2.95422 Z[#100+-0.04000]
#105=[#555+[#556-#555]*0.03897]
#106=[#561+[#562-#561]*0.03897]
#100=[#105+[#106-#105]*0.27919]
X-7.39210 Y-2.96175 Z[#100+-0.04000]
#105=[#555+[#556-#555]*0.01860]
#106=[#561+[#562-#561]*0.01860]
#100=[#105+[#106-#105]*0.27974]
X-7.39189 Y-2.96946 Z[#100+-0.04000]
#105=[#555+[#556-#555]*0.00000]
#106=[#561+[#562-#561]*0.00000]
#100=[#105+[#106-#105]*0.27661]
X-7.39309 Y-2.97650 Z[#100+-0.04000]
#105=[#554+[#555-#554]*0.99849]
#106=[#560+[#561-#560]*0.99849]
#100=[#105+[#106-#105]*0.27635]
X-7.39319 Y-2.97707 Z[#100+-0.04000]
#105=[#554+[#555-#554]*0.97943]
#106=[#560+[#561-#560]*0.97943]
#100=[#105+[#106-#105]*0.26916]
X-7.39595 Y-2.98428 Z[#100+-0.04000]
#105=[#554+[#555-#554]*0.96218]
#106=[#560+[#561-#560]*0.96218]
#100=[#105+[#106-#105]*0.25845]
X-7.40006 Y-2.99081 Z[#100+-0.04000]
#105=[#554+[#555-#554]*0.94738]
#106=[#560+[#561-#560]*0.94738]
#100=[#105+[#106-#105]*0.24464]
X-7.40536 Y-2.99641 Z[#100+-0.04000]
#105=[#554+[#555-#554]*0.93559]
#106=[#560+[#561-#560]*0.93559]
#100=[#105+[#106-#105]*0.22822]
X-7.41166 Y-3.00087 Z[#100+-0.04000]
#105=[#554+[#555-#554]*0.92727]
#106=[#560+[#561-#560]*0.92727]
#100=[#105+[#106-#105]*0.20985]
X-7.41871 Y-3.00402 Z[#100+-0.04000]
#105=[#554+[#555-#554]*0.92275]
#106=[#560+[#561-#560]*0.92275]
#100=[#105+[#106-#105]*0.19023]
X-7.42624 Y-3.00573 Z[#100+-0.04000]
#105=[#554+[#555-#554]*0.92220]
#106=[#560+[#561-#560]*0.92220]
#100=[#105+[#106-#105]*0.17013]
X-7.43395 Y-3.00594 Z[#100+-0.04000]
#105=[#554+[#555-#554]*0.92563]
#106=[#560+[#561-#560]*0.92563]
#100=[#105+[#106-#105]*0.15030]
X-7.44156 Y-3.00464 Z[#100+-0.04000]
#105=[#554+[#555-#554]*0.93292]
#106=[#560+[#561-#560]*0.93292]
#100=[#105+[#106-#105]*0.13152]
X-7.44877 Y-3.00188 Z[#100+-0.04000]
#105=[#554+[#555-#554]*0.98485]
#106=[#560+[#561-#560]*0.98485]
#100=[#105+[#106-#105]*0.02910]
X-7.48807 Y-2.98223 Z[#100+-0.04000]
#105=[#554+[#555-#554]*0.98485]
#106=[#560+[#561-#560]*0.98485]
#100=[#105+[#106-#105]*0.00000]
X-7.49923 Y-2.98223 Z[#100+-0.04000]
#105=[#548+[#549-#548]*0.98485]
#106=[#554+[#555-#554]*0.98485]
#100=[#105+[#106-#105]*0.82934]
X-7.56473 Y-2.98223 Z[#100+-0.04000]
#105=[#548+[#549-#548]*0.94046]
#106=[#554+[#555-#554]*0.94046]
#100=[#105+[#106-#105]*0.74181]
X-7.59832 Y-2.99903 Z[#100+-0.04000]
#105=[#548+[#549-#548]*0.90142]
#106=[#554+[#555-#554]*0.90142]
#100=[#105+[#106-#105]*0.70332]
X-7.61309 Y-3.01380 Z[#100+-0.04000]
#105=[#548+[#549-#548]*0.81266]
#106=[#554+[#555-#554]*0.81266]
#100=[#105+[#106-#105]*0.65954]
X-7.62989 Y-3.04739 Z[#100+-0.04000]
#105=[#548+[#549-#548]*0.48427]
#106=[#554+[#555-#554]*0.48427]
#100=[#105+[#106-#105]*0.65954]
X-7.62989 Y-3.17166 Z[#100+-0.04000]
#105=[#548+[#549-#548]*0.39551]
#106=[#554+[#555-#554]*0.39551]
#100=[#105+[#106-#105]*0.70332]
X-7.61309 Y-3.20525 Z[#100+-0.04000]
#105=[#548+[#549-#548]*0.35648]
#106=[#554+[#555-#554]*0.35648]
#100=[#105+[#106-#105]*0.74181]
X-7.59832 Y-3.22002 Z[#100+-0.04000]
#105=[#548+[#549-#548]*0.31208]
#106=[#554+[#555-#554]*0.31208]
#100=[#105+[#106-#105]*0.82934]
X-7.56473 Y-3.23682 Z[#100+-0.04000]
#105=[#554+[#555-#554]*0.31208]
#106=[#560+[#561-#560]*0.31208]
#100=[#105+[#106-#105]*0.00000]
X-7.49923 Y-3.23682 Z[#100+-0.04000]
#105=[#554+[#555-#554]*0.31208]
#106=[#560+[#561-#560]*0.31208]
#100=[#105+[#106-#105]*0.02910]
X-7.48807 Y-3.23682 Z[#100+-0.04000]
#105=[#554+[#555-#554]*0.36401]
#106=[#560+[#561-#560]*0.36401]
#100=[#105+[#106-#105]*0.13152]
X-7.44877 Y-3.21717 Z[#100+-0.04000]
#105=[#554+[#555-#554]*0.37130]
#106=[#560+[#561-#560]*0.37130]
#100=[#105+[#106-#105]*0.15030]
X-7.44156 Y-3.21441 Z[#100+-0.04000]
#105=[#554+[#555-#554]*0.37474]
#106=[#560+[#561-#560]*0.37474]
#100=[#105+[#106-#105]*0.17013]
X-7.43395 Y-3.21311 Z[#100+-0.04000]
#105=[#554+[#555-#554]*0.37418]
#106=[#560+[#561-#560]*0.37418]
#100=[#105+[#106-#105]*0.19023]
X-7.42624 Y-3.21332 Z[#100+-0.04000]
#105=[#554+[#555-#554]*0.36967]
#106=[#560+[#561-#560]*0.36967]
#100=[#105+[#106-#105]*0.20985]
X-7.41871 Y-3.21503 Z[#100+-0.04000]
#105=[#554+[#555-#554]*0.36134]
#106=[#560+[#561-#560]*0.36134]
#100=[#105+[#106-#105]*0.22822]
X-7.41166 Y-3.21818 Z[#100+-0.04000]
#105=[#554+[#555-#554]*0.34956]
#106=[#560+[#561-#560]*0.34956]
#100=[#105+[#106-#105]*0.24464]
X-7.40536 Y-3.22264 Z[#100+-0.04000]
#105=[#554+[#555-#554]*0.33476]
#106=[#560+[#561-#560]*0.33476]
#100=[#105+[#106-#105]*0.25845]
X-7.40006 Y-3.22824 Z[#100+-0.04000]
#105=[#554+[#555-#554]*0.31750]
#106=[#560+[#561-#560]*0.31750]
#100=[#105+[#106-#105]*0.26916]
X-7.39595 Y-3.23477 Z[#100+-0.04000]
#105=[#554+[#555-#554]*0.29845]
#106=[#560+[#561-#560]*0.29845]
#100=[#105+[#106-#105]*0.27635]
X-7.39319 Y-3.24198 Z[#100+-0.04000]
#105=[#554+[#555-#554]*0.27834]
#106=[#560+[#561-#560]*0.27834]
#100=[#105+[#106-#105]*0.27974]
X-7.39189 Y-3.24959 Z[#100+-0.04000]
G04 P0 ( dwell for no time -- G64 should not smooth over this point )
G00 Z0.08000 ( retract )

G00 X-7.84417 Y-3.27619 ( rapid move to begin. )
G01 F180.00000
( Mill infeed pass 1/1 )
#105=[#548+[#549-#548]*0.20805]
#106=[#554+[#555-#554]*0.20805]
#100=[#105+[#106-#105]*0.10115]
G01 Z[-0.04000+#100]
G04 P0 ( dwell for no time -- G64 should not smooth over this point )
G01 F360.00000
#105=[#548+[#549-#548]*0.90013]
#106=[#554+[#555-#554]*0.90013]
#100=[#105+[#106-#105]*0.10115]
X-7.84417 Y-3.01429 Z[#100+-0.04000]
#105=[#548+[#549-#548]*0.92404]
#106=[#554+[#555-#554]*0.92404]
#100=[#105+[#106-#105]*0.09841]
X-7.84522 Y-3.00524 Z[#100+-0.04000]
#105=[#548+[#549-#548]*0.94667]
#106=[#554+[#555-#554]*0.94667]
#100=[#105+[#106-#105]*0.09031]
X-7.84833 Y-2.99668 Z[#100+-0.04000]
#105=[#549+[#550-#549]*0.00000]
#106=[#555+[#556-#555]*0.00000]
#100=[#105+[#106-#105]*0.06401]
X-7.85842 Y-2.97650 Z[#100+-0.04000]
#105=[#549+[#550-#549]*0.07250]
#106=[#555+[#556-#555]*0.07250]
#100=[#105+[#106-#105]*0.02826]
X-7.87214 Y-2.94906 Z[#100+-0.04000]
#105=[#549+[#550-#549]*0.09124]
#106=[#555+[#556-#555]*0.09124]
#100=[#105+[#106-#105]*0.01640]
X-7.87669 Y-2.94197 Z[#100+-0.04000]
#105=[#549+[#550-#549]*0.10699]
#106=[#555+[#556-#555]*0.10699]
#100=[#105+[#106-#105]*0.00087]
X-7.88265 Y-2.93601 Z[#100+-0.04000]
#100=[#549+[#550-#549]*0.10756]
X-7.88298 Y-2.93580 Z[#100+-0.04000]
#105=[#543+[#544-#543]*0.11901]
#106=[#549+[#550-#549]*0.11901]
#100=[#105+[#106-#105]*0.98240]
X-7.88974 Y-2.93146 Z[#100+-0.04000]
#105=[#543+[#544-#543]*0.18193]
#106=[#549+[#550-#549]*0.18193]
#100=[#105+[#106-#105]*0.85830]
X-7.93736 Y-2.90765 Z[#100+-0.04000]
#105=[#543+[#544-#543]*0.19015]
#106=[#549+[#550-#549]*0.19015]
#100=[#105+[#106-#105]*0.83600]
X-7.94592 Y-2.90454 Z[#100+-0.04000]
#105=[#543+[#544-#543]*0.19292]
#106=[#549+[#550-#549]*0.19292]
#100=[#105+[#106-#105]*0.81242]
X-7.95497 Y-2.90349 Z[#100+-0.04000]
#105=[#543+[#544-#543]*0.19292]
#106=[#549+[#550-#549]*0.19292]
#100=[#105+[#106-#105]*0.56423]
X-8.05021 Y-2.90349 Z[#100+-0.04000]
#105=[#543+[#544-#543]*0.19015]
#106=[#549+[#550-#549]*0.19015]
#100=[#105+[#106-#105]*0.54065]
X-8.05926 Y-2.90454 Z[#100+-0.04000]
#105=[#543+[#544-#543]*0.18193]
#106=[#549+[#550-#549]*0.18193]
#100=[#105+[#106-#105]*0.51834]
X-8.06782 Y-2.90765 Z[#100+-0.04000]
#105=[#543+[#544-#543]*0.11901]
#106=[#549+[#550-#549]*0.11901]
#100=[#105+[#106-#105]*0.39425]
X-8.11544 Y-2.93146 Z[#100+-0.04000]
#105=[#543+[#544-#543]*0.10815]
#106=[#549+[#550-#549]*0.10815]
#100=[#105+[#106-#105]*0.37723]
X-8.12197 Y-2.93557 Z[#100+-0.04000]
#105=[#543+[#544-#543]*0.09415]
#106=[#549+[#550-#549]*0.09415]
#100=[#105+[#106-#105]*0.36264]
X-8.12757 Y-2.94087 Z[#100+-0.04000]
#105=[#543+[#544-#543]*0.07750]
#106=[#549+[#550-#549]*0.07750]
#100=[#105+[#106-#105]*0.35102]
X-8.13203 Y-2.94717 Z[#100+-0.04000]
#105=[#543+[#544-#543]*0.05887]
#106=[#549+[#550-#549]*0.05887]
#100=[#105+[#106-#105]*0.34281]
X-8.13518 Y-2.95422 Z[#100+-0.04000]
#105=[#543+[#544-#543]*0.03897]
#106=[#549+[#550-#549]*0.03897]
#100=[#105+[#106-#105]*0.33835]
X-8.13689 Y-2.96175 Z[#100+-0.04000]
#105=[#543+[#544-#543]*0.01860]
#106=[#549+[#550-#549]*0.01860]
#100=[#105+[#106-#105]*0.33780]
X-8.13710 Y-2.96946 Z[#100+-0.04000]
#105=[#543+[#544-#543]*0.00000]
#106=[#549+[#550-#549]*0.00000]
#100=[#105+[#106-#105]*0.34094]
X-8.13589 Y-2.97650 Z[#100+-0.04000]
#105=[#542+[#543-#542]*0.99849]
#106=[#548+[#549-#548]*0.99849]
#100=[#105+[#106-#105]*0.34119]
X-8.13580 Y-2.97707 Z[#100+-0.04000]
#105=[#542+[#543-#542]*0.97943]
#106=[#548+[#549-#548]*0.97943]
#100=[#105+[#106-#105]*0.34838]
X-8.13304 Y-2.98428 Z[#100+-0.04000]
#105=[#542+[#543-#542]*0.96218]
#106=[#548+[#549-#548]*0.96218]
#100=[#105+[#106-#105]*0.35909]
X-8.12893 Y-2.99081 Z[#100+-0.04000]
#105=[#542+[#543-#542]*0.94738]
#106=[#548+[#549-#548]*0.94738]
#100=[#105+[#106-#105]*0.37291]
X-8.12363 Y-2.99641 Z[#100+-0.04000]
#105=[#542+[#543-#542]*0.93559]
#106=[#548+[#549-#548]*0.93559]
#100=[#105+[#106-#105]*0.38932]
X-8.11733 Y-3.00087 Z[#100+-0.04000]
#105=[#542+[#543-#542]*0.92727]
#106=[#548+[#549-#548]*0.92727]
#100=[#105+[#106-#105]*0.40769]
X-8.11028 Y-3.00402 Z[#100+-0.04000]
#105=[#542+[#543-#542]*0.92275]
#106=[#548+[#549-#548]*0.92275]
#100=[#105+[#106-#105]*0.42732]
X-8.10275 Y-3.00573 Z[#100+-0.04000]
#105=[#542+[#543-#542]*0.92220]
#106=[#548+[#549-#548]*0.92220]
#100=[#105+[#106-#105]*0.44741]
X-8.09504 Y-3.00594 Z[#100+-0.04000]
#105=[#542+[#543-#542]*0.92563]
#106=[#548+[#549-#548]*0.92563]
#100=[#105+[#106-#105]*0.46724]
X-8.08743 Y-3.00464 Z[#100+-0.04000]
#105=[#542+[#543-#542]*0.93292]
#106=[#548+[#549-#548]*0.93292]
#100=[#105+[#106-#105]*0.48603]
X-8.08022 Y-3.00188 Z[#100+-0.04000]
#105=[#542+[#543-#542]*0.98485]
#106=[#548+[#549-#548]*0.98485]
#100=[#105+[#106-#105]*0.58844]
X-8.04092 Y-2.98223 Z[#100+-0.04000]
#105=[#542+[#543-#542]*0.98485]
#106=[#548+[#549-#548]*0.98485]
#100=[#105+[#106-#105]*0.78821]
X-7.96426 Y-2.98223 Z[#100+-0.04000]
#105=[#542+[#543-#542]*0.94844]
#106=[#548+[#549-#548]*0.94844]
#100=[#105+[#106-#105]*0.86005]
X-7.93669 Y-2.99601 Z[#100+-0.04000]
#105=[#542+[#543-#542]*0.87558]
#106=[#548+[#549-#548]*0.87558]
#100=[#105+[#106-#105]*0.89596]
X-7.92291 Y-3.02358 Z[#100+-0.04000]
#105=[#542+[#543-#542]*0.83861]
#106=[#548+[#549-#548]*0.83861]
#100=[#105+[#106-#105]*0.89596]
X-7.92291 Y-3.03757 Z[#100+-0.04000]
#105=[#542+[#543-#542]*0.81544]
#106=[#548+[#549-#548]*0.81544]
#100=[#105+[#106-#105]*0.85025]
X-7.94045 Y-3.04634 Z[#100+-0.04000]
#105=[#542+[#543-#542]*0.81544]
#106=[#548+[#549-#548]*0.81544]
#100=[#105+[#106-#105]*0.56423]
X-8.05021 Y-3.04634 Z[#100+-0.04000]
#105=[#542+[#543-#542]*0.81266]
#106=[#548+[#549-#548]*0.81266]
#100=[#105+[#106-#105]*0.54065]
X-8.05926 Y-3.04739 Z[#100+-0.04000]
#105=[#542+[#543-#542]*0.80444]
#106=[#548+[#549-#548]*0.80444]
#100=[#105+[#106-#105]*0.51834]
X-8.06782 Y-3.05050 Z[#100+-0.04000]
#105=[#542+[#543-#542]*0.74152]
#106=[#548+[#549-#548]*0.74152]
#100=[#105+[#106-#105]*0.39425]
X-8.11544 Y-3.07431 Z[#100+-0.04000]
#105=[#542+[#543-#542]*0.72950]
#106=[#548+[#549-#548]*0.72950]
#100=[#105+[#106-#105]*0.37577]
X-8.12253 Y-3.07886 Z[#100+-0.04000]
#105=[#542+[#543-#542]*0.71375]
#106=[#548+[#549-#548]*0.71375]
#100=[#105+[#106-#105]*0.36024]
X-8.12849 Y-3.08482 Z[#100+-0.04000]
#105=[#542+[#543-#542]*0.69502]
#106=[#548+[#549-#548]*0.69502]
#100=[#105+[#106-#105]*0.34838]
X-8.13304 Y-3.09191 Z[#100+-0.04000]
#105=[#542+[#543-#542]*0.56918]
#106=[#548+[#549-#548]*0.56918]
#100=[#105+[#106-#105]*0.28634]
X-8.15685 Y-3.13953 Z[#100+-0.04000]
#105=[#542+[#543-#542]*0.54656]
#106=[#548+[#549-#548]*0.54656]
#100=[#105+[#106-#105]*0.27823]
X-8.15996 Y-3.14809 Z[#100+-0.04000]
#105=[#542+[#543-#542]*0.52264]
#106=[#548+[#549-#548]*0.52264]
#100=[#105+[#106-#105]*0.27550]
X-8.16101 Y-3.15714 Z[#100+-0.04000]
#105=[#542+[#543-#542]*0.39680]
#106=[#548+[#549-#548]*0.39680]
#100=[#105+[#106-#105]*0.27550]
X-8.16101 Y-3.20476 Z[#100+-0.04000]
#105=[#542+[#543-#542]*0.37289]
#106=[#548+[#549-#548]*0.37289]
#100=[#105+[#106-#105]*0.27823]
X-8.15996 Y-3.21381 Z[#100+-0.04000]
#105=[#542+[#543-#542]*0.35027]
#106=[#548+[#549-#548]*0.35027]
#100=[#105+[#106-#105]*0.28634]
X-8.15685 Y-3.22237 Z[#100+-0.04000]
#105=[#542+[#543-#542]*0.22443]
#106=[#548+[#549-#548]*0.22443]
#100=[#105+[#106-#105]*0.34838]
X-8.13304 Y-3.26999 Z[#100+-0.04000]
#105=[#542+[#543-#542]*0.20570]
#106=[#548+[#549-#548]*0.20570]
#100=[#105+[#106-#105]*0.36024]
X-8.12849 Y-3.27708 Z[#100+-0.04000]
#105=[#542+[#543-#542]*0.18995]
#106=[#548+[#549-#548]*0.18995]
#100=[#105+[#106-#105]*0.37577]
X-8.12253 Y-3.28304 Z[#100+-0.04000]
#105=[#542+[#543-#542]*0.17792]
#106=[#548+[#549-#548]*0.17792]
#100=[#105+[#106-#105]*0.39425]
X-8.11544 Y-3.28759 Z[#100+-0.04000]
#105=[#542+[#543-#542]*0.11500]
#106=[#548+[#549-#548]*0.11500]
#100=[#105+[#106-#105]*0.51834]
X-8.06782 Y-3.31140 Z[#100+-0.04000]
#105=[#542+[#543-#542]*0.10679]
#106=[#548+[#549-#548]*0.10679]
#100=[#105+[#106-#105]*0.54065]
X-8.05926 Y-3.31451 Z[#100+-0.04000]
#105=[#542+[#543-#542]*0.10401]
#106=[#548+[#549-#548]*0.10401]
#100=[#105+[#106-#105]*0.56423]
X-8.05021 Y-3.31556 Z[#100+-0.04000]
#105=[#542+[#543-#542]*0.10401]
#106=[#548+[#549-#548]*0.10401]
#100=[#105+[#106-#105]*0.87446]
X-7.93116 Y-3.31556 Z[#100+-0.04000]
#105=[#542+[#543-#542]*0.10679]
#106=[#548+[#549-#548]*0.10679]
#100=[#105+[#106-#105]*0.89804]
X-7.92211 Y-3.31451 Z[#100+-0.04000]
#105=[#542+[#543-#542]*0.11500]
#106=[#548+[#549-#548]*0.11500]
#100=[#105+[#106-#105]*0.92035]
X-7.91355 Y-3.31140 Z[#100+-0.04000]
#105=[#542+[#543-#542]*0.12415]
#106=[#548+[#549-#548]*0.12415]
#100=[#105+[#106-#105]*0.93841]
X-7.90662 Y-3.30794 Z[#100+-0.04000]
#105=[#542+[#543-#542]*0.12153]
#106=[#548+[#549-#548]*0.12153]
#100=[#105+[#106-#105]*0.94156]
X-7.90541 Y-3.30893 Z[#100+-0.04000]
#105=[#542+[#543-#542]*0.11194]
#106=[#548+[#549-#548]*0.11194]
#100=[#105+[#106-#105]*0.95928]
X-7.89861 Y-3.31256 Z[#100+-0.04000]
#105=[#542+[#543-#542]*0.10602]
#106=[#548+[#549-#548]*0.10602]
#100=[#105+[#106-#105]*0.97854]
X-7.89122 Y-3.31480 Z[#100+-0.04000]
#105=[#542+[#543-#542]*0.10401]
#106=[#548+[#549-#548]*0.10401]
#100=[#105+[#106-#105]*0.99855]
X-7.88354 Y-3.31556 Z[#100+-0.04000]
#100=[#548+[#549-#548]*0.10416]
X-7.88298 Y-3.31551 Z[#100+-0.04000]
#105=[#548+[#549-#548]*0.10602]
#106=[#554+[#555-#554]*0.10602]
#100=[#105+[#106-#105]*0.01857]
X-7.87586 Y-3.31480 Z[#100+-0.04000]
#105=[#548+[#549-#548]*0.11194]
#106=[#554+[#555-#554]*0.11194]
#100=[#105+[#106-#105]*0.03782]
X-7.86847 Y-3.31256 Z[#100+-0.04000]
#105=[#548+[#549-#548]*0.12153]
#106=[#554+[#555-#554]*0.12153]
#100=[#105+[#106-#105]*0.05554]
X-7.86167 Y-3.30893 Z[#100+-0.04000]
#105=[#548+[#549-#548]*0.13448]
#106=[#554+[#555-#554]*0.13448]
#100=[#105+[#106-#105]*0.07110]
X-7.85570 Y-3.30403 Z[#100+-0.04000]
#105=[#548+[#549-#548]*0.15026]
#106=[#554+[#555-#554]*0.15026]
#100=[#105+[#106-#105]*0.08387]
X-7.85080 Y-3.29806 Z[#100+-0.04000]
#105=[#548+[#549-#548]*0.16822]
#106=[#554+[#555-#554]*0.16822]
#100=[#105+[#106-#105]*0.09333]
X-7.84717 Y-3.29126 Z[#100+-0.04000]
#105=[#548+[#549-#548]*0.18775]
#106=[#554+[#555-#554]*0.18775]
#100=[#105+[#106-#105]*0.09917]
X-7.84493 Y-3.28387 Z[#100+-0.04000]
#105=[#548+[#549-#548]*0.20805]
#106=[#554+[#555-#554]*0.20805]
#100=[#105+[#106-#105]*0.10115]
X-7.84417 Y-3.27619 Z[#100+-0.04000]
G04 P0 ( dwell for no time -- G64 should not smooth over this point )
G00 Z0.08000 ( retract )

G00 X-7.92291 Y-3.22805 ( rapid move to begin. )
G01 F180.00000
( Mill infeed pass 1/1 )
#105=[#542+[#543-#542]*0.33526]
#106=[#548+[#549-#548]*0.33526]
#100=[#105+[#106-#105]*0.89596]
G01 Z[-0.04000+#100]
G04 P0 ( dwell for no time -- G64 should not smooth over this point )
G01 F360.00000
#105=[#542+[#543-#542]*0.60990]
#106=[#548+[#549-#548]*0.60990]
#100=[#105+[#106-#105]*0.89596]
X-7.92291 Y-3.12412 Z[#100+-0.04000]
#105=[#542+[#543-#542]*0.60736]
#106=[#548+[#549-#548]*0.60736]
#100=[#105+[#106-#105]*0.87446]
X-7.93116 Y-3.12508 Z[#100+-0.04000]
#105=[#542+[#543-#542]*0.60736]
#106=[#548+[#549-#548]*0.60736]
#100=[#105+[#106-#105]*0.58844]
X-8.04092 Y-3.12508 Z[#100+-0.04000]
#105=[#542+[#543-#542]*0.57095]
#106=[#548+[#549-#548]*0.57095]
#100=[#105+[#106-#105]*0.51659]
X-8.06849 Y-3.13886 Z[#100+-0.04000]
#105=[#542+[#543-#542]*0.49809]
#106=[#548+[#549-#548]*0.49809]
#100=[#105+[#106-#105]*0.48069]
X-8.08227 Y-3.16643 Z[#100+-0.04000]
#105=[#542+[#543-#542]*0.42135]
#106=[#548+[#549-#548]*0.42135]
#100=[#105+[#106-#105]*0.48069]
X-8.08227 Y-3.19547 Z[#100+-0.04000]
#105=[#542+[#543-#542]*0.34850]
#106=[#548+[#549-#548]*0.34850]
#100=[#105+[#106-#105]*0.51659]
X-8.06849 Y-3.22304 Z[#100+-0.04000]
#105=[#542+[#543-#542]*0.31208]
#106=[#548+[#549-#548]*0.31208]
#100=[#105+[#106-#105]*0.58844]
X-8.04092 Y-3.23682 Z[#100+-0.04000]
#105=[#542+[#543-#542]*0.31208]
#106=[#548+[#549-#548]*0.31208]
#100=[#105+[#106-#105]*0.85025]
X-7.94045 Y-3.23682 Z[#100+-0.04000]
#105=[#542+[#543-#542]*0.33526]
#106=[#548+[#549-#548]*0.33526]
#100=[#105+[#106-#105]*0.89596]
X-7.92291 Y-3.22805 Z[#100+-0.04000]
G04 P0 ( dwell for no time -- G64 should not smooth over this point )
G00 Z0.08000 ( retract )

G00 X-8.27274 Y-3.18095 ( rapid move to begin. )
G01 F180.00000
( Mill infeed pass 1/1 )
#105=[#536+[#537-#536]*0.45972]
#106=[#542+[#543-#542]*0.45972]
#100=[#105+[#106-#105]*0.98434]
G01 Z[-0.04000+#100]
G04 P0 ( dwell for no time -- G64 should not smooth over this point )
G01 F360.00000
#105=[#536+[#537-#536]*0.64848]
#106=[#542+[#543-#542]*0.64848]
#100=[#105+[#106-#105]*0.98434]
X-8.27274 Y-3.10952 Z[#100+-0.04000]
#105=[#536+[#537-#536]*0.67240]
#106=[#542+[#543-#542]*0.67240]
#100=[#105+[#106-#105]*0.98161]
X-8.27379 Y-3.10047 Z[#100+-0.04000]
#105=[#536+[#537-#536]*0.69502]
#106=[#542+[#543-#542]*0.69502]
#100=[#105+[#106-#105]*0.97350]
X-8.27690 Y-3.09191 Z[#100+-0.04000]
#105=[#536+[#537-#536]*0.82085]
#106=[#542+[#543-#542]*0.82085]
#100=[#105+[#106-#105]*0.91146]
X-8.30071 Y-3.04429 Z[#100+-0.04000]
#105=[#536+[#537-#536]*0.83515]
#106=[#542+[#543-#542]*0.83515]
#100=[#105+[#106-#105]*0.90293]
X-8.30398 Y-3.03888 Z[#100+-0.04000]
#105=[#536+[#537-#536]*0.84789]
#106=[#542+[#543-#542]*0.84789]
#100=[#105+[#106-#105]*0.89222]
X-8.30809 Y-3.03406 Z[#100+-0.04000]
#105=[#536+[#537-#536]*0.91078]
#106=[#542+[#543-#542]*0.91078]
#100=[#105+[#106-#105]*0.83018]
X-8.33190 Y-3.01026 Z[#100+-0.04000]
#105=[#536+[#537-#536]*0.92571]
#106=[#542+[#543-#542]*0.92571]
#100=[#105+[#106-#105]*0.81157]
X-8.33904 Y-3.00461 Z[#100+-0.04000]
#105=[#536+[#537-#536]*0.92819]
#106=[#542+[#543-#542]*0.92819]
#100=[#105+[#106-#105]*0.80633]
X-8.34105 Y-3.00367 Z[#100+-0.04000]
#105=[#536+[#537-#536]*0.95240]
#106=[#542+[#543-#542]*0.95240]
#100=[#105+[#106-#105]*0.83020]
X-8.33189 Y-2.99451 Z[#100+-0.04000]
#105=[#536+[#537-#536]*0.96514]
#106=[#542+[#543-#542]*0.96514]
#100=[#105+[#106-#105]*0.84089]
X-8.32779 Y-2.98969 Z[#100+-0.04000]
#105=[#536+[#537-#536]*0.97943]
#106=[#542+[#543-#542]*0.97943]
#100=[#105+[#106-#105]*0.84941]
X-8.32452 Y-2.98428 Z[#100+-0.04000]
#105=[#537+[#538-#537]*0.00000]
#106=[#543+[#544-#543]*0.00000]
#100=[#105+[#106-#105]*0.85955]
X-8.32062 Y-2.97650 Z[#100+-0.04000]
#105=[#537+[#538-#537]*0.10527]
#106=[#543+[#544-#543]*0.10527]
#100=[#105+[#106-#105]*0.91146]
X-8.30071 Y-2.93666 Z[#100+-0.04000]
#105=[#537+[#538-#537]*0.12789]
#106=[#543+[#544-#543]*0.12789]
#100=[#105+[#106-#105]*0.91956]
X-8.29760 Y-2.92810 Z[#100+-0.04000]
#105=[#537+[#538-#537]*0.15181]
#106=[#543+[#544-#543]*0.15181]
#100=[#105+[#106-#105]*0.92230]
X-8.29655 Y-2.91905 Z[#100+-0.04000]
#105=[#537+[#538-#537]*0.27764]
#106=[#543+[#544-#543]*0.27764]
#100=[#105+[#106-#105]*0.92230]
X-8.29655 Y-2.87143 Z[#100+-0.04000]
#105=[#537+[#538-#537]*0.30156]
#106=[#543+[#544-#543]*0.30156]
#100=[#105+[#106-#105]*0.91956]
X-8.29760 Y-2.86238 Z[#100+-0.04000]
#105=[#537+[#538-#537]*0.32418]
#106=[#543+[#544-#543]*0.32418]
#100=[#105+[#106-#105]*0.91146]
X-8.30071 Y-2.85382 Z[#100+-0.04000]
#105=[#537+[#538-#537]*0.45002]
#106=[#543+[#544-#543]*0.45002]
#100=[#105+[#106-#105]*0.84941]
X-8.32452 Y-2.80620 Z[#100+-0.04000]
#105=[#537+[#538-#537]*0.46431]
#106=[#543+[#544-#543]*0.46431]
#100=[#105+[#106-#105]*0.84089]
X-8.32779 Y-2.80079 Z[#100+-0.04000]
#105=[#537+[#538-#537]*0.47705]
#106=[#543+[#544-#543]*0.47705]
#100=[#105+[#106-#105]*0.83020]
X-8.33189 Y-2.79597 Z[#100+-0.04000]
#105=[#537+[#538-#537]*0.53997]
#106=[#543+[#544-#543]*0.53997]
#100=[#105+[#106-#105]*0.76816]
X-8.35570 Y-2.77216 Z[#100+-0.04000]
#105=[#537+[#538-#537]*0.55080]
#106=[#543+[#544-#543]*0.55080]
#100=[#105+[#106-#105]*0.75560]
X-8.36052 Y-2.76806 Z[#100+-0.04000]
#105=[#537+[#538-#537]*0.55944]
#106=[#543+[#544-#543]*0.55944]
#100=[#105+[#106-#105]*0.74150]
X-8.36593 Y-2.76479 Z[#100+-0.04000]
#105=[#537+[#538-#537]*0.62236]
#106=[#543+[#544-#543]*0.62236]
#100=[#105+[#106-#105]*0.61741]
X-8.41355 Y-2.74098 Z[#100+-0.04000]
#105=[#537+[#538-#537]*0.63058]
#106=[#543+[#544-#543]*0.63058]
#100=[#105+[#106-#105]*0.59510]
X-8.42211 Y-2.73787 Z[#100+-0.04000]
#105=[#537+[#538-#537]*0.63336]
#106=[#543+[#544-#543]*0.63336]
#100=[#105+[#106-#105]*0.57152]
X-8.43116 Y-2.73682 Z[#100+-0.04000]
#105=[#537+[#538-#537]*0.63336]
#106=[#543+[#544-#543]*0.63336]
#100=[#105+[#106-#105]*0.13719]
X-8.59783 Y-2.73682 Z[#100+-0.04000]
#105=[#537+[#538-#537]*0.63135]
#106=[#543+[#544-#543]*0.63135]
#100=[#105+[#106-#105]*0.11718]
X-8.60551 Y-2.73758 Z[#100+-0.04000]
#105=[#537+[#538-#537]*0.62543]
#106=[#543+[#544-#543]*0.62543]
#100=[#105+[#106-#105]*0.09792]
X-8.61290 Y-2.73982 Z[#100+-0.04000]
#105=[#537+[#538-#537]*0.61584]
#106=[#543+[#544-#543]*0.61584]
#100=[#105+[#106-#105]*0.08020]
X-8.61970 Y-2.74345 Z[#100+-0.04000]
#105=[#537+[#538-#537]*0.60289]
#106=[#543+[#544-#543]*0.60289]
#100=[#105+[#106-#105]*0.06465]
X-8.62567 Y-2.74835 Z[#100+-0.04000]
#105=[#537+[#538-#537]*0.58711]
#106=[#543+[#544-#543]*0.58711]
#100=[#105+[#106-#105]*0.05188]
X-8.63057 Y-2.75432 Z[#100+-0.04000]
#105=[#537+[#538-#537]*0.56914]
#106=[#543+[#544-#543]*0.56914]
#100=[#105+[#106-#105]*0.04242]
X-8.63420 Y-2.76112 Z[#100+-0.04000]
#105=[#537+[#538-#537]*0.54961]
#106=[#543+[#544-#543]*0.54961]
#100=[#105+[#106-#105]*0.03658]
X-8.63644 Y-2.76851 Z[#100+-0.04000]
#105=[#537+[#538-#537]*0.52932]
#106=[#543+[#544-#543]*0.52932]
#100=[#105+[#106-#105]*0.03460]
X-8.63720 Y-2.77619 Z[#100+-0.04000]
#105=[#537+[#538-#537]*0.00000]
#106=[#543+[#544-#543]*0.00000]
#100=[#105+[#106-#105]*0.03460]
X-8.63720 Y-2.97650 Z[#100+-0.04000]
#105=[#536+[#537-#536]*0.20805]
#106=[#542+[#543-#542]*0.20805]
#100=[#105+[#106-#105]*0.03460]
X-8.63720 Y-3.27619 Z[#100+-0.04000]
#105=[#536+[#537-#536]*0.18775]
