( pcb2gcode 2.4.0 )
( Gcode for custom )

G94 ( Inches per minute feed rate. )
G20 ( Units == INCHES. )

G90 ( Absolute coordinates. )
G00 S12000 ( RPM spindle speed. )
G64 P0.00040 ( set maximum deviation from commanded toolpath )
G01 F360.00000 ( Feedrate. )

#107 = #5211
#108 = #5212

(MSG, Attach the probe tool)
M0 ( Temporary machine stop. )
G0 Z0.080 ( Move Z to safe height )
G0 X-10.95295 Y-3.35492 ( Move XY to start point )
G0 Z0.080 ( Move Z to probe height )
G38.2 Z-0.1 F2.362205 ( Z-probe )
#500 = 0 ( Probe point [0, 0] is our reference )
G92 Z0 ( Set the current Z as zero-value )

( We now start the real probing: move the Z axis to the probing height, move to )
( the probing XY position, probe it and save the result, parameter #2002, )
( in a numbered parameter; we will make 17 probes on the X-axis and )
( 6 probes on the Y-axis, for a grand total of 102 probes )

G0 Z0.080
X-10.95295 Y-2.97650
G38.2 Z-0.1 F2.362205
#501=#2002
G0 Z0.080
X-10.95295 Y-2.59807
G38.2 Z-0.1 F2.362205
#502=#2002
G0 Z0.080
X-10.95295 Y-2.21965
G38.2 Z-0.1 F2.362205
#503=#2002
G0 Z0.080
X-10.95295 Y-1.84123
G38.2 Z-0.1 F2.362205
#504=#2002
G0 Z0.080
X-10.95295 Y-1.46280
G38.2 Z-0.1 F2.362205
#505=#2002
G0 Z0.080
X-10.56921 Y-1.46280
G38.2 Z-0.1 F2.362205
#511=#2002
G0 Z0.080
X-10.56921 Y-1.84123
G38.2 Z-0.1 F2.362205
#510=#2002
G0 Z0.080
X-10.56921 Y-2.21965
G38.2 Z-0.1 F2.362205
#509=#2002
G0 Z0.080
X-10.56921 Y-2.59807
G38.2 Z-0.1 F2.362205
#508=#2002
G0 Z0.080
X-10.56921 Y-2.97650
G38.2 Z-0.1 F2.362205
#507=#2002
G0 Z0.080
X-10.56921 Y-3.35492
G38.2 Z-0.1 F2.362205
#506=#2002
G0 Z0.080
X-10.18546 Y-3.35492
G38.2 Z-0.1 F2.362205
#512=#2002
G0 Z0.080
X-10.18546 Y-2.97650
G38.2 Z-0.1 F2.362205
#513=#2002
G0 Z0.080
X-10.18546 Y-2.59807
G38.2 Z-0.1 F2.362205
#514=#2002
G0 Z0.080
X-10.18546 Y-2.21965
G38.2 Z-0.1 F2.362205
#515=#2002
G0 Z0.080
X-10.18546 Y-1.84123
G38.2 Z-0.1 F2.362205
#516=#2002
G0 Z0.080
X-10.18546 Y-1.46280
G38.2 Z-0.1 F2.362205
#517=#2002
G0 Z0.080
X-9.80171 Y-1.46280
G38.2 Z-0.1 F2.362205
#523=#2002
G0 Z0.080
X-9.80171 Y-1.84123
G38.2 Z-0.1 F2.362205
#522=#2002
G0 Z0.080
X-9.80171 Y-2.21965
G38.2 Z-0.1 F2.362205
#521=#2002
G0 Z0.080
X-9.80171 Y-2.59807
G38.2 Z-0.1 F2.362205
#520=#2002
G0 Z0.080
X-9.80171 Y-2.97650
G38.2 Z-0.1 F2.362205
#519=#2002
G0 Z0.080
X-9.80171 Y-3.35492
G38.2 Z-0.1 F2.362205
#518=#2002
G0 Z0.080
X-9.41797 Y-3.35492
G38.2 Z-0.1 F2.362205
#524=#2002
G0 Z0.080
X-9.41797 Y-2.97650
G38.2 Z-0.1 F2.362205
#525=#2002
G0 Z0.080
X-9.41797 Y-2.59807
G38.2 Z-0.1 F2.362205
#526=#2002
G0 Z0.080
X-9.41797 Y-2.21965
G38.2 Z-0.1 F2.362205
#527=#2002
G0 Z0.080
X-9.41797 Y-1.84123
G38.2 Z-0.1 F2.362205
#528=#2002
G0 Z0.080
X-9.41797 Y-1.46280
G38.2 Z-0.1 F2.362205
#529=#2002
G0 Z0.080
X-9.03422 Y-1.46280
G38.2 Z-0.1 F2.362205
#535=#2002
G0 Z0.080
X-9.03422 Y-1.84123
G38.2 Z-0.1 F2.362205
#534=#2002
G0 Z0.080
X-9.03422 Y-2.21965
G38.2 Z-0.1 F2.362205
#533=#2002
G0 Z0.080
X-9.03422 Y-2.59807
G38.2 Z-0.1 F2.362205
#532=#2002
G0 Z0.080
X-9.03422 Y-2.97650
G38.2 Z-0.1 F2.362205
#531=#2002
G0 Z0.080
X-9.03422 Y-3.35492
G38.2 Z-0.1 F2.362205
#530=#2002
G0 Z0.080
X-8.65047 Y-3.35492
G38.2 Z-0.1 F2.362205
#536=#2002
G0 Z0.080
X-8.65047 Y-2.97650
G38.2 Z-0.1 F2.362205
#537=#2002
G0 Z0.080
X-8.65047 Y-2.59807
G38.2 Z-0.1 F2.362205
#538=#2002
G0 Z0.080
X-8.65047 Y-2.21965
G38.2 Z-0.1 F2.362205
#539=#2002
G0 Z0.080
X-8.65047 Y-1.84123
G38.2 Z-0.1 F2.362205
#540=#2002
G0 Z0.080
X-8.65047 Y-1.46280
G38.2 Z-0.1 F2.362205
#541=#2002
G0 Z0.080
X-8.26673 Y-1.46280
G38.2 Z-0.1 F2.362205
#547=#2002
G0 Z0.080
X-8.26673 Y-1.84123
G38.2 Z-0.1 F2.362205
#546=#2002
G0 Z0.080
X-8.26673 Y-2.21965
G38.2 Z-0.1 F2.362205
#545=#2002
G0 Z0.080
X-8.26673 Y-2.59807
G38.2 Z-0.1 F2.362205
#544=#2002
G0 Z0.080
X-8.26673 Y-2.97650
G38.2 Z-0.1 F2.362205
#543=#2002
G0 Z0.080
X-8.26673 Y-3.35492
G38.2 Z-0.1 F2.362205
#542=#2002
G0 Z0.080
X-7.88298 Y-3.35492
G38.2 Z-0.1 F2.362205
#548=#2002
G0 Z0.080
X-7.88298 Y-2.97650
G38.2 Z-0.1 F2.362205
#549=#2002
G0 Z0.080
X-7.88298 Y-2.59807
G38.2 Z-0.1 F2.362205
#550=#2002
G0 Z0.080
X-7.88298 Y-2.21965
G38.2 Z-0.1 F2.362205
#551=#2002
G0 Z0.080
X-7.88298 Y-1.84123
G38.2 Z-0.1 F2.362205
#552=#2002
G0 Z0.080
X-7.88298 Y-1.46280
G38.2 Z-0.1 F2.362205
#553=#2002
G0 Z0.080
X-7.49923 Y-1.46280
G38.2 Z-0.1 F2.362205
#559=#2002
G0 Z0.080
X-7.49923 Y-1.84123
G38.2 Z-0.1 F2.362205
#558=#2002
G0 Z0.080
X-7.49923 Y-2.21965
G38.2 Z-0.1 F2.362205
#557=#2002
G0 Z0.080
X-7.49923 Y-2.59807
G38.2 Z-0.1 F2.362205
#556=#2002
G0 Z0.080
X-7.49923 Y-2.97650
G38.2 Z-0.1 F2.362205
#555=#2002
G0 Z0.080
X-7.49923 Y-3.35492
G38.2 Z-0.1 F2.362205
#554=#2002
G0 Z0.080
X-7.11549 Y-3.35492
G38.2 Z-0.1 F2.362205
#560=#2002
G0 Z0.080
X-7.11549 Y-2.97650
G38.2 Z-0.1 F2.362205
#561=#2002
G0 Z0.080
X-7.11549 Y-2.59807
G38.2 Z-0.1 F2.362205
#562=#2002
G0 Z0.080
X-7.11549 Y-2.21965
G38.2 Z-0.1 F2.362205
#563=#2002
G0 Z0.080
X-7.11549 Y-1.84123
G38.2 Z-0.1 F2.362205
#564=#2002
G0 Z0.080
X-7.11549 Y-1.46280
G38.2 Z-0.1 F2.362205
#565=#2002
G0 Z0.080
X-6.73174 Y-1.46280
G38.2 Z-0.1 F2.362205
#571=#2002
G0 Z0.080
X-6.73174 Y-1.84123
G38.2 Z-0.1 F2.362205
#570=#2002
G0 Z0.080
X-6.73174 Y-2.21965
G38.2 Z-0.1 F2.362205
#569=#2002
G0 Z0.080
X-6.73174 Y-2.59807
G38.2 Z-0.1 F2.362205
#568=#2002
G0 Z0.080
X-6.73174 Y-2.97650
G38.2 Z-0.1 F2.362205
#567=#2002
G0 Z0.080
X-6.73174 Y-3.35492
G38.2 Z-0.1 F2.362205
#566=#2002
G0 Z0.080
X-6.34799 Y-3.35492
G38.2 Z-0.1 F2.362205
#572=#2002
G0 Z0.080
X-6.34799 Y-2.97650
G38.2 Z-0.1 F2.362205
#573=#2002
G0 Z0.080
X-6.34799 Y-2.59807
G38.2 Z-0.1 F2.362205
#574=#2002
G0 Z0.080
X-6.34799 Y-2.21965
G38.2 Z-0.1 F2.362205
#575=#2002
G0 Z0.080
X-6.34799 Y-1.84123
G38.2 Z-0.1 F2.362205
#576=#2002
G0 Z0.080
X-6.34799 Y-1.46280
G38.2 Z-0.1 F2.362205
#577=#2002
G0 Z0.080
X-5.96425 Y-1.46280
G38.2 Z-0.1 F2.362205
#583=#2002
G0 Z0.080
X-5.96425 Y-1.84123
G38.2 Z-0.1 F2.362205
#582=#2002
G0 Z0.080
X-5.96425 Y-2.21965
G38.2 Z-0.1 F2.362205
#581=#2002
G0 Z0.080
X-5.96425 Y-2.59807
G38.2 Z-0.1 F2.362205
#580=#2002
G0 Z0.080
X-5.96425 Y-2.97650
G38.2 Z-0.1 F2.362205
#579=#2002
G0 Z0.080
X-5.96425 Y-3.35492
G38.2 Z-0.1 F2.362205
#578=#2002
G0 Z0.080
X-5.58050 Y-3.35492
G38.2 Z-0.1 F2.362205
#584=#2002
G0 Z0.080
X-5.58050 Y-2.97650
G38.2 Z-0.1 F2.362205
#585=#2002
G0 Z0.080
X-5.58050 Y-2.59807
G38.2 Z-0.1 F2.362205
#586=#2002
G0 Z0.080
X-5.58050 Y-2.21965
G38.2 Z-0.1 F2.362205
#587=#2002
G0 Z0.080
X-5.58050 Y-1.84123
G38.2 Z-0.1 F2.362205
#588=#2002
G0 Z0.080
X-5.58050 Y-1.46280
G38.2 Z-0.1 F2.362205
#589=#2002
G0 Z0.080
X-5.19676 Y-1.46280
G38.2 Z-0.1 F2.362205
#595=#2002
G0 Z0.080
X-5.19676 Y-1.84123
G38.2 Z-0.1 F2.362205
#594=#2002
G0 Z0.080
X-5.19676 Y-2.21965
G38.2 Z-0.1 F2.362205
#593=#2002
G0 Z0.080
X-5.19676 Y-2.59807
G38.2 Z-0.1 F2.362205
#592=#2002
G0 Z0.080
X-5.19676 Y-2.97650
G38.2 Z-0.1 F2.362205
#591=#2002
G0 Z0.080
X-5.19676 Y-3.35492
G38.2 Z-0.1 F2.362205
#590=#2002
G0 Z0.080
X-4.81301 Y-3.35492
G38.2 Z-0.1 F2.362205
#596=#2002
G0 Z0.080
X-4.81301 Y-2.97650
G38.2 Z-0.1 F2.362205
#597=#2002
G0 Z0.080
X-4.81301 Y-2.59807
G38.2 Z-0.1 F2.362205
#598=#2002
G0 Z0.080
X-4.81301 Y-2.21965
G38.2 Z-0.1 F2.362205
#599=#2002
G0 Z0.080
X-4.81301 Y-1.84123
G38.2 Z-0.1 F2.362205
#600=#2002
G0 Z0.080
X-4.81301 Y-1.46280
G38.2 Z-0.1 F2.362205
#601=#2002

G0 Z0.080 ( Move Z to safe height )
( Probing has ended, each Z-coordinate will be corrected with a bilinear interpolation )
(MSG, Detach the probe tool)
M0 ( Temporary machine stop. )


G00 Z1.00000 (Retract to tool change height)
T0
M5      (Spindle stop.)
G04 P1.00000 (Wait for spindle to stop)
(MSG, Change tool bit to mill diameter 0.00000in)
M6      (Tool change.)
M0      (Temporary machine stop.)
M3 ( Spindle on clockwise. )
G04 P1.00000 (Wait for spindle to get up to speed)
( Piece #1, position [0;0] )

G04 P0 ( dwell for no time -- G64 should not smooth over this point )
G00 Z0.08000 ( retract )

G00 X-9.16104 Y-2.94286 ( rapid move to begin. )
G01 F180.00000
( Mill infeed pass 1/1 )
#105=[#525+[#526-#525]*0.08890]
#106=[#531+[#532-#531]*0.08890]
#100=[#105+[#106-#105]*0.66952]
G01 Z[-0.04000+#100]
G04 P0 ( dwell for no time -- G64 should not smooth over this point )
G01 F360.00000
#105=[#525+[#526-#525]*0.06860]
#106=[#531+[#532-#531]*0.06860]
#100=[#105+[#106-#105]*0.66755]
X-9.16180 Y-2.95054 Z[#100+-0.04000]
#105=[#525+[#526-#525]*0.04908]
#106=[#531+[#532-#531]*0.04908]
#100=[#105+[#106-#105]*0.66171]
X-9.16404 Y-2.95792 Z[#100+-0.04000]
#105=[#525+[#526-#525]*0.03110]
#106=[#531+[#532-#531]*0.03110]
#100=[#105+[#106-#105]*0.65223]
X-9.16768 Y-2.96473 Z[#100+-0.04000]
#105=[#525+[#526-#525]*0.01533]
#106=[#531+[#532-#531]*0.01533]
#100=[#105+[#106-#105]*0.63947]
X-9.17257 Y-2.97070 Z[#100+-0.04000]
#100=[#525+[#531-#525]*0.62435]
X-9.17837 Y-2.97650 Z[#100+-0.04000]
#105=[#524+[#525-#524]*0.70163]
#106=[#530+[#531-#530]*0.70163]
#100=[#105+[#106-#105]*0.33012]
X-9.29128 Y-3.08941 Z[#100+-0.04000]
#105=[#524+[#525-#524]*0.27047]
#106=[#530+[#531-#530]*0.27047]
#100=[#105+[#106-#105]*0.64900]
X-9.16891 Y-3.25257 Z[#100+-0.04000]
#105=[#524+[#525-#524]*0.25304]
#106=[#530+[#531-#530]*0.25304]
#100=[#105+[#106-#105]*0.65943]
X-9.16491 Y-3.25917 Z[#100+-0.04000]
#105=[#524+[#525-#524]*0.23387]
#106=[#530+[#531-#530]*0.23387]
#100=[#105+[#106-#105]*0.66631]
X-9.16227 Y-3.26642 Z[#100+-0.04000]
#105=[#524+[#525-#524]*0.21371]
#106=[#530+[#531-#530]*0.21371]
#100=[#105+[#106-#105]*0.66937]
X-9.16110 Y-3.27405 Z[#100+-0.04000]
#105=[#524+[#525-#524]*0.19334]
#106=[#530+[#531-#530]*0.19334]
#100=[#105+[#106-#105]*0.66849]
X-9.16144 Y-3.28176 Z[#100+-0.04000]
#105=[#524+[#525-#524]*0.17353]
#106=[#530+[#531-#530]*0.17353]
#100=[#105+[#106-#105]*0.66371]
X-9.16327 Y-3.28925 Z[#100+-0.04000]
#105=[#524+[#525-#524]*0.15505]
#106=[#530+[#531-#530]*0.15505]
#100=[#105+[#106-#105]*0.65520]
X-9.16653 Y-3.29625 Z[#100+-0.04000]
#105=[#524+[#525-#524]*0.13860]
#106=[#530+[#531-#530]*0.13860]
#100=[#105+[#106-#105]*0.64331]
X-9.17110 Y-3.30247 Z[#100+-0.04000]
#105=[#524+[#525-#524]*0.12482]
#106=[#530+[#531-#530]*0.12482]
#100=[#105+[#106-#105]*0.62848]
X-9.17679 Y-3.30769 Z[#100+-0.04000]
#105=[#524+[#525-#524]*0.11424]
#106=[#530+[#531-#530]*0.11424]
#100=[#105+[#106-#105]*0.61129]
X-9.18339 Y-3.31169 Z[#100+-0.04000]
#105=[#524+[#525-#524]*0.10727]
#106=[#530+[#531-#530]*0.10727]
#100=[#105+[#106-#105]*0.59239]
X-9.19064 Y-3.31433 Z[#100+-0.04000]
#105=[#524+[#525-#524]*0.10417]
#106=[#530+[#531-#530]*0.10417]
#100=[#105+[#106-#105]*0.57251]
X-9.19827 Y-3.31550 Z[#100+-0.04000]
#105=[#524+[#525-#524]*0.10506]
#106=[#530+[#531-#530]*0.10506]
#100=[#105+[#106-#105]*0.55242]
X-9.20598 Y-3.31516 Z[#100+-0.04000]
#105=[#524+[#525-#524]*0.10991]
#106=[#530+[#531-#530]*0.10991]
#100=[#105+[#106-#105]*0.53288]
X-9.21348 Y-3.31333 Z[#100+-0.04000]
#105=[#524+[#525-#524]*0.11853]
#106=[#530+[#531-#530]*0.11853]
#100=[#105+[#106-#105]*0.51466]
X-9.22047 Y-3.31007 Z[#100+-0.04000]
#105=[#524+[#525-#524]*0.13059]
#106=[#530+[#531-#530]*0.13059]
#100=[#105+[#106-#105]*0.49844]
X-9.22669 Y-3.30550 Z[#100+-0.04000]
#105=[#524+[#525-#524]*0.14563]
#106=[#530+[#531-#530]*0.14563]
#100=[#105+[#106-#105]*0.48485]
X-9.23191 Y-3.29981 Z[#100+-0.04000]
#105=[#524+[#525-#524]*0.55300]
#106=[#530+[#531-#530]*0.55300]
#100=[#105+[#106-#105]*0.18355]
X-9.34753 Y-3.14565 Z[#100+-0.04000]
#105=[#524+[#525-#524]*0.54246]
#106=[#530+[#531-#530]*0.54246]
#100=[#105+[#106-#105]*0.17316]
X-9.35152 Y-3.14964 Z[#100+-0.04000]
#105=[#524+[#525-#524]*0.20805]
#106=[#530+[#531-#530]*0.20805]
#100=[#105+[#106-#105]*0.17316]
X-9.35152 Y-3.27619 Z[#100+-0.04000]
#105=[#524+[#525-#524]*0.18776]
#106=[#530+[#531-#530]*0.18776]
#100=[#105+[#106-#105]*0.17119]
X-9.35227 Y-3.28387 Z[#100+-0.04000]
#105=[#524+[#525-#524]*0.16824]
#106=[#530+[#531-#530]*0.16824]
#100=[#105+[#106-#105]*0.16535]
X-9.35451 Y-3.29126 Z[#100+-0.04000]
#105=[#524+[#525-#524]*0.15025]
#106=[#530+[#531-#530]*0.15025]
#100=[#105+[#106-#105]*0.15587]
X-9.35815 Y-3.29806 Z[#100+-0.04000]
#105=[#524+[#525-#524]*0.13449]
#106=[#530+[#531-#530]*0.13449]
#100=[#105+[#106-#105]*0.14311]
X-9.36305 Y-3.30403 Z[#100+-0.04000]
#105=[#524+[#525-#524]*0.12155]
#106=[#530+[#531-#530]*0.12155]
#100=[#105+[#106-#105]*0.12756]
X-9.36902 Y-3.30892 Z[#100+-0.04000]
#105=[#524+[#525-#524]*0.11193]
#106=[#530+[#531-#530]*0.11193]
#100=[#105+[#106-#105]*0.10983]
X-9.37582 Y-3.31256 Z[#100+-0.04000]
#105=[#524+[#525-#524]*0.10601]
#106=[#530+[#531-#530]*0.10601]
#100=[#105+[#106-#105]*0.09058]
X-9.38321 Y-3.31480 Z[#100+-0.04000]
#105=[#524+[#525-#524]*0.10401]
#106=[#530+[#531-#530]*0.10401]
#100=[#105+[#106-#105]*0.07056]
X-9.39089 Y-3.31556 Z[#100+-0.04000]
#105=[#524+[#525-#524]*0.10601]
#106=[#530+[#531-#530]*0.10601]
#100=[#105+[#106-#105]*0.05055]
X-9.39857 Y-3.31480 Z[#100+-0.04000]
#105=[#524+[#525-#524]*0.11193]
#106=[#530+[#531-#530]*0.11193]
#100=[#105+[#106-#105]*0.03130]
X-9.40595 Y-3.31256 Z[#100+-0.04000]
#105=[#524+[#525-#524]*0.12155]
#106=[#530+[#531-#530]*0.12155]
#100=[#105+[#106-#105]*0.01357]
X-9.41276 Y-3.30892 Z[#100+-0.04000]
#105=[#524+[#525-#524]*0.13284]
#106=[#530+[#531-#530]*0.13284]
#100=[#105+[#106-#105]*0.00000]
X-9.41797 Y-3.30465 Z[#100+-0.04000]
#105=[#518+[#519-#518]*0.13449]
#106=[#524+[#525-#524]*0.13449]
#100=[#105+[#106-#105]*0.99802]
X-9.41873 Y-3.30403 Z[#100+-0.04000]
#105=[#518+[#519-#518]*0.15025]
#106=[#524+[#525-#524]*0.15025]
#100=[#105+[#106-#105]*0.98526]
X-9.42362 Y-3.29806 Z[#100+-0.04000]
#105=[#518+[#519-#518]*0.16824]
#106=[#524+[#525-#524]*0.16824]
#100=[#105+[#106-#105]*0.97578]
X-9.42726 Y-3.29126 Z[#100+-0.04000]
#105=[#518+[#519-#518]*0.18776]
#106=[#524+[#525-#524]*0.18776]
#100=[#105+[#106-#105]*0.96994]
X-9.42950 Y-3.28387 Z[#100+-0.04000]
#105=[#518+[#519-#518]*0.20805]
#106=[#524+[#525-#524]*0.20805]
#100=[#105+[#106-#105]*0.96797]
X-9.43026 Y-3.27619 Z[#100+-0.04000]
#100=[#519+[#525-#519]*0.96797]
X-9.43026 Y-2.97650 Z[#100+-0.04000]
#105=[#519+[#520-#519]*0.52932]
#106=[#525+[#526-#525]*0.52932]
#100=[#105+[#106-#105]*0.96797]
X-9.43026 Y-2.77619 Z[#100+-0.04000]
#105=[#519+[#520-#519]*0.54962]
#106=[#525+[#526-#525]*0.54962]
#100=[#105+[#106-#105]*0.96994]
X-9.42950 Y-2.76851 Z[#100+-0.04000]
#105=[#519+[#520-#519]*0.56914]
#106=[#525+[#526-#525]*0.56914]
#100=[#105+[#106-#105]*0.97578]
X-9.42726 Y-2.76112 Z[#100+-0.04000]
#105=[#519+[#520-#519]*0.58712]
#106=[#525+[#526-#525]*0.58712]
#100=[#105+[#106-#105]*0.98526]
X-9.42362 Y-2.75432 Z[#100+-0.04000]
#105=[#519+[#520-#519]*0.60289]
#106=[#525+[#526-#525]*0.60289]
#100=[#105+[#106-#105]*0.99802]
X-9.41873 Y-2.74835 Z[#100+-0.04000]
#105=[#525+[#526-#525]*0.60453]
#106=[#531+[#532-#531]*0.60453]
#100=[#105+[#106-#105]*0.00000]
X-9.41797 Y-2.74773 Z[#100+-0.04000]
#105=[#525+[#526-#525]*0.61583]
#106=[#531+[#532-#531]*0.61583]
#100=[#105+[#106-#105]*0.01357]
X-9.41276 Y-2.74345 Z[#100+-0.04000]
#105=[#525+[#526-#525]*0.62544]
#106=[#531+[#532-#531]*0.62544]
#100=[#105+[#106-#105]*0.03130]
X-9.40595 Y-2.73982 Z[#100+-0.04000]
#105=[#525+[#526-#525]*0.63136]
#106=[#531+[#532-#531]*0.63136]
#100=[#105+[#106-#105]*0.05055]
X-9.39857 Y-2.73758 Z[#100+-0.04000]
#105=[#525+[#526-#525]*0.63336]
#106=[#531+[#532-#531]*0.63336]
#100=[#105+[#106-#105]*0.07056]
X-9.39089 Y-2.73682 Z[#100+-0.04000]
#105=[#525+[#526-#525]*0.63136]
#106=[#531+[#532-#531]*0.63136]
#100=[#105+[#106-#105]*0.09058]
X-9.38321 Y-2.73758 Z[#100+-0.04000]
#105=[#525+[#526-#525]*0.62544]
#106=[#531+[#532-#531]*0.62544]
#100=[#105+[#106-#105]*0.10983]
X-9.37582 Y-2.73982 Z[#100+-0.04000]
#105=[#525+[#526-#525]*0.61583]
#106=[#531+[#532-#531]*0.61583]
#100=[#105+[#106-#105]*0.12756]
X-9.36902 Y-2.74345 Z[#100+-0.04000]
#105=[#525+[#526-#525]*0.60289]
#106=[#531+[#532-#531]*0.60289]
#100=[#105+[#106-#105]*0.14311]
X-9.36305 Y-2.74835 Z[#100+-0.04000]
#105=[#525+[#526-#525]*0.58712]
#106=[#531+[#532-#531]*0.58712]
#100=[#105+[#106-#105]*0.15587]
X-9.35815 Y-2.75432 Z[#100+-0.04000]
#105=[#525+[#526-#525]*0.56914]
#106=[#531+[#532-#531]*0.56914]
#100=[#105+[#106-#105]*0.16535]
X-9.35451 Y-2.76112 Z[#100+-0.04000]
#105=[#525+[#526-#525]*0.54962]
#106=[#531+[#532-#531]*0.54962]
#100=[#105+[#106-#105]*0.17119]
X-9.35227 Y-2.76851 Z[#100+-0.04000]
#105=[#525+[#526-#525]*0.52932]
#106=[#531+[#532-#531]*0.52932]
#100=[#105+[#106-#105]*0.17316]
X-9.35152 Y-2.77619 Z[#100+-0.04000]
#100=[#525+[#531-#525]*0.17316]
X-9.35152 Y-2.97650 Z[#100+-0.04000]
#105=[#524+[#525-#524]*0.83672]
#106=[#530+[#531-#530]*0.83672]
#100=[#105+[#106-#105]*0.17316]
X-9.35152 Y-3.03829 Z[#100+-0.04000]
#100=[#525+[#531-#525]*0.33417]
X-9.28973 Y-2.97650 Z[#100+-0.04000]
#105=[#525+[#526-#525]*0.16246]
#106=[#531+[#532-#531]*0.16246]
#100=[#105+[#106-#105]*0.49438]
X-9.22825 Y-2.91502 Z[#100+-0.04000]
#105=[#525+[#526-#525]*0.17540]
#106=[#531+[#532-#531]*0.17540]
#100=[#105+[#106-#105]*0.50993]
X-9.22228 Y-2.91012 Z[#100+-0.04000]
#105=[#525+[#526-#525]*0.18502]
#106=[#531+[#532-#531]*0.18502]
#100=[#105+[#106-#105]*0.52766]
X-9.21548 Y-2.90648 Z[#100+-0.04000]
#105=[#525+[#526-#525]*0.19094]
#106=[#531+[#532-#531]*0.19094]
#100=[#105+[#106-#105]*0.54691]
X-9.20809 Y-2.90424 Z[#100+-0.04000]
#105=[#525+[#526-#525]*0.19294]
#106=[#531+[#532-#531]*0.19294]
#100=[#105+[#106-#105]*0.56692]
X-9.20041 Y-2.90349 Z[#100+-0.04000]
#105=[#525+[#526-#525]*0.19094]
#106=[#531+[#532-#531]*0.19094]
#100=[#105+[#106-#105]*0.58694]
X-9.19273 Y-2.90424 Z[#100+-0.04000]
#105=[#525+[#526-#525]*0.18502]
#106=[#531+[#532-#531]*0.18502]
#100=[#105+[#106-#105]*0.60619]
X-9.18534 Y-2.90648 Z[#100+-0.04000]
#105=[#525+[#526-#525]*0.17540]
#106=[#531+[#532-#531]*0.17540]
#100=[#105+[#106-#105]*0.62392]
X-9.17854 Y-2.91012 Z[#100+-0.04000]
#105=[#525+[#526-#525]*0.16246]
#106=[#531+[#532-#531]*0.16246]
#100=[#105+[#106-#105]*0.63947]
X-9.17257 Y-2.91502 Z[#100+-0.04000]
#105=[#525+[#526-#525]*0.14670]
#106=[#531+[#532-#531]*0.14670]
#100=[#105+[#106-#105]*0.65223]
X-9.16768 Y-2.92098 Z[#100+-0.04000]
#105=[#525+[#526-#525]*0.12871]
#106=[#531+[#532-#531]*0.12871]
#100=[#105+[#106-#105]*0.66171]
X-9.16404 Y-2.92779 Z[#100+-0.04000]
#105=[#525+[#526-#525]*0.10919]
#106=[#531+[#532-#531]*0.10919]
#100=[#105+[#106-#105]*0.66755]
X-9.16180 Y-2.93518 Z[#100+-0.04000]
#105=[#525+[#526-#525]*0.08890]
#106=[#531+[#532-#531]*0.08890]
#100=[#105+[#106-#105]*0.66952]
X-9.16104 Y-2.94286 Z[#100+-0.04000]
G04 P0 ( dwell for no time -- G64 should not smooth over this point )
G00 Z0.08000 ( retract )

G00 X-9.56590 Y-3.24959 ( rapid move to begin. )
G01 F180.00000
( Mill infeed pass 1/1 )
#105=[#518+[#519-#518]*0.27835]
#106=[#524+[#525-#524]*0.27835]
#100=[#105+[#106-#105]*0.61450]
G01 Z[-0.04000+#100]
G04 P0 ( dwell for no time -- G64 should not smooth over this point )
G01 F360.00000
#105=[#518+[#519-#518]*0.25796]
#106=[#524+[#525-#524]*0.25796]
#100=[#105+[#106-#105]*0.61395]
X-9.56611 Y-3.25730 Z[#100+-0.04000]
#105=[#518+[#519-#518]*0.23807]
#106=[#524+[#525-#524]*0.23807]
#100=[#105+[#106-#105]*0.60949]
X-9.56782 Y-3.26483 Z[#100+-0.04000]
#105=[#518+[#519-#518]*0.21945]
#106=[#524+[#525-#524]*0.21945]
#100=[#105+[#106-#105]*0.60129]
X-9.57097 Y-3.27188 Z[#100+-0.04000]
#105=[#518+[#519-#518]*0.20280]
#106=[#524+[#525-#524]*0.20280]
#100=[#105+[#106-#105]*0.58967]
X-9.57543 Y-3.27818 Z[#100+-0.04000]
#105=[#518+[#519-#518]*0.18878]
#106=[#524+[#525-#524]*0.18878]
#100=[#105+[#106-#105]*0.57506]
X-9.58103 Y-3.28348 Z[#100+-0.04000]
#105=[#518+[#519-#518]*0.17792]
#106=[#524+[#525-#524]*0.17792]
#100=[#105+[#106-#105]*0.55804]
X-9.58757 Y-3.28759 Z[#100+-0.04000]
#105=[#518+[#519-#518]*0.11500]
#106=[#524+[#525-#524]*0.11500]
#100=[#105+[#106-#105]*0.43395]
X-9.63518 Y-3.31140 Z[#100+-0.04000]
#105=[#518+[#519-#518]*0.10680]
#106=[#524+[#525-#524]*0.10680]
#100=[#105+[#106-#105]*0.41164]
X-9.64375 Y-3.31451 Z[#100+-0.04000]
#105=[#518+[#519-#518]*0.10401]
#106=[#524+[#525-#524]*0.10401]
#100=[#105+[#106-#105]*0.38807]
X-9.65279 Y-3.31556 Z[#100+-0.04000]
#105=[#518+[#519-#518]*0.10401]
#106=[#524+[#525-#524]*0.10401]
#100=[#105+[#106-#105]*0.13989]
X-9.74803 Y-3.31556 Z[#100+-0.04000]
#105=[#518+[#519-#518]*0.10680]
#106=[#524+[#525-#524]*0.10680]
#100=[#105+[#106-#105]*0.11632]
X-9.75708 Y-3.31451 Z[#100+-0.04000]
#105=[#518+[#519-#518]*0.11500]
#106=[#524+[#525-#524]*0.11500]
#100=[#105+[#106-#105]*0.09401]
X-9.76564 Y-3.31140 Z[#100+-0.04000]
#105=[#512+[#513-#512]*0.16266]
#106=[#518+[#519-#518]*0.16266]
#100=[#105+[#106-#105]*1.00000]
X-9.80171 Y-3.29337 Z[#100+-0.04000]
#105=[#512+[#513-#512]*0.17792]
#106=[#518+[#519-#518]*0.17792]
#100=[#105+[#106-#105]*0.96992]
X-9.81326 Y-3.28759 Z[#100+-0.04000]
#105=[#512+[#513-#512]*0.18657]
#106=[#518+[#519-#518]*0.18657]
#100=[#105+[#106-#105]*0.95581]
X-9.81867 Y-3.28432 Z[#100+-0.04000]
#105=[#512+[#513-#512]*0.19741]
#106=[#518+[#519-#518]*0.19741]
#100=[#105+[#106-#105]*0.94326]
X-9.82349 Y-3.28022 Z[#100+-0.04000]
#105=[#512+[#513-#512]*0.26032]
#106=[#518+[#519-#518]*0.26032]
#100=[#105+[#106-#105]*0.88121]
X-9.84730 Y-3.25641 Z[#100+-0.04000]
#105=[#512+[#513-#512]*0.27305]
#106=[#518+[#519-#518]*0.27305]
#100=[#105+[#106-#105]*0.87053]
X-9.85140 Y-3.25159 Z[#100+-0.04000]
#105=[#512+[#513-#512]*0.28736]
#106=[#518+[#519-#518]*0.28736]
#100=[#105+[#106-#105]*0.86199]
X-9.85467 Y-3.24618 Z[#100+-0.04000]
#105=[#512+[#513-#512]*0.41319]
#106=[#518+[#519-#518]*0.41319]
#100=[#105+[#106-#105]*0.79995]
X-9.87848 Y-3.19856 Z[#100+-0.04000]
#105=[#512+[#513-#512]*0.43582]
#106=[#518+[#519-#518]*0.43582]
#100=[#105+[#106-#105]*0.79186]
X-9.88159 Y-3.19000 Z[#100+-0.04000]
#105=[#512+[#513-#512]*0.45972]
#106=[#518+[#519-#518]*0.45972]
#100=[#105+[#106-#105]*0.78911]
X-9.88264 Y-3.18095 Z[#100+-0.04000]
#105=[#512+[#513-#512]*0.83723]
#106=[#518+[#519-#518]*0.83723]
#100=[#105+[#106-#105]*0.78911]
X-9.88264 Y-3.03810 Z[#100+-0.04000]
#105=[#512+[#513-#512]*0.86113]
#106=[#518+[#519-#518]*0.86113]
#100=[#105+[#106-#105]*0.79186]
X-9.88159 Y-3.02905 Z[#100+-0.04000]
#105=[#512+[#513-#512]*0.88376]
#106=[#518+[#519-#518]*0.88376]
#100=[#105+[#106-#105]*0.79995]
X-9.87848 Y-3.02049 Z[#100+-0.04000]
#100=[#513+[#519-#513]*0.85726]
X-9.85649 Y-2.97650 Z[#100+-0.04000]
#105=[#513+[#514-#513]*0.00959]
#106=[#519+[#520-#519]*0.00959]
#100=[#105+[#106-#105]*0.86199]
X-9.85467 Y-2.97287 Z[#100+-0.04000]
#105=[#513+[#514-#513]*0.02389]
#106=[#519+[#520-#519]*0.02389]
#100=[#105+[#106-#105]*0.87053]
X-9.85140 Y-2.96746 Z[#100+-0.04000]
#105=[#513+[#514-#513]*0.03663]
#106=[#519+[#520-#519]*0.03663]
#100=[#105+[#106-#105]*0.88121]
X-9.84730 Y-2.96264 Z[#100+-0.04000]
#105=[#513+[#514-#513]*0.09955]
#106=[#519+[#520-#519]*0.09955]
#100=[#105+[#106-#105]*0.94325]
X-9.82349 Y-2.93883 Z[#100+-0.04000]
#105=[#513+[#514-#513]*0.11038]
#106=[#519+[#520-#519]*0.11038]
#100=[#105+[#106-#105]*0.95581]
X-9.81867 Y-2.93473 Z[#100+-0.04000]
#105=[#513+[#514-#513]*0.11903]
#106=[#519+[#520-#519]*0.11903]
#100=[#105+[#106-#105]*0.96992]
X-9.81326 Y-2.93145 Z[#100+-0.04000]
#105=[#513+[#514-#513]*0.13429]
#106=[#519+[#520-#519]*0.13429]
#100=[#105+[#106-#105]*1.00000]
X-9.80171 Y-2.92568 Z[#100+-0.04000]
#105=[#519+[#520-#519]*0.18195]
#106=[#525+[#526-#525]*0.18195]
#100=[#105+[#106-#105]*0.09401]
X-9.76564 Y-2.90764 Z[#100+-0.04000]
#105=[#519+[#520-#519]*0.19015]
#106=[#525+[#526-#525]*0.19015]
#100=[#105+[#106-#105]*0.11632]
X-9.75708 Y-2.90454 Z[#100+-0.04000]
#105=[#519+[#520-#519]*0.19294]
#106=[#525+[#526-#525]*0.19294]
#100=[#105+[#106-#105]*0.13989]
X-9.74803 Y-2.90349 Z[#100+-0.04000]
#105=[#519+[#520-#519]*0.19294]
#106=[#525+[#526-#525]*0.19294]
#100=[#105+[#106-#105]*0.38807]
X-9.65279 Y-2.90349 Z[#100+-0.04000]
#105=[#519+[#520-#519]*0.19015]
#106=[#525+[#526-#525]*0.19015]
#100=[#105+[#106-#105]*0.41164]
X-9.64375 Y-2.90454 Z[#100+-0.04000]
#105=[#519+[#520-#519]*0.18195]
#106=[#525+[#526-#525]*0.18195]
#100=[#105+[#106-#105]*0.43395]
X-9.63519 Y-2.90764 Z[#100+-0.04000]
#105=[#519+[#520-#519]*0.11903]
#106=[#525+[#526-#525]*0.11903]
#100=[#105+[#106-#105]*0.55804]
X-9.58757 Y-2.93145 Z[#100+-0.04000]
#105=[#519+[#520-#519]*0.10817]
#106=[#525+[#526-#525]*0.10817]
#100=[#105+[#106-#105]*0.57506]
X-9.58103 Y-2.93556 Z[#100+-0.04000]
#105=[#519+[#520-#519]*0.09415]
#106=[#525+[#526-#525]*0.09415]
#100=[#105+[#106-#105]*0.58967]
X-9.57543 Y-2.94087 Z[#100+-0.04000]
#105=[#519+[#520-#519]*0.07750]
#106=[#525+[#526-#525]*0.07750]
#100=[#105+[#106-#105]*0.60129]
X-9.57097 Y-2.94717 Z[#100+-0.04000]
#105=[#519+[#520-#519]*0.05888]
#106=[#525+[#526-#525]*0.05888]
#100=[#105+[#106-#105]*0.60949]
X-9.56782 Y-2.95422 Z[#100+-0.04000]
#105=[#519+[#520-#519]*0.03899]
#106=[#525+[#526-#525]*0.03899]
#100=[#105+[#106-#105]*0.61395]
X-9.56611 Y-2.96174 Z[#100+-0.04000]
#105=[#519+[#520-#519]*0.01861]
#106=[#525+[#526-#525]*0.01861]
#100=[#105+[#106-#105]*0.61450]
X-9.56590 Y-2.96946 Z[#100+-0.04000]
#100=[#519+[#525-#519]*0.61137]
X-9.56710 Y-2.97650 Z[#100+-0.04000]
#105=[#518+[#519-#518]*0.99850]
#106=[#524+[#525-#524]*0.99850]
#100=[#105+[#106-#105]*0.61111]
X-9.56720 Y-2.97706 Z[#100+-0.04000]
#105=[#518+[#519-#518]*0.97946]
#106=[#524+[#525-#524]*0.97946]
#100=[#105+[#106-#105]*0.60392]
X-9.56996 Y-2.98427 Z[#100+-0.04000]
#105=[#518+[#519-#518]*0.96219]
#106=[#524+[#525-#524]*0.96219]
#100=[#105+[#106-#105]*0.59321]
X-9.57407 Y-2.99080 Z[#100+-0.04000]
#105=[#518+[#519-#518]*0.94739]
#106=[#524+[#525-#524]*0.94739]
#100=[#105+[#106-#105]*0.57938]
X-9.57938 Y-2.99641 Z[#100+-0.04000]
#105=[#518+[#519-#518]*0.93560]
#106=[#524+[#525-#524]*0.93560]
#100=[#105+[#106-#105]*0.56297]
X-9.58568 Y-3.00087 Z[#100+-0.04000]
#105=[#518+[#519-#518]*0.92728]
#106=[#524+[#525-#524]*0.92728]
#100=[#105+[#106-#105]*0.54461]
X-9.59272 Y-3.00401 Z[#100+-0.04000]
#105=[#518+[#519-#518]*0.92276]
#106=[#524+[#525-#524]*0.92276]
#100=[#105+[#106-#105]*0.52499]
X-9.60025 Y-3.00573 Z[#100+-0.04000]
#105=[#518+[#519-#518]*0.92220]
#106=[#524+[#525-#524]*0.92220]
#100=[#105+[#106-#105]*0.50489]
X-9.60796 Y-3.00594 Z[#100+-0.04000]
#105=[#518+[#519-#518]*0.92564]
#106=[#524+[#525-#524]*0.92564]
#100=[#105+[#106-#105]*0.48506]
X-9.61557 Y-3.00464 Z[#100+-0.04000]
#105=[#518+[#519-#518]*0.93293]
#106=[#524+[#525-#524]*0.93293]
#100=[#105+[#106-#105]*0.46628]
X-9.62278 Y-3.00188 Z[#100+-0.04000]
#105=[#518+[#519-#518]*0.98486]
#106=[#524+[#525-#524]*0.98486]
#100=[#105+[#106-#105]*0.36385]
X-9.66209 Y-2.98223 Z[#100+-0.04000]
#105=[#518+[#519-#518]*0.98486]
#106=[#524+[#525-#524]*0.98486]
#100=[#105+[#106-#105]*0.16411]
X-9.73874 Y-2.98223 Z[#100+-0.04000]
#105=[#518+[#519-#518]*0.94048]
#106=[#524+[#525-#524]*0.94048]
#100=[#105+[#106-#105]*0.07657]
X-9.77233 Y-2.99902 Z[#100+-0.04000]
#105=[#518+[#519-#518]*0.90144]
#106=[#524+[#525-#524]*0.90144]
#100=[#105+[#106-#105]*0.03807]
X-9.78710 Y-3.01380 Z[#100+-0.04000]
#105=[#512+[#513-#512]*0.82422]
#106=[#518+[#519-#518]*0.82422]
#100=[#105+[#106-#105]*1.00000]
X-9.80171 Y-3.04302 Z[#100+-0.04000]
#105=[#512+[#513-#512]*0.81267]
#106=[#518+[#519-#518]*0.81267]
#100=[#105+[#106-#105]*0.99431]
X-9.80390 Y-3.04739 Z[#100+-0.04000]
#105=[#512+[#513-#512]*0.48428]
#106=[#518+[#519-#518]*0.48428]
#100=[#105+[#106-#105]*0.99431]
X-9.80390 Y-3.17166 Z[#100+-0.04000]
#105=[#512+[#513-#512]*0.47273]
#106=[#518+[#519-#518]*0.47273]
#100=[#105+[#106-#105]*1.00000]
X-9.80171 Y-3.17603 Z[#100+-0.04000]
#105=[#518+[#519-#518]*0.39551]
#106=[#524+[#525-#524]*0.39551]
#100=[#105+[#106-#105]*0.03807]
X-9.78710 Y-3.20525 Z[#100+-0.04000]
#105=[#518+[#519-#518]*0.35647]
#106=[#524+[#525-#524]*0.35647]
#100=[#105+[#106-#105]*0.07657]
X-9.77233 Y-3.22002 Z[#100+-0.04000]
#105=[#518+[#519-#518]*0.31209]
#106=[#524+[#525-#524]*0.31209]
#100=[#105+[#106-#105]*0.16411]
X-9.73874 Y-3.23682 Z[#100+-0.04000]
#105=[#518+[#519-#518]*0.31209]
#106=[#524+[#525-#524]*0.31209]
#100=[#105+[#106-#105]*0.36385]
X-9.66209 Y-3.23682 Z[#100+-0.04000]
#105=[#518+[#519-#518]*0.36402]
#106=[#524+[#525-#524]*0.36402]
#100=[#105+[#106-#105]*0.46628]
X-9.62278 Y-3.21717 Z[#100+-0.04000]
#105=[#518+[#519-#518]*0.37131]
#106=[#524+[#525-#524]*0.37131]
#100=[#105+[#106-#105]*0.48506]
X-9.61557 Y-3.21441 Z[#100+-0.04000]
#105=[#518+[#519-#518]*0.37475]
#106=[#524+[#525-#524]*0.37475]
#100=[#105+[#106-#105]*0.50489]
X-9.60796 Y-3.21311 Z[#100+-0.04000]
#105=[#518+[#519-#518]*0.37419]
#106=[#524+[#525-#524]*0.37419]
#100=[#105+[#106-#105]*0.52499]
X-9.60025 Y-3.21332 Z[#100+-0.04000]
#105=[#518+[#519-#518]*0.36967]
#106=[#524+[#525-#524]*0.36967]
#100=[#105+[#106-#105]*0.54460]
X-9.59272 Y-3.21503 Z[#100+-0.04000]
#105=[#518+[#519-#518]*0.36135]
#106=[#524+[#525-#524]*0.36135]
#100=[#105+[#106-#105]*0.56297]
X-9.58568 Y-3.21818 Z[#100+-0.04000]
#105=[#518+[#519-#518]*0.34957]
#106=[#524+[#525-#524]*0.34957]
#100=[#105+[#106-#105]*0.57938]
X-9.57938 Y-3.22264 Z[#100+-0.04000]
#105=[#518+[#519-#518]*0.33476]
#106=[#524+[#525-#524]*0.33476]
#100=[#105+[#106-#105]*0.59321]
X-9.57407 Y-3.22824 Z[#100+-0.04000]
#105=[#518+[#519-#518]*0.31750]
#106=[#524+[#525-#524]*0.31750]
#100=[#105+[#106-#105]*0.60392]
X-9.56996 Y-3.23477 Z[#100+-0.04000]
#105=[#518+[#519-#518]*0.29845]
#106=[#524+[#525-#524]*0.29845]
#100=[#105+[#106-#105]*0.61111]
X-9.56720 Y-3.24198 Z[#100+-0.04000]
#105=[#518+[#519-#518]*0.27835]
#106=[#524+[#525-#524]*0.27835]
#100=[#105+[#106-#105]*0.61450]
X-9.56590 Y-3.24959 Z[#100+-0.04000]
G04 P0 ( dwell for no time -- G64 should not smooth over this point )
G00 Z0.08000 ( retract )

G00 X-10.01818 Y-3.27619 ( rapid move to begin. )
G01 F180.00000
( Mill infeed pass 1/1 )
#105=[#512+[#513-#512]*0.20805]
#106=[#518+[#519-#518]*0.20805]
#100=[#105+[#106-#105]*0.43590]
G01 Z[-0.04000+#100]
G04 P0 ( dwell for no time -- G64 should not smooth over this point )
G01 F360.00000
#105=[#512+[#513-#512]*0.90014]
#106=[#518+[#519-#518]*0.90014]
#100=[#105+[#106-#105]*0.43590]
X-10.01818 Y-3.01429 Z[#100+-0.04000]
#105=[#512+[#513-#512]*0.92405]
#106=[#518+[#519-#518]*0.92405]
#100=[#105+[#106-#105]*0.43316]
X-10.01924 Y-3.00524 Z[#100+-0.04000]
#105=[#512+[#513-#512]*0.94667]
#106=[#518+[#519-#518]*0.94667]
#100=[#105+[#106-#105]*0.42507]
X-10.02234 Y-2.99668 Z[#100+-0.04000]
#100=[#513+[#519-#513]*0.39878]
X-10.03243 Y-2.97650 Z[#100+-0.04000]
#105=[#513+[#514-#513]*0.07251]
#106=[#519+[#520-#519]*0.07251]
#100=[#105+[#106-#105]*0.36302]
X-10.04615 Y-2.94906 Z[#100+-0.04000]
#105=[#513+[#514-#513]*0.09125]
#106=[#519+[#520-#519]*0.09125]
#100=[#105+[#106-#105]*0.35115]
X-10.05071 Y-2.94197 Z[#100+-0.04000]
#105=[#513+[#514-#513]*0.10700]
#106=[#519+[#520-#519]*0.10700]
#100=[#105+[#106-#105]*0.33562]
X-10.05667 Y-2.93601 Z[#100+-0.04000]
#105=[#513+[#514-#513]*0.11903]
#106=[#519+[#520-#519]*0.11903]
#100=[#105+[#106-#105]*0.31714]
X-10.06376 Y-2.93145 Z[#100+-0.04000]
#105=[#513+[#514-#513]*0.18195]
#106=[#519+[#520-#519]*0.18195]
#100=[#105+[#106-#105]*0.19305]
X-10.11138 Y-2.90764 Z[#100+-0.04000]
#105=[#513+[#514-#513]*0.19015]
#106=[#519+[#520-#519]*0.19015]
#100=[#105+[#106-#105]*0.17074]
X-10.11994 Y-2.90454 Z[#100+-0.04000]
#105=[#513+[#514-#513]*0.19294]
#106=[#519+[#520-#519]*0.19294]
#100=[#105+[#106-#105]*0.14717]
X-10.12898 Y-2.90349 Z[#100+-0.04000]
#105=[#513+[#514-#513]*0.19294]
#106=[#519+[#520-#519]*0.19294]
#100=[#105+[#106-#105]*0.00000]
X-10.18546 Y-2.90349 Z[#100+-0.04000]
#105=[#507+[#508-#507]*0.19294]
#106=[#513+[#514-#513]*0.19294]
#100=[#105+[#106-#105]*0.89899]
X-10.22422 Y-2.90349 Z[#100+-0.04000]
#105=[#507+[#508-#507]*0.19015]
#106=[#513+[#514-#513]*0.19015]
#100=[#105+[#106-#105]*0.87542]
X-10.23327 Y-2.90454 Z[#100+-0.04000]
#105=[#507+[#508-#507]*0.18195]
#106=[#513+[#514-#513]*0.18195]
#100=[#105+[#106-#105]*0.85311]
X-10.24183 Y-2.90764 Z[#100+-0.04000]
#105=[#507+[#508-#507]*0.11903]
#106=[#513+[#514-#513]*0.11903]
#100=[#105+[#106-#105]*0.72902]
X-10.28945 Y-2.93145 Z[#100+-0.04000]
#105=[#507+[#508-#507]*0.10817]
#106=[#513+[#514-#513]*0.10817]
#100=[#105+[#106-#105]*0.71200]
X-10.29598 Y-2.93556 Z[#100+-0.04000]
#105=[#507+[#508-#507]*0.09415]
#106=[#513+[#514-#513]*0.09415]
#100=[#105+[#106-#105]*0.69740]
X-10.30158 Y-2.94087 Z[#100+-0.04000]
#105=[#507+[#508-#507]*0.07750]
#106=[#513+[#514-#513]*0.07750]
#100=[#105+[#106-#105]*0.68577]
X-10.30604 Y-2.94717 Z[#100+-0.04000]
#105=[#507+[#508-#507]*0.05888]
#106=[#513+[#514-#513]*0.05888]
#100=[#105+[#106-#105]*0.67757]
X-10.30919 Y-2.95422 Z[#100+-0.04000]
#105=[#507+[#508-#507]*0.03899]
#106=[#513+[#514-#513]*0.03899]
#100=[#105+[#106-#105]*0.67312]
X-10.31090 Y-2.96174 Z[#100+-0.04000]
#105=[#507+[#508-#507]*0.01861]
#106=[#513+[#514-#513]*0.01861]
#100=[#105+[#106-#105]*0.67257]
X-10.31111 Y-2.96946 Z[#100+-0.04000]
#100=[#507+[#513-#507]*0.67570]
X-10.30991 Y-2.97650 Z[#100+-0.04000]
#105=[#506+[#507-#506]*0.99850]
#106=[#512+[#513-#512]*0.99850]
#100=[#105+[#106-#105]*0.67595]
X-10.30981 Y-2.97706 Z[#100+-0.04000]
#105=[#506+[#507-#506]*0.97946]
#106=[#512+[#513-#512]*0.97946]
#100=[#105+[#106-#105]*0.68314]
X-10.30705 Y-2.98427 Z[#100+-0.04000]
#105=[#506+[#507-#506]*0.96219]
#106=[#512+[#513-#512]*0.96219]
#100=[#105+[#106-#105]*0.69385]
X-10.30294 Y-2.99080 Z[#100+-0.04000]
#105=[#506+[#507-#506]*0.94739]
#106=[#512+[#513-#512]*0.94739]
#100=[#105+[#106-#105]*0.70768]
X-10.29764 Y-2.99641 Z[#100+-0.04000]
#105=[#506+[#507-#506]*0.93560]
#106=[#512+[#513-#512]*0.93560]
#100=[#105+[#106-#105]*0.72409]
X-10.29134 Y-3.00087 Z[#100+-0.04000]
#105=[#506+[#507-#506]*0.92728]
#106=[#512+[#513-#512]*0.92728]
#100=[#105+[#106-#105]*0.74246]
X-10.28429 Y-3.00401 Z[#100+-0.04000]
#105=[#506+[#507-#506]*0.92276]
#106=[#512+[#513-#512]*0.92276]
#100=[#105+[#106-#105]*0.76207]
X-10.27676 Y-3.00573 Z[#100+-0.04000]
#105=[#506+[#507-#506]*0.92220]
#106=[#512+[#513-#512]*0.92220]
#100=[#105+[#106-#105]*0.78217]
X-10.26905 Y-3.00594 Z[#100+-0.04000]
#105=[#506+[#507-#506]*0.92564]
#106=[#512+[#513-#512]*0.92564]
#100=[#105+[#106-#105]*0.80200]
X-10.26144 Y-3.00464 Z[#100+-0.04000]
#105=[#506+[#507-#506]*0.93293]
#106=[#512+[#513-#512]*0.93293]
#100=[#105+[#106-#105]*0.82078]
X-10.25423 Y-3.00188 Z[#100+-0.04000]
#105=[#506+[#507-#506]*0.98486]
#106=[#512+[#513-#512]*0.98486]
#100=[#105+[#106-#105]*0.92321]
X-10.21493 Y-2.98223 Z[#100+-0.04000]
#105=[#512+[#513-#512]*0.98486]
#106=[#518+[#519-#518]*0.98486]
#100=[#105+[#106-#105]*0.00000]
X-10.18546 Y-2.98223 Z[#100+-0.04000]
#105=[#512+[#513-#512]*0.98486]
#106=[#518+[#519-#518]*0.98486]
#100=[#105+[#106-#105]*0.12295]
X-10.13828 Y-2.98223 Z[#100+-0.04000]
#105=[#512+[#513-#512]*0.94844]
#106=[#518+[#519-#518]*0.94844]
#100=[#105+[#106-#105]*0.19479]
X-10.11071 Y-2.99601 Z[#100+-0.04000]
#105=[#512+[#513-#512]*0.87559]
#106=[#518+[#519-#518]*0.87559]
#100=[#105+[#106-#105]*0.23071]
X-10.09692 Y-3.02358 Z[#100+-0.04000]
#105=[#512+[#513-#512]*0.83861]
#106=[#518+[#519-#518]*0.83861]
#100=[#105+[#106-#105]*0.23071]
X-10.09692 Y-3.03757 Z[#100+-0.04000]
#105=[#512+[#513-#512]*0.81543]
#106=[#518+[#519-#518]*0.81543]
#100=[#105+[#106-#105]*0.18500]
X-10.11447 Y-3.04634 Z[#100+-0.04000]
#105=[#512+[#513-#512]*0.81543]
#106=[#518+[#519-#518]*0.81543]
#100=[#105+[#106-#105]*0.00000]
X-10.18546 Y-3.04634 Z[#100+-0.04000]
#105=[#506+[#507-#506]*0.81543]
#106=[#512+[#513-#512]*0.81543]
#100=[#105+[#106-#105]*0.89899]
X-10.22422 Y-3.04634 Z[#100+-0.04000]
#105=[#506+[#507-#506]*0.81264]
#106=[#512+[#513-#512]*0.81264]
#100=[#105+[#106-#105]*0.87542]
X-10.23327 Y-3.04740 Z[#100+-0.04000]
#105=[#506+[#507-#506]*0.80445]
#106=[#512+[#513-#512]*0.80445]
#100=[#105+[#106-#105]*0.85311]
X-10.24183 Y-3.05050 Z[#100+-0.04000]
#105=[#506+[#507-#506]*0.74153]
#106=[#512+[#513-#512]*0.74153]
#100=[#105+[#106-#105]*0.72902]
X-10.28945 Y-3.07431 Z[#100+-0.04000]
#105=[#506+[#507-#506]*0.72949]
#106=[#512+[#513-#512]*0.72949]
#100=[#105+[#106-#105]*0.71054]
X-10.29654 Y-3.07886 Z[#100+-0.04000]
#105=[#506+[#507-#506]*0.71375]
#106=[#512+[#513-#512]*0.71375]
#100=[#105+[#106-#105]*0.69501]
X-10.30250 Y-3.08482 Z[#100+-0.04000]
#105=[#506+[#507-#506]*0.69500]
#106=[#512+[#513-#512]*0.69500]
#100=[#105+[#106-#105]*0.68314]
X-10.30705 Y-3.09192 Z[#100+-0.04000]
#105=[#506+[#507-#506]*0.56917]
#106=[#512+[#513-#512]*0.56917]
#100=[#105+[#106-#105]*0.62109]
X-10.33086 Y-3.13953 Z[#100+-0.04000]
#105=[#506+[#507-#506]*0.54654]
#106=[#512+[#513-#512]*0.54654]
#100=[#105+[#106-#105]*0.61301]
X-10.33397 Y-3.14810 Z[#100+-0.04000]
#105=[#506+[#507-#506]*0.52264]
#106=[#512+[#513-#512]*0.52264]
#100=[#105+[#106-#105]*0.61026]
X-10.33502 Y-3.15714 Z[#100+-0.04000]
#105=[#506+[#507-#506]*0.39680]
#106=[#512+[#513-#512]*0.39680]
#100=[#105+[#106-#105]*0.61026]
X-10.33502 Y-3.20476 Z[#100+-0.04000]
#105=[#506+[#507-#506]*0.37290]
#106=[#512+[#513-#512]*0.37290]
#100=[#105+[#106-#105]*0.61301]
X-10.33397 Y-3.21381 Z[#100+-0.04000]
#105=[#506+[#507-#506]*0.35028]
#106=[#512+[#513-#512]*0.35028]
#100=[#105+[#106-#105]*0.62109]
X-10.33086 Y-3.22237 Z[#100+-0.04000]
#105=[#506+[#507-#506]*0.22444]
#106=[#512+[#513-#512]*0.22444]
#100=[#105+[#106-#105]*0.68314]
X-10.30705 Y-3.26999 Z[#100+-0.04000]
#105=[#506+[#507-#506]*0.20570]
#106=[#512+[#513-#512]*0.20570]
#100=[#105+[#106-#105]*0.69501]
X-10.30250 Y-3.27708 Z[#100+-0.04000]
#105=[#506+[#507-#506]*0.18995]
#106=[#512+[#513-#512]*0.18995]
#100=[#105+[#106-#105]*0.71054]
X-10.29654 Y-3.28304 Z[#100+-0.04000]
#105=[#506+[#507-#506]*0.17792]
#106=[#512+[#513-#512]*0.17792]
#100=[#105+[#106-#105]*0.72902]
X-10.28945 Y-3.28759 Z[#100+-0.04000]
#105=[#506+[#507-#506]*0.11500]
#106=[#512+[#513-#512]*0.11500]
#100=[#105+[#106-#105]*0.85311]
X-10.24183 Y-3.31140 Z[#100+-0.04000]
#105=[#506+[#507-#506]*0.10680]
#106=[#512+[#513-#512]*0.10680]
#100=[#105+[#106-#105]*0.87542]
X-10.23327 Y-3.31451 Z[#100+-0.04000]
#105=[#506+[#507-#506]*0.10401]
#106=[#512+[#513-#512]*0.10401]
#100=[#105+[#106-#105]*0.89899]
X-10.22422 Y-3.31556 Z[#100+-0.04000]
#105=[#512+[#513-#512]*0.10401]
#106=[#518+[#519-#518]*0.10401]
#100=[#105+[#106-#105]*0.00000]
X-10.18546 Y-3.31556 Z[#100+-0.04000]
#105=[#512+[#513-#512]*0.10401]
#106=[#518+[#519-#518]*0.10401]
#100=[#105+[#106-#105]*0.20922]
X-10.10517 Y-3.31556 Z[#100+-0.04000]
#105=[#512+[#513-#512]*0.10680]
#106=[#518+[#519-#518]*0.10680]
#100=[#105+[#106-#105]*0.23279]
X-10.09613 Y-3.31451 Z[#100+-0.04000]
#105=[#512+[#513-#512]*0.11500]
#106=[#518+[#519-#518]*0.11500]
#100=[#105+[#106-#105]*0.25510]
X-10.08757 Y-3.31140 Z[#100+-0.04000]
#105=[#512+[#513-#512]*0.12416]
#106=[#518+[#519-#518]*0.12416]
#100=[#105+[#106-#105]*0.27317]
X-10.08063 Y-3.30794 Z[#100+-0.04000]
#105=[#512+[#513-#512]*0.12155]
#106=[#518+[#519-#518]*0.12155]
#100=[#105+[#106-#105]*0.27631]
X-10.07943 Y-3.30892 Z[#100+-0.04000]
#105=[#512+[#513-#512]*0.11193]
#106=[#518+[#519-#518]*0.11193]
#100=[#105+[#106-#105]*0.29405]
X-10.07262 Y-3.31256 Z[#100+-0.04000]
#105=[#512+[#513-#512]*0.10601]
#106=[#518+[#519-#518]*0.10601]
#100=[#105+[#106-#105]*0.31329]
X-10.06523 Y-3.31480 Z[#100+-0.04000]
#105=[#512+[#513-#512]*0.10401]
#106=[#518+[#519-#518]*0.10401]
#100=[#105+[#106-#105]*0.33331]
X-10.05755 Y-3.31556 Z[#100+-0.04000]
#105=[#512+[#513-#512]*0.10601]
#106=[#518+[#519-#518]*0.10601]
#100=[#105+[#106-#105]*0.35332]
X-10.04987 Y-3.31480 Z[#100+-0.04000]
#105=[#512+[#513-#512]*0.11193]
#106=[#518+[#519-#518]*0.11193]
#100=[#105+[#106-#105]*0.37257]
X-10.04249 Y-3.31256 Z[#100+-0.04000]
#105=[#512+[#513-#512]*0.12155]
#106=[#518+[#519-#518]*0.12155]
#100=[#105+[#106-#105]*0.39030]
X-10.03568 Y-3.30892 Z[#100+-0.04000]
#105=[#512+[#513-#512]*0.13449]
#106=[#518+[#519-#518]*0.13449]
#100=[#105+[#106-#105]*0.40585]
X-10.02972 Y-3.30403 Z[#100+-0.04000]
#105=[#512+[#513-#512]*0.15025]
#106=[#518+[#519-#518]*0.15025]
#100=[#105+[#106-#105]*0.41861]
X-10.02482 Y-3.29806 Z[#100+-0.04000]
#105=[#512+[#513-#512]*0.16824]
#106=[#518+[#519-#518]*0.16824]
#100=[#105+[#106-#105]*0.42809]
X-10.02118 Y-3.29126 Z[#100+-0.04000]
#105=[#512+[#513-#512]*0.18776]
#106=[#518+[#519-#518]*0.18776]
#100=[#105+[#106-#105]*0.43393]
X-10.01894 Y-3.28387 Z[#100+-0.04000]
#105=[#512+[#513-#512]*0.20805]
#106=[#518+[#519-#518]*0.20805]
#100=[#105+[#106-#105]*0.43590]
X-10.01818 Y-3.27619 Z[#100+-0.04000]
G04 P0 ( dwell for no time -- G64 should not smooth over this point )
G00 Z0.08000 ( retract )

G00 X-10.09692 Y-3.22805 ( rapid move to begin. )
G01 F180.00000
( Mill infeed pass 1/1 )
#105=[#512+[#513-#512]*0.33527]
#106=[#518+[#519-#518]*0.33527]
#100=[#105+[#106-#105]*0.23071]
G01 Z[-0.04000+#100]
G04 P0 ( dwell for no time -- G64 should not smooth over this point )
G01 F360.00000
#105=[#512+[#513-#512]*0.60989]
#106=[#518+[#519-#518]*0.60989]
#100=[#105+[#106-#105]*0.23071]
X-10.09692 Y-3.12412 Z[#100+-0.04000]
#105=[#512+[#513-#512]*0.60735]
#106=[#518+[#519-#518]*0.60735]
#100=[#105+[#106-#105]*0.20922]
X-10.10517 Y-3.12508 Z[#100+-0.04000]
#105=[#512+[#513-#512]*0.60735]
#106=[#518+[#519-#518]*0.60735]
#100=[#105+[#106-#105]*0.00000]
X-10.18546 Y-3.12508 Z[#100+-0.04000]
#105=[#506+[#507-#506]*0.60735]
#106=[#512+[#513-#512]*0.60735]
#100=[#105+[#106-#105]*0.92321]
X-10.21493 Y-3.12508 Z[#100+-0.04000]
#105=[#506+[#507-#506]*0.57093]
#106=[#512+[#513-#512]*0.57093]
#100=[#105+[#106-#105]*0.85137]
X-10.24250 Y-3.13887 Z[#100+-0.04000]
#105=[#506+[#507-#506]*0.49808]
#106=[#512+[#513-#512]*0.49808]
#100=[#105+[#106-#105]*0.81545]
X-10.25628 Y-3.16644 Z[#100+-0.04000]
#105=[#506+[#507-#506]*0.42137]
#106=[#512+[#513-#512]*0.42137]
#100=[#105+[#106-#105]*0.81545]
X-10.25628 Y-3.19547 Z[#100+-0.04000]
#105=[#506+[#507-#506]*0.34851]
#106=[#512+[#513-#512]*0.34851]
#100=[#105+[#106-#105]*0.85137]
X-10.24250 Y-3.22303 Z[#100+-0.04000]
#105=[#506+[#507-#506]*0.31209]
#106=[#512+[#513-#512]*0.31209]
#100=[#105+[#106-#105]*0.92321]
X-10.21493 Y-3.23682 Z[#100+-0.04000]
#105=[#512+[#513-#512]*0.31209]
#106=[#518+[#519-#518]*0.31209]
#100=[#105+[#106-#105]*0.00000]
X-10.18546 Y-3.23682 Z[#100+-0.04000]
#105=[#512+[#513-#512]*0.31209]
#106=[#518+[#519-#518]*0.31209]
#100=[#105+[#106-#105]*0.18500]
X-10.11447 Y-3.23682 Z[#100+-0.04000]
#105=[#512+[#513-#512]*0.33527]
#106=[#518+[#519-#518]*0.33527]
#100=[#105+[#106-#105]*0.23071]
X-10.09692 Y-3.22805 Z[#100+-0.04000]
G04 P0 ( dwell for no time -- G64 should not smooth over this point )
G00 Z0.08000 ( retract )

G00 X-10.44676 Y-3.18095 ( rapid move to begin. )
G01 F180.00000
( Mill infeed pass 1/1 )
#105=[#506+[#507-#506]*0.45972]
#106=[#512+[#513-#512]*0.45972]
#100=[#105+[#106-#105]*0.31909]
G01 Z[-0.04000+#100]
G04 P0 ( dwell for no time -- G64 should not smooth over this point )
G01 F360.00000
#105=[#506+[#507-#506]*0.64847]
#106=[#512+[#513-#512]*0.64847]
#100=[#105+[#106-#105]*0.31909]
X-10.44676 Y-3.10952 Z[#100+-0.04000]
#105=[#506+[#507-#506]*0.67238]
#106=[#512+[#513-#512]*0.67238]
#100=[#105+[#106-#105]*0.31635]
X-10.44781 Y-3.10048 Z[#100+-0.04000]
#105=[#506+[#507-#506]*0.69500]
#106=[#512+[#513-#512]*0.69500]
#100=[#105+[#106-#105]*0.30826]
X-10.45091 Y-3.09192 Z[#100+-0.04000]
#105=[#506+[#507-#506]*0.82084]
#106=[#512+[#513-#512]*0.82084]
#100=[#105+[#106-#105]*0.24622]
X-10.47472 Y-3.04430 Z[#100+-0.04000]
#105=[#506+[#507-#506]*0.83514]
#106=[#512+[#513-#512]*0.83514]
#100=[#105+[#106-#105]*0.23768]
X-10.47800 Y-3.03888 Z[#100+-0.04000]
#105=[#506+[#507-#506]*0.84788]
#106=[#512+[#513-#512]*0.84788]
#100=[#105+[#106-#105]*0.22700]
X-10.48210 Y-3.03406 Z[#100+-0.04000]
#105=[#506+[#507-#506]*0.91079]
#106=[#512+[#513-#512]*0.91079]
#100=[#105+[#106-#105]*0.16495]
X-10.50591 Y-3.01025 Z[#100+-0.04000]
#105=[#506+[#507-#506]*0.92573]
#106=[#512+[#513-#512]*0.92573]
#100=[#105+[#106-#105]*0.14634]
X-10.51305 Y-3.00460 Z[#100+-0.04000]
#105=[#506+[#507-#506]*0.92822]
#106=[#512+[#513-#512]*0.92822]
#100=[#105+[#106-#105]*0.14109]
X-10.51506 Y-3.00366 Z[#100+-0.04000]
#105=[#506+[#507-#506]*0.95242]
#106=[#512+[#513-#512]*0.95242]
#100=[#105+[#106-#105]*0.16495]
X-10.50591 Y-2.99450 Z[#100+-0.04000]
#105=[#506+[#507-#506]*0.96515]
#106=[#512+[#513-#512]*0.96515]
#100=[#105+[#106-#105]*0.17564]
X-10.50181 Y-2.98969 Z[#100+-0.04000]
#105=[#506+[#507-#506]*0.97945]
#106=[#512+[#513-#512]*0.97945]
#100=[#105+[#106-#105]*0.18417]
X-10.49853 Y-2.98427 Z[#100+-0.04000]
#100=[#507+[#513-#507]*0.19430]
X-10.49464 Y-2.97650 Z[#100+-0.04000]
#105=[#507+[#508-#507]*0.10529]
#106=[#513+[#514-#513]*0.10529]
#100=[#105+[#106-#105]*0.24622]
X-10.47472 Y-2.93665 Z[#100+-0.04000]
#105=[#507+[#508-#507]*0.12791]
#106=[#513+[#514-#513]*0.12791]
#100=[#105+[#106-#105]*0.25430]
X-10.47162 Y-2.92809 Z[#100+-0.04000]
#105=[#507+[#508-#507]*0.15182]
#106=[#513+[#514-#513]*0.15182]
#100=[#105+[#106-#105]*0.25705]
X-10.47056 Y-2.91905 Z[#100+-0.04000]
#105=[#507+[#508-#507]*0.27765]
#106=[#513+[#514-#513]*0.27765]
#100=[#105+[#106-#105]*0.25705]
X-10.47056 Y-2.87143 Z[#100+-0.04000]
#105=[#507+[#508-#507]*0.30155]
#106=[#513+[#514-#513]*0.30155]
#100=[#105+[#106-#105]*0.25430]
X-10.47162 Y-2.86238 Z[#100+-0.04000]
#105=[#507+[#508-#507]*0.32418]
#106=[#513+[#514-#513]*0.32418]
#100=[#105+[#106-#105]*0.24622]
X-10.47472 Y-2.85382 Z[#100+-0.04000]
#105=[#507+[#508-#507]*0.45002]
#106=[#513+[#514-#513]*0.45002]
#100=[#105+[#106-#105]*0.18417]
X-10.49853 Y-2.80620 Z[#100+-0.04000]
#105=[#507+[#508-#507]*0.46432]
#106=[#513+[#514-#513]*0.46432]
#100=[#105+[#106-#105]*0.17564]
X-10.50181 Y-2.80079 Z[#100+-0.04000]
#105=[#507+[#508-#507]*0.47705]
#106=[#513+[#514-#513]*0.47705]
#100=[#105+[#106-#105]*0.16495]
X-10.50591 Y-2.79597 Z[#100+-0.04000]
#105=[#507+[#508-#507]*0.53997]
#106=[#513+[#514-#513]*0.53997]
#100=[#105+[#106-#105]*0.10291]
X-10.52972 Y-2.77216 Z[#100+-0.04000]
#105=[#507+[#508-#507]*0.55080]
#106=[#513+[#514-#513]*0.55080]
#100=[#105+[#106-#105]*0.09035]
X-10.53453 Y-2.76806 Z[#100+-0.04000]
#105=[#507+[#508-#507]*0.55946]
#106=[#513+[#514-#513]*0.55946]
#100=[#105+[#106-#105]*0.07625]
X-10.53995 Y-2.76479 Z[#100+-0.04000]
#105=[#501+[#502-#501]*0.59812]
#106=[#507+[#508-#507]*0.59812]
#100=[#105+[#106-#105]*1.00000]
X-10.56921 Y-2.75016 Z[#100+-0.04000]
#105=[#501+[#502-#501]*0.62238]
#106=[#507+[#508-#507]*0.62238]
#100=[#105+[#106-#105]*0.95216]
X-10.58757 Y-2.74098 Z[#100+-0.04000]
#105=[#501+[#502-#501]*0.63058]
#106=[#507+[#508-#507]*0.63058]
#100=[#105+[#106-#105]*0.92985]
X-10.59613 Y-2.73787 Z[#100+-0.04000]
#105=[#501+[#502-#501]*0.63336]
#106=[#507+[#508-#507]*0.63336]
#100=[#105+[#106-#105]*0.90627]
X-10.60517 Y-2.73682 Z[#100+-0.04000]
#105=[#501+[#502-#501]*0.63336]
#106=[#507+[#508-#507]*0.63336]
#100=[#105+[#106-#105]*0.47196]
X-10.77184 Y-2.73682 Z[#100+-0.04000]
#105=[#501+[#502-#501]*0.63136]
#106=[#507+[#508-#507]*0.63136]
#100=[#105+[#106-#105]*0.45194]
X-10.77952 Y-2.73758 Z[#100+-0.04000]
#105=[#501+[#502-#501]*0.62544]
#106=[#507+[#508-#507]*0.62544]
#100=[#105+[#106-#105]*0.43270]
X-10.78691 Y-2.73982 Z[#100+-0.04000]
#105=[#501+[#502-#501]*0.61583]
#106=[#507+[#508-#507]*0.61583]
#100=[#105+[#106-#105]*0.41496]
X-10.79371 Y-2.74345 Z[#100+-0.04000]
#105=[#501+[#502-#501]*0.60289]
#106=[#507+[#508-#507]*0.60289]
#100=[#105+[#106-#105]*0.39941]
X-10.79968 Y-2.74835 Z[#100+-0.04000]
#105=[#501+[#502-#501]*0.58712]
#106=[#507+[#508-#507]*0.58712]
#100=[#105+[#106-#105]*0.38665]
X-10.80458 Y-2.75432 Z[#100+-0.04000]
#105=[#501+[#502-#501]*0.56914]
#106=[#507+[#508-#507]*0.56914]
#100=[#105+[#106-#105]*0.37717]
X-10.80821 Y-2.76112 Z[#100+-0.04000]
#105=[#501+[#502-#501]*0.54962]
#106=[#507+[#508-#507]*0.54962]
#100=[#105+[#106-#105]*0.37134]
X-10.81045 Y-2.76851 Z[#100+-0.04000]
#105=[#501+[#502-#501]*0.52932]
#106=[#507+[#508-#507]*0.52932]
#100=[#105+[#106-#105]*0.36936]
X-10.81121 Y-2.77619 Z[#100+-0.04000]
#100=[#501+[#507-#501]*0.36936]
X-10.81121 Y-2.97650 Z[#100+-0.04000]
#105=[#500+[#501-#500]*0.20805]
#106=[#506+[#507-#506]*0.20805]
#100=[#105+[#106-#105]*0.36936]
X-10.81121 Y-3.27619 Z[#100+-0.04000]
#105=[#500+[#501-#500]*0.18776]
#106=[#506+[#507-#506]*0.18776]
#100=[#105+[#106-#105]*0.37134]
X-10.81045 Y-3.28387 Z[#100+-0.04000]
#105=[#500+[#501-#500]*0.16824]
#106=[#506+[#507-#506]*0.16824]
#100=[#105+[#106-#105]*0.37717]
X-10.80821 Y-3.29126 Z[#100+-0.04000]
#105=[#500+[#501-#500]*0.15025]
#106=[#506+[#507-#506]*0.15025]
#100=[#105+[#106-#105]*0.38665]
X-10.80458 Y-3.29806 Z[#100+-0.04000]
#105=[#500+[#501-#500]*0.13449]
#106=[#506+[#507-#506]*0.13449]
#100=[#105+[#106-#105]*0.39941]
X-10.79968 Y-3.30403 Z[#100+-0.04000]
#105=[#500+[#501-#500]*0.12155]
#106=[#506+[#507-#506]*0.12155]
#100=[#105+[#106-#105]*0.41496]
X-10.79371 Y-3.30892 Z[#100+-0.04000]
#105=[#500+[#501-#500]*0.11193]
#106=[#506+[#507-#506]*0.11193]
#100=[#105+[#106-#105]*0.43270]
X-10.78691 Y-3.31256 Z[#100+-0.04000]
#105=[#500+[#501-#500]*0.10601]
#106=[#506+[#507-#506]*0.10601]
#100=[#105+[#106-#105]*0.45194]
X-10.77952 Y-3.31480 Z[#100+-0.04000]
#105=[#500+[#501-#500]*0.10401]
#106=[#506+[#507-#506]*0.10401]
#100=[#105+[#106-#105]*0.47196]
X-10.77184 Y-3.31556 Z[#100+-0.04000]
#105=[#500+[#501-#500]*0.10401]
#106=[#506+[#507-#506]*0.10401]
#100=[#105+[#106-#105]*0.96832]
X-10.58136 Y-3.31556 Z[#100+-0.04000]
#105=[#500+[#501-#500]*0.10680]
#106=[#506+[#507-#506]*0.10680]
#100=[#105+[#106-#105]*0.99189]
X-10.57232 Y-3.31451 Z[#100+-0.04000]
#105=[#500+[#501-#500]*0.10978]
#106=[#506+[#507-#506]*0.10978]
#100=[#105+[#106-#105]*1.00000]
X-10.56921 Y-3.31338 Z[#100+-0.04000]
#105=[#506+[#507-#506]*0.11500]
#106=[#512+[#513-#512]*0.11500]
#100=[#105+[#106-#105]*0.01420]
X-10.56376 Y-3.31140 Z[#100+-0.04000]
#105=[#506+[#507-#506]*0.17792]
#106=[#512+[#513-#512]*0.17792]
#100=[#105+[#106-#105]*0.13829]
X-10.51614 Y-3.28759 Z[#100+-0.04000]
#105=[#506+[#507-#506]*0.18657]
#106=[#512+[#513-#512]*0.18657]
#100=[#105+[#106-#105]*0.15239]
X-10.51073 Y-3.28432 Z[#100+-0.04000]
#105=[#506+[#507-#506]*0.19740]
#106=[#512+[#513-#512]*0.19740]
#100=[#105+[#106-#105]*0.16495]
X-10.50591 Y-3.28022 Z[#100+-0.04000]
#105=[#506+[#507-#506]*0.26032]
#106=[#512+[#513-#512]*0.26032]
#100=[#105+[#106-#105]*0.22700]
X-10.48210 Y-3.25641 Z[#100+-0.04000]
#105=[#506+[#507-#506]*0.27305]
#106=[#512+[#513-#512]*0.27305]
#100=[#105+[#106-#105]*0.23768]
X-10.47800 Y-3.25159 Z[#100+-0.04000]
#105=[#506+[#507-#506]*0.28736]
#106=[#512+[#513-#512]*0.28736]
#100=[#105+[#106-#105]*0.24622]
X-10.47472 Y-3.24618 Z[#100+-0.04000]
#105=[#506+[#507-#506]*0.41320]
#106=[#512+[#513-#512]*0.41320]
#100=[#105+[#106-#105]*0.30826]
X-10.45091 Y-3.19856 Z[#100+-0.04000]
#105=[#506+[#507-#506]*0.43582]
#106=[#512+[#513-#512]*0.43582]
#100=[#105+[#106-#105]*0.31635]
X-10.44781 Y-3.19000 Z[#100+-0.04000]
#105=[#506+[#507-#506]*0.45972]
#106=[#512+[#513-#512]*0.45972]
#100=[#105+[#106-#105]*0.31909]
X-10.44676 Y-3.18095 Z[#100+-0.04000]
G04 P0 ( dwell for no time -- G64 should not smooth over this point )
G00 Z0.08000 ( retract )

G00 X-10.52550 Y-3.17166 ( rapid move to begin. )
G01 F180.00000
( Mill infeed pass 1/1 )
#105=[#506+[#507-#506]*0.48428]
#106=[#512+[#513-#512]*0.48428]
#100=[#105+[#106-#105]*0.11390]
G01 Z[-0.04000+#100]
G04 P0 ( dwell for no time -- G64 should not smooth over this point )
G01 F360.00000
#105=[#506+[#507-#506]*0.62392]
#106=[#512+[#513-#512]*0.62392]
#100=[#105+[#106-#105]*0.11390]
X-10.52550 Y-3.11882 Z[#100+-0.04000]
#105=[#506+[#507-#506]*0.71268]
#106=[#512+[#513-#512]*0.71268]
#100=[#105+[#106-#105]*0.07014]
X-10.54229 Y-3.08522 Z[#100+-0.04000]
#105=[#506+[#507-#506]*0.74630]
#106=[#512+[#513-#512]*0.74630]
#100=[#105+[#106-#105]*0.03699]
X-10.55501 Y-3.07251 Z[#100+-0.04000]
#105=[#500+[#501-#500]*0.75880]
#106=[#506+[#507-#506]*0.75880]
#100=[#105+[#106-#105]*1.00000]
X-10.56921 Y-3.06777 Z[#100+-0.04000]
#105=[#500+[#501-#500]*0.79611]
#106=[#506+[#507-#506]*0.79611]
#100=[#105+[#106-#105]*0.88962]
X-10.61156 Y-3.05366 Z[#100+-0.04000]
#105=[#500+[#501-#500]*0.79611]
#106=[#506+[#507-#506]*0.79611]
#100=[#105+[#106-#105]*0.57455]
X-10.73247 Y-3.05366 Z[#100+-0.04000]
#105=[#500+[#501-#500]*0.31209]
#106=[#506+[#507-#506]*0.31209]
#100=[#105+[#106-#105]*0.57455]
X-10.73247 Y-3.23682 Z[#100+-0.04000]
#105=[#500+[#501-#500]*0.31209]
#106=[#506+[#507-#506]*0.31209]
#100=[#105+[#106-#105]*0.94410]
X-10.59066 Y-3.23682 Z[#100+-0.04000]
#105=[#500+[#501-#500]*0.34043]
#106=[#506+[#507-#506]*0.34043]
#100=[#105+[#106-#105]*1.00000]
X-10.56921 Y-3.22609 Z[#100+-0.04000]
#105=[#506+[#507-#506]*0.35647]
#106=[#512+[#513-#512]*0.35647]
#100=[#105+[#106-#105]*0.03164]
X-10.55707 Y-3.22002 Z[#100+-0.04000]
#105=[#506+[#507-#506]*0.39551]
#106=[#512+[#513-#512]*0.39551]
#100=[#105+[#106-#105]*0.07014]
X-10.54229 Y-3.20525 Z[#100+-0.04000]
#105=[#506+[#507-#506]*0.48428]
#106=[#512+[#513-#512]*0.48428]
#100=[#105+[#106-#105]*0.11390]
X-10.52550 Y-3.17166 Z[#100+-0.04000]
G04 P0 ( dwell for no time -- G64 should not smooth over this point )
G00 Z0.08000 ( retract )

G00 X-10.54931 Y-2.90975 ( rapid move to begin. )
G01 F180.00000
( Mill infeed pass 1/1 )
#105=[#507+[#508-#507]*0.17638]
#106=[#513+[#514-#513]*0.17638]
#100=[#105+[#106-#105]*0.05186]
G01 Z[-0.04000+#100]
G04 P0 ( dwell for no time -- G64 should not smooth over this point )
G01 F360.00000
#105=[#507+[#508-#507]*0.25309]
#106=[#513+[#514-#513]*0.25309]
#100=[#105+[#106-#105]*0.05186]
X-10.54931 Y-2.88072 Z[#100+-0.04000]
#105=[#507+[#508-#507]*0.34186]
#106=[#513+[#514-#513]*0.34186]
#100=[#105+[#106-#105]*0.00809]
X-10.56610 Y-2.84713 Z[#100+-0.04000]
#105=[#501+[#502-#501]*0.35006]
#106=[#507+[#508-#507]*0.35006]
#100=[#105+[#106-#105]*1.00000]
X-10.56921 Y-2.84403 Z[#100+-0.04000]
#105=[#501+[#502-#501]*0.38090]
#106=[#507+[#508-#507]*0.38090]
#100=[#105+[#106-#105]*0.96959]
X-10.58088 Y-2.83236 Z[#100+-0.04000]
#105=[#501+[#502-#501]*0.42528]
#106=[#507+[#508-#507]*0.42528]
#100=[#105+[#106-#105]*0.88205]
X-10.61447 Y-2.81556 Z[#100+-0.04000]
#105=[#501+[#502-#501]*0.42528]
#106=[#507+[#508-#507]*0.42528]
#100=[#105+[#106-#105]*0.57455]
X-10.73247 Y-2.81556 Z[#100+-0.04000]
#105=[#501+[#502-#501]*0.00418]
#106=[#507+[#508-#507]*0.00418]
#100=[#105+[#106-#105]*0.57455]
X-10.73247 Y-2.97491 Z[#100+-0.04000]
#105=[#501+[#502-#501]*0.00418]
#106=[#507+[#508-#507]*0.00418]
#100=[#105+[#106-#105]*0.88206]
X-10.61447 Y-2.97491 Z[#100+-0.04000]
#105=[#501+[#502-#501]*0.04857]
#106=[#507+[#508-#507]*0.04857]
#100=[#105+[#106-#105]*0.96959]
X-10.58088 Y-2.95812 Z[#100+-0.04000]
#105=[#501+[#502-#501]*0.07940]
#106=[#507+[#508-#507]*0.07940]
#100=[#105+[#106-#105]*1.00000]
X-10.56921 Y-2.94645 Z[#100+-0.04000]
#105=[#507+[#508-#507]*0.08761]
#106=[#513+[#514-#513]*0.08761]
#100=[#105+[#106-#105]*0.00809]
X-10.56610 Y-2.94334 Z[#100+-0.04000]
#105=[#507+[#508-#507]*0.17638]
#106=[#513+[#514-#513]*0.17638]
#100=[#105+[#106-#105]*0.05186]
X-10.54931 Y-2.90975 Z[#100+-0.04000]
G04 P0 ( dwell for no time -- G64 should not smooth over this point )
G00 Z0.08000 ( retract )

G00 X-10.84311 Y-3.35000 ( rapid move to begin. )
G01 F180.00000
( Mill infeed pass 1/1 )
#105=[#500+[#501-#500]*0.01300]
#106=[#506+[#507-#506]*0.01300]
#100=[#105+[#106-#105]*0.28624]
G01 Z[-0.04000+#100]
G04 P0 ( dwell for no time -- G64 should not smooth over this point )
G01 F360.00000
#105=[#500+[#501-#500]*0.00803]
#106=[#506+[#507-#506]*0.00803]
#100=[#105+[#106-#105]*0.28526]
X-10.84348 Y-3.35188 Z[#100+-0.04000]
#105=[#500+[#501-#500]*0.00381]
#106=[#506+[#507-#506]*0.00381]
#100=[#105+[#106-#105]*0.28248]
X-10.84455 Y-3.35348 Z[#100+-0.04000]
#105=[#500+[#501-#500]*0.00099]
#106=[#506+[#507-#506]*0.00099]
#100=[#105+[#106-#105]*0.27832]
X-10.84615 Y-3.35455 Z[#100+-0.04000]
#100=[#500+[#506-#500]*0.27341]
X-10.84803 Y-3.35492 Z[#100+-0.04000]
#105=[#500+[#501-#500]*0.00099]
#106=[#506+[#507-#506]*0.00099]
#100=[#105+[#106-#105]*0.26851]
X-10.84991 Y-3.35455 Z[#100+-0.04000]
#105=[#500+[#501-#500]*0.00381]
#106=[#506+[#507-#506]*0.00381]
#100=[#105+[#106-#105]*0.26435]
X-10.85151 Y-3.35348 Z[#100+-0.04000]
#105=[#500+[#501-#500]*0.12674]
#106=[#506+[#507-#506]*0.12674]
#100=[#105+[#106-#105]*0.14312]
X-10.89803 Y-3.30696 Z[#100+-0.04000]
#105=[#500+[#501-#500]*0.00381]
#106=[#506+[#507-#506]*0.00381]
#100=[#105+[#106-#105]*0.02189]
X-10.94455 Y-3.35348 Z[#100+-0.04000]
#105=[#500+[#501-#500]*0.00099]
#106=[#506+[#507-#506]*0.00099]
#100=[#105+[#106-#105]*0.01773]
X-10.94615 Y-3.35455 Z[#100+-0.04000]
#100=[#500+[#506-#500]*0.01282]
X-10.94803 Y-3.35492 Z[#100+-0.04000]
#105=[#500+[#501-#500]*0.00099]
#106=[#506+[#507-#506]*0.00099]
#100=[#105+[#106-#105]*0.00792]
X-10.94991 Y-3.35455 Z[#100+-0.04000]
#105=[#500+[#501-#500]*0.00381]
#106=[#506+[#507-#506]*0.00381]
#100=[#105+[#106-#105]*0.00376]
X-10.95151 Y-3.35348 Z[#100+-0.04000]
#105=[#500+[#501-#500]*0.00803]
#106=[#506+[#507-#506]*0.00803]
#100=[#105+[#106-#105]*0.00098]
X-10.95258 Y-3.35188 Z[#100+-0.04000]
#100=[#500+[#501-#500]*0.01300]
X-10.95295 Y-3.35000 Z[#100+-0.04000]
#105=[#500+[#501-#500]*0.01798]
#106=[#506+[#507-#506]*0.01798]
#100=[#105+[#106-#105]*0.00098]
X-10.95258 Y-3.34812 Z[#100+-0.04000]
#105=[#500+[#501-#500]*0.02220]
#106=[#506+[#507-#506]*0.02220]
#100=[#105+[#106-#105]*0.00376]
X-10.95151 Y-3.34652 Z[#100+-0.04000]
#105=[#500+[#501-#500]*0.14513]
#106=[#506+[#507-#506]*0.14513]
#100=[#105+[#106-#105]*0.12498]
X-10.90499 Y-3.30000 Z[#100+-0.04000]
#105=[#500+[#501-#500]*0.26806]
#106=[#506+[#507-#506]*0.26806]
#100=[#105+[#106-#105]*0.00376]
X-10.95151 Y-3.25348 Z[#100+-0.04000]
#105=[#500+[#501-#500]*0.27228]
#106=[#506+[#507-#506]*0.27228]
#100=[#105+[#106-#105]*0.00098]
X-10.95258 Y-3.25188 Z[#100+-0.04000]
#100=[#500+[#501-#500]*0.27726]
X-10.95295 Y-3.25000 Z[#100+-0.04000]
#105=[#500+[#501-#500]*0.28224]
#106=[#506+[#507-#506]*0.28224]
#100=[#105+[#106-#105]*0.00098]
X-10.95258 Y-3.24812 Z[#100+-0.04000]
#105=[#500+[#501-#500]*0.28645]
#106=[#506+[#507-#506]*0.28645]
#100=[#105+[#106-#105]*0.00376]
X-10.95151 Y-3.24652 Z[#100+-0.04000]
#105=[#500+[#501-#500]*0.28927]
#106=[#506+[#507-#506]*0.28927]
#100=[#105+[#106-#105]*0.00792]
X-10.94991 Y-3.24545 Z[#100+-0.04000]
#105=[#500+[#501-#500]*0.29026]
#106=[#506+[#507-#506]*0.29026]
#100=[#105+[#106-#105]*0.01282]
X-10.94803 Y-3.24508 Z[#100+-0.04000]
#105=[#500+[#501-#500]*0.28927]
#106=[#506+[#507-#506]*0.28927]
#100=[#105+[#106-#105]*0.01773]
X-10.94615 Y-3.24545 Z[#100+-0.04000]
#105=[#500+[#501-#500]*0.28645]
#106=[#506+[#507-#506]*0.28645]
#100=[#105+[#106-#105]*0.02189]
X-10.94455 Y-3.24652 Z[#100+-0.04000]
#105=[#500+[#501-#500]*0.16352]
#106=[#506+[#507-#506]*0.16352]
#100=[#105+[#106-#105]*0.14312]
X-10.89803 Y-3.29304 Z[#100+-0.04000]
#105=[#500+[#501-#500]*0.28645]
#106=[#506+[#507-#506]*0.28645]
#100=[#105+[#106-#105]*0.26435]
X-10.85151 Y-3.24652 Z[#100+-0.04000]
#105=[#500+[#501-#500]*0.28927]
#106=[#506+[#507-#506]*0.28927]
#100=[#105+[#106-#105]*0.26851]
X-10.84991 Y-3.24545 Z[#100+-0.04000]
#105=[#500+[#501-#500]*0.29026]
#106=[#506+[#507-#506]*0.29026]
#100=[#105+[#106-#105]*0.27341]
X-10.84803 Y-3.24508 Z[#100+-0.04000]
#105=[#500+[#501-#500]*0.28927]
#106=[#506+[#507-#506]*0.28927]
#100=[#105+[#106-#105]*0.27832]
X-10.84615 Y-3.24545 Z[#100+-0.04000]
#105=[#500+[#501-#500]*0.28645]
#106=[#506+[#507-#506]*0.28645]
#100=[#105+[#106-#105]*0.28248]
X-10.84455 Y-3.24652 Z[#100+-0.04000]
#105=[#500+[#501-#500]*0.28224]
#106=[#506+[#507-#506]*0.28224]
#100=[#105+[#106-#105]*0.28526]
X-10.84348 Y-3.24812 Z[#100+-0.04000]
#105=[#500+[#501-#500]*0.27726]
#106=[#506+[#507-#506]*0.27726]
#100=[#105+[#106-#105]*0.28624]
X-10.84311 Y-3.25000 Z[#100+-0.04000]
#105=[#500+[#501-#500]*0.27228]
#106=[#506+[#507-#506]*0.27228]
#100=[#105+[#106-#105]*0.28526]
X-10.84348 Y-3.25188 Z[#100+-0.04000]
#105=[#500+[#501-#500]*0.26806]
#106=[#506+[#507-#506]*0.26806]
#100=[#105+[#106-#105]*0.28248]
X-10.84455 Y-3.25348 Z[#100+-0.04000]
#105=[#500+[#501-#500]*0.14513]
#106=[#506+[#507-#506]*0.14513]
#100=[#105+[#106-#105]*0.16125]
X-10.89107 Y-3.30000 Z[#100+-0.04000]
#105=[#500+[#501-#500]*0.02220]
#106=[#506+[#507-#506]*0.02220]
#100=[#105+[#106-#105]*0.28248]
X-10.84455 Y-3.34652 Z[#100+-0.04000]
#105=[#500+[#501-#500]*0.01798]
#106=[#506+[#507-#506]*0.01798]
#100=[#105+[#106-#105]*0.28526]
X-10.84348 Y-3.34812 Z[#100+-0.04000]
#105=[#500+[#501-#500]*0.01300]
#106=[#506+[#507-#506]*0.01300]
#100=[#105+[#106-#105]*0.28624]
X-10.84311 Y-3.35000 Z[#100+-0.04000]
( Piece #2, position [1;0] )

G04 P0 ( dwell for no time -- G64 should not smooth over this point )
G00 Z0.08000 ( retract )

G00 X-6.98702 Y-2.94286 ( rapid move to begin. )
G01 F180.00000
( Mill infeed pass 1/1 )
#105=[#561+[#562-#561]*0.08890]
#106=[#567+[#568-#567]*0.08890]
#100=[#105+[#106-#105]*0.33476]
G01 Z[-0.04000+#100]
G04 P0 ( dwell for no time -- G64 should not smooth over this point )
G01 F360.00000
#105=[#561+[#562-#561]*0.06860]
#106=[#567+[#568-#567]*0.06860]
#100=[#105+[#106-#105]*0.33279]
X-6.98778 Y-2.95054 Z[#100+-0.04000]
#105=[#561+[#562-#561]*0.04908]
#106=[#567+[#568-#567]*0.04908]
#100=[#105+[#106-#105]*0.32695]
X-6.99002 Y-2.95792 Z[#100+-0.04000]
#105=[#561+[#562-#561]*0.03110]
#106=[#567+[#568-#567]*0.03110]
#100=[#105+[#106-#105]*0.31747]
X-6.99366 Y-2.96473 Z[#100+-0.04000]
#105=[#561+[#562-#561]*0.01533]
#106=[#567+[#568-#567]*0.01533]
#100=[#105+[#106-#105]*0.30471]
X-6.99856 Y-2.97070 Z[#100+-0.04000]
#100=[#561+[#567-#561]*0.28959]
X-7.00436 Y-2.97650 Z[#100+-0.04000]
#105=[#560+[#561-#560]*0.70633]
#106=[#566+[#567-#566]*0.70633]
#100=[#105+[#106-#105]*0.00000]
X-7.11549 Y-3.08763 Z[#100+-0.04000]
#105=[#554+[#555-#554]*0.70163]
#106=[#560+[#561-#560]*0.70163]
#100=[#105+[#106-#105]*0.99536]
X-7.11727 Y-3.08941 Z[#100+-0.04000]
#105=[#560+[#561-#560]*0.69535]
#106=[#566+[#567-#566]*0.69535]
#100=[#105+[#106-#105]*0.00000]
X-7.11549 Y-3.09178 Z[#100+-0.04000]
#105=[#560+[#561-#560]*0.27047]
#106=[#566+[#567-#566]*0.27047]
#100=[#105+[#106-#105]*0.31424]
X-6.99490 Y-3.25257 Z[#100+-0.04000]
#105=[#560+[#561-#560]*0.25304]
#106=[#566+[#567-#566]*0.25304]
#100=[#105+[#106-#105]*0.32467]
X-6.99090 Y-3.25917 Z[#100+-0.04000]
#105=[#560+[#561-#560]*0.23387]
#106=[#566+[#567-#566]*0.23387]
#100=[#105+[#106-#105]*0.33155]
X-6.98826 Y-3.26642 Z[#100+-0.04000]
#105=[#560+[#561-#560]*0.21371]
#106=[#566+[#567-#566]*0.21371]
#100=[#105+[#106-#105]*0.33461]
X-6.98708 Y-3.27405 Z[#100+-0.04000]
#105=[#560+[#561-#560]*0.19334]
#106=[#566+[#567-#566]*0.19334]
#100=[#105+[#106-#105]*0.33373]
X-6.98742 Y-3.28176 Z[#100+-0.04000]
#105=[#560+[#561-#560]*0.17353]
#106=[#566+[#567-#566]*0.17353]
#100=[#105+[#106-#105]*0.32895]
X-6.98926 Y-3.28925 Z[#100+-0.04000]
#105=[#560+[#561-#560]*0.15505]
#106=[#566+[#567-#566]*0.15505]
#100=[#105+[#106-#105]*0.32044]
X-6.99252 Y-3.29625 Z[#100+-0.04000]
#105=[#560+[#561-#560]*0.13860]
#106=[#566+[#567-#566]*0.13860]
#100=[#105+[#106-#105]*0.30855]
X-6.99708 Y-3.30247 Z[#100+-0.04000]
#105=[#560+[#561-#560]*0.12482]
#106=[#566+[#567-#566]*0.12482]
#100=[#105+[#106-#105]*0.29372]
X-7.00277 Y-3.30769 Z[#100+-0.04000]
#105=[#560+[#561-#560]*0.11424]
#106=[#566+[#567-#566]*0.11424]
#100=[#105+[#106-#105]*0.27653]
X-7.00937 Y-3.31169 Z[#100+-0.04000]
#105=[#560+[#561-#560]*0.10727]
#106=[#566+[#567-#566]*0.10727]
#100=[#105+[#106-#105]*0.25763]
X-7.01662 Y-3.31433 Z[#100+-0.04000]
#105=[#560+[#561-#560]*0.10417]
#106=[#566+[#567-#566]*0.10417]
#100=[#105+[#106-#105]*0.23775]
X-7.02425 Y-3.31550 Z[#100+-0.04000]
#105=[#560+[#561-#560]*0.10506]
#106=[#566+[#567-#566]*0.10506]
#100=[#105+[#106-#105]*0.21766]
X-7.03196 Y-3.31516 Z[#100+-0.04000]
#105=[#560+[#561-#560]*0.10991]
#106=[#566+[#567-#566]*0.10991]
#100=[#105+[#106-#105]*0.19812]
X-7.03946 Y-3.31333 Z[#100+-0.04000]
#105=[#560+[#561-#560]*0.11853]
#106=[#566+[#567-#566]*0.11853]
#100=[#105+[#106-#105]*0.17989]
X-7.04645 Y-3.31007 Z[#100+-0.04000]
#105=[#560+[#561-#560]*0.13059]
#106=[#566+[#567-#566]*0.13059]
#100=[#105+[#106-#105]*0.16368]
X-7.05268 Y-3.30550 Z[#100+-0.04000]
#105=[#560+[#561-#560]*0.14563]
#106=[#566+[#567-#566]*0.14563]
#100=[#105+[#106-#105]*0.15009]
X-7.05789 Y-3.29981 Z[#100+-0.04000]
#105=[#560+[#561-#560]*0.34856]
#106=[#566+[#567-#566]*0.34856]
#100=[#105+[#106-#105]*0.00000]
X-7.11549 Y-3.22302 Z[#100+-0.04000]
#105=[#554+[#555-#554]*0.55300]
#106=[#560+[#561-#560]*0.55300]
#100=[#105+[#106-#105]*0.84879]
X-7.17351 Y-3.14565 Z[#100+-0.04000]
#105=[#554+[#555-#554]*0.54246]
#106=[#560+[#561-#560]*0.54246]
#100=[#105+[#106-#105]*0.83840]
X-7.17750 Y-3.14964 Z[#100+-0.04000]
#105=[#554+[#555-#554]*0.20805]
#106=[#560+[#561-#560]*0.20805]
#100=[#105+[#106-#105]*0.83840]
X-7.17750 Y-3.27619 Z[#100+-0.04000]
#105=[#554+[#555-#554]*0.18776]
#106=[#560+[#561-#560]*0.18776]
#100=[#105+[#106-#105]*0.83643]
X-7.17826 Y-3.28387 Z[#100+-0.04000]
#105=[#554+[#555-#554]*0.16824]
#106=[#560+[#561-#560]*0.16824]
#100=[#105+[#106-#105]*0.83059]
X-7.18050 Y-3.29126 Z[#100+-0.04000]
#105=[#554+[#555-#554]*0.15025]
#106=[#560+[#561-#560]*0.15025]
#100=[#105+[#106-#105]*0.82111]
X-7.18414 Y-3.29806 Z[#100+-0.04000]
#105=[#554+[#555-#554]*0.13449]
#106=[#560+[#561-#560]*0.13449]
#100=[#105+[#106-#105]*0.80835]
X-7.18903 Y-3.30403 Z[#100+-0.04000]
#105=[#554+[#555-#554]*0.12155]
#106=[#560+[#561-#560]*0.12155]
#100=[#105+[#106-#105]*0.79280]
X-7.19500 Y-3.30892 Z[#100+-0.04000]
#105=[#554+[#555-#554]*0.11193]
#106=[#560+[#561-#560]*0.11193]
#100=[#105+[#106-#105]*0.77507]
X-7.20181 Y-3.31256 Z[#100+-0.04000]
#105=[#554+[#555-#554]*0.10601]
#106=[#560+[#561-#560]*0.10601]
#100=[#105+[#106-#105]*0.75582]
X-7.20919 Y-3.31480 Z[#100+-0.04000]
#105=[#554+[#555-#554]*0.10401]
#106=[#560+[#561-#560]*0.10401]
#100=[#105+[#106-#105]*0.73580]
X-7.21687 Y-3.31556 Z[#100+-0.04000]
#105=[#554+[#555-#554]*0.10601]
#106=[#560+[#561-#560]*0.10601]
#100=[#105+[#106-#105]*0.71579]
X-7.22455 Y-3.31480 Z[#100+-0.04000]
#105=[#554+[#555-#554]*0.11193]
#106=[#560+[#561-#560]*0.11193]
#100=[#105+[#106-#105]*0.69654]
X-7.23194 Y-3.31256 Z[#100+-0.04000]
#105=[#554+[#555-#554]*0.12155]
#106=[#560+[#561-#560]*0.12155]
#100=[#105+[#106-#105]*0.67881]
X-7.23874 Y-3.30892 Z[#100+-0.04000]
#105=[#554+[#555-#554]*0.13449]
#106=[#560+[#561-#560]*0.13449]
#100=[#105+[#106-#105]*0.66326]
X-7.24471 Y-3.30403 Z[#100+-0.04000]
#105=[#554+[#555-#554]*0.15025]
#106=[#560+[#561-#560]*0.15025]
#100=[#105+[#106-#105]*0.65050]
X-7.24961 Y-3.29806 Z[#100+-0.04000]
#105=[#554+[#555-#554]*0.16824]
#106=[#560+[#561-#560]*0.16824]
#100=[#105+[#106-#105]*0.64102]
X-7.25325 Y-3.29126 Z[#100+-0.04000]
#105=[#554+[#555-#554]*0.18776]
#106=[#560+[#561-#560]*0.18776]
#100=[#105+[#106-#105]*0.63518]
X-7.25549 Y-3.28387 Z[#100+-0.04000]
#105=[#554+[#555-#554]*0.20805]
#106=[#560+[#561-#560]*0.20805]
#100=[#105+[#106-#105]*0.63321]
X-7.25624 Y-3.27619 Z[#100+-0.04000]
#100=[#555+[#561-#555]*0.63321]
X-7.25624 Y-2.97650 Z[#100+-0.04000]
#105=[#555+[#556-#555]*0.52932]
#106=[#561+[#562-#561]*0.52932]
#100=[#105+[#106-#105]*0.63321]
X-7.25624 Y-2.77619 Z[#100+-0.04000]
#105=[#555+[#556-#555]*0.54962]
#106=[#561+[#562-#561]*0.54962]
#100=[#105+[#106-#105]*0.63518]
X-7.25549 Y-2.76851 Z[#100+-0.04000]
#105=[#555+[#556-#555]*0.56914]
#106=[#561+[#562-#561]*0.56914]
#100=[#105+[#106-#105]*0.64102]
X-7.25325 Y-2.76112 Z[#100+-0.04000]
#105=[#555+[#556-#555]*0.58712]
#106=[#561+[#562-#561]*0.58712]
#100=[#105+[#106-#105]*0.65050]
X-7.24961 Y-2.75432 Z[#100+-0.04000]
#105=[#555+[#556-#555]*0.60289]
#106=[#561+[#562-#561]*0.60289]
#100=[#105+[#106-#105]*0.66326]
X-7.24471 Y-2.74835 Z[#100+-0.04000]
#105=[#555+[#556-#555]*0.61583]
#106=[#561+[#562-#561]*0.61583]
#100=[#105+[#106-#105]*0.67881]
X-7.23874 Y-2.74345 Z[#100+-0.04000]
#105=[#555+[#556-#555]*0.62544]
#106=[#561+[#562-#561]*0.62544]
#100=[#105+[#106-#105]*0.69654]
X-7.23194 Y-2.73982 Z[#100+-0.04000]
#105=[#555+[#556-#555]*0.63136]
#106=[#561+[#562-#561]*0.63136]
#100=[#105+[#106-#105]*0.71579]
X-7.22455 Y-2.73758 Z[#100+-0.04000]
#105=[#555+[#556-#555]*0.63336]
#106=[#561+[#562-#561]*0.63336]
#100=[#105+[#106-#105]*0.73580]
X-7.21687 Y-2.73682 Z[#100+-0.04000]
#105=[#555+[#556-#555]*0.63136]
#106=[#561+[#562-#561]*0.63136]
#100=[#105+[#106-#105]*0.75582]
X-7.20919 Y-2.73758 Z[#100+-0.04000]
#105=[#555+[#556-#555]*0.62544]
#106=[#561+[#562-#561]*0.62544]
#100=[#105+[#106-#105]*0.77507]
X-7.20181 Y-2.73982 Z[#100+-0.04000]
#105=[#555+[#556-#555]*0.61583]
#106=[#561+[#562-#561]*0.61583]
#100=[#105+[#106-#105]*0.79280]
X-7.19500 Y-2.74345 Z[#100+-0.04000]
#105=[#555+[#556-#555]*0.60289]
#106=[#561+[#562-#561]*0.60289]
#100=[#105+[#106-#105]*0.80835]
X-7.18903 Y-2.74835 Z[#100+-0.04000]
#105=[#555+[#556-#555]*0.58712]
#106=[#561+[#562-#561]*0.58712]
#100=[#105+[#106-#105]*0.82111]
X-7.18414 Y-2.75432 Z[#100+-0.04000]
#105=[#555+[#556-#555]*0.56914]
#106=[#561+[#562-#561]*0.56914]
#100=[#105+[#106-#105]*0.83059]
X-7.18050 Y-2.76112 Z[#100+-0.04000]
#105=[#555+[#556-#555]*0.54962]
#106=[#561+[#562-#561]*0.54962]
#100=[#105+[#106-#105]*0.83643]
X-7.17826 Y-2.76851 Z[#100+-0.04000]
#105=[#555+[#556-#555]*0.52932]
#106=[#561+[#562-#561]*0.52932]
#100=[#105+[#106-#105]*0.83840]
X-7.17750 Y-2.77619 Z[#100+-0.04000]
#100=[#555+[#561-#555]*0.83840]
X-7.17750 Y-2.97650 Z[#100+-0.04000]
#105=[#554+[#555-#554]*0.83672]
#106=[#560+[#561-#560]*0.83672]
#100=[#105+[#106-#105]*0.83840]
X-7.17750 Y-3.03829 Z[#100+-0.04000]
#100=[#555+[#561-#555]*0.99941]
X-7.11571 Y-2.97650 Z[#100+-0.04000]
#105=[#561+[#562-#561]*0.00059]
#106=[#567+[#568-#567]*0.00059]
#100=[#105+[#106-#105]*0.00000]
X-7.11549 Y-2.97627 Z[#100+-0.04000]
#105=[#561+[#562-#561]*0.16246]
#106=[#567+[#568-#567]*0.16246]
#100=[#105+[#106-#105]*0.15962]
X-7.05423 Y-2.91502 Z[#100+-0.04000]
#105=[#561+[#562-#561]*0.17540]
#106=[#567+[#568-#567]*0.17540]
#100=[#105+[#106-#105]*0.17517]
X-7.04827 Y-2.91012 Z[#100+-0.04000]
#105=[#561+[#562-#561]*0.18502]
#106=[#567+[#568-#567]*0.18502]
#100=[#105+[#106-#105]*0.19290]
X-7.04146 Y-2.90648 Z[#100+-0.04000]
#105=[#561+[#562-#561]*0.19094]
#106=[#567+[#568-#567]*0.19094]
#100=[#105+[#106-#105]*0.21215]
X-7.03408 Y-2.90424 Z[#100+-0.04000]
#105=[#561+[#562-#561]*0.19294]
#106=[#567+[#568-#567]*0.19294]
#100=[#105+[#106-#105]*0.23216]
X-7.02640 Y-2.90349 Z[#100+-0.04000]
#105=[#561+[#562-#561]*0.19094]
#106=[#567+[#568-#567]*0.19094]
#100=[#105+[#106-#105]*0.25218]
X-7.01871 Y-2.90424 Z[#100+-0.04000]
#105=[#561+[#562-#561]*0.18502]
#106=[#567+[#568-#567]*0.18502]
#100=[#105+[#106-#105]*0.27143]
X-7.01133 Y-2.90648 Z[#100+-0.04000]
#105=[#561+[#562-#561]*0.17540]
#106=[#567+[#568-#567]*0.17540]
#100=[#105+[#106-#105]*0.28916]
X-7.00452 Y-2.91012 Z[#100+-0.04000]
#105=[#561+[#562-#561]*0.16246]
#106=[#567+[#568-#567]*0.16246]
#100=[#105+[#106-#105]*0.30471]
X-6.99856 Y-2.91502 Z[#100+-0.04000]
#105=[#561+[#562-#561]*0.14670]
#106=[#567+[#568-#567]*0.14670]
#100=[#105+[#106-#105]*0.31747]
X-6.99366 Y-2.92098 Z[#100+-0.04000]
#105=[#561+[#562-#561]*0.12871]
#106=[#567+[#568-#567]*0.12871]
#100=[#105+[#106-#105]*0.32695]
X-6.99002 Y-2.92779 Z[#100+-0.04000]
#105=[#561+[#562-#561]*0.10919]
#106=[#567+[#568-#567]*0.10919]
#100=[#105+[#106-#105]*0.33279]
X-6.98778 Y-2.93518 Z[#100+-0.04000]
#105=[#561+[#562-#561]*0.08890]
#106=[#567+[#568-#567]*0.08890]
#100=[#105+[#106-#105]*0.33476]
X-6.98702 Y-2.94286 Z[#100+-0.04000]
G04 P0 ( dwell for no time -- G64 should not smooth over this point )
G00 Z0.08000 ( retract )

G00 X-7.39189 Y-3.24959 ( rapid move to begin. )
G01 F180.00000
( Mill infeed pass 1/1 )
#105=[#554+[#555-#554]*0.27835]
#106=[#560+[#561-#560]*0.27835]
#100=[#105+[#106-#105]*0.27974]
G01 Z[-0.04000+#100]
G04 P0 ( dwell for no time -- G64 should not smooth over this point )
G01 F360.00000
#105=[#554+[#555-#554]*0.25796]
#106=[#560+[#561-#560]*0.25796]
#100=[#105+[#106-#105]*0.27919]
X-7.39210 Y-3.25730 Z[#100+-0.04000]
#105=[#554+[#555-#554]*0.23807]
#106=[#560+[#561-#560]*0.23807]
#100=[#105+[#106-#105]*0.27473]
X-7.39381 Y-3.26483 Z[#100+-0.04000]
#105=[#554+[#555-#554]*0.21945]
#106=[#560+[#561-#560]*0.21945]
#100=[#105+[#106-#105]*0.26653]
X-7.39695 Y-3.27188 Z[#100+-0.04000]
#105=[#554+[#555-#554]*0.20280]
#106=[#560+[#561-#560]*0.20280]
#100=[#105+[#106-#105]*0.25491]
X-7.40141 Y-3.27818 Z[#100+-0.04000]
#105=[#554+[#555-#554]*0.18878]
#106=[#560+[#561-#560]*0.18878]
#100=[#105+[#106-#105]*0.24030]
X-7.40702 Y-3.28348 Z[#100+-0.04000]
#105=[#554+[#555-#554]*0.17792]
#106=[#560+[#561-#560]*0.17792]
#100=[#105+[#106-#105]*0.22328]
X-7.41355 Y-3.28759 Z[#100+-0.04000]
#105=[#554+[#555-#554]*0.11500]
#106=[#560+[#561-#560]*0.11500]
#100=[#105+[#106-#105]*0.09919]
X-7.46117 Y-3.31140 Z[#100+-0.04000]
#105=[#554+[#555-#554]*0.10680]
#106=[#560+[#561-#560]*0.10680]
#100=[#105+[#106-#105]*0.07688]
X-7.46973 Y-3.31451 Z[#100+-0.04000]
#105=[#554+[#555-#554]*0.10401]
#106=[#560+[#561-#560]*0.10401]
#100=[#105+[#106-#105]*0.05331]
X-7.47878 Y-3.31556 Z[#100+-0.04000]
#100=[#554+[#555-#554]*0.10401]
X-7.49923 Y-3.31556 Z[#100+-0.04000]
#105=[#548+[#549-#548]*0.10401]
#106=[#554+[#555-#554]*0.10401]
#100=[#105+[#106-#105]*0.80513]
X-7.57402 Y-3.31556 Z[#100+-0.04000]
#105=[#548+[#549-#548]*0.10680]
#106=[#554+[#555-#554]*0.10680]
#100=[#105+[#106-#105]*0.78156]
X-7.58306 Y-3.31451 Z[#100+-0.04000]
#105=[#548+[#549-#548]*0.11500]
#106=[#554+[#555-#554]*0.11500]
#100=[#105+[#106-#105]*0.75925]
X-7.59162 Y-3.31140 Z[#100+-0.04000]
#105=[#548+[#549-#548]*0.17792]
#106=[#554+[#555-#554]*0.17792]
#100=[#105+[#106-#105]*0.63516]
X-7.63924 Y-3.28759 Z[#100+-0.04000]
#105=[#548+[#549-#548]*0.18657]
#106=[#554+[#555-#554]*0.18657]
#100=[#105+[#106-#105]*0.62105]
X-7.64465 Y-3.28432 Z[#100+-0.04000]
#105=[#548+[#549-#548]*0.19741]
#106=[#554+[#555-#554]*0.19741]
#100=[#105+[#106-#105]*0.60850]
X-7.64947 Y-3.28022 Z[#100+-0.04000]
#105=[#548+[#549-#548]*0.26032]
#106=[#554+[#555-#554]*0.26032]
#100=[#105+[#106-#105]*0.54645]
X-7.67328 Y-3.25641 Z[#100+-0.04000]
#105=[#548+[#549-#548]*0.27305]
#106=[#554+[#555-#554]*0.27305]
#100=[#105+[#106-#105]*0.53577]
X-7.67738 Y-3.25159 Z[#100+-0.04000]
#105=[#548+[#549-#548]*0.28736]
#106=[#554+[#555-#554]*0.28736]
#100=[#105+[#106-#105]*0.52723]
X-7.68066 Y-3.24618 Z[#100+-0.04000]
#105=[#548+[#549-#548]*0.41319]
#106=[#554+[#555-#554]*0.41319]
#100=[#105+[#106-#105]*0.46519]
X-7.70447 Y-3.19856 Z[#100+-0.04000]
#105=[#548+[#549-#548]*0.43582]
#106=[#554+[#555-#554]*0.43582]
#100=[#105+[#106-#105]*0.45710]
X-7.70757 Y-3.19000 Z[#100+-0.04000]
#105=[#548+[#549-#548]*0.45972]
#106=[#554+[#555-#554]*0.45972]
#100=[#105+[#106-#105]*0.45435]
X-7.70862 Y-3.18095 Z[#100+-0.04000]
#105=[#548+[#549-#548]*0.83723]
#106=[#554+[#555-#554]*0.83723]
#100=[#105+[#106-#105]*0.45435]
X-7.70862 Y-3.03810 Z[#100+-0.04000]
#105=[#548+[#549-#548]*0.86113]
#106=[#554+[#555-#554]*0.86113]
#100=[#105+[#106-#105]*0.45710]
X-7.70757 Y-3.02905 Z[#100+-0.04000]
#105=[#548+[#549-#548]*0.88376]
#106=[#554+[#555-#554]*0.88376]
#100=[#105+[#106-#105]*0.46519]
X-7.70447 Y-3.02049 Z[#100+-0.04000]
#100=[#549+[#555-#549]*0.52250]
X-7.68247 Y-2.97650 Z[#100+-0.04000]
#105=[#549+[#550-#549]*0.00959]
#106=[#555+[#556-#555]*0.00959]
#100=[#105+[#106-#105]*0.52723]
X-7.68066 Y-2.97287 Z[#100+-0.04000]
#105=[#549+[#550-#549]*0.02389]
#106=[#555+[#556-#555]*0.02389]
#100=[#105+[#106-#105]*0.53577]
X-7.67738 Y-2.96746 Z[#100+-0.04000]
#105=[#549+[#550-#549]*0.03663]
#106=[#555+[#556-#555]*0.03663]
#100=[#105+[#106-#105]*0.54645]
X-7.67328 Y-2.96264 Z[#100+-0.04000]
#105=[#549+[#550-#549]*0.09955]
#106=[#555+[#556-#555]*0.09955]
#100=[#105+[#106-#105]*0.60849]
X-7.64947 Y-2.93883 Z[#100+-0.04000]
#105=[#549+[#550-#549]*0.11038]
#106=[#555+[#556-#555]*0.11038]
#100=[#105+[#106-#105]*0.62105]
X-7.64465 Y-2.93473 Z[#100+-0.04000]
#105=[#549+[#550-#549]*0.11903]
#106=[#555+[#556-#555]*0.11903]
#100=[#105+[#106-#105]*0.63516]
X-7.63924 Y-2.93145 Z[#100+-0.04000]
#105=[#549+[#550-#549]*0.18195]
#106=[#555+[#556-#555]*0.18195]
#100=[#105+[#106-#105]*0.75925]
X-7.59162 Y-2.90764 Z[#100+-0.04000]
#105=[#549+[#550-#549]*0.19015]
#106=[#555+[#556-#555]*0.19015]
#100=[#105+[#106-#105]*0.78156]
X-7.58306 Y-2.90454 Z[#100+-0.04000]
#105=[#549+[#550-#549]*0.19294]
#106=[#555+[#556-#555]*0.19294]
#100=[#105+[#106-#105]*0.80513]
X-7.57402 Y-2.90349 Z[#100+-0.04000]
#100=[#555+[#556-#555]*0.19294]
X-7.49923 Y-2.90349 Z[#100+-0.04000]
#105=[#555+[#556-#555]*0.19294]
#106=[#561+[#562-#561]*0.19294]
#100=[#105+[#106-#105]*0.05331]
X-7.47878 Y-2.90349 Z[#100+-0.04000]
#105=[#555+[#556-#555]*0.19015]
#106=[#561+[#562-#561]*0.19015]
#100=[#105+[#106-#105]*0.07688]
X-7.46973 Y-2.90454 Z[#100+-0.04000]
#105=[#555+[#556-#555]*0.18195]
#106=[#561+[#562-#561]*0.18195]
#100=[#105+[#106-#105]*0.09919]
X-7.46117 Y-2.90764 Z[#100+-0.04000]
#105=[#555+[#556-#555]*0.11903]
#106=[#561+[#562-#561]*0.11903]
#100=[#105+[#106-#105]*0.22328]
X-7.41355 Y-2.93145 Z[#100+-0.04000]
#105=[#555+[#556-#555]*0.10817]
#106=[#561+[#562-#561]*0.10817]
#100=[#105+[#106-#105]*0.24030]
X-7.40702 Y-2.93556 Z[#100+-0.04000]
#105=[#555+[#556-#555]*0.09415]
#106=[#561+[#562-#561]*0.09415]
#100=[#105+[#106-#105]*0.25491]
X-7.40141 Y-2.94087 Z[#100+-0.04000]
#105=[#555+[#556-#555]*0.07750]
#106=[#561+[#562-#561]*0.07750]
#100=[#105+[#106-#105]*0.26653]
X-7.39695 Y-2.94717 Z[#100+-0.04000]
#105=[#555+[#556-#555]*0.05888]
#106=[#561+[#562-#561]*0.05888]
#100=[#105+[#106-#105]*0.27473]
X-7.39381 Y-2.95422 Z[#100+-0.04000]
#105=[#555+[#556-#555]*0.03899]
#106=[#561+[#562-#561]*0.03899]
#100=[#105+[#106-#105]*0.27919]
X-7.39210 Y-2.96174 Z[#100+-0.04000]
#105=[#555+[#556-#555]*0.01861]
#106=[#561+[#562-#561]*0.01861]
#100=[#105+[#106-#105]*0.27974]
X-7.39189 Y-2.96946 Z[#100+-0.04000]
#100=[#555+[#561-#555]*0.27661]
X-7.39309 Y-2.97650 Z[#100+-0.04000]
#105=[#554+[#555-#554]*0.99850]
#106=[#560+[#561-#560]*0.99850]
#100=[#105+[#106-#105]*0.27635]
X-7.39318 Y-2.97706 Z[#100+-0.04000]
#105=[#554+[#555-#554]*0.97946]
#106=[#560+[#561-#560]*0.97946]
#100=[#105+[#106-#105]*0.26916]
X-7.39594 Y-2.98427 Z[#100+-0.04000]
#105=[#554+[#555-#554]*0.96219]
#106=[#560+[#561-#560]*0.96219]
#100=[#105+[#106-#105]*0.25845]
X-7.40005 Y-2.99080 Z[#100+-0.04000]
#105=[#554+[#555-#554]*0.94739]
#106=[#560+[#561-#560]*0.94739]
#100=[#105+[#106-#105]*0.24462]
X-7.40536 Y-2.99641 Z[#100+-0.04000]
#105=[#554+[#555-#554]*0.93560]
#106=[#560+[#561-#560]*0.93560]
#100=[#105+[#106-#105]*0.22821]
X-7.41166 Y-3.00087 Z[#100+-0.04000]
#105=[#554+[#555-#554]*0.92728]
#106=[#560+[#561-#560]*0.92728]
#100=[#105+[#106-#105]*0.20985]
X-7.41871 Y-3.00401 Z[#100+-0.04000]
#105=[#554+[#555-#554]*0.92276]
#106=[#560+[#561-#560]*0.92276]
#100=[#105+[#106-#105]*0.19023]
X-7.42623 Y-3.00573 Z[#100+-0.04000]
#105=[#554+[#555-#554]*0.92220]
#106=[#560+[#561-#560]*0.92220]
#100=[#105+[#106-#105]*0.17013]
X-7.43395 Y-3.00594 Z[#100+-0.04000]
#105=[#554+[#555-#554]*0.92564]
#106=[#560+[#561-#560]*0.92564]
#100=[#105+[#106-#105]*0.15030]
X-7.44156 Y-3.00464 Z[#100+-0.04000]
#105=[#554+[#555-#554]*0.93293]
#106=[#560+[#561-#560]*0.93293]
#100=[#105+[#106-#105]*0.13152]
X-7.44876 Y-3.00188 Z[#100+-0.04000]
#105=[#554+[#555-#554]*0.98486]
#106=[#560+[#561-#560]*0.98486]
#100=[#105+[#106-#105]*0.02909]
X-7.48807 Y-2.98223 Z[#100+-0.04000]
#100=[#554+[#555-#554]*0.98486]
X-7.49923 Y-2.98223 Z[#100+-0.04000]
#105=[#548+[#549-#548]*0.98486]
#106=[#554+[#555-#554]*0.98486]
#100=[#105+[#106-#105]*0.82935]
X-7.56472 Y-2.98223 Z[#100+-0.04000]
#105=[#548+[#549-#548]*0.94048]
#106=[#554+[#555-#554]*0.94048]
#100=[#105+[#106-#105]*0.74181]
X-7.59831 Y-2.99902 Z[#100+-0.04000]
#105=[#548+[#549-#548]*0.90144]
#106=[#554+[#555-#554]*0.90144]
#100=[#105+[#106-#105]*0.70331]
X-7.61309 Y-3.01380 Z[#100+-0.04000]
#105=[#548+[#549-#548]*0.81267]
#106=[#554+[#555-#554]*0.81267]
#100=[#105+[#106-#105]*0.65954]
X-7.62988 Y-3.04739 Z[#100+-0.04000]
#105=[#548+[#549-#548]*0.48428]
#106=[#554+[#555-#554]*0.48428]
#100=[#105+[#106-#105]*0.65954]
X-7.62988 Y-3.17166 Z[#100+-0.04000]
#105=[#548+[#549-#548]*0.39551]
#106=[#554+[#555-#554]*0.39551]
#100=[#105+[#106-#105]*0.70331]
X-7.61309 Y-3.20525 Z[#100+-0.04000]
#105=[#548+[#549-#548]*0.35647]
#106=[#554+[#555-#554]*0.35647]
#100=[#105+[#106-#105]*0.74181]
X-7.59831 Y-3.22002 Z[#100+-0.04000]
#105=[#548+[#549-#548]*0.31209]
#106=[#554+[#555-#554]*0.31209]
#100=[#105+[#106-#105]*0.82935]
X-7.56472 Y-3.23682 Z[#100+-0.04000]
#100=[#554+[#555-#554]*0.31209]
X-7.49923 Y-3.23682 Z[#100+-0.04000]
#105=[#554+[#555-#554]*0.31209]
#106=[#560+[#561-#560]*0.31209]
#100=[#105+[#106-#105]*0.02909]
X-7.48807 Y-3.23682 Z[#100+-0.04000]
#105=[#554+[#555-#554]*0.36402]
#106=[#560+[#561-#560]*0.36402]
#100=[#105+[#106-#105]*0.13152]
X-7.44876 Y-3.21717 Z[#100+-0.04000]
#105=[#554+[#555-#554]*0.37131]
#106=[#560+[#561-#560]*0.37131]
#100=[#105+[#106-#105]*0.15030]
X-7.44156 Y-3.21441 Z[#100+-0.04000]
#105=[#554+[#555-#554]*0.37475]
#106=[#560+[#561-#560]*0.37475]
#100=[#105+[#106-#105]*0.17013]
X-7.43395 Y-3.21311 Z[#100+-0.04000]
#105=[#554+[#555-#554]*0.37419]
#106=[#560+[#561-#560]*0.37419]
#100=[#105+[#106-#105]*0.19023]
X-7.42623 Y-3.21332 Z[#100+-0.04000]
#105=[#554+[#555-#554]*0.36967]
#106=[#560+[#561-#560]*0.36967]
#100=[#105+[#106-#105]*0.20984]
X-7.41871 Y-3.21503 Z[#100+-0.04000]
#105=[#554+[#555-#554]*0.36135]
#106=[#560+[#561-#560]*0.36135]
#100=[#105+[#106-#105]*0.22821]
X-7.41166 Y-3.21818 Z[#100+-0.04000]
#105=[#554+[#555-#554]*0.34957]
#106=[#560+[#561-#560]*0.34957]
#100=[#105+[#106-#105]*0.24462]
X-7.40536 Y-3.22264 Z[#100+-0.04000]
#105=[#554+[#555-#554]*0.33476]
#106=[#560+[#561-#560]*0.33476]
#100=[#105+[#106-#105]*0.25845]
X-7.40006 Y-3.22824 Z[#100+-0.04000]
#105=[#554+[#555-#554]*0.31750]
#106=[#560+[#561-#560]*0.31750]
#100=[#105+[#106-#105]*0.26916]
X-7.39594 Y-3.23477 Z[#100+-0.04000]
#105=[#554+[#555-#554]*0.29845]
#106=[#560+[#561-#560]*0.29845]
#100=[#105+[#106-#105]*0.27635]
X-7.39319 Y-3.24198 Z[#100+-0.04000]
#105=[#554+[#555-#554]*0.27835]
#106=[#560+[#561-#560]*0.27835]
#100=[#105+[#106-#105]*0.27974]
X-7.39189 Y-3.24959 Z[#100+-0.04000]
G04 P0 ( dwell for no time -- G64 should not smooth over this point )
G00 Z0.08000 ( retract )

G00 X-7.84417 Y-3.27619 ( rapid move to begin. )
G01 F180.00000
( Mill infeed pass 1/1 )
#105=[#548+[#549-#548]*0.20805]
#106=[#554+[#555-#554]*0.20805]
#100=[#105+[#106-#105]*0.10114]
G01 Z[-0.04000+#100]
G04 P0 ( dwell for no time -- G64 should not smooth over this point )
G01 F360.00000
#105=[#548+[#549-#548]*0.90014]
#106=[#554+[#555-#554]*0.90014]
#100=[#105+[#106-#105]*0.10114]
X-7.84417 Y-3.01429 Z[#100+-0.04000]
#105=[#548+[#549-#548]*0.92405]
#106=[#554+[#555-#554]*0.92405]
#100=[#105+[#106-#105]*0.09840]
X-7.84522 Y-3.00524 Z[#100+-0.04000]
#105=[#548+[#549-#548]*0.94667]
#106=[#554+[#555-#554]*0.94667]
#100=[#105+[#106-#105]*0.09031]
X-7.84832 Y-2.99668 Z[#100+-0.04000]
#100=[#549+[#555-#549]*0.06402]
X-7.85841 Y-2.97650 Z[#100+-0.04000]
#105=[#549+[#550-#549]*0.07251]
#106=[#555+[#556-#555]*0.07251]
#100=[#105+[#106-#105]*0.02826]
X-7.87213 Y-2.94906 Z[#100+-0.04000]
#105=[#549+[#550-#549]*0.09125]
#106=[#555+[#556-#555]*0.09125]
#100=[#105+[#106-#105]*0.01639]
X-7.87669 Y-2.94197 Z[#100+-0.04000]
#105=[#549+[#550-#549]*0.10700]
#106=[#555+[#556-#555]*0.10700]
#100=[#105+[#106-#105]*0.00086]
X-7.88265 Y-2.93601 Z[#100+-0.04000]
#100=[#549+[#550-#549]*0.10756]
X-7.88298 Y-2.93579 Z[#100+-0.04000]
#105=[#543+[#544-#543]*0.11903]
#106=[#549+[#550-#549]*0.11903]
#100=[#105+[#106-#105]*0.98238]
X-7.88974 Y-2.93145 Z[#100+-0.04000]
#105=[#543+[#544-#543]*0.18195]
#106=[#549+[#550-#549]*0.18195]
#100=[#105+[#106-#105]*0.85829]
X-7.93736 Y-2.90764 Z[#100+-0.04000]
#105=[#543+[#544-#543]*0.19015]
#106=[#549+[#550-#549]*0.19015]
#100=[#105+[#106-#105]*0.83598]
X-7.94592 Y-2.90454 Z[#100+-0.04000]
#105=[#543+[#544-#543]*0.19294]
#106=[#549+[#550-#549]*0.19294]
#100=[#105+[#106-#105]*0.81241]
X-7.95497 Y-2.90349 Z[#100+-0.04000]
#105=[#543+[#544-#543]*0.19294]
#106=[#549+[#550-#549]*0.19294]
#100=[#105+[#106-#105]*0.56423]
X-8.05021 Y-2.90349 Z[#100+-0.04000]
#105=[#543+[#544-#543]*0.19015]
#106=[#549+[#550-#549]*0.19015]
#100=[#105+[#106-#105]*0.54066]
X-8.05925 Y-2.90454 Z[#100+-0.04000]
#105=[#543+[#544-#543]*0.18195]
#106=[#549+[#550-#549]*0.18195]
#100=[#105+[#106-#105]*0.51835]
X-8.06781 Y-2.90764 Z[#100+-0.04000]
#105=[#543+[#544-#543]*0.11903]
#106=[#549+[#550-#549]*0.11903]
#100=[#105+[#106-#105]*0.39426]
X-8.11543 Y-2.93145 Z[#100+-0.04000]
#105=[#543+[#544-#543]*0.10817]
#106=[#549+[#550-#549]*0.10817]
#100=[#105+[#106-#105]*0.37724]
X-8.12196 Y-2.93556 Z[#100+-0.04000]
#105=[#543+[#544-#543]*0.09415]
#106=[#549+[#550-#549]*0.09415]
#100=[#105+[#106-#105]*0.36264]
X-8.12757 Y-2.94087 Z[#100+-0.04000]
#105=[#543+[#544-#543]*0.07750]
#106=[#549+[#550-#549]*0.07750]
#100=[#105+[#106-#105]*0.35101]
X-8.13203 Y-2.94717 Z[#100+-0.04000]
#105=[#543+[#544-#543]*0.05888]
#106=[#549+[#550-#549]*0.05888]
#100=[#105+[#106-#105]*0.34281]
X-8.13517 Y-2.95422 Z[#100+-0.04000]
#105=[#543+[#544-#543]*0.03899]
#106=[#549+[#550-#549]*0.03899]
#100=[#105+[#106-#105]*0.33835]
X-8.13688 Y-2.96174 Z[#100+-0.04000]
#105=[#543+[#544-#543]*0.01861]
#106=[#549+[#550-#549]*0.01861]
#100=[#105+[#106-#105]*0.33780]
X-8.13710 Y-2.96946 Z[#100+-0.04000]
#100=[#543+[#549-#543]*0.34094]
X-8.13589 Y-2.97650 Z[#100+-0.04000]
#105=[#542+[#543-#542]*0.99850]
#106=[#548+[#549-#548]*0.99850]
#100=[#105+[#106-#105]*0.34119]
X-8.13580 Y-2.97706 Z[#100+-0.04000]
#105=[#542+[#543-#542]*0.97946]
#106=[#548+[#549-#548]*0.97946]
#100=[#105+[#106-#105]*0.34838]
X-8.13304 Y-2.98427 Z[#100+-0.04000]
#105=[#542+[#543-#542]*0.96219]
#106=[#548+[#549-#548]*0.96219]
#100=[#105+[#106-#105]*0.35909]
X-8.12893 Y-2.99080 Z[#100+-0.04000]
#105=[#542+[#543-#542]*0.94739]
#106=[#548+[#549-#548]*0.94739]
#100=[#105+[#106-#105]*0.37292]
X-8.12362 Y-2.99641 Z[#100+-0.04000]
#105=[#542+[#543-#542]*0.93560]
#106=[#548+[#549-#548]*0.93560]
#100=[#105+[#106-#105]*0.38933]
X-8.11732 Y-3.00087 Z[#100+-0.04000]
#105=[#542+[#543-#542]*0.92728]
#106=[#548+[#549-#548]*0.92728]
#100=[#105+[#106-#105]*0.40770]
X-8.11027 Y-3.00401 Z[#100+-0.04000]
#105=[#542+[#543-#542]*0.92276]
#106=[#548+[#549-#548]*0.92276]
#100=[#105+[#106-#105]*0.42731]
X-8.10275 Y-3.00573 Z[#100+-0.04000]
#105=[#542+[#543-#542]*0.92220]
#106=[#548+[#549-#548]*0.92220]
#100=[#105+[#106-#105]*0.44741]
X-8.09503 Y-3.00594 Z[#100+-0.04000]
#105=[#542+[#543-#542]*0.92564]
#106=[#548+[#549-#548]*0.92564]
#100=[#105+[#106-#105]*0.46724]
X-8.08743 Y-3.00464 Z[#100+-0.04000]
#105=[#542+[#543-#542]*0.93293]
#106=[#548+[#549-#548]*0.93293]
#100=[#105+[#106-#105]*0.48602]
X-8.08022 Y-3.00188 Z[#100+-0.04000]
#105=[#542+[#543-#542]*0.98486]
#106=[#548+[#549-#548]*0.98486]
#100=[#105+[#106-#105]*0.58845]
X-8.04091 Y-2.98223 Z[#100+-0.04000]
#105=[#542+[#543-#542]*0.98486]
#106=[#548+[#549-#548]*0.98486]
#100=[#105+[#106-#105]*0.78819]
X-7.96426 Y-2.98223 Z[#100+-0.04000]
#105=[#542+[#543-#542]*0.94844]
#106=[#548+[#549-#548]*0.94844]
#100=[#105+[#106-#105]*0.86003]
X-7.93669 Y-2.99601 Z[#100+-0.04000]
#105=[#542+[#543-#542]*0.87559]
#106=[#548+[#549-#548]*0.87559]
#100=[#105+[#106-#105]*0.89595]
X-7.92291 Y-3.02358 Z[#100+-0.04000]
#105=[#542+[#543-#542]*0.83861]
#106=[#548+[#549-#548]*0.83861]
#100=[#105+[#106-#105]*0.89595]
X-7.92291 Y-3.03757 Z[#100+-0.04000]
#105=[#542+[#543-#542]*0.81543]
#106=[#548+[#549-#548]*0.81543]
#100=[#105+[#106-#105]*0.85024]
X-7.94045 Y-3.04634 Z[#100+-0.04000]
#105=[#542+[#543-#542]*0.81543]
#106=[#548+[#549-#548]*0.81543]
#100=[#105+[#106-#105]*0.56423]
X-8.05021 Y-3.04634 Z[#100+-0.04000]
#105=[#542+[#543-#542]*0.81264]
#106=[#548+[#549-#548]*0.81264]
#100=[#105+[#106-#105]*0.54066]
X-8.05925 Y-3.04740 Z[#100+-0.04000]
#105=[#542+[#543-#542]*0.80445]
#106=[#548+[#549-#548]*0.80445]
#100=[#105+[#106-#105]*0.51835]
X-8.06781 Y-3.05050 Z[#100+-0.04000]
#105=[#542+[#543-#542]*0.74153]
#106=[#548+[#549-#548]*0.74153]
#100=[#105+[#106-#105]*0.39426]
X-8.11543 Y-3.07431 Z[#100+-0.04000]
#105=[#542+[#543-#542]*0.72949]
#106=[#548+[#549-#548]*0.72949]
#100=[#105+[#106-#105]*0.37578]
X-8.12252 Y-3.07886 Z[#100+-0.04000]
#105=[#542+[#543-#542]*0.71375]
#106=[#548+[#549-#548]*0.71375]
#100=[#105+[#106-#105]*0.36025]
X-8.12848 Y-3.08482 Z[#100+-0.04000]
#105=[#542+[#543-#542]*0.69500]
#106=[#548+[#549-#548]*0.69500]
#100=[#105+[#106-#105]*0.34838]
X-8.13304 Y-3.09192 Z[#100+-0.04000]
#105=[#542+[#543-#542]*0.56917]
#106=[#548+[#549-#548]*0.56917]
#100=[#105+[#106-#105]*0.28633]
X-8.15685 Y-3.13953 Z[#100+-0.04000]
#105=[#542+[#543-#542]*0.54654]
#106=[#548+[#549-#548]*0.54654]
#100=[#105+[#106-#105]*0.27825]
X-8.15995 Y-3.14810 Z[#100+-0.04000]
#105=[#542+[#543-#542]*0.52264]
#106=[#548+[#549-#548]*0.52264]
#100=[#105+[#106-#105]*0.27550]
X-8.16100 Y-3.15714 Z[#100+-0.04000]
#105=[#542+[#543-#542]*0.39680]
#106=[#548+[#549-#548]*0.39680]
#100=[#105+[#106-#105]*0.27550]
X-8.16100 Y-3.20476 Z[#100+-0.04000]
#105=[#542+[#543-#542]*0.37290]
#106=[#548+[#549-#548]*0.37290]
#100=[#105+[#106-#105]*0.27825]
X-8.15995 Y-3.21381 Z[#100+-0.04000]
#105=[#542+[#543-#542]*0.35028]
#106=[#548+[#549-#548]*0.35028]
#100=[#105+[#106-#105]*0.28633]
X-8.15685 Y-3.22237 Z[#100+-0.04000]
#105=[#542+[#543-#542]*0.22444]
#106=[#548+[#549-#548]*0.22444]
#100=[#105+[#106-#105]*0.34838]
X-8.13304 Y-3.26999 Z[#100+-0.04000]
#105=[#542+[#543-#542]*0.20570]
#106=[#548+[#549-#548]*0.20570]
#100=[#105+[#106-#105]*0.36025]
X-8.12848 Y-3.27708 Z[#100+-0.04000]
#105=[#542+[#543-#542]*0.18995]
#106=[#548+[#549-#548]*0.18995]
#100=[#105+[#106-#105]*0.37578]
X-8.12252 Y-3.28304 Z[#100+-0.04000]
#105=[#542+[#543-#542]*0.17792]
#106=[#548+[#549-#548]*0.17792]
#100=[#105+[#106-#105]*0.39426]
X-8.11543 Y-3.28759 Z[#100+-0.04000]
#105=[#542+[#543-#542]*0.11500]
#106=[#548+[#549-#548]*0.11500]
#100=[#105+[#106-#105]*0.51835]
X-8.06781 Y-3.31140 Z[#100+-0.04000]
#105=[#542+[#543-#542]*0.10680]
#106=[#548+[#549-#548]*0.10680]
#100=[#105+[#106-#105]*0.54066]
X-8.05925 Y-3.31451 Z[#100+-0.04000]
#105=[#542+[#543-#542]*0.10401]
#106=[#548+[#549-#548]*0.10401]
#100=[#105+[#106-#105]*0.56423]
X-8.05021 Y-3.31556 Z[#100+-0.04000]
#105=[#542+[#543-#542]*0.10401]
#106=[#548+[#549-#548]*0.10401]
#100=[#105+[#106-#105]*0.87446]
X-7.93116 Y-3.31556 Z[#100+-0.04000]
#105=[#542+[#543-#542]*0.10680]
#106=[#548+[#549-#548]*0.10680]
#100=[#105+[#106-#105]*0.89803]
X-7.92211 Y-3.31451 Z[#100+-0.04000]
#105=[#542+[#543-#542]*0.11500]
#106=[#548+[#549-#548]*0.11500]
#100=[#105+[#106-#105]*0.92034]
X-7.91355 Y-3.31140 Z[#100+-0.04000]
#105=[#542+[#543-#542]*0.12416]
#106=[#548+[#549-#548]*0.12416]
#100=[#105+[#106-#105]*0.93841]
X-7.90662 Y-3.30794 Z[#100+-0.04000]
#105=[#542+[#543-#542]*0.12155]
#106=[#548+[#549-#548]*0.12155]
#100=[#105+[#106-#105]*0.94155]
X-7.90541 Y-3.30892 Z[#100+-0.04000]
#105=[#542+[#543-#542]*0.11193]
#106=[#548+[#549-#548]*0.11193]
#100=[#105+[#106-#105]*0.95929]
X-7.89860 Y-3.31256 Z[#100+-0.04000]
#105=[#542+[#543-#542]*0.10601]
#106=[#548+[#549-#548]*0.10601]
#100=[#105+[#106-#105]*0.97853]
X-7.89122 Y-3.31480 Z[#100+-0.04000]
#105=[#542+[#543-#542]*0.10401]
#106=[#548+[#549-#548]*0.10401]
#100=[#105+[#106-#105]*0.99855]
X-7.88354 Y-3.31556 Z[#100+-0.04000]
#100=[#548+[#549-#548]*0.10416]
X-7.88298 Y-3.31551 Z[#100+-0.04000]
#105=[#548+[#549-#548]*0.10601]
#106=[#554+[#555-#554]*0.10601]
#100=[#105+[#106-#105]*0.01856]
X-7.87586 Y-3.31480 Z[#100+-0.04000]
#105=[#548+[#549-#548]*0.11193]
#106=[#554+[#555-#554]*0.11193]
#100=[#105+[#106-#105]*0.03781]
X-7.86847 Y-3.31256 Z[#100+-0.04000]
#105=[#548+[#549-#548]*0.12155]
#106=[#554+[#555-#554]*0.12155]
#100=[#105+[#106-#105]*0.05554]
X-7.86167 Y-3.30892 Z[#100+-0.04000]
#105=[#548+[#549-#548]*0.13449]
#106=[#554+[#555-#554]*0.13449]
#100=[#105+[#106-#105]*0.07109]
X-7.85570 Y-3.30403 Z[#100+-0.04000]
#105=[#548+[#549-#548]*0.15025]
#106=[#554+[#555-#554]*0.15025]
#100=[#105+[#106-#105]*0.08385]
X-7.85080 Y-3.29806 Z[#100+-0.04000]
#105=[#548+[#549-#548]*0.16824]
#106=[#554+[#555-#554]*0.16824]
#100=[#105+[#106-#105]*0.09333]
X-7.84716 Y-3.29126 Z[#100+-0.04000]
#105=[#548+[#549-#548]*0.18776]
#106=[#554+[#555-#554]*0.18776]
#100=[#105+[#106-#105]*0.09917]
X-7.84492 Y-3.28387 Z[#100+-0.04000]
#105=[#548+[#549-#548]*0.20805]
#106=[#554+[#555-#554]*0.20805]
#100=[#105+[#106-#105]*0.10114]
X-7.84417 Y-3.27619 Z[#100+-0.04000]
G04 P0 ( dwell for no time -- G64 should not smooth over this point )
G00 Z0.08000 ( retract )

G00 X-7.92291 Y-3.22805 ( rapid move to begin. )
G01 F180.00000
( Mill infeed pass 1/1 )
#105=[#542+[#543-#542]*0.33527]
#106=[#548+[#549-#548]*0.33527]
#100=[#105+[#106-#105]*0.89595]
G01 Z[-0.04000+#100]
G04 P0 ( dwell for no time -- G64 should not smooth over this point )
G01 F360.00000
#105=[#542+[#543-#542]*0.60989]
#106=[#548+[#549-#548]*0.60989]
#100=[#105+[#106-#105]*0.89595]
X-7.92291 Y-3.12412 Z[#100+-0.04000]
#105=[#542+[#543-#542]*0.60735]
#106=[#548+[#549-#548]*0.60735]
#100=[#105+[#106-#105]*0.87446]
X-7.93116 Y-3.12508 Z[#100+-0.04000]
#105=[#542+[#543-#542]*0.60735]
#106=[#548+[#549-#548]*0.60735]
#100=[#105+[#106-#105]*0.58845]
X-8.04091 Y-3.12508 Z[#100+-0.04000]
#105=[#542+[#543-#542]*0.57093]
#106=[#548+[#549-#548]*0.57093]
#100=[#105+[#106-#105]*0.51661]
X-8.06848 Y-3.13887 Z[#100+-0.04000]
#105=[#542+[#543-#542]*0.49808]
#106=[#548+[#549-#548]*0.49808]
#100=[#105+[#106-#105]*0.48069]
X-8.08226 Y-3.16644 Z[#100+-0.04000]
#105=[#542+[#543-#542]*0.42137]
#106=[#548+[#549-#548]*0.42137]
#100=[#105+[#106-#105]*0.48069]
X-8.08226 Y-3.19547 Z[#100+-0.04000]
#105=[#542+[#543-#542]*0.34851]
#106=[#548+[#549-#548]*0.34851]
#100=[#105+[#106-#105]*0.51661]
X-8.06848 Y-3.22303 Z[#100+-0.04000]
#105=[#542+[#543-#542]*0.31209]
#106=[#548+[#549-#548]*0.31209]
#100=[#105+[#106-#105]*0.58845]
X-8.04091 Y-3.23682 Z[#100+-0.04000]
#105=[#542+[#543-#542]*0.31209]
#106=[#548+[#549-#548]*0.31209]
#100=[#105+[#106-#105]*0.85024]
X-7.94045 Y-3.23682 Z[#100+-0.04000]
#105=[#542+[#543-#542]*0.33527]
#106=[#548+[#549-#548]*0.33527]
#100=[#105+[#106-#105]*0.89595]
X-7.92291 Y-3.22805 Z[#100+-0.04000]
G04 P0 ( dwell for no time -- G64 should not smooth over this point )
G00 Z0.08000 ( retract )

G00 X-8.27274 Y-3.18095 ( rapid move to begin. )
G01 F180.00000
( Mill infeed pass 1/1 )
#105=[#536+[#537-#536]*0.45972]
#106=[#542+[#543-#542]*0.45972]
#100=[#105+[#106-#105]*0.98433]
G01 Z[-0.04000+#100]
G04 P0 ( dwell for no time -- G64 should not smooth over this point )
G01 F360.00000
#105=[#536+[#537-#536]*0.64847]
#106=[#542+[#543-#542]*0.64847]
#100=[#105+[#106-#105]*0.98433]
X-8.27274 Y-3.10952 Z[#100+-0.04000]
#105=[#536+[#537-#536]*0.67238]
#106=[#542+[#543-#542]*0.67238]
#100=[#105+[#106-#105]*0.98159]
X-8.27379 Y-3.10048 Z[#100+-0.04000]
#105=[#536+[#537-#536]*0.69500]
#106=[#542+[#543-#542]*0.69500]
#100=[#105+[#106-#105]*0.97350]
X-8.27690 Y-3.09192 Z[#100+-0.04000]
#105=[#536+[#537-#536]*0.82084]
#106=[#542+[#543-#542]*0.82084]
#100=[#105+[#106-#105]*0.91146]
X-8.30071 Y-3.04430 Z[#100+-0.04000]
#105=[#536+[#537-#536]*0.83514]
#106=[#542+[#543-#542]*0.83514]
#100=[#105+[#106-#105]*0.90292]
X-8.30398 Y-3.03888 Z[#100+-0.04000]
#105=[#536+[#537-#536]*0.84788]
#106=[#542+[#543-#542]*0.84788]
#100=[#105+[#106-#105]*0.89224]
X-8.30808 Y-3.03406 Z[#100+-0.04000]
#105=[#536+[#537-#536]*0.91079]
#106=[#542+[#543-#542]*0.91079]
#100=[#105+[#106-#105]*0.83019]
X-8.33189 Y-3.01025 Z[#100+-0.04000]
#105=[#536+[#537-#536]*0.92573]
#106=[#542+[#543-#542]*0.92573]
#100=[#105+[#106-#105]*0.81158]
X-8.33903 Y-3.00460 Z[#100+-0.04000]
#105=[#536+[#537-#536]*0.92822]
#106=[#542+[#543-#542]*0.92822]
#100=[#105+[#106-#105]*0.80633]
X-8.34105 Y-3.00366 Z[#100+-0.04000]
#105=[#536+[#537-#536]*0.95242]
#106=[#542+[#543-#542]*0.95242]
#100=[#105+[#106-#105]*0.83019]
X-8.33189 Y-2.99450 Z[#100+-0.04000]
#105=[#536+[#537-#536]*0.96515]
#106=[#542+[#543-#542]*0.96515]
#100=[#105+[#106-#105]*0.84088]
X-8.32779 Y-2.98969 Z[#100+-0.04000]
#105=[#536+[#537-#536]*0.97945]
#106=[#542+[#543-#542]*0.97945]
#100=[#105+[#106-#105]*0.84941]
X-8.32452 Y-2.98427 Z[#100+-0.04000]
#100=[#537+[#543-#537]*0.85954]
X-8.32063 Y-2.97650 Z[#100+-0.04000]
#105=[#537+[#538-#537]*0.10529]
#106=[#543+[#544-#543]*0.10529]
#100=[#105+[#106-#105]*0.91146]
X-8.30071 Y-2.93665 Z[#100+-0.04000]
#105=[#537+[#538-#537]*0.12791]
#106=[#543+[#544-#543]*0.12791]
#100=[#105+[#106-#105]*0.91954]
X-8.29760 Y-2.92809 Z[#100+-0.04000]
#105=[#537+[#538-#537]*0.15182]
#106=[#543+[#544-#543]*0.15182]
#100=[#105+[#106-#105]*0.92229]
X-8.29655 Y-2.91905 Z[#100+-0.04000]
#105=[#537+[#538-#537]*0.27765]
#106=[#543+[#544-#543]*0.27765]
#100=[#105+[#106-#105]*0.92229]
X-8.29655 Y-2.87143 Z[#100+-0.04000]
#105=[#537+[#538-#537]*0.30155]
#106=[#543+[#544-#543]*0.30155]
#100=[#105+[#106-#105]*0.91954]
X-8.29760 Y-2.86238 Z[#100+-0.04000]
#105=[#537+[#538-#537]*0.32418]
#106=[#543+[#544-#543]*0.32418]
#100=[#105+[#106-#105]*0.91146]
X-8.30071 Y-2.85382 Z[#100+-0.04000]
#105=[#537+[#538-#537]*0.45002]
#106=[#543+[#544-#543]*0.45002]
#100=[#105+[#106-#105]*0.84941]
X-8.32452 Y-2.80620 Z[#100+-0.04000]
#105=[#537+[#538-#537]*0.46432]
#106=[#543+[#544-#543]*0.46432]
#100=[#105+[#106-#105]*0.84088]
X-8.32779 Y-2.80079 Z[#100+-0.04000]
#105=[#537+[#538-#537]*0.47705]
#106=[#543+[#544-#543]*0.47705]
#100=[#105+[#106-#105]*0.83019]
X-8.33189 Y-2.79597 Z[#100+-0.04000]
#105=[#537+[#538-#537]*0.53997]
#106=[#543+[#544-#543]*0.53997]
#100=[#105+[#106-#105]*0.76815]
X-8.35570 Y-2.77216 Z[#100+-0.04000]
#105=[#537+[#538-#537]*0.55080]
#106=[#543+[#544-#543]*0.55080]
#100=[#105+[#106-#105]*0.75559]
X-8.36052 Y-2.76806 Z[#100+-0.04000]
#105=[#537+[#538-#537]*0.55946]
#106=[#543+[#544-#543]*0.55946]
#100=[#105+[#106-#105]*0.74149]
X-8.36593 Y-2.76479 Z[#100+-0.04000]
#105=[#537+[#538-#537]*0.62238]
#106=[#543+[#544-#543]*0.62238]
#100=[#105+[#106-#105]*0.61740]
X-8.41355 Y-2.74098 Z[#100+-0.04000]
#105=[#537+[#538-#537]*0.63058]
#106=[#543+[#544-#543]*0.63058]
#100=[#105+[#106-#105]*0.59509]
X-8.42211 Y-2.73787 Z[#100+-0.04000]
#105=[#537+[#538-#537]*0.63336]
#106=[#543+[#544-#543]*0.63336]
#100=[#105+[#106-#105]*0.57151]
X-8.43116 Y-2.73682 Z[#100+-0.04000]
#105=[#537+[#538-#537]*0.63336]
#106=[#543+[#544-#543]*0.63336]
#100=[#105+[#106-#105]*0.13720]
X-8.59782 Y-2.73682 Z[#100+-0.04000]
#105=[#537+[#538-#537]*0.63136]
#106=[#543+[#544-#543]*0.63136]
#100=[#105+[#106-#105]*0.11718]
X-8.60550 Y-2.73758 Z[#100+-0.04000]
#105=[#537+[#538-#537]*0.62544]
#106=[#543+[#544-#543]*0.62544]
#100=[#105+[#106-#105]*0.09794]
X-8.61289 Y-2.73982 Z[#100+-0.04000]
#105=[#537+[#538-#537]*0.61583]
#106=[#543+[#544-#543]*0.61583]
#100=[#105+[#106-#105]*0.08020]
X-8.61970 Y-2.74345 Z[#100+-0.04000]
#105=[#537+[#538-#537]*0.60289]
#106=[#543+[#544-#543]*0.60289]
#100=[#105+[#106-#105]*0.06465]
X-8.62566 Y-2.74835 Z[#100+-0.04000]
#105=[#537+[#538-#537]*0.58712]
#106=[#543+[#544-#543]*0.58712]
#100=[#105+[#106-#105]*0.05189]
X-8.63056 Y-2.75432 Z[#100+-0.04000]
#105=[#537+[#538-#537]*0.56914]
#106=[#543+[#544-#543]*0.56914]
#100=[#105+[#106-#105]*0.04241]
X-8.63420 Y-2.76112 Z[#100+-0.04000]
#105=[#537+[#538-#537]*0.54962]
#106=[#543+[#544-#543]*0.54962]
#100=[#105+[#106-#105]*0.03658]
X-8.63644 Y-2.76851 Z[#100+-0.04000]
#105=[#537+[#538-#537]*0.52932]
#106=[#543+[#544-#543]*0.52932]
#100=[#105+[#106-#105]*0.03460]
X-8.63719 Y-2.77619 Z[#100+-0.04000]
#100=[#537+[#543-#537]*0.03460]
X-8.63719 Y-2.97650 Z[#100+-0.04000]
#105=[#536+[#537-#536]*0.20805]
#106=[#542+[#543-#542]*0.20805]
#100=[#105+[#106-#105]*0.03460]
X-8.63719 Y-3.27619 Z[#100+-0.04000]
#105=[#536+[#537-#536]*0.18776]
#106=[#542+[#543-#542]*0.18776]
#100=[#105+[#106-#105]*0.03658]
X-8.63644 Y-3.28387 Z[#100+-0.04000]
#105=[#536+[#537-#536]*0.16824]
#106=[#542+[#543-#542]*0.16824]
#100=[#105+[#106-#105]*0.04241]
X-8.63420 Y-3.29126 Z[#100+-0.04000]
#105=[#536+[#537-#536]*0.15025]
#106=[#542+[#543-#542]*0.15025]
#100=[#105+[#106-#105]*0.05189]
X-8.63056 Y-3.29806 Z[#100+-0.04000]
#105=[#536+[#537-#536]*0.13449]
#106=[#542+[#543-#542]*0.13449]
#100=[#105+[#106-#105]*0.06465]
X-8.62566 Y-3.30403 Z[#100+-0.04000]
#105=[#536+[#537-#536]*0.12155]
#106=[#542+[#543-#542]*0.12155]
#100=[#105+[#106-#105]*0.08020]
X-8.61970 Y-3.30892 Z[#100+-0.04000]
#105=[#536+[#537-#536]*0.11193]
#106=[#542+[#543-#542]*0.11193]
#100=[#105+[#106-#105]*0.09794]
X-8.61289 Y-3.31256 Z[#100+-0.04000]
#105=[#536+[#537-#536]*0.10601]
#106=[#542+[#543-#542]*0.10601]
#100=[#105+[#106-#105]*0.11718]
X-8.60550 Y-3.31480 Z[#100+-0.04000]
#105=[#536+[#537-#536]*0.10401]
#106=[#542+[#543-#542]*0.10401]
#100=[#105+[#106-#105]*0.13720]
X-8.59782 Y-3.31556 Z[#100+-0.04000]
#105=[#536+[#537-#536]*0.10401]
#106=[#542+[#543-#542]*0.10401]
#100=[#105+[#106-#105]*0.63356]
X-8.40735 Y-3.31556 Z[#100+-0.04000]
#105=[#536+[#537-#536]*0.10680]
#106=[#542+[#543-#542]*0.10680]
#100=[#105+[#106-#105]*0.65713]
X-8.39830 Y-3.31451 Z[#100+-0.04000]
