( pcb2gcode 2.0.0 )
( Gcode for custom )

G94 ( Inches per minute feed rate. )
G20 ( Units == INCHES. )

G90 ( Absolute coordinates. )
G00 S12000 ( RPM spindle speed. )
G64 P0.00040 ( set maximum deviation from commanded toolpath )
G01 F360.00000 ( Feedrate. )

#107 = #5211
#108 = #5212

(MSG, Attach the probe tool)
M0 ( Temporary machine stop. )
G0 Z0.080 ( Move Z to safe height )
G0 X-10.95292 Y-3.35489 ( Move XY to start point )
G0 Z0.080 ( Move Z to probe height )
G38.2 Z-0.1 F2.362205 ( Z-probe )
#500 = 0 ( Probe point [0, 0] is our reference )
G92 Z0 ( Set the current Z as zero-value )

( We now start the real probing: move the Z axis to the probing height, move to )
( the probing XY position, probe it and save the result, parameter #2002, )
( in a numbered parameter; we will make 17 probes on the X-axis and )
( 6 probes on the Y-axis, for a grand total of 102 probes )

G0 Z0.080
X-10.95292 Y-2.97647
G38.2 Z-0.1 F2.362205
#501=#2002
G0 Z0.080
X-10.95292 Y-2.59806
G38.2 Z-0.1 F2.362205
#502=#2002
G0 Z0.080
X-10.95292 Y-2.21964
G38.2 Z-0.1 F2.362205
#503=#2002
G0 Z0.080
X-10.95292 Y-1.84122
G38.2 Z-0.1 F2.362205
#504=#2002
G0 Z0.080
X-10.95292 Y-1.46280
G38.2 Z-0.1 F2.362205
#505=#2002
G0 Z0.080
X-10.56918 Y-1.46280
G38.2 Z-0.1 F2.362205
#511=#2002
G0 Z0.080
X-10.56918 Y-1.84122
G38.2 Z-0.1 F2.362205
#510=#2002
G0 Z0.080
X-10.56918 Y-2.21964
G38.2 Z-0.1 F2.362205
#509=#2002
G0 Z0.080
X-10.56918 Y-2.59806
G38.2 Z-0.1 F2.362205
#508=#2002
G0 Z0.080
X-10.56918 Y-2.97647
G38.2 Z-0.1 F2.362205
#507=#2002
G0 Z0.080
X-10.56918 Y-3.35489
G38.2 Z-0.1 F2.362205
#506=#2002
G0 Z0.080
X-10.18543 Y-3.35489
G38.2 Z-0.1 F2.362205
#512=#2002
G0 Z0.080
X-10.18543 Y-2.97647
G38.2 Z-0.1 F2.362205
#513=#2002
G0 Z0.080
X-10.18543 Y-2.59806
G38.2 Z-0.1 F2.362205
#514=#2002
G0 Z0.080
X-10.18543 Y-2.21964
G38.2 Z-0.1 F2.362205
#515=#2002
G0 Z0.080
X-10.18543 Y-1.84122
G38.2 Z-0.1 F2.362205
#516=#2002
G0 Z0.080
X-10.18543 Y-1.46280
G38.2 Z-0.1 F2.362205
#517=#2002
G0 Z0.080
X-9.80169 Y-1.46280
G38.2 Z-0.1 F2.362205
#523=#2002
G0 Z0.080
X-9.80169 Y-1.84122
G38.2 Z-0.1 F2.362205
#522=#2002
G0 Z0.080
X-9.80169 Y-2.21964
G38.2 Z-0.1 F2.362205
#521=#2002
G0 Z0.080
X-9.80169 Y-2.59806
G38.2 Z-0.1 F2.362205
#520=#2002
G0 Z0.080
X-9.80169 Y-2.97647
G38.2 Z-0.1 F2.362205
#519=#2002
G0 Z0.080
X-9.80169 Y-3.35489
G38.2 Z-0.1 F2.362205
#518=#2002
G0 Z0.080
X-9.41795 Y-3.35489
G38.2 Z-0.1 F2.362205
#524=#2002
G0 Z0.080
X-9.41795 Y-2.97647
G38.2 Z-0.1 F2.362205
#525=#2002
G0 Z0.080
X-9.41795 Y-2.59806
G38.2 Z-0.1 F2.362205
#526=#2002
G0 Z0.080
X-9.41795 Y-2.21964
G38.2 Z-0.1 F2.362205
#527=#2002
G0 Z0.080
X-9.41795 Y-1.84122
G38.2 Z-0.1 F2.362205
#528=#2002
G0 Z0.080
X-9.41795 Y-1.46280
G38.2 Z-0.1 F2.362205
#529=#2002
G0 Z0.080
X-9.03420 Y-1.46280
G38.2 Z-0.1 F2.362205
#535=#2002
G0 Z0.080
X-9.03420 Y-1.84122
G38.2 Z-0.1 F2.362205
#534=#2002
G0 Z0.080
X-9.03420 Y-2.21964
G38.2 Z-0.1 F2.362205
#533=#2002
G0 Z0.080
X-9.03420 Y-2.59806
G38.2 Z-0.1 F2.362205
#532=#2002
G0 Z0.080
X-9.03420 Y-2.97647
G38.2 Z-0.1 F2.362205
#531=#2002
G0 Z0.080
X-9.03420 Y-3.35489
G38.2 Z-0.1 F2.362205
#530=#2002
G0 Z0.080
X-8.65046 Y-3.35489
G38.2 Z-0.1 F2.362205
#536=#2002
G0 Z0.080
X-8.65046 Y-2.97647
G38.2 Z-0.1 F2.362205
#537=#2002
G0 Z0.080
X-8.65046 Y-2.59806
G38.2 Z-0.1 F2.362205
#538=#2002
G0 Z0.080
X-8.65046 Y-2.21964
G38.2 Z-0.1 F2.362205
#539=#2002
G0 Z0.080
X-8.65046 Y-1.84122
G38.2 Z-0.1 F2.362205
#540=#2002
G0 Z0.080
X-8.65046 Y-1.46280
G38.2 Z-0.1 F2.362205
#541=#2002
G0 Z0.080
X-8.26672 Y-1.46280
G38.2 Z-0.1 F2.362205
#547=#2002
G0 Z0.080
X-8.26672 Y-1.84122
G38.2 Z-0.1 F2.362205
#546=#2002
G0 Z0.080
X-8.26672 Y-2.21964
G38.2 Z-0.1 F2.362205
#545=#2002
G0 Z0.080
X-8.26672 Y-2.59806
G38.2 Z-0.1 F2.362205
#544=#2002
G0 Z0.080
X-8.26672 Y-2.97647
G38.2 Z-0.1 F2.362205
#543=#2002
G0 Z0.080
X-8.26672 Y-3.35489
G38.2 Z-0.1 F2.362205
#542=#2002
G0 Z0.080
X-7.88297 Y-3.35489
G38.2 Z-0.1 F2.362205
#548=#2002
G0 Z0.080
X-7.88297 Y-2.97647
G38.2 Z-0.1 F2.362205
#549=#2002
G0 Z0.080
X-7.88297 Y-2.59806
G38.2 Z-0.1 F2.362205
#550=#2002
G0 Z0.080
X-7.88297 Y-2.21964
G38.2 Z-0.1 F2.362205
#551=#2002
G0 Z0.080
X-7.88297 Y-1.84122
G38.2 Z-0.1 F2.362205
#552=#2002
G0 Z0.080
X-7.88297 Y-1.46280
G38.2 Z-0.1 F2.362205
#553=#2002
G0 Z0.080
X-7.49923 Y-1.46280
G38.2 Z-0.1 F2.362205
#559=#2002
G0 Z0.080
X-7.49923 Y-1.84122
G38.2 Z-0.1 F2.362205
#558=#2002
G0 Z0.080
X-7.49923 Y-2.21964
G38.2 Z-0.1 F2.362205
#557=#2002
G0 Z0.080
X-7.49923 Y-2.59806
G38.2 Z-0.1 F2.362205
#556=#2002
G0 Z0.080
X-7.49923 Y-2.97647
G38.2 Z-0.1 F2.362205
#555=#2002
G0 Z0.080
X-7.49923 Y-3.35489
G38.2 Z-0.1 F2.362205
#554=#2002
G0 Z0.080
X-7.11549 Y-3.35489
G38.2 Z-0.1 F2.362205
#560=#2002
G0 Z0.080
X-7.11549 Y-2.97647
G38.2 Z-0.1 F2.362205
#561=#2002
G0 Z0.080
X-7.11549 Y-2.59806
G38.2 Z-0.1 F2.362205
#562=#2002
G0 Z0.080
X-7.11549 Y-2.21964
G38.2 Z-0.1 F2.362205
#563=#2002
G0 Z0.080
X-7.11549 Y-1.84122
G38.2 Z-0.1 F2.362205
#564=#2002
G0 Z0.080
X-7.11549 Y-1.46280
G38.2 Z-0.1 F2.362205
#565=#2002
G0 Z0.080
X-6.73174 Y-1.46280
G38.2 Z-0.1 F2.362205
#571=#2002
G0 Z0.080
X-6.73174 Y-1.84122
G38.2 Z-0.1 F2.362205
#570=#2002
G0 Z0.080
X-6.73174 Y-2.21964
G38.2 Z-0.1 F2.362205
#569=#2002
G0 Z0.080
X-6.73174 Y-2.59806
G38.2 Z-0.1 F2.362205
#568=#2002
G0 Z0.080
X-6.73174 Y-2.97647
G38.2 Z-0.1 F2.362205
#567=#2002
G0 Z0.080
X-6.73174 Y-3.35489
G38.2 Z-0.1 F2.362205
#566=#2002
G0 Z0.080
X-6.34800 Y-3.35489
G38.2 Z-0.1 F2.362205
#572=#2002
G0 Z0.080
X-6.34800 Y-2.97647
G38.2 Z-0.1 F2.362205
#573=#2002
G0 Z0.080
X-6.34800 Y-2.59806
G38.2 Z-0.1 F2.362205
#574=#2002
G0 Z0.080
X-6.34800 Y-2.21964
G38.2 Z-0.1 F2.362205
#575=#2002
G0 Z0.080
X-6.34800 Y-1.84122
G38.2 Z-0.1 F2.362205
#576=#2002
G0 Z0.080
X-6.34800 Y-1.46280
G38.2 Z-0.1 F2.362205
#577=#2002
G0 Z0.080
X-5.96426 Y-1.46280
G38.2 Z-0.1 F2.362205
#583=#2002
G0 Z0.080
X-5.96426 Y-1.84122
G38.2 Z-0.1 F2.362205
#582=#2002
G0 Z0.080
X-5.96426 Y-2.21964
G38.2 Z-0.1 F2.362205
#581=#2002
G0 Z0.080
X-5.96426 Y-2.59806
G38.2 Z-0.1 F2.362205
#580=#2002
G0 Z0.080
X-5.96426 Y-2.97647
G38.2 Z-0.1 F2.362205
#579=#2002
G0 Z0.080
X-5.96426 Y-3.35489
G38.2 Z-0.1 F2.362205
#578=#2002
G0 Z0.080
X-5.58051 Y-3.35489
G38.2 Z-0.1 F2.362205
#584=#2002
G0 Z0.080
X-5.58051 Y-2.97647
G38.2 Z-0.1 F2.362205
#585=#2002
G0 Z0.080
X-5.58051 Y-2.59806
G38.2 Z-0.1 F2.362205
#586=#2002
G0 Z0.080
X-5.58051 Y-2.21964
G38.2 Z-0.1 F2.362205
#587=#2002
G0 Z0.080
X-5.58051 Y-1.84122
G38.2 Z-0.1 F2.362205
#588=#2002
G0 Z0.080
X-5.58051 Y-1.46280
G38.2 Z-0.1 F2.362205
#589=#2002
G0 Z0.080
X-5.19677 Y-1.46280
G38.2 Z-0.1 F2.362205
#595=#2002
G0 Z0.080
X-5.19677 Y-1.84122
G38.2 Z-0.1 F2.362205
#594=#2002
G0 Z0.080
X-5.19677 Y-2.21964
G38.2 Z-0.1 F2.362205
#593=#2002
G0 Z0.080
X-5.19677 Y-2.59806
G38.2 Z-0.1 F2.362205
#592=#2002
G0 Z0.080
X-5.19677 Y-2.97647
G38.2 Z-0.1 F2.362205
#591=#2002
G0 Z0.080
X-5.19677 Y-3.35489
G38.2 Z-0.1 F2.362205
#590=#2002
G0 Z0.080
X-4.81303 Y-3.35489
G38.2 Z-0.1 F2.362205
#596=#2002
G0 Z0.080
X-4.81303 Y-2.97647
G38.2 Z-0.1 F2.362205
#597=#2002
G0 Z0.080
X-4.81303 Y-2.59806
G38.2 Z-0.1 F2.362205
#598=#2002
G0 Z0.080
X-4.81303 Y-2.21964
G38.2 Z-0.1 F2.362205
#599=#2002
G0 Z0.080
X-4.81303 Y-1.84122
G38.2 Z-0.1 F2.362205
#600=#2002
G0 Z0.080
X-4.81303 Y-1.46280
G38.2 Z-0.1 F2.362205
#601=#2002

G0 Z0.080 ( Move Z to safe height )
( Probing has ended, each Z-coordinate will be corrected with a bilinear interpolation )
(MSG, Detach the probe tool)
M0 ( Temporary machine stop. )


G00 Z1.00000 (Retract to tool change height)
T0
M5      (Spindle stop.)
G04 P1.00000 (Wait for spindle to stop)
(MSG, Change tool bit to mill diameter 0.00000in)
M6      (Tool change.)
M0      (Temporary machine stop.)
M3 ( Spindle on clockwise. )
G04 P1.00000 (Wait for spindle to get up to speed)
( Piece #1, position [0;0] )

G04 P0 ( dwell for no time -- G64 should not smooth over this point )
G00 Z0.08000 ( retract )

G00 X-9.16106 Y-3.27736 ( rapid move to begin. )
G01 F180.00000
( Mill infeed pass 1/1 )
#1=[#524+[#525-#524]*0.20488]
#2=[#530+[#531-#530]*0.20488]
#3=[#1+[#2-#1]*0.66943]
G01 Z[-0.04000+#100]
G04 P0 ( dwell for no time -- G64 should not smooth over this point )
G01 F360.00000
#1=[#524+[#525-#524]*0.22810]
#2=[#530+[#531-#530]*0.22810]
#3=[#1+[#2-#1]*0.66754]
X-9.16178 Y-3.26857 Z[#3+-0.04000]
#1=[#524+[#525-#524]*0.25031]
#2=[#530+[#531-#530]*0.25031]
#3=[#1+[#2-#1]*0.66060]
X-9.16445 Y-3.26017 Z[#3+-0.04000]
#1=[#524+[#525-#524]*0.27040]
#2=[#530+[#531-#530]*0.27040]
#3=[#1+[#2-#1]*0.64896]
X-9.16891 Y-3.25257 Z[#3+-0.04000]
#1=[#524+[#525-#524]*0.70157]
#2=[#530+[#531-#530]*0.70157]
#3=[#1+[#2-#1]*0.33007]
X-9.29129 Y-3.08941 Z[#3+-0.04000]
#1=[#524+[#525-#524]*1.00000]
#2=[#530+[#531-#530]*1.00000]
#3=[#1+[#2-#1]*0.62438]
X-9.17835 Y-2.97647 Z[#3+-0.04000]
#1=[#525+[#526-#525]*0.01526]
#2=[#531+[#532-#531]*0.01526]
#3=[#1+[#2-#1]*0.63942]
X-9.17257 Y-2.97070 Z[#3+-0.04000]
#1=[#525+[#526-#525]*0.03347]
#2=[#531+[#532-#531]*0.03347]
#3=[#1+[#2-#1]*0.65375]
X-9.16708 Y-2.96381 Z[#3+-0.04000]
#1=[#525+[#526-#525]*0.05446]
#2=[#531+[#532-#531]*0.05446]
#3=[#1+[#2-#1]*0.66372]
X-9.16325 Y-2.95586 Z[#3+-0.04000]
#1=[#525+[#526-#525]*0.07717]
#2=[#531+[#532-#531]*0.07717]
#3=[#1+[#2-#1]*0.66883]
X-9.16129 Y-2.94727 Z[#3+-0.04000]
#1=[#525+[#526-#525]*0.10047]
#2=[#531+[#532-#531]*0.10047]
#3=[#1+[#2-#1]*0.66883]
X-9.16129 Y-2.93845 Z[#3+-0.04000]
#1=[#525+[#526-#525]*0.12318]
#2=[#531+[#532-#531]*0.12318]
#3=[#1+[#2-#1]*0.66372]
X-9.16325 Y-2.92986 Z[#3+-0.04000]
#1=[#525+[#526-#525]*0.14417]
#2=[#531+[#532-#531]*0.14417]
#3=[#1+[#2-#1]*0.65375]
X-9.16707 Y-2.92191 Z[#3+-0.04000]
#1=[#525+[#526-#525]*0.16239]
#2=[#531+[#532-#531]*0.16239]
#3=[#1+[#2-#1]*0.63943]
X-9.17257 Y-2.91502 Z[#3+-0.04000]
#1=[#525+[#526-#525]*0.17691]
#2=[#531+[#532-#531]*0.17691]
#3=[#1+[#2-#1]*0.62147]
X-9.17946 Y-2.90952 Z[#3+-0.04000]
#1=[#525+[#526-#525]*0.18703]
#2=[#531+[#532-#531]*0.18703]
#3=[#1+[#2-#1]*0.60077]
X-9.18741 Y-2.90570 Z[#3+-0.04000]
#1=[#525+[#526-#525]*0.19221]
#2=[#531+[#532-#531]*0.19221]
#3=[#1+[#2-#1]*0.57837]
X-9.19600 Y-2.90374 Z[#3+-0.04000]
#1=[#525+[#526-#525]*0.19221]
#2=[#531+[#532-#531]*0.19221]
#3=[#1+[#2-#1]*0.55540]
X-9.20482 Y-2.90374 Z[#3+-0.04000]
#1=[#525+[#526-#525]*0.18703]
#2=[#531+[#532-#531]*0.18703]
#3=[#1+[#2-#1]*0.53300]
X-9.21341 Y-2.90570 Z[#3+-0.04000]
#1=[#525+[#526-#525]*0.17692]
#2=[#531+[#532-#531]*0.17692]
#3=[#1+[#2-#1]*0.51230]
X-9.22136 Y-2.90952 Z[#3+-0.04000]
#1=[#525+[#526-#525]*0.16239]
#2=[#531+[#532-#531]*0.16239]
#3=[#1+[#2-#1]*0.49434]
X-9.22825 Y-2.91502 Z[#3+-0.04000]
#1=[#524+[#525-#524]*1.00000]
#2=[#530+[#531-#530]*1.00000]
#3=[#1+[#2-#1]*0.33419]
X-9.28971 Y-2.97647 Z[#3+-0.04000]
#1=[#524+[#525-#524]*0.83666]
#2=[#530+[#531-#530]*0.83666]
#3=[#1+[#2-#1]*0.17310]
X-9.35152 Y-3.03828 Z[#3+-0.04000]
#1=[#524+[#525-#524]*1.00000]
#2=[#530+[#531-#530]*1.00000]
#3=[#1+[#2-#1]*0.17310]
X-9.35152 Y-2.97647 Z[#3+-0.04000]
#1=[#525+[#526-#525]*0.52926]
#2=[#531+[#532-#531]*0.52926]
#3=[#1+[#2-#1]*0.17310]
X-9.35152 Y-2.77619 Z[#3+-0.04000]
#1=[#525+[#526-#525]*0.55242]
#2=[#531+[#532-#531]*0.55242]
#3=[#1+[#2-#1]*0.17053]
X-9.35251 Y-2.76743 Z[#3+-0.04000]
#1=[#525+[#526-#525]*0.57441]
#2=[#531+[#532-#531]*0.57441]
#3=[#1+[#2-#1]*0.16294]
X-9.35542 Y-2.75911 Z[#3+-0.04000]
#1=[#525+[#526-#525]*0.59413]
#2=[#531+[#532-#531]*0.59413]
#3=[#1+[#2-#1]*0.15072]
X-9.36011 Y-2.75164 Z[#3+-0.04000]
#1=[#525+[#526-#525]*0.61061]
#2=[#531+[#532-#531]*0.61061]
#3=[#1+[#2-#1]*0.13447]
X-9.36634 Y-2.74541 Z[#3+-0.04000]
#1=[#525+[#526-#525]*0.62300]
#2=[#531+[#532-#531]*0.62300]
#3=[#1+[#2-#1]*0.11502]
X-9.37381 Y-2.74072 Z[#3+-0.04000]
#1=[#525+[#526-#525]*0.63069]
#2=[#531+[#532-#531]*0.63069]
#3=[#1+[#2-#1]*0.09334]
X-9.38213 Y-2.73781 Z[#3+-0.04000]
#1=[#525+[#526-#525]*0.63331]
#2=[#531+[#532-#531]*0.63331]
#3=[#1+[#2-#1]*0.07051]
X-9.39089 Y-2.73682 Z[#3+-0.04000]
#1=[#525+[#526-#525]*0.63069]
#2=[#531+[#532-#531]*0.63069]
#3=[#1+[#2-#1]*0.04768]
X-9.39965 Y-2.73781 Z[#3+-0.04000]
#1=[#525+[#526-#525]*0.62300]
#2=[#531+[#532-#531]*0.62300]
#3=[#1+[#2-#1]*0.02599]
X-9.40797 Y-2.74072 Z[#3+-0.04000]
#1=[#525+[#526-#525]*0.61061]
#2=[#531+[#532-#531]*0.61061]
#3=[#1+[#2-#1]*0.00654]
X-9.41544 Y-2.74541 Z[#3+-0.04000]
#1=[#519+[#520-#519]*0.60397]
#2=[#525+[#526-#525]*0.60397]
#3=[#1+[#2-#1]*1.00000]
X-9.41795 Y-2.74792 Z[#3+-0.04000]
#1=[#519+[#520-#519]*0.59413]
#2=[#525+[#526-#525]*0.59413]
#3=[#1+[#2-#1]*0.99030]
X-9.42167 Y-2.75164 Z[#3+-0.04000]
#1=[#519+[#520-#519]*0.57441]
#2=[#525+[#526-#525]*0.57441]
#3=[#1+[#2-#1]*0.97807]
X-9.42636 Y-2.75911 Z[#3+-0.04000]
#1=[#519+[#520-#519]*0.55242]
#2=[#525+[#526-#525]*0.55242]
#3=[#1+[#2-#1]*0.97049]
X-9.42927 Y-2.76743 Z[#3+-0.04000]
#1=[#519+[#520-#519]*0.52926]
#2=[#525+[#526-#525]*0.52926]
#3=[#1+[#2-#1]*0.96791]
X-9.43026 Y-2.77619 Z[#3+-0.04000]
#1=[#518+[#519-#518]*1.00000]
#2=[#524+[#525-#524]*1.00000]
#3=[#1+[#2-#1]*0.96791]
X-9.43026 Y-2.97647 Z[#3+-0.04000]
#1=[#518+[#519-#518]*0.20797]
#2=[#524+[#525-#524]*0.20797]
#3=[#1+[#2-#1]*0.96791]
X-9.43026 Y-3.27619 Z[#3+-0.04000]
#1=[#518+[#519-#518]*0.18482]
#2=[#524+[#525-#524]*0.18482]
#3=[#1+[#2-#1]*0.97049]
X-9.42927 Y-3.28495 Z[#3+-0.04000]
#1=[#518+[#519-#518]*0.16283]
#2=[#524+[#525-#524]*0.16283]
#3=[#1+[#2-#1]*0.97807]
X-9.42636 Y-3.29327 Z[#3+-0.04000]
#1=[#518+[#519-#518]*0.14311]
#2=[#524+[#525-#524]*0.14311]
#3=[#1+[#2-#1]*0.99030]
X-9.42167 Y-3.30074 Z[#3+-0.04000]
#1=[#518+[#519-#518]*0.13327]
#2=[#524+[#525-#524]*0.13327]
#3=[#1+[#2-#1]*1.00000]
X-9.41795 Y-3.30446 Z[#3+-0.04000]
#1=[#524+[#525-#524]*0.12663]
#2=[#530+[#531-#530]*0.12663]
#3=[#1+[#2-#1]*0.00654]
X-9.41544 Y-3.30697 Z[#3+-0.04000]
#1=[#524+[#525-#524]*0.11424]
#2=[#530+[#531-#530]*0.11424]
#3=[#1+[#2-#1]*0.02599]
X-9.40797 Y-3.31166 Z[#3+-0.04000]
#1=[#524+[#525-#524]*0.10654]
#2=[#530+[#531-#530]*0.10654]
#3=[#1+[#2-#1]*0.04768]
X-9.39965 Y-3.31457 Z[#3+-0.04000]
#1=[#524+[#525-#524]*0.10393]
#2=[#530+[#531-#530]*0.10393]
#3=[#1+[#2-#1]*0.07051]
X-9.39089 Y-3.31556 Z[#3+-0.04000]
#1=[#524+[#525-#524]*0.10654]
#2=[#530+[#531-#530]*0.10654]
#3=[#1+[#2-#1]*0.09334]
X-9.38213 Y-3.31457 Z[#3+-0.04000]
#1=[#524+[#525-#524]*0.11424]
#2=[#530+[#531-#530]*0.11424]
#3=[#1+[#2-#1]*0.11502]
X-9.37381 Y-3.31166 Z[#3+-0.04000]
#1=[#524+[#525-#524]*0.12663]
#2=[#530+[#531-#530]*0.12663]
#3=[#1+[#2-#1]*0.13447]
X-9.36634 Y-3.30697 Z[#3+-0.04000]
#1=[#524+[#525-#524]*0.14311]
#2=[#530+[#531-#530]*0.14311]
#3=[#1+[#2-#1]*0.15072]
X-9.36011 Y-3.30074 Z[#3+-0.04000]
#1=[#524+[#525-#524]*0.16283]
#2=[#530+[#531-#530]*0.16283]
#3=[#1+[#2-#1]*0.16294]
X-9.35542 Y-3.29327 Z[#3+-0.04000]
#1=[#524+[#525-#524]*0.18482]
#2=[#530+[#531-#530]*0.18482]
#3=[#1+[#2-#1]*0.17053]
X-9.35251 Y-3.28495 Z[#3+-0.04000]
#1=[#524+[#525-#524]*0.20797]
#2=[#530+[#531-#530]*0.20797]
#3=[#1+[#2-#1]*0.17310]
X-9.35152 Y-3.27619 Z[#3+-0.04000]
#1=[#524+[#525-#524]*0.54240]
#2=[#530+[#531-#530]*0.54240]
#3=[#1+[#2-#1]*0.17310]
X-9.35152 Y-3.14964 Z[#3+-0.04000]
#1=[#524+[#525-#524]*0.55294]
#2=[#530+[#531-#530]*0.55294]
#3=[#1+[#2-#1]*0.18350]
X-9.34753 Y-3.14565 Z[#3+-0.04000]
#1=[#524+[#525-#524]*0.14555]
#2=[#530+[#531-#530]*0.14555]
#3=[#1+[#2-#1]*0.48480]
X-9.23191 Y-3.29981 Z[#3+-0.04000]
#1=[#524+[#525-#524]*0.12859]
#2=[#530+[#531-#530]*0.12859]
#3=[#1+[#2-#1]*0.50056]
X-9.22586 Y-3.30623 Z[#3+-0.04000]
#1=[#524+[#525-#524]*0.11562]
#2=[#530+[#531-#530]*0.11562]
#3=[#1+[#2-#1]*0.51964]
X-9.21854 Y-3.31114 Z[#3+-0.04000]
#1=[#524+[#525-#524]*0.10728]
#2=[#530+[#531-#530]*0.10728]
#3=[#1+[#2-#1]*0.54109]
X-9.21031 Y-3.31429 Z[#3+-0.04000]
#1=[#524+[#525-#524]*0.10398]
#2=[#530+[#531-#530]*0.10398]
#3=[#1+[#2-#1]*0.56383]
X-9.20158 Y-3.31554 Z[#3+-0.04000]
#1=[#524+[#525-#524]*0.10590]
#2=[#530+[#531-#530]*0.10590]
#3=[#1+[#2-#1]*0.58673]
X-9.19279 Y-3.31482 Z[#3+-0.04000]
#1=[#524+[#525-#524]*0.11294]
#2=[#530+[#531-#530]*0.11294]
#3=[#1+[#2-#1]*0.60863]
X-9.18439 Y-3.31215 Z[#3+-0.04000]
#1=[#524+[#525-#524]*0.12474]
#2=[#530+[#531-#530]*0.12474]
#3=[#1+[#2-#1]*0.62844]
X-9.17679 Y-3.30769 Z[#3+-0.04000]
#1=[#524+[#525-#524]*0.14072]
#2=[#530+[#531-#530]*0.14072]
#3=[#1+[#2-#1]*0.64516]
X-9.17037 Y-3.30164 Z[#3+-0.04000]
#1=[#524+[#525-#524]*0.16007]
#2=[#530+[#531-#530]*0.16007]
#3=[#1+[#2-#1]*0.65795]
X-9.16546 Y-3.29432 Z[#3+-0.04000]
#1=[#524+[#525-#524]*0.18182]
#2=[#530+[#531-#530]*0.18182]
#3=[#1+[#2-#1]*0.66618]
X-9.16231 Y-3.28609 Z[#3+-0.04000]
#1=[#524+[#525-#524]*0.20488]
#2=[#530+[#531-#530]*0.20488]
#3=[#1+[#2-#1]*0.66943]
X-9.16106 Y-3.27736 Z[#3+-0.04000]
G04 P0 ( dwell for no time -- G64 should not smooth over this point )
G00 Z0.08000 ( retract )

G00 X-9.56581 Y-3.25179 ( rapid move to begin. )
G01 F180.00000
( Mill infeed pass 1/1 )
#1=[#518+[#519-#518]*0.27244]
#2=[#524+[#525-#524]*0.27244]
#3=[#1+[#2-#1]*0.61470]
G01 Z[-0.04000+#100]
G04 P0 ( dwell for no time -- G64 should not smooth over this point )
G01 F360.00000
#1=[#518+[#519-#518]*0.24925]
#2=[#524+[#525-#524]*0.24925]
#3=[#1+[#2-#1]*0.61246]
X-9.56666 Y-3.26057 Z[#3+-0.04000]
#1=[#518+[#519-#518]*0.22715]
#2=[#524+[#525-#524]*0.22715]
#3=[#1+[#2-#1]*0.60520]
X-9.56945 Y-3.26893 Z[#3+-0.04000]
#1=[#518+[#519-#518]*0.20724]
#2=[#524+[#525-#524]*0.20724]
#3=[#1+[#2-#1]*0.59327]
X-9.57403 Y-3.27647 Z[#3+-0.04000]
#1=[#518+[#519-#518]*0.19053]
#2=[#524+[#525-#524]*0.19053]
#3=[#1+[#2-#1]*0.57727]
X-9.58017 Y-3.28279 Z[#3+-0.04000]
#1=[#518+[#519-#518]*0.17784]
#2=[#524+[#525-#524]*0.17784]
#3=[#1+[#2-#1]*0.55799]
X-9.58756 Y-3.28759 Z[#3+-0.04000]
#1=[#518+[#519-#518]*0.11492]
#2=[#524+[#525-#524]*0.11492]
#3=[#1+[#2-#1]*0.43390]
X-9.63518 Y-3.31140 Z[#3+-0.04000]
#1=[#518+[#519-#518]*0.10672]
#2=[#524+[#525-#524]*0.10672]
#3=[#1+[#2-#1]*0.41159]
X-9.64375 Y-3.31451 Z[#3+-0.04000]
#1=[#518+[#519-#518]*0.10393]
#2=[#524+[#525-#524]*0.10393]
#3=[#1+[#2-#1]*0.38802]
X-9.65279 Y-3.31556 Z[#3+-0.04000]
#1=[#518+[#519-#518]*0.10393]
#2=[#524+[#525-#524]*0.10393]
#3=[#1+[#2-#1]*0.13983]
X-9.74803 Y-3.31556 Z[#3+-0.04000]
#1=[#518+[#519-#518]*0.10672]
#2=[#524+[#525-#524]*0.10672]
#3=[#1+[#2-#1]*0.11626]
X-9.75708 Y-3.31451 Z[#3+-0.04000]
#1=[#518+[#519-#518]*0.11492]
#2=[#524+[#525-#524]*0.11492]
#3=[#1+[#2-#1]*0.09395]
X-9.76564 Y-3.31140 Z[#3+-0.04000]
#1=[#512+[#513-#512]*0.16256]
#2=[#518+[#519-#518]*0.16256]
#3=[#1+[#2-#1]*1.00000]
X-9.80169 Y-3.29338 Z[#3+-0.04000]
#1=[#512+[#513-#512]*0.17784]
#2=[#518+[#519-#518]*0.17784]
#3=[#1+[#2-#1]*0.96986]
X-9.81326 Y-3.28759 Z[#3+-0.04000]
#1=[#512+[#513-#512]*0.19733]
#2=[#518+[#519-#518]*0.19733]
#3=[#1+[#2-#1]*0.94320]
X-9.82349 Y-3.28022 Z[#3+-0.04000]
#1=[#512+[#513-#512]*0.26025]
#2=[#518+[#519-#518]*0.26025]
#3=[#1+[#2-#1]*0.88115]
X-9.84730 Y-3.25641 Z[#3+-0.04000]
#1=[#512+[#513-#512]*0.28729]
#2=[#518+[#519-#518]*0.28729]
#3=[#1+[#2-#1]*0.86193]
X-9.85467 Y-3.24618 Z[#3+-0.04000]
#1=[#512+[#513-#512]*0.41313]
#2=[#518+[#519-#518]*0.41313]
#3=[#1+[#2-#1]*0.79988]
X-9.87848 Y-3.19856 Z[#3+-0.04000]
#1=[#512+[#513-#512]*0.43575]
#2=[#518+[#519-#518]*0.43575]
#3=[#1+[#2-#1]*0.79180]
X-9.88159 Y-3.19000 Z[#3+-0.04000]
#1=[#512+[#513-#512]*0.45965]
#2=[#518+[#519-#518]*0.45965]
#3=[#1+[#2-#1]*0.78905]
X-9.88264 Y-3.18095 Z[#3+-0.04000]
#1=[#512+[#513-#512]*0.83714]
#2=[#518+[#519-#518]*0.83714]
#3=[#1+[#2-#1]*0.78905]
X-9.88264 Y-3.03810 Z[#3+-0.04000]
#1=[#512+[#513-#512]*0.86105]
#2=[#518+[#519-#518]*0.86105]
#3=[#1+[#2-#1]*0.79180]
X-9.88159 Y-3.02905 Z[#3+-0.04000]
#1=[#512+[#513-#512]*0.88367]
#2=[#518+[#519-#518]*0.88367]
#3=[#1+[#2-#1]*0.79988]
X-9.87848 Y-3.02049 Z[#3+-0.04000]
#1=[#512+[#513-#512]*1.00000]
#2=[#518+[#519-#518]*1.00000]
#3=[#1+[#2-#1]*0.85724]
X-9.85647 Y-2.97647 Z[#3+-0.04000]
#1=[#513+[#514-#513]*0.00951]
#2=[#519+[#520-#519]*0.00951]
#3=[#1+[#2-#1]*0.86193]
X-9.85467 Y-2.97287 Z[#3+-0.04000]
#1=[#513+[#514-#513]*0.03655]
#2=[#519+[#520-#519]*0.03655]
#3=[#1+[#2-#1]*0.88115]
X-9.84730 Y-2.96264 Z[#3+-0.04000]
#1=[#513+[#514-#513]*0.09947]
#2=[#519+[#520-#519]*0.09947]
#3=[#1+[#2-#1]*0.94320]
X-9.82349 Y-2.93883 Z[#3+-0.04000]
#1=[#513+[#514-#513]*0.11896]
#2=[#519+[#520-#519]*0.11896]
#3=[#1+[#2-#1]*0.96986]
X-9.81326 Y-2.93146 Z[#3+-0.04000]
#1=[#513+[#514-#513]*0.13424]
#2=[#519+[#520-#519]*0.13424]
#3=[#1+[#2-#1]*1.00000]
X-9.80169 Y-2.92567 Z[#3+-0.04000]
#1=[#519+[#520-#519]*0.18188]
#2=[#525+[#526-#525]*0.18188]
#3=[#1+[#2-#1]*0.09395]
X-9.76564 Y-2.90765 Z[#3+-0.04000]
#1=[#519+[#520-#519]*0.19008]
#2=[#525+[#526-#525]*0.19008]
#3=[#1+[#2-#1]*0.11626]
X-9.75708 Y-2.90454 Z[#3+-0.04000]
#1=[#519+[#520-#519]*0.19287]
#2=[#525+[#526-#525]*0.19287]
#3=[#1+[#2-#1]*0.13983]
X-9.74803 Y-2.90349 Z[#3+-0.04000]
#1=[#519+[#520-#519]*0.19287]
#2=[#525+[#526-#525]*0.19287]
#3=[#1+[#2-#1]*0.38802]
X-9.65279 Y-2.90349 Z[#3+-0.04000]
#1=[#519+[#520-#519]*0.19008]
#2=[#525+[#526-#525]*0.19008]
#3=[#1+[#2-#1]*0.41159]
X-9.64375 Y-2.90454 Z[#3+-0.04000]
#1=[#519+[#520-#519]*0.18188]
#2=[#525+[#526-#525]*0.18188]
#3=[#1+[#2-#1]*0.43390]
X-9.63518 Y-2.90765 Z[#3+-0.04000]
#1=[#519+[#520-#519]*0.11896]
#2=[#525+[#526-#525]*0.11896]
#3=[#1+[#2-#1]*0.55799]
X-9.58756 Y-2.93146 Z[#3+-0.04000]
#1=[#519+[#520-#519]*0.10627]
#2=[#525+[#526-#525]*0.10627]
#3=[#1+[#2-#1]*0.57727]
X-9.58017 Y-2.93626 Z[#3+-0.04000]
#1=[#519+[#520-#519]*0.08956]
#2=[#525+[#526-#525]*0.08956]
#3=[#1+[#2-#1]*0.59327]
X-9.57403 Y-2.94258 Z[#3+-0.04000]
#1=[#519+[#520-#519]*0.06965]
#2=[#525+[#526-#525]*0.06965]
#3=[#1+[#2-#1]*0.60520]
X-9.56945 Y-2.95012 Z[#3+-0.04000]
#1=[#519+[#520-#519]*0.04755]
#2=[#525+[#526-#525]*0.04755]
#3=[#1+[#2-#1]*0.61246]
X-9.56666 Y-2.95848 Z[#3+-0.04000]
#1=[#519+[#520-#519]*0.02436]
#2=[#525+[#526-#525]*0.02436]
#3=[#1+[#2-#1]*0.61470]
X-9.56581 Y-2.96725 Z[#3+-0.04000]
#1=[#519+[#520-#519]*0.00125]
#2=[#525+[#526-#525]*0.00125]
#3=[#1+[#2-#1]*0.61179]
X-9.56692 Y-2.97600 Z[#3+-0.04000]
#1=[#518+[#519-#518]*1.00000]
#2=[#524+[#525-#524]*1.00000]
#3=[#1+[#2-#1]*0.61133]
X-9.56710 Y-2.97647 Z[#3+-0.04000]
#1=[#518+[#519-#518]*0.97938]
#2=[#524+[#525-#524]*0.97938]
#3=[#1+[#2-#1]*0.60388]
X-9.56996 Y-2.98428 Z[#3+-0.04000]
#1=[#518+[#519-#518]*0.95984]
#2=[#524+[#525-#524]*0.95984]
#3=[#1+[#2-#1]*0.59137]
X-9.57476 Y-2.99167 Z[#3+-0.04000]
#1=[#518+[#519-#518]*0.94361]
#2=[#524+[#525-#524]*0.94361]
#3=[#1+[#2-#1]*0.57488]
X-9.58108 Y-2.99781 Z[#3+-0.04000]
#1=[#518+[#519-#518]*0.93151]
#2=[#524+[#525-#524]*0.93151]
#3=[#1+[#2-#1]*0.55525]
X-9.58862 Y-3.00239 Z[#3+-0.04000]
#1=[#518+[#519-#518]*0.92414]
#2=[#524+[#525-#524]*0.92414]
#3=[#1+[#2-#1]*0.53345]
X-9.59698 Y-3.00518 Z[#3+-0.04000]
#1=[#518+[#519-#518]*0.92188]
#2=[#524+[#525-#524]*0.92188]
#3=[#1+[#2-#1]*0.51059]
X-9.60576 Y-3.00603 Z[#3+-0.04000]
#1=[#518+[#519-#518]*0.92483]
#2=[#524+[#525-#524]*0.92483]
#3=[#1+[#2-#1]*0.48780]
X-9.61450 Y-3.00492 Z[#3+-0.04000]
#1=[#518+[#519-#518]*0.93285]
#2=[#524+[#525-#524]*0.93285]
#3=[#1+[#2-#1]*0.46623]
X-9.62278 Y-3.00188 Z[#3+-0.04000]
#1=[#518+[#519-#518]*0.98479]
#2=[#524+[#525-#524]*0.98479]
#3=[#1+[#2-#1]*0.36380]
X-9.66209 Y-2.98223 Z[#3+-0.04000]
#1=[#518+[#519-#518]*0.98479]
#2=[#524+[#525-#524]*0.98479]
#3=[#1+[#2-#1]*0.16405]
X-9.73874 Y-2.98223 Z[#3+-0.04000]
#1=[#518+[#519-#518]*0.94040]
#2=[#524+[#525-#524]*0.94040]
#3=[#1+[#2-#1]*0.07651]
X-9.77233 Y-2.99903 Z[#3+-0.04000]
#1=[#518+[#519-#518]*0.90136]
#2=[#524+[#525-#524]*0.90136]
#3=[#1+[#2-#1]*0.03801]
X-9.78710 Y-3.01380 Z[#3+-0.04000]
#1=[#512+[#513-#512]*0.82426]
#2=[#518+[#519-#518]*0.82426]
#3=[#1+[#2-#1]*1.00000]
X-9.80169 Y-3.04298 Z[#3+-0.04000]
#1=[#512+[#513-#512]*0.81258]
#2=[#518+[#519-#518]*0.81258]
#3=[#1+[#2-#1]*0.99424]
X-9.80390 Y-3.04739 Z[#3+-0.04000]
#1=[#512+[#513-#512]*0.48421]
#2=[#518+[#519-#518]*0.48421]
#3=[#1+[#2-#1]*0.99424]
X-9.80390 Y-3.17165 Z[#3+-0.04000]
#1=[#512+[#513-#512]*0.47254]
#2=[#518+[#519-#518]*0.47254]
#3=[#1+[#2-#1]*1.00000]
X-9.80169 Y-3.17607 Z[#3+-0.04000]
#1=[#518+[#519-#518]*0.39544]
#2=[#524+[#525-#524]*0.39544]
#3=[#1+[#2-#1]*0.03801]
X-9.78710 Y-3.20525 Z[#3+-0.04000]
#1=[#518+[#519-#518]*0.35640]
#2=[#524+[#525-#524]*0.35640]
#3=[#1+[#2-#1]*0.07651]
X-9.77233 Y-3.22002 Z[#3+-0.04000]
#1=[#518+[#519-#518]*0.31201]
#2=[#524+[#525-#524]*0.31201]
#3=[#1+[#2-#1]*0.16405]
X-9.73874 Y-3.23682 Z[#3+-0.04000]
#1=[#518+[#519-#518]*0.31201]
#2=[#524+[#525-#524]*0.31201]
#3=[#1+[#2-#1]*0.36380]
X-9.66209 Y-3.23682 Z[#3+-0.04000]
#1=[#518+[#519-#518]*0.36395]
#2=[#524+[#525-#524]*0.36395]
#3=[#1+[#2-#1]*0.46623]
X-9.62278 Y-3.21717 Z[#3+-0.04000]
#1=[#518+[#519-#518]*0.37197]
#2=[#524+[#525-#524]*0.37197]
#3=[#1+[#2-#1]*0.48780]
X-9.61450 Y-3.21413 Z[#3+-0.04000]
#1=[#518+[#519-#518]*0.37492]
#2=[#524+[#525-#524]*0.37492]
#3=[#1+[#2-#1]*0.51059]
X-9.60576 Y-3.21301 Z[#3+-0.04000]
#1=[#518+[#519-#518]*0.37265]
#2=[#524+[#525-#524]*0.37265]
#3=[#1+[#2-#1]*0.53345]
X-9.59698 Y-3.21387 Z[#3+-0.04000]
#1=[#518+[#519-#518]*0.36529]
#2=[#524+[#525-#524]*0.36529]
#3=[#1+[#2-#1]*0.55525]
X-9.58862 Y-3.21666 Z[#3+-0.04000]
#1=[#518+[#519-#518]*0.35319]
#2=[#524+[#525-#524]*0.35319]
#3=[#1+[#2-#1]*0.57488]
X-9.58108 Y-3.22124 Z[#3+-0.04000]
#1=[#518+[#519-#518]*0.33696]
#2=[#524+[#525-#524]*0.33696]
#3=[#1+[#2-#1]*0.59137]
X-9.57476 Y-3.22738 Z[#3+-0.04000]
#1=[#518+[#519-#518]*0.31742]
#2=[#524+[#525-#524]*0.31742]
#3=[#1+[#2-#1]*0.60388]
X-9.56996 Y-3.23477 Z[#3+-0.04000]
#1=[#518+[#519-#518]*0.29555]
#2=[#524+[#525-#524]*0.29555]
#3=[#1+[#2-#1]*0.61179]
X-9.56692 Y-3.24305 Z[#3+-0.04000]
#1=[#518+[#519-#518]*0.27244]
#2=[#524+[#525-#524]*0.27244]
#3=[#1+[#2-#1]*0.61470]
X-9.56581 Y-3.25179 Z[#3+-0.04000]
G04 P0 ( dwell for no time -- G64 should not smooth over this point )
G00 Z0.08000 ( retract )

G00 X-10.01818 Y-3.27619 ( rapid move to begin. )
G01 F180.00000
( Mill infeed pass 1/1 )
#1=[#512+[#513-#512]*0.20797]
#2=[#518+[#519-#518]*0.20797]
#3=[#1+[#2-#1]*0.43585]
G01 Z[-0.04000+#100]
G04 P0 ( dwell for no time -- G64 should not smooth over this point )
G01 F360.00000
#1=[#512+[#513-#512]*0.90006]
#2=[#518+[#519-#518]*0.90006]
#3=[#1+[#2-#1]*0.43585]
X-10.01818 Y-3.01429 Z[#3+-0.04000]
#1=[#512+[#513-#512]*0.92397]
#2=[#518+[#519-#518]*0.92397]
#3=[#1+[#2-#1]*0.43310]
X-10.01923 Y-3.00524 Z[#3+-0.04000]
#1=[#512+[#513-#512]*0.94659]
#2=[#518+[#519-#518]*0.94659]
#3=[#1+[#2-#1]*0.42502]
X-10.02234 Y-2.99668 Z[#3+-0.04000]
#1=[#512+[#513-#512]*1.00000]
#2=[#518+[#519-#518]*1.00000]
#3=[#1+[#2-#1]*0.39868]
X-10.03244 Y-2.97647 Z[#3+-0.04000]
#1=[#513+[#514-#513]*0.07243]
#2=[#519+[#520-#519]*0.07243]
#3=[#1+[#2-#1]*0.36297]
X-10.04615 Y-2.94906 Z[#3+-0.04000]
#1=[#513+[#514-#513]*0.09117]
#2=[#519+[#520-#519]*0.09117]
#3=[#1+[#2-#1]*0.35110]
X-10.05070 Y-2.94197 Z[#3+-0.04000]
#1=[#513+[#514-#513]*0.10692]
#2=[#519+[#520-#519]*0.10692]
#3=[#1+[#2-#1]*0.33557]
X-10.05666 Y-2.93601 Z[#3+-0.04000]
#1=[#513+[#514-#513]*0.11896]
#2=[#519+[#520-#519]*0.11896]
#3=[#1+[#2-#1]*0.31709]
X-10.06375 Y-2.93146 Z[#3+-0.04000]
#1=[#513+[#514-#513]*0.18188]
#2=[#519+[#520-#519]*0.18188]
#3=[#1+[#2-#1]*0.19299]
X-10.11137 Y-2.90765 Z[#3+-0.04000]
#1=[#513+[#514-#513]*0.19008]
#2=[#519+[#520-#519]*0.19008]
#3=[#1+[#2-#1]*0.17068]
X-10.11994 Y-2.90454 Z[#3+-0.04000]
#1=[#513+[#514-#513]*0.19287]
#2=[#519+[#520-#519]*0.19287]
#3=[#1+[#2-#1]*0.14711]
X-10.12898 Y-2.90349 Z[#3+-0.04000]
#1=[#507+[#508-#507]*0.19287]
#2=[#513+[#514-#513]*0.19287]
#3=[#1+[#2-#1]*1.00000]
X-10.18543 Y-2.90349 Z[#3+-0.04000]
#1=[#507+[#508-#507]*0.19287]
#2=[#513+[#514-#513]*0.19287]
#3=[#1+[#2-#1]*0.89893]
X-10.22422 Y-2.90349 Z[#3+-0.04000]
#1=[#507+[#508-#507]*0.19008]
#2=[#513+[#514-#513]*0.19008]
#3=[#1+[#2-#1]*0.87535]
X-10.23327 Y-2.90454 Z[#3+-0.04000]
#1=[#507+[#508-#507]*0.18188]
#2=[#513+[#514-#513]*0.18188]
#3=[#1+[#2-#1]*0.85305]
X-10.24183 Y-2.90765 Z[#3+-0.04000]
#1=[#507+[#508-#507]*0.11896]
#2=[#513+[#514-#513]*0.11896]
#3=[#1+[#2-#1]*0.72895]
X-10.28945 Y-2.93146 Z[#3+-0.04000]
#1=[#507+[#508-#507]*0.10627]
#2=[#513+[#514-#513]*0.10627]
#3=[#1+[#2-#1]*0.70968]
X-10.29684 Y-2.93626 Z[#3+-0.04000]
#1=[#507+[#508-#507]*0.08956]
#2=[#513+[#514-#513]*0.08956]
#3=[#1+[#2-#1]*0.69368]
X-10.30298 Y-2.94258 Z[#3+-0.04000]
#1=[#507+[#508-#507]*0.06965]
#2=[#513+[#514-#513]*0.06965]
#3=[#1+[#2-#1]*0.68175]
X-10.30756 Y-2.95012 Z[#3+-0.04000]
#1=[#507+[#508-#507]*0.04755]
#2=[#513+[#514-#513]*0.04755]
#3=[#1+[#2-#1]*0.67448]
X-10.31035 Y-2.95848 Z[#3+-0.04000]
#1=[#507+[#508-#507]*0.02436]
#2=[#513+[#514-#513]*0.02436]
#3=[#1+[#2-#1]*0.67225]
X-10.31121 Y-2.96725 Z[#3+-0.04000]
#1=[#507+[#508-#507]*0.00125]
#2=[#513+[#514-#513]*0.00125]
#3=[#1+[#2-#1]*0.67516]
X-10.31009 Y-2.97600 Z[#3+-0.04000]
#1=[#506+[#507-#506]*1.00000]
#2=[#512+[#513-#512]*1.00000]
#3=[#1+[#2-#1]*0.67561]
X-10.30992 Y-2.97647 Z[#3+-0.04000]
#1=[#506+[#507-#506]*0.97938]
#2=[#512+[#513-#512]*0.97938]
#3=[#1+[#2-#1]*0.68307]
X-10.30705 Y-2.98428 Z[#3+-0.04000]
#1=[#506+[#507-#506]*0.95984]
#2=[#512+[#513-#512]*0.95984]
#3=[#1+[#2-#1]*0.69558]
X-10.30225 Y-2.99167 Z[#3+-0.04000]
#1=[#506+[#507-#506]*0.94361]
#2=[#512+[#513-#512]*0.94361]
#3=[#1+[#2-#1]*0.71206]
X-10.29593 Y-2.99781 Z[#3+-0.04000]
#1=[#506+[#507-#506]*0.93151]
#2=[#512+[#513-#512]*0.93151]
#3=[#1+[#2-#1]*0.73170]
X-10.28839 Y-3.00239 Z[#3+-0.04000]
#1=[#506+[#507-#506]*0.92414]
#2=[#512+[#513-#512]*0.92414]
#3=[#1+[#2-#1]*0.75349]
X-10.28003 Y-3.00518 Z[#3+-0.04000]
#1=[#506+[#507-#506]*0.92188]
#2=[#512+[#513-#512]*0.92188]
#3=[#1+[#2-#1]*0.77636]
X-10.27126 Y-3.00603 Z[#3+-0.04000]
#1=[#506+[#507-#506]*0.92483]
#2=[#512+[#513-#512]*0.92483]
#3=[#1+[#2-#1]*0.79914]
X-10.26251 Y-3.00492 Z[#3+-0.04000]
#1=[#506+[#507-#506]*0.93285]
#2=[#512+[#513-#512]*0.93285]
#3=[#1+[#2-#1]*0.82071]
X-10.25423 Y-3.00188 Z[#3+-0.04000]
#1=[#506+[#507-#506]*0.98479]
#2=[#512+[#513-#512]*0.98479]
#3=[#1+[#2-#1]*0.92315]
X-10.21493 Y-2.98223 Z[#3+-0.04000]
#1=[#506+[#507-#506]*0.98479]
#2=[#512+[#513-#512]*0.98479]
#3=[#1+[#2-#1]*1.00000]
X-10.18543 Y-2.98223 Z[#3+-0.04000]
#1=[#512+[#513-#512]*0.98479]
#2=[#518+[#519-#518]*0.98479]
#3=[#1+[#2-#1]*0.12289]
X-10.13828 Y-2.98223 Z[#3+-0.04000]
#1=[#512+[#513-#512]*0.94836]
#2=[#518+[#519-#518]*0.94836]
#3=[#1+[#2-#1]*0.19474]
X-10.11071 Y-2.99601 Z[#3+-0.04000]
#1=[#512+[#513-#512]*0.87550]
#2=[#518+[#519-#518]*0.87550]
#3=[#1+[#2-#1]*0.23066]
X-10.09692 Y-3.02358 Z[#3+-0.04000]
#1=[#512+[#513-#512]*0.83855]
#2=[#518+[#519-#518]*0.83855]
#3=[#1+[#2-#1]*0.23066]
X-10.09692 Y-3.03757 Z[#3+-0.04000]
#1=[#512+[#513-#512]*0.81537]
#2=[#518+[#519-#518]*0.81537]
#3=[#1+[#2-#1]*0.18494]
X-10.11447 Y-3.04634 Z[#3+-0.04000]
#1=[#506+[#507-#506]*0.81537]
#2=[#512+[#513-#512]*0.81537]
#3=[#1+[#2-#1]*1.00000]
X-10.18543 Y-3.04634 Z[#3+-0.04000]
#1=[#506+[#507-#506]*0.81537]
#2=[#512+[#513-#512]*0.81537]
#3=[#1+[#2-#1]*0.89893]
X-10.22422 Y-3.04634 Z[#3+-0.04000]
#1=[#506+[#507-#506]*0.81259]
#2=[#512+[#513-#512]*0.81259]
#3=[#1+[#2-#1]*0.87535]
X-10.23327 Y-3.04739 Z[#3+-0.04000]
#1=[#506+[#507-#506]*0.80439]
#2=[#512+[#513-#512]*0.80439]
#3=[#1+[#2-#1]*0.85305]
X-10.24183 Y-3.05050 Z[#3+-0.04000]
#1=[#506+[#507-#506]*0.74147]
#2=[#512+[#513-#512]*0.74147]
#3=[#1+[#2-#1]*0.72895]
X-10.28945 Y-3.07431 Z[#3+-0.04000]
#1=[#506+[#507-#506]*0.72943]
#2=[#512+[#513-#512]*0.72943]
#3=[#1+[#2-#1]*0.71047]
X-10.29654 Y-3.07886 Z[#3+-0.04000]
#1=[#506+[#507-#506]*0.71368]
#2=[#512+[#513-#512]*0.71368]
#3=[#1+[#2-#1]*0.69494]
X-10.30250 Y-3.08482 Z[#3+-0.04000]
#1=[#506+[#507-#506]*0.69494]
#2=[#512+[#513-#512]*0.69494]
#3=[#1+[#2-#1]*0.68307]
X-10.30705 Y-3.09191 Z[#3+-0.04000]
#1=[#506+[#507-#506]*0.56910]
#2=[#512+[#513-#512]*0.56910]
#3=[#1+[#2-#1]*0.62102]
X-10.33086 Y-3.13953 Z[#3+-0.04000]
#1=[#506+[#507-#506]*0.54648]
#2=[#512+[#513-#512]*0.54648]
#3=[#1+[#2-#1]*0.61294]
X-10.33397 Y-3.14809 Z[#3+-0.04000]
#1=[#506+[#507-#506]*0.52257]
#2=[#512+[#513-#512]*0.52257]
#3=[#1+[#2-#1]*0.61019]
X-10.33502 Y-3.15714 Z[#3+-0.04000]
#1=[#506+[#507-#506]*0.39673]
#2=[#512+[#513-#512]*0.39673]
#3=[#1+[#2-#1]*0.61019]
X-10.33502 Y-3.20476 Z[#3+-0.04000]
#1=[#506+[#507-#506]*0.37283]
#2=[#512+[#513-#512]*0.37283]
#3=[#1+[#2-#1]*0.61294]
X-10.33397 Y-3.21380 Z[#3+-0.04000]
#1=[#506+[#507-#506]*0.35021]
#2=[#512+[#513-#512]*0.35021]
#3=[#1+[#2-#1]*0.62102]
X-10.33086 Y-3.22237 Z[#3+-0.04000]
#1=[#506+[#507-#506]*0.22437]
#2=[#512+[#513-#512]*0.22437]
#3=[#1+[#2-#1]*0.68307]
X-10.30705 Y-3.26999 Z[#3+-0.04000]
#1=[#506+[#507-#506]*0.20562]
#2=[#512+[#513-#512]*0.20562]
#3=[#1+[#2-#1]*0.69494]
X-10.30250 Y-3.27708 Z[#3+-0.04000]
#1=[#506+[#507-#506]*0.18988]
#2=[#512+[#513-#512]*0.18988]
#3=[#1+[#2-#1]*0.71047]
X-10.29654 Y-3.28304 Z[#3+-0.04000]
#1=[#506+[#507-#506]*0.17784]
#2=[#512+[#513-#512]*0.17784]
#3=[#1+[#2-#1]*0.72895]
X-10.28945 Y-3.28759 Z[#3+-0.04000]
#1=[#506+[#507-#506]*0.11492]
#2=[#512+[#513-#512]*0.11492]
#3=[#1+[#2-#1]*0.85305]
X-10.24183 Y-3.31140 Z[#3+-0.04000]
#1=[#506+[#507-#506]*0.10672]
#2=[#512+[#513-#512]*0.10672]
#3=[#1+[#2-#1]*0.87535]
X-10.23327 Y-3.31451 Z[#3+-0.04000]
#1=[#506+[#507-#506]*0.10393]
#2=[#512+[#513-#512]*0.10393]
#3=[#1+[#2-#1]*0.89893]
X-10.22422 Y-3.31556 Z[#3+-0.04000]
#1=[#506+[#507-#506]*0.10393]
#2=[#512+[#513-#512]*0.10393]
#3=[#1+[#2-#1]*1.00000]
X-10.18543 Y-3.31556 Z[#3+-0.04000]
#1=[#512+[#513-#512]*0.10393]
#2=[#518+[#519-#518]*0.10393]
#3=[#1+[#2-#1]*0.20916]
X-10.10517 Y-3.31556 Z[#3+-0.04000]
#1=[#512+[#513-#512]*0.10672]
#2=[#518+[#519-#518]*0.10672]
#3=[#1+[#2-#1]*0.23273]
X-10.09613 Y-3.31451 Z[#3+-0.04000]
#1=[#512+[#513-#512]*0.11492]
#2=[#518+[#519-#518]*0.11492]
#3=[#1+[#2-#1]*0.25504]
X-10.08756 Y-3.31140 Z[#3+-0.04000]
#1=[#512+[#513-#512]*0.12413]
#2=[#518+[#519-#518]*0.12413]
#3=[#1+[#2-#1]*0.27321]
X-10.08059 Y-3.30792 Z[#3+-0.04000]
#1=[#512+[#513-#512]*0.11424]
#2=[#518+[#519-#518]*0.11424]
#3=[#1+[#2-#1]*0.28874]
X-10.07463 Y-3.31166 Z[#3+-0.04000]
#1=[#512+[#513-#512]*0.10654]
#2=[#518+[#519-#518]*0.10654]
#3=[#1+[#2-#1]*0.31042]
X-10.06631 Y-3.31457 Z[#3+-0.04000]
#1=[#512+[#513-#512]*0.10393]
#2=[#518+[#519-#518]*0.10393]
#3=[#1+[#2-#1]*0.33325]
X-10.05755 Y-3.31556 Z[#3+-0.04000]
#1=[#512+[#513-#512]*0.10654]
#2=[#518+[#519-#518]*0.10654]
#3=[#1+[#2-#1]*0.35608]
X-10.04879 Y-3.31457 Z[#3+-0.04000]
#1=[#512+[#513-#512]*0.11424]
#2=[#518+[#519-#518]*0.11424]
#3=[#1+[#2-#1]*0.37777]
X-10.04047 Y-3.31166 Z[#3+-0.04000]
#1=[#512+[#513-#512]*0.12663]
#2=[#518+[#519-#518]*0.12663]
#3=[#1+[#2-#1]*0.39722]
X-10.03300 Y-3.30697 Z[#3+-0.04000]
#1=[#512+[#513-#512]*0.14311]
#2=[#518+[#519-#518]*0.14311]
#3=[#1+[#2-#1]*0.41346]
X-10.02677 Y-3.30074 Z[#3+-0.04000]
#1=[#512+[#513-#512]*0.16283]
#2=[#518+[#519-#518]*0.16283]
#3=[#1+[#2-#1]*0.42569]
X-10.02208 Y-3.29327 Z[#3+-0.04000]
#1=[#512+[#513-#512]*0.18482]
#2=[#518+[#519-#518]*0.18482]
#3=[#1+[#2-#1]*0.43327]
X-10.01917 Y-3.28495 Z[#3+-0.04000]
#1=[#512+[#513-#512]*0.20797]
#2=[#518+[#519-#518]*0.20797]
#3=[#1+[#2-#1]*0.43585]
X-10.01818 Y-3.27619 Z[#3+-0.04000]
G04 P0 ( dwell for no time -- G64 should not smooth over this point )
G00 Z0.08000 ( retract )

G00 X-10.09692 Y-3.22805 ( rapid move to begin. )
G01 F180.00000
( Mill infeed pass 1/1 )
#1=[#512+[#513-#512]*0.33519]
#2=[#518+[#519-#518]*0.33519]
#3=[#1+[#2-#1]*0.23066]
G01 Z[-0.04000+#100]
G04 P0 ( dwell for no time -- G64 should not smooth over this point )
G01 F360.00000
#1=[#512+[#513-#512]*0.60983]
#2=[#518+[#519-#518]*0.60983]
#3=[#1+[#2-#1]*0.23066]
X-10.09692 Y-3.12412 Z[#3+-0.04000]
#1=[#512+[#513-#512]*0.60729]
#2=[#518+[#519-#518]*0.60729]
#3=[#1+[#2-#1]*0.20916]
X-10.10517 Y-3.12508 Z[#3+-0.04000]
#1=[#506+[#507-#506]*0.60729]
#2=[#512+[#513-#512]*0.60729]
#3=[#1+[#2-#1]*1.00000]
X-10.18543 Y-3.12508 Z[#3+-0.04000]
#1=[#506+[#507-#506]*0.60729]
#2=[#512+[#513-#512]*0.60729]
#3=[#1+[#2-#1]*0.92315]
X-10.21493 Y-3.12508 Z[#3+-0.04000]
#1=[#506+[#507-#506]*0.57087]
#2=[#512+[#513-#512]*0.57087]
#3=[#1+[#2-#1]*0.85130]
X-10.24250 Y-3.13886 Z[#3+-0.04000]
#1=[#506+[#507-#506]*0.49801]
#2=[#512+[#513-#512]*0.49801]
#3=[#1+[#2-#1]*0.81538]
X-10.25628 Y-3.16643 Z[#3+-0.04000]
#1=[#506+[#507-#506]*0.42129]
#2=[#512+[#513-#512]*0.42129]
#3=[#1+[#2-#1]*0.81538]
X-10.25628 Y-3.19546 Z[#3+-0.04000]
#1=[#506+[#507-#506]*0.34844]
#2=[#512+[#513-#512]*0.34844]
#3=[#1+[#2-#1]*0.85130]
X-10.24250 Y-3.22303 Z[#3+-0.04000]
#1=[#506+[#507-#506]*0.31201]
#2=[#512+[#513-#512]*0.31201]
#3=[#1+[#2-#1]*0.92315]
X-10.21493 Y-3.23682 Z[#3+-0.04000]
#1=[#506+[#507-#506]*0.31201]
#2=[#512+[#513-#512]*0.31201]
#3=[#1+[#2-#1]*1.00000]
X-10.18543 Y-3.23682 Z[#3+-0.04000]
#1=[#512+[#513-#512]*0.31201]
#2=[#518+[#519-#518]*0.31201]
#3=[#1+[#2-#1]*0.18494]
X-10.11447 Y-3.23682 Z[#3+-0.04000]
#1=[#512+[#513-#512]*0.33519]
#2=[#518+[#519-#518]*0.33519]
#3=[#1+[#2-#1]*0.23066]
X-10.09692 Y-3.22805 Z[#3+-0.04000]
G04 P0 ( dwell for no time -- G64 should not smooth over this point )
G00 Z0.08000 ( retract )

G00 X-10.44675 Y-3.18095 ( rapid move to begin. )
G01 F180.00000
( Mill infeed pass 1/1 )
#1=[#506+[#507-#506]*0.45965]
#2=[#512+[#513-#512]*0.45965]
#3=[#1+[#2-#1]*0.31904]
G01 Z[-0.04000+#100]
G04 P0 ( dwell for no time -- G64 should not smooth over this point )
G01 F360.00000
#1=[#506+[#507-#506]*0.64841]
#2=[#512+[#513-#512]*0.64841]
#3=[#1+[#2-#1]*0.31904]
X-10.44675 Y-3.10952 Z[#3+-0.04000]
#1=[#506+[#507-#506]*0.67232]
#2=[#512+[#513-#512]*0.67232]
#3=[#1+[#2-#1]*0.31629]
X-10.44780 Y-3.10047 Z[#3+-0.04000]
#1=[#506+[#507-#506]*0.69494]
#2=[#512+[#513-#512]*0.69494]
#3=[#1+[#2-#1]*0.30820]
X-10.45091 Y-3.09191 Z[#3+-0.04000]
#1=[#506+[#507-#506]*0.82078]
#2=[#512+[#513-#512]*0.82078]
#3=[#1+[#2-#1]*0.24616]
X-10.47472 Y-3.04429 Z[#3+-0.04000]
#1=[#506+[#507-#506]*0.84783]
#2=[#512+[#513-#512]*0.84783]
#3=[#1+[#2-#1]*0.22692]
X-10.48210 Y-3.03405 Z[#3+-0.04000]
#1=[#506+[#507-#506]*0.91073]
#2=[#512+[#513-#512]*0.91073]
#3=[#1+[#2-#1]*0.16488]
X-10.50591 Y-3.01025 Z[#3+-0.04000]
#1=[#506+[#507-#506]*0.92565]
#2=[#512+[#513-#512]*0.92565]
#3=[#1+[#2-#1]*0.14627]
X-10.51305 Y-3.00461 Z[#3+-0.04000]
#1=[#506+[#507-#506]*0.92814]
#2=[#512+[#513-#512]*0.92814]
#3=[#1+[#2-#1]*0.14103]
X-10.51506 Y-3.00366 Z[#3+-0.04000]
#1=[#506+[#507-#506]*0.95234]
#2=[#512+[#513-#512]*0.95234]
#3=[#1+[#2-#1]*0.16489]
X-10.50590 Y-2.99451 Z[#3+-0.04000]
#1=[#506+[#507-#506]*0.97938]
#2=[#512+[#513-#512]*0.97938]
#3=[#1+[#2-#1]*0.18411]
X-10.49853 Y-2.98428 Z[#3+-0.04000]
#1=[#506+[#507-#506]*1.00000]
#2=[#512+[#513-#512]*1.00000]
#3=[#1+[#2-#1]*0.19428]
X-10.49463 Y-2.97647 Z[#3+-0.04000]
#1=[#507+[#508-#507]*0.10522]
#2=[#513+[#514-#513]*0.10522]
#3=[#1+[#2-#1]*0.24616]
X-10.47472 Y-2.93666 Z[#3+-0.04000]
#1=[#507+[#508-#507]*0.12784]
#2=[#513+[#514-#513]*0.12784]
#3=[#1+[#2-#1]*0.25424]
X-10.47161 Y-2.92809 Z[#3+-0.04000]
#1=[#507+[#508-#507]*0.15174]
#2=[#513+[#514-#513]*0.15174]
#3=[#1+[#2-#1]*0.25699]
X-10.47056 Y-2.91905 Z[#3+-0.04000]
#1=[#507+[#508-#507]*0.27758]
#2=[#513+[#514-#513]*0.27758]
#3=[#1+[#2-#1]*0.25699]
X-10.47056 Y-2.87143 Z[#3+-0.04000]
#1=[#507+[#508-#507]*0.30149]
#2=[#513+[#514-#513]*0.30149]
#3=[#1+[#2-#1]*0.25424]
X-10.47161 Y-2.86238 Z[#3+-0.04000]
#1=[#507+[#508-#507]*0.32411]
#2=[#513+[#514-#513]*0.32411]
#3=[#1+[#2-#1]*0.24616]
X-10.47472 Y-2.85382 Z[#3+-0.04000]
#1=[#507+[#508-#507]*0.44995]
#2=[#513+[#514-#513]*0.44995]
#3=[#1+[#2-#1]*0.18411]
X-10.49853 Y-2.80620 Z[#3+-0.04000]
#1=[#507+[#508-#507]*0.47699]
#2=[#513+[#514-#513]*0.47699]
#3=[#1+[#2-#1]*0.16489]
X-10.50590 Y-2.79597 Z[#3+-0.04000]
#1=[#507+[#508-#507]*0.53991]
#2=[#513+[#514-#513]*0.53991]
#3=[#1+[#2-#1]*0.10284]
X-10.52971 Y-2.77216 Z[#3+-0.04000]
#1=[#507+[#508-#507]*0.55940]
#2=[#513+[#514-#513]*0.55940]
#3=[#1+[#2-#1]*0.07618]
X-10.53994 Y-2.76479 Z[#3+-0.04000]
#1=[#501+[#502-#501]*0.59803]
#2=[#507+[#508-#507]*0.59803]
#3=[#1+[#2-#1]*1.00000]
X-10.56918 Y-2.75017 Z[#3+-0.04000]
#1=[#501+[#502-#501]*0.62232]
#2=[#507+[#508-#507]*0.62232]
#3=[#1+[#2-#1]*0.95209]
X-10.58756 Y-2.74098 Z[#3+-0.04000]
#1=[#501+[#502-#501]*0.63052]
#2=[#507+[#508-#507]*0.63052]
#3=[#1+[#2-#1]*0.92978]
X-10.59613 Y-2.73787 Z[#3+-0.04000]
#1=[#501+[#502-#501]*0.63331]
#2=[#507+[#508-#507]*0.63331]
#3=[#1+[#2-#1]*0.90620]
X-10.60517 Y-2.73682 Z[#3+-0.04000]
#1=[#501+[#502-#501]*0.63331]
#2=[#507+[#508-#507]*0.63331]
#3=[#1+[#2-#1]*0.47188]
X-10.77184 Y-2.73682 Z[#3+-0.04000]
#1=[#501+[#502-#501]*0.63069]
#2=[#507+[#508-#507]*0.63069]
#3=[#1+[#2-#1]*0.44905]
X-10.78060 Y-2.73781 Z[#3+-0.04000]
#1=[#501+[#502-#501]*0.62300]
#2=[#507+[#508-#507]*0.62300]
#3=[#1+[#2-#1]*0.42736]
X-10.78892 Y-2.74072 Z[#3+-0.04000]
#1=[#501+[#502-#501]*0.61061]
#2=[#507+[#508-#507]*0.61061]
#3=[#1+[#2-#1]*0.40791]
X-10.79639 Y-2.74541 Z[#3+-0.04000]
#1=[#501+[#502-#501]*0.59413]
#2=[#507+[#508-#507]*0.59413]
#3=[#1+[#2-#1]*0.39167]
X-10.80262 Y-2.75164 Z[#3+-0.04000]
#1=[#501+[#502-#501]*0.57441]
#2=[#507+[#508-#507]*0.57441]
#3=[#1+[#2-#1]*0.37944]
X-10.80731 Y-2.75911 Z[#3+-0.04000]
#1=[#501+[#502-#501]*0.55242]
#2=[#507+[#508-#507]*0.55242]
#3=[#1+[#2-#1]*0.37186]
X-10.81022 Y-2.76743 Z[#3+-0.04000]
#1=[#501+[#502-#501]*0.52926]
#2=[#507+[#508-#507]*0.52926]
#3=[#1+[#2-#1]*0.36928]
X-10.81121 Y-2.77619 Z[#3+-0.04000]
#1=[#500+[#501-#500]*1.00000]
#2=[#506+[#507-#506]*1.00000]
#3=[#1+[#2-#1]*0.36928]
X-10.81121 Y-2.97647 Z[#3+-0.04000]
#1=[#500+[#501-#500]*0.20797]
#2=[#506+[#507-#506]*0.20797]
#3=[#1+[#2-#1]*0.36928]
X-10.81121 Y-3.27619 Z[#3+-0.04000]
#1=[#500+[#501-#500]*0.18482]
#2=[#506+[#507-#506]*0.18482]
#3=[#1+[#2-#1]*0.37186]
X-10.81022 Y-3.28495 Z[#3+-0.04000]
#1=[#500+[#501-#500]*0.16283]
#2=[#506+[#507-#506]*0.16283]
#3=[#1+[#2-#1]*0.37944]
X-10.80731 Y-3.29327 Z[#3+-0.04000]
#1=[#500+[#501-#500]*0.14311]
#2=[#506+[#507-#506]*0.14311]
#3=[#1+[#2-#1]*0.39167]
X-10.80262 Y-3.30074 Z[#3+-0.04000]
#1=[#500+[#501-#500]*0.12663]
#2=[#506+[#507-#506]*0.12663]
#3=[#1+[#2-#1]*0.40791]
X-10.79639 Y-3.30697 Z[#3+-0.04000]
#1=[#500+[#501-#500]*0.11424]
#2=[#506+[#507-#506]*0.11424]
#3=[#1+[#2-#1]*0.42736]
X-10.78892 Y-3.31166 Z[#3+-0.04000]
#1=[#500+[#501-#500]*0.10654]
#2=[#506+[#507-#506]*0.10654]
#3=[#1+[#2-#1]*0.44905]
X-10.78060 Y-3.31457 Z[#3+-0.04000]
#1=[#500+[#501-#500]*0.10393]
#2=[#506+[#507-#506]*0.10393]
#3=[#1+[#2-#1]*0.47188]
X-10.77184 Y-3.31556 Z[#3+-0.04000]
#1=[#500+[#501-#500]*0.10393]
#2=[#506+[#507-#506]*0.10393]
#3=[#1+[#2-#1]*0.96825]
X-10.58136 Y-3.31556 Z[#3+-0.04000]
#1=[#500+[#501-#500]*0.10672]
#2=[#506+[#507-#506]*0.10672]
#3=[#1+[#2-#1]*0.99182]
X-10.57232 Y-3.31451 Z[#3+-0.04000]
#1=[#500+[#501-#500]*0.10972]
#2=[#506+[#507-#506]*0.10972]
#3=[#1+[#2-#1]*1.00000]
X-10.56918 Y-3.31337 Z[#3+-0.04000]
#1=[#506+[#507-#506]*0.11492]
#2=[#512+[#513-#512]*0.11492]
#3=[#1+[#2-#1]*0.01413]
X-10.56375 Y-3.31140 Z[#3+-0.04000]
#1=[#506+[#507-#506]*0.17784]
#2=[#512+[#513-#512]*0.17784]
#3=[#1+[#2-#1]*0.13823]
X-10.51613 Y-3.28759 Z[#3+-0.04000]
#1=[#506+[#507-#506]*0.19733]
#2=[#512+[#513-#512]*0.19733]
#3=[#1+[#2-#1]*0.16489]
X-10.50590 Y-3.28022 Z[#3+-0.04000]
#1=[#506+[#507-#506]*0.26025]
#2=[#512+[#513-#512]*0.26025]
#3=[#1+[#2-#1]*0.22694]
X-10.48209 Y-3.25641 Z[#3+-0.04000]
#1=[#506+[#507-#506]*0.28729]
#2=[#512+[#513-#512]*0.28729]
#3=[#1+[#2-#1]*0.24616]
X-10.47472 Y-3.24618 Z[#3+-0.04000]
#1=[#506+[#507-#506]*0.41313]
#2=[#512+[#513-#512]*0.41313]
#3=[#1+[#2-#1]*0.30820]
X-10.45091 Y-3.19856 Z[#3+-0.04000]
#1=[#506+[#507-#506]*0.43575]
#2=[#512+[#513-#512]*0.43575]
#3=[#1+[#2-#1]*0.31629]
X-10.44780 Y-3.19000 Z[#3+-0.04000]
#1=[#506+[#507-#506]*0.45965]
#2=[#512+[#513-#512]*0.45965]
#3=[#1+[#2-#1]*0.31904]
X-10.44675 Y-3.18095 Z[#3+-0.04000]
G04 P0 ( dwell for no time -- G64 should not smooth over this point )
G00 Z0.08000 ( retract )

G00 X-10.52549 Y-3.17165 ( rapid move to begin. )
G01 F180.00000
( Mill infeed pass 1/1 )
#1=[#506+[#507-#506]*0.48421]
#2=[#512+[#513-#512]*0.48421]
#3=[#1+[#2-#1]*0.11384]
G01 Z[-0.04000+#100]
G04 P0 ( dwell for no time -- G64 should not smooth over this point )
G01 F360.00000
#1=[#506+[#507-#506]*0.62385]
#2=[#512+[#513-#512]*0.62385]
#3=[#1+[#2-#1]*0.11384]
X-10.52549 Y-3.11881 Z[#3+-0.04000]
#1=[#506+[#507-#506]*0.71261]
#2=[#512+[#513-#512]*0.71261]
#3=[#1+[#2-#1]*0.07008]
X-10.54229 Y-3.08522 Z[#3+-0.04000]
#1=[#506+[#507-#506]*0.74621]
#2=[#512+[#513-#512]*0.74621]
#3=[#1+[#2-#1]*0.03694]
X-10.55500 Y-3.07251 Z[#3+-0.04000]
#1=[#500+[#501-#500]*0.75869]
#2=[#506+[#507-#506]*0.75869]
#3=[#1+[#2-#1]*1.00000]
X-10.56918 Y-3.06779 Z[#3+-0.04000]
#1=[#500+[#501-#500]*0.79603]
#2=[#506+[#507-#506]*0.79603]
#3=[#1+[#2-#1]*0.88956]
X-10.61156 Y-3.05366 Z[#3+-0.04000]
#1=[#500+[#501-#500]*0.79603]
#2=[#506+[#507-#506]*0.79603]
#3=[#1+[#2-#1]*0.57448]
X-10.73247 Y-3.05366 Z[#3+-0.04000]
#1=[#500+[#501-#500]*0.31201]
#2=[#506+[#507-#506]*0.31201]
#3=[#1+[#2-#1]*0.57448]
X-10.73247 Y-3.23682 Z[#3+-0.04000]
#1=[#500+[#501-#500]*0.31201]
#2=[#506+[#507-#506]*0.31201]
#3=[#1+[#2-#1]*0.94403]
X-10.59066 Y-3.23682 Z[#3+-0.04000]
#1=[#500+[#501-#500]*0.34039]
#2=[#506+[#507-#506]*0.34039]
#3=[#1+[#2-#1]*1.00000]
X-10.56918 Y-3.22608 Z[#3+-0.04000]
#1=[#506+[#507-#506]*0.35640]
#2=[#512+[#513-#512]*0.35640]
#3=[#1+[#2-#1]*0.03157]
X-10.55706 Y-3.22002 Z[#3+-0.04000]
#1=[#506+[#507-#506]*0.39544]
#2=[#512+[#513-#512]*0.39544]
#3=[#1+[#2-#1]*0.07007]
X-10.54229 Y-3.20525 Z[#3+-0.04000]
#1=[#506+[#507-#506]*0.48421]
#2=[#512+[#513-#512]*0.48421]
#3=[#1+[#2-#1]*0.11384]
X-10.52549 Y-3.17165 Z[#3+-0.04000]
G04 P0 ( dwell for no time -- G64 should not smooth over this point )
G00 Z0.08000 ( retract )

G00 X-10.54930 Y-2.90976 ( rapid move to begin. )
G01 F180.00000
( Mill infeed pass 1/1 )
#1=[#507+[#508-#507]*0.17631]
#2=[#513+[#514-#513]*0.17631]
#3=[#1+[#2-#1]*0.05180]
G01 Z[-0.04000+#100]
G04 P0 ( dwell for no time -- G64 should not smooth over this point )
G01 F360.00000
#1=[#507+[#508-#507]*0.25302]
#2=[#513+[#514-#513]*0.25302]
#3=[#1+[#2-#1]*0.05180]
X-10.54930 Y-2.88072 Z[#3+-0.04000]
#1=[#507+[#508-#507]*0.34180]
#2=[#513+[#514-#513]*0.34180]
#3=[#1+[#2-#1]*0.00803]
X-10.56610 Y-2.84713 Z[#3+-0.04000]
#1=[#501+[#502-#501]*0.34994]
#2=[#507+[#508-#507]*0.34994]
#3=[#1+[#2-#1]*1.00000]
X-10.56918 Y-2.84405 Z[#3+-0.04000]
#1=[#501+[#502-#501]*0.38084]
#2=[#507+[#508-#507]*0.38084]
#3=[#1+[#2-#1]*0.96953]
X-10.58087 Y-2.83236 Z[#3+-0.04000]
#1=[#501+[#502-#501]*0.42523]
#2=[#507+[#508-#507]*0.42523]
#3=[#1+[#2-#1]*0.88199]
X-10.61447 Y-2.81556 Z[#3+-0.04000]
#1=[#501+[#502-#501]*0.42523]
#2=[#507+[#508-#507]*0.42523]
#3=[#1+[#2-#1]*0.57448]
X-10.73247 Y-2.81556 Z[#3+-0.04000]
#1=[#501+[#502-#501]*0.00411]
#2=[#507+[#508-#507]*0.00411]
#3=[#1+[#2-#1]*0.57448]
X-10.73247 Y-2.97492 Z[#3+-0.04000]
#1=[#501+[#502-#501]*0.00411]
#2=[#507+[#508-#507]*0.00411]
#3=[#1+[#2-#1]*0.88199]
X-10.61447 Y-2.97492 Z[#3+-0.04000]
#1=[#501+[#502-#501]*0.04849]
#2=[#507+[#508-#507]*0.04849]
#3=[#1+[#2-#1]*0.96953]
X-10.58087 Y-2.95812 Z[#3+-0.04000]
#1=[#501+[#502-#501]*0.07939]
#2=[#507+[#508-#507]*0.07939]
#3=[#1+[#2-#1]*1.00000]
X-10.56918 Y-2.94643 Z[#3+-0.04000]
#1=[#507+[#508-#507]*0.08753]
#2=[#513+[#514-#513]*0.08753]
#3=[#1+[#2-#1]*0.00803]
X-10.56610 Y-2.94335 Z[#3+-0.04000]
#1=[#507+[#508-#507]*0.17631]
#2=[#513+[#514-#513]*0.17631]
#3=[#1+[#2-#1]*0.05180]
X-10.54930 Y-2.90976 Z[#3+-0.04000]
G04 P0 ( dwell for no time -- G64 should not smooth over this point )
G00 Z0.08000 ( retract )

G00 X-10.84314 Y-3.35055 ( rapid move to begin. )
G01 F180.00000
( Mill infeed pass 1/1 )
#1=[#500+[#501-#500]*0.01147]
#2=[#506+[#507-#506]*0.01147]
#3=[#1+[#2-#1]*0.28608]
G01 Z[-0.04000+#100]
G04 P0 ( dwell for no time -- G64 should not smooth over this point )
G01 F360.00000
#1=[#500+[#501-#500]*0.01438]
#2=[#506+[#507-#506]*0.01438]
#3=[#1+[#2-#1]*0.28608]
X-10.84314 Y-3.34945 Z[#3+-0.04000]
#1=[#500+[#501-#500]*0.01722]
#2=[#506+[#507-#506]*0.01722]
#3=[#1+[#2-#1]*0.28544]
X-10.84339 Y-3.34837 Z[#3+-0.04000]
#1=[#500+[#501-#500]*0.01984]
#2=[#506+[#507-#506]*0.01984]
#3=[#1+[#2-#1]*0.28419]
X-10.84386 Y-3.34738 Z[#3+-0.04000]
#1=[#500+[#501-#500]*0.02212]
#2=[#506+[#507-#506]*0.02212]
#3=[#1+[#2-#1]*0.28240]
X-10.84455 Y-3.34652 Z[#3+-0.04000]
#1=[#500+[#501-#500]*0.14505]
#2=[#506+[#507-#506]*0.14505]
#3=[#1+[#2-#1]*0.16118]
X-10.89107 Y-3.30000 Z[#3+-0.04000]
#1=[#500+[#501-#500]*0.26799]
#2=[#506+[#507-#506]*0.26799]
#3=[#1+[#2-#1]*0.28240]
X-10.84455 Y-3.25348 Z[#3+-0.04000]
#1=[#500+[#501-#500]*0.27026]
#2=[#506+[#507-#506]*0.27026]
#3=[#1+[#2-#1]*0.28419]
X-10.84386 Y-3.25262 Z[#3+-0.04000]
#1=[#500+[#501-#500]*0.27289]
#2=[#506+[#507-#506]*0.27289]
#3=[#1+[#2-#1]*0.28544]
X-10.84339 Y-3.25163 Z[#3+-0.04000]
#1=[#500+[#501-#500]*0.27572]
#2=[#506+[#507-#506]*0.27572]
#3=[#1+[#2-#1]*0.28608]
X-10.84314 Y-3.25055 Z[#3+-0.04000]
#1=[#500+[#501-#500]*0.27864]
#2=[#506+[#507-#506]*0.27864]
#3=[#1+[#2-#1]*0.28608]
X-10.84314 Y-3.24945 Z[#3+-0.04000]
#1=[#500+[#501-#500]*0.28148]
#2=[#506+[#507-#506]*0.28148]
#3=[#1+[#2-#1]*0.28544]
X-10.84339 Y-3.24837 Z[#3+-0.04000]
#1=[#500+[#501-#500]*0.28410]
#2=[#506+[#507-#506]*0.28410]
#3=[#1+[#2-#1]*0.28419]
X-10.84386 Y-3.24738 Z[#3+-0.04000]
#1=[#500+[#501-#500]*0.28638]
#2=[#506+[#507-#506]*0.28638]
#3=[#1+[#2-#1]*0.28240]
X-10.84455 Y-3.24652 Z[#3+-0.04000]
#1=[#500+[#501-#500]*0.28819]
#2=[#506+[#507-#506]*0.28819]
#3=[#1+[#2-#1]*0.28016]
X-10.84541 Y-3.24583 Z[#3+-0.04000]
#1=[#500+[#501-#500]*0.28946]
#2=[#506+[#507-#506]*0.28946]
#3=[#1+[#2-#1]*0.27757]
X-10.84641 Y-3.24535 Z[#3+-0.04000]
#1=[#500+[#501-#500]*0.29011]
#2=[#506+[#507-#506]*0.29011]
#3=[#1+[#2-#1]*0.27477]
X-10.84748 Y-3.24511 Z[#3+-0.04000]
#1=[#500+[#501-#500]*0.29011]
#2=[#506+[#507-#506]*0.29011]
#3=[#1+[#2-#1]*0.27190]
X-10.84858 Y-3.24511 Z[#3+-0.04000]
#1=[#500+[#501-#500]*0.28946]
#2=[#506+[#507-#506]*0.28946]
#3=[#1+[#2-#1]*0.26910]
X-10.84966 Y-3.24535 Z[#3+-0.04000]
#1=[#500+[#501-#500]*0.28819]
#2=[#506+[#507-#506]*0.28819]
#3=[#1+[#2-#1]*0.26651]
X-10.85065 Y-3.24583 Z[#3+-0.04000]
#1=[#500+[#501-#500]*0.28638]
#2=[#506+[#507-#506]*0.28638]
#3=[#1+[#2-#1]*0.26427]
X-10.85151 Y-3.24652 Z[#3+-0.04000]
#1=[#500+[#501-#500]*0.16344]
#2=[#506+[#507-#506]*0.16344]
#3=[#1+[#2-#1]*0.14304]
X-10.89803 Y-3.29304 Z[#3+-0.04000]
#1=[#500+[#501-#500]*0.28638]
#2=[#506+[#507-#506]*0.28638]
#3=[#1+[#2-#1]*0.02181]
X-10.94455 Y-3.24652 Z[#3+-0.04000]
#1=[#500+[#501-#500]*0.28819]
#2=[#506+[#507-#506]*0.28819]
#3=[#1+[#2-#1]*0.01957]
X-10.94541 Y-3.24583 Z[#3+-0.04000]
#1=[#500+[#501-#500]*0.28946]
#2=[#506+[#507-#506]*0.28946]
#3=[#1+[#2-#1]*0.01698]
X-10.94641 Y-3.24535 Z[#3+-0.04000]
#1=[#500+[#501-#500]*0.29011]
#2=[#506+[#507-#506]*0.29011]
#3=[#1+[#2-#1]*0.01418]
X-10.94748 Y-3.24511 Z[#3+-0.04000]
#1=[#500+[#501-#500]*0.29011]
#2=[#506+[#507-#506]*0.29011]
#3=[#1+[#2-#1]*0.01131]
X-10.94858 Y-3.24511 Z[#3+-0.04000]
#1=[#500+[#501-#500]*0.28946]
#2=[#506+[#507-#506]*0.28946]
#3=[#1+[#2-#1]*0.00851]
X-10.94966 Y-3.24535 Z[#3+-0.04000]
#1=[#500+[#501-#500]*0.28819]
#2=[#506+[#507-#506]*0.28819]
#3=[#1+[#2-#1]*0.00592]
X-10.95065 Y-3.24583 Z[#3+-0.04000]
#1=[#500+[#501-#500]*0.28638]
#2=[#506+[#507-#506]*0.28638]
#3=[#1+[#2-#1]*0.00368]
X-10.95151 Y-3.24652 Z[#3+-0.04000]
#1=[#500+[#501-#500]*0.28410]
#2=[#506+[#507-#506]*0.28410]
#3=[#1+[#2-#1]*0.00189]
X-10.95220 Y-3.24738 Z[#3+-0.04000]
#1=[#500+[#501-#500]*0.28148]
#2=[#506+[#507-#506]*0.28148]
#3=[#1+[#2-#1]*0.00064]
X-10.95268 Y-3.24837 Z[#3+-0.04000]
#1=[#500+[#501-#500]*0.27864]
#2=[#506+[#507-#506]*0.27864]
#3=[#1+[#2-#1]*0.00000]
X-10.95292 Y-3.24945 Z[#3+-0.04000]
#1=[#500+[#501-#500]*0.27572]
#2=[#506+[#507-#506]*0.27572]
#3=[#1+[#2-#1]*0.00000]
X-10.95292 Y-3.25055 Z[#3+-0.04000]
#1=[#500+[#501-#500]*0.27289]
#2=[#506+[#507-#506]*0.27289]
#3=[#1+[#2-#1]*0.00064]
X-10.95268 Y-3.25163 Z[#3+-0.04000]
#1=[#500+[#501-#500]*0.27026]
#2=[#506+[#507-#506]*0.27026]
#3=[#1+[#2-#1]*0.00189]
X-10.95220 Y-3.25262 Z[#3+-0.04000]
#1=[#500+[#501-#500]*0.26799]
#2=[#506+[#507-#506]*0.26799]
#3=[#1+[#2-#1]*0.00368]
X-10.95151 Y-3.25348 Z[#3+-0.04000]
#1=[#500+[#501-#500]*0.14505]
#2=[#506+[#507-#506]*0.14505]
#3=[#1+[#2-#1]*0.12490]
X-10.90499 Y-3.30000 Z[#3+-0.04000]
#1=[#500+[#501-#500]*0.02212]
#2=[#506+[#507-#506]*0.02212]
#3=[#1+[#2-#1]*0.00368]
X-10.95151 Y-3.34652 Z[#3+-0.04000]
#1=[#500+[#501-#500]*0.01984]
#2=[#506+[#507-#506]*0.01984]
#3=[#1+[#2-#1]*0.00189]
X-10.95220 Y-3.34738 Z[#3+-0.04000]
#1=[#500+[#501-#500]*0.01722]
#2=[#506+[#507-#506]*0.01722]
#3=[#1+[#2-#1]*0.00064]
X-10.95268 Y-3.34837 Z[#3+-0.04000]
#1=[#500+[#501-#500]*0.01438]
#2=[#506+[#507-#506]*0.01438]
#3=[#1+[#2-#1]*0.00000]
X-10.95292 Y-3.34945 Z[#3+-0.04000]
#1=[#500+[#501-#500]*0.01147]
#2=[#506+[#507-#506]*0.01147]
#3=[#1+[#2-#1]*0.00000]
X-10.95292 Y-3.35055 Z[#3+-0.04000]
#1=[#500+[#501-#500]*0.00863]
#2=[#506+[#507-#506]*0.00863]
#3=[#1+[#2-#1]*0.00064]
X-10.95268 Y-3.35162 Z[#3+-0.04000]
#1=[#500+[#501-#500]*0.00600]
#2=[#506+[#507-#506]*0.00600]
#3=[#1+[#2-#1]*0.00189]
X-10.95220 Y-3.35262 Z[#3+-0.04000]
#1=[#500+[#501-#500]*0.00373]
#2=[#506+[#507-#506]*0.00373]
#3=[#1+[#2-#1]*0.00368]
X-10.95151 Y-3.35348 Z[#3+-0.04000]
#1=[#500+[#501-#500]*0.00191]
#2=[#506+[#507-#506]*0.00191]
#3=[#1+[#2-#1]*0.00592]
X-10.95065 Y-3.35417 Z[#3+-0.04000]
#1=[#500+[#501-#500]*0.00065]
#2=[#506+[#507-#506]*0.00065]
#3=[#1+[#2-#1]*0.00851]
X-10.94966 Y-3.35465 Z[#3+-0.04000]
#1=[#500+[#501-#500]*0.00000]
#2=[#506+[#507-#506]*0.00000]
#3=[#1+[#2-#1]*0.01131]
X-10.94858 Y-3.35489 Z[#3+-0.04000]
#1=[#500+[#501-#500]*0.00000]
#2=[#506+[#507-#506]*0.00000]
#3=[#1+[#2-#1]*0.01418]
X-10.94748 Y-3.35489 Z[#3+-0.04000]
#1=[#500+[#501-#500]*0.00065]
#2=[#506+[#507-#506]*0.00065]
#3=[#1+[#2-#1]*0.01698]
X-10.94641 Y-3.35465 Z[#3+-0.04000]
#1=[#500+[#501-#500]*0.00191]
#2=[#506+[#507-#506]*0.00191]
#3=[#1+[#2-#1]*0.01957]
X-10.94541 Y-3.35417 Z[#3+-0.04000]
#1=[#500+[#501-#500]*0.00373]
#2=[#506+[#507-#506]*0.00373]
#3=[#1+[#2-#1]*0.02181]
X-10.94455 Y-3.35348 Z[#3+-0.04000]
#1=[#500+[#501-#500]*0.12666]
#2=[#506+[#507-#506]*0.12666]
#3=[#1+[#2-#1]*0.14304]
X-10.89803 Y-3.30696 Z[#3+-0.04000]
#1=[#500+[#501-#500]*0.00373]
#2=[#506+[#507-#506]*0.00373]
#3=[#1+[#2-#1]*0.26427]
X-10.85151 Y-3.35348 Z[#3+-0.04000]
#1=[#500+[#501-#500]*0.00191]
#2=[#506+[#507-#506]*0.00191]
#3=[#1+[#2-#1]*0.26651]
X-10.85065 Y-3.35417 Z[#3+-0.04000]
#1=[#500+[#501-#500]*0.00065]
#2=[#506+[#507-#506]*0.00065]
#3=[#1+[#2-#1]*0.26910]
X-10.84966 Y-3.35465 Z[#3+-0.04000]
#1=[#500+[#501-#500]*0.00000]
#2=[#506+[#507-#506]*0.00000]
#3=[#1+[#2-#1]*0.27190]
X-10.84858 Y-3.35489 Z[#3+-0.04000]
#1=[#500+[#501-#500]*0.00000]
#2=[#506+[#507-#506]*0.00000]
#3=[#1+[#2-#1]*0.27477]
X-10.84748 Y-3.35489 Z[#3+-0.04000]
#1=[#500+[#501-#500]*0.00065]
#2=[#506+[#507-#506]*0.00065]
#3=[#1+[#2-#1]*0.27757]
X-10.84641 Y-3.35465 Z[#3+-0.04000]
#1=[#500+[#501-#500]*0.00191]
#2=[#506+[#507-#506]*0.00191]
#3=[#1+[#2-#1]*0.28016]
X-10.84541 Y-3.35417 Z[#3+-0.04000]
#1=[#500+[#501-#500]*0.00373]
#2=[#506+[#507-#506]*0.00373]
#3=[#1+[#2-#1]*0.28240]
X-10.84455 Y-3.35348 Z[#3+-0.04000]
#1=[#500+[#501-#500]*0.00600]
#2=[#506+[#507-#506]*0.00600]
#3=[#1+[#2-#1]*0.28419]
X-10.84386 Y-3.35262 Z[#3+-0.04000]
#1=[#500+[#501-#500]*0.00863]
#2=[#506+[#507-#506]*0.00863]
#3=[#1+[#2-#1]*0.28544]
X-10.84339 Y-3.35162 Z[#3+-0.04000]
#1=[#500+[#501-#500]*0.01147]
#2=[#506+[#507-#506]*0.01147]
#3=[#1+[#2-#1]*0.28608]
X-10.84314 Y-3.35055 Z[#3+-0.04000]
( Piece #2, position [1;0] )

G04 P0 ( dwell for no time -- G64 should not smooth over this point )
G00 Z0.08000 ( retract )

G00 X-6.98704 Y-3.27736 ( rapid move to begin. )
G01 F180.00000
( Mill infeed pass 1/1 )
#1=[#560+[#561-#560]*0.20488]
#2=[#566+[#567-#566]*0.20488]
#3=[#1+[#2-#1]*0.33472]
G01 Z[-0.04000+#100]
G04 P0 ( dwell for no time -- G64 should not smooth over this point )
G01 F360.00000
#1=[#560+[#561-#560]*0.22810]
#2=[#566+[#567-#566]*0.22810]
#3=[#1+[#2-#1]*0.33282]
X-6.98777 Y-3.26857 Z[#3+-0.04000]
#1=[#560+[#561-#560]*0.25031]
#2=[#566+[#567-#566]*0.25031]
#3=[#1+[#2-#1]*0.32588]
X-6.99043 Y-3.26017 Z[#3+-0.04000]
#1=[#560+[#561-#560]*0.27040]
#2=[#566+[#567-#566]*0.27040]
#3=[#1+[#2-#1]*0.31424]
X-6.99490 Y-3.25257 Z[#3+-0.04000]
#1=[#560+[#561-#560]*0.69528]
#2=[#566+[#567-#566]*0.69528]
#3=[#1+[#2-#1]*0.00000]
X-7.11549 Y-3.09178 Z[#3+-0.04000]
#1=[#554+[#555-#554]*0.70157]
#2=[#560+[#561-#560]*0.70157]
#3=[#1+[#2-#1]*0.99535]
X-7.11727 Y-3.08941 Z[#3+-0.04000]
#1=[#560+[#561-#560]*0.70628]
#2=[#566+[#567-#566]*0.70628]
#3=[#1+[#2-#1]*0.00000]
X-7.11549 Y-3.08762 Z[#3+-0.04000]
#1=[#560+[#561-#560]*1.00000]
#2=[#566+[#567-#566]*1.00000]
#3=[#1+[#2-#1]*0.28966]
X-7.00433 Y-2.97647 Z[#3+-0.04000]
#1=[#561+[#562-#561]*0.01526]
#2=[#567+[#568-#567]*0.01526]
#3=[#1+[#2-#1]*0.30471]
X-6.99856 Y-2.97070 Z[#3+-0.04000]
#1=[#561+[#562-#561]*0.03347]
#2=[#567+[#568-#567]*0.03347]
#3=[#1+[#2-#1]*0.31903]
X-6.99306 Y-2.96381 Z[#3+-0.04000]
#1=[#561+[#562-#561]*0.05446]
#2=[#567+[#568-#567]*0.05446]
#3=[#1+[#2-#1]*0.32900]
X-6.98923 Y-2.95586 Z[#3+-0.04000]
#1=[#561+[#562-#561]*0.07717]
#2=[#567+[#568-#567]*0.07717]
#3=[#1+[#2-#1]*0.33412]
X-6.98727 Y-2.94727 Z[#3+-0.04000]
#1=[#561+[#562-#561]*0.10047]
#2=[#567+[#568-#567]*0.10047]
#3=[#1+[#2-#1]*0.33412]
X-6.98727 Y-2.93845 Z[#3+-0.04000]
#1=[#561+[#562-#561]*0.12318]
#2=[#567+[#568-#567]*0.12318]
#3=[#1+[#2-#1]*0.32901]
X-6.98923 Y-2.92986 Z[#3+-0.04000]
#1=[#561+[#562-#561]*0.14417]
#2=[#567+[#568-#567]*0.14417]
#3=[#1+[#2-#1]*0.31904]
X-6.99306 Y-2.92191 Z[#3+-0.04000]
#1=[#561+[#562-#561]*0.16239]
#2=[#567+[#568-#567]*0.16239]
#3=[#1+[#2-#1]*0.30471]
X-6.99856 Y-2.91502 Z[#3+-0.04000]
#1=[#561+[#562-#561]*0.17691]
#2=[#567+[#568-#567]*0.17691]
#3=[#1+[#2-#1]*0.28675]
X-7.00545 Y-2.90952 Z[#3+-0.04000]
#1=[#561+[#562-#561]*0.18703]
#2=[#567+[#568-#567]*0.18703]
#3=[#1+[#2-#1]*0.26605]
X-7.01339 Y-2.90570 Z[#3+-0.04000]
#1=[#561+[#562-#561]*0.19221]
#2=[#567+[#568-#567]*0.19221]
#3=[#1+[#2-#1]*0.24366]
X-7.02199 Y-2.90374 Z[#3+-0.04000]
#1=[#561+[#562-#561]*0.19221]
#2=[#567+[#568-#567]*0.19221]
#3=[#1+[#2-#1]*0.22068]
X-7.03080 Y-2.90374 Z[#3+-0.04000]
#1=[#561+[#562-#561]*0.18703]
#2=[#567+[#568-#567]*0.18703]
#3=[#1+[#2-#1]*0.19829]
X-7.03940 Y-2.90570 Z[#3+-0.04000]
#1=[#561+[#562-#561]*0.17692]
#2=[#567+[#568-#567]*0.17692]
#3=[#1+[#2-#1]*0.17759]
X-7.04734 Y-2.90952 Z[#3+-0.04000]
#1=[#561+[#562-#561]*0.16239]
#2=[#567+[#568-#567]*0.16239]
#3=[#1+[#2-#1]*0.15962]
X-7.05423 Y-2.91502 Z[#3+-0.04000]
#1=[#561+[#562-#561]*0.00053]
#2=[#567+[#568-#567]*0.00053]
#3=[#1+[#2-#1]*0.00000]
X-7.11549 Y-2.97627 Z[#3+-0.04000]
#1=[#554+[#555-#554]*1.00000]
#2=[#560+[#561-#560]*1.00000]
#3=[#1+[#2-#1]*0.99947]
X-7.11569 Y-2.97647 Z[#3+-0.04000]
#1=[#554+[#555-#554]*0.83666]
#2=[#560+[#561-#560]*0.83666]
#3=[#1+[#2-#1]*0.83839]
X-7.17750 Y-3.03828 Z[#3+-0.04000]
#1=[#554+[#555-#554]*1.00000]
#2=[#560+[#561-#560]*1.00000]
#3=[#1+[#2-#1]*0.83839]
X-7.17750 Y-2.97647 Z[#3+-0.04000]
#1=[#555+[#556-#555]*0.52926]
#2=[#561+[#562-#561]*0.52926]
#3=[#1+[#2-#1]*0.83839]
X-7.17750 Y-2.77619 Z[#3+-0.04000]
#1=[#555+[#556-#555]*0.55242]
#2=[#561+[#562-#561]*0.55242]
#3=[#1+[#2-#1]*0.83581]
X-7.17849 Y-2.76743 Z[#3+-0.04000]
#1=[#555+[#556-#555]*0.57441]
#2=[#561+[#562-#561]*0.57441]
#3=[#1+[#2-#1]*0.82823]
X-7.18140 Y-2.75911 Z[#3+-0.04000]
#1=[#555+[#556-#555]*0.59413]
#2=[#561+[#562-#561]*0.59413]
#3=[#1+[#2-#1]*0.81600]
X-7.18609 Y-2.75164 Z[#3+-0.04000]
#1=[#555+[#556-#555]*0.61061]
#2=[#561+[#562-#561]*0.61061]
#3=[#1+[#2-#1]*0.79976]
X-7.19233 Y-2.74541 Z[#3+-0.04000]
#1=[#555+[#556-#555]*0.62300]
#2=[#561+[#562-#561]*0.62300]
#3=[#1+[#2-#1]*0.78031]
X-7.19979 Y-2.74072 Z[#3+-0.04000]
#1=[#555+[#556-#555]*0.63069]
#2=[#561+[#562-#561]*0.63069]
#3=[#1+[#2-#1]*0.75862]
X-7.20811 Y-2.73781 Z[#3+-0.04000]
#1=[#555+[#556-#555]*0.63331]
#2=[#561+[#562-#561]*0.63331]
#3=[#1+[#2-#1]*0.73579]
X-7.21688 Y-2.73682 Z[#3+-0.04000]
#1=[#555+[#556-#555]*0.63069]
#2=[#561+[#562-#561]*0.63069]
#3=[#1+[#2-#1]*0.71296]
X-7.22564 Y-2.73781 Z[#3+-0.04000]
#1=[#555+[#556-#555]*0.62300]
#2=[#561+[#562-#561]*0.62300]
#3=[#1+[#2-#1]*0.69128]
X-7.23396 Y-2.74072 Z[#3+-0.04000]
#1=[#555+[#556-#555]*0.61061]
#2=[#561+[#562-#561]*0.61061]
#3=[#1+[#2-#1]*0.67183]
X-7.24142 Y-2.74541 Z[#3+-0.04000]
#1=[#555+[#556-#555]*0.59413]
#2=[#561+[#562-#561]*0.59413]
#3=[#1+[#2-#1]*0.65558]
X-7.24766 Y-2.75164 Z[#3+-0.04000]
#1=[#555+[#556-#555]*0.57441]
#2=[#561+[#562-#561]*0.57441]
#3=[#1+[#2-#1]*0.64336]
X-7.25235 Y-2.75911 Z[#3+-0.04000]
#1=[#555+[#556-#555]*0.55242]
#2=[#561+[#562-#561]*0.55242]
#3=[#1+[#2-#1]*0.63577]
X-7.25526 Y-2.76743 Z[#3+-0.04000]
#1=[#555+[#556-#555]*0.52926]
#2=[#561+[#562-#561]*0.52926]
#3=[#1+[#2-#1]*0.63320]
X-7.25625 Y-2.77619 Z[#3+-0.04000]
#1=[#554+[#555-#554]*1.00000]
#2=[#560+[#561-#560]*1.00000]
#3=[#1+[#2-#1]*0.63320]
X-7.25625 Y-2.97647 Z[#3+-0.04000]
#1=[#554+[#555-#554]*0.20797]
#2=[#560+[#561-#560]*0.20797]
#3=[#1+[#2-#1]*0.63320]
X-7.25625 Y-3.27619 Z[#3+-0.04000]
#1=[#554+[#555-#554]*0.18482]
#2=[#560+[#561-#560]*0.18482]
#3=[#1+[#2-#1]*0.63577]
X-7.25526 Y-3.28495 Z[#3+-0.04000]
#1=[#554+[#555-#554]*0.16283]
#2=[#560+[#561-#560]*0.16283]
#3=[#1+[#2-#1]*0.64336]
X-7.25235 Y-3.29327 Z[#3+-0.04000]
#1=[#554+[#555-#554]*0.14311]
#2=[#560+[#561-#560]*0.14311]
#3=[#1+[#2-#1]*0.65558]
X-7.24766 Y-3.30074 Z[#3+-0.04000]
#1=[#554+[#555-#554]*0.12663]
#2=[#560+[#561-#560]*0.12663]
#3=[#1+[#2-#1]*0.67183]
X-7.24142 Y-3.30697 Z[#3+-0.04000]
#1=[#554+[#555-#554]*0.11424]
#2=[#560+[#561-#560]*0.11424]
#3=[#1+[#2-#1]*0.69128]
X-7.23396 Y-3.31166 Z[#3+-0.04000]
#1=[#554+[#555-#554]*0.10654]
#2=[#560+[#561-#560]*0.10654]
#3=[#1+[#2-#1]*0.71296]
X-7.22564 Y-3.31457 Z[#3+-0.04000]
#1=[#554+[#555-#554]*0.10393]
#2=[#560+[#561-#560]*0.10393]
#3=[#1+[#2-#1]*0.73579]
X-7.21688 Y-3.31556 Z[#3+-0.04000]
#1=[#554+[#555-#554]*0.10654]
#2=[#560+[#561-#560]*0.10654]
#3=[#1+[#2-#1]*0.75862]
X-7.20811 Y-3.31457 Z[#3+-0.04000]
#1=[#554+[#555-#554]*0.11424]
#2=[#560+[#561-#560]*0.11424]
#3=[#1+[#2-#1]*0.78031]
X-7.19979 Y-3.31166 Z[#3+-0.04000]
#1=[#554+[#555-#554]*0.12663]
#2=[#560+[#561-#560]*0.12663]
#3=[#1+[#2-#1]*0.79976]
X-7.19233 Y-3.30697 Z[#3+-0.04000]
#1=[#554+[#555-#554]*0.14311]
#2=[#560+[#561-#560]*0.14311]
#3=[#1+[#2-#1]*0.81600]
X-7.18609 Y-3.30074 Z[#3+-0.04000]
#1=[#554+[#555-#554]*0.16283]
#2=[#560+[#561-#560]*0.16283]
#3=[#1+[#2-#1]*0.82823]
X-7.18140 Y-3.29327 Z[#3+-0.04000]
#1=[#554+[#555-#554]*0.18482]
#2=[#560+[#561-#560]*0.18482]
#3=[#1+[#2-#1]*0.83581]
X-7.17849 Y-3.28495 Z[#3+-0.04000]
#1=[#554+[#555-#554]*0.20797]
#2=[#560+[#561-#560]*0.20797]
#3=[#1+[#2-#1]*0.83839]
X-7.17750 Y-3.27619 Z[#3+-0.04000]
#1=[#554+[#555-#554]*0.54240]
#2=[#560+[#561-#560]*0.54240]
#3=[#1+[#2-#1]*0.83839]
X-7.17750 Y-3.14964 Z[#3+-0.04000]
#1=[#554+[#555-#554]*0.55294]
#2=[#560+[#561-#560]*0.55294]
#3=[#1+[#2-#1]*0.84879]
X-7.17351 Y-3.14565 Z[#3+-0.04000]
#1=[#560+[#561-#560]*0.34848]
#2=[#566+[#567-#566]*0.34848]
#3=[#1+[#2-#1]*0.00000]
X-7.11549 Y-3.22302 Z[#3+-0.04000]
#1=[#560+[#561-#560]*0.14555]
#2=[#566+[#567-#566]*0.14555]
#3=[#1+[#2-#1]*0.15009]
X-7.05789 Y-3.29981 Z[#3+-0.04000]
#1=[#560+[#561-#560]*0.12859]
#2=[#566+[#567-#566]*0.12859]
#3=[#1+[#2-#1]*0.16585]
X-7.05184 Y-3.30623 Z[#3+-0.04000]
#1=[#560+[#561-#560]*0.11562]
#2=[#566+[#567-#566]*0.11562]
#3=[#1+[#2-#1]*0.18493]
X-7.04452 Y-3.31114 Z[#3+-0.04000]
#1=[#560+[#561-#560]*0.10728]
#2=[#566+[#567-#566]*0.10728]
#3=[#1+[#2-#1]*0.20638]
X-7.03629 Y-3.31429 Z[#3+-0.04000]
#1=[#560+[#561-#560]*0.10398]
#2=[#566+[#567-#566]*0.10398]
#3=[#1+[#2-#1]*0.22912]
X-7.02756 Y-3.31554 Z[#3+-0.04000]
#1=[#560+[#561-#560]*0.10590]
#2=[#566+[#567-#566]*0.10590]
#3=[#1+[#2-#1]*0.25202]
X-7.01878 Y-3.31482 Z[#3+-0.04000]
#1=[#560+[#561-#560]*0.11294]
#2=[#566+[#567-#566]*0.11294]
#3=[#1+[#2-#1]*0.27392]
X-7.01037 Y-3.31215 Z[#3+-0.04000]
#1=[#560+[#561-#560]*0.12474]
#2=[#566+[#567-#566]*0.12474]
#3=[#1+[#2-#1]*0.29372]
X-7.00277 Y-3.30769 Z[#3+-0.04000]
#1=[#560+[#561-#560]*0.14072]
#2=[#566+[#567-#566]*0.14072]
#3=[#1+[#2-#1]*0.31044]
X-6.99636 Y-3.30164 Z[#3+-0.04000]
#1=[#560+[#561-#560]*0.16007]
#2=[#566+[#567-#566]*0.16007]
#3=[#1+[#2-#1]*0.32324]
X-6.99145 Y-3.29432 Z[#3+-0.04000]
#1=[#560+[#561-#560]*0.18182]
#2=[#566+[#567-#566]*0.18182]
#3=[#1+[#2-#1]*0.33147]
X-6.98829 Y-3.28609 Z[#3+-0.04000]
#1=[#560+[#561-#560]*0.20488]
#2=[#566+[#567-#566]*0.20488]
#3=[#1+[#2-#1]*0.33472]
X-6.98704 Y-3.27736 Z[#3+-0.04000]
G04 P0 ( dwell for no time -- G64 should not smooth over this point )
G00 Z0.08000 ( retract )

G00 X-7.39179 Y-3.25179 ( rapid move to begin. )
G01 F180.00000
( Mill infeed pass 1/1 )
#1=[#554+[#555-#554]*0.27244]
#2=[#560+[#561-#560]*0.27244]
#3=[#1+[#2-#1]*0.27998]
G01 Z[-0.04000+#100]
G04 P0 ( dwell for no time -- G64 should not smooth over this point )
G01 F360.00000
#1=[#554+[#555-#554]*0.24925]
#2=[#560+[#561-#560]*0.24925]
#3=[#1+[#2-#1]*0.27775]
X-7.39265 Y-3.26057 Z[#3+-0.04000]
#1=[#554+[#555-#554]*0.22715]
#2=[#560+[#561-#560]*0.22715]
#3=[#1+[#2-#1]*0.27048]
X-7.39543 Y-3.26893 Z[#3+-0.04000]
#1=[#554+[#555-#554]*0.20724]
#2=[#560+[#561-#560]*0.20724]
#3=[#1+[#2-#1]*0.25855]
X-7.40001 Y-3.27647 Z[#3+-0.04000]
#1=[#554+[#555-#554]*0.19053]
#2=[#560+[#561-#560]*0.19053]
#3=[#1+[#2-#1]*0.24255]
X-7.40615 Y-3.28279 Z[#3+-0.04000]
#1=[#554+[#555-#554]*0.17784]
#2=[#560+[#561-#560]*0.17784]
#3=[#1+[#2-#1]*0.22328]
X-7.41355 Y-3.28759 Z[#3+-0.04000]
#1=[#554+[#555-#554]*0.11492]
#2=[#560+[#561-#560]*0.11492]
#3=[#1+[#2-#1]*0.09919]
X-7.46117 Y-3.31140 Z[#3+-0.04000]
#1=[#554+[#555-#554]*0.10672]
#2=[#560+[#561-#560]*0.10672]
#3=[#1+[#2-#1]*0.07688]
X-7.46973 Y-3.31451 Z[#3+-0.04000]
#1=[#554+[#555-#554]*0.10393]
#2=[#560+[#561-#560]*0.10393]
#3=[#1+[#2-#1]*0.05330]
X-7.47878 Y-3.31556 Z[#3+-0.04000]
#1=[#554+[#555-#554]*0.10393]
#2=[#560+[#561-#560]*0.10393]
#3=[#1+[#2-#1]*0.00000]
X-7.49923 Y-3.31556 Z[#3+-0.04000]
#1=[#548+[#549-#548]*0.10393]
#2=[#554+[#555-#554]*0.10393]
#3=[#1+[#2-#1]*0.80512]
X-7.57402 Y-3.31556 Z[#3+-0.04000]
#1=[#548+[#549-#548]*0.10672]
#2=[#554+[#555-#554]*0.10672]
#3=[#1+[#2-#1]*0.78155]
X-7.58306 Y-3.31451 Z[#3+-0.04000]
#1=[#548+[#549-#548]*0.11492]
#2=[#554+[#555-#554]*0.11492]
#3=[#1+[#2-#1]*0.75924]
X-7.59162 Y-3.31140 Z[#3+-0.04000]
#1=[#548+[#549-#548]*0.17784]
#2=[#554+[#555-#554]*0.17784]
#3=[#1+[#2-#1]*0.63514]
X-7.63924 Y-3.28759 Z[#3+-0.04000]
#1=[#548+[#549-#548]*0.19733]
#2=[#554+[#555-#554]*0.19733]
#3=[#1+[#2-#1]*0.60848]
X-7.64947 Y-3.28022 Z[#3+-0.04000]
#1=[#548+[#549-#548]*0.26025]
#2=[#554+[#555-#554]*0.26025]
#3=[#1+[#2-#1]*0.54643]
X-7.67328 Y-3.25641 Z[#3+-0.04000]
#1=[#548+[#549-#548]*0.28729]
#2=[#554+[#555-#554]*0.28729]
#3=[#1+[#2-#1]*0.52722]
X-7.68066 Y-3.24618 Z[#3+-0.04000]
#1=[#548+[#549-#548]*0.41313]
#2=[#554+[#555-#554]*0.41313]
#3=[#1+[#2-#1]*0.46517]
X-7.70447 Y-3.19856 Z[#3+-0.04000]
#1=[#548+[#549-#548]*0.43575]
#2=[#554+[#555-#554]*0.43575]
#3=[#1+[#2-#1]*0.45708]
X-7.70757 Y-3.19000 Z[#3+-0.04000]
#1=[#548+[#549-#548]*0.45965]
#2=[#554+[#555-#554]*0.45965]
#3=[#1+[#2-#1]*0.45434]
X-7.70863 Y-3.18095 Z[#3+-0.04000]
#1=[#548+[#549-#548]*0.83714]
#2=[#554+[#555-#554]*0.83714]
#3=[#1+[#2-#1]*0.45434]
X-7.70863 Y-3.03810 Z[#3+-0.04000]
#1=[#548+[#549-#548]*0.86105]
#2=[#554+[#555-#554]*0.86105]
#3=[#1+[#2-#1]*0.45708]
X-7.70757 Y-3.02905 Z[#3+-0.04000]
#1=[#548+[#549-#548]*0.88367]
#2=[#554+[#555-#554]*0.88367]
#3=[#1+[#2-#1]*0.46517]
X-7.70447 Y-3.02049 Z[#3+-0.04000]
#1=[#548+[#549-#548]*1.00000]
#2=[#554+[#555-#554]*1.00000]
#3=[#1+[#2-#1]*0.52253]
X-7.68246 Y-2.97647 Z[#3+-0.04000]
#1=[#549+[#550-#549]*0.00951]
#2=[#555+[#556-#555]*0.00951]
#3=[#1+[#2-#1]*0.52722]
X-7.68066 Y-2.97287 Z[#3+-0.04000]
#1=[#549+[#550-#549]*0.03655]
#2=[#555+[#556-#555]*0.03655]
#3=[#1+[#2-#1]*0.54643]
X-7.67328 Y-2.96264 Z[#3+-0.04000]
#1=[#549+[#550-#549]*0.09947]
#2=[#555+[#556-#555]*0.09947]
#3=[#1+[#2-#1]*0.60848]
X-7.64947 Y-2.93883 Z[#3+-0.04000]
#1=[#549+[#550-#549]*0.11896]
#2=[#555+[#556-#555]*0.11896]
#3=[#1+[#2-#1]*0.63514]
X-7.63924 Y-2.93146 Z[#3+-0.04000]
#1=[#549+[#550-#549]*0.18188]
#2=[#555+[#556-#555]*0.18188]
#3=[#1+[#2-#1]*0.75924]
X-7.59162 Y-2.90765 Z[#3+-0.04000]
#1=[#549+[#550-#549]*0.19008]
#2=[#555+[#556-#555]*0.19008]
#3=[#1+[#2-#1]*0.78155]
X-7.58306 Y-2.90454 Z[#3+-0.04000]
#1=[#549+[#550-#549]*0.19287]
#2=[#555+[#556-#555]*0.19287]
#3=[#1+[#2-#1]*0.80512]
X-7.57402 Y-2.90349 Z[#3+-0.04000]
#1=[#555+[#556-#555]*0.19287]
#2=[#561+[#562-#561]*0.19287]
#3=[#1+[#2-#1]*0.00000]
X-7.49923 Y-2.90349 Z[#3+-0.04000]
#1=[#555+[#556-#555]*0.19287]
#2=[#561+[#562-#561]*0.19287]
#3=[#1+[#2-#1]*0.05330]
X-7.47878 Y-2.90349 Z[#3+-0.04000]
#1=[#555+[#556-#555]*0.19008]
#2=[#561+[#562-#561]*0.19008]
#3=[#1+[#2-#1]*0.07688]
X-7.46973 Y-2.90454 Z[#3+-0.04000]
#1=[#555+[#556-#555]*0.18188]
#2=[#561+[#562-#561]*0.18188]
#3=[#1+[#2-#1]*0.09919]
X-7.46117 Y-2.90765 Z[#3+-0.04000]
#1=[#555+[#556-#555]*0.11896]
#2=[#561+[#562-#561]*0.11896]
#3=[#1+[#2-#1]*0.22328]
X-7.41355 Y-2.93146 Z[#3+-0.04000]
#1=[#555+[#556-#555]*0.10627]
#2=[#561+[#562-#561]*0.10627]
#3=[#1+[#2-#1]*0.24255]
X-7.40615 Y-2.93626 Z[#3+-0.04000]
#1=[#555+[#556-#555]*0.08956]
#2=[#561+[#562-#561]*0.08956]
#3=[#1+[#2-#1]*0.25855]
X-7.40001 Y-2.94258 Z[#3+-0.04000]
#1=[#555+[#556-#555]*0.06965]
#2=[#561+[#562-#561]*0.06965]
#3=[#1+[#2-#1]*0.27048]
X-7.39543 Y-2.95012 Z[#3+-0.04000]
#1=[#555+[#556-#555]*0.04755]
#2=[#561+[#562-#561]*0.04755]
#3=[#1+[#2-#1]*0.27775]
X-7.39265 Y-2.95848 Z[#3+-0.04000]
#1=[#555+[#556-#555]*0.02436]
#2=[#561+[#562-#561]*0.02436]
#3=[#1+[#2-#1]*0.27998]
X-7.39179 Y-2.96725 Z[#3+-0.04000]
#1=[#555+[#556-#555]*0.00125]
#2=[#561+[#562-#561]*0.00125]
#3=[#1+[#2-#1]*0.27707]
X-7.39291 Y-2.97600 Z[#3+-0.04000]
#1=[#554+[#555-#554]*1.00000]
#2=[#560+[#561-#560]*1.00000]
#3=[#1+[#2-#1]*0.27662]
X-7.39308 Y-2.97647 Z[#3+-0.04000]
#1=[#554+[#555-#554]*0.97938]
#2=[#560+[#561-#560]*0.97938]
#3=[#1+[#2-#1]*0.26916]
X-7.39594 Y-2.98428 Z[#3+-0.04000]
#1=[#554+[#555-#554]*0.95984]
#2=[#560+[#561-#560]*0.95984]
#3=[#1+[#2-#1]*0.25665]
X-7.40074 Y-2.99167 Z[#3+-0.04000]
#1=[#554+[#555-#554]*0.94361]
#2=[#560+[#561-#560]*0.94361]
#3=[#1+[#2-#1]*0.24017]
X-7.40707 Y-2.99781 Z[#3+-0.04000]
#1=[#554+[#555-#554]*0.93151]
#2=[#560+[#561-#560]*0.93151]
#3=[#1+[#2-#1]*0.22054]
X-7.41460 Y-3.00239 Z[#3+-0.04000]
#1=[#554+[#555-#554]*0.92414]
#2=[#560+[#561-#560]*0.92414]
#3=[#1+[#2-#1]*0.19874]
X-7.42297 Y-3.00518 Z[#3+-0.04000]
#1=[#554+[#555-#554]*0.92188]
#2=[#560+[#561-#560]*0.92188]
#3=[#1+[#2-#1]*0.17588]
X-7.43174 Y-3.00603 Z[#3+-0.04000]
#1=[#554+[#555-#554]*0.92483]
#2=[#560+[#561-#560]*0.92483]
#3=[#1+[#2-#1]*0.15309]
X-7.44048 Y-3.00492 Z[#3+-0.04000]
#1=[#554+[#555-#554]*0.93285]
#2=[#560+[#561-#560]*0.93285]
#3=[#1+[#2-#1]*0.13152]
X-7.44876 Y-3.00188 Z[#3+-0.04000]
#1=[#554+[#555-#554]*0.98479]
#2=[#560+[#561-#560]*0.98479]
#3=[#1+[#2-#1]*0.02908]
X-7.48807 Y-2.98223 Z[#3+-0.04000]
#1=[#554+[#555-#554]*0.98479]
#2=[#560+[#561-#560]*0.98479]
#3=[#1+[#2-#1]*0.00000]
X-7.49923 Y-2.98223 Z[#3+-0.04000]
#1=[#548+[#549-#548]*0.98479]
#2=[#554+[#555-#554]*0.98479]
#3=[#1+[#2-#1]*0.82934]
X-7.56472 Y-2.98223 Z[#3+-0.04000]
#1=[#548+[#549-#548]*0.94040]
#2=[#554+[#555-#554]*0.94040]
#3=[#1+[#2-#1]*0.74180]
X-7.59831 Y-2.99903 Z[#3+-0.04000]
#1=[#548+[#549-#548]*0.90136]
#2=[#554+[#555-#554]*0.90136]
#3=[#1+[#2-#1]*0.70330]
X-7.61309 Y-3.01380 Z[#3+-0.04000]
#1=[#548+[#549-#548]*0.81258]
#2=[#554+[#555-#554]*0.81258]
#3=[#1+[#2-#1]*0.65953]
X-7.62988 Y-3.04739 Z[#3+-0.04000]
#1=[#548+[#549-#548]*0.48421]
#2=[#554+[#555-#554]*0.48421]
#3=[#1+[#2-#1]*0.65953]
X-7.62988 Y-3.17165 Z[#3+-0.04000]
#1=[#548+[#549-#548]*0.39544]
#2=[#554+[#555-#554]*0.39544]
#3=[#1+[#2-#1]*0.70330]
X-7.61309 Y-3.20525 Z[#3+-0.04000]
#1=[#548+[#549-#548]*0.35640]
#2=[#554+[#555-#554]*0.35640]
#3=[#1+[#2-#1]*0.74180]
X-7.59831 Y-3.22002 Z[#3+-0.04000]
#1=[#548+[#549-#548]*0.31201]
#2=[#554+[#555-#554]*0.31201]
#3=[#1+[#2-#1]*0.82934]
X-7.56472 Y-3.23682 Z[#3+-0.04000]
#1=[#554+[#555-#554]*0.31201]
#2=[#560+[#561-#560]*0.31201]
#3=[#1+[#2-#1]*0.00000]
X-7.49923 Y-3.23682 Z[#3+-0.04000]
#1=[#554+[#555-#554]*0.31201]
#2=[#560+[#561-#560]*0.31201]
#3=[#1+[#2-#1]*0.02908]
X-7.48807 Y-3.23682 Z[#3+-0.04000]
#1=[#554+[#555-#554]*0.36395]
#2=[#560+[#561-#560]*0.36395]
#3=[#1+[#2-#1]*0.13152]
X-7.44876 Y-3.21717 Z[#3+-0.04000]
#1=[#554+[#555-#554]*0.37197]
#2=[#560+[#561-#560]*0.37197]
#3=[#1+[#2-#1]*0.15309]
X-7.44048 Y-3.21413 Z[#3+-0.04000]
#1=[#554+[#555-#554]*0.37492]
#2=[#560+[#561-#560]*0.37492]
#3=[#1+[#2-#1]*0.17588]
X-7.43174 Y-3.21301 Z[#3+-0.04000]
#1=[#554+[#555-#554]*0.37265]
#2=[#560+[#561-#560]*0.37265]
#3=[#1+[#2-#1]*0.19874]
X-7.42297 Y-3.21387 Z[#3+-0.04000]
#1=[#554+[#555-#554]*0.36529]
#2=[#560+[#561-#560]*0.36529]
#3=[#1+[#2-#1]*0.22054]
X-7.41460 Y-3.21666 Z[#3+-0.04000]
#1=[#554+[#555-#554]*0.35319]
#2=[#560+[#561-#560]*0.35319]
#3=[#1+[#2-#1]*0.24017]
X-7.40707 Y-3.22124 Z[#3+-0.04000]
#1=[#554+[#555-#554]*0.33696]
#2=[#560+[#561-#560]*0.33696]
#3=[#1+[#2-#1]*0.25665]
X-7.40074 Y-3.22738 Z[#3+-0.04000]
#1=[#554+[#555-#554]*0.31742]
#2=[#560+[#561-#560]*0.31742]
#3=[#1+[#2-#1]*0.26916]
X-7.39594 Y-3.23477 Z[#3+-0.04000]
#1=[#554+[#555-#554]*0.29555]
#2=[#560+[#561-#560]*0.29555]
#3=[#1+[#2-#1]*0.27707]
X-7.39291 Y-3.24305 Z[#3+-0.04000]
#1=[#554+[#555-#554]*0.27244]
#2=[#560+[#561-#560]*0.27244]
#3=[#1+[#2-#1]*0.27998]
X-7.39179 Y-3.25179 Z[#3+-0.04000]
G04 P0 ( dwell for no time -- G64 should not smooth over this point )
G00 Z0.08000 ( retract )

G00 X-7.84416 Y-3.27619 ( rapid move to begin. )
G01 F180.00000
( Mill infeed pass 1/1 )
#1=[#548+[#549-#548]*0.20797]
#2=[#554+[#555-#554]*0.20797]
#3=[#1+[#2-#1]*0.10113]
G01 Z[-0.04000+#100]
G04 P0 ( dwell for no time -- G64 should not smooth over this point )
G01 F360.00000
#1=[#548+[#549-#548]*0.90006]
#2=[#554+[#555-#554]*0.90006]
#3=[#1+[#2-#1]*0.10113]
X-7.84416 Y-3.01429 Z[#3+-0.04000]
#1=[#548+[#549-#548]*0.92397]
#2=[#554+[#555-#554]*0.92397]
#3=[#1+[#2-#1]*0.09839]
X-7.84522 Y-3.00524 Z[#3+-0.04000]
#1=[#548+[#549-#548]*0.94659]
#2=[#554+[#555-#554]*0.94659]
#3=[#1+[#2-#1]*0.09030]
X-7.84832 Y-2.99668 Z[#3+-0.04000]
#1=[#548+[#549-#548]*1.00000]
#2=[#554+[#555-#554]*1.00000]
#3=[#1+[#2-#1]*0.06397]
X-7.85843 Y-2.97647 Z[#3+-0.04000]
#1=[#549+[#550-#549]*0.07243]
#2=[#555+[#556-#555]*0.07243]
#3=[#1+[#2-#1]*0.02825]
X-7.87213 Y-2.94906 Z[#3+-0.04000]
#1=[#549+[#550-#549]*0.09117]
#2=[#555+[#556-#555]*0.09117]
#3=[#1+[#2-#1]*0.01638]
X-7.87669 Y-2.94197 Z[#3+-0.04000]
#1=[#549+[#550-#549]*0.10692]
#2=[#555+[#556-#555]*0.10692]
#3=[#1+[#2-#1]*0.00085]
X-7.88265 Y-2.93601 Z[#3+-0.04000]
#1=[#549+[#550-#549]*0.10748]
#2=[#555+[#556-#555]*0.10748]
#3=[#1+[#2-#1]*0.00000]
X-7.88297 Y-2.93580 Z[#3+-0.04000]
#1=[#543+[#544-#543]*0.11896]
#2=[#549+[#550-#549]*0.11896]
#3=[#1+[#2-#1]*0.98237]
X-7.88974 Y-2.93146 Z[#3+-0.04000]
#1=[#543+[#544-#543]*0.18188]
#2=[#549+[#550-#549]*0.18188]
#3=[#1+[#2-#1]*0.85828]
X-7.93736 Y-2.90765 Z[#3+-0.04000]
#1=[#543+[#544-#543]*0.19008]
#2=[#549+[#550-#549]*0.19008]
#3=[#1+[#2-#1]*0.83597]
X-7.94592 Y-2.90454 Z[#3+-0.04000]
#1=[#543+[#544-#543]*0.19287]
#2=[#549+[#550-#549]*0.19287]
#3=[#1+[#2-#1]*0.81240]
X-7.95497 Y-2.90349 Z[#3+-0.04000]
#1=[#543+[#544-#543]*0.19287]
#2=[#549+[#550-#549]*0.19287]
#3=[#1+[#2-#1]*0.56421]
X-8.05021 Y-2.90349 Z[#3+-0.04000]
#1=[#543+[#544-#543]*0.19008]
#2=[#549+[#550-#549]*0.19008]
#3=[#1+[#2-#1]*0.54064]
X-8.05925 Y-2.90454 Z[#3+-0.04000]
#1=[#543+[#544-#543]*0.18188]
#2=[#549+[#550-#549]*0.18188]
#3=[#1+[#2-#1]*0.51833]
X-8.06781 Y-2.90765 Z[#3+-0.04000]
#1=[#543+[#544-#543]*0.11896]
#2=[#549+[#550-#549]*0.11896]
#3=[#1+[#2-#1]*0.39424]
X-8.11543 Y-2.93146 Z[#3+-0.04000]
#1=[#543+[#544-#543]*0.10627]
#2=[#549+[#550-#549]*0.10627]
#3=[#1+[#2-#1]*0.37497]
X-8.12283 Y-2.93626 Z[#3+-0.04000]
#1=[#543+[#544-#543]*0.08956]
#2=[#549+[#550-#549]*0.08956]
#3=[#1+[#2-#1]*0.35897]
X-8.12897 Y-2.94258 Z[#3+-0.04000]
#1=[#543+[#544-#543]*0.06965]
#2=[#549+[#550-#549]*0.06965]
#3=[#1+[#2-#1]*0.34703]
X-8.13355 Y-2.95012 Z[#3+-0.04000]
#1=[#543+[#544-#543]*0.04755]
#2=[#549+[#550-#549]*0.04755]
#3=[#1+[#2-#1]*0.33977]
X-8.13633 Y-2.95848 Z[#3+-0.04000]
#1=[#543+[#544-#543]*0.02436]
#2=[#549+[#550-#549]*0.02436]
#3=[#1+[#2-#1]*0.33754]
X-8.13719 Y-2.96725 Z[#3+-0.04000]
#1=[#543+[#544-#543]*0.00125]
#2=[#549+[#550-#549]*0.00125]
#3=[#1+[#2-#1]*0.34045]
X-8.13607 Y-2.97600 Z[#3+-0.04000]
#1=[#542+[#543-#542]*1.00000]
#2=[#548+[#549-#548]*1.00000]
#3=[#1+[#2-#1]*0.34090]
X-8.13590 Y-2.97647 Z[#3+-0.04000]
#1=[#542+[#543-#542]*0.97938]
#2=[#548+[#549-#548]*0.97938]
#3=[#1+[#2-#1]*0.34835]
X-8.13304 Y-2.98428 Z[#3+-0.04000]
#1=[#542+[#543-#542]*0.95984]
#2=[#548+[#549-#548]*0.95984]
#3=[#1+[#2-#1]*0.36087]
X-8.12824 Y-2.99167 Z[#3+-0.04000]
#1=[#542+[#543-#542]*0.94361]
#2=[#548+[#549-#548]*0.94361]
#3=[#1+[#2-#1]*0.37735]
X-8.12191 Y-2.99781 Z[#3+-0.04000]
#1=[#542+[#543-#542]*0.93151]
#2=[#548+[#549-#548]*0.93151]
#3=[#1+[#2-#1]*0.39698]
X-8.11438 Y-3.00239 Z[#3+-0.04000]
#1=[#542+[#543-#542]*0.92414]
#2=[#548+[#549-#548]*0.92414]
#3=[#1+[#2-#1]*0.41878]
X-8.10601 Y-3.00518 Z[#3+-0.04000]
#1=[#542+[#543-#542]*0.92188]
#2=[#548+[#549-#548]*0.92188]
#3=[#1+[#2-#1]*0.44164]
X-8.09724 Y-3.00603 Z[#3+-0.04000]
#1=[#542+[#543-#542]*0.92483]
#2=[#548+[#549-#548]*0.92483]
#3=[#1+[#2-#1]*0.46443]
X-8.08850 Y-3.00492 Z[#3+-0.04000]
#1=[#542+[#543-#542]*0.93285]
#2=[#548+[#549-#548]*0.93285]
#3=[#1+[#2-#1]*0.48600]
X-8.08022 Y-3.00188 Z[#3+-0.04000]
#1=[#542+[#543-#542]*0.98479]
#2=[#548+[#549-#548]*0.98479]
#3=[#1+[#2-#1]*0.58843]
X-8.04091 Y-2.98223 Z[#3+-0.04000]
#1=[#542+[#543-#542]*0.98479]
#2=[#548+[#549-#548]*0.98479]
#3=[#1+[#2-#1]*0.78818]
X-7.96426 Y-2.98223 Z[#3+-0.04000]
#1=[#542+[#543-#542]*0.94836]
#2=[#548+[#549-#548]*0.94836]
#3=[#1+[#2-#1]*0.86002]
X-7.93669 Y-2.99601 Z[#3+-0.04000]
#1=[#542+[#543-#542]*0.87550]
#2=[#548+[#549-#548]*0.87550]
#3=[#1+[#2-#1]*0.89594]
X-7.92291 Y-3.02358 Z[#3+-0.04000]
#1=[#542+[#543-#542]*0.83855]
#2=[#548+[#549-#548]*0.83855]
#3=[#1+[#2-#1]*0.89594]
X-7.92291 Y-3.03757 Z[#3+-0.04000]
#1=[#542+[#543-#542]*0.81537]
#2=[#548+[#549-#548]*0.81537]
#3=[#1+[#2-#1]*0.85022]
X-7.94045 Y-3.04634 Z[#3+-0.04000]
#1=[#542+[#543-#542]*0.81537]
#2=[#548+[#549-#548]*0.81537]
#3=[#1+[#2-#1]*0.56421]
X-8.05021 Y-3.04634 Z[#3+-0.04000]
#1=[#542+[#543-#542]*0.81259]
#2=[#548+[#549-#548]*0.81259]
#3=[#1+[#2-#1]*0.54064]
X-8.05925 Y-3.04739 Z[#3+-0.04000]
#1=[#542+[#543-#542]*0.80439]
#2=[#548+[#549-#548]*0.80439]
#3=[#1+[#2-#1]*0.51833]
X-8.06781 Y-3.05050 Z[#3+-0.04000]
#1=[#542+[#543-#542]*0.74147]
#2=[#548+[#549-#548]*0.74147]
#3=[#1+[#2-#1]*0.39424]
X-8.11543 Y-3.07431 Z[#3+-0.04000]
#1=[#542+[#543-#542]*0.72943]
#2=[#548+[#549-#548]*0.72943]
#3=[#1+[#2-#1]*0.37576]
X-8.12252 Y-3.07886 Z[#3+-0.04000]
#1=[#542+[#543-#542]*0.71368]
#2=[#548+[#549-#548]*0.71368]
#3=[#1+[#2-#1]*0.36022]
X-8.12848 Y-3.08482 Z[#3+-0.04000]
#1=[#542+[#543-#542]*0.69494]
#2=[#548+[#549-#548]*0.69494]
#3=[#1+[#2-#1]*0.34835]
X-8.13304 Y-3.09191 Z[#3+-0.04000]
#1=[#542+[#543-#542]*0.56910]
#2=[#548+[#549-#548]*0.56910]
#3=[#1+[#2-#1]*0.28631]
X-8.15685 Y-3.13953 Z[#3+-0.04000]
#1=[#542+[#543-#542]*0.54648]
#2=[#548+[#549-#548]*0.54648]
#3=[#1+[#2-#1]*0.27822]
X-8.15995 Y-3.14809 Z[#3+-0.04000]
#1=[#542+[#543-#542]*0.52257]
#2=[#548+[#549-#548]*0.52257]
#3=[#1+[#2-#1]*0.27548]
X-8.16101 Y-3.15714 Z[#3+-0.04000]
#1=[#542+[#543-#542]*0.39673]
#2=[#548+[#549-#548]*0.39673]
#3=[#1+[#2-#1]*0.27548]
X-8.16101 Y-3.20476 Z[#3+-0.04000]
#1=[#542+[#543-#542]*0.37283]
#2=[#548+[#549-#548]*0.37283]
#3=[#1+[#2-#1]*0.27822]
X-8.15995 Y-3.21380 Z[#3+-0.04000]
#1=[#542+[#543-#542]*0.35021]
#2=[#548+[#549-#548]*0.35021]
#3=[#1+[#2-#1]*0.28631]
X-8.15685 Y-3.22237 Z[#3+-0.04000]
#1=[#542+[#543-#542]*0.22437]
#2=[#548+[#549-#548]*0.22437]
#3=[#1+[#2-#1]*0.34835]
X-8.13304 Y-3.26999 Z[#3+-0.04000]
#1=[#542+[#543-#542]*0.20562]
#2=[#548+[#549-#548]*0.20562]
#3=[#1+[#2-#1]*0.36022]
X-8.12848 Y-3.27708 Z[#3+-0.04000]
#1=[#542+[#543-#542]*0.18988]
#2=[#548+[#549-#548]*0.18988]
#3=[#1+[#2-#1]*0.37576]
X-8.12252 Y-3.28304 Z[#3+-0.04000]
#1=[#542+[#543-#542]*0.17784]
#2=[#548+[#549-#548]*0.17784]
#3=[#1+[#2-#1]*0.39424]
X-8.11543 Y-3.28759 Z[#3+-0.04000]
#1=[#542+[#543-#542]*0.11492]
#2=[#548+[#549-#548]*0.11492]
#3=[#1+[#2-#1]*0.51833]
X-8.06781 Y-3.31140 Z[#3+-0.04000]
#1=[#542+[#543-#542]*0.10672]
#2=[#548+[#549-#548]*0.10672]
#3=[#1+[#2-#1]*0.54064]
X-8.05925 Y-3.31451 Z[#3+-0.04000]
#1=[#542+[#543-#542]*0.10393]
#2=[#548+[#549-#548]*0.10393]
#3=[#1+[#2-#1]*0.56421]
X-8.05021 Y-3.31556 Z[#3+-0.04000]
#1=[#542+[#543-#542]*0.10393]
#2=[#548+[#549-#548]*0.10393]
#3=[#1+[#2-#1]*0.87444]
X-7.93116 Y-3.31556 Z[#3+-0.04000]
#1=[#542+[#543-#542]*0.10672]
#2=[#548+[#549-#548]*0.10672]
#3=[#1+[#2-#1]*0.89802]
X-7.92211 Y-3.31451 Z[#3+-0.04000]
#1=[#542+[#543-#542]*0.11492]
#2=[#548+[#549-#548]*0.11492]
#3=[#1+[#2-#1]*0.92033]
X-7.91355 Y-3.31140 Z[#3+-0.04000]
#1=[#542+[#543-#542]*0.12413]
#2=[#548+[#549-#548]*0.12413]
#3=[#1+[#2-#1]*0.93850]
X-7.90658 Y-3.30792 Z[#3+-0.04000]
#1=[#542+[#543-#542]*0.11424]
#2=[#548+[#549-#548]*0.11424]
#3=[#1+[#2-#1]*0.95402]
X-7.90062 Y-3.31166 Z[#3+-0.04000]
#1=[#542+[#543-#542]*0.10654]
#2=[#548+[#549-#548]*0.10654]
#3=[#1+[#2-#1]*0.97571]
X-7.89230 Y-3.31457 Z[#3+-0.04000]
#1=[#542+[#543-#542]*0.10393]
#2=[#548+[#549-#548]*0.10393]
#3=[#1+[#2-#1]*0.99854]
X-7.88354 Y-3.31556 Z[#3+-0.04000]
#1=[#548+[#549-#548]*0.10410]
#2=[#554+[#555-#554]*0.10410]
#3=[#1+[#2-#1]*0.00000]
X-7.88297 Y-3.31550 Z[#3+-0.04000]
#1=[#548+[#549-#548]*0.10654]
#2=[#554+[#555-#554]*0.10654]
#3=[#1+[#2-#1]*0.02137]
X-7.87477 Y-3.31457 Z[#3+-0.04000]
#1=[#548+[#549-#548]*0.11424]
#2=[#554+[#555-#554]*0.11424]
#3=[#1+[#2-#1]*0.04305]
X-7.86645 Y-3.31166 Z[#3+-0.04000]
#1=[#548+[#549-#548]*0.12663]
#2=[#554+[#555-#554]*0.12663]
#3=[#1+[#2-#1]*0.06250]
X-7.85899 Y-3.30697 Z[#3+-0.04000]
#1=[#548+[#549-#548]*0.14311]
#2=[#554+[#555-#554]*0.14311]
#3=[#1+[#2-#1]*0.07875]
X-7.85275 Y-3.30074 Z[#3+-0.04000]
#1=[#548+[#549-#548]*0.16283]
#2=[#554+[#555-#554]*0.16283]
#3=[#1+[#2-#1]*0.09097]
X-7.84806 Y-3.29327 Z[#3+-0.04000]
#1=[#548+[#549-#548]*0.18482]
#2=[#554+[#555-#554]*0.18482]
#3=[#1+[#2-#1]*0.09856]
X-7.84515 Y-3.28495 Z[#3+-0.04000]
#1=[#548+[#549-#548]*0.20797]
#2=[#554+[#555-#554]*0.20797]
#3=[#1+[#2-#1]*0.10113]
X-7.84416 Y-3.27619 Z[#3+-0.04000]
G04 P0 ( dwell for no time -- G64 should not smooth over this point )
G00 Z0.08000 ( retract )

G00 X-7.92291 Y-3.22805 ( rapid move to begin. )
G01 F180.00000
( Mill infeed pass 1/1 )
#1=[#542+[#543-#542]*0.33519]
#2=[#548+[#549-#548]*0.33519]
#3=[#1+[#2-#1]*0.89594]
G01 Z[-0.04000+#100]
G04 P0 ( dwell for no time -- G64 should not smooth over this point )
G01 F360.00000
#1=[#542+[#543-#542]*0.60983]
#2=[#548+[#549-#548]*0.60983]
#3=[#1+[#2-#1]*0.89594]
X-7.92291 Y-3.12412 Z[#3+-0.04000]
#1=[#542+[#543-#542]*0.60729]
#2=[#548+[#549-#548]*0.60729]
#3=[#1+[#2-#1]*0.87444]
X-7.93116 Y-3.12508 Z[#3+-0.04000]
#1=[#542+[#543-#542]*0.60729]
#2=[#548+[#549-#548]*0.60729]
#3=[#1+[#2-#1]*0.58843]
X-8.04091 Y-3.12508 Z[#3+-0.04000]
#1=[#542+[#543-#542]*0.57087]
#2=[#548+[#549-#548]*0.57087]
#3=[#1+[#2-#1]*0.51659]
X-8.06848 Y-3.13886 Z[#3+-0.04000]
#1=[#542+[#543-#542]*0.49801]
#2=[#548+[#549-#548]*0.49801]
#3=[#1+[#2-#1]*0.48067]
X-8.08226 Y-3.16643 Z[#3+-0.04000]
#1=[#542+[#543-#542]*0.42129]
#2=[#548+[#549-#548]*0.42129]
#3=[#1+[#2-#1]*0.48067]
X-8.08226 Y-3.19546 Z[#3+-0.04000]
#1=[#542+[#543-#542]*0.34844]
#2=[#548+[#549-#548]*0.34844]
#3=[#1+[#2-#1]*0.51659]
X-8.06848 Y-3.22303 Z[#3+-0.04000]
#1=[#542+[#543-#542]*0.31201]
#2=[#548+[#549-#548]*0.31201]
#3=[#1+[#2-#1]*0.58843]
X-8.04091 Y-3.23682 Z[#3+-0.04000]
#1=[#542+[#543-#542]*0.31201]
#2=[#548+[#549-#548]*0.31201]
#3=[#1+[#2-#1]*0.85022]
X-7.94045 Y-3.23682 Z[#3+-0.04000]
#1=[#542+[#543-#542]*0.33519]
#2=[#548+[#549-#548]*0.33519]
#3=[#1+[#2-#1]*0.89594]
X-7.92291 Y-3.22805 Z[#3+-0.04000]
G04 P0 ( dwell for no time -- G64 should not smooth over this point )
G00 Z0.08000 ( retract )

G00 X-8.27273 Y-3.18095 ( rapid move to begin. )
G01 F180.00000
( Mill infeed pass 1/1 )
#1=[#536+[#537-#536]*0.45965]
#2=[#542+[#543-#542]*0.45965]
#3=[#1+[#2-#1]*0.98432]
G01 Z[-0.04000+#100]
G04 P0 ( dwell for no time -- G64 should not smooth over this point )
G01 F360.00000
#1=[#536+[#537-#536]*0.64841]
#2=[#542+[#543-#542]*0.64841]
#3=[#1+[#2-#1]*0.98432]
X-8.27273 Y-3.10952 Z[#3+-0.04000]
#1=[#536+[#537-#536]*0.67232]
#2=[#542+[#543-#542]*0.67232]
#3=[#1+[#2-#1]*0.98157]
X-8.27379 Y-3.10047 Z[#3+-0.04000]
#1=[#536+[#537-#536]*0.69494]
#2=[#542+[#543-#542]*0.69494]
#3=[#1+[#2-#1]*0.97349]
X-8.27689 Y-3.09191 Z[#3+-0.04000]
#1=[#536+[#537-#536]*0.82078]
#2=[#542+[#543-#542]*0.82078]
#3=[#1+[#2-#1]*0.91144]
X-8.30070 Y-3.04429 Z[#3+-0.04000]
#1=[#536+[#537-#536]*0.84783]
#2=[#542+[#543-#542]*0.84783]
#3=[#1+[#2-#1]*0.89221]
X-8.30808 Y-3.03405 Z[#3+-0.04000]
#1=[#536+[#537-#536]*0.91073]
#2=[#542+[#543-#542]*0.91073]
#3=[#1+[#2-#1]*0.83016]
X-8.33189 Y-3.01025 Z[#3+-0.04000]
#1=[#536+[#537-#536]*0.92565]
#2=[#542+[#543-#542]*0.92565]
#3=[#1+[#2-#1]*0.81156]
X-8.33903 Y-3.00461 Z[#3+-0.04000]
#1=[#536+[#537-#536]*0.92814]
#2=[#542+[#543-#542]*0.92814]
#3=[#1+[#2-#1]*0.80631]
X-8.34104 Y-3.00366 Z[#3+-0.04000]
#1=[#536+[#537-#536]*0.95234]
#2=[#542+[#543-#542]*0.95234]
#3=[#1+[#2-#1]*0.83018]
X-8.33189 Y-2.99451 Z[#3+-0.04000]
#1=[#536+[#537-#536]*0.97938]
#2=[#542+[#543-#542]*0.97938]
#3=[#1+[#2-#1]*0.84939]
X-8.32451 Y-2.98428 Z[#3+-0.04000]
#1=[#536+[#537-#536]*1.00000]
#2=[#542+[#543-#542]*1.00000]
#3=[#1+[#2-#1]*0.85956]
X-8.32061 Y-2.97647 Z[#3+-0.04000]
#1=[#537+[#538-#537]*0.10522]
#2=[#543+[#544-#543]*0.10522]
#3=[#1+[#2-#1]*0.91144]
X-8.30070 Y-2.93666 Z[#3+-0.04000]
#1=[#537+[#538-#537]*0.12784]
#2=[#543+[#544-#543]*0.12784]
#3=[#1+[#2-#1]*0.91953]
X-8.29760 Y-2.92809 Z[#3+-0.04000]
#1=[#537+[#538-#537]*0.15174]
#2=[#543+[#544-#543]*0.15174]
#3=[#1+[#2-#1]*0.92227]
X-8.29654 Y-2.91905 Z[#3+-0.04000]
#1=[#537+[#538-#537]*0.27758]
#2=[#543+[#544-#543]*0.27758]
#3=[#1+[#2-#1]*0.92227]
X-8.29654 Y-2.87143 Z[#3+-0.04000]
#1=[#537+[#538-#537]*0.30149]
#2=[#543+[#544-#543]*0.30149]
#3=[#1+[#2-#1]*0.91953]
X-8.29760 Y-2.86238 Z[#3+-0.04000]
#1=[#537+[#538-#537]*0.32411]
#2=[#543+[#544-#543]*0.32411]
#3=[#1+[#2-#1]*0.91144]
X-8.30070 Y-2.85382 Z[#3+-0.04000]
#1=[#537+[#538-#537]*0.44995]
#2=[#543+[#544-#543]*0.44995]
#3=[#1+[#2-#1]*0.84939]
X-8.32451 Y-2.80620 Z[#3+-0.04000]
#1=[#537+[#538-#537]*0.47699]
#2=[#543+[#544-#543]*0.47699]
#3=[#1+[#2-#1]*0.83018]
X-8.33189 Y-2.79597 Z[#3+-0.04000]
#1=[#537+[#538-#537]*0.53991]
#2=[#543+[#544-#543]*0.53991]
#3=[#1+[#2-#1]*0.76813]
X-8.35570 Y-2.77216 Z[#3+-0.04000]
#1=[#537+[#538-#537]*0.55940]
#2=[#543+[#544-#543]*0.55940]
#3=[#1+[#2-#1]*0.74147]
X-8.36593 Y-2.76479 Z[#3+-0.04000]
#1=[#537+[#538-#537]*0.62232]
#2=[#543+[#544-#543]*0.62232]
#3=[#1+[#2-#1]*0.61737]
X-8.41355 Y-2.74098 Z[#3+-0.04000]
#1=[#537+[#538-#537]*0.63052]
#2=[#543+[#544-#543]*0.63052]
#3=[#1+[#2-#1]*0.59506]
X-8.42211 Y-2.73787 Z[#3+-0.04000]
#1=[#537+[#538-#537]*0.63331]
#2=[#543+[#544-#543]*0.63331]
#3=[#1+[#2-#1]*0.57149]
X-8.43116 Y-2.73682 Z[#3+-0.04000]
#1=[#537+[#538-#537]*0.63331]
#2=[#543+[#544-#543]*0.63331]
#3=[#1+[#2-#1]*0.13716]
X-8.59783 Y-2.73682 Z[#3+-0.04000]
#1=[#537+[#538-#537]*0.63069]
#2=[#543+[#544-#543]*0.63069]
#3=[#1+[#2-#1]*0.11434]
X-8.60659 Y-2.73781 Z[#3+-0.04000]
#1=[#537+[#538-#537]*0.62300]
#2=[#543+[#544-#543]*0.62300]
#3=[#1+[#2-#1]*0.09265]
X-8.61491 Y-2.74072 Z[#3+-0.04000]
#1=[#537+[#538-#537]*0.61061]
#2=[#543+[#544-#543]*0.61061]
#3=[#1+[#2-#1]*0.07320]
X-8.62237 Y-2.74541 Z[#3+-0.04000]
#1=[#537+[#538-#537]*0.59413]
#2=[#543+[#544-#543]*0.59413]
#3=[#1+[#2-#1]*0.05695]
X-8.62861 Y-2.75164 Z[#3+-0.04000]
#1=[#537+[#538-#537]*0.57441]
#2=[#543+[#544-#543]*0.57441]
#3=[#1+[#2-#1]*0.04473]
X-8.63330 Y-2.75911 Z[#3+-0.04000]
#1=[#537+[#538-#537]*0.55242]
#2=[#543+[#544-#543]*0.55242]
#3=[#1+[#2-#1]*0.03714]
X-8.63621 Y-2.76743 Z[#3+-0.04000]
#1=[#537+[#538-#537]*0.52926]
#2=[#543+[#544-#543]*0.52926]
#3=[#1+[#2-#1]*0.03457]
X-8.63720 Y-2.77619 Z[#3+-0.04000]
#1=[#536+[#537-#536]*1.00000]
#2=[#542+[#543-#542]*1.00000]
#3=[#1+[#2-#1]*0.03457]
X-8.63720 Y-2.97647 Z[#3+-0.04000]
#1=[#536+[#537-#536]*0.20797]
#2=[#542+[#543-#542]*0.20797]
#3=[#1+[#2-#1]*0.03457]
X-8.63720 Y-3.27619 Z[#3+-0.04000]
#1=[#536+[#537-#536]*0.18482]
#2=[#542+[#543-#542]*0.18482]
#3=[#1+[#2-#1]*0.03714]
X-8.63621 Y-3.28495 Z[#3+-0.04000]
#1=[#536+[#537-#536]*0.16283]
#2=[#542+[#543-#542]*0.16283]
#3=[#1+[#2-#1]*0.04473]
X-8.63330 Y-3.29327 Z[#3+-0.04000]
#1=[#536+[#537-#536]*0.14311]
#2=[#542+[#543-#542]*0.14311]
#3=[#1+[#2-#1]*0.05695]
X-8.62861 Y-3.30074 Z[#3+-0.04000]
#1=[#536+[#537-#536]*0.12663]
#2=[#542+[#543-#542]*0.12663]
#3=[#1+[#2-#1]*0.07320]
X-8.62237 Y-3.30697 Z[#3+-0.04000]
#1=[#536+[#537-#536]*0.11424]
#2=[#542+[#543-#542]*0.11424]
#3=[#1+[#2-#1]*0.09265]
X-8.61491 Y-3.31166 Z[#3+-0.04000]
#1=[#536+[#537-#536]*0.10654]
#2=[#542+[#543-#542]*0.10654]
#3=[#1+[#2-#1]*0.11434]
X-8.60659 Y-3.31457 Z[#3+-0.04000]
#1=[#536+[#537-#536]*0.10393]
#2=[#542+[#543-#542]*0.10393]
#3=[#1+[#2-#1]*0.13716]
X-8.59783 Y-3.31556 Z[#3+-0.04000]
#1=[#536+[#537-#536]*0.10393]
#2=[#542+[#543-#542]*0.10393]
#3=[#1+[#2-#1]*0.63354]
X-8.40735 Y-3.31556 Z[#3+-0.04000]
#1=[#536+[#537-#536]*0.10672]
#2=[#542+[#543-#542]*0.10672]
#3=[#1+[#2-#1]*0.65711]
X-8.39830 Y-3.31451 Z[#3+-0.04000]
#1=[#536+[#537-#536]*0.11492]
#2=[#542+[#543-#542]*0.11492]
#3=[#1+[#2-#1]*0.67942]
X-8.38974 Y-3.31140 Z[#3+-0.04000]
#1=[#536+[#537-#536]*0.17784]
#2=[#542+[#543-#542]*0.17784]
#3=[#1+[#2-#1]*0.80351]
X-8.34212 Y-3.28759 Z[#3+-0.04000]
#1=[#536+[#537-#536]*0.19733]
#2=[#542+[#543-#542]*0.19733]
#3=[#1+[#2-#1]*0.83018]
X-8.33189 Y-3.28022 Z[#3+-0.04000]
#1=[#536+[#537-#536]*0.26025]
#2=[#542+[#543-#542]*0.26025]
#3=[#1+[#2-#1]*0.89222]
X-8.30808 Y-3.25641 Z[#3+-0.04000]
#1=[#536+[#537-#536]*0.28729]
#2=[#542+[#543-#542]*0.28729]
#3=[#1+[#2-#1]*0.91144]
X-8.30070 Y-3.24618 Z[#3+-0.04000]
#1=[#536+[#537-#536]*0.41313]
#2=[#542+[#543-#542]*0.41313]
#3=[#1+[#2-#1]*0.97349]
X-8.27689 Y-3.19856 Z[#3+-0.04000]
#1=[#536+[#537-#536]*0.43575]
#2=[#542+[#543-#542]*0.43575]
#3=[#1+[#2-#1]*0.98157]
X-8.27379 Y-3.19000 Z[#3+-0.04000]
#1=[#536+[#537-#536]*0.45965]
#2=[#542+[#543-#542]*0.45965]
#3=[#1+[#2-#1]*0.98432]
X-8.27273 Y-3.18095 Z[#3+-0.04000]
G04 P0 ( dwell for no time -- G64 should not smooth over this point )
G00 Z0.08000 ( retract )

G00 X-8.35148 Y-3.17165 ( rapid move to begin. )
G01 F180.00000
( Mill infeed pass 1/1 )
#1=[#536+[#537-#536]*0.48421]
#2=[#542+[#543-#542]*0.48421]
#3=[#1+[#2-#1]*0.77913]
G01 Z[-0.04000+#100]
G04 P0 ( dwell for no time -- G64 should not smooth over this point )
G01 F360.00000
#1=[#536+[#537-#536]*0.62385]
#2=[#542+[#543-#542]*0.62385]
#3=[#1+[#2-#1]*0.77913]
X-8.35148 Y-3.11881 Z[#3+-0.04000]
#1=[#536+[#537-#536]*0.71261]
#2=[#542+[#543-#542]*0.71261]
#3=[#1+[#2-#1]*0.73536]
X-8.36827 Y-3.08522 Z[#3+-0.04000]
#1=[#536+[#537-#536]*0.74621]
#2=[#542+[#543-#542]*0.74621]
#3=[#1+[#2-#1]*0.70222]
X-8.38099 Y-3.07251 Z[#3+-0.04000]
#1=[#536+[#537-#536]*0.79603]
#2=[#542+[#543-#542]*0.79603]
#3=[#1+[#2-#1]*0.55484]
X-8.43754 Y-3.05366 Z[#3+-0.04000]
#1=[#536+[#537-#536]*0.79603]
#2=[#542+[#543-#542]*0.79603]
#3=[#1+[#2-#1]*0.23976]
X-8.55845 Y-3.05366 Z[#3+-0.04000]
#1=[#536+[#537-#536]*0.31201]
#2=[#542+[#543-#542]*0.31201]
#3=[#1+[#2-#1]*0.23976]
X-8.55845 Y-3.23682 Z[#3+-0.04000]
#1=[#536+[#537-#536]*0.31201]
#2=[#542+[#543-#542]*0.31201]
#3=[#1+[#2-#1]*0.60932]
X-8.41664 Y-3.23682 Z[#3+-0.04000]
#1=[#536+[#537-#536]*0.35640]
#2=[#542+[#543-#542]*0.35640]
#3=[#1+[#2-#1]*0.69686]
X-8.38305 Y-3.22002 Z[#3+-0.04000]
#1=[#536+[#537-#536]*0.39544]
#2=[#542+[#543-#542]*0.39544]
#3=[#1+[#2-#1]*0.73536]
X-8.36827 Y-3.20525 Z[#3+-0.04000]
#1=[#536+[#537-#536]*0.48421]
#2=[#542+[#543-#542]*0.48421]
#3=[#1+[#2-#1]*0.77913]
X-8.35148 Y-3.17165 Z[#3+-0.04000]
G04 P0 ( dwell for no time -- G64 should not smooth over this point )
G00 Z0.08000 ( retract )

G00 X-8.37529 Y-2.90976 ( rapid move to begin. )
G01 F180.00000
( Mill infeed pass 1/1 )
#1=[#537+[#538-#537]*0.17631]
#2=[#543+[#544-#543]*0.17631]
#3=[#1+[#2-#1]*0.71708]
G01 Z[-0.04000+#100]
G04 P0 ( dwell for no time -- G64 should not smooth over this point )
G01 F360.00000
#1=[#537+[#538-#537]*0.25302]
#2=[#543+[#544-#543]*0.25302]
#3=[#1+[#2-#1]*0.71708]
X-8.37529 Y-2.88072 Z[#3+-0.04000]
#1=[#537+[#538-#537]*0.34180]
#2=[#543+[#544-#543]*0.34180]
#3=[#1+[#2-#1]*0.67331]
X-8.39208 Y-2.84713 Z[#3+-0.04000]
#1=[#537+[#538-#537]*0.38084]
#2=[#543+[#544-#543]*0.38084]
#3=[#1+[#2-#1]*0.63481]
X-8.40686 Y-2.83236 Z[#3+-0.04000]
#1=[#537+[#538-#537]*0.42523]
#2=[#543+[#544-#543]*0.42523]
#3=[#1+[#2-#1]*0.54727]
X-8.44045 Y-2.81556 Z[#3+-0.04000]
#1=[#537+[#538-#537]*0.42523]
#2=[#543+[#544-#543]*0.42523]
#3=[#1+[#2-#1]*0.23976]
X-8.55845 Y-2.81556 Z[#3+-0.04000]
#1=[#537+[#538-#537]*0.00411]
#2=[#543+[#544-#543]*0.00411]
#3=[#1+[#2-#1]*0.23976]
X-8.55845 Y-2.97492 Z[#3+-0.04000]
#1=[#537+[#538-#537]*0.00411]
#2=[#543+[#544-#543]*0.00411]
#3=[#1+[#2-#1]*0.54727]
X-8.44045 Y-2.97492 Z[#3+-0.04000]
#1=[#537+[#538-#537]*0.04849]
#2=[#543+[#544-#543]*0.04849]
#3=[#1+[#2-#1]*0.63481]
X-8.40686 Y-2.95812 Z[#3+-0.04000]
#1=[#537+[#538-#537]*0.08753]
#2=[#543+[#544-#543]*0.08753]
#3=[#1+[#2-#1]*0.67331]
X-8.39208 Y-2.94335 Z[#3+-0.04000]
#1=[#537+[#538-#537]*0.17631]
#2=[#543+[#544-#543]*0.17631]
#3=[#1+[#2-#1]*0.71708]
X-8.37529 Y-2.90976 Z[#3+-0.04000]
G04 P0 ( dwell for no time -- G64 should not smooth over this point )
G00 Z0.08000 ( retract )

G00 X-8.66912 Y-3.35055 ( rapid move to begin. )
G01 F180.00000
( Mill infeed pass 1/1 )
#1=[#530+[#531-#530]*0.01147]
#2=[#536+[#537-#536]*0.01147]
#3=[#1+[#2-#1]*0.95136]
G01 Z[-0.04000+#100]
G04 P0 ( dwell for no time -- G64 should not smooth over this point )
G01 F360.00000
#1=[#530+[#531-#530]*0.01438]
#2=[#536+[#537-#536]*0.01438]
#3=[#1+[#2-#1]*0.95136]
X-8.66912 Y-3.34945 Z[#3+-0.04000]
#1=[#530+[#531-#530]*0.01722]
#2=[#536+[#537-#536]*0.01722]
#3=[#1+[#2-#1]*0.95073]
X-8.66937 Y-3.34837 Z[#3+-0.04000]
#1=[#530+[#531-#530]*0.01984]
#2=[#536+[#537-#536]*0.01984]
#3=[#1+[#2-#1]*0.94948]
X-8.66985 Y-3.34738 Z[#3+-0.04000]
#1=[#530+[#531-#530]*0.02212]
#2=[#536+[#537-#536]*0.02212]
#3=[#1+[#2-#1]*0.94769]
X-8.67054 Y-3.34652 Z[#3+-0.04000]
#1=[#530+[#531-#530]*0.14505]
#2=[#536+[#537-#536]*0.14505]
#3=[#1+[#2-#1]*0.82646]
X-8.71706 Y-3.30000 Z[#3+-0.04000]
#1=[#530+[#531-#530]*0.26799]
#2=[#536+[#537-#536]*0.26799]
#3=[#1+[#2-#1]*0.94769]
X-8.67054 Y-3.25348 Z[#3+-0.04000]
#1=[#530+[#531-#530]*0.27026]
#2=[#536+[#537-#536]*0.27026]
#3=[#1+[#2-#1]*0.94948]
X-8.66985 Y-3.25262 Z[#3+-0.04000]
#1=[#530+[#531-#530]*0.27289]
#2=[#536+[#537-#536]*0.27289]
#3=[#1+[#2-#1]*0.95073]
X-8.66937 Y-3.25163 Z[#3+-0.04000]
#1=[#530+[#531-#530]*0.27572]
#2=[#536+[#537-#536]*0.27572]
#3=[#1+[#2-#1]*0.95136]
X-8.66912 Y-3.25055 Z[#3+-0.04000]
#1=[#530+[#531-#530]*0.27864]
#2=[#536+[#537-#536]*0.27864]
#3=[#1+[#2-#1]*0.95136]
X-8.66912 Y-3.24945 Z[#3+-0.04000]
#1=[#530+[#531-#530]*0.28148]
#2=[#536+[#537-#536]*0.28148]
#3=[#1+[#2-#1]*0.95073]
X-8.66937 Y-3.24837 Z[#3+-0.04000]
#1=[#530+[#531-#530]*0.28410]
#2=[#536+[#537-#536]*0.28410]
#3=[#1+[#2-#1]*0.94948]
X-8.66985 Y-3.24738 Z[#3+-0.04000]
#1=[#530+[#531-#530]*0.28638]
#2=[#536+[#537-#536]*0.28638]
#3=[#1+[#2-#1]*0.94769]
X-8.67054 Y-3.24652 Z[#3+-0.04000]
#1=[#530+[#531-#530]*0.28819]
#2=[#536+[#537-#536]*0.28819]
#3=[#1+[#2-#1]*0.94544]
X-8.67140 Y-3.24583 Z[#3+-0.04000]
#1=[#530+[#531-#530]*0.28946]
#2=[#536+[#537-#536]*0.28946]
#3=[#1+[#2-#1]*0.94286]
X-8.67239 Y-3.24535 Z[#3+-0.04000]
#1=[#530+[#531-#530]*0.29011]
#2=[#536+[#537-#536]*0.29011]
#3=[#1+[#2-#1]*0.94006]
X-8.67346 Y-3.24511 Z[#3+-0.04000]
#1=[#530+[#531-#530]*0.29011]
#2=[#536+[#537-#536]*0.29011]
#3=[#1+[#2-#1]*0.93718]
X-8.67457 Y-3.24511 Z[#3+-0.04000]
#1=[#530+[#531-#530]*0.28946]
#2=[#536+[#537-#536]*0.28946]
#3=[#1+[#2-#1]*0.93438]
X-8.67564 Y-3.24535 Z[#3+-0.04000]
#1=[#530+[#531-#530]*0.28819]
#2=[#536+[#537-#536]*0.28819]
#3=[#1+[#2-#1]*0.93180]
X-8.67663 Y-3.24583 Z[#3+-0.04000]
#1=[#530+[#531-#530]*0.28638]
#2=[#536+[#537-#536]*0.28638]
#3=[#1+[#2-#1]*0.92955]
X-8.67749 Y-3.24652 Z[#3+-0.04000]
#1=[#530+[#531-#530]*0.16344]
#2=[#536+[#537-#536]*0.16344]
#3=[#1+[#2-#1]*0.80832]
X-8.72402 Y-3.29304 Z[#3+-0.04000]
#1=[#530+[#531-#530]*0.28638]
#2=[#536+[#537-#536]*0.28638]
#3=[#1+[#2-#1]*0.68710]
X-8.77054 Y-3.24652 Z[#3+-0.04000]
#1=[#530+[#531-#530]*0.28819]
#2=[#536+[#537-#536]*0.28819]
#3=[#1+[#2-#1]*0.68485]
X-8.77140 Y-3.24583 Z[#3+-0.04000]
#1=[#530+[#531-#530]*0.28946]
#2=[#536+[#537-#536]*0.28946]
#3=[#1+[#2-#1]*0.68227]
X-8.77239 Y-3.24535 Z[#3+-0.04000]
#1=[#530+[#531-#530]*0.29011]
#2=[#536+[#537-#536]*0.29011]
#3=[#1+[#2-#1]*0.67947]
X-8.77346 Y-3.24511 Z[#3+-0.04000]
#1=[#530+[#531-#530]*0.29011]
#2=[#536+[#537-#536]*0.29011]
#3=[#1+[#2-#1]*0.67659]
X-8.77457 Y-3.24511 Z[#3+-0.04000]
#1=[#530+[#531-#530]*0.28946]
#2=[#536+[#537-#536]*0.28946]
#3=[#1+[#2-#1]*0.67379]
X-8.77564 Y-3.24535 Z[#3+-0.04000]
#1=[#530+[#531-#530]*0.28819]
#2=[#536+[#537-#536]*0.28819]
#3=[#1+[#2-#1]*0.67121]
X-8.77663 Y-3.24583 Z[#3+-0.04000]
#1=[#530+[#531-#530]*0.28638]
#2=[#536+[#537-#536]*0.28638]
#3=[#1+[#2-#1]*0.66896]
X-8.77749 Y-3.24652 Z[#3+-0.04000]
#1=[#530+[#531-#530]*0.28410]
#2=[#536+[#537-#536]*0.28410]
#3=[#1+[#2-#1]*0.66717]
X-8.77818 Y-3.24738 Z[#3+-0.04000]
#1=[#530+[#531-#530]*0.28148]
#2=[#536+[#537-#536]*0.28148]
#3=[#1+[#2-#1]*0.66592]
X-8.77866 Y-3.24837 Z[#3+-0.04000]
#1=[#530+[#531-#530]*0.27864]
#2=[#536+[#537-#536]*0.27864]
#3=[#1+[#2-#1]*0.66528]
X-8.77891 Y-3.24945 Z[#3+-0.04000]
#1=[#530+[#531-#530]*0.27572]
#2=[#536+[#537-#536]*0.27572]
#3=[#1+[#2-#1]*0.66528]
X-8.77891 Y-3.25055 Z[#3+-0.04000]
#1=[#530+[#531-#530]*0.27289]
#2=[#536+[#537-#536]*0.27289]
#3=[#1+[#2-#1]*0.66592]
X-8.77866 Y-3.25163 Z[#3+-0.04000]
#1=[#530+[#531-#530]*0.27026]
#2=[#536+[#537-#536]*0.27026]
#3=[#1+[#2-#1]*0.66717]
X-8.77818 Y-3.25262 Z[#3+-0.04000]
#1=[#530+[#531-#530]*0.26799]
#2=[#536+[#537-#536]*0.26799]
#3=[#1+[#2-#1]*0.66896]
X-8.77749 Y-3.25348 Z[#3+-0.04000]
#1=[#530+[#531-#530]*0.14505]
#2=[#536+[#537-#536]*0.14505]
#3=[#1+[#2-#1]*0.79019]
X-8.73097 Y-3.30000 Z[#3+-0.04000]
#1=[#530+[#531-#530]*0.02212]
#2=[#536+[#537-#536]*0.02212]
#3=[#1+[#2-#1]*0.66896]
X-8.77749 Y-3.34652 Z[#3+-0.04000]
#1=[#530+[#531-#530]*0.01984]
#2=[#536+[#537-#536]*0.01984]
#3=[#1+[#2-#1]*0.66717]
X-8.77818 Y-3.34738 Z[#3+-0.04000]
#1=[#530+[#531-#530]*0.01722]
#2=[#536+[#537-#536]*0.01722]
#3=[#1+[#2-#1]*0.66592]
X-8.77866 Y-3.34837 Z[#3+-0.04000]
#1=[#530+[#531-#530]*0.01438]
#2=[#536+[#537-#536]*0.01438]
#3=[#1+[#2-#1]*0.66528]
X-8.77891 Y-3.34945 Z[#3+-0.04000]
#1=[#530+[#531-#530]*0.01147]
#2=[#536+[#537-#536]*0.01147]
#3=[#1+[#2-#1]*0.66528]
X-8.77891 Y-3.35055 Z[#3+-0.04000]
#1=[#530+[#531-#530]*0.00863]
#2=[#536+[#537-#536]*0.00863]
#3=[#1+[#2-#1]*0.66592]
X-8.77866 Y-3.35162 Z[#3+-0.04000]
#1=[#530+[#531-#530]*0.00600]
#2=[#536+[#537-#536]*0.00600]
#3=[#1+[#2-#1]*0.66717]
X-8.77818 Y-3.35262 Z[#3+-0.04000]
#1=[#530+[#531-#530]*0.00373]
#2=[#536+[#537-#536]*0.00373]
#3=[#1+[#2-#1]*0.66896]
X-8.77749 Y-3.35348 Z[#3+-0.04000]
#1=[#530+[#531-#530]*0.00191]
#2=[#536+[#537-#536]*0.00191]
#3=[#1+[#2-#1]*0.67121]
X-8.77663 Y-3.35417 Z[#3+-0.04000]
#1=[#530+[#531-#530]*0.00065]
#2=[#536+[#537-#536]*0.00065]
#3=[#1+[#2-#1]*0.67379]
X-8.77564 Y-3.35465 Z[#3+-0.04000]
#1=[#530+[#531-#530]*0.00000]
#2=[#536+[#537-#536]*0.00000]
#3=[#1+[#2-#1]*0.67659]
X-8.77457 Y-3.35489 Z[#3+-0.04000]
#1=[#530+[#531-#530]*0.00000]
#2=[#536+[#537-#536]*0.00000]
#3=[#1+[#2-#1]*0.67947]
X-8.77346 Y-3.35489 Z[#3+-0.04000]
#1=[#530+[#531-#530]*0.00065]
#2=[#536+[#537-#536]*0.00065]
#3=[#1+[#2-#1]*0.68227]
X-8.77239 Y-3.35465 Z[#3+-0.04000]
#1=[#530+[#531-#530]*0.00191]
#2=[#536+[#537-#536]*0.00191]
#3=[#1+[#2-#1]*0.68485]
X-8.77140 Y-3.35417 Z[#3+-0.04000]
#1=[#530+[#531-#530]*0.00373]
#2=[#536+[#537-#536]*0.00373]
#3=[#1+[#2-#1]*0.68710]
X-8.77054 Y-3.35348 Z[#3+-0.04000]
#1=[#530+[#531-#530]*0.12666]
#2=[#536+[#537-#536]*0.12666]
#3=[#1+[#2-#1]*0.80832]
X-8.72402 Y-3.30696 Z[#3+-0.04000]
#1=[#530+[#531-#530]*0.00373]
#2=[#536+[#537-#536]*0.00373]
#3=[#1+[#2-#1]*0.92955]
X-8.67749 Y-3.35348 Z[#3+-0.04000]
#1=[#530+[#531-#530]*0.00191]
#2=[#536+[#537-#536]*0.00191]
#3=[#1+[#2-#1]*0.93180]
X-8.67663 Y-3.35417 Z[#3+-0.04000]
#1=[#530+[#531-#530]*0.00065]
#2=[#536+[#537-#536]*0.00065]
#3=[#1+[#2-#1]*0.93438]
X-8.67564 Y-3.35465 Z[#3+-0.04000]
#1=[#530+[#531-#530]*0.00000]
