( pcb2gcode 2.1.0 )
( Gcode for custom )

G94 ( Inches per minute feed rate. )
G20 ( Units == INCHES. )

G90 ( Absolute coordinates. )
G00 S12000 ( RPM spindle speed. )
G64 P0.00040 ( set maximum deviation from commanded toolpath )
G01 F360.00000 ( Feedrate. )

#107 = #5211
#108 = #5212

(MSG, Attach the probe tool)
M0 ( Temporary machine stop. )
G0 Z0.080 ( Move Z to safe height )
G0 X-10.95295 Y-3.35492 ( Move XY to start point )
G0 Z0.080 ( Move Z to probe height )
G38.2 Z-0.1 F2.362205 ( Z-probe )
#500 = 0 ( Probe point [0, 0] is our reference )
G92 Z0 ( Set the current Z as zero-value )

( We now start the real probing: move the Z axis to the probing height, move to )
( the probing XY position, probe it and save the result, parameter #2002, )
( in a numbered parameter; we will make 17 probes on the X-axis and )
( 6 probes on the Y-axis, for a grand total of 102 probes )

G0 Z0.080
X-10.95295 Y-2.97650
G38.2 Z-0.1 F2.362205
#501=#2002
G0 Z0.080
X-10.95295 Y-2.59807
G38.2 Z-0.1 F2.362205
#502=#2002
G0 Z0.080
X-10.95295 Y-2.21965
G38.2 Z-0.1 F2.362205
#503=#2002
G0 Z0.080
X-10.95295 Y-1.84123
G38.2 Z-0.1 F2.362205
#504=#2002
G0 Z0.080
X-10.95295 Y-1.46280
G38.2 Z-0.1 F2.362205
#505=#2002
G0 Z0.080
X-10.56921 Y-1.46280
G38.2 Z-0.1 F2.362205
#511=#2002
G0 Z0.080
X-10.56921 Y-1.84123
G38.2 Z-0.1 F2.362205
#510=#2002
G0 Z0.080
X-10.56921 Y-2.21965
G38.2 Z-0.1 F2.362205
#509=#2002
G0 Z0.080
X-10.56921 Y-2.59807
G38.2 Z-0.1 F2.362205
#508=#2002
G0 Z0.080
X-10.56921 Y-2.97650
G38.2 Z-0.1 F2.362205
#507=#2002
G0 Z0.080
X-10.56921 Y-3.35492
G38.2 Z-0.1 F2.362205
#506=#2002
G0 Z0.080
X-10.18546 Y-3.35492
G38.2 Z-0.1 F2.362205
#512=#2002
G0 Z0.080
X-10.18546 Y-2.97650
G38.2 Z-0.1 F2.362205
#513=#2002
G0 Z0.080
X-10.18546 Y-2.59807
G38.2 Z-0.1 F2.362205
#514=#2002
G0 Z0.080
X-10.18546 Y-2.21965
G38.2 Z-0.1 F2.362205
#515=#2002
G0 Z0.080
X-10.18546 Y-1.84123
G38.2 Z-0.1 F2.362205
#516=#2002
G0 Z0.080
X-10.18546 Y-1.46280
G38.2 Z-0.1 F2.362205
#517=#2002
G0 Z0.080
X-9.80171 Y-1.46280
G38.2 Z-0.1 F2.362205
#523=#2002
G0 Z0.080
X-9.80171 Y-1.84123
G38.2 Z-0.1 F2.362205
#522=#2002
G0 Z0.080
X-9.80171 Y-2.21965
G38.2 Z-0.1 F2.362205
#521=#2002
G0 Z0.080
X-9.80171 Y-2.59807
G38.2 Z-0.1 F2.362205
#520=#2002
G0 Z0.080
X-9.80171 Y-2.97650
G38.2 Z-0.1 F2.362205
#519=#2002
G0 Z0.080
X-9.80171 Y-3.35492
G38.2 Z-0.1 F2.362205
#518=#2002
G0 Z0.080
X-9.41797 Y-3.35492
G38.2 Z-0.1 F2.362205
#524=#2002
G0 Z0.080
X-9.41797 Y-2.97650
G38.2 Z-0.1 F2.362205
#525=#2002
G0 Z0.080
X-9.41797 Y-2.59807
G38.2 Z-0.1 F2.362205
#526=#2002
G0 Z0.080
X-9.41797 Y-2.21965
G38.2 Z-0.1 F2.362205
#527=#2002
G0 Z0.080
X-9.41797 Y-1.84123
G38.2 Z-0.1 F2.362205
#528=#2002
G0 Z0.080
X-9.41797 Y-1.46280
G38.2 Z-0.1 F2.362205
#529=#2002
G0 Z0.080
X-9.03422 Y-1.46280
G38.2 Z-0.1 F2.362205
#535=#2002
G0 Z0.080
X-9.03422 Y-1.84123
G38.2 Z-0.1 F2.362205
#534=#2002
G0 Z0.080
X-9.03422 Y-2.21965
G38.2 Z-0.1 F2.362205
#533=#2002
G0 Z0.080
X-9.03422 Y-2.59807
G38.2 Z-0.1 F2.362205
#532=#2002
G0 Z0.080
X-9.03422 Y-2.97650
G38.2 Z-0.1 F2.362205
#531=#2002
G0 Z0.080
X-9.03422 Y-3.35492
G38.2 Z-0.1 F2.362205
#530=#2002
G0 Z0.080
X-8.65047 Y-3.35492
G38.2 Z-0.1 F2.362205
#536=#2002
G0 Z0.080
X-8.65047 Y-2.97650
G38.2 Z-0.1 F2.362205
#537=#2002
G0 Z0.080
X-8.65047 Y-2.59807
G38.2 Z-0.1 F2.362205
#538=#2002
G0 Z0.080
X-8.65047 Y-2.21965
G38.2 Z-0.1 F2.362205
#539=#2002
G0 Z0.080
X-8.65047 Y-1.84123
G38.2 Z-0.1 F2.362205
#540=#2002
G0 Z0.080
X-8.65047 Y-1.46280
G38.2 Z-0.1 F2.362205
#541=#2002
G0 Z0.080
X-8.26673 Y-1.46280
G38.2 Z-0.1 F2.362205
#547=#2002
G0 Z0.080
X-8.26673 Y-1.84123
G38.2 Z-0.1 F2.362205
#546=#2002
G0 Z0.080
X-8.26673 Y-2.21965
G38.2 Z-0.1 F2.362205
#545=#2002
G0 Z0.080
X-8.26673 Y-2.59807
G38.2 Z-0.1 F2.362205
#544=#2002
G0 Z0.080
X-8.26673 Y-2.97650
G38.2 Z-0.1 F2.362205
#543=#2002
G0 Z0.080
X-8.26673 Y-3.35492
G38.2 Z-0.1 F2.362205
#542=#2002
G0 Z0.080
X-7.88298 Y-3.35492
G38.2 Z-0.1 F2.362205
#548=#2002
G0 Z0.080
X-7.88298 Y-2.97650
G38.2 Z-0.1 F2.362205
#549=#2002
G0 Z0.080
X-7.88298 Y-2.59807
G38.2 Z-0.1 F2.362205
#550=#2002
G0 Z0.080
X-7.88298 Y-2.21965
G38.2 Z-0.1 F2.362205
#551=#2002
G0 Z0.080
X-7.88298 Y-1.84123
G38.2 Z-0.1 F2.362205
#552=#2002
G0 Z0.080
X-7.88298 Y-1.46280
G38.2 Z-0.1 F2.362205
#553=#2002
G0 Z0.080
X-7.49923 Y-1.46280
G38.2 Z-0.1 F2.362205
#559=#2002
G0 Z0.080
X-7.49923 Y-1.84123
G38.2 Z-0.1 F2.362205
#558=#2002
G0 Z0.080
X-7.49923 Y-2.21965
G38.2 Z-0.1 F2.362205
#557=#2002
G0 Z0.080
X-7.49923 Y-2.59807
G38.2 Z-0.1 F2.362205
#556=#2002
G0 Z0.080
X-7.49923 Y-2.97650
G38.2 Z-0.1 F2.362205
#555=#2002
G0 Z0.080
X-7.49923 Y-3.35492
G38.2 Z-0.1 F2.362205
#554=#2002
G0 Z0.080
X-7.11549 Y-3.35492
G38.2 Z-0.1 F2.362205
#560=#2002
G0 Z0.080
X-7.11549 Y-2.97650
G38.2 Z-0.1 F2.362205
#561=#2002
G0 Z0.080
X-7.11549 Y-2.59807
G38.2 Z-0.1 F2.362205
#562=#2002
G0 Z0.080
X-7.11549 Y-2.21965
G38.2 Z-0.1 F2.362205
#563=#2002
G0 Z0.080
X-7.11549 Y-1.84123
G38.2 Z-0.1 F2.362205
#564=#2002
G0 Z0.080
X-7.11549 Y-1.46280
G38.2 Z-0.1 F2.362205
#565=#2002
G0 Z0.080
X-6.73174 Y-1.46280
G38.2 Z-0.1 F2.362205
#571=#2002
G0 Z0.080
X-6.73174 Y-1.84123
G38.2 Z-0.1 F2.362205
#570=#2002
G0 Z0.080
X-6.73174 Y-2.21965
G38.2 Z-0.1 F2.362205
#569=#2002
G0 Z0.080
X-6.73174 Y-2.59807
G38.2 Z-0.1 F2.362205
#568=#2002
G0 Z0.080
X-6.73174 Y-2.97650
G38.2 Z-0.1 F2.362205
#567=#2002
G0 Z0.080
X-6.73174 Y-3.35492
G38.2 Z-0.1 F2.362205
#566=#2002
G0 Z0.080
X-6.34799 Y-3.35492
G38.2 Z-0.1 F2.362205
#572=#2002
G0 Z0.080
X-6.34799 Y-2.97650
G38.2 Z-0.1 F2.362205
#573=#2002
G0 Z0.080
X-6.34799 Y-2.59807
G38.2 Z-0.1 F2.362205
#574=#2002
G0 Z0.080
X-6.34799 Y-2.21965
G38.2 Z-0.1 F2.362205
#575=#2002
G0 Z0.080
X-6.34799 Y-1.84123
G38.2 Z-0.1 F2.362205
#576=#2002
G0 Z0.080
X-6.34799 Y-1.46280
G38.2 Z-0.1 F2.362205
#577=#2002
G0 Z0.080
X-5.96425 Y-1.46280
G38.2 Z-0.1 F2.362205
#583=#2002
G0 Z0.080
X-5.96425 Y-1.84123
G38.2 Z-0.1 F2.362205
#582=#2002
G0 Z0.080
X-5.96425 Y-2.21965
G38.2 Z-0.1 F2.362205
#581=#2002
G0 Z0.080
X-5.96425 Y-2.59807
G38.2 Z-0.1 F2.362205
#580=#2002
G0 Z0.080
X-5.96425 Y-2.97650
G38.2 Z-0.1 F2.362205
#579=#2002
G0 Z0.080
X-5.96425 Y-3.35492
G38.2 Z-0.1 F2.362205
#578=#2002
G0 Z0.080
X-5.58050 Y-3.35492
G38.2 Z-0.1 F2.362205
#584=#2002
G0 Z0.080
X-5.58050 Y-2.97650
G38.2 Z-0.1 F2.362205
#585=#2002
G0 Z0.080
X-5.58050 Y-2.59807
G38.2 Z-0.1 F2.362205
#586=#2002
G0 Z0.080
X-5.58050 Y-2.21965
G38.2 Z-0.1 F2.362205
#587=#2002
G0 Z0.080
X-5.58050 Y-1.84123
G38.2 Z-0.1 F2.362205
#588=#2002
G0 Z0.080
X-5.58050 Y-1.46280
G38.2 Z-0.1 F2.362205
#589=#2002
G0 Z0.080
X-5.19676 Y-1.46280
G38.2 Z-0.1 F2.362205
#595=#2002
G0 Z0.080
X-5.19676 Y-1.84123
G38.2 Z-0.1 F2.362205
#594=#2002
G0 Z0.080
X-5.19676 Y-2.21965
G38.2 Z-0.1 F2.362205
#593=#2002
G0 Z0.080
X-5.19676 Y-2.59807
G38.2 Z-0.1 F2.362205
#592=#2002
G0 Z0.080
X-5.19676 Y-2.97650
G38.2 Z-0.1 F2.362205
#591=#2002
G0 Z0.080
X-5.19676 Y-3.35492
G38.2 Z-0.1 F2.362205
#590=#2002
G0 Z0.080
X-4.81301 Y-3.35492
G38.2 Z-0.1 F2.362205
#596=#2002
G0 Z0.080
X-4.81301 Y-2.97650
G38.2 Z-0.1 F2.362205
#597=#2002
G0 Z0.080
X-4.81301 Y-2.59807
G38.2 Z-0.1 F2.362205
#598=#2002
G0 Z0.080
X-4.81301 Y-2.21965
G38.2 Z-0.1 F2.362205
#599=#2002
G0 Z0.080
X-4.81301 Y-1.84123
G38.2 Z-0.1 F2.362205
#600=#2002
G0 Z0.080
X-4.81301 Y-1.46280
G38.2 Z-0.1 F2.362205
#601=#2002

G0 Z0.080 ( Move Z to safe height )
( Probing has ended, each Z-coordinate will be corrected with a bilinear interpolation )
(MSG, Detach the probe tool)
M0 ( Temporary machine stop. )


G00 Z1.00000 (Retract to tool change height)
T0
M5      (Spindle stop.)
G04 P1.00000 (Wait for spindle to stop)
(MSG, Change tool bit to mill diameter 0.00000in)
M6      (Tool change.)
M0      (Temporary machine stop.)
M3 ( Spindle on clockwise. )
G04 P1.00000 (Wait for spindle to get up to speed)
( Piece #1, position [0;0] )

G04 P0 ( dwell for no time -- G64 should not smooth over this point )
G00 Z0.08000 ( retract )

G00 X-9.16104 Y-2.94286 ( rapid move to begin. )
G01 F180.00000
( Mill infeed pass 1/1 )
#1=[#525+[#526-#525]*0.08890]
#2=[#531+[#532-#531]*0.08890]
#3=[#1+[#2-#1]*0.66952]
G01 Z[-0.04000+#100]
G04 P0 ( dwell for no time -- G64 should not smooth over this point )
G01 F360.00000
#1=[#525+[#526-#525]*0.06860]
#2=[#531+[#532-#531]*0.06860]
#3=[#1+[#2-#1]*0.66755]
X-9.16180 Y-2.95054 Z[#3+-0.04000]
#1=[#525+[#526-#525]*0.04908]
#2=[#531+[#532-#531]*0.04908]
#3=[#1+[#2-#1]*0.66171]
X-9.16404 Y-2.95792 Z[#3+-0.04000]
#1=[#525+[#526-#525]*0.03110]
#2=[#531+[#532-#531]*0.03110]
#3=[#1+[#2-#1]*0.65223]
X-9.16768 Y-2.96473 Z[#3+-0.04000]
#1=[#525+[#526-#525]*0.01533]
#2=[#531+[#532-#531]*0.01533]
#3=[#1+[#2-#1]*0.63947]
X-9.17257 Y-2.97070 Z[#3+-0.04000]
#1=[#525+[#526-#525]*0.00000]
#2=[#531+[#532-#531]*0.00000]
#3=[#1+[#2-#1]*0.62435]
X-9.17837 Y-2.97650 Z[#3+-0.04000]
#1=[#524+[#525-#524]*0.70163]
#2=[#530+[#531-#530]*0.70163]
#3=[#1+[#2-#1]*0.33012]
X-9.29128 Y-3.08941 Z[#3+-0.04000]
#1=[#524+[#525-#524]*0.27047]
#2=[#530+[#531-#530]*0.27047]
#3=[#1+[#2-#1]*0.64900]
X-9.16891 Y-3.25257 Z[#3+-0.04000]
#1=[#524+[#525-#524]*0.25304]
#2=[#530+[#531-#530]*0.25304]
#3=[#1+[#2-#1]*0.65943]
X-9.16491 Y-3.25917 Z[#3+-0.04000]
#1=[#524+[#525-#524]*0.23387]
#2=[#530+[#531-#530]*0.23387]
#3=[#1+[#2-#1]*0.66631]
X-9.16227 Y-3.26642 Z[#3+-0.04000]
#1=[#524+[#525-#524]*0.21371]
#2=[#530+[#531-#530]*0.21371]
#3=[#1+[#2-#1]*0.66937]
X-9.16110 Y-3.27405 Z[#3+-0.04000]
#1=[#524+[#525-#524]*0.19334]
#2=[#530+[#531-#530]*0.19334]
#3=[#1+[#2-#1]*0.66849]
X-9.16144 Y-3.28176 Z[#3+-0.04000]
#1=[#524+[#525-#524]*0.17353]
#2=[#530+[#531-#530]*0.17353]
#3=[#1+[#2-#1]*0.66371]
X-9.16327 Y-3.28925 Z[#3+-0.04000]
#1=[#524+[#525-#524]*0.15505]
#2=[#530+[#531-#530]*0.15505]
#3=[#1+[#2-#1]*0.65520]
X-9.16653 Y-3.29625 Z[#3+-0.04000]
#1=[#524+[#525-#524]*0.13860]
#2=[#530+[#531-#530]*0.13860]
#3=[#1+[#2-#1]*0.64331]
X-9.17110 Y-3.30247 Z[#3+-0.04000]
#1=[#524+[#525-#524]*0.12482]
#2=[#530+[#531-#530]*0.12482]
#3=[#1+[#2-#1]*0.62848]
X-9.17679 Y-3.30769 Z[#3+-0.04000]
#1=[#524+[#525-#524]*0.11424]
#2=[#530+[#531-#530]*0.11424]
#3=[#1+[#2-#1]*0.61129]
X-9.18339 Y-3.31169 Z[#3+-0.04000]
#1=[#524+[#525-#524]*0.10727]
#2=[#530+[#531-#530]*0.10727]
#3=[#1+[#2-#1]*0.59239]
X-9.19064 Y-3.31433 Z[#3+-0.04000]
#1=[#524+[#525-#524]*0.10417]
#2=[#530+[#531-#530]*0.10417]
#3=[#1+[#2-#1]*0.57251]
X-9.19827 Y-3.31550 Z[#3+-0.04000]
#1=[#524+[#525-#524]*0.10506]
#2=[#530+[#531-#530]*0.10506]
#3=[#1+[#2-#1]*0.55242]
X-9.20598 Y-3.31516 Z[#3+-0.04000]
#1=[#524+[#525-#524]*0.10991]
#2=[#530+[#531-#530]*0.10991]
#3=[#1+[#2-#1]*0.53288]
X-9.21348 Y-3.31333 Z[#3+-0.04000]
#1=[#524+[#525-#524]*0.11853]
#2=[#530+[#531-#530]*0.11853]
#3=[#1+[#2-#1]*0.51466]
X-9.22047 Y-3.31007 Z[#3+-0.04000]
#1=[#524+[#525-#524]*0.13059]
#2=[#530+[#531-#530]*0.13059]
#3=[#1+[#2-#1]*0.49844]
X-9.22669 Y-3.30550 Z[#3+-0.04000]
#1=[#524+[#525-#524]*0.14563]
#2=[#530+[#531-#530]*0.14563]
#3=[#1+[#2-#1]*0.48485]
X-9.23191 Y-3.29981 Z[#3+-0.04000]
#1=[#524+[#525-#524]*0.55300]
#2=[#530+[#531-#530]*0.55300]
#3=[#1+[#2-#1]*0.18355]
X-9.34753 Y-3.14565 Z[#3+-0.04000]
#1=[#524+[#525-#524]*0.54246]
#2=[#530+[#531-#530]*0.54246]
#3=[#1+[#2-#1]*0.17316]
X-9.35152 Y-3.14964 Z[#3+-0.04000]
#1=[#524+[#525-#524]*0.20805]
#2=[#530+[#531-#530]*0.20805]
#3=[#1+[#2-#1]*0.17316]
X-9.35152 Y-3.27619 Z[#3+-0.04000]
#1=[#524+[#525-#524]*0.18776]
#2=[#530+[#531-#530]*0.18776]
#3=[#1+[#2-#1]*0.17119]
X-9.35227 Y-3.28387 Z[#3+-0.04000]
#1=[#524+[#525-#524]*0.16824]
#2=[#530+[#531-#530]*0.16824]
#3=[#1+[#2-#1]*0.16535]
X-9.35451 Y-3.29126 Z[#3+-0.04000]
#1=[#524+[#525-#524]*0.15025]
#2=[#530+[#531-#530]*0.15025]
#3=[#1+[#2-#1]*0.15587]
X-9.35815 Y-3.29806 Z[#3+-0.04000]
#1=[#524+[#525-#524]*0.13449]
#2=[#530+[#531-#530]*0.13449]
#3=[#1+[#2-#1]*0.14311]
X-9.36305 Y-3.30403 Z[#3+-0.04000]
#1=[#524+[#525-#524]*0.12155]
#2=[#530+[#531-#530]*0.12155]
#3=[#1+[#2-#1]*0.12756]
X-9.36902 Y-3.30892 Z[#3+-0.04000]
#1=[#524+[#525-#524]*0.11193]
#2=[#530+[#531-#530]*0.11193]
#3=[#1+[#2-#1]*0.10983]
X-9.37582 Y-3.31256 Z[#3+-0.04000]
#1=[#524+[#525-#524]*0.10601]
#2=[#530+[#531-#530]*0.10601]
#3=[#1+[#2-#1]*0.09058]
X-9.38321 Y-3.31480 Z[#3+-0.04000]
#1=[#524+[#525-#524]*0.10401]
#2=[#530+[#531-#530]*0.10401]
#3=[#1+[#2-#1]*0.07056]
X-9.39089 Y-3.31556 Z[#3+-0.04000]
#1=[#524+[#525-#524]*0.10601]
#2=[#530+[#531-#530]*0.10601]
#3=[#1+[#2-#1]*0.05055]
X-9.39857 Y-3.31480 Z[#3+-0.04000]
#1=[#524+[#525-#524]*0.11193]
#2=[#530+[#531-#530]*0.11193]
#3=[#1+[#2-#1]*0.03130]
X-9.40595 Y-3.31256 Z[#3+-0.04000]
#1=[#524+[#525-#524]*0.12155]
#2=[#530+[#531-#530]*0.12155]
#3=[#1+[#2-#1]*0.01357]
X-9.41276 Y-3.30892 Z[#3+-0.04000]
#1=[#524+[#525-#524]*0.13284]
#2=[#530+[#531-#530]*0.13284]
#3=[#1+[#2-#1]*0.00000]
X-9.41797 Y-3.30465 Z[#3+-0.04000]
#1=[#518+[#519-#518]*0.13449]
#2=[#524+[#525-#524]*0.13449]
#3=[#1+[#2-#1]*0.99802]
X-9.41873 Y-3.30403 Z[#3+-0.04000]
#1=[#518+[#519-#518]*0.15025]
#2=[#524+[#525-#524]*0.15025]
#3=[#1+[#2-#1]*0.98526]
X-9.42362 Y-3.29806 Z[#3+-0.04000]
#1=[#518+[#519-#518]*0.16824]
#2=[#524+[#525-#524]*0.16824]
#3=[#1+[#2-#1]*0.97578]
X-9.42726 Y-3.29126 Z[#3+-0.04000]
#1=[#518+[#519-#518]*0.18776]
#2=[#524+[#525-#524]*0.18776]
#3=[#1+[#2-#1]*0.96994]
X-9.42950 Y-3.28387 Z[#3+-0.04000]
#1=[#518+[#519-#518]*0.20805]
#2=[#524+[#525-#524]*0.20805]
#3=[#1+[#2-#1]*0.96797]
X-9.43026 Y-3.27619 Z[#3+-0.04000]
#1=[#519+[#520-#519]*0.00000]
#2=[#525+[#526-#525]*0.00000]
#3=[#1+[#2-#1]*0.96797]
X-9.43026 Y-2.97650 Z[#3+-0.04000]
#1=[#519+[#520-#519]*0.52932]
#2=[#525+[#526-#525]*0.52932]
#3=[#1+[#2-#1]*0.96797]
X-9.43026 Y-2.77619 Z[#3+-0.04000]
#1=[#519+[#520-#519]*0.54962]
#2=[#525+[#526-#525]*0.54962]
#3=[#1+[#2-#1]*0.96994]
X-9.42950 Y-2.76851 Z[#3+-0.04000]
#1=[#519+[#520-#519]*0.56914]
#2=[#525+[#526-#525]*0.56914]
#3=[#1+[#2-#1]*0.97578]
X-9.42726 Y-2.76112 Z[#3+-0.04000]
#1=[#519+[#520-#519]*0.58712]
#2=[#525+[#526-#525]*0.58712]
#3=[#1+[#2-#1]*0.98526]
X-9.42362 Y-2.75432 Z[#3+-0.04000]
#1=[#519+[#520-#519]*0.60289]
#2=[#525+[#526-#525]*0.60289]
#3=[#1+[#2-#1]*0.99802]
X-9.41873 Y-2.74835 Z[#3+-0.04000]
#1=[#525+[#526-#525]*0.60453]
#2=[#531+[#532-#531]*0.60453]
#3=[#1+[#2-#1]*0.00000]
X-9.41797 Y-2.74773 Z[#3+-0.04000]
#1=[#525+[#526-#525]*0.61583]
#2=[#531+[#532-#531]*0.61583]
#3=[#1+[#2-#1]*0.01357]
X-9.41276 Y-2.74345 Z[#3+-0.04000]
#1=[#525+[#526-#525]*0.62544]
#2=[#531+[#532-#531]*0.62544]
#3=[#1+[#2-#1]*0.03130]
X-9.40595 Y-2.73982 Z[#3+-0.04000]
#1=[#525+[#526-#525]*0.63136]
#2=[#531+[#532-#531]*0.63136]
#3=[#1+[#2-#1]*0.05055]
X-9.39857 Y-2.73758 Z[#3+-0.04000]
#1=[#525+[#526-#525]*0.63336]
#2=[#531+[#532-#531]*0.63336]
#3=[#1+[#2-#1]*0.07056]
X-9.39089 Y-2.73682 Z[#3+-0.04000]
#1=[#525+[#526-#525]*0.63136]
#2=[#531+[#532-#531]*0.63136]
#3=[#1+[#2-#1]*0.09058]
X-9.38321 Y-2.73758 Z[#3+-0.04000]
#1=[#525+[#526-#525]*0.62544]
#2=[#531+[#532-#531]*0.62544]
#3=[#1+[#2-#1]*0.10983]
X-9.37582 Y-2.73982 Z[#3+-0.04000]
#1=[#525+[#526-#525]*0.61583]
#2=[#531+[#532-#531]*0.61583]
#3=[#1+[#2-#1]*0.12756]
X-9.36902 Y-2.74345 Z[#3+-0.04000]
#1=[#525+[#526-#525]*0.60289]
#2=[#531+[#532-#531]*0.60289]
#3=[#1+[#2-#1]*0.14311]
X-9.36305 Y-2.74835 Z[#3+-0.04000]
#1=[#525+[#526-#525]*0.58712]
#2=[#531+[#532-#531]*0.58712]
#3=[#1+[#2-#1]*0.15587]
X-9.35815 Y-2.75432 Z[#3+-0.04000]
#1=[#525+[#526-#525]*0.56914]
#2=[#531+[#532-#531]*0.56914]
#3=[#1+[#2-#1]*0.16535]
X-9.35451 Y-2.76112 Z[#3+-0.04000]
#1=[#525+[#526-#525]*0.54962]
#2=[#531+[#532-#531]*0.54962]
#3=[#1+[#2-#1]*0.17119]
X-9.35227 Y-2.76851 Z[#3+-0.04000]
#1=[#525+[#526-#525]*0.52932]
#2=[#531+[#532-#531]*0.52932]
#3=[#1+[#2-#1]*0.17316]
X-9.35152 Y-2.77619 Z[#3+-0.04000]
#1=[#525+[#526-#525]*0.00000]
#2=[#531+[#532-#531]*0.00000]
#3=[#1+[#2-#1]*0.17316]
X-9.35152 Y-2.97650 Z[#3+-0.04000]
#1=[#524+[#525-#524]*0.83672]
#2=[#530+[#531-#530]*0.83672]
#3=[#1+[#2-#1]*0.17316]
X-9.35152 Y-3.03829 Z[#3+-0.04000]
#1=[#525+[#526-#525]*0.00000]
#2=[#531+[#532-#531]*0.00000]
#3=[#1+[#2-#1]*0.33417]
X-9.28973 Y-2.97650 Z[#3+-0.04000]
#1=[#525+[#526-#525]*0.16246]
#2=[#531+[#532-#531]*0.16246]
#3=[#1+[#2-#1]*0.49438]
X-9.22825 Y-2.91502 Z[#3+-0.04000]
#1=[#525+[#526-#525]*0.17540]
#2=[#531+[#532-#531]*0.17540]
#3=[#1+[#2-#1]*0.50993]
X-9.22228 Y-2.91012 Z[#3+-0.04000]
#1=[#525+[#526-#525]*0.18502]
#2=[#531+[#532-#531]*0.18502]
#3=[#1+[#2-#1]*0.52766]
X-9.21548 Y-2.90648 Z[#3+-0.04000]
#1=[#525+[#526-#525]*0.19094]
#2=[#531+[#532-#531]*0.19094]
#3=[#1+[#2-#1]*0.54691]
X-9.20809 Y-2.90424 Z[#3+-0.04000]
#1=[#525+[#526-#525]*0.19294]
#2=[#531+[#532-#531]*0.19294]
#3=[#1+[#2-#1]*0.56692]
X-9.20041 Y-2.90349 Z[#3+-0.04000]
#1=[#525+[#526-#525]*0.19094]
#2=[#531+[#532-#531]*0.19094]
#3=[#1+[#2-#1]*0.58694]
X-9.19273 Y-2.90424 Z[#3+-0.04000]
#1=[#525+[#526-#525]*0.18502]
#2=[#531+[#532-#531]*0.18502]
#3=[#1+[#2-#1]*0.60619]
X-9.18534 Y-2.90648 Z[#3+-0.04000]
#1=[#525+[#526-#525]*0.17540]
#2=[#531+[#532-#531]*0.17540]
#3=[#1+[#2-#1]*0.62392]
X-9.17854 Y-2.91012 Z[#3+-0.04000]
#1=[#525+[#526-#525]*0.16246]
#2=[#531+[#532-#531]*0.16246]
#3=[#1+[#2-#1]*0.63947]
X-9.17257 Y-2.91502 Z[#3+-0.04000]
#1=[#525+[#526-#525]*0.14670]
#2=[#531+[#532-#531]*0.14670]
#3=[#1+[#2-#1]*0.65223]
X-9.16768 Y-2.92098 Z[#3+-0.04000]
#1=[#525+[#526-#525]*0.12871]
#2=[#531+[#532-#531]*0.12871]
#3=[#1+[#2-#1]*0.66171]
X-9.16404 Y-2.92779 Z[#3+-0.04000]
#1=[#525+[#526-#525]*0.10919]
#2=[#531+[#532-#531]*0.10919]
#3=[#1+[#2-#1]*0.66755]
X-9.16180 Y-2.93518 Z[#3+-0.04000]
#1=[#525+[#526-#525]*0.08890]
#2=[#531+[#532-#531]*0.08890]
#3=[#1+[#2-#1]*0.66952]
X-9.16104 Y-2.94286 Z[#3+-0.04000]
G04 P0 ( dwell for no time -- G64 should not smooth over this point )
G00 Z0.08000 ( retract )

G00 X-9.56590 Y-3.24959 ( rapid move to begin. )
G01 F180.00000
( Mill infeed pass 1/1 )
#1=[#518+[#519-#518]*0.27835]
#2=[#524+[#525-#524]*0.27835]
#3=[#1+[#2-#1]*0.61450]
G01 Z[-0.04000+#100]
G04 P0 ( dwell for no time -- G64 should not smooth over this point )
G01 F360.00000
#1=[#518+[#519-#518]*0.25796]
#2=[#524+[#525-#524]*0.25796]
#3=[#1+[#2-#1]*0.61395]
X-9.56611 Y-3.25730 Z[#3+-0.04000]
#1=[#518+[#519-#518]*0.23807]
#2=[#524+[#525-#524]*0.23807]
#3=[#1+[#2-#1]*0.60949]
X-9.56782 Y-3.26483 Z[#3+-0.04000]
#1=[#518+[#519-#518]*0.21945]
#2=[#524+[#525-#524]*0.21945]
#3=[#1+[#2-#1]*0.60129]
X-9.57097 Y-3.27188 Z[#3+-0.04000]
#1=[#518+[#519-#518]*0.20280]
#2=[#524+[#525-#524]*0.20280]
#3=[#1+[#2-#1]*0.58967]
X-9.57543 Y-3.27818 Z[#3+-0.04000]
#1=[#518+[#519-#518]*0.18878]
#2=[#524+[#525-#524]*0.18878]
#3=[#1+[#2-#1]*0.57506]
X-9.58103 Y-3.28348 Z[#3+-0.04000]
#1=[#518+[#519-#518]*0.17792]
#2=[#524+[#525-#524]*0.17792]
#3=[#1+[#2-#1]*0.55804]
X-9.58757 Y-3.28759 Z[#3+-0.04000]
#1=[#518+[#519-#518]*0.11500]
#2=[#524+[#525-#524]*0.11500]
#3=[#1+[#2-#1]*0.43395]
X-9.63518 Y-3.31140 Z[#3+-0.04000]
#1=[#518+[#519-#518]*0.10894]
#2=[#524+[#525-#524]*0.10894]
#3=[#1+[#2-#1]*0.41928]
X-9.64082 Y-3.31369 Z[#3+-0.04000]
#1=[#518+[#519-#518]*0.10526]
#2=[#524+[#525-#524]*0.10526]
#3=[#1+[#2-#1]*0.40386]
X-9.64673 Y-3.31509 Z[#3+-0.04000]
#1=[#518+[#519-#518]*0.10401]
#2=[#524+[#525-#524]*0.10401]
#3=[#1+[#2-#1]*0.38807]
X-9.65279 Y-3.31556 Z[#3+-0.04000]
#1=[#518+[#519-#518]*0.10401]
#2=[#524+[#525-#524]*0.10401]
#3=[#1+[#2-#1]*0.13989]
X-9.74803 Y-3.31556 Z[#3+-0.04000]
#1=[#518+[#519-#518]*0.10526]
#2=[#524+[#525-#524]*0.10526]
#3=[#1+[#2-#1]*0.12410]
X-9.75409 Y-3.31509 Z[#3+-0.04000]
#1=[#518+[#519-#518]*0.10894]
#2=[#524+[#525-#524]*0.10894]
#3=[#1+[#2-#1]*0.10868]
X-9.76001 Y-3.31369 Z[#3+-0.04000]
#1=[#518+[#519-#518]*0.11500]
#2=[#524+[#525-#524]*0.11500]
#3=[#1+[#2-#1]*0.09401]
X-9.76564 Y-3.31140 Z[#3+-0.04000]
#1=[#512+[#513-#512]*0.16266]
#2=[#518+[#519-#518]*0.16266]
#3=[#1+[#2-#1]*1.00000]
X-9.80171 Y-3.29337 Z[#3+-0.04000]
#1=[#512+[#513-#512]*0.17792]
#2=[#518+[#519-#518]*0.17792]
#3=[#1+[#2-#1]*0.96992]
X-9.81326 Y-3.28759 Z[#3+-0.04000]
#1=[#512+[#513-#512]*0.18657]
#2=[#518+[#519-#518]*0.18657]
#3=[#1+[#2-#1]*0.95581]
X-9.81867 Y-3.28432 Z[#3+-0.04000]
#1=[#512+[#513-#512]*0.19741]
#2=[#518+[#519-#518]*0.19741]
#3=[#1+[#2-#1]*0.94326]
X-9.82349 Y-3.28022 Z[#3+-0.04000]
#1=[#512+[#513-#512]*0.26032]
#2=[#518+[#519-#518]*0.26032]
#3=[#1+[#2-#1]*0.88121]
X-9.84730 Y-3.25641 Z[#3+-0.04000]
#1=[#512+[#513-#512]*0.27305]
#2=[#518+[#519-#518]*0.27305]
#3=[#1+[#2-#1]*0.87053]
X-9.85140 Y-3.25159 Z[#3+-0.04000]
#1=[#512+[#513-#512]*0.28736]
#2=[#518+[#519-#518]*0.28736]
#3=[#1+[#2-#1]*0.86199]
X-9.85467 Y-3.24618 Z[#3+-0.04000]
#1=[#512+[#513-#512]*0.41319]
#2=[#518+[#519-#518]*0.41319]
#3=[#1+[#2-#1]*0.79995]
X-9.87848 Y-3.19856 Z[#3+-0.04000]
#1=[#512+[#513-#512]*0.42807]
#2=[#518+[#519-#518]*0.42807]
#3=[#1+[#2-#1]*0.79398]
X-9.88077 Y-3.19293 Z[#3+-0.04000]
#1=[#512+[#513-#512]*0.44371]
#2=[#518+[#519-#518]*0.44371]
#3=[#1+[#2-#1]*0.79034]
X-9.88217 Y-3.18701 Z[#3+-0.04000]
#1=[#512+[#513-#512]*0.45972]
#2=[#518+[#519-#518]*0.45972]
#3=[#1+[#2-#1]*0.78911]
X-9.88264 Y-3.18095 Z[#3+-0.04000]
#1=[#512+[#513-#512]*0.83723]
#2=[#518+[#519-#518]*0.83723]
#3=[#1+[#2-#1]*0.78911]
X-9.88264 Y-3.03810 Z[#3+-0.04000]
#1=[#512+[#513-#512]*0.85324]
#2=[#518+[#519-#518]*0.85324]
#3=[#1+[#2-#1]*0.79034]
X-9.88217 Y-3.03203 Z[#3+-0.04000]
#1=[#512+[#513-#512]*0.86888]
#2=[#518+[#519-#518]*0.86888]
#3=[#1+[#2-#1]*0.79398]
X-9.88077 Y-3.02612 Z[#3+-0.04000]
#1=[#512+[#513-#512]*0.88376]
#2=[#518+[#519-#518]*0.88376]
#3=[#1+[#2-#1]*0.79995]
X-9.87848 Y-3.02049 Z[#3+-0.04000]
#1=[#513+[#514-#513]*0.00000]
#2=[#519+[#520-#519]*0.00000]
#3=[#1+[#2-#1]*0.85726]
X-9.85649 Y-2.97650 Z[#3+-0.04000]
#1=[#513+[#514-#513]*0.00959]
#2=[#519+[#520-#519]*0.00959]
#3=[#1+[#2-#1]*0.86199]
X-9.85467 Y-2.97287 Z[#3+-0.04000]
#1=[#513+[#514-#513]*0.02389]
#2=[#519+[#520-#519]*0.02389]
#3=[#1+[#2-#1]*0.87053]
X-9.85140 Y-2.96746 Z[#3+-0.04000]
#1=[#513+[#514-#513]*0.03663]
#2=[#519+[#520-#519]*0.03663]
#3=[#1+[#2-#1]*0.88121]
X-9.84730 Y-2.96264 Z[#3+-0.04000]
#1=[#513+[#514-#513]*0.09955]
#2=[#519+[#520-#519]*0.09955]
#3=[#1+[#2-#1]*0.94325]
X-9.82349 Y-2.93883 Z[#3+-0.04000]
#1=[#513+[#514-#513]*0.11038]
#2=[#519+[#520-#519]*0.11038]
#3=[#1+[#2-#1]*0.95581]
X-9.81867 Y-2.93473 Z[#3+-0.04000]
#1=[#513+[#514-#513]*0.11903]
#2=[#519+[#520-#519]*0.11903]
#3=[#1+[#2-#1]*0.96992]
X-9.81326 Y-2.93145 Z[#3+-0.04000]
#1=[#513+[#514-#513]*0.13429]
#2=[#519+[#520-#519]*0.13429]
#3=[#1+[#2-#1]*1.00000]
X-9.80171 Y-2.92568 Z[#3+-0.04000]
#1=[#519+[#520-#519]*0.18195]
#2=[#525+[#526-#525]*0.18195]
#3=[#1+[#2-#1]*0.09401]
X-9.76564 Y-2.90764 Z[#3+-0.04000]
#1=[#519+[#520-#519]*0.18800]
#2=[#525+[#526-#525]*0.18800]
#3=[#1+[#2-#1]*0.10868]
X-9.76001 Y-2.90535 Z[#3+-0.04000]
#1=[#519+[#520-#519]*0.19169]
#2=[#525+[#526-#525]*0.19169]
#3=[#1+[#2-#1]*0.12410]
X-9.75409 Y-2.90396 Z[#3+-0.04000]
#1=[#519+[#520-#519]*0.19294]
#2=[#525+[#526-#525]*0.19294]
#3=[#1+[#2-#1]*0.13989]
X-9.74803 Y-2.90349 Z[#3+-0.04000]
#1=[#519+[#520-#519]*0.19294]
#2=[#525+[#526-#525]*0.19294]
#3=[#1+[#2-#1]*0.38807]
X-9.65279 Y-2.90349 Z[#3+-0.04000]
#1=[#519+[#520-#519]*0.19169]
#2=[#525+[#526-#525]*0.19169]
#3=[#1+[#2-#1]*0.40386]
X-9.64673 Y-2.90396 Z[#3+-0.04000]
#1=[#519+[#520-#519]*0.18800]
#2=[#525+[#526-#525]*0.18800]
#3=[#1+[#2-#1]*0.41928]
X-9.64082 Y-2.90535 Z[#3+-0.04000]
#1=[#519+[#520-#519]*0.18195]
#2=[#525+[#526-#525]*0.18195]
#3=[#1+[#2-#1]*0.43395]
X-9.63519 Y-2.90764 Z[#3+-0.04000]
#1=[#519+[#520-#519]*0.11903]
#2=[#525+[#526-#525]*0.11903]
#3=[#1+[#2-#1]*0.55804]
X-9.58757 Y-2.93145 Z[#3+-0.04000]
#1=[#519+[#520-#519]*0.10817]
#2=[#525+[#526-#525]*0.10817]
#3=[#1+[#2-#1]*0.57506]
X-9.58103 Y-2.93556 Z[#3+-0.04000]
#1=[#519+[#520-#519]*0.09415]
#2=[#525+[#526-#525]*0.09415]
#3=[#1+[#2-#1]*0.58967]
X-9.57543 Y-2.94087 Z[#3+-0.04000]
#1=[#519+[#520-#519]*0.07750]
#2=[#525+[#526-#525]*0.07750]
#3=[#1+[#2-#1]*0.60129]
X-9.57097 Y-2.94717 Z[#3+-0.04000]
#1=[#519+[#520-#519]*0.05888]
#2=[#525+[#526-#525]*0.05888]
#3=[#1+[#2-#1]*0.60949]
X-9.56782 Y-2.95422 Z[#3+-0.04000]
#1=[#519+[#520-#519]*0.03899]
#2=[#525+[#526-#525]*0.03899]
#3=[#1+[#2-#1]*0.61395]
X-9.56611 Y-2.96174 Z[#3+-0.04000]
#1=[#519+[#520-#519]*0.01861]
#2=[#525+[#526-#525]*0.01861]
#3=[#1+[#2-#1]*0.61450]
X-9.56590 Y-2.96946 Z[#3+-0.04000]
#1=[#519+[#520-#519]*0.00000]
#2=[#525+[#526-#525]*0.00000]
#3=[#1+[#2-#1]*0.61137]
X-9.56710 Y-2.97650 Z[#3+-0.04000]
#1=[#518+[#519-#518]*0.99850]
#2=[#524+[#525-#524]*0.99850]
#3=[#1+[#2-#1]*0.61111]
X-9.56720 Y-2.97706 Z[#3+-0.04000]
#1=[#518+[#519-#518]*0.97946]
#2=[#524+[#525-#524]*0.97946]
#3=[#1+[#2-#1]*0.60392]
X-9.56996 Y-2.98427 Z[#3+-0.04000]
#1=[#518+[#519-#518]*0.96219]
#2=[#524+[#525-#524]*0.96219]
#3=[#1+[#2-#1]*0.59321]
X-9.57407 Y-2.99080 Z[#3+-0.04000]
#1=[#518+[#519-#518]*0.94739]
#2=[#524+[#525-#524]*0.94739]
#3=[#1+[#2-#1]*0.57938]
X-9.57938 Y-2.99641 Z[#3+-0.04000]
#1=[#518+[#519-#518]*0.93560]
#2=[#524+[#525-#524]*0.93560]
#3=[#1+[#2-#1]*0.56297]
X-9.58568 Y-3.00087 Z[#3+-0.04000]
#1=[#518+[#519-#518]*0.92728]
#2=[#524+[#525-#524]*0.92728]
#3=[#1+[#2-#1]*0.54461]
X-9.59272 Y-3.00401 Z[#3+-0.04000]
#1=[#518+[#519-#518]*0.92276]
#2=[#524+[#525-#524]*0.92276]
#3=[#1+[#2-#1]*0.52499]
X-9.60025 Y-3.00573 Z[#3+-0.04000]
#1=[#518+[#519-#518]*0.92220]
#2=[#524+[#525-#524]*0.92220]
#3=[#1+[#2-#1]*0.50489]
X-9.60796 Y-3.00594 Z[#3+-0.04000]
#1=[#518+[#519-#518]*0.92564]
#2=[#524+[#525-#524]*0.92564]
#3=[#1+[#2-#1]*0.48506]
X-9.61557 Y-3.00464 Z[#3+-0.04000]
#1=[#518+[#519-#518]*0.93293]
#2=[#524+[#525-#524]*0.93293]
#3=[#1+[#2-#1]*0.46628]
X-9.62278 Y-3.00188 Z[#3+-0.04000]
#1=[#518+[#519-#518]*0.98486]
#2=[#524+[#525-#524]*0.98486]
#3=[#1+[#2-#1]*0.36385]
X-9.66209 Y-2.98223 Z[#3+-0.04000]
#1=[#518+[#519-#518]*0.98486]
#2=[#524+[#525-#524]*0.98486]
#3=[#1+[#2-#1]*0.16411]
X-9.73874 Y-2.98223 Z[#3+-0.04000]
#1=[#518+[#519-#518]*0.94048]
#2=[#524+[#525-#524]*0.94048]
#3=[#1+[#2-#1]*0.07657]
X-9.77233 Y-2.99902 Z[#3+-0.04000]
#1=[#518+[#519-#518]*0.90144]
#2=[#524+[#525-#524]*0.90144]
#3=[#1+[#2-#1]*0.03807]
X-9.78710 Y-3.01380 Z[#3+-0.04000]
#1=[#512+[#513-#512]*0.82422]
#2=[#518+[#519-#518]*0.82422]
#3=[#1+[#2-#1]*1.00000]
X-9.80171 Y-3.04302 Z[#3+-0.04000]
#1=[#512+[#513-#512]*0.81267]
#2=[#518+[#519-#518]*0.81267]
#3=[#1+[#2-#1]*0.99431]
X-9.80390 Y-3.04739 Z[#3+-0.04000]
#1=[#512+[#513-#512]*0.48428]
#2=[#518+[#519-#518]*0.48428]
#3=[#1+[#2-#1]*0.99431]
X-9.80390 Y-3.17166 Z[#3+-0.04000]
#1=[#512+[#513-#512]*0.47273]
#2=[#518+[#519-#518]*0.47273]
#3=[#1+[#2-#1]*1.00000]
X-9.80171 Y-3.17603 Z[#3+-0.04000]
#1=[#518+[#519-#518]*0.39551]
#2=[#524+[#525-#524]*0.39551]
#3=[#1+[#2-#1]*0.03807]
X-9.78710 Y-3.20525 Z[#3+-0.04000]
#1=[#518+[#519-#518]*0.35647]
#2=[#524+[#525-#524]*0.35647]
#3=[#1+[#2-#1]*0.07657]
X-9.77233 Y-3.22002 Z[#3+-0.04000]
#1=[#518+[#519-#518]*0.31209]
#2=[#524+[#525-#524]*0.31209]
#3=[#1+[#2-#1]*0.16411]
X-9.73874 Y-3.23682 Z[#3+-0.04000]
#1=[#518+[#519-#518]*0.31209]
#2=[#524+[#525-#524]*0.31209]
#3=[#1+[#2-#1]*0.36385]
X-9.66209 Y-3.23682 Z[#3+-0.04000]
#1=[#518+[#519-#518]*0.36402]
#2=[#524+[#525-#524]*0.36402]
#3=[#1+[#2-#1]*0.46628]
X-9.62278 Y-3.21717 Z[#3+-0.04000]
#1=[#518+[#519-#518]*0.37131]
#2=[#524+[#525-#524]*0.37131]
#3=[#1+[#2-#1]*0.48506]
X-9.61557 Y-3.21441 Z[#3+-0.04000]
#1=[#518+[#519-#518]*0.37475]
#2=[#524+[#525-#524]*0.37475]
#3=[#1+[#2-#1]*0.50489]
X-9.60796 Y-3.21311 Z[#3+-0.04000]
#1=[#518+[#519-#518]*0.37419]
#2=[#524+[#525-#524]*0.37419]
#3=[#1+[#2-#1]*0.52499]
X-9.60025 Y-3.21332 Z[#3+-0.04000]
#1=[#518+[#519-#518]*0.36967]
#2=[#524+[#525-#524]*0.36967]
#3=[#1+[#2-#1]*0.54460]
X-9.59272 Y-3.21503 Z[#3+-0.04000]
#1=[#518+[#519-#518]*0.36135]
#2=[#524+[#525-#524]*0.36135]
#3=[#1+[#2-#1]*0.56297]
X-9.58568 Y-3.21818 Z[#3+-0.04000]
#1=[#518+[#519-#518]*0.34957]
#2=[#524+[#525-#524]*0.34957]
#3=[#1+[#2-#1]*0.57938]
X-9.57938 Y-3.22264 Z[#3+-0.04000]
#1=[#518+[#519-#518]*0.33476]
#2=[#524+[#525-#524]*0.33476]
#3=[#1+[#2-#1]*0.59321]
X-9.57407 Y-3.22824 Z[#3+-0.04000]
#1=[#518+[#519-#518]*0.31750]
#2=[#524+[#525-#524]*0.31750]
#3=[#1+[#2-#1]*0.60392]
X-9.56996 Y-3.23477 Z[#3+-0.04000]
#1=[#518+[#519-#518]*0.29845]
#2=[#524+[#525-#524]*0.29845]
#3=[#1+[#2-#1]*0.61111]
X-9.56720 Y-3.24198 Z[#3+-0.04000]
#1=[#518+[#519-#518]*0.27835]
#2=[#524+[#525-#524]*0.27835]
#3=[#1+[#2-#1]*0.61450]
X-9.56590 Y-3.24959 Z[#3+-0.04000]
G04 P0 ( dwell for no time -- G64 should not smooth over this point )
G00 Z0.08000 ( retract )

G00 X-10.01818 Y-3.27619 ( rapid move to begin. )
G01 F180.00000
( Mill infeed pass 1/1 )
#1=[#512+[#513-#512]*0.20805]
#2=[#518+[#519-#518]*0.20805]
#3=[#1+[#2-#1]*0.43590]
G01 Z[-0.04000+#100]
G04 P0 ( dwell for no time -- G64 should not smooth over this point )
G01 F360.00000
#1=[#512+[#513-#512]*0.90014]
#2=[#518+[#519-#518]*0.90014]
#3=[#1+[#2-#1]*0.43590]
X-10.01818 Y-3.01429 Z[#3+-0.04000]
#1=[#512+[#513-#512]*0.91616]
#2=[#518+[#519-#518]*0.91616]
#3=[#1+[#2-#1]*0.43468]
X-10.01865 Y-3.00822 Z[#3+-0.04000]
#1=[#512+[#513-#512]*0.93179]
#2=[#518+[#519-#518]*0.93179]
#3=[#1+[#2-#1]*0.43104]
X-10.02005 Y-3.00231 Z[#3+-0.04000]
#1=[#512+[#513-#512]*0.94667]
#2=[#518+[#519-#518]*0.94667]
#3=[#1+[#2-#1]*0.42507]
X-10.02234 Y-2.99668 Z[#3+-0.04000]
#1=[#513+[#514-#513]*0.00000]
#2=[#519+[#520-#519]*0.00000]
#3=[#1+[#2-#1]*0.39878]
X-10.03243 Y-2.97650 Z[#3+-0.04000]
#1=[#513+[#514-#513]*0.07251]
#2=[#519+[#520-#519]*0.07251]
#3=[#1+[#2-#1]*0.36302]
X-10.04615 Y-2.94906 Z[#3+-0.04000]
#1=[#513+[#514-#513]*0.08681]
#2=[#519+[#520-#519]*0.08681]
#3=[#1+[#2-#1]*0.35449]
X-10.04943 Y-2.94365 Z[#3+-0.04000]
#1=[#513+[#514-#513]*0.09955]
#2=[#519+[#520-#519]*0.09955]
#3=[#1+[#2-#1]*0.34381]
X-10.05353 Y-2.93883 Z[#3+-0.04000]
#1=[#513+[#514-#513]*0.11038]
#2=[#519+[#520-#519]*0.11038]
#3=[#1+[#2-#1]*0.33125]
X-10.05834 Y-2.93473 Z[#3+-0.04000]
#1=[#513+[#514-#513]*0.11903]
#2=[#519+[#520-#519]*0.11903]
#3=[#1+[#2-#1]*0.31714]
X-10.06376 Y-2.93145 Z[#3+-0.04000]
#1=[#513+[#514-#513]*0.18195]
#2=[#519+[#520-#519]*0.18195]
#3=[#1+[#2-#1]*0.19305]
X-10.11138 Y-2.90764 Z[#3+-0.04000]
#1=[#513+[#514-#513]*0.18800]
#2=[#519+[#520-#519]*0.18800]
#3=[#1+[#2-#1]*0.17838]
X-10.11701 Y-2.90535 Z[#3+-0.04000]
#1=[#513+[#514-#513]*0.19169]
#2=[#519+[#520-#519]*0.19169]
#3=[#1+[#2-#1]*0.16296]
X-10.12292 Y-2.90396 Z[#3+-0.04000]
#1=[#513+[#514-#513]*0.19294]
#2=[#519+[#520-#519]*0.19294]
#3=[#1+[#2-#1]*0.14717]
X-10.12898 Y-2.90349 Z[#3+-0.04000]
#1=[#513+[#514-#513]*0.19294]
#2=[#519+[#520-#519]*0.19294]
#3=[#1+[#2-#1]*0.00000]
X-10.18546 Y-2.90349 Z[#3+-0.04000]
#1=[#507+[#508-#507]*0.19294]
#2=[#513+[#514-#513]*0.19294]
#3=[#1+[#2-#1]*0.89899]
X-10.22422 Y-2.90349 Z[#3+-0.04000]
#1=[#507+[#508-#507]*0.19169]
#2=[#513+[#514-#513]*0.19169]
#3=[#1+[#2-#1]*0.88320]
X-10.23028 Y-2.90396 Z[#3+-0.04000]
#1=[#507+[#508-#507]*0.18800]
#2=[#513+[#514-#513]*0.18800]
#3=[#1+[#2-#1]*0.86778]
X-10.23620 Y-2.90535 Z[#3+-0.04000]
#1=[#507+[#508-#507]*0.18195]
#2=[#513+[#514-#513]*0.18195]
#3=[#1+[#2-#1]*0.85311]
X-10.24183 Y-2.90764 Z[#3+-0.04000]
#1=[#507+[#508-#507]*0.11903]
#2=[#513+[#514-#513]*0.11903]
#3=[#1+[#2-#1]*0.72902]
X-10.28945 Y-2.93145 Z[#3+-0.04000]
#1=[#507+[#508-#507]*0.10817]
#2=[#513+[#514-#513]*0.10817]
#3=[#1+[#2-#1]*0.71200]
X-10.29598 Y-2.93556 Z[#3+-0.04000]
#1=[#507+[#508-#507]*0.09415]
#2=[#513+[#514-#513]*0.09415]
#3=[#1+[#2-#1]*0.69740]
X-10.30158 Y-2.94087 Z[#3+-0.04000]
#1=[#507+[#508-#507]*0.07750]
#2=[#513+[#514-#513]*0.07750]
#3=[#1+[#2-#1]*0.68577]
X-10.30604 Y-2.94717 Z[#3+-0.04000]
#1=[#507+[#508-#507]*0.05888]
#2=[#513+[#514-#513]*0.05888]
#3=[#1+[#2-#1]*0.67757]
X-10.30919 Y-2.95422 Z[#3+-0.04000]
#1=[#507+[#508-#507]*0.03899]
#2=[#513+[#514-#513]*0.03899]
#3=[#1+[#2-#1]*0.67312]
X-10.31090 Y-2.96174 Z[#3+-0.04000]
#1=[#507+[#508-#507]*0.01861]
#2=[#513+[#514-#513]*0.01861]
#3=[#1+[#2-#1]*0.67257]
X-10.31111 Y-2.96946 Z[#3+-0.04000]
#1=[#507+[#508-#507]*0.00000]
#2=[#513+[#514-#513]*0.00000]
#3=[#1+[#2-#1]*0.67570]
X-10.30991 Y-2.97650 Z[#3+-0.04000]
#1=[#506+[#507-#506]*0.99850]
#2=[#512+[#513-#512]*0.99850]
#3=[#1+[#2-#1]*0.67595]
X-10.30981 Y-2.97706 Z[#3+-0.04000]
#1=[#506+[#507-#506]*0.97946]
#2=[#512+[#513-#512]*0.97946]
#3=[#1+[#2-#1]*0.68314]
X-10.30705 Y-2.98427 Z[#3+-0.04000]
#1=[#506+[#507-#506]*0.96219]
#2=[#512+[#513-#512]*0.96219]
#3=[#1+[#2-#1]*0.69385]
X-10.30294 Y-2.99080 Z[#3+-0.04000]
#1=[#506+[#507-#506]*0.94739]
#2=[#512+[#513-#512]*0.94739]
#3=[#1+[#2-#1]*0.70768]
X-10.29764 Y-2.99641 Z[#3+-0.04000]
#1=[#506+[#507-#506]*0.93560]
#2=[#512+[#513-#512]*0.93560]
#3=[#1+[#2-#1]*0.72409]
X-10.29134 Y-3.00087 Z[#3+-0.04000]
#1=[#506+[#507-#506]*0.92728]
#2=[#512+[#513-#512]*0.92728]
#3=[#1+[#2-#1]*0.74246]
X-10.28429 Y-3.00401 Z[#3+-0.04000]
#1=[#506+[#507-#506]*0.92276]
#2=[#512+[#513-#512]*0.92276]
#3=[#1+[#2-#1]*0.76207]
X-10.27676 Y-3.00573 Z[#3+-0.04000]
#1=[#506+[#507-#506]*0.92220]
#2=[#512+[#513-#512]*0.92220]
#3=[#1+[#2-#1]*0.78217]
X-10.26905 Y-3.00594 Z[#3+-0.04000]
#1=[#506+[#507-#506]*0.92564]
#2=[#512+[#513-#512]*0.92564]
#3=[#1+[#2-#1]*0.80200]
X-10.26144 Y-3.00464 Z[#3+-0.04000]
#1=[#506+[#507-#506]*0.93293]
#2=[#512+[#513-#512]*0.93293]
#3=[#1+[#2-#1]*0.82078]
X-10.25423 Y-3.00188 Z[#3+-0.04000]
#1=[#506+[#507-#506]*0.98486]
#2=[#512+[#513-#512]*0.98486]
#3=[#1+[#2-#1]*0.92321]
X-10.21493 Y-2.98223 Z[#3+-0.04000]
#1=[#512+[#513-#512]*0.98486]
#2=[#518+[#519-#518]*0.98486]
#3=[#1+[#2-#1]*0.00000]
X-10.18546 Y-2.98223 Z[#3+-0.04000]
#1=[#512+[#513-#512]*0.98486]
#2=[#518+[#519-#518]*0.98486]
#3=[#1+[#2-#1]*0.12295]
X-10.13828 Y-2.98223 Z[#3+-0.04000]
#1=[#512+[#513-#512]*0.94844]
#2=[#518+[#519-#518]*0.94844]
#3=[#1+[#2-#1]*0.19479]
X-10.11071 Y-2.99601 Z[#3+-0.04000]
#1=[#512+[#513-#512]*0.87559]
#2=[#518+[#519-#518]*0.87559]
#3=[#1+[#2-#1]*0.23071]
X-10.09692 Y-3.02358 Z[#3+-0.04000]
#1=[#512+[#513-#512]*0.83861]
#2=[#518+[#519-#518]*0.83861]
#3=[#1+[#2-#1]*0.23071]
X-10.09692 Y-3.03757 Z[#3+-0.04000]
#1=[#512+[#513-#512]*0.81543]
#2=[#518+[#519-#518]*0.81543]
#3=[#1+[#2-#1]*0.18500]
X-10.11447 Y-3.04634 Z[#3+-0.04000]
#1=[#512+[#513-#512]*0.81543]
#2=[#518+[#519-#518]*0.81543]
#3=[#1+[#2-#1]*0.00000]
X-10.18546 Y-3.04634 Z[#3+-0.04000]
#1=[#506+[#507-#506]*0.81543]
#2=[#512+[#513-#512]*0.81543]
#3=[#1+[#2-#1]*0.89899]
X-10.22422 Y-3.04634 Z[#3+-0.04000]
#1=[#506+[#507-#506]*0.81419]
#2=[#512+[#513-#512]*0.81419]
#3=[#1+[#2-#1]*0.88320]
X-10.23028 Y-3.04681 Z[#3+-0.04000]
#1=[#506+[#507-#506]*0.81050]
#2=[#512+[#513-#512]*0.81050]
#3=[#1+[#2-#1]*0.86778]
X-10.23620 Y-3.04821 Z[#3+-0.04000]
#1=[#506+[#507-#506]*0.80445]
#2=[#512+[#513-#512]*0.80445]
#3=[#1+[#2-#1]*0.85311]
X-10.24183 Y-3.05050 Z[#3+-0.04000]
#1=[#506+[#507-#506]*0.74153]
#2=[#512+[#513-#512]*0.74153]
#3=[#1+[#2-#1]*0.72902]
X-10.28945 Y-3.07431 Z[#3+-0.04000]
#1=[#506+[#507-#506]*0.73287]
#2=[#512+[#513-#512]*0.73287]
#3=[#1+[#2-#1]*0.71492]
X-10.29486 Y-3.07758 Z[#3+-0.04000]
#1=[#506+[#507-#506]*0.72204]
#2=[#512+[#513-#512]*0.72204]
#3=[#1+[#2-#1]*0.70236]
X-10.29968 Y-3.08168 Z[#3+-0.04000]
#1=[#506+[#507-#506]*0.70931]
#2=[#512+[#513-#512]*0.70931]
#3=[#1+[#2-#1]*0.69167]
X-10.30378 Y-3.08650 Z[#3+-0.04000]
#1=[#506+[#507-#506]*0.69500]
#2=[#512+[#513-#512]*0.69500]
#3=[#1+[#2-#1]*0.68314]
X-10.30705 Y-3.09192 Z[#3+-0.04000]
#1=[#506+[#507-#506]*0.56917]
#2=[#512+[#513-#512]*0.56917]
#3=[#1+[#2-#1]*0.62109]
X-10.33086 Y-3.13953 Z[#3+-0.04000]
#1=[#506+[#507-#506]*0.55429]
#2=[#512+[#513-#512]*0.55429]
#3=[#1+[#2-#1]*0.61512]
X-10.33315 Y-3.14516 Z[#3+-0.04000]
#1=[#506+[#507-#506]*0.53866]
#2=[#512+[#513-#512]*0.53866]
#3=[#1+[#2-#1]*0.61149]
X-10.33455 Y-3.15108 Z[#3+-0.04000]
#1=[#506+[#507-#506]*0.52264]
#2=[#512+[#513-#512]*0.52264]
#3=[#1+[#2-#1]*0.61026]
X-10.33502 Y-3.15714 Z[#3+-0.04000]
#1=[#506+[#507-#506]*0.39680]
#2=[#512+[#513-#512]*0.39680]
#3=[#1+[#2-#1]*0.61026]
X-10.33502 Y-3.20476 Z[#3+-0.04000]
#1=[#506+[#507-#506]*0.38079]
#2=[#512+[#513-#512]*0.38079]
#3=[#1+[#2-#1]*0.61149]
X-10.33455 Y-3.21082 Z[#3+-0.04000]
#1=[#506+[#507-#506]*0.36516]
#2=[#512+[#513-#512]*0.36516]
#3=[#1+[#2-#1]*0.61512]
X-10.33315 Y-3.21674 Z[#3+-0.04000]
#1=[#506+[#507-#506]*0.35028]
#2=[#512+[#513-#512]*0.35028]
#3=[#1+[#2-#1]*0.62109]
X-10.33086 Y-3.22237 Z[#3+-0.04000]
#1=[#506+[#507-#506]*0.22444]
#2=[#512+[#513-#512]*0.22444]
#3=[#1+[#2-#1]*0.68314]
X-10.30705 Y-3.26999 Z[#3+-0.04000]
#1=[#506+[#507-#506]*0.21014]
#2=[#512+[#513-#512]*0.21014]
#3=[#1+[#2-#1]*0.69167]
X-10.30378 Y-3.27540 Z[#3+-0.04000]
#1=[#506+[#507-#506]*0.19741]
#2=[#512+[#513-#512]*0.19741]
#3=[#1+[#2-#1]*0.70236]
X-10.29968 Y-3.28022 Z[#3+-0.04000]
#1=[#506+[#507-#506]*0.18657]
#2=[#512+[#513-#512]*0.18657]
#3=[#1+[#2-#1]*0.71491]
X-10.29486 Y-3.28432 Z[#3+-0.04000]
#1=[#506+[#507-#506]*0.17792]
#2=[#512+[#513-#512]*0.17792]
#3=[#1+[#2-#1]*0.72902]
X-10.28945 Y-3.28759 Z[#3+-0.04000]
#1=[#506+[#507-#506]*0.11500]
#2=[#512+[#513-#512]*0.11500]
#3=[#1+[#2-#1]*0.85311]
X-10.24183 Y-3.31140 Z[#3+-0.04000]
#1=[#506+[#507-#506]*0.10894]
#2=[#512+[#513-#512]*0.10894]
#3=[#1+[#2-#1]*0.86778]
X-10.23620 Y-3.31369 Z[#3+-0.04000]
#1=[#506+[#507-#506]*0.10526]
#2=[#512+[#513-#512]*0.10526]
#3=[#1+[#2-#1]*0.88320]
X-10.23028 Y-3.31509 Z[#3+-0.04000]
#1=[#506+[#507-#506]*0.10401]
#2=[#512+[#513-#512]*0.10401]
#3=[#1+[#2-#1]*0.89899]
X-10.22422 Y-3.31556 Z[#3+-0.04000]
#1=[#512+[#513-#512]*0.10401]
#2=[#518+[#519-#518]*0.10401]
#3=[#1+[#2-#1]*0.00000]
X-10.18546 Y-3.31556 Z[#3+-0.04000]
#1=[#512+[#513-#512]*0.10401]
#2=[#518+[#519-#518]*0.10401]
#3=[#1+[#2-#1]*0.20922]
X-10.10517 Y-3.31556 Z[#3+-0.04000]
#1=[#512+[#513-#512]*0.10526]
#2=[#518+[#519-#518]*0.10526]
#3=[#1+[#2-#1]*0.22501]
X-10.09911 Y-3.31509 Z[#3+-0.04000]
#1=[#512+[#513-#512]*0.10894]
#2=[#518+[#519-#518]*0.10894]
#3=[#1+[#2-#1]*0.24043]
X-10.09320 Y-3.31369 Z[#3+-0.04000]
#1=[#512+[#513-#512]*0.11500]
#2=[#518+[#519-#518]*0.11500]
#3=[#1+[#2-#1]*0.25510]
X-10.08757 Y-3.31140 Z[#3+-0.04000]
#1=[#512+[#513-#512]*0.12416]
#2=[#518+[#519-#518]*0.12416]
#3=[#1+[#2-#1]*0.27317]
X-10.08063 Y-3.30794 Z[#3+-0.04000]
#1=[#512+[#513-#512]*0.12155]
#2=[#518+[#519-#518]*0.12155]
#3=[#1+[#2-#1]*0.27631]
X-10.07943 Y-3.30892 Z[#3+-0.04000]
#1=[#512+[#513-#512]*0.11193]
#2=[#518+[#519-#518]*0.11193]
#3=[#1+[#2-#1]*0.29405]
X-10.07262 Y-3.31256 Z[#3+-0.04000]
#1=[#512+[#513-#512]*0.10601]
#2=[#518+[#519-#518]*0.10601]
#3=[#1+[#2-#1]*0.31329]
X-10.06523 Y-3.31480 Z[#3+-0.04000]
#1=[#512+[#513-#512]*0.10401]
#2=[#518+[#519-#518]*0.10401]
#3=[#1+[#2-#1]*0.33331]
X-10.05755 Y-3.31556 Z[#3+-0.04000]
#1=[#512+[#513-#512]*0.10601]
#2=[#518+[#519-#518]*0.10601]
#3=[#1+[#2-#1]*0.35332]
X-10.04987 Y-3.31480 Z[#3+-0.04000]
#1=[#512+[#513-#512]*0.11193]
#2=[#518+[#519-#518]*0.11193]
#3=[#1+[#2-#1]*0.37257]
X-10.04249 Y-3.31256 Z[#3+-0.04000]
#1=[#512+[#513-#512]*0.12155]
#2=[#518+[#519-#518]*0.12155]
#3=[#1+[#2-#1]*0.39030]
X-10.03568 Y-3.30892 Z[#3+-0.04000]
#1=[#512+[#513-#512]*0.13449]
#2=[#518+[#519-#518]*0.13449]
#3=[#1+[#2-#1]*0.40585]
X-10.02972 Y-3.30403 Z[#3+-0.04000]
#1=[#512+[#513-#512]*0.15025]
#2=[#518+[#519-#518]*0.15025]
#3=[#1+[#2-#1]*0.41861]
X-10.02482 Y-3.29806 Z[#3+-0.04000]
#1=[#512+[#513-#512]*0.16824]
#2=[#518+[#519-#518]*0.16824]
#3=[#1+[#2-#1]*0.42809]
X-10.02118 Y-3.29126 Z[#3+-0.04000]
#1=[#512+[#513-#512]*0.18776]
#2=[#518+[#519-#518]*0.18776]
#3=[#1+[#2-#1]*0.43393]
X-10.01894 Y-3.28387 Z[#3+-0.04000]
#1=[#512+[#513-#512]*0.20805]
#2=[#518+[#519-#518]*0.20805]
#3=[#1+[#2-#1]*0.43590]
X-10.01818 Y-3.27619 Z[#3+-0.04000]
G04 P0 ( dwell for no time -- G64 should not smooth over this point )
G00 Z0.08000 ( retract )

G00 X-10.09692 Y-3.22805 ( rapid move to begin. )
G01 F180.00000
( Mill infeed pass 1/1 )
#1=[#512+[#513-#512]*0.33527]
#2=[#518+[#519-#518]*0.33527]
#3=[#1+[#2-#1]*0.23071]
G01 Z[-0.04000+#100]
G04 P0 ( dwell for no time -- G64 should not smooth over this point )
G01 F360.00000
#1=[#512+[#513-#512]*0.60996]
#2=[#518+[#519-#518]*0.60996]
#3=[#1+[#2-#1]*0.23071]
X-10.09692 Y-3.12410 Z[#3+-0.04000]
#1=[#512+[#513-#512]*0.60860]
#2=[#518+[#519-#518]*0.60860]
#3=[#1+[#2-#1]*0.22501]
X-10.09911 Y-3.12461 Z[#3+-0.04000]
#1=[#512+[#513-#512]*0.60735]
#2=[#518+[#519-#518]*0.60735]
#3=[#1+[#2-#1]*0.20922]
X-10.10517 Y-3.12508 Z[#3+-0.04000]
#1=[#512+[#513-#512]*0.60735]
#2=[#518+[#519-#518]*0.60735]
#3=[#1+[#2-#1]*0.00000]
X-10.18546 Y-3.12508 Z[#3+-0.04000]
#1=[#506+[#507-#506]*0.60735]
#2=[#512+[#513-#512]*0.60735]
#3=[#1+[#2-#1]*0.92321]
X-10.21493 Y-3.12508 Z[#3+-0.04000]
#1=[#506+[#507-#506]*0.57093]
#2=[#512+[#513-#512]*0.57093]
#3=[#1+[#2-#1]*0.85137]
X-10.24250 Y-3.13887 Z[#3+-0.04000]
#1=[#506+[#507-#506]*0.49808]
#2=[#512+[#513-#512]*0.49808]
#3=[#1+[#2-#1]*0.81545]
X-10.25628 Y-3.16644 Z[#3+-0.04000]
#1=[#506+[#507-#506]*0.42137]
#2=[#512+[#513-#512]*0.42137]
#3=[#1+[#2-#1]*0.81545]
X-10.25628 Y-3.19547 Z[#3+-0.04000]
#1=[#506+[#507-#506]*0.34851]
#2=[#512+[#513-#512]*0.34851]
#3=[#1+[#2-#1]*0.85137]
X-10.24250 Y-3.22303 Z[#3+-0.04000]
#1=[#506+[#507-#506]*0.31209]
#2=[#512+[#513-#512]*0.31209]
#3=[#1+[#2-#1]*0.92321]
X-10.21493 Y-3.23682 Z[#3+-0.04000]
#1=[#512+[#513-#512]*0.31209]
#2=[#518+[#519-#518]*0.31209]
#3=[#1+[#2-#1]*0.00000]
X-10.18546 Y-3.23682 Z[#3+-0.04000]
#1=[#512+[#513-#512]*0.31209]
#2=[#518+[#519-#518]*0.31209]
#3=[#1+[#2-#1]*0.18500]
X-10.11447 Y-3.23682 Z[#3+-0.04000]
#1=[#512+[#513-#512]*0.33527]
#2=[#518+[#519-#518]*0.33527]
#3=[#1+[#2-#1]*0.23071]
X-10.09692 Y-3.22805 Z[#3+-0.04000]
G04 P0 ( dwell for no time -- G64 should not smooth over this point )
G00 Z0.08000 ( retract )

G00 X-10.44676 Y-3.18095 ( rapid move to begin. )
G01 F180.00000
( Mill infeed pass 1/1 )
#1=[#506+[#507-#506]*0.45972]
#2=[#512+[#513-#512]*0.45972]
#3=[#1+[#2-#1]*0.31909]
G01 Z[-0.04000+#100]
G04 P0 ( dwell for no time -- G64 should not smooth over this point )
G01 F360.00000
#1=[#506+[#507-#506]*0.64847]
#2=[#512+[#513-#512]*0.64847]
#3=[#1+[#2-#1]*0.31909]
X-10.44676 Y-3.10952 Z[#3+-0.04000]
#1=[#506+[#507-#506]*0.66449]
#2=[#512+[#513-#512]*0.66449]
#3=[#1+[#2-#1]*0.31787]
X-10.44723 Y-3.10346 Z[#3+-0.04000]
#1=[#506+[#507-#506]*0.68012]
#2=[#512+[#513-#512]*0.68012]
#3=[#1+[#2-#1]*0.31423]
X-10.44862 Y-3.09755 Z[#3+-0.04000]
#1=[#506+[#507-#506]*0.69500]
#2=[#512+[#513-#512]*0.69500]
#3=[#1+[#2-#1]*0.30826]
X-10.45091 Y-3.09192 Z[#3+-0.04000]
#1=[#506+[#507-#506]*0.82084]
#2=[#512+[#513-#512]*0.82084]
#3=[#1+[#2-#1]*0.24622]
X-10.47472 Y-3.04430 Z[#3+-0.04000]
#1=[#506+[#507-#506]*0.83514]
#2=[#512+[#513-#512]*0.83514]
#3=[#1+[#2-#1]*0.23768]
X-10.47800 Y-3.03888 Z[#3+-0.04000]
#1=[#506+[#507-#506]*0.84788]
#2=[#512+[#513-#512]*0.84788]
#3=[#1+[#2-#1]*0.22700]
X-10.48210 Y-3.03406 Z[#3+-0.04000]
#1=[#506+[#507-#506]*0.91079]
#2=[#512+[#513-#512]*0.91079]
#3=[#1+[#2-#1]*0.16495]
X-10.50591 Y-3.01025 Z[#3+-0.04000]
#1=[#506+[#507-#506]*0.92124]
#2=[#512+[#513-#512]*0.92124]
#3=[#1+[#2-#1]*0.15292]
X-10.51052 Y-3.00630 Z[#3+-0.04000]
#1=[#506+[#507-#506]*0.92849]
#2=[#512+[#513-#512]*0.92849]
#3=[#1+[#2-#1]*0.14136]
X-10.51496 Y-3.00356 Z[#3+-0.04000]
#1=[#506+[#507-#506]*0.95242]
#2=[#512+[#513-#512]*0.95242]
#3=[#1+[#2-#1]*0.16495]
X-10.50591 Y-2.99450 Z[#3+-0.04000]
#1=[#506+[#507-#506]*0.96515]
#2=[#512+[#513-#512]*0.96515]
#3=[#1+[#2-#1]*0.17564]
X-10.50181 Y-2.98969 Z[#3+-0.04000]
#1=[#506+[#507-#506]*0.97945]
#2=[#512+[#513-#512]*0.97945]
#3=[#1+[#2-#1]*0.18417]
X-10.49853 Y-2.98427 Z[#3+-0.04000]
#1=[#507+[#508-#507]*0.00000]
#2=[#513+[#514-#513]*0.00000]
#3=[#1+[#2-#1]*0.19430]
X-10.49464 Y-2.97650 Z[#3+-0.04000]
#1=[#507+[#508-#507]*0.10529]
#2=[#513+[#514-#513]*0.10529]
#3=[#1+[#2-#1]*0.24622]
X-10.47472 Y-2.93665 Z[#3+-0.04000]
#1=[#507+[#508-#507]*0.12017]
#2=[#513+[#514-#513]*0.12017]
#3=[#1+[#2-#1]*0.25219]
X-10.47243 Y-2.93102 Z[#3+-0.04000]
#1=[#507+[#508-#507]*0.13580]
#2=[#513+[#514-#513]*0.13580]
#3=[#1+[#2-#1]*0.25582]
X-10.47103 Y-2.92511 Z[#3+-0.04000]
#1=[#507+[#508-#507]*0.15182]
#2=[#513+[#514-#513]*0.15182]
#3=[#1+[#2-#1]*0.25705]
X-10.47056 Y-2.91905 Z[#3+-0.04000]
#1=[#507+[#508-#507]*0.27765]
#2=[#513+[#514-#513]*0.27765]
#3=[#1+[#2-#1]*0.25705]
X-10.47056 Y-2.87143 Z[#3+-0.04000]
#1=[#507+[#508-#507]*0.29367]
#2=[#513+[#514-#513]*0.29367]
#3=[#1+[#2-#1]*0.25582]
X-10.47103 Y-2.86537 Z[#3+-0.04000]
#1=[#507+[#508-#507]*0.30930]
#2=[#513+[#514-#513]*0.30930]
#3=[#1+[#2-#1]*0.25219]
X-10.47243 Y-2.85945 Z[#3+-0.04000]
#1=[#507+[#508-#507]*0.32418]
#2=[#513+[#514-#513]*0.32418]
#3=[#1+[#2-#1]*0.24622]
X-10.47472 Y-2.85382 Z[#3+-0.04000]
#1=[#507+[#508-#507]*0.45002]
#2=[#513+[#514-#513]*0.45002]
#3=[#1+[#2-#1]*0.18417]
X-10.49853 Y-2.80620 Z[#3+-0.04000]
#1=[#507+[#508-#507]*0.46432]
#2=[#513+[#514-#513]*0.46432]
#3=[#1+[#2-#1]*0.17564]
X-10.50181 Y-2.80079 Z[#3+-0.04000]
#1=[#507+[#508-#507]*0.47705]
#2=[#513+[#514-#513]*0.47705]
#3=[#1+[#2-#1]*0.16495]
X-10.50591 Y-2.79597 Z[#3+-0.04000]
#1=[#507+[#508-#507]*0.53997]
#2=[#513+[#514-#513]*0.53997]
#3=[#1+[#2-#1]*0.10291]
X-10.52972 Y-2.77216 Z[#3+-0.04000]
#1=[#507+[#508-#507]*0.55080]
#2=[#513+[#514-#513]*0.55080]
#3=[#1+[#2-#1]*0.09035]
X-10.53453 Y-2.76806 Z[#3+-0.04000]
#1=[#507+[#508-#507]*0.55946]
#2=[#513+[#514-#513]*0.55946]
#3=[#1+[#2-#1]*0.07625]
X-10.53995 Y-2.76479 Z[#3+-0.04000]
#1=[#501+[#502-#501]*0.59812]
#2=[#507+[#508-#507]*0.59812]
#3=[#1+[#2-#1]*1.00000]
X-10.56921 Y-2.75016 Z[#3+-0.04000]
#1=[#501+[#502-#501]*0.62238]
#2=[#507+[#508-#507]*0.62238]
#3=[#1+[#2-#1]*0.95216]
X-10.58757 Y-2.74098 Z[#3+-0.04000]
#1=[#501+[#502-#501]*0.62843]
#2=[#507+[#508-#507]*0.62843]
#3=[#1+[#2-#1]*0.93748]
X-10.59320 Y-2.73868 Z[#3+-0.04000]
#1=[#501+[#502-#501]*0.63212]
#2=[#507+[#508-#507]*0.63212]
#3=[#1+[#2-#1]*0.92207]
X-10.59911 Y-2.73729 Z[#3+-0.04000]
#1=[#501+[#502-#501]*0.63336]
#2=[#507+[#508-#507]*0.63336]
#3=[#1+[#2-#1]*0.90627]
X-10.60517 Y-2.73682 Z[#3+-0.04000]
#1=[#501+[#502-#501]*0.63336]
#2=[#507+[#508-#507]*0.63336]
#3=[#1+[#2-#1]*0.47196]
X-10.77184 Y-2.73682 Z[#3+-0.04000]
#1=[#501+[#502-#501]*0.63136]
#2=[#507+[#508-#507]*0.63136]
#3=[#1+[#2-#1]*0.45194]
X-10.77952 Y-2.73758 Z[#3+-0.04000]
#1=[#501+[#502-#501]*0.62544]
#2=[#507+[#508-#507]*0.62544]
#3=[#1+[#2-#1]*0.43270]
X-10.78691 Y-2.73982 Z[#3+-0.04000]
#1=[#501+[#502-#501]*0.61583]
#2=[#507+[#508-#507]*0.61583]
#3=[#1+[#2-#1]*0.41496]
X-10.79371 Y-2.74345 Z[#3+-0.04000]
#1=[#501+[#502-#501]*0.60289]
#2=[#507+[#508-#507]*0.60289]
#3=[#1+[#2-#1]*0.39941]
X-10.79968 Y-2.74835 Z[#3+-0.04000]
#1=[#501+[#502-#501]*0.58712]
#2=[#507+[#508-#507]*0.58712]
#3=[#1+[#2-#1]*0.38665]
X-10.80458 Y-2.75432 Z[#3+-0.04000]
#1=[#501+[#502-#501]*0.56914]
#2=[#507+[#508-#507]*0.56914]
#3=[#1+[#2-#1]*0.37717]
X-10.80821 Y-2.76112 Z[#3+-0.04000]
#1=[#501+[#502-#501]*0.54962]
#2=[#507+[#508-#507]*0.54962]
#3=[#1+[#2-#1]*0.37134]
X-10.81045 Y-2.76851 Z[#3+-0.04000]
#1=[#501+[#502-#501]*0.52932]
#2=[#507+[#508-#507]*0.52932]
#3=[#1+[#2-#1]*0.36936]
X-10.81121 Y-2.77619 Z[#3+-0.04000]
#1=[#501+[#502-#501]*0.00000]
#2=[#507+[#508-#507]*0.00000]
#3=[#1+[#2-#1]*0.36936]
X-10.81121 Y-2.97650 Z[#3+-0.04000]
#1=[#500+[#501-#500]*0.20805]
#2=[#506+[#507-#506]*0.20805]
#3=[#1+[#2-#1]*0.36936]
X-10.81121 Y-3.27619 Z[#3+-0.04000]
#1=[#500+[#501-#500]*0.18776]
#2=[#506+[#507-#506]*0.18776]
#3=[#1+[#2-#1]*0.37134]
X-10.81045 Y-3.28387 Z[#3+-0.04000]
#1=[#500+[#501-#500]*0.16824]
#2=[#506+[#507-#506]*0.16824]
#3=[#1+[#2-#1]*0.37717]
X-10.80821 Y-3.29126 Z[#3+-0.04000]
#1=[#500+[#501-#500]*0.15025]
#2=[#506+[#507-#506]*0.15025]
#3=[#1+[#2-#1]*0.38665]
X-10.80458 Y-3.29806 Z[#3+-0.04000]
#1=[#500+[#501-#500]*0.13449]
#2=[#506+[#507-#506]*0.13449]
#3=[#1+[#2-#1]*0.39941]
X-10.79968 Y-3.30403 Z[#3+-0.04000]
#1=[#500+[#501-#500]*0.12155]
#2=[#506+[#507-#506]*0.12155]
#3=[#1+[#2-#1]*0.41496]
X-10.79371 Y-3.30892 Z[#3+-0.04000]
#1=[#500+[#501-#500]*0.11193]
#2=[#506+[#507-#506]*0.11193]
#3=[#1+[#2-#1]*0.43270]
X-10.78691 Y-3.31256 Z[#3+-0.04000]
#1=[#500+[#501-#500]*0.10601]
#2=[#506+[#507-#506]*0.10601]
#3=[#1+[#2-#1]*0.45194]
X-10.77952 Y-3.31480 Z[#3+-0.04000]
#1=[#500+[#501-#500]*0.10401]
#2=[#506+[#507-#506]*0.10401]
#3=[#1+[#2-#1]*0.47196]
X-10.77184 Y-3.31556 Z[#3+-0.04000]
#1=[#500+[#501-#500]*0.10401]
#2=[#506+[#507-#506]*0.10401]
#3=[#1+[#2-#1]*0.96832]
X-10.58136 Y-3.31556 Z[#3+-0.04000]
#1=[#500+[#501-#500]*0.10526]
#2=[#506+[#507-#506]*0.10526]
#3=[#1+[#2-#1]*0.98411]
X-10.57530 Y-3.31509 Z[#3+-0.04000]
#1=[#500+[#501-#500]*0.10894]
#2=[#506+[#507-#506]*0.10894]
#3=[#1+[#2-#1]*0.99953]
X-10.56939 Y-3.31369 Z[#3+-0.04000]
#1=[#500+[#501-#500]*0.10914]
#2=[#506+[#507-#506]*0.10914]
#3=[#1+[#2-#1]*1.00000]
X-10.56921 Y-3.31362 Z[#3+-0.04000]
#1=[#506+[#507-#506]*0.11500]
#2=[#512+[#513-#512]*0.11500]
#3=[#1+[#2-#1]*0.01420]
X-10.56376 Y-3.31140 Z[#3+-0.04000]
#1=[#506+[#507-#506]*0.17792]
#2=[#512+[#513-#512]*0.17792]
#3=[#1+[#2-#1]*0.13829]
X-10.51614 Y-3.28759 Z[#3+-0.04000]
#1=[#506+[#507-#506]*0.18657]
#2=[#512+[#513-#512]*0.18657]
#3=[#1+[#2-#1]*0.15239]
X-10.51073 Y-3.28432 Z[#3+-0.04000]
#1=[#506+[#507-#506]*0.19740]
#2=[#512+[#513-#512]*0.19740]
#3=[#1+[#2-#1]*0.16495]
X-10.50591 Y-3.28022 Z[#3+-0.04000]
#1=[#506+[#507-#506]*0.26032]
#2=[#512+[#513-#512]*0.26032]
#3=[#1+[#2-#1]*0.22700]
X-10.48210 Y-3.25641 Z[#3+-0.04000]
#1=[#506+[#507-#506]*0.27305]
#2=[#512+[#513-#512]*0.27305]
#3=[#1+[#2-#1]*0.23768]
X-10.47800 Y-3.25159 Z[#3+-0.04000]
#1=[#506+[#507-#506]*0.28736]
#2=[#512+[#513-#512]*0.28736]
#3=[#1+[#2-#1]*0.24622]
X-10.47472 Y-3.24618 Z[#3+-0.04000]
#1=[#506+[#507-#506]*0.41320]
#2=[#512+[#513-#512]*0.41320]
#3=[#1+[#2-#1]*0.30826]
X-10.45091 Y-3.19856 Z[#3+-0.04000]
#1=[#506+[#507-#506]*0.42807]
#2=[#512+[#513-#512]*0.42807]
#3=[#1+[#2-#1]*0.31423]
X-10.44862 Y-3.19293 Z[#3+-0.04000]
#1=[#506+[#507-#506]*0.44371]
#2=[#512+[#513-#512]*0.44371]
#3=[#1+[#2-#1]*0.31787]
X-10.44723 Y-3.18701 Z[#3+-0.04000]
#1=[#506+[#507-#506]*0.45972]
#2=[#512+[#513-#512]*0.45972]
#3=[#1+[#2-#1]*0.31909]
X-10.44676 Y-3.18095 Z[#3+-0.04000]
G04 P0 ( dwell for no time -- G64 should not smooth over this point )
G00 Z0.08000 ( retract )

G00 X-10.52550 Y-3.17166 ( rapid move to begin. )
G01 F180.00000
( Mill infeed pass 1/1 )
#1=[#506+[#507-#506]*0.48428]
#2=[#512+[#513-#512]*0.48428]
#3=[#1+[#2-#1]*0.11390]
G01 Z[-0.04000+#100]
G04 P0 ( dwell for no time -- G64 should not smooth over this point )
G01 F360.00000
#1=[#506+[#507-#506]*0.62392]
#2=[#512+[#513-#512]*0.62392]
#3=[#1+[#2-#1]*0.11390]
X-10.52550 Y-3.11882 Z[#3+-0.04000]
#1=[#506+[#507-#506]*0.71268]
#2=[#512+[#513-#512]*0.71268]
#3=[#1+[#2-#1]*0.07014]
X-10.54229 Y-3.08522 Z[#3+-0.04000]
#1=[#506+[#507-#506]*0.74630]
#2=[#512+[#513-#512]*0.74630]
#3=[#1+[#2-#1]*0.03699]
X-10.55501 Y-3.07251 Z[#3+-0.04000]
#1=[#500+[#501-#500]*0.75880]
#2=[#506+[#507-#506]*0.75880]
#3=[#1+[#2-#1]*1.00000]
X-10.56921 Y-3.06777 Z[#3+-0.04000]
#1=[#500+[#501-#500]*0.79611]
#2=[#506+[#507-#506]*0.79611]
#3=[#1+[#2-#1]*0.88963]
X-10.61156 Y-3.05366 Z[#3+-0.04000]
#1=[#500+[#501-#500]*0.79611]
#2=[#506+[#507-#506]*0.79611]
#3=[#1+[#2-#1]*0.57455]
X-10.73247 Y-3.05366 Z[#3+-0.04000]
#1=[#500+[#501-#500]*0.31209]
#2=[#506+[#507-#506]*0.31209]
#3=[#1+[#2-#1]*0.57455]
X-10.73247 Y-3.23682 Z[#3+-0.04000]
#1=[#500+[#501-#500]*0.31209]
#2=[#506+[#507-#506]*0.31209]
#3=[#1+[#2-#1]*0.94410]
X-10.59066 Y-3.23682 Z[#3+-0.04000]
#1=[#500+[#501-#500]*0.34043]
#2=[#506+[#507-#506]*0.34043]
#3=[#1+[#2-#1]*1.00000]
X-10.56921 Y-3.22609 Z[#3+-0.04000]
#1=[#506+[#507-#506]*0.35647]
#2=[#512+[#513-#512]*0.35647]
#3=[#1+[#2-#1]*0.03163]
X-10.55707 Y-3.22002 Z[#3+-0.04000]
#1=[#506+[#507-#506]*0.39551]
#2=[#512+[#513-#512]*0.39551]
#3=[#1+[#2-#1]*0.07014]
X-10.54229 Y-3.20525 Z[#3+-0.04000]
#1=[#506+[#507-#506]*0.48428]
#2=[#512+[#513-#512]*0.48428]
#3=[#1+[#2-#1]*0.11390]
X-10.52550 Y-3.17166 Z[#3+-0.04000]
G04 P0 ( dwell for no time -- G64 should not smooth over this point )
G00 Z0.08000 ( retract )

G00 X-10.54931 Y-2.90975 ( rapid move to begin. )
G01 F180.00000
( Mill infeed pass 1/1 )
#1=[#507+[#508-#507]*0.17638]
#2=[#513+[#514-#513]*0.17638]
#3=[#1+[#2-#1]*0.05186]
G01 Z[-0.04000+#100]
G04 P0 ( dwell for no time -- G64 should not smooth over this point )
G01 F360.00000
#1=[#507+[#508-#507]*0.25309]
#2=[#513+[#514-#513]*0.25309]
#3=[#1+[#2-#1]*0.05186]
X-10.54931 Y-2.88072 Z[#3+-0.04000]
#1=[#507+[#508-#507]*0.34186]
#2=[#513+[#514-#513]*0.34186]
#3=[#1+[#2-#1]*0.00809]
X-10.56610 Y-2.84713 Z[#3+-0.04000]
#1=[#501+[#502-#501]*0.35006]
#2=[#507+[#508-#507]*0.35006]
#3=[#1+[#2-#1]*1.00000]
X-10.56921 Y-2.84403 Z[#3+-0.04000]
#1=[#501+[#502-#501]*0.38090]
#2=[#507+[#508-#507]*0.38090]
#3=[#1+[#2-#1]*0.96959]
X-10.58088 Y-2.83236 Z[#3+-0.04000]
#1=[#501+[#502-#501]*0.42528]
#2=[#507+[#508-#507]*0.42528]
#3=[#1+[#2-#1]*0.88205]
X-10.61447 Y-2.81556 Z[#3+-0.04000]
#1=[#501+[#502-#501]*0.42528]
#2=[#507+[#508-#507]*0.42528]
#3=[#1+[#2-#1]*0.57455]
X-10.73247 Y-2.81556 Z[#3+-0.04000]
#1=[#501+[#502-#501]*0.00418]
#2=[#507+[#508-#507]*0.00418]
#3=[#1+[#2-#1]*0.57455]
X-10.73247 Y-2.97491 Z[#3+-0.04000]
#1=[#501+[#502-#501]*0.00418]
#2=[#507+[#508-#507]*0.00418]
#3=[#1+[#2-#1]*0.88206]
X-10.61447 Y-2.97491 Z[#3+-0.04000]
#1=[#501+[#502-#501]*0.04857]
#2=[#507+[#508-#507]*0.04857]
#3=[#1+[#2-#1]*0.96959]
X-10.58088 Y-2.95812 Z[#3+-0.04000]
#1=[#501+[#502-#501]*0.07940]
#2=[#507+[#508-#507]*0.07940]
#3=[#1+[#2-#1]*1.00000]
X-10.56921 Y-2.94645 Z[#3+-0.04000]
#1=[#507+[#508-#507]*0.08761]
#2=[#513+[#514-#513]*0.08761]
#3=[#1+[#2-#1]*0.00809]
X-10.56610 Y-2.94334 Z[#3+-0.04000]
#1=[#507+[#508-#507]*0.17638]
#2=[#513+[#514-#513]*0.17638]
#3=[#1+[#2-#1]*0.05186]
X-10.54931 Y-2.90975 Z[#3+-0.04000]
G04 P0 ( dwell for no time -- G64 should not smooth over this point )
G00 Z0.08000 ( retract )

G00 X-10.84311 Y-3.35000 ( rapid move to begin. )
G01 F180.00000
( Mill infeed pass 1/1 )
#1=[#500+[#501-#500]*0.01300]
#2=[#506+[#507-#506]*0.01300]
#3=[#1+[#2-#1]*0.28624]
G01 Z[-0.04000+#100]
G04 P0 ( dwell for no time -- G64 should not smooth over this point )
G01 F360.00000
#1=[#500+[#501-#500]*0.00803]
#2=[#506+[#507-#506]*0.00803]
#3=[#1+[#2-#1]*0.28526]
X-10.84348 Y-3.35188 Z[#3+-0.04000]
#1=[#500+[#501-#500]*0.00381]
#2=[#506+[#507-#506]*0.00381]
#3=[#1+[#2-#1]*0.28248]
X-10.84455 Y-3.35348 Z[#3+-0.04000]
#1=[#500+[#501-#500]*0.00099]
#2=[#506+[#507-#506]*0.00099]
#3=[#1+[#2-#1]*0.27832]
X-10.84615 Y-3.35455 Z[#3+-0.04000]
#1=[#500+[#501-#500]*0.00000]
#2=[#506+[#507-#506]*0.00000]
#3=[#1+[#2-#1]*0.27341]
X-10.84803 Y-3.35492 Z[#3+-0.04000]
#1=[#500+[#501-#500]*0.00099]
#2=[#506+[#507-#506]*0.00099]
#3=[#1+[#2-#1]*0.26851]
X-10.84991 Y-3.35455 Z[#3+-0.04000]
#1=[#500+[#501-#500]*0.00381]
#2=[#506+[#507-#506]*0.00381]
#3=[#1+[#2-#1]*0.26435]
X-10.85151 Y-3.35348 Z[#3+-0.04000]
#1=[#500+[#501-#500]*0.12674]
#2=[#506+[#507-#506]*0.12674]
#3=[#1+[#2-#1]*0.14312]
X-10.89803 Y-3.30696 Z[#3+-0.04000]
#1=[#500+[#501-#500]*0.00381]
#2=[#506+[#507-#506]*0.00381]
#3=[#1+[#2-#1]*0.02189]
X-10.94455 Y-3.35348 Z[#3+-0.04000]
#1=[#500+[#501-#500]*0.00099]
#2=[#506+[#507-#506]*0.00099]
#3=[#1+[#2-#1]*0.01773]
X-10.94615 Y-3.35455 Z[#3+-0.04000]
#1=[#500+[#501-#500]*0.00000]
#2=[#506+[#507-#506]*0.00000]
#3=[#1+[#2-#1]*0.01282]
X-10.94803 Y-3.35492 Z[#3+-0.04000]
#1=[#500+[#501-#500]*0.00099]
#2=[#506+[#507-#506]*0.00099]
#3=[#1+[#2-#1]*0.00792]
X-10.94991 Y-3.35455 Z[#3+-0.04000]
#1=[#500+[#501-#500]*0.00381]
#2=[#506+[#507-#506]*0.00381]
#3=[#1+[#2-#1]*0.00376]
X-10.95151 Y-3.35348 Z[#3+-0.04000]
#1=[#500+[#501-#500]*0.00803]
#2=[#506+[#507-#506]*0.00803]
#3=[#1+[#2-#1]*0.00098]
X-10.95258 Y-3.35188 Z[#3+-0.04000]
#1=[#500+[#501-#500]*0.01300]
#2=[#506+[#507-#506]*0.01300]
#3=[#1+[#2-#1]*0.00000]
X-10.95295 Y-3.35000 Z[#3+-0.04000]
#1=[#500+[#501-#500]*0.01798]
#2=[#506+[#507-#506]*0.01798]
#3=[#1+[#2-#1]*0.00098]
X-10.95258 Y-3.34812 Z[#3+-0.04000]
#1=[#500+[#501-#500]*0.02220]
#2=[#506+[#507-#506]*0.02220]
#3=[#1+[#2-#1]*0.00376]
X-10.95151 Y-3.34652 Z[#3+-0.04000]
#1=[#500+[#501-#500]*0.14513]
#2=[#506+[#507-#506]*0.14513]
#3=[#1+[#2-#1]*0.12498]
X-10.90499 Y-3.30000 Z[#3+-0.04000]
#1=[#500+[#501-#500]*0.26806]
#2=[#506+[#507-#506]*0.26806]
#3=[#1+[#2-#1]*0.00376]
X-10.95151 Y-3.25348 Z[#3+-0.04000]
#1=[#500+[#501-#500]*0.27228]
#2=[#506+[#507-#506]*0.27228]
#3=[#1+[#2-#1]*0.00098]
X-10.95258 Y-3.25188 Z[#3+-0.04000]
#1=[#500+[#501-#500]*0.27726]
#2=[#506+[#507-#506]*0.27726]
#3=[#1+[#2-#1]*0.00000]
X-10.95295 Y-3.25000 Z[#3+-0.04000]
#1=[#500+[#501-#500]*0.28224]
#2=[#506+[#507-#506]*0.28224]
#3=[#1+[#2-#1]*0.00098]
X-10.95258 Y-3.24812 Z[#3+-0.04000]
#1=[#500+[#501-#500]*0.28645]
#2=[#506+[#507-#506]*0.28645]
#3=[#1+[#2-#1]*0.00376]
X-10.95151 Y-3.24652 Z[#3+-0.04000]
#1=[#500+[#501-#500]*0.28927]
#2=[#506+[#507-#506]*0.28927]
#3=[#1+[#2-#1]*0.00792]
X-10.94991 Y-3.24545 Z[#3+-0.04000]
#1=[#500+[#501-#500]*0.29026]
#2=[#506+[#507-#506]*0.29026]
#3=[#1+[#2-#1]*0.01282]
X-10.94803 Y-3.24508 Z[#3+-0.04000]
#1=[#500+[#501-#500]*0.28927]
#2=[#506+[#507-#506]*0.28927]
#3=[#1+[#2-#1]*0.01773]
X-10.94615 Y-3.24545 Z[#3+-0.04000]
#1=[#500+[#501-#500]*0.28645]
#2=[#506+[#507-#506]*0.28645]
#3=[#1+[#2-#1]*0.02189]
X-10.94455 Y-3.24652 Z[#3+-0.04000]
#1=[#500+[#501-#500]*0.16352]
#2=[#506+[#507-#506]*0.16352]
#3=[#1+[#2-#1]*0.14312]
X-10.89803 Y-3.29304 Z[#3+-0.04000]
#1=[#500+[#501-#500]*0.28645]
#2=[#506+[#507-#506]*0.28645]
#3=[#1+[#2-#1]*0.26435]
X-10.85151 Y-3.24652 Z[#3+-0.04000]
#1=[#500+[#501-#500]*0.28927]
#2=[#506+[#507-#506]*0.28927]
#3=[#1+[#2-#1]*0.26851]
X-10.84991 Y-3.24545 Z[#3+-0.04000]
#1=[#500+[#501-#500]*0.29026]
#2=[#506+[#507-#506]*0.29026]
#3=[#1+[#2-#1]*0.27341]
X-10.84803 Y-3.24508 Z[#3+-0.04000]
#1=[#500+[#501-#500]*0.28927]
#2=[#506+[#507-#506]*0.28927]
#3=[#1+[#2-#1]*0.27832]
X-10.84615 Y-3.24545 Z[#3+-0.04000]
#1=[#500+[#501-#500]*0.28645]
#2=[#506+[#507-#506]*0.28645]
#3=[#1+[#2-#1]*0.28248]
X-10.84455 Y-3.24652 Z[#3+-0.04000]
#1=[#500+[#501-#500]*0.28224]
#2=[#506+[#507-#506]*0.28224]
#3=[#1+[#2-#1]*0.28526]
X-10.84348 Y-3.24812 Z[#3+-0.04000]
#1=[#500+[#501-#500]*0.27726]
#2=[#506+[#507-#506]*0.27726]
#3=[#1+[#2-#1]*0.28624]
X-10.84311 Y-3.25000 Z[#3+-0.04000]
#1=[#500+[#501-#500]*0.27228]
#2=[#506+[#507-#506]*0.27228]
#3=[#1+[#2-#1]*0.28526]
X-10.84348 Y-3.25188 Z[#3+-0.04000]
#1=[#500+[#501-#500]*0.26806]
#2=[#506+[#507-#506]*0.26806]
#3=[#1+[#2-#1]*0.28248]
X-10.84455 Y-3.25348 Z[#3+-0.04000]
#1=[#500+[#501-#500]*0.14513]
#2=[#506+[#507-#506]*0.14513]
#3=[#1+[#2-#1]*0.16125]
X-10.89107 Y-3.30000 Z[#3+-0.04000]
#1=[#500+[#501-#500]*0.02220]
#2=[#506+[#507-#506]*0.02220]
#3=[#1+[#2-#1]*0.28248]
X-10.84455 Y-3.34652 Z[#3+-0.04000]
#1=[#500+[#501-#500]*0.01798]
#2=[#506+[#507-#506]*0.01798]
#3=[#1+[#2-#1]*0.28526]
X-10.84348 Y-3.34812 Z[#3+-0.04000]
#1=[#500+[#501-#500]*0.01300]
#2=[#506+[#507-#506]*0.01300]
#3=[#1+[#2-#1]*0.28624]
X-10.84311 Y-3.35000 Z[#3+-0.04000]
( Piece #2, position [1;0] )

G04 P0 ( dwell for no time -- G64 should not smooth over this point )
G00 Z0.08000 ( retract )

G00 X-6.98702 Y-2.94286 ( rapid move to begin. )
G01 F180.00000
( Mill infeed pass 1/1 )
#1=[#561+[#562-#561]*0.08890]
#2=[#567+[#568-#567]*0.08890]
#3=[#1+[#2-#1]*0.33476]
G01 Z[-0.04000+#100]
G04 P0 ( dwell for no time -- G64 should not smooth over this point )
G01 F360.00000
#1=[#561+[#562-#561]*0.06860]
#2=[#567+[#568-#567]*0.06860]
#3=[#1+[#2-#1]*0.33279]
X-6.98778 Y-2.95054 Z[#3+-0.04000]
#1=[#561+[#562-#561]*0.04908]
#2=[#567+[#568-#567]*0.04908]
#3=[#1+[#2-#1]*0.32695]
X-6.99002 Y-2.95792 Z[#3+-0.04000]
#1=[#561+[#562-#561]*0.03110]
#2=[#567+[#568-#567]*0.03110]
#3=[#1+[#2-#1]*0.31747]
X-6.99366 Y-2.96473 Z[#3+-0.04000]
#1=[#561+[#562-#561]*0.01533]
#2=[#567+[#568-#567]*0.01533]
#3=[#1+[#2-#1]*0.30471]
X-6.99856 Y-2.97070 Z[#3+-0.04000]
#1=[#561+[#562-#561]*0.00000]
#2=[#567+[#568-#567]*0.00000]
#3=[#1+[#2-#1]*0.28959]
X-7.00436 Y-2.97650 Z[#3+-0.04000]
#1=[#560+[#561-#560]*0.70633]
#2=[#566+[#567-#566]*0.70633]
#3=[#1+[#2-#1]*0.00000]
X-7.11549 Y-3.08763 Z[#3+-0.04000]
#1=[#554+[#555-#554]*0.70163]
#2=[#560+[#561-#560]*0.70163]
#3=[#1+[#2-#1]*0.99536]
X-7.11727 Y-3.08941 Z[#3+-0.04000]
#1=[#560+[#561-#560]*0.69535]
#2=[#566+[#567-#566]*0.69535]
#3=[#1+[#2-#1]*0.00000]
X-7.11549 Y-3.09178 Z[#3+-0.04000]
#1=[#560+[#561-#560]*0.27047]
#2=[#566+[#567-#566]*0.27047]
#3=[#1+[#2-#1]*0.31424]
X-6.99490 Y-3.25257 Z[#3+-0.04000]
#1=[#560+[#561-#560]*0.25304]
#2=[#566+[#567-#566]*0.25304]
#3=[#1+[#2-#1]*0.32467]
X-6.99090 Y-3.25917 Z[#3+-0.04000]
#1=[#560+[#561-#560]*0.23387]
#2=[#566+[#567-#566]*0.23387]
#3=[#1+[#2-#1]*0.33155]
X-6.98826 Y-3.26642 Z[#3+-0.04000]
#1=[#560+[#561-#560]*0.21371]
#2=[#566+[#567-#566]*0.21371]
#3=[#1+[#2-#1]*0.33461]
X-6.98708 Y-3.27405 Z[#3+-0.04000]
#1=[#560+[#561-#560]*0.19334]
#2=[#566+[#567-#566]*0.19334]
#3=[#1+[#2-#1]*0.33373]
X-6.98742 Y-3.28176 Z[#3+-0.04000]
#1=[#560+[#561-#560]*0.17353]
#2=[#566+[#567-#566]*0.17353]
#3=[#1+[#2-#1]*0.32895]
X-6.98926 Y-3.28925 Z[#3+-0.04000]
#1=[#560+[#561-#560]*0.15505]
#2=[#566+[#567-#566]*0.15505]
#3=[#1+[#2-#1]*0.32044]
X-6.99252 Y-3.29625 Z[#3+-0.04000]
#1=[#560+[#561-#560]*0.13860]
#2=[#566+[#567-#566]*0.13860]
#3=[#1+[#2-#1]*0.30855]
X-6.99708 Y-3.30247 Z[#3+-0.04000]
#1=[#560+[#561-#560]*0.12482]
#2=[#566+[#567-#566]*0.12482]
#3=[#1+[#2-#1]*0.29372]
X-7.00277 Y-3.30769 Z[#3+-0.04000]
#1=[#560+[#561-#560]*0.11424]
#2=[#566+[#567-#566]*0.11424]
#3=[#1+[#2-#1]*0.27653]
X-7.00937 Y-3.31169 Z[#3+-0.04000]
#1=[#560+[#561-#560]*0.10727]
#2=[#566+[#567-#566]*0.10727]
#3=[#1+[#2-#1]*0.25763]
X-7.01662 Y-3.31433 Z[#3+-0.04000]
#1=[#560+[#561-#560]*0.10417]
#2=[#566+[#567-#566]*0.10417]
#3=[#1+[#2-#1]*0.23775]
X-7.02425 Y-3.31550 Z[#3+-0.04000]
#1=[#560+[#561-#560]*0.10506]
#2=[#566+[#567-#566]*0.10506]
#3=[#1+[#2-#1]*0.21766]
X-7.03196 Y-3.31516 Z[#3+-0.04000]
#1=[#560+[#561-#560]*0.10991]
#2=[#566+[#567-#566]*0.10991]
#3=[#1+[#2-#1]*0.19812]
X-7.03946 Y-3.31333 Z[#3+-0.04000]
#1=[#560+[#561-#560]*0.11853]
#2=[#566+[#567-#566]*0.11853]
#3=[#1+[#2-#1]*0.17989]
X-7.04645 Y-3.31007 Z[#3+-0.04000]
#1=[#560+[#561-#560]*0.13059]
#2=[#566+[#567-#566]*0.13059]
#3=[#1+[#2-#1]*0.16368]
X-7.05268 Y-3.30550 Z[#3+-0.04000]
#1=[#560+[#561-#560]*0.14563]
#2=[#566+[#567-#566]*0.14563]
#3=[#1+[#2-#1]*0.15009]
X-7.05789 Y-3.29981 Z[#3+-0.04000]
#1=[#560+[#561-#560]*0.34856]
#2=[#566+[#567-#566]*0.34856]
#3=[#1+[#2-#1]*0.00000]
X-7.11549 Y-3.22302 Z[#3+-0.04000]
#1=[#554+[#555-#554]*0.55300]
#2=[#560+[#561-#560]*0.55300]
#3=[#1+[#2-#1]*0.84879]
X-7.17351 Y-3.14565 Z[#3+-0.04000]
#1=[#554+[#555-#554]*0.54246]
#2=[#560+[#561-#560]*0.54246]
#3=[#1+[#2-#1]*0.83840]
X-7.17750 Y-3.14964 Z[#3+-0.04000]
#1=[#554+[#555-#554]*0.20805]
#2=[#560+[#561-#560]*0.20805]
#3=[#1+[#2-#1]*0.83840]
X-7.17750 Y-3.27619 Z[#3+-0.04000]
#1=[#554+[#555-#554]*0.18776]
#2=[#560+[#561-#560]*0.18776]
#3=[#1+[#2-#1]*0.83643]
X-7.17826 Y-3.28387 Z[#3+-0.04000]
#1=[#554+[#555-#554]*0.16824]
#2=[#560+[#561-#560]*0.16824]
#3=[#1+[#2-#1]*0.83059]
X-7.18050 Y-3.29126 Z[#3+-0.04000]
#1=[#554+[#555-#554]*0.15025]
#2=[#560+[#561-#560]*0.15025]
#3=[#1+[#2-#1]*0.82111]
X-7.18414 Y-3.29806 Z[#3+-0.04000]
#1=[#554+[#555-#554]*0.13449]
#2=[#560+[#561-#560]*0.13449]
#3=[#1+[#2-#1]*0.80835]
X-7.18903 Y-3.30403 Z[#3+-0.04000]
#1=[#554+[#555-#554]*0.12155]
#2=[#560+[#561-#560]*0.12155]
#3=[#1+[#2-#1]*0.79280]
X-7.19500 Y-3.30892 Z[#3+-0.04000]
#1=[#554+[#555-#554]*0.11193]
#2=[#560+[#561-#560]*0.11193]
#3=[#1+[#2-#1]*0.77507]
X-7.20181 Y-3.31256 Z[#3+-0.04000]
#1=[#554+[#555-#554]*0.10601]
#2=[#560+[#561-#560]*0.10601]
#3=[#1+[#2-#1]*0.75582]
X-7.20919 Y-3.31480 Z[#3+-0.04000]
#1=[#554+[#555-#554]*0.10401]
#2=[#560+[#561-#560]*0.10401]
#3=[#1+[#2-#1]*0.73580]
X-7.21687 Y-3.31556 Z[#3+-0.04000]
#1=[#554+[#555-#554]*0.10601]
#2=[#560+[#561-#560]*0.10601]
#3=[#1+[#2-#1]*0.71579]
X-7.22455 Y-3.31480 Z[#3+-0.04000]
#1=[#554+[#555-#554]*0.11193]
#2=[#560+[#561-#560]*0.11193]
#3=[#1+[#2-#1]*0.69654]
X-7.23194 Y-3.31256 Z[#3+-0.04000]
#1=[#554+[#555-#554]*0.12155]
#2=[#560+[#561-#560]*0.12155]
#3=[#1+[#2-#1]*0.67881]
X-7.23874 Y-3.30892 Z[#3+-0.04000]
#1=[#554+[#555-#554]*0.13449]
#2=[#560+[#561-#560]*0.13449]
#3=[#1+[#2-#1]*0.66326]
X-7.24471 Y-3.30403 Z[#3+-0.04000]
#1=[#554+[#555-#554]*0.15025]
#2=[#560+[#561-#560]*0.15025]
#3=[#1+[#2-#1]*0.65050]
X-7.24961 Y-3.29806 Z[#3+-0.04000]
#1=[#554+[#555-#554]*0.16824]
#2=[#560+[#561-#560]*0.16824]
#3=[#1+[#2-#1]*0.64102]
X-7.25325 Y-3.29126 Z[#3+-0.04000]
#1=[#554+[#555-#554]*0.18776]
#2=[#560+[#561-#560]*0.18776]
#3=[#1+[#2-#1]*0.63518]
X-7.25549 Y-3.28387 Z[#3+-0.04000]
#1=[#554+[#555-#554]*0.20805]
#2=[#560+[#561-#560]*0.20805]
#3=[#1+[#2-#1]*0.63321]
X-7.25624 Y-3.27619 Z[#3+-0.04000]
#1=[#555+[#556-#555]*0.00000]
#2=[#561+[#562-#561]*0.00000]
#3=[#1+[#2-#1]*0.63321]
X-7.25624 Y-2.97650 Z[#3+-0.04000]
#1=[#555+[#556-#555]*0.52932]
#2=[#561+[#562-#561]*0.52932]
#3=[#1+[#2-#1]*0.63321]
X-7.25624 Y-2.77619 Z[#3+-0.04000]
#1=[#555+[#556-#555]*0.54962]
#2=[#561+[#562-#561]*0.54962]
#3=[#1+[#2-#1]*0.63518]
X-7.25549 Y-2.76851 Z[#3+-0.04000]
#1=[#555+[#556-#555]*0.56914]
#2=[#561+[#562-#561]*0.56914]
#3=[#1+[#2-#1]*0.64102]
X-7.25325 Y-2.76112 Z[#3+-0.04000]
#1=[#555+[#556-#555]*0.58712]
#2=[#561+[#562-#561]*0.58712]
#3=[#1+[#2-#1]*0.65050]
X-7.24961 Y-2.75432 Z[#3+-0.04000]
#1=[#555+[#556-#555]*0.60289]
#2=[#561+[#562-#561]*0.60289]
#3=[#1+[#2-#1]*0.66326]
X-7.24471 Y-2.74835 Z[#3+-0.04000]
#1=[#555+[#556-#555]*0.61583]
#2=[#561+[#562-#561]*0.61583]
#3=[#1+[#2-#1]*0.67881]
X-7.23874 Y-2.74345 Z[#3+-0.04000]
#1=[#555+[#556-#555]*0.62544]
#2=[#561+[#562-#561]*0.62544]
#3=[#1+[#2-#1]*0.69654]
X-7.23194 Y-2.73982 Z[#3+-0.04000]
#1=[#555+[#556-#555]*0.63136]
#2=[#561+[#562-#561]*0.63136]
#3=[#1+[#2-#1]*0.71579]
X-7.22455 Y-2.73758 Z[#3+-0.04000]
#1=[#555+[#556-#555]*0.63336]
#2=[#561+[#562-#561]*0.63336]
#3=[#1+[#2-#1]*0.73580]
X-7.21687 Y-2.73682 Z[#3+-0.04000]
#1=[#555+[#556-#555]*0.63136]
#2=[#561+[#562-#561]*0.63136]
#3=[#1+[#2-#1]*0.75582]
X-7.20919 Y-2.73758 Z[#3+-0.04000]
#1=[#555+[#556-#555]*0.62544]
#2=[#561+[#562-#561]*0.62544]
#3=[#1+[#2-#1]*0.77507]
X-7.20181 Y-2.73982 Z[#3+-0.04000]
#1=[#555+[#556-#555]*0.61583]
#2=[#561+[#562-#561]*0.61583]
#3=[#1+[#2-#1]*0.79280]
X-7.19500 Y-2.74345 Z[#3+-0.04000]
#1=[#555+[#556-#555]*0.60289]
#2=[#561+[#562-#561]*0.60289]
#3=[#1+[#2-#1]*0.80835]
X-7.18903 Y-2.74835 Z[#3+-0.04000]
#1=[#555+[#556-#555]*0.58712]
#2=[#561+[#562-#561]*0.58712]
#3=[#1+[#2-#1]*0.82111]
X-7.18414 Y-2.75432 Z[#3+-0.04000]
#1=[#555+[#556-#555]*0.56914]
#2=[#561+[#562-#561]*0.56914]
#3=[#1+[#2-#1]*0.83059]
X-7.18050 Y-2.76112 Z[#3+-0.04000]
#1=[#555+[#556-#555]*0.54962]
#2=[#561+[#562-#561]*0.54962]
#3=[#1+[#2-#1]*0.83643]
X-7.17826 Y-2.76851 Z[#3+-0.04000]
#1=[#555+[#556-#555]*0.52932]
#2=[#561+[#562-#561]*0.52932]
#3=[#1+[#2-#1]*0.83840]
X-7.17750 Y-2.77619 Z[#3+-0.04000]
#1=[#555+[#556-#555]*0.00000]
#2=[#561+[#562-#561]*0.00000]
#3=[#1+[#2-#1]*0.83840]
X-7.17750 Y-2.97650 Z[#3+-0.04000]
#1=[#554+[#555-#554]*0.83672]
#2=[#560+[#561-#560]*0.83672]
#3=[#1+[#2-#1]*0.83840]
X-7.17750 Y-3.03829 Z[#3+-0.04000]
#1=[#555+[#556-#555]*0.00000]
#2=[#561+[#562-#561]*0.00000]
#3=[#1+[#2-#1]*0.99941]
X-7.11571 Y-2.97650 Z[#3+-0.04000]
#1=[#561+[#562-#561]*0.00059]
#2=[#567+[#568-#567]*0.00059]
#3=[#1+[#2-#1]*0.00000]
X-7.11549 Y-2.97627 Z[#3+-0.04000]
#1=[#561+[#562-#561]*0.16246]
#2=[#567+[#568-#567]*0.16246]
#3=[#1+[#2-#1]*0.15962]
X-7.05423 Y-2.91502 Z[#3+-0.04000]
#1=[#561+[#562-#561]*0.17540]
#2=[#567+[#568-#567]*0.17540]
#3=[#1+[#2-#1]*0.17517]
X-7.04827 Y-2.91012 Z[#3+-0.04000]
#1=[#561+[#562-#561]*0.18502]
#2=[#567+[#568-#567]*0.18502]
#3=[#1+[#2-#1]*0.19290]
X-7.04146 Y-2.90648 Z[#3+-0.04000]
#1=[#561+[#562-#561]*0.19094]
#2=[#567+[#568-#567]*0.19094]
#3=[#1+[#2-#1]*0.21215]
X-7.03408 Y-2.90424 Z[#3+-0.04000]
#1=[#561+[#562-#561]*0.19294]
#2=[#567+[#568-#567]*0.19294]
#3=[#1+[#2-#1]*0.23216]
X-7.02640 Y-2.90349 Z[#3+-0.04000]
#1=[#561+[#562-#561]*0.19094]
#2=[#567+[#568-#567]*0.19094]
#3=[#1+[#2-#1]*0.25218]
X-7.01871 Y-2.90424 Z[#3+-0.04000]
#1=[#561+[#562-#561]*0.18502]
#2=[#567+[#568-#567]*0.18502]
#3=[#1+[#2-#1]*0.27143]
X-7.01133 Y-2.90648 Z[#3+-0.04000]
#1=[#561+[#562-#561]*0.17540]
#2=[#567+[#568-#567]*0.17540]
#3=[#1+[#2-#1]*0.28916]
X-7.00452 Y-2.91012 Z[#3+-0.04000]
#1=[#561+[#562-#561]*0.16246]
#2=[#567+[#568-#567]*0.16246]
#3=[#1+[#2-#1]*0.30471]
X-6.99856 Y-2.91502 Z[#3+-0.04000]
#1=[#561+[#562-#561]*0.14670]
#2=[#567+[#568-#567]*0.14670]
#3=[#1+[#2-#1]*0.31747]
X-6.99366 Y-2.92098 Z[#3+-0.04000]
#1=[#561+[#562-#561]*0.12871]
#2=[#567+[#568-#567]*0.12871]
#3=[#1+[#2-#1]*0.32695]
X-6.99002 Y-2.92779 Z[#3+-0.04000]
#1=[#561+[#562-#561]*0.10919]
#2=[#567+[#568-#567]*0.10919]
#3=[#1+[#2-#1]*0.33279]
X-6.98778 Y-2.93518 Z[#3+-0.04000]
#1=[#561+[#562-#561]*0.08890]
#2=[#567+[#568-#567]*0.08890]
#3=[#1+[#2-#1]*0.33476]
X-6.98702 Y-2.94286 Z[#3+-0.04000]
G04 P0 ( dwell for no time -- G64 should not smooth over this point )
G00 Z0.08000 ( retract )

G00 X-7.39189 Y-3.24959 ( rapid move to begin. )
G01 F180.00000
( Mill infeed pass 1/1 )
#1=[#554+[#555-#554]*0.27835]
#2=[#560+[#561-#560]*0.27835]
#3=[#1+[#2-#1]*0.27974]
G01 Z[-0.04000+#100]
G04 P0 ( dwell for no time -- G64 should not smooth over this point )
G01 F360.00000
#1=[#554+[#555-#554]*0.25796]
#2=[#560+[#561-#560]*0.25796]
#3=[#1+[#2-#1]*0.27919]
X-7.39210 Y-3.25730 Z[#3+-0.04000]
#1=[#554+[#555-#554]*0.23807]
#2=[#560+[#561-#560]*0.23807]
#3=[#1+[#2-#1]*0.27473]
X-7.39381 Y-3.26483 Z[#3+-0.04000]
#1=[#554+[#555-#554]*0.21945]
#2=[#560+[#561-#560]*0.21945]
#3=[#1+[#2-#1]*0.26653]
X-7.39695 Y-3.27188 Z[#3+-0.04000]
#1=[#554+[#555-#554]*0.20280]
#2=[#560+[#561-#560]*0.20280]
#3=[#1+[#2-#1]*0.25491]
X-7.40141 Y-3.27818 Z[#3+-0.04000]
#1=[#554+[#555-#554]*0.18878]
#2=[#560+[#561-#560]*0.18878]
#3=[#1+[#2-#1]*0.24030]
X-7.40702 Y-3.28348 Z[#3+-0.04000]
#1=[#554+[#555-#554]*0.17792]
#2=[#560+[#561-#560]*0.17792]
#3=[#1+[#2-#1]*0.22328]
X-7.41355 Y-3.28759 Z[#3+-0.04000]
#1=[#554+[#555-#554]*0.11500]
#2=[#560+[#561-#560]*0.11500]
#3=[#1+[#2-#1]*0.09919]
X-7.46117 Y-3.31140 Z[#3+-0.04000]
#1=[#554+[#555-#554]*0.10894]
#2=[#560+[#561-#560]*0.10894]
#3=[#1+[#2-#1]*0.08452]
X-7.46680 Y-3.31369 Z[#3+-0.04000]
#1=[#554+[#555-#554]*0.10526]
#2=[#560+[#561-#560]*0.10526]
#3=[#1+[#2-#1]*0.06910]
X-7.47272 Y-3.31509 Z[#3+-0.04000]
#1=[#554+[#555-#554]*0.10401]
#2=[#560+[#561-#560]*0.10401]
#3=[#1+[#2-#1]*0.05331]
X-7.47878 Y-3.31556 Z[#3+-0.04000]
#1=[#554+[#555-#554]*0.10401]
#2=[#560+[#561-#560]*0.10401]
#3=[#1+[#2-#1]*0.00000]
X-7.49923 Y-3.31556 Z[#3+-0.04000]
#1=[#548+[#549-#548]*0.10401]
#2=[#554+[#555-#554]*0.10401]
#3=[#1+[#2-#1]*0.80513]
X-7.57402 Y-3.31556 Z[#3+-0.04000]
#1=[#548+[#549-#548]*0.10526]
#2=[#554+[#555-#554]*0.10526]
#3=[#1+[#2-#1]*0.78934]
X-7.58008 Y-3.31509 Z[#3+-0.04000]
#1=[#548+[#549-#548]*0.10894]
#2=[#554+[#555-#554]*0.10894]
#3=[#1+[#2-#1]*0.77392]
X-7.58599 Y-3.31369 Z[#3+-0.04000]
#1=[#548+[#549-#548]*0.11500]
#2=[#554+[#555-#554]*0.11500]
#3=[#1+[#2-#1]*0.75925]
X-7.59162 Y-3.31140 Z[#3+-0.04000]
#1=[#548+[#549-#548]*0.17792]
#2=[#554+[#555-#554]*0.17792]
#3=[#1+[#2-#1]*0.63516]
X-7.63924 Y-3.28759 Z[#3+-0.04000]
#1=[#548+[#549-#548]*0.18657]
#2=[#554+[#555-#554]*0.18657]
#3=[#1+[#2-#1]*0.62105]
X-7.64465 Y-3.28432 Z[#3+-0.04000]
#1=[#548+[#549-#548]*0.19741]
#2=[#554+[#555-#554]*0.19741]
#3=[#1+[#2-#1]*0.60850]
X-7.64947 Y-3.28022 Z[#3+-0.04000]
#1=[#548+[#549-#548]*0.26032]
#2=[#554+[#555-#554]*0.26032]
#3=[#1+[#2-#1]*0.54645]
X-7.67328 Y-3.25641 Z[#3+-0.04000]
#1=[#548+[#549-#548]*0.27305]
#2=[#554+[#555-#554]*0.27305]
#3=[#1+[#2-#1]*0.53577]
X-7.67738 Y-3.25159 Z[#3+-0.04000]
#1=[#548+[#549-#548]*0.28736]
#2=[#554+[#555-#554]*0.28736]
#3=[#1+[#2-#1]*0.52723]
X-7.68066 Y-3.24618 Z[#3+-0.04000]
#1=[#548+[#549-#548]*0.41319]
#2=[#554+[#555-#554]*0.41319]
#3=[#1+[#2-#1]*0.46519]
X-7.70447 Y-3.19856 Z[#3+-0.04000]
#1=[#548+[#549-#548]*0.42807]
#2=[#554+[#555-#554]*0.42807]
#3=[#1+[#2-#1]*0.45922]
X-7.70676 Y-3.19293 Z[#3+-0.04000]
#1=[#548+[#549-#548]*0.44371]
#2=[#554+[#555-#554]*0.44371]
#3=[#1+[#2-#1]*0.45558]
X-7.70815 Y-3.18701 Z[#3+-0.04000]
#1=[#548+[#549-#548]*0.45972]
#2=[#554+[#555-#554]*0.45972]
#3=[#1+[#2-#1]*0.45435]
X-7.70862 Y-3.18095 Z[#3+-0.04000]
#1=[#548+[#549-#548]*0.83723]
#2=[#554+[#555-#554]*0.83723]
#3=[#1+[#2-#1]*0.45435]
X-7.70862 Y-3.03810 Z[#3+-0.04000]
#1=[#548+[#549-#548]*0.85324]
#2=[#554+[#555-#554]*0.85324]
#3=[#1+[#2-#1]*0.45558]
X-7.70815 Y-3.03203 Z[#3+-0.04000]
#1=[#548+[#549-#548]*0.86888]
#2=[#554+[#555-#554]*0.86888]
#3=[#1+[#2-#1]*0.45922]
X-7.70676 Y-3.02612 Z[#3+-0.04000]
#1=[#548+[#549-#548]*0.88376]
#2=[#554+[#555-#554]*0.88376]
#3=[#1+[#2-#1]*0.46519]
X-7.70447 Y-3.02049 Z[#3+-0.04000]
#1=[#549+[#550-#549]*0.00000]
#2=[#555+[#556-#555]*0.00000]
#3=[#1+[#2-#1]*0.52250]
X-7.68247 Y-2.97650 Z[#3+-0.04000]
#1=[#549+[#550-#549]*0.00959]
#2=[#555+[#556-#555]*0.00959]
#3=[#1+[#2-#1]*0.52723]
X-7.68066 Y-2.97287 Z[#3+-0.04000]
#1=[#549+[#550-#549]*0.02389]
#2=[#555+[#556-#555]*0.02389]
#3=[#1+[#2-#1]*0.53577]
X-7.67738 Y-2.96746 Z[#3+-0.04000]
#1=[#549+[#550-#549]*0.03663]
#2=[#555+[#556-#555]*0.03663]
#3=[#1+[#2-#1]*0.54645]
X-7.67328 Y-2.96264 Z[#3+-0.04000]
#1=[#549+[#550-#549]*0.09955]
#2=[#555+[#556-#555]*0.09955]
#3=[#1+[#2-#1]*0.60849]
X-7.64947 Y-2.93883 Z[#3+-0.04000]
#1=[#549+[#550-#549]*0.11038]
#2=[#555+[#556-#555]*0.11038]
#3=[#1+[#2-#1]*0.62105]
X-7.64465 Y-2.93473 Z[#3+-0.04000]
#1=[#549+[#550-#549]*0.11903]
#2=[#555+[#556-#555]*0.11903]
#3=[#1+[#2-#1]*0.63516]
X-7.63924 Y-2.93145 Z[#3+-0.04000]
#1=[#549+[#550-#549]*0.18195]
#2=[#555+[#556-#555]*0.18195]
#3=[#1+[#2-#1]*0.75925]
X-7.59162 Y-2.90764 Z[#3+-0.04000]
#1=[#549+[#550-#549]*0.18800]
#2=[#555+[#556-#555]*0.18800]
#3=[#1+[#2-#1]*0.77392]
X-7.58599 Y-2.90535 Z[#3+-0.04000]
#1=[#549+[#550-#549]*0.19169]
#2=[#555+[#556-#555]*0.19169]
#3=[#1+[#2-#1]*0.78934]
X-7.58008 Y-2.90396 Z[#3+-0.04000]
#1=[#549+[#550-#549]*0.19294]
#2=[#555+[#556-#555]*0.19294]
#3=[#1+[#2-#1]*0.80513]
X-7.57402 Y-2.90349 Z[#3+-0.04000]
#1=[#555+[#556-#555]*0.19294]
#2=[#561+[#562-#561]*0.19294]
#3=[#1+[#2-#1]*0.00000]
X-7.49923 Y-2.90349 Z[#3+-0.04000]
#1=[#555+[#556-#555]*0.19294]
#2=[#561+[#562-#561]*0.19294]
#3=[#1+[#2-#1]*0.05331]
X-7.47878 Y-2.90349 Z[#3+-0.04000]
#1=[#555+[#556-#555]*0.19169]
#2=[#561+[#562-#561]*0.19169]
#3=[#1+[#2-#1]*0.06910]
X-7.47272 Y-2.90396 Z[#3+-0.04000]
#1=[#555+[#556-#555]*0.18800]
#2=[#561+[#562-#561]*0.18800]
#3=[#1+[#2-#1]*0.08452]
X-7.46680 Y-2.90535 Z[#3+-0.04000]
#1=[#555+[#556-#555]*0.18195]
#2=[#561+[#562-#561]*0.18195]
#3=[#1+[#2-#1]*0.09919]
X-7.46117 Y-2.90764 Z[#3+-0.04000]
#1=[#555+[#556-#555]*0.11903]
#2=[#561+[#562-#561]*0.11903]
#3=[#1+[#2-#1]*0.22328]
X-7.41355 Y-2.93145 Z[#3+-0.04000]
#1=[#555+[#556-#555]*0.10817]
#2=[#561+[#562-#561]*0.10817]
#3=[#1+[#2-#1]*0.24030]
X-7.40702 Y-2.93556 Z[#3+-0.04000]
#1=[#555+[#556-#555]*0.09415]
#2=[#561+[#562-#561]*0.09415]
#3=[#1+[#2-#1]*0.25491]
X-7.40141 Y-2.94087 Z[#3+-0.04000]
#1=[#555+[#556-#555]*0.07750]
#2=[#561+[#562-#561]*0.07750]
#3=[#1+[#2-#1]*0.26653]
X-7.39695 Y-2.94717 Z[#3+-0.04000]
#1=[#555+[#556-#555]*0.05888]
#2=[#561+[#562-#561]*0.05888]
#3=[#1+[#2-#1]*0.27473]
X-7.39381 Y-2.95422 Z[#3+-0.04000]
#1=[#555+[#556-#555]*0.03899]
#2=[#561+[#562-#561]*0.03899]
#3=[#1+[#2-#1]*0.27919]
X-7.39210 Y-2.96174 Z[#3+-0.04000]
#1=[#555+[#556-#555]*0.01861]
#2=[#561+[#562-#561]*0.01861]
#3=[#1+[#2-#1]*0.27974]
X-7.39189 Y-2.96946 Z[#3+-0.04000]
#1=[#555+[#556-#555]*0.00000]
#2=[#561+[#562-#561]*0.00000]
#3=[#1+[#2-#1]*0.27661]
X-7.39309 Y-2.97650 Z[#3+-0.04000]
#1=[#554+[#555-#554]*0.99850]
#2=[#560+[#561-#560]*0.99850]
#3=[#1+[#2-#1]*0.27635]
X-7.39318 Y-2.97706 Z[#3+-0.04000]
#1=[#554+[#555-#554]*0.97946]
#2=[#560+[#561-#560]*0.97946]
#3=[#1+[#2-#1]*0.26916]
X-7.39594 Y-2.98427 Z[#3+-0.04000]
#1=[#554+[#555-#554]*0.96219]
#2=[#560+[#561-#560]*0.96219]
#3=[#1+[#2-#1]*0.25845]
X-7.40005 Y-2.99080 Z[#3+-0.04000]
#1=[#554+[#555-#554]*0.94739]
#2=[#560+[#561-#560]*0.94739]
#3=[#1+[#2-#1]*0.24462]
X-7.40536 Y-2.99641 Z[#3+-0.04000]
#1=[#554+[#555-#554]*0.93560]
#2=[#560+[#561-#560]*0.93560]
#3=[#1+[#2-#1]*0.22821]
X-7.41166 Y-3.00087 Z[#3+-0.04000]
#1=[#554+[#555-#554]*0.92728]
#2=[#560+[#561-#560]*0.92728]
#3=[#1+[#2-#1]*0.20985]
X-7.41871 Y-3.00401 Z[#3+-0.04000]
#1=[#554+[#555-#554]*0.92276]
#2=[#560+[#561-#560]*0.92276]
#3=[#1+[#2-#1]*0.19023]
X-7.42623 Y-3.00573 Z[#3+-0.04000]
#1=[#554+[#555-#554]*0.92220]
#2=[#560+[#561-#560]*0.92220]
#3=[#1+[#2-#1]*0.17013]
X-7.43395 Y-3.00594 Z[#3+-0.04000]
#1=[#554+[#555-#554]*0.92564]
#2=[#560+[#561-#560]*0.92564]
#3=[#1+[#2-#1]*0.15030]
X-7.44156 Y-3.00464 Z[#3+-0.04000]
#1=[#554+[#555-#554]*0.93293]
#2=[#560+[#561-#560]*0.93293]
#3=[#1+[#2-#1]*0.13152]
X-7.44876 Y-3.00188 Z[#3+-0.04000]
#1=[#554+[#555-#554]*0.98486]
#2=[#560+[#561-#560]*0.98486]
#3=[#1+[#2-#1]*0.02909]
X-7.48807 Y-2.98223 Z[#3+-0.04000]
#1=[#554+[#555-#554]*0.98486]
#2=[#560+[#561-#560]*0.98486]
#3=[#1+[#2-#1]*0.00000]
X-7.49923 Y-2.98223 Z[#3+-0.04000]
#1=[#548+[#549-#548]*0.98486]
#2=[#554+[#555-#554]*0.98486]
#3=[#1+[#2-#1]*0.82935]
X-7.56472 Y-2.98223 Z[#3+-0.04000]
#1=[#548+[#549-#548]*0.94048]
#2=[#554+[#555-#554]*0.94048]
#3=[#1+[#2-#1]*0.74181]
X-7.59831 Y-2.99902 Z[#3+-0.04000]
#1=[#548+[#549-#548]*0.90144]
#2=[#554+[#555-#554]*0.90144]
#3=[#1+[#2-#1]*0.70331]
X-7.61309 Y-3.01380 Z[#3+-0.04000]
#1=[#548+[#549-#548]*0.81267]
#2=[#554+[#555-#554]*0.81267]
#3=[#1+[#2-#1]*0.65954]
X-7.62988 Y-3.04739 Z[#3+-0.04000]
#1=[#548+[#549-#548]*0.48428]
#2=[#554+[#555-#554]*0.48428]
#3=[#1+[#2-#1]*0.65954]
X-7.62988 Y-3.17166 Z[#3+-0.04000]
#1=[#548+[#549-#548]*0.39551]
#2=[#554+[#555-#554]*0.39551]
#3=[#1+[#2-#1]*0.70331]
X-7.61309 Y-3.20525 Z[#3+-0.04000]
#1=[#548+[#549-#548]*0.35647]
#2=[#554+[#555-#554]*0.35647]
#3=[#1+[#2-#1]*0.74181]
X-7.59831 Y-3.22002 Z[#3+-0.04000]
#1=[#548+[#549-#548]*0.31209]
#2=[#554+[#555-#554]*0.31209]
#3=[#1+[#2-#1]*0.82935]
X-7.56472 Y-3.23682 Z[#3+-0.04000]
#1=[#554+[#555-#554]*0.31209]
#2=[#560+[#561-#560]*0.31209]
#3=[#1+[#2-#1]*0.00000]
X-7.49923 Y-3.23682 Z[#3+-0.04000]
#1=[#554+[#555-#554]*0.31209]
#2=[#560+[#561-#560]*0.31209]
#3=[#1+[#2-#1]*0.02909]
X-7.48807 Y-3.23682 Z[#3+-0.04000]
#1=[#554+[#555-#554]*0.36402]
#2=[#560+[#561-#560]*0.36402]
#3=[#1+[#2-#1]*0.13152]
X-7.44876 Y-3.21717 Z[#3+-0.04000]
#1=[#554+[#555-#554]*0.37131]
#2=[#560+[#561-#560]*0.37131]
#3=[#1+[#2-#1]*0.15030]
X-7.44156 Y-3.21441 Z[#3+-0.04000]
#1=[#554+[#555-#554]*0.37475]
#2=[#560+[#561-#560]*0.37475]
#3=[#1+[#2-#1]*0.17013]
X-7.43395 Y-3.21311 Z[#3+-0.04000]
#1=[#554+[#555-#554]*0.37419]
#2=[#560+[#561-#560]*0.37419]
#3=[#1+[#2-#1]*0.19023]
X-7.42623 Y-3.21332 Z[#3+-0.04000]
#1=[#554+[#555-#554]*0.36967]
#2=[#560+[#561-#560]*0.36967]
#3=[#1+[#2-#1]*0.20984]
X-7.41871 Y-3.21503 Z[#3+-0.04000]
#1=[#554+[#555-#554]*0.36135]
#2=[#560+[#561-#560]*0.36135]
#3=[#1+[#2-#1]*0.22821]
X-7.41166 Y-3.21818 Z[#3+-0.04000]
#1=[#554+[#555-#554]*0.34957]
#2=[#560+[#561-#560]*0.34957]
#3=[#1+[#2-#1]*0.24462]
X-7.40536 Y-3.22264 Z[#3+-0.04000]
#1=[#554+[#555-#554]*0.33476]
#2=[#560+[#561-#560]*0.33476]
#3=[#1+[#2-#1]*0.25845]
X-7.40006 Y-3.22824 Z[#3+-0.04000]
#1=[#554+[#555-#554]*0.31750]
#2=[#560+[#561-#560]*0.31750]
#3=[#1+[#2-#1]*0.26916]
X-7.39594 Y-3.23477 Z[#3+-0.04000]
#1=[#554+[#555-#554]*0.29845]
#2=[#560+[#561-#560]*0.29845]
#3=[#1+[#2-#1]*0.27635]
X-7.39319 Y-3.24198 Z[#3+-0.04000]
#1=[#554+[#555-#554]*0.27835]
#2=[#560+[#561-#560]*0.27835]
#3=[#1+[#2-#1]*0.27974]
X-7.39189 Y-3.24959 Z[#3+-0.04000]
G04 P0 ( dwell for no time -- G64 should not smooth over this point )
G00 Z0.08000 ( retract )

G00 X-7.84417 Y-3.27619 ( rapid move to begin. )
G01 F180.00000
( Mill infeed pass 1/1 )
#1=[#548+[#549-#548]*0.20805]
#2=[#554+[#555-#554]*0.20805]
#3=[#1+[#2-#1]*0.10114]
G01 Z[-0.04000+#100]
G04 P0 ( dwell for no time -- G64 should not smooth over this point )
G01 F360.00000
#1=[#548+[#549-#548]*0.90014]
#2=[#554+[#555-#554]*0.90014]
#3=[#1+[#2-#1]*0.10114]
X-7.84417 Y-3.01429 Z[#3+-0.04000]
#1=[#548+[#549-#548]*0.91616]
#2=[#554+[#555-#554]*0.91616]
#3=[#1+[#2-#1]*0.09992]
X-7.84464 Y-3.00822 Z[#3+-0.04000]
#1=[#548+[#549-#548]*0.93179]
#2=[#554+[#555-#554]*0.93179]
#3=[#1+[#2-#1]*0.09628]
X-7.84603 Y-3.00231 Z[#3+-0.04000]
#1=[#548+[#549-#548]*0.94667]
#2=[#554+[#555-#554]*0.94667]
#3=[#1+[#2-#1]*0.09031]
X-7.84832 Y-2.99668 Z[#3+-0.04000]
#1=[#549+[#550-#549]*0.00000]
#2=[#555+[#556-#555]*0.00000]
#3=[#1+[#2-#1]*0.06402]
X-7.85841 Y-2.97650 Z[#3+-0.04000]
#1=[#549+[#550-#549]*0.07251]
#2=[#555+[#556-#555]*0.07251]
#3=[#1+[#2-#1]*0.02826]
X-7.87213 Y-2.94906 Z[#3+-0.04000]
#1=[#549+[#550-#549]*0.08681]
#2=[#555+[#556-#555]*0.08681]
#3=[#1+[#2-#1]*0.01973]
X-7.87541 Y-2.94365 Z[#3+-0.04000]
#1=[#549+[#550-#549]*0.09955]
#2=[#555+[#556-#555]*0.09955]
#3=[#1+[#2-#1]*0.00905]
X-7.87951 Y-2.93883 Z[#3+-0.04000]
#1=[#549+[#550-#549]*0.10735]
#2=[#555+[#556-#555]*0.10735]
#3=[#1+[#2-#1]*0.00000]
X-7.88298 Y-2.93587 Z[#3+-0.04000]
#1=[#543+[#544-#543]*0.11038]
#2=[#549+[#550-#549]*0.11038]
#3=[#1+[#2-#1]*0.99649]
X-7.88433 Y-2.93473 Z[#3+-0.04000]
#1=[#543+[#544-#543]*0.11903]
#2=[#549+[#550-#549]*0.11903]
#3=[#1+[#2-#1]*0.98238]
X-7.88974 Y-2.93145 Z[#3+-0.04000]
#1=[#543+[#544-#543]*0.18195]
#2=[#549+[#550-#549]*0.18195]
#3=[#1+[#2-#1]*0.85829]
X-7.93736 Y-2.90764 Z[#3+-0.04000]
#1=[#543+[#544-#543]*0.18800]
#2=[#549+[#550-#549]*0.18800]
#3=[#1+[#2-#1]*0.84362]
X-7.94299 Y-2.90535 Z[#3+-0.04000]
#1=[#543+[#544-#543]*0.19169]
#2=[#549+[#550-#549]*0.19169]
#3=[#1+[#2-#1]*0.82820]
X-7.94891 Y-2.90396 Z[#3+-0.04000]
#1=[#543+[#544-#543]*0.19294]
#2=[#549+[#550-#549]*0.19294]
#3=[#1+[#2-#1]*0.81241]
X-7.95497 Y-2.90349 Z[#3+-0.04000]
#1=[#543+[#544-#543]*0.19294]
#2=[#549+[#550-#549]*0.19294]
#3=[#1+[#2-#1]*0.56423]
X-8.05021 Y-2.90349 Z[#3+-0.04000]
#1=[#543+[#544-#543]*0.19169]
#2=[#549+[#550-#549]*0.19169]
#3=[#1+[#2-#1]*0.54844]
X-8.05627 Y-2.90396 Z[#3+-0.04000]
#1=[#543+[#544-#543]*0.18800]
#2=[#549+[#550-#549]*0.18800]
#3=[#1+[#2-#1]*0.53302]
X-8.06218 Y-2.90535 Z[#3+-0.04000]
#1=[#543+[#544-#543]*0.18195]
#2=[#549+[#550-#549]*0.18195]
#3=[#1+[#2-#1]*0.51835]
X-8.06781 Y-2.90764 Z[#3+-0.04000]
#1=[#543+[#544-#543]*0.11903]
#2=[#549+[#550-#549]*0.11903]
#3=[#1+[#2-#1]*0.39426]
X-8.11543 Y-2.93145 Z[#3+-0.04000]
#1=[#543+[#544-#543]*0.10817]
#2=[#549+[#550-#549]*0.10817]
#3=[#1+[#2-#1]*0.37724]
X-8.12196 Y-2.93556 Z[#3+-0.04000]
#1=[#543+[#544-#543]*0.09415]
#2=[#549+[#550-#549]*0.09415]
#3=[#1+[#2-#1]*0.36264]
X-8.12757 Y-2.94087 Z[#3+-0.04000]
#1=[#543+[#544-#543]*0.07750]
#2=[#549+[#550-#549]*0.07750]
#3=[#1+[#2-#1]*0.35101]
X-8.13203 Y-2.94717 Z[#3+-0.04000]
#1=[#543+[#544-#543]*0.05888]
#2=[#549+[#550-#549]*0.05888]
#3=[#1+[#2-#1]*0.34281]
X-8.13517 Y-2.95422 Z[#3+-0.04000]
#1=[#543+[#544-#543]*0.03899]
#2=[#549+[#550-#549]*0.03899]
#3=[#1+[#2-#1]*0.33835]
X-8.13688 Y-2.96174 Z[#3+-0.04000]
#1=[#543+[#544-#543]*0.01861]
#2=[#549+[#550-#549]*0.01861]
#3=[#1+[#2-#1]*0.33780]
X-8.13710 Y-2.96946 Z[#3+-0.04000]
#1=[#543+[#544-#543]*0.00000]
#2=[#549+[#550-#549]*0.00000]
#3=[#1+[#2-#1]*0.34094]
X-8.13589 Y-2.97650 Z[#3+-0.04000]
#1=[#542+[#543-#542]*0.99850]
#2=[#548+[#549-#548]*0.99850]
#3=[#1+[#2-#1]*0.34119]
X-8.13580 Y-2.97706 Z[#3+-0.04000]
#1=[#542+[#543-#542]*0.97946]
#2=[#548+[#549-#548]*0.97946]
#3=[#1+[#2-#1]*0.34838]
X-8.13304 Y-2.98427 Z[#3+-0.04000]
#1=[#542+[#543-#542]*0.96219]
#2=[#548+[#549-#548]*0.96219]
#3=[#1+[#2-#1]*0.35909]
X-8.12893 Y-2.99080 Z[#3+-0.04000]
#1=[#542+[#543-#542]*0.94739]
#2=[#548+[#549-#548]*0.94739]
#3=[#1+[#2-#1]*0.37292]
X-8.12362 Y-2.99641 Z[#3+-0.04000]
#1=[#542+[#543-#542]*0.93560]
#2=[#548+[#549-#548]*0.93560]
#3=[#1+[#2-#1]*0.38933]
X-8.11732 Y-3.00087 Z[#3+-0.04000]
#1=[#542+[#543-#542]*0.92728]
#2=[#548+[#549-#548]*0.92728]
#3=[#1+[#2-#1]*0.40770]
X-8.11027 Y-3.00401 Z[#3+-0.04000]
#1=[#542+[#543-#542]*0.92276]
#2=[#548+[#549-#548]*0.92276]
#3=[#1+[#2-#1]*0.42731]
X-8.10275 Y-3.00573 Z[#3+-0.04000]
#1=[#542+[#543-#542]*0.92220]
#2=[#548+[#549-#548]*0.92220]
#3=[#1+[#2-#1]*0.44741]
X-8.09503 Y-3.00594 Z[#3+-0.04000]
#1=[#542+[#543-#542]*0.92564]
#2=[#548+[#549-#548]*0.92564]
#3=[#1+[#2-#1]*0.46724]
X-8.08743 Y-3.00464 Z[#3+-0.04000]
#1=[#542+[#543-#542]*0.93293]
#2=[#548+[#549-#548]*0.93293]
#3=[#1+[#2-#1]*0.48602]
X-8.08022 Y-3.00188 Z[#3+-0.04000]
#1=[#542+[#543-#542]*0.98486]
#2=[#548+[#549-#548]*0.98486]
#3=[#1+[#2-#1]*0.58845]
X-8.04091 Y-2.98223 Z[#3+-0.04000]
#1=[#542+[#543-#542]*0.98486]
#2=[#548+[#549-#548]*0.98486]
#3=[#1+[#2-#1]*0.78819]
X-7.96426 Y-2.98223 Z[#3+-0.04000]
#1=[#542+[#543-#542]*0.94844]
#2=[#548+[#549-#548]*0.94844]
#3=[#1+[#2-#1]*0.86003]
X-7.93669 Y-2.99601 Z[#3+-0.04000]
#1=[#542+[#543-#542]*0.87559]
#2=[#548+[#549-#548]*0.87559]
#3=[#1+[#2-#1]*0.89595]
X-7.92291 Y-3.02358 Z[#3+-0.04000]
#1=[#542+[#543-#542]*0.83861]
#2=[#548+[#549-#548]*0.83861]
#3=[#1+[#2-#1]*0.89595]
X-7.92291 Y-3.03757 Z[#3+-0.04000]
#1=[#542+[#543-#542]*0.81543]
#2=[#548+[#549-#548]*0.81543]
#3=[#1+[#2-#1]*0.85024]
X-7.94045 Y-3.04634 Z[#3+-0.04000]
#1=[#542+[#543-#542]*0.81543]
#2=[#548+[#549-#548]*0.81543]
#3=[#1+[#2-#1]*0.56423]
X-8.05021 Y-3.04634 Z[#3+-0.04000]
#1=[#542+[#543-#542]*0.81419]
#2=[#548+[#549-#548]*0.81419]
#3=[#1+[#2-#1]*0.54844]
X-8.05627 Y-3.04681 Z[#3+-0.04000]
#1=[#542+[#543-#542]*0.81050]
#2=[#548+[#549-#548]*0.81050]
#3=[#1+[#2-#1]*0.53302]
X-8.06218 Y-3.04821 Z[#3+-0.04000]
#1=[#542+[#543-#542]*0.80445]
#2=[#548+[#549-#548]*0.80445]
#3=[#1+[#2-#1]*0.51835]
X-8.06781 Y-3.05050 Z[#3+-0.04000]
#1=[#542+[#543-#542]*0.74153]
#2=[#548+[#549-#548]*0.74153]
#3=[#1+[#2-#1]*0.39426]
X-8.11543 Y-3.07431 Z[#3+-0.04000]
#1=[#542+[#543-#542]*0.73287]
#2=[#548+[#549-#548]*0.73287]
#3=[#1+[#2-#1]*0.38016]
X-8.12084 Y-3.07758 Z[#3+-0.04000]
#1=[#542+[#543-#542]*0.72204]
#2=[#548+[#549-#548]*0.72204]
#3=[#1+[#2-#1]*0.36760]
X-8.12566 Y-3.08168 Z[#3+-0.04000]
#1=[#542+[#543-#542]*0.70931]
#2=[#548+[#549-#548]*0.70931]
#3=[#1+[#2-#1]*0.35691]
X-8.12976 Y-3.08650 Z[#3+-0.04000]
#1=[#542+[#543-#542]*0.69500]
#2=[#548+[#549-#548]*0.69500]
#3=[#1+[#2-#1]*0.34838]
X-8.13304 Y-3.09192 Z[#3+-0.04000]
#1=[#542+[#543-#542]*0.56917]
#2=[#548+[#549-#548]*0.56917]
#3=[#1+[#2-#1]*0.28633]
X-8.15685 Y-3.13953 Z[#3+-0.04000]
#1=[#542+[#543-#542]*0.55429]
#2=[#548+[#549-#548]*0.55429]
#3=[#1+[#2-#1]*0.28036]
X-8.15914 Y-3.14516 Z[#3+-0.04000]
#1=[#542+[#543-#542]*0.53866]
#2=[#548+[#549-#548]*0.53866]
#3=[#1+[#2-#1]*0.27673]
X-8.16053 Y-3.15108 Z[#3+-0.04000]
#1=[#542+[#543-#542]*0.52264]
#2=[#548+[#549-#548]*0.52264]
#3=[#1+[#2-#1]*0.27550]
X-8.16100 Y-3.15714 Z[#3+-0.04000]
#1=[#542+[#543-#542]*0.39680]
#2=[#548+[#549-#548]*0.39680]
#3=[#1+[#2-#1]*0.27550]
X-8.16100 Y-3.20476 Z[#3+-0.04000]
#1=[#542+[#543-#542]*0.38079]
#2=[#548+[#549-#548]*0.38079]
#3=[#1+[#2-#1]*0.27673]
X-8.16053 Y-3.21082 Z[#3+-0.04000]
#1=[#542+[#543-#542]*0.36516]
#2=[#548+[#549-#548]*0.36516]
#3=[#1+[#2-#1]*0.28036]
X-8.15914 Y-3.21674 Z[#3+-0.04000]
#1=[#542+[#543-#542]*0.35028]
#2=[#548+[#549-#548]*0.35028]
#3=[#1+[#2-#1]*0.28633]
X-8.15685 Y-3.22237 Z[#3+-0.04000]
#1=[#542+[#543-#542]*0.22444]
#2=[#548+[#549-#548]*0.22444]
#3=[#1+[#2-#1]*0.34838]
X-8.13304 Y-3.26999 Z[#3+-0.04000]
#1=[#542+[#543-#542]*0.21014]
#2=[#548+[#549-#548]*0.21014]
#3=[#1+[#2-#1]*0.35691]
X-8.12976 Y-3.27540 Z[#3+-0.04000]
#1=[#542+[#543-#542]*0.19741]
#2=[#548+[#549-#548]*0.19741]
#3=[#1+[#2-#1]*0.36760]
X-8.12566 Y-3.28022 Z[#3+-0.04000]
#1=[#542+[#543-#542]*0.18657]
#2=[#548+[#549-#548]*0.18657]
#3=[#1+[#2-#1]*0.38015]
X-8.12084 Y-3.28432 Z[#3+-0.04000]
#1=[#542+[#543-#542]*0.17792]
#2=[#548+[#549-#548]*0.17792]
#3=[#1+[#2-#1]*0.39426]
X-8.11543 Y-3.28759 Z[#3+-0.04000]
#1=[#542+[#543-#542]*0.11500]
#2=[#548+[#549-#548]*0.11500]
#3=[#1+[#2-#1]*0.51835]
X-8.06781 Y-3.31140 Z[#3+-0.04000]
#1=[#542+[#543-#542]*0.10894]
#2=[#548+[#549-#548]*0.10894]
#3=[#1+[#2-#1]*0.53302]
X-8.06218 Y-3.31369 Z[#3+-0.04000]
#1=[#542+[#543-#542]*0.10526]
#2=[#548+[#549-#548]*0.10526]
#3=[#1+[#2-#1]*0.54844]
X-8.05627 Y-3.31509 Z[#3+-0.04000]
#1=[#542+[#543-#542]*0.10401]
#2=[#548+[#549-#548]*0.10401]
#3=[#1+[#2-#1]*0.56423]
X-8.05021 Y-3.31556 Z[#3+-0.04000]
#1=[#542+[#543-#542]*0.10401]
#2=[#548+[#549-#548]*0.10401]
#3=[#1+[#2-#1]*0.87446]
X-7.93116 Y-3.31556 Z[#3+-0.04000]
#1=[#542+[#543-#542]*0.10526]
#2=[#548+[#549-#548]*0.10526]
#3=[#1+[#2-#1]*0.89025]
X-7.92510 Y-3.31509 Z[#3+-0.04000]
#1=[#542+[#543-#542]*0.10894]
#2=[#548+[#549-#548]*0.10894]
#3=[#1+[#2-#1]*0.90567]
X-7.91918 Y-3.31369 Z[#3+-0.04000]
#1=[#542+[#543-#542]*0.11500]
#2=[#548+[#549-#548]*0.11500]
#3=[#1+[#2-#1]*0.92034]
X-7.91355 Y-3.31140 Z[#3+-0.04000]
#1=[#542+[#543-#542]*0.12416]
#2=[#548+[#549-#548]*0.12416]
#3=[#1+[#2-#1]*0.93841]
X-7.90662 Y-3.30794 Z[#3+-0.04000]
#1=[#542+[#543-#542]*0.12155]
#2=[#548+[#549-#548]*0.12155]
#3=[#1+[#2-#1]*0.94155]
X-7.90541 Y-3.30892 Z[#3+-0.04000]
#1=[#542+[#543-#542]*0.11193]
#2=[#548+[#549-#548]*0.11193]
#3=[#1+[#2-#1]*0.95929]
X-7.89860 Y-3.31256 Z[#3+-0.04000]
#1=[#542+[#543-#542]*0.10601]
#2=[#548+[#549-#548]*0.10601]
#3=[#1+[#2-#1]*0.97853]
X-7.89122 Y-3.31480 Z[#3+-0.04000]
#1=[#542+[#543-#542]*0.10401]
#2=[#548+[#549-#548]*0.10401]
#3=[#1+[#2-#1]*0.99855]
X-7.88354 Y-3.31556 Z[#3+-0.04000]
#1=[#548+[#549-#548]*0.10416]
#2=[#554+[#555-#554]*0.10416]
#3=[#1+[#2-#1]*0.00000]
X-7.88298 Y-3.31551 Z[#3+-0.04000]
#1=[#548+[#549-#548]*0.10601]
#2=[#554+[#555-#554]*0.10601]
#3=[#1+[#2-#1]*0.01856]
X-7.87586 Y-3.31480 Z[#3+-0.04000]
#1=[#548+[#549-#548]*0.11193]
#2=[#554+[#555-#554]*0.11193]
#3=[#1+[#2-#1]*0.03781]
X-7.86847 Y-3.31256 Z[#3+-0.04000]
#1=[#548+[#549-#548]*0.12155]
#2=[#554+[#555-#554]*0.12155]
#3=[#1+[#2-#1]*0.05554]
X-7.86167 Y-3.30892 Z[#3+-0.04000]
#1=[#548+[#549-#548]*0.13449]
#2=[#554+[#555-#554]*0.13449]
#3=[#1+[#2-#1]*0.07109]
X-7.85570 Y-3.30403 Z[#3+-0.04000]
#1=[#548+[#549-#548]*0.15025]
#2=[#554+[#555-#554]*0.15025]
#3=[#1+[#2-#1]*0.08385]
X-7.85080 Y-3.29806 Z[#3+-0.04000]
#1=[#548+[#549-#548]*0.16824]
#2=[#554+[#555-#554]*0.16824]
#3=[#1+[#2-#1]*0.09333]
X-7.84716 Y-3.29126 Z[#3+-0.04000]
#1=[#548+[#549-#548]*0.18776]
#2=[#554+[#555-#554]*0.18776]
#3=[#1+[#2-#1]*0.09917]
X-7.84492 Y-3.28387 Z[#3+-0.04000]
#1=[#548+[#549-#548]*0.20805]
#2=[#554+[#555-#554]*0.20805]
#3=[#1+[#2-#1]*0.10114]
X-7.84417 Y-3.27619 Z[#3+-0.04000]
G04 P0 ( dwell for no time -- G64 should not smooth over this point )
G00 Z0.08000 ( retract )

G00 X-7.92291 Y-3.22805 ( rapid move to begin. )
G01 F180.00000
( Mill infeed pass 1/1 )
#1=[#542+[#543-#542]*0.33527]
#2=[#548+[#549-#548]*0.33527]
#3=[#1+[#2-#1]*0.89595]
G01 Z[-0.04000+#100]
G04 P0 ( dwell for no time -- G64 should not smooth over this point )
G01 F360.00000
#1=[#542+[#543-#542]*0.60996]
#2=[#548+[#549-#548]*0.60996]
#3=[#1+[#2-#1]*0.89595]
X-7.92291 Y-3.12410 Z[#3+-0.04000]
#1=[#542+[#543-#542]*0.60860]
#2=[#548+[#549-#548]*0.60860]
#3=[#1+[#2-#1]*0.89025]
X-7.92510 Y-3.12461 Z[#3+-0.04000]
#1=[#542+[#543-#542]*0.60735]
#2=[#548+[#549-#548]*0.60735]
#3=[#1+[#2-#1]*0.87446]
X-7.93116 Y-3.12508 Z[#3+-0.04000]
#1=[#542+[#543-#542]*0.60735]
#2=[#548+[#549-#548]*0.60735]
#3=[#1+[#2-#1]*0.58845]
X-8.04091 Y-3.12508 Z[#3+-0.04000]
#1=[#542+[#543-#542]*0.57093]
#2=[#548+[#549-#548]*0.57093]
#3=[#1+[#2-#1]*0.51661]
X-8.06848 Y-3.13887 Z[#3+-0.04000]
#1=[#542+[#543-#542]*0.49808]
#2=[#548+[#549-#548]*0.49808]
#3=[#1+[#2-#1]*0.48069]
X-8.08226 Y-3.16644 Z[#3+-0.04000]
#1=[#542+[#543-#542]*0.42137]
#2=[#548+[#549-#548]*0.42137]
#3=[#1+[#2-#1]*0.48069]
X-8.08226 Y-3.19547 Z[#3+-0.04000]
#1=[#542+[#543-#542]*0.34851]
#2=[#548+[#549-#548]*0.34851]
#3=[#1+[#2-#1]*0.51661]
X-8.06848 Y-3.22303 Z[#3+-0.04000]
#1=[#542+[#543-#542]*0.31209]
#2=[#548+[#549-#548]*0.31209]
#3=[#1+[#2-#1]*0.58845]
X-8.04091 Y-3.23682 Z[#3+-0.04000]
#1=[#542+[#543-#542]*0.31209]
#2=[#548+[#549-#548]*0.31209]
#3=[#1+[#2-#1]*0.85024]
X-7.94045 Y-3.23682 Z[#3+-0.04000]
#1=[#542+[#543-#542]*0.33527]
#2=[#548+[#549-#548]*0.33527]
#3=[#1+[#2-#1]*0.89595]
X-7.92291 Y-3.22805 Z[#3+-0.04000]
G04 P0 ( dwell for no time -- G64 should not smooth over this point )
G00 Z0.08000 ( retract )

G00 X-8.27274 Y-3.18095 ( rapid move to begin. )
G01 F180.00000
( Mill infeed pass 1/1 )
#1=[#536+[#537-#536]*0.45972]
#2=[#542+[#543-#542]*0.45972]
#3=[#1+[#2-#1]*0.98433]
G01 Z[-0.04000+#100]
G04 P0 ( dwell for no time -- G64 should not smooth over this point )
G01 F360.00000
#1=[#536+[#537-#536]*0.64847]
#2=[#542+[#543-#542]*0.64847]
#3=[#1+[#2-#1]*0.98433]
X-8.27274 Y-3.10952 Z[#3+-0.04000]
#1=[#536+[#537-#536]*0.66449]
#2=[#542+[#543-#542]*0.66449]
#3=[#1+[#2-#1]*0.98311]
X-8.27321 Y-3.10346 Z[#3+-0.04000]
#1=[#536+[#537-#536]*0.68012]
#2=[#542+[#543-#542]*0.68012]
#3=[#1+[#2-#1]*0.97947]
X-8.27461 Y-3.09755 Z[#3+-0.04000]
#1=[#536+[#537-#536]*0.69500]
#2=[#542+[#543-#542]*0.69500]
#3=[#1+[#2-#1]*0.97350]
X-8.27690 Y-3.09192 Z[#3+-0.04000]
#1=[#536+[#537-#536]*0.82084]
#2=[#542+[#543-#542]*0.82084]
#3=[#1+[#2-#1]*0.91146]
X-8.30071 Y-3.04430 Z[#3+-0.04000]
#1=[#536+[#537-#536]*0.83514]
#2=[#542+[#543-#542]*0.83514]
#3=[#1+[#2-#1]*0.90292]
X-8.30398 Y-3.03888 Z[#3+-0.04000]
#1=[#536+[#537-#536]*0.84788]
#2=[#542+[#543-#542]*0.84788]
#3=[#1+[#2-#1]*0.89224]
X-8.30808 Y-3.03406 Z[#3+-0.04000]
#1=[#536+[#537-#536]*0.91079]
#2=[#542+[#543-#542]*0.91079]
#3=[#1+[#2-#1]*0.83019]
X-8.33189 Y-3.01025 Z[#3+-0.04000]
#1=[#536+[#537-#536]*0.92124]
#2=[#542+[#543-#542]*0.92124]
#3=[#1+[#2-#1]*0.81816]
X-8.33651 Y-3.00630 Z[#3+-0.04000]
#1=[#536+[#537-#536]*0.92849]
#2=[#542+[#543-#542]*0.92849]
#3=[#1+[#2-#1]*0.80660]
X-8.34094 Y-3.00356 Z[#3+-0.04000]
#1=[#536+[#537-#536]*0.95242]
#2=[#542+[#543-#542]*0.95242]
#3=[#1+[#2-#1]*0.83019]
X-8.33189 Y-2.99450 Z[#3+-0.04000]
#1=[#536+[#537-#536]*0.96515]
#2=[#542+[#543-#542]*0.96515]
#3=[#1+[#2-#1]*0.84088]
X-8.32779 Y-2.98969 Z[#3+-0.04000]
#1=[#536+[#537-#536]*0.97945]
#2=[#542+[#543-#542]*0.97945]
#3=[#1+[#2-#1]*0.84941]
X-8.32452 Y-2.98427 Z[#3+-0.04000]
#1=[#537+[#538-#537]*0.00000]
#2=[#543+[#544-#543]*0.00000]
#3=[#1+[#2-#1]*0.85954]
X-8.32063 Y-2.97650 Z[#3+-0.04000]
#1=[#537+[#538-#537]*0.10529]
#2=[#543+[#544-#543]*0.10529]
#3=[#1+[#2-#1]*0.91146]
X-8.30071 Y-2.93665 Z[#3+-0.04000]
#1=[#537+[#538-#537]*0.12017]
#2=[#543+[#544-#543]*0.12017]
#3=[#1+[#2-#1]*0.91743]
X-8.29841 Y-2.93102 Z[#3+-0.04000]
#1=[#537+[#538-#537]*0.13580]
#2=[#543+[#544-#543]*0.13580]
#3=[#1+[#2-#1]*0.92106]
X-8.29702 Y-2.92511 Z[#3+-0.04000]
#1=[#537+[#538-#537]*0.15182]
#2=[#543+[#544-#543]*0.15182]
#3=[#1+[#2-#1]*0.92229]
X-8.29655 Y-2.91905 Z[#3+-0.04000]
#1=[#537+[#538-#537]*0.27765]
#2=[#543+[#544-#543]*0.27765]
#3=[#1+[#2-#1]*0.92229]
X-8.29655 Y-2.87143 Z[#3+-0.04000]
#1=[#537+[#538-#537]*0.29367]
#2=[#543+[#544-#543]*0.29367]
#3=[#1+[#2-#1]*0.92106]
X-8.29702 Y-2.86537 Z[#3+-0.04000]
#1=[#537+[#538-#537]*0.30930]
#2=[#543+[#544-#543]*0.30930]
#3=[#1+[#2-#1]*0.91743]
X-8.29841 Y-2.85945 Z[#3+-0.04000]
#1=[#537+[#538-#537]*0.32418]
#2=[#543+[#544-#543]*0.32418]
#3=[#1+[#2-#1]*0.91146]
X-8.30071 Y-2.85382 Z[#3+-0.04000]
#1=[#537+[#538-#537]*0.45002]
#2=[#543+[#544-#543]*0.45002]
#3=[#1+[#2-#1]*0.84941]
X-8.32452 Y-2.80620 Z[#3+-0.04000]
#1=[#537+[#538-#537]*0.46432]
#2=[#543+[#544-#543]*0.46432]
#3=[#1+[#2-#1]*0.84088]
X-8.32779 Y-2.80079 Z[#3+-0.04000]
#1=[#537+[#538-#537]*0.47705]
#2=[#543+[#544-#543]*0.47705]
#3=[#1+[#2-#1]*0.83019]
X-8.33189 Y-2.79597 Z[#3+-0.04000]
#1=[#537+[#538-#537]*0.53997]
#2=[#543+[#544-#543]*0.53997]
#3=[#1+[#2-#1]*0.76815]
X-8.35570 Y-2.77216 Z[#3+-0.04000]
#1=[#537+[#538-#537]*0.55080]
#2=[#543+[#544-#543]*0.55080]
#3=[#1+[#2-#1]*0.75559]
X-8.36052 Y-2.76806 Z[#3+-0.04000]
#1=[#537+[#538-#537]*0.55946]
#2=[#543+[#544-#543]*0.55946]
#3=[#1+[#2-#1]*0.74149]
X-8.36593 Y-2.76479 Z[#3+-0.04000]
#1=[#537+[#538-#537]*0.62238]
#2=[#543+[#544-#543]*0.62238]
#3=[#1+[#2-#1]*0.61740]
X-8.41355 Y-2.74098 Z[#3+-0.04000]
#1=[#537+[#538-#537]*0.62843]
#2=[#543+[#544-#543]*0.62843]
#3=[#1+[#2-#1]*0.60272]
X-8.41918 Y-2.73868 Z[#3+-0.04000]
#1=[#537+[#538-#537]*0.63212]
#2=[#543+[#544-#543]*0.63212]
#3=[#1+[#2-#1]*0.58731]
X-8.42510 Y-2.73729 Z[#3+-0.04000]
#1=[#537+[#538-#537]*0.63336]
#2=[#543+[#544-#543]*0.63336]
#3=[#1+[#2-#1]*0.57151]
X-8.43116 Y-2.73682 Z[#3+-0.04000]
#1=[#537+[#538-#537]*0.63336]
#2=[#543+[#544-#543]*0.63336]
#3=[#1+[#2-#1]*0.13720]
X-8.59782 Y-2.73682 Z[#3+-0.04000]
#1=[#537+[#538-#537]*0.63136]
#2=[#543+[#544-#543]*0.63136]
#3=[#1+[#2-#1]*0.11718]
X-8.60550 Y-2.73758 Z[#3+-0.04000]
#1=[#537+[#538-#537]*0.62544]
#2=[#543+[#544-#543]*0.62544]
#3=[#1+[#2-#1]*0.09794]
X-8.61289 Y-2.73982 Z[#3+-0.04000]
#1=[#537+[#538-#537]*0.61583]
#2=[#543+[#544-#543]*0.61583]
#3=[#1+[#2-#1]*0.08020]
X-8.61970 Y-2.74345 Z[#3+-0.04000]
#1=[#537+[#538-#537]*0.60289]
#2=[#543+[#544-#543]*0.60289]
#3=[#1+[#2-#1]*0.06465]
X-8.62566 Y-2.74835 Z[#3+-0.04000]
#1=[#537+[#538-#537]*0.58712]
#2=[#543+[#544-#543]*0.58712]
#3=[#1+[#2-#1]*0.05189]
X-8.63056 Y-2.75432 Z[#3+-0.04000]
#1=[#537+[#538-#537]*0.56914]
#2=[#543+[#544-#543]*0.56914]
#3=[#1+[#2-#1]*0.04241]
X-8.63420 Y-2.76112 Z[#3+-0.04000]
#1=[#537+[#538-#537]*0.54962]
#2=[#543+[#544-#543]*0.54962]
#3=[#1+[#2-#1]*0.03658]
X-8.63644 Y-2.76851 Z[#3+-0.04000]
#1=[#537+[#538-#537]*0.52932]
#2=[#543+[#544-#543]*0.52932]
#3=[#1+[#2-#1]*0.03460]
X-8.63719 Y-2.77619 Z[#3+-0.04000]
#1=[#537+[#538-#537]*0.00000]
#2=[#543+[#544-#543]*0.00000]
#3=[#1+[#2-#1]*0.03460]
X-8.63719 Y-2.97650 Z[#3+-0.04000]
#1=[#536+[#537-#536]*0.20805]
#2=[#542+[#543-#542]*0.20805]
#3=[#1+[#2-#1]*0.03460]
X-8.63719 Y-3.27619 Z[#3+-0.04000]
#1=[#536+[#537-#536]*0.18776]
#2=[#542+[#543-#542]*0.18776]
#3=[#1+[#2-#1]*0.03658]
X-8.63644 Y-3.28387 Z[#3+-0.04000]
#1=[#536+[#537-#536]*0.16824]
#2=[#542+[#543-#542]*0.16824]
#3=[#1+[#2-#1]*0.04241]
X-8.63420 Y-3.29126 Z[#3+-0.04000]
#1=[#536+[#537-#536]*0.15025]
#2=[#542+[#543-#542]*0.15025]
#3=[#1+[#2-#1]*0.05189]
X-8.63056 Y-3.29806 Z[#3+-0.04000]
#1=[#536+[#537-#536]*0.13449]
#2=[#542+[#543-#542]*0.13449]
#3=[#1+[#2-#1]*0.06465]
X-8.62566 Y-3.30403 Z[#3+-0.04000]
#1=[#536+[#537-#536]*0.12155]
#2=[#542+[#543-#542]*0.12155]
#3=[#1+[#2-#1]*0.08020]
X-8.61970 Y-3.30892 Z[#3+-0.04000]
#1=[#536+[#537-#536]*0.11193]
#2=[#542+[#543-#542]*0.11193]
#3=[#1+[#2-#1]*0.09794]
X-8.61289 Y-3.31256 Z[#3+-0.04000]
#1=[#536+[#537-#536]*0.10601]
#2=[#542+[#543-#542]*0.10601]
#3=[#1+[#2-#1]*0.11718]
X-8.60550 Y-3.31480 Z[#3+-0.04000]
#1=[#536+[#537-#536]*0.10401]
#2=[#542+[#543-#542]*0.10401]
#3=[#1+[#2-#1]*0.13720]
X-8.59782 Y-3.31556 Z[#3+-0.04000]
#1=[#536+[#537-#536]*0.10401]
#2=[#542+[#543-#542]*0.10401]
#3=[#1+[#2-#1]*0.63356]
X-8.40735 Y-3.31556 Z[#3+-0.04000]
#1=[#536+[#537-#536]*0.10526]
#2=[#542+[#543-#542]*0.10526]
#3=[#1+[#2-#1]*0.64935]
X-8.40129 Y-3.31509 Z[#3+-0.04000]
#1=[#536+[#537-#536]*0.10894]
#2=[#542+[#543-#542]*0.10894]
#3=[#1+[#2-#1]*0.66477]
X-8.39537 Y-3.31369 Z[#3+-0.04000]
#1=[#536+[#537-#536]*0.11500]
#2=[#542+[#543-#542]*0.11500]
#3=[#1+[#2-#1]*0.67944]
X-8.38974 Y-3.31140 Z[#3+-0.04000]
#1=[#536+[#537-#536]*0.17792]
#2=[#542+[#543-#542]*0.17792]
#3=[#1+[#2-#1]*0.80353]
X-8.34212 Y-3.28759 Z[#3+-0.04000]
#1=[#536+[#537-#536]*0.18657]
#2=[#542+[#543-#542]*0.18657]
#3=[#1+[#2-#1]*0.81763]
X-8.33671 Y-3.28432 Z[#3+-0.04000]
#1=[#536+[#537-#536]*0.19740]
#2=[#542+[#543-#542]*0.19740]
#3=[#1+[#2-#1]*0.83019]
X-8.33189 Y-3.28022 Z[#3+-0.04000]
#1=[#536+[#537-#536]*0.26032]
#2=[#542+[#543-#542]*0.26032]
#3=[#1+[#2-#1]*0.89224]
X-8.30808 Y-3.25641 Z[#3+-0.04000]
#1=[#536+[#537-#536]*0.27305]
#2=[#542+[#543-#542]*0.27305]
#3=[#1+[#2-#1]*0.90292]
X-8.30398 Y-3.25159 Z[#3+-0.04000]
#1=[#536+[#537-#536]*0.28736]
#2=[#542+[#543-#542]*0.28736]
#3=[#1+[#2-#1]*0.91146]
X-8.30071 Y-3.24618 Z[#3+-0.04000]
#1=[#536+[#537-#536]*0.41320]
#2=[#542+[#543-#542]*0.41320]
#3=[#1+[#2-#1]*0.97350]
X-8.27690 Y-3.19856 Z[#3+-0.04000]
#1=[#536+[#537-#536]*0.42807]
#2=[#542+[#543-#542]*0.42807]
#3=[#1+[#2-#1]*0.97947]
X-8.27461 Y-3.19293 Z[#3+-0.04000]
#1=[#536+[#537-#536]*0.44371]
#2=[#542+[#543-#542]*0.44371]
#3=[#1+[#2-#1]*0.98311]
X-8.27321 Y-3.18701 Z[#3+-0.04000]
#1=[#536+[#537-#536]*0.45972]
#2=[#542+[#543-#542]*0.45972]
#3=[#1+[#2-#1]*0.98433]
X-8.27274 Y-3.18095 Z[#3+-0.04000]
G04 P0 ( dwell for no time -- G64 should not smooth over this point )
G00 Z0.08000 ( retract )

G00 X-8.35148 Y-3.17166 ( rapid move to begin. )
G01 F180.00000
( Mill infeed pass 1/1 )
#1=[#536+[#537-#536]*0.48428]
#2=[#542+[#543-#542]*0.48428]
#3=[#1+[#2-#1]*0.77914]
G01 Z[-0.04000+#100]
G04 P0 ( dwell for no time -- G64 should not smooth over this point )
G01 F360.00000
#1=[#536+[#537-#536]*0.62392]
#2=[#542+[#543-#542]*0.62392]
#3=[#1+[#2-#1]*0.77914]
X-8.35148 Y-3.11882 Z[#3+-0.04000]
#1=[#536+[#537-#536]*0.71268]
#2=[#542+[#543-#542]*0.71268]
#3=[#1+[#2-#1]*0.73538]
X-8.36828 Y-3.08522 Z[#3+-0.04000]
#1=[#536+[#537-#536]*0.74630]
#2=[#542+[#543-#542]*0.74630]
