( pcb2gcode 2.1.0 )
( Gcode for custom )

G94 ( Inches per minute feed rate. )
G20 ( Units == INCHES. )

G90 ( Absolute coordinates. )
G00 S12000 ( RPM spindle speed. )
G64 P0.00040 ( set maximum deviation from commanded toolpath )
G01 F360.00000 ( Feedrate. )

#107 = #5211
#108 = #5212

(MSG, Attach the probe tool)
M0 ( Temporary machine stop. )
G0 Z0.080 ( Move Z to safe height )
G0 X-10.95295 Y-3.35492 ( Move XY to start point )
G0 Z0.080 ( Move Z to probe height )
G38.2 Z-0.1 F2.362205 ( Z-probe )
#500 = 0 ( Probe point [0, 0] is our reference )
G92 Z0 ( Set the current Z as zero-value )

( We now start the real probing: move the Z axis to the probing height, move to )
( the probing XY position, probe it and save the result, parameter #2002, )
( in a numbered parameter; we will make 17 probes on the X-axis and )
( 6 probes on the Y-axis, for a grand total of 102 probes )

G0 Z0.080
X-10.95295 Y-2.97650
G38.2 Z-0.1 F2.362205
#501=#2002
G0 Z0.080
X-10.95295 Y-2.59807
G38.2 Z-0.1 F2.362205
#502=#2002
G0 Z0.080
X-10.95295 Y-2.21965
G38.2 Z-0.1 F2.362205
#503=#2002
G0 Z0.080
X-10.95295 Y-1.84123
G38.2 Z-0.1 F2.362205
#504=#2002
G0 Z0.080
X-10.95295 Y-1.46280
G38.2 Z-0.1 F2.362205
#505=#2002
G0 Z0.080
X-10.56921 Y-1.46280
G38.2 Z-0.1 F2.362205
#511=#2002
G0 Z0.080
X-10.56921 Y-1.84123
G38.2 Z-0.1 F2.362205
#510=#2002
G0 Z0.080
X-10.56921 Y-2.21965
G38.2 Z-0.1 F2.362205
#509=#2002
G0 Z0.080
X-10.56921 Y-2.59807
G38.2 Z-0.1 F2.362205
#508=#2002
G0 Z0.080
X-10.56921 Y-2.97650
G38.2 Z-0.1 F2.362205
#507=#2002
G0 Z0.080
X-10.56921 Y-3.35492
G38.2 Z-0.1 F2.362205
#506=#2002
G0 Z0.080
X-10.18546 Y-3.35492
G38.2 Z-0.1 F2.362205
#512=#2002
G0 Z0.080
X-10.18546 Y-2.97650
G38.2 Z-0.1 F2.362205
#513=#2002
G0 Z0.080
X-10.18546 Y-2.59807
G38.2 Z-0.1 F2.362205
#514=#2002
G0 Z0.080
X-10.18546 Y-2.21965
G38.2 Z-0.1 F2.362205
#515=#2002
G0 Z0.080
X-10.18546 Y-1.84123
G38.2 Z-0.1 F2.362205
#516=#2002
G0 Z0.080
X-10.18546 Y-1.46280
G38.2 Z-0.1 F2.362205
#517=#2002
G0 Z0.080
X-9.80171 Y-1.46280
G38.2 Z-0.1 F2.362205
#523=#2002
G0 Z0.080
X-9.80171 Y-1.84123
G38.2 Z-0.1 F2.362205
#522=#2002
G0 Z0.080
X-9.80171 Y-2.21965
G38.2 Z-0.1 F2.362205
#521=#2002
G0 Z0.080
X-9.80171 Y-2.59807
G38.2 Z-0.1 F2.362205
#520=#2002
G0 Z0.080
X-9.80171 Y-2.97650
G38.2 Z-0.1 F2.362205
#519=#2002
G0 Z0.080
X-9.80171 Y-3.35492
G38.2 Z-0.1 F2.362205
#518=#2002
G0 Z0.080
X-9.41797 Y-3.35492
G38.2 Z-0.1 F2.362205
#524=#2002
G0 Z0.080
X-9.41797 Y-2.97650
G38.2 Z-0.1 F2.362205
#525=#2002
G0 Z0.080
X-9.41797 Y-2.59807
G38.2 Z-0.1 F2.362205
#526=#2002
G0 Z0.080
X-9.41797 Y-2.21965
G38.2 Z-0.1 F2.362205
#527=#2002
G0 Z0.080
X-9.41797 Y-1.84123
G38.2 Z-0.1 F2.362205
#528=#2002
G0 Z0.080
X-9.41797 Y-1.46280
G38.2 Z-0.1 F2.362205
#529=#2002
G0 Z0.080
X-9.03422 Y-1.46280
G38.2 Z-0.1 F2.362205
#535=#2002
G0 Z0.080
X-9.03422 Y-1.84123
G38.2 Z-0.1 F2.362205
#534=#2002
G0 Z0.080
X-9.03422 Y-2.21965
G38.2 Z-0.1 F2.362205
#533=#2002
G0 Z0.080
X-9.03422 Y-2.59807
G38.2 Z-0.1 F2.362205
#532=#2002
G0 Z0.080
X-9.03422 Y-2.97650
G38.2 Z-0.1 F2.362205
#531=#2002
G0 Z0.080
X-9.03422 Y-3.35492
G38.2 Z-0.1 F2.362205
#530=#2002
G0 Z0.080
X-8.65047 Y-3.35492
G38.2 Z-0.1 F2.362205
#536=#2002
G0 Z0.080
X-8.65047 Y-2.97650
G38.2 Z-0.1 F2.362205
#537=#2002
G0 Z0.080
X-8.65047 Y-2.59807
G38.2 Z-0.1 F2.362205
#538=#2002
G0 Z0.080
X-8.65047 Y-2.21965
G38.2 Z-0.1 F2.362205
#539=#2002
G0 Z0.080
X-8.65047 Y-1.84123
G38.2 Z-0.1 F2.362205
#540=#2002
G0 Z0.080
X-8.65047 Y-1.46280
G38.2 Z-0.1 F2.362205
#541=#2002
G0 Z0.080
X-8.26673 Y-1.46280
G38.2 Z-0.1 F2.362205
#547=#2002
G0 Z0.080
X-8.26673 Y-1.84123
G38.2 Z-0.1 F2.362205
#546=#2002
G0 Z0.080
X-8.26673 Y-2.21965
G38.2 Z-0.1 F2.362205
#545=#2002
G0 Z0.080
X-8.26673 Y-2.59807
G38.2 Z-0.1 F2.362205
#544=#2002
G0 Z0.080
X-8.26673 Y-2.97650
G38.2 Z-0.1 F2.362205
#543=#2002
G0 Z0.080
X-8.26673 Y-3.35492
G38.2 Z-0.1 F2.362205
#542=#2002
G0 Z0.080
X-7.88298 Y-3.35492
G38.2 Z-0.1 F2.362205
#548=#2002
G0 Z0.080
X-7.88298 Y-2.97650
G38.2 Z-0.1 F2.362205
#549=#2002
G0 Z0.080
X-7.88298 Y-2.59807
G38.2 Z-0.1 F2.362205
#550=#2002
G0 Z0.080
X-7.88298 Y-2.21965
G38.2 Z-0.1 F2.362205
#551=#2002
G0 Z0.080
X-7.88298 Y-1.84123
G38.2 Z-0.1 F2.362205
#552=#2002
G0 Z0.080
X-7.88298 Y-1.46280
G38.2 Z-0.1 F2.362205
#553=#2002
G0 Z0.080
X-7.49923 Y-1.46280
G38.2 Z-0.1 F2.362205
#559=#2002
G0 Z0.080
X-7.49923 Y-1.84123
G38.2 Z-0.1 F2.362205
#558=#2002
G0 Z0.080
X-7.49923 Y-2.21965
G38.2 Z-0.1 F2.362205
#557=#2002
G0 Z0.080
X-7.49923 Y-2.59807
G38.2 Z-0.1 F2.362205
#556=#2002
G0 Z0.080
X-7.49923 Y-2.97650
G38.2 Z-0.1 F2.362205
#555=#2002
G0 Z0.080
X-7.49923 Y-3.35492
G38.2 Z-0.1 F2.362205
#554=#2002
G0 Z0.080
X-7.11549 Y-3.35492
G38.2 Z-0.1 F2.362205
#560=#2002
G0 Z0.080
X-7.11549 Y-2.97650
G38.2 Z-0.1 F2.362205
#561=#2002
G0 Z0.080
X-7.11549 Y-2.59807
G38.2 Z-0.1 F2.362205
#562=#2002
G0 Z0.080
X-7.11549 Y-2.21965
G38.2 Z-0.1 F2.362205
#563=#2002
G0 Z0.080
X-7.11549 Y-1.84123
G38.2 Z-0.1 F2.362205
#564=#2002
G0 Z0.080
X-7.11549 Y-1.46280
G38.2 Z-0.1 F2.362205
#565=#2002
G0 Z0.080
X-6.73174 Y-1.46280
G38.2 Z-0.1 F2.362205
#571=#2002
G0 Z0.080
X-6.73174 Y-1.84123
G38.2 Z-0.1 F2.362205
#570=#2002
G0 Z0.080
X-6.73174 Y-2.21965
G38.2 Z-0.1 F2.362205
#569=#2002
G0 Z0.080
X-6.73174 Y-2.59807
G38.2 Z-0.1 F2.362205
#568=#2002
G0 Z0.080
X-6.73174 Y-2.97650
G38.2 Z-0.1 F2.362205
#567=#2002
G0 Z0.080
X-6.73174 Y-3.35492
G38.2 Z-0.1 F2.362205
#566=#2002
G0 Z0.080
X-6.34799 Y-3.35492
G38.2 Z-0.1 F2.362205
#572=#2002
G0 Z0.080
X-6.34799 Y-2.97650
G38.2 Z-0.1 F2.362205
#573=#2002
G0 Z0.080
X-6.34799 Y-2.59807
G38.2 Z-0.1 F2.362205
#574=#2002
G0 Z0.080
X-6.34799 Y-2.21965
G38.2 Z-0.1 F2.362205
#575=#2002
G0 Z0.080
X-6.34799 Y-1.84123
G38.2 Z-0.1 F2.362205
#576=#2002
G0 Z0.080
X-6.34799 Y-1.46280
G38.2 Z-0.1 F2.362205
#577=#2002
G0 Z0.080
X-5.96425 Y-1.46280
G38.2 Z-0.1 F2.362205
#583=#2002
G0 Z0.080
X-5.96425 Y-1.84123
G38.2 Z-0.1 F2.362205
#582=#2002
G0 Z0.080
X-5.96425 Y-2.21965
G38.2 Z-0.1 F2.362205
#581=#2002
G0 Z0.080
X-5.96425 Y-2.59807
G38.2 Z-0.1 F2.362205
#580=#2002
G0 Z0.080
X-5.96425 Y-2.97650
G38.2 Z-0.1 F2.362205
#579=#2002
G0 Z0.080
X-5.96425 Y-3.35492
G38.2 Z-0.1 F2.362205
#578=#2002
G0 Z0.080
X-5.58050 Y-3.35492
G38.2 Z-0.1 F2.362205
#584=#2002
G0 Z0.080
X-5.58050 Y-2.97650
G38.2 Z-0.1 F2.362205
#585=#2002
G0 Z0.080
X-5.58050 Y-2.59807
G38.2 Z-0.1 F2.362205
#586=#2002
G0 Z0.080
X-5.58050 Y-2.21965
G38.2 Z-0.1 F2.362205
#587=#2002
G0 Z0.080
X-5.58050 Y-1.84123
G38.2 Z-0.1 F2.362205
#588=#2002
G0 Z0.080
X-5.58050 Y-1.46280
G38.2 Z-0.1 F2.362205
#589=#2002
G0 Z0.080
X-5.19676 Y-1.46280
G38.2 Z-0.1 F2.362205
#595=#2002
G0 Z0.080
X-5.19676 Y-1.84123
G38.2 Z-0.1 F2.362205
#594=#2002
G0 Z0.080
X-5.19676 Y-2.21965
G38.2 Z-0.1 F2.362205
#593=#2002
G0 Z0.080
X-5.19676 Y-2.59807
G38.2 Z-0.1 F2.362205
#592=#2002
G0 Z0.080
X-5.19676 Y-2.97650
G38.2 Z-0.1 F2.362205
#591=#2002
G0 Z0.080
X-5.19676 Y-3.35492
G38.2 Z-0.1 F2.362205
#590=#2002
G0 Z0.080
X-4.81301 Y-3.35492
G38.2 Z-0.1 F2.362205
#596=#2002
G0 Z0.080
X-4.81301 Y-2.97650
G38.2 Z-0.1 F2.362205
#597=#2002
G0 Z0.080
X-4.81301 Y-2.59807
G38.2 Z-0.1 F2.362205
#598=#2002
G0 Z0.080
X-4.81301 Y-2.21965
G38.2 Z-0.1 F2.362205
#599=#2002
G0 Z0.080
X-4.81301 Y-1.84123
G38.2 Z-0.1 F2.362205
#600=#2002
G0 Z0.080
X-4.81301 Y-1.46280
G38.2 Z-0.1 F2.362205
#601=#2002

G0 Z0.080 ( Move Z to safe height )
( Probing has ended, each Z-coordinate will be corrected with a bilinear interpolation )
(MSG, Detach the probe tool)
M0 ( Temporary machine stop. )


G00 Z1.00000 (Retract to tool change height)
T0
M5      (Spindle stop.)
G04 P1.00000 (Wait for spindle to stop)
(MSG, Change tool bit to mill diameter 0.00000in)
M6      (Tool change.)
M0      (Temporary machine stop.)
M3 ( Spindle on clockwise. )
G04 P1.00000 (Wait for spindle to get up to speed)
( Piece #1, position [0;0] )

G04 P0 ( dwell for no time -- G64 should not smooth over this point )
G00 Z0.08000 ( retract )

G00 X-9.16104 Y-2.94286 ( rapid move to begin. )
G01 F180.00000
( Mill infeed pass 1/1 )
#1=[#525+[#526-#525]*0.08889]
#2=[#531+[#532-#531]*0.08889]
#3=[#1+[#2-#1]*0.66952]
G01 Z[-0.04000+#100]
G04 P0 ( dwell for no time -- G64 should not smooth over this point )
G01 F360.00000
#1=[#525+[#526-#525]*0.06859]
#2=[#531+[#532-#531]*0.06859]
#3=[#1+[#2-#1]*0.66755]
X-9.16180 Y-2.95054 Z[#3+-0.04000]
#1=[#525+[#526-#525]*0.04907]
#2=[#531+[#532-#531]*0.04907]
#3=[#1+[#2-#1]*0.66171]
X-9.16404 Y-2.95793 Z[#3+-0.04000]
#1=[#525+[#526-#525]*0.03109]
#2=[#531+[#532-#531]*0.03109]
#3=[#1+[#2-#1]*0.65223]
X-9.16768 Y-2.96473 Z[#3+-0.04000]
#1=[#525+[#526-#525]*0.01532]
#2=[#531+[#532-#531]*0.01532]
#3=[#1+[#2-#1]*0.63947]
X-9.17257 Y-2.97070 Z[#3+-0.04000]
#1=[#525+[#526-#525]*0.00000]
#2=[#531+[#532-#531]*0.00000]
#3=[#1+[#2-#1]*0.62436]
X-9.17837 Y-2.97650 Z[#3+-0.04000]
#1=[#524+[#525-#524]*0.70164]
#2=[#530+[#531-#530]*0.70164]
#3=[#1+[#2-#1]*0.33011]
X-9.29129 Y-3.08941 Z[#3+-0.04000]
#1=[#524+[#525-#524]*0.27047]
#2=[#530+[#531-#530]*0.27047]
#3=[#1+[#2-#1]*0.64900]
X-9.16891 Y-3.25257 Z[#3+-0.04000]
#1=[#524+[#525-#524]*0.25304]
#2=[#530+[#531-#530]*0.25304]
#3=[#1+[#2-#1]*0.65943]
X-9.16491 Y-3.25917 Z[#3+-0.04000]
#1=[#524+[#525-#524]*0.23387]
#2=[#530+[#531-#530]*0.23387]
#3=[#1+[#2-#1]*0.66631]
X-9.16227 Y-3.26642 Z[#3+-0.04000]
#1=[#524+[#525-#524]*0.21371]
#2=[#530+[#531-#530]*0.21371]
#3=[#1+[#2-#1]*0.66937]
X-9.16110 Y-3.27405 Z[#3+-0.04000]
#1=[#524+[#525-#524]*0.19334]
#2=[#530+[#531-#530]*0.19334]
#3=[#1+[#2-#1]*0.66849]
X-9.16144 Y-3.28176 Z[#3+-0.04000]
#1=[#524+[#525-#524]*0.17353]
#2=[#530+[#531-#530]*0.17353]
#3=[#1+[#2-#1]*0.66371]
X-9.16327 Y-3.28925 Z[#3+-0.04000]
#1=[#524+[#525-#524]*0.15505]
#2=[#530+[#531-#530]*0.15505]
#3=[#1+[#2-#1]*0.65520]
X-9.16653 Y-3.29625 Z[#3+-0.04000]
#1=[#524+[#525-#524]*0.13860]
#2=[#530+[#531-#530]*0.13860]
#3=[#1+[#2-#1]*0.64331]
X-9.17110 Y-3.30247 Z[#3+-0.04000]
#1=[#524+[#525-#524]*0.12482]
#2=[#530+[#531-#530]*0.12482]
#3=[#1+[#2-#1]*0.62848]
X-9.17679 Y-3.30769 Z[#3+-0.04000]
#1=[#524+[#525-#524]*0.11424]
#2=[#530+[#531-#530]*0.11424]
#3=[#1+[#2-#1]*0.61129]
X-9.18339 Y-3.31169 Z[#3+-0.04000]
#1=[#524+[#525-#524]*0.10727]
#2=[#530+[#531-#530]*0.10727]
#3=[#1+[#2-#1]*0.59239]
X-9.19064 Y-3.31433 Z[#3+-0.04000]
#1=[#524+[#525-#524]*0.10417]
#2=[#530+[#531-#530]*0.10417]
#3=[#1+[#2-#1]*0.57251]
X-9.19827 Y-3.31550 Z[#3+-0.04000]
#1=[#524+[#525-#524]*0.10506]
#2=[#530+[#531-#530]*0.10506]
#3=[#1+[#2-#1]*0.55242]
X-9.20598 Y-3.31516 Z[#3+-0.04000]
#1=[#524+[#525-#524]*0.10991]
#2=[#530+[#531-#530]*0.10991]
#3=[#1+[#2-#1]*0.53288]
X-9.21348 Y-3.31333 Z[#3+-0.04000]
#1=[#524+[#525-#524]*0.11853]
#2=[#530+[#531-#530]*0.11853]
#3=[#1+[#2-#1]*0.51466]
X-9.22047 Y-3.31007 Z[#3+-0.04000]
#1=[#524+[#525-#524]*0.13059]
#2=[#530+[#531-#530]*0.13059]
#3=[#1+[#2-#1]*0.49844]
X-9.22669 Y-3.30550 Z[#3+-0.04000]
#1=[#524+[#525-#524]*0.14563]
#2=[#530+[#531-#530]*0.14563]
#3=[#1+[#2-#1]*0.48485]
X-9.23191 Y-3.29981 Z[#3+-0.04000]
#1=[#524+[#525-#524]*0.55302]
#2=[#530+[#531-#530]*0.55302]
#3=[#1+[#2-#1]*0.18355]
X-9.34753 Y-3.14565 Z[#3+-0.04000]
#1=[#524+[#525-#524]*0.54247]
#2=[#530+[#531-#530]*0.54247]
#3=[#1+[#2-#1]*0.17315]
X-9.35152 Y-3.14964 Z[#3+-0.04000]
#1=[#524+[#525-#524]*0.20805]
#2=[#530+[#531-#530]*0.20805]
#3=[#1+[#2-#1]*0.17315]
X-9.35152 Y-3.27619 Z[#3+-0.04000]
#1=[#524+[#525-#524]*0.18776]
#2=[#530+[#531-#530]*0.18776]
#3=[#1+[#2-#1]*0.17118]
X-9.35228 Y-3.28387 Z[#3+-0.04000]
#1=[#524+[#525-#524]*0.16824]
#2=[#530+[#531-#530]*0.16824]
#3=[#1+[#2-#1]*0.16534]
X-9.35452 Y-3.29126 Z[#3+-0.04000]
#1=[#524+[#525-#524]*0.15025]
#2=[#530+[#531-#530]*0.15025]
#3=[#1+[#2-#1]*0.15586]
X-9.35816 Y-3.29806 Z[#3+-0.04000]
#1=[#524+[#525-#524]*0.13449]
#2=[#530+[#531-#530]*0.13449]
#3=[#1+[#2-#1]*0.14310]
X-9.36305 Y-3.30403 Z[#3+-0.04000]
#1=[#524+[#525-#524]*0.12155]
#2=[#530+[#531-#530]*0.12155]
#3=[#1+[#2-#1]*0.12755]
X-9.36902 Y-3.30892 Z[#3+-0.04000]
#1=[#524+[#525-#524]*0.11193]
#2=[#530+[#531-#530]*0.11193]
#3=[#1+[#2-#1]*0.10982]
X-9.37582 Y-3.31256 Z[#3+-0.04000]
#1=[#524+[#525-#524]*0.10601]
#2=[#530+[#531-#530]*0.10601]
#3=[#1+[#2-#1]*0.09057]
X-9.38321 Y-3.31480 Z[#3+-0.04000]
#1=[#524+[#525-#524]*0.10401]
#2=[#530+[#531-#530]*0.10401]
#3=[#1+[#2-#1]*0.07055]
X-9.39089 Y-3.31556 Z[#3+-0.04000]
#1=[#524+[#525-#524]*0.10601]
#2=[#530+[#531-#530]*0.10601]
#3=[#1+[#2-#1]*0.05054]
X-9.39857 Y-3.31480 Z[#3+-0.04000]
#1=[#524+[#525-#524]*0.11193]
#2=[#530+[#531-#530]*0.11193]
#3=[#1+[#2-#1]*0.03129]
X-9.40596 Y-3.31256 Z[#3+-0.04000]
#1=[#524+[#525-#524]*0.12155]
#2=[#530+[#531-#530]*0.12155]
#3=[#1+[#2-#1]*0.01356]
X-9.41276 Y-3.30892 Z[#3+-0.04000]
#1=[#524+[#525-#524]*0.13283]
#2=[#530+[#531-#530]*0.13283]
#3=[#1+[#2-#1]*0.00000]
X-9.41797 Y-3.30465 Z[#3+-0.04000]
#1=[#518+[#519-#518]*0.13449]
#2=[#524+[#525-#524]*0.13449]
#3=[#1+[#2-#1]*0.99801]
X-9.41873 Y-3.30403 Z[#3+-0.04000]
#1=[#518+[#519-#518]*0.15025]
#2=[#524+[#525-#524]*0.15025]
#3=[#1+[#2-#1]*0.98525]
X-9.42363 Y-3.29806 Z[#3+-0.04000]
#1=[#518+[#519-#518]*0.16824]
#2=[#524+[#525-#524]*0.16824]
#3=[#1+[#2-#1]*0.97577]
X-9.42726 Y-3.29126 Z[#3+-0.04000]
#1=[#518+[#519-#518]*0.18776]
#2=[#524+[#525-#524]*0.18776]
#3=[#1+[#2-#1]*0.96993]
X-9.42950 Y-3.28387 Z[#3+-0.04000]
#1=[#518+[#519-#518]*0.20805]
#2=[#524+[#525-#524]*0.20805]
#3=[#1+[#2-#1]*0.96796]
X-9.43026 Y-3.27619 Z[#3+-0.04000]
#1=[#519+[#520-#519]*0.00000]
#2=[#525+[#526-#525]*0.00000]
#3=[#1+[#2-#1]*0.96796]
X-9.43026 Y-2.97650 Z[#3+-0.04000]
#1=[#519+[#520-#519]*0.52932]
#2=[#525+[#526-#525]*0.52932]
#3=[#1+[#2-#1]*0.96796]
X-9.43026 Y-2.77619 Z[#3+-0.04000]
#1=[#519+[#520-#519]*0.54962]
#2=[#525+[#526-#525]*0.54962]
#3=[#1+[#2-#1]*0.96993]
X-9.42950 Y-2.76851 Z[#3+-0.04000]
#1=[#519+[#520-#519]*0.56914]
#2=[#525+[#526-#525]*0.56914]
#3=[#1+[#2-#1]*0.97577]
X-9.42726 Y-2.76112 Z[#3+-0.04000]
#1=[#519+[#520-#519]*0.58712]
#2=[#525+[#526-#525]*0.58712]
#3=[#1+[#2-#1]*0.98525]
X-9.42363 Y-2.75432 Z[#3+-0.04000]
#1=[#519+[#520-#519]*0.60289]
#2=[#525+[#526-#525]*0.60289]
#3=[#1+[#2-#1]*0.99801]
X-9.41873 Y-2.74835 Z[#3+-0.04000]
#1=[#525+[#526-#525]*0.60454]
#2=[#531+[#532-#531]*0.60454]
#3=[#1+[#2-#1]*0.00000]
X-9.41797 Y-2.74772 Z[#3+-0.04000]
#1=[#525+[#526-#525]*0.61583]
#2=[#531+[#532-#531]*0.61583]
#3=[#1+[#2-#1]*0.01356]
X-9.41276 Y-2.74345 Z[#3+-0.04000]
#1=[#525+[#526-#525]*0.62544]
#2=[#531+[#532-#531]*0.62544]
#3=[#1+[#2-#1]*0.03129]
X-9.40596 Y-2.73982 Z[#3+-0.04000]
#1=[#525+[#526-#525]*0.63136]
#2=[#531+[#532-#531]*0.63136]
#3=[#1+[#2-#1]*0.05054]
X-9.39857 Y-2.73758 Z[#3+-0.04000]
#1=[#525+[#526-#525]*0.63336]
#2=[#531+[#532-#531]*0.63336]
#3=[#1+[#2-#1]*0.07055]
X-9.39089 Y-2.73682 Z[#3+-0.04000]
#1=[#525+[#526-#525]*0.63136]
#2=[#531+[#532-#531]*0.63136]
#3=[#1+[#2-#1]*0.09057]
X-9.38321 Y-2.73758 Z[#3+-0.04000]
#1=[#525+[#526-#525]*0.62544]
#2=[#531+[#532-#531]*0.62544]
#3=[#1+[#2-#1]*0.10982]
X-9.37582 Y-2.73982 Z[#3+-0.04000]
#1=[#525+[#526-#525]*0.61583]
#2=[#531+[#532-#531]*0.61583]
#3=[#1+[#2-#1]*0.12755]
X-9.36902 Y-2.74345 Z[#3+-0.04000]
#1=[#525+[#526-#525]*0.60289]
#2=[#531+[#532-#531]*0.60289]
#3=[#1+[#2-#1]*0.14310]
X-9.36305 Y-2.74835 Z[#3+-0.04000]
#1=[#525+[#526-#525]*0.58712]
#2=[#531+[#532-#531]*0.58712]
#3=[#1+[#2-#1]*0.15586]
X-9.35816 Y-2.75432 Z[#3+-0.04000]
#1=[#525+[#526-#525]*0.56914]
#2=[#531+[#532-#531]*0.56914]
#3=[#1+[#2-#1]*0.16534]
X-9.35452 Y-2.76112 Z[#3+-0.04000]
#1=[#525+[#526-#525]*0.54962]
#2=[#531+[#532-#531]*0.54962]
#3=[#1+[#2-#1]*0.17118]
X-9.35228 Y-2.76851 Z[#3+-0.04000]
#1=[#525+[#526-#525]*0.52932]
#2=[#531+[#532-#531]*0.52932]
#3=[#1+[#2-#1]*0.17315]
X-9.35152 Y-2.77619 Z[#3+-0.04000]
#1=[#525+[#526-#525]*0.00000]
#2=[#531+[#532-#531]*0.00000]
#3=[#1+[#2-#1]*0.17315]
X-9.35152 Y-2.97650 Z[#3+-0.04000]
#1=[#524+[#525-#524]*0.83673]
#2=[#530+[#531-#530]*0.83673]
#3=[#1+[#2-#1]*0.17315]
X-9.35152 Y-3.03828 Z[#3+-0.04000]
#1=[#525+[#526-#525]*0.00000]
#2=[#531+[#532-#531]*0.00000]
#3=[#1+[#2-#1]*0.33417]
X-9.28973 Y-2.97650 Z[#3+-0.04000]
#1=[#525+[#526-#525]*0.16246]
#2=[#531+[#532-#531]*0.16246]
#3=[#1+[#2-#1]*0.49438]
X-9.22825 Y-2.91502 Z[#3+-0.04000]
#1=[#525+[#526-#525]*0.17539]
#2=[#531+[#532-#531]*0.17539]
#3=[#1+[#2-#1]*0.50993]
X-9.22228 Y-2.91012 Z[#3+-0.04000]
#1=[#525+[#526-#525]*0.18501]
#2=[#531+[#532-#531]*0.18501]
#3=[#1+[#2-#1]*0.52767]
X-9.21548 Y-2.90649 Z[#3+-0.04000]
#1=[#525+[#526-#525]*0.19093]
#2=[#531+[#532-#531]*0.19093]
#3=[#1+[#2-#1]*0.54691]
X-9.20809 Y-2.90425 Z[#3+-0.04000]
#1=[#525+[#526-#525]*0.19293]
#2=[#531+[#532-#531]*0.19293]
#3=[#1+[#2-#1]*0.56693]
X-9.20041 Y-2.90349 Z[#3+-0.04000]
#1=[#525+[#526-#525]*0.19093]
#2=[#531+[#532-#531]*0.19093]
#3=[#1+[#2-#1]*0.58695]
X-9.19273 Y-2.90425 Z[#3+-0.04000]
#1=[#525+[#526-#525]*0.18501]
#2=[#531+[#532-#531]*0.18501]
#3=[#1+[#2-#1]*0.60619]
X-9.18534 Y-2.90649 Z[#3+-0.04000]
#1=[#525+[#526-#525]*0.17539]
#2=[#531+[#532-#531]*0.17539]
#3=[#1+[#2-#1]*0.62393]
X-9.17854 Y-2.91012 Z[#3+-0.04000]
#1=[#525+[#526-#525]*0.16245]
#2=[#531+[#532-#531]*0.16245]
#3=[#1+[#2-#1]*0.63947]
X-9.17257 Y-2.91502 Z[#3+-0.04000]
#1=[#525+[#526-#525]*0.14669]
#2=[#531+[#532-#531]*0.14669]
#3=[#1+[#2-#1]*0.65223]
X-9.16768 Y-2.92099 Z[#3+-0.04000]
#1=[#525+[#526-#525]*0.12870]
#2=[#531+[#532-#531]*0.12870]
#3=[#1+[#2-#1]*0.66171]
X-9.16404 Y-2.92779 Z[#3+-0.04000]
#1=[#525+[#526-#525]*0.10918]
#2=[#531+[#532-#531]*0.10918]
#3=[#1+[#2-#1]*0.66755]
X-9.16180 Y-2.93518 Z[#3+-0.04000]
#1=[#525+[#526-#525]*0.08889]
#2=[#531+[#532-#531]*0.08889]
#3=[#1+[#2-#1]*0.66952]
X-9.16104 Y-2.94286 Z[#3+-0.04000]
G04 P0 ( dwell for no time -- G64 should not smooth over this point )
G00 Z0.08000 ( retract )

G00 X-9.56590 Y-3.24959 ( rapid move to begin. )
G01 F180.00000
( Mill infeed pass 1/1 )
#1=[#518+[#519-#518]*0.27834]
#2=[#524+[#525-#524]*0.27834]
#3=[#1+[#2-#1]*0.61450]
G01 Z[-0.04000+#100]
G04 P0 ( dwell for no time -- G64 should not smooth over this point )
G01 F360.00000
#1=[#518+[#519-#518]*0.25796]
#2=[#524+[#525-#524]*0.25796]
#3=[#1+[#2-#1]*0.61395]
X-9.56611 Y-3.25730 Z[#3+-0.04000]
#1=[#518+[#519-#518]*0.23807]
#2=[#524+[#525-#524]*0.23807]
#3=[#1+[#2-#1]*0.60950]
X-9.56782 Y-3.26483 Z[#3+-0.04000]
#1=[#518+[#519-#518]*0.21945]
#2=[#524+[#525-#524]*0.21945]
#3=[#1+[#2-#1]*0.60130]
X-9.57097 Y-3.27188 Z[#3+-0.04000]
#1=[#518+[#519-#518]*0.20280]
#2=[#524+[#525-#524]*0.20280]
#3=[#1+[#2-#1]*0.58967]
X-9.57543 Y-3.27818 Z[#3+-0.04000]
#1=[#518+[#519-#518]*0.18878]
#2=[#524+[#525-#524]*0.18878]
#3=[#1+[#2-#1]*0.57507]
X-9.58103 Y-3.28348 Z[#3+-0.04000]
#1=[#518+[#519-#518]*0.17792]
#2=[#524+[#525-#524]*0.17792]
#3=[#1+[#2-#1]*0.55805]
X-9.58756 Y-3.28759 Z[#3+-0.04000]
#1=[#518+[#519-#518]*0.11500]
#2=[#524+[#525-#524]*0.11500]
#3=[#1+[#2-#1]*0.43395]
X-9.63518 Y-3.31140 Z[#3+-0.04000]
#1=[#518+[#519-#518]*0.10680]
#2=[#524+[#525-#524]*0.10680]
#3=[#1+[#2-#1]*0.41165]
X-9.64375 Y-3.31451 Z[#3+-0.04000]
#1=[#518+[#519-#518]*0.10401]
#2=[#524+[#525-#524]*0.10401]
#3=[#1+[#2-#1]*0.38807]
X-9.65279 Y-3.31556 Z[#3+-0.04000]
#1=[#518+[#519-#518]*0.10401]
#2=[#524+[#525-#524]*0.10401]
#3=[#1+[#2-#1]*0.13989]
X-9.74803 Y-3.31556 Z[#3+-0.04000]
#1=[#518+[#519-#518]*0.10680]
#2=[#524+[#525-#524]*0.10680]
#3=[#1+[#2-#1]*0.11632]
X-9.75708 Y-3.31451 Z[#3+-0.04000]
#1=[#518+[#519-#518]*0.11500]
#2=[#524+[#525-#524]*0.11500]
#3=[#1+[#2-#1]*0.09401]
X-9.76564 Y-3.31140 Z[#3+-0.04000]
#1=[#512+[#513-#512]*0.16266]
#2=[#518+[#519-#518]*0.16266]
#3=[#1+[#2-#1]*1.00000]
X-9.80171 Y-3.29337 Z[#3+-0.04000]
#1=[#512+[#513-#512]*0.17792]
#2=[#518+[#519-#518]*0.17792]
#3=[#1+[#2-#1]*0.96992]
X-9.81326 Y-3.28759 Z[#3+-0.04000]
#1=[#512+[#513-#512]*0.18657]
#2=[#518+[#519-#518]*0.18657]
#3=[#1+[#2-#1]*0.95581]
X-9.81867 Y-3.28432 Z[#3+-0.04000]
#1=[#512+[#513-#512]*0.19741]
#2=[#518+[#519-#518]*0.19741]
#3=[#1+[#2-#1]*0.94325]
X-9.82349 Y-3.28022 Z[#3+-0.04000]
#1=[#512+[#513-#512]*0.26032]
#2=[#518+[#519-#518]*0.26032]
#3=[#1+[#2-#1]*0.88121]
X-9.84730 Y-3.25641 Z[#3+-0.04000]
#1=[#512+[#513-#512]*0.27306]
#2=[#518+[#519-#518]*0.27306]
#3=[#1+[#2-#1]*0.87052]
X-9.85140 Y-3.25159 Z[#3+-0.04000]
#1=[#512+[#513-#512]*0.28736]
#2=[#518+[#519-#518]*0.28736]
#3=[#1+[#2-#1]*0.86199]
X-9.85467 Y-3.24618 Z[#3+-0.04000]
#1=[#512+[#513-#512]*0.41320]
#2=[#518+[#519-#518]*0.41320]
#3=[#1+[#2-#1]*0.79994]
X-9.87848 Y-3.19856 Z[#3+-0.04000]
#1=[#512+[#513-#512]*0.43582]
#2=[#518+[#519-#518]*0.43582]
#3=[#1+[#2-#1]*0.79186]
X-9.88159 Y-3.19000 Z[#3+-0.04000]
#1=[#512+[#513-#512]*0.45973]
#2=[#518+[#519-#518]*0.45973]
#3=[#1+[#2-#1]*0.78911]
X-9.88264 Y-3.18095 Z[#3+-0.04000]
#1=[#512+[#513-#512]*0.83721]
#2=[#518+[#519-#518]*0.83721]
#3=[#1+[#2-#1]*0.78911]
X-9.88264 Y-3.03810 Z[#3+-0.04000]
#1=[#512+[#513-#512]*0.86112]
#2=[#518+[#519-#518]*0.86112]
#3=[#1+[#2-#1]*0.79186]
X-9.88159 Y-3.02905 Z[#3+-0.04000]
#1=[#512+[#513-#512]*0.88374]
#2=[#518+[#519-#518]*0.88374]
#3=[#1+[#2-#1]*0.79994]
X-9.87848 Y-3.02049 Z[#3+-0.04000]
#1=[#513+[#514-#513]*0.00000]
#2=[#519+[#520-#519]*0.00000]
#3=[#1+[#2-#1]*0.85727]
X-9.85649 Y-2.97650 Z[#3+-0.04000]
#1=[#513+[#514-#513]*0.00958]
#2=[#519+[#520-#519]*0.00958]
#3=[#1+[#2-#1]*0.86199]
X-9.85467 Y-2.97287 Z[#3+-0.04000]
#1=[#513+[#514-#513]*0.02388]
#2=[#519+[#520-#519]*0.02388]
#3=[#1+[#2-#1]*0.87052]
X-9.85140 Y-2.96746 Z[#3+-0.04000]
#1=[#513+[#514-#513]*0.03662]
#2=[#519+[#520-#519]*0.03662]
#3=[#1+[#2-#1]*0.88121]
X-9.84730 Y-2.96264 Z[#3+-0.04000]
#1=[#513+[#514-#513]*0.09954]
#2=[#519+[#520-#519]*0.09954]
#3=[#1+[#2-#1]*0.94325]
X-9.82349 Y-2.93883 Z[#3+-0.04000]
#1=[#513+[#514-#513]*0.11037]
#2=[#519+[#520-#519]*0.11037]
#3=[#1+[#2-#1]*0.95581]
X-9.81867 Y-2.93473 Z[#3+-0.04000]
#1=[#513+[#514-#513]*0.11902]
#2=[#519+[#520-#519]*0.11902]
#3=[#1+[#2-#1]*0.96992]
X-9.81326 Y-2.93146 Z[#3+-0.04000]
#1=[#513+[#514-#513]*0.13428]
#2=[#519+[#520-#519]*0.13428]
#3=[#1+[#2-#1]*1.00000]
X-9.80171 Y-2.92568 Z[#3+-0.04000]
#1=[#519+[#520-#519]*0.18194]
#2=[#525+[#526-#525]*0.18194]
#3=[#1+[#2-#1]*0.09401]
X-9.76564 Y-2.90765 Z[#3+-0.04000]
#1=[#519+[#520-#519]*0.19014]
#2=[#525+[#526-#525]*0.19014]
#3=[#1+[#2-#1]*0.11632]
X-9.75708 Y-2.90454 Z[#3+-0.04000]
#1=[#519+[#520-#519]*0.19293]
#2=[#525+[#526-#525]*0.19293]
#3=[#1+[#2-#1]*0.13989]
X-9.74803 Y-2.90349 Z[#3+-0.04000]
#1=[#519+[#520-#519]*0.19293]
#2=[#525+[#526-#525]*0.19293]
#3=[#1+[#2-#1]*0.38807]
X-9.65279 Y-2.90349 Z[#3+-0.04000]
#1=[#519+[#520-#519]*0.19014]
#2=[#525+[#526-#525]*0.19014]
#3=[#1+[#2-#1]*0.41165]
X-9.64375 Y-2.90454 Z[#3+-0.04000]
#1=[#519+[#520-#519]*0.18194]
#2=[#525+[#526-#525]*0.18194]
#3=[#1+[#2-#1]*0.43395]
X-9.63518 Y-2.90765 Z[#3+-0.04000]
#1=[#519+[#520-#519]*0.11902]
#2=[#525+[#526-#525]*0.11902]
#3=[#1+[#2-#1]*0.55805]
X-9.58756 Y-2.93146 Z[#3+-0.04000]
#1=[#519+[#520-#519]*0.10816]
#2=[#525+[#526-#525]*0.10816]
#3=[#1+[#2-#1]*0.57507]
X-9.58103 Y-2.93557 Z[#3+-0.04000]
#1=[#519+[#520-#519]*0.09414]
#2=[#525+[#526-#525]*0.09414]
#3=[#1+[#2-#1]*0.58967]
X-9.57543 Y-2.94087 Z[#3+-0.04000]
#1=[#519+[#520-#519]*0.07749]
#2=[#525+[#526-#525]*0.07749]
#3=[#1+[#2-#1]*0.60130]
X-9.57097 Y-2.94717 Z[#3+-0.04000]
#1=[#519+[#520-#519]*0.05887]
#2=[#525+[#526-#525]*0.05887]
#3=[#1+[#2-#1]*0.60950]
X-9.56782 Y-2.95422 Z[#3+-0.04000]
#1=[#519+[#520-#519]*0.03898]
#2=[#525+[#526-#525]*0.03898]
#3=[#1+[#2-#1]*0.61395]
X-9.56611 Y-2.96175 Z[#3+-0.04000]
#1=[#519+[#520-#519]*0.01860]
#2=[#525+[#526-#525]*0.01860]
#3=[#1+[#2-#1]*0.61450]
X-9.56590 Y-2.96946 Z[#3+-0.04000]
#1=[#519+[#520-#519]*0.00000]
#2=[#525+[#526-#525]*0.00000]
#3=[#1+[#2-#1]*0.61137]
X-9.56710 Y-2.97650 Z[#3+-0.04000]
#1=[#518+[#519-#518]*0.99849]
#2=[#524+[#525-#524]*0.99849]
#3=[#1+[#2-#1]*0.61112]
X-9.56720 Y-2.97707 Z[#3+-0.04000]
#1=[#518+[#519-#518]*0.97944]
#2=[#524+[#525-#524]*0.97944]
#3=[#1+[#2-#1]*0.60393]
X-9.56996 Y-2.98428 Z[#3+-0.04000]
#1=[#518+[#519-#518]*0.96218]
#2=[#524+[#525-#524]*0.96218]
#3=[#1+[#2-#1]*0.59322]
X-9.57407 Y-2.99081 Z[#3+-0.04000]
#1=[#518+[#519-#518]*0.94737]
#2=[#524+[#525-#524]*0.94737]
#3=[#1+[#2-#1]*0.57939]
X-9.57938 Y-2.99641 Z[#3+-0.04000]
#1=[#518+[#519-#518]*0.93559]
#2=[#524+[#525-#524]*0.93559]
#3=[#1+[#2-#1]*0.56297]
X-9.58567 Y-3.00087 Z[#3+-0.04000]
#1=[#518+[#519-#518]*0.92727]
#2=[#524+[#525-#524]*0.92727]
#3=[#1+[#2-#1]*0.54461]
X-9.59272 Y-3.00402 Z[#3+-0.04000]
#1=[#518+[#519-#518]*0.92275]
#2=[#524+[#525-#524]*0.92275]
#3=[#1+[#2-#1]*0.52500]
X-9.60025 Y-3.00573 Z[#3+-0.04000]
#1=[#518+[#519-#518]*0.92219]
#2=[#524+[#525-#524]*0.92219]
#3=[#1+[#2-#1]*0.50489]
X-9.60796 Y-3.00594 Z[#3+-0.04000]
#1=[#518+[#519-#518]*0.92563]
#2=[#524+[#525-#524]*0.92563]
#3=[#1+[#2-#1]*0.48507]
X-9.61557 Y-3.00464 Z[#3+-0.04000]
#1=[#518+[#519-#518]*0.93292]
#2=[#524+[#525-#524]*0.93292]
#3=[#1+[#2-#1]*0.46629]
X-9.62278 Y-3.00188 Z[#3+-0.04000]
#1=[#518+[#519-#518]*0.98485]
#2=[#524+[#525-#524]*0.98485]
#3=[#1+[#2-#1]*0.36385]
X-9.66209 Y-2.98223 Z[#3+-0.04000]
#1=[#518+[#519-#518]*0.98485]
#2=[#524+[#525-#524]*0.98485]
#3=[#1+[#2-#1]*0.16411]
X-9.73874 Y-2.98223 Z[#3+-0.04000]
#1=[#518+[#519-#518]*0.94047]
#2=[#524+[#525-#524]*0.94047]
#3=[#1+[#2-#1]*0.07657]
X-9.77233 Y-2.99903 Z[#3+-0.04000]
#1=[#518+[#519-#518]*0.90142]
#2=[#524+[#525-#524]*0.90142]
#3=[#1+[#2-#1]*0.03807]
X-9.78710 Y-3.01380 Z[#3+-0.04000]
#1=[#512+[#513-#512]*0.82421]
#2=[#518+[#519-#518]*0.82421]
#3=[#1+[#2-#1]*1.00000]
X-9.80171 Y-3.04302 Z[#3+-0.04000]
#1=[#512+[#513-#512]*0.81265]
#2=[#518+[#519-#518]*0.81265]
#3=[#1+[#2-#1]*0.99430]
X-9.80390 Y-3.04739 Z[#3+-0.04000]
#1=[#512+[#513-#512]*0.48429]
#2=[#518+[#519-#518]*0.48429]
#3=[#1+[#2-#1]*0.99430]
X-9.80390 Y-3.17165 Z[#3+-0.04000]
#1=[#512+[#513-#512]*0.47273]
#2=[#518+[#519-#518]*0.47273]
#3=[#1+[#2-#1]*1.00000]
X-9.80171 Y-3.17603 Z[#3+-0.04000]
#1=[#518+[#519-#518]*0.39552]
#2=[#524+[#525-#524]*0.39552]
#3=[#1+[#2-#1]*0.03807]
X-9.78710 Y-3.20525 Z[#3+-0.04000]
#1=[#518+[#519-#518]*0.35647]
#2=[#524+[#525-#524]*0.35647]
#3=[#1+[#2-#1]*0.07657]
X-9.77233 Y-3.22002 Z[#3+-0.04000]
#1=[#518+[#519-#518]*0.31209]
#2=[#524+[#525-#524]*0.31209]
#3=[#1+[#2-#1]*0.16411]
X-9.73874 Y-3.23682 Z[#3+-0.04000]
#1=[#518+[#519-#518]*0.31209]
#2=[#524+[#525-#524]*0.31209]
#3=[#1+[#2-#1]*0.36385]
X-9.66209 Y-3.23682 Z[#3+-0.04000]
#1=[#518+[#519-#518]*0.36402]
#2=[#524+[#525-#524]*0.36402]
#3=[#1+[#2-#1]*0.46629]
X-9.62278 Y-3.21717 Z[#3+-0.04000]
#1=[#518+[#519-#518]*0.37131]
#2=[#524+[#525-#524]*0.37131]
#3=[#1+[#2-#1]*0.48507]
X-9.61557 Y-3.21441 Z[#3+-0.04000]
#1=[#518+[#519-#518]*0.37475]
#2=[#524+[#525-#524]*0.37475]
#3=[#1+[#2-#1]*0.50489]
X-9.60796 Y-3.21311 Z[#3+-0.04000]
#1=[#518+[#519-#518]*0.37419]
#2=[#524+[#525-#524]*0.37419]
#3=[#1+[#2-#1]*0.52500]
X-9.60025 Y-3.21332 Z[#3+-0.04000]
#1=[#518+[#519-#518]*0.36967]
#2=[#524+[#525-#524]*0.36967]
#3=[#1+[#2-#1]*0.54461]
X-9.59272 Y-3.21503 Z[#3+-0.04000]
#1=[#518+[#519-#518]*0.36135]
#2=[#524+[#525-#524]*0.36135]
#3=[#1+[#2-#1]*0.56297]
X-9.58567 Y-3.21818 Z[#3+-0.04000]
#1=[#518+[#519-#518]*0.34957]
#2=[#524+[#525-#524]*0.34957]
#3=[#1+[#2-#1]*0.57939]
X-9.57938 Y-3.22264 Z[#3+-0.04000]
#1=[#518+[#519-#518]*0.33476]
#2=[#524+[#525-#524]*0.33476]
#3=[#1+[#2-#1]*0.59322]
X-9.57407 Y-3.22824 Z[#3+-0.04000]
#1=[#518+[#519-#518]*0.31750]
#2=[#524+[#525-#524]*0.31750]
#3=[#1+[#2-#1]*0.60393]
X-9.56996 Y-3.23477 Z[#3+-0.04000]
#1=[#518+[#519-#518]*0.29845]
#2=[#524+[#525-#524]*0.29845]
#3=[#1+[#2-#1]*0.61112]
X-9.56720 Y-3.24198 Z[#3+-0.04000]
#1=[#518+[#519-#518]*0.27834]
#2=[#524+[#525-#524]*0.27834]
#3=[#1+[#2-#1]*0.61450]
X-9.56590 Y-3.24959 Z[#3+-0.04000]
G04 P0 ( dwell for no time -- G64 should not smooth over this point )
G00 Z0.08000 ( retract )

G00 X-10.01818 Y-3.27619 ( rapid move to begin. )
G01 F180.00000
( Mill infeed pass 1/1 )
#1=[#512+[#513-#512]*0.20805]
#2=[#518+[#519-#518]*0.20805]
#3=[#1+[#2-#1]*0.43591]
G01 Z[-0.04000+#100]
G04 P0 ( dwell for no time -- G64 should not smooth over this point )
G01 F360.00000
#1=[#512+[#513-#512]*0.90013]
#2=[#518+[#519-#518]*0.90013]
#3=[#1+[#2-#1]*0.43591]
X-10.01818 Y-3.01429 Z[#3+-0.04000]
#1=[#512+[#513-#512]*0.92404]
#2=[#518+[#519-#518]*0.92404]
#3=[#1+[#2-#1]*0.43316]
X-10.01923 Y-3.00524 Z[#3+-0.04000]
#1=[#512+[#513-#512]*0.94666]
#2=[#518+[#519-#518]*0.94666]
#3=[#1+[#2-#1]*0.42508]
X-10.02234 Y-2.99668 Z[#3+-0.04000]
#1=[#513+[#514-#513]*0.00000]
#2=[#519+[#520-#519]*0.00000]
#3=[#1+[#2-#1]*0.39878]
X-10.03243 Y-2.97650 Z[#3+-0.04000]
#1=[#513+[#514-#513]*0.07250]
#2=[#519+[#520-#519]*0.07250]
#3=[#1+[#2-#1]*0.36303]
X-10.04615 Y-2.94906 Z[#3+-0.04000]
#1=[#513+[#514-#513]*0.09124]
#2=[#519+[#520-#519]*0.09124]
#3=[#1+[#2-#1]*0.35116]
X-10.05070 Y-2.94197 Z[#3+-0.04000]
#1=[#513+[#514-#513]*0.10699]
#2=[#519+[#520-#519]*0.10699]
#3=[#1+[#2-#1]*0.33563]
X-10.05666 Y-2.93601 Z[#3+-0.04000]
#1=[#513+[#514-#513]*0.11902]
#2=[#519+[#520-#519]*0.11902]
#3=[#1+[#2-#1]*0.31715]
X-10.06375 Y-2.93146 Z[#3+-0.04000]
#1=[#513+[#514-#513]*0.18194]
#2=[#519+[#520-#519]*0.18194]
#3=[#1+[#2-#1]*0.19306]
X-10.11137 Y-2.90765 Z[#3+-0.04000]
#1=[#513+[#514-#513]*0.19014]
#2=[#519+[#520-#519]*0.19014]
#3=[#1+[#2-#1]*0.17075]
X-10.11994 Y-2.90454 Z[#3+-0.04000]
#1=[#513+[#514-#513]*0.19293]
#2=[#519+[#520-#519]*0.19293]
#3=[#1+[#2-#1]*0.14718]
X-10.12898 Y-2.90349 Z[#3+-0.04000]
#1=[#513+[#514-#513]*0.19293]
#2=[#519+[#520-#519]*0.19293]
#3=[#1+[#2-#1]*0.00000]
X-10.18546 Y-2.90349 Z[#3+-0.04000]
#1=[#507+[#508-#507]*0.19293]
#2=[#513+[#514-#513]*0.19293]
#3=[#1+[#2-#1]*0.89899]
X-10.22422 Y-2.90349 Z[#3+-0.04000]
#1=[#507+[#508-#507]*0.19014]
#2=[#513+[#514-#513]*0.19014]
#3=[#1+[#2-#1]*0.87542]
X-10.23327 Y-2.90454 Z[#3+-0.04000]
#1=[#507+[#508-#507]*0.18194]
#2=[#513+[#514-#513]*0.18194]
#3=[#1+[#2-#1]*0.85311]
X-10.24183 Y-2.90765 Z[#3+-0.04000]
#1=[#507+[#508-#507]*0.11902]
#2=[#513+[#514-#513]*0.11902]
#3=[#1+[#2-#1]*0.72902]
X-10.28945 Y-2.93146 Z[#3+-0.04000]
#1=[#507+[#508-#507]*0.10816]
#2=[#513+[#514-#513]*0.10816]
#3=[#1+[#2-#1]*0.71200]
X-10.29598 Y-2.93557 Z[#3+-0.04000]
#1=[#507+[#508-#507]*0.09414]
#2=[#513+[#514-#513]*0.09414]
#3=[#1+[#2-#1]*0.69739]
X-10.30158 Y-2.94087 Z[#3+-0.04000]
#1=[#507+[#508-#507]*0.07749]
#2=[#513+[#514-#513]*0.07749]
#3=[#1+[#2-#1]*0.68577]
X-10.30604 Y-2.94717 Z[#3+-0.04000]
#1=[#507+[#508-#507]*0.05887]
#2=[#513+[#514-#513]*0.05887]
#3=[#1+[#2-#1]*0.67757]
X-10.30919 Y-2.95422 Z[#3+-0.04000]
#1=[#507+[#508-#507]*0.03898]
#2=[#513+[#514-#513]*0.03898]
#3=[#1+[#2-#1]*0.67311]
X-10.31090 Y-2.96175 Z[#3+-0.04000]
#1=[#507+[#508-#507]*0.01860]
#2=[#513+[#514-#513]*0.01860]
#3=[#1+[#2-#1]*0.67256]
X-10.31111 Y-2.96946 Z[#3+-0.04000]
#1=[#507+[#508-#507]*0.00000]
#2=[#513+[#514-#513]*0.00000]
#3=[#1+[#2-#1]*0.67570]
X-10.30991 Y-2.97650 Z[#3+-0.04000]
#1=[#506+[#507-#506]*0.99849]
#2=[#512+[#513-#512]*0.99849]
#3=[#1+[#2-#1]*0.67595]
X-10.30981 Y-2.97707 Z[#3+-0.04000]
#1=[#506+[#507-#506]*0.97944]
#2=[#512+[#513-#512]*0.97944]
#3=[#1+[#2-#1]*0.68314]
X-10.30705 Y-2.98428 Z[#3+-0.04000]
#1=[#506+[#507-#506]*0.96218]
#2=[#512+[#513-#512]*0.96218]
#3=[#1+[#2-#1]*0.69385]
X-10.30294 Y-2.99081 Z[#3+-0.04000]
#1=[#506+[#507-#506]*0.94737]
#2=[#512+[#513-#512]*0.94737]
#3=[#1+[#2-#1]*0.70768]
X-10.29764 Y-2.99641 Z[#3+-0.04000]
#1=[#506+[#507-#506]*0.93559]
#2=[#512+[#513-#512]*0.93559]
#3=[#1+[#2-#1]*0.72409]
X-10.29134 Y-3.00087 Z[#3+-0.04000]
#1=[#506+[#507-#506]*0.92727]
#2=[#512+[#513-#512]*0.92727]
#3=[#1+[#2-#1]*0.74246]
X-10.28429 Y-3.00402 Z[#3+-0.04000]
#1=[#506+[#507-#506]*0.92275]
#2=[#512+[#513-#512]*0.92275]
#3=[#1+[#2-#1]*0.76207]
X-10.27677 Y-3.00573 Z[#3+-0.04000]
#1=[#506+[#507-#506]*0.92219]
#2=[#512+[#513-#512]*0.92219]
#3=[#1+[#2-#1]*0.78217]
X-10.26905 Y-3.00594 Z[#3+-0.04000]
#1=[#506+[#507-#506]*0.92563]
#2=[#512+[#513-#512]*0.92563]
#3=[#1+[#2-#1]*0.80200]
X-10.26144 Y-3.00464 Z[#3+-0.04000]
#1=[#506+[#507-#506]*0.93292]
#2=[#512+[#513-#512]*0.93292]
#3=[#1+[#2-#1]*0.82078]
X-10.25423 Y-3.00188 Z[#3+-0.04000]
#1=[#506+[#507-#506]*0.98485]
#2=[#512+[#513-#512]*0.98485]
#3=[#1+[#2-#1]*0.92321]
X-10.21493 Y-2.98223 Z[#3+-0.04000]
#1=[#512+[#513-#512]*0.98485]
#2=[#518+[#519-#518]*0.98485]
#3=[#1+[#2-#1]*0.00000]
X-10.18546 Y-2.98223 Z[#3+-0.04000]
#1=[#512+[#513-#512]*0.98485]
#2=[#518+[#519-#518]*0.98485]
#3=[#1+[#2-#1]*0.12296]
X-10.13828 Y-2.98223 Z[#3+-0.04000]
#1=[#512+[#513-#512]*0.94843]
#2=[#518+[#519-#518]*0.94843]
#3=[#1+[#2-#1]*0.19480]
X-10.11071 Y-2.99601 Z[#3+-0.04000]
#1=[#512+[#513-#512]*0.87557]
#2=[#518+[#519-#518]*0.87557]
#3=[#1+[#2-#1]*0.23072]
X-10.09692 Y-3.02358 Z[#3+-0.04000]
#1=[#512+[#513-#512]*0.83862]
#2=[#518+[#519-#518]*0.83862]
#3=[#1+[#2-#1]*0.23072]
X-10.09692 Y-3.03757 Z[#3+-0.04000]
#1=[#512+[#513-#512]*0.81544]
#2=[#518+[#519-#518]*0.81544]
#3=[#1+[#2-#1]*0.18500]
X-10.11447 Y-3.04634 Z[#3+-0.04000]
#1=[#512+[#513-#512]*0.81544]
#2=[#518+[#519-#518]*0.81544]
#3=[#1+[#2-#1]*0.00000]
X-10.18546 Y-3.04634 Z[#3+-0.04000]
#1=[#506+[#507-#506]*0.81544]
#2=[#512+[#513-#512]*0.81544]
#3=[#1+[#2-#1]*0.89899]
X-10.22422 Y-3.04634 Z[#3+-0.04000]
#1=[#506+[#507-#506]*0.81266]
#2=[#512+[#513-#512]*0.81266]
#3=[#1+[#2-#1]*0.87542]
X-10.23327 Y-3.04739 Z[#3+-0.04000]
#1=[#506+[#507-#506]*0.80446]
#2=[#512+[#513-#512]*0.80446]
#3=[#1+[#2-#1]*0.85311]
X-10.24183 Y-3.05050 Z[#3+-0.04000]
#1=[#506+[#507-#506]*0.74154]
#2=[#512+[#513-#512]*0.74154]
#3=[#1+[#2-#1]*0.72902]
X-10.28945 Y-3.07431 Z[#3+-0.04000]
#1=[#506+[#507-#506]*0.72950]
#2=[#512+[#513-#512]*0.72950]
#3=[#1+[#2-#1]*0.71054]
X-10.29654 Y-3.07886 Z[#3+-0.04000]
#1=[#506+[#507-#506]*0.71375]
#2=[#512+[#513-#512]*0.71375]
#3=[#1+[#2-#1]*0.69501]
X-10.30250 Y-3.08482 Z[#3+-0.04000]
#1=[#506+[#507-#506]*0.69501]
#2=[#512+[#513-#512]*0.69501]
#3=[#1+[#2-#1]*0.68314]
X-10.30705 Y-3.09191 Z[#3+-0.04000]
#1=[#506+[#507-#506]*0.56917]
#2=[#512+[#513-#512]*0.56917]
#3=[#1+[#2-#1]*0.62109]
X-10.33086 Y-3.13953 Z[#3+-0.04000]
#1=[#506+[#507-#506]*0.54655]
#2=[#512+[#513-#512]*0.54655]
#3=[#1+[#2-#1]*0.61301]
X-10.33397 Y-3.14809 Z[#3+-0.04000]
#1=[#506+[#507-#506]*0.52264]
#2=[#512+[#513-#512]*0.52264]
#3=[#1+[#2-#1]*0.61026]
X-10.33502 Y-3.15714 Z[#3+-0.04000]
#1=[#506+[#507-#506]*0.39681]
#2=[#512+[#513-#512]*0.39681]
#3=[#1+[#2-#1]*0.61026]
X-10.33502 Y-3.20476 Z[#3+-0.04000]
#1=[#506+[#507-#506]*0.37290]
#2=[#512+[#513-#512]*0.37290]
#3=[#1+[#2-#1]*0.61301]
X-10.33397 Y-3.21380 Z[#3+-0.04000]
#1=[#506+[#507-#506]*0.35028]
#2=[#512+[#513-#512]*0.35028]
#3=[#1+[#2-#1]*0.62109]
X-10.33086 Y-3.22237 Z[#3+-0.04000]
#1=[#506+[#507-#506]*0.22444]
#2=[#512+[#513-#512]*0.22444]
#3=[#1+[#2-#1]*0.68314]
X-10.30705 Y-3.26999 Z[#3+-0.04000]
#1=[#506+[#507-#506]*0.20570]
#2=[#512+[#513-#512]*0.20570]
#3=[#1+[#2-#1]*0.69501]
X-10.30250 Y-3.27708 Z[#3+-0.04000]
#1=[#506+[#507-#506]*0.18995]
#2=[#512+[#513-#512]*0.18995]
#3=[#1+[#2-#1]*0.71054]
X-10.29654 Y-3.28304 Z[#3+-0.04000]
#1=[#506+[#507-#506]*0.17792]
#2=[#512+[#513-#512]*0.17792]
#3=[#1+[#2-#1]*0.72902]
X-10.28945 Y-3.28759 Z[#3+-0.04000]
#1=[#506+[#507-#506]*0.11500]
#2=[#512+[#513-#512]*0.11500]
#3=[#1+[#2-#1]*0.85311]
X-10.24183 Y-3.31140 Z[#3+-0.04000]
#1=[#506+[#507-#506]*0.10680]
#2=[#512+[#513-#512]*0.10680]
#3=[#1+[#2-#1]*0.87542]
X-10.23327 Y-3.31451 Z[#3+-0.04000]
#1=[#506+[#507-#506]*0.10401]
#2=[#512+[#513-#512]*0.10401]
#3=[#1+[#2-#1]*0.89899]
X-10.22422 Y-3.31556 Z[#3+-0.04000]
#1=[#512+[#513-#512]*0.10401]
#2=[#518+[#519-#518]*0.10401]
#3=[#1+[#2-#1]*0.00000]
X-10.18546 Y-3.31556 Z[#3+-0.04000]
#1=[#512+[#513-#512]*0.10401]
#2=[#518+[#519-#518]*0.10401]
#3=[#1+[#2-#1]*0.20922]
X-10.10517 Y-3.31556 Z[#3+-0.04000]
#1=[#512+[#513-#512]*0.10680]
#2=[#518+[#519-#518]*0.10680]
#3=[#1+[#2-#1]*0.23279]
X-10.09613 Y-3.31451 Z[#3+-0.04000]
#1=[#512+[#513-#512]*0.11500]
#2=[#518+[#519-#518]*0.11500]
#3=[#1+[#2-#1]*0.25510]
X-10.08756 Y-3.31140 Z[#3+-0.04000]
#1=[#512+[#513-#512]*0.12416]
#2=[#518+[#519-#518]*0.12416]
#3=[#1+[#2-#1]*0.27318]
X-10.08063 Y-3.30794 Z[#3+-0.04000]
#1=[#512+[#513-#512]*0.12155]
#2=[#518+[#519-#518]*0.12155]
#3=[#1+[#2-#1]*0.27632]
X-10.07942 Y-3.30892 Z[#3+-0.04000]
#1=[#512+[#513-#512]*0.11193]
#2=[#518+[#519-#518]*0.11193]
#3=[#1+[#2-#1]*0.29405]
X-10.07262 Y-3.31256 Z[#3+-0.04000]
#1=[#512+[#513-#512]*0.10601]
#2=[#518+[#519-#518]*0.10601]
#3=[#1+[#2-#1]*0.31330]
X-10.06523 Y-3.31480 Z[#3+-0.04000]
#1=[#512+[#513-#512]*0.10401]
#2=[#518+[#519-#518]*0.10401]
#3=[#1+[#2-#1]*0.33331]
X-10.05755 Y-3.31556 Z[#3+-0.04000]
#1=[#512+[#513-#512]*0.10601]
#2=[#518+[#519-#518]*0.10601]
#3=[#1+[#2-#1]*0.35333]
X-10.04987 Y-3.31480 Z[#3+-0.04000]
#1=[#512+[#513-#512]*0.11193]
#2=[#518+[#519-#518]*0.11193]
#3=[#1+[#2-#1]*0.37258]
X-10.04248 Y-3.31256 Z[#3+-0.04000]
#1=[#512+[#513-#512]*0.12155]
#2=[#518+[#519-#518]*0.12155]
#3=[#1+[#2-#1]*0.39031]
X-10.03568 Y-3.30892 Z[#3+-0.04000]
#1=[#512+[#513-#512]*0.13449]
#2=[#518+[#519-#518]*0.13449]
#3=[#1+[#2-#1]*0.40586]
X-10.02971 Y-3.30403 Z[#3+-0.04000]
#1=[#512+[#513-#512]*0.15025]
#2=[#518+[#519-#518]*0.15025]
#3=[#1+[#2-#1]*0.41862]
X-10.02482 Y-3.29806 Z[#3+-0.04000]
#1=[#512+[#513-#512]*0.16824]
#2=[#518+[#519-#518]*0.16824]
#3=[#1+[#2-#1]*0.42810]
X-10.02118 Y-3.29126 Z[#3+-0.04000]
#1=[#512+[#513-#512]*0.18776]
#2=[#518+[#519-#518]*0.18776]
#3=[#1+[#2-#1]*0.43394]
X-10.01894 Y-3.28387 Z[#3+-0.04000]
#1=[#512+[#513-#512]*0.20805]
#2=[#518+[#519-#518]*0.20805]
#3=[#1+[#2-#1]*0.43591]
X-10.01818 Y-3.27619 Z[#3+-0.04000]
G04 P0 ( dwell for no time -- G64 should not smooth over this point )
G00 Z0.08000 ( retract )

G00 X-10.09692 Y-3.22805 ( rapid move to begin. )
G01 F180.00000
( Mill infeed pass 1/1 )
#1=[#512+[#513-#512]*0.33527]
#2=[#518+[#519-#518]*0.33527]
#3=[#1+[#2-#1]*0.23072]
G01 Z[-0.04000+#100]
G04 P0 ( dwell for no time -- G64 should not smooth over this point )
G01 F360.00000
#1=[#512+[#513-#512]*0.60990]
#2=[#518+[#519-#518]*0.60990]
#3=[#1+[#2-#1]*0.23072]
X-10.09692 Y-3.12412 Z[#3+-0.04000]
#1=[#512+[#513-#512]*0.60736]
#2=[#518+[#519-#518]*0.60736]
#3=[#1+[#2-#1]*0.20922]
X-10.10517 Y-3.12508 Z[#3+-0.04000]
#1=[#512+[#513-#512]*0.60736]
#2=[#518+[#519-#518]*0.60736]
#3=[#1+[#2-#1]*0.00000]
X-10.18546 Y-3.12508 Z[#3+-0.04000]
#1=[#506+[#507-#506]*0.60736]
#2=[#512+[#513-#512]*0.60736]
#3=[#1+[#2-#1]*0.92321]
X-10.21493 Y-3.12508 Z[#3+-0.04000]
#1=[#506+[#507-#506]*0.57094]
#2=[#512+[#513-#512]*0.57094]
#3=[#1+[#2-#1]*0.85137]
X-10.24250 Y-3.13886 Z[#3+-0.04000]
#1=[#506+[#507-#506]*0.49808]
#2=[#512+[#513-#512]*0.49808]
#3=[#1+[#2-#1]*0.81545]
X-10.25628 Y-3.16643 Z[#3+-0.04000]
#1=[#506+[#507-#506]*0.42137]
#2=[#512+[#513-#512]*0.42137]
#3=[#1+[#2-#1]*0.81545]
X-10.25628 Y-3.19546 Z[#3+-0.04000]
#1=[#506+[#507-#506]*0.34851]
#2=[#512+[#513-#512]*0.34851]
#3=[#1+[#2-#1]*0.85137]
X-10.24250 Y-3.22303 Z[#3+-0.04000]
#1=[#506+[#507-#506]*0.31209]
#2=[#512+[#513-#512]*0.31209]
#3=[#1+[#2-#1]*0.92321]
X-10.21493 Y-3.23682 Z[#3+-0.04000]
#1=[#512+[#513-#512]*0.31209]
#2=[#518+[#519-#518]*0.31209]
#3=[#1+[#2-#1]*0.00000]
X-10.18546 Y-3.23682 Z[#3+-0.04000]
#1=[#512+[#513-#512]*0.31209]
#2=[#518+[#519-#518]*0.31209]
#3=[#1+[#2-#1]*0.18500]
X-10.11447 Y-3.23682 Z[#3+-0.04000]
#1=[#512+[#513-#512]*0.33527]
#2=[#518+[#519-#518]*0.33527]
#3=[#1+[#2-#1]*0.23072]
X-10.09692 Y-3.22805 Z[#3+-0.04000]
G04 P0 ( dwell for no time -- G64 should not smooth over this point )
G00 Z0.08000 ( retract )

G00 X-10.44675 Y-3.18095 ( rapid move to begin. )
G01 F180.00000
( Mill infeed pass 1/1 )
#1=[#506+[#507-#506]*0.45973]
#2=[#512+[#513-#512]*0.45973]
#3=[#1+[#2-#1]*0.31911]
G01 Z[-0.04000+#100]
G04 P0 ( dwell for no time -- G64 should not smooth over this point )
G01 F360.00000
#1=[#506+[#507-#506]*0.64848]
#2=[#512+[#513-#512]*0.64848]
#3=[#1+[#2-#1]*0.31911]
X-10.44675 Y-3.10952 Z[#3+-0.04000]
#1=[#506+[#507-#506]*0.67239]
#2=[#512+[#513-#512]*0.67239]
#3=[#1+[#2-#1]*0.31636]
X-10.44780 Y-3.10047 Z[#3+-0.04000]
#1=[#506+[#507-#506]*0.69501]
#2=[#512+[#513-#512]*0.69501]
#3=[#1+[#2-#1]*0.30827]
X-10.45091 Y-3.09191 Z[#3+-0.04000]
#1=[#506+[#507-#506]*0.82085]
#2=[#512+[#513-#512]*0.82085]
#3=[#1+[#2-#1]*0.24623]
X-10.47472 Y-3.04429 Z[#3+-0.04000]
#1=[#506+[#507-#506]*0.83516]
#2=[#512+[#513-#512]*0.83516]
#3=[#1+[#2-#1]*0.23769]
X-10.47799 Y-3.03888 Z[#3+-0.04000]
#1=[#506+[#507-#506]*0.84790]
#2=[#512+[#513-#512]*0.84790]
#3=[#1+[#2-#1]*0.22700]
X-10.48210 Y-3.03405 Z[#3+-0.04000]
#1=[#506+[#507-#506]*0.91079]
#2=[#512+[#513-#512]*0.91079]
#3=[#1+[#2-#1]*0.16495]
X-10.50591 Y-3.01025 Z[#3+-0.04000]
#1=[#506+[#507-#506]*0.92572]
#2=[#512+[#513-#512]*0.92572]
#3=[#1+[#2-#1]*0.14635]
X-10.51305 Y-3.00461 Z[#3+-0.04000]
#1=[#506+[#507-#506]*0.92821]
#2=[#512+[#513-#512]*0.92821]
#3=[#1+[#2-#1]*0.14110]
X-10.51506 Y-3.00366 Z[#3+-0.04000]
#1=[#506+[#507-#506]*0.95241]
#2=[#512+[#513-#512]*0.95241]
#3=[#1+[#2-#1]*0.16496]
X-10.50590 Y-2.99451 Z[#3+-0.04000]
#1=[#506+[#507-#506]*0.96514]
#2=[#512+[#513-#512]*0.96514]
#3=[#1+[#2-#1]*0.17565]
X-10.50180 Y-2.98969 Z[#3+-0.04000]
#1=[#506+[#507-#506]*0.97944]
#2=[#512+[#513-#512]*0.97944]
#3=[#1+[#2-#1]*0.18418]
X-10.49853 Y-2.98428 Z[#3+-0.04000]
#1=[#507+[#508-#507]*0.00000]
#2=[#513+[#514-#513]*0.00000]
#3=[#1+[#2-#1]*0.19432]
X-10.49464 Y-2.97650 Z[#3+-0.04000]
#1=[#507+[#508-#507]*0.10528]
#2=[#513+[#514-#513]*0.10528]
#3=[#1+[#2-#1]*0.24623]
X-10.47472 Y-2.93666 Z[#3+-0.04000]
#1=[#507+[#508-#507]*0.12791]
#2=[#513+[#514-#513]*0.12791]
#3=[#1+[#2-#1]*0.25431]
X-10.47161 Y-2.92809 Z[#3+-0.04000]
#1=[#507+[#508-#507]*0.15181]
#2=[#513+[#514-#513]*0.15181]
#3=[#1+[#2-#1]*0.25706]
X-10.47056 Y-2.91905 Z[#3+-0.04000]
#1=[#507+[#508-#507]*0.27765]
#2=[#513+[#514-#513]*0.27765]
#3=[#1+[#2-#1]*0.25706]
X-10.47056 Y-2.87143 Z[#3+-0.04000]
#1=[#507+[#508-#507]*0.30155]
#2=[#513+[#514-#513]*0.30155]
#3=[#1+[#2-#1]*0.25431]
X-10.47161 Y-2.86238 Z[#3+-0.04000]
#1=[#507+[#508-#507]*0.32417]
#2=[#513+[#514-#513]*0.32417]
#3=[#1+[#2-#1]*0.24623]
X-10.47472 Y-2.85382 Z[#3+-0.04000]
#1=[#507+[#508-#507]*0.45001]
#2=[#513+[#514-#513]*0.45001]
#3=[#1+[#2-#1]*0.18418]
X-10.49853 Y-2.80620 Z[#3+-0.04000]
#1=[#507+[#508-#507]*0.46432]
#2=[#513+[#514-#513]*0.46432]
#3=[#1+[#2-#1]*0.17565]
X-10.50180 Y-2.80079 Z[#3+-0.04000]
#1=[#507+[#508-#507]*0.47705]
#2=[#513+[#514-#513]*0.47705]
#3=[#1+[#2-#1]*0.16496]
X-10.50590 Y-2.79597 Z[#3+-0.04000]
#1=[#507+[#508-#507]*0.53997]
#2=[#513+[#514-#513]*0.53997]
#3=[#1+[#2-#1]*0.10292]
X-10.52971 Y-2.77216 Z[#3+-0.04000]
#1=[#507+[#508-#507]*0.55080]
#2=[#513+[#514-#513]*0.55080]
#3=[#1+[#2-#1]*0.09036]
X-10.53453 Y-2.76806 Z[#3+-0.04000]
#1=[#507+[#508-#507]*0.55946]
#2=[#513+[#514-#513]*0.55946]
#3=[#1+[#2-#1]*0.07625]
X-10.53994 Y-2.76479 Z[#3+-0.04000]
#1=[#501+[#502-#501]*0.59812]
#2=[#507+[#508-#507]*0.59812]
#3=[#1+[#2-#1]*1.00000]
X-10.56921 Y-2.75016 Z[#3+-0.04000]
#1=[#501+[#502-#501]*0.62238]
#2=[#507+[#508-#507]*0.62238]
#3=[#1+[#2-#1]*0.95216]
X-10.58756 Y-2.74098 Z[#3+-0.04000]
#1=[#501+[#502-#501]*0.63058]
#2=[#507+[#508-#507]*0.63058]
#3=[#1+[#2-#1]*0.92985]
X-10.59613 Y-2.73787 Z[#3+-0.04000]
#1=[#501+[#502-#501]*0.63336]
#2=[#507+[#508-#507]*0.63336]
#3=[#1+[#2-#1]*0.90628]
X-10.60517 Y-2.73682 Z[#3+-0.04000]
#1=[#501+[#502-#501]*0.63336]
#2=[#507+[#508-#507]*0.63336]
#3=[#1+[#2-#1]*0.47195]
X-10.77184 Y-2.73682 Z[#3+-0.04000]
#1=[#501+[#502-#501]*0.63136]
#2=[#507+[#508-#507]*0.63136]
#3=[#1+[#2-#1]*0.45194]
X-10.77952 Y-2.73758 Z[#3+-0.04000]
#1=[#501+[#502-#501]*0.62544]
#2=[#507+[#508-#507]*0.62544]
#3=[#1+[#2-#1]*0.43269]
X-10.78691 Y-2.73982 Z[#3+-0.04000]
#1=[#501+[#502-#501]*0.61583]
#2=[#507+[#508-#507]*0.61583]
#3=[#1+[#2-#1]*0.41496]
X-10.79371 Y-2.74345 Z[#3+-0.04000]
#1=[#501+[#502-#501]*0.60289]
#2=[#507+[#508-#507]*0.60289]
#3=[#1+[#2-#1]*0.39941]
X-10.79968 Y-2.74835 Z[#3+-0.04000]
#1=[#501+[#502-#501]*0.58712]
#2=[#507+[#508-#507]*0.58712]
#3=[#1+[#2-#1]*0.38665]
X-10.80458 Y-2.75432 Z[#3+-0.04000]
#1=[#501+[#502-#501]*0.56914]
#2=[#507+[#508-#507]*0.56914]
#3=[#1+[#2-#1]*0.37717]
X-10.80821 Y-2.76112 Z[#3+-0.04000]
#1=[#501+[#502-#501]*0.54962]
#2=[#507+[#508-#507]*0.54962]
#3=[#1+[#2-#1]*0.37133]
X-10.81045 Y-2.76851 Z[#3+-0.04000]
#1=[#501+[#502-#501]*0.52932]
#2=[#507+[#508-#507]*0.52932]
#3=[#1+[#2-#1]*0.36936]
X-10.81121 Y-2.77619 Z[#3+-0.04000]
#1=[#501+[#502-#501]*0.00000]
#2=[#507+[#508-#507]*0.00000]
#3=[#1+[#2-#1]*0.36936]
X-10.81121 Y-2.97650 Z[#3+-0.04000]
#1=[#500+[#501-#500]*0.20805]
#2=[#506+[#507-#506]*0.20805]
#3=[#1+[#2-#1]*0.36936]
X-10.81121 Y-3.27619 Z[#3+-0.04000]
#1=[#500+[#501-#500]*0.18776]
#2=[#506+[#507-#506]*0.18776]
#3=[#1+[#2-#1]*0.37133]
X-10.81045 Y-3.28387 Z[#3+-0.04000]
#1=[#500+[#501-#500]*0.16824]
#2=[#506+[#507-#506]*0.16824]
#3=[#1+[#2-#1]*0.37717]
X-10.80821 Y-3.29126 Z[#3+-0.04000]
#1=[#500+[#501-#500]*0.15025]
#2=[#506+[#507-#506]*0.15025]
#3=[#1+[#2-#1]*0.38665]
X-10.80458 Y-3.29806 Z[#3+-0.04000]
#1=[#500+[#501-#500]*0.13449]
#2=[#506+[#507-#506]*0.13449]
#3=[#1+[#2-#1]*0.39941]
X-10.79968 Y-3.30403 Z[#3+-0.04000]
#1=[#500+[#501-#500]*0.12155]
#2=[#506+[#507-#506]*0.12155]
#3=[#1+[#2-#1]*0.41496]
X-10.79371 Y-3.30892 Z[#3+-0.04000]
#1=[#500+[#501-#500]*0.11193]
#2=[#506+[#507-#506]*0.11193]
#3=[#1+[#2-#1]*0.43269]
X-10.78691 Y-3.31256 Z[#3+-0.04000]
#1=[#500+[#501-#500]*0.10601]
#2=[#506+[#507-#506]*0.10601]
#3=[#1+[#2-#1]*0.45194]
X-10.77952 Y-3.31480 Z[#3+-0.04000]
#1=[#500+[#501-#500]*0.10401]
#2=[#506+[#507-#506]*0.10401]
#3=[#1+[#2-#1]*0.47195]
X-10.77184 Y-3.31556 Z[#3+-0.04000]
#1=[#500+[#501-#500]*0.10401]
#2=[#506+[#507-#506]*0.10401]
#3=[#1+[#2-#1]*0.96832]
X-10.58136 Y-3.31556 Z[#3+-0.04000]
#1=[#500+[#501-#500]*0.10680]
#2=[#506+[#507-#506]*0.10680]
#3=[#1+[#2-#1]*0.99190]
X-10.57232 Y-3.31451 Z[#3+-0.04000]
#1=[#500+[#501-#500]*0.10978]
#2=[#506+[#507-#506]*0.10978]
#3=[#1+[#2-#1]*1.00000]
X-10.56921 Y-3.31338 Z[#3+-0.04000]
#1=[#506+[#507-#506]*0.11500]
#2=[#512+[#513-#512]*0.11500]
#3=[#1+[#2-#1]*0.01421]
X-10.56375 Y-3.31140 Z[#3+-0.04000]
#1=[#506+[#507-#506]*0.17792]
#2=[#512+[#513-#512]*0.17792]
#3=[#1+[#2-#1]*0.13830]
X-10.51613 Y-3.28759 Z[#3+-0.04000]
#1=[#506+[#507-#506]*0.18657]
#2=[#512+[#513-#512]*0.18657]
#3=[#1+[#2-#1]*0.15241]
X-10.51072 Y-3.28432 Z[#3+-0.04000]
#1=[#506+[#507-#506]*0.19741]
#2=[#512+[#513-#512]*0.19741]
#3=[#1+[#2-#1]*0.16496]
X-10.50590 Y-3.28022 Z[#3+-0.04000]
#1=[#506+[#507-#506]*0.26032]
#2=[#512+[#513-#512]*0.26032]
#3=[#1+[#2-#1]*0.22701]
X-10.48209 Y-3.25641 Z[#3+-0.04000]
#1=[#506+[#507-#506]*0.27306]
#2=[#512+[#513-#512]*0.27306]
#3=[#1+[#2-#1]*0.23769]
X-10.47799 Y-3.25159 Z[#3+-0.04000]
#1=[#506+[#507-#506]*0.28736]
#2=[#512+[#513-#512]*0.28736]
#3=[#1+[#2-#1]*0.24623]
X-10.47472 Y-3.24618 Z[#3+-0.04000]
#1=[#506+[#507-#506]*0.41320]
#2=[#512+[#513-#512]*0.41320]
#3=[#1+[#2-#1]*0.30827]
X-10.45091 Y-3.19856 Z[#3+-0.04000]
#1=[#506+[#507-#506]*0.43582]
#2=[#512+[#513-#512]*0.43582]
#3=[#1+[#2-#1]*0.31636]
X-10.44780 Y-3.19000 Z[#3+-0.04000]
#1=[#506+[#507-#506]*0.45973]
#2=[#512+[#513-#512]*0.45973]
#3=[#1+[#2-#1]*0.31911]
X-10.44675 Y-3.18095 Z[#3+-0.04000]
G04 P0 ( dwell for no time -- G64 should not smooth over this point )
G00 Z0.08000 ( retract )

G00 X-10.52549 Y-3.17165 ( rapid move to begin. )
G01 F180.00000
( Mill infeed pass 1/1 )
#1=[#506+[#507-#506]*0.48429]
#2=[#512+[#513-#512]*0.48429]
#3=[#1+[#2-#1]*0.11392]
G01 Z[-0.04000+#100]
G04 P0 ( dwell for no time -- G64 should not smooth over this point )
G01 F360.00000
#1=[#506+[#507-#506]*0.62392]
#2=[#512+[#513-#512]*0.62392]
#3=[#1+[#2-#1]*0.11392]
X-10.52549 Y-3.11881 Z[#3+-0.04000]
#1=[#506+[#507-#506]*0.71268]
#2=[#512+[#513-#512]*0.71268]
#3=[#1+[#2-#1]*0.07015]
X-10.54229 Y-3.08522 Z[#3+-0.04000]
#1=[#506+[#507-#506]*0.74628]
#2=[#512+[#513-#512]*0.74628]
#3=[#1+[#2-#1]*0.03701]
X-10.55500 Y-3.07251 Z[#3+-0.04000]
#1=[#500+[#501-#500]*0.75879]
#2=[#506+[#507-#506]*0.75879]
#3=[#1+[#2-#1]*1.00000]
X-10.56921 Y-3.06778 Z[#3+-0.04000]
#1=[#500+[#501-#500]*0.79609]
#2=[#506+[#507-#506]*0.79609]
#3=[#1+[#2-#1]*0.88963]
X-10.61156 Y-3.05366 Z[#3+-0.04000]
#1=[#500+[#501-#500]*0.79609]
#2=[#506+[#507-#506]*0.79609]
#3=[#1+[#2-#1]*0.57455]
X-10.73247 Y-3.05366 Z[#3+-0.04000]
#1=[#500+[#501-#500]*0.31209]
#2=[#506+[#507-#506]*0.31209]
#3=[#1+[#2-#1]*0.57455]
X-10.73247 Y-3.23682 Z[#3+-0.04000]
#1=[#500+[#501-#500]*0.31209]
#2=[#506+[#507-#506]*0.31209]
#3=[#1+[#2-#1]*0.94411]
X-10.59066 Y-3.23682 Z[#3+-0.04000]
#1=[#500+[#501-#500]*0.34043]
#2=[#506+[#507-#506]*0.34043]
#3=[#1+[#2-#1]*1.00000]
X-10.56921 Y-3.22609 Z[#3+-0.04000]
#1=[#506+[#507-#506]*0.35647]
#2=[#512+[#513-#512]*0.35647]
#3=[#1+[#2-#1]*0.03164]
X-10.55706 Y-3.22002 Z[#3+-0.04000]
#1=[#506+[#507-#506]*0.39552]
#2=[#512+[#513-#512]*0.39552]
#3=[#1+[#2-#1]*0.07015]
X-10.54229 Y-3.20525 Z[#3+-0.04000]
#1=[#506+[#507-#506]*0.48429]
#2=[#512+[#513-#512]*0.48429]
#3=[#1+[#2-#1]*0.11392]
X-10.52549 Y-3.17165 Z[#3+-0.04000]
G04 P0 ( dwell for no time -- G64 should not smooth over this point )
G00 Z0.08000 ( retract )

G00 X-10.54930 Y-2.90976 ( rapid move to begin. )
G01 F180.00000
( Mill infeed pass 1/1 )
#1=[#507+[#508-#507]*0.17637]
#2=[#513+[#514-#513]*0.17637]
#3=[#1+[#2-#1]*0.05187]
G01 Z[-0.04000+#100]
G04 P0 ( dwell for no time -- G64 should not smooth over this point )
G01 F360.00000
#1=[#507+[#508-#507]*0.25309]
#2=[#513+[#514-#513]*0.25309]
#3=[#1+[#2-#1]*0.05187]
X-10.54930 Y-2.88072 Z[#3+-0.04000]
#1=[#507+[#508-#507]*0.34186]
#2=[#513+[#514-#513]*0.34186]
#3=[#1+[#2-#1]*0.00810]
X-10.56610 Y-2.84713 Z[#3+-0.04000]
#1=[#501+[#502-#501]*0.35007]
#2=[#507+[#508-#507]*0.35007]
#3=[#1+[#2-#1]*1.00000]
X-10.56921 Y-2.84402 Z[#3+-0.04000]
#1=[#501+[#502-#501]*0.38090]
#2=[#507+[#508-#507]*0.38090]
#3=[#1+[#2-#1]*0.96960]
X-10.58087 Y-2.83236 Z[#3+-0.04000]
#1=[#501+[#502-#501]*0.42528]
#2=[#507+[#508-#507]*0.42528]
#3=[#1+[#2-#1]*0.88206]
X-10.61447 Y-2.81556 Z[#3+-0.04000]
#1=[#501+[#502-#501]*0.42528]
#2=[#507+[#508-#507]*0.42528]
#3=[#1+[#2-#1]*0.57455]
X-10.73247 Y-2.81556 Z[#3+-0.04000]
#1=[#501+[#502-#501]*0.00417]
#2=[#507+[#508-#507]*0.00417]
#3=[#1+[#2-#1]*0.57455]
X-10.73247 Y-2.97492 Z[#3+-0.04000]
#1=[#501+[#502-#501]*0.00417]
#2=[#507+[#508-#507]*0.00417]
#3=[#1+[#2-#1]*0.88206]
X-10.61447 Y-2.97492 Z[#3+-0.04000]
#1=[#501+[#502-#501]*0.04856]
#2=[#507+[#508-#507]*0.04856]
#3=[#1+[#2-#1]*0.96960]
X-10.58087 Y-2.95812 Z[#3+-0.04000]
#1=[#501+[#502-#501]*0.07938]
#2=[#507+[#508-#507]*0.07938]
#3=[#1+[#2-#1]*1.00000]
X-10.56921 Y-2.94646 Z[#3+-0.04000]
#1=[#507+[#508-#507]*0.08760]
#2=[#513+[#514-#513]*0.08760]
#3=[#1+[#2-#1]*0.00810]
X-10.56610 Y-2.94335 Z[#3+-0.04000]
#1=[#507+[#508-#507]*0.17637]
#2=[#513+[#514-#513]*0.17637]
#3=[#1+[#2-#1]*0.05187]
X-10.54930 Y-2.90976 Z[#3+-0.04000]
G04 P0 ( dwell for no time -- G64 should not smooth over this point )
G00 Z0.08000 ( retract )

G00 X-10.84311 Y-3.35000 ( rapid move to begin. )
G01 F180.00000
( Mill infeed pass 1/1 )
#1=[#500+[#501-#500]*0.01300]
#2=[#506+[#507-#506]*0.01300]
#3=[#1+[#2-#1]*0.28624]
G01 Z[-0.04000+#100]
G04 P0 ( dwell for no time -- G64 should not smooth over this point )
G01 F360.00000
#1=[#500+[#501-#500]*0.00803]
#2=[#506+[#507-#506]*0.00803]
#3=[#1+[#2-#1]*0.28526]
X-10.84348 Y-3.35188 Z[#3+-0.04000]
#1=[#500+[#501-#500]*0.00381]
#2=[#506+[#507-#506]*0.00381]
#3=[#1+[#2-#1]*0.28248]
X-10.84455 Y-3.35348 Z[#3+-0.04000]
#1=[#500+[#501-#500]*0.00099]
#2=[#506+[#507-#506]*0.00099]
#3=[#1+[#2-#1]*0.27832]
X-10.84615 Y-3.35455 Z[#3+-0.04000]
#1=[#500+[#501-#500]*0.00000]
#2=[#506+[#507-#506]*0.00000]
#3=[#1+[#2-#1]*0.27341]
X-10.84803 Y-3.35492 Z[#3+-0.04000]
#1=[#500+[#501-#500]*0.00099]
#2=[#506+[#507-#506]*0.00099]
#3=[#1+[#2-#1]*0.26851]
X-10.84991 Y-3.35455 Z[#3+-0.04000]
#1=[#500+[#501-#500]*0.00381]
#2=[#506+[#507-#506]*0.00381]
#3=[#1+[#2-#1]*0.26435]
X-10.85151 Y-3.35348 Z[#3+-0.04000]
#1=[#500+[#501-#500]*0.12674]
#2=[#506+[#507-#506]*0.12674]
#3=[#1+[#2-#1]*0.14312]
X-10.89803 Y-3.30696 Z[#3+-0.04000]
#1=[#500+[#501-#500]*0.00381]
#2=[#506+[#507-#506]*0.00381]
#3=[#1+[#2-#1]*0.02189]
X-10.94455 Y-3.35348 Z[#3+-0.04000]
#1=[#500+[#501-#500]*0.00099]
#2=[#506+[#507-#506]*0.00099]
#3=[#1+[#2-#1]*0.01773]
X-10.94615 Y-3.35455 Z[#3+-0.04000]
#1=[#500+[#501-#500]*0.00000]
#2=[#506+[#507-#506]*0.00000]
#3=[#1+[#2-#1]*0.01282]
X-10.94803 Y-3.35492 Z[#3+-0.04000]
#1=[#500+[#501-#500]*0.00099]
#2=[#506+[#507-#506]*0.00099]
#3=[#1+[#2-#1]*0.00792]
X-10.94991 Y-3.35455 Z[#3+-0.04000]
#1=[#500+[#501-#500]*0.00381]
#2=[#506+[#507-#506]*0.00381]
#3=[#1+[#2-#1]*0.00376]
X-10.95151 Y-3.35348 Z[#3+-0.04000]
#1=[#500+[#501-#500]*0.00803]
#2=[#506+[#507-#506]*0.00803]
#3=[#1+[#2-#1]*0.00098]
X-10.95258 Y-3.35188 Z[#3+-0.04000]
#1=[#500+[#501-#500]*0.01300]
#2=[#506+[#507-#506]*0.01300]
#3=[#1+[#2-#1]*0.00000]
X-10.95295 Y-3.35000 Z[#3+-0.04000]
#1=[#500+[#501-#500]*0.01798]
#2=[#506+[#507-#506]*0.01798]
#3=[#1+[#2-#1]*0.00098]
X-10.95258 Y-3.34812 Z[#3+-0.04000]
#1=[#500+[#501-#500]*0.02220]
#2=[#506+[#507-#506]*0.02220]
#3=[#1+[#2-#1]*0.00376]
X-10.95151 Y-3.34652 Z[#3+-0.04000]
#1=[#500+[#501-#500]*0.14513]
#2=[#506+[#507-#506]*0.14513]
#3=[#1+[#2-#1]*0.12498]
X-10.90499 Y-3.30000 Z[#3+-0.04000]
#1=[#500+[#501-#500]*0.26806]
#2=[#506+[#507-#506]*0.26806]
#3=[#1+[#2-#1]*0.00376]
X-10.95151 Y-3.25348 Z[#3+-0.04000]
#1=[#500+[#501-#500]*0.27228]
#2=[#506+[#507-#506]*0.27228]
#3=[#1+[#2-#1]*0.00098]
X-10.95258 Y-3.25188 Z[#3+-0.04000]
#1=[#500+[#501-#500]*0.27726]
#2=[#506+[#507-#506]*0.27726]
#3=[#1+[#2-#1]*0.00000]
X-10.95295 Y-3.25000 Z[#3+-0.04000]
#1=[#500+[#501-#500]*0.28224]
#2=[#506+[#507-#506]*0.28224]
#3=[#1+[#2-#1]*0.00098]
X-10.95258 Y-3.24812 Z[#3+-0.04000]
#1=[#500+[#501-#500]*0.28645]
#2=[#506+[#507-#506]*0.28645]
#3=[#1+[#2-#1]*0.00376]
X-10.95151 Y-3.24652 Z[#3+-0.04000]
#1=[#500+[#501-#500]*0.28927]
#2=[#506+[#507-#506]*0.28927]
#3=[#1+[#2-#1]*0.00792]
X-10.94991 Y-3.24545 Z[#3+-0.04000]
#1=[#500+[#501-#500]*0.29026]
#2=[#506+[#507-#506]*0.29026]
#3=[#1+[#2-#1]*0.01282]
X-10.94803 Y-3.24508 Z[#3+-0.04000]
#1=[#500+[#501-#500]*0.28927]
#2=[#506+[#507-#506]*0.28927]
#3=[#1+[#2-#1]*0.01773]
X-10.94615 Y-3.24545 Z[#3+-0.04000]
#1=[#500+[#501-#500]*0.28645]
#2=[#506+[#507-#506]*0.28645]
#3=[#1+[#2-#1]*0.02189]
X-10.94455 Y-3.24652 Z[#3+-0.04000]
#1=[#500+[#501-#500]*0.16352]
#2=[#506+[#507-#506]*0.16352]
#3=[#1+[#2-#1]*0.14312]
X-10.89803 Y-3.29304 Z[#3+-0.04000]
#1=[#500+[#501-#500]*0.28645]
#2=[#506+[#507-#506]*0.28645]
#3=[#1+[#2-#1]*0.26435]
X-10.85151 Y-3.24652 Z[#3+-0.04000]
#1=[#500+[#501-#500]*0.28927]
#2=[#506+[#507-#506]*0.28927]
#3=[#1+[#2-#1]*0.26851]
X-10.84991 Y-3.24545 Z[#3+-0.04000]
#1=[#500+[#501-#500]*0.29026]
#2=[#506+[#507-#506]*0.29026]
#3=[#1+[#2-#1]*0.27341]
X-10.84803 Y-3.24508 Z[#3+-0.04000]
#1=[#500+[#501-#500]*0.28927]
#2=[#506+[#507-#506]*0.28927]
#3=[#1+[#2-#1]*0.27832]
X-10.84615 Y-3.24545 Z[#3+-0.04000]
#1=[#500+[#501-#500]*0.28645]
#2=[#506+[#507-#506]*0.28645]
#3=[#1+[#2-#1]*0.28248]
X-10.84455 Y-3.24652 Z[#3+-0.04000]
#1=[#500+[#501-#500]*0.28224]
#2=[#506+[#507-#506]*0.28224]
#3=[#1+[#2-#1]*0.28526]
X-10.84348 Y-3.24812 Z[#3+-0.04000]
#1=[#500+[#501-#500]*0.27726]
#2=[#506+[#507-#506]*0.27726]
#3=[#1+[#2-#1]*0.28624]
X-10.84311 Y-3.25000 Z[#3+-0.04000]
#1=[#500+[#501-#500]*0.27228]
#2=[#506+[#507-#506]*0.27228]
#3=[#1+[#2-#1]*0.28526]
X-10.84348 Y-3.25188 Z[#3+-0.04000]
#1=[#500+[#501-#500]*0.26806]
#2=[#506+[#507-#506]*0.26806]
#3=[#1+[#2-#1]*0.28248]
X-10.84455 Y-3.25348 Z[#3+-0.04000]
#1=[#500+[#501-#500]*0.14513]
#2=[#506+[#507-#506]*0.14513]
#3=[#1+[#2-#1]*0.16125]
X-10.89107 Y-3.30000 Z[#3+-0.04000]
#1=[#500+[#501-#500]*0.02220]
#2=[#506+[#507-#506]*0.02220]
#3=[#1+[#2-#1]*0.28248]
X-10.84455 Y-3.34652 Z[#3+-0.04000]
#1=[#500+[#501-#500]*0.01798]
#2=[#506+[#507-#506]*0.01798]
#3=[#1+[#2-#1]*0.28526]
X-10.84348 Y-3.34812 Z[#3+-0.04000]
#1=[#500+[#501-#500]*0.01300]
#2=[#506+[#507-#506]*0.01300]
#3=[#1+[#2-#1]*0.28624]
X-10.84311 Y-3.35000 Z[#3+-0.04000]
( Piece #2, position [1;0] )

G04 P0 ( dwell for no time -- G64 should not smooth over this point )
G00 Z0.08000 ( retract )

G00 X-6.98702 Y-2.94286 ( rapid move to begin. )
G01 F180.00000
( Mill infeed pass 1/1 )
#1=[#561+[#562-#561]*0.08889]
#2=[#567+[#568-#567]*0.08889]
#3=[#1+[#2-#1]*0.33476]
G01 Z[-0.04000+#100]
G04 P0 ( dwell for no time -- G64 should not smooth over this point )
G01 F360.00000
#1=[#561+[#562-#561]*0.06859]
#2=[#567+[#568-#567]*0.06859]
#3=[#1+[#2-#1]*0.33279]
X-6.98778 Y-2.95054 Z[#3+-0.04000]
#1=[#561+[#562-#561]*0.04907]
#2=[#567+[#568-#567]*0.04907]
#3=[#1+[#2-#1]*0.32695]
X-6.99002 Y-2.95793 Z[#3+-0.04000]
#1=[#561+[#562-#561]*0.03109]
#2=[#567+[#568-#567]*0.03109]
#3=[#1+[#2-#1]*0.31747]
X-6.99366 Y-2.96473 Z[#3+-0.04000]
#1=[#561+[#562-#561]*0.01532]
#2=[#567+[#568-#567]*0.01532]
#3=[#1+[#2-#1]*0.30471]
X-6.99856 Y-2.97070 Z[#3+-0.04000]
#1=[#561+[#562-#561]*0.00000]
#2=[#567+[#568-#567]*0.00000]
#3=[#1+[#2-#1]*0.28960]
X-7.00436 Y-2.97650 Z[#3+-0.04000]
#1=[#560+[#561-#560]*0.70635]
#2=[#566+[#567-#566]*0.70635]
#3=[#1+[#2-#1]*0.00000]
X-7.11549 Y-3.08762 Z[#3+-0.04000]
#1=[#554+[#555-#554]*0.70164]
#2=[#560+[#561-#560]*0.70164]
#3=[#1+[#2-#1]*0.99535]
X-7.11727 Y-3.08941 Z[#3+-0.04000]
#1=[#560+[#561-#560]*0.69536]
#2=[#566+[#567-#566]*0.69536]
#3=[#1+[#2-#1]*0.00000]
X-7.11549 Y-3.09178 Z[#3+-0.04000]
#1=[#560+[#561-#560]*0.27047]
#2=[#566+[#567-#566]*0.27047]
#3=[#1+[#2-#1]*0.31424]
X-6.99490 Y-3.25257 Z[#3+-0.04000]
#1=[#560+[#561-#560]*0.25304]
#2=[#566+[#567-#566]*0.25304]
#3=[#1+[#2-#1]*0.32467]
X-6.99090 Y-3.25917 Z[#3+-0.04000]
#1=[#560+[#561-#560]*0.23387]
#2=[#566+[#567-#566]*0.23387]
#3=[#1+[#2-#1]*0.33155]
X-6.98826 Y-3.26642 Z[#3+-0.04000]
#1=[#560+[#561-#560]*0.21371]
#2=[#566+[#567-#566]*0.21371]
#3=[#1+[#2-#1]*0.33461]
X-6.98708 Y-3.27405 Z[#3+-0.04000]
#1=[#560+[#561-#560]*0.19334]
#2=[#566+[#567-#566]*0.19334]
#3=[#1+[#2-#1]*0.33373]
X-6.98742 Y-3.28176 Z[#3+-0.04000]
#1=[#560+[#561-#560]*0.17353]
#2=[#566+[#567-#566]*0.17353]
#3=[#1+[#2-#1]*0.32895]
X-6.98926 Y-3.28925 Z[#3+-0.04000]
#1=[#560+[#561-#560]*0.15505]
#2=[#566+[#567-#566]*0.15505]
#3=[#1+[#2-#1]*0.32044]
X-6.99252 Y-3.29625 Z[#3+-0.04000]
#1=[#560+[#561-#560]*0.13860]
#2=[#566+[#567-#566]*0.13860]
#3=[#1+[#2-#1]*0.30855]
X-6.99708 Y-3.30247 Z[#3+-0.04000]
#1=[#560+[#561-#560]*0.12482]
#2=[#566+[#567-#566]*0.12482]
#3=[#1+[#2-#1]*0.29372]
X-7.00277 Y-3.30769 Z[#3+-0.04000]
#1=[#560+[#561-#560]*0.11424]
#2=[#566+[#567-#566]*0.11424]
#3=[#1+[#2-#1]*0.27653]
X-7.00937 Y-3.31169 Z[#3+-0.04000]
#1=[#560+[#561-#560]*0.10727]
#2=[#566+[#567-#566]*0.10727]
#3=[#1+[#2-#1]*0.25763]
X-7.01662 Y-3.31433 Z[#3+-0.04000]
#1=[#560+[#561-#560]*0.10417]
#2=[#566+[#567-#566]*0.10417]
#3=[#1+[#2-#1]*0.23775]
X-7.02425 Y-3.31550 Z[#3+-0.04000]
#1=[#560+[#561-#560]*0.10506]
#2=[#566+[#567-#566]*0.10506]
#3=[#1+[#2-#1]*0.21766]
X-7.03196 Y-3.31516 Z[#3+-0.04000]
#1=[#560+[#561-#560]*0.10991]
#2=[#566+[#567-#566]*0.10991]
#3=[#1+[#2-#1]*0.19812]
X-7.03946 Y-3.31333 Z[#3+-0.04000]
#1=[#560+[#561-#560]*0.11853]
#2=[#566+[#567-#566]*0.11853]
#3=[#1+[#2-#1]*0.17989]
X-7.04645 Y-3.31007 Z[#3+-0.04000]
#1=[#560+[#561-#560]*0.13059]
#2=[#566+[#567-#566]*0.13059]
#3=[#1+[#2-#1]*0.16368]
X-7.05268 Y-3.30550 Z[#3+-0.04000]
#1=[#560+[#561-#560]*0.14563]
#2=[#566+[#567-#566]*0.14563]
#3=[#1+[#2-#1]*0.15009]
X-7.05789 Y-3.29981 Z[#3+-0.04000]
#1=[#560+[#561-#560]*0.34856]
#2=[#566+[#567-#566]*0.34856]
#3=[#1+[#2-#1]*0.00000]
X-7.11549 Y-3.22302 Z[#3+-0.04000]
#1=[#554+[#555-#554]*0.55302]
#2=[#560+[#561-#560]*0.55302]
#3=[#1+[#2-#1]*0.84879]
X-7.17351 Y-3.14565 Z[#3+-0.04000]
#1=[#554+[#555-#554]*0.54247]
#2=[#560+[#561-#560]*0.54247]
#3=[#1+[#2-#1]*0.83839]
X-7.17750 Y-3.14964 Z[#3+-0.04000]
#1=[#554+[#555-#554]*0.20805]
#2=[#560+[#561-#560]*0.20805]
#3=[#1+[#2-#1]*0.83839]
X-7.17750 Y-3.27619 Z[#3+-0.04000]
#1=[#554+[#555-#554]*0.18776]
#2=[#560+[#561-#560]*0.18776]
#3=[#1+[#2-#1]*0.83642]
X-7.17826 Y-3.28387 Z[#3+-0.04000]
#1=[#554+[#555-#554]*0.16824]
#2=[#560+[#561-#560]*0.16824]
#3=[#1+[#2-#1]*0.83058]
X-7.18050 Y-3.29126 Z[#3+-0.04000]
#1=[#554+[#555-#554]*0.15025]
#2=[#560+[#561-#560]*0.15025]
#3=[#1+[#2-#1]*0.82110]
X-7.18414 Y-3.29806 Z[#3+-0.04000]
#1=[#554+[#555-#554]*0.13449]
#2=[#560+[#561-#560]*0.13449]
#3=[#1+[#2-#1]*0.80834]
X-7.18904 Y-3.30403 Z[#3+-0.04000]
#1=[#554+[#555-#554]*0.12155]
#2=[#560+[#561-#560]*0.12155]
#3=[#1+[#2-#1]*0.79279]
X-7.19500 Y-3.30892 Z[#3+-0.04000]
#1=[#554+[#555-#554]*0.11193]
#2=[#560+[#561-#560]*0.11193]
#3=[#1+[#2-#1]*0.77506]
X-7.20181 Y-3.31256 Z[#3+-0.04000]
#1=[#554+[#555-#554]*0.10601]
#2=[#560+[#561-#560]*0.10601]
#3=[#1+[#2-#1]*0.75581]
X-7.20919 Y-3.31480 Z[#3+-0.04000]
#1=[#554+[#555-#554]*0.10401]
#2=[#560+[#561-#560]*0.10401]
#3=[#1+[#2-#1]*0.73579]
X-7.21688 Y-3.31556 Z[#3+-0.04000]
#1=[#554+[#555-#554]*0.10601]
#2=[#560+[#561-#560]*0.10601]
#3=[#1+[#2-#1]*0.71578]
X-7.22456 Y-3.31480 Z[#3+-0.04000]
#1=[#554+[#555-#554]*0.11193]
#2=[#560+[#561-#560]*0.11193]
#3=[#1+[#2-#1]*0.69653]
X-7.23194 Y-3.31256 Z[#3+-0.04000]
#1=[#554+[#555-#554]*0.12155]
#2=[#560+[#561-#560]*0.12155]
#3=[#1+[#2-#1]*0.67880]
X-7.23875 Y-3.30892 Z[#3+-0.04000]
#1=[#554+[#555-#554]*0.13449]
#2=[#560+[#561-#560]*0.13449]
#3=[#1+[#2-#1]*0.66325]
X-7.24471 Y-3.30403 Z[#3+-0.04000]
#1=[#554+[#555-#554]*0.15025]
#2=[#560+[#561-#560]*0.15025]
#3=[#1+[#2-#1]*0.65049]
X-7.24961 Y-3.29806 Z[#3+-0.04000]
#1=[#554+[#555-#554]*0.16824]
#2=[#560+[#561-#560]*0.16824]
#3=[#1+[#2-#1]*0.64101]
X-7.25325 Y-3.29126 Z[#3+-0.04000]
#1=[#554+[#555-#554]*0.18776]
#2=[#560+[#561-#560]*0.18776]
#3=[#1+[#2-#1]*0.63517]
X-7.25549 Y-3.28387 Z[#3+-0.04000]
#1=[#554+[#555-#554]*0.20805]
#2=[#560+[#561-#560]*0.20805]
#3=[#1+[#2-#1]*0.63320]
X-7.25625 Y-3.27619 Z[#3+-0.04000]
#1=[#555+[#556-#555]*0.00000]
#2=[#561+[#562-#561]*0.00000]
#3=[#1+[#2-#1]*0.63320]
X-7.25625 Y-2.97650 Z[#3+-0.04000]
#1=[#555+[#556-#555]*0.52932]
#2=[#561+[#562-#561]*0.52932]
#3=[#1+[#2-#1]*0.63320]
X-7.25625 Y-2.77619 Z[#3+-0.04000]
#1=[#555+[#556-#555]*0.54962]
#2=[#561+[#562-#561]*0.54962]
#3=[#1+[#2-#1]*0.63517]
X-7.25549 Y-2.76851 Z[#3+-0.04000]
#1=[#555+[#556-#555]*0.56914]
#2=[#561+[#562-#561]*0.56914]
#3=[#1+[#2-#1]*0.64101]
X-7.25325 Y-2.76112 Z[#3+-0.04000]
#1=[#555+[#556-#555]*0.58712]
#2=[#561+[#562-#561]*0.58712]
#3=[#1+[#2-#1]*0.65049]
X-7.24961 Y-2.75432 Z[#3+-0.04000]
#1=[#555+[#556-#555]*0.60289]
#2=[#561+[#562-#561]*0.60289]
#3=[#1+[#2-#1]*0.66325]
X-7.24471 Y-2.74835 Z[#3+-0.04000]
#1=[#555+[#556-#555]*0.61583]
#2=[#561+[#562-#561]*0.61583]
#3=[#1+[#2-#1]*0.67880]
X-7.23875 Y-2.74345 Z[#3+-0.04000]
#1=[#555+[#556-#555]*0.62544]
#2=[#561+[#562-#561]*0.62544]
#3=[#1+[#2-#1]*0.69653]
X-7.23194 Y-2.73982 Z[#3+-0.04000]
#1=[#555+[#556-#555]*0.63136]
#2=[#561+[#562-#561]*0.63136]
#3=[#1+[#2-#1]*0.71578]
X-7.22456 Y-2.73758 Z[#3+-0.04000]
#1=[#555+[#556-#555]*0.63336]
#2=[#561+[#562-#561]*0.63336]
#3=[#1+[#2-#1]*0.73579]
X-7.21688 Y-2.73682 Z[#3+-0.04000]
#1=[#555+[#556-#555]*0.63136]
#2=[#561+[#562-#561]*0.63136]
#3=[#1+[#2-#1]*0.75581]
X-7.20919 Y-2.73758 Z[#3+-0.04000]
#1=[#555+[#556-#555]*0.62544]
#2=[#561+[#562-#561]*0.62544]
#3=[#1+[#2-#1]*0.77506]
X-7.20181 Y-2.73982 Z[#3+-0.04000]
#1=[#555+[#556-#555]*0.61583]
#2=[#561+[#562-#561]*0.61583]
#3=[#1+[#2-#1]*0.79279]
X-7.19500 Y-2.74345 Z[#3+-0.04000]
#1=[#555+[#556-#555]*0.60289]
#2=[#561+[#562-#561]*0.60289]
#3=[#1+[#2-#1]*0.80834]
X-7.18904 Y-2.74835 Z[#3+-0.04000]
#1=[#555+[#556-#555]*0.58712]
#2=[#561+[#562-#561]*0.58712]
#3=[#1+[#2-#1]*0.82110]
X-7.18414 Y-2.75432 Z[#3+-0.04000]
#1=[#555+[#556-#555]*0.56914]
#2=[#561+[#562-#561]*0.56914]
#3=[#1+[#2-#1]*0.83058]
X-7.18050 Y-2.76112 Z[#3+-0.04000]
#1=[#555+[#556-#555]*0.54962]
#2=[#561+[#562-#561]*0.54962]
#3=[#1+[#2-#1]*0.83642]
X-7.17826 Y-2.76851 Z[#3+-0.04000]
#1=[#555+[#556-#555]*0.52932]
#2=[#561+[#562-#561]*0.52932]
#3=[#1+[#2-#1]*0.83839]
X-7.17750 Y-2.77619 Z[#3+-0.04000]
#1=[#555+[#556-#555]*0.00000]
#2=[#561+[#562-#561]*0.00000]
#3=[#1+[#2-#1]*0.83839]
X-7.17750 Y-2.97650 Z[#3+-0.04000]
#1=[#554+[#555-#554]*0.83673]
#2=[#560+[#561-#560]*0.83673]
#3=[#1+[#2-#1]*0.83839]
X-7.17750 Y-3.03828 Z[#3+-0.04000]
#1=[#555+[#556-#555]*0.00000]
#2=[#561+[#562-#561]*0.00000]
#3=[#1+[#2-#1]*0.99941]
X-7.11571 Y-2.97650 Z[#3+-0.04000]
#1=[#561+[#562-#561]*0.00060]
#2=[#567+[#568-#567]*0.00060]
#3=[#1+[#2-#1]*0.00000]
X-7.11549 Y-2.97627 Z[#3+-0.04000]
#1=[#561+[#562-#561]*0.16246]
#2=[#567+[#568-#567]*0.16246]
#3=[#1+[#2-#1]*0.15962]
X-7.05423 Y-2.91502 Z[#3+-0.04000]
#1=[#561+[#562-#561]*0.17539]
#2=[#567+[#568-#567]*0.17539]
#3=[#1+[#2-#1]*0.17517]
X-7.04827 Y-2.91012 Z[#3+-0.04000]
#1=[#561+[#562-#561]*0.18501]
#2=[#567+[#568-#567]*0.18501]
#3=[#1+[#2-#1]*0.19291]
X-7.04146 Y-2.90649 Z[#3+-0.04000]
#1=[#561+[#562-#561]*0.19093]
#2=[#567+[#568-#567]*0.19093]
#3=[#1+[#2-#1]*0.21215]
X-7.03407 Y-2.90425 Z[#3+-0.04000]
#1=[#561+[#562-#561]*0.19293]
#2=[#567+[#568-#567]*0.19293]
#3=[#1+[#2-#1]*0.23217]
X-7.02639 Y-2.90349 Z[#3+-0.04000]
#1=[#561+[#562-#561]*0.19093]
#2=[#567+[#568-#567]*0.19093]
#3=[#1+[#2-#1]*0.25218]
X-7.01871 Y-2.90425 Z[#3+-0.04000]
#1=[#561+[#562-#561]*0.18501]
#2=[#567+[#568-#567]*0.18501]
#3=[#1+[#2-#1]*0.27143]
X-7.01133 Y-2.90649 Z[#3+-0.04000]
#1=[#561+[#562-#561]*0.17539]
#2=[#567+[#568-#567]*0.17539]
#3=[#1+[#2-#1]*0.28917]
X-7.00452 Y-2.91012 Z[#3+-0.04000]
#1=[#561+[#562-#561]*0.16245]
#2=[#567+[#568-#567]*0.16245]
#3=[#1+[#2-#1]*0.30471]
X-6.99856 Y-2.91502 Z[#3+-0.04000]
#1=[#561+[#562-#561]*0.14669]
#2=[#567+[#568-#567]*0.14669]
#3=[#1+[#2-#1]*0.31747]
X-6.99366 Y-2.92099 Z[#3+-0.04000]
#1=[#561+[#562-#561]*0.12870]
#2=[#567+[#568-#567]*0.12870]
#3=[#1+[#2-#1]*0.32695]
X-6.99002 Y-2.92779 Z[#3+-0.04000]
#1=[#561+[#562-#561]*0.10918]
#2=[#567+[#568-#567]*0.10918]
#3=[#1+[#2-#1]*0.33279]
X-6.98778 Y-2.93518 Z[#3+-0.04000]
#1=[#561+[#562-#561]*0.08889]
#2=[#567+[#568-#567]*0.08889]
#3=[#1+[#2-#1]*0.33476]
X-6.98702 Y-2.94286 Z[#3+-0.04000]
G04 P0 ( dwell for no time -- G64 should not smooth over this point )
G00 Z0.08000 ( retract )

G00 X-7.39188 Y-3.24959 ( rapid move to begin. )
G01 F180.00000
( Mill infeed pass 1/1 )
#1=[#554+[#555-#554]*0.27834]
#2=[#560+[#561-#560]*0.27834]
#3=[#1+[#2-#1]*0.27974]
G01 Z[-0.04000+#100]
G04 P0 ( dwell for no time -- G64 should not smooth over this point )
G01 F360.00000
#1=[#554+[#555-#554]*0.25796]
#2=[#560+[#561-#560]*0.25796]
#3=[#1+[#2-#1]*0.27919]
X-7.39209 Y-3.25730 Z[#3+-0.04000]
#1=[#554+[#555-#554]*0.23807]
#2=[#560+[#561-#560]*0.23807]
#3=[#1+[#2-#1]*0.27473]
X-7.39381 Y-3.26483 Z[#3+-0.04000]
#1=[#554+[#555-#554]*0.21945]
#2=[#560+[#561-#560]*0.21945]
#3=[#1+[#2-#1]*0.26654]
X-7.39695 Y-3.27188 Z[#3+-0.04000]
#1=[#554+[#555-#554]*0.20280]
#2=[#560+[#561-#560]*0.20280]
#3=[#1+[#2-#1]*0.25491]
X-7.40141 Y-3.27818 Z[#3+-0.04000]
#1=[#554+[#555-#554]*0.18878]
#2=[#560+[#561-#560]*0.18878]
#3=[#1+[#2-#1]*0.24031]
X-7.40702 Y-3.28348 Z[#3+-0.04000]
#1=[#554+[#555-#554]*0.17792]
#2=[#560+[#561-#560]*0.17792]
#3=[#1+[#2-#1]*0.22329]
X-7.41355 Y-3.28759 Z[#3+-0.04000]
#1=[#554+[#555-#554]*0.11500]
#2=[#560+[#561-#560]*0.11500]
#3=[#1+[#2-#1]*0.09919]
X-7.46117 Y-3.31140 Z[#3+-0.04000]
#1=[#554+[#555-#554]*0.10680]
#2=[#560+[#561-#560]*0.10680]
#3=[#1+[#2-#1]*0.07689]
X-7.46973 Y-3.31451 Z[#3+-0.04000]
#1=[#554+[#555-#554]*0.10401]
#2=[#560+[#561-#560]*0.10401]
#3=[#1+[#2-#1]*0.05331]
X-7.47878 Y-3.31556 Z[#3+-0.04000]
#1=[#554+[#555-#554]*0.10401]
#2=[#560+[#561-#560]*0.10401]
#3=[#1+[#2-#1]*0.00000]
X-7.49923 Y-3.31556 Z[#3+-0.04000]
#1=[#548+[#549-#548]*0.10401]
#2=[#554+[#555-#554]*0.10401]
#3=[#1+[#2-#1]*0.80513]
X-7.57402 Y-3.31556 Z[#3+-0.04000]
#1=[#548+[#549-#548]*0.10680]
#2=[#554+[#555-#554]*0.10680]
#3=[#1+[#2-#1]*0.78156]
X-7.58306 Y-3.31451 Z[#3+-0.04000]
#1=[#548+[#549-#548]*0.11500]
#2=[#554+[#555-#554]*0.11500]
#3=[#1+[#2-#1]*0.75925]
X-7.59162 Y-3.31140 Z[#3+-0.04000]
#1=[#548+[#549-#548]*0.17792]
#2=[#554+[#555-#554]*0.17792]
#3=[#1+[#2-#1]*0.63516]
X-7.63924 Y-3.28759 Z[#3+-0.04000]
#1=[#548+[#549-#548]*0.18657]
#2=[#554+[#555-#554]*0.18657]
#3=[#1+[#2-#1]*0.62105]
X-7.64466 Y-3.28432 Z[#3+-0.04000]
#1=[#548+[#549-#548]*0.19741]
#2=[#554+[#555-#554]*0.19741]
#3=[#1+[#2-#1]*0.60849]
X-7.64947 Y-3.28022 Z[#3+-0.04000]
#1=[#548+[#549-#548]*0.26032]
#2=[#554+[#555-#554]*0.26032]
#3=[#1+[#2-#1]*0.54645]
X-7.67328 Y-3.25641 Z[#3+-0.04000]
#1=[#548+[#549-#548]*0.27306]
#2=[#554+[#555-#554]*0.27306]
#3=[#1+[#2-#1]*0.53576]
X-7.67738 Y-3.25159 Z[#3+-0.04000]
#1=[#548+[#549-#548]*0.28736]
#2=[#554+[#555-#554]*0.28736]
#3=[#1+[#2-#1]*0.52723]
X-7.68066 Y-3.24618 Z[#3+-0.04000]
#1=[#548+[#549-#548]*0.41320]
#2=[#554+[#555-#554]*0.41320]
#3=[#1+[#2-#1]*0.46518]
X-7.70447 Y-3.19856 Z[#3+-0.04000]
#1=[#548+[#549-#548]*0.43582]
#2=[#554+[#555-#554]*0.43582]
#3=[#1+[#2-#1]*0.45710]
X-7.70757 Y-3.19000 Z[#3+-0.04000]
#1=[#548+[#549-#548]*0.45973]
#2=[#554+[#555-#554]*0.45973]
#3=[#1+[#2-#1]*0.45435]
X-7.70863 Y-3.18095 Z[#3+-0.04000]
#1=[#548+[#549-#548]*0.83721]
#2=[#554+[#555-#554]*0.83721]
#3=[#1+[#2-#1]*0.45435]
X-7.70863 Y-3.03810 Z[#3+-0.04000]
#1=[#548+[#549-#548]*0.86112]
#2=[#554+[#555-#554]*0.86112]
#3=[#1+[#2-#1]*0.45710]
X-7.70757 Y-3.02905 Z[#3+-0.04000]
#1=[#548+[#549-#548]*0.88374]
#2=[#554+[#555-#554]*0.88374]
#3=[#1+[#2-#1]*0.46518]
X-7.70447 Y-3.02049 Z[#3+-0.04000]
#1=[#549+[#550-#549]*0.00000]
#2=[#555+[#556-#555]*0.00000]
#3=[#1+[#2-#1]*0.52251]
X-7.68247 Y-2.97650 Z[#3+-0.04000]
#1=[#549+[#550-#549]*0.00958]
#2=[#555+[#556-#555]*0.00958]
#3=[#1+[#2-#1]*0.52723]
X-7.68066 Y-2.97287 Z[#3+-0.04000]
#1=[#549+[#550-#549]*0.02388]
#2=[#555+[#556-#555]*0.02388]
#3=[#1+[#2-#1]*0.53576]
X-7.67738 Y-2.96746 Z[#3+-0.04000]
#1=[#549+[#550-#549]*0.03662]
#2=[#555+[#556-#555]*0.03662]
#3=[#1+[#2-#1]*0.54645]
X-7.67328 Y-2.96264 Z[#3+-0.04000]
#1=[#549+[#550-#549]*0.09954]
#2=[#555+[#556-#555]*0.09954]
#3=[#1+[#2-#1]*0.60849]
X-7.64947 Y-2.93883 Z[#3+-0.04000]
#1=[#549+[#550-#549]*0.11037]
#2=[#555+[#556-#555]*0.11037]
#3=[#1+[#2-#1]*0.62105]
X-7.64466 Y-2.93473 Z[#3+-0.04000]
#1=[#549+[#550-#549]*0.11902]
#2=[#555+[#556-#555]*0.11902]
#3=[#1+[#2-#1]*0.63516]
X-7.63924 Y-2.93146 Z[#3+-0.04000]
#1=[#549+[#550-#549]*0.18194]
#2=[#555+[#556-#555]*0.18194]
#3=[#1+[#2-#1]*0.75925]
X-7.59162 Y-2.90765 Z[#3+-0.04000]
#1=[#549+[#550-#549]*0.19014]
#2=[#555+[#556-#555]*0.19014]
#3=[#1+[#2-#1]*0.78156]
X-7.58306 Y-2.90454 Z[#3+-0.04000]
#1=[#549+[#550-#549]*0.19293]
#2=[#555+[#556-#555]*0.19293]
#3=[#1+[#2-#1]*0.80513]
X-7.57402 Y-2.90349 Z[#3+-0.04000]
#1=[#555+[#556-#555]*0.19293]
#2=[#561+[#562-#561]*0.19293]
#3=[#1+[#2-#1]*0.00000]
X-7.49923 Y-2.90349 Z[#3+-0.04000]
#1=[#555+[#556-#555]*0.19293]
#2=[#561+[#562-#561]*0.19293]
#3=[#1+[#2-#1]*0.05331]
X-7.47878 Y-2.90349 Z[#3+-0.04000]
#1=[#555+[#556-#555]*0.19014]
#2=[#561+[#562-#561]*0.19014]
#3=[#1+[#2-#1]*0.07689]
X-7.46973 Y-2.90454 Z[#3+-0.04000]
#1=[#555+[#556-#555]*0.18194]
#2=[#561+[#562-#561]*0.18194]
#3=[#1+[#2-#1]*0.09919]
X-7.46117 Y-2.90765 Z[#3+-0.04000]
#1=[#555+[#556-#555]*0.11902]
#2=[#561+[#562-#561]*0.11902]
#3=[#1+[#2-#1]*0.22329]
X-7.41355 Y-2.93146 Z[#3+-0.04000]
#1=[#555+[#556-#555]*0.10816]
#2=[#561+[#562-#561]*0.10816]
#3=[#1+[#2-#1]*0.24031]
X-7.40702 Y-2.93557 Z[#3+-0.04000]
#1=[#555+[#556-#555]*0.09414]
#2=[#561+[#562-#561]*0.09414]
#3=[#1+[#2-#1]*0.25491]
X-7.40141 Y-2.94087 Z[#3+-0.04000]
#1=[#555+[#556-#555]*0.07749]
#2=[#561+[#562-#561]*0.07749]
#3=[#1+[#2-#1]*0.26654]
X-7.39695 Y-2.94717 Z[#3+-0.04000]
#1=[#555+[#556-#555]*0.05887]
#2=[#561+[#562-#561]*0.05887]
#3=[#1+[#2-#1]*0.27473]
X-7.39381 Y-2.95422 Z[#3+-0.04000]
#1=[#555+[#556-#555]*0.03898]
#2=[#561+[#562-#561]*0.03898]
#3=[#1+[#2-#1]*0.27919]
X-7.39209 Y-2.96175 Z[#3+-0.04000]
#1=[#555+[#556-#555]*0.01860]
#2=[#561+[#562-#561]*0.01860]
#3=[#1+[#2-#1]*0.27974]
X-7.39188 Y-2.96946 Z[#3+-0.04000]
#1=[#555+[#556-#555]*0.00000]
#2=[#561+[#562-#561]*0.00000]
#3=[#1+[#2-#1]*0.27661]
X-7.39309 Y-2.97650 Z[#3+-0.04000]
#1=[#554+[#555-#554]*0.99849]
#2=[#560+[#561-#560]*0.99849]
#3=[#1+[#2-#1]*0.27636]
X-7.39318 Y-2.97707 Z[#3+-0.04000]
#1=[#554+[#555-#554]*0.97944]
#2=[#560+[#561-#560]*0.97944]
#3=[#1+[#2-#1]*0.26917]
X-7.39594 Y-2.98428 Z[#3+-0.04000]
#1=[#554+[#555-#554]*0.96218]
#2=[#560+[#561-#560]*0.96218]
#3=[#1+[#2-#1]*0.25846]
X-7.40005 Y-2.99081 Z[#3+-0.04000]
#1=[#554+[#555-#554]*0.94737]
#2=[#560+[#561-#560]*0.94737]
#3=[#1+[#2-#1]*0.24463]
X-7.40536 Y-2.99641 Z[#3+-0.04000]
#1=[#554+[#555-#554]*0.93559]
#2=[#560+[#561-#560]*0.93559]
#3=[#1+[#2-#1]*0.22821]
X-7.41166 Y-3.00087 Z[#3+-0.04000]
#1=[#554+[#555-#554]*0.92727]
#2=[#560+[#561-#560]*0.92727]
#3=[#1+[#2-#1]*0.20985]
X-7.41871 Y-3.00402 Z[#3+-0.04000]
#1=[#554+[#555-#554]*0.92275]
#2=[#560+[#561-#560]*0.92275]
#3=[#1+[#2-#1]*0.19024]
X-7.42623 Y-3.00573 Z[#3+-0.04000]
#1=[#554+[#555-#554]*0.92219]
#2=[#560+[#561-#560]*0.92219]
#3=[#1+[#2-#1]*0.17013]
X-7.43395 Y-3.00594 Z[#3+-0.04000]
#1=[#554+[#555-#554]*0.92563]
#2=[#560+[#561-#560]*0.92563]
#3=[#1+[#2-#1]*0.15031]
X-7.44155 Y-3.00464 Z[#3+-0.04000]
#1=[#554+[#555-#554]*0.93292]
#2=[#560+[#561-#560]*0.93292]
#3=[#1+[#2-#1]*0.13153]
X-7.44876 Y-3.00188 Z[#3+-0.04000]
#1=[#554+[#555-#554]*0.98485]
#2=[#560+[#561-#560]*0.98485]
#3=[#1+[#2-#1]*0.02909]
X-7.48807 Y-2.98223 Z[#3+-0.04000]
#1=[#554+[#555-#554]*0.98485]
#2=[#560+[#561-#560]*0.98485]
#3=[#1+[#2-#1]*0.00000]
X-7.49923 Y-2.98223 Z[#3+-0.04000]
#1=[#548+[#549-#548]*0.98485]
#2=[#554+[#555-#554]*0.98485]
#3=[#1+[#2-#1]*0.82935]
X-7.56472 Y-2.98223 Z[#3+-0.04000]
#1=[#548+[#549-#548]*0.94047]
#2=[#554+[#555-#554]*0.94047]
#3=[#1+[#2-#1]*0.74181]
X-7.59831 Y-2.99903 Z[#3+-0.04000]
#1=[#548+[#549-#548]*0.90142]
#2=[#554+[#555-#554]*0.90142]
#3=[#1+[#2-#1]*0.70331]
X-7.61309 Y-3.01380 Z[#3+-0.04000]
#1=[#548+[#549-#548]*0.81265]
#2=[#554+[#555-#554]*0.81265]
#3=[#1+[#2-#1]*0.65954]
X-7.62988 Y-3.04739 Z[#3+-0.04000]
#1=[#548+[#549-#548]*0.48429]
#2=[#554+[#555-#554]*0.48429]
#3=[#1+[#2-#1]*0.65954]
X-7.62988 Y-3.17165 Z[#3+-0.04000]
#1=[#548+[#549-#548]*0.39552]
#2=[#554+[#555-#554]*0.39552]
#3=[#1+[#2-#1]*0.70331]
X-7.61309 Y-3.20525 Z[#3+-0.04000]
#1=[#548+[#549-#548]*0.35647]
#2=[#554+[#555-#554]*0.35647]
#3=[#1+[#2-#1]*0.74181]
X-7.59831 Y-3.22002 Z[#3+-0.04000]
#1=[#548+[#549-#548]*0.31209]
#2=[#554+[#555-#554]*0.31209]
#3=[#1+[#2-#1]*0.82935]
X-7.56472 Y-3.23682 Z[#3+-0.04000]
#1=[#554+[#555-#554]*0.31209]
#2=[#560+[#561-#560]*0.31209]
#3=[#1+[#2-#1]*0.00000]
X-7.49923 Y-3.23682 Z[#3+-0.04000]
#1=[#554+[#555-#554]*0.31209]
#2=[#560+[#561-#560]*0.31209]
#3=[#1+[#2-#1]*0.02909]
X-7.48807 Y-3.23682 Z[#3+-0.04000]
#1=[#554+[#555-#554]*0.36402]
#2=[#560+[#561-#560]*0.36402]
#3=[#1+[#2-#1]*0.13153]
X-7.44876 Y-3.21717 Z[#3+-0.04000]
#1=[#554+[#555-#554]*0.37131]
#2=[#560+[#561-#560]*0.37131]
#3=[#1+[#2-#1]*0.15031]
X-7.44155 Y-3.21441 Z[#3+-0.04000]
#1=[#554+[#555-#554]*0.37475]
#2=[#560+[#561-#560]*0.37475]
#3=[#1+[#2-#1]*0.17013]
X-7.43395 Y-3.21311 Z[#3+-0.04000]
#1=[#554+[#555-#554]*0.37419]
#2=[#560+[#561-#560]*0.37419]
#3=[#1+[#2-#1]*0.19024]
X-7.42623 Y-3.21332 Z[#3+-0.04000]
#1=[#554+[#555-#554]*0.36967]
#2=[#560+[#561-#560]*0.36967]
#3=[#1+[#2-#1]*0.20985]
X-7.41871 Y-3.21503 Z[#3+-0.04000]
#1=[#554+[#555-#554]*0.36135]
#2=[#560+[#561-#560]*0.36135]
#3=[#1+[#2-#1]*0.22821]
X-7.41166 Y-3.21818 Z[#3+-0.04000]
#1=[#554+[#555-#554]*0.34957]
#2=[#560+[#561-#560]*0.34957]
#3=[#1+[#2-#1]*0.24463]
X-7.40536 Y-3.22264 Z[#3+-0.04000]
#1=[#554+[#555-#554]*0.33476]
#2=[#560+[#561-#560]*0.33476]
#3=[#1+[#2-#1]*0.25846]
X-7.40005 Y-3.22824 Z[#3+-0.04000]
#1=[#554+[#555-#554]*0.31750]
#2=[#560+[#561-#560]*0.31750]
#3=[#1+[#2-#1]*0.26917]
X-7.39594 Y-3.23477 Z[#3+-0.04000]
#1=[#554+[#555-#554]*0.29845]
#2=[#560+[#561-#560]*0.29845]
#3=[#1+[#2-#1]*0.27636]
X-7.39318 Y-3.24198 Z[#3+-0.04000]
#1=[#554+[#555-#554]*0.27834]
#2=[#560+[#561-#560]*0.27834]
#3=[#1+[#2-#1]*0.27974]
X-7.39188 Y-3.24959 Z[#3+-0.04000]
G04 P0 ( dwell for no time -- G64 should not smooth over this point )
G00 Z0.08000 ( retract )

G00 X-7.84416 Y-3.27619 ( rapid move to begin. )
G01 F180.00000
( Mill infeed pass 1/1 )
#1=[#548+[#549-#548]*0.20805]
#2=[#554+[#555-#554]*0.20805]
#3=[#1+[#2-#1]*0.10115]
G01 Z[-0.04000+#100]
G04 P0 ( dwell for no time -- G64 should not smooth over this point )
G01 F360.00000
#1=[#548+[#549-#548]*0.90013]
#2=[#554+[#555-#554]*0.90013]
#3=[#1+[#2-#1]*0.10115]
X-7.84416 Y-3.01429 Z[#3+-0.04000]
#1=[#548+[#549-#548]*0.92404]
#2=[#554+[#555-#554]*0.92404]
#3=[#1+[#2-#1]*0.09840]
X-7.84522 Y-3.00524 Z[#3+-0.04000]
#1=[#548+[#549-#548]*0.94666]
#2=[#554+[#555-#554]*0.94666]
#3=[#1+[#2-#1]*0.09032]
X-7.84832 Y-2.99668 Z[#3+-0.04000]
#1=[#549+[#550-#549]*0.00000]
#2=[#555+[#556-#555]*0.00000]
#3=[#1+[#2-#1]*0.06402]
X-7.85841 Y-2.97650 Z[#3+-0.04000]
#1=[#549+[#550-#549]*0.07250]
#2=[#555+[#556-#555]*0.07250]
#3=[#1+[#2-#1]*0.02827]
X-7.87213 Y-2.94906 Z[#3+-0.04000]
#1=[#549+[#550-#549]*0.09124]
#2=[#555+[#556-#555]*0.09124]
#3=[#1+[#2-#1]*0.01640]
X-7.87669 Y-2.94197 Z[#3+-0.04000]
#1=[#549+[#550-#549]*0.10699]
#2=[#555+[#556-#555]*0.10699]
#3=[#1+[#2-#1]*0.00087]
X-7.88265 Y-2.93601 Z[#3+-0.04000]
#1=[#549+[#550-#549]*0.10755]
#2=[#555+[#556-#555]*0.10755]
#3=[#1+[#2-#1]*0.00000]
X-7.88298 Y-2.93580 Z[#3+-0.04000]
#1=[#543+[#544-#543]*0.11902]
#2=[#549+[#550-#549]*0.11902]
#3=[#1+[#2-#1]*0.98239]
X-7.88974 Y-2.93146 Z[#3+-0.04000]
#1=[#543+[#544-#543]*0.18194]
#2=[#549+[#550-#549]*0.18194]
#3=[#1+[#2-#1]*0.85830]
X-7.93736 Y-2.90765 Z[#3+-0.04000]
#1=[#543+[#544-#543]*0.19014]
#2=[#549+[#550-#549]*0.19014]
#3=[#1+[#2-#1]*0.83599]
X-7.94592 Y-2.90454 Z[#3+-0.04000]
#1=[#543+[#544-#543]*0.19293]
#2=[#549+[#550-#549]*0.19293]
#3=[#1+[#2-#1]*0.81242]
X-7.95497 Y-2.90349 Z[#3+-0.04000]
#1=[#543+[#544-#543]*0.19293]
#2=[#549+[#550-#549]*0.19293]
#3=[#1+[#2-#1]*0.56423]
X-8.05021 Y-2.90349 Z[#3+-0.04000]
#1=[#543+[#544-#543]*0.19014]
#2=[#549+[#550-#549]*0.19014]
#3=[#1+[#2-#1]*0.54066]
X-8.05925 Y-2.90454 Z[#3+-0.04000]
#1=[#543+[#544-#543]*0.18194]
#2=[#549+[#550-#549]*0.18194]
#3=[#1+[#2-#1]*0.51835]
X-8.06781 Y-2.90765 Z[#3+-0.04000]
#1=[#543+[#544-#543]*0.11902]
#2=[#549+[#550-#549]*0.11902]
#3=[#1+[#2-#1]*0.39426]
X-8.11543 Y-2.93146 Z[#3+-0.04000]
#1=[#543+[#544-#543]*0.10816]
#2=[#549+[#550-#549]*0.10816]
#3=[#1+[#2-#1]*0.37724]
X-8.12196 Y-2.93557 Z[#3+-0.04000]
#1=[#543+[#544-#543]*0.09414]
#2=[#549+[#550-#549]*0.09414]
#3=[#1+[#2-#1]*0.36263]
X-8.12757 Y-2.94087 Z[#3+-0.04000]
#1=[#543+[#544-#543]*0.07749]
#2=[#549+[#550-#549]*0.07749]
#3=[#1+[#2-#1]*0.35101]
X-8.13203 Y-2.94717 Z[#3+-0.04000]
#1=[#543+[#544-#543]*0.05887]
#2=[#549+[#550-#549]*0.05887]
#3=[#1+[#2-#1]*0.34281]
X-8.13517 Y-2.95422 Z[#3+-0.04000]
#1=[#543+[#544-#543]*0.03898]
#2=[#549+[#550-#549]*0.03898]
#3=[#1+[#2-#1]*0.33835]
X-8.13689 Y-2.96175 Z[#3+-0.04000]
#1=[#543+[#544-#543]*0.01860]
#2=[#549+[#550-#549]*0.01860]
#3=[#1+[#2-#1]*0.33780]
X-8.13710 Y-2.96946 Z[#3+-0.04000]
#1=[#543+[#544-#543]*0.00000]
#2=[#549+[#550-#549]*0.00000]
#3=[#1+[#2-#1]*0.34094]
X-8.13589 Y-2.97650 Z[#3+-0.04000]
#1=[#542+[#543-#542]*0.99849]
#2=[#548+[#549-#548]*0.99849]
#3=[#1+[#2-#1]*0.34119]
X-8.13580 Y-2.97707 Z[#3+-0.04000]
#1=[#542+[#543-#542]*0.97944]
#2=[#548+[#549-#548]*0.97944]
#3=[#1+[#2-#1]*0.34838]
X-8.13304 Y-2.98428 Z[#3+-0.04000]
#1=[#542+[#543-#542]*0.96218]
#2=[#548+[#549-#548]*0.96218]
#3=[#1+[#2-#1]*0.35909]
X-8.12893 Y-2.99081 Z[#3+-0.04000]
#1=[#542+[#543-#542]*0.94737]
#2=[#548+[#549-#548]*0.94737]
#3=[#1+[#2-#1]*0.37292]
X-8.12362 Y-2.99641 Z[#3+-0.04000]
#1=[#542+[#543-#542]*0.93559]
#2=[#548+[#549-#548]*0.93559]
#3=[#1+[#2-#1]*0.38933]
X-8.11732 Y-3.00087 Z[#3+-0.04000]
#1=[#542+[#543-#542]*0.92727]
#2=[#548+[#549-#548]*0.92727]
#3=[#1+[#2-#1]*0.40770]
X-8.11027 Y-3.00402 Z[#3+-0.04000]
#1=[#542+[#543-#542]*0.92275]
#2=[#548+[#549-#548]*0.92275]
#3=[#1+[#2-#1]*0.42731]
X-8.10275 Y-3.00573 Z[#3+-0.04000]
#1=[#542+[#543-#542]*0.92219]
#2=[#548+[#549-#548]*0.92219]
#3=[#1+[#2-#1]*0.44741]
X-8.09503 Y-3.00594 Z[#3+-0.04000]
#1=[#542+[#543-#542]*0.92563]
#2=[#548+[#549-#548]*0.92563]
#3=[#1+[#2-#1]*0.46724]
X-8.08743 Y-3.00464 Z[#3+-0.04000]
#1=[#542+[#543-#542]*0.93292]
#2=[#548+[#549-#548]*0.93292]
#3=[#1+[#2-#1]*0.48602]
X-8.08022 Y-3.00188 Z[#3+-0.04000]
#1=[#542+[#543-#542]*0.98485]
#2=[#548+[#549-#548]*0.98485]
#3=[#1+[#2-#1]*0.58845]
X-8.04091 Y-2.98223 Z[#3+-0.04000]
#1=[#542+[#543-#542]*0.98485]
#2=[#548+[#549-#548]*0.98485]
#3=[#1+[#2-#1]*0.78820]
X-7.96426 Y-2.98223 Z[#3+-0.04000]
#1=[#542+[#543-#542]*0.94843]
#2=[#548+[#549-#548]*0.94843]
#3=[#1+[#2-#1]*0.86004]
X-7.93669 Y-2.99601 Z[#3+-0.04000]
#1=[#542+[#543-#542]*0.87557]
#2=[#548+[#549-#548]*0.87557]
#3=[#1+[#2-#1]*0.89596]
X-7.92291 Y-3.02358 Z[#3+-0.04000]
#1=[#542+[#543-#542]*0.83862]
#2=[#548+[#549-#548]*0.83862]
#3=[#1+[#2-#1]*0.89596]
X-7.92291 Y-3.03757 Z[#3+-0.04000]
#1=[#542+[#543-#542]*0.81544]
#2=[#548+[#549-#548]*0.81544]
#3=[#1+[#2-#1]*0.85024]
X-7.94045 Y-3.04634 Z[#3+-0.04000]
#1=[#542+[#543-#542]*0.81544]
#2=[#548+[#549-#548]*0.81544]
#3=[#1+[#2-#1]*0.56423]
X-8.05021 Y-3.04634 Z[#3+-0.04000]
#1=[#542+[#543-#542]*0.81266]
#2=[#548+[#549-#548]*0.81266]
#3=[#1+[#2-#1]*0.54066]
X-8.05925 Y-3.04739 Z[#3+-0.04000]
#1=[#542+[#543-#542]*0.80446]
#2=[#548+[#549-#548]*0.80446]
#3=[#1+[#2-#1]*0.51835]
X-8.06781 Y-3.05050 Z[#3+-0.04000]
#1=[#542+[#543-#542]*0.74154]
#2=[#548+[#549-#548]*0.74154]
#3=[#1+[#2-#1]*0.39426]
X-8.11543 Y-3.07431 Z[#3+-0.04000]
#1=[#542+[#543-#542]*0.72950]
#2=[#548+[#549-#548]*0.72950]
#3=[#1+[#2-#1]*0.37578]
X-8.12252 Y-3.07886 Z[#3+-0.04000]
#1=[#542+[#543-#542]*0.71375]
#2=[#548+[#549-#548]*0.71375]
#3=[#1+[#2-#1]*0.36025]
X-8.12848 Y-3.08482 Z[#3+-0.04000]
#1=[#542+[#543-#542]*0.69501]
#2=[#548+[#549-#548]*0.69501]
#3=[#1+[#2-#1]*0.34838]
X-8.13304 Y-3.09191 Z[#3+-0.04000]
#1=[#542+[#543-#542]*0.56917]
#2=[#548+[#549-#548]*0.56917]
#3=[#1+[#2-#1]*0.28633]
X-8.15685 Y-3.13953 Z[#3+-0.04000]
#1=[#542+[#543-#542]*0.54655]
#2=[#548+[#549-#548]*0.54655]
#3=[#1+[#2-#1]*0.27824]
X-8.15995 Y-3.14809 Z[#3+-0.04000]
#1=[#542+[#543-#542]*0.52264]
#2=[#548+[#549-#548]*0.52264]
#3=[#1+[#2-#1]*0.27550]
X-8.16101 Y-3.15714 Z[#3+-0.04000]
#1=[#542+[#543-#542]*0.39681]
#2=[#548+[#549-#548]*0.39681]
#3=[#1+[#2-#1]*0.27550]
X-8.16101 Y-3.20476 Z[#3+-0.04000]
#1=[#542+[#543-#542]*0.37290]
#2=[#548+[#549-#548]*0.37290]
#3=[#1+[#2-#1]*0.27824]
X-8.15995 Y-3.21380 Z[#3+-0.04000]
#1=[#542+[#543-#542]*0.35028]
#2=[#548+[#549-#548]*0.35028]
#3=[#1+[#2-#1]*0.28633]
X-8.15685 Y-3.22237 Z[#3+-0.04000]
#1=[#542+[#543-#542]*0.22444]
#2=[#548+[#549-#548]*0.22444]
#3=[#1+[#2-#1]*0.34838]
X-8.13304 Y-3.26999 Z[#3+-0.04000]
#1=[#542+[#543-#542]*0.20570]
#2=[#548+[#549-#548]*0.20570]
#3=[#1+[#2-#1]*0.36025]
X-8.12848 Y-3.27708 Z[#3+-0.04000]
#1=[#542+[#543-#542]*0.18995]
#2=[#548+[#549-#548]*0.18995]
#3=[#1+[#2-#1]*0.37578]
X-8.12252 Y-3.28304 Z[#3+-0.04000]
#1=[#542+[#543-#542]*0.17792]
#2=[#548+[#549-#548]*0.17792]
#3=[#1+[#2-#1]*0.39426]
X-8.11543 Y-3.28759 Z[#3+-0.04000]
#1=[#542+[#543-#542]*0.11500]
#2=[#548+[#549-#548]*0.11500]
#3=[#1+[#2-#1]*0.51835]
X-8.06781 Y-3.31140 Z[#3+-0.04000]
#1=[#542+[#543-#542]*0.10680]
#2=[#548+[#549-#548]*0.10680]
#3=[#1+[#2-#1]*0.54066]
X-8.05925 Y-3.31451 Z[#3+-0.04000]
#1=[#542+[#543-#542]*0.10401]
#2=[#548+[#549-#548]*0.10401]
#3=[#1+[#2-#1]*0.56423]
X-8.05021 Y-3.31556 Z[#3+-0.04000]
#1=[#542+[#543-#542]*0.10401]
#2=[#548+[#549-#548]*0.10401]
#3=[#1+[#2-#1]*0.87446]
X-7.93116 Y-3.31556 Z[#3+-0.04000]
#1=[#542+[#543-#542]*0.10680]
#2=[#548+[#549-#548]*0.10680]
#3=[#1+[#2-#1]*0.89803]
X-7.92211 Y-3.31451 Z[#3+-0.04000]
#1=[#542+[#543-#542]*0.11500]
#2=[#548+[#549-#548]*0.11500]
#3=[#1+[#2-#1]*0.92034]
X-7.91355 Y-3.31140 Z[#3+-0.04000]
#1=[#542+[#543-#542]*0.12416]
#2=[#548+[#549-#548]*0.12416]
#3=[#1+[#2-#1]*0.93842]
X-7.90661 Y-3.30794 Z[#3+-0.04000]
#1=[#542+[#543-#542]*0.12155]
#2=[#548+[#549-#548]*0.12155]
#3=[#1+[#2-#1]*0.94156]
X-7.90541 Y-3.30892 Z[#3+-0.04000]
#1=[#542+[#543-#542]*0.11193]
#2=[#548+[#549-#548]*0.11193]
#3=[#1+[#2-#1]*0.95929]
X-7.89860 Y-3.31256 Z[#3+-0.04000]
#1=[#542+[#543-#542]*0.10601]
#2=[#548+[#549-#548]*0.10601]
#3=[#1+[#2-#1]*0.97854]
X-7.89122 Y-3.31480 Z[#3+-0.04000]
#1=[#542+[#543-#542]*0.10401]
#2=[#548+[#549-#548]*0.10401]
#3=[#1+[#2-#1]*0.99855]
X-7.88354 Y-3.31556 Z[#3+-0.04000]
#1=[#548+[#549-#548]*0.10416]
#2=[#554+[#555-#554]*0.10416]
#3=[#1+[#2-#1]*0.00000]
X-7.88298 Y-3.31551 Z[#3+-0.04000]
#1=[#548+[#549-#548]*0.10601]
#2=[#554+[#555-#554]*0.10601]
#3=[#1+[#2-#1]*0.01857]
X-7.87585 Y-3.31480 Z[#3+-0.04000]
#1=[#548+[#549-#548]*0.11193]
#2=[#554+[#555-#554]*0.11193]
#3=[#1+[#2-#1]*0.03782]
X-7.86847 Y-3.31256 Z[#3+-0.04000]
#1=[#548+[#549-#548]*0.12155]
#2=[#554+[#555-#554]*0.12155]
#3=[#1+[#2-#1]*0.05555]
X-7.86166 Y-3.30892 Z[#3+-0.04000]
#1=[#548+[#549-#548]*0.13449]
#2=[#554+[#555-#554]*0.13449]
#3=[#1+[#2-#1]*0.07110]
X-7.85570 Y-3.30403 Z[#3+-0.04000]
#1=[#548+[#549-#548]*0.15025]
#2=[#554+[#555-#554]*0.15025]
#3=[#1+[#2-#1]*0.08386]
X-7.85080 Y-3.29806 Z[#3+-0.04000]
#1=[#548+[#549-#548]*0.16824]
#2=[#554+[#555-#554]*0.16824]
#3=[#1+[#2-#1]*0.09334]
X-7.84716 Y-3.29126 Z[#3+-0.04000]
#1=[#548+[#549-#548]*0.18776]
#2=[#554+[#555-#554]*0.18776]
#3=[#1+[#2-#1]*0.09918]
X-7.84492 Y-3.28387 Z[#3+-0.04000]
#1=[#548+[#549-#548]*0.20805]
#2=[#554+[#555-#554]*0.20805]
#3=[#1+[#2-#1]*0.10115]
X-7.84416 Y-3.27619 Z[#3+-0.04000]
G04 P0 ( dwell for no time -- G64 should not smooth over this point )
G00 Z0.08000 ( retract )

G00 X-7.92291 Y-3.22805 ( rapid move to begin. )
G01 F180.00000
( Mill infeed pass 1/1 )
#1=[#542+[#543-#542]*0.33527]
#2=[#548+[#549-#548]*0.33527]
#3=[#1+[#2-#1]*0.89596]
G01 Z[-0.04000+#100]
G04 P0 ( dwell for no time -- G64 should not smooth over this point )
G01 F360.00000
#1=[#542+[#543-#542]*0.60990]
#2=[#548+[#549-#548]*0.60990]
#3=[#1+[#2-#1]*0.89596]
X-7.92291 Y-3.12412 Z[#3+-0.04000]
#1=[#542+[#543-#542]*0.60736]
#2=[#548+[#549-#548]*0.60736]
#3=[#1+[#2-#1]*0.87446]
X-7.93116 Y-3.12508 Z[#3+-0.04000]
#1=[#542+[#543-#542]*0.60736]
#2=[#548+[#549-#548]*0.60736]
#3=[#1+[#2-#1]*0.58845]
X-8.04091 Y-3.12508 Z[#3+-0.04000]
#1=[#542+[#543-#542]*0.57094]
#2=[#548+[#549-#548]*0.57094]
#3=[#1+[#2-#1]*0.51661]
X-8.06848 Y-3.13886 Z[#3+-0.04000]
#1=[#542+[#543-#542]*0.49808]
#2=[#548+[#549-#548]*0.49808]
#3=[#1+[#2-#1]*0.48069]
X-8.08226 Y-3.16643 Z[#3+-0.04000]
#1=[#542+[#543-#542]*0.42137]
#2=[#548+[#549-#548]*0.42137]
#3=[#1+[#2-#1]*0.48069]
X-8.08226 Y-3.19546 Z[#3+-0.04000]
#1=[#542+[#543-#542]*0.34851]
#2=[#548+[#549-#548]*0.34851]
#3=[#1+[#2-#1]*0.51661]
X-8.06848 Y-3.22303 Z[#3+-0.04000]
#1=[#542+[#543-#542]*0.31209]
#2=[#548+[#549-#548]*0.31209]
#3=[#1+[#2-#1]*0.58845]
X-8.04091 Y-3.23682 Z[#3+-0.04000]
#1=[#542+[#543-#542]*0.31209]
#2=[#548+[#549-#548]*0.31209]
#3=[#1+[#2-#1]*0.85024]
X-7.94045 Y-3.23682 Z[#3+-0.04000]
#1=[#542+[#543-#542]*0.33527]
#2=[#548+[#549-#548]*0.33527]
#3=[#1+[#2-#1]*0.89596]
X-7.92291 Y-3.22805 Z[#3+-0.04000]
G04 P0 ( dwell for no time -- G64 should not smooth over this point )
G00 Z0.08000 ( retract )

G00 X-8.27273 Y-3.18095 ( rapid move to begin. )
G01 F180.00000
( Mill infeed pass 1/1 )
#1=[#536+[#537-#536]*0.45973]
#2=[#542+[#543-#542]*0.45973]
#3=[#1+[#2-#1]*0.98435]
G01 Z[-0.04000+#100]
G04 P0 ( dwell for no time -- G64 should not smooth over this point )
G01 F360.00000
#1=[#536+[#537-#536]*0.64848]
#2=[#542+[#543-#542]*0.64848]
#3=[#1+[#2-#1]*0.98435]
X-8.27273 Y-3.10952 Z[#3+-0.04000]
#1=[#536+[#537-#536]*0.67239]
#2=[#542+[#543-#542]*0.67239]
#3=[#1+[#2-#1]*0.98160]
X-8.27379 Y-3.10047 Z[#3+-0.04000]
#1=[#536+[#537-#536]*0.69501]
#2=[#542+[#543-#542]*0.69501]
#3=[#1+[#2-#1]*0.97351]
X-8.27689 Y-3.09191 Z[#3+-0.04000]
#1=[#536+[#537-#536]*0.82085]
#2=[#542+[#543-#542]*0.82085]
#3=[#1+[#2-#1]*0.91147]
X-8.30070 Y-3.04429 Z[#3+-0.04000]
#1=[#536+[#537-#536]*0.83516]
#2=[#542+[#543-#542]*0.83516]
#3=[#1+[#2-#1]*0.90293]
X-8.30398 Y-3.03888 Z[#3+-0.04000]
#1=[#536+[#537-#536]*0.84790]
#2=[#542+[#543-#542]*0.84790]
#3=[#1+[#2-#1]*0.89223]
X-8.30808 Y-3.03405 Z[#3+-0.04000]
#1=[#536+[#537-#536]*0.91079]
#2=[#542+[#543-#542]*0.91079]
#3=[#1+[#2-#1]*0.83019]
X-8.33189 Y-3.01025 Z[#3+-0.04000]
#1=[#536+[#537-#536]*0.92572]
#2=[#542+[#543-#542]*0.92572]
#3=[#1+[#2-#1]*0.81159]
X-8.33903 Y-3.00461 Z[#3+-0.04000]
#1=[#536+[#537-#536]*0.92821]
#2=[#542+[#543-#542]*0.92821]
#3=[#1+[#2-#1]*0.80634]
X-8.34104 Y-3.00366 Z[#3+-0.04000]
#1=[#536+[#537-#536]*0.95241]
#2=[#542+[#543-#542]*0.95241]
#3=[#1+[#2-#1]*0.83020]
X-8.33189 Y-2.99451 Z[#3+-0.04000]
#1=[#536+[#537-#536]*0.96514]
#2=[#542+[#543-#542]*0.96514]
#3=[#1+[#2-#1]*0.84089]
X-8.32779 Y-2.98969 Z[#3+-0.04000]
#1=[#536+[#537-#536]*0.97944]
#2=[#542+[#543-#542]*0.97944]
#3=[#1+[#2-#1]*0.84942]
X-8.32451 Y-2.98428 Z[#3+-0.04000]
#1=[#537+[#538-#537]*0.00000]
#2=[#543+[#544-#543]*0.00000]
#3=[#1+[#2-#1]*0.85956]
X-8.32062 Y-2.97650 Z[#3+-0.04000]
#1=[#537+[#538-#537]*0.10528]
#2=[#543+[#544-#543]*0.10528]
#3=[#1+[#2-#1]*0.91147]
X-8.30070 Y-2.93666 Z[#3+-0.04000]
#1=[#537+[#538-#537]*0.12791]
#2=[#543+[#544-#543]*0.12791]
#3=[#1+[#2-#1]*0.91955]
X-8.29760 Y-2.92809 Z[#3+-0.04000]
#1=[#537+[#538-#537]*0.15181]
#2=[#543+[#544-#543]*0.15181]
#3=[#1+[#2-#1]*0.92230]
X-8.29654 Y-2.91905 Z[#3+-0.04000]
#1=[#537+[#538-#537]*0.27765]
#2=[#543+[#544-#543]*0.27765]
#3=[#1+[#2-#1]*0.92230]
X-8.29654 Y-2.87143 Z[#3+-0.04000]
#1=[#537+[#538-#537]*0.30155]
#2=[#543+[#544-#543]*0.30155]
#3=[#1+[#2-#1]*0.91955]
X-8.29760 Y-2.86238 Z[#3+-0.04000]
#1=[#537+[#538-#537]*0.32417]
#2=[#543+[#544-#543]*0.32417]
#3=[#1+[#2-#1]*0.91147]
X-8.30070 Y-2.85382 Z[#3+-0.04000]
#1=[#537+[#538-#537]*0.45001]
#2=[#543+[#544-#543]*0.45001]
#3=[#1+[#2-#1]*0.84942]
X-8.32451 Y-2.80620 Z[#3+-0.04000]
#1=[#537+[#538-#537]*0.46432]
#2=[#543+[#544-#543]*0.46432]
#3=[#1+[#2-#1]*0.84089]
X-8.32779 Y-2.80079 Z[#3+-0.04000]
#1=[#537+[#538-#537]*0.47705]
#2=[#543+[#544-#543]*0.47705]
#3=[#1+[#2-#1]*0.83020]
X-8.33189 Y-2.79597 Z[#3+-0.04000]
#1=[#537+[#538-#537]*0.53997]
#2=[#543+[#544-#543]*0.53997]
#3=[#1+[#2-#1]*0.76816]
X-8.35570 Y-2.77216 Z[#3+-0.04000]
#1=[#537+[#538-#537]*0.55080]
#2=[#543+[#544-#543]*0.55080]
#3=[#1+[#2-#1]*0.75560]
X-8.36051 Y-2.76806 Z[#3+-0.04000]
#1=[#537+[#538-#537]*0.55946]
#2=[#543+[#544-#543]*0.55946]
#3=[#1+[#2-#1]*0.74149]
X-8.36593 Y-2.76479 Z[#3+-0.04000]
#1=[#537+[#538-#537]*0.62238]
#2=[#543+[#544-#543]*0.62238]
#3=[#1+[#2-#1]*0.61740]
X-8.41355 Y-2.74098 Z[#3+-0.04000]
#1=[#537+[#538-#537]*0.63058]
#2=[#543+[#544-#543]*0.63058]
#3=[#1+[#2-#1]*0.59509]
X-8.42211 Y-2.73787 Z[#3+-0.04000]
#1=[#537+[#538-#537]*0.63336]
#2=[#543+[#544-#543]*0.63336]
#3=[#1+[#2-#1]*0.57152]
X-8.43116 Y-2.73682 Z[#3+-0.04000]
#1=[#537+[#538-#537]*0.63336]
#2=[#543+[#544-#543]*0.63336]
#3=[#1+[#2-#1]*0.13719]
X-8.59783 Y-2.73682 Z[#3+-0.04000]
#1=[#537+[#538-#537]*0.63136]
#2=[#543+[#544-#543]*0.63136]
#3=[#1+[#2-#1]*0.11718]
X-8.60551 Y-2.73758 Z[#3+-0.04000]
#1=[#537+[#538-#537]*0.62544]
#2=[#543+[#544-#543]*0.62544]
#3=[#1+[#2-#1]*0.09793]
X-8.61289 Y-2.73982 Z[#3+-0.04000]
#1=[#537+[#538-#537]*0.61583]
#2=[#543+[#544-#543]*0.61583]
#3=[#1+[#2-#1]*0.08020]
X-8.61970 Y-2.74345 Z[#3+-0.04000]
#1=[#537+[#538-#537]*0.60289]
#2=[#543+[#544-#543]*0.60289]
#3=[#1+[#2-#1]*0.06465]
X-8.62566 Y-2.74835 Z[#3+-0.04000]
#1=[#537+[#538-#537]*0.58712]
#2=[#543+[#544-#543]*0.58712]
#3=[#1+[#2-#1]*0.05189]
X-8.63056 Y-2.75432 Z[#3+-0.04000]
#1=[#537+[#538-#537]*0.56914]
#2=[#543+[#544-#543]*0.56914]
#3=[#1+[#2-#1]*0.04241]
X-8.63420 Y-2.76112 Z[#3+-0.04000]
#1=[#537+[#538-#537]*0.54962]
#2=[#543+[#544-#543]*0.54962]
#3=[#1+[#2-#1]*0.03657]
X-8.63644 Y-2.76851 Z[#3+-0.04000]
#1=[#537+[#538-#537]*0.52932]
#2=[#543+[#544-#543]*0.52932]
#3=[#1+[#2-#1]*0.03460]
X-8.63720 Y-2.77619 Z[#3+-0.04000]
#1=[#537+[#538-#537]*0.00000]
#2=[#543+[#544-#543]*0.00000]
#3=[#1+[#2-#1]*0.03460]
X-8.63720 Y-2.97650 Z[#3+-0.04000]
#1=[#536+[#537-#536]*0.20805]
#2=[#542+[#543-#542]*0.20805]
#3=[#1+[#2-#1]*0.03460]
X-8.63720 Y-3.27619 Z[#3+-0.04000]
#1=[#536+[#537-#536]*0.18776]
#2=[#542+[#543-#542]*0.18776]
#3=[#1+[#2-#1]*0.03657]
X-8.63644 Y-3.28387 Z[#3+-0.04000]
#1=[#536+[#537-#536]*0.16824]
#2=[#542+[#543-#542]*0.16824]
#3=[#1+[#2-#1]*0.04241]
X-8.63420 Y-3.29126 Z[#3+-0.04000]
#1=[#536+[#537-#536]*0.15025]
#2=[#542+[#543-#542]*0.15025]
#3=[#1+[#2-#1]*0.05189]
X-8.63056 Y-3.29806 Z[#3+-0.04000]
#1=[#536+[#537-#536]*0.13449]
#2=[#542+[#543-#542]*0.13449]
#3=[#1+[#2-#1]*0.06465]
X-8.62566 Y-3.30403 Z[#3+-0.04000]
#1=[#536+[#537-#536]*0.12155]
#2=[#542+[#543-#542]*0.12155]
#3=[#1+[#2-#1]*0.08020]
X-8.61970 Y-3.30892 Z[#3+-0.04000]
#1=[#536+[#537-#536]*0.11193]
#2=[#542+[#543-#542]*0.11193]
#3=[#1+[#2-#1]*0.09793]
X-8.61289 Y-3.31256 Z[#3+-0.04000]
#1=[#536+[#537-#536]*0.10601]
#2=[#542+[#543-#542]*0.10601]
#3=[#1+[#2-#1]*0.11718]
X-8.60551 Y-3.31480 Z[#3+-0.04000]
#1=[#536+[#537-#536]*0.10401]
#2=[#542+[#543-#542]*0.10401]
#3=[#1+[#2-#1]*0.13719]
X-8.59783 Y-3.31556 Z[#3+-0.04000]
#1=[#536+[#537-#536]*0.10401]
#2=[#542+[#543-#542]*0.10401]
#3=[#1+[#2-#1]*0.63356]
X-8.40735 Y-3.31556 Z[#3+-0.04000]
#1=[#536+[#537-#536]*0.10680]
#2=[#542+[#543-#542]*0.10680]
#3=[#1+[#2-#1]*0.65714]
X-8.39830 Y-3.31451 Z[#3+-0.04000]
#1=[#536+[#537-#536]*0.11500]
#2=[#542+[#543-#542]*0.11500]
#3=[#1+[#2-#1]*0.67945]
X-8.38974 Y-3.31140 Z[#3+-0.04000]
#1=[#536+[#537-#536]*0.17792]
#2=[#542+[#543-#542]*0.17792]
#3=[#1+[#2-#1]*0.80354]
X-8.34212 Y-3.28759 Z[#3+-0.04000]
#1=[#536+[#537-#536]*0.18657]
#2=[#542+[#543-#542]*0.18657]
#3=[#1+[#2-#1]*0.81765]
X-8.33670 Y-3.28432 Z[#3+-0.04000]
#1=[#536+[#537-#536]*0.19741]
#2=[#542+[#543-#542]*0.19741]
#3=[#1+[#2-#1]*0.83020]
X-8.33189 Y-3.28022 Z[#3+-0.04000]
#1=[#536+[#537-#536]*0.26032]
#2=[#542+[#543-#542]*0.26032]
#3=[#1+[#2-#1]*0.89225]
X-8.30808 Y-3.25641 Z[#3+-0.04000]
#1=[#536+[#537-#536]*0.27306]
#2=[#542+[#543-#542]*0.27306]
#3=[#1+[#2-#1]*0.90293]
X-8.30398 Y-3.25159 Z[#3+-0.04000]
#1=[#536+[#537-#536]*0.28736]
#2=[#542+[#543-#542]*0.28736]
#3=[#1+[#2-#1]*0.91147]
X-8.30070 Y-3.24618 Z[#3+-0.04000]
#1=[#536+[#537-#536]*0.41320]
#2=[#542+[#543-#542]*0.41320]
#3=[#1+[#2-#1]*0.97351]
X-8.27689 Y-3.19856 Z[#3+-0.04000]
#1=[#536+[#537-#536]*0.43582]
#2=[#542+[#543-#542]*0.43582]
#3=[#1+[#2-#1]*0.98160]
X-8.27379 Y-3.19000 Z[#3+-0.04000]
#1=[#536+[#537-#536]*0.45973]
#2=[#542+[#543-#542]*0.45973]
#3=[#1+[#2-#1]*0.98435]
X-8.27273 Y-3.18095 Z[#3+-0.04000]
G04 P0 ( dwell for no time -- G64 should not smooth over this point )
G00 Z0.08000 ( retract )

G00 X-8.35148 Y-3.17165 ( rapid move to begin. )
G01 F180.00000
( Mill infeed pass 1/1 )
#1=[#536+[#537-#536]*0.48429]
#2=[#542+[#543-#542]*0.48429]
#3=[#1+[#2-#1]*0.77915]
G01 Z[-0.04000+#100]
G04 P0 ( dwell for no time -- G64 should not smooth over this point )
G01 F360.00000
#1=[#536+[#537-#536]*0.62392]
#2=[#542+[#543-#542]*0.62392]
#3=[#1+[#2-#1]*0.77915]
X-8.35148 Y-3.11881 Z[#3+-0.04000]
#1=[#536+[#537-#536]*0.71268]
#2=[#542+[#543-#542]*0.71268]
#3=[#1+[#2-#1]*0.73539]
X-8.36827 Y-3.08522 Z[#3+-0.04000]
#1=[#536+[#537-#536]*0.74628]
#2=[#542+[#543-#542]*0.74628]
#3=[#1+[#2-#1]*0.70225]
X-8.38099 Y-3.07251 Z[#3+-0.04000]
#1=[#536+[#537-#536]*0.79609]
#2=[#542+[#543-#542]*0.79609]
#3=[#1+[#2-#1]*0.55487]
X-8.43754 Y-3.05366 Z[#3+-0.04000]
#1=[#536+[#537-#536]*0.79609]
#2=[#542+[#543-#542]*0.79609]
#3=[#1+[#2-#1]*0.23979]
X-8.55845 Y-3.05366 Z[#3+-0.04000]
#1=[#536+[#537-#536]*0.31209]
#2=[#542+[#543-#542]*0.31209]
#3=[#1+[#2-#1]*0.23979]
X-8.55845 Y-3.23682 Z[#3+-0.04000]
#1=[#536+[#537-#536]*0.31209]
#2=[#542+[#543-#542]*0.31209]
#3=[#1+[#2-#1]*0.60934]
X-8.41664 Y-3.23682 Z[#3+-0.04000]
#1=[#536+[#537-#536]*0.35647]
#2=[#542+[#543-#542]*0.35647]
#3=[#1+[#2-#1]*0.69688]
X-8.38305 Y-3.22002 Z[#3+-0.04000]
#1=[#536+[#537-#536]*0.39552]
#2=[#542+[#543-#542]*0.39552]
#3=[#1+[#2-#1]*0.73539]
X-8.36827 Y-3.20525 Z[#3+-0.04000]
#1=[#536+[#537-#536]*0.48429]
#2=[#542+[#543-#542]*0.48429]
#3=[#1+[#2-#1]*0.77915]
X-8.35148 Y-3.17165 Z[#3+-0.04000]
G04 P0 ( dwell for no time -- G64 should not smooth over this point )
G00 Z0.08000 ( retract )

G00 X-8.37529 Y-2.90976 ( rapid move to begin. )
G01 F180.00000
( Mill infeed pass 1/1 )
#1=[#537+[#538-#537]*0.17637]
#2=[#543+[#544-#543]*0.17637]
#3=[#1+[#2-#1]*0.71711]
G01 Z[-0.04000+#100]
G04 P0 ( dwell for no time -- G64 should not smooth over this point )
G01 F360.00000
#1=[#537+[#538-#537]*0.25309]
#2=[#543+[#544-#543]*0.25309]
#3=[#1+[#2-#1]*0.71711]
X-8.37529 Y-2.88072 Z[#3+-0.04000]
#1=[#537+[#538-#537]*0.34186]
#2=[#543+[#544-#543]*0.34186]
#3=[#1+[#2-#1]*0.67334]
X-8.39208 Y-2.84713 Z[#3+-0.04000]
#1=[#537+[#538-#537]*0.38090]
#2=[#543+[#544-#543]*0.38090]
#3=[#1+[#2-#1]*0.63484]
X-8.40686 Y-2.83236 Z[#3+-0.04000]
#1=[#537+[#538-#537]*0.42528]
#2=[#543+[#544-#543]*0.42528]
#3=[#1+[#2-#1]*0.54730]
X-8.44045 Y-2.81556 Z[#3+-0.04000]
#1=[#537+[#538-#537]*0.42528]
#2=[#543+[#544-#543]*0.42528]
#3=[#1+[#2-#1]*0.23979]
X-8.55845 Y-2.81556 Z[#3+-0.04000]
#1=[#537+[#538-#537]*0.00417]
#2=[#543+[#544-#543]*0.00417]
#3=[#1+[#2-#1]*0.23979]
X-8.55845 Y-2.97492 Z[#3+-0.04000]
#1=[#537+[#538-#537]*0.00417]
#2=[#543+[#544-#543]*0.00417]
#3=[#1+[#2-#1]*0.54730]
X-8.44045 Y-2.97492 Z[#3+-0.04000]
#1=[#537+[#538-#537]*0.04856]
#2=[#543+[#544-#543]*0.04856]
#3=[#1+[#2-#1]*0.63484]
X-8.40686 Y-2.95812 Z[#3+-0.04000]
#1=[#537+[#538-#537]*0.08760]
#2=[#543+[#544-#543]*0.08760]
#3=[#1+[#2-#1]*0.67334]
X-8.39208 Y-2.94335 Z[#3+-0.04000]
#1=[#537+[#538-#537]*0.17637]
#2=[#543+[#544-#543]*0.17637]
#3=[#1+[#2-#1]*0.71711]
X-8.37529 Y-2.90976 Z[#3+-0.04000]
G04 P0 ( dwell for no time -- G64 should not smooth over this point )
G00 Z0.08000 ( retract )

G00 X-8.66909 Y-3.35000 ( rapid move to begin. )
G01 F180.00000
( Mill infeed pass 1/1 )
#1=[#530+[#531-#530]*0.01300]
#2=[#536+[#537-#536]*0.01300]
#3=[#1+[#2-#1]*0.95148]
G01 Z[-0.04000+#100]
G04 P0 ( dwell for no time -- G64 should not smooth over this point )
G01 F360.00000
#1=[#530+[#531-#530]*0.00803]
#2=[#536+[#537-#536]*0.00803]
#3=[#1+[#2-#1]*0.95050]
X-8.66947 Y-3.35188 Z[#3+-0.04000]
#1=[#530+[#531-#530]*0.00381]
#2=[#536+[#537-#536]*0.00381]
#3=[#1+[#2-#1]*0.94772]
X-8.67054 Y-3.35348 Z[#3+-0.04000]
#1=[#530+[#531-#530]*0.00099]
#2=[#536+[#537-#536]*0.00099]
#3=[#1+[#2-#1]*0.94356]
X-8.67213 Y-3.35455 Z[#3+-0.04000]
#1=[#530+[#531-#530]*0.00000]
#2=[#536+[#537-#536]*0.00000]
#3=[#1+[#2-#1]*0.93865]
X-8.67402 Y-3.35492 Z[#3+-0.04000]
#1=[#530+[#531-#530]*0.00099]
#2=[#536+[#537-#536]*0.00099]
#3=[#1+[#2-#1]*0.93375]
X-8.67590 Y-3.35455 Z[#3+-0.04000]
#1=[#530+[#531-#530]*0.00381]
#2=[#536+[#537-#536]*0.00381]
#3=[#1+[#2-#1]*0.92959]
X-8.67749 Y-3.35348 Z[#3+-0.04000]
#1=[#530+[#531-#530]*0.12674]
#2=[#536+[#537-#536]*0.12674]
#3=[#1+[#2-#1]*0.80836]
X-8.72402 Y-3.30696 Z[#3+-0.04000]
#1=[#530+[#531-#530]*0.00381]
#2=[#536+[#537-#536]*0.00381]
#3=[#1+[#2-#1]*0.68713]
X-8.77054 Y-3.35348 Z[#3+-0.04000]
#1=[#530+[#531-#530]*0.00099]
#2=[#536+[#537-#536]*0.00099]
#3=[#1+[#2-#1]*0.68297]
X-8.77213 Y-3.35455 Z[#3+-0.04000]
#1=[#530+[#531-#530]*0.00000]
#2=[#536+[#537-#536]*0.00000]
#3=[#1+[#2-#1]*0.67806]
X-8.77402 Y-3.35492 Z[#3+-0.04000]
#1=[#530+[#531-#530]*0.00099]
#2=[#536+[#537-#536]*0.00099]
#3=[#1+[#2-#1]*0.67316]
X-8.77590 Y-3.35455 Z[#3+-0.04000]
#1=[#530+[#531-#530]*0.00381]
#2=[#536+[#537-#536]*0.00381]
#3=[#1+[#2-#1]*0.66900]
X-8.77749 Y-3.35348 Z[#3+-0.04000]
#1=[#530+[#531-#530]*0.00803]
#2=[#536+[#537-#536]*0.00803]
#3=[#1+[#2-#1]*0.66622]
X-8.77856 Y-3.35188 Z[#3+-0.04000]
#1=[#530+[#531-#530]*0.01300]
#2=[#536+[#537-#536]*0.01300]
#3=[#1+[#2-#1]*0.66524]
X-8.77894 Y-3.35000 Z[#3+-0.04000]
#1=[#530+[#531-#530]*0.01798]
#2=[#536+[#537-#536]*0.01798]
#3=[#1+[#2-#1]*0.66622]
X-8.77856 Y-3.34812 Z[#3+-0.04000]
#1=[#530+[#531-#530]*0.02220]
#2=[#536+[#537-#536]*0.02220]
#3=[#1+[#2-#1]*0.66900]
X-8.77749 Y-3.34652 Z[#3+-0.04000]
#1=[#530+[#531-#530]*0.14513]
#2=[#536+[#537-#536]*0.14513]
#3=[#1+[#2-#1]*0.79022]
X-8.73097 Y-3.30000 Z[#3+-0.04000]
#1=[#530+[#531-#530]*0.26806]
#2=[#536+[#537-#536]*0.26806]
#3=[#1+[#2-#1]*0.66900]
X-8.77749 Y-3.25348 Z[#3+-0.04000]
#1=[#530+[#531-#530]*0.27228]
#2=[#536+[#537-#536]*0.27228]
#3=[#1+[#2-#1]*0.66622]
X-8.77856 Y-3.25188 Z[#3+-0.04000]
#1=[#530+[#531-#530]*0.27726]
#2=[#536+[#537-#536]*0.27726]
#3=[#1+[#2-#1]*0.66524]
X-8.77894 Y-3.25000 Z[#3+-0.04000]
#1=[#530+[#531-#530]*0.28224]
#2=[#536+[#537-#536]*0.28224]
#3=[#1+[#2-#1]*0.66622]
X-8.77856 Y-3.24812 Z[#3+-0.04000]
#1=[#530+[#531-#530]*0.28645]
#2=[#536+[#537-#536]*0.28645]
#3=[#1+[#2-#1]*0.66900]
X-8.77749 Y-3.24652 Z[#3+-0.04000]
#1=[#530+[#531-#530]*0.28927]
#2=[#536+[#537-#536]*0.28927]
#3=[#1+[#2-#1]*0.67316]
X-8.77590 Y-3.24545 Z[#3+-0.04000]
#1=[#530+[#531-#530]*0.29026]
#2=[#536+[#537-#536]*0.29026]
#3=[#1+[#2-#1]*0.67806]
X-8.77402 Y-3.24508 Z[#3+-0.04000]
#1=[#530+[#531-#530]*0.28927]
