( pcb2gcode 2.5.0 )
( Gcode for custom )

G94 ( Inches per minute feed rate. )
G20 ( Units == INCHES. )

G90 ( Absolute coordinates. )
G00 S12000 ( RPM spindle speed. )
G64 P0.00040 ( set maximum deviation from commanded toolpath )
G01 F360.00000 ( Feedrate. )

#107 = #5211
#108 = #5212

(MSG, Attach the probe tool)
M0 ( Temporary machine stop. )
G0 Z0.080 ( Move Z to safe height )
G0 X-10.95295 Y-3.35492 ( Move XY to start point )
G0 Z0.080 ( Move Z to probe height )
G38.2 Z-0.1 F2.362205 ( Z-probe )
#500 = 0 ( Probe point [0, 0] is our reference )
G92 Z0 ( Set the current Z as zero-value )

( We now start the real probing: move the Z axis to the probing height, move to )
( the probing XY position, probe it and save the result, parameter #2002, )
( in a numbered parameter; we will make 17 probes on the X-axis and )
( 6 probes on the Y-axis, for a grand total of 102 probes )

G0 Z0.080
X-10.95295 Y-2.97649
G38.2 Z-0.1 F2.362205
#501=#2002
G0 Z0.080
X-10.95295 Y-2.59807
G38.2 Z-0.1 F2.362205
#502=#2002
G0 Z0.080
X-10.95295 Y-2.21965
G38.2 Z-0.1 F2.362205
#503=#2002
G0 Z0.080
X-10.95295 Y-1.84123
G38.2 Z-0.1 F2.362205
#504=#2002
G0 Z0.080
X-10.95295 Y-1.46280
G38.2 Z-0.1 F2.362205
#505=#2002
G0 Z0.080
X-10.56920 Y-1.46280
G38.2 Z-0.1 F2.362205
#511=#2002
G0 Z0.080
X-10.56920 Y-1.84123
G38.2 Z-0.1 F2.362205
#510=#2002
G0 Z0.080
X-10.56920 Y-2.21965
G38.2 Z-0.1 F2.362205
#509=#2002
G0 Z0.080
X-10.56920 Y-2.59807
G38.2 Z-0.1 F2.362205
#508=#2002
G0 Z0.080
X-10.56920 Y-2.97649
G38.2 Z-0.1 F2.362205
#507=#2002
G0 Z0.080
X-10.56920 Y-3.35492
G38.2 Z-0.1 F2.362205
#506=#2002
G0 Z0.080
X-10.18546 Y-3.35492
G38.2 Z-0.1 F2.362205
#512=#2002
G0 Z0.080
X-10.18546 Y-2.97649
G38.2 Z-0.1 F2.362205
#513=#2002
G0 Z0.080
X-10.18546 Y-2.59807
G38.2 Z-0.1 F2.362205
#514=#2002
G0 Z0.080
X-10.18546 Y-2.21965
G38.2 Z-0.1 F2.362205
#515=#2002
G0 Z0.080
X-10.18546 Y-1.84123
G38.2 Z-0.1 F2.362205
#516=#2002
G0 Z0.080
X-10.18546 Y-1.46280
G38.2 Z-0.1 F2.362205
#517=#2002
G0 Z0.080
X-9.80171 Y-1.46280
G38.2 Z-0.1 F2.362205
#523=#2002
G0 Z0.080
X-9.80171 Y-1.84123
G38.2 Z-0.1 F2.362205
#522=#2002
G0 Z0.080
X-9.80171 Y-2.21965
G38.2 Z-0.1 F2.362205
#521=#2002
G0 Z0.080
X-9.80171 Y-2.59807
G38.2 Z-0.1 F2.362205
#520=#2002
G0 Z0.080
X-9.80171 Y-2.97649
G38.2 Z-0.1 F2.362205
#519=#2002
G0 Z0.080
X-9.80171 Y-3.35492
G38.2 Z-0.1 F2.362205
#518=#2002
G0 Z0.080
X-9.41796 Y-3.35492
G38.2 Z-0.1 F2.362205
#524=#2002
G0 Z0.080
X-9.41796 Y-2.97649
G38.2 Z-0.1 F2.362205
#525=#2002
G0 Z0.080
X-9.41796 Y-2.59807
G38.2 Z-0.1 F2.362205
#526=#2002
G0 Z0.080
X-9.41796 Y-2.21965
G38.2 Z-0.1 F2.362205
#527=#2002
G0 Z0.080
X-9.41796 Y-1.84123
G38.2 Z-0.1 F2.362205
#528=#2002
G0 Z0.080
X-9.41796 Y-1.46280
G38.2 Z-0.1 F2.362205
#529=#2002
G0 Z0.080
X-9.03422 Y-1.46280
G38.2 Z-0.1 F2.362205
#535=#2002
G0 Z0.080
X-9.03422 Y-1.84123
G38.2 Z-0.1 F2.362205
#534=#2002
G0 Z0.080
X-9.03422 Y-2.21965
G38.2 Z-0.1 F2.362205
#533=#2002
G0 Z0.080
X-9.03422 Y-2.59807
G38.2 Z-0.1 F2.362205
#532=#2002
G0 Z0.080
X-9.03422 Y-2.97649
G38.2 Z-0.1 F2.362205
#531=#2002
G0 Z0.080
X-9.03422 Y-3.35492
G38.2 Z-0.1 F2.362205
#530=#2002
G0 Z0.080
X-8.65047 Y-3.35492
G38.2 Z-0.1 F2.362205
#536=#2002
G0 Z0.080
X-8.65047 Y-2.97649
G38.2 Z-0.1 F2.362205
#537=#2002
G0 Z0.080
X-8.65047 Y-2.59807
G38.2 Z-0.1 F2.362205
#538=#2002
G0 Z0.080
X-8.65047 Y-2.21965
G38.2 Z-0.1 F2.362205
#539=#2002
G0 Z0.080
X-8.65047 Y-1.84123
G38.2 Z-0.1 F2.362205
#540=#2002
G0 Z0.080
X-8.65047 Y-1.46280
G38.2 Z-0.1 F2.362205
#541=#2002
G0 Z0.080
X-8.26673 Y-1.46280
G38.2 Z-0.1 F2.362205
#547=#2002
G0 Z0.080
X-8.26673 Y-1.84123
G38.2 Z-0.1 F2.362205
#546=#2002
G0 Z0.080
X-8.26673 Y-2.21965
G38.2 Z-0.1 F2.362205
#545=#2002
G0 Z0.080
X-8.26673 Y-2.59807
G38.2 Z-0.1 F2.362205
#544=#2002
G0 Z0.080
X-8.26673 Y-2.97649
G38.2 Z-0.1 F2.362205
#543=#2002
G0 Z0.080
X-8.26673 Y-3.35492
G38.2 Z-0.1 F2.362205
#542=#2002
G0 Z0.080
X-7.88298 Y-3.35492
G38.2 Z-0.1 F2.362205
#548=#2002
G0 Z0.080
X-7.88298 Y-2.97649
G38.2 Z-0.1 F2.362205
#549=#2002
G0 Z0.080
X-7.88298 Y-2.59807
G38.2 Z-0.1 F2.362205
#550=#2002
G0 Z0.080
X-7.88298 Y-2.21965
G38.2 Z-0.1 F2.362205
#551=#2002
G0 Z0.080
X-7.88298 Y-1.84123
G38.2 Z-0.1 F2.362205
#552=#2002
G0 Z0.080
X-7.88298 Y-1.46280
G38.2 Z-0.1 F2.362205
#553=#2002
G0 Z0.080
X-7.49923 Y-1.46280
G38.2 Z-0.1 F2.362205
#559=#2002
G0 Z0.080
X-7.49923 Y-1.84123
G38.2 Z-0.1 F2.362205
#558=#2002
G0 Z0.080
X-7.49923 Y-2.21965
G38.2 Z-0.1 F2.362205
#557=#2002
G0 Z0.080
X-7.49923 Y-2.59807
G38.2 Z-0.1 F2.362205
#556=#2002
G0 Z0.080
X-7.49923 Y-2.97649
G38.2 Z-0.1 F2.362205
#555=#2002
G0 Z0.080
X-7.49923 Y-3.35492
G38.2 Z-0.1 F2.362205
#554=#2002
G0 Z0.080
X-7.11549 Y-3.35492
G38.2 Z-0.1 F2.362205
#560=#2002
G0 Z0.080
X-7.11549 Y-2.97649
G38.2 Z-0.1 F2.362205
#561=#2002
G0 Z0.080
X-7.11549 Y-2.59807
G38.2 Z-0.1 F2.362205
#562=#2002
G0 Z0.080
X-7.11549 Y-2.21965
G38.2 Z-0.1 F2.362205
#563=#2002
G0 Z0.080
X-7.11549 Y-1.84123
G38.2 Z-0.1 F2.362205
#564=#2002
G0 Z0.080
X-7.11549 Y-1.46280
G38.2 Z-0.1 F2.362205
#565=#2002
G0 Z0.080
X-6.73174 Y-1.46280
G38.2 Z-0.1 F2.362205
#571=#2002
G0 Z0.080
X-6.73174 Y-1.84123
G38.2 Z-0.1 F2.362205
#570=#2002
G0 Z0.080
X-6.73174 Y-2.21965
G38.2 Z-0.1 F2.362205
#569=#2002
G0 Z0.080
X-6.73174 Y-2.59807
G38.2 Z-0.1 F2.362205
#568=#2002
G0 Z0.080
X-6.73174 Y-2.97649
G38.2 Z-0.1 F2.362205
#567=#2002
G0 Z0.080
X-6.73174 Y-3.35492
G38.2 Z-0.1 F2.362205
#566=#2002
G0 Z0.080
X-6.34800 Y-3.35492
G38.2 Z-0.1 F2.362205
#572=#2002
G0 Z0.080
X-6.34800 Y-2.97649
G38.2 Z-0.1 F2.362205
#573=#2002
G0 Z0.080
X-6.34800 Y-2.59807
G38.2 Z-0.1 F2.362205
#574=#2002
G0 Z0.080
X-6.34800 Y-2.21965
G38.2 Z-0.1 F2.362205
#575=#2002
G0 Z0.080
X-6.34800 Y-1.84123
G38.2 Z-0.1 F2.362205
#576=#2002
G0 Z0.080
X-6.34800 Y-1.46280
G38.2 Z-0.1 F2.362205
#577=#2002
G0 Z0.080
X-5.96425 Y-1.46280
G38.2 Z-0.1 F2.362205
#583=#2002
G0 Z0.080
X-5.96425 Y-1.84123
G38.2 Z-0.1 F2.362205
#582=#2002
G0 Z0.080
X-5.96425 Y-2.21965
G38.2 Z-0.1 F2.362205
#581=#2002
G0 Z0.080
X-5.96425 Y-2.59807
G38.2 Z-0.1 F2.362205
#580=#2002
G0 Z0.080
X-5.96425 Y-2.97649
G38.2 Z-0.1 F2.362205
#579=#2002
G0 Z0.080
X-5.96425 Y-3.35492
G38.2 Z-0.1 F2.362205
#578=#2002
G0 Z0.080
X-5.58050 Y-3.35492
G38.2 Z-0.1 F2.362205
#584=#2002
G0 Z0.080
X-5.58050 Y-2.97649
G38.2 Z-0.1 F2.362205
#585=#2002
G0 Z0.080
X-5.58050 Y-2.59807
G38.2 Z-0.1 F2.362205
#586=#2002
G0 Z0.080
X-5.58050 Y-2.21965
G38.2 Z-0.1 F2.362205
#587=#2002
G0 Z0.080
X-5.58050 Y-1.84123
G38.2 Z-0.1 F2.362205
#588=#2002
G0 Z0.080
X-5.58050 Y-1.46280
G38.2 Z-0.1 F2.362205
#589=#2002
G0 Z0.080
X-5.19676 Y-1.46280
G38.2 Z-0.1 F2.362205
#595=#2002
G0 Z0.080
X-5.19676 Y-1.84123
G38.2 Z-0.1 F2.362205
#594=#2002
G0 Z0.080
X-5.19676 Y-2.21965
G38.2 Z-0.1 F2.362205
#593=#2002
G0 Z0.080
X-5.19676 Y-2.59807
G38.2 Z-0.1 F2.362205
#592=#2002
G0 Z0.080
X-5.19676 Y-2.97649
G38.2 Z-0.1 F2.362205
#591=#2002
G0 Z0.080
X-5.19676 Y-3.35492
G38.2 Z-0.1 F2.362205
#590=#2002
G0 Z0.080
X-4.81301 Y-3.35492
G38.2 Z-0.1 F2.362205
#596=#2002
G0 Z0.080
X-4.81301 Y-2.97649
G38.2 Z-0.1 F2.362205
#597=#2002
G0 Z0.080
X-4.81301 Y-2.59807
G38.2 Z-0.1 F2.362205
#598=#2002
G0 Z0.080
X-4.81301 Y-2.21965
G38.2 Z-0.1 F2.362205
#599=#2002
G0 Z0.080
X-4.81301 Y-1.84123
G38.2 Z-0.1 F2.362205
#600=#2002
G0 Z0.080
X-4.81301 Y-1.46280
G38.2 Z-0.1 F2.362205
#601=#2002

G0 Z0.080 ( Move Z to safe height )
( Probing has ended, each Z-coordinate will be corrected with a bilinear interpolation )
(MSG, Detach the probe tool)
M0 ( Temporary machine stop. )


G00 Z1.00000 (Retract to tool change height)
T1
M5      (Spindle stop.)
G04 P1.00000 (Wait for spindle to stop)
(MSG, Change tool bit to mill diameter 0.00000in)
M6      (Tool change.)
M0      (Temporary machine stop.)
M3 ( Spindle on clockwise. )
G04 P1.00000 (Wait for spindle to get up to speed)
( Piece #1, position [0;0] )

G04 P0 ( dwell for no time -- G64 should not smooth over this point )
G00 Z0.08000 ( retract )

G00 X-9.16104 Y-2.94326 ( rapid move to begin. )
G01 F180.00000
( Mill infeed pass 1/1 )
#105=[#525+[#526-#525]*0.08783]
#106=[#531+[#532-#531]*0.08783]
#100=[#105+[#106-#105]*0.66951]
G01 Z[-0.04000+#100]
G04 P0 ( dwell for no time -- G64 should not smooth over this point )
G01 F360.00000
#105=[#525+[#526-#525]*0.09631]
#106=[#531+[#532-#531]*0.09631]
#100=[#105+[#106-#105]*0.66925]
X-9.16114 Y-2.94005 Z[#100+-0.04000]
#105=[#525+[#526-#525]*0.10579]
#106=[#531+[#532-#531]*0.10579]
#100=[#105+[#106-#105]*0.66815]
X-9.16156 Y-2.93646 Z[#100+-0.04000]
#105=[#525+[#526-#525]*0.11410]
#106=[#531+[#532-#531]*0.11410]
#100=[#105+[#106-#105]*0.66646]
X-9.16221 Y-2.93331 Z[#100+-0.04000]
#105=[#525+[#526-#525]*0.12225]
#106=[#531+[#532-#531]*0.12225]
#100=[#105+[#106-#105]*0.66410]
X-9.16312 Y-2.93023 Z[#100+-0.04000]
#105=[#525+[#526-#525]*0.13114]
#106=[#531+[#532-#531]*0.13114]
#100=[#105+[#106-#105]*0.66067]
X-9.16443 Y-2.92687 Z[#100+-0.04000]
#105=[#525+[#526-#525]*0.13875]
#106=[#531+[#532-#531]*0.13875]
#100=[#105+[#106-#105]*0.65696]
X-9.16586 Y-2.92399 Z[#100+-0.04000]
#105=[#525+[#526-#525]*0.14691]
#106=[#531+[#532-#531]*0.14691]
#100=[#105+[#106-#105]*0.65208]
X-9.16773 Y-2.92090 Z[#100+-0.04000]
#105=[#525+[#526-#525]*0.15458]
#106=[#531+[#532-#531]*0.15458]
#100=[#105+[#106-#105]*0.64647]
X-9.16988 Y-2.91800 Z[#100+-0.04000]
#105=[#525+[#526-#525]*0.16094]
#106=[#531+[#532-#531]*0.16094]
#100=[#105+[#106-#105]*0.64093]
X-9.17201 Y-2.91559 Z[#100+-0.04000]
#105=[#525+[#526-#525]*0.16682]
#106=[#531+[#532-#531]*0.16682]
#100=[#105+[#106-#105]*0.63489]
X-9.17433 Y-2.91337 Z[#100+-0.04000]
#105=[#525+[#526-#525]*0.17218]
#106=[#531+[#532-#531]*0.17218]
#100=[#105+[#106-#105]*0.62840]
X-9.17682 Y-2.91134 Z[#100+-0.04000]
#105=[#525+[#526-#525]*0.17698]
#106=[#531+[#532-#531]*0.17698]
#100=[#105+[#106-#105]*0.62150]
X-9.17946 Y-2.90952 Z[#100+-0.04000]
#105=[#525+[#526-#525]*0.18120]
#106=[#531+[#532-#531]*0.18120]
#100=[#105+[#106-#105]*0.61424]
X-9.18225 Y-2.90792 Z[#100+-0.04000]
#105=[#525+[#526-#525]*0.18480]
#106=[#531+[#532-#531]*0.18480]
#100=[#105+[#106-#105]*0.60666]
X-9.18516 Y-2.90656 Z[#100+-0.04000]
#105=[#525+[#526-#525]*0.18809]
#106=[#531+[#532-#531]*0.18809]
#100=[#105+[#106-#105]*0.59782]
X-9.18855 Y-2.90531 Z[#100+-0.04000]
#105=[#525+[#526-#525]*0.19032]
#106=[#531+[#532-#531]*0.19032]
#100=[#105+[#106-#105]*0.58975]
X-9.19165 Y-2.90447 Z[#100+-0.04000]
#105=[#525+[#526-#525]*0.19201]
#106=[#531+[#532-#531]*0.19201]
#100=[#105+[#106-#105]*0.58048]
X-9.19521 Y-2.90383 Z[#100+-0.04000]
#105=[#525+[#526-#525]*0.19279]
#106=[#531+[#532-#531]*0.19279]
#100=[#105+[#106-#105]*0.57215]
X-9.19840 Y-2.90354 Z[#100+-0.04000]
#105=[#525+[#526-#525]*0.19288]
#106=[#531+[#532-#531]*0.19288]
#100=[#105+[#106-#105]*0.56378]
X-9.20162 Y-2.90351 Z[#100+-0.04000]
#105=[#525+[#526-#525]*0.19227]
#106=[#531+[#532-#531]*0.19227]
#100=[#105+[#106-#105]*0.55543]
X-9.20482 Y-2.90373 Z[#100+-0.04000]
#105=[#525+[#526-#525]*0.19098]
#106=[#531+[#532-#531]*0.19098]
#100=[#105+[#106-#105]*0.54716]
X-9.20799 Y-2.90422 Z[#100+-0.04000]
#105=[#525+[#526-#525]*0.18901]
#106=[#531+[#532-#531]*0.18901]
#100=[#105+[#106-#105]*0.53902]
X-9.21112 Y-2.90497 Z[#100+-0.04000]
#105=[#525+[#526-#525]*0.18599]
#106=[#531+[#532-#531]*0.18599]
#100=[#105+[#106-#105]*0.53009]
X-9.21455 Y-2.90611 Z[#100+-0.04000]
#105=[#525+[#526-#525]*0.18216]
#106=[#531+[#532-#531]*0.18216]
#100=[#105+[#106-#105]*0.52146]
X-9.21785 Y-2.90756 Z[#100+-0.04000]
#105=[#525+[#526-#525]*0.17698]
#106=[#531+[#532-#531]*0.17698]
#100=[#105+[#106-#105]*0.51234]
X-9.22136 Y-2.90952 Z[#100+-0.04000]
#105=[#525+[#526-#525]*0.17089]
#106=[#531+[#532-#531]*0.17089]
#100=[#105+[#106-#105]*0.50377]
X-9.22464 Y-2.91183 Z[#100+-0.04000]
#105=[#525+[#526-#525]*0.16394]
#106=[#531+[#532-#531]*0.16394]
#100=[#105+[#106-#105]*0.49587]
X-9.22768 Y-2.91446 Z[#100+-0.04000]
#100=[#525+[#531-#525]*0.33419]
X-9.28972 Y-2.97649 Z[#100+-0.04000]
#105=[#524+[#525-#524]*0.83671]
#106=[#530+[#531-#530]*0.83671]
#100=[#105+[#106-#105]*0.17315]
X-9.35152 Y-3.03829 Z[#100+-0.04000]
#100=[#525+[#531-#525]*0.17315]
X-9.35152 Y-2.97649 Z[#100+-0.04000]
#105=[#525+[#526-#525]*0.52931]
#106=[#531+[#532-#531]*0.52931]
#100=[#105+[#106-#105]*0.17315]
X-9.35152 Y-2.77619 Z[#100+-0.04000]
#105=[#525+[#526-#525]*0.54202]
#106=[#531+[#532-#531]*0.54202]
#100=[#105+[#106-#105]*0.17238]
X-9.35181 Y-2.77138 Z[#100+-0.04000]
#105=[#525+[#526-#525]*0.55350]
#106=[#531+[#532-#531]*0.55350]
#100=[#105+[#106-#105]*0.17034]
X-9.35260 Y-2.76704 Z[#100+-0.04000]
#105=[#525+[#526-#525]*0.56666]
#106=[#531+[#532-#531]*0.56666]
#100=[#105+[#106-#105]*0.16631]
X-9.35414 Y-2.76206 Z[#100+-0.04000]
#105=[#525+[#526-#525]*0.57350]
#106=[#531+[#532-#531]*0.57350]
#100=[#105+[#106-#105]*0.16344]
X-9.35524 Y-2.75947 Z[#100+-0.04000]
#105=[#525+[#526-#525]*0.58010]
#106=[#531+[#532-#531]*0.58010]
#100=[#105+[#106-#105]*0.16010]
X-9.35653 Y-2.75697 Z[#100+-0.04000]
#105=[#525+[#526-#525]*0.59251]
#106=[#531+[#532-#531]*0.59251]
#100=[#105+[#106-#105]*0.15206]
X-9.35961 Y-2.75228 Z[#100+-0.04000]
#105=[#525+[#526-#525]*0.60288]
#106=[#531+[#532-#531]*0.60288]
#100=[#105+[#106-#105]*0.14310]
X-9.36305 Y-2.74835 Z[#100+-0.04000]
#105=[#525+[#526-#525]*0.61196]
#106=[#531+[#532-#531]*0.61196]
#100=[#105+[#106-#105]*0.13287]
X-9.36697 Y-2.74491 Z[#100+-0.04000]
#105=[#525+[#526-#525]*0.62011]
#106=[#531+[#532-#531]*0.62011]
#100=[#105+[#106-#105]*0.12064]
X-9.37167 Y-2.74183 Z[#100+-0.04000]
#105=[#525+[#526-#525]*0.62603]
#106=[#531+[#532-#531]*0.62603]
#100=[#105+[#106-#105]*0.10836]
X-9.37638 Y-2.73959 Z[#100+-0.04000]
#105=[#525+[#526-#525]*0.63025]
#106=[#531+[#532-#531]*0.63025]
#100=[#105+[#106-#105]*0.09542]
X-9.38135 Y-2.73799 Z[#100+-0.04000]
#105=[#525+[#526-#525]*0.63179]
#106=[#531+[#532-#531]*0.63179]
#100=[#105+[#106-#105]*0.08826]
X-9.38410 Y-2.73741 Z[#100+-0.04000]
#105=[#525+[#526-#525]*0.63281]
#106=[#531+[#532-#531]*0.63281]
#100=[#105+[#106-#105]*0.08100]
X-9.38688 Y-2.73702 Z[#100+-0.04000]
#105=[#525+[#526-#525]*0.63330]
#106=[#531+[#532-#531]*0.63330]
#100=[#105+[#106-#105]*0.06742]
X-9.39209 Y-2.73684 Z[#100+-0.04000]
#105=[#525+[#526-#525]*0.63197]
#106=[#531+[#532-#531]*0.63197]
#100=[#105+[#106-#105]*0.05389]
X-9.39728 Y-2.73734 Z[#100+-0.04000]
#105=[#525+[#526-#525]*0.63050]
#106=[#531+[#532-#531]*0.63050]
#100=[#105+[#106-#105]*0.04671]
X-9.40004 Y-2.73790 Z[#100+-0.04000]
#105=[#525+[#526-#525]*0.62852]
#106=[#531+[#532-#531]*0.62852]
#100=[#105+[#106-#105]*0.03965]
X-9.40275 Y-2.73865 Z[#100+-0.04000]
#105=[#525+[#526-#525]*0.62603]
#106=[#531+[#532-#531]*0.62603]
#100=[#105+[#106-#105]*0.03275]
X-9.40540 Y-2.73959 Z[#100+-0.04000]
#105=[#525+[#526-#525]*0.62305]
#106=[#531+[#532-#531]*0.62305]
#100=[#105+[#106-#105]*0.02604]
X-9.40797 Y-2.74072 Z[#100+-0.04000]
#105=[#525+[#526-#525]*0.61626]
#106=[#531+[#532-#531]*0.61626]
#100=[#105+[#106-#105]*0.01421]
X-9.41251 Y-2.74329 Z[#100+-0.04000]
#105=[#525+[#526-#525]*0.60794]
#106=[#531+[#532-#531]*0.60794]
#100=[#105+[#106-#105]*0.00337]
X-9.41667 Y-2.74644 Z[#100+-0.04000]
#105=[#525+[#526-#525]*0.60455]
#106=[#531+[#532-#531]*0.60455]
#100=[#105+[#106-#105]*0.00000]
X-9.41796 Y-2.74772 Z[#100+-0.04000]
#105=[#519+[#520-#519]*0.59824]
#106=[#525+[#526-#525]*0.59824]
#100=[#105+[#106-#105]*0.99371]
X-9.42038 Y-2.75011 Z[#100+-0.04000]
#105=[#519+[#520-#519]*0.59081]
#106=[#525+[#526-#525]*0.59081]
#100=[#105+[#106-#105]*0.98780]
X-9.42264 Y-2.75292 Z[#100+-0.04000]
#105=[#519+[#520-#519]*0.58377]
#106=[#525+[#526-#525]*0.58377]
#100=[#105+[#106-#105]*0.98314]
X-9.42444 Y-2.75558 Z[#100+-0.04000]
#105=[#519+[#520-#519]*0.57541]
#106=[#525+[#526-#525]*0.57541]
#100=[#105+[#106-#105]*0.97858]
X-9.42618 Y-2.75875 Z[#100+-0.04000]
#105=[#519+[#520-#519]*0.56666]
#106=[#525+[#526-#525]*0.56666]
#100=[#105+[#106-#105]*0.97480]
X-9.42763 Y-2.76206 Z[#100+-0.04000]
#105=[#519+[#520-#519]*0.55862]
#106=[#525+[#526-#525]*0.55862]
#100=[#105+[#106-#105]*0.97212]
X-9.42866 Y-2.76510 Z[#100+-0.04000]
#105=[#519+[#520-#519]*0.54935]
#106=[#525+[#526-#525]*0.54935]
#100=[#105+[#106-#105]*0.96988]
X-9.42952 Y-2.76861 Z[#100+-0.04000]
#105=[#519+[#520-#519]*0.53991]
#106=[#525+[#526-#525]*0.53991]
#100=[#105+[#106-#105]*0.96850]
X-9.43005 Y-2.77218 Z[#100+-0.04000]
#105=[#519+[#520-#519]*0.53144]
#106=[#525+[#526-#525]*0.53144]
#100=[#105+[#106-#105]*0.96799]
X-9.43025 Y-2.77539 Z[#100+-0.04000]
#100=[#519+[#525-#519]*0.96798]
X-9.43025 Y-2.97649 Z[#100+-0.04000]
#105=[#518+[#519-#518]*0.20698]
#106=[#524+[#525-#524]*0.20698]
#100=[#105+[#106-#105]*0.96797]
X-9.43026 Y-3.27659 Z[#100+-0.04000]
#105=[#518+[#519-#518]*0.19429]
#106=[#524+[#525-#524]*0.19429]
#100=[#105+[#106-#105]*0.96886]
X-9.42991 Y-3.28139 Z[#100+-0.04000]
#105=[#518+[#519-#518]*0.18283]
#106=[#524+[#525-#524]*0.18283]
#100=[#105+[#106-#105]*0.97102]
X-9.42908 Y-3.28573 Z[#100+-0.04000]
#105=[#518+[#519-#518]*0.17069]
#106=[#524+[#525-#524]*0.17069]
#100=[#105+[#106-#105]*0.97480]
X-9.42763 Y-3.29032 Z[#100+-0.04000]
#105=[#518+[#519-#518]*0.16005]
#106=[#524+[#525-#524]*0.16005]
#100=[#105+[#106-#105]*0.97953]
X-9.42582 Y-3.29435 Z[#100+-0.04000]
#105=[#518+[#519-#518]*0.14914]
#106=[#524+[#525-#524]*0.14914]
#100=[#105+[#106-#105]*0.98599]
X-9.42334 Y-3.29848 Z[#100+-0.04000]
#105=[#518+[#519-#518]*0.13991]
#106=[#524+[#525-#524]*0.13991]
#100=[#105+[#106-#105]*0.99302]
X-9.42064 Y-3.30197 Z[#100+-0.04000]
#105=[#524+[#525-#524]*0.13269]
#106=[#530+[#531-#530]*0.13269]
#100=[#105+[#106-#105]*0.00000]
X-9.41796 Y-3.30470 Z[#100+-0.04000]
#105=[#524+[#525-#524]*0.13082]
#106=[#530+[#531-#530]*0.13082]
#100=[#105+[#106-#105]*0.00180]
X-9.41727 Y-3.30541 Z[#100+-0.04000]
#105=[#524+[#525-#524]*0.12350]
#106=[#530+[#531-#530]*0.12350]
#100=[#105+[#106-#105]*0.01076]
X-9.41383 Y-3.30818 Z[#100+-0.04000]
#105=[#524+[#525-#524]*0.11724]
#106=[#530+[#531-#530]*0.11724]
#100=[#105+[#106-#105]*0.02047]
X-9.41011 Y-3.31055 Z[#100+-0.04000]
#105=[#524+[#525-#524]*0.11213]
#106=[#530+[#531-#530]*0.11213]
#100=[#105+[#106-#105]*0.03081]
X-9.40614 Y-3.31249 Z[#100+-0.04000]
#105=[#524+[#525-#524]*0.10822]
#106=[#530+[#531-#530]*0.10822]
#100=[#105+[#106-#105]*0.04165]
X-9.40198 Y-3.31397 Z[#100+-0.04000]
#105=[#524+[#525-#524]*0.10539]
#106=[#530+[#531-#530]*0.10539]
#100=[#105+[#106-#105]*0.05389]
X-9.39728 Y-3.31504 Z[#100+-0.04000]
#105=[#524+[#525-#524]*0.10414]
#106=[#530+[#531-#530]*0.10414]
#100=[#105+[#106-#105]*0.06533]
X-9.39289 Y-3.31551 Z[#100+-0.04000]
#105=[#524+[#525-#524]*0.10420]
#106=[#530+[#531-#530]*0.10420]
#100=[#105+[#106-#105]*0.07683]
X-9.38848 Y-3.31549 Z[#100+-0.04000]
#105=[#524+[#525-#524]*0.10556]
#106=[#530+[#531-#530]*0.10556]
#100=[#105+[#106-#105]*0.08826]
X-9.38410 Y-3.31497 Z[#100+-0.04000]
#105=[#524+[#525-#524]*0.10822]
#106=[#530+[#531-#530]*0.10822]
#100=[#105+[#106-#105]*0.09946]
X-9.37980 Y-3.31397 Z[#100+-0.04000]
#105=[#524+[#525-#524]*0.11213]
#106=[#530+[#531-#530]*0.11213]
#100=[#105+[#106-#105]*0.11030]
X-9.37564 Y-3.31249 Z[#100+-0.04000]
#105=[#524+[#525-#524]*0.11724]
#106=[#530+[#531-#530]*0.11724]
#100=[#105+[#106-#105]*0.12064]
X-9.37167 Y-3.31055 Z[#100+-0.04000]
#105=[#524+[#525-#524]*0.12350]
#106=[#530+[#531-#530]*0.12350]
#100=[#105+[#106-#105]*0.13035]
X-9.36794 Y-3.30818 Z[#100+-0.04000]
#105=[#524+[#525-#524]*0.13082]
#106=[#530+[#531-#530]*0.13082]
#100=[#105+[#106-#105]*0.13931]
X-9.36450 Y-3.30541 Z[#100+-0.04000]
#105=[#524+[#525-#524]*0.13911]
#106=[#530+[#531-#530]*0.13911]
#100=[#105+[#106-#105]*0.14740]
X-9.36140 Y-3.30227 Z[#100+-0.04000]
#105=[#524+[#525-#524]*0.14827]
#106=[#530+[#531-#530]*0.14827]
#100=[#105+[#106-#105]*0.15453]
X-9.35866 Y-3.29881 Z[#100+-0.04000]
#105=[#524+[#525-#524]*0.15818]
#106=[#530+[#531-#530]*0.15818]
#100=[#105+[#106-#105]*0.16060]
X-9.35633 Y-3.29506 Z[#100+-0.04000]
#105=[#524+[#525-#524]*0.16872]
#106=[#530+[#531-#530]*0.16872]
#100=[#105+[#106-#105]*0.16554]
X-9.35444 Y-3.29107 Z[#100+-0.04000]
#105=[#524+[#525-#524]*0.17771]
#106=[#530+[#531-#530]*0.17771]
#100=[#105+[#106-#105]*0.16870]
X-9.35323 Y-3.28767 Z[#100+-0.04000]
#105=[#524+[#525-#524]*0.18697]
#106=[#530+[#531-#530]*0.18697]
#100=[#105+[#106-#105]*0.17102]
X-9.35233 Y-3.28416 Z[#100+-0.04000]
#105=[#524+[#525-#524]*0.19639]
#106=[#530+[#531-#530]*0.19639]
#100=[#105+[#106-#105]*0.17251]
X-9.35177 Y-3.28060 Z[#100+-0.04000]
#105=[#524+[#525-#524]*0.20592]
#106=[#530+[#531-#530]*0.20592]
#100=[#105+[#106-#105]*0.17313]
X-9.35153 Y-3.27699 Z[#100+-0.04000]
#105=[#524+[#525-#524]*0.54245]
#106=[#530+[#531-#530]*0.54245]
#100=[#105+[#106-#105]*0.17315]
X-9.35152 Y-3.14964 Z[#100+-0.04000]
#105=[#524+[#525-#524]*0.55300]
#106=[#530+[#531-#530]*0.55300]
#100=[#105+[#106-#105]*0.18355]
X-9.34753 Y-3.14565 Z[#100+-0.04000]
#105=[#524+[#525-#524]*0.14562]
#106=[#530+[#531-#530]*0.14562]
#100=[#105+[#106-#105]*0.48484]
X-9.23191 Y-3.29981 Z[#100+-0.04000]
#105=[#524+[#525-#524]*0.13669]
#106=[#530+[#531-#530]*0.13669]
#100=[#105+[#106-#105]*0.49225]
X-9.22906 Y-3.30319 Z[#100+-0.04000]
#105=[#524+[#525-#524]*0.12935]
#106=[#530+[#531-#530]*0.12935]
#100=[#105+[#106-#105]*0.49981]
X-9.22617 Y-3.30597 Z[#100+-0.04000]
#105=[#524+[#525-#524]*0.12223]
#106=[#530+[#531-#530]*0.12223]
#100=[#105+[#106-#105]*0.50891]
X-9.22267 Y-3.30866 Z[#100+-0.04000]
#105=[#524+[#525-#524]*0.11668]
#106=[#530+[#531-#530]*0.11668]
#100=[#105+[#106-#105]*0.51783]
X-9.21925 Y-3.31076 Z[#100+-0.04000]
#105=[#524+[#525-#524]*0.11209]
#106=[#530+[#531-#530]*0.11209]
#100=[#105+[#106-#105]*0.52726]
X-9.21563 Y-3.31250 Z[#100+-0.04000]
#105=[#524+[#525-#524]*0.10850]
#106=[#530+[#531-#530]*0.10850]
#100=[#105+[#106-#105]*0.53710]
X-9.21185 Y-3.31386 Z[#100+-0.04000]
#105=[#524+[#525-#524]*0.10593]
#106=[#530+[#531-#530]*0.10593]
#100=[#105+[#106-#105]*0.54725]
X-9.20796 Y-3.31483 Z[#100+-0.04000]
#105=[#524+[#525-#524]*0.10443]
#106=[#530+[#531-#530]*0.10443]
#100=[#105+[#106-#105]*0.55761]
X-9.20398 Y-3.31540 Z[#100+-0.04000]
#105=[#524+[#525-#524]*0.10401]
#106=[#530+[#531-#530]*0.10401]
#100=[#105+[#106-#105]*0.56806]
X-9.19997 Y-3.31556 Z[#100+-0.04000]
#105=[#524+[#525-#524]*0.10467]
#106=[#530+[#531-#530]*0.10467]
#100=[#105+[#106-#105]*0.57850]
X-9.19597 Y-3.31531 Z[#100+-0.04000]
#105=[#524+[#525-#524]*0.10663]
#106=[#530+[#531-#530]*0.10663]
#100=[#105+[#106-#105]*0.58984]
X-9.19162 Y-3.31456 Z[#100+-0.04000]
#105=[#524+[#525-#524]*0.10953]
#106=[#530+[#531-#530]*0.10953]
#100=[#105+[#106-#105]*0.59990]
X-9.18775 Y-3.31347 Z[#100+-0.04000]
#105=[#524+[#525-#524]*0.11344]
#106=[#530+[#531-#530]*0.11344]
#100=[#105+[#106-#105]*0.60962]
X-9.18402 Y-3.31199 Z[#100+-0.04000]
#105=[#524+[#525-#524]*0.11835]
#106=[#530+[#531-#530]*0.11835]
#100=[#105+[#106-#105]*0.61890]
X-9.18046 Y-3.31013 Z[#100+-0.04000]
#105=[#524+[#525-#524]*0.12418]
#106=[#530+[#531-#530]*0.12418]
#100=[#105+[#106-#105]*0.62764]
X-9.17711 Y-3.30793 Z[#100+-0.04000]
#105=[#524+[#525-#524]*0.13089]
#106=[#530+[#531-#530]*0.13089]
#100=[#105+[#106-#105]*0.63574]
X-9.17400 Y-3.30539 Z[#100+-0.04000]
#105=[#524+[#525-#524]*0.13918]
#106=[#530+[#531-#530]*0.13918]
#100=[#105+[#106-#105]*0.64383]
X-9.17090 Y-3.30225 Z[#100+-0.04000]
#105=[#524+[#525-#524]*0.14748]
#106=[#530+[#531-#530]*0.14748]
#100=[#105+[#106-#105]*0.65034]
X-9.16840 Y-3.29911 Z[#100+-0.04000]
#105=[#524+[#525-#524]*0.15367]
#106=[#530+[#531-#530]*0.15367]
#100=[#105+[#106-#105]*0.65439]
X-9.16684 Y-3.29676 Z[#100+-0.04000]
#105=[#524+[#525-#524]*0.16014]
#106=[#530+[#531-#530]*0.16014]
#100=[#105+[#106-#105]*0.65799]
X-9.16546 Y-3.29432 Z[#100+-0.04000]
#105=[#524+[#525-#524]*0.16685]
#106=[#530+[#531-#530]*0.16685]
#100=[#105+[#106-#105]*0.66113]
X-9.16426 Y-3.29178 Z[#100+-0.04000]
#105=[#524+[#525-#524]*0.17377]
#106=[#530+[#531-#530]*0.17377]
#100=[#105+[#106-#105]*0.66379]
X-9.16324 Y-3.28916 Z[#100+-0.04000]
#105=[#524+[#525-#524]*0.18086]
#106=[#530+[#531-#530]*0.18086]
#100=[#105+[#106-#105]*0.66595]
X-9.16241 Y-3.28647 Z[#100+-0.04000]
#105=[#524+[#525-#524]*0.18810]
#106=[#530+[#531-#530]*0.18810]
#100=[#105+[#106-#105]*0.66761]
X-9.16177 Y-3.28374 Z[#100+-0.04000]
#105=[#524+[#525-#524]*0.19543]
#106=[#530+[#531-#530]*0.19543]
#100=[#105+[#106-#105]*0.66876]
X-9.16133 Y-3.28096 Z[#100+-0.04000]
#105=[#524+[#525-#524]*0.20283]
#106=[#530+[#531-#530]*0.20283]
#100=[#105+[#106-#105]*0.66938]
X-9.16109 Y-3.27816 Z[#100+-0.04000]
#105=[#524+[#525-#524]*0.21026]
#106=[#530+[#531-#530]*0.21026]
#100=[#105+[#106-#105]*0.66949]
X-9.16105 Y-3.27535 Z[#100+-0.04000]
#105=[#524+[#525-#524]*0.21767]
#106=[#530+[#531-#530]*0.21767]
#100=[#105+[#106-#105]*0.66907]
X-9.16121 Y-3.27255 Z[#100+-0.04000]
#105=[#524+[#525-#524]*0.22504]
#106=[#530+[#531-#530]*0.22504]
#100=[#105+[#106-#105]*0.66814]
X-9.16157 Y-3.26976 Z[#100+-0.04000]
#105=[#524+[#525-#524]*0.23232]
#106=[#530+[#531-#530]*0.23232]
#100=[#105+[#106-#105]*0.66668]
X-9.16213 Y-3.26700 Z[#100+-0.04000]
#105=[#524+[#525-#524]*0.23947]
#106=[#530+[#531-#530]*0.23947]
#100=[#105+[#106-#105]*0.66472]
X-9.16288 Y-3.26430 Z[#100+-0.04000]
#105=[#524+[#525-#524]*0.24745]
#106=[#530+[#531-#530]*0.24745]
#100=[#105+[#106-#105]*0.66187]
X-9.16397 Y-3.26128 Z[#100+-0.04000]
#105=[#524+[#525-#524]*0.25422]
#106=[#530+[#531-#530]*0.25422]
#100=[#105+[#106-#105]*0.65885]
X-9.16513 Y-3.25872 Z[#100+-0.04000]
#105=[#524+[#525-#524]*0.26075]
#106=[#530+[#531-#530]*0.26075]
#100=[#105+[#106-#105]*0.65537]
X-9.16647 Y-3.25624 Z[#100+-0.04000]
#105=[#524+[#525-#524]*0.27046]
#106=[#530+[#531-#530]*0.27046]
#100=[#105+[#106-#105]*0.64900]
X-9.16891 Y-3.25257 Z[#100+-0.04000]
#105=[#524+[#525-#524]*0.70162]
#106=[#530+[#531-#530]*0.70162]
#100=[#105+[#106-#105]*0.33011]
X-9.29128 Y-3.08941 Z[#100+-0.04000]
#100=[#525+[#531-#525]*0.62433]
X-9.17838 Y-2.97649 Z[#100+-0.04000]
#105=[#525+[#526-#525]*0.01684]
#106=[#531+[#532-#531]*0.01684]
#100=[#105+[#106-#105]*0.64093]
X-9.17201 Y-2.97012 Z[#100+-0.04000]
#105=[#525+[#526-#525]*0.02320]
#106=[#531+[#532-#531]*0.02320]
#100=[#105+[#106-#105]*0.64647]
X-9.16988 Y-2.96772 Z[#100+-0.04000]
#105=[#525+[#526-#525]*0.03087]
#106=[#531+[#532-#531]*0.03087]
#100=[#105+[#106-#105]*0.65208]
X-9.16773 Y-2.96481 Z[#100+-0.04000]
#105=[#525+[#526-#525]*0.03810]
#106=[#531+[#532-#531]*0.03810]
#100=[#105+[#106-#105]*0.65646]
X-9.16605 Y-2.96208 Z[#100+-0.04000]
#105=[#525+[#526-#525]*0.04567]
#106=[#531+[#532-#531]*0.04567]
#100=[#105+[#106-#105]*0.66024]
X-9.16460 Y-2.95921 Z[#100+-0.04000]
#105=[#525+[#526-#525]*0.05353]
#106=[#531+[#532-#531]*0.05353]
#100=[#105+[#106-#105]*0.66341]
X-9.16338 Y-2.95624 Z[#100+-0.04000]
#105=[#525+[#526-#525]*0.06162]
#106=[#531+[#532-#531]*0.06162]
#100=[#105+[#106-#105]*0.66593]
X-9.16242 Y-2.95317 Z[#100+-0.04000]
#105=[#525+[#526-#525]*0.06990]
#106=[#531+[#532-#531]*0.06990]
#100=[#105+[#106-#105]*0.66779]
X-9.16170 Y-2.95004 Z[#100+-0.04000]
#105=[#525+[#526-#525]*0.07935]
#106=[#531+[#532-#531]*0.07935]
#100=[#105+[#106-#105]*0.66908]
X-9.16121 Y-2.94646 Z[#100+-0.04000]
#105=[#525+[#526-#525]*0.08783]
#106=[#531+[#532-#531]*0.08783]
#100=[#105+[#106-#105]*0.66951]
X-9.16104 Y-2.94326 Z[#100+-0.04000]
G04 P0 ( dwell for no time -- G64 should not smooth over this point )
G00 Z0.08000 ( retract )

G00 X-9.56580 Y-3.25220 ( rapid move to begin. )
G01 F180.00000
( Mill infeed pass 1/1 )
#105=[#518+[#519-#518]*0.27145]
#106=[#524+[#525-#524]*0.27145]
#100=[#105+[#106-#105]*0.61475]
G01 Z[-0.04000+#100]
G04 P0 ( dwell for no time -- G64 should not smooth over this point )
G01 F360.00000
#105=[#518+[#519-#518]*0.26191]
#106=[#524+[#525-#524]*0.26191]
#100=[#105+[#106-#105]*0.61436]
X-9.56595 Y-3.25581 Z[#100+-0.04000]
#105=[#518+[#519-#518]*0.25140]
#106=[#524+[#525-#524]*0.25140]
#100=[#105+[#106-#105]*0.61292]
X-9.56651 Y-3.25978 Z[#100+-0.04000]
#105=[#518+[#519-#518]*0.24212]
#106=[#524+[#525-#524]*0.24212]
#100=[#105+[#106-#105]*0.61073]
X-9.56735 Y-3.26329 Z[#100+-0.04000]
#105=[#518+[#519-#518]*0.23209]
#106=[#524+[#525-#524]*0.23209]
#100=[#105+[#106-#105]*0.60732]
X-9.56865 Y-3.26709 Z[#100+-0.04000]
#105=[#518+[#519-#518]*0.22340]
#106=[#524+[#525-#524]*0.22340]
#100=[#105+[#106-#105]*0.60340]
X-9.57016 Y-3.27038 Z[#100+-0.04000]
#105=[#518+[#519-#518]*0.21512]
#106=[#524+[#525-#524]*0.21512]
#100=[#105+[#106-#105]*0.59872]
X-9.57195 Y-3.27351 Z[#100+-0.04000]
#105=[#518+[#519-#518]*0.20647]
#106=[#524+[#525-#524]*0.20647]
#100=[#105+[#106-#105]*0.59266]
X-9.57428 Y-3.27678 Z[#100+-0.04000]
#105=[#518+[#519-#518]*0.19926]
#106=[#524+[#525-#524]*0.19926]
#100=[#105+[#106-#105]*0.58649]
X-9.57665 Y-3.27951 Z[#100+-0.04000]
#105=[#518+[#519-#518]*0.19265]
#106=[#524+[#525-#524]*0.19265]
#100=[#105+[#106-#105]*0.57970]
X-9.57925 Y-3.28201 Z[#100+-0.04000]
#105=[#518+[#519-#518]*0.18670]
#106=[#524+[#525-#524]*0.18670]
#100=[#105+[#106-#105]*0.57234]
X-9.58208 Y-3.28426 Z[#100+-0.04000]
#105=[#518+[#519-#518]*0.18201]
#106=[#524+[#525-#524]*0.18201]
#100=[#105+[#106-#105]*0.56536]
X-9.58475 Y-3.28604 Z[#100+-0.04000]
#105=[#518+[#519-#518]*0.17839]
#106=[#524+[#525-#524]*0.17839]
#100=[#105+[#106-#105]*0.55897]
X-9.58721 Y-3.28741 Z[#100+-0.04000]
#105=[#518+[#519-#518]*0.11499]
#106=[#524+[#525-#524]*0.11499]
#100=[#105+[#106-#105]*0.43395]
X-9.63518 Y-3.31140 Z[#100+-0.04000]
#105=[#518+[#519-#518]*0.11147]
#106=[#524+[#525-#524]*0.11147]
#100=[#105+[#106-#105]*0.42624]
X-9.63814 Y-3.31273 Z[#100+-0.04000]
#105=[#518+[#519-#518]*0.10861]
#106=[#524+[#525-#524]*0.10861]
#100=[#105+[#106-#105]*0.41827]
X-9.64120 Y-3.31381 Z[#100+-0.04000]
#105=[#518+[#519-#518]*0.10667]
#106=[#524+[#525-#524]*0.10667]
#100=[#105+[#106-#105]*0.41112]
X-9.64394 Y-3.31455 Z[#100+-0.04000]
#105=[#518+[#519-#518]*0.10524]
#106=[#524+[#525-#524]*0.10524]
#100=[#105+[#106-#105]*0.40386]
X-9.64673 Y-3.31509 Z[#100+-0.04000]
#105=[#518+[#519-#518]*0.10403]
#106=[#524+[#525-#524]*0.10403]
#100=[#105+[#106-#105]*0.39018]
X-9.65198 Y-3.31555 Z[#100+-0.04000]
#105=[#518+[#519-#518]*0.10401]
#106=[#524+[#525-#524]*0.10401]
#100=[#105+[#106-#105]*0.13883]
X-9.74844 Y-3.31556 Z[#100+-0.04000]
#105=[#518+[#519-#518]*0.10467]
#106=[#524+[#525-#524]*0.10467]
#100=[#105+[#106-#105]*0.12828]
X-9.75248 Y-3.31531 Z[#100+-0.04000]
#105=[#518+[#519-#518]*0.10643]
#106=[#524+[#525-#524]*0.10643]
#100=[#105+[#106-#105]*0.11786]
X-9.75648 Y-3.31464 Z[#100+-0.04000]
#105=[#518+[#519-#518]*0.10927]
#106=[#524+[#525-#524]*0.10927]
#100=[#105+[#106-#105]*0.10767]
X-9.76039 Y-3.31357 Z[#100+-0.04000]
#105=[#518+[#519-#518]*0.11272]
#106=[#524+[#525-#524]*0.11272]
#100=[#105+[#106-#105]*0.09879]
X-9.76380 Y-3.31226 Z[#100+-0.04000]
#105=[#518+[#519-#518]*0.16269]
#106=[#524+[#525-#524]*0.16269]
#100=[#105+[#106-#105]*0.00000]
X-9.80171 Y-3.29335 Z[#100+-0.04000]
#105=[#512+[#513-#512]*0.17791]
#106=[#518+[#519-#518]*0.17791]
#100=[#105+[#106-#105]*0.96991]
X-9.81326 Y-3.28759 Z[#100+-0.04000]
#105=[#512+[#513-#512]*0.18195]
#106=[#518+[#519-#518]*0.18195]
#100=[#105+[#106-#105]*0.96269]
X-9.81603 Y-3.28606 Z[#100+-0.04000]
#105=[#512+[#513-#512]*0.18780]
#106=[#518+[#519-#518]*0.18780]
#100=[#105+[#106-#105]*0.95414]
X-9.81931 Y-3.28385 Z[#100+-0.04000]
#105=[#512+[#513-#512]*0.19521]
#106=[#518+[#519-#518]*0.19521]
#100=[#105+[#106-#105]*0.94547]
X-9.82264 Y-3.28105 Z[#100+-0.04000]
#105=[#512+[#513-#512]*0.26105]
#106=[#518+[#519-#518]*0.26105]
#100=[#105+[#106-#105]*0.88048]
X-9.84758 Y-3.25613 Z[#100+-0.04000]
#105=[#512+[#513-#512]*0.27220]
#106=[#518+[#519-#518]*0.27220]
#100=[#105+[#106-#105]*0.87113]
X-9.85116 Y-3.25191 Z[#100+-0.04000]
#105=[#512+[#513-#512]*0.28456]
#106=[#518+[#519-#518]*0.28456]
#100=[#105+[#106-#105]*0.86341]
X-9.85413 Y-3.24723 Z[#100+-0.04000]
#105=[#512+[#513-#512]*0.41511]
#106=[#518+[#519-#518]*0.41511]
#100=[#105+[#106-#105]*0.79901]
X-9.87884 Y-3.19783 Z[#100+-0.04000]
#105=[#512+[#513-#512]*0.42502]
#106=[#518+[#519-#518]*0.42502]
#100=[#105+[#106-#105]*0.79498]
X-9.88039 Y-3.19408 Z[#100+-0.04000]
#105=[#512+[#513-#512]*0.43633]
#106=[#518+[#519-#518]*0.43633]
#100=[#105+[#106-#105]*0.79173]
X-9.88163 Y-3.18980 Z[#100+-0.04000]
#105=[#512+[#513-#512]*0.44688]
#106=[#518+[#519-#518]*0.44688]
#100=[#105+[#106-#105]*0.78989]
X-9.88234 Y-3.18581 Z[#100+-0.04000]
#105=[#512+[#513-#512]*0.45757]
#106=[#518+[#519-#518]*0.45757]
#100=[#105+[#106-#105]*0.78913]
X-9.88263 Y-3.18176 Z[#100+-0.04000]
#105=[#512+[#513-#512]*0.83722]
#106=[#518+[#519-#518]*0.83722]
#100=[#105+[#106-#105]*0.78911]
X-9.88264 Y-3.03810 Z[#100+-0.04000]
#105=[#512+[#513-#512]*0.84472]
#106=[#518+[#519-#518]*0.84472]
#100=[#105+[#106-#105]*0.78938]
X-9.88254 Y-3.03526 Z[#100+-0.04000]
#105=[#512+[#513-#512]*0.85217]
#106=[#518+[#519-#518]*0.85217]
#100=[#105+[#106-#105]*0.79017]
X-9.88223 Y-3.03243 Z[#100+-0.04000]
#105=[#512+[#513-#512]*0.85955]
#106=[#518+[#519-#518]*0.85955]
#100=[#105+[#106-#105]*0.79150]
X-9.88172 Y-3.02964 Z[#100+-0.04000]
#105=[#512+[#513-#512]*0.86784]
#106=[#518+[#519-#518]*0.86784]
#100=[#105+[#106-#105]*0.79365]
X-9.88089 Y-3.02650 Z[#100+-0.04000]
#105=[#512+[#513-#512]*0.87493]
#106=[#518+[#519-#518]*0.87493]
#100=[#105+[#106-#105]*0.79609]
X-9.87996 Y-3.02382 Z[#100+-0.04000]
#105=[#512+[#513-#512]*0.88182]
#106=[#518+[#519-#518]*0.88182]
#100=[#105+[#106-#105]*0.79901]
X-9.87884 Y-3.02122 Z[#100+-0.04000]
#100=[#513+[#519-#513]*0.85726]
X-9.85648 Y-2.97649 Z[#100+-0.04000]
#105=[#513+[#514-#513]*0.00958]
#106=[#519+[#520-#519]*0.00958]
#100=[#105+[#106-#105]*0.86199]
X-9.85467 Y-2.97287 Z[#100+-0.04000]
#105=[#513+[#514-#513]*0.02044]
#106=[#519+[#520-#519]*0.02044]
#100=[#105+[#106-#105]*0.86818]
X-9.85230 Y-2.96876 Z[#100+-0.04000]
#105=[#513+[#514-#513]*0.02805]
#106=[#519+[#520-#519]*0.02805]
#100=[#105+[#106-#105]*0.87364]
X-9.85020 Y-2.96588 Z[#100+-0.04000]
#105=[#513+[#514-#513]*0.03512]
#106=[#519+[#520-#519]*0.03512]
#100=[#105+[#106-#105]*0.87976]
X-9.84785 Y-2.96320 Z[#100+-0.04000]
#105=[#513+[#514-#513]*0.09954]
#106=[#519+[#520-#519]*0.09954]
#100=[#105+[#106-#105]*0.94325]
X-9.82349 Y-2.93883 Z[#100+-0.04000]
#105=[#513+[#514-#513]*0.10655]
#106=[#519+[#520-#519]*0.10655]
#100=[#105+[#106-#105]*0.95089]
X-9.82055 Y-2.93617 Z[#100+-0.04000]
#105=[#513+[#514-#513]*0.11275]
#106=[#519+[#520-#519]*0.11275]
#100=[#105+[#106-#105]*0.95920]
X-9.81737 Y-2.93383 Z[#100+-0.04000]
#105=[#513+[#514-#513]*0.11903]
#106=[#519+[#520-#519]*0.11903]
#100=[#105+[#106-#105]*0.96991]
X-9.81326 Y-2.93145 Z[#100+-0.04000]
#105=[#519+[#520-#519]*0.13427]
#106=[#525+[#526-#525]*0.13427]
#100=[#105+[#106-#105]*0.00000]
X-9.80171 Y-2.92568 Z[#100+-0.04000]
#105=[#519+[#520-#519]*0.18334]
#106=[#525+[#526-#525]*0.18334]
#100=[#105+[#106-#105]*0.09686]
X-9.76454 Y-2.90712 Z[#100+-0.04000]
#105=[#519+[#520-#519]*0.18623]
#106=[#525+[#526-#525]*0.18623]
#100=[#105+[#106-#105]*0.10368]
X-9.76192 Y-2.90602 Z[#100+-0.04000]
#105=[#519+[#520-#519]*0.18893]
#106=[#525+[#526-#525]*0.18893]
#100=[#105+[#106-#105]*0.11171]
X-9.75884 Y-2.90500 Z[#100+-0.04000]
#105=[#519+[#520-#519]*0.19073]
#106=[#525+[#526-#525]*0.19073]
#100=[#105+[#106-#105]*0.11889]
X-9.75609 Y-2.90432 Z[#100+-0.04000]
#105=[#519+[#520-#519]*0.19199]
#106=[#525+[#526-#525]*0.19199]
#100=[#105+[#106-#105]*0.12618]
X-9.75329 Y-2.90384 Z[#100+-0.04000]
#105=[#519+[#520-#519]*0.19293]
#106=[#525+[#526-#525]*0.19293]
#100=[#105+[#106-#105]*0.13988]
X-9.74803 Y-2.90349 Z[#100+-0.04000]
#105=[#519+[#520-#519]*0.19293]
#106=[#525+[#526-#525]*0.19293]
#100=[#105+[#106-#105]*0.38806]
X-9.65279 Y-2.90349 Z[#100+-0.04000]
#105=[#519+[#520-#519]*0.19248]
#106=[#525+[#526-#525]*0.19248]
#100=[#105+[#106-#105]*0.39756]
X-9.64915 Y-2.90366 Z[#100+-0.04000]
#105=[#519+[#520-#519]*0.19133]
#106=[#525+[#526-#525]*0.19133]
#100=[#105+[#106-#105]*0.40594]
X-9.64593 Y-2.90409 Z[#100+-0.04000]
#105=[#519+[#520-#519]*0.18800]
#106=[#525+[#526-#525]*0.18800]
#100=[#105+[#106-#105]*0.41927]
X-9.64082 Y-2.90535 Z[#100+-0.04000]
#105=[#519+[#520-#519]*0.18288]
#106=[#525+[#526-#525]*0.18288]
#100=[#105+[#106-#105]*0.43205]
X-9.63591 Y-2.90729 Z[#100+-0.04000]
#105=[#519+[#520-#519]*0.11903]
#106=[#525+[#526-#525]*0.11903]
#100=[#105+[#106-#105]*0.55803]
X-9.58757 Y-2.93145 Z[#100+-0.04000]
#105=[#519+[#520-#519]*0.11265]
#106=[#525+[#526-#525]*0.11265]
#100=[#105+[#106-#105]*0.56890]
X-9.58340 Y-2.93386 Z[#100+-0.04000]
#105=[#519+[#520-#519]*0.10428]
#106=[#525+[#526-#525]*0.10428]
#100=[#105+[#106-#105]*0.57970]
X-9.57925 Y-2.93703 Z[#100+-0.04000]
#105=[#519+[#520-#519]*0.09920]
#106=[#525+[#526-#525]*0.09920]
#100=[#105+[#106-#105]*0.58503]
X-9.57721 Y-2.93896 Z[#100+-0.04000]
#105=[#519+[#520-#519]*0.09374]
#106=[#525+[#526-#525]*0.09374]
#100=[#105+[#106-#105]*0.59000]
X-9.57530 Y-2.94102 Z[#100+-0.04000]
#105=[#519+[#520-#519]*0.08270]
#106=[#525+[#526-#525]*0.08270]
#100=[#105+[#106-#105]*0.59815]
X-9.57217 Y-2.94520 Z[#100+-0.04000]
#105=[#519+[#520-#519]*0.07068]
#106=[#525+[#526-#525]*0.07068]
#100=[#105+[#106-#105]*0.60480]
X-9.56962 Y-2.94975 Z[#100+-0.04000]
#105=[#519+[#520-#519]*0.06386]
#106=[#525+[#526-#525]*0.06386]
#100=[#105+[#106-#105]*0.60770]
X-9.56851 Y-2.95233 Z[#100+-0.04000]
#105=[#519+[#520-#519]*0.05685]
#106=[#525+[#526-#525]*0.05685]
#100=[#105+[#106-#105]*0.61012]
X-9.56758 Y-2.95498 Z[#100+-0.04000]
#105=[#519+[#520-#519]*0.04345]
#106=[#525+[#526-#525]*0.04345]
#100=[#105+[#106-#105]*0.61329]
X-9.56636 Y-2.96005 Z[#100+-0.04000]
#105=[#519+[#520-#519]*0.03608]
#106=[#525+[#526-#525]*0.03608]
#100=[#105+[#106-#105]*0.61426]
X-9.56599 Y-2.96284 Z[#100+-0.04000]
#105=[#519+[#520-#519]*0.02867]
#106=[#525+[#526-#525]*0.02867]
#100=[#105+[#106-#105]*0.61471]
X-9.56582 Y-2.96564 Z[#100+-0.04000]
#105=[#519+[#520-#519]*0.01490]
#106=[#525+[#526-#525]*0.01490]
#100=[#105+[#106-#105]*0.61417]
X-9.56603 Y-2.97086 Z[#100+-0.04000]
#105=[#519+[#520-#519]*0.00132]
#106=[#525+[#526-#525]*0.00132]
#100=[#105+[#106-#105]*0.61183]
X-9.56692 Y-2.97600 Z[#100+-0.04000]
#100=[#519+[#525-#519]*0.61142]
X-9.56708 Y-2.97649 Z[#100+-0.04000]
#105=[#518+[#519-#518]*0.98817]
#106=[#524+[#525-#524]*0.98817]
#100=[#105+[#106-#105]*0.60774]
X-9.56849 Y-2.98097 Z[#100+-0.04000]
#105=[#518+[#519-#518]*0.97569]
#106=[#524+[#525-#524]*0.97569]
#100=[#105+[#106-#105]*0.60197]
X-9.57071 Y-2.98569 Z[#100+-0.04000]
#105=[#518+[#519-#518]*0.96932]
#106=[#524+[#525-#524]*0.96932]
#100=[#105+[#106-#105]*0.59820]
X-9.57215 Y-2.98810 Z[#100+-0.04000]
#105=[#518+[#519-#518]*0.96324]
#106=[#524+[#525-#524]*0.96324]
#100=[#105+[#106-#105]*0.59400]
X-9.57377 Y-2.99040 Z[#100+-0.04000]
#105=[#518+[#519-#518]*0.95207]
#106=[#524+[#525-#524]*0.95207]
#100=[#105+[#106-#105]*0.58436]
X-9.57746 Y-2.99463 Z[#100+-0.04000]
#105=[#518+[#519-#518]*0.94304]
#106=[#524+[#525-#524]*0.94304]
#100=[#105+[#106-#105]*0.57409]
X-9.58140 Y-2.99805 Z[#100+-0.04000]
#105=[#518+[#519-#518]*0.93546]
#106=[#524+[#525-#524]*0.93546]
#100=[#105+[#106-#105]*0.56274]
X-9.58576 Y-3.00092 Z[#100+-0.04000]
#105=[#518+[#519-#518]*0.93203]
#106=[#524+[#525-#524]*0.93203]
#100=[#105+[#106-#105]*0.55624]
X-9.58826 Y-3.00222 Z[#100+-0.04000]
#105=[#518+[#519-#518]*0.92908]
#106=[#524+[#525-#524]*0.92908]
#100=[#105+[#106-#105]*0.54952]
X-9.59083 Y-3.00333 Z[#100+-0.04000]
#105=[#518+[#519-#518]*0.92631]
#106=[#524+[#525-#524]*0.92631]
#100=[#105+[#106-#105]*0.54160]
X-9.59387 Y-3.00438 Z[#100+-0.04000]
#105=[#518+[#519-#518]*0.92421]
#106=[#524+[#525-#524]*0.92421]
#100=[#105+[#106-#105]*0.53350]
X-9.59698 Y-3.00517 Z[#100+-0.04000]
#105=[#518+[#519-#518]*0.92279]
#106=[#524+[#525-#524]*0.92279]
#100=[#105+[#106-#105]*0.52525]
X-9.60015 Y-3.00571 Z[#100+-0.04000]
#105=[#518+[#519-#518]*0.92205]
#106=[#524+[#525-#524]*0.92205]
#100=[#105+[#106-#105]*0.51691]
X-9.60335 Y-3.00599 Z[#100+-0.04000]
#105=[#518+[#519-#518]*0.92204]
#106=[#524+[#525-#524]*0.92204]
#100=[#105+[#106-#105]*0.50749]
X-9.60696 Y-3.00599 Z[#100+-0.04000]
#105=[#518+[#519-#518]*0.92277]
#106=[#524+[#525-#524]*0.92277]
#100=[#105+[#106-#105]*0.49915]
X-9.61016 Y-3.00572 Z[#100+-0.04000]
#105=[#518+[#519-#518]*0.92419]
#106=[#524+[#525-#524]*0.92419]
#100=[#105+[#106-#105]*0.49090]
X-9.61333 Y-3.00518 Z[#100+-0.04000]
#105=[#518+[#519-#518]*0.92629]
#106=[#524+[#525-#524]*0.92629]
#100=[#105+[#106-#105]*0.48279]
X-9.61644 Y-3.00439 Z[#100+-0.04000]
#105=[#518+[#519-#518]*0.92905]
#106=[#524+[#525-#524]*0.92905]
#100=[#105+[#106-#105]*0.47488]
X-9.61948 Y-3.00334 Z[#100+-0.04000]
#105=[#518+[#519-#518]*0.93245]
#106=[#524+[#525-#524]*0.93245]
#100=[#105+[#106-#105]*0.46721]
X-9.62242 Y-3.00206 Z[#100+-0.04000]
#105=[#518+[#519-#518]*0.98485]
#106=[#524+[#525-#524]*0.98485]
#100=[#105+[#106-#105]*0.36385]
X-9.66209 Y-2.98223 Z[#100+-0.04000]
#105=[#518+[#519-#518]*0.98485]
#106=[#524+[#525-#524]*0.98485]
#100=[#105+[#106-#105]*0.16410]
X-9.73874 Y-2.98223 Z[#100+-0.04000]
#105=[#518+[#519-#518]*0.94047]
#106=[#524+[#525-#524]*0.94047]
#100=[#105+[#106-#105]*0.07657]
X-9.77233 Y-2.99902 Z[#100+-0.04000]
#105=[#518+[#519-#518]*0.90143]
#106=[#524+[#525-#524]*0.90143]
#100=[#105+[#106-#105]*0.03807]
X-9.78710 Y-3.01380 Z[#100+-0.04000]
#105=[#518+[#519-#518]*0.82422]
#106=[#524+[#525-#524]*0.82422]
#100=[#105+[#106-#105]*0.00000]
X-9.80171 Y-3.04301 Z[#100+-0.04000]
#105=[#512+[#513-#512]*0.81266]
#106=[#518+[#519-#518]*0.81266]
#100=[#105+[#106-#105]*0.99430]
X-9.80390 Y-3.04739 Z[#100+-0.04000]
#105=[#512+[#513-#512]*0.48427]
#106=[#518+[#519-#518]*0.48427]
#100=[#105+[#106-#105]*0.99430]
X-9.80390 Y-3.17166 Z[#100+-0.04000]
#105=[#518+[#519-#518]*0.47271]
#106=[#524+[#525-#524]*0.47271]
#100=[#105+[#106-#105]*0.00000]
X-9.80171 Y-3.17603 Z[#100+-0.04000]
#105=[#518+[#519-#518]*0.39550]
#106=[#524+[#525-#524]*0.39550]
#100=[#105+[#106-#105]*0.03807]
X-9.78710 Y-3.20525 Z[#100+-0.04000]
#105=[#518+[#519-#518]*0.35646]
#106=[#524+[#525-#524]*0.35646]
#100=[#105+[#106-#105]*0.07657]
X-9.77233 Y-3.22002 Z[#100+-0.04000]
#105=[#518+[#519-#518]*0.31208]
#106=[#524+[#525-#524]*0.31208]
#100=[#105+[#106-#105]*0.16410]
X-9.73874 Y-3.23682 Z[#100+-0.04000]
#105=[#518+[#519-#518]*0.31208]
#106=[#524+[#525-#524]*0.31208]
#100=[#105+[#106-#105]*0.36384]
X-9.66209 Y-3.23682 Z[#100+-0.04000]
#105=[#518+[#519-#518]*0.36448]
#106=[#524+[#525-#524]*0.36448]
#100=[#105+[#106-#105]*0.46721]
X-9.62242 Y-3.21699 Z[#100+-0.04000]
#105=[#518+[#519-#518]*0.36900]
#106=[#524+[#525-#524]*0.36900]
#100=[#105+[#106-#105]*0.47782]
X-9.61835 Y-3.21528 Z[#100+-0.04000]
#105=[#518+[#519-#518]*0.37274]
#106=[#524+[#525-#524]*0.37274]
#100=[#105+[#106-#105]*0.49090]
X-9.61333 Y-3.21386 Z[#100+-0.04000]
#105=[#518+[#519-#518]*0.37470]
#106=[#524+[#525-#524]*0.37470]
#100=[#105+[#106-#105]*0.50436]
X-9.60816 Y-3.21312 Z[#100+-0.04000]
#105=[#518+[#519-#518]*0.37483]
#106=[#524+[#525-#524]*0.37483]
#100=[#105+[#106-#105]*0.51795]
X-9.60295 Y-3.21307 Z[#100+-0.04000]
#105=[#518+[#519-#518]*0.37314]
#106=[#524+[#525-#524]*0.37314]
#100=[#105+[#106-#105]*0.53144]
X-9.59777 Y-3.21371 Z[#100+-0.04000]
#105=[#518+[#519-#518]*0.37092]
#106=[#524+[#525-#524]*0.37092]
#100=[#105+[#106-#105]*0.54060]
X-9.59426 Y-3.21455 Z[#100+-0.04000]
#105=[#518+[#519-#518]*0.36746]
#106=[#524+[#525-#524]*0.36746]
#100=[#105+[#106-#105]*0.55049]
X-9.59046 Y-3.21586 Z[#100+-0.04000]
#105=[#518+[#519-#518]*0.36300]
#106=[#524+[#525-#524]*0.36300]
#100=[#105+[#106-#105]*0.55998]
X-9.58682 Y-3.21755 Z[#100+-0.04000]
#105=[#518+[#519-#518]*0.35817]
#106=[#524+[#525-#524]*0.35817]
#100=[#105+[#106-#105]*0.56810]
X-9.58370 Y-3.21938 Z[#100+-0.04000]
#105=[#518+[#519-#518]*0.35194]
#106=[#524+[#525-#524]*0.35194]
#100=[#105+[#106-#105]*0.57657]
X-9.58046 Y-3.22173 Z[#100+-0.04000]
#105=[#518+[#519-#518]*0.34487]
#106=[#524+[#525-#524]*0.34487]
#100=[#105+[#106-#105]*0.58436]
X-9.57746 Y-3.22441 Z[#100+-0.04000]
#105=[#518+[#519-#518]*0.33784]
#106=[#524+[#525-#524]*0.33784]
#100=[#105+[#106-#105]*0.59074]
X-9.57502 Y-3.22707 Z[#100+-0.04000]
#105=[#518+[#519-#518]*0.32938]
#106=[#524+[#525-#524]*0.32938]
#100=[#105+[#106-#105]*0.59705]
X-9.57260 Y-3.23027 Z[#100+-0.04000]
#105=[#518+[#519-#518]*0.32124]
#106=[#524+[#525-#524]*0.32124]
#100=[#105+[#106-#105]*0.60197]
X-9.57071 Y-3.23335 Z[#100+-0.04000]
#105=[#518+[#519-#518]*0.31171]
#106=[#524+[#525-#524]*0.31171]
#100=[#105+[#106-#105]*0.60655]
X-9.56895 Y-3.23696 Z[#100+-0.04000]
#105=[#518+[#519-#518]*0.30175]
#106=[#524+[#525-#524]*0.30175]
#100=[#105+[#106-#105]*0.61015]
X-9.56757 Y-3.24073 Z[#100+-0.04000]
#105=[#518+[#519-#518]*0.29147]
#106=[#524+[#525-#524]*0.29147]
#100=[#105+[#106-#105]*0.61274]
X-9.56658 Y-3.24462 Z[#100+-0.04000]
#105=[#518+[#519-#518]*0.28204]
#106=[#524+[#525-#524]*0.28204]
#100=[#105+[#106-#105]*0.61417]
X-9.56603 Y-3.24819 Z[#100+-0.04000]
#105=[#518+[#519-#518]*0.27145]
#106=[#524+[#525-#524]*0.27145]
#100=[#105+[#106-#105]*0.61475]
X-9.56580 Y-3.25220 Z[#100+-0.04000]
G04 P0 ( dwell for no time -- G64 should not smooth over this point )
G00 Z0.08000 ( retract )

G00 X-10.01819 Y-3.01347 ( rapid move to begin. )
G01 F180.00000
( Mill infeed pass 1/1 )
#105=[#512+[#513-#512]*0.90228]
#106=[#518+[#519-#518]*0.90228]
#100=[#105+[#106-#105]*0.43587]
G01 Z[-0.04000+#100]
G04 P0 ( dwell for no time -- G64 should not smooth over this point )
G01 F360.00000
#105=[#512+[#513-#512]*0.20380]
#106=[#518+[#519-#518]*0.20380]
#100=[#105+[#106-#105]*0.43581]
X-10.01822 Y-3.27779 Z[#100+-0.04000]
#105=[#512+[#513-#512]*0.19429]
#106=[#518+[#519-#518]*0.19429]
#100=[#105+[#106-#105]*0.43499]
X-10.01853 Y-3.28139 Z[#100+-0.04000]
#105=[#512+[#513-#512]*0.18386]
#106=[#518+[#519-#518]*0.18386]
#100=[#105+[#106-#105]*0.43308]
X-10.01926 Y-3.28534 Z[#100+-0.04000]
#105=[#512+[#513-#512]*0.17468]
#106=[#518+[#519-#518]*0.17468]
#100=[#105+[#106-#105]*0.43048]
X-10.02026 Y-3.28881 Z[#100+-0.04000]
#105=[#512+[#513-#512]*0.16482]
#106=[#518+[#519-#518]*0.16482]
#100=[#105+[#106-#105]*0.42662]
X-10.02174 Y-3.29254 Z[#100+-0.04000]
#105=[#512+[#513-#512]*0.15633]
#106=[#518+[#519-#518]*0.15633]
#100=[#105+[#106-#105]*0.42232]
X-10.02339 Y-3.29576 Z[#100+-0.04000]
#105=[#512+[#513-#512]*0.14741]
#106=[#518+[#519-#518]*0.14741]
#100=[#105+[#106-#105]*0.41667]
X-10.02556 Y-3.29914 Z[#100+-0.04000]
#105=[#512+[#513-#512]*0.13991]
#106=[#518+[#519-#518]*0.13991]
#100=[#105+[#106-#105]*0.41083]
X-10.02780 Y-3.30197 Z[#100+-0.04000]
#105=[#512+[#513-#512]*0.13226]
#106=[#518+[#519-#518]*0.13226]
#100=[#105+[#106-#105]*0.40359]
X-10.03058 Y-3.30487 Z[#100+-0.04000]
#105=[#512+[#513-#512]*0.12670]
#106=[#518+[#519-#518]*0.12670]
#100=[#105+[#106-#105]*0.39726]
X-10.03301 Y-3.30697 Z[#100+-0.04000]
#105=[#512+[#513-#512]*0.12110]
#106=[#518+[#519-#518]*0.12110]
#100=[#105+[#106-#105]*0.38964]
X-10.03593 Y-3.30909 Z[#100+-0.04000]
#105=[#512+[#513-#512]*0.11623]
#106=[#518+[#519-#518]*0.11623]
#100=[#105+[#106-#105]*0.38155]
X-10.03904 Y-3.31093 Z[#100+-0.04000]
#105=[#512+[#513-#512]*0.11213]
#106=[#518+[#519-#518]*0.11213]
#100=[#105+[#106-#105]*0.37304]
X-10.04230 Y-3.31249 Z[#100+-0.04000]
#105=[#512+[#513-#512]*0.10884]
#106=[#518+[#519-#518]*0.10884]
#100=[#105+[#106-#105]*0.36421]
X-10.04569 Y-3.31373 Z[#100+-0.04000]
#105=[#512+[#513-#512]*0.10661]
#106=[#518+[#519-#518]*0.10661]
#100=[#105+[#106-#105]*0.35613]
X-10.04879 Y-3.31457 Z[#100+-0.04000]
#105=[#512+[#513-#512]*0.10492]
#106=[#518+[#519-#518]*0.10492]
#100=[#105+[#106-#105]*0.34686]
X-10.05235 Y-3.31521 Z[#100+-0.04000]
#105=[#512+[#513-#512]*0.10414]
#106=[#518+[#519-#518]*0.10414]
#100=[#105+[#106-#105]*0.33853]
X-10.05555 Y-3.31551 Z[#100+-0.04000]
#105=[#512+[#513-#512]*0.10405]
#106=[#518+[#519-#518]*0.10405]
#100=[#105+[#106-#105]*0.33016]
X-10.05876 Y-3.31554 Z[#100+-0.04000]
#105=[#512+[#513-#512]*0.10478]
#106=[#518+[#519-#518]*0.10478]
#100=[#105+[#106-#105]*0.32077]
X-10.06236 Y-3.31527 Z[#100+-0.04000]
#105=[#512+[#513-#512]*0.10616]
#106=[#518+[#519-#518]*0.10616]
#100=[#105+[#106-#105]*0.31252]
X-10.06553 Y-3.31474 Z[#100+-0.04000]
#105=[#512+[#513-#512]*0.10822]
#106=[#518+[#519-#518]*0.10822]
#100=[#105+[#106-#105]*0.30440]
X-10.06865 Y-3.31397 Z[#100+-0.04000]
#105=[#512+[#513-#512]*0.11094]
#106=[#518+[#519-#518]*0.11094]
#100=[#105+[#106-#105]*0.29647]
X-10.07169 Y-3.31293 Z[#100+-0.04000]
#105=[#512+[#513-#512]*0.11477]
#106=[#518+[#519-#518]*0.11477]
#100=[#105+[#106-#105]*0.28785]
X-10.07500 Y-3.31148 Z[#100+-0.04000]
#105=[#512+[#513-#512]*0.11884]
#106=[#518+[#519-#518]*0.11884]
#100=[#105+[#106-#105]*0.28050]
X-10.07782 Y-3.30994 Z[#100+-0.04000]
#105=[#512+[#513-#512]*0.12399]
#106=[#518+[#519-#518]*0.12399]
#100=[#105+[#106-#105]*0.27284]
X-10.08075 Y-3.30800 Z[#100+-0.04000]
#105=[#512+[#513-#512]*0.11360]
#106=[#518+[#519-#518]*0.11360]
#100=[#105+[#106-#105]*0.25223]
X-10.08866 Y-3.31193 Z[#100+-0.04000]
#105=[#512+[#513-#512]*0.10927]
#106=[#518+[#519-#518]*0.10927]
#100=[#105+[#106-#105]*0.24142]
X-10.09281 Y-3.31357 Z[#100+-0.04000]
#105=[#512+[#513-#512]*0.10579]
#106=[#518+[#519-#518]*0.10579]
#100=[#105+[#106-#105]*0.22813]
X-10.09791 Y-3.31488 Z[#100+-0.04000]
#105=[#512+[#513-#512]*0.10414]
#106=[#518+[#519-#518]*0.10414]
#100=[#105+[#106-#105]*0.21449]
X-10.10315 Y-3.31551 Z[#100+-0.04000]
#105=[#512+[#513-#512]*0.10405]
#106=[#518+[#519-#518]*0.10405]
#100=[#105+[#106-#105]*0.00000]
X-10.18546 Y-3.31554 Z[#100+-0.04000]
#105=[#506+[#507-#506]*0.10400]
#106=[#512+[#513-#512]*0.10400]
#100=[#105+[#106-#105]*0.89898]
X-10.22422 Y-3.31556 Z[#100+-0.04000]
#105=[#506+[#507-#506]*0.10445]
#106=[#512+[#513-#512]*0.10445]
#100=[#105+[#106-#105]*0.88948]
X-10.22787 Y-3.31539 Z[#100+-0.04000]
#105=[#506+[#507-#506]*0.10579]
#106=[#512+[#513-#512]*0.10579]
#100=[#105+[#106-#105]*0.88007]
X-10.23148 Y-3.31488 Z[#100+-0.04000]
#105=[#506+[#507-#506]*0.10800]
#106=[#512+[#513-#512]*0.10800]
#100=[#105+[#106-#105]*0.87081]
X-10.23503 Y-3.31405 Z[#100+-0.04000]
#105=[#506+[#507-#506]*0.11108]
#106=[#512+[#513-#512]*0.11108]
#100=[#105+[#106-#105]*0.86180]
X-10.23849 Y-3.31288 Z[#100+-0.04000]
#105=[#506+[#507-#506]*0.11499]
#106=[#512+[#513-#512]*0.11499]
#100=[#105+[#106-#105]*0.85310]
X-10.24183 Y-3.31140 Z[#100+-0.04000]
#105=[#506+[#507-#506]*0.17938]
#106=[#512+[#513-#512]*0.17938]
#100=[#105+[#106-#105]*0.72622]
X-10.29052 Y-3.28704 Z[#100+-0.04000]
#105=[#506+[#507-#506]*0.18371]
#106=[#512+[#513-#512]*0.18371]
#100=[#105+[#106-#105]*0.71901]
X-10.29328 Y-3.28540 Z[#100+-0.04000]
#105=[#506+[#507-#506]*0.18798]
#106=[#512+[#513-#512]*0.18798]
#100=[#105+[#106-#105]*0.71301]
X-10.29559 Y-3.28378 Z[#100+-0.04000]
#105=[#506+[#507-#506]*0.19338]
#106=[#512+[#513-#512]*0.19338]
#100=[#105+[#106-#105]*0.70654]
X-10.29807 Y-3.28174 Z[#100+-0.04000]
#105=[#506+[#507-#506]*0.19930]
#106=[#512+[#513-#512]*0.19930]
#100=[#105+[#106-#105]*0.70052]
X-10.30038 Y-3.27950 Z[#100+-0.04000]
#105=[#506+[#507-#506]*0.20991]
#106=[#512+[#513-#512]*0.20991]
#100=[#105+[#106-#105]*0.69182]
X-10.30372 Y-3.27548 Z[#100+-0.04000]
#105=[#506+[#507-#506]*0.22160]
#106=[#512+[#513-#512]*0.22160]
#100=[#105+[#106-#105]*0.68458]
X-10.30650 Y-3.27106 Z[#100+-0.04000]
#105=[#506+[#507-#506]*0.35317]
#106=[#512+[#513-#512]*0.35317]
#100=[#105+[#106-#105]*0.61971]
X-10.33139 Y-3.22127 Z[#100+-0.04000]
#105=[#506+[#507-#506]*0.36413]
#106=[#512+[#513-#512]*0.36413]
#100=[#105+[#106-#105]*0.61544]
X-10.33303 Y-3.21712 Z[#100+-0.04000]
#105=[#506+[#507-#506]*0.37446]
#106=[#512+[#513-#512]*0.37446]
#100=[#105+[#106-#105]*0.61264]
X-10.33410 Y-3.21321 Z[#100+-0.04000]
#105=[#506+[#507-#506]*0.38503]
#106=[#512+[#513-#512]*0.38503]
#100=[#105+[#106-#105]*0.61091]
X-10.33477 Y-3.20921 Z[#100+-0.04000]
#105=[#506+[#507-#506]*0.39572]
#106=[#512+[#513-#512]*0.39572]
#100=[#105+[#106-#105]*0.61026]
X-10.33502 Y-3.20517 Z[#100+-0.04000]
#105=[#506+[#507-#506]*0.52478]
#106=[#512+[#513-#512]*0.52478]
#100=[#105+[#106-#105]*0.61028]
X-10.33501 Y-3.15633 Z[#100+-0.04000]
#105=[#506+[#507-#506]*0.53759]
#106=[#512+[#513-#512]*0.53759]
#100=[#105+[#106-#105]*0.61132]
X-10.33461 Y-3.15148 Z[#100+-0.04000]
#105=[#506+[#507-#506]*0.55017]
#106=[#512+[#513-#512]*0.55017]
#100=[#105+[#106-#105]*0.61391]
X-10.33362 Y-3.14672 Z[#100+-0.04000]
#105=[#506+[#507-#506]*0.55934]
#106=[#512+[#513-#512]*0.55934]
#100=[#105+[#106-#105]*0.61685]
X-10.33249 Y-3.14325 Z[#100+-0.04000]
#105=[#506+[#507-#506]*0.56820]
#106=[#512+[#513-#512]*0.56820]
#100=[#105+[#106-#105]*0.62062]
X-10.33104 Y-3.13990 Z[#100+-0.04000]
#105=[#506+[#507-#506]*0.69500]
#106=[#512+[#513-#512]*0.69500]
#100=[#105+[#106-#105]*0.68313]
X-10.30705 Y-3.09192 Z[#100+-0.04000]
#105=[#506+[#507-#506]*0.70602]
#106=[#512+[#513-#512]*0.70602]
#100=[#105+[#106-#105]*0.68943]
X-10.30464 Y-3.08774 Z[#100+-0.04000]
#105=[#506+[#507-#506]*0.71538]
#106=[#512+[#513-#512]*0.71538]
#100=[#105+[#106-#105]*0.69633]
X-10.30199 Y-3.08420 Z[#100+-0.04000]
#105=[#506+[#507-#506]*0.72241]
#106=[#512+[#513-#512]*0.72241]
#100=[#105+[#106-#105]*0.70272]
X-10.29954 Y-3.08154 Z[#100+-0.04000]
#105=[#506+[#507-#506]*0.72881]
#106=[#512+[#513-#512]*0.72881]
#100=[#105+[#106-#105]*0.70972]
X-10.29685 Y-3.07912 Z[#100+-0.04000]
#105=[#506+[#507-#506]*0.73513]
#106=[#512+[#513-#512]*0.73513]
#100=[#105+[#106-#105]*0.71814]
X-10.29362 Y-3.07673 Z[#100+-0.04000]
#105=[#506+[#507-#506]*0.74005]
#106=[#512+[#513-#512]*0.74005]
#100=[#105+[#106-#105]*0.72622]
X-10.29052 Y-3.07486 Z[#100+-0.04000]
#105=[#506+[#507-#506]*0.80538]
#106=[#512+[#513-#512]*0.80538]
#100=[#105+[#106-#105]*0.85500]
X-10.24110 Y-3.05014 Z[#100+-0.04000]
#105=[#506+[#507-#506]*0.80982]
#106=[#512+[#513-#512]*0.80982]
#100=[#105+[#106-#105]*0.86577]
X-10.23697 Y-3.04846 Z[#100+-0.04000]
#105=[#506+[#507-#506]*0.81276]
#106=[#512+[#513-#512]*0.81276]
#100=[#105+[#106-#105]*0.87593]
X-10.23307 Y-3.04735 Z[#100+-0.04000]
#105=[#506+[#507-#506]*0.81475]
#106=[#512+[#513-#512]*0.81475]
#100=[#105+[#106-#105]*0.88738]
X-10.22867 Y-3.04660 Z[#100+-0.04000]
#105=[#506+[#507-#506]*0.81541]
#106=[#512+[#513-#512]*0.81541]
#100=[#105+[#106-#105]*0.89793]
X-10.22463 Y-3.04635 Z[#100+-0.04000]
#105=[#512+[#513-#512]*0.81542]
#106=[#518+[#519-#518]*0.81542]
#100=[#105+[#106-#105]*0.00000]
X-10.18546 Y-3.04634 Z[#100+-0.04000]
#105=[#512+[#513-#512]*0.81542]
#106=[#518+[#519-#518]*0.81542]
#100=[#105+[#106-#105]*0.18499]
X-10.11447 Y-3.04634 Z[#100+-0.04000]
#105=[#512+[#513-#512]*0.83860]
#106=[#518+[#519-#518]*0.83860]
#100=[#105+[#106-#105]*0.23070]
X-10.09692 Y-3.03757 Z[#100+-0.04000]
#105=[#512+[#513-#512]*0.87558]
#106=[#518+[#519-#518]*0.87558]
#100=[#105+[#106-#105]*0.23070]
X-10.09692 Y-3.02358 Z[#100+-0.04000]
#105=[#512+[#513-#512]*0.94843]
#106=[#518+[#519-#518]*0.94843]
#100=[#105+[#106-#105]*0.19478]
X-10.11071 Y-2.99601 Z[#100+-0.04000]
#105=[#512+[#513-#512]*0.98485]
#106=[#518+[#519-#518]*0.98485]
#100=[#105+[#106-#105]*0.12295]
X-10.13828 Y-2.98223 Z[#100+-0.04000]
#105=[#512+[#513-#512]*0.98485]
#106=[#518+[#519-#518]*0.98485]
#100=[#105+[#106-#105]*0.00000]
X-10.18546 Y-2.98223 Z[#100+-0.04000]
#105=[#506+[#507-#506]*0.98485]
#106=[#512+[#513-#512]*0.98485]
#100=[#105+[#106-#105]*0.92320]
X-10.21493 Y-2.98223 Z[#100+-0.04000]
#105=[#506+[#507-#506]*0.93199]
#106=[#512+[#513-#512]*0.93199]
#100=[#105+[#106-#105]*0.81889]
X-10.25496 Y-3.00223 Z[#100+-0.04000]
#105=[#506+[#507-#506]*0.92830]
#106=[#512+[#513-#512]*0.92830]
#100=[#105+[#106-#105]*0.81021]
X-10.25829 Y-3.00363 Z[#100+-0.04000]
#105=[#506+[#507-#506]*0.92542]
#106=[#512+[#513-#512]*0.92542]
#100=[#105+[#106-#105]*0.80123]
X-10.26173 Y-3.00472 Z[#100+-0.04000]
#105=[#506+[#507-#506]*0.92340]
#106=[#512+[#513-#512]*0.92340]
#100=[#105+[#106-#105]*0.79203]
X-10.26526 Y-3.00548 Z[#100+-0.04000]
#105=[#506+[#507-#506]*0.92232]
#106=[#512+[#513-#512]*0.92232]
#100=[#105+[#106-#105]*0.78373]
X-10.26845 Y-3.00589 Z[#100+-0.04000]
#105=[#506+[#507-#506]*0.92194]
#106=[#512+[#513-#512]*0.92194]
#100=[#105+[#106-#105]*0.77432]
X-10.27206 Y-3.00603 Z[#100+-0.04000]
#105=[#506+[#507-#506]*0.92243]
#106=[#512+[#513-#512]*0.92243]
#100=[#105+[#106-#105]*0.76492]
X-10.27567 Y-3.00585 Z[#100+-0.04000]
#105=[#506+[#507-#506]*0.92379]
#106=[#512+[#513-#512]*0.92379]
#100=[#105+[#106-#105]*0.75560]
X-10.27924 Y-3.00533 Z[#100+-0.04000]
#105=[#506+[#507-#506]*0.92601]
#106=[#512+[#513-#512]*0.92601]
#100=[#105+[#106-#105]*0.74645]
X-10.28276 Y-3.00449 Z[#100+-0.04000]
#105=[#506+[#507-#506]*0.92870]
#106=[#512+[#513-#512]*0.92870]
#100=[#105+[#106-#105]*0.73851]
X-10.28580 Y-3.00348 Z[#100+-0.04000]
#105=[#506+[#507-#506]*0.93249]
#106=[#512+[#513-#512]*0.93249]
#100=[#105+[#106-#105]*0.72987]
X-10.28912 Y-3.00204 Z[#100+-0.04000]
#105=[#506+[#507-#506]*0.93876]
#106=[#512+[#513-#512]*0.93876]
#100=[#105+[#106-#105]*0.71895]
X-10.29331 Y-2.99967 Z[#100+-0.04000]
#105=[#506+[#507-#506]*0.94566]
#106=[#512+[#513-#512]*0.94566]
#100=[#105+[#106-#105]*0.70967]
X-10.29687 Y-2.99706 Z[#100+-0.04000]
#105=[#506+[#507-#506]*0.95434]
#106=[#512+[#513-#512]*0.95434]
#100=[#105+[#106-#105]*0.70049]
X-10.30039 Y-2.99377 Z[#100+-0.04000]
#105=[#506+[#507-#506]*0.96409]
#106=[#512+[#513-#512]*0.96409]
#100=[#105+[#106-#105]*0.69242]
X-10.30349 Y-2.99008 Z[#100+-0.04000]
#105=[#506+[#507-#506]*0.97476]
#106=[#512+[#513-#512]*0.97476]
#100=[#105+[#106-#105]*0.68559]
X-10.30611 Y-2.98604 Z[#100+-0.04000]
#105=[#506+[#507-#506]*0.98620]
#106=[#512+[#513-#512]*0.98620]
#100=[#105+[#106-#105]*0.68009]
X-10.30822 Y-2.98171 Z[#100+-0.04000]
#105=[#506+[#507-#506]*0.99722]
#106=[#512+[#513-#512]*0.99722]
#100=[#105+[#106-#105]*0.67630]
X-10.30968 Y-2.97755 Z[#100+-0.04000]
#100=[#507+[#513-#507]*0.67569]
X-10.30991 Y-2.97649 Z[#100+-0.04000]
#105=[#507+[#508-#507]*0.00964]
#106=[#513+[#514-#513]*0.00964]
#100=[#105+[#106-#105]*0.67357]
X-10.31072 Y-2.97285 Z[#100+-0.04000]
#105=[#507+[#508-#507]*0.02231]
#106=[#513+[#514-#513]*0.02231]
#100=[#105+[#106-#105]*0.67236]
X-10.31119 Y-2.96805 Z[#100+-0.04000]
#105=[#507+[#508-#507]*0.03503]
#106=[#513+[#514-#513]*0.03503]
#100=[#105+[#106-#105]*0.67269]
X-10.31106 Y-2.96324 Z[#100+-0.04000]
#105=[#507+[#508-#507]*0.04762]
#106=[#513+[#514-#513]*0.04762]
#100=[#105+[#106-#105]*0.67454]
X-10.31035 Y-2.95847 Z[#100+-0.04000]
#105=[#507+[#508-#507]*0.05988]
#106=[#513+[#514-#513]*0.05988]
#100=[#105+[#106-#105]*0.67790]
X-10.30906 Y-2.95384 Z[#100+-0.04000]
#105=[#507+[#508-#507]*0.07163]
#106=[#513+[#514-#513]*0.07163]
#100=[#105+[#106-#105]*0.68271]
X-10.30722 Y-2.94939 Z[#100+-0.04000]
#105=[#507+[#508-#507]*0.08270]
#106=[#513+[#514-#513]*0.08270]
#100=[#105+[#106-#105]*0.68890]
X-10.30484 Y-2.94520 Z[#100+-0.04000]
#105=[#507+[#508-#507]*0.09211]
#106=[#513+[#514-#513]*0.09211]
#100=[#105+[#106-#105]*0.69570]
X-10.30223 Y-2.94164 Z[#100+-0.04000]
#105=[#507+[#508-#507]*0.10142]
#106=[#513+[#514-#513]*0.10142]
#100=[#105+[#106-#105]*0.70426]
X-10.29895 Y-2.93811 Z[#100+-0.04000]
#105=[#507+[#508-#507]*0.10634]
#106=[#513+[#514-#513]*0.10634]
#100=[#105+[#106-#105]*0.70975]
X-10.29684 Y-2.93625 Z[#100+-0.04000]
#105=[#507+[#508-#507]*0.11085]
#106=[#513+[#514-#513]*0.11085]
#100=[#105+[#106-#105]*0.71556]
X-10.29461 Y-2.93455 Z[#100+-0.04000]
#105=[#507+[#508-#507]*0.11547]
#106=[#513+[#514-#513]*0.11547]
#100=[#105+[#106-#105]*0.72258]
X-10.29191 Y-2.93280 Z[#100+-0.04000]
#105=[#507+[#508-#507]*0.11903]
#106=[#513+[#514-#513]*0.11903]
#100=[#105+[#106-#105]*0.72901]
X-10.28945 Y-2.93145 Z[#100+-0.04000]
#105=[#507+[#508-#507]*0.18288]
#106=[#513+[#514-#513]*0.18288]
#100=[#105+[#106-#105]*0.85500]
X-10.24110 Y-2.90729 Z[#100+-0.04000]
#105=[#507+[#508-#507]*0.18800]
#106=[#513+[#514-#513]*0.18800]
#100=[#105+[#106-#105]*0.86777]
X-10.23620 Y-2.90535 Z[#100+-0.04000]
#105=[#507+[#508-#507]*0.19114]
#106=[#513+[#514-#513]*0.19114]
#100=[#105+[#106-#105]*0.88007]
X-10.23148 Y-2.90416 Z[#100+-0.04000]
#105=[#507+[#508-#507]*0.19238]
#106=[#513+[#514-#513]*0.19238]
#100=[#105+[#106-#105]*0.88843]
X-10.22827 Y-2.90369 Z[#100+-0.04000]
#105=[#507+[#508-#507]*0.19292]
#106=[#513+[#514-#513]*0.19292]
#100=[#105+[#106-#105]*0.89793]
X-10.22463 Y-2.90349 Z[#100+-0.04000]
#105=[#513+[#514-#513]*0.19292]
#106=[#519+[#520-#519]*0.19292]
#100=[#105+[#106-#105]*0.00000]
X-10.18546 Y-2.90349 Z[#100+-0.04000]
#105=[#513+[#514-#513]*0.19292]
#106=[#519+[#520-#519]*0.19292]
#100=[#105+[#106-#105]*0.14822]
X-10.12858 Y-2.90349 Z[#100+-0.04000]
#105=[#513+[#514-#513]*0.19199]
#106=[#519+[#520-#519]*0.19199]
#100=[#105+[#106-#105]*0.16086]
X-10.12373 Y-2.90384 Z[#100+-0.04000]
#105=[#513+[#514-#513]*0.18950]
#106=[#519+[#520-#519]*0.18950]
#100=[#105+[#106-#105]*0.17330]
X-10.11895 Y-2.90478 Z[#100+-0.04000]
#105=[#513+[#514-#513]*0.18623]
#106=[#519+[#520-#519]*0.18623]
#100=[#105+[#106-#105]*0.18336]
X-10.11509 Y-2.90602 Z[#100+-0.04000]
#105=[#513+[#514-#513]*0.18242]
#106=[#519+[#520-#519]*0.18242]
#100=[#105+[#106-#105]*0.19210]
X-10.11174 Y-2.90746 Z[#100+-0.04000]
#105=[#513+[#514-#513]*0.11806]
#106=[#519+[#520-#519]*0.11806]
#100=[#105+[#106-#105]*0.31900]
X-10.06304 Y-2.93182 Z[#100+-0.04000]
#105=[#513+[#514-#513]*0.11380]
#106=[#519+[#520-#519]*0.11380]
#100=[#105+[#106-#105]*0.32625]
X-10.06026 Y-2.93343 Z[#100+-0.04000]
#105=[#513+[#514-#513]*0.10895]
#106=[#519+[#520-#519]*0.10895]
#100=[#105+[#106-#105]*0.33314]
X-10.05762 Y-2.93526 Z[#100+-0.04000]
#105=[#513+[#514-#513]*0.10284]
#106=[#519+[#520-#519]*0.10284]
#100=[#105+[#106-#105]*0.34039]
X-10.05483 Y-2.93758 Z[#100+-0.04000]
#105=[#513+[#514-#513]*0.09686]
#106=[#519+[#520-#519]*0.09686]
#100=[#105+[#106-#105]*0.34634]
X-10.05255 Y-2.93984 Z[#100+-0.04000]
#105=[#513+[#514-#513]*0.08616]
#106=[#519+[#520-#519]*0.08616]
#100=[#105+[#106-#105]*0.35494]
X-10.04925 Y-2.94389 Z[#100+-0.04000]
#105=[#513+[#514-#513]*0.07439]
#106=[#519+[#520-#519]*0.07439]
#100=[#105+[#106-#105]*0.36206]
X-10.04652 Y-2.94834 Z[#100+-0.04000]
#100=[#513+[#519-#513]*0.39872]
X-10.03245 Y-2.97649 Z[#100+-0.04000]
#105=[#512+[#513-#512]*0.94377]
#106=[#518+[#519-#518]*0.94377]
#100=[#105+[#106-#105]*0.42644]
X-10.02181 Y-2.99777 Z[#100+-0.04000]
#105=[#512+[#513-#512]*0.93382]
#106=[#518+[#519-#518]*0.93382]
#100=[#105+[#106-#105]*0.43037]
X-10.02030 Y-3.00154 Z[#100+-0.04000]
#105=[#512+[#513-#512]*0.92352]
#106=[#518+[#519-#518]*0.92352]
#100=[#105+[#106-#105]*0.43327]
X-10.01919 Y-3.00544 Z[#100+-0.04000]
#105=[#512+[#513-#512]*0.91297]
#106=[#518+[#519-#518]*0.91297]
#100=[#105+[#106-#105]*0.43511]
X-10.01848 Y-3.00943 Z[#100+-0.04000]
#105=[#512+[#513-#512]*0.90228]
#106=[#518+[#519-#518]*0.90228]
#100=[#105+[#106-#105]*0.43587]
X-10.01819 Y-3.01347 Z[#100+-0.04000]
G04 P0 ( dwell for no time -- G64 should not smooth over this point )
G00 Z0.08000 ( retract )

G00 X-10.09692 Y-3.22805 ( rapid move to begin. )
G01 F180.00000
( Mill infeed pass 1/1 )
#105=[#512+[#513-#512]*0.33526]
#106=[#518+[#519-#518]*0.33526]
#100=[#105+[#106-#105]*0.23070]
G01 Z[-0.04000+#100]
G04 P0 ( dwell for no time -- G64 should not smooth over this point )
G01 F360.00000
#105=[#512+[#513-#512]*0.60966]
#106=[#518+[#519-#518]*0.60966]
#100=[#105+[#106-#105]*0.23070]
X-10.09692 Y-3.12421 Z[#100+-0.04000]
#105=[#512+[#513-#512]*0.60801]
#106=[#518+[#519-#518]*0.60801]
#100=[#105+[#106-#105]*0.22081]
X-10.10072 Y-3.12483 Z[#100+-0.04000]
#105=[#512+[#513-#512]*0.60735]
#106=[#518+[#519-#518]*0.60735]
#100=[#105+[#106-#105]*0.21027]
X-10.10477 Y-3.12508 Z[#100+-0.04000]
#105=[#512+[#513-#512]*0.60735]
#106=[#518+[#519-#518]*0.60735]
#100=[#105+[#106-#105]*0.00000]
X-10.18546 Y-3.12508 Z[#100+-0.04000]
#105=[#506+[#507-#506]*0.60734]
#106=[#512+[#513-#512]*0.60734]
#100=[#105+[#106-#105]*0.92320]
X-10.21493 Y-3.12508 Z[#100+-0.04000]
#105=[#506+[#507-#506]*0.57092]
#106=[#512+[#513-#512]*0.57092]
#100=[#105+[#106-#105]*0.85136]
X-10.24250 Y-3.13887 Z[#100+-0.04000]
#105=[#506+[#507-#506]*0.49807]
#106=[#512+[#513-#512]*0.49807]
#100=[#105+[#106-#105]*0.81544]
X-10.25628 Y-3.16644 Z[#100+-0.04000]
#105=[#506+[#507-#506]*0.42136]
#106=[#512+[#513-#512]*0.42136]
#100=[#105+[#106-#105]*0.81544]
X-10.25628 Y-3.19547 Z[#100+-0.04000]
#105=[#506+[#507-#506]*0.34850]
#106=[#512+[#513-#512]*0.34850]
#100=[#105+[#106-#105]*0.85136]
X-10.24250 Y-3.22303 Z[#100+-0.04000]
#105=[#506+[#507-#506]*0.31208]
#106=[#512+[#513-#512]*0.31208]
#100=[#105+[#106-#105]*0.92320]
X-10.21493 Y-3.23682 Z[#100+-0.04000]
#105=[#512+[#513-#512]*0.31208]
#106=[#518+[#519-#518]*0.31208]
#100=[#105+[#106-#105]*0.00000]
X-10.18546 Y-3.23682 Z[#100+-0.04000]
#105=[#512+[#513-#512]*0.31208]
#106=[#518+[#519-#518]*0.31208]
#100=[#105+[#106-#105]*0.18499]
X-10.11447 Y-3.23682 Z[#100+-0.04000]
#105=[#512+[#513-#512]*0.33526]
#106=[#518+[#519-#518]*0.33526]
#100=[#105+[#106-#105]*0.23070]
X-10.09692 Y-3.22805 Z[#100+-0.04000]
G04 P0 ( dwell for no time -- G64 should not smooth over this point )
G00 Z0.08000 ( retract )

G00 X-10.54931 Y-2.90975 ( rapid move to begin. )
G01 F180.00000
( Mill infeed pass 1/1 )
#105=[#507+[#508-#507]*0.17637]
#106=[#513+[#514-#513]*0.17637]
#100=[#105+[#106-#105]*0.05185]
G01 Z[-0.04000+#100]
G04 P0 ( dwell for no time -- G64 should not smooth over this point )
G01 F360.00000
#105=[#507+[#508-#507]*0.25308]
#106=[#513+[#514-#513]*0.25308]
#100=[#105+[#106-#105]*0.05185]
X-10.54931 Y-2.88072 Z[#100+-0.04000]
#105=[#507+[#508-#507]*0.34185]
#106=[#513+[#514-#513]*0.34185]
#100=[#105+[#106-#105]*0.00808]
X-10.56610 Y-2.84713 Z[#100+-0.04000]
#105=[#507+[#508-#507]*0.35005]
#106=[#513+[#514-#513]*0.35005]
#100=[#105+[#106-#105]*0.00000]
X-10.56920 Y-2.84403 Z[#100+-0.04000]
#105=[#501+[#502-#501]*0.38089]
#106=[#507+[#508-#507]*0.38089]
#100=[#105+[#106-#105]*0.96958]
X-10.58088 Y-2.83236 Z[#100+-0.04000]
#105=[#501+[#502-#501]*0.42528]
#106=[#507+[#508-#507]*0.42528]
#100=[#105+[#106-#105]*0.88204]
X-10.61447 Y-2.81556 Z[#100+-0.04000]
#105=[#501+[#502-#501]*0.42528]
#106=[#507+[#508-#507]*0.42528]
#100=[#105+[#106-#105]*0.57454]
X-10.73247 Y-2.81556 Z[#100+-0.04000]
#105=[#501+[#502-#501]*0.00418]
#106=[#507+[#508-#507]*0.00418]
#100=[#105+[#106-#105]*0.57454]
X-10.73247 Y-2.97491 Z[#100+-0.04000]
#105=[#501+[#502-#501]*0.00418]
#106=[#507+[#508-#507]*0.00418]
#100=[#105+[#106-#105]*0.88205]
X-10.61447 Y-2.97491 Z[#100+-0.04000]
#105=[#501+[#502-#501]*0.04856]
#106=[#507+[#508-#507]*0.04856]
#100=[#105+[#106-#105]*0.96958]
X-10.58088 Y-2.95812 Z[#100+-0.04000]
#105=[#507+[#508-#507]*0.07940]
#106=[#513+[#514-#513]*0.07940]
#100=[#105+[#106-#105]*0.00000]
X-10.56920 Y-2.94645 Z[#100+-0.04000]
#105=[#507+[#508-#507]*0.08760]
#106=[#513+[#514-#513]*0.08760]
#100=[#105+[#106-#105]*0.00808]
X-10.56610 Y-2.94334 Z[#100+-0.04000]
#105=[#507+[#508-#507]*0.17637]
#106=[#513+[#514-#513]*0.17637]
#100=[#105+[#106-#105]*0.05185]
X-10.54931 Y-2.90975 Z[#100+-0.04000]
G04 P0 ( dwell for no time -- G64 should not smooth over this point )
G00 Z0.08000 ( retract )

G00 X-10.44676 Y-3.10952 ( rapid move to begin. )
G01 F180.00000
( Mill infeed pass 1/1 )
#105=[#506+[#507-#506]*0.64847]
#106=[#512+[#513-#512]*0.64847]
#100=[#105+[#106-#105]*0.31908]
G01 Z[-0.04000+#100]
G04 P0 ( dwell for no time -- G64 should not smooth over this point )
G01 F360.00000
#105=[#506+[#507-#506]*0.65810]
#106=[#512+[#513-#512]*0.65810]
#100=[#105+[#106-#105]*0.31864]
X-10.44693 Y-3.10588 Z[#100+-0.04000]
#105=[#506+[#507-#506]*0.66660]
#106=[#512+[#513-#512]*0.66660]
#100=[#105+[#106-#105]*0.31751]
X-10.44736 Y-3.10266 Z[#100+-0.04000]
#105=[#506+[#507-#506]*0.67497]
#106=[#512+[#513-#512]*0.67497]
#100=[#105+[#106-#105]*0.31570]
X-10.44805 Y-3.09949 Z[#100+-0.04000]
#105=[#506+[#507-#506]*0.68316]
#106=[#512+[#513-#512]*0.68316]
#100=[#105+[#106-#105]*0.31321]
X-10.44901 Y-3.09639 Z[#100+-0.04000]
#105=[#506+[#507-#506]*0.69209]
#106=[#512+[#513-#512]*0.69209]
#100=[#105+[#106-#105]*0.30963]
X-10.45038 Y-3.09301 Z[#100+-0.04000]
#105=[#506+[#507-#506]*0.82083]
#106=[#512+[#513-#512]*0.82083]
#100=[#105+[#106-#105]*0.24621]
X-10.47472 Y-3.04430 Z[#100+-0.04000]
#105=[#506+[#507-#506]*0.83169]
#106=[#512+[#513-#512]*0.83169]
#100=[#105+[#106-#105]*0.24002]
X-10.47710 Y-3.04019 Z[#100+-0.04000]
#105=[#506+[#507-#506]*0.83930]
#106=[#512+[#513-#512]*0.83930]
#100=[#105+[#106-#105]*0.23455]
X-10.47919 Y-3.03731 Z[#100+-0.04000]
#105=[#506+[#507-#506]*0.84637]
#106=[#512+[#513-#512]*0.84637]
#100=[#105+[#106-#105]*0.22843]
X-10.48154 Y-3.03463 Z[#100+-0.04000]
#105=[#506+[#507-#506]*0.91229]
#106=[#512+[#513-#512]*0.91229]
#100=[#105+[#106-#105]*0.16343]
X-10.50649 Y-3.00969 Z[#100+-0.04000]
#105=[#506+[#507-#506]*0.92123]
#106=[#512+[#513-#512]*0.92123]
#100=[#105+[#106-#105]*0.15291]
X-10.51052 Y-3.00630 Z[#100+-0.04000]
#105=[#506+[#507-#506]*0.92859]
#106=[#512+[#513-#512]*0.92859]
#100=[#105+[#106-#105]*0.14146]
X-10.51492 Y-3.00352 Z[#100+-0.04000]
#105=[#506+[#507-#506]*0.95390]
#106=[#512+[#513-#512]*0.95390]
#100=[#105+[#106-#105]*0.16639]
X-10.50535 Y-2.99394 Z[#100+-0.04000]
#105=[#506+[#507-#506]*0.96016]
#106=[#512+[#513-#512]*0.96016]
#100=[#105+[#106-#105]*0.17186]
X-10.50325 Y-2.99157 Z[#100+-0.04000]
#105=[#506+[#507-#506]*0.96599]
#106=[#512+[#513-#512]*0.96599]
#100=[#105+[#106-#105]*0.17623]
X-10.50158 Y-2.98936 Z[#100+-0.04000]
#105=[#506+[#507-#506]*0.97851]
#106=[#512+[#513-#512]*0.97851]
#100=[#105+[#106-#105]*0.18369]
X-10.49871 Y-2.98463 Z[#100+-0.04000]
#100=[#507+[#513-#507]*0.19429]
X-10.49464 Y-2.97649 Z[#100+-0.04000]
#105=[#507+[#508-#507]*0.10624]
#106=[#513+[#514-#513]*0.10624]
#100=[#105+[#106-#105]*0.24668]
X-10.47454 Y-2.93629 Z[#100+-0.04000]
#105=[#507+[#508-#507]*0.11510]
#106=[#513+[#514-#513]*0.11510]
#100=[#105+[#106-#105]*0.25044]
X-10.47310 Y-2.93294 Z[#100+-0.04000]
#105=[#507+[#508-#507]*0.12427]
#106=[#513+[#514-#513]*0.12427]
#100=[#105+[#106-#105]*0.25338]
X-10.47197 Y-2.92947 Z[#100+-0.04000]
#105=[#507+[#508-#507]*0.13685]
#106=[#513+[#514-#513]*0.13685]
#100=[#105+[#106-#105]*0.25597]
X-10.47097 Y-2.92471 Z[#100+-0.04000]
#105=[#507+[#508-#507]*0.14966]
#106=[#513+[#514-#513]*0.14966]
#100=[#105+[#106-#105]*0.25702]
X-10.47057 Y-2.91986 Z[#100+-0.04000]
#105=[#507+[#508-#507]*0.27872]
#106=[#513+[#514-#513]*0.27872]
#100=[#105+[#106-#105]*0.25703]
X-10.47057 Y-2.87102 Z[#100+-0.04000]
#105=[#507+[#508-#507]*0.29047]
#106=[#513+[#514-#513]*0.29047]
#100=[#105+[#106-#105]*0.25626]
X-10.47087 Y-2.86657 Z[#100+-0.04000]
#105=[#507+[#508-#507]*0.29893]
#106=[#513+[#514-#513]*0.29893]
#100=[#105+[#106-#105]*0.25487]
X-10.47140 Y-2.86337 Z[#100+-0.04000]
#105=[#507+[#508-#507]*0.30621]
#106=[#513+[#514-#513]*0.30621]
#100=[#105+[#106-#105]*0.25309]
X-10.47208 Y-2.86062 Z[#100+-0.04000]
#105=[#507+[#508-#507]*0.31335]
#106=[#513+[#514-#513]*0.31335]
#100=[#105+[#106-#105]*0.25081]
X-10.47296 Y-2.85792 Z[#100+-0.04000]
#105=[#507+[#508-#507]*0.32127]
#106=[#513+[#514-#513]*0.32127]
#100=[#105+[#106-#105]*0.24758]
X-10.47419 Y-2.85492 Z[#100+-0.04000]
#105=[#507+[#508-#507]*0.45001]
#106=[#513+[#514-#513]*0.45001]
#100=[#105+[#106-#105]*0.18416]
X-10.49853 Y-2.80620 Z[#100+-0.04000]
#105=[#507+[#508-#507]*0.45911]
#106=[#513+[#514-#513]*0.45911]
#100=[#105+[#106-#105]*0.17909]
X-10.50048 Y-2.80276 Z[#100+-0.04000]
#105=[#507+[#508-#507]*0.46765]
#106=[#513+[#514-#513]*0.46765]
#100=[#105+[#106-#105]*0.17315]
X-10.50276 Y-2.79952 Z[#100+-0.04000]
#105=[#507+[#508-#507]*0.47555]
#106=[#513+[#514-#513]*0.47555]
#100=[#105+[#106-#105]*0.16639]
X-10.50535 Y-2.79653 Z[#100+-0.04000]
#105=[#507+[#508-#507]*0.53996]
#106=[#513+[#514-#513]*0.53996]
#100=[#105+[#106-#105]*0.10290]
X-10.52972 Y-2.77216 Z[#100+-0.04000]
#105=[#507+[#508-#507]*0.54631]
#106=[#513+[#514-#513]*0.54631]
#100=[#105+[#106-#105]*0.09605]
X-10.53234 Y-2.76976 Z[#100+-0.04000]
#105=[#507+[#508-#507]*0.55317]
#106=[#513+[#514-#513]*0.55317]
#100=[#105+[#106-#105]*0.08695]
X-10.53584 Y-2.76716 Z[#100+-0.04000]
#105=[#507+[#508-#507]*0.55850]
#106=[#513+[#514-#513]*0.55850]
#100=[#105+[#106-#105]*0.07807]
X-10.53924 Y-2.76515 Z[#100+-0.04000]
#105=[#507+[#508-#507]*0.59808]
#106=[#513+[#514-#513]*0.59808]
#100=[#105+[#106-#105]*0.00000]
X-10.56920 Y-2.75017 Z[#100+-0.04000]
#105=[#501+[#502-#501]*0.62331]
#106=[#507+[#508-#507]*0.62331]
#100=[#105+[#106-#105]*0.95025]
X-10.58830 Y-2.74062 Z[#100+-0.04000]
#105=[#501+[#502-#501]*0.62703]
#106=[#507+[#508-#507]*0.62703]
#100=[#105+[#106-#105]*0.94147]
X-10.59166 Y-2.73921 Z[#100+-0.04000]
#105=[#501+[#502-#501]*0.62992]
#106=[#507+[#508-#507]*0.62992]
#100=[#105+[#106-#105]*0.93240]
X-10.59514 Y-2.73812 Z[#100+-0.04000]
#105=[#501+[#502-#501]*0.63194]
#106=[#507+[#508-#507]*0.63194]
#100=[#105+[#106-#105]*0.92310]
X-10.59871 Y-2.73735 Z[#100+-0.04000]
#105=[#501+[#502-#501]*0.63308]
#106=[#507+[#508-#507]*0.63308]
#100=[#105+[#106-#105]*0.91366]
X-10.60234 Y-2.73692 Z[#100+-0.04000]
#105=[#501+[#502-#501]*0.63335]
#106=[#507+[#508-#507]*0.63335]
#100=[#105+[#106-#105]*0.90626]
X-10.60517 Y-2.73682 Z[#100+-0.04000]
#105=[#501+[#502-#501]*0.63316]
#106=[#507+[#508-#507]*0.63316]
#100=[#105+[#106-#105]*0.46568]
X-10.77425 Y-2.73689 Z[#100+-0.04000]
#105=[#501+[#502-#501]*0.63214]
#106=[#507+[#508-#507]*0.63214]
#100=[#105+[#106-#105]*0.45631]
X-10.77784 Y-2.73728 Z[#100+-0.04000]
#105=[#501+[#502-#501]*0.63025]
#106=[#507+[#508-#507]*0.63025]
#100=[#105+[#106-#105]*0.44708]
X-10.78138 Y-2.73799 Z[#100+-0.04000]
#105=[#501+[#502-#501]*0.62716]
#106=[#507+[#508-#507]*0.62716]
#100=[#105+[#106-#105]*0.43708]
X-10.78522 Y-2.73916 Z[#100+-0.04000]
#105=[#501+[#502-#501]*0.62350]
#106=[#507+[#508-#507]*0.62350]
#100=[#105+[#106-#105]*0.42838]
X-10.78856 Y-2.74055 Z[#100+-0.04000]
#105=[#501+[#502-#501]*0.61852]
#106=[#507+[#508-#507]*0.61852]
#100=[#105+[#106-#105]*0.41915]
X-10.79210 Y-2.74243 Z[#100+-0.04000]
#105=[#501+[#502-#501]*0.61323]
#106=[#507+[#508-#507]*0.61323]
#100=[#105+[#106-#105]*0.41131]
X-10.79511 Y-2.74443 Z[#100+-0.04000]
#105=[#501+[#502-#501]*0.60724]
#106=[#507+[#508-#507]*0.60724]
#100=[#105+[#106-#105]*0.40398]
X-10.79792 Y-2.74670 Z[#100+-0.04000]
#105=[#501+[#502-#501]*0.60060]
#106=[#507+[#508-#507]*0.60060]
#100=[#105+[#106-#105]*0.39722]
X-10.80052 Y-2.74921 Z[#100+-0.04000]
#105=[#501+[#502-#501]*0.59335]
#106=[#507+[#508-#507]*0.59335]
#100=[#105+[#106-#105]*0.39109]
X-10.80287 Y-2.75196 Z[#100+-0.04000]
#105=[#501+[#502-#501]*0.58556]
#106=[#507+[#508-#507]*0.58556]
#100=[#105+[#106-#105]*0.38564]
X-10.80496 Y-2.75490 Z[#100+-0.04000]
#105=[#501+[#502-#501]*0.57730]
#106=[#507+[#508-#507]*0.57730]
#100=[#105+[#106-#105]*0.38092]
X-10.80677 Y-2.75803 Z[#100+-0.04000]
#105=[#501+[#502-#501]*0.56864]
#106=[#507+[#508-#507]*0.56864]
#100=[#105+[#106-#105]*0.37697]
X-10.80829 Y-2.76131 Z[#100+-0.04000]
#105=[#501+[#502-#501]*0.55964]
#106=[#507+[#508-#507]*0.55964]
#100=[#105+[#106-#105]*0.37381]
X-10.80950 Y-2.76471 Z[#100+-0.04000]
#105=[#501+[#502-#501]*0.55039]
#106=[#507+[#508-#507]*0.55039]
#100=[#105+[#106-#105]*0.37148]
X-10.81039 Y-2.76821 Z[#100+-0.04000]
#105=[#501+[#502-#501]*0.54096]
#106=[#507+[#508-#507]*0.54096]
#100=[#105+[#106-#105]*0.37000]
X-10.81096 Y-2.77178 Z[#100+-0.04000]
#105=[#501+[#502-#501]*0.53144]
#106=[#507+[#508-#507]*0.53144]
#100=[#105+[#106-#105]*0.36938]
X-10.81120 Y-2.77539 Z[#100+-0.04000]
#100=[#501+[#507-#501]*0.36937]
X-10.81121 Y-2.97649 Z[#100+-0.04000]
#105=[#500+[#501-#500]*0.20804]
#106=[#506+[#507-#506]*0.20804]
#100=[#105+[#106-#105]*0.36935]
X-10.81121 Y-3.27619 Z[#100+-0.04000]
#105=[#500+[#501-#500]*0.19745]
#106=[#506+[#507-#506]*0.19745]
#100=[#105+[#106-#105]*0.36989]
X-10.81101 Y-3.28020 Z[#100+-0.04000]
#105=[#500+[#501-#500]*0.18697]
#106=[#506+[#507-#506]*0.18697]
#100=[#105+[#106-#105]*0.37148]
X-10.81039 Y-3.28416 Z[#100+-0.04000]
#105=[#500+[#501-#500]*0.17670]
#106=[#506+[#507-#506]*0.17670]
#100=[#105+[#106-#105]*0.37412]
X-10.80938 Y-3.28805 Z[#100+-0.04000]
#105=[#500+[#501-#500]*0.16676]
#106=[#506+[#507-#506]*0.16676]
#100=[#105+[#106-#105]*0.37778]
X-10.80798 Y-3.29181 Z[#100+-0.04000]
#105=[#500+[#501-#500]*0.15725]
#106=[#506+[#507-#506]*0.15725]
#100=[#105+[#106-#105]*0.38241]
X-10.80620 Y-3.29541 Z[#100+-0.04000]
#105=[#500+[#501-#500]*0.14827]
#106=[#506+[#507-#506]*0.14827]
#100=[#105+[#106-#105]*0.38798]
X-10.80406 Y-3.29881 Z[#100+-0.04000]
#105=[#500+[#501-#500]*0.13991]
#106=[#506+[#507-#506]*0.13991]
#100=[#105+[#106-#105]*0.39441]
X-10.80159 Y-3.30197 Z[#100+-0.04000]
#105=[#500+[#501-#500]*0.13226]
#106=[#506+[#507-#506]*0.13226]
#100=[#105+[#106-#105]*0.40166]
X-10.79881 Y-3.30487 Z[#100+-0.04000]
#105=[#500+[#501-#500]*0.12670]
#106=[#506+[#507-#506]*0.12670]
#100=[#105+[#106-#105]*0.40798]
X-10.79639 Y-3.30697 Z[#100+-0.04000]
#105=[#500+[#501-#500]*0.12110]
#106=[#506+[#507-#506]*0.12110]
#100=[#105+[#106-#105]*0.41561]
X-10.79346 Y-3.30909 Z[#100+-0.04000]
#105=[#500+[#501-#500]*0.11623]
#106=[#506+[#507-#506]*0.11623]
#100=[#105+[#106-#105]*0.42370]
X-10.79035 Y-3.31093 Z[#100+-0.04000]
#105=[#500+[#501-#500]*0.11213]
#106=[#506+[#507-#506]*0.11213]
#100=[#105+[#106-#105]*0.43221]
X-10.78709 Y-3.31249 Z[#100+-0.04000]
#105=[#500+[#501-#500]*0.10884]
#106=[#506+[#507-#506]*0.10884]
#100=[#105+[#106-#105]*0.44104]
X-10.78370 Y-3.31373 Z[#100+-0.04000]
#105=[#500+[#501-#500]*0.10638]
#106=[#506+[#507-#506]*0.10638]
#100=[#105+[#106-#105]*0.45014]
X-10.78021 Y-3.31466 Z[#100+-0.04000]
#105=[#500+[#501-#500]*0.10492]
#106=[#506+[#507-#506]*0.10492]
#100=[#105+[#106-#105]*0.45838]
X-10.77705 Y-3.31521 Z[#100+-0.04000]
#105=[#500+[#501-#500]*0.10409]
#106=[#506+[#507-#506]*0.10409]
#100=[#105+[#106-#105]*0.46777]
X-10.77345 Y-3.31553 Z[#100+-0.04000]
#105=[#500+[#501-#500]*0.10400]
#106=[#506+[#507-#506]*0.10400]
#100=[#105+[#106-#105]*0.96831]
X-10.58136 Y-3.31556 Z[#100+-0.04000]
#105=[#500+[#501-#500]*0.10436]
#106=[#506+[#507-#506]*0.10436]
#100=[#105+[#106-#105]*0.97676]
X-10.57812 Y-3.31543 Z[#100+-0.04000]
#105=[#500+[#501-#500]*0.10524]
#106=[#506+[#507-#506]*0.10524]
#100=[#105+[#106-#105]*0.98410]
X-10.57530 Y-3.31509 Z[#100+-0.04000]
#105=[#500+[#501-#500]*0.10667]
#106=[#506+[#507-#506]*0.10667]
#100=[#105+[#106-#105]*0.99137]
X-10.57252 Y-3.31455 Z[#100+-0.04000]
#105=[#500+[#501-#500]*0.10861]
#106=[#506+[#507-#506]*0.10861]
#100=[#105+[#106-#105]*0.99851]
X-10.56977 Y-3.31381 Z[#100+-0.04000]
#105=[#506+[#507-#506]*0.10914]
#106=[#512+[#513-#512]*0.10914]
#100=[#105+[#106-#105]*0.00000]
X-10.56920 Y-3.31362 Z[#100+-0.04000]
#105=[#506+[#507-#506]*0.11108]
#106=[#512+[#513-#512]*0.11108]
#100=[#105+[#106-#105]*0.00550]
X-10.56709 Y-3.31288 Z[#100+-0.04000]
#105=[#506+[#507-#506]*0.11405]
#106=[#512+[#513-#512]*0.11405]
#100=[#105+[#106-#105]*0.01229]
X-10.56449 Y-3.31176 Z[#100+-0.04000]
#105=[#506+[#507-#506]*0.17791]
#106=[#512+[#513-#512]*0.17791]
#100=[#105+[#106-#105]*0.13828]
X-10.51614 Y-3.28759 Z[#100+-0.04000]
#105=[#506+[#507-#506]*0.18305]
#106=[#512+[#513-#512]*0.18305]
#100=[#105+[#106-#105]*0.14726]
X-10.51269 Y-3.28565 Z[#100+-0.04000]
#105=[#506+[#507-#506]*0.18907]
#106=[#512+[#513-#512]*0.18907]
#100=[#105+[#106-#105]*0.15568]
X-10.50946 Y-3.28337 Z[#100+-0.04000]
#105=[#506+[#507-#506]*0.19593]
#106=[#512+[#513-#512]*0.19593]
#100=[#105+[#106-#105]*0.16347]
X-10.50647 Y-3.28077 Z[#100+-0.04000]
#105=[#506+[#507-#506]*0.26256]
#106=[#512+[#513-#512]*0.26256]
#100=[#105+[#106-#105]*0.22914]
X-10.48127 Y-3.25556 Z[#100+-0.04000]
#105=[#506+[#507-#506]*0.27390]
#106=[#512+[#513-#512]*0.27390]
#100=[#105+[#106-#105]*0.23827]
X-10.47777 Y-3.25127 Z[#100+-0.04000]
#105=[#506+[#507-#506]*0.28642]
#106=[#512+[#513-#512]*0.28642]
#100=[#105+[#106-#105]*0.24574]
X-10.47490 Y-3.24653 Z[#100+-0.04000]
#105=[#506+[#507-#506]*0.41511]
#106=[#512+[#513-#512]*0.41511]
#100=[#105+[#106-#105]*0.30918]
X-10.45056 Y-3.19783 Z[#100+-0.04000]
#105=[#506+[#507-#506]*0.42603]
#106=[#512+[#513-#512]*0.42603]
#100=[#105+[#106-#105]*0.31356]
X-10.44888 Y-3.19370 Z[#100+-0.04000]
#105=[#506+[#507-#506]*0.43633]
#106=[#512+[#513-#512]*0.43633]
#100=[#105+[#106-#105]*0.31646]
X-10.44776 Y-3.18980 Z[#100+-0.04000]
#105=[#506+[#507-#506]*0.44795]
#106=[#512+[#513-#512]*0.44795]
#100=[#105+[#106-#105]*0.31842]
X-10.44701 Y-3.18540 Z[#100+-0.04000]
#105=[#506+[#507-#506]*0.45864]
#106=[#512+[#513-#512]*0.45864]
#100=[#105+[#106-#105]*0.31908]
X-10.44676 Y-3.18136 Z[#100+-0.04000]
#105=[#506+[#507-#506]*0.64847]
#106=[#512+[#513-#512]*0.64847]
#100=[#105+[#106-#105]*0.31908]
X-10.44676 Y-3.10952 Z[#100+-0.04000]
G04 P0 ( dwell for no time -- G64 should not smooth over this point )
G00 Z0.08000 ( retract )

G00 X-10.52550 Y-3.17166 ( rapid move to begin. )
G01 F180.00000
( Mill infeed pass 1/1 )
#105=[#506+[#507-#506]*0.48427]
#106=[#512+[#513-#512]*0.48427]
#100=[#105+[#106-#105]*0.11389]
G01 Z[-0.04000+#100]
G04 P0 ( dwell for no time -- G64 should not smooth over this point )
G01 F360.00000
#105=[#506+[#507-#506]*0.39550]
#106=[#512+[#513-#512]*0.39550]
#100=[#105+[#106-#105]*0.07013]
X-10.54229 Y-3.20525 Z[#100+-0.04000]
#105=[#506+[#507-#506]*0.35646]
#106=[#512+[#513-#512]*0.35646]
#100=[#105+[#106-#105]*0.03163]
X-10.55707 Y-3.22002 Z[#100+-0.04000]
#105=[#506+[#507-#506]*0.34043]
#106=[#512+[#513-#512]*0.34043]
#100=[#105+[#106-#105]*0.00000]
X-10.56920 Y-3.22609 Z[#100+-0.04000]
#105=[#500+[#501-#500]*0.31208]
#106=[#506+[#507-#506]*0.31208]
#100=[#105+[#106-#105]*0.94409]
X-10.59066 Y-3.23682 Z[#100+-0.04000]
#105=[#500+[#501-#500]*0.31208]
#106=[#506+[#507-#506]*0.31208]
#100=[#105+[#106-#105]*0.57454]
X-10.73247 Y-3.23682 Z[#100+-0.04000]
#105=[#500+[#501-#500]*0.79610]
#106=[#506+[#507-#506]*0.79610]
#100=[#105+[#106-#105]*0.57454]
X-10.73247 Y-3.05366 Z[#100+-0.04000]
#105=[#500+[#501-#500]*0.79610]
#106=[#506+[#507-#506]*0.79610]
#100=[#105+[#106-#105]*0.88961]
X-10.61156 Y-3.05366 Z[#100+-0.04000]
#105=[#506+[#507-#506]*0.75879]
#106=[#512+[#513-#512]*0.75879]
#100=[#105+[#106-#105]*0.00000]
X-10.56920 Y-3.06777 Z[#100+-0.04000]
#105=[#506+[#507-#506]*0.74629]
#106=[#512+[#513-#512]*0.74629]
#100=[#105+[#106-#105]*0.03698]
X-10.55501 Y-3.07251 Z[#100+-0.04000]
#105=[#506+[#507-#506]*0.71267]
#106=[#512+[#513-#512]*0.71267]
#100=[#105+[#106-#105]*0.07013]
X-10.54229 Y-3.08522 Z[#100+-0.04000]
#105=[#506+[#507-#506]*0.62391]
#106=[#512+[#513-#512]*0.62391]
#100=[#105+[#106-#105]*0.11389]
X-10.52550 Y-3.11882 Z[#100+-0.04000]
#105=[#506+[#507-#506]*0.48427]
#106=[#512+[#513-#512]*0.48427]
#100=[#105+[#106-#105]*0.11389]
X-10.52550 Y-3.17166 Z[#100+-0.04000]
G04 P0 ( dwell for no time -- G64 should not smooth over this point )
G00 Z0.08000 ( retract )

G00 X-10.84311 Y-3.35020 ( rapid move to begin. )
G01 F180.00000
( Mill infeed pass 1/1 )
#105=[#500+[#501-#500]*0.01246]
#106=[#506+[#507-#506]*0.01246]
#100=[#105+[#106-#105]*0.28622]
G01 Z[-0.04000+#100]
G04 P0 ( dwell for no time -- G64 should not smooth over this point )
G01 F360.00000
#105=[#500+[#501-#500]*0.00928]
#106=[#506+[#507-#506]*0.00928]
#100=[#105+[#106-#105]*0.28569]
X-10.84331 Y-3.35140 Z[#100+-0.04000]
#105=[#500+[#501-#500]*0.00728]
#106=[#506+[#507-#506]*0.00728]
#100=[#105+[#106-#105]*0.28493]
X-10.84361 Y-3.35216 Z[#100+-0.04000]
#105=[#500+[#501-#500]*0.00380]
#106=[#506+[#507-#506]*0.00380]
#100=[#105+[#106-#105]*0.28247]
X-10.84455 Y-3.35348 Z[#100+-0.04000]
#105=[#500+[#501-#500]*0.00131]
#106=[#506+[#507-#506]*0.00131]
#100=[#105+[#106-#105]*0.27904]
X-10.84587 Y-3.35442 Z[#100+-0.04000]
#105=[#500+[#501-#500]*0.00053]
#106=[#506+[#507-#506]*0.00053]
#100=[#105+[#106-#105]*0.27706]
X-10.84663 Y-3.35472 Z[#100+-0.04000]
#100=[#500+[#506-#500]*0.27393]
X-10.84783 Y-3.35492 Z[#100+-0.04000]
#105=[#500+[#501-#500]*0.00053]
#106=[#506+[#507-#506]*0.00053]
#100=[#105+[#106-#105]*0.26974]
X-10.84944 Y-3.35472 Z[#100+-0.04000]
#105=[#500+[#501-#500]*0.00131]
#106=[#506+[#507-#506]*0.00131]
#100=[#105+[#106-#105]*0.26777]
X-10.85019 Y-3.35442 Z[#100+-0.04000]
#105=[#500+[#501-#500]*0.00307]
#106=[#506+[#507-#506]*0.00307]
#100=[#105+[#106-#105]*0.26512]
X-10.85121 Y-3.35376 Z[#100+-0.04000]
#105=[#500+[#501-#500]*0.12673]
#106=[#506+[#507-#506]*0.12673]
#100=[#105+[#106-#105]*0.14311]
X-10.89803 Y-3.30696 Z[#100+-0.04000]
#105=[#500+[#501-#500]*0.00307]
#106=[#506+[#507-#506]*0.00307]
#100=[#105+[#106-#105]*0.02110]
X-10.94485 Y-3.35376 Z[#100+-0.04000]
#105=[#500+[#501-#500]*0.00131]
#106=[#506+[#507-#506]*0.00131]
#100=[#105+[#106-#105]*0.01845]
X-10.94587 Y-3.35442 Z[#100+-0.04000]
#105=[#500+[#501-#500]*0.00053]
#106=[#506+[#507-#506]*0.00053]
#100=[#105+[#106-#105]*0.01647]
X-10.94663 Y-3.35472 Z[#100+-0.04000]
#100=[#500+[#506-#500]*0.01228]
X-10.94823 Y-3.35492 Z[#100+-0.04000]
#105=[#500+[#501-#500]*0.00053]
#106=[#506+[#507-#506]*0.00053]
#100=[#105+[#106-#105]*0.00915]
X-10.94944 Y-3.35472 Z[#100+-0.04000]
#105=[#500+[#501-#500]*0.00131]
#106=[#506+[#507-#506]*0.00131]
#100=[#105+[#106-#105]*0.00718]
X-10.95019 Y-3.35442 Z[#100+-0.04000]
#105=[#500+[#501-#500]*0.00380]
#106=[#506+[#507-#506]*0.00380]
#100=[#105+[#106-#105]*0.00375]
X-10.95151 Y-3.35348 Z[#100+-0.04000]
#105=[#500+[#501-#500]*0.00728]
#106=[#506+[#507-#506]*0.00728]
#100=[#105+[#106-#105]*0.00129]
X-10.95245 Y-3.35216 Z[#100+-0.04000]
#105=[#500+[#501-#500]*0.00928]
#106=[#506+[#507-#506]*0.00928]
#100=[#105+[#106-#105]*0.00052]
X-10.95275 Y-3.35140 Z[#100+-0.04000]
#100=[#500+[#501-#500]*0.01246]
X-10.95295 Y-3.35020 Z[#100+-0.04000]
#105=[#500+[#501-#500]*0.01671]
#106=[#506+[#507-#506]*0.01671]
#100=[#105+[#106-#105]*0.00052]
X-10.95275 Y-3.34859 Z[#100+-0.04000]
#105=[#500+[#501-#500]*0.01871]
#106=[#506+[#507-#506]*0.01871]
#100=[#105+[#106-#105]*0.00129]
X-10.95245 Y-3.34784 Z[#100+-0.04000]
#105=[#500+[#501-#500]*0.02140]
#106=[#506+[#507-#506]*0.02140]
#100=[#105+[#106-#105]*0.00303]
X-10.95179 Y-3.34682 Z[#100+-0.04000]
#105=[#500+[#501-#500]*0.14512]
#106=[#506+[#507-#506]*0.14512]
#100=[#105+[#106-#105]*0.12497]
X-10.90499 Y-3.30000 Z[#100+-0.04000]
#105=[#500+[#501-#500]*0.26884]
#106=[#506+[#507-#506]*0.26884]
#100=[#105+[#106-#105]*0.00303]
X-10.95179 Y-3.25318 Z[#100+-0.04000]
#105=[#500+[#501-#500]*0.27154]
#106=[#506+[#507-#506]*0.27154]
#100=[#105+[#106-#105]*0.00129]
X-10.95245 Y-3.25216 Z[#100+-0.04000]
#105=[#500+[#501-#500]*0.27354]
#106=[#506+[#507-#506]*0.27354]
#100=[#105+[#106-#105]*0.00052]
X-10.95275 Y-3.25140 Z[#100+-0.04000]
#100=[#500+[#501-#500]*0.27779]
X-10.95295 Y-3.24980 Z[#100+-0.04000]
#105=[#500+[#501-#500]*0.28096]
#106=[#506+[#507-#506]*0.28096]
#100=[#105+[#106-#105]*0.00052]
X-10.95275 Y-3.24859 Z[#100+-0.04000]
#105=[#500+[#501-#500]*0.28296]
#106=[#506+[#507-#506]*0.28296]
#100=[#105+[#106-#105]*0.00129]
X-10.95245 Y-3.24784 Z[#100+-0.04000]
#105=[#500+[#501-#500]*0.28644]
#106=[#506+[#507-#506]*0.28644]
#100=[#105+[#106-#105]*0.00375]
X-10.95151 Y-3.24652 Z[#100+-0.04000]
#105=[#500+[#501-#500]*0.28893]
#106=[#506+[#507-#506]*0.28893]
#100=[#105+[#106-#105]*0.00718]
X-10.95019 Y-3.24558 Z[#100+-0.04000]
#105=[#500+[#501-#500]*0.28971]
#106=[#506+[#507-#506]*0.28971]
#100=[#105+[#106-#105]*0.00915]
X-10.94944 Y-3.24528 Z[#100+-0.04000]
#105=[#500+[#501-#500]*0.29024]
#106=[#506+[#507-#506]*0.29024]
#100=[#105+[#106-#105]*0.01228]
X-10.94823 Y-3.24508 Z[#100+-0.04000]
#105=[#500+[#501-#500]*0.28971]
#106=[#506+[#507-#506]*0.28971]
#100=[#105+[#106-#105]*0.01647]
X-10.94663 Y-3.24528 Z[#100+-0.04000]
#105=[#500+[#501-#500]*0.28893]
#106=[#506+[#507-#506]*0.28893]
#100=[#105+[#106-#105]*0.01845]
X-10.94587 Y-3.24558 Z[#100+-0.04000]
#105=[#500+[#501-#500]*0.28717]
#106=[#506+[#507-#506]*0.28717]
#100=[#105+[#106-#105]*0.02110]
X-10.94485 Y-3.24624 Z[#100+-0.04000]
#105=[#500+[#501-#500]*0.16351]
#106=[#506+[#507-#506]*0.16351]
#100=[#105+[#106-#105]*0.14311]
X-10.89803 Y-3.29304 Z[#100+-0.04000]
#105=[#500+[#501-#500]*0.28783]
#106=[#506+[#507-#506]*0.28783]
#100=[#105+[#106-#105]*0.26595]
X-10.85089 Y-3.24599 Z[#100+-0.04000]
#105=[#500+[#501-#500]*0.28971]
#106=[#506+[#507-#506]*0.28971]
#100=[#105+[#106-#105]*0.26974]
X-10.84944 Y-3.24528 Z[#100+-0.04000]
#105=[#500+[#501-#500]*0.29024]
#106=[#506+[#507-#506]*0.29024]
#100=[#105+[#106-#105]*0.27287]
X-10.84823 Y-3.24508 Z[#100+-0.04000]
#105=[#500+[#501-#500]*0.29015]
#106=[#506+[#507-#506]*0.29015]
#100=[#105+[#106-#105]*0.27499]
X-10.84742 Y-3.24512 Z[#100+-0.04000]
#105=[#500+[#501-#500]*0.28893]
#106=[#506+[#507-#506]*0.28893]
#100=[#105+[#106-#105]*0.27904]
X-10.84587 Y-3.24558 Z[#100+-0.04000]
#105=[#500+[#501-#500]*0.28717]
#106=[#506+[#507-#506]*0.28717]
#100=[#105+[#106-#105]*0.28169]
X-10.84485 Y-3.24624 Z[#100+-0.04000]
#105=[#500+[#501-#500]*0.28565]
#106=[#506+[#507-#506]*0.28565]
#100=[#105+[#106-#105]*0.28319]
X-10.84428 Y-3.24682 Z[#100+-0.04000]
#105=[#500+[#501-#500]*0.28296]
#106=[#506+[#507-#506]*0.28296]
#100=[#105+[#106-#105]*0.28493]
X-10.84361 Y-3.24784 Z[#100+-0.04000]
#105=[#500+[#501-#500]*0.28096]
#106=[#506+[#507-#506]*0.28096]
#100=[#105+[#106-#105]*0.28569]
X-10.84331 Y-3.24859 Z[#100+-0.04000]
#105=[#500+[#501-#500]*0.27671]
#106=[#506+[#507-#506]*0.27671]
#100=[#105+[#106-#105]*0.28622]
X-10.84311 Y-3.25020 Z[#100+-0.04000]
#105=[#500+[#501-#500]*0.27252]
#106=[#506+[#507-#506]*0.27252]
#100=[#105+[#106-#105]*0.28535]
X-10.84345 Y-3.25179 Z[#100+-0.04000]
#105=[#500+[#501-#500]*0.26884]
#106=[#506+[#507-#506]*0.26884]
#100=[#105+[#106-#105]*0.28319]
X-10.84428 Y-3.25318 Z[#100+-0.04000]
#105=[#500+[#501-#500]*0.14512]
#106=[#506+[#507-#506]*0.14512]
#100=[#105+[#106-#105]*0.16124]
X-10.89107 Y-3.30000 Z[#100+-0.04000]
#105=[#500+[#501-#500]*0.02140]
#106=[#506+[#507-#506]*0.02140]
#100=[#105+[#106-#105]*0.28319]
X-10.84428 Y-3.34682 Z[#100+-0.04000]
#105=[#500+[#501-#500]*0.01871]
#106=[#506+[#507-#506]*0.01871]
#100=[#105+[#106-#105]*0.28493]
X-10.84361 Y-3.34784 Z[#100+-0.04000]
#105=[#500+[#501-#500]*0.01671]
#106=[#506+[#507-#506]*0.01671]
#100=[#105+[#106-#105]*0.28569]
X-10.84331 Y-3.34859 Z[#100+-0.04000]
#105=[#500+[#501-#500]*0.01246]
#106=[#506+[#507-#506]*0.01246]
#100=[#105+[#106-#105]*0.28622]
X-10.84311 Y-3.35020 Z[#100+-0.04000]
( Piece #2, position [1;0] )

G04 P0 ( dwell for no time -- G64 should not smooth over this point )
G00 Z0.08000 ( retract )

G00 X-6.98703 Y-2.94326 ( rapid move to begin. )
G01 F180.00000
( Mill infeed pass 1/1 )
#105=[#561+[#562-#561]*0.08783]
#106=[#567+[#568-#567]*0.08783]
#100=[#105+[#106-#105]*0.33475]
G01 Z[-0.04000+#100]
G04 P0 ( dwell for no time -- G64 should not smooth over this point )
G01 F360.00000
#105=[#561+[#562-#561]*0.09631]
#106=[#567+[#568-#567]*0.09631]
#100=[#105+[#106-#105]*0.33450]
X-6.98713 Y-2.94005 Z[#100+-0.04000]
#105=[#561+[#562-#561]*0.10579]
#106=[#567+[#568-#567]*0.10579]
#100=[#105+[#106-#105]*0.33339]
X-6.98755 Y-2.93646 Z[#100+-0.04000]
#105=[#561+[#562-#561]*0.11410]
#106=[#567+[#568-#567]*0.11410]
#100=[#105+[#106-#105]*0.33170]
X-6.98820 Y-2.93331 Z[#100+-0.04000]
#105=[#561+[#562-#561]*0.12225]
#106=[#567+[#568-#567]*0.12225]
#100=[#105+[#106-#105]*0.32934]
X-6.98910 Y-2.93023 Z[#100+-0.04000]
#105=[#561+[#562-#561]*0.13114]
#106=[#567+[#568-#567]*0.13114]
#100=[#105+[#106-#105]*0.32592]
X-6.99042 Y-2.92687 Z[#100+-0.04000]
#105=[#561+[#562-#561]*0.13875]
#106=[#567+[#568-#567]*0.13875]
#100=[#105+[#106-#105]*0.32221]
X-6.99184 Y-2.92399 Z[#100+-0.04000]
#105=[#561+[#562-#561]*0.14691]
#106=[#567+[#568-#567]*0.14691]
#100=[#105+[#106-#105]*0.31732]
X-6.99372 Y-2.92090 Z[#100+-0.04000]
#105=[#561+[#562-#561]*0.15458]
#106=[#567+[#568-#567]*0.15458]
#100=[#105+[#106-#105]*0.31172]
X-6.99587 Y-2.91800 Z[#100+-0.04000]
#105=[#561+[#562-#561]*0.16094]
#106=[#567+[#568-#567]*0.16094]
#100=[#105+[#106-#105]*0.30617]
X-6.99799 Y-2.91559 Z[#100+-0.04000]
#105=[#561+[#562-#561]*0.16682]
#106=[#567+[#568-#567]*0.16682]
#100=[#105+[#106-#105]*0.30014]
X-7.00031 Y-2.91337 Z[#100+-0.04000]
#105=[#561+[#562-#561]*0.17218]
#106=[#567+[#568-#567]*0.17218]
#100=[#105+[#106-#105]*0.29365]
X-7.00280 Y-2.91134 Z[#100+-0.04000]
#105=[#561+[#562-#561]*0.17698]
#106=[#567+[#568-#567]*0.17698]
#100=[#105+[#106-#105]*0.28675]
X-7.00545 Y-2.90952 Z[#100+-0.04000]
#105=[#561+[#562-#561]*0.18120]
#106=[#567+[#568-#567]*0.18120]
#100=[#105+[#106-#105]*0.27949]
X-7.00824 Y-2.90792 Z[#100+-0.04000]
#105=[#561+[#562-#561]*0.18480]
#106=[#567+[#568-#567]*0.18480]
#100=[#105+[#106-#105]*0.27191]
X-7.01114 Y-2.90656 Z[#100+-0.04000]
#105=[#561+[#562-#561]*0.18809]
#106=[#567+[#568-#567]*0.18809]
#100=[#105+[#106-#105]*0.26307]
X-7.01454 Y-2.90531 Z[#100+-0.04000]
#105=[#561+[#562-#561]*0.19032]
#106=[#567+[#568-#567]*0.19032]
#100=[#105+[#106-#105]*0.25499]
X-7.01763 Y-2.90447 Z[#100+-0.04000]
#105=[#561+[#562-#561]*0.19201]
#106=[#567+[#568-#567]*0.19201]
#100=[#105+[#106-#105]*0.24573]
X-7.02119 Y-2.90383 Z[#100+-0.04000]
#105=[#561+[#562-#561]*0.19279]
#106=[#567+[#568-#567]*0.19279]
#100=[#105+[#106-#105]*0.23739]
X-7.02439 Y-2.90354 Z[#100+-0.04000]
#105=[#561+[#562-#561]*0.19288]
#106=[#567+[#568-#567]*0.19288]
#100=[#105+[#106-#105]*0.22903]
X-7.02760 Y-2.90351 Z[#100+-0.04000]
#105=[#561+[#562-#561]*0.19227]
#106=[#567+[#568-#567]*0.19227]
#100=[#105+[#106-#105]*0.22068]
X-7.03080 Y-2.90373 Z[#100+-0.04000]
#105=[#561+[#562-#561]*0.19098]
#106=[#567+[#568-#567]*0.19098]
#100=[#105+[#106-#105]*0.21241]
X-7.03398 Y-2.90422 Z[#100+-0.04000]
#105=[#561+[#562-#561]*0.18901]
#106=[#567+[#568-#567]*0.18901]
#100=[#105+[#106-#105]*0.20426]
X-7.03710 Y-2.90497 Z[#100+-0.04000]
#105=[#561+[#562-#561]*0.18599]
#106=[#567+[#568-#567]*0.18599]
#100=[#105+[#106-#105]*0.19533]
X-7.04053 Y-2.90611 Z[#100+-0.04000]
#105=[#561+[#562-#561]*0.18216]
#106=[#567+[#568-#567]*0.18216]
#100=[#105+[#106-#105]*0.18671]
X-7.04384 Y-2.90756 Z[#100+-0.04000]
#105=[#561+[#562-#561]*0.17698]
#106=[#567+[#568-#567]*0.17698]
#100=[#105+[#106-#105]*0.17758]
X-7.04734 Y-2.90952 Z[#100+-0.04000]
#105=[#561+[#562-#561]*0.17089]
#106=[#567+[#568-#567]*0.17089]
#100=[#105+[#106-#105]*0.16902]
X-7.05063 Y-2.91183 Z[#100+-0.04000]
#105=[#561+[#562-#561]*0.16394]
#106=[#567+[#568-#567]*0.16394]
#100=[#105+[#106-#105]*0.16111]
X-7.05366 Y-2.91446 Z[#100+-0.04000]
#105=[#561+[#562-#561]*0.00057]
#106=[#567+[#568-#567]*0.00057]
#100=[#105+[#106-#105]*0.00000]
X-7.11549 Y-2.97628 Z[#100+-0.04000]
#100=[#555+[#561-#555]*0.99944]
X-7.11570 Y-2.97649 Z[#100+-0.04000]
#105=[#554+[#555-#554]*0.83671]
#106=[#560+[#561-#560]*0.83671]
#100=[#105+[#106-#105]*0.83840]
X-7.17750 Y-3.03829 Z[#100+-0.04000]
#100=[#555+[#561-#555]*0.83840]
X-7.17750 Y-2.97649 Z[#100+-0.04000]
#105=[#555+[#556-#555]*0.52931]
#106=[#561+[#562-#561]*0.52931]
#100=[#105+[#106-#105]*0.83840]
X-7.17750 Y-2.77619 Z[#100+-0.04000]
#105=[#555+[#556-#555]*0.54202]
#106=[#561+[#562-#561]*0.54202]
#100=[#105+[#106-#105]*0.83763]
X-7.17780 Y-2.77138 Z[#100+-0.04000]
#105=[#555+[#556-#555]*0.55350]
#106=[#561+[#562-#561]*0.55350]
#100=[#105+[#106-#105]*0.83559]
X-7.17858 Y-2.76704 Z[#100+-0.04000]
#105=[#555+[#556-#555]*0.56666]
#106=[#561+[#562-#561]*0.56666]
#100=[#105+[#106-#105]*0.83156]
X-7.18013 Y-2.76206 Z[#100+-0.04000]
#105=[#555+[#556-#555]*0.57350]
#106=[#561+[#562-#561]*0.57350]
#100=[#105+[#106-#105]*0.82869]
X-7.18123 Y-2.75947 Z[#100+-0.04000]
#105=[#555+[#556-#555]*0.58010]
#106=[#561+[#562-#561]*0.58010]
#100=[#105+[#106-#105]*0.82534]
X-7.18251 Y-2.75697 Z[#100+-0.04000]
#105=[#555+[#556-#555]*0.59251]
#106=[#561+[#562-#561]*0.59251]
#100=[#105+[#106-#105]*0.81730]
X-7.18560 Y-2.75228 Z[#100+-0.04000]
#105=[#555+[#556-#555]*0.60288]
#106=[#561+[#562-#561]*0.60288]
#100=[#105+[#106-#105]*0.80835]
X-7.18903 Y-2.74835 Z[#100+-0.04000]
#105=[#555+[#556-#555]*0.61196]
#106=[#561+[#562-#561]*0.61196]
#100=[#105+[#106-#105]*0.79812]
X-7.19296 Y-2.74491 Z[#100+-0.04000]
#105=[#555+[#556-#555]*0.62011]
#106=[#561+[#562-#561]*0.62011]
#100=[#105+[#106-#105]*0.78589]
X-7.19765 Y-2.74183 Z[#100+-0.04000]
#105=[#555+[#556-#555]*0.62603]
#106=[#561+[#562-#561]*0.62603]
#100=[#105+[#106-#105]*0.77361]
X-7.20236 Y-2.73959 Z[#100+-0.04000]
#105=[#555+[#556-#555]*0.63025]
#106=[#561+[#562-#561]*0.63025]
#100=[#105+[#106-#105]*0.76067]
X-7.20733 Y-2.73799 Z[#100+-0.04000]
#105=[#555+[#556-#555]*0.63179]
#106=[#561+[#562-#561]*0.63179]
#100=[#105+[#106-#105]*0.75350]
X-7.21008 Y-2.73741 Z[#100+-0.04000]
#105=[#555+[#556-#555]*0.63281]
#106=[#561+[#562-#561]*0.63281]
#100=[#105+[#106-#105]*0.74625]
X-7.21286 Y-2.73702 Z[#100+-0.04000]
#105=[#555+[#556-#555]*0.63330]
#106=[#561+[#562-#561]*0.63330]
#100=[#105+[#106-#105]*0.73266]
X-7.21808 Y-2.73684 Z[#100+-0.04000]
#105=[#555+[#556-#555]*0.63197]
#106=[#561+[#562-#561]*0.63197]
#100=[#105+[#106-#105]*0.71913]
X-7.22327 Y-2.73734 Z[#100+-0.04000]
#105=[#555+[#556-#555]*0.63050]
#106=[#561+[#562-#561]*0.63050]
#100=[#105+[#106-#105]*0.71195]
X-7.22602 Y-2.73790 Z[#100+-0.04000]
#105=[#555+[#556-#555]*0.62852]
#106=[#561+[#562-#561]*0.62852]
#100=[#105+[#106-#105]*0.70490]
X-7.22873 Y-2.73865 Z[#100+-0.04000]
#105=[#555+[#556-#555]*0.62603]
#106=[#561+[#562-#561]*0.62603]
#100=[#105+[#106-#105]*0.69800]
X-7.23138 Y-2.73959 Z[#100+-0.04000]
#105=[#555+[#556-#555]*0.62305]
#106=[#561+[#562-#561]*0.62305]
#100=[#105+[#106-#105]*0.69129]
X-7.23395 Y-2.74072 Z[#100+-0.04000]
#105=[#555+[#556-#555]*0.61626]
#106=[#561+[#562-#561]*0.61626]
#100=[#105+[#106-#105]*0.67946]
X-7.23849 Y-2.74329 Z[#100+-0.04000]
#105=[#555+[#556-#555]*0.60794]
#106=[#561+[#562-#561]*0.60794]
#100=[#105+[#106-#105]*0.66862]
X-7.24265 Y-2.74644 Z[#100+-0.04000]
#105=[#555+[#556-#555]*0.59824]
#106=[#561+[#562-#561]*0.59824]
#100=[#105+[#106-#105]*0.65896]
X-7.24636 Y-2.75011 Z[#100+-0.04000]
#105=[#555+[#556-#555]*0.59081]
#106=[#561+[#562-#561]*0.59081]
#100=[#105+[#106-#105]*0.65305]
X-7.24863 Y-2.75292 Z[#100+-0.04000]
#105=[#555+[#556-#555]*0.58377]
#106=[#561+[#562-#561]*0.58377]
#100=[#105+[#106-#105]*0.64838]
X-7.25042 Y-2.75558 Z[#100+-0.04000]
#105=[#555+[#556-#555]*0.57541]
#106=[#561+[#562-#561]*0.57541]
#100=[#105+[#106-#105]*0.64383]
X-7.25217 Y-2.75875 Z[#100+-0.04000]
#105=[#555+[#556-#555]*0.56666]
#106=[#561+[#562-#561]*0.56666]
#100=[#105+[#106-#105]*0.64005]
X-7.25362 Y-2.76206 Z[#100+-0.04000]
#105=[#555+[#556-#555]*0.55862]
#106=[#561+[#562-#561]*0.55862]
#100=[#105+[#106-#105]*0.63736]
X-7.25465 Y-2.76510 Z[#100+-0.04000]
#105=[#555+[#556-#555]*0.54935]
#106=[#561+[#562-#561]*0.54935]
#100=[#105+[#106-#105]*0.63513]
X-7.25551 Y-2.76861 Z[#100+-0.04000]
#105=[#555+[#556-#555]*0.53991]
#106=[#561+[#562-#561]*0.53991]
#100=[#105+[#106-#105]*0.63374]
X-7.25604 Y-2.77218 Z[#100+-0.04000]
#105=[#555+[#556-#555]*0.53144]
#106=[#561+[#562-#561]*0.53144]
#100=[#105+[#106-#105]*0.63323]
X-7.25623 Y-2.77539 Z[#100+-0.04000]
#100=[#555+[#561-#555]*0.63322]
X-7.25624 Y-2.97649 Z[#100+-0.04000]
#105=[#554+[#555-#554]*0.20698]
#106=[#560+[#561-#560]*0.20698]
#100=[#105+[#106-#105]*0.63321]
X-7.25624 Y-3.27659 Z[#100+-0.04000]
#105=[#554+[#555-#554]*0.19429]
#106=[#560+[#561-#560]*0.19429]
#100=[#105+[#106-#105]*0.63411]
X-7.25590 Y-3.28139 Z[#100+-0.04000]
#105=[#554+[#555-#554]*0.18283]
#106=[#560+[#561-#560]*0.18283]
#100=[#105+[#106-#105]*0.63627]
X-7.25507 Y-3.28573 Z[#100+-0.04000]
#105=[#554+[#555-#554]*0.17069]
#106=[#560+[#561-#560]*0.17069]
#100=[#105+[#106-#105]*0.64005]
X-7.25362 Y-3.29032 Z[#100+-0.04000]
#105=[#554+[#555-#554]*0.16005]
#106=[#560+[#561-#560]*0.16005]
#100=[#105+[#106-#105]*0.64478]
X-7.25180 Y-3.29435 Z[#100+-0.04000]
#105=[#554+[#555-#554]*0.14914]
#106=[#560+[#561-#560]*0.14914]
#100=[#105+[#106-#105]*0.65123]
X-7.24933 Y-3.29848 Z[#100+-0.04000]
#105=[#554+[#555-#554]*0.13991]
#106=[#560+[#561-#560]*0.13991]
#100=[#105+[#106-#105]*0.65827]
X-7.24663 Y-3.30197 Z[#100+-0.04000]
#105=[#554+[#555-#554]*0.13082]
#106=[#560+[#561-#560]*0.13082]
#100=[#105+[#106-#105]*0.66705]
X-7.24326 Y-3.30541 Z[#100+-0.04000]
#105=[#554+[#555-#554]*0.12350]
#106=[#560+[#561-#560]*0.12350]
#100=[#105+[#106-#105]*0.67601]
X-7.23982 Y-3.30818 Z[#100+-0.04000]
#105=[#554+[#555-#554]*0.11724]
#106=[#560+[#561-#560]*0.11724]
#100=[#105+[#106-#105]*0.68572]
X-7.23609 Y-3.31055 Z[#100+-0.04000]
#105=[#554+[#555-#554]*0.11213]
#106=[#560+[#561-#560]*0.11213]
#100=[#105+[#106-#105]*0.69606]
X-7.23212 Y-3.31249 Z[#100+-0.04000]
#105=[#554+[#555-#554]*0.10822]
#106=[#560+[#561-#560]*0.10822]
#100=[#105+[#106-#105]*0.70690]
X-7.22796 Y-3.31397 Z[#100+-0.04000]
#105=[#554+[#555-#554]*0.10539]
#106=[#560+[#561-#560]*0.10539]
#100=[#105+[#106-#105]*0.71913]
X-7.22327 Y-3.31504 Z[#100+-0.04000]
#105=[#554+[#555-#554]*0.10414]
#106=[#560+[#561-#560]*0.10414]
#100=[#105+[#106-#105]*0.73057]
X-7.21888 Y-3.31551 Z[#100+-0.04000]
#105=[#554+[#555-#554]*0.10420]
#106=[#560+[#561-#560]*0.10420]
#100=[#105+[#106-#105]*0.74208]
X-7.21446 Y-3.31549 Z[#100+-0.04000]
#105=[#554+[#555-#554]*0.10556]
#106=[#560+[#561-#560]*0.10556]
#100=[#105+[#106-#105]*0.75350]
X-7.21008 Y-3.31497 Z[#100+-0.04000]
#105=[#554+[#555-#554]*0.10822]
#106=[#560+[#561-#560]*0.10822]
