( pcb2gcode 2.4.0 )
( Gcode for custom )

G94 ( Inches per minute feed rate. )
G20 ( Units == INCHES. )

G90 ( Absolute coordinates. )
G00 S12000 ( RPM spindle speed. )
G64 P0.00040 ( set maximum deviation from commanded toolpath )
G01 F360.00000 ( Feedrate. )

#118 = #5211
#119 = #5212

(MSG, Attach the probe tool)
M0 ( Temporary machine stop. )
G0 Z0.080 ( Move Z to safe height )
G0 X4.68508 Y-3.35492 ( Move XY to start point )
G0 Z0.080 ( Move Z to probe height )
G38.2 Z-0.1 F2.362205 ( Z-probe )
#500 = 0 ( Probe point [0, 0] is our reference )
G92 Z0 ( Set the current Z as zero-value )

( We now start the real probing: move the Z axis to the probing height, move to )
( the probing XY position, probe it and save the result, parameter #2002, )
( in a numbered parameter; we will make 17 probes on the X-axis and )
( 7 probes on the Y-axis, for a grand total of 119 probes )

G0 Z0.080
X4.68508 Y-2.99285
G38.2 Z-0.1 F2.362205
#501=#2002
G0 Z0.080
X4.68508 Y-2.63078
G38.2 Z-0.1 F2.362205
#502=#2002
G0 Z0.080
X4.68508 Y-2.26870
G38.2 Z-0.1 F2.362205
#503=#2002
G0 Z0.080
X4.68508 Y-1.90663
G38.2 Z-0.1 F2.362205
#504=#2002
G0 Z0.080
X4.68508 Y-1.54456
G38.2 Z-0.1 F2.362205
#505=#2002
G0 Z0.080
X4.68508 Y-1.18249
G38.2 Z-0.1 F2.362205
#506=#2002
G0 Z0.080
X5.07682 Y-1.18249
G38.2 Z-0.1 F2.362205
#513=#2002
G0 Z0.080
X5.07682 Y-1.54456
G38.2 Z-0.1 F2.362205
#512=#2002
G0 Z0.080
X5.07682 Y-1.90663
G38.2 Z-0.1 F2.362205
#511=#2002
G0 Z0.080
X5.07682 Y-2.26870
G38.2 Z-0.1 F2.362205
#510=#2002
G0 Z0.080
X5.07682 Y-2.63078
G38.2 Z-0.1 F2.362205
#509=#2002
G0 Z0.080
X5.07682 Y-2.99285
G38.2 Z-0.1 F2.362205
#508=#2002
G0 Z0.080
X5.07682 Y-3.35492
G38.2 Z-0.1 F2.362205
#507=#2002
G0 Z0.080
X5.46856 Y-3.35492
G38.2 Z-0.1 F2.362205
#514=#2002
G0 Z0.080
X5.46856 Y-2.99285
G38.2 Z-0.1 F2.362205
#515=#2002
G0 Z0.080
X5.46856 Y-2.63078
G38.2 Z-0.1 F2.362205
#516=#2002
G0 Z0.080
X5.46856 Y-2.26870
G38.2 Z-0.1 F2.362205
#517=#2002
G0 Z0.080
X5.46856 Y-1.90663
G38.2 Z-0.1 F2.362205
#518=#2002
G0 Z0.080
X5.46856 Y-1.54456
G38.2 Z-0.1 F2.362205
#519=#2002
G0 Z0.080
X5.46856 Y-1.18249
G38.2 Z-0.1 F2.362205
#520=#2002
G0 Z0.080
X5.86030 Y-1.18249
G38.2 Z-0.1 F2.362205
#527=#2002
G0 Z0.080
X5.86030 Y-1.54456
G38.2 Z-0.1 F2.362205
#526=#2002
G0 Z0.080
X5.86030 Y-1.90663
G38.2 Z-0.1 F2.362205
#525=#2002
G0 Z0.080
X5.86030 Y-2.26870
G38.2 Z-0.1 F2.362205
#524=#2002
G0 Z0.080
X5.86030 Y-2.63078
G38.2 Z-0.1 F2.362205
#523=#2002
G0 Z0.080
X5.86030 Y-2.99285
G38.2 Z-0.1 F2.362205
#522=#2002
G0 Z0.080
X5.86030 Y-3.35492
G38.2 Z-0.1 F2.362205
#521=#2002
G0 Z0.080
X6.25204 Y-3.35492
G38.2 Z-0.1 F2.362205
#528=#2002
G0 Z0.080
X6.25204 Y-2.99285
G38.2 Z-0.1 F2.362205
#529=#2002
G0 Z0.080
X6.25204 Y-2.63078
G38.2 Z-0.1 F2.362205
#530=#2002
G0 Z0.080
X6.25204 Y-2.26870
G38.2 Z-0.1 F2.362205
#531=#2002
G0 Z0.080
X6.25204 Y-1.90663
G38.2 Z-0.1 F2.362205
#532=#2002
G0 Z0.080
X6.25204 Y-1.54456
G38.2 Z-0.1 F2.362205
#533=#2002
G0 Z0.080
X6.25204 Y-1.18249
G38.2 Z-0.1 F2.362205
#534=#2002
G0 Z0.080
X6.64379 Y-1.18249
G38.2 Z-0.1 F2.362205
#541=#2002
G0 Z0.080
X6.64379 Y-1.54456
G38.2 Z-0.1 F2.362205
#540=#2002
G0 Z0.080
X6.64379 Y-1.90663
G38.2 Z-0.1 F2.362205
#539=#2002
G0 Z0.080
X6.64379 Y-2.26870
G38.2 Z-0.1 F2.362205
#538=#2002
G0 Z0.080
X6.64379 Y-2.63078
G38.2 Z-0.1 F2.362205
#537=#2002
G0 Z0.080
X6.64379 Y-2.99285
G38.2 Z-0.1 F2.362205
#536=#2002
G0 Z0.080
X6.64379 Y-3.35492
G38.2 Z-0.1 F2.362205
#535=#2002
G0 Z0.080
X7.03553 Y-3.35492
G38.2 Z-0.1 F2.362205
#542=#2002
G0 Z0.080
X7.03553 Y-2.99285
G38.2 Z-0.1 F2.362205
#543=#2002
G0 Z0.080
X7.03553 Y-2.63078
G38.2 Z-0.1 F2.362205
#544=#2002
G0 Z0.080
X7.03553 Y-2.26870
G38.2 Z-0.1 F2.362205
#545=#2002
G0 Z0.080
X7.03553 Y-1.90663
G38.2 Z-0.1 F2.362205
#546=#2002
G0 Z0.080
X7.03553 Y-1.54456
G38.2 Z-0.1 F2.362205
#547=#2002
G0 Z0.080
X7.03553 Y-1.18249
G38.2 Z-0.1 F2.362205
#548=#2002
G0 Z0.080
X7.42727 Y-1.18249
G38.2 Z-0.1 F2.362205
#555=#2002
G0 Z0.080
X7.42727 Y-1.54456
G38.2 Z-0.1 F2.362205
#554=#2002
G0 Z0.080
X7.42727 Y-1.90663
G38.2 Z-0.1 F2.362205
#553=#2002
G0 Z0.080
X7.42727 Y-2.26870
G38.2 Z-0.1 F2.362205
#552=#2002
G0 Z0.080
X7.42727 Y-2.63078
G38.2 Z-0.1 F2.362205
#551=#2002
G0 Z0.080
X7.42727 Y-2.99285
G38.2 Z-0.1 F2.362205
#550=#2002
G0 Z0.080
X7.42727 Y-3.35492
G38.2 Z-0.1 F2.362205
#549=#2002
G0 Z0.080
X7.81901 Y-3.35492
G38.2 Z-0.1 F2.362205
#556=#2002
G0 Z0.080
X7.81901 Y-2.99285
G38.2 Z-0.1 F2.362205
#557=#2002
G0 Z0.080
X7.81901 Y-2.63078
G38.2 Z-0.1 F2.362205
#558=#2002
G0 Z0.080
X7.81901 Y-2.26870
G38.2 Z-0.1 F2.362205
#559=#2002
G0 Z0.080
X7.81901 Y-1.90663
G38.2 Z-0.1 F2.362205
#560=#2002
G0 Z0.080
X7.81901 Y-1.54456
G38.2 Z-0.1 F2.362205
#561=#2002
G0 Z0.080
X7.81901 Y-1.18249
G38.2 Z-0.1 F2.362205
#562=#2002
G0 Z0.080
X8.21076 Y-1.18249
G38.2 Z-0.1 F2.362205
#569=#2002
G0 Z0.080
X8.21076 Y-1.54456
G38.2 Z-0.1 F2.362205
#568=#2002
G0 Z0.080
X8.21076 Y-1.90663
G38.2 Z-0.1 F2.362205
#567=#2002
G0 Z0.080
X8.21076 Y-2.26870
G38.2 Z-0.1 F2.362205
#566=#2002
G0 Z0.080
X8.21076 Y-2.63078
G38.2 Z-0.1 F2.362205
#565=#2002
G0 Z0.080
X8.21076 Y-2.99285
G38.2 Z-0.1 F2.362205
#564=#2002
G0 Z0.080
X8.21076 Y-3.35492
G38.2 Z-0.1 F2.362205
#563=#2002
G0 Z0.080
X8.60250 Y-3.35492
G38.2 Z-0.1 F2.362205
#570=#2002
G0 Z0.080
X8.60250 Y-2.99285
G38.2 Z-0.1 F2.362205
#571=#2002
G0 Z0.080
X8.60250 Y-2.63078
G38.2 Z-0.1 F2.362205
#572=#2002
G0 Z0.080
X8.60250 Y-2.26870
G38.2 Z-0.1 F2.362205
#573=#2002
G0 Z0.080
X8.60250 Y-1.90663
G38.2 Z-0.1 F2.362205
#574=#2002
G0 Z0.080
X8.60250 Y-1.54456
G38.2 Z-0.1 F2.362205
#575=#2002
G0 Z0.080
X8.60250 Y-1.18249
G38.2 Z-0.1 F2.362205
#576=#2002
G0 Z0.080
X8.99424 Y-1.18249
G38.2 Z-0.1 F2.362205
#583=#2002
G0 Z0.080
X8.99424 Y-1.54456
G38.2 Z-0.1 F2.362205
#582=#2002
G0 Z0.080
X8.99424 Y-1.90663
G38.2 Z-0.1 F2.362205
#581=#2002
G0 Z0.080
X8.99424 Y-2.26870
G38.2 Z-0.1 F2.362205
#580=#2002
G0 Z0.080
X8.99424 Y-2.63078
G38.2 Z-0.1 F2.362205
#579=#2002
G0 Z0.080
X8.99424 Y-2.99285
G38.2 Z-0.1 F2.362205
#578=#2002
G0 Z0.080
X8.99424 Y-3.35492
G38.2 Z-0.1 F2.362205
#577=#2002
G0 Z0.080
X9.38598 Y-3.35492
G38.2 Z-0.1 F2.362205
#584=#2002
G0 Z0.080
X9.38598 Y-2.99285
G38.2 Z-0.1 F2.362205
#585=#2002
G0 Z0.080
X9.38598 Y-2.63078
G38.2 Z-0.1 F2.362205
#586=#2002
G0 Z0.080
X9.38598 Y-2.26870
G38.2 Z-0.1 F2.362205
#587=#2002
G0 Z0.080
X9.38598 Y-1.90663
G38.2 Z-0.1 F2.362205
#588=#2002
G0 Z0.080
X9.38598 Y-1.54456
G38.2 Z-0.1 F2.362205
#589=#2002
G0 Z0.080
X9.38598 Y-1.18249
G38.2 Z-0.1 F2.362205
#590=#2002
G0 Z0.080
X9.77773 Y-1.18249
G38.2 Z-0.1 F2.362205
#597=#2002
G0 Z0.080
X9.77773 Y-1.54456
G38.2 Z-0.1 F2.362205
#596=#2002
G0 Z0.080
X9.77773 Y-1.90663
G38.2 Z-0.1 F2.362205
#595=#2002
G0 Z0.080
X9.77773 Y-2.26870
G38.2 Z-0.1 F2.362205
#594=#2002
G0 Z0.080
X9.77773 Y-2.63078
G38.2 Z-0.1 F2.362205
#593=#2002
G0 Z0.080
X9.77773 Y-2.99285
G38.2 Z-0.1 F2.362205
#592=#2002
G0 Z0.080
X9.77773 Y-3.35492
G38.2 Z-0.1 F2.362205
#591=#2002
G0 Z0.080
X10.16947 Y-3.35492
G38.2 Z-0.1 F2.362205
#598=#2002
G0 Z0.080
X10.16947 Y-2.99285
G38.2 Z-0.1 F2.362205
#599=#2002
G0 Z0.080
X10.16947 Y-2.63078
G38.2 Z-0.1 F2.362205
#600=#2002
G0 Z0.080
X10.16947 Y-2.26870
G38.2 Z-0.1 F2.362205
#601=#2002
G0 Z0.080
X10.16947 Y-1.90663
G38.2 Z-0.1 F2.362205
#602=#2002
G0 Z0.080
X10.16947 Y-1.54456
G38.2 Z-0.1 F2.362205
#603=#2002
G0 Z0.080
X10.16947 Y-1.18249
G38.2 Z-0.1 F2.362205
#604=#2002
G0 Z0.080
X10.56121 Y-1.18249
G38.2 Z-0.1 F2.362205
#611=#2002
G0 Z0.080
X10.56121 Y-1.54456
G38.2 Z-0.1 F2.362205
#610=#2002
G0 Z0.080
X10.56121 Y-1.90663
G38.2 Z-0.1 F2.362205
#609=#2002
G0 Z0.080
X10.56121 Y-2.26870
G38.2 Z-0.1 F2.362205
#608=#2002
G0 Z0.080
X10.56121 Y-2.63078
G38.2 Z-0.1 F2.362205
#607=#2002
G0 Z0.080
X10.56121 Y-2.99285
G38.2 Z-0.1 F2.362205
#606=#2002
G0 Z0.080
X10.56121 Y-3.35492
G38.2 Z-0.1 F2.362205
#605=#2002
G0 Z0.080
X10.95295 Y-3.35492
G38.2 Z-0.1 F2.362205
#612=#2002
G0 Z0.080
X10.95295 Y-2.99285
G38.2 Z-0.1 F2.362205
#613=#2002
G0 Z0.080
X10.95295 Y-2.63078
G38.2 Z-0.1 F2.362205
#614=#2002
G0 Z0.080
X10.95295 Y-2.26870
G38.2 Z-0.1 F2.362205
#615=#2002
G0 Z0.080
X10.95295 Y-1.90663
G38.2 Z-0.1 F2.362205
#616=#2002
G0 Z0.080
X10.95295 Y-1.54456
G38.2 Z-0.1 F2.362205
#617=#2002
G0 Z0.080
X10.95295 Y-1.18249
G38.2 Z-0.1 F2.362205
#618=#2002

G0 Z0.080 ( Move Z to safe height )
( Probing has ended, each Z-coordinate will be corrected with a bilinear interpolation )
(MSG, Detach the probe tool)
M0 ( Temporary machine stop. )


G00 Z1.00000 (Retract to tool change height)
T0
M5      (Spindle stop.)
G04 P1.00000 (Wait for spindle to stop)
(MSG, Change tool bit to mill diameter 0.00000in)
M6      (Tool change.)
M0      (Temporary machine stop.)
M3 ( Spindle on clockwise. )
G04 P1.00000 (Wait for spindle to get up to speed)
( Piece #1, position [0;0] )

G04 P0 ( dwell for no time -- G64 should not smooth over this point )
G00 Z0.08000 ( retract )

G00 X4.68508 Y-2.97619 ( rapid move to begin. )
G01 F180.00000
( Mill infeed pass 1/1 )
#111=[#501+[#502-#501]*0.04601]
G01 Z[-0.04000+#111]
G04 P0 ( dwell for no time -- G64 should not smooth over this point )
G01 F360.00000
#111=[#501+[#502-#501]*1.00000]
X4.68508 Y-2.63078 Z[#111+-0.04000]
#111=[#502+[#503-#502]*0.42695]
X4.68508 Y-2.47619 Z[#111+-0.04000]
#116=[#502+[#503-#502]*0.43756]
#117=[#509+[#510-#509]*0.43756]
#111=[#116+[#117-#116]*0.00097]
X4.68545 Y-2.47235 Z[#111+-0.04000]
#116=[#502+[#503-#502]*0.44776]
#117=[#509+[#510-#509]*0.44776]
#111=[#116+[#117-#116]*0.00383]
X4.68657 Y-2.46866 Z[#111+-0.04000]
#116=[#502+[#503-#502]*0.45716]
#117=[#509+[#510-#509]*0.45716]
#111=[#116+[#117-#116]*0.00847]
X4.68839 Y-2.46525 Z[#111+-0.04000]
#116=[#502+[#503-#502]*0.46540]
#117=[#509+[#510-#509]*0.46540]
#111=[#116+[#117-#116]*0.01472]
X4.69084 Y-2.46227 Z[#111+-0.04000]
#116=[#502+[#503-#502]*0.47216]
#117=[#509+[#510-#509]*0.47216]
#111=[#116+[#117-#116]*0.02233]
X4.69382 Y-2.45982 Z[#111+-0.04000]
#116=[#502+[#503-#502]*0.47718]
#117=[#509+[#510-#509]*0.47718]
#111=[#116+[#117-#116]*0.03102]
X4.69723 Y-2.45800 Z[#111+-0.04000]
#116=[#502+[#503-#502]*0.48027]
#117=[#509+[#510-#509]*0.48027]
#111=[#116+[#117-#116]*0.04045]
X4.70092 Y-2.45688 Z[#111+-0.04000]
#116=[#502+[#503-#502]*0.48132]
#117=[#509+[#510-#509]*0.48132]
#111=[#116+[#117-#116]*0.05025]
X4.70476 Y-2.45650 Z[#111+-0.04000]
#116=[#502+[#503-#502]*0.48132]
#117=[#509+[#510-#509]*0.48132]
#111=[#116+[#117-#116]*0.65804]
X4.94286 Y-2.45650 Z[#111+-0.04000]
#116=[#502+[#503-#502]*0.48027]
#117=[#509+[#510-#509]*0.48027]
#111=[#116+[#117-#116]*0.66784]
X4.94670 Y-2.45688 Z[#111+-0.04000]
#116=[#502+[#503-#502]*0.47718]
#117=[#509+[#510-#509]*0.47718]
#111=[#116+[#117-#116]*0.67727]
X4.95039 Y-2.45800 Z[#111+-0.04000]
#116=[#502+[#503-#502]*0.47216]
#117=[#509+[#510-#509]*0.47216]
#111=[#116+[#117-#116]*0.68596]
X4.95379 Y-2.45982 Z[#111+-0.04000]
#116=[#502+[#503-#502]*0.46540]
#117=[#509+[#510-#509]*0.46540]
#111=[#116+[#117-#116]*0.69357]
X4.95678 Y-2.46227 Z[#111+-0.04000]
#116=[#502+[#503-#502]*0.45716]
#117=[#509+[#510-#509]*0.45716]
#111=[#116+[#117-#116]*0.69982]
X4.95922 Y-2.46525 Z[#111+-0.04000]
#116=[#502+[#503-#502]*0.44776]
#117=[#509+[#510-#509]*0.44776]
#111=[#116+[#117-#116]*0.70446]
X4.96104 Y-2.46866 Z[#111+-0.04000]
#116=[#502+[#503-#502]*0.43756]
#117=[#509+[#510-#509]*0.43756]
#111=[#116+[#117-#116]*0.70732]
X4.96216 Y-2.47235 Z[#111+-0.04000]
#116=[#502+[#503-#502]*0.42695]
#117=[#509+[#510-#509]*0.42695]
#111=[#116+[#117-#116]*0.70829]
X4.96254 Y-2.47619 Z[#111+-0.04000]
#116=[#502+[#503-#502]*0.41634]
#117=[#509+[#510-#509]*0.41634]
#111=[#116+[#117-#116]*0.70732]
X4.96216 Y-2.48003 Z[#111+-0.04000]
#116=[#502+[#503-#502]*0.40614]
#117=[#509+[#510-#509]*0.40614]
#111=[#116+[#117-#116]*0.70446]
X4.96104 Y-2.48372 Z[#111+-0.04000]
#116=[#502+[#503-#502]*0.39675]
#117=[#509+[#510-#509]*0.39675]
#111=[#116+[#117-#116]*0.69982]
X4.95922 Y-2.48713 Z[#111+-0.04000]
#116=[#502+[#503-#502]*0.38851]
#117=[#509+[#510-#509]*0.38851]
#111=[#116+[#117-#116]*0.69357]
X4.95678 Y-2.49011 Z[#111+-0.04000]
#116=[#502+[#503-#502]*0.38175]
#117=[#509+[#510-#509]*0.38175]
#111=[#116+[#117-#116]*0.68596]
X4.95379 Y-2.49256 Z[#111+-0.04000]
#116=[#502+[#503-#502]*0.37672]
#117=[#509+[#510-#509]*0.37672]
#111=[#116+[#117-#116]*0.67727]
X4.95039 Y-2.49438 Z[#111+-0.04000]
#116=[#502+[#503-#502]*0.37363]
#117=[#509+[#510-#509]*0.37363]
#111=[#116+[#117-#116]*0.66784]
X4.94670 Y-2.49550 Z[#111+-0.04000]
#116=[#502+[#503-#502]*0.37258]
#117=[#509+[#510-#509]*0.37258]
#111=[#116+[#117-#116]*0.65804]
X4.94286 Y-2.49587 Z[#111+-0.04000]
#116=[#502+[#503-#502]*0.37258]
#117=[#509+[#510-#509]*0.37258]
#111=[#116+[#117-#116]*0.10050]
X4.72445 Y-2.49587 Z[#111+-0.04000]
#116=[#501+[#502-#501]*1.00000]
#117=[#508+[#509-#508]*1.00000]
#111=[#116+[#117-#116]*0.10050]
X4.72445 Y-2.63078 Z[#111+-0.04000]
#116=[#501+[#502-#501]*0.82373]
#117=[#508+[#509-#508]*0.82373]
#111=[#116+[#117-#116]*0.10050]
X4.72445 Y-2.69460 Z[#111+-0.04000]
#116=[#501+[#502-#501]*0.82373]
#117=[#508+[#509-#508]*0.82373]
#111=[#116+[#117-#116]*0.47570]
X4.87143 Y-2.69460 Z[#111+-0.04000]
#116=[#501+[#502-#501]*0.82268]
#117=[#508+[#509-#508]*0.82268]
#111=[#116+[#117-#116]*0.48551]
X4.87527 Y-2.69498 Z[#111+-0.04000]
#116=[#501+[#502-#501]*0.81959]
#117=[#508+[#509-#508]*0.81959]
#111=[#116+[#117-#116]*0.49493]
X4.87896 Y-2.69610 Z[#111+-0.04000]
#116=[#501+[#502-#501]*0.81457]
#117=[#508+[#509-#508]*0.81457]
#111=[#116+[#117-#116]*0.50362]
X4.88236 Y-2.69792 Z[#111+-0.04000]
#116=[#501+[#502-#501]*0.80781]
#117=[#508+[#509-#508]*0.80781]
#111=[#116+[#117-#116]*0.51123]
X4.88535 Y-2.70037 Z[#111+-0.04000]
#116=[#501+[#502-#501]*0.79957]
#117=[#508+[#509-#508]*0.79957]
#111=[#116+[#117-#116]*0.51748]
X4.88779 Y-2.70335 Z[#111+-0.04000]
#116=[#501+[#502-#501]*0.79017]
#117=[#508+[#509-#508]*0.79017]
#111=[#116+[#117-#116]*0.52213]
X4.88961 Y-2.70675 Z[#111+-0.04000]
#116=[#501+[#502-#501]*0.77997]
#117=[#508+[#509-#508]*0.77997]
#111=[#116+[#117-#116]*0.52499]
X4.89073 Y-2.71044 Z[#111+-0.04000]
#116=[#501+[#502-#501]*0.76936]
#117=[#508+[#509-#508]*0.76936]
#111=[#116+[#117-#116]*0.52595]
X4.89111 Y-2.71428 Z[#111+-0.04000]
#116=[#501+[#502-#501]*0.75875]
#117=[#508+[#509-#508]*0.75875]
#111=[#116+[#117-#116]*0.52499]
X4.89073 Y-2.71813 Z[#111+-0.04000]
#116=[#501+[#502-#501]*0.74855]
#117=[#508+[#509-#508]*0.74855]
#111=[#116+[#117-#116]*0.52213]
X4.88961 Y-2.72182 Z[#111+-0.04000]
#116=[#501+[#502-#501]*0.73916]
#117=[#508+[#509-#508]*0.73916]
#111=[#116+[#117-#116]*0.51748]
X4.88779 Y-2.72522 Z[#111+-0.04000]
#116=[#501+[#502-#501]*0.73092]
#117=[#508+[#509-#508]*0.73092]
#111=[#116+[#117-#116]*0.51123]
X4.88535 Y-2.72820 Z[#111+-0.04000]
#116=[#501+[#502-#501]*0.72416]
#117=[#508+[#509-#508]*0.72416]
#111=[#116+[#117-#116]*0.50362]
X4.88236 Y-2.73065 Z[#111+-0.04000]
#116=[#501+[#502-#501]*0.71913]
#117=[#508+[#509-#508]*0.71913]
#111=[#116+[#117-#116]*0.49493]
X4.87896 Y-2.73247 Z[#111+-0.04000]
#116=[#501+[#502-#501]*0.71604]
#117=[#508+[#509-#508]*0.71604]
#111=[#116+[#117-#116]*0.48551]
X4.87527 Y-2.73359 Z[#111+-0.04000]
#116=[#501+[#502-#501]*0.71499]
#117=[#508+[#509-#508]*0.71499]
#111=[#116+[#117-#116]*0.47570]
X4.87143 Y-2.73397 Z[#111+-0.04000]
#116=[#501+[#502-#501]*0.71499]
#117=[#508+[#509-#508]*0.71499]
#111=[#116+[#117-#116]*0.10050]
X4.72445 Y-2.73397 Z[#111+-0.04000]
#116=[#501+[#502-#501]*0.04601]
#117=[#508+[#509-#508]*0.04601]
#111=[#116+[#117-#116]*0.10050]
X4.72445 Y-2.97619 Z[#111+-0.04000]
#116=[#501+[#502-#501]*0.03540]
#117=[#508+[#509-#508]*0.03540]
#111=[#116+[#117-#116]*0.09953]
X4.72407 Y-2.98003 Z[#111+-0.04000]
#116=[#501+[#502-#501]*0.02520]
#117=[#508+[#509-#508]*0.02520]
#111=[#116+[#117-#116]*0.09668]
X4.72295 Y-2.98372 Z[#111+-0.04000]
#116=[#501+[#502-#501]*0.01581]
#117=[#508+[#509-#508]*0.01581]
#111=[#116+[#117-#116]*0.09203]
X4.72113 Y-2.98713 Z[#111+-0.04000]
#116=[#501+[#502-#501]*0.00757]
#117=[#508+[#509-#508]*0.00757]
#111=[#116+[#117-#116]*0.08578]
X4.71868 Y-2.99011 Z[#111+-0.04000]
#116=[#501+[#502-#501]*0.00081]
#117=[#508+[#509-#508]*0.00081]
#111=[#116+[#117-#116]*0.07817]
X4.71570 Y-2.99256 Z[#111+-0.04000]
#116=[#501+[#502-#501]*0.00000]
#117=[#508+[#509-#508]*0.00000]
#111=[#116+[#117-#116]*0.07677]
X4.71515 Y-2.99285 Z[#111+-0.04000]
#116=[#500+[#501-#500]*0.99578]
#117=[#507+[#508-#507]*0.99578]
#111=[#116+[#117-#116]*0.06948]
X4.71229 Y-2.99438 Z[#111+-0.04000]
#116=[#500+[#501-#500]*0.99269]
#117=[#507+[#508-#507]*0.99269]
#111=[#116+[#117-#116]*0.06005]
X4.70860 Y-2.99550 Z[#111+-0.04000]
#116=[#500+[#501-#500]*0.99164]
#117=[#507+[#508-#507]*0.99164]
#111=[#116+[#117-#116]*0.05025]
X4.70476 Y-2.99587 Z[#111+-0.04000]
#116=[#500+[#501-#500]*0.99269]
#117=[#507+[#508-#507]*0.99269]
#111=[#116+[#117-#116]*0.04045]
X4.70092 Y-2.99550 Z[#111+-0.04000]
#116=[#500+[#501-#500]*0.99578]
#117=[#507+[#508-#507]*0.99578]
#111=[#116+[#117-#116]*0.03102]
X4.69723 Y-2.99438 Z[#111+-0.04000]
#116=[#501+[#502-#501]*0.00000]
#117=[#508+[#509-#508]*0.00000]
#111=[#116+[#117-#116]*0.02373]
X4.69437 Y-2.99285 Z[#111+-0.04000]
#116=[#501+[#502-#501]*0.00081]
#117=[#508+[#509-#508]*0.00081]
#111=[#116+[#117-#116]*0.02233]
X4.69382 Y-2.99256 Z[#111+-0.04000]
#116=[#501+[#502-#501]*0.00757]
#117=[#508+[#509-#508]*0.00757]
#111=[#116+[#117-#116]*0.01472]
X4.69084 Y-2.99011 Z[#111+-0.04000]
#116=[#501+[#502-#501]*0.01581]
#117=[#508+[#509-#508]*0.01581]
#111=[#116+[#117-#116]*0.00847]
X4.68839 Y-2.98713 Z[#111+-0.04000]
#116=[#501+[#502-#501]*0.02520]
#117=[#508+[#509-#508]*0.02520]
#111=[#116+[#117-#116]*0.00383]
X4.68657 Y-2.98372 Z[#111+-0.04000]
#116=[#501+[#502-#501]*0.03540]
#117=[#508+[#509-#508]*0.03540]
#111=[#116+[#117-#116]*0.00097]
X4.68545 Y-2.98003 Z[#111+-0.04000]
#111=[#501+[#502-#501]*0.04601]
X4.68508 Y-2.97619 Z[#111+-0.04000]
G04 P0 ( dwell for no time -- G64 should not smooth over this point )
G00 Z0.08000 ( retract )

G00 X5.11365 Y-2.97619 ( rapid move to begin. )
G01 F180.00000
( Mill infeed pass 1/1 )
#116=[#508+[#509-#508]*0.04601]
#117=[#515+[#516-#515]*0.04601]
#111=[#116+[#117-#116]*0.09402]
G01 Z[-0.04000+#111]
G04 P0 ( dwell for no time -- G64 should not smooth over this point )
G01 F360.00000
#116=[#508+[#509-#508]*0.96664]
#117=[#515+[#516-#515]*0.96664]
#111=[#116+[#117-#116]*0.09402]
X5.11365 Y-2.64286 Z[#111+-0.04000]
#116=[#508+[#509-#508]*0.97724]
#117=[#515+[#516-#515]*0.97724]
#111=[#116+[#117-#116]*0.09498]
X5.11403 Y-2.63902 Z[#111+-0.04000]
#116=[#508+[#509-#508]*0.98744]
#117=[#515+[#516-#515]*0.98744]
#111=[#116+[#117-#116]*0.09784]
X5.11515 Y-2.63532 Z[#111+-0.04000]
#116=[#508+[#509-#508]*0.99684]
#117=[#515+[#516-#515]*0.99684]
#111=[#116+[#117-#116]*0.10248]
X5.11697 Y-2.63192 Z[#111+-0.04000]
#116=[#508+[#509-#508]*1.00000]
#117=[#515+[#516-#515]*1.00000]
#111=[#116+[#117-#116]*0.10488]
X5.11790 Y-2.63078 Z[#111+-0.04000]
#116=[#509+[#510-#509]*0.00508]
#117=[#516+[#517-#516]*0.00508]
#111=[#116+[#117-#116]*0.10873]
X5.11941 Y-2.62894 Z[#111+-0.04000]
#116=[#509+[#510-#509]*0.01184]
#117=[#516+[#517-#516]*0.01184]
#111=[#116+[#117-#116]*0.11635]
X5.12240 Y-2.62649 Z[#111+-0.04000]
#116=[#509+[#510-#509]*0.01687]
#117=[#516+[#517-#516]*0.01687]
#111=[#116+[#117-#116]*0.12504]
X5.12580 Y-2.62467 Z[#111+-0.04000]
#116=[#509+[#510-#509]*0.01996]
#117=[#516+[#517-#516]*0.01996]
#111=[#116+[#117-#116]*0.13446]
X5.12949 Y-2.62355 Z[#111+-0.04000]
#116=[#509+[#510-#509]*0.02101]
#117=[#516+[#517-#516]*0.02101]
#111=[#116+[#117-#116]*0.14427]
X5.13333 Y-2.62317 Z[#111+-0.04000]
#116=[#509+[#510-#509]*0.01996]
#117=[#516+[#517-#516]*0.01996]
#111=[#116+[#117-#116]*0.15407]
X5.13717 Y-2.62355 Z[#111+-0.04000]
#116=[#509+[#510-#509]*0.01687]
#117=[#516+[#517-#516]*0.01687]
#111=[#116+[#117-#116]*0.16350]
X5.14087 Y-2.62467 Z[#111+-0.04000]
#116=[#509+[#510-#509]*0.01184]
#117=[#516+[#517-#516]*0.01184]
#111=[#116+[#117-#116]*0.17218]
X5.14427 Y-2.62649 Z[#111+-0.04000]
#116=[#509+[#510-#509]*0.00508]
#117=[#516+[#517-#516]*0.00508]
#111=[#116+[#117-#116]*0.17980]
X5.14725 Y-2.62894 Z[#111+-0.04000]
#116=[#508+[#509-#508]*1.00000]
#117=[#515+[#516-#515]*1.00000]
#111=[#116+[#117-#116]*0.18365]
X5.14876 Y-2.63078 Z[#111+-0.04000]
#116=[#508+[#509-#508]*0.99684]
#117=[#515+[#516-#515]*0.99684]
#111=[#116+[#117-#116]*0.18605]
X5.14970 Y-2.63192 Z[#111+-0.04000]
#116=[#508+[#509-#508]*0.98744]
#117=[#515+[#516-#515]*0.98744]
#111=[#116+[#117-#116]*0.19069]
X5.15152 Y-2.63532 Z[#111+-0.04000]
#116=[#508+[#509-#508]*0.97724]
#117=[#515+[#516-#515]*0.97724]
#111=[#116+[#117-#116]*0.19355]
X5.15264 Y-2.63902 Z[#111+-0.04000]
#116=[#508+[#509-#508]*0.96664]
#117=[#515+[#516-#515]*0.96664]
#111=[#116+[#117-#116]*0.19452]
X5.15302 Y-2.64286 Z[#111+-0.04000]
#116=[#508+[#509-#508]*0.90062]
#117=[#515+[#516-#515]*0.90062]
#111=[#116+[#117-#116]*0.19452]
X5.15302 Y-2.66676 Z[#111+-0.04000]
#116=[#508+[#509-#508]*0.93932]
#117=[#515+[#516-#515]*0.93932]
#111=[#116+[#117-#116]*0.23029]
X5.16703 Y-2.65275 Z[#111+-0.04000]
#116=[#508+[#509-#508]*0.94499]
#117=[#515+[#516-#515]*0.94499]
#111=[#116+[#117-#116]*0.23644]
X5.16944 Y-2.65070 Z[#111+-0.04000]
#116=[#508+[#509-#508]*0.94951]
#117=[#515+[#516-#515]*0.94951]
#111=[#116+[#117-#116]*0.24335]
X5.17215 Y-2.64906 Z[#111+-0.04000]
#116=[#508+[#509-#508]*1.00000]
#117=[#515+[#516-#515]*1.00000]
#111=[#116+[#117-#116]*0.33669]
X5.20871 Y-2.63078 Z[#111+-0.04000]
#116=[#509+[#510-#509]*0.01526]
#117=[#516+[#517-#516]*0.01526]
#111=[#116+[#117-#116]*0.36491]
X5.21977 Y-2.62525 Z[#111+-0.04000]
#116=[#509+[#510-#509]*0.01955]
#117=[#516+[#517-#516]*0.01955]
#111=[#116+[#117-#116]*0.37584]
X5.22405 Y-2.62370 Z[#111+-0.04000]
#116=[#509+[#510-#509]*0.02101]
#117=[#516+[#517-#516]*0.02101]
#111=[#116+[#117-#116]*0.38738]
X5.22857 Y-2.62317 Z[#111+-0.04000]
#116=[#509+[#510-#509]*0.02101]
#117=[#516+[#517-#516]*0.02101]
#111=[#116+[#117-#116]*0.50894]
X5.27619 Y-2.62317 Z[#111+-0.04000]
#116=[#509+[#510-#509]*0.01996]
#117=[#516+[#517-#516]*0.01996]
#111=[#116+[#117-#116]*0.51874]
X5.28003 Y-2.62355 Z[#111+-0.04000]
#116=[#509+[#510-#509]*0.01687]
#117=[#516+[#517-#516]*0.01687]
#111=[#116+[#117-#116]*0.52817]
X5.28372 Y-2.62467 Z[#111+-0.04000]
#116=[#509+[#510-#509]*0.01184]
#117=[#516+[#517-#516]*0.01184]
#111=[#116+[#117-#116]*0.53685]
X5.28713 Y-2.62649 Z[#111+-0.04000]
#116=[#509+[#510-#509]*0.00508]
#117=[#516+[#517-#516]*0.00508]
#111=[#116+[#117-#116]*0.54447]
X5.29011 Y-2.62894 Z[#111+-0.04000]
#116=[#508+[#509-#508]*1.00000]
#117=[#515+[#516-#515]*1.00000]
#111=[#116+[#117-#116]*0.54832]
X5.29162 Y-2.63078 Z[#111+-0.04000]
#116=[#508+[#509-#508]*0.99684]
#117=[#515+[#516-#515]*0.99684]
#111=[#116+[#117-#116]*0.55072]
X5.29256 Y-2.63192 Z[#111+-0.04000]
#116=[#508+[#509-#508]*0.98744]
#117=[#515+[#516-#515]*0.98744]
#111=[#116+[#117-#116]*0.55536]
X5.29438 Y-2.63532 Z[#111+-0.04000]
#116=[#508+[#509-#508]*0.97724]
#117=[#515+[#516-#515]*0.97724]
#111=[#116+[#117-#116]*0.55822]
X5.29550 Y-2.63902 Z[#111+-0.04000]
#116=[#508+[#509-#508]*0.96664]
#117=[#515+[#516-#515]*0.96664]
#111=[#116+[#117-#116]*0.55919]
X5.29587 Y-2.64286 Z[#111+-0.04000]
#116=[#508+[#509-#508]*0.95603]
#117=[#515+[#516-#515]*0.95603]
#111=[#116+[#117-#116]*0.55822]
X5.29550 Y-2.64670 Z[#111+-0.04000]
#116=[#508+[#509-#508]*0.94583]
#117=[#515+[#516-#515]*0.94583]
#111=[#116+[#117-#116]*0.55536]
X5.29438 Y-2.65039 Z[#111+-0.04000]
#116=[#508+[#509-#508]*0.93643]
#117=[#515+[#516-#515]*0.93643]
#111=[#116+[#117-#116]*0.55072]
X5.29256 Y-2.65379 Z[#111+-0.04000]
#116=[#508+[#509-#508]*0.92819]
#117=[#515+[#516-#515]*0.92819]
#111=[#116+[#117-#116]*0.54447]
X5.29011 Y-2.65678 Z[#111+-0.04000]
#116=[#508+[#509-#508]*0.92143]
#117=[#515+[#516-#515]*0.92143]
#111=[#116+[#117-#116]*0.53685]
X5.28713 Y-2.65922 Z[#111+-0.04000]
#116=[#508+[#509-#508]*0.91641]
#117=[#515+[#516-#515]*0.91641]
#111=[#116+[#117-#116]*0.52817]
X5.28372 Y-2.66104 Z[#111+-0.04000]
#116=[#508+[#509-#508]*0.91331]
#117=[#515+[#516-#515]*0.91331]
#111=[#116+[#117-#116]*0.51874]
X5.28003 Y-2.66216 Z[#111+-0.04000]
#116=[#508+[#509-#508]*0.91227]
#117=[#515+[#516-#515]*0.91227]
#111=[#116+[#117-#116]*0.50894]
X5.27619 Y-2.66254 Z[#111+-0.04000]
#116=[#508+[#509-#508]*0.91227]
#117=[#515+[#516-#515]*0.91227]
#111=[#116+[#117-#116]*0.39924]
X5.23322 Y-2.66254 Z[#111+-0.04000]
#116=[#508+[#509-#508]*0.85620]
#117=[#515+[#516-#515]*0.85620]
#111=[#116+[#117-#116]*0.29559]
X5.19261 Y-2.68284 Z[#111+-0.04000]
#116=[#508+[#509-#508]*0.80291]
#117=[#515+[#516-#515]*0.80291]
#111=[#116+[#117-#116]*0.24634]
X5.17332 Y-2.70214 Z[#111+-0.04000]
#116=[#508+[#509-#508]*0.69077]
#117=[#515+[#516-#515]*0.69077]
#111=[#116+[#117-#116]*0.19452]
X5.15302 Y-2.74274 Z[#111+-0.04000]
#116=[#508+[#509-#508]*0.04601]
#117=[#515+[#516-#515]*0.04601]
#111=[#116+[#117-#116]*0.19452]
X5.15302 Y-2.97619 Z[#111+-0.04000]
#116=[#508+[#509-#508]*0.03540]
#117=[#515+[#516-#515]*0.03540]
#111=[#116+[#117-#116]*0.19355]
X5.15264 Y-2.98003 Z[#111+-0.04000]
#116=[#508+[#509-#508]*0.02520]
#117=[#515+[#516-#515]*0.02520]
#111=[#116+[#117-#116]*0.19069]
X5.15152 Y-2.98372 Z[#111+-0.04000]
#116=[#508+[#509-#508]*0.01581]
#117=[#515+[#516-#515]*0.01581]
#111=[#116+[#117-#116]*0.18605]
X5.14970 Y-2.98713 Z[#111+-0.04000]
#116=[#508+[#509-#508]*0.00757]
#117=[#515+[#516-#515]*0.00757]
#111=[#116+[#117-#116]*0.17980]
X5.14725 Y-2.99011 Z[#111+-0.04000]
#116=[#508+[#509-#508]*0.00081]
#117=[#515+[#516-#515]*0.00081]
#111=[#116+[#117-#116]*0.17218]
X5.14427 Y-2.99256 Z[#111+-0.04000]
#116=[#508+[#509-#508]*0.00000]
#117=[#515+[#516-#515]*0.00000]
#111=[#116+[#117-#116]*0.17079]
X5.14372 Y-2.99285 Z[#111+-0.04000]
#116=[#507+[#508-#507]*0.99578]
#117=[#514+[#515-#514]*0.99578]
#111=[#116+[#117-#116]*0.16350]
X5.14087 Y-2.99438 Z[#111+-0.04000]
#116=[#507+[#508-#507]*0.99269]
#117=[#514+[#515-#514]*0.99269]
#111=[#116+[#117-#116]*0.15407]
X5.13717 Y-2.99550 Z[#111+-0.04000]
#116=[#507+[#508-#507]*0.99164]
#117=[#514+[#515-#514]*0.99164]
#111=[#116+[#117-#116]*0.14427]
X5.13333 Y-2.99587 Z[#111+-0.04000]
#116=[#507+[#508-#507]*0.99269]
#117=[#514+[#515-#514]*0.99269]
#111=[#116+[#117-#116]*0.13446]
X5.12949 Y-2.99550 Z[#111+-0.04000]
#116=[#507+[#508-#507]*0.99578]
#117=[#514+[#515-#514]*0.99578]
#111=[#116+[#117-#116]*0.12504]
X5.12580 Y-2.99438 Z[#111+-0.04000]
#116=[#508+[#509-#508]*0.00000]
#117=[#515+[#516-#515]*0.00000]
#111=[#116+[#117-#116]*0.11774]
X5.12294 Y-2.99285 Z[#111+-0.04000]
#116=[#508+[#509-#508]*0.00081]
#117=[#515+[#516-#515]*0.00081]
#111=[#116+[#117-#116]*0.11635]
X5.12240 Y-2.99256 Z[#111+-0.04000]
#116=[#508+[#509-#508]*0.00757]
#117=[#515+[#516-#515]*0.00757]
#111=[#116+[#117-#116]*0.10873]
X5.11941 Y-2.99011 Z[#111+-0.04000]
#116=[#508+[#509-#508]*0.01581]
#117=[#515+[#516-#515]*0.01581]
#111=[#116+[#117-#116]*0.10248]
X5.11697 Y-2.98713 Z[#111+-0.04000]
#116=[#508+[#509-#508]*0.02520]
#117=[#515+[#516-#515]*0.02520]
#111=[#116+[#117-#116]*0.09784]
X5.11515 Y-2.98372 Z[#111+-0.04000]
#116=[#508+[#509-#508]*0.03540]
#117=[#515+[#516-#515]*0.03540]
#111=[#116+[#117-#116]*0.09498]
X5.11403 Y-2.98003 Z[#111+-0.04000]
#116=[#508+[#509-#508]*0.04601]
#117=[#515+[#516-#515]*0.04601]
#111=[#116+[#117-#116]*0.09402]
X5.11365 Y-2.97619 Z[#111+-0.04000]
G04 P0 ( dwell for no time -- G64 should not smooth over this point )
G00 Z0.08000 ( retract )

G00 X5.39936 Y-2.88095 ( rapid move to begin. )
G01 F180.00000
( Mill infeed pass 1/1 )
#116=[#508+[#509-#508]*0.30905]
#117=[#515+[#516-#515]*0.30905]
#111=[#116+[#117-#116]*0.82336]
G01 Z[-0.04000+#111]
G04 P0 ( dwell for no time -- G64 should not smooth over this point )
G01 F360.00000
#116=[#508+[#509-#508]*0.70360]
#117=[#515+[#516-#515]*0.70360]
#111=[#116+[#117-#116]*0.82336]
X5.39936 Y-2.73809 Z[#111+-0.04000]
#116=[#508+[#509-#508]*0.71609]
#117=[#515+[#516-#515]*0.71609]
#111=[#116+[#117-#116]*0.82470]
X5.39989 Y-2.73357 Z[#111+-0.04000]
#116=[#508+[#509-#508]*0.72792]
#117=[#515+[#516-#515]*0.72792]
#111=[#116+[#117-#116]*0.82866]
X5.40144 Y-2.72929 Z[#111+-0.04000]
#116=[#508+[#509-#508]*0.85943]
#117=[#515+[#516-#515]*0.85943]
#111=[#116+[#117-#116]*0.88944]
X5.42525 Y-2.68167 Z[#111+-0.04000]
#116=[#508+[#509-#508]*0.86691]
#117=[#515+[#516-#515]*0.86691]
#111=[#116+[#117-#116]*0.89362]
X5.42689 Y-2.67897 Z[#111+-0.04000]
#116=[#508+[#509-#508]*0.87356]
#117=[#515+[#516-#515]*0.87356]
#111=[#116+[#117-#116]*0.89886]
X5.42894 Y-2.67656 Z[#111+-0.04000]
#116=[#508+[#509-#508]*0.93932]
#117=[#515+[#516-#515]*0.93932]
#111=[#116+[#117-#116]*0.95963]
X5.45275 Y-2.65275 Z[#111+-0.04000]
#116=[#508+[#509-#508]*0.94499]
#117=[#515+[#516-#515]*0.94499]
#111=[#116+[#117-#116]*0.96578]
X5.45516 Y-2.65070 Z[#111+-0.04000]
#116=[#508+[#509-#508]*0.94951]
#117=[#515+[#516-#515]*0.94951]
#111=[#116+[#117-#116]*0.97269]
X5.45786 Y-2.64906 Z[#111+-0.04000]
#111=[#515+[#516-#515]*0.96428]
X5.46856 Y-2.64371 Z[#111+-0.04000]
#116=[#515+[#516-#515]*1.00000]
#117=[#522+[#523-#522]*1.00000]
#111=[#116+[#117-#116]*0.06603]
X5.49443 Y-2.63078 Z[#111+-0.04000]
#116=[#516+[#517-#516]*0.01526]
#117=[#523+[#524-#523]*0.01526]
#111=[#116+[#117-#116]*0.09425]
X5.50548 Y-2.62525 Z[#111+-0.04000]
#116=[#516+[#517-#516]*0.01955]
#117=[#523+[#524-#523]*0.01955]
#111=[#116+[#117-#116]*0.10518]
X5.50976 Y-2.62370 Z[#111+-0.04000]
#116=[#516+[#517-#516]*0.02101]
#117=[#523+[#524-#523]*0.02101]
#111=[#116+[#117-#116]*0.11672]
X5.51429 Y-2.62317 Z[#111+-0.04000]
#116=[#516+[#517-#516]*0.02101]
#117=[#523+[#524-#523]*0.02101]
#111=[#116+[#117-#116]*0.29906]
X5.58571 Y-2.62317 Z[#111+-0.04000]
#116=[#516+[#517-#516]*0.01955]
#117=[#523+[#524-#523]*0.01955]
#111=[#116+[#117-#116]*0.31060]
X5.59024 Y-2.62370 Z[#111+-0.04000]
#116=[#516+[#517-#516]*0.01526]
#117=[#523+[#524-#523]*0.01526]
#111=[#116+[#117-#116]*0.32153]
X5.59452 Y-2.62525 Z[#111+-0.04000]
#116=[#515+[#516-#515]*1.00000]
#117=[#522+[#523-#522]*1.00000]
#111=[#116+[#117-#116]*0.34975]
X5.60557 Y-2.63078 Z[#111+-0.04000]
#116=[#515+[#516-#515]*0.94951]
#117=[#522+[#523-#522]*0.94951]
#111=[#116+[#117-#116]*0.44309]
X5.64214 Y-2.64906 Z[#111+-0.04000]
#116=[#515+[#516-#515]*0.94499]
#117=[#522+[#523-#522]*0.94499]
#111=[#116+[#117-#116]*0.45000]
X5.64484 Y-2.65070 Z[#111+-0.04000]
#116=[#515+[#516-#515]*0.93932]
#117=[#522+[#523-#522]*0.93932]
#111=[#116+[#117-#116]*0.45615]
X5.64725 Y-2.65275 Z[#111+-0.04000]
#116=[#515+[#516-#515]*0.87356]
#117=[#522+[#523-#522]*0.87356]
#111=[#116+[#117-#116]*0.51692]
X5.67106 Y-2.67656 Z[#111+-0.04000]
#116=[#515+[#516-#515]*0.86691]
#117=[#522+[#523-#522]*0.86691]
#111=[#116+[#117-#116]*0.52216]
X5.67311 Y-2.67897 Z[#111+-0.04000]
#116=[#515+[#516-#515]*0.85943]
#117=[#522+[#523-#522]*0.85943]
#111=[#116+[#117-#116]*0.52634]
X5.67475 Y-2.68167 Z[#111+-0.04000]
#116=[#515+[#516-#515]*0.72792]
#117=[#522+[#523-#522]*0.72792]
#111=[#116+[#117-#116]*0.58712]
X5.69856 Y-2.72929 Z[#111+-0.04000]
#116=[#515+[#516-#515]*0.71609]
#117=[#522+[#523-#522]*0.71609]
#111=[#116+[#117-#116]*0.59108]
X5.70011 Y-2.73357 Z[#111+-0.04000]
#116=[#515+[#516-#515]*0.70360]
#117=[#522+[#523-#522]*0.70360]
#111=[#116+[#117-#116]*0.59242]
X5.70064 Y-2.73809 Z[#111+-0.04000]
#116=[#515+[#516-#515]*0.30905]
#117=[#522+[#523-#522]*0.30905]
#111=[#116+[#117-#116]*0.59242]
X5.70064 Y-2.88095 Z[#111+-0.04000]
#116=[#515+[#516-#515]*0.29656]
#117=[#522+[#523-#522]*0.29656]
#111=[#116+[#117-#116]*0.59108]
X5.70011 Y-2.88547 Z[#111+-0.04000]
#116=[#515+[#516-#515]*0.28473]
#117=[#522+[#523-#522]*0.28473]
#111=[#116+[#117-#116]*0.58712]
X5.69856 Y-2.88976 Z[#111+-0.04000]
#116=[#515+[#516-#515]*0.15321]
#117=[#522+[#523-#522]*0.15321]
#111=[#116+[#117-#116]*0.52634]
X5.67475 Y-2.93737 Z[#111+-0.04000]
#116=[#515+[#516-#515]*0.14574]
#117=[#522+[#523-#522]*0.14574]
#111=[#116+[#117-#116]*0.52216]
X5.67311 Y-2.94008 Z[#111+-0.04000]
#116=[#515+[#516-#515]*0.13909]
#117=[#522+[#523-#522]*0.13909]
#111=[#116+[#117-#116]*0.51692]
X5.67106 Y-2.94249 Z[#111+-0.04000]
#116=[#515+[#516-#515]*0.07333]
#117=[#522+[#523-#522]*0.07333]
#111=[#116+[#117-#116]*0.45615]
X5.64725 Y-2.96630 Z[#111+-0.04000]
#116=[#515+[#516-#515]*0.06767]
#117=[#522+[#523-#522]*0.06767]
#111=[#116+[#117-#116]*0.45000]
X5.64484 Y-2.96835 Z[#111+-0.04000]
#116=[#515+[#516-#515]*0.06314]
#117=[#522+[#523-#522]*0.06314]
#111=[#116+[#117-#116]*0.44309]
X5.64214 Y-2.96999 Z[#111+-0.04000]
#116=[#515+[#516-#515]*0.00000]
#117=[#522+[#523-#522]*0.00000]
#111=[#116+[#117-#116]*0.32637]
X5.59641 Y-2.99285 Z[#111+-0.04000]
#116=[#514+[#515-#514]*0.99738]
#117=[#521+[#522-#521]*0.99738]
#111=[#116+[#117-#116]*0.32153]
X5.59452 Y-2.99380 Z[#111+-0.04000]
#116=[#514+[#515-#514]*0.99310]
#117=[#521+[#522-#521]*0.99310]
#111=[#116+[#117-#116]*0.31060]
X5.59024 Y-2.99535 Z[#111+-0.04000]
#116=[#514+[#515-#514]*0.99164]
#117=[#521+[#522-#521]*0.99164]
#111=[#116+[#117-#116]*0.29906]
X5.58571 Y-2.99587 Z[#111+-0.04000]
#116=[#514+[#515-#514]*0.99164]
#117=[#521+[#522-#521]*0.99164]
#111=[#116+[#117-#116]*0.11672]
X5.51429 Y-2.99587 Z[#111+-0.04000]
#116=[#514+[#515-#514]*0.99310]
#117=[#521+[#522-#521]*0.99310]
#111=[#116+[#117-#116]*0.10518]
X5.50976 Y-2.99535 Z[#111+-0.04000]
#116=[#514+[#515-#514]*0.99738]
#117=[#521+[#522-#521]*0.99738]
#111=[#116+[#117-#116]*0.09425]
X5.50548 Y-2.99380 Z[#111+-0.04000]
#116=[#515+[#516-#515]*0.00000]
#117=[#522+[#523-#522]*0.00000]
#111=[#116+[#117-#116]*0.08941]
X5.50359 Y-2.99285 Z[#111+-0.04000]
#111=[#515+[#516-#515]*0.04837]
X5.46856 Y-2.97533 Z[#111+-0.04000]
#116=[#508+[#509-#508]*0.06314]
#117=[#515+[#516-#515]*0.06314]
#111=[#116+[#117-#116]*0.97269]
X5.45786 Y-2.96999 Z[#111+-0.04000]
#116=[#508+[#509-#508]*0.06767]
#117=[#515+[#516-#515]*0.06767]
#111=[#116+[#117-#116]*0.96578]
X5.45516 Y-2.96835 Z[#111+-0.04000]
#116=[#508+[#509-#508]*0.07333]
#117=[#515+[#516-#515]*0.07333]
#111=[#116+[#117-#116]*0.95963]
X5.45275 Y-2.96630 Z[#111+-0.04000]
#116=[#508+[#509-#508]*0.13909]
#117=[#515+[#516-#515]*0.13909]
#111=[#116+[#117-#116]*0.89886]
X5.42894 Y-2.94249 Z[#111+-0.04000]
#116=[#508+[#509-#508]*0.14574]
#117=[#515+[#516-#515]*0.14574]
#111=[#116+[#117-#116]*0.89362]
X5.42689 Y-2.94008 Z[#111+-0.04000]
#116=[#508+[#509-#508]*0.15321]
#117=[#515+[#516-#515]*0.15321]
#111=[#116+[#117-#116]*0.88944]
X5.42525 Y-2.93737 Z[#111+-0.04000]
#116=[#508+[#509-#508]*0.28473]
#117=[#515+[#516-#515]*0.28473]
#111=[#116+[#117-#116]*0.82866]
X5.40144 Y-2.88976 Z[#111+-0.04000]
#116=[#508+[#509-#508]*0.29656]
#117=[#515+[#516-#515]*0.29656]
#111=[#116+[#117-#116]*0.82470]
X5.39989 Y-2.88547 Z[#111+-0.04000]
#116=[#508+[#509-#508]*0.30905]
#117=[#515+[#516-#515]*0.30905]
#111=[#116+[#117-#116]*0.82336]
X5.39936 Y-2.88095 Z[#111+-0.04000]
G04 P0 ( dwell for no time -- G64 should not smooth over this point )
G00 Z0.08000 ( retract )

G00 X5.43873 Y-2.87630 ( rapid move to begin. )
G01 F180.00000
( Mill infeed pass 1/1 )
#116=[#508+[#509-#508]*0.32188]
#117=[#515+[#516-#515]*0.32188]
#111=[#116+[#117-#116]*0.92386]
G01 Z[-0.04000+#111]
G04 P0 ( dwell for no time -- G64 should not smooth over this point )
G01 F360.00000
#116=[#508+[#509-#508]*0.69077]
#117=[#515+[#516-#515]*0.69077]
#111=[#116+[#117-#116]*0.92386]
X5.43873 Y-2.74274 Z[#111+-0.04000]
#116=[#508+[#509-#508]*0.80291]
#117=[#515+[#516-#515]*0.80291]
#111=[#116+[#117-#116]*0.97569]
X5.45904 Y-2.70214 Z[#111+-0.04000]
#111=[#515+[#516-#515]*0.82922]
X5.46856 Y-2.69261 Z[#111+-0.04000]
#116=[#515+[#516-#515]*0.85620]
#117=[#522+[#523-#522]*0.85620]
#111=[#116+[#117-#116]*0.02493]
X5.47833 Y-2.68284 Z[#111+-0.04000]
#116=[#515+[#516-#515]*0.91227]
#117=[#522+[#523-#522]*0.91227]
#111=[#116+[#117-#116]*0.12858]
X5.51893 Y-2.66254 Z[#111+-0.04000]
#116=[#515+[#516-#515]*0.91227]
#117=[#522+[#523-#522]*0.91227]
#111=[#116+[#117-#116]*0.28720]
X5.58107 Y-2.66254 Z[#111+-0.04000]
#116=[#515+[#516-#515]*0.85620]
#117=[#522+[#523-#522]*0.85620]
#111=[#116+[#117-#116]*0.39085]
X5.62167 Y-2.68284 Z[#111+-0.04000]
#116=[#515+[#516-#515]*0.80291]
#117=[#522+[#523-#522]*0.80291]
#111=[#116+[#117-#116]*0.44009]
X5.64096 Y-2.70214 Z[#111+-0.04000]
#116=[#515+[#516-#515]*0.69077]
#117=[#522+[#523-#522]*0.69077]
#111=[#116+[#117-#116]*0.49192]
X5.66127 Y-2.74274 Z[#111+-0.04000]
#116=[#515+[#516-#515]*0.32188]
#117=[#522+[#523-#522]*0.32188]
#111=[#116+[#117-#116]*0.49192]
X5.66127 Y-2.87630 Z[#111+-0.04000]
#116=[#515+[#516-#515]*0.20973]
#117=[#522+[#523-#522]*0.20973]
#111=[#116+[#117-#116]*0.44009]
X5.64096 Y-2.91691 Z[#111+-0.04000]
#116=[#515+[#516-#515]*0.15645]
#117=[#522+[#523-#522]*0.15645]
#111=[#116+[#117-#116]*0.39085]
X5.62167 Y-2.93620 Z[#111+-0.04000]
#116=[#515+[#516-#515]*0.10038]
#117=[#522+[#523-#522]*0.10038]
#111=[#116+[#117-#116]*0.28719]
X5.58107 Y-2.95650 Z[#111+-0.04000]
#116=[#515+[#516-#515]*0.10038]
#117=[#522+[#523-#522]*0.10038]
#111=[#116+[#117-#116]*0.12859]
X5.51893 Y-2.95650 Z[#111+-0.04000]
#116=[#515+[#516-#515]*0.15645]
#117=[#522+[#523-#522]*0.15645]
#111=[#116+[#117-#116]*0.02493]
X5.47833 Y-2.93620 Z[#111+-0.04000]
#111=[#515+[#516-#515]*0.18343]
X5.46856 Y-2.92643 Z[#111+-0.04000]
#116=[#508+[#509-#508]*0.20973]
#117=[#515+[#516-#515]*0.20973]
#111=[#116+[#117-#116]*0.97569]
X5.45904 Y-2.91691 Z[#111+-0.04000]
#116=[#508+[#509-#508]*0.32188]
#117=[#515+[#516-#515]*0.32188]
#111=[#116+[#117-#116]*0.92386]
X5.43873 Y-2.87630 Z[#111+-0.04000]
G04 P0 ( dwell for no time -- G64 should not smooth over this point )
G00 Z0.08000 ( retract )

G00 X5.87555 Y-2.97619 ( rapid move to begin. )
G01 F180.00000
( Mill infeed pass 1/1 )
#116=[#522+[#523-#522]*0.04601]
#117=[#529+[#530-#529]*0.04601]
#111=[#116+[#117-#116]*0.03893]
G01 Z[-0.04000+#111]
G04 P0 ( dwell for no time -- G64 should not smooth over this point )
G01 F360.00000
#116=[#522+[#523-#522]*0.96664]
#117=[#529+[#530-#529]*0.96664]
#111=[#116+[#117-#116]*0.03893]
X5.87555 Y-2.64286 Z[#111+-0.04000]
#116=[#522+[#523-#522]*0.97724]
#117=[#529+[#530-#529]*0.97724]
#111=[#116+[#117-#116]*0.03990]
X5.87593 Y-2.63902 Z[#111+-0.04000]
#116=[#522+[#523-#522]*0.98744]
#117=[#529+[#530-#529]*0.98744]
#111=[#116+[#117-#116]*0.04276]
X5.87705 Y-2.63532 Z[#111+-0.04000]
#116=[#522+[#523-#522]*0.99684]
#117=[#529+[#530-#529]*0.99684]
#111=[#116+[#117-#116]*0.04740]
X5.87887 Y-2.63192 Z[#111+-0.04000]
#116=[#522+[#523-#522]*1.00000]
#117=[#529+[#530-#529]*1.00000]
#111=[#116+[#117-#116]*0.04979]
X5.87981 Y-2.63078 Z[#111+-0.04000]
#116=[#523+[#524-#523]*0.00508]
#117=[#530+[#531-#530]*0.00508]
#111=[#116+[#117-#116]*0.05365]
X5.88132 Y-2.62894 Z[#111+-0.04000]
#116=[#523+[#524-#523]*0.01184]
#117=[#530+[#531-#530]*0.01184]
#111=[#116+[#117-#116]*0.06126]
X5.88430 Y-2.62649 Z[#111+-0.04000]
#116=[#523+[#524-#523]*0.01687]
#117=[#530+[#531-#530]*0.01687]
#111=[#116+[#117-#116]*0.06995]
X5.88770 Y-2.62467 Z[#111+-0.04000]
#116=[#523+[#524-#523]*0.01996]
#117=[#530+[#531-#530]*0.01996]
#111=[#116+[#117-#116]*0.07938]
X5.89140 Y-2.62355 Z[#111+-0.04000]
#116=[#523+[#524-#523]*0.02101]
#117=[#530+[#531-#530]*0.02101]
#111=[#116+[#117-#116]*0.08918]
X5.89524 Y-2.62317 Z[#111+-0.04000]
#116=[#523+[#524-#523]*0.01996]
#117=[#530+[#531-#530]*0.01996]
#111=[#116+[#117-#116]*0.09898]
X5.89908 Y-2.62355 Z[#111+-0.04000]
#116=[#523+[#524-#523]*0.01687]
#117=[#530+[#531-#530]*0.01687]
#111=[#116+[#117-#116]*0.10841]
X5.90277 Y-2.62467 Z[#111+-0.04000]
#116=[#523+[#524-#523]*0.01184]
#117=[#530+[#531-#530]*0.01184]
#111=[#116+[#117-#116]*0.11710]
X5.90617 Y-2.62649 Z[#111+-0.04000]
#116=[#523+[#524-#523]*0.00508]
#117=[#530+[#531-#530]*0.00508]
#111=[#116+[#117-#116]*0.12471]
X5.90916 Y-2.62894 Z[#111+-0.04000]
#116=[#522+[#523-#522]*1.00000]
#117=[#529+[#530-#529]*1.00000]
#111=[#116+[#117-#116]*0.12857]
X5.91067 Y-2.63078 Z[#111+-0.04000]
#116=[#522+[#523-#522]*0.99684]
#117=[#529+[#530-#529]*0.99684]
#111=[#116+[#117-#116]*0.13096]
X5.91160 Y-2.63192 Z[#111+-0.04000]
#116=[#522+[#523-#522]*0.98744]
#117=[#529+[#530-#529]*0.98744]
#111=[#116+[#117-#116]*0.13560]
X5.91342 Y-2.63532 Z[#111+-0.04000]
#116=[#522+[#523-#522]*0.97724]
#117=[#529+[#530-#529]*0.97724]
#111=[#116+[#117-#116]*0.13846]
X5.91454 Y-2.63902 Z[#111+-0.04000]
#116=[#522+[#523-#522]*0.96664]
#117=[#529+[#530-#529]*0.96664]
#111=[#116+[#117-#116]*0.13943]
X5.91492 Y-2.64286 Z[#111+-0.04000]
#116=[#522+[#523-#522]*0.95597]
#117=[#529+[#530-#529]*0.95597]
#111=[#116+[#117-#116]*0.13943]
X5.91492 Y-2.64672 Z[#111+-0.04000]
#116=[#522+[#523-#522]*1.00000]
#117=[#529+[#530-#529]*1.00000]
#111=[#116+[#117-#116]*0.22082]
X5.94681 Y-2.63078 Z[#111+-0.04000]
#116=[#523+[#524-#523]*0.01526]
#117=[#530+[#531-#530]*0.01526]
#111=[#116+[#117-#116]*0.24904]
X5.95786 Y-2.62525 Z[#111+-0.04000]
#116=[#523+[#524-#523]*0.01955]
#117=[#530+[#531-#530]*0.01955]
#111=[#116+[#117-#116]*0.25997]
X5.96214 Y-2.62370 Z[#111+-0.04000]
#116=[#523+[#524-#523]*0.02101]
#117=[#530+[#531-#530]*0.02101]
#111=[#116+[#117-#116]*0.27152]
X5.96667 Y-2.62317 Z[#111+-0.04000]
#116=[#523+[#524-#523]*0.02101]
#117=[#530+[#531-#530]*0.02101]
#111=[#116+[#117-#116]*0.45385]
X6.03810 Y-2.62317 Z[#111+-0.04000]
#116=[#523+[#524-#523]*0.01955]
#117=[#530+[#531-#530]*0.01955]
#111=[#116+[#117-#116]*0.46540]
X6.04262 Y-2.62370 Z[#111+-0.04000]
#116=[#523+[#524-#523]*0.01526]
#117=[#530+[#531-#530]*0.01526]
#111=[#116+[#117-#116]*0.47632]
X6.04690 Y-2.62525 Z[#111+-0.04000]
#116=[#522+[#523-#522]*1.00000]
#117=[#529+[#530-#529]*1.00000]
#111=[#116+[#117-#116]*0.50454]
X6.05795 Y-2.63078 Z[#111+-0.04000]
#116=[#522+[#523-#522]*0.94951]
#117=[#529+[#530-#529]*0.94951]
#111=[#116+[#117-#116]*0.59788]
X6.09452 Y-2.64906 Z[#111+-0.04000]
#116=[#522+[#523-#522]*0.94322]
#117=[#529+[#530-#529]*0.94322]
#111=[#116+[#117-#116]*0.60693]
X6.09806 Y-2.65134 Z[#111+-0.04000]
#116=[#522+[#523-#522]*0.93499]
#117=[#529+[#530-#529]*0.93499]
#111=[#116+[#117-#116]*0.61454]
X6.10104 Y-2.65432 Z[#111+-0.04000]
#116=[#522+[#523-#522]*0.92519]
#117=[#529+[#530-#529]*0.92519]
#111=[#116+[#117-#116]*0.62035]
X6.10332 Y-2.65786 Z[#111+-0.04000]
#116=[#522+[#523-#522]*0.79368]
#117=[#529+[#530-#529]*0.79368]
#111=[#116+[#117-#116]*0.68113]
X6.12713 Y-2.70548 Z[#111+-0.04000]
#116=[#522+[#523-#522]*0.78185]
#117=[#529+[#530-#529]*0.78185]
#111=[#116+[#117-#116]*0.68509]
X6.12868 Y-2.70976 Z[#111+-0.04000]
#116=[#522+[#523-#522]*0.76936]
#117=[#529+[#530-#529]*0.76936]
#111=[#116+[#117-#116]*0.68644]
X6.12921 Y-2.71428 Z[#111+-0.04000]
#116=[#522+[#523-#522]*0.04601]
#117=[#529+[#530-#529]*0.04601]
#111=[#116+[#117-#116]*0.68644]
X6.12921 Y-2.97619 Z[#111+-0.04000]
#116=[#522+[#523-#522]*0.03540]
#117=[#529+[#530-#529]*0.03540]
#111=[#116+[#117-#116]*0.68547]
X6.12883 Y-2.98003 Z[#111+-0.04000]
#116=[#522+[#523-#522]*0.02520]
#117=[#529+[#530-#529]*0.02520]
#111=[#116+[#117-#116]*0.68261]
X6.12771 Y-2.98372 Z[#111+-0.04000]
#116=[#522+[#523-#522]*0.01581]
#117=[#529+[#530-#529]*0.01581]
#111=[#116+[#117-#116]*0.67797]
X6.12589 Y-2.98713 Z[#111+-0.04000]
#116=[#522+[#523-#522]*0.00757]
#117=[#529+[#530-#529]*0.00757]
#111=[#116+[#117-#116]*0.67172]
X6.12344 Y-2.99011 Z[#111+-0.04000]
#116=[#522+[#523-#522]*0.00081]
#117=[#529+[#530-#529]*0.00081]
#111=[#116+[#117-#116]*0.66410]
X6.12046 Y-2.99256 Z[#111+-0.04000]
#116=[#522+[#523-#522]*0.00000]
#117=[#529+[#530-#529]*0.00000]
#111=[#116+[#117-#116]*0.66271]
X6.11991 Y-2.99285 Z[#111+-0.04000]
#116=[#521+[#522-#521]*0.99578]
#117=[#528+[#529-#528]*0.99578]
#111=[#116+[#117-#116]*0.65542]
X6.11706 Y-2.99438 Z[#111+-0.04000]
#116=[#521+[#522-#521]*0.99269]
#117=[#528+[#529-#528]*0.99269]
#111=[#116+[#117-#116]*0.64599]
X6.11336 Y-2.99550 Z[#111+-0.04000]
#116=[#521+[#522-#521]*0.99164]
#117=[#528+[#529-#528]*0.99164]
#111=[#116+[#117-#116]*0.63619]
X6.10952 Y-2.99587 Z[#111+-0.04000]
#116=[#521+[#522-#521]*0.99269]
#117=[#528+[#529-#528]*0.99269]
#111=[#116+[#117-#116]*0.62638]
X6.10568 Y-2.99550 Z[#111+-0.04000]
#116=[#521+[#522-#521]*0.99578]
#117=[#528+[#529-#528]*0.99578]
#111=[#116+[#117-#116]*0.61695]
X6.10199 Y-2.99438 Z[#111+-0.04000]
#116=[#522+[#523-#522]*0.00000]
#117=[#529+[#530-#529]*0.00000]
#111=[#116+[#117-#116]*0.60966]
X6.09913 Y-2.99285 Z[#111+-0.04000]
#116=[#522+[#523-#522]*0.00081]
#117=[#529+[#530-#529]*0.00081]
#111=[#116+[#117-#116]*0.60827]
X6.09859 Y-2.99256 Z[#111+-0.04000]
#116=[#522+[#523-#522]*0.00757]
#117=[#529+[#530-#529]*0.00757]
#111=[#116+[#117-#116]*0.60065]
X6.09560 Y-2.99011 Z[#111+-0.04000]
#116=[#522+[#523-#522]*0.01581]
#117=[#529+[#530-#529]*0.01581]
#111=[#116+[#117-#116]*0.59440]
X6.09316 Y-2.98713 Z[#111+-0.04000]
#116=[#522+[#523-#522]*0.02520]
#117=[#529+[#530-#529]*0.02520]
#111=[#116+[#117-#116]*0.58976]
X6.09134 Y-2.98372 Z[#111+-0.04000]
#116=[#522+[#523-#522]*0.03540]
#117=[#529+[#530-#529]*0.03540]
#111=[#116+[#117-#116]*0.58690]
X6.09022 Y-2.98003 Z[#111+-0.04000]
#116=[#522+[#523-#522]*0.04601]
#117=[#529+[#530-#529]*0.04601]
#111=[#116+[#117-#116]*0.58593]
X6.08984 Y-2.97619 Z[#111+-0.04000]
#116=[#522+[#523-#522]*0.75653]
#117=[#529+[#530-#529]*0.75653]
#111=[#116+[#117-#116]*0.58593]
X6.08984 Y-2.71893 Z[#111+-0.04000]
#116=[#522+[#523-#522]*0.86036]
#117=[#529+[#530-#529]*0.86036]
#111=[#116+[#117-#116]*0.53795]
X6.07104 Y-2.68134 Z[#111+-0.04000]
#116=[#522+[#523-#522]*0.91227]
#117=[#529+[#530-#529]*0.91227]
#111=[#116+[#117-#116]*0.44199]
X6.03345 Y-2.66254 Z[#111+-0.04000]
#116=[#522+[#523-#522]*0.91227]
#117=[#529+[#530-#529]*0.91227]
#111=[#116+[#117-#116]*0.28337]
X5.97131 Y-2.66254 Z[#111+-0.04000]
#116=[#522+[#523-#522]*0.85620]
#117=[#529+[#530-#529]*0.85620]
#111=[#116+[#117-#116]*0.17972]
X5.93071 Y-2.68284 Z[#111+-0.04000]
#116=[#522+[#523-#522]*0.81260]
#117=[#529+[#530-#529]*0.81260]
#111=[#116+[#117-#116]*0.13943]
X5.91492 Y-2.69863 Z[#111+-0.04000]
#116=[#522+[#523-#522]*0.04601]
#117=[#529+[#530-#529]*0.04601]
#111=[#116+[#117-#116]*0.13943]
X5.91492 Y-2.97619 Z[#111+-0.04000]
#116=[#522+[#523-#522]*0.03540]
#117=[#529+[#530-#529]*0.03540]
#111=[#116+[#117-#116]*0.13846]
X5.91454 Y-2.98003 Z[#111+-0.04000]
#116=[#522+[#523-#522]*0.02520]
#117=[#529+[#530-#529]*0.02520]
#111=[#116+[#117-#116]*0.13560]
X5.91342 Y-2.98372 Z[#111+-0.04000]
#116=[#522+[#523-#522]*0.01581]
#117=[#529+[#530-#529]*0.01581]
#111=[#116+[#117-#116]*0.13096]
X5.91160 Y-2.98713 Z[#111+-0.04000]
#116=[#522+[#523-#522]*0.00757]
#117=[#529+[#530-#529]*0.00757]
#111=[#116+[#117-#116]*0.12471]
X5.90916 Y-2.99011 Z[#111+-0.04000]
#116=[#522+[#523-#522]*0.00081]
#117=[#529+[#530-#529]*0.00081]
#111=[#116+[#117-#116]*0.11710]
X5.90617 Y-2.99256 Z[#111+-0.04000]
#116=[#522+[#523-#522]*0.00000]
#117=[#529+[#530-#529]*0.00000]
#111=[#116+[#117-#116]*0.11570]
X5.90563 Y-2.99285 Z[#111+-0.04000]
#116=[#521+[#522-#521]*0.99578]
#117=[#528+[#529-#528]*0.99578]
#111=[#116+[#117-#116]*0.10841]
X5.90277 Y-2.99438 Z[#111+-0.04000]
#116=[#521+[#522-#521]*0.99269]
#117=[#528+[#529-#528]*0.99269]
#111=[#116+[#117-#116]*0.09898]
X5.89908 Y-2.99550 Z[#111+-0.04000]
#116=[#521+[#522-#521]*0.99164]
#117=[#528+[#529-#528]*0.99164]
#111=[#116+[#117-#116]*0.08918]
X5.89524 Y-2.99587 Z[#111+-0.04000]
#116=[#521+[#522-#521]*0.99269]
#117=[#528+[#529-#528]*0.99269]
#111=[#116+[#117-#116]*0.07938]
X5.89140 Y-2.99550 Z[#111+-0.04000]
#116=[#521+[#522-#521]*0.99578]
#117=[#528+[#529-#528]*0.99578]
#111=[#116+[#117-#116]*0.06995]
X5.88770 Y-2.99438 Z[#111+-0.04000]
#116=[#522+[#523-#522]*0.00000]
#117=[#529+[#530-#529]*0.00000]
#111=[#116+[#117-#116]*0.06266]
X5.88485 Y-2.99285 Z[#111+-0.04000]
#116=[#522+[#523-#522]*0.00081]
#117=[#529+[#530-#529]*0.00081]
#111=[#116+[#117-#116]*0.06126]
X5.88430 Y-2.99256 Z[#111+-0.04000]
#116=[#522+[#523-#522]*0.00757]
#117=[#529+[#530-#529]*0.00757]
#111=[#116+[#117-#116]*0.05365]
X5.88132 Y-2.99011 Z[#111+-0.04000]
#116=[#522+[#523-#522]*0.01581]
#117=[#529+[#530-#529]*0.01581]
#111=[#116+[#117-#116]*0.04740]
X5.87887 Y-2.98713 Z[#111+-0.04000]
#116=[#522+[#523-#522]*0.02520]
#117=[#529+[#530-#529]*0.02520]
#111=[#116+[#117-#116]*0.04276]
X5.87705 Y-2.98372 Z[#111+-0.04000]
#116=[#522+[#523-#522]*0.03540]
#117=[#529+[#530-#529]*0.03540]
#111=[#116+[#117-#116]*0.03990]
X5.87593 Y-2.98003 Z[#111+-0.04000]
#116=[#522+[#523-#522]*0.04601]
#117=[#529+[#530-#529]*0.04601]
#111=[#116+[#117-#116]*0.03893]
X5.87555 Y-2.97619 Z[#111+-0.04000]
G04 P0 ( dwell for no time -- G64 should not smooth over this point )
G00 Z0.08000 ( retract )

G00 X6.25650 Y-2.64286 ( rapid move to begin. )
G01 F180.00000
( Mill infeed pass 1/1 )
#116=[#529+[#530-#529]*0.96664]
#117=[#536+[#537-#536]*0.96664]
#111=[#116+[#117-#116]*0.01138]
G01 Z[-0.04000+#111]
G04 P0 ( dwell for no time -- G64 should not smooth over this point )
G01 F360.00000
#116=[#529+[#530-#529]*0.95603]
#117=[#536+[#537-#536]*0.95603]
#111=[#116+[#117-#116]*0.01235]
X6.25688 Y-2.64670 Z[#111+-0.04000]
#116=[#529+[#530-#529]*0.94583]
#117=[#536+[#537-#536]*0.94583]
#111=[#116+[#117-#116]*0.01521]
X6.25800 Y-2.65039 Z[#111+-0.04000]
#116=[#529+[#530-#529]*0.93643]
#117=[#536+[#537-#536]*0.93643]
#111=[#116+[#117-#116]*0.01985]
X6.25982 Y-2.65379 Z[#111+-0.04000]
#116=[#529+[#530-#529]*0.92819]
#117=[#536+[#537-#536]*0.92819]
#111=[#116+[#117-#116]*0.02610]
X6.26227 Y-2.65678 Z[#111+-0.04000]
#116=[#529+[#530-#529]*0.92143]
#117=[#536+[#537-#536]*0.92143]
#111=[#116+[#117-#116]*0.03372]
X6.26525 Y-2.65922 Z[#111+-0.04000]
#116=[#529+[#530-#529]*0.91641]
#117=[#536+[#537-#536]*0.91641]
#111=[#116+[#117-#116]*0.04240]
X6.26866 Y-2.66104 Z[#111+-0.04000]
#116=[#529+[#530-#529]*0.91331]
#117=[#536+[#537-#536]*0.91331]
#111=[#116+[#117-#116]*0.05183]
X6.27235 Y-2.66216 Z[#111+-0.04000]
#116=[#529+[#530-#529]*0.91227]
#117=[#536+[#537-#536]*0.91227]
#111=[#116+[#117-#116]*0.06164]
X6.27619 Y-2.66254 Z[#111+-0.04000]
#116=[#529+[#530-#529]*0.91227]
#117=[#536+[#537-#536]*0.91227]
#111=[#116+[#117-#116]*0.19372]
X6.32793 Y-2.66254 Z[#111+-0.04000]
#116=[#529+[#530-#529]*0.24329]
#117=[#536+[#537-#536]*0.24329]
#111=[#116+[#117-#116]*0.19372]
X6.32793 Y-2.90476 Z[#111+-0.04000]
#116=[#529+[#530-#529]*0.23080]
#117=[#536+[#537-#536]*0.23080]
#111=[#116+[#117-#116]*0.19507]
X6.32846 Y-2.90928 Z[#111+-0.04000]
#116=[#529+[#530-#529]*0.21898]
#117=[#536+[#537-#536]*0.21898]
#111=[#116+[#117-#116]*0.19903]
X6.33001 Y-2.91356 Z[#111+-0.04000]
#116=[#529+[#530-#529]*0.08746]
#117=[#536+[#537-#536]*0.08746]
#111=[#116+[#117-#116]*0.25981]
X6.35382 Y-2.96118 Z[#111+-0.04000]
#116=[#529+[#530-#529]*0.07766]
#117=[#536+[#537-#536]*0.07766]
#111=[#116+[#117-#116]*0.26562]
X6.35610 Y-2.96473 Z[#111+-0.04000]
#116=[#529+[#530-#529]*0.06943]
#117=[#536+[#537-#536]*0.06943]
#111=[#116+[#117-#116]*0.27322]
X6.35908 Y-2.96771 Z[#111+-0.04000]
#116=[#529+[#530-#529]*0.06314]
#117=[#536+[#537-#536]*0.06314]
#111=[#116+[#117-#116]*0.28228]
X6.36262 Y-2.96999 Z[#111+-0.04000]
#116=[#529+[#530-#529]*0.00000]
#117=[#536+[#537-#536]*0.00000]
#111=[#116+[#117-#116]*0.39900]
X6.40835 Y-2.99285 Z[#111+-0.04000]
#116=[#528+[#529-#528]*0.99738]
#117=[#535+[#536-#535]*0.99738]
#111=[#116+[#117-#116]*0.40383]
X6.41024 Y-2.99380 Z[#111+-0.04000]
#116=[#528+[#529-#528]*0.99310]
#117=[#535+[#536-#535]*0.99310]
#111=[#116+[#117-#116]*0.41476]
X6.41452 Y-2.99535 Z[#111+-0.04000]
#116=[#528+[#529-#528]*0.99164]
#117=[#535+[#536-#535]*0.99164]
#111=[#116+[#117-#116]*0.42631]
X6.41905 Y-2.99587 Z[#111+-0.04000]
#116=[#528+[#529-#528]*0.99164]
#117=[#535+[#536-#535]*0.99164]
#111=[#116+[#117-#116]*0.54786]
X6.46667 Y-2.99587 Z[#111+-0.04000]
#116=[#528+[#529-#528]*0.99269]
#117=[#535+[#536-#535]*0.99269]
#111=[#116+[#117-#116]*0.55767]
X6.47051 Y-2.99550 Z[#111+-0.04000]
#116=[#528+[#529-#528]*0.99578]
#117=[#535+[#536-#535]*0.99578]
#111=[#116+[#117-#116]*0.56709]
X6.47420 Y-2.99438 Z[#111+-0.04000]
#116=[#529+[#530-#529]*0.00000]
#117=[#536+[#537-#536]*0.00000]
#111=[#116+[#117-#116]*0.57439]
X6.47706 Y-2.99285 Z[#111+-0.04000]
#116=[#529+[#530-#529]*0.00081]
#117=[#536+[#537-#536]*0.00081]
#111=[#116+[#117-#116]*0.57578]
X6.47760 Y-2.99256 Z[#111+-0.04000]
#116=[#529+[#530-#529]*0.00757]
#117=[#536+[#537-#536]*0.00757]
#111=[#116+[#117-#116]*0.58340]
X6.48058 Y-2.99011 Z[#111+-0.04000]
#116=[#529+[#530-#529]*0.01581]
#117=[#536+[#537-#536]*0.01581]
#111=[#116+[#117-#116]*0.58964]
X6.48303 Y-2.98713 Z[#111+-0.04000]
#116=[#529+[#530-#529]*0.02520]
#117=[#536+[#537-#536]*0.02520]
#111=[#116+[#117-#116]*0.59429]
X6.48485 Y-2.98372 Z[#111+-0.04000]
#116=[#529+[#530-#529]*0.03540]
#117=[#536+[#537-#536]*0.03540]
#111=[#116+[#117-#116]*0.59715]
X6.48597 Y-2.98003 Z[#111+-0.04000]
#116=[#529+[#530-#529]*0.04601]
#117=[#536+[#537-#536]*0.04601]
#111=[#116+[#117-#116]*0.59811]
X6.48635 Y-2.97619 Z[#111+-0.04000]
#116=[#529+[#530-#529]*0.05662]
#117=[#536+[#537-#536]*0.05662]
#111=[#116+[#117-#116]*0.59715]
X6.48597 Y-2.97235 Z[#111+-0.04000]
#116=[#529+[#530-#529]*0.06682]
#117=[#536+[#537-#536]*0.06682]
#111=[#116+[#117-#116]*0.59429]
X6.48485 Y-2.96866 Z[#111+-0.04000]
#116=[#529+[#530-#529]*0.07622]
#117=[#536+[#537-#536]*0.07622]
#111=[#116+[#117-#116]*0.58964]
X6.48303 Y-2.96525 Z[#111+-0.04000]
#116=[#529+[#530-#529]*0.08446]
#117=[#536+[#537-#536]*0.08446]
#111=[#116+[#117-#116]*0.58340]
X6.48058 Y-2.96227 Z[#111+-0.04000]
#116=[#529+[#530-#529]*0.09122]
#117=[#536+[#537-#536]*0.09122]
#111=[#116+[#117-#116]*0.57578]
X6.47760 Y-2.95982 Z[#111+-0.04000]
#116=[#529+[#530-#529]*0.09624]
#117=[#536+[#537-#536]*0.09624]
#111=[#116+[#117-#116]*0.56709]
X6.47420 Y-2.95800 Z[#111+-0.04000]
#116=[#529+[#530-#529]*0.09933]
#117=[#536+[#537-#536]*0.09933]
#111=[#116+[#117-#116]*0.55767]
X6.47051 Y-2.95688 Z[#111+-0.04000]
#116=[#529+[#530-#529]*0.10038]
#117=[#536+[#537-#536]*0.10038]
#111=[#116+[#117-#116]*0.54786]
X6.46667 Y-2.95650 Z[#111+-0.04000]
#116=[#529+[#530-#529]*0.10038]
#117=[#536+[#537-#536]*0.10038]
#111=[#116+[#117-#116]*0.43817]
X6.42369 Y-2.95650 Z[#111+-0.04000]
#116=[#529+[#530-#529]*0.15230]
#117=[#536+[#537-#536]*0.15230]
#111=[#116+[#117-#116]*0.34220]
X6.38610 Y-2.93771 Z[#111+-0.04000]
#116=[#529+[#530-#529]*0.25612]
#117=[#536+[#537-#536]*0.25612]
#111=[#116+[#117-#116]*0.29422]
X6.36730 Y-2.90011 Z[#111+-0.04000]
#116=[#529+[#530-#529]*0.91227]
#117=[#536+[#537-#536]*0.91227]
#111=[#116+[#117-#116]*0.29422]
X6.36730 Y-2.66254 Z[#111+-0.04000]
#116=[#529+[#530-#529]*0.91227]
#117=[#536+[#537-#536]*0.91227]
#111=[#116+[#117-#116]*0.54786]
X6.46667 Y-2.66254 Z[#111+-0.04000]
#116=[#529+[#530-#529]*0.91331]
#117=[#536+[#537-#536]*0.91331]
#111=[#116+[#117-#116]*0.55767]
X6.47051 Y-2.66216 Z[#111+-0.04000]
#116=[#529+[#530-#529]*0.91641]
#117=[#536+[#537-#536]*0.91641]
#111=[#116+[#117-#116]*0.56709]
X6.47420 Y-2.66104 Z[#111+-0.04000]
#116=[#529+[#530-#529]*0.92143]
#117=[#536+[#537-#536]*0.92143]
#111=[#116+[#117-#116]*0.57578]
X6.47760 Y-2.65922 Z[#111+-0.04000]
#116=[#529+[#530-#529]*0.92819]
#117=[#536+[#537-#536]*0.92819]
#111=[#116+[#117-#116]*0.58340]
X6.48058 Y-2.65678 Z[#111+-0.04000]
#116=[#529+[#530-#529]*0.93643]
#117=[#536+[#537-#536]*0.93643]
#111=[#116+[#117-#116]*0.58964]
X6.48303 Y-2.65379 Z[#111+-0.04000]
#116=[#529+[#530-#529]*0.94583]
#117=[#536+[#537-#536]*0.94583]
#111=[#116+[#117-#116]*0.59429]
X6.48485 Y-2.65039 Z[#111+-0.04000]
#116=[#529+[#530-#529]*0.95603]
#117=[#536+[#537-#536]*0.95603]
#111=[#116+[#117-#116]*0.59715]
X6.48597 Y-2.64670 Z[#111+-0.04000]
#116=[#529+[#530-#529]*0.96664]
#117=[#536+[#537-#536]*0.96664]
#111=[#116+[#117-#116]*0.59811]
X6.48635 Y-2.64286 Z[#111+-0.04000]
#116=[#529+[#530-#529]*0.97724]
#117=[#536+[#537-#536]*0.97724]
#111=[#116+[#117-#116]*0.59715]
X6.48597 Y-2.63902 Z[#111+-0.04000]
#116=[#529+[#530-#529]*0.98744]
#117=[#536+[#537-#536]*0.98744]
#111=[#116+[#117-#116]*0.59429]
X6.48485 Y-2.63532 Z[#111+-0.04000]
#116=[#529+[#530-#529]*0.99684]
#117=[#536+[#537-#536]*0.99684]
#111=[#116+[#117-#116]*0.58964]
X6.48303 Y-2.63192 Z[#111+-0.04000]
#116=[#529+[#530-#529]*1.00000]
#117=[#536+[#537-#536]*1.00000]
#111=[#116+[#117-#116]*0.58725]
X6.48209 Y-2.63078 Z[#111+-0.04000]
#116=[#530+[#531-#530]*0.00508]
#117=[#537+[#538-#537]*0.00508]
#111=[#116+[#117-#116]*0.58340]
X6.48058 Y-2.62894 Z[#111+-0.04000]
#116=[#530+[#531-#530]*0.01184]
#117=[#537+[#538-#537]*0.01184]
#111=[#116+[#117-#116]*0.57578]
X6.47760 Y-2.62649 Z[#111+-0.04000]
#116=[#530+[#531-#530]*0.01687]
#117=[#537+[#538-#537]*0.01687]
#111=[#116+[#117-#116]*0.56709]
X6.47420 Y-2.62467 Z[#111+-0.04000]
#116=[#530+[#531-#530]*0.01996]
#117=[#537+[#538-#537]*0.01996]
#111=[#116+[#117-#116]*0.55767]
X6.47051 Y-2.62355 Z[#111+-0.04000]
#116=[#530+[#531-#530]*0.02101]
#117=[#537+[#538-#537]*0.02101]
#111=[#116+[#117-#116]*0.54786]
X6.46667 Y-2.62317 Z[#111+-0.04000]
#116=[#530+[#531-#530]*0.02101]
#117=[#537+[#538-#537]*0.02101]
#111=[#116+[#117-#116]*0.29422]
X6.36730 Y-2.62317 Z[#111+-0.04000]
#116=[#530+[#531-#530]*0.42695]
#117=[#537+[#538-#537]*0.42695]
#111=[#116+[#117-#116]*0.29422]
X6.36730 Y-2.47619 Z[#111+-0.04000]
#116=[#530+[#531-#530]*0.43756]
#117=[#537+[#538-#537]*0.43756]
#111=[#116+[#117-#116]*0.29326]
X6.36693 Y-2.47235 Z[#111+-0.04000]
#116=[#530+[#531-#530]*0.44776]
#117=[#537+[#538-#537]*0.44776]
#111=[#116+[#117-#116]*0.29040]
X6.36580 Y-2.46866 Z[#111+-0.04000]
#116=[#530+[#531-#530]*0.45716]
#117=[#537+[#538-#537]*0.45716]
#111=[#116+[#117-#116]*0.28575]
X6.36399 Y-2.46525 Z[#111+-0.04000]
#116=[#530+[#531-#530]*0.46540]
#117=[#537+[#538-#537]*0.46540]
#111=[#116+[#117-#116]*0.27950]
X6.36154 Y-2.46227 Z[#111+-0.04000]
#116=[#530+[#531-#530]*0.47216]
#117=[#537+[#538-#537]*0.47216]
#111=[#116+[#117-#116]*0.27189]
X6.35855 Y-2.45982 Z[#111+-0.04000]
#116=[#530+[#531-#530]*0.47718]
#117=[#537+[#538-#537]*0.47718]
#111=[#116+[#117-#116]*0.26320]
X6.35515 Y-2.45800 Z[#111+-0.04000]
#116=[#530+[#531-#530]*0.48027]
#117=[#537+[#538-#537]*0.48027]
#111=[#116+[#117-#116]*0.25378]
X6.35146 Y-2.45688 Z[#111+-0.04000]
#116=[#530+[#531-#530]*0.48132]
#117=[#537+[#538-#537]*0.48132]
#111=[#116+[#117-#116]*0.24397]
X6.34762 Y-2.45650 Z[#111+-0.04000]
#116=[#530+[#531-#530]*0.48027]
#117=[#537+[#538-#537]*0.48027]
#111=[#116+[#117-#116]*0.23417]
X6.34378 Y-2.45688 Z[#111+-0.04000]
#116=[#530+[#531-#530]*0.47718]
#117=[#537+[#538-#537]*0.47718]
#111=[#116+[#117-#116]*0.22474]
X6.34009 Y-2.45800 Z[#111+-0.04000]
#116=[#530+[#531-#530]*0.47216]
#117=[#537+[#538-#537]*0.47216]
#111=[#116+[#117-#116]*0.21605]
X6.33668 Y-2.45982 Z[#111+-0.04000]
#116=[#530+[#531-#530]*0.46540]
#117=[#537+[#538-#537]*0.46540]
#111=[#116+[#117-#116]*0.20844]
X6.33370 Y-2.46227 Z[#111+-0.04000]
#116=[#530+[#531-#530]*0.45716]
#117=[#537+[#538-#537]*0.45716]
#111=[#116+[#117-#116]*0.20219]
X6.33125 Y-2.46525 Z[#111+-0.04000]
#116=[#530+[#531-#530]*0.44776]
#117=[#537+[#538-#537]*0.44776]
#111=[#116+[#117-#116]*0.19755]
X6.32943 Y-2.46866 Z[#111+-0.04000]
#116=[#530+[#531-#530]*0.43756]
#117=[#537+[#538-#537]*0.43756]
#111=[#116+[#117-#116]*0.19469]
X6.32831 Y-2.47235 Z[#111+-0.04000]
#116=[#530+[#531-#530]*0.42695]
#117=[#537+[#538-#537]*0.42695]
#111=[#116+[#117-#116]*0.19372]
X6.32793 Y-2.47619 Z[#111+-0.04000]
#116=[#530+[#531-#530]*0.02101]
#117=[#537+[#538-#537]*0.02101]
#111=[#116+[#117-#116]*0.19372]
X6.32793 Y-2.62317 Z[#111+-0.04000]
#116=[#530+[#531-#530]*0.02101]
#117=[#537+[#538-#537]*0.02101]
#111=[#116+[#117-#116]*0.06164]
X6.27619 Y-2.62317 Z[#111+-0.04000]
#116=[#530+[#531-#530]*0.01996]
#117=[#537+[#538-#537]*0.01996]
#111=[#116+[#117-#116]*0.05183]
X6.27235 Y-2.62355 Z[#111+-0.04000]
#116=[#530+[#531-#530]*0.01687]
#117=[#537+[#538-#537]*0.01687]
#111=[#116+[#117-#116]*0.04240]
X6.26866 Y-2.62467 Z[#111+-0.04000]
#116=[#530+[#531-#530]*0.01184]
#117=[#537+[#538-#537]*0.01184]
#111=[#116+[#117-#116]*0.03372]
X6.26525 Y-2.62649 Z[#111+-0.04000]
#116=[#530+[#531-#530]*0.00508]
#117=[#537+[#538-#537]*0.00508]
#111=[#116+[#117-#116]*0.02610]
X6.26227 Y-2.62894 Z[#111+-0.04000]
#116=[#529+[#530-#529]*1.00000]
#117=[#536+[#537-#536]*1.00000]
#111=[#116+[#117-#116]*0.02225]
X6.26076 Y-2.63078 Z[#111+-0.04000]
#116=[#529+[#530-#529]*0.99684]
#117=[#536+[#537-#536]*0.99684]
#111=[#116+[#117-#116]*0.01985]
X6.25982 Y-2.63192 Z[#111+-0.04000]
#116=[#529+[#530-#529]*0.98744]
#117=[#536+[#537-#536]*0.98744]
#111=[#116+[#117-#116]*0.01521]
X6.25800 Y-2.63532 Z[#111+-0.04000]
#116=[#529+[#530-#529]*0.97724]
#117=[#536+[#537-#536]*0.97724]
#111=[#116+[#117-#116]*0.01235]
X6.25688 Y-2.63902 Z[#111+-0.04000]
#116=[#529+[#530-#529]*0.96664]
#117=[#536+[#537-#536]*0.96664]
#111=[#116+[#117-#116]*0.01138]
X6.25650 Y-2.64286 Z[#111+-0.04000]
G04 P0 ( dwell for no time -- G64 should not smooth over this point )
G00 Z0.08000 ( retract )

G00 X6.49508 Y-3.30000 ( rapid move to begin. )
G01 F180.00000
( Mill infeed pass 1/1 )
#116=[#528+[#529-#528]*0.15169]
#117=[#535+[#536-#535]*0.15169]
#111=[#116+[#117-#116]*0.62039]
G01 Z[-0.04000+#111]
G04 P0 ( dwell for no time -- G64 should not smooth over this point )
G01 F360.00000
#116=[#528+[#529-#528]*0.14903]
#117=[#535+[#536-#535]*0.14903]
#111=[#116+[#117-#116]*0.62063]
X6.49517 Y-3.30096 Z[#111+-0.04000]
#116=[#528+[#529-#528]*0.14413]
#117=[#535+[#536-#535]*0.14413]
#111=[#116+[#117-#116]*0.62251]
X6.49591 Y-3.30273 Z[#111+-0.04000]
#116=[#528+[#529-#528]*0.14039]
#117=[#535+[#536-#535]*0.14039]
#111=[#116+[#117-#116]*0.62597]
X6.49726 Y-3.30409 Z[#111+-0.04000]
#116=[#528+[#529-#528]*0.13836]
#117=[#535+[#536-#535]*0.13836]
#111=[#116+[#117-#116]*0.63050]
X6.49904 Y-3.30483 Z[#111+-0.04000]
#116=[#528+[#529-#528]*0.13809]
#117=[#535+[#536-#535]*0.13809]
#111=[#116+[#117-#116]*0.74803]
X6.54508 Y-3.30492 Z[#111+-0.04000]
#116=[#528+[#529-#528]*0.01359]
#117=[#535+[#536-#535]*0.01359]
#111=[#116+[#117-#116]*0.74803]
X6.54508 Y-3.35000 Z[#111+-0.04000]
#116=[#528+[#529-#528]*0.00839]
#117=[#535+[#536-#535]*0.00839]
#111=[#116+[#117-#116]*0.74898]
X6.54545 Y-3.35188 Z[#111+-0.04000]
#116=[#528+[#529-#528]*0.00398]
#117=[#535+[#536-#535]*0.00398]
#111=[#116+[#117-#116]*0.75171]
X6.54652 Y-3.35348 Z[#111+-0.04000]
#116=[#528+[#529-#528]*0.00104]
#117=[#535+[#536-#535]*0.00104]
#111=[#116+[#117-#116]*0.75578]
X6.54812 Y-3.35455 Z[#111+-0.04000]
#111=[#528+[#535-#528]*0.76059]
X6.55000 Y-3.35492 Z[#111+-0.04000]
#116=[#528+[#529-#528]*0.00104]
#117=[#535+[#536-#535]*0.00104]
#111=[#116+[#117-#116]*0.76540]
X6.55188 Y-3.35455 Z[#111+-0.04000]
#116=[#528+[#529-#528]*0.00398]
#117=[#535+[#536-#535]*0.00398]
#111=[#116+[#117-#116]*0.76947]
X6.55348 Y-3.35348 Z[#111+-0.04000]
#116=[#528+[#529-#528]*0.00839]
#117=[#535+[#536-#535]*0.00839]
#111=[#116+[#117-#116]*0.77220]
X6.55455 Y-3.35188 Z[#111+-0.04000]
#116=[#528+[#529-#528]*0.01359]
#117=[#535+[#536-#535]*0.01359]
#111=[#116+[#117-#116]*0.77315]
X6.55492 Y-3.35000 Z[#111+-0.04000]
#116=[#528+[#529-#528]*0.13809]
#117=[#535+[#536-#535]*0.13809]
#111=[#116+[#117-#116]*0.77315]
X6.55492 Y-3.30492 Z[#111+-0.04000]
#116=[#528+[#529-#528]*0.13809]
#117=[#535+[#536-#535]*0.13809]
#111=[#116+[#117-#116]*0.88823]
X6.60000 Y-3.30492 Z[#111+-0.04000]
#116=[#528+[#529-#528]*0.13913]
#117=[#535+[#536-#535]*0.13913]
#111=[#116+[#117-#116]*0.89303]
X6.60188 Y-3.30455 Z[#111+-0.04000]
#116=[#528+[#529-#528]*0.14208]
#117=[#535+[#536-#535]*0.14208]
#111=[#116+[#117-#116]*0.89711]
X6.60348 Y-3.30348 Z[#111+-0.04000]
#116=[#528+[#529-#528]*0.14648]
#117=[#535+[#536-#535]*0.14648]
#111=[#116+[#117-#116]*0.89983]
X6.60455 Y-3.30188 Z[#111+-0.04000]
#116=[#528+[#529-#528]*0.15169]
#117=[#535+[#536-#535]*0.15169]
#111=[#116+[#117-#116]*0.90079]
X6.60492 Y-3.30000 Z[#111+-0.04000]
#116=[#528+[#529-#528]*0.15689]
#117=[#535+[#536-#535]*0.15689]
#111=[#116+[#117-#116]*0.89983]
X6.60455 Y-3.29812 Z[#111+-0.04000]
#116=[#528+[#529-#528]*0.16130]
#117=[#535+[#536-#535]*0.16130]
#111=[#116+[#117-#116]*0.89711]
X6.60348 Y-3.29652 Z[#111+-0.04000]
#116=[#528+[#529-#528]*0.16424]
#117=[#535+[#536-#535]*0.16424]
#111=[#116+[#117-#116]*0.89303]
X6.60188 Y-3.29545 Z[#111+-0.04000]
#116=[#528+[#529-#528]*0.16528]
#117=[#535+[#536-#535]*0.16528]
#111=[#116+[#117-#116]*0.88823]
X6.60000 Y-3.29508 Z[#111+-0.04000]
#116=[#528+[#529-#528]*0.16528]
#117=[#535+[#536-#535]*0.16528]
#111=[#116+[#117-#116]*0.77315]
X6.55492 Y-3.29508 Z[#111+-0.04000]
#116=[#528+[#529-#528]*0.28978]
#117=[#535+[#536-#535]*0.28978]
#111=[#116+[#117-#116]*0.77315]
X6.55492 Y-3.25000 Z[#111+-0.04000]
#116=[#528+[#529-#528]*0.29498]
#117=[#535+[#536-#535]*0.29498]
#111=[#116+[#117-#116]*0.77220]
X6.55455 Y-3.24812 Z[#111+-0.04000]
#116=[#528+[#529-#528]*0.29939]
#117=[#535+[#536-#535]*0.29939]
#111=[#116+[#117-#116]*0.76947]
X6.55348 Y-3.24652 Z[#111+-0.04000]
#116=[#528+[#529-#528]*0.30234]
#117=[#535+[#536-#535]*0.30234]
#111=[#116+[#117-#116]*0.76540]
X6.55188 Y-3.24545 Z[#111+-0.04000]
#116=[#528+[#529-#528]*0.30337]
#117=[#535+[#536-#535]*0.30337]
#111=[#116+[#117-#116]*0.76059]
X6.55000 Y-3.24508 Z[#111+-0.04000]
#116=[#528+[#529-#528]*0.30234]
#117=[#535+[#536-#535]*0.30234]
#111=[#116+[#117-#116]*0.75578]
X6.54812 Y-3.24545 Z[#111+-0.04000]
#116=[#528+[#529-#528]*0.29939]
#117=[#535+[#536-#535]*0.29939]
#111=[#116+[#117-#116]*0.75171]
X6.54652 Y-3.24652 Z[#111+-0.04000]
#116=[#528+[#529-#528]*0.29498]
#117=[#535+[#536-#535]*0.29498]
#111=[#116+[#117-#116]*0.74898]
X6.54545 Y-3.24812 Z[#111+-0.04000]
#116=[#528+[#529-#528]*0.28978]
#117=[#535+[#536-#535]*0.28978]
#111=[#116+[#117-#116]*0.74803]
X6.54508 Y-3.25000 Z[#111+-0.04000]
#116=[#528+[#529-#528]*0.16528]
#117=[#535+[#536-#535]*0.16528]
#111=[#116+[#117-#116]*0.74803]
X6.54508 Y-3.29508 Z[#111+-0.04000]
#116=[#528+[#529-#528]*0.16502]
#117=[#535+[#536-#535]*0.16502]
#111=[#116+[#117-#116]*0.63050]
X6.49904 Y-3.29517 Z[#111+-0.04000]
#116=[#528+[#529-#528]*0.16299]
#117=[#535+[#536-#535]*0.16299]
#111=[#116+[#117-#116]*0.62597]
X6.49726 Y-3.29591 Z[#111+-0.04000]
#116=[#528+[#529-#528]*0.15924]
#117=[#535+[#536-#535]*0.15924]
#111=[#116+[#117-#116]*0.62251]
X6.49591 Y-3.29726 Z[#111+-0.04000]
#116=[#528+[#529-#528]*0.15434]
#117=[#535+[#536-#535]*0.15434]
#111=[#116+[#117-#116]*0.62063]
X6.49517 Y-3.29904 Z[#111+-0.04000]
#116=[#528+[#529-#528]*0.15169]
#117=[#535+[#536-#535]*0.15169]
#111=[#116+[#117-#116]*0.62039]
X6.49508 Y-3.30000 Z[#111+-0.04000]
( Piece #2, position [1;0] )

G04 P0 ( dwell for no time -- G64 should not smooth over this point )
G00 Z0.08000 ( retract )

G00 X6.85909 Y-2.97619 ( rapid move to begin. )
G01 F180.00000
( Mill infeed pass 1/1 )
#116=[#536+[#537-#536]*0.04601]
#117=[#543+[#544-#543]*0.04601]
#111=[#116+[#117-#116]*0.54961]
G01 Z[-0.04000+#111]
G04 P0 ( dwell for no time -- G64 should not smooth over this point )
G01 F360.00000
#116=[#536+[#537-#536]*1.00000]
#117=[#543+[#544-#543]*1.00000]
#111=[#116+[#117-#116]*0.54961]
X6.85909 Y-2.63078 Z[#111+-0.04000]
#116=[#537+[#538-#537]*0.42695]
#117=[#544+[#545-#544]*0.42695]
#111=[#116+[#117-#116]*0.54961]
X6.85909 Y-2.47619 Z[#111+-0.04000]
#116=[#537+[#538-#537]*0.43756]
#117=[#544+[#545-#544]*0.43756]
#111=[#116+[#117-#116]*0.55057]
X6.85947 Y-2.47235 Z[#111+-0.04000]
#116=[#537+[#538-#537]*0.44776]
#117=[#544+[#545-#544]*0.44776]
#111=[#116+[#117-#116]*0.55343]
X6.86059 Y-2.46866 Z[#111+-0.04000]
#116=[#537+[#538-#537]*0.45716]
#117=[#544+[#545-#544]*0.45716]
#111=[#116+[#117-#116]*0.55808]
X6.86241 Y-2.46525 Z[#111+-0.04000]
#116=[#537+[#538-#537]*0.46540]
#117=[#544+[#545-#544]*0.46540]
#111=[#116+[#117-#116]*0.56433]
X6.86486 Y-2.46227 Z[#111+-0.04000]
#116=[#537+[#538-#537]*0.47216]
#117=[#544+[#545-#544]*0.47216]
#111=[#116+[#117-#116]*0.57194]
X6.86784 Y-2.45982 Z[#111+-0.04000]
#116=[#537+[#538-#537]*0.47718]
#117=[#544+[#545-#544]*0.47718]
#111=[#116+[#117-#116]*0.58063]
X6.87124 Y-2.45800 Z[#111+-0.04000]
#116=[#537+[#538-#537]*0.48027]
#117=[#544+[#545-#544]*0.48027]
#111=[#116+[#117-#116]*0.59005]
X6.87494 Y-2.45688 Z[#111+-0.04000]
#116=[#537+[#538-#537]*0.48132]
#117=[#544+[#545-#544]*0.48132]
#111=[#116+[#117-#116]*0.59986]
X6.87878 Y-2.45650 Z[#111+-0.04000]
#111=[#544+[#545-#544]*0.48132]
X7.03553 Y-2.45650 Z[#111+-0.04000]
#116=[#544+[#545-#544]*0.48132]
#117=[#551+[#552-#551]*0.48132]
#111=[#116+[#117-#116]*0.20765]
X7.11687 Y-2.45650 Z[#111+-0.04000]
#116=[#544+[#545-#544]*0.48027]
#117=[#551+[#552-#551]*0.48027]
#111=[#116+[#117-#116]*0.21745]
X7.12071 Y-2.45688 Z[#111+-0.04000]
#116=[#544+[#545-#544]*0.47718]
#117=[#551+[#552-#551]*0.47718]
#111=[#116+[#117-#116]*0.22688]
X7.12441 Y-2.45800 Z[#111+-0.04000]
#116=[#544+[#545-#544]*0.47216]
#117=[#551+[#552-#551]*0.47216]
#111=[#116+[#117-#116]*0.23556]
X7.12781 Y-2.45982 Z[#111+-0.04000]
#116=[#544+[#545-#544]*0.46540]
#117=[#551+[#552-#551]*0.46540]
#111=[#116+[#117-#116]*0.24318]
X7.13079 Y-2.46227 Z[#111+-0.04000]
#116=[#544+[#545-#544]*0.45716]
#117=[#551+[#552-#551]*0.45716]
#111=[#116+[#117-#116]*0.24943]
X7.13324 Y-2.46525 Z[#111+-0.04000]
#116=[#544+[#545-#544]*0.44776]
#117=[#551+[#552-#551]*0.44776]
#111=[#116+[#117-#116]*0.25407]
X7.13506 Y-2.46866 Z[#111+-0.04000]
#116=[#544+[#545-#544]*0.43756]
#117=[#551+[#552-#551]*0.43756]
#111=[#116+[#117-#116]*0.25693]
X7.13618 Y-2.47235 Z[#111+-0.04000]
#116=[#544+[#545-#544]*0.42695]
#117=[#551+[#552-#551]*0.42695]
#111=[#116+[#117-#116]*0.25790]
X7.13656 Y-2.47619 Z[#111+-0.04000]
#116=[#544+[#545-#544]*0.41634]
#117=[#551+[#552-#551]*0.41634]
#111=[#116+[#117-#116]*0.25693]
X7.13618 Y-2.48003 Z[#111+-0.04000]
#116=[#544+[#545-#544]*0.40614]
#117=[#551+[#552-#551]*0.40614]
#111=[#116+[#117-#116]*0.25407]
X7.13506 Y-2.48372 Z[#111+-0.04000]
#116=[#544+[#545-#544]*0.39675]
#117=[#551+[#552-#551]*0.39675]
#111=[#116+[#117-#116]*0.24943]
X7.13324 Y-2.48713 Z[#111+-0.04000]
#116=[#544+[#545-#544]*0.38851]
#117=[#551+[#552-#551]*0.38851]
#111=[#116+[#117-#116]*0.24318]
X7.13079 Y-2.49011 Z[#111+-0.04000]
#116=[#544+[#545-#544]*0.38175]
#117=[#551+[#552-#551]*0.38175]
#111=[#116+[#117-#116]*0.23556]
X7.12781 Y-2.49256 Z[#111+-0.04000]
#116=[#544+[#545-#544]*0.37672]
#117=[#551+[#552-#551]*0.37672]
#111=[#116+[#117-#116]*0.22688]
X7.12441 Y-2.49438 Z[#111+-0.04000]
#116=[#544+[#545-#544]*0.37363]
#117=[#551+[#552-#551]*0.37363]
#111=[#116+[#117-#116]*0.21745]
X7.12071 Y-2.49550 Z[#111+-0.04000]
#116=[#544+[#545-#544]*0.37258]
#117=[#551+[#552-#551]*0.37258]
#111=[#116+[#117-#116]*0.20765]
X7.11687 Y-2.49587 Z[#111+-0.04000]
#111=[#544+[#545-#544]*0.37258]
X7.03553 Y-2.49587 Z[#111+-0.04000]
#116=[#537+[#538-#537]*0.37258]
#117=[#544+[#545-#544]*0.37258]
#111=[#116+[#117-#116]*0.65011]
X6.89846 Y-2.49587 Z[#111+-0.04000]
#116=[#536+[#537-#536]*1.00000]
#117=[#543+[#544-#543]*1.00000]
#111=[#116+[#117-#116]*0.65011]
X6.89846 Y-2.63078 Z[#111+-0.04000]
#116=[#536+[#537-#536]*0.82373]
#117=[#543+[#544-#543]*0.82373]
#111=[#116+[#117-#116]*0.65011]
X6.89846 Y-2.69460 Z[#111+-0.04000]
#111=[#543+[#544-#543]*0.82373]
X7.03553 Y-2.69460 Z[#111+-0.04000]
#116=[#543+[#544-#543]*0.82373]
#117=[#550+[#551-#550]*0.82373]
#111=[#116+[#117-#116]*0.02531]
X7.04544 Y-2.69460 Z[#111+-0.04000]
#116=[#543+[#544-#543]*0.82268]
#117=[#550+[#551-#550]*0.82268]
#111=[#116+[#117-#116]*0.03511]
X7.04928 Y-2.69498 Z[#111+-0.04000]
#116=[#543+[#544-#543]*0.81959]
#117=[#550+[#551-#550]*0.81959]
#111=[#116+[#117-#116]*0.04454]
X7.05298 Y-2.69610 Z[#111+-0.04000]
#116=[#543+[#544-#543]*0.81457]
#117=[#550+[#551-#550]*0.81457]
#111=[#116+[#117-#116]*0.05323]
X7.05638 Y-2.69792 Z[#111+-0.04000]
#116=[#543+[#544-#543]*0.80781]
#117=[#550+[#551-#550]*0.80781]
#111=[#116+[#117-#116]*0.06084]
X7.05936 Y-2.70037 Z[#111+-0.04000]
#116=[#543+[#544-#543]*0.79957]
#117=[#550+[#551-#550]*0.79957]
#111=[#116+[#117-#116]*0.06709]
X7.06181 Y-2.70335 Z[#111+-0.04000]
#116=[#543+[#544-#543]*0.79017]
#117=[#550+[#551-#550]*0.79017]
#111=[#116+[#117-#116]*0.07173]
X7.06363 Y-2.70675 Z[#111+-0.04000]
#116=[#543+[#544-#543]*0.77997]
#117=[#550+[#551-#550]*0.77997]
#111=[#116+[#117-#116]*0.07459]
X7.06475 Y-2.71044 Z[#111+-0.04000]
#116=[#543+[#544-#543]*0.76936]
#117=[#550+[#551-#550]*0.76936]
#111=[#116+[#117-#116]*0.07556]
X7.06513 Y-2.71428 Z[#111+-0.04000]
#116=[#543+[#544-#543]*0.75875]
#117=[#550+[#551-#550]*0.75875]
#111=[#116+[#117-#116]*0.07459]
X7.06475 Y-2.71813 Z[#111+-0.04000]
#116=[#543+[#544-#543]*0.74855]
#117=[#550+[#551-#550]*0.74855]
#111=[#116+[#117-#116]*0.07173]
X7.06363 Y-2.72182 Z[#111+-0.04000]
#116=[#543+[#544-#543]*0.73916]
#117=[#550+[#551-#550]*0.73916]
#111=[#116+[#117-#116]*0.06709]
X7.06181 Y-2.72522 Z[#111+-0.04000]
#116=[#543+[#544-#543]*0.73092]
#117=[#550+[#551-#550]*0.73092]
#111=[#116+[#117-#116]*0.06084]
X7.05936 Y-2.72820 Z[#111+-0.04000]
#116=[#543+[#544-#543]*0.72416]
#117=[#550+[#551-#550]*0.72416]
#111=[#116+[#117-#116]*0.05323]
X7.05638 Y-2.73065 Z[#111+-0.04000]
#116=[#543+[#544-#543]*0.71913]
#117=[#550+[#551-#550]*0.71913]
#111=[#116+[#117-#116]*0.04454]
X7.05298 Y-2.73247 Z[#111+-0.04000]
#116=[#543+[#544-#543]*0.71604]
#117=[#550+[#551-#550]*0.71604]
#111=[#116+[#117-#116]*0.03511]
X7.04928 Y-2.73359 Z[#111+-0.04000]
#116=[#543+[#544-#543]*0.71499]
#117=[#550+[#551-#550]*0.71499]
#111=[#116+[#117-#116]*0.02531]
X7.04544 Y-2.73397 Z[#111+-0.04000]
#111=[#543+[#544-#543]*0.71499]
X7.03553 Y-2.73397 Z[#111+-0.04000]
#116=[#536+[#537-#536]*0.71499]
#117=[#543+[#544-#543]*0.71499]
#111=[#116+[#117-#116]*0.65011]
X6.89846 Y-2.73397 Z[#111+-0.04000]
#116=[#536+[#537-#536]*0.04601]
#117=[#543+[#544-#543]*0.04601]
#111=[#116+[#117-#116]*0.65011]
X6.89846 Y-2.97619 Z[#111+-0.04000]
#116=[#536+[#537-#536]*0.03540]
#117=[#543+[#544-#543]*0.03540]
#111=[#116+[#117-#116]*0.64914]
X6.89808 Y-2.98003 Z[#111+-0.04000]
#116=[#536+[#537-#536]*0.02520]
#117=[#543+[#544-#543]*0.02520]
#111=[#116+[#117-#116]*0.64628]
X6.89696 Y-2.98372 Z[#111+-0.04000]
#116=[#536+[#537-#536]*0.01581]
#117=[#543+[#544-#543]*0.01581]
#111=[#116+[#117-#116]*0.64164]
X6.89514 Y-2.98713 Z[#111+-0.04000]
#116=[#536+[#537-#536]*0.00757]
#117=[#543+[#544-#543]*0.00757]
#111=[#116+[#117-#116]*0.63539]
X6.89270 Y-2.99011 Z[#111+-0.04000]
#116=[#536+[#537-#536]*0.00081]
#117=[#543+[#544-#543]*0.00081]
#111=[#116+[#117-#116]*0.62777]
X6.88971 Y-2.99256 Z[#111+-0.04000]
#116=[#536+[#537-#536]*0.00000]
#117=[#543+[#544-#543]*0.00000]
#111=[#116+[#117-#116]*0.62638]
X6.88917 Y-2.99285 Z[#111+-0.04000]
#116=[#535+[#536-#535]*0.99578]
#117=[#542+[#543-#542]*0.99578]
#111=[#116+[#117-#116]*0.61909]
X6.88631 Y-2.99438 Z[#111+-0.04000]
#116=[#535+[#536-#535]*0.99269]
#117=[#542+[#543-#542]*0.99269]
#111=[#116+[#117-#116]*0.60966]
X6.88262 Y-2.99550 Z[#111+-0.04000]
#116=[#535+[#536-#535]*0.99164]
#117=[#542+[#543-#542]*0.99164]
#111=[#116+[#117-#116]*0.59986]
X6.87878 Y-2.99587 Z[#111+-0.04000]
#116=[#535+[#536-#535]*0.99269]
#117=[#542+[#543-#542]*0.99269]
#111=[#116+[#117-#116]*0.59005]
X6.87494 Y-2.99550 Z[#111+-0.04000]
#116=[#535+[#536-#535]*0.99578]
#117=[#542+[#543-#542]*0.99578]
#111=[#116+[#117-#116]*0.58063]
X6.87124 Y-2.99438 Z[#111+-0.04000]
#116=[#536+[#537-#536]*0.00000]
#117=[#543+[#544-#543]*0.00000]
#111=[#116+[#117-#116]*0.57333]
X6.86839 Y-2.99285 Z[#111+-0.04000]
#116=[#536+[#537-#536]*0.00081]
#117=[#543+[#544-#543]*0.00081]
#111=[#116+[#117-#116]*0.57194]
X6.86784 Y-2.99256 Z[#111+-0.04000]
#116=[#536+[#537-#536]*0.00757]
#117=[#543+[#544-#543]*0.00757]
#111=[#116+[#117-#116]*0.56433]
X6.86486 Y-2.99011 Z[#111+-0.04000]
#116=[#536+[#537-#536]*0.01581]
#117=[#543+[#544-#543]*0.01581]
#111=[#116+[#117-#116]*0.55808]
X6.86241 Y-2.98713 Z[#111+-0.04000]
#116=[#536+[#537-#536]*0.02520]
#117=[#543+[#544-#543]*0.02520]
#111=[#116+[#117-#116]*0.55343]
X6.86059 Y-2.98372 Z[#111+-0.04000]
#116=[#536+[#537-#536]*0.03540]
#117=[#543+[#544-#543]*0.03540]
#111=[#116+[#117-#116]*0.55057]
X6.85947 Y-2.98003 Z[#111+-0.04000]
#116=[#536+[#537-#536]*0.04601]
#117=[#543+[#544-#543]*0.04601]
#111=[#116+[#117-#116]*0.54961]
X6.85909 Y-2.97619 Z[#111+-0.04000]
G04 P0 ( dwell for no time -- G64 should not smooth over this point )
G00 Z0.08000 ( retract )

G00 X7.28766 Y-2.97619 ( rapid move to begin. )
G01 F180.00000
( Mill infeed pass 1/1 )
#116=[#543+[#544-#543]*0.04601]
#117=[#550+[#551-#550]*0.04601]
#111=[#116+[#117-#116]*0.64362]
G01 Z[-0.04000+#111]
G04 P0 ( dwell for no time -- G64 should not smooth over this point )
G01 F360.00000
#116=[#543+[#544-#543]*0.96664]
#117=[#550+[#551-#550]*0.96664]
#111=[#116+[#117-#116]*0.64362]
X7.28766 Y-2.64286 Z[#111+-0.04000]
#116=[#543+[#544-#543]*0.97724]
#117=[#550+[#551-#550]*0.97724]
#111=[#116+[#117-#116]*0.64459]
X7.28804 Y-2.63902 Z[#111+-0.04000]
#116=[#543+[#544-#543]*0.98744]
#117=[#550+[#551-#550]*0.98744]
#111=[#116+[#117-#116]*0.64745]
X7.28916 Y-2.63532 Z[#111+-0.04000]
#116=[#543+[#544-#543]*0.99684]
#117=[#550+[#551-#550]*0.99684]
#111=[#116+[#117-#116]*0.65209]
X7.29098 Y-2.63192 Z[#111+-0.04000]
#116=[#543+[#544-#543]*1.00000]
#117=[#550+[#551-#550]*1.00000]
#111=[#116+[#117-#116]*0.65449]
X7.29192 Y-2.63078 Z[#111+-0.04000]
#116=[#544+[#545-#544]*0.00508]
#117=[#551+[#552-#551]*0.00508]
#111=[#116+[#117-#116]*0.65834]
X7.29343 Y-2.62894 Z[#111+-0.04000]
#116=[#544+[#545-#544]*0.01184]
#117=[#551+[#552-#551]*0.01184]
#111=[#116+[#117-#116]*0.66595]
X7.29641 Y-2.62649 Z[#111+-0.04000]
#116=[#544+[#545-#544]*0.01687]
#117=[#551+[#552-#551]*0.01687]
#111=[#116+[#117-#116]*0.67464]
X7.29981 Y-2.62467 Z[#111+-0.04000]
#116=[#544+[#545-#544]*0.01996]
#117=[#551+[#552-#551]*0.01996]
#111=[#116+[#117-#116]*0.68407]
X7.30351 Y-2.62355 Z[#111+-0.04000]
#116=[#544+[#545-#544]*0.02101]
#117=[#551+[#552-#551]*0.02101]
#111=[#116+[#117-#116]*0.69387]
X7.30735 Y-2.62317 Z[#111+-0.04000]
#116=[#544+[#545-#544]*0.01996]
#117=[#551+[#552-#551]*0.01996]
#111=[#116+[#117-#116]*0.70368]
X7.31119 Y-2.62355 Z[#111+-0.04000]
#116=[#544+[#545-#544]*0.01687]
#117=[#551+[#552-#551]*0.01687]
#111=[#116+[#117-#116]*0.71310]
X7.31488 Y-2.62467 Z[#111+-0.04000]
#116=[#544+[#545-#544]*0.01184]
#117=[#551+[#552-#551]*0.01184]
#111=[#116+[#117-#116]*0.72179]
X7.31828 Y-2.62649 Z[#111+-0.04000]
#116=[#544+[#545-#544]*0.00508]
#117=[#551+[#552-#551]*0.00508]
#111=[#116+[#117-#116]*0.72940]
X7.32127 Y-2.62894 Z[#111+-0.04000]
#116=[#543+[#544-#543]*1.00000]
#117=[#550+[#551-#550]*1.00000]
#111=[#116+[#117-#116]*0.73326]
X7.32278 Y-2.63078 Z[#111+-0.04000]
#116=[#543+[#544-#543]*0.99684]
#117=[#550+[#551-#550]*0.99684]
#111=[#116+[#117-#116]*0.73565]
X7.32372 Y-2.63192 Z[#111+-0.04000]
#116=[#543+[#544-#543]*0.98744]
#117=[#550+[#551-#550]*0.98744]
#111=[#116+[#117-#116]*0.74030]
X7.32553 Y-2.63532 Z[#111+-0.04000]
#116=[#543+[#544-#543]*0.97724]
#117=[#550+[#551-#550]*0.97724]
#111=[#116+[#117-#116]*0.74316]
X7.32665 Y-2.63902 Z[#111+-0.04000]
#116=[#543+[#544-#543]*0.96664]
#117=[#550+[#551-#550]*0.96664]
#111=[#116+[#117-#116]*0.74412]
X7.32703 Y-2.64286 Z[#111+-0.04000]
#116=[#543+[#544-#543]*0.90062]
#117=[#550+[#551-#550]*0.90062]
#111=[#116+[#117-#116]*0.74412]
X7.32703 Y-2.66676 Z[#111+-0.04000]
#116=[#543+[#544-#543]*0.93932]
#117=[#550+[#551-#550]*0.93932]
#111=[#116+[#117-#116]*0.77990]
X7.34105 Y-2.65275 Z[#111+-0.04000]
#116=[#543+[#544-#543]*0.94499]
#117=[#550+[#551-#550]*0.94499]
#111=[#116+[#117-#116]*0.78605]
X7.34346 Y-2.65070 Z[#111+-0.04000]
#116=[#543+[#544-#543]*0.94951]
#117=[#550+[#551-#550]*0.94951]
#111=[#116+[#117-#116]*0.79296]
X7.34616 Y-2.64906 Z[#111+-0.04000]
#116=[#543+[#544-#543]*1.00000]
#117=[#550+[#551-#550]*1.00000]
#111=[#116+[#117-#116]*0.88630]
X7.38273 Y-2.63078 Z[#111+-0.04000]
#116=[#544+[#545-#544]*0.01526]
#117=[#551+[#552-#551]*0.01526]
#111=[#116+[#117-#116]*0.91451]
X7.39378 Y-2.62525 Z[#111+-0.04000]
#116=[#544+[#545-#544]*0.01955]
#117=[#551+[#552-#551]*0.01955]
#111=[#116+[#117-#116]*0.92544]
X7.39806 Y-2.62370 Z[#111+-0.04000]
#116=[#544+[#545-#544]*0.02101]
#117=[#551+[#552-#551]*0.02101]
#111=[#116+[#117-#116]*0.93699]
X7.40259 Y-2.62317 Z[#111+-0.04000]
#111=[#551+[#552-#551]*0.02101]
X7.42727 Y-2.62317 Z[#111+-0.04000]
#116=[#551+[#552-#551]*0.02101]
#117=[#558+[#559-#558]*0.02101]
#111=[#116+[#117-#116]*0.05854]
X7.45021 Y-2.62317 Z[#111+-0.04000]
#116=[#551+[#552-#551]*0.01996]
#117=[#558+[#559-#558]*0.01996]
#111=[#116+[#117-#116]*0.06835]
X7.45405 Y-2.62355 Z[#111+-0.04000]
#116=[#551+[#552-#551]*0.01687]
#117=[#558+[#559-#558]*0.01687]
#111=[#116+[#117-#116]*0.07777]
X7.45774 Y-2.62467 Z[#111+-0.04000]
#116=[#551+[#552-#551]*0.01184]
#117=[#558+[#559-#558]*0.01184]
#111=[#116+[#117-#116]*0.08646]
X7.46114 Y-2.62649 Z[#111+-0.04000]
#116=[#551+[#552-#551]*0.00508]
#117=[#558+[#559-#558]*0.00508]
#111=[#116+[#117-#116]*0.09408]
X7.46412 Y-2.62894 Z[#111+-0.04000]
#116=[#550+[#551-#550]*1.00000]
#117=[#557+[#558-#557]*1.00000]
#111=[#116+[#117-#116]*0.09793]
X7.46563 Y-2.63078 Z[#111+-0.04000]
#116=[#550+[#551-#550]*0.99684]
#117=[#557+[#558-#557]*0.99684]
#111=[#116+[#117-#116]*0.10032]
X7.46657 Y-2.63192 Z[#111+-0.04000]
#116=[#550+[#551-#550]*0.98744]
#117=[#557+[#558-#557]*0.98744]
#111=[#116+[#117-#116]*0.10497]
X7.46839 Y-2.63532 Z[#111+-0.04000]
#116=[#550+[#551-#550]*0.97724]
#117=[#557+[#558-#557]*0.97724]
#111=[#116+[#117-#116]*0.10783]
X7.46951 Y-2.63902 Z[#111+-0.04000]
#116=[#550+[#551-#550]*0.96664]
#117=[#557+[#558-#557]*0.96664]
#111=[#116+[#117-#116]*0.10879]
X7.46989 Y-2.64286 Z[#111+-0.04000]
#116=[#550+[#551-#550]*0.95603]
#117=[#557+[#558-#557]*0.95603]
#111=[#116+[#117-#116]*0.10783]
X7.46951 Y-2.64670 Z[#111+-0.04000]
#116=[#550+[#551-#550]*0.94583]
#117=[#557+[#558-#557]*0.94583]
#111=[#116+[#117-#116]*0.10497]
X7.46839 Y-2.65039 Z[#111+-0.04000]
#116=[#550+[#551-#550]*0.93643]
#117=[#557+[#558-#557]*0.93643]
#111=[#116+[#117-#116]*0.10032]
X7.46657 Y-2.65379 Z[#111+-0.04000]
#116=[#550+[#551-#550]*0.92819]
#117=[#557+[#558-#557]*0.92819]
#111=[#116+[#117-#116]*0.09408]
X7.46412 Y-2.65678 Z[#111+-0.04000]
#116=[#550+[#551-#550]*0.92143]
#117=[#557+[#558-#557]*0.92143]
#111=[#116+[#117-#116]*0.08646]
X7.46114 Y-2.65922 Z[#111+-0.04000]
#116=[#550+[#551-#550]*0.91641]
#117=[#557+[#558-#557]*0.91641]
#111=[#116+[#117-#116]*0.07777]
X7.45774 Y-2.66104 Z[#111+-0.04000]
#116=[#550+[#551-#550]*0.91331]
#117=[#557+[#558-#557]*0.91331]
#111=[#116+[#117-#116]*0.06835]
X7.45405 Y-2.66216 Z[#111+-0.04000]
#116=[#550+[#551-#550]*0.91227]
#117=[#557+[#558-#557]*0.91227]
#111=[#116+[#117-#116]*0.05854]
X7.45021 Y-2.66254 Z[#111+-0.04000]
#111=[#550+[#551-#550]*0.91227]
X7.42727 Y-2.66254 Z[#111+-0.04000]
#116=[#543+[#544-#543]*0.91227]
#117=[#550+[#551-#550]*0.91227]
#111=[#116+[#117-#116]*0.94885]
X7.40723 Y-2.66254 Z[#111+-0.04000]
#116=[#543+[#544-#543]*0.85620]
#117=[#550+[#551-#550]*0.85620]
#111=[#116+[#117-#116]*0.84520]
X7.36663 Y-2.68284 Z[#111+-0.04000]
#116=[#543+[#544-#543]*0.80291]
#117=[#550+[#551-#550]*0.80291]
#111=[#116+[#117-#116]*0.79595]
X7.34734 Y-2.70214 Z[#111+-0.04000]
#116=[#543+[#544-#543]*0.69077]
#117=[#550+[#551-#550]*0.69077]
#111=[#116+[#117-#116]*0.74412]
X7.32703 Y-2.74274 Z[#111+-0.04000]
#116=[#543+[#544-#543]*0.04601]
#117=[#550+[#551-#550]*0.04601]
#111=[#116+[#117-#116]*0.74412]
X7.32703 Y-2.97619 Z[#111+-0.04000]
#116=[#543+[#544-#543]*0.03540]
#117=[#550+[#551-#550]*0.03540]
#111=[#116+[#117-#116]*0.74316]
X7.32665 Y-2.98003 Z[#111+-0.04000]
#116=[#543+[#544-#543]*0.02520]
#117=[#550+[#551-#550]*0.02520]
#111=[#116+[#117-#116]*0.74030]
X7.32553 Y-2.98372 Z[#111+-0.04000]
#116=[#543+[#544-#543]*0.01581]
#117=[#550+[#551-#550]*0.01581]
#111=[#116+[#117-#116]*0.73565]
X7.32372 Y-2.98713 Z[#111+-0.04000]
#116=[#543+[#544-#543]*0.00757]
#117=[#550+[#551-#550]*0.00757]
#111=[#116+[#117-#116]*0.72940]
X7.32127 Y-2.99011 Z[#111+-0.04000]
#116=[#543+[#544-#543]*0.00081]
#117=[#550+[#551-#550]*0.00081]
#111=[#116+[#117-#116]*0.72179]
X7.31828 Y-2.99256 Z[#111+-0.04000]
#116=[#543+[#544-#543]*0.00000]
#117=[#550+[#551-#550]*0.00000]
#111=[#116+[#117-#116]*0.72040]
X7.31774 Y-2.99285 Z[#111+-0.04000]
#116=[#542+[#543-#542]*0.99578]
#117=[#549+[#550-#549]*0.99578]
#111=[#116+[#117-#116]*0.71310]
X7.31488 Y-2.99438 Z[#111+-0.04000]
#116=[#542+[#543-#542]*0.99269]
#117=[#549+[#550-#549]*0.99269]
#111=[#116+[#117-#116]*0.70368]
X7.31119 Y-2.99550 Z[#111+-0.04000]
#116=[#542+[#543-#542]*0.99164]
#117=[#549+[#550-#549]*0.99164]
#111=[#116+[#117-#116]*0.69387]
X7.30735 Y-2.99587 Z[#111+-0.04000]
#116=[#542+[#543-#542]*0.99269]
#117=[#549+[#550-#549]*0.99269]
#111=[#116+[#117-#116]*0.68407]
X7.30351 Y-2.99550 Z[#111+-0.04000]
#116=[#542+[#543-#542]*0.99578]
#117=[#549+[#550-#549]*0.99578]
#111=[#116+[#117-#116]*0.67464]
X7.29981 Y-2.99438 Z[#111+-0.04000]
#116=[#543+[#544-#543]*0.00000]
#117=[#550+[#551-#550]*0.00000]
#111=[#116+[#117-#116]*0.66735]
X7.29696 Y-2.99285 Z[#111+-0.04000]
#116=[#543+[#544-#543]*0.00081]
#117=[#550+[#551-#550]*0.00081]
#111=[#116+[#117-#116]*0.66595]
X7.29641 Y-2.99256 Z[#111+-0.04000]
#116=[#543+[#544-#543]*0.00757]
#117=[#550+[#551-#550]*0.00757]
#111=[#116+[#117-#116]*0.65834]
X7.29343 Y-2.99011 Z[#111+-0.04000]
#116=[#543+[#544-#543]*0.01581]
#117=[#550+[#551-#550]*0.01581]
#111=[#116+[#117-#116]*0.65209]
X7.29098 Y-2.98713 Z[#111+-0.04000]
#116=[#543+[#544-#543]*0.02520]
#117=[#550+[#551-#550]*0.02520]
#111=[#116+[#117-#116]*0.64745]
X7.28916 Y-2.98372 Z[#111+-0.04000]
#116=[#543+[#544-#543]*0.03540]
#117=[#550+[#551-#550]*0.03540]
#111=[#116+[#117-#116]*0.64459]
X7.28804 Y-2.98003 Z[#111+-0.04000]
#116=[#543+[#544-#543]*0.04601]
#117=[#550+[#551-#550]*0.04601]
#111=[#116+[#117-#116]*0.64362]
X7.28766 Y-2.97619 Z[#111+-0.04000]
G04 P0 ( dwell for no time -- G64 should not smooth over this point )
G00 Z0.08000 ( retract )

G00 X7.57338 Y-2.88095 ( rapid move to begin. )
G01 F180.00000
( Mill infeed pass 1/1 )
#116=[#550+[#551-#550]*0.30905]
#117=[#557+[#558-#557]*0.30905]
#111=[#116+[#117-#116]*0.37296]
G01 Z[-0.04000+#111]
G04 P0 ( dwell for no time -- G64 should not smooth over this point )
G01 F360.00000
#116=[#550+[#551-#550]*0.70360]
#117=[#557+[#558-#557]*0.70360]
#111=[#116+[#117-#116]*0.37296]
X7.57338 Y-2.73809 Z[#111+-0.04000]
#116=[#550+[#551-#550]*0.71609]
#117=[#557+[#558-#557]*0.71609]
#111=[#116+[#117-#116]*0.37431]
X7.57390 Y-2.73357 Z[#111+-0.04000]
#116=[#550+[#551-#550]*0.72792]
#117=[#557+[#558-#557]*0.72792]
#111=[#116+[#117-#116]*0.37827]
X7.57546 Y-2.72929 Z[#111+-0.04000]
#116=[#550+[#551-#550]*0.85943]
#117=[#557+[#558-#557]*0.85943]
#111=[#116+[#117-#116]*0.43905]
X7.59927 Y-2.68167 Z[#111+-0.04000]
#116=[#550+[#551-#550]*0.86691]
#117=[#557+[#558-#557]*0.86691]
#111=[#116+[#117-#116]*0.44323]
X7.60090 Y-2.67897 Z[#111+-0.04000]
#116=[#550+[#551-#550]*0.87356]
#117=[#557+[#558-#557]*0.87356]
#111=[#116+[#117-#116]*0.44846]
X7.60295 Y-2.67656 Z[#111+-0.04000]
#116=[#550+[#551-#550]*0.93932]
#117=[#557+[#558-#557]*0.93932]
#111=[#116+[#117-#116]*0.50924]
X7.62676 Y-2.65275 Z[#111+-0.04000]
#116=[#550+[#551-#550]*0.94499]
#117=[#557+[#558-#557]*0.94499]
#111=[#116+[#117-#116]*0.51539]
X7.62917 Y-2.65070 Z[#111+-0.04000]
#116=[#550+[#551-#550]*0.94951]
#117=[#557+[#558-#557]*0.94951]
#111=[#116+[#117-#116]*0.52230]
X7.63188 Y-2.64906 Z[#111+-0.04000]
#116=[#550+[#551-#550]*1.00000]
#117=[#557+[#558-#557]*1.00000]
#111=[#116+[#117-#116]*0.61564]
X7.66844 Y-2.63078 Z[#111+-0.04000]
#116=[#551+[#552-#551]*0.01526]
#117=[#558+[#559-#558]*0.01526]
#111=[#116+[#117-#116]*0.64386]
X7.67950 Y-2.62525 Z[#111+-0.04000]
#116=[#551+[#552-#551]*0.01955]
#117=[#558+[#559-#558]*0.01955]
#111=[#116+[#117-#116]*0.65478]
X7.68378 Y-2.62370 Z[#111+-0.04000]
#116=[#551+[#552-#551]*0.02101]
#117=[#558+[#559-#558]*0.02101]
#111=[#116+[#117-#116]*0.66633]
X7.68830 Y-2.62317 Z[#111+-0.04000]
#116=[#551+[#552-#551]*0.02101]
#117=[#558+[#559-#558]*0.02101]
#111=[#116+[#117-#116]*0.84867]
X7.75973 Y-2.62317 Z[#111+-0.04000]
#116=[#551+[#552-#551]*0.01955]
#117=[#558+[#559-#558]*0.01955]
#111=[#116+[#117-#116]*0.86021]
X7.76425 Y-2.62370 Z[#111+-0.04000]
#116=[#551+[#552-#551]*0.01526]
#117=[#558+[#559-#558]*0.01526]
#111=[#116+[#117-#116]*0.87114]
X7.76853 Y-2.62525 Z[#111+-0.04000]
#116=[#550+[#551-#550]*1.00000]
#117=[#557+[#558-#557]*1.00000]
#111=[#116+[#117-#116]*0.89935]
X7.77959 Y-2.63078 Z[#111+-0.04000]
#116=[#550+[#551-#550]*0.94951]
#117=[#557+[#558-#557]*0.94951]
#111=[#116+[#117-#116]*0.99269]
X7.81615 Y-2.64906 Z[#111+-0.04000]
#116=[#550+[#551-#550]*0.94499]
#117=[#557+[#558-#557]*0.94499]
#111=[#116+[#117-#116]*0.99960]
X7.81886 Y-2.65070 Z[#111+-0.04000]
#111=[#557+[#558-#557]*0.94462]
X7.81901 Y-2.65083 Z[#111+-0.04000]
#116=[#557+[#558-#557]*0.93932]
#117=[#564+[#565-#564]*0.93932]
#111=[#116+[#117-#116]*0.00575]
X7.82127 Y-2.65275 Z[#111+-0.04000]
#116=[#557+[#558-#557]*0.87356]
#117=[#564+[#565-#564]*0.87356]
#111=[#116+[#117-#116]*0.06653]
X7.84508 Y-2.67656 Z[#111+-0.04000]
#116=[#557+[#558-#557]*0.86691]
#117=[#564+[#565-#564]*0.86691]
#111=[#116+[#117-#116]*0.07176]
X7.84713 Y-2.67897 Z[#111+-0.04000]
#116=[#557+[#558-#557]*0.85943]
#117=[#564+[#565-#564]*0.85943]
#111=[#116+[#117-#116]*0.07594]
X7.84876 Y-2.68167 Z[#111+-0.04000]
#116=[#557+[#558-#557]*0.72792]
#117=[#564+[#565-#564]*0.72792]
#111=[#116+[#117-#116]*0.13672]
X7.87257 Y-2.72929 Z[#111+-0.04000]
#116=[#557+[#558-#557]*0.71609]
#117=[#564+[#565-#564]*0.71609]
#111=[#116+[#117-#116]*0.14068]
X7.87413 Y-2.73357 Z[#111+-0.04000]
#116=[#557+[#558-#557]*0.70360]
#117=[#564+[#565-#564]*0.70360]
#111=[#116+[#117-#116]*0.14203]
X7.87465 Y-2.73809 Z[#111+-0.04000]
#116=[#557+[#558-#557]*0.30905]
#117=[#564+[#565-#564]*0.30905]
#111=[#116+[#117-#116]*0.14203]
X7.87465 Y-2.88095 Z[#111+-0.04000]
#116=[#557+[#558-#557]*0.29656]
#117=[#564+[#565-#564]*0.29656]
#111=[#116+[#117-#116]*0.14068]
X7.87413 Y-2.88547 Z[#111+-0.04000]
#116=[#557+[#558-#557]*0.28473]
#117=[#564+[#565-#564]*0.28473]
#111=[#116+[#117-#116]*0.13672]
X7.87257 Y-2.88976 Z[#111+-0.04000]
#116=[#557+[#558-#557]*0.15321]
#117=[#564+[#565-#564]*0.15321]
#111=[#116+[#117-#116]*0.07594]
X7.84876 Y-2.93737 Z[#111+-0.04000]
#116=[#557+[#558-#557]*0.14574]
#117=[#564+[#565-#564]*0.14574]
#111=[#116+[#117-#116]*0.07176]
X7.84713 Y-2.94008 Z[#111+-0.04000]
#116=[#557+[#558-#557]*0.13909]
#117=[#564+[#565-#564]*0.13909]
#111=[#116+[#117-#116]*0.06653]
X7.84508 Y-2.94249 Z[#111+-0.04000]
#116=[#557+[#558-#557]*0.07333]
#117=[#564+[#565-#564]*0.07333]
#111=[#116+[#117-#116]*0.00575]
X7.82127 Y-2.96630 Z[#111+-0.04000]
#111=[#557+[#558-#557]*0.06803]
X7.81901 Y-2.96822 Z[#111+-0.04000]
#116=[#550+[#551-#550]*0.06767]
#117=[#557+[#558-#557]*0.06767]
#111=[#116+[#117-#116]*0.99960]
X7.81886 Y-2.96835 Z[#111+-0.04000]
#116=[#550+[#551-#550]*0.06314]
#117=[#557+[#558-#557]*0.06314]
#111=[#116+[#117-#116]*0.99269]
X7.81615 Y-2.96999 Z[#111+-0.04000]
#116=[#550+[#551-#550]*0.00000]
#117=[#557+[#558-#557]*0.00000]
#111=[#116+[#117-#116]*0.87597]
X7.77043 Y-2.99285 Z[#111+-0.04000]
#116=[#549+[#550-#549]*0.99738]
#117=[#556+[#557-#556]*0.99738]
#111=[#116+[#117-#116]*0.87114]
X7.76853 Y-2.99380 Z[#111+-0.04000]
#116=[#549+[#550-#549]*0.99310]
#117=[#556+[#557-#556]*0.99310]
#111=[#116+[#117-#116]*0.86021]
X7.76425 Y-2.99535 Z[#111+-0.04000]
#116=[#549+[#550-#549]*0.99164]
#117=[#556+[#557-#556]*0.99164]
#111=[#116+[#117-#116]*0.84867]
X7.75973 Y-2.99587 Z[#111+-0.04000]
#116=[#549+[#550-#549]*0.99164]
#117=[#556+[#557-#556]*0.99164]
#111=[#116+[#117-#116]*0.66633]
X7.68830 Y-2.99587 Z[#111+-0.04000]
#116=[#549+[#550-#549]*0.99310]
#117=[#556+[#557-#556]*0.99310]
#111=[#116+[#117-#116]*0.65478]
X7.68378 Y-2.99535 Z[#111+-0.04000]
#116=[#549+[#550-#549]*0.99738]
#117=[#556+[#557-#556]*0.99738]
#111=[#116+[#117-#116]*0.64386]
X7.67950 Y-2.99380 Z[#111+-0.04000]
#116=[#550+[#551-#550]*0.00000]
#117=[#557+[#558-#557]*0.00000]
#111=[#116+[#117-#116]*0.63902]
X7.67760 Y-2.99285 Z[#111+-0.04000]
#116=[#550+[#551-#550]*0.06314]
#117=[#557+[#558-#557]*0.06314]
#111=[#116+[#117-#116]*0.52230]
X7.63188 Y-2.96999 Z[#111+-0.04000]
#116=[#550+[#551-#550]*0.06767]
#117=[#557+[#558-#557]*0.06767]
#111=[#116+[#117-#116]*0.51539]
X7.62917 Y-2.96835 Z[#111+-0.04000]
#116=[#550+[#551-#550]*0.07333]
#117=[#557+[#558-#557]*0.07333]
#111=[#116+[#117-#116]*0.50924]
X7.62676 Y-2.96630 Z[#111+-0.04000]
#116=[#550+[#551-#550]*0.13909]
#117=[#557+[#558-#557]*0.13909]
#111=[#116+[#117-#116]*0.44846]
X7.60295 Y-2.94249 Z[#111+-0.04000]
#116=[#550+[#551-#550]*0.14574]
#117=[#557+[#558-#557]*0.14574]
#111=[#116+[#117-#116]*0.44323]
X7.60090 Y-2.94008 Z[#111+-0.04000]
#116=[#550+[#551-#550]*0.15321]
#117=[#557+[#558-#557]*0.15321]
#111=[#116+[#117-#116]*0.43905]
X7.59927 Y-2.93737 Z[#111+-0.04000]
#116=[#550+[#551-#550]*0.28473]
#117=[#557+[#558-#557]*0.28473]
#111=[#116+[#117-#116]*0.37827]
X7.57546 Y-2.88976 Z[#111+-0.04000]
#116=[#550+[#551-#550]*0.29656]
#117=[#557+[#558-#557]*0.29656]
#111=[#116+[#117-#116]*0.37431]
X7.57390 Y-2.88547 Z[#111+-0.04000]
#116=[#550+[#551-#550]*0.30905]
#117=[#557+[#558-#557]*0.30905]
#111=[#116+[#117-#116]*0.37296]
X7.57338 Y-2.88095 Z[#111+-0.04000]
G04 P0 ( dwell for no time -- G64 should not smooth over this point )
G00 Z0.08000 ( retract )

G00 X7.61275 Y-2.87630 ( rapid move to begin. )
G01 F180.00000
( Mill infeed pass 1/1 )
#116=[#550+[#551-#550]*0.32188]
#117=[#557+[#558-#557]*0.32188]
#111=[#116+[#117-#116]*0.47347]
G01 Z[-0.04000+#111]
G04 P0 ( dwell for no time -- G64 should not smooth over this point )
G01 F360.00000
#116=[#550+[#551-#550]*0.69077]
#117=[#557+[#558-#557]*0.69077]
#111=[#116+[#117-#116]*0.47347]
X7.61275 Y-2.74274 Z[#111+-0.04000]
#116=[#550+[#551-#550]*0.80291]
#117=[#557+[#558-#557]*0.80291]
#111=[#116+[#117-#116]*0.52529]
X7.63305 Y-2.70214 Z[#111+-0.04000]
#116=[#550+[#551-#550]*0.85620]
#117=[#557+[#558-#557]*0.85620]
#111=[#116+[#117-#116]*0.57454]
X7.65234 Y-2.68284 Z[#111+-0.04000]
#116=[#550+[#551-#550]*0.91227]
#117=[#557+[#558-#557]*0.91227]
#111=[#116+[#117-#116]*0.67819]
X7.69295 Y-2.66254 Z[#111+-0.04000]
#116=[#550+[#551-#550]*0.91227]
#117=[#557+[#558-#557]*0.91227]
#111=[#116+[#117-#116]*0.83680]
X7.75508 Y-2.66254 Z[#111+-0.04000]
#116=[#550+[#551-#550]*0.85620]
#117=[#557+[#558-#557]*0.85620]
#111=[#116+[#117-#116]*0.94046]
X7.79569 Y-2.68284 Z[#111+-0.04000]
#116=[#550+[#551-#550]*0.80291]
#117=[#557+[#558-#557]*0.80291]
#111=[#116+[#117-#116]*0.98970]
X7.81498 Y-2.70214 Z[#111+-0.04000]
#111=[#557+[#558-#557]*0.78063]
X7.81901 Y-2.71021 Z[#111+-0.04000]
#116=[#557+[#558-#557]*0.69077]
#117=[#564+[#565-#564]*0.69077]
#111=[#116+[#117-#116]*0.04153]
X7.83528 Y-2.74274 Z[#111+-0.04000]
#116=[#557+[#558-#557]*0.32188]
#117=[#564+[#565-#564]*0.32188]
#111=[#116+[#117-#116]*0.04153]
X7.83528 Y-2.87630 Z[#111+-0.04000]
#111=[#557+[#558-#557]*0.23202]
X7.81901 Y-2.90884 Z[#111+-0.04000]
#116=[#550+[#551-#550]*0.20973]
#117=[#557+[#558-#557]*0.20973]
#111=[#116+[#117-#116]*0.98970]
X7.81498 Y-2.91691 Z[#111+-0.04000]
#116=[#550+[#551-#550]*0.15645]
#117=[#557+[#558-#557]*0.15645]
#111=[#116+[#117-#116]*0.94046]
X7.79569 Y-2.93620 Z[#111+-0.04000]
#116=[#550+[#551-#550]*0.10038]
#117=[#557+[#558-#557]*0.10038]
#111=[#116+[#117-#116]*0.83680]
X7.75508 Y-2.95650 Z[#111+-0.04000]
#116=[#550+[#551-#550]*0.10038]
#117=[#557+[#558-#557]*0.10038]
#111=[#116+[#117-#116]*0.67819]
X7.69295 Y-2.95650 Z[#111+-0.04000]
#116=[#550+[#551-#550]*0.15645]
#117=[#557+[#558-#557]*0.15645]
#111=[#116+[#117-#116]*0.57454]
X7.65234 Y-2.93620 Z[#111+-0.04000]
#116=[#550+[#551-#550]*0.20973]
#117=[#557+[#558-#557]*0.20973]
#111=[#116+[#117-#116]*0.52529]
X7.63305 Y-2.91691 Z[#111+-0.04000]
#116=[#550+[#551-#550]*0.32188]
#117=[#557+[#558-#557]*0.32188]
#111=[#116+[#117-#116]*0.47347]
X7.61275 Y-2.87630 Z[#111+-0.04000]
G04 P0 ( dwell for no time -- G64 should not smooth over this point )
G00 Z0.08000 ( retract )

G00 X8.04957 Y-2.97619 ( rapid move to begin. )
G01 F180.00000
( Mill infeed pass 1/1 )
#116=[#557+[#558-#557]*0.04601]
#117=[#564+[#565-#564]*0.04601]
#111=[#116+[#117-#116]*0.58853]
G01 Z[-0.04000+#111]
G04 P0 ( dwell for no time -- G64 should not smooth over this point )
G01 F360.00000
#116=[#557+[#558-#557]*0.96664]
#117=[#564+[#565-#564]*0.96664]
#111=[#116+[#117-#116]*0.58853]
X8.04957 Y-2.64286 Z[#111+-0.04000]
#116=[#557+[#558-#557]*0.97724]
#117=[#564+[#565-#564]*0.97724]
#111=[#116+[#117-#116]*0.58950]
X8.04995 Y-2.63902 Z[#111+-0.04000]
#116=[#557+[#558-#557]*0.98744]
#117=[#564+[#565-#564]*0.98744]
#111=[#116+[#117-#116]*0.59236]
X8.05107 Y-2.63532 Z[#111+-0.04000]
#116=[#557+[#558-#557]*0.99684]
#117=[#564+[#565-#564]*0.99684]
#111=[#116+[#117-#116]*0.59700]
X8.05289 Y-2.63192 Z[#111+-0.04000]
#116=[#557+[#558-#557]*1.00000]
#117=[#564+[#565-#564]*1.00000]
#111=[#116+[#117-#116]*0.59940]
X8.05382 Y-2.63078 Z[#111+-0.04000]
#116=[#558+[#559-#558]*0.00508]
#117=[#565+[#566-#565]*0.00508]
#111=[#116+[#117-#116]*0.60325]
X8.05533 Y-2.62894 Z[#111+-0.04000]
#116=[#558+[#559-#558]*0.01184]
#117=[#565+[#566-#565]*0.01184]
#111=[#116+[#117-#116]*0.61087]
X8.05832 Y-2.62649 Z[#111+-0.04000]
#116=[#558+[#559-#558]*0.01687]
#117=[#565+[#566-#565]*0.01687]
#111=[#116+[#117-#116]*0.61956]
X8.06172 Y-2.62467 Z[#111+-0.04000]
#116=[#558+[#559-#558]*0.01996]
#117=[#565+[#566-#565]*0.01996]
#111=[#116+[#117-#116]*0.62898]
X8.06541 Y-2.62355 Z[#111+-0.04000]
#116=[#558+[#559-#558]*0.02101]
#117=[#565+[#566-#565]*0.02101]
#111=[#116+[#117-#116]*0.63879]
X8.06925 Y-2.62317 Z[#111+-0.04000]
#116=[#558+[#559-#558]*0.01996]
#117=[#565+[#566-#565]*0.01996]
#111=[#116+[#117-#116]*0.64859]
X8.07309 Y-2.62355 Z[#111+-0.04000]
#116=[#558+[#559-#558]*0.01687]
#117=[#565+[#566-#565]*0.01687]
#111=[#116+[#117-#116]*0.65802]
X8.07679 Y-2.62467 Z[#111+-0.04000]
#116=[#558+[#559-#558]*0.01184]
#117=[#565+[#566-#565]*0.01184]
#111=[#116+[#117-#116]*0.66670]
X8.08019 Y-2.62649 Z[#111+-0.04000]
#116=[#558+[#559-#558]*0.00508]
#117=[#565+[#566-#565]*0.00508]
#111=[#116+[#117-#116]*0.67432]
X8.08317 Y-2.62894 Z[#111+-0.04000]
#116=[#557+[#558-#557]*1.00000]
#117=[#564+[#565-#564]*1.00000]
#111=[#116+[#117-#116]*0.67817]
X8.08468 Y-2.63078 Z[#111+-0.04000]
#116=[#557+[#558-#557]*0.99684]
#117=[#564+[#565-#564]*0.99684]
#111=[#116+[#117-#116]*0.68057]
X8.08562 Y-2.63192 Z[#111+-0.04000]
#116=[#557+[#558-#557]*0.98744]
#117=[#564+[#565-#564]*0.98744]
#111=[#116+[#117-#116]*0.68521]
X8.08744 Y-2.63532 Z[#111+-0.04000]
#116=[#557+[#558-#557]*0.97724]
#117=[#564+[#565-#564]*0.97724]
#111=[#116+[#117-#116]*0.68807]
X8.08856 Y-2.63902 Z[#111+-0.04000]
#116=[#557+[#558-#557]*0.96664]
#117=[#564+[#565-#564]*0.96664]
#111=[#116+[#117-#116]*0.68904]
X8.08894 Y-2.64286 Z[#111+-0.04000]
#116=[#557+[#558-#557]*0.95597]
#117=[#564+[#565-#564]*0.95597]
#111=[#116+[#117-#116]*0.68904]
X8.08894 Y-2.64672 Z[#111+-0.04000]
#116=[#557+[#558-#557]*1.00000]
#117=[#564+[#565-#564]*1.00000]
#111=[#116+[#117-#116]*0.77043]
X8.12082 Y-2.63078 Z[#111+-0.04000]
#116=[#558+[#559-#558]*0.01526]
#117=[#565+[#566-#565]*0.01526]
#111=[#116+[#117-#116]*0.79865]
X8.13188 Y-2.62525 Z[#111+-0.04000]
#116=[#558+[#559-#558]*0.01955]
#117=[#565+[#566-#565]*0.01955]
#111=[#116+[#117-#116]*0.80958]
X8.13616 Y-2.62370 Z[#111+-0.04000]
#116=[#558+[#559-#558]*0.02101]
#117=[#565+[#566-#565]*0.02101]
#111=[#116+[#117-#116]*0.82112]
X8.14068 Y-2.62317 Z[#111+-0.04000]
#116=[#558+[#559-#558]*0.02101]
#117=[#565+[#566-#565]*0.02101]
#111=[#116+[#117-#116]*1.00000]
X8.21076 Y-2.62317 Z[#111+-0.04000]
#116=[#565+[#566-#565]*0.02101]
#117=[#572+[#573-#572]*0.02101]
#111=[#116+[#117-#116]*0.00346]
X8.21211 Y-2.62317 Z[#111+-0.04000]
#116=[#565+[#566-#565]*0.01955]
#117=[#572+[#573-#572]*0.01955]
#111=[#116+[#117-#116]*0.01500]
X8.21663 Y-2.62370 Z[#111+-0.04000]
#116=[#565+[#566-#565]*0.01526]
#117=[#572+[#573-#572]*0.01526]
#111=[#116+[#117-#116]*0.02593]
X8.22091 Y-2.62525 Z[#111+-0.04000]
#116=[#564+[#565-#564]*1.00000]
#117=[#571+[#572-#571]*1.00000]
#111=[#116+[#117-#116]*0.05415]
X8.23197 Y-2.63078 Z[#111+-0.04000]
#116=[#564+[#565-#564]*0.94951]
#117=[#571+[#572-#571]*0.94951]
#111=[#116+[#117-#116]*0.14749]
X8.26853 Y-2.64906 Z[#111+-0.04000]
#116=[#564+[#565-#564]*0.94322]
#117=[#571+[#572-#571]*0.94322]
#111=[#116+[#117-#116]*0.15654]
X8.27208 Y-2.65134 Z[#111+-0.04000]
#116=[#564+[#565-#564]*0.93499]
#117=[#571+[#572-#571]*0.93499]
#111=[#116+[#117-#116]*0.16415]
X8.27506 Y-2.65432 Z[#111+-0.04000]
#116=[#564+[#565-#564]*0.92519]
#117=[#571+[#572-#571]*0.92519]
#111=[#116+[#117-#116]*0.16996]
X8.27734 Y-2.65786 Z[#111+-0.04000]
#116=[#564+[#565-#564]*0.79368]
#117=[#571+[#572-#571]*0.79368]
#111=[#116+[#117-#116]*0.23073]
X8.30114 Y-2.70548 Z[#111+-0.04000]
#116=[#564+[#565-#564]*0.78185]
#117=[#571+[#572-#571]*0.78185]
#111=[#116+[#117-#116]*0.23470]
X8.30270 Y-2.70976 Z[#111+-0.04000]
#116=[#564+[#565-#564]*0.76936]
#117=[#571+[#572-#571]*0.76936]
#111=[#116+[#117-#116]*0.23604]
X8.30322 Y-2.71428 Z[#111+-0.04000]
#116=[#564+[#565-#564]*0.04601]
#117=[#571+[#572-#571]*0.04601]
#111=[#116+[#117-#116]*0.23604]
X8.30322 Y-2.97619 Z[#111+-0.04000]
#116=[#564+[#565-#564]*0.03540]
