( pcb2gcode 2.0.0 )
( Gcode for custom )

G94 ( Inches per minute feed rate. )
G20 ( Units == INCHES. )

G90 ( Absolute coordinates. )
G00 S12000 ( RPM spindle speed. )
G64 P0.00040 ( set maximum deviation from commanded toolpath )
G01 F360.00000 ( Feedrate. )

#118 = #5211
#119 = #5212

(MSG, Attach the probe tool)
M0 ( Temporary machine stop. )
G0 Z0.080 ( Move Z to safe height )
G0 X4.68507 Y-3.35492 ( Move XY to start point )
G0 Z0.080 ( Move Z to probe height )
G38.2 Z-0.1 F2.362205 ( Z-probe )
#500 = 0 ( Probe point [0, 0] is our reference )
G92 Z0 ( Set the current Z as zero-value )

( We now start the real probing: move the Z axis to the probing height, move to )
( the probing XY position, probe it and save the result, parameter #2002, )
( in a numbered parameter; we will make 17 probes on the X-axis and )
( 7 probes on the Y-axis, for a grand total of 119 probes )

G0 Z0.080
X4.68507 Y-2.99285
G38.2 Z-0.1 F2.362205
#501=#2002
G0 Z0.080
X4.68507 Y-2.63078
G38.2 Z-0.1 F2.362205
#502=#2002
G0 Z0.080
X4.68507 Y-2.26870
G38.2 Z-0.1 F2.362205
#503=#2002
G0 Z0.080
X4.68507 Y-1.90663
G38.2 Z-0.1 F2.362205
#504=#2002
G0 Z0.080
X4.68507 Y-1.54456
G38.2 Z-0.1 F2.362205
#505=#2002
G0 Z0.080
X4.68507 Y-1.18249
G38.2 Z-0.1 F2.362205
#506=#2002
G0 Z0.080
X5.07682 Y-1.18249
G38.2 Z-0.1 F2.362205
#513=#2002
G0 Z0.080
X5.07682 Y-1.54456
G38.2 Z-0.1 F2.362205
#512=#2002
G0 Z0.080
X5.07682 Y-1.90663
G38.2 Z-0.1 F2.362205
#511=#2002
G0 Z0.080
X5.07682 Y-2.26870
G38.2 Z-0.1 F2.362205
#510=#2002
G0 Z0.080
X5.07682 Y-2.63078
G38.2 Z-0.1 F2.362205
#509=#2002
G0 Z0.080
X5.07682 Y-2.99285
G38.2 Z-0.1 F2.362205
#508=#2002
G0 Z0.080
X5.07682 Y-3.35492
G38.2 Z-0.1 F2.362205
#507=#2002
G0 Z0.080
X5.46856 Y-3.35492
G38.2 Z-0.1 F2.362205
#514=#2002
G0 Z0.080
X5.46856 Y-2.99285
G38.2 Z-0.1 F2.362205
#515=#2002
G0 Z0.080
X5.46856 Y-2.63078
G38.2 Z-0.1 F2.362205
#516=#2002
G0 Z0.080
X5.46856 Y-2.26870
G38.2 Z-0.1 F2.362205
#517=#2002
G0 Z0.080
X5.46856 Y-1.90663
G38.2 Z-0.1 F2.362205
#518=#2002
G0 Z0.080
X5.46856 Y-1.54456
G38.2 Z-0.1 F2.362205
#519=#2002
G0 Z0.080
X5.46856 Y-1.18249
G38.2 Z-0.1 F2.362205
#520=#2002
G0 Z0.080
X5.86030 Y-1.18249
G38.2 Z-0.1 F2.362205
#527=#2002
G0 Z0.080
X5.86030 Y-1.54456
G38.2 Z-0.1 F2.362205
#526=#2002
G0 Z0.080
X5.86030 Y-1.90663
G38.2 Z-0.1 F2.362205
#525=#2002
G0 Z0.080
X5.86030 Y-2.26870
G38.2 Z-0.1 F2.362205
#524=#2002
G0 Z0.080
X5.86030 Y-2.63078
G38.2 Z-0.1 F2.362205
#523=#2002
G0 Z0.080
X5.86030 Y-2.99285
G38.2 Z-0.1 F2.362205
#522=#2002
G0 Z0.080
X5.86030 Y-3.35492
G38.2 Z-0.1 F2.362205
#521=#2002
G0 Z0.080
X6.25204 Y-3.35492
G38.2 Z-0.1 F2.362205
#528=#2002
G0 Z0.080
X6.25204 Y-2.99285
G38.2 Z-0.1 F2.362205
#529=#2002
G0 Z0.080
X6.25204 Y-2.63078
G38.2 Z-0.1 F2.362205
#530=#2002
G0 Z0.080
X6.25204 Y-2.26870
G38.2 Z-0.1 F2.362205
#531=#2002
G0 Z0.080
X6.25204 Y-1.90663
G38.2 Z-0.1 F2.362205
#532=#2002
G0 Z0.080
X6.25204 Y-1.54456
G38.2 Z-0.1 F2.362205
#533=#2002
G0 Z0.080
X6.25204 Y-1.18249
G38.2 Z-0.1 F2.362205
#534=#2002
G0 Z0.080
X6.64379 Y-1.18249
G38.2 Z-0.1 F2.362205
#541=#2002
G0 Z0.080
X6.64379 Y-1.54456
G38.2 Z-0.1 F2.362205
#540=#2002
G0 Z0.080
X6.64379 Y-1.90663
G38.2 Z-0.1 F2.362205
#539=#2002
G0 Z0.080
X6.64379 Y-2.26870
G38.2 Z-0.1 F2.362205
#538=#2002
G0 Z0.080
X6.64379 Y-2.63078
G38.2 Z-0.1 F2.362205
#537=#2002
G0 Z0.080
X6.64379 Y-2.99285
G38.2 Z-0.1 F2.362205
#536=#2002
G0 Z0.080
X6.64379 Y-3.35492
G38.2 Z-0.1 F2.362205
#535=#2002
G0 Z0.080
X7.03553 Y-3.35492
G38.2 Z-0.1 F2.362205
#542=#2002
G0 Z0.080
X7.03553 Y-2.99285
G38.2 Z-0.1 F2.362205
#543=#2002
G0 Z0.080
X7.03553 Y-2.63078
G38.2 Z-0.1 F2.362205
#544=#2002
G0 Z0.080
X7.03553 Y-2.26870
G38.2 Z-0.1 F2.362205
#545=#2002
G0 Z0.080
X7.03553 Y-1.90663
G38.2 Z-0.1 F2.362205
#546=#2002
G0 Z0.080
X7.03553 Y-1.54456
G38.2 Z-0.1 F2.362205
#547=#2002
G0 Z0.080
X7.03553 Y-1.18249
G38.2 Z-0.1 F2.362205
#548=#2002
G0 Z0.080
X7.42727 Y-1.18249
G38.2 Z-0.1 F2.362205
#555=#2002
G0 Z0.080
X7.42727 Y-1.54456
G38.2 Z-0.1 F2.362205
#554=#2002
G0 Z0.080
X7.42727 Y-1.90663
G38.2 Z-0.1 F2.362205
#553=#2002
G0 Z0.080
X7.42727 Y-2.26870
G38.2 Z-0.1 F2.362205
#552=#2002
G0 Z0.080
X7.42727 Y-2.63078
G38.2 Z-0.1 F2.362205
#551=#2002
G0 Z0.080
X7.42727 Y-2.99285
G38.2 Z-0.1 F2.362205
#550=#2002
G0 Z0.080
X7.42727 Y-3.35492
G38.2 Z-0.1 F2.362205
#549=#2002
G0 Z0.080
X7.81901 Y-3.35492
G38.2 Z-0.1 F2.362205
#556=#2002
G0 Z0.080
X7.81901 Y-2.99285
G38.2 Z-0.1 F2.362205
#557=#2002
G0 Z0.080
X7.81901 Y-2.63078
G38.2 Z-0.1 F2.362205
#558=#2002
G0 Z0.080
X7.81901 Y-2.26870
G38.2 Z-0.1 F2.362205
#559=#2002
G0 Z0.080
X7.81901 Y-1.90663
G38.2 Z-0.1 F2.362205
#560=#2002
G0 Z0.080
X7.81901 Y-1.54456
G38.2 Z-0.1 F2.362205
#561=#2002
G0 Z0.080
X7.81901 Y-1.18249
G38.2 Z-0.1 F2.362205
#562=#2002
G0 Z0.080
X8.21076 Y-1.18249
G38.2 Z-0.1 F2.362205
#569=#2002
G0 Z0.080
X8.21076 Y-1.54456
G38.2 Z-0.1 F2.362205
#568=#2002
G0 Z0.080
X8.21076 Y-1.90663
G38.2 Z-0.1 F2.362205
#567=#2002
G0 Z0.080
X8.21076 Y-2.26870
G38.2 Z-0.1 F2.362205
#566=#2002
G0 Z0.080
X8.21076 Y-2.63078
G38.2 Z-0.1 F2.362205
#565=#2002
G0 Z0.080
X8.21076 Y-2.99285
G38.2 Z-0.1 F2.362205
#564=#2002
G0 Z0.080
X8.21076 Y-3.35492
G38.2 Z-0.1 F2.362205
#563=#2002
G0 Z0.080
X8.60250 Y-3.35492
G38.2 Z-0.1 F2.362205
#570=#2002
G0 Z0.080
X8.60250 Y-2.99285
G38.2 Z-0.1 F2.362205
#571=#2002
G0 Z0.080
X8.60250 Y-2.63078
G38.2 Z-0.1 F2.362205
#572=#2002
G0 Z0.080
X8.60250 Y-2.26870
G38.2 Z-0.1 F2.362205
#573=#2002
G0 Z0.080
X8.60250 Y-1.90663
G38.2 Z-0.1 F2.362205
#574=#2002
G0 Z0.080
X8.60250 Y-1.54456
G38.2 Z-0.1 F2.362205
#575=#2002
G0 Z0.080
X8.60250 Y-1.18249
G38.2 Z-0.1 F2.362205
#576=#2002
G0 Z0.080
X8.99424 Y-1.18249
G38.2 Z-0.1 F2.362205
#583=#2002
G0 Z0.080
X8.99424 Y-1.54456
G38.2 Z-0.1 F2.362205
#582=#2002
G0 Z0.080
X8.99424 Y-1.90663
G38.2 Z-0.1 F2.362205
#581=#2002
G0 Z0.080
X8.99424 Y-2.26870
G38.2 Z-0.1 F2.362205
#580=#2002
G0 Z0.080
X8.99424 Y-2.63078
G38.2 Z-0.1 F2.362205
#579=#2002
G0 Z0.080
X8.99424 Y-2.99285
G38.2 Z-0.1 F2.362205
#578=#2002
G0 Z0.080
X8.99424 Y-3.35492
G38.2 Z-0.1 F2.362205
#577=#2002
G0 Z0.080
X9.38598 Y-3.35492
G38.2 Z-0.1 F2.362205
#584=#2002
G0 Z0.080
X9.38598 Y-2.99285
G38.2 Z-0.1 F2.362205
#585=#2002
G0 Z0.080
X9.38598 Y-2.63078
G38.2 Z-0.1 F2.362205
#586=#2002
G0 Z0.080
X9.38598 Y-2.26870
G38.2 Z-0.1 F2.362205
#587=#2002
G0 Z0.080
X9.38598 Y-1.90663
G38.2 Z-0.1 F2.362205
#588=#2002
G0 Z0.080
X9.38598 Y-1.54456
G38.2 Z-0.1 F2.362205
#589=#2002
G0 Z0.080
X9.38598 Y-1.18249
G38.2 Z-0.1 F2.362205
#590=#2002
G0 Z0.080
X9.77773 Y-1.18249
G38.2 Z-0.1 F2.362205
#597=#2002
G0 Z0.080
X9.77773 Y-1.54456
G38.2 Z-0.1 F2.362205
#596=#2002
G0 Z0.080
X9.77773 Y-1.90663
G38.2 Z-0.1 F2.362205
#595=#2002
G0 Z0.080
X9.77773 Y-2.26870
G38.2 Z-0.1 F2.362205
#594=#2002
G0 Z0.080
X9.77773 Y-2.63078
G38.2 Z-0.1 F2.362205
#593=#2002
G0 Z0.080
X9.77773 Y-2.99285
G38.2 Z-0.1 F2.362205
#592=#2002
G0 Z0.080
X9.77773 Y-3.35492
G38.2 Z-0.1 F2.362205
#591=#2002
G0 Z0.080
X10.16947 Y-3.35492
G38.2 Z-0.1 F2.362205
#598=#2002
G0 Z0.080
X10.16947 Y-2.99285
G38.2 Z-0.1 F2.362205
#599=#2002
G0 Z0.080
X10.16947 Y-2.63078
G38.2 Z-0.1 F2.362205
#600=#2002
G0 Z0.080
X10.16947 Y-2.26870
G38.2 Z-0.1 F2.362205
#601=#2002
G0 Z0.080
X10.16947 Y-1.90663
G38.2 Z-0.1 F2.362205
#602=#2002
G0 Z0.080
X10.16947 Y-1.54456
G38.2 Z-0.1 F2.362205
#603=#2002
G0 Z0.080
X10.16947 Y-1.18249
G38.2 Z-0.1 F2.362205
#604=#2002
G0 Z0.080
X10.56121 Y-1.18249
G38.2 Z-0.1 F2.362205
#611=#2002
G0 Z0.080
X10.56121 Y-1.54456
G38.2 Z-0.1 F2.362205
#610=#2002
G0 Z0.080
X10.56121 Y-1.90663
G38.2 Z-0.1 F2.362205
#609=#2002
G0 Z0.080
X10.56121 Y-2.26870
G38.2 Z-0.1 F2.362205
#608=#2002
G0 Z0.080
X10.56121 Y-2.63078
G38.2 Z-0.1 F2.362205
#607=#2002
G0 Z0.080
X10.56121 Y-2.99285
G38.2 Z-0.1 F2.362205
#606=#2002
G0 Z0.080
X10.56121 Y-3.35492
G38.2 Z-0.1 F2.362205
#605=#2002
G0 Z0.080
X10.95295 Y-3.35492
G38.2 Z-0.1 F2.362205
#612=#2002
G0 Z0.080
X10.95295 Y-2.99285
G38.2 Z-0.1 F2.362205
#613=#2002
G0 Z0.080
X10.95295 Y-2.63078
G38.2 Z-0.1 F2.362205
#614=#2002
G0 Z0.080
X10.95295 Y-2.26870
G38.2 Z-0.1 F2.362205
#615=#2002
G0 Z0.080
X10.95295 Y-1.90663
G38.2 Z-0.1 F2.362205
#616=#2002
G0 Z0.080
X10.95295 Y-1.54456
G38.2 Z-0.1 F2.362205
#617=#2002
G0 Z0.080
X10.95295 Y-1.18249
G38.2 Z-0.1 F2.362205
#618=#2002

G0 Z0.080 ( Move Z to safe height )
( Probing has ended, each Z-coordinate will be corrected with a bilinear interpolation )
(MSG, Detach the probe tool)
M0 ( Temporary machine stop. )


G00 Z1.00000 (Retract to tool change height)
T0
M5      (Spindle stop.)
G04 P1.00000 (Wait for spindle to stop)
(MSG, Change tool bit to mill diameter 0.00000in)
M6      (Tool change.)
M0      (Temporary machine stop.)
M3 ( Spindle on clockwise. )
G04 P1.00000 (Wait for spindle to get up to speed)
( Piece #1, position [0;0] )

G04 P0 ( dwell for no time -- G64 should not smooth over this point )
G00 Z0.08000 ( retract )

G00 X4.68507 Y-2.97619 ( rapid move to begin. )
G01 F180.00000
( Mill infeed pass 1/1 )
#1=[#501+[#502-#501]*0.04601]
#2=[#508+[#509-#508]*0.04601]
#3=[#1+[#2-#1]*0.00000]
G01 Z[-0.04000+#111]
G04 P0 ( dwell for no time -- G64 should not smooth over this point )
G01 F360.00000
#1=[#501+[#502-#501]*1.00000]
#2=[#508+[#509-#508]*1.00000]
#3=[#1+[#2-#1]*0.00000]
X4.68507 Y-2.63078 Z[#3+-0.04000]
#1=[#502+[#503-#502]*0.42695]
#2=[#509+[#510-#509]*0.42695]
#3=[#1+[#2-#1]*0.00000]
X4.68507 Y-2.47619 Z[#3+-0.04000]
#1=[#502+[#503-#502]*0.43905]
#2=[#509+[#510-#509]*0.43905]
#3=[#1+[#2-#1]*0.00126]
X4.68557 Y-2.47181 Z[#3+-0.04000]
#1=[#502+[#503-#502]*0.45054]
#2=[#509+[#510-#509]*0.45054]
#3=[#1+[#2-#1]*0.00498]
X4.68702 Y-2.46765 Z[#3+-0.04000]
#1=[#502+[#503-#502]*0.46085]
#2=[#509+[#510-#509]*0.46085]
#3=[#1+[#2-#1]*0.01096]
X4.68937 Y-2.46392 Z[#3+-0.04000]
#1=[#502+[#503-#502]*0.46946]
#2=[#509+[#510-#509]*0.46946]
#3=[#1+[#2-#1]*0.01892]
X4.69249 Y-2.46080 Z[#3+-0.04000]
#1=[#502+[#503-#502]*0.47593]
#2=[#509+[#510-#509]*0.47593]
#3=[#1+[#2-#1]*0.02845]
X4.69622 Y-2.45845 Z[#3+-0.04000]
#1=[#502+[#503-#502]*0.47996]
#2=[#509+[#510-#509]*0.47996]
#3=[#1+[#2-#1]*0.03907]
X4.70038 Y-2.45700 Z[#3+-0.04000]
#1=[#502+[#503-#502]*0.48132]
#2=[#509+[#510-#509]*0.48132]
#3=[#1+[#2-#1]*0.05025]
X4.70476 Y-2.45650 Z[#3+-0.04000]
#1=[#502+[#503-#502]*0.48132]
#2=[#509+[#510-#509]*0.48132]
#3=[#1+[#2-#1]*0.65805]
X4.94286 Y-2.45650 Z[#3+-0.04000]
#1=[#502+[#503-#502]*0.47996]
#2=[#509+[#510-#509]*0.47996]
#3=[#1+[#2-#1]*0.66923]
X4.94724 Y-2.45700 Z[#3+-0.04000]
#1=[#502+[#503-#502]*0.47593]
#2=[#509+[#510-#509]*0.47593]
#3=[#1+[#2-#1]*0.67985]
X4.95140 Y-2.45845 Z[#3+-0.04000]
#1=[#502+[#503-#502]*0.46946]
#2=[#509+[#510-#509]*0.46946]
#3=[#1+[#2-#1]*0.68938]
X4.95513 Y-2.46080 Z[#3+-0.04000]
#1=[#502+[#503-#502]*0.46085]
#2=[#509+[#510-#509]*0.46085]
#3=[#1+[#2-#1]*0.69734]
X4.95825 Y-2.46392 Z[#3+-0.04000]
#1=[#502+[#503-#502]*0.45054]
#2=[#509+[#510-#509]*0.45054]
#3=[#1+[#2-#1]*0.70332]
X4.96059 Y-2.46765 Z[#3+-0.04000]
#1=[#502+[#503-#502]*0.43905]
#2=[#509+[#510-#509]*0.43905]
#3=[#1+[#2-#1]*0.70704]
X4.96205 Y-2.47181 Z[#3+-0.04000]
#1=[#502+[#503-#502]*0.42695]
#2=[#509+[#510-#509]*0.42695]
#3=[#1+[#2-#1]*0.70830]
X4.96255 Y-2.47619 Z[#3+-0.04000]
#1=[#502+[#503-#502]*0.41485]
#2=[#509+[#510-#509]*0.41485]
#3=[#1+[#2-#1]*0.70704]
X4.96205 Y-2.48057 Z[#3+-0.04000]
#1=[#502+[#503-#502]*0.40336]
#2=[#509+[#510-#509]*0.40336]
#3=[#1+[#2-#1]*0.70332]
X4.96059 Y-2.48473 Z[#3+-0.04000]
#1=[#502+[#503-#502]*0.39305]
#2=[#509+[#510-#509]*0.39305]
#3=[#1+[#2-#1]*0.69734]
X4.95825 Y-2.48846 Z[#3+-0.04000]
#1=[#502+[#503-#502]*0.38444]
#2=[#509+[#510-#509]*0.38444]
#3=[#1+[#2-#1]*0.68938]
X4.95513 Y-2.49158 Z[#3+-0.04000]
#1=[#502+[#503-#502]*0.37797]
#2=[#509+[#510-#509]*0.37797]
#3=[#1+[#2-#1]*0.67985]
X4.95140 Y-2.49392 Z[#3+-0.04000]
#1=[#502+[#503-#502]*0.37395]
#2=[#509+[#510-#509]*0.37395]
#3=[#1+[#2-#1]*0.66923]
X4.94724 Y-2.49538 Z[#3+-0.04000]
#1=[#502+[#503-#502]*0.37258]
#2=[#509+[#510-#509]*0.37258]
#3=[#1+[#2-#1]*0.65805]
X4.94286 Y-2.49587 Z[#3+-0.04000]
#1=[#502+[#503-#502]*0.37258]
#2=[#509+[#510-#509]*0.37258]
#3=[#1+[#2-#1]*0.10050]
X4.72445 Y-2.49587 Z[#3+-0.04000]
#1=[#501+[#502-#501]*1.00000]
#2=[#508+[#509-#508]*1.00000]
#3=[#1+[#2-#1]*0.10050]
X4.72445 Y-2.63078 Z[#3+-0.04000]
#1=[#501+[#502-#501]*0.82374]
#2=[#508+[#509-#508]*0.82374]
#3=[#1+[#2-#1]*0.10050]
X4.72445 Y-2.69459 Z[#3+-0.04000]
#1=[#501+[#502-#501]*0.82374]
#2=[#508+[#509-#508]*0.82374]
#3=[#1+[#2-#1]*0.47571]
X4.87143 Y-2.69459 Z[#3+-0.04000]
#1=[#501+[#502-#501]*0.82238]
#2=[#508+[#509-#508]*0.82238]
#3=[#1+[#2-#1]*0.48689]
X4.87581 Y-2.69509 Z[#3+-0.04000]
#1=[#501+[#502-#501]*0.81836]
#2=[#508+[#509-#508]*0.81836]
#3=[#1+[#2-#1]*0.49751]
X4.87997 Y-2.69654 Z[#3+-0.04000]
#1=[#501+[#502-#501]*0.81188]
#2=[#508+[#509-#508]*0.81188]
#3=[#1+[#2-#1]*0.50704]
X4.88370 Y-2.69889 Z[#3+-0.04000]
#1=[#501+[#502-#501]*0.80327]
#2=[#508+[#509-#508]*0.80327]
#3=[#1+[#2-#1]*0.51500]
X4.88682 Y-2.70201 Z[#3+-0.04000]
#1=[#501+[#502-#501]*0.79297]
#2=[#508+[#509-#508]*0.79297]
#3=[#1+[#2-#1]*0.52098]
X4.88917 Y-2.70574 Z[#3+-0.04000]
#1=[#501+[#502-#501]*0.78147]
#2=[#508+[#509-#508]*0.78147]
#3=[#1+[#2-#1]*0.52470]
X4.89062 Y-2.70990 Z[#3+-0.04000]
#1=[#501+[#502-#501]*0.76937]
#2=[#508+[#509-#508]*0.76937]
#3=[#1+[#2-#1]*0.52596]
X4.89112 Y-2.71428 Z[#3+-0.04000]
#1=[#501+[#502-#501]*0.75728]
#2=[#508+[#509-#508]*0.75728]
#3=[#1+[#2-#1]*0.52470]
X4.89062 Y-2.71866 Z[#3+-0.04000]
#1=[#501+[#502-#501]*0.74578]
#2=[#508+[#509-#508]*0.74578]
#3=[#1+[#2-#1]*0.52098]
X4.88917 Y-2.72282 Z[#3+-0.04000]
#1=[#501+[#502-#501]*0.73548]
#2=[#508+[#509-#508]*0.73548]
#3=[#1+[#2-#1]*0.51500]
X4.88682 Y-2.72655 Z[#3+-0.04000]
#1=[#501+[#502-#501]*0.72687]
#2=[#508+[#509-#508]*0.72687]
#3=[#1+[#2-#1]*0.50704]
X4.88370 Y-2.72967 Z[#3+-0.04000]
#1=[#501+[#502-#501]*0.72039]
#2=[#508+[#509-#508]*0.72039]
#3=[#1+[#2-#1]*0.49751]
X4.87997 Y-2.73202 Z[#3+-0.04000]
#1=[#501+[#502-#501]*0.71637]
#2=[#508+[#509-#508]*0.71637]
#3=[#1+[#2-#1]*0.48689]
X4.87581 Y-2.73347 Z[#3+-0.04000]
#1=[#501+[#502-#501]*0.71501]
#2=[#508+[#509-#508]*0.71501]
#3=[#1+[#2-#1]*0.47571]
X4.87143 Y-2.73396 Z[#3+-0.04000]
#1=[#501+[#502-#501]*0.71501]
#2=[#508+[#509-#508]*0.71501]
#3=[#1+[#2-#1]*0.10050]
X4.72445 Y-2.73396 Z[#3+-0.04000]
#1=[#501+[#502-#501]*0.04601]
#2=[#508+[#509-#508]*0.04601]
#3=[#1+[#2-#1]*0.10050]
X4.72445 Y-2.97619 Z[#3+-0.04000]
#1=[#501+[#502-#501]*0.03391]
#2=[#508+[#509-#508]*0.03391]
#3=[#1+[#2-#1]*0.09924]
X4.72395 Y-2.98057 Z[#3+-0.04000]
#1=[#501+[#502-#501]*0.02242]
#2=[#508+[#509-#508]*0.02242]
#3=[#1+[#2-#1]*0.09552]
X4.72250 Y-2.98473 Z[#3+-0.04000]
#1=[#501+[#502-#501]*0.01211]
#2=[#508+[#509-#508]*0.01211]
#3=[#1+[#2-#1]*0.08954]
X4.72015 Y-2.98846 Z[#3+-0.04000]
#1=[#501+[#502-#501]*0.00350]
#2=[#508+[#509-#508]*0.00350]
#3=[#1+[#2-#1]*0.08158]
X4.71703 Y-2.99158 Z[#3+-0.04000]
#1=[#501+[#502-#501]*0.00000]
#2=[#508+[#509-#508]*0.00000]
#3=[#1+[#2-#1]*0.07643]
X4.71501 Y-2.99285 Z[#3+-0.04000]
#1=[#500+[#501-#500]*0.99703]
#2=[#507+[#508-#507]*0.99703]
#3=[#1+[#2-#1]*0.07206]
X4.71330 Y-2.99392 Z[#3+-0.04000]
#1=[#500+[#501-#500]*0.99301]
#2=[#507+[#508-#507]*0.99301]
#3=[#1+[#2-#1]*0.06143]
X4.70914 Y-2.99538 Z[#3+-0.04000]
#1=[#500+[#501-#500]*0.99164]
#2=[#507+[#508-#507]*0.99164]
#3=[#1+[#2-#1]*0.05025]
X4.70476 Y-2.99587 Z[#3+-0.04000]
#1=[#500+[#501-#500]*0.99301]
#2=[#507+[#508-#507]*0.99301]
#3=[#1+[#2-#1]*0.03907]
X4.70038 Y-2.99538 Z[#3+-0.04000]
#1=[#500+[#501-#500]*0.99703]
#2=[#507+[#508-#507]*0.99703]
#3=[#1+[#2-#1]*0.02845]
X4.69622 Y-2.99392 Z[#3+-0.04000]
#1=[#501+[#502-#501]*0.00000]
#2=[#508+[#509-#508]*0.00000]
#3=[#1+[#2-#1]*0.02408]
X4.69451 Y-2.99285 Z[#3+-0.04000]
#1=[#501+[#502-#501]*0.00350]
#2=[#508+[#509-#508]*0.00350]
#3=[#1+[#2-#1]*0.01892]
X4.69249 Y-2.99158 Z[#3+-0.04000]
#1=[#501+[#502-#501]*0.01211]
#2=[#508+[#509-#508]*0.01211]
#3=[#1+[#2-#1]*0.01096]
X4.68937 Y-2.98846 Z[#3+-0.04000]
#1=[#501+[#502-#501]*0.02242]
#2=[#508+[#509-#508]*0.02242]
#3=[#1+[#2-#1]*0.00498]
X4.68702 Y-2.98473 Z[#3+-0.04000]
#1=[#501+[#502-#501]*0.03391]
#2=[#508+[#509-#508]*0.03391]
#3=[#1+[#2-#1]*0.00126]
X4.68557 Y-2.98057 Z[#3+-0.04000]
#1=[#501+[#502-#501]*0.04601]
#2=[#508+[#509-#508]*0.04601]
#3=[#1+[#2-#1]*0.00000]
X4.68507 Y-2.97619 Z[#3+-0.04000]
G04 P0 ( dwell for no time -- G64 should not smooth over this point )
G00 Z0.08000 ( retract )

G00 X5.11364 Y-2.97619 ( rapid move to begin. )
G01 F180.00000
( Mill infeed pass 1/1 )
#1=[#508+[#509-#508]*0.04601]
#2=[#515+[#516-#515]*0.04601]
#3=[#1+[#2-#1]*0.09401]
G01 Z[-0.04000+#111]
G04 P0 ( dwell for no time -- G64 should not smooth over this point )
G01 F360.00000
#1=[#508+[#509-#508]*0.96663]
#2=[#515+[#516-#515]*0.96663]
#3=[#1+[#2-#1]*0.09401]
X5.11364 Y-2.64286 Z[#3+-0.04000]
#1=[#508+[#509-#508]*0.97873]
#2=[#515+[#516-#515]*0.97873]
#3=[#1+[#2-#1]*0.09527]
X5.11414 Y-2.63848 Z[#3+-0.04000]
#1=[#508+[#509-#508]*0.99022]
#2=[#515+[#516-#515]*0.99022]
#3=[#1+[#2-#1]*0.09899]
X5.11559 Y-2.63432 Z[#3+-0.04000]
#1=[#508+[#509-#508]*1.00000]
#2=[#515+[#516-#515]*1.00000]
#3=[#1+[#2-#1]*0.10467]
X5.11782 Y-2.63078 Z[#3+-0.04000]
#1=[#509+[#510-#509]*0.00053]
#2=[#516+[#517-#516]*0.00053]
#3=[#1+[#2-#1]*0.10497]
X5.11794 Y-2.63059 Z[#3+-0.04000]
#1=[#509+[#510-#509]*0.00914]
#2=[#516+[#517-#516]*0.00914]
#3=[#1+[#2-#1]*0.11293]
X5.12106 Y-2.62747 Z[#3+-0.04000]
#1=[#509+[#510-#509]*0.01561]
#2=[#516+[#517-#516]*0.01561]
#3=[#1+[#2-#1]*0.12246]
X5.12479 Y-2.62512 Z[#3+-0.04000]
#1=[#509+[#510-#509]*0.01963]
#2=[#516+[#517-#516]*0.01963]
#3=[#1+[#2-#1]*0.13308]
X5.12895 Y-2.62367 Z[#3+-0.04000]
#1=[#509+[#510-#509]*0.02100]
#2=[#516+[#517-#516]*0.02100]
#3=[#1+[#2-#1]*0.14426]
X5.13333 Y-2.62317 Z[#3+-0.04000]
#1=[#509+[#510-#509]*0.01963]
#2=[#516+[#517-#516]*0.01963]
#3=[#1+[#2-#1]*0.15544]
X5.13771 Y-2.62367 Z[#3+-0.04000]
#1=[#509+[#510-#509]*0.01561]
#2=[#516+[#517-#516]*0.01561]
#3=[#1+[#2-#1]*0.16606]
X5.14187 Y-2.62512 Z[#3+-0.04000]
#1=[#509+[#510-#509]*0.00914]
#2=[#516+[#517-#516]*0.00914]
#3=[#1+[#2-#1]*0.17559]
X5.14560 Y-2.62747 Z[#3+-0.04000]
#1=[#509+[#510-#509]*0.00053]
#2=[#516+[#517-#516]*0.00053]
#3=[#1+[#2-#1]*0.18355]
X5.14872 Y-2.63059 Z[#3+-0.04000]
#1=[#508+[#509-#508]*1.00000]
#2=[#515+[#516-#515]*1.00000]
#3=[#1+[#2-#1]*0.18385]
X5.14884 Y-2.63078 Z[#3+-0.04000]
#1=[#508+[#509-#508]*0.99022]
#2=[#515+[#516-#515]*0.99022]
#3=[#1+[#2-#1]*0.18953]
X5.15107 Y-2.63432 Z[#3+-0.04000]
#1=[#508+[#509-#508]*0.97873]
#2=[#515+[#516-#515]*0.97873]
#3=[#1+[#2-#1]*0.19325]
X5.15252 Y-2.63848 Z[#3+-0.04000]
#1=[#508+[#509-#508]*0.96663]
#2=[#515+[#516-#515]*0.96663]
#3=[#1+[#2-#1]*0.19451]
X5.15301 Y-2.64286 Z[#3+-0.04000]
#1=[#508+[#509-#508]*0.90060]
#2=[#515+[#516-#515]*0.90060]
#3=[#1+[#2-#1]*0.19451]
X5.15301 Y-2.66677 Z[#3+-0.04000]
#1=[#508+[#509-#508]*0.93931]
#2=[#515+[#516-#515]*0.93931]
#3=[#1+[#2-#1]*0.23029]
X5.16703 Y-2.65275 Z[#3+-0.04000]
#1=[#508+[#509-#508]*0.94950]
#2=[#515+[#516-#515]*0.94950]
#3=[#1+[#2-#1]*0.24335]
X5.17215 Y-2.64906 Z[#3+-0.04000]
#1=[#508+[#509-#508]*1.00000]
#2=[#515+[#516-#515]*1.00000]
#3=[#1+[#2-#1]*0.33671]
X5.20872 Y-2.63078 Z[#3+-0.04000]
#1=[#509+[#510-#509]*0.01526]
#2=[#516+[#517-#516]*0.01526]
#3=[#1+[#2-#1]*0.36491]
X5.21977 Y-2.62525 Z[#3+-0.04000]
#1=[#509+[#510-#509]*0.01954]
#2=[#516+[#517-#516]*0.01954]
#3=[#1+[#2-#1]*0.37584]
X5.22405 Y-2.62370 Z[#3+-0.04000]
#1=[#509+[#510-#509]*0.02100]
#2=[#516+[#517-#516]*0.02100]
#3=[#1+[#2-#1]*0.38738]
X5.22857 Y-2.62317 Z[#3+-0.04000]
#1=[#509+[#510-#509]*0.02100]
#2=[#516+[#517-#516]*0.02100]
#3=[#1+[#2-#1]*0.50894]
X5.27619 Y-2.62317 Z[#3+-0.04000]
#1=[#509+[#510-#509]*0.01963]
#2=[#516+[#517-#516]*0.01963]
#3=[#1+[#2-#1]*0.52012]
X5.28057 Y-2.62367 Z[#3+-0.04000]
#1=[#509+[#510-#509]*0.01561]
#2=[#516+[#517-#516]*0.01561]
#3=[#1+[#2-#1]*0.53074]
X5.28473 Y-2.62512 Z[#3+-0.04000]
#1=[#509+[#510-#509]*0.00914]
#2=[#516+[#517-#516]*0.00914]
#3=[#1+[#2-#1]*0.54027]
X5.28846 Y-2.62747 Z[#3+-0.04000]
#1=[#509+[#510-#509]*0.00053]
#2=[#516+[#517-#516]*0.00053]
#3=[#1+[#2-#1]*0.54823]
X5.29158 Y-2.63059 Z[#3+-0.04000]
#1=[#508+[#509-#508]*1.00000]
#2=[#515+[#516-#515]*1.00000]
#3=[#1+[#2-#1]*0.54853]
X5.29170 Y-2.63078 Z[#3+-0.04000]
#1=[#508+[#509-#508]*0.99022]
#2=[#515+[#516-#515]*0.99022]
#3=[#1+[#2-#1]*0.55421]
X5.29392 Y-2.63432 Z[#3+-0.04000]
#1=[#508+[#509-#508]*0.97873]
#2=[#515+[#516-#515]*0.97873]
#3=[#1+[#2-#1]*0.55793]
X5.29538 Y-2.63848 Z[#3+-0.04000]
#1=[#508+[#509-#508]*0.96663]
#2=[#515+[#516-#515]*0.96663]
#3=[#1+[#2-#1]*0.55919]
X5.29587 Y-2.64286 Z[#3+-0.04000]
#1=[#508+[#509-#508]*0.95453]
#2=[#515+[#516-#515]*0.95453]
#3=[#1+[#2-#1]*0.55793]
X5.29538 Y-2.64724 Z[#3+-0.04000]
#1=[#508+[#509-#508]*0.94304]
#2=[#515+[#516-#515]*0.94304]
#3=[#1+[#2-#1]*0.55421]
X5.29392 Y-2.65140 Z[#3+-0.04000]
#1=[#508+[#509-#508]*0.93273]
#2=[#515+[#516-#515]*0.93273]
#3=[#1+[#2-#1]*0.54823]
X5.29158 Y-2.65513 Z[#3+-0.04000]
#1=[#508+[#509-#508]*0.92412]
#2=[#515+[#516-#515]*0.92412]
#3=[#1+[#2-#1]*0.54027]
X5.28846 Y-2.65825 Z[#3+-0.04000]
#1=[#508+[#509-#508]*0.91765]
#2=[#515+[#516-#515]*0.91765]
#3=[#1+[#2-#1]*0.53074]
X5.28473 Y-2.66059 Z[#3+-0.04000]
#1=[#508+[#509-#508]*0.91362]
#2=[#515+[#516-#515]*0.91362]
#3=[#1+[#2-#1]*0.52012]
X5.28057 Y-2.66205 Z[#3+-0.04000]
#1=[#508+[#509-#508]*0.91226]
#2=[#515+[#516-#515]*0.91226]
#3=[#1+[#2-#1]*0.50894]
X5.27619 Y-2.66255 Z[#3+-0.04000]
#1=[#508+[#509-#508]*0.91226]
#2=[#515+[#516-#515]*0.91226]
#3=[#1+[#2-#1]*0.39924]
X5.23322 Y-2.66255 Z[#3+-0.04000]
#1=[#508+[#509-#508]*0.85619]
#2=[#515+[#516-#515]*0.85619]
#3=[#1+[#2-#1]*0.29559]
X5.19261 Y-2.68285 Z[#3+-0.04000]
#1=[#508+[#509-#508]*0.80290]
#2=[#515+[#516-#515]*0.80290]
#3=[#1+[#2-#1]*0.24634]
X5.17332 Y-2.70214 Z[#3+-0.04000]
#1=[#508+[#509-#508]*0.69078]
#2=[#515+[#516-#515]*0.69078]
#3=[#1+[#2-#1]*0.19451]
X5.15301 Y-2.74274 Z[#3+-0.04000]
#1=[#508+[#509-#508]*0.04601]
#2=[#515+[#516-#515]*0.04601]
#3=[#1+[#2-#1]*0.19451]
X5.15301 Y-2.97619 Z[#3+-0.04000]
#1=[#508+[#509-#508]*0.03391]
#2=[#515+[#516-#515]*0.03391]
#3=[#1+[#2-#1]*0.19325]
X5.15252 Y-2.98057 Z[#3+-0.04000]
#1=[#508+[#509-#508]*0.02242]
#2=[#515+[#516-#515]*0.02242]
#3=[#1+[#2-#1]*0.18953]
X5.15107 Y-2.98473 Z[#3+-0.04000]
#1=[#508+[#509-#508]*0.01211]
#2=[#515+[#516-#515]*0.01211]
#3=[#1+[#2-#1]*0.18355]
X5.14872 Y-2.98846 Z[#3+-0.04000]
#1=[#508+[#509-#508]*0.00350]
#2=[#515+[#516-#515]*0.00350]
#3=[#1+[#2-#1]*0.17559]
X5.14560 Y-2.99158 Z[#3+-0.04000]
#1=[#508+[#509-#508]*0.00000]
#2=[#515+[#516-#515]*0.00000]
#3=[#1+[#2-#1]*0.17044]
X5.14358 Y-2.99285 Z[#3+-0.04000]
#1=[#507+[#508-#507]*0.99703]
#2=[#514+[#515-#514]*0.99703]
#3=[#1+[#2-#1]*0.16606]
X5.14187 Y-2.99392 Z[#3+-0.04000]
#1=[#507+[#508-#507]*0.99301]
#2=[#514+[#515-#514]*0.99301]
#3=[#1+[#2-#1]*0.15544]
X5.13771 Y-2.99538 Z[#3+-0.04000]
#1=[#507+[#508-#507]*0.99164]
#2=[#514+[#515-#514]*0.99164]
#3=[#1+[#2-#1]*0.14426]
X5.13333 Y-2.99587 Z[#3+-0.04000]
#1=[#507+[#508-#507]*0.99301]
#2=[#514+[#515-#514]*0.99301]
#3=[#1+[#2-#1]*0.13308]
X5.12895 Y-2.99538 Z[#3+-0.04000]
#1=[#507+[#508-#507]*0.99703]
#2=[#514+[#515-#514]*0.99703]
#3=[#1+[#2-#1]*0.12246]
X5.12479 Y-2.99392 Z[#3+-0.04000]
#1=[#508+[#509-#508]*0.00000]
#2=[#515+[#516-#515]*0.00000]
#3=[#1+[#2-#1]*0.11809]
X5.12308 Y-2.99285 Z[#3+-0.04000]
#1=[#508+[#509-#508]*0.00350]
#2=[#515+[#516-#515]*0.00350]
#3=[#1+[#2-#1]*0.11293]
X5.12106 Y-2.99158 Z[#3+-0.04000]
#1=[#508+[#509-#508]*0.01211]
#2=[#515+[#516-#515]*0.01211]
#3=[#1+[#2-#1]*0.10497]
X5.11794 Y-2.98846 Z[#3+-0.04000]
#1=[#508+[#509-#508]*0.02242]
#2=[#515+[#516-#515]*0.02242]
#3=[#1+[#2-#1]*0.09899]
X5.11559 Y-2.98473 Z[#3+-0.04000]
#1=[#508+[#509-#508]*0.03391]
#2=[#515+[#516-#515]*0.03391]
#3=[#1+[#2-#1]*0.09527]
X5.11414 Y-2.98057 Z[#3+-0.04000]
#1=[#508+[#509-#508]*0.04601]
#2=[#515+[#516-#515]*0.04601]
#3=[#1+[#2-#1]*0.09401]
X5.11364 Y-2.97619 Z[#3+-0.04000]
G04 P0 ( dwell for no time -- G64 should not smooth over this point )
G00 Z0.08000 ( retract )

G00 X5.39936 Y-2.88095 ( rapid move to begin. )
G01 F180.00000
( Mill infeed pass 1/1 )
#1=[#508+[#509-#508]*0.30905]
#2=[#515+[#516-#515]*0.30905]
#3=[#1+[#2-#1]*0.82337]
G01 Z[-0.04000+#111]
G04 P0 ( dwell for no time -- G64 should not smooth over this point )
G01 F360.00000
#1=[#508+[#509-#508]*0.70361]
#2=[#515+[#516-#515]*0.70361]
#3=[#1+[#2-#1]*0.82337]
X5.39936 Y-2.73809 Z[#3+-0.04000]
#1=[#508+[#509-#508]*0.71611]
#2=[#515+[#516-#515]*0.71611]
#3=[#1+[#2-#1]*0.82471]
X5.39989 Y-2.73357 Z[#3+-0.04000]
#1=[#508+[#509-#508]*0.72793]
#2=[#515+[#516-#515]*0.72793]
#3=[#1+[#2-#1]*0.82867]
X5.40144 Y-2.72928 Z[#3+-0.04000]
#1=[#508+[#509-#508]*0.85943]
#2=[#515+[#516-#515]*0.85943]
#3=[#1+[#2-#1]*0.88945]
X5.42525 Y-2.68167 Z[#3+-0.04000]
#1=[#508+[#509-#508]*0.87355]
#2=[#515+[#516-#515]*0.87355]
#3=[#1+[#2-#1]*0.89887]
X5.42894 Y-2.67656 Z[#3+-0.04000]
#1=[#508+[#509-#508]*0.93931]
#2=[#515+[#516-#515]*0.93931]
#3=[#1+[#2-#1]*0.95964]
X5.45275 Y-2.65275 Z[#3+-0.04000]
#1=[#508+[#509-#508]*0.94950]
#2=[#515+[#516-#515]*0.94950]
#3=[#1+[#2-#1]*0.97270]
X5.45787 Y-2.64906 Z[#3+-0.04000]
#1=[#508+[#509-#508]*0.96426]
#2=[#515+[#516-#515]*0.96426]
#3=[#1+[#2-#1]*1.00000]
X5.46856 Y-2.64372 Z[#3+-0.04000]
#1=[#515+[#516-#515]*1.00000]
#2=[#522+[#523-#522]*1.00000]
#3=[#1+[#2-#1]*0.06606]
X5.49444 Y-2.63078 Z[#3+-0.04000]
#1=[#516+[#517-#516]*0.01526]
#2=[#523+[#524-#523]*0.01526]
#3=[#1+[#2-#1]*0.09426]
X5.50549 Y-2.62525 Z[#3+-0.04000]
#1=[#516+[#517-#516]*0.01954]
#2=[#523+[#524-#523]*0.01954]
#3=[#1+[#2-#1]*0.10519]
X5.50977 Y-2.62370 Z[#3+-0.04000]
#1=[#516+[#517-#516]*0.02100]
#2=[#523+[#524-#523]*0.02100]
#3=[#1+[#2-#1]*0.11674]
X5.51429 Y-2.62317 Z[#3+-0.04000]
#1=[#516+[#517-#516]*0.02100]
#2=[#523+[#524-#523]*0.02100]
#3=[#1+[#2-#1]*0.29905]
X5.58571 Y-2.62317 Z[#3+-0.04000]
#1=[#516+[#517-#516]*0.01954]
#2=[#523+[#524-#523]*0.01954]
#3=[#1+[#2-#1]*0.31059]
X5.59023 Y-2.62370 Z[#3+-0.04000]
#1=[#516+[#517-#516]*0.01526]
#2=[#523+[#524-#523]*0.01526]
#3=[#1+[#2-#1]*0.32152]
X5.59451 Y-2.62525 Z[#3+-0.04000]
#1=[#515+[#516-#515]*1.00000]
#2=[#522+[#523-#522]*1.00000]
#3=[#1+[#2-#1]*0.34972]
X5.60556 Y-2.63078 Z[#3+-0.04000]
#1=[#515+[#516-#515]*0.94950]
#2=[#522+[#523-#522]*0.94950]
#3=[#1+[#2-#1]*0.44308]
X5.64213 Y-2.64906 Z[#3+-0.04000]
#1=[#515+[#516-#515]*0.93931]
#2=[#522+[#523-#522]*0.93931]
#3=[#1+[#2-#1]*0.45614]
X5.64725 Y-2.65275 Z[#3+-0.04000]
#1=[#515+[#516-#515]*0.87355]
#2=[#522+[#523-#522]*0.87355]
#3=[#1+[#2-#1]*0.51692]
X5.67106 Y-2.67656 Z[#3+-0.04000]
#1=[#515+[#516-#515]*0.85943]
#2=[#522+[#523-#522]*0.85943]
#3=[#1+[#2-#1]*0.52633]
X5.67475 Y-2.68167 Z[#3+-0.04000]
#1=[#515+[#516-#515]*0.72793]
#2=[#522+[#523-#522]*0.72793]
#3=[#1+[#2-#1]*0.58711]
X5.69856 Y-2.72928 Z[#3+-0.04000]
#1=[#515+[#516-#515]*0.71611]
#2=[#522+[#523-#522]*0.71611]
#3=[#1+[#2-#1]*0.59108]
X5.70011 Y-2.73357 Z[#3+-0.04000]
#1=[#515+[#516-#515]*0.70361]
#2=[#522+[#523-#522]*0.70361]
#3=[#1+[#2-#1]*0.59242]
X5.70064 Y-2.73809 Z[#3+-0.04000]
#1=[#515+[#516-#515]*0.30905]
#2=[#522+[#523-#522]*0.30905]
#3=[#1+[#2-#1]*0.59242]
X5.70064 Y-2.88095 Z[#3+-0.04000]
#1=[#515+[#516-#515]*0.29656]
#2=[#522+[#523-#522]*0.29656]
#3=[#1+[#2-#1]*0.59108]
X5.70011 Y-2.88547 Z[#3+-0.04000]
#1=[#515+[#516-#515]*0.28474]
#2=[#522+[#523-#522]*0.28474]
#3=[#1+[#2-#1]*0.58711]
X5.69856 Y-2.88975 Z[#3+-0.04000]
#1=[#515+[#516-#515]*0.15322]
#2=[#522+[#523-#522]*0.15322]
#3=[#1+[#2-#1]*0.52633]
X5.67475 Y-2.93737 Z[#3+-0.04000]
#1=[#515+[#516-#515]*0.13909]
#2=[#522+[#523-#522]*0.13909]
#3=[#1+[#2-#1]*0.51692]
X5.67106 Y-2.94249 Z[#3+-0.04000]
#1=[#515+[#516-#515]*0.07333]
#2=[#522+[#523-#522]*0.07333]
#3=[#1+[#2-#1]*0.45614]
X5.64725 Y-2.96630 Z[#3+-0.04000]
#1=[#515+[#516-#515]*0.06314]
#2=[#522+[#523-#522]*0.06314]
#3=[#1+[#2-#1]*0.44308]
X5.64213 Y-2.96999 Z[#3+-0.04000]
#1=[#515+[#516-#515]*0.00000]
#2=[#522+[#523-#522]*0.00000]
#3=[#1+[#2-#1]*0.32636]
X5.59641 Y-2.99285 Z[#3+-0.04000]
#1=[#514+[#515-#514]*0.99738]
#2=[#521+[#522-#521]*0.99738]
#3=[#1+[#2-#1]*0.32152]
X5.59451 Y-2.99380 Z[#3+-0.04000]
#1=[#514+[#515-#514]*0.99310]
#2=[#521+[#522-#521]*0.99310]
#3=[#1+[#2-#1]*0.31059]
X5.59023 Y-2.99535 Z[#3+-0.04000]
#1=[#514+[#515-#514]*0.99164]
#2=[#521+[#522-#521]*0.99164]
#3=[#1+[#2-#1]*0.29905]
X5.58571 Y-2.99587 Z[#3+-0.04000]
#1=[#514+[#515-#514]*0.99164]
#2=[#521+[#522-#521]*0.99164]
#3=[#1+[#2-#1]*0.11674]
X5.51429 Y-2.99587 Z[#3+-0.04000]
#1=[#514+[#515-#514]*0.99310]
#2=[#521+[#522-#521]*0.99310]
#3=[#1+[#2-#1]*0.10519]
X5.50977 Y-2.99535 Z[#3+-0.04000]
#1=[#514+[#515-#514]*0.99738]
#2=[#521+[#522-#521]*0.99738]
#3=[#1+[#2-#1]*0.09426]
X5.50549 Y-2.99380 Z[#3+-0.04000]
#1=[#515+[#516-#515]*0.00000]
#2=[#522+[#523-#522]*0.00000]
#3=[#1+[#2-#1]*0.08943]
X5.50359 Y-2.99285 Z[#3+-0.04000]
#1=[#508+[#509-#508]*0.04838]
#2=[#515+[#516-#515]*0.04838]
#3=[#1+[#2-#1]*1.00000]
X5.46856 Y-2.97533 Z[#3+-0.04000]
#1=[#508+[#509-#508]*0.06314]
#2=[#515+[#516-#515]*0.06314]
#3=[#1+[#2-#1]*0.97270]
X5.45787 Y-2.96999 Z[#3+-0.04000]
#1=[#508+[#509-#508]*0.07333]
#2=[#515+[#516-#515]*0.07333]
#3=[#1+[#2-#1]*0.95964]
X5.45275 Y-2.96630 Z[#3+-0.04000]
#1=[#508+[#509-#508]*0.13909]
#2=[#515+[#516-#515]*0.13909]
#3=[#1+[#2-#1]*0.89887]
X5.42894 Y-2.94249 Z[#3+-0.04000]
#1=[#508+[#509-#508]*0.15322]
#2=[#515+[#516-#515]*0.15322]
#3=[#1+[#2-#1]*0.88945]
X5.42525 Y-2.93737 Z[#3+-0.04000]
#1=[#508+[#509-#508]*0.28546]
#2=[#515+[#516-#515]*0.28546]
#3=[#1+[#2-#1]*0.82834]
X5.40131 Y-2.88949 Z[#3+-0.04000]
#1=[#508+[#509-#508]*0.29695]
#2=[#515+[#516-#515]*0.29695]
#3=[#1+[#2-#1]*0.82463]
X5.39986 Y-2.88533 Z[#3+-0.04000]
#1=[#508+[#509-#508]*0.30905]
#2=[#515+[#516-#515]*0.30905]
#3=[#1+[#2-#1]*0.82337]
X5.39936 Y-2.88095 Z[#3+-0.04000]
G04 P0 ( dwell for no time -- G64 should not smooth over this point )
G00 Z0.08000 ( retract )

G00 X5.43874 Y-2.87630 ( rapid move to begin. )
G01 F180.00000
( Mill infeed pass 1/1 )
#1=[#508+[#509-#508]*0.32189]
#2=[#515+[#516-#515]*0.32189]
#3=[#1+[#2-#1]*0.92387]
G01 Z[-0.04000+#111]
G04 P0 ( dwell for no time -- G64 should not smooth over this point )
G01 F360.00000
#1=[#508+[#509-#508]*0.69078]
#2=[#515+[#516-#515]*0.69078]
#3=[#1+[#2-#1]*0.92387]
X5.43874 Y-2.74274 Z[#3+-0.04000]
#1=[#508+[#509-#508]*0.80290]
#2=[#515+[#516-#515]*0.80290]
#3=[#1+[#2-#1]*0.97569]
X5.45904 Y-2.70214 Z[#3+-0.04000]
#1=[#508+[#509-#508]*0.82920]
#2=[#515+[#516-#515]*0.82920]
#3=[#1+[#2-#1]*1.00000]
X5.46856 Y-2.69262 Z[#3+-0.04000]
#1=[#515+[#516-#515]*0.85619]
#2=[#522+[#523-#522]*0.85619]
#3=[#1+[#2-#1]*0.02494]
X5.47833 Y-2.68285 Z[#3+-0.04000]
#1=[#515+[#516-#515]*0.91226]
#2=[#522+[#523-#522]*0.91226]
#3=[#1+[#2-#1]*0.12860]
X5.51894 Y-2.66255 Z[#3+-0.04000]
#1=[#515+[#516-#515]*0.91226]
#2=[#522+[#523-#522]*0.91226]
#3=[#1+[#2-#1]*0.28719]
X5.58106 Y-2.66255 Z[#3+-0.04000]
#1=[#515+[#516-#515]*0.85619]
#2=[#522+[#523-#522]*0.85619]
#3=[#1+[#2-#1]*0.39084]
X5.62167 Y-2.68285 Z[#3+-0.04000]
#1=[#515+[#516-#515]*0.80290]
#2=[#522+[#523-#522]*0.80290]
#3=[#1+[#2-#1]*0.44009]
X5.64096 Y-2.70214 Z[#3+-0.04000]
#1=[#515+[#516-#515]*0.69078]
#2=[#522+[#523-#522]*0.69078]
#3=[#1+[#2-#1]*0.49192]
X5.66126 Y-2.74274 Z[#3+-0.04000]
#1=[#515+[#516-#515]*0.32189]
#2=[#522+[#523-#522]*0.32189]
#3=[#1+[#2-#1]*0.49192]
X5.66126 Y-2.87630 Z[#3+-0.04000]
#1=[#515+[#516-#515]*0.20974]
#2=[#522+[#523-#522]*0.20974]
#3=[#1+[#2-#1]*0.44009]
X5.64096 Y-2.91691 Z[#3+-0.04000]
#1=[#515+[#516-#515]*0.15645]
#2=[#522+[#523-#522]*0.15645]
#3=[#1+[#2-#1]*0.39084]
X5.62167 Y-2.93620 Z[#3+-0.04000]
#1=[#515+[#516-#515]*0.10038]
#2=[#522+[#523-#522]*0.10038]
#3=[#1+[#2-#1]*0.28719]
X5.58106 Y-2.95650 Z[#3+-0.04000]
#1=[#515+[#516-#515]*0.10038]
#2=[#522+[#523-#522]*0.10038]
#3=[#1+[#2-#1]*0.12860]
X5.51894 Y-2.95650 Z[#3+-0.04000]
#1=[#515+[#516-#515]*0.15645]
#2=[#522+[#523-#522]*0.15645]
#3=[#1+[#2-#1]*0.02494]
X5.47833 Y-2.93620 Z[#3+-0.04000]
#1=[#508+[#509-#508]*0.18344]
#2=[#515+[#516-#515]*0.18344]
#3=[#1+[#2-#1]*1.00000]
X5.46856 Y-2.92643 Z[#3+-0.04000]
#1=[#508+[#509-#508]*0.20974]
#2=[#515+[#516-#515]*0.20974]
#3=[#1+[#2-#1]*0.97570]
X5.45904 Y-2.91691 Z[#3+-0.04000]
#1=[#508+[#509-#508]*0.32189]
#2=[#515+[#516-#515]*0.32189]
#3=[#1+[#2-#1]*0.92387]
X5.43874 Y-2.87630 Z[#3+-0.04000]
G04 P0 ( dwell for no time -- G64 should not smooth over this point )
G00 Z0.08000 ( retract )

G00 X5.87555 Y-2.97619 ( rapid move to begin. )
G01 F180.00000
( Mill infeed pass 1/1 )
#1=[#522+[#523-#522]*0.04601]
#2=[#529+[#530-#529]*0.04601]
#3=[#1+[#2-#1]*0.03894]
G01 Z[-0.04000+#111]
G04 P0 ( dwell for no time -- G64 should not smooth over this point )
G01 F360.00000
#1=[#522+[#523-#522]*0.96663]
#2=[#529+[#530-#529]*0.96663]
#3=[#1+[#2-#1]*0.03894]
X5.87555 Y-2.64286 Z[#3+-0.04000]
#1=[#522+[#523-#522]*0.97873]
#2=[#529+[#530-#529]*0.97873]
#3=[#1+[#2-#1]*0.04020]
X5.87605 Y-2.63848 Z[#3+-0.04000]
#1=[#522+[#523-#522]*0.99022]
#2=[#529+[#530-#529]*0.99022]
#3=[#1+[#2-#1]*0.04391]
X5.87750 Y-2.63432 Z[#3+-0.04000]
#1=[#522+[#523-#522]*1.00000]
#2=[#529+[#530-#529]*1.00000]
#3=[#1+[#2-#1]*0.04959]
X5.87973 Y-2.63078 Z[#3+-0.04000]
#1=[#523+[#524-#523]*0.00053]
#2=[#530+[#531-#530]*0.00053]
#3=[#1+[#2-#1]*0.04990]
X5.87985 Y-2.63059 Z[#3+-0.04000]
#1=[#523+[#524-#523]*0.00914]
#2=[#530+[#531-#530]*0.00914]
#3=[#1+[#2-#1]*0.05786]
X5.88297 Y-2.62747 Z[#3+-0.04000]
#1=[#523+[#524-#523]*0.01561]
#2=[#530+[#531-#530]*0.01561]
#3=[#1+[#2-#1]*0.06738]
X5.88670 Y-2.62512 Z[#3+-0.04000]
#1=[#523+[#524-#523]*0.01963]
#2=[#530+[#531-#530]*0.01963]
#3=[#1+[#2-#1]*0.07800]
X5.89086 Y-2.62367 Z[#3+-0.04000]
#1=[#523+[#524-#523]*0.02100]
#2=[#530+[#531-#530]*0.02100]
#3=[#1+[#2-#1]*0.08919]
X5.89524 Y-2.62317 Z[#3+-0.04000]
#1=[#523+[#524-#523]*0.01963]
#2=[#530+[#531-#530]*0.01963]
#3=[#1+[#2-#1]*0.10037]
X5.89962 Y-2.62367 Z[#3+-0.04000]
#1=[#523+[#524-#523]*0.01561]
#2=[#530+[#531-#530]*0.01561]
#3=[#1+[#2-#1]*0.11099]
X5.90378 Y-2.62512 Z[#3+-0.04000]
#1=[#523+[#524-#523]*0.00914]
#2=[#530+[#531-#530]*0.00914]
#3=[#1+[#2-#1]*0.12052]
X5.90751 Y-2.62747 Z[#3+-0.04000]
#1=[#523+[#524-#523]*0.00053]
#2=[#530+[#531-#530]*0.00053]
#3=[#1+[#2-#1]*0.12847]
X5.91063 Y-2.63059 Z[#3+-0.04000]
#1=[#522+[#523-#522]*1.00000]
#2=[#529+[#530-#529]*1.00000]
#3=[#1+[#2-#1]*0.12878]
X5.91075 Y-2.63078 Z[#3+-0.04000]
#1=[#522+[#523-#522]*0.99022]
#2=[#529+[#530-#529]*0.99022]
#3=[#1+[#2-#1]*0.13446]
X5.91298 Y-2.63432 Z[#3+-0.04000]
#1=[#522+[#523-#522]*0.97873]
#2=[#529+[#530-#529]*0.97873]
#3=[#1+[#2-#1]*0.13818]
X5.91443 Y-2.63848 Z[#3+-0.04000]
#1=[#522+[#523-#522]*0.96663]
#2=[#529+[#530-#529]*0.96663]
#3=[#1+[#2-#1]*0.13944]
X5.91493 Y-2.64286 Z[#3+-0.04000]
#1=[#522+[#523-#522]*0.95596]
#2=[#529+[#530-#529]*0.95596]
#3=[#1+[#2-#1]*0.13944]
X5.91493 Y-2.64672 Z[#3+-0.04000]
#1=[#522+[#523-#522]*1.00000]
#2=[#529+[#530-#529]*1.00000]
#3=[#1+[#2-#1]*0.22085]
X5.94682 Y-2.63078 Z[#3+-0.04000]
#1=[#523+[#524-#523]*0.01526]
#2=[#530+[#531-#530]*0.01526]
#3=[#1+[#2-#1]*0.24905]
X5.95787 Y-2.62525 Z[#3+-0.04000]
#1=[#523+[#524-#523]*0.01954]
#2=[#530+[#531-#530]*0.01954]
#3=[#1+[#2-#1]*0.25998]
X5.96215 Y-2.62370 Z[#3+-0.04000]
#1=[#523+[#524-#523]*0.02100]
#2=[#530+[#531-#530]*0.02100]
#3=[#1+[#2-#1]*0.27153]
X5.96667 Y-2.62317 Z[#3+-0.04000]
#1=[#523+[#524-#523]*0.02100]
#2=[#530+[#531-#530]*0.02100]
#3=[#1+[#2-#1]*0.45387]
X6.03810 Y-2.62317 Z[#3+-0.04000]
#1=[#523+[#524-#523]*0.01954]
#2=[#530+[#531-#530]*0.01954]
#3=[#1+[#2-#1]*0.46541]
X6.04262 Y-2.62370 Z[#3+-0.04000]
#1=[#523+[#524-#523]*0.01526]
#2=[#530+[#531-#530]*0.01526]
#3=[#1+[#2-#1]*0.47634]
X6.04690 Y-2.62525 Z[#3+-0.04000]
#1=[#522+[#523-#522]*1.00000]
#2=[#529+[#530-#529]*1.00000]
#3=[#1+[#2-#1]*0.50454]
X6.05795 Y-2.63078 Z[#3+-0.04000]
#1=[#522+[#523-#522]*0.94950]
#2=[#529+[#530-#529]*0.94950]
#3=[#1+[#2-#1]*0.59787]
X6.09451 Y-2.64906 Z[#3+-0.04000]
#1=[#522+[#523-#522]*0.94321]
#2=[#529+[#530-#529]*0.94321]
#3=[#1+[#2-#1]*0.60692]
X6.09806 Y-2.65134 Z[#3+-0.04000]
#1=[#522+[#523-#522]*0.93498]
#2=[#529+[#530-#529]*0.93498]
#3=[#1+[#2-#1]*0.61453]
X6.10104 Y-2.65432 Z[#3+-0.04000]
#1=[#522+[#523-#522]*0.92519]
#2=[#529+[#530-#529]*0.92519]
#3=[#1+[#2-#1]*0.62034]
X6.10332 Y-2.65787 Z[#3+-0.04000]
#1=[#522+[#523-#522]*0.79369]
#2=[#529+[#530-#529]*0.79369]
#3=[#1+[#2-#1]*0.68112]
X6.12713 Y-2.70547 Z[#3+-0.04000]
#1=[#522+[#523-#522]*0.78187]
#2=[#529+[#530-#529]*0.78187]
#3=[#1+[#2-#1]*0.68508]
X6.12868 Y-2.70976 Z[#3+-0.04000]
#1=[#522+[#523-#522]*0.76937]
#2=[#529+[#530-#529]*0.76937]
#3=[#1+[#2-#1]*0.68643]
X6.12920 Y-2.71428 Z[#3+-0.04000]
#1=[#522+[#523-#522]*0.04601]
#2=[#529+[#530-#529]*0.04601]
#3=[#1+[#2-#1]*0.68643]
X6.12920 Y-2.97619 Z[#3+-0.04000]
#1=[#522+[#523-#522]*0.03391]
#2=[#529+[#530-#529]*0.03391]
#3=[#1+[#2-#1]*0.68517]
X6.12871 Y-2.98057 Z[#3+-0.04000]
#1=[#522+[#523-#522]*0.02242]
#2=[#529+[#530-#529]*0.02242]
#3=[#1+[#2-#1]*0.68145]
X6.12725 Y-2.98473 Z[#3+-0.04000]
#1=[#522+[#523-#522]*0.01211]
#2=[#529+[#530-#529]*0.01211]
#3=[#1+[#2-#1]*0.67547]
X6.12491 Y-2.98846 Z[#3+-0.04000]
#1=[#522+[#523-#522]*0.00350]
#2=[#529+[#530-#529]*0.00350]
#3=[#1+[#2-#1]*0.66751]
X6.12179 Y-2.99158 Z[#3+-0.04000]
#1=[#522+[#523-#522]*0.00000]
#2=[#529+[#530-#529]*0.00000]
#3=[#1+[#2-#1]*0.66235]
X6.11977 Y-2.99285 Z[#3+-0.04000]
#1=[#521+[#522-#521]*0.99703]
#2=[#528+[#529-#528]*0.99703]
#3=[#1+[#2-#1]*0.65798]
X6.11806 Y-2.99392 Z[#3+-0.04000]
#1=[#521+[#522-#521]*0.99301]
#2=[#528+[#529-#528]*0.99301]
#3=[#1+[#2-#1]*0.64736]
X6.11390 Y-2.99538 Z[#3+-0.04000]
#1=[#521+[#522-#521]*0.99164]
#2=[#528+[#529-#528]*0.99164]
#3=[#1+[#2-#1]*0.63618]
X6.10952 Y-2.99587 Z[#3+-0.04000]
#1=[#521+[#522-#521]*0.99301]
#2=[#528+[#529-#528]*0.99301]
#3=[#1+[#2-#1]*0.62500]
X6.10514 Y-2.99538 Z[#3+-0.04000]
#1=[#521+[#522-#521]*0.99703]
#2=[#528+[#529-#528]*0.99703]
#3=[#1+[#2-#1]*0.61438]
X6.10098 Y-2.99392 Z[#3+-0.04000]
#1=[#522+[#523-#522]*0.00000]
#2=[#529+[#530-#529]*0.00000]
#3=[#1+[#2-#1]*0.61000]
X6.09927 Y-2.99285 Z[#3+-0.04000]
#1=[#522+[#523-#522]*0.00350]
#2=[#529+[#530-#529]*0.00350]
#3=[#1+[#2-#1]*0.60485]
X6.09725 Y-2.99158 Z[#3+-0.04000]
#1=[#522+[#523-#522]*0.01211]
#2=[#529+[#530-#529]*0.01211]
#3=[#1+[#2-#1]*0.59689]
X6.09413 Y-2.98846 Z[#3+-0.04000]
#1=[#522+[#523-#522]*0.02242]
#2=[#529+[#530-#529]*0.02242]
#3=[#1+[#2-#1]*0.59091]
X6.09178 Y-2.98473 Z[#3+-0.04000]
#1=[#522+[#523-#522]*0.03391]
#2=[#529+[#530-#529]*0.03391]
#3=[#1+[#2-#1]*0.58719]
X6.09033 Y-2.98057 Z[#3+-0.04000]
#1=[#522+[#523-#522]*0.04601]
#2=[#529+[#530-#529]*0.04601]
#3=[#1+[#2-#1]*0.58593]
X6.08983 Y-2.97619 Z[#3+-0.04000]
#1=[#522+[#523-#522]*0.75654]
#2=[#529+[#530-#529]*0.75654]
#3=[#1+[#2-#1]*0.58593]
X6.08983 Y-2.71893 Z[#3+-0.04000]
#1=[#522+[#523-#522]*0.86035]
#2=[#529+[#530-#529]*0.86035]
#3=[#1+[#2-#1]*0.53795]
X6.07104 Y-2.68134 Z[#3+-0.04000]
#1=[#522+[#523-#522]*0.91226]
#2=[#529+[#530-#529]*0.91226]
#3=[#1+[#2-#1]*0.44200]
X6.03345 Y-2.66255 Z[#3+-0.04000]
#1=[#522+[#523-#522]*0.91226]
#2=[#529+[#530-#529]*0.91226]
#3=[#1+[#2-#1]*0.28339]
X5.97132 Y-2.66255 Z[#3+-0.04000]
#1=[#522+[#523-#522]*0.85619]
#2=[#529+[#530-#529]*0.85619]
#3=[#1+[#2-#1]*0.17973]
X5.93071 Y-2.68285 Z[#3+-0.04000]
#1=[#522+[#523-#522]*0.81259]
#2=[#529+[#530-#529]*0.81259]
#3=[#1+[#2-#1]*0.13944]
X5.91493 Y-2.69863 Z[#3+-0.04000]
#1=[#522+[#523-#522]*0.04601]
#2=[#529+[#530-#529]*0.04601]
#3=[#1+[#2-#1]*0.13944]
X5.91493 Y-2.97619 Z[#3+-0.04000]
#1=[#522+[#523-#522]*0.03391]
#2=[#529+[#530-#529]*0.03391]
#3=[#1+[#2-#1]*0.13818]
X5.91443 Y-2.98057 Z[#3+-0.04000]
#1=[#522+[#523-#522]*0.02242]
#2=[#529+[#530-#529]*0.02242]
#3=[#1+[#2-#1]*0.13446]
X5.91298 Y-2.98473 Z[#3+-0.04000]
#1=[#522+[#523-#522]*0.01211]
#2=[#529+[#530-#529]*0.01211]
#3=[#1+[#2-#1]*0.12847]
X5.91063 Y-2.98846 Z[#3+-0.04000]
#1=[#522+[#523-#522]*0.00350]
#2=[#529+[#530-#529]*0.00350]
#3=[#1+[#2-#1]*0.12052]
X5.90751 Y-2.99158 Z[#3+-0.04000]
#1=[#522+[#523-#522]*0.00000]
#2=[#529+[#530-#529]*0.00000]
#3=[#1+[#2-#1]*0.11536]
X5.90549 Y-2.99285 Z[#3+-0.04000]
#1=[#521+[#522-#521]*0.99703]
#2=[#528+[#529-#528]*0.99703]
#3=[#1+[#2-#1]*0.11099]
X5.90378 Y-2.99392 Z[#3+-0.04000]
#1=[#521+[#522-#521]*0.99301]
#2=[#528+[#529-#528]*0.99301]
#3=[#1+[#2-#1]*0.10037]
X5.89962 Y-2.99538 Z[#3+-0.04000]
#1=[#521+[#522-#521]*0.99164]
#2=[#528+[#529-#528]*0.99164]
#3=[#1+[#2-#1]*0.08919]
X5.89524 Y-2.99587 Z[#3+-0.04000]
#1=[#521+[#522-#521]*0.99301]
#2=[#528+[#529-#528]*0.99301]
#3=[#1+[#2-#1]*0.07800]
X5.89086 Y-2.99538 Z[#3+-0.04000]
#1=[#521+[#522-#521]*0.99703]
#2=[#528+[#529-#528]*0.99703]
#3=[#1+[#2-#1]*0.06738]
X5.88670 Y-2.99392 Z[#3+-0.04000]
#1=[#522+[#523-#522]*0.00000]
#2=[#529+[#530-#529]*0.00000]
#3=[#1+[#2-#1]*0.06301]
X5.88499 Y-2.99285 Z[#3+-0.04000]
#1=[#522+[#523-#522]*0.00350]
#2=[#529+[#530-#529]*0.00350]
#3=[#1+[#2-#1]*0.05786]
X5.88297 Y-2.99158 Z[#3+-0.04000]
#1=[#522+[#523-#522]*0.01211]
#2=[#529+[#530-#529]*0.01211]
#3=[#1+[#2-#1]*0.04990]
X5.87985 Y-2.98846 Z[#3+-0.04000]
#1=[#522+[#523-#522]*0.02242]
#2=[#529+[#530-#529]*0.02242]
#3=[#1+[#2-#1]*0.04391]
X5.87750 Y-2.98473 Z[#3+-0.04000]
#1=[#522+[#523-#522]*0.03391]
#2=[#529+[#530-#529]*0.03391]
#3=[#1+[#2-#1]*0.04020]
X5.87605 Y-2.98057 Z[#3+-0.04000]
#1=[#522+[#523-#522]*0.04601]
#2=[#529+[#530-#529]*0.04601]
#3=[#1+[#2-#1]*0.03894]
X5.87555 Y-2.97619 Z[#3+-0.04000]
G04 P0 ( dwell for no time -- G64 should not smooth over this point )
G00 Z0.08000 ( retract )

G00 X6.25650 Y-2.64286 ( rapid move to begin. )
G01 F180.00000
( Mill infeed pass 1/1 )
#1=[#529+[#530-#529]*0.96663]
#2=[#536+[#537-#536]*0.96663]
#3=[#1+[#2-#1]*0.01139]
G01 Z[-0.04000+#111]
G04 P0 ( dwell for no time -- G64 should not smooth over this point )
G01 F360.00000
#1=[#529+[#530-#529]*0.95453]
#2=[#536+[#537-#536]*0.95453]
#3=[#1+[#2-#1]*0.01265]
X6.25700 Y-2.64724 Z[#3+-0.04000]
#1=[#529+[#530-#529]*0.94304]
#2=[#536+[#537-#536]*0.94304]
#3=[#1+[#2-#1]*0.01636]
X6.25845 Y-2.65140 Z[#3+-0.04000]
#1=[#529+[#530-#529]*0.93273]
#2=[#536+[#537-#536]*0.93273]
#3=[#1+[#2-#1]*0.02235]
X6.26080 Y-2.65513 Z[#3+-0.04000]
#1=[#529+[#530-#529]*0.92412]
#2=[#536+[#537-#536]*0.92412]
#3=[#1+[#2-#1]*0.03031]
X6.26392 Y-2.65825 Z[#3+-0.04000]
#1=[#529+[#530-#529]*0.91765]
#2=[#536+[#537-#536]*0.91765]
#3=[#1+[#2-#1]*0.03983]
X6.26765 Y-2.66059 Z[#3+-0.04000]
#1=[#529+[#530-#529]*0.91362]
#2=[#536+[#537-#536]*0.91362]
#3=[#1+[#2-#1]*0.05046]
X6.27181 Y-2.66205 Z[#3+-0.04000]
#1=[#529+[#530-#529]*0.91226]
#2=[#536+[#537-#536]*0.91226]
#3=[#1+[#2-#1]*0.06164]
X6.27619 Y-2.66255 Z[#3+-0.04000]
#1=[#529+[#530-#529]*0.91226]
#2=[#536+[#537-#536]*0.91226]
#3=[#1+[#2-#1]*0.19373]
X6.32793 Y-2.66255 Z[#3+-0.04000]
#1=[#529+[#530-#529]*0.24329]
#2=[#536+[#537-#536]*0.24329]
#3=[#1+[#2-#1]*0.19373]
X6.32793 Y-2.90476 Z[#3+-0.04000]
#1=[#529+[#530-#529]*0.23080]
#2=[#536+[#537-#536]*0.23080]
#3=[#1+[#2-#1]*0.19507]
X6.32846 Y-2.90928 Z[#3+-0.04000]
#1=[#529+[#530-#529]*0.21898]
#2=[#536+[#537-#536]*0.21898]
#3=[#1+[#2-#1]*0.19903]
X6.33001 Y-2.91356 Z[#3+-0.04000]
#1=[#529+[#530-#529]*0.08746]
#2=[#536+[#537-#536]*0.08746]
#3=[#1+[#2-#1]*0.25981]
X6.35382 Y-2.96118 Z[#3+-0.04000]
#1=[#529+[#530-#529]*0.07766]
#2=[#536+[#537-#536]*0.07766]
#3=[#1+[#2-#1]*0.26562]
X6.35610 Y-2.96473 Z[#3+-0.04000]
#1=[#529+[#530-#529]*0.06943]
#2=[#536+[#537-#536]*0.06943]
#3=[#1+[#2-#1]*0.27323]
X6.35908 Y-2.96771 Z[#3+-0.04000]
#1=[#529+[#530-#529]*0.06314]
#2=[#536+[#537-#536]*0.06314]
#3=[#1+[#2-#1]*0.28228]
X6.36263 Y-2.96999 Z[#3+-0.04000]
#1=[#529+[#530-#529]*0.00000]
#2=[#536+[#537-#536]*0.00000]
#3=[#1+[#2-#1]*0.39901]
X6.40835 Y-2.99285 Z[#3+-0.04000]
#1=[#528+[#529-#528]*0.99738]
#2=[#535+[#536-#535]*0.99738]
#3=[#1+[#2-#1]*0.40384]
X6.41025 Y-2.99380 Z[#3+-0.04000]
#1=[#528+[#529-#528]*0.99310]
#2=[#535+[#536-#535]*0.99310]
#3=[#1+[#2-#1]*0.41477]
X6.41453 Y-2.99535 Z[#3+-0.04000]
#1=[#528+[#529-#528]*0.99164]
#2=[#535+[#536-#535]*0.99164]
#3=[#1+[#2-#1]*0.42632]
X6.41905 Y-2.99587 Z[#3+-0.04000]
#1=[#528+[#529-#528]*0.99164]
#2=[#535+[#536-#535]*0.99164]
#3=[#1+[#2-#1]*0.54788]
X6.46667 Y-2.99587 Z[#3+-0.04000]
#1=[#528+[#529-#528]*0.99301]
#2=[#535+[#536-#535]*0.99301]
#3=[#1+[#2-#1]*0.55906]
X6.47105 Y-2.99538 Z[#3+-0.04000]
#1=[#528+[#529-#528]*0.99703]
#2=[#535+[#536-#535]*0.99703]
#3=[#1+[#2-#1]*0.56968]
X6.47521 Y-2.99392 Z[#3+-0.04000]
#1=[#529+[#530-#529]*0.00000]
#2=[#536+[#537-#536]*0.00000]
#3=[#1+[#2-#1]*0.57405]
X6.47692 Y-2.99285 Z[#3+-0.04000]
#1=[#529+[#530-#529]*0.00350]
#2=[#536+[#537-#536]*0.00350]
#3=[#1+[#2-#1]*0.57921]
X6.47894 Y-2.99158 Z[#3+-0.04000]
#1=[#529+[#530-#529]*0.01211]
#2=[#536+[#537-#536]*0.01211]
#3=[#1+[#2-#1]*0.58716]
X6.48206 Y-2.98846 Z[#3+-0.04000]
#1=[#529+[#530-#529]*0.02242]
#2=[#536+[#537-#536]*0.02242]
#3=[#1+[#2-#1]*0.59315]
X6.48440 Y-2.98473 Z[#3+-0.04000]
#1=[#529+[#530-#529]*0.03391]
#2=[#536+[#537-#536]*0.03391]
#3=[#1+[#2-#1]*0.59687]
X6.48586 Y-2.98057 Z[#3+-0.04000]
#1=[#529+[#530-#529]*0.04601]
#2=[#536+[#537-#536]*0.04601]
#3=[#1+[#2-#1]*0.59813]
X6.48635 Y-2.97619 Z[#3+-0.04000]
#1=[#529+[#530-#529]*0.05811]
#2=[#536+[#537-#536]*0.05811]
#3=[#1+[#2-#1]*0.59687]
X6.48586 Y-2.97181 Z[#3+-0.04000]
#1=[#529+[#530-#529]*0.06960]
#2=[#536+[#537-#536]*0.06960]
#3=[#1+[#2-#1]*0.59315]
X6.48440 Y-2.96765 Z[#3+-0.04000]
#1=[#529+[#530-#529]*0.07991]
#2=[#536+[#537-#536]*0.07991]
#3=[#1+[#2-#1]*0.58716]
X6.48206 Y-2.96392 Z[#3+-0.04000]
#1=[#529+[#530-#529]*0.08852]
#2=[#536+[#537-#536]*0.08852]
#3=[#1+[#2-#1]*0.57921]
X6.47894 Y-2.96080 Z[#3+-0.04000]
#1=[#529+[#530-#529]*0.09499]
#2=[#536+[#537-#536]*0.09499]
#3=[#1+[#2-#1]*0.56968]
X6.47521 Y-2.95845 Z[#3+-0.04000]
#1=[#529+[#530-#529]*0.09902]
#2=[#536+[#537-#536]*0.09902]
#3=[#1+[#2-#1]*0.55906]
X6.47105 Y-2.95700 Z[#3+-0.04000]
#1=[#529+[#530-#529]*0.10038]
#2=[#536+[#537-#536]*0.10038]
#3=[#1+[#2-#1]*0.54788]
X6.46667 Y-2.95650 Z[#3+-0.04000]
#1=[#529+[#530-#529]*0.10038]
#2=[#536+[#537-#536]*0.10038]
#3=[#1+[#2-#1]*0.43818]
X6.42370 Y-2.95650 Z[#3+-0.04000]
#1=[#529+[#530-#529]*0.15230]
#2=[#536+[#537-#536]*0.15230]
#3=[#1+[#2-#1]*0.34221]
X6.38610 Y-2.93771 Z[#3+-0.04000]
#1=[#529+[#530-#529]*0.25613]
#2=[#536+[#537-#536]*0.25613]
#3=[#1+[#2-#1]*0.29423]
X6.36730 Y-2.90011 Z[#3+-0.04000]
#1=[#529+[#530-#529]*0.91226]
#2=[#536+[#537-#536]*0.91226]
#3=[#1+[#2-#1]*0.29423]
X6.36730 Y-2.66255 Z[#3+-0.04000]
#1=[#529+[#530-#529]*0.91226]
#2=[#536+[#537-#536]*0.91226]
#3=[#1+[#2-#1]*0.54788]
X6.46667 Y-2.66255 Z[#3+-0.04000]
#1=[#529+[#530-#529]*0.91362]
#2=[#536+[#537-#536]*0.91362]
#3=[#1+[#2-#1]*0.55906]
X6.47105 Y-2.66205 Z[#3+-0.04000]
#1=[#529+[#530-#529]*0.91765]
#2=[#536+[#537-#536]*0.91765]
#3=[#1+[#2-#1]*0.56968]
X6.47521 Y-2.66059 Z[#3+-0.04000]
#1=[#529+[#530-#529]*0.92412]
#2=[#536+[#537-#536]*0.92412]
#3=[#1+[#2-#1]*0.57921]
X6.47894 Y-2.65825 Z[#3+-0.04000]
#1=[#529+[#530-#529]*0.93273]
#2=[#536+[#537-#536]*0.93273]
#3=[#1+[#2-#1]*0.58716]
X6.48206 Y-2.65513 Z[#3+-0.04000]
#1=[#529+[#530-#529]*0.94304]
#2=[#536+[#537-#536]*0.94304]
#3=[#1+[#2-#1]*0.59315]
X6.48440 Y-2.65140 Z[#3+-0.04000]
#1=[#529+[#530-#529]*0.95453]
#2=[#536+[#537-#536]*0.95453]
#3=[#1+[#2-#1]*0.59687]
X6.48586 Y-2.64724 Z[#3+-0.04000]
#1=[#529+[#530-#529]*0.96663]
#2=[#536+[#537-#536]*0.96663]
#3=[#1+[#2-#1]*0.59813]
X6.48635 Y-2.64286 Z[#3+-0.04000]
#1=[#529+[#530-#529]*0.97873]
#2=[#536+[#537-#536]*0.97873]
#3=[#1+[#2-#1]*0.59687]
X6.48586 Y-2.63848 Z[#3+-0.04000]
#1=[#529+[#530-#529]*0.99022]
#2=[#536+[#537-#536]*0.99022]
#3=[#1+[#2-#1]*0.59315]
X6.48440 Y-2.63432 Z[#3+-0.04000]
#1=[#529+[#530-#529]*1.00000]
#2=[#536+[#537-#536]*1.00000]
#3=[#1+[#2-#1]*0.58747]
X6.48218 Y-2.63078 Z[#3+-0.04000]
#1=[#530+[#531-#530]*0.00053]
#2=[#537+[#538-#537]*0.00053]
#3=[#1+[#2-#1]*0.58716]
X6.48206 Y-2.63059 Z[#3+-0.04000]
#1=[#530+[#531-#530]*0.00914]
#2=[#537+[#538-#537]*0.00914]
#3=[#1+[#2-#1]*0.57921]
X6.47894 Y-2.62747 Z[#3+-0.04000]
#1=[#530+[#531-#530]*0.01561]
#2=[#537+[#538-#537]*0.01561]
#3=[#1+[#2-#1]*0.56968]
X6.47521 Y-2.62512 Z[#3+-0.04000]
#1=[#530+[#531-#530]*0.01963]
#2=[#537+[#538-#537]*0.01963]
#3=[#1+[#2-#1]*0.55906]
X6.47105 Y-2.62367 Z[#3+-0.04000]
#1=[#530+[#531-#530]*0.02100]
#2=[#537+[#538-#537]*0.02100]
#3=[#1+[#2-#1]*0.54788]
X6.46667 Y-2.62317 Z[#3+-0.04000]
#1=[#530+[#531-#530]*0.02100]
#2=[#537+[#538-#537]*0.02100]
#3=[#1+[#2-#1]*0.29423]
X6.36730 Y-2.62317 Z[#3+-0.04000]
#1=[#530+[#531-#530]*0.42695]
#2=[#537+[#538-#537]*0.42695]
#3=[#1+[#2-#1]*0.29423]
X6.36730 Y-2.47619 Z[#3+-0.04000]
#1=[#530+[#531-#530]*0.43905]
#2=[#537+[#538-#537]*0.43905]
#3=[#1+[#2-#1]*0.29297]
X6.36681 Y-2.47181 Z[#3+-0.04000]
#1=[#530+[#531-#530]*0.45054]
#2=[#537+[#538-#537]*0.45054]
#3=[#1+[#2-#1]*0.28925]
X6.36536 Y-2.46765 Z[#3+-0.04000]
#1=[#530+[#531-#530]*0.46085]
#2=[#537+[#538-#537]*0.46085]
#3=[#1+[#2-#1]*0.28326]
X6.36301 Y-2.46392 Z[#3+-0.04000]
#1=[#530+[#531-#530]*0.46946]
#2=[#537+[#538-#537]*0.46946]
#3=[#1+[#2-#1]*0.27531]
X6.35989 Y-2.46080 Z[#3+-0.04000]
#1=[#530+[#531-#530]*0.47593]
#2=[#537+[#538-#537]*0.47593]
#3=[#1+[#2-#1]*0.26578]
X6.35616 Y-2.45845 Z[#3+-0.04000]
#1=[#530+[#531-#530]*0.47996]
#2=[#537+[#538-#537]*0.47996]
#3=[#1+[#2-#1]*0.25516]
X6.35200 Y-2.45700 Z[#3+-0.04000]
#1=[#530+[#531-#530]*0.48132]
#2=[#537+[#538-#537]*0.48132]
#3=[#1+[#2-#1]*0.24398]
X6.34762 Y-2.45650 Z[#3+-0.04000]
#1=[#530+[#531-#530]*0.47996]
#2=[#537+[#538-#537]*0.47996]
#3=[#1+[#2-#1]*0.23279]
X6.34324 Y-2.45700 Z[#3+-0.04000]
#1=[#530+[#531-#530]*0.47593]
#2=[#537+[#538-#537]*0.47593]
#3=[#1+[#2-#1]*0.22217]
X6.33908 Y-2.45845 Z[#3+-0.04000]
#1=[#530+[#531-#530]*0.46946]
#2=[#537+[#538-#537]*0.46946]
#3=[#1+[#2-#1]*0.21265]
X6.33535 Y-2.46080 Z[#3+-0.04000]
#1=[#530+[#531-#530]*0.46085]
#2=[#537+[#538-#537]*0.46085]
#3=[#1+[#2-#1]*0.20469]
X6.33223 Y-2.46392 Z[#3+-0.04000]
#1=[#530+[#531-#530]*0.45054]
#2=[#537+[#538-#537]*0.45054]
#3=[#1+[#2-#1]*0.19870]
X6.32988 Y-2.46765 Z[#3+-0.04000]
#1=[#530+[#531-#530]*0.43905]
#2=[#537+[#538-#537]*0.43905]
#3=[#1+[#2-#1]*0.19499]
X6.32843 Y-2.47181 Z[#3+-0.04000]
#1=[#530+[#531-#530]*0.42695]
#2=[#537+[#538-#537]*0.42695]
#3=[#1+[#2-#1]*0.19373]
X6.32793 Y-2.47619 Z[#3+-0.04000]
#1=[#530+[#531-#530]*0.02100]
#2=[#537+[#538-#537]*0.02100]
#3=[#1+[#2-#1]*0.19373]
X6.32793 Y-2.62317 Z[#3+-0.04000]
#1=[#530+[#531-#530]*0.02100]
#2=[#537+[#538-#537]*0.02100]
#3=[#1+[#2-#1]*0.06164]
X6.27619 Y-2.62317 Z[#3+-0.04000]
#1=[#530+[#531-#530]*0.01963]
#2=[#537+[#538-#537]*0.01963]
#3=[#1+[#2-#1]*0.05046]
X6.27181 Y-2.62367 Z[#3+-0.04000]
#1=[#530+[#531-#530]*0.01561]
#2=[#537+[#538-#537]*0.01561]
#3=[#1+[#2-#1]*0.03983]
X6.26765 Y-2.62512 Z[#3+-0.04000]
#1=[#530+[#531-#530]*0.00914]
#2=[#537+[#538-#537]*0.00914]
#3=[#1+[#2-#1]*0.03031]
X6.26392 Y-2.62747 Z[#3+-0.04000]
#1=[#530+[#531-#530]*0.00053]
#2=[#537+[#538-#537]*0.00053]
#3=[#1+[#2-#1]*0.02235]
X6.26080 Y-2.63059 Z[#3+-0.04000]
#1=[#529+[#530-#529]*1.00000]
#2=[#536+[#537-#536]*1.00000]
#3=[#1+[#2-#1]*0.02204]
X6.26068 Y-2.63078 Z[#3+-0.04000]
#1=[#529+[#530-#529]*0.99022]
#2=[#536+[#537-#536]*0.99022]
#3=[#1+[#2-#1]*0.01636]
X6.25845 Y-2.63432 Z[#3+-0.04000]
#1=[#529+[#530-#529]*0.97873]
#2=[#536+[#537-#536]*0.97873]
#3=[#1+[#2-#1]*0.01265]
X6.25700 Y-2.63848 Z[#3+-0.04000]
#1=[#529+[#530-#529]*0.96663]
#2=[#536+[#537-#536]*0.96663]
#3=[#1+[#2-#1]*0.01139]
X6.25650 Y-2.64286 Z[#3+-0.04000]
G04 P0 ( dwell for no time -- G64 should not smooth over this point )
G00 Z0.08000 ( retract )

G00 X6.49508 Y-3.30000 ( rapid move to begin. )
G01 F180.00000
( Mill infeed pass 1/1 )
#1=[#528+[#529-#528]*0.15169]
#2=[#535+[#536-#535]*0.15169]
#3=[#1+[#2-#1]*0.62039]
G01 Z[-0.04000+#111]
G04 P0 ( dwell for no time -- G64 should not smooth over this point )
G01 F360.00000
#1=[#528+[#529-#528]*0.14866]
#2=[#535+[#536-#535]*0.14866]
#3=[#1+[#2-#1]*0.62071]
X6.49520 Y-3.30110 Z[#3+-0.04000]
#1=[#528+[#529-#528]*0.14579]
#2=[#535+[#536-#535]*0.14579]
#3=[#1+[#2-#1]*0.62164]
X6.49557 Y-3.30213 Z[#3+-0.04000]
#1=[#528+[#529-#528]*0.14321]
#2=[#535+[#536-#535]*0.14321]
#3=[#1+[#2-#1]*0.62313]
X6.49615 Y-3.30307 Z[#3+-0.04000]
#1=[#528+[#529-#528]*0.14106]
#2=[#535+[#536-#535]*0.14106]
#3=[#1+[#2-#1]*0.62512]
X6.49693 Y-3.30385 Z[#3+-0.04000]
#1=[#528+[#529-#528]*0.13944]
#2=[#535+[#536-#535]*0.13944]
#3=[#1+[#2-#1]*0.62751]
X6.49786 Y-3.30443 Z[#3+-0.04000]
#1=[#528+[#529-#528]*0.13844]
#2=[#535+[#536-#535]*0.13844]
#3=[#1+[#2-#1]*0.63016]
X6.49890 Y-3.30480 Z[#3+-0.04000]
#1=[#528+[#529-#528]*0.13809]
#2=[#535+[#536-#535]*0.13809]
#3=[#1+[#2-#1]*0.63296]
X6.50000 Y-3.30492 Z[#3+-0.04000]
#1=[#528+[#529-#528]*0.13809]
#2=[#535+[#536-#535]*0.13809]
#3=[#1+[#2-#1]*0.74803]
X6.54508 Y-3.30492 Z[#3+-0.04000]
#1=[#528+[#529-#528]*0.01359]
#2=[#535+[#536-#535]*0.01359]
#3=[#1+[#2-#1]*0.74803]
X6.54508 Y-3.35000 Z[#3+-0.04000]
#1=[#528+[#529-#528]*0.01057]
#2=[#535+[#536-#535]*0.01057]
#3=[#1+[#2-#1]*0.74834]
X6.54520 Y-3.35109 Z[#3+-0.04000]
#1=[#528+[#529-#528]*0.00769]
#2=[#535+[#536-#535]*0.00769]
#3=[#1+[#2-#1]*0.74927]
X6.54557 Y-3.35214 Z[#3+-0.04000]
#1=[#528+[#529-#528]*0.00512]
#2=[#535+[#536-#535]*0.00512]
#3=[#1+[#2-#1]*0.75077]
X6.54615 Y-3.35307 Z[#3+-0.04000]
#1=[#528+[#529-#528]*0.00297]
#2=[#535+[#536-#535]*0.00297]
#3=[#1+[#2-#1]*0.75276]
X6.54693 Y-3.35385 Z[#3+-0.04000]
#1=[#528+[#529-#528]*0.00135]
#2=[#535+[#536-#535]*0.00135]
#3=[#1+[#2-#1]*0.75514]
X6.54786 Y-3.35443 Z[#3+-0.04000]
#1=[#528+[#529-#528]*0.00034]
#2=[#535+[#536-#535]*0.00034]
#3=[#1+[#2-#1]*0.75779]
X6.54890 Y-3.35480 Z[#3+-0.04000]
#1=[#528+[#529-#528]*0.00000]
#2=[#535+[#536-#535]*0.00000]
#3=[#1+[#2-#1]*0.76059]
X6.55000 Y-3.35492 Z[#3+-0.04000]
#1=[#528+[#529-#528]*0.00034]
#2=[#535+[#536-#535]*0.00034]
#3=[#1+[#2-#1]*0.76339]
X6.55110 Y-3.35480 Z[#3+-0.04000]
#1=[#528+[#529-#528]*0.00135]
#2=[#535+[#536-#535]*0.00135]
#3=[#1+[#2-#1]*0.76604]
X6.55213 Y-3.35443 Z[#3+-0.04000]
#1=[#528+[#529-#528]*0.00297]
#2=[#535+[#536-#535]*0.00297]
#3=[#1+[#2-#1]*0.76842]
X6.55307 Y-3.35385 Z[#3+-0.04000]
#1=[#528+[#529-#528]*0.00512]
#2=[#535+[#536-#535]*0.00512]
#3=[#1+[#2-#1]*0.77041]
X6.55385 Y-3.35307 Z[#3+-0.04000]
#1=[#528+[#529-#528]*0.00769]
#2=[#535+[#536-#535]*0.00769]
#3=[#1+[#2-#1]*0.77191]
X6.55443 Y-3.35214 Z[#3+-0.04000]
#1=[#528+[#529-#528]*0.01057]
#2=[#535+[#536-#535]*0.01057]
#3=[#1+[#2-#1]*0.77284]
X6.55480 Y-3.35109 Z[#3+-0.04000]
#1=[#528+[#529-#528]*0.01359]
#2=[#535+[#536-#535]*0.01359]
#3=[#1+[#2-#1]*0.77315]
X6.55492 Y-3.35000 Z[#3+-0.04000]
#1=[#528+[#529-#528]*0.13809]
#2=[#535+[#536-#535]*0.13809]
#3=[#1+[#2-#1]*0.77315]
X6.55492 Y-3.30492 Z[#3+-0.04000]
#1=[#528+[#529-#528]*0.13809]
#2=[#535+[#536-#535]*0.13809]
#3=[#1+[#2-#1]*0.88823]
X6.60000 Y-3.30492 Z[#3+-0.04000]
#1=[#528+[#529-#528]*0.13844]
#2=[#535+[#536-#535]*0.13844]
#3=[#1+[#2-#1]*0.89102]
X6.60109 Y-3.30480 Z[#3+-0.04000]
#1=[#528+[#529-#528]*0.13944]
#2=[#535+[#536-#535]*0.13944]
#3=[#1+[#2-#1]*0.89368]
X6.60213 Y-3.30443 Z[#3+-0.04000]
#1=[#528+[#529-#528]*0.14106]
#2=[#535+[#536-#535]*0.14106]
#3=[#1+[#2-#1]*0.89606]
X6.60307 Y-3.30385 Z[#3+-0.04000]
#1=[#528+[#529-#528]*0.14321]
#2=[#535+[#536-#535]*0.14321]
#3=[#1+[#2-#1]*0.89805]
X6.60385 Y-3.30307 Z[#3+-0.04000]
#1=[#528+[#529-#528]*0.14579]
#2=[#535+[#536-#535]*0.14579]
#3=[#1+[#2-#1]*0.89954]
X6.60443 Y-3.30213 Z[#3+-0.04000]
#1=[#528+[#529-#528]*0.14866]
#2=[#535+[#536-#535]*0.14866]
#3=[#1+[#2-#1]*0.90047]
X6.60480 Y-3.30110 Z[#3+-0.04000]
#1=[#528+[#529-#528]*0.15169]
#2=[#535+[#536-#535]*0.15169]
#3=[#1+[#2-#1]*0.90079]
X6.60492 Y-3.30000 Z[#3+-0.04000]
#1=[#528+[#529-#528]*0.15471]
#2=[#535+[#536-#535]*0.15471]
#3=[#1+[#2-#1]*0.90047]
X6.60480 Y-3.29890 Z[#3+-0.04000]
#1=[#528+[#529-#528]*0.15758]
#2=[#535+[#536-#535]*0.15758]
#3=[#1+[#2-#1]*0.89954]
X6.60443 Y-3.29786 Z[#3+-0.04000]
#1=[#528+[#529-#528]*0.16016]
#2=[#535+[#536-#535]*0.16016]
#3=[#1+[#2-#1]*0.89805]
X6.60385 Y-3.29693 Z[#3+-0.04000]
#1=[#528+[#529-#528]*0.16231]
#2=[#535+[#536-#535]*0.16231]
#3=[#1+[#2-#1]*0.89606]
X6.60307 Y-3.29615 Z[#3+-0.04000]
#1=[#528+[#529-#528]*0.16393]
#2=[#535+[#536-#535]*0.16393]
#3=[#1+[#2-#1]*0.89368]
X6.60213 Y-3.29557 Z[#3+-0.04000]
#1=[#528+[#529-#528]*0.16494]
#2=[#535+[#536-#535]*0.16494]
#3=[#1+[#2-#1]*0.89102]
X6.60109 Y-3.29520 Z[#3+-0.04000]
#1=[#528+[#529-#528]*0.16528]
#2=[#535+[#536-#535]*0.16528]
#3=[#1+[#2-#1]*0.88823]
X6.60000 Y-3.29508 Z[#3+-0.04000]
#1=[#528+[#529-#528]*0.16528]
#2=[#535+[#536-#535]*0.16528]
#3=[#1+[#2-#1]*0.77315]
X6.55492 Y-3.29508 Z[#3+-0.04000]
#1=[#528+[#529-#528]*0.28978]
#2=[#535+[#536-#535]*0.28978]
#3=[#1+[#2-#1]*0.77315]
X6.55492 Y-3.25000 Z[#3+-0.04000]
#1=[#528+[#529-#528]*0.29281]
#2=[#535+[#536-#535]*0.29281]
#3=[#1+[#2-#1]*0.77284]
X6.55480 Y-3.24890 Z[#3+-0.04000]
#1=[#528+[#529-#528]*0.29568]
#2=[#535+[#536-#535]*0.29568]
#3=[#1+[#2-#1]*0.77191]
X6.55443 Y-3.24786 Z[#3+-0.04000]
#1=[#528+[#529-#528]*0.29826]
#2=[#535+[#536-#535]*0.29826]
#3=[#1+[#2-#1]*0.77041]
X6.55385 Y-3.24693 Z[#3+-0.04000]
#1=[#528+[#529-#528]*0.30041]
#2=[#535+[#536-#535]*0.30041]
#3=[#1+[#2-#1]*0.76842]
X6.55307 Y-3.24615 Z[#3+-0.04000]
#1=[#528+[#529-#528]*0.30203]
#2=[#535+[#536-#535]*0.30203]
#3=[#1+[#2-#1]*0.76604]
X6.55213 Y-3.24557 Z[#3+-0.04000]
#1=[#528+[#529-#528]*0.30303]
#2=[#535+[#536-#535]*0.30303]
#3=[#1+[#2-#1]*0.76339]
X6.55110 Y-3.24520 Z[#3+-0.04000]
#1=[#528+[#529-#528]*0.30337]
#2=[#535+[#536-#535]*0.30337]
#3=[#1+[#2-#1]*0.76059]
X6.55000 Y-3.24508 Z[#3+-0.04000]
#1=[#528+[#529-#528]*0.30303]
#2=[#535+[#536-#535]*0.30303]
#3=[#1+[#2-#1]*0.75779]
X6.54890 Y-3.24520 Z[#3+-0.04000]
#1=[#528+[#529-#528]*0.30203]
#2=[#535+[#536-#535]*0.30203]
#3=[#1+[#2-#1]*0.75514]
X6.54786 Y-3.24557 Z[#3+-0.04000]
#1=[#528+[#529-#528]*0.30041]
#2=[#535+[#536-#535]*0.30041]
#3=[#1+[#2-#1]*0.75276]
X6.54693 Y-3.24615 Z[#3+-0.04000]
#1=[#528+[#529-#528]*0.29826]
#2=[#535+[#536-#535]*0.29826]
#3=[#1+[#2-#1]*0.75077]
X6.54615 Y-3.24693 Z[#3+-0.04000]
#1=[#528+[#529-#528]*0.29568]
#2=[#535+[#536-#535]*0.29568]
#3=[#1+[#2-#1]*0.74927]
X6.54557 Y-3.24786 Z[#3+-0.04000]
#1=[#528+[#529-#528]*0.29281]
#2=[#535+[#536-#535]*0.29281]
#3=[#1+[#2-#1]*0.74834]
X6.54520 Y-3.24890 Z[#3+-0.04000]
#1=[#528+[#529-#528]*0.28978]
#2=[#535+[#536-#535]*0.28978]
#3=[#1+[#2-#1]*0.74803]
X6.54508 Y-3.25000 Z[#3+-0.04000]
#1=[#528+[#529-#528]*0.16528]
#2=[#535+[#536-#535]*0.16528]
#3=[#1+[#2-#1]*0.74803]
X6.54508 Y-3.29508 Z[#3+-0.04000]
#1=[#528+[#529-#528]*0.16528]
#2=[#535+[#536-#535]*0.16528]
#3=[#1+[#2-#1]*0.63296]
X6.50000 Y-3.29508 Z[#3+-0.04000]
#1=[#528+[#529-#528]*0.16494]
#2=[#535+[#536-#535]*0.16494]
#3=[#1+[#2-#1]*0.63016]
X6.49890 Y-3.29520 Z[#3+-0.04000]
#1=[#528+[#529-#528]*0.16393]
#2=[#535+[#536-#535]*0.16393]
#3=[#1+[#2-#1]*0.62751]
X6.49786 Y-3.29557 Z[#3+-0.04000]
#1=[#528+[#529-#528]*0.16231]
#2=[#535+[#536-#535]*0.16231]
#3=[#1+[#2-#1]*0.62512]
X6.49693 Y-3.29615 Z[#3+-0.04000]
#1=[#528+[#529-#528]*0.16016]
#2=[#535+[#536-#535]*0.16016]
#3=[#1+[#2-#1]*0.62313]
X6.49615 Y-3.29693 Z[#3+-0.04000]
#1=[#528+[#529-#528]*0.15758]
#2=[#535+[#536-#535]*0.15758]
#3=[#1+[#2-#1]*0.62164]
X6.49557 Y-3.29786 Z[#3+-0.04000]
#1=[#528+[#529-#528]*0.15471]
#2=[#535+[#536-#535]*0.15471]
#3=[#1+[#2-#1]*0.62071]
X6.49520 Y-3.29890 Z[#3+-0.04000]
#1=[#528+[#529-#528]*0.15169]
#2=[#535+[#536-#535]*0.15169]
#3=[#1+[#2-#1]*0.62039]
X6.49508 Y-3.30000 Z[#3+-0.04000]
( Piece #2, position [1;0] )

G04 P0 ( dwell for no time -- G64 should not smooth over this point )
G00 Z0.08000 ( retract )

G00 X6.85909 Y-2.97619 ( rapid move to begin. )
G01 F180.00000
( Mill infeed pass 1/1 )
#1=[#536+[#537-#536]*0.04601]
#2=[#543+[#544-#543]*0.04601]
#3=[#1+[#2-#1]*0.54961]
G01 Z[-0.04000+#111]
G04 P0 ( dwell for no time -- G64 should not smooth over this point )
G01 F360.00000
#1=[#536+[#537-#536]*1.00000]
#2=[#543+[#544-#543]*1.00000]
#3=[#1+[#2-#1]*0.54961]
X6.85909 Y-2.63078 Z[#3+-0.04000]
#1=[#537+[#538-#537]*0.42695]
#2=[#544+[#545-#544]*0.42695]
#3=[#1+[#2-#1]*0.54961]
X6.85909 Y-2.47619 Z[#3+-0.04000]
#1=[#537+[#538-#537]*0.43905]
#2=[#544+[#545-#544]*0.43905]
#3=[#1+[#2-#1]*0.55087]
X6.85958 Y-2.47181 Z[#3+-0.04000]
#1=[#537+[#538-#537]*0.45054]
#2=[#544+[#545-#544]*0.45054]
#3=[#1+[#2-#1]*0.55458]
X6.86104 Y-2.46765 Z[#3+-0.04000]
#1=[#537+[#538-#537]*0.46085]
#2=[#544+[#545-#544]*0.46085]
#3=[#1+[#2-#1]*0.56057]
X6.86338 Y-2.46392 Z[#3+-0.04000]
#1=[#537+[#538-#537]*0.46946]
#2=[#544+[#545-#544]*0.46946]
#3=[#1+[#2-#1]*0.56853]
X6.86650 Y-2.46080 Z[#3+-0.04000]
#1=[#537+[#538-#537]*0.47593]
#2=[#544+[#545-#544]*0.47593]
#3=[#1+[#2-#1]*0.57805]
X6.87023 Y-2.45845 Z[#3+-0.04000]
#1=[#537+[#538-#537]*0.47996]
#2=[#544+[#545-#544]*0.47996]
#3=[#1+[#2-#1]*0.58867]
X6.87439 Y-2.45700 Z[#3+-0.04000]
#1=[#537+[#538-#537]*0.48132]
#2=[#544+[#545-#544]*0.48132]
#3=[#1+[#2-#1]*0.59986]
X6.87878 Y-2.45650 Z[#3+-0.04000]
#1=[#544+[#545-#544]*0.48132]
#2=[#551+[#552-#551]*0.48132]
#3=[#1+[#2-#1]*0.00000]
X7.03553 Y-2.45650 Z[#3+-0.04000]
#1=[#544+[#545-#544]*0.48132]
#2=[#551+[#552-#551]*0.48132]
#3=[#1+[#2-#1]*0.20766]
X7.11688 Y-2.45650 Z[#3+-0.04000]
#1=[#544+[#545-#544]*0.47996]
#2=[#551+[#552-#551]*0.47996]
#3=[#1+[#2-#1]*0.21884]
X7.12126 Y-2.45700 Z[#3+-0.04000]
#1=[#544+[#545-#544]*0.47593]
#2=[#551+[#552-#551]*0.47593]
#3=[#1+[#2-#1]*0.22946]
X7.12542 Y-2.45845 Z[#3+-0.04000]
#1=[#544+[#545-#544]*0.46946]
#2=[#551+[#552-#551]*0.46946]
#3=[#1+[#2-#1]*0.23898]
X7.12915 Y-2.46080 Z[#3+-0.04000]
#1=[#544+[#545-#544]*0.46085]
#2=[#551+[#552-#551]*0.46085]
#3=[#1+[#2-#1]*0.24694]
X7.13227 Y-2.46392 Z[#3+-0.04000]
#1=[#544+[#545-#544]*0.45054]
#2=[#551+[#552-#551]*0.45054]
#3=[#1+[#2-#1]*0.25293]
X7.13461 Y-2.46765 Z[#3+-0.04000]
#1=[#544+[#545-#544]*0.43905]
#2=[#551+[#552-#551]*0.43905]
#3=[#1+[#2-#1]*0.25664]
X7.13607 Y-2.47181 Z[#3+-0.04000]
#1=[#544+[#545-#544]*0.42695]
#2=[#551+[#552-#551]*0.42695]
#3=[#1+[#2-#1]*0.25790]
X7.13656 Y-2.47619 Z[#3+-0.04000]
#1=[#544+[#545-#544]*0.41485]
#2=[#551+[#552-#551]*0.41485]
#3=[#1+[#2-#1]*0.25664]
X7.13607 Y-2.48057 Z[#3+-0.04000]
#1=[#544+[#545-#544]*0.40336]
#2=[#551+[#552-#551]*0.40336]
#3=[#1+[#2-#1]*0.25293]
X7.13461 Y-2.48473 Z[#3+-0.04000]
#1=[#544+[#545-#544]*0.39305]
#2=[#551+[#552-#551]*0.39305]
#3=[#1+[#2-#1]*0.24694]
X7.13227 Y-2.48846 Z[#3+-0.04000]
#1=[#544+[#545-#544]*0.38444]
#2=[#551+[#552-#551]*0.38444]
#3=[#1+[#2-#1]*0.23898]
X7.12915 Y-2.49158 Z[#3+-0.04000]
#1=[#544+[#545-#544]*0.37797]
#2=[#551+[#552-#551]*0.37797]
#3=[#1+[#2-#1]*0.22946]
X7.12542 Y-2.49392 Z[#3+-0.04000]
#1=[#544+[#545-#544]*0.37395]
#2=[#551+[#552-#551]*0.37395]
#3=[#1+[#2-#1]*0.21884]
X7.12126 Y-2.49538 Z[#3+-0.04000]
#1=[#544+[#545-#544]*0.37258]
#2=[#551+[#552-#551]*0.37258]
#3=[#1+[#2-#1]*0.20766]
X7.11688 Y-2.49587 Z[#3+-0.04000]
#1=[#544+[#545-#544]*0.37258]
#2=[#551+[#552-#551]*0.37258]
#3=[#1+[#2-#1]*0.00000]
X7.03553 Y-2.49587 Z[#3+-0.04000]
#1=[#537+[#538-#537]*0.37258]
#2=[#544+[#545-#544]*0.37258]
#3=[#1+[#2-#1]*0.65011]
X6.89846 Y-2.49587 Z[#3+-0.04000]
#1=[#536+[#537-#536]*1.00000]
#2=[#543+[#544-#543]*1.00000]
#3=[#1+[#2-#1]*0.65011]
X6.89846 Y-2.63078 Z[#3+-0.04000]
#1=[#536+[#537-#536]*0.82374]
#2=[#543+[#544-#543]*0.82374]
#3=[#1+[#2-#1]*0.65011]
X6.89846 Y-2.69459 Z[#3+-0.04000]
#1=[#543+[#544-#543]*0.82374]
#2=[#550+[#551-#550]*0.82374]
#3=[#1+[#2-#1]*0.00000]
X7.03553 Y-2.69459 Z[#3+-0.04000]
#1=[#543+[#544-#543]*0.82374]
#2=[#550+[#551-#550]*0.82374]
#3=[#1+[#2-#1]*0.02532]
X7.04545 Y-2.69459 Z[#3+-0.04000]
#1=[#543+[#544-#543]*0.82238]
#2=[#550+[#551-#550]*0.82238]
#3=[#1+[#2-#1]*0.03650]
X7.04983 Y-2.69509 Z[#3+-0.04000]
#1=[#543+[#544-#543]*0.81836]
#2=[#550+[#551-#550]*0.81836]
#3=[#1+[#2-#1]*0.04712]
X7.05399 Y-2.69654 Z[#3+-0.04000]
#1=[#543+[#544-#543]*0.81188]
#2=[#550+[#551-#550]*0.81188]
#3=[#1+[#2-#1]*0.05665]
X7.05772 Y-2.69889 Z[#3+-0.04000]
#1=[#543+[#544-#543]*0.80327]
#2=[#550+[#551-#550]*0.80327]
#3=[#1+[#2-#1]*0.06460]
X7.06084 Y-2.70201 Z[#3+-0.04000]
#1=[#543+[#544-#543]*0.79297]
#2=[#550+[#551-#550]*0.79297]
#3=[#1+[#2-#1]*0.07059]
X7.06318 Y-2.70574 Z[#3+-0.04000]
#1=[#543+[#544-#543]*0.78147]
#2=[#550+[#551-#550]*0.78147]
#3=[#1+[#2-#1]*0.07430]
X7.06464 Y-2.70990 Z[#3+-0.04000]
#1=[#543+[#544-#543]*0.76937]
#2=[#550+[#551-#550]*0.76937]
#3=[#1+[#2-#1]*0.07557]
X7.06513 Y-2.71428 Z[#3+-0.04000]
#1=[#543+[#544-#543]*0.75728]
#2=[#550+[#551-#550]*0.75728]
#3=[#1+[#2-#1]*0.07430]
X7.06464 Y-2.71866 Z[#3+-0.04000]
#1=[#543+[#544-#543]*0.74578]
#2=[#550+[#551-#550]*0.74578]
#3=[#1+[#2-#1]*0.07059]
X7.06318 Y-2.72282 Z[#3+-0.04000]
#1=[#543+[#544-#543]*0.73548]
#2=[#550+[#551-#550]*0.73548]
#3=[#1+[#2-#1]*0.06460]
X7.06084 Y-2.72655 Z[#3+-0.04000]
#1=[#543+[#544-#543]*0.72687]
#2=[#550+[#551-#550]*0.72687]
#3=[#1+[#2-#1]*0.05665]
X7.05772 Y-2.72967 Z[#3+-0.04000]
#1=[#543+[#544-#543]*0.72039]
#2=[#550+[#551-#550]*0.72039]
#3=[#1+[#2-#1]*0.04712]
X7.05399 Y-2.73202 Z[#3+-0.04000]
#1=[#543+[#544-#543]*0.71637]
#2=[#550+[#551-#550]*0.71637]
#3=[#1+[#2-#1]*0.03650]
X7.04983 Y-2.73347 Z[#3+-0.04000]
#1=[#543+[#544-#543]*0.71501]
#2=[#550+[#551-#550]*0.71501]
#3=[#1+[#2-#1]*0.02532]
X7.04545 Y-2.73396 Z[#3+-0.04000]
#1=[#543+[#544-#543]*0.71501]
#2=[#550+[#551-#550]*0.71501]
#3=[#1+[#2-#1]*0.00000]
X7.03553 Y-2.73396 Z[#3+-0.04000]
#1=[#536+[#537-#536]*0.71501]
#2=[#543+[#544-#543]*0.71501]
#3=[#1+[#2-#1]*0.65011]
X6.89846 Y-2.73396 Z[#3+-0.04000]
#1=[#536+[#537-#536]*0.04601]
#2=[#543+[#544-#543]*0.04601]
#3=[#1+[#2-#1]*0.65011]
X6.89846 Y-2.97619 Z[#3+-0.04000]
#1=[#536+[#537-#536]*0.03391]
#2=[#543+[#544-#543]*0.03391]
#3=[#1+[#2-#1]*0.64885]
X6.89797 Y-2.98057 Z[#3+-0.04000]
#1=[#536+[#537-#536]*0.02242]
#2=[#543+[#544-#543]*0.02242]
#3=[#1+[#2-#1]*0.64513]
X6.89651 Y-2.98473 Z[#3+-0.04000]
#1=[#536+[#537-#536]*0.01211]
#2=[#543+[#544-#543]*0.01211]
#3=[#1+[#2-#1]*0.63914]
X6.89417 Y-2.98846 Z[#3+-0.04000]
#1=[#536+[#537-#536]*0.00350]
#2=[#543+[#544-#543]*0.00350]
#3=[#1+[#2-#1]*0.63119]
X6.89105 Y-2.99158 Z[#3+-0.04000]
#1=[#536+[#537-#536]*0.00000]
#2=[#543+[#544-#543]*0.00000]
#3=[#1+[#2-#1]*0.62603]
X6.88903 Y-2.99285 Z[#3+-0.04000]
#1=[#535+[#536-#535]*0.99703]
#2=[#542+[#543-#542]*0.99703]
#3=[#1+[#2-#1]*0.62166]
X6.88732 Y-2.99392 Z[#3+-0.04000]
#1=[#535+[#536-#535]*0.99301]
#2=[#542+[#543-#542]*0.99301]
#3=[#1+[#2-#1]*0.61104]
X6.88316 Y-2.99538 Z[#3+-0.04000]
#1=[#535+[#536-#535]*0.99164]
#2=[#542+[#543-#542]*0.99164]
#3=[#1+[#2-#1]*0.59986]
X6.87878 Y-2.99587 Z[#3+-0.04000]
#1=[#535+[#536-#535]*0.99301]
#2=[#542+[#543-#542]*0.99301]
#3=[#1+[#2-#1]*0.58867]
X6.87439 Y-2.99538 Z[#3+-0.04000]
#1=[#535+[#536-#535]*0.99703]
#2=[#542+[#543-#542]*0.99703]
#3=[#1+[#2-#1]*0.57805]
X6.87023 Y-2.99392 Z[#3+-0.04000]
#1=[#536+[#537-#536]*0.00000]
#2=[#543+[#544-#543]*0.00000]
#3=[#1+[#2-#1]*0.57368]
X6.86852 Y-2.99285 Z[#3+-0.04000]
#1=[#536+[#537-#536]*0.00350]
#2=[#543+[#544-#543]*0.00350]
#3=[#1+[#2-#1]*0.56853]
X6.86650 Y-2.99158 Z[#3+-0.04000]
#1=[#536+[#537-#536]*0.01211]
#2=[#543+[#544-#543]*0.01211]
#3=[#1+[#2-#1]*0.56057]
X6.86338 Y-2.98846 Z[#3+-0.04000]
#1=[#536+[#537-#536]*0.02242]
#2=[#543+[#544-#543]*0.02242]
#3=[#1+[#2-#1]*0.55458]
X6.86104 Y-2.98473 Z[#3+-0.04000]
#1=[#536+[#537-#536]*0.03391]
#2=[#543+[#544-#543]*0.03391]
#3=[#1+[#2-#1]*0.55087]
X6.85958 Y-2.98057 Z[#3+-0.04000]
#1=[#536+[#537-#536]*0.04601]
#2=[#543+[#544-#543]*0.04601]
#3=[#1+[#2-#1]*0.54961]
X6.85909 Y-2.97619 Z[#3+-0.04000]
G04 P0 ( dwell for no time -- G64 should not smooth over this point )
G00 Z0.08000 ( retract )

G00 X7.28766 Y-2.97619 ( rapid move to begin. )
G01 F180.00000
( Mill infeed pass 1/1 )
#1=[#543+[#544-#543]*0.04601]
#2=[#550+[#551-#550]*0.04601]
#3=[#1+[#2-#1]*0.64362]
G01 Z[-0.04000+#111]
G04 P0 ( dwell for no time -- G64 should not smooth over this point )
G01 F360.00000
#1=[#543+[#544-#543]*0.96663]
#2=[#550+[#551-#550]*0.96663]
#3=[#1+[#2-#1]*0.64362]
X7.28766 Y-2.64286 Z[#3+-0.04000]
#1=[#543+[#544-#543]*0.97873]
#2=[#550+[#551-#550]*0.97873]
#3=[#1+[#2-#1]*0.64488]
X7.28815 Y-2.63848 Z[#3+-0.04000]
#1=[#543+[#544-#543]*0.99022]
#2=[#550+[#551-#550]*0.99022]
#3=[#1+[#2-#1]*0.64859]
X7.28961 Y-2.63432 Z[#3+-0.04000]
#1=[#543+[#544-#543]*1.00000]
#2=[#550+[#551-#550]*1.00000]
#3=[#1+[#2-#1]*0.65427]
X7.29183 Y-2.63078 Z[#3+-0.04000]
#1=[#544+[#545-#544]*0.00053]
#2=[#551+[#552-#551]*0.00053]
#3=[#1+[#2-#1]*0.65458]
X7.29195 Y-2.63059 Z[#3+-0.04000]
#1=[#544+[#545-#544]*0.00914]
#2=[#551+[#552-#551]*0.00914]
#3=[#1+[#2-#1]*0.66254]
X7.29507 Y-2.62747 Z[#3+-0.04000]
#1=[#544+[#545-#544]*0.01561]
#2=[#551+[#552-#551]*0.01561]
#3=[#1+[#2-#1]*0.67206]
X7.29880 Y-2.62512 Z[#3+-0.04000]
#1=[#544+[#545-#544]*0.01963]
#2=[#551+[#552-#551]*0.01963]
#3=[#1+[#2-#1]*0.68268]
X7.30296 Y-2.62367 Z[#3+-0.04000]
#1=[#544+[#545-#544]*0.02100]
#2=[#551+[#552-#551]*0.02100]
#3=[#1+[#2-#1]*0.69387]
X7.30735 Y-2.62317 Z[#3+-0.04000]
#1=[#544+[#545-#544]*0.01963]
#2=[#551+[#552-#551]*0.01963]
#3=[#1+[#2-#1]*0.70505]
X7.31173 Y-2.62367 Z[#3+-0.04000]
#1=[#544+[#545-#544]*0.01561]
#2=[#551+[#552-#551]*0.01561]
#3=[#1+[#2-#1]*0.71567]
X7.31589 Y-2.62512 Z[#3+-0.04000]
#1=[#544+[#545-#544]*0.00914]
#2=[#551+[#552-#551]*0.00914]
#3=[#1+[#2-#1]*0.72520]
X7.31962 Y-2.62747 Z[#3+-0.04000]
#1=[#544+[#545-#544]*0.00053]
#2=[#551+[#552-#551]*0.00053]
#3=[#1+[#2-#1]*0.73315]
X7.32274 Y-2.63059 Z[#3+-0.04000]
#1=[#543+[#544-#543]*1.00000]
#2=[#550+[#551-#550]*1.00000]
#3=[#1+[#2-#1]*0.73346]
X7.32286 Y-2.63078 Z[#3+-0.04000]
#1=[#543+[#544-#543]*0.99022]
#2=[#550+[#551-#550]*0.99022]
#3=[#1+[#2-#1]*0.73914]
X7.32508 Y-2.63432 Z[#3+-0.04000]
#1=[#543+[#544-#543]*0.97873]
#2=[#550+[#551-#550]*0.97873]
#3=[#1+[#2-#1]*0.74286]
X7.32654 Y-2.63848 Z[#3+-0.04000]
#1=[#543+[#544-#543]*0.96663]
#2=[#550+[#551-#550]*0.96663]
#3=[#1+[#2-#1]*0.74412]
X7.32703 Y-2.64286 Z[#3+-0.04000]
#1=[#543+[#544-#543]*0.90060]
#2=[#550+[#551-#550]*0.90060]
#3=[#1+[#2-#1]*0.74412]
X7.32703 Y-2.66677 Z[#3+-0.04000]
#1=[#543+[#544-#543]*0.93931]
#2=[#550+[#551-#550]*0.93931]
#3=[#1+[#2-#1]*0.77989]
X7.34105 Y-2.65275 Z[#3+-0.04000]
#1=[#543+[#544-#543]*0.94950]
#2=[#550+[#551-#550]*0.94950]
#3=[#1+[#2-#1]*0.79295]
X7.34616 Y-2.64906 Z[#3+-0.04000]
#1=[#543+[#544-#543]*1.00000]
#2=[#550+[#551-#550]*1.00000]
#3=[#1+[#2-#1]*0.88631]
X7.38273 Y-2.63078 Z[#3+-0.04000]
#1=[#544+[#545-#544]*0.01526]
#2=[#551+[#552-#551]*0.01526]
#3=[#1+[#2-#1]*0.91451]
X7.39378 Y-2.62525 Z[#3+-0.04000]
#1=[#544+[#545-#544]*0.01954]
#2=[#551+[#552-#551]*0.01954]
#3=[#1+[#2-#1]*0.92544]
X7.39806 Y-2.62370 Z[#3+-0.04000]
#1=[#544+[#545-#544]*0.02100]
#2=[#551+[#552-#551]*0.02100]
#3=[#1+[#2-#1]*0.93699]
X7.40259 Y-2.62317 Z[#3+-0.04000]
#1=[#551+[#552-#551]*0.02100]
#2=[#558+[#559-#558]*0.02100]
#3=[#1+[#2-#1]*0.00000]
X7.42727 Y-2.62317 Z[#3+-0.04000]
#1=[#551+[#552-#551]*0.02100]
#2=[#558+[#559-#558]*0.02100]
#3=[#1+[#2-#1]*0.05855]
X7.45021 Y-2.62317 Z[#3+-0.04000]
#1=[#551+[#552-#551]*0.01963]
#2=[#558+[#559-#558]*0.01963]
#3=[#1+[#2-#1]*0.06973]
X7.45459 Y-2.62367 Z[#3+-0.04000]
#1=[#551+[#552-#551]*0.01561]
#2=[#558+[#559-#558]*0.01561]
#3=[#1+[#2-#1]*0.08035]
X7.45875 Y-2.62512 Z[#3+-0.04000]
#1=[#551+[#552-#551]*0.00914]
#2=[#558+[#559-#558]*0.00914]
#3=[#1+[#2-#1]*0.08988]
X7.46248 Y-2.62747 Z[#3+-0.04000]
#1=[#551+[#552-#551]*0.00053]
#2=[#558+[#559-#558]*0.00053]
#3=[#1+[#2-#1]*0.09783]
X7.46560 Y-2.63059 Z[#3+-0.04000]
#1=[#550+[#551-#550]*1.00000]
#2=[#557+[#558-#557]*1.00000]
#3=[#1+[#2-#1]*0.09814]
X7.46572 Y-2.63078 Z[#3+-0.04000]
#1=[#550+[#551-#550]*0.99022]
#2=[#557+[#558-#557]*0.99022]
#3=[#1+[#2-#1]*0.10382]
X7.46794 Y-2.63432 Z[#3+-0.04000]
#1=[#550+[#551-#550]*0.97873]
#2=[#557+[#558-#557]*0.97873]
#3=[#1+[#2-#1]*0.10753]
X7.46940 Y-2.63848 Z[#3+-0.04000]
#1=[#550+[#551-#550]*0.96663]
#2=[#557+[#558-#557]*0.96663]
#3=[#1+[#2-#1]*0.10880]
X7.46989 Y-2.64286 Z[#3+-0.04000]
#1=[#550+[#551-#550]*0.95453]
#2=[#557+[#558-#557]*0.95453]
#3=[#1+[#2-#1]*0.10753]
X7.46940 Y-2.64724 Z[#3+-0.04000]
#1=[#550+[#551-#550]*0.94304]
#2=[#557+[#558-#557]*0.94304]
#3=[#1+[#2-#1]*0.10382]
X7.46794 Y-2.65140 Z[#3+-0.04000]
#1=[#550+[#551-#550]*0.93273]
#2=[#557+[#558-#557]*0.93273]
#3=[#1+[#2-#1]*0.09783]
X7.46560 Y-2.65513 Z[#3+-0.04000]
#1=[#550+[#551-#550]*0.92412]
#2=[#557+[#558-#557]*0.92412]
#3=[#1+[#2-#1]*0.08988]
X7.46248 Y-2.65825 Z[#3+-0.04000]
#1=[#550+[#551-#550]*0.91765]
#2=[#557+[#558-#557]*0.91765]
#3=[#1+[#2-#1]*0.08035]
X7.45875 Y-2.66059 Z[#3+-0.04000]
#1=[#550+[#551-#550]*0.91362]
#2=[#557+[#558-#557]*0.91362]
#3=[#1+[#2-#1]*0.06973]
X7.45459 Y-2.66205 Z[#3+-0.04000]
#1=[#550+[#551-#550]*0.91226]
#2=[#557+[#558-#557]*0.91226]
#3=[#1+[#2-#1]*0.05855]
X7.45021 Y-2.66255 Z[#3+-0.04000]
#1=[#550+[#551-#550]*0.91226]
#2=[#557+[#558-#557]*0.91226]
#3=[#1+[#2-#1]*0.00000]
X7.42727 Y-2.66255 Z[#3+-0.04000]
#1=[#543+[#544-#543]*0.91226]
#2=[#550+[#551-#550]*0.91226]
#3=[#1+[#2-#1]*0.94885]
X7.40723 Y-2.66255 Z[#3+-0.04000]
#1=[#543+[#544-#543]*0.85619]
#2=[#550+[#551-#550]*0.85619]
#3=[#1+[#2-#1]*0.84519]
X7.36663 Y-2.68285 Z[#3+-0.04000]
#1=[#543+[#544-#543]*0.80290]
#2=[#550+[#551-#550]*0.80290]
#3=[#1+[#2-#1]*0.79594]
X7.34733 Y-2.70214 Z[#3+-0.04000]
#1=[#543+[#544-#543]*0.69078]
#2=[#550+[#551-#550]*0.69078]
#3=[#1+[#2-#1]*0.74412]
X7.32703 Y-2.74274 Z[#3+-0.04000]
#1=[#543+[#544-#543]*0.04601]
#2=[#550+[#551-#550]*0.04601]
#3=[#1+[#2-#1]*0.74412]
X7.32703 Y-2.97619 Z[#3+-0.04000]
#1=[#543+[#544-#543]*0.03391]
#2=[#550+[#551-#550]*0.03391]
#3=[#1+[#2-#1]*0.74286]
X7.32654 Y-2.98057 Z[#3+-0.04000]
#1=[#543+[#544-#543]*0.02242]
#2=[#550+[#551-#550]*0.02242]
#3=[#1+[#2-#1]*0.73914]
X7.32508 Y-2.98473 Z[#3+-0.04000]
#1=[#543+[#544-#543]*0.01211]
#2=[#550+[#551-#550]*0.01211]
#3=[#1+[#2-#1]*0.73315]
X7.32274 Y-2.98846 Z[#3+-0.04000]
#1=[#543+[#544-#543]*0.00350]
#2=[#550+[#551-#550]*0.00350]
#3=[#1+[#2-#1]*0.72520]
X7.31962 Y-2.99158 Z[#3+-0.04000]
#1=[#543+[#544-#543]*0.00000]
#2=[#550+[#551-#550]*0.00000]
#3=[#1+[#2-#1]*0.72004]
X7.31760 Y-2.99285 Z[#3+-0.04000]
#1=[#542+[#543-#542]*0.99703]
#2=[#549+[#550-#549]*0.99703]
#3=[#1+[#2-#1]*0.71567]
X7.31589 Y-2.99392 Z[#3+-0.04000]
#1=[#542+[#543-#542]*0.99301]
#2=[#549+[#550-#549]*0.99301]
#3=[#1+[#2-#1]*0.70505]
X7.31173 Y-2.99538 Z[#3+-0.04000]
#1=[#542+[#543-#542]*0.99164]
#2=[#549+[#550-#549]*0.99164]
#3=[#1+[#2-#1]*0.69387]
X7.30735 Y-2.99587 Z[#3+-0.04000]
#1=[#542+[#543-#542]*0.99301]
#2=[#549+[#550-#549]*0.99301]
#3=[#1+[#2-#1]*0.68268]
X7.30296 Y-2.99538 Z[#3+-0.04000]
#1=[#542+[#543-#542]*0.99703]
#2=[#549+[#550-#549]*0.99703]
#3=[#1+[#2-#1]*0.67206]
X7.29880 Y-2.99392 Z[#3+-0.04000]
#1=[#543+[#544-#543]*0.00000]
#2=[#550+[#551-#550]*0.00000]
#3=[#1+[#2-#1]*0.66769]
X7.29709 Y-2.99285 Z[#3+-0.04000]
#1=[#543+[#544-#543]*0.00350]
#2=[#550+[#551-#550]*0.00350]
#3=[#1+[#2-#1]*0.66254]
X7.29507 Y-2.99158 Z[#3+-0.04000]
#1=[#543+[#544-#543]*0.01211]
#2=[#550+[#551-#550]*0.01211]
#3=[#1+[#2-#1]*0.65458]
X7.29195 Y-2.98846 Z[#3+-0.04000]
#1=[#543+[#544-#543]*0.02242]
#2=[#550+[#551-#550]*0.02242]
#3=[#1+[#2-#1]*0.64859]
X7.28961 Y-2.98473 Z[#3+-0.04000]
#1=[#543+[#544-#543]*0.03391]
#2=[#550+[#551-#550]*0.03391]
#3=[#1+[#2-#1]*0.64488]
X7.28815 Y-2.98057 Z[#3+-0.04000]
#1=[#543+[#544-#543]*0.04601]
#2=[#550+[#551-#550]*0.04601]
#3=[#1+[#2-#1]*0.64362]
X7.28766 Y-2.97619 Z[#3+-0.04000]
G04 P0 ( dwell for no time -- G64 should not smooth over this point )
G00 Z0.08000 ( retract )

G00 X7.57338 Y-2.88095 ( rapid move to begin. )
G01 F180.00000
( Mill infeed pass 1/1 )
#1=[#550+[#551-#550]*0.30905]
#2=[#557+[#558-#557]*0.30905]
#3=[#1+[#2-#1]*0.37297]
G01 Z[-0.04000+#111]
G04 P0 ( dwell for no time -- G64 should not smooth over this point )
G01 F360.00000
#1=[#550+[#551-#550]*0.70361]
#2=[#557+[#558-#557]*0.70361]
#3=[#1+[#2-#1]*0.37297]
X7.57338 Y-2.73809 Z[#3+-0.04000]
#1=[#550+[#551-#550]*0.71611]
#2=[#557+[#558-#557]*0.71611]
#3=[#1+[#2-#1]*0.37432]
X7.57391 Y-2.73357 Z[#3+-0.04000]
#1=[#550+[#551-#550]*0.72793]
#2=[#557+[#558-#557]*0.72793]
#3=[#1+[#2-#1]*0.37828]
X7.57546 Y-2.72928 Z[#3+-0.04000]
#1=[#550+[#551-#550]*0.85943]
#2=[#557+[#558-#557]*0.85943]
#3=[#1+[#2-#1]*0.43906]
X7.59927 Y-2.68167 Z[#3+-0.04000]
#1=[#550+[#551-#550]*0.87355]
#2=[#557+[#558-#557]*0.87355]
#3=[#1+[#2-#1]*0.44847]
X7.60296 Y-2.67656 Z[#3+-0.04000]
#1=[#550+[#551-#550]*0.93931]
#2=[#557+[#558-#557]*0.93931]
#3=[#1+[#2-#1]*0.50925]
X7.62677 Y-2.65275 Z[#3+-0.04000]
#1=[#550+[#551-#550]*0.94950]
#2=[#557+[#558-#557]*0.94950]
#3=[#1+[#2-#1]*0.52231]
X7.63188 Y-2.64906 Z[#3+-0.04000]
#1=[#550+[#551-#550]*1.00000]
#2=[#557+[#558-#557]*1.00000]
#3=[#1+[#2-#1]*0.61567]
X7.66845 Y-2.63078 Z[#3+-0.04000]
#1=[#551+[#552-#551]*0.01526]
#2=[#558+[#559-#558]*0.01526]
#3=[#1+[#2-#1]*0.64387]
X7.67950 Y-2.62525 Z[#3+-0.04000]
#1=[#551+[#552-#551]*0.01954]
#2=[#558+[#559-#558]*0.01954]
#3=[#1+[#2-#1]*0.65480]
X7.68378 Y-2.62370 Z[#3+-0.04000]
#1=[#551+[#552-#551]*0.02100]
#2=[#558+[#559-#558]*0.02100]
#3=[#1+[#2-#1]*0.66634]
X7.68831 Y-2.62317 Z[#3+-0.04000]
#1=[#551+[#552-#551]*0.02100]
#2=[#558+[#559-#558]*0.02100]
#3=[#1+[#2-#1]*0.84866]
X7.75973 Y-2.62317 Z[#3+-0.04000]
#1=[#551+[#552-#551]*0.01954]
#2=[#558+[#559-#558]*0.01954]
#3=[#1+[#2-#1]*0.86020]
X7.76425 Y-2.62370 Z[#3+-0.04000]
#1=[#551+[#552-#551]*0.01526]
#2=[#558+[#559-#558]*0.01526]
#3=[#1+[#2-#1]*0.87113]
X7.76853 Y-2.62525 Z[#3+-0.04000]
#1=[#550+[#551-#550]*1.00000]
#2=[#557+[#558-#557]*1.00000]
#3=[#1+[#2-#1]*0.89933]
X7.77958 Y-2.63078 Z[#3+-0.04000]
#1=[#550+[#551-#550]*0.94950]
#2=[#557+[#558-#557]*0.94950]
#3=[#1+[#2-#1]*0.99269]
X7.81615 Y-2.64906 Z[#3+-0.04000]
#1=[#557+[#558-#557]*0.94379]
#2=[#564+[#565-#564]*0.94379]
#3=[#1+[#2-#1]*0.00000]
X7.81901 Y-2.65113 Z[#3+-0.04000]
#1=[#557+[#558-#557]*0.93931]
#2=[#564+[#565-#564]*0.93931]
#3=[#1+[#2-#1]*0.00575]
X7.82126 Y-2.65275 Z[#3+-0.04000]
#1=[#557+[#558-#557]*0.87355]
#2=[#564+[#565-#564]*0.87355]
#3=[#1+[#2-#1]*0.06653]
X7.84507 Y-2.67656 Z[#3+-0.04000]
#1=[#557+[#558-#557]*0.85943]
#2=[#564+[#565-#564]*0.85943]
#3=[#1+[#2-#1]*0.07594]
X7.84876 Y-2.68167 Z[#3+-0.04000]
#1=[#557+[#558-#557]*0.72793]
#2=[#564+[#565-#564]*0.72793]
#3=[#1+[#2-#1]*0.13672]
X7.87257 Y-2.72928 Z[#3+-0.04000]
#1=[#557+[#558-#557]*0.71611]
#2=[#564+[#565-#564]*0.71611]
#3=[#1+[#2-#1]*0.14068]
X7.87412 Y-2.73357 Z[#3+-0.04000]
#1=[#557+[#558-#557]*0.70361]
#2=[#564+[#565-#564]*0.70361]
#3=[#1+[#2-#1]*0.14203]
X7.87465 Y-2.73809 Z[#3+-0.04000]
#1=[#557+[#558-#557]*0.30905]
#2=[#564+[#565-#564]*0.30905]
#3=[#1+[#2-#1]*0.14203]
X7.87465 Y-2.88095 Z[#3+-0.04000]
#1=[#557+[#558-#557]*0.29656]
#2=[#564+[#565-#564]*0.29656]
#3=[#1+[#2-#1]*0.14068]
X7.87412 Y-2.88547 Z[#3+-0.04000]
#1=[#557+[#558-#557]*0.28474]
#2=[#564+[#565-#564]*0.28474]
#3=[#1+[#2-#1]*0.13672]
X7.87257 Y-2.88975 Z[#3+-0.04000]
#1=[#557+[#558-#557]*0.15322]
#2=[#564+[#565-#564]*0.15322]
#3=[#1+[#2-#1]*0.07594]
X7.84876 Y-2.93737 Z[#3+-0.04000]
#1=[#557+[#558-#557]*0.13909]
#2=[#564+[#565-#564]*0.13909]
#3=[#1+[#2-#1]*0.06653]
X7.84507 Y-2.94249 Z[#3+-0.04000]
#1=[#557+[#558-#557]*0.07333]
#2=[#564+[#565-#564]*0.07333]
#3=[#1+[#2-#1]*0.00575]
X7.82126 Y-2.96630 Z[#3+-0.04000]
#1=[#557+[#558-#557]*0.06885]
#2=[#564+[#565-#564]*0.06885]
#3=[#1+[#2-#1]*0.00000]
X7.81901 Y-2.96792 Z[#3+-0.04000]
#1=[#550+[#551-#550]*0.06314]
#2=[#557+[#558-#557]*0.06314]
#3=[#1+[#2-#1]*0.99269]
X7.81615 Y-2.96999 Z[#3+-0.04000]
#1=[#550+[#551-#550]*0.00000]
#2=[#557+[#558-#557]*0.00000]
#3=[#1+[#2-#1]*0.87596]
X7.77042 Y-2.99285 Z[#3+-0.04000]
#1=[#549+[#550-#549]*0.99738]
#2=[#556+[#557-#556]*0.99738]
#3=[#1+[#2-#1]*0.87113]
X7.76853 Y-2.99380 Z[#3+-0.04000]
#1=[#549+[#550-#549]*0.99310]
#2=[#556+[#557-#556]*0.99310]
#3=[#1+[#2-#1]*0.86020]
X7.76425 Y-2.99535 Z[#3+-0.04000]
#1=[#549+[#550-#549]*0.99164]
#2=[#556+[#557-#556]*0.99164]
#3=[#1+[#2-#1]*0.84866]
X7.75973 Y-2.99587 Z[#3+-0.04000]
#1=[#549+[#550-#549]*0.99164]
#2=[#556+[#557-#556]*0.99164]
#3=[#1+[#2-#1]*0.66634]
X7.68831 Y-2.99587 Z[#3+-0.04000]
#1=[#549+[#550-#549]*0.99310]
#2=[#556+[#557-#556]*0.99310]
#3=[#1+[#2-#1]*0.65480]
X7.68378 Y-2.99535 Z[#3+-0.04000]
#1=[#549+[#550-#549]*0.99738]
#2=[#556+[#557-#556]*0.99738]
#3=[#1+[#2-#1]*0.64387]
X7.67950 Y-2.99380 Z[#3+-0.04000]
#1=[#550+[#551-#550]*0.00000]
#2=[#557+[#558-#557]*0.00000]
#3=[#1+[#2-#1]*0.63903]
X7.67761 Y-2.99285 Z[#3+-0.04000]
#1=[#550+[#551-#550]*0.06314]
#2=[#557+[#558-#557]*0.06314]
#3=[#1+[#2-#1]*0.52231]
X7.63188 Y-2.96999 Z[#3+-0.04000]
#1=[#550+[#551-#550]*0.07333]
#2=[#557+[#558-#557]*0.07333]
#3=[#1+[#2-#1]*0.50925]
X7.62677 Y-2.96630 Z[#3+-0.04000]
#1=[#550+[#551-#550]*0.13909]
#2=[#557+[#558-#557]*0.13909]
#3=[#1+[#2-#1]*0.44847]
X7.60296 Y-2.94249 Z[#3+-0.04000]
#1=[#550+[#551-#550]*0.15322]
#2=[#557+[#558-#557]*0.15322]
#3=[#1+[#2-#1]*0.43906]
X7.59927 Y-2.93737 Z[#3+-0.04000]
#1=[#550+[#551-#550]*0.28546]
#2=[#557+[#558-#557]*0.28546]
#3=[#1+[#2-#1]*0.37795]
X7.57533 Y-2.88949 Z[#3+-0.04000]
#1=[#550+[#551-#550]*0.29695]
#2=[#557+[#558-#557]*0.29695]
#3=[#1+[#2-#1]*0.37423]
X7.57387 Y-2.88533 Z[#3+-0.04000]
#1=[#550+[#551-#550]*0.30905]
#2=[#557+[#558-#557]*0.30905]
#3=[#1+[#2-#1]*0.37297]
X7.57338 Y-2.88095 Z[#3+-0.04000]
G04 P0 ( dwell for no time -- G64 should not smooth over this point )
G00 Z0.08000 ( retract )

G00 X7.61275 Y-2.87630 ( rapid move to begin. )
G01 F180.00000
( Mill infeed pass 1/1 )
#1=[#550+[#551-#550]*0.32189]
#2=[#557+[#558-#557]*0.32189]
#3=[#1+[#2-#1]*0.47347]
G01 Z[-0.04000+#111]
G04 P0 ( dwell for no time -- G64 should not smooth over this point )
G01 F360.00000
#1=[#550+[#551-#550]*0.69078]
#2=[#557+[#558-#557]*0.69078]
#3=[#1+[#2-#1]*0.47347]
X7.61275 Y-2.74274 Z[#3+-0.04000]
#1=[#550+[#551-#550]*0.80290]
#2=[#557+[#558-#557]*0.80290]
#3=[#1+[#2-#1]*0.52530]
X7.63305 Y-2.70214 Z[#3+-0.04000]
#1=[#550+[#551-#550]*0.85619]
#2=[#557+[#558-#557]*0.85619]
#3=[#1+[#2-#1]*0.57455]
X7.65235 Y-2.68285 Z[#3+-0.04000]
#1=[#550+[#551-#550]*0.91226]
#2=[#557+[#558-#557]*0.91226]
#3=[#1+[#2-#1]*0.67821]
X7.69295 Y-2.66255 Z[#3+-0.04000]
#1=[#550+[#551-#550]*0.91226]
#2=[#557+[#558-#557]*0.91226]
#3=[#1+[#2-#1]*0.83679]
X7.75508 Y-2.66255 Z[#3+-0.04000]
#1=[#550+[#551-#550]*0.85619]
#2=[#557+[#558-#557]*0.85619]
#3=[#1+[#2-#1]*0.94045]
X7.79568 Y-2.68285 Z[#3+-0.04000]
#1=[#550+[#551-#550]*0.80290]
#2=[#557+[#558-#557]*0.80290]
#3=[#1+[#2-#1]*0.98970]
X7.81498 Y-2.70214 Z[#3+-0.04000]
#1=[#557+[#558-#557]*0.78061]
#2=[#564+[#565-#564]*0.78061]
#3=[#1+[#2-#1]*0.00000]
X7.81901 Y-2.71021 Z[#3+-0.04000]
#1=[#557+[#558-#557]*0.69078]
#2=[#564+[#565-#564]*0.69078]
#3=[#1+[#2-#1]*0.04152]
X7.83528 Y-2.74274 Z[#3+-0.04000]
#1=[#557+[#558-#557]*0.32189]
#2=[#564+[#565-#564]*0.32189]
#3=[#1+[#2-#1]*0.04152]
X7.83528 Y-2.87630 Z[#3+-0.04000]
#1=[#557+[#558-#557]*0.23203]
#2=[#564+[#565-#564]*0.23203]
#3=[#1+[#2-#1]*0.00000]
X7.81901 Y-2.90884 Z[#3+-0.04000]
#1=[#550+[#551-#550]*0.20974]
#2=[#557+[#558-#557]*0.20974]
#3=[#1+[#2-#1]*0.98970]
X7.81498 Y-2.91691 Z[#3+-0.04000]
#1=[#550+[#551-#550]*0.15645]
#2=[#557+[#558-#557]*0.15645]
#3=[#1+[#2-#1]*0.94045]
X7.79568 Y-2.93620 Z[#3+-0.04000]
#1=[#550+[#551-#550]*0.10038]
#2=[#557+[#558-#557]*0.10038]
#3=[#1+[#2-#1]*0.83679]
X7.75508 Y-2.95650 Z[#3+-0.04000]
#1=[#550+[#551-#550]*0.10038]
#2=[#557+[#558-#557]*0.10038]
#3=[#1+[#2-#1]*0.67821]
X7.69295 Y-2.95650 Z[#3+-0.04000]
#1=[#550+[#551-#550]*0.15645]
#2=[#557+[#558-#557]*0.15645]
#3=[#1+[#2-#1]*0.57455]
X7.65235 Y-2.93620 Z[#3+-0.04000]
#1=[#550+[#551-#550]*0.20974]
#2=[#557+[#558-#557]*0.20974]
#3=[#1+[#2-#1]*0.52530]
X7.63305 Y-2.91691 Z[#3+-0.04000]
#1=[#550+[#551-#550]*0.32189]
#2=[#557+[#558-#557]*0.32189]
#3=[#1+[#2-#1]*0.47347]
X7.61275 Y-2.87630 Z[#3+-0.04000]
G04 P0 ( dwell for no time -- G64 should not smooth over this point )
G00 Z0.08000 ( retract )

G00 X8.04957 Y-2.97619 ( rapid move to begin. )
G01 F180.00000
( Mill infeed pass 1/1 )
#1=[#557+[#558-#557]*0.04601]
#2=[#564+[#565-#564]*0.04601]
#3=[#1+[#2-#1]*0.58854]
G01 Z[-0.04000+#111]
G04 P0 ( dwell for no time -- G64 should not smooth over this point )
G01 F360.00000
#1=[#557+[#558-#557]*0.96663]
#2=[#564+[#565-#564]*0.96663]
#3=[#1+[#2-#1]*0.58854]
X8.04957 Y-2.64286 Z[#3+-0.04000]
#1=[#557+[#558-#557]*0.97873]
#2=[#564+[#565-#564]*0.97873]
#3=[#1+[#2-#1]*0.58980]
X8.05006 Y-2.63848 Z[#3+-0.04000]
#1=[#557+[#558-#557]*0.99022]
#2=[#564+[#565-#564]*0.99022]
#3=[#1+[#2-#1]*0.59352]
X8.05152 Y-2.63432 Z[#3+-0.04000]
#1=[#557+[#558-#557]*1.00000]
#2=[#564+[#565-#564]*1.00000]
#3=[#1+[#2-#1]*0.59920]
X8.05374 Y-2.63078 Z[#3+-0.04000]
#1=[#558+[#559-#558]*0.00053]
#2=[#565+[#566-#565]*0.00053]
#3=[#1+[#2-#1]*0.59950]
X8.05386 Y-2.63059 Z[#3+-0.04000]
#1=[#558+[#559-#558]*0.00914]
#2=[#565+[#566-#565]*0.00914]
#3=[#1+[#2-#1]*0.60746]
X8.05698 Y-2.62747 Z[#3+-0.04000]
#1=[#558+[#559-#558]*0.01561]
#2=[#565+[#566-#565]*0.01561]
#3=[#1+[#2-#1]*0.61699]
X8.06071 Y-2.62512 Z[#3+-0.04000]
#1=[#558+[#559-#558]*0.01963]
#2=[#565+[#566-#565]*0.01963]
#3=[#1+[#2-#1]*0.62761]
X8.06487 Y-2.62367 Z[#3+-0.04000]
#1=[#558+[#559-#558]*0.02100]
#2=[#565+[#566-#565]*0.02100]
#3=[#1+[#2-#1]*0.63879]
X8.06926 Y-2.62317 Z[#3+-0.04000]
#1=[#558+[#559-#558]*0.01963]
#2=[#565+[#566-#565]*0.01963]
#3=[#1+[#2-#1]*0.64997]
X8.07364 Y-2.62367 Z[#3+-0.04000]
#1=[#558+[#559-#558]*0.01561]
#2=[#565+[#566-#565]*0.01561]
#3=[#1+[#2-#1]*0.66060]
X8.07780 Y-2.62512 Z[#3+-0.04000]
#1=[#558+[#559-#558]*0.00914]
#2=[#565+[#566-#565]*0.00914]
#3=[#1+[#2-#1]*0.67012]
X8.08153 Y-2.62747 Z[#3+-0.04000]
#1=[#558+[#559-#558]*0.00053]
#2=[#565+[#566-#565]*0.00053]
#3=[#1+[#2-#1]*0.67808]
X8.08465 Y-2.63059 Z[#3+-0.04000]
#1=[#557+[#558-#557]*1.00000]
#2=[#564+[#565-#564]*1.00000]
#3=[#1+[#2-#1]*0.67839]
X8.08477 Y-2.63078 Z[#3+-0.04000]
#1=[#557+[#558-#557]*0.99022]
#2=[#564+[#565-#564]*0.99022]
#3=[#1+[#2-#1]*0.68407]
X8.08699 Y-2.63432 Z[#3+-0.04000]
#1=[#557+[#558-#557]*0.97873]
#2=[#564+[#565-#564]*0.97873]
#3=[#1+[#2-#1]*0.68778]
X8.08845 Y-2.63848 Z[#3+-0.04000]
#1=[#557+[#558-#557]*0.96663]
#2=[#564+[#565-#564]*0.96663]
#3=[#1+[#2-#1]*0.68904]
X8.08894 Y-2.64286 Z[#3+-0.04000]
#1=[#557+[#558-#557]*0.95596]
#2=[#564+[#565-#564]*0.95596]
#3=[#1+[#2-#1]*0.68904]
X8.08894 Y-2.64672 Z[#3+-0.04000]
#1=[#557+[#558-#557]*1.00000]
#2=[#564+[#565-#564]*1.00000]
#3=[#1+[#2-#1]*0.77046]
X8.12083 Y-2.63078 Z[#3+-0.04000]
#1=[#558+[#559-#558]*0.01526]
#2=[#565+[#566-#565]*0.01526]
#3=[#1+[#2-#1]*0.79866]
X8.13188 Y-2.62525 Z[#3+-0.04000]
#1=[#558+[#559-#558]*0.01954]
#2=[#565+[#566-#565]*0.01954]
#3=[#1+[#2-#1]*0.80959]
X8.13616 Y-2.62370 Z[#3+-0.04000]
#1=[#558+[#559-#558]*0.02100]
#2=[#565+[#566-#565]*0.02100]
#3=[#1+[#2-#1]*0.82113]
X8.14069 Y-2.62317 Z[#3+-0.04000]
#1=[#565+[#566-#565]*0.02100]
#2=[#572+[#573-#572]*0.02100]
#3=[#1+[#2-#1]*0.00000]
X8.21076 Y-2.62317 Z[#3+-0.04000]
#1=[#565+[#566-#565]*0.02100]
#2=[#572+[#573-#572]*0.02100]
#3=[#1+[#2-#1]*0.00347]
X8.21212 Y-2.62317 Z[#3+-0.04000]
#1=[#565+[#566-#565]*0.01954]
#2=[#572+[#573-#572]*0.01954]
#3=[#1+[#2-#1]*0.01502]
X8.21664 Y-2.62370 Z[#3+-0.04000]
#1=[#565+[#566-#565]*0.01526]
#2=[#572+[#573-#572]*0.01526]
#3=[#1+[#2-#1]*0.02595]
X8.22092 Y-2.62525 Z[#3+-0.04000]
#1=[#564+[#565-#564]*1.00000]
#2=[#571+[#572-#571]*1.00000]
#3=[#1+[#2-#1]*0.05414]
X8.23196 Y-2.63078 Z[#3+-0.04000]
#1=[#564+[#565-#564]*0.94950]
#2=[#571+[#572-#571]*0.94950]
#3=[#1+[#2-#1]*0.14748]
X8.26853 Y-2.64906 Z[#3+-0.04000]
#1=[#564+[#565-#564]*0.94321]
#2=[#571+[#572-#571]*0.94321]
#3=[#1+[#2-#1]*0.15653]
X8.27207 Y-2.65134 Z[#3+-0.04000]
#1=[#564+[#565-#564]*0.93498]
#2=[#571+[#572-#571]*0.93498]
#3=[#1+[#2-#1]*0.16414]
X8.27505 Y-2.65432 Z[#3+-0.04000]
#1=[#564+[#565-#564]*0.92519]
#2=[#571+[#572-#571]*0.92519]
#3=[#1+[#2-#1]*0.16995]
X8.27733 Y-2.65787 Z[#3+-0.04000]
#1=[#564+[#565-#564]*0.79369]
#2=[#571+[#572-#571]*0.79369]
#3=[#1+[#2-#1]*0.23073]
X8.30114 Y-2.70547 Z[#3+-0.04000]
#1=[#564+[#565-#564]*0.78187]
#2=[#571+[#572-#571]*0.78187]
#3=[#1+[#2-#1]*0.23469]
X8.30269 Y-2.70976 Z[#3+-0.04000]
#1=[#564+[#565-#564]*0.76937]
#2=[#571+[#572-#571]*0.76937]
#3=[#1+[#2-#1]*0.23604]
X8.30322 Y-2.71428 Z[#3+-0.04000]
#1=[#564+[#565-#564]*0.04601]
#2=[#571+[#572-#571]*0.04601]
#3=[#1+[#2-#1]*0.23604]
X8.30322 Y-2.97619 Z[#3+-0.04000]
#1=[#564+[#565-#564]*0.03391]
#2=[#571+[#572-#571]*0.03391]
#3=[#1+[#2-#1]*0.23477]
X8.30273 Y-2.98057 Z[#3+-0.04000]
#1=[#564+[#565-#564]*0.02242]
#2=[#571+[#572-#571]*0.02242]
#3=[#1+[#2-#1]*0.23106]
X8.30127 Y-2.98473 Z[#3+-0.04000]
#1=[#564+[#565-#564]*0.01211]
#2=[#571+[#572-#571]*0.01211]
#3=[#1+[#2-#1]*0.22507]
X8.29893 Y-2.98846 Z[#3+-0.04000]
#1=[#564+[#565-#564]*0.00350]
#2=[#571+[#572-#571]*0.00350]
#3=[#1+[#2-#1]*0.21711]
X8.29581 Y-2.99158 Z[#3+-0.04000]
#1=[#564+[#565-#564]*0.00000]
#2=[#571+[#572-#571]*0.00000]
#3=[#1+[#2-#1]*0.21196]
X8.29379 Y-2.99285 Z[#3+-0.04000]
#1=[#563+[#564-#563]*0.99703]
#2=[#570+[#571-#570]*0.99703]
#3=[#1+[#2-#1]*0.20759]
X8.29208 Y-2.99392 Z[#3+-0.04000]
#1=[#563+[#564-#563]*0.99301]
#2=[#570+[#571-#570]*0.99301]
#3=[#1+[#2-#1]*0.19697]
X8.28792 Y-2.99538 Z[#3+-0.04000]
#1=[#563+[#564-#563]*0.99164]
#2=[#570+[#571-#570]*0.99164]
#3=[#1+[#2-#1]*0.18579]
X8.28354 Y-2.99587 Z[#3+-0.04000]
#1=[#563+[#564-#563]*0.99301]
#2=[#570+[#571-#570]*0.99301]
#3=[#1+[#2-#1]*0.17460]
X8.27915 Y-2.99538 Z[#3+-0.04000]
#1=[#563+[#564-#563]*0.99703]
#2=[#570+[#571-#570]*0.99703]
#3=[#1+[#2-#1]*0.16398]
X8.27499 Y-2.99392 Z[#3+-0.04000]
#1=[#564+[#565-#564]*0.00000]
#2=[#571+[#572-#571]*0.00000]
#3=[#1+[#2-#1]*0.15961]
X8.27328 Y-2.99285 Z[#3+-0.04000]
#1=[#564+[#565-#564]*0.00350]
#2=[#571+[#572-#571]*0.00350]
#3=[#1+[#2-#1]*0.15445]
X8.27126 Y-2.99158 Z[#3+-0.04000]
#1=[#564+[#565-#564]*0.01211]
#2=[#571+[#572-#571]*0.01211]
#3=[#1+[#2-#1]*0.14650]
X8.26814 Y-2.98846 Z[#3+-0.04000]
#1=[#564+[#565-#564]*0.02242]
#2=[#571+[#572-#571]*0.02242]
#3=[#1+[#2-#1]*0.14051]
X8.26580 Y-2.98473 Z[#3+-0.04000]
#1=[#564+[#565-#564]*0.03391]
#2=[#571+[#572-#571]*0.03391]
#3=[#1+[#2-#1]*0.13679]
X8.26434 Y-2.98057 Z[#3+-0.04000]
#1=[#564+[#565-#564]*0.04601]
#2=[#571+[#572-#571]*0.04601]
#3=[#1+[#2-#1]*0.13553]
X8.26385 Y-2.97619 Z[#3+-0.04000]
#1=[#564+[#565-#564]*0.75654]
#2=[#571+[#572-#571]*0.75654]
#3=[#1+[#2-#1]*0.13553]
X8.26385 Y-2.71893 Z[#3+-0.04000]
#1=[#564+[#565-#564]*0.86035]
#2=[#571+[#572-#571]*0.86035]
#3=[#1+[#2-#1]*0.08755]
X8.24505 Y-2.68134 Z[#3+-0.04000]
#1=[#564+[#565-#564]*0.90772]
#2=[#571+[#572-#571]*0.90772]
#3=[#1+[#2-#1]*0.00000]
X8.21076 Y-2.66419 Z[#3+-0.04000]
#1=[#557+[#558-#557]*0.91226]
#2=[#564+[#565-#564]*0.91226]
#3=[#1+[#2-#1]*0.99161]
X8.20747 Y-2.66255 Z[#3+-0.04000]
#1=[#557+[#558-#557]*0.91226]
#2=[#564+[#565-#564]*0.91226]
#3=[#1+[#2-#1]*0.83300]
X8.14533 Y-2.66255 Z[#3+-0.04000]
#1=[#557+[#558-#557]*0.85619]
#2=[#564+[#565-#564]*0.85619]
#3=[#1+[#2-#1]*0.72934]
X8.10473 Y-2.68285 Z[#3+-0.04000]
#1=[#557+[#558-#557]*0.81259]
#2=[#564+[#565-#564]*0.81259]
#3=[#1+[#2-#1]*0.68904]
X8.08894 Y-2.69863 Z[#3+-0.04000]
#1=[#557+[#558-#557]*0.04601]
#2=[#564+[#565-#564]*0.04601]
#3=[#1+[#2-#1]*0.68904]
X8.08894 Y-2.97619 Z[#3+-0.04000]
#1=[#557+[#558-#557]*0.03391]
#2=[#564+[#565-#564]*0.03391]
#3=[#1+[#2-#1]*0.68778]
X8.08845 Y-2.98057 Z[#3+-0.04000]
#1=[#557+[#558-#557]*0.02242]
#2=[#564+[#565-#564]*0.02242]
#3=[#1+[#2-#1]*0.68407]
X8.08699 Y-2.98473 Z[#3+-0.04000]
#1=[#557+[#558-#557]*0.01211]
#2=[#564+[#565-#564]*0.01211]
#3=[#1+[#2-#1]*0.67808]
X8.08465 Y-2.98846 Z[#3+-0.04000]
#1=[#557+[#558-#557]*0.00350]
#2=[#564+[#565-#564]*0.00350]
#3=[#1+[#2-#1]*0.67012]
X8.08153 Y-2.99158 Z[#3+-0.04000]
#1=[#557+[#558-#557]*0.00000]
#2=[#564+[#565-#564]*0.00000]
#3=[#1+[#2-#1]*0.66497]
X8.07951 Y-2.99285 Z[#3+-0.04000]
#1=[#556+[#557-#556]*0.99703]
#2=[#563+[#564-#563]*0.99703]
#3=[#1+[#2-#1]*0.66060]
X8.07780 Y-2.99392 Z[#3+-0.04000]
#1=[#556+[#557-#556]*0.99301]
#2=[#563+[#564-#563]*0.99301]
#3=[#1+[#2-#1]*0.64997]
X8.07364 Y-2.99538 Z[#3+-0.04000]
#1=[#556+[#557-#556]*0.99164]
#2=[#563+[#564-#563]*0.99164]
#3=[#1+[#2-#1]*0.63879]
X8.06926 Y-2.99587 Z[#3+-0.04000]
#1=[#556+[#557-#556]*0.99301]
#2=[#563+[#564-#563]*0.99301]
#3=[#1+[#2-#1]*0.62761]
X8.06487 Y-2.99538 Z[#3+-0.04000]
#1=[#556+[#557-#556]*0.99703]
#2=[#563+[#564-#563]*0.99703]
#3=[#1+[#2-#1]*0.61699]
X8.06071 Y-2.99392 Z[#3+-0.04000]
#1=[#557+[#558-#557]*0.00000]
#2=[#564+[#565-#564]*0.00000]
#3=[#1+[#2-#1]*0.61262]
X8.05900 Y-2.99285 Z[#3+-0.04000]
#1=[#557+[#558-#557]*0.00350]
#2=[#564+[#565-#564]*0.00350]
#3=[#1+[#2-#1]*0.60746]
X8.05698 Y-2.99158 Z[#3+-0.04000]
#1=[#557+[#558-#557]*0.01211]
#2=[#564+[#565-#564]*0.01211]
#3=[#1+[#2-#1]*0.59950]
X8.05386 Y-2.98846 Z[#3+-0.04000]
#1=[#557+[#558-#557]*0.02242]
#2=[#564+[#565-#564]*0.02242]
#3=[#1+[#2-#1]*0.59352]
X8.05152 Y-2.98473 Z[#3+-0.04000]
#1=[#557+[#558-#557]*0.03391]
#2=[#564+[#565-#564]*0.03391]
#3=[#1+[#2-#1]*0.58980]
X8.05006 Y-2.98057 Z[#3+-0.04000]
#1=[#557+[#558-#557]*0.04601]
#2=[#564+[#565-#564]*0.04601]
#3=[#1+[#2-#1]*0.58854]
X8.04957 Y-2.97619 Z[#3+-0.04000]
G04 P0 ( dwell for no time -- G64 should not smooth over this point )
G00 Z0.08000 ( retract )

G00 X8.43052 Y-2.64286 ( rapid move to begin. )
G01 F180.00000
( Mill infeed pass 1/1 )
#1=[#564+[#565-#564]*0.96663]
#2=[#571+[#572-#571]*0.96663]
#3=[#1+[#2-#1]*0.56099]
G01 Z[-0.04000+#111]
G04 P0 ( dwell for no time -- G64 should not smooth over this point )
G01 F360.00000
#1=[#564+[#565-#564]*0.95453]
#2=[#571+[#572-#571]*0.95453]
#3=[#1+[#2-#1]*0.56225]
X8.43101 Y-2.64724 Z[#3+-0.04000]
#1=[#564+[#565-#564]*0.94304]
#2=[#571+[#572-#571]*0.94304]
#3=[#1+[#2-#1]*0.56597]
X8.43247 Y-2.65140 Z[#3+-0.04000]
#1=[#564+[#565-#564]*0.93273]
#2=[#571+[#572-#571]*0.93273]
#3=[#1+[#2-#1]*0.57196]
X8.43481 Y-2.65513 Z[#3+-0.04000]
#1=[#564+[#565-#564]*0.92412]
#2=[#571+[#572-#571]*0.92412]
#3=[#1+[#2-#1]*0.57991]
X8.43793 Y-2.65825 Z[#3+-0.04000]
#1=[#564+[#565-#564]*0.91765]
#2=[#571+[#572-#571]*0.91765]
#3=[#1+[#2-#1]*0.58944]
X8.44166 Y-2.66059 Z[#3+-0.04000]
#1=[#564+[#565-#564]*0.91362]
#2=[#571+[#572-#571]*0.91362]
#3=[#1+[#2-#1]*0.60006]
X8.44582 Y-2.66205 Z[#3+-0.04000]
#1=[#564+[#565-#564]*0.91226]
#2=[#571+[#572-#571]*0.91226]
#3=[#1+[#2-#1]*0.61124]
X8.45021 Y-2.66255 Z[#3+-0.04000]
#1=[#564+[#565-#564]*0.91226]
#2=[#571+[#572-#571]*0.91226]
#3=[#1+[#2-#1]*0.74333]
X8.50195 Y-2.66255 Z[#3+-0.04000]
#1=[#564+[#565-#564]*0.24329]
#2=[#571+[#572-#571]*0.24329]
#3=[#1+[#2-#1]*0.74333]
X8.50195 Y-2.90476 Z[#3+-0.04000]
#1=[#564+[#565-#564]*0.23080]
#2=[#571+[#572-#571]*0.23080]
#3=[#1+[#2-#1]*0.74468]
X8.50248 Y-2.90928 Z[#3+-0.04000]
#1=[#564+[#565-#564]*0.21898]
#2=[#571+[#572-#571]*0.21898]
#3=[#1+[#2-#1]*0.74864]
X8.50403 Y-2.91356 Z[#3+-0.04000]
#1=[#564+[#565-#564]*0.08746]
#2=[#571+[#572-#571]*0.08746]
#3=[#1+[#2-#1]*0.80942]
X8.52784 Y-2.96118 Z[#3+-0.04000]
#1=[#564+[#565-#564]*0.07766]
#2=[#571+[#572-#571]*0.07766]
#3=[#1+[#2-#1]*0.81523]
X8.53012 Y-2.96473 Z[#3+-0.04000]
#1=[#564+[#565-#564]*0.06943]
#2=[#571+[#572-#571]*0.06943]
#3=[#1+[#2-#1]*0.82284]
X8.53310 Y-2.96771 Z[#3+-0.04000]
#1=[#564+[#565-#564]*0.06314]
#2=[#571+[#572-#571]*0.06314]
#3=[#1+[#2-#1]*0.83189]
X8.53664 Y-2.96999 Z[#3+-0.04000]
#1=[#564+[#565-#564]*0.00000]
#2=[#571+[#572-#571]*0.00000]
#3=[#1+[#2-#1]*0.94861]
X8.58237 Y-2.99285 Z[#3+-0.04000]
#1=[#563+[#564-#563]*0.99738]
#2=[#570+[#571-#570]*0.99738]
#3=[#1+[#2-#1]*0.95345]
X8.58426 Y-2.99380 Z[#3+-0.04000]
#1=[#563+[#564-#563]*0.99310]
#2=[#570+[#571-#570]*0.99310]
#3=[#1+[#2-#1]*0.96438]
X8.58854 Y-2.99535 Z[#3+-0.04000]
#1=[#563+[#564-#563]*0.99164]
#2=[#570+[#571-#570]*0.99164]
#3=[#1+[#2-#1]*0.97592]
X8.59307 Y-2.99587 Z[#3+-0.04000]
#1=[#570+[#571-#570]*0.99164]
#2=[#577+[#578-#577]*0.99164]
#3=[#1+[#2-#1]*0.00000]
X8.60250 Y-2.99587 Z[#3+-0.04000]
#1=[#570+[#571-#570]*0.99164]
#2=[#577+[#578-#577]*0.99164]
#3=[#1+[#2-#1]*0.09748]
X8.64069 Y-2.99587 Z[#3+-0.04000]
#1=[#570+[#571-#570]*0.99301]
#2=[#577+[#578-#577]*0.99301]
#3=[#1+[#2-#1]*0.10866]
X8.64507 Y-2.99538 Z[#3+-0.04000]
#1=[#570+[#571-#570]*0.99703]
#2=[#577+[#578-#577]*0.99703]
#3=[#1+[#2-#1]*0.11928]
X8.64923 Y-2.99392 Z[#3+-0.04000]
#1=[#571+[#572-#571]*0.00000]
#2=[#578+[#579-#578]*0.00000]
#3=[#1+[#2-#1]*0.12366]
X8.65094 Y-2.99285 Z[#3+-0.04000]
#1=[#571+[#572-#571]*0.00350]
#2=[#578+[#579-#578]*0.00350]
#3=[#1+[#2-#1]*0.12881]
X8.65296 Y-2.99158 Z[#3+-0.04000]
#1=[#571+[#572-#571]*0.01211]
#2=[#578+[#579-#578]*0.01211]
#3=[#1+[#2-#1]*0.13677]
X8.65608 Y-2.98846 Z[#3+-0.04000]
#1=[#571+[#572-#571]*0.02242]
#2=[#578+[#579-#578]*0.02242]
#3=[#1+[#2-#1]*0.14275]
X8.65842 Y-2.98473 Z[#3+-0.04000]
#1=[#571+[#572-#571]*0.03391]
#2=[#578+[#579-#578]*0.03391]
#3=[#1+[#2-#1]*0.14647]
X8.65988 Y-2.98057 Z[#3+-0.04000]
#1=[#571+[#572-#571]*0.04601]
#2=[#578+[#579-#578]*0.04601]
#3=[#1+[#2-#1]*0.14773]
X8.66037 Y-2.97619 Z[#3+-0.04000]
#1=[#571+[#572-#571]*0.05811]
#2=[#578+[#579-#578]*0.05811]
#3=[#1+[#2-#1]*0.14647]
X8.65988 Y-2.97181 Z[#3+-0.04000]
#1=[#571+[#572-#571]*0.06960]
#2=[#578+[#579-#578]*0.06960]
#3=[#1+[#2-#1]*0.14275]
X8.65842 Y-2.96765 Z[#3+-0.04000]
#1=[#571+[#572-#571]*0.07991]
#2=[#578+[#579-#578]*0.07991]
#3=[#1+[#2-#1]*0.13677]
X8.65608 Y-2.96392 Z[#3+-0.04000]
#1=[#571+[#572-#571]*0.08852]
#2=[#578+[#579-#578]*0.08852]
#3=[#1+[#2-#1]*0.12881]
X8.65296 Y-2.96080 Z[#3+-0.04000]
#1=[#571+[#572-#571]*0.09499]
#2=[#578+[#579-#578]*0.09499]
#3=[#1+[#2-#1]*0.11928]
X8.64923 Y-2.95845 Z[#3+-0.04000]
#1=[#571+[#572-#571]*0.09902]
#2=[#578+[#579-#578]*0.09902]
#3=[#1+[#2-#1]*0.10866]
X8.64507 Y-2.95700 Z[#3+-0.04000]
#1=[#571+[#572-#571]*0.10038]
#2=[#578+[#579-#578]*0.10038]
#3=[#1+[#2-#1]*0.09748]
X8.64069 Y-2.95650 Z[#3+-0.04000]
#1=[#571+[#572-#571]*0.10038]
#2=[#578+[#579-#578]*0.10038]
#3=[#1+[#2-#1]*0.00000]
X8.60250 Y-2.95650 Z[#3+-0.04000]
#1=[#564+[#565-#564]*0.10038]
#2=[#571+[#572-#571]*0.10038]
#3=[#1+[#2-#1]*0.98778]
X8.59771 Y-2.95650 Z[#3+-0.04000]
#1=[#564+[#565-#564]*0.15230]
#2=[#571+[#572-#571]*0.15230]
#3=[#1+[#2-#1]*0.89182]
X8.56012 Y-2.93771 Z[#3+-0.04000]
#1=[#564+[#565-#564]*0.25613]
#2=[#571+[#572-#571]*0.25613]
#3=[#1+[#2-#1]*0.84383]
X8.54132 Y-2.90011 Z[#3+-0.04000]
#1=[#564+[#565-#564]*0.91226]
#2=[#571+[#572-#571]*0.91226]
#3=[#1+[#2-#1]*0.84383]
X8.54132 Y-2.66255 Z[#3+-0.04000]
#1=[#571+[#572-#571]*0.91226]
#2=[#578+[#579-#578]*0.91226]
#3=[#1+[#2-#1]*0.00000]
X8.60250 Y-2.66255 Z[#3+-0.04000]
#1=[#571+[#572-#571]*0.91226]
#2=[#578+[#579-#578]*0.91226]
#3=[#1+[#2-#1]*0.09748]
X8.64069 Y-2.66255 Z[#3+-0.04000]
#1=[#571+[#572-#571]*0.91362]
#2=[#578+[#579-#578]*0.91362]
#3=[#1+[#2-#1]*0.10866]
X8.64507 Y-2.66205 Z[#3+-0.04000]
#1=[#571+[#572-#571]*0.91765]
#2=[#578+[#579-#578]*0.91765]
#3=[#1+[#2-#1]*0.11928]
X8.64923 Y-2.66059 Z[#3+-0.04000]
#1=[#571+[#572-#571]*0.92412]
#2=[#578+[#579-#578]*0.92412]
#3=[#1+[#2-#1]*0.12881]
X8.65296 Y-2.65825 Z[#3+-0.04000]
#1=[#571+[#572-#571]*0.93273]
#2=[#578+[#579-#578]*0.93273]
#3=[#1+[#2-#1]*0.13677]
X8.65608 Y-2.65513 Z[#3+-0.04000]
#1=[#571+[#572-#571]*0.94304]
#2=[#578+[#579-#578]*0.94304]
#3=[#1+[#2-#1]*0.14275]
X8.65842 Y-2.65140 Z[#3+-0.04000]
#1=[#571+[#572-#571]*0.95453]
#2=[#578+[#579-#578]*0.95453]
#3=[#1+[#2-#1]*0.14647]
X8.65988 Y-2.64724 Z[#3+-0.04000]
#1=[#571+[#572-#571]*0.96663]
#2=[#578+[#579-#578]*0.96663]
#3=[#1+[#2-#1]*0.14773]
X8.66037 Y-2.64286 Z[#3+-0.04000]
#1=[#571+[#572-#571]*0.97873]
#2=[#578+[#579-#578]*0.97873]
#3=[#1+[#2-#1]*0.14647]
X8.65988 Y-2.63848 Z[#3+-0.04000]
#1=[#571+[#572-#571]*0.99022]
#2=[#578+[#579-#578]*0.99022]
#3=[#1+[#2-#1]*0.14275]
X8.65842 Y-2.63432 Z[#3+-0.04000]
#1=[#571+[#572-#571]*1.00000]
#2=[#578+[#579-#578]*1.00000]
#3=[#1+[#2-#1]*0.13707]
X8.65620 Y-2.63078 Z[#3+-0.04000]
#1=[#572+[#573-#572]*0.00053]
#2=[#579+[#580-#579]*0.00053]
#3=[#1+[#2-#1]*0.13677]
X8.65608 Y-2.63059 Z[#3+-0.04000]
#1=[#572+[#573-#572]*0.00914]
#2=[#579+[#580-#579]*0.00914]
#3=[#1+[#2-#1]*0.12881]
X8.65296 Y-2.62747 Z[#3+-0.04000]
#1=[#572+[#573-#572]*0.01561]
#2=[#579+[#580-#579]*0.01561]
#3=[#1+[#2-#1]*0.11928]
X8.64923 Y-2.62512 Z[#3+-0.04000]
#1=[#572+[#573-#572]*0.01963]
#2=[#579+[#580-#579]*0.01963]
#3=[#1+[#2-#1]*0.10866]
X8.64507 Y-2.62367 Z[#3+-0.04000]
#1=[#572+[#573-#572]*0.02100]
#2=[#579+[#580-#579]*0.02100]
#3=[#1+[#2-#1]*0.09748]
X8.64069 Y-2.62317 Z[#3+-0.04000]
#1=[#572+[#573-#572]*0.02100]
#2=[#579+[#580-#579]*0.02100]
#3=[#1+[#2-#1]*0.00000]
X8.60250 Y-2.62317 Z[#3+-0.04000]
#1=[#565+[#566-#565]*0.02100]
#2=[#572+[#573-#572]*0.02100]
#3=[#1+[#2-#1]*0.84383]
X8.54132 Y-2.62317 Z[#3+-0.04000]
#1=[#565+[#566-#565]*0.42695]
#2=[#572+[#573-#572]*0.42695]
#3=[#1+[#2-#1]*0.84383]
X8.54132 Y-2.47619 Z[#3+-0.04000]
#1=[#565+[#566-#565]*0.43905]
#2=[#572+[#573-#572]*0.43905]
#3=[#1+[#2-#1]*0.84257]
X8.54083 Y-2.47181 Z[#3+-0.04000]
#1=[#565+[#566-#565]*0.45054]
#2=[#572+[#573-#572]*0.45054]
#3=[#1+[#2-#1]*0.83886]
