( pcb2gcode 2.5.0 )
( Gcode for custom )

G94 ( Inches per minute feed rate. )
G20 ( Units == INCHES. )

G90 ( Absolute coordinates. )
G00 S12000 ( RPM spindle speed. )
G64 P0.00040 ( set maximum deviation from commanded toolpath )
G01 F360.00000 ( Feedrate. )

#118 = #5211
#119 = #5212

(MSG, Attach the probe tool)
M0 ( Temporary machine stop. )
G0 Z0.080 ( Move Z to safe height )
G0 X4.68509 Y-3.35490 ( Move XY to start point )
G0 Z0.080 ( Move Z to probe height )
G38.2 Z-0.1 F2.362205 ( Z-probe )
#500 = 0 ( Probe point [0, 0] is our reference )
G92 Z0 ( Set the current Z as zero-value )

( We now start the real probing: move the Z axis to the probing height, move to )
( the probing XY position, probe it and save the result, parameter #2002, )
( in a numbered parameter; we will make 17 probes on the X-axis and )
( 7 probes on the Y-axis, for a grand total of 119 probes )

G0 Z0.080
X4.68509 Y-2.99283
G38.2 Z-0.1 F2.362205
#501=#2002
G0 Z0.080
X4.68509 Y-2.63077
G38.2 Z-0.1 F2.362205
#502=#2002
G0 Z0.080
X4.68509 Y-2.26870
G38.2 Z-0.1 F2.362205
#503=#2002
G0 Z0.080
X4.68509 Y-1.90663
G38.2 Z-0.1 F2.362205
#504=#2002
G0 Z0.080
X4.68509 Y-1.54456
G38.2 Z-0.1 F2.362205
#505=#2002
G0 Z0.080
X4.68509 Y-1.18249
G38.2 Z-0.1 F2.362205
#506=#2002
G0 Z0.080
X5.07683 Y-1.18249
G38.2 Z-0.1 F2.362205
#513=#2002
G0 Z0.080
X5.07683 Y-1.54456
G38.2 Z-0.1 F2.362205
#512=#2002
G0 Z0.080
X5.07683 Y-1.90663
G38.2 Z-0.1 F2.362205
#511=#2002
G0 Z0.080
X5.07683 Y-2.26870
G38.2 Z-0.1 F2.362205
#510=#2002
G0 Z0.080
X5.07683 Y-2.63077
G38.2 Z-0.1 F2.362205
#509=#2002
G0 Z0.080
X5.07683 Y-2.99283
G38.2 Z-0.1 F2.362205
#508=#2002
G0 Z0.080
X5.07683 Y-3.35490
G38.2 Z-0.1 F2.362205
#507=#2002
G0 Z0.080
X5.46857 Y-3.35490
G38.2 Z-0.1 F2.362205
#514=#2002
G0 Z0.080
X5.46857 Y-2.99283
G38.2 Z-0.1 F2.362205
#515=#2002
G0 Z0.080
X5.46857 Y-2.63077
G38.2 Z-0.1 F2.362205
#516=#2002
G0 Z0.080
X5.46857 Y-2.26870
G38.2 Z-0.1 F2.362205
#517=#2002
G0 Z0.080
X5.46857 Y-1.90663
G38.2 Z-0.1 F2.362205
#518=#2002
G0 Z0.080
X5.46857 Y-1.54456
G38.2 Z-0.1 F2.362205
#519=#2002
G0 Z0.080
X5.46857 Y-1.18249
G38.2 Z-0.1 F2.362205
#520=#2002
G0 Z0.080
X5.86031 Y-1.18249
G38.2 Z-0.1 F2.362205
#527=#2002
G0 Z0.080
X5.86031 Y-1.54456
G38.2 Z-0.1 F2.362205
#526=#2002
G0 Z0.080
X5.86031 Y-1.90663
G38.2 Z-0.1 F2.362205
#525=#2002
G0 Z0.080
X5.86031 Y-2.26870
G38.2 Z-0.1 F2.362205
#524=#2002
G0 Z0.080
X5.86031 Y-2.63077
G38.2 Z-0.1 F2.362205
#523=#2002
G0 Z0.080
X5.86031 Y-2.99283
G38.2 Z-0.1 F2.362205
#522=#2002
G0 Z0.080
X5.86031 Y-3.35490
G38.2 Z-0.1 F2.362205
#521=#2002
G0 Z0.080
X6.25205 Y-3.35490
G38.2 Z-0.1 F2.362205
#528=#2002
G0 Z0.080
X6.25205 Y-2.99283
G38.2 Z-0.1 F2.362205
#529=#2002
G0 Z0.080
X6.25205 Y-2.63077
G38.2 Z-0.1 F2.362205
#530=#2002
G0 Z0.080
X6.25205 Y-2.26870
G38.2 Z-0.1 F2.362205
#531=#2002
G0 Z0.080
X6.25205 Y-1.90663
G38.2 Z-0.1 F2.362205
#532=#2002
G0 Z0.080
X6.25205 Y-1.54456
G38.2 Z-0.1 F2.362205
#533=#2002
G0 Z0.080
X6.25205 Y-1.18249
G38.2 Z-0.1 F2.362205
#534=#2002
G0 Z0.080
X6.64379 Y-1.18249
G38.2 Z-0.1 F2.362205
#541=#2002
G0 Z0.080
X6.64379 Y-1.54456
G38.2 Z-0.1 F2.362205
#540=#2002
G0 Z0.080
X6.64379 Y-1.90663
G38.2 Z-0.1 F2.362205
#539=#2002
G0 Z0.080
X6.64379 Y-2.26870
G38.2 Z-0.1 F2.362205
#538=#2002
G0 Z0.080
X6.64379 Y-2.63077
G38.2 Z-0.1 F2.362205
#537=#2002
G0 Z0.080
X6.64379 Y-2.99283
G38.2 Z-0.1 F2.362205
#536=#2002
G0 Z0.080
X6.64379 Y-3.35490
G38.2 Z-0.1 F2.362205
#535=#2002
G0 Z0.080
X7.03553 Y-3.35490
G38.2 Z-0.1 F2.362205
#542=#2002
G0 Z0.080
X7.03553 Y-2.99283
G38.2 Z-0.1 F2.362205
#543=#2002
G0 Z0.080
X7.03553 Y-2.63077
G38.2 Z-0.1 F2.362205
#544=#2002
G0 Z0.080
X7.03553 Y-2.26870
G38.2 Z-0.1 F2.362205
#545=#2002
G0 Z0.080
X7.03553 Y-1.90663
G38.2 Z-0.1 F2.362205
#546=#2002
G0 Z0.080
X7.03553 Y-1.54456
G38.2 Z-0.1 F2.362205
#547=#2002
G0 Z0.080
X7.03553 Y-1.18249
G38.2 Z-0.1 F2.362205
#548=#2002
G0 Z0.080
X7.42727 Y-1.18249
G38.2 Z-0.1 F2.362205
#555=#2002
G0 Z0.080
X7.42727 Y-1.54456
G38.2 Z-0.1 F2.362205
#554=#2002
G0 Z0.080
X7.42727 Y-1.90663
G38.2 Z-0.1 F2.362205
#553=#2002
G0 Z0.080
X7.42727 Y-2.26870
G38.2 Z-0.1 F2.362205
#552=#2002
G0 Z0.080
X7.42727 Y-2.63077
G38.2 Z-0.1 F2.362205
#551=#2002
G0 Z0.080
X7.42727 Y-2.99283
G38.2 Z-0.1 F2.362205
#550=#2002
G0 Z0.080
X7.42727 Y-3.35490
G38.2 Z-0.1 F2.362205
#549=#2002
G0 Z0.080
X7.81901 Y-3.35490
G38.2 Z-0.1 F2.362205
#556=#2002
G0 Z0.080
X7.81901 Y-2.99283
G38.2 Z-0.1 F2.362205
#557=#2002
G0 Z0.080
X7.81901 Y-2.63077
G38.2 Z-0.1 F2.362205
#558=#2002
G0 Z0.080
X7.81901 Y-2.26870
G38.2 Z-0.1 F2.362205
#559=#2002
G0 Z0.080
X7.81901 Y-1.90663
G38.2 Z-0.1 F2.362205
#560=#2002
G0 Z0.080
X7.81901 Y-1.54456
G38.2 Z-0.1 F2.362205
#561=#2002
G0 Z0.080
X7.81901 Y-1.18249
G38.2 Z-0.1 F2.362205
#562=#2002
G0 Z0.080
X8.21075 Y-1.18249
G38.2 Z-0.1 F2.362205
#569=#2002
G0 Z0.080
X8.21075 Y-1.54456
G38.2 Z-0.1 F2.362205
#568=#2002
G0 Z0.080
X8.21075 Y-1.90663
G38.2 Z-0.1 F2.362205
#567=#2002
G0 Z0.080
X8.21075 Y-2.26870
G38.2 Z-0.1 F2.362205
#566=#2002
G0 Z0.080
X8.21075 Y-2.63077
G38.2 Z-0.1 F2.362205
#565=#2002
G0 Z0.080
X8.21075 Y-2.99283
G38.2 Z-0.1 F2.362205
#564=#2002
G0 Z0.080
X8.21075 Y-3.35490
G38.2 Z-0.1 F2.362205
#563=#2002
G0 Z0.080
X8.60249 Y-3.35490
G38.2 Z-0.1 F2.362205
#570=#2002
G0 Z0.080
X8.60249 Y-2.99283
G38.2 Z-0.1 F2.362205
#571=#2002
G0 Z0.080
X8.60249 Y-2.63077
G38.2 Z-0.1 F2.362205
#572=#2002
G0 Z0.080
X8.60249 Y-2.26870
G38.2 Z-0.1 F2.362205
#573=#2002
G0 Z0.080
X8.60249 Y-1.90663
G38.2 Z-0.1 F2.362205
#574=#2002
G0 Z0.080
X8.60249 Y-1.54456
G38.2 Z-0.1 F2.362205
#575=#2002
G0 Z0.080
X8.60249 Y-1.18249
G38.2 Z-0.1 F2.362205
#576=#2002
G0 Z0.080
X8.99423 Y-1.18249
G38.2 Z-0.1 F2.362205
#583=#2002
G0 Z0.080
X8.99423 Y-1.54456
G38.2 Z-0.1 F2.362205
#582=#2002
G0 Z0.080
X8.99423 Y-1.90663
G38.2 Z-0.1 F2.362205
#581=#2002
G0 Z0.080
X8.99423 Y-2.26870
G38.2 Z-0.1 F2.362205
#580=#2002
G0 Z0.080
X8.99423 Y-2.63077
G38.2 Z-0.1 F2.362205
#579=#2002
G0 Z0.080
X8.99423 Y-2.99283
G38.2 Z-0.1 F2.362205
#578=#2002
G0 Z0.080
X8.99423 Y-3.35490
G38.2 Z-0.1 F2.362205
#577=#2002
G0 Z0.080
X9.38597 Y-3.35490
G38.2 Z-0.1 F2.362205
#584=#2002
G0 Z0.080
X9.38597 Y-2.99283
G38.2 Z-0.1 F2.362205
#585=#2002
G0 Z0.080
X9.38597 Y-2.63077
G38.2 Z-0.1 F2.362205
#586=#2002
G0 Z0.080
X9.38597 Y-2.26870
G38.2 Z-0.1 F2.362205
#587=#2002
G0 Z0.080
X9.38597 Y-1.90663
G38.2 Z-0.1 F2.362205
#588=#2002
G0 Z0.080
X9.38597 Y-1.54456
G38.2 Z-0.1 F2.362205
#589=#2002
G0 Z0.080
X9.38597 Y-1.18249
G38.2 Z-0.1 F2.362205
#590=#2002
G0 Z0.080
X9.77771 Y-1.18249
G38.2 Z-0.1 F2.362205
#597=#2002
G0 Z0.080
X9.77771 Y-1.54456
G38.2 Z-0.1 F2.362205
#596=#2002
G0 Z0.080
X9.77771 Y-1.90663
G38.2 Z-0.1 F2.362205
#595=#2002
G0 Z0.080
X9.77771 Y-2.26870
G38.2 Z-0.1 F2.362205
#594=#2002
G0 Z0.080
X9.77771 Y-2.63077
G38.2 Z-0.1 F2.362205
#593=#2002
G0 Z0.080
X9.77771 Y-2.99283
G38.2 Z-0.1 F2.362205
#592=#2002
G0 Z0.080
X9.77771 Y-3.35490
G38.2 Z-0.1 F2.362205
#591=#2002
G0 Z0.080
X10.16946 Y-3.35490
G38.2 Z-0.1 F2.362205
#598=#2002
G0 Z0.080
X10.16946 Y-2.99283
G38.2 Z-0.1 F2.362205
#599=#2002
G0 Z0.080
X10.16946 Y-2.63077
G38.2 Z-0.1 F2.362205
#600=#2002
G0 Z0.080
X10.16946 Y-2.26870
G38.2 Z-0.1 F2.362205
#601=#2002
G0 Z0.080
X10.16946 Y-1.90663
G38.2 Z-0.1 F2.362205
#602=#2002
G0 Z0.080
X10.16946 Y-1.54456
G38.2 Z-0.1 F2.362205
#603=#2002
G0 Z0.080
X10.16946 Y-1.18249
G38.2 Z-0.1 F2.362205
#604=#2002
G0 Z0.080
X10.56120 Y-1.18249
G38.2 Z-0.1 F2.362205
#611=#2002
G0 Z0.080
X10.56120 Y-1.54456
G38.2 Z-0.1 F2.362205
#610=#2002
G0 Z0.080
X10.56120 Y-1.90663
G38.2 Z-0.1 F2.362205
#609=#2002
G0 Z0.080
X10.56120 Y-2.26870
G38.2 Z-0.1 F2.362205
#608=#2002
G0 Z0.080
X10.56120 Y-2.63077
G38.2 Z-0.1 F2.362205
#607=#2002
G0 Z0.080
X10.56120 Y-2.99283
G38.2 Z-0.1 F2.362205
#606=#2002
G0 Z0.080
X10.56120 Y-3.35490
G38.2 Z-0.1 F2.362205
#605=#2002
G0 Z0.080
X10.95294 Y-3.35490
G38.2 Z-0.1 F2.362205
#612=#2002
G0 Z0.080
X10.95294 Y-2.99283
G38.2 Z-0.1 F2.362205
#613=#2002
G0 Z0.080
X10.95294 Y-2.63077
G38.2 Z-0.1 F2.362205
#614=#2002
G0 Z0.080
X10.95294 Y-2.26870
G38.2 Z-0.1 F2.362205
#615=#2002
G0 Z0.080
X10.95294 Y-1.90663
G38.2 Z-0.1 F2.362205
#616=#2002
G0 Z0.080
X10.95294 Y-1.54456
G38.2 Z-0.1 F2.362205
#617=#2002
G0 Z0.080
X10.95294 Y-1.18249
G38.2 Z-0.1 F2.362205
#618=#2002

G0 Z0.080 ( Move Z to safe height )
( Probing has ended, each Z-coordinate will be corrected with a bilinear interpolation )
(MSG, Detach the probe tool)
M0 ( Temporary machine stop. )


G00 Z1.00000 (Retract to tool change height)
T1
M5      (Spindle stop.)
G04 P1.00000 (Wait for spindle to stop)
(MSG, Change tool bit to mill diameter 0.00000in)
M6      (Tool change.)
M0      (Temporary machine stop.)
M3 ( Spindle on clockwise. )
G04 P1.00000 (Wait for spindle to get up to speed)
( Piece #1, position [0;0] )

G04 P0 ( dwell for no time -- G64 should not smooth over this point )
G00 Z0.08000 ( retract )

G00 X4.68509 Y-2.97699 ( rapid move to begin. )
G01 F180.00000
( Mill infeed pass 1/1 )
#111=[#501+[#502-#501]*0.04376]
G01 Z[-0.04000+#111]
G04 P0 ( dwell for no time -- G64 should not smooth over this point )
G01 F360.00000
#111=#502
X4.68509 Y-2.63077 Z[#111+-0.04000]
#111=[#502+[#503-#502]*0.42914]
X4.68509 Y-2.47539 Z[#111+-0.04000]
#116=[#502+[#503-#502]*0.43902]
#117=[#509+[#510-#509]*0.43902]
#111=[#116+[#117-#116]*0.00122]
X4.68557 Y-2.47181 Z[#111+-0.04000]
#116=[#502+[#503-#502]*0.44850]
#117=[#509+[#510-#509]*0.44850]
#111=[#116+[#117-#116]*0.00408]
X4.68669 Y-2.46838 Z[#111+-0.04000]
#116=[#502+[#503-#502]*0.45725]
#117=[#509+[#510-#509]*0.45725]
#111=[#116+[#117-#116]*0.00850]
X4.68842 Y-2.46521 Z[#111+-0.04000]
#116=[#502+[#503-#502]*0.46168]
#117=[#509+[#510-#509]*0.46168]
#111=[#116+[#117-#116]*0.01157]
X4.68962 Y-2.46360 Z[#111+-0.04000]
#116=[#502+[#503-#502]*0.46576]
#117=[#509+[#510-#509]*0.46576]
#111=[#116+[#117-#116]*0.01504]
X4.69098 Y-2.46213 Z[#111+-0.04000]
#116=[#502+[#503-#502]*0.47205]
#117=[#509+[#510-#509]*0.47205]
#111=[#116+[#117-#116]*0.02218]
X4.69378 Y-2.45985 Z[#111+-0.04000]
#116=[#502+[#503-#502]*0.47490]
#117=[#509+[#510-#509]*0.47490]
#111=[#116+[#117-#116]*0.02658]
X4.69550 Y-2.45882 Z[#111+-0.04000]
#116=[#502+[#503-#502]*0.47726]
#117=[#509+[#510-#509]*0.47726]
#111=[#116+[#117-#116]*0.03121]
X4.69732 Y-2.45797 Z[#111+-0.04000]
#116=[#502+[#503-#502]*0.47909]
#117=[#509+[#510-#509]*0.47909]
#111=[#116+[#117-#116]*0.03605]
X4.69921 Y-2.45730 Z[#111+-0.04000]
#116=[#502+[#503-#502]*0.48038]
#117=[#509+[#510-#509]*0.48038]
#111=[#116+[#117-#116]*0.04103]
X4.70117 Y-2.45683 Z[#111+-0.04000]
#116=[#502+[#503-#502]*0.48129]
#117=[#509+[#510-#509]*0.48129]
#111=[#116+[#117-#116]*0.05021]
X4.70476 Y-2.45650 Z[#111+-0.04000]
#116=[#502+[#503-#502]*0.48111]
#117=[#509+[#510-#509]*0.48111]
#111=[#116+[#117-#116]*0.66209]
X4.94446 Y-2.45657 Z[#111+-0.04000]
#116=[#502+[#503-#502]*0.47939]
#117=[#509+[#510-#509]*0.47939]
#111=[#116+[#117-#116]*0.67117]
X4.94802 Y-2.45719 Z[#111+-0.04000]
#116=[#502+[#503-#502]*0.47591]
#117=[#509+[#510-#509]*0.47591]
#111=[#116+[#117-#116]*0.67980]
X4.95140 Y-2.45845 Z[#111+-0.04000]
#116=[#502+[#503-#502]*0.47142]
#117=[#509+[#510-#509]*0.47142]
#111=[#116+[#117-#116]*0.68687]
X4.95417 Y-2.46008 Z[#111+-0.04000]
#116=[#502+[#503-#502]*0.46497]
#117=[#509+[#510-#509]*0.46497]
#111=[#116+[#117-#116]*0.69389]
X4.95692 Y-2.46241 Z[#111+-0.04000]
#116=[#502+[#503-#502]*0.45725]
#117=[#509+[#510-#509]*0.45725]
#111=[#116+[#117-#116]*0.69971]
X4.95920 Y-2.46521 Z[#111+-0.04000]
#116=[#502+[#503-#502]*0.44850]
#117=[#509+[#510-#509]*0.44850]
#111=[#116+[#117-#116]*0.70412]
X4.96093 Y-2.46838 Z[#111+-0.04000]
#116=[#502+[#503-#502]*0.43902]
#117=[#509+[#510-#509]*0.43902]
#111=[#116+[#117-#116]*0.70699]
X4.96205 Y-2.47181 Z[#111+-0.04000]
#116=[#502+[#503-#502]*0.42914]
#117=[#509+[#510-#509]*0.42914]
#111=[#116+[#117-#116]*0.70821]
X4.96253 Y-2.47539 Z[#111+-0.04000]
#116=[#502+[#503-#502]*0.41919]
#117=[#509+[#510-#509]*0.41919]
#111=[#116+[#117-#116]*0.70774]
X4.96234 Y-2.47899 Z[#111+-0.04000]
#116=[#502+[#503-#502]*0.41375]
#117=[#509+[#510-#509]*0.41375]
#111=[#116+[#117-#116]*0.70675]
X4.96195 Y-2.48096 Z[#111+-0.04000]
#116=[#502+[#503-#502]*0.40845]
#117=[#509+[#510-#509]*0.40845]
#111=[#116+[#117-#116]*0.70526]
X4.96137 Y-2.48288 Z[#111+-0.04000]
#116=[#502+[#503-#502]*0.40333]
#117=[#509+[#510-#509]*0.40333]
#111=[#116+[#117-#116]*0.70327]
X4.96059 Y-2.48473 Z[#111+-0.04000]
#116=[#502+[#503-#502]*0.39847]
#117=[#509+[#510-#509]*0.39847]
#111=[#116+[#117-#116]*0.70082]
X4.95963 Y-2.48649 Z[#111+-0.04000]
#116=[#502+[#503-#502]*0.39049]
#117=[#509+[#510-#509]*0.39049]
#111=[#116+[#117-#116]*0.69529]
X4.95747 Y-2.48938 Z[#111+-0.04000]
#116=[#502+[#503-#502]*0.38373]
#117=[#509+[#510-#509]*0.38373]
#111=[#116+[#117-#116]*0.68852]
X4.95481 Y-2.49183 Z[#111+-0.04000]
#116=[#502+[#503-#502]*0.37843]
#117=[#509+[#510-#509]*0.37843]
#111=[#116+[#117-#116]*0.68072]
X4.95176 Y-2.49375 Z[#111+-0.04000]
#116=[#502+[#503-#502]*0.37476]
#117=[#509+[#510-#509]*0.37476]
#111=[#116+[#117-#116]*0.67215]
X4.94840 Y-2.49508 Z[#111+-0.04000]
#116=[#502+[#503-#502]*0.37347]
#117=[#509+[#510-#509]*0.37347]
#111=[#116+[#117-#116]*0.66717]
X4.94645 Y-2.49554 Z[#111+-0.04000]
#116=[#502+[#503-#502]*0.37274]
#117=[#509+[#510-#509]*0.37274]
#111=[#116+[#117-#116]*0.66209]
X4.94446 Y-2.49581 Z[#111+-0.04000]
#116=[#502+[#503-#502]*0.37255]
#117=[#509+[#510-#509]*0.37255]
#111=[#116+[#117-#116]*0.10046]
X4.72445 Y-2.49587 Z[#111+-0.04000]
#111=[#502+[#509-#502]*0.10046]
X4.72445 Y-2.63077 Z[#111+-0.04000]
#116=[#501+[#502-#501]*0.82370]
#117=[#508+[#509-#508]*0.82370]
#111=[#116+[#117-#116]*0.10046]
X4.72445 Y-2.69460 Z[#111+-0.04000]
#116=[#501+[#502-#501]*0.82370]
#117=[#508+[#509-#508]*0.82370]
#111=[#116+[#117-#116]*0.47566]
X4.87143 Y-2.69460 Z[#111+-0.04000]
#116=[#501+[#502-#501]*0.82329]
#117=[#508+[#509-#508]*0.82329]
#111=[#116+[#117-#116]*0.48180]
X4.87383 Y-2.69475 Z[#111+-0.04000]
#116=[#501+[#502-#501]*0.82117]
#117=[#508+[#509-#508]*0.82117]
#111=[#116+[#117-#116]*0.49080]
X4.87736 Y-2.69551 Z[#111+-0.04000]
#116=[#501+[#502-#501]*0.81923]
#117=[#508+[#509-#508]*0.81923]
#111=[#116+[#117-#116]*0.49560]
X4.87924 Y-2.69622 Z[#111+-0.04000]
#116=[#501+[#502-#501]*0.81678]
#117=[#508+[#509-#508]*0.81678]
#111=[#116+[#117-#116]*0.50019]
X4.88104 Y-2.69710 Z[#111+-0.04000]
#116=[#501+[#502-#501]*0.81113]
#117=[#508+[#509-#508]*0.81113]
#111=[#116+[#117-#116]*0.50779]
X4.88401 Y-2.69915 Z[#111+-0.04000]
#116=[#501+[#502-#501]*0.80409]
#117=[#508+[#509-#508]*0.80409]
#111=[#116+[#117-#116]*0.51430]
X4.88656 Y-2.70170 Z[#111+-0.04000]
#116=[#501+[#502-#501]*0.79587]
#117=[#508+[#509-#508]*0.79587]
#111=[#116+[#117-#116]*0.51952]
X4.88861 Y-2.70467 Z[#111+-0.04000]
#116=[#501+[#502-#501]*0.78676]
#117=[#508+[#509-#508]*0.78676]
#111=[#116+[#117-#116]*0.52326]
X4.89007 Y-2.70797 Z[#111+-0.04000]
#116=[#501+[#502-#501]*0.77707]
#117=[#508+[#509-#508]*0.77707]
#111=[#116+[#117-#116]*0.52540]
X4.89091 Y-2.71148 Z[#111+-0.04000]
#116=[#501+[#502-#501]*0.76711]
#117=[#508+[#509-#508]*0.76711]
#111=[#116+[#117-#116]*0.52587]
X4.89110 Y-2.71509 Z[#111+-0.04000]
#116=[#501+[#502-#501]*0.75832]
#117=[#508+[#509-#508]*0.75832]
#111=[#116+[#117-#116]*0.52487]
X4.89070 Y-2.71827 Z[#111+-0.04000]
#116=[#501+[#502-#501]*0.74878]
#117=[#508+[#509-#508]*0.74878]
#111=[#116+[#117-#116]*0.52218]
X4.88965 Y-2.72173 Z[#111+-0.04000]
#116=[#501+[#502-#501]*0.73993]
#117=[#508+[#509-#508]*0.73993]
#111=[#116+[#117-#116]*0.51794]
X4.88799 Y-2.72493 Z[#111+-0.04000]
#116=[#501+[#502-#501]*0.73208]
#117=[#508+[#509-#508]*0.73208]
#111=[#116+[#117-#116]*0.51226]
X4.88577 Y-2.72777 Z[#111+-0.04000]
#116=[#501+[#502-#501]*0.72614]
#117=[#508+[#509-#508]*0.72614]
#111=[#116+[#117-#116]*0.50618]
X4.88338 Y-2.72992 Z[#111+-0.04000]
#116=[#501+[#502-#501]*0.72084]
#117=[#508+[#509-#508]*0.72084]
#111=[#116+[#117-#116]*0.49838]
X4.88033 Y-2.73184 Z[#111+-0.04000]
#116=[#501+[#502-#501]*0.71716]
#117=[#508+[#509-#508]*0.71716]
#111=[#116+[#117-#116]*0.48982]
X4.87697 Y-2.73317 Z[#111+-0.04000]
#116=[#501+[#502-#501]*0.71537]
#117=[#508+[#509-#508]*0.71537]
#111=[#116+[#117-#116]*0.48180]
X4.87383 Y-2.73382 Z[#111+-0.04000]
#116=[#501+[#502-#501]*0.71496]
#117=[#508+[#509-#508]*0.71496]
#111=[#116+[#117-#116]*0.47566]
X4.87143 Y-2.73397 Z[#111+-0.04000]
#116=[#501+[#502-#501]*0.71496]
#117=[#508+[#509-#508]*0.71496]
#111=[#116+[#117-#116]*0.10046]
X4.72445 Y-2.73397 Z[#111+-0.04000]
#116=[#501+[#502-#501]*0.04154]
#117=[#508+[#509-#508]*0.04154]
#111=[#116+[#117-#116]*0.10029]
X4.72438 Y-2.97779 Z[#111+-0.04000]
#116=[#501+[#502-#501]*0.03172]
#117=[#508+[#509-#508]*0.03172]
#111=[#116+[#117-#116]*0.09870]
X4.72376 Y-2.98135 Z[#111+-0.04000]
#116=[#501+[#502-#501]*0.02238]
#117=[#508+[#509-#508]*0.02238]
#111=[#116+[#117-#116]*0.09548]
X4.72250 Y-2.98473 Z[#111+-0.04000]
#116=[#501+[#502-#501]*0.01474]
#117=[#508+[#509-#508]*0.01474]
#111=[#116+[#117-#116]*0.09134]
X4.72087 Y-2.98750 Z[#111+-0.04000]
#116=[#501+[#502-#501]*0.00714]
#117=[#508+[#509-#508]*0.00714]
#111=[#116+[#117-#116]*0.08538]
X4.71854 Y-2.99025 Z[#111+-0.04000]
#116=[#501+[#502-#501]*0.00084]
#117=[#508+[#509-#508]*0.00084]
#111=[#116+[#117-#116]*0.07823]
X4.71574 Y-2.99253 Z[#111+-0.04000]
#116=[#501+[#502-#501]*0.00000]
#117=[#508+[#509-#508]*0.00000]
#111=[#116+[#117-#116]*0.07680]
X4.71518 Y-2.99283 Z[#111+-0.04000]
#116=[#500+[#501-#500]*0.99607]
#117=[#507+[#508-#507]*0.99607]
#111=[#116+[#117-#116]*0.07015]
X4.71257 Y-2.99426 Z[#111+-0.04000]
#116=[#500+[#501-#500]*0.99297]
#117=[#507+[#508-#507]*0.99297]
#111=[#116+[#117-#116]*0.06139]
X4.70914 Y-2.99538 Z[#111+-0.04000]
#116=[#500+[#501-#500]*0.99165]
#117=[#507+[#508-#507]*0.99165]
#111=[#116+[#117-#116]*0.05226]
X4.70556 Y-2.99586 Z[#111+-0.04000]
#116=[#500+[#501-#500]*0.99171]
#117=[#507+[#508-#507]*0.99171]
#111=[#116+[#117-#116]*0.04714]
X4.70356 Y-2.99584 Z[#111+-0.04000]
#116=[#500+[#501-#500]*0.99233]
#117=[#507+[#508-#507]*0.99233]
#111=[#116+[#117-#116]*0.04204]
X4.70156 Y-2.99561 Z[#111+-0.04000]
#116=[#500+[#501-#500]*0.99351]
#117=[#507+[#508-#507]*0.99351]
#111=[#116+[#117-#116]*0.03704]
X4.69960 Y-2.99519 Z[#111+-0.04000]
#116=[#500+[#501-#500]*0.99523]
#117=[#507+[#508-#507]*0.99523]
#111=[#116+[#117-#116]*0.03217]
X4.69769 Y-2.99456 Z[#111+-0.04000]
#116=[#500+[#501-#500]*0.99965]
#117=[#507+[#508-#507]*0.99965]
#111=[#116+[#117-#116]*0.02391]
X4.69446 Y-2.99296 Z[#111+-0.04000]
#116=[#501+[#502-#501]*0.00000]
#117=[#508+[#509-#508]*0.00000]
#111=[#116+[#117-#116]*0.02343]
X4.69427 Y-2.99283 Z[#111+-0.04000]
#116=[#501+[#502-#501]*0.00278]
#117=[#508+[#509-#508]*0.00278]
#111=[#116+[#117-#116]*0.01969]
X4.69280 Y-2.99183 Z[#111+-0.04000]
#116=[#501+[#502-#501]*0.00637]
#117=[#508+[#509-#508]*0.00637]
#111=[#116+[#117-#116]*0.01578]
X4.69127 Y-2.99053 Z[#111+-0.04000]
#116=[#501+[#502-#501]*0.01037]
#117=[#508+[#509-#508]*0.01037]
#111=[#116+[#117-#116]*0.01223]
X4.68988 Y-2.98908 Z[#111+-0.04000]
#116=[#501+[#502-#501]*0.01474]
#117=[#508+[#509-#508]*0.01474]
#111=[#116+[#117-#116]*0.00908]
X4.68865 Y-2.98750 Z[#111+-0.04000]
#116=[#501+[#502-#501]*0.02339]
#117=[#508+[#509-#508]*0.02339]
#111=[#116+[#117-#116]*0.00450]
X4.68685 Y-2.98437 Z[#111+-0.04000]
#116=[#501+[#502-#501]*0.03280]
#117=[#508+[#509-#508]*0.03280]
#111=[#116+[#117-#116]*0.00146]
X4.68566 Y-2.98096 Z[#111+-0.04000]
#116=[#501+[#502-#501]*0.03823]
#117=[#508+[#509-#508]*0.03823]
#111=[#116+[#117-#116]*0.00047]
X4.68528 Y-2.97899 Z[#111+-0.04000]
#111=[#501+[#502-#501]*0.04376]
X4.68509 Y-2.97699 Z[#111+-0.04000]
G04 P0 ( dwell for no time -- G64 should not smooth over this point )
G00 Z0.08000 ( retract )

G00 X5.11368 Y-2.97739 ( rapid move to begin. )
G01 F180.00000
( Mill infeed pass 1/1 )
#116=[#508+[#509-#508]*0.04265]
#117=[#515+[#516-#515]*0.04265]
#111=[#116+[#117-#116]*0.09407]
G01 Z[-0.04000+#111]
G04 P0 ( dwell for no time -- G64 should not smooth over this point )
G01 F360.00000
#116=[#508+[#509-#508]*0.96993]
#117=[#515+[#516-#515]*0.96993]
#111=[#116+[#117-#116]*0.09407]
X5.11368 Y-2.64165 Z[#111+-0.04000]
#116=[#508+[#509-#508]*0.97653]
#117=[#515+[#516-#515]*0.97653]
#111=[#116+[#117-#116]*0.09482]
X5.11398 Y-2.63926 Z[#111+-0.04000]
#116=[#508+[#509-#508]*0.98404]
#117=[#515+[#516-#515]*0.98404]
#111=[#116+[#117-#116]*0.09663]
X5.11469 Y-2.63654 Z[#111+-0.04000]
#116=[#508+[#509-#508]*0.99119]
#117=[#515+[#516-#515]*0.99119]
#111=[#116+[#117-#116]*0.09941]
X5.11578 Y-2.63395 Z[#111+-0.04000]
#116=[#508+[#509-#508]*0.99693]
#117=[#515+[#516-#515]*0.99693]
#111=[#116+[#117-#116]*0.10252]
X5.11699 Y-2.63188 Z[#111+-0.04000]
#111=[#509+[#516-#509]*0.10469]
X5.11784 Y-2.63077 Z[#111+-0.04000]
#116=[#509+[#510-#509]*0.00221]
#117=[#516+[#517-#516]*0.00221]
#111=[#116+[#117-#116]*0.10625]
X5.11846 Y-2.62997 Z[#111+-0.04000]
#116=[#509+[#510-#509]*0.00696]
#117=[#516+[#517-#516]*0.00696]
#111=[#116+[#117-#116]*0.11055]
X5.12014 Y-2.62825 Z[#111+-0.04000]
#116=[#509+[#510-#509]*0.01173]
#117=[#516+[#517-#516]*0.01173]
#111=[#116+[#117-#116]*0.11620]
X5.12235 Y-2.62652 Z[#111+-0.04000]
#116=[#509+[#510-#509]*0.01510]
#117=[#516+[#517-#516]*0.01510]
#111=[#116+[#117-#116]*0.12151]
X5.12443 Y-2.62530 Z[#111+-0.04000]
#116=[#509+[#510-#509]*0.01774]
#117=[#516+[#517-#516]*0.01774]
#111=[#116+[#117-#116]*0.12715]
X5.12664 Y-2.62434 Z[#111+-0.04000]
#116=[#509+[#510-#509]*0.01985]
#117=[#516+[#517-#516]*0.01985]
#111=[#116+[#117-#116]*0.13405]
X5.12934 Y-2.62358 Z[#111+-0.04000]
#116=[#509+[#510-#509]*0.02079]
#117=[#516+[#517-#516]*0.02079]
#111=[#116+[#117-#116]*0.14013]
X5.13173 Y-2.62324 Z[#111+-0.04000]
#116=[#509+[#510-#509]*0.02093]
#117=[#516+[#517-#516]*0.02093]
#111=[#116+[#117-#116]*0.14628]
X5.13413 Y-2.62319 Z[#111+-0.04000]
#116=[#509+[#510-#509]*0.02006]
#117=[#516+[#517-#516]*0.02006]
#111=[#116+[#117-#116]*0.15340]
X5.13693 Y-2.62350 Z[#111+-0.04000]
#116=[#509+[#510-#509]*0.01845]
#117=[#516+[#517-#516]*0.01845]
#111=[#116+[#117-#116]*0.15937]
X5.13926 Y-2.62409 Z[#111+-0.04000]
#116=[#509+[#510-#509]*0.01559]
#117=[#516+[#517-#516]*0.01559]
#111=[#116+[#117-#116]*0.16603]
X5.14187 Y-2.62512 Z[#111+-0.04000]
#116=[#509+[#510-#509]*0.01234]
#117=[#516+[#517-#516]*0.01234]
#111=[#116+[#117-#116]*0.17140]
X5.14398 Y-2.62630 Z[#111+-0.04000]
#116=[#509+[#510-#509]*0.00911]
#117=[#516+[#517-#516]*0.00911]
#111=[#116+[#117-#116]*0.17556]
X5.14561 Y-2.62747 Z[#111+-0.04000]
#116=[#509+[#510-#509]*0.00544]
#117=[#516+[#517-#516]*0.00544]
#111=[#116+[#117-#116]*0.17940]
X5.14711 Y-2.62880 Z[#111+-0.04000]
#111=[#509+[#516-#509]*0.18367]
X5.14878 Y-2.63077 Z[#111+-0.04000]
#116=[#508+[#509-#508]*0.99784]
#117=[#515+[#516-#515]*0.99784]
#111=[#116+[#117-#116]*0.18536]
X5.14945 Y-2.63155 Z[#111+-0.04000]
#116=[#508+[#509-#508]*0.99315]
#117=[#515+[#516-#515]*0.99315]
#111=[#116+[#117-#116]*0.18809]
X5.15051 Y-2.63325 Z[#111+-0.04000]
#116=[#508+[#509-#508]*0.98818]
#117=[#515+[#516-#515]*0.98818]
#111=[#116+[#117-#116]*0.19036]
X5.15140 Y-2.63505 Z[#111+-0.04000]
#116=[#508+[#509-#508]*0.97870]
#117=[#515+[#516-#515]*0.97870]
#111=[#116+[#117-#116]*0.19322]
X5.15252 Y-2.63848 Z[#111+-0.04000]
#116=[#508+[#509-#508]*0.97324]
#117=[#515+[#516-#515]*0.97324]
#111=[#116+[#117-#116]*0.19410]
X5.15287 Y-2.64045 Z[#111+-0.04000]
#116=[#508+[#509-#508]*0.96771]
#117=[#515+[#516-#515]*0.96771]
#111=[#116+[#117-#116]*0.19447]
X5.15301 Y-2.64245 Z[#111+-0.04000]
#116=[#508+[#509-#508]*0.90058]
#117=[#515+[#516-#515]*0.90058]
#111=[#116+[#117-#116]*0.19448]
X5.15302 Y-2.66676 Z[#111+-0.04000]
#116=[#508+[#509-#508]*0.94006]
#117=[#515+[#516-#515]*0.94006]
#111=[#116+[#117-#116]*0.23098]
X5.16732 Y-2.65247 Z[#111+-0.04000]
#116=[#508+[#509-#508]*0.94364]
#117=[#515+[#516-#515]*0.94364]
#111=[#116+[#117-#116]*0.23479]
X5.16881 Y-2.65117 Z[#111+-0.04000]
#116=[#508+[#509-#508]*0.94736]
#117=[#515+[#516-#515]*0.94736]
#111=[#116+[#117-#116]*0.23978]
X5.17076 Y-2.64982 Z[#111+-0.04000]
#111=[#509+[#516-#509]*0.33681]
X5.20878 Y-2.63077 Z[#111+-0.04000]
#116=[#509+[#510-#509]*0.01571]
#117=[#516+[#517-#516]*0.01571]
#111=[#116+[#117-#116]*0.36578]
X5.22012 Y-2.62508 Z[#111+-0.04000]
#116=[#509+[#510-#509]*0.01817]
#117=[#516+[#517-#516]*0.01817]
#111=[#116+[#117-#116]*0.37142]
X5.22233 Y-2.62419 Z[#111+-0.04000]
#116=[#509+[#510-#509]*0.02008]
#117=[#516+[#517-#516]*0.02008]
#111=[#116+[#117-#116]*0.37828]
X5.22502 Y-2.62350 Z[#111+-0.04000]
#116=[#509+[#510-#509]*0.02098]
#117=[#516+[#517-#516]*0.02098]
#111=[#116+[#117-#116]*0.38735]
X5.22857 Y-2.62317 Z[#111+-0.04000]
#116=[#509+[#510-#509]*0.02098]
#117=[#516+[#517-#516]*0.02098]
#111=[#116+[#117-#116]*0.50890]
X5.27619 Y-2.62317 Z[#111+-0.04000]
#116=[#509+[#510-#509]*0.02057]
#117=[#516+[#517-#516]*0.02057]
#111=[#116+[#117-#116]*0.51504]
X5.27859 Y-2.62332 Z[#111+-0.04000]
#116=[#509+[#510-#509]*0.01935]
#117=[#516+[#517-#516]*0.01935]
#111=[#116+[#117-#116]*0.52108]
X5.28096 Y-2.62376 Z[#111+-0.04000]
#116=[#509+[#510-#509]*0.01694]
#117=[#516+[#517-#516]*0.01694]
#111=[#116+[#117-#116]*0.52790]
X5.28363 Y-2.62463 Z[#111+-0.04000]
#116=[#509+[#510-#509]*0.01293]
#117=[#516+[#517-#516]*0.01293]
#111=[#116+[#117-#116]*0.53520]
X5.28649 Y-2.62608 Z[#111+-0.04000]
#116=[#509+[#510-#509]*0.00769]
#117=[#516+[#517-#516]*0.00769]
#111=[#116+[#117-#116]*0.54181]
X5.28908 Y-2.62798 Z[#111+-0.04000]
#116=[#509+[#510-#509]*0.00136]
#117=[#516+[#517-#516]*0.00136]
#111=[#116+[#117-#116]*0.54754]
X5.29133 Y-2.63027 Z[#111+-0.04000]
#111=[#509+[#516-#509]*0.54843]
X5.29167 Y-2.63077 Z[#111+-0.04000]
#116=[#508+[#509-#508]*0.99411]
#117=[#515+[#516-#515]*0.99411]
#111=[#116+[#117-#116]*0.55225]
X5.29317 Y-2.63290 Z[#111+-0.04000]
#116=[#508+[#509-#508]*0.98612]
#117=[#515+[#516-#515]*0.98612]
#111=[#116+[#117-#116]*0.55580]
X5.29456 Y-2.63579 Z[#111+-0.04000]
#116=[#508+[#509-#508]*0.97762]
#117=[#515+[#516-#515]*0.97762]
#111=[#116+[#117-#116]*0.55811]
X5.29547 Y-2.63887 Z[#111+-0.04000]
#116=[#508+[#509-#508]*0.96993]
#117=[#515+[#516-#515]*0.96993]
#111=[#116+[#117-#116]*0.55906]
X5.29584 Y-2.64165 Z[#111+-0.04000]
#116=[#508+[#509-#508]*0.96107]
#117=[#515+[#516-#515]*0.96107]
#111=[#116+[#117-#116]*0.55889]
X5.29577 Y-2.64486 Z[#111+-0.04000]
#116=[#508+[#509-#508]*0.95343]
#117=[#515+[#516-#515]*0.95343]
#111=[#116+[#117-#116]*0.55765]
X5.29529 Y-2.64763 Z[#111+-0.04000]
#116=[#508+[#509-#508]*0.94606]
#117=[#515+[#516-#515]*0.94606]
#111=[#116+[#117-#116]*0.55542]
X5.29441 Y-2.65030 Z[#111+-0.04000]
#116=[#508+[#509-#508]*0.93815]
#117=[#515+[#516-#515]*0.93815]
#111=[#116+[#117-#116]*0.55172]
X5.29296 Y-2.65316 Z[#111+-0.04000]
#116=[#508+[#509-#508]*0.93100]
#117=[#515+[#516-#515]*0.93100]
#111=[#116+[#117-#116]*0.54688]
X5.29107 Y-2.65575 Z[#111+-0.04000]
#116=[#508+[#509-#508]*0.92480]
#117=[#515+[#516-#515]*0.92480]
#111=[#116+[#117-#116]*0.54103]
X5.28877 Y-2.65799 Z[#111+-0.04000]
#116=[#508+[#509-#508]*0.92028]
#117=[#515+[#516-#515]*0.92028]
#111=[#116+[#117-#116]*0.53520]
X5.28649 Y-2.65963 Z[#111+-0.04000]
#116=[#508+[#509-#508]*0.91627]
#117=[#515+[#516-#515]*0.91627]
#111=[#116+[#117-#116]*0.52790]
X5.28363 Y-2.66108 Z[#111+-0.04000]
#116=[#508+[#509-#508]*0.91337]
#117=[#515+[#516-#515]*0.91337]
#111=[#116+[#117-#116]*0.51908]
X5.28018 Y-2.66213 Z[#111+-0.04000]
#116=[#508+[#509-#508]*0.91225]
#117=[#515+[#516-#515]*0.91225]
#111=[#116+[#117-#116]*0.50993]
X5.27659 Y-2.66254 Z[#111+-0.04000]
#116=[#508+[#509-#508]*0.91224]
#117=[#515+[#516-#515]*0.91224]
#111=[#116+[#117-#116]*0.39921]
X5.23322 Y-2.66254 Z[#111+-0.04000]
#116=[#508+[#509-#508]*0.85616]
#117=[#515+[#516-#515]*0.85616]
#111=[#116+[#117-#116]*0.29555]
X5.19261 Y-2.68284 Z[#111+-0.04000]
#116=[#508+[#509-#508]*0.80288]
#117=[#515+[#516-#515]*0.80288]
#111=[#116+[#117-#116]*0.24631]
X5.17332 Y-2.70214 Z[#111+-0.04000]
#116=[#508+[#509-#508]*0.69073]
#117=[#515+[#516-#515]*0.69073]
#111=[#116+[#117-#116]*0.19448]
X5.15302 Y-2.74274 Z[#111+-0.04000]
#116=[#508+[#509-#508]*0.04154]
#117=[#515+[#516-#515]*0.04154]
#111=[#116+[#117-#116]*0.19431]
X5.15295 Y-2.97779 Z[#111+-0.04000]
#116=[#508+[#509-#508]*0.03172]
#117=[#515+[#516-#515]*0.03172]
#111=[#116+[#117-#116]*0.19272]
X5.15233 Y-2.98135 Z[#111+-0.04000]
#116=[#508+[#509-#508]*0.02238]
#117=[#515+[#516-#515]*0.02238]
#111=[#116+[#117-#116]*0.18950]
X5.15107 Y-2.98473 Z[#111+-0.04000]
#116=[#508+[#509-#508]*0.01474]
#117=[#515+[#516-#515]*0.01474]
#111=[#116+[#117-#116]*0.18536]
X5.14945 Y-2.98750 Z[#111+-0.04000]
#116=[#508+[#509-#508]*0.00714]
#117=[#515+[#516-#515]*0.00714]
#111=[#116+[#117-#116]*0.17940]
X5.14711 Y-2.99025 Z[#111+-0.04000]
#116=[#508+[#509-#508]*0.00084]
#117=[#515+[#516-#515]*0.00084]
#111=[#116+[#117-#116]*0.17225]
X5.14431 Y-2.99253 Z[#111+-0.04000]
#116=[#508+[#509-#508]*0.00000]
#117=[#515+[#516-#515]*0.00000]
#111=[#116+[#117-#116]*0.17082]
X5.14375 Y-2.99283 Z[#111+-0.04000]
#116=[#507+[#508-#507]*0.99607]
#117=[#514+[#515-#514]*0.99607]
#111=[#116+[#117-#116]*0.16417]
X5.14114 Y-2.99426 Z[#111+-0.04000]
#116=[#507+[#508-#507]*0.99322]
#117=[#514+[#515-#514]*0.99322]
#111=[#116+[#117-#116]*0.15641]
X5.13810 Y-2.99529 Z[#111+-0.04000]
#116=[#507+[#508-#507]*0.99171]
#117=[#514+[#515-#514]*0.99171]
#111=[#116+[#117-#116]*0.14730]
X5.13454 Y-2.99584 Z[#111+-0.04000]
#116=[#507+[#508-#507]*0.99165]
#117=[#514+[#515-#514]*0.99165]
#111=[#116+[#117-#116]*0.14218]
X5.13253 Y-2.99586 Z[#111+-0.04000]
#116=[#507+[#508-#507]*0.99216]
#117=[#514+[#515-#514]*0.99216]
#111=[#116+[#117-#116]*0.13708]
X5.13053 Y-2.99567 Z[#111+-0.04000]
#116=[#507+[#508-#507]*0.99322]
#117=[#514+[#515-#514]*0.99322]
#111=[#116+[#117-#116]*0.13205]
X5.12856 Y-2.99529 Z[#111+-0.04000]
#116=[#507+[#508-#507]*0.99484]
#117=[#514+[#515-#514]*0.99484]
#111=[#116+[#117-#116]*0.12715]
X5.12664 Y-2.99470 Z[#111+-0.04000]
#116=[#507+[#508-#507]*0.99699]
#117=[#514+[#515-#514]*0.99699]
#111=[#116+[#117-#116]*0.12242]
X5.12479 Y-2.99392 Z[#111+-0.04000]
#116=[#507+[#508-#507]*0.99965]
#117=[#514+[#515-#514]*0.99965]
#111=[#116+[#117-#116]*0.11793]
X5.12303 Y-2.99296 Z[#111+-0.04000]
#116=[#508+[#509-#508]*0.00000]
#117=[#515+[#516-#515]*0.00000]
#111=[#116+[#117-#116]*0.11749]
X5.12286 Y-2.99283 Z[#111+-0.04000]
#116=[#508+[#509-#508]*0.00562]
#117=[#515+[#516-#515]*0.00562]
#111=[#116+[#117-#116]*0.11055]
X5.12014 Y-2.99080 Z[#111+-0.04000]
#116=[#508+[#509-#508]*0.01295]
#117=[#515+[#516-#515]*0.01295]
#111=[#116+[#117-#116]*0.10431]
X5.11770 Y-2.98815 Z[#111+-0.04000]
#116=[#508+[#509-#508]*0.01752]
#117=[#515+[#516-#515]*0.01752]
#111=[#116+[#117-#116]*0.10141]
X5.11656 Y-2.98649 Z[#111+-0.04000]
#116=[#508+[#509-#508]*0.02238]
#117=[#515+[#516-#515]*0.02238]
#111=[#116+[#117-#116]*0.09896]
X5.11560 Y-2.98473 Z[#111+-0.04000]
#116=[#508+[#509-#508]*0.03172]
#117=[#515+[#516-#515]*0.03172]
#111=[#116+[#117-#116]*0.09574]
X5.11434 Y-2.98135 Z[#111+-0.04000]
#116=[#508+[#509-#508]*0.03714]
#117=[#515+[#516-#515]*0.03714]
#111=[#116+[#117-#116]*0.09465]
X5.11391 Y-2.97939 Z[#111+-0.04000]
#116=[#508+[#509-#508]*0.04265]
#117=[#515+[#516-#515]*0.04265]
#111=[#116+[#117-#116]*0.09407]
X5.11368 Y-2.97739 Z[#111+-0.04000]
G04 P0 ( dwell for no time -- G64 should not smooth over this point )
G00 Z0.08000 ( retract )

G00 X5.39936 Y-2.88095 ( rapid move to begin. )
G01 F180.00000
( Mill infeed pass 1/1 )
#116=[#508+[#509-#508]*0.30901]
#117=[#515+[#516-#515]*0.30901]
#111=[#116+[#117-#116]*0.82332]
G01 Z[-0.04000+#111]
G04 P0 ( dwell for no time -- G64 should not smooth over this point )
G01 F360.00000
#116=[#508+[#509-#508]*0.70357]
#117=[#515+[#516-#515]*0.70357]
#111=[#116+[#117-#116]*0.82332]
X5.39936 Y-2.73809 Z[#111+-0.04000]
#116=[#508+[#509-#508]*0.70904]
#117=[#515+[#516-#515]*0.70904]
#111=[#116+[#117-#116]*0.82358]
X5.39946 Y-2.73611 Z[#111+-0.04000]
#116=[#508+[#509-#508]*0.71553]
#117=[#515+[#516-#515]*0.71553]
#111=[#116+[#117-#116]*0.82455]
X5.39984 Y-2.73377 Z[#111+-0.04000]
#116=[#508+[#509-#508]*0.72184]
#117=[#515+[#516-#515]*0.72184]
#111=[#116+[#117-#116]*0.82625]
X5.40051 Y-2.73148 Z[#111+-0.04000]
#116=[#508+[#509-#508]*0.72788]
#117=[#515+[#516-#515]*0.72788]
#111=[#116+[#117-#116]*0.82863]
X5.40144 Y-2.72929 Z[#111+-0.04000]
#116=[#508+[#509-#508]*0.85940]
#117=[#515+[#516-#515]*0.85940]
#111=[#116+[#117-#116]*0.88941]
X5.42525 Y-2.68167 Z[#111+-0.04000]
#116=[#508+[#509-#508]*0.86508]
#117=[#515+[#516-#515]*0.86508]
#111=[#116+[#117-#116]*0.89244]
X5.42644 Y-2.67962 Z[#111+-0.04000]
#116=[#508+[#509-#508]*0.87353]
#117=[#515+[#516-#515]*0.87353]
#111=[#116+[#117-#116]*0.89882]
X5.42894 Y-2.67656 Z[#111+-0.04000]
#116=[#508+[#509-#508]*0.93929]
#117=[#515+[#516-#515]*0.93929]
#111=[#116+[#117-#116]*0.95960]
X5.45275 Y-2.65275 Z[#111+-0.04000]
#116=[#508+[#509-#508]*0.94364]
#117=[#515+[#516-#515]*0.94364]
#111=[#116+[#117-#116]*0.96414]
X5.45452 Y-2.65117 Z[#111+-0.04000]
#116=[#508+[#509-#508]*0.94947]
#117=[#515+[#516-#515]*0.94947]
#111=[#116+[#117-#116]*0.97266]
X5.45786 Y-2.64906 Z[#111+-0.04000]
#111=[#515+[#516-#515]*0.96427]
X5.46857 Y-2.64370 Z[#111+-0.04000]
#111=[#516+[#523-#516]*0.06606]
X5.49445 Y-2.63077 Z[#111+-0.04000]
#116=[#516+[#517-#516]*0.01523]
#117=[#523+[#524-#523]*0.01523]
#111=[#116+[#117-#116]*0.09422]
X5.50548 Y-2.62525 Z[#111+-0.04000]
#116=[#516+[#517-#516]*0.01817]
#117=[#523+[#524-#523]*0.01817]
#111=[#116+[#117-#116]*0.10076]
X5.50805 Y-2.62419 Z[#111+-0.04000]
#116=[#516+[#517-#516]*0.01987]
#117=[#523+[#524-#523]*0.01987]
#111=[#116+[#117-#116]*0.10663]
X5.51034 Y-2.62357 Z[#111+-0.04000]
#116=[#516+[#517-#516]*0.02098]
#117=[#523+[#524-#523]*0.02098]
#111=[#116+[#117-#116]*0.11669]
X5.51429 Y-2.62317 Z[#111+-0.04000]
#116=[#516+[#517-#516]*0.02098]
#117=[#523+[#524-#523]*0.02098]
#111=[#116+[#117-#116]*0.29903]
X5.58571 Y-2.62317 Z[#111+-0.04000]
#116=[#516+[#517-#516]*0.02058]
#117=[#523+[#524-#523]*0.02058]
#111=[#116+[#117-#116]*0.30509]
X5.58809 Y-2.62331 Z[#111+-0.04000]
#116=[#516+[#517-#516]*0.01882]
#117=[#523+[#524-#523]*0.01882]
#111=[#116+[#117-#116]*0.31302]
X5.59119 Y-2.62395 Z[#111+-0.04000]
#116=[#516+[#517-#516]*0.01571]
#117=[#523+[#524-#523]*0.01571]
#111=[#116+[#117-#116]*0.32059]
X5.59416 Y-2.62508 Z[#111+-0.04000]
#111=[#516+[#523-#516]*0.34964]
X5.60554 Y-2.63077 Z[#111+-0.04000]
#116=[#515+[#516-#515]*0.94947]
#117=[#522+[#523-#522]*0.94947]
#111=[#116+[#117-#116]*0.44306]
X5.64214 Y-2.64906 Z[#111+-0.04000]
#116=[#515+[#516-#515]*0.94620]
#117=[#522+[#523-#522]*0.94620]
#111=[#116+[#117-#116]*0.44830]
X5.64419 Y-2.65025 Z[#111+-0.04000]
#116=[#515+[#516-#515]*0.93929]
#117=[#522+[#523-#522]*0.93929]
#111=[#116+[#117-#116]*0.45612]
X5.64725 Y-2.65275 Z[#111+-0.04000]
#116=[#515+[#516-#515]*0.87353]
#117=[#522+[#523-#522]*0.87353]
#111=[#116+[#117-#116]*0.51690]
X5.67106 Y-2.67656 Z[#111+-0.04000]
#116=[#515+[#516-#515]*0.86862]
#117=[#522+[#523-#522]*0.86862]
#111=[#116+[#117-#116]*0.52091]
X5.67263 Y-2.67833 Z[#111+-0.04000]
#116=[#515+[#516-#515]*0.85940]
#117=[#522+[#523-#522]*0.85940]
#111=[#116+[#117-#116]*0.52631]
X5.67475 Y-2.68167 Z[#111+-0.04000]
#116=[#515+[#516-#515]*0.72788]
#117=[#522+[#523-#522]*0.72788]
#111=[#116+[#117-#116]*0.58709]
X5.69856 Y-2.72929 Z[#111+-0.04000]
#116=[#515+[#516-#515]*0.71976]
#117=[#522+[#523-#522]*0.71976]
#111=[#116+[#117-#116]*0.59011]
X5.69974 Y-2.73223 Z[#111+-0.04000]
#116=[#515+[#516-#515]*0.71121]
#117=[#522+[#523-#522]*0.71121]
#111=[#116+[#117-#116]*0.59189]
X5.70044 Y-2.73533 Z[#111+-0.04000]
#116=[#515+[#516-#515]*0.70357]
#117=[#522+[#523-#522]*0.70357]
#111=[#116+[#117-#116]*0.59239]
X5.70064 Y-2.73809 Z[#111+-0.04000]
#116=[#515+[#516-#515]*0.30354]
#117=[#522+[#523-#522]*0.30354]
#111=[#116+[#117-#116]*0.59214]
X5.70054 Y-2.88293 Z[#111+-0.04000]
#116=[#515+[#516-#515]*0.29387]
#117=[#522+[#523-#522]*0.29387]
#111=[#116+[#117-#116]*0.59041]
X5.69986 Y-2.88643 Z[#111+-0.04000]
#116=[#515+[#516-#515]*0.28568]
#117=[#522+[#523-#522]*0.28568]
#111=[#116+[#117-#116]*0.58753]
X5.69873 Y-2.88940 Z[#111+-0.04000]
#116=[#515+[#516-#515]*0.15318]
#117=[#522+[#523-#522]*0.15318]
#111=[#116+[#117-#116]*0.52631]
X5.67475 Y-2.93737 Z[#111+-0.04000]
#116=[#515+[#516-#515]*0.14750]
#117=[#522+[#523-#522]*0.14750]
#111=[#116+[#117-#116]*0.52328]
X5.67356 Y-2.93943 Z[#111+-0.04000]
#116=[#515+[#516-#515]*0.13905]
#117=[#522+[#523-#522]*0.13905]
#111=[#116+[#117-#116]*0.51690]
X5.67106 Y-2.94249 Z[#111+-0.04000]
#116=[#515+[#516-#515]*0.07329]
#117=[#522+[#523-#522]*0.07329]
#111=[#116+[#117-#116]*0.45612]
X5.64725 Y-2.96630 Z[#111+-0.04000]
#116=[#515+[#516-#515]*0.06894]
#117=[#522+[#523-#522]*0.06894]
#111=[#116+[#117-#116]*0.45158]
X5.64548 Y-2.96787 Z[#111+-0.04000]
#116=[#515+[#516-#515]*0.06311]
#117=[#522+[#523-#522]*0.06311]
#111=[#116+[#117-#116]*0.44306]
X5.64214 Y-2.96999 Z[#111+-0.04000]
#116=[#515+[#516-#515]*0.00000]
#117=[#522+[#523-#522]*0.00000]
#111=[#116+[#117-#116]*0.32641]
X5.59644 Y-2.99283 Z[#111+-0.04000]
#116=[#514+[#515-#514]*0.99735]
#117=[#521+[#522-#521]*0.99735]
#111=[#116+[#117-#116]*0.32150]
X5.59452 Y-2.99380 Z[#111+-0.04000]
#116=[#514+[#515-#514]*0.99477]
#117=[#521+[#522-#521]*0.99477]
#111=[#116+[#117-#116]*0.31591]
X5.59233 Y-2.99473 Z[#111+-0.04000]
#116=[#514+[#515-#514]*0.99271]
#117=[#521+[#522-#521]*0.99271]
#111=[#116+[#117-#116]*0.30909]
X5.58965 Y-2.99548 Z[#111+-0.04000]
#116=[#514+[#515-#514]*0.99160]
#117=[#521+[#522-#521]*0.99160]
#111=[#116+[#117-#116]*0.29903]
X5.58571 Y-2.99587 Z[#111+-0.04000]
#116=[#514+[#515-#514]*0.99160]
#117=[#521+[#522-#521]*0.99160]
#111=[#116+[#117-#116]*0.11669]
X5.51429 Y-2.99587 Z[#111+-0.04000]
#116=[#514+[#515-#514]*0.99231]
#117=[#521+[#522-#521]*0.99231]
#111=[#116+[#117-#116]*0.10862]
X5.51112 Y-2.99562 Z[#111+-0.04000]
#116=[#514+[#515-#514]*0.99441]
#117=[#521+[#522-#521]*0.99441]
#111=[#116+[#117-#116]*0.10076]
X5.50805 Y-2.99486 Z[#111+-0.04000]
#116=[#514+[#515-#514]*0.99735]
#117=[#521+[#522-#521]*0.99735]
#111=[#116+[#117-#116]*0.09422]
X5.50548 Y-2.99380 Z[#111+-0.04000]
#116=[#515+[#516-#515]*0.00000]
#117=[#522+[#523-#522]*0.00000]
#111=[#116+[#117-#116]*0.08931]
X5.50356 Y-2.99283 Z[#111+-0.04000]
#111=[#515+[#516-#515]*0.04832]
X5.46857 Y-2.97534 Z[#111+-0.04000]
#116=[#508+[#509-#508]*0.06360]
#117=[#515+[#516-#515]*0.06360]
#111=[#116+[#117-#116]*0.97176]
X5.45751 Y-2.96981 Z[#111+-0.04000]
#116=[#508+[#509-#508]*0.06828]
#117=[#515+[#516-#515]*0.06828]
#111=[#116+[#117-#116]*0.96494]
X5.45484 Y-2.96811 Z[#111+-0.04000]
#116=[#508+[#509-#508]*0.07329]
#117=[#515+[#516-#515]*0.07329]
#111=[#116+[#117-#116]*0.95960]
X5.45275 Y-2.96630 Z[#111+-0.04000]
#116=[#508+[#509-#508]*0.13983]
#117=[#515+[#516-#515]*0.13983]
#111=[#116+[#117-#116]*0.89812]
X5.42866 Y-2.94221 Z[#111+-0.04000]
#116=[#508+[#509-#508]*0.14750]
#117=[#515+[#516-#515]*0.14750]
#111=[#116+[#117-#116]*0.89244]
X5.42644 Y-2.93943 Z[#111+-0.04000]
#116=[#508+[#509-#508]*0.15318]
#117=[#515+[#516-#515]*0.15318]
#111=[#116+[#117-#116]*0.88941]
X5.42525 Y-2.93737 Z[#111+-0.04000]
#116=[#508+[#509-#508]*0.28768]
#117=[#515+[#516-#515]*0.28768]
#111=[#116+[#117-#116]*0.82735]
X5.40094 Y-2.88868 Z[#111+-0.04000]
#116=[#508+[#509-#508]*0.29812]
#117=[#515+[#516-#515]*0.29812]
#111=[#116+[#117-#116]*0.82434]
X5.39976 Y-2.88489 Z[#111+-0.04000]
#116=[#508+[#509-#508]*0.30901]
#117=[#515+[#516-#515]*0.30901]
#111=[#116+[#117-#116]*0.82332]
X5.39936 Y-2.88095 Z[#111+-0.04000]
G04 P0 ( dwell for no time -- G64 should not smooth over this point )
G00 Z0.08000 ( retract )

G00 X5.43873 Y-2.87630 ( rapid move to begin. )
G01 F180.00000
( Mill infeed pass 1/1 )
#116=[#508+[#509-#508]*0.32185]
#117=[#515+[#516-#515]*0.32185]
#111=[#116+[#117-#116]*0.92383]
G01 Z[-0.04000+#111]
G04 P0 ( dwell for no time -- G64 should not smooth over this point )
G01 F360.00000
#116=[#508+[#509-#508]*0.69073]
#117=[#515+[#516-#515]*0.69073]
#111=[#116+[#117-#116]*0.92383]
X5.43873 Y-2.74274 Z[#111+-0.04000]
#116=[#508+[#509-#508]*0.80288]
#117=[#515+[#516-#515]*0.80288]
#111=[#116+[#117-#116]*0.97565]
X5.45904 Y-2.70214 Z[#111+-0.04000]
#111=[#515+[#516-#515]*0.82922]
X5.46857 Y-2.69260 Z[#111+-0.04000]
#116=[#515+[#516-#515]*0.85616]
#117=[#522+[#523-#522]*0.85616]
#111=[#116+[#117-#116]*0.02490]
X5.47833 Y-2.68284 Z[#111+-0.04000]
#116=[#515+[#516-#515]*0.91224]
#117=[#522+[#523-#522]*0.91224]
#111=[#116+[#117-#116]*0.12855]
X5.51893 Y-2.66254 Z[#111+-0.04000]
#116=[#515+[#516-#515]*0.91224]
#117=[#522+[#523-#522]*0.91224]
#111=[#116+[#117-#116]*0.28717]
X5.58107 Y-2.66254 Z[#111+-0.04000]
#116=[#515+[#516-#515]*0.85616]
#117=[#522+[#523-#522]*0.85616]
#111=[#116+[#117-#116]*0.39082]
X5.62167 Y-2.68284 Z[#111+-0.04000]
#116=[#515+[#516-#515]*0.80288]
#117=[#522+[#523-#522]*0.80288]
#111=[#116+[#117-#116]*0.44006]
X5.64096 Y-2.70214 Z[#111+-0.04000]
#116=[#515+[#516-#515]*0.69073]
#117=[#522+[#523-#522]*0.69073]
#111=[#116+[#117-#116]*0.49189]
X5.66127 Y-2.74274 Z[#111+-0.04000]
#116=[#515+[#516-#515]*0.32185]
#117=[#522+[#523-#522]*0.32185]
#111=[#116+[#117-#116]*0.49189]
X5.66127 Y-2.87630 Z[#111+-0.04000]
#116=[#515+[#516-#515]*0.20970]
#117=[#522+[#523-#522]*0.20970]
#111=[#116+[#117-#116]*0.44006]
X5.64096 Y-2.91691 Z[#111+-0.04000]
#116=[#515+[#516-#515]*0.15642]
#117=[#522+[#523-#522]*0.15642]
#111=[#116+[#117-#116]*0.39082]
X5.62167 Y-2.93620 Z[#111+-0.04000]
#116=[#515+[#516-#515]*0.10034]
#117=[#522+[#523-#522]*0.10034]
#111=[#116+[#117-#116]*0.28716]
X5.58107 Y-2.95650 Z[#111+-0.04000]
#116=[#515+[#516-#515]*0.10034]
#117=[#522+[#523-#522]*0.10034]
#111=[#116+[#117-#116]*0.12855]
X5.51893 Y-2.95650 Z[#111+-0.04000]
#116=[#515+[#516-#515]*0.15642]
#117=[#522+[#523-#522]*0.15642]
#111=[#116+[#117-#116]*0.02490]
X5.47833 Y-2.93620 Z[#111+-0.04000]
#111=[#515+[#516-#515]*0.18336]
X5.46857 Y-2.92645 Z[#111+-0.04000]
#116=[#508+[#509-#508]*0.20970]
#117=[#515+[#516-#515]*0.20970]
#111=[#116+[#117-#116]*0.97565]
X5.45904 Y-2.91691 Z[#111+-0.04000]
#116=[#508+[#509-#508]*0.32185]
#117=[#515+[#516-#515]*0.32185]
#111=[#116+[#117-#116]*0.92383]
X5.43873 Y-2.87630 Z[#111+-0.04000]
G04 P0 ( dwell for no time -- G64 should not smooth over this point )
G00 Z0.08000 ( retract )

G00 X5.87556 Y-2.97659 ( rapid move to begin. )
G01 F180.00000
( Mill infeed pass 1/1 )
#116=[#522+[#523-#522]*0.04486]
#117=[#529+[#530-#529]*0.04486]
#111=[#116+[#117-#116]*0.03891]
G01 Z[-0.04000+#111]
G04 P0 ( dwell for no time -- G64 should not smooth over this point )
G01 F360.00000
#116=[#522+[#523-#522]*0.96882]
#117=[#529+[#530-#529]*0.96882]
#111=[#116+[#117-#116]*0.03895]
X5.87557 Y-2.64205 Z[#111+-0.04000]
#116=[#522+[#523-#522]*0.97762]
#117=[#529+[#530-#529]*0.97762]
#111=[#116+[#117-#116]*0.03995]
X5.87596 Y-2.63887 Z[#111+-0.04000]
#116=[#522+[#523-#522]*0.98716]
#117=[#529+[#530-#529]*0.98716]
#111=[#116+[#117-#116]*0.04263]
X5.87701 Y-2.63542 Z[#111+-0.04000]
#116=[#522+[#523-#522]*0.99600]
#117=[#529+[#530-#529]*0.99600]
#111=[#116+[#117-#116]*0.04688]
X5.87868 Y-2.63221 Z[#111+-0.04000]
#111=[#523+[#530-#523]*0.04977]
X5.87981 Y-2.63077 Z[#111+-0.04000]
#116=[#523+[#524-#523]*0.00386]
#117=[#530+[#531-#530]*0.00386]
#111=[#116+[#117-#116]*0.05255]
X5.88090 Y-2.62937 Z[#111+-0.04000]
#116=[#523+[#524-#523]*0.00979]
#117=[#530+[#531-#530]*0.00979]
#111=[#116+[#117-#116]*0.05863]
X5.88328 Y-2.62722 Z[#111+-0.04000]
#116=[#523+[#524-#523]*0.01510]
#117=[#530+[#531-#530]*0.01510]
#111=[#116+[#117-#116]*0.06643]
X5.88634 Y-2.62530 Z[#111+-0.04000]
#116=[#523+[#524-#523]*0.01877]
#117=[#530+[#531-#530]*0.01877]
#111=[#116+[#117-#116]*0.07500]
X5.88969 Y-2.62397 Z[#111+-0.04000]
#116=[#523+[#524-#523]*0.02057]
#117=[#530+[#531-#530]*0.02057]
#111=[#116+[#117-#116]*0.08302]
X5.89283 Y-2.62332 Z[#111+-0.04000]
#116=[#523+[#524-#523]*0.02098]
#117=[#530+[#531-#530]*0.02098]
#111=[#116+[#117-#116]*0.08915]
X5.89524 Y-2.62317 Z[#111+-0.04000]
#116=[#523+[#524-#523]*0.02057]
#117=[#530+[#531-#530]*0.02057]
#111=[#116+[#117-#116]*0.09529]
X5.89764 Y-2.62332 Z[#111+-0.04000]
#116=[#523+[#524-#523]*0.01935]
#117=[#530+[#531-#530]*0.01935]
#111=[#116+[#117-#116]*0.10133]
X5.90001 Y-2.62376 Z[#111+-0.04000]
#116=[#523+[#524-#523]*0.01774]
#117=[#530+[#531-#530]*0.01774]
#111=[#116+[#117-#116]*0.10623]
X5.90193 Y-2.62434 Z[#111+-0.04000]
#116=[#523+[#524-#523]*0.01510]
#117=[#530+[#531-#530]*0.01510]
#111=[#116+[#117-#116]*0.11188]
X5.90414 Y-2.62530 Z[#111+-0.04000]
#116=[#523+[#524-#523]*0.01173]
#117=[#530+[#531-#530]*0.01173]
#111=[#116+[#117-#116]*0.11718]
X5.90622 Y-2.62652 Z[#111+-0.04000]
#116=[#523+[#524-#523]*0.00841]
#117=[#530+[#531-#530]*0.00841]
#111=[#116+[#117-#116]*0.12128]
X5.90782 Y-2.62772 Z[#111+-0.04000]
#116=[#523+[#524-#523]*0.00386]
#117=[#530+[#531-#530]*0.00386]
#111=[#116+[#117-#116]*0.12576]
X5.90958 Y-2.62937 Z[#111+-0.04000]
#111=[#523+[#530-#523]*0.12878]
X5.91076 Y-2.63077 Z[#111+-0.04000]
#116=[#522+[#523-#522]*0.99963]
#117=[#529+[#530-#529]*0.99963]
#111=[#116+[#117-#116]*0.12907]
X5.91087 Y-2.63090 Z[#111+-0.04000]
#116=[#522+[#523-#522]*0.99411]
#117=[#529+[#530-#529]*0.99411]
#111=[#116+[#117-#116]*0.13250]
X5.91222 Y-2.63290 Z[#111+-0.04000]
#116=[#522+[#523-#522]*0.98818]
#117=[#529+[#530-#529]*0.98818]
#111=[#116+[#117-#116]*0.13528]
X5.91331 Y-2.63505 Z[#111+-0.04000]
#116=[#522+[#523-#522]*0.98299]
#117=[#529+[#530-#529]*0.98299]
#111=[#116+[#117-#116]*0.13707]
X5.91401 Y-2.63693 Z[#111+-0.04000]
#116=[#522+[#523-#522]*0.97762]
#117=[#529+[#530-#529]*0.97762]
#111=[#116+[#117-#116]*0.13836]
X5.91451 Y-2.63887 Z[#111+-0.04000]
#116=[#522+[#523-#522]*0.97214]
#117=[#529+[#530-#529]*0.97214]
#111=[#116+[#117-#116]*0.13914]
X5.91482 Y-2.64085 Z[#111+-0.04000]
#116=[#522+[#523-#522]*0.95594]
#117=[#529+[#530-#529]*0.95594]
#111=[#116+[#117-#116]*0.13940]
X5.91492 Y-2.64672 Z[#111+-0.04000]
#111=[#523+[#530-#523]*0.22087]
X5.94684 Y-2.63077 Z[#111+-0.04000]
#116=[#523+[#524-#523]*0.01571]
#117=[#530+[#531-#530]*0.01571]
#111=[#116+[#117-#116]*0.24993]
X5.95822 Y-2.62508 Z[#111+-0.04000]
#116=[#523+[#524-#523]*0.01817]
#117=[#530+[#531-#530]*0.01817]
#111=[#116+[#117-#116]*0.25556]
X5.96043 Y-2.62419 Z[#111+-0.04000]
#116=[#523+[#524-#523]*0.02008]
#117=[#530+[#531-#530]*0.02008]
#111=[#116+[#117-#116]*0.26242]
X5.96311 Y-2.62350 Z[#111+-0.04000]
#116=[#523+[#524-#523]*0.02098]
#117=[#530+[#531-#530]*0.02098]
#111=[#116+[#117-#116]*0.27149]
X5.96667 Y-2.62317 Z[#111+-0.04000]
#116=[#523+[#524-#523]*0.02088]
#117=[#530+[#531-#530]*0.02088]
#111=[#116+[#117-#116]*0.45686]
X6.03928 Y-2.62321 Z[#111+-0.04000]
#116=[#523+[#524-#523]*0.01939]
#117=[#530+[#531-#530]*0.01939]
#111=[#116+[#117-#116]*0.46586]
X6.04281 Y-2.62374 Z[#111+-0.04000]
#116=[#523+[#524-#523]*0.01571]
#117=[#530+[#531-#530]*0.01571]
#111=[#116+[#117-#116]*0.47539]
X6.04654 Y-2.62508 Z[#111+-0.04000]
#111=[#523+[#530-#523]*0.50444]
X6.05792 Y-2.63077 Z[#111+-0.04000]
#116=[#522+[#523-#522]*0.94898]
#117=[#529+[#530-#529]*0.94898]
#111=[#116+[#117-#116]*0.59875]
X6.09487 Y-2.64924 Z[#111+-0.04000]
#116=[#522+[#523-#522]*0.94558]
#117=[#529+[#530-#529]*0.94558]
#111=[#116+[#117-#116]*0.60394]
X6.09690 Y-2.65047 Z[#111+-0.04000]
#116=[#522+[#523-#522]*0.94154]
#117=[#529+[#530-#529]*0.94154]
#111=[#116+[#117-#116]*0.60871]
X6.09877 Y-2.65193 Z[#111+-0.04000]
#116=[#522+[#523-#522]*0.93690]
#117=[#529+[#530-#529]*0.93690]
#111=[#116+[#117-#116]*0.61299]
X6.10045 Y-2.65361 Z[#111+-0.04000]
#116=[#522+[#523-#522]*0.93174]
#117=[#529+[#530-#529]*0.93174]
#111=[#116+[#117-#116]*0.61673]
X6.10191 Y-2.65548 Z[#111+-0.04000]
#116=[#522+[#523-#522]*0.92516]
#117=[#529+[#530-#529]*0.92516]
#111=[#116+[#117-#116]*0.62033]
X6.10332 Y-2.65786 Z[#111+-0.04000]
#116=[#522+[#523-#522]*0.79266]
#117=[#529+[#530-#529]*0.79266]
#111=[#116+[#117-#116]*0.68155]
X6.12730 Y-2.70584 Z[#111+-0.04000]
#116=[#522+[#523-#522]*0.78235]
#117=[#529+[#530-#529]*0.78235]
#111=[#116+[#117-#116]*0.68495]
X6.12863 Y-2.70957 Z[#111+-0.04000]
#116=[#522+[#523-#522]*0.77261]
#117=[#529+[#530-#529]*0.77261]
#111=[#116+[#117-#116]*0.68632]
X6.12917 Y-2.71310 Z[#111+-0.04000]
#116=[#522+[#523-#522]*0.04486]
#117=[#529+[#530-#529]*0.04486]
#111=[#116+[#117-#116]*0.68640]
X6.12920 Y-2.97659 Z[#111+-0.04000]
#116=[#522+[#523-#522]*0.03823]
#117=[#529+[#530-#529]*0.03823]
#111=[#116+[#117-#116]*0.68590]
X6.12901 Y-2.97899 Z[#111+-0.04000]
#116=[#522+[#523-#522]*0.03172]
#117=[#529+[#530-#529]*0.03172]
#111=[#116+[#117-#116]*0.68465]
X6.12852 Y-2.98135 Z[#111+-0.04000]
#116=[#522+[#523-#522]*0.02646]
#117=[#529+[#530-#529]*0.02646]
#111=[#116+[#117-#116]*0.68306]
X6.12789 Y-2.98326 Z[#111+-0.04000]
#116=[#522+[#523-#522]*0.02040]
#117=[#529+[#530-#529]*0.02040]
#111=[#116+[#117-#116]*0.68051]
X6.12690 Y-2.98545 Z[#111+-0.04000]
#116=[#522+[#523-#522]*0.01474]
#117=[#529+[#530-#529]*0.01474]
#111=[#116+[#117-#116]*0.67729]
X6.12563 Y-2.98750 Z[#111+-0.04000]
#116=[#522+[#523-#522]*0.00954]
#117=[#529+[#530-#529]*0.00954]
#111=[#116+[#117-#116]*0.67346]
X6.12413 Y-2.98938 Z[#111+-0.04000]
#116=[#522+[#523-#522]*0.00562]
#117=[#529+[#530-#529]*0.00562]
#111=[#116+[#117-#116]*0.66984]
X6.12271 Y-2.99080 Z[#111+-0.04000]
#116=[#522+[#523-#522]*0.00147]
#117=[#529+[#530-#529]*0.00147]
#111=[#116+[#117-#116]*0.66503]
X6.12083 Y-2.99230 Z[#111+-0.04000]
#116=[#522+[#523-#522]*0.00000]
#117=[#529+[#530-#529]*0.00000]
#111=[#116+[#117-#116]*0.66282]
X6.11996 Y-2.99283 Z[#111+-0.04000]
#116=[#521+[#522-#521]*0.99799]
#117=[#528+[#529-#528]*0.99799]
#111=[#116+[#117-#116]*0.65979]
X6.11878 Y-2.99356 Z[#111+-0.04000]
#116=[#521+[#522-#521]*0.99523]
#117=[#528+[#529-#528]*0.99523]
#111=[#116+[#117-#116]*0.65420]
X6.11659 Y-2.99456 Z[#111+-0.04000]
#116=[#521+[#522-#521]*0.99297]
#117=[#528+[#529-#528]*0.99297]
#111=[#116+[#117-#116]*0.64734]
X6.11390 Y-2.99538 Z[#111+-0.04000]
#116=[#521+[#522-#521]*0.99189]
#117=[#528+[#529-#528]*0.99189]
#111=[#116+[#117-#116]*0.64128]
X6.11153 Y-2.99577 Z[#111+-0.04000]
#116=[#521+[#522-#521]*0.99162]
#117=[#528+[#529-#528]*0.99162]
#111=[#116+[#117-#116]*0.63514]
X6.10912 Y-2.99587 Z[#111+-0.04000]
#116=[#521+[#522-#521]*0.99216]
#117=[#528+[#529-#528]*0.99216]
#111=[#116+[#117-#116]*0.62901]
X6.10672 Y-2.99567 Z[#111+-0.04000]
#116=[#521+[#522-#521]*0.99381]
#117=[#528+[#529-#528]*0.99381]
#111=[#116+[#117-#116]*0.62200]
X6.10398 Y-2.99508 Z[#111+-0.04000]
#116=[#521+[#522-#521]*0.99607]
#117=[#528+[#529-#528]*0.99607]
#111=[#116+[#117-#116]*0.61622]
X6.10171 Y-2.99426 Z[#111+-0.04000]
#116=[#521+[#522-#521]*0.99907]
#117=[#528+[#529-#528]*0.99907]
#111=[#116+[#117-#116]*0.61074]
X6.09956 Y-2.99317 Z[#111+-0.04000]
#116=[#522+[#523-#522]*0.00000]
#117=[#529+[#530-#529]*0.00000]
#111=[#116+[#117-#116]*0.60947]
X6.09907 Y-2.99283 Z[#111+-0.04000]
#116=[#522+[#523-#522]*0.00278]
#117=[#529+[#530-#529]*0.00278]
#111=[#116+[#117-#116]*0.60564]
X6.09757 Y-2.99183 Z[#111+-0.04000]
#116=[#522+[#523-#522]*0.00714]
#117=[#529+[#530-#529]*0.00714]
#111=[#116+[#117-#116]*0.60099]
X6.09575 Y-2.99025 Z[#111+-0.04000]
#116=[#522+[#523-#522]*0.01295]
#117=[#529+[#530-#529]*0.01295]
#111=[#116+[#117-#116]*0.59624]
X6.09389 Y-2.98815 Z[#111+-0.04000]
#116=[#522+[#523-#522]*0.01943]
#117=[#529+[#530-#529]*0.01943]
#111=[#116+[#117-#116]*0.59230]
X6.09234 Y-2.98580 Z[#111+-0.04000]
#116=[#522+[#523-#522]*0.02542]
#117=[#529+[#530-#529]*0.02542]
#111=[#116+[#117-#116]*0.58964]
X6.09130 Y-2.98363 Z[#111+-0.04000]
#116=[#522+[#523-#522]*0.03172]
#117=[#529+[#530-#529]*0.03172]
#111=[#116+[#117-#116]*0.58767]
X6.09053 Y-2.98135 Z[#111+-0.04000]
#116=[#522+[#523-#522]*0.03933]
#117=[#529+[#530-#529]*0.03933]
#111=[#116+[#117-#116]*0.58629]
X6.08999 Y-2.97859 Z[#111+-0.04000]
#116=[#522+[#523-#522]*0.04597]
#117=[#529+[#530-#529]*0.04597]
#111=[#116+[#117-#116]*0.58591]
X6.08984 Y-2.97619 Z[#111+-0.04000]
#116=[#522+[#523-#522]*0.75650]
#117=[#529+[#530-#529]*0.75650]
#111=[#116+[#117-#116]*0.58591]
X6.08984 Y-2.71893 Z[#111+-0.04000]
#116=[#522+[#523-#522]*0.86032]
#117=[#529+[#530-#529]*0.86032]
#111=[#116+[#117-#116]*0.53793]
X6.07104 Y-2.68134 Z[#111+-0.04000]
#116=[#522+[#523-#522]*0.91224]
#117=[#529+[#530-#529]*0.91224]
#111=[#116+[#117-#116]*0.44196]
X6.03345 Y-2.66254 Z[#111+-0.04000]
#116=[#522+[#523-#522]*0.91224]
#117=[#529+[#530-#529]*0.91224]
#111=[#116+[#117-#116]*0.28335]
X5.97131 Y-2.66254 Z[#111+-0.04000]
#116=[#522+[#523-#522]*0.85616]
#117=[#529+[#530-#529]*0.85616]
#111=[#116+[#117-#116]*0.17970]
X5.93071 Y-2.68284 Z[#111+-0.04000]
#116=[#522+[#523-#522]*0.81257]
#117=[#529+[#530-#529]*0.81257]
#111=[#116+[#117-#116]*0.13940]
X5.91492 Y-2.69863 Z[#111+-0.04000]
#116=[#522+[#523-#522]*0.04597]
#117=[#529+[#530-#529]*0.04597]
#111=[#116+[#117-#116]*0.13940]
X5.91492 Y-2.97619 Z[#111+-0.04000]
#116=[#522+[#523-#522]*0.03933]
#117=[#529+[#530-#529]*0.03933]
#111=[#116+[#117-#116]*0.13903]
X5.91477 Y-2.97859 Z[#111+-0.04000]
#116=[#522+[#523-#522]*0.03066]
#117=[#529+[#530-#529]*0.03066]
#111=[#116+[#117-#116]*0.13737]
X5.91413 Y-2.98174 Z[#111+-0.04000]
#116=[#522+[#523-#522]*0.02339]
#117=[#529+[#530-#529]*0.02339]
#111=[#116+[#117-#116]*0.13486]
X5.91314 Y-2.98437 Z[#111+-0.04000]
#116=[#522+[#523-#522]*0.01565]
#117=[#529+[#530-#529]*0.01565]
#111=[#116+[#117-#116]*0.13086]
X5.91158 Y-2.98717 Z[#111+-0.04000]
#116=[#522+[#523-#522]*0.00954]
#117=[#529+[#530-#529]*0.00954]
#111=[#116+[#117-#116]*0.12645]
X5.90985 Y-2.98938 Z[#111+-0.04000]
#116=[#522+[#523-#522]*0.00417]
#117=[#529+[#530-#529]*0.00417]
#111=[#116+[#117-#116]*0.12128]
X5.90782 Y-2.99133 Z[#111+-0.04000]
#116=[#522+[#523-#522]*0.00000]
#117=[#529+[#530-#529]*0.00000]
#111=[#116+[#117-#116]*0.11591]
X5.90572 Y-2.99283 Z[#111+-0.04000]
#116=[#521+[#522-#521]*0.99965]
#117=[#528+[#529-#528]*0.99965]
#111=[#116+[#117-#116]*0.11545]
X5.90554 Y-2.99296 Z[#111+-0.04000]
#116=[#521+[#522-#521]*0.99564]
#117=[#528+[#529-#528]*0.99564]
#111=[#116+[#117-#116]*0.10815]
X5.90268 Y-2.99441 Z[#111+-0.04000]
#116=[#521+[#522-#521]*0.99322]
#117=[#528+[#529-#528]*0.99322]
#111=[#116+[#117-#116]*0.10133]
X5.90001 Y-2.99529 Z[#111+-0.04000]
#116=[#521+[#522-#521]*0.99189]
#117=[#528+[#529-#528]*0.99189]
#111=[#116+[#117-#116]*0.09427]
X5.89724 Y-2.99577 Z[#111+-0.04000]
#116=[#521+[#522-#521]*0.99171]
#117=[#528+[#529-#528]*0.99171]
#111=[#116+[#117-#116]*0.08608]
X5.89403 Y-2.99584 Z[#111+-0.04000]
#116=[#521+[#522-#521]*0.99273]
#117=[#528+[#529-#528]*0.99273]
#111=[#116+[#117-#116]*0.07897]
X5.89125 Y-2.99547 Z[#111+-0.04000]
#116=[#521+[#522-#521]*0.99523]
#117=[#528+[#529-#528]*0.99523]
#111=[#116+[#117-#116]*0.07111]
X5.88817 Y-2.99456 Z[#111+-0.04000]
#116=[#521+[#522-#521]*0.99852]
#117=[#528+[#529-#528]*0.99852]
#111=[#116+[#117-#116]*0.06462]
X5.88563 Y-2.99337 Z[#111+-0.04000]
#116=[#522+[#523-#522]*0.00000]
#117=[#529+[#530-#529]*0.00000]
#111=[#116+[#117-#116]*0.06254]
X5.88481 Y-2.99283 Z[#111+-0.04000]
#116=[#522+[#523-#522]*0.00278]
#117=[#529+[#530-#529]*0.00278]
#111=[#116+[#117-#116]*0.05863]
X5.88328 Y-2.99183 Z[#111+-0.04000]
#116=[#522+[#523-#522]*0.00792]
#117=[#529+[#530-#529]*0.00792]
#111=[#116+[#117-#116]*0.05326]
X5.88118 Y-2.98997 Z[#111+-0.04000]
#116=[#522+[#523-#522]*0.01474]
#117=[#529+[#530-#529]*0.01474]
#111=[#116+[#117-#116]*0.04802]
X5.87913 Y-2.98750 Z[#111+-0.04000]
#116=[#522+[#523-#522]*0.02139]
#117=[#529+[#530-#529]*0.02139]
#111=[#116+[#117-#116]*0.04433]
X5.87768 Y-2.98509 Z[#111+-0.04000]
#116=[#522+[#523-#522]*0.02959]
#117=[#529+[#530-#529]*0.02959]
#111=[#116+[#117-#116]*0.04124]
X5.87647 Y-2.98212 Z[#111+-0.04000]
#116=[#522+[#523-#522]*0.03714]
#117=[#529+[#530-#529]*0.03714]
#111=[#116+[#117-#116]*0.03957]
X5.87581 Y-2.97939 Z[#111+-0.04000]
#116=[#522+[#523-#522]*0.04486]
#117=[#529+[#530-#529]*0.04486]
#111=[#116+[#117-#116]*0.03891]
X5.87556 Y-2.97659 Z[#111+-0.04000]
G04 P0 ( dwell for no time -- G64 should not smooth over this point )
G00 Z0.08000 ( retract )

G00 X6.25650 Y-2.64286 ( rapid move to begin. )
G01 F180.00000
( Mill infeed pass 1/1 )
#116=[#529+[#530-#529]*0.96660]
#117=[#536+[#537-#536]*0.96660]
#111=[#116+[#117-#116]*0.01136]
G01 Z[-0.04000+#111]
G04 P0 ( dwell for no time -- G64 should not smooth over this point )
G01 F360.00000
#116=[#529+[#530-#529]*0.95887]
#117=[#536+[#537-#536]*0.95887]
#111=[#116+[#117-#116]*0.01188]
X6.25671 Y-2.64566 Z[#111+-0.04000]
#116=[#529+[#530-#529]*0.95023]
#117=[#536+[#537-#536]*0.95023]
#111=[#116+[#117-#116]*0.01370]
X6.25742 Y-2.64879 Z[#111+-0.04000]
#116=[#529+[#530-#529]*0.94202]
#117=[#536+[#537-#536]*0.94202]
#111=[#116+[#117-#116]*0.01679]
X6.25863 Y-2.65176 Z[#111+-0.04000]
#116=[#529+[#530-#529]*0.93537]
#117=[#536+[#537-#536]*0.93537]
#111=[#116+[#117-#116]*0.02048]
X6.26008 Y-2.65417 Z[#111+-0.04000]
#116=[#529+[#530-#529]*0.92856]
#117=[#536+[#537-#536]*0.92856]
#111=[#116+[#117-#116]*0.02572]
X6.26213 Y-2.65663 Z[#111+-0.04000]
#116=[#529+[#530-#529]*0.92342]
#117=[#536+[#537-#536]*0.92342]
#111=[#116+[#117-#116]*0.03109]
X6.26423 Y-2.65849 Z[#111+-0.04000]
#116=[#529+[#530-#529]*0.91915]
#117=[#536+[#537-#536]*0.91915]
#111=[#116+[#117-#116]*0.03708]
X6.26658 Y-2.66004 Z[#111+-0.04000]
#116=[#529+[#530-#529]*0.91547]
#117=[#536+[#537-#536]*0.91547]
#111=[#116+[#117-#116]*0.04453]
X6.26950 Y-2.66137 Z[#111+-0.04000]
#116=[#529+[#530-#529]*0.91315]
#117=[#536+[#537-#536]*0.91315]
#111=[#116+[#117-#116]*0.05244]
X6.27260 Y-2.66221 Z[#111+-0.04000]
#116=[#529+[#530-#529]*0.91228]
#117=[#536+[#537-#536]*0.91228]
#111=[#116+[#117-#116]*0.05957]
X6.27539 Y-2.66253 Z[#111+-0.04000]
#116=[#529+[#530-#529]*0.91224]
#117=[#536+[#537-#536]*0.91224]
#111=[#116+[#117-#116]*0.19370]
X6.32793 Y-2.66254 Z[#111+-0.04000]
#116=[#529+[#530-#529]*0.23887]
#117=[#536+[#537-#536]*0.23887]
#111=[#116+[#117-#116]*0.19386]
X6.32800 Y-2.90635 Z[#111+-0.04000]
#116=[#529+[#530-#529]*0.22917]
#117=[#536+[#537-#536]*0.22917]
#111=[#116+[#117-#116]*0.19542]
X6.32861 Y-2.90986 Z[#111+-0.04000]
#116=[#529+[#530-#529]*0.21992]
#117=[#536+[#537-#536]*0.21992]
#111=[#116+[#117-#116]*0.19856]
X6.32984 Y-2.91321 Z[#111+-0.04000]
#116=[#529+[#530-#529]*0.08359]
#117=[#536+[#537-#536]*0.08359]
#111=[#116+[#117-#116]*0.26173]
X6.35459 Y-2.96257 Z[#111+-0.04000]
#116=[#529+[#530-#529]*0.07734]
#117=[#536+[#537-#536]*0.07734]
#111=[#116+[#117-#116]*0.26581]
X6.35618 Y-2.96483 Z[#111+-0.04000]
#116=[#529+[#530-#529]*0.07252]
#117=[#536+[#537-#536]*0.07252]
#111=[#116+[#117-#116]*0.26992]
X6.35779 Y-2.96658 Z[#111+-0.04000]
#116=[#529+[#530-#529]*0.06763]
#117=[#536+[#537-#536]*0.06763]
#111=[#116+[#117-#116]*0.27535]
X6.35992 Y-2.96835 Z[#111+-0.04000]
#116=[#529+[#530-#529]*0.06412]
#117=[#536+[#537-#536]*0.06412]
#111=[#116+[#117-#116]*0.28047]
X6.36192 Y-2.96962 Z[#111+-0.04000]
#116=[#529+[#530-#529]*0.00000]
#117=[#536+[#537-#536]*0.00000]
#111=[#116+[#117-#116]*0.39891]
X6.40832 Y-2.99283 Z[#111+-0.04000]
#116=[#528+[#529-#528]*0.99735]
#117=[#535+[#536-#535]*0.99735]
#111=[#116+[#117-#116]*0.40381]
X6.41024 Y-2.99380 Z[#111+-0.04000]
#116=[#528+[#529-#528]*0.99514]
#117=[#535+[#536-#535]*0.99514]
#111=[#116+[#117-#116]*0.40845]
X6.41206 Y-2.99459 Z[#111+-0.04000]
#116=[#528+[#529-#528]*0.99319]
#117=[#535+[#536-#535]*0.99319]
#111=[#116+[#117-#116]*0.41425]
X6.41433 Y-2.99530 Z[#111+-0.04000]
#116=[#528+[#529-#528]*0.99200]
#117=[#535+[#536-#535]*0.99200]
#111=[#116+[#117-#116]*0.42022]
X6.41667 Y-2.99573 Z[#111+-0.04000]
#116=[#528+[#529-#528]*0.99161]
#117=[#535+[#536-#535]*0.99161]
#111=[#116+[#117-#116]*0.42527]
X6.41865 Y-2.99587 Z[#111+-0.04000]
#116=[#528+[#529-#528]*0.99165]
#117=[#535+[#536-#535]*0.99165]
#111=[#116+[#117-#116]*0.54989]
X6.46747 Y-2.99586 Z[#111+-0.04000]
#116=[#528+[#529-#528]*0.99233]
#117=[#535+[#536-#535]*0.99233]
#111=[#116+[#117-#116]*0.55601]
X6.46986 Y-2.99561 Z[#111+-0.04000]
#116=[#528+[#529-#528]*0.99381]
#117=[#535+[#536-#535]*0.99381]
#111=[#116+[#117-#116]*0.56200]
X6.47221 Y-2.99508 Z[#111+-0.04000]
#116=[#528+[#529-#528]*0.99607]
#117=[#535+[#536-#535]*0.99607]
#111=[#116+[#117-#116]*0.56778]
X6.47448 Y-2.99426 Z[#111+-0.04000]
#116=[#528+[#529-#528]*0.99965]
#117=[#535+[#536-#535]*0.99965]
#111=[#116+[#117-#116]*0.57414]
X6.47697 Y-2.99296 Z[#111+-0.04000]
#116=[#529+[#530-#529]*0.00000]
#117=[#536+[#537-#536]*0.00000]
#111=[#116+[#117-#116]*0.57461]
X6.47715 Y-2.99283 Z[#111+-0.04000]
#116=[#529+[#530-#529]*0.00347]
#117=[#536+[#537-#536]*0.00347]
#111=[#116+[#117-#116]*0.57917]
X6.47894 Y-2.99158 Z[#111+-0.04000]
#116=[#529+[#530-#529]*0.00792]
#117=[#536+[#537-#536]*0.00792]
#111=[#116+[#117-#116]*0.58374]
X6.48073 Y-2.98997 Z[#111+-0.04000]
#116=[#529+[#530-#529]*0.01295]
#117=[#536+[#537-#536]*0.01295]
#111=[#116+[#117-#116]*0.58776]
X6.48230 Y-2.98815 Z[#111+-0.04000]
#116=[#529+[#530-#529]*0.01752]
#117=[#536+[#537-#536]*0.01752]
#111=[#116+[#117-#116]*0.59066]
X6.48344 Y-2.98649 Z[#111+-0.04000]
#116=[#529+[#530-#529]*0.02339]
#117=[#536+[#537-#536]*0.02339]
#111=[#116+[#117-#116]*0.59355]
X6.48457 Y-2.98437 Z[#111+-0.04000]
#116=[#529+[#530-#529]*0.02959]
#117=[#536+[#537-#536]*0.02959]
#111=[#116+[#117-#116]*0.59576]
X6.48544 Y-2.98212 Z[#111+-0.04000]
#116=[#529+[#530-#529]*0.03605]
#117=[#536+[#537-#536]*0.03605]
#111=[#116+[#117-#116]*0.59725]
X6.48602 Y-2.97978 Z[#111+-0.04000]
#116=[#529+[#530-#529]*0.04265]
#117=[#536+[#537-#536]*0.04265]
#111=[#116+[#117-#116]*0.59800]
X6.48631 Y-2.97739 Z[#111+-0.04000]
#116=[#529+[#530-#529]*0.04930]
#117=[#536+[#537-#536]*0.04930]
#111=[#116+[#117-#116]*0.59800]
X6.48631 Y-2.97499 Z[#111+-0.04000]
#116=[#529+[#530-#529]*0.05590]
#117=[#536+[#537-#536]*0.05590]
#111=[#116+[#117-#116]*0.59725]
X6.48602 Y-2.97260 Z[#111+-0.04000]
#116=[#529+[#530-#529]*0.06129]
#117=[#536+[#537-#536]*0.06129]
#111=[#116+[#117-#116]*0.59606]
X6.48555 Y-2.97064 Z[#111+-0.04000]
#116=[#529+[#530-#529]*0.06754]
#117=[#536+[#537-#536]*0.06754]
#111=[#116+[#117-#116]*0.59397]
X6.48473 Y-2.96838 Z[#111+-0.04000]
#116=[#529+[#530-#529]*0.07348]
#117=[#536+[#537-#536]*0.07348]
#111=[#116+[#117-#116]*0.59119]
X6.48365 Y-2.96623 Z[#111+-0.04000]
#116=[#529+[#530-#529]*0.07900]
#117=[#536+[#537-#536]*0.07900]
#111=[#116+[#117-#116]*0.58776]
X6.48230 Y-2.96423 Z[#111+-0.04000]
#116=[#529+[#530-#529]*0.08402]
#117=[#536+[#537-#536]*0.08402]
#111=[#116+[#117-#116]*0.58374]
X6.48073 Y-2.96241 Z[#111+-0.04000]
#116=[#529+[#530-#529]*0.08778]
#117=[#536+[#537-#536]*0.08778]
#111=[#116+[#117-#116]*0.57997]
X6.47925 Y-2.96105 Z[#111+-0.04000]
#116=[#529+[#530-#529]*0.09230]
#117=[#536+[#537-#536]*0.09230]
#111=[#116+[#117-#116]*0.57414]
X6.47697 Y-2.95942 Z[#111+-0.04000]
#116=[#529+[#530-#529]*0.09631]
#117=[#536+[#537-#536]*0.09631]
#111=[#116+[#117-#116]*0.56684]
X6.47411 Y-2.95797 Z[#111+-0.04000]
#116=[#529+[#530-#529]*0.09872]
#117=[#536+[#537-#536]*0.09872]
#111=[#116+[#117-#116]*0.56002]
X6.47144 Y-2.95709 Z[#111+-0.04000]
#116=[#529+[#530-#529]*0.10016]
#117=[#536+[#537-#536]*0.10016]
#111=[#116+[#117-#116]*0.55194]
X6.46827 Y-2.95657 Z[#111+-0.04000]
#116=[#529+[#530-#529]*0.10034]
#117=[#536+[#537-#536]*0.10034]
#111=[#116+[#117-#116]*0.43815]
X6.42369 Y-2.95650 Z[#111+-0.04000]
#116=[#529+[#530-#529]*0.15226]
#117=[#536+[#537-#536]*0.15226]
#111=[#116+[#117-#116]*0.34218]
X6.38610 Y-2.93771 Z[#111+-0.04000]
#116=[#529+[#530-#529]*0.25609]
#117=[#536+[#537-#536]*0.25609]
#111=[#116+[#117-#116]*0.29420]
X6.36730 Y-2.90011 Z[#111+-0.04000]
#116=[#529+[#530-#529]*0.91224]
#117=[#536+[#537-#536]*0.91224]
#111=[#116+[#117-#116]*0.29420]
X6.36730 Y-2.66254 Z[#111+-0.04000]
#116=[#529+[#530-#529]*0.91224]
#117=[#536+[#537-#536]*0.91224]
#111=[#116+[#117-#116]*0.54785]
X6.46667 Y-2.66254 Z[#111+-0.04000]
#116=[#529+[#530-#529]*0.91252]
#117=[#536+[#537-#536]*0.91252]
#111=[#116+[#117-#116]*0.55296]
X6.46867 Y-2.66244 Z[#111+-0.04000]
#116=[#529+[#530-#529]*0.91337]
#117=[#536+[#537-#536]*0.91337]
#111=[#116+[#117-#116]*0.55802]
X6.47065 Y-2.66213 Z[#111+-0.04000]
#116=[#529+[#530-#529]*0.91627]
#117=[#536+[#537-#536]*0.91627]
#111=[#116+[#117-#116]*0.56684]
X6.47411 Y-2.66108 Z[#111+-0.04000]
#116=[#529+[#530-#529]*0.91862]
#117=[#536+[#537-#536]*0.91862]
#111=[#116+[#117-#116]*0.57148]
X6.47592 Y-2.66023 Z[#111+-0.04000]
#116=[#529+[#530-#529]*0.92148]
#117=[#536+[#537-#536]*0.92148]
#111=[#116+[#117-#116]*0.57587]
X6.47764 Y-2.65920 Z[#111+-0.04000]
#116=[#529+[#530-#529]*0.92480]
#117=[#536+[#537-#536]*0.92480]
#111=[#116+[#117-#116]*0.57997]
X6.47925 Y-2.65799 Z[#111+-0.04000]
#116=[#529+[#530-#529]*0.92856]
#117=[#536+[#537-#536]*0.92856]
#111=[#116+[#117-#116]*0.58374]
X6.48073 Y-2.65663 Z[#111+-0.04000]
#116=[#529+[#530-#529]*0.93271]
#117=[#536+[#537-#536]*0.93271]
#111=[#116+[#117-#116]*0.58713]
X6.48206 Y-2.65513 Z[#111+-0.04000]
#116=[#529+[#530-#529]*0.93721]
#117=[#536+[#537-#536]*0.93721]
#111=[#116+[#117-#116]*0.59012]
X6.48323 Y-2.65350 Z[#111+-0.04000]
#116=[#529+[#530-#529]*0.94202]
#117=[#536+[#537-#536]*0.94202]
#111=[#116+[#117-#116]*0.59266]
X6.48422 Y-2.65176 Z[#111+-0.04000]
#116=[#529+[#530-#529]*0.94709]
#117=[#536+[#537-#536]*0.94709]
#111=[#116+[#117-#116]*0.59474]
X6.48504 Y-2.64992 Z[#111+-0.04000]
#116=[#529+[#530-#529]*0.95668]
#117=[#536+[#537-#536]*0.95668]
#111=[#116+[#117-#116]*0.59725]
X6.48602 Y-2.64645 Z[#111+-0.04000]
#116=[#529+[#530-#529]*0.96217]
#117=[#536+[#537-#536]*0.96217]
#111=[#116+[#117-#116]*0.59793]
X6.48628 Y-2.64446 Z[#111+-0.04000]
#116=[#529+[#530-#529]*0.96771]
#117=[#536+[#537-#536]*0.96771]
#111=[#116+[#117-#116]*0.59808]
X6.48635 Y-2.64245 Z[#111+-0.04000]
#116=[#529+[#530-#529]*0.97324]
#117=[#536+[#537-#536]*0.97324]
#111=[#116+[#117-#116]*0.59772]
X6.48620 Y-2.64045 Z[#111+-0.04000]
#116=[#529+[#530-#529]*0.97870]
#117=[#536+[#537-#536]*0.97870]
#111=[#116+[#117-#116]*0.59683]
X6.48586 Y-2.63848 Z[#111+-0.04000]
#116=[#529+[#530-#529]*0.98612]
#117=[#536+[#537-#536]*0.98612]
#111=[#116+[#117-#116]*0.59474]
X6.48504 Y-2.63579 Z[#111+-0.04000]
#116=[#529+[#530-#529]*0.99411]
#117=[#536+[#537-#536]*0.99411]
#111=[#116+[#117-#116]*0.59119]
X6.48365 Y-2.63290 Z[#111+-0.04000]
#111=[#530+[#537-#530]*0.58737]
X6.48215 Y-2.63077 Z[#111+-0.04000]
#116=[#530+[#531-#530]*0.00136]
#117=[#537+[#538-#537]*0.00136]
#111=[#116+[#117-#116]*0.58648]
X6.48180 Y-2.63027 Z[#111+-0.04000]
#116=[#530+[#531-#530]*0.00696]
#117=[#537+[#538-#537]*0.00696]
#111=[#116+[#117-#116]*0.58152]
X6.47986 Y-2.62825 Z[#111+-0.04000]
#116=[#530+[#531-#530]*0.01173]
#117=[#537+[#538-#537]*0.01173]
#111=[#116+[#117-#116]*0.57587]
X6.47764 Y-2.62652 Z[#111+-0.04000]
#116=[#530+[#531-#530]*0.01606]
#117=[#537+[#538-#537]*0.01606]
#111=[#116+[#117-#116]*0.56872]
X6.47484 Y-2.62495 Z[#111+-0.04000]
#116=[#530+[#531-#530]*0.01877]
#117=[#537+[#538-#537]*0.01877]
#111=[#116+[#117-#116]*0.56200]
X6.47221 Y-2.62397 Z[#111+-0.04000]
#116=[#530+[#531-#530]*0.02057]
#117=[#537+[#538-#537]*0.02057]
#111=[#116+[#117-#116]*0.55398]
X6.46907 Y-2.62332 Z[#111+-0.04000]
#116=[#530+[#531-#530]*0.02098]
#117=[#537+[#538-#537]*0.02098]
#111=[#116+[#117-#116]*0.54785]
X6.46667 Y-2.62317 Z[#111+-0.04000]
#116=[#530+[#531-#530]*0.02098]
#117=[#537+[#538-#537]*0.02098]
#111=[#116+[#117-#116]*0.29420]
X6.36730 Y-2.62317 Z[#111+-0.04000]
#116=[#530+[#531-#530]*0.43136]
#117=[#537+[#538-#537]*0.43136]
#111=[#116+[#117-#116]*0.29403]
X6.36724 Y-2.47458 Z[#111+-0.04000]
#116=[#530+[#531-#530]*0.43902]
#117=[#537+[#538-#537]*0.43902]
#111=[#116+[#117-#116]*0.29294]
X6.36681 Y-2.47181 Z[#111+-0.04000]
#116=[#530+[#531-#530]*0.44644]
#117=[#537+[#538-#537]*0.44644]
#111=[#116+[#117-#116]*0.29085]
X6.36599 Y-2.46912 Z[#111+-0.04000]
#116=[#530+[#531-#530]*0.45346]
#117=[#537+[#538-#537]*0.45346]
#111=[#116+[#117-#116]*0.28781]
X6.36480 Y-2.46658 Z[#111+-0.04000]
#116=[#530+[#531-#530]*0.45995]
#117=[#537+[#538-#537]*0.45995]
#111=[#116+[#117-#116]*0.28387]
X6.36326 Y-2.46423 Z[#111+-0.04000]
#116=[#530+[#531-#530]*0.46576]
#117=[#537+[#538-#537]*0.46576]
#111=[#116+[#117-#116]*0.27912]
X6.36139 Y-2.46213 Z[#111+-0.04000]
#116=[#530+[#531-#530]*0.47011]
#117=[#537+[#538-#537]*0.47011]
#111=[#116+[#117-#116]*0.27447]
X6.35958 Y-2.46055 Z[#111+-0.04000]
#116=[#530+[#531-#530]*0.47437]
#117=[#537+[#538-#537]*0.47437]
#111=[#116+[#117-#116]*0.26848]
X6.35723 Y-2.45901 Z[#111+-0.04000]
#116=[#530+[#531-#530]*0.47767]
#117=[#537+[#538-#537]*0.47767]
#111=[#116+[#117-#116]*0.26199]
X6.35468 Y-2.45782 Z[#111+-0.04000]
#116=[#530+[#531-#530]*0.47939]
#117=[#537+[#538-#537]*0.47939]
#111=[#116+[#117-#116]*0.25712]
X6.35278 Y-2.45719 Z[#111+-0.04000]
#116=[#530+[#531-#530]*0.48074]
#117=[#537+[#538-#537]*0.48074]
#111=[#116+[#117-#116]*0.25110]
X6.35042 Y-2.45670 Z[#111+-0.04000]
#116=[#530+[#531-#530]*0.48125]
#117=[#537+[#538-#537]*0.48125]
#111=[#116+[#117-#116]*0.24600]
X6.34842 Y-2.45652 Z[#111+-0.04000]
#116=[#530+[#531-#530]*0.48119]
#117=[#537+[#538-#537]*0.48119]
#111=[#116+[#117-#116]*0.24088]
X6.34642 Y-2.45654 Z[#111+-0.04000]
#116=[#530+[#531-#530]*0.48038]
#117=[#537+[#538-#537]*0.48038]
#111=[#116+[#117-#116]*0.23478]
X6.34403 Y-2.45683 Z[#111+-0.04000]
#116=[#530+[#531-#530]*0.47909]
#117=[#537+[#538-#537]*0.47909]
#111=[#116+[#117-#116]*0.22980]
X6.34207 Y-2.45730 Z[#111+-0.04000]
#116=[#530+[#531-#530]*0.47726]
#117=[#537+[#538-#537]*0.47726]
#111=[#116+[#117-#116]*0.22496]
X6.34018 Y-2.45797 Z[#111+-0.04000]
#116=[#530+[#531-#530]*0.47437]
#117=[#537+[#538-#537]*0.47437]
#111=[#116+[#117-#116]*0.21942]
X6.33801 Y-2.45901 Z[#111+-0.04000]
#116=[#530+[#531-#530]*0.47142]
#117=[#537+[#538-#537]*0.47142]
#111=[#116+[#117-#116]*0.21508]
X6.33631 Y-2.46008 Z[#111+-0.04000]
#116=[#530+[#531-#530]*0.46728]
#117=[#537+[#538-#537]*0.46728]
#111=[#116+[#117-#116]*0.21028]
X6.33443 Y-2.46158 Z[#111+-0.04000]
#116=[#530+[#531-#530]*0.46336]
#117=[#537+[#538-#537]*0.46336]
#111=[#116+[#117-#116]*0.20666]
X6.33301 Y-2.46300 Z[#111+-0.04000]
#116=[#530+[#531-#530]*0.45816]
#117=[#537+[#538-#537]*0.45816]
#111=[#116+[#117-#116]*0.20282]
X6.33151 Y-2.46488 Z[#111+-0.04000]
#116=[#530+[#531-#530]*0.45346]
#117=[#537+[#538-#537]*0.45346]
#111=[#116+[#117-#116]*0.20009]
X6.33044 Y-2.46658 Z[#111+-0.04000]
#116=[#530+[#531-#530]*0.44747]
#117=[#537+[#538-#537]*0.44747]
#111=[#116+[#117-#116]*0.19743]
X6.32939 Y-2.46875 Z[#111+-0.04000]
#116=[#530+[#531-#530]*0.44224]
#117=[#537+[#538-#537]*0.44224]
#111=[#116+[#117-#116]*0.19574]
X6.32873 Y-2.47064 Z[#111+-0.04000]
#116=[#530+[#531-#530]*0.43576]
#117=[#537+[#538-#537]*0.43576]
#111=[#116+[#117-#116]*0.19437]
X6.32820 Y-2.47299 Z[#111+-0.04000]
#116=[#530+[#531-#530]*0.42692]
#117=[#537+[#538-#537]*0.42692]
#111=[#116+[#117-#116]*0.19370]
X6.32793 Y-2.47619 Z[#111+-0.04000]
#116=[#530+[#531-#530]*0.02098]
#117=[#537+[#538-#537]*0.02098]
#111=[#116+[#117-#116]*0.19370]
X6.32793 Y-2.62317 Z[#111+-0.04000]
#116=[#530+[#531-#530]*0.02087]
#117=[#537+[#538-#537]*0.02087]
#111=[#116+[#117-#116]*0.05854]
X6.27499 Y-2.62321 Z[#111+-0.04000]
#116=[#530+[#531-#530]*0.01985]
#117=[#537+[#538-#537]*0.01985]
#111=[#116+[#117-#116]*0.05143]
X6.27220 Y-2.62358 Z[#111+-0.04000]
#116=[#530+[#531-#530]*0.01735]
#117=[#537+[#538-#537]*0.01735]
#111=[#116+[#117-#116]*0.04358]
X6.26912 Y-2.62448 Z[#111+-0.04000]
#116=[#530+[#531-#530]*0.01406]
#117=[#537+[#538-#537]*0.01406]
#111=[#116+[#117-#116]*0.03708]
X6.26658 Y-2.62568 Z[#111+-0.04000]
#116=[#530+[#531-#530]*0.00979]
#117=[#537+[#538-#537]*0.00979]
#111=[#116+[#117-#116]*0.03109]
X6.26423 Y-2.62722 Z[#111+-0.04000]
#116=[#530+[#531-#530]*0.00465]
#117=[#537+[#538-#537]*0.00465]
#111=[#116+[#117-#116]*0.02572]
X6.26213 Y-2.62908 Z[#111+-0.04000]
#111=[#530+[#537-#530]*0.02214]
X6.26073 Y-2.63077 Z[#111+-0.04000]
#116=[#529+[#530-#529]*0.99784]
#117=[#536+[#537-#536]*0.99784]
#111=[#116+[#117-#116]*0.02048]
X6.26008 Y-2.63155 Z[#111+-0.04000]
#116=[#529+[#530-#529]*0.99119]
#117=[#536+[#537-#536]*0.99119]
#111=[#116+[#117-#116]*0.01679]
X6.25863 Y-2.63395 Z[#111+-0.04000]
#116=[#529+[#530-#529]*0.98299]
#117=[#536+[#537-#536]*0.98299]
#111=[#116+[#117-#116]*0.01370]
X6.25742 Y-2.63693 Z[#111+-0.04000]
#116=[#529+[#530-#529]*0.97434]
#117=[#536+[#537-#536]*0.97434]
#111=[#116+[#117-#116]*0.01188]
X6.25671 Y-2.64005 Z[#111+-0.04000]
#116=[#529+[#530-#529]*0.96660]
#117=[#536+[#537-#536]*0.96660]
#111=[#116+[#117-#116]*0.01136]
X6.25650 Y-2.64286 Z[#111+-0.04000]
G04 P0 ( dwell for no time -- G64 should not smooth over this point )
G00 Z0.08000 ( retract )

G00 X6.49510 Y-3.30041 ( rapid move to begin. )
G01 F180.00000
( Mill infeed pass 1/1 )
#116=[#528+[#529-#528]*0.15052]
#117=[#535+[#536-#535]*0.15052]
#111=[#116+[#117-#116]*0.62042]
G01 Z[-0.04000+#111]
G04 P0 ( dwell for no time -- G64 should not smooth over this point )
G01 F360.00000
#116=[#528+[#529-#528]*0.14830]
#117=[#535+[#536-#535]*0.14830]
#111=[#116+[#117-#116]*0.62076]
X6.49523 Y-3.30121 Z[#111+-0.04000]
#116=[#528+[#529-#528]*0.14517]
#117=[#535+[#536-#535]*0.14517]
#111=[#116+[#117-#116]*0.62189]
X6.49567 Y-3.30234 Z[#111+-0.04000]
#116=[#528+[#529-#528]*0.14164]
#117=[#535+[#536-#535]*0.14164]
#111=[#116+[#117-#116]*0.62443]
X6.49667 Y-3.30362 Z[#111+-0.04000]
#116=[#528+[#529-#528]*0.13919]
#117=[#535+[#536-#535]*0.13919]
#111=[#116+[#117-#116]*0.62789]
X6.49802 Y-3.30451 Z[#111+-0.04000]
#116=[#528+[#529-#528]*0.13810]
#117=[#535+[#536-#535]*0.13810]
#111=[#116+[#117-#116]*0.63190]
X6.49959 Y-3.30490 Z[#111+-0.04000]
#116=[#528+[#529-#528]*0.13805]
#117=[#535+[#536-#535]*0.13805]
#111=[#116+[#117-#116]*0.74801]
X6.54508 Y-3.30492 Z[#111+-0.04000]
#116=[#528+[#529-#528]*0.01242]
#117=[#535+[#536-#535]*0.01242]
#111=[#116+[#117-#116]*0.74805]
X6.54509 Y-3.35041 Z[#111+-0.04000]
#116=[#528+[#529-#528]*0.01021]
#117=[#535+[#536-#535]*0.01021]
#111=[#116+[#117-#116]*0.74839]
X6.54523 Y-3.35121 Z[#111+-0.04000]
#116=[#528+[#529-#528]*0.00708]
#117=[#535+[#536-#535]*0.00708]
#111=[#116+[#117-#116]*0.74952]
X6.54567 Y-3.35234 Z[#111+-0.04000]
#116=[#528+[#529-#528]*0.00520]
#117=[#535+[#536-#535]*0.00520]
#111=[#116+[#117-#116]*0.75066]
X6.54612 Y-3.35302 Z[#111+-0.04000]
#116=[#528+[#529-#528]*0.00282]
#117=[#535+[#536-#535]*0.00282]
#111=[#116+[#117-#116]*0.75286]
X6.54698 Y-3.35388 Z[#111+-0.04000]
#116=[#528+[#529-#528]*0.00159]
#117=[#535+[#536-#535]*0.00159]
#111=[#116+[#117-#116]*0.75459]
X6.54766 Y-3.35433 Z[#111+-0.04000]
#116=[#528+[#529-#528]*0.00037]
#117=[#535+[#536-#535]*0.00037]
#111=[#116+[#117-#116]*0.75749]
X6.54879 Y-3.35477 Z[#111+-0.04000]
#111=[#528+[#535-#528]*0.76161]
X6.55041 Y-3.35490 Z[#111+-0.04000]
#116=[#528+[#529-#528]*0.00037]
#117=[#535+[#536-#535]*0.00037]
#111=[#116+[#117-#116]*0.76366]
X6.55121 Y-3.35477 Z[#111+-0.04000]
#116=[#528+[#529-#528]*0.00159]
#117=[#535+[#536-#535]*0.00159]
#111=[#116+[#117-#116]*0.76655]
X6.55234 Y-3.35433 Z[#111+-0.04000]
#116=[#528+[#529-#528]*0.00434]
#117=[#535+[#536-#535]*0.00434]
#111=[#116+[#117-#116]*0.76981]
X6.55362 Y-3.35333 Z[#111+-0.04000]
#116=[#528+[#529-#528]*0.00809]
#117=[#535+[#536-#535]*0.00809]
#111=[#116+[#117-#116]*0.77208]
X6.55451 Y-3.35198 Z[#111+-0.04000]
#116=[#528+[#529-#528]*0.01242]
#117=[#535+[#536-#535]*0.01242]
#111=[#116+[#117-#116]*0.77309]
X6.55490 Y-3.35041 Z[#111+-0.04000]
#116=[#528+[#529-#528]*0.13805]
#117=[#535+[#536-#535]*0.13805]
#111=[#116+[#117-#116]*0.77314]
X6.55492 Y-3.30492 Z[#111+-0.04000]
#116=[#528+[#529-#528]*0.13810]
#117=[#535+[#536-#535]*0.13810]
#111=[#116+[#117-#116]*0.88925]
X6.60041 Y-3.30490 Z[#111+-0.04000]
#116=[#528+[#529-#528]*0.13847]
#117=[#535+[#536-#535]*0.13847]
#111=[#116+[#117-#116]*0.89129]
X6.60121 Y-3.30477 Z[#111+-0.04000]
#116=[#528+[#529-#528]*0.13969]
#117=[#535+[#536-#535]*0.13969]
#111=[#116+[#117-#116]*0.89419]
X6.60234 Y-3.30433 Z[#111+-0.04000]
#116=[#528+[#529-#528]*0.14092]
#117=[#535+[#536-#535]*0.14092]
#111=[#116+[#117-#116]*0.89592]
X6.60302 Y-3.30388 Z[#111+-0.04000]
#116=[#528+[#529-#528]*0.14329]
#117=[#535+[#536-#535]*0.14329]
#111=[#116+[#117-#116]*0.89812]
X6.60388 Y-3.30302 Z[#111+-0.04000]
#116=[#528+[#529-#528]*0.14517]
#117=[#535+[#536-#535]*0.14517]
#111=[#116+[#117-#116]*0.89926]
X6.60433 Y-3.30234 Z[#111+-0.04000]
#116=[#528+[#529-#528]*0.14830]
#117=[#535+[#536-#535]*0.14830]
#111=[#116+[#117-#116]*0.90039]
X6.60477 Y-3.30121 Z[#111+-0.04000]
#116=[#528+[#529-#528]*0.15276]
#117=[#535+[#536-#535]*0.15276]
#111=[#116+[#117-#116]*0.90073]
X6.60490 Y-3.29959 Z[#111+-0.04000]
#116=[#528+[#529-#528]*0.15498]
#117=[#535+[#536-#535]*0.15498]
#111=[#116+[#117-#116]*0.90039]
X6.60477 Y-3.29879 Z[#111+-0.04000]
#116=[#528+[#529-#528]*0.15811]
#117=[#535+[#536-#535]*0.15811]
#111=[#116+[#117-#116]*0.89926]
X6.60433 Y-3.29766 Z[#111+-0.04000]
#116=[#528+[#529-#528]*0.16164]
#117=[#535+[#536-#535]*0.16164]
#111=[#116+[#117-#116]*0.89672]
X6.60333 Y-3.29638 Z[#111+-0.04000]
#116=[#528+[#529-#528]*0.16409]
#117=[#535+[#536-#535]*0.16409]
#111=[#116+[#117-#116]*0.89325]
X6.60198 Y-3.29549 Z[#111+-0.04000]
#116=[#528+[#529-#528]*0.16519]
#117=[#535+[#536-#535]*0.16519]
#111=[#116+[#117-#116]*0.88925]
X6.60041 Y-3.29509 Z[#111+-0.04000]
#116=[#528+[#529-#528]*0.16523]
#117=[#535+[#536-#535]*0.16523]
#111=[#116+[#117-#116]*0.77314]
X6.55492 Y-3.29508 Z[#111+-0.04000]
#116=[#528+[#529-#528]*0.29086]
#117=[#535+[#536-#535]*0.29086]
#111=[#116+[#117-#116]*0.77309]
X6.55490 Y-3.24959 Z[#111+-0.04000]
#116=[#528+[#529-#528]*0.29307]
#117=[#535+[#536-#535]*0.29307]
#111=[#116+[#117-#116]*0.77275]
X6.55477 Y-3.24879 Z[#111+-0.04000]
#116=[#528+[#529-#528]*0.29621]
#117=[#535+[#536-#535]*0.29621]
#111=[#116+[#117-#116]*0.77162]
X6.55433 Y-3.24766 Z[#111+-0.04000]
#116=[#528+[#529-#528]*0.29808]
#117=[#535+[#536-#535]*0.29808]
#111=[#116+[#117-#116]*0.77049]
X6.55388 Y-3.24698 Z[#111+-0.04000]
#116=[#528+[#529-#528]*0.30046]
#117=[#535+[#536-#535]*0.30046]
#111=[#116+[#117-#116]*0.76829]
X6.55302 Y-3.24612 Z[#111+-0.04000]
#116=[#528+[#529-#528]*0.30169]
#117=[#535+[#536-#535]*0.30169]
#111=[#116+[#117-#116]*0.76655]
X6.55234 Y-3.24567 Z[#111+-0.04000]
#116=[#528+[#529-#528]*0.30291]
#117=[#535+[#536-#535]*0.30291]
#111=[#116+[#117-#116]*0.76366]
X6.55121 Y-3.24523 Z[#111+-0.04000]
#116=[#528+[#529-#528]*0.30328]
#117=[#535+[#536-#535]*0.30328]
#111=[#116+[#117-#116]*0.75953]
X6.54959 Y-3.24510 Z[#111+-0.04000]
#116=[#528+[#529-#528]*0.30291]
#117=[#535+[#536-#535]*0.30291]
#111=[#116+[#117-#116]*0.75749]
X6.54879 Y-3.24523 Z[#111+-0.04000]
#116=[#528+[#529-#528]*0.30169]
#117=[#535+[#536-#535]*0.30169]
#111=[#116+[#117-#116]*0.75459]
X6.54766 Y-3.24567 Z[#111+-0.04000]
#116=[#528+[#529-#528]*0.29894]
#117=[#535+[#536-#535]*0.29894]
#111=[#116+[#117-#116]*0.75133]
X6.54638 Y-3.24667 Z[#111+-0.04000]
#116=[#528+[#529-#528]*0.29519]
#117=[#535+[#536-#535]*0.29519]
#111=[#116+[#117-#116]*0.74907]
X6.54549 Y-3.24802 Z[#111+-0.04000]
#116=[#528+[#529-#528]*0.29086]
#117=[#535+[#536-#535]*0.29086]
#111=[#116+[#117-#116]*0.74805]
X6.54509 Y-3.24959 Z[#111+-0.04000]
#116=[#528+[#529-#528]*0.16523]
#117=[#535+[#536-#535]*0.16523]
#111=[#116+[#117-#116]*0.74801]
X6.54508 Y-3.29508 Z[#111+-0.04000]
#116=[#528+[#529-#528]*0.16523]
#117=[#535+[#536-#535]*0.16523]
#111=[#116+[#117-#116]*0.63294]
X6.50000 Y-3.29508 Z[#111+-0.04000]
#116=[#528+[#529-#528]*0.16482]
#117=[#535+[#536-#535]*0.16482]
#111=[#116+[#117-#116]*0.62985]
X6.49879 Y-3.29523 Z[#111+-0.04000]
#116=[#528+[#529-#528]*0.16302]
#117=[#535+[#536-#535]*0.16302]
#111=[#116+[#117-#116]*0.62607]
X6.49731 Y-3.29588 Z[#111+-0.04000]
#116=[#528+[#529-#528]*0.15999]
#117=[#535+[#536-#535]*0.15999]
#111=[#116+[#117-#116]*0.62302]
X6.49612 Y-3.29698 Z[#111+-0.04000]
#116=[#528+[#529-#528]*0.15811]
#117=[#535+[#536-#535]*0.15811]
#111=[#116+[#117-#116]*0.62189]
X6.49567 Y-3.29766 Z[#111+-0.04000]
#116=[#528+[#529-#528]*0.15498]
#117=[#535+[#536-#535]*0.15498]
#111=[#116+[#117-#116]*0.62076]
X6.49523 Y-3.29879 Z[#111+-0.04000]
#116=[#528+[#529-#528]*0.15052]
#117=[#535+[#536-#535]*0.15052]
#111=[#116+[#117-#116]*0.62042]
X6.49510 Y-3.30041 Z[#111+-0.04000]
( Piece #2, position [1;0] )

G04 P0 ( dwell for no time -- G64 should not smooth over this point )
G00 Z0.08000 ( retract )

G00 X6.85911 Y-2.97699 ( rapid move to begin. )
G01 F180.00000
( Mill infeed pass 1/1 )
#116=[#536+[#537-#536]*0.04376]
#117=[#543+[#544-#543]*0.04376]
#111=[#116+[#117-#116]*0.54964]
G01 Z[-0.04000+#111]
G04 P0 ( dwell for no time -- G64 should not smooth over this point )
G01 F360.00000
#111=[#537+[#544-#537]*0.54964]
X6.85911 Y-2.63077 Z[#111+-0.04000]
#116=[#537+[#538-#537]*0.42914]
#117=[#544+[#545-#544]*0.42914]
#111=[#116+[#117-#116]*0.54964]
X6.85911 Y-2.47539 Z[#111+-0.04000]
#116=[#537+[#538-#537]*0.43902]
#117=[#544+[#545-#544]*0.43902]
#111=[#116+[#117-#116]*0.55085]
X6.85958 Y-2.47181 Z[#111+-0.04000]
#116=[#537+[#538-#537]*0.44850]
#117=[#544+[#545-#544]*0.44850]
#111=[#116+[#117-#116]*0.55372]
X6.86071 Y-2.46838 Z[#111+-0.04000]
#116=[#537+[#538-#537]*0.45725]
#117=[#544+[#545-#544]*0.45725]
#111=[#116+[#117-#116]*0.55813]
X6.86244 Y-2.46521 Z[#111+-0.04000]
#116=[#537+[#538-#537]*0.46168]
#117=[#544+[#545-#544]*0.46168]
#111=[#116+[#117-#116]*0.56121]
X6.86364 Y-2.46360 Z[#111+-0.04000]
#116=[#537+[#538-#537]*0.46576]
#117=[#544+[#545-#544]*0.46576]
#111=[#116+[#117-#116]*0.56468]
X6.86500 Y-2.46213 Z[#111+-0.04000]
#116=[#537+[#538-#537]*0.47205]
#117=[#544+[#545-#544]*0.47205]
#111=[#116+[#117-#116]*0.57182]
X6.86780 Y-2.45985 Z[#111+-0.04000]
#116=[#537+[#538-#537]*0.47490]
#117=[#544+[#545-#544]*0.47490]
#111=[#116+[#117-#116]*0.57621]
X6.86952 Y-2.45882 Z[#111+-0.04000]
#116=[#537+[#538-#537]*0.47726]
#117=[#544+[#545-#544]*0.47726]
#111=[#116+[#117-#116]*0.58085]
X6.87134 Y-2.45797 Z[#111+-0.04000]
#116=[#537+[#538-#537]*0.47909]
#117=[#544+[#545-#544]*0.47909]
#111=[#116+[#117-#116]*0.58569]
X6.87323 Y-2.45730 Z[#111+-0.04000]
#116=[#537+[#538-#537]*0.48038]
#117=[#544+[#545-#544]*0.48038]
#111=[#116+[#117-#116]*0.59067]
X6.87518 Y-2.45683 Z[#111+-0.04000]
#116=[#537+[#538-#537]*0.48129]
#117=[#544+[#545-#544]*0.48129]
#111=[#116+[#117-#116]*0.59985]
X6.87878 Y-2.45650 Z[#111+-0.04000]
#111=[#544+[#545-#544]*0.48117]
X7.03553 Y-2.45655 Z[#111+-0.04000]
#116=[#544+[#545-#544]*0.48111]
#117=[#551+[#552-#551]*0.48111]
#111=[#116+[#117-#116]*0.21173]
X7.11848 Y-2.45657 Z[#111+-0.04000]
#116=[#544+[#545-#544]*0.47939]
#117=[#551+[#552-#551]*0.47939]
#111=[#116+[#117-#116]*0.22081]
X7.12203 Y-2.45719 Z[#111+-0.04000]
#116=[#544+[#545-#544]*0.47591]
#117=[#551+[#552-#551]*0.47591]
#111=[#116+[#117-#116]*0.22944]
X7.12541 Y-2.45845 Z[#111+-0.04000]
#116=[#544+[#545-#544]*0.47142]
#117=[#551+[#552-#551]*0.47142]
#111=[#116+[#117-#116]*0.23650]
X7.12818 Y-2.46008 Z[#111+-0.04000]
#116=[#544+[#545-#544]*0.46497]
#117=[#551+[#552-#551]*0.46497]
#111=[#116+[#117-#116]*0.24353]
X7.13093 Y-2.46241 Z[#111+-0.04000]
#116=[#544+[#545-#544]*0.45725]
#117=[#551+[#552-#551]*0.45725]
#111=[#116+[#117-#116]*0.24934]
X7.13321 Y-2.46521 Z[#111+-0.04000]
#116=[#544+[#545-#544]*0.44850]
#117=[#551+[#552-#551]*0.44850]
#111=[#116+[#117-#116]*0.25376]
X7.13494 Y-2.46838 Z[#111+-0.04000]
#116=[#544+[#545-#544]*0.43902]
#117=[#551+[#552-#551]*0.43902]
#111=[#116+[#117-#116]*0.25663]
X7.13606 Y-2.47181 Z[#111+-0.04000]
#116=[#544+[#545-#544]*0.42914]
#117=[#551+[#552-#551]*0.42914]
#111=[#116+[#117-#116]*0.25784]
X7.13654 Y-2.47539 Z[#111+-0.04000]
#116=[#544+[#545-#544]*0.41919]
#117=[#551+[#552-#551]*0.41919]
#111=[#116+[#117-#116]*0.25737]
X7.13636 Y-2.47899 Z[#111+-0.04000]
#116=[#544+[#545-#544]*0.41375]
#117=[#551+[#552-#551]*0.41375]
#111=[#116+[#117-#116]*0.25639]
X7.13597 Y-2.48096 Z[#111+-0.04000]
#116=[#544+[#545-#544]*0.40845]
#117=[#551+[#552-#551]*0.40845]
#111=[#116+[#117-#116]*0.25489]
X7.13539 Y-2.48288 Z[#111+-0.04000]
#116=[#544+[#545-#544]*0.40333]
#117=[#551+[#552-#551]*0.40333]
#111=[#116+[#117-#116]*0.25291]
X7.13461 Y-2.48473 Z[#111+-0.04000]
#116=[#544+[#545-#544]*0.39847]
#117=[#551+[#552-#551]*0.39847]
#111=[#116+[#117-#116]*0.25045]
X7.13365 Y-2.48649 Z[#111+-0.04000]
#116=[#544+[#545-#544]*0.39049]
#117=[#551+[#552-#551]*0.39049]
#111=[#116+[#117-#116]*0.24493]
X7.13148 Y-2.48938 Z[#111+-0.04000]
#116=[#544+[#545-#544]*0.38373]
#117=[#551+[#552-#551]*0.38373]
#111=[#116+[#117-#116]*0.23816]
X7.12883 Y-2.49183 Z[#111+-0.04000]
#116=[#544+[#545-#544]*0.37843]
#117=[#551+[#552-#551]*0.37843]
#111=[#116+[#117-#116]*0.23036]
X7.12577 Y-2.49375 Z[#111+-0.04000]
#116=[#544+[#545-#544]*0.37476]
#117=[#551+[#552-#551]*0.37476]
#111=[#116+[#117-#116]*0.22179]
X7.12242 Y-2.49508 Z[#111+-0.04000]
#116=[#544+[#545-#544]*0.37347]
#117=[#551+[#552-#551]*0.37347]
#111=[#116+[#117-#116]*0.21681]
X7.12047 Y-2.49554 Z[#111+-0.04000]
#116=[#544+[#545-#544]*0.37274]
#117=[#551+[#552-#551]*0.37274]
#111=[#116+[#117-#116]*0.21173]
X7.11848 Y-2.49581 Z[#111+-0.04000]
#111=[#544+[#545-#544]*0.37267]
X7.03553 Y-2.49583 Z[#111+-0.04000]
#116=[#537+[#538-#537]*0.37255]
#117=[#544+[#545-#544]*0.37255]
#111=[#116+[#117-#116]*0.65010]
X6.89846 Y-2.49587 Z[#111+-0.04000]
#111=[#537+[#544-#537]*0.65010]
X6.89846 Y-2.63077 Z[#111+-0.04000]
#116=[#536+[#537-#536]*0.82370]
#117=[#543+[#544-#543]*0.82370]
#111=[#116+[#117-#116]*0.65010]
X6.89846 Y-2.69460 Z[#111+-0.04000]
#111=[#543+[#544-#543]*0.82370]
X7.03553 Y-2.69460 Z[#111+-0.04000]
#116=[#543+[#544-#543]*0.82370]
#117=[#550+[#551-#550]*0.82370]
#111=[#116+[#117-#116]*0.02530]
X7.04544 Y-2.69460 Z[#111+-0.04000]
#116=[#543+[#544-#543]*0.82329]
#117=[#550+[#551-#550]*0.82329]
#111=[#116+[#117-#116]*0.03143]
X7.04785 Y-2.69475 Z[#111+-0.04000]
#116=[#543+[#544-#543]*0.82117]
#117=[#550+[#551-#550]*0.82117]
#111=[#116+[#117-#116]*0.04044]
X7.05137 Y-2.69551 Z[#111+-0.04000]
#116=[#543+[#544-#543]*0.81923]
#117=[#550+[#551-#550]*0.81923]
#111=[#116+[#117-#116]*0.04524]
X7.05325 Y-2.69622 Z[#111+-0.04000]
#116=[#543+[#544-#543]*0.81678]
#117=[#550+[#551-#550]*0.81678]
#111=[#116+[#117-#116]*0.04983]
X7.05505 Y-2.69710 Z[#111+-0.04000]
#116=[#543+[#544-#543]*0.81113]
#117=[#550+[#551-#550]*0.81113]
#111=[#116+[#117-#116]*0.05742]
X7.05803 Y-2.69915 Z[#111+-0.04000]
#116=[#543+[#544-#543]*0.80409]
#117=[#550+[#551-#550]*0.80409]
#111=[#116+[#117-#116]*0.06394]
X7.06058 Y-2.70170 Z[#111+-0.04000]
#116=[#543+[#544-#543]*0.79587]
#117=[#550+[#551-#550]*0.79587]
#111=[#116+[#117-#116]*0.06915]
X7.06262 Y-2.70467 Z[#111+-0.04000]
#116=[#543+[#544-#543]*0.78676]
#117=[#550+[#551-#550]*0.78676]
#111=[#116+[#117-#116]*0.07289]
X7.06409 Y-2.70797 Z[#111+-0.04000]
#116=[#543+[#544-#543]*0.77707]
#117=[#550+[#551-#550]*0.77707]
#111=[#116+[#117-#116]*0.07504]
X7.06493 Y-2.71148 Z[#111+-0.04000]
#116=[#543+[#544-#543]*0.76711]
#117=[#550+[#551-#550]*0.76711]
#111=[#116+[#117-#116]*0.07551]
X7.06511 Y-2.71509 Z[#111+-0.04000]
#116=[#543+[#544-#543]*0.75832]
#117=[#550+[#551-#550]*0.75832]
#111=[#116+[#117-#116]*0.07450]
X7.06472 Y-2.71827 Z[#111+-0.04000]
#116=[#543+[#544-#543]*0.74878]
#117=[#550+[#551-#550]*0.74878]
#111=[#116+[#117-#116]*0.07182]
X7.06367 Y-2.72173 Z[#111+-0.04000]
#116=[#543+[#544-#543]*0.73993]
#117=[#550+[#551-#550]*0.73993]
#111=[#116+[#117-#116]*0.06757]
X7.06200 Y-2.72493 Z[#111+-0.04000]
#116=[#543+[#544-#543]*0.73208]
#117=[#550+[#551-#550]*0.73208]
#111=[#116+[#117-#116]*0.06190]
X7.05978 Y-2.72777 Z[#111+-0.04000]
#116=[#543+[#544-#543]*0.72614]
#117=[#550+[#551-#550]*0.72614]
#111=[#116+[#117-#116]*0.05582]
X7.05740 Y-2.72992 Z[#111+-0.04000]
#116=[#543+[#544-#543]*0.72084]
#117=[#550+[#551-#550]*0.72084]
#111=[#116+[#117-#116]*0.04802]
X7.05434 Y-2.73184 Z[#111+-0.04000]
#116=[#543+[#544-#543]*0.71716]
#117=[#550+[#551-#550]*0.71716]
#111=[#116+[#117-#116]*0.03945]
X7.05099 Y-2.73317 Z[#111+-0.04000]
#116=[#543+[#544-#543]*0.71537]
#117=[#550+[#551-#550]*0.71537]
#111=[#116+[#117-#116]*0.03143]
X7.04785 Y-2.73382 Z[#111+-0.04000]
#116=[#543+[#544-#543]*0.71496]
#117=[#550+[#551-#550]*0.71496]
#111=[#116+[#117-#116]*0.02530]
X7.04544 Y-2.73397 Z[#111+-0.04000]
#111=[#543+[#544-#543]*0.71496]
X7.03553 Y-2.73397 Z[#111+-0.04000]
#116=[#536+[#537-#536]*0.71496]
#117=[#543+[#544-#543]*0.71496]
#111=[#116+[#117-#116]*0.65010]
X6.89846 Y-2.73397 Z[#111+-0.04000]
#116=[#536+[#537-#536]*0.04154]
#117=[#543+[#544-#543]*0.04154]
#111=[#116+[#117-#116]*0.64993]
X6.89840 Y-2.97779 Z[#111+-0.04000]
#116=[#536+[#537-#536]*0.03172]
#117=[#543+[#544-#543]*0.03172]
#111=[#116+[#117-#116]*0.64834]
X6.89777 Y-2.98135 Z[#111+-0.04000]
#116=[#536+[#537-#536]*0.02238]
#117=[#543+[#544-#543]*0.02238]
#111=[#116+[#117-#116]*0.64512]
X6.89651 Y-2.98473 Z[#111+-0.04000]
#116=[#536+[#537-#536]*0.01474]
#117=[#543+[#544-#543]*0.01474]
#111=[#116+[#117-#116]*0.64097]
X6.89489 Y-2.98750 Z[#111+-0.04000]
#116=[#536+[#537-#536]*0.00714]
#117=[#543+[#544-#543]*0.00714]
#111=[#116+[#117-#116]*0.63501]
X6.89255 Y-2.99025 Z[#111+-0.04000]
#116=[#536+[#537-#536]*0.00084]
#117=[#543+[#544-#543]*0.00084]
#111=[#116+[#117-#116]*0.62787]
X6.88975 Y-2.99253 Z[#111+-0.04000]
#116=[#536+[#537-#536]*0.00000]
#117=[#543+[#544-#543]*0.00000]
#111=[#116+[#117-#116]*0.62644]
X6.88919 Y-2.99283 Z[#111+-0.04000]
#116=[#535+[#536-#535]*0.99607]
#117=[#542+[#543-#542]*0.99607]
#111=[#116+[#117-#116]*0.61978]
X6.88659 Y-2.99426 Z[#111+-0.04000]
#116=[#535+[#536-#535]*0.99297]
#117=[#542+[#543-#542]*0.99297]
#111=[#116+[#117-#116]*0.61103]
X6.88316 Y-2.99538 Z[#111+-0.04000]
#116=[#535+[#536-#535]*0.99165]
#117=[#542+[#543-#542]*0.99165]
#111=[#116+[#117-#116]*0.60189]
X6.87958 Y-2.99586 Z[#111+-0.04000]
#116=[#535+[#536-#535]*0.99171]
#117=[#542+[#543-#542]*0.99171]
#111=[#116+[#117-#116]*0.59677]
X6.87757 Y-2.99584 Z[#111+-0.04000]
#116=[#535+[#536-#535]*0.99233]
#117=[#542+[#543-#542]*0.99233]
#111=[#116+[#117-#116]*0.59168]
X6.87558 Y-2.99561 Z[#111+-0.04000]
#116=[#535+[#536-#535]*0.99351]
#117=[#542+[#543-#542]*0.99351]
#111=[#116+[#117-#116]*0.58667]
X6.87362 Y-2.99519 Z[#111+-0.04000]
#116=[#535+[#536-#535]*0.99523]
#117=[#542+[#543-#542]*0.99523]
#111=[#116+[#117-#116]*0.58181]
X6.87171 Y-2.99456 Z[#111+-0.04000]
#116=[#535+[#536-#535]*0.99965]
#117=[#542+[#543-#542]*0.99965]
#111=[#116+[#117-#116]*0.57355]
X6.86847 Y-2.99296 Z[#111+-0.04000]
#116=[#536+[#537-#536]*0.00000]
#117=[#543+[#544-#543]*0.00000]
#111=[#116+[#117-#116]*0.57307]
X6.86829 Y-2.99283 Z[#111+-0.04000]
#116=[#536+[#537-#536]*0.00278]
#117=[#543+[#544-#543]*0.00278]
#111=[#116+[#117-#116]*0.56932]
X6.86682 Y-2.99183 Z[#111+-0.04000]
#116=[#536+[#537-#536]*0.00637]
#117=[#543+[#544-#543]*0.00637]
#111=[#116+[#117-#116]*0.56541]
X6.86529 Y-2.99053 Z[#111+-0.04000]
#116=[#536+[#537-#536]*0.01037]
#117=[#543+[#544-#543]*0.01037]
#111=[#116+[#117-#116]*0.56187]
X6.86390 Y-2.98908 Z[#111+-0.04000]
#116=[#536+[#537-#536]*0.01474]
#117=[#543+[#544-#543]*0.01474]
#111=[#116+[#117-#116]*0.55871]
X6.86266 Y-2.98750 Z[#111+-0.04000]
#116=[#536+[#537-#536]*0.02339]
#117=[#543+[#544-#543]*0.02339]
#111=[#116+[#117-#116]*0.55413]
X6.86087 Y-2.98437 Z[#111+-0.04000]
#116=[#536+[#537-#536]*0.03280]
#117=[#543+[#544-#543]*0.03280]
#111=[#116+[#117-#116]*0.55109]
X6.85968 Y-2.98096 Z[#111+-0.04000]
#116=[#536+[#537-#536]*0.03823]
#117=[#543+[#544-#543]*0.03823]
#111=[#116+[#117-#116]*0.55011]
X6.85929 Y-2.97899 Z[#111+-0.04000]
#116=[#536+[#537-#536]*0.04376]
#117=[#543+[#544-#543]*0.04376]
#111=[#116+[#117-#116]*0.54964]
X6.85911 Y-2.97699 Z[#111+-0.04000]
G04 P0 ( dwell for no time -- G64 should not smooth over this point )
G00 Z0.08000 ( retract )

G00 X7.28770 Y-2.97739 ( rapid move to begin. )
G01 F180.00000
( Mill infeed pass 1/1 )
#116=[#543+[#544-#543]*0.04265]
#117=[#550+[#551-#550]*0.04265]
#111=[#116+[#117-#116]*0.64371]
G01 Z[-0.04000+#111]
G04 P0 ( dwell for no time -- G64 should not smooth over this point )
G01 F360.00000
#116=[#543+[#544-#543]*0.96993]
#117=[#550+[#551-#550]*0.96993]
#111=[#116+[#117-#116]*0.64371]
X7.28770 Y-2.64165 Z[#111+-0.04000]
#116=[#543+[#544-#543]*0.97653]
#117=[#550+[#551-#550]*0.97653]
#111=[#116+[#117-#116]*0.64446]
X7.28799 Y-2.63926 Z[#111+-0.04000]
#116=[#543+[#544-#543]*0.98404]
#117=[#550+[#551-#550]*0.98404]
#111=[#116+[#117-#116]*0.64627]
X7.28870 Y-2.63654 Z[#111+-0.04000]
#116=[#543+[#544-#543]*0.99119]
#117=[#550+[#551-#550]*0.99119]
#111=[#116+[#117-#116]*0.64905]
X7.28979 Y-2.63395 Z[#111+-0.04000]
#116=[#543+[#544-#543]*0.99693]
#117=[#550+[#551-#550]*0.99693]
#111=[#116+[#117-#116]*0.65216]
X7.29101 Y-2.63188 Z[#111+-0.04000]
#111=[#544+[#551-#544]*0.65433]
X7.29186 Y-2.63077 Z[#111+-0.04000]
#116=[#544+[#545-#544]*0.00221]
#117=[#551+[#552-#551]*0.00221]
#111=[#116+[#117-#116]*0.65589]
X7.29247 Y-2.62997 Z[#111+-0.04000]
#116=[#544+[#545-#544]*0.00696]
#117=[#551+[#552-#551]*0.00696]
#111=[#116+[#117-#116]*0.66019]
X7.29416 Y-2.62825 Z[#111+-0.04000]
#116=[#544+[#545-#544]*0.01173]
#117=[#551+[#552-#551]*0.01173]
#111=[#116+[#117-#116]*0.66584]
X7.29637 Y-2.62652 Z[#111+-0.04000]
#116=[#544+[#545-#544]*0.01510]
#117=[#551+[#552-#551]*0.01510]
#111=[#116+[#117-#116]*0.67114]
X7.29845 Y-2.62530 Z[#111+-0.04000]
#116=[#544+[#545-#544]*0.01774]
#117=[#551+[#552-#551]*0.01774]
#111=[#116+[#117-#116]*0.67679]
X7.30066 Y-2.62434 Z[#111+-0.04000]
#116=[#544+[#545-#544]*0.01985]
#117=[#551+[#552-#551]*0.01985]
#111=[#116+[#117-#116]*0.68369]
X7.30336 Y-2.62358 Z[#111+-0.04000]
#116=[#544+[#545-#544]*0.02079]
#117=[#551+[#552-#551]*0.02079]
#111=[#116+[#117-#116]*0.68977]
X7.30574 Y-2.62324 Z[#111+-0.04000]
#116=[#544+[#545-#544]*0.02093]
#117=[#551+[#552-#551]*0.02093]
#111=[#116+[#117-#116]*0.69591]
X7.30815 Y-2.62319 Z[#111+-0.04000]
#116=[#544+[#545-#544]*0.02006]
#117=[#551+[#552-#551]*0.02006]
#111=[#116+[#117-#116]*0.70304]
X7.31094 Y-2.62350 Z[#111+-0.04000]
#116=[#544+[#545-#544]*0.01845]
#117=[#551+[#552-#551]*0.01845]
#111=[#116+[#117-#116]*0.70900]
X7.31328 Y-2.62409 Z[#111+-0.04000]
#116=[#544+[#545-#544]*0.01559]
#117=[#551+[#552-#551]*0.01559]
#111=[#116+[#117-#116]*0.71567]
X7.31589 Y-2.62512 Z[#111+-0.04000]
#116=[#544+[#545-#544]*0.01234]
#117=[#551+[#552-#551]*0.01234]
#111=[#116+[#117-#116]*0.72103]
X7.31799 Y-2.62630 Z[#111+-0.04000]
#116=[#544+[#545-#544]*0.00911]
#117=[#551+[#552-#551]*0.00911]
#111=[#116+[#117-#116]*0.72520]
X7.31962 Y-2.62747 Z[#111+-0.04000]
#116=[#544+[#545-#544]*0.00544]
#117=[#551+[#552-#551]*0.00544]
#111=[#116+[#117-#116]*0.72903]
X7.32112 Y-2.62880 Z[#111+-0.04000]
#111=[#544+[#551-#544]*0.73330]
X7.32280 Y-2.63077 Z[#111+-0.04000]
#116=[#543+[#544-#543]*0.99784]
#117=[#550+[#551-#550]*0.99784]
#111=[#116+[#117-#116]*0.73500]
X7.32346 Y-2.63155 Z[#111+-0.04000]
#116=[#543+[#544-#543]*0.99315]
#117=[#550+[#551-#550]*0.99315]
#111=[#116+[#117-#116]*0.73772]
X7.32453 Y-2.63325 Z[#111+-0.04000]
#116=[#543+[#544-#543]*0.98818]
#117=[#550+[#551-#550]*0.98818]
#111=[#116+[#117-#116]*0.73999]
X7.32542 Y-2.63505 Z[#111+-0.04000]
#116=[#543+[#544-#543]*0.97870]
#117=[#550+[#551-#550]*0.97870]
#111=[#116+[#117-#116]*0.74286]
X7.32654 Y-2.63848 Z[#111+-0.04000]
#116=[#543+[#544-#543]*0.97324]
#117=[#550+[#551-#550]*0.97324]
#111=[#116+[#117-#116]*0.74374]
X7.32689 Y-2.64045 Z[#111+-0.04000]
#116=[#543+[#544-#543]*0.96771]
#117=[#550+[#551-#550]*0.96771]
#111=[#116+[#117-#116]*0.74410]
X7.32703 Y-2.64245 Z[#111+-0.04000]
#116=[#543+[#544-#543]*0.90058]
#117=[#550+[#551-#550]*0.90058]
#111=[#116+[#117-#116]*0.74412]
X7.32703 Y-2.66676 Z[#111+-0.04000]
#116=[#543+[#544-#543]*0.94006]
#117=[#550+[#551-#550]*0.94006]
#111=[#116+[#117-#116]*0.78061]
X7.34133 Y-2.65247 Z[#111+-0.04000]
#116=[#543+[#544-#543]*0.94364]
#117=[#550+[#551-#550]*0.94364]
#111=[#116+[#117-#116]*0.78443]
X7.34282 Y-2.65117 Z[#111+-0.04000]
#116=[#543+[#544-#543]*0.94736]
#117=[#550+[#551-#550]*0.94736]
#111=[#116+[#117-#116]*0.78941]
X7.34478 Y-2.64982 Z[#111+-0.04000]
#111=[#544+[#551-#544]*0.88645]
X7.38279 Y-2.63077 Z[#111+-0.04000]
#116=[#544+[#545-#544]*0.01571]
#117=[#551+[#552-#551]*0.01571]
#111=[#116+[#117-#116]*0.91542]
X7.39414 Y-2.62508 Z[#111+-0.04000]
#116=[#544+[#545-#544]*0.01817]
#117=[#551+[#552-#551]*0.01817]
#111=[#116+[#117-#116]*0.92105]
X7.39635 Y-2.62419 Z[#111+-0.04000]
#116=[#544+[#545-#544]*0.02008]
#117=[#551+[#552-#551]*0.02008]
#111=[#116+[#117-#116]*0.92791]
X7.39903 Y-2.62350 Z[#111+-0.04000]
#116=[#544+[#545-#544]*0.02098]
#117=[#551+[#552-#551]*0.02098]
#111=[#116+[#117-#116]*0.93698]
X7.40259 Y-2.62317 Z[#111+-0.04000]
#111=[#551+[#552-#551]*0.02098]
X7.42727 Y-2.62317 Z[#111+-0.04000]
#116=[#551+[#552-#551]*0.02098]
#117=[#558+[#559-#558]*0.02098]
#111=[#116+[#117-#116]*0.05854]
X7.45021 Y-2.62317 Z[#111+-0.04000]
#116=[#551+[#552-#551]*0.02057]
#117=[#558+[#559-#558]*0.02057]
#111=[#116+[#117-#116]*0.06467]
X7.45261 Y-2.62332 Z[#111+-0.04000]
#116=[#551+[#552-#551]*0.01935]
#117=[#558+[#559-#558]*0.01935]
#111=[#116+[#117-#116]*0.07072]
X7.45498 Y-2.62376 Z[#111+-0.04000]
#116=[#551+[#552-#551]*0.01694]
#117=[#558+[#559-#558]*0.01694]
#111=[#116+[#117-#116]*0.07753]
X7.45765 Y-2.62463 Z[#111+-0.04000]
#116=[#551+[#552-#551]*0.01293]
#117=[#558+[#559-#558]*0.01293]
#111=[#116+[#117-#116]*0.08484]
X7.46051 Y-2.62608 Z[#111+-0.04000]
#116=[#551+[#552-#551]*0.00769]
#117=[#558+[#559-#558]*0.00769]
#111=[#116+[#117-#116]*0.09144]
X7.46310 Y-2.62798 Z[#111+-0.04000]
#116=[#551+[#552-#551]*0.00136]
#117=[#558+[#559-#558]*0.00136]
#111=[#116+[#117-#116]*0.09718]
X7.46534 Y-2.63027 Z[#111+-0.04000]
#111=[#551+[#558-#551]*0.09806]
X7.46569 Y-2.63077 Z[#111+-0.04000]
#116=[#550+[#551-#550]*0.99411]
#117=[#557+[#558-#557]*0.99411]
#111=[#116+[#117-#116]*0.10188]
X7.46719 Y-2.63290 Z[#111+-0.04000]
#116=[#550+[#551-#550]*0.98612]
#117=[#557+[#558-#557]*0.98612]
#111=[#116+[#117-#116]*0.10544]
X7.46858 Y-2.63579 Z[#111+-0.04000]
#116=[#550+[#551-#550]*0.97762]
#117=[#557+[#558-#557]*0.97762]
#111=[#116+[#117-#116]*0.10775]
X7.46948 Y-2.63887 Z[#111+-0.04000]
#116=[#550+[#551-#550]*0.96993]
#117=[#557+[#558-#557]*0.96993]
#111=[#116+[#117-#116]*0.10870]
X7.46985 Y-2.64165 Z[#111+-0.04000]
#116=[#550+[#551-#550]*0.96107]
#117=[#557+[#558-#557]*0.96107]
#111=[#116+[#117-#116]*0.10853]
X7.46979 Y-2.64486 Z[#111+-0.04000]
#116=[#550+[#551-#550]*0.95343]
#117=[#557+[#558-#557]*0.95343]
#111=[#116+[#117-#116]*0.10729]
X7.46930 Y-2.64763 Z[#111+-0.04000]
#116=[#550+[#551-#550]*0.94606]
#117=[#557+[#558-#557]*0.94606]
#111=[#116+[#117-#116]*0.10506]
X7.46843 Y-2.65030 Z[#111+-0.04000]
#116=[#550+[#551-#550]*0.93815]
#117=[#557+[#558-#557]*0.93815]
#111=[#116+[#117-#116]*0.10136]
X7.46698 Y-2.65316 Z[#111+-0.04000]
#116=[#550+[#551-#550]*0.93100]
#117=[#557+[#558-#557]*0.93100]
#111=[#116+[#117-#116]*0.09651]
X7.46508 Y-2.65575 Z[#111+-0.04000]
#116=[#550+[#551-#550]*0.92480]
#117=[#557+[#558-#557]*0.92480]
#111=[#116+[#117-#116]*0.09066]
X7.46279 Y-2.65799 Z[#111+-0.04000]
#116=[#550+[#551-#550]*0.92028]
#117=[#557+[#558-#557]*0.92028]
#111=[#116+[#117-#116]*0.08484]
X7.46051 Y-2.65963 Z[#111+-0.04000]
#116=[#550+[#551-#550]*0.91627]
#117=[#557+[#558-#557]*0.91627]
#111=[#116+[#117-#116]*0.07753]
X7.45765 Y-2.66108 Z[#111+-0.04000]
#116=[#550+[#551-#550]*0.91337]
#117=[#557+[#558-#557]*0.91337]
#111=[#116+[#117-#116]*0.06872]
X7.45419 Y-2.66213 Z[#111+-0.04000]
#116=[#550+[#551-#550]*0.91225]
#117=[#557+[#558-#557]*0.91225]
#111=[#116+[#117-#116]*0.05956]
X7.45061 Y-2.66254 Z[#111+-0.04000]
#111=[#550+[#551-#550]*0.91224]
X7.42727 Y-2.66254 Z[#111+-0.04000]
#116=[#543+[#544-#543]*0.91224]
#117=[#550+[#551-#550]*0.91224]
#111=[#116+[#117-#116]*0.94884]
X7.40723 Y-2.66254 Z[#111+-0.04000]
#116=[#543+[#544-#543]*0.85616]
#117=[#550+[#551-#550]*0.85616]
#111=[#116+[#117-#116]*0.84519]
X7.36663 Y-2.68284 Z[#111+-0.04000]
#116=[#543+[#544-#543]*0.80288]
#117=[#550+[#551-#550]*0.80288]
#111=[#116+[#117-#116]*0.79594]
X7.34734 Y-2.70214 Z[#111+-0.04000]
#116=[#543+[#544-#543]*0.69073]
#117=[#550+[#551-#550]*0.69073]
#111=[#116+[#117-#116]*0.74412]
X7.32703 Y-2.74274 Z[#111+-0.04000]
#116=[#543+[#544-#543]*0.04154]
#117=[#550+[#551-#550]*0.04154]
#111=[#116+[#117-#116]*0.74395]
X7.32697 Y-2.97779 Z[#111+-0.04000]
#116=[#543+[#544-#543]*0.03172]
#117=[#550+[#551-#550]*0.03172]
#111=[#116+[#117-#116]*0.74236]
X7.32634 Y-2.98135 Z[#111+-0.04000]
#116=[#543+[#544-#543]*0.02238]
#117=[#550+[#551-#550]*0.02238]
#111=[#116+[#117-#116]*0.73914]
X7.32508 Y-2.98473 Z[#111+-0.04000]
#116=[#543+[#544-#543]*0.01474]
#117=[#550+[#551-#550]*0.01474]
#111=[#116+[#117-#116]*0.73500]
X7.32346 Y-2.98750 Z[#111+-0.04000]
#116=[#543+[#544-#543]*0.00714]
#117=[#550+[#551-#550]*0.00714]
#111=[#116+[#117-#116]*0.72903]
X7.32112 Y-2.99025 Z[#111+-0.04000]
#116=[#543+[#544-#543]*0.00084]
#117=[#550+[#551-#550]*0.00084]
#111=[#116+[#117-#116]*0.72189]
X7.31833 Y-2.99253 Z[#111+-0.04000]
#116=[#543+[#544-#543]*0.00000]
#117=[#550+[#551-#550]*0.00000]
#111=[#116+[#117-#116]*0.72046]
X7.31777 Y-2.99283 Z[#111+-0.04000]
#116=[#542+[#543-#542]*0.99607]
