( pcb2gcode 2.2.2 )
( Gcode for custom )

G94 ( Inches per minute feed rate. )
G20 ( Units == INCHES. )

G90 ( Absolute coordinates. )
G00 S12000 ( RPM spindle speed. )
G64 P0.00040 ( set maximum deviation from commanded toolpath )
G01 F360.00000 ( Feedrate. )

#118 = #5211
#119 = #5212

(MSG, Attach the probe tool)
M0 ( Temporary machine stop. )
G0 Z0.080 ( Move Z to safe height )
G0 X4.68507 Y-3.35492 ( Move XY to start point )
G0 Z0.080 ( Move Z to probe height )
G38.2 Z-0.1 F2.362205 ( Z-probe )
#500 = 0 ( Probe point [0, 0] is our reference )
G92 Z0 ( Set the current Z as zero-value )

( We now start the real probing: move the Z axis to the probing height, move to )
( the probing XY position, probe it and save the result, parameter #2002, )
( in a numbered parameter; we will make 17 probes on the X-axis and )
( 7 probes on the Y-axis, for a grand total of 119 probes )

G0 Z0.080
X4.68507 Y-2.99285
G38.2 Z-0.1 F2.362205
#501=#2002
G0 Z0.080
X4.68507 Y-2.63077
G38.2 Z-0.1 F2.362205
#502=#2002
G0 Z0.080
X4.68507 Y-2.26870
G38.2 Z-0.1 F2.362205
#503=#2002
G0 Z0.080
X4.68507 Y-1.90663
G38.2 Z-0.1 F2.362205
#504=#2002
G0 Z0.080
X4.68507 Y-1.54456
G38.2 Z-0.1 F2.362205
#505=#2002
G0 Z0.080
X4.68507 Y-1.18248
G38.2 Z-0.1 F2.362205
#506=#2002
G0 Z0.080
X5.07681 Y-1.18248
G38.2 Z-0.1 F2.362205
#513=#2002
G0 Z0.080
X5.07681 Y-1.54456
G38.2 Z-0.1 F2.362205
#512=#2002
G0 Z0.080
X5.07681 Y-1.90663
G38.2 Z-0.1 F2.362205
#511=#2002
G0 Z0.080
X5.07681 Y-2.26870
G38.2 Z-0.1 F2.362205
#510=#2002
G0 Z0.080
X5.07681 Y-2.63077
G38.2 Z-0.1 F2.362205
#509=#2002
G0 Z0.080
X5.07681 Y-2.99285
G38.2 Z-0.1 F2.362205
#508=#2002
G0 Z0.080
X5.07681 Y-3.35492
G38.2 Z-0.1 F2.362205
#507=#2002
G0 Z0.080
X5.46856 Y-3.35492
G38.2 Z-0.1 F2.362205
#514=#2002
G0 Z0.080
X5.46856 Y-2.99285
G38.2 Z-0.1 F2.362205
#515=#2002
G0 Z0.080
X5.46856 Y-2.63077
G38.2 Z-0.1 F2.362205
#516=#2002
G0 Z0.080
X5.46856 Y-2.26870
G38.2 Z-0.1 F2.362205
#517=#2002
G0 Z0.080
X5.46856 Y-1.90663
G38.2 Z-0.1 F2.362205
#518=#2002
G0 Z0.080
X5.46856 Y-1.54456
G38.2 Z-0.1 F2.362205
#519=#2002
G0 Z0.080
X5.46856 Y-1.18248
G38.2 Z-0.1 F2.362205
#520=#2002
G0 Z0.080
X5.86030 Y-1.18248
G38.2 Z-0.1 F2.362205
#527=#2002
G0 Z0.080
X5.86030 Y-1.54456
G38.2 Z-0.1 F2.362205
#526=#2002
G0 Z0.080
X5.86030 Y-1.90663
G38.2 Z-0.1 F2.362205
#525=#2002
G0 Z0.080
X5.86030 Y-2.26870
G38.2 Z-0.1 F2.362205
#524=#2002
G0 Z0.080
X5.86030 Y-2.63077
G38.2 Z-0.1 F2.362205
#523=#2002
G0 Z0.080
X5.86030 Y-2.99285
G38.2 Z-0.1 F2.362205
#522=#2002
G0 Z0.080
X5.86030 Y-3.35492
G38.2 Z-0.1 F2.362205
#521=#2002
G0 Z0.080
X6.25204 Y-3.35492
G38.2 Z-0.1 F2.362205
#528=#2002
G0 Z0.080
X6.25204 Y-2.99285
G38.2 Z-0.1 F2.362205
#529=#2002
G0 Z0.080
X6.25204 Y-2.63077
G38.2 Z-0.1 F2.362205
#530=#2002
G0 Z0.080
X6.25204 Y-2.26870
G38.2 Z-0.1 F2.362205
#531=#2002
G0 Z0.080
X6.25204 Y-1.90663
G38.2 Z-0.1 F2.362205
#532=#2002
G0 Z0.080
X6.25204 Y-1.54456
G38.2 Z-0.1 F2.362205
#533=#2002
G0 Z0.080
X6.25204 Y-1.18248
G38.2 Z-0.1 F2.362205
#534=#2002
G0 Z0.080
X6.64378 Y-1.18248
G38.2 Z-0.1 F2.362205
#541=#2002
G0 Z0.080
X6.64378 Y-1.54456
G38.2 Z-0.1 F2.362205
#540=#2002
G0 Z0.080
X6.64378 Y-1.90663
G38.2 Z-0.1 F2.362205
#539=#2002
G0 Z0.080
X6.64378 Y-2.26870
G38.2 Z-0.1 F2.362205
#538=#2002
G0 Z0.080
X6.64378 Y-2.63077
G38.2 Z-0.1 F2.362205
#537=#2002
G0 Z0.080
X6.64378 Y-2.99285
G38.2 Z-0.1 F2.362205
#536=#2002
G0 Z0.080
X6.64378 Y-3.35492
G38.2 Z-0.1 F2.362205
#535=#2002
G0 Z0.080
X7.03553 Y-3.35492
G38.2 Z-0.1 F2.362205
#542=#2002
G0 Z0.080
X7.03553 Y-2.99285
G38.2 Z-0.1 F2.362205
#543=#2002
G0 Z0.080
X7.03553 Y-2.63077
G38.2 Z-0.1 F2.362205
#544=#2002
G0 Z0.080
X7.03553 Y-2.26870
G38.2 Z-0.1 F2.362205
#545=#2002
G0 Z0.080
X7.03553 Y-1.90663
G38.2 Z-0.1 F2.362205
#546=#2002
G0 Z0.080
X7.03553 Y-1.54456
G38.2 Z-0.1 F2.362205
#547=#2002
G0 Z0.080
X7.03553 Y-1.18248
G38.2 Z-0.1 F2.362205
#548=#2002
G0 Z0.080
X7.42727 Y-1.18248
G38.2 Z-0.1 F2.362205
#555=#2002
G0 Z0.080
X7.42727 Y-1.54456
G38.2 Z-0.1 F2.362205
#554=#2002
G0 Z0.080
X7.42727 Y-1.90663
G38.2 Z-0.1 F2.362205
#553=#2002
G0 Z0.080
X7.42727 Y-2.26870
G38.2 Z-0.1 F2.362205
#552=#2002
G0 Z0.080
X7.42727 Y-2.63077
G38.2 Z-0.1 F2.362205
#551=#2002
G0 Z0.080
X7.42727 Y-2.99285
G38.2 Z-0.1 F2.362205
#550=#2002
G0 Z0.080
X7.42727 Y-3.35492
G38.2 Z-0.1 F2.362205
#549=#2002
G0 Z0.080
X7.81901 Y-3.35492
G38.2 Z-0.1 F2.362205
#556=#2002
G0 Z0.080
X7.81901 Y-2.99285
G38.2 Z-0.1 F2.362205
#557=#2002
G0 Z0.080
X7.81901 Y-2.63077
G38.2 Z-0.1 F2.362205
#558=#2002
G0 Z0.080
X7.81901 Y-2.26870
G38.2 Z-0.1 F2.362205
#559=#2002
G0 Z0.080
X7.81901 Y-1.90663
G38.2 Z-0.1 F2.362205
#560=#2002
G0 Z0.080
X7.81901 Y-1.54456
G38.2 Z-0.1 F2.362205
#561=#2002
G0 Z0.080
X7.81901 Y-1.18248
G38.2 Z-0.1 F2.362205
#562=#2002
G0 Z0.080
X8.21075 Y-1.18248
G38.2 Z-0.1 F2.362205
#569=#2002
G0 Z0.080
X8.21075 Y-1.54456
G38.2 Z-0.1 F2.362205
#568=#2002
G0 Z0.080
X8.21075 Y-1.90663
G38.2 Z-0.1 F2.362205
#567=#2002
G0 Z0.080
X8.21075 Y-2.26870
G38.2 Z-0.1 F2.362205
#566=#2002
G0 Z0.080
X8.21075 Y-2.63077
G38.2 Z-0.1 F2.362205
#565=#2002
G0 Z0.080
X8.21075 Y-2.99285
G38.2 Z-0.1 F2.362205
#564=#2002
G0 Z0.080
X8.21075 Y-3.35492
G38.2 Z-0.1 F2.362205
#563=#2002
G0 Z0.080
X8.60250 Y-3.35492
G38.2 Z-0.1 F2.362205
#570=#2002
G0 Z0.080
X8.60250 Y-2.99285
G38.2 Z-0.1 F2.362205
#571=#2002
G0 Z0.080
X8.60250 Y-2.63077
G38.2 Z-0.1 F2.362205
#572=#2002
G0 Z0.080
X8.60250 Y-2.26870
G38.2 Z-0.1 F2.362205
#573=#2002
G0 Z0.080
X8.60250 Y-1.90663
G38.2 Z-0.1 F2.362205
#574=#2002
G0 Z0.080
X8.60250 Y-1.54456
G38.2 Z-0.1 F2.362205
#575=#2002
G0 Z0.080
X8.60250 Y-1.18248
G38.2 Z-0.1 F2.362205
#576=#2002
G0 Z0.080
X8.99424 Y-1.18248
G38.2 Z-0.1 F2.362205
#583=#2002
G0 Z0.080
X8.99424 Y-1.54456
G38.2 Z-0.1 F2.362205
#582=#2002
G0 Z0.080
X8.99424 Y-1.90663
G38.2 Z-0.1 F2.362205
#581=#2002
G0 Z0.080
X8.99424 Y-2.26870
G38.2 Z-0.1 F2.362205
#580=#2002
G0 Z0.080
X8.99424 Y-2.63077
G38.2 Z-0.1 F2.362205
#579=#2002
G0 Z0.080
X8.99424 Y-2.99285
G38.2 Z-0.1 F2.362205
#578=#2002
G0 Z0.080
X8.99424 Y-3.35492
G38.2 Z-0.1 F2.362205
#577=#2002
G0 Z0.080
X9.38598 Y-3.35492
G38.2 Z-0.1 F2.362205
#584=#2002
G0 Z0.080
X9.38598 Y-2.99285
G38.2 Z-0.1 F2.362205
#585=#2002
G0 Z0.080
X9.38598 Y-2.63077
G38.2 Z-0.1 F2.362205
#586=#2002
G0 Z0.080
X9.38598 Y-2.26870
G38.2 Z-0.1 F2.362205
#587=#2002
G0 Z0.080
X9.38598 Y-1.90663
G38.2 Z-0.1 F2.362205
#588=#2002
G0 Z0.080
X9.38598 Y-1.54456
G38.2 Z-0.1 F2.362205
#589=#2002
G0 Z0.080
X9.38598 Y-1.18248
G38.2 Z-0.1 F2.362205
#590=#2002
G0 Z0.080
X9.77772 Y-1.18248
G38.2 Z-0.1 F2.362205
#597=#2002
G0 Z0.080
X9.77772 Y-1.54456
G38.2 Z-0.1 F2.362205
#596=#2002
G0 Z0.080
X9.77772 Y-1.90663
G38.2 Z-0.1 F2.362205
#595=#2002
G0 Z0.080
X9.77772 Y-2.26870
G38.2 Z-0.1 F2.362205
#594=#2002
G0 Z0.080
X9.77772 Y-2.63077
G38.2 Z-0.1 F2.362205
#593=#2002
G0 Z0.080
X9.77772 Y-2.99285
G38.2 Z-0.1 F2.362205
#592=#2002
G0 Z0.080
X9.77772 Y-3.35492
G38.2 Z-0.1 F2.362205
#591=#2002
G0 Z0.080
X10.16947 Y-3.35492
G38.2 Z-0.1 F2.362205
#598=#2002
G0 Z0.080
X10.16947 Y-2.99285
G38.2 Z-0.1 F2.362205
#599=#2002
G0 Z0.080
X10.16947 Y-2.63077
G38.2 Z-0.1 F2.362205
#600=#2002
G0 Z0.080
X10.16947 Y-2.26870
G38.2 Z-0.1 F2.362205
#601=#2002
G0 Z0.080
X10.16947 Y-1.90663
G38.2 Z-0.1 F2.362205
#602=#2002
G0 Z0.080
X10.16947 Y-1.54456
G38.2 Z-0.1 F2.362205
#603=#2002
G0 Z0.080
X10.16947 Y-1.18248
G38.2 Z-0.1 F2.362205
#604=#2002
G0 Z0.080
X10.56121 Y-1.18248
G38.2 Z-0.1 F2.362205
#611=#2002
G0 Z0.080
X10.56121 Y-1.54456
G38.2 Z-0.1 F2.362205
#610=#2002
G0 Z0.080
X10.56121 Y-1.90663
G38.2 Z-0.1 F2.362205
#609=#2002
G0 Z0.080
X10.56121 Y-2.26870
G38.2 Z-0.1 F2.362205
#608=#2002
G0 Z0.080
X10.56121 Y-2.63077
G38.2 Z-0.1 F2.362205
#607=#2002
G0 Z0.080
X10.56121 Y-2.99285
G38.2 Z-0.1 F2.362205
#606=#2002
G0 Z0.080
X10.56121 Y-3.35492
G38.2 Z-0.1 F2.362205
#605=#2002
G0 Z0.080
X10.95295 Y-3.35492
G38.2 Z-0.1 F2.362205
#612=#2002
G0 Z0.080
X10.95295 Y-2.99285
G38.2 Z-0.1 F2.362205
#613=#2002
G0 Z0.080
X10.95295 Y-2.63077
G38.2 Z-0.1 F2.362205
#614=#2002
G0 Z0.080
X10.95295 Y-2.26870
G38.2 Z-0.1 F2.362205
#615=#2002
G0 Z0.080
X10.95295 Y-1.90663
G38.2 Z-0.1 F2.362205
#616=#2002
G0 Z0.080
X10.95295 Y-1.54456
G38.2 Z-0.1 F2.362205
#617=#2002
G0 Z0.080
X10.95295 Y-1.18248
G38.2 Z-0.1 F2.362205
#618=#2002

G0 Z0.080 ( Move Z to safe height )
( Probing has ended, each Z-coordinate will be corrected with a bilinear interpolation )
(MSG, Detach the probe tool)
M0 ( Temporary machine stop. )


G00 Z1.00000 (Retract to tool change height)
T0
M5      (Spindle stop.)
G04 P1.00000 (Wait for spindle to stop)
(MSG, Change tool bit to mill diameter 0.00000in)
M6      (Tool change.)
M0      (Temporary machine stop.)
M3 ( Spindle on clockwise. )
G04 P1.00000 (Wait for spindle to get up to speed)
( Piece #1, position [0;0] )

G04 P0 ( dwell for no time -- G64 should not smooth over this point )
G00 Z0.08000 ( retract )

G00 X4.68507 Y-2.97619 ( rapid move to begin. )
G01 F180.00000
( Mill infeed pass 1/1 )
#111=[#501+[#502-#501]*0.04601]
G01 Z[-0.04000+#111]
G04 P0 ( dwell for no time -- G64 should not smooth over this point )
G01 F360.00000
#111=[#502+[#503-#502]*0.00000]
X4.68507 Y-2.63077 Z[#111+-0.04000]
#111=[#502+[#503-#502]*0.42694]
X4.68507 Y-2.47619 Z[#111+-0.04000]
#116=[#502+[#503-#502]*0.43755]
#117=[#509+[#510-#509]*0.43755]
#111=[#116+[#117-#116]*0.00097]
X4.68545 Y-2.47235 Z[#111+-0.04000]
#116=[#502+[#503-#502]*0.44774]
#117=[#509+[#510-#509]*0.44774]
#111=[#116+[#117-#116]*0.00383]
X4.68657 Y-2.46866 Z[#111+-0.04000]
#116=[#502+[#503-#502]*0.45716]
#117=[#509+[#510-#509]*0.45716]
#111=[#116+[#117-#116]*0.00847]
X4.68839 Y-2.46525 Z[#111+-0.04000]
#116=[#502+[#503-#502]*0.46539]
#117=[#509+[#510-#509]*0.46539]
#111=[#116+[#117-#116]*0.01473]
X4.69084 Y-2.46227 Z[#111+-0.04000]
#116=[#502+[#503-#502]*0.47216]
#117=[#509+[#510-#509]*0.47216]
#111=[#116+[#117-#116]*0.02234]
X4.69382 Y-2.45982 Z[#111+-0.04000]
#116=[#502+[#503-#502]*0.47718]
#117=[#509+[#510-#509]*0.47718]
#111=[#116+[#117-#116]*0.03104]
X4.69723 Y-2.45800 Z[#111+-0.04000]
#116=[#502+[#503-#502]*0.48028]
#117=[#509+[#510-#509]*0.48028]
#111=[#116+[#117-#116]*0.04046]
X4.70092 Y-2.45688 Z[#111+-0.04000]
#116=[#502+[#503-#502]*0.48133]
#117=[#509+[#510-#509]*0.48133]
#111=[#116+[#117-#116]*0.05026]
X4.70476 Y-2.45650 Z[#111+-0.04000]
#116=[#502+[#503-#502]*0.48133]
#117=[#509+[#510-#509]*0.48133]
#111=[#116+[#117-#116]*0.65806]
X4.94286 Y-2.45650 Z[#111+-0.04000]
#116=[#502+[#503-#502]*0.48028]
#117=[#509+[#510-#509]*0.48028]
#111=[#116+[#117-#116]*0.66786]
X4.94670 Y-2.45688 Z[#111+-0.04000]
#116=[#502+[#503-#502]*0.47718]
#117=[#509+[#510-#509]*0.47718]
#111=[#116+[#117-#116]*0.67728]
X4.95039 Y-2.45800 Z[#111+-0.04000]
#116=[#502+[#503-#502]*0.47216]
#117=[#509+[#510-#509]*0.47216]
#111=[#116+[#117-#116]*0.68599]
X4.95380 Y-2.45982 Z[#111+-0.04000]
#116=[#502+[#503-#502]*0.46539]
#117=[#509+[#510-#509]*0.46539]
#111=[#116+[#117-#116]*0.69359]
X4.95678 Y-2.46227 Z[#111+-0.04000]
#116=[#502+[#503-#502]*0.45716]
#117=[#509+[#510-#509]*0.45716]
#111=[#116+[#117-#116]*0.69985]
X4.95923 Y-2.46525 Z[#111+-0.04000]
#116=[#502+[#503-#502]*0.44774]
#117=[#509+[#510-#509]*0.44774]
#111=[#116+[#117-#116]*0.70449]
X4.96105 Y-2.46866 Z[#111+-0.04000]
#116=[#502+[#503-#502]*0.43755]
#117=[#509+[#510-#509]*0.43755]
#111=[#116+[#117-#116]*0.70735]
X4.96217 Y-2.47235 Z[#111+-0.04000]
#116=[#502+[#503-#502]*0.42694]
#117=[#509+[#510-#509]*0.42694]
#111=[#116+[#117-#116]*0.70832]
X4.96255 Y-2.47619 Z[#111+-0.04000]
#116=[#502+[#503-#502]*0.41634]
#117=[#509+[#510-#509]*0.41634]
#111=[#116+[#117-#116]*0.70735]
X4.96217 Y-2.48003 Z[#111+-0.04000]
#116=[#502+[#503-#502]*0.40615]
#117=[#509+[#510-#509]*0.40615]
#111=[#116+[#117-#116]*0.70449]
X4.96105 Y-2.48372 Z[#111+-0.04000]
#116=[#502+[#503-#502]*0.39673]
#117=[#509+[#510-#509]*0.39673]
#111=[#116+[#117-#116]*0.69985]
X4.95923 Y-2.48713 Z[#111+-0.04000]
#116=[#502+[#503-#502]*0.38850]
#117=[#509+[#510-#509]*0.38850]
#111=[#116+[#117-#116]*0.69359]
X4.95678 Y-2.49011 Z[#111+-0.04000]
#116=[#502+[#503-#502]*0.38173]
#117=[#509+[#510-#509]*0.38173]
#111=[#116+[#117-#116]*0.68599]
X4.95380 Y-2.49256 Z[#111+-0.04000]
#116=[#502+[#503-#502]*0.37671]
#117=[#509+[#510-#509]*0.37671]
#111=[#116+[#117-#116]*0.67728]
X4.95039 Y-2.49438 Z[#111+-0.04000]
#116=[#502+[#503-#502]*0.37361]
#117=[#509+[#510-#509]*0.37361]
#111=[#116+[#117-#116]*0.66786]
X4.94670 Y-2.49550 Z[#111+-0.04000]
#116=[#502+[#503-#502]*0.37256]
#117=[#509+[#510-#509]*0.37256]
#111=[#116+[#117-#116]*0.65806]
X4.94286 Y-2.49588 Z[#111+-0.04000]
#116=[#502+[#503-#502]*0.37256]
#117=[#509+[#510-#509]*0.37256]
#111=[#116+[#117-#116]*0.10053]
X4.72445 Y-2.49588 Z[#111+-0.04000]
#116=[#502+[#503-#502]*0.00000]
#117=[#509+[#510-#509]*0.00000]
#111=[#116+[#117-#116]*0.10053]
X4.72445 Y-2.63077 Z[#111+-0.04000]
#116=[#501+[#502-#501]*0.82375]
#117=[#508+[#509-#508]*0.82375]
#111=[#116+[#117-#116]*0.10053]
X4.72445 Y-2.69459 Z[#111+-0.04000]
#116=[#501+[#502-#501]*0.82375]
#117=[#508+[#509-#508]*0.82375]
#111=[#116+[#117-#116]*0.47572]
X4.87143 Y-2.69459 Z[#111+-0.04000]
#116=[#501+[#502-#501]*0.82270]
#117=[#508+[#509-#508]*0.82270]
#111=[#116+[#117-#116]*0.48552]
X4.87527 Y-2.69497 Z[#111+-0.04000]
#116=[#501+[#502-#501]*0.81961]
#117=[#508+[#509-#508]*0.81961]
#111=[#116+[#117-#116]*0.49494]
X4.87896 Y-2.69609 Z[#111+-0.04000]
#116=[#501+[#502-#501]*0.81458]
#117=[#508+[#509-#508]*0.81458]
#111=[#116+[#117-#116]*0.50365]
X4.88237 Y-2.69791 Z[#111+-0.04000]
#116=[#501+[#502-#501]*0.80781]
#117=[#508+[#509-#508]*0.80781]
#111=[#116+[#117-#116]*0.51125]
X4.88535 Y-2.70036 Z[#111+-0.04000]
#116=[#501+[#502-#501]*0.79958]
#117=[#508+[#509-#508]*0.79958]
#111=[#116+[#117-#116]*0.51751]
X4.88780 Y-2.70334 Z[#111+-0.04000]
#116=[#501+[#502-#501]*0.79017]
#117=[#508+[#509-#508]*0.79017]
#111=[#116+[#117-#116]*0.52215]
X4.88962 Y-2.70675 Z[#111+-0.04000]
#116=[#501+[#502-#501]*0.77997]
#117=[#508+[#509-#508]*0.77997]
#111=[#116+[#117-#116]*0.52501]
X4.89074 Y-2.71044 Z[#111+-0.04000]
#116=[#501+[#502-#501]*0.76937]
#117=[#508+[#509-#508]*0.76937]
#111=[#116+[#117-#116]*0.52598]
X4.89112 Y-2.71428 Z[#111+-0.04000]
#116=[#501+[#502-#501]*0.75876]
#117=[#508+[#509-#508]*0.75876]
#111=[#116+[#117-#116]*0.52501]
X4.89074 Y-2.71812 Z[#111+-0.04000]
#116=[#501+[#502-#501]*0.74857]
#117=[#508+[#509-#508]*0.74857]
#111=[#116+[#117-#116]*0.52215]
X4.88962 Y-2.72181 Z[#111+-0.04000]
#116=[#501+[#502-#501]*0.73915]
#117=[#508+[#509-#508]*0.73915]
#111=[#116+[#117-#116]*0.51751]
X4.88780 Y-2.72522 Z[#111+-0.04000]
#116=[#501+[#502-#501]*0.73092]
#117=[#508+[#509-#508]*0.73092]
#111=[#116+[#117-#116]*0.51125]
X4.88535 Y-2.72820 Z[#111+-0.04000]
#116=[#501+[#502-#501]*0.72416]
#117=[#508+[#509-#508]*0.72416]
#111=[#116+[#117-#116]*0.50365]
X4.88237 Y-2.73065 Z[#111+-0.04000]
#116=[#501+[#502-#501]*0.71913]
#117=[#508+[#509-#508]*0.71913]
#111=[#116+[#117-#116]*0.49494]
X4.87896 Y-2.73247 Z[#111+-0.04000]
#116=[#501+[#502-#501]*0.71604]
#117=[#508+[#509-#508]*0.71604]
#111=[#116+[#117-#116]*0.48552]
X4.87527 Y-2.73359 Z[#111+-0.04000]
#116=[#501+[#502-#501]*0.71499]
#117=[#508+[#509-#508]*0.71499]
#111=[#116+[#117-#116]*0.47572]
X4.87143 Y-2.73397 Z[#111+-0.04000]
#116=[#501+[#502-#501]*0.71499]
#117=[#508+[#509-#508]*0.71499]
#111=[#116+[#117-#116]*0.10053]
X4.72445 Y-2.73397 Z[#111+-0.04000]
#116=[#501+[#502-#501]*0.04601]
#117=[#508+[#509-#508]*0.04601]
#111=[#116+[#117-#116]*0.10053]
X4.72445 Y-2.97619 Z[#111+-0.04000]
#116=[#501+[#502-#501]*0.03540]
#117=[#508+[#509-#508]*0.03540]
#111=[#116+[#117-#116]*0.09956]
X4.72407 Y-2.98003 Z[#111+-0.04000]
#116=[#501+[#502-#501]*0.02521]
#117=[#508+[#509-#508]*0.02521]
#111=[#116+[#117-#116]*0.09670]
X4.72295 Y-2.98372 Z[#111+-0.04000]
#116=[#501+[#502-#501]*0.01579]
#117=[#508+[#509-#508]*0.01579]
#111=[#116+[#117-#116]*0.09205]
X4.72113 Y-2.98713 Z[#111+-0.04000]
#116=[#501+[#502-#501]*0.00756]
#117=[#508+[#509-#508]*0.00756]
#111=[#116+[#117-#116]*0.08580]
X4.71868 Y-2.99011 Z[#111+-0.04000]
#116=[#501+[#502-#501]*0.00079]
#117=[#508+[#509-#508]*0.00079]
#111=[#116+[#117-#116]*0.07819]
X4.71570 Y-2.99256 Z[#111+-0.04000]
#116=[#500+[#501-#500]*1.00000]
#117=[#507+[#508-#507]*1.00000]
#111=[#116+[#117-#116]*0.07681]
X4.71516 Y-2.99285 Z[#111+-0.04000]
#116=[#500+[#501-#500]*0.99577]
#117=[#507+[#508-#507]*0.99577]
#111=[#116+[#117-#116]*0.06948]
X4.71229 Y-2.99438 Z[#111+-0.04000]
#116=[#500+[#501-#500]*0.99267]
#117=[#507+[#508-#507]*0.99267]
#111=[#116+[#117-#116]*0.06006]
X4.70860 Y-2.99550 Z[#111+-0.04000]
#116=[#500+[#501-#500]*0.99162]
#117=[#507+[#508-#507]*0.99162]
#111=[#116+[#117-#116]*0.05026]
X4.70476 Y-2.99588 Z[#111+-0.04000]
#116=[#500+[#501-#500]*0.99267]
#117=[#507+[#508-#507]*0.99267]
#111=[#116+[#117-#116]*0.04046]
X4.70092 Y-2.99550 Z[#111+-0.04000]
#116=[#500+[#501-#500]*0.99577]
#117=[#507+[#508-#507]*0.99577]
#111=[#116+[#117-#116]*0.03104]
X4.69723 Y-2.99438 Z[#111+-0.04000]
#116=[#500+[#501-#500]*1.00000]
#117=[#507+[#508-#507]*1.00000]
#111=[#116+[#117-#116]*0.02371]
X4.69436 Y-2.99285 Z[#111+-0.04000]
#116=[#501+[#502-#501]*0.00079]
#117=[#508+[#509-#508]*0.00079]
#111=[#116+[#117-#116]*0.02234]
X4.69382 Y-2.99256 Z[#111+-0.04000]
#116=[#501+[#502-#501]*0.00756]
#117=[#508+[#509-#508]*0.00756]
#111=[#116+[#117-#116]*0.01473]
X4.69084 Y-2.99011 Z[#111+-0.04000]
#116=[#501+[#502-#501]*0.01579]
#117=[#508+[#509-#508]*0.01579]
#111=[#116+[#117-#116]*0.00847]
X4.68839 Y-2.98713 Z[#111+-0.04000]
#116=[#501+[#502-#501]*0.02521]
#117=[#508+[#509-#508]*0.02521]
#111=[#116+[#117-#116]*0.00383]
X4.68657 Y-2.98372 Z[#111+-0.04000]
#116=[#501+[#502-#501]*0.03540]
#117=[#508+[#509-#508]*0.03540]
#111=[#116+[#117-#116]*0.00097]
X4.68545 Y-2.98003 Z[#111+-0.04000]
#111=[#501+[#502-#501]*0.04601]
X4.68507 Y-2.97619 Z[#111+-0.04000]
G04 P0 ( dwell for no time -- G64 should not smooth over this point )
G00 Z0.08000 ( retract )

G00 X5.11364 Y-2.97619 ( rapid move to begin. )
G01 F180.00000
( Mill infeed pass 1/1 )
#116=[#508+[#509-#508]*0.04601]
#117=[#515+[#516-#515]*0.04601]
#111=[#116+[#117-#116]*0.09401]
G01 Z[-0.04000+#111]
G04 P0 ( dwell for no time -- G64 should not smooth over this point )
G01 F360.00000
#116=[#508+[#509-#508]*0.96662]
#117=[#515+[#516-#515]*0.96662]
#111=[#116+[#117-#116]*0.09401]
X5.11364 Y-2.64286 Z[#111+-0.04000]
#116=[#508+[#509-#508]*0.97723]
#117=[#515+[#516-#515]*0.97723]
#111=[#116+[#117-#116]*0.09498]
X5.11402 Y-2.63902 Z[#111+-0.04000]
#116=[#508+[#509-#508]*0.98742]
#117=[#515+[#516-#515]*0.98742]
#111=[#116+[#117-#116]*0.09784]
X5.11514 Y-2.63533 Z[#111+-0.04000]
#116=[#508+[#509-#508]*0.99684]
#117=[#515+[#516-#515]*0.99684]
#111=[#116+[#117-#116]*0.10248]
X5.11696 Y-2.63192 Z[#111+-0.04000]
#116=[#509+[#510-#509]*0.00000]
#117=[#516+[#517-#516]*0.00000]
#111=[#116+[#117-#116]*0.10489]
X5.11790 Y-2.63077 Z[#111+-0.04000]
#116=[#509+[#510-#509]*0.00507]
#117=[#516+[#517-#516]*0.00507]
#111=[#116+[#117-#116]*0.10874]
X5.11941 Y-2.62894 Z[#111+-0.04000]
#116=[#509+[#510-#509]*0.01183]
#117=[#516+[#517-#516]*0.01183]
#111=[#116+[#117-#116]*0.11635]
X5.12239 Y-2.62649 Z[#111+-0.04000]
#116=[#509+[#510-#509]*0.01686]
#117=[#516+[#517-#516]*0.01686]
#111=[#116+[#117-#116]*0.12505]
X5.12580 Y-2.62467 Z[#111+-0.04000]
#116=[#509+[#510-#509]*0.01995]
#117=[#516+[#517-#516]*0.01995]
#111=[#116+[#117-#116]*0.13447]
X5.12949 Y-2.62355 Z[#111+-0.04000]
#116=[#509+[#510-#509]*0.02100]
#117=[#516+[#517-#516]*0.02100]
#111=[#116+[#117-#116]*0.14427]
X5.13333 Y-2.62317 Z[#111+-0.04000]
#116=[#509+[#510-#509]*0.01995]
#117=[#516+[#517-#516]*0.01995]
#111=[#116+[#117-#116]*0.15407]
X5.13717 Y-2.62355 Z[#111+-0.04000]
#116=[#509+[#510-#509]*0.01686]
#117=[#516+[#517-#516]*0.01686]
#111=[#116+[#117-#116]*0.16349]
X5.14086 Y-2.62467 Z[#111+-0.04000]
#116=[#509+[#510-#509]*0.01183]
#117=[#516+[#517-#516]*0.01183]
#111=[#116+[#117-#116]*0.17220]
X5.14427 Y-2.62649 Z[#111+-0.04000]
#116=[#509+[#510-#509]*0.00507]
#117=[#516+[#517-#516]*0.00507]
#111=[#116+[#117-#116]*0.17981]
X5.14725 Y-2.62894 Z[#111+-0.04000]
#116=[#509+[#510-#509]*0.00000]
#117=[#516+[#517-#516]*0.00000]
#111=[#116+[#117-#116]*0.18366]
X5.14876 Y-2.63077 Z[#111+-0.04000]
#116=[#508+[#509-#508]*0.99684]
#117=[#515+[#516-#515]*0.99684]
#111=[#116+[#117-#116]*0.18606]
X5.14970 Y-2.63192 Z[#111+-0.04000]
#116=[#508+[#509-#508]*0.98742]
#117=[#515+[#516-#515]*0.98742]
#111=[#116+[#117-#116]*0.19071]
X5.15152 Y-2.63533 Z[#111+-0.04000]
#116=[#508+[#509-#508]*0.97723]
#117=[#515+[#516-#515]*0.97723]
#111=[#116+[#117-#116]*0.19356]
X5.15264 Y-2.63902 Z[#111+-0.04000]
#116=[#508+[#509-#508]*0.96662]
#117=[#515+[#516-#515]*0.96662]
#111=[#116+[#117-#116]*0.19453]
X5.15302 Y-2.64286 Z[#111+-0.04000]
#116=[#508+[#509-#508]*0.90059]
#117=[#515+[#516-#515]*0.90059]
#111=[#116+[#117-#116]*0.19453]
X5.15302 Y-2.66677 Z[#111+-0.04000]
#116=[#508+[#509-#508]*0.93931]
#117=[#515+[#516-#515]*0.93931]
#111=[#116+[#117-#116]*0.23030]
X5.16703 Y-2.65275 Z[#111+-0.04000]
#116=[#508+[#509-#508]*0.94497]
#117=[#515+[#516-#515]*0.94497]
#111=[#116+[#117-#116]*0.23645]
X5.16944 Y-2.65070 Z[#111+-0.04000]
#116=[#508+[#509-#508]*0.94950]
#117=[#515+[#516-#515]*0.94950]
#111=[#116+[#117-#116]*0.24337]
X5.17215 Y-2.64906 Z[#111+-0.04000]
#116=[#509+[#510-#509]*0.00000]
#117=[#516+[#517-#516]*0.00000]
#111=[#116+[#117-#116]*0.33672]
X5.20872 Y-2.63077 Z[#111+-0.04000]
#116=[#509+[#510-#509]*0.01526]
#117=[#516+[#517-#516]*0.01526]
#111=[#116+[#117-#116]*0.36493]
X5.21977 Y-2.62525 Z[#111+-0.04000]
#116=[#509+[#510-#509]*0.01954]
#117=[#516+[#517-#516]*0.01954]
#111=[#116+[#117-#116]*0.37585]
X5.22405 Y-2.62370 Z[#111+-0.04000]
#116=[#509+[#510-#509]*0.02100]
#117=[#516+[#517-#516]*0.02100]
#111=[#116+[#117-#116]*0.38739]
X5.22857 Y-2.62317 Z[#111+-0.04000]
#116=[#509+[#510-#509]*0.02100]
#117=[#516+[#517-#516]*0.02100]
#111=[#116+[#117-#116]*0.50895]
X5.27619 Y-2.62317 Z[#111+-0.04000]
#116=[#509+[#510-#509]*0.01995]
#117=[#516+[#517-#516]*0.01995]
#111=[#116+[#117-#116]*0.51875]
X5.28003 Y-2.62355 Z[#111+-0.04000]
#116=[#509+[#510-#509]*0.01686]
#117=[#516+[#517-#516]*0.01686]
#111=[#116+[#117-#116]*0.52817]
X5.28372 Y-2.62467 Z[#111+-0.04000]
#116=[#509+[#510-#509]*0.01183]
#117=[#516+[#517-#516]*0.01183]
#111=[#116+[#117-#116]*0.53688]
X5.28713 Y-2.62649 Z[#111+-0.04000]
#116=[#509+[#510-#509]*0.00507]
#117=[#516+[#517-#516]*0.00507]
#111=[#116+[#117-#116]*0.54448]
X5.29011 Y-2.62894 Z[#111+-0.04000]
#116=[#509+[#510-#509]*0.00000]
#117=[#516+[#517-#516]*0.00000]
#111=[#116+[#117-#116]*0.54833]
X5.29162 Y-2.63077 Z[#111+-0.04000]
#116=[#508+[#509-#508]*0.99684]
#117=[#515+[#516-#515]*0.99684]
#111=[#116+[#117-#116]*0.55074]
X5.29256 Y-2.63192 Z[#111+-0.04000]
#116=[#508+[#509-#508]*0.98742]
#117=[#515+[#516-#515]*0.98742]
#111=[#116+[#117-#116]*0.55538]
X5.29438 Y-2.63533 Z[#111+-0.04000]
#116=[#508+[#509-#508]*0.97723]
#117=[#515+[#516-#515]*0.97723]
#111=[#116+[#117-#116]*0.55824]
X5.29550 Y-2.63902 Z[#111+-0.04000]
#116=[#508+[#509-#508]*0.96662]
#117=[#515+[#516-#515]*0.96662]
#111=[#116+[#117-#116]*0.55921]
X5.29588 Y-2.64286 Z[#111+-0.04000]
#116=[#508+[#509-#508]*0.95602]
#117=[#515+[#516-#515]*0.95602]
#111=[#116+[#117-#116]*0.55824]
X5.29550 Y-2.64670 Z[#111+-0.04000]
#116=[#508+[#509-#508]*0.94583]
#117=[#515+[#516-#515]*0.94583]
#111=[#116+[#117-#116]*0.55538]
X5.29438 Y-2.65039 Z[#111+-0.04000]
#116=[#508+[#509-#508]*0.93641]
#117=[#515+[#516-#515]*0.93641]
#111=[#116+[#117-#116]*0.55074]
X5.29256 Y-2.65380 Z[#111+-0.04000]
#116=[#508+[#509-#508]*0.92818]
#117=[#515+[#516-#515]*0.92818]
#111=[#116+[#117-#116]*0.54448]
X5.29011 Y-2.65678 Z[#111+-0.04000]
#116=[#508+[#509-#508]*0.92141]
#117=[#515+[#516-#515]*0.92141]
#111=[#116+[#117-#116]*0.53688]
X5.28713 Y-2.65923 Z[#111+-0.04000]
#116=[#508+[#509-#508]*0.91638]
#117=[#515+[#516-#515]*0.91638]
#111=[#116+[#117-#116]*0.52817]
X5.28372 Y-2.66105 Z[#111+-0.04000]
#116=[#508+[#509-#508]*0.91329]
#117=[#515+[#516-#515]*0.91329]
#111=[#116+[#117-#116]*0.51875]
X5.28003 Y-2.66217 Z[#111+-0.04000]
#116=[#508+[#509-#508]*0.91224]
#117=[#515+[#516-#515]*0.91224]
#111=[#116+[#117-#116]*0.50895]
X5.27619 Y-2.66255 Z[#111+-0.04000]
#116=[#508+[#509-#508]*0.91224]
#117=[#515+[#516-#515]*0.91224]
#111=[#116+[#117-#116]*0.39926]
X5.23322 Y-2.66255 Z[#111+-0.04000]
#116=[#508+[#509-#508]*0.85617]
#117=[#515+[#516-#515]*0.85617]
#111=[#116+[#117-#116]*0.29560]
X5.19261 Y-2.68285 Z[#111+-0.04000]
#116=[#508+[#509-#508]*0.80290]
#117=[#515+[#516-#515]*0.80290]
#111=[#116+[#117-#116]*0.24635]
X5.17332 Y-2.70214 Z[#111+-0.04000]
#116=[#508+[#509-#508]*0.69077]
#117=[#515+[#516-#515]*0.69077]
#111=[#116+[#117-#116]*0.19453]
X5.15302 Y-2.74274 Z[#111+-0.04000]
#116=[#508+[#509-#508]*0.04601]
#117=[#515+[#516-#515]*0.04601]
#111=[#116+[#117-#116]*0.19453]
X5.15302 Y-2.97619 Z[#111+-0.04000]
#116=[#508+[#509-#508]*0.03540]
#117=[#515+[#516-#515]*0.03540]
#111=[#116+[#117-#116]*0.19356]
X5.15264 Y-2.98003 Z[#111+-0.04000]
#116=[#508+[#509-#508]*0.02521]
#117=[#515+[#516-#515]*0.02521]
#111=[#116+[#117-#116]*0.19071]
X5.15152 Y-2.98372 Z[#111+-0.04000]
#116=[#508+[#509-#508]*0.01579]
#117=[#515+[#516-#515]*0.01579]
#111=[#116+[#117-#116]*0.18606]
X5.14970 Y-2.98713 Z[#111+-0.04000]
#116=[#508+[#509-#508]*0.00756]
#117=[#515+[#516-#515]*0.00756]
#111=[#116+[#117-#116]*0.17981]
X5.14725 Y-2.99011 Z[#111+-0.04000]
#116=[#508+[#509-#508]*0.00079]
#117=[#515+[#516-#515]*0.00079]
#111=[#116+[#117-#116]*0.17220]
X5.14427 Y-2.99256 Z[#111+-0.04000]
#116=[#507+[#508-#507]*1.00000]
#117=[#514+[#515-#514]*1.00000]
#111=[#116+[#117-#116]*0.17082]
X5.14373 Y-2.99285 Z[#111+-0.04000]
#116=[#507+[#508-#507]*0.99577]
#117=[#514+[#515-#514]*0.99577]
#111=[#116+[#117-#116]*0.16349]
X5.14086 Y-2.99438 Z[#111+-0.04000]
#116=[#507+[#508-#507]*0.99267]
#117=[#514+[#515-#514]*0.99267]
#111=[#116+[#117-#116]*0.15407]
X5.13717 Y-2.99550 Z[#111+-0.04000]
#116=[#507+[#508-#507]*0.99162]
#117=[#514+[#515-#514]*0.99162]
#111=[#116+[#117-#116]*0.14427]
X5.13333 Y-2.99588 Z[#111+-0.04000]
#116=[#507+[#508-#507]*0.99267]
#117=[#514+[#515-#514]*0.99267]
#111=[#116+[#117-#116]*0.13447]
X5.12949 Y-2.99550 Z[#111+-0.04000]
#116=[#507+[#508-#507]*0.99577]
#117=[#514+[#515-#514]*0.99577]
#111=[#116+[#117-#116]*0.12505]
X5.12580 Y-2.99438 Z[#111+-0.04000]
#116=[#507+[#508-#507]*1.00000]
#117=[#514+[#515-#514]*1.00000]
#111=[#116+[#117-#116]*0.11772]
X5.12293 Y-2.99285 Z[#111+-0.04000]
#116=[#508+[#509-#508]*0.00079]
#117=[#515+[#516-#515]*0.00079]
#111=[#116+[#117-#116]*0.11635]
X5.12239 Y-2.99256 Z[#111+-0.04000]
#116=[#508+[#509-#508]*0.00756]
#117=[#515+[#516-#515]*0.00756]
#111=[#116+[#117-#116]*0.10874]
X5.11941 Y-2.99011 Z[#111+-0.04000]
#116=[#508+[#509-#508]*0.01579]
#117=[#515+[#516-#515]*0.01579]
#111=[#116+[#117-#116]*0.10248]
X5.11696 Y-2.98713 Z[#111+-0.04000]
#116=[#508+[#509-#508]*0.02521]
#117=[#515+[#516-#515]*0.02521]
#111=[#116+[#117-#116]*0.09784]
X5.11514 Y-2.98372 Z[#111+-0.04000]
#116=[#508+[#509-#508]*0.03540]
#117=[#515+[#516-#515]*0.03540]
#111=[#116+[#117-#116]*0.09498]
X5.11402 Y-2.98003 Z[#111+-0.04000]
#116=[#508+[#509-#508]*0.04601]
#117=[#515+[#516-#515]*0.04601]
#111=[#116+[#117-#116]*0.09401]
X5.11364 Y-2.97619 Z[#111+-0.04000]
G04 P0 ( dwell for no time -- G64 should not smooth over this point )
G00 Z0.08000 ( retract )

G00 X5.39936 Y-2.88095 ( rapid move to begin. )
G01 F180.00000
( Mill infeed pass 1/1 )
#116=[#508+[#509-#508]*0.30905]
#117=[#515+[#516-#515]*0.30905]
#111=[#116+[#117-#116]*0.82337]
G01 Z[-0.04000+#111]
G04 P0 ( dwell for no time -- G64 should not smooth over this point )
G01 F360.00000
#116=[#508+[#509-#508]*0.70361]
#117=[#515+[#516-#515]*0.70361]
#111=[#116+[#117-#116]*0.82337]
X5.39936 Y-2.73809 Z[#111+-0.04000]
#116=[#508+[#509-#508]*0.71609]
#117=[#515+[#516-#515]*0.71609]
#111=[#116+[#117-#116]*0.82472]
X5.39989 Y-2.73357 Z[#111+-0.04000]
#116=[#508+[#509-#508]*0.72791]
#117=[#515+[#516-#515]*0.72791]
#111=[#116+[#117-#116]*0.82868]
X5.40144 Y-2.72929 Z[#111+-0.04000]
#116=[#508+[#509-#508]*0.85941]
#117=[#515+[#516-#515]*0.85941]
#111=[#116+[#117-#116]*0.88945]
X5.42525 Y-2.68168 Z[#111+-0.04000]
#116=[#508+[#509-#508]*0.86689]
#117=[#515+[#516-#515]*0.86689]
#111=[#116+[#117-#116]*0.89364]
X5.42689 Y-2.67897 Z[#111+-0.04000]
#116=[#508+[#509-#508]*0.87355]
#117=[#515+[#516-#515]*0.87355]
#111=[#116+[#117-#116]*0.89887]
X5.42894 Y-2.67656 Z[#111+-0.04000]
#116=[#508+[#509-#508]*0.93931]
#117=[#515+[#516-#515]*0.93931]
#111=[#116+[#117-#116]*0.95965]
X5.45275 Y-2.65275 Z[#111+-0.04000]
#116=[#508+[#509-#508]*0.94497]
#117=[#515+[#516-#515]*0.94497]
#111=[#116+[#117-#116]*0.96581]
X5.45516 Y-2.65070 Z[#111+-0.04000]
#116=[#508+[#509-#508]*0.94950]
#117=[#515+[#516-#515]*0.94950]
#111=[#116+[#117-#116]*0.97272]
X5.45787 Y-2.64906 Z[#111+-0.04000]
#116=[#515+[#516-#515]*0.96425]
#117=[#522+[#523-#522]*0.96425]
#111=[#116+[#117-#116]*0.00000]
X5.46856 Y-2.64372 Z[#111+-0.04000]
#116=[#516+[#517-#516]*0.00000]
#117=[#523+[#524-#523]*0.00000]
#111=[#116+[#117-#116]*0.06608]
X5.49444 Y-2.63077 Z[#111+-0.04000]
#116=[#516+[#517-#516]*0.01526]
#117=[#523+[#524-#523]*0.01526]
#111=[#116+[#117-#116]*0.09428]
X5.50549 Y-2.62525 Z[#111+-0.04000]
#116=[#516+[#517-#516]*0.01954]
#117=[#523+[#524-#523]*0.01954]
#111=[#116+[#117-#116]*0.10521]
X5.50977 Y-2.62370 Z[#111+-0.04000]
#116=[#516+[#517-#516]*0.02100]
#117=[#523+[#524-#523]*0.02100]
#111=[#116+[#117-#116]*0.11675]
X5.51429 Y-2.62317 Z[#111+-0.04000]
#116=[#516+[#517-#516]*0.02100]
#117=[#523+[#524-#523]*0.02100]
#111=[#116+[#117-#116]*0.29906]
X5.58571 Y-2.62317 Z[#111+-0.04000]
#116=[#516+[#517-#516]*0.01954]
#117=[#523+[#524-#523]*0.01954]
#111=[#116+[#117-#116]*0.31060]
X5.59023 Y-2.62370 Z[#111+-0.04000]
#116=[#516+[#517-#516]*0.01526]
#117=[#523+[#524-#523]*0.01526]
#111=[#116+[#117-#116]*0.32152]
X5.59451 Y-2.62525 Z[#111+-0.04000]
#116=[#516+[#517-#516]*0.00000]
#117=[#523+[#524-#523]*0.00000]
#111=[#116+[#117-#116]*0.34973]
X5.60556 Y-2.63077 Z[#111+-0.04000]
#116=[#515+[#516-#515]*0.94950]
#117=[#522+[#523-#522]*0.94950]
#111=[#116+[#117-#116]*0.44308]
X5.64213 Y-2.64906 Z[#111+-0.04000]
#116=[#515+[#516-#515]*0.94497]
#117=[#522+[#523-#522]*0.94497]
#111=[#116+[#117-#116]*0.45000]
X5.64484 Y-2.65070 Z[#111+-0.04000]
#116=[#515+[#516-#515]*0.93931]
#117=[#522+[#523-#522]*0.93931]
#111=[#116+[#117-#116]*0.45615]
X5.64725 Y-2.65275 Z[#111+-0.04000]
#116=[#515+[#516-#515]*0.87355]
#117=[#522+[#523-#522]*0.87355]
#111=[#116+[#117-#116]*0.51693]
X5.67106 Y-2.67656 Z[#111+-0.04000]
#116=[#515+[#516-#515]*0.86689]
#117=[#522+[#523-#522]*0.86689]
#111=[#116+[#117-#116]*0.52217]
X5.67311 Y-2.67897 Z[#111+-0.04000]
#116=[#515+[#516-#515]*0.85941]
#117=[#522+[#523-#522]*0.85941]
#111=[#116+[#117-#116]*0.52635]
X5.67475 Y-2.68168 Z[#111+-0.04000]
#116=[#515+[#516-#515]*0.72791]
#117=[#522+[#523-#522]*0.72791]
#111=[#116+[#117-#116]*0.58713]
X5.69856 Y-2.72929 Z[#111+-0.04000]
#116=[#515+[#516-#515]*0.71609]
#117=[#522+[#523-#522]*0.71609]
#111=[#116+[#117-#116]*0.59109]
X5.70011 Y-2.73357 Z[#111+-0.04000]
#116=[#515+[#516-#515]*0.70361]
#117=[#522+[#523-#522]*0.70361]
#111=[#116+[#117-#116]*0.59244]
X5.70064 Y-2.73809 Z[#111+-0.04000]
#116=[#515+[#516-#515]*0.30905]
#117=[#522+[#523-#522]*0.30905]
#111=[#116+[#117-#116]*0.59244]
X5.70064 Y-2.88095 Z[#111+-0.04000]
#116=[#515+[#516-#515]*0.29656]
#117=[#522+[#523-#522]*0.29656]
#111=[#116+[#117-#116]*0.59109]
X5.70011 Y-2.88547 Z[#111+-0.04000]
#116=[#515+[#516-#515]*0.28474]
#117=[#522+[#523-#522]*0.28474]
#111=[#116+[#117-#116]*0.58713]
X5.69856 Y-2.88975 Z[#111+-0.04000]
#116=[#515+[#516-#515]*0.15322]
#117=[#522+[#523-#522]*0.15322]
#111=[#116+[#117-#116]*0.52635]
X5.67475 Y-2.93737 Z[#111+-0.04000]
#116=[#515+[#516-#515]*0.14574]
#117=[#522+[#523-#522]*0.14574]
#111=[#116+[#117-#116]*0.52217]
X5.67311 Y-2.94008 Z[#111+-0.04000]
#116=[#515+[#516-#515]*0.13908]
#117=[#522+[#523-#522]*0.13908]
#111=[#116+[#117-#116]*0.51693]
X5.67106 Y-2.94249 Z[#111+-0.04000]
#116=[#515+[#516-#515]*0.07332]
#117=[#522+[#523-#522]*0.07332]
#111=[#116+[#117-#116]*0.45615]
X5.64725 Y-2.96630 Z[#111+-0.04000]
#116=[#515+[#516-#515]*0.06766]
#117=[#522+[#523-#522]*0.06766]
#111=[#116+[#117-#116]*0.45000]
X5.64484 Y-2.96835 Z[#111+-0.04000]
#116=[#515+[#516-#515]*0.06313]
#117=[#522+[#523-#522]*0.06313]
#111=[#116+[#117-#116]*0.44308]
X5.64213 Y-2.96999 Z[#111+-0.04000]
#116=[#514+[#515-#514]*1.00000]
#117=[#521+[#522-#521]*1.00000]
#111=[#116+[#117-#116]*0.32639]
X5.59642 Y-2.99285 Z[#111+-0.04000]
#116=[#514+[#515-#514]*0.99737]
#117=[#521+[#522-#521]*0.99737]
#111=[#116+[#117-#116]*0.32152]
X5.59451 Y-2.99380 Z[#111+-0.04000]
#116=[#514+[#515-#514]*0.99309]
#117=[#521+[#522-#521]*0.99309]
#111=[#116+[#117-#116]*0.31060]
X5.59023 Y-2.99535 Z[#111+-0.04000]
#116=[#514+[#515-#514]*0.99162]
#117=[#521+[#522-#521]*0.99162]
#111=[#116+[#117-#116]*0.29906]
X5.58571 Y-2.99588 Z[#111+-0.04000]
#116=[#514+[#515-#514]*0.99162]
#117=[#521+[#522-#521]*0.99162]
#111=[#116+[#117-#116]*0.11675]
X5.51429 Y-2.99588 Z[#111+-0.04000]
#116=[#514+[#515-#514]*0.99309]
#117=[#521+[#522-#521]*0.99309]
#111=[#116+[#117-#116]*0.10521]
X5.50977 Y-2.99535 Z[#111+-0.04000]
#116=[#514+[#515-#514]*0.99737]
#117=[#521+[#522-#521]*0.99737]
#111=[#116+[#117-#116]*0.09428]
X5.50549 Y-2.99380 Z[#111+-0.04000]
#116=[#514+[#515-#514]*1.00000]
#117=[#521+[#522-#521]*1.00000]
#111=[#116+[#117-#116]*0.08942]
X5.50358 Y-2.99285 Z[#111+-0.04000]
#116=[#515+[#516-#515]*0.04837]
#117=[#522+[#523-#522]*0.04837]
#111=[#116+[#117-#116]*0.00000]
X5.46856 Y-2.97533 Z[#111+-0.04000]
#116=[#508+[#509-#508]*0.06313]
#117=[#515+[#516-#515]*0.06313]
#111=[#116+[#117-#116]*0.97272]
X5.45787 Y-2.96999 Z[#111+-0.04000]
#116=[#508+[#509-#508]*0.06766]
#117=[#515+[#516-#515]*0.06766]
#111=[#116+[#117-#116]*0.96581]
X5.45516 Y-2.96835 Z[#111+-0.04000]
#116=[#508+[#509-#508]*0.07332]
#117=[#515+[#516-#515]*0.07332]
#111=[#116+[#117-#116]*0.95965]
X5.45275 Y-2.96630 Z[#111+-0.04000]
#116=[#508+[#509-#508]*0.13908]
#117=[#515+[#516-#515]*0.13908]
#111=[#116+[#117-#116]*0.89887]
X5.42894 Y-2.94249 Z[#111+-0.04000]
#116=[#508+[#509-#508]*0.14574]
#117=[#515+[#516-#515]*0.14574]
#111=[#116+[#117-#116]*0.89364]
X5.42689 Y-2.94008 Z[#111+-0.04000]
#116=[#508+[#509-#508]*0.15322]
#117=[#515+[#516-#515]*0.15322]
#111=[#116+[#117-#116]*0.88945]
X5.42525 Y-2.93737 Z[#111+-0.04000]
#116=[#508+[#509-#508]*0.28474]
#117=[#515+[#516-#515]*0.28474]
#111=[#116+[#117-#116]*0.82868]
X5.40144 Y-2.88975 Z[#111+-0.04000]
#116=[#508+[#509-#508]*0.29656]
#117=[#515+[#516-#515]*0.29656]
#111=[#116+[#117-#116]*0.82472]
X5.39989 Y-2.88547 Z[#111+-0.04000]
#116=[#508+[#509-#508]*0.30905]
#117=[#515+[#516-#515]*0.30905]
#111=[#116+[#117-#116]*0.82337]
X5.39936 Y-2.88095 Z[#111+-0.04000]
G04 P0 ( dwell for no time -- G64 should not smooth over this point )
G00 Z0.08000 ( retract )

G00 X5.43874 Y-2.87630 ( rapid move to begin. )
G01 F180.00000
( Mill infeed pass 1/1 )
#116=[#508+[#509-#508]*0.32189]
#117=[#515+[#516-#515]*0.32189]
#111=[#116+[#117-#116]*0.92389]
G01 Z[-0.04000+#111]
G04 P0 ( dwell for no time -- G64 should not smooth over this point )
G01 F360.00000
#116=[#508+[#509-#508]*0.69077]
#117=[#515+[#516-#515]*0.69077]
#111=[#116+[#117-#116]*0.92389]
X5.43874 Y-2.74274 Z[#111+-0.04000]
#116=[#508+[#509-#508]*0.80290]
#117=[#515+[#516-#515]*0.80290]
#111=[#116+[#117-#116]*0.97571]
X5.45904 Y-2.70214 Z[#111+-0.04000]
#116=[#515+[#516-#515]*0.82918]
#117=[#522+[#523-#522]*0.82918]
#111=[#116+[#117-#116]*0.00000]
X5.46856 Y-2.69262 Z[#111+-0.04000]
#116=[#515+[#516-#515]*0.85617]
#117=[#522+[#523-#522]*0.85617]
#111=[#116+[#117-#116]*0.02495]
X5.47833 Y-2.68285 Z[#111+-0.04000]
#116=[#515+[#516-#515]*0.91224]
#117=[#522+[#523-#522]*0.91224]
#111=[#116+[#117-#116]*0.12862]
X5.51894 Y-2.66255 Z[#111+-0.04000]
#116=[#515+[#516-#515]*0.91224]
#117=[#522+[#523-#522]*0.91224]
#111=[#116+[#117-#116]*0.28719]
X5.58106 Y-2.66255 Z[#111+-0.04000]
#116=[#515+[#516-#515]*0.85617]
#117=[#522+[#523-#522]*0.85617]
#111=[#116+[#117-#116]*0.39086]
X5.62167 Y-2.68285 Z[#111+-0.04000]
#116=[#515+[#516-#515]*0.80290]
#117=[#522+[#523-#522]*0.80290]
#111=[#116+[#117-#116]*0.44010]
X5.64096 Y-2.70214 Z[#111+-0.04000]
#116=[#515+[#516-#515]*0.69077]
#117=[#522+[#523-#522]*0.69077]
#111=[#116+[#117-#116]*0.49192]
X5.66126 Y-2.74274 Z[#111+-0.04000]
#116=[#515+[#516-#515]*0.32189]
#117=[#522+[#523-#522]*0.32189]
#111=[#116+[#117-#116]*0.49192]
X5.66126 Y-2.87630 Z[#111+-0.04000]
#116=[#515+[#516-#515]*0.20973]
#117=[#522+[#523-#522]*0.20973]
#111=[#116+[#117-#116]*0.44010]
X5.64096 Y-2.91691 Z[#111+-0.04000]
#116=[#515+[#516-#515]*0.15645]
#117=[#522+[#523-#522]*0.15645]
#111=[#116+[#117-#116]*0.39086]
X5.62167 Y-2.93620 Z[#111+-0.04000]
#116=[#515+[#516-#515]*0.10039]
#117=[#522+[#523-#522]*0.10039]
#111=[#116+[#117-#116]*0.28719]
X5.58106 Y-2.95650 Z[#111+-0.04000]
#116=[#515+[#516-#515]*0.10039]
#117=[#522+[#523-#522]*0.10039]
#111=[#116+[#117-#116]*0.12862]
X5.51894 Y-2.95650 Z[#111+-0.04000]
#116=[#515+[#516-#515]*0.15645]
#117=[#522+[#523-#522]*0.15645]
#111=[#116+[#117-#116]*0.02495]
X5.47833 Y-2.93620 Z[#111+-0.04000]
#116=[#515+[#516-#515]*0.18345]
#117=[#522+[#523-#522]*0.18345]
#111=[#116+[#117-#116]*0.00000]
X5.46856 Y-2.92643 Z[#111+-0.04000]
#116=[#508+[#509-#508]*0.20973]
#117=[#515+[#516-#515]*0.20973]
#111=[#116+[#117-#116]*0.97571]
X5.45904 Y-2.91691 Z[#111+-0.04000]
#116=[#508+[#509-#508]*0.32189]
#117=[#515+[#516-#515]*0.32189]
#111=[#116+[#117-#116]*0.92389]
X5.43874 Y-2.87630 Z[#111+-0.04000]
G04 P0 ( dwell for no time -- G64 should not smooth over this point )
G00 Z0.08000 ( retract )

G00 X5.87555 Y-2.97619 ( rapid move to begin. )
G01 F180.00000
( Mill infeed pass 1/1 )
#116=[#522+[#523-#522]*0.04601]
#117=[#529+[#530-#529]*0.04601]
#111=[#116+[#117-#116]*0.03893]
G01 Z[-0.04000+#111]
G04 P0 ( dwell for no time -- G64 should not smooth over this point )
G01 F360.00000
#116=[#522+[#523-#522]*0.96662]
#117=[#529+[#530-#529]*0.96662]
#111=[#116+[#117-#116]*0.03893]
X5.87555 Y-2.64286 Z[#111+-0.04000]
#116=[#522+[#523-#522]*0.97723]
#117=[#529+[#530-#529]*0.97723]
#111=[#116+[#117-#116]*0.03990]
X5.87593 Y-2.63902 Z[#111+-0.04000]
#116=[#522+[#523-#522]*0.98742]
#117=[#529+[#530-#529]*0.98742]
#111=[#116+[#117-#116]*0.04276]
X5.87705 Y-2.63533 Z[#111+-0.04000]
#116=[#522+[#523-#522]*0.99684]
#117=[#529+[#530-#529]*0.99684]
#111=[#116+[#117-#116]*0.04741]
X5.87887 Y-2.63192 Z[#111+-0.04000]
#116=[#523+[#524-#523]*0.00000]
#117=[#530+[#531-#530]*0.00000]
#111=[#116+[#117-#116]*0.04981]
X5.87981 Y-2.63077 Z[#111+-0.04000]
#116=[#523+[#524-#523]*0.00507]
#117=[#530+[#531-#530]*0.00507]
#111=[#116+[#117-#116]*0.05366]
X5.88132 Y-2.62894 Z[#111+-0.04000]
#116=[#523+[#524-#523]*0.01183]
#117=[#530+[#531-#530]*0.01183]
#111=[#116+[#117-#116]*0.06127]
X5.88430 Y-2.62649 Z[#111+-0.04000]
#116=[#523+[#524-#523]*0.01686]
#117=[#530+[#531-#530]*0.01686]
#111=[#116+[#117-#116]*0.06998]
X5.88771 Y-2.62467 Z[#111+-0.04000]
#116=[#523+[#524-#523]*0.01995]
#117=[#530+[#531-#530]*0.01995]
#111=[#116+[#117-#116]*0.07939]
X5.89140 Y-2.62355 Z[#111+-0.04000]
#116=[#523+[#524-#523]*0.02100]
#117=[#530+[#531-#530]*0.02100]
#111=[#116+[#117-#116]*0.08920]
X5.89524 Y-2.62317 Z[#111+-0.04000]
#116=[#523+[#524-#523]*0.01995]
#117=[#530+[#531-#530]*0.01995]
#111=[#116+[#117-#116]*0.09900]
X5.89908 Y-2.62355 Z[#111+-0.04000]
#116=[#523+[#524-#523]*0.01686]
#117=[#530+[#531-#530]*0.01686]
#111=[#116+[#117-#116]*0.10842]
X5.90277 Y-2.62467 Z[#111+-0.04000]
#116=[#523+[#524-#523]*0.01183]
#117=[#530+[#531-#530]*0.01183]
#111=[#116+[#117-#116]*0.11712]
X5.90618 Y-2.62649 Z[#111+-0.04000]
#116=[#523+[#524-#523]*0.00507]
#117=[#530+[#531-#530]*0.00507]
#111=[#116+[#117-#116]*0.12473]
X5.90916 Y-2.62894 Z[#111+-0.04000]
#116=[#523+[#524-#523]*0.00000]
#117=[#530+[#531-#530]*0.00000]
#111=[#116+[#117-#116]*0.12858]
X5.91067 Y-2.63077 Z[#111+-0.04000]
#116=[#522+[#523-#522]*0.99684]
#117=[#529+[#530-#529]*0.99684]
#111=[#116+[#117-#116]*0.13098]
X5.91161 Y-2.63192 Z[#111+-0.04000]
#116=[#522+[#523-#522]*0.98742]
#117=[#529+[#530-#529]*0.98742]
#111=[#116+[#117-#116]*0.13563]
X5.91343 Y-2.63533 Z[#111+-0.04000]
#116=[#522+[#523-#522]*0.97723]
#117=[#529+[#530-#529]*0.97723]
#111=[#116+[#117-#116]*0.13849]
X5.91455 Y-2.63902 Z[#111+-0.04000]
#116=[#522+[#523-#522]*0.96662]
#117=[#529+[#530-#529]*0.96662]
#111=[#116+[#117-#116]*0.13946]
X5.91493 Y-2.64286 Z[#111+-0.04000]
#116=[#522+[#523-#522]*0.95596]
#117=[#529+[#530-#529]*0.95596]
#111=[#116+[#117-#116]*0.13946]
X5.91493 Y-2.64672 Z[#111+-0.04000]
#116=[#523+[#524-#523]*0.00000]
#117=[#530+[#531-#530]*0.00000]
#111=[#116+[#117-#116]*0.22087]
X5.94682 Y-2.63077 Z[#111+-0.04000]
#116=[#523+[#524-#523]*0.01526]
#117=[#530+[#531-#530]*0.01526]
#111=[#116+[#117-#116]*0.24907]
X5.95787 Y-2.62525 Z[#111+-0.04000]
#116=[#523+[#524-#523]*0.01954]
#117=[#530+[#531-#530]*0.01954]
#111=[#116+[#117-#116]*0.26000]
X5.96215 Y-2.62370 Z[#111+-0.04000]
#116=[#523+[#524-#523]*0.02100]
#117=[#530+[#531-#530]*0.02100]
#111=[#116+[#117-#116]*0.27154]
X5.96667 Y-2.62317 Z[#111+-0.04000]
#116=[#523+[#524-#523]*0.02100]
#117=[#530+[#531-#530]*0.02100]
#111=[#116+[#117-#116]*0.45388]
X6.03810 Y-2.62317 Z[#111+-0.04000]
#116=[#523+[#524-#523]*0.01954]
#117=[#530+[#531-#530]*0.01954]
#111=[#116+[#117-#116]*0.46541]
X6.04262 Y-2.62370 Z[#111+-0.04000]
#116=[#523+[#524-#523]*0.01526]
#117=[#530+[#531-#530]*0.01526]
#111=[#116+[#117-#116]*0.47634]
X6.04690 Y-2.62525 Z[#111+-0.04000]
#116=[#523+[#524-#523]*0.00000]
#117=[#530+[#531-#530]*0.00000]
#111=[#116+[#117-#116]*0.50454]
X6.05795 Y-2.63077 Z[#111+-0.04000]
#116=[#522+[#523-#522]*0.94950]
#117=[#529+[#530-#529]*0.94950]
#111=[#116+[#117-#116]*0.59787]
X6.09451 Y-2.64906 Z[#111+-0.04000]
#116=[#522+[#523-#522]*0.94320]
#117=[#529+[#530-#529]*0.94320]
#111=[#116+[#117-#116]*0.60693]
X6.09806 Y-2.65134 Z[#111+-0.04000]
#116=[#522+[#523-#522]*0.93497]
#117=[#529+[#530-#529]*0.93497]
#111=[#116+[#117-#116]*0.61454]
X6.10104 Y-2.65432 Z[#111+-0.04000]
#116=[#522+[#523-#522]*0.92517]
#117=[#529+[#530-#529]*0.92517]
#111=[#116+[#117-#116]*0.62036]
X6.10332 Y-2.65787 Z[#111+-0.04000]
#116=[#522+[#523-#522]*0.79367]
#117=[#529+[#530-#529]*0.79367]
#111=[#116+[#117-#116]*0.68114]
X6.12713 Y-2.70548 Z[#111+-0.04000]
#116=[#522+[#523-#522]*0.78185]
#117=[#529+[#530-#529]*0.78185]
#111=[#116+[#117-#116]*0.68510]
X6.12868 Y-2.70976 Z[#111+-0.04000]
#116=[#522+[#523-#522]*0.76937]
#117=[#529+[#530-#529]*0.76937]
#111=[#116+[#117-#116]*0.68645]
X6.12921 Y-2.71428 Z[#111+-0.04000]
#116=[#522+[#523-#522]*0.04601]
#117=[#529+[#530-#529]*0.04601]
#111=[#116+[#117-#116]*0.68645]
X6.12921 Y-2.97619 Z[#111+-0.04000]
#116=[#522+[#523-#522]*0.03540]
#117=[#529+[#530-#529]*0.03540]
#111=[#116+[#117-#116]*0.68548]
X6.12883 Y-2.98003 Z[#111+-0.04000]
#116=[#522+[#523-#522]*0.02521]
#117=[#529+[#530-#529]*0.02521]
#111=[#116+[#117-#116]*0.68262]
X6.12771 Y-2.98372 Z[#111+-0.04000]
#116=[#522+[#523-#522]*0.01579]
#117=[#529+[#530-#529]*0.01579]
#111=[#116+[#117-#116]*0.67798]
X6.12589 Y-2.98713 Z[#111+-0.04000]
#116=[#522+[#523-#522]*0.00756]
#117=[#529+[#530-#529]*0.00756]
#111=[#116+[#117-#116]*0.67172]
X6.12344 Y-2.99011 Z[#111+-0.04000]
#116=[#522+[#523-#522]*0.00079]
#117=[#529+[#530-#529]*0.00079]
#111=[#116+[#117-#116]*0.66412]
X6.12046 Y-2.99256 Z[#111+-0.04000]
#116=[#521+[#522-#521]*1.00000]
#117=[#528+[#529-#528]*1.00000]
#111=[#116+[#117-#116]*0.66274]
X6.11992 Y-2.99285 Z[#111+-0.04000]
#116=[#521+[#522-#521]*0.99577]
#117=[#528+[#529-#528]*0.99577]
#111=[#116+[#117-#116]*0.65541]
X6.11705 Y-2.99438 Z[#111+-0.04000]
#116=[#521+[#522-#521]*0.99267]
#117=[#528+[#529-#528]*0.99267]
#111=[#116+[#117-#116]*0.64599]
X6.11336 Y-2.99550 Z[#111+-0.04000]
#116=[#521+[#522-#521]*0.99162]
#117=[#528+[#529-#528]*0.99162]
#111=[#116+[#117-#116]*0.63619]
X6.10952 Y-2.99588 Z[#111+-0.04000]
#116=[#521+[#522-#521]*0.99267]
#117=[#528+[#529-#528]*0.99267]
#111=[#116+[#117-#116]*0.62639]
X6.10568 Y-2.99550 Z[#111+-0.04000]
#116=[#521+[#522-#521]*0.99577]
#117=[#528+[#529-#528]*0.99577]
#111=[#116+[#117-#116]*0.61697]
X6.10199 Y-2.99438 Z[#111+-0.04000]
#116=[#521+[#522-#521]*1.00000]
#117=[#528+[#529-#528]*1.00000]
#111=[#116+[#117-#116]*0.60964]
X6.09912 Y-2.99285 Z[#111+-0.04000]
#116=[#522+[#523-#522]*0.00079]
#117=[#529+[#530-#529]*0.00079]
#111=[#116+[#117-#116]*0.60826]
X6.09858 Y-2.99256 Z[#111+-0.04000]
#116=[#522+[#523-#522]*0.00756]
#117=[#529+[#530-#529]*0.00756]
#111=[#116+[#117-#116]*0.60066]
X6.09560 Y-2.99011 Z[#111+-0.04000]
#116=[#522+[#523-#522]*0.01579]
#117=[#529+[#530-#529]*0.01579]
#111=[#116+[#117-#116]*0.59440]
X6.09315 Y-2.98713 Z[#111+-0.04000]
#116=[#522+[#523-#522]*0.02521]
#117=[#529+[#530-#529]*0.02521]
#111=[#116+[#117-#116]*0.58976]
X6.09133 Y-2.98372 Z[#111+-0.04000]
#116=[#522+[#523-#522]*0.03540]
#117=[#529+[#530-#529]*0.03540]
#111=[#116+[#117-#116]*0.58690]
X6.09021 Y-2.98003 Z[#111+-0.04000]
#116=[#522+[#523-#522]*0.04601]
#117=[#529+[#530-#529]*0.04601]
#111=[#116+[#117-#116]*0.58593]
X6.08983 Y-2.97619 Z[#111+-0.04000]
#116=[#522+[#523-#522]*0.75653]
#117=[#529+[#530-#529]*0.75653]
#111=[#116+[#117-#116]*0.58593]
X6.08983 Y-2.71893 Z[#111+-0.04000]
#116=[#522+[#523-#522]*0.86035]
#117=[#529+[#530-#529]*0.86035]
#111=[#116+[#117-#116]*0.53796]
X6.07104 Y-2.68134 Z[#111+-0.04000]
#116=[#522+[#523-#522]*0.91224]
#117=[#529+[#530-#529]*0.91224]
#111=[#116+[#117-#116]*0.44201]
X6.03345 Y-2.66255 Z[#111+-0.04000]
#116=[#522+[#523-#522]*0.91224]
#117=[#529+[#530-#529]*0.91224]
#111=[#116+[#117-#116]*0.28341]
X5.97132 Y-2.66255 Z[#111+-0.04000]
#116=[#522+[#523-#522]*0.85617]
#117=[#529+[#530-#529]*0.85617]
#111=[#116+[#117-#116]*0.17974]
X5.93071 Y-2.68285 Z[#111+-0.04000]
#116=[#522+[#523-#522]*0.81259]
#117=[#529+[#530-#529]*0.81259]
#111=[#116+[#117-#116]*0.13946]
X5.91493 Y-2.69863 Z[#111+-0.04000]
#116=[#522+[#523-#522]*0.04601]
#117=[#529+[#530-#529]*0.04601]
#111=[#116+[#117-#116]*0.13946]
X5.91493 Y-2.97619 Z[#111+-0.04000]
#116=[#522+[#523-#522]*0.03540]
#117=[#529+[#530-#529]*0.03540]
#111=[#116+[#117-#116]*0.13849]
X5.91455 Y-2.98003 Z[#111+-0.04000]
#116=[#522+[#523-#522]*0.02521]
#117=[#529+[#530-#529]*0.02521]
#111=[#116+[#117-#116]*0.13563]
X5.91343 Y-2.98372 Z[#111+-0.04000]
#116=[#522+[#523-#522]*0.01579]
#117=[#529+[#530-#529]*0.01579]
#111=[#116+[#117-#116]*0.13098]
X5.91161 Y-2.98713 Z[#111+-0.04000]
#116=[#522+[#523-#522]*0.00756]
#117=[#529+[#530-#529]*0.00756]
#111=[#116+[#117-#116]*0.12473]
X5.90916 Y-2.99011 Z[#111+-0.04000]
#116=[#522+[#523-#522]*0.00079]
#117=[#529+[#530-#529]*0.00079]
#111=[#116+[#117-#116]*0.11712]
X5.90618 Y-2.99256 Z[#111+-0.04000]
#116=[#521+[#522-#521]*1.00000]
#117=[#528+[#529-#528]*1.00000]
#111=[#116+[#117-#116]*0.11575]
X5.90564 Y-2.99285 Z[#111+-0.04000]
#116=[#521+[#522-#521]*0.99577]
#117=[#528+[#529-#528]*0.99577]
#111=[#116+[#117-#116]*0.10842]
X5.90277 Y-2.99438 Z[#111+-0.04000]
#116=[#521+[#522-#521]*0.99267]
#117=[#528+[#529-#528]*0.99267]
#111=[#116+[#117-#116]*0.09900]
X5.89908 Y-2.99550 Z[#111+-0.04000]
#116=[#521+[#522-#521]*0.99162]
#117=[#528+[#529-#528]*0.99162]
#111=[#116+[#117-#116]*0.08920]
X5.89524 Y-2.99588 Z[#111+-0.04000]
#116=[#521+[#522-#521]*0.99267]
#117=[#528+[#529-#528]*0.99267]
#111=[#116+[#117-#116]*0.07939]
X5.89140 Y-2.99550 Z[#111+-0.04000]
#116=[#521+[#522-#521]*0.99577]
#117=[#528+[#529-#528]*0.99577]
#111=[#116+[#117-#116]*0.06998]
X5.88771 Y-2.99438 Z[#111+-0.04000]
#116=[#521+[#522-#521]*1.00000]
#117=[#528+[#529-#528]*1.00000]
#111=[#116+[#117-#116]*0.06264]
X5.88484 Y-2.99285 Z[#111+-0.04000]
#116=[#522+[#523-#522]*0.00079]
#117=[#529+[#530-#529]*0.00079]
#111=[#116+[#117-#116]*0.06127]
X5.88430 Y-2.99256 Z[#111+-0.04000]
#116=[#522+[#523-#522]*0.00756]
#117=[#529+[#530-#529]*0.00756]
#111=[#116+[#117-#116]*0.05366]
X5.88132 Y-2.99011 Z[#111+-0.04000]
#116=[#522+[#523-#522]*0.01579]
#117=[#529+[#530-#529]*0.01579]
#111=[#116+[#117-#116]*0.04741]
X5.87887 Y-2.98713 Z[#111+-0.04000]
#116=[#522+[#523-#522]*0.02521]
#117=[#529+[#530-#529]*0.02521]
#111=[#116+[#117-#116]*0.04276]
X5.87705 Y-2.98372 Z[#111+-0.04000]
#116=[#522+[#523-#522]*0.03540]
#117=[#529+[#530-#529]*0.03540]
#111=[#116+[#117-#116]*0.03990]
X5.87593 Y-2.98003 Z[#111+-0.04000]
#116=[#522+[#523-#522]*0.04601]
#117=[#529+[#530-#529]*0.04601]
#111=[#116+[#117-#116]*0.03893]
X5.87555 Y-2.97619 Z[#111+-0.04000]
G04 P0 ( dwell for no time -- G64 should not smooth over this point )
G00 Z0.08000 ( retract )

G00 X6.25650 Y-2.64286 ( rapid move to begin. )
G01 F180.00000
( Mill infeed pass 1/1 )
#116=[#529+[#530-#529]*0.96662]
#117=[#536+[#537-#536]*0.96662]
#111=[#116+[#117-#116]*0.01138]
G01 Z[-0.04000+#111]
G04 P0 ( dwell for no time -- G64 should not smooth over this point )
G01 F360.00000
#116=[#529+[#530-#529]*0.95602]
#117=[#536+[#537-#536]*0.95602]
#111=[#116+[#117-#116]*0.01235]
X6.25688 Y-2.64670 Z[#111+-0.04000]
#116=[#529+[#530-#529]*0.94583]
#117=[#536+[#537-#536]*0.94583]
#111=[#116+[#117-#116]*0.01521]
X6.25800 Y-2.65039 Z[#111+-0.04000]
#116=[#529+[#530-#529]*0.93641]
#117=[#536+[#537-#536]*0.93641]
#111=[#116+[#117-#116]*0.01986]
X6.25982 Y-2.65380 Z[#111+-0.04000]
#116=[#529+[#530-#529]*0.92818]
#117=[#536+[#537-#536]*0.92818]
#111=[#116+[#117-#116]*0.02611]
X6.26227 Y-2.65678 Z[#111+-0.04000]
#116=[#529+[#530-#529]*0.92141]
#117=[#536+[#537-#536]*0.92141]
#111=[#116+[#117-#116]*0.03372]
X6.26525 Y-2.65923 Z[#111+-0.04000]
#116=[#529+[#530-#529]*0.91638]
#117=[#536+[#537-#536]*0.91638]
#111=[#116+[#117-#116]*0.04242]
X6.26866 Y-2.66105 Z[#111+-0.04000]
#116=[#529+[#530-#529]*0.91329]
#117=[#536+[#537-#536]*0.91329]
#111=[#116+[#117-#116]*0.05184]
X6.27235 Y-2.66217 Z[#111+-0.04000]
#116=[#529+[#530-#529]*0.91224]
#117=[#536+[#537-#536]*0.91224]
#111=[#116+[#117-#116]*0.06165]
X6.27619 Y-2.66255 Z[#111+-0.04000]
#116=[#529+[#530-#529]*0.91224]
#117=[#536+[#537-#536]*0.91224]
#111=[#116+[#117-#116]*0.19372]
X6.32793 Y-2.66255 Z[#111+-0.04000]
#116=[#529+[#530-#529]*0.24329]
#117=[#536+[#537-#536]*0.24329]
#111=[#116+[#117-#116]*0.19372]
X6.32793 Y-2.90476 Z[#111+-0.04000]
#116=[#529+[#530-#529]*0.23080]
#117=[#536+[#537-#536]*0.23080]
#111=[#116+[#117-#116]*0.19508]
X6.32846 Y-2.90928 Z[#111+-0.04000]
#116=[#529+[#530-#529]*0.21898]
#117=[#536+[#537-#536]*0.21898]
#111=[#116+[#117-#116]*0.19903]
X6.33001 Y-2.91356 Z[#111+-0.04000]
#116=[#529+[#530-#529]*0.08746]
#117=[#536+[#537-#536]*0.08746]
#111=[#116+[#117-#116]*0.25981]
X6.35382 Y-2.96118 Z[#111+-0.04000]
#116=[#529+[#530-#529]*0.07766]
#117=[#536+[#537-#536]*0.07766]
#111=[#116+[#117-#116]*0.26563]
X6.35610 Y-2.96473 Z[#111+-0.04000]
#116=[#529+[#530-#529]*0.06943]
#117=[#536+[#537-#536]*0.06943]
#111=[#116+[#117-#116]*0.27324]
X6.35908 Y-2.96771 Z[#111+-0.04000]
#116=[#529+[#530-#529]*0.06313]
#117=[#536+[#537-#536]*0.06313]
#111=[#116+[#117-#116]*0.28230]
X6.36263 Y-2.96999 Z[#111+-0.04000]
#116=[#528+[#529-#528]*1.00000]
#117=[#535+[#536-#535]*1.00000]
#111=[#116+[#117-#116]*0.39900]
X6.40834 Y-2.99285 Z[#111+-0.04000]
#116=[#528+[#529-#528]*0.99737]
#117=[#535+[#536-#535]*0.99737]
#111=[#116+[#117-#116]*0.40386]
X6.41025 Y-2.99380 Z[#111+-0.04000]
#116=[#528+[#529-#528]*0.99309]
#117=[#535+[#536-#535]*0.99309]
#111=[#116+[#117-#116]*0.41479]
X6.41453 Y-2.99535 Z[#111+-0.04000]
#116=[#528+[#529-#528]*0.99162]
#117=[#535+[#536-#535]*0.99162]
#111=[#116+[#117-#116]*0.42632]
X6.41905 Y-2.99588 Z[#111+-0.04000]
#116=[#528+[#529-#528]*0.99162]
#117=[#535+[#536-#535]*0.99162]
#111=[#116+[#117-#116]*0.54788]
X6.46667 Y-2.99588 Z[#111+-0.04000]
#116=[#528+[#529-#528]*0.99267]
#117=[#535+[#536-#535]*0.99267]
#111=[#116+[#117-#116]*0.55769]
X6.47051 Y-2.99550 Z[#111+-0.04000]
#116=[#528+[#529-#528]*0.99577]
#117=[#535+[#536-#535]*0.99577]
#111=[#116+[#117-#116]*0.56711]
X6.47420 Y-2.99438 Z[#111+-0.04000]
#116=[#528+[#529-#528]*1.00000]
#117=[#535+[#536-#535]*1.00000]
#111=[#116+[#117-#116]*0.57444]
X6.47707 Y-2.99285 Z[#111+-0.04000]
#116=[#529+[#530-#529]*0.00079]
#117=[#536+[#537-#536]*0.00079]
#111=[#116+[#117-#116]*0.57581]
X6.47761 Y-2.99256 Z[#111+-0.04000]
#116=[#529+[#530-#529]*0.00756]
#117=[#536+[#537-#536]*0.00756]
#111=[#116+[#117-#116]*0.58342]
X6.48059 Y-2.99011 Z[#111+-0.04000]
#116=[#529+[#530-#529]*0.01579]
#117=[#536+[#537-#536]*0.01579]
#111=[#116+[#117-#116]*0.58967]
X6.48304 Y-2.98713 Z[#111+-0.04000]
#116=[#529+[#530-#529]*0.02521]
#117=[#536+[#537-#536]*0.02521]
#111=[#116+[#117-#116]*0.59432]
X6.48486 Y-2.98372 Z[#111+-0.04000]
#116=[#529+[#530-#529]*0.03540]
#117=[#536+[#537-#536]*0.03540]
#111=[#116+[#117-#116]*0.59718]
X6.48598 Y-2.98003 Z[#111+-0.04000]
#116=[#529+[#530-#529]*0.04601]
#117=[#536+[#537-#536]*0.04601]
#111=[#116+[#117-#116]*0.59815]
X6.48636 Y-2.97619 Z[#111+-0.04000]
#116=[#529+[#530-#529]*0.05661]
#117=[#536+[#537-#536]*0.05661]
#111=[#116+[#117-#116]*0.59718]
X6.48598 Y-2.97235 Z[#111+-0.04000]
#116=[#529+[#530-#529]*0.06680]
#117=[#536+[#537-#536]*0.06680]
#111=[#116+[#117-#116]*0.59432]
X6.48486 Y-2.96866 Z[#111+-0.04000]
#116=[#529+[#530-#529]*0.07622]
#117=[#536+[#537-#536]*0.07622]
#111=[#116+[#117-#116]*0.58967]
X6.48304 Y-2.96525 Z[#111+-0.04000]
#116=[#529+[#530-#529]*0.08445]
#117=[#536+[#537-#536]*0.08445]
#111=[#116+[#117-#116]*0.58342]
X6.48059 Y-2.96227 Z[#111+-0.04000]
#116=[#529+[#530-#529]*0.09122]
#117=[#536+[#537-#536]*0.09122]
#111=[#116+[#117-#116]*0.57581]
X6.47761 Y-2.95982 Z[#111+-0.04000]
#116=[#529+[#530-#529]*0.09624]
#117=[#536+[#537-#536]*0.09624]
#111=[#116+[#117-#116]*0.56711]
X6.47420 Y-2.95800 Z[#111+-0.04000]
#116=[#529+[#530-#529]*0.09934]
#117=[#536+[#537-#536]*0.09934]
#111=[#116+[#117-#116]*0.55769]
X6.47051 Y-2.95688 Z[#111+-0.04000]
#116=[#529+[#530-#529]*0.10039]
#117=[#536+[#537-#536]*0.10039]
#111=[#116+[#117-#116]*0.54788]
X6.46667 Y-2.95650 Z[#111+-0.04000]
#116=[#529+[#530-#529]*0.10039]
#117=[#536+[#537-#536]*0.10039]
#111=[#116+[#117-#116]*0.43819]
X6.42370 Y-2.95650 Z[#111+-0.04000]
#116=[#529+[#530-#529]*0.15228]
#117=[#536+[#537-#536]*0.15228]
#111=[#116+[#117-#116]*0.34221]
X6.38610 Y-2.93771 Z[#111+-0.04000]
#116=[#529+[#530-#529]*0.25613]
#117=[#536+[#537-#536]*0.25613]
#111=[#116+[#117-#116]*0.29425]
X6.36731 Y-2.90011 Z[#111+-0.04000]
#116=[#529+[#530-#529]*0.91224]
#117=[#536+[#537-#536]*0.91224]
#111=[#116+[#117-#116]*0.29425]
X6.36731 Y-2.66255 Z[#111+-0.04000]
#116=[#529+[#530-#529]*0.91224]
#117=[#536+[#537-#536]*0.91224]
#111=[#116+[#117-#116]*0.54788]
X6.46667 Y-2.66255 Z[#111+-0.04000]
#116=[#529+[#530-#529]*0.91329]
#117=[#536+[#537-#536]*0.91329]
#111=[#116+[#117-#116]*0.55769]
X6.47051 Y-2.66217 Z[#111+-0.04000]
#116=[#529+[#530-#529]*0.91638]
#117=[#536+[#537-#536]*0.91638]
#111=[#116+[#117-#116]*0.56711]
X6.47420 Y-2.66105 Z[#111+-0.04000]
#116=[#529+[#530-#529]*0.92141]
#117=[#536+[#537-#536]*0.92141]
#111=[#116+[#117-#116]*0.57581]
X6.47761 Y-2.65923 Z[#111+-0.04000]
#116=[#529+[#530-#529]*0.92818]
#117=[#536+[#537-#536]*0.92818]
#111=[#116+[#117-#116]*0.58342]
X6.48059 Y-2.65678 Z[#111+-0.04000]
#116=[#529+[#530-#529]*0.93641]
#117=[#536+[#537-#536]*0.93641]
#111=[#116+[#117-#116]*0.58967]
X6.48304 Y-2.65380 Z[#111+-0.04000]
#116=[#529+[#530-#529]*0.94583]
#117=[#536+[#537-#536]*0.94583]
#111=[#116+[#117-#116]*0.59432]
X6.48486 Y-2.65039 Z[#111+-0.04000]
#116=[#529+[#530-#529]*0.95602]
#117=[#536+[#537-#536]*0.95602]
#111=[#116+[#117-#116]*0.59718]
X6.48598 Y-2.64670 Z[#111+-0.04000]
#116=[#529+[#530-#529]*0.96662]
#117=[#536+[#537-#536]*0.96662]
#111=[#116+[#117-#116]*0.59815]
X6.48636 Y-2.64286 Z[#111+-0.04000]
#116=[#529+[#530-#529]*0.97723]
#117=[#536+[#537-#536]*0.97723]
#111=[#116+[#117-#116]*0.59718]
X6.48598 Y-2.63902 Z[#111+-0.04000]
#116=[#529+[#530-#529]*0.98742]
#117=[#536+[#537-#536]*0.98742]
#111=[#116+[#117-#116]*0.59432]
X6.48486 Y-2.63533 Z[#111+-0.04000]
#116=[#529+[#530-#529]*0.99684]
#117=[#536+[#537-#536]*0.99684]
#111=[#116+[#117-#116]*0.58967]
X6.48304 Y-2.63192 Z[#111+-0.04000]
#116=[#530+[#531-#530]*0.00000]
#117=[#537+[#538-#537]*0.00000]
#111=[#116+[#117-#116]*0.58727]
X6.48210 Y-2.63077 Z[#111+-0.04000]
#116=[#530+[#531-#530]*0.00507]
#117=[#537+[#538-#537]*0.00507]
#111=[#116+[#117-#116]*0.58342]
X6.48059 Y-2.62894 Z[#111+-0.04000]
#116=[#530+[#531-#530]*0.01183]
#117=[#537+[#538-#537]*0.01183]
#111=[#116+[#117-#116]*0.57581]
X6.47761 Y-2.62649 Z[#111+-0.04000]
#116=[#530+[#531-#530]*0.01686]
#117=[#537+[#538-#537]*0.01686]
#111=[#116+[#117-#116]*0.56711]
X6.47420 Y-2.62467 Z[#111+-0.04000]
#116=[#530+[#531-#530]*0.01995]
#117=[#537+[#538-#537]*0.01995]
#111=[#116+[#117-#116]*0.55769]
X6.47051 Y-2.62355 Z[#111+-0.04000]
#116=[#530+[#531-#530]*0.02100]
#117=[#537+[#538-#537]*0.02100]
#111=[#116+[#117-#116]*0.54788]
X6.46667 Y-2.62317 Z[#111+-0.04000]
#116=[#530+[#531-#530]*0.02100]
#117=[#537+[#538-#537]*0.02100]
#111=[#116+[#117-#116]*0.29425]
X6.36731 Y-2.62317 Z[#111+-0.04000]
#116=[#530+[#531-#530]*0.42694]
#117=[#537+[#538-#537]*0.42694]
#111=[#116+[#117-#116]*0.29425]
X6.36731 Y-2.47619 Z[#111+-0.04000]
#116=[#530+[#531-#530]*0.43755]
#117=[#537+[#538-#537]*0.43755]
#111=[#116+[#117-#116]*0.29328]
X6.36693 Y-2.47235 Z[#111+-0.04000]
#116=[#530+[#531-#530]*0.44774]
#117=[#537+[#538-#537]*0.44774]
#111=[#116+[#117-#116]*0.29042]
X6.36581 Y-2.46866 Z[#111+-0.04000]
#116=[#530+[#531-#530]*0.45716]
#117=[#537+[#538-#537]*0.45716]
#111=[#116+[#117-#116]*0.28577]
X6.36399 Y-2.46525 Z[#111+-0.04000]
#116=[#530+[#531-#530]*0.46539]
#117=[#537+[#538-#537]*0.46539]
#111=[#116+[#117-#116]*0.27952]
X6.36154 Y-2.46227 Z[#111+-0.04000]
#116=[#530+[#531-#530]*0.47216]
#117=[#537+[#538-#537]*0.47216]
#111=[#116+[#117-#116]*0.27191]
X6.35856 Y-2.45982 Z[#111+-0.04000]
#116=[#530+[#531-#530]*0.47718]
#117=[#537+[#538-#537]*0.47718]
#111=[#116+[#117-#116]*0.26321]
X6.35515 Y-2.45800 Z[#111+-0.04000]
#116=[#530+[#531-#530]*0.48028]
#117=[#537+[#538-#537]*0.48028]
#111=[#116+[#117-#116]*0.25379]
X6.35146 Y-2.45688 Z[#111+-0.04000]
#116=[#530+[#531-#530]*0.48133]
#117=[#537+[#538-#537]*0.48133]
#111=[#116+[#117-#116]*0.24399]
X6.34762 Y-2.45650 Z[#111+-0.04000]
#116=[#530+[#531-#530]*0.48028]
#117=[#537+[#538-#537]*0.48028]
#111=[#116+[#117-#116]*0.23418]
X6.34378 Y-2.45688 Z[#111+-0.04000]
#116=[#530+[#531-#530]*0.47718]
#117=[#537+[#538-#537]*0.47718]
#111=[#116+[#117-#116]*0.22476]
X6.34009 Y-2.45800 Z[#111+-0.04000]
#116=[#530+[#531-#530]*0.47216]
#117=[#537+[#538-#537]*0.47216]
#111=[#116+[#117-#116]*0.21606]
X6.33668 Y-2.45982 Z[#111+-0.04000]
#116=[#530+[#531-#530]*0.46539]
#117=[#537+[#538-#537]*0.46539]
#111=[#116+[#117-#116]*0.20845]
X6.33370 Y-2.46227 Z[#111+-0.04000]
#116=[#530+[#531-#530]*0.45716]
#117=[#537+[#538-#537]*0.45716]
#111=[#116+[#117-#116]*0.20220]
X6.33125 Y-2.46525 Z[#111+-0.04000]
#116=[#530+[#531-#530]*0.44774]
#117=[#537+[#538-#537]*0.44774]
#111=[#116+[#117-#116]*0.19755]
X6.32943 Y-2.46866 Z[#111+-0.04000]
#116=[#530+[#531-#530]*0.43755]
#117=[#537+[#538-#537]*0.43755]
#111=[#116+[#117-#116]*0.19469]
X6.32831 Y-2.47235 Z[#111+-0.04000]
#116=[#530+[#531-#530]*0.42694]
#117=[#537+[#538-#537]*0.42694]
#111=[#116+[#117-#116]*0.19372]
X6.32793 Y-2.47619 Z[#111+-0.04000]
#116=[#530+[#531-#530]*0.02100]
#117=[#537+[#538-#537]*0.02100]
#111=[#116+[#117-#116]*0.19372]
X6.32793 Y-2.62317 Z[#111+-0.04000]
#116=[#530+[#531-#530]*0.02100]
#117=[#537+[#538-#537]*0.02100]
#111=[#116+[#117-#116]*0.06165]
X6.27619 Y-2.62317 Z[#111+-0.04000]
#116=[#530+[#531-#530]*0.01995]
#117=[#537+[#538-#537]*0.01995]
#111=[#116+[#117-#116]*0.05184]
X6.27235 Y-2.62355 Z[#111+-0.04000]
#116=[#530+[#531-#530]*0.01686]
#117=[#537+[#538-#537]*0.01686]
#111=[#116+[#117-#116]*0.04242]
X6.26866 Y-2.62467 Z[#111+-0.04000]
#116=[#530+[#531-#530]*0.01183]
#117=[#537+[#538-#537]*0.01183]
#111=[#116+[#117-#116]*0.03372]
X6.26525 Y-2.62649 Z[#111+-0.04000]
#116=[#530+[#531-#530]*0.00507]
#117=[#537+[#538-#537]*0.00507]
#111=[#116+[#117-#116]*0.02611]
X6.26227 Y-2.62894 Z[#111+-0.04000]
#116=[#530+[#531-#530]*0.00000]
#117=[#537+[#538-#537]*0.00000]
#111=[#116+[#117-#116]*0.02226]
X6.26076 Y-2.63077 Z[#111+-0.04000]
#116=[#529+[#530-#529]*0.99684]
#117=[#536+[#537-#536]*0.99684]
#111=[#116+[#117-#116]*0.01986]
X6.25982 Y-2.63192 Z[#111+-0.04000]
#116=[#529+[#530-#529]*0.98742]
#117=[#536+[#537-#536]*0.98742]
#111=[#116+[#117-#116]*0.01521]
X6.25800 Y-2.63533 Z[#111+-0.04000]
#116=[#529+[#530-#529]*0.97723]
#117=[#536+[#537-#536]*0.97723]
#111=[#116+[#117-#116]*0.01235]
X6.25688 Y-2.63902 Z[#111+-0.04000]
#116=[#529+[#530-#529]*0.96662]
#117=[#536+[#537-#536]*0.96662]
#111=[#116+[#117-#116]*0.01138]
X6.25650 Y-2.64286 Z[#111+-0.04000]
G04 P0 ( dwell for no time -- G64 should not smooth over this point )
G00 Z0.08000 ( retract )

G00 X6.49508 Y-3.30000 ( rapid move to begin. )
G01 F180.00000
( Mill infeed pass 1/1 )
#116=[#528+[#529-#528]*0.15168]
#117=[#535+[#536-#535]*0.15168]
#111=[#116+[#117-#116]*0.62041]
G01 Z[-0.04000+#111]
G04 P0 ( dwell for no time -- G64 should not smooth over this point )
G01 F360.00000
#116=[#528+[#529-#528]*0.14649]
#117=[#535+[#536-#535]*0.14649]
#111=[#116+[#117-#116]*0.62135]
X6.49545 Y-3.30188 Z[#111+-0.04000]
#116=[#528+[#529-#528]*0.14207]
#117=[#535+[#536-#535]*0.14207]
#111=[#116+[#117-#116]*0.62408]
X6.49652 Y-3.30348 Z[#111+-0.04000]
#116=[#528+[#529-#528]*0.13912]
#117=[#535+[#536-#535]*0.13912]
#111=[#116+[#117-#116]*0.62817]
X6.49812 Y-3.30455 Z[#111+-0.04000]
#116=[#528+[#529-#528]*0.13834]
#117=[#535+[#536-#535]*0.13834]
#111=[#116+[#117-#116]*0.63052]
X6.49904 Y-3.30483 Z[#111+-0.04000]
#116=[#528+[#529-#528]*0.13809]
#117=[#535+[#536-#535]*0.13809]
#111=[#116+[#117-#116]*0.74804]
X6.54508 Y-3.30492 Z[#111+-0.04000]
#116=[#528+[#529-#528]*0.01094]
#117=[#535+[#536-#535]*0.01094]
#111=[#116+[#117-#116]*0.74827]
X6.54517 Y-3.35096 Z[#111+-0.04000]
#116=[#528+[#529-#528]*0.00840]
#117=[#535+[#536-#535]*0.00840]
#111=[#116+[#117-#116]*0.74899]
X6.54545 Y-3.35188 Z[#111+-0.04000]
#116=[#528+[#529-#528]*0.00398]
#117=[#535+[#536-#535]*0.00398]
#111=[#116+[#117-#116]*0.75172]
X6.54652 Y-3.35348 Z[#111+-0.04000]
#116=[#528+[#529-#528]*0.00102]
#117=[#535+[#536-#535]*0.00102]
#111=[#116+[#117-#116]*0.75580]
X6.54812 Y-3.35455 Z[#111+-0.04000]
#111=[#528+[#535-#528]*0.76060]
X6.55000 Y-3.35492 Z[#111+-0.04000]
#116=[#528+[#529-#528]*0.00102]
#117=[#535+[#536-#535]*0.00102]
#111=[#116+[#117-#116]*0.76540]
X6.55188 Y-3.35455 Z[#111+-0.04000]
#116=[#528+[#529-#528]*0.00398]
#117=[#535+[#536-#535]*0.00398]
#111=[#116+[#117-#116]*0.76948]
X6.55348 Y-3.35348 Z[#111+-0.04000]
#116=[#528+[#529-#528]*0.00840]
#117=[#535+[#536-#535]*0.00840]
#111=[#116+[#117-#116]*0.77222]
X6.55455 Y-3.35188 Z[#111+-0.04000]
#116=[#528+[#529-#528]*0.01094]
#117=[#535+[#536-#535]*0.01094]
#111=[#116+[#117-#116]*0.77293]
X6.55483 Y-3.35096 Z[#111+-0.04000]
#116=[#528+[#529-#528]*0.13809]
#117=[#535+[#536-#535]*0.13809]
#111=[#116+[#117-#116]*0.77316]
X6.55492 Y-3.30492 Z[#111+-0.04000]
#116=[#528+[#529-#528]*0.13834]
#117=[#535+[#536-#535]*0.13834]
#111=[#116+[#117-#116]*0.89069]
X6.60096 Y-3.30483 Z[#111+-0.04000]
#116=[#528+[#529-#528]*0.13912]
#117=[#535+[#536-#535]*0.13912]
#111=[#116+[#117-#116]*0.89303]
X6.60188 Y-3.30455 Z[#111+-0.04000]
#116=[#528+[#529-#528]*0.14207]
#117=[#535+[#536-#535]*0.14207]
#111=[#116+[#117-#116]*0.89712]
X6.60348 Y-3.30348 Z[#111+-0.04000]
#116=[#528+[#529-#528]*0.14649]
#117=[#535+[#536-#535]*0.14649]
#111=[#116+[#117-#116]*0.89985]
X6.60455 Y-3.30188 Z[#111+-0.04000]
#116=[#528+[#529-#528]*0.15168]
#117=[#535+[#536-#535]*0.15168]
#111=[#116+[#117-#116]*0.90079]
X6.60492 Y-3.30000 Z[#111+-0.04000]
#116=[#528+[#529-#528]*0.15687]
#117=[#535+[#536-#535]*0.15687]
#111=[#116+[#117-#116]*0.89985]
X6.60455 Y-3.29812 Z[#111+-0.04000]
#116=[#528+[#529-#528]*0.16129]
#117=[#535+[#536-#535]*0.16129]
#111=[#116+[#117-#116]*0.89712]
X6.60348 Y-3.29652 Z[#111+-0.04000]
#116=[#528+[#529-#528]*0.16425]
#117=[#535+[#536-#535]*0.16425]
#111=[#116+[#117-#116]*0.89303]
X6.60188 Y-3.29545 Z[#111+-0.04000]
#116=[#528+[#529-#528]*0.16502]
#117=[#535+[#536-#535]*0.16502]
#111=[#116+[#117-#116]*0.89069]
X6.60096 Y-3.29517 Z[#111+-0.04000]
#116=[#528+[#529-#528]*0.16527]
#117=[#535+[#536-#535]*0.16527]
#111=[#116+[#117-#116]*0.77316]
X6.55492 Y-3.29508 Z[#111+-0.04000]
#116=[#528+[#529-#528]*0.29243]
#117=[#535+[#536-#535]*0.29243]
#111=[#116+[#117-#116]*0.77293]
X6.55483 Y-3.24904 Z[#111+-0.04000]
#116=[#528+[#529-#528]*0.29497]
#117=[#535+[#536-#535]*0.29497]
#111=[#116+[#117-#116]*0.77222]
X6.55455 Y-3.24812 Z[#111+-0.04000]
#116=[#528+[#529-#528]*0.29939]
#117=[#535+[#536-#535]*0.29939]
#111=[#116+[#117-#116]*0.76948]
X6.55348 Y-3.24652 Z[#111+-0.04000]
#116=[#528+[#529-#528]*0.30234]
#117=[#535+[#536-#535]*0.30234]
#111=[#116+[#117-#116]*0.76540]
X6.55188 Y-3.24545 Z[#111+-0.04000]
#116=[#528+[#529-#528]*0.30336]
#117=[#535+[#536-#535]*0.30336]
#111=[#116+[#117-#116]*0.76060]
X6.55000 Y-3.24508 Z[#111+-0.04000]
#116=[#528+[#529-#528]*0.30234]
#117=[#535+[#536-#535]*0.30234]
#111=[#116+[#117-#116]*0.75580]
X6.54812 Y-3.24545 Z[#111+-0.04000]
#116=[#528+[#529-#528]*0.29939]
#117=[#535+[#536-#535]*0.29939]
#111=[#116+[#117-#116]*0.75172]
X6.54652 Y-3.24652 Z[#111+-0.04000]
#116=[#528+[#529-#528]*0.29497]
#117=[#535+[#536-#535]*0.29497]
#111=[#116+[#117-#116]*0.74899]
X6.54545 Y-3.24812 Z[#111+-0.04000]
#116=[#528+[#529-#528]*0.29243]
#117=[#535+[#536-#535]*0.29243]
#111=[#116+[#117-#116]*0.74827]
X6.54517 Y-3.24904 Z[#111+-0.04000]
#116=[#528+[#529-#528]*0.16527]
#117=[#535+[#536-#535]*0.16527]
#111=[#116+[#117-#116]*0.74804]
X6.54508 Y-3.29508 Z[#111+-0.04000]
#116=[#528+[#529-#528]*0.16502]
#117=[#535+[#536-#535]*0.16502]
#111=[#116+[#117-#116]*0.63052]
X6.49904 Y-3.29517 Z[#111+-0.04000]
#116=[#528+[#529-#528]*0.16425]
#117=[#535+[#536-#535]*0.16425]
#111=[#116+[#117-#116]*0.62817]
X6.49812 Y-3.29545 Z[#111+-0.04000]
#116=[#528+[#529-#528]*0.16129]
#117=[#535+[#536-#535]*0.16129]
#111=[#116+[#117-#116]*0.62408]
X6.49652 Y-3.29652 Z[#111+-0.04000]
#116=[#528+[#529-#528]*0.15687]
#117=[#535+[#536-#535]*0.15687]
#111=[#116+[#117-#116]*0.62135]
X6.49545 Y-3.29812 Z[#111+-0.04000]
#116=[#528+[#529-#528]*0.15168]
#117=[#535+[#536-#535]*0.15168]
#111=[#116+[#117-#116]*0.62041]
X6.49508 Y-3.30000 Z[#111+-0.04000]
( Piece #2, position [1;0] )

G04 P0 ( dwell for no time -- G64 should not smooth over this point )
G00 Z0.08000 ( retract )

G00 X6.85909 Y-2.97619 ( rapid move to begin. )
G01 F180.00000
( Mill infeed pass 1/1 )
#116=[#536+[#537-#536]*0.04601]
#117=[#543+[#544-#543]*0.04601]
#111=[#116+[#117-#116]*0.54960]
G01 Z[-0.04000+#111]
G04 P0 ( dwell for no time -- G64 should not smooth over this point )
G01 F360.00000
#116=[#537+[#538-#537]*0.00000]
#117=[#544+[#545-#544]*0.00000]
#111=[#116+[#117-#116]*0.54960]
X6.85909 Y-2.63077 Z[#111+-0.04000]
#116=[#537+[#538-#537]*0.42694]
#117=[#544+[#545-#544]*0.42694]
#111=[#116+[#117-#116]*0.54960]
X6.85909 Y-2.47619 Z[#111+-0.04000]
#116=[#537+[#538-#537]*0.43755]
#117=[#544+[#545-#544]*0.43755]
#111=[#116+[#117-#116]*0.55057]
X6.85947 Y-2.47235 Z[#111+-0.04000]
#116=[#537+[#538-#537]*0.44774]
#117=[#544+[#545-#544]*0.44774]
#111=[#116+[#117-#116]*0.55343]
X6.86059 Y-2.46866 Z[#111+-0.04000]
#116=[#537+[#538-#537]*0.45716]
#117=[#544+[#545-#544]*0.45716]
#111=[#116+[#117-#116]*0.55808]
X6.86241 Y-2.46525 Z[#111+-0.04000]
#116=[#537+[#538-#537]*0.46539]
#117=[#544+[#545-#544]*0.46539]
#111=[#116+[#117-#116]*0.56433]
X6.86486 Y-2.46227 Z[#111+-0.04000]
#116=[#537+[#538-#537]*0.47216]
#117=[#544+[#545-#544]*0.47216]
#111=[#116+[#117-#116]*0.57194]
X6.86784 Y-2.45982 Z[#111+-0.04000]
#116=[#537+[#538-#537]*0.47718]
#117=[#544+[#545-#544]*0.47718]
#111=[#116+[#117-#116]*0.58064]
X6.87125 Y-2.45800 Z[#111+-0.04000]
#116=[#537+[#538-#537]*0.48028]
#117=[#544+[#545-#544]*0.48028]
#111=[#116+[#117-#116]*0.59006]
X6.87494 Y-2.45688 Z[#111+-0.04000]
#116=[#537+[#538-#537]*0.48133]
#117=[#544+[#545-#544]*0.48133]
#111=[#116+[#117-#116]*0.59987]
X6.87878 Y-2.45650 Z[#111+-0.04000]
#116=[#537+[#538-#537]*0.48133]
#117=[#544+[#545-#544]*0.48133]
#111=[#116+[#117-#116]*1.00000]
X7.03553 Y-2.45650 Z[#111+-0.04000]
#116=[#544+[#545-#544]*0.48133]
#117=[#551+[#552-#551]*0.48133]
#111=[#116+[#117-#116]*0.20766]
X7.11688 Y-2.45650 Z[#111+-0.04000]
#116=[#544+[#545-#544]*0.48028]
#117=[#551+[#552-#551]*0.48028]
#111=[#116+[#117-#116]*0.21746]
X7.12072 Y-2.45688 Z[#111+-0.04000]
#116=[#544+[#545-#544]*0.47718]
#117=[#551+[#552-#551]*0.47718]
#111=[#116+[#117-#116]*0.22688]
X7.12441 Y-2.45800 Z[#111+-0.04000]
#116=[#544+[#545-#544]*0.47216]
#117=[#551+[#552-#551]*0.47216]
#111=[#116+[#117-#116]*0.23559]
X7.12782 Y-2.45982 Z[#111+-0.04000]
#116=[#544+[#545-#544]*0.46539]
#117=[#551+[#552-#551]*0.46539]
#111=[#116+[#117-#116]*0.24320]
X7.13080 Y-2.46227 Z[#111+-0.04000]
#116=[#544+[#545-#544]*0.45716]
#117=[#551+[#552-#551]*0.45716]
#111=[#116+[#117-#116]*0.24945]
X7.13325 Y-2.46525 Z[#111+-0.04000]
#116=[#544+[#545-#544]*0.44774]
#117=[#551+[#552-#551]*0.44774]
#111=[#116+[#117-#116]*0.25410]
X7.13507 Y-2.46866 Z[#111+-0.04000]
#116=[#544+[#545-#544]*0.43755]
#117=[#551+[#552-#551]*0.43755]
#111=[#116+[#117-#116]*0.25695]
X7.13619 Y-2.47235 Z[#111+-0.04000]
#116=[#544+[#545-#544]*0.42694]
#117=[#551+[#552-#551]*0.42694]
#111=[#116+[#117-#116]*0.25792]
X7.13657 Y-2.47619 Z[#111+-0.04000]
#116=[#544+[#545-#544]*0.41634]
#117=[#551+[#552-#551]*0.41634]
#111=[#116+[#117-#116]*0.25695]
X7.13619 Y-2.48003 Z[#111+-0.04000]
#116=[#544+[#545-#544]*0.40615]
#117=[#551+[#552-#551]*0.40615]
#111=[#116+[#117-#116]*0.25410]
X7.13507 Y-2.48372 Z[#111+-0.04000]
#116=[#544+[#545-#544]*0.39673]
#117=[#551+[#552-#551]*0.39673]
#111=[#116+[#117-#116]*0.24945]
X7.13325 Y-2.48713 Z[#111+-0.04000]
#116=[#544+[#545-#544]*0.38850]
#117=[#551+[#552-#551]*0.38850]
#111=[#116+[#117-#116]*0.24320]
X7.13080 Y-2.49011 Z[#111+-0.04000]
#116=[#544+[#545-#544]*0.38173]
#117=[#551+[#552-#551]*0.38173]
#111=[#116+[#117-#116]*0.23559]
X7.12782 Y-2.49256 Z[#111+-0.04000]
#116=[#544+[#545-#544]*0.37671]
#117=[#551+[#552-#551]*0.37671]
#111=[#116+[#117-#116]*0.22688]
X7.12441 Y-2.49438 Z[#111+-0.04000]
#116=[#544+[#545-#544]*0.37361]
#117=[#551+[#552-#551]*0.37361]
#111=[#116+[#117-#116]*0.21746]
X7.12072 Y-2.49550 Z[#111+-0.04000]
#116=[#544+[#545-#544]*0.37256]
#117=[#551+[#552-#551]*0.37256]
#111=[#116+[#117-#116]*0.20766]
X7.11688 Y-2.49588 Z[#111+-0.04000]
#116=[#537+[#538-#537]*0.37256]
#117=[#544+[#545-#544]*0.37256]
#111=[#116+[#117-#116]*1.00000]
X7.03553 Y-2.49588 Z[#111+-0.04000]
#116=[#537+[#538-#537]*0.37256]
#117=[#544+[#545-#544]*0.37256]
#111=[#116+[#117-#116]*0.65013]
X6.89847 Y-2.49588 Z[#111+-0.04000]
#116=[#537+[#538-#537]*0.00000]
#117=[#544+[#545-#544]*0.00000]
#111=[#116+[#117-#116]*0.65013]
X6.89847 Y-2.63077 Z[#111+-0.04000]
#116=[#536+[#537-#536]*0.82375]
#117=[#543+[#544-#543]*0.82375]
#111=[#116+[#117-#116]*0.65013]
X6.89847 Y-2.69459 Z[#111+-0.04000]
#116=[#536+[#537-#536]*0.82375]
#117=[#543+[#544-#543]*0.82375]
#111=[#116+[#117-#116]*1.00000]
X7.03553 Y-2.69459 Z[#111+-0.04000]
#116=[#543+[#544-#543]*0.82375]
#117=[#550+[#551-#550]*0.82375]
#111=[#116+[#117-#116]*0.02532]
X7.04545 Y-2.69459 Z[#111+-0.04000]
#116=[#543+[#544-#543]*0.82270]
#117=[#550+[#551-#550]*0.82270]
#111=[#116+[#117-#116]*0.03513]
X7.04929 Y-2.69497 Z[#111+-0.04000]
#116=[#543+[#544-#543]*0.81961]
#117=[#550+[#551-#550]*0.81961]
#111=[#116+[#117-#116]*0.04455]
X7.05298 Y-2.69609 Z[#111+-0.04000]
#116=[#543+[#544-#543]*0.81458]
#117=[#550+[#551-#550]*0.81458]
#111=[#116+[#117-#116]*0.05325]
X7.05639 Y-2.69791 Z[#111+-0.04000]
#116=[#543+[#544-#543]*0.80781]
#117=[#550+[#551-#550]*0.80781]
#111=[#116+[#117-#116]*0.06086]
X7.05937 Y-2.70036 Z[#111+-0.04000]
#116=[#543+[#544-#543]*0.79958]
#117=[#550+[#551-#550]*0.79958]
#111=[#116+[#117-#116]*0.06711]
X7.06182 Y-2.70334 Z[#111+-0.04000]
#116=[#543+[#544-#543]*0.79017]
#117=[#550+[#551-#550]*0.79017]
#111=[#116+[#117-#116]*0.07176]
X7.06364 Y-2.70675 Z[#111+-0.04000]
#116=[#543+[#544-#543]*0.77997]
#117=[#550+[#551-#550]*0.77997]
#111=[#116+[#117-#116]*0.07462]
X7.06476 Y-2.71044 Z[#111+-0.04000]
#116=[#543+[#544-#543]*0.76937]
#117=[#550+[#551-#550]*0.76937]
#111=[#116+[#117-#116]*0.07559]
X7.06514 Y-2.71428 Z[#111+-0.04000]
#116=[#543+[#544-#543]*0.75876]
#117=[#550+[#551-#550]*0.75876]
#111=[#116+[#117-#116]*0.07462]
X7.06476 Y-2.71812 Z[#111+-0.04000]
#116=[#543+[#544-#543]*0.74857]
#117=[#550+[#551-#550]*0.74857]
#111=[#116+[#117-#116]*0.07176]
X7.06364 Y-2.72181 Z[#111+-0.04000]
#116=[#543+[#544-#543]*0.73915]
#117=[#550+[#551-#550]*0.73915]
#111=[#116+[#117-#116]*0.06711]
X7.06182 Y-2.72522 Z[#111+-0.04000]
#116=[#543+[#544-#543]*0.73092]
#117=[#550+[#551-#550]*0.73092]
#111=[#116+[#117-#116]*0.06086]
X7.05937 Y-2.72820 Z[#111+-0.04000]
#116=[#543+[#544-#543]*0.72416]
#117=[#550+[#551-#550]*0.72416]
#111=[#116+[#117-#116]*0.05325]
X7.05639 Y-2.73065 Z[#111+-0.04000]
#116=[#543+[#544-#543]*0.71913]
#117=[#550+[#551-#550]*0.71913]
#111=[#116+[#117-#116]*0.04455]
X7.05298 Y-2.73247 Z[#111+-0.04000]
#116=[#543+[#544-#543]*0.71604]
#117=[#550+[#551-#550]*0.71604]
#111=[#116+[#117-#116]*0.03513]
X7.04929 Y-2.73359 Z[#111+-0.04000]
#116=[#543+[#544-#543]*0.71499]
#117=[#550+[#551-#550]*0.71499]
#111=[#116+[#117-#116]*0.02532]
X7.04545 Y-2.73397 Z[#111+-0.04000]
#116=[#536+[#537-#536]*0.71499]
#117=[#543+[#544-#543]*0.71499]
#111=[#116+[#117-#116]*1.00000]
X7.03553 Y-2.73397 Z[#111+-0.04000]
#116=[#536+[#537-#536]*0.71499]
#117=[#543+[#544-#543]*0.71499]
#111=[#116+[#117-#116]*0.65013]
X6.89847 Y-2.73397 Z[#111+-0.04000]
#116=[#536+[#537-#536]*0.04601]
#117=[#543+[#544-#543]*0.04601]
#111=[#116+[#117-#116]*0.65013]
X6.89847 Y-2.97619 Z[#111+-0.04000]
#116=[#536+[#537-#536]*0.03540]
#117=[#543+[#544-#543]*0.03540]
#111=[#116+[#117-#116]*0.64916]
X6.89809 Y-2.98003 Z[#111+-0.04000]
#116=[#536+[#537-#536]*0.02521]
#117=[#543+[#544-#543]*0.02521]
#111=[#116+[#117-#116]*0.64630]
X6.89697 Y-2.98372 Z[#111+-0.04000]
#116=[#536+[#537-#536]*0.01579]
#117=[#543+[#544-#543]*0.01579]
#111=[#116+[#117-#116]*0.64165]
X6.89515 Y-2.98713 Z[#111+-0.04000]
#116=[#536+[#537-#536]*0.00756]
#117=[#543+[#544-#543]*0.00756]
#111=[#116+[#117-#116]*0.63540]
X6.89270 Y-2.99011 Z[#111+-0.04000]
#116=[#536+[#537-#536]*0.00079]
#117=[#543+[#544-#543]*0.00079]
#111=[#116+[#117-#116]*0.62779]
X6.88972 Y-2.99256 Z[#111+-0.04000]
#116=[#535+[#536-#535]*1.00000]
#117=[#542+[#543-#542]*1.00000]
#111=[#116+[#117-#116]*0.62642]
X6.88918 Y-2.99285 Z[#111+-0.04000]
#116=[#535+[#536-#535]*0.99577]
#117=[#542+[#543-#542]*0.99577]
#111=[#116+[#117-#116]*0.61909]
X6.88631 Y-2.99438 Z[#111+-0.04000]
#116=[#535+[#536-#535]*0.99267]
#117=[#542+[#543-#542]*0.99267]
#111=[#116+[#117-#116]*0.60967]
X6.88262 Y-2.99550 Z[#111+-0.04000]
#116=[#535+[#536-#535]*0.99162]
#117=[#542+[#543-#542]*0.99162]
#111=[#116+[#117-#116]*0.59987]
X6.87878 Y-2.99588 Z[#111+-0.04000]
#116=[#535+[#536-#535]*0.99267]
#117=[#542+[#543-#542]*0.99267]
#111=[#116+[#117-#116]*0.59006]
X6.87494 Y-2.99550 Z[#111+-0.04000]
#116=[#535+[#536-#535]*0.99577]
#117=[#542+[#543-#542]*0.99577]
#111=[#116+[#117-#116]*0.58064]
X6.87125 Y-2.99438 Z[#111+-0.04000]
#116=[#535+[#536-#535]*1.00000]
#117=[#542+[#543-#542]*1.00000]
#111=[#116+[#117-#116]*0.57331]
X6.86837 Y-2.99285 Z[#111+-0.04000]
#116=[#536+[#537-#536]*0.00079]
#117=[#543+[#544-#543]*0.00079]
#111=[#116+[#117-#116]*0.57194]
X6.86784 Y-2.99256 Z[#111+-0.04000]
#116=[#536+[#537-#536]*0.00756]
#117=[#543+[#544-#543]*0.00756]
#111=[#116+[#117-#116]*0.56433]
X6.86486 Y-2.99011 Z[#111+-0.04000]
#116=[#536+[#537-#536]*0.01579]
#117=[#543+[#544-#543]*0.01579]
#111=[#116+[#117-#116]*0.55808]
X6.86241 Y-2.98713 Z[#111+-0.04000]
#116=[#536+[#537-#536]*0.02521]
#117=[#543+[#544-#543]*0.02521]
#111=[#116+[#117-#116]*0.55343]
X6.86059 Y-2.98372 Z[#111+-0.04000]
#116=[#536+[#537-#536]*0.03540]
#117=[#543+[#544-#543]*0.03540]
#111=[#116+[#117-#116]*0.55057]
X6.85947 Y-2.98003 Z[#111+-0.04000]
#116=[#536+[#537-#536]*0.04601]
#117=[#543+[#544-#543]*0.04601]
#111=[#116+[#117-#116]*0.54960]
X6.85909 Y-2.97619 Z[#111+-0.04000]
G04 P0 ( dwell for no time -- G64 should not smooth over this point )
G00 Z0.08000 ( retract )

G00 X7.28766 Y-2.97619 ( rapid move to begin. )
G01 F180.00000
( Mill infeed pass 1/1 )
#116=[#543+[#544-#543]*0.04601]
#117=[#550+[#551-#550]*0.04601]
#111=[#116+[#117-#116]*0.64361]
G01 Z[-0.04000+#111]
G04 P0 ( dwell for no time -- G64 should not smooth over this point )
G01 F360.00000
#116=[#543+[#544-#543]*0.96662]
#117=[#550+[#551-#550]*0.96662]
#111=[#116+[#117-#116]*0.64361]
X7.28766 Y-2.64286 Z[#111+-0.04000]
#116=[#543+[#544-#543]*0.97723]
#117=[#550+[#551-#550]*0.97723]
#111=[#116+[#117-#116]*0.64458]
X7.28804 Y-2.63902 Z[#111+-0.04000]
#116=[#543+[#544-#543]*0.98742]
#117=[#550+[#551-#550]*0.98742]
#111=[#116+[#117-#116]*0.64744]
X7.28916 Y-2.63533 Z[#111+-0.04000]
#116=[#543+[#544-#543]*0.99684]
#117=[#550+[#551-#550]*0.99684]
#111=[#116+[#117-#116]*0.65209]
X7.29098 Y-2.63192 Z[#111+-0.04000]
#116=[#544+[#545-#544]*0.00000]
#117=[#551+[#552-#551]*0.00000]
#111=[#116+[#117-#116]*0.65449]
X7.29192 Y-2.63077 Z[#111+-0.04000]
#116=[#544+[#545-#544]*0.00507]
#117=[#551+[#552-#551]*0.00507]
#111=[#116+[#117-#116]*0.65834]
X7.29343 Y-2.62894 Z[#111+-0.04000]
#116=[#544+[#545-#544]*0.01183]
#117=[#551+[#552-#551]*0.01183]
#111=[#116+[#117-#116]*0.66595]
X7.29641 Y-2.62649 Z[#111+-0.04000]
#116=[#544+[#545-#544]*0.01686]
#117=[#551+[#552-#551]*0.01686]
#111=[#116+[#117-#116]*0.67465]
X7.29982 Y-2.62467 Z[#111+-0.04000]
#116=[#544+[#545-#544]*0.01995]
#117=[#551+[#552-#551]*0.01995]
#111=[#116+[#117-#116]*0.68407]
X7.30351 Y-2.62355 Z[#111+-0.04000]
#116=[#544+[#545-#544]*0.02100]
#117=[#551+[#552-#551]*0.02100]
#111=[#116+[#117-#116]*0.69387]
X7.30735 Y-2.62317 Z[#111+-0.04000]
#116=[#544+[#545-#544]*0.01995]
#117=[#551+[#552-#551]*0.01995]
#111=[#116+[#117-#116]*0.70368]
X7.31119 Y-2.62355 Z[#111+-0.04000]
#116=[#544+[#545-#544]*0.01686]
#117=[#551+[#552-#551]*0.01686]
#111=[#116+[#117-#116]*0.71310]
X7.31488 Y-2.62467 Z[#111+-0.04000]
#116=[#544+[#545-#544]*0.01183]
#117=[#551+[#552-#551]*0.01183]
#111=[#116+[#117-#116]*0.72180]
X7.31829 Y-2.62649 Z[#111+-0.04000]
#116=[#544+[#545-#544]*0.00507]
#117=[#551+[#552-#551]*0.00507]
#111=[#116+[#117-#116]*0.72941]
X7.32127 Y-2.62894 Z[#111+-0.04000]
#116=[#544+[#545-#544]*0.00000]
#117=[#551+[#552-#551]*0.00000]
#111=[#116+[#117-#116]*0.73326]
X7.32277 Y-2.63077 Z[#111+-0.04000]
#116=[#543+[#544-#543]*0.99684]
#117=[#550+[#551-#550]*0.99684]
#111=[#116+[#117-#116]*0.73566]
X7.32372 Y-2.63192 Z[#111+-0.04000]
#116=[#543+[#544-#543]*0.98742]
#117=[#550+[#551-#550]*0.98742]
#111=[#116+[#117-#116]*0.74031]
X7.32554 Y-2.63533 Z[#111+-0.04000]
#116=[#543+[#544-#543]*0.97723]
#117=[#550+[#551-#550]*0.97723]
#111=[#116+[#117-#116]*0.74317]
X7.32666 Y-2.63902 Z[#111+-0.04000]
#116=[#543+[#544-#543]*0.96662]
#117=[#550+[#551-#550]*0.96662]
#111=[#116+[#117-#116]*0.74414]
X7.32704 Y-2.64286 Z[#111+-0.04000]
#116=[#543+[#544-#543]*0.90059]
#117=[#550+[#551-#550]*0.90059]
#111=[#116+[#117-#116]*0.74414]
X7.32704 Y-2.66677 Z[#111+-0.04000]
#116=[#543+[#544-#543]*0.93931]
#117=[#550+[#551-#550]*0.93931]
#111=[#116+[#117-#116]*0.77990]
X7.34105 Y-2.65275 Z[#111+-0.04000]
#116=[#543+[#544-#543]*0.94497]
#117=[#550+[#551-#550]*0.94497]
#111=[#116+[#117-#116]*0.78605]
X7.34346 Y-2.65070 Z[#111+-0.04000]
#116=[#543+[#544-#543]*0.94950]
#117=[#550+[#551-#550]*0.94950]
#111=[#116+[#117-#116]*0.79297]
X7.34617 Y-2.64906 Z[#111+-0.04000]
#116=[#544+[#545-#544]*0.00000]
#117=[#551+[#552-#551]*0.00000]
#111=[#116+[#117-#116]*0.88632]
X7.38274 Y-2.63077 Z[#111+-0.04000]
#116=[#544+[#545-#544]*0.01526]
#117=[#551+[#552-#551]*0.01526]
#111=[#116+[#117-#116]*0.91453]
X7.39379 Y-2.62525 Z[#111+-0.04000]
#116=[#544+[#545-#544]*0.01954]
#117=[#551+[#552-#551]*0.01954]
#111=[#116+[#117-#116]*0.92546]
X7.39807 Y-2.62370 Z[#111+-0.04000]
#116=[#544+[#545-#544]*0.02100]
#117=[#551+[#552-#551]*0.02100]
#111=[#116+[#117-#116]*0.93699]
X7.40259 Y-2.62317 Z[#111+-0.04000]
#116=[#544+[#545-#544]*0.02100]
#117=[#551+[#552-#551]*0.02100]
#111=[#116+[#117-#116]*1.00000]
X7.42727 Y-2.62317 Z[#111+-0.04000]
#116=[#551+[#552-#551]*0.02100]
#117=[#558+[#559-#558]*0.02100]
#111=[#116+[#117-#116]*0.05855]
X7.45021 Y-2.62317 Z[#111+-0.04000]
#116=[#551+[#552-#551]*0.01995]
#117=[#558+[#559-#558]*0.01995]
#111=[#116+[#117-#116]*0.06836]
X7.45405 Y-2.62355 Z[#111+-0.04000]
#116=[#551+[#552-#551]*0.01686]
#117=[#558+[#559-#558]*0.01686]
#111=[#116+[#117-#116]*0.07777]
X7.45774 Y-2.62467 Z[#111+-0.04000]
#116=[#551+[#552-#551]*0.01183]
#117=[#558+[#559-#558]*0.01183]
#111=[#116+[#117-#116]*0.08648]
X7.46115 Y-2.62649 Z[#111+-0.04000]
#116=[#551+[#552-#551]*0.00507]
#117=[#558+[#559-#558]*0.00507]
#111=[#116+[#117-#116]*0.09409]
X7.46413 Y-2.62894 Z[#111+-0.04000]
#116=[#551+[#552-#551]*0.00000]
#117=[#558+[#559-#558]*0.00000]
#111=[#116+[#117-#116]*0.09794]
X7.46563 Y-2.63077 Z[#111+-0.04000]
#116=[#550+[#551-#550]*0.99684]
#117=[#557+[#558-#557]*0.99684]
#111=[#116+[#117-#116]*0.10034]
X7.46658 Y-2.63192 Z[#111+-0.04000]
#116=[#550+[#551-#550]*0.98742]
#117=[#557+[#558-#557]*0.98742]
#111=[#116+[#117-#116]*0.10499]
X7.46840 Y-2.63533 Z[#111+-0.04000]
#116=[#550+[#551-#550]*0.97723]
#117=[#557+[#558-#557]*0.97723]
#111=[#116+[#117-#116]*0.10785]
X7.46952 Y-2.63902 Z[#111+-0.04000]
#116=[#550+[#551-#550]*0.96662]
#117=[#557+[#558-#557]*0.96662]
#111=[#116+[#117-#116]*0.10882]
X7.46990 Y-2.64286 Z[#111+-0.04000]
#116=[#550+[#551-#550]*0.95602]
#117=[#557+[#558-#557]*0.95602]
#111=[#116+[#117-#116]*0.10785]
X7.46952 Y-2.64670 Z[#111+-0.04000]
#116=[#550+[#551-#550]*0.94583]
#117=[#557+[#558-#557]*0.94583]
#111=[#116+[#117-#116]*0.10499]
X7.46840 Y-2.65039 Z[#111+-0.04000]
#116=[#550+[#551-#550]*0.93641]
#117=[#557+[#558-#557]*0.93641]
#111=[#116+[#117-#116]*0.10034]
X7.46658 Y-2.65380 Z[#111+-0.04000]
#116=[#550+[#551-#550]*0.92818]
#117=[#557+[#558-#557]*0.92818]
#111=[#116+[#117-#116]*0.09409]
X7.46413 Y-2.65678 Z[#111+-0.04000]
#116=[#550+[#551-#550]*0.92141]
#117=[#557+[#558-#557]*0.92141]
#111=[#116+[#117-#116]*0.08648]
X7.46115 Y-2.65923 Z[#111+-0.04000]
#116=[#550+[#551-#550]*0.91638]
#117=[#557+[#558-#557]*0.91638]
#111=[#116+[#117-#116]*0.07777]
X7.45774 Y-2.66105 Z[#111+-0.04000]
#116=[#550+[#551-#550]*0.91329]
#117=[#557+[#558-#557]*0.91329]
#111=[#116+[#117-#116]*0.06836]
X7.45405 Y-2.66217 Z[#111+-0.04000]
#116=[#550+[#551-#550]*0.91224]
#117=[#557+[#558-#557]*0.91224]
#111=[#116+[#117-#116]*0.05855]
X7.45021 Y-2.66255 Z[#111+-0.04000]
#116=[#543+[#544-#543]*0.91224]
#117=[#550+[#551-#550]*0.91224]
#111=[#116+[#117-#116]*1.00000]
X7.42727 Y-2.66255 Z[#111+-0.04000]
#116=[#543+[#544-#543]*0.91224]
#117=[#550+[#551-#550]*0.91224]
#111=[#116+[#117-#116]*0.94886]
X7.40724 Y-2.66255 Z[#111+-0.04000]
#116=[#543+[#544-#543]*0.85617]
#117=[#550+[#551-#550]*0.85617]
#111=[#116+[#117-#116]*0.84520]
X7.36663 Y-2.68285 Z[#111+-0.04000]
#116=[#543+[#544-#543]*0.80290]
#117=[#550+[#551-#550]*0.80290]
#111=[#116+[#117-#116]*0.79596]
X7.34734 Y-2.70214 Z[#111+-0.04000]
#116=[#543+[#544-#543]*0.69077]
#117=[#550+[#551-#550]*0.69077]
#111=[#116+[#117-#116]*0.74414]
X7.32704 Y-2.74274 Z[#111+-0.04000]
#116=[#543+[#544-#543]*0.04601]
#117=[#550+[#551-#550]*0.04601]
#111=[#116+[#117-#116]*0.74414]
X7.32704 Y-2.97619 Z[#111+-0.04000]
#116=[#543+[#544-#543]*0.03540]
#117=[#550+[#551-#550]*0.03540]
#111=[#116+[#117-#116]*0.74317]
X7.32666 Y-2.98003 Z[#111+-0.04000]
#116=[#543+[#544-#543]*0.02521]
#117=[#550+[#551-#550]*0.02521]
#111=[#116+[#117-#116]*0.74031]
X7.32554 Y-2.98372 Z[#111+-0.04000]
#116=[#543+[#544-#543]*0.01579]
#117=[#550+[#551-#550]*0.01579]
#111=[#116+[#117-#116]*0.73566]
X7.32372 Y-2.98713 Z[#111+-0.04000]
#116=[#543+[#544-#543]*0.00756]
#117=[#550+[#551-#550]*0.00756]
#111=[#116+[#117-#116]*0.72941]
X7.32127 Y-2.99011 Z[#111+-0.04000]
#116=[#543+[#544-#543]*0.00079]
#117=[#550+[#551-#550]*0.00079]
#111=[#116+[#117-#116]*0.72180]
X7.31829 Y-2.99256 Z[#111+-0.04000]
#116=[#542+[#543-#542]*1.00000]
#117=[#549+[#550-#549]*1.00000]
#111=[#116+[#117-#116]*0.72043]
X7.31775 Y-2.99285 Z[#111+-0.04000]
#116=[#542+[#543-#542]*0.99577]
#117=[#549+[#550-#549]*0.99577]
#111=[#116+[#117-#116]*0.71310]
X7.31488 Y-2.99438 Z[#111+-0.04000]
#116=[#542+[#543-#542]*0.99267]
#117=[#549+[#550-#549]*0.99267]
#111=[#116+[#117-#116]*0.70368]
X7.31119 Y-2.99550 Z[#111+-0.04000]
#116=[#542+[#543-#542]*0.99162]
#117=[#549+[#550-#549]*0.99162]
#111=[#116+[#117-#116]*0.69387]
X7.30735 Y-2.99588 Z[#111+-0.04000]
#116=[#542+[#543-#542]*0.99267]
#117=[#549+[#550-#549]*0.99267]
#111=[#116+[#117-#116]*0.68407]
X7.30351 Y-2.99550 Z[#111+-0.04000]
#116=[#542+[#543-#542]*0.99577]
#117=[#549+[#550-#549]*0.99577]
#111=[#116+[#117-#116]*0.67465]
X7.29982 Y-2.99438 Z[#111+-0.04000]
#116=[#542+[#543-#542]*1.00000]
#117=[#549+[#550-#549]*1.00000]
#111=[#116+[#117-#116]*0.66732]
X7.29694 Y-2.99285 Z[#111+-0.04000]
#116=[#543+[#544-#543]*0.00079]
#117=[#550+[#551-#550]*0.00079]
#111=[#116+[#117-#116]*0.66595]
X7.29641 Y-2.99256 Z[#111+-0.04000]
#116=[#543+[#544-#543]*0.00756]
#117=[#550+[#551-#550]*0.00756]
#111=[#116+[#117-#116]*0.65834]
X7.29343 Y-2.99011 Z[#111+-0.04000]
#116=[#543+[#544-#543]*0.01579]
#117=[#550+[#551-#550]*0.01579]
#111=[#116+[#117-#116]*0.65209]
X7.29098 Y-2.98713 Z[#111+-0.04000]
#116=[#543+[#544-#543]*0.02521]
#117=[#550+[#551-#550]*0.02521]
#111=[#116+[#117-#116]*0.64744]
X7.28916 Y-2.98372 Z[#111+-0.04000]
#116=[#543+[#544-#543]*0.03540]
#117=[#550+[#551-#550]*0.03540]
#111=[#116+[#117-#116]*0.64458]
X7.28804 Y-2.98003 Z[#111+-0.04000]
#116=[#543+[#544-#543]*0.04601]
#117=[#550+[#551-#550]*0.04601]
#111=[#116+[#117-#116]*0.64361]
X7.28766 Y-2.97619 Z[#111+-0.04000]
G04 P0 ( dwell for no time -- G64 should not smooth over this point )
G00 Z0.08000 ( retract )

G00 X7.57338 Y-2.88095 ( rapid move to begin. )
G01 F180.00000
( Mill infeed pass 1/1 )
#116=[#550+[#551-#550]*0.30905]
#117=[#557+[#558-#557]*0.30905]
#111=[#116+[#117-#116]*0.37297]
G01 Z[-0.04000+#111]
G04 P0 ( dwell for no time -- G64 should not smooth over this point )
G01 F360.00000
#116=[#550+[#551-#550]*0.70361]
#117=[#557+[#558-#557]*0.70361]
#111=[#116+[#117-#116]*0.37297]
X7.57338 Y-2.73809 Z[#111+-0.04000]
#116=[#550+[#551-#550]*0.71609]
#117=[#557+[#558-#557]*0.71609]
#111=[#116+[#117-#116]*0.37432]
X7.57391 Y-2.73357 Z[#111+-0.04000]
#116=[#550+[#551-#550]*0.72791]
#117=[#557+[#558-#557]*0.72791]
#111=[#116+[#117-#116]*0.37828]
X7.57546 Y-2.72929 Z[#111+-0.04000]
#116=[#550+[#551-#550]*0.85941]
#117=[#557+[#558-#557]*0.85941]
#111=[#116+[#117-#116]*0.43906]
X7.59927 Y-2.68168 Z[#111+-0.04000]
#116=[#550+[#551-#550]*0.86689]
#117=[#557+[#558-#557]*0.86689]
#111=[#116+[#117-#116]*0.44324]
X7.60091 Y-2.67897 Z[#111+-0.04000]
#116=[#550+[#551-#550]*0.87355]
#117=[#557+[#558-#557]*0.87355]
#111=[#116+[#117-#116]*0.44848]
X7.60296 Y-2.67656 Z[#111+-0.04000]
#116=[#550+[#551-#550]*0.93931]
#117=[#557+[#558-#557]*0.93931]
#111=[#116+[#117-#116]*0.50926]
X7.62677 Y-2.65275 Z[#111+-0.04000]
#116=[#550+[#551-#550]*0.94497]
#117=[#557+[#558-#557]*0.94497]
#111=[#116+[#117-#116]*0.51541]
X7.62918 Y-2.65070 Z[#111+-0.04000]
#116=[#550+[#551-#550]*0.94950]
#117=[#557+[#558-#557]*0.94950]
#111=[#116+[#117-#116]*0.52233]
X7.63189 Y-2.64906 Z[#111+-0.04000]
#116=[#551+[#552-#551]*0.00000]
#117=[#558+[#559-#558]*0.00000]
#111=[#116+[#117-#116]*0.61568]
X7.66846 Y-2.63077 Z[#111+-0.04000]
#116=[#551+[#552-#551]*0.01526]
#117=[#558+[#559-#558]*0.01526]
#111=[#116+[#117-#116]*0.64389]
X7.67951 Y-2.62525 Z[#111+-0.04000]
#116=[#551+[#552-#551]*0.01954]
#117=[#558+[#559-#558]*0.01954]
#111=[#116+[#117-#116]*0.65481]
X7.68379 Y-2.62370 Z[#111+-0.04000]
#116=[#551+[#552-#551]*0.02100]
#117=[#558+[#559-#558]*0.02100]
#111=[#116+[#117-#116]*0.66635]
X7.68831 Y-2.62317 Z[#111+-0.04000]
#116=[#551+[#552-#551]*0.02100]
#117=[#558+[#559-#558]*0.02100]
#111=[#116+[#117-#116]*0.84866]
X7.75973 Y-2.62317 Z[#111+-0.04000]
#116=[#551+[#552-#551]*0.01954]
#117=[#558+[#559-#558]*0.01954]
#111=[#116+[#117-#116]*0.86020]
X7.76425 Y-2.62370 Z[#111+-0.04000]
#116=[#551+[#552-#551]*0.01526]
#117=[#558+[#559-#558]*0.01526]
#111=[#116+[#117-#116]*0.87113]
X7.76853 Y-2.62525 Z[#111+-0.04000]
#116=[#551+[#552-#551]*0.00000]
#117=[#558+[#559-#558]*0.00000]
#111=[#116+[#117-#116]*0.89933]
X7.77958 Y-2.63077 Z[#111+-0.04000]
#116=[#550+[#551-#550]*0.94950]
#117=[#557+[#558-#557]*0.94950]
#111=[#116+[#117-#116]*0.99269]
X7.81615 Y-2.64906 Z[#111+-0.04000]
#116=[#550+[#551-#550]*0.94497]
#117=[#557+[#558-#557]*0.94497]
#111=[#116+[#117-#116]*0.99960]
X7.81886 Y-2.65070 Z[#111+-0.04000]
#111=[#557+[#558-#557]*0.94460]
X7.81901 Y-2.65083 Z[#111+-0.04000]
#116=[#557+[#558-#557]*0.93931]
#117=[#564+[#565-#564]*0.93931]
#111=[#116+[#117-#116]*0.00576]
X7.82127 Y-2.65275 Z[#111+-0.04000]
#116=[#557+[#558-#557]*0.87355]
#117=[#564+[#565-#564]*0.87355]
#111=[#116+[#117-#116]*0.06654]
X7.84508 Y-2.67656 Z[#111+-0.04000]
#116=[#557+[#558-#557]*0.86689]
#117=[#564+[#565-#564]*0.86689]
#111=[#116+[#117-#116]*0.07177]
X7.84713 Y-2.67897 Z[#111+-0.04000]
#116=[#557+[#558-#557]*0.85941]
#117=[#564+[#565-#564]*0.85941]
#111=[#116+[#117-#116]*0.07596]
X7.84877 Y-2.68168 Z[#111+-0.04000]
#116=[#557+[#558-#557]*0.72791]
#117=[#564+[#565-#564]*0.72791]
#111=[#116+[#117-#116]*0.13674]
X7.87258 Y-2.72929 Z[#111+-0.04000]
#116=[#557+[#558-#557]*0.71609]
#117=[#564+[#565-#564]*0.71609]
#111=[#116+[#117-#116]*0.14069]
X7.87413 Y-2.73357 Z[#111+-0.04000]
#116=[#557+[#558-#557]*0.70361]
#117=[#564+[#565-#564]*0.70361]
#111=[#116+[#117-#116]*0.14204]
X7.87466 Y-2.73809 Z[#111+-0.04000]
#116=[#557+[#558-#557]*0.30905]
#117=[#564+[#565-#564]*0.30905]
#111=[#116+[#117-#116]*0.14204]
X7.87466 Y-2.88095 Z[#111+-0.04000]
#116=[#557+[#558-#557]*0.29656]
#117=[#564+[#565-#564]*0.29656]
#111=[#116+[#117-#116]*0.14069]
X7.87413 Y-2.88547 Z[#111+-0.04000]
#116=[#557+[#558-#557]*0.28474]
#117=[#564+[#565-#564]*0.28474]
#111=[#116+[#117-#116]*0.13674]
X7.87258 Y-2.88975 Z[#111+-0.04000]
#116=[#557+[#558-#557]*0.15322]
#117=[#564+[#565-#564]*0.15322]
#111=[#116+[#117-#116]*0.07596]
X7.84877 Y-2.93737 Z[#111+-0.04000]
#116=[#557+[#558-#557]*0.14574]
#117=[#564+[#565-#564]*0.14574]
#111=[#116+[#117-#116]*0.07177]
X7.84713 Y-2.94008 Z[#111+-0.04000]
#116=[#557+[#558-#557]*0.13908]
#117=[#564+[#565-#564]*0.13908]
#111=[#116+[#117-#116]*0.06654]
X7.84508 Y-2.94249 Z[#111+-0.04000]
#116=[#557+[#558-#557]*0.07332]
#117=[#564+[#565-#564]*0.07332]
#111=[#116+[#117-#116]*0.00576]
X7.82127 Y-2.96630 Z[#111+-0.04000]
#111=[#557+[#558-#557]*0.06802]
X7.81901 Y-2.96822 Z[#111+-0.04000]
#116=[#550+[#551-#550]*0.06766]
#117=[#557+[#558-#557]*0.06766]
#111=[#116+[#117-#116]*0.99960]
X7.81886 Y-2.96835 Z[#111+-0.04000]
#116=[#550+[#551-#550]*0.06313]
#117=[#557+[#558-#557]*0.06313]
#111=[#116+[#117-#116]*0.99269]
X7.81615 Y-2.96999 Z[#111+-0.04000]
#116=[#549+[#550-#549]*1.00000]
#117=[#556+[#557-#556]*1.00000]
#111=[#116+[#117-#116]*0.87599]
X7.77043 Y-2.99285 Z[#111+-0.04000]
#116=[#549+[#550-#549]*0.99737]
#117=[#556+[#557-#556]*0.99737]
#111=[#116+[#117-#116]*0.87113]
X7.76853 Y-2.99380 Z[#111+-0.04000]
#116=[#549+[#550-#549]*0.99309]
#117=[#556+[#557-#556]*0.99309]
#111=[#116+[#117-#116]*0.86020]
X7.76425 Y-2.99535 Z[#111+-0.04000]
#116=[#549+[#550-#549]*0.99162]
#117=[#556+[#557-#556]*0.99162]
#111=[#116+[#117-#116]*0.84866]
X7.75973 Y-2.99588 Z[#111+-0.04000]
#116=[#549+[#550-#549]*0.99162]
#117=[#556+[#557-#556]*0.99162]
#111=[#116+[#117-#116]*0.66635]
X7.68831 Y-2.99588 Z[#111+-0.04000]
#116=[#549+[#550-#549]*0.99309]
#117=[#556+[#557-#556]*0.99309]
#111=[#116+[#117-#116]*0.65481]
X7.68379 Y-2.99535 Z[#111+-0.04000]
#116=[#549+[#550-#549]*0.99737]
#117=[#556+[#557-#556]*0.99737]
#111=[#116+[#117-#116]*0.64389]
X7.67951 Y-2.99380 Z[#111+-0.04000]
#116=[#549+[#550-#549]*1.00000]
#117=[#556+[#557-#556]*1.00000]
#111=[#116+[#117-#116]*0.63902]
X7.67760 Y-2.99285 Z[#111+-0.04000]
#116=[#550+[#551-#550]*0.06313]
#117=[#557+[#558-#557]*0.06313]
#111=[#116+[#117-#116]*0.52233]
X7.63189 Y-2.96999 Z[#111+-0.04000]
#116=[#550+[#551-#550]*0.06766]
#117=[#557+[#558-#557]*0.06766]
#111=[#116+[#117-#116]*0.51541]
X7.62918 Y-2.96835 Z[#111+-0.04000]
#116=[#550+[#551-#550]*0.07332]
#117=[#557+[#558-#557]*0.07332]
#111=[#116+[#117-#116]*0.50926]
X7.62677 Y-2.96630 Z[#111+-0.04000]
#116=[#550+[#551-#550]*0.13908]
#117=[#557+[#558-#557]*0.13908]
#111=[#116+[#117-#116]*0.44848]
X7.60296 Y-2.94249 Z[#111+-0.04000]
#116=[#550+[#551-#550]*0.14574]
#117=[#557+[#558-#557]*0.14574]
#111=[#116+[#117-#116]*0.44324]
X7.60091 Y-2.94008 Z[#111+-0.04000]
#116=[#550+[#551-#550]*0.15322]
#117=[#557+[#558-#557]*0.15322]
#111=[#116+[#117-#116]*0.43906]
X7.59927 Y-2.93737 Z[#111+-0.04000]
#116=[#550+[#551-#550]*0.28474]
#117=[#557+[#558-#557]*0.28474]
#111=[#116+[#117-#116]*0.37828]
X7.57546 Y-2.88975 Z[#111+-0.04000]
#116=[#550+[#551-#550]*0.29656]
#117=[#557+[#558-#557]*0.29656]
#111=[#116+[#117-#116]*0.37432]
X7.57391 Y-2.88547 Z[#111+-0.04000]
#116=[#550+[#551-#550]*0.30905]
#117=[#557+[#558-#557]*0.30905]
#111=[#116+[#117-#116]*0.37297]
X7.57338 Y-2.88095 Z[#111+-0.04000]
G04 P0 ( dwell for no time -- G64 should not smooth over this point )
G00 Z0.08000 ( retract )

G00 X7.61276 Y-2.87630 ( rapid move to begin. )
G01 F180.00000
( Mill infeed pass 1/1 )
#116=[#550+[#551-#550]*0.32189]
#117=[#557+[#558-#557]*0.32189]
#111=[#116+[#117-#116]*0.47349]
G01 Z[-0.04000+#111]
G04 P0 ( dwell for no time -- G64 should not smooth over this point )
G01 F360.00000
#116=[#550+[#551-#550]*0.69077]
#117=[#557+[#558-#557]*0.69077]
#111=[#116+[#117-#116]*0.47349]
X7.61276 Y-2.74274 Z[#111+-0.04000]
#116=[#550+[#551-#550]*0.80290]
#117=[#557+[#558-#557]*0.80290]
#111=[#116+[#117-#116]*0.52531]
X7.63306 Y-2.70214 Z[#111+-0.04000]
#116=[#550+[#551-#550]*0.85617]
#117=[#557+[#558-#557]*0.85617]
#111=[#116+[#117-#116]*0.57455]
X7.65235 Y-2.68285 Z[#111+-0.04000]
#116=[#550+[#551-#550]*0.91224]
#117=[#557+[#558-#557]*0.91224]
#111=[#116+[#117-#116]*0.67822]
X7.69296 Y-2.66255 Z[#111+-0.04000]
#116=[#550+[#551-#550]*0.91224]
#117=[#557+[#558-#557]*0.91224]
#111=[#116+[#117-#116]*0.83679]
X7.75508 Y-2.66255 Z[#111+-0.04000]
#116=[#550+[#551-#550]*0.85617]
#117=[#557+[#558-#557]*0.85617]
#111=[#116+[#117-#116]*0.94046]
X7.79569 Y-2.68285 Z[#111+-0.04000]
#116=[#550+[#551-#550]*0.80290]
#117=[#557+[#558-#557]*0.80290]
#111=[#116+[#117-#116]*0.98970]
X7.81498 Y-2.70214 Z[#111+-0.04000]
#111=[#557+[#558-#557]*0.78061]
X7.81901 Y-2.71021 Z[#111+-0.04000]
#116=[#557+[#558-#557]*0.69077]
#117=[#564+[#565-#564]*0.69077]
#111=[#116+[#117-#116]*0.04152]
X7.83528 Y-2.74274 Z[#111+-0.04000]
#116=[#557+[#558-#557]*0.32189]
#117=[#564+[#565-#564]*0.32189]
#111=[#116+[#117-#116]*0.04152]
X7.83528 Y-2.87630 Z[#111+-0.04000]
#111=[#557+[#558-#557]*0.23202]
X7.81901 Y-2.90884 Z[#111+-0.04000]
#116=[#550+[#551-#550]*0.20973]
#117=[#557+[#558-#557]*0.20973]
#111=[#116+[#117-#116]*0.98970]
X7.81498 Y-2.91691 Z[#111+-0.04000]
#116=[#550+[#551-#550]*0.15645]
#117=[#557+[#558-#557]*0.15645]
#111=[#116+[#117-#116]*0.94046]
X7.79569 Y-2.93620 Z[#111+-0.04000]
#116=[#550+[#551-#550]*0.10039]
#117=[#557+[#558-#557]*0.10039]
#111=[#116+[#117-#116]*0.83679]
X7.75508 Y-2.95650 Z[#111+-0.04000]
#116=[#550+[#551-#550]*0.10039]
#117=[#557+[#558-#557]*0.10039]
#111=[#116+[#117-#116]*0.67822]
X7.69296 Y-2.95650 Z[#111+-0.04000]
#116=[#550+[#551-#550]*0.15645]
#117=[#557+[#558-#557]*0.15645]
#111=[#116+[#117-#116]*0.57455]
X7.65235 Y-2.93620 Z[#111+-0.04000]
#116=[#550+[#551-#550]*0.20973]
#117=[#557+[#558-#557]*0.20973]
#111=[#116+[#117-#116]*0.52531]
X7.63306 Y-2.91691 Z[#111+-0.04000]
#116=[#550+[#551-#550]*0.32189]
#117=[#557+[#558-#557]*0.32189]
#111=[#116+[#117-#116]*0.47349]
X7.61276 Y-2.87630 Z[#111+-0.04000]
G04 P0 ( dwell for no time -- G64 should not smooth over this point )
G00 Z0.08000 ( retract )

G00 X8.04957 Y-2.97619 ( rapid move to begin. )
G01 F180.00000
( Mill infeed pass 1/1 )
#116=[#557+[#558-#557]*0.04601]
#117=[#564+[#565-#564]*0.04601]
#111=[#116+[#117-#116]*0.58854]
G01 Z[-0.04000+#111]
G04 P0 ( dwell for no time -- G64 should not smooth over this point )
G01 F360.00000
#116=[#557+[#558-#557]*0.96662]
#117=[#564+[#565-#564]*0.96662]
#111=[#116+[#117-#116]*0.58854]
X8.04957 Y-2.64286 Z[#111+-0.04000]
#116=[#557+[#558-#557]*0.97723]
#117=[#564+[#565-#564]*0.97723]
#111=[#116+[#117-#116]*0.58951]
X8.04995 Y-2.63902 Z[#111+-0.04000]
#116=[#557+[#558-#557]*0.98742]
#117=[#564+[#565-#564]*0.98742]
#111=[#116+[#117-#116]*0.59237]
X8.05107 Y-2.63533 Z[#111+-0.04000]
#116=[#557+[#558-#557]*0.99684]
#117=[#564+[#565-#564]*0.99684]
#111=[#116+[#117-#116]*0.59701]
X8.05289 Y-2.63192 Z[#111+-0.04000]
#116=[#558+[#559-#558]*0.00000]
#117=[#565+[#566-#565]*0.00000]
#111=[#116+[#117-#116]*0.59942]
X8.05383 Y-2.63077 Z[#111+-0.04000]
#116=[#558+[#559-#558]*0.00507]
#117=[#565+[#566-#565]*0.00507]
#111=[#116+[#117-#116]*0.60327]
X8.05534 Y-2.62894 Z[#111+-0.04000]
#116=[#558+[#559-#558]*0.01183]
#117=[#565+[#566-#565]*0.01183]
#111=[#116+[#117-#116]*0.61087]
X8.05832 Y-2.62649 Z[#111+-0.04000]
#116=[#558+[#559-#558]*0.01686]
#117=[#565+[#566-#565]*0.01686]
#111=[#116+[#117-#116]*0.61958]
X8.06173 Y-2.62467 Z[#111+-0.04000]
#116=[#558+[#559-#558]*0.01995]
#117=[#565+[#566-#565]*0.01995]
#111=[#116+[#117-#116]*0.62900]
X8.06542 Y-2.62355 Z[#111+-0.04000]
#116=[#558+[#559-#558]*0.02100]
#117=[#565+[#566-#565]*0.02100]
#111=[#116+[#117-#116]*0.63880]
X8.06926 Y-2.62317 Z[#111+-0.04000]
#116=[#558+[#559-#558]*0.01995]
#117=[#565+[#566-#565]*0.01995]
#111=[#116+[#117-#116]*0.64860]
X8.07310 Y-2.62355 Z[#111+-0.04000]
#116=[#558+[#559-#558]*0.01686]
#117=[#565+[#566-#565]*0.01686]
#111=[#116+[#117-#116]*0.65802]
X8.07679 Y-2.62467 Z[#111+-0.04000]
#116=[#558+[#559-#558]*0.01183]
#117=[#565+[#566-#565]*0.01183]
#111=[#116+[#117-#116]*0.66673]
X8.08020 Y-2.62649 Z[#111+-0.04000]
#116=[#558+[#559-#558]*0.00507]
#117=[#565+[#566-#565]*0.00507]
#111=[#116+[#117-#116]*0.67433]
X8.08318 Y-2.62894 Z[#111+-0.04000]
#116=[#558+[#559-#558]*0.00000]
#117=[#565+[#566-#565]*0.00000]
#111=[#116+[#117-#116]*0.67818]
X8.08468 Y-2.63077 Z[#111+-0.04000]
#116=[#557+[#558-#557]*0.99684]
#117=[#564+[#565-#564]*0.99684]
#111=[#116+[#117-#116]*0.68059]
X8.08563 Y-2.63192 Z[#111+-0.04000]
#116=[#557+[#558-#557]*0.98742]
#117=[#564+[#565-#564]*0.98742]
#111=[#116+[#117-#116]*0.68523]
X8.08745 Y-2.63533 Z[#111+-0.04000]
#116=[#557+[#558-#557]*0.97723]
#117=[#564+[#565-#564]*0.97723]
#111=[#116+[#117-#116]*0.68809]
X8.08857 Y-2.63902 Z[#111+-0.04000]
#116=[#557+[#558-#557]*0.96662]
#117=[#564+[#565-#564]*0.96662]
#111=[#116+[#117-#116]*0.68906]
X8.08895 Y-2.64286 Z[#111+-0.04000]
#116=[#557+[#558-#557]*0.95596]
#117=[#564+[#565-#564]*0.95596]
#111=[#116+[#117-#116]*0.68906]
X8.08895 Y-2.64672 Z[#111+-0.04000]
#116=[#558+[#559-#558]*0.00000]
#117=[#565+[#566-#565]*0.00000]
#111=[#116+[#117-#116]*0.77047]
X8.12084 Y-2.63077 Z[#111+-0.04000]
#116=[#558+[#559-#558]*0.01526]
#117=[#565+[#566-#565]*0.01526]
#111=[#116+[#117-#116]*0.79867]
X8.13189 Y-2.62525 Z[#111+-0.04000]
#116=[#558+[#559-#558]*0.01954]
#117=[#565+[#566-#565]*0.01954]
#111=[#116+[#117-#116]*0.80960]
X8.13617 Y-2.62370 Z[#111+-0.04000]
#116=[#558+[#559-#558]*0.02100]
#117=[#565+[#566-#565]*0.02100]
#111=[#116+[#117-#116]*0.82114]
X8.14069 Y-2.62317 Z[#111+-0.04000]
#116=[#558+[#559-#558]*0.02100]
#117=[#565+[#566-#565]*0.02100]
#111=[#116+[#117-#116]*1.00000]
X8.21075 Y-2.62317 Z[#111+-0.04000]
#116=[#565+[#566-#565]*0.02100]
#117=[#572+[#573-#572]*0.02100]
#111=[#116+[#117-#116]*0.00348]
X8.21212 Y-2.62317 Z[#111+-0.04000]
#116=[#565+[#566-#565]*0.01954]
#117=[#572+[#573-#572]*0.01954]
#111=[#116+[#117-#116]*0.01502]
X8.21664 Y-2.62370 Z[#111+-0.04000]
#116=[#565+[#566-#565]*0.01526]
#117=[#572+[#573-#572]*0.01526]
#111=[#116+[#117-#116]*0.02594]
X8.22092 Y-2.62525 Z[#111+-0.04000]
#116=[#565+[#566-#565]*0.00000]
#117=[#572+[#573-#572]*0.00000]
#111=[#116+[#117-#116]*0.05414]
X8.23196 Y-2.63077 Z[#111+-0.04000]
#116=[#564+[#565-#564]*0.94950]
#117=[#571+[#572-#571]*0.94950]
#111=[#116+[#117-#116]*0.14748]
X8.26853 Y-2.64906 Z[#111+-0.04000]
#116=[#564+[#565-#564]*0.94320]
#117=[#571+[#572-#571]*0.94320]
#111=[#116+[#117-#116]*0.15654]
X8.27208 Y-2.65134 Z[#111+-0.04000]
#116=[#564+[#565-#564]*0.93497]
#117=[#571+[#572-#571]*0.93497]
#111=[#116+[#117-#116]*0.16414]
X8.27506 Y-2.65432 Z[#111+-0.04000]
#116=[#564+[#565-#564]*0.92517]
