( pcb2gcode 2.2.1 )
( Gcode for custom )

G94 ( Inches per minute feed rate. )
G20 ( Units == INCHES. )

G90 ( Absolute coordinates. )
G00 S12000 ( RPM spindle speed. )
G64 P0.00040 ( set maximum deviation from commanded toolpath )
G01 F360.00000 ( Feedrate. )

#118 = #5211
#119 = #5212

(MSG, Attach the probe tool)
M0 ( Temporary machine stop. )
G0 Z0.080 ( Move Z to safe height )
G0 X4.68507 Y-3.35492 ( Move XY to start point )
G0 Z0.080 ( Move Z to probe height )
G38.2 Z-0.1 F2.362205 ( Z-probe )
#500 = 0 ( Probe point [0, 0] is our reference )
G92 Z0 ( Set the current Z as zero-value )

( We now start the real probing: move the Z axis to the probing height, move to )
( the probing XY position, probe it and save the result, parameter #2002, )
( in a numbered parameter; we will make 17 probes on the X-axis and )
( 7 probes on the Y-axis, for a grand total of 119 probes )

G0 Z0.080
X4.68507 Y-2.99285
G38.2 Z-0.1 F2.362205
#501=#2002
G0 Z0.080
X4.68507 Y-2.63078
G38.2 Z-0.1 F2.362205
#502=#2002
G0 Z0.080
X4.68507 Y-2.26870
G38.2 Z-0.1 F2.362205
#503=#2002
G0 Z0.080
X4.68507 Y-1.90663
G38.2 Z-0.1 F2.362205
#504=#2002
G0 Z0.080
X4.68507 Y-1.54456
G38.2 Z-0.1 F2.362205
#505=#2002
G0 Z0.080
X4.68507 Y-1.18249
G38.2 Z-0.1 F2.362205
#506=#2002
G0 Z0.080
X5.07682 Y-1.18249
G38.2 Z-0.1 F2.362205
#513=#2002
G0 Z0.080
X5.07682 Y-1.54456
G38.2 Z-0.1 F2.362205
#512=#2002
G0 Z0.080
X5.07682 Y-1.90663
G38.2 Z-0.1 F2.362205
#511=#2002
G0 Z0.080
X5.07682 Y-2.26870
G38.2 Z-0.1 F2.362205
#510=#2002
G0 Z0.080
X5.07682 Y-2.63078
G38.2 Z-0.1 F2.362205
#509=#2002
G0 Z0.080
X5.07682 Y-2.99285
G38.2 Z-0.1 F2.362205
#508=#2002
G0 Z0.080
X5.07682 Y-3.35492
G38.2 Z-0.1 F2.362205
#507=#2002
G0 Z0.080
X5.46856 Y-3.35492
G38.2 Z-0.1 F2.362205
#514=#2002
G0 Z0.080
X5.46856 Y-2.99285
G38.2 Z-0.1 F2.362205
#515=#2002
G0 Z0.080
X5.46856 Y-2.63078
G38.2 Z-0.1 F2.362205
#516=#2002
G0 Z0.080
X5.46856 Y-2.26870
G38.2 Z-0.1 F2.362205
#517=#2002
G0 Z0.080
X5.46856 Y-1.90663
G38.2 Z-0.1 F2.362205
#518=#2002
G0 Z0.080
X5.46856 Y-1.54456
G38.2 Z-0.1 F2.362205
#519=#2002
G0 Z0.080
X5.46856 Y-1.18249
G38.2 Z-0.1 F2.362205
#520=#2002
G0 Z0.080
X5.86030 Y-1.18249
G38.2 Z-0.1 F2.362205
#527=#2002
G0 Z0.080
X5.86030 Y-1.54456
G38.2 Z-0.1 F2.362205
#526=#2002
G0 Z0.080
X5.86030 Y-1.90663
G38.2 Z-0.1 F2.362205
#525=#2002
G0 Z0.080
X5.86030 Y-2.26870
G38.2 Z-0.1 F2.362205
#524=#2002
G0 Z0.080
X5.86030 Y-2.63078
G38.2 Z-0.1 F2.362205
#523=#2002
G0 Z0.080
X5.86030 Y-2.99285
G38.2 Z-0.1 F2.362205
#522=#2002
G0 Z0.080
X5.86030 Y-3.35492
G38.2 Z-0.1 F2.362205
#521=#2002
G0 Z0.080
X6.25204 Y-3.35492
G38.2 Z-0.1 F2.362205
#528=#2002
G0 Z0.080
X6.25204 Y-2.99285
G38.2 Z-0.1 F2.362205
#529=#2002
G0 Z0.080
X6.25204 Y-2.63078
G38.2 Z-0.1 F2.362205
#530=#2002
G0 Z0.080
X6.25204 Y-2.26870
G38.2 Z-0.1 F2.362205
#531=#2002
G0 Z0.080
X6.25204 Y-1.90663
G38.2 Z-0.1 F2.362205
#532=#2002
G0 Z0.080
X6.25204 Y-1.54456
G38.2 Z-0.1 F2.362205
#533=#2002
G0 Z0.080
X6.25204 Y-1.18249
G38.2 Z-0.1 F2.362205
#534=#2002
G0 Z0.080
X6.64379 Y-1.18249
G38.2 Z-0.1 F2.362205
#541=#2002
G0 Z0.080
X6.64379 Y-1.54456
G38.2 Z-0.1 F2.362205
#540=#2002
G0 Z0.080
X6.64379 Y-1.90663
G38.2 Z-0.1 F2.362205
#539=#2002
G0 Z0.080
X6.64379 Y-2.26870
G38.2 Z-0.1 F2.362205
#538=#2002
G0 Z0.080
X6.64379 Y-2.63078
G38.2 Z-0.1 F2.362205
#537=#2002
G0 Z0.080
X6.64379 Y-2.99285
G38.2 Z-0.1 F2.362205
#536=#2002
G0 Z0.080
X6.64379 Y-3.35492
G38.2 Z-0.1 F2.362205
#535=#2002
G0 Z0.080
X7.03553 Y-3.35492
G38.2 Z-0.1 F2.362205
#542=#2002
G0 Z0.080
X7.03553 Y-2.99285
G38.2 Z-0.1 F2.362205
#543=#2002
G0 Z0.080
X7.03553 Y-2.63078
G38.2 Z-0.1 F2.362205
#544=#2002
G0 Z0.080
X7.03553 Y-2.26870
G38.2 Z-0.1 F2.362205
#545=#2002
G0 Z0.080
X7.03553 Y-1.90663
G38.2 Z-0.1 F2.362205
#546=#2002
G0 Z0.080
X7.03553 Y-1.54456
G38.2 Z-0.1 F2.362205
#547=#2002
G0 Z0.080
X7.03553 Y-1.18249
G38.2 Z-0.1 F2.362205
#548=#2002
G0 Z0.080
X7.42727 Y-1.18249
G38.2 Z-0.1 F2.362205
#555=#2002
G0 Z0.080
X7.42727 Y-1.54456
G38.2 Z-0.1 F2.362205
#554=#2002
G0 Z0.080
X7.42727 Y-1.90663
G38.2 Z-0.1 F2.362205
#553=#2002
G0 Z0.080
X7.42727 Y-2.26870
G38.2 Z-0.1 F2.362205
#552=#2002
G0 Z0.080
X7.42727 Y-2.63078
G38.2 Z-0.1 F2.362205
#551=#2002
G0 Z0.080
X7.42727 Y-2.99285
G38.2 Z-0.1 F2.362205
#550=#2002
G0 Z0.080
X7.42727 Y-3.35492
G38.2 Z-0.1 F2.362205
#549=#2002
G0 Z0.080
X7.81901 Y-3.35492
G38.2 Z-0.1 F2.362205
#556=#2002
G0 Z0.080
X7.81901 Y-2.99285
G38.2 Z-0.1 F2.362205
#557=#2002
G0 Z0.080
X7.81901 Y-2.63078
G38.2 Z-0.1 F2.362205
#558=#2002
G0 Z0.080
X7.81901 Y-2.26870
G38.2 Z-0.1 F2.362205
#559=#2002
G0 Z0.080
X7.81901 Y-1.90663
G38.2 Z-0.1 F2.362205
#560=#2002
G0 Z0.080
X7.81901 Y-1.54456
G38.2 Z-0.1 F2.362205
#561=#2002
G0 Z0.080
X7.81901 Y-1.18249
G38.2 Z-0.1 F2.362205
#562=#2002
G0 Z0.080
X8.21076 Y-1.18249
G38.2 Z-0.1 F2.362205
#569=#2002
G0 Z0.080
X8.21076 Y-1.54456
G38.2 Z-0.1 F2.362205
#568=#2002
G0 Z0.080
X8.21076 Y-1.90663
G38.2 Z-0.1 F2.362205
#567=#2002
G0 Z0.080
X8.21076 Y-2.26870
G38.2 Z-0.1 F2.362205
#566=#2002
G0 Z0.080
X8.21076 Y-2.63078
G38.2 Z-0.1 F2.362205
#565=#2002
G0 Z0.080
X8.21076 Y-2.99285
G38.2 Z-0.1 F2.362205
#564=#2002
G0 Z0.080
X8.21076 Y-3.35492
G38.2 Z-0.1 F2.362205
#563=#2002
G0 Z0.080
X8.60250 Y-3.35492
G38.2 Z-0.1 F2.362205
#570=#2002
G0 Z0.080
X8.60250 Y-2.99285
G38.2 Z-0.1 F2.362205
#571=#2002
G0 Z0.080
X8.60250 Y-2.63078
G38.2 Z-0.1 F2.362205
#572=#2002
G0 Z0.080
X8.60250 Y-2.26870
G38.2 Z-0.1 F2.362205
#573=#2002
G0 Z0.080
X8.60250 Y-1.90663
G38.2 Z-0.1 F2.362205
#574=#2002
G0 Z0.080
X8.60250 Y-1.54456
G38.2 Z-0.1 F2.362205
#575=#2002
G0 Z0.080
X8.60250 Y-1.18249
G38.2 Z-0.1 F2.362205
#576=#2002
G0 Z0.080
X8.99424 Y-1.18249
G38.2 Z-0.1 F2.362205
#583=#2002
G0 Z0.080
X8.99424 Y-1.54456
G38.2 Z-0.1 F2.362205
#582=#2002
G0 Z0.080
X8.99424 Y-1.90663
G38.2 Z-0.1 F2.362205
#581=#2002
G0 Z0.080
X8.99424 Y-2.26870
G38.2 Z-0.1 F2.362205
#580=#2002
G0 Z0.080
X8.99424 Y-2.63078
G38.2 Z-0.1 F2.362205
#579=#2002
G0 Z0.080
X8.99424 Y-2.99285
G38.2 Z-0.1 F2.362205
#578=#2002
G0 Z0.080
X8.99424 Y-3.35492
G38.2 Z-0.1 F2.362205
#577=#2002
G0 Z0.080
X9.38598 Y-3.35492
G38.2 Z-0.1 F2.362205
#584=#2002
G0 Z0.080
X9.38598 Y-2.99285
G38.2 Z-0.1 F2.362205
#585=#2002
G0 Z0.080
X9.38598 Y-2.63078
G38.2 Z-0.1 F2.362205
#586=#2002
G0 Z0.080
X9.38598 Y-2.26870
G38.2 Z-0.1 F2.362205
#587=#2002
G0 Z0.080
X9.38598 Y-1.90663
G38.2 Z-0.1 F2.362205
#588=#2002
G0 Z0.080
X9.38598 Y-1.54456
G38.2 Z-0.1 F2.362205
#589=#2002
G0 Z0.080
X9.38598 Y-1.18249
G38.2 Z-0.1 F2.362205
#590=#2002
G0 Z0.080
X9.77773 Y-1.18249
G38.2 Z-0.1 F2.362205
#597=#2002
G0 Z0.080
X9.77773 Y-1.54456
G38.2 Z-0.1 F2.362205
#596=#2002
G0 Z0.080
X9.77773 Y-1.90663
G38.2 Z-0.1 F2.362205
#595=#2002
G0 Z0.080
X9.77773 Y-2.26870
G38.2 Z-0.1 F2.362205
#594=#2002
G0 Z0.080
X9.77773 Y-2.63078
G38.2 Z-0.1 F2.362205
#593=#2002
G0 Z0.080
X9.77773 Y-2.99285
G38.2 Z-0.1 F2.362205
#592=#2002
G0 Z0.080
X9.77773 Y-3.35492
G38.2 Z-0.1 F2.362205
#591=#2002
G0 Z0.080
X10.16947 Y-3.35492
G38.2 Z-0.1 F2.362205
#598=#2002
G0 Z0.080
X10.16947 Y-2.99285
G38.2 Z-0.1 F2.362205
#599=#2002
G0 Z0.080
X10.16947 Y-2.63078
G38.2 Z-0.1 F2.362205
#600=#2002
G0 Z0.080
X10.16947 Y-2.26870
G38.2 Z-0.1 F2.362205
#601=#2002
G0 Z0.080
X10.16947 Y-1.90663
G38.2 Z-0.1 F2.362205
#602=#2002
G0 Z0.080
X10.16947 Y-1.54456
G38.2 Z-0.1 F2.362205
#603=#2002
G0 Z0.080
X10.16947 Y-1.18249
G38.2 Z-0.1 F2.362205
#604=#2002
G0 Z0.080
X10.56121 Y-1.18249
G38.2 Z-0.1 F2.362205
#611=#2002
G0 Z0.080
X10.56121 Y-1.54456
G38.2 Z-0.1 F2.362205
#610=#2002
G0 Z0.080
X10.56121 Y-1.90663
G38.2 Z-0.1 F2.362205
#609=#2002
G0 Z0.080
X10.56121 Y-2.26870
G38.2 Z-0.1 F2.362205
#608=#2002
G0 Z0.080
X10.56121 Y-2.63078
G38.2 Z-0.1 F2.362205
#607=#2002
G0 Z0.080
X10.56121 Y-2.99285
G38.2 Z-0.1 F2.362205
#606=#2002
G0 Z0.080
X10.56121 Y-3.35492
G38.2 Z-0.1 F2.362205
#605=#2002
G0 Z0.080
X10.95295 Y-3.35492
G38.2 Z-0.1 F2.362205
#612=#2002
G0 Z0.080
X10.95295 Y-2.99285
G38.2 Z-0.1 F2.362205
#613=#2002
G0 Z0.080
X10.95295 Y-2.63078
G38.2 Z-0.1 F2.362205
#614=#2002
G0 Z0.080
X10.95295 Y-2.26870
G38.2 Z-0.1 F2.362205
#615=#2002
G0 Z0.080
X10.95295 Y-1.90663
G38.2 Z-0.1 F2.362205
#616=#2002
G0 Z0.080
X10.95295 Y-1.54456
G38.2 Z-0.1 F2.362205
#617=#2002
G0 Z0.080
X10.95295 Y-1.18249
G38.2 Z-0.1 F2.362205
#618=#2002

G0 Z0.080 ( Move Z to safe height )
( Probing has ended, each Z-coordinate will be corrected with a bilinear interpolation )
(MSG, Detach the probe tool)
M0 ( Temporary machine stop. )


G00 Z1.00000 (Retract to tool change height)
T0
M5      (Spindle stop.)
G04 P1.00000 (Wait for spindle to stop)
(MSG, Change tool bit to mill diameter 0.00000in)
M6      (Tool change.)
M0      (Temporary machine stop.)
M3 ( Spindle on clockwise. )
G04 P1.00000 (Wait for spindle to get up to speed)
( Piece #1, position [0;0] )

G04 P0 ( dwell for no time -- G64 should not smooth over this point )
G00 Z0.08000 ( retract )

G00 X4.68507 Y-2.97619 ( rapid move to begin. )
G01 F180.00000
( Mill infeed pass 1/1 )
#111=[#501+[#502-#501]*0.04601]
G01 Z[-0.04000+#111]
G04 P0 ( dwell for no time -- G64 should not smooth over this point )
G01 F360.00000
#111=[#501+[#502-#501]*1.00000]
X4.68507 Y-2.63078 Z[#111+-0.04000]
#111=[#502+[#503-#502]*0.42695]
X4.68507 Y-2.47619 Z[#111+-0.04000]
#116=[#502+[#503-#502]*0.43756]
#117=[#509+[#510-#509]*0.43756]
#111=[#116+[#117-#116]*0.00097]
X4.68545 Y-2.47235 Z[#111+-0.04000]
#116=[#502+[#503-#502]*0.44776]
#117=[#509+[#510-#509]*0.44776]
#111=[#116+[#117-#116]*0.00383]
X4.68657 Y-2.46866 Z[#111+-0.04000]
#116=[#502+[#503-#502]*0.45716]
#117=[#509+[#510-#509]*0.45716]
#111=[#116+[#117-#116]*0.00847]
X4.68839 Y-2.46525 Z[#111+-0.04000]
#116=[#502+[#503-#502]*0.46540]
#117=[#509+[#510-#509]*0.46540]
#111=[#116+[#117-#116]*0.01472]
X4.69084 Y-2.46227 Z[#111+-0.04000]
#116=[#502+[#503-#502]*0.47216]
#117=[#509+[#510-#509]*0.47216]
#111=[#116+[#117-#116]*0.02233]
X4.69382 Y-2.45982 Z[#111+-0.04000]
#116=[#502+[#503-#502]*0.47718]
#117=[#509+[#510-#509]*0.47718]
#111=[#116+[#117-#116]*0.03102]
X4.69723 Y-2.45800 Z[#111+-0.04000]
#116=[#502+[#503-#502]*0.48027]
#117=[#509+[#510-#509]*0.48027]
#111=[#116+[#117-#116]*0.04045]
X4.70092 Y-2.45688 Z[#111+-0.04000]
#116=[#502+[#503-#502]*0.48132]
#117=[#509+[#510-#509]*0.48132]
#111=[#116+[#117-#116]*0.05025]
X4.70476 Y-2.45650 Z[#111+-0.04000]
#116=[#502+[#503-#502]*0.48132]
#117=[#509+[#510-#509]*0.48132]
#111=[#116+[#117-#116]*0.65805]
X4.94286 Y-2.45650 Z[#111+-0.04000]
#116=[#502+[#503-#502]*0.48027]
#117=[#509+[#510-#509]*0.48027]
#111=[#116+[#117-#116]*0.66785]
X4.94670 Y-2.45688 Z[#111+-0.04000]
#116=[#502+[#503-#502]*0.47718]
#117=[#509+[#510-#509]*0.47718]
#111=[#116+[#117-#116]*0.67728]
X4.95039 Y-2.45800 Z[#111+-0.04000]
#116=[#502+[#503-#502]*0.47216]
#117=[#509+[#510-#509]*0.47216]
#111=[#116+[#117-#116]*0.68597]
X4.95380 Y-2.45982 Z[#111+-0.04000]
#116=[#502+[#503-#502]*0.46540]
#117=[#509+[#510-#509]*0.46540]
#111=[#116+[#117-#116]*0.69358]
X4.95678 Y-2.46227 Z[#111+-0.04000]
#116=[#502+[#503-#502]*0.45716]
#117=[#509+[#510-#509]*0.45716]
#111=[#116+[#117-#116]*0.69983]
X4.95923 Y-2.46525 Z[#111+-0.04000]
#116=[#502+[#503-#502]*0.44776]
#117=[#509+[#510-#509]*0.44776]
#111=[#116+[#117-#116]*0.70447]
X4.96105 Y-2.46866 Z[#111+-0.04000]
#116=[#502+[#503-#502]*0.43756]
#117=[#509+[#510-#509]*0.43756]
#111=[#116+[#117-#116]*0.70733]
X4.96217 Y-2.47235 Z[#111+-0.04000]
#116=[#502+[#503-#502]*0.42695]
#117=[#509+[#510-#509]*0.42695]
#111=[#116+[#117-#116]*0.70830]
X4.96255 Y-2.47619 Z[#111+-0.04000]
#116=[#502+[#503-#502]*0.41634]
#117=[#509+[#510-#509]*0.41634]
#111=[#116+[#117-#116]*0.70733]
X4.96217 Y-2.48003 Z[#111+-0.04000]
#116=[#502+[#503-#502]*0.40614]
#117=[#509+[#510-#509]*0.40614]
#111=[#116+[#117-#116]*0.70447]
X4.96105 Y-2.48372 Z[#111+-0.04000]
#116=[#502+[#503-#502]*0.39675]
#117=[#509+[#510-#509]*0.39675]
#111=[#116+[#117-#116]*0.69983]
X4.95923 Y-2.48713 Z[#111+-0.04000]
#116=[#502+[#503-#502]*0.38851]
#117=[#509+[#510-#509]*0.38851]
#111=[#116+[#117-#116]*0.69358]
X4.95678 Y-2.49011 Z[#111+-0.04000]
#116=[#502+[#503-#502]*0.38175]
#117=[#509+[#510-#509]*0.38175]
#111=[#116+[#117-#116]*0.68597]
X4.95380 Y-2.49256 Z[#111+-0.04000]
#116=[#502+[#503-#502]*0.37672]
#117=[#509+[#510-#509]*0.37672]
#111=[#116+[#117-#116]*0.67728]
X4.95039 Y-2.49438 Z[#111+-0.04000]
#116=[#502+[#503-#502]*0.37363]
#117=[#509+[#510-#509]*0.37363]
#111=[#116+[#117-#116]*0.66785]
X4.94670 Y-2.49550 Z[#111+-0.04000]
#116=[#502+[#503-#502]*0.37258]
#117=[#509+[#510-#509]*0.37258]
#111=[#116+[#117-#116]*0.65805]
X4.94286 Y-2.49587 Z[#111+-0.04000]
#116=[#502+[#503-#502]*0.37258]
#117=[#509+[#510-#509]*0.37258]
#111=[#116+[#117-#116]*0.10050]
X4.72445 Y-2.49587 Z[#111+-0.04000]
#116=[#501+[#502-#501]*1.00000]
#117=[#508+[#509-#508]*1.00000]
#111=[#116+[#117-#116]*0.10050]
X4.72445 Y-2.63078 Z[#111+-0.04000]
#116=[#501+[#502-#501]*0.82374]
#117=[#508+[#509-#508]*0.82374]
#111=[#116+[#117-#116]*0.10050]
X4.72445 Y-2.69459 Z[#111+-0.04000]
#116=[#501+[#502-#501]*0.82374]
#117=[#508+[#509-#508]*0.82374]
#111=[#116+[#117-#116]*0.47571]
X4.87143 Y-2.69459 Z[#111+-0.04000]
#116=[#501+[#502-#501]*0.82270]
#117=[#508+[#509-#508]*0.82270]
#111=[#116+[#117-#116]*0.48551]
X4.87527 Y-2.69497 Z[#111+-0.04000]
#116=[#501+[#502-#501]*0.81960]
#117=[#508+[#509-#508]*0.81960]
#111=[#116+[#117-#116]*0.49494]
X4.87896 Y-2.69609 Z[#111+-0.04000]
#116=[#501+[#502-#501]*0.81458]
#117=[#508+[#509-#508]*0.81458]
#111=[#116+[#117-#116]*0.50363]
X4.88237 Y-2.69791 Z[#111+-0.04000]
#116=[#501+[#502-#501]*0.80782]
#117=[#508+[#509-#508]*0.80782]
#111=[#116+[#117-#116]*0.51124]
X4.88535 Y-2.70036 Z[#111+-0.04000]
#116=[#501+[#502-#501]*0.79958]
#117=[#508+[#509-#508]*0.79958]
#111=[#116+[#117-#116]*0.51749]
X4.88780 Y-2.70334 Z[#111+-0.04000]
#116=[#501+[#502-#501]*0.79018]
#117=[#508+[#509-#508]*0.79018]
#111=[#116+[#117-#116]*0.52213]
X4.88962 Y-2.70675 Z[#111+-0.04000]
#116=[#501+[#502-#501]*0.77998]
#117=[#508+[#509-#508]*0.77998]
#111=[#116+[#117-#116]*0.52499]
X4.89074 Y-2.71044 Z[#111+-0.04000]
#116=[#501+[#502-#501]*0.76937]
#117=[#508+[#509-#508]*0.76937]
#111=[#116+[#117-#116]*0.52596]
X4.89112 Y-2.71428 Z[#111+-0.04000]
#116=[#501+[#502-#501]*0.75877]
#117=[#508+[#509-#508]*0.75877]
#111=[#116+[#117-#116]*0.52499]
X4.89074 Y-2.71812 Z[#111+-0.04000]
#116=[#501+[#502-#501]*0.74857]
#117=[#508+[#509-#508]*0.74857]
#111=[#116+[#117-#116]*0.52213]
X4.88962 Y-2.72181 Z[#111+-0.04000]
#116=[#501+[#502-#501]*0.73917]
#117=[#508+[#509-#508]*0.73917]
#111=[#116+[#117-#116]*0.51749]
X4.88780 Y-2.72522 Z[#111+-0.04000]
#116=[#501+[#502-#501]*0.73093]
#117=[#508+[#509-#508]*0.73093]
#111=[#116+[#117-#116]*0.51124]
X4.88535 Y-2.72820 Z[#111+-0.04000]
#116=[#501+[#502-#501]*0.72417]
#117=[#508+[#509-#508]*0.72417]
#111=[#116+[#117-#116]*0.50363]
X4.88237 Y-2.73065 Z[#111+-0.04000]
#116=[#501+[#502-#501]*0.71915]
#117=[#508+[#509-#508]*0.71915]
#111=[#116+[#117-#116]*0.49494]
X4.87896 Y-2.73247 Z[#111+-0.04000]
#116=[#501+[#502-#501]*0.71605]
#117=[#508+[#509-#508]*0.71605]
#111=[#116+[#117-#116]*0.48551]
X4.87527 Y-2.73359 Z[#111+-0.04000]
#116=[#501+[#502-#501]*0.71501]
#117=[#508+[#509-#508]*0.71501]
#111=[#116+[#117-#116]*0.47571]
X4.87143 Y-2.73396 Z[#111+-0.04000]
#116=[#501+[#502-#501]*0.71501]
#117=[#508+[#509-#508]*0.71501]
#111=[#116+[#117-#116]*0.10050]
X4.72445 Y-2.73396 Z[#111+-0.04000]
#116=[#501+[#502-#501]*0.04601]
#117=[#508+[#509-#508]*0.04601]
#111=[#116+[#117-#116]*0.10050]
X4.72445 Y-2.97619 Z[#111+-0.04000]
#116=[#501+[#502-#501]*0.03540]
#117=[#508+[#509-#508]*0.03540]
#111=[#116+[#117-#116]*0.09953]
X4.72407 Y-2.98003 Z[#111+-0.04000]
#116=[#501+[#502-#501]*0.02520]
#117=[#508+[#509-#508]*0.02520]
#111=[#116+[#117-#116]*0.09668]
X4.72295 Y-2.98372 Z[#111+-0.04000]
#116=[#501+[#502-#501]*0.01581]
#117=[#508+[#509-#508]*0.01581]
#111=[#116+[#117-#116]*0.09203]
X4.72113 Y-2.98713 Z[#111+-0.04000]
#116=[#501+[#502-#501]*0.00757]
#117=[#508+[#509-#508]*0.00757]
#111=[#116+[#117-#116]*0.08578]
X4.71868 Y-2.99011 Z[#111+-0.04000]
#116=[#501+[#502-#501]*0.00081]
#117=[#508+[#509-#508]*0.00081]
#111=[#116+[#117-#116]*0.07817]
X4.71570 Y-2.99256 Z[#111+-0.04000]
#116=[#501+[#502-#501]*0.00000]
#117=[#508+[#509-#508]*0.00000]
#111=[#116+[#117-#116]*0.07677]
X4.71515 Y-2.99285 Z[#111+-0.04000]
#116=[#500+[#501-#500]*0.99578]
#117=[#507+[#508-#507]*0.99578]
#111=[#116+[#117-#116]*0.06948]
X4.71229 Y-2.99438 Z[#111+-0.04000]
#116=[#500+[#501-#500]*0.99269]
#117=[#507+[#508-#507]*0.99269]
#111=[#116+[#117-#116]*0.06005]
X4.70860 Y-2.99550 Z[#111+-0.04000]
#116=[#500+[#501-#500]*0.99164]
#117=[#507+[#508-#507]*0.99164]
#111=[#116+[#117-#116]*0.05025]
X4.70476 Y-2.99587 Z[#111+-0.04000]
#116=[#500+[#501-#500]*0.99269]
#117=[#507+[#508-#507]*0.99269]
#111=[#116+[#117-#116]*0.04045]
X4.70092 Y-2.99550 Z[#111+-0.04000]
#116=[#500+[#501-#500]*0.99578]
#117=[#507+[#508-#507]*0.99578]
#111=[#116+[#117-#116]*0.03102]
X4.69723 Y-2.99438 Z[#111+-0.04000]
#116=[#501+[#502-#501]*0.00000]
#117=[#508+[#509-#508]*0.00000]
#111=[#116+[#117-#116]*0.02373]
X4.69437 Y-2.99285 Z[#111+-0.04000]
#116=[#501+[#502-#501]*0.00081]
#117=[#508+[#509-#508]*0.00081]
#111=[#116+[#117-#116]*0.02233]
X4.69382 Y-2.99256 Z[#111+-0.04000]
#116=[#501+[#502-#501]*0.00757]
#117=[#508+[#509-#508]*0.00757]
#111=[#116+[#117-#116]*0.01472]
X4.69084 Y-2.99011 Z[#111+-0.04000]
#116=[#501+[#502-#501]*0.01581]
#117=[#508+[#509-#508]*0.01581]
#111=[#116+[#117-#116]*0.00847]
X4.68839 Y-2.98713 Z[#111+-0.04000]
#116=[#501+[#502-#501]*0.02520]
#117=[#508+[#509-#508]*0.02520]
#111=[#116+[#117-#116]*0.00383]
X4.68657 Y-2.98372 Z[#111+-0.04000]
#116=[#501+[#502-#501]*0.03540]
#117=[#508+[#509-#508]*0.03540]
#111=[#116+[#117-#116]*0.00097]
X4.68545 Y-2.98003 Z[#111+-0.04000]
#111=[#501+[#502-#501]*0.04601]
X4.68507 Y-2.97619 Z[#111+-0.04000]
G04 P0 ( dwell for no time -- G64 should not smooth over this point )
G00 Z0.08000 ( retract )

G00 X5.11364 Y-2.97619 ( rapid move to begin. )
G01 F180.00000
( Mill infeed pass 1/1 )
#116=[#508+[#509-#508]*0.04601]
#117=[#515+[#516-#515]*0.04601]
#111=[#116+[#117-#116]*0.09401]
G01 Z[-0.04000+#111]
G04 P0 ( dwell for no time -- G64 should not smooth over this point )
G01 F360.00000
#116=[#508+[#509-#508]*0.96663]
#117=[#515+[#516-#515]*0.96663]
#111=[#116+[#117-#116]*0.09401]
X5.11364 Y-2.64286 Z[#111+-0.04000]
#116=[#508+[#509-#508]*0.97724]
#117=[#515+[#516-#515]*0.97724]
#111=[#116+[#117-#116]*0.09498]
X5.11402 Y-2.63902 Z[#111+-0.04000]
#116=[#508+[#509-#508]*0.98744]
#117=[#515+[#516-#515]*0.98744]
#111=[#116+[#117-#116]*0.09784]
X5.11514 Y-2.63533 Z[#111+-0.04000]
#116=[#508+[#509-#508]*0.99683]
#117=[#515+[#516-#515]*0.99683]
#111=[#116+[#117-#116]*0.10248]
X5.11696 Y-2.63192 Z[#111+-0.04000]
#116=[#508+[#509-#508]*1.00000]
#117=[#515+[#516-#515]*1.00000]
#111=[#116+[#117-#116]*0.10488]
X5.11790 Y-2.63078 Z[#111+-0.04000]
#116=[#509+[#510-#509]*0.00507]
#117=[#516+[#517-#516]*0.00507]
#111=[#116+[#117-#116]*0.10873]
X5.11941 Y-2.62894 Z[#111+-0.04000]
#116=[#509+[#510-#509]*0.01183]
#117=[#516+[#517-#516]*0.01183]
#111=[#116+[#117-#116]*0.11634]
X5.12239 Y-2.62649 Z[#111+-0.04000]
#116=[#509+[#510-#509]*0.01686]
#117=[#516+[#517-#516]*0.01686]
#111=[#116+[#117-#116]*0.12503]
X5.12580 Y-2.62467 Z[#111+-0.04000]
#116=[#509+[#510-#509]*0.01995]
#117=[#516+[#517-#516]*0.01995]
#111=[#116+[#117-#116]*0.13446]
X5.12949 Y-2.62355 Z[#111+-0.04000]
#116=[#509+[#510-#509]*0.02100]
#117=[#516+[#517-#516]*0.02100]
#111=[#116+[#117-#116]*0.14426]
X5.13333 Y-2.62317 Z[#111+-0.04000]
#116=[#509+[#510-#509]*0.01995]
#117=[#516+[#517-#516]*0.01995]
#111=[#116+[#117-#116]*0.15406]
X5.13717 Y-2.62355 Z[#111+-0.04000]
#116=[#509+[#510-#509]*0.01686]
#117=[#516+[#517-#516]*0.01686]
#111=[#116+[#117-#116]*0.16349]
X5.14086 Y-2.62467 Z[#111+-0.04000]
#116=[#509+[#510-#509]*0.01183]
#117=[#516+[#517-#516]*0.01183]
#111=[#116+[#117-#116]*0.17218]
X5.14427 Y-2.62649 Z[#111+-0.04000]
#116=[#509+[#510-#509]*0.00507]
#117=[#516+[#517-#516]*0.00507]
#111=[#116+[#117-#116]*0.17979]
X5.14725 Y-2.62894 Z[#111+-0.04000]
#116=[#508+[#509-#508]*1.00000]
#117=[#515+[#516-#515]*1.00000]
#111=[#116+[#117-#116]*0.18364]
X5.14876 Y-2.63078 Z[#111+-0.04000]
#116=[#508+[#509-#508]*0.99683]
#117=[#515+[#516-#515]*0.99683]
#111=[#116+[#117-#116]*0.18604]
X5.14970 Y-2.63192 Z[#111+-0.04000]
#116=[#508+[#509-#508]*0.98744]
#117=[#515+[#516-#515]*0.98744]
#111=[#116+[#117-#116]*0.19069]
X5.15152 Y-2.63533 Z[#111+-0.04000]
#116=[#508+[#509-#508]*0.97724]
#117=[#515+[#516-#515]*0.97724]
#111=[#116+[#117-#116]*0.19354]
X5.15264 Y-2.63902 Z[#111+-0.04000]
#116=[#508+[#509-#508]*0.96663]
#117=[#515+[#516-#515]*0.96663]
#111=[#116+[#117-#116]*0.19451]
X5.15301 Y-2.64286 Z[#111+-0.04000]
#116=[#508+[#509-#508]*0.90060]
#117=[#515+[#516-#515]*0.90060]
#111=[#116+[#117-#116]*0.19451]
X5.15301 Y-2.66677 Z[#111+-0.04000]
#116=[#508+[#509-#508]*0.93931]
#117=[#515+[#516-#515]*0.93931]
#111=[#116+[#117-#116]*0.23029]
X5.16703 Y-2.65275 Z[#111+-0.04000]
#116=[#508+[#509-#508]*0.94497]
#117=[#515+[#516-#515]*0.94497]
#111=[#116+[#117-#116]*0.23644]
X5.16944 Y-2.65070 Z[#111+-0.04000]
#116=[#508+[#509-#508]*0.94950]
#117=[#515+[#516-#515]*0.94950]
#111=[#116+[#117-#116]*0.24335]
X5.17215 Y-2.64906 Z[#111+-0.04000]
#116=[#508+[#509-#508]*1.00000]
#117=[#515+[#516-#515]*1.00000]
#111=[#116+[#117-#116]*0.33671]
X5.20872 Y-2.63078 Z[#111+-0.04000]
#116=[#509+[#510-#509]*0.01526]
#117=[#516+[#517-#516]*0.01526]
#111=[#116+[#117-#116]*0.36491]
X5.21977 Y-2.62525 Z[#111+-0.04000]
#116=[#509+[#510-#509]*0.01954]
#117=[#516+[#517-#516]*0.01954]
#111=[#116+[#117-#116]*0.37584]
X5.22405 Y-2.62370 Z[#111+-0.04000]
#116=[#509+[#510-#509]*0.02100]
#117=[#516+[#517-#516]*0.02100]
#111=[#116+[#117-#116]*0.38738]
X5.22857 Y-2.62317 Z[#111+-0.04000]
#116=[#509+[#510-#509]*0.02100]
#117=[#516+[#517-#516]*0.02100]
#111=[#116+[#117-#116]*0.50894]
X5.27619 Y-2.62317 Z[#111+-0.04000]
#116=[#509+[#510-#509]*0.01995]
#117=[#516+[#517-#516]*0.01995]
#111=[#116+[#117-#116]*0.51874]
X5.28003 Y-2.62355 Z[#111+-0.04000]
#116=[#509+[#510-#509]*0.01686]
#117=[#516+[#517-#516]*0.01686]
#111=[#116+[#117-#116]*0.52817]
X5.28372 Y-2.62467 Z[#111+-0.04000]
#116=[#509+[#510-#509]*0.01183]
#117=[#516+[#517-#516]*0.01183]
#111=[#116+[#117-#116]*0.53686]
X5.28713 Y-2.62649 Z[#111+-0.04000]
#116=[#509+[#510-#509]*0.00507]
#117=[#516+[#517-#516]*0.00507]
#111=[#116+[#117-#116]*0.54447]
X5.29011 Y-2.62894 Z[#111+-0.04000]
#116=[#508+[#509-#508]*1.00000]
#117=[#515+[#516-#515]*1.00000]
#111=[#116+[#117-#116]*0.54832]
X5.29162 Y-2.63078 Z[#111+-0.04000]
#116=[#508+[#509-#508]*0.99683]
#117=[#515+[#516-#515]*0.99683]
#111=[#116+[#117-#116]*0.55072]
X5.29256 Y-2.63192 Z[#111+-0.04000]
#116=[#508+[#509-#508]*0.98744]
#117=[#515+[#516-#515]*0.98744]
#111=[#116+[#117-#116]*0.55536]
X5.29438 Y-2.63533 Z[#111+-0.04000]
#116=[#508+[#509-#508]*0.97724]
#117=[#515+[#516-#515]*0.97724]
#111=[#116+[#117-#116]*0.55822]
X5.29550 Y-2.63902 Z[#111+-0.04000]
#116=[#508+[#509-#508]*0.96663]
#117=[#515+[#516-#515]*0.96663]
#111=[#116+[#117-#116]*0.55919]
X5.29587 Y-2.64286 Z[#111+-0.04000]
#116=[#508+[#509-#508]*0.95602]
#117=[#515+[#516-#515]*0.95602]
#111=[#116+[#117-#116]*0.55822]
X5.29550 Y-2.64670 Z[#111+-0.04000]
#116=[#508+[#509-#508]*0.94582]
#117=[#515+[#516-#515]*0.94582]
#111=[#116+[#117-#116]*0.55536]
X5.29438 Y-2.65039 Z[#111+-0.04000]
#116=[#508+[#509-#508]*0.93642]
#117=[#515+[#516-#515]*0.93642]
#111=[#116+[#117-#116]*0.55072]
X5.29256 Y-2.65380 Z[#111+-0.04000]
#116=[#508+[#509-#508]*0.92818]
#117=[#515+[#516-#515]*0.92818]
#111=[#116+[#117-#116]*0.54447]
X5.29011 Y-2.65678 Z[#111+-0.04000]
#116=[#508+[#509-#508]*0.92142]
#117=[#515+[#516-#515]*0.92142]
#111=[#116+[#117-#116]*0.53686]
X5.28713 Y-2.65923 Z[#111+-0.04000]
#116=[#508+[#509-#508]*0.91640]
#117=[#515+[#516-#515]*0.91640]
#111=[#116+[#117-#116]*0.52817]
X5.28372 Y-2.66105 Z[#111+-0.04000]
#116=[#508+[#509-#508]*0.91331]
#117=[#515+[#516-#515]*0.91331]
#111=[#116+[#117-#116]*0.51874]
X5.28003 Y-2.66217 Z[#111+-0.04000]
#116=[#508+[#509-#508]*0.91226]
#117=[#515+[#516-#515]*0.91226]
#111=[#116+[#117-#116]*0.50894]
X5.27619 Y-2.66255 Z[#111+-0.04000]
#116=[#508+[#509-#508]*0.91226]
#117=[#515+[#516-#515]*0.91226]
#111=[#116+[#117-#116]*0.39924]
X5.23322 Y-2.66255 Z[#111+-0.04000]
#116=[#508+[#509-#508]*0.85619]
#117=[#515+[#516-#515]*0.85619]
#111=[#116+[#117-#116]*0.29559]
X5.19261 Y-2.68285 Z[#111+-0.04000]
#116=[#508+[#509-#508]*0.80290]
#117=[#515+[#516-#515]*0.80290]
#111=[#116+[#117-#116]*0.24634]
X5.17332 Y-2.70214 Z[#111+-0.04000]
#116=[#508+[#509-#508]*0.69078]
#117=[#515+[#516-#515]*0.69078]
#111=[#116+[#117-#116]*0.19451]
X5.15301 Y-2.74274 Z[#111+-0.04000]
#116=[#508+[#509-#508]*0.04601]
#117=[#515+[#516-#515]*0.04601]
#111=[#116+[#117-#116]*0.19451]
X5.15301 Y-2.97619 Z[#111+-0.04000]
#116=[#508+[#509-#508]*0.03540]
#117=[#515+[#516-#515]*0.03540]
#111=[#116+[#117-#116]*0.19354]
X5.15264 Y-2.98003 Z[#111+-0.04000]
#116=[#508+[#509-#508]*0.02520]
#117=[#515+[#516-#515]*0.02520]
#111=[#116+[#117-#116]*0.19069]
X5.15152 Y-2.98372 Z[#111+-0.04000]
#116=[#508+[#509-#508]*0.01581]
#117=[#515+[#516-#515]*0.01581]
#111=[#116+[#117-#116]*0.18604]
X5.14970 Y-2.98713 Z[#111+-0.04000]
#116=[#508+[#509-#508]*0.00757]
#117=[#515+[#516-#515]*0.00757]
#111=[#116+[#117-#116]*0.17979]
X5.14725 Y-2.99011 Z[#111+-0.04000]
#116=[#508+[#509-#508]*0.00081]
#117=[#515+[#516-#515]*0.00081]
#111=[#116+[#117-#116]*0.17218]
X5.14427 Y-2.99256 Z[#111+-0.04000]
#116=[#508+[#509-#508]*0.00000]
#117=[#515+[#516-#515]*0.00000]
#111=[#116+[#117-#116]*0.17078]
X5.14372 Y-2.99285 Z[#111+-0.04000]
#116=[#507+[#508-#507]*0.99578]
#117=[#514+[#515-#514]*0.99578]
#111=[#116+[#117-#116]*0.16349]
X5.14086 Y-2.99438 Z[#111+-0.04000]
#116=[#507+[#508-#507]*0.99269]
#117=[#514+[#515-#514]*0.99269]
#111=[#116+[#117-#116]*0.15406]
X5.13717 Y-2.99550 Z[#111+-0.04000]
#116=[#507+[#508-#507]*0.99164]
#117=[#514+[#515-#514]*0.99164]
#111=[#116+[#117-#116]*0.14426]
X5.13333 Y-2.99587 Z[#111+-0.04000]
#116=[#507+[#508-#507]*0.99269]
#117=[#514+[#515-#514]*0.99269]
#111=[#116+[#117-#116]*0.13446]
X5.12949 Y-2.99550 Z[#111+-0.04000]
#116=[#507+[#508-#507]*0.99578]
#117=[#514+[#515-#514]*0.99578]
#111=[#116+[#117-#116]*0.12503]
X5.12580 Y-2.99438 Z[#111+-0.04000]
#116=[#508+[#509-#508]*0.00000]
#117=[#515+[#516-#515]*0.00000]
#111=[#116+[#117-#116]*0.11774]
X5.12294 Y-2.99285 Z[#111+-0.04000]
#116=[#508+[#509-#508]*0.00081]
#117=[#515+[#516-#515]*0.00081]
#111=[#116+[#117-#116]*0.11634]
X5.12239 Y-2.99256 Z[#111+-0.04000]
#116=[#508+[#509-#508]*0.00757]
#117=[#515+[#516-#515]*0.00757]
#111=[#116+[#117-#116]*0.10873]
X5.11941 Y-2.99011 Z[#111+-0.04000]
#116=[#508+[#509-#508]*0.01581]
#117=[#515+[#516-#515]*0.01581]
#111=[#116+[#117-#116]*0.10248]
X5.11696 Y-2.98713 Z[#111+-0.04000]
#116=[#508+[#509-#508]*0.02520]
#117=[#515+[#516-#515]*0.02520]
#111=[#116+[#117-#116]*0.09784]
X5.11514 Y-2.98372 Z[#111+-0.04000]
#116=[#508+[#509-#508]*0.03540]
#117=[#515+[#516-#515]*0.03540]
#111=[#116+[#117-#116]*0.09498]
X5.11402 Y-2.98003 Z[#111+-0.04000]
#116=[#508+[#509-#508]*0.04601]
#117=[#515+[#516-#515]*0.04601]
#111=[#116+[#117-#116]*0.09401]
X5.11364 Y-2.97619 Z[#111+-0.04000]
G04 P0 ( dwell for no time -- G64 should not smooth over this point )
G00 Z0.08000 ( retract )

G00 X5.39936 Y-2.88095 ( rapid move to begin. )
G01 F180.00000
( Mill infeed pass 1/1 )
#116=[#508+[#509-#508]*0.30905]
#117=[#515+[#516-#515]*0.30905]
#111=[#116+[#117-#116]*0.82337]
G01 Z[-0.04000+#111]
G04 P0 ( dwell for no time -- G64 should not smooth over this point )
G01 F360.00000
#116=[#508+[#509-#508]*0.70361]
#117=[#515+[#516-#515]*0.70361]
#111=[#116+[#117-#116]*0.82337]
X5.39936 Y-2.73809 Z[#111+-0.04000]
#116=[#508+[#509-#508]*0.71611]
#117=[#515+[#516-#515]*0.71611]
#111=[#116+[#117-#116]*0.82471]
X5.39989 Y-2.73357 Z[#111+-0.04000]
#116=[#508+[#509-#508]*0.72793]
#117=[#515+[#516-#515]*0.72793]
#111=[#116+[#117-#116]*0.82867]
X5.40144 Y-2.72928 Z[#111+-0.04000]
#116=[#508+[#509-#508]*0.85943]
#117=[#515+[#516-#515]*0.85943]
#111=[#116+[#117-#116]*0.88945]
X5.42525 Y-2.68167 Z[#111+-0.04000]
#116=[#508+[#509-#508]*0.86690]
#117=[#515+[#516-#515]*0.86690]
#111=[#116+[#117-#116]*0.89363]
X5.42689 Y-2.67897 Z[#111+-0.04000]
#116=[#508+[#509-#508]*0.87355]
#117=[#515+[#516-#515]*0.87355]
#111=[#116+[#117-#116]*0.89887]
X5.42894 Y-2.67656 Z[#111+-0.04000]
#116=[#508+[#509-#508]*0.93931]
#117=[#515+[#516-#515]*0.93931]
#111=[#116+[#117-#116]*0.95964]
X5.45275 Y-2.65275 Z[#111+-0.04000]
#116=[#508+[#509-#508]*0.94497]
#117=[#515+[#516-#515]*0.94497]
#111=[#116+[#117-#116]*0.96579]
X5.45516 Y-2.65070 Z[#111+-0.04000]
#116=[#508+[#509-#508]*0.94950]
#117=[#515+[#516-#515]*0.94950]
#111=[#116+[#117-#116]*0.97270]
X5.45787 Y-2.64906 Z[#111+-0.04000]
#116=[#508+[#509-#508]*0.96426]
#117=[#515+[#516-#515]*0.96426]
#111=[#116+[#117-#116]*1.00000]
X5.46856 Y-2.64372 Z[#111+-0.04000]
#116=[#515+[#516-#515]*1.00000]
#117=[#522+[#523-#522]*1.00000]
#111=[#116+[#117-#116]*0.06606]
X5.49444 Y-2.63078 Z[#111+-0.04000]
#116=[#516+[#517-#516]*0.01526]
#117=[#523+[#524-#523]*0.01526]
#111=[#116+[#117-#116]*0.09426]
X5.50549 Y-2.62525 Z[#111+-0.04000]
#116=[#516+[#517-#516]*0.01954]
#117=[#523+[#524-#523]*0.01954]
#111=[#116+[#117-#116]*0.10519]
X5.50977 Y-2.62370 Z[#111+-0.04000]
#116=[#516+[#517-#516]*0.02100]
#117=[#523+[#524-#523]*0.02100]
#111=[#116+[#117-#116]*0.11674]
X5.51429 Y-2.62317 Z[#111+-0.04000]
#116=[#516+[#517-#516]*0.02100]
#117=[#523+[#524-#523]*0.02100]
#111=[#116+[#117-#116]*0.29905]
X5.58571 Y-2.62317 Z[#111+-0.04000]
#116=[#516+[#517-#516]*0.01954]
#117=[#523+[#524-#523]*0.01954]
#111=[#116+[#117-#116]*0.31059]
X5.59023 Y-2.62370 Z[#111+-0.04000]
#116=[#516+[#517-#516]*0.01526]
#117=[#523+[#524-#523]*0.01526]
#111=[#116+[#117-#116]*0.32152]
X5.59451 Y-2.62525 Z[#111+-0.04000]
#116=[#515+[#516-#515]*1.00000]
#117=[#522+[#523-#522]*1.00000]
#111=[#116+[#117-#116]*0.34972]
X5.60556 Y-2.63078 Z[#111+-0.04000]
#116=[#515+[#516-#515]*0.94950]
#117=[#522+[#523-#522]*0.94950]
#111=[#116+[#117-#116]*0.44308]
X5.64213 Y-2.64906 Z[#111+-0.04000]
#116=[#515+[#516-#515]*0.94497]
#117=[#522+[#523-#522]*0.94497]
#111=[#116+[#117-#116]*0.44999]
X5.64484 Y-2.65070 Z[#111+-0.04000]
#116=[#515+[#516-#515]*0.93931]
#117=[#522+[#523-#522]*0.93931]
#111=[#116+[#117-#116]*0.45614]
X5.64725 Y-2.65275 Z[#111+-0.04000]
#116=[#515+[#516-#515]*0.87355]
#117=[#522+[#523-#522]*0.87355]
#111=[#116+[#117-#116]*0.51692]
X5.67106 Y-2.67656 Z[#111+-0.04000]
#116=[#515+[#516-#515]*0.86690]
#117=[#522+[#523-#522]*0.86690]
#111=[#116+[#117-#116]*0.52215]
X5.67311 Y-2.67897 Z[#111+-0.04000]
#116=[#515+[#516-#515]*0.85943]
#117=[#522+[#523-#522]*0.85943]
#111=[#116+[#117-#116]*0.52633]
X5.67475 Y-2.68167 Z[#111+-0.04000]
#116=[#515+[#516-#515]*0.72793]
#117=[#522+[#523-#522]*0.72793]
#111=[#116+[#117-#116]*0.58711]
X5.69856 Y-2.72928 Z[#111+-0.04000]
#116=[#515+[#516-#515]*0.71611]
#117=[#522+[#523-#522]*0.71611]
#111=[#116+[#117-#116]*0.59108]
X5.70011 Y-2.73357 Z[#111+-0.04000]
#116=[#515+[#516-#515]*0.70361]
#117=[#522+[#523-#522]*0.70361]
#111=[#116+[#117-#116]*0.59242]
X5.70064 Y-2.73809 Z[#111+-0.04000]
#116=[#515+[#516-#515]*0.30905]
#117=[#522+[#523-#522]*0.30905]
#111=[#116+[#117-#116]*0.59242]
X5.70064 Y-2.88095 Z[#111+-0.04000]
#116=[#515+[#516-#515]*0.29656]
#117=[#522+[#523-#522]*0.29656]
#111=[#116+[#117-#116]*0.59108]
X5.70011 Y-2.88547 Z[#111+-0.04000]
#116=[#515+[#516-#515]*0.28474]
#117=[#522+[#523-#522]*0.28474]
#111=[#116+[#117-#116]*0.58711]
X5.69856 Y-2.88975 Z[#111+-0.04000]
#116=[#515+[#516-#515]*0.15322]
#117=[#522+[#523-#522]*0.15322]
#111=[#116+[#117-#116]*0.52633]
X5.67475 Y-2.93737 Z[#111+-0.04000]
#116=[#515+[#516-#515]*0.14574]
#117=[#522+[#523-#522]*0.14574]
#111=[#116+[#117-#116]*0.52215]
X5.67311 Y-2.94008 Z[#111+-0.04000]
#116=[#515+[#516-#515]*0.13909]
#117=[#522+[#523-#522]*0.13909]
#111=[#116+[#117-#116]*0.51692]
X5.67106 Y-2.94249 Z[#111+-0.04000]
#116=[#515+[#516-#515]*0.07333]
#117=[#522+[#523-#522]*0.07333]
#111=[#116+[#117-#116]*0.45614]
X5.64725 Y-2.96630 Z[#111+-0.04000]
#116=[#515+[#516-#515]*0.06767]
#117=[#522+[#523-#522]*0.06767]
#111=[#116+[#117-#116]*0.44999]
X5.64484 Y-2.96835 Z[#111+-0.04000]
#116=[#515+[#516-#515]*0.06314]
#117=[#522+[#523-#522]*0.06314]
#111=[#116+[#117-#116]*0.44308]
X5.64213 Y-2.96999 Z[#111+-0.04000]
#116=[#515+[#516-#515]*0.00000]
#117=[#522+[#523-#522]*0.00000]
#111=[#116+[#117-#116]*0.32636]
X5.59641 Y-2.99285 Z[#111+-0.04000]
#116=[#514+[#515-#514]*0.99738]
#117=[#521+[#522-#521]*0.99738]
#111=[#116+[#117-#116]*0.32152]
X5.59451 Y-2.99380 Z[#111+-0.04000]
#116=[#514+[#515-#514]*0.99310]
#117=[#521+[#522-#521]*0.99310]
#111=[#116+[#117-#116]*0.31059]
X5.59023 Y-2.99535 Z[#111+-0.04000]
#116=[#514+[#515-#514]*0.99164]
#117=[#521+[#522-#521]*0.99164]
#111=[#116+[#117-#116]*0.29905]
X5.58571 Y-2.99587 Z[#111+-0.04000]
#116=[#514+[#515-#514]*0.99164]
#117=[#521+[#522-#521]*0.99164]
#111=[#116+[#117-#116]*0.11674]
X5.51429 Y-2.99587 Z[#111+-0.04000]
#116=[#514+[#515-#514]*0.99310]
#117=[#521+[#522-#521]*0.99310]
#111=[#116+[#117-#116]*0.10519]
X5.50977 Y-2.99535 Z[#111+-0.04000]
#116=[#514+[#515-#514]*0.99738]
#117=[#521+[#522-#521]*0.99738]
#111=[#116+[#117-#116]*0.09426]
X5.50549 Y-2.99380 Z[#111+-0.04000]
#116=[#515+[#516-#515]*0.00000]
#117=[#522+[#523-#522]*0.00000]
#111=[#116+[#117-#116]*0.08943]
X5.50359 Y-2.99285 Z[#111+-0.04000]
#116=[#508+[#509-#508]*0.04838]
#117=[#515+[#516-#515]*0.04838]
#111=[#116+[#117-#116]*1.00000]
X5.46856 Y-2.97533 Z[#111+-0.04000]
#116=[#508+[#509-#508]*0.06314]
#117=[#515+[#516-#515]*0.06314]
#111=[#116+[#117-#116]*0.97270]
X5.45787 Y-2.96999 Z[#111+-0.04000]
#116=[#508+[#509-#508]*0.06767]
#117=[#515+[#516-#515]*0.06767]
#111=[#116+[#117-#116]*0.96579]
X5.45516 Y-2.96835 Z[#111+-0.04000]
#116=[#508+[#509-#508]*0.07333]
#117=[#515+[#516-#515]*0.07333]
#111=[#116+[#117-#116]*0.95964]
X5.45275 Y-2.96630 Z[#111+-0.04000]
#116=[#508+[#509-#508]*0.13909]
#117=[#515+[#516-#515]*0.13909]
#111=[#116+[#117-#116]*0.89887]
X5.42894 Y-2.94249 Z[#111+-0.04000]
#116=[#508+[#509-#508]*0.14574]
#117=[#515+[#516-#515]*0.14574]
#111=[#116+[#117-#116]*0.89363]
X5.42689 Y-2.94008 Z[#111+-0.04000]
#116=[#508+[#509-#508]*0.15322]
#117=[#515+[#516-#515]*0.15322]
#111=[#116+[#117-#116]*0.88945]
X5.42525 Y-2.93737 Z[#111+-0.04000]
#116=[#508+[#509-#508]*0.28474]
#117=[#515+[#516-#515]*0.28474]
#111=[#116+[#117-#116]*0.82867]
X5.40144 Y-2.88975 Z[#111+-0.04000]
#116=[#508+[#509-#508]*0.29469]
#117=[#515+[#516-#515]*0.29469]
#111=[#116+[#117-#116]*0.82515]
X5.40006 Y-2.88615 Z[#111+-0.04000]
#116=[#508+[#509-#508]*0.29845]
#117=[#515+[#516-#515]*0.29845]
#111=[#116+[#117-#116]*0.82433]
X5.39974 Y-2.88479 Z[#111+-0.04000]
#116=[#508+[#509-#508]*0.30905]
#117=[#515+[#516-#515]*0.30905]
#111=[#116+[#117-#116]*0.82337]
X5.39936 Y-2.88095 Z[#111+-0.04000]
G04 P0 ( dwell for no time -- G64 should not smooth over this point )
G00 Z0.08000 ( retract )

G00 X5.43874 Y-2.87630 ( rapid move to begin. )
G01 F180.00000
( Mill infeed pass 1/1 )
#116=[#508+[#509-#508]*0.32189]
#117=[#515+[#516-#515]*0.32189]
#111=[#116+[#117-#116]*0.92387]
G01 Z[-0.04000+#111]
G04 P0 ( dwell for no time -- G64 should not smooth over this point )
G01 F360.00000
#116=[#508+[#509-#508]*0.69078]
#117=[#515+[#516-#515]*0.69078]
#111=[#116+[#117-#116]*0.92387]
X5.43874 Y-2.74274 Z[#111+-0.04000]
#116=[#508+[#509-#508]*0.80290]
#117=[#515+[#516-#515]*0.80290]
#111=[#116+[#117-#116]*0.97569]
X5.45904 Y-2.70214 Z[#111+-0.04000]
#116=[#508+[#509-#508]*0.82920]
#117=[#515+[#516-#515]*0.82920]
#111=[#116+[#117-#116]*1.00000]
X5.46856 Y-2.69262 Z[#111+-0.04000]
#116=[#515+[#516-#515]*0.85619]
#117=[#522+[#523-#522]*0.85619]
#111=[#116+[#117-#116]*0.02494]
X5.47833 Y-2.68285 Z[#111+-0.04000]
#116=[#515+[#516-#515]*0.91226]
#117=[#522+[#523-#522]*0.91226]
#111=[#116+[#117-#116]*0.12860]
X5.51894 Y-2.66255 Z[#111+-0.04000]
#116=[#515+[#516-#515]*0.91226]
#117=[#522+[#523-#522]*0.91226]
#111=[#116+[#117-#116]*0.28719]
X5.58106 Y-2.66255 Z[#111+-0.04000]
#116=[#515+[#516-#515]*0.85619]
#117=[#522+[#523-#522]*0.85619]
#111=[#116+[#117-#116]*0.39084]
X5.62167 Y-2.68285 Z[#111+-0.04000]
#116=[#515+[#516-#515]*0.80290]
#117=[#522+[#523-#522]*0.80290]
#111=[#116+[#117-#116]*0.44009]
X5.64096 Y-2.70214 Z[#111+-0.04000]
#116=[#515+[#516-#515]*0.69078]
#117=[#522+[#523-#522]*0.69078]
#111=[#116+[#117-#116]*0.49192]
X5.66126 Y-2.74274 Z[#111+-0.04000]
#116=[#515+[#516-#515]*0.32189]
#117=[#522+[#523-#522]*0.32189]
#111=[#116+[#117-#116]*0.49192]
X5.66126 Y-2.87630 Z[#111+-0.04000]
#116=[#515+[#516-#515]*0.20974]
#117=[#522+[#523-#522]*0.20974]
#111=[#116+[#117-#116]*0.44009]
X5.64096 Y-2.91691 Z[#111+-0.04000]
#116=[#515+[#516-#515]*0.15645]
#117=[#522+[#523-#522]*0.15645]
#111=[#116+[#117-#116]*0.39084]
X5.62167 Y-2.93620 Z[#111+-0.04000]
#116=[#515+[#516-#515]*0.10038]
#117=[#522+[#523-#522]*0.10038]
#111=[#116+[#117-#116]*0.28719]
X5.58106 Y-2.95650 Z[#111+-0.04000]
#116=[#515+[#516-#515]*0.10038]
#117=[#522+[#523-#522]*0.10038]
#111=[#116+[#117-#116]*0.12860]
X5.51894 Y-2.95650 Z[#111+-0.04000]
#116=[#515+[#516-#515]*0.15645]
#117=[#522+[#523-#522]*0.15645]
#111=[#116+[#117-#116]*0.02494]
X5.47833 Y-2.93620 Z[#111+-0.04000]
#116=[#508+[#509-#508]*0.18344]
#117=[#515+[#516-#515]*0.18344]
#111=[#116+[#117-#116]*1.00000]
X5.46856 Y-2.92643 Z[#111+-0.04000]
#116=[#508+[#509-#508]*0.20974]
#117=[#515+[#516-#515]*0.20974]
#111=[#116+[#117-#116]*0.97570]
X5.45904 Y-2.91691 Z[#111+-0.04000]
#116=[#508+[#509-#508]*0.32189]
#117=[#515+[#516-#515]*0.32189]
#111=[#116+[#117-#116]*0.92387]
X5.43874 Y-2.87630 Z[#111+-0.04000]
G04 P0 ( dwell for no time -- G64 should not smooth over this point )
G00 Z0.08000 ( retract )

G00 X5.87555 Y-2.97619 ( rapid move to begin. )
G01 F180.00000
( Mill infeed pass 1/1 )
#116=[#522+[#523-#522]*0.04601]
#117=[#529+[#530-#529]*0.04601]
#111=[#116+[#117-#116]*0.03894]
G01 Z[-0.04000+#111]
G04 P0 ( dwell for no time -- G64 should not smooth over this point )
G01 F360.00000
#116=[#522+[#523-#522]*0.96663]
#117=[#529+[#530-#529]*0.96663]
#111=[#116+[#117-#116]*0.03894]
X5.87555 Y-2.64286 Z[#111+-0.04000]
#116=[#522+[#523-#522]*0.97724]
#117=[#529+[#530-#529]*0.97724]
#111=[#116+[#117-#116]*0.03990]
X5.87593 Y-2.63902 Z[#111+-0.04000]
#116=[#522+[#523-#522]*0.98744]
#117=[#529+[#530-#529]*0.98744]
#111=[#116+[#117-#116]*0.04276]
X5.87705 Y-2.63533 Z[#111+-0.04000]
#116=[#522+[#523-#522]*0.99683]
#117=[#529+[#530-#529]*0.99683]
#111=[#116+[#117-#116]*0.04741]
X5.87887 Y-2.63192 Z[#111+-0.04000]
#116=[#522+[#523-#522]*1.00000]
#117=[#529+[#530-#529]*1.00000]
#111=[#116+[#117-#116]*0.04981]
X5.87981 Y-2.63078 Z[#111+-0.04000]
#116=[#523+[#524-#523]*0.00507]
#117=[#530+[#531-#530]*0.00507]
#111=[#116+[#117-#116]*0.05365]
X5.88132 Y-2.62894 Z[#111+-0.04000]
#116=[#523+[#524-#523]*0.01183]
#117=[#530+[#531-#530]*0.01183]
#111=[#116+[#117-#116]*0.06127]
X5.88430 Y-2.62649 Z[#111+-0.04000]
#116=[#523+[#524-#523]*0.01686]
#117=[#530+[#531-#530]*0.01686]
#111=[#116+[#117-#116]*0.06996]
X5.88771 Y-2.62467 Z[#111+-0.04000]
#116=[#523+[#524-#523]*0.01995]
#117=[#530+[#531-#530]*0.01995]
#111=[#116+[#117-#116]*0.07938]
X5.89140 Y-2.62355 Z[#111+-0.04000]
#116=[#523+[#524-#523]*0.02100]
#117=[#530+[#531-#530]*0.02100]
#111=[#116+[#117-#116]*0.08919]
X5.89524 Y-2.62317 Z[#111+-0.04000]
#116=[#523+[#524-#523]*0.01995]
#117=[#530+[#531-#530]*0.01995]
#111=[#116+[#117-#116]*0.09899]
X5.89908 Y-2.62355 Z[#111+-0.04000]
#116=[#523+[#524-#523]*0.01686]
#117=[#530+[#531-#530]*0.01686]
#111=[#116+[#117-#116]*0.10842]
X5.90277 Y-2.62467 Z[#111+-0.04000]
#116=[#523+[#524-#523]*0.01183]
#117=[#530+[#531-#530]*0.01183]
#111=[#116+[#117-#116]*0.11710]
X5.90618 Y-2.62649 Z[#111+-0.04000]
#116=[#523+[#524-#523]*0.00507]
#117=[#530+[#531-#530]*0.00507]
#111=[#116+[#117-#116]*0.12472]
X5.90916 Y-2.62894 Z[#111+-0.04000]
#116=[#522+[#523-#522]*1.00000]
#117=[#529+[#530-#529]*1.00000]
#111=[#116+[#117-#116]*0.12857]
X5.91067 Y-2.63078 Z[#111+-0.04000]
#116=[#522+[#523-#522]*0.99683]
#117=[#529+[#530-#529]*0.99683]
#111=[#116+[#117-#116]*0.13097]
X5.91161 Y-2.63192 Z[#111+-0.04000]
#116=[#522+[#523-#522]*0.98744]
#117=[#529+[#530-#529]*0.98744]
#111=[#116+[#117-#116]*0.13561]
X5.91343 Y-2.63533 Z[#111+-0.04000]
#116=[#522+[#523-#522]*0.97724]
#117=[#529+[#530-#529]*0.97724]
#111=[#116+[#117-#116]*0.13847]
X5.91455 Y-2.63902 Z[#111+-0.04000]
#116=[#522+[#523-#522]*0.96663]
#117=[#529+[#530-#529]*0.96663]
#111=[#116+[#117-#116]*0.13944]
X5.91493 Y-2.64286 Z[#111+-0.04000]
#116=[#522+[#523-#522]*0.95596]
#117=[#529+[#530-#529]*0.95596]
#111=[#116+[#117-#116]*0.13944]
X5.91493 Y-2.64672 Z[#111+-0.04000]
#116=[#522+[#523-#522]*1.00000]
#117=[#529+[#530-#529]*1.00000]
#111=[#116+[#117-#116]*0.22085]
X5.94682 Y-2.63078 Z[#111+-0.04000]
#116=[#523+[#524-#523]*0.01526]
#117=[#530+[#531-#530]*0.01526]
#111=[#116+[#117-#116]*0.24905]
X5.95787 Y-2.62525 Z[#111+-0.04000]
#116=[#523+[#524-#523]*0.01954]
#117=[#530+[#531-#530]*0.01954]
#111=[#116+[#117-#116]*0.25998]
X5.96215 Y-2.62370 Z[#111+-0.04000]
#116=[#523+[#524-#523]*0.02100]
#117=[#530+[#531-#530]*0.02100]
#111=[#116+[#117-#116]*0.27153]
X5.96667 Y-2.62317 Z[#111+-0.04000]
#116=[#523+[#524-#523]*0.02100]
#117=[#530+[#531-#530]*0.02100]
#111=[#116+[#117-#116]*0.45387]
X6.03810 Y-2.62317 Z[#111+-0.04000]
#116=[#523+[#524-#523]*0.01954]
#117=[#530+[#531-#530]*0.01954]
#111=[#116+[#117-#116]*0.46541]
X6.04262 Y-2.62370 Z[#111+-0.04000]
#116=[#523+[#524-#523]*0.01526]
#117=[#530+[#531-#530]*0.01526]
#111=[#116+[#117-#116]*0.47634]
X6.04690 Y-2.62525 Z[#111+-0.04000]
#116=[#522+[#523-#522]*1.00000]
#117=[#529+[#530-#529]*1.00000]
#111=[#116+[#117-#116]*0.50454]
X6.05795 Y-2.63078 Z[#111+-0.04000]
#116=[#522+[#523-#522]*0.94950]
#117=[#529+[#530-#529]*0.94950]
#111=[#116+[#117-#116]*0.59787]
X6.09451 Y-2.64906 Z[#111+-0.04000]
#116=[#522+[#523-#522]*0.94321]
#117=[#529+[#530-#529]*0.94321]
#111=[#116+[#117-#116]*0.60692]
X6.09806 Y-2.65134 Z[#111+-0.04000]
#116=[#522+[#523-#522]*0.93498]
#117=[#529+[#530-#529]*0.93498]
#111=[#116+[#117-#116]*0.61453]
X6.10104 Y-2.65432 Z[#111+-0.04000]
#116=[#522+[#523-#522]*0.92519]
#117=[#529+[#530-#529]*0.92519]
#111=[#116+[#117-#116]*0.62034]
X6.10332 Y-2.65787 Z[#111+-0.04000]
#116=[#522+[#523-#522]*0.79369]
#117=[#529+[#530-#529]*0.79369]
#111=[#116+[#117-#116]*0.68112]
X6.12713 Y-2.70547 Z[#111+-0.04000]
#116=[#522+[#523-#522]*0.78187]
#117=[#529+[#530-#529]*0.78187]
#111=[#116+[#117-#116]*0.68508]
X6.12868 Y-2.70976 Z[#111+-0.04000]
#116=[#522+[#523-#522]*0.76937]
#117=[#529+[#530-#529]*0.76937]
#111=[#116+[#117-#116]*0.68643]
X6.12920 Y-2.71428 Z[#111+-0.04000]
#116=[#522+[#523-#522]*0.04601]
#117=[#529+[#530-#529]*0.04601]
#111=[#116+[#117-#116]*0.68643]
X6.12920 Y-2.97619 Z[#111+-0.04000]
#116=[#522+[#523-#522]*0.03540]
#117=[#529+[#530-#529]*0.03540]
#111=[#116+[#117-#116]*0.68546]
X6.12883 Y-2.98003 Z[#111+-0.04000]
#116=[#522+[#523-#522]*0.02520]
#117=[#529+[#530-#529]*0.02520]
#111=[#116+[#117-#116]*0.68260]
X6.12771 Y-2.98372 Z[#111+-0.04000]
#116=[#522+[#523-#522]*0.01581]
#117=[#529+[#530-#529]*0.01581]
#111=[#116+[#117-#116]*0.67796]
X6.12589 Y-2.98713 Z[#111+-0.04000]
#116=[#522+[#523-#522]*0.00757]
#117=[#529+[#530-#529]*0.00757]
#111=[#116+[#117-#116]*0.67171]
X6.12344 Y-2.99011 Z[#111+-0.04000]
#116=[#522+[#523-#522]*0.00081]
#117=[#529+[#530-#529]*0.00081]
#111=[#116+[#117-#116]*0.66410]
X6.12046 Y-2.99256 Z[#111+-0.04000]
#116=[#522+[#523-#522]*0.00000]
#117=[#529+[#530-#529]*0.00000]
#111=[#116+[#117-#116]*0.66270]
X6.11991 Y-2.99285 Z[#111+-0.04000]
#116=[#521+[#522-#521]*0.99578]
#117=[#528+[#529-#528]*0.99578]
#111=[#116+[#117-#116]*0.65541]
X6.11705 Y-2.99438 Z[#111+-0.04000]
#116=[#521+[#522-#521]*0.99269]
#117=[#528+[#529-#528]*0.99269]
#111=[#116+[#117-#116]*0.64598]
X6.11336 Y-2.99550 Z[#111+-0.04000]
#116=[#521+[#522-#521]*0.99164]
#117=[#528+[#529-#528]*0.99164]
#111=[#116+[#117-#116]*0.63618]
X6.10952 Y-2.99587 Z[#111+-0.04000]
#116=[#521+[#522-#521]*0.99269]
#117=[#528+[#529-#528]*0.99269]
#111=[#116+[#117-#116]*0.62638]
X6.10568 Y-2.99550 Z[#111+-0.04000]
#116=[#521+[#522-#521]*0.99578]
#117=[#528+[#529-#528]*0.99578]
#111=[#116+[#117-#116]*0.61695]
X6.10199 Y-2.99438 Z[#111+-0.04000]
#116=[#522+[#523-#522]*0.00000]
#117=[#529+[#530-#529]*0.00000]
#111=[#116+[#117-#116]*0.60966]
X6.09913 Y-2.99285 Z[#111+-0.04000]
#116=[#522+[#523-#522]*0.00081]
#117=[#529+[#530-#529]*0.00081]
#111=[#116+[#117-#116]*0.60826]
X6.09858 Y-2.99256 Z[#111+-0.04000]
#116=[#522+[#523-#522]*0.00757]
#117=[#529+[#530-#529]*0.00757]
#111=[#116+[#117-#116]*0.60065]
X6.09560 Y-2.99011 Z[#111+-0.04000]
#116=[#522+[#523-#522]*0.01581]
#117=[#529+[#530-#529]*0.01581]
#111=[#116+[#117-#116]*0.59440]
X6.09315 Y-2.98713 Z[#111+-0.04000]
#116=[#522+[#523-#522]*0.02520]
#117=[#529+[#530-#529]*0.02520]
#111=[#116+[#117-#116]*0.58975]
X6.09133 Y-2.98372 Z[#111+-0.04000]
#116=[#522+[#523-#522]*0.03540]
#117=[#529+[#530-#529]*0.03540]
#111=[#116+[#117-#116]*0.58690]
X6.09021 Y-2.98003 Z[#111+-0.04000]
#116=[#522+[#523-#522]*0.04601]
#117=[#529+[#530-#529]*0.04601]
#111=[#116+[#117-#116]*0.58593]
X6.08983 Y-2.97619 Z[#111+-0.04000]
#116=[#522+[#523-#522]*0.75654]
#117=[#529+[#530-#529]*0.75654]
#111=[#116+[#117-#116]*0.58593]
X6.08983 Y-2.71893 Z[#111+-0.04000]
#116=[#522+[#523-#522]*0.86035]
#117=[#529+[#530-#529]*0.86035]
#111=[#116+[#117-#116]*0.53795]
X6.07104 Y-2.68134 Z[#111+-0.04000]
#116=[#522+[#523-#522]*0.91226]
#117=[#529+[#530-#529]*0.91226]
#111=[#116+[#117-#116]*0.44200]
X6.03345 Y-2.66255 Z[#111+-0.04000]
#116=[#522+[#523-#522]*0.91226]
#117=[#529+[#530-#529]*0.91226]
#111=[#116+[#117-#116]*0.28339]
X5.97132 Y-2.66255 Z[#111+-0.04000]
#116=[#522+[#523-#522]*0.85619]
#117=[#529+[#530-#529]*0.85619]
#111=[#116+[#117-#116]*0.17973]
X5.93071 Y-2.68285 Z[#111+-0.04000]
#116=[#522+[#523-#522]*0.81259]
#117=[#529+[#530-#529]*0.81259]
#111=[#116+[#117-#116]*0.13944]
X5.91493 Y-2.69863 Z[#111+-0.04000]
#116=[#522+[#523-#522]*0.04601]
#117=[#529+[#530-#529]*0.04601]
#111=[#116+[#117-#116]*0.13944]
X5.91493 Y-2.97619 Z[#111+-0.04000]
#116=[#522+[#523-#522]*0.03540]
#117=[#529+[#530-#529]*0.03540]
#111=[#116+[#117-#116]*0.13847]
X5.91455 Y-2.98003 Z[#111+-0.04000]
#116=[#522+[#523-#522]*0.02520]
#117=[#529+[#530-#529]*0.02520]
#111=[#116+[#117-#116]*0.13561]
X5.91343 Y-2.98372 Z[#111+-0.04000]
#116=[#522+[#523-#522]*0.01581]
#117=[#529+[#530-#529]*0.01581]
#111=[#116+[#117-#116]*0.13097]
X5.91161 Y-2.98713 Z[#111+-0.04000]
#116=[#522+[#523-#522]*0.00757]
#117=[#529+[#530-#529]*0.00757]
#111=[#116+[#117-#116]*0.12472]
X5.90916 Y-2.99011 Z[#111+-0.04000]
#116=[#522+[#523-#522]*0.00081]
#117=[#529+[#530-#529]*0.00081]
#111=[#116+[#117-#116]*0.11710]
X5.90618 Y-2.99256 Z[#111+-0.04000]
#116=[#522+[#523-#522]*0.00000]
#117=[#529+[#530-#529]*0.00000]
#111=[#116+[#117-#116]*0.11571]
X5.90563 Y-2.99285 Z[#111+-0.04000]
#116=[#521+[#522-#521]*0.99578]
#117=[#528+[#529-#528]*0.99578]
#111=[#116+[#117-#116]*0.10842]
X5.90277 Y-2.99438 Z[#111+-0.04000]
#116=[#521+[#522-#521]*0.99269]
#117=[#528+[#529-#528]*0.99269]
#111=[#116+[#117-#116]*0.09899]
X5.89908 Y-2.99550 Z[#111+-0.04000]
#116=[#521+[#522-#521]*0.99164]
#117=[#528+[#529-#528]*0.99164]
#111=[#116+[#117-#116]*0.08919]
X5.89524 Y-2.99587 Z[#111+-0.04000]
#116=[#521+[#522-#521]*0.99269]
#117=[#528+[#529-#528]*0.99269]
#111=[#116+[#117-#116]*0.07938]
X5.89140 Y-2.99550 Z[#111+-0.04000]
#116=[#521+[#522-#521]*0.99578]
#117=[#528+[#529-#528]*0.99578]
#111=[#116+[#117-#116]*0.06996]
X5.88771 Y-2.99438 Z[#111+-0.04000]
#116=[#522+[#523-#522]*0.00000]
#117=[#529+[#530-#529]*0.00000]
#111=[#116+[#117-#116]*0.06266]
X5.88485 Y-2.99285 Z[#111+-0.04000]
#116=[#522+[#523-#522]*0.00081]
#117=[#529+[#530-#529]*0.00081]
#111=[#116+[#117-#116]*0.06127]
X5.88430 Y-2.99256 Z[#111+-0.04000]
#116=[#522+[#523-#522]*0.00757]
#117=[#529+[#530-#529]*0.00757]
#111=[#116+[#117-#116]*0.05365]
X5.88132 Y-2.99011 Z[#111+-0.04000]
#116=[#522+[#523-#522]*0.01581]
#117=[#529+[#530-#529]*0.01581]
#111=[#116+[#117-#116]*0.04741]
X5.87887 Y-2.98713 Z[#111+-0.04000]
#116=[#522+[#523-#522]*0.02520]
#117=[#529+[#530-#529]*0.02520]
#111=[#116+[#117-#116]*0.04276]
X5.87705 Y-2.98372 Z[#111+-0.04000]
#116=[#522+[#523-#522]*0.03540]
#117=[#529+[#530-#529]*0.03540]
#111=[#116+[#117-#116]*0.03990]
X5.87593 Y-2.98003 Z[#111+-0.04000]
#116=[#522+[#523-#522]*0.04601]
#117=[#529+[#530-#529]*0.04601]
#111=[#116+[#117-#116]*0.03894]
X5.87555 Y-2.97619 Z[#111+-0.04000]
G04 P0 ( dwell for no time -- G64 should not smooth over this point )
G00 Z0.08000 ( retract )

G00 X6.25650 Y-2.64286 ( rapid move to begin. )
G01 F180.00000
( Mill infeed pass 1/1 )
#116=[#529+[#530-#529]*0.96663]
#117=[#536+[#537-#536]*0.96663]
#111=[#116+[#117-#116]*0.01139]
G01 Z[-0.04000+#111]
G04 P0 ( dwell for no time -- G64 should not smooth over this point )
G01 F360.00000
#116=[#529+[#530-#529]*0.95602]
#117=[#536+[#537-#536]*0.95602]
#111=[#116+[#117-#116]*0.01235]
X6.25688 Y-2.64670 Z[#111+-0.04000]
#116=[#529+[#530-#529]*0.94582]
#117=[#536+[#537-#536]*0.94582]
#111=[#116+[#117-#116]*0.01521]
X6.25800 Y-2.65039 Z[#111+-0.04000]
#116=[#529+[#530-#529]*0.93642]
#117=[#536+[#537-#536]*0.93642]
#111=[#116+[#117-#116]*0.01986]
X6.25982 Y-2.65380 Z[#111+-0.04000]
#116=[#529+[#530-#529]*0.92818]
#117=[#536+[#537-#536]*0.92818]
#111=[#116+[#117-#116]*0.02610]
X6.26227 Y-2.65678 Z[#111+-0.04000]
#116=[#529+[#530-#529]*0.92142]
#117=[#536+[#537-#536]*0.92142]
#111=[#116+[#117-#116]*0.03372]
X6.26525 Y-2.65923 Z[#111+-0.04000]
#116=[#529+[#530-#529]*0.91640]
#117=[#536+[#537-#536]*0.91640]
#111=[#116+[#117-#116]*0.04241]
X6.26866 Y-2.66105 Z[#111+-0.04000]
#116=[#529+[#530-#529]*0.91331]
#117=[#536+[#537-#536]*0.91331]
#111=[#116+[#117-#116]*0.05183]
X6.27235 Y-2.66217 Z[#111+-0.04000]
#116=[#529+[#530-#529]*0.91226]
#117=[#536+[#537-#536]*0.91226]
#111=[#116+[#117-#116]*0.06164]
X6.27619 Y-2.66255 Z[#111+-0.04000]
#116=[#529+[#530-#529]*0.91226]
#117=[#536+[#537-#536]*0.91226]
#111=[#116+[#117-#116]*0.19373]
X6.32793 Y-2.66255 Z[#111+-0.04000]
#116=[#529+[#530-#529]*0.24329]
#117=[#536+[#537-#536]*0.24329]
#111=[#116+[#117-#116]*0.19373]
X6.32793 Y-2.90476 Z[#111+-0.04000]
#116=[#529+[#530-#529]*0.23080]
#117=[#536+[#537-#536]*0.23080]
#111=[#116+[#117-#116]*0.19507]
X6.32846 Y-2.90928 Z[#111+-0.04000]
#116=[#529+[#530-#529]*0.21898]
#117=[#536+[#537-#536]*0.21898]
#111=[#116+[#117-#116]*0.19903]
X6.33001 Y-2.91356 Z[#111+-0.04000]
#116=[#529+[#530-#529]*0.08746]
#117=[#536+[#537-#536]*0.08746]
#111=[#116+[#117-#116]*0.25981]
X6.35382 Y-2.96118 Z[#111+-0.04000]
#116=[#529+[#530-#529]*0.07766]
#117=[#536+[#537-#536]*0.07766]
#111=[#116+[#117-#116]*0.26562]
X6.35610 Y-2.96473 Z[#111+-0.04000]
#116=[#529+[#530-#529]*0.06943]
#117=[#536+[#537-#536]*0.06943]
#111=[#116+[#117-#116]*0.27323]
X6.35908 Y-2.96771 Z[#111+-0.04000]
#116=[#529+[#530-#529]*0.06314]
#117=[#536+[#537-#536]*0.06314]
#111=[#116+[#117-#116]*0.28228]
X6.36263 Y-2.96999 Z[#111+-0.04000]
#116=[#529+[#530-#529]*0.00000]
#117=[#536+[#537-#536]*0.00000]
#111=[#116+[#117-#116]*0.39901]
X6.40835 Y-2.99285 Z[#111+-0.04000]
#116=[#528+[#529-#528]*0.99738]
#117=[#535+[#536-#535]*0.99738]
#111=[#116+[#117-#116]*0.40384]
X6.41025 Y-2.99380 Z[#111+-0.04000]
#116=[#528+[#529-#528]*0.99310]
#117=[#535+[#536-#535]*0.99310]
#111=[#116+[#117-#116]*0.41477]
X6.41453 Y-2.99535 Z[#111+-0.04000]
#116=[#528+[#529-#528]*0.99164]
#117=[#535+[#536-#535]*0.99164]
#111=[#116+[#117-#116]*0.42632]
X6.41905 Y-2.99587 Z[#111+-0.04000]
#116=[#528+[#529-#528]*0.99164]
#117=[#535+[#536-#535]*0.99164]
#111=[#116+[#117-#116]*0.54788]
X6.46667 Y-2.99587 Z[#111+-0.04000]
#116=[#528+[#529-#528]*0.99269]
#117=[#535+[#536-#535]*0.99269]
#111=[#116+[#117-#116]*0.55768]
X6.47051 Y-2.99550 Z[#111+-0.04000]
#116=[#528+[#529-#528]*0.99578]
#117=[#535+[#536-#535]*0.99578]
#111=[#116+[#117-#116]*0.56711]
X6.47420 Y-2.99438 Z[#111+-0.04000]
#116=[#529+[#530-#529]*0.00000]
#117=[#536+[#537-#536]*0.00000]
#111=[#116+[#117-#116]*0.57440]
X6.47706 Y-2.99285 Z[#111+-0.04000]
#116=[#529+[#530-#529]*0.00081]
#117=[#536+[#537-#536]*0.00081]
#111=[#116+[#117-#116]*0.57579]
X6.47761 Y-2.99256 Z[#111+-0.04000]
#116=[#529+[#530-#529]*0.00757]
#117=[#536+[#537-#536]*0.00757]
#111=[#116+[#117-#116]*0.58341]
X6.48059 Y-2.99011 Z[#111+-0.04000]
#116=[#529+[#530-#529]*0.01581]
#117=[#536+[#537-#536]*0.01581]
#111=[#116+[#117-#116]*0.58966]
X6.48304 Y-2.98713 Z[#111+-0.04000]
#116=[#529+[#530-#529]*0.02520]
#117=[#536+[#537-#536]*0.02520]
#111=[#116+[#117-#116]*0.59430]
X6.48486 Y-2.98372 Z[#111+-0.04000]
#116=[#529+[#530-#529]*0.03540]
#117=[#536+[#537-#536]*0.03540]
#111=[#116+[#117-#116]*0.59716]
X6.48598 Y-2.98003 Z[#111+-0.04000]
#116=[#529+[#530-#529]*0.04601]
#117=[#536+[#537-#536]*0.04601]
#111=[#116+[#117-#116]*0.59813]
X6.48635 Y-2.97619 Z[#111+-0.04000]
#116=[#529+[#530-#529]*0.05662]
#117=[#536+[#537-#536]*0.05662]
#111=[#116+[#117-#116]*0.59716]
X6.48598 Y-2.97235 Z[#111+-0.04000]
#116=[#529+[#530-#529]*0.06682]
#117=[#536+[#537-#536]*0.06682]
#111=[#116+[#117-#116]*0.59430]
X6.48486 Y-2.96866 Z[#111+-0.04000]
#116=[#529+[#530-#529]*0.07622]
#117=[#536+[#537-#536]*0.07622]
#111=[#116+[#117-#116]*0.58966]
X6.48304 Y-2.96525 Z[#111+-0.04000]
#116=[#529+[#530-#529]*0.08446]
#117=[#536+[#537-#536]*0.08446]
#111=[#116+[#117-#116]*0.58341]
X6.48059 Y-2.96227 Z[#111+-0.04000]
#116=[#529+[#530-#529]*0.09122]
#117=[#536+[#537-#536]*0.09122]
#111=[#116+[#117-#116]*0.57579]
X6.47761 Y-2.95982 Z[#111+-0.04000]
#116=[#529+[#530-#529]*0.09624]
#117=[#536+[#537-#536]*0.09624]
#111=[#116+[#117-#116]*0.56711]
X6.47420 Y-2.95800 Z[#111+-0.04000]
#116=[#529+[#530-#529]*0.09933]
#117=[#536+[#537-#536]*0.09933]
#111=[#116+[#117-#116]*0.55768]
X6.47051 Y-2.95688 Z[#111+-0.04000]
#116=[#529+[#530-#529]*0.10038]
#117=[#536+[#537-#536]*0.10038]
#111=[#116+[#117-#116]*0.54788]
X6.46667 Y-2.95650 Z[#111+-0.04000]
#116=[#529+[#530-#529]*0.10038]
#117=[#536+[#537-#536]*0.10038]
#111=[#116+[#117-#116]*0.43818]
X6.42370 Y-2.95650 Z[#111+-0.04000]
#116=[#529+[#530-#529]*0.15230]
#117=[#536+[#537-#536]*0.15230]
#111=[#116+[#117-#116]*0.34221]
X6.38610 Y-2.93771 Z[#111+-0.04000]
#116=[#529+[#530-#529]*0.25613]
#117=[#536+[#537-#536]*0.25613]
#111=[#116+[#117-#116]*0.29423]
X6.36730 Y-2.90011 Z[#111+-0.04000]
#116=[#529+[#530-#529]*0.91226]
#117=[#536+[#537-#536]*0.91226]
#111=[#116+[#117-#116]*0.29423]
X6.36730 Y-2.66255 Z[#111+-0.04000]
#116=[#529+[#530-#529]*0.91226]
#117=[#536+[#537-#536]*0.91226]
#111=[#116+[#117-#116]*0.54788]
X6.46667 Y-2.66255 Z[#111+-0.04000]
#116=[#529+[#530-#529]*0.91331]
#117=[#536+[#537-#536]*0.91331]
#111=[#116+[#117-#116]*0.55768]
X6.47051 Y-2.66217 Z[#111+-0.04000]
#116=[#529+[#530-#529]*0.91640]
#117=[#536+[#537-#536]*0.91640]
#111=[#116+[#117-#116]*0.56711]
X6.47420 Y-2.66105 Z[#111+-0.04000]
#116=[#529+[#530-#529]*0.92142]
#117=[#536+[#537-#536]*0.92142]
#111=[#116+[#117-#116]*0.57579]
X6.47761 Y-2.65923 Z[#111+-0.04000]
#116=[#529+[#530-#529]*0.92818]
#117=[#536+[#537-#536]*0.92818]
#111=[#116+[#117-#116]*0.58341]
X6.48059 Y-2.65678 Z[#111+-0.04000]
#116=[#529+[#530-#529]*0.93642]
#117=[#536+[#537-#536]*0.93642]
#111=[#116+[#117-#116]*0.58966]
X6.48304 Y-2.65380 Z[#111+-0.04000]
#116=[#529+[#530-#529]*0.94582]
#117=[#536+[#537-#536]*0.94582]
#111=[#116+[#117-#116]*0.59430]
X6.48486 Y-2.65039 Z[#111+-0.04000]
#116=[#529+[#530-#529]*0.95602]
#117=[#536+[#537-#536]*0.95602]
#111=[#116+[#117-#116]*0.59716]
X6.48598 Y-2.64670 Z[#111+-0.04000]
#116=[#529+[#530-#529]*0.96663]
#117=[#536+[#537-#536]*0.96663]
#111=[#116+[#117-#116]*0.59813]
X6.48635 Y-2.64286 Z[#111+-0.04000]
#116=[#529+[#530-#529]*0.97724]
#117=[#536+[#537-#536]*0.97724]
#111=[#116+[#117-#116]*0.59716]
X6.48598 Y-2.63902 Z[#111+-0.04000]
#116=[#529+[#530-#529]*0.98744]
#117=[#536+[#537-#536]*0.98744]
#111=[#116+[#117-#116]*0.59430]
X6.48486 Y-2.63533 Z[#111+-0.04000]
#116=[#529+[#530-#529]*0.99683]
#117=[#536+[#537-#536]*0.99683]
#111=[#116+[#117-#116]*0.58966]
X6.48304 Y-2.63192 Z[#111+-0.04000]
#116=[#529+[#530-#529]*1.00000]
#117=[#536+[#537-#536]*1.00000]
#111=[#116+[#117-#116]*0.58726]
X6.48210 Y-2.63078 Z[#111+-0.04000]
#116=[#530+[#531-#530]*0.00507]
#117=[#537+[#538-#537]*0.00507]
#111=[#116+[#117-#116]*0.58341]
X6.48059 Y-2.62894 Z[#111+-0.04000]
#116=[#530+[#531-#530]*0.01183]
#117=[#537+[#538-#537]*0.01183]
#111=[#116+[#117-#116]*0.57579]
X6.47761 Y-2.62649 Z[#111+-0.04000]
#116=[#530+[#531-#530]*0.01686]
#117=[#537+[#538-#537]*0.01686]
#111=[#116+[#117-#116]*0.56711]
X6.47420 Y-2.62467 Z[#111+-0.04000]
#116=[#530+[#531-#530]*0.01995]
#117=[#537+[#538-#537]*0.01995]
#111=[#116+[#117-#116]*0.55768]
X6.47051 Y-2.62355 Z[#111+-0.04000]
#116=[#530+[#531-#530]*0.02100]
#117=[#537+[#538-#537]*0.02100]
#111=[#116+[#117-#116]*0.54788]
X6.46667 Y-2.62317 Z[#111+-0.04000]
#116=[#530+[#531-#530]*0.02100]
#117=[#537+[#538-#537]*0.02100]
#111=[#116+[#117-#116]*0.29423]
X6.36730 Y-2.62317 Z[#111+-0.04000]
#116=[#530+[#531-#530]*0.42695]
#117=[#537+[#538-#537]*0.42695]
#111=[#116+[#117-#116]*0.29423]
X6.36730 Y-2.47619 Z[#111+-0.04000]
#116=[#530+[#531-#530]*0.43756]
#117=[#537+[#538-#537]*0.43756]
#111=[#116+[#117-#116]*0.29326]
X6.36693 Y-2.47235 Z[#111+-0.04000]
#116=[#530+[#531-#530]*0.44776]
#117=[#537+[#538-#537]*0.44776]
#111=[#116+[#117-#116]*0.29040]
X6.36581 Y-2.46866 Z[#111+-0.04000]
#116=[#530+[#531-#530]*0.45716]
#117=[#537+[#538-#537]*0.45716]
#111=[#116+[#117-#116]*0.28576]
X6.36399 Y-2.46525 Z[#111+-0.04000]
#116=[#530+[#531-#530]*0.46540]
#117=[#537+[#538-#537]*0.46540]
#111=[#116+[#117-#116]*0.27951]
X6.36154 Y-2.46227 Z[#111+-0.04000]
#116=[#530+[#531-#530]*0.47216]
#117=[#537+[#538-#537]*0.47216]
#111=[#116+[#117-#116]*0.27189]
X6.35856 Y-2.45982 Z[#111+-0.04000]
#116=[#530+[#531-#530]*0.47718]
#117=[#537+[#538-#537]*0.47718]
#111=[#116+[#117-#116]*0.26321]
X6.35515 Y-2.45800 Z[#111+-0.04000]
#116=[#530+[#531-#530]*0.48027]
#117=[#537+[#538-#537]*0.48027]
#111=[#116+[#117-#116]*0.25378]
X6.35146 Y-2.45688 Z[#111+-0.04000]
#116=[#530+[#531-#530]*0.48132]
#117=[#537+[#538-#537]*0.48132]
#111=[#116+[#117-#116]*0.24398]
X6.34762 Y-2.45650 Z[#111+-0.04000]
#116=[#530+[#531-#530]*0.48027]
#117=[#537+[#538-#537]*0.48027]
#111=[#116+[#117-#116]*0.23417]
X6.34378 Y-2.45688 Z[#111+-0.04000]
#116=[#530+[#531-#530]*0.47718]
#117=[#537+[#538-#537]*0.47718]
#111=[#116+[#117-#116]*0.22475]
X6.34009 Y-2.45800 Z[#111+-0.04000]
#116=[#530+[#531-#530]*0.47216]
#117=[#537+[#538-#537]*0.47216]
#111=[#116+[#117-#116]*0.21606]
X6.33668 Y-2.45982 Z[#111+-0.04000]
#116=[#530+[#531-#530]*0.46540]
#117=[#537+[#538-#537]*0.46540]
#111=[#116+[#117-#116]*0.20844]
X6.33370 Y-2.46227 Z[#111+-0.04000]
#116=[#530+[#531-#530]*0.45716]
#117=[#537+[#538-#537]*0.45716]
#111=[#116+[#117-#116]*0.20220]
X6.33125 Y-2.46525 Z[#111+-0.04000]
#116=[#530+[#531-#530]*0.44776]
#117=[#537+[#538-#537]*0.44776]
#111=[#116+[#117-#116]*0.19755]
X6.32943 Y-2.46866 Z[#111+-0.04000]
#116=[#530+[#531-#530]*0.43756]
#117=[#537+[#538-#537]*0.43756]
#111=[#116+[#117-#116]*0.19469]
X6.32831 Y-2.47235 Z[#111+-0.04000]
#116=[#530+[#531-#530]*0.42695]
#117=[#537+[#538-#537]*0.42695]
#111=[#116+[#117-#116]*0.19373]
X6.32793 Y-2.47619 Z[#111+-0.04000]
#116=[#530+[#531-#530]*0.02100]
#117=[#537+[#538-#537]*0.02100]
#111=[#116+[#117-#116]*0.19373]
X6.32793 Y-2.62317 Z[#111+-0.04000]
#116=[#530+[#531-#530]*0.02100]
#117=[#537+[#538-#537]*0.02100]
#111=[#116+[#117-#116]*0.06164]
X6.27619 Y-2.62317 Z[#111+-0.04000]
#116=[#530+[#531-#530]*0.01995]
#117=[#537+[#538-#537]*0.01995]
#111=[#116+[#117-#116]*0.05183]
X6.27235 Y-2.62355 Z[#111+-0.04000]
#116=[#530+[#531-#530]*0.01686]
#117=[#537+[#538-#537]*0.01686]
#111=[#116+[#117-#116]*0.04241]
X6.26866 Y-2.62467 Z[#111+-0.04000]
#116=[#530+[#531-#530]*0.01183]
#117=[#537+[#538-#537]*0.01183]
#111=[#116+[#117-#116]*0.03372]
X6.26525 Y-2.62649 Z[#111+-0.04000]
#116=[#530+[#531-#530]*0.00507]
#117=[#537+[#538-#537]*0.00507]
#111=[#116+[#117-#116]*0.02610]
X6.26227 Y-2.62894 Z[#111+-0.04000]
#116=[#529+[#530-#529]*1.00000]
#117=[#536+[#537-#536]*1.00000]
#111=[#116+[#117-#116]*0.02226]
X6.26076 Y-2.63078 Z[#111+-0.04000]
#116=[#529+[#530-#529]*0.99683]
#117=[#536+[#537-#536]*0.99683]
#111=[#116+[#117-#116]*0.01986]
X6.25982 Y-2.63192 Z[#111+-0.04000]
#116=[#529+[#530-#529]*0.98744]
#117=[#536+[#537-#536]*0.98744]
#111=[#116+[#117-#116]*0.01521]
X6.25800 Y-2.63533 Z[#111+-0.04000]
#116=[#529+[#530-#529]*0.97724]
#117=[#536+[#537-#536]*0.97724]
#111=[#116+[#117-#116]*0.01235]
X6.25688 Y-2.63902 Z[#111+-0.04000]
#116=[#529+[#530-#529]*0.96663]
#117=[#536+[#537-#536]*0.96663]
#111=[#116+[#117-#116]*0.01139]
X6.25650 Y-2.64286 Z[#111+-0.04000]
G04 P0 ( dwell for no time -- G64 should not smooth over this point )
G00 Z0.08000 ( retract )

G00 X6.49508 Y-3.30000 ( rapid move to begin. )
G01 F180.00000
( Mill infeed pass 1/1 )
#116=[#528+[#529-#528]*0.15169]
#117=[#535+[#536-#535]*0.15169]
#111=[#116+[#117-#116]*0.62039]
G01 Z[-0.04000+#111]
G04 P0 ( dwell for no time -- G64 should not smooth over this point )
G01 F360.00000
#116=[#528+[#529-#528]*0.14648]
#117=[#535+[#536-#535]*0.14648]
#111=[#116+[#117-#116]*0.62135]
X6.49545 Y-3.30188 Z[#111+-0.04000]
#116=[#528+[#529-#528]*0.14208]
#117=[#535+[#536-#535]*0.14208]
#111=[#116+[#117-#116]*0.62407]
X6.49652 Y-3.30348 Z[#111+-0.04000]
#116=[#528+[#529-#528]*0.13913]
#117=[#535+[#536-#535]*0.13913]
#111=[#116+[#117-#116]*0.62815]
X6.49812 Y-3.30455 Z[#111+-0.04000]
#116=[#528+[#529-#528]*0.13809]
#117=[#535+[#536-#535]*0.13809]
#111=[#116+[#117-#116]*0.63296]
X6.50000 Y-3.30492 Z[#111+-0.04000]
#116=[#528+[#529-#528]*0.13809]
#117=[#535+[#536-#535]*0.13809]
#111=[#116+[#117-#116]*0.74803]
X6.54508 Y-3.30492 Z[#111+-0.04000]
#116=[#528+[#529-#528]*0.01359]
#117=[#535+[#536-#535]*0.01359]
#111=[#116+[#117-#116]*0.74803]
X6.54508 Y-3.35000 Z[#111+-0.04000]
#116=[#528+[#529-#528]*0.00839]
#117=[#535+[#536-#535]*0.00839]
#111=[#116+[#117-#116]*0.74899]
X6.54545 Y-3.35188 Z[#111+-0.04000]
#116=[#528+[#529-#528]*0.00398]
#117=[#535+[#536-#535]*0.00398]
#111=[#116+[#117-#116]*0.75171]
X6.54652 Y-3.35348 Z[#111+-0.04000]
#116=[#528+[#529-#528]*0.00104]
#117=[#535+[#536-#535]*0.00104]
#111=[#116+[#117-#116]*0.75578]
X6.54812 Y-3.35455 Z[#111+-0.04000]
#111=[#528+[#535-#528]*0.76059]
X6.55000 Y-3.35492 Z[#111+-0.04000]
#116=[#528+[#529-#528]*0.00104]
#117=[#535+[#536-#535]*0.00104]
#111=[#116+[#117-#116]*0.76540]
X6.55188 Y-3.35455 Z[#111+-0.04000]
#116=[#528+[#529-#528]*0.00398]
#117=[#535+[#536-#535]*0.00398]
#111=[#116+[#117-#116]*0.76947]
X6.55348 Y-3.35348 Z[#111+-0.04000]
#116=[#528+[#529-#528]*0.00839]
#117=[#535+[#536-#535]*0.00839]
#111=[#116+[#117-#116]*0.77220]
X6.55455 Y-3.35188 Z[#111+-0.04000]
#116=[#528+[#529-#528]*0.01359]
#117=[#535+[#536-#535]*0.01359]
#111=[#116+[#117-#116]*0.77315]
X6.55492 Y-3.35000 Z[#111+-0.04000]
#116=[#528+[#529-#528]*0.13809]
#117=[#535+[#536-#535]*0.13809]
#111=[#116+[#117-#116]*0.77315]
X6.55492 Y-3.30492 Z[#111+-0.04000]
#116=[#528+[#529-#528]*0.13809]
#117=[#535+[#536-#535]*0.13809]
#111=[#116+[#117-#116]*0.88823]
X6.60000 Y-3.30492 Z[#111+-0.04000]
#116=[#528+[#529-#528]*0.13913]
#117=[#535+[#536-#535]*0.13913]
#111=[#116+[#117-#116]*0.89303]
X6.60188 Y-3.30455 Z[#111+-0.04000]
#116=[#528+[#529-#528]*0.14208]
#117=[#535+[#536-#535]*0.14208]
#111=[#116+[#117-#116]*0.89711]
X6.60348 Y-3.30348 Z[#111+-0.04000]
#116=[#528+[#529-#528]*0.14648]
#117=[#535+[#536-#535]*0.14648]
#111=[#116+[#117-#116]*0.89983]
X6.60455 Y-3.30188 Z[#111+-0.04000]
#116=[#528+[#529-#528]*0.15169]
#117=[#535+[#536-#535]*0.15169]
#111=[#116+[#117-#116]*0.90079]
X6.60492 Y-3.30000 Z[#111+-0.04000]
#116=[#528+[#529-#528]*0.15689]
#117=[#535+[#536-#535]*0.15689]
#111=[#116+[#117-#116]*0.89983]
X6.60455 Y-3.29812 Z[#111+-0.04000]
#116=[#528+[#529-#528]*0.16130]
#117=[#535+[#536-#535]*0.16130]
#111=[#116+[#117-#116]*0.89711]
X6.60348 Y-3.29652 Z[#111+-0.04000]
#116=[#528+[#529-#528]*0.16424]
#117=[#535+[#536-#535]*0.16424]
#111=[#116+[#117-#116]*0.89303]
X6.60188 Y-3.29545 Z[#111+-0.04000]
#116=[#528+[#529-#528]*0.16528]
#117=[#535+[#536-#535]*0.16528]
#111=[#116+[#117-#116]*0.88823]
X6.60000 Y-3.29508 Z[#111+-0.04000]
#116=[#528+[#529-#528]*0.16528]
#117=[#535+[#536-#535]*0.16528]
#111=[#116+[#117-#116]*0.77315]
X6.55492 Y-3.29508 Z[#111+-0.04000]
#116=[#528+[#529-#528]*0.28978]
#117=[#535+[#536-#535]*0.28978]
#111=[#116+[#117-#116]*0.77315]
X6.55492 Y-3.25000 Z[#111+-0.04000]
#116=[#528+[#529-#528]*0.29498]
#117=[#535+[#536-#535]*0.29498]
#111=[#116+[#117-#116]*0.77220]
X6.55455 Y-3.24812 Z[#111+-0.04000]
#116=[#528+[#529-#528]*0.29939]
#117=[#535+[#536-#535]*0.29939]
#111=[#116+[#117-#116]*0.76947]
X6.55348 Y-3.24652 Z[#111+-0.04000]
#116=[#528+[#529-#528]*0.30234]
#117=[#535+[#536-#535]*0.30234]
#111=[#116+[#117-#116]*0.76540]
X6.55188 Y-3.24545 Z[#111+-0.04000]
#116=[#528+[#529-#528]*0.30337]
#117=[#535+[#536-#535]*0.30337]
#111=[#116+[#117-#116]*0.76059]
X6.55000 Y-3.24508 Z[#111+-0.04000]
#116=[#528+[#529-#528]*0.30234]
#117=[#535+[#536-#535]*0.30234]
#111=[#116+[#117-#116]*0.75578]
X6.54812 Y-3.24545 Z[#111+-0.04000]
#116=[#528+[#529-#528]*0.29939]
#117=[#535+[#536-#535]*0.29939]
#111=[#116+[#117-#116]*0.75171]
X6.54652 Y-3.24652 Z[#111+-0.04000]
#116=[#528+[#529-#528]*0.29498]
#117=[#535+[#536-#535]*0.29498]
#111=[#116+[#117-#116]*0.74899]
X6.54545 Y-3.24812 Z[#111+-0.04000]
#116=[#528+[#529-#528]*0.28978]
#117=[#535+[#536-#535]*0.28978]
#111=[#116+[#117-#116]*0.74803]
X6.54508 Y-3.25000 Z[#111+-0.04000]
#116=[#528+[#529-#528]*0.16528]
#117=[#535+[#536-#535]*0.16528]
#111=[#116+[#117-#116]*0.74803]
X6.54508 Y-3.29508 Z[#111+-0.04000]
#116=[#528+[#529-#528]*0.16528]
#117=[#535+[#536-#535]*0.16528]
#111=[#116+[#117-#116]*0.63296]
X6.50000 Y-3.29508 Z[#111+-0.04000]
#116=[#528+[#529-#528]*0.16424]
#117=[#535+[#536-#535]*0.16424]
#111=[#116+[#117-#116]*0.62815]
X6.49812 Y-3.29545 Z[#111+-0.04000]
#116=[#528+[#529-#528]*0.16130]
#117=[#535+[#536-#535]*0.16130]
#111=[#116+[#117-#116]*0.62407]
X6.49652 Y-3.29652 Z[#111+-0.04000]
#116=[#528+[#529-#528]*0.15689]
#117=[#535+[#536-#535]*0.15689]
#111=[#116+[#117-#116]*0.62135]
X6.49545 Y-3.29812 Z[#111+-0.04000]
#116=[#528+[#529-#528]*0.15169]
#117=[#535+[#536-#535]*0.15169]
#111=[#116+[#117-#116]*0.62039]
X6.49508 Y-3.30000 Z[#111+-0.04000]
( Piece #2, position [1;0] )

G04 P0 ( dwell for no time -- G64 should not smooth over this point )
G00 Z0.08000 ( retract )

G00 X6.85909 Y-2.97619 ( rapid move to begin. )
G01 F180.00000
( Mill infeed pass 1/1 )
#116=[#536+[#537-#536]*0.04601]
#117=[#543+[#544-#543]*0.04601]
#111=[#116+[#117-#116]*0.54961]
G01 Z[-0.04000+#111]
G04 P0 ( dwell for no time -- G64 should not smooth over this point )
G01 F360.00000
#116=[#536+[#537-#536]*1.00000]
#117=[#543+[#544-#543]*1.00000]
#111=[#116+[#117-#116]*0.54961]
X6.85909 Y-2.63078 Z[#111+-0.04000]
#116=[#537+[#538-#537]*0.42695]
#117=[#544+[#545-#544]*0.42695]
#111=[#116+[#117-#116]*0.54961]
X6.85909 Y-2.47619 Z[#111+-0.04000]
#116=[#537+[#538-#537]*0.43756]
#117=[#544+[#545-#544]*0.43756]
#111=[#116+[#117-#116]*0.55057]
X6.85947 Y-2.47235 Z[#111+-0.04000]
#116=[#537+[#538-#537]*0.44776]
#117=[#544+[#545-#544]*0.44776]
#111=[#116+[#117-#116]*0.55343]
X6.86059 Y-2.46866 Z[#111+-0.04000]
#116=[#537+[#538-#537]*0.45716]
#117=[#544+[#545-#544]*0.45716]
#111=[#116+[#117-#116]*0.55808]
X6.86241 Y-2.46525 Z[#111+-0.04000]
#116=[#537+[#538-#537]*0.46540]
#117=[#544+[#545-#544]*0.46540]
#111=[#116+[#117-#116]*0.56432]
X6.86486 Y-2.46227 Z[#111+-0.04000]
#116=[#537+[#538-#537]*0.47216]
#117=[#544+[#545-#544]*0.47216]
#111=[#116+[#117-#116]*0.57194]
X6.86784 Y-2.45982 Z[#111+-0.04000]
#116=[#537+[#538-#537]*0.47718]
#117=[#544+[#545-#544]*0.47718]
#111=[#116+[#117-#116]*0.58063]
X6.87124 Y-2.45800 Z[#111+-0.04000]
#116=[#537+[#538-#537]*0.48027]
#117=[#544+[#545-#544]*0.48027]
#111=[#116+[#117-#116]*0.59005]
X6.87493 Y-2.45688 Z[#111+-0.04000]
#116=[#537+[#538-#537]*0.48132]
#117=[#544+[#545-#544]*0.48132]
#111=[#116+[#117-#116]*0.59986]
X6.87878 Y-2.45650 Z[#111+-0.04000]
#111=[#544+[#545-#544]*0.48132]
X7.03553 Y-2.45650 Z[#111+-0.04000]
#116=[#544+[#545-#544]*0.48132]
#117=[#551+[#552-#551]*0.48132]
#111=[#116+[#117-#116]*0.20766]
X7.11688 Y-2.45650 Z[#111+-0.04000]
#116=[#544+[#545-#544]*0.48027]
#117=[#551+[#552-#551]*0.48027]
#111=[#116+[#117-#116]*0.21746]
X7.12072 Y-2.45688 Z[#111+-0.04000]
#116=[#544+[#545-#544]*0.47718]
#117=[#551+[#552-#551]*0.47718]
#111=[#116+[#117-#116]*0.22688]
X7.12441 Y-2.45800 Z[#111+-0.04000]
#116=[#544+[#545-#544]*0.47216]
#117=[#551+[#552-#551]*0.47216]
#111=[#116+[#117-#116]*0.23557]
X7.12781 Y-2.45982 Z[#111+-0.04000]
#116=[#544+[#545-#544]*0.46540]
#117=[#551+[#552-#551]*0.46540]
#111=[#116+[#117-#116]*0.24319]
X7.13079 Y-2.46227 Z[#111+-0.04000]
#116=[#544+[#545-#544]*0.45716]
#117=[#551+[#552-#551]*0.45716]
#111=[#116+[#117-#116]*0.24944]
X7.13324 Y-2.46525 Z[#111+-0.04000]
#116=[#544+[#545-#544]*0.44776]
#117=[#551+[#552-#551]*0.44776]
#111=[#116+[#117-#116]*0.25408]
X7.13506 Y-2.46866 Z[#111+-0.04000]
#116=[#544+[#545-#544]*0.43756]
#117=[#551+[#552-#551]*0.43756]
#111=[#116+[#117-#116]*0.25694]
X7.13618 Y-2.47235 Z[#111+-0.04000]
#116=[#544+[#545-#544]*0.42695]
#117=[#551+[#552-#551]*0.42695]
#111=[#116+[#117-#116]*0.25790]
X7.13656 Y-2.47619 Z[#111+-0.04000]
#116=[#544+[#545-#544]*0.41634]
#117=[#551+[#552-#551]*0.41634]
#111=[#116+[#117-#116]*0.25694]
X7.13618 Y-2.48003 Z[#111+-0.04000]
#116=[#544+[#545-#544]*0.40614]
#117=[#551+[#552-#551]*0.40614]
#111=[#116+[#117-#116]*0.25408]
X7.13506 Y-2.48372 Z[#111+-0.04000]
#116=[#544+[#545-#544]*0.39675]
#117=[#551+[#552-#551]*0.39675]
#111=[#116+[#117-#116]*0.24944]
X7.13324 Y-2.48713 Z[#111+-0.04000]
#116=[#544+[#545-#544]*0.38851]
#117=[#551+[#552-#551]*0.38851]
#111=[#116+[#117-#116]*0.24319]
X7.13079 Y-2.49011 Z[#111+-0.04000]
#116=[#544+[#545-#544]*0.38175]
#117=[#551+[#552-#551]*0.38175]
#111=[#116+[#117-#116]*0.23557]
X7.12781 Y-2.49256 Z[#111+-0.04000]
#116=[#544+[#545-#544]*0.37672]
#117=[#551+[#552-#551]*0.37672]
#111=[#116+[#117-#116]*0.22688]
X7.12441 Y-2.49438 Z[#111+-0.04000]
#116=[#544+[#545-#544]*0.37363]
#117=[#551+[#552-#551]*0.37363]
#111=[#116+[#117-#116]*0.21746]
X7.12072 Y-2.49550 Z[#111+-0.04000]
#116=[#544+[#545-#544]*0.37258]
#117=[#551+[#552-#551]*0.37258]
#111=[#116+[#117-#116]*0.20766]
X7.11688 Y-2.49587 Z[#111+-0.04000]
#111=[#544+[#545-#544]*0.37258]
X7.03553 Y-2.49587 Z[#111+-0.04000]
#116=[#537+[#538-#537]*0.37258]
#117=[#544+[#545-#544]*0.37258]
#111=[#116+[#117-#116]*0.65011]
X6.89846 Y-2.49587 Z[#111+-0.04000]
#116=[#536+[#537-#536]*1.00000]
#117=[#543+[#544-#543]*1.00000]
#111=[#116+[#117-#116]*0.65011]
X6.89846 Y-2.63078 Z[#111+-0.04000]
#116=[#536+[#537-#536]*0.82374]
#117=[#543+[#544-#543]*0.82374]
#111=[#116+[#117-#116]*0.65011]
X6.89846 Y-2.69459 Z[#111+-0.04000]
#111=[#543+[#544-#543]*0.82374]
X7.03553 Y-2.69459 Z[#111+-0.04000]
#116=[#543+[#544-#543]*0.82374]
#117=[#550+[#551-#550]*0.82374]
#111=[#116+[#117-#116]*0.02532]
X7.04545 Y-2.69459 Z[#111+-0.04000]
#116=[#543+[#544-#543]*0.82270]
#117=[#550+[#551-#550]*0.82270]
#111=[#116+[#117-#116]*0.03512]
X7.04929 Y-2.69497 Z[#111+-0.04000]
#116=[#543+[#544-#543]*0.81960]
#117=[#550+[#551-#550]*0.81960]
#111=[#116+[#117-#116]*0.04455]
X7.05298 Y-2.69609 Z[#111+-0.04000]
#116=[#543+[#544-#543]*0.81458]
#117=[#550+[#551-#550]*0.81458]
#111=[#116+[#117-#116]*0.05323]
X7.05638 Y-2.69791 Z[#111+-0.04000]
#116=[#543+[#544-#543]*0.80782]
#117=[#550+[#551-#550]*0.80782]
#111=[#116+[#117-#116]*0.06085]
X7.05936 Y-2.70036 Z[#111+-0.04000]
#116=[#543+[#544-#543]*0.79958]
#117=[#550+[#551-#550]*0.79958]
#111=[#116+[#117-#116]*0.06710]
X7.06181 Y-2.70334 Z[#111+-0.04000]
#116=[#543+[#544-#543]*0.79018]
#117=[#550+[#551-#550]*0.79018]
#111=[#116+[#117-#116]*0.07174]
X7.06363 Y-2.70675 Z[#111+-0.04000]
#116=[#543+[#544-#543]*0.77998]
#117=[#550+[#551-#550]*0.77998]
#111=[#116+[#117-#116]*0.07460]
X7.06475 Y-2.71044 Z[#111+-0.04000]
#116=[#543+[#544-#543]*0.76937]
#117=[#550+[#551-#550]*0.76937]
#111=[#116+[#117-#116]*0.07557]
X7.06513 Y-2.71428 Z[#111+-0.04000]
#116=[#543+[#544-#543]*0.75877]
#117=[#550+[#551-#550]*0.75877]
#111=[#116+[#117-#116]*0.07460]
X7.06475 Y-2.71812 Z[#111+-0.04000]
#116=[#543+[#544-#543]*0.74857]
#117=[#550+[#551-#550]*0.74857]
#111=[#116+[#117-#116]*0.07174]
X7.06363 Y-2.72181 Z[#111+-0.04000]
#116=[#543+[#544-#543]*0.73917]
#117=[#550+[#551-#550]*0.73917]
#111=[#116+[#117-#116]*0.06710]
X7.06181 Y-2.72522 Z[#111+-0.04000]
#116=[#543+[#544-#543]*0.73093]
#117=[#550+[#551-#550]*0.73093]
#111=[#116+[#117-#116]*0.06085]
X7.05936 Y-2.72820 Z[#111+-0.04000]
#116=[#543+[#544-#543]*0.72417]
#117=[#550+[#551-#550]*0.72417]
#111=[#116+[#117-#116]*0.05323]
X7.05638 Y-2.73065 Z[#111+-0.04000]
#116=[#543+[#544-#543]*0.71915]
#117=[#550+[#551-#550]*0.71915]
#111=[#116+[#117-#116]*0.04455]
X7.05298 Y-2.73247 Z[#111+-0.04000]
#116=[#543+[#544-#543]*0.71605]
#117=[#550+[#551-#550]*0.71605]
#111=[#116+[#117-#116]*0.03512]
X7.04929 Y-2.73359 Z[#111+-0.04000]
#116=[#543+[#544-#543]*0.71501]
#117=[#550+[#551-#550]*0.71501]
#111=[#116+[#117-#116]*0.02532]
X7.04545 Y-2.73396 Z[#111+-0.04000]
#111=[#543+[#544-#543]*0.71501]
X7.03553 Y-2.73396 Z[#111+-0.04000]
#116=[#536+[#537-#536]*0.71501]
#117=[#543+[#544-#543]*0.71501]
#111=[#116+[#117-#116]*0.65011]
X6.89846 Y-2.73396 Z[#111+-0.04000]
#116=[#536+[#537-#536]*0.04601]
#117=[#543+[#544-#543]*0.04601]
#111=[#116+[#117-#116]*0.65011]
X6.89846 Y-2.97619 Z[#111+-0.04000]
#116=[#536+[#537-#536]*0.03540]
#117=[#543+[#544-#543]*0.03540]
#111=[#116+[#117-#116]*0.64914]
X6.89808 Y-2.98003 Z[#111+-0.04000]
#116=[#536+[#537-#536]*0.02520]
#117=[#543+[#544-#543]*0.02520]
#111=[#116+[#117-#116]*0.64628]
X6.89696 Y-2.98372 Z[#111+-0.04000]
#116=[#536+[#537-#536]*0.01581]
#117=[#543+[#544-#543]*0.01581]
#111=[#116+[#117-#116]*0.64164]
X6.89514 Y-2.98713 Z[#111+-0.04000]
#116=[#536+[#537-#536]*0.00757]
#117=[#543+[#544-#543]*0.00757]
#111=[#116+[#117-#116]*0.63539]
X6.89269 Y-2.99011 Z[#111+-0.04000]
#116=[#536+[#537-#536]*0.00081]
#117=[#543+[#544-#543]*0.00081]
#111=[#116+[#117-#116]*0.62777]
X6.88971 Y-2.99256 Z[#111+-0.04000]
#116=[#536+[#537-#536]*0.00000]
#117=[#543+[#544-#543]*0.00000]
#111=[#116+[#117-#116]*0.62638]
X6.88917 Y-2.99285 Z[#111+-0.04000]
#116=[#535+[#536-#535]*0.99578]
#117=[#542+[#543-#542]*0.99578]
#111=[#116+[#117-#116]*0.61909]
X6.88631 Y-2.99438 Z[#111+-0.04000]
#116=[#535+[#536-#535]*0.99269]
#117=[#542+[#543-#542]*0.99269]
#111=[#116+[#117-#116]*0.60966]
X6.88262 Y-2.99550 Z[#111+-0.04000]
#116=[#535+[#536-#535]*0.99164]
#117=[#542+[#543-#542]*0.99164]
#111=[#116+[#117-#116]*0.59986]
X6.87878 Y-2.99587 Z[#111+-0.04000]
#116=[#535+[#536-#535]*0.99269]
#117=[#542+[#543-#542]*0.99269]
#111=[#116+[#117-#116]*0.59005]
X6.87493 Y-2.99550 Z[#111+-0.04000]
#116=[#535+[#536-#535]*0.99578]
#117=[#542+[#543-#542]*0.99578]
#111=[#116+[#117-#116]*0.58063]
X6.87124 Y-2.99438 Z[#111+-0.04000]
#116=[#536+[#537-#536]*0.00000]
#117=[#543+[#544-#543]*0.00000]
#111=[#116+[#117-#116]*0.57333]
X6.86838 Y-2.99285 Z[#111+-0.04000]
#116=[#536+[#537-#536]*0.00081]
#117=[#543+[#544-#543]*0.00081]
#111=[#116+[#117-#116]*0.57194]
X6.86784 Y-2.99256 Z[#111+-0.04000]
#116=[#536+[#537-#536]*0.00757]
#117=[#543+[#544-#543]*0.00757]
#111=[#116+[#117-#116]*0.56432]
X6.86486 Y-2.99011 Z[#111+-0.04000]
#116=[#536+[#537-#536]*0.01581]
#117=[#543+[#544-#543]*0.01581]
#111=[#116+[#117-#116]*0.55808]
X6.86241 Y-2.98713 Z[#111+-0.04000]
#116=[#536+[#537-#536]*0.02520]
#117=[#543+[#544-#543]*0.02520]
#111=[#116+[#117-#116]*0.55343]
X6.86059 Y-2.98372 Z[#111+-0.04000]
#116=[#536+[#537-#536]*0.03540]
#117=[#543+[#544-#543]*0.03540]
#111=[#116+[#117-#116]*0.55057]
X6.85947 Y-2.98003 Z[#111+-0.04000]
#116=[#536+[#537-#536]*0.04601]
#117=[#543+[#544-#543]*0.04601]
#111=[#116+[#117-#116]*0.54961]
X6.85909 Y-2.97619 Z[#111+-0.04000]
G04 P0 ( dwell for no time -- G64 should not smooth over this point )
G00 Z0.08000 ( retract )

G00 X7.28766 Y-2.97619 ( rapid move to begin. )
G01 F180.00000
( Mill infeed pass 1/1 )
#116=[#543+[#544-#543]*0.04601]
#117=[#550+[#551-#550]*0.04601]
#111=[#116+[#117-#116]*0.64362]
G01 Z[-0.04000+#111]
G04 P0 ( dwell for no time -- G64 should not smooth over this point )
G01 F360.00000
#116=[#543+[#544-#543]*0.96663]
#117=[#550+[#551-#550]*0.96663]
#111=[#116+[#117-#116]*0.64362]
X7.28766 Y-2.64286 Z[#111+-0.04000]
#116=[#543+[#544-#543]*0.97724]
#117=[#550+[#551-#550]*0.97724]
#111=[#116+[#117-#116]*0.64458]
X7.28804 Y-2.63902 Z[#111+-0.04000]
#116=[#543+[#544-#543]*0.98744]
#117=[#550+[#551-#550]*0.98744]
#111=[#116+[#117-#116]*0.64744]
X7.28916 Y-2.63533 Z[#111+-0.04000]
#116=[#543+[#544-#543]*0.99683]
#117=[#550+[#551-#550]*0.99683]
#111=[#116+[#117-#116]*0.65208]
X7.29098 Y-2.63192 Z[#111+-0.04000]
#116=[#543+[#544-#543]*1.00000]
#117=[#550+[#551-#550]*1.00000]
#111=[#116+[#117-#116]*0.65449]
X7.29192 Y-2.63078 Z[#111+-0.04000]
#116=[#544+[#545-#544]*0.00507]
#117=[#551+[#552-#551]*0.00507]
#111=[#116+[#117-#116]*0.65833]
X7.29343 Y-2.62894 Z[#111+-0.04000]
#116=[#544+[#545-#544]*0.01183]
#117=[#551+[#552-#551]*0.01183]
#111=[#116+[#117-#116]*0.66595]
X7.29641 Y-2.62649 Z[#111+-0.04000]
#116=[#544+[#545-#544]*0.01686]
#117=[#551+[#552-#551]*0.01686]
#111=[#116+[#117-#116]*0.67464]
X7.29981 Y-2.62467 Z[#111+-0.04000]
#116=[#544+[#545-#544]*0.01995]
#117=[#551+[#552-#551]*0.01995]
#111=[#116+[#117-#116]*0.68406]
X7.30350 Y-2.62355 Z[#111+-0.04000]
#116=[#544+[#545-#544]*0.02100]
#117=[#551+[#552-#551]*0.02100]
#111=[#116+[#117-#116]*0.69387]
X7.30735 Y-2.62317 Z[#111+-0.04000]
#116=[#544+[#545-#544]*0.01995]
#117=[#551+[#552-#551]*0.01995]
#111=[#116+[#117-#116]*0.70367]
X7.31119 Y-2.62355 Z[#111+-0.04000]
#116=[#544+[#545-#544]*0.01686]
#117=[#551+[#552-#551]*0.01686]
#111=[#116+[#117-#116]*0.71310]
X7.31488 Y-2.62467 Z[#111+-0.04000]
#116=[#544+[#545-#544]*0.01183]
#117=[#551+[#552-#551]*0.01183]
#111=[#116+[#117-#116]*0.72178]
X7.31828 Y-2.62649 Z[#111+-0.04000]
#116=[#544+[#545-#544]*0.00507]
#117=[#551+[#552-#551]*0.00507]
#111=[#116+[#117-#116]*0.72940]
X7.32126 Y-2.62894 Z[#111+-0.04000]
#116=[#543+[#544-#543]*1.00000]
#117=[#550+[#551-#550]*1.00000]
#111=[#116+[#117-#116]*0.73325]
X7.32277 Y-2.63078 Z[#111+-0.04000]
#116=[#543+[#544-#543]*0.99683]
#117=[#550+[#551-#550]*0.99683]
#111=[#116+[#117-#116]*0.73565]
X7.32371 Y-2.63192 Z[#111+-0.04000]
#116=[#543+[#544-#543]*0.98744]
#117=[#550+[#551-#550]*0.98744]
#111=[#116+[#117-#116]*0.74029]
X7.32553 Y-2.63533 Z[#111+-0.04000]
#116=[#543+[#544-#543]*0.97724]
#117=[#550+[#551-#550]*0.97724]
#111=[#116+[#117-#116]*0.74315]
X7.32665 Y-2.63902 Z[#111+-0.04000]
#116=[#543+[#544-#543]*0.96663]
#117=[#550+[#551-#550]*0.96663]
#111=[#116+[#117-#116]*0.74412]
X7.32703 Y-2.64286 Z[#111+-0.04000]
#116=[#543+[#544-#543]*0.90060]
#117=[#550+[#551-#550]*0.90060]
#111=[#116+[#117-#116]*0.74412]
X7.32703 Y-2.66677 Z[#111+-0.04000]
#116=[#543+[#544-#543]*0.93931]
#117=[#550+[#551-#550]*0.93931]
#111=[#116+[#117-#116]*0.77989]
X7.34105 Y-2.65275 Z[#111+-0.04000]
#116=[#543+[#544-#543]*0.94497]
#117=[#550+[#551-#550]*0.94497]
#111=[#116+[#117-#116]*0.78604]
X7.34345 Y-2.65070 Z[#111+-0.04000]
#116=[#543+[#544-#543]*0.94950]
#117=[#550+[#551-#550]*0.94950]
#111=[#116+[#117-#116]*0.79295]
X7.34616 Y-2.64906 Z[#111+-0.04000]
#116=[#543+[#544-#543]*1.00000]
#117=[#550+[#551-#550]*1.00000]
#111=[#116+[#117-#116]*0.88631]
X7.38273 Y-2.63078 Z[#111+-0.04000]
#116=[#544+[#545-#544]*0.01526]
#117=[#551+[#552-#551]*0.01526]
#111=[#116+[#117-#116]*0.91451]
X7.39378 Y-2.62525 Z[#111+-0.04000]
#116=[#544+[#545-#544]*0.01954]
#117=[#551+[#552-#551]*0.01954]
#111=[#116+[#117-#116]*0.92544]
X7.39806 Y-2.62370 Z[#111+-0.04000]
#116=[#544+[#545-#544]*0.02100]
#117=[#551+[#552-#551]*0.02100]
#111=[#116+[#117-#116]*0.93699]
X7.40259 Y-2.62317 Z[#111+-0.04000]
#116=[#551+[#552-#551]*0.02100]
#117=[#558+[#559-#558]*0.02100]
#111=[#116+[#117-#116]*0.00000]
X7.42727 Y-2.62317 Z[#111+-0.04000]
#116=[#551+[#552-#551]*0.02100]
#117=[#558+[#559-#558]*0.02100]
#111=[#116+[#117-#116]*0.05855]
X7.45021 Y-2.62317 Z[#111+-0.04000]
#116=[#551+[#552-#551]*0.01995]
#117=[#558+[#559-#558]*0.01995]
#111=[#116+[#117-#116]*0.06835]
X7.45405 Y-2.62355 Z[#111+-0.04000]
#116=[#551+[#552-#551]*0.01686]
#117=[#558+[#559-#558]*0.01686]
#111=[#116+[#117-#116]*0.07778]
X7.45774 Y-2.62467 Z[#111+-0.04000]
#116=[#551+[#552-#551]*0.01183]
#117=[#558+[#559-#558]*0.01183]
#111=[#116+[#117-#116]*0.08646]
X7.46114 Y-2.62649 Z[#111+-0.04000]
#116=[#551+[#552-#551]*0.00507]
#117=[#558+[#559-#558]*0.00507]
#111=[#116+[#117-#116]*0.09408]
X7.46412 Y-2.62894 Z[#111+-0.04000]
#116=[#550+[#551-#550]*1.00000]
#117=[#557+[#558-#557]*1.00000]
#111=[#116+[#117-#116]*0.09792]
X7.46563 Y-2.63078 Z[#111+-0.04000]
#116=[#550+[#551-#550]*0.99683]
#117=[#557+[#558-#557]*0.99683]
#111=[#116+[#117-#116]*0.10033]
X7.46657 Y-2.63192 Z[#111+-0.04000]
#116=[#550+[#551-#550]*0.98744]
#117=[#557+[#558-#557]*0.98744]
#111=[#116+[#117-#116]*0.10497]
X7.46839 Y-2.63533 Z[#111+-0.04000]
#116=[#550+[#551-#550]*0.97724]
#117=[#557+[#558-#557]*0.97724]
#111=[#116+[#117-#116]*0.10783]
X7.46951 Y-2.63902 Z[#111+-0.04000]
#116=[#550+[#551-#550]*0.96663]
#117=[#557+[#558-#557]*0.96663]
#111=[#116+[#117-#116]*0.10880]
X7.46989 Y-2.64286 Z[#111+-0.04000]
#116=[#550+[#551-#550]*0.95602]
#117=[#557+[#558-#557]*0.95602]
#111=[#116+[#117-#116]*0.10783]
X7.46951 Y-2.64670 Z[#111+-0.04000]
#116=[#550+[#551-#550]*0.94582]
#117=[#557+[#558-#557]*0.94582]
#111=[#116+[#117-#116]*0.10497]
X7.46839 Y-2.65039 Z[#111+-0.04000]
#116=[#550+[#551-#550]*0.93642]
#117=[#557+[#558-#557]*0.93642]
#111=[#116+[#117-#116]*0.10033]
X7.46657 Y-2.65380 Z[#111+-0.04000]
#116=[#550+[#551-#550]*0.92818]
#117=[#557+[#558-#557]*0.92818]
#111=[#116+[#117-#116]*0.09408]
X7.46412 Y-2.65678 Z[#111+-0.04000]
#116=[#550+[#551-#550]*0.92142]
#117=[#557+[#558-#557]*0.92142]
#111=[#116+[#117-#116]*0.08646]
X7.46114 Y-2.65923 Z[#111+-0.04000]
#116=[#550+[#551-#550]*0.91640]
#117=[#557+[#558-#557]*0.91640]
#111=[#116+[#117-#116]*0.07778]
X7.45774 Y-2.66105 Z[#111+-0.04000]
#116=[#550+[#551-#550]*0.91331]
#117=[#557+[#558-#557]*0.91331]
#111=[#116+[#117-#116]*0.06835]
X7.45405 Y-2.66217 Z[#111+-0.04000]
#116=[#550+[#551-#550]*0.91226]
#117=[#557+[#558-#557]*0.91226]
#111=[#116+[#117-#116]*0.05855]
X7.45021 Y-2.66255 Z[#111+-0.04000]
#116=[#550+[#551-#550]*0.91226]
#117=[#557+[#558-#557]*0.91226]
#111=[#116+[#117-#116]*0.00000]
X7.42727 Y-2.66255 Z[#111+-0.04000]
#116=[#543+[#544-#543]*0.91226]
#117=[#550+[#551-#550]*0.91226]
#111=[#116+[#117-#116]*0.94885]
X7.40723 Y-2.66255 Z[#111+-0.04000]
#116=[#543+[#544-#543]*0.85619]
#117=[#550+[#551-#550]*0.85619]
#111=[#116+[#117-#116]*0.84519]
X7.36663 Y-2.68285 Z[#111+-0.04000]
#116=[#543+[#544-#543]*0.80290]
#117=[#550+[#551-#550]*0.80290]
#111=[#116+[#117-#116]*0.79594]
X7.34733 Y-2.70214 Z[#111+-0.04000]
#116=[#543+[#544-#543]*0.69078]
#117=[#550+[#551-#550]*0.69078]
#111=[#116+[#117-#116]*0.74412]
X7.32703 Y-2.74274 Z[#111+-0.04000]
#116=[#543+[#544-#543]*0.04601]
#117=[#550+[#551-#550]*0.04601]
#111=[#116+[#117-#116]*0.74412]
X7.32703 Y-2.97619 Z[#111+-0.04000]
#116=[#543+[#544-#543]*0.03540]
#117=[#550+[#551-#550]*0.03540]
#111=[#116+[#117-#116]*0.74315]
X7.32665 Y-2.98003 Z[#111+-0.04000]
#116=[#543+[#544-#543]*0.02520]
#117=[#550+[#551-#550]*0.02520]
#111=[#116+[#117-#116]*0.74029]
X7.32553 Y-2.98372 Z[#111+-0.04000]
#116=[#543+[#544-#543]*0.01581]
#117=[#550+[#551-#550]*0.01581]
#111=[#116+[#117-#116]*0.73565]
X7.32371 Y-2.98713 Z[#111+-0.04000]
#116=[#543+[#544-#543]*0.00757]
#117=[#550+[#551-#550]*0.00757]
#111=[#116+[#117-#116]*0.72940]
X7.32126 Y-2.99011 Z[#111+-0.04000]
#116=[#543+[#544-#543]*0.00081]
#117=[#550+[#551-#550]*0.00081]
#111=[#116+[#117-#116]*0.72178]
X7.31828 Y-2.99256 Z[#111+-0.04000]
#116=[#543+[#544-#543]*0.00000]
#117=[#550+[#551-#550]*0.00000]
#111=[#116+[#117-#116]*0.72039]
X7.31774 Y-2.99285 Z[#111+-0.04000]
#116=[#542+[#543-#542]*0.99578]
#117=[#549+[#550-#549]*0.99578]
#111=[#116+[#117-#116]*0.71310]
X7.31488 Y-2.99438 Z[#111+-0.04000]
#116=[#542+[#543-#542]*0.99269]
#117=[#549+[#550-#549]*0.99269]
#111=[#116+[#117-#116]*0.70367]
X7.31119 Y-2.99550 Z[#111+-0.04000]
#116=[#542+[#543-#542]*0.99164]
#117=[#549+[#550-#549]*0.99164]
#111=[#116+[#117-#116]*0.69387]
X7.30735 Y-2.99587 Z[#111+-0.04000]
#116=[#542+[#543-#542]*0.99269]
#117=[#549+[#550-#549]*0.99269]
#111=[#116+[#117-#116]*0.68406]
X7.30350 Y-2.99550 Z[#111+-0.04000]
#116=[#542+[#543-#542]*0.99578]
#117=[#549+[#550-#549]*0.99578]
#111=[#116+[#117-#116]*0.67464]
X7.29981 Y-2.99438 Z[#111+-0.04000]
#116=[#543+[#544-#543]*0.00000]
#117=[#550+[#551-#550]*0.00000]
#111=[#116+[#117-#116]*0.66734]
X7.29695 Y-2.99285 Z[#111+-0.04000]
#116=[#543+[#544-#543]*0.00081]
#117=[#550+[#551-#550]*0.00081]
#111=[#116+[#117-#116]*0.66595]
X7.29641 Y-2.99256 Z[#111+-0.04000]
#116=[#543+[#544-#543]*0.00757]
#117=[#550+[#551-#550]*0.00757]
#111=[#116+[#117-#116]*0.65833]
X7.29343 Y-2.99011 Z[#111+-0.04000]
#116=[#543+[#544-#543]*0.01581]
#117=[#550+[#551-#550]*0.01581]
#111=[#116+[#117-#116]*0.65208]
X7.29098 Y-2.98713 Z[#111+-0.04000]
#116=[#543+[#544-#543]*0.02520]
#117=[#550+[#551-#550]*0.02520]
#111=[#116+[#117-#116]*0.64744]
X7.28916 Y-2.98372 Z[#111+-0.04000]
#116=[#543+[#544-#543]*0.03540]
#117=[#550+[#551-#550]*0.03540]
#111=[#116+[#117-#116]*0.64458]
X7.28804 Y-2.98003 Z[#111+-0.04000]
#116=[#543+[#544-#543]*0.04601]
#117=[#550+[#551-#550]*0.04601]
#111=[#116+[#117-#116]*0.64362]
X7.28766 Y-2.97619 Z[#111+-0.04000]
G04 P0 ( dwell for no time -- G64 should not smooth over this point )
G00 Z0.08000 ( retract )

G00 X7.57338 Y-2.88095 ( rapid move to begin. )
G01 F180.00000
( Mill infeed pass 1/1 )
#116=[#550+[#551-#550]*0.30905]
#117=[#557+[#558-#557]*0.30905]
#111=[#116+[#117-#116]*0.37297]
G01 Z[-0.04000+#111]
G04 P0 ( dwell for no time -- G64 should not smooth over this point )
G01 F360.00000
#116=[#550+[#551-#550]*0.70361]
#117=[#557+[#558-#557]*0.70361]
#111=[#116+[#117-#116]*0.37297]
X7.57338 Y-2.73809 Z[#111+-0.04000]
#116=[#550+[#551-#550]*0.71611]
#117=[#557+[#558-#557]*0.71611]
#111=[#116+[#117-#116]*0.37432]
X7.57391 Y-2.73357 Z[#111+-0.04000]
#116=[#550+[#551-#550]*0.72793]
#117=[#557+[#558-#557]*0.72793]
#111=[#116+[#117-#116]*0.37828]
X7.57546 Y-2.72928 Z[#111+-0.04000]
#116=[#550+[#551-#550]*0.85943]
#117=[#557+[#558-#557]*0.85943]
#111=[#116+[#117-#116]*0.43906]
X7.59927 Y-2.68167 Z[#111+-0.04000]
#116=[#550+[#551-#550]*0.86690]
#117=[#557+[#558-#557]*0.86690]
#111=[#116+[#117-#116]*0.44324]
X7.60091 Y-2.67897 Z[#111+-0.04000]
#116=[#550+[#551-#550]*0.87355]
#117=[#557+[#558-#557]*0.87355]
#111=[#116+[#117-#116]*0.44847]
X7.60296 Y-2.67656 Z[#111+-0.04000]
#116=[#550+[#551-#550]*0.93931]
#117=[#557+[#558-#557]*0.93931]
#111=[#116+[#117-#116]*0.50925]
X7.62677 Y-2.65275 Z[#111+-0.04000]
#116=[#550+[#551-#550]*0.94497]
#117=[#557+[#558-#557]*0.94497]
#111=[#116+[#117-#116]*0.51540]
X7.62917 Y-2.65070 Z[#111+-0.04000]
#116=[#550+[#551-#550]*0.94950]
#117=[#557+[#558-#557]*0.94950]
#111=[#116+[#117-#116]*0.52231]
X7.63188 Y-2.64906 Z[#111+-0.04000]
#116=[#550+[#551-#550]*1.00000]
#117=[#557+[#558-#557]*1.00000]
#111=[#116+[#117-#116]*0.61567]
X7.66845 Y-2.63078 Z[#111+-0.04000]
#116=[#551+[#552-#551]*0.01526]
#117=[#558+[#559-#558]*0.01526]
#111=[#116+[#117-#116]*0.64387]
X7.67950 Y-2.62525 Z[#111+-0.04000]
#116=[#551+[#552-#551]*0.01954]
#117=[#558+[#559-#558]*0.01954]
#111=[#116+[#117-#116]*0.65480]
X7.68378 Y-2.62370 Z[#111+-0.04000]
#116=[#551+[#552-#551]*0.02100]
#117=[#558+[#559-#558]*0.02100]
#111=[#116+[#117-#116]*0.66634]
X7.68831 Y-2.62317 Z[#111+-0.04000]
#116=[#551+[#552-#551]*0.02100]
#117=[#558+[#559-#558]*0.02100]
#111=[#116+[#117-#116]*0.84866]
X7.75973 Y-2.62317 Z[#111+-0.04000]
#116=[#551+[#552-#551]*0.01954]
#117=[#558+[#559-#558]*0.01954]
#111=[#116+[#117-#116]*0.86020]
X7.76425 Y-2.62370 Z[#111+-0.04000]
#116=[#551+[#552-#551]*0.01526]
#117=[#558+[#559-#558]*0.01526]
#111=[#116+[#117-#116]*0.87113]
X7.76853 Y-2.62525 Z[#111+-0.04000]
#116=[#550+[#551-#550]*1.00000]
#117=[#557+[#558-#557]*1.00000]
#111=[#116+[#117-#116]*0.89933]
X7.77958 Y-2.63078 Z[#111+-0.04000]
#116=[#550+[#551-#550]*0.94950]
#117=[#557+[#558-#557]*0.94950]
#111=[#116+[#117-#116]*0.99269]
X7.81615 Y-2.64906 Z[#111+-0.04000]
#116=[#550+[#551-#550]*0.94497]
#117=[#557+[#558-#557]*0.94497]
#111=[#116+[#117-#116]*0.99960]
X7.81886 Y-2.65070 Z[#111+-0.04000]
#116=[#557+[#558-#557]*0.94460]
#117=[#564+[#565-#564]*0.94460]
#111=[#116+[#117-#116]*0.00000]
X7.81901 Y-2.65083 Z[#111+-0.04000]
#116=[#557+[#558-#557]*0.93931]
#117=[#564+[#565-#564]*0.93931]
#111=[#116+[#117-#116]*0.00575]
X7.82126 Y-2.65275 Z[#111+-0.04000]
#116=[#557+[#558-#557]*0.87355]
#117=[#564+[#565-#564]*0.87355]
#111=[#116+[#117-#116]*0.06653]
X7.84507 Y-2.67656 Z[#111+-0.04000]
#116=[#557+[#558-#557]*0.86690]
#117=[#564+[#565-#564]*0.86690]
#111=[#116+[#117-#116]*0.07176]
X7.84712 Y-2.67897 Z[#111+-0.04000]
#116=[#557+[#558-#557]*0.85943]
#117=[#564+[#565-#564]*0.85943]
#111=[#116+[#117-#116]*0.07594]
X7.84876 Y-2.68167 Z[#111+-0.04000]
#116=[#557+[#558-#557]*0.72793]
#117=[#564+[#565-#564]*0.72793]
#111=[#116+[#117-#116]*0.13672]
X7.87257 Y-2.72928 Z[#111+-0.04000]
#116=[#557+[#558-#557]*0.71611]
#117=[#564+[#565-#564]*0.71611]
#111=[#116+[#117-#116]*0.14068]
X7.87412 Y-2.73357 Z[#111+-0.04000]
#116=[#557+[#558-#557]*0.70361]
#117=[#564+[#565-#564]*0.70361]
#111=[#116+[#117-#116]*0.14203]
X7.87465 Y-2.73809 Z[#111+-0.04000]
#116=[#557+[#558-#557]*0.30905]
#117=[#564+[#565-#564]*0.30905]
#111=[#116+[#117-#116]*0.14203]
X7.87465 Y-2.88095 Z[#111+-0.04000]
#116=[#557+[#558-#557]*0.29656]
#117=[#564+[#565-#564]*0.29656]
#111=[#116+[#117-#116]*0.14068]
X7.87412 Y-2.88547 Z[#111+-0.04000]
#116=[#557+[#558-#557]*0.28474]
#117=[#564+[#565-#564]*0.28474]
#111=[#116+[#117-#116]*0.13672]
X7.87257 Y-2.88975 Z[#111+-0.04000]
#116=[#557+[#558-#557]*0.15322]
#117=[#564+[#565-#564]*0.15322]
#111=[#116+[#117-#116]*0.07594]
X7.84876 Y-2.93737 Z[#111+-0.04000]
#116=[#557+[#558-#557]*0.14574]
#117=[#564+[#565-#564]*0.14574]
#111=[#116+[#117-#116]*0.07176]
X7.84712 Y-2.94008 Z[#111+-0.04000]
#116=[#557+[#558-#557]*0.13909]
#117=[#564+[#565-#564]*0.13909]
#111=[#116+[#117-#116]*0.06653]
X7.84507 Y-2.94249 Z[#111+-0.04000]
#116=[#557+[#558-#557]*0.07333]
#117=[#564+[#565-#564]*0.07333]
#111=[#116+[#117-#116]*0.00575]
X7.82126 Y-2.96630 Z[#111+-0.04000]
#116=[#557+[#558-#557]*0.06804]
#117=[#564+[#565-#564]*0.06804]
#111=[#116+[#117-#116]*0.00000]
X7.81901 Y-2.96821 Z[#111+-0.04000]
#116=[#550+[#551-#550]*0.06767]
#117=[#557+[#558-#557]*0.06767]
#111=[#116+[#117-#116]*0.99960]
X7.81886 Y-2.96835 Z[#111+-0.04000]
#116=[#550+[#551-#550]*0.06314]
#117=[#557+[#558-#557]*0.06314]
#111=[#116+[#117-#116]*0.99269]
X7.81615 Y-2.96999 Z[#111+-0.04000]
#116=[#550+[#551-#550]*0.00000]
#117=[#557+[#558-#557]*0.00000]
#111=[#116+[#117-#116]*0.87596]
X7.77042 Y-2.99285 Z[#111+-0.04000]
#116=[#549+[#550-#549]*0.99738]
#117=[#556+[#557-#556]*0.99738]
#111=[#116+[#117-#116]*0.87113]
X7.76853 Y-2.99380 Z[#111+-0.04000]
#116=[#549+[#550-#549]*0.99310]
#117=[#556+[#557-#556]*0.99310]
#111=[#116+[#117-#116]*0.86020]
X7.76425 Y-2.99535 Z[#111+-0.04000]
#116=[#549+[#550-#549]*0.99164]
#117=[#556+[#557-#556]*0.99164]
#111=[#116+[#117-#116]*0.84866]
X7.75973 Y-2.99587 Z[#111+-0.04000]
#116=[#549+[#550-#549]*0.99164]
#117=[#556+[#557-#556]*0.99164]
#111=[#116+[#117-#116]*0.66634]
X7.68831 Y-2.99587 Z[#111+-0.04000]
#116=[#549+[#550-#549]*0.99310]
#117=[#556+[#557-#556]*0.99310]
#111=[#116+[#117-#116]*0.65480]
X7.68378 Y-2.99535 Z[#111+-0.04000]
#116=[#549+[#550-#549]*0.99738]
#117=[#556+[#557-#556]*0.99738]
#111=[#116+[#117-#116]*0.64387]
X7.67950 Y-2.99380 Z[#111+-0.04000]
#116=[#550+[#551-#550]*0.00000]
#117=[#557+[#558-#557]*0.00000]
#111=[#116+[#117-#116]*0.63903]
X7.67761 Y-2.99285 Z[#111+-0.04000]
#116=[#550+[#551-#550]*0.06314]
#117=[#557+[#558-#557]*0.06314]
#111=[#116+[#117-#116]*0.52231]
X7.63188 Y-2.96999 Z[#111+-0.04000]
#116=[#550+[#551-#550]*0.06767]
#117=[#557+[#558-#557]*0.06767]
#111=[#116+[#117-#116]*0.51540]
X7.62917 Y-2.96835 Z[#111+-0.04000]
#116=[#550+[#551-#550]*0.07333]
#117=[#557+[#558-#557]*0.07333]
#111=[#116+[#117-#116]*0.50925]
X7.62677 Y-2.96630 Z[#111+-0.04000]
#116=[#550+[#551-#550]*0.13909]
#117=[#557+[#558-#557]*0.13909]
#111=[#116+[#117-#116]*0.44847]
X7.60296 Y-2.94249 Z[#111+-0.04000]
#116=[#550+[#551-#550]*0.14574]
#117=[#557+[#558-#557]*0.14574]
#111=[#116+[#117-#116]*0.44324]
X7.60091 Y-2.94008 Z[#111+-0.04000]
#116=[#550+[#551-#550]*0.15322]
#117=[#557+[#558-#557]*0.15322]
#111=[#116+[#117-#116]*0.43906]
X7.59927 Y-2.93737 Z[#111+-0.04000]
#116=[#550+[#551-#550]*0.28474]
#117=[#557+[#558-#557]*0.28474]
#111=[#116+[#117-#116]*0.37828]
X7.57546 Y-2.88975 Z[#111+-0.04000]
#116=[#550+[#551-#550]*0.29469]
#117=[#557+[#558-#557]*0.29469]
#111=[#116+[#117-#116]*0.37476]
X7.57408 Y-2.88615 Z[#111+-0.04000]
#116=[#550+[#551-#550]*0.29845]
#117=[#557+[#558-#557]*0.29845]
#111=[#116+[#117-#116]*0.37394]
X7.57376 Y-2.88479 Z[#111+-0.04000]
#116=[#550+[#551-#550]*0.30905]
#117=[#557+[#558-#557]*0.30905]
#111=[#116+[#117-#116]*0.37297]
X7.57338 Y-2.88095 Z[#111+-0.04000]
G04 P0 ( dwell for no time -- G64 should not smooth over this point )
G00 Z0.08000 ( retract )

G00 X7.61275 Y-2.87630 ( rapid move to begin. )
G01 F180.00000
( Mill infeed pass 1/1 )
#116=[#550+[#551-#550]*0.32189]
#117=[#557+[#558-#557]*0.32189]
#111=[#116+[#117-#116]*0.47347]
G01 Z[-0.04000+#111]
G04 P0 ( dwell for no time -- G64 should not smooth over this point )
G01 F360.00000
#116=[#550+[#551-#550]*0.69078]
#117=[#557+[#558-#557]*0.69078]
#111=[#116+[#117-#116]*0.47347]
X7.61275 Y-2.74274 Z[#111+-0.04000]
#116=[#550+[#551-#550]*0.80290]
#117=[#557+[#558-#557]*0.80290]
#111=[#116+[#117-#116]*0.52530]
X7.63305 Y-2.70214 Z[#111+-0.04000]
#116=[#550+[#551-#550]*0.85619]
#117=[#557+[#558-#557]*0.85619]
#111=[#116+[#117-#116]*0.57455]
X7.65235 Y-2.68285 Z[#111+-0.04000]
#116=[#550+[#551-#550]*0.91226]
#117=[#557+[#558-#557]*0.91226]
#111=[#116+[#117-#116]*0.67821]
X7.69295 Y-2.66255 Z[#111+-0.04000]
#116=[#550+[#551-#550]*0.91226]
#117=[#557+[#558-#557]*0.91226]
#111=[#116+[#117-#116]*0.83679]
X7.75508 Y-2.66255 Z[#111+-0.04000]
#116=[#550+[#551-#550]*0.85619]
#117=[#557+[#558-#557]*0.85619]
#111=[#116+[#117-#116]*0.94045]
X7.79568 Y-2.68285 Z[#111+-0.04000]
#116=[#550+[#551-#550]*0.80290]
#117=[#557+[#558-#557]*0.80290]
#111=[#116+[#117-#116]*0.98970]
X7.81498 Y-2.70214 Z[#111+-0.04000]
#116=[#557+[#558-#557]*0.78061]
#117=[#564+[#565-#564]*0.78061]
#111=[#116+[#117-#116]*0.00000]
X7.81901 Y-2.71021 Z[#111+-0.04000]
#116=[#557+[#558-#557]*0.69078]
#117=[#564+[#565-#564]*0.69078]
#111=[#116+[#117-#116]*0.04152]
X7.83528 Y-2.74274 Z[#111+-0.04000]
#116=[#557+[#558-#557]*0.32189]
#117=[#564+[#565-#564]*0.32189]
#111=[#116+[#117-#116]*0.04152]
X7.83528 Y-2.87630 Z[#111+-0.04000]
#116=[#557+[#558-#557]*0.23203]
#117=[#564+[#565-#564]*0.23203]
#111=[#116+[#117-#116]*0.00000]
X7.81901 Y-2.90884 Z[#111+-0.04000]
#116=[#550+[#551-#550]*0.20974]
#117=[#557+[#558-#557]*0.20974]
#111=[#116+[#117-#116]*0.98970]
X7.81498 Y-2.91691 Z[#111+-0.04000]
#116=[#550+[#551-#550]*0.15645]
#117=[#557+[#558-#557]*0.15645]
#111=[#116+[#117-#116]*0.94045]
X7.79568 Y-2.93620 Z[#111+-0.04000]
#116=[#550+[#551-#550]*0.10038]
#117=[#557+[#558-#557]*0.10038]
#111=[#116+[#117-#116]*0.83679]
X7.75508 Y-2.95650 Z[#111+-0.04000]
#116=[#550+[#551-#550]*0.10038]
#117=[#557+[#558-#557]*0.10038]
#111=[#116+[#117-#116]*0.67821]
X7.69295 Y-2.95650 Z[#111+-0.04000]
#116=[#550+[#551-#550]*0.15645]
#117=[#557+[#558-#557]*0.15645]
#111=[#116+[#117-#116]*0.57455]
X7.65235 Y-2.93620 Z[#111+-0.04000]
#116=[#550+[#551-#550]*0.20974]
#117=[#557+[#558-#557]*0.20974]
#111=[#116+[#117-#116]*0.52530]
X7.63305 Y-2.91691 Z[#111+-0.04000]
#116=[#550+[#551-#550]*0.32189]
#117=[#557+[#558-#557]*0.32189]
#111=[#116+[#117-#116]*0.47347]
X7.61275 Y-2.87630 Z[#111+-0.04000]
G04 P0 ( dwell for no time -- G64 should not smooth over this point )
G00 Z0.08000 ( retract )

G00 X8.04957 Y-2.97619 ( rapid move to begin. )
G01 F180.00000
( Mill infeed pass 1/1 )
#116=[#557+[#558-#557]*0.04601]
#117=[#564+[#565-#564]*0.04601]
#111=[#116+[#117-#116]*0.58854]
G01 Z[-0.04000+#111]
G04 P0 ( dwell for no time -- G64 should not smooth over this point )
G01 F360.00000
#116=[#557+[#558-#557]*0.96663]
#117=[#564+[#565-#564]*0.96663]
#111=[#116+[#117-#116]*0.58854]
X8.04957 Y-2.64286 Z[#111+-0.04000]
#116=[#557+[#558-#557]*0.97724]
#117=[#564+[#565-#564]*0.97724]
#111=[#116+[#117-#116]*0.58951]
X8.04995 Y-2.63902 Z[#111+-0.04000]
#116=[#557+[#558-#557]*0.98744]
#117=[#564+[#565-#564]*0.98744]
#111=[#116+[#117-#116]*0.59237]
X8.05107 Y-2.63533 Z[#111+-0.04000]
#116=[#557+[#558-#557]*0.99683]
#117=[#564+[#565-#564]*0.99683]
#111=[#116+[#117-#116]*0.59701]
X8.05289 Y-2.63192 Z[#111+-0.04000]
#116=[#557+[#558-#557]*1.00000]
#117=[#564+[#565-#564]*1.00000]
#111=[#116+[#117-#116]*0.59941]
X8.05383 Y-2.63078 Z[#111+-0.04000]
#116=[#558+[#559-#558]*0.00507]
#117=[#565+[#566-#565]*0.00507]
#111=[#116+[#117-#116]*0.60326]
X8.05534 Y-2.62894 Z[#111+-0.04000]
#116=[#558+[#559-#558]*0.01183]
#117=[#565+[#566-#565]*0.01183]
#111=[#116+[#117-#116]*0.61087]
X8.05832 Y-2.62649 Z[#111+-0.04000]
#116=[#558+[#559-#558]*0.01686]
#117=[#565+[#566-#565]*0.01686]
#111=[#116+[#117-#116]*0.61956]
X8.06172 Y-2.62467 Z[#111+-0.04000]
#116=[#558+[#559-#558]*0.01995]
#117=[#565+[#566-#565]*0.01995]
#111=[#116+[#117-#116]*0.62899]
X8.06541 Y-2.62355 Z[#111+-0.04000]
#116=[#558+[#559-#558]*0.02100]
#117=[#565+[#566-#565]*0.02100]
#111=[#116+[#117-#116]*0.63879]
X8.06926 Y-2.62317 Z[#111+-0.04000]
#116=[#558+[#559-#558]*0.01995]
#117=[#565+[#566-#565]*0.01995]
#111=[#116+[#117-#116]*0.64860]
X8.07310 Y-2.62355 Z[#111+-0.04000]
#116=[#558+[#559-#558]*0.01686]
#117=[#565+[#566-#565]*0.01686]
#111=[#116+[#117-#116]*0.65802]
X8.07679 Y-2.62467 Z[#111+-0.04000]
#116=[#558+[#559-#558]*0.01183]
#117=[#565+[#566-#565]*0.01183]
#111=[#116+[#117-#116]*0.66671]
X8.08019 Y-2.62649 Z[#111+-0.04000]
#116=[#558+[#559-#558]*0.00507]
#117=[#565+[#566-#565]*0.00507]
#111=[#116+[#117-#116]*0.67432]
X8.08317 Y-2.62894 Z[#111+-0.04000]
#116=[#557+[#558-#557]*1.00000]
#117=[#564+[#565-#564]*1.00000]
#111=[#116+[#117-#116]*0.67817]
X8.08468 Y-2.63078 Z[#111+-0.04000]
#116=[#557+[#558-#557]*0.99683]
#117=[#564+[#565-#564]*0.99683]
#111=[#116+[#117-#116]*0.68057]
X8.08562 Y-2.63192 Z[#111+-0.04000]
#116=[#557+[#558-#557]*0.98744]
#117=[#564+[#565-#564]*0.98744]
#111=[#116+[#117-#116]*0.68522]
X8.08744 Y-2.63533 Z[#111+-0.04000]
#116=[#557+[#558-#557]*0.97724]
#117=[#564+[#565-#564]*0.97724]
#111=[#116+[#117-#116]*0.68808]
X8.08856 Y-2.63902 Z[#111+-0.04000]
#116=[#557+[#558-#557]*0.96663]
#117=[#564+[#565-#564]*0.96663]
#111=[#116+[#117-#116]*0.68904]
X8.08894 Y-2.64286 Z[#111+-0.04000]
#116=[#557+[#558-#557]*0.95596]
#117=[#564+[#565-#564]*0.95596]
#111=[#116+[#117-#116]*0.68904]
X8.08894 Y-2.64672 Z[#111+-0.04000]
#116=[#557+[#558-#557]*1.00000]
#117=[#564+[#565-#564]*1.00000]
#111=[#116+[#117-#116]*0.77046]
X8.12083 Y-2.63078 Z[#111+-0.04000]
#116=[#558+[#559-#558]*0.01526]
#117=[#565+[#566-#565]*0.01526]
#111=[#116+[#117-#116]*0.79866]
X8.13188 Y-2.62525 Z[#111+-0.04000]
#116=[#558+[#559-#558]*0.01954]
#117=[#565+[#566-#565]*0.01954]
#111=[#116+[#117-#116]*0.80959]
X8.13616 Y-2.62370 Z[#111+-0.04000]
#116=[#558+[#559-#558]*0.02100]
#117=[#565+[#566-#565]*0.02100]
#111=[#116+[#117-#116]*0.82113]
X8.14069 Y-2.62317 Z[#111+-0.04000]
#116=[#565+[#566-#565]*0.02100]
#117=[#572+[#573-#572]*0.02100]
#111=[#116+[#117-#116]*0.00000]
X8.21076 Y-2.62317 Z[#111+-0.04000]
#116=[#565+[#566-#565]*0.02100]
#117=[#572+[#573-#572]*0.02100]
#111=[#116+[#117-#116]*0.00347]
X8.21212 Y-2.62317 Z[#111+-0.04000]
#116=[#565+[#566-#565]*0.01954]
#117=[#572+[#573-#572]*0.01954]
#111=[#116+[#117-#116]*0.01502]
X8.21664 Y-2.62370 Z[#111+-0.04000]
#116=[#565+[#566-#565]*0.01526]
#117=[#572+[#573-#572]*0.01526]
#111=[#116+[#117-#116]*0.02595]
X8.22092 Y-2.62525 Z[#111+-0.04000]
#116=[#564+[#565-#564]*1.00000]
#117=[#571+[#572-#571]*1.00000]
#111=[#116+[#117-#116]*0.05414]
X8.23196 Y-2.63078 Z[#111+-0.04000]
#116=[#564+[#565-#564]*0.94950]
#117=[#571+[#572-#571]*0.94950]
#111=[#116+[#117-#116]*0.14748]
X8.26853 Y-2.64906 Z[#111+-0.04000]
#116=[#564+[#565-#564]*0.94321]
