( pcb2gcode 2.0.0 )
( Gcode for custom )

G94 ( Inches per minute feed rate. )
G20 ( Units == INCHES. )

G90 ( Absolute coordinates. )
G00 S12000 ( RPM spindle speed. )
G64 P0.00040 ( set maximum deviation from commanded toolpath )
G01 F360.00000 ( Feedrate. )

#118 = #5211
#119 = #5212

(MSG, Attach the probe tool)
M0 ( Temporary machine stop. )
G0 Z0.080 ( Move Z to safe height )
G0 X4.68508 Y-3.35489 ( Move XY to start point )
G0 Z0.080 ( Move Z to probe height )
G38.2 Z-0.1 F2.362205 ( Z-probe )
#500 = 0 ( Probe point [0, 0] is our reference )
G92 Z0 ( Set the current Z as zero-value )

( We now start the real probing: move the Z axis to the probing height, move to )
( the probing XY position, probe it and save the result, parameter #2002, )
( in a numbered parameter; we will make 17 probes on the X-axis and )
( 7 probes on the Y-axis, for a grand total of 119 probes )

G0 Z0.080
X4.68508 Y-2.99283
G38.2 Z-0.1 F2.362205
#501=#2002
G0 Z0.080
X4.68508 Y-2.63076
G38.2 Z-0.1 F2.362205
#502=#2002
G0 Z0.080
X4.68508 Y-2.26869
G38.2 Z-0.1 F2.362205
#503=#2002
G0 Z0.080
X4.68508 Y-1.90662
G38.2 Z-0.1 F2.362205
#504=#2002
G0 Z0.080
X4.68508 Y-1.54456
G38.2 Z-0.1 F2.362205
#505=#2002
G0 Z0.080
X4.68508 Y-1.18249
G38.2 Z-0.1 F2.362205
#506=#2002
G0 Z0.080
X5.07682 Y-1.18249
G38.2 Z-0.1 F2.362205
#513=#2002
G0 Z0.080
X5.07682 Y-1.54456
G38.2 Z-0.1 F2.362205
#512=#2002
G0 Z0.080
X5.07682 Y-1.90662
G38.2 Z-0.1 F2.362205
#511=#2002
G0 Z0.080
X5.07682 Y-2.26869
G38.2 Z-0.1 F2.362205
#510=#2002
G0 Z0.080
X5.07682 Y-2.63076
G38.2 Z-0.1 F2.362205
#509=#2002
G0 Z0.080
X5.07682 Y-2.99283
G38.2 Z-0.1 F2.362205
#508=#2002
G0 Z0.080
X5.07682 Y-3.35489
G38.2 Z-0.1 F2.362205
#507=#2002
G0 Z0.080
X5.46856 Y-3.35489
G38.2 Z-0.1 F2.362205
#514=#2002
G0 Z0.080
X5.46856 Y-2.99283
G38.2 Z-0.1 F2.362205
#515=#2002
G0 Z0.080
X5.46856 Y-2.63076
G38.2 Z-0.1 F2.362205
#516=#2002
G0 Z0.080
X5.46856 Y-2.26869
G38.2 Z-0.1 F2.362205
#517=#2002
G0 Z0.080
X5.46856 Y-1.90662
G38.2 Z-0.1 F2.362205
#518=#2002
G0 Z0.080
X5.46856 Y-1.54456
G38.2 Z-0.1 F2.362205
#519=#2002
G0 Z0.080
X5.46856 Y-1.18249
G38.2 Z-0.1 F2.362205
#520=#2002
G0 Z0.080
X5.86030 Y-1.18249
G38.2 Z-0.1 F2.362205
#527=#2002
G0 Z0.080
X5.86030 Y-1.54456
G38.2 Z-0.1 F2.362205
#526=#2002
G0 Z0.080
X5.86030 Y-1.90662
G38.2 Z-0.1 F2.362205
#525=#2002
G0 Z0.080
X5.86030 Y-2.26869
G38.2 Z-0.1 F2.362205
#524=#2002
G0 Z0.080
X5.86030 Y-2.63076
G38.2 Z-0.1 F2.362205
#523=#2002
G0 Z0.080
X5.86030 Y-2.99283
G38.2 Z-0.1 F2.362205
#522=#2002
G0 Z0.080
X5.86030 Y-3.35489
G38.2 Z-0.1 F2.362205
#521=#2002
G0 Z0.080
X6.25204 Y-3.35489
G38.2 Z-0.1 F2.362205
#528=#2002
G0 Z0.080
X6.25204 Y-2.99283
G38.2 Z-0.1 F2.362205
#529=#2002
G0 Z0.080
X6.25204 Y-2.63076
G38.2 Z-0.1 F2.362205
#530=#2002
G0 Z0.080
X6.25204 Y-2.26869
G38.2 Z-0.1 F2.362205
#531=#2002
G0 Z0.080
X6.25204 Y-1.90662
G38.2 Z-0.1 F2.362205
#532=#2002
G0 Z0.080
X6.25204 Y-1.54456
G38.2 Z-0.1 F2.362205
#533=#2002
G0 Z0.080
X6.25204 Y-1.18249
G38.2 Z-0.1 F2.362205
#534=#2002
G0 Z0.080
X6.64378 Y-1.18249
G38.2 Z-0.1 F2.362205
#541=#2002
G0 Z0.080
X6.64378 Y-1.54456
G38.2 Z-0.1 F2.362205
#540=#2002
G0 Z0.080
X6.64378 Y-1.90662
G38.2 Z-0.1 F2.362205
#539=#2002
G0 Z0.080
X6.64378 Y-2.26869
G38.2 Z-0.1 F2.362205
#538=#2002
G0 Z0.080
X6.64378 Y-2.63076
G38.2 Z-0.1 F2.362205
#537=#2002
G0 Z0.080
X6.64378 Y-2.99283
G38.2 Z-0.1 F2.362205
#536=#2002
G0 Z0.080
X6.64378 Y-3.35489
G38.2 Z-0.1 F2.362205
#535=#2002
G0 Z0.080
X7.03552 Y-3.35489
G38.2 Z-0.1 F2.362205
#542=#2002
G0 Z0.080
X7.03552 Y-2.99283
G38.2 Z-0.1 F2.362205
#543=#2002
G0 Z0.080
X7.03552 Y-2.63076
G38.2 Z-0.1 F2.362205
#544=#2002
G0 Z0.080
X7.03552 Y-2.26869
G38.2 Z-0.1 F2.362205
#545=#2002
G0 Z0.080
X7.03552 Y-1.90662
G38.2 Z-0.1 F2.362205
#546=#2002
G0 Z0.080
X7.03552 Y-1.54456
G38.2 Z-0.1 F2.362205
#547=#2002
G0 Z0.080
X7.03552 Y-1.18249
G38.2 Z-0.1 F2.362205
#548=#2002
G0 Z0.080
X7.42726 Y-1.18249
G38.2 Z-0.1 F2.362205
#555=#2002
G0 Z0.080
X7.42726 Y-1.54456
G38.2 Z-0.1 F2.362205
#554=#2002
G0 Z0.080
X7.42726 Y-1.90662
G38.2 Z-0.1 F2.362205
#553=#2002
G0 Z0.080
X7.42726 Y-2.26869
G38.2 Z-0.1 F2.362205
#552=#2002
G0 Z0.080
X7.42726 Y-2.63076
G38.2 Z-0.1 F2.362205
#551=#2002
G0 Z0.080
X7.42726 Y-2.99283
G38.2 Z-0.1 F2.362205
#550=#2002
G0 Z0.080
X7.42726 Y-3.35489
G38.2 Z-0.1 F2.362205
#549=#2002
G0 Z0.080
X7.81900 Y-3.35489
G38.2 Z-0.1 F2.362205
#556=#2002
G0 Z0.080
X7.81900 Y-2.99283
G38.2 Z-0.1 F2.362205
#557=#2002
G0 Z0.080
X7.81900 Y-2.63076
G38.2 Z-0.1 F2.362205
#558=#2002
G0 Z0.080
X7.81900 Y-2.26869
G38.2 Z-0.1 F2.362205
#559=#2002
G0 Z0.080
X7.81900 Y-1.90662
G38.2 Z-0.1 F2.362205
#560=#2002
G0 Z0.080
X7.81900 Y-1.54456
G38.2 Z-0.1 F2.362205
#561=#2002
G0 Z0.080
X7.81900 Y-1.18249
G38.2 Z-0.1 F2.362205
#562=#2002
G0 Z0.080
X8.21074 Y-1.18249
G38.2 Z-0.1 F2.362205
#569=#2002
G0 Z0.080
X8.21074 Y-1.54456
G38.2 Z-0.1 F2.362205
#568=#2002
G0 Z0.080
X8.21074 Y-1.90662
G38.2 Z-0.1 F2.362205
#567=#2002
G0 Z0.080
X8.21074 Y-2.26869
G38.2 Z-0.1 F2.362205
#566=#2002
G0 Z0.080
X8.21074 Y-2.63076
G38.2 Z-0.1 F2.362205
#565=#2002
G0 Z0.080
X8.21074 Y-2.99283
G38.2 Z-0.1 F2.362205
#564=#2002
G0 Z0.080
X8.21074 Y-3.35489
G38.2 Z-0.1 F2.362205
#563=#2002
G0 Z0.080
X8.60248 Y-3.35489
G38.2 Z-0.1 F2.362205
#570=#2002
G0 Z0.080
X8.60248 Y-2.99283
G38.2 Z-0.1 F2.362205
#571=#2002
G0 Z0.080
X8.60248 Y-2.63076
G38.2 Z-0.1 F2.362205
#572=#2002
G0 Z0.080
X8.60248 Y-2.26869
G38.2 Z-0.1 F2.362205
#573=#2002
G0 Z0.080
X8.60248 Y-1.90662
G38.2 Z-0.1 F2.362205
#574=#2002
G0 Z0.080
X8.60248 Y-1.54456
G38.2 Z-0.1 F2.362205
#575=#2002
G0 Z0.080
X8.60248 Y-1.18249
G38.2 Z-0.1 F2.362205
#576=#2002
G0 Z0.080
X8.99422 Y-1.18249
G38.2 Z-0.1 F2.362205
#583=#2002
G0 Z0.080
X8.99422 Y-1.54456
G38.2 Z-0.1 F2.362205
#582=#2002
G0 Z0.080
X8.99422 Y-1.90662
G38.2 Z-0.1 F2.362205
#581=#2002
G0 Z0.080
X8.99422 Y-2.26869
G38.2 Z-0.1 F2.362205
#580=#2002
G0 Z0.080
X8.99422 Y-2.63076
G38.2 Z-0.1 F2.362205
#579=#2002
G0 Z0.080
X8.99422 Y-2.99283
G38.2 Z-0.1 F2.362205
#578=#2002
G0 Z0.080
X8.99422 Y-3.35489
G38.2 Z-0.1 F2.362205
#577=#2002
G0 Z0.080
X9.38596 Y-3.35489
G38.2 Z-0.1 F2.362205
#584=#2002
G0 Z0.080
X9.38596 Y-2.99283
G38.2 Z-0.1 F2.362205
#585=#2002
G0 Z0.080
X9.38596 Y-2.63076
G38.2 Z-0.1 F2.362205
#586=#2002
G0 Z0.080
X9.38596 Y-2.26869
G38.2 Z-0.1 F2.362205
#587=#2002
G0 Z0.080
X9.38596 Y-1.90662
G38.2 Z-0.1 F2.362205
#588=#2002
G0 Z0.080
X9.38596 Y-1.54456
G38.2 Z-0.1 F2.362205
#589=#2002
G0 Z0.080
X9.38596 Y-1.18249
G38.2 Z-0.1 F2.362205
#590=#2002
G0 Z0.080
X9.77770 Y-1.18249
G38.2 Z-0.1 F2.362205
#597=#2002
G0 Z0.080
X9.77770 Y-1.54456
G38.2 Z-0.1 F2.362205
#596=#2002
G0 Z0.080
X9.77770 Y-1.90662
G38.2 Z-0.1 F2.362205
#595=#2002
G0 Z0.080
X9.77770 Y-2.26869
G38.2 Z-0.1 F2.362205
#594=#2002
G0 Z0.080
X9.77770 Y-2.63076
G38.2 Z-0.1 F2.362205
#593=#2002
G0 Z0.080
X9.77770 Y-2.99283
G38.2 Z-0.1 F2.362205
#592=#2002
G0 Z0.080
X9.77770 Y-3.35489
G38.2 Z-0.1 F2.362205
#591=#2002
G0 Z0.080
X10.16944 Y-3.35489
G38.2 Z-0.1 F2.362205
#598=#2002
G0 Z0.080
X10.16944 Y-2.99283
G38.2 Z-0.1 F2.362205
#599=#2002
G0 Z0.080
X10.16944 Y-2.63076
G38.2 Z-0.1 F2.362205
#600=#2002
G0 Z0.080
X10.16944 Y-2.26869
G38.2 Z-0.1 F2.362205
#601=#2002
G0 Z0.080
X10.16944 Y-1.90662
G38.2 Z-0.1 F2.362205
#602=#2002
G0 Z0.080
X10.16944 Y-1.54456
G38.2 Z-0.1 F2.362205
#603=#2002
G0 Z0.080
X10.16944 Y-1.18249
G38.2 Z-0.1 F2.362205
#604=#2002
G0 Z0.080
X10.56118 Y-1.18249
G38.2 Z-0.1 F2.362205
#611=#2002
G0 Z0.080
X10.56118 Y-1.54456
G38.2 Z-0.1 F2.362205
#610=#2002
G0 Z0.080
X10.56118 Y-1.90662
G38.2 Z-0.1 F2.362205
#609=#2002
G0 Z0.080
X10.56118 Y-2.26869
G38.2 Z-0.1 F2.362205
#608=#2002
G0 Z0.080
X10.56118 Y-2.63076
G38.2 Z-0.1 F2.362205
#607=#2002
G0 Z0.080
X10.56118 Y-2.99283
G38.2 Z-0.1 F2.362205
#606=#2002
G0 Z0.080
X10.56118 Y-3.35489
G38.2 Z-0.1 F2.362205
#605=#2002
G0 Z0.080
X10.95293 Y-3.35489
G38.2 Z-0.1 F2.362205
#612=#2002
G0 Z0.080
X10.95293 Y-2.99283
G38.2 Z-0.1 F2.362205
#613=#2002
G0 Z0.080
X10.95293 Y-2.63076
G38.2 Z-0.1 F2.362205
#614=#2002
G0 Z0.080
X10.95293 Y-2.26869
G38.2 Z-0.1 F2.362205
#615=#2002
G0 Z0.080
X10.95293 Y-1.90662
G38.2 Z-0.1 F2.362205
#616=#2002
G0 Z0.080
X10.95293 Y-1.54456
G38.2 Z-0.1 F2.362205
#617=#2002
G0 Z0.080
X10.95293 Y-1.18249
G38.2 Z-0.1 F2.362205
#618=#2002

G0 Z0.080 ( Move Z to safe height )
( Probing has ended, each Z-coordinate will be corrected with a bilinear interpolation )
(MSG, Detach the probe tool)
M0 ( Temporary machine stop. )


G00 Z1.00000 (Retract to tool change height)
T0
M5      (Spindle stop.)
G04 P1.00000 (Wait for spindle to stop)
(MSG, Change tool bit to mill diameter 0.00000in)
M6      (Tool change.)
M0      (Temporary machine stop.)
M3 ( Spindle on clockwise. )
G04 P1.00000 (Wait for spindle to get up to speed)
( Piece #1, position [0;0] )

G04 P0 ( dwell for no time -- G64 should not smooth over this point )
G00 Z0.08000 ( retract )

G00 X4.68508 Y-2.97619 ( rapid move to begin. )
G01 F180.00000
( Mill infeed pass 1/1 )
#1=[#501+[#502-#501]*0.04595]
#2=[#508+[#509-#508]*0.04595]
#3=[#1+[#2-#1]*0.00000]
G01 Z[-0.04000+#111]
G04 P0 ( dwell for no time -- G64 should not smooth over this point )
G01 F360.00000
#1=[#502+[#503-#502]*0.00000]
#2=[#509+[#510-#509]*0.00000]
#3=[#1+[#2-#1]*0.00000]
X4.68508 Y-2.63076 Z[#3+-0.04000]
#1=[#502+[#503-#502]*0.42691]
#2=[#509+[#510-#509]*0.42691]
#3=[#1+[#2-#1]*0.00000]
X4.68508 Y-2.47619 Z[#3+-0.04000]
#1=[#502+[#503-#502]*0.43751]
#2=[#509+[#510-#509]*0.43751]
#3=[#1+[#2-#1]*0.00097]
X4.68545 Y-2.47235 Z[#3+-0.04000]
#1=[#502+[#503-#502]*0.44771]
#2=[#509+[#510-#509]*0.44771]
#3=[#1+[#2-#1]*0.00383]
X4.68657 Y-2.46866 Z[#3+-0.04000]
#1=[#502+[#503-#502]*0.45711]
#2=[#509+[#510-#509]*0.45711]
#3=[#1+[#2-#1]*0.00847]
X4.68839 Y-2.46525 Z[#3+-0.04000]
#1=[#502+[#503-#502]*0.46535]
#2=[#509+[#510-#509]*0.46535]
#3=[#1+[#2-#1]*0.01472]
X4.69084 Y-2.46227 Z[#3+-0.04000]
#1=[#502+[#503-#502]*0.47211]
#2=[#509+[#510-#509]*0.47211]
#3=[#1+[#2-#1]*0.02233]
X4.69382 Y-2.45982 Z[#3+-0.04000]
#1=[#502+[#503-#502]*0.47714]
#2=[#509+[#510-#509]*0.47714]
#3=[#1+[#2-#1]*0.03102]
X4.69723 Y-2.45800 Z[#3+-0.04000]
#1=[#502+[#503-#502]*0.48023]
#2=[#509+[#510-#509]*0.48023]
#3=[#1+[#2-#1]*0.04045]
X4.70092 Y-2.45688 Z[#3+-0.04000]
#1=[#502+[#503-#502]*0.48128]
#2=[#509+[#510-#509]*0.48128]
#3=[#1+[#2-#1]*0.05025]
X4.70476 Y-2.45650 Z[#3+-0.04000]
#1=[#502+[#503-#502]*0.48128]
#2=[#509+[#510-#509]*0.48128]
#3=[#1+[#2-#1]*0.65804]
X4.94286 Y-2.45650 Z[#3+-0.04000]
#1=[#502+[#503-#502]*0.48009]
#2=[#509+[#510-#509]*0.48009]
#3=[#1+[#2-#1]*0.66849]
X4.94695 Y-2.45694 Z[#3+-0.04000]
#1=[#502+[#503-#502]*0.47658]
#2=[#509+[#510-#509]*0.47658]
#3=[#1+[#2-#1]*0.67848]
X4.95086 Y-2.45821 Z[#3+-0.04000]
#1=[#502+[#503-#502]*0.47089]
#2=[#509+[#510-#509]*0.47089]
#3=[#1+[#2-#1]*0.68758]
X4.95443 Y-2.46026 Z[#3+-0.04000]
#1=[#502+[#503-#502]*0.46329]
#2=[#509+[#510-#509]*0.46329]
#3=[#1+[#2-#1]*0.69538]
X4.95749 Y-2.46302 Z[#3+-0.04000]
#1=[#502+[#503-#502]*0.45409]
#2=[#509+[#510-#509]*0.45409]
#3=[#1+[#2-#1]*0.70156]
X4.95990 Y-2.46635 Z[#3+-0.04000]
#1=[#502+[#503-#502]*0.44371]
#2=[#509+[#510-#509]*0.44371]
#3=[#1+[#2-#1]*0.70583]
X4.96158 Y-2.47011 Z[#3+-0.04000]
#1=[#502+[#503-#502]*0.43259]
#2=[#509+[#510-#509]*0.43259]
#3=[#1+[#2-#1]*0.70802]
X4.96243 Y-2.47413 Z[#3+-0.04000]
#1=[#502+[#503-#502]*0.42122]
#2=[#509+[#510-#509]*0.42122]
#3=[#1+[#2-#1]*0.70802]
X4.96243 Y-2.47825 Z[#3+-0.04000]
#1=[#502+[#503-#502]*0.41011]
#2=[#509+[#510-#509]*0.41011]
#3=[#1+[#2-#1]*0.70583]
X4.96158 Y-2.48227 Z[#3+-0.04000]
#1=[#502+[#503-#502]*0.39972]
#2=[#509+[#510-#509]*0.39972]
#3=[#1+[#2-#1]*0.70156]
X4.95990 Y-2.48603 Z[#3+-0.04000]
#1=[#502+[#503-#502]*0.39053]
#2=[#509+[#510-#509]*0.39053]
#3=[#1+[#2-#1]*0.69538]
X4.95749 Y-2.48936 Z[#3+-0.04000]
#1=[#502+[#503-#502]*0.38292]
#2=[#509+[#510-#509]*0.38292]
#3=[#1+[#2-#1]*0.68758]
X4.95443 Y-2.49212 Z[#3+-0.04000]
#1=[#502+[#503-#502]*0.37724]
#2=[#509+[#510-#509]*0.37724]
#3=[#1+[#2-#1]*0.67848]
X4.95086 Y-2.49417 Z[#3+-0.04000]
#1=[#502+[#503-#502]*0.37373]
#2=[#509+[#510-#509]*0.37373]
#3=[#1+[#2-#1]*0.66849]
X4.94695 Y-2.49544 Z[#3+-0.04000]
#1=[#502+[#503-#502]*0.37254]
#2=[#509+[#510-#509]*0.37254]
#3=[#1+[#2-#1]*0.65804]
X4.94286 Y-2.49587 Z[#3+-0.04000]
#1=[#502+[#503-#502]*0.37254]
#2=[#509+[#510-#509]*0.37254]
#3=[#1+[#2-#1]*0.10050]
X4.72445 Y-2.49587 Z[#3+-0.04000]
#1=[#502+[#503-#502]*0.00000]
#2=[#509+[#510-#509]*0.00000]
#3=[#1+[#2-#1]*0.10050]
X4.72445 Y-2.63076 Z[#3+-0.04000]
#1=[#501+[#502-#501]*0.82368]
#2=[#508+[#509-#508]*0.82368]
#3=[#1+[#2-#1]*0.10050]
X4.72445 Y-2.69460 Z[#3+-0.04000]
#1=[#501+[#502-#501]*0.82368]
#2=[#508+[#509-#508]*0.82368]
#3=[#1+[#2-#1]*0.47571]
X4.87143 Y-2.69460 Z[#3+-0.04000]
#1=[#501+[#502-#501]*0.82249]
#2=[#508+[#509-#508]*0.82249]
#3=[#1+[#2-#1]*0.48615]
X4.87552 Y-2.69503 Z[#3+-0.04000]
#1=[#501+[#502-#501]*0.81898]
#2=[#508+[#509-#508]*0.81898]
#3=[#1+[#2-#1]*0.49614]
X4.87943 Y-2.69630 Z[#3+-0.04000]
#1=[#501+[#502-#501]*0.81329]
#2=[#508+[#509-#508]*0.81329]
#3=[#1+[#2-#1]*0.50524]
X4.88300 Y-2.69836 Z[#3+-0.04000]
#1=[#501+[#502-#501]*0.80569]
#2=[#508+[#509-#508]*0.80569]
#3=[#1+[#2-#1]*0.51305]
X4.88606 Y-2.70111 Z[#3+-0.04000]
#1=[#501+[#502-#501]*0.79649]
#2=[#508+[#509-#508]*0.79649]
#3=[#1+[#2-#1]*0.51922]
X4.88847 Y-2.70444 Z[#3+-0.04000]
#1=[#501+[#502-#501]*0.78611]
#2=[#508+[#509-#508]*0.78611]
#3=[#1+[#2-#1]*0.52349]
X4.89015 Y-2.70820 Z[#3+-0.04000]
#1=[#501+[#502-#501]*0.77499]
#2=[#508+[#509-#508]*0.77499]
#3=[#1+[#2-#1]*0.52568]
X4.89100 Y-2.71223 Z[#3+-0.04000]
#1=[#501+[#502-#501]*0.76363]
#2=[#508+[#509-#508]*0.76363]
#3=[#1+[#2-#1]*0.52568]
X4.89100 Y-2.71634 Z[#3+-0.04000]
#1=[#501+[#502-#501]*0.75251]
#2=[#508+[#509-#508]*0.75251]
#3=[#1+[#2-#1]*0.52349]
X4.89015 Y-2.72037 Z[#3+-0.04000]
#1=[#501+[#502-#501]*0.74212]
#2=[#508+[#509-#508]*0.74212]
#3=[#1+[#2-#1]*0.51922]
X4.88847 Y-2.72413 Z[#3+-0.04000]
#1=[#501+[#502-#501]*0.73293]
#2=[#508+[#509-#508]*0.73293]
#3=[#1+[#2-#1]*0.51305]
X4.88606 Y-2.72746 Z[#3+-0.04000]
#1=[#501+[#502-#501]*0.72532]
#2=[#508+[#509-#508]*0.72532]
#3=[#1+[#2-#1]*0.50524]
X4.88300 Y-2.73021 Z[#3+-0.04000]
#1=[#501+[#502-#501]*0.71964]
#2=[#508+[#509-#508]*0.71964]
#3=[#1+[#2-#1]*0.49614]
X4.87943 Y-2.73227 Z[#3+-0.04000]
#1=[#501+[#502-#501]*0.71613]
#2=[#508+[#509-#508]*0.71613]
#3=[#1+[#2-#1]*0.48615]
X4.87552 Y-2.73354 Z[#3+-0.04000]
#1=[#501+[#502-#501]*0.71494]
#2=[#508+[#509-#508]*0.71494]
#3=[#1+[#2-#1]*0.47571]
X4.87143 Y-2.73397 Z[#3+-0.04000]
#1=[#501+[#502-#501]*0.71494]
#2=[#508+[#509-#508]*0.71494]
#3=[#1+[#2-#1]*0.10050]
X4.72445 Y-2.73397 Z[#3+-0.04000]
#1=[#501+[#502-#501]*0.04595]
#2=[#508+[#509-#508]*0.04595]
#3=[#1+[#2-#1]*0.10050]
X4.72445 Y-2.97619 Z[#3+-0.04000]
#1=[#501+[#502-#501]*0.03465]
#2=[#508+[#509-#508]*0.03465]
#3=[#1+[#2-#1]*0.09940]
X4.72401 Y-2.98028 Z[#3+-0.04000]
#1=[#501+[#502-#501]*0.02384]
#2=[#508+[#509-#508]*0.02384]
#3=[#1+[#2-#1]*0.09616]
X4.72274 Y-2.98420 Z[#3+-0.04000]
#1=[#501+[#502-#501]*0.01399]
#2=[#508+[#509-#508]*0.01399]
#3=[#1+[#2-#1]*0.09090]
X4.72069 Y-2.98776 Z[#3+-0.04000]
#1=[#501+[#502-#501]*0.00555]
#2=[#508+[#509-#508]*0.00555]
#3=[#1+[#2-#1]*0.08387]
X4.71793 Y-2.99082 Z[#3+-0.04000]
#1=[#501+[#502-#501]*0.00000]
#2=[#508+[#509-#508]*0.00000]
#3=[#1+[#2-#1]*0.07682]
X4.71517 Y-2.99283 Z[#3+-0.04000]
#1=[#500+[#501-#500]*0.99887]
#2=[#507+[#508-#507]*0.99887]
#3=[#1+[#2-#1]*0.07538]
X4.71460 Y-2.99324 Z[#3+-0.04000]
#1=[#500+[#501-#500]*0.99424]
#2=[#507+[#508-#507]*0.99424]
#3=[#1+[#2-#1]*0.06578]
X4.71084 Y-2.99491 Z[#3+-0.04000]
#1=[#500+[#501-#500]*0.99188]
#2=[#507+[#508-#507]*0.99188]
#3=[#1+[#2-#1]*0.05550]
X4.70682 Y-2.99577 Z[#3+-0.04000]
#1=[#500+[#501-#500]*0.99188]
#2=[#507+[#508-#507]*0.99188]
#3=[#1+[#2-#1]*0.04500]
X4.70270 Y-2.99577 Z[#3+-0.04000]
#1=[#500+[#501-#500]*0.99424]
#2=[#507+[#508-#507]*0.99424]
#3=[#1+[#2-#1]*0.03472]
X4.69868 Y-2.99491 Z[#3+-0.04000]
#1=[#500+[#501-#500]*0.99887]
#2=[#507+[#508-#507]*0.99887]
#3=[#1+[#2-#1]*0.02513]
X4.69492 Y-2.99324 Z[#3+-0.04000]
#1=[#501+[#502-#501]*0.00000]
#2=[#508+[#509-#508]*0.00000]
#3=[#1+[#2-#1]*0.02368]
X4.69435 Y-2.99283 Z[#3+-0.04000]
#1=[#501+[#502-#501]*0.00555]
#2=[#508+[#509-#508]*0.00555]
#3=[#1+[#2-#1]*0.01663]
X4.69159 Y-2.99082 Z[#3+-0.04000]
#1=[#501+[#502-#501]*0.01399]
#2=[#508+[#509-#508]*0.01399]
#3=[#1+[#2-#1]*0.00960]
X4.68884 Y-2.98776 Z[#3+-0.04000]
#1=[#501+[#502-#501]*0.02384]
#2=[#508+[#509-#508]*0.02384]
#3=[#1+[#2-#1]*0.00434]
X4.68678 Y-2.98420 Z[#3+-0.04000]
#1=[#501+[#502-#501]*0.03465]
#2=[#508+[#509-#508]*0.03465]
#3=[#1+[#2-#1]*0.00110]
X4.68551 Y-2.98028 Z[#3+-0.04000]
#1=[#501+[#502-#501]*0.04595]
#2=[#508+[#509-#508]*0.04595]
#3=[#1+[#2-#1]*0.00000]
X4.68508 Y-2.97619 Z[#3+-0.04000]
G04 P0 ( dwell for no time -- G64 should not smooth over this point )
G00 Z0.08000 ( retract )

G00 X5.11365 Y-2.97619 ( rapid move to begin. )
G01 F180.00000
( Mill infeed pass 1/1 )
#1=[#508+[#509-#508]*0.04595]
#2=[#515+[#516-#515]*0.04595]
#3=[#1+[#2-#1]*0.09402]
G01 Z[-0.04000+#111]
G04 P0 ( dwell for no time -- G64 should not smooth over this point )
G01 F360.00000
#1=[#508+[#509-#508]*0.96659]
#2=[#515+[#516-#515]*0.96659]
#3=[#1+[#2-#1]*0.09402]
X5.11365 Y-2.64286 Z[#3+-0.04000]
#1=[#508+[#509-#508]*0.97789]
#2=[#515+[#516-#515]*0.97789]
#3=[#1+[#2-#1]*0.09512]
X5.11408 Y-2.63876 Z[#3+-0.04000]
#1=[#508+[#509-#508]*0.98870]
#2=[#515+[#516-#515]*0.98870]
#3=[#1+[#2-#1]*0.09836]
X5.11535 Y-2.63485 Z[#3+-0.04000]
#1=[#508+[#509-#508]*0.99854]
#2=[#515+[#516-#515]*0.99854]
#3=[#1+[#2-#1]*0.10362]
X5.11741 Y-2.63129 Z[#3+-0.04000]
#1=[#509+[#510-#509]*0.00000]
#2=[#516+[#517-#516]*0.00000]
#3=[#1+[#2-#1]*0.10483]
X5.11788 Y-2.63076 Z[#3+-0.04000]
#1=[#509+[#510-#509]*0.00699]
#2=[#516+[#517-#516]*0.00699]
#3=[#1+[#2-#1]*0.11065]
X5.12016 Y-2.62823 Z[#3+-0.04000]
#1=[#509+[#510-#509]*0.01367]
#2=[#516+[#517-#516]*0.01367]
#3=[#1+[#2-#1]*0.11915]
X5.12349 Y-2.62581 Z[#3+-0.04000]
#1=[#509+[#510-#509]*0.01829]
#2=[#516+[#517-#516]*0.01829]
#3=[#1+[#2-#1]*0.12874]
X5.12725 Y-2.62413 Z[#3+-0.04000]
#1=[#509+[#510-#509]*0.02066]
#2=[#516+[#517-#516]*0.02066]
#3=[#1+[#2-#1]*0.13902]
X5.13127 Y-2.62328 Z[#3+-0.04000]
#1=[#509+[#510-#509]*0.02066]
#2=[#516+[#517-#516]*0.02066]
#3=[#1+[#2-#1]*0.14952]
X5.13539 Y-2.62328 Z[#3+-0.04000]
#1=[#509+[#510-#509]*0.01829]
#2=[#516+[#517-#516]*0.01829]
#3=[#1+[#2-#1]*0.15980]
X5.13942 Y-2.62413 Z[#3+-0.04000]
#1=[#509+[#510-#509]*0.01367]
#2=[#516+[#517-#516]*0.01367]
#3=[#1+[#2-#1]*0.16940]
X5.14318 Y-2.62581 Z[#3+-0.04000]
#1=[#509+[#510-#509]*0.00699]
#2=[#516+[#517-#516]*0.00699]
#3=[#1+[#2-#1]*0.17789]
X5.14650 Y-2.62823 Z[#3+-0.04000]
#1=[#509+[#510-#509]*0.00000]
#2=[#516+[#517-#516]*0.00000]
#3=[#1+[#2-#1]*0.18371]
X5.14878 Y-2.63076 Z[#3+-0.04000]
#1=[#508+[#509-#508]*0.99854]
#2=[#515+[#516-#515]*0.99854]
#3=[#1+[#2-#1]*0.18492]
X5.14926 Y-2.63129 Z[#3+-0.04000]
#1=[#508+[#509-#508]*0.98870]
#2=[#515+[#516-#515]*0.98870]
#3=[#1+[#2-#1]*0.19018]
X5.15132 Y-2.63485 Z[#3+-0.04000]
#1=[#508+[#509-#508]*0.97789]
#2=[#515+[#516-#515]*0.97789]
#3=[#1+[#2-#1]*0.19342]
X5.15259 Y-2.63876 Z[#3+-0.04000]
#1=[#508+[#509-#508]*0.96659]
#2=[#515+[#516-#515]*0.96659]
#3=[#1+[#2-#1]*0.19452]
X5.15302 Y-2.64286 Z[#3+-0.04000]
#1=[#508+[#509-#508]*0.90056]
#2=[#515+[#516-#515]*0.90056]
#3=[#1+[#2-#1]*0.19452]
X5.15302 Y-2.66676 Z[#3+-0.04000]
#1=[#508+[#509-#508]*0.93927]
#2=[#515+[#516-#515]*0.93927]
#3=[#1+[#2-#1]*0.23030]
X5.16703 Y-2.65275 Z[#3+-0.04000]
#1=[#508+[#509-#508]*0.94494]
#2=[#515+[#516-#515]*0.94494]
#3=[#1+[#2-#1]*0.23645]
X5.16944 Y-2.65070 Z[#3+-0.04000]
#1=[#508+[#509-#508]*0.94946]
#2=[#515+[#516-#515]*0.94946]
#3=[#1+[#2-#1]*0.24336]
X5.17215 Y-2.64906 Z[#3+-0.04000]
#1=[#509+[#510-#509]*0.00000]
#2=[#516+[#517-#516]*0.00000]
#3=[#1+[#2-#1]*0.33679]
X5.20875 Y-2.63076 Z[#3+-0.04000]
#1=[#509+[#510-#509]*0.01521]
#2=[#516+[#517-#516]*0.01521]
#3=[#1+[#2-#1]*0.36491]
X5.21977 Y-2.62525 Z[#3+-0.04000]
#1=[#509+[#510-#509]*0.01838]
#2=[#516+[#517-#516]*0.01838]
#3=[#1+[#2-#1]*0.37210]
X5.22258 Y-2.62410 Z[#3+-0.04000]
#1=[#509+[#510-#509]*0.02031]
#2=[#516+[#517-#516]*0.02031]
#3=[#1+[#2-#1]*0.37965]
X5.22554 Y-2.62341 Z[#3+-0.04000]
#1=[#509+[#510-#509]*0.02096]
#2=[#516+[#517-#516]*0.02096]
#3=[#1+[#2-#1]*0.38739]
X5.22857 Y-2.62317 Z[#3+-0.04000]
#1=[#509+[#510-#509]*0.02096]
#2=[#516+[#517-#516]*0.02096]
#3=[#1+[#2-#1]*0.50894]
X5.27619 Y-2.62317 Z[#3+-0.04000]
#1=[#509+[#510-#509]*0.01977]
#2=[#516+[#517-#516]*0.01977]
#3=[#1+[#2-#1]*0.51939]
X5.28028 Y-2.62360 Z[#3+-0.04000]
#1=[#509+[#510-#509]*0.01626]
#2=[#516+[#517-#516]*0.01626]
#3=[#1+[#2-#1]*0.52938]
X5.28420 Y-2.62487 Z[#3+-0.04000]
#1=[#509+[#510-#509]*0.01057]
#2=[#516+[#517-#516]*0.01057]
#3=[#1+[#2-#1]*0.53848]
X5.28776 Y-2.62693 Z[#3+-0.04000]
#1=[#509+[#510-#509]*0.00297]
#2=[#516+[#517-#516]*0.00297]
#3=[#1+[#2-#1]*0.54629]
X5.29082 Y-2.62968 Z[#3+-0.04000]
#1=[#509+[#510-#509]*0.00000]
#2=[#516+[#517-#516]*0.00000]
#3=[#1+[#2-#1]*0.54828]
X5.29160 Y-2.63076 Z[#3+-0.04000]
#1=[#508+[#509-#508]*0.99377]
#2=[#515+[#516-#515]*0.99377]
#3=[#1+[#2-#1]*0.55246]
X5.29324 Y-2.63301 Z[#3+-0.04000]
#1=[#508+[#509-#508]*0.98339]
#2=[#515+[#516-#515]*0.98339]
#3=[#1+[#2-#1]*0.55673]
X5.29491 Y-2.63677 Z[#3+-0.04000]
#1=[#508+[#509-#508]*0.97227]
#2=[#515+[#516-#515]*0.97227]
#3=[#1+[#2-#1]*0.55892]
X5.29577 Y-2.64080 Z[#3+-0.04000]
#1=[#508+[#509-#508]*0.96090]
#2=[#515+[#516-#515]*0.96090]
#3=[#1+[#2-#1]*0.55892]
X5.29577 Y-2.64491 Z[#3+-0.04000]
#1=[#508+[#509-#508]*0.94978]
#2=[#515+[#516-#515]*0.94978]
#3=[#1+[#2-#1]*0.55673]
X5.29491 Y-2.64894 Z[#3+-0.04000]
#1=[#508+[#509-#508]*0.93940]
#2=[#515+[#516-#515]*0.93940]
#3=[#1+[#2-#1]*0.55246]
X5.29324 Y-2.65270 Z[#3+-0.04000]
#1=[#508+[#509-#508]*0.93021]
#2=[#515+[#516-#515]*0.93021]
#3=[#1+[#2-#1]*0.54629]
X5.29082 Y-2.65603 Z[#3+-0.04000]
#1=[#508+[#509-#508]*0.92260]
#2=[#515+[#516-#515]*0.92260]
#3=[#1+[#2-#1]*0.53848]
X5.28776 Y-2.65878 Z[#3+-0.04000]
#1=[#508+[#509-#508]*0.91692]
#2=[#515+[#516-#515]*0.91692]
#3=[#1+[#2-#1]*0.52938]
X5.28420 Y-2.66084 Z[#3+-0.04000]
#1=[#508+[#509-#508]*0.91341]
#2=[#515+[#516-#515]*0.91341]
#3=[#1+[#2-#1]*0.51939]
X5.28028 Y-2.66211 Z[#3+-0.04000]
#1=[#508+[#509-#508]*0.91222]
#2=[#515+[#516-#515]*0.91222]
#3=[#1+[#2-#1]*0.50894]
X5.27619 Y-2.66254 Z[#3+-0.04000]
#1=[#508+[#509-#508]*0.91222]
#2=[#515+[#516-#515]*0.91222]
#3=[#1+[#2-#1]*0.39925]
X5.23322 Y-2.66254 Z[#3+-0.04000]
#1=[#508+[#509-#508]*0.85614]
#2=[#515+[#516-#515]*0.85614]
#3=[#1+[#2-#1]*0.29559]
X5.19261 Y-2.68284 Z[#3+-0.04000]
#1=[#508+[#509-#508]*0.80286]
#2=[#515+[#516-#515]*0.80286]
#3=[#1+[#2-#1]*0.24635]
X5.17332 Y-2.70214 Z[#3+-0.04000]
#1=[#508+[#509-#508]*0.69071]
#2=[#515+[#516-#515]*0.69071]
#3=[#1+[#2-#1]*0.19452]
X5.15302 Y-2.74274 Z[#3+-0.04000]
#1=[#508+[#509-#508]*0.04595]
#2=[#515+[#516-#515]*0.04595]
#3=[#1+[#2-#1]*0.19452]
X5.15302 Y-2.97619 Z[#3+-0.04000]
#1=[#508+[#509-#508]*0.03465]
#2=[#515+[#516-#515]*0.03465]
#3=[#1+[#2-#1]*0.19342]
X5.15259 Y-2.98028 Z[#3+-0.04000]
#1=[#508+[#509-#508]*0.02384]
#2=[#515+[#516-#515]*0.02384]
#3=[#1+[#2-#1]*0.19018]
X5.15132 Y-2.98420 Z[#3+-0.04000]
#1=[#508+[#509-#508]*0.01399]
#2=[#515+[#516-#515]*0.01399]
#3=[#1+[#2-#1]*0.18492]
X5.14926 Y-2.98776 Z[#3+-0.04000]
#1=[#508+[#509-#508]*0.00555]
#2=[#515+[#516-#515]*0.00555]
#3=[#1+[#2-#1]*0.17789]
X5.14650 Y-2.99082 Z[#3+-0.04000]
#1=[#508+[#509-#508]*0.00000]
#2=[#515+[#516-#515]*0.00000]
#3=[#1+[#2-#1]*0.17084]
X5.14374 Y-2.99283 Z[#3+-0.04000]
#1=[#507+[#508-#507]*0.99887]
#2=[#514+[#515-#514]*0.99887]
#3=[#1+[#2-#1]*0.16940]
X5.14318 Y-2.99324 Z[#3+-0.04000]
#1=[#507+[#508-#507]*0.99424]
#2=[#514+[#515-#514]*0.99424]
#3=[#1+[#2-#1]*0.15980]
X5.13942 Y-2.99491 Z[#3+-0.04000]
#1=[#507+[#508-#507]*0.99188]
#2=[#514+[#515-#514]*0.99188]
#3=[#1+[#2-#1]*0.14952]
X5.13539 Y-2.99577 Z[#3+-0.04000]
#1=[#507+[#508-#507]*0.99188]
#2=[#514+[#515-#514]*0.99188]
#3=[#1+[#2-#1]*0.13902]
X5.13127 Y-2.99577 Z[#3+-0.04000]
#1=[#507+[#508-#507]*0.99424]
#2=[#514+[#515-#514]*0.99424]
#3=[#1+[#2-#1]*0.12874]
X5.12725 Y-2.99491 Z[#3+-0.04000]
#1=[#507+[#508-#507]*0.99887]
#2=[#514+[#515-#514]*0.99887]
#3=[#1+[#2-#1]*0.11915]
X5.12349 Y-2.99324 Z[#3+-0.04000]
#1=[#508+[#509-#508]*0.00000]
#2=[#515+[#516-#515]*0.00000]
#3=[#1+[#2-#1]*0.11770]
X5.12292 Y-2.99283 Z[#3+-0.04000]
#1=[#508+[#509-#508]*0.00555]
#2=[#515+[#516-#515]*0.00555]
#3=[#1+[#2-#1]*0.11065]
X5.12016 Y-2.99082 Z[#3+-0.04000]
#1=[#508+[#509-#508]*0.01399]
#2=[#515+[#516-#515]*0.01399]
#3=[#1+[#2-#1]*0.10362]
X5.11741 Y-2.98776 Z[#3+-0.04000]
#1=[#508+[#509-#508]*0.02384]
#2=[#515+[#516-#515]*0.02384]
#3=[#1+[#2-#1]*0.09836]
X5.11535 Y-2.98420 Z[#3+-0.04000]
#1=[#508+[#509-#508]*0.03465]
#2=[#515+[#516-#515]*0.03465]
#3=[#1+[#2-#1]*0.09512]
X5.11408 Y-2.98028 Z[#3+-0.04000]
#1=[#508+[#509-#508]*0.04595]
#2=[#515+[#516-#515]*0.04595]
#3=[#1+[#2-#1]*0.09402]
X5.11365 Y-2.97619 Z[#3+-0.04000]
G04 P0 ( dwell for no time -- G64 should not smooth over this point )
G00 Z0.08000 ( retract )

G00 X5.39936 Y-2.88095 ( rapid move to begin. )
G01 F180.00000
( Mill infeed pass 1/1 )
#1=[#508+[#509-#508]*0.30899]
#2=[#515+[#516-#515]*0.30899]
#3=[#1+[#2-#1]*0.82336]
G01 Z[-0.04000+#111]
G04 P0 ( dwell for no time -- G64 should not smooth over this point )
G01 F360.00000
#1=[#508+[#509-#508]*0.70355]
#2=[#515+[#516-#515]*0.70355]
#3=[#1+[#2-#1]*0.82336]
X5.39936 Y-2.73809 Z[#3+-0.04000]
#1=[#508+[#509-#508]*0.71192]
#2=[#515+[#516-#515]*0.71192]
#3=[#1+[#2-#1]*0.82396]
X5.39960 Y-2.73506 Z[#3+-0.04000]
#1=[#508+[#509-#508]*0.72009]
#2=[#515+[#516-#515]*0.72009]
#3=[#1+[#2-#1]*0.82575]
X5.40029 Y-2.73211 Z[#3+-0.04000]
#1=[#508+[#509-#508]*0.72786]
#2=[#515+[#516-#515]*0.72786]
#3=[#1+[#2-#1]*0.82867]
X5.40144 Y-2.72929 Z[#3+-0.04000]
#1=[#508+[#509-#508]*0.85938]
#2=[#515+[#516-#515]*0.85938]
#3=[#1+[#2-#1]*0.88945]
X5.42525 Y-2.68167 Z[#3+-0.04000]
#1=[#508+[#509-#508]*0.86686]
#2=[#515+[#516-#515]*0.86686]
#3=[#1+[#2-#1]*0.89363]
X5.42689 Y-2.67897 Z[#3+-0.04000]
#1=[#508+[#509-#508]*0.87351]
#2=[#515+[#516-#515]*0.87351]
#3=[#1+[#2-#1]*0.89886]
X5.42894 Y-2.67656 Z[#3+-0.04000]
#1=[#508+[#509-#508]*0.93927]
#2=[#515+[#516-#515]*0.93927]
#3=[#1+[#2-#1]*0.95964]
X5.45275 Y-2.65275 Z[#3+-0.04000]
#1=[#508+[#509-#508]*0.94494]
#2=[#515+[#516-#515]*0.94494]
#3=[#1+[#2-#1]*0.96579]
X5.45516 Y-2.65070 Z[#3+-0.04000]
#1=[#508+[#509-#508]*0.94946]
#2=[#515+[#516-#515]*0.94946]
#3=[#1+[#2-#1]*0.97270]
X5.45786 Y-2.64906 Z[#3+-0.04000]
#1=[#508+[#509-#508]*0.96422]
#2=[#515+[#516-#515]*0.96422]
#3=[#1+[#2-#1]*1.00000]
X5.46856 Y-2.64371 Z[#3+-0.04000]
#1=[#516+[#517-#516]*0.00000]
#2=[#523+[#524-#523]*0.00000]
#3=[#1+[#2-#1]*0.06613]
X5.49446 Y-2.63076 Z[#3+-0.04000]
#1=[#516+[#517-#516]*0.01521]
#2=[#523+[#524-#523]*0.01521]
#3=[#1+[#2-#1]*0.09426]
X5.50548 Y-2.62525 Z[#3+-0.04000]
#1=[#516+[#517-#516]*0.01838]
#2=[#523+[#524-#523]*0.01838]
#3=[#1+[#2-#1]*0.10144]
X5.50830 Y-2.62410 Z[#3+-0.04000]
#1=[#516+[#517-#516]*0.02031]
#2=[#523+[#524-#523]*0.02031]
#3=[#1+[#2-#1]*0.10899]
X5.51125 Y-2.62341 Z[#3+-0.04000]
#1=[#516+[#517-#516]*0.02096]
#2=[#523+[#524-#523]*0.02096]
#3=[#1+[#2-#1]*0.11673]
X5.51429 Y-2.62317 Z[#3+-0.04000]
#1=[#516+[#517-#516]*0.02096]
#2=[#523+[#524-#523]*0.02096]
#3=[#1+[#2-#1]*0.29907]
X5.58571 Y-2.62317 Z[#3+-0.04000]
#1=[#516+[#517-#516]*0.02031]
#2=[#523+[#524-#523]*0.02031]
#3=[#1+[#2-#1]*0.30680]
X5.58874 Y-2.62341 Z[#3+-0.04000]
#1=[#516+[#517-#516]*0.01838]
#2=[#523+[#524-#523]*0.01838]
#3=[#1+[#2-#1]*0.31436]
X5.59170 Y-2.62410 Z[#3+-0.04000]
#1=[#516+[#517-#516]*0.01521]
#2=[#523+[#524-#523]*0.01521]
#3=[#1+[#2-#1]*0.32154]
X5.59452 Y-2.62525 Z[#3+-0.04000]
#1=[#516+[#517-#516]*0.00000]
#2=[#523+[#524-#523]*0.00000]
#3=[#1+[#2-#1]*0.34967]
X5.60553 Y-2.63076 Z[#3+-0.04000]
#1=[#515+[#516-#515]*0.94946]
#2=[#522+[#523-#522]*0.94946]
#3=[#1+[#2-#1]*0.44310]
X5.64214 Y-2.64906 Z[#3+-0.04000]
#1=[#515+[#516-#515]*0.94494]
#2=[#522+[#523-#522]*0.94494]
#3=[#1+[#2-#1]*0.45001]
X5.64484 Y-2.65070 Z[#3+-0.04000]
#1=[#515+[#516-#515]*0.93927]
#2=[#522+[#523-#522]*0.93927]
#3=[#1+[#2-#1]*0.45616]
X5.64725 Y-2.65275 Z[#3+-0.04000]
#1=[#515+[#516-#515]*0.87351]
#2=[#522+[#523-#522]*0.87351]
#3=[#1+[#2-#1]*0.51694]
X5.67106 Y-2.67656 Z[#3+-0.04000]
#1=[#515+[#516-#515]*0.86686]
#2=[#522+[#523-#522]*0.86686]
#3=[#1+[#2-#1]*0.52217]
X5.67311 Y-2.67897 Z[#3+-0.04000]
#1=[#515+[#516-#515]*0.85938]
#2=[#522+[#523-#522]*0.85938]
#3=[#1+[#2-#1]*0.52635]
X5.67475 Y-2.68167 Z[#3+-0.04000]
#1=[#515+[#516-#515]*0.72786]
#2=[#522+[#523-#522]*0.72786]
#3=[#1+[#2-#1]*0.58713]
X5.69856 Y-2.72929 Z[#3+-0.04000]
#1=[#515+[#516-#515]*0.72009]
#2=[#522+[#523-#522]*0.72009]
#3=[#1+[#2-#1]*0.59005]
X5.69970 Y-2.73211 Z[#3+-0.04000]
#1=[#515+[#516-#515]*0.71192]
#2=[#522+[#523-#522]*0.71192]
#3=[#1+[#2-#1]*0.59183]
X5.70040 Y-2.73506 Z[#3+-0.04000]
#1=[#515+[#516-#515]*0.70355]
#2=[#522+[#523-#522]*0.70355]
#3=[#1+[#2-#1]*0.59243]
X5.70064 Y-2.73809 Z[#3+-0.04000]
#1=[#515+[#516-#515]*0.30899]
#2=[#522+[#523-#522]*0.30899]
#3=[#1+[#2-#1]*0.59243]
X5.70064 Y-2.88095 Z[#3+-0.04000]
#1=[#515+[#516-#515]*0.30062]
#2=[#522+[#523-#522]*0.30062]
#3=[#1+[#2-#1]*0.59183]
X5.70040 Y-2.88398 Z[#3+-0.04000]
#1=[#515+[#516-#515]*0.29245]
#2=[#522+[#523-#522]*0.29245]
#3=[#1+[#2-#1]*0.59005]
X5.69970 Y-2.88694 Z[#3+-0.04000]
#1=[#515+[#516-#515]*0.28467]
#2=[#522+[#523-#522]*0.28467]
#3=[#1+[#2-#1]*0.58713]
X5.69856 Y-2.88976 Z[#3+-0.04000]
#1=[#515+[#516-#515]*0.15315]
#2=[#522+[#523-#522]*0.15315]
#3=[#1+[#2-#1]*0.52635]
X5.67475 Y-2.93737 Z[#3+-0.04000]
#1=[#515+[#516-#515]*0.14568]
#2=[#522+[#523-#522]*0.14568]
#3=[#1+[#2-#1]*0.52217]
X5.67311 Y-2.94008 Z[#3+-0.04000]
#1=[#515+[#516-#515]*0.13902]
#2=[#522+[#523-#522]*0.13902]
#3=[#1+[#2-#1]*0.51694]
X5.67106 Y-2.94249 Z[#3+-0.04000]
#1=[#515+[#516-#515]*0.07327]
#2=[#522+[#523-#522]*0.07327]
#3=[#1+[#2-#1]*0.45616]
X5.64725 Y-2.96630 Z[#3+-0.04000]
#1=[#515+[#516-#515]*0.06760]
#2=[#522+[#523-#522]*0.06760]
#3=[#1+[#2-#1]*0.45001]
X5.64484 Y-2.96835 Z[#3+-0.04000]
#1=[#515+[#516-#515]*0.06308]
#2=[#522+[#523-#522]*0.06308]
#3=[#1+[#2-#1]*0.44310]
X5.64214 Y-2.96999 Z[#3+-0.04000]
#1=[#515+[#516-#515]*0.00000]
#2=[#522+[#523-#522]*0.00000]
#3=[#1+[#2-#1]*0.32649]
X5.59646 Y-2.99283 Z[#3+-0.04000]
#1=[#514+[#515-#514]*0.99732]
#2=[#521+[#522-#521]*0.99732]
#3=[#1+[#2-#1]*0.32154]
X5.59452 Y-2.99380 Z[#3+-0.04000]
#1=[#514+[#515-#514]*0.99416]
#2=[#521+[#522-#521]*0.99416]
#3=[#1+[#2-#1]*0.31436]
X5.59170 Y-2.99494 Z[#3+-0.04000]
#1=[#514+[#515-#514]*0.99223]
#2=[#521+[#522-#521]*0.99223]
#3=[#1+[#2-#1]*0.30680]
X5.58874 Y-2.99564 Z[#3+-0.04000]
#1=[#514+[#515-#514]*0.99158]
#2=[#521+[#522-#521]*0.99158]
#3=[#1+[#2-#1]*0.29907]
X5.58571 Y-2.99587 Z[#3+-0.04000]
#1=[#514+[#515-#514]*0.99158]
#2=[#521+[#522-#521]*0.99158]
#3=[#1+[#2-#1]*0.11673]
X5.51429 Y-2.99587 Z[#3+-0.04000]
#1=[#514+[#515-#514]*0.99223]
#2=[#521+[#522-#521]*0.99223]
#3=[#1+[#2-#1]*0.10899]
X5.51125 Y-2.99564 Z[#3+-0.04000]
#1=[#514+[#515-#514]*0.99416]
#2=[#521+[#522-#521]*0.99416]
#3=[#1+[#2-#1]*0.10144]
X5.50830 Y-2.99494 Z[#3+-0.04000]
#1=[#514+[#515-#514]*0.99732]
#2=[#521+[#522-#521]*0.99732]
#3=[#1+[#2-#1]*0.09426]
X5.50548 Y-2.99380 Z[#3+-0.04000]
#1=[#515+[#516-#515]*0.00000]
#2=[#522+[#523-#522]*0.00000]
#3=[#1+[#2-#1]*0.08931]
X5.50354 Y-2.99283 Z[#3+-0.04000]
#1=[#508+[#509-#508]*0.04831]
#2=[#515+[#516-#515]*0.04831]
#3=[#1+[#2-#1]*1.00000]
X5.46856 Y-2.97533 Z[#3+-0.04000]
#1=[#508+[#509-#508]*0.06308]
#2=[#515+[#516-#515]*0.06308]
#3=[#1+[#2-#1]*0.97270]
X5.45786 Y-2.96999 Z[#3+-0.04000]
#1=[#508+[#509-#508]*0.06760]
#2=[#515+[#516-#515]*0.06760]
#3=[#1+[#2-#1]*0.96579]
X5.45516 Y-2.96835 Z[#3+-0.04000]
#1=[#508+[#509-#508]*0.07327]
#2=[#515+[#516-#515]*0.07327]
#3=[#1+[#2-#1]*0.95964]
X5.45275 Y-2.96630 Z[#3+-0.04000]
#1=[#508+[#509-#508]*0.13902]
#2=[#515+[#516-#515]*0.13902]
#3=[#1+[#2-#1]*0.89886]
X5.42894 Y-2.94249 Z[#3+-0.04000]
#1=[#508+[#509-#508]*0.14568]
#2=[#515+[#516-#515]*0.14568]
#3=[#1+[#2-#1]*0.89363]
X5.42689 Y-2.94008 Z[#3+-0.04000]
#1=[#508+[#509-#508]*0.15315]
#2=[#515+[#516-#515]*0.15315]
#3=[#1+[#2-#1]*0.88945]
X5.42525 Y-2.93737 Z[#3+-0.04000]
#1=[#508+[#509-#508]*0.28582]
#2=[#515+[#516-#515]*0.28582]
#3=[#1+[#2-#1]*0.82827]
X5.40128 Y-2.88934 Z[#3+-0.04000]
#1=[#508+[#509-#508]*0.29769]
#2=[#515+[#516-#515]*0.29769]
#3=[#1+[#2-#1]*0.82446]
X5.39979 Y-2.88504 Z[#3+-0.04000]
#1=[#508+[#509-#508]*0.30899]
#2=[#515+[#516-#515]*0.30899]
#3=[#1+[#2-#1]*0.82336]
X5.39936 Y-2.88095 Z[#3+-0.04000]
G04 P0 ( dwell for no time -- G64 should not smooth over this point )
G00 Z0.08000 ( retract )

G00 X5.43873 Y-2.87630 ( rapid move to begin. )
G01 F180.00000
( Mill infeed pass 1/1 )
#1=[#508+[#509-#508]*0.32182]
#2=[#515+[#516-#515]*0.32182]
#3=[#1+[#2-#1]*0.92387]
G01 Z[-0.04000+#111]
G04 P0 ( dwell for no time -- G64 should not smooth over this point )
G01 F360.00000
#1=[#508+[#509-#508]*0.69071]
#2=[#515+[#516-#515]*0.69071]
#3=[#1+[#2-#1]*0.92387]
X5.43873 Y-2.74274 Z[#3+-0.04000]
#1=[#508+[#509-#508]*0.80286]
#2=[#515+[#516-#515]*0.80286]
#3=[#1+[#2-#1]*0.97569]
X5.45904 Y-2.70214 Z[#3+-0.04000]
#1=[#508+[#509-#508]*0.82916]
#2=[#515+[#516-#515]*0.82916]
#3=[#1+[#2-#1]*1.00000]
X5.46856 Y-2.69261 Z[#3+-0.04000]
#1=[#515+[#516-#515]*0.85614]
#2=[#522+[#523-#522]*0.85614]
#3=[#1+[#2-#1]*0.02494]
X5.47833 Y-2.68284 Z[#3+-0.04000]
#1=[#515+[#516-#515]*0.91222]
#2=[#522+[#523-#522]*0.91222]
#3=[#1+[#2-#1]*0.12859]
X5.51893 Y-2.66254 Z[#3+-0.04000]
#1=[#515+[#516-#515]*0.91222]
#2=[#522+[#523-#522]*0.91222]
#3=[#1+[#2-#1]*0.28721]
X5.58107 Y-2.66254 Z[#3+-0.04000]
#1=[#515+[#516-#515]*0.85614]
#2=[#522+[#523-#522]*0.85614]
#3=[#1+[#2-#1]*0.39086]
X5.62167 Y-2.68284 Z[#3+-0.04000]
#1=[#515+[#516-#515]*0.80286]
#2=[#522+[#523-#522]*0.80286]
#3=[#1+[#2-#1]*0.44010]
X5.64096 Y-2.70214 Z[#3+-0.04000]
#1=[#515+[#516-#515]*0.69071]
#2=[#522+[#523-#522]*0.69071]
#3=[#1+[#2-#1]*0.49193]
X5.66127 Y-2.74274 Z[#3+-0.04000]
#1=[#515+[#516-#515]*0.32182]
#2=[#522+[#523-#522]*0.32182]
#3=[#1+[#2-#1]*0.49193]
X5.66127 Y-2.87630 Z[#3+-0.04000]
#1=[#515+[#516-#515]*0.20967]
#2=[#522+[#523-#522]*0.20967]
#3=[#1+[#2-#1]*0.44010]
X5.64096 Y-2.91691 Z[#3+-0.04000]
#1=[#515+[#516-#515]*0.15639]
#2=[#522+[#523-#522]*0.15639]
#3=[#1+[#2-#1]*0.39086]
X5.62167 Y-2.93620 Z[#3+-0.04000]
#1=[#515+[#516-#515]*0.10032]
#2=[#522+[#523-#522]*0.10032]
#3=[#1+[#2-#1]*0.28720]
X5.58107 Y-2.95650 Z[#3+-0.04000]
#1=[#515+[#516-#515]*0.10032]
#2=[#522+[#523-#522]*0.10032]
#3=[#1+[#2-#1]*0.12859]
X5.51893 Y-2.95650 Z[#3+-0.04000]
#1=[#515+[#516-#515]*0.15639]
#2=[#522+[#523-#522]*0.15639]
#3=[#1+[#2-#1]*0.02494]
X5.47833 Y-2.93620 Z[#3+-0.04000]
#1=[#508+[#509-#508]*0.18338]
#2=[#515+[#516-#515]*0.18338]
#3=[#1+[#2-#1]*1.00000]
X5.46856 Y-2.92643 Z[#3+-0.04000]
#1=[#508+[#509-#508]*0.20967]
#2=[#515+[#516-#515]*0.20967]
#3=[#1+[#2-#1]*0.97569]
X5.45904 Y-2.91691 Z[#3+-0.04000]
#1=[#508+[#509-#508]*0.32182]
#2=[#515+[#516-#515]*0.32182]
#3=[#1+[#2-#1]*0.92387]
X5.43873 Y-2.87630 Z[#3+-0.04000]
G04 P0 ( dwell for no time -- G64 should not smooth over this point )
G00 Z0.08000 ( retract )

G00 X5.87555 Y-2.97619 ( rapid move to begin. )
G01 F180.00000
( Mill infeed pass 1/1 )
#1=[#522+[#523-#522]*0.04595]
#2=[#529+[#530-#529]*0.04595]
#3=[#1+[#2-#1]*0.03894]
G01 Z[-0.04000+#111]
G04 P0 ( dwell for no time -- G64 should not smooth over this point )
G01 F360.00000
#1=[#522+[#523-#522]*0.96659]
#2=[#529+[#530-#529]*0.96659]
#3=[#1+[#2-#1]*0.03894]
X5.87555 Y-2.64286 Z[#3+-0.04000]
#1=[#522+[#523-#522]*0.97789]
#2=[#529+[#530-#529]*0.97789]
#3=[#1+[#2-#1]*0.04004]
X5.87598 Y-2.63876 Z[#3+-0.04000]
#1=[#522+[#523-#522]*0.98870]
#2=[#529+[#530-#529]*0.98870]
#3=[#1+[#2-#1]*0.04329]
X5.87725 Y-2.63485 Z[#3+-0.04000]
#1=[#522+[#523-#522]*0.99854]
#2=[#529+[#530-#529]*0.99854]
#3=[#1+[#2-#1]*0.04854]
X5.87931 Y-2.63129 Z[#3+-0.04000]
#1=[#523+[#524-#523]*0.00000]
#2=[#530+[#531-#530]*0.00000]
#3=[#1+[#2-#1]*0.04975]
X5.87979 Y-2.63076 Z[#3+-0.04000]
#1=[#523+[#524-#523]*0.00699]
#2=[#530+[#531-#530]*0.00699]
#3=[#1+[#2-#1]*0.05557]
X5.88207 Y-2.62823 Z[#3+-0.04000]
#1=[#523+[#524-#523]*0.01367]
#2=[#530+[#531-#530]*0.01367]
#3=[#1+[#2-#1]*0.06407]
X5.88539 Y-2.62581 Z[#3+-0.04000]
#1=[#523+[#524-#523]*0.01829]
#2=[#530+[#531-#530]*0.01829]
#3=[#1+[#2-#1]*0.07366]
X5.88915 Y-2.62413 Z[#3+-0.04000]
#1=[#523+[#524-#523]*0.02066]
#2=[#530+[#531-#530]*0.02066]
#3=[#1+[#2-#1]*0.08394]
X5.89318 Y-2.62328 Z[#3+-0.04000]
#1=[#523+[#524-#523]*0.02066]
#2=[#530+[#531-#530]*0.02066]
#3=[#1+[#2-#1]*0.09445]
X5.89729 Y-2.62328 Z[#3+-0.04000]
#1=[#523+[#524-#523]*0.01829]
#2=[#530+[#531-#530]*0.01829]
#3=[#1+[#2-#1]*0.10472]
X5.90132 Y-2.62413 Z[#3+-0.04000]
#1=[#523+[#524-#523]*0.01367]
#2=[#530+[#531-#530]*0.01367]
#3=[#1+[#2-#1]*0.11432]
X5.90508 Y-2.62581 Z[#3+-0.04000]
#1=[#523+[#524-#523]*0.00699]
#2=[#530+[#531-#530]*0.00699]
#3=[#1+[#2-#1]*0.12282]
X5.90841 Y-2.62823 Z[#3+-0.04000]
#1=[#523+[#524-#523]*0.00000]
#2=[#530+[#531-#530]*0.00000]
#3=[#1+[#2-#1]*0.12863]
X5.91069 Y-2.63076 Z[#3+-0.04000]
#1=[#522+[#523-#522]*0.99854]
#2=[#529+[#530-#529]*0.99854]
#3=[#1+[#2-#1]*0.12985]
X5.91116 Y-2.63129 Z[#3+-0.04000]
#1=[#522+[#523-#522]*0.98870]
#2=[#529+[#530-#529]*0.98870]
#3=[#1+[#2-#1]*0.13510]
X5.91322 Y-2.63485 Z[#3+-0.04000]
#1=[#522+[#523-#522]*0.97789]
#2=[#529+[#530-#529]*0.97789]
#3=[#1+[#2-#1]*0.13834]
X5.91449 Y-2.63876 Z[#3+-0.04000]
#1=[#522+[#523-#522]*0.96659]
#2=[#529+[#530-#529]*0.96659]
#3=[#1+[#2-#1]*0.13944]
X5.91492 Y-2.64286 Z[#3+-0.04000]
#1=[#522+[#523-#522]*0.95592]
#2=[#529+[#530-#529]*0.95592]
#3=[#1+[#2-#1]*0.13944]
X5.91492 Y-2.64672 Z[#3+-0.04000]
#1=[#523+[#524-#523]*0.00000]
#2=[#530+[#531-#530]*0.00000]
#3=[#1+[#2-#1]*0.22093]
X5.94684 Y-2.63076 Z[#3+-0.04000]
#1=[#523+[#524-#523]*0.01521]
#2=[#530+[#531-#530]*0.01521]
#3=[#1+[#2-#1]*0.24906]
X5.95786 Y-2.62525 Z[#3+-0.04000]
#1=[#523+[#524-#523]*0.01838]
#2=[#530+[#531-#530]*0.01838]
#3=[#1+[#2-#1]*0.25624]
X5.96068 Y-2.62410 Z[#3+-0.04000]
#1=[#523+[#524-#523]*0.02031]
#2=[#530+[#531-#530]*0.02031]
#3=[#1+[#2-#1]*0.26379]
X5.96364 Y-2.62341 Z[#3+-0.04000]
#1=[#523+[#524-#523]*0.02096]
#2=[#530+[#531-#530]*0.02096]
#3=[#1+[#2-#1]*0.27153]
X5.96667 Y-2.62317 Z[#3+-0.04000]
#1=[#523+[#524-#523]*0.02096]
#2=[#530+[#531-#530]*0.02096]
#3=[#1+[#2-#1]*0.45387]
X6.03810 Y-2.62317 Z[#3+-0.04000]
#1=[#523+[#524-#523]*0.02031]
#2=[#530+[#531-#530]*0.02031]
#3=[#1+[#2-#1]*0.46160]
X6.04113 Y-2.62341 Z[#3+-0.04000]
#1=[#523+[#524-#523]*0.01838]
#2=[#530+[#531-#530]*0.01838]
#3=[#1+[#2-#1]*0.46915]
X6.04408 Y-2.62410 Z[#3+-0.04000]
#1=[#523+[#524-#523]*0.01521]
#2=[#530+[#531-#530]*0.01521]
#3=[#1+[#2-#1]*0.47634]
X6.04690 Y-2.62525 Z[#3+-0.04000]
#1=[#523+[#524-#523]*0.00000]
#2=[#530+[#531-#530]*0.00000]
#3=[#1+[#2-#1]*0.50446]
X6.05792 Y-2.63076 Z[#3+-0.04000]
#1=[#522+[#523-#522]*0.94946]
#2=[#529+[#530-#529]*0.94946]
#3=[#1+[#2-#1]*0.59790]
X6.09452 Y-2.64906 Z[#3+-0.04000]
#1=[#522+[#523-#522]*0.94494]
#2=[#529+[#530-#529]*0.94494]
#3=[#1+[#2-#1]*0.60480]
X6.09722 Y-2.65070 Z[#3+-0.04000]
#1=[#522+[#523-#522]*0.93927]
#2=[#529+[#530-#529]*0.93927]
#3=[#1+[#2-#1]*0.61096]
X6.09963 Y-2.65275 Z[#3+-0.04000]
#1=[#522+[#523-#522]*0.93262]
#2=[#529+[#530-#529]*0.93262]
#3=[#1+[#2-#1]*0.61619]
X6.10168 Y-2.65516 Z[#3+-0.04000]
#1=[#522+[#523-#522]*0.92514]
#2=[#529+[#530-#529]*0.92514]
#3=[#1+[#2-#1]*0.62037]
X6.10332 Y-2.65786 Z[#3+-0.04000]
#1=[#522+[#523-#522]*0.79362]
#2=[#529+[#530-#529]*0.79362]
#3=[#1+[#2-#1]*0.68114]
X6.12713 Y-2.70548 Z[#3+-0.04000]
#1=[#522+[#523-#522]*0.78585]
#2=[#529+[#530-#529]*0.78585]
#3=[#1+[#2-#1]*0.68407]
X6.12828 Y-2.70830 Z[#3+-0.04000]
#1=[#522+[#523-#522]*0.77768]
#2=[#529+[#530-#529]*0.77768]
#3=[#1+[#2-#1]*0.68585]
X6.12897 Y-2.71125 Z[#3+-0.04000]
#1=[#522+[#523-#522]*0.76931]
#2=[#529+[#530-#529]*0.76931]
#3=[#1+[#2-#1]*0.68645]
X6.12921 Y-2.71428 Z[#3+-0.04000]
#1=[#522+[#523-#522]*0.04595]
#2=[#529+[#530-#529]*0.04595]
#3=[#1+[#2-#1]*0.68645]
X6.12921 Y-2.97619 Z[#3+-0.04000]
#1=[#522+[#523-#522]*0.03465]
#2=[#529+[#530-#529]*0.03465]
#3=[#1+[#2-#1]*0.68535]
X6.12878 Y-2.98028 Z[#3+-0.04000]
#1=[#522+[#523-#522]*0.02384]
#2=[#529+[#530-#529]*0.02384]
#3=[#1+[#2-#1]*0.68211]
X6.12751 Y-2.98420 Z[#3+-0.04000]
#1=[#522+[#523-#522]*0.01399]
#2=[#529+[#530-#529]*0.01399]
#3=[#1+[#2-#1]*0.67685]
X6.12545 Y-2.98776 Z[#3+-0.04000]
#1=[#522+[#523-#522]*0.00555]
#2=[#529+[#530-#529]*0.00555]
#3=[#1+[#2-#1]*0.66982]
X6.12269 Y-2.99082 Z[#3+-0.04000]
#1=[#522+[#523-#522]*0.00000]
#2=[#529+[#530-#529]*0.00000]
#3=[#1+[#2-#1]*0.66277]
X6.11993 Y-2.99283 Z[#3+-0.04000]
#1=[#521+[#522-#521]*0.99887]
#2=[#528+[#529-#528]*0.99887]
#3=[#1+[#2-#1]*0.66133]
X6.11937 Y-2.99324 Z[#3+-0.04000]
#1=[#521+[#522-#521]*0.99424]
#2=[#528+[#529-#528]*0.99424]
#3=[#1+[#2-#1]*0.65173]
X6.11561 Y-2.99491 Z[#3+-0.04000]
#1=[#521+[#522-#521]*0.99188]
#2=[#528+[#529-#528]*0.99188]
#3=[#1+[#2-#1]*0.64145]
X6.11158 Y-2.99577 Z[#3+-0.04000]
#1=[#521+[#522-#521]*0.99188]
#2=[#528+[#529-#528]*0.99188]
#3=[#1+[#2-#1]*0.63095]
X6.10747 Y-2.99577 Z[#3+-0.04000]
#1=[#521+[#522-#521]*0.99424]
#2=[#528+[#529-#528]*0.99424]
#3=[#1+[#2-#1]*0.62067]
X6.10344 Y-2.99491 Z[#3+-0.04000]
#1=[#521+[#522-#521]*0.99887]
#2=[#528+[#529-#528]*0.99887]
#3=[#1+[#2-#1]*0.61108]
X6.09968 Y-2.99324 Z[#3+-0.04000]
#1=[#522+[#523-#522]*0.00000]
#2=[#529+[#530-#529]*0.00000]
#3=[#1+[#2-#1]*0.60963]
X6.09911 Y-2.99283 Z[#3+-0.04000]
#1=[#522+[#523-#522]*0.00555]
#2=[#529+[#530-#529]*0.00555]
#3=[#1+[#2-#1]*0.60258]
X6.09635 Y-2.99082 Z[#3+-0.04000]
#1=[#522+[#523-#522]*0.01399]
#2=[#529+[#530-#529]*0.01399]
#3=[#1+[#2-#1]*0.59555]
X6.09360 Y-2.98776 Z[#3+-0.04000]
#1=[#522+[#523-#522]*0.02384]
#2=[#529+[#530-#529]*0.02384]
#3=[#1+[#2-#1]*0.59029]
X6.09154 Y-2.98420 Z[#3+-0.04000]
#1=[#522+[#523-#522]*0.03465]
#2=[#529+[#530-#529]*0.03465]
#3=[#1+[#2-#1]*0.58705]
X6.09027 Y-2.98028 Z[#3+-0.04000]
#1=[#522+[#523-#522]*0.04595]
#2=[#529+[#530-#529]*0.04595]
#3=[#1+[#2-#1]*0.58595]
X6.08984 Y-2.97619 Z[#3+-0.04000]
#1=[#522+[#523-#522]*0.75648]
#2=[#529+[#530-#529]*0.75648]
#3=[#1+[#2-#1]*0.58595]
X6.08984 Y-2.71893 Z[#3+-0.04000]
#1=[#522+[#523-#522]*0.86030]
#2=[#529+[#530-#529]*0.86030]
#3=[#1+[#2-#1]*0.53797]
X6.07104 Y-2.68134 Z[#3+-0.04000]
#1=[#522+[#523-#522]*0.91222]
#2=[#529+[#530-#529]*0.91222]
#3=[#1+[#2-#1]*0.44200]
X6.03345 Y-2.66254 Z[#3+-0.04000]
#1=[#522+[#523-#522]*0.91222]
#2=[#529+[#530-#529]*0.91222]
#3=[#1+[#2-#1]*0.28339]
X5.97131 Y-2.66254 Z[#3+-0.04000]
#1=[#522+[#523-#522]*0.85614]
#2=[#529+[#530-#529]*0.85614]
#3=[#1+[#2-#1]*0.17974]
X5.93071 Y-2.68284 Z[#3+-0.04000]
#1=[#522+[#523-#522]*0.81255]
#2=[#529+[#530-#529]*0.81255]
#3=[#1+[#2-#1]*0.13944]
X5.91492 Y-2.69863 Z[#3+-0.04000]
#1=[#522+[#523-#522]*0.04595]
#2=[#529+[#530-#529]*0.04595]
#3=[#1+[#2-#1]*0.13944]
X5.91492 Y-2.97619 Z[#3+-0.04000]
#1=[#522+[#523-#522]*0.03465]
#2=[#529+[#530-#529]*0.03465]
#3=[#1+[#2-#1]*0.13834]
X5.91449 Y-2.98028 Z[#3+-0.04000]
#1=[#522+[#523-#522]*0.02384]
#2=[#529+[#530-#529]*0.02384]
#3=[#1+[#2-#1]*0.13510]
X5.91322 Y-2.98420 Z[#3+-0.04000]
#1=[#522+[#523-#522]*0.01399]
#2=[#529+[#530-#529]*0.01399]
#3=[#1+[#2-#1]*0.12985]
X5.91116 Y-2.98776 Z[#3+-0.04000]
#1=[#522+[#523-#522]*0.00555]
#2=[#529+[#530-#529]*0.00555]
#3=[#1+[#2-#1]*0.12282]
X5.90841 Y-2.99082 Z[#3+-0.04000]
#1=[#522+[#523-#522]*0.00000]
#2=[#529+[#530-#529]*0.00000]
#3=[#1+[#2-#1]*0.11576]
X5.90565 Y-2.99283 Z[#3+-0.04000]
#1=[#521+[#522-#521]*0.99887]
#2=[#528+[#529-#528]*0.99887]
#3=[#1+[#2-#1]*0.11432]
X5.90508 Y-2.99324 Z[#3+-0.04000]
#1=[#521+[#522-#521]*0.99424]
#2=[#528+[#529-#528]*0.99424]
#3=[#1+[#2-#1]*0.10472]
X5.90132 Y-2.99491 Z[#3+-0.04000]
#1=[#521+[#522-#521]*0.99188]
#2=[#528+[#529-#528]*0.99188]
#3=[#1+[#2-#1]*0.09445]
X5.89729 Y-2.99577 Z[#3+-0.04000]
#1=[#521+[#522-#521]*0.99188]
#2=[#528+[#529-#528]*0.99188]
#3=[#1+[#2-#1]*0.08394]
X5.89318 Y-2.99577 Z[#3+-0.04000]
#1=[#521+[#522-#521]*0.99424]
#2=[#528+[#529-#528]*0.99424]
#3=[#1+[#2-#1]*0.07366]
X5.88915 Y-2.99491 Z[#3+-0.04000]
#1=[#521+[#522-#521]*0.99887]
#2=[#528+[#529-#528]*0.99887]
#3=[#1+[#2-#1]*0.06407]
X5.88539 Y-2.99324 Z[#3+-0.04000]
#1=[#522+[#523-#522]*0.00000]
#2=[#529+[#530-#529]*0.00000]
#3=[#1+[#2-#1]*0.06263]
X5.88483 Y-2.99283 Z[#3+-0.04000]
#1=[#522+[#523-#522]*0.00555]
#2=[#529+[#530-#529]*0.00555]
#3=[#1+[#2-#1]*0.05557]
X5.88207 Y-2.99082 Z[#3+-0.04000]
#1=[#522+[#523-#522]*0.01399]
#2=[#529+[#530-#529]*0.01399]
#3=[#1+[#2-#1]*0.04854]
X5.87931 Y-2.98776 Z[#3+-0.04000]
#1=[#522+[#523-#522]*0.02384]
#2=[#529+[#530-#529]*0.02384]
#3=[#1+[#2-#1]*0.04329]
X5.87725 Y-2.98420 Z[#3+-0.04000]
#1=[#522+[#523-#522]*0.03465]
#2=[#529+[#530-#529]*0.03465]
#3=[#1+[#2-#1]*0.04004]
X5.87598 Y-2.98028 Z[#3+-0.04000]
#1=[#522+[#523-#522]*0.04595]
#2=[#529+[#530-#529]*0.04595]
#3=[#1+[#2-#1]*0.03894]
X5.87555 Y-2.97619 Z[#3+-0.04000]
G04 P0 ( dwell for no time -- G64 should not smooth over this point )
G00 Z0.08000 ( retract )

G00 X6.25661 Y-2.64491 ( rapid move to begin. )
G01 F180.00000
( Mill infeed pass 1/1 )
#1=[#529+[#530-#529]*0.96090]
#2=[#536+[#537-#536]*0.96090]
#3=[#1+[#2-#1]*0.01168]
G01 Z[-0.04000+#111]
G04 P0 ( dwell for no time -- G64 should not smooth over this point )
G01 F360.00000
#1=[#529+[#530-#529]*0.97227]
#2=[#536+[#537-#536]*0.97227]
#3=[#1+[#2-#1]*0.01168]
X6.25661 Y-2.64080 Z[#3+-0.04000]
#1=[#529+[#530-#529]*0.98339]
#2=[#536+[#537-#536]*0.98339]
#3=[#1+[#2-#1]*0.01386]
X6.25747 Y-2.63677 Z[#3+-0.04000]
#1=[#529+[#530-#529]*0.99377]
#2=[#536+[#537-#536]*0.99377]
#3=[#1+[#2-#1]*0.01814]
X6.25914 Y-2.63301 Z[#3+-0.04000]
#1=[#530+[#531-#530]*0.00000]
#2=[#537+[#538-#537]*0.00000]
#3=[#1+[#2-#1]*0.02232]
X6.26078 Y-2.63076 Z[#3+-0.04000]
#1=[#530+[#531-#530]*0.00297]
#2=[#537+[#538-#537]*0.00297]
#3=[#1+[#2-#1]*0.02431]
X6.26156 Y-2.62968 Z[#3+-0.04000]
#1=[#530+[#531-#530]*0.01057]
#2=[#537+[#538-#537]*0.01057]
#3=[#1+[#2-#1]*0.03212]
X6.26462 Y-2.62693 Z[#3+-0.04000]
#1=[#530+[#531-#530]*0.01626]
#2=[#537+[#538-#537]*0.01626]
#3=[#1+[#2-#1]*0.04121]
X6.26818 Y-2.62487 Z[#3+-0.04000]
#1=[#530+[#531-#530]*0.01977]
#2=[#537+[#538-#537]*0.01977]
#3=[#1+[#2-#1]*0.05121]
X6.27210 Y-2.62360 Z[#3+-0.04000]
#1=[#530+[#531-#530]*0.02096]
#2=[#537+[#538-#537]*0.02096]
#3=[#1+[#2-#1]*0.06165]
X6.27619 Y-2.62317 Z[#3+-0.04000]
#1=[#530+[#531-#530]*0.02096]
#2=[#537+[#538-#537]*0.02096]
#3=[#1+[#2-#1]*0.19374]
X6.32793 Y-2.62317 Z[#3+-0.04000]
#1=[#530+[#531-#530]*0.42691]
#2=[#537+[#538-#537]*0.42691]
#3=[#1+[#2-#1]*0.19374]
X6.32793 Y-2.47619 Z[#3+-0.04000]
#1=[#530+[#531-#530]*0.43821]
#2=[#537+[#538-#537]*0.43821]
#3=[#1+[#2-#1]*0.19484]
X6.32836 Y-2.47210 Z[#3+-0.04000]
#1=[#530+[#531-#530]*0.44902]
#2=[#537+[#538-#537]*0.44902]
#3=[#1+[#2-#1]*0.19808]
X6.32963 Y-2.46818 Z[#3+-0.04000]
#1=[#530+[#531-#530]*0.45886]
#2=[#537+[#538-#537]*0.45886]
#3=[#1+[#2-#1]*0.20334]
X6.33169 Y-2.46462 Z[#3+-0.04000]
#1=[#530+[#531-#530]*0.46731]
#2=[#537+[#538-#537]*0.46731]
#3=[#1+[#2-#1]*0.21037]
X6.33445 Y-2.46156 Z[#3+-0.04000]
#1=[#530+[#531-#530]*0.47399]
#2=[#537+[#538-#537]*0.47399]
#3=[#1+[#2-#1]*0.21887]
X6.33778 Y-2.45914 Z[#3+-0.04000]
#1=[#530+[#531-#530]*0.47861]
#2=[#537+[#538-#537]*0.47861]
#3=[#1+[#2-#1]*0.22846]
X6.34154 Y-2.45747 Z[#3+-0.04000]
#1=[#530+[#531-#530]*0.48098]
#2=[#537+[#538-#537]*0.48098]
#3=[#1+[#2-#1]*0.23874]
X6.34556 Y-2.45661 Z[#3+-0.04000]
#1=[#530+[#531-#530]*0.48098]
#2=[#537+[#538-#537]*0.48098]
#3=[#1+[#2-#1]*0.24924]
X6.34968 Y-2.45661 Z[#3+-0.04000]
#1=[#530+[#531-#530]*0.47861]
#2=[#537+[#538-#537]*0.47861]
#3=[#1+[#2-#1]*0.25952]
X6.35370 Y-2.45747 Z[#3+-0.04000]
#1=[#530+[#531-#530]*0.47399]
#2=[#537+[#538-#537]*0.47399]
#3=[#1+[#2-#1]*0.26912]
X6.35746 Y-2.45914 Z[#3+-0.04000]
#1=[#530+[#531-#530]*0.46731]
#2=[#537+[#538-#537]*0.46731]
#3=[#1+[#2-#1]*0.27761]
X6.36079 Y-2.46156 Z[#3+-0.04000]
#1=[#530+[#531-#530]*0.45886]
#2=[#537+[#538-#537]*0.45886]
#3=[#1+[#2-#1]*0.28464]
X6.36354 Y-2.46462 Z[#3+-0.04000]
#1=[#530+[#531-#530]*0.44902]
#2=[#537+[#538-#537]*0.44902]
#3=[#1+[#2-#1]*0.28990]
X6.36560 Y-2.46818 Z[#3+-0.04000]
#1=[#530+[#531-#530]*0.43821]
#2=[#537+[#538-#537]*0.43821]
#3=[#1+[#2-#1]*0.29314]
X6.36687 Y-2.47210 Z[#3+-0.04000]
#1=[#530+[#531-#530]*0.42691]
#2=[#537+[#538-#537]*0.42691]
#3=[#1+[#2-#1]*0.29424]
X6.36730 Y-2.47619 Z[#3+-0.04000]
#1=[#530+[#531-#530]*0.02096]
#2=[#537+[#538-#537]*0.02096]
#3=[#1+[#2-#1]*0.29424]
X6.36730 Y-2.62317 Z[#3+-0.04000]
#1=[#530+[#531-#530]*0.02096]
#2=[#537+[#538-#537]*0.02096]
#3=[#1+[#2-#1]*0.54788]
X6.46667 Y-2.62317 Z[#3+-0.04000]
#1=[#530+[#531-#530]*0.01977]
#2=[#537+[#538-#537]*0.01977]
#3=[#1+[#2-#1]*0.55833]
X6.47076 Y-2.62360 Z[#3+-0.04000]
#1=[#530+[#531-#530]*0.01626]
#2=[#537+[#538-#537]*0.01626]
#3=[#1+[#2-#1]*0.56832]
X6.47467 Y-2.62487 Z[#3+-0.04000]
#1=[#530+[#531-#530]*0.01057]
#2=[#537+[#538-#537]*0.01057]
#3=[#1+[#2-#1]*0.57742]
X6.47824 Y-2.62693 Z[#3+-0.04000]
#1=[#530+[#531-#530]*0.00297]
#2=[#537+[#538-#537]*0.00297]
#3=[#1+[#2-#1]*0.58522]
X6.48129 Y-2.62968 Z[#3+-0.04000]
#1=[#530+[#531-#530]*0.00000]
#2=[#537+[#538-#537]*0.00000]
#3=[#1+[#2-#1]*0.58722]
X6.48207 Y-2.63076 Z[#3+-0.04000]
#1=[#529+[#530-#529]*0.99377]
#2=[#536+[#537-#536]*0.99377]
#3=[#1+[#2-#1]*0.59140]
X6.48371 Y-2.63301 Z[#3+-0.04000]
#1=[#529+[#530-#529]*0.98339]
#2=[#536+[#537-#536]*0.98339]
#3=[#1+[#2-#1]*0.59567]
X6.48539 Y-2.63677 Z[#3+-0.04000]
#1=[#529+[#530-#529]*0.97227]
#2=[#536+[#537-#536]*0.97227]
#3=[#1+[#2-#1]*0.59786]
X6.48624 Y-2.64080 Z[#3+-0.04000]
#1=[#529+[#530-#529]*0.96090]
#2=[#536+[#537-#536]*0.96090]
#3=[#1+[#2-#1]*0.59786]
X6.48624 Y-2.64491 Z[#3+-0.04000]
#1=[#529+[#530-#529]*0.94978]
#2=[#536+[#537-#536]*0.94978]
#3=[#1+[#2-#1]*0.59567]
X6.48539 Y-2.64894 Z[#3+-0.04000]
#1=[#529+[#530-#529]*0.93940]
#2=[#536+[#537-#536]*0.93940]
#3=[#1+[#2-#1]*0.59140]
X6.48371 Y-2.65270 Z[#3+-0.04000]
#1=[#529+[#530-#529]*0.93021]
#2=[#536+[#537-#536]*0.93021]
#3=[#1+[#2-#1]*0.58522]
X6.48129 Y-2.65603 Z[#3+-0.04000]
#1=[#529+[#530-#529]*0.92260]
#2=[#536+[#537-#536]*0.92260]
#3=[#1+[#2-#1]*0.57742]
X6.47824 Y-2.65878 Z[#3+-0.04000]
#1=[#529+[#530-#529]*0.91692]
#2=[#536+[#537-#536]*0.91692]
#3=[#1+[#2-#1]*0.56832]
X6.47467 Y-2.66084 Z[#3+-0.04000]
#1=[#529+[#530-#529]*0.91341]
#2=[#536+[#537-#536]*0.91341]
#3=[#1+[#2-#1]*0.55833]
X6.47076 Y-2.66211 Z[#3+-0.04000]
#1=[#529+[#530-#529]*0.91222]
#2=[#536+[#537-#536]*0.91222]
#3=[#1+[#2-#1]*0.54788]
X6.46667 Y-2.66254 Z[#3+-0.04000]
#1=[#529+[#530-#529]*0.91222]
#2=[#536+[#537-#536]*0.91222]
#3=[#1+[#2-#1]*0.29424]
X6.36730 Y-2.66254 Z[#3+-0.04000]
#1=[#529+[#530-#529]*0.25606]
#2=[#536+[#537-#536]*0.25606]
#3=[#1+[#2-#1]*0.29424]
X6.36730 Y-2.90011 Z[#3+-0.04000]
#1=[#529+[#530-#529]*0.15224]
#2=[#536+[#537-#536]*0.15224]
#3=[#1+[#2-#1]*0.34222]
X6.38610 Y-2.93771 Z[#3+-0.04000]
#1=[#529+[#530-#529]*0.10032]
#2=[#536+[#537-#536]*0.10032]
#3=[#1+[#2-#1]*0.43819]
X6.42369 Y-2.95650 Z[#3+-0.04000]
#1=[#529+[#530-#529]*0.10032]
#2=[#536+[#537-#536]*0.10032]
#3=[#1+[#2-#1]*0.54788]
X6.46667 Y-2.95650 Z[#3+-0.04000]
#1=[#529+[#530-#529]*0.09913]
#2=[#536+[#537-#536]*0.09913]
#3=[#1+[#2-#1]*0.55833]
X6.47076 Y-2.95694 Z[#3+-0.04000]
#1=[#529+[#530-#529]*0.09562]
#2=[#536+[#537-#536]*0.09562]
#3=[#1+[#2-#1]*0.56832]
X6.47467 Y-2.95821 Z[#3+-0.04000]
#1=[#529+[#530-#529]*0.08993]
#2=[#536+[#537-#536]*0.08993]
#3=[#1+[#2-#1]*0.57742]
X6.47824 Y-2.96026 Z[#3+-0.04000]
#1=[#529+[#530-#529]*0.08233]
#2=[#536+[#537-#536]*0.08233]
#3=[#1+[#2-#1]*0.58522]
X6.48129 Y-2.96302 Z[#3+-0.04000]
#1=[#529+[#530-#529]*0.07313]
#2=[#536+[#537-#536]*0.07313]
#3=[#1+[#2-#1]*0.59140]
X6.48371 Y-2.96635 Z[#3+-0.04000]
#1=[#529+[#530-#529]*0.06275]
#2=[#536+[#537-#536]*0.06275]
#3=[#1+[#2-#1]*0.59567]
X6.48539 Y-2.97011 Z[#3+-0.04000]
#1=[#529+[#530-#529]*0.05163]
#2=[#536+[#537-#536]*0.05163]
#3=[#1+[#2-#1]*0.59786]
X6.48624 Y-2.97413 Z[#3+-0.04000]
#1=[#529+[#530-#529]*0.04027]
#2=[#536+[#537-#536]*0.04027]
#3=[#1+[#2-#1]*0.59786]
X6.48624 Y-2.97825 Z[#3+-0.04000]
#1=[#529+[#530-#529]*0.02915]
#2=[#536+[#537-#536]*0.02915]
#3=[#1+[#2-#1]*0.59567]
X6.48539 Y-2.98227 Z[#3+-0.04000]
#1=[#529+[#530-#529]*0.01877]
#2=[#536+[#537-#536]*0.01877]
#3=[#1+[#2-#1]*0.59140]
X6.48371 Y-2.98603 Z[#3+-0.04000]
#1=[#529+[#530-#529]*0.00957]
#2=[#536+[#537-#536]*0.00957]
#3=[#1+[#2-#1]*0.58522]
X6.48129 Y-2.98936 Z[#3+-0.04000]
#1=[#529+[#530-#529]*0.00196]
#2=[#536+[#537-#536]*0.00196]
#3=[#1+[#2-#1]*0.57742]
X6.47824 Y-2.99212 Z[#3+-0.04000]
#1=[#529+[#530-#529]*0.00000]
#2=[#536+[#537-#536]*0.00000]
#3=[#1+[#2-#1]*0.57427]
X6.47700 Y-2.99283 Z[#3+-0.04000]
#1=[#528+[#529-#528]*0.99628]
#2=[#535+[#536-#535]*0.99628]
#3=[#1+[#2-#1]*0.56832]
X6.47467 Y-2.99417 Z[#3+-0.04000]
#1=[#528+[#529-#528]*0.99277]
#2=[#535+[#536-#535]*0.99277]
#3=[#1+[#2-#1]*0.55833]
X6.47076 Y-2.99544 Z[#3+-0.04000]
#1=[#528+[#529-#528]*0.99158]
#2=[#535+[#536-#535]*0.99158]
#3=[#1+[#2-#1]*0.54788]
X6.46667 Y-2.99587 Z[#3+-0.04000]
#1=[#528+[#529-#528]*0.99158]
#2=[#535+[#536-#535]*0.99158]
#3=[#1+[#2-#1]*0.42633]
X6.41905 Y-2.99587 Z[#3+-0.04000]
#1=[#528+[#529-#528]*0.99223]
#2=[#535+[#536-#535]*0.99223]
#3=[#1+[#2-#1]*0.41859]
X6.41602 Y-2.99564 Z[#3+-0.04000]
#1=[#528+[#529-#528]*0.99416]
#2=[#535+[#536-#535]*0.99416]
#3=[#1+[#2-#1]*0.41104]
X6.41306 Y-2.99494 Z[#3+-0.04000]
#1=[#528+[#529-#528]*0.99732]
#2=[#535+[#536-#535]*0.99732]
#3=[#1+[#2-#1]*0.40385]
X6.41024 Y-2.99380 Z[#3+-0.04000]
#1=[#529+[#530-#529]*0.00000]
#2=[#536+[#537-#536]*0.00000]
#3=[#1+[#2-#1]*0.39890]
X6.40830 Y-2.99283 Z[#3+-0.04000]
#1=[#529+[#530-#529]*0.06308]
#2=[#536+[#537-#536]*0.06308]
#3=[#1+[#2-#1]*0.28229]
X6.36262 Y-2.96999 Z[#3+-0.04000]
#1=[#529+[#530-#529]*0.06760]
#2=[#536+[#537-#536]*0.06760]
#3=[#1+[#2-#1]*0.27538]
X6.35992 Y-2.96835 Z[#3+-0.04000]
#1=[#529+[#530-#529]*0.07327]
#2=[#536+[#537-#536]*0.07327]
#3=[#1+[#2-#1]*0.26924]
X6.35751 Y-2.96630 Z[#3+-0.04000]
#1=[#529+[#530-#529]*0.07992]
#2=[#536+[#537-#536]*0.07992]
#3=[#1+[#2-#1]*0.26400]
X6.35546 Y-2.96389 Z[#3+-0.04000]
#1=[#529+[#530-#529]*0.08740]
#2=[#536+[#537-#536]*0.08740]
#3=[#1+[#2-#1]*0.25982]
X6.35382 Y-2.96118 Z[#3+-0.04000]
#1=[#529+[#530-#529]*0.21892]
#2=[#536+[#537-#536]*0.21892]
#3=[#1+[#2-#1]*0.19905]
X6.33001 Y-2.91356 Z[#3+-0.04000]
#1=[#529+[#530-#529]*0.22669]
#2=[#536+[#537-#536]*0.22669]
#3=[#1+[#2-#1]*0.19612]
X6.32887 Y-2.91075 Z[#3+-0.04000]
#1=[#529+[#530-#529]*0.23486]
#2=[#536+[#537-#536]*0.23486]
#3=[#1+[#2-#1]*0.19434]
X6.32817 Y-2.90779 Z[#3+-0.04000]
#1=[#529+[#530-#529]*0.24323]
#2=[#536+[#537-#536]*0.24323]
#3=[#1+[#2-#1]*0.19374]
X6.32793 Y-2.90476 Z[#3+-0.04000]
#1=[#529+[#530-#529]*0.91222]
#2=[#536+[#537-#536]*0.91222]
#3=[#1+[#2-#1]*0.19374]
X6.32793 Y-2.66254 Z[#3+-0.04000]
#1=[#529+[#530-#529]*0.91222]
#2=[#536+[#537-#536]*0.91222]
#3=[#1+[#2-#1]*0.06165]
X6.27619 Y-2.66254 Z[#3+-0.04000]
#1=[#529+[#530-#529]*0.91341]
#2=[#536+[#537-#536]*0.91341]
#3=[#1+[#2-#1]*0.05121]
X6.27210 Y-2.66211 Z[#3+-0.04000]
#1=[#529+[#530-#529]*0.91692]
#2=[#536+[#537-#536]*0.91692]
#3=[#1+[#2-#1]*0.04121]
X6.26818 Y-2.66084 Z[#3+-0.04000]
#1=[#529+[#530-#529]*0.92260]
#2=[#536+[#537-#536]*0.92260]
#3=[#1+[#2-#1]*0.03212]
X6.26462 Y-2.65878 Z[#3+-0.04000]
#1=[#529+[#530-#529]*0.93021]
#2=[#536+[#537-#536]*0.93021]
#3=[#1+[#2-#1]*0.02431]
X6.26156 Y-2.65603 Z[#3+-0.04000]
#1=[#529+[#530-#529]*0.93940]
#2=[#536+[#537-#536]*0.93940]
#3=[#1+[#2-#1]*0.01814]
X6.25914 Y-2.65270 Z[#3+-0.04000]
#1=[#529+[#530-#529]*0.94978]
#2=[#536+[#537-#536]*0.94978]
#3=[#1+[#2-#1]*0.01386]
X6.25747 Y-2.64894 Z[#3+-0.04000]
#1=[#529+[#530-#529]*0.96090]
#2=[#536+[#537-#536]*0.96090]
#3=[#1+[#2-#1]*0.01168]
X6.25661 Y-2.64491 Z[#3+-0.04000]
G04 P0 ( dwell for no time -- G64 should not smooth over this point )
G00 Z0.08000 ( retract )

G00 X6.49510 Y-3.30051 ( rapid move to begin. )
G01 F180.00000
( Mill infeed pass 1/1 )
#1=[#528+[#529-#528]*0.15019]
#2=[#535+[#536-#535]*0.15019]
#3=[#1+[#2-#1]*0.62048]
G01 Z[-0.04000+#111]
G04 P0 ( dwell for no time -- G64 should not smooth over this point )
G01 F360.00000
#1=[#528+[#529-#528]*0.15303]
#2=[#535+[#536-#535]*0.15303]
#3=[#1+[#2-#1]*0.62048]
X6.49510 Y-3.29948 Z[#3+-0.04000]
#1=[#528+[#529-#528]*0.15581]
#2=[#535+[#536-#535]*0.15581]
#3=[#1+[#2-#1]*0.62103]
X6.49532 Y-3.29848 Z[#3+-0.04000]
#1=[#528+[#529-#528]*0.15841]
#2=[#535+[#536-#535]*0.15841]
#3=[#1+[#2-#1]*0.62210]
X6.49574 Y-3.29754 Z[#3+-0.04000]
#1=[#528+[#529-#528]*0.16071]
#2=[#535+[#536-#535]*0.16071]
#3=[#1+[#2-#1]*0.62364]
X6.49634 Y-3.29671 Z[#3+-0.04000]
#1=[#528+[#529-#528]*0.16261]
#2=[#535+[#536-#535]*0.16261]
#3=[#1+[#2-#1]*0.62559]
X6.49711 Y-3.29602 Z[#3+-0.04000]
#1=[#528+[#529-#528]*0.16403]
#2=[#535+[#536-#535]*0.16403]
#3=[#1+[#2-#1]*0.62787]
X6.49800 Y-3.29550 Z[#3+-0.04000]
#1=[#528+[#529-#528]*0.16491]
#2=[#535+[#536-#535]*0.16491]
#3=[#1+[#2-#1]*0.63036]
X6.49898 Y-3.29519 Z[#3+-0.04000]
#1=[#528+[#529-#528]*0.16521]
#2=[#535+[#536-#535]*0.16521]
#3=[#1+[#2-#1]*0.63298]
X6.50000 Y-3.29508 Z[#3+-0.04000]
#1=[#528+[#529-#528]*0.16521]
#2=[#535+[#536-#535]*0.16521]
#3=[#1+[#2-#1]*0.74805]
X6.54508 Y-3.29508 Z[#3+-0.04000]
#1=[#528+[#529-#528]*0.28971]
#2=[#535+[#536-#535]*0.28971]
#3=[#1+[#2-#1]*0.74805]
X6.54508 Y-3.25000 Z[#3+-0.04000]
#1=[#528+[#529-#528]*0.29254]
#2=[#535+[#536-#535]*0.29254]
#3=[#1+[#2-#1]*0.74832]
X6.54519 Y-3.24898 Z[#3+-0.04000]
#1=[#528+[#529-#528]*0.29524]
#2=[#535+[#536-#535]*0.29524]
#3=[#1+[#2-#1]*0.74913]
X6.54550 Y-3.24800 Z[#3+-0.04000]
#1=[#528+[#529-#528]*0.29770]
#2=[#535+[#536-#535]*0.29770]
#3=[#1+[#2-#1]*0.75045]
X6.54602 Y-3.24711 Z[#3+-0.04000]
#1=[#528+[#529-#528]*0.29981]
#2=[#535+[#536-#535]*0.29981]
#3=[#1+[#2-#1]*0.75221]
X6.54671 Y-3.24634 Z[#3+-0.04000]
#1=[#528+[#529-#528]*0.30148]
#2=[#535+[#536-#535]*0.30148]
#3=[#1+[#2-#1]*0.75433]
X6.54754 Y-3.24574 Z[#3+-0.04000]
#1=[#528+[#529-#528]*0.30264]
#2=[#535+[#536-#535]*0.30264]
#3=[#1+[#2-#1]*0.75673]
X6.54848 Y-3.24532 Z[#3+-0.04000]
#1=[#528+[#529-#528]*0.30323]
#2=[#535+[#536-#535]*0.30323]
#3=[#1+[#2-#1]*0.75930]
X6.54948 Y-3.24511 Z[#3+-0.04000]
#1=[#528+[#529-#528]*0.30323]
#2=[#535+[#536-#535]*0.30323]
#3=[#1+[#2-#1]*0.76192]
X6.55051 Y-3.24511 Z[#3+-0.04000]
#1=[#528+[#529-#528]*0.30264]
#2=[#535+[#536-#535]*0.30264]
#3=[#1+[#2-#1]*0.76449]
X6.55152 Y-3.24532 Z[#3+-0.04000]
#1=[#528+[#529-#528]*0.30148]
#2=[#535+[#536-#535]*0.30148]
#3=[#1+[#2-#1]*0.76689]
X6.55246 Y-3.24574 Z[#3+-0.04000]
#1=[#528+[#529-#528]*0.29981]
#2=[#535+[#536-#535]*0.29981]
#3=[#1+[#2-#1]*0.76901]
X6.55329 Y-3.24634 Z[#3+-0.04000]
#1=[#528+[#529-#528]*0.29770]
#2=[#535+[#536-#535]*0.29770]
#3=[#1+[#2-#1]*0.77077]
X6.55398 Y-3.24711 Z[#3+-0.04000]
#1=[#528+[#529-#528]*0.29524]
#2=[#535+[#536-#535]*0.29524]
#3=[#1+[#2-#1]*0.77209]
X6.55450 Y-3.24800 Z[#3+-0.04000]
#1=[#528+[#529-#528]*0.29254]
#2=[#535+[#536-#535]*0.29254]
#3=[#1+[#2-#1]*0.77290]
X6.55481 Y-3.24898 Z[#3+-0.04000]
#1=[#528+[#529-#528]*0.28971]
#2=[#535+[#536-#535]*0.28971]
#3=[#1+[#2-#1]*0.77317]
X6.55492 Y-3.25000 Z[#3+-0.04000]
#1=[#528+[#529-#528]*0.16521]
#2=[#535+[#536-#535]*0.16521]
#3=[#1+[#2-#1]*0.77317]
X6.55492 Y-3.29508 Z[#3+-0.04000]
#1=[#528+[#529-#528]*0.16521]
#2=[#535+[#536-#535]*0.16521]
#3=[#1+[#2-#1]*0.88825]
X6.60000 Y-3.29508 Z[#3+-0.04000]
#1=[#528+[#529-#528]*0.16491]
#2=[#535+[#536-#535]*0.16491]
#3=[#1+[#2-#1]*0.89086]
X6.60102 Y-3.29519 Z[#3+-0.04000]
#1=[#528+[#529-#528]*0.16403]
#2=[#535+[#536-#535]*0.16403]
#3=[#1+[#2-#1]*0.89335]
X6.60200 Y-3.29550 Z[#3+-0.04000]
#1=[#528+[#529-#528]*0.16261]
#2=[#535+[#536-#535]*0.16261]
#3=[#1+[#2-#1]*0.89563]
X6.60289 Y-3.29602 Z[#3+-0.04000]
#1=[#528+[#529-#528]*0.16071]
#2=[#535+[#536-#535]*0.16071]
#3=[#1+[#2-#1]*0.89758]
X6.60366 Y-3.29671 Z[#3+-0.04000]
#1=[#528+[#529-#528]*0.15841]
#2=[#535+[#536-#535]*0.15841]
#3=[#1+[#2-#1]*0.89912]
X6.60426 Y-3.29754 Z[#3+-0.04000]
#1=[#528+[#529-#528]*0.15581]
#2=[#535+[#536-#535]*0.15581]
#3=[#1+[#2-#1]*0.90019]
X6.60468 Y-3.29848 Z[#3+-0.04000]
#1=[#528+[#529-#528]*0.15303]
#2=[#535+[#536-#535]*0.15303]
#3=[#1+[#2-#1]*0.90074]
X6.60489 Y-3.29948 Z[#3+-0.04000]
#1=[#528+[#529-#528]*0.15019]
#2=[#535+[#536-#535]*0.15019]
#3=[#1+[#2-#1]*0.90074]
X6.60489 Y-3.30051 Z[#3+-0.04000]
#1=[#528+[#529-#528]*0.14741]
#2=[#535+[#536-#535]*0.14741]
#3=[#1+[#2-#1]*0.90019]
X6.60468 Y-3.30152 Z[#3+-0.04000]
#1=[#528+[#529-#528]*0.14482]
#2=[#535+[#536-#535]*0.14482]
#3=[#1+[#2-#1]*0.89912]
X6.60426 Y-3.30246 Z[#3+-0.04000]
#1=[#528+[#529-#528]*0.14252]
#2=[#535+[#536-#535]*0.14252]
#3=[#1+[#2-#1]*0.89758]
X6.60366 Y-3.30329 Z[#3+-0.04000]
#1=[#528+[#529-#528]*0.14062]
#2=[#535+[#536-#535]*0.14062]
#3=[#1+[#2-#1]*0.89563]
X6.60289 Y-3.30398 Z[#3+-0.04000]
#1=[#528+[#529-#528]*0.13920]
#2=[#535+[#536-#535]*0.13920]
#3=[#1+[#2-#1]*0.89335]
X6.60200 Y-3.30450 Z[#3+-0.04000]
#1=[#528+[#529-#528]*0.13832]
#2=[#535+[#536-#535]*0.13832]
#3=[#1+[#2-#1]*0.89086]
X6.60102 Y-3.30481 Z[#3+-0.04000]
#1=[#528+[#529-#528]*0.13802]
#2=[#535+[#536-#535]*0.13802]
#3=[#1+[#2-#1]*0.88825]
X6.60000 Y-3.30492 Z[#3+-0.04000]
#1=[#528+[#529-#528]*0.13802]
#2=[#535+[#536-#535]*0.13802]
#3=[#1+[#2-#1]*0.77317]
X6.55492 Y-3.30492 Z[#3+-0.04000]
#1=[#528+[#529-#528]*0.01352]
#2=[#535+[#536-#535]*0.01352]
#3=[#1+[#2-#1]*0.77317]
X6.55492 Y-3.35000 Z[#3+-0.04000]
#1=[#528+[#529-#528]*0.01069]
#2=[#535+[#536-#535]*0.01069]
#3=[#1+[#2-#1]*0.77290]
X6.55481 Y-3.35102 Z[#3+-0.04000]
#1=[#528+[#529-#528]*0.00799]
#2=[#535+[#536-#535]*0.00799]
#3=[#1+[#2-#1]*0.77209]
X6.55450 Y-3.35200 Z[#3+-0.04000]
#1=[#528+[#529-#528]*0.00553]
#2=[#535+[#536-#535]*0.00553]
#3=[#1+[#2-#1]*0.77077]
X6.55398 Y-3.35289 Z[#3+-0.04000]
#1=[#528+[#529-#528]*0.00342]
#2=[#535+[#536-#535]*0.00342]
#3=[#1+[#2-#1]*0.76901]
X6.55329 Y-3.35366 Z[#3+-0.04000]
#1=[#528+[#529-#528]*0.00175]
#2=[#535+[#536-#535]*0.00175]
#3=[#1+[#2-#1]*0.76689]
X6.55246 Y-3.35426 Z[#3+-0.04000]
#1=[#528+[#529-#528]*0.00059]
#2=[#535+[#536-#535]*0.00059]
#3=[#1+[#2-#1]*0.76449]
X6.55152 Y-3.35468 Z[#3+-0.04000]
#1=[#528+[#529-#528]*0.00000]
#2=[#535+[#536-#535]*0.00000]
#3=[#1+[#2-#1]*0.76192]
X6.55051 Y-3.35489 Z[#3+-0.04000]
#1=[#528+[#529-#528]*0.00000]
#2=[#535+[#536-#535]*0.00000]
#3=[#1+[#2-#1]*0.75930]
X6.54948 Y-3.35489 Z[#3+-0.04000]
#1=[#528+[#529-#528]*0.00059]
#2=[#535+[#536-#535]*0.00059]
#3=[#1+[#2-#1]*0.75673]
X6.54848 Y-3.35468 Z[#3+-0.04000]
#1=[#528+[#529-#528]*0.00175]
#2=[#535+[#536-#535]*0.00175]
#3=[#1+[#2-#1]*0.75433]
X6.54754 Y-3.35426 Z[#3+-0.04000]
#1=[#528+[#529-#528]*0.00342]
#2=[#535+[#536-#535]*0.00342]
#3=[#1+[#2-#1]*0.75221]
X6.54671 Y-3.35366 Z[#3+-0.04000]
#1=[#528+[#529-#528]*0.00553]
#2=[#535+[#536-#535]*0.00553]
#3=[#1+[#2-#1]*0.75045]
X6.54602 Y-3.35289 Z[#3+-0.04000]
#1=[#528+[#529-#528]*0.00799]
#2=[#535+[#536-#535]*0.00799]
#3=[#1+[#2-#1]*0.74913]
X6.54550 Y-3.35200 Z[#3+-0.04000]
#1=[#528+[#529-#528]*0.01069]
#2=[#535+[#536-#535]*0.01069]
#3=[#1+[#2-#1]*0.74832]
X6.54519 Y-3.35102 Z[#3+-0.04000]
#1=[#528+[#529-#528]*0.01352]
#2=[#535+[#536-#535]*0.01352]
#3=[#1+[#2-#1]*0.74805]
X6.54508 Y-3.35000 Z[#3+-0.04000]
#1=[#528+[#529-#528]*0.13802]
#2=[#535+[#536-#535]*0.13802]
#3=[#1+[#2-#1]*0.74805]
X6.54508 Y-3.30492 Z[#3+-0.04000]
#1=[#528+[#529-#528]*0.13802]
#2=[#535+[#536-#535]*0.13802]
#3=[#1+[#2-#1]*0.63298]
X6.50000 Y-3.30492 Z[#3+-0.04000]
#1=[#528+[#529-#528]*0.13832]
#2=[#535+[#536-#535]*0.13832]
#3=[#1+[#2-#1]*0.63036]
X6.49898 Y-3.30481 Z[#3+-0.04000]
#1=[#528+[#529-#528]*0.13920]
#2=[#535+[#536-#535]*0.13920]
#3=[#1+[#2-#1]*0.62787]
X6.49800 Y-3.30450 Z[#3+-0.04000]
#1=[#528+[#529-#528]*0.14062]
#2=[#535+[#536-#535]*0.14062]
#3=[#1+[#2-#1]*0.62559]
X6.49711 Y-3.30398 Z[#3+-0.04000]
#1=[#528+[#529-#528]*0.14252]
#2=[#535+[#536-#535]*0.14252]
#3=[#1+[#2-#1]*0.62364]
X6.49634 Y-3.30329 Z[#3+-0.04000]
#1=[#528+[#529-#528]*0.14482]
#2=[#535+[#536-#535]*0.14482]
#3=[#1+[#2-#1]*0.62210]
X6.49574 Y-3.30246 Z[#3+-0.04000]
#1=[#528+[#529-#528]*0.14741]
#2=[#535+[#536-#535]*0.14741]
#3=[#1+[#2-#1]*0.62103]
X6.49532 Y-3.30152 Z[#3+-0.04000]
#1=[#528+[#529-#528]*0.15019]
#2=[#535+[#536-#535]*0.15019]
#3=[#1+[#2-#1]*0.62048]
X6.49510 Y-3.30051 Z[#3+-0.04000]
( Piece #2, position [1;0] )

G04 P0 ( dwell for no time -- G64 should not smooth over this point )
G00 Z0.08000 ( retract )

G00 X6.85909 Y-2.97619 ( rapid move to begin. )
G01 F180.00000
( Mill infeed pass 1/1 )
#1=[#536+[#537-#536]*0.04595]
#2=[#543+[#544-#543]*0.04595]
#3=[#1+[#2-#1]*0.54963]
G01 Z[-0.04000+#111]
G04 P0 ( dwell for no time -- G64 should not smooth over this point )
G01 F360.00000
#1=[#537+[#538-#537]*0.00000]
#2=[#544+[#545-#544]*0.00000]
#3=[#1+[#2-#1]*0.54963]
X6.85909 Y-2.63076 Z[#3+-0.04000]
#1=[#537+[#538-#537]*0.42691]
#2=[#544+[#545-#544]*0.42691]
#3=[#1+[#2-#1]*0.54963]
X6.85909 Y-2.47619 Z[#3+-0.04000]
#1=[#537+[#538-#537]*0.43751]
#2=[#544+[#545-#544]*0.43751]
#3=[#1+[#2-#1]*0.55060]
X6.85947 Y-2.47235 Z[#3+-0.04000]
#1=[#537+[#538-#537]*0.44771]
#2=[#544+[#545-#544]*0.44771]
#3=[#1+[#2-#1]*0.55346]
X6.86059 Y-2.46866 Z[#3+-0.04000]
#1=[#537+[#538-#537]*0.45711]
#2=[#544+[#545-#544]*0.45711]
#3=[#1+[#2-#1]*0.55810]
X6.86241 Y-2.46525 Z[#3+-0.04000]
#1=[#537+[#538-#537]*0.46535]
#2=[#544+[#545-#544]*0.46535]
#3=[#1+[#2-#1]*0.56435]
X6.86486 Y-2.46227 Z[#3+-0.04000]
#1=[#537+[#538-#537]*0.47211]
#2=[#544+[#545-#544]*0.47211]
#3=[#1+[#2-#1]*0.57196]
X6.86784 Y-2.45982 Z[#3+-0.04000]
#1=[#537+[#538-#537]*0.47714]
#2=[#544+[#545-#544]*0.47714]
#3=[#1+[#2-#1]*0.58065]
X6.87124 Y-2.45800 Z[#3+-0.04000]
#1=[#537+[#538-#537]*0.48023]
#2=[#544+[#545-#544]*0.48023]
#3=[#1+[#2-#1]*0.59008]
X6.87494 Y-2.45688 Z[#3+-0.04000]
#1=[#537+[#538-#537]*0.48128]
#2=[#544+[#545-#544]*0.48128]
#3=[#1+[#2-#1]*0.59988]
X6.87878 Y-2.45650 Z[#3+-0.04000]
#1=[#544+[#545-#544]*0.48128]
#2=[#551+[#552-#551]*0.48128]
#3=[#1+[#2-#1]*0.00000]
X7.03552 Y-2.45650 Z[#3+-0.04000]
#1=[#544+[#545-#544]*0.48128]
#2=[#551+[#552-#551]*0.48128]
#3=[#1+[#2-#1]*0.20767]
X7.11687 Y-2.45650 Z[#3+-0.04000]
#1=[#544+[#545-#544]*0.48009]
#2=[#551+[#552-#551]*0.48009]
#3=[#1+[#2-#1]*0.21812]
X7.12096 Y-2.45694 Z[#3+-0.04000]
#1=[#544+[#545-#544]*0.47658]
#2=[#551+[#552-#551]*0.47658]
#3=[#1+[#2-#1]*0.22811]
X7.12488 Y-2.45821 Z[#3+-0.04000]
#1=[#544+[#545-#544]*0.47089]
#2=[#551+[#552-#551]*0.47089]
#3=[#1+[#2-#1]*0.23721]
X7.12844 Y-2.46026 Z[#3+-0.04000]
#1=[#544+[#545-#544]*0.46329]
#2=[#551+[#552-#551]*0.46329]
#3=[#1+[#2-#1]*0.24501]
X7.13150 Y-2.46302 Z[#3+-0.04000]
#1=[#544+[#545-#544]*0.45409]
#2=[#551+[#552-#551]*0.45409]
#3=[#1+[#2-#1]*0.25119]
X7.13392 Y-2.46635 Z[#3+-0.04000]
#1=[#544+[#545-#544]*0.44371]
#2=[#551+[#552-#551]*0.44371]
#3=[#1+[#2-#1]*0.25546]
X7.13559 Y-2.47011 Z[#3+-0.04000]
#1=[#544+[#545-#544]*0.43259]
#2=[#551+[#552-#551]*0.43259]
#3=[#1+[#2-#1]*0.25765]
X7.13645 Y-2.47413 Z[#3+-0.04000]
#1=[#544+[#545-#544]*0.42122]
#2=[#551+[#552-#551]*0.42122]
#3=[#1+[#2-#1]*0.25765]
X7.13645 Y-2.47825 Z[#3+-0.04000]
#1=[#544+[#545-#544]*0.41011]
#2=[#551+[#552-#551]*0.41011]
#3=[#1+[#2-#1]*0.25546]
X7.13559 Y-2.48227 Z[#3+-0.04000]
#1=[#544+[#545-#544]*0.39972]
#2=[#551+[#552-#551]*0.39972]
#3=[#1+[#2-#1]*0.25119]
X7.13392 Y-2.48603 Z[#3+-0.04000]
#1=[#544+[#545-#544]*0.39053]
#2=[#551+[#552-#551]*0.39053]
#3=[#1+[#2-#1]*0.24501]
X7.13150 Y-2.48936 Z[#3+-0.04000]
#1=[#544+[#545-#544]*0.38292]
#2=[#551+[#552-#551]*0.38292]
#3=[#1+[#2-#1]*0.23721]
X7.12844 Y-2.49212 Z[#3+-0.04000]
#1=[#544+[#545-#544]*0.37724]
#2=[#551+[#552-#551]*0.37724]
#3=[#1+[#2-#1]*0.22811]
X7.12488 Y-2.49417 Z[#3+-0.04000]
#1=[#544+[#545-#544]*0.37373]
#2=[#551+[#552-#551]*0.37373]
#3=[#1+[#2-#1]*0.21812]
X7.12096 Y-2.49544 Z[#3+-0.04000]
#1=[#544+[#545-#544]*0.37254]
#2=[#551+[#552-#551]*0.37254]
#3=[#1+[#2-#1]*0.20767]
X7.11687 Y-2.49587 Z[#3+-0.04000]
#1=[#544+[#545-#544]*0.37254]
#2=[#551+[#552-#551]*0.37254]
#3=[#1+[#2-#1]*0.00000]
X7.03552 Y-2.49587 Z[#3+-0.04000]
#1=[#537+[#538-#537]*0.37254]
#2=[#544+[#545-#544]*0.37254]
#3=[#1+[#2-#1]*0.65013]
X6.89846 Y-2.49587 Z[#3+-0.04000]
#1=[#537+[#538-#537]*0.00000]
#2=[#544+[#545-#544]*0.00000]
#3=[#1+[#2-#1]*0.65013]
X6.89846 Y-2.63076 Z[#3+-0.04000]
#1=[#536+[#537-#536]*0.82368]
#2=[#543+[#544-#543]*0.82368]
#3=[#1+[#2-#1]*0.65013]
X6.89846 Y-2.69460 Z[#3+-0.04000]
#1=[#543+[#544-#543]*0.82368]
#2=[#550+[#551-#550]*0.82368]
#3=[#1+[#2-#1]*0.00000]
X7.03552 Y-2.69460 Z[#3+-0.04000]
#1=[#543+[#544-#543]*0.82368]
#2=[#550+[#551-#550]*0.82368]
#3=[#1+[#2-#1]*0.02534]
X7.04544 Y-2.69460 Z[#3+-0.04000]
#1=[#543+[#544-#543]*0.82249]
#2=[#550+[#551-#550]*0.82249]
#3=[#1+[#2-#1]*0.03578]
X7.04954 Y-2.69503 Z[#3+-0.04000]
#1=[#543+[#544-#543]*0.81898]
#2=[#550+[#551-#550]*0.81898]
#3=[#1+[#2-#1]*0.04577]
X7.05345 Y-2.69630 Z[#3+-0.04000]
#1=[#543+[#544-#543]*0.81329]
#2=[#550+[#551-#550]*0.81329]
#3=[#1+[#2-#1]*0.05487]
X7.05701 Y-2.69836 Z[#3+-0.04000]
#1=[#543+[#544-#543]*0.80569]
#2=[#550+[#551-#550]*0.80569]
#3=[#1+[#2-#1]*0.06268]
X7.06007 Y-2.70111 Z[#3+-0.04000]
#1=[#543+[#544-#543]*0.79649]
#2=[#550+[#551-#550]*0.79649]
#3=[#1+[#2-#1]*0.06885]
X7.06249 Y-2.70444 Z[#3+-0.04000]
#1=[#543+[#544-#543]*0.78611]
#2=[#550+[#551-#550]*0.78611]
#3=[#1+[#2-#1]*0.07312]
X7.06416 Y-2.70820 Z[#3+-0.04000]
#1=[#543+[#544-#543]*0.77499]
#2=[#550+[#551-#550]*0.77499]
#3=[#1+[#2-#1]*0.07531]
X7.06502 Y-2.71223 Z[#3+-0.04000]
#1=[#543+[#544-#543]*0.76363]
#2=[#550+[#551-#550]*0.76363]
#3=[#1+[#2-#1]*0.07531]
X7.06502 Y-2.71634 Z[#3+-0.04000]
#1=[#543+[#544-#543]*0.75251]
#2=[#550+[#551-#550]*0.75251]
#3=[#1+[#2-#1]*0.07312]
X7.06416 Y-2.72037 Z[#3+-0.04000]
#1=[#543+[#544-#543]*0.74212]
#2=[#550+[#551-#550]*0.74212]
#3=[#1+[#2-#1]*0.06885]
X7.06249 Y-2.72413 Z[#3+-0.04000]
#1=[#543+[#544-#543]*0.73293]
#2=[#550+[#551-#550]*0.73293]
#3=[#1+[#2-#1]*0.06268]
X7.06007 Y-2.72746 Z[#3+-0.04000]
#1=[#543+[#544-#543]*0.72532]
#2=[#550+[#551-#550]*0.72532]
#3=[#1+[#2-#1]*0.05487]
X7.05701 Y-2.73021 Z[#3+-0.04000]
#1=[#543+[#544-#543]*0.71964]
#2=[#550+[#551-#550]*0.71964]
#3=[#1+[#2-#1]*0.04577]
X7.05345 Y-2.73227 Z[#3+-0.04000]
#1=[#543+[#544-#543]*0.71613]
#2=[#550+[#551-#550]*0.71613]
#3=[#1+[#2-#1]*0.03578]
X7.04954 Y-2.73354 Z[#3+-0.04000]
#1=[#543+[#544-#543]*0.71494]
#2=[#550+[#551-#550]*0.71494]
#3=[#1+[#2-#1]*0.02534]
X7.04544 Y-2.73397 Z[#3+-0.04000]
#1=[#543+[#544-#543]*0.71494]
#2=[#550+[#551-#550]*0.71494]
#3=[#1+[#2-#1]*0.00000]
X7.03552 Y-2.73397 Z[#3+-0.04000]
#1=[#536+[#537-#536]*0.71494]
#2=[#543+[#544-#543]*0.71494]
#3=[#1+[#2-#1]*0.65013]
X6.89846 Y-2.73397 Z[#3+-0.04000]
#1=[#536+[#537-#536]*0.04595]
#2=[#543+[#544-#543]*0.04595]
#3=[#1+[#2-#1]*0.65013]
X6.89846 Y-2.97619 Z[#3+-0.04000]
#1=[#536+[#537-#536]*0.03465]
#2=[#543+[#544-#543]*0.03465]
#3=[#1+[#2-#1]*0.64903]
X6.89803 Y-2.98028 Z[#3+-0.04000]
#1=[#536+[#537-#536]*0.02384]
#2=[#543+[#544-#543]*0.02384]
#3=[#1+[#2-#1]*0.64579]
X6.89676 Y-2.98420 Z[#3+-0.04000]
#1=[#536+[#537-#536]*0.01399]
#2=[#543+[#544-#543]*0.01399]
#3=[#1+[#2-#1]*0.64053]
X6.89470 Y-2.98776 Z[#3+-0.04000]
#1=[#536+[#537-#536]*0.00555]
#2=[#543+[#544-#543]*0.00555]
#3=[#1+[#2-#1]*0.63350]
X6.89195 Y-2.99082 Z[#3+-0.04000]
#1=[#536+[#537-#536]*0.00000]
#2=[#543+[#544-#543]*0.00000]
#3=[#1+[#2-#1]*0.62645]
X6.88918 Y-2.99283 Z[#3+-0.04000]
#1=[#535+[#536-#535]*0.99887]
#2=[#542+[#543-#542]*0.99887]
#3=[#1+[#2-#1]*0.62501]
X6.88862 Y-2.99324 Z[#3+-0.04000]
#1=[#535+[#536-#535]*0.99424]
#2=[#542+[#543-#542]*0.99424]
#3=[#1+[#2-#1]*0.61541]
X6.88486 Y-2.99491 Z[#3+-0.04000]
#1=[#535+[#536-#535]*0.99188]
#2=[#542+[#543-#542]*0.99188]
#3=[#1+[#2-#1]*0.60513]
X6.88083 Y-2.99577 Z[#3+-0.04000]
#1=[#535+[#536-#535]*0.99188]
#2=[#542+[#543-#542]*0.99188]
#3=[#1+[#2-#1]*0.59463]
X6.87672 Y-2.99577 Z[#3+-0.04000]
#1=[#535+[#536-#535]*0.99424]
#2=[#542+[#543-#542]*0.99424]
#3=[#1+[#2-#1]*0.58435]
X6.87269 Y-2.99491 Z[#3+-0.04000]
#1=[#535+[#536-#535]*0.99887]
#2=[#542+[#543-#542]*0.99887]
#3=[#1+[#2-#1]*0.57476]
X6.86893 Y-2.99324 Z[#3+-0.04000]
#1=[#536+[#537-#536]*0.00000]
#2=[#543+[#544-#543]*0.00000]
#3=[#1+[#2-#1]*0.57331]
X6.86837 Y-2.99283 Z[#3+-0.04000]
#1=[#536+[#537-#536]*0.00555]
#2=[#543+[#544-#543]*0.00555]
#3=[#1+[#2-#1]*0.56626]
X6.86560 Y-2.99082 Z[#3+-0.04000]
#1=[#536+[#537-#536]*0.01399]
#2=[#543+[#544-#543]*0.01399]
#3=[#1+[#2-#1]*0.55923]
X6.86285 Y-2.98776 Z[#3+-0.04000]
#1=[#536+[#537-#536]*0.02384]
#2=[#543+[#544-#543]*0.02384]
#3=[#1+[#2-#1]*0.55397]
X6.86079 Y-2.98420 Z[#3+-0.04000]
#1=[#536+[#537-#536]*0.03465]
#2=[#543+[#544-#543]*0.03465]
#3=[#1+[#2-#1]*0.55073]
X6.85952 Y-2.98028 Z[#3+-0.04000]
#1=[#536+[#537-#536]*0.04595]
#2=[#543+[#544-#543]*0.04595]
#3=[#1+[#2-#1]*0.54963]
X6.85909 Y-2.97619 Z[#3+-0.04000]
G04 P0 ( dwell for no time -- G64 should not smooth over this point )
G00 Z0.08000 ( retract )

G00 X7.28766 Y-2.97619 ( rapid move to begin. )
G01 F180.00000
( Mill infeed pass 1/1 )
#1=[#543+[#544-#543]*0.04595]
#2=[#550+[#551-#550]*0.04595]
#3=[#1+[#2-#1]*0.64365]
G01 Z[-0.04000+#111]
G04 P0 ( dwell for no time -- G64 should not smooth over this point )
G01 F360.00000
#1=[#543+[#544-#543]*0.96659]
#2=[#550+[#551-#550]*0.96659]
#3=[#1+[#2-#1]*0.64365]
X7.28766 Y-2.64286 Z[#3+-0.04000]
#1=[#543+[#544-#543]*0.97789]
#2=[#550+[#551-#550]*0.97789]
#3=[#1+[#2-#1]*0.64475]
X7.28809 Y-2.63876 Z[#3+-0.04000]
#1=[#543+[#544-#543]*0.98870]
#2=[#550+[#551-#550]*0.98870]
#3=[#1+[#2-#1]*0.64799]
X7.28936 Y-2.63485 Z[#3+-0.04000]
#1=[#543+[#544-#543]*0.99854]
#2=[#550+[#551-#550]*0.99854]
#3=[#1+[#2-#1]*0.65325]
X7.29142 Y-2.63129 Z[#3+-0.04000]
#1=[#544+[#545-#544]*0.00000]
#2=[#551+[#552-#551]*0.00000]
#3=[#1+[#2-#1]*0.65446]
X7.29190 Y-2.63076 Z[#3+-0.04000]
#1=[#544+[#545-#544]*0.00699]
#2=[#551+[#552-#551]*0.00699]
#3=[#1+[#2-#1]*0.66028]
X7.29418 Y-2.62823 Z[#3+-0.04000]
#1=[#544+[#545-#544]*0.01367]
#2=[#551+[#552-#551]*0.01367]
#3=[#1+[#2-#1]*0.66878]
X7.29751 Y-2.62581 Z[#3+-0.04000]
#1=[#544+[#545-#544]*0.01829]
#2=[#551+[#552-#551]*0.01829]
#3=[#1+[#2-#1]*0.67837]
X7.30126 Y-2.62413 Z[#3+-0.04000]
#1=[#544+[#545-#544]*0.02066]
#2=[#551+[#552-#551]*0.02066]
#3=[#1+[#2-#1]*0.68865]
X7.30529 Y-2.62328 Z[#3+-0.04000]
#1=[#544+[#545-#544]*0.02066]
#2=[#551+[#552-#551]*0.02066]
#3=[#1+[#2-#1]*0.69915]
X7.30941 Y-2.62328 Z[#3+-0.04000]
#1=[#544+[#545-#544]*0.01829]
#2=[#551+[#552-#551]*0.01829]
#3=[#1+[#2-#1]*0.70943]
X7.31343 Y-2.62413 Z[#3+-0.04000]
#1=[#544+[#545-#544]*0.01367]
#2=[#551+[#552-#551]*0.01367]
#3=[#1+[#2-#1]*0.71903]
X7.31719 Y-2.62581 Z[#3+-0.04000]
#1=[#544+[#545-#544]*0.00699]
#2=[#551+[#552-#551]*0.00699]
#3=[#1+[#2-#1]*0.72752]
X7.32052 Y-2.62823 Z[#3+-0.04000]
#1=[#544+[#545-#544]*0.00000]
#2=[#551+[#552-#551]*0.00000]
#3=[#1+[#2-#1]*0.73334]
X7.32280 Y-2.63076 Z[#3+-0.04000]
#1=[#543+[#544-#543]*0.99854]
#2=[#550+[#551-#550]*0.99854]
#3=[#1+[#2-#1]*0.73455]
X7.32327 Y-2.63129 Z[#3+-0.04000]
#1=[#543+[#544-#543]*0.98870]
#2=[#550+[#551-#550]*0.98870]
#3=[#1+[#2-#1]*0.73981]
X7.32533 Y-2.63485 Z[#3+-0.04000]
#1=[#543+[#544-#543]*0.97789]
#2=[#550+[#551-#550]*0.97789]
#3=[#1+[#2-#1]*0.74305]
X7.32660 Y-2.63876 Z[#3+-0.04000]
#1=[#543+[#544-#543]*0.96659]
#2=[#550+[#551-#550]*0.96659]
#3=[#1+[#2-#1]*0.74415]
X7.32703 Y-2.64286 Z[#3+-0.04000]
#1=[#543+[#544-#543]*0.90056]
#2=[#550+[#551-#550]*0.90056]
#3=[#1+[#2-#1]*0.74415]
X7.32703 Y-2.66676 Z[#3+-0.04000]
#1=[#543+[#544-#543]*0.93927]
#2=[#550+[#551-#550]*0.93927]
#3=[#1+[#2-#1]*0.77993]
X7.34105 Y-2.65275 Z[#3+-0.04000]
#1=[#543+[#544-#543]*0.94494]
#2=[#550+[#551-#550]*0.94494]
#3=[#1+[#2-#1]*0.78608]
X7.34346 Y-2.65070 Z[#3+-0.04000]
#1=[#543+[#544-#543]*0.94946]
#2=[#550+[#551-#550]*0.94946]
#3=[#1+[#2-#1]*0.79299]
X7.34616 Y-2.64906 Z[#3+-0.04000]
#1=[#544+[#545-#544]*0.00000]
#2=[#551+[#552-#551]*0.00000]
#3=[#1+[#2-#1]*0.88642]
X7.38277 Y-2.63076 Z[#3+-0.04000]
#1=[#544+[#545-#544]*0.01521]
#2=[#551+[#552-#551]*0.01521]
#3=[#1+[#2-#1]*0.91454]
X7.39378 Y-2.62525 Z[#3+-0.04000]
#1=[#544+[#545-#544]*0.01838]
#2=[#551+[#552-#551]*0.01838]
#3=[#1+[#2-#1]*0.92173]
X7.39660 Y-2.62410 Z[#3+-0.04000]
#1=[#544+[#545-#544]*0.02031]
#2=[#551+[#552-#551]*0.02031]
#3=[#1+[#2-#1]*0.92928]
X7.39956 Y-2.62341 Z[#3+-0.04000]
#1=[#544+[#545-#544]*0.02096]
#2=[#551+[#552-#551]*0.02096]
#3=[#1+[#2-#1]*0.93702]
X7.40259 Y-2.62317 Z[#3+-0.04000]
#1=[#551+[#552-#551]*0.02096]
#2=[#558+[#559-#558]*0.02096]
#3=[#1+[#2-#1]*0.00000]
X7.42726 Y-2.62317 Z[#3+-0.04000]
#1=[#551+[#552-#551]*0.02096]
#2=[#558+[#559-#558]*0.02096]
#3=[#1+[#2-#1]*0.05857]
X7.45021 Y-2.62317 Z[#3+-0.04000]
#1=[#551+[#552-#551]*0.01977]
#2=[#558+[#559-#558]*0.01977]
#3=[#1+[#2-#1]*0.06902]
X7.45430 Y-2.62360 Z[#3+-0.04000]
#1=[#551+[#552-#551]*0.01626]
#2=[#558+[#559-#558]*0.01626]
#3=[#1+[#2-#1]*0.07901]
X7.45821 Y-2.62487 Z[#3+-0.04000]
#1=[#551+[#552-#551]*0.01057]
#2=[#558+[#559-#558]*0.01057]
#3=[#1+[#2-#1]*0.08811]
X7.46178 Y-2.62693 Z[#3+-0.04000]
#1=[#551+[#552-#551]*0.00297]
#2=[#558+[#559-#558]*0.00297]
#3=[#1+[#2-#1]*0.09592]
X7.46483 Y-2.62968 Z[#3+-0.04000]
#1=[#551+[#552-#551]*0.00000]
#2=[#558+[#559-#558]*0.00000]
#3=[#1+[#2-#1]*0.09791]
X7.46561 Y-2.63076 Z[#3+-0.04000]
#1=[#550+[#551-#550]*0.99377]
#2=[#557+[#558-#557]*0.99377]
#3=[#1+[#2-#1]*0.10209]
X7.46725 Y-2.63301 Z[#3+-0.04000]
#1=[#550+[#551-#550]*0.98339]
#2=[#557+[#558-#557]*0.98339]
#3=[#1+[#2-#1]*0.10636]
X7.46893 Y-2.63677 Z[#3+-0.04000]
#1=[#550+[#551-#550]*0.97227]
#2=[#557+[#558-#557]*0.97227]
#3=[#1+[#2-#1]*0.10855]
X7.46978 Y-2.64080 Z[#3+-0.04000]
#1=[#550+[#551-#550]*0.96090]
#2=[#557+[#558-#557]*0.96090]
#3=[#1+[#2-#1]*0.10855]
X7.46978 Y-2.64491 Z[#3+-0.04000]
#1=[#550+[#551-#550]*0.94978]
#2=[#557+[#558-#557]*0.94978]
#3=[#1+[#2-#1]*0.10636]
X7.46893 Y-2.64894 Z[#3+-0.04000]
#1=[#550+[#551-#550]*0.93940]
#2=[#557+[#558-#557]*0.93940]
#3=[#1+[#2-#1]*0.10209]
X7.46725 Y-2.65270 Z[#3+-0.04000]
#1=[#550+[#551-#550]*0.93021]
#2=[#557+[#558-#557]*0.93021]
#3=[#1+[#2-#1]*0.09592]
X7.46483 Y-2.65603 Z[#3+-0.04000]
#1=[#550+[#551-#550]*0.92260]
#2=[#557+[#558-#557]*0.92260]
#3=[#1+[#2-#1]*0.08811]
X7.46178 Y-2.65878 Z[#3+-0.04000]
#1=[#550+[#551-#550]*0.91692]
#2=[#557+[#558-#557]*0.91692]
#3=[#1+[#2-#1]*0.07901]
X7.45821 Y-2.66084 Z[#3+-0.04000]
#1=[#550+[#551-#550]*0.91341]
#2=[#557+[#558-#557]*0.91341]
#3=[#1+[#2-#1]*0.06902]
X7.45430 Y-2.66211 Z[#3+-0.04000]
#1=[#550+[#551-#550]*0.91222]
#2=[#557+[#558-#557]*0.91222]
#3=[#1+[#2-#1]*0.05857]
X7.45021 Y-2.66254 Z[#3+-0.04000]
#1=[#550+[#551-#550]*0.91222]
#2=[#557+[#558-#557]*0.91222]
#3=[#1+[#2-#1]*0.00000]
X7.42726 Y-2.66254 Z[#3+-0.04000]
#1=[#543+[#544-#543]*0.91222]
#2=[#550+[#551-#550]*0.91222]
#3=[#1+[#2-#1]*0.94888]
X7.40723 Y-2.66254 Z[#3+-0.04000]
#1=[#543+[#544-#543]*0.85614]
#2=[#550+[#551-#550]*0.85614]
#3=[#1+[#2-#1]*0.84522]
X7.36663 Y-2.68284 Z[#3+-0.04000]
#1=[#543+[#544-#543]*0.80286]
#2=[#550+[#551-#550]*0.80286]
#3=[#1+[#2-#1]*0.79598]
X7.34734 Y-2.70214 Z[#3+-0.04000]
#1=[#543+[#544-#543]*0.69071]
#2=[#550+[#551-#550]*0.69071]
#3=[#1+[#2-#1]*0.74415]
X7.32703 Y-2.74274 Z[#3+-0.04000]
#1=[#543+[#544-#543]*0.04595]
#2=[#550+[#551-#550]*0.04595]
#3=[#1+[#2-#1]*0.74415]
X7.32703 Y-2.97619 Z[#3+-0.04000]
#1=[#543+[#544-#543]*0.03465]
#2=[#550+[#551-#550]*0.03465]
#3=[#1+[#2-#1]*0.74305]
X7.32660 Y-2.98028 Z[#3+-0.04000]
#1=[#543+[#544-#543]*0.02384]
#2=[#550+[#551-#550]*0.02384]
#3=[#1+[#2-#1]*0.73981]
X7.32533 Y-2.98420 Z[#3+-0.04000]
#1=[#543+[#544-#543]*0.01399]
#2=[#550+[#551-#550]*0.01399]
#3=[#1+[#2-#1]*0.73455]
X7.32327 Y-2.98776 Z[#3+-0.04000]
#1=[#543+[#544-#543]*0.00555]
#2=[#550+[#551-#550]*0.00555]
#3=[#1+[#2-#1]*0.72752]
X7.32052 Y-2.99082 Z[#3+-0.04000]
#1=[#543+[#544-#543]*0.00000]
#2=[#550+[#551-#550]*0.00000]
#3=[#1+[#2-#1]*0.72047]
X7.31776 Y-2.99283 Z[#3+-0.04000]
#1=[#542+[#543-#542]*0.99887]
#2=[#549+[#550-#549]*0.99887]
#3=[#1+[#2-#1]*0.71903]
X7.31719 Y-2.99324 Z[#3+-0.04000]
#1=[#542+[#543-#542]*0.99424]
#2=[#549+[#550-#549]*0.99424]
#3=[#1+[#2-#1]*0.70943]
X7.31343 Y-2.99491 Z[#3+-0.04000]
#1=[#542+[#543-#542]*0.99188]
#2=[#549+[#550-#549]*0.99188]
#3=[#1+[#2-#1]*0.69915]
X7.30941 Y-2.99577 Z[#3+-0.04000]
#1=[#542+[#543-#542]*0.99188]
#2=[#549+[#550-#549]*0.99188]
#3=[#1+[#2-#1]*0.68865]
X7.30529 Y-2.99577 Z[#3+-0.04000]
#1=[#542+[#543-#542]*0.99424]
#2=[#549+[#550-#549]*0.99424]
#3=[#1+[#2-#1]*0.67837]
X7.30126 Y-2.99491 Z[#3+-0.04000]
#1=[#542+[#543-#542]*0.99887]
#2=[#549+[#550-#549]*0.99887]
#3=[#1+[#2-#1]*0.66878]
X7.29751 Y-2.99324 Z[#3+-0.04000]
#1=[#543+[#544-#543]*0.00000]
#2=[#550+[#551-#550]*0.00000]
#3=[#1+[#2-#1]*0.66733]
X7.29694 Y-2.99283 Z[#3+-0.04000]
#1=[#543+[#544-#543]*0.00555]
#2=[#550+[#551-#550]*0.00555]
#3=[#1+[#2-#1]*0.66028]
X7.29418 Y-2.99082 Z[#3+-0.04000]
#1=[#543+[#544-#543]*0.01399]
#2=[#550+[#551-#550]*0.01399]
#3=[#1+[#2-#1]*0.65325]
X7.29142 Y-2.98776 Z[#3+-0.04000]
#1=[#543+[#544-#543]*0.02384]
#2=[#550+[#551-#550]*0.02384]
#3=[#1+[#2-#1]*0.64799]
X7.28936 Y-2.98420 Z[#3+-0.04000]
#1=[#543+[#544-#543]*0.03465]
#2=[#550+[#551-#550]*0.03465]
#3=[#1+[#2-#1]*0.64475]
X7.28809 Y-2.98028 Z[#3+-0.04000]
#1=[#543+[#544-#543]*0.04595]
#2=[#550+[#551-#550]*0.04595]
#3=[#1+[#2-#1]*0.64365]
X7.28766 Y-2.97619 Z[#3+-0.04000]
G04 P0 ( dwell for no time -- G64 should not smooth over this point )
G00 Z0.08000 ( retract )

G00 X7.57338 Y-2.88095 ( rapid move to begin. )
G01 F180.00000
( Mill infeed pass 1/1 )
#1=[#550+[#551-#550]*0.30899]
#2=[#557+[#558-#557]*0.30899]
#3=[#1+[#2-#1]*0.37299]
G01 Z[-0.04000+#111]
G04 P0 ( dwell for no time -- G64 should not smooth over this point )
G01 F360.00000
#1=[#550+[#551-#550]*0.70355]
#2=[#557+[#558-#557]*0.70355]
#3=[#1+[#2-#1]*0.37299]
X7.57338 Y-2.73809 Z[#3+-0.04000]
#1=[#550+[#551-#550]*0.71192]
#2=[#557+[#558-#557]*0.71192]
#3=[#1+[#2-#1]*0.37359]
X7.57361 Y-2.73506 Z[#3+-0.04000]
#1=[#550+[#551-#550]*0.72009]
#2=[#557+[#558-#557]*0.72009]
#3=[#1+[#2-#1]*0.37538]
X7.57431 Y-2.73211 Z[#3+-0.04000]
#1=[#550+[#551-#550]*0.72786]
#2=[#557+[#558-#557]*0.72786]
#3=[#1+[#2-#1]*0.37830]
X7.57546 Y-2.72929 Z[#3+-0.04000]
#1=[#550+[#551-#550]*0.85938]
#2=[#557+[#558-#557]*0.85938]
#3=[#1+[#2-#1]*0.43908]
X7.59927 Y-2.68167 Z[#3+-0.04000]
#1=[#550+[#551-#550]*0.86686]
#2=[#557+[#558-#557]*0.86686]
#3=[#1+[#2-#1]*0.44326]
X7.60090 Y-2.67897 Z[#3+-0.04000]
#1=[#550+[#551-#550]*0.87351]
#2=[#557+[#558-#557]*0.87351]
#3=[#1+[#2-#1]*0.44849]
X7.60295 Y-2.67656 Z[#3+-0.04000]
#1=[#550+[#551-#550]*0.93927]
#2=[#557+[#558-#557]*0.93927]
#3=[#1+[#2-#1]*0.50927]
X7.62676 Y-2.65275 Z[#3+-0.04000]
#1=[#550+[#551-#550]*0.94494]
#2=[#557+[#558-#557]*0.94494]
#3=[#1+[#2-#1]*0.51542]
X7.62917 Y-2.65070 Z[#3+-0.04000]
#1=[#550+[#551-#550]*0.94946]
#2=[#557+[#558-#557]*0.94946]
#3=[#1+[#2-#1]*0.52233]
X7.63188 Y-2.64906 Z[#3+-0.04000]
#1=[#551+[#552-#551]*0.00000]
#2=[#558+[#559-#558]*0.00000]
#3=[#1+[#2-#1]*0.61576]
X7.66848 Y-2.63076 Z[#3+-0.04000]
#1=[#551+[#552-#551]*0.01521]
#2=[#558+[#559-#558]*0.01521]
#3=[#1+[#2-#1]*0.64389]
X7.67950 Y-2.62525 Z[#3+-0.04000]
#1=[#551+[#552-#551]*0.01838]
#2=[#558+[#559-#558]*0.01838]
#3=[#1+[#2-#1]*0.65107]
X7.68231 Y-2.62410 Z[#3+-0.04000]
#1=[#551+[#552-#551]*0.02031]
#2=[#558+[#559-#558]*0.02031]
#3=[#1+[#2-#1]*0.65862]
X7.68527 Y-2.62341 Z[#3+-0.04000]
#1=[#551+[#552-#551]*0.02096]
#2=[#558+[#559-#558]*0.02096]
#3=[#1+[#2-#1]*0.66636]
X7.68830 Y-2.62317 Z[#3+-0.04000]
#1=[#551+[#552-#551]*0.02096]
#2=[#558+[#559-#558]*0.02096]
#3=[#1+[#2-#1]*0.84870]
X7.75973 Y-2.62317 Z[#3+-0.04000]
#1=[#551+[#552-#551]*0.02031]
#2=[#558+[#559-#558]*0.02031]
#3=[#1+[#2-#1]*0.85643]
X7.76276 Y-2.62341 Z[#3+-0.04000]
#1=[#551+[#552-#551]*0.01838]
#2=[#558+[#559-#558]*0.01838]
#3=[#1+[#2-#1]*0.86399]
X7.76572 Y-2.62410 Z[#3+-0.04000]
#1=[#551+[#552-#551]*0.01521]
#2=[#558+[#559-#558]*0.01521]
#3=[#1+[#2-#1]*0.87117]
X7.76853 Y-2.62525 Z[#3+-0.04000]
#1=[#551+[#552-#551]*0.00000]
#2=[#558+[#559-#558]*0.00000]
#3=[#1+[#2-#1]*0.89930]
X7.77955 Y-2.63076 Z[#3+-0.04000]
#1=[#550+[#551-#550]*0.94946]
#2=[#557+[#558-#557]*0.94946]
#3=[#1+[#2-#1]*0.99273]
X7.81615 Y-2.64906 Z[#3+-0.04000]
#1=[#550+[#551-#550]*0.94494]
#2=[#557+[#558-#557]*0.94494]
#3=[#1+[#2-#1]*0.99964]
X7.81886 Y-2.65070 Z[#3+-0.04000]
#1=[#550+[#551-#550]*0.94460]
#2=[#557+[#558-#557]*0.94460]
#3=[#1+[#2-#1]*1.00000]
X7.81900 Y-2.65082 Z[#3+-0.04000]
#1=[#557+[#558-#557]*0.93927]
#2=[#564+[#565-#564]*0.93927]
#3=[#1+[#2-#1]*0.00579]
X7.82127 Y-2.65275 Z[#3+-0.04000]
#1=[#557+[#558-#557]*0.87351]
#2=[#564+[#565-#564]*0.87351]
#3=[#1+[#2-#1]*0.06657]
X7.84508 Y-2.67656 Z[#3+-0.04000]
#1=[#557+[#558-#557]*0.86686]
#2=[#564+[#565-#564]*0.86686]
#3=[#1+[#2-#1]*0.07180]
X7.84713 Y-2.67897 Z[#3+-0.04000]
#1=[#557+[#558-#557]*0.85938]
#2=[#564+[#565-#564]*0.85938]
#3=[#1+[#2-#1]*0.07598]
X7.84876 Y-2.68167 Z[#3+-0.04000]
#1=[#557+[#558-#557]*0.72786]
#2=[#564+[#565-#564]*0.72786]
#3=[#1+[#2-#1]*0.13676]
X7.87257 Y-2.72929 Z[#3+-0.04000]
#1=[#557+[#558-#557]*0.72009]
#2=[#564+[#565-#564]*0.72009]
#3=[#1+[#2-#1]*0.13968]
X7.87372 Y-2.73211 Z[#3+-0.04000]
#1=[#557+[#558-#557]*0.71192]
#2=[#564+[#565-#564]*0.71192]
#3=[#1+[#2-#1]*0.14146]
X7.87442 Y-2.73506 Z[#3+-0.04000]
#1=[#557+[#558-#557]*0.70355]
#2=[#564+[#565-#564]*0.70355]
#3=[#1+[#2-#1]*0.14206]
X7.87465 Y-2.73809 Z[#3+-0.04000]
#1=[#557+[#558-#557]*0.30899]
#2=[#564+[#565-#564]*0.30899]
#3=[#1+[#2-#1]*0.14206]
X7.87465 Y-2.88095 Z[#3+-0.04000]
#1=[#557+[#558-#557]*0.30062]
#2=[#564+[#565-#564]*0.30062]
#3=[#1+[#2-#1]*0.14146]
X7.87442 Y-2.88398 Z[#3+-0.04000]
#1=[#557+[#558-#557]*0.29245]
#2=[#564+[#565-#564]*0.29245]
#3=[#1+[#2-#1]*0.13968]
X7.87372 Y-2.88694 Z[#3+-0.04000]
#1=[#557+[#558-#557]*0.28467]
#2=[#564+[#565-#564]*0.28467]
#3=[#1+[#2-#1]*0.13676]
X7.87257 Y-2.88976 Z[#3+-0.04000]
#1=[#557+[#558-#557]*0.15315]
#2=[#564+[#565-#564]*0.15315]
#3=[#1+[#2-#1]*0.07598]
X7.84876 Y-2.93737 Z[#3+-0.04000]
#1=[#557+[#558-#557]*0.14568]
#2=[#564+[#565-#564]*0.14568]
#3=[#1+[#2-#1]*0.07180]
X7.84713 Y-2.94008 Z[#3+-0.04000]
#1=[#557+[#558-#557]*0.13902]
#2=[#564+[#565-#564]*0.13902]
#3=[#1+[#2-#1]*0.06657]
X7.84508 Y-2.94249 Z[#3+-0.04000]
#1=[#557+[#558-#557]*0.07327]
#2=[#564+[#565-#564]*0.07327]
#3=[#1+[#2-#1]*0.00579]
X7.82127 Y-2.96630 Z[#3+-0.04000]
#1=[#550+[#551-#550]*0.06794]
#2=[#557+[#558-#557]*0.06794]
#3=[#1+[#2-#1]*1.00000]
X7.81900 Y-2.96823 Z[#3+-0.04000]
#1=[#550+[#551-#550]*0.06760]
#2=[#557+[#558-#557]*0.06760]
#3=[#1+[#2-#1]*0.99964]
X7.81886 Y-2.96835 Z[#3+-0.04000]
#1=[#550+[#551-#550]*0.06308]
#2=[#557+[#558-#557]*0.06308]
#3=[#1+[#2-#1]*0.99273]
X7.81615 Y-2.96999 Z[#3+-0.04000]
#1=[#550+[#551-#550]*0.00000]
#2=[#557+[#558-#557]*0.00000]
#3=[#1+[#2-#1]*0.87612]
X7.77047 Y-2.99283 Z[#3+-0.04000]
#1=[#549+[#550-#549]*0.99732]
#2=[#556+[#557-#556]*0.99732]
#3=[#1+[#2-#1]*0.87117]
X7.76853 Y-2.99380 Z[#3+-0.04000]
#1=[#549+[#550-#549]*0.99416]
#2=[#556+[#557-#556]*0.99416]
#3=[#1+[#2-#1]*0.86399]
X7.76572 Y-2.99494 Z[#3+-0.04000]
#1=[#549+[#550-#549]*0.99223]
#2=[#556+[#557-#556]*0.99223]
#3=[#1+[#2-#1]*0.85643]
X7.76276 Y-2.99564 Z[#3+-0.04000]
#1=[#549+[#550-#549]*0.99158]
#2=[#556+[#557-#556]*0.99158]
#3=[#1+[#2-#1]*0.84870]
X7.75973 Y-2.99587 Z[#3+-0.04000]
#1=[#549+[#550-#549]*0.99158]
#2=[#556+[#557-#556]*0.99158]
#3=[#1+[#2-#1]*0.66636]
X7.68830 Y-2.99587 Z[#3+-0.04000]
#1=[#549+[#550-#549]*0.99223]
#2=[#556+[#557-#556]*0.99223]
#3=[#1+[#2-#1]*0.65862]
X7.68527 Y-2.99564 Z[#3+-0.04000]
#1=[#549+[#550-#549]*0.99416]
#2=[#556+[#557-#556]*0.99416]
#3=[#1+[#2-#1]*0.65107]
X7.68231 Y-2.99494 Z[#3+-0.04000]
#1=[#549+[#550-#549]*0.99732]
#2=[#556+[#557-#556]*0.99732]
#3=[#1+[#2-#1]*0.64389]
X7.67950 Y-2.99380 Z[#3+-0.04000]
#1=[#550+[#551-#550]*0.00000]
#2=[#557+[#558-#557]*0.00000]
#3=[#1+[#2-#1]*0.63894]
X7.67756 Y-2.99283 Z[#3+-0.04000]
#1=[#550+[#551-#550]*0.06308]
#2=[#557+[#558-#557]*0.06308]
#3=[#1+[#2-#1]*0.52233]
X7.63188 Y-2.96999 Z[#3+-0.04000]
#1=[#550+[#551-#550]*0.06760]
#2=[#557+[#558-#557]*0.06760]
#3=[#1+[#2-#1]*0.51542]
X7.62917 Y-2.96835 Z[#3+-0.04000]
#1=[#550+[#551-#550]*0.07327]
#2=[#557+[#558-#557]*0.07327]
#3=[#1+[#2-#1]*0.50927]
X7.62676 Y-2.96630 Z[#3+-0.04000]
#1=[#550+[#551-#550]*0.13902]
#2=[#557+[#558-#557]*0.13902]
#3=[#1+[#2-#1]*0.44849]
X7.60295 Y-2.94249 Z[#3+-0.04000]
#1=[#550+[#551-#550]*0.14568]
#2=[#557+[#558-#557]*0.14568]
#3=[#1+[#2-#1]*0.44326]
X7.60090 Y-2.94008 Z[#3+-0.04000]
#1=[#550+[#551-#550]*0.15315]
#2=[#557+[#558-#557]*0.15315]
#3=[#1+[#2-#1]*0.43908]
X7.59927 Y-2.93737 Z[#3+-0.04000]
#1=[#550+[#551-#550]*0.28582]
#2=[#557+[#558-#557]*0.28582]
#3=[#1+[#2-#1]*0.37790]
X7.57530 Y-2.88934 Z[#3+-0.04000]
#1=[#550+[#551-#550]*0.29769]
#2=[#557+[#558-#557]*0.29769]
#3=[#1+[#2-#1]*0.37409]
X7.57381 Y-2.88504 Z[#3+-0.04000]
#1=[#550+[#551-#550]*0.30899]
#2=[#557+[#558-#557]*0.30899]
#3=[#1+[#2-#1]*0.37299]
X7.57338 Y-2.88095 Z[#3+-0.04000]
G04 P0 ( dwell for no time -- G64 should not smooth over this point )
G00 Z0.08000 ( retract )

G00 X7.61275 Y-2.87630 ( rapid move to begin. )
G01 F180.00000
( Mill infeed pass 1/1 )
#1=[#550+[#551-#550]*0.32182]
#2=[#557+[#558-#557]*0.32182]
#3=[#1+[#2-#1]*0.47350]
G01 Z[-0.04000+#111]
G04 P0 ( dwell for no time -- G64 should not smooth over this point )
G01 F360.00000
#1=[#550+[#551-#550]*0.69071]
#2=[#557+[#558-#557]*0.69071]
#3=[#1+[#2-#1]*0.47350]
X7.61275 Y-2.74274 Z[#3+-0.04000]
#1=[#550+[#551-#550]*0.80286]
#2=[#557+[#558-#557]*0.80286]
#3=[#1+[#2-#1]*0.52532]
X7.63305 Y-2.70214 Z[#3+-0.04000]
#1=[#550+[#551-#550]*0.85614]
#2=[#557+[#558-#557]*0.85614]
#3=[#1+[#2-#1]*0.57457]
X7.65234 Y-2.68284 Z[#3+-0.04000]
#1=[#550+[#551-#550]*0.91222]
#2=[#557+[#558-#557]*0.91222]
#3=[#1+[#2-#1]*0.67822]
X7.69295 Y-2.66254 Z[#3+-0.04000]
#1=[#550+[#551-#550]*0.91222]
#2=[#557+[#558-#557]*0.91222]
#3=[#1+[#2-#1]*0.83684]
X7.75508 Y-2.66254 Z[#3+-0.04000]
#1=[#550+[#551-#550]*0.85614]
#2=[#557+[#558-#557]*0.85614]
#3=[#1+[#2-#1]*0.94049]
X7.79569 Y-2.68284 Z[#3+-0.04000]
#1=[#550+[#551-#550]*0.80286]
#2=[#557+[#558-#557]*0.80286]
#3=[#1+[#2-#1]*0.98973]
X7.81498 Y-2.70214 Z[#3+-0.04000]
#1=[#550+[#551-#550]*0.78065]
#2=[#557+[#558-#557]*0.78065]
#3=[#1+[#2-#1]*1.00000]
X7.81900 Y-2.71018 Z[#3+-0.04000]
#1=[#557+[#558-#557]*0.69071]
#2=[#564+[#565-#564]*0.69071]
#3=[#1+[#2-#1]*0.04156]
X7.83528 Y-2.74274 Z[#3+-0.04000]
#1=[#557+[#558-#557]*0.32182]
#2=[#564+[#565-#564]*0.32182]
#3=[#1+[#2-#1]*0.04156]
X7.83528 Y-2.87630 Z[#3+-0.04000]
#1=[#550+[#551-#550]*0.23189]
#2=[#557+[#558-#557]*0.23189]
#3=[#1+[#2-#1]*1.00000]
X7.81900 Y-2.90887 Z[#3+-0.04000]
#1=[#550+[#551-#550]*0.20967]
#2=[#557+[#558-#557]*0.20967]
#3=[#1+[#2-#1]*0.98973]
X7.81498 Y-2.91691 Z[#3+-0.04000]
#1=[#550+[#551-#550]*0.15639]
#2=[#557+[#558-#557]*0.15639]
#3=[#1+[#2-#1]*0.94049]
X7.79569 Y-2.93620 Z[#3+-0.04000]
#1=[#550+[#551-#550]*0.10032]
#2=[#557+[#558-#557]*0.10032]
#3=[#1+[#2-#1]*0.83683]
X7.75508 Y-2.95650 Z[#3+-0.04000]
#1=[#550+[#551-#550]*0.10032]
#2=[#557+[#558-#557]*0.10032]
#3=[#1+[#2-#1]*0.67822]
X7.69295 Y-2.95650 Z[#3+-0.04000]
#1=[#550+[#551-#550]*0.15639]
#2=[#557+[#558-#557]*0.15639]
#3=[#1+[#2-#1]*0.57457]
X7.65234 Y-2.93620 Z[#3+-0.04000]
#1=[#550+[#551-#550]*0.20967]
#2=[#557+[#558-#557]*0.20967]
#3=[#1+[#2-#1]*0.52532]
X7.63305 Y-2.91691 Z[#3+-0.04000]
#1=[#550+[#551-#550]*0.32182]
#2=[#557+[#558-#557]*0.32182]
#3=[#1+[#2-#1]*0.47350]
X7.61275 Y-2.87630 Z[#3+-0.04000]
G04 P0 ( dwell for no time -- G64 should not smooth over this point )
G00 Z0.08000 ( retract )

G00 X8.04957 Y-2.97619 ( rapid move to begin. )
G01 F180.00000
( Mill infeed pass 1/1 )
#1=[#557+[#558-#557]*0.04595]
#2=[#564+[#565-#564]*0.04595]
#3=[#1+[#2-#1]*0.58857]
G01 Z[-0.04000+#111]
G04 P0 ( dwell for no time -- G64 should not smooth over this point )
G01 F360.00000
#1=[#557+[#558-#557]*0.96659]
#2=[#564+[#565-#564]*0.96659]
#3=[#1+[#2-#1]*0.58857]
X8.04957 Y-2.64286 Z[#3+-0.04000]
#1=[#557+[#558-#557]*0.97789]
#2=[#564+[#565-#564]*0.97789]
#3=[#1+[#2-#1]*0.58967]
X8.05000 Y-2.63876 Z[#3+-0.04000]
#1=[#557+[#558-#557]*0.98870]
#2=[#564+[#565-#564]*0.98870]
#3=[#1+[#2-#1]*0.59292]
X8.05127 Y-2.63485 Z[#3+-0.04000]
#1=[#557+[#558-#557]*0.99854]
#2=[#564+[#565-#564]*0.99854]
#3=[#1+[#2-#1]*0.59817]
X8.05333 Y-2.63129 Z[#3+-0.04000]
#1=[#558+[#559-#558]*0.00000]
#2=[#565+[#566-#565]*0.00000]
#3=[#1+[#2-#1]*0.59938]
X8.05380 Y-2.63076 Z[#3+-0.04000]
#1=[#558+[#559-#558]*0.00699]
#2=[#565+[#566-#565]*0.00699]
#3=[#1+[#2-#1]*0.60520]
X8.05608 Y-2.62823 Z[#3+-0.04000]
#1=[#558+[#559-#558]*0.01367]
#2=[#565+[#566-#565]*0.01367]
#3=[#1+[#2-#1]*0.61370]
X8.05941 Y-2.62581 Z[#3+-0.04000]
#1=[#558+[#559-#558]*0.01829]
#2=[#565+[#566-#565]*0.01829]
#3=[#1+[#2-#1]*0.62329]
X8.06317 Y-2.62413 Z[#3+-0.04000]
#1=[#558+[#559-#558]*0.02066]
#2=[#565+[#566-#565]*0.02066]
#3=[#1+[#2-#1]*0.63357]
X8.06720 Y-2.62328 Z[#3+-0.04000]
#1=[#558+[#559-#558]*0.02066]
#2=[#565+[#566-#565]*0.02066]
#3=[#1+[#2-#1]*0.64408]
X8.07131 Y-2.62328 Z[#3+-0.04000]
#1=[#558+[#559-#558]*0.01829]
#2=[#565+[#566-#565]*0.01829]
#3=[#1+[#2-#1]*0.65435]
X8.07534 Y-2.62413 Z[#3+-0.04000]
#1=[#558+[#559-#558]*0.01367]
#2=[#565+[#566-#565]*0.01367]
#3=[#1+[#2-#1]*0.66395]
X8.07910 Y-2.62581 Z[#3+-0.04000]
#1=[#558+[#559-#558]*0.00699]
#2=[#565+[#566-#565]*0.00699]
#3=[#1+[#2-#1]*0.67245]
X8.08242 Y-2.62823 Z[#3+-0.04000]
#1=[#558+[#559-#558]*0.00000]
#2=[#565+[#566-#565]*0.00000]
#3=[#1+[#2-#1]*0.67826]
X8.08470 Y-2.63076 Z[#3+-0.04000]
#1=[#557+[#558-#557]*0.99854]
#2=[#564+[#565-#564]*0.99854]
#3=[#1+[#2-#1]*0.67948]
X8.08518 Y-2.63129 Z[#3+-0.04000]
#1=[#557+[#558-#557]*0.98870]
#2=[#564+[#565-#564]*0.98870]
#3=[#1+[#2-#1]*0.68473]
X8.08724 Y-2.63485 Z[#3+-0.04000]
#1=[#557+[#558-#557]*0.97789]
#2=[#564+[#565-#564]*0.97789]
#3=[#1+[#2-#1]*0.68797]
X8.08851 Y-2.63876 Z[#3+-0.04000]
#1=[#557+[#558-#557]*0.96659]
#2=[#564+[#565-#564]*0.96659]
#3=[#1+[#2-#1]*0.68907]
X8.08894 Y-2.64286 Z[#3+-0.04000]
#1=[#557+[#558-#557]*0.95592]
#2=[#564+[#565-#564]*0.95592]
#3=[#1+[#2-#1]*0.68907]
X8.08894 Y-2.64672 Z[#3+-0.04000]
#1=[#558+[#559-#558]*0.00000]
#2=[#565+[#566-#565]*0.00000]
#3=[#1+[#2-#1]*0.77056]
X8.12086 Y-2.63076 Z[#3+-0.04000]
#1=[#558+[#559-#558]*0.01521]
#2=[#565+[#566-#565]*0.01521]
#3=[#1+[#2-#1]*0.79869]
X8.13188 Y-2.62525 Z[#3+-0.04000]
#1=[#558+[#559-#558]*0.01838]
#2=[#565+[#566-#565]*0.01838]
#3=[#1+[#2-#1]*0.80587]
X8.13469 Y-2.62410 Z[#3+-0.04000]
#1=[#558+[#559-#558]*0.02031]
#2=[#565+[#566-#565]*0.02031]
#3=[#1+[#2-#1]*0.81342]
X8.13765 Y-2.62341 Z[#3+-0.04000]
#1=[#558+[#559-#558]*0.02096]
#2=[#565+[#566-#565]*0.02096]
#3=[#1+[#2-#1]*0.82116]
X8.14068 Y-2.62317 Z[#3+-0.04000]
#1=[#565+[#566-#565]*0.02096]
#2=[#572+[#573-#572]*0.02096]
#3=[#1+[#2-#1]*0.00000]
X8.21074 Y-2.62317 Z[#3+-0.04000]
#1=[#565+[#566-#565]*0.02096]
#2=[#572+[#573-#572]*0.02096]
#3=[#1+[#2-#1]*0.00350]
X8.21211 Y-2.62317 Z[#3+-0.04000]
#1=[#565+[#566-#565]*0.02031]
#2=[#572+[#573-#572]*0.02031]
#3=[#1+[#2-#1]*0.01123]
X8.21514 Y-2.62341 Z[#3+-0.04000]
#1=[#565+[#566-#565]*0.01838]
#2=[#572+[#573-#572]*0.01838]
#3=[#1+[#2-#1]*0.01878]
X8.21810 Y-2.62410 Z[#3+-0.04000]
#1=[#565+[#566-#565]*0.01521]
#2=[#572+[#573-#572]*0.01521]
#3=[#1+[#2-#1]*0.02597]
X8.22091 Y-2.62525 Z[#3+-0.04000]
#1=[#565+[#566-#565]*0.00000]
#2=[#572+[#573-#572]*0.00000]
#3=[#1+[#2-#1]*0.05409]
X8.23193 Y-2.63076 Z[#3+-0.04000]
#1=[#564+[#565-#564]*0.94946]
#2=[#571+[#572-#571]*0.94946]
#3=[#1+[#2-#1]*0.14753]
X8.26853 Y-2.64906 Z[#3+-0.04000]
#1=[#564+[#565-#564]*0.94494]
#2=[#571+[#572-#571]*0.94494]
#3=[#1+[#2-#1]*0.15443]
X8.27124 Y-2.65070 Z[#3+-0.04000]
#1=[#564+[#565-#564]*0.93927]
#2=[#571+[#572-#571]*0.93927]
#3=[#1+[#2-#1]*0.16059]
X8.27365 Y-2.65275 Z[#3+-0.04000]
#1=[#564+[#565-#564]*0.93262]
#2=[#571+[#572-#571]*0.93262]
#3=[#1+[#2-#1]*0.16582]
X8.27570 Y-2.65516 Z[#3+-0.04000]
#1=[#564+[#565-#564]*0.92514]
#2=[#571+[#572-#571]*0.92514]
#3=[#1+[#2-#1]*0.17000]
X8.27734 Y-2.65786 Z[#3+-0.04000]
#1=[#564+[#565-#564]*0.79362]
#2=[#571+[#572-#571]*0.79362]
#3=[#1+[#2-#1]*0.23077]
X8.30114 Y-2.70548 Z[#3+-0.04000]
#1=[#564+[#565-#564]*0.78585]
#2=[#571+[#572-#571]*0.78585]
#3=[#1+[#2-#1]*0.23370]
X8.30229 Y-2.70830 Z[#3+-0.04000]
#1=[#564+[#565-#564]*0.77768]
#2=[#571+[#572-#571]*0.77768]
#3=[#1+[#2-#1]*0.23548]
X8.30299 Y-2.71125 Z[#3+-0.04000]
#1=[#564+[#565-#564]*0.76931]
#2=[#571+[#572-#571]*0.76931]
#3=[#1+[#2-#1]*0.23608]
X8.30322 Y-2.71428 Z[#3+-0.04000]
#1=[#564+[#565-#564]*0.04595]
#2=[#571+[#572-#571]*0.04595]
#3=[#1+[#2-#1]*0.23608]
X8.30322 Y-2.97619 Z[#3+-0.04000]
#1=[#564+[#565-#564]*0.03465]
#2=[#571+[#572-#571]*0.03465]
#3=[#1+[#2-#1]*0.23498]
X8.30279 Y-2.98028 Z[#3+-0.04000]
#1=[#564+[#565-#564]*0.02384]
#2=[#571+[#572-#571]*0.02384]
#3=[#1+[#2-#1]*0.23174]
X8.30152 Y-2.98420 Z[#3+-0.04000]
#1=[#564+[#565-#564]*0.01399]
#2=[#571+[#572-#571]*0.01399]
#3=[#1+[#2-#1]*0.22648]
X8.29946 Y-2.98776 Z[#3+-0.04000]
#1=[#564+[#565-#564]*0.00555]
#2=[#571+[#572-#571]*0.00555]
#3=[#1+[#2-#1]*0.21945]
X8.29671 Y-2.99082 Z[#3+-0.04000]
#1=[#564+[#565-#564]*0.00000]
#2=[#571+[#572-#571]*0.00000]
#3=[#1+[#2-#1]*0.21240]
X8.29395 Y-2.99283 Z[#3+-0.04000]
#1=[#563+[#564-#563]*0.99887]
#2=[#570+[#571-#570]*0.99887]
#3=[#1+[#2-#1]*0.21096]
X8.29338 Y-2.99324 Z[#3+-0.04000]
#1=[#563+[#564-#563]*0.99424]
#2=[#570+[#571-#570]*0.99424]
#3=[#1+[#2-#1]*0.20136]
X8.28962 Y-2.99491 Z[#3+-0.04000]
#1=[#563+[#564-#563]*0.99188]
#2=[#570+[#571-#570]*0.99188]
#3=[#1+[#2-#1]*0.19108]
X8.28560 Y-2.99577 Z[#3+-0.04000]
#1=[#563+[#564-#563]*0.99188]
#2=[#570+[#571-#570]*0.99188]
#3=[#1+[#2-#1]*0.18058]
X8.28148 Y-2.99577 Z[#3+-0.04000]
#1=[#563+[#564-#563]*0.99424]
#2=[#570+[#571-#570]*0.99424]
#3=[#1+[#2-#1]*0.17030]
X8.27745 Y-2.99491 Z[#3+-0.04000]
#1=[#563+[#564-#563]*0.99887]
#2=[#570+[#571-#570]*0.99887]
#3=[#1+[#2-#1]*0.16071]
X8.27370 Y-2.99324 Z[#3+-0.04000]
#1=[#564+[#565-#564]*0.00000]
#2=[#571+[#572-#571]*0.00000]
#3=[#1+[#2-#1]*0.15926]
X8.27313 Y-2.99283 Z[#3+-0.04000]
#1=[#564+[#565-#564]*0.00555]
#2=[#571+[#572-#571]*0.00555]
#3=[#1+[#2-#1]*0.15221]
X8.27037 Y-2.99082 Z[#3+-0.04000]
#1=[#564+[#565-#564]*0.01399]
#2=[#571+[#572-#571]*0.01399]
#3=[#1+[#2-#1]*0.14518]
X8.26761 Y-2.98776 Z[#3+-0.04000]
#1=[#564+[#565-#564]*0.02384]
#2=[#571+[#572-#571]*0.02384]
#3=[#1+[#2-#1]*0.13992]
X8.26555 Y-2.98420 Z[#3+-0.04000]
#1=[#564+[#565-#564]*0.03465]
#2=[#571+[#572-#571]*0.03465]
#3=[#1+[#2-#1]*0.13668]
X8.26428 Y-2.98028 Z[#3+-0.04000]
#1=[#564+[#565-#564]*0.04595]
#2=[#571+[#572-#571]*0.04595]
#3=[#1+[#2-#1]*0.13558]
X8.26385 Y-2.97619 Z[#3+-0.04000]
#1=[#564+[#565-#564]*0.75648]
#2=[#571+[#572-#571]*0.75648]
#3=[#1+[#2-#1]*0.13558]
X8.26385 Y-2.71893 Z[#3+-0.04000]
#1=[#564+[#565-#564]*0.86030]
#2=[#571+[#572-#571]*0.86030]
#3=[#1+[#2-#1]*0.08760]
X8.24506 Y-2.68134 Z[#3+-0.04000]
#1=[#564+[#565-#564]*0.90769]
#2=[#571+[#572-#571]*0.90769]
#3=[#1+[#2-#1]*0.00000]
X8.21074 Y-2.66418 Z[#3+-0.04000]
#1=[#557+[#558-#557]*0.91222]
#2=[#564+[#565-#564]*0.91222]
#3=[#1+[#2-#1]*0.99163]
X8.20746 Y-2.66254 Z[#3+-0.04000]
#1=[#557+[#558-#557]*0.91222]
#2=[#564+[#565-#564]*0.91222]
#3=[#1+[#2-#1]*0.83302]
X8.14533 Y-2.66254 Z[#3+-0.04000]
#1=[#557+[#558-#557]*0.85614]
#2=[#564+[#565-#564]*0.85614]
#3=[#1+[#2-#1]*0.72937]
X8.10472 Y-2.68284 Z[#3+-0.04000]
#1=[#557+[#558-#557]*0.81255]
#2=[#564+[#565-#564]*0.81255]
#3=[#1+[#2-#1]*0.68907]
X8.08894 Y-2.69863 Z[#3+-0.04000]
#1=[#557+[#558-#557]*0.04595]
#2=[#564+[#565-#564]*0.04595]
#3=[#1+[#2-#1]*0.68907]
X8.08894 Y-2.97619 Z[#3+-0.04000]
#1=[#557+[#558-#557]*0.03465]
#2=[#564+[#565-#564]*0.03465]
#3=[#1+[#2-#1]*0.68797]
X8.08851 Y-2.98028 Z[#3+-0.04000]
#1=[#557+[#558-#557]*0.02384]
#2=[#564+[#565-#564]*0.02384]
#3=[#1+[#2-#1]*0.68473]
X8.08724 Y-2.98420 Z[#3+-0.04000]
#1=[#557+[#558-#557]*0.01399]
#2=[#564+[#565-#564]*0.01399]
#3=[#1+[#2-#1]*0.67948]
X8.08518 Y-2.98776 Z[#3+-0.04000]
#1=[#557+[#558-#557]*0.00555]
#2=[#564+[#565-#564]*0.00555]
#3=[#1+[#2-#1]*0.67245]
X8.08242 Y-2.99082 Z[#3+-0.04000]
#1=[#557+[#558-#557]*0.00000]
#2=[#564+[#565-#564]*0.00000]
#3=[#1+[#2-#1]*0.66539]
X8.07966 Y-2.99283 Z[#3+-0.04000]
#1=[#556+[#557-#556]*0.99887]
#2=[#563+[#564-#563]*0.99887]
#3=[#1+[#2-#1]*0.66395]
X8.07910 Y-2.99324 Z[#3+-0.04000]
#1=[#556+[#557-#556]*0.99424]
#2=[#563+[#564-#563]*0.99424]
#3=[#1+[#2-#1]*0.65435]
X8.07534 Y-2.99491 Z[#3+-0.04000]
#1=[#556+[#557-#556]*0.99188]
#2=[#563+[#564-#563]*0.99188]
#3=[#1+[#2-#1]*0.64408]
X8.07131 Y-2.99577 Z[#3+-0.04000]
#1=[#556+[#557-#556]*0.99188]
#2=[#563+[#564-#563]*0.99188]
#3=[#1+[#2-#1]*0.63357]
X8.06720 Y-2.99577 Z[#3+-0.04000]
#1=[#556+[#557-#556]*0.99424]
#2=[#563+[#564-#563]*0.99424]
#3=[#1+[#2-#1]*0.62329]
X8.06317 Y-2.99491 Z[#3+-0.04000]
