( pcb2gcode 2.3.1 )
( Gcode for linuxcnc )

G94 ( Inches per minute feed rate. )
G20 ( Units == INCHES. )

G90 ( Absolute coordinates. )
G00 S12000 ( RPM spindle speed. )
G64 P0.00040 ( set maximum deviation from commanded toolpath )
G01 F360.00000 ( Feedrate. )

o1 sub ( G01 with Z-correction subroutine )
    #4 = [ #5211 - #107 ] ( x-tile offset [minus the initial offset] )
    #5 = [ #5212 - #108 ] ( y-tile offset [minus the initial offset] )
    #6 = [ FIX[ [ #1 - -10.95295 + #4 ] / 0.38375 ] ] ( Lower left point X index )
    #7 = [ FIX[ [ #2 - -3.35492 + #5 ] / 0.37842 ] ] ( Lower left point Y index )
    #8 = [ #6 * 6 + [ #7 + 1 ] + 500 ] ( Upper left point parameter number )
    #9 = [ [ #6 + 1 ] *6 + [ #7 + 1 ] + 500 ] ( Upper right point parameter number )
    #10 = [ #6 * 6 + #7 + 500 ] ( Lower left point parameter number )
    #11 = [ [ #6 + 1 ] * 6 + #7 + 500 ] ( Lower right point parameter number )
    #12 = [ [ #2 + #5 - -3.35492 - #7 * 0.37842 ] / 0.37842 ] ( Distance between the point and the left border of the rectangle, normalized to 1 )
    #13 = [ [ #1 + #4 - -10.95295 - #6 * 0.38375 ] / 0.38375 ] ( Distance between the point and the bottom border of the rectangle, normalized to 1 ) 
    #14 = [ ##10 + [ ##8 - ##10 ] * #12 ] ( Linear interpolation of the x-min elements )
    #15 = [ ##11 + [ ##9 - ##11 ] * #12 ] ( Linear interpolation of the x-max elements )
    #16 = [ #14 + [ #15 - #14 ] * #13 ] ( Linear interpolation of previously interpolated points )
    G01 X#1 Y#2 Z[#3 + #16]
o1 endsub

o2 sub ( Y probe subroutine )
    G0 Z0.080 ( Move to probe height )
    X[#101 * 0.38375 + -10.95295] Y[#102 * 0.37842 + -3.35492] ( Move to the current probe point )
    G38.2 Z-0.1 F2.362205 ( Probe it )
    #[#101 * 6 + #102 + 500] = #5063 ( Save the probe in the correct parameter )
    #102 = [#102 + #103] ( Increment/decrement by 1 the Y counter )
o2 endsub

o3 sub ( X probe subroutine )
    o4 repeat [#104]
        o2 call
    o4 endrepeat
    #104 = 6
    #103 = [0 - #103]
    #102 = [#102 + #103]
    #101 = [#101 + 1] ( Increment by 1 the X counter )
o3 endsub

#107 = #5211
#108 = #5212

(MSG, Attach the probe tool)
M0 ( Temporary machine stop. )
G0 Z0.080 ( Move Z to safe height )
G0 X-10.95295 Y-3.35492 ( Move XY to start point )
G0 Z0.080 ( Move Z to probe height )
(PROBEOPEN RawProbeLog.txt) ( Record all probes in RawProbeLog.txt )
G38.2 Z-0.1 F2.362205 ( Z-probe )
#500 = 0 ( Probe point [0, 0] is our reference )
G10 L20 P0 Z0 ( Set the current Z as zero-value )

( We now start the real probing: move the Z axis to the probing height, move to )
( the probing XY position, probe it and save the result, parameter #5063, )
( in a numbered parameter; we will make 17 probes on the X-axis and )
( 6 probes on the Y-axis, for a grand total of 102 probes )

#101 = 0 ( X iterator )
#102 = 1 ( Y iterator )
#103 = 1 ( UP or DOWN increment )
#104 = 5 ( number of Y points; the 1st Y row can be done one time less )
o5 repeat [17]
    o3 call
o5 endrepeat

G0 Z0.080 ( Move Z to safe height )
(PROBECLOSE) ( Close the probe log file )
( Probing has ended, each Z-coordinate will be corrected with a bilinear interpolation )
(MSG, Detach the probe tool)
M0 ( Temporary machine stop. )


G00 Z1.00000 (Retract to tool change height)
T0
M5      (Spindle stop.)
G04 P1.00000 (Wait for spindle to stop)
(MSG, Change tool bit to mill diameter 0.00000in)
M6      (Tool change.)
M0      (Temporary machine stop.)
M3 ( Spindle on clockwise. )
G04 P1.00000 (Wait for spindle to get up to speed)

o200 sub ( Main subroutine )

G04 P0 ( dwell for no time -- G64 should not smooth over this point )
G00 Z0.08000 ( retract )

G00 X-9.16104 Y-2.94286 ( rapid move to begin. )
G01 F180.00000
( Mill infeed pass 1/1 )
o1 call [-9.16104] [-2.94286] [-0.04]
G04 P0 ( dwell for no time -- G64 should not smooth over this point )
G01 F360.00000
o1 call [-9.1618] [-2.95054] [-0.04]
o1 call [-9.16404] [-2.95792] [-0.04]
o1 call [-9.16768] [-2.96473] [-0.04]
o1 call [-9.17257] [-2.9707] [-0.04]
o1 call [-9.17837] [-2.9765] [-0.04]
o1 call [-9.29128] [-3.08941] [-0.04]
o1 call [-9.16891] [-3.25257] [-0.04]
o1 call [-9.16491] [-3.25917] [-0.04]
o1 call [-9.16227] [-3.26642] [-0.04]
o1 call [-9.1611] [-3.27405] [-0.04]
o1 call [-9.16144] [-3.28176] [-0.04]
o1 call [-9.16327] [-3.28925] [-0.04]
o1 call [-9.16653] [-3.29625] [-0.04]
o1 call [-9.1711] [-3.30247] [-0.04]
o1 call [-9.17679] [-3.30769] [-0.04]
o1 call [-9.18339] [-3.31169] [-0.04]
o1 call [-9.19064] [-3.31433] [-0.04]
o1 call [-9.19827] [-3.3155] [-0.04]
o1 call [-9.20598] [-3.31516] [-0.04]
o1 call [-9.21348] [-3.31333] [-0.04]
o1 call [-9.22047] [-3.31007] [-0.04]
o1 call [-9.22669] [-3.3055] [-0.04]
o1 call [-9.23191] [-3.29981] [-0.04]
o1 call [-9.34753] [-3.14565] [-0.04]
o1 call [-9.35152] [-3.14964] [-0.04]
o1 call [-9.35152] [-3.27619] [-0.04]
o1 call [-9.35227] [-3.28387] [-0.04]
o1 call [-9.35451] [-3.29126] [-0.04]
o1 call [-9.35815] [-3.29806] [-0.04]
o1 call [-9.36305] [-3.30403] [-0.04]
o1 call [-9.36902] [-3.30892] [-0.04]
o1 call [-9.37582] [-3.31256] [-0.04]
o1 call [-9.38321] [-3.3148] [-0.04]
o1 call [-9.39089] [-3.31556] [-0.04]
o1 call [-9.39857] [-3.3148] [-0.04]
o1 call [-9.40595] [-3.31256] [-0.04]
o1 call [-9.41276] [-3.30892] [-0.04]
o1 call [-9.41797] [-3.30465] [-0.04]
o1 call [-9.41873] [-3.30403] [-0.04]
o1 call [-9.42362] [-3.29806] [-0.04]
o1 call [-9.42726] [-3.29126] [-0.04]
o1 call [-9.4295] [-3.28387] [-0.04]
o1 call [-9.43026] [-3.27619] [-0.04]
o1 call [-9.43026] [-2.9765] [-0.04]
o1 call [-9.43026] [-2.77619] [-0.04]
o1 call [-9.4295] [-2.76851] [-0.04]
o1 call [-9.42726] [-2.76112] [-0.04]
o1 call [-9.42362] [-2.75432] [-0.04]
o1 call [-9.41873] [-2.74835] [-0.04]
o1 call [-9.41797] [-2.74773] [-0.04]
o1 call [-9.41276] [-2.74345] [-0.04]
o1 call [-9.40595] [-2.73982] [-0.04]
o1 call [-9.39857] [-2.73758] [-0.04]
o1 call [-9.39089] [-2.73682] [-0.04]
o1 call [-9.38321] [-2.73758] [-0.04]
o1 call [-9.37582] [-2.73982] [-0.04]
o1 call [-9.36902] [-2.74345] [-0.04]
o1 call [-9.36305] [-2.74835] [-0.04]
o1 call [-9.35815] [-2.75432] [-0.04]
o1 call [-9.35451] [-2.76112] [-0.04]
o1 call [-9.35227] [-2.76851] [-0.04]
o1 call [-9.35152] [-2.77619] [-0.04]
o1 call [-9.35152] [-2.9765] [-0.04]
o1 call [-9.35152] [-3.03829] [-0.04]
o1 call [-9.28973] [-2.9765] [-0.04]
o1 call [-9.22825] [-2.91502] [-0.04]
o1 call [-9.22228] [-2.91012] [-0.04]
o1 call [-9.21548] [-2.90648] [-0.04]
o1 call [-9.20809] [-2.90424] [-0.04]
o1 call [-9.20041] [-2.90349] [-0.04]
o1 call [-9.19273] [-2.90424] [-0.04]
o1 call [-9.18534] [-2.90648] [-0.04]
o1 call [-9.17854] [-2.91012] [-0.04]
o1 call [-9.17257] [-2.91502] [-0.04]
o1 call [-9.16768] [-2.92098] [-0.04]
o1 call [-9.16404] [-2.92779] [-0.04]
o1 call [-9.1618] [-2.93518] [-0.04]
o1 call [-9.16104] [-2.94286] [-0.04]
G04 P0 ( dwell for no time -- G64 should not smooth over this point )
G00 Z0.08000 ( retract )

G00 X-9.56590 Y-3.24959 ( rapid move to begin. )
G01 F180.00000
( Mill infeed pass 1/1 )
o1 call [-9.5659] [-3.24959] [-0.04]
G04 P0 ( dwell for no time -- G64 should not smooth over this point )
G01 F360.00000
o1 call [-9.56611] [-3.2573] [-0.04]
o1 call [-9.56782] [-3.26483] [-0.04]
o1 call [-9.57097] [-3.27188] [-0.04]
o1 call [-9.57543] [-3.27818] [-0.04]
o1 call [-9.58103] [-3.28348] [-0.04]
o1 call [-9.58757] [-3.28759] [-0.04]
o1 call [-9.63518] [-3.3114] [-0.04]
o1 call [-9.64375] [-3.31451] [-0.04]
o1 call [-9.65279] [-3.31556] [-0.04]
o1 call [-9.74803] [-3.31556] [-0.04]
o1 call [-9.75708] [-3.31451] [-0.04]
o1 call [-9.76564] [-3.3114] [-0.04]
o1 call [-9.80171] [-3.29337] [-0.04]
o1 call [-9.81326] [-3.28759] [-0.04]
o1 call [-9.81867] [-3.28432] [-0.04]
o1 call [-9.82349] [-3.28022] [-0.04]
o1 call [-9.8473] [-3.25641] [-0.04]
o1 call [-9.8514] [-3.25159] [-0.04]
o1 call [-9.85467] [-3.24618] [-0.04]
o1 call [-9.87848] [-3.19856] [-0.04]
o1 call [-9.88159] [-3.19] [-0.04]
o1 call [-9.88264] [-3.18095] [-0.04]
o1 call [-9.88264] [-3.0381] [-0.04]
o1 call [-9.88159] [-3.02905] [-0.04]
o1 call [-9.87848] [-3.02049] [-0.04]
o1 call [-9.85649] [-2.9765] [-0.04]
o1 call [-9.85467] [-2.97287] [-0.04]
o1 call [-9.8514] [-2.96746] [-0.04]
o1 call [-9.8473] [-2.96264] [-0.04]
o1 call [-9.82349] [-2.93883] [-0.04]
o1 call [-9.81867] [-2.93473] [-0.04]
o1 call [-9.81326] [-2.93145] [-0.04]
o1 call [-9.80171] [-2.92568] [-0.04]
o1 call [-9.76564] [-2.90764] [-0.04]
o1 call [-9.75708] [-2.90454] [-0.04]
o1 call [-9.74803] [-2.90349] [-0.04]
o1 call [-9.65279] [-2.90349] [-0.04]
o1 call [-9.64375] [-2.90454] [-0.04]
o1 call [-9.63519] [-2.90764] [-0.04]
o1 call [-9.58757] [-2.93145] [-0.04]
o1 call [-9.58103] [-2.93556] [-0.04]
o1 call [-9.57543] [-2.94087] [-0.04]
o1 call [-9.57097] [-2.94717] [-0.04]
o1 call [-9.56782] [-2.95422] [-0.04]
o1 call [-9.56611] [-2.96174] [-0.04]
o1 call [-9.5659] [-2.96946] [-0.04]
o1 call [-9.5671] [-2.9765] [-0.04]
o1 call [-9.5672] [-2.97706] [-0.04]
o1 call [-9.56996] [-2.98427] [-0.04]
o1 call [-9.57407] [-2.9908] [-0.04]
o1 call [-9.57938] [-2.99641] [-0.04]
o1 call [-9.58568] [-3.00087] [-0.04]
o1 call [-9.59272] [-3.00401] [-0.04]
o1 call [-9.60025] [-3.00573] [-0.04]
o1 call [-9.60796] [-3.00594] [-0.04]
o1 call [-9.61557] [-3.00464] [-0.04]
o1 call [-9.62278] [-3.00188] [-0.04]
o1 call [-9.66209] [-2.98223] [-0.04]
o1 call [-9.73874] [-2.98223] [-0.04]
o1 call [-9.77233] [-2.99902] [-0.04]
o1 call [-9.7871] [-3.0138] [-0.04]
o1 call [-9.80171] [-3.04302] [-0.04]
o1 call [-9.8039] [-3.04739] [-0.04]
o1 call [-9.8039] [-3.17166] [-0.04]
o1 call [-9.80171] [-3.17603] [-0.04]
o1 call [-9.7871] [-3.20525] [-0.04]
o1 call [-9.77233] [-3.22002] [-0.04]
o1 call [-9.73874] [-3.23682] [-0.04]
o1 call [-9.66209] [-3.23682] [-0.04]
o1 call [-9.62278] [-3.21717] [-0.04]
o1 call [-9.61557] [-3.21441] [-0.04]
o1 call [-9.60796] [-3.21311] [-0.04]
o1 call [-9.60025] [-3.21332] [-0.04]
o1 call [-9.59272] [-3.21503] [-0.04]
o1 call [-9.58568] [-3.21818] [-0.04]
o1 call [-9.57938] [-3.22264] [-0.04]
o1 call [-9.57407] [-3.22824] [-0.04]
o1 call [-9.56996] [-3.23477] [-0.04]
o1 call [-9.5672] [-3.24198] [-0.04]
o1 call [-9.5659] [-3.24959] [-0.04]
G04 P0 ( dwell for no time -- G64 should not smooth over this point )
G00 Z0.08000 ( retract )

G00 X-10.01818 Y-3.27619 ( rapid move to begin. )
G01 F180.00000
( Mill infeed pass 1/1 )
o1 call [-10.0182] [-3.27619] [-0.04]
G04 P0 ( dwell for no time -- G64 should not smooth over this point )
G01 F360.00000
o1 call [-10.0182] [-3.01429] [-0.04]
o1 call [-10.0192] [-3.00524] [-0.04]
o1 call [-10.0223] [-2.99668] [-0.04]
o1 call [-10.0324] [-2.9765] [-0.04]
o1 call [-10.0462] [-2.94906] [-0.04]
o1 call [-10.0507] [-2.94197] [-0.04]
o1 call [-10.0567] [-2.93601] [-0.04]
o1 call [-10.0638] [-2.93145] [-0.04]
o1 call [-10.1114] [-2.90764] [-0.04]
o1 call [-10.1199] [-2.90454] [-0.04]
o1 call [-10.129] [-2.90349] [-0.04]
o1 call [-10.1855] [-2.90349] [-0.04]
o1 call [-10.2242] [-2.90349] [-0.04]
o1 call [-10.2333] [-2.90454] [-0.04]
o1 call [-10.2418] [-2.90764] [-0.04]
o1 call [-10.2894] [-2.93145] [-0.04]
o1 call [-10.296] [-2.93556] [-0.04]
o1 call [-10.3016] [-2.94087] [-0.04]
o1 call [-10.306] [-2.94717] [-0.04]
o1 call [-10.3092] [-2.95422] [-0.04]
o1 call [-10.3109] [-2.96174] [-0.04]
o1 call [-10.3111] [-2.96946] [-0.04]
o1 call [-10.3099] [-2.9765] [-0.04]
o1 call [-10.3098] [-2.97706] [-0.04]
o1 call [-10.3071] [-2.98427] [-0.04]
o1 call [-10.3029] [-2.9908] [-0.04]
o1 call [-10.2976] [-2.99641] [-0.04]
o1 call [-10.2913] [-3.00087] [-0.04]
o1 call [-10.2843] [-3.00401] [-0.04]
o1 call [-10.2768] [-3.00573] [-0.04]
o1 call [-10.269] [-3.00594] [-0.04]
o1 call [-10.2614] [-3.00464] [-0.04]
o1 call [-10.2542] [-3.00188] [-0.04]
o1 call [-10.2149] [-2.98223] [-0.04]
o1 call [-10.1855] [-2.98223] [-0.04]
o1 call [-10.1383] [-2.98223] [-0.04]
o1 call [-10.1107] [-2.99601] [-0.04]
o1 call [-10.0969] [-3.02358] [-0.04]
o1 call [-10.0969] [-3.03757] [-0.04]
o1 call [-10.1145] [-3.04634] [-0.04]
o1 call [-10.1855] [-3.04634] [-0.04]
o1 call [-10.2242] [-3.04634] [-0.04]
o1 call [-10.2333] [-3.0474] [-0.04]
o1 call [-10.2418] [-3.0505] [-0.04]
o1 call [-10.2894] [-3.07431] [-0.04]
o1 call [-10.2965] [-3.07886] [-0.04]
o1 call [-10.3025] [-3.08482] [-0.04]
o1 call [-10.3071] [-3.09192] [-0.04]
o1 call [-10.3309] [-3.13953] [-0.04]
o1 call [-10.334] [-3.1481] [-0.04]
o1 call [-10.335] [-3.15714] [-0.04]
o1 call [-10.335] [-3.20476] [-0.04]
o1 call [-10.334] [-3.21381] [-0.04]
o1 call [-10.3309] [-3.22237] [-0.04]
o1 call [-10.3071] [-3.26999] [-0.04]
o1 call [-10.3025] [-3.27708] [-0.04]
o1 call [-10.2965] [-3.28304] [-0.04]
o1 call [-10.2894] [-3.28759] [-0.04]
o1 call [-10.2418] [-3.3114] [-0.04]
o1 call [-10.2333] [-3.31451] [-0.04]
o1 call [-10.2242] [-3.31556] [-0.04]
o1 call [-10.1855] [-3.31556] [-0.04]
o1 call [-10.1052] [-3.31556] [-0.04]
o1 call [-10.0961] [-3.31451] [-0.04]
o1 call [-10.0876] [-3.3114] [-0.04]
o1 call [-10.0806] [-3.30794] [-0.04]
o1 call [-10.0794] [-3.30892] [-0.04]
o1 call [-10.0726] [-3.31256] [-0.04]
o1 call [-10.0652] [-3.3148] [-0.04]
o1 call [-10.0576] [-3.31556] [-0.04]
o1 call [-10.0499] [-3.3148] [-0.04]
o1 call [-10.0425] [-3.31256] [-0.04]
o1 call [-10.0357] [-3.30892] [-0.04]
o1 call [-10.0297] [-3.30403] [-0.04]
o1 call [-10.0248] [-3.29806] [-0.04]
o1 call [-10.0212] [-3.29126] [-0.04]
o1 call [-10.0189] [-3.28387] [-0.04]
o1 call [-10.0182] [-3.27619] [-0.04]
G04 P0 ( dwell for no time -- G64 should not smooth over this point )
G00 Z0.08000 ( retract )

G00 X-10.09692 Y-3.22805 ( rapid move to begin. )
G01 F180.00000
( Mill infeed pass 1/1 )
o1 call [-10.0969] [-3.22805] [-0.04]
G04 P0 ( dwell for no time -- G64 should not smooth over this point )
G01 F360.00000
o1 call [-10.0969] [-3.12412] [-0.04]
o1 call [-10.1052] [-3.12508] [-0.04]
o1 call [-10.1855] [-3.12508] [-0.04]
o1 call [-10.2149] [-3.12508] [-0.04]
o1 call [-10.2425] [-3.13887] [-0.04]
o1 call [-10.2563] [-3.16644] [-0.04]
o1 call [-10.2563] [-3.19547] [-0.04]
o1 call [-10.2425] [-3.22303] [-0.04]
o1 call [-10.2149] [-3.23682] [-0.04]
o1 call [-10.1855] [-3.23682] [-0.04]
o1 call [-10.1145] [-3.23682] [-0.04]
o1 call [-10.0969] [-3.22805] [-0.04]
G04 P0 ( dwell for no time -- G64 should not smooth over this point )
G00 Z0.08000 ( retract )

G00 X-10.44676 Y-3.18095 ( rapid move to begin. )
G01 F180.00000
( Mill infeed pass 1/1 )
o1 call [-10.4468] [-3.18095] [-0.04]
G04 P0 ( dwell for no time -- G64 should not smooth over this point )
G01 F360.00000
o1 call [-10.4468] [-3.10952] [-0.04]
o1 call [-10.4478] [-3.10048] [-0.04]
o1 call [-10.4509] [-3.09192] [-0.04]
o1 call [-10.4747] [-3.0443] [-0.04]
o1 call [-10.478] [-3.03888] [-0.04]
o1 call [-10.4821] [-3.03406] [-0.04]
o1 call [-10.5059] [-3.01025] [-0.04]
o1 call [-10.513] [-3.0046] [-0.04]
o1 call [-10.5151] [-3.00366] [-0.04]
o1 call [-10.5059] [-2.9945] [-0.04]
o1 call [-10.5018] [-2.98969] [-0.04]
o1 call [-10.4985] [-2.98427] [-0.04]
o1 call [-10.4946] [-2.9765] [-0.04]
o1 call [-10.4747] [-2.93665] [-0.04]
o1 call [-10.4716] [-2.92809] [-0.04]
o1 call [-10.4706] [-2.91905] [-0.04]
o1 call [-10.4706] [-2.87143] [-0.04]
o1 call [-10.4716] [-2.86238] [-0.04]
o1 call [-10.4747] [-2.85382] [-0.04]
o1 call [-10.4985] [-2.8062] [-0.04]
o1 call [-10.5018] [-2.80079] [-0.04]
o1 call [-10.5059] [-2.79597] [-0.04]
o1 call [-10.5297] [-2.77216] [-0.04]
o1 call [-10.5345] [-2.76806] [-0.04]
o1 call [-10.5399] [-2.76479] [-0.04]
o1 call [-10.5692] [-2.75016] [-0.04]
o1 call [-10.5876] [-2.74098] [-0.04]
o1 call [-10.5961] [-2.73787] [-0.04]
o1 call [-10.6052] [-2.73682] [-0.04]
o1 call [-10.7718] [-2.73682] [-0.04]
o1 call [-10.7795] [-2.73758] [-0.04]
o1 call [-10.7869] [-2.73982] [-0.04]
o1 call [-10.7937] [-2.74345] [-0.04]
o1 call [-10.7997] [-2.74835] [-0.04]
o1 call [-10.8046] [-2.75432] [-0.04]
o1 call [-10.8082] [-2.76112] [-0.04]
o1 call [-10.8105] [-2.76851] [-0.04]
o1 call [-10.8112] [-2.77619] [-0.04]
o1 call [-10.8112] [-2.9765] [-0.04]
o1 call [-10.8112] [-3.27619] [-0.04]
o1 call [-10.8105] [-3.28387] [-0.04]
o1 call [-10.8082] [-3.29126] [-0.04]
o1 call [-10.8046] [-3.29806] [-0.04]
o1 call [-10.7997] [-3.30403] [-0.04]
o1 call [-10.7937] [-3.30892] [-0.04]
o1 call [-10.7869] [-3.31256] [-0.04]
o1 call [-10.7795] [-3.3148] [-0.04]
o1 call [-10.7718] [-3.31556] [-0.04]
o1 call [-10.5814] [-3.31556] [-0.04]
o1 call [-10.5723] [-3.31451] [-0.04]
o1 call [-10.5692] [-3.31338] [-0.04]
o1 call [-10.5638] [-3.3114] [-0.04]
o1 call [-10.5161] [-3.28759] [-0.04]
o1 call [-10.5107] [-3.28432] [-0.04]
o1 call [-10.5059] [-3.28022] [-0.04]
o1 call [-10.4821] [-3.25641] [-0.04]
o1 call [-10.478] [-3.25159] [-0.04]
o1 call [-10.4747] [-3.24618] [-0.04]
o1 call [-10.4509] [-3.19856] [-0.04]
o1 call [-10.4478] [-3.19] [-0.04]
o1 call [-10.4468] [-3.18095] [-0.04]
G04 P0 ( dwell for no time -- G64 should not smooth over this point )
G00 Z0.08000 ( retract )

G00 X-10.52550 Y-3.17166 ( rapid move to begin. )
G01 F180.00000
( Mill infeed pass 1/1 )
o1 call [-10.5255] [-3.17166] [-0.04]
G04 P0 ( dwell for no time -- G64 should not smooth over this point )
G01 F360.00000
o1 call [-10.5255] [-3.11882] [-0.04]
o1 call [-10.5423] [-3.08522] [-0.04]
o1 call [-10.555] [-3.07251] [-0.04]
o1 call [-10.5692] [-3.06777] [-0.04]
o1 call [-10.6116] [-3.05366] [-0.04]
o1 call [-10.7325] [-3.05366] [-0.04]
o1 call [-10.7325] [-3.23682] [-0.04]
o1 call [-10.5907] [-3.23682] [-0.04]
o1 call [-10.5692] [-3.22609] [-0.04]
o1 call [-10.5571] [-3.22002] [-0.04]
o1 call [-10.5423] [-3.20525] [-0.04]
o1 call [-10.5255] [-3.17166] [-0.04]
G04 P0 ( dwell for no time -- G64 should not smooth over this point )
G00 Z0.08000 ( retract )

G00 X-10.54931 Y-2.90975 ( rapid move to begin. )
G01 F180.00000
( Mill infeed pass 1/1 )
o1 call [-10.5493] [-2.90975] [-0.04]
G04 P0 ( dwell for no time -- G64 should not smooth over this point )
G01 F360.00000
o1 call [-10.5493] [-2.88072] [-0.04]
o1 call [-10.5661] [-2.84713] [-0.04]
o1 call [-10.5692] [-2.84403] [-0.04]
o1 call [-10.5809] [-2.83236] [-0.04]
o1 call [-10.6145] [-2.81556] [-0.04]
o1 call [-10.7325] [-2.81556] [-0.04]
o1 call [-10.7325] [-2.97491] [-0.04]
o1 call [-10.6145] [-2.97491] [-0.04]
o1 call [-10.5809] [-2.95812] [-0.04]
o1 call [-10.5692] [-2.94645] [-0.04]
o1 call [-10.5661] [-2.94334] [-0.04]
o1 call [-10.5493] [-2.90975] [-0.04]
G04 P0 ( dwell for no time -- G64 should not smooth over this point )
G00 Z0.08000 ( retract )

G00 X-10.84311 Y-3.35000 ( rapid move to begin. )
G01 F180.00000
( Mill infeed pass 1/1 )
o1 call [-10.8431] [-3.35] [-0.04]
G04 P0 ( dwell for no time -- G64 should not smooth over this point )
G01 F360.00000
o1 call [-10.8435] [-3.35188] [-0.04]
o1 call [-10.8446] [-3.35348] [-0.04]
o1 call [-10.8461] [-3.35455] [-0.04]
o1 call [-10.848] [-3.35492] [-0.04]
o1 call [-10.8499] [-3.35455] [-0.04]
o1 call [-10.8515] [-3.35348] [-0.04]
o1 call [-10.898] [-3.30696] [-0.04]
o1 call [-10.9446] [-3.35348] [-0.04]
o1 call [-10.9461] [-3.35455] [-0.04]
o1 call [-10.948] [-3.35492] [-0.04]
o1 call [-10.9499] [-3.35455] [-0.04]
o1 call [-10.9515] [-3.35348] [-0.04]
o1 call [-10.9526] [-3.35188] [-0.04]
o1 call [-10.953] [-3.35] [-0.04]
o1 call [-10.9526] [-3.34812] [-0.04]
o1 call [-10.9515] [-3.34652] [-0.04]
o1 call [-10.905] [-3.3] [-0.04]
o1 call [-10.9515] [-3.25348] [-0.04]
o1 call [-10.9526] [-3.25188] [-0.04]
o1 call [-10.953] [-3.25] [-0.04]
o1 call [-10.9526] [-3.24812] [-0.04]
o1 call [-10.9515] [-3.24652] [-0.04]
o1 call [-10.9499] [-3.24545] [-0.04]
o1 call [-10.948] [-3.24508] [-0.04]
o1 call [-10.9461] [-3.24545] [-0.04]
o1 call [-10.9446] [-3.24652] [-0.04]
o1 call [-10.898] [-3.29304] [-0.04]
o1 call [-10.8515] [-3.24652] [-0.04]
o1 call [-10.8499] [-3.24545] [-0.04]
o1 call [-10.848] [-3.24508] [-0.04]
o1 call [-10.8461] [-3.24545] [-0.04]
o1 call [-10.8446] [-3.24652] [-0.04]
o1 call [-10.8435] [-3.24812] [-0.04]
o1 call [-10.8431] [-3.25] [-0.04]
o1 call [-10.8435] [-3.25188] [-0.04]
o1 call [-10.8446] [-3.25348] [-0.04]
o1 call [-10.8911] [-3.3] [-0.04]
o1 call [-10.8446] [-3.34652] [-0.04]
o1 call [-10.8435] [-3.34812] [-0.04]
o1 call [-10.8431] [-3.35] [-0.04]

o200 endsub

o200 call
G92 X[#5420-[2.174016]]
o200 call
G92 X[#5420-[2.174016]]
o200 call
G92 Y[#5421-[1.274016]]
o200 call
G92 X[#5420-[-2.174016]]
o200 call
G92 X[#5420-[-2.174016]]
o200 call
G92 Y[#5421-[-1.274016]]

G04 P0 ( dwell for no time -- G64 should not smooth over this point )
G00 Z1.000000 ( retract )

M5 ( Spindle off. )
G04 P1.000000
M9 ( Coolant off. )
M2 ( Program end. )

