( pcb2gcode 2.5.0 )
( Software-independent Gcode )
( This file uses a mill head of 0.03150inch to drill the 2 hole sizes. )
( Hole sizes: [0.0314961inch] [0.0394094inch] )

G94       (Inches per minute feed rate.)
G20       (Units == INCHES.)
G91.1     (Incremental arc distance mode.)
G90       (Absolute coordinates.)
S10000    (RPM spindle speed.)

G01 F100.00000 (Feedrate)
G00 Z1.00000 (Retract to tool change height)
T1
M5        (Spindle stop.)
G04 P1.00000
(MSG, Change tool bit to drill size 0.03150inch)
M6        (Tool change.)
M0        (Temporary machine stop.)
M3        (Spindle on clockwise.)
G04 P1.00000
G00 Z0.08000

( Piece #1, position [0;0] )

G0 X-7.36378 Y-2.85000
G1 Z-0.06299 F50.00000
G1 Z0.08000 F50.00000

G0 X-7.46220 Y-2.85000
G1 Z-0.06299 F50.00000
G1 Z0.08000 F50.00000

G0 X-7.36378 Y-3.17126
G1 Z-0.06299 F50.00000
G1 Z0.08000 F50.00000

G0 X-7.36378 Y-3.25000
G1 Z-0.06299 F50.00000
G1 Z0.08000 F50.00000

G0 X-7.36378 Y-3.32874
G1 Z-0.06299 F50.00000
G1 Z0.08000 F50.00000

G0 X-8.41535 Y-2.85000
G1 Z-0.06299 F50.00000
G1 Z0.08000 F50.00000

G0 X-8.51378 Y-2.85000
G1 Z-0.06299 F50.00000
G1 Z0.08000 F50.00000

G0 X-8.46378 Y-3.17126
G1 Z-0.06299 F50.00000
G1 Z0.08000 F50.00000

G0 X-8.46378 Y-3.25000
G1 Z-0.06299 F50.00000
G1 Z0.08000 F50.00000

G0 X-8.46378 Y-3.32874
G1 Z-0.06299 F50.00000
G1 Z0.08000 F50.00000

G0 X-7.20982 Y-2.55000
G1 Z0.00700 F50.00000
G1 F100.00000
G2 X-7.20982 Y-2.55000 Z-0.00000 I-0.00396 J0.00000
G2 X-7.20982 Y-2.55000 Z-0.00700 I-0.00396 J0.00000
G2 X-7.20982 Y-2.55000 Z-0.01400 I-0.00396 J0.00000
G2 X-7.20982 Y-2.55000 Z-0.02100 I-0.00396 J0.00000
G2 X-7.20982 Y-2.55000 Z-0.02800 I-0.00396 J0.00000
G2 X-7.20982 Y-2.55000 Z-0.03500 I-0.00396 J0.00000
G2 X-7.20982 Y-2.55000 Z-0.04199 I-0.00396 J0.00000
G2 X-7.20982 Y-2.55000 Z-0.04899 I-0.00396 J0.00000
G2 X-7.20982 Y-2.55000 Z-0.05599 I-0.00396 J0.00000
G2 X-7.20982 Y-2.55000 Z-0.06299 I-0.00396 J0.00000
G2 X-7.20982 Y-2.55000 I-0.00396 J0.00000
G1 Z0.08000 F50.00000

G0 X-7.20982 Y-2.95000
G1 Z0.00700 F50.00000
G1 F100.00000
G2 X-7.20982 Y-2.95000 Z-0.00000 I-0.00396 J0.00000
G2 X-7.20982 Y-2.95000 Z-0.00700 I-0.00396 J0.00000
G2 X-7.20982 Y-2.95000 Z-0.01400 I-0.00396 J0.00000
G2 X-7.20982 Y-2.95000 Z-0.02100 I-0.00396 J0.00000
G2 X-7.20982 Y-2.95000 Z-0.02800 I-0.00396 J0.00000
G2 X-7.20982 Y-2.95000 Z-0.03500 I-0.00396 J0.00000
G2 X-7.20982 Y-2.95000 Z-0.04199 I-0.00396 J0.00000
G2 X-7.20982 Y-2.95000 Z-0.04899 I-0.00396 J0.00000
G2 X-7.20982 Y-2.95000 Z-0.05599 I-0.00396 J0.00000
G2 X-7.20982 Y-2.95000 Z-0.06299 I-0.00396 J0.00000
G2 X-7.20982 Y-2.95000 I-0.00396 J0.00000
G1 Z0.08000 F50.00000

G0 X-7.60982 Y-2.55000
G1 Z0.00700 F50.00000
G1 F100.00000
G2 X-7.60982 Y-2.55000 Z-0.00000 I-0.00396 J0.00000
G2 X-7.60982 Y-2.55000 Z-0.00700 I-0.00396 J0.00000
G2 X-7.60982 Y-2.55000 Z-0.01400 I-0.00396 J0.00000
G2 X-7.60982 Y-2.55000 Z-0.02100 I-0.00396 J0.00000
G2 X-7.60982 Y-2.55000 Z-0.02800 I-0.00396 J0.00000
G2 X-7.60982 Y-2.55000 Z-0.03500 I-0.00396 J0.00000
G2 X-7.60982 Y-2.55000 Z-0.04199 I-0.00396 J0.00000
G2 X-7.60982 Y-2.55000 Z-0.04899 I-0.00396 J0.00000
G2 X-7.60982 Y-2.55000 Z-0.05599 I-0.00396 J0.00000
G2 X-7.60982 Y-2.55000 Z-0.06299 I-0.00396 J0.00000
G2 X-7.60982 Y-2.55000 I-0.00396 J0.00000
G1 Z0.08000 F50.00000

G0 X-7.77482 Y-2.66535
G1 Z0.00700 F50.00000
G1 F100.00000
G2 X-7.78274 Y-2.66535 Z0.00652 I-0.00396 J0.00000
G1 X-7.78274 Y-2.58665 Z0.00350
G2 X-7.77482 Y-2.58665 Z0.00302 I0.00396 J0.00000
G1 X-7.77482 Y-2.66535 Z-0.00000
G2 X-7.78274 Y-2.66535 Z-0.00048 I-0.00396 J0.00000
G1 X-7.78274 Y-2.58665 Z-0.00350
G2 X-7.77482 Y-2.58665 Z-0.00398 I0.00396 J0.00000
G1 X-7.77482 Y-2.66535 Z-0.00700
G2 X-7.78274 Y-2.66535 Z-0.00748 I-0.00396 J0.00000
G1 X-7.78274 Y-2.58665 Z-0.01050
G2 X-7.77482 Y-2.58665 Z-0.01098 I0.00396 J0.00000
G1 X-7.77482 Y-2.66535 Z-0.01400
G2 X-7.78274 Y-2.66535 Z-0.01448 I-0.00396 J0.00000
G1 X-7.78274 Y-2.58665 Z-0.01750
G2 X-7.77482 Y-2.58665 Z-0.01798 I0.00396 J0.00000
G1 X-7.77482 Y-2.66535 Z-0.02100
G2 X-7.78274 Y-2.66535 Z-0.02147 I-0.00396 J0.00000
G1 X-7.78274 Y-2.58665 Z-0.02450
G2 X-7.77482 Y-2.58665 Z-0.02497 I0.00396 J0.00000
G1 X-7.77482 Y-2.66535 Z-0.02800
G2 X-7.78274 Y-2.66535 Z-0.02847 I-0.00396 J0.00000
G1 X-7.78274 Y-2.58665 Z-0.03150
G2 X-7.77482 Y-2.58665 Z-0.03197 I0.00396 J0.00000
G1 X-7.77482 Y-2.66535 Z-0.03500
G2 X-7.78274 Y-2.66535 Z-0.03547 I-0.00396 J0.00000
G1 X-7.78274 Y-2.58665 Z-0.03850
G2 X-7.77482 Y-2.58665 Z-0.03897 I0.00396 J0.00000
G1 X-7.77482 Y-2.66535 Z-0.04199
G2 X-7.78274 Y-2.66535 Z-0.04247 I-0.00396 J0.00000
G1 X-7.78274 Y-2.58665 Z-0.04549
G2 X-7.77482 Y-2.58665 Z-0.04597 I0.00396 J0.00000
G1 X-7.77482 Y-2.66535 Z-0.04899
G2 X-7.78274 Y-2.66535 Z-0.04947 I-0.00396 J0.00000
G1 X-7.78274 Y-2.58665 Z-0.05249
G2 X-7.77482 Y-2.58665 Z-0.05297 I0.00396 J0.00000
G1 X-7.77482 Y-2.66535 Z-0.05599
G2 X-7.78274 Y-2.66535 Z-0.05647 I-0.00396 J0.00000
G1 X-7.78274 Y-2.58665 Z-0.05949
G2 X-7.77482 Y-2.58665 Z-0.05997 I0.00396 J0.00000
G1 X-7.77482 Y-2.66535 Z-0.06299
G2 X-7.78274 Y-2.66535 I-0.00396 J0.00000
G1 X-7.78274 Y-2.58665
G2 X-7.77482 Y-2.58665 I0.00396 J0.00000
G1 X-7.77482 Y-2.66535
G1 Z0.08000 F50.00000

G0 X-7.92445 Y-2.50396
G1 Z0.00700 F50.00000
G1 F100.00000
G2 X-7.92445 Y-2.51187 Z0.00652 I0.00000 J-0.00396
G1 X-8.00311 Y-2.51187 Z0.00350
G2 X-8.00311 Y-2.50396 Z0.00302 I0.00000 J0.00396
G1 X-7.92445 Y-2.50396 Z-0.00000
G2 X-7.92445 Y-2.51187 Z-0.00048 I0.00000 J-0.00396
G1 X-8.00311 Y-2.51187 Z-0.00350
G2 X-8.00311 Y-2.50396 Z-0.00398 I0.00000 J0.00396
G1 X-7.92445 Y-2.50396 Z-0.00700
G2 X-7.92445 Y-2.51187 Z-0.00748 I0.00000 J-0.00396
G1 X-8.00311 Y-2.51187 Z-0.01050
G2 X-8.00311 Y-2.50396 Z-0.01098 I0.00000 J0.00396
G1 X-7.92445 Y-2.50396 Z-0.01400
G2 X-7.92445 Y-2.51187 Z-0.01448 I0.00000 J-0.00396
G1 X-8.00311 Y-2.51187 Z-0.01750
G2 X-8.00311 Y-2.50396 Z-0.01798 I0.00000 J0.00396
G1 X-7.92445 Y-2.50396 Z-0.02100
G2 X-7.92445 Y-2.51187 Z-0.02147 I0.00000 J-0.00396
G1 X-8.00311 Y-2.51187 Z-0.02450
G2 X-8.00311 Y-2.50396 Z-0.02497 I0.00000 J0.00396
G1 X-7.92445 Y-2.50396 Z-0.02800
G2 X-7.92445 Y-2.51187 Z-0.02847 I0.00000 J-0.00396
G1 X-8.00311 Y-2.51187 Z-0.03150
G2 X-8.00311 Y-2.50396 Z-0.03197 I0.00000 J0.00396
G1 X-7.92445 Y-2.50396 Z-0.03500
G2 X-7.92445 Y-2.51187 Z-0.03547 I0.00000 J-0.00396
G1 X-8.00311 Y-2.51187 Z-0.03850
G2 X-8.00311 Y-2.50396 Z-0.03897 I0.00000 J0.00396
G1 X-7.92445 Y-2.50396 Z-0.04199
G2 X-7.92445 Y-2.51187 Z-0.04247 I0.00000 J-0.00396
G1 X-8.00311 Y-2.51187 Z-0.04549
G2 X-8.00311 Y-2.50396 Z-0.04597 I0.00000 J0.00396
G1 X-7.92445 Y-2.50396 Z-0.04899
G2 X-7.92445 Y-2.51187 Z-0.04947 I0.00000 J-0.00396
G1 X-8.00311 Y-2.51187 Z-0.05249
G2 X-8.00311 Y-2.50396 Z-0.05297 I0.00000 J0.00396
G1 X-7.92445 Y-2.50396 Z-0.05599
G2 X-7.92445 Y-2.51187 Z-0.05647 I0.00000 J-0.00396
G1 X-8.00311 Y-2.51187 Z-0.05949
G2 X-8.00311 Y-2.50396 Z-0.05997 I0.00000 J0.00396
G1 X-7.92445 Y-2.50396 Z-0.06299
G2 X-7.92445 Y-2.51187 I0.00000 J-0.00396
G1 X-8.00311 Y-2.51187
G2 X-8.00311 Y-2.50396 I0.00000 J0.00396
G1 X-7.92445 Y-2.50396
G1 Z0.08000 F50.00000

G0 X-8.00311 Y-2.74805
G1 Z0.00700 F50.00000
G1 F100.00000
G2 X-8.00311 Y-2.74014 Z0.00652 I0.00000 J0.00396
G1 X-7.92445 Y-2.74014 Z0.00350
G2 X-7.92445 Y-2.74805 Z0.00302 I0.00000 J-0.00396
G1 X-8.00311 Y-2.74805 Z-0.00000
G2 X-8.00311 Y-2.74014 Z-0.00048 I0.00000 J0.00396
G1 X-7.92445 Y-2.74014 Z-0.00350
G2 X-7.92445 Y-2.74805 Z-0.00398 I0.00000 J-0.00396
G1 X-8.00311 Y-2.74805 Z-0.00700
G2 X-8.00311 Y-2.74014 Z-0.00748 I0.00000 J0.00396
G1 X-7.92445 Y-2.74014 Z-0.01050
G2 X-7.92445 Y-2.74805 Z-0.01098 I0.00000 J-0.00396
G1 X-8.00311 Y-2.74805 Z-0.01400
G2 X-8.00311 Y-2.74014 Z-0.01448 I0.00000 J0.00396
G1 X-7.92445 Y-2.74014 Z-0.01750
G2 X-7.92445 Y-2.74805 Z-0.01798 I0.00000 J-0.00396
G1 X-8.00311 Y-2.74805 Z-0.02100
G2 X-8.00311 Y-2.74014 Z-0.02147 I0.00000 J0.00396
G1 X-7.92445 Y-2.74014 Z-0.02450
G2 X-7.92445 Y-2.74805 Z-0.02497 I0.00000 J-0.00396
G1 X-8.00311 Y-2.74805 Z-0.02800
G2 X-8.00311 Y-2.74014 Z-0.02847 I0.00000 J0.00396
G1 X-7.92445 Y-2.74014 Z-0.03150
G2 X-7.92445 Y-2.74805 Z-0.03197 I0.00000 J-0.00396
G1 X-8.00311 Y-2.74805 Z-0.03500
G2 X-8.00311 Y-2.74014 Z-0.03547 I0.00000 J0.00396
G1 X-7.92445 Y-2.74014 Z-0.03850
G2 X-7.92445 Y-2.74805 Z-0.03897 I0.00000 J-0.00396
G1 X-8.00311 Y-2.74805 Z-0.04199
G2 X-8.00311 Y-2.74014 Z-0.04247 I0.00000 J0.00396
G1 X-7.92445 Y-2.74014 Z-0.04549
G2 X-7.92445 Y-2.74805 Z-0.04597 I0.00000 J-0.00396
G1 X-8.00311 Y-2.74805 Z-0.04899
G2 X-8.00311 Y-2.74014 Z-0.04947 I0.00000 J0.00396
G1 X-7.92445 Y-2.74014 Z-0.05249
G2 X-7.92445 Y-2.74805 Z-0.05297 I0.00000 J-0.00396
G1 X-8.00311 Y-2.74805 Z-0.05599
G2 X-8.00311 Y-2.74014 Z-0.05647 I0.00000 J0.00396
G1 X-7.92445 Y-2.74014 Z-0.05949
G2 X-7.92445 Y-2.74805 Z-0.05997 I0.00000 J-0.00396
G1 X-8.00311 Y-2.74805 Z-0.06299
G2 X-8.00311 Y-2.74014 I0.00000 J0.00396
G1 X-7.92445 Y-2.74014
G2 X-7.92445 Y-2.74805 I0.00000 J-0.00396
G1 X-8.00311 Y-2.74805
G1 Z0.08000 F50.00000

G0 X-7.60982 Y-2.95000
G1 Z0.00700 F50.00000
G1 F100.00000
G2 X-7.60982 Y-2.95000 Z-0.00000 I-0.00396 J0.00000
G2 X-7.60982 Y-2.95000 Z-0.00700 I-0.00396 J0.00000
G2 X-7.60982 Y-2.95000 Z-0.01400 I-0.00396 J0.00000
G2 X-7.60982 Y-2.95000 Z-0.02100 I-0.00396 J0.00000
G2 X-7.60982 Y-2.95000 Z-0.02800 I-0.00396 J0.00000
G2 X-7.60982 Y-2.95000 Z-0.03500 I-0.00396 J0.00000
G2 X-7.60982 Y-2.95000 Z-0.04199 I-0.00396 J0.00000
G2 X-7.60982 Y-2.95000 Z-0.04899 I-0.00396 J0.00000
G2 X-7.60982 Y-2.95000 Z-0.05599 I-0.00396 J0.00000
G2 X-7.60982 Y-2.95000 Z-0.06299 I-0.00396 J0.00000
G2 X-7.60982 Y-2.95000 I-0.00396 J0.00000
G1 Z0.08000 F50.00000

G0 X-7.70982 Y-3.30000
G1 Z0.00700 F50.00000
G1 F100.00000
G2 X-7.70982 Y-3.30000 Z-0.00000 I-0.00396 J0.00000
G2 X-7.70982 Y-3.30000 Z-0.00700 I-0.00396 J0.00000
G2 X-7.70982 Y-3.30000 Z-0.01400 I-0.00396 J0.00000
G2 X-7.70982 Y-3.30000 Z-0.02100 I-0.00396 J0.00000
G2 X-7.70982 Y-3.30000 Z-0.02800 I-0.00396 J0.00000
G2 X-7.70982 Y-3.30000 Z-0.03500 I-0.00396 J0.00000
G2 X-7.70982 Y-3.30000 Z-0.04199 I-0.00396 J0.00000
G2 X-7.70982 Y-3.30000 Z-0.04899 I-0.00396 J0.00000
G2 X-7.70982 Y-3.30000 Z-0.05599 I-0.00396 J0.00000
G2 X-7.70982 Y-3.30000 Z-0.06299 I-0.00396 J0.00000
G2 X-7.70982 Y-3.30000 I-0.00396 J0.00000
G1 Z0.08000 F50.00000

G0 X-7.80982 Y-3.30000
G1 Z0.00700 F50.00000
G1 F100.00000
G2 X-7.80982 Y-3.30000 Z-0.00000 I-0.00396 J0.00000
G2 X-7.80982 Y-3.30000 Z-0.00700 I-0.00396 J0.00000
G2 X-7.80982 Y-3.30000 Z-0.01400 I-0.00396 J0.00000
G2 X-7.80982 Y-3.30000 Z-0.02100 I-0.00396 J0.00000
G2 X-7.80982 Y-3.30000 Z-0.02800 I-0.00396 J0.00000
G2 X-7.80982 Y-3.30000 Z-0.03500 I-0.00396 J0.00000
G2 X-7.80982 Y-3.30000 Z-0.04199 I-0.00396 J0.00000
G2 X-7.80982 Y-3.30000 Z-0.04899 I-0.00396 J0.00000
G2 X-7.80982 Y-3.30000 Z-0.05599 I-0.00396 J0.00000
G2 X-7.80982 Y-3.30000 Z-0.06299 I-0.00396 J0.00000
G2 X-7.80982 Y-3.30000 I-0.00396 J0.00000
G1 Z0.08000 F50.00000

G0 X-8.00982 Y-3.30000
G1 Z0.00700 F50.00000
G1 F100.00000
G2 X-8.00982 Y-3.30000 Z-0.00000 I-0.00396 J0.00000
G2 X-8.00982 Y-3.30000 Z-0.00700 I-0.00396 J0.00000
G2 X-8.00982 Y-3.30000 Z-0.01400 I-0.00396 J0.00000
G2 X-8.00982 Y-3.30000 Z-0.02100 I-0.00396 J0.00000
G2 X-8.00982 Y-3.30000 Z-0.02800 I-0.00396 J0.00000
G2 X-8.00982 Y-3.30000 Z-0.03500 I-0.00396 J0.00000
G2 X-8.00982 Y-3.30000 Z-0.04199 I-0.00396 J0.00000
G2 X-8.00982 Y-3.30000 Z-0.04899 I-0.00396 J0.00000
G2 X-8.00982 Y-3.30000 Z-0.05599 I-0.00396 J0.00000
G2 X-8.00982 Y-3.30000 Z-0.06299 I-0.00396 J0.00000
G2 X-8.00982 Y-3.30000 I-0.00396 J0.00000
G1 Z0.08000 F50.00000

G0 X-8.10982 Y-3.30000
G1 Z0.00700 F50.00000
G1 F100.00000
G2 X-8.10982 Y-3.30000 Z-0.00000 I-0.00396 J0.00000
G2 X-8.10982 Y-3.30000 Z-0.00700 I-0.00396 J0.00000
G2 X-8.10982 Y-3.30000 Z-0.01400 I-0.00396 J0.00000
G2 X-8.10982 Y-3.30000 Z-0.02100 I-0.00396 J0.00000
G2 X-8.10982 Y-3.30000 Z-0.02800 I-0.00396 J0.00000
G2 X-8.10982 Y-3.30000 Z-0.03500 I-0.00396 J0.00000
G2 X-8.10982 Y-3.30000 Z-0.04199 I-0.00396 J0.00000
G2 X-8.10982 Y-3.30000 Z-0.04899 I-0.00396 J0.00000
G2 X-8.10982 Y-3.30000 Z-0.05599 I-0.00396 J0.00000
G2 X-8.10982 Y-3.30000 Z-0.06299 I-0.00396 J0.00000
G2 X-8.10982 Y-3.30000 I-0.00396 J0.00000
G1 Z0.08000 F50.00000

G0 X-8.25982 Y-2.95000
G1 Z0.00700 F50.00000
G1 F100.00000
G2 X-8.25982 Y-2.95000 Z-0.00000 I-0.00396 J0.00000
G2 X-8.25982 Y-2.95000 Z-0.00700 I-0.00396 J0.00000
G2 X-8.25982 Y-2.95000 Z-0.01400 I-0.00396 J0.00000
G2 X-8.25982 Y-2.95000 Z-0.02100 I-0.00396 J0.00000
G2 X-8.25982 Y-2.95000 Z-0.02800 I-0.00396 J0.00000
G2 X-8.25982 Y-2.95000 Z-0.03500 I-0.00396 J0.00000
G2 X-8.25982 Y-2.95000 Z-0.04199 I-0.00396 J0.00000
G2 X-8.25982 Y-2.95000 Z-0.04899 I-0.00396 J0.00000
G2 X-8.25982 Y-2.95000 Z-0.05599 I-0.00396 J0.00000
G2 X-8.25982 Y-2.95000 Z-0.06299 I-0.00396 J0.00000
G2 X-8.25982 Y-2.95000 I-0.00396 J0.00000
G1 Z0.08000 F50.00000

G0 X-8.65982 Y-2.95000
G1 Z0.00700 F50.00000
G1 F100.00000
G2 X-8.65982 Y-2.95000 Z-0.00000 I-0.00396 J0.00000
G2 X-8.65982 Y-2.95000 Z-0.00700 I-0.00396 J0.00000
G2 X-8.65982 Y-2.95000 Z-0.01400 I-0.00396 J0.00000
G2 X-8.65982 Y-2.95000 Z-0.02100 I-0.00396 J0.00000
G2 X-8.65982 Y-2.95000 Z-0.02800 I-0.00396 J0.00000
G2 X-8.65982 Y-2.95000 Z-0.03500 I-0.00396 J0.00000
G2 X-8.65982 Y-2.95000 Z-0.04199 I-0.00396 J0.00000
G2 X-8.65982 Y-2.95000 Z-0.04899 I-0.00396 J0.00000
G2 X-8.65982 Y-2.95000 Z-0.05599 I-0.00396 J0.00000
G2 X-8.65982 Y-2.95000 Z-0.06299 I-0.00396 J0.00000
G2 X-8.65982 Y-2.95000 I-0.00396 J0.00000
G1 Z0.08000 F50.00000

G0 X-8.25982 Y-2.55000
G1 Z0.00700 F50.00000
G1 F100.00000
G2 X-8.25982 Y-2.55000 Z-0.00000 I-0.00396 J0.00000
G2 X-8.25982 Y-2.55000 Z-0.00700 I-0.00396 J0.00000
G2 X-8.25982 Y-2.55000 Z-0.01400 I-0.00396 J0.00000
G2 X-8.25982 Y-2.55000 Z-0.02100 I-0.00396 J0.00000
G2 X-8.25982 Y-2.55000 Z-0.02800 I-0.00396 J0.00000
G2 X-8.25982 Y-2.55000 Z-0.03500 I-0.00396 J0.00000
G2 X-8.25982 Y-2.55000 Z-0.04199 I-0.00396 J0.00000
G2 X-8.25982 Y-2.55000 Z-0.04899 I-0.00396 J0.00000
G2 X-8.25982 Y-2.55000 Z-0.05599 I-0.00396 J0.00000
G2 X-8.25982 Y-2.55000 Z-0.06299 I-0.00396 J0.00000
G2 X-8.25982 Y-2.55000 I-0.00396 J0.00000
G1 Z0.08000 F50.00000

G0 X-8.65982 Y-2.55000
G1 Z0.00700 F50.00000
G1 F100.00000
G2 X-8.65982 Y-2.55000 Z-0.00000 I-0.00396 J0.00000
G2 X-8.65982 Y-2.55000 Z-0.00700 I-0.00396 J0.00000
G2 X-8.65982 Y-2.55000 Z-0.01400 I-0.00396 J0.00000
G2 X-8.65982 Y-2.55000 Z-0.02100 I-0.00396 J0.00000
G2 X-8.65982 Y-2.55000 Z-0.02800 I-0.00396 J0.00000
G2 X-8.65982 Y-2.55000 Z-0.03500 I-0.00396 J0.00000
G2 X-8.65982 Y-2.55000 Z-0.04199 I-0.00396 J0.00000
G2 X-8.65982 Y-2.55000 Z-0.04899 I-0.00396 J0.00000
G2 X-8.65982 Y-2.55000 Z-0.05599 I-0.00396 J0.00000
G2 X-8.65982 Y-2.55000 Z-0.06299 I-0.00396 J0.00000
G2 X-8.65982 Y-2.55000 I-0.00396 J0.00000
G1 Z0.08000 F50.00000

( Piece #2, position [1;0] )

G0 X-5.38189 Y-2.85000
G1 Z-0.06299 F50.00000
G1 Z0.08000 F50.00000

G0 X-5.48031 Y-2.85000
G1 Z-0.06299 F50.00000
G1 Z0.08000 F50.00000

G0 X-5.38189 Y-3.17126
G1 Z-0.06299 F50.00000
G1 Z0.08000 F50.00000

G0 X-5.38189 Y-3.25000
G1 Z-0.06299 F50.00000
G1 Z0.08000 F50.00000

G0 X-5.38189 Y-3.32874
G1 Z-0.06299 F50.00000
G1 Z0.08000 F50.00000

G0 X-6.43346 Y-2.85000
G1 Z-0.06299 F50.00000
G1 Z0.08000 F50.00000

G0 X-6.53189 Y-2.85000
G1 Z-0.06299 F50.00000
G1 Z0.08000 F50.00000

G0 X-6.48189 Y-3.17126
G1 Z-0.06299 F50.00000
G1 Z0.08000 F50.00000

G0 X-6.48189 Y-3.25000
G1 Z-0.06299 F50.00000
G1 Z0.08000 F50.00000

G0 X-6.48189 Y-3.32874
G1 Z-0.06299 F50.00000
G1 Z0.08000 F50.00000

G0 X-5.22793 Y-2.55000
G1 Z0.00700 F50.00000
G1 F100.00000
G2 X-5.22793 Y-2.55000 Z-0.00000 I-0.00396 J0.00000
G2 X-5.22793 Y-2.55000 Z-0.00700 I-0.00396 J0.00000
G2 X-5.22793 Y-2.55000 Z-0.01400 I-0.00396 J0.00000
G2 X-5.22793 Y-2.55000 Z-0.02100 I-0.00396 J0.00000
G2 X-5.22793 Y-2.55000 Z-0.02800 I-0.00396 J0.00000
G2 X-5.22793 Y-2.55000 Z-0.03500 I-0.00396 J0.00000
G2 X-5.22793 Y-2.55000 Z-0.04199 I-0.00396 J0.00000
G2 X-5.22793 Y-2.55000 Z-0.04899 I-0.00396 J0.00000
G2 X-5.22793 Y-2.55000 Z-0.05599 I-0.00396 J0.00000
G2 X-5.22793 Y-2.55000 Z-0.06299 I-0.00396 J0.00000
G2 X-5.22793 Y-2.55000 I-0.00396 J0.00000
G1 Z0.08000 F50.00000

G0 X-5.22793 Y-2.95000
G1 Z0.00700 F50.00000
G1 F100.00000
G2 X-5.22793 Y-2.95000 Z-0.00000 I-0.00396 J0.00000
G2 X-5.22793 Y-2.95000 Z-0.00700 I-0.00396 J0.00000
G2 X-5.22793 Y-2.95000 Z-0.01400 I-0.00396 J0.00000
G2 X-5.22793 Y-2.95000 Z-0.02100 I-0.00396 J0.00000
G2 X-5.22793 Y-2.95000 Z-0.02800 I-0.00396 J0.00000
G2 X-5.22793 Y-2.95000 Z-0.03500 I-0.00396 J0.00000
G2 X-5.22793 Y-2.95000 Z-0.04199 I-0.00396 J0.00000
G2 X-5.22793 Y-2.95000 Z-0.04899 I-0.00396 J0.00000
G2 X-5.22793 Y-2.95000 Z-0.05599 I-0.00396 J0.00000
G2 X-5.22793 Y-2.95000 Z-0.06299 I-0.00396 J0.00000
G2 X-5.22793 Y-2.95000 I-0.00396 J0.00000
G1 Z0.08000 F50.00000

G0 X-5.62793 Y-2.55000
G1 Z0.00700 F50.00000
G1 F100.00000
G2 X-5.62793 Y-2.55000 Z-0.00000 I-0.00396 J0.00000
G2 X-5.62793 Y-2.55000 Z-0.00700 I-0.00396 J0.00000
G2 X-5.62793 Y-2.55000 Z-0.01400 I-0.00396 J0.00000
G2 X-5.62793 Y-2.55000 Z-0.02100 I-0.00396 J0.00000
G2 X-5.62793 Y-2.55000 Z-0.02800 I-0.00396 J0.00000
G2 X-5.62793 Y-2.55000 Z-0.03500 I-0.00396 J0.00000
G2 X-5.62793 Y-2.55000 Z-0.04199 I-0.00396 J0.00000
G2 X-5.62793 Y-2.55000 Z-0.04899 I-0.00396 J0.00000
G2 X-5.62793 Y-2.55000 Z-0.05599 I-0.00396 J0.00000
G2 X-5.62793 Y-2.55000 Z-0.06299 I-0.00396 J0.00000
G2 X-5.62793 Y-2.55000 I-0.00396 J0.00000
G1 Z0.08000 F50.00000

G0 X-5.79293 Y-2.66535
G1 Z0.00700 F50.00000
G1 F100.00000
G2 X-5.80085 Y-2.66535 Z0.00652 I-0.00396 J0.00000
G1 X-5.80085 Y-2.58665 Z0.00350
G2 X-5.79293 Y-2.58665 Z0.00302 I0.00396 J0.00000
G1 X-5.79293 Y-2.66535 Z-0.00000
G2 X-5.80085 Y-2.66535 Z-0.00048 I-0.00396 J0.00000
G1 X-5.80085 Y-2.58665 Z-0.00350
G2 X-5.79293 Y-2.58665 Z-0.00398 I0.00396 J0.00000
G1 X-5.79293 Y-2.66535 Z-0.00700
G2 X-5.80085 Y-2.66535 Z-0.00748 I-0.00396 J0.00000
G1 X-5.80085 Y-2.58665 Z-0.01050
G2 X-5.79293 Y-2.58665 Z-0.01098 I0.00396 J0.00000
G1 X-5.79293 Y-2.66535 Z-0.01400
G2 X-5.80085 Y-2.66535 Z-0.01448 I-0.00396 J0.00000
G1 X-5.80085 Y-2.58665 Z-0.01750
G2 X-5.79293 Y-2.58665 Z-0.01798 I0.00396 J0.00000
G1 X-5.79293 Y-2.66535 Z-0.02100
G2 X-5.80085 Y-2.66535 Z-0.02147 I-0.00396 J0.00000
G1 X-5.80085 Y-2.58665 Z-0.02450
G2 X-5.79293 Y-2.58665 Z-0.02497 I0.00396 J0.00000
G1 X-5.79293 Y-2.66535 Z-0.02800
G2 X-5.80085 Y-2.66535 Z-0.02847 I-0.00396 J0.00000
G1 X-5.80085 Y-2.58665 Z-0.03150
G2 X-5.79293 Y-2.58665 Z-0.03197 I0.00396 J0.00000
G1 X-5.79293 Y-2.66535 Z-0.03500
G2 X-5.80085 Y-2.66535 Z-0.03547 I-0.00396 J0.00000
G1 X-5.80085 Y-2.58665 Z-0.03850
G2 X-5.79293 Y-2.58665 Z-0.03897 I0.00396 J0.00000
G1 X-5.79293 Y-2.66535 Z-0.04199
G2 X-5.80085 Y-2.66535 Z-0.04247 I-0.00396 J0.00000
G1 X-5.80085 Y-2.58665 Z-0.04549
G2 X-5.79293 Y-2.58665 Z-0.04597 I0.00396 J0.00000
G1 X-5.79293 Y-2.66535 Z-0.04899
G2 X-5.80085 Y-2.66535 Z-0.04947 I-0.00396 J0.00000
G1 X-5.80085 Y-2.58665 Z-0.05249
G2 X-5.79293 Y-2.58665 Z-0.05297 I0.00396 J0.00000
G1 X-5.79293 Y-2.66535 Z-0.05599
G2 X-5.80085 Y-2.66535 Z-0.05647 I-0.00396 J0.00000
G1 X-5.80085 Y-2.58665 Z-0.05949
G2 X-5.79293 Y-2.58665 Z-0.05997 I0.00396 J0.00000
G1 X-5.79293 Y-2.66535 Z-0.06299
G2 X-5.80085 Y-2.66535 I-0.00396 J0.00000
G1 X-5.80085 Y-2.58665
G2 X-5.79293 Y-2.58665 I0.00396 J0.00000
G1 X-5.79293 Y-2.66535
G1 Z0.08000 F50.00000

G0 X-5.94256 Y-2.50396
G1 Z0.00700 F50.00000
G1 F100.00000
G2 X-5.94256 Y-2.51187 Z0.00652 I0.00000 J-0.00396
G1 X-6.02122 Y-2.51187 Z0.00350
G2 X-6.02122 Y-2.50396 Z0.00302 I0.00000 J0.00396
G1 X-5.94256 Y-2.50396 Z-0.00000
G2 X-5.94256 Y-2.51187 Z-0.00048 I0.00000 J-0.00396
G1 X-6.02122 Y-2.51187 Z-0.00350
G2 X-6.02122 Y-2.50396 Z-0.00398 I0.00000 J0.00396
G1 X-5.94256 Y-2.50396 Z-0.00700
G2 X-5.94256 Y-2.51187 Z-0.00748 I0.00000 J-0.00396
G1 X-6.02122 Y-2.51187 Z-0.01050
G2 X-6.02122 Y-2.50396 Z-0.01098 I0.00000 J0.00396
G1 X-5.94256 Y-2.50396 Z-0.01400
G2 X-5.94256 Y-2.51187 Z-0.01448 I0.00000 J-0.00396
G1 X-6.02122 Y-2.51187 Z-0.01750
G2 X-6.02122 Y-2.50396 Z-0.01798 I0.00000 J0.00396
G1 X-5.94256 Y-2.50396 Z-0.02100
G2 X-5.94256 Y-2.51187 Z-0.02147 I0.00000 J-0.00396
G1 X-6.02122 Y-2.51187 Z-0.02450
G2 X-6.02122 Y-2.50396 Z-0.02497 I0.00000 J0.00396
G1 X-5.94256 Y-2.50396 Z-0.02800
G2 X-5.94256 Y-2.51187 Z-0.02847 I0.00000 J-0.00396
G1 X-6.02122 Y-2.51187 Z-0.03150
G2 X-6.02122 Y-2.50396 Z-0.03197 I0.00000 J0.00396
G1 X-5.94256 Y-2.50396 Z-0.03500
G2 X-5.94256 Y-2.51187 Z-0.03547 I0.00000 J-0.00396
G1 X-6.02122 Y-2.51187 Z-0.03850
G2 X-6.02122 Y-2.50396 Z-0.03897 I0.00000 J0.00396
G1 X-5.94256 Y-2.50396 Z-0.04199
G2 X-5.94256 Y-2.51187 Z-0.04247 I0.00000 J-0.00396
G1 X-6.02122 Y-2.51187 Z-0.04549
G2 X-6.02122 Y-2.50396 Z-0.04597 I0.00000 J0.00396
G1 X-5.94256 Y-2.50396 Z-0.04899
G2 X-5.94256 Y-2.51187 Z-0.04947 I0.00000 J-0.00396
G1 X-6.02122 Y-2.51187 Z-0.05249
G2 X-6.02122 Y-2.50396 Z-0.05297 I0.00000 J0.00396
G1 X-5.94256 Y-2.50396 Z-0.05599
G2 X-5.94256 Y-2.51187 Z-0.05647 I0.00000 J-0.00396
G1 X-6.02122 Y-2.51187 Z-0.05949
G2 X-6.02122 Y-2.50396 Z-0.05997 I0.00000 J0.00396
G1 X-5.94256 Y-2.50396 Z-0.06299
G2 X-5.94256 Y-2.51187 I0.00000 J-0.00396
G1 X-6.02122 Y-2.51187
G2 X-6.02122 Y-2.50396 I0.00000 J0.00396
G1 X-5.94256 Y-2.50396
G1 Z0.08000 F50.00000

G0 X-6.02122 Y-2.74805
G1 Z0.00700 F50.00000
G1 F100.00000
G2 X-6.02122 Y-2.74014 Z0.00652 I0.00000 J0.00396
G1 X-5.94256 Y-2.74014 Z0.00350
G2 X-5.94256 Y-2.74805 Z0.00302 I0.00000 J-0.00396
G1 X-6.02122 Y-2.74805 Z-0.00000
G2 X-6.02122 Y-2.74014 Z-0.00048 I0.00000 J0.00396
G1 X-5.94256 Y-2.74014 Z-0.00350
G2 X-5.94256 Y-2.74805 Z-0.00398 I0.00000 J-0.00396
G1 X-6.02122 Y-2.74805 Z-0.00700
G2 X-6.02122 Y-2.74014 Z-0.00748 I0.00000 J0.00396
G1 X-5.94256 Y-2.74014 Z-0.01050
G2 X-5.94256 Y-2.74805 Z-0.01098 I0.00000 J-0.00396
G1 X-6.02122 Y-2.74805 Z-0.01400
G2 X-6.02122 Y-2.74014 Z-0.01448 I0.00000 J0.00396
G1 X-5.94256 Y-2.74014 Z-0.01750
G2 X-5.94256 Y-2.74805 Z-0.01798 I0.00000 J-0.00396
G1 X-6.02122 Y-2.74805 Z-0.02100
G2 X-6.02122 Y-2.74014 Z-0.02147 I0.00000 J0.00396
G1 X-5.94256 Y-2.74014 Z-0.02450
G2 X-5.94256 Y-2.74805 Z-0.02497 I0.00000 J-0.00396
G1 X-6.02122 Y-2.74805 Z-0.02800
G2 X-6.02122 Y-2.74014 Z-0.02847 I0.00000 J0.00396
G1 X-5.94256 Y-2.74014 Z-0.03150
G2 X-5.94256 Y-2.74805 Z-0.03197 I0.00000 J-0.00396
G1 X-6.02122 Y-2.74805 Z-0.03500
G2 X-6.02122 Y-2.74014 Z-0.03547 I0.00000 J0.00396
G1 X-5.94256 Y-2.74014 Z-0.03850
G2 X-5.94256 Y-2.74805 Z-0.03897 I0.00000 J-0.00396
G1 X-6.02122 Y-2.74805 Z-0.04199
G2 X-6.02122 Y-2.74014 Z-0.04247 I0.00000 J0.00396
G1 X-5.94256 Y-2.74014 Z-0.04549
G2 X-5.94256 Y-2.74805 Z-0.04597 I0.00000 J-0.00396
G1 X-6.02122 Y-2.74805 Z-0.04899
G2 X-6.02122 Y-2.74014 Z-0.04947 I0.00000 J0.00396
G1 X-5.94256 Y-2.74014 Z-0.05249
G2 X-5.94256 Y-2.74805 Z-0.05297 I0.00000 J-0.00396
G1 X-6.02122 Y-2.74805 Z-0.05599
G2 X-6.02122 Y-2.74014 Z-0.05647 I0.00000 J0.00396
G1 X-5.94256 Y-2.74014 Z-0.05949
G2 X-5.94256 Y-2.74805 Z-0.05997 I0.00000 J-0.00396
G1 X-6.02122 Y-2.74805 Z-0.06299
G2 X-6.02122 Y-2.74014 I0.00000 J0.00396
G1 X-5.94256 Y-2.74014
G2 X-5.94256 Y-2.74805 I0.00000 J-0.00396
G1 X-6.02122 Y-2.74805
G1 Z0.08000 F50.00000

G0 X-5.62793 Y-2.95000
G1 Z0.00700 F50.00000
G1 F100.00000
G2 X-5.62793 Y-2.95000 Z-0.00000 I-0.00396 J0.00000
G2 X-5.62793 Y-2.95000 Z-0.00700 I-0.00396 J0.00000
G2 X-5.62793 Y-2.95000 Z-0.01400 I-0.00396 J0.00000
G2 X-5.62793 Y-2.95000 Z-0.02100 I-0.00396 J0.00000
G2 X-5.62793 Y-2.95000 Z-0.02800 I-0.00396 J0.00000
G2 X-5.62793 Y-2.95000 Z-0.03500 I-0.00396 J0.00000
G2 X-5.62793 Y-2.95000 Z-0.04199 I-0.00396 J0.00000
G2 X-5.62793 Y-2.95000 Z-0.04899 I-0.00396 J0.00000
G2 X-5.62793 Y-2.95000 Z-0.05599 I-0.00396 J0.00000
G2 X-5.62793 Y-2.95000 Z-0.06299 I-0.00396 J0.00000
G2 X-5.62793 Y-2.95000 I-0.00396 J0.00000
G1 Z0.08000 F50.00000

G0 X-5.72793 Y-3.30000
G1 Z0.00700 F50.00000
G1 F100.00000
G2 X-5.72793 Y-3.30000 Z-0.00000 I-0.00396 J0.00000
G2 X-5.72793 Y-3.30000 Z-0.00700 I-0.00396 J0.00000
G2 X-5.72793 Y-3.30000 Z-0.01400 I-0.00396 J0.00000
G2 X-5.72793 Y-3.30000 Z-0.02100 I-0.00396 J0.00000
G2 X-5.72793 Y-3.30000 Z-0.02800 I-0.00396 J0.00000
G2 X-5.72793 Y-3.30000 Z-0.03500 I-0.00396 J0.00000
G2 X-5.72793 Y-3.30000 Z-0.04199 I-0.00396 J0.00000
G2 X-5.72793 Y-3.30000 Z-0.04899 I-0.00396 J0.00000
G2 X-5.72793 Y-3.30000 Z-0.05599 I-0.00396 J0.00000
G2 X-5.72793 Y-3.30000 Z-0.06299 I-0.00396 J0.00000
G2 X-5.72793 Y-3.30000 I-0.00396 J0.00000
G1 Z0.08000 F50.00000

G0 X-5.82793 Y-3.30000
G1 Z0.00700 F50.00000
G1 F100.00000
G2 X-5.82793 Y-3.30000 Z-0.00000 I-0.00396 J0.00000
G2 X-5.82793 Y-3.30000 Z-0.00700 I-0.00396 J0.00000
G2 X-5.82793 Y-3.30000 Z-0.01400 I-0.00396 J0.00000
G2 X-5.82793 Y-3.30000 Z-0.02100 I-0.00396 J0.00000
G2 X-5.82793 Y-3.30000 Z-0.02800 I-0.00396 J0.00000
G2 X-5.82793 Y-3.30000 Z-0.03500 I-0.00396 J0.00000
G2 X-5.82793 Y-3.30000 Z-0.04199 I-0.00396 J0.00000
G2 X-5.82793 Y-3.30000 Z-0.04899 I-0.00396 J0.00000
G2 X-5.82793 Y-3.30000 Z-0.05599 I-0.00396 J0.00000
G2 X-5.82793 Y-3.30000 Z-0.06299 I-0.00396 J0.00000
G2 X-5.82793 Y-3.30000 I-0.00396 J0.00000
G1 Z0.08000 F50.00000

G0 X-6.02793 Y-3.30000
G1 Z0.00700 F50.00000
G1 F100.00000
G2 X-6.02793 Y-3.30000 Z-0.00000 I-0.00396 J0.00000
G2 X-6.02793 Y-3.30000 Z-0.00700 I-0.00396 J0.00000
G2 X-6.02793 Y-3.30000 Z-0.01400 I-0.00396 J0.00000
G2 X-6.02793 Y-3.30000 Z-0.02100 I-0.00396 J0.00000
G2 X-6.02793 Y-3.30000 Z-0.02800 I-0.00396 J0.00000
G2 X-6.02793 Y-3.30000 Z-0.03500 I-0.00396 J0.00000
G2 X-6.02793 Y-3.30000 Z-0.04199 I-0.00396 J0.00000
G2 X-6.02793 Y-3.30000 Z-0.04899 I-0.00396 J0.00000
G2 X-6.02793 Y-3.30000 Z-0.05599 I-0.00396 J0.00000
G2 X-6.02793 Y-3.30000 Z-0.06299 I-0.00396 J0.00000
G2 X-6.02793 Y-3.30000 I-0.00396 J0.00000
G1 Z0.08000 F50.00000

G0 X-6.12793 Y-3.30000
G1 Z0.00700 F50.00000
G1 F100.00000
G2 X-6.12793 Y-3.30000 Z-0.00000 I-0.00396 J0.00000
G2 X-6.12793 Y-3.30000 Z-0.00700 I-0.00396 J0.00000
G2 X-6.12793 Y-3.30000 Z-0.01400 I-0.00396 J0.00000
G2 X-6.12793 Y-3.30000 Z-0.02100 I-0.00396 J0.00000
G2 X-6.12793 Y-3.30000 Z-0.02800 I-0.00396 J0.00000
G2 X-6.12793 Y-3.30000 Z-0.03500 I-0.00396 J0.00000
G2 X-6.12793 Y-3.30000 Z-0.04199 I-0.00396 J0.00000
G2 X-6.12793 Y-3.30000 Z-0.04899 I-0.00396 J0.00000
G2 X-6.12793 Y-3.30000 Z-0.05599 I-0.00396 J0.00000
G2 X-6.12793 Y-3.30000 Z-0.06299 I-0.00396 J0.00000
G2 X-6.12793 Y-3.30000 I-0.00396 J0.00000
G1 Z0.08000 F50.00000

G0 X-6.27793 Y-2.95000
G1 Z0.00700 F50.00000
G1 F100.00000
G2 X-6.27793 Y-2.95000 Z-0.00000 I-0.00396 J0.00000
G2 X-6.27793 Y-2.95000 Z-0.00700 I-0.00396 J0.00000
G2 X-6.27793 Y-2.95000 Z-0.01400 I-0.00396 J0.00000
G2 X-6.27793 Y-2.95000 Z-0.02100 I-0.00396 J0.00000
G2 X-6.27793 Y-2.95000 Z-0.02800 I-0.00396 J0.00000
G2 X-6.27793 Y-2.95000 Z-0.03500 I-0.00396 J0.00000
G2 X-6.27793 Y-2.95000 Z-0.04199 I-0.00396 J0.00000
G2 X-6.27793 Y-2.95000 Z-0.04899 I-0.00396 J0.00000
G2 X-6.27793 Y-2.95000 Z-0.05599 I-0.00396 J0.00000
G2 X-6.27793 Y-2.95000 Z-0.06299 I-0.00396 J0.00000
G2 X-6.27793 Y-2.95000 I-0.00396 J0.00000
G1 Z0.08000 F50.00000

G0 X-6.67793 Y-2.95000
G1 Z0.00700 F50.00000
G1 F100.00000
G2 X-6.67793 Y-2.95000 Z-0.00000 I-0.00396 J0.00000
G2 X-6.67793 Y-2.95000 Z-0.00700 I-0.00396 J0.00000
G2 X-6.67793 Y-2.95000 Z-0.01400 I-0.00396 J0.00000
G2 X-6.67793 Y-2.95000 Z-0.02100 I-0.00396 J0.00000
G2 X-6.67793 Y-2.95000 Z-0.02800 I-0.00396 J0.00000
G2 X-6.67793 Y-2.95000 Z-0.03500 I-0.00396 J0.00000
G2 X-6.67793 Y-2.95000 Z-0.04199 I-0.00396 J0.00000
G2 X-6.67793 Y-2.95000 Z-0.04899 I-0.00396 J0.00000
G2 X-6.67793 Y-2.95000 Z-0.05599 I-0.00396 J0.00000
G2 X-6.67793 Y-2.95000 Z-0.06299 I-0.00396 J0.00000
G2 X-6.67793 Y-2.95000 I-0.00396 J0.00000
G1 Z0.08000 F50.00000

G0 X-6.27793 Y-2.55000
G1 Z0.00700 F50.00000
G1 F100.00000
G2 X-6.27793 Y-2.55000 Z-0.00000 I-0.00396 J0.00000
G2 X-6.27793 Y-2.55000 Z-0.00700 I-0.00396 J0.00000
G2 X-6.27793 Y-2.55000 Z-0.01400 I-0.00396 J0.00000
G2 X-6.27793 Y-2.55000 Z-0.02100 I-0.00396 J0.00000
G2 X-6.27793 Y-2.55000 Z-0.02800 I-0.00396 J0.00000
G2 X-6.27793 Y-2.55000 Z-0.03500 I-0.00396 J0.00000
G2 X-6.27793 Y-2.55000 Z-0.04199 I-0.00396 J0.00000
G2 X-6.27793 Y-2.55000 Z-0.04899 I-0.00396 J0.00000
G2 X-6.27793 Y-2.55000 Z-0.05599 I-0.00396 J0.00000
G2 X-6.27793 Y-2.55000 Z-0.06299 I-0.00396 J0.00000
G2 X-6.27793 Y-2.55000 I-0.00396 J0.00000
G1 Z0.08000 F50.00000

G0 X-6.67793 Y-2.55000
G1 Z0.00700 F50.00000
G1 F100.00000
G2 X-6.67793 Y-2.55000 Z-0.00000 I-0.00396 J0.00000
G2 X-6.67793 Y-2.55000 Z-0.00700 I-0.00396 J0.00000
G2 X-6.67793 Y-2.55000 Z-0.01400 I-0.00396 J0.00000
G2 X-6.67793 Y-2.55000 Z-0.02100 I-0.00396 J0.00000
G2 X-6.67793 Y-2.55000 Z-0.02800 I-0.00396 J0.00000
G2 X-6.67793 Y-2.55000 Z-0.03500 I-0.00396 J0.00000
G2 X-6.67793 Y-2.55000 Z-0.04199 I-0.00396 J0.00000
G2 X-6.67793 Y-2.55000 Z-0.04899 I-0.00396 J0.00000
G2 X-6.67793 Y-2.55000 Z-0.05599 I-0.00396 J0.00000
G2 X-6.67793 Y-2.55000 Z-0.06299 I-0.00396 J0.00000
G2 X-6.67793 Y-2.55000 I-0.00396 J0.00000
G1 Z0.08000 F50.00000

( Piece #3, position [2;0] )

G0 X-3.40000 Y-2.85000
G1 Z-0.06299 F50.00000
G1 Z0.08000 F50.00000

G0 X-3.49843 Y-2.85000
G1 Z-0.06299 F50.00000
G1 Z0.08000 F50.00000

G0 X-3.40000 Y-3.17126
G1 Z-0.06299 F50.00000
G1 Z0.08000 F50.00000

G0 X-3.40000 Y-3.25000
G1 Z-0.06299 F50.00000
G1 Z0.08000 F50.00000

G0 X-3.40000 Y-3.32874
G1 Z-0.06299 F50.00000
G1 Z0.08000 F50.00000

G0 X-4.45157 Y-2.85000
G1 Z-0.06299 F50.00000
G1 Z0.08000 F50.00000

G0 X-4.55000 Y-2.85000
G1 Z-0.06299 F50.00000
G1 Z0.08000 F50.00000

G0 X-4.50000 Y-3.17126
G1 Z-0.06299 F50.00000
G1 Z0.08000 F50.00000

G0 X-4.50000 Y-3.25000
G1 Z-0.06299 F50.00000
G1 Z0.08000 F50.00000

G0 X-4.50000 Y-3.32874
G1 Z-0.06299 F50.00000
G1 Z0.08000 F50.00000

G0 X-3.24604 Y-2.55000
G1 Z0.00700 F50.00000
G1 F100.00000
G2 X-3.24604 Y-2.55000 Z-0.00000 I-0.00396 J0.00000
G2 X-3.24604 Y-2.55000 Z-0.00700 I-0.00396 J0.00000
G2 X-3.24604 Y-2.55000 Z-0.01400 I-0.00396 J0.00000
G2 X-3.24604 Y-2.55000 Z-0.02100 I-0.00396 J0.00000
G2 X-3.24604 Y-2.55000 Z-0.02800 I-0.00396 J0.00000
G2 X-3.24604 Y-2.55000 Z-0.03500 I-0.00396 J0.00000
G2 X-3.24604 Y-2.55000 Z-0.04199 I-0.00396 J0.00000
G2 X-3.24604 Y-2.55000 Z-0.04899 I-0.00396 J0.00000
G2 X-3.24604 Y-2.55000 Z-0.05599 I-0.00396 J0.00000
G2 X-3.24604 Y-2.55000 Z-0.06299 I-0.00396 J0.00000
G2 X-3.24604 Y-2.55000 I-0.00396 J0.00000
G1 Z0.08000 F50.00000

G0 X-3.24604 Y-2.95000
G1 Z0.00700 F50.00000
G1 F100.00000
G2 X-3.24604 Y-2.95000 Z-0.00000 I-0.00396 J0.00000
G2 X-3.24604 Y-2.95000 Z-0.00700 I-0.00396 J0.00000
G2 X-3.24604 Y-2.95000 Z-0.01400 I-0.00396 J0.00000
G2 X-3.24604 Y-2.95000 Z-0.02100 I-0.00396 J0.00000
G2 X-3.24604 Y-2.95000 Z-0.02800 I-0.00396 J0.00000
G2 X-3.24604 Y-2.95000 Z-0.03500 I-0.00396 J0.00000
G2 X-3.24604 Y-2.95000 Z-0.04199 I-0.00396 J0.00000
G2 X-3.24604 Y-2.95000 Z-0.04899 I-0.00396 J0.00000
G2 X-3.24604 Y-2.95000 Z-0.05599 I-0.00396 J0.00000
G2 X-3.24604 Y-2.95000 Z-0.06299 I-0.00396 J0.00000
G2 X-3.24604 Y-2.95000 I-0.00396 J0.00000
G1 Z0.08000 F50.00000

G0 X-3.64604 Y-2.55000
G1 Z0.00700 F50.00000
G1 F100.00000
G2 X-3.64604 Y-2.55000 Z-0.00000 I-0.00396 J0.00000
G2 X-3.64604 Y-2.55000 Z-0.00700 I-0.00396 J0.00000
G2 X-3.64604 Y-2.55000 Z-0.01400 I-0.00396 J0.00000
G2 X-3.64604 Y-2.55000 Z-0.02100 I-0.00396 J0.00000
G2 X-3.64604 Y-2.55000 Z-0.02800 I-0.00396 J0.00000
G2 X-3.64604 Y-2.55000 Z-0.03500 I-0.00396 J0.00000
G2 X-3.64604 Y-2.55000 Z-0.04199 I-0.00396 J0.00000
G2 X-3.64604 Y-2.55000 Z-0.04899 I-0.00396 J0.00000
G2 X-3.64604 Y-2.55000 Z-0.05599 I-0.00396 J0.00000
G2 X-3.64604 Y-2.55000 Z-0.06299 I-0.00396 J0.00000
G2 X-3.64604 Y-2.55000 I-0.00396 J0.00000
G1 Z0.08000 F50.00000

G0 X-3.81104 Y-2.66535
G1 Z0.00700 F50.00000
G1 F100.00000
G2 X-3.81896 Y-2.66535 Z0.00652 I-0.00396 J0.00000
G1 X-3.81896 Y-2.58665 Z0.00350
G2 X-3.81104 Y-2.58665 Z0.00302 I0.00396 J0.00000
G1 X-3.81104 Y-2.66535 Z-0.00000
G2 X-3.81896 Y-2.66535 Z-0.00048 I-0.00396 J0.00000
G1 X-3.81896 Y-2.58665 Z-0.00350
G2 X-3.81104 Y-2.58665 Z-0.00398 I0.00396 J0.00000
G1 X-3.81104 Y-2.66535 Z-0.00700
G2 X-3.81896 Y-2.66535 Z-0.00748 I-0.00396 J0.00000
G1 X-3.81896 Y-2.58665 Z-0.01050
G2 X-3.81104 Y-2.58665 Z-0.01098 I0.00396 J0.00000
G1 X-3.81104 Y-2.66535 Z-0.01400
G2 X-3.81896 Y-2.66535 Z-0.01448 I-0.00396 J0.00000
G1 X-3.81896 Y-2.58665 Z-0.01750
G2 X-3.81104 Y-2.58665 Z-0.01798 I0.00396 J0.00000
G1 X-3.81104 Y-2.66535 Z-0.02100
G2 X-3.81896 Y-2.66535 Z-0.02147 I-0.00396 J0.00000
G1 X-3.81896 Y-2.58665 Z-0.02450
G2 X-3.81104 Y-2.58665 Z-0.02497 I0.00396 J0.00000
G1 X-3.81104 Y-2.66535 Z-0.02800
G2 X-3.81896 Y-2.66535 Z-0.02847 I-0.00396 J0.00000
G1 X-3.81896 Y-2.58665 Z-0.03150
G2 X-3.81104 Y-2.58665 Z-0.03197 I0.00396 J0.00000
G1 X-3.81104 Y-2.66535 Z-0.03500
G2 X-3.81896 Y-2.66535 Z-0.03547 I-0.00396 J0.00000
G1 X-3.81896 Y-2.58665 Z-0.03850
G2 X-3.81104 Y-2.58665 Z-0.03897 I0.00396 J0.00000
G1 X-3.81104 Y-2.66535 Z-0.04199
G2 X-3.81896 Y-2.66535 Z-0.04247 I-0.00396 J0.00000
G1 X-3.81896 Y-2.58665 Z-0.04549
G2 X-3.81104 Y-2.58665 Z-0.04597 I0.00396 J0.00000
G1 X-3.81104 Y-2.66535 Z-0.04899
G2 X-3.81896 Y-2.66535 Z-0.04947 I-0.00396 J0.00000
G1 X-3.81896 Y-2.58665 Z-0.05249
G2 X-3.81104 Y-2.58665 Z-0.05297 I0.00396 J0.00000
G1 X-3.81104 Y-2.66535 Z-0.05599
G2 X-3.81896 Y-2.66535 Z-0.05647 I-0.00396 J0.00000
G1 X-3.81896 Y-2.58665 Z-0.05949
G2 X-3.81104 Y-2.58665 Z-0.05997 I0.00396 J0.00000
G1 X-3.81104 Y-2.66535 Z-0.06299
G2 X-3.81896 Y-2.66535 I-0.00396 J0.00000
G1 X-3.81896 Y-2.58665
G2 X-3.81104 Y-2.58665 I0.00396 J0.00000
G1 X-3.81104 Y-2.66535
G1 Z0.08000 F50.00000

G0 X-3.96067 Y-2.50396
G1 Z0.00700 F50.00000
G1 F100.00000
G2 X-3.96067 Y-2.51187 Z0.00652 I0.00000 J-0.00396
G1 X-4.03933 Y-2.51187 Z0.00350
G2 X-4.03933 Y-2.50396 Z0.00302 I0.00000 J0.00396
G1 X-3.96067 Y-2.50396 Z-0.00000
G2 X-3.96067 Y-2.51187 Z-0.00048 I0.00000 J-0.00396
G1 X-4.03933 Y-2.51187 Z-0.00350
G2 X-4.03933 Y-2.50396 Z-0.00398 I0.00000 J0.00396
G1 X-3.96067 Y-2.50396 Z-0.00700
G2 X-3.96067 Y-2.51187 Z-0.00748 I0.00000 J-0.00396
G1 X-4.03933 Y-2.51187 Z-0.01050
G2 X-4.03933 Y-2.50396 Z-0.01098 I0.00000 J0.00396
G1 X-3.96067 Y-2.50396 Z-0.01400
G2 X-3.96067 Y-2.51187 Z-0.01448 I0.00000 J-0.00396
G1 X-4.03933 Y-2.51187 Z-0.01750
G2 X-4.03933 Y-2.50396 Z-0.01798 I0.00000 J0.00396
G1 X-3.96067 Y-2.50396 Z-0.02100
G2 X-3.96067 Y-2.51187 Z-0.02147 I0.00000 J-0.00396
G1 X-4.03933 Y-2.51187 Z-0.02450
G2 X-4.03933 Y-2.50396 Z-0.02497 I0.00000 J0.00396
G1 X-3.96067 Y-2.50396 Z-0.02800
G2 X-3.96067 Y-2.51187 Z-0.02847 I0.00000 J-0.00396
G1 X-4.03933 Y-2.51187 Z-0.03150
G2 X-4.03933 Y-2.50396 Z-0.03197 I0.00000 J0.00396
G1 X-3.96067 Y-2.50396 Z-0.03500
G2 X-3.96067 Y-2.51187 Z-0.03547 I0.00000 J-0.00396
G1 X-4.03933 Y-2.51187 Z-0.03850
G2 X-4.03933 Y-2.50396 Z-0.03897 I0.00000 J0.00396
G1 X-3.96067 Y-2.50396 Z-0.04199
G2 X-3.96067 Y-2.51187 Z-0.04247 I0.00000 J-0.00396
G1 X-4.03933 Y-2.51187 Z-0.04549
G2 X-4.03933 Y-2.50396 Z-0.04597 I0.00000 J0.00396
G1 X-3.96067 Y-2.50396 Z-0.04899
G2 X-3.96067 Y-2.51187 Z-0.04947 I0.00000 J-0.00396
G1 X-4.03933 Y-2.51187 Z-0.05249
G2 X-4.03933 Y-2.50396 Z-0.05297 I0.00000 J0.00396
G1 X-3.96067 Y-2.50396 Z-0.05599
G2 X-3.96067 Y-2.51187 Z-0.05647 I0.00000 J-0.00396
G1 X-4.03933 Y-2.51187 Z-0.05949
G2 X-4.03933 Y-2.50396 Z-0.05997 I0.00000 J0.00396
G1 X-3.96067 Y-2.50396 Z-0.06299
G2 X-3.96067 Y-2.51187 I0.00000 J-0.00396
G1 X-4.03933 Y-2.51187
G2 X-4.03933 Y-2.50396 I0.00000 J0.00396
G1 X-3.96067 Y-2.50396
G1 Z0.08000 F50.00000

G0 X-4.03933 Y-2.74805
G1 Z0.00700 F50.00000
G1 F100.00000
G2 X-4.03933 Y-2.74014 Z0.00652 I0.00000 J0.00396
G1 X-3.96067 Y-2.74014 Z0.00350
G2 X-3.96067 Y-2.74805 Z0.00302 I0.00000 J-0.00396
G1 X-4.03933 Y-2.74805 Z-0.00000
G2 X-4.03933 Y-2.74014 Z-0.00048 I0.00000 J0.00396
G1 X-3.96067 Y-2.74014 Z-0.00350
G2 X-3.96067 Y-2.74805 Z-0.00398 I0.00000 J-0.00396
G1 X-4.03933 Y-2.74805 Z-0.00700
G2 X-4.03933 Y-2.74014 Z-0.00748 I0.00000 J0.00396
G1 X-3.96067 Y-2.74014 Z-0.01050
G2 X-3.96067 Y-2.74805 Z-0.01098 I0.00000 J-0.00396
G1 X-4.03933 Y-2.74805 Z-0.01400
G2 X-4.03933 Y-2.74014 Z-0.01448 I0.00000 J0.00396
G1 X-3.96067 Y-2.74014 Z-0.01750
G2 X-3.96067 Y-2.74805 Z-0.01798 I0.00000 J-0.00396
G1 X-4.03933 Y-2.74805 Z-0.02100
G2 X-4.03933 Y-2.74014 Z-0.02147 I0.00000 J0.00396
G1 X-3.96067 Y-2.74014 Z-0.02450
G2 X-3.96067 Y-2.74805 Z-0.02497 I0.00000 J-0.00396
G1 X-4.03933 Y-2.74805 Z-0.02800
G2 X-4.03933 Y-2.74014 Z-0.02847 I0.00000 J0.00396
G1 X-3.96067 Y-2.74014 Z-0.03150
G2 X-3.96067 Y-2.74805 Z-0.03197 I0.00000 J-0.00396
G1 X-4.03933 Y-2.74805 Z-0.03500
G2 X-4.03933 Y-2.74014 Z-0.03547 I0.00000 J0.00396
G1 X-3.96067 Y-2.74014 Z-0.03850
G2 X-3.96067 Y-2.74805 Z-0.03897 I0.00000 J-0.00396
G1 X-4.03933 Y-2.74805 Z-0.04199
G2 X-4.03933 Y-2.74014 Z-0.04247 I0.00000 J0.00396
G1 X-3.96067 Y-2.74014 Z-0.04549
G2 X-3.96067 Y-2.74805 Z-0.04597 I0.00000 J-0.00396
G1 X-4.03933 Y-2.74805 Z-0.04899
G2 X-4.03933 Y-2.74014 Z-0.04947 I0.00000 J0.00396
G1 X-3.96067 Y-2.74014 Z-0.05249
G2 X-3.96067 Y-2.74805 Z-0.05297 I0.00000 J-0.00396
G1 X-4.03933 Y-2.74805 Z-0.05599
G2 X-4.03933 Y-2.74014 Z-0.05647 I0.00000 J0.00396
G1 X-3.96067 Y-2.74014 Z-0.05949
G2 X-3.96067 Y-2.74805 Z-0.05997 I0.00000 J-0.00396
G1 X-4.03933 Y-2.74805 Z-0.06299
G2 X-4.03933 Y-2.74014 I0.00000 J0.00396
G1 X-3.96067 Y-2.74014
G2 X-3.96067 Y-2.74805 I0.00000 J-0.00396
G1 X-4.03933 Y-2.74805
G1 Z0.08000 F50.00000

G0 X-3.64604 Y-2.95000
G1 Z0.00700 F50.00000
G1 F100.00000
G2 X-3.64604 Y-2.95000 Z-0.00000 I-0.00396 J0.00000
G2 X-3.64604 Y-2.95000 Z-0.00700 I-0.00396 J0.00000
G2 X-3.64604 Y-2.95000 Z-0.01400 I-0.00396 J0.00000
G2 X-3.64604 Y-2.95000 Z-0.02100 I-0.00396 J0.00000
G2 X-3.64604 Y-2.95000 Z-0.02800 I-0.00396 J0.00000
G2 X-3.64604 Y-2.95000 Z-0.03500 I-0.00396 J0.00000
G2 X-3.64604 Y-2.95000 Z-0.04199 I-0.00396 J0.00000
G2 X-3.64604 Y-2.95000 Z-0.04899 I-0.00396 J0.00000
G2 X-3.64604 Y-2.95000 Z-0.05599 I-0.00396 J0.00000
G2 X-3.64604 Y-2.95000 Z-0.06299 I-0.00396 J0.00000
G2 X-3.64604 Y-2.95000 I-0.00396 J0.00000
G1 Z0.08000 F50.00000

G0 X-3.74604 Y-3.30000
G1 Z0.00700 F50.00000
G1 F100.00000
G2 X-3.74604 Y-3.30000 Z-0.00000 I-0.00396 J0.00000
G2 X-3.74604 Y-3.30000 Z-0.00700 I-0.00396 J0.00000
G2 X-3.74604 Y-3.30000 Z-0.01400 I-0.00396 J0.00000
G2 X-3.74604 Y-3.30000 Z-0.02100 I-0.00396 J0.00000
G2 X-3.74604 Y-3.30000 Z-0.02800 I-0.00396 J0.00000
G2 X-3.74604 Y-3.30000 Z-0.03500 I-0.00396 J0.00000
G2 X-3.74604 Y-3.30000 Z-0.04199 I-0.00396 J0.00000
G2 X-3.74604 Y-3.30000 Z-0.04899 I-0.00396 J0.00000
G2 X-3.74604 Y-3.30000 Z-0.05599 I-0.00396 J0.00000
G2 X-3.74604 Y-3.30000 Z-0.06299 I-0.00396 J0.00000
G2 X-3.74604 Y-3.30000 I-0.00396 J0.00000
G1 Z0.08000 F50.00000

G0 X-3.84604 Y-3.30000
G1 Z0.00700 F50.00000
G1 F100.00000
G2 X-3.84604 Y-3.30000 Z-0.00000 I-0.00396 J0.00000
G2 X-3.84604 Y-3.30000 Z-0.00700 I-0.00396 J0.00000
G2 X-3.84604 Y-3.30000 Z-0.01400 I-0.00396 J0.00000
G2 X-3.84604 Y-3.30000 Z-0.02100 I-0.00396 J0.00000
G2 X-3.84604 Y-3.30000 Z-0.02800 I-0.00396 J0.00000
G2 X-3.84604 Y-3.30000 Z-0.03500 I-0.00396 J0.00000
G2 X-3.84604 Y-3.30000 Z-0.04199 I-0.00396 J0.00000
G2 X-3.84604 Y-3.30000 Z-0.04899 I-0.00396 J0.00000
G2 X-3.84604 Y-3.30000 Z-0.05599 I-0.00396 J0.00000
G2 X-3.84604 Y-3.30000 Z-0.06299 I-0.00396 J0.00000
G2 X-3.84604 Y-3.30000 I-0.00396 J0.00000
G1 Z0.08000 F50.00000

G0 X-4.04604 Y-3.30000
G1 Z0.00700 F50.00000
G1 F100.00000
G2 X-4.04604 Y-3.30000 Z-0.00000 I-0.00396 J0.00000
G2 X-4.04604 Y-3.30000 Z-0.00700 I-0.00396 J0.00000
G2 X-4.04604 Y-3.30000 Z-0.01400 I-0.00396 J0.00000
G2 X-4.04604 Y-3.30000 Z-0.02100 I-0.00396 J0.00000
G2 X-4.04604 Y-3.30000 Z-0.02800 I-0.00396 J0.00000
G2 X-4.04604 Y-3.30000 Z-0.03500 I-0.00396 J0.00000
G2 X-4.04604 Y-3.30000 Z-0.04199 I-0.00396 J0.00000
G2 X-4.04604 Y-3.30000 Z-0.04899 I-0.00396 J0.00000
G2 X-4.04604 Y-3.30000 Z-0.05599 I-0.00396 J0.00000
G2 X-4.04604 Y-3.30000 Z-0.06299 I-0.00396 J0.00000
G2 X-4.04604 Y-3.30000 I-0.00396 J0.00000
G1 Z0.08000 F50.00000

G0 X-4.14604 Y-3.30000
G1 Z0.00700 F50.00000
G1 F100.00000
G2 X-4.14604 Y-3.30000 Z-0.00000 I-0.00396 J0.00000
G2 X-4.14604 Y-3.30000 Z-0.00700 I-0.00396 J0.00000
G2 X-4.14604 Y-3.30000 Z-0.01400 I-0.00396 J0.00000
G2 X-4.14604 Y-3.30000 Z-0.02100 I-0.00396 J0.00000
G2 X-4.14604 Y-3.30000 Z-0.02800 I-0.00396 J0.00000
G2 X-4.14604 Y-3.30000 Z-0.03500 I-0.00396 J0.00000
G2 X-4.14604 Y-3.30000 Z-0.04199 I-0.00396 J0.00000
G2 X-4.14604 Y-3.30000 Z-0.04899 I-0.00396 J0.00000
G2 X-4.14604 Y-3.30000 Z-0.05599 I-0.00396 J0.00000
G2 X-4.14604 Y-3.30000 Z-0.06299 I-0.00396 J0.00000
G2 X-4.14604 Y-3.30000 I-0.00396 J0.00000
G1 Z0.08000 F50.00000

G0 X-4.29604 Y-2.95000
G1 Z0.00700 F50.00000
G1 F100.00000
G2 X-4.29604 Y-2.95000 Z-0.00000 I-0.00396 J0.00000
G2 X-4.29604 Y-2.95000 Z-0.00700 I-0.00396 J0.00000
G2 X-4.29604 Y-2.95000 Z-0.01400 I-0.00396 J0.00000
G2 X-4.29604 Y-2.95000 Z-0.02100 I-0.00396 J0.00000
G2 X-4.29604 Y-2.95000 Z-0.02800 I-0.00396 J0.00000
G2 X-4.29604 Y-2.95000 Z-0.03500 I-0.00396 J0.00000
G2 X-4.29604 Y-2.95000 Z-0.04199 I-0.00396 J0.00000
G2 X-4.29604 Y-2.95000 Z-0.04899 I-0.00396 J0.00000
G2 X-4.29604 Y-2.95000 Z-0.05599 I-0.00396 J0.00000
G2 X-4.29604 Y-2.95000 Z-0.06299 I-0.00396 J0.00000
G2 X-4.29604 Y-2.95000 I-0.00396 J0.00000
G1 Z0.08000 F50.00000

G0 X-4.69604 Y-2.95000
G1 Z0.00700 F50.00000
G1 F100.00000
G2 X-4.69604 Y-2.95000 Z-0.00000 I-0.00396 J0.00000
G2 X-4.69604 Y-2.95000 Z-0.00700 I-0.00396 J0.00000
G2 X-4.69604 Y-2.95000 Z-0.01400 I-0.00396 J0.00000
G2 X-4.69604 Y-2.95000 Z-0.02100 I-0.00396 J0.00000
G2 X-4.69604 Y-2.95000 Z-0.02800 I-0.00396 J0.00000
G2 X-4.69604 Y-2.95000 Z-0.03500 I-0.00396 J0.00000
G2 X-4.69604 Y-2.95000 Z-0.04199 I-0.00396 J0.00000
G2 X-4.69604 Y-2.95000 Z-0.04899 I-0.00396 J0.00000
G2 X-4.69604 Y-2.95000 Z-0.05599 I-0.00396 J0.00000
G2 X-4.69604 Y-2.95000 Z-0.06299 I-0.00396 J0.00000
G2 X-4.69604 Y-2.95000 I-0.00396 J0.00000
G1 Z0.08000 F50.00000

G0 X-4.29604 Y-2.55000
G1 Z0.00700 F50.00000
G1 F100.00000
G2 X-4.29604 Y-2.55000 Z-0.00000 I-0.00396 J0.00000
G2 X-4.29604 Y-2.55000 Z-0.00700 I-0.00396 J0.00000
G2 X-4.29604 Y-2.55000 Z-0.01400 I-0.00396 J0.00000
G2 X-4.29604 Y-2.55000 Z-0.02100 I-0.00396 J0.00000
G2 X-4.29604 Y-2.55000 Z-0.02800 I-0.00396 J0.00000
G2 X-4.29604 Y-2.55000 Z-0.03500 I-0.00396 J0.00000
G2 X-4.29604 Y-2.55000 Z-0.04199 I-0.00396 J0.00000
G2 X-4.29604 Y-2.55000 Z-0.04899 I-0.00396 J0.00000
G2 X-4.29604 Y-2.55000 Z-0.05599 I-0.00396 J0.00000
G2 X-4.29604 Y-2.55000 Z-0.06299 I-0.00396 J0.00000
G2 X-4.29604 Y-2.55000 I-0.00396 J0.00000
G1 Z0.08000 F50.00000

G0 X-4.69604 Y-2.55000
G1 Z0.00700 F50.00000
G1 F100.00000
G2 X-4.69604 Y-2.55000 Z-0.00000 I-0.00396 J0.00000
G2 X-4.69604 Y-2.55000 Z-0.00700 I-0.00396 J0.00000
G2 X-4.69604 Y-2.55000 Z-0.01400 I-0.00396 J0.00000
G2 X-4.69604 Y-2.55000 Z-0.02100 I-0.00396 J0.00000
G2 X-4.69604 Y-2.55000 Z-0.02800 I-0.00396 J0.00000
G2 X-4.69604 Y-2.55000 Z-0.03500 I-0.00396 J0.00000
G2 X-4.69604 Y-2.55000 Z-0.04199 I-0.00396 J0.00000
G2 X-4.69604 Y-2.55000 Z-0.04899 I-0.00396 J0.00000
G2 X-4.69604 Y-2.55000 Z-0.05599 I-0.00396 J0.00000
G2 X-4.69604 Y-2.55000 Z-0.06299 I-0.00396 J0.00000
G2 X-4.69604 Y-2.55000 I-0.00396 J0.00000
G1 Z0.08000 F50.00000

( Piece #4, position [0;1] )

G0 X-3.40000 Y-1.46811
G1 Z-0.06299 F50.00000
G1 Z0.08000 F50.00000

G0 X-3.49843 Y-1.46811
G1 Z-0.06299 F50.00000
G1 Z0.08000 F50.00000

G0 X-3.40000 Y-1.78937
G1 Z-0.06299 F50.00000
G1 Z0.08000 F50.00000

G0 X-3.40000 Y-1.86811
G1 Z-0.06299 F50.00000
G1 Z0.08000 F50.00000

G0 X-3.40000 Y-1.94685
G1 Z-0.06299 F50.00000
G1 Z0.08000 F50.00000

G0 X-4.45157 Y-1.46811
G1 Z-0.06299 F50.00000
G1 Z0.08000 F50.00000

G0 X-4.55000 Y-1.46811
G1 Z-0.06299 F50.00000
G1 Z0.08000 F50.00000

G0 X-4.50000 Y-1.78937
G1 Z-0.06299 F50.00000
G1 Z0.08000 F50.00000

G0 X-4.50000 Y-1.86811
G1 Z-0.06299 F50.00000
G1 Z0.08000 F50.00000

G0 X-4.50000 Y-1.94685
G1 Z-0.06299 F50.00000
G1 Z0.08000 F50.00000

G0 X-3.24604 Y-1.16811
G1 Z0.00700 F50.00000
G1 F100.00000
G2 X-3.24604 Y-1.16811 Z-0.00000 I-0.00396 J0.00000
G2 X-3.24604 Y-1.16811 Z-0.00700 I-0.00396 J0.00000
G2 X-3.24604 Y-1.16811 Z-0.01400 I-0.00396 J0.00000
G2 X-3.24604 Y-1.16811 Z-0.02100 I-0.00396 J0.00000
G2 X-3.24604 Y-1.16811 Z-0.02800 I-0.00396 J0.00000
G2 X-3.24604 Y-1.16811 Z-0.03500 I-0.00396 J0.00000
G2 X-3.24604 Y-1.16811 Z-0.04199 I-0.00396 J0.00000
G2 X-3.24604 Y-1.16811 Z-0.04899 I-0.00396 J0.00000
G2 X-3.24604 Y-1.16811 Z-0.05599 I-0.00396 J0.00000
G2 X-3.24604 Y-1.16811 Z-0.06299 I-0.00396 J0.00000
G2 X-3.24604 Y-1.16811 I-0.00396 J0.00000
G1 Z0.08000 F50.00000

G0 X-3.24604 Y-1.56811
G1 Z0.00700 F50.00000
G1 F100.00000
G2 X-3.24604 Y-1.56811 Z-0.00000 I-0.00396 J0.00000
G2 X-3.24604 Y-1.56811 Z-0.00700 I-0.00396 J0.00000
G2 X-3.24604 Y-1.56811 Z-0.01400 I-0.00396 J0.00000
G2 X-3.24604 Y-1.56811 Z-0.02100 I-0.00396 J0.00000
G2 X-3.24604 Y-1.56811 Z-0.02800 I-0.00396 J0.00000
G2 X-3.24604 Y-1.56811 Z-0.03500 I-0.00396 J0.00000
G2 X-3.24604 Y-1.56811 Z-0.04199 I-0.00396 J0.00000
G2 X-3.24604 Y-1.56811 Z-0.04899 I-0.00396 J0.00000
G2 X-3.24604 Y-1.56811 Z-0.05599 I-0.00396 J0.00000
G2 X-3.24604 Y-1.56811 Z-0.06299 I-0.00396 J0.00000
G2 X-3.24604 Y-1.56811 I-0.00396 J0.00000
G1 Z0.08000 F50.00000

G0 X-3.64604 Y-1.16811
G1 Z0.00700 F50.00000
G1 F100.00000
G2 X-3.64604 Y-1.16811 Z-0.00000 I-0.00396 J0.00000
G2 X-3.64604 Y-1.16811 Z-0.00700 I-0.00396 J0.00000
G2 X-3.64604 Y-1.16811 Z-0.01400 I-0.00396 J0.00000
G2 X-3.64604 Y-1.16811 Z-0.02100 I-0.00396 J0.00000
G2 X-3.64604 Y-1.16811 Z-0.02800 I-0.00396 J0.00000
G2 X-3.64604 Y-1.16811 Z-0.03500 I-0.00396 J0.00000
G2 X-3.64604 Y-1.16811 Z-0.04199 I-0.00396 J0.00000
G2 X-3.64604 Y-1.16811 Z-0.04899 I-0.00396 J0.00000
G2 X-3.64604 Y-1.16811 Z-0.05599 I-0.00396 J0.00000
G2 X-3.64604 Y-1.16811 Z-0.06299 I-0.00396 J0.00000
G2 X-3.64604 Y-1.16811 I-0.00396 J0.00000
G1 Z0.08000 F50.00000

G0 X-3.81104 Y-1.28346
G1 Z0.00700 F50.00000
G1 F100.00000
G2 X-3.81896 Y-1.28346 Z0.00652 I-0.00396 J0.00000
G1 X-3.81896 Y-1.20476 Z0.00350
G2 X-3.81104 Y-1.20476 Z0.00302 I0.00396 J0.00000
G1 X-3.81104 Y-1.28346 Z-0.00000
G2 X-3.81896 Y-1.28346 Z-0.00048 I-0.00396 J0.00000
G1 X-3.81896 Y-1.20476 Z-0.00350
G2 X-3.81104 Y-1.20476 Z-0.00398 I0.00396 J0.00000
G1 X-3.81104 Y-1.28346 Z-0.00700
G2 X-3.81896 Y-1.28346 Z-0.00748 I-0.00396 J0.00000
G1 X-3.81896 Y-1.20476 Z-0.01050
G2 X-3.81104 Y-1.20476 Z-0.01098 I0.00396 J0.00000
G1 X-3.81104 Y-1.28346 Z-0.01400
G2 X-3.81896 Y-1.28346 Z-0.01448 I-0.00396 J0.00000
G1 X-3.81896 Y-1.20476 Z-0.01750
G2 X-3.81104 Y-1.20476 Z-0.01798 I0.00396 J0.00000
G1 X-3.81104 Y-1.28346 Z-0.02100
G2 X-3.81896 Y-1.28346 Z-0.02147 I-0.00396 J0.00000
G1 X-3.81896 Y-1.20476 Z-0.02450
G2 X-3.81104 Y-1.20476 Z-0.02497 I0.00396 J0.00000
G1 X-3.81104 Y-1.28346 Z-0.02800
G2 X-3.81896 Y-1.28346 Z-0.02847 I-0.00396 J0.00000
G1 X-3.81896 Y-1.20476 Z-0.03150
G2 X-3.81104 Y-1.20476 Z-0.03197 I0.00396 J0.00000
G1 X-3.81104 Y-1.28346 Z-0.03500
G2 X-3.81896 Y-1.28346 Z-0.03547 I-0.00396 J0.00000
G1 X-3.81896 Y-1.20476 Z-0.03850
G2 X-3.81104 Y-1.20476 Z-0.03897 I0.00396 J0.00000
G1 X-3.81104 Y-1.28346 Z-0.04199
G2 X-3.81896 Y-1.28346 Z-0.04247 I-0.00396 J0.00000
G1 X-3.81896 Y-1.20476 Z-0.04549
G2 X-3.81104 Y-1.20476 Z-0.04597 I0.00396 J0.00000
G1 X-3.81104 Y-1.28346 Z-0.04899
G2 X-3.81896 Y-1.28346 Z-0.04947 I-0.00396 J0.00000
G1 X-3.81896 Y-1.20476 Z-0.05249
G2 X-3.81104 Y-1.20476 Z-0.05297 I0.00396 J0.00000
G1 X-3.81104 Y-1.28346 Z-0.05599
G2 X-3.81896 Y-1.28346 Z-0.05647 I-0.00396 J0.00000
G1 X-3.81896 Y-1.20476 Z-0.05949
G2 X-3.81104 Y-1.20476 Z-0.05997 I0.00396 J0.00000
G1 X-3.81104 Y-1.28346 Z-0.06299
G2 X-3.81896 Y-1.28346 I-0.00396 J0.00000
G1 X-3.81896 Y-1.20476
G2 X-3.81104 Y-1.20476 I0.00396 J0.00000
G1 X-3.81104 Y-1.28346
G1 Z0.08000 F50.00000

G0 X-3.96067 Y-1.12207
G1 Z0.00700 F50.00000
G1 F100.00000
G2 X-3.96067 Y-1.12998 Z0.00652 I0.00000 J-0.00396
G1 X-4.03933 Y-1.12998 Z0.00350
G2 X-4.03933 Y-1.12207 Z0.00302 I0.00000 J0.00396
G1 X-3.96067 Y-1.12207 Z-0.00000
G2 X-3.96067 Y-1.12998 Z-0.00048 I0.00000 J-0.00396
G1 X-4.03933 Y-1.12998 Z-0.00350
G2 X-4.03933 Y-1.12207 Z-0.00398 I0.00000 J0.00396
G1 X-3.96067 Y-1.12207 Z-0.00700
G2 X-3.96067 Y-1.12998 Z-0.00748 I0.00000 J-0.00396
G1 X-4.03933 Y-1.12998 Z-0.01050
G2 X-4.03933 Y-1.12207 Z-0.01098 I0.00000 J0.00396
G1 X-3.96067 Y-1.12207 Z-0.01400
G2 X-3.96067 Y-1.12998 Z-0.01448 I0.00000 J-0.00396
G1 X-4.03933 Y-1.12998 Z-0.01750
G2 X-4.03933 Y-1.12207 Z-0.01798 I0.00000 J0.00396
G1 X-3.96067 Y-1.12207 Z-0.02100
G2 X-3.96067 Y-1.12998 Z-0.02147 I0.00000 J-0.00396
G1 X-4.03933 Y-1.12998 Z-0.02450
G2 X-4.03933 Y-1.12207 Z-0.02497 I0.00000 J0.00396
G1 X-3.96067 Y-1.12207 Z-0.02800
G2 X-3.96067 Y-1.12998 Z-0.02847 I0.00000 J-0.00396
G1 X-4.03933 Y-1.12998 Z-0.03150
G2 X-4.03933 Y-1.12207 Z-0.03197 I0.00000 J0.00396
G1 X-3.96067 Y-1.12207 Z-0.03500
G2 X-3.96067 Y-1.12998 Z-0.03547 I0.00000 J-0.00396
G1 X-4.03933 Y-1.12998 Z-0.03850
G2 X-4.03933 Y-1.12207 Z-0.03897 I0.00000 J0.00396
G1 X-3.96067 Y-1.12207 Z-0.04199
G2 X-3.96067 Y-1.12998 Z-0.04247 I0.00000 J-0.00396
G1 X-4.03933 Y-1.12998 Z-0.04549
G2 X-4.03933 Y-1.12207 Z-0.04597 I0.00000 J0.00396
G1 X-3.96067 Y-1.12207 Z-0.04899
G2 X-3.96067 Y-1.12998 Z-0.04947 I0.00000 J-0.00396
G1 X-4.03933 Y-1.12998 Z-0.05249
G2 X-4.03933 Y-1.12207 Z-0.05297 I0.00000 J0.00396
G1 X-3.96067 Y-1.12207 Z-0.05599
G2 X-3.96067 Y-1.12998 Z-0.05647 I0.00000 J-0.00396
G1 X-4.03933 Y-1.12998 Z-0.05949
G2 X-4.03933 Y-1.12207 Z-0.05997 I0.00000 J0.00396
G1 X-3.96067 Y-1.12207 Z-0.06299
G2 X-3.96067 Y-1.12998 I0.00000 J-0.00396
G1 X-4.03933 Y-1.12998
G2 X-4.03933 Y-1.12207 I0.00000 J0.00396
G1 X-3.96067 Y-1.12207
G1 Z0.08000 F50.00000

G0 X-4.03933 Y-1.36616
G1 Z0.00700 F50.00000
G1 F100.00000
G2 X-4.03933 Y-1.35825 Z0.00652 I0.00000 J0.00396
G1 X-3.96067 Y-1.35825 Z0.00350
G2 X-3.96067 Y-1.36616 Z0.00302 I0.00000 J-0.00396
G1 X-4.03933 Y-1.36616 Z-0.00000
G2 X-4.03933 Y-1.35825 Z-0.00048 I0.00000 J0.00396
G1 X-3.96067 Y-1.35825 Z-0.00350
G2 X-3.96067 Y-1.36616 Z-0.00398 I0.00000 J-0.00396
G1 X-4.03933 Y-1.36616 Z-0.00700
G2 X-4.03933 Y-1.35825 Z-0.00748 I0.00000 J0.00396
G1 X-3.96067 Y-1.35825 Z-0.01050
G2 X-3.96067 Y-1.36616 Z-0.01098 I0.00000 J-0.00396
G1 X-4.03933 Y-1.36616 Z-0.01400
G2 X-4.03933 Y-1.35825 Z-0.01448 I0.00000 J0.00396
G1 X-3.96067 Y-1.35825 Z-0.01750
G2 X-3.96067 Y-1.36616 Z-0.01798 I0.00000 J-0.00396
G1 X-4.03933 Y-1.36616 Z-0.02100
G2 X-4.03933 Y-1.35825 Z-0.02147 I0.00000 J0.00396
G1 X-3.96067 Y-1.35825 Z-0.02450
G2 X-3.96067 Y-1.36616 Z-0.02497 I0.00000 J-0.00396
G1 X-4.03933 Y-1.36616 Z-0.02800
G2 X-4.03933 Y-1.35825 Z-0.02847 I0.00000 J0.00396
G1 X-3.96067 Y-1.35825 Z-0.03150
G2 X-3.96067 Y-1.36616 Z-0.03197 I0.00000 J-0.00396
G1 X-4.03933 Y-1.36616 Z-0.03500
G2 X-4.03933 Y-1.35825 Z-0.03547 I0.00000 J0.00396
G1 X-3.96067 Y-1.35825 Z-0.03850
G2 X-3.96067 Y-1.36616 Z-0.03897 I0.00000 J-0.00396
G1 X-4.03933 Y-1.36616 Z-0.04199
G2 X-4.03933 Y-1.35825 Z-0.04247 I0.00000 J0.00396
G1 X-3.96067 Y-1.35825 Z-0.04549
G2 X-3.96067 Y-1.36616 Z-0.04597 I0.00000 J-0.00396
G1 X-4.03933 Y-1.36616 Z-0.04899
G2 X-4.03933 Y-1.35825 Z-0.04947 I0.00000 J0.00396
G1 X-3.96067 Y-1.35825 Z-0.05249
G2 X-3.96067 Y-1.36616 Z-0.05297 I0.00000 J-0.00396
G1 X-4.03933 Y-1.36616 Z-0.05599
G2 X-4.03933 Y-1.35825 Z-0.05647 I0.00000 J0.00396
G1 X-3.96067 Y-1.35825 Z-0.05949
G2 X-3.96067 Y-1.36616 Z-0.05997 I0.00000 J-0.00396
G1 X-4.03933 Y-1.36616 Z-0.06299
G2 X-4.03933 Y-1.35825 I0.00000 J0.00396
G1 X-3.96067 Y-1.35825
G2 X-3.96067 Y-1.36616 I0.00000 J-0.00396
G1 X-4.03933 Y-1.36616
G1 Z0.08000 F50.00000

G0 X-3.64604 Y-1.56811
G1 Z0.00700 F50.00000
G1 F100.00000
G2 X-3.64604 Y-1.56811 Z-0.00000 I-0.00396 J0.00000
G2 X-3.64604 Y-1.56811 Z-0.00700 I-0.00396 J0.00000
G2 X-3.64604 Y-1.56811 Z-0.01400 I-0.00396 J0.00000
G2 X-3.64604 Y-1.56811 Z-0.02100 I-0.00396 J0.00000
G2 X-3.64604 Y-1.56811 Z-0.02800 I-0.00396 J0.00000
G2 X-3.64604 Y-1.56811 Z-0.03500 I-0.00396 J0.00000
G2 X-3.64604 Y-1.56811 Z-0.04199 I-0.00396 J0.00000
G2 X-3.64604 Y-1.56811 Z-0.04899 I-0.00396 J0.00000
G2 X-3.64604 Y-1.56811 Z-0.05599 I-0.00396 J0.00000
G2 X-3.64604 Y-1.56811 Z-0.06299 I-0.00396 J0.00000
G2 X-3.64604 Y-1.56811 I-0.00396 J0.00000
G1 Z0.08000 F50.00000

G0 X-3.74604 Y-1.91811
G1 Z0.00700 F50.00000
G1 F100.00000
G2 X-3.74604 Y-1.91811 Z-0.00000 I-0.00396 J0.00000
G2 X-3.74604 Y-1.91811 Z-0.00700 I-0.00396 J0.00000
G2 X-3.74604 Y-1.91811 Z-0.01400 I-0.00396 J0.00000
G2 X-3.74604 Y-1.91811 Z-0.02100 I-0.00396 J0.00000
G2 X-3.74604 Y-1.91811 Z-0.02800 I-0.00396 J0.00000
G2 X-3.74604 Y-1.91811 Z-0.03500 I-0.00396 J0.00000
G2 X-3.74604 Y-1.91811 Z-0.04199 I-0.00396 J0.00000
G2 X-3.74604 Y-1.91811 Z-0.04899 I-0.00396 J0.00000
G2 X-3.74604 Y-1.91811 Z-0.05599 I-0.00396 J0.00000
G2 X-3.74604 Y-1.91811 Z-0.06299 I-0.00396 J0.00000
G2 X-3.74604 Y-1.91811 I-0.00396 J0.00000
G1 Z0.08000 F50.00000

G0 X-3.84604 Y-1.91811
G1 Z0.00700 F50.00000
G1 F100.00000
G2 X-3.84604 Y-1.91811 Z-0.00000 I-0.00396 J0.00000
G2 X-3.84604 Y-1.91811 Z-0.00700 I-0.00396 J0.00000
G2 X-3.84604 Y-1.91811 Z-0.01400 I-0.00396 J0.00000
G2 X-3.84604 Y-1.91811 Z-0.02100 I-0.00396 J0.00000
G2 X-3.84604 Y-1.91811 Z-0.02800 I-0.00396 J0.00000
G2 X-3.84604 Y-1.91811 Z-0.03500 I-0.00396 J0.00000
G2 X-3.84604 Y-1.91811 Z-0.04199 I-0.00396 J0.00000
G2 X-3.84604 Y-1.91811 Z-0.04899 I-0.00396 J0.00000
G2 X-3.84604 Y-1.91811 Z-0.05599 I-0.00396 J0.00000
G2 X-3.84604 Y-1.91811 Z-0.06299 I-0.00396 J0.00000
G2 X-3.84604 Y-1.91811 I-0.00396 J0.00000
G1 Z0.08000 F50.00000

G0 X-4.04604 Y-1.91811
G1 Z0.00700 F50.00000
G1 F100.00000
G2 X-4.04604 Y-1.91811 Z-0.00000 I-0.00396 J0.00000
G2 X-4.04604 Y-1.91811 Z-0.00700 I-0.00396 J0.00000
G2 X-4.04604 Y-1.91811 Z-0.01400 I-0.00396 J0.00000
G2 X-4.04604 Y-1.91811 Z-0.02100 I-0.00396 J0.00000
G2 X-4.04604 Y-1.91811 Z-0.02800 I-0.00396 J0.00000
G2 X-4.04604 Y-1.91811 Z-0.03500 I-0.00396 J0.00000
G2 X-4.04604 Y-1.91811 Z-0.04199 I-0.00396 J0.00000
G2 X-4.04604 Y-1.91811 Z-0.04899 I-0.00396 J0.00000
G2 X-4.04604 Y-1.91811 Z-0.05599 I-0.00396 J0.00000
G2 X-4.04604 Y-1.91811 Z-0.06299 I-0.00396 J0.00000
G2 X-4.04604 Y-1.91811 I-0.00396 J0.00000
G1 Z0.08000 F50.00000

G0 X-4.14604 Y-1.91811
G1 Z0.00700 F50.00000
G1 F100.00000
G2 X-4.14604 Y-1.91811 Z-0.00000 I-0.00396 J0.00000
G2 X-4.14604 Y-1.91811 Z-0.00700 I-0.00396 J0.00000
G2 X-4.14604 Y-1.91811 Z-0.01400 I-0.00396 J0.00000
G2 X-4.14604 Y-1.91811 Z-0.02100 I-0.00396 J0.00000
G2 X-4.14604 Y-1.91811 Z-0.02800 I-0.00396 J0.00000
G2 X-4.14604 Y-1.91811 Z-0.03500 I-0.00396 J0.00000
G2 X-4.14604 Y-1.91811 Z-0.04199 I-0.00396 J0.00000
G2 X-4.14604 Y-1.91811 Z-0.04899 I-0.00396 J0.00000
G2 X-4.14604 Y-1.91811 Z-0.05599 I-0.00396 J0.00000
G2 X-4.14604 Y-1.91811 Z-0.06299 I-0.00396 J0.00000
G2 X-4.14604 Y-1.91811 I-0.00396 J0.00000
G1 Z0.08000 F50.00000

G0 X-4.29604 Y-1.56811
G1 Z0.00700 F50.00000
G1 F100.00000
G2 X-4.29604 Y-1.56811 Z-0.00000 I-0.00396 J0.00000
G2 X-4.29604 Y-1.56811 Z-0.00700 I-0.00396 J0.00000
G2 X-4.29604 Y-1.56811 Z-0.01400 I-0.00396 J0.00000
G2 X-4.29604 Y-1.56811 Z-0.02100 I-0.00396 J0.00000
G2 X-4.29604 Y-1.56811 Z-0.02800 I-0.00396 J0.00000
G2 X-4.29604 Y-1.56811 Z-0.03500 I-0.00396 J0.00000
G2 X-4.29604 Y-1.56811 Z-0.04199 I-0.00396 J0.00000
G2 X-4.29604 Y-1.56811 Z-0.04899 I-0.00396 J0.00000
G2 X-4.29604 Y-1.56811 Z-0.05599 I-0.00396 J0.00000
G2 X-4.29604 Y-1.56811 Z-0.06299 I-0.00396 J0.00000
G2 X-4.29604 Y-1.56811 I-0.00396 J0.00000
G1 Z0.08000 F50.00000

G0 X-4.69604 Y-1.56811
G1 Z0.00700 F50.00000
G1 F100.00000
G2 X-4.69604 Y-1.56811 Z-0.00000 I-0.00396 J0.00000
G2 X-4.69604 Y-1.56811 Z-0.00700 I-0.00396 J0.00000
G2 X-4.69604 Y-1.56811 Z-0.01400 I-0.00396 J0.00000
G2 X-4.69604 Y-1.56811 Z-0.02100 I-0.00396 J0.00000
G2 X-4.69604 Y-1.56811 Z-0.02800 I-0.00396 J0.00000
G2 X-4.69604 Y-1.56811 Z-0.03500 I-0.00396 J0.00000
G2 X-4.69604 Y-1.56811 Z-0.04199 I-0.00396 J0.00000
G2 X-4.69604 Y-1.56811 Z-0.04899 I-0.00396 J0.00000
G2 X-4.69604 Y-1.56811 Z-0.05599 I-0.00396 J0.00000
G2 X-4.69604 Y-1.56811 Z-0.06299 I-0.00396 J0.00000
G2 X-4.69604 Y-1.56811 I-0.00396 J0.00000
G1 Z0.08000 F50.00000

G0 X-4.29604 Y-1.16811
G1 Z0.00700 F50.00000
G1 F100.00000
G2 X-4.29604 Y-1.16811 Z-0.00000 I-0.00396 J0.00000
G2 X-4.29604 Y-1.16811 Z-0.00700 I-0.00396 J0.00000
G2 X-4.29604 Y-1.16811 Z-0.01400 I-0.00396 J0.00000
G2 X-4.29604 Y-1.16811 Z-0.02100 I-0.00396 J0.00000
G2 X-4.29604 Y-1.16811 Z-0.02800 I-0.00396 J0.00000
G2 X-4.29604 Y-1.16811 Z-0.03500 I-0.00396 J0.00000
G2 X-4.29604 Y-1.16811 Z-0.04199 I-0.00396 J0.00000
G2 X-4.29604 Y-1.16811 Z-0.04899 I-0.00396 J0.00000
G2 X-4.29604 Y-1.16811 Z-0.05599 I-0.00396 J0.00000
G2 X-4.29604 Y-1.16811 Z-0.06299 I-0.00396 J0.00000
G2 X-4.29604 Y-1.16811 I-0.00396 J0.00000
G1 Z0.08000 F50.00000

G0 X-4.69604 Y-1.16811
G1 Z0.00700 F50.00000
G1 F100.00000
G2 X-4.69604 Y-1.16811 Z-0.00000 I-0.00396 J0.00000
G2 X-4.69604 Y-1.16811 Z-0.00700 I-0.00396 J0.00000
G2 X-4.69604 Y-1.16811 Z-0.01400 I-0.00396 J0.00000
G2 X-4.69604 Y-1.16811 Z-0.02100 I-0.00396 J0.00000
G2 X-4.69604 Y-1.16811 Z-0.02800 I-0.00396 J0.00000
G2 X-4.69604 Y-1.16811 Z-0.03500 I-0.00396 J0.00000
G2 X-4.69604 Y-1.16811 Z-0.04199 I-0.00396 J0.00000
G2 X-4.69604 Y-1.16811 Z-0.04899 I-0.00396 J0.00000
G2 X-4.69604 Y-1.16811 Z-0.05599 I-0.00396 J0.00000
G2 X-4.69604 Y-1.16811 Z-0.06299 I-0.00396 J0.00000
G2 X-4.69604 Y-1.16811 I-0.00396 J0.00000
G1 Z0.08000 F50.00000

( Piece #5, position [1;1] )

G0 X-5.38189 Y-1.46811
G1 Z-0.06299 F50.00000
G1 Z0.08000 F50.00000

G0 X-5.48031 Y-1.46811
G1 Z-0.06299 F50.00000
G1 Z0.08000 F50.00000

G0 X-5.38189 Y-1.78937
G1 Z-0.06299 F50.00000
G1 Z0.08000 F50.00000

G0 X-5.38189 Y-1.86811
G1 Z-0.06299 F50.00000
G1 Z0.08000 F50.00000

G0 X-5.38189 Y-1.94685
G1 Z-0.06299 F50.00000
G1 Z0.08000 F50.00000

G0 X-6.43346 Y-1.46811
G1 Z-0.06299 F50.00000
G1 Z0.08000 F50.00000

G0 X-6.53189 Y-1.46811
G1 Z-0.06299 F50.00000
G1 Z0.08000 F50.00000

G0 X-6.48189 Y-1.78937
G1 Z-0.06299 F50.00000
G1 Z0.08000 F50.00000

G0 X-6.48189 Y-1.86811
G1 Z-0.06299 F50.00000
G1 Z0.08000 F50.00000

G0 X-6.48189 Y-1.94685
G1 Z-0.06299 F50.00000
G1 Z0.08000 F50.00000

G0 X-5.22793 Y-1.16811
G1 Z0.00700 F50.00000
G1 F100.00000
G2 X-5.22793 Y-1.16811 Z-0.00000 I-0.00396 J0.00000
G2 X-5.22793 Y-1.16811 Z-0.00700 I-0.00396 J0.00000
G2 X-5.22793 Y-1.16811 Z-0.01400 I-0.00396 J0.00000
G2 X-5.22793 Y-1.16811 Z-0.02100 I-0.00396 J0.00000
G2 X-5.22793 Y-1.16811 Z-0.02800 I-0.00396 J0.00000
G2 X-5.22793 Y-1.16811 Z-0.03500 I-0.00396 J0.00000
G2 X-5.22793 Y-1.16811 Z-0.04199 I-0.00396 J0.00000
G2 X-5.22793 Y-1.16811 Z-0.04899 I-0.00396 J0.00000
G2 X-5.22793 Y-1.16811 Z-0.05599 I-0.00396 J0.00000
G2 X-5.22793 Y-1.16811 Z-0.06299 I-0.00396 J0.00000
G2 X-5.22793 Y-1.16811 I-0.00396 J0.00000
G1 Z0.08000 F50.00000

G0 X-5.22793 Y-1.56811
G1 Z0.00700 F50.00000
G1 F100.00000
G2 X-5.22793 Y-1.56811 Z-0.00000 I-0.00396 J0.00000
G2 X-5.22793 Y-1.56811 Z-0.00700 I-0.00396 J0.00000
G2 X-5.22793 Y-1.56811 Z-0.01400 I-0.00396 J0.00000
G2 X-5.22793 Y-1.56811 Z-0.02100 I-0.00396 J0.00000
G2 X-5.22793 Y-1.56811 Z-0.02800 I-0.00396 J0.00000
G2 X-5.22793 Y-1.56811 Z-0.03500 I-0.00396 J0.00000
G2 X-5.22793 Y-1.56811 Z-0.04199 I-0.00396 J0.00000
G2 X-5.22793 Y-1.56811 Z-0.04899 I-0.00396 J0.00000
G2 X-5.22793 Y-1.56811 Z-0.05599 I-0.00396 J0.00000
G2 X-5.22793 Y-1.56811 Z-0.06299 I-0.00396 J0.00000
G2 X-5.22793 Y-1.56811 I-0.00396 J0.00000
G1 Z0.08000 F50.00000

G0 X-5.62793 Y-1.16811
G1 Z0.00700 F50.00000
G1 F100.00000
G2 X-5.62793 Y-1.16811 Z-0.00000 I-0.00396 J0.00000
G2 X-5.62793 Y-1.16811 Z-0.00700 I-0.00396 J0.00000
G2 X-5.62793 Y-1.16811 Z-0.01400 I-0.00396 J0.00000
G2 X-5.62793 Y-1.16811 Z-0.02100 I-0.00396 J0.00000
G2 X-5.62793 Y-1.16811 Z-0.02800 I-0.00396 J0.00000
G2 X-5.62793 Y-1.16811 Z-0.03500 I-0.00396 J0.00000
G2 X-5.62793 Y-1.16811 Z-0.04199 I-0.00396 J0.00000
G2 X-5.62793 Y-1.16811 Z-0.04899 I-0.00396 J0.00000
G2 X-5.62793 Y-1.16811 Z-0.05599 I-0.00396 J0.00000
G2 X-5.62793 Y-1.16811 Z-0.06299 I-0.00396 J0.00000
G2 X-5.62793 Y-1.16811 I-0.00396 J0.00000
G1 Z0.08000 F50.00000

G0 X-5.79293 Y-1.28346
G1 Z0.00700 F50.00000
G1 F100.00000
G2 X-5.80085 Y-1.28346 Z0.00652 I-0.00396 J0.00000
G1 X-5.80085 Y-1.20476 Z0.00350
G2 X-5.79293 Y-1.20476 Z0.00302 I0.00396 J0.00000
G1 X-5.79293 Y-1.28346 Z-0.00000
G2 X-5.80085 Y-1.28346 Z-0.00048 I-0.00396 J0.00000
G1 X-5.80085 Y-1.20476 Z-0.00350
G2 X-5.79293 Y-1.20476 Z-0.00398 I0.00396 J0.00000
G1 X-5.79293 Y-1.28346 Z-0.00700
G2 X-5.80085 Y-1.28346 Z-0.00748 I-0.00396 J0.00000
G1 X-5.80085 Y-1.20476 Z-0.01050
G2 X-5.79293 Y-1.20476 Z-0.01098 I0.00396 J0.00000
G1 X-5.79293 Y-1.28346 Z-0.01400
G2 X-5.80085 Y-1.28346 Z-0.01448 I-0.00396 J0.00000
G1 X-5.80085 Y-1.20476 Z-0.01750
G2 X-5.79293 Y-1.20476 Z-0.01798 I0.00396 J0.00000
G1 X-5.79293 Y-1.28346 Z-0.02100
G2 X-5.80085 Y-1.28346 Z-0.02147 I-0.00396 J0.00000
G1 X-5.80085 Y-1.20476 Z-0.02450
G2 X-5.79293 Y-1.20476 Z-0.02497 I0.00396 J0.00000
G1 X-5.79293 Y-1.28346 Z-0.02800
G2 X-5.80085 Y-1.28346 Z-0.02847 I-0.00396 J0.00000
G1 X-5.80085 Y-1.20476 Z-0.03150
G2 X-5.79293 Y-1.20476 Z-0.03197 I0.00396 J0.00000
G1 X-5.79293 Y-1.28346 Z-0.03500
G2 X-5.80085 Y-1.28346 Z-0.03547 I-0.00396 J0.00000
G1 X-5.80085 Y-1.20476 Z-0.03850
G2 X-5.79293 Y-1.20476 Z-0.03897 I0.00396 J0.00000
G1 X-5.79293 Y-1.28346 Z-0.04199
G2 X-5.80085 Y-1.28346 Z-0.04247 I-0.00396 J0.00000
G1 X-5.80085 Y-1.20476 Z-0.04549
G2 X-5.79293 Y-1.20476 Z-0.04597 I0.00396 J0.00000
G1 X-5.79293 Y-1.28346 Z-0.04899
G2 X-5.80085 Y-1.28346 Z-0.04947 I-0.00396 J0.00000
G1 X-5.80085 Y-1.20476 Z-0.05249
G2 X-5.79293 Y-1.20476 Z-0.05297 I0.00396 J0.00000
G1 X-5.79293 Y-1.28346 Z-0.05599
G2 X-5.80085 Y-1.28346 Z-0.05647 I-0.00396 J0.00000
G1 X-5.80085 Y-1.20476 Z-0.05949
G2 X-5.79293 Y-1.20476 Z-0.05997 I0.00396 J0.00000
G1 X-5.79293 Y-1.28346 Z-0.06299
G2 X-5.80085 Y-1.28346 I-0.00396 J0.00000
G1 X-5.80085 Y-1.20476
G2 X-5.79293 Y-1.20476 I0.00396 J0.00000
G1 X-5.79293 Y-1.28346
G1 Z0.08000 F50.00000

G0 X-5.94256 Y-1.12207
G1 Z0.00700 F50.00000
G1 F100.00000
G2 X-5.94256 Y-1.12998 Z0.00652 I0.00000 J-0.00396
G1 X-6.02122 Y-1.12998 Z0.00350
G2 X-6.02122 Y-1.12207 Z0.00302 I0.00000 J0.00396
G1 X-5.94256 Y-1.12207 Z-0.00000
G2 X-5.94256 Y-1.12998 Z-0.00048 I0.00000 J-0.00396
G1 X-6.02122 Y-1.12998 Z-0.00350
G2 X-6.02122 Y-1.12207 Z-0.00398 I0.00000 J0.00396
G1 X-5.94256 Y-1.12207 Z-0.00700
G2 X-5.94256 Y-1.12998 Z-0.00748 I0.00000 J-0.00396
G1 X-6.02122 Y-1.12998 Z-0.01050
G2 X-6.02122 Y-1.12207 Z-0.01098 I0.00000 J0.00396
G1 X-5.94256 Y-1.12207 Z-0.01400
G2 X-5.94256 Y-1.12998 Z-0.01448 I0.00000 J-0.00396
G1 X-6.02122 Y-1.12998 Z-0.01750
G2 X-6.02122 Y-1.12207 Z-0.01798 I0.00000 J0.00396
G1 X-5.94256 Y-1.12207 Z-0.02100
G2 X-5.94256 Y-1.12998 Z-0.02147 I0.00000 J-0.00396
G1 X-6.02122 Y-1.12998 Z-0.02450
G2 X-6.02122 Y-1.12207 Z-0.02497 I0.00000 J0.00396
G1 X-5.94256 Y-1.12207 Z-0.02800
G2 X-5.94256 Y-1.12998 Z-0.02847 I0.00000 J-0.00396
G1 X-6.02122 Y-1.12998 Z-0.03150
G2 X-6.02122 Y-1.12207 Z-0.03197 I0.00000 J0.00396
G1 X-5.94256 Y-1.12207 Z-0.03500
G2 X-5.94256 Y-1.12998 Z-0.03547 I0.00000 J-0.00396
G1 X-6.02122 Y-1.12998 Z-0.03850
G2 X-6.02122 Y-1.12207 Z-0.03897 I0.00000 J0.00396
G1 X-5.94256 Y-1.12207 Z-0.04199
G2 X-5.94256 Y-1.12998 Z-0.04247 I0.00000 J-0.00396
G1 X-6.02122 Y-1.12998 Z-0.04549
G2 X-6.02122 Y-1.12207 Z-0.04597 I0.00000 J0.00396
G1 X-5.94256 Y-1.12207 Z-0.04899
G2 X-5.94256 Y-1.12998 Z-0.04947 I0.00000 J-0.00396
G1 X-6.02122 Y-1.12998 Z-0.05249
G2 X-6.02122 Y-1.12207 Z-0.05297 I0.00000 J0.00396
G1 X-5.94256 Y-1.12207 Z-0.05599
G2 X-5.94256 Y-1.12998 Z-0.05647 I0.00000 J-0.00396
G1 X-6.02122 Y-1.12998 Z-0.05949
G2 X-6.02122 Y-1.12207 Z-0.05997 I0.00000 J0.00396
G1 X-5.94256 Y-1.12207 Z-0.06299
G2 X-5.94256 Y-1.12998 I0.00000 J-0.00396
G1 X-6.02122 Y-1.12998
G2 X-6.02122 Y-1.12207 I0.00000 J0.00396
G1 X-5.94256 Y-1.12207
G1 Z0.08000 F50.00000

G0 X-6.02122 Y-1.36616
G1 Z0.00700 F50.00000
G1 F100.00000
G2 X-6.02122 Y-1.35825 Z0.00652 I0.00000 J0.00396
G1 X-5.94256 Y-1.35825 Z0.00350
G2 X-5.94256 Y-1.36616 Z0.00302 I0.00000 J-0.00396
G1 X-6.02122 Y-1.36616 Z-0.00000
G2 X-6.02122 Y-1.35825 Z-0.00048 I0.00000 J0.00396
G1 X-5.94256 Y-1.35825 Z-0.00350
G2 X-5.94256 Y-1.36616 Z-0.00398 I0.00000 J-0.00396
G1 X-6.02122 Y-1.36616 Z-0.00700
G2 X-6.02122 Y-1.35825 Z-0.00748 I0.00000 J0.00396
G1 X-5.94256 Y-1.35825 Z-0.01050
G2 X-5.94256 Y-1.36616 Z-0.01098 I0.00000 J-0.00396
G1 X-6.02122 Y-1.36616 Z-0.01400
G2 X-6.02122 Y-1.35825 Z-0.01448 I0.00000 J0.00396
G1 X-5.94256 Y-1.35825 Z-0.01750
G2 X-5.94256 Y-1.36616 Z-0.01798 I0.00000 J-0.00396
G1 X-6.02122 Y-1.36616 Z-0.02100
G2 X-6.02122 Y-1.35825 Z-0.02147 I0.00000 J0.00396
G1 X-5.94256 Y-1.35825 Z-0.02450
G2 X-5.94256 Y-1.36616 Z-0.02497 I0.00000 J-0.00396
G1 X-6.02122 Y-1.36616 Z-0.02800
G2 X-6.02122 Y-1.35825 Z-0.02847 I0.00000 J0.00396
G1 X-5.94256 Y-1.35825 Z-0.03150
G2 X-5.94256 Y-1.36616 Z-0.03197 I0.00000 J-0.00396
G1 X-6.02122 Y-1.36616 Z-0.03500
G2 X-6.02122 Y-1.35825 Z-0.03547 I0.00000 J0.00396
G1 X-5.94256 Y-1.35825 Z-0.03850
G2 X-5.94256 Y-1.36616 Z-0.03897 I0.00000 J-0.00396
G1 X-6.02122 Y-1.36616 Z-0.04199
G2 X-6.02122 Y-1.35825 Z-0.04247 I0.00000 J0.00396
G1 X-5.94256 Y-1.35825 Z-0.04549
G2 X-5.94256 Y-1.36616 Z-0.04597 I0.00000 J-0.00396
G1 X-6.02122 Y-1.36616 Z-0.04899
G2 X-6.02122 Y-1.35825 Z-0.04947 I0.00000 J0.00396
G1 X-5.94256 Y-1.35825 Z-0.05249
G2 X-5.94256 Y-1.36616 Z-0.05297 I0.00000 J-0.00396
G1 X-6.02122 Y-1.36616 Z-0.05599
G2 X-6.02122 Y-1.35825 Z-0.05647 I0.00000 J0.00396
G1 X-5.94256 Y-1.35825 Z-0.05949
G2 X-5.94256 Y-1.36616 Z-0.05997 I0.00000 J-0.00396
G1 X-6.02122 Y-1.36616 Z-0.06299
G2 X-6.02122 Y-1.35825 I0.00000 J0.00396
G1 X-5.94256 Y-1.35825
G2 X-5.94256 Y-1.36616 I0.00000 J-0.00396
G1 X-6.02122 Y-1.36616
G1 Z0.08000 F50.00000

G0 X-5.62793 Y-1.56811
G1 Z0.00700 F50.00000
G1 F100.00000
G2 X-5.62793 Y-1.56811 Z-0.00000 I-0.00396 J0.00000
G2 X-5.62793 Y-1.56811 Z-0.00700 I-0.00396 J0.00000
G2 X-5.62793 Y-1.56811 Z-0.01400 I-0.00396 J0.00000
G2 X-5.62793 Y-1.56811 Z-0.02100 I-0.00396 J0.00000
G2 X-5.62793 Y-1.56811 Z-0.02800 I-0.00396 J0.00000
G2 X-5.62793 Y-1.56811 Z-0.03500 I-0.00396 J0.00000
G2 X-5.62793 Y-1.56811 Z-0.04199 I-0.00396 J0.00000
G2 X-5.62793 Y-1.56811 Z-0.04899 I-0.00396 J0.00000
G2 X-5.62793 Y-1.56811 Z-0.05599 I-0.00396 J0.00000
G2 X-5.62793 Y-1.56811 Z-0.06299 I-0.00396 J0.00000
G2 X-5.62793 Y-1.56811 I-0.00396 J0.00000
G1 Z0.08000 F50.00000

G0 X-5.72793 Y-1.91811
G1 Z0.00700 F50.00000
G1 F100.00000
G2 X-5.72793 Y-1.91811 Z-0.00000 I-0.00396 J0.00000
G2 X-5.72793 Y-1.91811 Z-0.00700 I-0.00396 J0.00000
G2 X-5.72793 Y-1.91811 Z-0.01400 I-0.00396 J0.00000
G2 X-5.72793 Y-1.91811 Z-0.02100 I-0.00396 J0.00000
G2 X-5.72793 Y-1.91811 Z-0.02800 I-0.00396 J0.00000
G2 X-5.72793 Y-1.91811 Z-0.03500 I-0.00396 J0.00000
G2 X-5.72793 Y-1.91811 Z-0.04199 I-0.00396 J0.00000
G2 X-5.72793 Y-1.91811 Z-0.04899 I-0.00396 J0.00000
G2 X-5.72793 Y-1.91811 Z-0.05599 I-0.00396 J0.00000
G2 X-5.72793 Y-1.91811 Z-0.06299 I-0.00396 J0.00000
G2 X-5.72793 Y-1.91811 I-0.00396 J0.00000
G1 Z0.08000 F50.00000

G0 X-5.82793 Y-1.91811
G1 Z0.00700 F50.00000
G1 F100.00000
G2 X-5.82793 Y-1.91811 Z-0.00000 I-0.00396 J0.00000
G2 X-5.82793 Y-1.91811 Z-0.00700 I-0.00396 J0.00000
G2 X-5.82793 Y-1.91811 Z-0.01400 I-0.00396 J0.00000
G2 X-5.82793 Y-1.91811 Z-0.02100 I-0.00396 J0.00000
G2 X-5.82793 Y-1.91811 Z-0.02800 I-0.00396 J0.00000
G2 X-5.82793 Y-1.91811 Z-0.03500 I-0.00396 J0.00000
G2 X-5.82793 Y-1.91811 Z-0.04199 I-0.00396 J0.00000
G2 X-5.82793 Y-1.91811 Z-0.04899 I-0.00396 J0.00000
G2 X-5.82793 Y-1.91811 Z-0.05599 I-0.00396 J0.00000
G2 X-5.82793 Y-1.91811 Z-0.06299 I-0.00396 J0.00000
G2 X-5.82793 Y-1.91811 I-0.00396 J0.00000
G1 Z0.08000 F50.00000

G0 X-6.02793 Y-1.91811
G1 Z0.00700 F50.00000
G1 F100.00000
G2 X-6.02793 Y-1.91811 Z-0.00000 I-0.00396 J0.00000
G2 X-6.02793 Y-1.91811 Z-0.00700 I-0.00396 J0.00000
G2 X-6.02793 Y-1.91811 Z-0.01400 I-0.00396 J0.00000
G2 X-6.02793 Y-1.91811 Z-0.02100 I-0.00396 J0.00000
G2 X-6.02793 Y-1.91811 Z-0.02800 I-0.00396 J0.00000
G2 X-6.02793 Y-1.91811 Z-0.03500 I-0.00396 J0.00000
G2 X-6.02793 Y-1.91811 Z-0.04199 I-0.00396 J0.00000
G2 X-6.02793 Y-1.91811 Z-0.04899 I-0.00396 J0.00000
G2 X-6.02793 Y-1.91811 Z-0.05599 I-0.00396 J0.00000
G2 X-6.02793 Y-1.91811 Z-0.06299 I-0.00396 J0.00000
G2 X-6.02793 Y-1.91811 I-0.00396 J0.00000
G1 Z0.08000 F50.00000

G0 X-6.12793 Y-1.91811
G1 Z0.00700 F50.00000
G1 F100.00000
G2 X-6.12793 Y-1.91811 Z-0.00000 I-0.00396 J0.00000
G2 X-6.12793 Y-1.91811 Z-0.00700 I-0.00396 J0.00000
G2 X-6.12793 Y-1.91811 Z-0.01400 I-0.00396 J0.00000
G2 X-6.12793 Y-1.91811 Z-0.02100 I-0.00396 J0.00000
G2 X-6.12793 Y-1.91811 Z-0.02800 I-0.00396 J0.00000
G2 X-6.12793 Y-1.91811 Z-0.03500 I-0.00396 J0.00000
G2 X-6.12793 Y-1.91811 Z-0.04199 I-0.00396 J0.00000
G2 X-6.12793 Y-1.91811 Z-0.04899 I-0.00396 J0.00000
G2 X-6.12793 Y-1.91811 Z-0.05599 I-0.00396 J0.00000
G2 X-6.12793 Y-1.91811 Z-0.06299 I-0.00396 J0.00000
G2 X-6.12793 Y-1.91811 I-0.00396 J0.00000
G1 Z0.08000 F50.00000

G0 X-6.27793 Y-1.56811
G1 Z0.00700 F50.00000
G1 F100.00000
G2 X-6.27793 Y-1.56811 Z-0.00000 I-0.00396 J0.00000
G2 X-6.27793 Y-1.56811 Z-0.00700 I-0.00396 J0.00000
G2 X-6.27793 Y-1.56811 Z-0.01400 I-0.00396 J0.00000
G2 X-6.27793 Y-1.56811 Z-0.02100 I-0.00396 J0.00000
G2 X-6.27793 Y-1.56811 Z-0.02800 I-0.00396 J0.00000
G2 X-6.27793 Y-1.56811 Z-0.03500 I-0.00396 J0.00000
G2 X-6.27793 Y-1.56811 Z-0.04199 I-0.00396 J0.00000
G2 X-6.27793 Y-1.56811 Z-0.04899 I-0.00396 J0.00000
G2 X-6.27793 Y-1.56811 Z-0.05599 I-0.00396 J0.00000
G2 X-6.27793 Y-1.56811 Z-0.06299 I-0.00396 J0.00000
G2 X-6.27793 Y-1.56811 I-0.00396 J0.00000
G1 Z0.08000 F50.00000

G0 X-6.67793 Y-1.56811
G1 Z0.00700 F50.00000
G1 F100.00000
G2 X-6.67793 Y-1.56811 Z-0.00000 I-0.00396 J0.00000
G2 X-6.67793 Y-1.56811 Z-0.00700 I-0.00396 J0.00000
G2 X-6.67793 Y-1.56811 Z-0.01400 I-0.00396 J0.00000
G2 X-6.67793 Y-1.56811 Z-0.02100 I-0.00396 J0.00000
G2 X-6.67793 Y-1.56811 Z-0.02800 I-0.00396 J0.00000
G2 X-6.67793 Y-1.56811 Z-0.03500 I-0.00396 J0.00000
G2 X-6.67793 Y-1.56811 Z-0.04199 I-0.00396 J0.00000
G2 X-6.67793 Y-1.56811 Z-0.04899 I-0.00396 J0.00000
G2 X-6.67793 Y-1.56811 Z-0.05599 I-0.00396 J0.00000
G2 X-6.67793 Y-1.56811 Z-0.06299 I-0.00396 J0.00000
G2 X-6.67793 Y-1.56811 I-0.00396 J0.00000
G1 Z0.08000 F50.00000

G0 X-6.27793 Y-1.16811
G1 Z0.00700 F50.00000
G1 F100.00000
G2 X-6.27793 Y-1.16811 Z-0.00000 I-0.00396 J0.00000
G2 X-6.27793 Y-1.16811 Z-0.00700 I-0.00396 J0.00000
G2 X-6.27793 Y-1.16811 Z-0.01400 I-0.00396 J0.00000
G2 X-6.27793 Y-1.16811 Z-0.02100 I-0.00396 J0.00000
G2 X-6.27793 Y-1.16811 Z-0.02800 I-0.00396 J0.00000
G2 X-6.27793 Y-1.16811 Z-0.03500 I-0.00396 J0.00000
G2 X-6.27793 Y-1.16811 Z-0.04199 I-0.00396 J0.00000
G2 X-6.27793 Y-1.16811 Z-0.04899 I-0.00396 J0.00000
G2 X-6.27793 Y-1.16811 Z-0.05599 I-0.00396 J0.00000
G2 X-6.27793 Y-1.16811 Z-0.06299 I-0.00396 J0.00000
G2 X-6.27793 Y-1.16811 I-0.00396 J0.00000
G1 Z0.08000 F50.00000

G0 X-6.67793 Y-1.16811
G1 Z0.00700 F50.00000
G1 F100.00000
G2 X-6.67793 Y-1.16811 Z-0.00000 I-0.00396 J0.00000
G2 X-6.67793 Y-1.16811 Z-0.00700 I-0.00396 J0.00000
G2 X-6.67793 Y-1.16811 Z-0.01400 I-0.00396 J0.00000
G2 X-6.67793 Y-1.16811 Z-0.02100 I-0.00396 J0.00000
G2 X-6.67793 Y-1.16811 Z-0.02800 I-0.00396 J0.00000
G2 X-6.67793 Y-1.16811 Z-0.03500 I-0.00396 J0.00000
G2 X-6.67793 Y-1.16811 Z-0.04199 I-0.00396 J0.00000
G2 X-6.67793 Y-1.16811 Z-0.04899 I-0.00396 J0.00000
G2 X-6.67793 Y-1.16811 Z-0.05599 I-0.00396 J0.00000
G2 X-6.67793 Y-1.16811 Z-0.06299 I-0.00396 J0.00000
G2 X-6.67793 Y-1.16811 I-0.00396 J0.00000
G1 Z0.08000 F50.00000

( Piece #6, position [2;1] )

G0 X-7.36378 Y-1.46811
G1 Z-0.06299 F50.00000
G1 Z0.08000 F50.00000

G0 X-7.46220 Y-1.46811
G1 Z-0.06299 F50.00000
G1 Z0.08000 F50.00000

G0 X-7.36378 Y-1.78937
G1 Z-0.06299 F50.00000
G1 Z0.08000 F50.00000

G0 X-7.36378 Y-1.86811
G1 Z-0.06299 F50.00000
G1 Z0.08000 F50.00000

G0 X-7.36378 Y-1.94685
G1 Z-0.06299 F50.00000
G1 Z0.08000 F50.00000

G0 X-8.41535 Y-1.46811
G1 Z-0.06299 F50.00000
G1 Z0.08000 F50.00000

G0 X-8.51378 Y-1.46811
G1 Z-0.06299 F50.00000
G1 Z0.08000 F50.00000

G0 X-8.46378 Y-1.78937
G1 Z-0.06299 F50.00000
G1 Z0.08000 F50.00000

G0 X-8.46378 Y-1.86811
G1 Z-0.06299 F50.00000
G1 Z0.08000 F50.00000

G0 X-8.46378 Y-1.94685
G1 Z-0.06299 F50.00000
G1 Z0.08000 F50.00000

G0 X-7.20982 Y-1.16811
G1 Z0.00700 F50.00000
G1 F100.00000
G2 X-7.20982 Y-1.16811 Z-0.00000 I-0.00396 J0.00000
G2 X-7.20982 Y-1.16811 Z-0.00700 I-0.00396 J0.00000
G2 X-7.20982 Y-1.16811 Z-0.01400 I-0.00396 J0.00000
G2 X-7.20982 Y-1.16811 Z-0.02100 I-0.00396 J0.00000
G2 X-7.20982 Y-1.16811 Z-0.02800 I-0.00396 J0.00000
G2 X-7.20982 Y-1.16811 Z-0.03500 I-0.00396 J0.00000
G2 X-7.20982 Y-1.16811 Z-0.04199 I-0.00396 J0.00000
G2 X-7.20982 Y-1.16811 Z-0.04899 I-0.00396 J0.00000
G2 X-7.20982 Y-1.16811 Z-0.05599 I-0.00396 J0.00000
G2 X-7.20982 Y-1.16811 Z-0.06299 I-0.00396 J0.00000
G2 X-7.20982 Y-1.16811 I-0.00396 J0.00000
G1 Z0.08000 F50.00000

G0 X-7.20982 Y-1.56811
G1 Z0.00700 F50.00000
G1 F100.00000
G2 X-7.20982 Y-1.56811 Z-0.00000 I-0.00396 J0.00000
G2 X-7.20982 Y-1.56811 Z-0.00700 I-0.00396 J0.00000
G2 X-7.20982 Y-1.56811 Z-0.01400 I-0.00396 J0.00000
G2 X-7.20982 Y-1.56811 Z-0.02100 I-0.00396 J0.00000
G2 X-7.20982 Y-1.56811 Z-0.02800 I-0.00396 J0.00000
G2 X-7.20982 Y-1.56811 Z-0.03500 I-0.00396 J0.00000
G2 X-7.20982 Y-1.56811 Z-0.04199 I-0.00396 J0.00000
G2 X-7.20982 Y-1.56811 Z-0.04899 I-0.00396 J0.00000
G2 X-7.20982 Y-1.56811 Z-0.05599 I-0.00396 J0.00000
G2 X-7.20982 Y-1.56811 Z-0.06299 I-0.00396 J0.00000
G2 X-7.20982 Y-1.56811 I-0.00396 J0.00000
G1 Z0.08000 F50.00000

G0 X-7.60982 Y-1.16811
G1 Z0.00700 F50.00000
G1 F100.00000
G2 X-7.60982 Y-1.16811 Z-0.00000 I-0.00396 J0.00000
G2 X-7.60982 Y-1.16811 Z-0.00700 I-0.00396 J0.00000
G2 X-7.60982 Y-1.16811 Z-0.01400 I-0.00396 J0.00000
G2 X-7.60982 Y-1.16811 Z-0.02100 I-0.00396 J0.00000
G2 X-7.60982 Y-1.16811 Z-0.02800 I-0.00396 J0.00000
G2 X-7.60982 Y-1.16811 Z-0.03500 I-0.00396 J0.00000
G2 X-7.60982 Y-1.16811 Z-0.04199 I-0.00396 J0.00000
G2 X-7.60982 Y-1.16811 Z-0.04899 I-0.00396 J0.00000
G2 X-7.60982 Y-1.16811 Z-0.05599 I-0.00396 J0.00000
G2 X-7.60982 Y-1.16811 Z-0.06299 I-0.00396 J0.00000
G2 X-7.60982 Y-1.16811 I-0.00396 J0.00000
G1 Z0.08000 F50.00000

G0 X-7.77482 Y-1.28346
G1 Z0.00700 F50.00000
G1 F100.00000
G2 X-7.78274 Y-1.28346 Z0.00652 I-0.00396 J0.00000
G1 X-7.78274 Y-1.20476 Z0.00350
G2 X-7.77482 Y-1.20476 Z0.00302 I0.00396 J0.00000
G1 X-7.77482 Y-1.28346 Z-0.00000
G2 X-7.78274 Y-1.28346 Z-0.00048 I-0.00396 J0.00000
G1 X-7.78274 Y-1.20476 Z-0.00350
G2 X-7.77482 Y-1.20476 Z-0.00398 I0.00396 J0.00000
G1 X-7.77482 Y-1.28346 Z-0.00700
G2 X-7.78274 Y-1.28346 Z-0.00748 I-0.00396 J0.00000
G1 X-7.78274 Y-1.20476 Z-0.01050
G2 X-7.77482 Y-1.20476 Z-0.01098 I0.00396 J0.00000
G1 X-7.77482 Y-1.28346 Z-0.01400
G2 X-7.78274 Y-1.28346 Z-0.01448 I-0.00396 J0.00000
G1 X-7.78274 Y-1.20476 Z-0.01750
G2 X-7.77482 Y-1.20476 Z-0.01798 I0.00396 J0.00000
G1 X-7.77482 Y-1.28346 Z-0.02100
G2 X-7.78274 Y-1.28346 Z-0.02147 I-0.00396 J0.00000
G1 X-7.78274 Y-1.20476 Z-0.02450
G2 X-7.77482 Y-1.20476 Z-0.02497 I0.00396 J0.00000
G1 X-7.77482 Y-1.28346 Z-0.02800
G2 X-7.78274 Y-1.28346 Z-0.02847 I-0.00396 J0.00000
G1 X-7.78274 Y-1.20476 Z-0.03150
G2 X-7.77482 Y-1.20476 Z-0.03197 I0.00396 J0.00000
G1 X-7.77482 Y-1.28346 Z-0.03500
G2 X-7.78274 Y-1.28346 Z-0.03547 I-0.00396 J0.00000
G1 X-7.78274 Y-1.20476 Z-0.03850
G2 X-7.77482 Y-1.20476 Z-0.03897 I0.00396 J0.00000
G1 X-7.77482 Y-1.28346 Z-0.04199
G2 X-7.78274 Y-1.28346 Z-0.04247 I-0.00396 J0.00000
G1 X-7.78274 Y-1.20476 Z-0.04549
G2 X-7.77482 Y-1.20476 Z-0.04597 I0.00396 J0.00000
G1 X-7.77482 Y-1.28346 Z-0.04899
G2 X-7.78274 Y-1.28346 Z-0.04947 I-0.00396 J0.00000
G1 X-7.78274 Y-1.20476 Z-0.05249
G2 X-7.77482 Y-1.20476 Z-0.05297 I0.00396 J0.00000
G1 X-7.77482 Y-1.28346 Z-0.05599
G2 X-7.78274 Y-1.28346 Z-0.05647 I-0.00396 J0.00000
G1 X-7.78274 Y-1.20476 Z-0.05949
G2 X-7.77482 Y-1.20476 Z-0.05997 I0.00396 J0.00000
G1 X-7.77482 Y-1.28346 Z-0.06299
G2 X-7.78274 Y-1.28346 I-0.00396 J0.00000
G1 X-7.78274 Y-1.20476
G2 X-7.77482 Y-1.20476 I0.00396 J0.00000
G1 X-7.77482 Y-1.28346
G1 Z0.08000 F50.00000

G0 X-7.92445 Y-1.12207
G1 Z0.00700 F50.00000
G1 F100.00000
G2 X-7.92445 Y-1.12998 Z0.00652 I0.00000 J-0.00396
G1 X-8.00311 Y-1.12998 Z0.00350
G2 X-8.00311 Y-1.12207 Z0.00302 I0.00000 J0.00396
G1 X-7.92445 Y-1.12207 Z-0.00000
G2 X-7.92445 Y-1.12998 Z-0.00048 I0.00000 J-0.00396
G1 X-8.00311 Y-1.12998 Z-0.00350
G2 X-8.00311 Y-1.12207 Z-0.00398 I0.00000 J0.00396
G1 X-7.92445 Y-1.12207 Z-0.00700
G2 X-7.92445 Y-1.12998 Z-0.00748 I0.00000 J-0.00396
G1 X-8.00311 Y-1.12998 Z-0.01050
G2 X-8.00311 Y-1.12207 Z-0.01098 I0.00000 J0.00396
G1 X-7.92445 Y-1.12207 Z-0.01400
G2 X-7.92445 Y-1.12998 Z-0.01448 I0.00000 J-0.00396
G1 X-8.00311 Y-1.12998 Z-0.01750
G2 X-8.00311 Y-1.12207 Z-0.01798 I0.00000 J0.00396
G1 X-7.92445 Y-1.12207 Z-0.02100
G2 X-7.92445 Y-1.12998 Z-0.02147 I0.00000 J-0.00396
G1 X-8.00311 Y-1.12998 Z-0.02450
G2 X-8.00311 Y-1.12207 Z-0.02497 I0.00000 J0.00396
G1 X-7.92445 Y-1.12207 Z-0.02800
G2 X-7.92445 Y-1.12998 Z-0.02847 I0.00000 J-0.00396
G1 X-8.00311 Y-1.12998 Z-0.03150
G2 X-8.00311 Y-1.12207 Z-0.03197 I0.00000 J0.00396
G1 X-7.92445 Y-1.12207 Z-0.03500
G2 X-7.92445 Y-1.12998 Z-0.03547 I0.00000 J-0.00396
G1 X-8.00311 Y-1.12998 Z-0.03850
G2 X-8.00311 Y-1.12207 Z-0.03897 I0.00000 J0.00396
G1 X-7.92445 Y-1.12207 Z-0.04199
G2 X-7.92445 Y-1.12998 Z-0.04247 I0.00000 J-0.00396
G1 X-8.00311 Y-1.12998 Z-0.04549
G2 X-8.00311 Y-1.12207 Z-0.04597 I0.00000 J0.00396
G1 X-7.92445 Y-1.12207 Z-0.04899
G2 X-7.92445 Y-1.12998 Z-0.04947 I0.00000 J-0.00396
G1 X-8.00311 Y-1.12998 Z-0.05249
G2 X-8.00311 Y-1.12207 Z-0.05297 I0.00000 J0.00396
G1 X-7.92445 Y-1.12207 Z-0.05599
G2 X-7.92445 Y-1.12998 Z-0.05647 I0.00000 J-0.00396
G1 X-8.00311 Y-1.12998 Z-0.05949
G2 X-8.00311 Y-1.12207 Z-0.05997 I0.00000 J0.00396
G1 X-7.92445 Y-1.12207 Z-0.06299
G2 X-7.92445 Y-1.12998 I0.00000 J-0.00396
G1 X-8.00311 Y-1.12998
G2 X-8.00311 Y-1.12207 I0.00000 J0.00396
G1 X-7.92445 Y-1.12207
G1 Z0.08000 F50.00000

G0 X-8.00311 Y-1.36616
G1 Z0.00700 F50.00000
G1 F100.00000
G2 X-8.00311 Y-1.35825 Z0.00652 I0.00000 J0.00396
G1 X-7.92445 Y-1.35825 Z0.00350
G2 X-7.92445 Y-1.36616 Z0.00302 I0.00000 J-0.00396
G1 X-8.00311 Y-1.36616 Z-0.00000
G2 X-8.00311 Y-1.35825 Z-0.00048 I0.00000 J0.00396
G1 X-7.92445 Y-1.35825 Z-0.00350
G2 X-7.92445 Y-1.36616 Z-0.00398 I0.00000 J-0.00396
G1 X-8.00311 Y-1.36616 Z-0.00700
G2 X-8.00311 Y-1.35825 Z-0.00748 I0.00000 J0.00396
G1 X-7.92445 Y-1.35825 Z-0.01050
G2 X-7.92445 Y-1.36616 Z-0.01098 I0.00000 J-0.00396
G1 X-8.00311 Y-1.36616 Z-0.01400
G2 X-8.00311 Y-1.35825 Z-0.01448 I0.00000 J0.00396
G1 X-7.92445 Y-1.35825 Z-0.01750
G2 X-7.92445 Y-1.36616 Z-0.01798 I0.00000 J-0.00396
G1 X-8.00311 Y-1.36616 Z-0.02100
G2 X-8.00311 Y-1.35825 Z-0.02147 I0.00000 J0.00396
G1 X-7.92445 Y-1.35825 Z-0.02450
G2 X-7.92445 Y-1.36616 Z-0.02497 I0.00000 J-0.00396
G1 X-8.00311 Y-1.36616 Z-0.02800
G2 X-8.00311 Y-1.35825 Z-0.02847 I0.00000 J0.00396
G1 X-7.92445 Y-1.35825 Z-0.03150
G2 X-7.92445 Y-1.36616 Z-0.03197 I0.00000 J-0.00396
G1 X-8.00311 Y-1.36616 Z-0.03500
G2 X-8.00311 Y-1.35825 Z-0.03547 I0.00000 J0.00396
G1 X-7.92445 Y-1.35825 Z-0.03850
G2 X-7.92445 Y-1.36616 Z-0.03897 I0.00000 J-0.00396
G1 X-8.00311 Y-1.36616 Z-0.04199
G2 X-8.00311 Y-1.35825 Z-0.04247 I0.00000 J0.00396
G1 X-7.92445 Y-1.35825 Z-0.04549
G2 X-7.92445 Y-1.36616 Z-0.04597 I0.00000 J-0.00396
G1 X-8.00311 Y-1.36616 Z-0.04899
G2 X-8.00311 Y-1.35825 Z-0.04947 I0.00000 J0.00396
G1 X-7.92445 Y-1.35825 Z-0.05249
G2 X-7.92445 Y-1.36616 Z-0.05297 I0.00000 J-0.00396
G1 X-8.00311 Y-1.36616 Z-0.05599
G2 X-8.00311 Y-1.35825 Z-0.05647 I0.00000 J0.00396
G1 X-7.92445 Y-1.35825 Z-0.05949
G2 X-7.92445 Y-1.36616 Z-0.05997 I0.00000 J-0.00396
G1 X-8.00311 Y-1.36616 Z-0.06299
G2 X-8.00311 Y-1.35825 I0.00000 J0.00396
G1 X-7.92445 Y-1.35825
G2 X-7.92445 Y-1.36616 I0.00000 J-0.00396
G1 X-8.00311 Y-1.36616
G1 Z0.08000 F50.00000

G0 X-7.60982 Y-1.56811
G1 Z0.00700 F50.00000
G1 F100.00000
G2 X-7.60982 Y-1.56811 Z-0.00000 I-0.00396 J0.00000
G2 X-7.60982 Y-1.56811 Z-0.00700 I-0.00396 J0.00000
G2 X-7.60982 Y-1.56811 Z-0.01400 I-0.00396 J0.00000
G2 X-7.60982 Y-1.56811 Z-0.02100 I-0.00396 J0.00000
G2 X-7.60982 Y-1.56811 Z-0.02800 I-0.00396 J0.00000
G2 X-7.60982 Y-1.56811 Z-0.03500 I-0.00396 J0.00000
G2 X-7.60982 Y-1.56811 Z-0.04199 I-0.00396 J0.00000
G2 X-7.60982 Y-1.56811 Z-0.04899 I-0.00396 J0.00000
G2 X-7.60982 Y-1.56811 Z-0.05599 I-0.00396 J0.00000
G2 X-7.60982 Y-1.56811 Z-0.06299 I-0.00396 J0.00000
G2 X-7.60982 Y-1.56811 I-0.00396 J0.00000
G1 Z0.08000 F50.00000

G0 X-7.70982 Y-1.91811
G1 Z0.00700 F50.00000
G1 F100.00000
G2 X-7.70982 Y-1.91811 Z-0.00000 I-0.00396 J0.00000
G2 X-7.70982 Y-1.91811 Z-0.00700 I-0.00396 J0.00000
G2 X-7.70982 Y-1.91811 Z-0.01400 I-0.00396 J0.00000
G2 X-7.70982 Y-1.91811 Z-0.02100 I-0.00396 J0.00000
G2 X-7.70982 Y-1.91811 Z-0.02800 I-0.00396 J0.00000
G2 X-7.70982 Y-1.91811 Z-0.03500 I-0.00396 J0.00000
G2 X-7.70982 Y-1.91811 Z-0.04199 I-0.00396 J0.00000
G2 X-7.70982 Y-1.91811 Z-0.04899 I-0.00396 J0.00000
G2 X-7.70982 Y-1.91811 Z-0.05599 I-0.00396 J0.00000
G2 X-7.70982 Y-1.91811 Z-0.06299 I-0.00396 J0.00000
G2 X-7.70982 Y-1.91811 I-0.00396 J0.00000
G1 Z0.08000 F50.00000

G0 X-7.80982 Y-1.91811
G1 Z0.00700 F50.00000
G1 F100.00000
G2 X-7.80982 Y-1.91811 Z-0.00000 I-0.00396 J0.00000
G2 X-7.80982 Y-1.91811 Z-0.00700 I-0.00396 J0.00000
G2 X-7.80982 Y-1.91811 Z-0.01400 I-0.00396 J0.00000
G2 X-7.80982 Y-1.91811 Z-0.02100 I-0.00396 J0.00000
G2 X-7.80982 Y-1.91811 Z-0.02800 I-0.00396 J0.00000
G2 X-7.80982 Y-1.91811 Z-0.03500 I-0.00396 J0.00000
G2 X-7.80982 Y-1.91811 Z-0.04199 I-0.00396 J0.00000
G2 X-7.80982 Y-1.91811 Z-0.04899 I-0.00396 J0.00000
G2 X-7.80982 Y-1.91811 Z-0.05599 I-0.00396 J0.00000
G2 X-7.80982 Y-1.91811 Z-0.06299 I-0.00396 J0.00000
G2 X-7.80982 Y-1.91811 I-0.00396 J0.00000
G1 Z0.08000 F50.00000

G0 X-8.00982 Y-1.91811
G1 Z0.00700 F50.00000
G1 F100.00000
G2 X-8.00982 Y-1.91811 Z-0.00000 I-0.00396 J0.00000
G2 X-8.00982 Y-1.91811 Z-0.00700 I-0.00396 J0.00000
G2 X-8.00982 Y-1.91811 Z-0.01400 I-0.00396 J0.00000
G2 X-8.00982 Y-1.91811 Z-0.02100 I-0.00396 J0.00000
G2 X-8.00982 Y-1.91811 Z-0.02800 I-0.00396 J0.00000
G2 X-8.00982 Y-1.91811 Z-0.03500 I-0.00396 J0.00000
G2 X-8.00982 Y-1.91811 Z-0.04199 I-0.00396 J0.00000
G2 X-8.00982 Y-1.91811 Z-0.04899 I-0.00396 J0.00000
G2 X-8.00982 Y-1.91811 Z-0.05599 I-0.00396 J0.00000
G2 X-8.00982 Y-1.91811 Z-0.06299 I-0.00396 J0.00000
G2 X-8.00982 Y-1.91811 I-0.00396 J0.00000
G1 Z0.08000 F50.00000

G0 X-8.10982 Y-1.91811
G1 Z0.00700 F50.00000
G1 F100.00000
G2 X-8.10982 Y-1.91811 Z-0.00000 I-0.00396 J0.00000
G2 X-8.10982 Y-1.91811 Z-0.00700 I-0.00396 J0.00000
G2 X-8.10982 Y-1.91811 Z-0.01400 I-0.00396 J0.00000
G2 X-8.10982 Y-1.91811 Z-0.02100 I-0.00396 J0.00000
G2 X-8.10982 Y-1.91811 Z-0.02800 I-0.00396 J0.00000
G2 X-8.10982 Y-1.91811 Z-0.03500 I-0.00396 J0.00000
G2 X-8.10982 Y-1.91811 Z-0.04199 I-0.00396 J0.00000
G2 X-8.10982 Y-1.91811 Z-0.04899 I-0.00396 J0.00000
G2 X-8.10982 Y-1.91811 Z-0.05599 I-0.00396 J0.00000
G2 X-8.10982 Y-1.91811 Z-0.06299 I-0.00396 J0.00000
G2 X-8.10982 Y-1.91811 I-0.00396 J0.00000
G1 Z0.08000 F50.00000

G0 X-8.25982 Y-1.56811
G1 Z0.00700 F50.00000
G1 F100.00000
G2 X-8.25982 Y-1.56811 Z-0.00000 I-0.00396 J0.00000
G2 X-8.25982 Y-1.56811 Z-0.00700 I-0.00396 J0.00000
G2 X-8.25982 Y-1.56811 Z-0.01400 I-0.00396 J0.00000
G2 X-8.25982 Y-1.56811 Z-0.02100 I-0.00396 J0.00000
G2 X-8.25982 Y-1.56811 Z-0.02800 I-0.00396 J0.00000
G2 X-8.25982 Y-1.56811 Z-0.03500 I-0.00396 J0.00000
G2 X-8.25982 Y-1.56811 Z-0.04199 I-0.00396 J0.00000
G2 X-8.25982 Y-1.56811 Z-0.04899 I-0.00396 J0.00000
G2 X-8.25982 Y-1.56811 Z-0.05599 I-0.00396 J0.00000
G2 X-8.25982 Y-1.56811 Z-0.06299 I-0.00396 J0.00000
G2 X-8.25982 Y-1.56811 I-0.00396 J0.00000
G1 Z0.08000 F50.00000

G0 X-8.65982 Y-1.56811
G1 Z0.00700 F50.00000
G1 F100.00000
G2 X-8.65982 Y-1.56811 Z-0.00000 I-0.00396 J0.00000
G2 X-8.65982 Y-1.56811 Z-0.00700 I-0.00396 J0.00000
G2 X-8.65982 Y-1.56811 Z-0.01400 I-0.00396 J0.00000
G2 X-8.65982 Y-1.56811 Z-0.02100 I-0.00396 J0.00000
G2 X-8.65982 Y-1.56811 Z-0.02800 I-0.00396 J0.00000
G2 X-8.65982 Y-1.56811 Z-0.03500 I-0.00396 J0.00000
G2 X-8.65982 Y-1.56811 Z-0.04199 I-0.00396 J0.00000
G2 X-8.65982 Y-1.56811 Z-0.04899 I-0.00396 J0.00000
G2 X-8.65982 Y-1.56811 Z-0.05599 I-0.00396 J0.00000
G2 X-8.65982 Y-1.56811 Z-0.06299 I-0.00396 J0.00000
G2 X-8.65982 Y-1.56811 I-0.00396 J0.00000
G1 Z0.08000 F50.00000

G0 X-8.25982 Y-1.16811
G1 Z0.00700 F50.00000
G1 F100.00000
G2 X-8.25982 Y-1.16811 Z-0.00000 I-0.00396 J0.00000
G2 X-8.25982 Y-1.16811 Z-0.00700 I-0.00396 J0.00000
G2 X-8.25982 Y-1.16811 Z-0.01400 I-0.00396 J0.00000
G2 X-8.25982 Y-1.16811 Z-0.02100 I-0.00396 J0.00000
G2 X-8.25982 Y-1.16811 Z-0.02800 I-0.00396 J0.00000
G2 X-8.25982 Y-1.16811 Z-0.03500 I-0.00396 J0.00000
G2 X-8.25982 Y-1.16811 Z-0.04199 I-0.00396 J0.00000
G2 X-8.25982 Y-1.16811 Z-0.04899 I-0.00396 J0.00000
G2 X-8.25982 Y-1.16811 Z-0.05599 I-0.00396 J0.00000
G2 X-8.25982 Y-1.16811 Z-0.06299 I-0.00396 J0.00000
G2 X-8.25982 Y-1.16811 I-0.00396 J0.00000
G1 Z0.08000 F50.00000

G0 X-8.65982 Y-1.16811
G1 Z0.00700 F50.00000
G1 F100.00000
G2 X-8.65982 Y-1.16811 Z-0.00000 I-0.00396 J0.00000
G2 X-8.65982 Y-1.16811 Z-0.00700 I-0.00396 J0.00000
G2 X-8.65982 Y-1.16811 Z-0.01400 I-0.00396 J0.00000
G2 X-8.65982 Y-1.16811 Z-0.02100 I-0.00396 J0.00000
G2 X-8.65982 Y-1.16811 Z-0.02800 I-0.00396 J0.00000
G2 X-8.65982 Y-1.16811 Z-0.03500 I-0.00396 J0.00000
G2 X-8.65982 Y-1.16811 Z-0.04199 I-0.00396 J0.00000
G2 X-8.65982 Y-1.16811 Z-0.04899 I-0.00396 J0.00000
G2 X-8.65982 Y-1.16811 Z-0.05599 I-0.00396 J0.00000
G2 X-8.65982 Y-1.16811 Z-0.06299 I-0.00396 J0.00000
G2 X-8.65982 Y-1.16811 I-0.00396 J0.00000
G1 Z0.08000 F50.00000

G00 Z1.000000 ( All done -- retract )

M5      (Spindle off.)
G04 P1.000000
M9      (Coolant off.)
M2      (Program end.)

