( pcb2gcode 2.5.0 )
( Software-independent Gcode )

G94 ( Inches per minute feed rate. )
G20 ( Units == INCHES. )

G90 ( Absolute coordinates. )
G00 S10000 ( RPM spindle speed. )
G64 P0.00040 ( set maximum deviation from commanded toolpath )
G01 F100.00000 ( Feedrate. )


G00 Z1.00000 (Retract to tool change height)
T1
M5      (Spindle stop.)
G04 P1.00000 (Wait for spindle to stop)
(MSG, Change tool bit to cutter diameter 0.05906in)
M6      (Tool change.)
M0      (Temporary machine stop.)
M3 ( Spindle on clockwise. )
G04 P1.00000 (Wait for spindle to get up to speed)
( Piece #1, position [0;0] )

G04 P0 ( dwell for no time -- G64 should not smooth over this point )
G00 Z0.08000 ( retract )

G00 X-6.96850 Y-3.60000 ( rapid move to begin. )
G01 Z-0.00512 F50.00000 ( plunge. )
G04 P0 ( dwell for no time -- G64 should not smooth over this point )
G01 F100.00000
G01 X-6.96851 Y-2.34960
G01 X-6.96878 Y-2.34598
G01 X-6.96939 Y-2.34281
G01 X-6.97049 Y-2.33935
G01 X-6.97200 Y-2.33606
G01 X-6.97391 Y-2.33297
G01 X-6.97618 Y-2.33014
G01 X-6.97878 Y-2.32761
G01 X-6.98167 Y-2.32542
G01 X-6.98553 Y-2.32325
G01 X-6.98968 Y-2.32168
G01 X-6.99401 Y-2.32075
G01 X-6.99803 Y-2.32047
G01 X-8.84803 Y-2.32047
G01 X-8.85165 Y-2.32070
G01 X-8.85522 Y-2.32136
G01 X-8.85868 Y-2.32246
G01 X-8.86197 Y-2.32397
G01 X-8.86506 Y-2.32588
G01 X-8.86789 Y-2.32815
G01 X-8.87042 Y-2.33075
G01 X-8.87261 Y-2.33364
G01 X-8.87478 Y-2.33750
G01 X-8.87635 Y-2.34165
G01 X-8.87728 Y-2.34598
G01 X-8.87756 Y-2.35000
G01 X-8.87756 Y-3.60000
G01 X-8.87734 Y-3.60362
G01 X-8.87667 Y-3.60719
G01 X-8.87557 Y-3.61064
G01 X-8.87406 Y-3.61394
G01 X-8.87215 Y-3.61703
G01 X-8.86988 Y-3.61986
G01 X-8.86728 Y-3.62239
G01 X-8.86439 Y-3.62458
G01 X-8.86053 Y-3.62675
G01 X-8.85639 Y-3.62832
G01 X-8.85205 Y-3.62925
G01 X-8.84803 Y-3.62953
G01 X-6.99763 Y-3.62952
G01 X-6.99481 Y-3.62935
G01 X-6.99163 Y-3.62882
G01 X-6.98891 Y-3.62808
G01 X-6.98627 Y-3.62708
G01 X-6.98374 Y-3.62584
G01 X-6.98133 Y-3.62435
G01 X-6.97909 Y-3.62265
G01 X-6.97701 Y-3.62074
G01 X-6.97513 Y-3.61863
G01 X-6.97345 Y-3.61636
G01 X-6.97200 Y-3.61394
G01 X-6.97079 Y-3.61139
G01 X-6.96971 Y-3.60835
G01 X-6.96904 Y-3.60561
G01 X-6.96864 Y-3.60282
G01 X-6.96850 Y-3.60000
( Piece #2, position [1;0] )

G04 P0 ( dwell for no time -- G64 should not smooth over this point )
G00 Z0.08000 ( retract )

G00 X-4.99449 Y-3.60000 ( rapid move to begin. )
G01 Z-0.00512 F50.00000 ( plunge. )
G04 P0 ( dwell for no time -- G64 should not smooth over this point )
G01 F100.00000
G01 X-4.99449 Y-2.34960
G01 X-4.99476 Y-2.34598
G01 X-4.99538 Y-2.34281
G01 X-4.99647 Y-2.33935
G01 X-4.99799 Y-2.33606
G01 X-4.99989 Y-2.33297
G01 X-5.00216 Y-2.33014
G01 X-5.00476 Y-2.32761
G01 X-5.00765 Y-2.32542
G01 X-5.01152 Y-2.32325
G01 X-5.01566 Y-2.32168
G01 X-5.01999 Y-2.32075
G01 X-5.02402 Y-2.32047
G01 X-6.87402 Y-2.32047
G01 X-6.87764 Y-2.32070
G01 X-6.88120 Y-2.32136
G01 X-6.88466 Y-2.32246
G01 X-6.88796 Y-2.32397
G01 X-6.89104 Y-2.32588
G01 X-6.89387 Y-2.32815
G01 X-6.89640 Y-2.33075
G01 X-6.89859 Y-2.33364
G01 X-6.90077 Y-2.33750
G01 X-6.90234 Y-2.34165
G01 X-6.90327 Y-2.34598
G01 X-6.90354 Y-2.35000
G01 X-6.90354 Y-3.60000
G01 X-6.90332 Y-3.60362
G01 X-6.90265 Y-3.60719
G01 X-6.90156 Y-3.61064
G01 X-6.90004 Y-3.61394
G01 X-6.89814 Y-3.61703
G01 X-6.89587 Y-3.61986
G01 X-6.89327 Y-3.62239
G01 X-6.89038 Y-3.62458
G01 X-6.88651 Y-3.62675
G01 X-6.88237 Y-3.62832
G01 X-6.87804 Y-3.62925
G01 X-6.87402 Y-3.62953
G01 X-5.02361 Y-3.62952
G01 X-5.02079 Y-3.62935
G01 X-5.01761 Y-3.62882
G01 X-5.01489 Y-3.62808
G01 X-5.01225 Y-3.62708
G01 X-5.00972 Y-3.62584
G01 X-5.00732 Y-3.62435
G01 X-5.00507 Y-3.62265
G01 X-5.00299 Y-3.62074
G01 X-5.00111 Y-3.61863
G01 X-4.99944 Y-3.61636
G01 X-4.99799 Y-3.61394
G01 X-4.99677 Y-3.61139
G01 X-4.99569 Y-3.60835
G01 X-4.99503 Y-3.60561
G01 X-4.99462 Y-3.60282
G01 X-4.99449 Y-3.60000
( Piece #3, position [2;0] )

G04 P0 ( dwell for no time -- G64 should not smooth over this point )
G00 Z0.08000 ( retract )

G00 X-3.02047 Y-3.60000 ( rapid move to begin. )
G01 Z-0.00512 F50.00000 ( plunge. )
G04 P0 ( dwell for no time -- G64 should not smooth over this point )
G01 F100.00000
G01 X-3.02047 Y-2.34960
G01 X-3.02075 Y-2.34598
G01 X-3.02136 Y-2.34281
G01 X-3.02246 Y-2.33935
G01 X-3.02397 Y-2.33606
G01 X-3.02588 Y-2.33297
G01 X-3.02815 Y-2.33014
G01 X-3.03075 Y-2.32761
G01 X-3.03364 Y-2.32542
G01 X-3.03750 Y-2.32325
G01 X-3.04164 Y-2.32168
G01 X-3.04598 Y-2.32075
G01 X-3.05000 Y-2.32047
G01 X-4.90000 Y-2.32047
G01 X-4.90362 Y-2.32070
G01 X-4.90719 Y-2.32136
G01 X-4.91064 Y-2.32246
G01 X-4.91394 Y-2.32397
G01 X-4.91703 Y-2.32588
G01 X-4.91986 Y-2.32815
G01 X-4.92239 Y-2.33075
G01 X-4.92458 Y-2.33364
G01 X-4.92675 Y-2.33750
G01 X-4.92832 Y-2.34165
G01 X-4.92925 Y-2.34598
G01 X-4.92953 Y-2.35000
G01 X-4.92953 Y-3.60000
G01 X-4.92930 Y-3.60362
G01 X-4.92864 Y-3.60719
G01 X-4.92754 Y-3.61064
G01 X-4.92603 Y-3.61394
G01 X-4.92412 Y-3.61703
G01 X-4.92185 Y-3.61986
G01 X-4.91925 Y-3.62239
G01 X-4.91636 Y-3.62458
G01 X-4.91250 Y-3.62675
G01 X-4.90835 Y-3.62832
G01 X-4.90402 Y-3.62925
G01 X-4.90000 Y-3.62953
G01 X-3.04960 Y-3.62952
G01 X-3.04678 Y-3.62935
G01 X-3.04360 Y-3.62882
G01 X-3.04088 Y-3.62808
G01 X-3.03824 Y-3.62708
G01 X-3.03570 Y-3.62584
G01 X-3.03330 Y-3.62435
G01 X-3.03105 Y-3.62265
G01 X-3.02898 Y-3.62074
G01 X-3.02710 Y-3.61863
G01 X-3.02542 Y-3.61636
G01 X-3.02397 Y-3.61394
G01 X-3.02276 Y-3.61139
G01 X-3.02168 Y-3.60835
G01 X-3.02101 Y-3.60561
G01 X-3.02061 Y-3.60282
G01 X-3.02047 Y-3.60000
( Piece #4, position [0;1] )

G04 P0 ( dwell for no time -- G64 should not smooth over this point )
G00 Z0.08000 ( retract )

G00 X-3.02047 Y-2.22598 ( rapid move to begin. )
G01 Z-0.00512 F50.00000 ( plunge. )
G04 P0 ( dwell for no time -- G64 should not smooth over this point )
G01 F100.00000
G01 X-3.02047 Y-0.97558
G01 X-3.02075 Y-0.97196
G01 X-3.02136 Y-0.96880
G01 X-3.02246 Y-0.96534
G01 X-3.02397 Y-0.96204
G01 X-3.02588 Y-0.95896
G01 X-3.02815 Y-0.95613
G01 X-3.03075 Y-0.95360
G01 X-3.03364 Y-0.95140
G01 X-3.03750 Y-0.94923
G01 X-3.04164 Y-0.94766
G01 X-3.04598 Y-0.94673
G01 X-3.05000 Y-0.94646
G01 X-4.90000 Y-0.94646
G01 X-4.90362 Y-0.94668
G01 X-4.90719 Y-0.94734
G01 X-4.91064 Y-0.94844
G01 X-4.91394 Y-0.94995
G01 X-4.91703 Y-0.95186
G01 X-4.91986 Y-0.95413
G01 X-4.92239 Y-0.95673
G01 X-4.92458 Y-0.95962
G01 X-4.92675 Y-0.96348
G01 X-4.92832 Y-0.96763
G01 X-4.92925 Y-0.97196
G01 X-4.92953 Y-0.97598
G01 X-4.92953 Y-2.22598
G01 X-4.92930 Y-2.22960
G01 X-4.92864 Y-2.23317
G01 X-4.92754 Y-2.23663
G01 X-4.92603 Y-2.23993
G01 X-4.92412 Y-2.24301
G01 X-4.92185 Y-2.24584
G01 X-4.91925 Y-2.24837
G01 X-4.91636 Y-2.25056
G01 X-4.91250 Y-2.25274
G01 X-4.90835 Y-2.25431
G01 X-4.90402 Y-2.25524
G01 X-4.90000 Y-2.25551
G01 X-3.04960 Y-2.25551
G01 X-3.04678 Y-2.25534
G01 X-3.04360 Y-2.25481
G01 X-3.04088 Y-2.25407
G01 X-3.03824 Y-2.25307
G01 X-3.03570 Y-2.25182
G01 X-3.03330 Y-2.25034
G01 X-3.03105 Y-2.24863
G01 X-3.02898 Y-2.24672
G01 X-3.02710 Y-2.24462
G01 X-3.02542 Y-2.24235
G01 X-3.02397 Y-2.23993
G01 X-3.02276 Y-2.23738
G01 X-3.02168 Y-2.23434
G01 X-3.02101 Y-2.23160
G01 X-3.02061 Y-2.22880
G01 X-3.02047 Y-2.22598
( Piece #5, position [1;1] )

G04 P0 ( dwell for no time -- G64 should not smooth over this point )
G00 Z0.08000 ( retract )

G00 X-4.99449 Y-2.22598 ( rapid move to begin. )
G01 Z-0.00512 F50.00000 ( plunge. )
G04 P0 ( dwell for no time -- G64 should not smooth over this point )
G01 F100.00000
G01 X-4.99449 Y-0.97558
G01 X-4.99476 Y-0.97196
G01 X-4.99538 Y-0.96880
G01 X-4.99647 Y-0.96534
G01 X-4.99799 Y-0.96204
G01 X-4.99989 Y-0.95896
G01 X-5.00216 Y-0.95613
G01 X-5.00476 Y-0.95360
G01 X-5.00765 Y-0.95140
G01 X-5.01152 Y-0.94923
G01 X-5.01566 Y-0.94766
G01 X-5.01999 Y-0.94673
G01 X-5.02402 Y-0.94646
G01 X-6.87402 Y-0.94646
G01 X-6.87764 Y-0.94668
G01 X-6.88120 Y-0.94734
G01 X-6.88466 Y-0.94844
G01 X-6.88796 Y-0.94995
G01 X-6.89104 Y-0.95186
G01 X-6.89387 Y-0.95413
G01 X-6.89640 Y-0.95673
G01 X-6.89859 Y-0.95962
G01 X-6.90077 Y-0.96348
G01 X-6.90234 Y-0.96763
G01 X-6.90327 Y-0.97196
G01 X-6.90354 Y-0.97598
G01 X-6.90354 Y-2.22598
G01 X-6.90332 Y-2.22960
G01 X-6.90265 Y-2.23317
G01 X-6.90156 Y-2.23663
G01 X-6.90004 Y-2.23993
G01 X-6.89814 Y-2.24301
G01 X-6.89587 Y-2.24584
G01 X-6.89327 Y-2.24837
G01 X-6.89038 Y-2.25056
G01 X-6.88651 Y-2.25274
G01 X-6.88237 Y-2.25431
G01 X-6.87804 Y-2.25524
G01 X-6.87402 Y-2.25551
G01 X-5.02361 Y-2.25551
G01 X-5.02079 Y-2.25534
G01 X-5.01761 Y-2.25481
G01 X-5.01489 Y-2.25407
G01 X-5.01225 Y-2.25307
G01 X-5.00972 Y-2.25182
G01 X-5.00732 Y-2.25034
G01 X-5.00507 Y-2.24863
G01 X-5.00299 Y-2.24672
G01 X-5.00111 Y-2.24462
G01 X-4.99944 Y-2.24235
G01 X-4.99799 Y-2.23993
G01 X-4.99677 Y-2.23738
G01 X-4.99569 Y-2.23434
G01 X-4.99503 Y-2.23160
G01 X-4.99462 Y-2.22880
G01 X-4.99449 Y-2.22598
( Piece #6, position [2;1] )

G04 P0 ( dwell for no time -- G64 should not smooth over this point )
G00 Z0.08000 ( retract )

G00 X-6.96850 Y-2.22598 ( rapid move to begin. )
G01 Z-0.00512 F50.00000 ( plunge. )
G04 P0 ( dwell for no time -- G64 should not smooth over this point )
G01 F100.00000
G01 X-6.96851 Y-0.97558
G01 X-6.96878 Y-0.97196
G01 X-6.96939 Y-0.96880
G01 X-6.97049 Y-0.96534
G01 X-6.97200 Y-0.96204
G01 X-6.97391 Y-0.95896
G01 X-6.97618 Y-0.95613
G01 X-6.97878 Y-0.95360
G01 X-6.98167 Y-0.95140
G01 X-6.98553 Y-0.94923
G01 X-6.98968 Y-0.94766
G01 X-6.99401 Y-0.94673
G01 X-6.99803 Y-0.94646
G01 X-8.84803 Y-0.94646
G01 X-8.85165 Y-0.94668
G01 X-8.85522 Y-0.94734
G01 X-8.85868 Y-0.94844
G01 X-8.86197 Y-0.94995
G01 X-8.86506 Y-0.95186
G01 X-8.86789 Y-0.95413
G01 X-8.87042 Y-0.95673
G01 X-8.87261 Y-0.95962
G01 X-8.87478 Y-0.96348
G01 X-8.87635 Y-0.96763
G01 X-8.87728 Y-0.97196
G01 X-8.87756 Y-0.97598
G01 X-8.87756 Y-2.22598
G01 X-8.87734 Y-2.22960
G01 X-8.87667 Y-2.23317
G01 X-8.87557 Y-2.23663
G01 X-8.87406 Y-2.23993
G01 X-8.87215 Y-2.24301
G01 X-8.86988 Y-2.24584
G01 X-8.86728 Y-2.24837
G01 X-8.86439 Y-2.25056
G01 X-8.86053 Y-2.25274
G01 X-8.85639 Y-2.25431
G01 X-8.85205 Y-2.25524
G01 X-8.84803 Y-2.25551
G01 X-6.99763 Y-2.25551
G01 X-6.99481 Y-2.25534
G01 X-6.99163 Y-2.25481
G01 X-6.98891 Y-2.25407
G01 X-6.98627 Y-2.25307
G01 X-6.98374 Y-2.25182
G01 X-6.98133 Y-2.25034
G01 X-6.97909 Y-2.24863
G01 X-6.97701 Y-2.24672
G01 X-6.97513 Y-2.24462
G01 X-6.97345 Y-2.24235
G01 X-6.97200 Y-2.23993
G01 X-6.97079 Y-2.23738
G01 X-6.96971 Y-2.23434
G01 X-6.96904 Y-2.23160
G01 X-6.96864 Y-2.22880
G01 X-6.96850 Y-2.22598

G04 P0 ( dwell for no time -- G64 should not smooth over this point )
G00 Z1.000000 ( retract )

M5 ( Spindle off. )
G04 P1.000000
M9 ( Coolant off. )
M2 ( Program end. )

