( pcb2gcode 2.5.0 )
( Software-independent Gcode )

G94 ( Inches per minute feed rate. )
G20 ( Units == INCHES. )

G90 ( Absolute coordinates. )
G00 S10000 ( RPM spindle speed. )
G64 P0.00040 ( set maximum deviation from commanded toolpath )
G01 F100.00000 ( Feedrate. )


G00 Z1.00000 (Retract to tool change height)
T0
M5      (Spindle stop.)
G04 P1.00000 (Wait for spindle to stop)
(MSG, Change tool bit to cutter diameter 0.05906in)
M6      (Tool change.)
M0      (Temporary machine stop.)
M3 ( Spindle on clockwise. )
G04 P1.00000 (Wait for spindle to get up to speed)
( Piece #1, position [0;0] )

G04 P0 ( dwell for no time -- G64 should not smooth over this point )
G00 Z0.08000 ( retract )

G00 X-6.98425 Y-3.60000 ( rapid move to begin. )
G01 Z-0.00512 F50.00000 ( plunge. )
G04 P0 ( dwell for no time -- G64 should not smooth over this point )
G01 F100.00000
G01 X-6.98425 Y-2.35000
G01 X-6.98482 Y-2.34424
G01 X-6.98650 Y-2.33870
G01 X-6.98923 Y-2.33359
G01 X-6.99290 Y-2.32912
G01 X-6.99737 Y-2.32545
G01 X-7.00248 Y-2.32272
G01 X-7.00802 Y-2.32104
G01 X-7.01378 Y-2.32047
G01 X-8.86378 Y-2.32047
G01 X-8.86954 Y-2.32104
G01 X-8.87508 Y-2.32272
G01 X-8.88018 Y-2.32545
G01 X-8.88466 Y-2.32912
G01 X-8.88833 Y-2.33359
G01 X-8.89106 Y-2.33870
G01 X-8.89274 Y-2.34424
G01 X-8.89331 Y-2.35000
G01 X-8.89331 Y-3.60000
G01 X-8.89274 Y-3.60576
G01 X-8.89106 Y-3.61130
G01 X-8.88833 Y-3.61640
G01 X-8.88466 Y-3.62088
G01 X-8.88018 Y-3.62455
G01 X-8.87508 Y-3.62728
G01 X-8.86954 Y-3.62896
G01 X-8.86378 Y-3.62953
G01 X-7.01378 Y-3.62953
G01 X-7.00802 Y-3.62896
G01 X-7.00248 Y-3.62728
G01 X-6.99737 Y-3.62455
G01 X-6.99290 Y-3.62088
G01 X-6.98923 Y-3.61640
G01 X-6.98650 Y-3.61130
G01 X-6.98482 Y-3.60576
G01 X-6.98425 Y-3.60000
( Piece #2, position [1;0] )

G04 P0 ( dwell for no time -- G64 should not smooth over this point )
G00 Z0.08000 ( retract )

G00 X-5.00236 Y-3.60000 ( rapid move to begin. )
G01 Z-0.00512 F50.00000 ( plunge. )
G04 P0 ( dwell for no time -- G64 should not smooth over this point )
G01 F100.00000
G01 X-5.00236 Y-2.35000
G01 X-5.00293 Y-2.34424
G01 X-5.00461 Y-2.33870
G01 X-5.00734 Y-2.33359
G01 X-5.01101 Y-2.32912
G01 X-5.01548 Y-2.32545
G01 X-5.02059 Y-2.32272
G01 X-5.02613 Y-2.32104
G01 X-5.03189 Y-2.32047
G01 X-6.88189 Y-2.32047
G01 X-6.88765 Y-2.32104
G01 X-6.89319 Y-2.32272
G01 X-6.89829 Y-2.32545
G01 X-6.90277 Y-2.32912
G01 X-6.90644 Y-2.33359
G01 X-6.90917 Y-2.33870
G01 X-6.91085 Y-2.34424
G01 X-6.91142 Y-2.35000
G01 X-6.91142 Y-3.60000
G01 X-6.91085 Y-3.60576
G01 X-6.90917 Y-3.61130
G01 X-6.90644 Y-3.61640
G01 X-6.90277 Y-3.62088
G01 X-6.89829 Y-3.62455
G01 X-6.89319 Y-3.62728
G01 X-6.88765 Y-3.62896
G01 X-6.88189 Y-3.62953
G01 X-5.03189 Y-3.62953
G01 X-5.02613 Y-3.62896
G01 X-5.02059 Y-3.62728
G01 X-5.01548 Y-3.62455
G01 X-5.01101 Y-3.62088
G01 X-5.00734 Y-3.61640
G01 X-5.00461 Y-3.61130
G01 X-5.00293 Y-3.60576
G01 X-5.00236 Y-3.60000
( Piece #3, position [2;0] )

G04 P0 ( dwell for no time -- G64 should not smooth over this point )
G00 Z0.08000 ( retract )

G00 X-3.02047 Y-3.60000 ( rapid move to begin. )
G01 Z-0.00512 F50.00000 ( plunge. )
G04 P0 ( dwell for no time -- G64 should not smooth over this point )
G01 F100.00000
G01 X-3.02047 Y-2.35000
G01 X-3.02104 Y-2.34424
G01 X-3.02272 Y-2.33870
G01 X-3.02545 Y-2.33359
G01 X-3.02912 Y-2.32912
G01 X-3.03360 Y-2.32545
G01 X-3.03870 Y-2.32272
G01 X-3.04424 Y-2.32104
G01 X-3.05000 Y-2.32047
G01 X-4.90000 Y-2.32047
G01 X-4.90576 Y-2.32104
G01 X-4.91130 Y-2.32272
G01 X-4.91640 Y-2.32545
G01 X-4.92088 Y-2.32912
G01 X-4.92455 Y-2.33359
G01 X-4.92728 Y-2.33870
G01 X-4.92896 Y-2.34424
G01 X-4.92953 Y-2.35000
G01 X-4.92953 Y-3.60000
G01 X-4.92896 Y-3.60576
G01 X-4.92728 Y-3.61130
G01 X-4.92455 Y-3.61640
G01 X-4.92088 Y-3.62088
G01 X-4.91640 Y-3.62455
G01 X-4.91130 Y-3.62728
G01 X-4.90576 Y-3.62896
G01 X-4.90000 Y-3.62953
G01 X-3.05000 Y-3.62953
G01 X-3.04424 Y-3.62896
G01 X-3.03870 Y-3.62728
G01 X-3.03360 Y-3.62455
G01 X-3.02912 Y-3.62088
G01 X-3.02545 Y-3.61640
G01 X-3.02272 Y-3.61130
G01 X-3.02104 Y-3.60576
G01 X-3.02047 Y-3.60000
( Piece #4, position [0;1] )

G04 P0 ( dwell for no time -- G64 should not smooth over this point )
G00 Z0.08000 ( retract )

G00 X-3.02047 Y-2.21811 ( rapid move to begin. )
G01 Z-0.00512 F50.00000 ( plunge. )
G04 P0 ( dwell for no time -- G64 should not smooth over this point )
G01 F100.00000
G01 X-3.02047 Y-0.96811
G01 X-3.02104 Y-0.96235
G01 X-3.02272 Y-0.95681
G01 X-3.02545 Y-0.95171
G01 X-3.02912 Y-0.94723
G01 X-3.03360 Y-0.94356
G01 X-3.03870 Y-0.94083
G01 X-3.04424 Y-0.93915
G01 X-3.05000 Y-0.93858
G01 X-4.90000 Y-0.93858
G01 X-4.90576 Y-0.93915
G01 X-4.91130 Y-0.94083
G01 X-4.91640 Y-0.94356
G01 X-4.92088 Y-0.94723
G01 X-4.92455 Y-0.95171
G01 X-4.92728 Y-0.95681
G01 X-4.92896 Y-0.96235
G01 X-4.92953 Y-0.96811
G01 X-4.92953 Y-2.21811
G01 X-4.92896 Y-2.22387
G01 X-4.92728 Y-2.22941
G01 X-4.92455 Y-2.23451
G01 X-4.92088 Y-2.23899
G01 X-4.91640 Y-2.24266
G01 X-4.91130 Y-2.24539
G01 X-4.90576 Y-2.24707
G01 X-4.90000 Y-2.24764
G01 X-3.05000 Y-2.24764
G01 X-3.04424 Y-2.24707
G01 X-3.03870 Y-2.24539
G01 X-3.03360 Y-2.24266
G01 X-3.02912 Y-2.23899
G01 X-3.02545 Y-2.23451
G01 X-3.02272 Y-2.22941
G01 X-3.02104 Y-2.22387
G01 X-3.02047 Y-2.21811
( Piece #5, position [1;1] )

G04 P0 ( dwell for no time -- G64 should not smooth over this point )
G00 Z0.08000 ( retract )

G00 X-5.00236 Y-2.21811 ( rapid move to begin. )
G01 Z-0.00512 F50.00000 ( plunge. )
G04 P0 ( dwell for no time -- G64 should not smooth over this point )
G01 F100.00000
G01 X-5.00236 Y-0.96811
G01 X-5.00293 Y-0.96235
G01 X-5.00461 Y-0.95681
G01 X-5.00734 Y-0.95171
G01 X-5.01101 Y-0.94723
G01 X-5.01548 Y-0.94356
G01 X-5.02059 Y-0.94083
G01 X-5.02613 Y-0.93915
G01 X-5.03189 Y-0.93858
G01 X-6.88189 Y-0.93858
G01 X-6.88765 Y-0.93915
G01 X-6.89319 Y-0.94083
G01 X-6.89829 Y-0.94356
G01 X-6.90277 Y-0.94723
G01 X-6.90644 Y-0.95171
G01 X-6.90917 Y-0.95681
G01 X-6.91085 Y-0.96235
G01 X-6.91142 Y-0.96811
G01 X-6.91142 Y-2.21811
G01 X-6.91085 Y-2.22387
G01 X-6.90917 Y-2.22941
G01 X-6.90644 Y-2.23451
G01 X-6.90277 Y-2.23899
G01 X-6.89829 Y-2.24266
G01 X-6.89319 Y-2.24539
G01 X-6.88765 Y-2.24707
G01 X-6.88189 Y-2.24764
G01 X-5.03189 Y-2.24764
G01 X-5.02613 Y-2.24707
G01 X-5.02059 Y-2.24539
G01 X-5.01548 Y-2.24266
G01 X-5.01101 Y-2.23899
G01 X-5.00734 Y-2.23451
G01 X-5.00461 Y-2.22941
G01 X-5.00293 Y-2.22387
G01 X-5.00236 Y-2.21811
( Piece #6, position [2;1] )

G04 P0 ( dwell for no time -- G64 should not smooth over this point )
G00 Z0.08000 ( retract )

G00 X-6.98425 Y-2.21811 ( rapid move to begin. )
G01 Z-0.00512 F50.00000 ( plunge. )
G04 P0 ( dwell for no time -- G64 should not smooth over this point )
G01 F100.00000
G01 X-6.98425 Y-0.96811
G01 X-6.98482 Y-0.96235
G01 X-6.98650 Y-0.95681
G01 X-6.98923 Y-0.95171
G01 X-6.99290 Y-0.94723
G01 X-6.99737 Y-0.94356
G01 X-7.00248 Y-0.94083
G01 X-7.00802 Y-0.93915
G01 X-7.01378 Y-0.93858
G01 X-8.86378 Y-0.93858
G01 X-8.86954 Y-0.93915
G01 X-8.87508 Y-0.94083
G01 X-8.88018 Y-0.94356
G01 X-8.88466 Y-0.94723
G01 X-8.88833 Y-0.95171
G01 X-8.89106 Y-0.95681
G01 X-8.89274 Y-0.96235
G01 X-8.89331 Y-0.96811
G01 X-8.89331 Y-2.21811
G01 X-8.89274 Y-2.22387
G01 X-8.89106 Y-2.22941
G01 X-8.88833 Y-2.23451
G01 X-8.88466 Y-2.23899
G01 X-8.88018 Y-2.24266
G01 X-8.87508 Y-2.24539
G01 X-8.86954 Y-2.24707
G01 X-8.86378 Y-2.24764
G01 X-7.01378 Y-2.24764
G01 X-7.00802 Y-2.24707
G01 X-7.00248 Y-2.24539
G01 X-6.99737 Y-2.24266
G01 X-6.99290 Y-2.23899
G01 X-6.98923 Y-2.23451
G01 X-6.98650 Y-2.22941
G01 X-6.98482 Y-2.22387
G01 X-6.98425 Y-2.21811

G04 P0 ( dwell for no time -- G64 should not smooth over this point )
G00 Z1.000000 ( retract )

M5 ( Spindle off. )
G04 P1.000000
M9 ( Coolant off. )
M2 ( Program end. )

