( pcb2gcode 2.4.0 )
( Software-independent Gcode )

G94 ( Inches per minute feed rate. )
G20 ( Units == INCHES. )

G90 ( Absolute coordinates. )
G00 S10000 ( RPM spindle speed. )
G64 P0.00040 ( set maximum deviation from commanded toolpath )
G01 F100.00000 ( Feedrate. )


G00 Z1.00000 (Retract to tool change height)
T0
M5      (Spindle stop.)
G04 P1.00000 (Wait for spindle to stop)
(MSG, Change tool bit to cutter diameter 0.05906in)
M6      (Tool change.)
M0      (Temporary machine stop.)
M3 ( Spindle on clockwise. )
G04 P1.00000 (Wait for spindle to get up to speed)
( Piece #1, position [0;0] )

G04 P0 ( dwell for no time -- G64 should not smooth over this point )
G00 Z0.08000 ( retract )

G00 X-6.96850 Y-3.60000 ( rapid move to begin. )
G01 Z-0.00512 F50.00000 ( plunge. )
G04 P0 ( dwell for no time -- G64 should not smooth over this point )
G01 F100.00000
G01 X-6.96850 Y-2.35000
G01 X-6.96907 Y-2.34424
G01 X-6.97075 Y-2.33870
G01 X-6.97348 Y-2.33359
G01 X-6.97715 Y-2.32912
G01 X-6.98163 Y-2.32545
G01 X-6.98673 Y-2.32272
G01 X-6.99227 Y-2.32104
G01 X-6.99803 Y-2.32047
G01 X-8.84803 Y-2.32047
G01 X-8.85379 Y-2.32104
G01 X-8.85933 Y-2.32272
G01 X-8.86444 Y-2.32545
G01 X-8.86891 Y-2.32912
G01 X-8.87258 Y-2.33359
G01 X-8.87531 Y-2.33870
G01 X-8.87699 Y-2.34424
G01 X-8.87756 Y-2.35000
G01 X-8.87756 Y-3.60000
G01 X-8.87699 Y-3.60576
G01 X-8.87531 Y-3.61130
G01 X-8.87258 Y-3.61640
G01 X-8.86891 Y-3.62088
G01 X-8.86444 Y-3.62455
G01 X-8.85933 Y-3.62728
G01 X-8.85379 Y-3.62896
G01 X-8.84803 Y-3.62953
G01 X-6.99803 Y-3.62953
G01 X-6.99227 Y-3.62896
G01 X-6.98673 Y-3.62728
G01 X-6.98163 Y-3.62455
G01 X-6.97715 Y-3.62088
G01 X-6.97348 Y-3.61640
G01 X-6.97075 Y-3.61130
G01 X-6.96907 Y-3.60576
G01 X-6.96850 Y-3.60000
( Piece #2, position [1;0] )

G04 P0 ( dwell for no time -- G64 should not smooth over this point )
G00 Z0.08000 ( retract )

G00 X-4.99449 Y-3.60000 ( rapid move to begin. )
G01 Z-0.00512 F50.00000 ( plunge. )
G04 P0 ( dwell for no time -- G64 should not smooth over this point )
G01 F100.00000
G01 X-4.99449 Y-2.35000
G01 X-4.99505 Y-2.34424
G01 X-4.99674 Y-2.33870
G01 X-4.99946 Y-2.33359
G01 X-5.00314 Y-2.32912
G01 X-5.00761 Y-2.32545
G01 X-5.01272 Y-2.32272
G01 X-5.01825 Y-2.32104
G01 X-5.02402 Y-2.32047
G01 X-6.87402 Y-2.32047
G01 X-6.87978 Y-2.32104
G01 X-6.88531 Y-2.32272
G01 X-6.89042 Y-2.32545
G01 X-6.89489 Y-2.32912
G01 X-6.89857 Y-2.33359
G01 X-6.90129 Y-2.33870
G01 X-6.90298 Y-2.34424
G01 X-6.90354 Y-2.35000
G01 X-6.90354 Y-3.60000
G01 X-6.90298 Y-3.60576
G01 X-6.90129 Y-3.61130
G01 X-6.89857 Y-3.61640
G01 X-6.89489 Y-3.62088
G01 X-6.89042 Y-3.62455
G01 X-6.88531 Y-3.62728
G01 X-6.87978 Y-3.62896
G01 X-6.87402 Y-3.62953
G01 X-5.02402 Y-3.62953
G01 X-5.01825 Y-3.62896
G01 X-5.01272 Y-3.62728
G01 X-5.00761 Y-3.62455
G01 X-5.00314 Y-3.62088
G01 X-4.99946 Y-3.61640
G01 X-4.99674 Y-3.61130
G01 X-4.99505 Y-3.60576
G01 X-4.99449 Y-3.60000
( Piece #3, position [2;0] )

G04 P0 ( dwell for no time -- G64 should not smooth over this point )
G00 Z0.08000 ( retract )

G00 X-3.02047 Y-3.60000 ( rapid move to begin. )
G01 Z-0.00512 F50.00000 ( plunge. )
G04 P0 ( dwell for no time -- G64 should not smooth over this point )
G01 F100.00000
G01 X-3.02047 Y-2.35000
G01 X-3.02104 Y-2.34424
G01 X-3.02272 Y-2.33870
G01 X-3.02545 Y-2.33359
G01 X-3.02912 Y-2.32912
G01 X-3.03360 Y-2.32545
G01 X-3.03870 Y-2.32272
G01 X-3.04424 Y-2.32104
G01 X-3.05000 Y-2.32047
G01 X-4.90000 Y-2.32047
G01 X-4.90576 Y-2.32104
G01 X-4.91130 Y-2.32272
G01 X-4.91640 Y-2.32545
G01 X-4.92088 Y-2.32912
G01 X-4.92455 Y-2.33359
G01 X-4.92728 Y-2.33870
G01 X-4.92896 Y-2.34424
G01 X-4.92953 Y-2.35000
G01 X-4.92953 Y-3.60000
G01 X-4.92896 Y-3.60576
G01 X-4.92728 Y-3.61130
G01 X-4.92455 Y-3.61640
G01 X-4.92088 Y-3.62088
G01 X-4.91640 Y-3.62455
G01 X-4.91130 Y-3.62728
G01 X-4.90576 Y-3.62896
G01 X-4.90000 Y-3.62953
G01 X-3.05000 Y-3.62953
G01 X-3.04424 Y-3.62896
G01 X-3.03870 Y-3.62728
G01 X-3.03360 Y-3.62455
G01 X-3.02912 Y-3.62088
G01 X-3.02545 Y-3.61640
G01 X-3.02272 Y-3.61130
G01 X-3.02104 Y-3.60576
G01 X-3.02047 Y-3.60000
( Piece #4, position [0;1] )

G04 P0 ( dwell for no time -- G64 should not smooth over this point )
G00 Z0.08000 ( retract )

G00 X-3.02047 Y-2.22598 ( rapid move to begin. )
G01 Z-0.00512 F50.00000 ( plunge. )
G04 P0 ( dwell for no time -- G64 should not smooth over this point )
G01 F100.00000
G01 X-3.02047 Y-0.97598
G01 X-3.02104 Y-0.97022
G01 X-3.02272 Y-0.96468
G01 X-3.02545 Y-0.95958
G01 X-3.02912 Y-0.95510
G01 X-3.03360 Y-0.95143
G01 X-3.03870 Y-0.94870
G01 X-3.04424 Y-0.94702
G01 X-3.05000 Y-0.94646
G01 X-4.90000 Y-0.94646
G01 X-4.90576 Y-0.94702
G01 X-4.91130 Y-0.94870
G01 X-4.91640 Y-0.95143
G01 X-4.92088 Y-0.95510
G01 X-4.92455 Y-0.95958
G01 X-4.92728 Y-0.96468
G01 X-4.92896 Y-0.97022
G01 X-4.92953 Y-0.97598
G01 X-4.92953 Y-2.22598
G01 X-4.92896 Y-2.23174
G01 X-4.92728 Y-2.23728
G01 X-4.92455 Y-2.24239
G01 X-4.92088 Y-2.24686
G01 X-4.91640 Y-2.25054
G01 X-4.91130 Y-2.25326
G01 X-4.90576 Y-2.25494
G01 X-4.90000 Y-2.25551
G01 X-3.05000 Y-2.25551
G01 X-3.04424 Y-2.25494
G01 X-3.03870 Y-2.25326
G01 X-3.03360 Y-2.25054
G01 X-3.02912 Y-2.24686
G01 X-3.02545 Y-2.24239
G01 X-3.02272 Y-2.23728
G01 X-3.02104 Y-2.23174
G01 X-3.02047 Y-2.22598
( Piece #5, position [1;1] )

G04 P0 ( dwell for no time -- G64 should not smooth over this point )
G00 Z0.08000 ( retract )

G00 X-4.99449 Y-2.22598 ( rapid move to begin. )
G01 Z-0.00512 F50.00000 ( plunge. )
G04 P0 ( dwell for no time -- G64 should not smooth over this point )
G01 F100.00000
G01 X-4.99449 Y-0.97598
G01 X-4.99505 Y-0.97022
G01 X-4.99674 Y-0.96468
G01 X-4.99946 Y-0.95958
G01 X-5.00314 Y-0.95510
G01 X-5.00761 Y-0.95143
G01 X-5.01272 Y-0.94870
G01 X-5.01825 Y-0.94702
G01 X-5.02402 Y-0.94646
G01 X-6.87402 Y-0.94646
G01 X-6.87978 Y-0.94702
G01 X-6.88531 Y-0.94870
G01 X-6.89042 Y-0.95143
G01 X-6.89489 Y-0.95510
G01 X-6.89857 Y-0.95958
G01 X-6.90129 Y-0.96468
G01 X-6.90298 Y-0.97022
G01 X-6.90354 Y-0.97598
G01 X-6.90354 Y-2.22598
G01 X-6.90298 Y-2.23174
G01 X-6.90129 Y-2.23728
G01 X-6.89857 Y-2.24239
G01 X-6.89489 Y-2.24686
G01 X-6.89042 Y-2.25054
G01 X-6.88531 Y-2.25326
G01 X-6.87978 Y-2.25494
G01 X-6.87402 Y-2.25551
G01 X-5.02402 Y-2.25551
G01 X-5.01825 Y-2.25494
G01 X-5.01272 Y-2.25326
G01 X-5.00761 Y-2.25054
G01 X-5.00314 Y-2.24686
G01 X-4.99946 Y-2.24239
G01 X-4.99674 Y-2.23728
G01 X-4.99505 Y-2.23174
G01 X-4.99449 Y-2.22598
( Piece #6, position [2;1] )

G04 P0 ( dwell for no time -- G64 should not smooth over this point )
G00 Z0.08000 ( retract )

G00 X-6.96850 Y-2.22598 ( rapid move to begin. )
G01 Z-0.00512 F50.00000 ( plunge. )
G04 P0 ( dwell for no time -- G64 should not smooth over this point )
G01 F100.00000
G01 X-6.96850 Y-0.97598
G01 X-6.96907 Y-0.97022
G01 X-6.97075 Y-0.96468
G01 X-6.97348 Y-0.95958
G01 X-6.97715 Y-0.95510
G01 X-6.98163 Y-0.95143
G01 X-6.98673 Y-0.94870
G01 X-6.99227 Y-0.94702
G01 X-6.99803 Y-0.94646
G01 X-8.84803 Y-0.94646
G01 X-8.85379 Y-0.94702
G01 X-8.85933 Y-0.94870
G01 X-8.86444 Y-0.95143
G01 X-8.86891 Y-0.95510
G01 X-8.87258 Y-0.95958
G01 X-8.87531 Y-0.96468
G01 X-8.87699 Y-0.97022
G01 X-8.87756 Y-0.97598
G01 X-8.87756 Y-2.22598
G01 X-8.87699 Y-2.23174
G01 X-8.87531 Y-2.23728
G01 X-8.87258 Y-2.24239
G01 X-8.86891 Y-2.24686
G01 X-8.86444 Y-2.25054
G01 X-8.85933 Y-2.25326
G01 X-8.85379 Y-2.25494
G01 X-8.84803 Y-2.25551
G01 X-6.99803 Y-2.25551
G01 X-6.99227 Y-2.25494
G01 X-6.98673 Y-2.25326
G01 X-6.98163 Y-2.25054
G01 X-6.97715 Y-2.24686
G01 X-6.97348 Y-2.24239
G01 X-6.97075 Y-2.23728
G01 X-6.96907 Y-2.23174
G01 X-6.96850 Y-2.22598

G04 P0 ( dwell for no time -- G64 should not smooth over this point )
G00 Z1.000000 ( retract )

M5 ( Spindle off. )
G04 P1.000000
M9 ( Coolant off. )
M2 ( Program end. )

