( pcb2gcode 1.3.2 )
( Software-independent Gcode )

G94 ( Inches per minute feed rate. )
G20 ( Units == INCHES. )

G90 ( Absolute coordinates. )
G00 S12000 ( RPM spindle speed. )
G64 P0.00040 ( set maximum deviation from commanded toolpath )
G01 F360.00000 ( Feedrate. )


G00 Z1.00000 (Retract to tool change height)
T0
M5      (Spindle stop.)
G04 P1.00000 (Wait for spindle to stop)
(MSG, Change tool bit to mill diameter 0.03937in)
M6      (Tool change.)
M0      (Temporary machine stop.)
M3 ( Spindle on clockwise. )
G04 P1.00000 (Wait for spindle to get up to speed)
G04 P0 ( dwell for no time -- G64 should not smooth over this point )
G00 Z0.08000 ( retract )

G00 X-5.40571 Y-4.20000 ( rapid move to begin. )
G01 F180.00000
G01 Z-0.04000
G04 P0 ( dwell for no time -- G64 should not smooth over this point )
G01 F360.00000
G01 X-5.40571 Y-4.20000
G01 X-5.40684 Y-4.19043
G01 X-5.40908 Y-4.18305
G01 X-5.41272 Y-4.17624
G01 X-5.41868 Y-4.16868
G01 X-5.91868 Y-3.66868
G01 X-5.92254 Y-3.66528
G01 X-5.92945 Y-3.66079
G01 X-5.93413 Y-3.65865
G01 X-5.93904 Y-3.65711
G01 X-5.94820 Y-3.65577
G01 X-5.95642 Y-3.65620
G01 X-5.96146 Y-3.65722
G01 X-5.96634 Y-3.65886
G01 X-5.97454 Y-3.66316
G01 X-5.98166 Y-3.66906
G01 X-5.98684 Y-3.67546
G01 X-5.99114 Y-3.68366
G01 X-5.99380 Y-3.69358
G01 X-5.99418 Y-3.70283
G01 X-5.99289 Y-3.71096
G01 X-5.99135 Y-3.71587
G01 X-5.98921 Y-3.72055
G01 X-5.98472 Y-3.72746
G01 X-5.55693 Y-4.15571
G01 X-6.89307 Y-4.15571
G01 X-6.46528 Y-3.72746
G01 X-6.46079 Y-3.72055
G01 X-6.45865 Y-3.71587
G01 X-6.45711 Y-3.71096
G01 X-6.45582 Y-3.70283
G01 X-6.45620 Y-3.69358
G01 X-6.45886 Y-3.68366
G01 X-6.46316 Y-3.67546
G01 X-6.46834 Y-3.66906
G01 X-6.47546 Y-3.66316
G01 X-6.48366 Y-3.65886
G01 X-6.48854 Y-3.65722
G01 X-6.49358 Y-3.65620
G01 X-6.50180 Y-3.65577
G01 X-6.51096 Y-3.65711
G01 X-6.51587 Y-3.65865
G01 X-6.52055 Y-3.66079
G01 X-6.52746 Y-3.66528
G01 X-6.53132 Y-3.66868
G01 X-7.03132 Y-4.16868
G01 X-7.03728 Y-4.17624
G01 X-7.04092 Y-4.18305
G01 X-7.04316 Y-4.19043
G01 X-7.04429 Y-4.20000
G01 X-7.04316 Y-4.20956
G01 X-7.04092 Y-4.21695
G01 X-7.03728 Y-4.22376
G01 X-7.03132 Y-4.23132
G01 X-7.02376 Y-4.23728
G01 X-7.01695 Y-4.24092
G01 X-7.00956 Y-4.24316
G01 X-7.00000 Y-4.24429
G01 X-5.45000 Y-4.24429
G01 X-5.44043 Y-4.24316
G01 X-5.43305 Y-4.24092
G01 X-5.42624 Y-4.23728
G01 X-5.41868 Y-4.23132
G01 X-5.41272 Y-4.22376
G01 X-5.40908 Y-4.21695
G01 X-5.40684 Y-4.20956
G01 X-5.40571 Y-4.20000
G01 X-5.42539 Y-4.20000
G01 X-5.42727 Y-4.20942
G01 X-5.43260 Y-4.21740
G01 X-5.44058 Y-4.22273
G01 X-5.45000 Y-4.22461
G01 X-7.00000 Y-4.22461
G01 X-7.00942 Y-4.22273
G01 X-7.01740 Y-4.21740
G01 X-7.02273 Y-4.20942
G01 X-7.02461 Y-4.20000
G01 X-7.02273 Y-4.19058
G01 X-7.01740 Y-4.18260
G01 X-6.51740 Y-3.68260
G01 X-6.51162 Y-3.67833
G01 X-6.50882 Y-3.67703
G01 X-6.50077 Y-3.67543
G01 X-6.49363 Y-3.67623
G01 X-6.48704 Y-3.67910
G01 X-6.48226 Y-3.68298
G01 X-6.47910 Y-3.68704
G01 X-6.47724 Y-3.69071
G01 X-6.47580 Y-3.69565
G01 X-6.47548 Y-3.70180
G01 X-6.47703 Y-3.70882
G01 X-6.48122 Y-3.71587
G01 X-6.94060 Y-4.17539
G01 X-5.50940 Y-4.17539
G01 X-5.96878 Y-3.71587
G01 X-5.97297 Y-3.70882
G01 X-5.97452 Y-3.70180
G01 X-5.97420 Y-3.69565
G01 X-5.97276 Y-3.69071
G01 X-5.97089 Y-3.68704
G01 X-5.96774 Y-3.68298
G01 X-5.96296 Y-3.67910
G01 X-5.95637 Y-3.67623
G01 X-5.94923 Y-3.67543
G01 X-5.94118 Y-3.67703
G01 X-5.93838 Y-3.67833
G01 X-5.93260 Y-3.68260
G01 X-5.43260 Y-4.18260
G01 X-5.42727 Y-4.19058
G01 X-5.42539 Y-4.20000

G04 P0 ( dwell for no time -- G64 should not smooth over this point )
G00 Z1.000 ( retract )

M5 ( Spindle off. )
G04 P1.000000

G00 Z1.00000 (Retract to tool change height)
T1
M5      (Spindle stop.)
G04 P1.00000 (Wait for spindle to stop)
(MSG, Change tool bit to mill diameter 0.00394in)
M6      (Tool change.)
M0      (Temporary machine stop.)
M3 ( Spindle on clockwise. )
G04 P1.00000 (Wait for spindle to get up to speed)
G04 P0 ( dwell for no time -- G64 should not smooth over this point )
G00 Z0.08000 ( retract )

G00 X-6.95764 Y-4.18130 ( rapid move to begin. )
G01 F180.00000
G01 Z-0.04000
G04 P0 ( dwell for no time -- G64 should not smooth over this point )
G01 F360.00000
G01 X-6.95764 Y-4.18130
G01 X-6.95960 Y-4.18327
G01 X-6.95682 Y-4.18327
G01 X-6.95828 Y-4.17916
G01 X-6.96436 Y-4.18523
G01 X-6.95577 Y-4.18523
G01 X-6.95858 Y-4.17667
G01 X-6.96911 Y-4.18720
G01 X-6.95421 Y-4.18720
G01 X-6.95855 Y-4.17386
G01 X-6.97386 Y-4.18917
G01 X-6.95221 Y-4.18917
G01 X-6.95793 Y-4.17046
G01 X-6.97861 Y-4.19114
G01 X-6.94936 Y-4.19114
G01 X-6.95573 Y-4.16547
G01 X-6.98337 Y-4.19311
G01 X-5.46663 Y-4.19311
G01 X-5.49427 Y-4.16547
G01 X-5.50064 Y-4.19114
G01 X-5.47138 Y-4.19114
G01 X-5.49207 Y-4.17046
G01 X-5.49779 Y-4.18917
G01 X-5.47614 Y-4.18917
G01 X-5.49144 Y-4.17387
G01 X-5.49578 Y-4.18720
G01 X-5.48089 Y-4.18720
G01 X-5.49142 Y-4.17667
G01 X-5.49423 Y-4.18523
G01 X-5.48564 Y-4.18523
G01 X-5.49172 Y-4.17916
G01 X-5.49318 Y-4.18327
G01 X-5.49040 Y-4.18327
G01 X-5.49236 Y-4.18130

G04 P0 ( dwell for no time -- G64 should not smooth over this point )
G00 Z1.000 ( retract )

M5 ( Spindle off. )
G04 P1.000000
M9 ( Coolant off. )
M2 ( Program end. )

