( pcb2gcode 2.0.0 )
( Software-independent Gcode )

G94 ( Inches per minute feed rate. )
G20 ( Units == INCHES. )

G90 ( Absolute coordinates. )
G00 S12000 ( RPM spindle speed. )
G64 P0.00040 ( set maximum deviation from commanded toolpath )
G01 F360.00000 ( Feedrate. )


G00 Z1.00000 (Retract to tool change height)
T0
M5      (Spindle stop.)
G04 P1.00000 (Wait for spindle to stop)
(MSG, Change tool bit to mill diameter 0.03937in)
M6      (Tool change.)
M0      (Temporary machine stop.)
M3 ( Spindle on clockwise. )
G04 P1.00000 (Wait for spindle to get up to speed)
G04 P0 ( dwell for no time -- G64 should not smooth over this point )
G00 Z0.08000 ( retract )

G00 X-5.40571 Y-4.20000 ( rapid move to begin. )
G01 F180.00000
( Mill infeed pass 1/1 )
G01 Z-0.04000
G04 P0 ( dwell for no time -- G64 should not smooth over this point )
G01 F360.00000
G01 X-5.40571 Y-4.20000
G01 X-5.40646 Y-4.19232
G01 X-5.40684 Y-4.19043
G01 X-5.40908 Y-4.18305
G01 X-5.41272 Y-4.17624
G01 X-5.41609 Y-4.17154
G01 X-5.41868 Y-4.16868
G01 X-5.91868 Y-3.66868
G01 X-5.92465 Y-3.66378
G01 X-5.93070 Y-3.66014
G01 X-5.93546 Y-3.65817
G01 X-5.94043 Y-3.65684
G01 X-5.94742 Y-3.65579
G01 X-5.95257 Y-3.65579
G01 X-5.95956 Y-3.65684
G01 X-5.96515 Y-3.65838
G01 X-5.97129 Y-3.66119
G01 X-5.97619 Y-3.66429
G01 X-5.98057 Y-3.66807
G01 X-5.98193 Y-3.66943
G01 X-5.98571 Y-3.67381
G01 X-5.98927 Y-3.67956
G01 X-5.99222 Y-3.68669
G01 X-5.99377 Y-3.69326
G01 X-5.99420 Y-3.69904
G01 X-5.99420 Y-3.70096
G01 X-5.99344 Y-3.70864
G01 X-5.99120 Y-3.71603
G01 X-5.99047 Y-3.71780
G01 X-5.98786 Y-3.72297
G01 X-5.98452 Y-3.72771
G01 X-5.98132 Y-3.73132
G01 X-5.55693 Y-4.15571
G01 X-6.89307 Y-4.15571
G01 X-6.46868 Y-3.73132
G01 X-6.46547 Y-3.72771
G01 X-6.46214 Y-3.72297
G01 X-6.45953 Y-3.71780
G01 X-6.45880 Y-3.71603
G01 X-6.45656 Y-3.70864
G01 X-6.45580 Y-3.70096
G01 X-6.45580 Y-3.69904
G01 X-6.45623 Y-3.69326
G01 X-6.45778 Y-3.68669
G01 X-6.46073 Y-3.67956
G01 X-6.46429 Y-3.67381
G01 X-6.46807 Y-3.66943
G01 X-6.46943 Y-3.66807
G01 X-6.47381 Y-3.66429
G01 X-6.47871 Y-3.66119
G01 X-6.48485 Y-3.65838
G01 X-6.49043 Y-3.65684
G01 X-6.49742 Y-3.65579
G01 X-6.50257 Y-3.65579
G01 X-6.50956 Y-3.65684
G01 X-6.51454 Y-3.65817
G01 X-6.51930 Y-3.66014
G01 X-6.52535 Y-3.66378
G01 X-6.53132 Y-3.66868
G01 X-7.03132 Y-4.16868
G01 X-7.03391 Y-4.17154
G01 X-7.03728 Y-4.17624
G01 X-7.04092 Y-4.18305
G01 X-7.04316 Y-4.19043
G01 X-7.04353 Y-4.19232
G01 X-7.04429 Y-4.20000
G01 X-7.04353 Y-4.20768
G01 X-7.04316 Y-4.20956
G01 X-7.04092 Y-4.21695
G01 X-7.03728 Y-4.22376
G01 X-7.03308 Y-4.22944
G01 X-7.02944 Y-4.23308
G01 X-7.02535 Y-4.23621
G01 X-7.02376 Y-4.23728
G01 X-7.01695 Y-4.24092
G01 X-7.00956 Y-4.24316
G01 X-7.00768 Y-4.24353
G01 X-7.00000 Y-4.24429
G01 X-5.45000 Y-4.24429
G01 X-5.44232 Y-4.24353
G01 X-5.44043 Y-4.24316
G01 X-5.43305 Y-4.24092
G01 X-5.42624 Y-4.23728
G01 X-5.42056 Y-4.23308
G01 X-5.41692 Y-4.22944
G01 X-5.41272 Y-4.22376
G01 X-5.40908 Y-4.21695
G01 X-5.40684 Y-4.20956
G01 X-5.40646 Y-4.20768
G01 X-5.40571 Y-4.20000
G01 X-5.42539 Y-4.20000
G01 X-5.42577 Y-4.20384
G01 X-5.42615 Y-4.20572
G01 X-5.42727 Y-4.20942
G01 X-5.42908 Y-4.21282
G01 X-5.43015 Y-4.21442
G01 X-5.43172 Y-4.21646
G01 X-5.43354 Y-4.21828
G01 X-5.43718 Y-4.22091
G01 X-5.44058 Y-4.22273
G01 X-5.44428 Y-4.22385
G01 X-5.44616 Y-4.22423
G01 X-5.45000 Y-4.22461
G01 X-7.00000 Y-4.22461
G01 X-7.00384 Y-4.22423
G01 X-7.00572 Y-4.22385
G01 X-7.00942 Y-4.22273
G01 X-7.01282 Y-4.22091
G01 X-7.01646 Y-4.21828
G01 X-7.01828 Y-4.21646
G01 X-7.01985 Y-4.21442
G01 X-7.02091 Y-4.21282
G01 X-7.02273 Y-4.20942
G01 X-7.02385 Y-4.20572
G01 X-7.02423 Y-4.20384
G01 X-7.02461 Y-4.20000
G01 X-7.02423 Y-4.19616
G01 X-7.02385 Y-4.19428
G01 X-7.02273 Y-4.19058
G01 X-7.02091 Y-4.18718
G01 X-7.01870 Y-4.18403
G01 X-7.01740 Y-4.18260
G01 X-6.51740 Y-3.68260
G01 X-6.51442 Y-3.68015
G01 X-6.51059 Y-3.67780
G01 X-6.50821 Y-3.67681
G01 X-6.50572 Y-3.67615
G01 X-6.50129 Y-3.67543
G01 X-6.49871 Y-3.67543
G01 X-6.49428 Y-3.67615
G01 X-6.49148 Y-3.67692
G01 X-6.48799 Y-3.67855
G01 X-6.48554 Y-3.68010
G01 X-6.48199 Y-3.68335
G01 X-6.48010 Y-3.68554
G01 X-6.47809 Y-3.68884
G01 X-6.47661 Y-3.69240
G01 X-6.47570 Y-3.69615
G01 X-6.47549 Y-3.70096
G01 X-6.47587 Y-3.70480
G01 X-6.47699 Y-3.70849
G01 X-6.47772 Y-3.71027
G01 X-6.47902 Y-3.71285
G01 X-6.48130 Y-3.71597
G01 X-6.94060 Y-4.17539
G01 X-5.50940 Y-4.17539
G01 X-5.96870 Y-3.71597
G01 X-5.97098 Y-3.71285
G01 X-5.97228 Y-3.71027
G01 X-5.97301 Y-3.70849
G01 X-5.97413 Y-3.70480
G01 X-5.97451 Y-3.70096
G01 X-5.97430 Y-3.69615
G01 X-5.97338 Y-3.69240
G01 X-5.97191 Y-3.68884
G01 X-5.96990 Y-3.68554
G01 X-5.96801 Y-3.68335
G01 X-5.96446 Y-3.68010
G01 X-5.96201 Y-3.67855
G01 X-5.95851 Y-3.67692
G01 X-5.95572 Y-3.67615
G01 X-5.95129 Y-3.67543
G01 X-5.94871 Y-3.67543
G01 X-5.94428 Y-3.67615
G01 X-5.94179 Y-3.67681
G01 X-5.93941 Y-3.67780
G01 X-5.93558 Y-3.68015
G01 X-5.93260 Y-3.68260
G01 X-5.43260 Y-4.18260
G01 X-5.43130 Y-4.18403
G01 X-5.42908 Y-4.18718
G01 X-5.42727 Y-4.19058
G01 X-5.42615 Y-4.19428
G01 X-5.42577 Y-4.19616
G01 X-5.42539 Y-4.20000

G04 P0 ( dwell for no time -- G64 should not smooth over this point )
G00 Z1.000000 ( retract )

M5 ( Spindle off. )
G04 P1.000000

G00 Z1.00000 (Retract to tool change height)
T1
M5      (Spindle stop.)
G04 P1.00000 (Wait for spindle to stop)
(MSG, Change tool bit to mill diameter 0.00394in)
M6      (Tool change.)
M0      (Temporary machine stop.)
M3 ( Spindle on clockwise. )
G04 P1.00000 (Wait for spindle to get up to speed)
G04 P0 ( dwell for no time -- G64 should not smooth over this point )
G00 Z0.08000 ( retract )

G00 X-6.95685 Y-4.18327 ( rapid move to begin. )
G01 F180.00000
( Mill infeed pass 1/1 )
G01 Z-0.04000
G04 P0 ( dwell for no time -- G64 should not smooth over this point )
G01 F360.00000
G01 X-6.95685 Y-4.18327
G01 X-6.95960 Y-4.18327
G01 X-6.95766 Y-4.18132
G01 X-6.95824 Y-4.17912
G01 X-6.96436 Y-4.18523
G01 X-6.95571 Y-4.18523
G01 X-6.95424 Y-4.18720
G01 X-6.96911 Y-4.18720
G01 X-6.95860 Y-4.17669
G01 X-6.95861 Y-4.17393
G01 X-6.97386 Y-4.18917
G01 X-6.95230 Y-4.18917
G01 X-6.94945 Y-4.19114
G01 X-6.97861 Y-4.19114
G01 X-6.95799 Y-4.17052
G01 X-6.95568 Y-4.16542
G01 X-6.98337 Y-4.19311
G01 X-5.46663 Y-4.19311
G01 X-5.49432 Y-4.16542
G01 X-5.49200 Y-4.17052
G01 X-5.47138 Y-4.19114
G01 X-5.50055 Y-4.19114
G01 X-5.49770 Y-4.18917
G01 X-5.47614 Y-4.18917
G01 X-5.49138 Y-4.17393
G01 X-5.49140 Y-4.17669
G01 X-5.48089 Y-4.18720
G01 X-5.49575 Y-4.18720
G01 X-5.49429 Y-4.18523
G01 X-5.48564 Y-4.18523
G01 X-5.49176 Y-4.17912
G01 X-5.49234 Y-4.18132
G01 X-5.49040 Y-4.18327
G01 X-5.49314 Y-4.18327

G04 P0 ( dwell for no time -- G64 should not smooth over this point )
G00 Z1.000000 ( retract )

M5 ( Spindle off. )
G04 P1.000000
M9 ( Coolant off. )
M2 ( Program end. )

