( pcb2gcode 2.5.0 )
( Software-independent Gcode )

G94 ( Inches per minute feed rate. )
G20 ( Units == INCHES. )

G90 ( Absolute coordinates. )
G00 S12000 ( RPM spindle speed. )
G64 P0.00040 ( set maximum deviation from commanded toolpath )
G01 F360.00000 ( Feedrate. )


G00 Z1.00000 (Retract to tool change height)
T0
M5      (Spindle stop.)
G04 P1.00000 (Wait for spindle to stop)
(MSG, Change tool bit to mill diameter 0.03937in)
M6      (Tool change.)
M0      (Temporary machine stop.)
M3 ( Spindle on clockwise. )
G04 P1.00000 (Wait for spindle to get up to speed)
G04 P0 ( dwell for no time -- G64 should not smooth over this point )
G00 Z0.08000 ( retract )

G00 X-5.40572 Y-4.20000 ( rapid move to begin. )
G01 F180.00000
( Mill infeed pass 1/1 )
G01 Z-0.04000
G04 P0 ( dwell for no time -- G64 should not smooth over this point )
G01 F360.00000
G01 X-5.40572 Y-4.20000
G01 X-5.40647 Y-4.19232
G01 X-5.40685 Y-4.19044
G01 X-5.40909 Y-4.18305
G01 X-5.41272 Y-4.17625
G01 X-5.41379 Y-4.17465
G01 X-5.41869 Y-4.16869
G01 X-5.91869 Y-3.66869
G01 X-5.92465 Y-3.66379
G01 X-5.92625 Y-3.66272
G01 X-5.93305 Y-3.65909
G01 X-5.94044 Y-3.65685
G01 X-5.94232 Y-3.65647
G01 X-5.94807 Y-3.65576
G01 X-5.95482 Y-3.65600
G01 X-5.96602 Y-3.65881
G01 X-5.96780 Y-3.65954
G01 X-5.97297 Y-3.66215
G01 X-5.97845 Y-3.66609
G01 X-5.98621 Y-3.67465
G01 X-5.98728 Y-3.67625
G01 X-5.99013 Y-3.68129
G01 X-5.99249 Y-3.68761
G01 X-5.99419 Y-3.69904
G01 X-5.99419 Y-3.70096
G01 X-5.99249 Y-3.71239
G01 X-5.99013 Y-3.71871
G01 X-5.98728 Y-3.72375
G01 X-5.98621 Y-3.72535
G01 X-5.98131 Y-3.73131
G01 X-5.55691 Y-4.15572
G01 X-5.52758 Y-4.16786
G01 X-5.55691 Y-4.15572
G01 X-6.89309 Y-4.15572
G01 X-6.92239 Y-4.16786
G01 X-6.89309 Y-4.15572
G01 X-6.46869 Y-3.73131
G01 X-6.46548 Y-3.72770
G01 X-6.46215 Y-3.72297
G01 X-6.45954 Y-3.71780
G01 X-6.45881 Y-3.71602
G01 X-6.45657 Y-3.70864
G01 X-6.45581 Y-3.70096
G01 X-6.45581 Y-3.69904
G01 X-6.45751 Y-3.68761
G01 X-6.46074 Y-3.67956
G01 X-6.46429 Y-3.67382
G01 X-6.46807 Y-3.66943
G01 X-6.46943 Y-3.66807
G01 X-6.47540 Y-3.66318
G01 X-6.48220 Y-3.65954
G01 X-6.48398 Y-3.65881
G01 X-6.49518 Y-3.65600
G01 X-6.50193 Y-3.65576
G01 X-6.50768 Y-3.65647
G01 X-6.50956 Y-3.65685
G01 X-6.51695 Y-3.65909
G01 X-6.52375 Y-3.66272
G01 X-6.52535 Y-3.66379
G01 X-6.53131 Y-3.66869
G01 X-7.03131 Y-4.16869
G01 X-7.03621 Y-4.17465
G01 X-7.03728 Y-4.17625
G01 X-7.04091 Y-4.18305
G01 X-7.04315 Y-4.19044
G01 X-7.04353 Y-4.19232
G01 X-7.04428 Y-4.20000
G01 X-7.04353 Y-4.20768
G01 X-7.04315 Y-4.20956
G01 X-7.04091 Y-4.21695
G01 X-7.03728 Y-4.22375
G01 X-7.03621 Y-4.22535
G01 X-7.03131 Y-4.23131
G01 X-7.02535 Y-4.23621
G01 X-7.02375 Y-4.23728
G01 X-7.01695 Y-4.24091
G01 X-7.00956 Y-4.24315
G01 X-7.00768 Y-4.24353
G01 X-7.00000 Y-4.24428
G01 X-5.45000 Y-4.24428
G01 X-5.44232 Y-4.24353
G01 X-5.44044 Y-4.24315
G01 X-5.43305 Y-4.24091
G01 X-5.42625 Y-4.23728
G01 X-5.42465 Y-4.23621
G01 X-5.41869 Y-4.23131
G01 X-5.41379 Y-4.22535
G01 X-5.41272 Y-4.22375
G01 X-5.40909 Y-4.21695
G01 X-5.40685 Y-4.20956
G01 X-5.40647 Y-4.20768
G01 X-5.40572 Y-4.20000
G01 X-5.42539 Y-4.20000
G01 X-5.42577 Y-4.20384
G01 X-5.42615 Y-4.20572
G01 X-5.42727 Y-4.20942
G01 X-5.42908 Y-4.21282
G01 X-5.43015 Y-4.21442
G01 X-5.43260 Y-4.21740
G01 X-5.43558 Y-4.21985
G01 X-5.43718 Y-4.22091
G01 X-5.44058 Y-4.22273
G01 X-5.44428 Y-4.22385
G01 X-5.44616 Y-4.22423
G01 X-5.45000 Y-4.22461
G01 X-7.00000 Y-4.22461
G01 X-7.00384 Y-4.22423
G01 X-7.00572 Y-4.22385
G01 X-7.00942 Y-4.22273
G01 X-7.01282 Y-4.22091
G01 X-7.01442 Y-4.21985
G01 X-7.01740 Y-4.21740
G01 X-7.01985 Y-4.21442
G01 X-7.02091 Y-4.21282
G01 X-7.02273 Y-4.20942
G01 X-7.02385 Y-4.20572
G01 X-7.02423 Y-4.20384
G01 X-7.02461 Y-4.20000
G01 X-7.02423 Y-4.19616
G01 X-7.02385 Y-4.19428
G01 X-7.02273 Y-4.19058
G01 X-7.02091 Y-4.18718
G01 X-7.01985 Y-4.18558
G01 X-7.01740 Y-4.18260
G01 X-6.51740 Y-3.68260
G01 X-6.51442 Y-3.68015
G01 X-6.51282 Y-3.67909
G01 X-6.50942 Y-3.67727
G01 X-6.50572 Y-3.67615
G01 X-6.50096 Y-3.67542
G01 X-6.49711 Y-3.67558
G01 X-6.49151 Y-3.67699
G01 X-6.48973 Y-3.67772
G01 X-6.48633 Y-3.67954
G01 X-6.48335 Y-3.68199
G01 X-6.48199 Y-3.68335
G01 X-6.48010 Y-3.68554
G01 X-6.47809 Y-3.68884
G01 X-6.47633 Y-3.69333
G01 X-6.47549 Y-3.69904
G01 X-6.47549 Y-3.70096
G01 X-6.47587 Y-3.70480
G01 X-6.47699 Y-3.70849
G01 X-6.47772 Y-3.71027
G01 X-6.47902 Y-3.71285
G01 X-6.48130 Y-3.71597
G01 X-6.94060 Y-4.17539
G01 X-5.50940 Y-4.17539
G01 X-5.96740 Y-3.71740
G01 X-5.96985 Y-3.71442
G01 X-5.97091 Y-3.71282
G01 X-5.97234 Y-3.71030
G01 X-5.97366 Y-3.70667
G01 X-5.97451 Y-3.70096
G01 X-5.97451 Y-3.69904
G01 X-5.97366 Y-3.69333
G01 X-5.97234 Y-3.68970
G01 X-5.96985 Y-3.68558
G01 X-5.96597 Y-3.68130
G01 X-5.96285 Y-3.67902
G01 X-5.95849 Y-3.67699
G01 X-5.95289 Y-3.67558
G01 X-5.94903 Y-3.67542
G01 X-5.94428 Y-3.67615
G01 X-5.94058 Y-3.67727
G01 X-5.93718 Y-3.67909
G01 X-5.93558 Y-3.68015
G01 X-5.93260 Y-3.68260
G01 X-5.43260 Y-4.18260
G01 X-5.43015 Y-4.18558
G01 X-5.42908 Y-4.18718
G01 X-5.42727 Y-4.19058
G01 X-5.42615 Y-4.19428
G01 X-5.42577 Y-4.19616
G01 X-5.42539 Y-4.20000

G00 Z1.00000 (Retract to tool change height)
T1
M5      (Spindle stop.)
G04 P1.00000 (Wait for spindle to stop)
(MSG, Change tool bit to mill diameter 0.00394in)
M6      (Tool change.)
M0      (Temporary machine stop.)
M3 ( Spindle on clockwise. )
G04 P1.00000 (Wait for spindle to get up to speed)
G04 P0 ( dwell for no time -- G64 should not smooth over this point )
G00 Z0.08000 ( retract )

G00 X-6.95732 Y-4.18232 ( rapid move to begin. )
G01 F180.00000
( Mill infeed pass 1/1 )
G01 Z-0.04000
G04 P0 ( dwell for no time -- G64 should not smooth over this point )
G01 F360.00000
G01 X-6.95732 Y-4.18232
G01 X-6.95779 Y-4.18251
G01 X-6.95732 Y-4.18232
G01 X-6.95682 Y-4.18327
G01 X-6.95960 Y-4.18327
G01 X-6.96254 Y-4.18448
G01 X-6.95960 Y-4.18327
G01 X-6.95763 Y-4.18130
G01 X-6.95828 Y-4.17916
G01 X-6.96436 Y-4.18523
G01 X-6.96729 Y-4.18645
G01 X-6.96436 Y-4.18523
G01 X-6.95577 Y-4.18523
G01 X-6.95421 Y-4.18720
G01 X-6.96911 Y-4.18720
G01 X-6.97204 Y-4.18842
G01 X-6.96911 Y-4.18720
G01 X-6.95858 Y-4.17667
G01 X-6.95855 Y-4.17386
G01 X-6.97386 Y-4.18917
G01 X-6.97680 Y-4.19039
G01 X-6.97386 Y-4.18917
G01 X-6.95221 Y-4.18917
G01 X-6.94936 Y-4.19114
G01 X-6.97861 Y-4.19114
G01 X-6.98155 Y-4.19236
G01 X-6.97861 Y-4.19114
G01 X-6.95793 Y-4.17046
G01 X-6.95573 Y-4.16547
G01 X-6.98337 Y-4.19311
G01 X-5.46663 Y-4.19311
G01 X-5.49427 Y-4.16547
G01 X-5.49207 Y-4.17046
G01 X-5.47138 Y-4.19114
G01 X-5.46845 Y-4.19236
G01 X-5.47138 Y-4.19114
G01 X-5.50064 Y-4.19114
G01 X-5.49779 Y-4.18917
G01 X-5.47614 Y-4.18917
G01 X-5.47320 Y-4.19039
G01 X-5.47614 Y-4.18917
G01 X-5.49144 Y-4.17387
G01 X-5.49142 Y-4.17667
G01 X-5.48089 Y-4.18720
G01 X-5.47796 Y-4.18842
G01 X-5.48089 Y-4.18720
G01 X-5.49578 Y-4.18720
G01 X-5.49423 Y-4.18523
G01 X-5.48564 Y-4.18523
G01 X-5.48271 Y-4.18645
G01 X-5.48564 Y-4.18523
G01 X-5.49172 Y-4.17916
G01 X-5.49236 Y-4.18130
G01 X-5.49039 Y-4.18327
G01 X-5.48746 Y-4.18448
G01 X-5.49039 Y-4.18327
G01 X-5.49318 Y-4.18327
G01 X-5.49267 Y-4.18232
G01 X-5.49221 Y-4.18251
G01 X-5.49267 Y-4.18232

G04 P0 ( dwell for no time -- G64 should not smooth over this point )
G00 Z1.000000 ( retract )

M5 ( Spindle off. )
G04 P1.000000
M9 ( Coolant off. )
M2 ( Program end. )

