( pcb2gcode 2.0.0 )
( Software-independent Gcode )

G94 ( Inches per minute feed rate. )
G20 ( Units == INCHES. )

G90 ( Absolute coordinates. )
G00 S12000 ( RPM spindle speed. )
G64 P0.00040 ( set maximum deviation from commanded toolpath )
G01 F360.00000 ( Feedrate. )


G00 Z1.00000 (Retract to tool change height)
T0
M5      (Spindle stop.)
G04 P1.00000 (Wait for spindle to stop)
(MSG, Change tool bit to mill diameter 0.03937in)
M6      (Tool change.)
M0      (Temporary machine stop.)
M3 ( Spindle on clockwise. )
G04 P1.00000 (Wait for spindle to get up to speed)
G04 P0 ( dwell for no time -- G64 should not smooth over this point )
G00 Z0.08000 ( retract )

G00 X-5.40571 Y-4.20000 ( rapid move to begin. )
G01 F180.00000
( Mill infeed pass 1/1 )
G01 Z-0.04000
G04 P0 ( dwell for no time -- G64 should not smooth over this point )
G01 F360.00000
G01 X-5.40571 Y-4.20000
G01 X-5.40646 Y-4.19232
G01 X-5.40684 Y-4.19043
G01 X-5.40908 Y-4.18305
G01 X-5.41272 Y-4.17624
G01 X-5.41378 Y-4.17465
G01 X-5.41868 Y-4.16868
G01 X-5.91868 Y-3.66868
G01 X-5.92254 Y-3.66528
G01 X-5.92945 Y-3.66079
G01 X-5.93413 Y-3.65865
G01 X-5.93904 Y-3.65711
G01 X-5.94820 Y-3.65577
G01 X-5.95232 Y-3.65577
G01 X-5.95642 Y-3.65620
G01 X-5.96538 Y-3.65849
G01 X-5.97011 Y-3.66054
G01 X-5.97368 Y-3.66260
G01 X-5.97454 Y-3.66316
G01 X-5.98166 Y-3.66906
G01 X-5.98684 Y-3.67546
G01 X-5.98946 Y-3.67989
G01 X-5.99151 Y-3.68462
G01 X-5.99278 Y-3.68854
G01 X-5.99364 Y-3.69257
G01 X-5.99423 Y-3.70180
G01 X-5.99418 Y-3.70283
G01 X-5.99375 Y-3.70693
G01 X-5.99289 Y-3.71096
G01 X-5.98967 Y-3.71964
G01 X-5.98714 Y-3.72412
G01 X-5.98472 Y-3.72746
G01 X-5.98132 Y-3.73132
G01 X-5.55693 Y-4.15571
G01 X-6.89307 Y-4.15571
G01 X-6.46868 Y-3.73132
G01 X-6.46528 Y-3.72746
G01 X-6.46285 Y-3.72412
G01 X-6.46033 Y-3.71964
G01 X-6.45711 Y-3.71096
G01 X-6.45625 Y-3.70693
G01 X-6.45582 Y-3.70283
G01 X-6.45577 Y-3.70180
G01 X-6.45636 Y-3.69257
G01 X-6.45722 Y-3.68854
G01 X-6.45849 Y-3.68462
G01 X-6.46054 Y-3.67989
G01 X-6.46316 Y-3.67546
G01 X-6.46834 Y-3.66906
G01 X-6.47546 Y-3.66316
G01 X-6.47632 Y-3.66260
G01 X-6.47989 Y-3.66054
G01 X-6.48462 Y-3.65849
G01 X-6.49358 Y-3.65620
G01 X-6.49768 Y-3.65577
G01 X-6.50180 Y-3.65577
G01 X-6.51096 Y-3.65711
G01 X-6.51587 Y-3.65865
G01 X-6.52055 Y-3.66079
G01 X-6.52746 Y-3.66528
G01 X-6.53132 Y-3.66868
G01 X-7.03132 Y-4.16868
G01 X-7.03621 Y-4.17465
G01 X-7.03728 Y-4.17624
G01 X-7.04092 Y-4.18305
G01 X-7.04316 Y-4.19043
G01 X-7.04353 Y-4.19232
G01 X-7.04429 Y-4.20000
G01 X-7.04353 Y-4.20768
G01 X-7.04316 Y-4.20956
G01 X-7.04092 Y-4.21695
G01 X-7.03728 Y-4.22376
G01 X-7.03621 Y-4.22535
G01 X-7.03132 Y-4.23132
G01 X-7.02535 Y-4.23621
G01 X-7.02376 Y-4.23728
G01 X-7.01695 Y-4.24092
G01 X-7.00956 Y-4.24316
G01 X-7.00768 Y-4.24353
G01 X-7.00000 Y-4.24429
G01 X-5.45000 Y-4.24429
G01 X-5.44232 Y-4.24353
G01 X-5.44043 Y-4.24316
G01 X-5.43305 Y-4.24092
G01 X-5.42624 Y-4.23728
G01 X-5.42465 Y-4.23621
G01 X-5.41868 Y-4.23132
G01 X-5.41378 Y-4.22535
G01 X-5.41272 Y-4.22376
G01 X-5.40908 Y-4.21695
G01 X-5.40684 Y-4.20956
G01 X-5.40646 Y-4.20768
G01 X-5.40571 Y-4.20000
G01 X-5.42539 Y-4.20000
G01 X-5.42577 Y-4.20384
G01 X-5.42615 Y-4.20572
G01 X-5.42727 Y-4.20942
G01 X-5.42908 Y-4.21282
G01 X-5.43015 Y-4.21442
G01 X-5.43260 Y-4.21740
G01 X-5.43558 Y-4.21985
G01 X-5.43718 Y-4.22091
G01 X-5.44058 Y-4.22273
G01 X-5.44428 Y-4.22385
G01 X-5.44616 Y-4.22423
G01 X-5.45000 Y-4.22461
G01 X-7.00000 Y-4.22461
G01 X-7.00384 Y-4.22423
G01 X-7.00572 Y-4.22385
G01 X-7.00942 Y-4.22273
G01 X-7.01282 Y-4.22091
G01 X-7.01442 Y-4.21985
G01 X-7.01740 Y-4.21740
G01 X-7.01985 Y-4.21442
G01 X-7.02091 Y-4.21282
G01 X-7.02273 Y-4.20942
G01 X-7.02385 Y-4.20572
G01 X-7.02423 Y-4.20384
G01 X-7.02461 Y-4.20000
G01 X-7.02423 Y-4.19616
G01 X-7.02385 Y-4.19428
G01 X-7.02273 Y-4.19058
G01 X-7.02091 Y-4.18718
G01 X-7.01985 Y-4.18558
G01 X-7.01740 Y-4.18260
G01 X-6.51740 Y-3.68260
G01 X-6.51507 Y-3.68057
G01 X-6.51162 Y-3.67833
G01 X-6.50882 Y-3.67703
G01 X-6.50586 Y-3.67612
G01 X-6.50077 Y-3.67543
G01 X-6.49871 Y-3.67543
G01 X-6.49565 Y-3.67580
G01 X-6.49167 Y-3.67687
G01 X-6.48883 Y-3.67808
G01 X-6.48704 Y-3.67910
G01 X-6.48298 Y-3.68226
G01 X-6.48226 Y-3.68298
G01 X-6.47967 Y-3.68618
G01 X-6.47807 Y-3.68883
G01 X-6.47687 Y-3.69167
G01 X-6.47623 Y-3.69363
G01 X-6.47580 Y-3.69565
G01 X-6.47543 Y-3.70077
G01 X-6.47570 Y-3.70385
G01 X-6.47639 Y-3.70686
G01 X-6.47787 Y-3.71070
G01 X-6.47936 Y-3.71340
G01 X-6.48122 Y-3.71587
G01 X-6.48260 Y-3.71740
G01 X-6.94060 Y-4.17539
G01 X-5.50940 Y-4.17539
G01 X-5.96740 Y-3.71740
G01 X-5.96878 Y-3.71587
G01 X-5.97064 Y-3.71340
G01 X-5.97213 Y-3.71070
G01 X-5.97361 Y-3.70686
G01 X-5.97430 Y-3.70385
G01 X-5.97457 Y-3.70077
G01 X-5.97420 Y-3.69565
G01 X-5.97377 Y-3.69363
G01 X-5.97313 Y-3.69167
G01 X-5.97192 Y-3.68883
G01 X-5.97033 Y-3.68618
G01 X-5.96774 Y-3.68298
G01 X-5.96702 Y-3.68226
G01 X-5.96296 Y-3.67910
G01 X-5.96117 Y-3.67808
G01 X-5.95833 Y-3.67687
G01 X-5.95435 Y-3.67580
G01 X-5.95129 Y-3.67543
G01 X-5.94923 Y-3.67543
G01 X-5.94414 Y-3.67612
G01 X-5.94118 Y-3.67703
G01 X-5.93838 Y-3.67833
G01 X-5.93493 Y-3.68057
G01 X-5.93260 Y-3.68260
G01 X-5.43260 Y-4.18260
G01 X-5.43015 Y-4.18558
G01 X-5.42908 Y-4.18718
G01 X-5.42727 Y-4.19058
G01 X-5.42615 Y-4.19428
G01 X-5.42577 Y-4.19616
G01 X-5.42539 Y-4.20000

G04 P0 ( dwell for no time -- G64 should not smooth over this point )
G00 Z1.000000 ( retract )

M5 ( Spindle off. )
G04 P1.000000

G00 Z1.00000 (Retract to tool change height)
T1
M5      (Spindle stop.)
G04 P1.00000 (Wait for spindle to stop)
(MSG, Change tool bit to mill diameter 0.00394in)
M6      (Tool change.)
M0      (Temporary machine stop.)
M3 ( Spindle on clockwise. )
G04 P1.00000 (Wait for spindle to get up to speed)
G04 P0 ( dwell for no time -- G64 should not smooth over this point )
G00 Z0.08000 ( retract )

G00 X-6.95682 Y-4.18327 ( rapid move to begin. )
G01 F180.00000
( Mill infeed pass 1/1 )
G01 Z-0.04000
G04 P0 ( dwell for no time -- G64 should not smooth over this point )
G01 F360.00000
G01 X-6.95682 Y-4.18327
G01 X-6.95960 Y-4.18327
G01 X-6.95763 Y-4.18130
G01 X-6.95828 Y-4.17916
G01 X-6.96436 Y-4.18523
G01 X-6.95577 Y-4.18523
G01 X-6.95421 Y-4.18720
G01 X-6.96911 Y-4.18720
G01 X-6.95858 Y-4.17667
G01 X-6.95855 Y-4.17386
G01 X-6.97386 Y-4.18917
G01 X-6.95221 Y-4.18917
G01 X-6.94936 Y-4.19114
G01 X-6.97861 Y-4.19114
G01 X-6.95793 Y-4.17046
G01 X-6.95573 Y-4.16547
G01 X-6.98337 Y-4.19311
G01 X-5.46663 Y-4.19311
G01 X-5.49427 Y-4.16547
G01 X-5.49207 Y-4.17046
G01 X-5.47138 Y-4.19114
G01 X-5.50064 Y-4.19114
G01 X-5.49779 Y-4.18917
G01 X-5.47614 Y-4.18917
G01 X-5.49144 Y-4.17387
G01 X-5.49142 Y-4.17667
G01 X-5.48089 Y-4.18720
G01 X-5.49578 Y-4.18720
G01 X-5.49423 Y-4.18523
G01 X-5.48564 Y-4.18523
G01 X-5.49172 Y-4.17916
G01 X-5.49236 Y-4.18130
G01 X-5.49040 Y-4.18327
G01 X-5.49318 Y-4.18327

G04 P0 ( dwell for no time -- G64 should not smooth over this point )
G00 Z1.000000 ( retract )

M5 ( Spindle off. )
G04 P1.000000
M9 ( Coolant off. )
M2 ( Program end. )

