( pcb2gcode 2.5.0 )
( Software-independent Gcode )

G94 ( Inches per minute feed rate. )
G20 ( Units == INCHES. )

G90 ( Absolute coordinates. )
G00 S12000 ( RPM spindle speed. )
G64 P0.00040 ( set maximum deviation from commanded toolpath )
G01 F360.00000 ( Feedrate. )


G00 Z1.00000 (Retract to tool change height)
T1
M5      (Spindle stop.)
G04 P1.00000 (Wait for spindle to stop)
(MSG, Change tool bit to mill diameter 0.03937in)
M6      (Tool change.)
M0      (Temporary machine stop.)
M3 ( Spindle on clockwise. )
G04 P1.00000 (Wait for spindle to get up to speed)
G04 P0 ( dwell for no time -- G64 should not smooth over this point )
G00 Z0.08000 ( retract )

G00 X-5.40572 Y-4.20040 ( rapid move to begin. )
G01 F180.00000
( Mill infeed pass 1/1 )
G01 Z-0.04000
G04 P0 ( dwell for no time -- G64 should not smooth over this point )
G01 F360.00000
G01 X-5.40572 Y-4.20040
G01 X-5.40593 Y-4.19601
G01 X-5.40675 Y-4.19089
G01 X-5.40768 Y-4.18701
G01 X-5.40901 Y-4.18324
G01 X-5.41110 Y-4.17892
G01 X-5.41387 Y-4.17454
G01 X-5.41626 Y-4.17134
G01 X-5.41869 Y-4.16869
G01 X-5.91927 Y-3.66812
G01 X-5.92264 Y-3.66518
G01 X-5.92595 Y-3.66282
G01 X-5.93020 Y-3.66042
G01 X-5.93352 Y-3.65889
G01 X-5.93776 Y-3.65746
G01 X-5.94171 Y-3.65650
G01 X-5.94533 Y-3.65599
G01 X-5.95020 Y-3.65572
G01 X-5.95305 Y-3.65582
G01 X-5.95588 Y-3.65613
G01 X-5.95948 Y-3.65676
G01 X-5.96263 Y-3.65756
G01 X-5.96533 Y-3.65847
G01 X-5.96796 Y-3.65957
G01 X-5.97159 Y-3.66138
G01 X-5.97405 Y-3.66282
G01 X-5.97639 Y-3.66444
G01 X-5.97861 Y-3.66622
G01 X-5.98130 Y-3.66870
G01 X-5.98353 Y-3.67107
G01 X-5.98531 Y-3.67329
G01 X-5.98693 Y-3.67563
G01 X-5.98901 Y-3.67912
G01 X-5.99030 Y-3.68166
G01 X-5.99154 Y-3.68466
G01 X-5.99242 Y-3.68737
G01 X-5.99387 Y-3.69412
G01 X-5.99418 Y-3.69695
G01 X-5.99428 Y-3.69980
G01 X-5.99382 Y-3.70628
G01 X-5.99326 Y-3.70948
G01 X-5.99254 Y-3.71224
G01 X-5.99011 Y-3.71870
G01 X-5.98885 Y-3.72125
G01 X-5.98740 Y-3.72371
G01 X-5.98378 Y-3.72861
G01 X-5.98131 Y-3.73131
G01 X-5.55691 Y-4.15572
G01 X-5.52761 Y-4.16786
G01 X-5.55691 Y-4.15572
G01 X-6.89309 Y-4.15572
G01 X-6.92238 Y-4.16786
G01 X-6.89309 Y-4.15572
G01 X-6.46869 Y-3.73131
G01 X-6.46622 Y-3.72861
G01 X-6.46260 Y-3.72371
G01 X-6.46115 Y-3.72125
G01 X-6.45989 Y-3.71870
G01 X-6.45746 Y-3.71224
G01 X-6.45674 Y-3.70948
G01 X-6.45617 Y-3.70628
G01 X-6.45572 Y-3.69980
G01 X-6.45582 Y-3.69695
G01 X-6.45613 Y-3.69412
G01 X-6.45698 Y-3.68974
G01 X-6.45769 Y-3.68698
G01 X-6.45875 Y-3.68390
G01 X-6.45988 Y-3.68129
G01 X-6.46119 Y-3.67876
G01 X-6.46329 Y-3.67529
G01 X-6.46493 Y-3.67296
G01 X-6.46674 Y-3.67076
G01 X-6.46899 Y-3.66842
G01 X-6.47170 Y-3.66596
G01 X-6.47394 Y-3.66420
G01 X-6.47630 Y-3.66260
G01 X-6.47876 Y-3.66119
G01 X-6.48241 Y-3.65940
G01 X-6.48543 Y-3.65819
G01 X-6.48815 Y-3.65733
G01 X-6.49092 Y-3.65668
G01 X-6.49373 Y-3.65622
G01 X-6.49736 Y-3.65582
G01 X-6.50102 Y-3.65573
G01 X-6.50547 Y-3.65607
G01 X-6.50987 Y-3.65689
G01 X-6.51380 Y-3.65793
G01 X-6.51723 Y-3.65921
G01 X-6.52125 Y-3.66115
G01 X-6.52439 Y-3.66304
G01 X-6.52829 Y-3.66596
G01 X-6.53102 Y-3.66840
G01 X-7.03131 Y-4.16869
G01 X-7.03374 Y-4.17134
G01 X-7.03613 Y-4.17454
G01 X-7.03890 Y-4.17892
G01 X-7.04099 Y-4.18324
G01 X-7.04220 Y-4.18662
G01 X-7.04318 Y-4.19050
G01 X-7.04402 Y-4.19561
G01 X-7.04428 Y-4.20000
G01 X-7.04409 Y-4.20399
G01 X-7.04350 Y-4.20794
G01 X-7.04228 Y-4.21298
G01 X-7.04083 Y-4.21713
G01 X-7.03912 Y-4.22074
G01 X-7.03705 Y-4.22415
G01 X-7.03397 Y-4.22832
G01 X-7.03131 Y-4.23131
G01 X-7.02836 Y-4.23400
G01 X-7.02515 Y-4.23639
G01 X-7.02071 Y-4.23906
G01 X-7.01713 Y-4.24082
G01 X-7.01376 Y-4.24209
G01 X-7.00990 Y-4.24313
G01 X-7.00479 Y-4.24399
G01 X-7.00080 Y-4.24428
G01 X-5.44960 Y-4.24428
G01 X-5.44561 Y-4.24404
G01 X-5.44206 Y-4.24347
G01 X-5.43740 Y-4.24241
G01 X-5.43324 Y-4.24099
G01 X-5.42997 Y-4.23948
G01 X-5.42652 Y-4.23747
G01 X-5.42229 Y-4.23448
G01 X-5.41926 Y-4.23187
G01 X-5.41651 Y-4.22897
G01 X-5.41407 Y-4.22580
G01 X-5.41127 Y-4.22144
G01 X-5.40932 Y-4.21750
G01 X-5.40783 Y-4.21336
G01 X-5.40658 Y-4.20833
G01 X-5.40595 Y-4.20439
G01 X-5.40572 Y-4.20040
G01 X-5.42539 Y-4.20027
G01 X-5.42551 Y-4.20226
G01 X-5.42583 Y-4.20423
G01 X-5.42657 Y-4.20733
G01 X-5.42735 Y-4.20960
G01 X-5.42820 Y-4.21140
G01 X-5.42924 Y-4.21311
G01 X-5.43108 Y-4.21572
G01 X-5.43270 Y-4.21749
G01 X-5.43451 Y-4.21905
G01 X-5.43712 Y-4.22089
G01 X-5.43883 Y-4.22191
G01 X-5.44064 Y-4.22276
G01 X-5.44292 Y-4.22352
G01 X-5.44603 Y-4.22420
G01 X-5.44800 Y-4.22450
G01 X-5.45000 Y-4.22461
G01 X-7.00000 Y-4.22461
G01 X-7.00318 Y-4.22435
G01 X-7.00748 Y-4.22344
G01 X-7.01044 Y-4.22224
G01 X-7.01389 Y-4.22025
G01 X-7.01613 Y-4.21858
G01 X-7.01811 Y-4.21661
G01 X-7.02076 Y-4.21311
G01 X-7.02216 Y-4.21069
G01 X-7.02332 Y-4.20772
G01 X-7.02432 Y-4.20345
G01 X-7.02460 Y-4.20027
G01 X-7.02437 Y-4.19708
G01 X-7.02350 Y-4.19278
G01 X-7.02238 Y-4.18979
G01 X-7.02144 Y-4.18803
G01 X-7.01970 Y-4.18536
G01 X-7.01768 Y-4.18289
G01 X-6.51740 Y-3.68260
G01 X-6.51362 Y-3.67952
G01 X-6.51189 Y-3.67846
G01 X-6.50970 Y-3.67739
G01 X-6.50779 Y-3.67667
G01 X-6.50583 Y-3.67615
G01 X-6.50304 Y-3.67560
G01 X-6.50061 Y-3.67540
G01 X-6.49616 Y-3.67575
G01 X-6.49337 Y-3.67630
G01 X-6.49069 Y-3.67726
G01 X-6.48672 Y-3.67930
G01 X-6.48411 Y-3.68124
G01 X-6.48122 Y-3.68410
G01 X-6.47955 Y-3.68640
G01 X-6.47755 Y-3.68993
G01 X-6.47644 Y-3.69299
G01 X-6.47555 Y-3.69736
G01 X-6.47541 Y-3.70061
G01 X-6.47577 Y-3.70425
G01 X-6.47656 Y-3.70740
G01 X-6.47809 Y-3.71116
G01 X-6.47952 Y-3.71362
G01 X-6.48176 Y-3.71651
G01 X-6.94060 Y-4.17539
G01 X-5.50940 Y-4.17539
G01 X-5.96823 Y-3.71651
G01 X-5.97048 Y-3.71362
G01 X-5.97191 Y-3.71116
G01 X-5.97343 Y-3.70740
G01 X-5.97423 Y-3.70425
G01 X-5.97459 Y-3.70061
G01 X-5.97450 Y-3.69776
G01 X-5.97367 Y-3.69338
G01 X-5.97261 Y-3.69030
G01 X-5.97045 Y-3.68640
G01 X-5.96878 Y-3.68410
G01 X-5.96589 Y-3.68124
G01 X-5.96363 Y-3.67951
G01 X-5.95968 Y-3.67742
G01 X-5.95702 Y-3.67642
G01 X-5.95304 Y-3.67560
G01 X-5.95020 Y-3.67540
G01 X-5.94535 Y-3.67584
G01 X-5.94337 Y-3.67632
G01 X-5.94068 Y-3.67723
G01 X-5.93637 Y-3.67951
G01 X-5.93473 Y-3.68071
G01 X-5.93260 Y-3.68260
G01 X-5.43260 Y-4.18260
G01 X-5.43126 Y-4.18408
G01 X-5.43008 Y-4.18569
G01 X-5.42836 Y-4.18837
G01 X-5.42714 Y-4.19089
G01 X-5.42650 Y-4.19278
G01 X-5.42605 Y-4.19473
G01 X-5.42553 Y-4.19787
G01 X-5.42539 Y-4.20027

G00 Z1.00000 (Retract to tool change height)
T2
M5      (Spindle stop.)
G04 P1.00000 (Wait for spindle to stop)
(MSG, Change tool bit to mill diameter 0.00394in)
M6      (Tool change.)
M0      (Temporary machine stop.)
M3 ( Spindle on clockwise. )
G04 P1.00000 (Wait for spindle to get up to speed)
G04 P0 ( dwell for no time -- G64 should not smooth over this point )
G00 Z0.08000 ( retract )

G00 X-6.95733 Y-4.18232 ( rapid move to begin. )
G01 F180.00000
( Mill infeed pass 1/1 )
G01 Z-0.04000
G04 P0 ( dwell for no time -- G64 should not smooth over this point )
G01 F360.00000
G01 X-6.95733 Y-4.18232
G01 X-6.95779 Y-4.18251
G01 X-6.95733 Y-4.18232
G01 X-6.95691 Y-4.18327
G01 X-6.95960 Y-4.18327
G01 X-6.96254 Y-4.18448
G01 X-6.95960 Y-4.18327
G01 X-6.95770 Y-4.18136
G01 X-6.95831 Y-4.17919
G01 X-6.96436 Y-4.18523
G01 X-6.96729 Y-4.18645
G01 X-6.96436 Y-4.18523
G01 X-6.95580 Y-4.18523
G01 X-6.95433 Y-4.18720
G01 X-6.96911 Y-4.18720
G01 X-6.97204 Y-4.18842
G01 X-6.96911 Y-4.18720
G01 X-6.95866 Y-4.17675
G01 X-6.95865 Y-4.17396
G01 X-6.97386 Y-4.18917
G01 X-6.97680 Y-4.19039
G01 X-6.97386 Y-4.18917
G01 X-6.95235 Y-4.18917
G01 X-6.94954 Y-4.19114
G01 X-6.97861 Y-4.19114
G01 X-6.98155 Y-4.19236
G01 X-6.97861 Y-4.19114
G01 X-6.95806 Y-4.17059
G01 X-6.95580 Y-4.16554
G01 X-6.98337 Y-4.19311
G01 X-5.46663 Y-4.19311
G01 X-5.49420 Y-4.16554
G01 X-5.49194 Y-4.17059
G01 X-5.47138 Y-4.19114
G01 X-5.46845 Y-4.19236
G01 X-5.47138 Y-4.19114
G01 X-5.50045 Y-4.19114
G01 X-5.49765 Y-4.18917
G01 X-5.47614 Y-4.18917
G01 X-5.47320 Y-4.19039
G01 X-5.47614 Y-4.18917
G01 X-5.49134 Y-4.17397
G01 X-5.49134 Y-4.17675
G01 X-5.48089 Y-4.18720
G01 X-5.47796 Y-4.18842
G01 X-5.48089 Y-4.18720
G01 X-5.49567 Y-4.18720
G01 X-5.49420 Y-4.18523
G01 X-5.48564 Y-4.18523
G01 X-5.48271 Y-4.18645
G01 X-5.48564 Y-4.18523
G01 X-5.49169 Y-4.17919
G01 X-5.49230 Y-4.18136
G01 X-5.49039 Y-4.18327
G01 X-5.48746 Y-4.18448
G01 X-5.49039 Y-4.18327
G01 X-5.49309 Y-4.18327
G01 X-5.49267 Y-4.18232
G01 X-5.49221 Y-4.18251
G01 X-5.49267 Y-4.18232

G04 P0 ( dwell for no time -- G64 should not smooth over this point )
G00 Z1.000000 ( retract )

M5 ( Spindle off. )
G04 P1.000000
M9 ( Coolant off. )
M2 ( Program end. )

