( pcb2gcode 2.2.2 )
( Software-independent Gcode )

G94 ( Inches per minute feed rate. )
G20 ( Units == INCHES. )

G90 ( Absolute coordinates. )
G00 S12000 ( RPM spindle speed. )
G64 P0.00040 ( set maximum deviation from commanded toolpath )
G01 F360.00000 ( Feedrate. )


G00 Z1.00000 (Retract to tool change height)
T0
M5      (Spindle stop.)
G04 P1.00000 (Wait for spindle to stop)
(MSG, Change tool bit to mill diameter 0.03937in)
M6      (Tool change.)
M0      (Temporary machine stop.)
M3 ( Spindle on clockwise. )
G04 P1.00000 (Wait for spindle to get up to speed)
G04 P0 ( dwell for no time -- G64 should not smooth over this point )
G00 Z0.08000 ( retract )

G00 X-5.40572 Y-4.20000 ( rapid move to begin. )
G01 F180.00000
( Mill infeed pass 1/1 )
G01 Z-0.04000
G04 P0 ( dwell for no time -- G64 should not smooth over this point )
G01 F360.00000
G01 X-5.40572 Y-4.20000
G01 X-5.40646 Y-4.19240
G01 X-5.40683 Y-4.19052
G01 X-5.40907 Y-4.18309
G01 X-5.41273 Y-4.17624
G01 X-5.41380 Y-4.17464
G01 X-5.41869 Y-4.16869
G01 X-5.91869 Y-3.66869
G01 X-5.92464 Y-3.66380
G01 X-5.92624 Y-3.66273
G01 X-5.93309 Y-3.65907
G01 X-5.94052 Y-3.65683
G01 X-5.94240 Y-3.65646
G01 X-5.95367 Y-3.65589
G01 X-5.96050 Y-3.65698
G01 X-5.96614 Y-3.65885
G01 X-5.96791 Y-3.65959
G01 X-5.97757 Y-3.66537
G01 X-5.98258 Y-3.67002
G01 X-5.98620 Y-3.67464
G01 X-5.98727 Y-3.67624
G01 X-5.99221 Y-3.68666
G01 X-5.99376 Y-3.69325
G01 X-5.99419 Y-3.69904
G01 X-5.99419 Y-3.70096
G01 X-5.99376 Y-3.70675
G01 X-5.99249 Y-3.71242
G01 X-5.99221 Y-3.71334
G01 X-5.98727 Y-3.72376
G01 X-5.98620 Y-3.72536
G01 X-5.98131 Y-3.73131
G01 X-5.55691 Y-4.15572
G01 X-5.52758 Y-4.16786
G01 X-5.55691 Y-4.15572
G01 X-6.89309 Y-4.15572
G01 X-6.92238 Y-4.16786
G01 X-6.89309 Y-4.15572
G01 X-6.46869 Y-3.73131
G01 X-6.46598 Y-3.72832
G01 X-6.46537 Y-3.72757
G01 X-6.45959 Y-3.71791
G01 X-6.45885 Y-3.71614
G01 X-6.45658 Y-3.70870
G01 X-6.45581 Y-3.70096
G01 X-6.45581 Y-3.69904
G01 X-6.45624 Y-3.69325
G01 X-6.45779 Y-3.68666
G01 X-6.46083 Y-3.67938
G01 X-6.46129 Y-3.67854
G01 X-6.46808 Y-3.66944
G01 X-6.46944 Y-3.66808
G01 X-6.47535 Y-3.66322
G01 X-6.48209 Y-3.65959
G01 X-6.48386 Y-3.65885
G01 X-6.48950 Y-3.65698
G01 X-6.49632 Y-3.65589
G01 X-6.50760 Y-3.65646
G01 X-6.50948 Y-3.65683
G01 X-6.51691 Y-3.65907
G01 X-6.52376 Y-3.66273
G01 X-6.52536 Y-3.66380
G01 X-6.53131 Y-3.66869
G01 X-7.03131 Y-4.16869
G01 X-7.03620 Y-4.17464
G01 X-7.03727 Y-4.17624
G01 X-7.04093 Y-4.18309
G01 X-7.04317 Y-4.19052
G01 X-7.04354 Y-4.19240
G01 X-7.04428 Y-4.20000
G01 X-7.04354 Y-4.20760
G01 X-7.04317 Y-4.20948
G01 X-7.04093 Y-4.21691
G01 X-7.03727 Y-4.22376
G01 X-7.03620 Y-4.22536
G01 X-7.03131 Y-4.23131
G01 X-7.02536 Y-4.23620
G01 X-7.02376 Y-4.23727
G01 X-7.01691 Y-4.24093
G01 X-7.00948 Y-4.24317
G01 X-7.00760 Y-4.24354
G01 X-7.00000 Y-4.24428
G01 X-5.45000 Y-4.24428
G01 X-5.44240 Y-4.24354
G01 X-5.44052 Y-4.24317
G01 X-5.43309 Y-4.24093
G01 X-5.42624 Y-4.23727
G01 X-5.42464 Y-4.23620
G01 X-5.41869 Y-4.23131
G01 X-5.41380 Y-4.22536
G01 X-5.41273 Y-4.22376
G01 X-5.40907 Y-4.21691
G01 X-5.40683 Y-4.20948
G01 X-5.40646 Y-4.20760
G01 X-5.40572 Y-4.20000
G01 X-5.42539 Y-4.20000
G01 X-5.42577 Y-4.20380
G01 X-5.42614 Y-4.20568
G01 X-5.42726 Y-4.20940
G01 X-5.42909 Y-4.21282
G01 X-5.43016 Y-4.21442
G01 X-5.43260 Y-4.21740
G01 X-5.43558 Y-4.21984
G01 X-5.43718 Y-4.22091
G01 X-5.44060 Y-4.22274
G01 X-5.44432 Y-4.22386
G01 X-5.44620 Y-4.22423
G01 X-5.45000 Y-4.22461
G01 X-7.00000 Y-4.22461
G01 X-7.00380 Y-4.22423
G01 X-7.00568 Y-4.22386
G01 X-7.00940 Y-4.22274
G01 X-7.01282 Y-4.22091
G01 X-7.01442 Y-4.21984
G01 X-7.01740 Y-4.21740
G01 X-7.01984 Y-4.21442
G01 X-7.02091 Y-4.21282
G01 X-7.02274 Y-4.20940
G01 X-7.02386 Y-4.20568
G01 X-7.02423 Y-4.20380
G01 X-7.02461 Y-4.20000
G01 X-7.02423 Y-4.19620
G01 X-7.02386 Y-4.19432
G01 X-7.02274 Y-4.19060
G01 X-7.02091 Y-4.18718
G01 X-7.01984 Y-4.18558
G01 X-7.01740 Y-4.18260
G01 X-6.51740 Y-3.68260
G01 X-6.51442 Y-3.68016
G01 X-6.51282 Y-3.67909
G01 X-6.50940 Y-3.67726
G01 X-6.50568 Y-3.67613
G01 X-6.50380 Y-3.67577
G01 X-6.49816 Y-3.67548
G01 X-6.49427 Y-3.67607
G01 X-6.49145 Y-3.67701
G01 X-6.48968 Y-3.67775
G01 X-6.48631 Y-3.67956
G01 X-6.48335 Y-3.68199
G01 X-6.48199 Y-3.68335
G01 X-6.47860 Y-3.68790
G01 X-6.47814 Y-3.68875
G01 X-6.47662 Y-3.69239
G01 X-6.47570 Y-3.69614
G01 X-6.47548 Y-3.70096
G01 X-6.47587 Y-3.70483
G01 X-6.47701 Y-3.70855
G01 X-6.47775 Y-3.71032
G01 X-6.48064 Y-3.71515
G01 X-6.48125 Y-3.71590
G01 X-6.48260 Y-3.71740
G01 X-6.94060 Y-4.17539
G01 X-5.50940 Y-4.17539
G01 X-5.96740 Y-3.71740
G01 X-5.96984 Y-3.71442
G01 X-5.97091 Y-3.71282
G01 X-5.97338 Y-3.70761
G01 X-5.97366 Y-3.70669
G01 X-5.97430 Y-3.70386
G01 X-5.97452 Y-3.69904
G01 X-5.97430 Y-3.69614
G01 X-5.97338 Y-3.69239
G01 X-5.97091 Y-3.68718
G01 X-5.96984 Y-3.68558
G01 X-5.96803 Y-3.68327
G01 X-5.96515 Y-3.68064
G01 X-5.96032 Y-3.67775
G01 X-5.95855 Y-3.67701
G01 X-5.95573 Y-3.67607
G01 X-5.95184 Y-3.67548
G01 X-5.94620 Y-3.67577
G01 X-5.94432 Y-3.67613
G01 X-5.94060 Y-3.67726
G01 X-5.93718 Y-3.67909
G01 X-5.93558 Y-3.68016
G01 X-5.93260 Y-3.68260
G01 X-5.43260 Y-4.18260
G01 X-5.43016 Y-4.18558
G01 X-5.42909 Y-4.18718
G01 X-5.42726 Y-4.19060
G01 X-5.42614 Y-4.19432
G01 X-5.42577 Y-4.19620
G01 X-5.42539 Y-4.20000

G00 Z1.00000 (Retract to tool change height)
T1
M5      (Spindle stop.)
G04 P1.00000 (Wait for spindle to stop)
(MSG, Change tool bit to mill diameter 0.00394in)
M6      (Tool change.)
M0      (Temporary machine stop.)
M3 ( Spindle on clockwise. )
G04 P1.00000 (Wait for spindle to get up to speed)
G04 P0 ( dwell for no time -- G64 should not smooth over this point )
G00 Z0.08000 ( retract )

G00 X-6.95733 Y-4.18232 ( rapid move to begin. )
G01 F180.00000
( Mill infeed pass 1/1 )
G01 Z-0.04000
G04 P0 ( dwell for no time -- G64 should not smooth over this point )
G01 F360.00000
G01 X-6.95733 Y-4.18232
G01 X-6.95779 Y-4.18252
G01 X-6.95733 Y-4.18232
G01 X-6.95683 Y-4.18327
G01 X-6.95961 Y-4.18327
G01 X-6.96254 Y-4.18448
G01 X-6.95961 Y-4.18327
G01 X-6.95764 Y-4.18130
G01 X-6.95829 Y-4.17917
G01 X-6.96436 Y-4.18524
G01 X-6.96729 Y-4.18645
G01 X-6.96436 Y-4.18524
G01 X-6.95578 Y-4.18524
G01 X-6.95422 Y-4.18720
G01 X-6.96911 Y-4.18720
G01 X-6.97204 Y-4.18842
G01 X-6.96911 Y-4.18720
G01 X-6.95859 Y-4.17668
G01 X-6.95856 Y-4.17387
G01 X-6.97386 Y-4.18917
G01 X-6.97680 Y-4.19039
G01 X-6.97386 Y-4.18917
G01 X-6.95221 Y-4.18917
G01 X-6.94936 Y-4.19114
G01 X-6.97861 Y-4.19114
G01 X-6.98155 Y-4.19236
G01 X-6.97861 Y-4.19114
G01 X-6.95794 Y-4.17047
G01 X-6.95575 Y-4.16549
G01 X-6.98337 Y-4.19311
G01 X-5.46663 Y-4.19311
G01 X-5.49425 Y-4.16549
G01 X-5.49206 Y-4.17047
G01 X-5.47138 Y-4.19114
G01 X-5.46845 Y-4.19236
G01 X-5.47138 Y-4.19114
G01 X-5.50063 Y-4.19114
G01 X-5.49779 Y-4.18917
G01 X-5.47614 Y-4.18917
G01 X-5.47320 Y-4.19039
G01 X-5.47614 Y-4.18917
G01 X-5.49144 Y-4.17387
G01 X-5.49141 Y-4.17668
G01 X-5.48089 Y-4.18720
G01 X-5.47795 Y-4.18842
G01 X-5.48089 Y-4.18720
G01 X-5.49578 Y-4.18720
G01 X-5.49422 Y-4.18524
G01 X-5.48564 Y-4.18524
G01 X-5.48271 Y-4.18645
G01 X-5.48564 Y-4.18524
G01 X-5.49171 Y-4.17917
G01 X-5.49236 Y-4.18130
G01 X-5.49039 Y-4.18327
G01 X-5.48746 Y-4.18448
G01 X-5.49039 Y-4.18327
G01 X-5.49317 Y-4.18327
G01 X-5.49267 Y-4.18232
G01 X-5.49221 Y-4.18252
G01 X-5.49267 Y-4.18232

G04 P0 ( dwell for no time -- G64 should not smooth over this point )
G00 Z1.000000 ( retract )

M5 ( Spindle off. )
G04 P1.000000
M9 ( Coolant off. )
M2 ( Program end. )

