( pcb2gcode 2.0.0 )
( Software-independent Gcode )

G94 ( Inches per minute feed rate. )
G20 ( Units == INCHES. )

G90 ( Absolute coordinates. )
G00 S12000 ( RPM spindle speed. )
G64 P0.00040 ( set maximum deviation from commanded toolpath )
G01 F360.00000 ( Feedrate. )


G00 Z1.00000 (Retract to tool change height)
T0
M5      (Spindle stop.)
G04 P1.00000 (Wait for spindle to stop)
(MSG, Change tool bit to mill diameter 0.03937in)
M6      (Tool change.)
M0      (Temporary machine stop.)
M3 ( Spindle on clockwise. )
G04 P1.00000 (Wait for spindle to get up to speed)
G04 P0 ( dwell for no time -- G64 should not smooth over this point )
G00 Z0.08000 ( retract )

G00 X-5.40575 Y-4.20116 ( rapid move to begin. )
G01 F180.00000
( Mill infeed pass 1/1 )
G01 Z-0.04000
G04 P0 ( dwell for no time -- G64 should not smooth over this point )
G01 F360.00000
G01 X-5.40575 Y-4.20116
G01 X-5.40585 Y-4.19652
G01 X-5.40648 Y-4.19193
G01 X-5.40788 Y-4.18631
G01 X-5.40956 Y-4.18200
G01 X-5.41223 Y-4.17686
G01 X-5.41488 Y-4.17305
G01 X-5.41868 Y-4.16868
G01 X-5.91868 Y-3.66868
G01 X-5.92283 Y-3.66505
G01 X-5.92643 Y-3.66250
G01 X-5.93129 Y-3.65988
G01 X-5.93537 Y-3.65819
G01 X-5.93961 Y-3.65697
G01 X-5.94504 Y-3.65599
G01 X-5.94945 Y-3.65574
G01 X-5.95496 Y-3.65599
G01 X-5.96039 Y-3.65697
G01 X-5.96463 Y-3.65819
G01 X-5.96871 Y-3.65988
G01 X-5.97356 Y-3.66250
G01 X-5.97717 Y-3.66505
G01 X-5.98132 Y-3.66868
G01 X-5.98495 Y-3.67283
G01 X-5.98750 Y-3.67644
G01 X-5.98964 Y-3.68030
G01 X-5.99181 Y-3.68537
G01 X-5.99327 Y-3.69069
G01 X-5.99401 Y-3.69504
G01 X-5.99426 Y-3.69945
G01 X-5.99401 Y-3.70496
G01 X-5.99303 Y-3.71039
G01 X-5.99181 Y-3.71463
G01 X-5.98964 Y-3.71970
G01 X-5.98750 Y-3.72356
G01 X-5.98495 Y-3.72716
G01 X-5.98132 Y-3.73132
G01 X-5.55693 Y-4.15571
G01 X-6.89307 Y-4.15571
G01 X-6.46868 Y-3.73132
G01 X-6.46505 Y-3.72716
G01 X-6.46250 Y-3.72356
G01 X-6.46036 Y-3.71970
G01 X-6.45819 Y-3.71463
G01 X-6.45697 Y-3.71039
G01 X-6.45599 Y-3.70496
G01 X-6.45574 Y-3.69945
G01 X-6.45599 Y-3.69504
G01 X-6.45673 Y-3.69069
G01 X-6.45819 Y-3.68537
G01 X-6.46036 Y-3.68030
G01 X-6.46250 Y-3.67644
G01 X-6.46505 Y-3.67283
G01 X-6.46868 Y-3.66868
G01 X-6.47283 Y-3.66505
G01 X-6.47644 Y-3.66250
G01 X-6.48129 Y-3.65988
G01 X-6.48537 Y-3.65819
G01 X-6.48961 Y-3.65697
G01 X-6.49504 Y-3.65599
G01 X-6.50055 Y-3.65574
G01 X-6.50496 Y-3.65599
G01 X-6.51039 Y-3.65697
G01 X-6.51463 Y-3.65819
G01 X-6.51871 Y-3.65988
G01 X-6.52356 Y-3.66250
G01 X-6.52717 Y-3.66505
G01 X-6.53132 Y-3.66868
G01 X-7.03132 Y-4.16868
G01 X-7.03414 Y-4.17181
G01 X-7.03726 Y-4.17605
G01 X-7.03982 Y-4.18066
G01 X-7.04150 Y-4.18452
G01 X-7.04276 Y-4.18854
G01 X-7.04384 Y-4.19370
G01 X-7.04425 Y-4.19895
G01 X-7.04418 Y-4.20316
G01 X-7.04365 Y-4.20734
G01 X-7.04250 Y-4.21248
G01 X-7.04110 Y-4.21645
G01 X-7.03887 Y-4.22123
G01 X-7.03666 Y-4.22481
G01 X-7.03347 Y-4.22900
G01 X-7.03055 Y-4.23204
G01 X-7.02654 Y-4.23546
G01 X-7.02213 Y-4.23834
G01 X-7.01840 Y-4.24029
G01 X-7.01348 Y-4.24216
G01 X-7.00941 Y-4.24328
G01 X-7.00525 Y-4.24395
G01 X-7.00000 Y-4.24429
G01 X-5.45000 Y-4.24429
G01 X-5.44422 Y-4.24388
G01 X-5.43966 Y-4.24307
G01 X-5.43414 Y-4.24132
G01 X-5.42989 Y-4.23946
G01 X-5.42589 Y-4.23712
G01 X-5.42124 Y-4.23368
G01 X-5.41711 Y-4.22962
G01 X-5.41417 Y-4.22603
G01 X-5.41167 Y-4.22213
G01 X-5.40908 Y-4.21695
G01 X-5.40725 Y-4.21146
G01 X-5.40625 Y-4.20693
G01 X-5.40575 Y-4.20116
G01 X-5.42542 Y-4.20039
G01 X-5.42570 Y-4.20385
G01 X-5.42619 Y-4.20611
G01 X-5.42727 Y-4.20942
G01 X-5.42884 Y-4.21251
G01 X-5.43009 Y-4.21446
G01 X-5.43235 Y-4.21710
G01 X-5.43402 Y-4.21871
G01 X-5.43683 Y-4.22075
G01 X-5.43883 Y-4.22192
G01 X-5.44095 Y-4.22285
G01 X-5.44426 Y-4.22393
G01 X-5.44769 Y-4.22447
G01 X-5.45000 Y-4.22461
G01 X-7.00000 Y-4.22461
G01 X-7.00315 Y-4.22438
G01 X-7.00523 Y-4.22404
G01 X-7.00726 Y-4.22349
G01 X-7.01022 Y-4.22238
G01 X-7.01299 Y-4.22087
G01 X-7.01475 Y-4.21970
G01 X-7.01636 Y-4.21835
G01 X-7.01860 Y-4.21611
G01 X-7.02049 Y-4.21359
G01 X-7.02160 Y-4.21179
G01 X-7.02291 Y-4.20892
G01 X-7.02361 Y-4.20693
G01 X-7.02409 Y-4.20488
G01 X-7.02454 Y-4.20176
G01 X-7.02458 Y-4.19965
G01 X-7.02435 Y-4.19650
G01 X-7.02368 Y-4.19341
G01 X-7.02305 Y-4.19140
G01 X-7.02221 Y-4.18947
G01 X-7.02070 Y-4.18670
G01 X-7.01881 Y-4.18417
G01 X-7.01740 Y-4.18260
G01 X-6.51740 Y-3.68260
G01 X-6.51575 Y-3.68113
G01 X-6.51309 Y-3.67916
G01 X-6.51017 Y-3.67762
G01 X-6.50813 Y-3.67677
G01 X-6.50601 Y-3.67616
G01 X-6.50275 Y-3.67555
G01 X-6.50055 Y-3.67542
G01 X-6.49724 Y-3.67555
G01 X-6.49399 Y-3.67616
G01 X-6.49187 Y-3.67677
G01 X-6.48983 Y-3.67762
G01 X-6.48691 Y-3.67916
G01 X-6.48425 Y-3.68113
G01 X-6.48260 Y-3.68260
G01 X-6.48044 Y-3.68511
G01 X-6.47917 Y-3.68691
G01 X-6.47810 Y-3.68884
G01 X-6.47677 Y-3.69187
G01 X-6.47592 Y-3.69507
G01 X-6.47555 Y-3.69724
G01 X-6.47542 Y-3.69945
G01 X-6.47555 Y-3.70275
G01 X-6.47616 Y-3.70601
G01 X-6.47677 Y-3.70813
G01 X-6.47762 Y-3.71017
G01 X-6.47917 Y-3.71309
G01 X-6.48113 Y-3.71575
G01 X-6.48260 Y-3.71740
G01 X-6.94060 Y-4.17539
G01 X-5.50940 Y-4.17539
G01 X-5.96740 Y-3.71740
G01 X-5.96887 Y-3.71575
G01 X-5.97083 Y-3.71309
G01 X-5.97238 Y-3.71017
G01 X-5.97323 Y-3.70813
G01 X-5.97384 Y-3.70601
G01 X-5.97445 Y-3.70275
G01 X-5.97457 Y-3.69945
G01 X-5.97445 Y-3.69724
G01 X-5.97408 Y-3.69507
G01 X-5.97323 Y-3.69187
G01 X-5.97190 Y-3.68884
G01 X-5.97083 Y-3.68691
G01 X-5.96956 Y-3.68511
G01 X-5.96740 Y-3.68260
G01 X-5.96575 Y-3.68113
G01 X-5.96309 Y-3.67916
G01 X-5.96017 Y-3.67762
G01 X-5.95813 Y-3.67677
G01 X-5.95601 Y-3.67616
G01 X-5.95275 Y-3.67555
G01 X-5.94945 Y-3.67542
G01 X-5.94724 Y-3.67555
G01 X-5.94399 Y-3.67616
G01 X-5.94187 Y-3.67677
G01 X-5.93983 Y-3.67762
G01 X-5.93691 Y-3.67916
G01 X-5.93425 Y-3.68113
G01 X-5.93260 Y-3.68260
G01 X-5.43260 Y-4.18260
G01 X-5.43034 Y-4.18524
G01 X-5.42902 Y-4.18714
G01 X-5.42744 Y-4.19024
G01 X-5.42660 Y-4.19240
G01 X-5.42601 Y-4.19464
G01 X-5.42547 Y-4.19807
G01 X-5.42542 Y-4.20039

G04 P0 ( dwell for no time -- G64 should not smooth over this point )
G00 Z1.000000 ( retract )

M5 ( Spindle off. )
G04 P1.000000

G00 Z1.00000 (Retract to tool change height)
T1
M5      (Spindle stop.)
G04 P1.00000 (Wait for spindle to stop)
(MSG, Change tool bit to mill diameter 0.00394in)
M6      (Tool change.)
M0      (Temporary machine stop.)
M3 ( Spindle on clockwise. )
G04 P1.00000 (Wait for spindle to get up to speed)
G04 P0 ( dwell for no time -- G64 should not smooth over this point )
G00 Z0.08000 ( retract )

G00 X-6.95682 Y-4.18327 ( rapid move to begin. )
G01 F180.00000
( Mill infeed pass 1/1 )
G01 Z-0.04000
G04 P0 ( dwell for no time -- G64 should not smooth over this point )
G01 F360.00000
G01 X-6.95682 Y-4.18327
G01 X-6.95960 Y-4.18327
G01 X-6.95764 Y-4.18130
G01 X-6.95822 Y-4.17910
G01 X-6.96436 Y-4.18523
G01 X-6.95568 Y-4.18523
G01 X-6.95431 Y-4.18720
G01 X-6.96911 Y-4.18720
G01 X-6.95865 Y-4.17675
G01 X-6.95856 Y-4.17387
G01 X-6.97386 Y-4.18917
G01 X-6.95222 Y-4.18917
G01 X-6.94933 Y-4.19114
G01 X-6.97861 Y-4.19114
G01 X-6.95792 Y-4.17045
G01 X-6.95573 Y-4.16548
G01 X-6.98337 Y-4.19311
G01 X-5.46663 Y-4.19311
G01 X-5.49427 Y-4.16548
G01 X-5.49208 Y-4.17045
G01 X-5.47138 Y-4.19114
G01 X-5.50066 Y-4.19114
G01 X-5.49778 Y-4.18917
G01 X-5.47614 Y-4.18917
G01 X-5.49144 Y-4.17387
G01 X-5.49135 Y-4.17675
G01 X-5.48089 Y-4.18720
G01 X-5.49568 Y-4.18720
G01 X-5.49432 Y-4.18523
G01 X-5.48564 Y-4.18523
G01 X-5.49177 Y-4.17910
G01 X-5.49236 Y-4.18130
G01 X-5.49040 Y-4.18327
G01 X-5.49317 Y-4.18327

G04 P0 ( dwell for no time -- G64 should not smooth over this point )
G00 Z1.000000 ( retract )

M5 ( Spindle off. )
G04 P1.000000
M9 ( Coolant off. )
M2 ( Program end. )

