( pcb2gcode 2.5.0 )
( Software-independent Gcode )

G94 ( Inches per minute feed rate. )
G20 ( Units == INCHES. )

G90 ( Absolute coordinates. )
G00 S12000 ( RPM spindle speed. )
G64 P0.00040 ( set maximum deviation from commanded toolpath )
G01 F360.00000 ( Feedrate. )


G00 Z1.00000 (Retract to tool change height)
T1
M5      (Spindle stop.)
G04 P1.00000 (Wait for spindle to stop)
(MSG, Change tool bit to mill diameter 0.03937in)
M6      (Tool change.)
M0      (Temporary machine stop.)
M3 ( Spindle on clockwise. )
G04 P1.00000 (Wait for spindle to get up to speed)
G04 P0 ( dwell for no time -- G64 should not smooth over this point )
G00 Z0.08000 ( retract )

G00 X-5.40572 Y-4.20041 ( rapid move to begin. )
G01 F180.00000
( Mill infeed pass 1/1 )
G01 Z-0.04000
G04 P0 ( dwell for no time -- G64 should not smooth over this point )
G01 F360.00000
G01 X-5.40572 Y-4.20041
G01 X-5.40589 Y-4.19634
G01 X-5.40647 Y-4.19232
G01 X-5.40761 Y-4.18727
G01 X-5.40909 Y-4.18305
G01 X-5.41103 Y-4.17903
G01 X-5.41379 Y-4.17465
G01 X-5.41596 Y-4.17171
G01 X-5.41869 Y-4.16869
G01 X-5.91927 Y-3.66812
G01 X-5.92267 Y-3.66521
G01 X-5.92659 Y-3.66250
G01 X-5.93010 Y-3.66045
G01 X-5.93343 Y-3.65893
G01 X-5.93767 Y-3.65750
G01 X-5.94232 Y-3.65647
G01 X-5.94627 Y-3.65589
G01 X-5.94987 Y-3.65572
G01 X-5.95266 Y-3.65581
G01 X-5.95641 Y-3.65619
G01 X-5.96188 Y-3.65735
G01 X-5.96491 Y-3.65836
G01 X-5.96890 Y-3.66002
G01 X-5.97382 Y-3.66267
G01 X-5.97645 Y-3.66449
G01 X-5.97906 Y-3.66661
G01 X-5.98304 Y-3.67053
G01 X-5.98529 Y-3.67334
G01 X-5.98750 Y-3.67658
G01 X-5.99021 Y-3.68147
G01 X-5.99131 Y-3.68404
G01 X-5.99221 Y-3.68669
G01 X-5.99312 Y-3.68993
G01 X-5.99373 Y-3.69307
G01 X-5.99419 Y-3.69864
G01 X-5.99414 Y-3.70296
G01 X-5.99385 Y-3.70614
G01 X-5.99272 Y-3.71162
G01 X-5.99172 Y-3.71483
G01 X-5.99055 Y-3.71780
G01 X-5.98793 Y-3.72274
G01 X-5.98575 Y-3.72602
G01 X-5.98378 Y-3.72861
G01 X-5.98131 Y-3.73131
G01 X-5.55691 Y-4.15572
G01 X-5.52761 Y-4.16786
G01 X-5.55691 Y-4.15572
G01 X-6.89309 Y-4.15572
G01 X-6.92238 Y-4.16786
G01 X-6.89309 Y-4.15572
G01 X-6.46869 Y-3.73131
G01 X-6.46609 Y-3.72845
G01 X-6.46267 Y-3.72382
G01 X-6.46107 Y-3.72105
G01 X-6.45986 Y-3.71853
G01 X-6.45836 Y-3.71489
G01 X-6.45745 Y-3.71219
G01 X-6.45665 Y-3.70904
G01 X-6.45611 Y-3.70583
G01 X-6.45584 Y-3.70259
G01 X-6.45581 Y-3.69864
G01 X-6.45627 Y-3.69307
G01 X-6.45697 Y-3.68954
G01 X-6.45791 Y-3.68630
G01 X-6.45886 Y-3.68362
G01 X-6.46000 Y-3.68101
G01 X-6.46303 Y-3.67562
G01 X-6.46465 Y-3.67334
G01 X-6.46643 Y-3.67118
G01 X-6.47146 Y-3.66618
G01 X-6.47394 Y-3.66420
G01 X-6.47656 Y-3.66243
G01 X-6.48147 Y-3.65985
G01 X-6.48546 Y-3.65822
G01 X-6.48851 Y-3.65725
G01 X-6.49123 Y-3.65659
G01 X-6.49439 Y-3.65609
G01 X-6.49773 Y-3.65578
G01 X-6.50093 Y-3.65573
G01 X-6.50531 Y-3.65608
G01 X-6.50996 Y-3.65693
G01 X-6.51350 Y-3.65785
G01 X-6.51695 Y-3.65909
G01 X-6.52026 Y-3.66064
G01 X-6.52375 Y-3.66272
G01 X-6.52766 Y-3.66546
G01 X-6.53102 Y-3.66840
G01 X-7.03131 Y-4.16869
G01 X-7.03404 Y-4.17171
G01 X-7.03621 Y-4.17465
G01 X-7.03897 Y-4.17903
G01 X-7.04091 Y-4.18305
G01 X-7.04239 Y-4.18727
G01 X-7.04353 Y-4.19232
G01 X-7.04411 Y-4.19634
G01 X-7.04428 Y-4.20000
G01 X-7.04411 Y-4.20366
G01 X-7.04353 Y-4.20768
G01 X-7.04250 Y-4.21233
G01 X-7.04107 Y-4.21657
G01 X-7.03954 Y-4.21990
G01 X-7.03750 Y-4.22341
G01 X-7.03459 Y-4.22760
G01 X-7.03173 Y-4.23089
G01 X-7.02883 Y-4.23359
G01 X-7.02600 Y-4.23576
G01 X-7.02168 Y-4.23857
G01 X-7.01769 Y-4.24059
G01 X-7.01389 Y-4.24203
G01 X-7.01036 Y-4.24299
G01 X-7.00527 Y-4.24393
G01 X-7.00081 Y-4.24428
G01 X-5.44959 Y-4.24428
G01 X-5.44594 Y-4.24407
G01 X-5.44232 Y-4.24353
G01 X-5.43767 Y-4.24250
G01 X-5.43343 Y-4.24107
G01 X-5.43010 Y-4.23954
G01 X-5.42693 Y-4.23772
G01 X-5.42272 Y-4.23483
G01 X-5.41940 Y-4.23200
G01 X-5.41667 Y-4.22913
G01 X-5.41424 Y-4.22600
G01 X-5.41143 Y-4.22168
G01 X-5.40941 Y-4.21769
G01 X-5.40797 Y-4.21389
G01 X-5.40693 Y-4.20996
G01 X-5.40602 Y-4.20487
G01 X-5.40572 Y-4.20041
G01 X-5.42539 Y-4.20020
G01 X-5.42557 Y-4.20264
G01 X-5.42615 Y-4.20572
G01 X-5.42664 Y-4.20769
G01 X-5.42734 Y-4.20960
G01 X-5.42844 Y-4.21178
G01 X-5.43015 Y-4.21442
G01 X-5.43137 Y-4.21605
G01 X-5.43274 Y-4.21754
G01 X-5.43459 Y-4.21914
G01 X-5.43718 Y-4.22091
G01 X-5.43893 Y-4.22196
G01 X-5.44077 Y-4.22281
G01 X-5.44309 Y-4.22358
G01 X-5.44616 Y-4.22423
G01 X-5.45000 Y-4.22461
G01 X-7.00000 Y-4.22461
G01 X-7.00308 Y-4.22436
G01 X-7.00730 Y-4.22347
G01 X-7.00998 Y-4.22249
G01 X-7.01248 Y-4.22114
G01 X-7.01573 Y-4.21889
G01 X-7.01782 Y-4.21696
G01 X-7.01962 Y-4.21475
G01 X-7.02214 Y-4.21071
G01 X-7.02347 Y-4.20730
G01 X-7.02437 Y-4.20304
G01 X-7.02461 Y-4.20020
G01 X-7.02437 Y-4.19696
G01 X-7.02347 Y-4.19269
G01 X-7.02232 Y-4.18965
G01 X-7.02135 Y-4.18787
G01 X-7.01963 Y-4.18526
G01 X-7.01767 Y-4.18288
G01 X-6.51740 Y-3.68260
G01 X-6.51442 Y-3.68015
G01 X-6.51178 Y-3.67844
G01 X-6.50960 Y-3.67734
G01 X-6.50612 Y-3.67623
G01 X-6.50302 Y-3.67563
G01 X-6.50055 Y-3.67540
G01 X-6.49670 Y-3.67563
G01 X-6.49386 Y-3.67618
G01 X-6.48936 Y-3.67788
G01 X-6.48684 Y-3.67921
G01 X-6.48423 Y-3.68115
G01 X-6.48114 Y-3.68425
G01 X-6.47939 Y-3.68656
G01 X-6.47758 Y-3.68987
G01 X-6.47622 Y-3.69372
G01 X-6.47564 Y-3.69656
G01 X-6.47549 Y-3.70137
G01 X-6.47576 Y-3.70420
G01 X-6.47655 Y-3.70735
G01 X-6.47823 Y-3.71140
G01 X-6.47970 Y-3.71390
G01 X-6.48180 Y-3.71656
G01 X-6.94060 Y-4.17539
G01 X-5.50940 Y-4.17539
G01 X-5.96819 Y-3.71656
G01 X-5.96985 Y-3.71442
G01 X-5.97216 Y-3.71067
G01 X-5.97326 Y-3.70799
G01 X-5.97423 Y-3.70426
G01 X-5.97451 Y-3.70137
G01 X-5.97436 Y-3.69656
G01 X-5.97378 Y-3.69372
G01 X-5.97251 Y-3.69008
G01 X-5.97114 Y-3.68753
G01 X-5.96861 Y-3.68392
G01 X-5.96660 Y-3.68184
G01 X-5.96356 Y-3.67946
G01 X-5.96103 Y-3.67805
G01 X-5.95654 Y-3.67630
G01 X-5.95371 Y-3.67568
G01 X-5.94986 Y-3.67539
G01 X-5.94738 Y-3.67557
G01 X-5.94428 Y-3.67615
G01 X-5.94231 Y-3.67665
G01 X-5.94040 Y-3.67734
G01 X-5.93821 Y-3.67844
G01 X-5.93558 Y-3.68015
G01 X-5.93260 Y-3.68260
G01 X-5.43260 Y-4.18260
G01 X-5.43082 Y-4.18464
G01 X-5.42908 Y-4.18718
G01 X-5.42804 Y-4.18893
G01 X-5.42719 Y-4.19077
G01 X-5.42642 Y-4.19309
G01 X-5.42577 Y-4.19616
G01 X-5.42548 Y-4.19817
G01 X-5.42539 Y-4.20020

G00 Z1.00000 (Retract to tool change height)
T2
M5      (Spindle stop.)
G04 P1.00000 (Wait for spindle to stop)
(MSG, Change tool bit to mill diameter 0.00394in)
M6      (Tool change.)
M0      (Temporary machine stop.)
M3 ( Spindle on clockwise. )
G04 P1.00000 (Wait for spindle to get up to speed)
G04 P0 ( dwell for no time -- G64 should not smooth over this point )
G00 Z0.08000 ( retract )

G00 X-6.95732 Y-4.18232 ( rapid move to begin. )
G01 F180.00000
( Mill infeed pass 1/1 )
G01 Z-0.04000
G04 P0 ( dwell for no time -- G64 should not smooth over this point )
G01 F360.00000
G01 X-6.95732 Y-4.18232
G01 X-6.95779 Y-4.18251
G01 X-6.95732 Y-4.18232
G01 X-6.95682 Y-4.18327
G01 X-6.95960 Y-4.18327
G01 X-6.96254 Y-4.18448
G01 X-6.95960 Y-4.18327
G01 X-6.95763 Y-4.18130
G01 X-6.95828 Y-4.17916
G01 X-6.96436 Y-4.18523
G01 X-6.96729 Y-4.18645
G01 X-6.96436 Y-4.18523
G01 X-6.95577 Y-4.18523
G01 X-6.95421 Y-4.18720
G01 X-6.96911 Y-4.18720
G01 X-6.97204 Y-4.18842
G01 X-6.96911 Y-4.18720
G01 X-6.95858 Y-4.17667
G01 X-6.95855 Y-4.17386
G01 X-6.97386 Y-4.18917
G01 X-6.97680 Y-4.19039
G01 X-6.97386 Y-4.18917
G01 X-6.95221 Y-4.18917
G01 X-6.94936 Y-4.19114
G01 X-6.97861 Y-4.19114
G01 X-6.98155 Y-4.19236
G01 X-6.97861 Y-4.19114
G01 X-6.95793 Y-4.17046
G01 X-6.95573 Y-4.16547
G01 X-6.98337 Y-4.19311
G01 X-5.46663 Y-4.19311
G01 X-5.49427 Y-4.16547
G01 X-5.49207 Y-4.17046
G01 X-5.47138 Y-4.19114
G01 X-5.46845 Y-4.19236
G01 X-5.47138 Y-4.19114
G01 X-5.50064 Y-4.19114
G01 X-5.49779 Y-4.18917
G01 X-5.47614 Y-4.18917
G01 X-5.47320 Y-4.19039
G01 X-5.47614 Y-4.18917
G01 X-5.49144 Y-4.17387
G01 X-5.49142 Y-4.17667
G01 X-5.48089 Y-4.18720
G01 X-5.47796 Y-4.18842
G01 X-5.48089 Y-4.18720
G01 X-5.49578 Y-4.18720
G01 X-5.49423 Y-4.18523
G01 X-5.48564 Y-4.18523
G01 X-5.48271 Y-4.18645
G01 X-5.48564 Y-4.18523
G01 X-5.49172 Y-4.17916
G01 X-5.49236 Y-4.18130
G01 X-5.49039 Y-4.18327
G01 X-5.48746 Y-4.18448
G01 X-5.49039 Y-4.18327
G01 X-5.49318 Y-4.18327
G01 X-5.49267 Y-4.18232
G01 X-5.49221 Y-4.18251
G01 X-5.49267 Y-4.18232

G04 P0 ( dwell for no time -- G64 should not smooth over this point )
G00 Z1.000000 ( retract )

M5 ( Spindle off. )
G04 P1.000000
M9 ( Coolant off. )
M2 ( Program end. )

