( pcb2gcode 1.3.2 )
( Gcode for custom )

G94 ( Inches per minute feed rate. )
G20 ( Units == INCHES. )

G90 ( Absolute coordinates. )
G00 S12000 ( RPM spindle speed. )
G64 P0.00040 ( set maximum deviation from commanded toolpath )
G01 F360.00000 ( Feedrate. )

#118 = #5211
#119 = #5212

(MSG, Attach the probe tool)
M0 ( Temporary machine stop. )
G0 Z0.080 ( Move Z to safe height )
G0 X4.68308 Y-3.35689 ( Move XY to start point )
G0 Z0.080 ( Move Z to probe height )
G38.2 Z-0.1 F2.362205 ( Z-probe )
#500 = 0 ( Probe point [0, 0] is our reference )
G92 Z0 ( Set the current Z as zero-value )

( We now start the real probing: move the Z axis to the probing height, move to )
( the probing XY position, probe it and save the result, parameter #2002, )
( in a numbered parameter; we will make 20 probes on the X-axis and )
( 8 probes on the Y-axis, for a grand total of 160 probes )

G0 Z0.080
X4.68308 Y-2.94799
G38.2 Z-0.1 F2.362205
#501=#2002
G0 Z0.080
X4.68308 Y-2.53910
G38.2 Z-0.1 F2.362205
#502=#2002
G0 Z0.080
X4.68308 Y-2.13020
G38.2 Z-0.1 F2.362205
#503=#2002
G0 Z0.080
X4.68308 Y-1.72130
G38.2 Z-0.1 F2.362205
#504=#2002
G0 Z0.080
X4.68308 Y-1.31240
G38.2 Z-0.1 F2.362205
#505=#2002
G0 Z0.080
X4.68308 Y-0.90350
G38.2 Z-0.1 F2.362205
#506=#2002
G0 Z0.080
X4.68308 Y-0.49460
G38.2 Z-0.1 F2.362205
#507=#2002
G0 Z0.080
X5.08537 Y-0.49460
G38.2 Z-0.1 F2.362205
#515=#2002
G0 Z0.080
X5.08537 Y-0.90350
G38.2 Z-0.1 F2.362205
#514=#2002
G0 Z0.080
X5.08537 Y-1.31240
G38.2 Z-0.1 F2.362205
#513=#2002
G0 Z0.080
X5.08537 Y-1.72130
G38.2 Z-0.1 F2.362205
#512=#2002
G0 Z0.080
X5.08537 Y-2.13020
G38.2 Z-0.1 F2.362205
#511=#2002
G0 Z0.080
X5.08537 Y-2.53910
G38.2 Z-0.1 F2.362205
#510=#2002
G0 Z0.080
X5.08537 Y-2.94799
G38.2 Z-0.1 F2.362205
#509=#2002
G0 Z0.080
X5.08537 Y-3.35689
G38.2 Z-0.1 F2.362205
#508=#2002
G0 Z0.080
X5.48767 Y-3.35689
G38.2 Z-0.1 F2.362205
#516=#2002
G0 Z0.080
X5.48767 Y-2.94799
G38.2 Z-0.1 F2.362205
#517=#2002
G0 Z0.080
X5.48767 Y-2.53910
G38.2 Z-0.1 F2.362205
#518=#2002
G0 Z0.080
X5.48767 Y-2.13020
G38.2 Z-0.1 F2.362205
#519=#2002
G0 Z0.080
X5.48767 Y-1.72130
G38.2 Z-0.1 F2.362205
#520=#2002
G0 Z0.080
X5.48767 Y-1.31240
G38.2 Z-0.1 F2.362205
#521=#2002
G0 Z0.080
X5.48767 Y-0.90350
G38.2 Z-0.1 F2.362205
#522=#2002
G0 Z0.080
X5.48767 Y-0.49460
G38.2 Z-0.1 F2.362205
#523=#2002
G0 Z0.080
X5.88996 Y-0.49460
G38.2 Z-0.1 F2.362205
#531=#2002
G0 Z0.080
X5.88996 Y-0.90350
G38.2 Z-0.1 F2.362205
#530=#2002
G0 Z0.080
X5.88996 Y-1.31240
G38.2 Z-0.1 F2.362205
#529=#2002
G0 Z0.080
X5.88996 Y-1.72130
G38.2 Z-0.1 F2.362205
#528=#2002
G0 Z0.080
X5.88996 Y-2.13020
G38.2 Z-0.1 F2.362205
#527=#2002
G0 Z0.080
X5.88996 Y-2.53910
G38.2 Z-0.1 F2.362205
#526=#2002
G0 Z0.080
X5.88996 Y-2.94799
G38.2 Z-0.1 F2.362205
#525=#2002
G0 Z0.080
X5.88996 Y-3.35689
G38.2 Z-0.1 F2.362205
#524=#2002
G0 Z0.080
X6.29226 Y-3.35689
G38.2 Z-0.1 F2.362205
#532=#2002
G0 Z0.080
X6.29226 Y-2.94799
G38.2 Z-0.1 F2.362205
#533=#2002
G0 Z0.080
X6.29226 Y-2.53910
G38.2 Z-0.1 F2.362205
#534=#2002
G0 Z0.080
X6.29226 Y-2.13020
G38.2 Z-0.1 F2.362205
#535=#2002
G0 Z0.080
X6.29226 Y-1.72130
G38.2 Z-0.1 F2.362205
#536=#2002
G0 Z0.080
X6.29226 Y-1.31240
G38.2 Z-0.1 F2.362205
#537=#2002
G0 Z0.080
X6.29226 Y-0.90350
G38.2 Z-0.1 F2.362205
#538=#2002
G0 Z0.080
X6.29226 Y-0.49460
G38.2 Z-0.1 F2.362205
#539=#2002
G0 Z0.080
X6.69456 Y-0.49460
G38.2 Z-0.1 F2.362205
#547=#2002
G0 Z0.080
X6.69456 Y-0.90350
G38.2 Z-0.1 F2.362205
#546=#2002
G0 Z0.080
X6.69456 Y-1.31240
G38.2 Z-0.1 F2.362205
#545=#2002
G0 Z0.080
X6.69456 Y-1.72130
G38.2 Z-0.1 F2.362205
#544=#2002
G0 Z0.080
X6.69456 Y-2.13020
G38.2 Z-0.1 F2.362205
#543=#2002
G0 Z0.080
X6.69456 Y-2.53910
G38.2 Z-0.1 F2.362205
#542=#2002
G0 Z0.080
X6.69456 Y-2.94799
G38.2 Z-0.1 F2.362205
#541=#2002
G0 Z0.080
X6.69456 Y-3.35689
G38.2 Z-0.1 F2.362205
#540=#2002
G0 Z0.080
X7.09685 Y-3.35689
G38.2 Z-0.1 F2.362205
#548=#2002
G0 Z0.080
X7.09685 Y-2.94799
G38.2 Z-0.1 F2.362205
#549=#2002
G0 Z0.080
X7.09685 Y-2.53910
G38.2 Z-0.1 F2.362205
#550=#2002
G0 Z0.080
X7.09685 Y-2.13020
G38.2 Z-0.1 F2.362205
#551=#2002
G0 Z0.080
X7.09685 Y-1.72130
G38.2 Z-0.1 F2.362205
#552=#2002
G0 Z0.080
X7.09685 Y-1.31240
G38.2 Z-0.1 F2.362205
#553=#2002
G0 Z0.080
X7.09685 Y-0.90350
G38.2 Z-0.1 F2.362205
#554=#2002
G0 Z0.080
X7.09685 Y-0.49460
G38.2 Z-0.1 F2.362205
#555=#2002
G0 Z0.080
X7.49915 Y-0.49460
G38.2 Z-0.1 F2.362205
#563=#2002
G0 Z0.080
X7.49915 Y-0.90350
G38.2 Z-0.1 F2.362205
#562=#2002
G0 Z0.080
X7.49915 Y-1.31240
G38.2 Z-0.1 F2.362205
#561=#2002
G0 Z0.080
X7.49915 Y-1.72130
G38.2 Z-0.1 F2.362205
#560=#2002
G0 Z0.080
X7.49915 Y-2.13020
G38.2 Z-0.1 F2.362205
#559=#2002
G0 Z0.080
X7.49915 Y-2.53910
G38.2 Z-0.1 F2.362205
#558=#2002
G0 Z0.080
X7.49915 Y-2.94799
G38.2 Z-0.1 F2.362205
#557=#2002
G0 Z0.080
X7.49915 Y-3.35689
G38.2 Z-0.1 F2.362205
#556=#2002
G0 Z0.080
X7.90145 Y-3.35689
G38.2 Z-0.1 F2.362205
#564=#2002
G0 Z0.080
X7.90145 Y-2.94799
G38.2 Z-0.1 F2.362205
#565=#2002
G0 Z0.080
X7.90145 Y-2.53910
G38.2 Z-0.1 F2.362205
#566=#2002
G0 Z0.080
X7.90145 Y-2.13020
G38.2 Z-0.1 F2.362205
#567=#2002
G0 Z0.080
X7.90145 Y-1.72130
G38.2 Z-0.1 F2.362205
#568=#2002
G0 Z0.080
X7.90145 Y-1.31240
G38.2 Z-0.1 F2.362205
#569=#2002
G0 Z0.080
X7.90145 Y-0.90350
G38.2 Z-0.1 F2.362205
#570=#2002
G0 Z0.080
X7.90145 Y-0.49460
G38.2 Z-0.1 F2.362205
#571=#2002
G0 Z0.080
X8.30374 Y-0.49460
G38.2 Z-0.1 F2.362205
#579=#2002
G0 Z0.080
X8.30374 Y-0.90350
G38.2 Z-0.1 F2.362205
#578=#2002
G0 Z0.080
X8.30374 Y-1.31240
G38.2 Z-0.1 F2.362205
#577=#2002
G0 Z0.080
X8.30374 Y-1.72130
G38.2 Z-0.1 F2.362205
#576=#2002
G0 Z0.080
X8.30374 Y-2.13020
G38.2 Z-0.1 F2.362205
#575=#2002
G0 Z0.080
X8.30374 Y-2.53910
G38.2 Z-0.1 F2.362205
#574=#2002
G0 Z0.080
X8.30374 Y-2.94799
G38.2 Z-0.1 F2.362205
#573=#2002
G0 Z0.080
X8.30374 Y-3.35689
G38.2 Z-0.1 F2.362205
#572=#2002
G0 Z0.080
X8.70604 Y-3.35689
G38.2 Z-0.1 F2.362205
#580=#2002
G0 Z0.080
X8.70604 Y-2.94799
G38.2 Z-0.1 F2.362205
#581=#2002
G0 Z0.080
X8.70604 Y-2.53910
G38.2 Z-0.1 F2.362205
#582=#2002
G0 Z0.080
X8.70604 Y-2.13020
G38.2 Z-0.1 F2.362205
#583=#2002
G0 Z0.080
X8.70604 Y-1.72130
G38.2 Z-0.1 F2.362205
#584=#2002
G0 Z0.080
X8.70604 Y-1.31240
G38.2 Z-0.1 F2.362205
#585=#2002
G0 Z0.080
X8.70604 Y-0.90350
G38.2 Z-0.1 F2.362205
#586=#2002
G0 Z0.080
X8.70604 Y-0.49460
G38.2 Z-0.1 F2.362205
#587=#2002
G0 Z0.080
X9.10833 Y-0.49460
G38.2 Z-0.1 F2.362205
#595=#2002
G0 Z0.080
X9.10833 Y-0.90350
G38.2 Z-0.1 F2.362205
#594=#2002
G0 Z0.080
X9.10833 Y-1.31240
G38.2 Z-0.1 F2.362205
#593=#2002
G0 Z0.080
X9.10833 Y-1.72130
G38.2 Z-0.1 F2.362205
#592=#2002
G0 Z0.080
X9.10833 Y-2.13020
G38.2 Z-0.1 F2.362205
#591=#2002
G0 Z0.080
X9.10833 Y-2.53910
G38.2 Z-0.1 F2.362205
#590=#2002
G0 Z0.080
X9.10833 Y-2.94799
G38.2 Z-0.1 F2.362205
#589=#2002
G0 Z0.080
X9.10833 Y-3.35689
G38.2 Z-0.1 F2.362205
#588=#2002
G0 Z0.080
X9.51063 Y-3.35689
G38.2 Z-0.1 F2.362205
#596=#2002
G0 Z0.080
X9.51063 Y-2.94799
G38.2 Z-0.1 F2.362205
#597=#2002
G0 Z0.080
X9.51063 Y-2.53910
G38.2 Z-0.1 F2.362205
#598=#2002
G0 Z0.080
X9.51063 Y-2.13020
G38.2 Z-0.1 F2.362205
#599=#2002
G0 Z0.080
X9.51063 Y-1.72130
G38.2 Z-0.1 F2.362205
#600=#2002
G0 Z0.080
X9.51063 Y-1.31240
G38.2 Z-0.1 F2.362205
#601=#2002
G0 Z0.080
X9.51063 Y-0.90350
G38.2 Z-0.1 F2.362205
#602=#2002
G0 Z0.080
X9.51063 Y-0.49460
G38.2 Z-0.1 F2.362205
#603=#2002
G0 Z0.080
X9.91293 Y-0.49460
G38.2 Z-0.1 F2.362205
#611=#2002
G0 Z0.080
X9.91293 Y-0.90350
G38.2 Z-0.1 F2.362205
#610=#2002
G0 Z0.080
X9.91293 Y-1.31240
G38.2 Z-0.1 F2.362205
#609=#2002
G0 Z0.080
X9.91293 Y-1.72130
G38.2 Z-0.1 F2.362205
#608=#2002
G0 Z0.080
X9.91293 Y-2.13020
G38.2 Z-0.1 F2.362205
#607=#2002
G0 Z0.080
X9.91293 Y-2.53910
G38.2 Z-0.1 F2.362205
#606=#2002
G0 Z0.080
X9.91293 Y-2.94799
G38.2 Z-0.1 F2.362205
#605=#2002
G0 Z0.080
X9.91293 Y-3.35689
G38.2 Z-0.1 F2.362205
#604=#2002
G0 Z0.080
X10.31522 Y-3.35689
G38.2 Z-0.1 F2.362205
#612=#2002
G0 Z0.080
X10.31522 Y-2.94799
G38.2 Z-0.1 F2.362205
#613=#2002
G0 Z0.080
X10.31522 Y-2.53910
G38.2 Z-0.1 F2.362205
#614=#2002
G0 Z0.080
X10.31522 Y-2.13020
G38.2 Z-0.1 F2.362205
#615=#2002
G0 Z0.080
X10.31522 Y-1.72130
G38.2 Z-0.1 F2.362205
#616=#2002
G0 Z0.080
X10.31522 Y-1.31240
G38.2 Z-0.1 F2.362205
#617=#2002
G0 Z0.080
X10.31522 Y-0.90350
G38.2 Z-0.1 F2.362205
#618=#2002
G0 Z0.080
X10.31522 Y-0.49460
G38.2 Z-0.1 F2.362205
#619=#2002
G0 Z0.080
X10.71752 Y-0.49460
G38.2 Z-0.1 F2.362205
#627=#2002
G0 Z0.080
X10.71752 Y-0.90350
G38.2 Z-0.1 F2.362205
#626=#2002
G0 Z0.080
X10.71752 Y-1.31240
G38.2 Z-0.1 F2.362205
#625=#2002
G0 Z0.080
X10.71752 Y-1.72130
G38.2 Z-0.1 F2.362205
#624=#2002
G0 Z0.080
X10.71752 Y-2.13020
G38.2 Z-0.1 F2.362205
#623=#2002
G0 Z0.080
X10.71752 Y-2.53910
G38.2 Z-0.1 F2.362205
#622=#2002
G0 Z0.080
X10.71752 Y-2.94799
G38.2 Z-0.1 F2.362205
#621=#2002
G0 Z0.080
X10.71752 Y-3.35689
G38.2 Z-0.1 F2.362205
#620=#2002
G0 Z0.080
X11.11982 Y-3.35689
G38.2 Z-0.1 F2.362205
#628=#2002
G0 Z0.080
X11.11982 Y-2.94799
G38.2 Z-0.1 F2.362205
#629=#2002
G0 Z0.080
X11.11982 Y-2.53910
G38.2 Z-0.1 F2.362205
#630=#2002
G0 Z0.080
X11.11982 Y-2.13020
G38.2 Z-0.1 F2.362205
#631=#2002
G0 Z0.080
X11.11982 Y-1.72130
G38.2 Z-0.1 F2.362205
#632=#2002
G0 Z0.080
X11.11982 Y-1.31240
G38.2 Z-0.1 F2.362205
#633=#2002
G0 Z0.080
X11.11982 Y-0.90350
G38.2 Z-0.1 F2.362205
#634=#2002
G0 Z0.080
X11.11982 Y-0.49460
G38.2 Z-0.1 F2.362205
#635=#2002
G0 Z0.080
X11.52211 Y-0.49460
G38.2 Z-0.1 F2.362205
#643=#2002
G0 Z0.080
X11.52211 Y-0.90350
G38.2 Z-0.1 F2.362205
#642=#2002
G0 Z0.080
X11.52211 Y-1.31240
G38.2 Z-0.1 F2.362205
#641=#2002
G0 Z0.080
X11.52211 Y-1.72130
G38.2 Z-0.1 F2.362205
#640=#2002
G0 Z0.080
X11.52211 Y-2.13020
G38.2 Z-0.1 F2.362205
#639=#2002
G0 Z0.080
X11.52211 Y-2.53910
G38.2 Z-0.1 F2.362205
#638=#2002
G0 Z0.080
X11.52211 Y-2.94799
G38.2 Z-0.1 F2.362205
#637=#2002
G0 Z0.080
X11.52211 Y-3.35689
G38.2 Z-0.1 F2.362205
#636=#2002
G0 Z0.080
X11.92441 Y-3.35689
G38.2 Z-0.1 F2.362205
#644=#2002
G0 Z0.080
X11.92441 Y-2.94799
G38.2 Z-0.1 F2.362205
#645=#2002
G0 Z0.080
X11.92441 Y-2.53910
G38.2 Z-0.1 F2.362205
#646=#2002
G0 Z0.080
X11.92441 Y-2.13020
G38.2 Z-0.1 F2.362205
#647=#2002
G0 Z0.080
X11.92441 Y-1.72130
G38.2 Z-0.1 F2.362205
#648=#2002
G0 Z0.080
X11.92441 Y-1.31240
G38.2 Z-0.1 F2.362205
#649=#2002
G0 Z0.080
X11.92441 Y-0.90350
G38.2 Z-0.1 F2.362205
#650=#2002
G0 Z0.080
X11.92441 Y-0.49460
G38.2 Z-0.1 F2.362205
#651=#2002
G0 Z0.080
X12.32670 Y-0.49460
G38.2 Z-0.1 F2.362205
#659=#2002
G0 Z0.080
X12.32670 Y-0.90350
G38.2 Z-0.1 F2.362205
#658=#2002
G0 Z0.080
X12.32670 Y-1.31240
G38.2 Z-0.1 F2.362205
#657=#2002
G0 Z0.080
X12.32670 Y-1.72130
G38.2 Z-0.1 F2.362205
#656=#2002
G0 Z0.080
X12.32670 Y-2.13020
G38.2 Z-0.1 F2.362205
#655=#2002
G0 Z0.080
X12.32670 Y-2.53910
G38.2 Z-0.1 F2.362205
#654=#2002
G0 Z0.080
X12.32670 Y-2.94799
G38.2 Z-0.1 F2.362205
#653=#2002
G0 Z0.080
X12.32670 Y-3.35689
G38.2 Z-0.1 F2.362205
#652=#2002

G0 Z0.080 ( Move Z to safe height )
( Probing has ended, each Z-coordinate will be corrected with a bilinear interpolation )
(MSG, Detach the probe tool)
M0 ( Temporary machine stop. )

#4 = -0.04000

G01 F360.00000 ( Feedrate. )
M3 ( Spindle on clockwise. )
G04 P1.00000
( Piece #1, position [0;0] )

G04 P0 ( dwell for no time -- G64 should not smooth over this point )
G00 Z0.08000 ( retract )

G00 X4.68508 Y-2.97619 ( rapid move to begin. )
G01 F180.00000
#1=[#500+[#501-#500]*0.93105]
#2=[#508+[#509-#508]*0.93105]
#3=[#1+[#2-#1]*0.00497]
G01 Z[-0.04000+#111]
G04 P0 ( dwell for no time -- G64 should not smooth over this point )
G01 F360.00000
#1=[#501+[#502-#501]*0.54244]
#2=[#509+[#510-#509]*0.54244]
#3=[#1+[#2-#1]*0.00497]
X4.68508 Y-2.72619 Z[#3+#4]
#1=[#502+[#503-#502]*0.15384]
#2=[#510+[#511-#510]*0.15384]
#3=[#1+[#2-#1]*0.00497]
X4.68508 Y-2.47619 Z[#3+#4]
#1=[#502+[#503-#502]*0.17227]
#2=[#510+[#511-#510]*0.17227]
#3=[#1+[#2-#1]*0.00870]
X4.68657 Y-2.46866 Z[#3+#4]
#1=[#502+[#503-#502]*0.18788]
#2=[#510+[#511-#510]*0.18788]
#3=[#1+[#2-#1]*0.01930]
X4.69084 Y-2.46227 Z[#3+#4]
#1=[#502+[#503-#502]*0.19387]
#2=[#510+[#511-#510]*0.19387]
#3=[#1+[#2-#1]*0.02672]
X4.69382 Y-2.45982 Z[#3+#4]
#1=[#502+[#503-#502]*0.19832]
#2=[#510+[#511-#510]*0.19832]
#3=[#1+[#2-#1]*0.03518]
X4.69723 Y-2.45800 Z[#3+#4]
#1=[#502+[#503-#502]*0.20198]
#2=[#510+[#511-#510]*0.20198]
#3=[#1+[#2-#1]*0.05390]
X4.70476 Y-2.45650 Z[#3+#4]
#1=[#502+[#503-#502]*0.20198]
#2=[#510+[#511-#510]*0.20198]
#3=[#1+[#2-#1]*0.64575]
X4.94286 Y-2.45650 Z[#3+#4]
#1=[#502+[#503-#502]*0.20093]
#2=[#510+[#511-#510]*0.20093]
#3=[#1+[#2-#1]*0.65592]
X4.94695 Y-2.45694 Z[#3+#4]
#1=[#502+[#503-#502]*0.19782]
#2=[#510+[#511-#510]*0.19782]
#3=[#1+[#2-#1]*0.66565]
X4.95086 Y-2.45821 Z[#3+#4]
#1=[#502+[#503-#502]*0.19279]
#2=[#510+[#511-#510]*0.19279]
#3=[#1+[#2-#1]*0.67451]
X4.95443 Y-2.46026 Z[#3+#4]
#1=[#502+[#503-#502]*0.18605]
#2=[#510+[#511-#510]*0.18605]
#3=[#1+[#2-#1]*0.68211]
X4.95749 Y-2.46302 Z[#3+#4]
#1=[#502+[#503-#502]*0.17791]
#2=[#510+[#511-#510]*0.17791]
#3=[#1+[#2-#1]*0.68812]
X4.95990 Y-2.46635 Z[#3+#4]
#1=[#502+[#503-#502]*0.16872]
#2=[#510+[#511-#510]*0.16872]
#3=[#1+[#2-#1]*0.69228]
X4.96158 Y-2.47011 Z[#3+#4]
#1=[#502+[#503-#502]*0.15887]
#2=[#510+[#511-#510]*0.15887]
#3=[#1+[#2-#1]*0.69441]
X4.96243 Y-2.47413 Z[#3+#4]
#1=[#502+[#503-#502]*0.14881]
#2=[#510+[#511-#510]*0.14881]
#3=[#1+[#2-#1]*0.69441]
X4.96243 Y-2.47825 Z[#3+#4]
#1=[#502+[#503-#502]*0.13897]
#2=[#510+[#511-#510]*0.13897]
#3=[#1+[#2-#1]*0.69228]
X4.96158 Y-2.48227 Z[#3+#4]
#1=[#502+[#503-#502]*0.12977]
#2=[#510+[#511-#510]*0.12977]
#3=[#1+[#2-#1]*0.68812]
X4.95990 Y-2.48603 Z[#3+#4]
#1=[#502+[#503-#502]*0.12163]
#2=[#510+[#511-#510]*0.12163]
#3=[#1+[#2-#1]*0.68211]
X4.95749 Y-2.48936 Z[#3+#4]
#1=[#502+[#503-#502]*0.11490]
#2=[#510+[#511-#510]*0.11490]
#3=[#1+[#2-#1]*0.67451]
X4.95443 Y-2.49212 Z[#3+#4]
#1=[#502+[#503-#502]*0.10986]
#2=[#510+[#511-#510]*0.10986]
#3=[#1+[#2-#1]*0.66565]
X4.95086 Y-2.49417 Z[#3+#4]
#1=[#502+[#503-#502]*0.10675]
#2=[#510+[#511-#510]*0.10675]
#3=[#1+[#2-#1]*0.65592]
X4.94695 Y-2.49544 Z[#3+#4]
#1=[#502+[#503-#502]*0.10570]
#2=[#510+[#511-#510]*0.10570]
#3=[#1+[#2-#1]*0.64575]
X4.94286 Y-2.49587 Z[#3+#4]
#1=[#502+[#503-#502]*0.10570]
#2=[#510+[#511-#510]*0.10570]
#3=[#1+[#2-#1]*0.10283]
X4.72445 Y-2.49587 Z[#3+#4]
#1=[#501+[#502-#501]*0.61970]
#2=[#509+[#510-#509]*0.61970]
#3=[#1+[#2-#1]*0.10283]
X4.72445 Y-2.69460 Z[#3+#4]
#1=[#501+[#502-#501]*0.61970]
#2=[#509+[#510-#509]*0.61970]
#3=[#1+[#2-#1]*0.46819]
X4.87143 Y-2.69460 Z[#3+#4]
#1=[#501+[#502-#501]*0.61865]
#2=[#509+[#510-#509]*0.61865]
#3=[#1+[#2-#1]*0.47836]
X4.87552 Y-2.69503 Z[#3+#4]
#1=[#501+[#502-#501]*0.61554]
#2=[#509+[#510-#509]*0.61554]
#3=[#1+[#2-#1]*0.48809]
X4.87943 Y-2.69630 Z[#3+#4]
#1=[#501+[#502-#501]*0.61051]
#2=[#509+[#510-#509]*0.61051]
#3=[#1+[#2-#1]*0.49695]
X4.88300 Y-2.69836 Z[#3+#4]
#1=[#501+[#502-#501]*0.60377]
#2=[#509+[#510-#509]*0.60377]
#3=[#1+[#2-#1]*0.50455]
X4.88606 Y-2.70111 Z[#3+#4]
#1=[#501+[#502-#501]*0.59563]
#2=[#509+[#510-#509]*0.59563]
#3=[#1+[#2-#1]*0.51057]
X4.88847 Y-2.70444 Z[#3+#4]
#1=[#501+[#502-#501]*0.58643]
#2=[#509+[#510-#509]*0.58643]
#3=[#1+[#2-#1]*0.51473]
X4.89015 Y-2.70820 Z[#3+#4]
#1=[#501+[#502-#501]*0.57659]
#2=[#509+[#510-#509]*0.57659]
#3=[#1+[#2-#1]*0.51686]
X4.89100 Y-2.71223 Z[#3+#4]
#1=[#501+[#502-#501]*0.56653]
#2=[#509+[#510-#509]*0.56653]
#3=[#1+[#2-#1]*0.51686]
X4.89100 Y-2.71634 Z[#3+#4]
#1=[#501+[#502-#501]*0.55668]
#2=[#509+[#510-#509]*0.55668]
#3=[#1+[#2-#1]*0.51473]
X4.89015 Y-2.72037 Z[#3+#4]
#1=[#501+[#502-#501]*0.54749]
#2=[#509+[#510-#509]*0.54749]
#3=[#1+[#2-#1]*0.51057]
X4.88847 Y-2.72413 Z[#3+#4]
#1=[#501+[#502-#501]*0.53935]
#2=[#509+[#510-#509]*0.53935]
#3=[#1+[#2-#1]*0.50455]
X4.88606 Y-2.72746 Z[#3+#4]
#1=[#501+[#502-#501]*0.53261]
#2=[#509+[#510-#509]*0.53261]
#3=[#1+[#2-#1]*0.49695]
X4.88300 Y-2.73021 Z[#3+#4]
#1=[#501+[#502-#501]*0.52758]
#2=[#509+[#510-#509]*0.52758]
#3=[#1+[#2-#1]*0.48809]
X4.87943 Y-2.73227 Z[#3+#4]
#1=[#501+[#502-#501]*0.52447]
#2=[#509+[#510-#509]*0.52447]
#3=[#1+[#2-#1]*0.47836]
X4.87552 Y-2.73354 Z[#3+#4]
#1=[#501+[#502-#501]*0.52342]
#2=[#509+[#510-#509]*0.52342]
#3=[#1+[#2-#1]*0.46819]
X4.87143 Y-2.73397 Z[#3+#4]
#1=[#501+[#502-#501]*0.52342]
#2=[#509+[#510-#509]*0.52342]
#3=[#1+[#2-#1]*0.10283]
X4.72445 Y-2.73397 Z[#3+#4]
#1=[#500+[#501-#500]*0.93105]
#2=[#508+[#509-#508]*0.93105]
#3=[#1+[#2-#1]*0.10283]
X4.72445 Y-2.97619 Z[#3+#4]
#1=[#500+[#501-#500]*0.92104]
#2=[#508+[#509-#508]*0.92104]
#3=[#1+[#2-#1]*0.10176]
X4.72401 Y-2.98028 Z[#3+#4]
#1=[#500+[#501-#500]*0.91147]
#2=[#508+[#509-#508]*0.91147]
#3=[#1+[#2-#1]*0.09860]
X4.72274 Y-2.98420 Z[#3+#4]
#1=[#500+[#501-#500]*0.90275]
#2=[#508+[#509-#508]*0.90275]
#3=[#1+[#2-#1]*0.09349]
X4.72069 Y-2.98776 Z[#3+#4]
#1=[#500+[#501-#500]*0.89527]
#2=[#508+[#509-#508]*0.89527]
#3=[#1+[#2-#1]*0.08664]
X4.71793 Y-2.99082 Z[#3+#4]
#1=[#500+[#501-#500]*0.88936]
#2=[#508+[#509-#508]*0.88936]
#3=[#1+[#2-#1]*0.07837]
X4.71460 Y-2.99324 Z[#3+#4]
#1=[#500+[#501-#500]*0.88526]
#2=[#508+[#509-#508]*0.88526]
#3=[#1+[#2-#1]*0.06902]
X4.71084 Y-2.99491 Z[#3+#4]
#1=[#500+[#501-#500]*0.88317]
#2=[#508+[#509-#508]*0.88317]
#3=[#1+[#2-#1]*0.05902]
X4.70682 Y-2.99577 Z[#3+#4]
#1=[#500+[#501-#500]*0.88317]
#2=[#508+[#509-#508]*0.88317]
#3=[#1+[#2-#1]*0.04879]
X4.70270 Y-2.99577 Z[#3+#4]
#1=[#500+[#501-#500]*0.88526]
#2=[#508+[#509-#508]*0.88526]
#3=[#1+[#2-#1]*0.03878]
X4.69868 Y-2.99491 Z[#3+#4]
#1=[#500+[#501-#500]*0.88936]
#2=[#508+[#509-#508]*0.88936]
#3=[#1+[#2-#1]*0.02944]
X4.69492 Y-2.99324 Z[#3+#4]
#1=[#500+[#501-#500]*0.89527]
#2=[#508+[#509-#508]*0.89527]
#3=[#1+[#2-#1]*0.02116]
X4.69159 Y-2.99082 Z[#3+#4]
#1=[#500+[#501-#500]*0.90275]
#2=[#508+[#509-#508]*0.90275]
#3=[#1+[#2-#1]*0.01432]
X4.68884 Y-2.98776 Z[#3+#4]
#1=[#500+[#501-#500]*0.91147]
#2=[#508+[#509-#508]*0.91147]
#3=[#1+[#2-#1]*0.00920]
X4.68678 Y-2.98420 Z[#3+#4]
#1=[#500+[#501-#500]*0.92104]
#2=[#508+[#509-#508]*0.92104]
#3=[#1+[#2-#1]*0.00604]
X4.68551 Y-2.98028 Z[#3+#4]
#1=[#500+[#501-#500]*0.93105]
#2=[#508+[#509-#508]*0.93105]
#3=[#1+[#2-#1]*0.00497]
X4.68508 Y-2.97619 Z[#3+#4]
G04 P0 ( dwell for no time -- G64 should not smooth over this point )
G00 Z0.08000 ( retract )

G00 X5.11365 Y-2.97619 ( rapid move to begin. )
G01 F180.00000
#1=[#508+[#509-#508]*0.93105]
#2=[#516+[#517-#516]*0.93105]
#3=[#1+[#2-#1]*0.07029]
G01 Z[-0.04000+#111]
G04 P0 ( dwell for no time -- G64 should not smooth over this point )
G01 F360.00000
#1=[#509+[#510-#509]*0.74624]
#2=[#517+[#518-#517]*0.74624]
#3=[#1+[#2-#1]*0.07029]
X5.11365 Y-2.64286 Z[#3+#4]
#1=[#509+[#510-#509]*0.75625]
#2=[#517+[#518-#517]*0.75625]
#3=[#1+[#2-#1]*0.07135]
X5.11408 Y-2.63876 Z[#3+#4]
#1=[#509+[#510-#509]*0.76582]
#2=[#517+[#518-#517]*0.76582]
#3=[#1+[#2-#1]*0.07451]
X5.11535 Y-2.63485 Z[#3+#4]
#1=[#509+[#510-#509]*0.77454]
#2=[#517+[#518-#517]*0.77454]
#3=[#1+[#2-#1]*0.07963]
X5.11741 Y-2.63129 Z[#3+#4]
#1=[#509+[#510-#509]*0.78202]
#2=[#517+[#518-#517]*0.78202]
#3=[#1+[#2-#1]*0.08648]
X5.12016 Y-2.62823 Z[#3+#4]
#1=[#509+[#510-#509]*0.78793]
#2=[#517+[#518-#517]*0.78793]
#3=[#1+[#2-#1]*0.09475]
X5.12349 Y-2.62581 Z[#3+#4]
#1=[#509+[#510-#509]*0.79203]
#2=[#517+[#518-#517]*0.79203]
#3=[#1+[#2-#1]*0.10410]
X5.12725 Y-2.62413 Z[#3+#4]
#1=[#509+[#510-#509]*0.79412]
#2=[#517+[#518-#517]*0.79412]
#3=[#1+[#2-#1]*0.11410]
X5.13127 Y-2.62328 Z[#3+#4]
#1=[#509+[#510-#509]*0.79412]
#2=[#517+[#518-#517]*0.79412]
#3=[#1+[#2-#1]*0.12433]
X5.13539 Y-2.62328 Z[#3+#4]
#1=[#509+[#510-#509]*0.79203]
#2=[#517+[#518-#517]*0.79203]
#3=[#1+[#2-#1]*0.13434]
X5.13941 Y-2.62413 Z[#3+#4]
#1=[#509+[#510-#509]*0.78793]
#2=[#517+[#518-#517]*0.78793]
#3=[#1+[#2-#1]*0.14368]
X5.14318 Y-2.62581 Z[#3+#4]
#1=[#509+[#510-#509]*0.78202]
#2=[#517+[#518-#517]*0.78202]
#3=[#1+[#2-#1]*0.15196]
X5.14650 Y-2.62823 Z[#3+#4]
#1=[#509+[#510-#509]*0.77454]
#2=[#517+[#518-#517]*0.77454]
#3=[#1+[#2-#1]*0.15880]
X5.14926 Y-2.63129 Z[#3+#4]
#1=[#509+[#510-#509]*0.76582]
#2=[#517+[#518-#517]*0.76582]
#3=[#1+[#2-#1]*0.16392]
X5.15132 Y-2.63485 Z[#3+#4]
#1=[#509+[#510-#509]*0.75625]
#2=[#517+[#518-#517]*0.75625]
#3=[#1+[#2-#1]*0.16708]
X5.15259 Y-2.63876 Z[#3+#4]
#1=[#509+[#510-#509]*0.68778]
#2=[#517+[#518-#517]*0.68778]
#3=[#1+[#2-#1]*0.16815]
X5.15302 Y-2.66676 Z[#3+#4]
#1=[#509+[#510-#509]*0.72707]
#2=[#517+[#518-#517]*0.72707]
#3=[#1+[#2-#1]*0.20897]
X5.16944 Y-2.65070 Z[#3+#4]
#1=[#509+[#510-#509]*0.79210]
#2=[#517+[#518-#517]*0.79210]
#3=[#1+[#2-#1]*0.34107]
X5.22258 Y-2.62410 Z[#3+#4]
#1=[#509+[#510-#509]*0.79438]
#2=[#517+[#518-#517]*0.79438]
#3=[#1+[#2-#1]*0.35595]
X5.22857 Y-2.62317 Z[#3+#4]
#1=[#509+[#510-#509]*0.79438]
#2=[#517+[#518-#517]*0.79438]
#3=[#1+[#2-#1]*0.47432]
X5.27619 Y-2.62317 Z[#3+#4]
#1=[#509+[#510-#509]*0.79333]
#2=[#517+[#518-#517]*0.79333]
#3=[#1+[#2-#1]*0.48449]
X5.28028 Y-2.62360 Z[#3+#4]
#1=[#509+[#510-#509]*0.79022]
#2=[#517+[#518-#517]*0.79022]
#3=[#1+[#2-#1]*0.49422]
X5.28420 Y-2.62487 Z[#3+#4]
#1=[#509+[#510-#509]*0.78519]
#2=[#517+[#518-#517]*0.78519]
#3=[#1+[#2-#1]*0.50308]
X5.28776 Y-2.62693 Z[#3+#4]
#1=[#509+[#510-#509]*0.77846]
#2=[#517+[#518-#517]*0.77846]
#3=[#1+[#2-#1]*0.51068]
X5.29082 Y-2.62968 Z[#3+#4]
#1=[#509+[#510-#509]*0.77031]
#2=[#517+[#518-#517]*0.77031]
#3=[#1+[#2-#1]*0.51670]
X5.29324 Y-2.63301 Z[#3+#4]
#1=[#509+[#510-#509]*0.76112]
#2=[#517+[#518-#517]*0.76112]
#3=[#1+[#2-#1]*0.52086]
X5.29491 Y-2.63677 Z[#3+#4]
#1=[#509+[#510-#509]*0.75127]
#2=[#517+[#518-#517]*0.75127]
#3=[#1+[#2-#1]*0.52298]
X5.29577 Y-2.64080 Z[#3+#4]
#1=[#509+[#510-#509]*0.74121]
#2=[#517+[#518-#517]*0.74121]
#3=[#1+[#2-#1]*0.52298]
X5.29577 Y-2.64491 Z[#3+#4]
#1=[#509+[#510-#509]*0.73137]
#2=[#517+[#518-#517]*0.73137]
#3=[#1+[#2-#1]*0.52086]
X5.29491 Y-2.64894 Z[#3+#4]
#1=[#509+[#510-#509]*0.72217]
#2=[#517+[#518-#517]*0.72217]
#3=[#1+[#2-#1]*0.51670]
X5.29324 Y-2.65270 Z[#3+#4]
#1=[#509+[#510-#509]*0.71403]
#2=[#517+[#518-#517]*0.71403]
#3=[#1+[#2-#1]*0.51068]
X5.29082 Y-2.65603 Z[#3+#4]
#1=[#509+[#510-#509]*0.70730]
#2=[#517+[#518-#517]*0.70730]
#3=[#1+[#2-#1]*0.50308]
X5.28776 Y-2.65878 Z[#3+#4]
#1=[#509+[#510-#509]*0.70226]
#2=[#517+[#518-#517]*0.70226]
#3=[#1+[#2-#1]*0.49422]
X5.28420 Y-2.66084 Z[#3+#4]
#1=[#509+[#510-#509]*0.69915]
#2=[#517+[#518-#517]*0.69915]
#3=[#1+[#2-#1]*0.48449]
X5.28028 Y-2.66211 Z[#3+#4]
#1=[#509+[#510-#509]*0.69810]
#2=[#517+[#518-#517]*0.69810]
#3=[#1+[#2-#1]*0.47432]
X5.27619 Y-2.66254 Z[#3+#4]
#1=[#509+[#510-#509]*0.69810]
#2=[#517+[#518-#517]*0.69810]
#3=[#1+[#2-#1]*0.36750]
X5.23322 Y-2.66254 Z[#3+#4]
#1=[#509+[#510-#509]*0.64845]
#2=[#517+[#518-#517]*0.64845]
#3=[#1+[#2-#1]*0.26657]
X5.19261 Y-2.68284 Z[#3+#4]
#1=[#509+[#510-#509]*0.60127]
#2=[#517+[#518-#517]*0.60127]
#3=[#1+[#2-#1]*0.21861]
X5.17332 Y-2.70214 Z[#3+#4]
#1=[#509+[#510-#509]*0.50197]
#2=[#517+[#518-#517]*0.50197]
#3=[#1+[#2-#1]*0.16815]
X5.15302 Y-2.74274 Z[#3+#4]
#1=[#508+[#509-#508]*0.93105]
#2=[#516+[#517-#516]*0.93105]
#3=[#1+[#2-#1]*0.16815]
X5.15302 Y-2.97619 Z[#3+#4]
#1=[#508+[#509-#508]*0.92104]
#2=[#516+[#517-#516]*0.92104]
#3=[#1+[#2-#1]*0.16708]
X5.15259 Y-2.98028 Z[#3+#4]
#1=[#508+[#509-#508]*0.91147]
#2=[#516+[#517-#516]*0.91147]
#3=[#1+[#2-#1]*0.16392]
X5.15132 Y-2.98420 Z[#3+#4]
#1=[#508+[#509-#508]*0.90275]
#2=[#516+[#517-#516]*0.90275]
#3=[#1+[#2-#1]*0.15880]
X5.14926 Y-2.98776 Z[#3+#4]
#1=[#508+[#509-#508]*0.89527]
#2=[#516+[#517-#516]*0.89527]
#3=[#1+[#2-#1]*0.15196]
X5.14650 Y-2.99082 Z[#3+#4]
#1=[#508+[#509-#508]*0.88936]
#2=[#516+[#517-#516]*0.88936]
#3=[#1+[#2-#1]*0.14368]
X5.14318 Y-2.99324 Z[#3+#4]
#1=[#508+[#509-#508]*0.88526]
#2=[#516+[#517-#516]*0.88526]
#3=[#1+[#2-#1]*0.13434]
X5.13941 Y-2.99491 Z[#3+#4]
#1=[#508+[#509-#508]*0.88317]
#2=[#516+[#517-#516]*0.88317]
#3=[#1+[#2-#1]*0.12433]
X5.13539 Y-2.99577 Z[#3+#4]
#1=[#508+[#509-#508]*0.88317]
#2=[#516+[#517-#516]*0.88317]
#3=[#1+[#2-#1]*0.11410]
X5.13127 Y-2.99577 Z[#3+#4]
#1=[#508+[#509-#508]*0.88526]
#2=[#516+[#517-#516]*0.88526]
#3=[#1+[#2-#1]*0.10410]
X5.12725 Y-2.99491 Z[#3+#4]
#1=[#508+[#509-#508]*0.88936]
#2=[#516+[#517-#516]*0.88936]
#3=[#1+[#2-#1]*0.09475]
X5.12349 Y-2.99324 Z[#3+#4]
#1=[#508+[#509-#508]*0.89527]
#2=[#516+[#517-#516]*0.89527]
#3=[#1+[#2-#1]*0.08648]
X5.12016 Y-2.99082 Z[#3+#4]
#1=[#508+[#509-#508]*0.90275]
#2=[#516+[#517-#516]*0.90275]
#3=[#1+[#2-#1]*0.07963]
X5.11741 Y-2.98776 Z[#3+#4]
#1=[#508+[#509-#508]*0.91147]
#2=[#516+[#517-#516]*0.91147]
#3=[#1+[#2-#1]*0.07451]
X5.11535 Y-2.98420 Z[#3+#4]
#1=[#508+[#509-#508]*0.92104]
#2=[#516+[#517-#516]*0.92104]
#3=[#1+[#2-#1]*0.07135]
X5.11408 Y-2.98028 Z[#3+#4]
#1=[#508+[#509-#508]*0.93105]
#2=[#516+[#517-#516]*0.93105]
#3=[#1+[#2-#1]*0.07029]
X5.11365 Y-2.97619 Z[#3+#4]
G04 P0 ( dwell for no time -- G64 should not smooth over this point )
G00 Z0.08000 ( retract )

G00 X5.39936 Y-2.88095 ( rapid move to begin. )
G01 F180.00000
#1=[#509+[#510-#509]*0.16396]
#2=[#517+[#518-#517]*0.16396]
#3=[#1+[#2-#1]*0.78049]
G01 Z[-0.04000+#111]
G04 P0 ( dwell for no time -- G64 should not smooth over this point )
G01 F360.00000
#1=[#509+[#510-#509]*0.51333]
#2=[#517+[#518-#517]*0.51333]
#3=[#1+[#2-#1]*0.78049]
X5.39936 Y-2.73809 Z[#3+#4]
#1=[#509+[#510-#509]*0.52798]
#2=[#517+[#518-#517]*0.52798]
#3=[#1+[#2-#1]*0.78281]
X5.40029 Y-2.73211 Z[#3+#4]
#1=[#509+[#510-#509]*0.65793]
#2=[#517+[#518-#517]*0.65793]
#3=[#1+[#2-#1]*0.84891]
X5.42689 Y-2.67897 Z[#3+#4]
#1=[#509+[#510-#509]*0.72707]
#2=[#517+[#518-#517]*0.72707]
#3=[#1+[#2-#1]*0.91918]
X5.45516 Y-2.65070 Z[#3+#4]
#1=[#517+[#518-#517]*0.78930]
#2=[#525+[#526-#525]*0.78930]
#3=[#1+[#2-#1]*0.04428]
X5.50548 Y-2.62525 Z[#3+#4]
#1=[#517+[#518-#517]*0.79381]
#2=[#525+[#526-#525]*0.79381]
#3=[#1+[#2-#1]*0.05863]
X5.51125 Y-2.62341 Z[#3+#4]
#1=[#517+[#518-#517]*0.79381]
#2=[#525+[#526-#525]*0.79381]
#3=[#1+[#2-#1]*0.25125]
X5.58874 Y-2.62341 Z[#3+#4]
#1=[#517+[#518-#517]*0.78930]
#2=[#525+[#526-#525]*0.78930]
#3=[#1+[#2-#1]*0.26560]
X5.59452 Y-2.62525 Z[#3+#4]
#1=[#517+[#518-#517]*0.72707]
#2=[#525+[#526-#525]*0.72707]
#3=[#1+[#2-#1]*0.39069]
X5.64484 Y-2.65070 Z[#3+#4]
#1=[#517+[#518-#517]*0.65793]
#2=[#525+[#526-#525]*0.65793]
#3=[#1+[#2-#1]*0.46096]
X5.67311 Y-2.67897 Z[#3+#4]
#1=[#517+[#518-#517]*0.53486]
#2=[#525+[#526-#525]*0.53486]
#3=[#1+[#2-#1]*0.52421]
X5.69856 Y-2.72929 Z[#3+#4]
#1=[#517+[#518-#517]*0.52074]
#2=[#525+[#526-#525]*0.52074]
#3=[#1+[#2-#1]*0.52880]
X5.70040 Y-2.73506 Z[#3+#4]
#1=[#517+[#518-#517]*0.15655]
#2=[#525+[#526-#525]*0.15655]
#3=[#1+[#2-#1]*0.52880]
X5.70040 Y-2.88398 Z[#3+#4]
#1=[#517+[#518-#517]*0.14243]
#2=[#525+[#526-#525]*0.14243]
#3=[#1+[#2-#1]*0.52421]
X5.69856 Y-2.88976 Z[#3+#4]
#1=[#517+[#518-#517]*0.01935]
#2=[#525+[#526-#525]*0.01935]
#3=[#1+[#2-#1]*0.46096]
X5.67311 Y-2.94008 Z[#3+#4]
#1=[#516+[#517-#516]*0.95022]
#2=[#524+[#525-#524]*0.95022]
#3=[#1+[#2-#1]*0.39069]
X5.64484 Y-2.96835 Z[#3+#4]
#1=[#516+[#517-#516]*0.88799]
#2=[#524+[#525-#524]*0.88799]
#3=[#1+[#2-#1]*0.26560]
X5.59452 Y-2.99380 Z[#3+#4]
#1=[#516+[#517-#516]*0.88348]
#2=[#524+[#525-#524]*0.88348]
#3=[#1+[#2-#1]*0.25125]
X5.58874 Y-2.99564 Z[#3+#4]
#1=[#516+[#517-#516]*0.88302]
#2=[#524+[#525-#524]*0.88302]
#3=[#1+[#2-#1]*0.06507]
X5.51384 Y-2.99583 Z[#3+#4]
#1=[#516+[#517-#516]*0.88445]
#2=[#524+[#525-#524]*0.88445]
#3=[#1+[#2-#1]*0.05385]
X5.50933 Y-2.99524 Z[#3+#4]
#1=[#516+[#517-#516]*0.88799]
#2=[#524+[#525-#524]*0.88799]
#3=[#1+[#2-#1]*0.04428]
X5.50548 Y-2.99380 Z[#3+#4]
#1=[#508+[#509-#508]*0.95022]
#2=[#516+[#517-#516]*0.95022]
#3=[#1+[#2-#1]*0.91918]
X5.45516 Y-2.96835 Z[#3+#4]
#1=[#509+[#510-#509]*0.01346]
#2=[#517+[#518-#517]*0.01346]
#3=[#1+[#2-#1]*0.85401]
X5.42894 Y-2.94249 Z[#3+#4]
#1=[#509+[#510-#509]*0.02597]
#2=[#517+[#518-#517]*0.02597]
#3=[#1+[#2-#1]*0.84484]
X5.42525 Y-2.93737 Z[#3+#4]
#1=[#509+[#510-#509]*0.14243]
#2=[#517+[#518-#517]*0.14243]
#3=[#1+[#2-#1]*0.78566]
X5.40144 Y-2.88976 Z[#3+#4]
#1=[#509+[#510-#509]*0.14931]
#2=[#517+[#518-#517]*0.14931]
#3=[#1+[#2-#1]*0.78281]
X5.40029 Y-2.88694 Z[#3+#4]
#1=[#509+[#510-#509]*0.16396]
#2=[#517+[#518-#517]*0.16396]
#3=[#1+[#2-#1]*0.78049]
X5.39936 Y-2.88095 Z[#3+#4]
G04 P0 ( dwell for no time -- G64 should not smooth over this point )
G00 Z0.08000 ( retract )

G00 X5.43873 Y-2.87630 ( rapid move to begin. )
G01 F180.00000
#1=[#509+[#510-#509]*0.17532]
#2=[#517+[#518-#517]*0.17532]
#3=[#1+[#2-#1]*0.87836]
G01 Z[-0.04000+#111]
G04 P0 ( dwell for no time -- G64 should not smooth over this point )
G01 F360.00000
#1=[#509+[#510-#509]*0.50197]
#2=[#517+[#518-#517]*0.50197]
#3=[#1+[#2-#1]*0.87836]
X5.43873 Y-2.74274 Z[#3+#4]
#1=[#509+[#510-#509]*0.60127]
#2=[#517+[#518-#517]*0.60127]
#3=[#1+[#2-#1]*0.92882]
X5.45904 Y-2.70214 Z[#3+#4]
#1=[#509+[#510-#509]*0.64845]
#2=[#517+[#518-#517]*0.64845]
#3=[#1+[#2-#1]*0.97678]
X5.47833 Y-2.68284 Z[#3+#4]
#1=[#517+[#518-#517]*0.69810]
#2=[#525+[#526-#525]*0.69810]
#3=[#1+[#2-#1]*0.07771]
X5.51893 Y-2.66254 Z[#3+#4]
#1=[#517+[#518-#517]*0.69810]
#2=[#525+[#526-#525]*0.69810]
#3=[#1+[#2-#1]*0.23216]
X5.58107 Y-2.66254 Z[#3+#4]
#1=[#517+[#518-#517]*0.64845]
#2=[#525+[#526-#525]*0.64845]
#3=[#1+[#2-#1]*0.33310]
X5.62167 Y-2.68284 Z[#3+#4]
#1=[#517+[#518-#517]*0.60127]
#2=[#525+[#526-#525]*0.60127]
#3=[#1+[#2-#1]*0.38105]
X5.64096 Y-2.70214 Z[#3+#4]
#1=[#517+[#518-#517]*0.50197]
#2=[#525+[#526-#525]*0.50197]
#3=[#1+[#2-#1]*0.43152]
X5.66127 Y-2.74274 Z[#3+#4]
#1=[#517+[#518-#517]*0.17532]
#2=[#525+[#526-#525]*0.17532]
#3=[#1+[#2-#1]*0.43152]
X5.66127 Y-2.87630 Z[#3+#4]
#1=[#517+[#518-#517]*0.07602]
#2=[#525+[#526-#525]*0.07602]
#3=[#1+[#2-#1]*0.38105]
X5.64096 Y-2.91691 Z[#3+#4]
#1=[#517+[#518-#517]*0.02884]
#2=[#525+[#526-#525]*0.02884]
#3=[#1+[#2-#1]*0.33310]
X5.62167 Y-2.93620 Z[#3+#4]
#1=[#516+[#517-#516]*0.97919]
#2=[#524+[#525-#524]*0.97919]
#3=[#1+[#2-#1]*0.23216]
X5.58107 Y-2.95650 Z[#3+#4]
#1=[#516+[#517-#516]*0.97919]
#2=[#524+[#525-#524]*0.97919]
#3=[#1+[#2-#1]*0.07771]
X5.51893 Y-2.95650 Z[#3+#4]
#1=[#509+[#510-#509]*0.02884]
#2=[#517+[#518-#517]*0.02884]
#3=[#1+[#2-#1]*0.97678]
X5.47833 Y-2.93620 Z[#3+#4]
#1=[#509+[#510-#509]*0.07602]
#2=[#517+[#518-#517]*0.07602]
#3=[#1+[#2-#1]*0.92882]
X5.45904 Y-2.91691 Z[#3+#4]
#1=[#509+[#510-#509]*0.17532]
#2=[#517+[#518-#517]*0.17532]
#3=[#1+[#2-#1]*0.87836]
X5.43873 Y-2.87630 Z[#3+#4]
G04 P0 ( dwell for no time -- G64 should not smooth over this point )
G00 Z0.08000 ( retract )

G00 X5.87555 Y-2.97619 ( rapid move to begin. )
G01 F180.00000
#1=[#516+[#517-#516]*0.93105]
#2=[#524+[#525-#524]*0.93105]
#3=[#1+[#2-#1]*0.96418]
G01 Z[-0.04000+#111]
G04 P0 ( dwell for no time -- G64 should not smooth over this point )
G01 F360.00000
#1=[#517+[#518-#517]*0.74624]
#2=[#525+[#526-#525]*0.74624]
#3=[#1+[#2-#1]*0.96418]
X5.87555 Y-2.64286 Z[#3+#4]
#1=[#517+[#518-#517]*0.75625]
#2=[#525+[#526-#525]*0.75625]
#3=[#1+[#2-#1]*0.96525]
X5.87598 Y-2.63876 Z[#3+#4]
#1=[#517+[#518-#517]*0.76582]
#2=[#525+[#526-#525]*0.76582]
#3=[#1+[#2-#1]*0.96840]
X5.87725 Y-2.63485 Z[#3+#4]
#1=[#517+[#518-#517]*0.77454]
#2=[#525+[#526-#525]*0.77454]
#3=[#1+[#2-#1]*0.97352]
X5.87931 Y-2.63129 Z[#3+#4]
#1=[#517+[#518-#517]*0.78202]
#2=[#525+[#526-#525]*0.78202]
#3=[#1+[#2-#1]*0.98037]
X5.88207 Y-2.62823 Z[#3+#4]
#1=[#517+[#518-#517]*0.78793]
#2=[#525+[#526-#525]*0.78793]
#3=[#1+[#2-#1]*0.98864]
X5.88539 Y-2.62581 Z[#3+#4]
#1=[#517+[#518-#517]*0.79203]
#2=[#525+[#526-#525]*0.79203]
#3=[#1+[#2-#1]*0.99799]
X5.88915 Y-2.62413 Z[#3+#4]
#1=[#525+[#526-#525]*0.79412]
#2=[#533+[#534-#533]*0.79412]
#3=[#1+[#2-#1]*0.00799]
X5.89318 Y-2.62328 Z[#3+#4]
#1=[#525+[#526-#525]*0.79412]
#2=[#533+[#534-#533]*0.79412]
#3=[#1+[#2-#1]*0.01822]
X5.89729 Y-2.62328 Z[#3+#4]
#1=[#525+[#526-#525]*0.79203]
#2=[#533+[#534-#533]*0.79203]
#3=[#1+[#2-#1]*0.02823]
X5.90132 Y-2.62413 Z[#3+#4]
#1=[#525+[#526-#525]*0.78793]
#2=[#533+[#534-#533]*0.78793]
#3=[#1+[#2-#1]*0.03757]
X5.90508 Y-2.62581 Z[#3+#4]
#1=[#525+[#526-#525]*0.78202]
#2=[#533+[#534-#533]*0.78202]
#3=[#1+[#2-#1]*0.04585]
X5.90841 Y-2.62823 Z[#3+#4]
#1=[#525+[#526-#525]*0.77454]
#2=[#533+[#534-#533]*0.77454]
#3=[#1+[#2-#1]*0.05269]
X5.91116 Y-2.63129 Z[#3+#4]
#1=[#525+[#526-#525]*0.76582]
#2=[#533+[#534-#533]*0.76582]
#3=[#1+[#2-#1]*0.05781]
X5.91322 Y-2.63485 Z[#3+#4]
#1=[#525+[#526-#525]*0.75625]
#2=[#533+[#534-#533]*0.75625]
#3=[#1+[#2-#1]*0.06097]
X5.91449 Y-2.63876 Z[#3+#4]
#1=[#525+[#526-#525]*0.73680]
#2=[#533+[#534-#533]*0.73680]
#3=[#1+[#2-#1]*0.06204]
X5.91492 Y-2.64672 Z[#3+#4]
#1=[#525+[#526-#525]*0.78930]
#2=[#533+[#534-#533]*0.78930]
#3=[#1+[#2-#1]*0.16877]
X5.95786 Y-2.62525 Z[#3+#4]
#1=[#525+[#526-#525]*0.79381]
#2=[#533+[#534-#533]*0.79381]
#3=[#1+[#2-#1]*0.18312]
X5.96364 Y-2.62341 Z[#3+#4]
#1=[#525+[#526-#525]*0.79381]
#2=[#533+[#534-#533]*0.79381]
#3=[#1+[#2-#1]*0.37574]
X6.04113 Y-2.62341 Z[#3+#4]
#1=[#525+[#526-#525]*0.78930]
#2=[#533+[#534-#533]*0.78930]
#3=[#1+[#2-#1]*0.39009]
X6.04690 Y-2.62525 Z[#3+#4]
#1=[#525+[#526-#525]*0.72707]
#2=[#533+[#534-#533]*0.72707]
#3=[#1+[#2-#1]*0.51519]
X6.09722 Y-2.65070 Z[#3+#4]
#1=[#525+[#526-#525]*0.72206]
#2=[#533+[#534-#533]*0.72206]
#3=[#1+[#2-#1]*0.52118]
X6.09963 Y-2.65275 Z[#3+#4]
#1=[#525+[#526-#525]*0.70955]
#2=[#533+[#534-#533]*0.70955]
#3=[#1+[#2-#1]*0.53034]
X6.10332 Y-2.65786 Z[#3+#4]
#1=[#525+[#526-#525]*0.59309]
#2=[#533+[#534-#533]*0.59309]
#3=[#1+[#2-#1]*0.58953]
X6.12713 Y-2.70548 Z[#3+#4]
#1=[#525+[#526-#525]*0.57897]
#2=[#533+[#534-#533]*0.57897]
#3=[#1+[#2-#1]*0.59411]
X6.12897 Y-2.71125 Z[#3+#4]
#1=[#524+[#525-#524]*0.93105]
#2=[#532+[#533-#532]*0.93105]
#3=[#1+[#2-#1]*0.59469]
X6.12921 Y-2.97619 Z[#3+#4]
#1=[#524+[#525-#524]*0.92104]
#2=[#532+[#533-#532]*0.92104]
#3=[#1+[#2-#1]*0.59362]
X6.12878 Y-2.98028 Z[#3+#4]
#1=[#524+[#525-#524]*0.91147]
#2=[#532+[#533-#532]*0.91147]
#3=[#1+[#2-#1]*0.59046]
X6.12751 Y-2.98420 Z[#3+#4]
#1=[#524+[#525-#524]*0.90275]
#2=[#532+[#533-#532]*0.90275]
#3=[#1+[#2-#1]*0.58535]
X6.12545 Y-2.98776 Z[#3+#4]
#1=[#524+[#525-#524]*0.89527]
#2=[#532+[#533-#532]*0.89527]
#3=[#1+[#2-#1]*0.57850]
X6.12269 Y-2.99082 Z[#3+#4]
#1=[#524+[#525-#524]*0.88936]
#2=[#532+[#533-#532]*0.88936]
#3=[#1+[#2-#1]*0.57023]
X6.11937 Y-2.99324 Z[#3+#4]
#1=[#524+[#525-#524]*0.88526]
#2=[#532+[#533-#532]*0.88526]
#3=[#1+[#2-#1]*0.56088]
X6.11561 Y-2.99491 Z[#3+#4]
#1=[#524+[#525-#524]*0.88317]
#2=[#532+[#533-#532]*0.88317]
#3=[#1+[#2-#1]*0.55088]
X6.11158 Y-2.99577 Z[#3+#4]
#1=[#524+[#525-#524]*0.88317]
#2=[#532+[#533-#532]*0.88317]
#3=[#1+[#2-#1]*0.54065]
X6.10747 Y-2.99577 Z[#3+#4]
#1=[#524+[#525-#524]*0.88526]
#2=[#532+[#533-#532]*0.88526]
#3=[#1+[#2-#1]*0.53064]
X6.10344 Y-2.99491 Z[#3+#4]
#1=[#524+[#525-#524]*0.88936]
#2=[#532+[#533-#532]*0.88936]
#3=[#1+[#2-#1]*0.52130]
X6.09968 Y-2.99324 Z[#3+#4]
#1=[#524+[#525-#524]*0.89527]
#2=[#532+[#533-#532]*0.89527]
#3=[#1+[#2-#1]*0.51302]
X6.09635 Y-2.99082 Z[#3+#4]
#1=[#524+[#525-#524]*0.90275]
#2=[#532+[#533-#532]*0.90275]
#3=[#1+[#2-#1]*0.50617]
X6.09360 Y-2.98776 Z[#3+#4]
#1=[#524+[#525-#524]*0.91147]
#2=[#532+[#533-#532]*0.91147]
#3=[#1+[#2-#1]*0.50106]
X6.09154 Y-2.98420 Z[#3+#4]
#1=[#524+[#525-#524]*0.92104]
#2=[#532+[#533-#532]*0.92104]
#3=[#1+[#2-#1]*0.49790]
X6.09027 Y-2.98028 Z[#3+#4]
#1=[#524+[#525-#524]*0.93105]
#2=[#532+[#533-#532]*0.93105]
#3=[#1+[#2-#1]*0.49683]
X6.08984 Y-2.97619 Z[#3+#4]
#1=[#525+[#526-#525]*0.56020]
#2=[#533+[#534-#533]*0.56020]
#3=[#1+[#2-#1]*0.49683]
X6.08984 Y-2.71893 Z[#3+#4]
#1=[#525+[#526-#525]*0.65213]
#2=[#533+[#534-#533]*0.65213]
#3=[#1+[#2-#1]*0.45011]
X6.07104 Y-2.68134 Z[#3+#4]
#1=[#525+[#526-#525]*0.69810]
#2=[#533+[#534-#533]*0.69810]
#3=[#1+[#2-#1]*0.35666]
X6.03345 Y-2.66254 Z[#3+#4]
#1=[#525+[#526-#525]*0.69810]
#2=[#533+[#534-#533]*0.69810]
#3=[#1+[#2-#1]*0.20221]
X5.97131 Y-2.66254 Z[#3+#4]
#1=[#525+[#526-#525]*0.64845]
#2=[#533+[#534-#533]*0.64845]
#3=[#1+[#2-#1]*0.10127]
X5.93071 Y-2.68284 Z[#3+#4]
#1=[#525+[#526-#525]*0.60985]
#2=[#533+[#534-#533]*0.60985]
#3=[#1+[#2-#1]*0.06204]
X5.91492 Y-2.69863 Z[#3+#4]
#1=[#524+[#525-#524]*0.93105]
#2=[#532+[#533-#532]*0.93105]
#3=[#1+[#2-#1]*0.06204]
X5.91492 Y-2.97619 Z[#3+#4]
#1=[#524+[#525-#524]*0.92104]
#2=[#532+[#533-#532]*0.92104]
#3=[#1+[#2-#1]*0.06097]
X5.91449 Y-2.98028 Z[#3+#4]
#1=[#524+[#525-#524]*0.91147]
#2=[#532+[#533-#532]*0.91147]
#3=[#1+[#2-#1]*0.05781]
X5.91322 Y-2.98420 Z[#3+#4]
#1=[#524+[#525-#524]*0.90275]
#2=[#532+[#533-#532]*0.90275]
#3=[#1+[#2-#1]*0.05269]
X5.91116 Y-2.98776 Z[#3+#4]
#1=[#524+[#525-#524]*0.89527]
#2=[#532+[#533-#532]*0.89527]
#3=[#1+[#2-#1]*0.04585]
X5.90841 Y-2.99082 Z[#3+#4]
#1=[#524+[#525-#524]*0.88936]
#2=[#532+[#533-#532]*0.88936]
#3=[#1+[#2-#1]*0.03757]
X5.90508 Y-2.99324 Z[#3+#4]
#1=[#524+[#525-#524]*0.88526]
#2=[#532+[#533-#532]*0.88526]
#3=[#1+[#2-#1]*0.02823]
X5.90132 Y-2.99491 Z[#3+#4]
#1=[#524+[#525-#524]*0.88317]
#2=[#532+[#533-#532]*0.88317]
#3=[#1+[#2-#1]*0.01822]
X5.89729 Y-2.99577 Z[#3+#4]
#1=[#524+[#525-#524]*0.88317]
#2=[#532+[#533-#532]*0.88317]
#3=[#1+[#2-#1]*0.00799]
X5.89318 Y-2.99577 Z[#3+#4]
#1=[#516+[#517-#516]*0.88526]
#2=[#524+[#525-#524]*0.88526]
#3=[#1+[#2-#1]*0.99799]
X5.88915 Y-2.99491 Z[#3+#4]
#1=[#516+[#517-#516]*0.88936]
#2=[#524+[#525-#524]*0.88936]
#3=[#1+[#2-#1]*0.98864]
X5.88539 Y-2.99324 Z[#3+#4]
#1=[#516+[#517-#516]*0.89527]
#2=[#524+[#525-#524]*0.89527]
#3=[#1+[#2-#1]*0.98037]
X5.88207 Y-2.99082 Z[#3+#4]
#1=[#516+[#517-#516]*0.90275]
#2=[#524+[#525-#524]*0.90275]
#3=[#1+[#2-#1]*0.97352]
X5.87931 Y-2.98776 Z[#3+#4]
#1=[#516+[#517-#516]*0.91147]
#2=[#524+[#525-#524]*0.91147]
#3=[#1+[#2-#1]*0.96840]
X5.87725 Y-2.98420 Z[#3+#4]
#1=[#516+[#517-#516]*0.92104]
#2=[#524+[#525-#524]*0.92104]
#3=[#1+[#2-#1]*0.96525]
X5.87598 Y-2.98028 Z[#3+#4]
#1=[#516+[#517-#516]*0.93105]
#2=[#524+[#525-#524]*0.93105]
#3=[#1+[#2-#1]*0.96418]
X5.87555 Y-2.97619 Z[#3+#4]
G04 P0 ( dwell for no time -- G64 should not smooth over this point )
G00 Z0.08000 ( retract )

G00 X6.25661 Y-2.64491 ( rapid move to begin. )
G01 F180.00000
#1=[#525+[#526-#525]*0.74121]
#2=[#533+[#534-#533]*0.74121]
#3=[#1+[#2-#1]*0.91139]
G01 Z[-0.04000+#111]
G04 P0 ( dwell for no time -- G64 should not smooth over this point )
G01 F360.00000
#1=[#525+[#526-#525]*0.75127]
#2=[#533+[#534-#533]*0.75127]
#3=[#1+[#2-#1]*0.91139]
X6.25661 Y-2.64080 Z[#3+#4]
#1=[#525+[#526-#525]*0.76112]
#2=[#533+[#534-#533]*0.76112]
#3=[#1+[#2-#1]*0.91351]
X6.25747 Y-2.63677 Z[#3+#4]
#1=[#525+[#526-#525]*0.77031]
#2=[#533+[#534-#533]*0.77031]
#3=[#1+[#2-#1]*0.91768]
X6.25914 Y-2.63301 Z[#3+#4]
#1=[#525+[#526-#525]*0.77846]
#2=[#533+[#534-#533]*0.77846]
#3=[#1+[#2-#1]*0.92369]
X6.26156 Y-2.62968 Z[#3+#4]
#1=[#525+[#526-#525]*0.78519]
#2=[#533+[#534-#533]*0.78519]
#3=[#1+[#2-#1]*0.93129]
X6.26462 Y-2.62693 Z[#3+#4]
#1=[#525+[#526-#525]*0.79022]
#2=[#533+[#534-#533]*0.79022]
#3=[#1+[#2-#1]*0.94015]
X6.26818 Y-2.62487 Z[#3+#4]
#1=[#525+[#526-#525]*0.79333]
#2=[#533+[#534-#533]*0.79333]
#3=[#1+[#2-#1]*0.94988]
X6.27210 Y-2.62360 Z[#3+#4]
#1=[#533+[#534-#533]*0.79438]
#2=[#541+[#542-#541]*0.79438]
#3=[#1+[#2-#1]*0.08867]
X6.32793 Y-2.62317 Z[#3+#4]
#1=[#534+[#535-#534]*0.15384]
#2=[#542+[#543-#542]*0.15384]
#3=[#1+[#2-#1]*0.08867]
X6.32793 Y-2.47619 Z[#3+#4]
#1=[#534+[#535-#534]*0.16385]
#2=[#542+[#543-#542]*0.16385]
#3=[#1+[#2-#1]*0.08974]
X6.32836 Y-2.47210 Z[#3+#4]
#1=[#534+[#535-#534]*0.17342]
#2=[#542+[#543-#542]*0.17342]
#3=[#1+[#2-#1]*0.09290]
X6.32963 Y-2.46818 Z[#3+#4]
#1=[#534+[#535-#534]*0.18214]
#2=[#542+[#543-#542]*0.18214]
#3=[#1+[#2-#1]*0.09802]
X6.33169 Y-2.46462 Z[#3+#4]
#1=[#534+[#535-#534]*0.18962]
#2=[#542+[#543-#542]*0.18962]
#3=[#1+[#2-#1]*0.10486]
X6.33445 Y-2.46156 Z[#3+#4]
#1=[#534+[#535-#534]*0.19553]
#2=[#542+[#543-#542]*0.19553]
#3=[#1+[#2-#1]*0.11314]
X6.33778 Y-2.45914 Z[#3+#4]
#1=[#534+[#535-#534]*0.19963]
#2=[#542+[#543-#542]*0.19963]
#3=[#1+[#2-#1]*0.12248]
X6.34154 Y-2.45747 Z[#3+#4]
#1=[#534+[#535-#534]*0.20172]
#2=[#542+[#543-#542]*0.20172]
#3=[#1+[#2-#1]*0.13249]
X6.34556 Y-2.45661 Z[#3+#4]
#1=[#534+[#535-#534]*0.20172]
#2=[#542+[#543-#542]*0.20172]
#3=[#1+[#2-#1]*0.14272]
X6.34968 Y-2.45661 Z[#3+#4]
#1=[#534+[#535-#534]*0.19963]
#2=[#542+[#543-#542]*0.19963]
#3=[#1+[#2-#1]*0.15272]
X6.35370 Y-2.45747 Z[#3+#4]
#1=[#534+[#535-#534]*0.19553]
#2=[#542+[#543-#542]*0.19553]
#3=[#1+[#2-#1]*0.16207]
X6.35746 Y-2.45914 Z[#3+#4]
#1=[#534+[#535-#534]*0.18962]
#2=[#542+[#543-#542]*0.18962]
#3=[#1+[#2-#1]*0.17034]
X6.36079 Y-2.46156 Z[#3+#4]
#1=[#534+[#535-#534]*0.18214]
#2=[#542+[#543-#542]*0.18214]
#3=[#1+[#2-#1]*0.17719]
X6.36354 Y-2.46462 Z[#3+#4]
#1=[#534+[#535-#534]*0.17342]
#2=[#542+[#543-#542]*0.17342]
#3=[#1+[#2-#1]*0.18231]
X6.36560 Y-2.46818 Z[#3+#4]
#1=[#534+[#535-#534]*0.16385]
#2=[#542+[#543-#542]*0.16385]
#3=[#1+[#2-#1]*0.18547]
X6.36687 Y-2.47210 Z[#3+#4]
#1=[#534+[#535-#534]*0.15384]
#2=[#542+[#543-#542]*0.15384]
#3=[#1+[#2-#1]*0.18654]
X6.36730 Y-2.47619 Z[#3+#4]
#1=[#533+[#534-#533]*0.79438]
#2=[#541+[#542-#541]*0.79438]
#3=[#1+[#2-#1]*0.18654]
X6.36730 Y-2.62317 Z[#3+#4]
#1=[#533+[#534-#533]*0.79438]
#2=[#541+[#542-#541]*0.79438]
#3=[#1+[#2-#1]*0.43352]
X6.46667 Y-2.62317 Z[#3+#4]
#1=[#533+[#534-#533]*0.79333]
#2=[#541+[#542-#541]*0.79333]
#3=[#1+[#2-#1]*0.44370]
X6.47076 Y-2.62360 Z[#3+#4]
#1=[#533+[#534-#533]*0.79022]
#2=[#541+[#542-#541]*0.79022]
#3=[#1+[#2-#1]*0.45342]
X6.47467 Y-2.62487 Z[#3+#4]
#1=[#533+[#534-#533]*0.78519]
#2=[#541+[#542-#541]*0.78519]
#3=[#1+[#2-#1]*0.46228]
X6.47824 Y-2.62693 Z[#3+#4]
#1=[#533+[#534-#533]*0.77846]
#2=[#541+[#542-#541]*0.77846]
#3=[#1+[#2-#1]*0.46989]
X6.48129 Y-2.62968 Z[#3+#4]
#1=[#533+[#534-#533]*0.77031]
#2=[#541+[#542-#541]*0.77031]
#3=[#1+[#2-#1]*0.47590]
X6.48371 Y-2.63301 Z[#3+#4]
#1=[#533+[#534-#533]*0.76112]
#2=[#541+[#542-#541]*0.76112]
#3=[#1+[#2-#1]*0.48006]
X6.48539 Y-2.63677 Z[#3+#4]
#1=[#533+[#534-#533]*0.75127]
#2=[#541+[#542-#541]*0.75127]
#3=[#1+[#2-#1]*0.48219]
X6.48624 Y-2.64080 Z[#3+#4]
#1=[#533+[#534-#533]*0.74121]
#2=[#541+[#542-#541]*0.74121]
#3=[#1+[#2-#1]*0.48219]
X6.48624 Y-2.64491 Z[#3+#4]
#1=[#533+[#534-#533]*0.73137]
#2=[#541+[#542-#541]*0.73137]
#3=[#1+[#2-#1]*0.48006]
X6.48539 Y-2.64894 Z[#3+#4]
#1=[#533+[#534-#533]*0.72217]
#2=[#541+[#542-#541]*0.72217]
#3=[#1+[#2-#1]*0.47590]
X6.48371 Y-2.65270 Z[#3+#4]
#1=[#533+[#534-#533]*0.71403]
#2=[#541+[#542-#541]*0.71403]
#3=[#1+[#2-#1]*0.46989]
X6.48129 Y-2.65603 Z[#3+#4]
#1=[#533+[#534-#533]*0.70730]
#2=[#541+[#542-#541]*0.70730]
#3=[#1+[#2-#1]*0.46228]
X6.47824 Y-2.65878 Z[#3+#4]
#1=[#533+[#534-#533]*0.70226]
#2=[#541+[#542-#541]*0.70226]
#3=[#1+[#2-#1]*0.45342]
X6.47467 Y-2.66084 Z[#3+#4]
#1=[#533+[#534-#533]*0.69915]
#2=[#541+[#542-#541]*0.69915]
#3=[#1+[#2-#1]*0.44370]
X6.47076 Y-2.66211 Z[#3+#4]
#1=[#533+[#534-#533]*0.69810]
#2=[#541+[#542-#541]*0.69810]
#3=[#1+[#2-#1]*0.43352]
X6.46667 Y-2.66254 Z[#3+#4]
#1=[#533+[#534-#533]*0.69810]
#2=[#541+[#542-#541]*0.69810]
#3=[#1+[#2-#1]*0.18654]
X6.36730 Y-2.66254 Z[#3+#4]
#1=[#533+[#534-#533]*0.11710]
#2=[#541+[#542-#541]*0.11710]
#3=[#1+[#2-#1]*0.18654]
X6.36730 Y-2.90011 Z[#3+#4]
#1=[#533+[#534-#533]*0.02516]
#2=[#541+[#542-#541]*0.02516]
#3=[#1+[#2-#1]*0.23326]
X6.38610 Y-2.93771 Z[#3+#4]
#1=[#532+[#533-#532]*0.97919]
#2=[#540+[#541-#540]*0.97919]
#3=[#1+[#2-#1]*0.32670]
X6.42369 Y-2.95650 Z[#3+#4]
#1=[#532+[#533-#532]*0.97919]
#2=[#540+[#541-#540]*0.97919]
#3=[#1+[#2-#1]*0.43352]
X6.46667 Y-2.95650 Z[#3+#4]
#1=[#532+[#533-#532]*0.97814]
#2=[#540+[#541-#540]*0.97814]
#3=[#1+[#2-#1]*0.44370]
X6.47076 Y-2.95694 Z[#3+#4]
#1=[#532+[#533-#532]*0.97503]
#2=[#540+[#541-#540]*0.97503]
#3=[#1+[#2-#1]*0.45342]
X6.47467 Y-2.95821 Z[#3+#4]
#1=[#532+[#533-#532]*0.96999]
#2=[#540+[#541-#540]*0.96999]
#3=[#1+[#2-#1]*0.46228]
X6.47824 Y-2.96026 Z[#3+#4]
#1=[#532+[#533-#532]*0.96326]
#2=[#540+[#541-#540]*0.96326]
#3=[#1+[#2-#1]*0.46989]
X6.48129 Y-2.96302 Z[#3+#4]
#1=[#532+[#533-#532]*0.95512]
#2=[#540+[#541-#540]*0.95512]
#3=[#1+[#2-#1]*0.47590]
X6.48371 Y-2.96635 Z[#3+#4]
#1=[#532+[#533-#532]*0.94592]
#2=[#540+[#541-#540]*0.94592]
#3=[#1+[#2-#1]*0.48006]
X6.48539 Y-2.97011 Z[#3+#4]
#1=[#532+[#533-#532]*0.93608]
#2=[#540+[#541-#540]*0.93608]
#3=[#1+[#2-#1]*0.48219]
X6.48624 Y-2.97413 Z[#3+#4]
#1=[#532+[#533-#532]*0.92602]
#2=[#540+[#541-#540]*0.92602]
#3=[#1+[#2-#1]*0.48219]
X6.48624 Y-2.97825 Z[#3+#4]
#1=[#532+[#533-#532]*0.91617]
#2=[#540+[#541-#540]*0.91617]
#3=[#1+[#2-#1]*0.48006]
X6.48539 Y-2.98227 Z[#3+#4]
#1=[#532+[#533-#532]*0.90698]
#2=[#540+[#541-#540]*0.90698]
#3=[#1+[#2-#1]*0.47590]
X6.48371 Y-2.98603 Z[#3+#4]
#1=[#532+[#533-#532]*0.89884]
#2=[#540+[#541-#540]*0.89884]
#3=[#1+[#2-#1]*0.46989]
X6.48129 Y-2.98936 Z[#3+#4]
#1=[#532+[#533-#532]*0.89210]
#2=[#540+[#541-#540]*0.89210]
#3=[#1+[#2-#1]*0.46228]
X6.47824 Y-2.99212 Z[#3+#4]
#1=[#532+[#533-#532]*0.88707]
#2=[#540+[#541-#540]*0.88707]
#3=[#1+[#2-#1]*0.45342]
X6.47467 Y-2.99417 Z[#3+#4]
#1=[#532+[#533-#532]*0.88396]
#2=[#540+[#541-#540]*0.88396]
#3=[#1+[#2-#1]*0.44370]
X6.47076 Y-2.99544 Z[#3+#4]
#1=[#532+[#533-#532]*0.88290]
#2=[#540+[#541-#540]*0.88290]
#3=[#1+[#2-#1]*0.43352]
X6.46667 Y-2.99587 Z[#3+#4]
#1=[#532+[#533-#532]*0.88348]
#2=[#540+[#541-#540]*0.88348]
#3=[#1+[#2-#1]*0.30762]
X6.41602 Y-2.99564 Z[#3+#4]
#1=[#532+[#533-#532]*0.88799]
#2=[#540+[#541-#540]*0.88799]
#3=[#1+[#2-#1]*0.29327]
X6.41024 Y-2.99380 Z[#3+#4]
#1=[#532+[#533-#532]*0.94622]
#2=[#540+[#541-#540]*0.94622]
#3=[#1+[#2-#1]*0.17490]
X6.36262 Y-2.96999 Z[#3+#4]
#1=[#532+[#533-#532]*0.95022]
#2=[#540+[#541-#540]*0.95022]
#3=[#1+[#2-#1]*0.16817]
X6.35992 Y-2.96835 Z[#3+#4]
#1=[#532+[#533-#532]*0.96113]
#2=[#540+[#541-#540]*0.96113]
#3=[#1+[#2-#1]*0.15709]
X6.35546 Y-2.96389 Z[#3+#4]
#1=[#533+[#534-#533]*0.08420]
#2=[#541+[#542-#541]*0.08420]
#3=[#1+[#2-#1]*0.09384]
X6.33001 Y-2.91356 Z[#3+#4]
#1=[#533+[#534-#533]*0.09832]
#2=[#541+[#542-#541]*0.09832]
#3=[#1+[#2-#1]*0.08926]
X6.32817 Y-2.90779 Z[#3+#4]
#1=[#533+[#534-#533]*0.69810]
#2=[#541+[#542-#541]*0.69810]
#3=[#1+[#2-#1]*0.08867]
X6.32793 Y-2.66254 Z[#3+#4]
#1=[#525+[#526-#525]*0.69915]
#2=[#533+[#534-#533]*0.69915]
#3=[#1+[#2-#1]*0.94988]
X6.27210 Y-2.66211 Z[#3+#4]
#1=[#525+[#526-#525]*0.70226]
#2=[#533+[#534-#533]*0.70226]
#3=[#1+[#2-#1]*0.94015]
X6.26818 Y-2.66084 Z[#3+#4]
#1=[#525+[#526-#525]*0.70730]
#2=[#533+[#534-#533]*0.70730]
#3=[#1+[#2-#1]*0.93129]
X6.26462 Y-2.65878 Z[#3+#4]
#1=[#525+[#526-#525]*0.71403]
#2=[#533+[#534-#533]*0.71403]
#3=[#1+[#2-#1]*0.92369]
X6.26156 Y-2.65603 Z[#3+#4]
#1=[#525+[#526-#525]*0.72217]
#2=[#533+[#534-#533]*0.72217]
#3=[#1+[#2-#1]*0.91768]
X6.25914 Y-2.65270 Z[#3+#4]
#1=[#525+[#526-#525]*0.73137]
#2=[#533+[#534-#533]*0.73137]
#3=[#1+[#2-#1]*0.91351]
X6.25747 Y-2.64894 Z[#3+#4]
#1=[#525+[#526-#525]*0.74121]
#2=[#533+[#534-#533]*0.74121]
#3=[#1+[#2-#1]*0.91139]
X6.25661 Y-2.64491 Z[#3+#4]
G04 P0 ( dwell for no time -- G64 should not smooth over this point )
G00 Z0.08000 ( retract )

G00 X6.49510 Y-3.30051 ( rapid move to begin. )
G01 F180.00000
#1=[#532+[#533-#532]*0.13788]
#2=[#540+[#541-#540]*0.13788]
#3=[#1+[#2-#1]*0.50422]
G01 Z[-0.04000+#111]
G04 P0 ( dwell for no time -- G64 should not smooth over this point )
G01 F360.00000
#1=[#532+[#533-#532]*0.14286]
#2=[#540+[#541-#540]*0.14286]
#3=[#1+[#2-#1]*0.50475]
X6.49532 Y-3.29848 Z[#3+#4]
#1=[#532+[#533-#532]*0.14719]
#2=[#540+[#541-#540]*0.14719]
#3=[#1+[#2-#1]*0.50729]
X6.49634 Y-3.29671 Z[#3+#4]
#1=[#532+[#533-#532]*0.15091]
#2=[#540+[#541-#540]*0.15091]
#3=[#1+[#2-#1]*0.51384]
X6.49898 Y-3.29519 Z[#3+#4]
#1=[#532+[#533-#532]*0.15117]
#2=[#540+[#541-#540]*0.15117]
#3=[#1+[#2-#1]*0.62844]
X6.54508 Y-3.29508 Z[#3+#4]
#1=[#532+[#533-#532]*0.26142]
#2=[#540+[#541-#540]*0.26142]
#3=[#1+[#2-#1]*0.62844]
X6.54508 Y-3.25000 Z[#3+#4]
#1=[#532+[#533-#532]*0.26849]
#2=[#540+[#541-#540]*0.26849]
#3=[#1+[#2-#1]*0.63077]
X6.54602 Y-3.24711 Z[#3+#4]
#1=[#532+[#533-#532]*0.27184]
#2=[#540+[#541-#540]*0.27184]
#3=[#1+[#2-#1]*0.63455]
X6.54754 Y-3.24574 Z[#3+#4]
#1=[#532+[#533-#532]*0.27339]
#2=[#540+[#541-#540]*0.27339]
#3=[#1+[#2-#1]*0.63939]
X6.54948 Y-3.24511 Z[#3+#4]
#1=[#532+[#533-#532]*0.27287]
#2=[#540+[#541-#540]*0.27287]
#3=[#1+[#2-#1]*0.64445]
X6.55152 Y-3.24532 Z[#3+#4]
#1=[#532+[#533-#532]*0.27036]
#2=[#540+[#541-#540]*0.27036]
#3=[#1+[#2-#1]*0.64885]
X6.55329 Y-3.24634 Z[#3+#4]
#1=[#532+[#533-#532]*0.26392]
#2=[#540+[#541-#540]*0.26392]
#3=[#1+[#2-#1]*0.65263]
X6.55481 Y-3.24898 Z[#3+#4]
#1=[#532+[#533-#532]*0.15117]
#2=[#540+[#541-#540]*0.15117]
#3=[#1+[#2-#1]*0.65290]
X6.55492 Y-3.29508 Z[#3+#4]
#1=[#532+[#533-#532]*0.15117]
#2=[#540+[#541-#540]*0.15117]
#3=[#1+[#2-#1]*0.76496]
X6.60000 Y-3.29508 Z[#3+#4]
#1=[#532+[#533-#532]*0.14888]
#2=[#540+[#541-#540]*0.14888]
#3=[#1+[#2-#1]*0.77214]
X6.60289 Y-3.29602 Z[#3+#4]
#1=[#532+[#533-#532]*0.14516]
#2=[#540+[#541-#540]*0.14516]
#3=[#1+[#2-#1]*0.77555]
X6.60426 Y-3.29754 Z[#3+#4]
#1=[#532+[#533-#532]*0.14040]
#2=[#540+[#541-#540]*0.14040]
#3=[#1+[#2-#1]*0.77712]
X6.60489 Y-3.29948 Z[#3+#4]
#1=[#532+[#533-#532]*0.13542]
#2=[#540+[#541-#540]*0.13542]
#3=[#1+[#2-#1]*0.77659]
X6.60468 Y-3.30152 Z[#3+#4]
#1=[#532+[#533-#532]*0.13109]
#2=[#540+[#541-#540]*0.13109]
#3=[#1+[#2-#1]*0.77405]
X6.60366 Y-3.30329 Z[#3+#4]
#1=[#532+[#533-#532]*0.12737]
#2=[#540+[#541-#540]*0.12737]
#3=[#1+[#2-#1]*0.76750]
X6.60102 Y-3.30481 Z[#3+#4]
#1=[#532+[#533-#532]*0.12710]
#2=[#540+[#541-#540]*0.12710]
#3=[#1+[#2-#1]*0.65290]
X6.55492 Y-3.30492 Z[#3+#4]
#1=[#532+[#533-#532]*0.01686]
#2=[#540+[#541-#540]*0.01686]
#3=[#1+[#2-#1]*0.65290]
X6.55492 Y-3.35000 Z[#3+#4]
#1=[#532+[#533-#532]*0.00979]
#2=[#540+[#541-#540]*0.00979]
#3=[#1+[#2-#1]*0.65057]
X6.55398 Y-3.35289 Z[#3+#4]
#1=[#532+[#533-#532]*0.00644]
#2=[#540+[#541-#540]*0.00644]
#3=[#1+[#2-#1]*0.64678]
X6.55246 Y-3.35426 Z[#3+#4]
#1=[#532+[#533-#532]*0.00489]
#2=[#540+[#541-#540]*0.00489]
#3=[#1+[#2-#1]*0.64195]
X6.55051 Y-3.35489 Z[#3+#4]
#1=[#532+[#533-#532]*0.00541]
#2=[#540+[#541-#540]*0.00541]
#3=[#1+[#2-#1]*0.63689]
X6.54848 Y-3.35468 Z[#3+#4]
#1=[#532+[#533-#532]*0.00792]
#2=[#540+[#541-#540]*0.00792]
#3=[#1+[#2-#1]*0.63248]
X6.54671 Y-3.35366 Z[#3+#4]
#1=[#532+[#533-#532]*0.01436]
#2=[#540+[#541-#540]*0.01436]
#3=[#1+[#2-#1]*0.62870]
X6.54519 Y-3.35102 Z[#3+#4]
#1=[#532+[#533-#532]*0.12710]
#2=[#540+[#541-#540]*0.12710]
#3=[#1+[#2-#1]*0.62844]
X6.54508 Y-3.30492 Z[#3+#4]
#1=[#532+[#533-#532]*0.12710]
#2=[#540+[#541-#540]*0.12710]
#3=[#1+[#2-#1]*0.51638]
X6.50000 Y-3.30492 Z[#3+#4]
#1=[#532+[#533-#532]*0.12940]
#2=[#540+[#541-#540]*0.12940]
#3=[#1+[#2-#1]*0.50919]
X6.49711 Y-3.30398 Z[#3+#4]
#1=[#532+[#533-#532]*0.13312]
#2=[#540+[#541-#540]*0.13312]
#3=[#1+[#2-#1]*0.50579]
X6.49574 Y-3.30246 Z[#3+#4]
#1=[#532+[#533-#532]*0.13788]
#2=[#540+[#541-#540]*0.13788]
#3=[#1+[#2-#1]*0.50422]
X6.49510 Y-3.30051 Z[#3+#4]
( Piece #2, position [1;0] )

G04 P0 ( dwell for no time -- G64 should not smooth over this point )
G00 Z0.08000 ( retract )

G00 X7.54498 Y-2.97619 ( rapid move to begin. )
G01 F180.00000
#1=[#556+[#557-#556]*0.93105]
#2=[#564+[#565-#564]*0.93105]
#3=[#1+[#2-#1]*0.11393]
G01 Z[-0.04000+#111]
G04 P0 ( dwell for no time -- G64 should not smooth over this point )
G01 F360.00000
#1=[#557+[#558-#557]*0.54244]
#2=[#565+[#566-#565]*0.54244]
#3=[#1+[#2-#1]*0.11393]
X7.54498 Y-2.72619 Z[#3+#4]
#1=[#558+[#559-#558]*0.15384]
#2=[#566+[#567-#566]*0.15384]
#3=[#1+[#2-#1]*0.11393]
X7.54498 Y-2.47619 Z[#3+#4]
#1=[#558+[#559-#558]*0.17227]
#2=[#566+[#567-#566]*0.17227]
#3=[#1+[#2-#1]*0.11765]
X7.54648 Y-2.46866 Z[#3+#4]
#1=[#558+[#559-#558]*0.18788]
#2=[#566+[#567-#566]*0.18788]
#3=[#1+[#2-#1]*0.12826]
X7.55075 Y-2.46227 Z[#3+#4]
#1=[#558+[#559-#558]*0.19387]
#2=[#566+[#567-#566]*0.19387]
#3=[#1+[#2-#1]*0.13567]
X7.55373 Y-2.45982 Z[#3+#4]
#1=[#558+[#559-#558]*0.19832]
#2=[#566+[#567-#566]*0.19832]
#3=[#1+[#2-#1]*0.14413]
X7.55713 Y-2.45800 Z[#3+#4]
#1=[#558+[#559-#558]*0.20198]
#2=[#566+[#567-#566]*0.20198]
#3=[#1+[#2-#1]*0.16286]
X7.56467 Y-2.45650 Z[#3+#4]
#1=[#558+[#559-#558]*0.20198]
#2=[#566+[#567-#566]*0.20198]
#3=[#1+[#2-#1]*0.75470]
X7.80276 Y-2.45650 Z[#3+#4]
#1=[#558+[#559-#558]*0.20093]
#2=[#566+[#567-#566]*0.20093]
#3=[#1+[#2-#1]*0.76487]
X7.80685 Y-2.45694 Z[#3+#4]
#1=[#558+[#559-#558]*0.19782]
#2=[#566+[#567-#566]*0.19782]
#3=[#1+[#2-#1]*0.77460]
X7.81077 Y-2.45821 Z[#3+#4]
#1=[#558+[#559-#558]*0.19279]
#2=[#566+[#567-#566]*0.19279]
#3=[#1+[#2-#1]*0.78346]
X7.81433 Y-2.46026 Z[#3+#4]
#1=[#558+[#559-#558]*0.18605]
#2=[#566+[#567-#566]*0.18605]
#3=[#1+[#2-#1]*0.79106]
X7.81739 Y-2.46302 Z[#3+#4]
#1=[#558+[#559-#558]*0.17791]
#2=[#566+[#567-#566]*0.17791]
#3=[#1+[#2-#1]*0.79707]
X7.81981 Y-2.46635 Z[#3+#4]
#1=[#558+[#559-#558]*0.16872]
#2=[#566+[#567-#566]*0.16872]
#3=[#1+[#2-#1]*0.80123]
X7.82148 Y-2.47011 Z[#3+#4]
#1=[#558+[#559-#558]*0.15887]
#2=[#566+[#567-#566]*0.15887]
#3=[#1+[#2-#1]*0.80336]
X7.82234 Y-2.47413 Z[#3+#4]
#1=[#558+[#559-#558]*0.14881]
#2=[#566+[#567-#566]*0.14881]
#3=[#1+[#2-#1]*0.80336]
X7.82234 Y-2.47825 Z[#3+#4]
#1=[#558+[#559-#558]*0.13897]
#2=[#566+[#567-#566]*0.13897]
#3=[#1+[#2-#1]*0.80123]
X7.82148 Y-2.48227 Z[#3+#4]
#1=[#558+[#559-#558]*0.12977]
#2=[#566+[#567-#566]*0.12977]
#3=[#1+[#2-#1]*0.79707]
X7.81981 Y-2.48603 Z[#3+#4]
#1=[#558+[#559-#558]*0.12163]
#2=[#566+[#567-#566]*0.12163]
#3=[#1+[#2-#1]*0.79106]
X7.81739 Y-2.48936 Z[#3+#4]
#1=[#558+[#559-#558]*0.11490]
#2=[#566+[#567-#566]*0.11490]
#3=[#1+[#2-#1]*0.78346]
X7.81433 Y-2.49212 Z[#3+#4]
#1=[#558+[#559-#558]*0.10986]
#2=[#566+[#567-#566]*0.10986]
#3=[#1+[#2-#1]*0.77460]
X7.81077 Y-2.49417 Z[#3+#4]
#1=[#558+[#559-#558]*0.10675]
#2=[#566+[#567-#566]*0.10675]
#3=[#1+[#2-#1]*0.76487]
X7.80685 Y-2.49544 Z[#3+#4]
#1=[#558+[#559-#558]*0.10570]
#2=[#566+[#567-#566]*0.10570]
#3=[#1+[#2-#1]*0.75470]
X7.80276 Y-2.49587 Z[#3+#4]
#1=[#558+[#559-#558]*0.10570]
#2=[#566+[#567-#566]*0.10570]
#3=[#1+[#2-#1]*0.21179]
X7.58435 Y-2.49587 Z[#3+#4]
#1=[#557+[#558-#557]*0.61970]
#2=[#565+[#566-#565]*0.61970]
#3=[#1+[#2-#1]*0.21179]
X7.58435 Y-2.69460 Z[#3+#4]
#1=[#557+[#558-#557]*0.61970]
#2=[#565+[#566-#565]*0.61970]
#3=[#1+[#2-#1]*0.57715]
X7.73133 Y-2.69460 Z[#3+#4]
#1=[#557+[#558-#557]*0.61865]
#2=[#565+[#566-#565]*0.61865]
#3=[#1+[#2-#1]*0.58732]
X7.73543 Y-2.69503 Z[#3+#4]
#1=[#557+[#558-#557]*0.61554]
#2=[#565+[#566-#565]*0.61554]
#3=[#1+[#2-#1]*0.59705]
X7.73934 Y-2.69630 Z[#3+#4]
#1=[#557+[#558-#557]*0.61051]
#2=[#565+[#566-#565]*0.61051]
#3=[#1+[#2-#1]*0.60591]
X7.74290 Y-2.69836 Z[#3+#4]
#1=[#557+[#558-#557]*0.60377]
#2=[#565+[#566-#565]*0.60377]
#3=[#1+[#2-#1]*0.61351]
X7.74596 Y-2.70111 Z[#3+#4]
#1=[#557+[#558-#557]*0.59563]
#2=[#565+[#566-#565]*0.59563]
#3=[#1+[#2-#1]*0.61952]
X7.74838 Y-2.70444 Z[#3+#4]
#1=[#557+[#558-#557]*0.58643]
#2=[#565+[#566-#565]*0.58643]
#3=[#1+[#2-#1]*0.62368]
X7.75005 Y-2.70820 Z[#3+#4]
#1=[#557+[#558-#557]*0.57659]
#2=[#565+[#566-#565]*0.57659]
#3=[#1+[#2-#1]*0.62581]
X7.75091 Y-2.71223 Z[#3+#4]
#1=[#557+[#558-#557]*0.56653]
#2=[#565+[#566-#565]*0.56653]
#3=[#1+[#2-#1]*0.62581]
X7.75091 Y-2.71634 Z[#3+#4]
#1=[#557+[#558-#557]*0.55668]
#2=[#565+[#566-#565]*0.55668]
#3=[#1+[#2-#1]*0.62368]
X7.75005 Y-2.72037 Z[#3+#4]
#1=[#557+[#558-#557]*0.54749]
#2=[#565+[#566-#565]*0.54749]
#3=[#1+[#2-#1]*0.61952]
X7.74838 Y-2.72413 Z[#3+#4]
#1=[#557+[#558-#557]*0.53935]
#2=[#565+[#566-#565]*0.53935]
#3=[#1+[#2-#1]*0.61351]
X7.74596 Y-2.72746 Z[#3+#4]
#1=[#557+[#558-#557]*0.53261]
#2=[#565+[#566-#565]*0.53261]
#3=[#1+[#2-#1]*0.60591]
X7.74290 Y-2.73021 Z[#3+#4]
#1=[#557+[#558-#557]*0.52758]
#2=[#565+[#566-#565]*0.52758]
#3=[#1+[#2-#1]*0.59705]
X7.73934 Y-2.73227 Z[#3+#4]
#1=[#557+[#558-#557]*0.52447]
#2=[#565+[#566-#565]*0.52447]
#3=[#1+[#2-#1]*0.58732]
X7.73543 Y-2.73354 Z[#3+#4]
#1=[#557+[#558-#557]*0.52342]
#2=[#565+[#566-#565]*0.52342]
#3=[#1+[#2-#1]*0.57715]
X7.73133 Y-2.73397 Z[#3+#4]
#1=[#557+[#558-#557]*0.52342]
#2=[#565+[#566-#565]*0.52342]
#3=[#1+[#2-#1]*0.21179]
X7.58435 Y-2.73397 Z[#3+#4]
#1=[#556+[#557-#556]*0.93105]
#2=[#564+[#565-#564]*0.93105]
#3=[#1+[#2-#1]*0.21179]
X7.58435 Y-2.97619 Z[#3+#4]
#1=[#556+[#557-#556]*0.92104]
#2=[#564+[#565-#564]*0.92104]
#3=[#1+[#2-#1]*0.21072]
X7.58392 Y-2.98028 Z[#3+#4]
#1=[#556+[#557-#556]*0.91147]
#2=[#564+[#565-#564]*0.91147]
#3=[#1+[#2-#1]*0.20756]
X7.58265 Y-2.98420 Z[#3+#4]
#1=[#556+[#557-#556]*0.90275]
#2=[#564+[#565-#564]*0.90275]
#3=[#1+[#2-#1]*0.20244]
X7.58059 Y-2.98776 Z[#3+#4]
#1=[#556+[#557-#556]*0.89527]
#2=[#564+[#565-#564]*0.89527]
#3=[#1+[#2-#1]*0.19560]
X7.57784 Y-2.99082 Z[#3+#4]
#1=[#556+[#557-#556]*0.88936]
#2=[#564+[#565-#564]*0.88936]
#3=[#1+[#2-#1]*0.18732]
X7.57451 Y-2.99324 Z[#3+#4]
#1=[#556+[#557-#556]*0.88526]
#2=[#564+[#565-#564]*0.88526]
#3=[#1+[#2-#1]*0.17797]
X7.57075 Y-2.99491 Z[#3+#4]
#1=[#556+[#557-#556]*0.88317]
#2=[#564+[#565-#564]*0.88317]
#3=[#1+[#2-#1]*0.16797]
X7.56672 Y-2.99577 Z[#3+#4]
#1=[#556+[#557-#556]*0.88317]
#2=[#564+[#565-#564]*0.88317]
#3=[#1+[#2-#1]*0.15774]
X7.56261 Y-2.99577 Z[#3+#4]
#1=[#556+[#557-#556]*0.88526]
#2=[#564+[#565-#564]*0.88526]
#3=[#1+[#2-#1]*0.14774]
X7.55858 Y-2.99491 Z[#3+#4]
#1=[#556+[#557-#556]*0.88936]
#2=[#564+[#565-#564]*0.88936]
#3=[#1+[#2-#1]*0.13839]
X7.55482 Y-2.99324 Z[#3+#4]
#1=[#556+[#557-#556]*0.89527]
#2=[#564+[#565-#564]*0.89527]
#3=[#1+[#2-#1]*0.13011]
X7.55149 Y-2.99082 Z[#3+#4]
#1=[#556+[#557-#556]*0.90275]
#2=[#564+[#565-#564]*0.90275]
#3=[#1+[#2-#1]*0.12327]
X7.54874 Y-2.98776 Z[#3+#4]
#1=[#556+[#557-#556]*0.91147]
#2=[#564+[#565-#564]*0.91147]
#3=[#1+[#2-#1]*0.11815]
X7.54668 Y-2.98420 Z[#3+#4]
#1=[#556+[#557-#556]*0.92104]
#2=[#564+[#565-#564]*0.92104]
#3=[#1+[#2-#1]*0.11499]
X7.54541 Y-2.98028 Z[#3+#4]
#1=[#556+[#557-#556]*0.93105]
#2=[#564+[#565-#564]*0.93105]
#3=[#1+[#2-#1]*0.11393]
X7.54498 Y-2.97619 Z[#3+#4]
G04 P0 ( dwell for no time -- G64 should not smooth over this point )
G00 Z0.08000 ( retract )

G00 X7.97355 Y-2.97619 ( rapid move to begin. )
G01 F180.00000
#1=[#564+[#565-#564]*0.93105]
#2=[#572+[#573-#572]*0.93105]
#3=[#1+[#2-#1]*0.17924]
G01 Z[-0.04000+#111]
G04 P0 ( dwell for no time -- G64 should not smooth over this point )
G01 F360.00000
#1=[#565+[#566-#565]*0.74624]
#2=[#573+[#574-#573]*0.74624]
#3=[#1+[#2-#1]*0.17924]
X7.97355 Y-2.64286 Z[#3+#4]
#1=[#565+[#566-#565]*0.75625]
#2=[#573+[#574-#573]*0.75625]
#3=[#1+[#2-#1]*0.18031]
X7.97398 Y-2.63876 Z[#3+#4]
#1=[#565+[#566-#565]*0.76582]
#2=[#573+[#574-#573]*0.76582]
#3=[#1+[#2-#1]*0.18347]
X7.97525 Y-2.63485 Z[#3+#4]
#1=[#565+[#566-#565]*0.77454]
#2=[#573+[#574-#573]*0.77454]
#3=[#1+[#2-#1]*0.18858]
X7.97731 Y-2.63129 Z[#3+#4]
#1=[#565+[#566-#565]*0.78202]
#2=[#573+[#574-#573]*0.78202]
#3=[#1+[#2-#1]*0.19543]
X7.98007 Y-2.62823 Z[#3+#4]
#1=[#565+[#566-#565]*0.78793]
#2=[#573+[#574-#573]*0.78793]
#3=[#1+[#2-#1]*0.20370]
X7.98340 Y-2.62581 Z[#3+#4]
#1=[#565+[#566-#565]*0.79203]
#2=[#573+[#574-#573]*0.79203]
#3=[#1+[#2-#1]*0.21305]
X7.98716 Y-2.62413 Z[#3+#4]
#1=[#565+[#566-#565]*0.79412]
#2=[#573+[#574-#573]*0.79412]
#3=[#1+[#2-#1]*0.22306]
X7.99118 Y-2.62328 Z[#3+#4]
#1=[#565+[#566-#565]*0.79412]
#2=[#573+[#574-#573]*0.79412]
#3=[#1+[#2-#1]*0.23328]
X7.99530 Y-2.62328 Z[#3+#4]
#1=[#565+[#566-#565]*0.79203]
#2=[#573+[#574-#573]*0.79203]
#3=[#1+[#2-#1]*0.24329]
X7.99932 Y-2.62413 Z[#3+#4]
#1=[#565+[#566-#565]*0.78793]
#2=[#573+[#574-#573]*0.78793]
#3=[#1+[#2-#1]*0.25264]
X8.00308 Y-2.62581 Z[#3+#4]
#1=[#565+[#566-#565]*0.78202]
#2=[#573+[#574-#573]*0.78202]
#3=[#1+[#2-#1]*0.26091]
X8.00641 Y-2.62823 Z[#3+#4]
#1=[#565+[#566-#565]*0.77454]
#2=[#573+[#574-#573]*0.77454]
#3=[#1+[#2-#1]*0.26776]
X8.00916 Y-2.63129 Z[#3+#4]
#1=[#565+[#566-#565]*0.76582]
#2=[#573+[#574-#573]*0.76582]
#3=[#1+[#2-#1]*0.27287]
X8.01122 Y-2.63485 Z[#3+#4]
#1=[#565+[#566-#565]*0.75625]
#2=[#573+[#574-#573]*0.75625]
#3=[#1+[#2-#1]*0.27603]
X8.01249 Y-2.63876 Z[#3+#4]
#1=[#565+[#566-#565]*0.68778]
#2=[#573+[#574-#573]*0.68778]
#3=[#1+[#2-#1]*0.27710]
X8.01292 Y-2.66676 Z[#3+#4]
#1=[#565+[#566-#565]*0.72707]
#2=[#573+[#574-#573]*0.72707]
#3=[#1+[#2-#1]*0.31793]
X8.02935 Y-2.65070 Z[#3+#4]
#1=[#565+[#566-#565]*0.79210]
#2=[#573+[#574-#573]*0.79210]
#3=[#1+[#2-#1]*0.45002]
X8.08249 Y-2.62410 Z[#3+#4]
#1=[#565+[#566-#565]*0.79438]
#2=[#573+[#574-#573]*0.79438]
#3=[#1+[#2-#1]*0.46491]
X8.08848 Y-2.62317 Z[#3+#4]
#1=[#565+[#566-#565]*0.79438]
#2=[#573+[#574-#573]*0.79438]
#3=[#1+[#2-#1]*0.58328]
X8.13610 Y-2.62317 Z[#3+#4]
#1=[#565+[#566-#565]*0.79333]
#2=[#573+[#574-#573]*0.79333]
#3=[#1+[#2-#1]*0.59345]
X8.14019 Y-2.62360 Z[#3+#4]
#1=[#565+[#566-#565]*0.79022]
#2=[#573+[#574-#573]*0.79022]
#3=[#1+[#2-#1]*0.60318]
X8.14410 Y-2.62487 Z[#3+#4]
#1=[#565+[#566-#565]*0.78519]
#2=[#573+[#574-#573]*0.78519]
#3=[#1+[#2-#1]*0.61203]
X8.14767 Y-2.62693 Z[#3+#4]
#1=[#565+[#566-#565]*0.77846]
#2=[#573+[#574-#573]*0.77846]
#3=[#1+[#2-#1]*0.61964]
X8.15072 Y-2.62968 Z[#3+#4]
#1=[#565+[#566-#565]*0.77031]
#2=[#573+[#574-#573]*0.77031]
#3=[#1+[#2-#1]*0.62565]
X8.15314 Y-2.63301 Z[#3+#4]
#1=[#565+[#566-#565]*0.76112]
#2=[#573+[#574-#573]*0.76112]
#3=[#1+[#2-#1]*0.62981]
X8.15482 Y-2.63677 Z[#3+#4]
#1=[#565+[#566-#565]*0.75127]
#2=[#573+[#574-#573]*0.75127]
#3=[#1+[#2-#1]*0.63194]
X8.15567 Y-2.64080 Z[#3+#4]
#1=[#565+[#566-#565]*0.74121]
#2=[#573+[#574-#573]*0.74121]
#3=[#1+[#2-#1]*0.63194]
X8.15567 Y-2.64491 Z[#3+#4]
#1=[#565+[#566-#565]*0.73137]
#2=[#573+[#574-#573]*0.73137]
#3=[#1+[#2-#1]*0.62981]
X8.15482 Y-2.64894 Z[#3+#4]
#1=[#565+[#566-#565]*0.72217]
#2=[#573+[#574-#573]*0.72217]
#3=[#1+[#2-#1]*0.62565]
X8.15314 Y-2.65270 Z[#3+#4]
#1=[#565+[#566-#565]*0.71403]
#2=[#573+[#574-#573]*0.71403]
#3=[#1+[#2-#1]*0.61964]
X8.15072 Y-2.65603 Z[#3+#4]
#1=[#565+[#566-#565]*0.70730]
#2=[#573+[#574-#573]*0.70730]
#3=[#1+[#2-#1]*0.61203]
X8.14767 Y-2.65878 Z[#3+#4]
#1=[#565+[#566-#565]*0.70226]
#2=[#573+[#574-#573]*0.70226]
#3=[#1+[#2-#1]*0.60318]
X8.14410 Y-2.66084 Z[#3+#4]
#1=[#565+[#566-#565]*0.69915]
#2=[#573+[#574-#573]*0.69915]
#3=[#1+[#2-#1]*0.59345]
X8.14019 Y-2.66211 Z[#3+#4]
#1=[#565+[#566-#565]*0.69810]
#2=[#573+[#574-#573]*0.69810]
#3=[#1+[#2-#1]*0.58328]
X8.13610 Y-2.66254 Z[#3+#4]
#1=[#565+[#566-#565]*0.69810]
#2=[#573+[#574-#573]*0.69810]
#3=[#1+[#2-#1]*0.47646]
X8.09312 Y-2.66254 Z[#3+#4]
#1=[#565+[#566-#565]*0.64845]
#2=[#573+[#574-#573]*0.64845]
#3=[#1+[#2-#1]*0.37552]
X8.05252 Y-2.68284 Z[#3+#4]
#1=[#565+[#566-#565]*0.60127]
#2=[#573+[#574-#573]*0.60127]
#3=[#1+[#2-#1]*0.32757]
X8.03323 Y-2.70214 Z[#3+#4]
#1=[#565+[#566-#565]*0.50197]
#2=[#573+[#574-#573]*0.50197]
#3=[#1+[#2-#1]*0.27710]
X8.01292 Y-2.74274 Z[#3+#4]
#1=[#564+[#565-#564]*0.93105]
#2=[#572+[#573-#572]*0.93105]
#3=[#1+[#2-#1]*0.27710]
X8.01292 Y-2.97619 Z[#3+#4]
#1=[#564+[#565-#564]*0.92104]
#2=[#572+[#573-#572]*0.92104]
#3=[#1+[#2-#1]*0.27603]
X8.01249 Y-2.98028 Z[#3+#4]
#1=[#564+[#565-#564]*0.91147]
#2=[#572+[#573-#572]*0.91147]
#3=[#1+[#2-#1]*0.27287]
X8.01122 Y-2.98420 Z[#3+#4]
#1=[#564+[#565-#564]*0.90275]
#2=[#572+[#573-#572]*0.90275]
#3=[#1+[#2-#1]*0.26776]
X8.00916 Y-2.98776 Z[#3+#4]
#1=[#564+[#565-#564]*0.89527]
#2=[#572+[#573-#572]*0.89527]
#3=[#1+[#2-#1]*0.26091]
X8.00641 Y-2.99082 Z[#3+#4]
#1=[#564+[#565-#564]*0.88936]
#2=[#572+[#573-#572]*0.88936]
#3=[#1+[#2-#1]*0.25264]
X8.00308 Y-2.99324 Z[#3+#4]
#1=[#564+[#565-#564]*0.88526]
#2=[#572+[#573-#572]*0.88526]
#3=[#1+[#2-#1]*0.24329]
X7.99932 Y-2.99491 Z[#3+#4]
#1=[#564+[#565-#564]*0.88317]
#2=[#572+[#573-#572]*0.88317]
#3=[#1+[#2-#1]*0.23328]
X7.99530 Y-2.99577 Z[#3+#4]
#1=[#564+[#565-#564]*0.88317]
#2=[#572+[#573-#572]*0.88317]
#3=[#1+[#2-#1]*0.22306]
X7.99118 Y-2.99577 Z[#3+#4]
#1=[#564+[#565-#564]*0.88526]
#2=[#572+[#573-#572]*0.88526]
#3=[#1+[#2-#1]*0.21305]
X7.98716 Y-2.99491 Z[#3+#4]
#1=[#564+[#565-#564]*0.88936]
#2=[#572+[#573-#572]*0.88936]
#3=[#1+[#2-#1]*0.20370]
X7.98340 Y-2.99324 Z[#3+#4]
#1=[#564+[#565-#564]*0.89527]
#2=[#572+[#573-#572]*0.89527]
#3=[#1+[#2-#1]*0.19543]
X7.98007 Y-2.99082 Z[#3+#4]
#1=[#564+[#565-#564]*0.90275]
#2=[#572+[#573-#572]*0.90275]
#3=[#1+[#2-#1]*0.18858]
X7.97731 Y-2.98776 Z[#3+#4]
#1=[#564+[#565-#564]*0.91147]
#2=[#572+[#573-#572]*0.91147]
#3=[#1+[#2-#1]*0.18347]
X7.97525 Y-2.98420 Z[#3+#4]
#1=[#564+[#565-#564]*0.92104]
#2=[#572+[#573-#572]*0.92104]
#3=[#1+[#2-#1]*0.18031]
X7.97398 Y-2.98028 Z[#3+#4]
#1=[#564+[#565-#564]*0.93105]
#2=[#572+[#573-#572]*0.93105]
#3=[#1+[#2-#1]*0.17924]
X7.97355 Y-2.97619 Z[#3+#4]
G04 P0 ( dwell for no time -- G64 should not smooth over this point )
G00 Z0.08000 ( retract )

G00 X8.25927 Y-2.88095 ( rapid move to begin. )
G01 F180.00000
#1=[#565+[#566-#565]*0.16396]
#2=[#573+[#574-#573]*0.16396]
#3=[#1+[#2-#1]*0.88945]
G01 Z[-0.04000+#111]
G04 P0 ( dwell for no time -- G64 should not smooth over this point )
G01 F360.00000
#1=[#565+[#566-#565]*0.51333]
#2=[#573+[#574-#573]*0.51333]
#3=[#1+[#2-#1]*0.88945]
X8.25927 Y-2.73809 Z[#3+#4]
#1=[#565+[#566-#565]*0.52798]
#2=[#573+[#574-#573]*0.52798]
#3=[#1+[#2-#1]*0.89176]
X8.26020 Y-2.73211 Z[#3+#4]
#1=[#565+[#566-#565]*0.65793]
#2=[#573+[#574-#573]*0.65793]
#3=[#1+[#2-#1]*0.95787]
X8.28679 Y-2.67897 Z[#3+#4]
#1=[#573+[#574-#573]*0.72707]
#2=[#581+[#582-#581]*0.72707]
#3=[#1+[#2-#1]*0.02813]
X8.31506 Y-2.65070 Z[#3+#4]
#1=[#573+[#574-#573]*0.78930]
#2=[#581+[#582-#581]*0.78930]
#3=[#1+[#2-#1]*0.15323]
X8.36539 Y-2.62525 Z[#3+#4]
#1=[#573+[#574-#573]*0.79381]
#2=[#581+[#582-#581]*0.79381]
#3=[#1+[#2-#1]*0.16758]
X8.37116 Y-2.62341 Z[#3+#4]
#1=[#573+[#574-#573]*0.79381]
#2=[#581+[#582-#581]*0.79381]
#3=[#1+[#2-#1]*0.36020]
X8.44865 Y-2.62341 Z[#3+#4]
#1=[#573+[#574-#573]*0.78930]
#2=[#581+[#582-#581]*0.78930]
#3=[#1+[#2-#1]*0.37455]
X8.45442 Y-2.62525 Z[#3+#4]
#1=[#573+[#574-#573]*0.72707]
#2=[#581+[#582-#581]*0.72707]
#3=[#1+[#2-#1]*0.49965]
X8.50475 Y-2.65070 Z[#3+#4]
#1=[#573+[#574-#573]*0.65793]
#2=[#581+[#582-#581]*0.65793]
#3=[#1+[#2-#1]*0.56991]
X8.53302 Y-2.67897 Z[#3+#4]
#1=[#573+[#574-#573]*0.53486]
#2=[#581+[#582-#581]*0.53486]
#3=[#1+[#2-#1]*0.63317]
X8.55846 Y-2.72929 Z[#3+#4]
#1=[#573+[#574-#573]*0.52074]
#2=[#581+[#582-#581]*0.52074]
#3=[#1+[#2-#1]*0.63775]
X8.56031 Y-2.73506 Z[#3+#4]
#1=[#573+[#574-#573]*0.15655]
#2=[#581+[#582-#581]*0.15655]
#3=[#1+[#2-#1]*0.63775]
X8.56031 Y-2.88398 Z[#3+#4]
#1=[#573+[#574-#573]*0.14243]
#2=[#581+[#582-#581]*0.14243]
#3=[#1+[#2-#1]*0.63317]
X8.55846 Y-2.88976 Z[#3+#4]
#1=[#573+[#574-#573]*0.01935]
#2=[#581+[#582-#581]*0.01935]
#3=[#1+[#2-#1]*0.56991]
X8.53302 Y-2.94008 Z[#3+#4]
#1=[#572+[#573-#572]*0.95022]
#2=[#580+[#581-#580]*0.95022]
#3=[#1+[#2-#1]*0.49965]
X8.50475 Y-2.96835 Z[#3+#4]
#1=[#572+[#573-#572]*0.88799]
#2=[#580+[#581-#580]*0.88799]
#3=[#1+[#2-#1]*0.37455]
X8.45442 Y-2.99380 Z[#3+#4]
#1=[#572+[#573-#572]*0.88348]
#2=[#580+[#581-#580]*0.88348]
#3=[#1+[#2-#1]*0.36020]
X8.44865 Y-2.99564 Z[#3+#4]
#1=[#572+[#573-#572]*0.88302]
#2=[#580+[#581-#580]*0.88302]
#3=[#1+[#2-#1]*0.17402]
X8.37375 Y-2.99583 Z[#3+#4]
#1=[#572+[#573-#572]*0.88445]
#2=[#580+[#581-#580]*0.88445]
#3=[#1+[#2-#1]*0.16281]
X8.36924 Y-2.99524 Z[#3+#4]
#1=[#572+[#573-#572]*0.88799]
#2=[#580+[#581-#580]*0.88799]
#3=[#1+[#2-#1]*0.15323]
X8.36539 Y-2.99380 Z[#3+#4]
#1=[#572+[#573-#572]*0.95022]
#2=[#580+[#581-#580]*0.95022]
#3=[#1+[#2-#1]*0.02813]
X8.31506 Y-2.96835 Z[#3+#4]
#1=[#565+[#566-#565]*0.01346]
#2=[#573+[#574-#573]*0.01346]
#3=[#1+[#2-#1]*0.96296]
X8.28884 Y-2.94249 Z[#3+#4]
#1=[#565+[#566-#565]*0.02597]
#2=[#573+[#574-#573]*0.02597]
#3=[#1+[#2-#1]*0.95380]
X8.28516 Y-2.93737 Z[#3+#4]
#1=[#565+[#566-#565]*0.14243]
#2=[#573+[#574-#573]*0.14243]
#3=[#1+[#2-#1]*0.89461]
X8.26135 Y-2.88976 Z[#3+#4]
#1=[#565+[#566-#565]*0.14931]
#2=[#573+[#574-#573]*0.14931]
#3=[#1+[#2-#1]*0.89176]
X8.26020 Y-2.88694 Z[#3+#4]
#1=[#565+[#566-#565]*0.16396]
#2=[#573+[#574-#573]*0.16396]
#3=[#1+[#2-#1]*0.88945]
X8.25927 Y-2.88095 Z[#3+#4]
G04 P0 ( dwell for no time -- G64 should not smooth over this point )
G00 Z0.08000 ( retract )

G00 X8.29864 Y-2.87630 ( rapid move to begin. )
G01 F180.00000
#1=[#565+[#566-#565]*0.17532]
#2=[#573+[#574-#573]*0.17532]
#3=[#1+[#2-#1]*0.98731]
G01 Z[-0.04000+#111]
G04 P0 ( dwell for no time -- G64 should not smooth over this point )
G01 F360.00000
#1=[#565+[#566-#565]*0.50197]
#2=[#573+[#574-#573]*0.50197]
#3=[#1+[#2-#1]*0.98731]
X8.29864 Y-2.74274 Z[#3+#4]
#1=[#573+[#574-#573]*0.60127]
#2=[#581+[#582-#581]*0.60127]
#3=[#1+[#2-#1]*0.03778]
X8.31894 Y-2.70214 Z[#3+#4]
#1=[#573+[#574-#573]*0.64845]
#2=[#581+[#582-#581]*0.64845]
#3=[#1+[#2-#1]*0.08573]
X8.33823 Y-2.68284 Z[#3+#4]
#1=[#573+[#574-#573]*0.69810]
#2=[#581+[#582-#581]*0.69810]
#3=[#1+[#2-#1]*0.18666]
X8.37884 Y-2.66254 Z[#3+#4]
#1=[#573+[#574-#573]*0.69810]
#2=[#581+[#582-#581]*0.69810]
#3=[#1+[#2-#1]*0.34112]
X8.44097 Y-2.66254 Z[#3+#4]
#1=[#573+[#574-#573]*0.64845]
#2=[#581+[#582-#581]*0.64845]
#3=[#1+[#2-#1]*0.44205]
X8.48158 Y-2.68284 Z[#3+#4]
#1=[#573+[#574-#573]*0.60127]
#2=[#581+[#582-#581]*0.60127]
#3=[#1+[#2-#1]*0.49000]
X8.50087 Y-2.70214 Z[#3+#4]
#1=[#573+[#574-#573]*0.50197]
#2=[#581+[#582-#581]*0.50197]
#3=[#1+[#2-#1]*0.54047]
X8.52117 Y-2.74274 Z[#3+#4]
#1=[#573+[#574-#573]*0.17532]
#2=[#581+[#582-#581]*0.17532]
#3=[#1+[#2-#1]*0.54047]
X8.52117 Y-2.87630 Z[#3+#4]
#1=[#573+[#574-#573]*0.07602]
#2=[#581+[#582-#581]*0.07602]
#3=[#1+[#2-#1]*0.49000]
X8.50087 Y-2.91691 Z[#3+#4]
#1=[#573+[#574-#573]*0.02884]
#2=[#581+[#582-#581]*0.02884]
#3=[#1+[#2-#1]*0.44205]
X8.48158 Y-2.93620 Z[#3+#4]
#1=[#572+[#573-#572]*0.97919]
#2=[#580+[#581-#580]*0.97919]
#3=[#1+[#2-#1]*0.34112]
X8.44097 Y-2.95650 Z[#3+#4]
#1=[#572+[#573-#572]*0.97919]
#2=[#580+[#581-#580]*0.97919]
#3=[#1+[#2-#1]*0.18666]
X8.37884 Y-2.95650 Z[#3+#4]
#1=[#573+[#574-#573]*0.02884]
#2=[#581+[#582-#581]*0.02884]
#3=[#1+[#2-#1]*0.08573]
X8.33823 Y-2.93620 Z[#3+#4]
#1=[#573+[#574-#573]*0.07602]
#2=[#581+[#582-#581]*0.07602]
#3=[#1+[#2-#1]*0.03778]
X8.31894 Y-2.91691 Z[#3+#4]
#1=[#565+[#566-#565]*0.17532]
#2=[#573+[#574-#573]*0.17532]
#3=[#1+[#2-#1]*0.98731]
X8.29864 Y-2.87630 Z[#3+#4]
G04 P0 ( dwell for no time -- G64 should not smooth over this point )
G00 Z0.08000 ( retract )

G00 X8.73546 Y-2.97619 ( rapid move to begin. )
G01 F180.00000
#1=[#580+[#581-#580]*0.93105]
#2=[#588+[#589-#588]*0.93105]
#3=[#1+[#2-#1]*0.07313]
G01 Z[-0.04000+#111]
G04 P0 ( dwell for no time -- G64 should not smooth over this point )
G01 F360.00000
#1=[#581+[#582-#581]*0.74624]
#2=[#589+[#590-#589]*0.74624]
#3=[#1+[#2-#1]*0.07313]
X8.73546 Y-2.64286 Z[#3+#4]
#1=[#581+[#582-#581]*0.75625]
#2=[#589+[#590-#589]*0.75625]
#3=[#1+[#2-#1]*0.07420]
X8.73589 Y-2.63876 Z[#3+#4]
#1=[#581+[#582-#581]*0.76582]
#2=[#589+[#590-#589]*0.76582]
#3=[#1+[#2-#1]*0.07736]
X8.73716 Y-2.63485 Z[#3+#4]
#1=[#581+[#582-#581]*0.77454]
#2=[#589+[#590-#589]*0.77454]
#3=[#1+[#2-#1]*0.08247]
X8.73922 Y-2.63129 Z[#3+#4]
#1=[#581+[#582-#581]*0.78202]
#2=[#589+[#590-#589]*0.78202]
#3=[#1+[#2-#1]*0.08932]
X8.74197 Y-2.62823 Z[#3+#4]
#1=[#581+[#582-#581]*0.78793]
#2=[#589+[#590-#589]*0.78793]
#3=[#1+[#2-#1]*0.09759]
X8.74530 Y-2.62581 Z[#3+#4]
#1=[#581+[#582-#581]*0.79203]
#2=[#589+[#590-#589]*0.79203]
#3=[#1+[#2-#1]*0.10694]
X8.74906 Y-2.62413 Z[#3+#4]
#1=[#581+[#582-#581]*0.79412]
#2=[#589+[#590-#589]*0.79412]
#3=[#1+[#2-#1]*0.11695]
X8.75309 Y-2.62328 Z[#3+#4]
#1=[#581+[#582-#581]*0.79412]
#2=[#589+[#590-#589]*0.79412]
#3=[#1+[#2-#1]*0.12717]
X8.75720 Y-2.62328 Z[#3+#4]
#1=[#581+[#582-#581]*0.79203]
#2=[#589+[#590-#589]*0.79203]
#3=[#1+[#2-#1]*0.13718]
X8.76123 Y-2.62413 Z[#3+#4]
#1=[#581+[#582-#581]*0.78793]
#2=[#589+[#590-#589]*0.78793]
#3=[#1+[#2-#1]*0.14653]
X8.76499 Y-2.62581 Z[#3+#4]
#1=[#581+[#582-#581]*0.78202]
#2=[#589+[#590-#589]*0.78202]
#3=[#1+[#2-#1]*0.15480]
X8.76831 Y-2.62823 Z[#3+#4]
#1=[#581+[#582-#581]*0.77454]
#2=[#589+[#590-#589]*0.77454]
#3=[#1+[#2-#1]*0.16165]
X8.77107 Y-2.63129 Z[#3+#4]
#1=[#581+[#582-#581]*0.76582]
#2=[#589+[#590-#589]*0.76582]
#3=[#1+[#2-#1]*0.16676]
X8.77313 Y-2.63485 Z[#3+#4]
#1=[#581+[#582-#581]*0.75625]
#2=[#589+[#590-#589]*0.75625]
#3=[#1+[#2-#1]*0.16992]
X8.77440 Y-2.63876 Z[#3+#4]
#1=[#581+[#582-#581]*0.73680]
#2=[#589+[#590-#589]*0.73680]
#3=[#1+[#2-#1]*0.17099]
X8.77483 Y-2.64672 Z[#3+#4]
#1=[#581+[#582-#581]*0.78930]
#2=[#589+[#590-#589]*0.78930]
#3=[#1+[#2-#1]*0.27773]
X8.81777 Y-2.62525 Z[#3+#4]
#1=[#581+[#582-#581]*0.79381]
#2=[#589+[#590-#589]*0.79381]
#3=[#1+[#2-#1]*0.29208]
X8.82354 Y-2.62341 Z[#3+#4]
#1=[#581+[#582-#581]*0.79381]
#2=[#589+[#590-#589]*0.79381]
#3=[#1+[#2-#1]*0.48470]
X8.90103 Y-2.62341 Z[#3+#4]
#1=[#581+[#582-#581]*0.78930]
#2=[#589+[#590-#589]*0.78930]
#3=[#1+[#2-#1]*0.49905]
X8.90680 Y-2.62525 Z[#3+#4]
#1=[#581+[#582-#581]*0.72707]
#2=[#589+[#590-#589]*0.72707]
#3=[#1+[#2-#1]*0.62414]
X8.95713 Y-2.65070 Z[#3+#4]
#1=[#581+[#582-#581]*0.72206]
#2=[#589+[#590-#589]*0.72206]
#3=[#1+[#2-#1]*0.63013]
X8.95954 Y-2.65275 Z[#3+#4]
#1=[#581+[#582-#581]*0.70955]
#2=[#589+[#590-#589]*0.70955]
#3=[#1+[#2-#1]*0.63930]
X8.96323 Y-2.65786 Z[#3+#4]
#1=[#581+[#582-#581]*0.59309]
#2=[#589+[#590-#589]*0.59309]
#3=[#1+[#2-#1]*0.69848]
X8.98703 Y-2.70548 Z[#3+#4]
#1=[#581+[#582-#581]*0.57897]
#2=[#589+[#590-#589]*0.57897]
#3=[#1+[#2-#1]*0.70306]
X8.98888 Y-2.71125 Z[#3+#4]
#1=[#580+[#581-#580]*0.93105]
#2=[#588+[#589-#588]*0.93105]
#3=[#1+[#2-#1]*0.70365]
X8.98911 Y-2.97619 Z[#3+#4]
#1=[#580+[#581-#580]*0.92104]
#2=[#588+[#589-#588]*0.92104]
#3=[#1+[#2-#1]*0.70258]
X8.98868 Y-2.98028 Z[#3+#4]
#1=[#580+[#581-#580]*0.91147]
#2=[#588+[#589-#588]*0.91147]
#3=[#1+[#2-#1]*0.69942]
X8.98741 Y-2.98420 Z[#3+#4]
#1=[#580+[#581-#580]*0.90275]
#2=[#588+[#589-#588]*0.90275]
#3=[#1+[#2-#1]*0.69430]
X8.98535 Y-2.98776 Z[#3+#4]
#1=[#580+[#581-#580]*0.89527]
#2=[#588+[#589-#588]*0.89527]
#3=[#1+[#2-#1]*0.68746]
X8.98260 Y-2.99082 Z[#3+#4]
#1=[#580+[#581-#580]*0.88936]
#2=[#588+[#589-#588]*0.88936]
#3=[#1+[#2-#1]*0.67918]
X8.97927 Y-2.99324 Z[#3+#4]
#1=[#580+[#581-#580]*0.88526]
#2=[#588+[#589-#588]*0.88526]
#3=[#1+[#2-#1]*0.66983]
X8.97551 Y-2.99491 Z[#3+#4]
#1=[#580+[#581-#580]*0.88317]
#2=[#588+[#589-#588]*0.88317]
#3=[#1+[#2-#1]*0.65983]
X8.97149 Y-2.99577 Z[#3+#4]
#1=[#580+[#581-#580]*0.88317]
#2=[#588+[#589-#588]*0.88317]
#3=[#1+[#2-#1]*0.64960]
X8.96737 Y-2.99577 Z[#3+#4]
#1=[#580+[#581-#580]*0.88526]
#2=[#588+[#589-#588]*0.88526]
#3=[#1+[#2-#1]*0.63960]
X8.96335 Y-2.99491 Z[#3+#4]
#1=[#580+[#581-#580]*0.88936]
#2=[#588+[#589-#588]*0.88936]
#3=[#1+[#2-#1]*0.63025]
X8.95959 Y-2.99324 Z[#3+#4]
#1=[#580+[#581-#580]*0.89527]
#2=[#588+[#589-#588]*0.89527]
#3=[#1+[#2-#1]*0.62197]
X8.95626 Y-2.99082 Z[#3+#4]
#1=[#580+[#581-#580]*0.90275]
#2=[#588+[#589-#588]*0.90275]
#3=[#1+[#2-#1]*0.61513]
X8.95350 Y-2.98776 Z[#3+#4]
#1=[#580+[#581-#580]*0.91147]
#2=[#588+[#589-#588]*0.91147]
#3=[#1+[#2-#1]*0.61001]
X8.95144 Y-2.98420 Z[#3+#4]
#1=[#580+[#581-#580]*0.92104]
#2=[#588+[#589-#588]*0.92104]
#3=[#1+[#2-#1]*0.60685]
X8.95017 Y-2.98028 Z[#3+#4]
#1=[#580+[#581-#580]*0.93105]
#2=[#588+[#589-#588]*0.93105]
#3=[#1+[#2-#1]*0.60578]
X8.94974 Y-2.97619 Z[#3+#4]
#1=[#581+[#582-#581]*0.56020]
#2=[#589+[#590-#589]*0.56020]
#3=[#1+[#2-#1]*0.60578]
X8.94974 Y-2.71893 Z[#3+#4]
#1=[#581+[#582-#581]*0.65213]
#2=[#589+[#590-#589]*0.65213]
#3=[#1+[#2-#1]*0.55906]
X8.93095 Y-2.68134 Z[#3+#4]
#1=[#581+[#582-#581]*0.69810]
#2=[#589+[#590-#589]*0.69810]
#3=[#1+[#2-#1]*0.46561]
X8.89335 Y-2.66254 Z[#3+#4]
#1=[#581+[#582-#581]*0.69810]
#2=[#589+[#590-#589]*0.69810]
#3=[#1+[#2-#1]*0.31116]
X8.83122 Y-2.66254 Z[#3+#4]
#1=[#581+[#582-#581]*0.64845]
#2=[#589+[#590-#589]*0.64845]
#3=[#1+[#2-#1]*0.21023]
X8.79061 Y-2.68284 Z[#3+#4]
#1=[#581+[#582-#581]*0.60985]
#2=[#589+[#590-#589]*0.60985]
#3=[#1+[#2-#1]*0.17099]
X8.77483 Y-2.69863 Z[#3+#4]
#1=[#580+[#581-#580]*0.93105]
#2=[#588+[#589-#588]*0.93105]
#3=[#1+[#2-#1]*0.17099]
X8.77483 Y-2.97619 Z[#3+#4]
#1=[#580+[#581-#580]*0.92104]
#2=[#588+[#589-#588]*0.92104]
#3=[#1+[#2-#1]*0.16992]
X8.77440 Y-2.98028 Z[#3+#4]
#1=[#580+[#581-#580]*0.91147]
#2=[#588+[#589-#588]*0.91147]
#3=[#1+[#2-#1]*0.16676]
X8.77313 Y-2.98420 Z[#3+#4]
#1=[#580+[#581-#580]*0.90275]
#2=[#588+[#589-#588]*0.90275]
#3=[#1+[#2-#1]*0.16165]
X8.77107 Y-2.98776 Z[#3+#4]
#1=[#580+[#581-#580]*0.89527]
#2=[#588+[#589-#588]*0.89527]
#3=[#1+[#2-#1]*0.15480]
X8.76831 Y-2.99082 Z[#3+#4]
#1=[#580+[#581-#580]*0.88936]
#2=[#588+[#589-#588]*0.88936]
#3=[#1+[#2-#1]*0.14653]
X8.76499 Y-2.99324 Z[#3+#4]
#1=[#580+[#581-#580]*0.88526]
#2=[#588+[#589-#588]*0.88526]
#3=[#1+[#2-#1]*0.13718]
X8.76123 Y-2.99491 Z[#3+#4]
#1=[#580+[#581-#580]*0.88317]
#2=[#588+[#589-#588]*0.88317]
#3=[#1+[#2-#1]*0.12717]
X8.75720 Y-2.99577 Z[#3+#4]
#1=[#580+[#581-#580]*0.88317]
#2=[#588+[#589-#588]*0.88317]
#3=[#1+[#2-#1]*0.11695]
X8.75309 Y-2.99577 Z[#3+#4]
#1=[#580+[#581-#580]*0.88526]
#2=[#588+[#589-#588]*0.88526]
#3=[#1+[#2-#1]*0.10694]
X8.74906 Y-2.99491 Z[#3+#4]
#1=[#580+[#581-#580]*0.88936]
#2=[#588+[#589-#588]*0.88936]
#3=[#1+[#2-#1]*0.09759]
X8.74530 Y-2.99324 Z[#3+#4]
#1=[#580+[#581-#580]*0.89527]
#2=[#588+[#589-#588]*0.89527]
#3=[#1+[#2-#1]*0.08932]
X8.74197 Y-2.99082 Z[#3+#4]
#1=[#580+[#581-#580]*0.90275]
#2=[#588+[#589-#588]*0.90275]
#3=[#1+[#2-#1]*0.08247]
X8.73922 Y-2.98776 Z[#3+#4]
#1=[#580+[#581-#580]*0.91147]
#2=[#588+[#589-#588]*0.91147]
#3=[#1+[#2-#1]*0.07736]
X8.73716 Y-2.98420 Z[#3+#4]
#1=[#580+[#581-#580]*0.92104]
#2=[#588+[#589-#588]*0.92104]
#3=[#1+[#2-#1]*0.07420]
X8.73589 Y-2.98028 Z[#3+#4]
#1=[#580+[#581-#580]*0.93105]
#2=[#588+[#589-#588]*0.93105]
#3=[#1+[#2-#1]*0.07313]
X8.73546 Y-2.97619 Z[#3+#4]
G04 P0 ( dwell for no time -- G64 should not smooth over this point )
G00 Z0.08000 ( retract )

G00 X9.11652 Y-2.64491 ( rapid move to begin. )
G01 F180.00000
#1=[#589+[#590-#589]*0.74121]
#2=[#597+[#598-#597]*0.74121]
#3=[#1+[#2-#1]*0.02034]
G01 Z[-0.04000+#111]
G04 P0 ( dwell for no time -- G64 should not smooth over this point )
G01 F360.00000
#1=[#589+[#590-#589]*0.75127]
#2=[#597+[#598-#597]*0.75127]
#3=[#1+[#2-#1]*0.02034]
X9.11652 Y-2.64080 Z[#3+#4]
#1=[#589+[#590-#589]*0.76112]
#2=[#597+[#598-#597]*0.76112]
#3=[#1+[#2-#1]*0.02247]
X9.11737 Y-2.63677 Z[#3+#4]
#1=[#589+[#590-#589]*0.77031]
#2=[#597+[#598-#597]*0.77031]
#3=[#1+[#2-#1]*0.02663]
X9.11905 Y-2.63301 Z[#3+#4]
#1=[#589+[#590-#589]*0.77846]
#2=[#597+[#598-#597]*0.77846]
#3=[#1+[#2-#1]*0.03264]
X9.12147 Y-2.62968 Z[#3+#4]
#1=[#589+[#590-#589]*0.78519]
#2=[#597+[#598-#597]*0.78519]
#3=[#1+[#2-#1]*0.04024]
X9.12452 Y-2.62693 Z[#3+#4]
#1=[#589+[#590-#589]*0.79022]
#2=[#597+[#598-#597]*0.79022]
#3=[#1+[#2-#1]*0.04910]
X9.12809 Y-2.62487 Z[#3+#4]
#1=[#589+[#590-#589]*0.79333]
#2=[#597+[#598-#597]*0.79333]
#3=[#1+[#2-#1]*0.05883]
X9.13200 Y-2.62360 Z[#3+#4]
#1=[#589+[#590-#589]*0.79438]
#2=[#597+[#598-#597]*0.79438]
#3=[#1+[#2-#1]*0.19763]
X9.18784 Y-2.62317 Z[#3+#4]
#1=[#590+[#591-#590]*0.15384]
#2=[#598+[#599-#598]*0.15384]
#3=[#1+[#2-#1]*0.19763]
X9.18784 Y-2.47619 Z[#3+#4]
#1=[#590+[#591-#590]*0.16385]
#2=[#598+[#599-#598]*0.16385]
#3=[#1+[#2-#1]*0.19870]
X9.18827 Y-2.47210 Z[#3+#4]
#1=[#590+[#591-#590]*0.17342]
#2=[#598+[#599-#598]*0.17342]
#3=[#1+[#2-#1]*0.20186]
X9.18954 Y-2.46818 Z[#3+#4]
#1=[#590+[#591-#590]*0.18214]
#2=[#598+[#599-#598]*0.18214]
#3=[#1+[#2-#1]*0.20697]
X9.19160 Y-2.46462 Z[#3+#4]
#1=[#590+[#591-#590]*0.18962]
#2=[#598+[#599-#598]*0.18962]
#3=[#1+[#2-#1]*0.21382]
X9.19435 Y-2.46156 Z[#3+#4]
#1=[#590+[#591-#590]*0.19553]
#2=[#598+[#599-#598]*0.19553]
#3=[#1+[#2-#1]*0.22209]
X9.19768 Y-2.45914 Z[#3+#4]
#1=[#590+[#591-#590]*0.19963]
#2=[#598+[#599-#598]*0.19963]
#3=[#1+[#2-#1]*0.23144]
X9.20144 Y-2.45747 Z[#3+#4]
#1=[#590+[#591-#590]*0.20172]
#2=[#598+[#599-#598]*0.20172]
#3=[#1+[#2-#1]*0.24144]
X9.20547 Y-2.45661 Z[#3+#4]
#1=[#590+[#591-#590]*0.20172]
#2=[#598+[#599-#598]*0.20172]
#3=[#1+[#2-#1]*0.25167]
X9.20958 Y-2.45661 Z[#3+#4]
#1=[#590+[#591-#590]*0.19963]
#2=[#598+[#599-#598]*0.19963]
#3=[#1+[#2-#1]*0.26168]
X9.21361 Y-2.45747 Z[#3+#4]
#1=[#590+[#591-#590]*0.19553]
#2=[#598+[#599-#598]*0.19553]
#3=[#1+[#2-#1]*0.27102]
X9.21737 Y-2.45914 Z[#3+#4]
#1=[#590+[#591-#590]*0.18962]
#2=[#598+[#599-#598]*0.18962]
#3=[#1+[#2-#1]*0.27930]
X9.22070 Y-2.46156 Z[#3+#4]
#1=[#590+[#591-#590]*0.18214]
#2=[#598+[#599-#598]*0.18214]
#3=[#1+[#2-#1]*0.28614]
X9.22345 Y-2.46462 Z[#3+#4]
#1=[#590+[#591-#590]*0.17342]
#2=[#598+[#599-#598]*0.17342]
#3=[#1+[#2-#1]*0.29126]
X9.22551 Y-2.46818 Z[#3+#4]
#1=[#590+[#591-#590]*0.16385]
#2=[#598+[#599-#598]*0.16385]
#3=[#1+[#2-#1]*0.29442]
X9.22678 Y-2.47210 Z[#3+#4]
#1=[#590+[#591-#590]*0.15384]
#2=[#598+[#599-#598]*0.15384]
#3=[#1+[#2-#1]*0.29549]
X9.22721 Y-2.47619 Z[#3+#4]
#1=[#589+[#590-#589]*0.79438]
#2=[#597+[#598-#597]*0.79438]
#3=[#1+[#2-#1]*0.29549]
X9.22721 Y-2.62317 Z[#3+#4]
#1=[#589+[#590-#589]*0.79438]
#2=[#597+[#598-#597]*0.79438]
#3=[#1+[#2-#1]*0.54248]
X9.32657 Y-2.62317 Z[#3+#4]
#1=[#589+[#590-#589]*0.79333]
#2=[#597+[#598-#597]*0.79333]
#3=[#1+[#2-#1]*0.55265]
X9.33066 Y-2.62360 Z[#3+#4]
#1=[#589+[#590-#589]*0.79022]
#2=[#597+[#598-#597]*0.79022]
#3=[#1+[#2-#1]*0.56238]
X9.33458 Y-2.62487 Z[#3+#4]
#1=[#589+[#590-#589]*0.78519]
#2=[#597+[#598-#597]*0.78519]
#3=[#1+[#2-#1]*0.57124]
X9.33814 Y-2.62693 Z[#3+#4]
#1=[#589+[#590-#589]*0.77846]
#2=[#597+[#598-#597]*0.77846]
#3=[#1+[#2-#1]*0.57884]
X9.34120 Y-2.62968 Z[#3+#4]
#1=[#589+[#590-#589]*0.77031]
#2=[#597+[#598-#597]*0.77031]
#3=[#1+[#2-#1]*0.58485]
X9.34362 Y-2.63301 Z[#3+#4]
#1=[#589+[#590-#589]*0.76112]
#2=[#597+[#598-#597]*0.76112]
#3=[#1+[#2-#1]*0.58901]
X9.34529 Y-2.63677 Z[#3+#4]
#1=[#589+[#590-#589]*0.75127]
#2=[#597+[#598-#597]*0.75127]
#3=[#1+[#2-#1]*0.59114]
X9.34615 Y-2.64080 Z[#3+#4]
#1=[#589+[#590-#589]*0.74121]
#2=[#597+[#598-#597]*0.74121]
#3=[#1+[#2-#1]*0.59114]
X9.34615 Y-2.64491 Z[#3+#4]
#1=[#589+[#590-#589]*0.73137]
#2=[#597+[#598-#597]*0.73137]
#3=[#1+[#2-#1]*0.58901]
X9.34529 Y-2.64894 Z[#3+#4]
#1=[#589+[#590-#589]*0.72217]
#2=[#597+[#598-#597]*0.72217]
#3=[#1+[#2-#1]*0.58485]
X9.34362 Y-2.65270 Z[#3+#4]
#1=[#589+[#590-#589]*0.71403]
#2=[#597+[#598-#597]*0.71403]
#3=[#1+[#2-#1]*0.57884]
X9.34120 Y-2.65603 Z[#3+#4]
#1=[#589+[#590-#589]*0.70730]
#2=[#597+[#598-#597]*0.70730]
#3=[#1+[#2-#1]*0.57124]
X9.33814 Y-2.65878 Z[#3+#4]
#1=[#589+[#590-#589]*0.70226]
#2=[#597+[#598-#597]*0.70226]
#3=[#1+[#2-#1]*0.56238]
X9.33458 Y-2.66084 Z[#3+#4]
#1=[#589+[#590-#589]*0.69915]
#2=[#597+[#598-#597]*0.69915]
#3=[#1+[#2-#1]*0.55265]
X9.33066 Y-2.66211 Z[#3+#4]
#1=[#589+[#590-#589]*0.69810]
#2=[#597+[#598-#597]*0.69810]
#3=[#1+[#2-#1]*0.54248]
X9.32657 Y-2.66254 Z[#3+#4]
#1=[#589+[#590-#589]*0.69810]
#2=[#597+[#598-#597]*0.69810]
#3=[#1+[#2-#1]*0.29549]
X9.22721 Y-2.66254 Z[#3+#4]
#1=[#589+[#590-#589]*0.11710]
#2=[#597+[#598-#597]*0.11710]
#3=[#1+[#2-#1]*0.29549]
X9.22721 Y-2.90011 Z[#3+#4]
#1=[#589+[#590-#589]*0.02516]
#2=[#597+[#598-#597]*0.02516]
#3=[#1+[#2-#1]*0.34221]
X9.24601 Y-2.93771 Z[#3+#4]
#1=[#588+[#589-#588]*0.97919]
#2=[#596+[#597-#596]*0.97919]
#3=[#1+[#2-#1]*0.43566]
X9.28360 Y-2.95650 Z[#3+#4]
#1=[#588+[#589-#588]*0.97919]
#2=[#596+[#597-#596]*0.97919]
#3=[#1+[#2-#1]*0.54248]
X9.32657 Y-2.95650 Z[#3+#4]
#1=[#588+[#589-#588]*0.97814]
#2=[#596+[#597-#596]*0.97814]
#3=[#1+[#2-#1]*0.55265]
X9.33066 Y-2.95694 Z[#3+#4]
#1=[#588+[#589-#588]*0.97503]
#2=[#596+[#597-#596]*0.97503]
#3=[#1+[#2-#1]*0.56238]
X9.33458 Y-2.95821 Z[#3+#4]
#1=[#588+[#589-#588]*0.96999]
#2=[#596+[#597-#596]*0.96999]
#3=[#1+[#2-#1]*0.57124]
X9.33814 Y-2.96026 Z[#3+#4]
#1=[#588+[#589-#588]*0.96326]
#2=[#596+[#597-#596]*0.96326]
#3=[#1+[#2-#1]*0.57884]
X9.34120 Y-2.96302 Z[#3+#4]
#1=[#588+[#589-#588]*0.95512]
#2=[#596+[#597-#596]*0.95512]
#3=[#1+[#2-#1]*0.58485]
X9.34362 Y-2.96635 Z[#3+#4]
#1=[#588+[#589-#588]*0.94592]
#2=[#596+[#597-#596]*0.94592]
#3=[#1+[#2-#1]*0.58901]
X9.34529 Y-2.97011 Z[#3+#4]
#1=[#588+[#589-#588]*0.93608]
#2=[#596+[#597-#596]*0.93608]
#3=[#1+[#2-#1]*0.59114]
X9.34615 Y-2.97413 Z[#3+#4]
#1=[#588+[#589-#588]*0.92602]
#2=[#596+[#597-#596]*0.92602]
#3=[#1+[#2-#1]*0.59114]
X9.34615 Y-2.97825 Z[#3+#4]
#1=[#588+[#589-#588]*0.91617]
#2=[#596+[#597-#596]*0.91617]
#3=[#1+[#2-#1]*0.58901]
X9.34529 Y-2.98227 Z[#3+#4]
#1=[#588+[#589-#588]*0.90698]
#2=[#596+[#597-#596]*0.90698]
#3=[#1+[#2-#1]*0.58485]
X9.34362 Y-2.98603 Z[#3+#4]
#1=[#588+[#589-#588]*0.89884]
#2=[#596+[#597-#596]*0.89884]
#3=[#1+[#2-#1]*0.57884]
X9.34120 Y-2.98936 Z[#3+#4]
#1=[#588+[#589-#588]*0.89210]
#2=[#596+[#597-#596]*0.89210]
#3=[#1+[#2-#1]*0.57124]
X9.33814 Y-2.99212 Z[#3+#4]
#1=[#588+[#589-#588]*0.88707]
#2=[#596+[#597-#596]*0.88707]
#3=[#1+[#2-#1]*0.56238]
X9.33458 Y-2.99417 Z[#3+#4]
#1=[#588+[#589-#588]*0.88396]
#2=[#596+[#597-#596]*0.88396]
#3=[#1+[#2-#1]*0.55265]
X9.33066 Y-2.99544 Z[#3+#4]
#1=[#588+[#589-#588]*0.88290]
#2=[#596+[#597-#596]*0.88290]
#3=[#1+[#2-#1]*0.54248]
X9.32657 Y-2.99587 Z[#3+#4]
#1=[#588+[#589-#588]*0.88348]
#2=[#596+[#597-#596]*0.88348]
#3=[#1+[#2-#1]*0.41658]
X9.27592 Y-2.99564 Z[#3+#4]
#1=[#588+[#589-#588]*0.88799]
#2=[#596+[#597-#596]*0.88799]
#3=[#1+[#2-#1]*0.40223]
X9.27015 Y-2.99380 Z[#3+#4]
#1=[#588+[#589-#588]*0.94622]
#2=[#596+[#597-#596]*0.94622]
#3=[#1+[#2-#1]*0.28386]
X9.22253 Y-2.96999 Z[#3+#4]
#1=[#588+[#589-#588]*0.95022]
#2=[#596+[#597-#596]*0.95022]
#3=[#1+[#2-#1]*0.27713]
X9.21982 Y-2.96835 Z[#3+#4]
#1=[#588+[#589-#588]*0.96113]
#2=[#596+[#597-#596]*0.96113]
#3=[#1+[#2-#1]*0.26604]
X9.21536 Y-2.96389 Z[#3+#4]
#1=[#589+[#590-#589]*0.08420]
#2=[#597+[#598-#597]*0.08420]
#3=[#1+[#2-#1]*0.20279]
X9.18992 Y-2.91356 Z[#3+#4]
#1=[#589+[#590-#589]*0.09832]
#2=[#597+[#598-#597]*0.09832]
#3=[#1+[#2-#1]*0.19821]
X9.18807 Y-2.90779 Z[#3+#4]
#1=[#589+[#590-#589]*0.69810]
#2=[#597+[#598-#597]*0.69810]
#3=[#1+[#2-#1]*0.19763]
X9.18784 Y-2.66254 Z[#3+#4]
#1=[#589+[#590-#589]*0.69915]
#2=[#597+[#598-#597]*0.69915]
#3=[#1+[#2-#1]*0.05883]
X9.13200 Y-2.66211 Z[#3+#4]
#1=[#589+[#590-#589]*0.70226]
#2=[#597+[#598-#597]*0.70226]
#3=[#1+[#2-#1]*0.04910]
X9.12809 Y-2.66084 Z[#3+#4]
#1=[#589+[#590-#589]*0.70730]
#2=[#597+[#598-#597]*0.70730]
#3=[#1+[#2-#1]*0.04024]
X9.12452 Y-2.65878 Z[#3+#4]
#1=[#589+[#590-#589]*0.71403]
#2=[#597+[#598-#597]*0.71403]
#3=[#1+[#2-#1]*0.03264]
X9.12147 Y-2.65603 Z[#3+#4]
#1=[#589+[#590-#589]*0.72217]
#2=[#597+[#598-#597]*0.72217]
#3=[#1+[#2-#1]*0.02663]
X9.11905 Y-2.65270 Z[#3+#4]
#1=[#589+[#590-#589]*0.73137]
#2=[#597+[#598-#597]*0.73137]
#3=[#1+[#2-#1]*0.02247]
X9.11737 Y-2.64894 Z[#3+#4]
#1=[#589+[#590-#589]*0.74121]
#2=[#597+[#598-#597]*0.74121]
#3=[#1+[#2-#1]*0.02034]
X9.11652 Y-2.64491 Z[#3+#4]
G04 P0 ( dwell for no time -- G64 should not smooth over this point )
G00 Z0.08000 ( retract )

G00 X9.35501 Y-3.30051 ( rapid move to begin. )
G01 F180.00000
#1=[#588+[#589-#588]*0.13788]
#2=[#596+[#597-#596]*0.13788]
#3=[#1+[#2-#1]*0.61317]
G01 Z[-0.04000+#111]
G04 P0 ( dwell for no time -- G64 should not smooth over this point )
G01 F360.00000
#1=[#588+[#589-#588]*0.14286]
#2=[#596+[#597-#596]*0.14286]
#3=[#1+[#2-#1]*0.61370]
X9.35522 Y-3.29848 Z[#3+#4]
#1=[#588+[#589-#588]*0.14719]
#2=[#596+[#597-#596]*0.14719]
#3=[#1+[#2-#1]*0.61624]
X9.35625 Y-3.29671 Z[#3+#4]
#1=[#588+[#589-#588]*0.15091]
#2=[#596+[#597-#596]*0.15091]
#3=[#1+[#2-#1]*0.62279]
X9.35888 Y-3.29519 Z[#3+#4]
#1=[#588+[#589-#588]*0.15117]
#2=[#596+[#597-#596]*0.15117]
#3=[#1+[#2-#1]*0.73739]
X9.40498 Y-3.29508 Z[#3+#4]
#1=[#588+[#589-#588]*0.26142]
#2=[#596+[#597-#596]*0.26142]
#3=[#1+[#2-#1]*0.73739]
X9.40498 Y-3.25000 Z[#3+#4]
#1=[#588+[#589-#588]*0.26849]
#2=[#596+[#597-#596]*0.26849]
#3=[#1+[#2-#1]*0.73973]
X9.40592 Y-3.24711 Z[#3+#4]
#1=[#588+[#589-#588]*0.27184]
#2=[#596+[#597-#596]*0.27184]
#3=[#1+[#2-#1]*0.74351]
X9.40744 Y-3.24574 Z[#3+#4]
#1=[#588+[#589-#588]*0.27339]
#2=[#596+[#597-#596]*0.27339]
#3=[#1+[#2-#1]*0.74834]
X9.40939 Y-3.24511 Z[#3+#4]
#1=[#588+[#589-#588]*0.27287]
#2=[#596+[#597-#596]*0.27287]
#3=[#1+[#2-#1]*0.75340]
X9.41143 Y-3.24532 Z[#3+#4]
#1=[#588+[#589-#588]*0.27036]
#2=[#596+[#597-#596]*0.27036]
#3=[#1+[#2-#1]*0.75781]
X9.41320 Y-3.24634 Z[#3+#4]
#1=[#588+[#589-#588]*0.26392]
#2=[#596+[#597-#596]*0.26392]
#3=[#1+[#2-#1]*0.76159]
X9.41472 Y-3.24898 Z[#3+#4]
#1=[#588+[#589-#588]*0.15117]
#2=[#596+[#597-#596]*0.15117]
#3=[#1+[#2-#1]*0.76186]
X9.41483 Y-3.29508 Z[#3+#4]
#1=[#588+[#589-#588]*0.15117]
#2=[#596+[#597-#596]*0.15117]
#3=[#1+[#2-#1]*0.87391]
X9.45991 Y-3.29508 Z[#3+#4]
#1=[#588+[#589-#588]*0.14888]
#2=[#596+[#597-#596]*0.14888]
#3=[#1+[#2-#1]*0.88110]
X9.46280 Y-3.29602 Z[#3+#4]
#1=[#588+[#589-#588]*0.14516]
#2=[#596+[#597-#596]*0.14516]
#3=[#1+[#2-#1]*0.88450]
X9.46417 Y-3.29754 Z[#3+#4]
#1=[#588+[#589-#588]*0.14040]
#2=[#596+[#597-#596]*0.14040]
#3=[#1+[#2-#1]*0.88607]
X9.46480 Y-3.29948 Z[#3+#4]
#1=[#588+[#589-#588]*0.13542]
#2=[#596+[#597-#596]*0.13542]
#3=[#1+[#2-#1]*0.88554]
X9.46459 Y-3.30152 Z[#3+#4]
#1=[#588+[#589-#588]*0.13109]
#2=[#596+[#597-#596]*0.13109]
#3=[#1+[#2-#1]*0.88300]
X9.46356 Y-3.30329 Z[#3+#4]
#1=[#588+[#589-#588]*0.12737]
#2=[#596+[#597-#596]*0.12737]
#3=[#1+[#2-#1]*0.87645]
X9.46093 Y-3.30481 Z[#3+#4]
#1=[#588+[#589-#588]*0.12710]
#2=[#596+[#597-#596]*0.12710]
#3=[#1+[#2-#1]*0.76186]
X9.41483 Y-3.30492 Z[#3+#4]
#1=[#588+[#589-#588]*0.01686]
#2=[#596+[#597-#596]*0.01686]
#3=[#1+[#2-#1]*0.76186]
X9.41483 Y-3.35000 Z[#3+#4]
#1=[#588+[#589-#588]*0.00979]
#2=[#596+[#597-#596]*0.00979]
#3=[#1+[#2-#1]*0.75952]
X9.41389 Y-3.35289 Z[#3+#4]
#1=[#588+[#589-#588]*0.00644]
#2=[#596+[#597-#596]*0.00644]
#3=[#1+[#2-#1]*0.75574]
X9.41237 Y-3.35426 Z[#3+#4]
#1=[#588+[#589-#588]*0.00489]
#2=[#596+[#597-#596]*0.00489]
#3=[#1+[#2-#1]*0.75090]
X9.41042 Y-3.35489 Z[#3+#4]
#1=[#588+[#589-#588]*0.00541]
#2=[#596+[#597-#596]*0.00541]
#3=[#1+[#2-#1]*0.74584]
X9.40838 Y-3.35468 Z[#3+#4]
#1=[#588+[#589-#588]*0.00792]
#2=[#596+[#597-#596]*0.00792]
#3=[#1+[#2-#1]*0.74144]
X9.40661 Y-3.35366 Z[#3+#4]
#1=[#588+[#589-#588]*0.01436]
#2=[#596+[#597-#596]*0.01436]
#3=[#1+[#2-#1]*0.73766]
X9.40509 Y-3.35102 Z[#3+#4]
#1=[#588+[#589-#588]*0.12710]
#2=[#596+[#597-#596]*0.12710]
#3=[#1+[#2-#1]*0.73739]
X9.40498 Y-3.30492 Z[#3+#4]
#1=[#588+[#589-#588]*0.12710]
#2=[#596+[#597-#596]*0.12710]
#3=[#1+[#2-#1]*0.62534]
X9.35991 Y-3.30492 Z[#3+#4]
#1=[#588+[#589-#588]*0.12940]
#2=[#596+[#597-#596]*0.12940]
#3=[#1+[#2-#1]*0.61815]
X9.35701 Y-3.30398 Z[#3+#4]
#1=[#588+[#589-#588]*0.13312]
#2=[#596+[#597-#596]*0.13312]
#3=[#1+[#2-#1]*0.61474]
X9.35564 Y-3.30246 Z[#3+#4]
#1=[#588+[#589-#588]*0.13788]
#2=[#596+[#597-#596]*0.13788]
#3=[#1+[#2-#1]*0.61317]
X9.35501 Y-3.30051 Z[#3+#4]
( Piece #3, position [2;0] )

G04 P0 ( dwell for no time -- G64 should not smooth over this point )
G00 Z0.08000 ( retract )

G00 X10.40489 Y-2.97619 ( rapid move to begin. )
G01 F180.00000
#1=[#612+[#613-#612]*0.93105]
#2=[#620+[#621-#620]*0.93105]
#3=[#1+[#2-#1]*0.22288]
G01 Z[-0.04000+#111]
G04 P0 ( dwell for no time -- G64 should not smooth over this point )
G01 F360.00000
#1=[#613+[#614-#613]*0.54244]
#2=[#621+[#622-#621]*0.54244]
#3=[#1+[#2-#1]*0.22288]
X10.40489 Y-2.72619 Z[#3+#4]
#1=[#614+[#615-#614]*0.15384]
#2=[#622+[#623-#622]*0.15384]
#3=[#1+[#2-#1]*0.22288]
X10.40489 Y-2.47619 Z[#3+#4]
#1=[#614+[#615-#614]*0.17227]
#2=[#622+[#623-#622]*0.17227]
#3=[#1+[#2-#1]*0.22660]
X10.40638 Y-2.46866 Z[#3+#4]
#1=[#614+[#615-#614]*0.18788]
#2=[#622+[#623-#622]*0.18788]
#3=[#1+[#2-#1]*0.23721]
X10.41065 Y-2.46227 Z[#3+#4]
#1=[#614+[#615-#614]*0.19387]
#2=[#622+[#623-#622]*0.19387]
#3=[#1+[#2-#1]*0.24462]
X10.41363 Y-2.45982 Z[#3+#4]
#1=[#614+[#615-#614]*0.19832]
#2=[#622+[#623-#622]*0.19832]
#3=[#1+[#2-#1]*0.25308]
X10.41704 Y-2.45800 Z[#3+#4]
#1=[#614+[#615-#614]*0.20198]
#2=[#622+[#623-#622]*0.20198]
#3=[#1+[#2-#1]*0.27181]
X10.42457 Y-2.45650 Z[#3+#4]
#1=[#614+[#615-#614]*0.20198]
#2=[#622+[#623-#622]*0.20198]
#3=[#1+[#2-#1]*0.86365]
X10.66267 Y-2.45650 Z[#3+#4]
#1=[#614+[#615-#614]*0.20093]
#2=[#622+[#623-#622]*0.20093]
#3=[#1+[#2-#1]*0.87382]
X10.66676 Y-2.45694 Z[#3+#4]
#1=[#614+[#615-#614]*0.19782]
#2=[#622+[#623-#622]*0.19782]
#3=[#1+[#2-#1]*0.88355]
X10.67067 Y-2.45821 Z[#3+#4]
#1=[#614+[#615-#614]*0.19279]
#2=[#622+[#623-#622]*0.19279]
#3=[#1+[#2-#1]*0.89241]
X10.67424 Y-2.46026 Z[#3+#4]
#1=[#614+[#615-#614]*0.18605]
#2=[#622+[#623-#622]*0.18605]
#3=[#1+[#2-#1]*0.90001]
X10.67730 Y-2.46302 Z[#3+#4]
#1=[#614+[#615-#614]*0.17791]
#2=[#622+[#623-#622]*0.17791]
#3=[#1+[#2-#1]*0.90603]
X10.67971 Y-2.46635 Z[#3+#4]
#1=[#614+[#615-#614]*0.16872]
#2=[#622+[#623-#622]*0.16872]
#3=[#1+[#2-#1]*0.91019]
X10.68139 Y-2.47011 Z[#3+#4]
#1=[#614+[#615-#614]*0.15887]
#2=[#622+[#623-#622]*0.15887]
#3=[#1+[#2-#1]*0.91232]
X10.68224 Y-2.47413 Z[#3+#4]
#1=[#614+[#615-#614]*0.14881]
#2=[#622+[#623-#622]*0.14881]
#3=[#1+[#2-#1]*0.91232]
X10.68224 Y-2.47825 Z[#3+#4]
#1=[#614+[#615-#614]*0.13897]
#2=[#622+[#623-#622]*0.13897]
#3=[#1+[#2-#1]*0.91019]
X10.68139 Y-2.48227 Z[#3+#4]
#1=[#614+[#615-#614]*0.12977]
#2=[#622+[#623-#622]*0.12977]
#3=[#1+[#2-#1]*0.90603]
X10.67971 Y-2.48603 Z[#3+#4]
#1=[#614+[#615-#614]*0.12163]
#2=[#622+[#623-#622]*0.12163]
#3=[#1+[#2-#1]*0.90001]
X10.67730 Y-2.48936 Z[#3+#4]
#1=[#614+[#615-#614]*0.11490]
#2=[#622+[#623-#622]*0.11490]
#3=[#1+[#2-#1]*0.89241]
X10.67424 Y-2.49212 Z[#3+#4]
#1=[#614+[#615-#614]*0.10986]
#2=[#622+[#623-#622]*0.10986]
#3=[#1+[#2-#1]*0.88355]
X10.67067 Y-2.49417 Z[#3+#4]
#1=[#614+[#615-#614]*0.10675]
#2=[#622+[#623-#622]*0.10675]
#3=[#1+[#2-#1]*0.87382]
X10.66676 Y-2.49544 Z[#3+#4]
#1=[#614+[#615-#614]*0.10570]
#2=[#622+[#623-#622]*0.10570]
#3=[#1+[#2-#1]*0.86365]
X10.66267 Y-2.49587 Z[#3+#4]
#1=[#614+[#615-#614]*0.10570]
#2=[#622+[#623-#622]*0.10570]
#3=[#1+[#2-#1]*0.32074]
X10.44426 Y-2.49587 Z[#3+#4]
#1=[#613+[#614-#613]*0.61970]
#2=[#621+[#622-#621]*0.61970]
#3=[#1+[#2-#1]*0.32074]
X10.44426 Y-2.69460 Z[#3+#4]
#1=[#613+[#614-#613]*0.61970]
#2=[#621+[#622-#621]*0.61970]
#3=[#1+[#2-#1]*0.68610]
X10.59124 Y-2.69460 Z[#3+#4]
#1=[#613+[#614-#613]*0.61865]
#2=[#621+[#622-#621]*0.61865]
#3=[#1+[#2-#1]*0.69627]
X10.59533 Y-2.69503 Z[#3+#4]
#1=[#613+[#614-#613]*0.61554]
#2=[#621+[#622-#621]*0.61554]
#3=[#1+[#2-#1]*0.70600]
X10.59924 Y-2.69630 Z[#3+#4]
#1=[#613+[#614-#613]*0.61051]
#2=[#621+[#622-#621]*0.61051]
#3=[#1+[#2-#1]*0.71486]
X10.60281 Y-2.69836 Z[#3+#4]
#1=[#613+[#614-#613]*0.60377]
#2=[#621+[#622-#621]*0.60377]
#3=[#1+[#2-#1]*0.72246]
X10.60587 Y-2.70111 Z[#3+#4]
#1=[#613+[#614-#613]*0.59563]
#2=[#621+[#622-#621]*0.59563]
#3=[#1+[#2-#1]*0.72847]
X10.60829 Y-2.70444 Z[#3+#4]
#1=[#613+[#614-#613]*0.58643]
#2=[#621+[#622-#621]*0.58643]
#3=[#1+[#2-#1]*0.73263]
X10.60996 Y-2.70820 Z[#3+#4]
#1=[#613+[#614-#613]*0.57659]
#2=[#621+[#622-#621]*0.57659]
#3=[#1+[#2-#1]*0.73476]
X10.61082 Y-2.71223 Z[#3+#4]
#1=[#613+[#614-#613]*0.56653]
#2=[#621+[#622-#621]*0.56653]
#3=[#1+[#2-#1]*0.73476]
X10.61082 Y-2.71634 Z[#3+#4]
#1=[#613+[#614-#613]*0.55668]
#2=[#621+[#622-#621]*0.55668]
#3=[#1+[#2-#1]*0.73263]
X10.60996 Y-2.72037 Z[#3+#4]
#1=[#613+[#614-#613]*0.54749]
#2=[#621+[#622-#621]*0.54749]
#3=[#1+[#2-#1]*0.72847]
X10.60829 Y-2.72413 Z[#3+#4]
#1=[#613+[#614-#613]*0.53935]
#2=[#621+[#622-#621]*0.53935]
#3=[#1+[#2-#1]*0.72246]
X10.60587 Y-2.72746 Z[#3+#4]
#1=[#613+[#614-#613]*0.53261]
#2=[#621+[#622-#621]*0.53261]
#3=[#1+[#2-#1]*0.71486]
X10.60281 Y-2.73021 Z[#3+#4]
#1=[#613+[#614-#613]*0.52758]
#2=[#621+[#622-#621]*0.52758]
#3=[#1+[#2-#1]*0.70600]
X10.59924 Y-2.73227 Z[#3+#4]
#1=[#613+[#614-#613]*0.52447]
#2=[#621+[#622-#621]*0.52447]
#3=[#1+[#2-#1]*0.69627]
X10.59533 Y-2.73354 Z[#3+#4]
#1=[#613+[#614-#613]*0.52342]
#2=[#621+[#622-#621]*0.52342]
#3=[#1+[#2-#1]*0.68610]
X10.59124 Y-2.73397 Z[#3+#4]
#1=[#613+[#614-#613]*0.52342]
#2=[#621+[#622-#621]*0.52342]
#3=[#1+[#2-#1]*0.32074]
X10.44426 Y-2.73397 Z[#3+#4]
#1=[#612+[#613-#612]*0.93105]
#2=[#620+[#621-#620]*0.93105]
#3=[#1+[#2-#1]*0.32074]
X10.44426 Y-2.97619 Z[#3+#4]
#1=[#612+[#613-#612]*0.92104]
#2=[#620+[#621-#620]*0.92104]
#3=[#1+[#2-#1]*0.31967]
X10.44383 Y-2.98028 Z[#3+#4]
#1=[#612+[#613-#612]*0.91147]
#2=[#620+[#621-#620]*0.91147]
#3=[#1+[#2-#1]*0.31651]
X10.44255 Y-2.98420 Z[#3+#4]
#1=[#612+[#613-#612]*0.90275]
#2=[#620+[#621-#620]*0.90275]
#3=[#1+[#2-#1]*0.31140]
X10.44050 Y-2.98776 Z[#3+#4]
#1=[#612+[#613-#612]*0.89527]
#2=[#620+[#621-#620]*0.89527]
#3=[#1+[#2-#1]*0.30455]
X10.43774 Y-2.99082 Z[#3+#4]
#1=[#612+[#613-#612]*0.88936]
#2=[#620+[#621-#620]*0.88936]
#3=[#1+[#2-#1]*0.29627]
X10.43441 Y-2.99324 Z[#3+#4]
#1=[#612+[#613-#612]*0.88526]
#2=[#620+[#621-#620]*0.88526]
#3=[#1+[#2-#1]*0.28693]
X10.43065 Y-2.99491 Z[#3+#4]
#1=[#612+[#613-#612]*0.88317]
#2=[#620+[#621-#620]*0.88317]
#3=[#1+[#2-#1]*0.27692]
X10.42663 Y-2.99577 Z[#3+#4]
#1=[#612+[#613-#612]*0.88317]
#2=[#620+[#621-#620]*0.88317]
#3=[#1+[#2-#1]*0.26669]
X10.42251 Y-2.99577 Z[#3+#4]
#1=[#612+[#613-#612]*0.88526]
#2=[#620+[#621-#620]*0.88526]
#3=[#1+[#2-#1]*0.25669]
X10.41849 Y-2.99491 Z[#3+#4]
#1=[#612+[#613-#612]*0.88936]
#2=[#620+[#621-#620]*0.88936]
#3=[#1+[#2-#1]*0.24734]
X10.41473 Y-2.99324 Z[#3+#4]
#1=[#612+[#613-#612]*0.89527]
#2=[#620+[#621-#620]*0.89527]
#3=[#1+[#2-#1]*0.23907]
X10.41140 Y-2.99082 Z[#3+#4]
#1=[#612+[#613-#612]*0.90275]
#2=[#620+[#621-#620]*0.90275]
#3=[#1+[#2-#1]*0.23222]
X10.40865 Y-2.98776 Z[#3+#4]
#1=[#612+[#613-#612]*0.91147]
#2=[#620+[#621-#620]*0.91147]
#3=[#1+[#2-#1]*0.22711]
X10.40659 Y-2.98420 Z[#3+#4]
#1=[#612+[#613-#612]*0.92104]
#2=[#620+[#621-#620]*0.92104]
#3=[#1+[#2-#1]*0.22395]
X10.40532 Y-2.98028 Z[#3+#4]
#1=[#612+[#613-#612]*0.93105]
#2=[#620+[#621-#620]*0.93105]
#3=[#1+[#2-#1]*0.22288]
X10.40489 Y-2.97619 Z[#3+#4]
G04 P0 ( dwell for no time -- G64 should not smooth over this point )
G00 Z0.08000 ( retract )

G00 X10.83346 Y-2.97619 ( rapid move to begin. )
G01 F180.00000
#1=[#620+[#621-#620]*0.93105]
#2=[#628+[#629-#628]*0.93105]
#3=[#1+[#2-#1]*0.28819]
G01 Z[-0.04000+#111]
G04 P0 ( dwell for no time -- G64 should not smooth over this point )
G01 F360.00000
#1=[#621+[#622-#621]*0.74624]
#2=[#629+[#630-#629]*0.74624]
#3=[#1+[#2-#1]*0.28819]
X10.83346 Y-2.64286 Z[#3+#4]
#1=[#621+[#622-#621]*0.75625]
#2=[#629+[#630-#629]*0.75625]
#3=[#1+[#2-#1]*0.28926]
X10.83389 Y-2.63876 Z[#3+#4]
#1=[#621+[#622-#621]*0.76582]
#2=[#629+[#630-#629]*0.76582]
#3=[#1+[#2-#1]*0.29242]
X10.83516 Y-2.63485 Z[#3+#4]
#1=[#621+[#622-#621]*0.77454]
#2=[#629+[#630-#629]*0.77454]
#3=[#1+[#2-#1]*0.29754]
X10.83722 Y-2.63129 Z[#3+#4]
#1=[#621+[#622-#621]*0.78202]
#2=[#629+[#630-#629]*0.78202]
#3=[#1+[#2-#1]*0.30438]
X10.83997 Y-2.62823 Z[#3+#4]
#1=[#621+[#622-#621]*0.78793]
#2=[#629+[#630-#629]*0.78793]
#3=[#1+[#2-#1]*0.31266]
X10.84330 Y-2.62581 Z[#3+#4]
#1=[#621+[#622-#621]*0.79203]
#2=[#629+[#630-#629]*0.79203]
#3=[#1+[#2-#1]*0.32200]
X10.84706 Y-2.62413 Z[#3+#4]
#1=[#621+[#622-#621]*0.79412]
#2=[#629+[#630-#629]*0.79412]
#3=[#1+[#2-#1]*0.33201]
X10.85109 Y-2.62328 Z[#3+#4]
#1=[#621+[#622-#621]*0.79412]
#2=[#629+[#630-#629]*0.79412]
#3=[#1+[#2-#1]*0.34224]
X10.85520 Y-2.62328 Z[#3+#4]
#1=[#621+[#622-#621]*0.79203]
#2=[#629+[#630-#629]*0.79203]
#3=[#1+[#2-#1]*0.35224]
X10.85923 Y-2.62413 Z[#3+#4]
#1=[#621+[#622-#621]*0.78793]
#2=[#629+[#630-#629]*0.78793]
#3=[#1+[#2-#1]*0.36159]
X10.86299 Y-2.62581 Z[#3+#4]
#1=[#621+[#622-#621]*0.78202]
#2=[#629+[#630-#629]*0.78202]
#3=[#1+[#2-#1]*0.36986]
X10.86631 Y-2.62823 Z[#3+#4]
#1=[#621+[#622-#621]*0.77454]
#2=[#629+[#630-#629]*0.77454]
#3=[#1+[#2-#1]*0.37671]
X10.86907 Y-2.63129 Z[#3+#4]
#1=[#621+[#622-#621]*0.76582]
#2=[#629+[#630-#629]*0.76582]
#3=[#1+[#2-#1]*0.38183]
X10.87113 Y-2.63485 Z[#3+#4]
#1=[#621+[#622-#621]*0.75625]
#2=[#629+[#630-#629]*0.75625]
#3=[#1+[#2-#1]*0.38498]
X10.87240 Y-2.63876 Z[#3+#4]
#1=[#621+[#622-#621]*0.68778]
#2=[#629+[#630-#629]*0.68778]
#3=[#1+[#2-#1]*0.38605]
X10.87283 Y-2.66676 Z[#3+#4]
#1=[#621+[#622-#621]*0.72707]
#2=[#629+[#630-#629]*0.72707]
#3=[#1+[#2-#1]*0.42688]
X10.88925 Y-2.65070 Z[#3+#4]
#1=[#621+[#622-#621]*0.79210]
#2=[#629+[#630-#629]*0.79210]
#3=[#1+[#2-#1]*0.55897]
X10.94239 Y-2.62410 Z[#3+#4]
#1=[#621+[#622-#621]*0.79438]
#2=[#629+[#630-#629]*0.79438]
#3=[#1+[#2-#1]*0.57386]
X10.94838 Y-2.62317 Z[#3+#4]
#1=[#621+[#622-#621]*0.79438]
#2=[#629+[#630-#629]*0.79438]
#3=[#1+[#2-#1]*0.69223]
X10.99600 Y-2.62317 Z[#3+#4]
#1=[#621+[#622-#621]*0.79333]
#2=[#629+[#630-#629]*0.79333]
#3=[#1+[#2-#1]*0.70240]
X11.00009 Y-2.62360 Z[#3+#4]
#1=[#621+[#622-#621]*0.79022]
#2=[#629+[#630-#629]*0.79022]
#3=[#1+[#2-#1]*0.71213]
X11.00401 Y-2.62487 Z[#3+#4]
#1=[#621+[#622-#621]*0.78519]
#2=[#629+[#630-#629]*0.78519]
#3=[#1+[#2-#1]*0.72099]
X11.00757 Y-2.62693 Z[#3+#4]
#1=[#621+[#622-#621]*0.77846]
#2=[#629+[#630-#629]*0.77846]
#3=[#1+[#2-#1]*0.72859]
X11.01063 Y-2.62968 Z[#3+#4]
#1=[#621+[#622-#621]*0.77031]
#2=[#629+[#630-#629]*0.77031]
#3=[#1+[#2-#1]*0.73460]
X11.01305 Y-2.63301 Z[#3+#4]
#1=[#621+[#622-#621]*0.76112]
#2=[#629+[#630-#629]*0.76112]
#3=[#1+[#2-#1]*0.73876]
X11.01472 Y-2.63677 Z[#3+#4]
#1=[#621+[#622-#621]*0.75127]
#2=[#629+[#630-#629]*0.75127]
#3=[#1+[#2-#1]*0.74089]
X11.01558 Y-2.64080 Z[#3+#4]
#1=[#621+[#622-#621]*0.74121]
#2=[#629+[#630-#629]*0.74121]
#3=[#1+[#2-#1]*0.74089]
X11.01558 Y-2.64491 Z[#3+#4]
#1=[#621+[#622-#621]*0.73137]
#2=[#629+[#630-#629]*0.73137]
#3=[#1+[#2-#1]*0.73876]
X11.01472 Y-2.64894 Z[#3+#4]
#1=[#621+[#622-#621]*0.72217]
#2=[#629+[#630-#629]*0.72217]
#3=[#1+[#2-#1]*0.73460]
X11.01305 Y-2.65270 Z[#3+#4]
#1=[#621+[#622-#621]*0.71403]
#2=[#629+[#630-#629]*0.71403]
