( pcb2gcode 2.1.0 )
( Gcode for custom )

G94 ( Inches per minute feed rate. )
G20 ( Units == INCHES. )

G90 ( Absolute coordinates. )
G00 S12000 ( RPM spindle speed. )
G64 P0.00040 ( set maximum deviation from commanded toolpath )
G01 F360.00000 ( Feedrate. )

#118 = 0
#119 = 0

(MSG, Attach the probe tool)
M0 ( Temporary machine stop. )
G0 Z0.080 ( Move Z to safe height )
G0 X4.68508 Y-3.35492 ( Move XY to start point )
G0 Z0.080 ( Move Z to probe height )
G38.2 Z-0.1 F2.362205 ( Z-probe )
#500 = 0 ( Probe point [0, 0] is our reference )
G92 Z0 ( Set the current Z as zero-value )

( We now start the real probing: move the Z axis to the probing height, move to )
( the probing XY position, probe it and save the result, parameter #2002, )
( in a numbered parameter; we will make 6 probes on the X-axis and )
( 4 probes on the Y-axis, for a grand total of 24 probes )

G0 Z0.080
X4.68508 Y-3.05545
G38.2 Z-0.1 F2.362205
#501=#2002
G0 Z0.080
X4.68508 Y-2.75598
G38.2 Z-0.1 F2.362205
#502=#2002
G0 Z0.080
X4.68508 Y-2.45650
G38.2 Z-0.1 F2.362205
#503=#2002
G0 Z0.080
X5.06904 Y-2.45650
G38.2 Z-0.1 F2.362205
#507=#2002
G0 Z0.080
X5.06904 Y-2.75598
G38.2 Z-0.1 F2.362205
#506=#2002
G0 Z0.080
X5.06904 Y-3.05545
G38.2 Z-0.1 F2.362205
#505=#2002
G0 Z0.080
X5.06904 Y-3.35492
G38.2 Z-0.1 F2.362205
#504=#2002
G0 Z0.080
X5.45301 Y-3.35492
G38.2 Z-0.1 F2.362205
#508=#2002
G0 Z0.080
X5.45301 Y-3.05545
G38.2 Z-0.1 F2.362205
#509=#2002
G0 Z0.080
X5.45301 Y-2.75598
G38.2 Z-0.1 F2.362205
#510=#2002
G0 Z0.080
X5.45301 Y-2.45650
G38.2 Z-0.1 F2.362205
#511=#2002
G0 Z0.080
X5.83698 Y-2.45650
G38.2 Z-0.1 F2.362205
#515=#2002
G0 Z0.080
X5.83698 Y-2.75598
G38.2 Z-0.1 F2.362205
#514=#2002
G0 Z0.080
X5.83698 Y-3.05545
G38.2 Z-0.1 F2.362205
#513=#2002
G0 Z0.080
X5.83698 Y-3.35492
G38.2 Z-0.1 F2.362205
#512=#2002
G0 Z0.080
X6.22095 Y-3.35492
G38.2 Z-0.1 F2.362205
#516=#2002
G0 Z0.080
X6.22095 Y-3.05545
G38.2 Z-0.1 F2.362205
#517=#2002
G0 Z0.080
X6.22095 Y-2.75598
G38.2 Z-0.1 F2.362205
#518=#2002
G0 Z0.080
X6.22095 Y-2.45650
G38.2 Z-0.1 F2.362205
#519=#2002
G0 Z0.080
X6.60492 Y-2.45650
G38.2 Z-0.1 F2.362205
#523=#2002
G0 Z0.080
X6.60492 Y-2.75598
G38.2 Z-0.1 F2.362205
#522=#2002
G0 Z0.080
X6.60492 Y-3.05545
G38.2 Z-0.1 F2.362205
#521=#2002
G0 Z0.080
X6.60492 Y-3.35492
G38.2 Z-0.1 F2.362205
#520=#2002

G0 Z0.080 ( Move Z to safe height )
( Probing has ended, each Z-coordinate will be corrected with a bilinear interpolation )
(MSG, Detach the probe tool)
M0 ( Temporary machine stop. )


G00 Z1.00000 (Retract to tool change height)
T0
M5      (Spindle stop.)
G04 P1.00000 (Wait for spindle to stop)
(MSG, Change tool bit to mill diameter 0.00000in)
M6      (Tool change.)
M0      (Temporary machine stop.)
M3 ( Spindle on clockwise. )
G04 P1.00000 (Wait for spindle to get up to speed)
G04 P0 ( dwell for no time -- G64 should not smooth over this point )
G00 Z0.08000 ( retract )

G00 X4.68508 Y-2.97619 ( rapid move to begin. )
G01 F180.00000
( Mill infeed pass 1/1 )
#1=[#501+[#502-#501]*0.26466]
#2=[#505+[#506-#505]*0.26466]
#3=[#1+[#2-#1]*0.00000]
G01 Z[-0.04000+#111]
G04 P0 ( dwell for no time -- G64 should not smooth over this point )
G01 F360.00000
#1=[#501+[#502-#501]*1.00000]
#2=[#505+[#506-#505]*1.00000]
#3=[#1+[#2-#1]*0.00000]
X4.68508 Y-2.75598 Z[#3+-0.04000]
#1=[#502+[#503-#502]*0.93426]
#2=[#506+[#507-#506]*0.93426]
#3=[#1+[#2-#1]*0.00000]
X4.68508 Y-2.47619 Z[#3+-0.04000]
#1=[#502+[#503-#502]*0.94709]
#2=[#506+[#507-#506]*0.94709]
#3=[#1+[#2-#1]*0.00099]
X4.68545 Y-2.47235 Z[#3+-0.04000]
#1=[#502+[#503-#502]*0.95942]
#2=[#506+[#507-#506]*0.95942]
#3=[#1+[#2-#1]*0.00390]
X4.68657 Y-2.46866 Z[#3+-0.04000]
#1=[#502+[#503-#502]*0.97079]
#2=[#506+[#507-#506]*0.97079]
#3=[#1+[#2-#1]*0.00864]
X4.68839 Y-2.46525 Z[#3+-0.04000]
#1=[#502+[#503-#502]*0.98075]
#2=[#506+[#507-#506]*0.98075]
#3=[#1+[#2-#1]*0.01502]
X4.69084 Y-2.46227 Z[#3+-0.04000]
#1=[#502+[#503-#502]*0.98892]
#2=[#506+[#507-#506]*0.98892]
#3=[#1+[#2-#1]*0.02279]
X4.69382 Y-2.45982 Z[#3+-0.04000]
#1=[#502+[#503-#502]*0.99499]
#2=[#506+[#507-#506]*0.99499]
#3=[#1+[#2-#1]*0.03165]
X4.69723 Y-2.45800 Z[#3+-0.04000]
#1=[#502+[#503-#502]*0.99873]
#2=[#506+[#507-#506]*0.99873]
#3=[#1+[#2-#1]*0.04127]
X4.70092 Y-2.45688 Z[#3+-0.04000]
#1=[#503+[#504-#503]*0.00000]
#2=[#507+[#508-#507]*0.00000]
#3=[#1+[#2-#1]*0.05127]
X4.70476 Y-2.45650 Z[#3+-0.04000]
#1=[#503+[#504-#503]*0.00000]
#2=[#507+[#508-#507]*0.00000]
#3=[#1+[#2-#1]*0.67136]
X4.94286 Y-2.45650 Z[#3+-0.04000]
#1=[#502+[#503-#502]*0.99873]
#2=[#506+[#507-#506]*0.99873]
#3=[#1+[#2-#1]*0.68136]
X4.94670 Y-2.45688 Z[#3+-0.04000]
#1=[#502+[#503-#502]*0.99499]
#2=[#506+[#507-#506]*0.99499]
#3=[#1+[#2-#1]*0.69098]
X4.95039 Y-2.45800 Z[#3+-0.04000]
#1=[#502+[#503-#502]*0.98892]
#2=[#506+[#507-#506]*0.98892]
#3=[#1+[#2-#1]*0.69984]
X4.95379 Y-2.45982 Z[#3+-0.04000]
#1=[#502+[#503-#502]*0.98075]
#2=[#506+[#507-#506]*0.98075]
#3=[#1+[#2-#1]*0.70761]
X4.95678 Y-2.46227 Z[#3+-0.04000]
#1=[#502+[#503-#502]*0.97079]
#2=[#506+[#507-#506]*0.97079]
#3=[#1+[#2-#1]*0.71399]
X4.95922 Y-2.46525 Z[#3+-0.04000]
#1=[#502+[#503-#502]*0.95942]
#2=[#506+[#507-#506]*0.95942]
#3=[#1+[#2-#1]*0.71872]
X4.96104 Y-2.46866 Z[#3+-0.04000]
#1=[#502+[#503-#502]*0.94709]
#2=[#506+[#507-#506]*0.94709]
#3=[#1+[#2-#1]*0.72164]
X4.96216 Y-2.47235 Z[#3+-0.04000]
#1=[#502+[#503-#502]*0.93426]
#2=[#506+[#507-#506]*0.93426]
#3=[#1+[#2-#1]*0.72263]
X4.96254 Y-2.47619 Z[#3+-0.04000]
#1=[#502+[#503-#502]*0.92144]
#2=[#506+[#507-#506]*0.92144]
#3=[#1+[#2-#1]*0.72164]
X4.96216 Y-2.48003 Z[#3+-0.04000]
#1=[#502+[#503-#502]*0.90911]
#2=[#506+[#507-#506]*0.90911]
#3=[#1+[#2-#1]*0.71872]
X4.96104 Y-2.48372 Z[#3+-0.04000]
#1=[#502+[#503-#502]*0.89775]
#2=[#506+[#507-#506]*0.89775]
#3=[#1+[#2-#1]*0.71399]
X4.95922 Y-2.48713 Z[#3+-0.04000]
#1=[#502+[#503-#502]*0.88779]
#2=[#506+[#507-#506]*0.88779]
#3=[#1+[#2-#1]*0.70761]
X4.95678 Y-2.49011 Z[#3+-0.04000]
#1=[#502+[#503-#502]*0.87961]
#2=[#506+[#507-#506]*0.87961]
#3=[#1+[#2-#1]*0.69984]
X4.95379 Y-2.49256 Z[#3+-0.04000]
#1=[#502+[#503-#502]*0.87354]
#2=[#506+[#507-#506]*0.87354]
#3=[#1+[#2-#1]*0.69098]
X4.95039 Y-2.49438 Z[#3+-0.04000]
#1=[#502+[#503-#502]*0.86980]
#2=[#506+[#507-#506]*0.86980]
#3=[#1+[#2-#1]*0.68136]
X4.94670 Y-2.49550 Z[#3+-0.04000]
#1=[#502+[#503-#502]*0.86853]
#2=[#506+[#507-#506]*0.86853]
#3=[#1+[#2-#1]*0.67136]
X4.94286 Y-2.49587 Z[#3+-0.04000]
#1=[#502+[#503-#502]*0.86853]
#2=[#506+[#507-#506]*0.86853]
#3=[#1+[#2-#1]*0.10254]
X4.72445 Y-2.49587 Z[#3+-0.04000]
#1=[#502+[#503-#502]*0.20495]
#2=[#506+[#507-#506]*0.20495]
#3=[#1+[#2-#1]*0.10254]
X4.72445 Y-2.69460 Z[#3+-0.04000]
#1=[#502+[#503-#502]*0.20495]
#2=[#506+[#507-#506]*0.20495]
#3=[#1+[#2-#1]*0.48533]
X4.87143 Y-2.69460 Z[#3+-0.04000]
#1=[#502+[#503-#502]*0.20369]
#2=[#506+[#507-#506]*0.20369]
#3=[#1+[#2-#1]*0.49533]
X4.87527 Y-2.69498 Z[#3+-0.04000]
#1=[#502+[#503-#502]*0.19995]
#2=[#506+[#507-#506]*0.19995]
#3=[#1+[#2-#1]*0.50495]
X4.87896 Y-2.69610 Z[#3+-0.04000]
#1=[#502+[#503-#502]*0.19387]
#2=[#506+[#507-#506]*0.19387]
#3=[#1+[#2-#1]*0.51381]
X4.88236 Y-2.69792 Z[#3+-0.04000]
#1=[#502+[#503-#502]*0.18570]
#2=[#506+[#507-#506]*0.18570]
#3=[#1+[#2-#1]*0.52158]
X4.88535 Y-2.70037 Z[#3+-0.04000]
#1=[#502+[#503-#502]*0.17574]
#2=[#506+[#507-#506]*0.17574]
#3=[#1+[#2-#1]*0.52796]
X4.88779 Y-2.70335 Z[#3+-0.04000]
#1=[#502+[#503-#502]*0.16437]
#2=[#506+[#507-#506]*0.16437]
#3=[#1+[#2-#1]*0.53270]
X4.88961 Y-2.70675 Z[#3+-0.04000]
#1=[#502+[#503-#502]*0.15204]
#2=[#506+[#507-#506]*0.15204]
#3=[#1+[#2-#1]*0.53561]
X4.89073 Y-2.71044 Z[#3+-0.04000]
#1=[#502+[#503-#502]*0.13922]
#2=[#506+[#507-#506]*0.13922]
#3=[#1+[#2-#1]*0.53660]
X4.89111 Y-2.71428 Z[#3+-0.04000]
#1=[#502+[#503-#502]*0.12639]
#2=[#506+[#507-#506]*0.12639]
#3=[#1+[#2-#1]*0.53561]
X4.89073 Y-2.71813 Z[#3+-0.04000]
#1=[#502+[#503-#502]*0.11406]
#2=[#506+[#507-#506]*0.11406]
#3=[#1+[#2-#1]*0.53270]
X4.88961 Y-2.72182 Z[#3+-0.04000]
#1=[#502+[#503-#502]*0.10270]
#2=[#506+[#507-#506]*0.10270]
#3=[#1+[#2-#1]*0.52796]
X4.88779 Y-2.72522 Z[#3+-0.04000]
#1=[#502+[#503-#502]*0.09274]
#2=[#506+[#507-#506]*0.09274]
#3=[#1+[#2-#1]*0.52158]
X4.88535 Y-2.72820 Z[#3+-0.04000]
#1=[#502+[#503-#502]*0.08456]
#2=[#506+[#507-#506]*0.08456]
#3=[#1+[#2-#1]*0.51381]
X4.88236 Y-2.73065 Z[#3+-0.04000]
#1=[#502+[#503-#502]*0.07849]
#2=[#506+[#507-#506]*0.07849]
#3=[#1+[#2-#1]*0.50495]
X4.87896 Y-2.73247 Z[#3+-0.04000]
#1=[#502+[#503-#502]*0.07475]
#2=[#506+[#507-#506]*0.07475]
#3=[#1+[#2-#1]*0.49533]
X4.87527 Y-2.73359 Z[#3+-0.04000]
#1=[#502+[#503-#502]*0.07348]
#2=[#506+[#507-#506]*0.07348]
#3=[#1+[#2-#1]*0.48533]
X4.87143 Y-2.73397 Z[#3+-0.04000]
#1=[#502+[#503-#502]*0.07348]
#2=[#506+[#507-#506]*0.07348]
#3=[#1+[#2-#1]*0.10254]
X4.72445 Y-2.73397 Z[#3+-0.04000]
#1=[#501+[#502-#501]*1.00000]
#2=[#505+[#506-#505]*1.00000]
#3=[#1+[#2-#1]*0.10254]
X4.72445 Y-2.75598 Z[#3+-0.04000]
#1=[#501+[#502-#501]*0.26466]
#2=[#505+[#506-#505]*0.26466]
#3=[#1+[#2-#1]*0.10254]
X4.72445 Y-2.97619 Z[#3+-0.04000]
#1=[#501+[#502-#501]*0.25184]
#2=[#505+[#506-#505]*0.25184]
#3=[#1+[#2-#1]*0.10155]
X4.72407 Y-2.98003 Z[#3+-0.04000]
#1=[#501+[#502-#501]*0.23951]
#2=[#505+[#506-#505]*0.23951]
#3=[#1+[#2-#1]*0.09863]
X4.72295 Y-2.98372 Z[#3+-0.04000]
#1=[#501+[#502-#501]*0.22814]
#2=[#505+[#506-#505]*0.22814]
#3=[#1+[#2-#1]*0.09390]
X4.72113 Y-2.98713 Z[#3+-0.04000]
#1=[#501+[#502-#501]*0.21818]
#2=[#505+[#506-#505]*0.21818]
#3=[#1+[#2-#1]*0.08752]
X4.71868 Y-2.99011 Z[#3+-0.04000]
#1=[#501+[#502-#501]*0.21001]
#2=[#505+[#506-#505]*0.21001]
#3=[#1+[#2-#1]*0.07975]
X4.71570 Y-2.99256 Z[#3+-0.04000]
#1=[#501+[#502-#501]*0.20393]
#2=[#505+[#506-#505]*0.20393]
#3=[#1+[#2-#1]*0.07089]
X4.71229 Y-2.99438 Z[#3+-0.04000]
#1=[#501+[#502-#501]*0.20019]
#2=[#505+[#506-#505]*0.20019]
#3=[#1+[#2-#1]*0.06127]
X4.70860 Y-2.99550 Z[#3+-0.04000]
#1=[#501+[#502-#501]*0.19893]
#2=[#505+[#506-#505]*0.19893]
#3=[#1+[#2-#1]*0.05127]
X4.70476 Y-2.99587 Z[#3+-0.04000]
#1=[#501+[#502-#501]*0.20019]
#2=[#505+[#506-#505]*0.20019]
#3=[#1+[#2-#1]*0.04127]
X4.70092 Y-2.99550 Z[#3+-0.04000]
#1=[#501+[#502-#501]*0.20393]
#2=[#505+[#506-#505]*0.20393]
#3=[#1+[#2-#1]*0.03165]
X4.69723 Y-2.99438 Z[#3+-0.04000]
#1=[#501+[#502-#501]*0.21001]
#2=[#505+[#506-#505]*0.21001]
#3=[#1+[#2-#1]*0.02279]
X4.69382 Y-2.99256 Z[#3+-0.04000]
#1=[#501+[#502-#501]*0.21818]
#2=[#505+[#506-#505]*0.21818]
#3=[#1+[#2-#1]*0.01502]
X4.69084 Y-2.99011 Z[#3+-0.04000]
#1=[#501+[#502-#501]*0.22814]
#2=[#505+[#506-#505]*0.22814]
#3=[#1+[#2-#1]*0.00864]
X4.68839 Y-2.98713 Z[#3+-0.04000]
#1=[#501+[#502-#501]*0.23951]
#2=[#505+[#506-#505]*0.23951]
#3=[#1+[#2-#1]*0.00390]
X4.68657 Y-2.98372 Z[#3+-0.04000]
#1=[#501+[#502-#501]*0.25184]
#2=[#505+[#506-#505]*0.25184]
#3=[#1+[#2-#1]*0.00099]
X4.68545 Y-2.98003 Z[#3+-0.04000]
#1=[#501+[#502-#501]*0.26466]
#2=[#505+[#506-#505]*0.26466]
#3=[#1+[#2-#1]*0.00000]
X4.68508 Y-2.97619 Z[#3+-0.04000]
G04 P0 ( dwell for no time -- G64 should not smooth over this point )
G00 Z0.08000 ( retract )

G00 X5.11365 Y-2.97619 ( rapid move to begin. )
G01 F180.00000
( Mill infeed pass 1/1 )
#1=[#505+[#506-#505]*0.26466]
#2=[#509+[#510-#509]*0.26466]
#3=[#1+[#2-#1]*0.11616]
G01 Z[-0.04000+#111]
G04 P0 ( dwell for no time -- G64 should not smooth over this point )
G01 F360.00000
#1=[#505+[#506-#505]*1.00000]
#2=[#509+[#510-#509]*1.00000]
#3=[#1+[#2-#1]*0.11616]
X5.11365 Y-2.75598 Z[#3+-0.04000]
#1=[#506+[#507-#506]*0.37773]
#2=[#510+[#511-#510]*0.37773]
#3=[#1+[#2-#1]*0.11616]
X5.11365 Y-2.64286 Z[#3+-0.04000]
#1=[#506+[#507-#506]*0.39055]
#2=[#510+[#511-#510]*0.39055]
#3=[#1+[#2-#1]*0.11715]
X5.11403 Y-2.63902 Z[#3+-0.04000]
#1=[#506+[#507-#506]*0.40289]
#2=[#510+[#511-#510]*0.40289]
#3=[#1+[#2-#1]*0.12007]
X5.11515 Y-2.63532 Z[#3+-0.04000]
#1=[#506+[#507-#506]*0.41425]
#2=[#510+[#511-#510]*0.41425]
#3=[#1+[#2-#1]*0.12480]
X5.11697 Y-2.63192 Z[#3+-0.04000]
#1=[#506+[#507-#506]*0.42421]
#2=[#510+[#511-#510]*0.42421]
#3=[#1+[#2-#1]*0.13118]
X5.11941 Y-2.62894 Z[#3+-0.04000]
#1=[#506+[#507-#506]*0.43238]
#2=[#510+[#511-#510]*0.43238]
#3=[#1+[#2-#1]*0.13895]
X5.12240 Y-2.62649 Z[#3+-0.04000]
#1=[#506+[#507-#506]*0.43846]
#2=[#510+[#511-#510]*0.43846]
#3=[#1+[#2-#1]*0.14781]
X5.12580 Y-2.62467 Z[#3+-0.04000]
#1=[#506+[#507-#506]*0.44220]
#2=[#510+[#511-#510]*0.44220]
#3=[#1+[#2-#1]*0.15743]
X5.12949 Y-2.62355 Z[#3+-0.04000]
#1=[#506+[#507-#506]*0.44346]
#2=[#510+[#511-#510]*0.44346]
#3=[#1+[#2-#1]*0.16743]
X5.13333 Y-2.62317 Z[#3+-0.04000]
#1=[#506+[#507-#506]*0.44220]
#2=[#510+[#511-#510]*0.44220]
#3=[#1+[#2-#1]*0.17743]
X5.13717 Y-2.62355 Z[#3+-0.04000]
#1=[#506+[#507-#506]*0.43846]
#2=[#510+[#511-#510]*0.43846]
#3=[#1+[#2-#1]*0.18705]
X5.14087 Y-2.62467 Z[#3+-0.04000]
#1=[#506+[#507-#506]*0.43238]
#2=[#510+[#511-#510]*0.43238]
#3=[#1+[#2-#1]*0.19591]
X5.14427 Y-2.62649 Z[#3+-0.04000]
#1=[#506+[#507-#506]*0.42421]
#2=[#510+[#511-#510]*0.42421]
#3=[#1+[#2-#1]*0.20368]
X5.14725 Y-2.62894 Z[#3+-0.04000]
#1=[#506+[#507-#506]*0.41425]
#2=[#510+[#511-#510]*0.41425]
#3=[#1+[#2-#1]*0.21006]
X5.14970 Y-2.63192 Z[#3+-0.04000]
#1=[#506+[#507-#506]*0.40289]
#2=[#510+[#511-#510]*0.40289]
#3=[#1+[#2-#1]*0.21480]
X5.15152 Y-2.63532 Z[#3+-0.04000]
#1=[#506+[#507-#506]*0.39055]
#2=[#510+[#511-#510]*0.39055]
#3=[#1+[#2-#1]*0.21771]
X5.15264 Y-2.63902 Z[#3+-0.04000]
#1=[#506+[#507-#506]*0.37773]
#2=[#510+[#511-#510]*0.37773]
#3=[#1+[#2-#1]*0.21870]
X5.15302 Y-2.64286 Z[#3+-0.04000]
#1=[#506+[#507-#506]*0.29791]
#2=[#510+[#511-#510]*0.29791]
#3=[#1+[#2-#1]*0.21870]
X5.15302 Y-2.66676 Z[#3+-0.04000]
#1=[#506+[#507-#506]*0.34471]
#2=[#510+[#511-#510]*0.34471]
#3=[#1+[#2-#1]*0.25520]
X5.16703 Y-2.65275 Z[#3+-0.04000]
#1=[#506+[#507-#506]*0.35155]
#2=[#510+[#511-#510]*0.35155]
#3=[#1+[#2-#1]*0.26147]
X5.16944 Y-2.65070 Z[#3+-0.04000]
#1=[#506+[#507-#506]*0.35702]
#2=[#510+[#511-#510]*0.35702]
#3=[#1+[#2-#1]*0.26852]
X5.17215 Y-2.64906 Z[#3+-0.04000]
#1=[#506+[#507-#506]*0.43652]
#2=[#510+[#511-#510]*0.43652]
#3=[#1+[#2-#1]*0.39254]
X5.21977 Y-2.62525 Z[#3+-0.04000]
#1=[#506+[#507-#506]*0.44035]
#2=[#510+[#511-#510]*0.44035]
#3=[#1+[#2-#1]*0.39987]
X5.22258 Y-2.62410 Z[#3+-0.04000]
#1=[#506+[#507-#506]*0.44268]
#2=[#510+[#511-#510]*0.44268]
#3=[#1+[#2-#1]*0.40757]
X5.22554 Y-2.62341 Z[#3+-0.04000]
#1=[#506+[#507-#506]*0.44346]
#2=[#510+[#511-#510]*0.44346]
#3=[#1+[#2-#1]*0.41547]
X5.22857 Y-2.62317 Z[#3+-0.04000]
#1=[#506+[#507-#506]*0.44346]
#2=[#510+[#511-#510]*0.44346]
#3=[#1+[#2-#1]*0.53949]
X5.27619 Y-2.62317 Z[#3+-0.04000]
#1=[#506+[#507-#506]*0.44220]
#2=[#510+[#511-#510]*0.44220]
#3=[#1+[#2-#1]*0.54949]
X5.28003 Y-2.62355 Z[#3+-0.04000]
#1=[#506+[#507-#506]*0.43846]
#2=[#510+[#511-#510]*0.43846]
#3=[#1+[#2-#1]*0.55910]
X5.28372 Y-2.62467 Z[#3+-0.04000]
#1=[#506+[#507-#506]*0.43238]
#2=[#510+[#511-#510]*0.43238]
#3=[#1+[#2-#1]*0.56797]
X5.28713 Y-2.62649 Z[#3+-0.04000]
#1=[#506+[#507-#506]*0.42421]
#2=[#510+[#511-#510]*0.42421]
#3=[#1+[#2-#1]*0.57574]
X5.29011 Y-2.62894 Z[#3+-0.04000]
#1=[#506+[#507-#506]*0.41425]
#2=[#510+[#511-#510]*0.41425]
#3=[#1+[#2-#1]*0.58211]
X5.29256 Y-2.63192 Z[#3+-0.04000]
#1=[#506+[#507-#506]*0.40289]
#2=[#510+[#511-#510]*0.40289]
#3=[#1+[#2-#1]*0.58685]
X5.29438 Y-2.63532 Z[#3+-0.04000]
#1=[#506+[#507-#506]*0.39055]
#2=[#510+[#511-#510]*0.39055]
#3=[#1+[#2-#1]*0.58977]
X5.29550 Y-2.63902 Z[#3+-0.04000]
#1=[#506+[#507-#506]*0.37773]
#2=[#510+[#511-#510]*0.37773]
#3=[#1+[#2-#1]*0.59075]
X5.29587 Y-2.64286 Z[#3+-0.04000]
#1=[#506+[#507-#506]*0.36491]
#2=[#510+[#511-#510]*0.36491]
#3=[#1+[#2-#1]*0.58977]
X5.29550 Y-2.64670 Z[#3+-0.04000]
#1=[#506+[#507-#506]*0.35257]
#2=[#510+[#511-#510]*0.35257]
#3=[#1+[#2-#1]*0.58685]
X5.29438 Y-2.65039 Z[#3+-0.04000]
#1=[#506+[#507-#506]*0.34121]
#2=[#510+[#511-#510]*0.34121]
#3=[#1+[#2-#1]*0.58211]
X5.29256 Y-2.65379 Z[#3+-0.04000]
#1=[#506+[#507-#506]*0.33125]
#2=[#510+[#511-#510]*0.33125]
#3=[#1+[#2-#1]*0.57574]
X5.29011 Y-2.65678 Z[#3+-0.04000]
#1=[#506+[#507-#506]*0.32308]
#2=[#510+[#511-#510]*0.32308]
#3=[#1+[#2-#1]*0.56797]
X5.28713 Y-2.65922 Z[#3+-0.04000]
#1=[#506+[#507-#506]*0.31700]
#2=[#510+[#511-#510]*0.31700]
#3=[#1+[#2-#1]*0.55910]
X5.28372 Y-2.66104 Z[#3+-0.04000]
#1=[#506+[#507-#506]*0.31326]
#2=[#510+[#511-#510]*0.31326]
#3=[#1+[#2-#1]*0.54949]
X5.28003 Y-2.66216 Z[#3+-0.04000]
#1=[#506+[#507-#506]*0.31200]
#2=[#510+[#511-#510]*0.31200]
#3=[#1+[#2-#1]*0.53949]
X5.27619 Y-2.66254 Z[#3+-0.04000]
#1=[#506+[#507-#506]*0.31200]
#2=[#510+[#511-#510]*0.31200]
#3=[#1+[#2-#1]*0.42757]
X5.23322 Y-2.66254 Z[#3+-0.04000]
#1=[#506+[#507-#506]*0.24420]
#2=[#510+[#511-#510]*0.24420]
#3=[#1+[#2-#1]*0.32182]
X5.19261 Y-2.68284 Z[#3+-0.04000]
#1=[#506+[#507-#506]*0.17978]
#2=[#510+[#511-#510]*0.17978]
#3=[#1+[#2-#1]*0.27157]
X5.17332 Y-2.70214 Z[#3+-0.04000]
#1=[#506+[#507-#506]*0.04420]
#2=[#510+[#511-#510]*0.04420]
#3=[#1+[#2-#1]*0.21870]
X5.15302 Y-2.74274 Z[#3+-0.04000]
#1=[#505+[#506-#505]*1.00000]
#2=[#509+[#510-#509]*1.00000]
#3=[#1+[#2-#1]*0.21870]
X5.15302 Y-2.75598 Z[#3+-0.04000]
#1=[#505+[#506-#505]*0.26466]
#2=[#509+[#510-#509]*0.26466]
#3=[#1+[#2-#1]*0.21870]
X5.15302 Y-2.97619 Z[#3+-0.04000]
#1=[#505+[#506-#505]*0.25184]
#2=[#509+[#510-#509]*0.25184]
#3=[#1+[#2-#1]*0.21771]
X5.15264 Y-2.98003 Z[#3+-0.04000]
#1=[#505+[#506-#505]*0.23951]
#2=[#509+[#510-#509]*0.23951]
#3=[#1+[#2-#1]*0.21480]
X5.15152 Y-2.98372 Z[#3+-0.04000]
#1=[#505+[#506-#505]*0.22814]
#2=[#509+[#510-#509]*0.22814]
#3=[#1+[#2-#1]*0.21006]
X5.14970 Y-2.98713 Z[#3+-0.04000]
#1=[#505+[#506-#505]*0.21818]
#2=[#509+[#510-#509]*0.21818]
#3=[#1+[#2-#1]*0.20368]
X5.14725 Y-2.99011 Z[#3+-0.04000]
#1=[#505+[#506-#505]*0.21001]
#2=[#509+[#510-#509]*0.21001]
#3=[#1+[#2-#1]*0.19591]
X5.14427 Y-2.99256 Z[#3+-0.04000]
#1=[#505+[#506-#505]*0.20393]
#2=[#509+[#510-#509]*0.20393]
#3=[#1+[#2-#1]*0.18705]
X5.14087 Y-2.99438 Z[#3+-0.04000]
#1=[#505+[#506-#505]*0.20019]
#2=[#509+[#510-#509]*0.20019]
#3=[#1+[#2-#1]*0.17743]
X5.13717 Y-2.99550 Z[#3+-0.04000]
#1=[#505+[#506-#505]*0.19893]
#2=[#509+[#510-#509]*0.19893]
#3=[#1+[#2-#1]*0.16743]
X5.13333 Y-2.99587 Z[#3+-0.04000]
#1=[#505+[#506-#505]*0.20019]
#2=[#509+[#510-#509]*0.20019]
#3=[#1+[#2-#1]*0.15743]
X5.12949 Y-2.99550 Z[#3+-0.04000]
#1=[#505+[#506-#505]*0.20393]
#2=[#509+[#510-#509]*0.20393]
#3=[#1+[#2-#1]*0.14781]
X5.12580 Y-2.99438 Z[#3+-0.04000]
#1=[#505+[#506-#505]*0.21001]
#2=[#509+[#510-#509]*0.21001]
#3=[#1+[#2-#1]*0.13895]
X5.12240 Y-2.99256 Z[#3+-0.04000]
#1=[#505+[#506-#505]*0.21818]
#2=[#509+[#510-#509]*0.21818]
#3=[#1+[#2-#1]*0.13118]
X5.11941 Y-2.99011 Z[#3+-0.04000]
#1=[#505+[#506-#505]*0.22814]
#2=[#509+[#510-#509]*0.22814]
#3=[#1+[#2-#1]*0.12480]
X5.11697 Y-2.98713 Z[#3+-0.04000]
#1=[#505+[#506-#505]*0.23951]
#2=[#509+[#510-#509]*0.23951]
#3=[#1+[#2-#1]*0.12007]
X5.11515 Y-2.98372 Z[#3+-0.04000]
#1=[#505+[#506-#505]*0.25184]
#2=[#509+[#510-#509]*0.25184]
#3=[#1+[#2-#1]*0.11715]
X5.11403 Y-2.98003 Z[#3+-0.04000]
#1=[#505+[#506-#505]*0.26466]
#2=[#509+[#510-#509]*0.26466]
#3=[#1+[#2-#1]*0.11616]
X5.11365 Y-2.97619 Z[#3+-0.04000]
G04 P0 ( dwell for no time -- G64 should not smooth over this point )
G00 Z0.08000 ( retract )

G00 X5.39936 Y-2.88095 ( rapid move to begin. )
G01 F180.00000
( Mill infeed pass 1/1 )
#1=[#505+[#506-#505]*0.58268]
#2=[#509+[#510-#509]*0.58268]
#3=[#1+[#2-#1]*0.86027]
G01 Z[-0.04000+#111]
G04 P0 ( dwell for no time -- G64 should not smooth over this point )
G01 F360.00000
#1=[#505+[#506-#505]*1.00000]
#2=[#509+[#510-#509]*1.00000]
#3=[#1+[#2-#1]*0.86027]
X5.39936 Y-2.75598 Z[#3+-0.04000]
#1=[#506+[#507-#506]*0.05971]
#2=[#510+[#511-#510]*0.05971]
#3=[#1+[#2-#1]*0.86027]
X5.39936 Y-2.73809 Z[#3+-0.04000]
#1=[#506+[#507-#506]*0.06983]
#2=[#510+[#511-#510]*0.06983]
#3=[#1+[#2-#1]*0.86088]
X5.39960 Y-2.73506 Z[#3+-0.04000]
#1=[#506+[#507-#506]*0.07971]
#2=[#510+[#511-#510]*0.07971]
#3=[#1+[#2-#1]*0.86270]
X5.40029 Y-2.73211 Z[#3+-0.04000]
#1=[#506+[#507-#506]*0.08911]
#2=[#510+[#511-#510]*0.08911]
#3=[#1+[#2-#1]*0.86568]
X5.40144 Y-2.72929 Z[#3+-0.04000]
#1=[#506+[#507-#506]*0.24812]
#2=[#510+[#511-#510]*0.24812]
#3=[#1+[#2-#1]*0.92769]
X5.42525 Y-2.68167 Z[#3+-0.04000]
#1=[#506+[#507-#506]*0.25715]
#2=[#510+[#511-#510]*0.25715]
#3=[#1+[#2-#1]*0.93196]
X5.42689 Y-2.67897 Z[#3+-0.04000]
#1=[#506+[#507-#506]*0.26520]
#2=[#510+[#511-#510]*0.26520]
#3=[#1+[#2-#1]*0.93730]
X5.42894 Y-2.67656 Z[#3+-0.04000]
#1=[#506+[#507-#506]*0.34471]
#2=[#510+[#511-#510]*0.34471]
#3=[#1+[#2-#1]*0.99930]
X5.45275 Y-2.65275 Z[#3+-0.04000]
#1=[#510+[#511-#510]*0.34547]
#2=[#514+[#515-#514]*0.34547]
#3=[#1+[#2-#1]*0.00000]
X5.45301 Y-2.65252 Z[#3+-0.04000]
#1=[#510+[#511-#510]*0.35155]
#2=[#514+[#515-#514]*0.35155]
#3=[#1+[#2-#1]*0.00558]
X5.45516 Y-2.65070 Z[#3+-0.04000]
#1=[#510+[#511-#510]*0.35702]
#2=[#514+[#515-#514]*0.35702]
#3=[#1+[#2-#1]*0.01263]
X5.45786 Y-2.64906 Z[#3+-0.04000]
#1=[#510+[#511-#510]*0.43652]
#2=[#514+[#515-#514]*0.43652]
#3=[#1+[#2-#1]*0.13665]
X5.50548 Y-2.62525 Z[#3+-0.04000]
#1=[#510+[#511-#510]*0.44035]
#2=[#514+[#515-#514]*0.44035]
#3=[#1+[#2-#1]*0.14398]
X5.50830 Y-2.62410 Z[#3+-0.04000]
#1=[#510+[#511-#510]*0.44268]
#2=[#514+[#515-#514]*0.44268]
#3=[#1+[#2-#1]*0.15168]
X5.51125 Y-2.62341 Z[#3+-0.04000]
#1=[#510+[#511-#510]*0.44346]
#2=[#514+[#515-#514]*0.44346]
#3=[#1+[#2-#1]*0.15957]
X5.51429 Y-2.62317 Z[#3+-0.04000]
#1=[#510+[#511-#510]*0.44346]
#2=[#514+[#515-#514]*0.44346]
#3=[#1+[#2-#1]*0.34560]
X5.58571 Y-2.62317 Z[#3+-0.04000]
#1=[#510+[#511-#510]*0.44268]
#2=[#514+[#515-#514]*0.44268]
#3=[#1+[#2-#1]*0.35349]
X5.58874 Y-2.62341 Z[#3+-0.04000]
#1=[#510+[#511-#510]*0.44035]
#2=[#514+[#515-#514]*0.44035]
#3=[#1+[#2-#1]*0.36120]
X5.59170 Y-2.62410 Z[#3+-0.04000]
#1=[#510+[#511-#510]*0.43652]
#2=[#514+[#515-#514]*0.43652]
#3=[#1+[#2-#1]*0.36853]
X5.59452 Y-2.62525 Z[#3+-0.04000]
#1=[#510+[#511-#510]*0.35702]
#2=[#514+[#515-#514]*0.35702]
#3=[#1+[#2-#1]*0.49255]
X5.64214 Y-2.64906 Z[#3+-0.04000]
#1=[#510+[#511-#510]*0.35155]
#2=[#514+[#515-#514]*0.35155]
#3=[#1+[#2-#1]*0.49960]
X5.64484 Y-2.65070 Z[#3+-0.04000]
#1=[#510+[#511-#510]*0.34471]
#2=[#514+[#515-#514]*0.34471]
#3=[#1+[#2-#1]*0.50587]
X5.64725 Y-2.65275 Z[#3+-0.04000]
#1=[#510+[#511-#510]*0.26520]
#2=[#514+[#515-#514]*0.26520]
#3=[#1+[#2-#1]*0.56788]
X5.67106 Y-2.67656 Z[#3+-0.04000]
#1=[#510+[#511-#510]*0.25715]
#2=[#514+[#515-#514]*0.25715]
#3=[#1+[#2-#1]*0.57322]
X5.67311 Y-2.67897 Z[#3+-0.04000]
#1=[#510+[#511-#510]*0.24812]
#2=[#514+[#515-#514]*0.24812]
#3=[#1+[#2-#1]*0.57748]
X5.67475 Y-2.68167 Z[#3+-0.04000]
#1=[#510+[#511-#510]*0.08911]
#2=[#514+[#515-#514]*0.08911]
#3=[#1+[#2-#1]*0.63949]
X5.69856 Y-2.72929 Z[#3+-0.04000]
#1=[#510+[#511-#510]*0.07971]
#2=[#514+[#515-#514]*0.07971]
#3=[#1+[#2-#1]*0.64247]
X5.69970 Y-2.73211 Z[#3+-0.04000]
#1=[#510+[#511-#510]*0.06983]
#2=[#514+[#515-#514]*0.06983]
#3=[#1+[#2-#1]*0.64429]
X5.70040 Y-2.73506 Z[#3+-0.04000]
#1=[#510+[#511-#510]*0.05971]
#2=[#514+[#515-#514]*0.05971]
#3=[#1+[#2-#1]*0.64490]
X5.70064 Y-2.73809 Z[#3+-0.04000]
#1=[#509+[#510-#509]*1.00000]
#2=[#513+[#514-#513]*1.00000]
#3=[#1+[#2-#1]*0.64490]
X5.70064 Y-2.75598 Z[#3+-0.04000]
#1=[#509+[#510-#509]*0.58268]
#2=[#513+[#514-#513]*0.58268]
#3=[#1+[#2-#1]*0.64490]
X5.70064 Y-2.88095 Z[#3+-0.04000]
#1=[#509+[#510-#509]*0.57256]
#2=[#513+[#514-#513]*0.57256]
#3=[#1+[#2-#1]*0.64429]
X5.70040 Y-2.88398 Z[#3+-0.04000]
#1=[#509+[#510-#509]*0.56269]
#2=[#513+[#514-#513]*0.56269]
#3=[#1+[#2-#1]*0.64247]
X5.69970 Y-2.88694 Z[#3+-0.04000]
#1=[#509+[#510-#509]*0.55329]
#2=[#513+[#514-#513]*0.55329]
#3=[#1+[#2-#1]*0.63949]
X5.69856 Y-2.88976 Z[#3+-0.04000]
#1=[#509+[#510-#509]*0.39428]
#2=[#513+[#514-#513]*0.39428]
#3=[#1+[#2-#1]*0.57748]
X5.67475 Y-2.93737 Z[#3+-0.04000]
#1=[#509+[#510-#509]*0.38524]
#2=[#513+[#514-#513]*0.38524]
#3=[#1+[#2-#1]*0.57322]
X5.67311 Y-2.94008 Z[#3+-0.04000]
#1=[#509+[#510-#509]*0.37719]
#2=[#513+[#514-#513]*0.37719]
#3=[#1+[#2-#1]*0.56788]
X5.67106 Y-2.94249 Z[#3+-0.04000]
#1=[#509+[#510-#509]*0.29769]
#2=[#513+[#514-#513]*0.29769]
#3=[#1+[#2-#1]*0.50587]
X5.64725 Y-2.96630 Z[#3+-0.04000]
#1=[#509+[#510-#509]*0.29084]
#2=[#513+[#514-#513]*0.29084]
#3=[#1+[#2-#1]*0.49960]
X5.64484 Y-2.96835 Z[#3+-0.04000]
#1=[#509+[#510-#509]*0.28538]
#2=[#513+[#514-#513]*0.28538]
#3=[#1+[#2-#1]*0.49255]
X5.64214 Y-2.96999 Z[#3+-0.04000]
#1=[#509+[#510-#509]*0.20587]
#2=[#513+[#514-#513]*0.20587]
#3=[#1+[#2-#1]*0.36853]
X5.59452 Y-2.99380 Z[#3+-0.04000]
#1=[#509+[#510-#509]*0.20204]
#2=[#513+[#514-#513]*0.20204]
#3=[#1+[#2-#1]*0.36120]
X5.59170 Y-2.99494 Z[#3+-0.04000]
#1=[#509+[#510-#509]*0.19971]
#2=[#513+[#514-#513]*0.19971]
#3=[#1+[#2-#1]*0.35349]
X5.58874 Y-2.99564 Z[#3+-0.04000]
#1=[#509+[#510-#509]*0.19893]
#2=[#513+[#514-#513]*0.19893]
#3=[#1+[#2-#1]*0.34560]
X5.58571 Y-2.99587 Z[#3+-0.04000]
#1=[#509+[#510-#509]*0.19893]
#2=[#513+[#514-#513]*0.19893]
#3=[#1+[#2-#1]*0.15957]
X5.51429 Y-2.99587 Z[#3+-0.04000]
#1=[#509+[#510-#509]*0.19971]
#2=[#513+[#514-#513]*0.19971]
#3=[#1+[#2-#1]*0.15168]
X5.51125 Y-2.99564 Z[#3+-0.04000]
#1=[#509+[#510-#509]*0.20204]
#2=[#513+[#514-#513]*0.20204]
#3=[#1+[#2-#1]*0.14398]
X5.50830 Y-2.99494 Z[#3+-0.04000]
#1=[#509+[#510-#509]*0.20587]
#2=[#513+[#514-#513]*0.20587]
#3=[#1+[#2-#1]*0.13665]
X5.50548 Y-2.99380 Z[#3+-0.04000]
#1=[#509+[#510-#509]*0.28538]
#2=[#513+[#514-#513]*0.28538]
#3=[#1+[#2-#1]*0.01263]
X5.45786 Y-2.96999 Z[#3+-0.04000]
#1=[#509+[#510-#509]*0.29084]
#2=[#513+[#514-#513]*0.29084]
#3=[#1+[#2-#1]*0.00558]
X5.45516 Y-2.96835 Z[#3+-0.04000]
#1=[#509+[#510-#509]*0.29693]
#2=[#513+[#514-#513]*0.29693]
#3=[#1+[#2-#1]*0.00000]
X5.45301 Y-2.96653 Z[#3+-0.04000]
#1=[#505+[#506-#505]*0.29769]
#2=[#509+[#510-#509]*0.29769]
#3=[#1+[#2-#1]*0.99930]
X5.45275 Y-2.96630 Z[#3+-0.04000]
#1=[#505+[#506-#505]*0.37719]
#2=[#509+[#510-#509]*0.37719]
#3=[#1+[#2-#1]*0.93730]
X5.42894 Y-2.94249 Z[#3+-0.04000]
#1=[#505+[#506-#505]*0.38524]
#2=[#509+[#510-#509]*0.38524]
#3=[#1+[#2-#1]*0.93196]
X5.42689 Y-2.94008 Z[#3+-0.04000]
#1=[#505+[#506-#505]*0.39428]
#2=[#509+[#510-#509]*0.39428]
#3=[#1+[#2-#1]*0.92769]
X5.42525 Y-2.93737 Z[#3+-0.04000]
#1=[#505+[#506-#505]*0.55547]
#2=[#509+[#510-#509]*0.55547]
#3=[#1+[#2-#1]*0.86503]
X5.40119 Y-2.88910 Z[#3+-0.04000]
#1=[#505+[#506-#505]*0.56532]
#2=[#509+[#510-#509]*0.56532]
#3=[#1+[#2-#1]*0.86209]
X5.40006 Y-2.88615 Z[#3+-0.04000]
#1=[#505+[#506-#505]*0.56986]
#2=[#509+[#510-#509]*0.56986]
#3=[#1+[#2-#1]*0.86126]
X5.39974 Y-2.88479 Z[#3+-0.04000]
#1=[#505+[#506-#505]*0.58268]
#2=[#509+[#510-#509]*0.58268]
#3=[#1+[#2-#1]*0.86027]
X5.39936 Y-2.88095 Z[#3+-0.04000]
G04 P0 ( dwell for no time -- G64 should not smooth over this point )
G00 Z0.08000 ( retract )

G00 X5.43873 Y-2.87630 ( rapid move to begin. )
G01 F180.00000
( Mill infeed pass 1/1 )
#1=[#505+[#506-#505]*0.59820]
#2=[#509+[#510-#509]*0.59820]
#3=[#1+[#2-#1]*0.96281]
G01 Z[-0.04000+#111]
G04 P0 ( dwell for no time -- G64 should not smooth over this point )
G01 F360.00000
#1=[#505+[#506-#505]*1.00000]
#2=[#509+[#510-#509]*1.00000]
#3=[#1+[#2-#1]*0.96281]
X5.43873 Y-2.75598 Z[#3+-0.04000]
#1=[#506+[#507-#506]*0.04419]
#2=[#510+[#511-#510]*0.04419]
#3=[#1+[#2-#1]*0.96281]
X5.43873 Y-2.74274 Z[#3+-0.04000]
#1=[#510+[#511-#510]*0.13957]
#2=[#514+[#515-#514]*0.13957]
#3=[#1+[#2-#1]*0.00000]
X5.45301 Y-2.71418 Z[#3+-0.04000]
#1=[#510+[#511-#510]*0.17978]
#2=[#514+[#515-#514]*0.17978]
#3=[#1+[#2-#1]*0.01568]
X5.45904 Y-2.70214 Z[#3+-0.04000]
#1=[#510+[#511-#510]*0.24420]
#2=[#514+[#515-#514]*0.24420]
#3=[#1+[#2-#1]*0.06592]
X5.47833 Y-2.68284 Z[#3+-0.04000]
#1=[#510+[#511-#510]*0.31200]
#2=[#514+[#515-#514]*0.31200]
#3=[#1+[#2-#1]*0.17167]
X5.51893 Y-2.66254 Z[#3+-0.04000]
#1=[#510+[#511-#510]*0.31200]
#2=[#514+[#515-#514]*0.31200]
#3=[#1+[#2-#1]*0.33350]
X5.58107 Y-2.66254 Z[#3+-0.04000]
#1=[#510+[#511-#510]*0.24420]
#2=[#514+[#515-#514]*0.24420]
#3=[#1+[#2-#1]*0.43925]
X5.62167 Y-2.68284 Z[#3+-0.04000]
#1=[#510+[#511-#510]*0.17978]
#2=[#514+[#515-#514]*0.17978]
#3=[#1+[#2-#1]*0.48949]
X5.64096 Y-2.70214 Z[#3+-0.04000]
#1=[#510+[#511-#510]*0.04419]
#2=[#514+[#515-#514]*0.04419]
#3=[#1+[#2-#1]*0.54237]
X5.66127 Y-2.74274 Z[#3+-0.04000]
#1=[#509+[#510-#509]*1.00000]
#2=[#513+[#514-#513]*1.00000]
#3=[#1+[#2-#1]*0.54237]
X5.66127 Y-2.75598 Z[#3+-0.04000]
#1=[#509+[#510-#509]*0.59820]
#2=[#513+[#514-#513]*0.59820]
#3=[#1+[#2-#1]*0.54237]
X5.66127 Y-2.87630 Z[#3+-0.04000]
#1=[#509+[#510-#509]*0.46261]
#2=[#513+[#514-#513]*0.46261]
#3=[#1+[#2-#1]*0.48949]
X5.64096 Y-2.91691 Z[#3+-0.04000]
#1=[#509+[#510-#509]*0.39819]
#2=[#513+[#514-#513]*0.39819]
#3=[#1+[#2-#1]*0.43925]
X5.62167 Y-2.93620 Z[#3+-0.04000]
#1=[#509+[#510-#509]*0.33040]
#2=[#513+[#514-#513]*0.33040]
#3=[#1+[#2-#1]*0.33350]
X5.58107 Y-2.95650 Z[#3+-0.04000]
#1=[#509+[#510-#509]*0.33040]
#2=[#513+[#514-#513]*0.33040]
#3=[#1+[#2-#1]*0.17168]
X5.51893 Y-2.95650 Z[#3+-0.04000]
#1=[#509+[#510-#509]*0.39819]
#2=[#513+[#514-#513]*0.39819]
#3=[#1+[#2-#1]*0.06592]
X5.47833 Y-2.93620 Z[#3+-0.04000]
#1=[#509+[#510-#509]*0.46261]
#2=[#513+[#514-#513]*0.46261]
#3=[#1+[#2-#1]*0.01568]
X5.45904 Y-2.91691 Z[#3+-0.04000]
#1=[#509+[#510-#509]*0.50282]
#2=[#513+[#514-#513]*0.50282]
#3=[#1+[#2-#1]*0.00000]
X5.45301 Y-2.90487 Z[#3+-0.04000]
#1=[#505+[#506-#505]*0.59820]
#2=[#509+[#510-#509]*0.59820]
#3=[#1+[#2-#1]*0.96281]
X5.43873 Y-2.87630 Z[#3+-0.04000]
G04 P0 ( dwell for no time -- G64 should not smooth over this point )
G00 Z0.08000 ( retract )

G00 X5.87555 Y-2.97619 ( rapid move to begin. )
G01 F180.00000
( Mill infeed pass 1/1 )
#1=[#513+[#514-#513]*0.26466]
#2=[#517+[#518-#517]*0.26466]
#3=[#1+[#2-#1]*0.10045]
G01 Z[-0.04000+#111]
G04 P0 ( dwell for no time -- G64 should not smooth over this point )
G01 F360.00000
#1=[#513+[#514-#513]*1.00000]
#2=[#517+[#518-#517]*1.00000]
#3=[#1+[#2-#1]*0.10045]
X5.87555 Y-2.75598 Z[#3+-0.04000]
#1=[#514+[#515-#514]*0.37773]
#2=[#518+[#519-#518]*0.37773]
#3=[#1+[#2-#1]*0.10045]
X5.87555 Y-2.64286 Z[#3+-0.04000]
#1=[#514+[#515-#514]*0.39055]
#2=[#518+[#519-#518]*0.39055]
#3=[#1+[#2-#1]*0.10144]
X5.87593 Y-2.63902 Z[#3+-0.04000]
#1=[#514+[#515-#514]*0.40289]
#2=[#518+[#519-#518]*0.40289]
#3=[#1+[#2-#1]*0.10435]
X5.87705 Y-2.63532 Z[#3+-0.04000]
#1=[#514+[#515-#514]*0.41425]
#2=[#518+[#519-#518]*0.41425]
#3=[#1+[#2-#1]*0.10909]
X5.87887 Y-2.63192 Z[#3+-0.04000]
#1=[#514+[#515-#514]*0.42421]
#2=[#518+[#519-#518]*0.42421]
#3=[#1+[#2-#1]*0.11547]
X5.88132 Y-2.62894 Z[#3+-0.04000]
#1=[#514+[#515-#514]*0.43238]
#2=[#518+[#519-#518]*0.43238]
#3=[#1+[#2-#1]*0.12323]
X5.88430 Y-2.62649 Z[#3+-0.04000]
#1=[#514+[#515-#514]*0.43846]
#2=[#518+[#519-#518]*0.43846]
#3=[#1+[#2-#1]*0.13210]
X5.88770 Y-2.62467 Z[#3+-0.04000]
#1=[#514+[#515-#514]*0.44220]
#2=[#518+[#519-#518]*0.44220]
#3=[#1+[#2-#1]*0.14172]
X5.89140 Y-2.62355 Z[#3+-0.04000]
#1=[#514+[#515-#514]*0.44346]
#2=[#518+[#519-#518]*0.44346]
#3=[#1+[#2-#1]*0.15172]
X5.89524 Y-2.62317 Z[#3+-0.04000]
#1=[#514+[#515-#514]*0.44220]
#2=[#518+[#519-#518]*0.44220]
#3=[#1+[#2-#1]*0.16172]
X5.89908 Y-2.62355 Z[#3+-0.04000]
#1=[#514+[#515-#514]*0.43846]
#2=[#518+[#519-#518]*0.43846]
#3=[#1+[#2-#1]*0.17134]
X5.90277 Y-2.62467 Z[#3+-0.04000]
#1=[#514+[#515-#514]*0.43238]
#2=[#518+[#519-#518]*0.43238]
#3=[#1+[#2-#1]*0.18020]
X5.90617 Y-2.62649 Z[#3+-0.04000]
#1=[#514+[#515-#514]*0.42421]
#2=[#518+[#519-#518]*0.42421]
#3=[#1+[#2-#1]*0.18797]
X5.90916 Y-2.62894 Z[#3+-0.04000]
#1=[#514+[#515-#514]*0.41425]
#2=[#518+[#519-#518]*0.41425]
#3=[#1+[#2-#1]*0.19434]
X5.91160 Y-2.63192 Z[#3+-0.04000]
#1=[#514+[#515-#514]*0.40289]
#2=[#518+[#519-#518]*0.40289]
#3=[#1+[#2-#1]*0.19908]
X5.91342 Y-2.63532 Z[#3+-0.04000]
#1=[#514+[#515-#514]*0.39055]
#2=[#518+[#519-#518]*0.39055]
#3=[#1+[#2-#1]*0.20200]
X5.91454 Y-2.63902 Z[#3+-0.04000]
#1=[#514+[#515-#514]*0.37773]
#2=[#518+[#519-#518]*0.37773]
#3=[#1+[#2-#1]*0.20299]
X5.91492 Y-2.64286 Z[#3+-0.04000]
#1=[#514+[#515-#514]*0.36483]
#2=[#518+[#519-#518]*0.36483]
#3=[#1+[#2-#1]*0.20299]
X5.91492 Y-2.64672 Z[#3+-0.04000]
#1=[#514+[#515-#514]*0.43652]
#2=[#518+[#519-#518]*0.43652]
#3=[#1+[#2-#1]*0.31482]
X5.95786 Y-2.62525 Z[#3+-0.04000]
#1=[#514+[#515-#514]*0.44035]
#2=[#518+[#519-#518]*0.44035]
#3=[#1+[#2-#1]*0.32215]
X5.96068 Y-2.62410 Z[#3+-0.04000]
#1=[#514+[#515-#514]*0.44268]
#2=[#518+[#519-#518]*0.44268]
#3=[#1+[#2-#1]*0.32985]
X5.96364 Y-2.62341 Z[#3+-0.04000]
#1=[#514+[#515-#514]*0.44346]
#2=[#518+[#519-#518]*0.44346]
#3=[#1+[#2-#1]*0.33774]
X5.96667 Y-2.62317 Z[#3+-0.04000]
#1=[#514+[#515-#514]*0.44346]
#2=[#518+[#519-#518]*0.44346]
#3=[#1+[#2-#1]*0.52377]
X6.03810 Y-2.62317 Z[#3+-0.04000]
#1=[#514+[#515-#514]*0.44268]
#2=[#518+[#519-#518]*0.44268]
#3=[#1+[#2-#1]*0.53166]
X6.04113 Y-2.62341 Z[#3+-0.04000]
#1=[#514+[#515-#514]*0.44035]
#2=[#518+[#519-#518]*0.44035]
#3=[#1+[#2-#1]*0.53937]
X6.04408 Y-2.62410 Z[#3+-0.04000]
#1=[#514+[#515-#514]*0.43652]
#2=[#518+[#519-#518]*0.43652]
#3=[#1+[#2-#1]*0.54670]
X6.04690 Y-2.62525 Z[#3+-0.04000]
#1=[#514+[#515-#514]*0.35702]
#2=[#518+[#519-#518]*0.35702]
#3=[#1+[#2-#1]*0.67072]
X6.09452 Y-2.64906 Z[#3+-0.04000]
#1=[#514+[#515-#514]*0.35155]
#2=[#518+[#519-#518]*0.35155]
#3=[#1+[#2-#1]*0.67776]
X6.09722 Y-2.65070 Z[#3+-0.04000]
#1=[#514+[#515-#514]*0.34471]
#2=[#518+[#519-#518]*0.34471]
#3=[#1+[#2-#1]*0.68404]
X6.09963 Y-2.65275 Z[#3+-0.04000]
#1=[#514+[#515-#514]*0.33666]
#2=[#518+[#519-#518]*0.33666]
#3=[#1+[#2-#1]*0.68938]
X6.10168 Y-2.65516 Z[#3+-0.04000]
#1=[#514+[#515-#514]*0.32762]
#2=[#518+[#519-#518]*0.32762]
#3=[#1+[#2-#1]*0.69364]
X6.10332 Y-2.65786 Z[#3+-0.04000]
#1=[#514+[#515-#514]*0.16861]
#2=[#518+[#519-#518]*0.16861]
#3=[#1+[#2-#1]*0.75565]
X6.12713 Y-2.70548 Z[#3+-0.04000]
#1=[#514+[#515-#514]*0.15921]
#2=[#518+[#519-#518]*0.15921]
#3=[#1+[#2-#1]*0.75863]
X6.12828 Y-2.70830 Z[#3+-0.04000]
#1=[#514+[#515-#514]*0.14934]
#2=[#518+[#519-#518]*0.14934]
#3=[#1+[#2-#1]*0.76045]
X6.12897 Y-2.71125 Z[#3+-0.04000]
#1=[#514+[#515-#514]*0.13922]
#2=[#518+[#519-#518]*0.13922]
#3=[#1+[#2-#1]*0.76106]
X6.12921 Y-2.71428 Z[#3+-0.04000]
#1=[#513+[#514-#513]*1.00000]
#2=[#517+[#518-#517]*1.00000]
#3=[#1+[#2-#1]*0.76106]
X6.12921 Y-2.75598 Z[#3+-0.04000]
#1=[#513+[#514-#513]*0.26466]
#2=[#517+[#518-#517]*0.26466]
#3=[#1+[#2-#1]*0.76106]
X6.12921 Y-2.97619 Z[#3+-0.04000]
#1=[#513+[#514-#513]*0.25184]
#2=[#517+[#518-#517]*0.25184]
#3=[#1+[#2-#1]*0.76008]
X6.12883 Y-2.98003 Z[#3+-0.04000]
#1=[#513+[#514-#513]*0.23951]
#2=[#517+[#518-#517]*0.23951]
#3=[#1+[#2-#1]*0.75716]
X6.12771 Y-2.98372 Z[#3+-0.04000]
#1=[#513+[#514-#513]*0.22814]
#2=[#517+[#518-#517]*0.22814]
#3=[#1+[#2-#1]*0.75242]
X6.12589 Y-2.98713 Z[#3+-0.04000]
#1=[#513+[#514-#513]*0.21818]
#2=[#517+[#518-#517]*0.21818]
#3=[#1+[#2-#1]*0.74605]
X6.12344 Y-2.99011 Z[#3+-0.04000]
#1=[#513+[#514-#513]*0.21001]
#2=[#517+[#518-#517]*0.21001]
#3=[#1+[#2-#1]*0.73828]
X6.12046 Y-2.99256 Z[#3+-0.04000]
#1=[#513+[#514-#513]*0.20393]
#2=[#517+[#518-#517]*0.20393]
#3=[#1+[#2-#1]*0.72942]
X6.11706 Y-2.99438 Z[#3+-0.04000]
#1=[#513+[#514-#513]*0.20019]
#2=[#517+[#518-#517]*0.20019]
#3=[#1+[#2-#1]*0.71980]
X6.11336 Y-2.99550 Z[#3+-0.04000]
#1=[#513+[#514-#513]*0.19893]
#2=[#517+[#518-#517]*0.19893]
#3=[#1+[#2-#1]*0.70980]
X6.10952 Y-2.99587 Z[#3+-0.04000]
#1=[#513+[#514-#513]*0.20019]
#2=[#517+[#518-#517]*0.20019]
#3=[#1+[#2-#1]*0.69979]
X6.10568 Y-2.99550 Z[#3+-0.04000]
#1=[#513+[#514-#513]*0.20393]
#2=[#517+[#518-#517]*0.20393]
#3=[#1+[#2-#1]*0.69018]
X6.10199 Y-2.99438 Z[#3+-0.04000]
#1=[#513+[#514-#513]*0.21001]
#2=[#517+[#518-#517]*0.21001]
#3=[#1+[#2-#1]*0.68131]
X6.09859 Y-2.99256 Z[#3+-0.04000]
#1=[#513+[#514-#513]*0.21818]
#2=[#517+[#518-#517]*0.21818]
#3=[#1+[#2-#1]*0.67354]
X6.09560 Y-2.99011 Z[#3+-0.04000]
#1=[#513+[#514-#513]*0.22814]
#2=[#517+[#518-#517]*0.22814]
#3=[#1+[#2-#1]*0.66717]
X6.09316 Y-2.98713 Z[#3+-0.04000]
#1=[#513+[#514-#513]*0.23951]
#2=[#517+[#518-#517]*0.23951]
#3=[#1+[#2-#1]*0.66243]
X6.09134 Y-2.98372 Z[#3+-0.04000]
#1=[#513+[#514-#513]*0.25184]
#2=[#517+[#518-#517]*0.25184]
#3=[#1+[#2-#1]*0.65951]
X6.09022 Y-2.98003 Z[#3+-0.04000]
#1=[#513+[#514-#513]*0.26466]
#2=[#517+[#518-#517]*0.26466]
#3=[#1+[#2-#1]*0.65853]
X6.08984 Y-2.97619 Z[#3+-0.04000]
#1=[#513+[#514-#513]*1.00000]
#2=[#517+[#518-#517]*1.00000]
#3=[#1+[#2-#1]*0.65853]
X6.08984 Y-2.75598 Z[#3+-0.04000]
#1=[#514+[#515-#514]*0.12370]
#2=[#518+[#519-#518]*0.12370]
#3=[#1+[#2-#1]*0.65853]
X6.08984 Y-2.71893 Z[#3+-0.04000]
#1=[#514+[#515-#514]*0.24923]
#2=[#518+[#519-#518]*0.24923]
#3=[#1+[#2-#1]*0.60958]
X6.07104 Y-2.68134 Z[#3+-0.04000]
#1=[#514+[#515-#514]*0.31200]
#2=[#518+[#519-#518]*0.31200]
#3=[#1+[#2-#1]*0.51167]
X6.03345 Y-2.66254 Z[#3+-0.04000]
#1=[#514+[#515-#514]*0.31200]
#2=[#518+[#519-#518]*0.31200]
#3=[#1+[#2-#1]*0.34984]
X5.97131 Y-2.66254 Z[#3+-0.04000]
#1=[#514+[#515-#514]*0.24420]
#2=[#518+[#519-#518]*0.24420]
#3=[#1+[#2-#1]*0.24409]
X5.93071 Y-2.68284 Z[#3+-0.04000]
#1=[#514+[#515-#514]*0.19149]
#2=[#518+[#519-#518]*0.19149]
#3=[#1+[#2-#1]*0.20299]
X5.91492 Y-2.69863 Z[#3+-0.04000]
#1=[#513+[#514-#513]*1.00000]
#2=[#517+[#518-#517]*1.00000]
#3=[#1+[#2-#1]*0.20299]
X5.91492 Y-2.75598 Z[#3+-0.04000]
#1=[#513+[#514-#513]*0.26466]
#2=[#517+[#518-#517]*0.26466]
#3=[#1+[#2-#1]*0.20299]
X5.91492 Y-2.97619 Z[#3+-0.04000]
#1=[#513+[#514-#513]*0.25184]
#2=[#517+[#518-#517]*0.25184]
#3=[#1+[#2-#1]*0.20200]
X5.91454 Y-2.98003 Z[#3+-0.04000]
#1=[#513+[#514-#513]*0.23951]
#2=[#517+[#518-#517]*0.23951]
#3=[#1+[#2-#1]*0.19908]
X5.91342 Y-2.98372 Z[#3+-0.04000]
#1=[#513+[#514-#513]*0.22814]
#2=[#517+[#518-#517]*0.22814]
#3=[#1+[#2-#1]*0.19434]
X5.91160 Y-2.98713 Z[#3+-0.04000]
#1=[#513+[#514-#513]*0.21818]
#2=[#517+[#518-#517]*0.21818]
#3=[#1+[#2-#1]*0.18797]
X5.90916 Y-2.99011 Z[#3+-0.04000]
#1=[#513+[#514-#513]*0.21001]
#2=[#517+[#518-#517]*0.21001]
#3=[#1+[#2-#1]*0.18020]
X5.90617 Y-2.99256 Z[#3+-0.04000]
#1=[#513+[#514-#513]*0.20393]
#2=[#517+[#518-#517]*0.20393]
#3=[#1+[#2-#1]*0.17134]
X5.90277 Y-2.99438 Z[#3+-0.04000]
#1=[#513+[#514-#513]*0.20019]
#2=[#517+[#518-#517]*0.20019]
#3=[#1+[#2-#1]*0.16172]
X5.89908 Y-2.99550 Z[#3+-0.04000]
#1=[#513+[#514-#513]*0.19893]
#2=[#517+[#518-#517]*0.19893]
#3=[#1+[#2-#1]*0.15172]
X5.89524 Y-2.99587 Z[#3+-0.04000]
#1=[#513+[#514-#513]*0.20019]
#2=[#517+[#518-#517]*0.20019]
#3=[#1+[#2-#1]*0.14172]
X5.89140 Y-2.99550 Z[#3+-0.04000]
#1=[#513+[#514-#513]*0.20393]
#2=[#517+[#518-#517]*0.20393]
#3=[#1+[#2-#1]*0.13210]
X5.88770 Y-2.99438 Z[#3+-0.04000]
#1=[#513+[#514-#513]*0.21001]
#2=[#517+[#518-#517]*0.21001]
#3=[#1+[#2-#1]*0.12323]
X5.88430 Y-2.99256 Z[#3+-0.04000]
#1=[#513+[#514-#513]*0.21818]
#2=[#517+[#518-#517]*0.21818]
#3=[#1+[#2-#1]*0.11547]
X5.88132 Y-2.99011 Z[#3+-0.04000]
#1=[#513+[#514-#513]*0.22814]
#2=[#517+[#518-#517]*0.22814]
#3=[#1+[#2-#1]*0.10909]
X5.87887 Y-2.98713 Z[#3+-0.04000]
#1=[#513+[#514-#513]*0.23951]
#2=[#517+[#518-#517]*0.23951]
#3=[#1+[#2-#1]*0.10435]
X5.87705 Y-2.98372 Z[#3+-0.04000]
#1=[#513+[#514-#513]*0.25184]
#2=[#517+[#518-#517]*0.25184]
#3=[#1+[#2-#1]*0.10144]
X5.87593 Y-2.98003 Z[#3+-0.04000]
#1=[#513+[#514-#513]*0.26466]
#2=[#517+[#518-#517]*0.26466]
#3=[#1+[#2-#1]*0.10045]
X5.87555 Y-2.97619 Z[#3+-0.04000]
G04 P0 ( dwell for no time -- G64 should not smooth over this point )
G00 Z0.08000 ( retract )

G00 X6.25650 Y-2.64286 ( rapid move to begin. )
G01 F180.00000
( Mill infeed pass 1/1 )
#1=[#518+[#519-#518]*0.37773]
#2=[#522+[#523-#522]*0.37773]
#3=[#1+[#2-#1]*0.09259]
G01 Z[-0.04000+#111]
G04 P0 ( dwell for no time -- G64 should not smooth over this point )
G01 F360.00000
#1=[#518+[#519-#518]*0.36491]
#2=[#522+[#523-#522]*0.36491]
#3=[#1+[#2-#1]*0.09358]
X6.25688 Y-2.64670 Z[#3+-0.04000]
#1=[#518+[#519-#518]*0.35257]
#2=[#522+[#523-#522]*0.35257]
#3=[#1+[#2-#1]*0.09650]
X6.25800 Y-2.65039 Z[#3+-0.04000]
#1=[#518+[#519-#518]*0.34121]
#2=[#522+[#523-#522]*0.34121]
#3=[#1+[#2-#1]*0.10123]
X6.25982 Y-2.65379 Z[#3+-0.04000]
#1=[#518+[#519-#518]*0.33125]
#2=[#522+[#523-#522]*0.33125]
#3=[#1+[#2-#1]*0.10761]
X6.26227 Y-2.65678 Z[#3+-0.04000]
#1=[#518+[#519-#518]*0.32308]
#2=[#522+[#523-#522]*0.32308]
#3=[#1+[#2-#1]*0.11538]
X6.26525 Y-2.65922 Z[#3+-0.04000]
#1=[#518+[#519-#518]*0.31700]
#2=[#522+[#523-#522]*0.31700]
#3=[#1+[#2-#1]*0.12424]
X6.26866 Y-2.66104 Z[#3+-0.04000]
#1=[#518+[#519-#518]*0.31326]
#2=[#522+[#523-#522]*0.31326]
#3=[#1+[#2-#1]*0.13386]
X6.27235 Y-2.66216 Z[#3+-0.04000]
#1=[#518+[#519-#518]*0.31200]
#2=[#522+[#523-#522]*0.31200]
#3=[#1+[#2-#1]*0.14386]
X6.27619 Y-2.66254 Z[#3+-0.04000]
#1=[#518+[#519-#518]*0.31200]
#2=[#522+[#523-#522]*0.31200]
#3=[#1+[#2-#1]*0.27862]
X6.32793 Y-2.66254 Z[#3+-0.04000]
#1=[#517+[#518-#517]*1.00000]
#2=[#521+[#522-#521]*1.00000]
#3=[#1+[#2-#1]*0.27862]
X6.32793 Y-2.75598 Z[#3+-0.04000]
#1=[#517+[#518-#517]*0.50318]
#2=[#521+[#522-#521]*0.50318]
#3=[#1+[#2-#1]*0.27862]
X6.32793 Y-2.90476 Z[#3+-0.04000]
#1=[#517+[#518-#517]*0.49306]
#2=[#521+[#522-#521]*0.49306]
#3=[#1+[#2-#1]*0.27923]
X6.32817 Y-2.90779 Z[#3+-0.04000]
#1=[#517+[#518-#517]*0.48318]
#2=[#521+[#522-#521]*0.48318]
#3=[#1+[#2-#1]*0.28105]
X6.32887 Y-2.91075 Z[#3+-0.04000]
#1=[#517+[#518-#517]*0.47378]
#2=[#521+[#522-#521]*0.47378]
#3=[#1+[#2-#1]*0.28403]
X6.33001 Y-2.91356 Z[#3+-0.04000]
#1=[#517+[#518-#517]*0.31477]
#2=[#521+[#522-#521]*0.31477]
#3=[#1+[#2-#1]*0.34604]
X6.35382 Y-2.96118 Z[#3+-0.04000]
#1=[#517+[#518-#517]*0.30574]
#2=[#521+[#522-#521]*0.30574]
#3=[#1+[#2-#1]*0.35030]
X6.35546 Y-2.96389 Z[#3+-0.04000]
#1=[#517+[#518-#517]*0.29769]
#2=[#521+[#522-#521]*0.29769]
#3=[#1+[#2-#1]*0.35564]
X6.35751 Y-2.96630 Z[#3+-0.04000]
#1=[#517+[#518-#517]*0.29084]
#2=[#521+[#522-#521]*0.29084]
#3=[#1+[#2-#1]*0.36192]
X6.35992 Y-2.96835 Z[#3+-0.04000]
#1=[#517+[#518-#517]*0.28538]
#2=[#521+[#522-#521]*0.28538]
#3=[#1+[#2-#1]*0.36897]
X6.36262 Y-2.96999 Z[#3+-0.04000]
#1=[#517+[#518-#517]*0.20587]
#2=[#521+[#522-#521]*0.20587]
#3=[#1+[#2-#1]*0.49299]
X6.41024 Y-2.99380 Z[#3+-0.04000]
#1=[#517+[#518-#517]*0.20204]
#2=[#521+[#522-#521]*0.20204]
#3=[#1+[#2-#1]*0.50032]
X6.41306 Y-2.99494 Z[#3+-0.04000]
#1=[#517+[#518-#517]*0.19971]
#2=[#521+[#522-#521]*0.19971]
#3=[#1+[#2-#1]*0.50802]
X6.41602 Y-2.99564 Z[#3+-0.04000]
#1=[#517+[#518-#517]*0.19893]
#2=[#521+[#522-#521]*0.19893]
#3=[#1+[#2-#1]*0.51591]
X6.41905 Y-2.99587 Z[#3+-0.04000]
#1=[#517+[#518-#517]*0.19893]
#2=[#521+[#522-#521]*0.19893]
#3=[#1+[#2-#1]*0.63993]
X6.46667 Y-2.99587 Z[#3+-0.04000]
#1=[#517+[#518-#517]*0.20019]
#2=[#521+[#522-#521]*0.20019]
#3=[#1+[#2-#1]*0.64993]
X6.47051 Y-2.99550 Z[#3+-0.04000]
#1=[#517+[#518-#517]*0.20393]
#2=[#521+[#522-#521]*0.20393]
#3=[#1+[#2-#1]*0.65955]
X6.47420 Y-2.99438 Z[#3+-0.04000]
#1=[#517+[#518-#517]*0.21001]
#2=[#521+[#522-#521]*0.21001]
#3=[#1+[#2-#1]*0.66841]
X6.47760 Y-2.99256 Z[#3+-0.04000]
#1=[#517+[#518-#517]*0.21818]
#2=[#521+[#522-#521]*0.21818]
#3=[#1+[#2-#1]*0.67618]
X6.48058 Y-2.99011 Z[#3+-0.04000]
#1=[#517+[#518-#517]*0.22814]
#2=[#521+[#522-#521]*0.22814]
#3=[#1+[#2-#1]*0.68256]
X6.48303 Y-2.98713 Z[#3+-0.04000]
#1=[#517+[#518-#517]*0.23951]
#2=[#521+[#522-#521]*0.23951]
#3=[#1+[#2-#1]*0.68730]
X6.48485 Y-2.98372 Z[#3+-0.04000]
#1=[#517+[#518-#517]*0.25184]
#2=[#521+[#522-#521]*0.25184]
#3=[#1+[#2-#1]*0.69021]
X6.48597 Y-2.98003 Z[#3+-0.04000]
#1=[#517+[#518-#517]*0.26466]
#2=[#521+[#522-#521]*0.26466]
#3=[#1+[#2-#1]*0.69120]
X6.48635 Y-2.97619 Z[#3+-0.04000]
#1=[#517+[#518-#517]*0.27749]
#2=[#521+[#522-#521]*0.27749]
#3=[#1+[#2-#1]*0.69021]
X6.48597 Y-2.97235 Z[#3+-0.04000]
#1=[#517+[#518-#517]*0.28982]
#2=[#521+[#522-#521]*0.28982]
#3=[#1+[#2-#1]*0.68730]
X6.48485 Y-2.96866 Z[#3+-0.04000]
#1=[#517+[#518-#517]*0.30118]
#2=[#521+[#522-#521]*0.30118]
#3=[#1+[#2-#1]*0.68256]
X6.48303 Y-2.96525 Z[#3+-0.04000]
#1=[#517+[#518-#517]*0.31114]
#2=[#521+[#522-#521]*0.31114]
#3=[#1+[#2-#1]*0.67618]
X6.48058 Y-2.96227 Z[#3+-0.04000]
#1=[#517+[#518-#517]*0.31932]
#2=[#521+[#522-#521]*0.31932]
#3=[#1+[#2-#1]*0.66841]
X6.47760 Y-2.95982 Z[#3+-0.04000]
#1=[#517+[#518-#517]*0.32539]
#2=[#521+[#522-#521]*0.32539]
#3=[#1+[#2-#1]*0.65955]
X6.47420 Y-2.95800 Z[#3+-0.04000]
#1=[#517+[#518-#517]*0.32913]
#2=[#521+[#522-#521]*0.32913]
#3=[#1+[#2-#1]*0.64993]
X6.47051 Y-2.95688 Z[#3+-0.04000]
#1=[#517+[#518-#517]*0.33040]
#2=[#521+[#522-#521]*0.33040]
#3=[#1+[#2-#1]*0.63993]
X6.46667 Y-2.95650 Z[#3+-0.04000]
#1=[#517+[#518-#517]*0.33040]
#2=[#521+[#522-#521]*0.33040]
#3=[#1+[#2-#1]*0.52802]
X6.42369 Y-2.95650 Z[#3+-0.04000]
#1=[#517+[#518-#517]*0.39316]
#2=[#521+[#522-#521]*0.39316]
#3=[#1+[#2-#1]*0.43011]
X6.38610 Y-2.93771 Z[#3+-0.04000]
#1=[#517+[#518-#517]*0.51869]
#2=[#521+[#522-#521]*0.51869]
#3=[#1+[#2-#1]*0.38116]
X6.36730 Y-2.90011 Z[#3+-0.04000]
#1=[#517+[#518-#517]*1.00000]
#2=[#521+[#522-#521]*1.00000]
#3=[#1+[#2-#1]*0.38116]
X6.36730 Y-2.75598 Z[#3+-0.04000]
#1=[#518+[#519-#518]*0.31200]
#2=[#522+[#523-#522]*0.31200]
#3=[#1+[#2-#1]*0.38116]
X6.36730 Y-2.66254 Z[#3+-0.04000]
#1=[#518+[#519-#518]*0.31200]
#2=[#522+[#523-#522]*0.31200]
#3=[#1+[#2-#1]*0.63993]
X6.46667 Y-2.66254 Z[#3+-0.04000]
#1=[#518+[#519-#518]*0.31326]
#2=[#522+[#523-#522]*0.31326]
#3=[#1+[#2-#1]*0.64993]
X6.47051 Y-2.66216 Z[#3+-0.04000]
#1=[#518+[#519-#518]*0.31700]
#2=[#522+[#523-#522]*0.31700]
#3=[#1+[#2-#1]*0.65955]
X6.47420 Y-2.66104 Z[#3+-0.04000]
#1=[#518+[#519-#518]*0.32308]
#2=[#522+[#523-#522]*0.32308]
#3=[#1+[#2-#1]*0.66841]
X6.47760 Y-2.65922 Z[#3+-0.04000]
#1=[#518+[#519-#518]*0.33125]
#2=[#522+[#523-#522]*0.33125]
#3=[#1+[#2-#1]*0.67618]
X6.48058 Y-2.65678 Z[#3+-0.04000]
#1=[#518+[#519-#518]*0.34121]
#2=[#522+[#523-#522]*0.34121]
#3=[#1+[#2-#1]*0.68256]
X6.48303 Y-2.65379 Z[#3+-0.04000]
#1=[#518+[#519-#518]*0.35257]
#2=[#522+[#523-#522]*0.35257]
#3=[#1+[#2-#1]*0.68730]
X6.48485 Y-2.65039 Z[#3+-0.04000]
#1=[#518+[#519-#518]*0.36491]
#2=[#522+[#523-#522]*0.36491]
#3=[#1+[#2-#1]*0.69021]
X6.48597 Y-2.64670 Z[#3+-0.04000]
#1=[#518+[#519-#518]*0.37773]
#2=[#522+[#523-#522]*0.37773]
#3=[#1+[#2-#1]*0.69120]
X6.48635 Y-2.64286 Z[#3+-0.04000]
#1=[#518+[#519-#518]*0.39055]
#2=[#522+[#523-#522]*0.39055]
#3=[#1+[#2-#1]*0.69021]
X6.48597 Y-2.63902 Z[#3+-0.04000]
#1=[#518+[#519-#518]*0.40289]
#2=[#522+[#523-#522]*0.40289]
#3=[#1+[#2-#1]*0.68730]
X6.48485 Y-2.63532 Z[#3+-0.04000]
#1=[#518+[#519-#518]*0.41425]
#2=[#522+[#523-#522]*0.41425]
#3=[#1+[#2-#1]*0.68256]
X6.48303 Y-2.63192 Z[#3+-0.04000]
#1=[#518+[#519-#518]*0.42421]
#2=[#522+[#523-#522]*0.42421]
#3=[#1+[#2-#1]*0.67618]
X6.48058 Y-2.62894 Z[#3+-0.04000]
#1=[#518+[#519-#518]*0.43238]
#2=[#522+[#523-#522]*0.43238]
#3=[#1+[#2-#1]*0.66841]
X6.47760 Y-2.62649 Z[#3+-0.04000]
#1=[#518+[#519-#518]*0.43846]
#2=[#522+[#523-#522]*0.43846]
#3=[#1+[#2-#1]*0.65955]
X6.47420 Y-2.62467 Z[#3+-0.04000]
#1=[#518+[#519-#518]*0.44220]
#2=[#522+[#523-#522]*0.44220]
#3=[#1+[#2-#1]*0.64993]
X6.47051 Y-2.62355 Z[#3+-0.04000]
#1=[#518+[#519-#518]*0.44346]
#2=[#522+[#523-#522]*0.44346]
#3=[#1+[#2-#1]*0.63993]
X6.46667 Y-2.62317 Z[#3+-0.04000]
#1=[#518+[#519-#518]*0.44346]
#2=[#522+[#523-#522]*0.44346]
#3=[#1+[#2-#1]*0.38116]
X6.36730 Y-2.62317 Z[#3+-0.04000]
#1=[#518+[#519-#518]*0.93426]
#2=[#522+[#523-#522]*0.93426]
#3=[#1+[#2-#1]*0.38116]
X6.36730 Y-2.47619 Z[#3+-0.04000]
#1=[#518+[#519-#518]*0.94709]
#2=[#522+[#523-#522]*0.94709]
#3=[#1+[#2-#1]*0.38017]
X6.36693 Y-2.47235 Z[#3+-0.04000]
#1=[#518+[#519-#518]*0.95942]
#2=[#522+[#523-#522]*0.95942]
#3=[#1+[#2-#1]*0.37725]
X6.36580 Y-2.46866 Z[#3+-0.04000]
#1=[#518+[#519-#518]*0.97079]
#2=[#522+[#523-#522]*0.97079]
#3=[#1+[#2-#1]*0.37251]
X6.36399 Y-2.46525 Z[#3+-0.04000]
#1=[#518+[#519-#518]*0.98075]
#2=[#522+[#523-#522]*0.98075]
#3=[#1+[#2-#1]*0.36614]
X6.36154 Y-2.46227 Z[#3+-0.04000]
#1=[#518+[#519-#518]*0.98892]
#2=[#522+[#523-#522]*0.98892]
#3=[#1+[#2-#1]*0.35837]
X6.35855 Y-2.45982 Z[#3+-0.04000]
#1=[#518+[#519-#518]*0.99499]
#2=[#522+[#523-#522]*0.99499]
#3=[#1+[#2-#1]*0.34951]
X6.35515 Y-2.45800 Z[#3+-0.04000]
#1=[#518+[#519-#518]*0.99873]
#2=[#522+[#523-#522]*0.99873]
#3=[#1+[#2-#1]*0.33989]
X6.35146 Y-2.45688 Z[#3+-0.04000]
#1=[#519+[#520-#519]*0.00000]
#2=[#523+[#524-#523]*0.00000]
#3=[#1+[#2-#1]*0.32989]
X6.34762 Y-2.45650 Z[#3+-0.04000]
#1=[#518+[#519-#518]*0.99873]
#2=[#522+[#523-#522]*0.99873]
#3=[#1+[#2-#1]*0.31989]
X6.34378 Y-2.45688 Z[#3+-0.04000]
#1=[#518+[#519-#518]*0.99499]
#2=[#522+[#523-#522]*0.99499]
#3=[#1+[#2-#1]*0.31027]
X6.34009 Y-2.45800 Z[#3+-0.04000]
#1=[#518+[#519-#518]*0.98892]
#2=[#522+[#523-#522]*0.98892]
#3=[#1+[#2-#1]*0.30140]
X6.33668 Y-2.45982 Z[#3+-0.04000]
#1=[#518+[#519-#518]*0.98075]
#2=[#522+[#523-#522]*0.98075]
#3=[#1+[#2-#1]*0.29364]
X6.33370 Y-2.46227 Z[#3+-0.04000]
#1=[#518+[#519-#518]*0.97079]
#2=[#522+[#523-#522]*0.97079]
#3=[#1+[#2-#1]*0.28726]
X6.33125 Y-2.46525 Z[#3+-0.04000]
#1=[#518+[#519-#518]*0.95942]
#2=[#522+[#523-#522]*0.95942]
#3=[#1+[#2-#1]*0.28252]
X6.32943 Y-2.46866 Z[#3+-0.04000]
#1=[#518+[#519-#518]*0.94709]
#2=[#522+[#523-#522]*0.94709]
#3=[#1+[#2-#1]*0.27961]
X6.32831 Y-2.47235 Z[#3+-0.04000]
#1=[#518+[#519-#518]*0.93426]
#2=[#522+[#523-#522]*0.93426]
#3=[#1+[#2-#1]*0.27862]
X6.32793 Y-2.47619 Z[#3+-0.04000]
#1=[#518+[#519-#518]*0.44346]
#2=[#522+[#523-#522]*0.44346]
#3=[#1+[#2-#1]*0.27862]
X6.32793 Y-2.62317 Z[#3+-0.04000]
#1=[#518+[#519-#518]*0.44346]
#2=[#522+[#523-#522]*0.44346]
#3=[#1+[#2-#1]*0.14386]
X6.27619 Y-2.62317 Z[#3+-0.04000]
#1=[#518+[#519-#518]*0.44220]
#2=[#522+[#523-#522]*0.44220]
#3=[#1+[#2-#1]*0.13386]
X6.27235 Y-2.62355 Z[#3+-0.04000]
#1=[#518+[#519-#518]*0.43846]
#2=[#522+[#523-#522]*0.43846]
#3=[#1+[#2-#1]*0.12424]
X6.26866 Y-2.62467 Z[#3+-0.04000]
#1=[#518+[#519-#518]*0.43238]
#2=[#522+[#523-#522]*0.43238]
#3=[#1+[#2-#1]*0.11538]
X6.26525 Y-2.62649 Z[#3+-0.04000]
#1=[#518+[#519-#518]*0.42421]
#2=[#522+[#523-#522]*0.42421]
#3=[#1+[#2-#1]*0.10761]
X6.26227 Y-2.62894 Z[#3+-0.04000]
#1=[#518+[#519-#518]*0.41425]
#2=[#522+[#523-#522]*0.41425]
#3=[#1+[#2-#1]*0.10123]
X6.25982 Y-2.63192 Z[#3+-0.04000]
#1=[#518+[#519-#518]*0.40289]
#2=[#522+[#523-#522]*0.40289]
#3=[#1+[#2-#1]*0.09650]
X6.25800 Y-2.63532 Z[#3+-0.04000]
#1=[#518+[#519-#518]*0.39055]
#2=[#522+[#523-#522]*0.39055]
#3=[#1+[#2-#1]*0.09358]
X6.25688 Y-2.63902 Z[#3+-0.04000]
#1=[#518+[#519-#518]*0.37773]
#2=[#522+[#523-#522]*0.37773]
#3=[#1+[#2-#1]*0.09259]
X6.25650 Y-2.64286 Z[#3+-0.04000]
G04 P0 ( dwell for no time -- G64 should not smooth over this point )
G00 Z0.08000 ( retract )

G00 X6.49508 Y-3.30000 ( rapid move to begin. )
G01 F180.00000
( Mill infeed pass 1/1 )
#1=[#516+[#517-#516]*0.18339]
#2=[#520+[#521-#520]*0.18339]
#3=[#1+[#2-#1]*0.71393]
G01 Z[-0.04000+#111]
G04 P0 ( dwell for no time -- G64 should not smooth over this point )
G01 F360.00000
#1=[#516+[#517-#516]*0.17710]
#2=[#520+[#521-#520]*0.17710]
#3=[#1+[#2-#1]*0.71490]
X6.49545 Y-3.30188 Z[#3+-0.04000]
#1=[#516+[#517-#516]*0.17178]
#2=[#520+[#521-#520]*0.17178]
#3=[#1+[#2-#1]*0.71768]
X6.49652 Y-3.30348 Z[#3+-0.04000]
#1=[#516+[#517-#516]*0.16821]
#2=[#520+[#521-#520]*0.16821]
#3=[#1+[#2-#1]*0.72184]
X6.49812 Y-3.30455 Z[#3+-0.04000]
#1=[#516+[#517-#516]*0.16696]
#2=[#520+[#521-#520]*0.16696]
#3=[#1+[#2-#1]*0.72675]
X6.50000 Y-3.30492 Z[#3+-0.04000]
#1=[#516+[#517-#516]*0.16696]
#2=[#520+[#521-#520]*0.16696]
#3=[#1+[#2-#1]*0.84415]
X6.54508 Y-3.30492 Z[#3+-0.04000]
#1=[#516+[#517-#516]*0.01643]
#2=[#520+[#521-#520]*0.01643]
#3=[#1+[#2-#1]*0.84415]
X6.54508 Y-3.35000 Z[#3+-0.04000]
#1=[#516+[#517-#516]*0.01014]
#2=[#520+[#521-#520]*0.01014]
#3=[#1+[#2-#1]*0.84512]
X6.54545 Y-3.35188 Z[#3+-0.04000]
#1=[#516+[#517-#516]*0.00482]
#2=[#520+[#521-#520]*0.00482]
#3=[#1+[#2-#1]*0.84790]
X6.54652 Y-3.35348 Z[#3+-0.04000]
#1=[#516+[#517-#516]*0.00125]
#2=[#520+[#521-#520]*0.00125]
#3=[#1+[#2-#1]*0.85206]
X6.54812 Y-3.35455 Z[#3+-0.04000]
#1=[#516+[#517-#516]*0.00000]
#2=[#520+[#521-#520]*0.00000]
#3=[#1+[#2-#1]*0.85697]
X6.55000 Y-3.35492 Z[#3+-0.04000]
#1=[#516+[#517-#516]*0.00125]
#2=[#520+[#521-#520]*0.00125]
#3=[#1+[#2-#1]*0.86187]
X6.55188 Y-3.35455 Z[#3+-0.04000]
#1=[#516+[#517-#516]*0.00482]
#2=[#520+[#521-#520]*0.00482]
#3=[#1+[#2-#1]*0.86603]
X6.55348 Y-3.35348 Z[#3+-0.04000]
#1=[#516+[#517-#516]*0.01014]
#2=[#520+[#521-#520]*0.01014]
#3=[#1+[#2-#1]*0.86880]
X6.55455 Y-3.35188 Z[#3+-0.04000]
#1=[#516+[#517-#516]*0.01643]
#2=[#520+[#521-#520]*0.01643]
#3=[#1+[#2-#1]*0.86978]
X6.55492 Y-3.35000 Z[#3+-0.04000]
#1=[#516+[#517-#516]*0.16696]
#2=[#520+[#521-#520]*0.16696]
#3=[#1+[#2-#1]*0.86978]
X6.55492 Y-3.30492 Z[#3+-0.04000]
#1=[#516+[#517-#516]*0.16696]
#2=[#520+[#521-#520]*0.16696]
#3=[#1+[#2-#1]*0.98718]
X6.60000 Y-3.30492 Z[#3+-0.04000]
#1=[#516+[#517-#516]*0.16821]
#2=[#520+[#521-#520]*0.16821]
#3=[#1+[#2-#1]*0.99209]
X6.60188 Y-3.30455 Z[#3+-0.04000]
#1=[#516+[#517-#516]*0.17178]
#2=[#520+[#521-#520]*0.17178]
#3=[#1+[#2-#1]*0.99624]
X6.60348 Y-3.30348 Z[#3+-0.04000]
#1=[#516+[#517-#516]*0.17710]
#2=[#520+[#521-#520]*0.17710]
#3=[#1+[#2-#1]*0.99902]
X6.60455 Y-3.30188 Z[#3+-0.04000]
#1=[#520+[#521-#520]*0.18339]
#2=[#524+[#525-#524]*0.18339]
#3=[#1+[#2-#1]*0.00000]
X6.60492 Y-3.30000 Z[#3+-0.04000]
#1=[#516+[#517-#516]*0.18968]
#2=[#520+[#521-#520]*0.18968]
#3=[#1+[#2-#1]*0.99902]
X6.60455 Y-3.29812 Z[#3+-0.04000]
#1=[#516+[#517-#516]*0.19501]
#2=[#520+[#521-#520]*0.19501]
#3=[#1+[#2-#1]*0.99624]
X6.60348 Y-3.29652 Z[#3+-0.04000]
#1=[#516+[#517-#516]*0.19858]
#2=[#520+[#521-#520]*0.19858]
#3=[#1+[#2-#1]*0.99209]
X6.60188 Y-3.29545 Z[#3+-0.04000]
#1=[#516+[#517-#516]*0.19983]
#2=[#520+[#521-#520]*0.19983]
#3=[#1+[#2-#1]*0.98718]
X6.60000 Y-3.29508 Z[#3+-0.04000]
#1=[#516+[#517-#516]*0.19983]
#2=[#520+[#521-#520]*0.19983]
#3=[#1+[#2-#1]*0.86978]
X6.55492 Y-3.29508 Z[#3+-0.04000]
#1=[#516+[#517-#516]*0.35035]
#2=[#520+[#521-#520]*0.35035]
#3=[#1+[#2-#1]*0.86978]
X6.55492 Y-3.25000 Z[#3+-0.04000]
#1=[#516+[#517-#516]*0.35664]
#2=[#520+[#521-#520]*0.35664]
#3=[#1+[#2-#1]*0.86880]
X6.55455 Y-3.24812 Z[#3+-0.04000]
#1=[#516+[#517-#516]*0.36197]
#2=[#520+[#521-#520]*0.36197]
#3=[#1+[#2-#1]*0.86603]
X6.55348 Y-3.24652 Z[#3+-0.04000]
#1=[#516+[#517-#516]*0.36554]
#2=[#520+[#521-#520]*0.36554]
#3=[#1+[#2-#1]*0.86187]
X6.55188 Y-3.24545 Z[#3+-0.04000]
#1=[#516+[#517-#516]*0.36679]
#2=[#520+[#521-#520]*0.36679]
#3=[#1+[#2-#1]*0.85697]
X6.55000 Y-3.24508 Z[#3+-0.04000]
#1=[#516+[#517-#516]*0.36554]
#2=[#520+[#521-#520]*0.36554]
#3=[#1+[#2-#1]*0.85206]
X6.54812 Y-3.24545 Z[#3+-0.04000]
#1=[#516+[#517-#516]*0.36197]
#2=[#520+[#521-#520]*0.36197]
#3=[#1+[#2-#1]*0.84790]
X6.54652 Y-3.24652 Z[#3+-0.04000]
#1=[#516+[#517-#516]*0.35664]
#2=[#520+[#521-#520]*0.35664]
#3=[#1+[#2-#1]*0.84512]
X6.54545 Y-3.24812 Z[#3+-0.04000]
#1=[#516+[#517-#516]*0.35035]
#2=[#520+[#521-#520]*0.35035]
#3=[#1+[#2-#1]*0.84415]
X6.54508 Y-3.25000 Z[#3+-0.04000]
#1=[#516+[#517-#516]*0.19983]
#2=[#520+[#521-#520]*0.19983]
#3=[#1+[#2-#1]*0.84415]
X6.54508 Y-3.29508 Z[#3+-0.04000]
#1=[#516+[#517-#516]*0.19983]
#2=[#520+[#521-#520]*0.19983]
#3=[#1+[#2-#1]*0.72675]
X6.50000 Y-3.29508 Z[#3+-0.04000]
#1=[#516+[#517-#516]*0.19858]
#2=[#520+[#521-#520]*0.19858]
#3=[#1+[#2-#1]*0.72184]
X6.49812 Y-3.29545 Z[#3+-0.04000]
#1=[#516+[#517-#516]*0.19501]
#2=[#520+[#521-#520]*0.19501]
#3=[#1+[#2-#1]*0.71768]
X6.49652 Y-3.29652 Z[#3+-0.04000]
#1=[#516+[#517-#516]*0.18968]
#2=[#520+[#521-#520]*0.18968]
#3=[#1+[#2-#1]*0.71490]
X6.49545 Y-3.29812 Z[#3+-0.04000]
#1=[#516+[#517-#516]*0.18339]
#2=[#520+[#521-#520]*0.18339]
#3=[#1+[#2-#1]*0.71393]
X6.49508 Y-3.30000 Z[#3+-0.04000]

G04 P0 ( dwell for no time -- G64 should not smooth over this point )
G00 Z1.000000 ( retract )

M5 ( Spindle off. )
G04 P1.000000
M9 ( Coolant off. )
M2 ( Program end. )

