( pcb2gcode 2.0.0 )
( Gcode for custom )

G94 ( Inches per minute feed rate. )
G20 ( Units == INCHES. )

G90 ( Absolute coordinates. )
G00 S12000 ( RPM spindle speed. )
G64 P0.00040 ( set maximum deviation from commanded toolpath )
G01 F360.00000 ( Feedrate. )

#118 = 0
#119 = 0

(MSG, Attach the probe tool)
M0 ( Temporary machine stop. )
G0 Z0.080 ( Move Z to safe height )
G0 X4.68507 Y-3.35492 ( Move XY to start point )
G0 Z0.080 ( Move Z to probe height )
G38.2 Z-0.1 F2.362205 ( Z-probe )
#500 = 0 ( Probe point [0, 0] is our reference )
G92 Z0 ( Set the current Z as zero-value )

( We now start the real probing: move the Z axis to the probing height, move to )
( the probing XY position, probe it and save the result, parameter #2002, )
( in a numbered parameter; we will make 6 probes on the X-axis and )
( 4 probes on the Y-axis, for a grand total of 24 probes )

G0 Z0.080
X4.68507 Y-3.05545
G38.2 Z-0.1 F2.362205
#501=#2002
G0 Z0.080
X4.68507 Y-2.75598
G38.2 Z-0.1 F2.362205
#502=#2002
G0 Z0.080
X4.68507 Y-2.45650
G38.2 Z-0.1 F2.362205
#503=#2002
G0 Z0.080
X5.06904 Y-2.45650
G38.2 Z-0.1 F2.362205
#507=#2002
G0 Z0.080
X5.06904 Y-2.75598
G38.2 Z-0.1 F2.362205
#506=#2002
G0 Z0.080
X5.06904 Y-3.05545
G38.2 Z-0.1 F2.362205
#505=#2002
G0 Z0.080
X5.06904 Y-3.35492
G38.2 Z-0.1 F2.362205
#504=#2002
G0 Z0.080
X5.45301 Y-3.35492
G38.2 Z-0.1 F2.362205
#508=#2002
G0 Z0.080
X5.45301 Y-3.05545
G38.2 Z-0.1 F2.362205
#509=#2002
G0 Z0.080
X5.45301 Y-2.75598
G38.2 Z-0.1 F2.362205
#510=#2002
G0 Z0.080
X5.45301 Y-2.45650
G38.2 Z-0.1 F2.362205
#511=#2002
G0 Z0.080
X5.83698 Y-2.45650
G38.2 Z-0.1 F2.362205
#515=#2002
G0 Z0.080
X5.83698 Y-2.75598
G38.2 Z-0.1 F2.362205
#514=#2002
G0 Z0.080
X5.83698 Y-3.05545
G38.2 Z-0.1 F2.362205
#513=#2002
G0 Z0.080
X5.83698 Y-3.35492
G38.2 Z-0.1 F2.362205
#512=#2002
G0 Z0.080
X6.22095 Y-3.35492
G38.2 Z-0.1 F2.362205
#516=#2002
G0 Z0.080
X6.22095 Y-3.05545
G38.2 Z-0.1 F2.362205
#517=#2002
G0 Z0.080
X6.22095 Y-2.75598
G38.2 Z-0.1 F2.362205
#518=#2002
G0 Z0.080
X6.22095 Y-2.45650
G38.2 Z-0.1 F2.362205
#519=#2002
G0 Z0.080
X6.60492 Y-2.45650
G38.2 Z-0.1 F2.362205
#523=#2002
G0 Z0.080
X6.60492 Y-2.75598
G38.2 Z-0.1 F2.362205
#522=#2002
G0 Z0.080
X6.60492 Y-3.05545
G38.2 Z-0.1 F2.362205
#521=#2002
G0 Z0.080
X6.60492 Y-3.35492
G38.2 Z-0.1 F2.362205
#520=#2002

G0 Z0.080 ( Move Z to safe height )
( Probing has ended, each Z-coordinate will be corrected with a bilinear interpolation )
(MSG, Detach the probe tool)
M0 ( Temporary machine stop. )


G00 Z1.00000 (Retract to tool change height)
T0
M5      (Spindle stop.)
G04 P1.00000 (Wait for spindle to stop)
(MSG, Change tool bit to mill diameter 0.00000in)
M6      (Tool change.)
M0      (Temporary machine stop.)
M3 ( Spindle on clockwise. )
G04 P1.00000 (Wait for spindle to get up to speed)
G04 P0 ( dwell for no time -- G64 should not smooth over this point )
G00 Z0.08000 ( retract )

G00 X4.68507 Y-2.97619 ( rapid move to begin. )
G01 F180.00000
( Mill infeed pass 1/1 )
#1=[#501+[#502-#501]*0.26466]
#2=[#505+[#506-#505]*0.26466]
#3=[#1+[#2-#1]*0.00000]
G01 Z[-0.04000+#111]
G04 P0 ( dwell for no time -- G64 should not smooth over this point )
G01 F360.00000
#1=[#501+[#502-#501]*1.00000]
#2=[#505+[#506-#505]*1.00000]
#3=[#1+[#2-#1]*0.00000]
X4.68507 Y-2.75598 Z[#3+-0.04000]
#1=[#502+[#503-#502]*0.93426]
#2=[#506+[#507-#506]*0.93426]
#3=[#1+[#2-#1]*0.00000]
X4.68507 Y-2.47619 Z[#3+-0.04000]
#1=[#502+[#503-#502]*0.94889]
#2=[#506+[#507-#506]*0.94889]
#3=[#1+[#2-#1]*0.00129]
X4.68557 Y-2.47181 Z[#3+-0.04000]
#1=[#502+[#503-#502]*0.96279]
#2=[#506+[#507-#506]*0.96279]
#3=[#1+[#2-#1]*0.00508]
X4.68702 Y-2.46765 Z[#3+-0.04000]
#1=[#502+[#503-#502]*0.97525]
#2=[#506+[#507-#506]*0.97525]
#3=[#1+[#2-#1]*0.01119]
X4.68937 Y-2.46392 Z[#3+-0.04000]
#1=[#502+[#503-#502]*0.98566]
#2=[#506+[#507-#506]*0.98566]
#3=[#1+[#2-#1]*0.01930]
X4.69249 Y-2.46080 Z[#3+-0.04000]
#1=[#502+[#503-#502]*0.99349]
#2=[#506+[#507-#506]*0.99349]
#3=[#1+[#2-#1]*0.02902]
X4.69622 Y-2.45845 Z[#3+-0.04000]
#1=[#502+[#503-#502]*0.99835]
#2=[#506+[#507-#506]*0.99835]
#3=[#1+[#2-#1]*0.03986]
X4.70038 Y-2.45700 Z[#3+-0.04000]
#1=[#503+[#504-#503]*0.00000]
#2=[#507+[#508-#507]*0.00000]
#3=[#1+[#2-#1]*0.05127]
X4.70476 Y-2.45650 Z[#3+-0.04000]
#1=[#503+[#504-#503]*0.00000]
#2=[#507+[#508-#507]*0.00000]
#3=[#1+[#2-#1]*0.67137]
X4.94286 Y-2.45650 Z[#3+-0.04000]
#1=[#502+[#503-#502]*0.99835]
#2=[#506+[#507-#506]*0.99835]
#3=[#1+[#2-#1]*0.68278]
X4.94724 Y-2.45700 Z[#3+-0.04000]
#1=[#502+[#503-#502]*0.99349]
#2=[#506+[#507-#506]*0.99349]
#3=[#1+[#2-#1]*0.69362]
X4.95140 Y-2.45845 Z[#3+-0.04000]
#1=[#502+[#503-#502]*0.98566]
#2=[#506+[#507-#506]*0.98566]
#3=[#1+[#2-#1]*0.70333]
X4.95513 Y-2.46080 Z[#3+-0.04000]
#1=[#502+[#503-#502]*0.97525]
#2=[#506+[#507-#506]*0.97525]
#3=[#1+[#2-#1]*0.71145]
X4.95825 Y-2.46392 Z[#3+-0.04000]
#1=[#502+[#503-#502]*0.96279]
#2=[#506+[#507-#506]*0.96279]
#3=[#1+[#2-#1]*0.71756]
X4.96059 Y-2.46765 Z[#3+-0.04000]
#1=[#502+[#503-#502]*0.94889]
#2=[#506+[#507-#506]*0.94889]
#3=[#1+[#2-#1]*0.72135]
X4.96205 Y-2.47181 Z[#3+-0.04000]
#1=[#502+[#503-#502]*0.93426]
#2=[#506+[#507-#506]*0.93426]
#3=[#1+[#2-#1]*0.72264]
X4.96255 Y-2.47619 Z[#3+-0.04000]
#1=[#502+[#503-#502]*0.91964]
#2=[#506+[#507-#506]*0.91964]
#3=[#1+[#2-#1]*0.72135]
X4.96205 Y-2.48057 Z[#3+-0.04000]
#1=[#502+[#503-#502]*0.90574]
#2=[#506+[#507-#506]*0.90574]
#3=[#1+[#2-#1]*0.71756]
X4.96059 Y-2.48473 Z[#3+-0.04000]
#1=[#502+[#503-#502]*0.89328]
#2=[#506+[#507-#506]*0.89328]
#3=[#1+[#2-#1]*0.71145]
X4.95825 Y-2.48846 Z[#3+-0.04000]
#1=[#502+[#503-#502]*0.88287]
#2=[#506+[#507-#506]*0.88287]
#3=[#1+[#2-#1]*0.70333]
X4.95513 Y-2.49158 Z[#3+-0.04000]
#1=[#502+[#503-#502]*0.87504]
#2=[#506+[#507-#506]*0.87504]
#3=[#1+[#2-#1]*0.69362]
X4.95140 Y-2.49392 Z[#3+-0.04000]
#1=[#502+[#503-#502]*0.87018]
#2=[#506+[#507-#506]*0.87018]
#3=[#1+[#2-#1]*0.68278]
X4.94724 Y-2.49538 Z[#3+-0.04000]
#1=[#502+[#503-#502]*0.86853]
#2=[#506+[#507-#506]*0.86853]
#3=[#1+[#2-#1]*0.67137]
X4.94286 Y-2.49587 Z[#3+-0.04000]
#1=[#502+[#503-#502]*0.86853]
#2=[#506+[#507-#506]*0.86853]
#3=[#1+[#2-#1]*0.10254]
X4.72445 Y-2.49587 Z[#3+-0.04000]
#1=[#502+[#503-#502]*0.20497]
#2=[#506+[#507-#506]*0.20497]
#3=[#1+[#2-#1]*0.10254]
X4.72445 Y-2.69459 Z[#3+-0.04000]
#1=[#502+[#503-#502]*0.20497]
#2=[#506+[#507-#506]*0.20497]
#3=[#1+[#2-#1]*0.48534]
X4.87143 Y-2.69459 Z[#3+-0.04000]
#1=[#502+[#503-#502]*0.20332]
#2=[#506+[#507-#506]*0.20332]
#3=[#1+[#2-#1]*0.49675]
X4.87581 Y-2.69509 Z[#3+-0.04000]
#1=[#502+[#503-#502]*0.19846]
#2=[#506+[#507-#506]*0.19846]
#3=[#1+[#2-#1]*0.50758]
X4.87997 Y-2.69654 Z[#3+-0.04000]
#1=[#502+[#503-#502]*0.19063]
#2=[#506+[#507-#506]*0.19063]
#3=[#1+[#2-#1]*0.51730]
X4.88370 Y-2.69889 Z[#3+-0.04000]
#1=[#502+[#503-#502]*0.18022]
#2=[#506+[#507-#506]*0.18022]
#3=[#1+[#2-#1]*0.52542]
X4.88682 Y-2.70201 Z[#3+-0.04000]
#1=[#502+[#503-#502]*0.16776]
#2=[#506+[#507-#506]*0.16776]
#3=[#1+[#2-#1]*0.53153]
X4.88917 Y-2.70574 Z[#3+-0.04000]
#1=[#502+[#503-#502]*0.15386]
#2=[#506+[#507-#506]*0.15386]
#3=[#1+[#2-#1]*0.53532]
X4.89062 Y-2.70990 Z[#3+-0.04000]
#1=[#502+[#503-#502]*0.13923]
#2=[#506+[#507-#506]*0.13923]
#3=[#1+[#2-#1]*0.53661]
X4.89112 Y-2.71428 Z[#3+-0.04000]
#1=[#502+[#503-#502]*0.12461]
#2=[#506+[#507-#506]*0.12461]
#3=[#1+[#2-#1]*0.53532]
X4.89062 Y-2.71866 Z[#3+-0.04000]
#1=[#502+[#503-#502]*0.11071]
#2=[#506+[#507-#506]*0.11071]
#3=[#1+[#2-#1]*0.53153]
X4.88917 Y-2.72282 Z[#3+-0.04000]
#1=[#502+[#503-#502]*0.09825]
#2=[#506+[#507-#506]*0.09825]
#3=[#1+[#2-#1]*0.52542]
X4.88682 Y-2.72655 Z[#3+-0.04000]
#1=[#502+[#503-#502]*0.08784]
#2=[#506+[#507-#506]*0.08784]
#3=[#1+[#2-#1]*0.51730]
X4.88370 Y-2.72967 Z[#3+-0.04000]
#1=[#502+[#503-#502]*0.08001]
#2=[#506+[#507-#506]*0.08001]
#3=[#1+[#2-#1]*0.50758]
X4.87997 Y-2.73202 Z[#3+-0.04000]
#1=[#502+[#503-#502]*0.07515]
#2=[#506+[#507-#506]*0.07515]
#3=[#1+[#2-#1]*0.49675]
X4.87581 Y-2.73347 Z[#3+-0.04000]
#1=[#502+[#503-#502]*0.07350]
#2=[#506+[#507-#506]*0.07350]
#3=[#1+[#2-#1]*0.48534]
X4.87143 Y-2.73396 Z[#3+-0.04000]
#1=[#502+[#503-#502]*0.07350]
#2=[#506+[#507-#506]*0.07350]
#3=[#1+[#2-#1]*0.10254]
X4.72445 Y-2.73396 Z[#3+-0.04000]
#1=[#501+[#502-#501]*1.00000]
#2=[#505+[#506-#505]*1.00000]
#3=[#1+[#2-#1]*0.10254]
X4.72445 Y-2.75598 Z[#3+-0.04000]
#1=[#501+[#502-#501]*0.26466]
#2=[#505+[#506-#505]*0.26466]
#3=[#1+[#2-#1]*0.10254]
X4.72445 Y-2.97619 Z[#3+-0.04000]
#1=[#501+[#502-#501]*0.25004]
#2=[#505+[#506-#505]*0.25004]
#3=[#1+[#2-#1]*0.10125]
X4.72395 Y-2.98057 Z[#3+-0.04000]
#1=[#501+[#502-#501]*0.23614]
#2=[#505+[#506-#505]*0.23614]
#3=[#1+[#2-#1]*0.09746]
X4.72250 Y-2.98473 Z[#3+-0.04000]
#1=[#501+[#502-#501]*0.22368]
#2=[#505+[#506-#505]*0.22368]
#3=[#1+[#2-#1]*0.09135]
X4.72015 Y-2.98846 Z[#3+-0.04000]
#1=[#501+[#502-#501]*0.21327]
#2=[#505+[#506-#505]*0.21327]
#3=[#1+[#2-#1]*0.08323]
X4.71703 Y-2.99158 Z[#3+-0.04000]
#1=[#501+[#502-#501]*0.20544]
#2=[#505+[#506-#505]*0.20544]
#3=[#1+[#2-#1]*0.07351]
X4.71330 Y-2.99392 Z[#3+-0.04000]
#1=[#501+[#502-#501]*0.20058]
#2=[#505+[#506-#505]*0.20058]
#3=[#1+[#2-#1]*0.06268]
X4.70914 Y-2.99538 Z[#3+-0.04000]
#1=[#501+[#502-#501]*0.19893]
#2=[#505+[#506-#505]*0.19893]
#3=[#1+[#2-#1]*0.05127]
X4.70476 Y-2.99587 Z[#3+-0.04000]
#1=[#501+[#502-#501]*0.20058]
#2=[#505+[#506-#505]*0.20058]
#3=[#1+[#2-#1]*0.03986]
X4.70038 Y-2.99538 Z[#3+-0.04000]
#1=[#501+[#502-#501]*0.20544]
#2=[#505+[#506-#505]*0.20544]
#3=[#1+[#2-#1]*0.02902]
X4.69622 Y-2.99392 Z[#3+-0.04000]
#1=[#501+[#502-#501]*0.21327]
#2=[#505+[#506-#505]*0.21327]
#3=[#1+[#2-#1]*0.01930]
X4.69249 Y-2.99158 Z[#3+-0.04000]
#1=[#501+[#502-#501]*0.22368]
#2=[#505+[#506-#505]*0.22368]
#3=[#1+[#2-#1]*0.01119]
X4.68937 Y-2.98846 Z[#3+-0.04000]
#1=[#501+[#502-#501]*0.23614]
#2=[#505+[#506-#505]*0.23614]
#3=[#1+[#2-#1]*0.00508]
X4.68702 Y-2.98473 Z[#3+-0.04000]
#1=[#501+[#502-#501]*0.25004]
#2=[#505+[#506-#505]*0.25004]
#3=[#1+[#2-#1]*0.00129]
X4.68557 Y-2.98057 Z[#3+-0.04000]
#1=[#501+[#502-#501]*0.26466]
#2=[#505+[#506-#505]*0.26466]
#3=[#1+[#2-#1]*0.00000]
X4.68507 Y-2.97619 Z[#3+-0.04000]
G04 P0 ( dwell for no time -- G64 should not smooth over this point )
G00 Z0.08000 ( retract )

G00 X5.11364 Y-2.97619 ( rapid move to begin. )
G01 F180.00000
( Mill infeed pass 1/1 )
#1=[#505+[#506-#505]*0.26466]
#2=[#509+[#510-#509]*0.26466]
#3=[#1+[#2-#1]*0.11616]
G01 Z[-0.04000+#111]
G04 P0 ( dwell for no time -- G64 should not smooth over this point )
G01 F360.00000
#1=[#505+[#506-#505]*1.00000]
#2=[#509+[#510-#509]*1.00000]
#3=[#1+[#2-#1]*0.11616]
X5.11364 Y-2.75598 Z[#3+-0.04000]
#1=[#506+[#507-#506]*0.37772]
#2=[#510+[#511-#510]*0.37772]
#3=[#1+[#2-#1]*0.11616]
X5.11364 Y-2.64286 Z[#3+-0.04000]
#1=[#506+[#507-#506]*0.39235]
#2=[#510+[#511-#510]*0.39235]
#3=[#1+[#2-#1]*0.11744]
X5.11414 Y-2.63848 Z[#3+-0.04000]
#1=[#506+[#507-#506]*0.40624]
#2=[#510+[#511-#510]*0.40624]
#3=[#1+[#2-#1]*0.12124]
X5.11559 Y-2.63432 Z[#3+-0.04000]
#1=[#506+[#507-#506]*0.41870]
#2=[#510+[#511-#510]*0.41870]
#3=[#1+[#2-#1]*0.12734]
X5.11794 Y-2.63059 Z[#3+-0.04000]
#1=[#506+[#507-#506]*0.42911]
#2=[#510+[#511-#510]*0.42911]
#3=[#1+[#2-#1]*0.13546]
X5.12106 Y-2.62747 Z[#3+-0.04000]
#1=[#506+[#507-#506]*0.43694]
#2=[#510+[#511-#510]*0.43694]
#3=[#1+[#2-#1]*0.14518]
X5.12479 Y-2.62512 Z[#3+-0.04000]
#1=[#506+[#507-#506]*0.44180]
#2=[#510+[#511-#510]*0.44180]
#3=[#1+[#2-#1]*0.15602]
X5.12895 Y-2.62367 Z[#3+-0.04000]
#1=[#506+[#507-#506]*0.44345]
#2=[#510+[#511-#510]*0.44345]
#3=[#1+[#2-#1]*0.16743]
X5.13333 Y-2.62317 Z[#3+-0.04000]
#1=[#506+[#507-#506]*0.44180]
#2=[#510+[#511-#510]*0.44180]
#3=[#1+[#2-#1]*0.17883]
X5.13771 Y-2.62367 Z[#3+-0.04000]
#1=[#506+[#507-#506]*0.43694]
#2=[#510+[#511-#510]*0.43694]
#3=[#1+[#2-#1]*0.18967]
X5.14187 Y-2.62512 Z[#3+-0.04000]
#1=[#506+[#507-#506]*0.42911]
#2=[#510+[#511-#510]*0.42911]
#3=[#1+[#2-#1]*0.19939]
X5.14560 Y-2.62747 Z[#3+-0.04000]
#1=[#506+[#507-#506]*0.41870]
#2=[#510+[#511-#510]*0.41870]
#3=[#1+[#2-#1]*0.20751]
X5.14872 Y-2.63059 Z[#3+-0.04000]
#1=[#506+[#507-#506]*0.40624]
#2=[#510+[#511-#510]*0.40624]
#3=[#1+[#2-#1]*0.21361]
X5.15107 Y-2.63432 Z[#3+-0.04000]
#1=[#506+[#507-#506]*0.39235]
#2=[#510+[#511-#510]*0.39235]
#3=[#1+[#2-#1]*0.21741]
X5.15252 Y-2.63848 Z[#3+-0.04000]
#1=[#506+[#507-#506]*0.37772]
#2=[#510+[#511-#510]*0.37772]
#3=[#1+[#2-#1]*0.21869]
X5.15301 Y-2.64286 Z[#3+-0.04000]
#1=[#506+[#507-#506]*0.29789]
#2=[#510+[#511-#510]*0.29789]
#3=[#1+[#2-#1]*0.21869]
X5.15301 Y-2.66677 Z[#3+-0.04000]
#1=[#506+[#507-#506]*0.34469]
#2=[#510+[#511-#510]*0.34469]
#3=[#1+[#2-#1]*0.25519]
X5.16703 Y-2.65275 Z[#3+-0.04000]
#1=[#506+[#507-#506]*0.35701]
#2=[#510+[#511-#510]*0.35701]
#3=[#1+[#2-#1]*0.26852]
X5.17215 Y-2.64906 Z[#3+-0.04000]
#1=[#506+[#507-#506]*0.43651]
#2=[#510+[#511-#510]*0.43651]
#3=[#1+[#2-#1]*0.39254]
X5.21977 Y-2.62525 Z[#3+-0.04000]
#1=[#506+[#507-#506]*0.44169]
#2=[#510+[#511-#510]*0.44169]
#3=[#1+[#2-#1]*0.40369]
X5.22405 Y-2.62370 Z[#3+-0.04000]
#1=[#506+[#507-#506]*0.44345]
#2=[#510+[#511-#510]*0.44345]
#3=[#1+[#2-#1]*0.41547]
X5.22857 Y-2.62317 Z[#3+-0.04000]
#1=[#506+[#507-#506]*0.44345]
#2=[#510+[#511-#510]*0.44345]
#3=[#1+[#2-#1]*0.53949]
X5.27619 Y-2.62317 Z[#3+-0.04000]
#1=[#506+[#507-#506]*0.44180]
#2=[#510+[#511-#510]*0.44180]
#3=[#1+[#2-#1]*0.55089]
X5.28057 Y-2.62367 Z[#3+-0.04000]
#1=[#506+[#507-#506]*0.43694]
#2=[#510+[#511-#510]*0.43694]
#3=[#1+[#2-#1]*0.56173]
X5.28473 Y-2.62512 Z[#3+-0.04000]
#1=[#506+[#507-#506]*0.42911]
#2=[#510+[#511-#510]*0.42911]
#3=[#1+[#2-#1]*0.57145]
X5.28846 Y-2.62747 Z[#3+-0.04000]
#1=[#506+[#507-#506]*0.41870]
#2=[#510+[#511-#510]*0.41870]
#3=[#1+[#2-#1]*0.57957]
X5.29158 Y-2.63059 Z[#3+-0.04000]
#1=[#506+[#507-#506]*0.40624]
#2=[#510+[#511-#510]*0.40624]
#3=[#1+[#2-#1]*0.58568]
X5.29392 Y-2.63432 Z[#3+-0.04000]
#1=[#506+[#507-#506]*0.39235]
#2=[#510+[#511-#510]*0.39235]
#3=[#1+[#2-#1]*0.58947]
X5.29538 Y-2.63848 Z[#3+-0.04000]
#1=[#506+[#507-#506]*0.37772]
#2=[#510+[#511-#510]*0.37772]
#3=[#1+[#2-#1]*0.59075]
X5.29587 Y-2.64286 Z[#3+-0.04000]
#1=[#506+[#507-#506]*0.36309]
#2=[#510+[#511-#510]*0.36309]
#3=[#1+[#2-#1]*0.58947]
X5.29538 Y-2.64724 Z[#3+-0.04000]
#1=[#506+[#507-#506]*0.34920]
#2=[#510+[#511-#510]*0.34920]
#3=[#1+[#2-#1]*0.58568]
X5.29392 Y-2.65140 Z[#3+-0.04000]
#1=[#506+[#507-#506]*0.33674]
#2=[#510+[#511-#510]*0.33674]
#3=[#1+[#2-#1]*0.57957]
X5.29158 Y-2.65513 Z[#3+-0.04000]
#1=[#506+[#507-#506]*0.32633]
#2=[#510+[#511-#510]*0.32633]
#3=[#1+[#2-#1]*0.57145]
X5.28846 Y-2.65825 Z[#3+-0.04000]
#1=[#506+[#507-#506]*0.31850]
#2=[#510+[#511-#510]*0.31850]
#3=[#1+[#2-#1]*0.56173]
X5.28473 Y-2.66059 Z[#3+-0.04000]
#1=[#506+[#507-#506]*0.31364]
#2=[#510+[#511-#510]*0.31364]
#3=[#1+[#2-#1]*0.55089]
X5.28057 Y-2.66205 Z[#3+-0.04000]
#1=[#506+[#507-#506]*0.31199]
#2=[#510+[#511-#510]*0.31199]
#3=[#1+[#2-#1]*0.53949]
X5.27619 Y-2.66255 Z[#3+-0.04000]
#1=[#506+[#507-#506]*0.31199]
#2=[#510+[#511-#510]*0.31199]
#3=[#1+[#2-#1]*0.42757]
X5.23322 Y-2.66255 Z[#3+-0.04000]
#1=[#506+[#507-#506]*0.24419]
#2=[#510+[#511-#510]*0.24419]
#3=[#1+[#2-#1]*0.32181]
X5.19261 Y-2.68285 Z[#3+-0.04000]
#1=[#506+[#507-#506]*0.17977]
#2=[#510+[#511-#510]*0.17977]
#3=[#1+[#2-#1]*0.27157]
X5.17332 Y-2.70214 Z[#3+-0.04000]
#1=[#506+[#507-#506]*0.04421]
#2=[#510+[#511-#510]*0.04421]
#3=[#1+[#2-#1]*0.21869]
X5.15301 Y-2.74274 Z[#3+-0.04000]
#1=[#505+[#506-#505]*1.00000]
#2=[#509+[#510-#509]*1.00000]
#3=[#1+[#2-#1]*0.21869]
X5.15301 Y-2.75598 Z[#3+-0.04000]
#1=[#505+[#506-#505]*0.26466]
#2=[#509+[#510-#509]*0.26466]
#3=[#1+[#2-#1]*0.21869]
X5.15301 Y-2.97619 Z[#3+-0.04000]
#1=[#505+[#506-#505]*0.25004]
#2=[#509+[#510-#509]*0.25004]
#3=[#1+[#2-#1]*0.21741]
X5.15252 Y-2.98057 Z[#3+-0.04000]
#1=[#505+[#506-#505]*0.23614]
#2=[#509+[#510-#509]*0.23614]
#3=[#1+[#2-#1]*0.21361]
X5.15107 Y-2.98473 Z[#3+-0.04000]
#1=[#505+[#506-#505]*0.22368]
#2=[#509+[#510-#509]*0.22368]
#3=[#1+[#2-#1]*0.20751]
X5.14872 Y-2.98846 Z[#3+-0.04000]
#1=[#505+[#506-#505]*0.21327]
#2=[#509+[#510-#509]*0.21327]
#3=[#1+[#2-#1]*0.19939]
X5.14560 Y-2.99158 Z[#3+-0.04000]
#1=[#505+[#506-#505]*0.20544]
#2=[#509+[#510-#509]*0.20544]
#3=[#1+[#2-#1]*0.18967]
X5.14187 Y-2.99392 Z[#3+-0.04000]
#1=[#505+[#506-#505]*0.20058]
#2=[#509+[#510-#509]*0.20058]
#3=[#1+[#2-#1]*0.17883]
X5.13771 Y-2.99538 Z[#3+-0.04000]
#1=[#505+[#506-#505]*0.19893]
#2=[#509+[#510-#509]*0.19893]
#3=[#1+[#2-#1]*0.16743]
X5.13333 Y-2.99587 Z[#3+-0.04000]
#1=[#505+[#506-#505]*0.20058]
#2=[#509+[#510-#509]*0.20058]
#3=[#1+[#2-#1]*0.15602]
X5.12895 Y-2.99538 Z[#3+-0.04000]
#1=[#505+[#506-#505]*0.20544]
#2=[#509+[#510-#509]*0.20544]
#3=[#1+[#2-#1]*0.14518]
X5.12479 Y-2.99392 Z[#3+-0.04000]
#1=[#505+[#506-#505]*0.21327]
#2=[#509+[#510-#509]*0.21327]
#3=[#1+[#2-#1]*0.13546]
X5.12106 Y-2.99158 Z[#3+-0.04000]
#1=[#505+[#506-#505]*0.22368]
#2=[#509+[#510-#509]*0.22368]
#3=[#1+[#2-#1]*0.12734]
X5.11794 Y-2.98846 Z[#3+-0.04000]
#1=[#505+[#506-#505]*0.23614]
#2=[#509+[#510-#509]*0.23614]
#3=[#1+[#2-#1]*0.12124]
X5.11559 Y-2.98473 Z[#3+-0.04000]
#1=[#505+[#506-#505]*0.25004]
#2=[#509+[#510-#509]*0.25004]
#3=[#1+[#2-#1]*0.11744]
X5.11414 Y-2.98057 Z[#3+-0.04000]
#1=[#505+[#506-#505]*0.26466]
#2=[#509+[#510-#509]*0.26466]
#3=[#1+[#2-#1]*0.11616]
X5.11364 Y-2.97619 Z[#3+-0.04000]
G04 P0 ( dwell for no time -- G64 should not smooth over this point )
G00 Z0.08000 ( retract )

G00 X5.39936 Y-2.88095 ( rapid move to begin. )
G01 F180.00000
( Mill infeed pass 1/1 )
#1=[#505+[#506-#505]*0.58269]
#2=[#509+[#510-#509]*0.58269]
#3=[#1+[#2-#1]*0.86028]
G01 Z[-0.04000+#111]
G04 P0 ( dwell for no time -- G64 should not smooth over this point )
G01 F360.00000
#1=[#505+[#506-#505]*1.00000]
#2=[#509+[#510-#509]*1.00000]
#3=[#1+[#2-#1]*0.86028]
X5.39936 Y-2.75598 Z[#3+-0.04000]
#1=[#506+[#507-#506]*0.05973]
#2=[#510+[#511-#510]*0.05973]
#3=[#1+[#2-#1]*0.86028]
X5.39936 Y-2.73809 Z[#3+-0.04000]
#1=[#506+[#507-#506]*0.07483]
#2=[#510+[#511-#510]*0.07483]
#3=[#1+[#2-#1]*0.86165]
X5.39989 Y-2.73357 Z[#3+-0.04000]
#1=[#506+[#507-#506]*0.08913]
#2=[#510+[#511-#510]*0.08913]
#3=[#1+[#2-#1]*0.86569]
X5.40144 Y-2.72928 Z[#3+-0.04000]
#1=[#506+[#507-#506]*0.24811]
#2=[#510+[#511-#510]*0.24811]
#3=[#1+[#2-#1]*0.92770]
X5.42525 Y-2.68167 Z[#3+-0.04000]
#1=[#506+[#507-#506]*0.26519]
#2=[#510+[#511-#510]*0.26519]
#3=[#1+[#2-#1]*0.93731]
X5.42894 Y-2.67656 Z[#3+-0.04000]
#1=[#506+[#507-#506]*0.34469]
#2=[#510+[#511-#510]*0.34469]
#3=[#1+[#2-#1]*0.99932]
X5.45275 Y-2.65275 Z[#3+-0.04000]
#1=[#506+[#507-#506]*0.34533]
#2=[#510+[#511-#510]*0.34533]
#3=[#1+[#2-#1]*1.00000]
X5.45301 Y-2.65256 Z[#3+-0.04000]
#1=[#510+[#511-#510]*0.35701]
#2=[#514+[#515-#514]*0.35701]
#3=[#1+[#2-#1]*0.01264]
X5.45787 Y-2.64906 Z[#3+-0.04000]
#1=[#510+[#511-#510]*0.43651]
#2=[#514+[#515-#514]*0.43651]
#3=[#1+[#2-#1]*0.13666]
X5.50549 Y-2.62525 Z[#3+-0.04000]
#1=[#510+[#511-#510]*0.44169]
#2=[#514+[#515-#514]*0.44169]
#3=[#1+[#2-#1]*0.14781]
X5.50977 Y-2.62370 Z[#3+-0.04000]
#1=[#510+[#511-#510]*0.44345]
#2=[#514+[#515-#514]*0.44345]
#3=[#1+[#2-#1]*0.15959]
X5.51429 Y-2.62317 Z[#3+-0.04000]
#1=[#510+[#511-#510]*0.44345]
#2=[#514+[#515-#514]*0.44345]
#3=[#1+[#2-#1]*0.34559]
X5.58571 Y-2.62317 Z[#3+-0.04000]
#1=[#510+[#511-#510]*0.44169]
#2=[#514+[#515-#514]*0.44169]
#3=[#1+[#2-#1]*0.35737]
X5.59023 Y-2.62370 Z[#3+-0.04000]
#1=[#510+[#511-#510]*0.43651]
#2=[#514+[#515-#514]*0.43651]
#3=[#1+[#2-#1]*0.36852]
X5.59451 Y-2.62525 Z[#3+-0.04000]
#1=[#510+[#511-#510]*0.35701]
#2=[#514+[#515-#514]*0.35701]
#3=[#1+[#2-#1]*0.49254]
X5.64213 Y-2.64906 Z[#3+-0.04000]
#1=[#510+[#511-#510]*0.34469]
#2=[#514+[#515-#514]*0.34469]
#3=[#1+[#2-#1]*0.50586]
X5.64725 Y-2.65275 Z[#3+-0.04000]
#1=[#510+[#511-#510]*0.26519]
#2=[#514+[#515-#514]*0.26519]
#3=[#1+[#2-#1]*0.56787]
X5.67106 Y-2.67656 Z[#3+-0.04000]
#1=[#510+[#511-#510]*0.24811]
#2=[#514+[#515-#514]*0.24811]
#3=[#1+[#2-#1]*0.57748]
X5.67475 Y-2.68167 Z[#3+-0.04000]
#1=[#510+[#511-#510]*0.08913]
#2=[#514+[#515-#514]*0.08913]
#3=[#1+[#2-#1]*0.63949]
X5.69856 Y-2.72928 Z[#3+-0.04000]
#1=[#510+[#511-#510]*0.07483]
#2=[#514+[#515-#514]*0.07483]
#3=[#1+[#2-#1]*0.64353]
X5.70011 Y-2.73357 Z[#3+-0.04000]
#1=[#510+[#511-#510]*0.05973]
#2=[#514+[#515-#514]*0.05973]
#3=[#1+[#2-#1]*0.64490]
X5.70064 Y-2.73809 Z[#3+-0.04000]
#1=[#509+[#510-#509]*1.00000]
#2=[#513+[#514-#513]*1.00000]
#3=[#1+[#2-#1]*0.64490]
X5.70064 Y-2.75598 Z[#3+-0.04000]
#1=[#509+[#510-#509]*0.58269]
#2=[#513+[#514-#513]*0.58269]
#3=[#1+[#2-#1]*0.64490]
X5.70064 Y-2.88095 Z[#3+-0.04000]
#1=[#509+[#510-#509]*0.56759]
#2=[#513+[#514-#513]*0.56759]
#3=[#1+[#2-#1]*0.64353]
X5.70011 Y-2.88547 Z[#3+-0.04000]
#1=[#509+[#510-#509]*0.55329]
#2=[#513+[#514-#513]*0.55329]
#3=[#1+[#2-#1]*0.63949]
X5.69856 Y-2.88975 Z[#3+-0.04000]
#1=[#509+[#510-#509]*0.39428]
#2=[#513+[#514-#513]*0.39428]
#3=[#1+[#2-#1]*0.57748]
X5.67475 Y-2.93737 Z[#3+-0.04000]
#1=[#509+[#510-#509]*0.37720]
#2=[#513+[#514-#513]*0.37720]
#3=[#1+[#2-#1]*0.56787]
X5.67106 Y-2.94249 Z[#3+-0.04000]
#1=[#509+[#510-#509]*0.29769]
#2=[#513+[#514-#513]*0.29769]
#3=[#1+[#2-#1]*0.50586]
X5.64725 Y-2.96630 Z[#3+-0.04000]
#1=[#509+[#510-#509]*0.28538]
#2=[#513+[#514-#513]*0.28538]
#3=[#1+[#2-#1]*0.49254]
X5.64213 Y-2.96999 Z[#3+-0.04000]
#1=[#509+[#510-#509]*0.20587]
#2=[#513+[#514-#513]*0.20587]
#3=[#1+[#2-#1]*0.36852]
X5.59451 Y-2.99380 Z[#3+-0.04000]
#1=[#509+[#510-#509]*0.20069]
#2=[#513+[#514-#513]*0.20069]
#3=[#1+[#2-#1]*0.35737]
X5.59023 Y-2.99535 Z[#3+-0.04000]
#1=[#509+[#510-#509]*0.19893]
#2=[#513+[#514-#513]*0.19893]
#3=[#1+[#2-#1]*0.34559]
X5.58571 Y-2.99587 Z[#3+-0.04000]
#1=[#509+[#510-#509]*0.19893]
#2=[#513+[#514-#513]*0.19893]
#3=[#1+[#2-#1]*0.15959]
X5.51429 Y-2.99587 Z[#3+-0.04000]
#1=[#509+[#510-#509]*0.20069]
#2=[#513+[#514-#513]*0.20069]
#3=[#1+[#2-#1]*0.14781]
X5.50977 Y-2.99535 Z[#3+-0.04000]
#1=[#509+[#510-#509]*0.20587]
#2=[#513+[#514-#513]*0.20587]
#3=[#1+[#2-#1]*0.13666]
X5.50549 Y-2.99380 Z[#3+-0.04000]
#1=[#509+[#510-#509]*0.28538]
#2=[#513+[#514-#513]*0.28538]
#3=[#1+[#2-#1]*0.01264]
X5.45787 Y-2.96999 Z[#3+-0.04000]
#1=[#505+[#506-#505]*0.29706]
#2=[#509+[#510-#509]*0.29706]
#3=[#1+[#2-#1]*1.00000]
X5.45301 Y-2.96649 Z[#3+-0.04000]
#1=[#505+[#506-#505]*0.29769]
#2=[#509+[#510-#509]*0.29769]
#3=[#1+[#2-#1]*0.99932]
X5.45275 Y-2.96630 Z[#3+-0.04000]
#1=[#505+[#506-#505]*0.37720]
#2=[#509+[#510-#509]*0.37720]
#3=[#1+[#2-#1]*0.93731]
X5.42894 Y-2.94249 Z[#3+-0.04000]
#1=[#505+[#506-#505]*0.39428]
#2=[#509+[#510-#509]*0.39428]
#3=[#1+[#2-#1]*0.92770]
X5.42525 Y-2.93737 Z[#3+-0.04000]
#1=[#505+[#506-#505]*0.55417]
#2=[#509+[#510-#509]*0.55417]
#3=[#1+[#2-#1]*0.86536]
X5.40131 Y-2.88949 Z[#3+-0.04000]
#1=[#505+[#506-#505]*0.56806]
#2=[#509+[#510-#509]*0.56806]
#3=[#1+[#2-#1]*0.86157]
X5.39986 Y-2.88533 Z[#3+-0.04000]
#1=[#505+[#506-#505]*0.58269]
#2=[#509+[#510-#509]*0.58269]
#3=[#1+[#2-#1]*0.86028]
X5.39936 Y-2.88095 Z[#3+-0.04000]
G04 P0 ( dwell for no time -- G64 should not smooth over this point )
G00 Z0.08000 ( retract )

G00 X5.43874 Y-2.87630 ( rapid move to begin. )
G01 F180.00000
( Mill infeed pass 1/1 )
#1=[#505+[#506-#505]*0.59821]
#2=[#509+[#510-#509]*0.59821]
#3=[#1+[#2-#1]*0.96282]
G01 Z[-0.04000+#111]
G04 P0 ( dwell for no time -- G64 should not smooth over this point )
G01 F360.00000
#1=[#505+[#506-#505]*1.00000]
#2=[#509+[#510-#509]*1.00000]
#3=[#1+[#2-#1]*0.96282]
X5.43874 Y-2.75598 Z[#3+-0.04000]
#1=[#506+[#507-#506]*0.04421]
#2=[#510+[#511-#510]*0.04421]
#3=[#1+[#2-#1]*0.96282]
X5.43874 Y-2.74274 Z[#3+-0.04000]
#1=[#506+[#507-#506]*0.13954]
#2=[#510+[#511-#510]*0.13954]
#3=[#1+[#2-#1]*1.00000]
X5.45301 Y-2.71419 Z[#3+-0.04000]
#1=[#510+[#511-#510]*0.17977]
#2=[#514+[#515-#514]*0.17977]
#3=[#1+[#2-#1]*0.01569]
X5.45904 Y-2.70214 Z[#3+-0.04000]
#1=[#510+[#511-#510]*0.24419]
#2=[#514+[#515-#514]*0.24419]
#3=[#1+[#2-#1]*0.06594]
X5.47833 Y-2.68285 Z[#3+-0.04000]
#1=[#510+[#511-#510]*0.31199]
#2=[#514+[#515-#514]*0.31199]
#3=[#1+[#2-#1]*0.17169]
X5.51894 Y-2.66255 Z[#3+-0.04000]
#1=[#510+[#511-#510]*0.31199]
#2=[#514+[#515-#514]*0.31199]
#3=[#1+[#2-#1]*0.33349]
X5.58106 Y-2.66255 Z[#3+-0.04000]
#1=[#510+[#511-#510]*0.24419]
#2=[#514+[#515-#514]*0.24419]
#3=[#1+[#2-#1]*0.43924]
X5.62167 Y-2.68285 Z[#3+-0.04000]
#1=[#510+[#511-#510]*0.17977]
#2=[#514+[#515-#514]*0.17977]
#3=[#1+[#2-#1]*0.48949]
X5.64096 Y-2.70214 Z[#3+-0.04000]
#1=[#510+[#511-#510]*0.04421]
#2=[#514+[#515-#514]*0.04421]
#3=[#1+[#2-#1]*0.54236]
X5.66126 Y-2.74274 Z[#3+-0.04000]
#1=[#509+[#510-#509]*1.00000]
#2=[#513+[#514-#513]*1.00000]
#3=[#1+[#2-#1]*0.54236]
X5.66126 Y-2.75598 Z[#3+-0.04000]
#1=[#509+[#510-#509]*0.59821]
#2=[#513+[#514-#513]*0.59821]
#3=[#1+[#2-#1]*0.54236]
X5.66126 Y-2.87630 Z[#3+-0.04000]
#1=[#509+[#510-#509]*0.46261]
#2=[#513+[#514-#513]*0.46261]
#3=[#1+[#2-#1]*0.48949]
X5.64096 Y-2.91691 Z[#3+-0.04000]
#1=[#509+[#510-#509]*0.39819]
#2=[#513+[#514-#513]*0.39819]
#3=[#1+[#2-#1]*0.43924]
X5.62167 Y-2.93620 Z[#3+-0.04000]
#1=[#509+[#510-#509]*0.33040]
#2=[#513+[#514-#513]*0.33040]
#3=[#1+[#2-#1]*0.33349]
X5.58106 Y-2.95650 Z[#3+-0.04000]
#1=[#509+[#510-#509]*0.33040]
#2=[#513+[#514-#513]*0.33040]
#3=[#1+[#2-#1]*0.17169]
X5.51894 Y-2.95650 Z[#3+-0.04000]
#1=[#509+[#510-#509]*0.39819]
#2=[#513+[#514-#513]*0.39819]
#3=[#1+[#2-#1]*0.06594]
X5.47833 Y-2.93620 Z[#3+-0.04000]
#1=[#509+[#510-#509]*0.46261]
#2=[#513+[#514-#513]*0.46261]
#3=[#1+[#2-#1]*0.01569]
X5.45904 Y-2.91691 Z[#3+-0.04000]
#1=[#505+[#506-#505]*0.50285]
#2=[#509+[#510-#509]*0.50285]
#3=[#1+[#2-#1]*1.00000]
X5.45301 Y-2.90486 Z[#3+-0.04000]
#1=[#505+[#506-#505]*0.59821]
#2=[#509+[#510-#509]*0.59821]
#3=[#1+[#2-#1]*0.96282]
X5.43874 Y-2.87630 Z[#3+-0.04000]
G04 P0 ( dwell for no time -- G64 should not smooth over this point )
G00 Z0.08000 ( retract )

G00 X5.87555 Y-2.97619 ( rapid move to begin. )
G01 F180.00000
( Mill infeed pass 1/1 )
#1=[#513+[#514-#513]*0.26466]
#2=[#517+[#518-#517]*0.26466]
#3=[#1+[#2-#1]*0.10046]
G01 Z[-0.04000+#111]
G04 P0 ( dwell for no time -- G64 should not smooth over this point )
G01 F360.00000
#1=[#513+[#514-#513]*1.00000]
#2=[#517+[#518-#517]*1.00000]
#3=[#1+[#2-#1]*0.10046]
X5.87555 Y-2.75598 Z[#3+-0.04000]
#1=[#514+[#515-#514]*0.37772]
#2=[#518+[#519-#518]*0.37772]
#3=[#1+[#2-#1]*0.10046]
X5.87555 Y-2.64286 Z[#3+-0.04000]
#1=[#514+[#515-#514]*0.39235]
#2=[#518+[#519-#518]*0.39235]
#3=[#1+[#2-#1]*0.10174]
X5.87605 Y-2.63848 Z[#3+-0.04000]
#1=[#514+[#515-#514]*0.40624]
#2=[#518+[#519-#518]*0.40624]
#3=[#1+[#2-#1]*0.10553]
X5.87750 Y-2.63432 Z[#3+-0.04000]
#1=[#514+[#515-#514]*0.41870]
#2=[#518+[#519-#518]*0.41870]
#3=[#1+[#2-#1]*0.11164]
X5.87985 Y-2.63059 Z[#3+-0.04000]
#1=[#514+[#515-#514]*0.42911]
#2=[#518+[#519-#518]*0.42911]
#3=[#1+[#2-#1]*0.11976]
X5.88297 Y-2.62747 Z[#3+-0.04000]
#1=[#514+[#515-#514]*0.43694]
#2=[#518+[#519-#518]*0.43694]
#3=[#1+[#2-#1]*0.12948]
X5.88670 Y-2.62512 Z[#3+-0.04000]
#1=[#514+[#515-#514]*0.44180]
#2=[#518+[#519-#518]*0.44180]
#3=[#1+[#2-#1]*0.14032]
X5.89086 Y-2.62367 Z[#3+-0.04000]
#1=[#514+[#515-#514]*0.44345]
#2=[#518+[#519-#518]*0.44345]
#3=[#1+[#2-#1]*0.15173]
X5.89524 Y-2.62317 Z[#3+-0.04000]
#1=[#514+[#515-#514]*0.44180]
#2=[#518+[#519-#518]*0.44180]
#3=[#1+[#2-#1]*0.16313]
X5.89962 Y-2.62367 Z[#3+-0.04000]
#1=[#514+[#515-#514]*0.43694]
#2=[#518+[#519-#518]*0.43694]
#3=[#1+[#2-#1]*0.17397]
X5.90378 Y-2.62512 Z[#3+-0.04000]
#1=[#514+[#515-#514]*0.42911]
#2=[#518+[#519-#518]*0.42911]
#3=[#1+[#2-#1]*0.18369]
X5.90751 Y-2.62747 Z[#3+-0.04000]
#1=[#514+[#515-#514]*0.41870]
#2=[#518+[#519-#518]*0.41870]
#3=[#1+[#2-#1]*0.19181]
X5.91063 Y-2.63059 Z[#3+-0.04000]
#1=[#514+[#515-#514]*0.40624]
#2=[#518+[#519-#518]*0.40624]
#3=[#1+[#2-#1]*0.19791]
X5.91298 Y-2.63432 Z[#3+-0.04000]
#1=[#514+[#515-#514]*0.39235]
#2=[#518+[#519-#518]*0.39235]
#3=[#1+[#2-#1]*0.20171]
X5.91443 Y-2.63848 Z[#3+-0.04000]
#1=[#514+[#515-#514]*0.37772]
#2=[#518+[#519-#518]*0.37772]
#3=[#1+[#2-#1]*0.20299]
X5.91493 Y-2.64286 Z[#3+-0.04000]
#1=[#514+[#515-#514]*0.36482]
#2=[#518+[#519-#518]*0.36482]
#3=[#1+[#2-#1]*0.20299]
X5.91493 Y-2.64672 Z[#3+-0.04000]
#1=[#514+[#515-#514]*0.43651]
#2=[#518+[#519-#518]*0.43651]
#3=[#1+[#2-#1]*0.31483]
X5.95787 Y-2.62525 Z[#3+-0.04000]
#1=[#514+[#515-#514]*0.44169]
#2=[#518+[#519-#518]*0.44169]
#3=[#1+[#2-#1]*0.32598]
X5.96215 Y-2.62370 Z[#3+-0.04000]
#1=[#514+[#515-#514]*0.44345]
#2=[#518+[#519-#518]*0.44345]
#3=[#1+[#2-#1]*0.33776]
X5.96667 Y-2.62317 Z[#3+-0.04000]
#1=[#514+[#515-#514]*0.44345]
#2=[#518+[#519-#518]*0.44345]
#3=[#1+[#2-#1]*0.52379]
X6.03810 Y-2.62317 Z[#3+-0.04000]
#1=[#514+[#515-#514]*0.44169]
#2=[#518+[#519-#518]*0.44169]
#3=[#1+[#2-#1]*0.53557]
X6.04262 Y-2.62370 Z[#3+-0.04000]
#1=[#514+[#515-#514]*0.43651]
#2=[#518+[#519-#518]*0.43651]
#3=[#1+[#2-#1]*0.54671]
X6.04690 Y-2.62525 Z[#3+-0.04000]
#1=[#514+[#515-#514]*0.35701]
#2=[#518+[#519-#518]*0.35701]
#3=[#1+[#2-#1]*0.67071]
X6.09451 Y-2.64906 Z[#3+-0.04000]
#1=[#514+[#515-#514]*0.34940]
#2=[#518+[#519-#518]*0.34940]
#3=[#1+[#2-#1]*0.67994]
X6.09806 Y-2.65134 Z[#3+-0.04000]
#1=[#514+[#515-#514]*0.33945]
#2=[#518+[#519-#518]*0.33945]
#3=[#1+[#2-#1]*0.68770]
X6.10104 Y-2.65432 Z[#3+-0.04000]
#1=[#514+[#515-#514]*0.32761]
#2=[#518+[#519-#518]*0.32761]
#3=[#1+[#2-#1]*0.69363]
X6.10332 Y-2.65787 Z[#3+-0.04000]
#1=[#514+[#515-#514]*0.16863]
#2=[#518+[#519-#518]*0.16863]
#3=[#1+[#2-#1]*0.75564]
X6.12713 Y-2.70547 Z[#3+-0.04000]
#1=[#514+[#515-#514]*0.15434]
#2=[#518+[#519-#518]*0.15434]
#3=[#1+[#2-#1]*0.75969]
X6.12868 Y-2.70976 Z[#3+-0.04000]
#1=[#514+[#515-#514]*0.13923]
#2=[#518+[#519-#518]*0.13923]
#3=[#1+[#2-#1]*0.76106]
X6.12920 Y-2.71428 Z[#3+-0.04000]
#1=[#513+[#514-#513]*1.00000]
#2=[#517+[#518-#517]*1.00000]
#3=[#1+[#2-#1]*0.76106]
X6.12920 Y-2.75598 Z[#3+-0.04000]
#1=[#513+[#514-#513]*0.26466]
#2=[#517+[#518-#517]*0.26466]
#3=[#1+[#2-#1]*0.76106]
X6.12920 Y-2.97619 Z[#3+-0.04000]
#1=[#513+[#514-#513]*0.25004]
#2=[#517+[#518-#517]*0.25004]
#3=[#1+[#2-#1]*0.75977]
X6.12871 Y-2.98057 Z[#3+-0.04000]
#1=[#513+[#514-#513]*0.23614]
#2=[#517+[#518-#517]*0.23614]
#3=[#1+[#2-#1]*0.75598]
X6.12725 Y-2.98473 Z[#3+-0.04000]
#1=[#513+[#514-#513]*0.22368]
#2=[#517+[#518-#517]*0.22368]
#3=[#1+[#2-#1]*0.74987]
X6.12491 Y-2.98846 Z[#3+-0.04000]
#1=[#513+[#514-#513]*0.21327]
#2=[#517+[#518-#517]*0.21327]
#3=[#1+[#2-#1]*0.74175]
X6.12179 Y-2.99158 Z[#3+-0.04000]
#1=[#513+[#514-#513]*0.20544]
#2=[#517+[#518-#517]*0.20544]
#3=[#1+[#2-#1]*0.73203]
X6.11806 Y-2.99392 Z[#3+-0.04000]
#1=[#513+[#514-#513]*0.20058]
#2=[#517+[#518-#517]*0.20058]
#3=[#1+[#2-#1]*0.72120]
X6.11390 Y-2.99538 Z[#3+-0.04000]
#1=[#513+[#514-#513]*0.19893]
#2=[#517+[#518-#517]*0.19893]
#3=[#1+[#2-#1]*0.70979]
X6.10952 Y-2.99587 Z[#3+-0.04000]
#1=[#513+[#514-#513]*0.20058]
#2=[#517+[#518-#517]*0.20058]
#3=[#1+[#2-#1]*0.69838]
X6.10514 Y-2.99538 Z[#3+-0.04000]
#1=[#513+[#514-#513]*0.20544]
#2=[#517+[#518-#517]*0.20544]
#3=[#1+[#2-#1]*0.68754]
X6.10098 Y-2.99392 Z[#3+-0.04000]
#1=[#513+[#514-#513]*0.21327]
#2=[#517+[#518-#517]*0.21327]
#3=[#1+[#2-#1]*0.67782]
X6.09725 Y-2.99158 Z[#3+-0.04000]
#1=[#513+[#514-#513]*0.22368]
#2=[#517+[#518-#517]*0.22368]
#3=[#1+[#2-#1]*0.66971]
X6.09413 Y-2.98846 Z[#3+-0.04000]
#1=[#513+[#514-#513]*0.23614]
#2=[#517+[#518-#517]*0.23614]
#3=[#1+[#2-#1]*0.66360]
X6.09178 Y-2.98473 Z[#3+-0.04000]
#1=[#513+[#514-#513]*0.25004]
#2=[#517+[#518-#517]*0.25004]
#3=[#1+[#2-#1]*0.65981]
X6.09033 Y-2.98057 Z[#3+-0.04000]
#1=[#513+[#514-#513]*0.26466]
#2=[#517+[#518-#517]*0.26466]
#3=[#1+[#2-#1]*0.65852]
X6.08983 Y-2.97619 Z[#3+-0.04000]
#1=[#513+[#514-#513]*1.00000]
#2=[#517+[#518-#517]*1.00000]
#3=[#1+[#2-#1]*0.65852]
X6.08983 Y-2.75598 Z[#3+-0.04000]
#1=[#514+[#515-#514]*0.12372]
#2=[#518+[#519-#518]*0.12372]
#3=[#1+[#2-#1]*0.65852]
X6.08983 Y-2.71893 Z[#3+-0.04000]
#1=[#514+[#515-#514]*0.24922]
#2=[#518+[#519-#518]*0.24922]
#3=[#1+[#2-#1]*0.60957]
X6.07104 Y-2.68134 Z[#3+-0.04000]
#1=[#514+[#515-#514]*0.31199]
#2=[#518+[#519-#518]*0.31199]
#3=[#1+[#2-#1]*0.51168]
X6.03345 Y-2.66255 Z[#3+-0.04000]
#1=[#514+[#515-#514]*0.31199]
#2=[#518+[#519-#518]*0.31199]
#3=[#1+[#2-#1]*0.34986]
X5.97132 Y-2.66255 Z[#3+-0.04000]
#1=[#514+[#515-#514]*0.24419]
#2=[#518+[#519-#518]*0.24419]
#3=[#1+[#2-#1]*0.24410]
X5.93071 Y-2.68285 Z[#3+-0.04000]
#1=[#514+[#515-#514]*0.19148]
#2=[#518+[#519-#518]*0.19148]
#3=[#1+[#2-#1]*0.20299]
X5.91493 Y-2.69863 Z[#3+-0.04000]
#1=[#513+[#514-#513]*1.00000]
#2=[#517+[#518-#517]*1.00000]
#3=[#1+[#2-#1]*0.20299]
X5.91493 Y-2.75598 Z[#3+-0.04000]
#1=[#513+[#514-#513]*0.26466]
#2=[#517+[#518-#517]*0.26466]
#3=[#1+[#2-#1]*0.20299]
X5.91493 Y-2.97619 Z[#3+-0.04000]
#1=[#513+[#514-#513]*0.25004]
#2=[#517+[#518-#517]*0.25004]
#3=[#1+[#2-#1]*0.20171]
X5.91443 Y-2.98057 Z[#3+-0.04000]
#1=[#513+[#514-#513]*0.23614]
#2=[#517+[#518-#517]*0.23614]
#3=[#1+[#2-#1]*0.19791]
X5.91298 Y-2.98473 Z[#3+-0.04000]
#1=[#513+[#514-#513]*0.22368]
#2=[#517+[#518-#517]*0.22368]
#3=[#1+[#2-#1]*0.19181]
X5.91063 Y-2.98846 Z[#3+-0.04000]
#1=[#513+[#514-#513]*0.21327]
#2=[#517+[#518-#517]*0.21327]
#3=[#1+[#2-#1]*0.18369]
X5.90751 Y-2.99158 Z[#3+-0.04000]
#1=[#513+[#514-#513]*0.20544]
#2=[#517+[#518-#517]*0.20544]
#3=[#1+[#2-#1]*0.17397]
X5.90378 Y-2.99392 Z[#3+-0.04000]
#1=[#513+[#514-#513]*0.20058]
#2=[#517+[#518-#517]*0.20058]
#3=[#1+[#2-#1]*0.16313]
X5.89962 Y-2.99538 Z[#3+-0.04000]
#1=[#513+[#514-#513]*0.19893]
#2=[#517+[#518-#517]*0.19893]
#3=[#1+[#2-#1]*0.15173]
X5.89524 Y-2.99587 Z[#3+-0.04000]
#1=[#513+[#514-#513]*0.20058]
#2=[#517+[#518-#517]*0.20058]
#3=[#1+[#2-#1]*0.14032]
X5.89086 Y-2.99538 Z[#3+-0.04000]
#1=[#513+[#514-#513]*0.20544]
#2=[#517+[#518-#517]*0.20544]
#3=[#1+[#2-#1]*0.12948]
X5.88670 Y-2.99392 Z[#3+-0.04000]
#1=[#513+[#514-#513]*0.21327]
#2=[#517+[#518-#517]*0.21327]
#3=[#1+[#2-#1]*0.11976]
X5.88297 Y-2.99158 Z[#3+-0.04000]
#1=[#513+[#514-#513]*0.22368]
#2=[#517+[#518-#517]*0.22368]
#3=[#1+[#2-#1]*0.11164]
X5.87985 Y-2.98846 Z[#3+-0.04000]
#1=[#513+[#514-#513]*0.23614]
#2=[#517+[#518-#517]*0.23614]
#3=[#1+[#2-#1]*0.10553]
X5.87750 Y-2.98473 Z[#3+-0.04000]
#1=[#513+[#514-#513]*0.25004]
#2=[#517+[#518-#517]*0.25004]
#3=[#1+[#2-#1]*0.10174]
X5.87605 Y-2.98057 Z[#3+-0.04000]
#1=[#513+[#514-#513]*0.26466]
#2=[#517+[#518-#517]*0.26466]
#3=[#1+[#2-#1]*0.10046]
X5.87555 Y-2.97619 Z[#3+-0.04000]
G04 P0 ( dwell for no time -- G64 should not smooth over this point )
G00 Z0.08000 ( retract )

G00 X6.25650 Y-2.64286 ( rapid move to begin. )
G01 F180.00000
( Mill infeed pass 1/1 )
#1=[#518+[#519-#518]*0.37772]
#2=[#522+[#523-#522]*0.37772]
#3=[#1+[#2-#1]*0.09259]
G01 Z[-0.04000+#111]
G04 P0 ( dwell for no time -- G64 should not smooth over this point )
G01 F360.00000
#1=[#518+[#519-#518]*0.36309]
#2=[#522+[#523-#522]*0.36309]
#3=[#1+[#2-#1]*0.09388]
X6.25700 Y-2.64724 Z[#3+-0.04000]
#1=[#518+[#519-#518]*0.34920]
#2=[#522+[#523-#522]*0.34920]
#3=[#1+[#2-#1]*0.09767]
X6.25845 Y-2.65140 Z[#3+-0.04000]
#1=[#518+[#519-#518]*0.33674]
#2=[#522+[#523-#522]*0.33674]
#3=[#1+[#2-#1]*0.10378]
X6.26080 Y-2.65513 Z[#3+-0.04000]
#1=[#518+[#519-#518]*0.32633]
#2=[#522+[#523-#522]*0.32633]
#3=[#1+[#2-#1]*0.11190]
X6.26392 Y-2.65825 Z[#3+-0.04000]
#1=[#518+[#519-#518]*0.31850]
#2=[#522+[#523-#522]*0.31850]
#3=[#1+[#2-#1]*0.12161]
X6.26765 Y-2.66059 Z[#3+-0.04000]
#1=[#518+[#519-#518]*0.31364]
#2=[#522+[#523-#522]*0.31364]
#3=[#1+[#2-#1]*0.13245]
X6.27181 Y-2.66205 Z[#3+-0.04000]
#1=[#518+[#519-#518]*0.31199]
#2=[#522+[#523-#522]*0.31199]
#3=[#1+[#2-#1]*0.14386]
X6.27619 Y-2.66255 Z[#3+-0.04000]
#1=[#518+[#519-#518]*0.31199]
#2=[#522+[#523-#522]*0.31199]
#3=[#1+[#2-#1]*0.27862]
X6.32793 Y-2.66255 Z[#3+-0.04000]
#1=[#517+[#518-#517]*1.00000]
#2=[#521+[#522-#521]*1.00000]
#3=[#1+[#2-#1]*0.27862]
X6.32793 Y-2.75598 Z[#3+-0.04000]
#1=[#517+[#518-#517]*0.50318]
#2=[#521+[#522-#521]*0.50318]
#3=[#1+[#2-#1]*0.27862]
X6.32793 Y-2.90476 Z[#3+-0.04000]
#1=[#517+[#518-#517]*0.48808]
#2=[#521+[#522-#521]*0.48808]
#3=[#1+[#2-#1]*0.27999]
X6.32846 Y-2.90928 Z[#3+-0.04000]
#1=[#517+[#518-#517]*0.47379]
#2=[#521+[#522-#521]*0.47379]
#3=[#1+[#2-#1]*0.28404]
X6.33001 Y-2.91356 Z[#3+-0.04000]
#1=[#517+[#518-#517]*0.31477]
#2=[#521+[#522-#521]*0.31477]
#3=[#1+[#2-#1]*0.34605]
X6.35382 Y-2.96118 Z[#3+-0.04000]
#1=[#517+[#518-#517]*0.30293]
#2=[#521+[#522-#521]*0.30293]
#3=[#1+[#2-#1]*0.35198]
X6.35610 Y-2.96473 Z[#3+-0.04000]
#1=[#517+[#518-#517]*0.29298]
#2=[#521+[#522-#521]*0.29298]
#3=[#1+[#2-#1]*0.35974]
X6.35908 Y-2.96771 Z[#3+-0.04000]
#1=[#517+[#518-#517]*0.28538]
#2=[#521+[#522-#521]*0.28538]
#3=[#1+[#2-#1]*0.36897]
X6.36263 Y-2.96999 Z[#3+-0.04000]
#1=[#517+[#518-#517]*0.20587]
#2=[#521+[#522-#521]*0.20587]
#3=[#1+[#2-#1]*0.49299]
X6.41025 Y-2.99380 Z[#3+-0.04000]
#1=[#517+[#518-#517]*0.20069]
#2=[#521+[#522-#521]*0.20069]
#3=[#1+[#2-#1]*0.50414]
X6.41453 Y-2.99535 Z[#3+-0.04000]
#1=[#517+[#518-#517]*0.19893]
#2=[#521+[#522-#521]*0.19893]
#3=[#1+[#2-#1]*0.51592]
X6.41905 Y-2.99587 Z[#3+-0.04000]
#1=[#517+[#518-#517]*0.19893]
#2=[#521+[#522-#521]*0.19893]
#3=[#1+[#2-#1]*0.63994]
X6.46667 Y-2.99587 Z[#3+-0.04000]
#1=[#517+[#518-#517]*0.20058]
#2=[#521+[#522-#521]*0.20058]
#3=[#1+[#2-#1]*0.65135]
X6.47105 Y-2.99538 Z[#3+-0.04000]
#1=[#517+[#518-#517]*0.20544]
#2=[#521+[#522-#521]*0.20544]
#3=[#1+[#2-#1]*0.66219]
X6.47521 Y-2.99392 Z[#3+-0.04000]
#1=[#517+[#518-#517]*0.21327]
#2=[#521+[#522-#521]*0.21327]
#3=[#1+[#2-#1]*0.67191]
X6.47894 Y-2.99158 Z[#3+-0.04000]
#1=[#517+[#518-#517]*0.22368]
#2=[#521+[#522-#521]*0.22368]
#3=[#1+[#2-#1]*0.68002]
X6.48206 Y-2.98846 Z[#3+-0.04000]
#1=[#517+[#518-#517]*0.23614]
#2=[#521+[#522-#521]*0.23614]
#3=[#1+[#2-#1]*0.68613]
X6.48440 Y-2.98473 Z[#3+-0.04000]
#1=[#517+[#518-#517]*0.25004]
#2=[#521+[#522-#521]*0.25004]
#3=[#1+[#2-#1]*0.68992]
X6.48586 Y-2.98057 Z[#3+-0.04000]
#1=[#517+[#518-#517]*0.26466]
#2=[#521+[#522-#521]*0.26466]
#3=[#1+[#2-#1]*0.69121]
X6.48635 Y-2.97619 Z[#3+-0.04000]
#1=[#517+[#518-#517]*0.27929]
#2=[#521+[#522-#521]*0.27929]
#3=[#1+[#2-#1]*0.68992]
X6.48586 Y-2.97181 Z[#3+-0.04000]
#1=[#517+[#518-#517]*0.29318]
#2=[#521+[#522-#521]*0.29318]
#3=[#1+[#2-#1]*0.68613]
X6.48440 Y-2.96765 Z[#3+-0.04000]
#1=[#517+[#518-#517]*0.30565]
#2=[#521+[#522-#521]*0.30565]
#3=[#1+[#2-#1]*0.68002]
X6.48206 Y-2.96392 Z[#3+-0.04000]
#1=[#517+[#518-#517]*0.31605]
#2=[#521+[#522-#521]*0.31605]
#3=[#1+[#2-#1]*0.67191]
X6.47894 Y-2.96080 Z[#3+-0.04000]
#1=[#517+[#518-#517]*0.32389]
#2=[#521+[#522-#521]*0.32389]
#3=[#1+[#2-#1]*0.66219]
X6.47521 Y-2.95845 Z[#3+-0.04000]
#1=[#517+[#518-#517]*0.32875]
#2=[#521+[#522-#521]*0.32875]
#3=[#1+[#2-#1]*0.65135]
X6.47105 Y-2.95700 Z[#3+-0.04000]
#1=[#517+[#518-#517]*0.33040]
#2=[#521+[#522-#521]*0.33040]
#3=[#1+[#2-#1]*0.63994]
X6.46667 Y-2.95650 Z[#3+-0.04000]
#1=[#517+[#518-#517]*0.33040]
#2=[#521+[#522-#521]*0.33040]
#3=[#1+[#2-#1]*0.52802]
X6.42370 Y-2.95650 Z[#3+-0.04000]
#1=[#517+[#518-#517]*0.39316]
#2=[#521+[#522-#521]*0.39316]
#3=[#1+[#2-#1]*0.43011]
X6.38610 Y-2.93771 Z[#3+-0.04000]
#1=[#517+[#518-#517]*0.51870]
#2=[#521+[#522-#521]*0.51870]
#3=[#1+[#2-#1]*0.38116]
X6.36730 Y-2.90011 Z[#3+-0.04000]
#1=[#517+[#518-#517]*1.00000]
#2=[#521+[#522-#521]*1.00000]
#3=[#1+[#2-#1]*0.38116]
X6.36730 Y-2.75598 Z[#3+-0.04000]
#1=[#518+[#519-#518]*0.31199]
#2=[#522+[#523-#522]*0.31199]
#3=[#1+[#2-#1]*0.38116]
X6.36730 Y-2.66255 Z[#3+-0.04000]
#1=[#518+[#519-#518]*0.31199]
#2=[#522+[#523-#522]*0.31199]
#3=[#1+[#2-#1]*0.63994]
X6.46667 Y-2.66255 Z[#3+-0.04000]
#1=[#518+[#519-#518]*0.31364]
#2=[#522+[#523-#522]*0.31364]
#3=[#1+[#2-#1]*0.65135]
X6.47105 Y-2.66205 Z[#3+-0.04000]
#1=[#518+[#519-#518]*0.31850]
#2=[#522+[#523-#522]*0.31850]
#3=[#1+[#2-#1]*0.66219]
X6.47521 Y-2.66059 Z[#3+-0.04000]
#1=[#518+[#519-#518]*0.32633]
#2=[#522+[#523-#522]*0.32633]
#3=[#1+[#2-#1]*0.67191]
X6.47894 Y-2.65825 Z[#3+-0.04000]
#1=[#518+[#519-#518]*0.33674]
#2=[#522+[#523-#522]*0.33674]
#3=[#1+[#2-#1]*0.68002]
X6.48206 Y-2.65513 Z[#3+-0.04000]
#1=[#518+[#519-#518]*0.34920]
#2=[#522+[#523-#522]*0.34920]
#3=[#1+[#2-#1]*0.68613]
X6.48440 Y-2.65140 Z[#3+-0.04000]
#1=[#518+[#519-#518]*0.36309]
#2=[#522+[#523-#522]*0.36309]
#3=[#1+[#2-#1]*0.68992]
X6.48586 Y-2.64724 Z[#3+-0.04000]
#1=[#518+[#519-#518]*0.37772]
#2=[#522+[#523-#522]*0.37772]
#3=[#1+[#2-#1]*0.69121]
X6.48635 Y-2.64286 Z[#3+-0.04000]
#1=[#518+[#519-#518]*0.39235]
#2=[#522+[#523-#522]*0.39235]
#3=[#1+[#2-#1]*0.68992]
X6.48586 Y-2.63848 Z[#3+-0.04000]
#1=[#518+[#519-#518]*0.40624]
#2=[#522+[#523-#522]*0.40624]
#3=[#1+[#2-#1]*0.68613]
X6.48440 Y-2.63432 Z[#3+-0.04000]
#1=[#518+[#519-#518]*0.41870]
#2=[#522+[#523-#522]*0.41870]
#3=[#1+[#2-#1]*0.68002]
X6.48206 Y-2.63059 Z[#3+-0.04000]
#1=[#518+[#519-#518]*0.42911]
#2=[#522+[#523-#522]*0.42911]
#3=[#1+[#2-#1]*0.67191]
X6.47894 Y-2.62747 Z[#3+-0.04000]
#1=[#518+[#519-#518]*0.43694]
#2=[#522+[#523-#522]*0.43694]
#3=[#1+[#2-#1]*0.66219]
X6.47521 Y-2.62512 Z[#3+-0.04000]
#1=[#518+[#519-#518]*0.44180]
#2=[#522+[#523-#522]*0.44180]
#3=[#1+[#2-#1]*0.65135]
X6.47105 Y-2.62367 Z[#3+-0.04000]
#1=[#518+[#519-#518]*0.44345]
#2=[#522+[#523-#522]*0.44345]
#3=[#1+[#2-#1]*0.63994]
X6.46667 Y-2.62317 Z[#3+-0.04000]
#1=[#518+[#519-#518]*0.44345]
#2=[#522+[#523-#522]*0.44345]
#3=[#1+[#2-#1]*0.38116]
X6.36730 Y-2.62317 Z[#3+-0.04000]
#1=[#518+[#519-#518]*0.93426]
#2=[#522+[#523-#522]*0.93426]
#3=[#1+[#2-#1]*0.38116]
X6.36730 Y-2.47619 Z[#3+-0.04000]
#1=[#518+[#519-#518]*0.94889]
#2=[#522+[#523-#522]*0.94889]
#3=[#1+[#2-#1]*0.37987]
X6.36681 Y-2.47181 Z[#3+-0.04000]
#1=[#518+[#519-#518]*0.96279]
#2=[#522+[#523-#522]*0.96279]
#3=[#1+[#2-#1]*0.37608]
X6.36536 Y-2.46765 Z[#3+-0.04000]
#1=[#518+[#519-#518]*0.97525]
#2=[#522+[#523-#522]*0.97525]
#3=[#1+[#2-#1]*0.36997]
X6.36301 Y-2.46392 Z[#3+-0.04000]
#1=[#518+[#519-#518]*0.98566]
#2=[#522+[#523-#522]*0.98566]
#3=[#1+[#2-#1]*0.36186]
X6.35989 Y-2.46080 Z[#3+-0.04000]
#1=[#518+[#519-#518]*0.99349]
#2=[#522+[#523-#522]*0.99349]
#3=[#1+[#2-#1]*0.35214]
X6.35616 Y-2.45845 Z[#3+-0.04000]
#1=[#518+[#519-#518]*0.99835]
#2=[#522+[#523-#522]*0.99835]
#3=[#1+[#2-#1]*0.34130]
X6.35200 Y-2.45700 Z[#3+-0.04000]
#1=[#519+[#520-#519]*0.00000]
#2=[#523+[#524-#523]*0.00000]
#3=[#1+[#2-#1]*0.32989]
X6.34762 Y-2.45650 Z[#3+-0.04000]
#1=[#518+[#519-#518]*0.99835]
#2=[#522+[#523-#522]*0.99835]
#3=[#1+[#2-#1]*0.31848]
X6.34324 Y-2.45700 Z[#3+-0.04000]
#1=[#518+[#519-#518]*0.99349]
#2=[#522+[#523-#522]*0.99349]
#3=[#1+[#2-#1]*0.30765]
X6.33908 Y-2.45845 Z[#3+-0.04000]
#1=[#518+[#519-#518]*0.98566]
#2=[#522+[#523-#522]*0.98566]
#3=[#1+[#2-#1]*0.29793]
X6.33535 Y-2.46080 Z[#3+-0.04000]
#1=[#518+[#519-#518]*0.97525]
#2=[#522+[#523-#522]*0.97525]
#3=[#1+[#2-#1]*0.28981]
X6.33223 Y-2.46392 Z[#3+-0.04000]
#1=[#518+[#519-#518]*0.96279]
#2=[#522+[#523-#522]*0.96279]
#3=[#1+[#2-#1]*0.28370]
X6.32988 Y-2.46765 Z[#3+-0.04000]
#1=[#518+[#519-#518]*0.94889]
#2=[#522+[#523-#522]*0.94889]
#3=[#1+[#2-#1]*0.27991]
X6.32843 Y-2.47181 Z[#3+-0.04000]
#1=[#518+[#519-#518]*0.93426]
#2=[#522+[#523-#522]*0.93426]
#3=[#1+[#2-#1]*0.27862]
X6.32793 Y-2.47619 Z[#3+-0.04000]
#1=[#518+[#519-#518]*0.44345]
#2=[#522+[#523-#522]*0.44345]
#3=[#1+[#2-#1]*0.27862]
X6.32793 Y-2.62317 Z[#3+-0.04000]
#1=[#518+[#519-#518]*0.44345]
#2=[#522+[#523-#522]*0.44345]
#3=[#1+[#2-#1]*0.14386]
X6.27619 Y-2.62317 Z[#3+-0.04000]
#1=[#518+[#519-#518]*0.44180]
#2=[#522+[#523-#522]*0.44180]
#3=[#1+[#2-#1]*0.13245]
X6.27181 Y-2.62367 Z[#3+-0.04000]
#1=[#518+[#519-#518]*0.43694]
#2=[#522+[#523-#522]*0.43694]
#3=[#1+[#2-#1]*0.12161]
X6.26765 Y-2.62512 Z[#3+-0.04000]
#1=[#518+[#519-#518]*0.42911]
#2=[#522+[#523-#522]*0.42911]
#3=[#1+[#2-#1]*0.11190]
X6.26392 Y-2.62747 Z[#3+-0.04000]
#1=[#518+[#519-#518]*0.41870]
#2=[#522+[#523-#522]*0.41870]
#3=[#1+[#2-#1]*0.10378]
X6.26080 Y-2.63059 Z[#3+-0.04000]
#1=[#518+[#519-#518]*0.40624]
#2=[#522+[#523-#522]*0.40624]
#3=[#1+[#2-#1]*0.09767]
X6.25845 Y-2.63432 Z[#3+-0.04000]
#1=[#518+[#519-#518]*0.39235]
#2=[#522+[#523-#522]*0.39235]
#3=[#1+[#2-#1]*0.09388]
X6.25700 Y-2.63848 Z[#3+-0.04000]
#1=[#518+[#519-#518]*0.37772]
#2=[#522+[#523-#522]*0.37772]
#3=[#1+[#2-#1]*0.09259]
X6.25650 Y-2.64286 Z[#3+-0.04000]
G04 P0 ( dwell for no time -- G64 should not smooth over this point )
G00 Z0.08000 ( retract )

G00 X6.49508 Y-3.30000 ( rapid move to begin. )
G01 F180.00000
( Mill infeed pass 1/1 )
#1=[#516+[#517-#516]*0.18339]
#2=[#520+[#521-#520]*0.18339]
#3=[#1+[#2-#1]*0.71393]
G01 Z[-0.04000+#111]
G04 P0 ( dwell for no time -- G64 should not smooth over this point )
G01 F360.00000
#1=[#516+[#517-#516]*0.17974]
#2=[#520+[#521-#520]*0.17974]
#3=[#1+[#2-#1]*0.71425]
X6.49520 Y-3.30110 Z[#3+-0.04000]
#1=[#516+[#517-#516]*0.17626]
#2=[#520+[#521-#520]*0.17626]
#3=[#1+[#2-#1]*0.71520]
X6.49557 Y-3.30213 Z[#3+-0.04000]
#1=[#516+[#517-#516]*0.17315]
#2=[#520+[#521-#520]*0.17315]
#3=[#1+[#2-#1]*0.71672]
X6.49615 Y-3.30307 Z[#3+-0.04000]
#1=[#516+[#517-#516]*0.17055]
#2=[#520+[#521-#520]*0.17055]
#3=[#1+[#2-#1]*0.71875]
X6.49693 Y-3.30385 Z[#3+-0.04000]
#1=[#516+[#517-#516]*0.16859]
#2=[#520+[#521-#520]*0.16859]
#3=[#1+[#2-#1]*0.72118]
X6.49786 Y-3.30443 Z[#3+-0.04000]
#1=[#516+[#517-#516]*0.16737]
#2=[#520+[#521-#520]*0.16737]
#3=[#1+[#2-#1]*0.72389]
X6.49890 Y-3.30480 Z[#3+-0.04000]
#1=[#516+[#517-#516]*0.16696]
#2=[#520+[#521-#520]*0.16696]
#3=[#1+[#2-#1]*0.72675]
X6.50000 Y-3.30492 Z[#3+-0.04000]
#1=[#516+[#517-#516]*0.16696]
#2=[#520+[#521-#520]*0.16696]
#3=[#1+[#2-#1]*0.84415]
X6.54508 Y-3.30492 Z[#3+-0.04000]
#1=[#516+[#517-#516]*0.01643]
#2=[#520+[#521-#520]*0.01643]
#3=[#1+[#2-#1]*0.84415]
X6.54508 Y-3.35000 Z[#3+-0.04000]
#1=[#516+[#517-#516]*0.01278]
#2=[#520+[#521-#520]*0.01278]
#3=[#1+[#2-#1]*0.84447]
X6.54520 Y-3.35109 Z[#3+-0.04000]
#1=[#516+[#517-#516]*0.00930]
#2=[#520+[#521-#520]*0.00930]
#3=[#1+[#2-#1]*0.84542]
X6.54557 Y-3.35214 Z[#3+-0.04000]
#1=[#516+[#517-#516]*0.00619]
#2=[#520+[#521-#520]*0.00619]
#3=[#1+[#2-#1]*0.84694]
X6.54615 Y-3.35307 Z[#3+-0.04000]
#1=[#516+[#517-#516]*0.00359]
#2=[#520+[#521-#520]*0.00359]
#3=[#1+[#2-#1]*0.84897]
X6.54693 Y-3.35385 Z[#3+-0.04000]
#1=[#516+[#517-#516]*0.00163]
#2=[#520+[#521-#520]*0.00163]
#3=[#1+[#2-#1]*0.85140]
X6.54786 Y-3.35443 Z[#3+-0.04000]
#1=[#516+[#517-#516]*0.00041]
#2=[#520+[#521-#520]*0.00041]
#3=[#1+[#2-#1]*0.85411]
X6.54890 Y-3.35480 Z[#3+-0.04000]
#1=[#516+[#517-#516]*0.00000]
#2=[#520+[#521-#520]*0.00000]
#3=[#1+[#2-#1]*0.85697]
X6.55000 Y-3.35492 Z[#3+-0.04000]
#1=[#516+[#517-#516]*0.00041]
#2=[#520+[#521-#520]*0.00041]
#3=[#1+[#2-#1]*0.85982]
X6.55110 Y-3.35480 Z[#3+-0.04000]
#1=[#516+[#517-#516]*0.00163]
#2=[#520+[#521-#520]*0.00163]
#3=[#1+[#2-#1]*0.86253]
X6.55213 Y-3.35443 Z[#3+-0.04000]
#1=[#516+[#517-#516]*0.00359]
#2=[#520+[#521-#520]*0.00359]
#3=[#1+[#2-#1]*0.86496]
X6.55307 Y-3.35385 Z[#3+-0.04000]
#1=[#516+[#517-#516]*0.00619]
#2=[#520+[#521-#520]*0.00619]
#3=[#1+[#2-#1]*0.86698]
X6.55385 Y-3.35307 Z[#3+-0.04000]
#1=[#516+[#517-#516]*0.00930]
#2=[#520+[#521-#520]*0.00930]
#3=[#1+[#2-#1]*0.86851]
X6.55443 Y-3.35214 Z[#3+-0.04000]
#1=[#516+[#517-#516]*0.01278]
#2=[#520+[#521-#520]*0.01278]
#3=[#1+[#2-#1]*0.86946]
X6.55480 Y-3.35109 Z[#3+-0.04000]
#1=[#516+[#517-#516]*0.01643]
#2=[#520+[#521-#520]*0.01643]
#3=[#1+[#2-#1]*0.86978]
X6.55492 Y-3.35000 Z[#3+-0.04000]
#1=[#516+[#517-#516]*0.16696]
#2=[#520+[#521-#520]*0.16696]
#3=[#1+[#2-#1]*0.86978]
X6.55492 Y-3.30492 Z[#3+-0.04000]
#1=[#516+[#517-#516]*0.16696]
#2=[#520+[#521-#520]*0.16696]
#3=[#1+[#2-#1]*0.98718]
X6.60000 Y-3.30492 Z[#3+-0.04000]
#1=[#516+[#517-#516]*0.16737]
#2=[#520+[#521-#520]*0.16737]
#3=[#1+[#2-#1]*0.99004]
X6.60109 Y-3.30480 Z[#3+-0.04000]
#1=[#516+[#517-#516]*0.16859]
#2=[#520+[#521-#520]*0.16859]
#3=[#1+[#2-#1]*0.99274]
X6.60213 Y-3.30443 Z[#3+-0.04000]
#1=[#516+[#517-#516]*0.17055]
#2=[#520+[#521-#520]*0.17055]
#3=[#1+[#2-#1]*0.99517]
X6.60307 Y-3.30385 Z[#3+-0.04000]
#1=[#516+[#517-#516]*0.17315]
#2=[#520+[#521-#520]*0.17315]
#3=[#1+[#2-#1]*0.99720]
X6.60385 Y-3.30307 Z[#3+-0.04000]
#1=[#516+[#517-#516]*0.17626]
#2=[#520+[#521-#520]*0.17626]
#3=[#1+[#2-#1]*0.99873]
X6.60443 Y-3.30213 Z[#3+-0.04000]
#1=[#516+[#517-#516]*0.17974]
#2=[#520+[#521-#520]*0.17974]
#3=[#1+[#2-#1]*0.99968]
X6.60480 Y-3.30110 Z[#3+-0.04000]
#1=[#520+[#521-#520]*0.18339]
#2=[#524+[#525-#524]*0.18339]
#3=[#1+[#2-#1]*0.00000]
X6.60492 Y-3.30000 Z[#3+-0.04000]
#1=[#516+[#517-#516]*0.18705]
#2=[#520+[#521-#520]*0.18705]
#3=[#1+[#2-#1]*0.99968]
X6.60480 Y-3.29890 Z[#3+-0.04000]
#1=[#516+[#517-#516]*0.19053]
#2=[#520+[#521-#520]*0.19053]
#3=[#1+[#2-#1]*0.99873]
X6.60443 Y-3.29786 Z[#3+-0.04000]
#1=[#516+[#517-#516]*0.19364]
#2=[#520+[#521-#520]*0.19364]
#3=[#1+[#2-#1]*0.99720]
X6.60385 Y-3.29693 Z[#3+-0.04000]
#1=[#516+[#517-#516]*0.19624]
#2=[#520+[#521-#520]*0.19624]
#3=[#1+[#2-#1]*0.99517]
X6.60307 Y-3.29615 Z[#3+-0.04000]
#1=[#516+[#517-#516]*0.19820]
#2=[#520+[#521-#520]*0.19820]
#3=[#1+[#2-#1]*0.99274]
X6.60213 Y-3.29557 Z[#3+-0.04000]
#1=[#516+[#517-#516]*0.19941]
#2=[#520+[#521-#520]*0.19941]
#3=[#1+[#2-#1]*0.99004]
X6.60109 Y-3.29520 Z[#3+-0.04000]
#1=[#516+[#517-#516]*0.19983]
#2=[#520+[#521-#520]*0.19983]
#3=[#1+[#2-#1]*0.98718]
X6.60000 Y-3.29508 Z[#3+-0.04000]
#1=[#516+[#517-#516]*0.19983]
#2=[#520+[#521-#520]*0.19983]
#3=[#1+[#2-#1]*0.86978]
X6.55492 Y-3.29508 Z[#3+-0.04000]
#1=[#516+[#517-#516]*0.35035]
#2=[#520+[#521-#520]*0.35035]
#3=[#1+[#2-#1]*0.86978]
X6.55492 Y-3.25000 Z[#3+-0.04000]
#1=[#516+[#517-#516]*0.35401]
#2=[#520+[#521-#520]*0.35401]
#3=[#1+[#2-#1]*0.86946]
X6.55480 Y-3.24890 Z[#3+-0.04000]
#1=[#516+[#517-#516]*0.35749]
#2=[#520+[#521-#520]*0.35749]
#3=[#1+[#2-#1]*0.86851]
X6.55443 Y-3.24786 Z[#3+-0.04000]
#1=[#516+[#517-#516]*0.36060]
#2=[#520+[#521-#520]*0.36060]
#3=[#1+[#2-#1]*0.86698]
X6.55385 Y-3.24693 Z[#3+-0.04000]
#1=[#516+[#517-#516]*0.36320]
#2=[#520+[#521-#520]*0.36320]
#3=[#1+[#2-#1]*0.86496]
X6.55307 Y-3.24615 Z[#3+-0.04000]
#1=[#516+[#517-#516]*0.36516]
#2=[#520+[#521-#520]*0.36516]
#3=[#1+[#2-#1]*0.86253]
X6.55213 Y-3.24557 Z[#3+-0.04000]
#1=[#516+[#517-#516]*0.36637]
#2=[#520+[#521-#520]*0.36637]
#3=[#1+[#2-#1]*0.85982]
X6.55110 Y-3.24520 Z[#3+-0.04000]
#1=[#516+[#517-#516]*0.36679]
#2=[#520+[#521-#520]*0.36679]
#3=[#1+[#2-#1]*0.85697]
X6.55000 Y-3.24508 Z[#3+-0.04000]
#1=[#516+[#517-#516]*0.36637]
#2=[#520+[#521-#520]*0.36637]
#3=[#1+[#2-#1]*0.85411]
X6.54890 Y-3.24520 Z[#3+-0.04000]
#1=[#516+[#517-#516]*0.36516]
#2=[#520+[#521-#520]*0.36516]
#3=[#1+[#2-#1]*0.85140]
X6.54786 Y-3.24557 Z[#3+-0.04000]
#1=[#516+[#517-#516]*0.36320]
#2=[#520+[#521-#520]*0.36320]
#3=[#1+[#2-#1]*0.84897]
X6.54693 Y-3.24615 Z[#3+-0.04000]
#1=[#516+[#517-#516]*0.36060]
#2=[#520+[#521-#520]*0.36060]
#3=[#1+[#2-#1]*0.84694]
X6.54615 Y-3.24693 Z[#3+-0.04000]
#1=[#516+[#517-#516]*0.35749]
#2=[#520+[#521-#520]*0.35749]
#3=[#1+[#2-#1]*0.84542]
X6.54557 Y-3.24786 Z[#3+-0.04000]
#1=[#516+[#517-#516]*0.35401]
#2=[#520+[#521-#520]*0.35401]
#3=[#1+[#2-#1]*0.84447]
X6.54520 Y-3.24890 Z[#3+-0.04000]
#1=[#516+[#517-#516]*0.35035]
#2=[#520+[#521-#520]*0.35035]
#3=[#1+[#2-#1]*0.84415]
X6.54508 Y-3.25000 Z[#3+-0.04000]
#1=[#516+[#517-#516]*0.19983]
#2=[#520+[#521-#520]*0.19983]
#3=[#1+[#2-#1]*0.84415]
X6.54508 Y-3.29508 Z[#3+-0.04000]
#1=[#516+[#517-#516]*0.19983]
#2=[#520+[#521-#520]*0.19983]
#3=[#1+[#2-#1]*0.72675]
X6.50000 Y-3.29508 Z[#3+-0.04000]
#1=[#516+[#517-#516]*0.19941]
#2=[#520+[#521-#520]*0.19941]
#3=[#1+[#2-#1]*0.72389]
X6.49890 Y-3.29520 Z[#3+-0.04000]
#1=[#516+[#517-#516]*0.19820]
#2=[#520+[#521-#520]*0.19820]
#3=[#1+[#2-#1]*0.72118]
X6.49786 Y-3.29557 Z[#3+-0.04000]
#1=[#516+[#517-#516]*0.19624]
#2=[#520+[#521-#520]*0.19624]
#3=[#1+[#2-#1]*0.71875]
X6.49693 Y-3.29615 Z[#3+-0.04000]
#1=[#516+[#517-#516]*0.19364]
#2=[#520+[#521-#520]*0.19364]
#3=[#1+[#2-#1]*0.71672]
X6.49615 Y-3.29693 Z[#3+-0.04000]
#1=[#516+[#517-#516]*0.19053]
#2=[#520+[#521-#520]*0.19053]
#3=[#1+[#2-#1]*0.71520]
X6.49557 Y-3.29786 Z[#3+-0.04000]
#1=[#516+[#517-#516]*0.18705]
#2=[#520+[#521-#520]*0.18705]
#3=[#1+[#2-#1]*0.71425]
X6.49520 Y-3.29890 Z[#3+-0.04000]
#1=[#516+[#517-#516]*0.18339]
#2=[#520+[#521-#520]*0.18339]
#3=[#1+[#2-#1]*0.71393]
X6.49508 Y-3.30000 Z[#3+-0.04000]

G04 P0 ( dwell for no time -- G64 should not smooth over this point )
G00 Z1.000000 ( retract )

M5 ( Spindle off. )
G04 P1.000000
M9 ( Coolant off. )
M2 ( Program end. )

