( pcb2gcode 1.3.2 )
( Gcode for custom )

G94 ( Inches per minute feed rate. )
G20 ( Units == INCHES. )

G90 ( Absolute coordinates. )
G00 S12000 ( RPM spindle speed. )
G64 P0.00040 ( set maximum deviation from commanded toolpath )
G01 F360.00000 ( Feedrate. )

#118 = #5211
#119 = #5212

(MSG, Attach the probe tool)
M0 ( Temporary machine stop. )
G0 Z0.080 ( Move Z to safe height )
G0 X4.68308 Y-3.35689 ( Move XY to start point )
G0 Z0.080 ( Move Z to probe height )
G38.2 Z-0.1 F2.362205 ( Z-probe )
#500 = 0 ( Probe point [0, 0] is our reference )
G92 Z0 ( Set the current Z as zero-value )

( We now start the real probing: move the Z axis to the probing height, move to )
( the probing XY position, probe it and save the result, parameter #2002, )
( in a numbered parameter; we will make 21 probes on the X-axis and )
( 9 probes on the Y-axis, for a grand total of 189 probes )

G0 Z0.080
X4.68308 Y-2.99911
G38.2 Z-0.1 F2.362205
#501=#2002
G0 Z0.080
X4.68308 Y-2.64132
G38.2 Z-0.1 F2.362205
#502=#2002
G0 Z0.080
X4.68308 Y-2.28353
G38.2 Z-0.1 F2.362205
#503=#2002
G0 Z0.080
X4.68308 Y-1.92575
G38.2 Z-0.1 F2.362205
#504=#2002
G0 Z0.080
X4.68308 Y-1.56796
G38.2 Z-0.1 F2.362205
#505=#2002
G0 Z0.080
X4.68308 Y-1.21017
G38.2 Z-0.1 F2.362205
#506=#2002
G0 Z0.080
X4.68308 Y-0.85239
G38.2 Z-0.1 F2.362205
#507=#2002
G0 Z0.080
X4.68308 Y-0.49460
G38.2 Z-0.1 F2.362205
#508=#2002
G0 Z0.080
X5.06526 Y-0.49460
G38.2 Z-0.1 F2.362205
#517=#2002
G0 Z0.080
X5.06526 Y-0.85239
G38.2 Z-0.1 F2.362205
#516=#2002
G0 Z0.080
X5.06526 Y-1.21017
G38.2 Z-0.1 F2.362205
#515=#2002
G0 Z0.080
X5.06526 Y-1.56796
G38.2 Z-0.1 F2.362205
#514=#2002
G0 Z0.080
X5.06526 Y-1.92575
G38.2 Z-0.1 F2.362205
#513=#2002
G0 Z0.080
X5.06526 Y-2.28353
G38.2 Z-0.1 F2.362205
#512=#2002
G0 Z0.080
X5.06526 Y-2.64132
G38.2 Z-0.1 F2.362205
#511=#2002
G0 Z0.080
X5.06526 Y-2.99911
G38.2 Z-0.1 F2.362205
#510=#2002
G0 Z0.080
X5.06526 Y-3.35689
G38.2 Z-0.1 F2.362205
#509=#2002
G0 Z0.080
X5.44744 Y-3.35689
G38.2 Z-0.1 F2.362205
#518=#2002
G0 Z0.080
X5.44744 Y-2.99911
G38.2 Z-0.1 F2.362205
#519=#2002
G0 Z0.080
X5.44744 Y-2.64132
G38.2 Z-0.1 F2.362205
#520=#2002
G0 Z0.080
X5.44744 Y-2.28353
G38.2 Z-0.1 F2.362205
#521=#2002
G0 Z0.080
X5.44744 Y-1.92575
G38.2 Z-0.1 F2.362205
#522=#2002
G0 Z0.080
X5.44744 Y-1.56796
G38.2 Z-0.1 F2.362205
#523=#2002
G0 Z0.080
X5.44744 Y-1.21017
G38.2 Z-0.1 F2.362205
#524=#2002
G0 Z0.080
X5.44744 Y-0.85239
G38.2 Z-0.1 F2.362205
#525=#2002
G0 Z0.080
X5.44744 Y-0.49460
G38.2 Z-0.1 F2.362205
#526=#2002
G0 Z0.080
X5.82962 Y-0.49460
G38.2 Z-0.1 F2.362205
#535=#2002
G0 Z0.080
X5.82962 Y-0.85239
G38.2 Z-0.1 F2.362205
#534=#2002
G0 Z0.080
X5.82962 Y-1.21017
G38.2 Z-0.1 F2.362205
#533=#2002
G0 Z0.080
X5.82962 Y-1.56796
G38.2 Z-0.1 F2.362205
#532=#2002
G0 Z0.080
X5.82962 Y-1.92575
G38.2 Z-0.1 F2.362205
#531=#2002
G0 Z0.080
X5.82962 Y-2.28353
G38.2 Z-0.1 F2.362205
#530=#2002
G0 Z0.080
X5.82962 Y-2.64132
G38.2 Z-0.1 F2.362205
#529=#2002
G0 Z0.080
X5.82962 Y-2.99911
G38.2 Z-0.1 F2.362205
#528=#2002
G0 Z0.080
X5.82962 Y-3.35689
G38.2 Z-0.1 F2.362205
#527=#2002
G0 Z0.080
X6.21180 Y-3.35689
G38.2 Z-0.1 F2.362205
#536=#2002
G0 Z0.080
X6.21180 Y-2.99911
G38.2 Z-0.1 F2.362205
#537=#2002
G0 Z0.080
X6.21180 Y-2.64132
G38.2 Z-0.1 F2.362205
#538=#2002
G0 Z0.080
X6.21180 Y-2.28353
G38.2 Z-0.1 F2.362205
#539=#2002
G0 Z0.080
X6.21180 Y-1.92575
G38.2 Z-0.1 F2.362205
#540=#2002
G0 Z0.080
X6.21180 Y-1.56796
G38.2 Z-0.1 F2.362205
#541=#2002
G0 Z0.080
X6.21180 Y-1.21017
G38.2 Z-0.1 F2.362205
#542=#2002
G0 Z0.080
X6.21180 Y-0.85239
G38.2 Z-0.1 F2.362205
#543=#2002
G0 Z0.080
X6.21180 Y-0.49460
G38.2 Z-0.1 F2.362205
#544=#2002
G0 Z0.080
X6.59398 Y-0.49460
G38.2 Z-0.1 F2.362205
#553=#2002
G0 Z0.080
X6.59398 Y-0.85239
G38.2 Z-0.1 F2.362205
#552=#2002
G0 Z0.080
X6.59398 Y-1.21017
G38.2 Z-0.1 F2.362205
#551=#2002
G0 Z0.080
X6.59398 Y-1.56796
G38.2 Z-0.1 F2.362205
#550=#2002
G0 Z0.080
X6.59398 Y-1.92575
G38.2 Z-0.1 F2.362205
#549=#2002
G0 Z0.080
X6.59398 Y-2.28353
G38.2 Z-0.1 F2.362205
#548=#2002
G0 Z0.080
X6.59398 Y-2.64132
G38.2 Z-0.1 F2.362205
#547=#2002
G0 Z0.080
X6.59398 Y-2.99911
G38.2 Z-0.1 F2.362205
#546=#2002
G0 Z0.080
X6.59398 Y-3.35689
G38.2 Z-0.1 F2.362205
#545=#2002
G0 Z0.080
X6.97617 Y-3.35689
G38.2 Z-0.1 F2.362205
#554=#2002
G0 Z0.080
X6.97617 Y-2.99911
G38.2 Z-0.1 F2.362205
#555=#2002
G0 Z0.080
X6.97617 Y-2.64132
G38.2 Z-0.1 F2.362205
#556=#2002
G0 Z0.080
X6.97617 Y-2.28353
G38.2 Z-0.1 F2.362205
#557=#2002
G0 Z0.080
X6.97617 Y-1.92575
G38.2 Z-0.1 F2.362205
#558=#2002
G0 Z0.080
X6.97617 Y-1.56796
G38.2 Z-0.1 F2.362205
#559=#2002
G0 Z0.080
X6.97617 Y-1.21017
G38.2 Z-0.1 F2.362205
#560=#2002
G0 Z0.080
X6.97617 Y-0.85239
G38.2 Z-0.1 F2.362205
#561=#2002
G0 Z0.080
X6.97617 Y-0.49460
G38.2 Z-0.1 F2.362205
#562=#2002
G0 Z0.080
X7.35835 Y-0.49460
G38.2 Z-0.1 F2.362205
#571=#2002
G0 Z0.080
X7.35835 Y-0.85239
G38.2 Z-0.1 F2.362205
#570=#2002
G0 Z0.080
X7.35835 Y-1.21017
G38.2 Z-0.1 F2.362205
#569=#2002
G0 Z0.080
X7.35835 Y-1.56796
G38.2 Z-0.1 F2.362205
#568=#2002
G0 Z0.080
X7.35835 Y-1.92575
G38.2 Z-0.1 F2.362205
#567=#2002
G0 Z0.080
X7.35835 Y-2.28353
G38.2 Z-0.1 F2.362205
#566=#2002
G0 Z0.080
X7.35835 Y-2.64132
G38.2 Z-0.1 F2.362205
#565=#2002
G0 Z0.080
X7.35835 Y-2.99911
G38.2 Z-0.1 F2.362205
#564=#2002
G0 Z0.080
X7.35835 Y-3.35689
G38.2 Z-0.1 F2.362205
#563=#2002
G0 Z0.080
X7.74053 Y-3.35689
G38.2 Z-0.1 F2.362205
#572=#2002
G0 Z0.080
X7.74053 Y-2.99911
G38.2 Z-0.1 F2.362205
#573=#2002
G0 Z0.080
X7.74053 Y-2.64132
G38.2 Z-0.1 F2.362205
#574=#2002
G0 Z0.080
X7.74053 Y-2.28353
G38.2 Z-0.1 F2.362205
#575=#2002
G0 Z0.080
X7.74053 Y-1.92575
G38.2 Z-0.1 F2.362205
#576=#2002
G0 Z0.080
X7.74053 Y-1.56796
G38.2 Z-0.1 F2.362205
#577=#2002
G0 Z0.080
X7.74053 Y-1.21017
G38.2 Z-0.1 F2.362205
#578=#2002
G0 Z0.080
X7.74053 Y-0.85239
G38.2 Z-0.1 F2.362205
#579=#2002
G0 Z0.080
X7.74053 Y-0.49460
G38.2 Z-0.1 F2.362205
#580=#2002
G0 Z0.080
X8.12271 Y-0.49460
G38.2 Z-0.1 F2.362205
#589=#2002
G0 Z0.080
X8.12271 Y-0.85239
G38.2 Z-0.1 F2.362205
#588=#2002
G0 Z0.080
X8.12271 Y-1.21017
G38.2 Z-0.1 F2.362205
#587=#2002
G0 Z0.080
X8.12271 Y-1.56796
G38.2 Z-0.1 F2.362205
#586=#2002
G0 Z0.080
X8.12271 Y-1.92575
G38.2 Z-0.1 F2.362205
#585=#2002
G0 Z0.080
X8.12271 Y-2.28353
G38.2 Z-0.1 F2.362205
#584=#2002
G0 Z0.080
X8.12271 Y-2.64132
G38.2 Z-0.1 F2.362205
#583=#2002
G0 Z0.080
X8.12271 Y-2.99911
G38.2 Z-0.1 F2.362205
#582=#2002
G0 Z0.080
X8.12271 Y-3.35689
G38.2 Z-0.1 F2.362205
#581=#2002
G0 Z0.080
X8.50489 Y-3.35689
G38.2 Z-0.1 F2.362205
#590=#2002
G0 Z0.080
X8.50489 Y-2.99911
G38.2 Z-0.1 F2.362205
#591=#2002
G0 Z0.080
X8.50489 Y-2.64132
G38.2 Z-0.1 F2.362205
#592=#2002
G0 Z0.080
X8.50489 Y-2.28353
G38.2 Z-0.1 F2.362205
#593=#2002
G0 Z0.080
X8.50489 Y-1.92575
G38.2 Z-0.1 F2.362205
#594=#2002
G0 Z0.080
X8.50489 Y-1.56796
G38.2 Z-0.1 F2.362205
#595=#2002
G0 Z0.080
X8.50489 Y-1.21017
G38.2 Z-0.1 F2.362205
#596=#2002
G0 Z0.080
X8.50489 Y-0.85239
G38.2 Z-0.1 F2.362205
#597=#2002
G0 Z0.080
X8.50489 Y-0.49460
G38.2 Z-0.1 F2.362205
#598=#2002
G0 Z0.080
X8.88707 Y-0.49460
G38.2 Z-0.1 F2.362205
#607=#2002
G0 Z0.080
X8.88707 Y-0.85239
G38.2 Z-0.1 F2.362205
#606=#2002
G0 Z0.080
X8.88707 Y-1.21017
G38.2 Z-0.1 F2.362205
#605=#2002
G0 Z0.080
X8.88707 Y-1.56796
G38.2 Z-0.1 F2.362205
#604=#2002
G0 Z0.080
X8.88707 Y-1.92575
G38.2 Z-0.1 F2.362205
#603=#2002
G0 Z0.080
X8.88707 Y-2.28353
G38.2 Z-0.1 F2.362205
#602=#2002
G0 Z0.080
X8.88707 Y-2.64132
G38.2 Z-0.1 F2.362205
#601=#2002
G0 Z0.080
X8.88707 Y-2.99911
G38.2 Z-0.1 F2.362205
#600=#2002
G0 Z0.080
X8.88707 Y-3.35689
G38.2 Z-0.1 F2.362205
#599=#2002
G0 Z0.080
X9.26925 Y-3.35689
G38.2 Z-0.1 F2.362205
#608=#2002
G0 Z0.080
X9.26925 Y-2.99911
G38.2 Z-0.1 F2.362205
#609=#2002
G0 Z0.080
X9.26925 Y-2.64132
G38.2 Z-0.1 F2.362205
#610=#2002
G0 Z0.080
X9.26925 Y-2.28353
G38.2 Z-0.1 F2.362205
#611=#2002
G0 Z0.080
X9.26925 Y-1.92575
G38.2 Z-0.1 F2.362205
#612=#2002
G0 Z0.080
X9.26925 Y-1.56796
G38.2 Z-0.1 F2.362205
#613=#2002
G0 Z0.080
X9.26925 Y-1.21017
G38.2 Z-0.1 F2.362205
#614=#2002
G0 Z0.080
X9.26925 Y-0.85239
G38.2 Z-0.1 F2.362205
#615=#2002
G0 Z0.080
X9.26925 Y-0.49460
G38.2 Z-0.1 F2.362205
#616=#2002
G0 Z0.080
X9.65144 Y-0.49460
G38.2 Z-0.1 F2.362205
#625=#2002
G0 Z0.080
X9.65144 Y-0.85239
G38.2 Z-0.1 F2.362205
#624=#2002
G0 Z0.080
X9.65144 Y-1.21017
G38.2 Z-0.1 F2.362205
#623=#2002
G0 Z0.080
X9.65144 Y-1.56796
G38.2 Z-0.1 F2.362205
#622=#2002
G0 Z0.080
X9.65144 Y-1.92575
G38.2 Z-0.1 F2.362205
#621=#2002
G0 Z0.080
X9.65144 Y-2.28353
G38.2 Z-0.1 F2.362205
#620=#2002
G0 Z0.080
X9.65144 Y-2.64132
G38.2 Z-0.1 F2.362205
#619=#2002
G0 Z0.080
X9.65144 Y-2.99911
G38.2 Z-0.1 F2.362205
#618=#2002
G0 Z0.080
X9.65144 Y-3.35689
G38.2 Z-0.1 F2.362205
#617=#2002
G0 Z0.080
X10.03362 Y-3.35689
G38.2 Z-0.1 F2.362205
#626=#2002
G0 Z0.080
X10.03362 Y-2.99911
G38.2 Z-0.1 F2.362205
#627=#2002
G0 Z0.080
X10.03362 Y-2.64132
G38.2 Z-0.1 F2.362205
#628=#2002
G0 Z0.080
X10.03362 Y-2.28353
G38.2 Z-0.1 F2.362205
#629=#2002
G0 Z0.080
X10.03362 Y-1.92575
G38.2 Z-0.1 F2.362205
#630=#2002
G0 Z0.080
X10.03362 Y-1.56796
G38.2 Z-0.1 F2.362205
#631=#2002
G0 Z0.080
X10.03362 Y-1.21017
G38.2 Z-0.1 F2.362205
#632=#2002
G0 Z0.080
X10.03362 Y-0.85239
G38.2 Z-0.1 F2.362205
#633=#2002
G0 Z0.080
X10.03362 Y-0.49460
G38.2 Z-0.1 F2.362205
#634=#2002
G0 Z0.080
X10.41580 Y-0.49460
G38.2 Z-0.1 F2.362205
#643=#2002
G0 Z0.080
X10.41580 Y-0.85239
G38.2 Z-0.1 F2.362205
#642=#2002
G0 Z0.080
X10.41580 Y-1.21017
G38.2 Z-0.1 F2.362205
#641=#2002
G0 Z0.080
X10.41580 Y-1.56796
G38.2 Z-0.1 F2.362205
#640=#2002
G0 Z0.080
X10.41580 Y-1.92575
G38.2 Z-0.1 F2.362205
#639=#2002
G0 Z0.080
X10.41580 Y-2.28353
G38.2 Z-0.1 F2.362205
#638=#2002
G0 Z0.080
X10.41580 Y-2.64132
G38.2 Z-0.1 F2.362205
#637=#2002
G0 Z0.080
X10.41580 Y-2.99911
G38.2 Z-0.1 F2.362205
#636=#2002
G0 Z0.080
X10.41580 Y-3.35689
G38.2 Z-0.1 F2.362205
#635=#2002
G0 Z0.080
X10.79798 Y-3.35689
G38.2 Z-0.1 F2.362205
#644=#2002
G0 Z0.080
X10.79798 Y-2.99911
G38.2 Z-0.1 F2.362205
#645=#2002
G0 Z0.080
X10.79798 Y-2.64132
G38.2 Z-0.1 F2.362205
#646=#2002
G0 Z0.080
X10.79798 Y-2.28353
G38.2 Z-0.1 F2.362205
#647=#2002
G0 Z0.080
X10.79798 Y-1.92575
G38.2 Z-0.1 F2.362205
#648=#2002
G0 Z0.080
X10.79798 Y-1.56796
G38.2 Z-0.1 F2.362205
#649=#2002
G0 Z0.080
X10.79798 Y-1.21017
G38.2 Z-0.1 F2.362205
#650=#2002
G0 Z0.080
X10.79798 Y-0.85239
G38.2 Z-0.1 F2.362205
#651=#2002
G0 Z0.080
X10.79798 Y-0.49460
G38.2 Z-0.1 F2.362205
#652=#2002
G0 Z0.080
X11.18016 Y-0.49460
G38.2 Z-0.1 F2.362205
#661=#2002
G0 Z0.080
X11.18016 Y-0.85239
G38.2 Z-0.1 F2.362205
#660=#2002
G0 Z0.080
X11.18016 Y-1.21017
G38.2 Z-0.1 F2.362205
#659=#2002
G0 Z0.080
X11.18016 Y-1.56796
G38.2 Z-0.1 F2.362205
#658=#2002
G0 Z0.080
X11.18016 Y-1.92575
G38.2 Z-0.1 F2.362205
#657=#2002
G0 Z0.080
X11.18016 Y-2.28353
G38.2 Z-0.1 F2.362205
#656=#2002
G0 Z0.080
X11.18016 Y-2.64132
G38.2 Z-0.1 F2.362205
#655=#2002
G0 Z0.080
X11.18016 Y-2.99911
G38.2 Z-0.1 F2.362205
#654=#2002
G0 Z0.080
X11.18016 Y-3.35689
G38.2 Z-0.1 F2.362205
#653=#2002
G0 Z0.080
X11.56234 Y-3.35689
G38.2 Z-0.1 F2.362205
#662=#2002
G0 Z0.080
X11.56234 Y-2.99911
G38.2 Z-0.1 F2.362205
#663=#2002
G0 Z0.080
X11.56234 Y-2.64132
G38.2 Z-0.1 F2.362205
#664=#2002
G0 Z0.080
X11.56234 Y-2.28353
G38.2 Z-0.1 F2.362205
#665=#2002
G0 Z0.080
X11.56234 Y-1.92575
G38.2 Z-0.1 F2.362205
#666=#2002
G0 Z0.080
X11.56234 Y-1.56796
G38.2 Z-0.1 F2.362205
#667=#2002
G0 Z0.080
X11.56234 Y-1.21017
G38.2 Z-0.1 F2.362205
#668=#2002
G0 Z0.080
X11.56234 Y-0.85239
G38.2 Z-0.1 F2.362205
#669=#2002
G0 Z0.080
X11.56234 Y-0.49460
G38.2 Z-0.1 F2.362205
#670=#2002
G0 Z0.080
X11.94452 Y-0.49460
G38.2 Z-0.1 F2.362205
#679=#2002
G0 Z0.080
X11.94452 Y-0.85239
G38.2 Z-0.1 F2.362205
#678=#2002
G0 Z0.080
X11.94452 Y-1.21017
G38.2 Z-0.1 F2.362205
#677=#2002
G0 Z0.080
X11.94452 Y-1.56796
G38.2 Z-0.1 F2.362205
#676=#2002
G0 Z0.080
X11.94452 Y-1.92575
G38.2 Z-0.1 F2.362205
#675=#2002
G0 Z0.080
X11.94452 Y-2.28353
G38.2 Z-0.1 F2.362205
#674=#2002
G0 Z0.080
X11.94452 Y-2.64132
G38.2 Z-0.1 F2.362205
#673=#2002
G0 Z0.080
X11.94452 Y-2.99911
G38.2 Z-0.1 F2.362205
#672=#2002
G0 Z0.080
X11.94452 Y-3.35689
G38.2 Z-0.1 F2.362205
#671=#2002
G0 Z0.080
X12.32670 Y-3.35689
G38.2 Z-0.1 F2.362205
#680=#2002
G0 Z0.080
X12.32670 Y-2.99911
G38.2 Z-0.1 F2.362205
#681=#2002
G0 Z0.080
X12.32670 Y-2.64132
G38.2 Z-0.1 F2.362205
#682=#2002
G0 Z0.080
X12.32670 Y-2.28353
G38.2 Z-0.1 F2.362205
#683=#2002
G0 Z0.080
X12.32670 Y-1.92575
G38.2 Z-0.1 F2.362205
#684=#2002
G0 Z0.080
X12.32670 Y-1.56796
G38.2 Z-0.1 F2.362205
#685=#2002
G0 Z0.080
X12.32670 Y-1.21017
G38.2 Z-0.1 F2.362205
#686=#2002
G0 Z0.080
X12.32670 Y-0.85239
G38.2 Z-0.1 F2.362205
#687=#2002
G0 Z0.080
X12.32670 Y-0.49460
G38.2 Z-0.1 F2.362205
#688=#2002

G0 Z0.080 ( Move Z to safe height )
( Probing has ended, each Z-coordinate will be corrected with a bilinear interpolation )
(MSG, Detach the probe tool)
M0 ( Temporary machine stop. )

#4 = -0.04000

G01 F360.00000 ( Feedrate. )
M3 ( Spindle on clockwise. )
G04 P1.00000
( Piece #1, position [0;0] )

G04 P0 ( dwell for no time -- G64 should not smooth over this point )
G00 Z0.08000 ( retract )

G00 X6.54508 Y-3.29508 ( rapid move to begin. )
G01 F180.00000
#1=[#536+[#537-#536]*0.17277]
#2=[#545+[#546-#545]*0.17277]
#3=[#1+[#2-#1]*0.87204]
G01 Z[-0.04000+#111]
G04 P0 ( dwell for no time -- G64 should not smooth over this point )
G01 F360.00000
#1=[#536+[#537-#536]*0.29877]
#2=[#545+[#546-#545]*0.29877]
#3=[#1+[#2-#1]*0.87204]
X6.54508 Y-3.25000 Z[#3+#4]
#1=[#536+[#537-#536]*0.30163]
#2=[#545+[#546-#545]*0.30163]
#3=[#1+[#2-#1]*0.87232]
X6.54519 Y-3.24898 Z[#3+#4]
#1=[#536+[#537-#536]*0.30436]
#2=[#545+[#546-#545]*0.30436]
#3=[#1+[#2-#1]*0.87315]
X6.54550 Y-3.24800 Z[#3+#4]
#1=[#536+[#537-#536]*0.30685]
#2=[#545+[#546-#545]*0.30685]
#3=[#1+[#2-#1]*0.87450]
X6.54602 Y-3.24711 Z[#3+#4]
#1=[#536+[#537-#536]*0.30899]
#2=[#545+[#546-#545]*0.30899]
#3=[#1+[#2-#1]*0.87630]
X6.54671 Y-3.24634 Z[#3+#4]
#1=[#536+[#537-#536]*0.31068]
#2=[#545+[#546-#545]*0.31068]
#3=[#1+[#2-#1]*0.87848]
X6.54754 Y-3.24574 Z[#3+#4]
#1=[#536+[#537-#536]*0.31185]
#2=[#545+[#546-#545]*0.31185]
#3=[#1+[#2-#1]*0.88093]
X6.54848 Y-3.24532 Z[#3+#4]
#1=[#536+[#537-#536]*0.31244]
#2=[#545+[#546-#545]*0.31244]
#3=[#1+[#2-#1]*0.88357]
X6.54949 Y-3.24511 Z[#3+#4]
#1=[#536+[#537-#536]*0.31244]
#2=[#545+[#546-#545]*0.31244]
#3=[#1+[#2-#1]*0.88626]
X6.55051 Y-3.24511 Z[#3+#4]
#1=[#536+[#537-#536]*0.31185]
#2=[#545+[#546-#545]*0.31185]
#3=[#1+[#2-#1]*0.88889]
X6.55152 Y-3.24532 Z[#3+#4]
#1=[#536+[#537-#536]*0.31068]
#2=[#545+[#546-#545]*0.31068]
#3=[#1+[#2-#1]*0.89135]
X6.55246 Y-3.24574 Z[#3+#4]
#1=[#536+[#537-#536]*0.30899]
#2=[#545+[#546-#545]*0.30899]
#3=[#1+[#2-#1]*0.89353]
X6.55329 Y-3.24634 Z[#3+#4]
#1=[#536+[#537-#536]*0.30685]
#2=[#545+[#546-#545]*0.30685]
#3=[#1+[#2-#1]*0.89533]
X6.55398 Y-3.24711 Z[#3+#4]
#1=[#536+[#537-#536]*0.30436]
#2=[#545+[#546-#545]*0.30436]
#3=[#1+[#2-#1]*0.89668]
X6.55450 Y-3.24800 Z[#3+#4]
#1=[#536+[#537-#536]*0.30163]
#2=[#545+[#546-#545]*0.30163]
#3=[#1+[#2-#1]*0.89751]
X6.55481 Y-3.24898 Z[#3+#4]
#1=[#536+[#537-#536]*0.29877]
#2=[#545+[#546-#545]*0.29877]
#3=[#1+[#2-#1]*0.89779]
X6.55492 Y-3.25000 Z[#3+#4]
#1=[#536+[#537-#536]*0.17277]
#2=[#545+[#546-#545]*0.17277]
#3=[#1+[#2-#1]*0.89779]
X6.55492 Y-3.29508 Z[#3+#4]
#1=[#545+[#546-#545]*0.17277]
#2=[#554+[#555-#554]*0.17277]
#3=[#1+[#2-#1]*0.01574]
X6.60000 Y-3.29508 Z[#3+#4]
#1=[#545+[#546-#545]*0.17247]
#2=[#554+[#555-#554]*0.17247]
#3=[#1+[#2-#1]*0.01842]
X6.60102 Y-3.29519 Z[#3+#4]
#1=[#545+[#546-#545]*0.17158]
#2=[#554+[#555-#554]*0.17158]
#3=[#1+[#2-#1]*0.02098]
X6.60200 Y-3.29550 Z[#3+#4]
#1=[#545+[#546-#545]*0.17015]
#2=[#554+[#555-#554]*0.17015]
#3=[#1+[#2-#1]*0.02331]
X6.60289 Y-3.29602 Z[#3+#4]
#1=[#545+[#546-#545]*0.16822]
#2=[#554+[#555-#554]*0.16822]
#3=[#1+[#2-#1]*0.02531]
X6.60366 Y-3.29671 Z[#3+#4]
#1=[#545+[#546-#545]*0.16589]
#2=[#554+[#555-#554]*0.16589]
#3=[#1+[#2-#1]*0.02689]
X6.60426 Y-3.29754 Z[#3+#4]
#1=[#545+[#546-#545]*0.16327]
#2=[#554+[#555-#554]*0.16327]
#3=[#1+[#2-#1]*0.02799]
X6.60468 Y-3.29848 Z[#3+#4]
#1=[#545+[#546-#545]*0.16046]
#2=[#554+[#555-#554]*0.16046]
#3=[#1+[#2-#1]*0.02855]
X6.60489 Y-3.29949 Z[#3+#4]
#1=[#545+[#546-#545]*0.15758]
#2=[#554+[#555-#554]*0.15758]
#3=[#1+[#2-#1]*0.02855]
X6.60489 Y-3.30051 Z[#3+#4]
#1=[#545+[#546-#545]*0.15477]
#2=[#554+[#555-#554]*0.15477]
#3=[#1+[#2-#1]*0.02799]
X6.60468 Y-3.30152 Z[#3+#4]
#1=[#545+[#546-#545]*0.15214]
#2=[#554+[#555-#554]*0.15214]
#3=[#1+[#2-#1]*0.02689]
X6.60426 Y-3.30246 Z[#3+#4]
#1=[#545+[#546-#545]*0.14981]
#2=[#554+[#555-#554]*0.14981]
#3=[#1+[#2-#1]*0.02531]
X6.60366 Y-3.30329 Z[#3+#4]
#1=[#545+[#546-#545]*0.14789]
#2=[#554+[#555-#554]*0.14789]
#3=[#1+[#2-#1]*0.02331]
X6.60289 Y-3.30398 Z[#3+#4]
#1=[#545+[#546-#545]*0.14645]
#2=[#554+[#555-#554]*0.14645]
#3=[#1+[#2-#1]*0.02098]
X6.60200 Y-3.30450 Z[#3+#4]
#1=[#545+[#546-#545]*0.14556]
#2=[#554+[#555-#554]*0.14556]
#3=[#1+[#2-#1]*0.01842]
X6.60102 Y-3.30481 Z[#3+#4]
#1=[#545+[#546-#545]*0.14526]
#2=[#554+[#555-#554]*0.14526]
#3=[#1+[#2-#1]*0.01574]
X6.60000 Y-3.30492 Z[#3+#4]
#1=[#536+[#537-#536]*0.14526]
#2=[#545+[#546-#545]*0.14526]
#3=[#1+[#2-#1]*0.89779]
X6.55492 Y-3.30492 Z[#3+#4]
#1=[#536+[#537-#536]*0.01927]
#2=[#545+[#546-#545]*0.01927]
#3=[#1+[#2-#1]*0.89779]
X6.55492 Y-3.35000 Z[#3+#4]
#1=[#536+[#537-#536]*0.01641]
#2=[#545+[#546-#545]*0.01641]
#3=[#1+[#2-#1]*0.89751]
X6.55481 Y-3.35102 Z[#3+#4]
#1=[#536+[#537-#536]*0.01367]
#2=[#545+[#546-#545]*0.01367]
#3=[#1+[#2-#1]*0.89668]
X6.55450 Y-3.35200 Z[#3+#4]
#1=[#536+[#537-#536]*0.01118]
#2=[#545+[#546-#545]*0.01118]
#3=[#1+[#2-#1]*0.89533]
X6.55398 Y-3.35289 Z[#3+#4]
#1=[#536+[#537-#536]*0.00905]
#2=[#545+[#546-#545]*0.00905]
#3=[#1+[#2-#1]*0.89353]
X6.55329 Y-3.35366 Z[#3+#4]
#1=[#536+[#537-#536]*0.00736]
#2=[#545+[#546-#545]*0.00736]
#3=[#1+[#2-#1]*0.89135]
X6.55246 Y-3.35426 Z[#3+#4]
#1=[#536+[#537-#536]*0.00619]
#2=[#545+[#546-#545]*0.00619]
#3=[#1+[#2-#1]*0.88889]
X6.55152 Y-3.35468 Z[#3+#4]
#1=[#536+[#537-#536]*0.00559]
#2=[#545+[#546-#545]*0.00559]
#3=[#1+[#2-#1]*0.88626]
X6.55051 Y-3.35489 Z[#3+#4]
#1=[#536+[#537-#536]*0.00559]
#2=[#545+[#546-#545]*0.00559]
#3=[#1+[#2-#1]*0.88357]
X6.54949 Y-3.35489 Z[#3+#4]
#1=[#536+[#537-#536]*0.00619]
#2=[#545+[#546-#545]*0.00619]
#3=[#1+[#2-#1]*0.88093]
X6.54848 Y-3.35468 Z[#3+#4]
#1=[#536+[#537-#536]*0.00736]
#2=[#545+[#546-#545]*0.00736]
#3=[#1+[#2-#1]*0.87848]
X6.54754 Y-3.35426 Z[#3+#4]
#1=[#536+[#537-#536]*0.00905]
#2=[#545+[#546-#545]*0.00905]
#3=[#1+[#2-#1]*0.87630]
X6.54671 Y-3.35366 Z[#3+#4]
#1=[#536+[#537-#536]*0.01118]
#2=[#545+[#546-#545]*0.01118]
#3=[#1+[#2-#1]*0.87450]
X6.54602 Y-3.35289 Z[#3+#4]
#1=[#536+[#537-#536]*0.01367]
#2=[#545+[#546-#545]*0.01367]
#3=[#1+[#2-#1]*0.87315]
X6.54550 Y-3.35200 Z[#3+#4]
#1=[#536+[#537-#536]*0.01641]
#2=[#545+[#546-#545]*0.01641]
#3=[#1+[#2-#1]*0.87232]
X6.54519 Y-3.35102 Z[#3+#4]
#1=[#536+[#537-#536]*0.01927]
#2=[#545+[#546-#545]*0.01927]
#3=[#1+[#2-#1]*0.87204]
X6.54508 Y-3.35000 Z[#3+#4]
#1=[#536+[#537-#536]*0.14526]
#2=[#545+[#546-#545]*0.14526]
#3=[#1+[#2-#1]*0.87204]
X6.54508 Y-3.30492 Z[#3+#4]
#1=[#536+[#537-#536]*0.14526]
#2=[#545+[#546-#545]*0.14526]
#3=[#1+[#2-#1]*0.75409]
X6.50000 Y-3.30492 Z[#3+#4]
#1=[#536+[#537-#536]*0.14556]
#2=[#545+[#546-#545]*0.14556]
#3=[#1+[#2-#1]*0.75141]
X6.49898 Y-3.30481 Z[#3+#4]
#1=[#536+[#537-#536]*0.14645]
#2=[#545+[#546-#545]*0.14645]
#3=[#1+[#2-#1]*0.74885]
X6.49800 Y-3.30450 Z[#3+#4]
#1=[#536+[#537-#536]*0.14789]
#2=[#545+[#546-#545]*0.14789]
#3=[#1+[#2-#1]*0.74652]
X6.49711 Y-3.30398 Z[#3+#4]
#1=[#536+[#537-#536]*0.14981]
#2=[#545+[#546-#545]*0.14981]
#3=[#1+[#2-#1]*0.74452]
X6.49634 Y-3.30329 Z[#3+#4]
#1=[#536+[#537-#536]*0.15214]
#2=[#545+[#546-#545]*0.15214]
#3=[#1+[#2-#1]*0.74293]
X6.49574 Y-3.30246 Z[#3+#4]
#1=[#536+[#537-#536]*0.15477]
#2=[#545+[#546-#545]*0.15477]
#3=[#1+[#2-#1]*0.74184]
X6.49532 Y-3.30152 Z[#3+#4]
#1=[#536+[#537-#536]*0.15758]
#2=[#545+[#546-#545]*0.15758]
#3=[#1+[#2-#1]*0.74128]
X6.49511 Y-3.30051 Z[#3+#4]
#1=[#536+[#537-#536]*0.16046]
#2=[#545+[#546-#545]*0.16046]
#3=[#1+[#2-#1]*0.74128]
X6.49511 Y-3.29949 Z[#3+#4]
#1=[#536+[#537-#536]*0.16327]
#2=[#545+[#546-#545]*0.16327]
#3=[#1+[#2-#1]*0.74184]
X6.49532 Y-3.29848 Z[#3+#4]
#1=[#536+[#537-#536]*0.16589]
#2=[#545+[#546-#545]*0.16589]
#3=[#1+[#2-#1]*0.74293]
X6.49574 Y-3.29754 Z[#3+#4]
#1=[#536+[#537-#536]*0.16822]
#2=[#545+[#546-#545]*0.16822]
#3=[#1+[#2-#1]*0.74452]
X6.49634 Y-3.29671 Z[#3+#4]
#1=[#536+[#537-#536]*0.17015]
#2=[#545+[#546-#545]*0.17015]
#3=[#1+[#2-#1]*0.74652]
X6.49711 Y-3.29602 Z[#3+#4]
#1=[#536+[#537-#536]*0.17158]
#2=[#545+[#546-#545]*0.17158]
#3=[#1+[#2-#1]*0.74885]
X6.49800 Y-3.29550 Z[#3+#4]
#1=[#536+[#537-#536]*0.17247]
#2=[#545+[#546-#545]*0.17247]
#3=[#1+[#2-#1]*0.75141]
X6.49898 Y-3.29519 Z[#3+#4]
#1=[#536+[#537-#536]*0.17277]
#2=[#545+[#546-#545]*0.17277]
#3=[#1+[#2-#1]*0.75409]
X6.50000 Y-3.29508 Z[#3+#4]
#1=[#536+[#537-#536]*0.17277]
#2=[#545+[#546-#545]*0.17277]
#3=[#1+[#2-#1]*0.87204]
X6.54508 Y-3.29508 Z[#3+#4]
G04 P0 ( dwell for no time -- G64 should not smooth over this point )
G00 Z0.08000 ( retract )

G00 X5.15302 Y-2.74274 ( rapid move to begin. )
G01 F180.00000
#1=[#510+[#511-#510]*0.71653]
#2=[#519+[#520-#519]*0.71653]
#3=[#1+[#2-#1]*0.22963]
G01 Z[-0.04000+#111]
G04 P0 ( dwell for no time -- G64 should not smooth over this point )
G01 F360.00000
#1=[#510+[#511-#510]*0.06405]
#2=[#519+[#520-#519]*0.06405]
#3=[#1+[#2-#1]*0.22963]
X5.15302 Y-2.97619 Z[#3+#4]
#1=[#510+[#511-#510]*0.05261]
#2=[#519+[#520-#519]*0.05261]
#3=[#1+[#2-#1]*0.22850]
X5.15259 Y-2.98028 Z[#3+#4]
#1=[#510+[#511-#510]*0.04167]
#2=[#519+[#520-#519]*0.04167]
#3=[#1+[#2-#1]*0.22518]
X5.15132 Y-2.98420 Z[#3+#4]
#1=[#510+[#511-#510]*0.03171]
#2=[#519+[#520-#519]*0.03171]
#3=[#1+[#2-#1]*0.21979]
X5.14926 Y-2.98776 Z[#3+#4]
#1=[#510+[#511-#510]*0.02317]
#2=[#519+[#520-#519]*0.02317]
#3=[#1+[#2-#1]*0.21259]
X5.14651 Y-2.99082 Z[#3+#4]
#1=[#510+[#511-#510]*0.01640]
#2=[#519+[#520-#519]*0.01640]
#3=[#1+[#2-#1]*0.20388]
X5.14318 Y-2.99324 Z[#3+#4]
#1=[#510+[#511-#510]*0.01173]
#2=[#519+[#520-#519]*0.01173]
#3=[#1+[#2-#1]*0.19404]
X5.13942 Y-2.99491 Z[#3+#4]
#1=[#510+[#511-#510]*0.00933]
#2=[#519+[#520-#519]*0.00933]
#3=[#1+[#2-#1]*0.18351]
X5.13539 Y-2.99577 Z[#3+#4]
#1=[#510+[#511-#510]*0.00933]
#2=[#519+[#520-#519]*0.00933]
#3=[#1+[#2-#1]*0.17274]
X5.13128 Y-2.99577 Z[#3+#4]
#1=[#510+[#511-#510]*0.01173]
#2=[#519+[#520-#519]*0.01173]
#3=[#1+[#2-#1]*0.16221]
X5.12725 Y-2.99491 Z[#3+#4]
#1=[#510+[#511-#510]*0.01640]
#2=[#519+[#520-#519]*0.01640]
#3=[#1+[#2-#1]*0.15237]
X5.12349 Y-2.99324 Z[#3+#4]
#1=[#510+[#511-#510]*0.02317]
#2=[#519+[#520-#519]*0.02317]
#3=[#1+[#2-#1]*0.14366]
X5.12016 Y-2.99082 Z[#3+#4]
#1=[#510+[#511-#510]*0.03171]
#2=[#519+[#520-#519]*0.03171]
#3=[#1+[#2-#1]*0.13645]
X5.11741 Y-2.98776 Z[#3+#4]
#1=[#510+[#511-#510]*0.04167]
#2=[#519+[#520-#519]*0.04167]
#3=[#1+[#2-#1]*0.13107]
X5.11535 Y-2.98420 Z[#3+#4]
#1=[#510+[#511-#510]*0.05261]
#2=[#519+[#520-#519]*0.05261]
#3=[#1+[#2-#1]*0.12774]
X5.11408 Y-2.98028 Z[#3+#4]
#1=[#510+[#511-#510]*0.06405]
#2=[#519+[#520-#519]*0.06405]
#3=[#1+[#2-#1]*0.12662]
X5.11365 Y-2.97619 Z[#3+#4]
#1=[#510+[#511-#510]*0.99571]
#2=[#519+[#520-#519]*0.99571]
#3=[#1+[#2-#1]*0.12662]
X5.11365 Y-2.64286 Z[#3+#4]
#1=[#511+[#512-#511]*0.00714]
#2=[#520+[#521-#520]*0.00714]
#3=[#1+[#2-#1]*0.12774]
X5.11408 Y-2.63876 Z[#3+#4]
#1=[#511+[#512-#511]*0.01808]
#2=[#520+[#521-#520]*0.01808]
#3=[#1+[#2-#1]*0.13107]
X5.11535 Y-2.63485 Z[#3+#4]
#1=[#511+[#512-#511]*0.02804]
#2=[#520+[#521-#520]*0.02804]
#3=[#1+[#2-#1]*0.13645]
X5.11741 Y-2.63129 Z[#3+#4]
#1=[#511+[#512-#511]*0.03659]
#2=[#520+[#521-#520]*0.03659]
#3=[#1+[#2-#1]*0.14366]
X5.12016 Y-2.62823 Z[#3+#4]
#1=[#511+[#512-#511]*0.04335]
#2=[#520+[#521-#520]*0.04335]
#3=[#1+[#2-#1]*0.15237]
X5.12349 Y-2.62581 Z[#3+#4]
#1=[#511+[#512-#511]*0.04803]
#2=[#520+[#521-#520]*0.04803]
#3=[#1+[#2-#1]*0.16221]
X5.12725 Y-2.62414 Z[#3+#4]
#1=[#511+[#512-#511]*0.05042]
#2=[#520+[#521-#520]*0.05042]
#3=[#1+[#2-#1]*0.17274]
X5.13128 Y-2.62328 Z[#3+#4]
#1=[#511+[#512-#511]*0.05042]
#2=[#520+[#521-#520]*0.05042]
#3=[#1+[#2-#1]*0.18351]
X5.13539 Y-2.62328 Z[#3+#4]
#1=[#511+[#512-#511]*0.04803]
#2=[#520+[#521-#520]*0.04803]
#3=[#1+[#2-#1]*0.19404]
X5.13942 Y-2.62414 Z[#3+#4]
#1=[#511+[#512-#511]*0.04335]
#2=[#520+[#521-#520]*0.04335]
#3=[#1+[#2-#1]*0.20388]
X5.14318 Y-2.62581 Z[#3+#4]
#1=[#511+[#512-#511]*0.03659]
#2=[#520+[#521-#520]*0.03659]
#3=[#1+[#2-#1]*0.21259]
X5.14651 Y-2.62823 Z[#3+#4]
#1=[#511+[#512-#511]*0.02804]
#2=[#520+[#521-#520]*0.02804]
#3=[#1+[#2-#1]*0.21979]
X5.14926 Y-2.63129 Z[#3+#4]
#1=[#511+[#512-#511]*0.01808]
#2=[#520+[#521-#520]*0.01808]
#3=[#1+[#2-#1]*0.22518]
X5.15132 Y-2.63485 Z[#3+#4]
#1=[#511+[#512-#511]*0.00714]
#2=[#520+[#521-#520]*0.00714]
#3=[#1+[#2-#1]*0.22850]
X5.15259 Y-2.63876 Z[#3+#4]
#1=[#510+[#511-#510]*0.99571]
#2=[#519+[#520-#519]*0.99571]
#3=[#1+[#2-#1]*0.22963]
X5.15302 Y-2.64286 Z[#3+#4]
#1=[#510+[#511-#510]*0.92889]
#2=[#519+[#520-#519]*0.92889]
#3=[#1+[#2-#1]*0.22963]
X5.15302 Y-2.66676 Z[#3+#4]
#1=[#510+[#511-#510]*0.96806]
#2=[#519+[#520-#519]*0.96806]
#3=[#1+[#2-#1]*0.26630]
X5.16703 Y-2.65275 Z[#3+#4]
#1=[#510+[#511-#510]*0.97379]
#2=[#519+[#520-#519]*0.97379]
#3=[#1+[#2-#1]*0.27260]
X5.16944 Y-2.65070 Z[#3+#4]
#1=[#510+[#511-#510]*0.97837]
#2=[#519+[#520-#519]*0.97837]
#3=[#1+[#2-#1]*0.27969]
X5.17215 Y-2.64906 Z[#3+#4]
#1=[#511+[#512-#511]*0.04492]
#2=[#520+[#521-#520]*0.04492]
#3=[#1+[#2-#1]*0.40428]
X5.21977 Y-2.62525 Z[#3+#4]
#1=[#511+[#512-#511]*0.04812]
#2=[#520+[#521-#520]*0.04812]
#3=[#1+[#2-#1]*0.41165]
X5.22258 Y-2.62410 Z[#3+#4]
#1=[#511+[#512-#511]*0.05007]
#2=[#520+[#521-#520]*0.05007]
#3=[#1+[#2-#1]*0.41939]
X5.22554 Y-2.62341 Z[#3+#4]
#1=[#511+[#512-#511]*0.05072]
#2=[#520+[#521-#520]*0.05072]
#3=[#1+[#2-#1]*0.42732]
X5.22857 Y-2.62317 Z[#3+#4]
#1=[#511+[#512-#511]*0.05072]
#2=[#520+[#521-#520]*0.05072]
#3=[#1+[#2-#1]*0.55192]
X5.27619 Y-2.62317 Z[#3+#4]
#1=[#511+[#512-#511]*0.04952]
#2=[#520+[#521-#520]*0.04952]
#3=[#1+[#2-#1]*0.56263]
X5.28028 Y-2.62360 Z[#3+#4]
#1=[#511+[#512-#511]*0.04597]
#2=[#520+[#521-#520]*0.04597]
#3=[#1+[#2-#1]*0.57287]
X5.28420 Y-2.62487 Z[#3+#4]
#1=[#511+[#512-#511]*0.04022]
#2=[#520+[#521-#520]*0.04022]
#3=[#1+[#2-#1]*0.58219]
X5.28776 Y-2.62693 Z[#3+#4]
#1=[#511+[#512-#511]*0.03252]
#2=[#520+[#521-#520]*0.03252]
#3=[#1+[#2-#1]*0.59019]
X5.29082 Y-2.62969 Z[#3+#4]
#1=[#511+[#512-#511]*0.02322]
#2=[#520+[#521-#520]*0.02322]
#3=[#1+[#2-#1]*0.59652]
X5.29324 Y-2.63301 Z[#3+#4]
#1=[#511+[#512-#511]*0.01271]
#2=[#520+[#521-#520]*0.01271]
#3=[#1+[#2-#1]*0.60090]
X5.29491 Y-2.63677 Z[#3+#4]
#1=[#511+[#512-#511]*0.00146]
#2=[#520+[#521-#520]*0.00146]
#3=[#1+[#2-#1]*0.60314]
X5.29577 Y-2.64080 Z[#3+#4]
#1=[#510+[#511-#510]*0.98995]
#2=[#519+[#520-#519]*0.98995]
#3=[#1+[#2-#1]*0.60314]
X5.29577 Y-2.64491 Z[#3+#4]
#1=[#510+[#511-#510]*0.97870]
#2=[#519+[#520-#519]*0.97870]
#3=[#1+[#2-#1]*0.60090]
X5.29491 Y-2.64894 Z[#3+#4]
#1=[#510+[#511-#510]*0.96820]
#2=[#519+[#520-#519]*0.96820]
#3=[#1+[#2-#1]*0.59652]
X5.29324 Y-2.65270 Z[#3+#4]
#1=[#510+[#511-#510]*0.95889]
#2=[#519+[#520-#519]*0.95889]
#3=[#1+[#2-#1]*0.59019]
X5.29082 Y-2.65603 Z[#3+#4]
#1=[#510+[#511-#510]*0.95119]
#2=[#519+[#520-#519]*0.95119]
#3=[#1+[#2-#1]*0.58219]
X5.28776 Y-2.65878 Z[#3+#4]
#1=[#510+[#511-#510]*0.94544]
#2=[#519+[#520-#519]*0.94544]
#3=[#1+[#2-#1]*0.57287]
X5.28420 Y-2.66084 Z[#3+#4]
#1=[#510+[#511-#510]*0.94189]
#2=[#519+[#520-#519]*0.94189]
#3=[#1+[#2-#1]*0.56263]
X5.28028 Y-2.66211 Z[#3+#4]
#1=[#510+[#511-#510]*0.94069]
#2=[#519+[#520-#519]*0.94069]
#3=[#1+[#2-#1]*0.55192]
X5.27619 Y-2.66254 Z[#3+#4]
#1=[#510+[#511-#510]*0.94069]
#2=[#519+[#520-#519]*0.94069]
#3=[#1+[#2-#1]*0.43948]
X5.23322 Y-2.66254 Z[#3+#4]
#1=[#510+[#511-#510]*0.88394]
#2=[#519+[#520-#519]*0.88394]
#3=[#1+[#2-#1]*0.33323]
X5.19261 Y-2.68285 Z[#3+#4]
#1=[#510+[#511-#510]*0.83002]
#2=[#519+[#520-#519]*0.83002]
#3=[#1+[#2-#1]*0.28275]
X5.17332 Y-2.70214 Z[#3+#4]
#1=[#510+[#511-#510]*0.71653]
#2=[#519+[#520-#519]*0.71653]
#3=[#1+[#2-#1]*0.22963]
X5.15302 Y-2.74274 Z[#3+#4]
G04 P0 ( dwell for no time -- G64 should not smooth over this point )
G00 Z0.08000 ( retract )

G00 X4.72445 Y-2.73397 ( rapid move to begin. )
G01 F180.00000
#1=[#501+[#502-#501]*0.74105]
#2=[#510+[#511-#510]*0.74105]
#3=[#1+[#2-#1]*0.10825]
G01 Z[-0.04000+#111]
G04 P0 ( dwell for no time -- G64 should not smooth over this point )
G01 F360.00000
#1=[#501+[#502-#501]*0.06405]
#2=[#510+[#511-#510]*0.06405]
#3=[#1+[#2-#1]*0.10825]
X4.72445 Y-2.97619 Z[#3+#4]
#1=[#501+[#502-#501]*0.05261]
#2=[#510+[#511-#510]*0.05261]
#3=[#1+[#2-#1]*0.10712]
X4.72402 Y-2.98028 Z[#3+#4]
#1=[#501+[#502-#501]*0.04167]
#2=[#510+[#511-#510]*0.04167]
#3=[#1+[#2-#1]*0.10379]
X4.72275 Y-2.98420 Z[#3+#4]
#1=[#501+[#502-#501]*0.03171]
#2=[#510+[#511-#510]*0.03171]
#3=[#1+[#2-#1]*0.09841]
X4.72069 Y-2.98776 Z[#3+#4]
#1=[#501+[#502-#501]*0.02317]
#2=[#510+[#511-#510]*0.02317]
#3=[#1+[#2-#1]*0.09121]
X4.71793 Y-2.99082 Z[#3+#4]
#1=[#501+[#502-#501]*0.01640]
#2=[#510+[#511-#510]*0.01640]
#3=[#1+[#2-#1]*0.08249]
X4.71460 Y-2.99324 Z[#3+#4]
#1=[#501+[#502-#501]*0.01173]
#2=[#510+[#511-#510]*0.01173]
#3=[#1+[#2-#1]*0.07266]
X4.71084 Y-2.99491 Z[#3+#4]
#1=[#501+[#502-#501]*0.00933]
#2=[#510+[#511-#510]*0.00933]
#3=[#1+[#2-#1]*0.06212]
X4.70682 Y-2.99577 Z[#3+#4]
#1=[#501+[#502-#501]*0.00933]
#2=[#510+[#511-#510]*0.00933]
#3=[#1+[#2-#1]*0.05136]
X4.70270 Y-2.99577 Z[#3+#4]
#1=[#501+[#502-#501]*0.01173]
#2=[#510+[#511-#510]*0.01173]
#3=[#1+[#2-#1]*0.04082]
X4.69868 Y-2.99491 Z[#3+#4]
#1=[#501+[#502-#501]*0.01640]
#2=[#510+[#511-#510]*0.01640]
#3=[#1+[#2-#1]*0.03099]
X4.69492 Y-2.99324 Z[#3+#4]
#1=[#501+[#502-#501]*0.02317]
#2=[#510+[#511-#510]*0.02317]
#3=[#1+[#2-#1]*0.02228]
X4.69159 Y-2.99082 Z[#3+#4]
#1=[#501+[#502-#501]*0.03171]
#2=[#510+[#511-#510]*0.03171]
#3=[#1+[#2-#1]*0.01507]
X4.68884 Y-2.98776 Z[#3+#4]
#1=[#501+[#502-#501]*0.04167]
#2=[#510+[#511-#510]*0.04167]
#3=[#1+[#2-#1]*0.00969]
X4.68678 Y-2.98420 Z[#3+#4]
#1=[#501+[#502-#501]*0.05261]
#2=[#510+[#511-#510]*0.05261]
#3=[#1+[#2-#1]*0.00636]
X4.68551 Y-2.98028 Z[#3+#4]
#1=[#501+[#502-#501]*0.06405]
#2=[#510+[#511-#510]*0.06405]
#3=[#1+[#2-#1]*0.00523]
X4.68508 Y-2.97619 Z[#3+#4]
#1=[#501+[#502-#501]*0.76279]
#2=[#510+[#511-#510]*0.76279]
#3=[#1+[#2-#1]*0.00523]
X4.68508 Y-2.72619 Z[#3+#4]
#1=[#502+[#503-#502]*0.46153]
#2=[#511+[#512-#511]*0.46153]
#3=[#1+[#2-#1]*0.00523]
X4.68508 Y-2.47619 Z[#3+#4]
#1=[#502+[#503-#502]*0.47227]
#2=[#511+[#512-#511]*0.47227]
#3=[#1+[#2-#1]*0.00622]
X4.68546 Y-2.47235 Z[#3+#4]
#1=[#502+[#503-#502]*0.48259]
#2=[#511+[#512-#511]*0.48259]
#3=[#1+[#2-#1]*0.00915]
X4.68658 Y-2.46866 Z[#3+#4]
#1=[#502+[#503-#502]*0.49210]
#2=[#511+[#512-#511]*0.49210]
#3=[#1+[#2-#1]*0.01391]
X4.68839 Y-2.46525 Z[#3+#4]
#1=[#502+[#503-#502]*0.50044]
#2=[#511+[#512-#511]*0.50044]
#3=[#1+[#2-#1]*0.02032]
X4.69084 Y-2.46227 Z[#3+#4]
#1=[#502+[#503-#502]*0.50728]
#2=[#511+[#512-#511]*0.50728]
#3=[#1+[#2-#1]*0.02812]
X4.69383 Y-2.45982 Z[#3+#4]
#1=[#502+[#503-#502]*0.51236]
#2=[#511+[#512-#511]*0.51236]
#3=[#1+[#2-#1]*0.03703]
X4.69723 Y-2.45800 Z[#3+#4]
#1=[#502+[#503-#502]*0.51549]
#2=[#511+[#512-#511]*0.51549]
#3=[#1+[#2-#1]*0.04669]
X4.70092 Y-2.45688 Z[#3+#4]
#1=[#502+[#503-#502]*0.51655]
#2=[#511+[#512-#511]*0.51655]
#3=[#1+[#2-#1]*0.05674]
X4.70476 Y-2.45651 Z[#3+#4]
#1=[#502+[#503-#502]*0.51655]
#2=[#511+[#512-#511]*0.51655]
#3=[#1+[#2-#1]*0.67973]
X4.94286 Y-2.45651 Z[#3+#4]
#1=[#502+[#503-#502]*0.51535]
#2=[#511+[#512-#511]*0.51535]
#3=[#1+[#2-#1]*0.69044]
X4.94695 Y-2.45694 Z[#3+#4]
#1=[#502+[#503-#502]*0.51179]
#2=[#511+[#512-#511]*0.51179]
#3=[#1+[#2-#1]*0.70068]
X4.95086 Y-2.45821 Z[#3+#4]
#1=[#502+[#503-#502]*0.50604]
#2=[#511+[#512-#511]*0.50604]
#3=[#1+[#2-#1]*0.71001]
X4.95443 Y-2.46026 Z[#3+#4]
#1=[#502+[#503-#502]*0.49835]
#2=[#511+[#512-#511]*0.49835]
#3=[#1+[#2-#1]*0.71801]
X4.95749 Y-2.46302 Z[#3+#4]
#1=[#502+[#503-#502]*0.48904]
#2=[#511+[#512-#511]*0.48904]
#3=[#1+[#2-#1]*0.72434]
X4.95990 Y-2.46635 Z[#3+#4]
#1=[#502+[#503-#502]*0.47853]
#2=[#511+[#512-#511]*0.47853]
#3=[#1+[#2-#1]*0.72872]
X4.96158 Y-2.47011 Z[#3+#4]
#1=[#502+[#503-#502]*0.46728]
#2=[#511+[#512-#511]*0.46728]
#3=[#1+[#2-#1]*0.73096]
X4.96243 Y-2.47413 Z[#3+#4]
#1=[#502+[#503-#502]*0.45578]
#2=[#511+[#512-#511]*0.45578]
#3=[#1+[#2-#1]*0.73096]
X4.96243 Y-2.47825 Z[#3+#4]
#1=[#502+[#503-#502]*0.44453]
#2=[#511+[#512-#511]*0.44453]
#3=[#1+[#2-#1]*0.72872]
X4.96158 Y-2.48227 Z[#3+#4]
#1=[#502+[#503-#502]*0.43402]
#2=[#511+[#512-#511]*0.43402]
#3=[#1+[#2-#1]*0.72434]
X4.95990 Y-2.48603 Z[#3+#4]
#1=[#502+[#503-#502]*0.42472]
#2=[#511+[#512-#511]*0.42472]
#3=[#1+[#2-#1]*0.71801]
X4.95749 Y-2.48936 Z[#3+#4]
#1=[#502+[#503-#502]*0.41702]
#2=[#511+[#512-#511]*0.41702]
#3=[#1+[#2-#1]*0.71001]
X4.95443 Y-2.49212 Z[#3+#4]
#1=[#502+[#503-#502]*0.41127]
#2=[#511+[#512-#511]*0.41127]
#3=[#1+[#2-#1]*0.70068]
X4.95086 Y-2.49417 Z[#3+#4]
#1=[#502+[#503-#502]*0.40772]
#2=[#511+[#512-#511]*0.40772]
#3=[#1+[#2-#1]*0.69044]
X4.94695 Y-2.49545 Z[#3+#4]
#1=[#502+[#503-#502]*0.40651]
#2=[#511+[#512-#511]*0.40651]
#3=[#1+[#2-#1]*0.67973]
X4.94286 Y-2.49588 Z[#3+#4]
#1=[#502+[#503-#502]*0.40651]
#2=[#511+[#512-#511]*0.40651]
#3=[#1+[#2-#1]*0.10825]
X4.72445 Y-2.49588 Z[#3+#4]
#1=[#501+[#502-#501]*0.85108]
#2=[#510+[#511-#510]*0.85108]
#3=[#1+[#2-#1]*0.10825]
X4.72445 Y-2.69460 Z[#3+#4]
#1=[#501+[#502-#501]*0.85108]
#2=[#510+[#511-#510]*0.85108]
#3=[#1+[#2-#1]*0.49283]
X4.87143 Y-2.69460 Z[#3+#4]
#1=[#501+[#502-#501]*0.84988]
#2=[#510+[#511-#510]*0.84988]
#3=[#1+[#2-#1]*0.50354]
X4.87552 Y-2.69503 Z[#3+#4]
#1=[#501+[#502-#501]*0.84633]
#2=[#510+[#511-#510]*0.84633]
#3=[#1+[#2-#1]*0.51378]
X4.87944 Y-2.69630 Z[#3+#4]
#1=[#501+[#502-#501]*0.84058]
#2=[#510+[#511-#510]*0.84058]
#3=[#1+[#2-#1]*0.52311]
X4.88300 Y-2.69836 Z[#3+#4]
#1=[#501+[#502-#501]*0.83288]
#2=[#510+[#511-#510]*0.83288]
#3=[#1+[#2-#1]*0.53111]
X4.88606 Y-2.70111 Z[#3+#4]
#1=[#501+[#502-#501]*0.82358]
#2=[#510+[#511-#510]*0.82358]
#3=[#1+[#2-#1]*0.53744]
X4.88848 Y-2.70444 Z[#3+#4]
#1=[#501+[#502-#501]*0.81307]
#2=[#510+[#511-#510]*0.81307]
#3=[#1+[#2-#1]*0.54182]
X4.89015 Y-2.70820 Z[#3+#4]
#1=[#501+[#502-#501]*0.80182]
#2=[#510+[#511-#510]*0.80182]
#3=[#1+[#2-#1]*0.54406]
X4.89101 Y-2.71223 Z[#3+#4]
#1=[#501+[#502-#501]*0.79031]
#2=[#510+[#511-#510]*0.79031]
#3=[#1+[#2-#1]*0.54406]
X4.89101 Y-2.71634 Z[#3+#4]
#1=[#501+[#502-#501]*0.77906]
#2=[#510+[#511-#510]*0.77906]
#3=[#1+[#2-#1]*0.54182]
X4.89015 Y-2.72037 Z[#3+#4]
#1=[#501+[#502-#501]*0.76856]
#2=[#510+[#511-#510]*0.76856]
#3=[#1+[#2-#1]*0.53744]
X4.88848 Y-2.72413 Z[#3+#4]
#1=[#501+[#502-#501]*0.75925]
#2=[#510+[#511-#510]*0.75925]
#3=[#1+[#2-#1]*0.53111]
X4.88606 Y-2.72746 Z[#3+#4]
#1=[#501+[#502-#501]*0.75155]
#2=[#510+[#511-#510]*0.75155]
#3=[#1+[#2-#1]*0.52311]
X4.88300 Y-2.73021 Z[#3+#4]
#1=[#501+[#502-#501]*0.74580]
#2=[#510+[#511-#510]*0.74580]
#3=[#1+[#2-#1]*0.51378]
X4.87944 Y-2.73227 Z[#3+#4]
#1=[#501+[#502-#501]*0.74225]
#2=[#510+[#511-#510]*0.74225]
#3=[#1+[#2-#1]*0.50354]
X4.87552 Y-2.73354 Z[#3+#4]
#1=[#501+[#502-#501]*0.74105]
#2=[#510+[#511-#510]*0.74105]
#3=[#1+[#2-#1]*0.49283]
X4.87143 Y-2.73397 Z[#3+#4]
#1=[#501+[#502-#501]*0.74105]
#2=[#510+[#511-#510]*0.74105]
#3=[#1+[#2-#1]*0.10825]
X4.72445 Y-2.73397 Z[#3+#4]
G04 P0 ( dwell for no time -- G64 should not smooth over this point )
G00 Z0.08000 ( retract )

G00 X5.40129 Y-2.88934 ( rapid move to begin. )
G01 F180.00000
#1=[#510+[#511-#510]*0.30679]
#2=[#519+[#520-#519]*0.30679]
#3=[#1+[#2-#1]*0.87923]
G01 Z[-0.04000+#111]
G04 P0 ( dwell for no time -- G64 should not smooth over this point )
G01 F360.00000
#1=[#510+[#511-#510]*0.30786]
#2=[#519+[#520-#519]*0.30786]
#3=[#1+[#2-#1]*0.87866]
X5.40106 Y-2.88896 Z[#3+#4]
#1=[#510+[#511-#510]*0.31217]
#2=[#519+[#520-#519]*0.31217]
#3=[#1+[#2-#1]*0.87735]
X5.40056 Y-2.88742 Z[#3+#4]
#1=[#510+[#511-#510]*0.31640]
#2=[#519+[#520-#519]*0.31640]
#3=[#1+[#2-#1]*0.87586]
X5.40000 Y-2.88590 Z[#3+#4]
#1=[#510+[#511-#510]*0.31762]
#2=[#519+[#520-#519]*0.31762]
#3=[#1+[#2-#1]*0.87569]
X5.39993 Y-2.88547 Z[#3+#4]
#1=[#510+[#511-#510]*0.31880]
#2=[#519+[#520-#519]*0.31880]
#3=[#1+[#2-#1]*0.87533]
X5.39979 Y-2.88505 Z[#3+#4]
#1=[#510+[#511-#510]*0.32331]
#2=[#519+[#520-#519]*0.32331]
#3=[#1+[#2-#1]*0.87489]
X5.39962 Y-2.88343 Z[#3+#4]
#1=[#510+[#511-#510]*0.32778]
#2=[#519+[#520-#519]*0.32778]
#3=[#1+[#2-#1]*0.87426]
X5.39938 Y-2.88183 Z[#3+#4]
#1=[#510+[#511-#510]*0.32901]
#2=[#519+[#520-#519]*0.32901]
#3=[#1+[#2-#1]*0.87432]
X5.39941 Y-2.88139 Z[#3+#4]
#1=[#510+[#511-#510]*0.33024]
#2=[#519+[#520-#519]*0.33024]
#3=[#1+[#2-#1]*0.87420]
X5.39936 Y-2.88095 Z[#3+#4]
#1=[#510+[#511-#510]*0.72952]
#2=[#519+[#520-#519]*0.72952]
#3=[#1+[#2-#1]*0.87420]
X5.39936 Y-2.73810 Z[#3+#4]
#1=[#510+[#511-#510]*0.73799]
#2=[#519+[#520-#519]*0.73799]
#3=[#1+[#2-#1]*0.87482]
X5.39960 Y-2.73507 Z[#3+#4]
#1=[#510+[#511-#510]*0.74626]
#2=[#519+[#520-#519]*0.74626]
#3=[#1+[#2-#1]*0.87664]
X5.40030 Y-2.73211 Z[#3+#4]
#1=[#510+[#511-#510]*0.75412]
#2=[#519+[#520-#519]*0.75412]
#3=[#1+[#2-#1]*0.87964]
X5.40144 Y-2.72929 Z[#3+#4]
#1=[#510+[#511-#510]*0.88722]
#2=[#519+[#520-#519]*0.88722]
#3=[#1+[#2-#1]*0.94194]
X5.42525 Y-2.68167 Z[#3+#4]
#1=[#510+[#511-#510]*0.89478]
#2=[#519+[#520-#519]*0.89478]
#3=[#1+[#2-#1]*0.94622]
X5.42689 Y-2.67897 Z[#3+#4]
#1=[#510+[#511-#510]*0.90152]
#2=[#519+[#520-#519]*0.90152]
#3=[#1+[#2-#1]*0.95159]
X5.42894 Y-2.67656 Z[#3+#4]
#1=[#519+[#520-#519]*0.96806]
#2=[#528+[#529-#528]*0.96806]
#3=[#1+[#2-#1]*0.01389]
X5.45275 Y-2.65275 Z[#3+#4]
#1=[#519+[#520-#519]*0.97379]
#2=[#528+[#529-#528]*0.97379]
#3=[#1+[#2-#1]*0.02019]
X5.45516 Y-2.65070 Z[#3+#4]
#1=[#519+[#520-#519]*0.97837]
#2=[#528+[#529-#528]*0.97837]
#3=[#1+[#2-#1]*0.02727]
X5.45786 Y-2.64906 Z[#3+#4]
#1=[#520+[#521-#520]*0.04492]
#2=[#529+[#530-#529]*0.04492]
#3=[#1+[#2-#1]*0.15187]
X5.50548 Y-2.62525 Z[#3+#4]
#1=[#520+[#521-#520]*0.04812]
#2=[#529+[#530-#529]*0.04812]
#3=[#1+[#2-#1]*0.15924]
X5.50830 Y-2.62410 Z[#3+#4]
#1=[#520+[#521-#520]*0.05007]
#2=[#529+[#530-#529]*0.05007]
#3=[#1+[#2-#1]*0.16698]
X5.51126 Y-2.62341 Z[#3+#4]
#1=[#520+[#521-#520]*0.05072]
#2=[#529+[#530-#529]*0.05072]
#3=[#1+[#2-#1]*0.17491]
X5.51429 Y-2.62317 Z[#3+#4]
#1=[#520+[#521-#520]*0.05072]
#2=[#529+[#530-#529]*0.05072]
#3=[#1+[#2-#1]*0.36180]
X5.58571 Y-2.62317 Z[#3+#4]
#1=[#520+[#521-#520]*0.05007]
#2=[#529+[#530-#529]*0.05007]
#3=[#1+[#2-#1]*0.36973]
X5.58874 Y-2.62341 Z[#3+#4]
#1=[#520+[#521-#520]*0.04812]
#2=[#529+[#530-#529]*0.04812]
#3=[#1+[#2-#1]*0.37747]
X5.59170 Y-2.62410 Z[#3+#4]
#1=[#520+[#521-#520]*0.04492]
#2=[#529+[#530-#529]*0.04492]
#3=[#1+[#2-#1]*0.38484]
X5.59452 Y-2.62525 Z[#3+#4]
#1=[#519+[#520-#519]*0.97837]
#2=[#528+[#529-#528]*0.97837]
#3=[#1+[#2-#1]*0.50944]
X5.64214 Y-2.64906 Z[#3+#4]
#1=[#519+[#520-#519]*0.97379]
#2=[#528+[#529-#528]*0.97379]
#3=[#1+[#2-#1]*0.51652]
X5.64484 Y-2.65070 Z[#3+#4]
#1=[#519+[#520-#519]*0.96806]
#2=[#528+[#529-#528]*0.96806]
#3=[#1+[#2-#1]*0.52282]
X5.64725 Y-2.65275 Z[#3+#4]
#1=[#519+[#520-#519]*0.90152]
#2=[#528+[#529-#528]*0.90152]
#3=[#1+[#2-#1]*0.58512]
X5.67106 Y-2.67656 Z[#3+#4]
#1=[#519+[#520-#519]*0.89478]
#2=[#528+[#529-#528]*0.89478]
#3=[#1+[#2-#1]*0.59049]
X5.67311 Y-2.67897 Z[#3+#4]
#1=[#519+[#520-#519]*0.88722]
#2=[#528+[#529-#528]*0.88722]
#3=[#1+[#2-#1]*0.59477]
X5.67475 Y-2.68167 Z[#3+#4]
#1=[#519+[#520-#519]*0.75412]
#2=[#528+[#529-#528]*0.75412]
#3=[#1+[#2-#1]*0.65707]
X5.69856 Y-2.72929 Z[#3+#4]
#1=[#519+[#520-#519]*0.74626]
#2=[#528+[#529-#528]*0.74626]
#3=[#1+[#2-#1]*0.66007]
X5.69970 Y-2.73211 Z[#3+#4]
#1=[#519+[#520-#519]*0.73799]
#2=[#528+[#529-#528]*0.73799]
#3=[#1+[#2-#1]*0.66189]
X5.70040 Y-2.73507 Z[#3+#4]
#1=[#519+[#520-#519]*0.72952]
#2=[#528+[#529-#528]*0.72952]
#3=[#1+[#2-#1]*0.66251]
X5.70064 Y-2.73810 Z[#3+#4]
#1=[#519+[#520-#519]*0.33024]
#2=[#528+[#529-#528]*0.33024]
#3=[#1+[#2-#1]*0.66251]
X5.70064 Y-2.88095 Z[#3+#4]
#1=[#519+[#520-#519]*0.32177]
#2=[#528+[#529-#528]*0.32177]
#3=[#1+[#2-#1]*0.66189]
X5.70040 Y-2.88398 Z[#3+#4]
#1=[#519+[#520-#519]*0.31350]
#2=[#528+[#529-#528]*0.31350]
#3=[#1+[#2-#1]*0.66007]
X5.69970 Y-2.88694 Z[#3+#4]
#1=[#519+[#520-#519]*0.30563]
#2=[#528+[#529-#528]*0.30563]
#3=[#1+[#2-#1]*0.65707]
X5.69856 Y-2.88976 Z[#3+#4]
#1=[#519+[#520-#519]*0.17254]
#2=[#528+[#529-#528]*0.17254]
#3=[#1+[#2-#1]*0.59477]
X5.67475 Y-2.93737 Z[#3+#4]
#1=[#519+[#520-#519]*0.16498]
#2=[#528+[#529-#528]*0.16498]
#3=[#1+[#2-#1]*0.59049]
X5.67311 Y-2.94008 Z[#3+#4]
#1=[#519+[#520-#519]*0.15824]
#2=[#528+[#529-#528]*0.15824]
#3=[#1+[#2-#1]*0.58512]
X5.67106 Y-2.94249 Z[#3+#4]
#1=[#519+[#520-#519]*0.09169]
#2=[#528+[#529-#528]*0.09169]
#3=[#1+[#2-#1]*0.52282]
X5.64725 Y-2.96630 Z[#3+#4]
#1=[#519+[#520-#519]*0.08597]
#2=[#528+[#529-#528]*0.08597]
#3=[#1+[#2-#1]*0.51652]
X5.64484 Y-2.96835 Z[#3+#4]
#1=[#519+[#520-#519]*0.08139]
#2=[#528+[#529-#528]*0.08139]
#3=[#1+[#2-#1]*0.50944]
X5.64214 Y-2.96999 Z[#3+#4]
#1=[#519+[#520-#519]*0.01484]
#2=[#528+[#529-#528]*0.01484]
#3=[#1+[#2-#1]*0.38484]
X5.59452 Y-2.99380 Z[#3+#4]
#1=[#519+[#520-#519]*0.01164]
#2=[#528+[#529-#528]*0.01164]
#3=[#1+[#2-#1]*0.37747]
X5.59170 Y-2.99494 Z[#3+#4]
#1=[#519+[#520-#519]*0.00969]
#2=[#528+[#529-#528]*0.00969]
#3=[#1+[#2-#1]*0.36973]
X5.58874 Y-2.99564 Z[#3+#4]
#1=[#519+[#520-#519]*0.00903]
#2=[#528+[#529-#528]*0.00903]
#3=[#1+[#2-#1]*0.36180]
X5.58571 Y-2.99588 Z[#3+#4]
#1=[#519+[#520-#519]*0.00903]
#2=[#528+[#529-#528]*0.00903]
#3=[#1+[#2-#1]*0.17491]
X5.51429 Y-2.99588 Z[#3+#4]
#1=[#519+[#520-#519]*0.00969]
#2=[#528+[#529-#528]*0.00969]
#3=[#1+[#2-#1]*0.16698]
X5.51126 Y-2.99564 Z[#3+#4]
#1=[#519+[#520-#519]*0.01164]
#2=[#528+[#529-#528]*0.01164]
#3=[#1+[#2-#1]*0.15924]
X5.50830 Y-2.99494 Z[#3+#4]
#1=[#519+[#520-#519]*0.01484]
#2=[#528+[#529-#528]*0.01484]
#3=[#1+[#2-#1]*0.15187]
X5.50548 Y-2.99380 Z[#3+#4]
#1=[#519+[#520-#519]*0.08139]
#2=[#528+[#529-#528]*0.08139]
#3=[#1+[#2-#1]*0.02727]
X5.45786 Y-2.96999 Z[#3+#4]
#1=[#519+[#520-#519]*0.08597]
#2=[#528+[#529-#528]*0.08597]
#3=[#1+[#2-#1]*0.02019]
X5.45516 Y-2.96835 Z[#3+#4]
#1=[#519+[#520-#519]*0.09169]
#2=[#528+[#529-#528]*0.09169]
#3=[#1+[#2-#1]*0.01389]
X5.45275 Y-2.96630 Z[#3+#4]
#1=[#510+[#511-#510]*0.15824]
#2=[#519+[#520-#519]*0.15824]
#3=[#1+[#2-#1]*0.95159]
X5.42894 Y-2.94249 Z[#3+#4]
#1=[#510+[#511-#510]*0.16498]
#2=[#519+[#520-#519]*0.16498]
#3=[#1+[#2-#1]*0.94622]
X5.42689 Y-2.94008 Z[#3+#4]
#1=[#510+[#511-#510]*0.17254]
#2=[#519+[#520-#519]*0.17254]
#3=[#1+[#2-#1]*0.94194]
X5.42525 Y-2.93737 Z[#3+#4]
#1=[#510+[#511-#510]*0.30563]
#2=[#519+[#520-#519]*0.30563]
#3=[#1+[#2-#1]*0.87964]
X5.40144 Y-2.88976 Z[#3+#4]
#1=[#510+[#511-#510]*0.30679]
#2=[#519+[#520-#519]*0.30679]
#3=[#1+[#2-#1]*0.87923]
X5.40129 Y-2.88934 Z[#3+#4]
G04 P0 ( dwell for no time -- G64 should not smooth over this point )
G00 Z0.08000 ( retract )

G00 X5.58107 Y-2.95651 ( rapid move to begin. )
G01 F180.00000
#1=[#519+[#520-#519]*0.11907]
#2=[#528+[#529-#528]*0.11907]
#3=[#1+[#2-#1]*0.34964]
G01 Z[-0.04000+#111]
G04 P0 ( dwell for no time -- G64 should not smooth over this point )
G01 F360.00000
#1=[#519+[#520-#519]*0.17582]
#2=[#528+[#529-#528]*0.17582]
#3=[#1+[#2-#1]*0.45589]
X5.62167 Y-2.93620 Z[#3+#4]
#1=[#519+[#520-#519]*0.22974]
#2=[#528+[#529-#528]*0.22974]
#3=[#1+[#2-#1]*0.50637]
X5.64096 Y-2.91691 Z[#3+#4]
#1=[#519+[#520-#519]*0.34323]
#2=[#528+[#529-#528]*0.34323]
#3=[#1+[#2-#1]*0.55949]
X5.66127 Y-2.87631 Z[#3+#4]
#1=[#519+[#520-#519]*0.71653]
#2=[#528+[#529-#528]*0.71653]
#3=[#1+[#2-#1]*0.55949]
X5.66127 Y-2.74274 Z[#3+#4]
#1=[#519+[#520-#519]*0.83002]
#2=[#528+[#529-#528]*0.83002]
#3=[#1+[#2-#1]*0.50637]
X5.64096 Y-2.70214 Z[#3+#4]
#1=[#519+[#520-#519]*0.88394]
#2=[#528+[#529-#528]*0.88394]
#3=[#1+[#2-#1]*0.45589]
X5.62167 Y-2.68285 Z[#3+#4]
#1=[#519+[#520-#519]*0.94069]
#2=[#528+[#529-#528]*0.94069]
#3=[#1+[#2-#1]*0.34964]
X5.58107 Y-2.66254 Z[#3+#4]
#1=[#519+[#520-#519]*0.94069]
#2=[#528+[#529-#528]*0.94069]
#3=[#1+[#2-#1]*0.18707]
X5.51893 Y-2.66254 Z[#3+#4]
#1=[#519+[#520-#519]*0.88394]
#2=[#528+[#529-#528]*0.88394]
#3=[#1+[#2-#1]*0.08082]
X5.47833 Y-2.68285 Z[#3+#4]
#1=[#519+[#520-#519]*0.83002]
#2=[#528+[#529-#528]*0.83002]
#3=[#1+[#2-#1]*0.03034]
X5.45904 Y-2.70214 Z[#3+#4]
#1=[#510+[#511-#510]*0.71653]
#2=[#519+[#520-#519]*0.71653]
#3=[#1+[#2-#1]*0.97722]
X5.43873 Y-2.74274 Z[#3+#4]
#1=[#510+[#511-#510]*0.34323]
#2=[#519+[#520-#519]*0.34323]
#3=[#1+[#2-#1]*0.97722]
X5.43873 Y-2.87631 Z[#3+#4]
#1=[#519+[#520-#519]*0.22974]
#2=[#528+[#529-#528]*0.22974]
#3=[#1+[#2-#1]*0.03034]
X5.45904 Y-2.91691 Z[#3+#4]
#1=[#519+[#520-#519]*0.17582]
#2=[#528+[#529-#528]*0.17582]
#3=[#1+[#2-#1]*0.08082]
X5.47833 Y-2.93620 Z[#3+#4]
#1=[#519+[#520-#519]*0.11907]
#2=[#528+[#529-#528]*0.11907]
#3=[#1+[#2-#1]*0.18707]
X5.51893 Y-2.95651 Z[#3+#4]
#1=[#519+[#520-#519]*0.11907]
#2=[#528+[#529-#528]*0.11907]
#3=[#1+[#2-#1]*0.34964]
X5.58107 Y-2.95651 Z[#3+#4]
G04 P0 ( dwell for no time -- G64 should not smooth over this point )
G00 Z0.08000 ( retract )

G00 X6.36730 Y-2.90011 ( rapid move to begin. )
G01 F180.00000
#1=[#537+[#538-#537]*0.27668]
#2=[#546+[#547-#546]*0.27668]
#3=[#1+[#2-#1]*0.40688]
G01 Z[-0.04000+#111]
G04 P0 ( dwell for no time -- G64 should not smooth over this point )
G01 F360.00000
#1=[#537+[#538-#537]*0.17161]
#2=[#546+[#547-#546]*0.17161]
#3=[#1+[#2-#1]*0.45606]
X6.38610 Y-2.93771 Z[#3+#4]
#1=[#537+[#538-#537]*0.11907]
#2=[#546+[#547-#546]*0.11907]
#3=[#1+[#2-#1]*0.55443]
X6.42369 Y-2.95651 Z[#3+#4]
#1=[#537+[#538-#537]*0.11907]
#2=[#546+[#547-#546]*0.11907]
#3=[#1+[#2-#1]*0.66687]
X6.46667 Y-2.95651 Z[#3+#4]
#1=[#537+[#538-#537]*0.11787]
#2=[#546+[#547-#546]*0.11787]
#3=[#1+[#2-#1]*0.67758]
X6.47076 Y-2.95694 Z[#3+#4]
#1=[#537+[#538-#537]*0.11431]
#2=[#546+[#547-#546]*0.11431]
#3=[#1+[#2-#1]*0.68782]
X6.47467 Y-2.95821 Z[#3+#4]
#1=[#537+[#538-#537]*0.10856]
#2=[#546+[#547-#546]*0.10856]
#3=[#1+[#2-#1]*0.69714]
X6.47824 Y-2.96026 Z[#3+#4]
#1=[#537+[#538-#537]*0.10087]
#2=[#546+[#547-#546]*0.10087]
#3=[#1+[#2-#1]*0.70514]
X6.48130 Y-2.96302 Z[#3+#4]
#1=[#537+[#538-#537]*0.09156]
#2=[#546+[#547-#546]*0.09156]
#3=[#1+[#2-#1]*0.71147]
X6.48371 Y-2.96635 Z[#3+#4]
#1=[#537+[#538-#537]*0.08105]
#2=[#546+[#547-#546]*0.08105]
#3=[#1+[#2-#1]*0.71585]
X6.48539 Y-2.97011 Z[#3+#4]
#1=[#537+[#538-#537]*0.06980]
#2=[#546+[#547-#546]*0.06980]
#3=[#1+[#2-#1]*0.71809]
X6.48624 Y-2.97413 Z[#3+#4]
#1=[#537+[#538-#537]*0.05830]
#2=[#546+[#547-#546]*0.05830]
#3=[#1+[#2-#1]*0.71809]
X6.48624 Y-2.97825 Z[#3+#4]
#1=[#537+[#538-#537]*0.04705]
#2=[#546+[#547-#546]*0.04705]
#3=[#1+[#2-#1]*0.71585]
X6.48539 Y-2.98227 Z[#3+#4]
#1=[#537+[#538-#537]*0.03654]
#2=[#546+[#547-#546]*0.03654]
#3=[#1+[#2-#1]*0.71147]
X6.48371 Y-2.98603 Z[#3+#4]
#1=[#537+[#538-#537]*0.02724]
#2=[#546+[#547-#546]*0.02724]
#3=[#1+[#2-#1]*0.70514]
X6.48130 Y-2.98936 Z[#3+#4]
#1=[#537+[#538-#537]*0.01954]
#2=[#546+[#547-#546]*0.01954]
#3=[#1+[#2-#1]*0.69714]
X6.47824 Y-2.99212 Z[#3+#4]
#1=[#537+[#538-#537]*0.01379]
#2=[#546+[#547-#546]*0.01379]
#3=[#1+[#2-#1]*0.68782]
X6.47467 Y-2.99417 Z[#3+#4]
#1=[#537+[#538-#537]*0.01024]
#2=[#546+[#547-#546]*0.01024]
#3=[#1+[#2-#1]*0.67758]
X6.47076 Y-2.99545 Z[#3+#4]
#1=[#537+[#538-#537]*0.00903]
#2=[#546+[#547-#546]*0.00903]
#3=[#1+[#2-#1]*0.66687]
X6.46667 Y-2.99588 Z[#3+#4]
#1=[#537+[#538-#537]*0.00903]
#2=[#546+[#547-#546]*0.00903]
#3=[#1+[#2-#1]*0.54227]
X6.41905 Y-2.99588 Z[#3+#4]
#1=[#537+[#538-#537]*0.00969]
#2=[#546+[#547-#546]*0.00969]
#3=[#1+[#2-#1]*0.53434]
X6.41602 Y-2.99564 Z[#3+#4]
#1=[#537+[#538-#537]*0.01164]
#2=[#546+[#547-#546]*0.01164]
#3=[#1+[#2-#1]*0.52660]
X6.41306 Y-2.99494 Z[#3+#4]
#1=[#537+[#538-#537]*0.01484]
#2=[#546+[#547-#546]*0.01484]
#3=[#1+[#2-#1]*0.51923]
X6.41024 Y-2.99380 Z[#3+#4]
#1=[#537+[#538-#537]*0.08139]
#2=[#546+[#547-#546]*0.08139]
#3=[#1+[#2-#1]*0.39464]
X6.36263 Y-2.96999 Z[#3+#4]
#1=[#537+[#538-#537]*0.08597]
#2=[#546+[#547-#546]*0.08597]
#3=[#1+[#2-#1]*0.38755]
X6.35992 Y-2.96835 Z[#3+#4]
#1=[#537+[#538-#537]*0.09169]
#2=[#546+[#547-#546]*0.09169]
#3=[#1+[#2-#1]*0.38125]
X6.35751 Y-2.96630 Z[#3+#4]
#1=[#537+[#538-#537]*0.09843]
#2=[#546+[#547-#546]*0.09843]
#3=[#1+[#2-#1]*0.37589]
X6.35546 Y-2.96389 Z[#3+#4]
#1=[#537+[#538-#537]*0.10599]
#2=[#546+[#547-#546]*0.10599]
#3=[#1+[#2-#1]*0.37160]
X6.35382 Y-2.96118 Z[#3+#4]
#1=[#537+[#538-#537]*0.23909]
#2=[#546+[#547-#546]*0.23909]
#3=[#1+[#2-#1]*0.30930]
X6.33001 Y-2.91357 Z[#3+#4]
#1=[#537+[#538-#537]*0.24696]
#2=[#546+[#547-#546]*0.24696]
#3=[#1+[#2-#1]*0.30631]
X6.32887 Y-2.91075 Z[#3+#4]
#1=[#537+[#538-#537]*0.25522]
#2=[#546+[#547-#546]*0.25522]
#3=[#1+[#2-#1]*0.30448]
X6.32817 Y-2.90779 Z[#3+#4]
#1=[#537+[#538-#537]*0.26369]
#2=[#546+[#547-#546]*0.26369]
#3=[#1+[#2-#1]*0.30386]
X6.32793 Y-2.90476 Z[#3+#4]
#1=[#537+[#538-#537]*0.94069]
#2=[#546+[#547-#546]*0.94069]
#3=[#1+[#2-#1]*0.30387]
X6.32793 Y-2.66254 Z[#3+#4]
#1=[#537+[#538-#537]*0.94069]
#2=[#546+[#547-#546]*0.94069]
#3=[#1+[#2-#1]*0.16847]
X6.27619 Y-2.66254 Z[#3+#4]
#1=[#537+[#538-#537]*0.94189]
#2=[#546+[#547-#546]*0.94189]
#3=[#1+[#2-#1]*0.15777]
X6.27210 Y-2.66211 Z[#3+#4]
#1=[#537+[#538-#537]*0.94544]
#2=[#546+[#547-#546]*0.94544]
#3=[#1+[#2-#1]*0.14753]
X6.26818 Y-2.66084 Z[#3+#4]
#1=[#537+[#538-#537]*0.95119]
#2=[#546+[#547-#546]*0.95119]
#3=[#1+[#2-#1]*0.13820]
X6.26462 Y-2.65878 Z[#3+#4]
#1=[#537+[#538-#537]*0.95889]
#2=[#546+[#547-#546]*0.95889]
#3=[#1+[#2-#1]*0.13020]
X6.26156 Y-2.65603 Z[#3+#4]
#1=[#537+[#538-#537]*0.96820]
#2=[#546+[#547-#546]*0.96820]
#3=[#1+[#2-#1]*0.12387]
X6.25914 Y-2.65270 Z[#3+#4]
#1=[#537+[#538-#537]*0.97870]
#2=[#546+[#547-#546]*0.97870]
#3=[#1+[#2-#1]*0.11949]
X6.25747 Y-2.64894 Z[#3+#4]
#1=[#537+[#538-#537]*0.98995]
#2=[#546+[#547-#546]*0.98995]
#3=[#1+[#2-#1]*0.11725]
X6.25661 Y-2.64491 Z[#3+#4]
#1=[#538+[#539-#538]*0.00146]
#2=[#547+[#548-#547]*0.00146]
#3=[#1+[#2-#1]*0.11725]
X6.25661 Y-2.64080 Z[#3+#4]
#1=[#538+[#539-#538]*0.01271]
#2=[#547+[#548-#547]*0.01271]
#3=[#1+[#2-#1]*0.11949]
X6.25747 Y-2.63677 Z[#3+#4]
#1=[#538+[#539-#538]*0.02322]
#2=[#547+[#548-#547]*0.02322]
#3=[#1+[#2-#1]*0.12387]
X6.25914 Y-2.63301 Z[#3+#4]
#1=[#538+[#539-#538]*0.03252]
#2=[#547+[#548-#547]*0.03252]
#3=[#1+[#2-#1]*0.13020]
X6.26156 Y-2.62969 Z[#3+#4]
#1=[#538+[#539-#538]*0.04022]
#2=[#547+[#548-#547]*0.04022]
#3=[#1+[#2-#1]*0.13820]
X6.26462 Y-2.62693 Z[#3+#4]
#1=[#538+[#539-#538]*0.04597]
#2=[#547+[#548-#547]*0.04597]
#3=[#1+[#2-#1]*0.14753]
X6.26818 Y-2.62487 Z[#3+#4]
#1=[#538+[#539-#538]*0.04952]
#2=[#547+[#548-#547]*0.04952]
#3=[#1+[#2-#1]*0.15777]
X6.27210 Y-2.62360 Z[#3+#4]
#1=[#538+[#539-#538]*0.05072]
#2=[#547+[#548-#547]*0.05072]
#3=[#1+[#2-#1]*0.16847]
X6.27619 Y-2.62317 Z[#3+#4]
#1=[#538+[#539-#538]*0.05072]
#2=[#547+[#548-#547]*0.05072]
#3=[#1+[#2-#1]*0.30387]
X6.32793 Y-2.62317 Z[#3+#4]
#1=[#538+[#539-#538]*0.46153]
#2=[#547+[#548-#547]*0.46153]
#3=[#1+[#2-#1]*0.30386]
X6.32793 Y-2.47619 Z[#3+#4]
#1=[#538+[#539-#538]*0.47297]
#2=[#547+[#548-#547]*0.47297]
#3=[#1+[#2-#1]*0.30499]
X6.32836 Y-2.47210 Z[#3+#4]
#1=[#538+[#539-#538]*0.48391]
#2=[#547+[#548-#547]*0.48391]
#3=[#1+[#2-#1]*0.30832]
X6.32964 Y-2.46818 Z[#3+#4]
#1=[#538+[#539-#538]*0.49387]
#2=[#547+[#548-#547]*0.49387]
#3=[#1+[#2-#1]*0.31370]
X6.33169 Y-2.46462 Z[#3+#4]
#1=[#538+[#539-#538]*0.50242]
#2=[#547+[#548-#547]*0.50242]
#3=[#1+[#2-#1]*0.32091]
X6.33445 Y-2.46156 Z[#3+#4]
#1=[#538+[#539-#538]*0.50918]
#2=[#547+[#548-#547]*0.50918]
#3=[#1+[#2-#1]*0.32962]
X6.33778 Y-2.45914 Z[#3+#4]
#1=[#538+[#539-#538]*0.51386]
#2=[#547+[#548-#547]*0.51386]
#3=[#1+[#2-#1]*0.33946]
X6.34154 Y-2.45747 Z[#3+#4]
#1=[#538+[#539-#538]*0.51625]
#2=[#547+[#548-#547]*0.51625]
#3=[#1+[#2-#1]*0.34999]
X6.34556 Y-2.45661 Z[#3+#4]
#1=[#538+[#539-#538]*0.51625]
#2=[#547+[#548-#547]*0.51625]
#3=[#1+[#2-#1]*0.36076]
X6.34968 Y-2.45661 Z[#3+#4]
#1=[#538+[#539-#538]*0.51386]
#2=[#547+[#548-#547]*0.51386]
#3=[#1+[#2-#1]*0.37129]
X6.35370 Y-2.45747 Z[#3+#4]
#1=[#538+[#539-#538]*0.50918]
#2=[#547+[#548-#547]*0.50918]
#3=[#1+[#2-#1]*0.38113]
X6.35746 Y-2.45914 Z[#3+#4]
#1=[#538+[#539-#538]*0.50242]
#2=[#547+[#548-#547]*0.50242]
#3=[#1+[#2-#1]*0.38984]
X6.36079 Y-2.46156 Z[#3+#4]
#1=[#538+[#539-#538]*0.49387]
#2=[#547+[#548-#547]*0.49387]
#3=[#1+[#2-#1]*0.39704]
X6.36354 Y-2.46462 Z[#3+#4]
#1=[#538+[#539-#538]*0.48391]
#2=[#547+[#548-#547]*0.48391]
#3=[#1+[#2-#1]*0.40243]
X6.36560 Y-2.46818 Z[#3+#4]
#1=[#538+[#539-#538]*0.47297]
#2=[#547+[#548-#547]*0.47297]
#3=[#1+[#2-#1]*0.40575]
X6.36687 Y-2.47210 Z[#3+#4]
#1=[#538+[#539-#538]*0.46153]
#2=[#547+[#548-#547]*0.46153]
#3=[#1+[#2-#1]*0.40688]
X6.36730 Y-2.47619 Z[#3+#4]
#1=[#538+[#539-#538]*0.05072]
#2=[#547+[#548-#547]*0.05072]
#3=[#1+[#2-#1]*0.40688]
X6.36730 Y-2.62317 Z[#3+#4]
#1=[#538+[#539-#538]*0.05072]
#2=[#547+[#548-#547]*0.05072]
#3=[#1+[#2-#1]*0.66687]
X6.46667 Y-2.62317 Z[#3+#4]
#1=[#538+[#539-#538]*0.04952]
#2=[#547+[#548-#547]*0.04952]
#3=[#1+[#2-#1]*0.67758]
X6.47076 Y-2.62360 Z[#3+#4]
#1=[#538+[#539-#538]*0.04597]
#2=[#547+[#548-#547]*0.04597]
#3=[#1+[#2-#1]*0.68782]
X6.47467 Y-2.62487 Z[#3+#4]
#1=[#538+[#539-#538]*0.04022]
#2=[#547+[#548-#547]*0.04022]
#3=[#1+[#2-#1]*0.69714]
X6.47824 Y-2.62693 Z[#3+#4]
#1=[#538+[#539-#538]*0.03252]
#2=[#547+[#548-#547]*0.03252]
#3=[#1+[#2-#1]*0.70514]
X6.48130 Y-2.62969 Z[#3+#4]
#1=[#538+[#539-#538]*0.02322]
#2=[#547+[#548-#547]*0.02322]
#3=[#1+[#2-#1]*0.71147]
X6.48371 Y-2.63301 Z[#3+#4]
#1=[#538+[#539-#538]*0.01271]
#2=[#547+[#548-#547]*0.01271]
#3=[#1+[#2-#1]*0.71585]
X6.48539 Y-2.63677 Z[#3+#4]
#1=[#538+[#539-#538]*0.00146]
#2=[#547+[#548-#547]*0.00146]
#3=[#1+[#2-#1]*0.71809]
X6.48624 Y-2.64080 Z[#3+#4]
#1=[#537+[#538-#537]*0.98995]
#2=[#546+[#547-#546]*0.98995]
#3=[#1+[#2-#1]*0.71809]
X6.48624 Y-2.64491 Z[#3+#4]
#1=[#537+[#538-#537]*0.97870]
#2=[#546+[#547-#546]*0.97870]
#3=[#1+[#2-#1]*0.71585]
X6.48539 Y-2.64894 Z[#3+#4]
#1=[#537+[#538-#537]*0.96820]
#2=[#546+[#547-#546]*0.96820]
#3=[#1+[#2-#1]*0.71147]
X6.48371 Y-2.65270 Z[#3+#4]
#1=[#537+[#538-#537]*0.95889]
#2=[#546+[#547-#546]*0.95889]
#3=[#1+[#2-#1]*0.70514]
X6.48130 Y-2.65603 Z[#3+#4]
#1=[#537+[#538-#537]*0.95119]
#2=[#546+[#547-#546]*0.95119]
#3=[#1+[#2-#1]*0.69714]
X6.47824 Y-2.65878 Z[#3+#4]
#1=[#537+[#538-#537]*0.94544]
#2=[#546+[#547-#546]*0.94544]
#3=[#1+[#2-#1]*0.68782]
X6.47467 Y-2.66084 Z[#3+#4]
#1=[#537+[#538-#537]*0.94189]
#2=[#546+[#547-#546]*0.94189]
#3=[#1+[#2-#1]*0.67758]
X6.47076 Y-2.66211 Z[#3+#4]
#1=[#537+[#538-#537]*0.94069]
#2=[#546+[#547-#546]*0.94069]
#3=[#1+[#2-#1]*0.66687]
X6.46667 Y-2.66254 Z[#3+#4]
#1=[#537+[#538-#537]*0.94069]
#2=[#546+[#547-#546]*0.94069]
#3=[#1+[#2-#1]*0.40688]
X6.36730 Y-2.66254 Z[#3+#4]
#1=[#537+[#538-#537]*0.27668]
#2=[#546+[#547-#546]*0.27668]
#3=[#1+[#2-#1]*0.40688]
X6.36730 Y-2.90011 Z[#3+#4]
G04 P0 ( dwell for no time -- G64 should not smooth over this point )
G00 Z0.08000 ( retract )

G00 X5.91492 Y-2.64672 ( rapid move to begin. )
G01 F180.00000
#1=[#528+[#529-#528]*0.98491]
#2=[#537+[#538-#537]*0.98491]
#3=[#1+[#2-#1]*0.22320]
G01 Z[-0.04000+#111]
G04 P0 ( dwell for no time -- G64 should not smooth over this point )
G01 F360.00000
#1=[#529+[#530-#529]*0.04492]
#2=[#538+[#539-#538]*0.04492]
#3=[#1+[#2-#1]*0.33555]
X5.95786 Y-2.62525 Z[#3+#4]
#1=[#529+[#530-#529]*0.04812]
#2=[#538+[#539-#538]*0.04812]
#3=[#1+[#2-#1]*0.34292]
X5.96068 Y-2.62410 Z[#3+#4]
#1=[#529+[#530-#529]*0.05007]
#2=[#538+[#539-#538]*0.05007]
#3=[#1+[#2-#1]*0.35066]
X5.96364 Y-2.62341 Z[#3+#4]
#1=[#529+[#530-#529]*0.05072]
#2=[#538+[#539-#538]*0.05072]
#3=[#1+[#2-#1]*0.35859]
X5.96667 Y-2.62317 Z[#3+#4]
#1=[#529+[#530-#529]*0.05072]
#2=[#538+[#539-#538]*0.05072]
#3=[#1+[#2-#1]*0.54548]
X6.03810 Y-2.62317 Z[#3+#4]
#1=[#529+[#530-#529]*0.05007]
#2=[#538+[#539-#538]*0.05007]
#3=[#1+[#2-#1]*0.55341]
X6.04113 Y-2.62341 Z[#3+#4]
#1=[#529+[#530-#529]*0.04812]
#2=[#538+[#539-#538]*0.04812]
#3=[#1+[#2-#1]*0.56115]
X6.04408 Y-2.62410 Z[#3+#4]
#1=[#529+[#530-#529]*0.04492]
#2=[#538+[#539-#538]*0.04492]
#3=[#1+[#2-#1]*0.56852]
X6.04690 Y-2.62525 Z[#3+#4]
#1=[#528+[#529-#528]*0.97837]
#2=[#537+[#538-#537]*0.97837]
#3=[#1+[#2-#1]*0.69312]
X6.09452 Y-2.64906 Z[#3+#4]
#1=[#528+[#529-#528]*0.97379]
#2=[#537+[#538-#537]*0.97379]
#3=[#1+[#2-#1]*0.70020]
X6.09722 Y-2.65070 Z[#3+#4]
#1=[#528+[#529-#528]*0.96806]
#2=[#537+[#538-#537]*0.96806]
#3=[#1+[#2-#1]*0.70650]
X6.09963 Y-2.65275 Z[#3+#4]
#1=[#528+[#529-#528]*0.96133]
#2=[#537+[#538-#537]*0.96133]
#3=[#1+[#2-#1]*0.71187]
X6.10168 Y-2.65516 Z[#3+#4]
#1=[#528+[#529-#528]*0.95376]
#2=[#537+[#538-#537]*0.95376]
#3=[#1+[#2-#1]*0.71615]
X6.10332 Y-2.65786 Z[#3+#4]
#1=[#528+[#529-#528]*0.82067]
#2=[#537+[#538-#537]*0.82067]
#3=[#1+[#2-#1]*0.77845]
X6.12713 Y-2.70548 Z[#3+#4]
#1=[#528+[#529-#528]*0.81280]
#2=[#537+[#538-#537]*0.81280]
#3=[#1+[#2-#1]*0.78145]
X6.12828 Y-2.70830 Z[#3+#4]
#1=[#528+[#529-#528]*0.80453]
#2=[#537+[#538-#537]*0.80453]
#3=[#1+[#2-#1]*0.78327]
X6.12897 Y-2.71126 Z[#3+#4]
#1=[#528+[#529-#528]*0.79607]
#2=[#537+[#538-#537]*0.79607]
#3=[#1+[#2-#1]*0.78389]
X6.12921 Y-2.71429 Z[#3+#4]
#1=[#528+[#529-#528]*0.06405]
#2=[#537+[#538-#537]*0.06405]
#3=[#1+[#2-#1]*0.78389]
X6.12921 Y-2.97619 Z[#3+#4]
#1=[#528+[#529-#528]*0.05261]
#2=[#537+[#538-#537]*0.05261]
#3=[#1+[#2-#1]*0.78276]
X6.12878 Y-2.98028 Z[#3+#4]
#1=[#528+[#529-#528]*0.04167]
#2=[#537+[#538-#537]*0.04167]
#3=[#1+[#2-#1]*0.77944]
X6.12751 Y-2.98420 Z[#3+#4]
#1=[#528+[#529-#528]*0.03171]
#2=[#537+[#538-#537]*0.03171]
#3=[#1+[#2-#1]*0.77405]
X6.12545 Y-2.98776 Z[#3+#4]
#1=[#528+[#529-#528]*0.02317]
#2=[#537+[#538-#537]*0.02317]
#3=[#1+[#2-#1]*0.76685]
X6.12270 Y-2.99082 Z[#3+#4]
#1=[#528+[#529-#528]*0.01640]
#2=[#537+[#538-#537]*0.01640]
#3=[#1+[#2-#1]*0.75814]
X6.11937 Y-2.99324 Z[#3+#4]
#1=[#528+[#529-#528]*0.01173]
#2=[#537+[#538-#537]*0.01173]
#3=[#1+[#2-#1]*0.74830]
X6.11561 Y-2.99491 Z[#3+#4]
#1=[#528+[#529-#528]*0.00933]
#2=[#537+[#538-#537]*0.00933]
#3=[#1+[#2-#1]*0.73777]
X6.11158 Y-2.99577 Z[#3+#4]
#1=[#528+[#529-#528]*0.00933]
#2=[#537+[#538-#537]*0.00933]
#3=[#1+[#2-#1]*0.72700]
X6.10747 Y-2.99577 Z[#3+#4]
#1=[#528+[#529-#528]*0.01173]
#2=[#537+[#538-#537]*0.01173]
#3=[#1+[#2-#1]*0.71647]
X6.10344 Y-2.99491 Z[#3+#4]
#1=[#528+[#529-#528]*0.01640]
#2=[#537+[#538-#537]*0.01640]
#3=[#1+[#2-#1]*0.70663]
X6.09968 Y-2.99324 Z[#3+#4]
#1=[#528+[#529-#528]*0.02317]
#2=[#537+[#538-#537]*0.02317]
#3=[#1+[#2-#1]*0.69792]
X6.09635 Y-2.99082 Z[#3+#4]
#1=[#528+[#529-#528]*0.03171]
#2=[#537+[#538-#537]*0.03171]
#3=[#1+[#2-#1]*0.69071]
X6.09360 Y-2.98776 Z[#3+#4]
#1=[#528+[#529-#528]*0.04167]
#2=[#537+[#538-#537]*0.04167]
#3=[#1+[#2-#1]*0.68533]
X6.09154 Y-2.98420 Z[#3+#4]
#1=[#528+[#529-#528]*0.05261]
#2=[#537+[#538-#537]*0.05261]
#3=[#1+[#2-#1]*0.68200]
X6.09027 Y-2.98028 Z[#3+#4]
#1=[#528+[#529-#528]*0.06405]
#2=[#537+[#538-#537]*0.06405]
#3=[#1+[#2-#1]*0.68087]
X6.08984 Y-2.97619 Z[#3+#4]
#1=[#528+[#529-#528]*0.78308]
#2=[#537+[#538-#537]*0.78308]
#3=[#1+[#2-#1]*0.68087]
X6.08984 Y-2.71893 Z[#3+#4]
#1=[#528+[#529-#528]*0.88815]
#2=[#537+[#538-#537]*0.88815]
#3=[#1+[#2-#1]*0.63169]
X6.07104 Y-2.68134 Z[#3+#4]
#1=[#528+[#529-#528]*0.94069]
#2=[#537+[#538-#537]*0.94069]
#3=[#1+[#2-#1]*0.53333]
X6.03345 Y-2.66254 Z[#3+#4]
#1=[#528+[#529-#528]*0.94069]
#2=[#537+[#538-#537]*0.94069]
#3=[#1+[#2-#1]*0.37075]
X5.97131 Y-2.66254 Z[#3+#4]
#1=[#528+[#529-#528]*0.88394]
#2=[#537+[#538-#537]*0.88394]
#3=[#1+[#2-#1]*0.26450]
X5.93071 Y-2.68285 Z[#3+#4]
#1=[#528+[#529-#528]*0.83982]
#2=[#537+[#538-#537]*0.83982]
#3=[#1+[#2-#1]*0.22320]
X5.91492 Y-2.69863 Z[#3+#4]
#1=[#528+[#529-#528]*0.06405]
#2=[#537+[#538-#537]*0.06405]
#3=[#1+[#2-#1]*0.22320]
X5.91492 Y-2.97619 Z[#3+#4]
#1=[#528+[#529-#528]*0.05261]
#2=[#537+[#538-#537]*0.05261]
#3=[#1+[#2-#1]*0.22207]
X5.91449 Y-2.98028 Z[#3+#4]
#1=[#528+[#529-#528]*0.04167]
#2=[#537+[#538-#537]*0.04167]
#3=[#1+[#2-#1]*0.21874]
X5.91322 Y-2.98420 Z[#3+#4]
#1=[#528+[#529-#528]*0.03171]
#2=[#537+[#538-#537]*0.03171]
#3=[#1+[#2-#1]*0.21336]
X5.91116 Y-2.98776 Z[#3+#4]
#1=[#528+[#529-#528]*0.02317]
#2=[#537+[#538-#537]*0.02317]
#3=[#1+[#2-#1]*0.20616]
X5.90841 Y-2.99082 Z[#3+#4]
#1=[#528+[#529-#528]*0.01640]
#2=[#537+[#538-#537]*0.01640]
#3=[#1+[#2-#1]*0.19744]
X5.90508 Y-2.99324 Z[#3+#4]
#1=[#528+[#529-#528]*0.01173]
#2=[#537+[#538-#537]*0.01173]
#3=[#1+[#2-#1]*0.18761]
X5.90132 Y-2.99491 Z[#3+#4]
#1=[#528+[#529-#528]*0.00933]
#2=[#537+[#538-#537]*0.00933]
#3=[#1+[#2-#1]*0.17707]
X5.89730 Y-2.99577 Z[#3+#4]
#1=[#528+[#529-#528]*0.00933]
#2=[#537+[#538-#537]*0.00933]
#3=[#1+[#2-#1]*0.16631]
X5.89318 Y-2.99577 Z[#3+#4]
#1=[#528+[#529-#528]*0.01173]
#2=[#537+[#538-#537]*0.01173]
#3=[#1+[#2-#1]*0.15577]
X5.88916 Y-2.99491 Z[#3+#4]
#1=[#528+[#529-#528]*0.01640]
#2=[#537+[#538-#537]*0.01640]
#3=[#1+[#2-#1]*0.14594]
X5.88540 Y-2.99324 Z[#3+#4]
#1=[#528+[#529-#528]*0.02317]
#2=[#537+[#538-#537]*0.02317]
#3=[#1+[#2-#1]*0.13723]
X5.88207 Y-2.99082 Z[#3+#4]
#1=[#528+[#529-#528]*0.03171]
#2=[#537+[#538-#537]*0.03171]
#3=[#1+[#2-#1]*0.13002]
X5.87931 Y-2.98776 Z[#3+#4]
#1=[#528+[#529-#528]*0.04167]
#2=[#537+[#538-#537]*0.04167]
#3=[#1+[#2-#1]*0.12464]
X5.87725 Y-2.98420 Z[#3+#4]
#1=[#528+[#529-#528]*0.05261]
#2=[#537+[#538-#537]*0.05261]
#3=[#1+[#2-#1]*0.12131]
X5.87598 Y-2.98028 Z[#3+#4]
#1=[#528+[#529-#528]*0.06405]
#2=[#537+[#538-#537]*0.06405]
#3=[#1+[#2-#1]*0.12018]
X5.87555 Y-2.97619 Z[#3+#4]
#1=[#528+[#529-#528]*0.99571]
#2=[#537+[#538-#537]*0.99571]
#3=[#1+[#2-#1]*0.12018]
X5.87555 Y-2.64286 Z[#3+#4]
#1=[#529+[#530-#529]*0.00714]
#2=[#538+[#539-#538]*0.00714]
#3=[#1+[#2-#1]*0.12131]
X5.87598 Y-2.63876 Z[#3+#4]
#1=[#529+[#530-#529]*0.01808]
#2=[#538+[#539-#538]*0.01808]
#3=[#1+[#2-#1]*0.12464]
X5.87725 Y-2.63485 Z[#3+#4]
#1=[#529+[#530-#529]*0.02804]
#2=[#538+[#539-#538]*0.02804]
#3=[#1+[#2-#1]*0.13002]
X5.87931 Y-2.63129 Z[#3+#4]
#1=[#529+[#530-#529]*0.03659]
#2=[#538+[#539-#538]*0.03659]
#3=[#1+[#2-#1]*0.13723]
X5.88207 Y-2.62823 Z[#3+#4]
#1=[#529+[#530-#529]*0.04335]
#2=[#538+[#539-#538]*0.04335]
#3=[#1+[#2-#1]*0.14594]
X5.88540 Y-2.62581 Z[#3+#4]
#1=[#529+[#530-#529]*0.04803]
#2=[#538+[#539-#538]*0.04803]
#3=[#1+[#2-#1]*0.15577]
X5.88916 Y-2.62414 Z[#3+#4]
#1=[#529+[#530-#529]*0.05042]
#2=[#538+[#539-#538]*0.05042]
#3=[#1+[#2-#1]*0.16631]
X5.89318 Y-2.62328 Z[#3+#4]
#1=[#529+[#530-#529]*0.05042]
#2=[#538+[#539-#538]*0.05042]
#3=[#1+[#2-#1]*0.17707]
X5.89730 Y-2.62328 Z[#3+#4]
#1=[#529+[#530-#529]*0.04803]
#2=[#538+[#539-#538]*0.04803]
#3=[#1+[#2-#1]*0.18761]
X5.90132 Y-2.62414 Z[#3+#4]
#1=[#529+[#530-#529]*0.04335]
#2=[#538+[#539-#538]*0.04335]
#3=[#1+[#2-#1]*0.19744]
X5.90508 Y-2.62581 Z[#3+#4]
#1=[#529+[#530-#529]*0.03659]
#2=[#538+[#539-#538]*0.03659]
#3=[#1+[#2-#1]*0.20616]
X5.90841 Y-2.62823 Z[#3+#4]
#1=[#529+[#530-#529]*0.02804]
#2=[#538+[#539-#538]*0.02804]
#3=[#1+[#2-#1]*0.21336]
X5.91116 Y-2.63129 Z[#3+#4]
#1=[#529+[#530-#529]*0.01808]
#2=[#538+[#539-#538]*0.01808]
#3=[#1+[#2-#1]*0.21874]
X5.91322 Y-2.63485 Z[#3+#4]
#1=[#529+[#530-#529]*0.00714]
#2=[#538+[#539-#538]*0.00714]
#3=[#1+[#2-#1]*0.22207]
X5.91449 Y-2.63876 Z[#3+#4]
#1=[#528+[#529-#528]*0.99571]
#2=[#537+[#538-#537]*0.99571]
#3=[#1+[#2-#1]*0.22320]
X5.91492 Y-2.64286 Z[#3+#4]
#1=[#528+[#529-#528]*0.98491]
#2=[#537+[#538-#537]*0.98491]
#3=[#1+[#2-#1]*0.22320]
X5.91492 Y-2.64672 Z[#3+#4]
( Piece #2, position [1;0] )

G04 P0 ( dwell for no time -- G64 should not smooth over this point )
G00 Z0.08000 ( retract )

G00 X9.40498 Y-3.29508 ( rapid move to begin. )
G01 F180.00000
#1=[#608+[#609-#608]*0.17277]
#2=[#617+[#618-#617]*0.17277]
#3=[#1+[#2-#1]*0.35515]
G01 Z[-0.04000+#111]
G04 P0 ( dwell for no time -- G64 should not smooth over this point )
G01 F360.00000
#1=[#608+[#609-#608]*0.29877]
#2=[#617+[#618-#617]*0.29877]
#3=[#1+[#2-#1]*0.35515]
X9.40498 Y-3.25000 Z[#3+#4]
#1=[#608+[#609-#608]*0.30163]
#2=[#617+[#618-#617]*0.30163]
#3=[#1+[#2-#1]*0.35543]
X9.40509 Y-3.24898 Z[#3+#4]
#1=[#608+[#609-#608]*0.30436]
#2=[#617+[#618-#617]*0.30436]
#3=[#1+[#2-#1]*0.35626]
X9.40541 Y-3.24800 Z[#3+#4]
#1=[#608+[#609-#608]*0.30685]
#2=[#617+[#618-#617]*0.30685]
#3=[#1+[#2-#1]*0.35761]
X9.40592 Y-3.24711 Z[#3+#4]
#1=[#608+[#609-#608]*0.30899]
#2=[#617+[#618-#617]*0.30899]
#3=[#1+[#2-#1]*0.35941]
X9.40661 Y-3.24634 Z[#3+#4]
#1=[#608+[#609-#608]*0.31068]
#2=[#617+[#618-#617]*0.31068]
#3=[#1+[#2-#1]*0.36158]
X9.40744 Y-3.24574 Z[#3+#4]
#1=[#608+[#609-#608]*0.31185]
#2=[#617+[#618-#617]*0.31185]
#3=[#1+[#2-#1]*0.36404]
X9.40838 Y-3.24532 Z[#3+#4]
#1=[#608+[#609-#608]*0.31244]
#2=[#617+[#618-#617]*0.31244]
#3=[#1+[#2-#1]*0.36668]
X9.40939 Y-3.24511 Z[#3+#4]
#1=[#608+[#609-#608]*0.31244]
#2=[#617+[#618-#617]*0.31244]
#3=[#1+[#2-#1]*0.36937]
X9.41042 Y-3.24511 Z[#3+#4]
#1=[#608+[#609-#608]*0.31185]
#2=[#617+[#618-#617]*0.31185]
#3=[#1+[#2-#1]*0.37200]
X9.41143 Y-3.24532 Z[#3+#4]
#1=[#608+[#609-#608]*0.31068]
#2=[#617+[#618-#617]*0.31068]
#3=[#1+[#2-#1]*0.37446]
X9.41237 Y-3.24574 Z[#3+#4]
#1=[#608+[#609-#608]*0.30899]
#2=[#617+[#618-#617]*0.30899]
#3=[#1+[#2-#1]*0.37664]
X9.41320 Y-3.24634 Z[#3+#4]
#1=[#608+[#609-#608]*0.30685]
#2=[#617+[#618-#617]*0.30685]
#3=[#1+[#2-#1]*0.37844]
X9.41389 Y-3.24711 Z[#3+#4]
#1=[#608+[#609-#608]*0.30436]
#2=[#617+[#618-#617]*0.30436]
#3=[#1+[#2-#1]*0.37979]
X9.41440 Y-3.24800 Z[#3+#4]
#1=[#608+[#609-#608]*0.30163]
#2=[#617+[#618-#617]*0.30163]
#3=[#1+[#2-#1]*0.38062]
X9.41472 Y-3.24898 Z[#3+#4]
#1=[#608+[#609-#608]*0.29877]
#2=[#617+[#618-#617]*0.29877]
#3=[#1+[#2-#1]*0.38090]
X9.41483 Y-3.25000 Z[#3+#4]
#1=[#608+[#609-#608]*0.17277]
#2=[#617+[#618-#617]*0.17277]
#3=[#1+[#2-#1]*0.38090]
X9.41483 Y-3.29508 Z[#3+#4]
#1=[#608+[#609-#608]*0.17277]
#2=[#617+[#618-#617]*0.17277]
#3=[#1+[#2-#1]*0.49885]
X9.45991 Y-3.29508 Z[#3+#4]
#1=[#608+[#609-#608]*0.17247]
#2=[#617+[#618-#617]*0.17247]
#3=[#1+[#2-#1]*0.50153]
X9.46093 Y-3.29519 Z[#3+#4]
#1=[#608+[#609-#608]*0.17158]
#2=[#617+[#618-#617]*0.17158]
#3=[#1+[#2-#1]*0.50409]
X9.46191 Y-3.29550 Z[#3+#4]
#1=[#608+[#609-#608]*0.17015]
#2=[#617+[#618-#617]*0.17015]
#3=[#1+[#2-#1]*0.50642]
X9.46280 Y-3.29602 Z[#3+#4]
#1=[#608+[#609-#608]*0.16822]
#2=[#617+[#618-#617]*0.16822]
#3=[#1+[#2-#1]*0.50842]
X9.46356 Y-3.29671 Z[#3+#4]
#1=[#608+[#609-#608]*0.16589]
#2=[#617+[#618-#617]*0.16589]
#3=[#1+[#2-#1]*0.51000]
X9.46417 Y-3.29754 Z[#3+#4]
#1=[#608+[#609-#608]*0.16327]
#2=[#617+[#618-#617]*0.16327]
#3=[#1+[#2-#1]*0.51110]
X9.46459 Y-3.29848 Z[#3+#4]
#1=[#608+[#609-#608]*0.16046]
#2=[#617+[#618-#617]*0.16046]
#3=[#1+[#2-#1]*0.51166]
X9.46480 Y-3.29949 Z[#3+#4]
#1=[#608+[#609-#608]*0.15758]
#2=[#617+[#618-#617]*0.15758]
#3=[#1+[#2-#1]*0.51166]
X9.46480 Y-3.30051 Z[#3+#4]
#1=[#608+[#609-#608]*0.15477]
#2=[#617+[#618-#617]*0.15477]
#3=[#1+[#2-#1]*0.51110]
X9.46459 Y-3.30152 Z[#3+#4]
#1=[#608+[#609-#608]*0.15214]
#2=[#617+[#618-#617]*0.15214]
#3=[#1+[#2-#1]*0.51000]
X9.46417 Y-3.30246 Z[#3+#4]
#1=[#608+[#609-#608]*0.14981]
#2=[#617+[#618-#617]*0.14981]
#3=[#1+[#2-#1]*0.50842]
X9.46356 Y-3.30329 Z[#3+#4]
#1=[#608+[#609-#608]*0.14789]
#2=[#617+[#618-#617]*0.14789]
#3=[#1+[#2-#1]*0.50642]
X9.46280 Y-3.30398 Z[#3+#4]
#1=[#608+[#609-#608]*0.14645]
#2=[#617+[#618-#617]*0.14645]
#3=[#1+[#2-#1]*0.50409]
X9.46191 Y-3.30450 Z[#3+#4]
#1=[#608+[#609-#608]*0.14556]
#2=[#617+[#618-#617]*0.14556]
#3=[#1+[#2-#1]*0.50153]
X9.46093 Y-3.30481 Z[#3+#4]
#1=[#608+[#609-#608]*0.14526]
#2=[#617+[#618-#617]*0.14526]
#3=[#1+[#2-#1]*0.49885]
X9.45991 Y-3.30492 Z[#3+#4]
#1=[#608+[#609-#608]*0.14526]
#2=[#617+[#618-#617]*0.14526]
#3=[#1+[#2-#1]*0.38090]
X9.41483 Y-3.30492 Z[#3+#4]
#1=[#608+[#609-#608]*0.01927]
#2=[#617+[#618-#617]*0.01927]
#3=[#1+[#2-#1]*0.38090]
X9.41483 Y-3.35000 Z[#3+#4]
#1=[#608+[#609-#608]*0.01641]
#2=[#617+[#618-#617]*0.01641]
#3=[#1+[#2-#1]*0.38062]
X9.41472 Y-3.35102 Z[#3+#4]
#1=[#608+[#609-#608]*0.01367]
#2=[#617+[#618-#617]*0.01367]
#3=[#1+[#2-#1]*0.37979]
X9.41440 Y-3.35200 Z[#3+#4]
#1=[#608+[#609-#608]*0.01118]
#2=[#617+[#618-#617]*0.01118]
#3=[#1+[#2-#1]*0.37844]
X9.41389 Y-3.35289 Z[#3+#4]
#1=[#608+[#609-#608]*0.00905]
#2=[#617+[#618-#617]*0.00905]
#3=[#1+[#2-#1]*0.37664]
X9.41320 Y-3.35366 Z[#3+#4]
#1=[#608+[#609-#608]*0.00736]
#2=[#617+[#618-#617]*0.00736]
#3=[#1+[#2-#1]*0.37446]
X9.41237 Y-3.35426 Z[#3+#4]
#1=[#608+[#609-#608]*0.00619]
#2=[#617+[#618-#617]*0.00619]
#3=[#1+[#2-#1]*0.37200]
X9.41143 Y-3.35468 Z[#3+#4]
#1=[#608+[#609-#608]*0.00559]
#2=[#617+[#618-#617]*0.00559]
#3=[#1+[#2-#1]*0.36937]
X9.41042 Y-3.35489 Z[#3+#4]
#1=[#608+[#609-#608]*0.00559]
#2=[#617+[#618-#617]*0.00559]
#3=[#1+[#2-#1]*0.36668]
X9.40939 Y-3.35489 Z[#3+#4]
#1=[#608+[#609-#608]*0.00619]
#2=[#617+[#618-#617]*0.00619]
#3=[#1+[#2-#1]*0.36404]
X9.40838 Y-3.35468 Z[#3+#4]
#1=[#608+[#609-#608]*0.00736]
#2=[#617+[#618-#617]*0.00736]
#3=[#1+[#2-#1]*0.36158]
X9.40744 Y-3.35426 Z[#3+#4]
#1=[#608+[#609-#608]*0.00905]
#2=[#617+[#618-#617]*0.00905]
#3=[#1+[#2-#1]*0.35941]
X9.40661 Y-3.35366 Z[#3+#4]
#1=[#608+[#609-#608]*0.01118]
#2=[#617+[#618-#617]*0.01118]
#3=[#1+[#2-#1]*0.35761]
X9.40592 Y-3.35289 Z[#3+#4]
#1=[#608+[#609-#608]*0.01367]
#2=[#617+[#618-#617]*0.01367]
#3=[#1+[#2-#1]*0.35626]
X9.40541 Y-3.35200 Z[#3+#4]
#1=[#608+[#609-#608]*0.01641]
#2=[#617+[#618-#617]*0.01641]
#3=[#1+[#2-#1]*0.35543]
X9.40509 Y-3.35102 Z[#3+#4]
#1=[#608+[#609-#608]*0.01927]
#2=[#617+[#618-#617]*0.01927]
#3=[#1+[#2-#1]*0.35515]
X9.40498 Y-3.35000 Z[#3+#4]
#1=[#608+[#609-#608]*0.14526]
#2=[#617+[#618-#617]*0.14526]
#3=[#1+[#2-#1]*0.35515]
X9.40498 Y-3.30492 Z[#3+#4]
#1=[#608+[#609-#608]*0.14526]
#2=[#617+[#618-#617]*0.14526]
#3=[#1+[#2-#1]*0.23720]
X9.35991 Y-3.30492 Z[#3+#4]
#1=[#608+[#609-#608]*0.14556]
#2=[#617+[#618-#617]*0.14556]
#3=[#1+[#2-#1]*0.23452]
X9.35888 Y-3.30481 Z[#3+#4]
#1=[#608+[#609-#608]*0.14645]
#2=[#617+[#618-#617]*0.14645]
#3=[#1+[#2-#1]*0.23196]
X9.35790 Y-3.30450 Z[#3+#4]
#1=[#608+[#609-#608]*0.14789]
#2=[#617+[#618-#617]*0.14789]
#3=[#1+[#2-#1]*0.22963]
X9.35701 Y-3.30398 Z[#3+#4]
#1=[#608+[#609-#608]*0.14981]
#2=[#617+[#618-#617]*0.14981]
#3=[#1+[#2-#1]*0.22763]
X9.35625 Y-3.30329 Z[#3+#4]
#1=[#608+[#609-#608]*0.15214]
#2=[#617+[#618-#617]*0.15214]
#3=[#1+[#2-#1]*0.22604]
X9.35564 Y-3.30246 Z[#3+#4]
#1=[#608+[#609-#608]*0.15477]
#2=[#617+[#618-#617]*0.15477]
#3=[#1+[#2-#1]*0.22495]
X9.35522 Y-3.30152 Z[#3+#4]
#1=[#608+[#609-#608]*0.15758]
#2=[#617+[#618-#617]*0.15758]
#3=[#1+[#2-#1]*0.22439]
X9.35501 Y-3.30051 Z[#3+#4]
#1=[#608+[#609-#608]*0.16046]
#2=[#617+[#618-#617]*0.16046]
#3=[#1+[#2-#1]*0.22439]
X9.35501 Y-3.29949 Z[#3+#4]
#1=[#608+[#609-#608]*0.16327]
#2=[#617+[#618-#617]*0.16327]
#3=[#1+[#2-#1]*0.22495]
X9.35522 Y-3.29848 Z[#3+#4]
#1=[#608+[#609-#608]*0.16589]
#2=[#617+[#618-#617]*0.16589]
#3=[#1+[#2-#1]*0.22604]
X9.35564 Y-3.29754 Z[#3+#4]
#1=[#608+[#609-#608]*0.16822]
#2=[#617+[#618-#617]*0.16822]
#3=[#1+[#2-#1]*0.22763]
X9.35625 Y-3.29671 Z[#3+#4]
#1=[#608+[#609-#608]*0.17015]
#2=[#617+[#618-#617]*0.17015]
#3=[#1+[#2-#1]*0.22963]
X9.35701 Y-3.29602 Z[#3+#4]
#1=[#608+[#609-#608]*0.17158]
#2=[#617+[#618-#617]*0.17158]
#3=[#1+[#2-#1]*0.23196]
X9.35790 Y-3.29550 Z[#3+#4]
#1=[#608+[#609-#608]*0.17247]
#2=[#617+[#618-#617]*0.17247]
#3=[#1+[#2-#1]*0.23452]
X9.35888 Y-3.29519 Z[#3+#4]
#1=[#608+[#609-#608]*0.17277]
#2=[#617+[#618-#617]*0.17277]
#3=[#1+[#2-#1]*0.23720]
X9.35991 Y-3.29508 Z[#3+#4]
#1=[#608+[#609-#608]*0.17277]
#2=[#617+[#618-#617]*0.17277]
#3=[#1+[#2-#1]*0.35515]
X9.40498 Y-3.29508 Z[#3+#4]
G04 P0 ( dwell for no time -- G64 should not smooth over this point )
G00 Z0.08000 ( retract )

G00 X8.01292 Y-2.74274 ( rapid move to begin. )
G01 F180.00000
#1=[#573+[#574-#573]*0.71653]
#2=[#582+[#583-#582]*0.71653]
#3=[#1+[#2-#1]*0.71274]
G01 Z[-0.04000+#111]
G04 P0 ( dwell for no time -- G64 should not smooth over this point )
G01 F360.00000
#1=[#573+[#574-#573]*0.06405]
#2=[#582+[#583-#582]*0.06405]
#3=[#1+[#2-#1]*0.71274]
X8.01292 Y-2.97619 Z[#3+#4]
#1=[#573+[#574-#573]*0.05261]
#2=[#582+[#583-#582]*0.05261]
#3=[#1+[#2-#1]*0.71161]
X8.01249 Y-2.98028 Z[#3+#4]
#1=[#573+[#574-#573]*0.04167]
#2=[#582+[#583-#582]*0.04167]
#3=[#1+[#2-#1]*0.70829]
X8.01122 Y-2.98420 Z[#3+#4]
#1=[#573+[#574-#573]*0.03171]
#2=[#582+[#583-#582]*0.03171]
#3=[#1+[#2-#1]*0.70290]
X8.00916 Y-2.98776 Z[#3+#4]
#1=[#573+[#574-#573]*0.02317]
#2=[#582+[#583-#582]*0.02317]
#3=[#1+[#2-#1]*0.69570]
X8.00641 Y-2.99082 Z[#3+#4]
#1=[#573+[#574-#573]*0.01640]
#2=[#582+[#583-#582]*0.01640]
#3=[#1+[#2-#1]*0.68699]
X8.00308 Y-2.99324 Z[#3+#4]
#1=[#573+[#574-#573]*0.01173]
#2=[#582+[#583-#582]*0.01173]
#3=[#1+[#2-#1]*0.67715]
X7.99932 Y-2.99491 Z[#3+#4]
#1=[#573+[#574-#573]*0.00933]
#2=[#582+[#583-#582]*0.00933]
#3=[#1+[#2-#1]*0.66662]
X7.99530 Y-2.99577 Z[#3+#4]
#1=[#573+[#574-#573]*0.00933]
#2=[#582+[#583-#582]*0.00933]
#3=[#1+[#2-#1]*0.65585]
X7.99118 Y-2.99577 Z[#3+#4]
#1=[#573+[#574-#573]*0.01173]
#2=[#582+[#583-#582]*0.01173]
#3=[#1+[#2-#1]*0.64532]
X7.98716 Y-2.99491 Z[#3+#4]
#1=[#573+[#574-#573]*0.01640]
#2=[#582+[#583-#582]*0.01640]
#3=[#1+[#2-#1]*0.63548]
X7.98340 Y-2.99324 Z[#3+#4]
#1=[#573+[#574-#573]*0.02317]
#2=[#582+[#583-#582]*0.02317]
#3=[#1+[#2-#1]*0.62677]
X7.98007 Y-2.99082 Z[#3+#4]
#1=[#573+[#574-#573]*0.03171]
#2=[#582+[#583-#582]*0.03171]
#3=[#1+[#2-#1]*0.61956]
X7.97731 Y-2.98776 Z[#3+#4]
#1=[#573+[#574-#573]*0.04167]
#2=[#582+[#583-#582]*0.04167]
#3=[#1+[#2-#1]*0.61418]
X7.97526 Y-2.98420 Z[#3+#4]
#1=[#573+[#574-#573]*0.05261]
#2=[#582+[#583-#582]*0.05261]
#3=[#1+[#2-#1]*0.61085]
X7.97398 Y-2.98028 Z[#3+#4]
#1=[#573+[#574-#573]*0.06405]
#2=[#582+[#583-#582]*0.06405]
#3=[#1+[#2-#1]*0.60972]
X7.97355 Y-2.97619 Z[#3+#4]
#1=[#573+[#574-#573]*0.99571]
#2=[#582+[#583-#582]*0.99571]
#3=[#1+[#2-#1]*0.60972]
X7.97355 Y-2.64286 Z[#3+#4]
#1=[#574+[#575-#574]*0.00714]
#2=[#583+[#584-#583]*0.00714]
#3=[#1+[#2-#1]*0.61085]
X7.97398 Y-2.63876 Z[#3+#4]
#1=[#574+[#575-#574]*0.01808]
#2=[#583+[#584-#583]*0.01808]
#3=[#1+[#2-#1]*0.61418]
X7.97526 Y-2.63485 Z[#3+#4]
#1=[#574+[#575-#574]*0.02804]
#2=[#583+[#584-#583]*0.02804]
#3=[#1+[#2-#1]*0.61956]
X7.97731 Y-2.63129 Z[#3+#4]
#1=[#574+[#575-#574]*0.03659]
#2=[#583+[#584-#583]*0.03659]
#3=[#1+[#2-#1]*0.62677]
X7.98007 Y-2.62823 Z[#3+#4]
#1=[#574+[#575-#574]*0.04335]
#2=[#583+[#584-#583]*0.04335]
#3=[#1+[#2-#1]*0.63548]
X7.98340 Y-2.62581 Z[#3+#4]
#1=[#574+[#575-#574]*0.04803]
#2=[#583+[#584-#583]*0.04803]
#3=[#1+[#2-#1]*0.64532]
X7.98716 Y-2.62414 Z[#3+#4]
#1=[#574+[#575-#574]*0.05042]
#2=[#583+[#584-#583]*0.05042]
#3=[#1+[#2-#1]*0.65585]
X7.99118 Y-2.62328 Z[#3+#4]
#1=[#574+[#575-#574]*0.05042]
#2=[#583+[#584-#583]*0.05042]
#3=[#1+[#2-#1]*0.66662]
X7.99530 Y-2.62328 Z[#3+#4]
#1=[#574+[#575-#574]*0.04803]
#2=[#583+[#584-#583]*0.04803]
#3=[#1+[#2-#1]*0.67715]
X7.99932 Y-2.62414 Z[#3+#4]
#1=[#574+[#575-#574]*0.04335]
#2=[#583+[#584-#583]*0.04335]
#3=[#1+[#2-#1]*0.68699]
X8.00308 Y-2.62581 Z[#3+#4]
#1=[#574+[#575-#574]*0.03659]
#2=[#583+[#584-#583]*0.03659]
#3=[#1+[#2-#1]*0.69570]
X8.00641 Y-2.62823 Z[#3+#4]
#1=[#574+[#575-#574]*0.02804]
#2=[#583+[#584-#583]*0.02804]
#3=[#1+[#2-#1]*0.70290]
X8.00916 Y-2.63129 Z[#3+#4]
#1=[#574+[#575-#574]*0.01808]
#2=[#583+[#584-#583]*0.01808]
#3=[#1+[#2-#1]*0.70829]
X8.01122 Y-2.63485 Z[#3+#4]
#1=[#574+[#575-#574]*0.00714]
#2=[#583+[#584-#583]*0.00714]
#3=[#1+[#2-#1]*0.71161]
X8.01249 Y-2.63876 Z[#3+#4]
#1=[#573+[#574-#573]*0.99571]
#2=[#582+[#583-#582]*0.99571]
#3=[#1+[#2-#1]*0.71274]
X8.01292 Y-2.64286 Z[#3+#4]
#1=[#573+[#574-#573]*0.92889]
#2=[#582+[#583-#582]*0.92889]
#3=[#1+[#2-#1]*0.71274]
X8.01292 Y-2.66676 Z[#3+#4]
#1=[#573+[#574-#573]*0.96806]
#2=[#582+[#583-#582]*0.96806]
#3=[#1+[#2-#1]*0.74941]
X8.02694 Y-2.65275 Z[#3+#4]
#1=[#573+[#574-#573]*0.97379]
#2=[#582+[#583-#582]*0.97379]
#3=[#1+[#2-#1]*0.75571]
X8.02935 Y-2.65070 Z[#3+#4]
#1=[#573+[#574-#573]*0.97837]
#2=[#582+[#583-#582]*0.97837]
#3=[#1+[#2-#1]*0.76280]
X8.03205 Y-2.64906 Z[#3+#4]
#1=[#574+[#575-#574]*0.04492]
#2=[#583+[#584-#583]*0.04492]
#3=[#1+[#2-#1]*0.88739]
X8.07967 Y-2.62525 Z[#3+#4]
#1=[#574+[#575-#574]*0.04812]
#2=[#583+[#584-#583]*0.04812]
#3=[#1+[#2-#1]*0.89476]
X8.08249 Y-2.62410 Z[#3+#4]
#1=[#574+[#575-#574]*0.05007]
#2=[#583+[#584-#583]*0.05007]
#3=[#1+[#2-#1]*0.90250]
X8.08545 Y-2.62341 Z[#3+#4]
#1=[#574+[#575-#574]*0.05072]
#2=[#583+[#584-#583]*0.05072]
#3=[#1+[#2-#1]*0.91043]
X8.08848 Y-2.62317 Z[#3+#4]
#1=[#583+[#584-#583]*0.05072]
#2=[#592+[#593-#592]*0.05072]
#3=[#1+[#2-#1]*0.03503]
X8.13610 Y-2.62317 Z[#3+#4]
#1=[#583+[#584-#583]*0.04952]
#2=[#592+[#593-#592]*0.04952]
#3=[#1+[#2-#1]*0.04573]
X8.14019 Y-2.62360 Z[#3+#4]
#1=[#583+[#584-#583]*0.04597]
#2=[#592+[#593-#592]*0.04597]
#3=[#1+[#2-#1]*0.05598]
X8.14410 Y-2.62487 Z[#3+#4]
#1=[#583+[#584-#583]*0.04022]
#2=[#592+[#593-#592]*0.04022]
#3=[#1+[#2-#1]*0.06530]
X8.14767 Y-2.62693 Z[#3+#4]
#1=[#583+[#584-#583]*0.03252]
#2=[#592+[#593-#592]*0.03252]
#3=[#1+[#2-#1]*0.07330]
X8.15072 Y-2.62969 Z[#3+#4]
#1=[#583+[#584-#583]*0.02322]
#2=[#592+[#593-#592]*0.02322]
#3=[#1+[#2-#1]*0.07963]
X8.15314 Y-2.63301 Z[#3+#4]
#1=[#583+[#584-#583]*0.01271]
#2=[#592+[#593-#592]*0.01271]
#3=[#1+[#2-#1]*0.08401]
X8.15482 Y-2.63677 Z[#3+#4]
#1=[#583+[#584-#583]*0.00146]
#2=[#592+[#593-#592]*0.00146]
#3=[#1+[#2-#1]*0.08625]
X8.15567 Y-2.64080 Z[#3+#4]
#1=[#582+[#583-#582]*0.98995]
#2=[#591+[#592-#591]*0.98995]
#3=[#1+[#2-#1]*0.08625]
X8.15567 Y-2.64491 Z[#3+#4]
#1=[#582+[#583-#582]*0.97870]
#2=[#591+[#592-#591]*0.97870]
#3=[#1+[#2-#1]*0.08401]
X8.15482 Y-2.64894 Z[#3+#4]
#1=[#582+[#583-#582]*0.96820]
#2=[#591+[#592-#591]*0.96820]
#3=[#1+[#2-#1]*0.07963]
X8.15314 Y-2.65270 Z[#3+#4]
#1=[#582+[#583-#582]*0.95889]
#2=[#591+[#592-#591]*0.95889]
#3=[#1+[#2-#1]*0.07330]
X8.15072 Y-2.65603 Z[#3+#4]
#1=[#582+[#583-#582]*0.95119]
#2=[#591+[#592-#591]*0.95119]
#3=[#1+[#2-#1]*0.06530]
X8.14767 Y-2.65878 Z[#3+#4]
#1=[#582+[#583-#582]*0.94544]
#2=[#591+[#592-#591]*0.94544]
#3=[#1+[#2-#1]*0.05598]
X8.14410 Y-2.66084 Z[#3+#4]
#1=[#582+[#583-#582]*0.94189]
#2=[#591+[#592-#591]*0.94189]
#3=[#1+[#2-#1]*0.04573]
X8.14019 Y-2.66211 Z[#3+#4]
#1=[#582+[#583-#582]*0.94069]
#2=[#591+[#592-#591]*0.94069]
#3=[#1+[#2-#1]*0.03503]
X8.13610 Y-2.66254 Z[#3+#4]
#1=[#573+[#574-#573]*0.94069]
#2=[#582+[#583-#582]*0.94069]
#3=[#1+[#2-#1]*0.92259]
X8.09312 Y-2.66254 Z[#3+#4]
#1=[#573+[#574-#573]*0.88394]
#2=[#582+[#583-#582]*0.88394]
#3=[#1+[#2-#1]*0.81634]
X8.05252 Y-2.68285 Z[#3+#4]
#1=[#573+[#574-#573]*0.83002]
#2=[#582+[#583-#582]*0.83002]
#3=[#1+[#2-#1]*0.76586]
X8.03323 Y-2.70214 Z[#3+#4]
#1=[#573+[#574-#573]*0.71653]
#2=[#582+[#583-#582]*0.71653]
#3=[#1+[#2-#1]*0.71274]
X8.01292 Y-2.74274 Z[#3+#4]
G04 P0 ( dwell for no time -- G64 should not smooth over this point )
G00 Z0.08000 ( retract )

G00 X7.58435 Y-2.73397 ( rapid move to begin. )
G01 F180.00000
#1=[#564+[#565-#564]*0.74105]
#2=[#573+[#574-#573]*0.74105]
#3=[#1+[#2-#1]*0.59136]
G01 Z[-0.04000+#111]
G04 P0 ( dwell for no time -- G64 should not smooth over this point )
G01 F360.00000
#1=[#564+[#565-#564]*0.06405]
#2=[#573+[#574-#573]*0.06405]
#3=[#1+[#2-#1]*0.59136]
X7.58435 Y-2.97619 Z[#3+#4]
#1=[#564+[#565-#564]*0.05261]
#2=[#573+[#574-#573]*0.05261]
#3=[#1+[#2-#1]*0.59023]
X7.58392 Y-2.98028 Z[#3+#4]
#1=[#564+[#565-#564]*0.04167]
#2=[#573+[#574-#573]*0.04167]
#3=[#1+[#2-#1]*0.58690]
X7.58265 Y-2.98420 Z[#3+#4]
#1=[#564+[#565-#564]*0.03171]
#2=[#573+[#574-#573]*0.03171]
#3=[#1+[#2-#1]*0.58152]
X7.58059 Y-2.98776 Z[#3+#4]
#1=[#564+[#565-#564]*0.02317]
#2=[#573+[#574-#573]*0.02317]
#3=[#1+[#2-#1]*0.57431]
X7.57784 Y-2.99082 Z[#3+#4]
#1=[#564+[#565-#564]*0.01640]
#2=[#573+[#574-#573]*0.01640]
#3=[#1+[#2-#1]*0.56560]
X7.57451 Y-2.99324 Z[#3+#4]
#1=[#564+[#565-#564]*0.01173]
#2=[#573+[#574-#573]*0.01173]
#3=[#1+[#2-#1]*0.55577]
X7.57075 Y-2.99491 Z[#3+#4]
#1=[#564+[#565-#564]*0.00933]
#2=[#573+[#574-#573]*0.00933]
#3=[#1+[#2-#1]*0.54523]
X7.56672 Y-2.99577 Z[#3+#4]
#1=[#564+[#565-#564]*0.00933]
#2=[#573+[#574-#573]*0.00933]
#3=[#1+[#2-#1]*0.53447]
X7.56261 Y-2.99577 Z[#3+#4]
#1=[#564+[#565-#564]*0.01173]
#2=[#573+[#574-#573]*0.01173]
#3=[#1+[#2-#1]*0.52393]
X7.55858 Y-2.99491 Z[#3+#4]
#1=[#564+[#565-#564]*0.01640]
#2=[#573+[#574-#573]*0.01640]
#3=[#1+[#2-#1]*0.51410]
X7.55482 Y-2.99324 Z[#3+#4]
#1=[#564+[#565-#564]*0.02317]
#2=[#573+[#574-#573]*0.02317]
#3=[#1+[#2-#1]*0.50538]
X7.55150 Y-2.99082 Z[#3+#4]
#1=[#564+[#565-#564]*0.03171]
#2=[#573+[#574-#573]*0.03171]
#3=[#1+[#2-#1]*0.49818]
X7.54874 Y-2.98776 Z[#3+#4]
#1=[#564+[#565-#564]*0.04167]
#2=[#573+[#574-#573]*0.04167]
#3=[#1+[#2-#1]*0.49280]
X7.54668 Y-2.98420 Z[#3+#4]
#1=[#564+[#565-#564]*0.05261]
#2=[#573+[#574-#573]*0.05261]
#3=[#1+[#2-#1]*0.48947]
X7.54541 Y-2.98028 Z[#3+#4]
#1=[#564+[#565-#564]*0.06405]
#2=[#573+[#574-#573]*0.06405]
#3=[#1+[#2-#1]*0.48834]
X7.54498 Y-2.97619 Z[#3+#4]
#1=[#564+[#565-#564]*0.76279]
#2=[#573+[#574-#573]*0.76279]
#3=[#1+[#2-#1]*0.48834]
X7.54498 Y-2.72619 Z[#3+#4]
#1=[#565+[#566-#565]*0.46153]
#2=[#574+[#575-#574]*0.46153]
#3=[#1+[#2-#1]*0.48834]
X7.54498 Y-2.47619 Z[#3+#4]
#1=[#565+[#566-#565]*0.47227]
#2=[#574+[#575-#574]*0.47227]
#3=[#1+[#2-#1]*0.48933]
X7.54536 Y-2.47235 Z[#3+#4]
#1=[#565+[#566-#565]*0.48259]
#2=[#574+[#575-#574]*0.48259]
#3=[#1+[#2-#1]*0.49226]
X7.54648 Y-2.46866 Z[#3+#4]
#1=[#565+[#566-#565]*0.49210]
#2=[#574+[#575-#574]*0.49210]
#3=[#1+[#2-#1]*0.49702]
X7.54830 Y-2.46525 Z[#3+#4]
#1=[#565+[#566-#565]*0.50044]
#2=[#574+[#575-#574]*0.50044]
#3=[#1+[#2-#1]*0.50343]
X7.55075 Y-2.46227 Z[#3+#4]
#1=[#565+[#566-#565]*0.50728]
#2=[#574+[#575-#574]*0.50728]
#3=[#1+[#2-#1]*0.51123]
X7.55373 Y-2.45982 Z[#3+#4]
#1=[#565+[#566-#565]*0.51236]
#2=[#574+[#575-#574]*0.51236]
#3=[#1+[#2-#1]*0.52014]
X7.55713 Y-2.45800 Z[#3+#4]
#1=[#565+[#566-#565]*0.51549]
#2=[#574+[#575-#574]*0.51549]
#3=[#1+[#2-#1]*0.52980]
X7.56083 Y-2.45688 Z[#3+#4]
#1=[#565+[#566-#565]*0.51655]
#2=[#574+[#575-#574]*0.51655]
#3=[#1+[#2-#1]*0.53985]
X7.56467 Y-2.45651 Z[#3+#4]
#1=[#574+[#575-#574]*0.51655]
#2=[#583+[#584-#583]*0.51655]
#3=[#1+[#2-#1]*0.16284]
X7.80276 Y-2.45651 Z[#3+#4]
#1=[#574+[#575-#574]*0.51535]
#2=[#583+[#584-#583]*0.51535]
#3=[#1+[#2-#1]*0.17355]
X7.80686 Y-2.45694 Z[#3+#4]
#1=[#574+[#575-#574]*0.51179]
#2=[#583+[#584-#583]*0.51179]
#3=[#1+[#2-#1]*0.18379]
X7.81077 Y-2.45821 Z[#3+#4]
#1=[#574+[#575-#574]*0.50604]
#2=[#583+[#584-#583]*0.50604]
#3=[#1+[#2-#1]*0.19311]
X7.81433 Y-2.46026 Z[#3+#4]
#1=[#574+[#575-#574]*0.49835]
#2=[#583+[#584-#583]*0.49835]
#3=[#1+[#2-#1]*0.20112]
X7.81739 Y-2.46302 Z[#3+#4]
#1=[#574+[#575-#574]*0.48904]
#2=[#583+[#584-#583]*0.48904]
#3=[#1+[#2-#1]*0.20745]
X7.81981 Y-2.46635 Z[#3+#4]
#1=[#574+[#575-#574]*0.47853]
#2=[#583+[#584-#583]*0.47853]
#3=[#1+[#2-#1]*0.21183]
X7.82148 Y-2.47011 Z[#3+#4]
#1=[#574+[#575-#574]*0.46728]
#2=[#583+[#584-#583]*0.46728]
#3=[#1+[#2-#1]*0.21406]
X7.82234 Y-2.47413 Z[#3+#4]
#1=[#574+[#575-#574]*0.45578]
#2=[#583+[#584-#583]*0.45578]
#3=[#1+[#2-#1]*0.21406]
X7.82234 Y-2.47825 Z[#3+#4]
#1=[#574+[#575-#574]*0.44453]
#2=[#583+[#584-#583]*0.44453]
#3=[#1+[#2-#1]*0.21183]
X7.82148 Y-2.48227 Z[#3+#4]
#1=[#574+[#575-#574]*0.43402]
#2=[#583+[#584-#583]*0.43402]
#3=[#1+[#2-#1]*0.20745]
X7.81981 Y-2.48603 Z[#3+#4]
#1=[#574+[#575-#574]*0.42472]
#2=[#583+[#584-#583]*0.42472]
#3=[#1+[#2-#1]*0.20112]
X7.81739 Y-2.48936 Z[#3+#4]
#1=[#574+[#575-#574]*0.41702]
#2=[#583+[#584-#583]*0.41702]
#3=[#1+[#2-#1]*0.19311]
X7.81433 Y-2.49212 Z[#3+#4]
#1=[#574+[#575-#574]*0.41127]
#2=[#583+[#584-#583]*0.41127]
#3=[#1+[#2-#1]*0.18379]
X7.81077 Y-2.49417 Z[#3+#4]
#1=[#574+[#575-#574]*0.40772]
#2=[#583+[#584-#583]*0.40772]
#3=[#1+[#2-#1]*0.17355]
X7.80686 Y-2.49545 Z[#3+#4]
#1=[#574+[#575-#574]*0.40651]
#2=[#583+[#584-#583]*0.40651]
#3=[#1+[#2-#1]*0.16284]
X7.80276 Y-2.49588 Z[#3+#4]
#1=[#565+[#566-#565]*0.40651]
#2=[#574+[#575-#574]*0.40651]
#3=[#1+[#2-#1]*0.59136]
X7.58435 Y-2.49588 Z[#3+#4]
#1=[#564+[#565-#564]*0.85108]
#2=[#573+[#574-#573]*0.85108]
#3=[#1+[#2-#1]*0.59136]
X7.58435 Y-2.69460 Z[#3+#4]
#1=[#564+[#565-#564]*0.85108]
#2=[#573+[#574-#573]*0.85108]
#3=[#1+[#2-#1]*0.97594]
X7.73133 Y-2.69460 Z[#3+#4]
#1=[#564+[#565-#564]*0.84988]
#2=[#573+[#574-#573]*0.84988]
#3=[#1+[#2-#1]*0.98665]
X7.73543 Y-2.69503 Z[#3+#4]
#1=[#564+[#565-#564]*0.84633]
#2=[#573+[#574-#573]*0.84633]
#3=[#1+[#2-#1]*0.99689]
X7.73934 Y-2.69630 Z[#3+#4]
#1=[#573+[#574-#573]*0.84058]
#2=[#582+[#583-#582]*0.84058]
#3=[#1+[#2-#1]*0.00622]
X7.74290 Y-2.69836 Z[#3+#4]
#1=[#573+[#574-#573]*0.83288]
#2=[#582+[#583-#582]*0.83288]
#3=[#1+[#2-#1]*0.01422]
X7.74596 Y-2.70111 Z[#3+#4]
#1=[#573+[#574-#573]*0.82358]
#2=[#582+[#583-#582]*0.82358]
#3=[#1+[#2-#1]*0.02055]
X7.74838 Y-2.70444 Z[#3+#4]
#1=[#573+[#574-#573]*0.81307]
#2=[#582+[#583-#582]*0.81307]
#3=[#1+[#2-#1]*0.02493]
X7.75006 Y-2.70820 Z[#3+#4]
#1=[#573+[#574-#573]*0.80182]
#2=[#582+[#583-#582]*0.80182]
#3=[#1+[#2-#1]*0.02717]
X7.75091 Y-2.71223 Z[#3+#4]
#1=[#573+[#574-#573]*0.79031]
#2=[#582+[#583-#582]*0.79031]
#3=[#1+[#2-#1]*0.02717]
X7.75091 Y-2.71634 Z[#3+#4]
#1=[#573+[#574-#573]*0.77906]
#2=[#582+[#583-#582]*0.77906]
#3=[#1+[#2-#1]*0.02493]
X7.75006 Y-2.72037 Z[#3+#4]
#1=[#573+[#574-#573]*0.76856]
#2=[#582+[#583-#582]*0.76856]
#3=[#1+[#2-#1]*0.02055]
X7.74838 Y-2.72413 Z[#3+#4]
#1=[#573+[#574-#573]*0.75925]
#2=[#582+[#583-#582]*0.75925]
#3=[#1+[#2-#1]*0.01422]
X7.74596 Y-2.72746 Z[#3+#4]
#1=[#573+[#574-#573]*0.75155]
#2=[#582+[#583-#582]*0.75155]
#3=[#1+[#2-#1]*0.00622]
X7.74290 Y-2.73021 Z[#3+#4]
#1=[#564+[#565-#564]*0.74580]
#2=[#573+[#574-#573]*0.74580]
#3=[#1+[#2-#1]*0.99689]
X7.73934 Y-2.73227 Z[#3+#4]
#1=[#564+[#565-#564]*0.74225]
#2=[#573+[#574-#573]*0.74225]
#3=[#1+[#2-#1]*0.98665]
X7.73543 Y-2.73354 Z[#3+#4]
#1=[#564+[#565-#564]*0.74105]
#2=[#573+[#574-#573]*0.74105]
#3=[#1+[#2-#1]*0.97594]
X7.73133 Y-2.73397 Z[#3+#4]
#1=[#564+[#565-#564]*0.74105]
#2=[#573+[#574-#573]*0.74105]
#3=[#1+[#2-#1]*0.59136]
X7.58435 Y-2.73397 Z[#3+#4]
G04 P0 ( dwell for no time -- G64 should not smooth over this point )
G00 Z0.08000 ( retract )

G00 X8.26119 Y-2.88934 ( rapid move to begin. )
G01 F180.00000
#1=[#582+[#583-#582]*0.30679]
#2=[#591+[#592-#591]*0.30679]
#3=[#1+[#2-#1]*0.36234]
G01 Z[-0.04000+#111]
G04 P0 ( dwell for no time -- G64 should not smooth over this point )
G01 F360.00000
#1=[#582+[#583-#582]*0.30786]
#2=[#591+[#592-#591]*0.30786]
#3=[#1+[#2-#1]*0.36177]
X8.26097 Y-2.88896 Z[#3+#4]
#1=[#582+[#583-#582]*0.31217]
#2=[#591+[#592-#591]*0.31217]
#3=[#1+[#2-#1]*0.36046]
X8.26047 Y-2.88742 Z[#3+#4]
#1=[#582+[#583-#582]*0.31640]
#2=[#591+[#592-#591]*0.31640]
#3=[#1+[#2-#1]*0.35897]
X8.25990 Y-2.88590 Z[#3+#4]
#1=[#582+[#583-#582]*0.31762]
#2=[#591+[#592-#591]*0.31762]
#3=[#1+[#2-#1]*0.35880]
X8.25983 Y-2.88547 Z[#3+#4]
#1=[#582+[#583-#582]*0.31880]
#2=[#591+[#592-#591]*0.31880]
#3=[#1+[#2-#1]*0.35844]
X8.25970 Y-2.88505 Z[#3+#4]
#1=[#582+[#583-#582]*0.32331]
#2=[#591+[#592-#591]*0.32331]
#3=[#1+[#2-#1]*0.35800]
X8.25953 Y-2.88343 Z[#3+#4]
#1=[#582+[#583-#582]*0.32778]
#2=[#591+[#592-#591]*0.32778]
#3=[#1+[#2-#1]*0.35736]
X8.25929 Y-2.88183 Z[#3+#4]
#1=[#582+[#583-#582]*0.32901]
#2=[#591+[#592-#591]*0.32901]
#3=[#1+[#2-#1]*0.35743]
X8.25931 Y-2.88139 Z[#3+#4]
#1=[#582+[#583-#582]*0.33024]
#2=[#591+[#592-#591]*0.33024]
#3=[#1+[#2-#1]*0.35731]
X8.25927 Y-2.88095 Z[#3+#4]
#1=[#582+[#583-#582]*0.72952]
#2=[#591+[#592-#591]*0.72952]
#3=[#1+[#2-#1]*0.35731]
X8.25927 Y-2.73810 Z[#3+#4]
#1=[#582+[#583-#582]*0.73799]
#2=[#591+[#592-#591]*0.73799]
#3=[#1+[#2-#1]*0.35793]
X8.25950 Y-2.73507 Z[#3+#4]
#1=[#582+[#583-#582]*0.74626]
#2=[#591+[#592-#591]*0.74626]
#3=[#1+[#2-#1]*0.35975]
X8.26020 Y-2.73211 Z[#3+#4]
#1=[#582+[#583-#582]*0.75412]
#2=[#591+[#592-#591]*0.75412]
#3=[#1+[#2-#1]*0.36275]
X8.26135 Y-2.72929 Z[#3+#4]
#1=[#582+[#583-#582]*0.88722]
#2=[#591+[#592-#591]*0.88722]
#3=[#1+[#2-#1]*0.42505]
X8.28516 Y-2.68167 Z[#3+#4]
#1=[#582+[#583-#582]*0.89478]
#2=[#591+[#592-#591]*0.89478]
#3=[#1+[#2-#1]*0.42933]
X8.28679 Y-2.67897 Z[#3+#4]
#1=[#582+[#583-#582]*0.90152]
#2=[#591+[#592-#591]*0.90152]
#3=[#1+[#2-#1]*0.43470]
X8.28884 Y-2.67656 Z[#3+#4]
#1=[#582+[#583-#582]*0.96806]
#2=[#591+[#592-#591]*0.96806]
#3=[#1+[#2-#1]*0.49700]
X8.31265 Y-2.65275 Z[#3+#4]
#1=[#582+[#583-#582]*0.97379]
#2=[#591+[#592-#591]*0.97379]
#3=[#1+[#2-#1]*0.50330]
X8.31506 Y-2.65070 Z[#3+#4]
#1=[#582+[#583-#582]*0.97837]
#2=[#591+[#592-#591]*0.97837]
#3=[#1+[#2-#1]*0.51038]
X8.31777 Y-2.64906 Z[#3+#4]
#1=[#583+[#584-#583]*0.04492]
#2=[#592+[#593-#592]*0.04492]
#3=[#1+[#2-#1]*0.63498]
X8.36539 Y-2.62525 Z[#3+#4]
#1=[#583+[#584-#583]*0.04812]
#2=[#592+[#593-#592]*0.04812]
#3=[#1+[#2-#1]*0.64235]
X8.36820 Y-2.62410 Z[#3+#4]
#1=[#583+[#584-#583]*0.05007]
#2=[#592+[#593-#592]*0.05007]
#3=[#1+[#2-#1]*0.65009]
X8.37116 Y-2.62341 Z[#3+#4]
#1=[#583+[#584-#583]*0.05072]
#2=[#592+[#593-#592]*0.05072]
#3=[#1+[#2-#1]*0.65802]
X8.37419 Y-2.62317 Z[#3+#4]
#1=[#583+[#584-#583]*0.05072]
#2=[#592+[#593-#592]*0.05072]
#3=[#1+[#2-#1]*0.84491]
X8.44562 Y-2.62317 Z[#3+#4]
#1=[#583+[#584-#583]*0.05007]
#2=[#592+[#593-#592]*0.05007]
#3=[#1+[#2-#1]*0.85284]
X8.44865 Y-2.62341 Z[#3+#4]
#1=[#583+[#584-#583]*0.04812]
#2=[#592+[#593-#592]*0.04812]
#3=[#1+[#2-#1]*0.86058]
X8.45161 Y-2.62410 Z[#3+#4]
#1=[#583+[#584-#583]*0.04492]
#2=[#592+[#593-#592]*0.04492]
#3=[#1+[#2-#1]*0.86795]
X8.45442 Y-2.62525 Z[#3+#4]
#1=[#582+[#583-#582]*0.97837]
#2=[#591+[#592-#591]*0.97837]
#3=[#1+[#2-#1]*0.99255]
X8.50204 Y-2.64906 Z[#3+#4]
#1=[#582+[#583-#582]*0.97379]
#2=[#591+[#592-#591]*0.97379]
#3=[#1+[#2-#1]*0.99963]
X8.50475 Y-2.65070 Z[#3+#4]
#1=[#591+[#592-#591]*0.96806]
#2=[#600+[#601-#600]*0.96806]
#3=[#1+[#2-#1]*0.00593]
X8.50716 Y-2.65275 Z[#3+#4]
#1=[#591+[#592-#591]*0.90152]
#2=[#600+[#601-#600]*0.90152]
#3=[#1+[#2-#1]*0.06823]
X8.53097 Y-2.67656 Z[#3+#4]
#1=[#591+[#592-#591]*0.89478]
#2=[#600+[#601-#600]*0.89478]
#3=[#1+[#2-#1]*0.07359]
X8.53302 Y-2.67897 Z[#3+#4]
#1=[#591+[#592-#591]*0.88722]
#2=[#600+[#601-#600]*0.88722]
#3=[#1+[#2-#1]*0.07788]
X8.53466 Y-2.68167 Z[#3+#4]
#1=[#591+[#592-#591]*0.75412]
#2=[#600+[#601-#600]*0.75412]
#3=[#1+[#2-#1]*0.14018]
X8.55846 Y-2.72929 Z[#3+#4]
#1=[#591+[#592-#591]*0.74626]
#2=[#600+[#601-#600]*0.74626]
#3=[#1+[#2-#1]*0.14318]
X8.55961 Y-2.73211 Z[#3+#4]
#1=[#591+[#592-#591]*0.73799]
#2=[#600+[#601-#600]*0.73799]
#3=[#1+[#2-#1]*0.14500]
X8.56031 Y-2.73507 Z[#3+#4]
#1=[#591+[#592-#591]*0.72952]
#2=[#600+[#601-#600]*0.72952]
#3=[#1+[#2-#1]*0.14562]
X8.56054 Y-2.73810 Z[#3+#4]
#1=[#591+[#592-#591]*0.33024]
#2=[#600+[#601-#600]*0.33024]
#3=[#1+[#2-#1]*0.14562]
X8.56054 Y-2.88095 Z[#3+#4]
#1=[#591+[#592-#591]*0.32177]
#2=[#600+[#601-#600]*0.32177]
#3=[#1+[#2-#1]*0.14500]
X8.56031 Y-2.88398 Z[#3+#4]
#1=[#591+[#592-#591]*0.31350]
#2=[#600+[#601-#600]*0.31350]
#3=[#1+[#2-#1]*0.14318]
X8.55961 Y-2.88694 Z[#3+#4]
#1=[#591+[#592-#591]*0.30563]
#2=[#600+[#601-#600]*0.30563]
#3=[#1+[#2-#1]*0.14018]
X8.55846 Y-2.88976 Z[#3+#4]
#1=[#591+[#592-#591]*0.17254]
#2=[#600+[#601-#600]*0.17254]
#3=[#1+[#2-#1]*0.07788]
X8.53466 Y-2.93737 Z[#3+#4]
#1=[#591+[#592-#591]*0.16498]
#2=[#600+[#601-#600]*0.16498]
#3=[#1+[#2-#1]*0.07359]
X8.53302 Y-2.94008 Z[#3+#4]
#1=[#591+[#592-#591]*0.15824]
#2=[#600+[#601-#600]*0.15824]
#3=[#1+[#2-#1]*0.06823]
X8.53097 Y-2.94249 Z[#3+#4]
#1=[#591+[#592-#591]*0.09169]
#2=[#600+[#601-#600]*0.09169]
#3=[#1+[#2-#1]*0.00593]
X8.50716 Y-2.96630 Z[#3+#4]
#1=[#582+[#583-#582]*0.08597]
#2=[#591+[#592-#591]*0.08597]
#3=[#1+[#2-#1]*0.99963]
X8.50475 Y-2.96835 Z[#3+#4]
#1=[#582+[#583-#582]*0.08139]
#2=[#591+[#592-#591]*0.08139]
#3=[#1+[#2-#1]*0.99255]
X8.50204 Y-2.96999 Z[#3+#4]
#1=[#582+[#583-#582]*0.01484]
#2=[#591+[#592-#591]*0.01484]
#3=[#1+[#2-#1]*0.86795]
X8.45442 Y-2.99380 Z[#3+#4]
#1=[#582+[#583-#582]*0.01164]
#2=[#591+[#592-#591]*0.01164]
#3=[#1+[#2-#1]*0.86058]
X8.45161 Y-2.99494 Z[#3+#4]
#1=[#582+[#583-#582]*0.00969]
#2=[#591+[#592-#591]*0.00969]
#3=[#1+[#2-#1]*0.85284]
X8.44865 Y-2.99564 Z[#3+#4]
#1=[#582+[#583-#582]*0.00903]
#2=[#591+[#592-#591]*0.00903]
#3=[#1+[#2-#1]*0.84491]
X8.44562 Y-2.99588 Z[#3+#4]
#1=[#582+[#583-#582]*0.00903]
#2=[#591+[#592-#591]*0.00903]
#3=[#1+[#2-#1]*0.65802]
X8.37419 Y-2.99588 Z[#3+#4]
#1=[#582+[#583-#582]*0.00969]
#2=[#591+[#592-#591]*0.00969]
#3=[#1+[#2-#1]*0.65009]
X8.37116 Y-2.99564 Z[#3+#4]
#1=[#582+[#583-#582]*0.01164]
#2=[#591+[#592-#591]*0.01164]
#3=[#1+[#2-#1]*0.64235]
X8.36820 Y-2.99494 Z[#3+#4]
#1=[#582+[#583-#582]*0.01484]
#2=[#591+[#592-#591]*0.01484]
#3=[#1+[#2-#1]*0.63498]
X8.36539 Y-2.99380 Z[#3+#4]
#1=[#582+[#583-#582]*0.08139]
#2=[#591+[#592-#591]*0.08139]
#3=[#1+[#2-#1]*0.51038]
X8.31777 Y-2.96999 Z[#3+#4]
#1=[#582+[#583-#582]*0.08597]
#2=[#591+[#592-#591]*0.08597]
#3=[#1+[#2-#1]*0.50330]
X8.31506 Y-2.96835 Z[#3+#4]
#1=[#582+[#583-#582]*0.09169]
#2=[#591+[#592-#591]*0.09169]
#3=[#1+[#2-#1]*0.49700]
X8.31265 Y-2.96630 Z[#3+#4]
#1=[#582+[#583-#582]*0.15824]
#2=[#591+[#592-#591]*0.15824]
#3=[#1+[#2-#1]*0.43470]
X8.28884 Y-2.94249 Z[#3+#4]
#1=[#582+[#583-#582]*0.16498]
#2=[#591+[#592-#591]*0.16498]
#3=[#1+[#2-#1]*0.42933]
X8.28679 Y-2.94008 Z[#3+#4]
#1=[#582+[#583-#582]*0.17254]
#2=[#591+[#592-#591]*0.17254]
#3=[#1+[#2-#1]*0.42505]
X8.28516 Y-2.93737 Z[#3+#4]
#1=[#582+[#583-#582]*0.30563]
#2=[#591+[#592-#591]*0.30563]
#3=[#1+[#2-#1]*0.36275]
X8.26135 Y-2.88976 Z[#3+#4]
#1=[#582+[#583-#582]*0.30679]
#2=[#591+[#592-#591]*0.30679]
#3=[#1+[#2-#1]*0.36234]
X8.26119 Y-2.88934 Z[#3+#4]
G04 P0 ( dwell for no time -- G64 should not smooth over this point )
G00 Z0.08000 ( retract )

G00 X8.44097 Y-2.95651 ( rapid move to begin. )
G01 F180.00000
#1=[#582+[#583-#582]*0.11907]
#2=[#591+[#592-#591]*0.11907]
#3=[#1+[#2-#1]*0.83275]
G01 Z[-0.04000+#111]
G04 P0 ( dwell for no time -- G64 should not smooth over this point )
G01 F360.00000
#1=[#582+[#583-#582]*0.17582]
#2=[#591+[#592-#591]*0.17582]
#3=[#1+[#2-#1]*0.93900]
X8.48158 Y-2.93620 Z[#3+#4]
#1=[#582+[#583-#582]*0.22974]
#2=[#591+[#592-#591]*0.22974]
#3=[#1+[#2-#1]*0.98948]
X8.50087 Y-2.91691 Z[#3+#4]
#1=[#591+[#592-#591]*0.34323]
#2=[#600+[#601-#600]*0.34323]
#3=[#1+[#2-#1]*0.04260]
X8.52117 Y-2.87631 Z[#3+#4]
#1=[#591+[#592-#591]*0.71653]
#2=[#600+[#601-#600]*0.71653]
#3=[#1+[#2-#1]*0.04260]
X8.52117 Y-2.74274 Z[#3+#4]
#1=[#582+[#583-#582]*0.83002]
#2=[#591+[#592-#591]*0.83002]
#3=[#1+[#2-#1]*0.98948]
X8.50087 Y-2.70214 Z[#3+#4]
#1=[#582+[#583-#582]*0.88394]
#2=[#591+[#592-#591]*0.88394]
#3=[#1+[#2-#1]*0.93900]
X8.48158 Y-2.68285 Z[#3+#4]
#1=[#582+[#583-#582]*0.94069]
#2=[#591+[#592-#591]*0.94069]
#3=[#1+[#2-#1]*0.83275]
X8.44097 Y-2.66254 Z[#3+#4]
#1=[#582+[#583-#582]*0.94069]
#2=[#591+[#592-#591]*0.94069]
#3=[#1+[#2-#1]*0.67018]
X8.37884 Y-2.66254 Z[#3+#4]
#1=[#582+[#583-#582]*0.88394]
#2=[#591+[#592-#591]*0.88394]
#3=[#1+[#2-#1]*0.56393]
X8.33823 Y-2.68285 Z[#3+#4]
#1=[#582+[#583-#582]*0.83002]
#2=[#591+[#592-#591]*0.83002]
#3=[#1+[#2-#1]*0.51345]
X8.31894 Y-2.70214 Z[#3+#4]
#1=[#582+[#583-#582]*0.71653]
#2=[#591+[#592-#591]*0.71653]
#3=[#1+[#2-#1]*0.46033]
X8.29864 Y-2.74274 Z[#3+#4]
#1=[#582+[#583-#582]*0.34323]
#2=[#591+[#592-#591]*0.34323]
#3=[#1+[#2-#1]*0.46033]
X8.29864 Y-2.87631 Z[#3+#4]
#1=[#582+[#583-#582]*0.22974]
#2=[#591+[#592-#591]*0.22974]
#3=[#1+[#2-#1]*0.51345]
X8.31894 Y-2.91691 Z[#3+#4]
#1=[#582+[#583-#582]*0.17582]
#2=[#591+[#592-#591]*0.17582]
#3=[#1+[#2-#1]*0.56393]
X8.33823 Y-2.93620 Z[#3+#4]
#1=[#582+[#583-#582]*0.11907]
#2=[#591+[#592-#591]*0.11907]
#3=[#1+[#2-#1]*0.67018]
X8.37884 Y-2.95651 Z[#3+#4]
#1=[#582+[#583-#582]*0.11907]
#2=[#591+[#592-#591]*0.11907]
#3=[#1+[#2-#1]*0.83275]
X8.44097 Y-2.95651 Z[#3+#4]
G04 P0 ( dwell for no time -- G64 should not smooth over this point )
G00 Z0.08000 ( retract )

G00 X9.22721 Y-2.90011 ( rapid move to begin. )
G01 F180.00000
#1=[#600+[#601-#600]*0.27668]
#2=[#609+[#610-#609]*0.27668]
#3=[#1+[#2-#1]*0.88999]
G01 Z[-0.04000+#111]
G04 P0 ( dwell for no time -- G64 should not smooth over this point )
G01 F360.00000
#1=[#600+[#601-#600]*0.17161]
#2=[#609+[#610-#609]*0.17161]
#3=[#1+[#2-#1]*0.93917]
X9.24601 Y-2.93771 Z[#3+#4]
#1=[#609+[#610-#609]*0.11907]
#2=[#618+[#619-#618]*0.11907]
#3=[#1+[#2-#1]*0.03754]
X9.28360 Y-2.95651 Z[#3+#4]
#1=[#609+[#610-#609]*0.11907]
#2=[#618+[#619-#618]*0.11907]
#3=[#1+[#2-#1]*0.14998]
X9.32657 Y-2.95651 Z[#3+#4]
#1=[#609+[#610-#609]*0.11787]
#2=[#618+[#619-#618]*0.11787]
#3=[#1+[#2-#1]*0.16069]
X9.33066 Y-2.95694 Z[#3+#4]
#1=[#609+[#610-#609]*0.11431]
#2=[#618+[#619-#618]*0.11431]
#3=[#1+[#2-#1]*0.17093]
X9.33458 Y-2.95821 Z[#3+#4]
#1=[#609+[#610-#609]*0.10856]
#2=[#618+[#619-#618]*0.10856]
#3=[#1+[#2-#1]*0.18025]
X9.33814 Y-2.96026 Z[#3+#4]
#1=[#609+[#610-#609]*0.10087]
#2=[#618+[#619-#618]*0.10087]
#3=[#1+[#2-#1]*0.18825]
X9.34120 Y-2.96302 Z[#3+#4]
#1=[#609+[#610-#609]*0.09156]
#2=[#618+[#619-#618]*0.09156]
#3=[#1+[#2-#1]*0.19458]
X9.34362 Y-2.96635 Z[#3+#4]
#1=[#609+[#610-#609]*0.08105]
#2=[#618+[#619-#618]*0.08105]
#3=[#1+[#2-#1]*0.19896]
X9.34529 Y-2.97011 Z[#3+#4]
#1=[#609+[#610-#609]*0.06980]
#2=[#618+[#619-#618]*0.06980]
#3=[#1+[#2-#1]*0.20120]
X9.34615 Y-2.97413 Z[#3+#4]
#1=[#609+[#610-#609]*0.05830]
#2=[#618+[#619-#618]*0.05830]
#3=[#1+[#2-#1]*0.20120]
X9.34615 Y-2.97825 Z[#3+#4]
#1=[#609+[#610-#609]*0.04705]
#2=[#618+[#619-#618]*0.04705]
#3=[#1+[#2-#1]*0.19896]
X9.34529 Y-2.98227 Z[#3+#4]
#1=[#609+[#610-#609]*0.03654]
#2=[#618+[#619-#618]*0.03654]
#3=[#1+[#2-#1]*0.19458]
X9.34362 Y-2.98603 Z[#3+#4]
#1=[#609+[#610-#609]*0.02724]
#2=[#618+[#619-#618]*0.02724]
#3=[#1+[#2-#1]*0.18825]
X9.34120 Y-2.98936 Z[#3+#4]
#1=[#609+[#610-#609]*0.01954]
#2=[#618+[#619-#618]*0.01954]
#3=[#1+[#2-#1]*0.18025]
X9.33814 Y-2.99212 Z[#3+#4]
#1=[#609+[#610-#609]*0.01379]
#2=[#618+[#619-#618]*0.01379]
#3=[#1+[#2-#1]*0.17093]
X9.33458 Y-2.99417 Z[#3+#4]
#1=[#609+[#610-#609]*0.01024]
#2=[#618+[#619-#618]*0.01024]
#3=[#1+[#2-#1]*0.16069]
X9.33066 Y-2.99545 Z[#3+#4]
#1=[#609+[#610-#609]*0.00903]
#2=[#618+[#619-#618]*0.00903]
#3=[#1+[#2-#1]*0.14998]
X9.32657 Y-2.99588 Z[#3+#4]
#1=[#609+[#610-#609]*0.00903]
#2=[#618+[#619-#618]*0.00903]
#3=[#1+[#2-#1]*0.02538]
X9.27895 Y-2.99588 Z[#3+#4]
#1=[#609+[#610-#609]*0.00969]
#2=[#618+[#619-#618]*0.00969]
#3=[#1+[#2-#1]*0.01745]
X9.27592 Y-2.99564 Z[#3+#4]
#1=[#609+[#610-#609]*0.01164]
#2=[#618+[#619-#618]*0.01164]
#3=[#1+[#2-#1]*0.00971]
X9.27296 Y-2.99494 Z[#3+#4]
#1=[#609+[#610-#609]*0.01484]
#2=[#618+[#619-#618]*0.01484]
#3=[#1+[#2-#1]*0.00234]
X9.27015 Y-2.99380 Z[#3+#4]
#1=[#600+[#601-#600]*0.08139]
#2=[#609+[#610-#609]*0.08139]
#3=[#1+[#2-#1]*0.87775]
X9.22253 Y-2.96999 Z[#3+#4]
#1=[#600+[#601-#600]*0.08597]
#2=[#609+[#610-#609]*0.08597]
#3=[#1+[#2-#1]*0.87066]
X9.21982 Y-2.96835 Z[#3+#4]
#1=[#600+[#601-#600]*0.09169]
#2=[#609+[#610-#609]*0.09169]
#3=[#1+[#2-#1]*0.86436]
X9.21741 Y-2.96630 Z[#3+#4]
#1=[#600+[#601-#600]*0.09843]
#2=[#609+[#610-#609]*0.09843]
#3=[#1+[#2-#1]*0.85900]
X9.21536 Y-2.96389 Z[#3+#4]
#1=[#600+[#601-#600]*0.10599]
#2=[#609+[#610-#609]*0.10599]
#3=[#1+[#2-#1]*0.85471]
X9.21373 Y-2.96118 Z[#3+#4]
#1=[#600+[#601-#600]*0.23909]
#2=[#609+[#610-#609]*0.23909]
#3=[#1+[#2-#1]*0.79241]
X9.18992 Y-2.91357 Z[#3+#4]
#1=[#600+[#601-#600]*0.24696]
#2=[#609+[#610-#609]*0.24696]
#3=[#1+[#2-#1]*0.78942]
X9.18877 Y-2.91075 Z[#3+#4]
#1=[#600+[#601-#600]*0.25522]
#2=[#609+[#610-#609]*0.25522]
#3=[#1+[#2-#1]*0.78759]
X9.18807 Y-2.90779 Z[#3+#4]
#1=[#600+[#601-#600]*0.26369]
#2=[#609+[#610-#609]*0.26369]
#3=[#1+[#2-#1]*0.78697]
X9.18784 Y-2.90476 Z[#3+#4]
#1=[#600+[#601-#600]*0.94069]
#2=[#609+[#610-#609]*0.94069]
#3=[#1+[#2-#1]*0.78697]
X9.18784 Y-2.66254 Z[#3+#4]
#1=[#600+[#601-#600]*0.94069]
#2=[#609+[#610-#609]*0.94069]
#3=[#1+[#2-#1]*0.65158]
X9.13610 Y-2.66254 Z[#3+#4]
#1=[#600+[#601-#600]*0.94189]
#2=[#609+[#610-#609]*0.94189]
#3=[#1+[#2-#1]*0.64088]
X9.13200 Y-2.66211 Z[#3+#4]
#1=[#600+[#601-#600]*0.94544]
#2=[#609+[#610-#609]*0.94544]
#3=[#1+[#2-#1]*0.63063]
X9.12809 Y-2.66084 Z[#3+#4]
#1=[#600+[#601-#600]*0.95119]
#2=[#609+[#610-#609]*0.95119]
#3=[#1+[#2-#1]*0.62131]
X9.12453 Y-2.65878 Z[#3+#4]
#1=[#600+[#601-#600]*0.95889]
#2=[#609+[#610-#609]*0.95889]
#3=[#1+[#2-#1]*0.61331]
X9.12147 Y-2.65603 Z[#3+#4]
#1=[#600+[#601-#600]*0.96820]
#2=[#609+[#610-#609]*0.96820]
#3=[#1+[#2-#1]*0.60698]
X9.11905 Y-2.65270 Z[#3+#4]
#1=[#600+[#601-#600]*0.97870]
#2=[#609+[#610-#609]*0.97870]
#3=[#1+[#2-#1]*0.60260]
X9.11737 Y-2.64894 Z[#3+#4]
#1=[#600+[#601-#600]*0.98995]
#2=[#609+[#610-#609]*0.98995]
#3=[#1+[#2-#1]*0.60036]
X9.11652 Y-2.64491 Z[#3+#4]
#1=[#601+[#602-#601]*0.00146]
#2=[#610+[#611-#610]*0.00146]
#3=[#1+[#2-#1]*0.60036]
X9.11652 Y-2.64080 Z[#3+#4]
#1=[#601+[#602-#601]*0.01271]
#2=[#610+[#611-#610]*0.01271]
#3=[#1+[#2-#1]*0.60260]
X9.11737 Y-2.63677 Z[#3+#4]
#1=[#601+[#602-#601]*0.02322]
#2=[#610+[#611-#610]*0.02322]
#3=[#1+[#2-#1]*0.60698]
X9.11905 Y-2.63301 Z[#3+#4]
#1=[#601+[#602-#601]*0.03252]
#2=[#610+[#611-#610]*0.03252]
#3=[#1+[#2-#1]*0.61331]
X9.12147 Y-2.62969 Z[#3+#4]
#1=[#601+[#602-#601]*0.04022]
#2=[#610+[#611-#610]*0.04022]
#3=[#1+[#2-#1]*0.62131]
