( pcb2gcode 2.0.0 )
( Gcode for custom )

G94 ( Inches per minute feed rate. )
G20 ( Units == INCHES. )

G90 ( Absolute coordinates. )
G00 S12000 ( RPM spindle speed. )
G64 P0.00040 ( set maximum deviation from commanded toolpath )
G01 F360.00000 ( Feedrate. )

#118 = 0
#119 = 0

(MSG, Attach the probe tool)
M0 ( Temporary machine stop. )
G0 Z0.080 ( Move Z to safe height )
G0 X4.68508 Y-3.35489 ( Move XY to start point )
G0 Z0.080 ( Move Z to probe height )
G38.2 Z-0.1 F2.362205 ( Z-probe )
#500 = 0 ( Probe point [0, 0] is our reference )
G92 Z0 ( Set the current Z as zero-value )

( We now start the real probing: move the Z axis to the probing height, move to )
( the probing XY position, probe it and save the result, parameter #2002, )
( in a numbered parameter; we will make 6 probes on the X-axis and )
( 4 probes on the Y-axis, for a grand total of 24 probes )

G0 Z0.080
X4.68508 Y-3.05543
G38.2 Z-0.1 F2.362205
#501=#2002
G0 Z0.080
X4.68508 Y-2.75597
G38.2 Z-0.1 F2.362205
#502=#2002
G0 Z0.080
X4.68508 Y-2.45650
G38.2 Z-0.1 F2.362205
#503=#2002
G0 Z0.080
X5.06904 Y-2.45650
G38.2 Z-0.1 F2.362205
#507=#2002
G0 Z0.080
X5.06904 Y-2.75597
G38.2 Z-0.1 F2.362205
#506=#2002
G0 Z0.080
X5.06904 Y-3.05543
G38.2 Z-0.1 F2.362205
#505=#2002
G0 Z0.080
X5.06904 Y-3.35489
G38.2 Z-0.1 F2.362205
#504=#2002
G0 Z0.080
X5.45300 Y-3.35489
G38.2 Z-0.1 F2.362205
#508=#2002
G0 Z0.080
X5.45300 Y-3.05543
G38.2 Z-0.1 F2.362205
#509=#2002
G0 Z0.080
X5.45300 Y-2.75597
G38.2 Z-0.1 F2.362205
#510=#2002
G0 Z0.080
X5.45300 Y-2.45650
G38.2 Z-0.1 F2.362205
#511=#2002
G0 Z0.080
X5.83697 Y-2.45650
G38.2 Z-0.1 F2.362205
#515=#2002
G0 Z0.080
X5.83697 Y-2.75597
G38.2 Z-0.1 F2.362205
#514=#2002
G0 Z0.080
X5.83697 Y-3.05543
G38.2 Z-0.1 F2.362205
#513=#2002
G0 Z0.080
X5.83697 Y-3.35489
G38.2 Z-0.1 F2.362205
#512=#2002
G0 Z0.080
X6.22093 Y-3.35489
G38.2 Z-0.1 F2.362205
#516=#2002
G0 Z0.080
X6.22093 Y-3.05543
G38.2 Z-0.1 F2.362205
#517=#2002
G0 Z0.080
X6.22093 Y-2.75597
G38.2 Z-0.1 F2.362205
#518=#2002
G0 Z0.080
X6.22093 Y-2.45650
G38.2 Z-0.1 F2.362205
#519=#2002
G0 Z0.080
X6.60489 Y-2.45650
G38.2 Z-0.1 F2.362205
#523=#2002
G0 Z0.080
X6.60489 Y-2.75597
G38.2 Z-0.1 F2.362205
#522=#2002
G0 Z0.080
X6.60489 Y-3.05543
G38.2 Z-0.1 F2.362205
#521=#2002
G0 Z0.080
X6.60489 Y-3.35489
G38.2 Z-0.1 F2.362205
#520=#2002

G0 Z0.080 ( Move Z to safe height )
( Probing has ended, each Z-coordinate will be corrected with a bilinear interpolation )
(MSG, Detach the probe tool)
M0 ( Temporary machine stop. )


G00 Z1.00000 (Retract to tool change height)
T0
M5      (Spindle stop.)
G04 P1.00000 (Wait for spindle to stop)
(MSG, Change tool bit to mill diameter 0.00000in)
M6      (Tool change.)
M0      (Temporary machine stop.)
M3 ( Spindle on clockwise. )
G04 P1.00000 (Wait for spindle to get up to speed)
G04 P0 ( dwell for no time -- G64 should not smooth over this point )
G00 Z0.08000 ( retract )

G00 X4.68508 Y-2.97619 ( rapid move to begin. )
G01 F180.00000
( Mill infeed pass 1/1 )
#1=[#501+[#502-#501]*0.26461]
#2=[#505+[#506-#505]*0.26461]
#3=[#1+[#2-#1]*0.00000]
G01 Z[-0.04000+#111]
G04 P0 ( dwell for no time -- G64 should not smooth over this point )
G01 F360.00000
#1=[#502+[#503-#502]*0.00000]
#2=[#506+[#507-#506]*0.00000]
#3=[#1+[#2-#1]*0.00000]
X4.68508 Y-2.75597 Z[#3+-0.04000]
#1=[#502+[#503-#502]*0.93426]
#2=[#506+[#507-#506]*0.93426]
#3=[#1+[#2-#1]*0.00000]
X4.68508 Y-2.47619 Z[#3+-0.04000]
#1=[#502+[#503-#502]*0.95942]
#2=[#506+[#507-#506]*0.95942]
#3=[#1+[#2-#1]*0.00390]
X4.68657 Y-2.46866 Z[#3+-0.04000]
#1=[#502+[#503-#502]*0.98075]
#2=[#506+[#507-#506]*0.98075]
#3=[#1+[#2-#1]*0.01502]
X4.69084 Y-2.46227 Z[#3+-0.04000]
#1=[#502+[#503-#502]*0.98892]
#2=[#506+[#507-#506]*0.98892]
#3=[#1+[#2-#1]*0.02279]
X4.69382 Y-2.45982 Z[#3+-0.04000]
#1=[#502+[#503-#502]*0.99499]
#2=[#506+[#507-#506]*0.99499]
#3=[#1+[#2-#1]*0.03165]
X4.69723 Y-2.45800 Z[#3+-0.04000]
#1=[#503+[#504-#503]*0.00000]
#2=[#507+[#508-#507]*0.00000]
#3=[#1+[#2-#1]*0.05127]
X4.70476 Y-2.45650 Z[#3+-0.04000]
#1=[#503+[#504-#503]*0.00000]
#2=[#507+[#508-#507]*0.00000]
#3=[#1+[#2-#1]*0.67137]
X4.94286 Y-2.45650 Z[#3+-0.04000]
#1=[#502+[#503-#502]*0.99856]
#2=[#506+[#507-#506]*0.99856]
#3=[#1+[#2-#1]*0.68203]
X4.94695 Y-2.45694 Z[#3+-0.04000]
#1=[#502+[#503-#502]*0.99432]
#2=[#506+[#507-#506]*0.99432]
#3=[#1+[#2-#1]*0.69222]
X4.95086 Y-2.45821 Z[#3+-0.04000]
#1=[#502+[#503-#502]*0.98744]
#2=[#506+[#507-#506]*0.98744]
#3=[#1+[#2-#1]*0.70150]
X4.95443 Y-2.46026 Z[#3+-0.04000]
#1=[#502+[#503-#502]*0.97825]
#2=[#506+[#507-#506]*0.97825]
#3=[#1+[#2-#1]*0.70947]
X4.95749 Y-2.46302 Z[#3+-0.04000]
#1=[#502+[#503-#502]*0.96713]
#2=[#506+[#507-#506]*0.96713]
#3=[#1+[#2-#1]*0.71577]
X4.95990 Y-2.46635 Z[#3+-0.04000]
#1=[#502+[#503-#502]*0.95458]
#2=[#506+[#507-#506]*0.95458]
#3=[#1+[#2-#1]*0.72013]
X4.96158 Y-2.47011 Z[#3+-0.04000]
#1=[#502+[#503-#502]*0.94113]
#2=[#506+[#507-#506]*0.94113]
#3=[#1+[#2-#1]*0.72236]
X4.96243 Y-2.47413 Z[#3+-0.04000]
#1=[#502+[#503-#502]*0.92739]
#2=[#506+[#507-#506]*0.92739]
#3=[#1+[#2-#1]*0.72236]
X4.96243 Y-2.47825 Z[#3+-0.04000]
#1=[#502+[#503-#502]*0.91395]
#2=[#506+[#507-#506]*0.91395]
#3=[#1+[#2-#1]*0.72013]
X4.96158 Y-2.48227 Z[#3+-0.04000]
#1=[#502+[#503-#502]*0.90140]
#2=[#506+[#507-#506]*0.90140]
#3=[#1+[#2-#1]*0.71577]
X4.95990 Y-2.48603 Z[#3+-0.04000]
#1=[#502+[#503-#502]*0.89028]
#2=[#506+[#507-#506]*0.89028]
#3=[#1+[#2-#1]*0.70947]
X4.95749 Y-2.48936 Z[#3+-0.04000]
#1=[#502+[#503-#502]*0.88108]
#2=[#506+[#507-#506]*0.88108]
#3=[#1+[#2-#1]*0.70150]
X4.95443 Y-2.49212 Z[#3+-0.04000]
#1=[#502+[#503-#502]*0.87421]
#2=[#506+[#507-#506]*0.87421]
#3=[#1+[#2-#1]*0.69222]
X4.95086 Y-2.49417 Z[#3+-0.04000]
#1=[#502+[#503-#502]*0.86997]
#2=[#506+[#507-#506]*0.86997]
#3=[#1+[#2-#1]*0.68203]
X4.94695 Y-2.49544 Z[#3+-0.04000]
#1=[#502+[#503-#502]*0.86853]
#2=[#506+[#507-#506]*0.86853]
#3=[#1+[#2-#1]*0.67137]
X4.94286 Y-2.49587 Z[#3+-0.04000]
#1=[#502+[#503-#502]*0.86853]
#2=[#506+[#507-#506]*0.86853]
#3=[#1+[#2-#1]*0.10254]
X4.72445 Y-2.49587 Z[#3+-0.04000]
#1=[#502+[#503-#502]*0.20493]
#2=[#506+[#507-#506]*0.20493]
#3=[#1+[#2-#1]*0.10254]
X4.72445 Y-2.69460 Z[#3+-0.04000]
#1=[#502+[#503-#502]*0.20493]
#2=[#506+[#507-#506]*0.20493]
#3=[#1+[#2-#1]*0.48534]
X4.87143 Y-2.69460 Z[#3+-0.04000]
#1=[#502+[#503-#502]*0.20349]
#2=[#506+[#507-#506]*0.20349]
#3=[#1+[#2-#1]*0.49600]
X4.87552 Y-2.69503 Z[#3+-0.04000]
#1=[#502+[#503-#502]*0.19924]
#2=[#506+[#507-#506]*0.19924]
#3=[#1+[#2-#1]*0.50619]
X4.87943 Y-2.69630 Z[#3+-0.04000]
#1=[#502+[#503-#502]*0.19237]
#2=[#506+[#507-#506]*0.19237]
#3=[#1+[#2-#1]*0.51547]
X4.88300 Y-2.69836 Z[#3+-0.04000]
#1=[#502+[#503-#502]*0.18318]
#2=[#506+[#507-#506]*0.18318]
#3=[#1+[#2-#1]*0.52344]
X4.88606 Y-2.70111 Z[#3+-0.04000]
#1=[#502+[#503-#502]*0.17206]
#2=[#506+[#507-#506]*0.17206]
#3=[#1+[#2-#1]*0.52974]
X4.88847 Y-2.70444 Z[#3+-0.04000]
#1=[#502+[#503-#502]*0.15951]
#2=[#506+[#507-#506]*0.15951]
#3=[#1+[#2-#1]*0.53410]
X4.89015 Y-2.70820 Z[#3+-0.04000]
#1=[#502+[#503-#502]*0.14606]
#2=[#506+[#507-#506]*0.14606]
#3=[#1+[#2-#1]*0.53633]
X4.89100 Y-2.71223 Z[#3+-0.04000]
#1=[#502+[#503-#502]*0.13232]
#2=[#506+[#507-#506]*0.13232]
#3=[#1+[#2-#1]*0.53633]
X4.89100 Y-2.71634 Z[#3+-0.04000]
#1=[#502+[#503-#502]*0.11888]
#2=[#506+[#507-#506]*0.11888]
#3=[#1+[#2-#1]*0.53410]
X4.89015 Y-2.72037 Z[#3+-0.04000]
#1=[#502+[#503-#502]*0.10632]
#2=[#506+[#507-#506]*0.10632]
#3=[#1+[#2-#1]*0.52974]
X4.88847 Y-2.72413 Z[#3+-0.04000]
#1=[#502+[#503-#502]*0.09521]
#2=[#506+[#507-#506]*0.09521]
#3=[#1+[#2-#1]*0.52344]
X4.88606 Y-2.72746 Z[#3+-0.04000]
#1=[#502+[#503-#502]*0.08601]
#2=[#506+[#507-#506]*0.08601]
#3=[#1+[#2-#1]*0.51547]
X4.88300 Y-2.73021 Z[#3+-0.04000]
#1=[#502+[#503-#502]*0.07914]
#2=[#506+[#507-#506]*0.07914]
#3=[#1+[#2-#1]*0.50619]
X4.87943 Y-2.73227 Z[#3+-0.04000]
#1=[#502+[#503-#502]*0.07490]
#2=[#506+[#507-#506]*0.07490]
#3=[#1+[#2-#1]*0.49600]
X4.87552 Y-2.73354 Z[#3+-0.04000]
#1=[#502+[#503-#502]*0.07346]
#2=[#506+[#507-#506]*0.07346]
#3=[#1+[#2-#1]*0.48534]
X4.87143 Y-2.73397 Z[#3+-0.04000]
#1=[#502+[#503-#502]*0.07346]
#2=[#506+[#507-#506]*0.07346]
#3=[#1+[#2-#1]*0.10254]
X4.72445 Y-2.73397 Z[#3+-0.04000]
#1=[#502+[#503-#502]*0.00000]
#2=[#506+[#507-#506]*0.00000]
#3=[#1+[#2-#1]*0.10254]
X4.72445 Y-2.75597 Z[#3+-0.04000]
#1=[#501+[#502-#501]*0.26461]
#2=[#505+[#506-#505]*0.26461]
#3=[#1+[#2-#1]*0.10254]
X4.72445 Y-2.97619 Z[#3+-0.04000]
#1=[#501+[#502-#501]*0.25094]
#2=[#505+[#506-#505]*0.25094]
#3=[#1+[#2-#1]*0.10142]
X4.72401 Y-2.98028 Z[#3+-0.04000]
#1=[#501+[#502-#501]*0.23787]
#2=[#505+[#506-#505]*0.23787]
#3=[#1+[#2-#1]*0.09811]
X4.72274 Y-2.98420 Z[#3+-0.04000]
#1=[#501+[#502-#501]*0.22597]
#2=[#505+[#506-#505]*0.22597]
#3=[#1+[#2-#1]*0.09275]
X4.72069 Y-2.98776 Z[#3+-0.04000]
#1=[#501+[#502-#501]*0.21576]
#2=[#505+[#506-#505]*0.21576]
#3=[#1+[#2-#1]*0.08557]
X4.71793 Y-2.99082 Z[#3+-0.04000]
#1=[#501+[#502-#501]*0.20768]
#2=[#505+[#506-#505]*0.20768]
#3=[#1+[#2-#1]*0.07690]
X4.71460 Y-2.99324 Z[#3+-0.04000]
#1=[#501+[#502-#501]*0.20209]
#2=[#505+[#506-#505]*0.20209]
#3=[#1+[#2-#1]*0.06711]
X4.71084 Y-2.99491 Z[#3+-0.04000]
#1=[#501+[#502-#501]*0.19924]
#2=[#505+[#506-#505]*0.19924]
#3=[#1+[#2-#1]*0.05663]
X4.70682 Y-2.99577 Z[#3+-0.04000]
#1=[#501+[#502-#501]*0.19924]
#2=[#505+[#506-#505]*0.19924]
#3=[#1+[#2-#1]*0.04591]
X4.70270 Y-2.99577 Z[#3+-0.04000]
#1=[#501+[#502-#501]*0.20209]
#2=[#505+[#506-#505]*0.20209]
#3=[#1+[#2-#1]*0.03543]
X4.69868 Y-2.99491 Z[#3+-0.04000]
#1=[#501+[#502-#501]*0.20768]
#2=[#505+[#506-#505]*0.20768]
#3=[#1+[#2-#1]*0.02564]
X4.69492 Y-2.99324 Z[#3+-0.04000]
#1=[#501+[#502-#501]*0.21576]
#2=[#505+[#506-#505]*0.21576]
#3=[#1+[#2-#1]*0.01697]
X4.69159 Y-2.99082 Z[#3+-0.04000]
#1=[#501+[#502-#501]*0.22597]
#2=[#505+[#506-#505]*0.22597]
#3=[#1+[#2-#1]*0.00979]
X4.68884 Y-2.98776 Z[#3+-0.04000]
#1=[#501+[#502-#501]*0.23787]
#2=[#505+[#506-#505]*0.23787]
#3=[#1+[#2-#1]*0.00443]
X4.68678 Y-2.98420 Z[#3+-0.04000]
#1=[#501+[#502-#501]*0.25094]
#2=[#505+[#506-#505]*0.25094]
#3=[#1+[#2-#1]*0.00112]
X4.68551 Y-2.98028 Z[#3+-0.04000]
#1=[#501+[#502-#501]*0.26461]
#2=[#505+[#506-#505]*0.26461]
#3=[#1+[#2-#1]*0.00000]
X4.68508 Y-2.97619 Z[#3+-0.04000]
G04 P0 ( dwell for no time -- G64 should not smooth over this point )
G00 Z0.08000 ( retract )

G00 X5.11365 Y-2.97619 ( rapid move to begin. )
G01 F180.00000
( Mill infeed pass 1/1 )
#1=[#505+[#506-#505]*0.26461]
#2=[#509+[#510-#509]*0.26461]
#3=[#1+[#2-#1]*0.11618]
G01 Z[-0.04000+#111]
G04 P0 ( dwell for no time -- G64 should not smooth over this point )
G01 F360.00000
#1=[#506+[#507-#506]*0.00000]
#2=[#510+[#511-#510]*0.00000]
#3=[#1+[#2-#1]*0.11618]
X5.11365 Y-2.75597 Z[#3+-0.04000]
#1=[#506+[#507-#506]*0.37771]
#2=[#510+[#511-#510]*0.37771]
#3=[#1+[#2-#1]*0.11618]
X5.11365 Y-2.64286 Z[#3+-0.04000]
#1=[#506+[#507-#506]*0.39138]
#2=[#510+[#511-#510]*0.39138]
#3=[#1+[#2-#1]*0.11730]
X5.11408 Y-2.63876 Z[#3+-0.04000]
#1=[#506+[#507-#506]*0.40445]
#2=[#510+[#511-#510]*0.40445]
#3=[#1+[#2-#1]*0.12061]
X5.11535 Y-2.63485 Z[#3+-0.04000]
#1=[#506+[#507-#506]*0.41635]
#2=[#510+[#511-#510]*0.41635]
#3=[#1+[#2-#1]*0.12597]
X5.11741 Y-2.63129 Z[#3+-0.04000]
#1=[#506+[#507-#506]*0.42656]
#2=[#510+[#511-#510]*0.42656]
#3=[#1+[#2-#1]*0.13314]
X5.12016 Y-2.62823 Z[#3+-0.04000]
#1=[#506+[#507-#506]*0.43464]
#2=[#510+[#511-#510]*0.43464]
#3=[#1+[#2-#1]*0.14181]
X5.12349 Y-2.62581 Z[#3+-0.04000]
#1=[#506+[#507-#506]*0.44023]
#2=[#510+[#511-#510]*0.44023]
#3=[#1+[#2-#1]*0.15160]
X5.12725 Y-2.62413 Z[#3+-0.04000]
#1=[#506+[#507-#506]*0.44309]
#2=[#510+[#511-#510]*0.44309]
#3=[#1+[#2-#1]*0.16209]
X5.13127 Y-2.62328 Z[#3+-0.04000]
#1=[#506+[#507-#506]*0.44309]
#2=[#510+[#511-#510]*0.44309]
#3=[#1+[#2-#1]*0.17281]
X5.13539 Y-2.62328 Z[#3+-0.04000]
#1=[#506+[#507-#506]*0.44023]
#2=[#510+[#511-#510]*0.44023]
#3=[#1+[#2-#1]*0.18329]
X5.13942 Y-2.62413 Z[#3+-0.04000]
#1=[#506+[#507-#506]*0.43464]
#2=[#510+[#511-#510]*0.43464]
#3=[#1+[#2-#1]*0.19308]
X5.14318 Y-2.62581 Z[#3+-0.04000]
#1=[#506+[#507-#506]*0.42656]
#2=[#510+[#511-#510]*0.42656]
#3=[#1+[#2-#1]*0.20175]
X5.14650 Y-2.62823 Z[#3+-0.04000]
#1=[#506+[#507-#506]*0.41635]
#2=[#510+[#511-#510]*0.41635]
#3=[#1+[#2-#1]*0.20892]
X5.14926 Y-2.63129 Z[#3+-0.04000]
#1=[#506+[#507-#506]*0.40445]
#2=[#510+[#511-#510]*0.40445]
#3=[#1+[#2-#1]*0.21428]
X5.15132 Y-2.63485 Z[#3+-0.04000]
#1=[#506+[#507-#506]*0.39138]
#2=[#510+[#511-#510]*0.39138]
#3=[#1+[#2-#1]*0.21759]
X5.15259 Y-2.63876 Z[#3+-0.04000]
#1=[#506+[#507-#506]*0.29789]
#2=[#510+[#511-#510]*0.29789]
#3=[#1+[#2-#1]*0.21872]
X5.15302 Y-2.66676 Z[#3+-0.04000]
#1=[#506+[#507-#506]*0.35153]
#2=[#510+[#511-#510]*0.35153]
#3=[#1+[#2-#1]*0.26149]
X5.16944 Y-2.65070 Z[#3+-0.04000]
#1=[#506+[#507-#506]*0.44033]
#2=[#510+[#511-#510]*0.44033]
#3=[#1+[#2-#1]*0.39989]
X5.22258 Y-2.62410 Z[#3+-0.04000]
#1=[#506+[#507-#506]*0.44345]
#2=[#510+[#511-#510]*0.44345]
#3=[#1+[#2-#1]*0.41549]
X5.22857 Y-2.62317 Z[#3+-0.04000]
#1=[#506+[#507-#506]*0.44345]
#2=[#510+[#511-#510]*0.44345]
#3=[#1+[#2-#1]*0.53951]
X5.27619 Y-2.62317 Z[#3+-0.04000]
#1=[#506+[#507-#506]*0.44201]
#2=[#510+[#511-#510]*0.44201]
#3=[#1+[#2-#1]*0.55016]
X5.28028 Y-2.62360 Z[#3+-0.04000]
#1=[#506+[#507-#506]*0.43776]
#2=[#510+[#511-#510]*0.43776]
#3=[#1+[#2-#1]*0.56036]
X5.28420 Y-2.62487 Z[#3+-0.04000]
#1=[#506+[#507-#506]*0.43089]
#2=[#510+[#511-#510]*0.43089]
#3=[#1+[#2-#1]*0.56964]
X5.28776 Y-2.62693 Z[#3+-0.04000]
#1=[#506+[#507-#506]*0.42170]
#2=[#510+[#511-#510]*0.42170]
#3=[#1+[#2-#1]*0.57760]
X5.29082 Y-2.62968 Z[#3+-0.04000]
#1=[#506+[#507-#506]*0.41058]
#2=[#510+[#511-#510]*0.41058]
#3=[#1+[#2-#1]*0.58390]
X5.29324 Y-2.63301 Z[#3+-0.04000]
#1=[#506+[#507-#506]*0.39803]
#2=[#510+[#511-#510]*0.39803]
#3=[#1+[#2-#1]*0.58826]
X5.29491 Y-2.63677 Z[#3+-0.04000]
#1=[#506+[#507-#506]*0.38458]
#2=[#510+[#511-#510]*0.38458]
#3=[#1+[#2-#1]*0.59049]
X5.29577 Y-2.64080 Z[#3+-0.04000]
#1=[#506+[#507-#506]*0.37084]
#2=[#510+[#511-#510]*0.37084]
#3=[#1+[#2-#1]*0.59049]
X5.29577 Y-2.64491 Z[#3+-0.04000]
#1=[#506+[#507-#506]*0.35740]
#2=[#510+[#511-#510]*0.35740]
#3=[#1+[#2-#1]*0.58826]
X5.29491 Y-2.64894 Z[#3+-0.04000]
#1=[#506+[#507-#506]*0.34484]
#2=[#510+[#511-#510]*0.34484]
#3=[#1+[#2-#1]*0.58390]
X5.29324 Y-2.65270 Z[#3+-0.04000]
#1=[#506+[#507-#506]*0.33373]
#2=[#510+[#511-#510]*0.33373]
#3=[#1+[#2-#1]*0.57760]
X5.29082 Y-2.65603 Z[#3+-0.04000]
#1=[#506+[#507-#506]*0.32453]
#2=[#510+[#511-#510]*0.32453]
#3=[#1+[#2-#1]*0.56964]
X5.28776 Y-2.65878 Z[#3+-0.04000]
#1=[#506+[#507-#506]*0.31766]
#2=[#510+[#511-#510]*0.31766]
#3=[#1+[#2-#1]*0.56036]
X5.28420 Y-2.66084 Z[#3+-0.04000]
#1=[#506+[#507-#506]*0.31342]
#2=[#510+[#511-#510]*0.31342]
#3=[#1+[#2-#1]*0.55016]
X5.28028 Y-2.66211 Z[#3+-0.04000]
#1=[#506+[#507-#506]*0.31198]
#2=[#510+[#511-#510]*0.31198]
#3=[#1+[#2-#1]*0.53951]
X5.27619 Y-2.66254 Z[#3+-0.04000]
#1=[#506+[#507-#506]*0.31198]
#2=[#510+[#511-#510]*0.31198]
#3=[#1+[#2-#1]*0.42759]
X5.23322 Y-2.66254 Z[#3+-0.04000]
#1=[#506+[#507-#506]*0.24418]
#2=[#510+[#511-#510]*0.24418]
#3=[#1+[#2-#1]*0.32184]
X5.19261 Y-2.68284 Z[#3+-0.04000]
#1=[#506+[#507-#506]*0.17976]
#2=[#510+[#511-#510]*0.17976]
#3=[#1+[#2-#1]*0.27159]
X5.17332 Y-2.70214 Z[#3+-0.04000]
#1=[#506+[#507-#506]*0.04417]
#2=[#510+[#511-#510]*0.04417]
#3=[#1+[#2-#1]*0.21872]
X5.15302 Y-2.74274 Z[#3+-0.04000]
#1=[#506+[#507-#506]*0.00000]
#2=[#510+[#511-#510]*0.00000]
#3=[#1+[#2-#1]*0.21872]
X5.15302 Y-2.75597 Z[#3+-0.04000]
#1=[#505+[#506-#505]*0.26461]
#2=[#509+[#510-#509]*0.26461]
#3=[#1+[#2-#1]*0.21872]
X5.15302 Y-2.97619 Z[#3+-0.04000]
#1=[#505+[#506-#505]*0.25094]
#2=[#509+[#510-#509]*0.25094]
#3=[#1+[#2-#1]*0.21759]
X5.15259 Y-2.98028 Z[#3+-0.04000]
#1=[#505+[#506-#505]*0.23787]
#2=[#509+[#510-#509]*0.23787]
#3=[#1+[#2-#1]*0.21428]
X5.15132 Y-2.98420 Z[#3+-0.04000]
#1=[#505+[#506-#505]*0.22597]
#2=[#509+[#510-#509]*0.22597]
#3=[#1+[#2-#1]*0.20892]
X5.14926 Y-2.98776 Z[#3+-0.04000]
#1=[#505+[#506-#505]*0.21576]
#2=[#509+[#510-#509]*0.21576]
#3=[#1+[#2-#1]*0.20175]
X5.14650 Y-2.99082 Z[#3+-0.04000]
#1=[#505+[#506-#505]*0.20768]
#2=[#509+[#510-#509]*0.20768]
#3=[#1+[#2-#1]*0.19308]
X5.14318 Y-2.99324 Z[#3+-0.04000]
#1=[#505+[#506-#505]*0.20209]
#2=[#509+[#510-#509]*0.20209]
#3=[#1+[#2-#1]*0.18329]
X5.13942 Y-2.99491 Z[#3+-0.04000]
#1=[#505+[#506-#505]*0.19924]
#2=[#509+[#510-#509]*0.19924]
#3=[#1+[#2-#1]*0.17281]
X5.13539 Y-2.99577 Z[#3+-0.04000]
#1=[#505+[#506-#505]*0.19924]
#2=[#509+[#510-#509]*0.19924]
#3=[#1+[#2-#1]*0.16209]
X5.13127 Y-2.99577 Z[#3+-0.04000]
#1=[#505+[#506-#505]*0.20209]
#2=[#509+[#510-#509]*0.20209]
#3=[#1+[#2-#1]*0.15160]
X5.12725 Y-2.99491 Z[#3+-0.04000]
#1=[#505+[#506-#505]*0.20768]
#2=[#509+[#510-#509]*0.20768]
#3=[#1+[#2-#1]*0.14181]
X5.12349 Y-2.99324 Z[#3+-0.04000]
#1=[#505+[#506-#505]*0.21576]
#2=[#509+[#510-#509]*0.21576]
#3=[#1+[#2-#1]*0.13314]
X5.12016 Y-2.99082 Z[#3+-0.04000]
#1=[#505+[#506-#505]*0.22597]
#2=[#509+[#510-#509]*0.22597]
#3=[#1+[#2-#1]*0.12597]
X5.11741 Y-2.98776 Z[#3+-0.04000]
#1=[#505+[#506-#505]*0.23787]
#2=[#509+[#510-#509]*0.23787]
#3=[#1+[#2-#1]*0.12061]
X5.11535 Y-2.98420 Z[#3+-0.04000]
#1=[#505+[#506-#505]*0.25094]
#2=[#509+[#510-#509]*0.25094]
#3=[#1+[#2-#1]*0.11730]
X5.11408 Y-2.98028 Z[#3+-0.04000]
#1=[#505+[#506-#505]*0.26461]
#2=[#509+[#510-#509]*0.26461]
#3=[#1+[#2-#1]*0.11618]
X5.11365 Y-2.97619 Z[#3+-0.04000]
G04 P0 ( dwell for no time -- G64 should not smooth over this point )
G00 Z0.08000 ( retract )

G00 X5.39936 Y-2.88095 ( rapid move to begin. )
G01 F180.00000
( Mill infeed pass 1/1 )
#1=[#505+[#506-#505]*0.58264]
#2=[#509+[#510-#509]*0.58264]
#3=[#1+[#2-#1]*0.86030]
G01 Z[-0.04000+#111]
G04 P0 ( dwell for no time -- G64 should not smooth over this point )
G01 F360.00000
#1=[#506+[#507-#506]*0.00000]
#2=[#510+[#511-#510]*0.00000]
#3=[#1+[#2-#1]*0.86030]
X5.39936 Y-2.75597 Z[#3+-0.04000]
#1=[#506+[#507-#506]*0.05968]
#2=[#510+[#511-#510]*0.05968]
#3=[#1+[#2-#1]*0.86030]
X5.39936 Y-2.73809 Z[#3+-0.04000]
#1=[#506+[#507-#506]*0.07968]
#2=[#510+[#511-#510]*0.07968]
#3=[#1+[#2-#1]*0.86273]
X5.40029 Y-2.73211 Z[#3+-0.04000]
#1=[#506+[#507-#506]*0.25713]
#2=[#510+[#511-#510]*0.25713]
#3=[#1+[#2-#1]*0.93198]
X5.42689 Y-2.67897 Z[#3+-0.04000]
#1=[#510+[#511-#510]*0.34435]
#2=[#514+[#515-#514]*0.34435]
#3=[#1+[#2-#1]*0.00000]
X5.45300 Y-2.65285 Z[#3+-0.04000]
#1=[#510+[#511-#510]*0.35153]
#2=[#514+[#515-#514]*0.35153]
#3=[#1+[#2-#1]*0.00561]
X5.45516 Y-2.65070 Z[#3+-0.04000]
#1=[#510+[#511-#510]*0.43651]
#2=[#514+[#515-#514]*0.43651]
#3=[#1+[#2-#1]*0.13668]
X5.50548 Y-2.62525 Z[#3+-0.04000]
#1=[#510+[#511-#510]*0.44266]
#2=[#514+[#515-#514]*0.44266]
#3=[#1+[#2-#1]*0.15171]
X5.51125 Y-2.62341 Z[#3+-0.04000]
#1=[#510+[#511-#510]*0.44266]
#2=[#514+[#515-#514]*0.44266]
#3=[#1+[#2-#1]*0.35353]
X5.58874 Y-2.62341 Z[#3+-0.04000]
#1=[#510+[#511-#510]*0.43651]
#2=[#514+[#515-#514]*0.43651]
#3=[#1+[#2-#1]*0.36856]
X5.59452 Y-2.62525 Z[#3+-0.04000]
#1=[#510+[#511-#510]*0.35153]
#2=[#514+[#515-#514]*0.35153]
#3=[#1+[#2-#1]*0.49963]
X5.64484 Y-2.65070 Z[#3+-0.04000]
#1=[#510+[#511-#510]*0.25713]
#2=[#514+[#515-#514]*0.25713]
#3=[#1+[#2-#1]*0.57325]
X5.67311 Y-2.67897 Z[#3+-0.04000]
#1=[#510+[#511-#510]*0.08908]
#2=[#514+[#515-#514]*0.08908]
#3=[#1+[#2-#1]*0.63953]
X5.69856 Y-2.72929 Z[#3+-0.04000]
#1=[#510+[#511-#510]*0.06980]
#2=[#514+[#515-#514]*0.06980]
#3=[#1+[#2-#1]*0.64433]
X5.70040 Y-2.73506 Z[#3+-0.04000]
#1=[#510+[#511-#510]*0.00000]
#2=[#514+[#515-#514]*0.00000]
#3=[#1+[#2-#1]*0.64433]
X5.70040 Y-2.75597 Z[#3+-0.04000]
#1=[#509+[#510-#509]*0.57252]
#2=[#513+[#514-#513]*0.57252]
#3=[#1+[#2-#1]*0.64433]
X5.70040 Y-2.88398 Z[#3+-0.04000]
#1=[#509+[#510-#509]*0.55324]
#2=[#513+[#514-#513]*0.55324]
#3=[#1+[#2-#1]*0.63953]
X5.69856 Y-2.88976 Z[#3+-0.04000]
#1=[#509+[#510-#509]*0.38519]
#2=[#513+[#514-#513]*0.38519]
#3=[#1+[#2-#1]*0.57325]
X5.67311 Y-2.94008 Z[#3+-0.04000]
#1=[#509+[#510-#509]*0.29079]
#2=[#513+[#514-#513]*0.29079]
#3=[#1+[#2-#1]*0.49963]
X5.64484 Y-2.96835 Z[#3+-0.04000]
#1=[#509+[#510-#509]*0.20582]
#2=[#513+[#514-#513]*0.20582]
#3=[#1+[#2-#1]*0.36856]
X5.59452 Y-2.99380 Z[#3+-0.04000]
#1=[#509+[#510-#509]*0.19966]
#2=[#513+[#514-#513]*0.19966]
#3=[#1+[#2-#1]*0.35353]
X5.58874 Y-2.99564 Z[#3+-0.04000]
#1=[#509+[#510-#509]*0.19887]
#2=[#513+[#514-#513]*0.19887]
#3=[#1+[#2-#1]*0.15960]
X5.51429 Y-2.99587 Z[#3+-0.04000]
#1=[#509+[#510-#509]*0.20199]
#2=[#513+[#514-#513]*0.20199]
#3=[#1+[#2-#1]*0.14401]
X5.50830 Y-2.99494 Z[#3+-0.04000]
#1=[#509+[#510-#509]*0.29079]
#2=[#513+[#514-#513]*0.29079]
#3=[#1+[#2-#1]*0.00561]
X5.45516 Y-2.96835 Z[#3+-0.04000]
#1=[#509+[#510-#509]*0.29788]
#2=[#513+[#514-#513]*0.29788]
#3=[#1+[#2-#1]*0.00000]
X5.45300 Y-2.96623 Z[#3+-0.04000]
#1=[#505+[#506-#505]*0.37714]
#2=[#509+[#510-#509]*0.37714]
#3=[#1+[#2-#1]*0.93732]
X5.42894 Y-2.94249 Z[#3+-0.04000]
#1=[#505+[#506-#505]*0.39423]
#2=[#509+[#510-#509]*0.39423]
#3=[#1+[#2-#1]*0.92772]
X5.42525 Y-2.93737 Z[#3+-0.04000]
#1=[#505+[#506-#505]*0.55462]
#2=[#509+[#510-#509]*0.55462]
#3=[#1+[#2-#1]*0.86530]
X5.40128 Y-2.88934 Z[#3+-0.04000]
#1=[#505+[#506-#505]*0.56897]
#2=[#509+[#510-#509]*0.56897]
#3=[#1+[#2-#1]*0.86142]
X5.39979 Y-2.88504 Z[#3+-0.04000]
#1=[#505+[#506-#505]*0.58264]
#2=[#509+[#510-#509]*0.58264]
#3=[#1+[#2-#1]*0.86030]
X5.39936 Y-2.88095 Z[#3+-0.04000]
G04 P0 ( dwell for no time -- G64 should not smooth over this point )
G00 Z0.08000 ( retract )

G00 X5.43873 Y-2.87630 ( rapid move to begin. )
G01 F180.00000
( Mill infeed pass 1/1 )
#1=[#505+[#506-#505]*0.59816]
#2=[#509+[#510-#509]*0.59816]
#3=[#1+[#2-#1]*0.96283]
G01 Z[-0.04000+#111]
G04 P0 ( dwell for no time -- G64 should not smooth over this point )
G01 F360.00000
#1=[#506+[#507-#506]*0.00000]
#2=[#510+[#511-#510]*0.00000]
#3=[#1+[#2-#1]*0.96283]
X5.43873 Y-2.75597 Z[#3+-0.04000]
#1=[#506+[#507-#506]*0.04416]
#2=[#510+[#511-#510]*0.04416]
#3=[#1+[#2-#1]*0.96283]
X5.43873 Y-2.74274 Z[#3+-0.04000]
#1=[#510+[#511-#510]*0.13947]
#2=[#514+[#515-#514]*0.13947]
#3=[#1+[#2-#1]*0.00000]
X5.45300 Y-2.71420 Z[#3+-0.04000]
#1=[#510+[#511-#510]*0.17976]
#2=[#514+[#515-#514]*0.17976]
#3=[#1+[#2-#1]*0.01571]
X5.45904 Y-2.70214 Z[#3+-0.04000]
#1=[#510+[#511-#510]*0.24418]
#2=[#514+[#515-#514]*0.24418]
#3=[#1+[#2-#1]*0.06595]
X5.47833 Y-2.68284 Z[#3+-0.04000]
#1=[#510+[#511-#510]*0.31198]
#2=[#514+[#515-#514]*0.31198]
#3=[#1+[#2-#1]*0.17170]
X5.51893 Y-2.66254 Z[#3+-0.04000]
#1=[#510+[#511-#510]*0.31198]
#2=[#514+[#515-#514]*0.31198]
#3=[#1+[#2-#1]*0.33353]
X5.58107 Y-2.66254 Z[#3+-0.04000]
#1=[#510+[#511-#510]*0.24418]
#2=[#514+[#515-#514]*0.24418]
#3=[#1+[#2-#1]*0.43928]
X5.62167 Y-2.68284 Z[#3+-0.04000]
#1=[#510+[#511-#510]*0.17976]
#2=[#514+[#515-#514]*0.17976]
#3=[#1+[#2-#1]*0.48953]
X5.64096 Y-2.70214 Z[#3+-0.04000]
#1=[#510+[#511-#510]*0.04416]
#2=[#514+[#515-#514]*0.04416]
#3=[#1+[#2-#1]*0.54240]
X5.66127 Y-2.74274 Z[#3+-0.04000]
#1=[#510+[#511-#510]*0.00000]
#2=[#514+[#515-#514]*0.00000]
#3=[#1+[#2-#1]*0.54240]
X5.66127 Y-2.75597 Z[#3+-0.04000]
#1=[#509+[#510-#509]*0.59816]
#2=[#513+[#514-#513]*0.59816]
#3=[#1+[#2-#1]*0.54240]
X5.66127 Y-2.87630 Z[#3+-0.04000]
#1=[#509+[#510-#509]*0.46256]
#2=[#513+[#514-#513]*0.46256]
#3=[#1+[#2-#1]*0.48953]
X5.64096 Y-2.91691 Z[#3+-0.04000]
#1=[#509+[#510-#509]*0.39814]
#2=[#513+[#514-#513]*0.39814]
#3=[#1+[#2-#1]*0.43928]
X5.62167 Y-2.93620 Z[#3+-0.04000]
#1=[#509+[#510-#509]*0.33035]
#2=[#513+[#514-#513]*0.33035]
#3=[#1+[#2-#1]*0.33353]
X5.58107 Y-2.95650 Z[#3+-0.04000]
#1=[#509+[#510-#509]*0.33035]
#2=[#513+[#514-#513]*0.33035]
#3=[#1+[#2-#1]*0.17171]
X5.51893 Y-2.95650 Z[#3+-0.04000]
#1=[#509+[#510-#509]*0.39814]
#2=[#513+[#514-#513]*0.39814]
#3=[#1+[#2-#1]*0.06595]
X5.47833 Y-2.93620 Z[#3+-0.04000]
#1=[#509+[#510-#509]*0.46256]
#2=[#513+[#514-#513]*0.46256]
#3=[#1+[#2-#1]*0.01571]
X5.45904 Y-2.91691 Z[#3+-0.04000]
#1=[#509+[#510-#509]*0.50285]
#2=[#513+[#514-#513]*0.50285]
#3=[#1+[#2-#1]*0.00000]
X5.45300 Y-2.90485 Z[#3+-0.04000]
#1=[#505+[#506-#505]*0.59816]
#2=[#509+[#510-#509]*0.59816]
#3=[#1+[#2-#1]*0.96283]
X5.43873 Y-2.87630 Z[#3+-0.04000]
G04 P0 ( dwell for no time -- G64 should not smooth over this point )
G00 Z0.08000 ( retract )

G00 X5.87555 Y-2.97619 ( rapid move to begin. )
G01 F180.00000
( Mill infeed pass 1/1 )
#1=[#513+[#514-#513]*0.26461]
#2=[#517+[#518-#517]*0.26461]
#3=[#1+[#2-#1]*0.10049]
G01 Z[-0.04000+#111]
G04 P0 ( dwell for no time -- G64 should not smooth over this point )
G01 F360.00000
#1=[#514+[#515-#514]*0.00000]
#2=[#518+[#519-#518]*0.00000]
#3=[#1+[#2-#1]*0.10049]
X5.87555 Y-2.75597 Z[#3+-0.04000]
#1=[#514+[#515-#514]*0.37771]
#2=[#518+[#519-#518]*0.37771]
#3=[#1+[#2-#1]*0.10049]
X5.87555 Y-2.64286 Z[#3+-0.04000]
#1=[#514+[#515-#514]*0.39138]
#2=[#518+[#519-#518]*0.39138]
#3=[#1+[#2-#1]*0.10162]
X5.87598 Y-2.63876 Z[#3+-0.04000]
#1=[#514+[#515-#514]*0.40445]
#2=[#518+[#519-#518]*0.40445]
#3=[#1+[#2-#1]*0.10493]
X5.87725 Y-2.63485 Z[#3+-0.04000]
#1=[#514+[#515-#514]*0.41635]
#2=[#518+[#519-#518]*0.41635]
#3=[#1+[#2-#1]*0.11029]
X5.87931 Y-2.63129 Z[#3+-0.04000]
#1=[#514+[#515-#514]*0.42656]
#2=[#518+[#519-#518]*0.42656]
#3=[#1+[#2-#1]*0.11746]
X5.88207 Y-2.62823 Z[#3+-0.04000]
#1=[#514+[#515-#514]*0.43464]
#2=[#518+[#519-#518]*0.43464]
#3=[#1+[#2-#1]*0.12613]
X5.88539 Y-2.62581 Z[#3+-0.04000]
#1=[#514+[#515-#514]*0.44023]
#2=[#518+[#519-#518]*0.44023]
#3=[#1+[#2-#1]*0.13592]
X5.88915 Y-2.62413 Z[#3+-0.04000]
#1=[#514+[#515-#514]*0.44309]
#2=[#518+[#519-#518]*0.44309]
#3=[#1+[#2-#1]*0.14640]
X5.89318 Y-2.62328 Z[#3+-0.04000]
#1=[#514+[#515-#514]*0.44309]
#2=[#518+[#519-#518]*0.44309]
#3=[#1+[#2-#1]*0.15712]
X5.89729 Y-2.62328 Z[#3+-0.04000]
#1=[#514+[#515-#514]*0.44023]
#2=[#518+[#519-#518]*0.44023]
#3=[#1+[#2-#1]*0.16761]
X5.90132 Y-2.62413 Z[#3+-0.04000]
#1=[#514+[#515-#514]*0.43464]
#2=[#518+[#519-#518]*0.43464]
#3=[#1+[#2-#1]*0.17740]
X5.90508 Y-2.62581 Z[#3+-0.04000]
#1=[#514+[#515-#514]*0.42656]
#2=[#518+[#519-#518]*0.42656]
#3=[#1+[#2-#1]*0.18607]
X5.90841 Y-2.62823 Z[#3+-0.04000]
#1=[#514+[#515-#514]*0.41635]
#2=[#518+[#519-#518]*0.41635]
#3=[#1+[#2-#1]*0.19324]
X5.91116 Y-2.63129 Z[#3+-0.04000]
#1=[#514+[#515-#514]*0.40445]
#2=[#518+[#519-#518]*0.40445]
#3=[#1+[#2-#1]*0.19860]
X5.91322 Y-2.63485 Z[#3+-0.04000]
#1=[#514+[#515-#514]*0.39138]
#2=[#518+[#519-#518]*0.39138]
#3=[#1+[#2-#1]*0.20191]
X5.91449 Y-2.63876 Z[#3+-0.04000]
#1=[#514+[#515-#514]*0.36481]
#2=[#518+[#519-#518]*0.36481]
#3=[#1+[#2-#1]*0.20303]
X5.91492 Y-2.64672 Z[#3+-0.04000]
#1=[#514+[#515-#514]*0.43651]
#2=[#518+[#519-#518]*0.43651]
#3=[#1+[#2-#1]*0.31486]
X5.95786 Y-2.62525 Z[#3+-0.04000]
#1=[#514+[#515-#514]*0.44266]
#2=[#518+[#519-#518]*0.44266]
#3=[#1+[#2-#1]*0.32990]
X5.96364 Y-2.62341 Z[#3+-0.04000]
#1=[#514+[#515-#514]*0.44266]
#2=[#518+[#519-#518]*0.44266]
#3=[#1+[#2-#1]*0.53171]
X6.04113 Y-2.62341 Z[#3+-0.04000]
#1=[#514+[#515-#514]*0.43651]
#2=[#518+[#519-#518]*0.43651]
#3=[#1+[#2-#1]*0.54675]
X6.04690 Y-2.62525 Z[#3+-0.04000]
#1=[#514+[#515-#514]*0.35153]
#2=[#518+[#519-#518]*0.35153]
#3=[#1+[#2-#1]*0.67782]
X6.09722 Y-2.65070 Z[#3+-0.04000]
#1=[#514+[#515-#514]*0.34469]
#2=[#518+[#519-#518]*0.34469]
#3=[#1+[#2-#1]*0.68409]
X6.09963 Y-2.65275 Z[#3+-0.04000]
#1=[#514+[#515-#514]*0.32760]
#2=[#518+[#519-#518]*0.32760]
#3=[#1+[#2-#1]*0.69369]
X6.10332 Y-2.65786 Z[#3+-0.04000]
#1=[#514+[#515-#514]*0.16859]
#2=[#518+[#519-#518]*0.16859]
#3=[#1+[#2-#1]*0.75570]
X6.12713 Y-2.70548 Z[#3+-0.04000]
#1=[#514+[#515-#514]*0.14931]
#2=[#518+[#519-#518]*0.14931]
#3=[#1+[#2-#1]*0.76051]
X6.12897 Y-2.71125 Z[#3+-0.04000]
#1=[#514+[#515-#514]*0.00000]
#2=[#518+[#519-#518]*0.00000]
#3=[#1+[#2-#1]*0.76061]
X6.12901 Y-2.75597 Z[#3+-0.04000]
#1=[#513+[#514-#513]*0.26461]
#2=[#517+[#518-#517]*0.26461]
#3=[#1+[#2-#1]*0.76112]
X6.12921 Y-2.97619 Z[#3+-0.04000]
#1=[#513+[#514-#513]*0.25094]
#2=[#517+[#518-#517]*0.25094]
#3=[#1+[#2-#1]*0.76000]
X6.12878 Y-2.98028 Z[#3+-0.04000]
#1=[#513+[#514-#513]*0.23787]
#2=[#517+[#518-#517]*0.23787]
#3=[#1+[#2-#1]*0.75668]
X6.12751 Y-2.98420 Z[#3+-0.04000]
#1=[#513+[#514-#513]*0.22597]
#2=[#517+[#518-#517]*0.22597]
#3=[#1+[#2-#1]*0.75132]
X6.12545 Y-2.98776 Z[#3+-0.04000]
#1=[#513+[#514-#513]*0.21576]
#2=[#517+[#518-#517]*0.21576]
#3=[#1+[#2-#1]*0.74415]
X6.12269 Y-2.99082 Z[#3+-0.04000]
#1=[#513+[#514-#513]*0.20768]
#2=[#517+[#518-#517]*0.20768]
#3=[#1+[#2-#1]*0.73548]
X6.11937 Y-2.99324 Z[#3+-0.04000]
#1=[#513+[#514-#513]*0.20209]
#2=[#517+[#518-#517]*0.20209]
#3=[#1+[#2-#1]*0.72569]
X6.11561 Y-2.99491 Z[#3+-0.04000]
#1=[#513+[#514-#513]*0.19924]
#2=[#517+[#518-#517]*0.19924]
#3=[#1+[#2-#1]*0.71521]
X6.11158 Y-2.99577 Z[#3+-0.04000]
#1=[#513+[#514-#513]*0.19924]
#2=[#517+[#518-#517]*0.19924]
#3=[#1+[#2-#1]*0.70449]
X6.10747 Y-2.99577 Z[#3+-0.04000]
#1=[#513+[#514-#513]*0.20209]
#2=[#517+[#518-#517]*0.20209]
#3=[#1+[#2-#1]*0.69400]
X6.10344 Y-2.99491 Z[#3+-0.04000]
#1=[#513+[#514-#513]*0.20768]
#2=[#517+[#518-#517]*0.20768]
#3=[#1+[#2-#1]*0.68421]
X6.09968 Y-2.99324 Z[#3+-0.04000]
#1=[#513+[#514-#513]*0.21576]
#2=[#517+[#518-#517]*0.21576]
#3=[#1+[#2-#1]*0.67554]
X6.09635 Y-2.99082 Z[#3+-0.04000]
#1=[#513+[#514-#513]*0.22597]
#2=[#517+[#518-#517]*0.22597]
#3=[#1+[#2-#1]*0.66837]
X6.09360 Y-2.98776 Z[#3+-0.04000]
#1=[#513+[#514-#513]*0.23787]
#2=[#517+[#518-#517]*0.23787]
#3=[#1+[#2-#1]*0.66301]
X6.09154 Y-2.98420 Z[#3+-0.04000]
#1=[#513+[#514-#513]*0.25094]
#2=[#517+[#518-#517]*0.25094]
#3=[#1+[#2-#1]*0.65970]
X6.09027 Y-2.98028 Z[#3+-0.04000]
#1=[#513+[#514-#513]*0.26461]
#2=[#517+[#518-#517]*0.26461]
#3=[#1+[#2-#1]*0.65858]
X6.08984 Y-2.97619 Z[#3+-0.04000]
#1=[#514+[#515-#514]*0.00000]
#2=[#518+[#519-#518]*0.00000]
#3=[#1+[#2-#1]*0.65858]
X6.08984 Y-2.75597 Z[#3+-0.04000]
#1=[#514+[#515-#514]*0.12368]
#2=[#518+[#519-#518]*0.12368]
#3=[#1+[#2-#1]*0.65858]
X6.08984 Y-2.71893 Z[#3+-0.04000]
#1=[#514+[#515-#514]*0.24921]
#2=[#518+[#519-#518]*0.24921]
#3=[#1+[#2-#1]*0.60963]
X6.07104 Y-2.68134 Z[#3+-0.04000]
#1=[#514+[#515-#514]*0.31198]
#2=[#518+[#519-#518]*0.31198]
#3=[#1+[#2-#1]*0.51172]
X6.03345 Y-2.66254 Z[#3+-0.04000]
#1=[#514+[#515-#514]*0.31198]
#2=[#518+[#519-#518]*0.31198]
#3=[#1+[#2-#1]*0.34989]
X5.97131 Y-2.66254 Z[#3+-0.04000]
#1=[#514+[#515-#514]*0.24418]
#2=[#518+[#519-#518]*0.24418]
#3=[#1+[#2-#1]*0.24414]
X5.93071 Y-2.68284 Z[#3+-0.04000]
#1=[#514+[#515-#514]*0.19147]
#2=[#518+[#519-#518]*0.19147]
#3=[#1+[#2-#1]*0.20303]
X5.91492 Y-2.69863 Z[#3+-0.04000]
#1=[#514+[#515-#514]*0.00000]
#2=[#518+[#519-#518]*0.00000]
#3=[#1+[#2-#1]*0.20303]
X5.91492 Y-2.75597 Z[#3+-0.04000]
#1=[#513+[#514-#513]*0.26461]
#2=[#517+[#518-#517]*0.26461]
#3=[#1+[#2-#1]*0.20303]
X5.91492 Y-2.97619 Z[#3+-0.04000]
#1=[#513+[#514-#513]*0.25094]
#2=[#517+[#518-#517]*0.25094]
#3=[#1+[#2-#1]*0.20191]
X5.91449 Y-2.98028 Z[#3+-0.04000]
#1=[#513+[#514-#513]*0.23787]
#2=[#517+[#518-#517]*0.23787]
#3=[#1+[#2-#1]*0.19860]
X5.91322 Y-2.98420 Z[#3+-0.04000]
#1=[#513+[#514-#513]*0.22597]
#2=[#517+[#518-#517]*0.22597]
#3=[#1+[#2-#1]*0.19324]
X5.91116 Y-2.98776 Z[#3+-0.04000]
#1=[#513+[#514-#513]*0.21576]
#2=[#517+[#518-#517]*0.21576]
#3=[#1+[#2-#1]*0.18607]
X5.90841 Y-2.99082 Z[#3+-0.04000]
#1=[#513+[#514-#513]*0.20768]
#2=[#517+[#518-#517]*0.20768]
#3=[#1+[#2-#1]*0.17740]
X5.90508 Y-2.99324 Z[#3+-0.04000]
#1=[#513+[#514-#513]*0.20209]
#2=[#517+[#518-#517]*0.20209]
#3=[#1+[#2-#1]*0.16761]
X5.90132 Y-2.99491 Z[#3+-0.04000]
#1=[#513+[#514-#513]*0.19924]
#2=[#517+[#518-#517]*0.19924]
#3=[#1+[#2-#1]*0.15712]
X5.89729 Y-2.99577 Z[#3+-0.04000]
#1=[#513+[#514-#513]*0.19924]
#2=[#517+[#518-#517]*0.19924]
#3=[#1+[#2-#1]*0.14640]
X5.89318 Y-2.99577 Z[#3+-0.04000]
#1=[#513+[#514-#513]*0.20209]
#2=[#517+[#518-#517]*0.20209]
#3=[#1+[#2-#1]*0.13592]
X5.88915 Y-2.99491 Z[#3+-0.04000]
#1=[#513+[#514-#513]*0.20768]
#2=[#517+[#518-#517]*0.20768]
#3=[#1+[#2-#1]*0.12613]
X5.88539 Y-2.99324 Z[#3+-0.04000]
#1=[#513+[#514-#513]*0.21576]
#2=[#517+[#518-#517]*0.21576]
#3=[#1+[#2-#1]*0.11746]
X5.88207 Y-2.99082 Z[#3+-0.04000]
#1=[#513+[#514-#513]*0.22597]
#2=[#517+[#518-#517]*0.22597]
#3=[#1+[#2-#1]*0.11029]
X5.87931 Y-2.98776 Z[#3+-0.04000]
#1=[#513+[#514-#513]*0.23787]
#2=[#517+[#518-#517]*0.23787]
#3=[#1+[#2-#1]*0.10493]
X5.87725 Y-2.98420 Z[#3+-0.04000]
#1=[#513+[#514-#513]*0.25094]
#2=[#517+[#518-#517]*0.25094]
#3=[#1+[#2-#1]*0.10162]
X5.87598 Y-2.98028 Z[#3+-0.04000]
#1=[#513+[#514-#513]*0.26461]
#2=[#517+[#518-#517]*0.26461]
#3=[#1+[#2-#1]*0.10049]
X5.87555 Y-2.97619 Z[#3+-0.04000]
G04 P0 ( dwell for no time -- G64 should not smooth over this point )
G00 Z0.08000 ( retract )

G00 X6.25661 Y-2.64491 ( rapid move to begin. )
G01 F180.00000
( Mill infeed pass 1/1 )
#1=[#518+[#519-#518]*0.37084]
#2=[#522+[#523-#522]*0.37084]
#3=[#1+[#2-#1]*0.09293]
G01 Z[-0.04000+#111]
G04 P0 ( dwell for no time -- G64 should not smooth over this point )
G01 F360.00000
#1=[#518+[#519-#518]*0.38458]
#2=[#522+[#523-#522]*0.38458]
#3=[#1+[#2-#1]*0.09293]
X6.25661 Y-2.64080 Z[#3+-0.04000]
#1=[#518+[#519-#518]*0.39803]
#2=[#522+[#523-#522]*0.39803]
#3=[#1+[#2-#1]*0.09516]
X6.25747 Y-2.63677 Z[#3+-0.04000]
#1=[#518+[#519-#518]*0.41058]
#2=[#522+[#523-#522]*0.41058]
#3=[#1+[#2-#1]*0.09952]
X6.25914 Y-2.63301 Z[#3+-0.04000]
#1=[#518+[#519-#518]*0.42170]
#2=[#522+[#523-#522]*0.42170]
#3=[#1+[#2-#1]*0.10582]
X6.26156 Y-2.62968 Z[#3+-0.04000]
#1=[#518+[#519-#518]*0.43089]
#2=[#522+[#523-#522]*0.43089]
#3=[#1+[#2-#1]*0.11378]
X6.26462 Y-2.62693 Z[#3+-0.04000]
#1=[#518+[#519-#518]*0.43776]
#2=[#522+[#523-#522]*0.43776]
#3=[#1+[#2-#1]*0.12307]
X6.26818 Y-2.62487 Z[#3+-0.04000]
#1=[#518+[#519-#518]*0.44201]
#2=[#522+[#523-#522]*0.44201]
#3=[#1+[#2-#1]*0.13326]
X6.27210 Y-2.62360 Z[#3+-0.04000]
#1=[#518+[#519-#518]*0.44345]
#2=[#522+[#523-#522]*0.44345]
#3=[#1+[#2-#1]*0.27868]
X6.32793 Y-2.62317 Z[#3+-0.04000]
#1=[#518+[#519-#518]*0.93426]
#2=[#522+[#523-#522]*0.93426]
#3=[#1+[#2-#1]*0.27868]
X6.32793 Y-2.47619 Z[#3+-0.04000]
#1=[#518+[#519-#518]*0.94793]
#2=[#522+[#523-#522]*0.94793]
#3=[#1+[#2-#1]*0.27980]
X6.32836 Y-2.47210 Z[#3+-0.04000]
#1=[#518+[#519-#518]*0.96100]
#2=[#522+[#523-#522]*0.96100]
#3=[#1+[#2-#1]*0.28311]
X6.32963 Y-2.46818 Z[#3+-0.04000]
#1=[#518+[#519-#518]*0.97290]
#2=[#522+[#523-#522]*0.97290]
#3=[#1+[#2-#1]*0.28847]
X6.33169 Y-2.46462 Z[#3+-0.04000]
#1=[#518+[#519-#518]*0.98311]
#2=[#522+[#523-#522]*0.98311]
#3=[#1+[#2-#1]*0.29564]
X6.33445 Y-2.46156 Z[#3+-0.04000]
#1=[#518+[#519-#518]*0.99119]
#2=[#522+[#523-#522]*0.99119]
#3=[#1+[#2-#1]*0.30431]
X6.33778 Y-2.45914 Z[#3+-0.04000]
#1=[#518+[#519-#518]*0.99678]
#2=[#522+[#523-#522]*0.99678]
#3=[#1+[#2-#1]*0.31410]
X6.34154 Y-2.45747 Z[#3+-0.04000]
#1=[#518+[#519-#518]*0.99964]
#2=[#522+[#523-#522]*0.99964]
#3=[#1+[#2-#1]*0.32459]
X6.34556 Y-2.45661 Z[#3+-0.04000]
#1=[#518+[#519-#518]*0.99964]
#2=[#522+[#523-#522]*0.99964]
#3=[#1+[#2-#1]*0.33531]
X6.34968 Y-2.45661 Z[#3+-0.04000]
#1=[#518+[#519-#518]*0.99678]
#2=[#522+[#523-#522]*0.99678]
#3=[#1+[#2-#1]*0.34579]
X6.35370 Y-2.45747 Z[#3+-0.04000]
#1=[#518+[#519-#518]*0.99119]
#2=[#522+[#523-#522]*0.99119]
#3=[#1+[#2-#1]*0.35558]
X6.35746 Y-2.45914 Z[#3+-0.04000]
#1=[#518+[#519-#518]*0.98311]
#2=[#522+[#523-#522]*0.98311]
#3=[#1+[#2-#1]*0.36425]
X6.36079 Y-2.46156 Z[#3+-0.04000]
#1=[#518+[#519-#518]*0.97290]
#2=[#522+[#523-#522]*0.97290]
#3=[#1+[#2-#1]*0.37143]
X6.36354 Y-2.46462 Z[#3+-0.04000]
#1=[#518+[#519-#518]*0.96100]
#2=[#522+[#523-#522]*0.96100]
#3=[#1+[#2-#1]*0.37678]
X6.36560 Y-2.46818 Z[#3+-0.04000]
#1=[#518+[#519-#518]*0.94793]
#2=[#522+[#523-#522]*0.94793]
#3=[#1+[#2-#1]*0.38010]
X6.36687 Y-2.47210 Z[#3+-0.04000]
#1=[#518+[#519-#518]*0.93426]
#2=[#522+[#523-#522]*0.93426]
#3=[#1+[#2-#1]*0.38122]
X6.36730 Y-2.47619 Z[#3+-0.04000]
#1=[#518+[#519-#518]*0.44345]
#2=[#522+[#523-#522]*0.44345]
#3=[#1+[#2-#1]*0.38122]
X6.36730 Y-2.62317 Z[#3+-0.04000]
#1=[#518+[#519-#518]*0.44345]
#2=[#522+[#523-#522]*0.44345]
#3=[#1+[#2-#1]*0.64000]
X6.46667 Y-2.62317 Z[#3+-0.04000]
#1=[#518+[#519-#518]*0.44201]
#2=[#522+[#523-#522]*0.44201]
#3=[#1+[#2-#1]*0.65065]
X6.47076 Y-2.62360 Z[#3+-0.04000]
#1=[#518+[#519-#518]*0.43776]
#2=[#522+[#523-#522]*0.43776]
#3=[#1+[#2-#1]*0.66085]
X6.47467 Y-2.62487 Z[#3+-0.04000]
#1=[#518+[#519-#518]*0.43089]
#2=[#522+[#523-#522]*0.43089]
#3=[#1+[#2-#1]*0.67013]
X6.47824 Y-2.62693 Z[#3+-0.04000]
#1=[#518+[#519-#518]*0.42170]
#2=[#522+[#523-#522]*0.42170]
#3=[#1+[#2-#1]*0.67809]
X6.48129 Y-2.62968 Z[#3+-0.04000]
#1=[#518+[#519-#518]*0.41058]
#2=[#522+[#523-#522]*0.41058]
#3=[#1+[#2-#1]*0.68439]
X6.48371 Y-2.63301 Z[#3+-0.04000]
#1=[#518+[#519-#518]*0.39803]
#2=[#522+[#523-#522]*0.39803]
#3=[#1+[#2-#1]*0.68875]
X6.48539 Y-2.63677 Z[#3+-0.04000]
#1=[#518+[#519-#518]*0.38458]
#2=[#522+[#523-#522]*0.38458]
#3=[#1+[#2-#1]*0.69098]
X6.48624 Y-2.64080 Z[#3+-0.04000]
#1=[#518+[#519-#518]*0.37084]
#2=[#522+[#523-#522]*0.37084]
#3=[#1+[#2-#1]*0.69098]
X6.48624 Y-2.64491 Z[#3+-0.04000]
#1=[#518+[#519-#518]*0.35740]
#2=[#522+[#523-#522]*0.35740]
#3=[#1+[#2-#1]*0.68875]
X6.48539 Y-2.64894 Z[#3+-0.04000]
#1=[#518+[#519-#518]*0.34484]
#2=[#522+[#523-#522]*0.34484]
#3=[#1+[#2-#1]*0.68439]
X6.48371 Y-2.65270 Z[#3+-0.04000]
#1=[#518+[#519-#518]*0.33373]
#2=[#522+[#523-#522]*0.33373]
#3=[#1+[#2-#1]*0.67809]
X6.48129 Y-2.65603 Z[#3+-0.04000]
#1=[#518+[#519-#518]*0.32453]
#2=[#522+[#523-#522]*0.32453]
#3=[#1+[#2-#1]*0.67013]
X6.47824 Y-2.65878 Z[#3+-0.04000]
#1=[#518+[#519-#518]*0.31766]
#2=[#522+[#523-#522]*0.31766]
#3=[#1+[#2-#1]*0.66085]
X6.47467 Y-2.66084 Z[#3+-0.04000]
#1=[#518+[#519-#518]*0.31342]
#2=[#522+[#523-#522]*0.31342]
#3=[#1+[#2-#1]*0.65065]
X6.47076 Y-2.66211 Z[#3+-0.04000]
#1=[#518+[#519-#518]*0.31198]
#2=[#522+[#523-#522]*0.31198]
#3=[#1+[#2-#1]*0.64000]
X6.46667 Y-2.66254 Z[#3+-0.04000]
#1=[#518+[#519-#518]*0.31198]
#2=[#522+[#523-#522]*0.31198]
#3=[#1+[#2-#1]*0.38122]
X6.36730 Y-2.66254 Z[#3+-0.04000]
#1=[#518+[#519-#518]*0.00000]
#2=[#522+[#523-#522]*0.00000]
#3=[#1+[#2-#1]*0.38122]
X6.36730 Y-2.75597 Z[#3+-0.04000]
#1=[#517+[#518-#517]*0.51865]
#2=[#521+[#522-#521]*0.51865]
#3=[#1+[#2-#1]*0.38122]
X6.36730 Y-2.90011 Z[#3+-0.04000]
#1=[#517+[#518-#517]*0.39312]
#2=[#521+[#522-#521]*0.39312]
#3=[#1+[#2-#1]*0.43017]
X6.38610 Y-2.93771 Z[#3+-0.04000]
#1=[#517+[#518-#517]*0.33035]
#2=[#521+[#522-#521]*0.33035]
#3=[#1+[#2-#1]*0.52808]
X6.42369 Y-2.95650 Z[#3+-0.04000]
#1=[#517+[#518-#517]*0.33035]
#2=[#521+[#522-#521]*0.33035]
#3=[#1+[#2-#1]*0.64000]
X6.46667 Y-2.95650 Z[#3+-0.04000]
#1=[#517+[#518-#517]*0.32891]
#2=[#521+[#522-#521]*0.32891]
#3=[#1+[#2-#1]*0.65065]
X6.47076 Y-2.95694 Z[#3+-0.04000]
#1=[#517+[#518-#517]*0.32466]
#2=[#521+[#522-#521]*0.32466]
#3=[#1+[#2-#1]*0.66085]
X6.47467 Y-2.95821 Z[#3+-0.04000]
#1=[#517+[#518-#517]*0.31779]
#2=[#521+[#522-#521]*0.31779]
#3=[#1+[#2-#1]*0.67013]
X6.47824 Y-2.96026 Z[#3+-0.04000]
#1=[#517+[#518-#517]*0.30859]
#2=[#521+[#522-#521]*0.30859]
#3=[#1+[#2-#1]*0.67809]
X6.48129 Y-2.96302 Z[#3+-0.04000]
#1=[#517+[#518-#517]*0.29748]
#2=[#521+[#522-#521]*0.29748]
#3=[#1+[#2-#1]*0.68439]
X6.48371 Y-2.96635 Z[#3+-0.04000]
#1=[#517+[#518-#517]*0.28493]
#2=[#521+[#522-#521]*0.28493]
#3=[#1+[#2-#1]*0.68875]
X6.48539 Y-2.97011 Z[#3+-0.04000]
#1=[#517+[#518-#517]*0.27148]
#2=[#521+[#522-#521]*0.27148]
#3=[#1+[#2-#1]*0.69098]
X6.48624 Y-2.97413 Z[#3+-0.04000]
#1=[#517+[#518-#517]*0.25774]
#2=[#521+[#522-#521]*0.25774]
#3=[#1+[#2-#1]*0.69098]
X6.48624 Y-2.97825 Z[#3+-0.04000]
#1=[#517+[#518-#517]*0.24430]
#2=[#521+[#522-#521]*0.24430]
#3=[#1+[#2-#1]*0.68875]
X6.48539 Y-2.98227 Z[#3+-0.04000]
#1=[#517+[#518-#517]*0.23174]
#2=[#521+[#522-#521]*0.23174]
#3=[#1+[#2-#1]*0.68439]
X6.48371 Y-2.98603 Z[#3+-0.04000]
#1=[#517+[#518-#517]*0.22063]
#2=[#521+[#522-#521]*0.22063]
#3=[#1+[#2-#1]*0.67809]
X6.48129 Y-2.98936 Z[#3+-0.04000]
#1=[#517+[#518-#517]*0.21143]
#2=[#521+[#522-#521]*0.21143]
#3=[#1+[#2-#1]*0.67013]
X6.47824 Y-2.99212 Z[#3+-0.04000]
#1=[#517+[#518-#517]*0.20456]
#2=[#521+[#522-#521]*0.20456]
#3=[#1+[#2-#1]*0.66085]
X6.47467 Y-2.99417 Z[#3+-0.04000]
#1=[#517+[#518-#517]*0.20031]
#2=[#521+[#522-#521]*0.20031]
#3=[#1+[#2-#1]*0.65065]
X6.47076 Y-2.99544 Z[#3+-0.04000]
#1=[#517+[#518-#517]*0.19887]
#2=[#521+[#522-#521]*0.19887]
#3=[#1+[#2-#1]*0.64000]
X6.46667 Y-2.99587 Z[#3+-0.04000]
#1=[#517+[#518-#517]*0.19966]
#2=[#521+[#522-#521]*0.19966]
#3=[#1+[#2-#1]*0.50808]
X6.41602 Y-2.99564 Z[#3+-0.04000]
#1=[#517+[#518-#517]*0.20582]
#2=[#521+[#522-#521]*0.20582]
#3=[#1+[#2-#1]*0.49305]
X6.41024 Y-2.99380 Z[#3+-0.04000]
#1=[#517+[#518-#517]*0.28533]
#2=[#521+[#522-#521]*0.28533]
#3=[#1+[#2-#1]*0.36903]
X6.36262 Y-2.96999 Z[#3+-0.04000]
#1=[#517+[#518-#517]*0.29079]
#2=[#521+[#522-#521]*0.29079]
#3=[#1+[#2-#1]*0.36198]
X6.35992 Y-2.96835 Z[#3+-0.04000]
#1=[#517+[#518-#517]*0.30569]
#2=[#521+[#522-#521]*0.30569]
#3=[#1+[#2-#1]*0.35037]
X6.35546 Y-2.96389 Z[#3+-0.04000]
#1=[#517+[#518-#517]*0.47374]
#2=[#521+[#522-#521]*0.47374]
#3=[#1+[#2-#1]*0.28409]
X6.33001 Y-2.91356 Z[#3+-0.04000]
#1=[#517+[#518-#517]*0.49301]
#2=[#521+[#522-#521]*0.49301]
#3=[#1+[#2-#1]*0.27929]
X6.32817 Y-2.90779 Z[#3+-0.04000]
#1=[#518+[#519-#518]*0.00000]
#2=[#522+[#523-#522]*0.00000]
#3=[#1+[#2-#1]*0.27891]
X6.32802 Y-2.75597 Z[#3+-0.04000]
#1=[#518+[#519-#518]*0.31198]
#2=[#522+[#523-#522]*0.31198]
#3=[#1+[#2-#1]*0.27868]
X6.32793 Y-2.66254 Z[#3+-0.04000]
#1=[#518+[#519-#518]*0.31342]
#2=[#522+[#523-#522]*0.31342]
#3=[#1+[#2-#1]*0.13326]
X6.27210 Y-2.66211 Z[#3+-0.04000]
#1=[#518+[#519-#518]*0.31766]
#2=[#522+[#523-#522]*0.31766]
#3=[#1+[#2-#1]*0.12307]
X6.26818 Y-2.66084 Z[#3+-0.04000]
#1=[#518+[#519-#518]*0.32453]
#2=[#522+[#523-#522]*0.32453]
#3=[#1+[#2-#1]*0.11378]
X6.26462 Y-2.65878 Z[#3+-0.04000]
#1=[#518+[#519-#518]*0.33373]
#2=[#522+[#523-#522]*0.33373]
#3=[#1+[#2-#1]*0.10582]
X6.26156 Y-2.65603 Z[#3+-0.04000]
#1=[#518+[#519-#518]*0.34484]
#2=[#522+[#523-#522]*0.34484]
#3=[#1+[#2-#1]*0.09952]
X6.25914 Y-2.65270 Z[#3+-0.04000]
#1=[#518+[#519-#518]*0.35740]
#2=[#522+[#523-#522]*0.35740]
#3=[#1+[#2-#1]*0.09516]
X6.25747 Y-2.64894 Z[#3+-0.04000]
#1=[#518+[#519-#518]*0.37084]
#2=[#522+[#523-#522]*0.37084]
#3=[#1+[#2-#1]*0.09293]
X6.25661 Y-2.64491 Z[#3+-0.04000]
G04 P0 ( dwell for no time -- G64 should not smooth over this point )
G00 Z0.08000 ( retract )

G00 X6.49510 Y-3.30051 ( rapid move to begin. )
G01 F180.00000
( Mill infeed pass 1/1 )
#1=[#516+[#517-#516]*0.18159]
#2=[#520+[#521-#520]*0.18159]
#3=[#1+[#2-#1]*0.71406]
G01 Z[-0.04000+#111]
G04 P0 ( dwell for no time -- G64 should not smooth over this point )
G01 F360.00000
#1=[#516+[#517-#516]*0.18839]
#2=[#520+[#521-#520]*0.18839]
#3=[#1+[#2-#1]*0.71462]
X6.49532 Y-3.29848 Z[#3+-0.04000]
#1=[#516+[#517-#516]*0.19430]
#2=[#520+[#521-#520]*0.19430]
#3=[#1+[#2-#1]*0.71729]
X6.49634 Y-3.29671 Z[#3+-0.04000]
#1=[#516+[#517-#516]*0.19938]
#2=[#520+[#521-#520]*0.19938]
#3=[#1+[#2-#1]*0.72415]
X6.49898 Y-3.29519 Z[#3+-0.04000]
#1=[#516+[#517-#516]*0.19974]
#2=[#520+[#521-#520]*0.19974]
#3=[#1+[#2-#1]*0.84421]
X6.54508 Y-3.29508 Z[#3+-0.04000]
#1=[#516+[#517-#516]*0.35027]
#2=[#520+[#521-#520]*0.35027]
#3=[#1+[#2-#1]*0.84421]
X6.54508 Y-3.25000 Z[#3+-0.04000]
#1=[#516+[#517-#516]*0.35993]
#2=[#520+[#521-#520]*0.35993]
#3=[#1+[#2-#1]*0.84666]
X6.54602 Y-3.24711 Z[#3+-0.04000]
#1=[#516+[#517-#516]*0.36451]
#2=[#520+[#521-#520]*0.36451]
#3=[#1+[#2-#1]*0.85062]
X6.54754 Y-3.24574 Z[#3+-0.04000]
#1=[#516+[#517-#516]*0.36662]
#2=[#520+[#521-#520]*0.36662]
#3=[#1+[#2-#1]*0.85569]
X6.54948 Y-3.24511 Z[#3+-0.04000]
#1=[#516+[#517-#516]*0.36590]
#2=[#520+[#521-#520]*0.36590]
#3=[#1+[#2-#1]*0.86099]
X6.55152 Y-3.24532 Z[#3+-0.04000]
#1=[#516+[#517-#516]*0.36249]
#2=[#520+[#521-#520]*0.36249]
#3=[#1+[#2-#1]*0.86561]
X6.55329 Y-3.24634 Z[#3+-0.04000]
#1=[#516+[#517-#516]*0.35369]
#2=[#520+[#521-#520]*0.35369]
#3=[#1+[#2-#1]*0.86957]
X6.55481 Y-3.24898 Z[#3+-0.04000]
#1=[#516+[#517-#516]*0.19974]
#2=[#520+[#521-#520]*0.19974]
#3=[#1+[#2-#1]*0.86985]
X6.55492 Y-3.29508 Z[#3+-0.04000]
#1=[#516+[#517-#516]*0.19974]
#2=[#520+[#521-#520]*0.19974]
#3=[#1+[#2-#1]*0.98725]
X6.60000 Y-3.29508 Z[#3+-0.04000]
#1=[#516+[#517-#516]*0.19661]
#2=[#520+[#521-#520]*0.19661]
#3=[#1+[#2-#1]*0.99479]
X6.60289 Y-3.29602 Z[#3+-0.04000]
#1=[#516+[#517-#516]*0.19153]
#2=[#520+[#521-#520]*0.19153]
#3=[#1+[#2-#1]*0.99835]
X6.60426 Y-3.29754 Z[#3+-0.04000]
#1=[#520+[#521-#520]*0.18503]
#2=[#524+[#525-#524]*0.18503]
#3=[#1+[#2-#1]*0.00000]
X6.60489 Y-3.29948 Z[#3+-0.04000]
#1=[#516+[#517-#516]*0.17823]
#2=[#520+[#521-#520]*0.17823]
#3=[#1+[#2-#1]*0.99944]
X6.60468 Y-3.30152 Z[#3+-0.04000]
#1=[#516+[#517-#516]*0.17231]
#2=[#520+[#521-#520]*0.17231]
#3=[#1+[#2-#1]*0.99678]
X6.60366 Y-3.30329 Z[#3+-0.04000]
#1=[#516+[#517-#516]*0.16724]
#2=[#520+[#521-#520]*0.16724]
#3=[#1+[#2-#1]*0.98992]
X6.60102 Y-3.30481 Z[#3+-0.04000]
#1=[#516+[#517-#516]*0.16688]
#2=[#520+[#521-#520]*0.16688]
#3=[#1+[#2-#1]*0.86985]
X6.55492 Y-3.30492 Z[#3+-0.04000]
#1=[#516+[#517-#516]*0.01634]
#2=[#520+[#521-#520]*0.01634]
#3=[#1+[#2-#1]*0.86985]
X6.55492 Y-3.35000 Z[#3+-0.04000]
#1=[#516+[#517-#516]*0.00669]
#2=[#520+[#521-#520]*0.00669]
#3=[#1+[#2-#1]*0.86740]
X6.55398 Y-3.35289 Z[#3+-0.04000]
#1=[#516+[#517-#516]*0.00211]
#2=[#520+[#521-#520]*0.00211]
#3=[#1+[#2-#1]*0.86344]
X6.55246 Y-3.35426 Z[#3+-0.04000]
#1=[#516+[#517-#516]*0.00000]
#2=[#520+[#521-#520]*0.00000]
#3=[#1+[#2-#1]*0.85837]
X6.55051 Y-3.35489 Z[#3+-0.04000]
#1=[#516+[#517-#516]*0.00071]
#2=[#520+[#521-#520]*0.00071]
#3=[#1+[#2-#1]*0.85307]
X6.54848 Y-3.35468 Z[#3+-0.04000]
#1=[#516+[#517-#516]*0.00413]
#2=[#520+[#521-#520]*0.00413]
#3=[#1+[#2-#1]*0.84846]
X6.54671 Y-3.35366 Z[#3+-0.04000]
#1=[#516+[#517-#516]*0.01293]
#2=[#520+[#521-#520]*0.01293]
#3=[#1+[#2-#1]*0.84450]
X6.54519 Y-3.35102 Z[#3+-0.04000]
#1=[#516+[#517-#516]*0.16688]
#2=[#520+[#521-#520]*0.16688]
#3=[#1+[#2-#1]*0.84421]
X6.54508 Y-3.30492 Z[#3+-0.04000]
#1=[#516+[#517-#516]*0.16688]
#2=[#520+[#521-#520]*0.16688]
#3=[#1+[#2-#1]*0.72681]
X6.50000 Y-3.30492 Z[#3+-0.04000]
#1=[#516+[#517-#516]*0.17001]
#2=[#520+[#521-#520]*0.17001]
#3=[#1+[#2-#1]*0.71928]
X6.49711 Y-3.30398 Z[#3+-0.04000]
#1=[#516+[#517-#516]*0.17509]
#2=[#520+[#521-#520]*0.17509]
#3=[#1+[#2-#1]*0.71571]
X6.49574 Y-3.30246 Z[#3+-0.04000]
#1=[#516+[#517-#516]*0.18159]
#2=[#520+[#521-#520]*0.18159]
#3=[#1+[#2-#1]*0.71406]
X6.49510 Y-3.30051 Z[#3+-0.04000]

G04 P0 ( dwell for no time -- G64 should not smooth over this point )
G00 Z1.000000 ( retract )

M5 ( Spindle off. )
G04 P1.000000
M9 ( Coolant off. )
M2 ( Program end. )

