( pcb2gcode 1.3.2 )
( Gcode for custom )

G94 ( Inches per minute feed rate. )
G20 ( Units == INCHES. )

G90 ( Absolute coordinates. )
G00 S12000 ( RPM spindle speed. )
G64 P0.00040 ( set maximum deviation from commanded toolpath )
G01 F360.00000 ( Feedrate. )

#118 = #5211
#119 = #5212

(MSG, Attach the probe tool)
M0 ( Temporary machine stop. )
G0 Z0.080 ( Move Z to safe height )
G0 X4.68308 Y-3.35689 ( Move XY to start point )
G0 Z0.080 ( Move Z to probe height )
G38.2 Z-0.1 F2.362205 ( Z-probe )
#500 = 0 ( Probe point [0, 0] is our reference )
G92 Z0 ( Set the current Z as zero-value )

( We now start the real probing: move the Z axis to the probing height, move to )
( the probing XY position, probe it and save the result, parameter #2002, )
( in a numbered parameter; we will make 17 probes on the X-axis and )
( 7 probes on the Y-axis, for a grand total of 119 probes )

G0 Z0.080
X4.68308 Y-3.01265
G38.2 Z-0.1 F2.362205
#501=#2002
G0 Z0.080
X4.68308 Y-2.66841
G38.2 Z-0.1 F2.362205
#502=#2002
G0 Z0.080
X4.68308 Y-2.32417
G38.2 Z-0.1 F2.362205
#503=#2002
G0 Z0.080
X4.68308 Y-1.97993
G38.2 Z-0.1 F2.362205
#504=#2002
G0 Z0.080
X4.68308 Y-1.63569
G38.2 Z-0.1 F2.362205
#505=#2002
G0 Z0.080
X4.68308 Y-1.29145
G38.2 Z-0.1 F2.362205
#506=#2002
G0 Z0.080
X5.06120 Y-1.29145
G38.2 Z-0.1 F2.362205
#513=#2002
G0 Z0.080
X5.06120 Y-1.63569
G38.2 Z-0.1 F2.362205
#512=#2002
G0 Z0.080
X5.06120 Y-1.97993
G38.2 Z-0.1 F2.362205
#511=#2002
G0 Z0.080
X5.06120 Y-2.32417
G38.2 Z-0.1 F2.362205
#510=#2002
G0 Z0.080
X5.06120 Y-2.66841
G38.2 Z-0.1 F2.362205
#509=#2002
G0 Z0.080
X5.06120 Y-3.01265
G38.2 Z-0.1 F2.362205
#508=#2002
G0 Z0.080
X5.06120 Y-3.35689
G38.2 Z-0.1 F2.362205
#507=#2002
G0 Z0.080
X5.43932 Y-3.35689
G38.2 Z-0.1 F2.362205
#514=#2002
G0 Z0.080
X5.43932 Y-3.01265
G38.2 Z-0.1 F2.362205
#515=#2002
G0 Z0.080
X5.43932 Y-2.66841
G38.2 Z-0.1 F2.362205
#516=#2002
G0 Z0.080
X5.43932 Y-2.32417
G38.2 Z-0.1 F2.362205
#517=#2002
G0 Z0.080
X5.43932 Y-1.97993
G38.2 Z-0.1 F2.362205
#518=#2002
G0 Z0.080
X5.43932 Y-1.63569
G38.2 Z-0.1 F2.362205
#519=#2002
G0 Z0.080
X5.43932 Y-1.29145
G38.2 Z-0.1 F2.362205
#520=#2002
G0 Z0.080
X5.81744 Y-1.29145
G38.2 Z-0.1 F2.362205
#527=#2002
G0 Z0.080
X5.81744 Y-1.63569
G38.2 Z-0.1 F2.362205
#526=#2002
G0 Z0.080
X5.81744 Y-1.97993
G38.2 Z-0.1 F2.362205
#525=#2002
G0 Z0.080
X5.81744 Y-2.32417
G38.2 Z-0.1 F2.362205
#524=#2002
G0 Z0.080
X5.81744 Y-2.66841
G38.2 Z-0.1 F2.362205
#523=#2002
G0 Z0.080
X5.81744 Y-3.01265
G38.2 Z-0.1 F2.362205
#522=#2002
G0 Z0.080
X5.81744 Y-3.35689
G38.2 Z-0.1 F2.362205
#521=#2002
G0 Z0.080
X6.19556 Y-3.35689
G38.2 Z-0.1 F2.362205
#528=#2002
G0 Z0.080
X6.19556 Y-3.01265
G38.2 Z-0.1 F2.362205
#529=#2002
G0 Z0.080
X6.19556 Y-2.66841
G38.2 Z-0.1 F2.362205
#530=#2002
G0 Z0.080
X6.19556 Y-2.32417
G38.2 Z-0.1 F2.362205
#531=#2002
G0 Z0.080
X6.19556 Y-1.97993
G38.2 Z-0.1 F2.362205
#532=#2002
G0 Z0.080
X6.19556 Y-1.63569
G38.2 Z-0.1 F2.362205
#533=#2002
G0 Z0.080
X6.19556 Y-1.29145
G38.2 Z-0.1 F2.362205
#534=#2002
G0 Z0.080
X6.57368 Y-1.29145
G38.2 Z-0.1 F2.362205
#541=#2002
G0 Z0.080
X6.57368 Y-1.63569
G38.2 Z-0.1 F2.362205
#540=#2002
G0 Z0.080
X6.57368 Y-1.97993
G38.2 Z-0.1 F2.362205
#539=#2002
G0 Z0.080
X6.57368 Y-2.32417
G38.2 Z-0.1 F2.362205
#538=#2002
G0 Z0.080
X6.57368 Y-2.66841
G38.2 Z-0.1 F2.362205
#537=#2002
G0 Z0.080
X6.57368 Y-3.01265
G38.2 Z-0.1 F2.362205
#536=#2002
G0 Z0.080
X6.57368 Y-3.35689
G38.2 Z-0.1 F2.362205
#535=#2002
G0 Z0.080
X6.95180 Y-3.35689
G38.2 Z-0.1 F2.362205
#542=#2002
G0 Z0.080
X6.95180 Y-3.01265
G38.2 Z-0.1 F2.362205
#543=#2002
G0 Z0.080
X6.95180 Y-2.66841
G38.2 Z-0.1 F2.362205
#544=#2002
G0 Z0.080
X6.95180 Y-2.32417
G38.2 Z-0.1 F2.362205
#545=#2002
G0 Z0.080
X6.95180 Y-1.97993
G38.2 Z-0.1 F2.362205
#546=#2002
G0 Z0.080
X6.95180 Y-1.63569
G38.2 Z-0.1 F2.362205
#547=#2002
G0 Z0.080
X6.95180 Y-1.29145
G38.2 Z-0.1 F2.362205
#548=#2002
G0 Z0.080
X7.32992 Y-1.29145
G38.2 Z-0.1 F2.362205
#555=#2002
G0 Z0.080
X7.32992 Y-1.63569
G38.2 Z-0.1 F2.362205
#554=#2002
G0 Z0.080
X7.32992 Y-1.97993
G38.2 Z-0.1 F2.362205
#553=#2002
G0 Z0.080
X7.32992 Y-2.32417
G38.2 Z-0.1 F2.362205
#552=#2002
G0 Z0.080
X7.32992 Y-2.66841
G38.2 Z-0.1 F2.362205
#551=#2002
G0 Z0.080
X7.32992 Y-3.01265
G38.2 Z-0.1 F2.362205
#550=#2002
G0 Z0.080
X7.32992 Y-3.35689
G38.2 Z-0.1 F2.362205
#549=#2002
G0 Z0.080
X7.70804 Y-3.35689
G38.2 Z-0.1 F2.362205
#556=#2002
G0 Z0.080
X7.70804 Y-3.01265
G38.2 Z-0.1 F2.362205
#557=#2002
G0 Z0.080
X7.70804 Y-2.66841
G38.2 Z-0.1 F2.362205
#558=#2002
G0 Z0.080
X7.70804 Y-2.32417
G38.2 Z-0.1 F2.362205
#559=#2002
G0 Z0.080
X7.70804 Y-1.97993
G38.2 Z-0.1 F2.362205
#560=#2002
G0 Z0.080
X7.70804 Y-1.63569
G38.2 Z-0.1 F2.362205
#561=#2002
G0 Z0.080
X7.70804 Y-1.29145
G38.2 Z-0.1 F2.362205
#562=#2002
G0 Z0.080
X8.08616 Y-1.29145
G38.2 Z-0.1 F2.362205
#569=#2002
G0 Z0.080
X8.08616 Y-1.63569
G38.2 Z-0.1 F2.362205
#568=#2002
G0 Z0.080
X8.08616 Y-1.97993
G38.2 Z-0.1 F2.362205
#567=#2002
G0 Z0.080
X8.08616 Y-2.32417
G38.2 Z-0.1 F2.362205
#566=#2002
G0 Z0.080
X8.08616 Y-2.66841
G38.2 Z-0.1 F2.362205
#565=#2002
G0 Z0.080
X8.08616 Y-3.01265
G38.2 Z-0.1 F2.362205
#564=#2002
G0 Z0.080
X8.08616 Y-3.35689
G38.2 Z-0.1 F2.362205
#563=#2002
G0 Z0.080
X8.46428 Y-3.35689
G38.2 Z-0.1 F2.362205
#570=#2002
G0 Z0.080
X8.46428 Y-3.01265
G38.2 Z-0.1 F2.362205
#571=#2002
G0 Z0.080
X8.46428 Y-2.66841
G38.2 Z-0.1 F2.362205
#572=#2002
G0 Z0.080
X8.46428 Y-2.32417
G38.2 Z-0.1 F2.362205
#573=#2002
G0 Z0.080
X8.46428 Y-1.97993
G38.2 Z-0.1 F2.362205
#574=#2002
G0 Z0.080
X8.46428 Y-1.63569
G38.2 Z-0.1 F2.362205
#575=#2002
G0 Z0.080
X8.46428 Y-1.29145
G38.2 Z-0.1 F2.362205
#576=#2002
G0 Z0.080
X8.84240 Y-1.29145
G38.2 Z-0.1 F2.362205
#583=#2002
G0 Z0.080
X8.84240 Y-1.63569
G38.2 Z-0.1 F2.362205
#582=#2002
G0 Z0.080
X8.84240 Y-1.97993
G38.2 Z-0.1 F2.362205
#581=#2002
G0 Z0.080
X8.84240 Y-2.32417
G38.2 Z-0.1 F2.362205
#580=#2002
G0 Z0.080
X8.84240 Y-2.66841
G38.2 Z-0.1 F2.362205
#579=#2002
G0 Z0.080
X8.84240 Y-3.01265
G38.2 Z-0.1 F2.362205
#578=#2002
G0 Z0.080
X8.84240 Y-3.35689
G38.2 Z-0.1 F2.362205
#577=#2002
G0 Z0.080
X9.22052 Y-3.35689
G38.2 Z-0.1 F2.362205
#584=#2002
G0 Z0.080
X9.22052 Y-3.01265
G38.2 Z-0.1 F2.362205
#585=#2002
G0 Z0.080
X9.22052 Y-2.66841
G38.2 Z-0.1 F2.362205
#586=#2002
G0 Z0.080
X9.22052 Y-2.32417
G38.2 Z-0.1 F2.362205
#587=#2002
G0 Z0.080
X9.22052 Y-1.97993
G38.2 Z-0.1 F2.362205
#588=#2002
G0 Z0.080
X9.22052 Y-1.63569
G38.2 Z-0.1 F2.362205
#589=#2002
G0 Z0.080
X9.22052 Y-1.29145
G38.2 Z-0.1 F2.362205
#590=#2002
G0 Z0.080
X9.59864 Y-1.29145
G38.2 Z-0.1 F2.362205
#597=#2002
G0 Z0.080
X9.59864 Y-1.63569
G38.2 Z-0.1 F2.362205
#596=#2002
G0 Z0.080
X9.59864 Y-1.97993
G38.2 Z-0.1 F2.362205
#595=#2002
G0 Z0.080
X9.59864 Y-2.32417
G38.2 Z-0.1 F2.362205
#594=#2002
G0 Z0.080
X9.59864 Y-2.66841
G38.2 Z-0.1 F2.362205
#593=#2002
G0 Z0.080
X9.59864 Y-3.01265
G38.2 Z-0.1 F2.362205
#592=#2002
G0 Z0.080
X9.59864 Y-3.35689
G38.2 Z-0.1 F2.362205
#591=#2002
G0 Z0.080
X9.97676 Y-3.35689
G38.2 Z-0.1 F2.362205
#598=#2002
G0 Z0.080
X9.97676 Y-3.01265
G38.2 Z-0.1 F2.362205
#599=#2002
G0 Z0.080
X9.97676 Y-2.66841
G38.2 Z-0.1 F2.362205
#600=#2002
G0 Z0.080
X9.97676 Y-2.32417
G38.2 Z-0.1 F2.362205
#601=#2002
G0 Z0.080
X9.97676 Y-1.97993
G38.2 Z-0.1 F2.362205
#602=#2002
G0 Z0.080
X9.97676 Y-1.63569
G38.2 Z-0.1 F2.362205
#603=#2002
G0 Z0.080
X9.97676 Y-1.29145
G38.2 Z-0.1 F2.362205
#604=#2002
G0 Z0.080
X10.35488 Y-1.29145
G38.2 Z-0.1 F2.362205
#611=#2002
G0 Z0.080
X10.35488 Y-1.63569
G38.2 Z-0.1 F2.362205
#610=#2002
G0 Z0.080
X10.35488 Y-1.97993
G38.2 Z-0.1 F2.362205
#609=#2002
G0 Z0.080
X10.35488 Y-2.32417
G38.2 Z-0.1 F2.362205
#608=#2002
G0 Z0.080
X10.35488 Y-2.66841
G38.2 Z-0.1 F2.362205
#607=#2002
G0 Z0.080
X10.35488 Y-3.01265
G38.2 Z-0.1 F2.362205
#606=#2002
G0 Z0.080
X10.35488 Y-3.35689
G38.2 Z-0.1 F2.362205
#605=#2002
G0 Z0.080
X10.73300 Y-3.35689
G38.2 Z-0.1 F2.362205
#612=#2002
G0 Z0.080
X10.73300 Y-3.01265
G38.2 Z-0.1 F2.362205
#613=#2002
G0 Z0.080
X10.73300 Y-2.66841
G38.2 Z-0.1 F2.362205
#614=#2002
G0 Z0.080
X10.73300 Y-2.32417
G38.2 Z-0.1 F2.362205
#615=#2002
G0 Z0.080
X10.73300 Y-1.97993
G38.2 Z-0.1 F2.362205
#616=#2002
G0 Z0.080
X10.73300 Y-1.63569
G38.2 Z-0.1 F2.362205
#617=#2002
G0 Z0.080
X10.73300 Y-1.29145
G38.2 Z-0.1 F2.362205
#618=#2002

G0 Z0.080 ( Move Z to safe height )
( Probing has ended, each Z-coordinate will be corrected with a bilinear interpolation )
(MSG, Detach the probe tool)
M0 ( Temporary machine stop. )

#4 = -0.04000

G01 F360.00000 ( Feedrate. )
M3 ( Spindle on clockwise. )
G04 P1.00000
( Piece #1, position [0;0] )

G04 P0 ( dwell for no time -- G64 should not smooth over this point )
G00 Z0.08000 ( retract )

G00 X4.68508 Y-2.97619 ( rapid move to begin. )
G01 F180.00000
#1=[#501+[#502-#501]*0.10592]
#2=[#508+[#509-#508]*0.10592]
#3=[#1+[#2-#1]*0.00529]
G01 Z[-0.04000+#111]
G04 P0 ( dwell for no time -- G64 should not smooth over this point )
G01 F360.00000
#1=[#501+[#502-#501]*0.83216]
#2=[#508+[#509-#508]*0.83216]
#3=[#1+[#2-#1]*0.00529]
X4.68508 Y-2.72619 Z[#3+#4]
#1=[#502+[#503-#502]*0.55840]
#2=[#509+[#510-#509]*0.55840]
#3=[#1+[#2-#1]*0.00529]
X4.68508 Y-2.47619 Z[#3+#4]
#1=[#502+[#503-#502]*0.58028]
#2=[#509+[#510-#509]*0.58028]
#3=[#1+[#2-#1]*0.00925]
X4.68658 Y-2.46866 Z[#3+#4]
#1=[#502+[#503-#502]*0.59016]
#2=[#509+[#510-#509]*0.59016]
#3=[#1+[#2-#1]*0.01406]
X4.68839 Y-2.46525 Z[#3+#4]
#1=[#502+[#503-#502]*0.60594]
#2=[#509+[#510-#509]*0.60594]
#3=[#1+[#2-#1]*0.02843]
X4.69383 Y-2.45982 Z[#3+#4]
#1=[#502+[#503-#502]*0.61123]
#2=[#509+[#510-#509]*0.61123]
#3=[#1+[#2-#1]*0.03743]
X4.69723 Y-2.45800 Z[#3+#4]
#1=[#502+[#503-#502]*0.61558]
#2=[#509+[#510-#509]*0.61558]
#3=[#1+[#2-#1]*0.05735]
X4.70476 Y-2.45650 Z[#3+#4]
#1=[#502+[#503-#502]*0.61558]
#2=[#509+[#510-#509]*0.61558]
#3=[#1+[#2-#1]*0.68703]
X4.94286 Y-2.45650 Z[#3+#4]
#1=[#502+[#503-#502]*0.61433]
#2=[#509+[#510-#509]*0.61433]
#3=[#1+[#2-#1]*0.69785]
X4.94695 Y-2.45694 Z[#3+#4]
#1=[#502+[#503-#502]*0.61064]
#2=[#509+[#510-#509]*0.61064]
#3=[#1+[#2-#1]*0.70821]
X4.95086 Y-2.45821 Z[#3+#4]
#1=[#502+[#503-#502]*0.60466]
#2=[#509+[#510-#509]*0.60466]
#3=[#1+[#2-#1]*0.71763]
X4.95443 Y-2.46026 Z[#3+#4]
#1=[#502+[#503-#502]*0.59666]
#2=[#509+[#510-#509]*0.59666]
#3=[#1+[#2-#1]*0.72572]
X4.95749 Y-2.46302 Z[#3+#4]
#1=[#502+[#503-#502]*0.58699]
#2=[#509+[#510-#509]*0.58699]
#3=[#1+[#2-#1]*0.73212]
X4.95990 Y-2.46635 Z[#3+#4]
#1=[#502+[#503-#502]*0.57607]
#2=[#509+[#510-#509]*0.57607]
#3=[#1+[#2-#1]*0.73654]
X4.96158 Y-2.47011 Z[#3+#4]
#1=[#502+[#503-#502]*0.56437]
#2=[#509+[#510-#509]*0.56437]
#3=[#1+[#2-#1]*0.73881]
X4.96243 Y-2.47413 Z[#3+#4]
#1=[#502+[#503-#502]*0.55242]
#2=[#509+[#510-#509]*0.55242]
#3=[#1+[#2-#1]*0.73881]
X4.96243 Y-2.47825 Z[#3+#4]
#1=[#502+[#503-#502]*0.54072]
#2=[#509+[#510-#509]*0.54072]
#3=[#1+[#2-#1]*0.73654]
X4.96158 Y-2.48227 Z[#3+#4]
#1=[#502+[#503-#502]*0.52981]
#2=[#509+[#510-#509]*0.52981]
#3=[#1+[#2-#1]*0.73212]
X4.95990 Y-2.48603 Z[#3+#4]
#1=[#502+[#503-#502]*0.52013]
#2=[#509+[#510-#509]*0.52013]
#3=[#1+[#2-#1]*0.72572]
X4.95749 Y-2.48936 Z[#3+#4]
#1=[#502+[#503-#502]*0.51213]
#2=[#509+[#510-#509]*0.51213]
#3=[#1+[#2-#1]*0.71763]
X4.95443 Y-2.49212 Z[#3+#4]
#1=[#502+[#503-#502]*0.50616]
#2=[#509+[#510-#509]*0.50616]
#3=[#1+[#2-#1]*0.70821]
X4.95086 Y-2.49417 Z[#3+#4]
#1=[#502+[#503-#502]*0.50246]
#2=[#509+[#510-#509]*0.50246]
#3=[#1+[#2-#1]*0.69785]
X4.94695 Y-2.49545 Z[#3+#4]
#1=[#502+[#503-#502]*0.50121]
#2=[#509+[#510-#509]*0.50121]
#3=[#1+[#2-#1]*0.68703]
X4.94286 Y-2.49587 Z[#3+#4]
#1=[#502+[#503-#502]*0.50121]
#2=[#509+[#510-#509]*0.50121]
#3=[#1+[#2-#1]*0.10941]
X4.72445 Y-2.49587 Z[#3+#4]
#1=[#501+[#502-#501]*0.92393]
#2=[#508+[#509-#508]*0.92393]
#3=[#1+[#2-#1]*0.10941]
X4.72445 Y-2.69460 Z[#3+#4]
#1=[#501+[#502-#501]*0.92393]
#2=[#508+[#509-#508]*0.92393]
#3=[#1+[#2-#1]*0.49813]
X4.87143 Y-2.69460 Z[#3+#4]
#1=[#501+[#502-#501]*0.92268]
#2=[#508+[#509-#508]*0.92268]
#3=[#1+[#2-#1]*0.50895]
X4.87552 Y-2.69503 Z[#3+#4]
#1=[#501+[#502-#501]*0.91898]
#2=[#508+[#509-#508]*0.91898]
#3=[#1+[#2-#1]*0.51930]
X4.87943 Y-2.69630 Z[#3+#4]
#1=[#501+[#502-#501]*0.91300]
#2=[#508+[#509-#508]*0.91300]
#3=[#1+[#2-#1]*0.52873]
X4.88300 Y-2.69836 Z[#3+#4]
#1=[#501+[#502-#501]*0.90501]
#2=[#508+[#509-#508]*0.90501]
#3=[#1+[#2-#1]*0.53682]
X4.88606 Y-2.70111 Z[#3+#4]
#1=[#501+[#502-#501]*0.89533]
#2=[#508+[#509-#508]*0.89533]
#3=[#1+[#2-#1]*0.54321]
X4.88848 Y-2.70444 Z[#3+#4]
#1=[#501+[#502-#501]*0.88441]
#2=[#508+[#509-#508]*0.88441]
#3=[#1+[#2-#1]*0.54764]
X4.89015 Y-2.70820 Z[#3+#4]
#1=[#501+[#502-#501]*0.87272]
#2=[#508+[#509-#508]*0.87272]
#3=[#1+[#2-#1]*0.54990]
X4.89100 Y-2.71223 Z[#3+#4]
#1=[#501+[#502-#501]*0.86076]
#2=[#508+[#509-#508]*0.86076]
#3=[#1+[#2-#1]*0.54990]
X4.89100 Y-2.71634 Z[#3+#4]
#1=[#501+[#502-#501]*0.84907]
#2=[#508+[#509-#508]*0.84907]
#3=[#1+[#2-#1]*0.54764]
X4.89015 Y-2.72037 Z[#3+#4]
#1=[#501+[#502-#501]*0.83815]
#2=[#508+[#509-#508]*0.83815]
#3=[#1+[#2-#1]*0.54321]
X4.88848 Y-2.72413 Z[#3+#4]
#1=[#501+[#502-#501]*0.82848]
#2=[#508+[#509-#508]*0.82848]
#3=[#1+[#2-#1]*0.53682]
X4.88606 Y-2.72746 Z[#3+#4]
#1=[#501+[#502-#501]*0.82048]
#2=[#508+[#509-#508]*0.82048]
#3=[#1+[#2-#1]*0.52873]
X4.88300 Y-2.73021 Z[#3+#4]
#1=[#501+[#502-#501]*0.81450]
#2=[#508+[#509-#508]*0.81450]
#3=[#1+[#2-#1]*0.51930]
X4.87943 Y-2.73227 Z[#3+#4]
#1=[#501+[#502-#501]*0.81081]
#2=[#508+[#509-#508]*0.81081]
#3=[#1+[#2-#1]*0.50895]
X4.87552 Y-2.73354 Z[#3+#4]
#1=[#501+[#502-#501]*0.80956]
#2=[#508+[#509-#508]*0.80956]
#3=[#1+[#2-#1]*0.49813]
X4.87143 Y-2.73397 Z[#3+#4]
#1=[#501+[#502-#501]*0.80956]
#2=[#508+[#509-#508]*0.80956]
#3=[#1+[#2-#1]*0.10941]
X4.72445 Y-2.73397 Z[#3+#4]
#1=[#501+[#502-#501]*0.10592]
#2=[#508+[#509-#508]*0.10592]
#3=[#1+[#2-#1]*0.10941]
X4.72445 Y-2.97619 Z[#3+#4]
#1=[#501+[#502-#501]*0.09403]
#2=[#508+[#509-#508]*0.09403]
#3=[#1+[#2-#1]*0.10827]
X4.72402 Y-2.98028 Z[#3+#4]
#1=[#501+[#502-#501]*0.08266]
#2=[#508+[#509-#508]*0.08266]
#3=[#1+[#2-#1]*0.10491]
X4.72274 Y-2.98420 Z[#3+#4]
#1=[#501+[#502-#501]*0.07231]
#2=[#508+[#509-#508]*0.07231]
#3=[#1+[#2-#1]*0.09947]
X4.72069 Y-2.98776 Z[#3+#4]
#1=[#501+[#502-#501]*0.06343]
#2=[#508+[#509-#508]*0.06343]
#3=[#1+[#2-#1]*0.09218]
X4.71793 Y-2.99082 Z[#3+#4]
#1=[#501+[#502-#501]*0.05640]
#2=[#508+[#509-#508]*0.05640]
#3=[#1+[#2-#1]*0.08338]
X4.71460 Y-2.99324 Z[#3+#4]
#1=[#501+[#502-#501]*0.05154]
#2=[#508+[#509-#508]*0.05154]
#3=[#1+[#2-#1]*0.07344]
X4.71084 Y-2.99491 Z[#3+#4]
#1=[#501+[#502-#501]*0.04905]
#2=[#508+[#509-#508]*0.04905]
#3=[#1+[#2-#1]*0.06279]
X4.70682 Y-2.99577 Z[#3+#4]
#1=[#501+[#502-#501]*0.04905]
#2=[#508+[#509-#508]*0.04905]
#3=[#1+[#2-#1]*0.05191]
X4.70270 Y-2.99577 Z[#3+#4]
#1=[#501+[#502-#501]*0.05154]
#2=[#508+[#509-#508]*0.05154]
#3=[#1+[#2-#1]*0.04126]
X4.69868 Y-2.99491 Z[#3+#4]
#1=[#501+[#502-#501]*0.05640]
#2=[#508+[#509-#508]*0.05640]
#3=[#1+[#2-#1]*0.03132]
X4.69492 Y-2.99324 Z[#3+#4]
#1=[#501+[#502-#501]*0.06343]
#2=[#508+[#509-#508]*0.06343]
#3=[#1+[#2-#1]*0.02252]
X4.69159 Y-2.99082 Z[#3+#4]
#1=[#501+[#502-#501]*0.07231]
#2=[#508+[#509-#508]*0.07231]
#3=[#1+[#2-#1]*0.01523]
X4.68884 Y-2.98776 Z[#3+#4]
#1=[#501+[#502-#501]*0.08266]
#2=[#508+[#509-#508]*0.08266]
#3=[#1+[#2-#1]*0.00979]
X4.68678 Y-2.98420 Z[#3+#4]
#1=[#501+[#502-#501]*0.09403]
#2=[#508+[#509-#508]*0.09403]
#3=[#1+[#2-#1]*0.00643]
X4.68551 Y-2.98028 Z[#3+#4]
#1=[#501+[#502-#501]*0.10592]
#2=[#508+[#509-#508]*0.10592]
#3=[#1+[#2-#1]*0.00529]
X4.68508 Y-2.97619 Z[#3+#4]
G04 P0 ( dwell for no time -- G64 should not smooth over this point )
G00 Z0.08000 ( retract )

G00 X5.11365 Y-2.97619 ( rapid move to begin. )
G01 F180.00000
#1=[#508+[#509-#508]*0.10592]
#2=[#515+[#516-#515]*0.10592]
#3=[#1+[#2-#1]*0.13872]
G01 Z[-0.04000+#111]
G04 P0 ( dwell for no time -- G64 should not smooth over this point )
G01 F360.00000
#1=[#509+[#510-#509]*0.07424]
#2=[#516+[#517-#516]*0.07424]
#3=[#1+[#2-#1]*0.13872]
X5.11365 Y-2.64286 Z[#3+#4]
#1=[#509+[#510-#509]*0.08613]
#2=[#516+[#517-#516]*0.08613]
#3=[#1+[#2-#1]*0.13985]
X5.11408 Y-2.63876 Z[#3+#4]
#1=[#509+[#510-#509]*0.09750]
#2=[#516+[#517-#516]*0.09750]
#3=[#1+[#2-#1]*0.14322]
X5.11535 Y-2.63485 Z[#3+#4]
#1=[#509+[#510-#509]*0.10785]
#2=[#516+[#517-#516]*0.10785]
#3=[#1+[#2-#1]*0.14866]
X5.11741 Y-2.63129 Z[#3+#4]
#1=[#509+[#510-#509]*0.11673]
#2=[#516+[#517-#516]*0.11673]
#3=[#1+[#2-#1]*0.15594]
X5.12016 Y-2.62823 Z[#3+#4]
#1=[#509+[#510-#509]*0.12376]
#2=[#516+[#517-#516]*0.12376]
#3=[#1+[#2-#1]*0.16475]
X5.12349 Y-2.62581 Z[#3+#4]
#1=[#509+[#510-#509]*0.12862]
#2=[#516+[#517-#516]*0.12862]
#3=[#1+[#2-#1]*0.17469]
X5.12725 Y-2.62413 Z[#3+#4]
#1=[#509+[#510-#509]*0.13111]
#2=[#516+[#517-#516]*0.13111]
#3=[#1+[#2-#1]*0.18533]
X5.13127 Y-2.62328 Z[#3+#4]
#1=[#509+[#510-#509]*0.13111]
#2=[#516+[#517-#516]*0.13111]
#3=[#1+[#2-#1]*0.19622]
X5.13539 Y-2.62328 Z[#3+#4]
#1=[#509+[#510-#509]*0.12862]
#2=[#516+[#517-#516]*0.12862]
#3=[#1+[#2-#1]*0.20686]
X5.13942 Y-2.62413 Z[#3+#4]
#1=[#509+[#510-#509]*0.12376]
#2=[#516+[#517-#516]*0.12376]
#3=[#1+[#2-#1]*0.21681]
X5.14318 Y-2.62581 Z[#3+#4]
#1=[#509+[#510-#509]*0.11673]
#2=[#516+[#517-#516]*0.11673]
#3=[#1+[#2-#1]*0.22561]
X5.14651 Y-2.62823 Z[#3+#4]
#1=[#509+[#510-#509]*0.10785]
#2=[#516+[#517-#516]*0.10785]
#3=[#1+[#2-#1]*0.23289]
X5.14926 Y-2.63129 Z[#3+#4]
#1=[#509+[#510-#509]*0.09750]
#2=[#516+[#517-#516]*0.09750]
#3=[#1+[#2-#1]*0.23834]
X5.15132 Y-2.63485 Z[#3+#4]
#1=[#509+[#510-#509]*0.08613]
#2=[#516+[#517-#516]*0.08613]
#3=[#1+[#2-#1]*0.24170]
X5.15259 Y-2.63876 Z[#3+#4]
#1=[#509+[#510-#509]*0.00480]
#2=[#516+[#517-#516]*0.00480]
#3=[#1+[#2-#1]*0.24284]
X5.15302 Y-2.66676 Z[#3+#4]
#1=[#509+[#510-#509]*0.05146]
#2=[#516+[#517-#516]*0.05146]
#3=[#1+[#2-#1]*0.28627]
X5.16944 Y-2.65070 Z[#3+#4]
#1=[#509+[#510-#509]*0.12871]
#2=[#516+[#517-#516]*0.12871]
#3=[#1+[#2-#1]*0.42681]
X5.22258 Y-2.62410 Z[#3+#4]
#1=[#509+[#510-#509]*0.13142]
#2=[#516+[#517-#516]*0.13142]
#3=[#1+[#2-#1]*0.44265]
X5.22857 Y-2.62317 Z[#3+#4]
#1=[#509+[#510-#509]*0.13142]
#2=[#516+[#517-#516]*0.13142]
#3=[#1+[#2-#1]*0.56858]
X5.27619 Y-2.62317 Z[#3+#4]
#1=[#509+[#510-#509]*0.13017]
#2=[#516+[#517-#516]*0.13017]
#3=[#1+[#2-#1]*0.57941]
X5.28028 Y-2.62360 Z[#3+#4]
#1=[#509+[#510-#509]*0.12648]
#2=[#516+[#517-#516]*0.12648]
#3=[#1+[#2-#1]*0.58976]
X5.28420 Y-2.62487 Z[#3+#4]
#1=[#509+[#510-#509]*0.12050]
#2=[#516+[#517-#516]*0.12050]
#3=[#1+[#2-#1]*0.59919]
X5.28776 Y-2.62693 Z[#3+#4]
#1=[#509+[#510-#509]*0.11250]
#2=[#516+[#517-#516]*0.11250]
#3=[#1+[#2-#1]*0.60727]
X5.29082 Y-2.62968 Z[#3+#4]
#1=[#509+[#510-#509]*0.10283]
#2=[#516+[#517-#516]*0.10283]
#3=[#1+[#2-#1]*0.61367]
X5.29324 Y-2.63301 Z[#3+#4]
#1=[#509+[#510-#509]*0.09191]
#2=[#516+[#517-#516]*0.09191]
#3=[#1+[#2-#1]*0.61810]
X5.29491 Y-2.63677 Z[#3+#4]
#1=[#509+[#510-#509]*0.08022]
#2=[#516+[#517-#516]*0.08022]
#3=[#1+[#2-#1]*0.62036]
X5.29577 Y-2.64080 Z[#3+#4]
#1=[#509+[#510-#509]*0.06826]
#2=[#516+[#517-#516]*0.06826]
#3=[#1+[#2-#1]*0.62036]
X5.29577 Y-2.64491 Z[#3+#4]
#1=[#509+[#510-#509]*0.05657]
#2=[#516+[#517-#516]*0.05657]
#3=[#1+[#2-#1]*0.61810]
X5.29491 Y-2.64894 Z[#3+#4]
#1=[#509+[#510-#509]*0.04565]
#2=[#516+[#517-#516]*0.04565]
#3=[#1+[#2-#1]*0.61367]
X5.29324 Y-2.65270 Z[#3+#4]
#1=[#509+[#510-#509]*0.03598]
#2=[#516+[#517-#516]*0.03598]
#3=[#1+[#2-#1]*0.60727]
X5.29082 Y-2.65603 Z[#3+#4]
#1=[#509+[#510-#509]*0.02798]
#2=[#516+[#517-#516]*0.02798]
#3=[#1+[#2-#1]*0.59919]
X5.28776 Y-2.65878 Z[#3+#4]
#1=[#509+[#510-#509]*0.02200]
#2=[#516+[#517-#516]*0.02200]
#3=[#1+[#2-#1]*0.58976]
X5.28420 Y-2.66084 Z[#3+#4]
#1=[#509+[#510-#509]*0.01830]
#2=[#516+[#517-#516]*0.01830]
#3=[#1+[#2-#1]*0.57941]
X5.28028 Y-2.66211 Z[#3+#4]
#1=[#509+[#510-#509]*0.01705]
#2=[#516+[#517-#516]*0.01705]
#3=[#1+[#2-#1]*0.56858]
X5.27619 Y-2.66254 Z[#3+#4]
#1=[#509+[#510-#509]*0.01705]
#2=[#516+[#517-#516]*0.01705]
#3=[#1+[#2-#1]*0.45494]
X5.23322 Y-2.66254 Z[#3+#4]
#1=[#508+[#509-#508]*0.95808]
#2=[#515+[#516-#515]*0.95808]
#3=[#1+[#2-#1]*0.34755]
X5.19261 Y-2.68284 Z[#3+#4]
#1=[#508+[#509-#508]*0.90204]
#2=[#515+[#516-#515]*0.90204]
#3=[#1+[#2-#1]*0.29653]
X5.17332 Y-2.70214 Z[#3+#4]
#1=[#508+[#509-#508]*0.78408]
#2=[#515+[#516-#515]*0.78408]
#3=[#1+[#2-#1]*0.24284]
X5.15302 Y-2.74274 Z[#3+#4]
#1=[#508+[#509-#508]*0.10592]
#2=[#515+[#516-#515]*0.10592]
#3=[#1+[#2-#1]*0.24284]
X5.15302 Y-2.97619 Z[#3+#4]
#1=[#508+[#509-#508]*0.09403]
#2=[#515+[#516-#515]*0.09403]
#3=[#1+[#2-#1]*0.24170]
X5.15259 Y-2.98028 Z[#3+#4]
#1=[#508+[#509-#508]*0.08266]
#2=[#515+[#516-#515]*0.08266]
#3=[#1+[#2-#1]*0.23834]
X5.15132 Y-2.98420 Z[#3+#4]
#1=[#508+[#509-#508]*0.07231]
#2=[#515+[#516-#515]*0.07231]
#3=[#1+[#2-#1]*0.23289]
X5.14926 Y-2.98776 Z[#3+#4]
#1=[#508+[#509-#508]*0.06343]
#2=[#515+[#516-#515]*0.06343]
#3=[#1+[#2-#1]*0.22561]
X5.14651 Y-2.99082 Z[#3+#4]
#1=[#508+[#509-#508]*0.05640]
#2=[#515+[#516-#515]*0.05640]
#3=[#1+[#2-#1]*0.21681]
X5.14318 Y-2.99324 Z[#3+#4]
#1=[#508+[#509-#508]*0.05154]
#2=[#515+[#516-#515]*0.05154]
#3=[#1+[#2-#1]*0.20686]
X5.13942 Y-2.99491 Z[#3+#4]
#1=[#508+[#509-#508]*0.04905]
#2=[#515+[#516-#515]*0.04905]
#3=[#1+[#2-#1]*0.19622]
X5.13539 Y-2.99577 Z[#3+#4]
#1=[#508+[#509-#508]*0.04905]
#2=[#515+[#516-#515]*0.04905]
#3=[#1+[#2-#1]*0.18533]
X5.13127 Y-2.99577 Z[#3+#4]
#1=[#508+[#509-#508]*0.05154]
#2=[#515+[#516-#515]*0.05154]
#3=[#1+[#2-#1]*0.17469]
X5.12725 Y-2.99491 Z[#3+#4]
#1=[#508+[#509-#508]*0.05640]
#2=[#515+[#516-#515]*0.05640]
#3=[#1+[#2-#1]*0.16475]
X5.12349 Y-2.99324 Z[#3+#4]
#1=[#508+[#509-#508]*0.06343]
#2=[#515+[#516-#515]*0.06343]
#3=[#1+[#2-#1]*0.15594]
X5.12016 Y-2.99082 Z[#3+#4]
#1=[#508+[#509-#508]*0.07231]
#2=[#515+[#516-#515]*0.07231]
#3=[#1+[#2-#1]*0.14866]
X5.11741 Y-2.98776 Z[#3+#4]
#1=[#508+[#509-#508]*0.08266]
#2=[#515+[#516-#515]*0.08266]
#3=[#1+[#2-#1]*0.14322]
X5.11535 Y-2.98420 Z[#3+#4]
#1=[#508+[#509-#508]*0.09403]
#2=[#515+[#516-#515]*0.09403]
#3=[#1+[#2-#1]*0.13985]
X5.11408 Y-2.98028 Z[#3+#4]
#1=[#508+[#509-#508]*0.10592]
#2=[#515+[#516-#515]*0.10592]
#3=[#1+[#2-#1]*0.13872]
X5.11365 Y-2.97619 Z[#3+#4]
G04 P0 ( dwell for no time -- G64 should not smooth over this point )
G00 Z0.08000 ( retract )

G00 X5.39936 Y-2.88095 ( rapid move to begin. )
G01 F180.00000
#1=[#508+[#509-#508]*0.38258]
#2=[#515+[#516-#515]*0.38258]
#3=[#1+[#2-#1]*0.89433]
G01 Z[-0.04000+#111]
G04 P0 ( dwell for no time -- G64 should not smooth over this point )
G01 F360.00000
#1=[#508+[#509-#508]*0.79758]
#2=[#515+[#516-#515]*0.79758]
#3=[#1+[#2-#1]*0.89433]
X5.39936 Y-2.73809 Z[#3+#4]
#1=[#508+[#509-#508]*0.81497]
#2=[#515+[#516-#515]*0.81497]
#3=[#1+[#2-#1]*0.89680]
X5.40029 Y-2.73211 Z[#3+#4]
#1=[#508+[#509-#508]*0.96934]
#2=[#515+[#516-#515]*0.96934]
#3=[#1+[#2-#1]*0.96713]
X5.42689 Y-2.67897 Z[#3+#4]
#1=[#516+[#517-#516]*0.05146]
#2=[#523+[#524-#523]*0.05146]
#3=[#1+[#2-#1]*0.04189]
X5.45516 Y-2.65070 Z[#3+#4]
#1=[#516+[#517-#516]*0.12538]
#2=[#523+[#524-#523]*0.12538]
#3=[#1+[#2-#1]*0.17498]
X5.50548 Y-2.62525 Z[#3+#4]
#1=[#516+[#517-#516]*0.13074]
#2=[#523+[#524-#523]*0.13074]
#3=[#1+[#2-#1]*0.19025]
X5.51126 Y-2.62341 Z[#3+#4]
#1=[#516+[#517-#516]*0.13074]
#2=[#523+[#524-#523]*0.13074]
#3=[#1+[#2-#1]*0.39518]
X5.58874 Y-2.62341 Z[#3+#4]
#1=[#516+[#517-#516]*0.12538]
#2=[#523+[#524-#523]*0.12538]
#3=[#1+[#2-#1]*0.41045]
X5.59452 Y-2.62525 Z[#3+#4]
#1=[#516+[#517-#516]*0.05146]
#2=[#523+[#524-#523]*0.05146]
#3=[#1+[#2-#1]*0.54355]
X5.64484 Y-2.65070 Z[#3+#4]
#1=[#515+[#516-#515]*0.96934]
#2=[#522+[#523-#522]*0.96934]
#3=[#1+[#2-#1]*0.61831]
X5.67311 Y-2.67897 Z[#3+#4]
#1=[#515+[#516-#515]*0.82315]
#2=[#522+[#523-#522]*0.82315]
#3=[#1+[#2-#1]*0.68561]
X5.69856 Y-2.72929 Z[#3+#4]
#1=[#515+[#516-#515]*0.80638]
#2=[#522+[#523-#522]*0.80638]
#3=[#1+[#2-#1]*0.69048]
X5.70040 Y-2.73507 Z[#3+#4]
#1=[#515+[#516-#515]*0.37378]
#2=[#522+[#523-#522]*0.37378]
#3=[#1+[#2-#1]*0.69048]
X5.70040 Y-2.88398 Z[#3+#4]
#1=[#515+[#516-#515]*0.35701]
#2=[#522+[#523-#522]*0.35701]
#3=[#1+[#2-#1]*0.68561]
X5.69856 Y-2.88976 Z[#3+#4]
#1=[#515+[#516-#515]*0.21082]
#2=[#522+[#523-#522]*0.21082]
#3=[#1+[#2-#1]*0.61831]
X5.67311 Y-2.94008 Z[#3+#4]
#1=[#515+[#516-#515]*0.12870]
#2=[#522+[#523-#522]*0.12870]
#3=[#1+[#2-#1]*0.54355]
X5.64484 Y-2.96835 Z[#3+#4]
#1=[#515+[#516-#515]*0.05478]
#2=[#522+[#523-#522]*0.05478]
#3=[#1+[#2-#1]*0.41045]
X5.59452 Y-2.99380 Z[#3+#4]
#1=[#515+[#516-#515]*0.04942]
#2=[#522+[#523-#522]*0.04942]
#3=[#1+[#2-#1]*0.39518]
X5.58874 Y-2.99564 Z[#3+#4]
#1=[#515+[#516-#515]*0.04874]
#2=[#522+[#523-#522]*0.04874]
#3=[#1+[#2-#1]*0.19826]
X5.51429 Y-2.99587 Z[#3+#4]
#1=[#515+[#516-#515]*0.05145]
#2=[#522+[#523-#522]*0.05145]
#3=[#1+[#2-#1]*0.18243]
X5.50830 Y-2.99494 Z[#3+#4]
#1=[#515+[#516-#515]*0.12870]
#2=[#522+[#523-#522]*0.12870]
#3=[#1+[#2-#1]*0.04189]
X5.45516 Y-2.96835 Z[#3+#4]
#1=[#508+[#509-#508]*0.20382]
#2=[#515+[#516-#515]*0.20382]
#3=[#1+[#2-#1]*0.97255]
X5.42894 Y-2.94249 Z[#3+#4]
#1=[#508+[#509-#508]*0.21868]
#2=[#515+[#516-#515]*0.21868]
#3=[#1+[#2-#1]*0.96280]
X5.42525 Y-2.93737 Z[#3+#4]
#1=[#508+[#509-#508]*0.35822]
#2=[#515+[#516-#515]*0.35822]
#3=[#1+[#2-#1]*0.89942]
X5.40128 Y-2.88934 Z[#3+#4]
#1=[#508+[#509-#508]*0.37069]
#2=[#515+[#516-#515]*0.37069]
#3=[#1+[#2-#1]*0.89547]
X5.39979 Y-2.88504 Z[#3+#4]
#1=[#508+[#509-#508]*0.38258]
#2=[#515+[#516-#515]*0.38258]
#3=[#1+[#2-#1]*0.89433]
X5.39936 Y-2.88095 Z[#3+#4]
G04 P0 ( dwell for no time -- G64 should not smooth over this point )
G00 Z0.08000 ( retract )

G00 X5.43873 Y-2.87630 ( rapid move to begin. )
G01 F180.00000
#1=[#508+[#509-#508]*0.39608]
#2=[#515+[#516-#515]*0.39608]
#3=[#1+[#2-#1]*0.99845]
G01 Z[-0.04000+#111]
G04 P0 ( dwell for no time -- G64 should not smooth over this point )
G01 F360.00000
#1=[#508+[#509-#508]*0.78408]
#2=[#515+[#516-#515]*0.78408]
#3=[#1+[#2-#1]*0.99845]
X5.43873 Y-2.74274 Z[#3+#4]
#1=[#515+[#516-#515]*0.90204]
#2=[#522+[#523-#522]*0.90204]
#3=[#1+[#2-#1]*0.05215]
X5.45904 Y-2.70214 Z[#3+#4]
#1=[#515+[#516-#515]*0.95808]
#2=[#522+[#523-#522]*0.95808]
#3=[#1+[#2-#1]*0.10317]
X5.47833 Y-2.68284 Z[#3+#4]
#1=[#516+[#517-#516]*0.01705]
#2=[#523+[#524-#523]*0.01705]
#3=[#1+[#2-#1]*0.21055]
X5.51893 Y-2.66254 Z[#3+#4]
#1=[#516+[#517-#516]*0.01705]
#2=[#523+[#524-#523]*0.01705]
#3=[#1+[#2-#1]*0.37488]
X5.58107 Y-2.66254 Z[#3+#4]
#1=[#515+[#516-#515]*0.95808]
#2=[#522+[#523-#522]*0.95808]
#3=[#1+[#2-#1]*0.48227]
X5.62167 Y-2.68284 Z[#3+#4]
#1=[#515+[#516-#515]*0.90204]
#2=[#522+[#523-#522]*0.90204]
#3=[#1+[#2-#1]*0.53329]
X5.64096 Y-2.70214 Z[#3+#4]
#1=[#515+[#516-#515]*0.78408]
#2=[#522+[#523-#522]*0.78408]
#3=[#1+[#2-#1]*0.58698]
X5.66127 Y-2.74274 Z[#3+#4]
#1=[#515+[#516-#515]*0.39608]
#2=[#522+[#523-#522]*0.39608]
#3=[#1+[#2-#1]*0.58698]
X5.66127 Y-2.87630 Z[#3+#4]
#1=[#515+[#516-#515]*0.27813]
#2=[#522+[#523-#522]*0.27813]
#3=[#1+[#2-#1]*0.53329]
X5.64096 Y-2.91691 Z[#3+#4]
#1=[#515+[#516-#515]*0.22209]
#2=[#522+[#523-#522]*0.22209]
#3=[#1+[#2-#1]*0.48227]
X5.62167 Y-2.93620 Z[#3+#4]
#1=[#515+[#516-#515]*0.16311]
#2=[#522+[#523-#522]*0.16311]
#3=[#1+[#2-#1]*0.37488]
X5.58107 Y-2.95650 Z[#3+#4]
#1=[#515+[#516-#515]*0.16311]
#2=[#522+[#523-#522]*0.16311]
#3=[#1+[#2-#1]*0.21055]
X5.51893 Y-2.95650 Z[#3+#4]
#1=[#515+[#516-#515]*0.22209]
#2=[#522+[#523-#522]*0.22209]
#3=[#1+[#2-#1]*0.10317]
X5.47833 Y-2.93620 Z[#3+#4]
#1=[#515+[#516-#515]*0.27813]
#2=[#522+[#523-#522]*0.27813]
#3=[#1+[#2-#1]*0.05215]
X5.45904 Y-2.91691 Z[#3+#4]
#1=[#508+[#509-#508]*0.39608]
#2=[#515+[#516-#515]*0.39608]
#3=[#1+[#2-#1]*0.99845]
X5.43873 Y-2.87630 Z[#3+#4]
G04 P0 ( dwell for no time -- G64 should not smooth over this point )
G00 Z0.08000 ( retract )

G00 X5.87555 Y-2.97619 ( rapid move to begin. )
G01 F180.00000
#1=[#522+[#523-#522]*0.10592]
#2=[#529+[#530-#529]*0.10592]
#3=[#1+[#2-#1]*0.15370]
G01 Z[-0.04000+#111]
G04 P0 ( dwell for no time -- G64 should not smooth over this point )
G01 F360.00000
#1=[#523+[#524-#523]*0.07424]
#2=[#530+[#531-#530]*0.07424]
#3=[#1+[#2-#1]*0.15370]
X5.87555 Y-2.64286 Z[#3+#4]
#1=[#523+[#524-#523]*0.08613]
#2=[#530+[#531-#530]*0.08613]
#3=[#1+[#2-#1]*0.15483]
X5.87598 Y-2.63876 Z[#3+#4]
#1=[#523+[#524-#523]*0.09750]
#2=[#530+[#531-#530]*0.09750]
#3=[#1+[#2-#1]*0.15819]
X5.87725 Y-2.63485 Z[#3+#4]
#1=[#523+[#524-#523]*0.10785]
#2=[#530+[#531-#530]*0.10785]
#3=[#1+[#2-#1]*0.16364]
X5.87931 Y-2.63129 Z[#3+#4]
#1=[#523+[#524-#523]*0.11673]
#2=[#530+[#531-#530]*0.11673]
#3=[#1+[#2-#1]*0.17092]
X5.88207 Y-2.62823 Z[#3+#4]
#1=[#523+[#524-#523]*0.12376]
#2=[#530+[#531-#530]*0.12376]
#3=[#1+[#2-#1]*0.17972]
X5.88539 Y-2.62581 Z[#3+#4]
#1=[#523+[#524-#523]*0.12862]
#2=[#530+[#531-#530]*0.12862]
#3=[#1+[#2-#1]*0.18967]
X5.88915 Y-2.62413 Z[#3+#4]
#1=[#523+[#524-#523]*0.13111]
#2=[#530+[#531-#530]*0.13111]
#3=[#1+[#2-#1]*0.20031]
X5.89318 Y-2.62328 Z[#3+#4]
#1=[#523+[#524-#523]*0.13111]
#2=[#530+[#531-#530]*0.13111]
#3=[#1+[#2-#1]*0.21120]
X5.89729 Y-2.62328 Z[#3+#4]
#1=[#523+[#524-#523]*0.12862]
#2=[#530+[#531-#530]*0.12862]
#3=[#1+[#2-#1]*0.22184]
X5.90132 Y-2.62413 Z[#3+#4]
#1=[#523+[#524-#523]*0.12376]
#2=[#530+[#531-#530]*0.12376]
#3=[#1+[#2-#1]*0.23178]
X5.90508 Y-2.62581 Z[#3+#4]
#1=[#523+[#524-#523]*0.11673]
#2=[#530+[#531-#530]*0.11673]
#3=[#1+[#2-#1]*0.24059]
X5.90841 Y-2.62823 Z[#3+#4]
#1=[#523+[#524-#523]*0.10785]
#2=[#530+[#531-#530]*0.10785]
#3=[#1+[#2-#1]*0.24787]
X5.91116 Y-2.63129 Z[#3+#4]
#1=[#523+[#524-#523]*0.09750]
#2=[#530+[#531-#530]*0.09750]
#3=[#1+[#2-#1]*0.25331]
X5.91322 Y-2.63485 Z[#3+#4]
#1=[#523+[#524-#523]*0.08613]
#2=[#530+[#531-#530]*0.08613]
#3=[#1+[#2-#1]*0.25668]
X5.91449 Y-2.63876 Z[#3+#4]
#1=[#523+[#524-#523]*0.06302]
#2=[#530+[#531-#530]*0.06302]
#3=[#1+[#2-#1]*0.25782]
X5.91492 Y-2.64672 Z[#3+#4]
#1=[#523+[#524-#523]*0.12538]
#2=[#530+[#531-#530]*0.12538]
#3=[#1+[#2-#1]*0.37138]
X5.95786 Y-2.62525 Z[#3+#4]
#1=[#523+[#524-#523]*0.13074]
#2=[#530+[#531-#530]*0.13074]
#3=[#1+[#2-#1]*0.38665]
X5.96364 Y-2.62341 Z[#3+#4]
#1=[#523+[#524-#523]*0.13074]
#2=[#530+[#531-#530]*0.13074]
#3=[#1+[#2-#1]*0.59158]
X6.04113 Y-2.62341 Z[#3+#4]
#1=[#523+[#524-#523]*0.12538]
#2=[#530+[#531-#530]*0.12538]
#3=[#1+[#2-#1]*0.60684]
X6.04690 Y-2.62525 Z[#3+#4]
#1=[#523+[#524-#523]*0.05146]
#2=[#530+[#531-#530]*0.05146]
#3=[#1+[#2-#1]*0.73994]
X6.09722 Y-2.65070 Z[#3+#4]
#1=[#523+[#524-#523]*0.03851]
#2=[#530+[#531-#530]*0.03851]
#3=[#1+[#2-#1]*0.75173]
X6.10168 Y-2.65516 Z[#3+#4]
#1=[#523+[#524-#523]*0.03065]
#2=[#530+[#531-#530]*0.03065]
#3=[#1+[#2-#1]*0.75606]
X6.10332 Y-2.65786 Z[#3+#4]
#1=[#522+[#523-#522]*0.89232]
#2=[#529+[#530-#529]*0.89232]
#3=[#1+[#2-#1]*0.81903]
X6.12713 Y-2.70548 Z[#3+#4]
#1=[#522+[#523-#522]*0.87555]
#2=[#529+[#530-#529]*0.87555]
#3=[#1+[#2-#1]*0.82391]
X6.12897 Y-2.71125 Z[#3+#4]
#1=[#522+[#523-#522]*0.10592]
#2=[#529+[#530-#529]*0.10592]
#3=[#1+[#2-#1]*0.82453]
X6.12921 Y-2.97619 Z[#3+#4]
#1=[#522+[#523-#522]*0.09403]
#2=[#529+[#530-#529]*0.09403]
#3=[#1+[#2-#1]*0.82339]
X6.12878 Y-2.98028 Z[#3+#4]
#1=[#522+[#523-#522]*0.08266]
#2=[#529+[#530-#529]*0.08266]
#3=[#1+[#2-#1]*0.82003]
X6.12751 Y-2.98420 Z[#3+#4]
#1=[#522+[#523-#522]*0.07231]
#2=[#529+[#530-#529]*0.07231]
#3=[#1+[#2-#1]*0.81459]
X6.12545 Y-2.98776 Z[#3+#4]
#1=[#522+[#523-#522]*0.06343]
#2=[#529+[#530-#529]*0.06343]
#3=[#1+[#2-#1]*0.80730]
X6.12270 Y-2.99082 Z[#3+#4]
#1=[#522+[#523-#522]*0.05640]
#2=[#529+[#530-#529]*0.05640]
#3=[#1+[#2-#1]*0.79850]
X6.11937 Y-2.99324 Z[#3+#4]
#1=[#522+[#523-#522]*0.05154]
#2=[#529+[#530-#529]*0.05154]
#3=[#1+[#2-#1]*0.78855]
X6.11561 Y-2.99491 Z[#3+#4]
#1=[#522+[#523-#522]*0.04905]
#2=[#529+[#530-#529]*0.04905]
#3=[#1+[#2-#1]*0.77791]
X6.11158 Y-2.99577 Z[#3+#4]
#1=[#522+[#523-#522]*0.04905]
#2=[#529+[#530-#529]*0.04905]
#3=[#1+[#2-#1]*0.76703]
X6.10747 Y-2.99577 Z[#3+#4]
#1=[#522+[#523-#522]*0.05154]
#2=[#529+[#530-#529]*0.05154]
#3=[#1+[#2-#1]*0.75638]
X6.10344 Y-2.99491 Z[#3+#4]
#1=[#522+[#523-#522]*0.05640]
#2=[#529+[#530-#529]*0.05640]
#3=[#1+[#2-#1]*0.74644]
X6.09968 Y-2.99324 Z[#3+#4]
#1=[#522+[#523-#522]*0.06343]
#2=[#529+[#530-#529]*0.06343]
#3=[#1+[#2-#1]*0.73763]
X6.09635 Y-2.99082 Z[#3+#4]
#1=[#522+[#523-#522]*0.07231]
#2=[#529+[#530-#529]*0.07231]
#3=[#1+[#2-#1]*0.73035]
X6.09360 Y-2.98776 Z[#3+#4]
#1=[#522+[#523-#522]*0.08266]
#2=[#529+[#530-#529]*0.08266]
#3=[#1+[#2-#1]*0.72491]
X6.09154 Y-2.98420 Z[#3+#4]
#1=[#522+[#523-#522]*0.09403]
#2=[#529+[#530-#529]*0.09403]
#3=[#1+[#2-#1]*0.72154]
X6.09027 Y-2.98028 Z[#3+#4]
#1=[#522+[#523-#522]*0.10592]
#2=[#529+[#530-#529]*0.10592]
#3=[#1+[#2-#1]*0.72041]
X6.08984 Y-2.97619 Z[#3+#4]
#1=[#522+[#523-#522]*0.85324]
#2=[#529+[#530-#529]*0.85324]
#3=[#1+[#2-#1]*0.72041]
X6.08984 Y-2.71893 Z[#3+#4]
#1=[#522+[#523-#522]*0.96245]
#2=[#529+[#530-#529]*0.96245]
#3=[#1+[#2-#1]*0.67070]
X6.07104 Y-2.68134 Z[#3+#4]
#1=[#523+[#524-#523]*0.01705]
#2=[#530+[#531-#530]*0.01705]
#3=[#1+[#2-#1]*0.57127]
X6.03345 Y-2.66254 Z[#3+#4]
#1=[#523+[#524-#523]*0.01705]
#2=[#530+[#531-#530]*0.01705]
#3=[#1+[#2-#1]*0.40695]
X5.97131 Y-2.66254 Z[#3+#4]
#1=[#522+[#523-#522]*0.95808]
#2=[#529+[#530-#529]*0.95808]
#3=[#1+[#2-#1]*0.29956]
X5.93071 Y-2.68284 Z[#3+#4]
#1=[#522+[#523-#522]*0.91222]
#2=[#529+[#530-#529]*0.91222]
#3=[#1+[#2-#1]*0.25782]
X5.91492 Y-2.69863 Z[#3+#4]
#1=[#522+[#523-#522]*0.10592]
#2=[#529+[#530-#529]*0.10592]
#3=[#1+[#2-#1]*0.25782]
X5.91492 Y-2.97619 Z[#3+#4]
#1=[#522+[#523-#522]*0.09403]
#2=[#529+[#530-#529]*0.09403]
#3=[#1+[#2-#1]*0.25668]
X5.91449 Y-2.98028 Z[#3+#4]
#1=[#522+[#523-#522]*0.08266]
#2=[#529+[#530-#529]*0.08266]
#3=[#1+[#2-#1]*0.25331]
X5.91322 Y-2.98420 Z[#3+#4]
#1=[#522+[#523-#522]*0.07231]
#2=[#529+[#530-#529]*0.07231]
#3=[#1+[#2-#1]*0.24787]
X5.91116 Y-2.98776 Z[#3+#4]
#1=[#522+[#523-#522]*0.06343]
#2=[#529+[#530-#529]*0.06343]
#3=[#1+[#2-#1]*0.24059]
X5.90841 Y-2.99082 Z[#3+#4]
#1=[#522+[#523-#522]*0.05640]
#2=[#529+[#530-#529]*0.05640]
#3=[#1+[#2-#1]*0.23178]
X5.90508 Y-2.99324 Z[#3+#4]
#1=[#522+[#523-#522]*0.05154]
#2=[#529+[#530-#529]*0.05154]
#3=[#1+[#2-#1]*0.22184]
X5.90132 Y-2.99491 Z[#3+#4]
#1=[#522+[#523-#522]*0.04905]
#2=[#529+[#530-#529]*0.04905]
#3=[#1+[#2-#1]*0.21120]
X5.89729 Y-2.99577 Z[#3+#4]
#1=[#522+[#523-#522]*0.04905]
#2=[#529+[#530-#529]*0.04905]
#3=[#1+[#2-#1]*0.20031]
X5.89318 Y-2.99577 Z[#3+#4]
#1=[#522+[#523-#522]*0.05154]
#2=[#529+[#530-#529]*0.05154]
#3=[#1+[#2-#1]*0.18967]
X5.88915 Y-2.99491 Z[#3+#4]
#1=[#522+[#523-#522]*0.05640]
#2=[#529+[#530-#529]*0.05640]
#3=[#1+[#2-#1]*0.17972]
X5.88539 Y-2.99324 Z[#3+#4]
#1=[#522+[#523-#522]*0.06343]
#2=[#529+[#530-#529]*0.06343]
#3=[#1+[#2-#1]*0.17092]
X5.88207 Y-2.99082 Z[#3+#4]
#1=[#522+[#523-#522]*0.07231]
#2=[#529+[#530-#529]*0.07231]
#3=[#1+[#2-#1]*0.16364]
X5.87931 Y-2.98776 Z[#3+#4]
#1=[#522+[#523-#522]*0.08266]
#2=[#529+[#530-#529]*0.08266]
#3=[#1+[#2-#1]*0.15819]
X5.87725 Y-2.98420 Z[#3+#4]
#1=[#522+[#523-#522]*0.09403]
#2=[#529+[#530-#529]*0.09403]
#3=[#1+[#2-#1]*0.15483]
X5.87598 Y-2.98028 Z[#3+#4]
#1=[#522+[#523-#522]*0.10592]
#2=[#529+[#530-#529]*0.10592]
#3=[#1+[#2-#1]*0.15370]
X5.87555 Y-2.97619 Z[#3+#4]
G04 P0 ( dwell for no time -- G64 should not smooth over this point )
G00 Z0.08000 ( retract )

G00 X6.25661 Y-2.64491 ( rapid move to begin. )
G01 F180.00000
#1=[#530+[#531-#530]*0.06826]
#2=[#537+[#538-#537]*0.06826]
#3=[#1+[#2-#1]*0.16147]
G01 Z[-0.04000+#111]
G04 P0 ( dwell for no time -- G64 should not smooth over this point )
G01 F360.00000
#1=[#530+[#531-#530]*0.08022]
#2=[#537+[#538-#537]*0.08022]
#3=[#1+[#2-#1]*0.16147]
X6.25661 Y-2.64080 Z[#3+#4]
#1=[#530+[#531-#530]*0.09191]
#2=[#537+[#538-#537]*0.09191]
#3=[#1+[#2-#1]*0.16373]
X6.25747 Y-2.63677 Z[#3+#4]
#1=[#530+[#531-#530]*0.10283]
#2=[#537+[#538-#537]*0.10283]
#3=[#1+[#2-#1]*0.16816]
X6.25914 Y-2.63301 Z[#3+#4]
#1=[#530+[#531-#530]*0.11250]
#2=[#537+[#538-#537]*0.11250]
#3=[#1+[#2-#1]*0.17456]
X6.26156 Y-2.62968 Z[#3+#4]
#1=[#530+[#531-#530]*0.12050]
#2=[#537+[#538-#537]*0.12050]
#3=[#1+[#2-#1]*0.18264]
X6.26462 Y-2.62693 Z[#3+#4]
#1=[#530+[#531-#530]*0.12648]
#2=[#537+[#538-#537]*0.12648]
#3=[#1+[#2-#1]*0.19207]
X6.26818 Y-2.62487 Z[#3+#4]
#1=[#530+[#531-#530]*0.13017]
#2=[#537+[#538-#537]*0.13017]
#3=[#1+[#2-#1]*0.20242]
X6.27210 Y-2.62360 Z[#3+#4]
#1=[#530+[#531-#530]*0.13142]
#2=[#537+[#538-#537]*0.13142]
#3=[#1+[#2-#1]*0.35009]
X6.32793 Y-2.62317 Z[#3+#4]
#1=[#530+[#531-#530]*0.55840]
#2=[#537+[#538-#537]*0.55840]
#3=[#1+[#2-#1]*0.35009]
X6.32793 Y-2.47619 Z[#3+#4]
#1=[#530+[#531-#530]*0.57029]
#2=[#537+[#538-#537]*0.57029]
#3=[#1+[#2-#1]*0.35123]
X6.32836 Y-2.47210 Z[#3+#4]
#1=[#530+[#531-#530]*0.58166]
#2=[#537+[#538-#537]*0.58166]
#3=[#1+[#2-#1]*0.35459]
X6.32963 Y-2.46818 Z[#3+#4]
#1=[#530+[#531-#530]*0.59201]
#2=[#537+[#538-#537]*0.59201]
#3=[#1+[#2-#1]*0.36003]
X6.33169 Y-2.46462 Z[#3+#4]
#1=[#530+[#531-#530]*0.60089]
#2=[#537+[#538-#537]*0.60089]
#3=[#1+[#2-#1]*0.36731]
X6.33445 Y-2.46156 Z[#3+#4]
#1=[#530+[#531-#530]*0.60792]
#2=[#537+[#538-#537]*0.60792]
#3=[#1+[#2-#1]*0.37612]
X6.33778 Y-2.45914 Z[#3+#4]
#1=[#530+[#531-#530]*0.61278]
#2=[#537+[#538-#537]*0.61278]
#3=[#1+[#2-#1]*0.38606]
X6.34154 Y-2.45747 Z[#3+#4]
#1=[#530+[#531-#530]*0.61527]
#2=[#537+[#538-#537]*0.61527]
#3=[#1+[#2-#1]*0.39671]
X6.34556 Y-2.45661 Z[#3+#4]
#1=[#530+[#531-#530]*0.61527]
#2=[#537+[#538-#537]*0.61527]
#3=[#1+[#2-#1]*0.40759]
X6.34968 Y-2.45661 Z[#3+#4]
#1=[#530+[#531-#530]*0.61278]
#2=[#537+[#538-#537]*0.61278]
#3=[#1+[#2-#1]*0.41824]
X6.35370 Y-2.45747 Z[#3+#4]
#1=[#530+[#531-#530]*0.60792]
#2=[#537+[#538-#537]*0.60792]
#3=[#1+[#2-#1]*0.42818]
X6.35746 Y-2.45914 Z[#3+#4]
#1=[#530+[#531-#530]*0.60089]
#2=[#537+[#538-#537]*0.60089]
#3=[#1+[#2-#1]*0.43698]
X6.36079 Y-2.46156 Z[#3+#4]
#1=[#530+[#531-#530]*0.59201]
#2=[#537+[#538-#537]*0.59201]
#3=[#1+[#2-#1]*0.44427]
X6.36354 Y-2.46462 Z[#3+#4]
#1=[#530+[#531-#530]*0.58166]
#2=[#537+[#538-#537]*0.58166]
#3=[#1+[#2-#1]*0.44971]
X6.36560 Y-2.46818 Z[#3+#4]
#1=[#530+[#531-#530]*0.57029]
#2=[#537+[#538-#537]*0.57029]
#3=[#1+[#2-#1]*0.45307]
X6.36687 Y-2.47210 Z[#3+#4]
#1=[#530+[#531-#530]*0.55840]
#2=[#537+[#538-#537]*0.55840]
#3=[#1+[#2-#1]*0.45421]
X6.36730 Y-2.47619 Z[#3+#4]
#1=[#530+[#531-#530]*0.13142]
#2=[#537+[#538-#537]*0.13142]
#3=[#1+[#2-#1]*0.45421]
X6.36730 Y-2.62317 Z[#3+#4]
#1=[#530+[#531-#530]*0.13142]
#2=[#537+[#538-#537]*0.13142]
#3=[#1+[#2-#1]*0.71699]
X6.46667 Y-2.62317 Z[#3+#4]
#1=[#530+[#531-#530]*0.13017]
#2=[#537+[#538-#537]*0.13017]
#3=[#1+[#2-#1]*0.72781]
X6.47076 Y-2.62360 Z[#3+#4]
#1=[#530+[#531-#530]*0.12648]
#2=[#537+[#538-#537]*0.12648]
#3=[#1+[#2-#1]*0.73816]
X6.47467 Y-2.62487 Z[#3+#4]
#1=[#530+[#531-#530]*0.12050]
#2=[#537+[#538-#537]*0.12050]
#3=[#1+[#2-#1]*0.74759]
X6.47824 Y-2.62693 Z[#3+#4]
#1=[#530+[#531-#530]*0.11250]
#2=[#537+[#538-#537]*0.11250]
#3=[#1+[#2-#1]*0.75568]
X6.48130 Y-2.62968 Z[#3+#4]
#1=[#530+[#531-#530]*0.10283]
#2=[#537+[#538-#537]*0.10283]
#3=[#1+[#2-#1]*0.76207]
X6.48371 Y-2.63301 Z[#3+#4]
#1=[#530+[#531-#530]*0.09191]
#2=[#537+[#538-#537]*0.09191]
#3=[#1+[#2-#1]*0.76650]
X6.48539 Y-2.63677 Z[#3+#4]
#1=[#530+[#531-#530]*0.08022]
#2=[#537+[#538-#537]*0.08022]
#3=[#1+[#2-#1]*0.76876]
X6.48624 Y-2.64080 Z[#3+#4]
#1=[#530+[#531-#530]*0.06826]
#2=[#537+[#538-#537]*0.06826]
#3=[#1+[#2-#1]*0.76876]
X6.48624 Y-2.64491 Z[#3+#4]
#1=[#530+[#531-#530]*0.05657]
#2=[#537+[#538-#537]*0.05657]
#3=[#1+[#2-#1]*0.76650]
X6.48539 Y-2.64894 Z[#3+#4]
#1=[#530+[#531-#530]*0.04565]
#2=[#537+[#538-#537]*0.04565]
#3=[#1+[#2-#1]*0.76207]
X6.48371 Y-2.65270 Z[#3+#4]
#1=[#530+[#531-#530]*0.03598]
#2=[#537+[#538-#537]*0.03598]
#3=[#1+[#2-#1]*0.75568]
X6.48130 Y-2.65603 Z[#3+#4]
#1=[#530+[#531-#530]*0.02798]
#2=[#537+[#538-#537]*0.02798]
#3=[#1+[#2-#1]*0.74759]
X6.47824 Y-2.65878 Z[#3+#4]
#1=[#530+[#531-#530]*0.02200]
#2=[#537+[#538-#537]*0.02200]
#3=[#1+[#2-#1]*0.73816]
X6.47467 Y-2.66084 Z[#3+#4]
#1=[#530+[#531-#530]*0.01830]
#2=[#537+[#538-#537]*0.01830]
#3=[#1+[#2-#1]*0.72781]
X6.47076 Y-2.66211 Z[#3+#4]
#1=[#530+[#531-#530]*0.01705]
#2=[#537+[#538-#537]*0.01705]
#3=[#1+[#2-#1]*0.71699]
X6.46667 Y-2.66254 Z[#3+#4]
#1=[#530+[#531-#530]*0.01705]
#2=[#537+[#538-#537]*0.01705]
#3=[#1+[#2-#1]*0.45421]
X6.36730 Y-2.66254 Z[#3+#4]
#1=[#529+[#530-#529]*0.32692]
#2=[#536+[#537-#536]*0.32692]
#3=[#1+[#2-#1]*0.45421]
X6.36730 Y-2.90011 Z[#3+#4]
#1=[#529+[#530-#529]*0.21771]
#2=[#536+[#537-#536]*0.21771]
#3=[#1+[#2-#1]*0.50392]
X6.38610 Y-2.93771 Z[#3+#4]
#1=[#529+[#530-#529]*0.16311]
#2=[#536+[#537-#536]*0.16311]
#3=[#1+[#2-#1]*0.60334]
X6.42369 Y-2.95650 Z[#3+#4]
#1=[#529+[#530-#529]*0.16311]
#2=[#536+[#537-#536]*0.16311]
#3=[#1+[#2-#1]*0.71699]
X6.46667 Y-2.95650 Z[#3+#4]
#1=[#529+[#530-#529]*0.16186]
#2=[#536+[#537-#536]*0.16186]
#3=[#1+[#2-#1]*0.72781]
X6.47076 Y-2.95694 Z[#3+#4]
#1=[#529+[#530-#529]*0.15816]
#2=[#536+[#537-#536]*0.15816]
#3=[#1+[#2-#1]*0.73816]
X6.47467 Y-2.95821 Z[#3+#4]
#1=[#529+[#530-#529]*0.15219]
#2=[#536+[#537-#536]*0.15219]
#3=[#1+[#2-#1]*0.74759]
X6.47824 Y-2.96026 Z[#3+#4]
#1=[#529+[#530-#529]*0.14419]
#2=[#536+[#537-#536]*0.14419]
#3=[#1+[#2-#1]*0.75568]
X6.48130 Y-2.96302 Z[#3+#4]
#1=[#529+[#530-#529]*0.13452]
#2=[#536+[#537-#536]*0.13452]
#3=[#1+[#2-#1]*0.76207]
X6.48371 Y-2.96635 Z[#3+#4]
#1=[#529+[#530-#529]*0.12359]
#2=[#536+[#537-#536]*0.12359]
#3=[#1+[#2-#1]*0.76650]
X6.48539 Y-2.97011 Z[#3+#4]
#1=[#529+[#530-#529]*0.11190]
#2=[#536+[#537-#536]*0.11190]
#3=[#1+[#2-#1]*0.76876]
X6.48624 Y-2.97413 Z[#3+#4]
#1=[#529+[#530-#529]*0.09995]
#2=[#536+[#537-#536]*0.09995]
#3=[#1+[#2-#1]*0.76876]
X6.48624 Y-2.97825 Z[#3+#4]
#1=[#529+[#530-#529]*0.08825]
#2=[#536+[#537-#536]*0.08825]
#3=[#1+[#2-#1]*0.76650]
X6.48539 Y-2.98227 Z[#3+#4]
#1=[#529+[#530-#529]*0.07733]
#2=[#536+[#537-#536]*0.07733]
#3=[#1+[#2-#1]*0.76207]
X6.48371 Y-2.98603 Z[#3+#4]
#1=[#529+[#530-#529]*0.06766]
#2=[#536+[#537-#536]*0.06766]
#3=[#1+[#2-#1]*0.75568]
X6.48130 Y-2.98936 Z[#3+#4]
#1=[#529+[#530-#529]*0.05966]
#2=[#536+[#537-#536]*0.05966]
#3=[#1+[#2-#1]*0.74759]
X6.47824 Y-2.99212 Z[#3+#4]
#1=[#529+[#530-#529]*0.05368]
#2=[#536+[#537-#536]*0.05368]
#3=[#1+[#2-#1]*0.73816]
X6.47467 Y-2.99417 Z[#3+#4]
#1=[#529+[#530-#529]*0.04999]
#2=[#536+[#537-#536]*0.04999]
#3=[#1+[#2-#1]*0.72781]
X6.47076 Y-2.99545 Z[#3+#4]
#1=[#529+[#530-#529]*0.04874]
#2=[#536+[#537-#536]*0.04874]
#3=[#1+[#2-#1]*0.71699]
X6.46667 Y-2.99587 Z[#3+#4]
#1=[#529+[#530-#529]*0.04942]
#2=[#536+[#537-#536]*0.04942]
#3=[#1+[#2-#1]*0.58304]
X6.41602 Y-2.99564 Z[#3+#4]
#1=[#529+[#530-#529]*0.05478]
#2=[#536+[#537-#536]*0.05478]
#3=[#1+[#2-#1]*0.56777]
X6.41024 Y-2.99380 Z[#3+#4]
#1=[#529+[#530-#529]*0.12394]
#2=[#536+[#537-#536]*0.12394]
#3=[#1+[#2-#1]*0.44184]
X6.36263 Y-2.96999 Z[#3+#4]
#1=[#529+[#530-#529]*0.12870]
#2=[#536+[#537-#536]*0.12870]
#3=[#1+[#2-#1]*0.43468]
X6.35992 Y-2.96835 Z[#3+#4]
#1=[#529+[#530-#529]*0.14165]
#2=[#536+[#537-#536]*0.14165]
#3=[#1+[#2-#1]*0.42288]
X6.35546 Y-2.96389 Z[#3+#4]
#1=[#529+[#530-#529]*0.28785]
#2=[#536+[#537-#536]*0.28785]
#3=[#1+[#2-#1]*0.35559]
X6.33001 Y-2.91357 Z[#3+#4]
#1=[#529+[#530-#529]*0.30462]
#2=[#536+[#537-#536]*0.30462]
#3=[#1+[#2-#1]*0.35071]
X6.32817 Y-2.90779 Z[#3+#4]
#1=[#530+[#531-#530]*0.01705]
#2=[#537+[#538-#537]*0.01705]
#3=[#1+[#2-#1]*0.35009]
X6.32793 Y-2.66254 Z[#3+#4]
#1=[#530+[#531-#530]*0.01830]
#2=[#537+[#538-#537]*0.01830]
#3=[#1+[#2-#1]*0.20242]
X6.27210 Y-2.66211 Z[#3+#4]
#1=[#530+[#531-#530]*0.02200]
#2=[#537+[#538-#537]*0.02200]
#3=[#1+[#2-#1]*0.19207]
X6.26818 Y-2.66084 Z[#3+#4]
#1=[#530+[#531-#530]*0.02798]
#2=[#537+[#538-#537]*0.02798]
#3=[#1+[#2-#1]*0.18264]
X6.26462 Y-2.65878 Z[#3+#4]
#1=[#530+[#531-#530]*0.03598]
#2=[#537+[#538-#537]*0.03598]
#3=[#1+[#2-#1]*0.17456]
X6.26156 Y-2.65603 Z[#3+#4]
#1=[#530+[#531-#530]*0.04565]
#2=[#537+[#538-#537]*0.04565]
#3=[#1+[#2-#1]*0.16816]
X6.25914 Y-2.65270 Z[#3+#4]
#1=[#530+[#531-#530]*0.05657]
#2=[#537+[#538-#537]*0.05657]
#3=[#1+[#2-#1]*0.16373]
X6.25747 Y-2.64894 Z[#3+#4]
#1=[#530+[#531-#530]*0.06826]
#2=[#537+[#538-#537]*0.06826]
#3=[#1+[#2-#1]*0.16147]
X6.25661 Y-2.64491 Z[#3+#4]
G04 P0 ( dwell for no time -- G64 should not smooth over this point )
G00 Z0.08000 ( retract )

G00 X6.49510 Y-3.30051 ( rapid move to begin. )
G01 F180.00000
#1=[#528+[#529-#528]*0.16378]
#2=[#535+[#536-#535]*0.16378]
#3=[#1+[#2-#1]*0.79220]
G01 Z[-0.04000+#111]
G04 P0 ( dwell for no time -- G64 should not smooth over this point )
G01 F360.00000
#1=[#528+[#529-#528]*0.16969]
#2=[#535+[#536-#535]*0.16969]
#3=[#1+[#2-#1]*0.79277]
X6.49532 Y-3.29848 Z[#3+#4]
#1=[#528+[#529-#528]*0.17484]
#2=[#535+[#536-#535]*0.17484]
#3=[#1+[#2-#1]*0.79547]
X6.49634 Y-3.29671 Z[#3+#4]
#1=[#528+[#529-#528]*0.17926]
#2=[#535+[#536-#535]*0.17926]
#3=[#1+[#2-#1]*0.80244]
X6.49898 Y-3.29519 Z[#3+#4]
#1=[#528+[#529-#528]*0.17957]
#2=[#535+[#536-#535]*0.17957]
#3=[#1+[#2-#1]*0.92436]
X6.54508 Y-3.29508 Z[#3+#4]
#1=[#528+[#529-#528]*0.31052]
#2=[#535+[#536-#535]*0.31052]
#3=[#1+[#2-#1]*0.92436]
X6.54508 Y-3.25000 Z[#3+#4]
#1=[#528+[#529-#528]*0.31893]
#2=[#535+[#536-#535]*0.31893]
#3=[#1+[#2-#1]*0.92685]
X6.54602 Y-3.24711 Z[#3+#4]
#1=[#528+[#529-#528]*0.32290]
#2=[#535+[#536-#535]*0.32290]
#3=[#1+[#2-#1]*0.93087]
X6.54754 Y-3.24574 Z[#3+#4]
#1=[#528+[#529-#528]*0.32474]
#2=[#535+[#536-#535]*0.32474]
#3=[#1+[#2-#1]*0.93602]
X6.54948 Y-3.24511 Z[#3+#4]
#1=[#528+[#529-#528]*0.32412]
#2=[#535+[#536-#535]*0.32412]
#3=[#1+[#2-#1]*0.94140]
X6.55152 Y-3.24532 Z[#3+#4]
#1=[#528+[#529-#528]*0.32115]
#2=[#535+[#536-#535]*0.32115]
#3=[#1+[#2-#1]*0.94608]
X6.55329 Y-3.24634 Z[#3+#4]
#1=[#528+[#529-#528]*0.31350]
#2=[#535+[#536-#535]*0.31350]
#3=[#1+[#2-#1]*0.95011]
X6.55481 Y-3.24898 Z[#3+#4]
#1=[#528+[#529-#528]*0.17957]
#2=[#535+[#536-#535]*0.17957]
#3=[#1+[#2-#1]*0.95039]
X6.55492 Y-3.29508 Z[#3+#4]
#1=[#535+[#536-#535]*0.17957]
#2=[#542+[#543-#542]*0.17957]
#3=[#1+[#2-#1]*0.06961]
X6.60000 Y-3.29508 Z[#3+#4]
#1=[#535+[#536-#535]*0.17684]
#2=[#542+[#543-#542]*0.17684]
#3=[#1+[#2-#1]*0.07726]
X6.60289 Y-3.29602 Z[#3+#4]
#1=[#535+[#536-#535]*0.17242]
#2=[#542+[#543-#542]*0.17242]
#3=[#1+[#2-#1]*0.08088]
X6.60426 Y-3.29754 Z[#3+#4]
#1=[#535+[#536-#535]*0.16677]
#2=[#542+[#543-#542]*0.16677]
#3=[#1+[#2-#1]*0.08255]
X6.60489 Y-3.29948 Z[#3+#4]
#1=[#535+[#536-#535]*0.16086]
#2=[#542+[#543-#542]*0.16086]
#3=[#1+[#2-#1]*0.08199]
X6.60468 Y-3.30152 Z[#3+#4]
#1=[#535+[#536-#535]*0.15571]
#2=[#542+[#543-#542]*0.15571]
#3=[#1+[#2-#1]*0.07928]
X6.60366 Y-3.30329 Z[#3+#4]
#1=[#535+[#536-#535]*0.15129]
#2=[#542+[#543-#542]*0.15129]
#3=[#1+[#2-#1]*0.07232]
X6.60102 Y-3.30481 Z[#3+#4]
#1=[#528+[#529-#528]*0.15098]
#2=[#535+[#536-#535]*0.15098]
#3=[#1+[#2-#1]*0.95039]
X6.55492 Y-3.30492 Z[#3+#4]
#1=[#528+[#529-#528]*0.02003]
#2=[#535+[#536-#535]*0.02003]
#3=[#1+[#2-#1]*0.95039]
X6.55492 Y-3.35000 Z[#3+#4]
#1=[#528+[#529-#528]*0.01163]
#2=[#535+[#536-#535]*0.01163]
#3=[#1+[#2-#1]*0.94791]
X6.55398 Y-3.35289 Z[#3+#4]
#1=[#528+[#529-#528]*0.00765]
#2=[#535+[#536-#535]*0.00765]
#3=[#1+[#2-#1]*0.94388]
X6.55246 Y-3.35426 Z[#3+#4]
#1=[#528+[#529-#528]*0.00581]
#2=[#535+[#536-#535]*0.00581]
#3=[#1+[#2-#1]*0.93874]
X6.55051 Y-3.35489 Z[#3+#4]
#1=[#528+[#529-#528]*0.00643]
#2=[#535+[#536-#535]*0.00643]
#3=[#1+[#2-#1]*0.93336]
X6.54848 Y-3.35468 Z[#3+#4]
#1=[#528+[#529-#528]*0.00940]
#2=[#535+[#536-#535]*0.00940]
#3=[#1+[#2-#1]*0.92867]
X6.54671 Y-3.35366 Z[#3+#4]
#1=[#528+[#529-#528]*0.01705]
#2=[#535+[#536-#535]*0.01705]
#3=[#1+[#2-#1]*0.92465]
X6.54519 Y-3.35102 Z[#3+#4]
#1=[#528+[#529-#528]*0.15098]
#2=[#535+[#536-#535]*0.15098]
#3=[#1+[#2-#1]*0.92436]
X6.54508 Y-3.30492 Z[#3+#4]
#1=[#528+[#529-#528]*0.15098]
#2=[#535+[#536-#535]*0.15098]
#3=[#1+[#2-#1]*0.80515]
X6.50000 Y-3.30492 Z[#3+#4]
#1=[#528+[#529-#528]*0.15371]
#2=[#535+[#536-#535]*0.15371]
#3=[#1+[#2-#1]*0.79749]
X6.49711 Y-3.30398 Z[#3+#4]
#1=[#528+[#529-#528]*0.15813]
#2=[#535+[#536-#535]*0.15813]
#3=[#1+[#2-#1]*0.79387]
X6.49574 Y-3.30246 Z[#3+#4]
#1=[#528+[#529-#528]*0.16378]
#2=[#535+[#536-#535]*0.16378]
#3=[#1+[#2-#1]*0.79220]
X6.49510 Y-3.30051 Z[#3+#4]
( Piece #2, position [1;0] )

G04 P0 ( dwell for no time -- G64 should not smooth over this point )
G00 Z0.08000 ( retract )

G00 X6.74813 Y-2.97619 ( rapid move to begin. )
G01 F180.00000
#1=[#536+[#537-#536]*0.10592]
#2=[#543+[#544-#543]*0.10592]
#3=[#1+[#2-#1]*0.46137]
G01 Z[-0.04000+#111]
G04 P0 ( dwell for no time -- G64 should not smooth over this point )
G01 F360.00000
#1=[#536+[#537-#536]*0.83216]
#2=[#543+[#544-#543]*0.83216]
#3=[#1+[#2-#1]*0.46137]
X6.74813 Y-2.72619 Z[#3+#4]
#1=[#537+[#538-#537]*0.55840]
#2=[#544+[#545-#544]*0.55840]
#3=[#1+[#2-#1]*0.46137]
X6.74813 Y-2.47619 Z[#3+#4]
#1=[#537+[#538-#537]*0.58028]
#2=[#544+[#545-#544]*0.58028]
#3=[#1+[#2-#1]*0.46533]
X6.74963 Y-2.46866 Z[#3+#4]
#1=[#537+[#538-#537]*0.59016]
#2=[#544+[#545-#544]*0.59016]
#3=[#1+[#2-#1]*0.47014]
X6.75145 Y-2.46525 Z[#3+#4]
#1=[#537+[#538-#537]*0.60594]
#2=[#544+[#545-#544]*0.60594]
#3=[#1+[#2-#1]*0.48451]
X6.75688 Y-2.45982 Z[#3+#4]
#1=[#537+[#538-#537]*0.61123]
#2=[#544+[#545-#544]*0.61123]
#3=[#1+[#2-#1]*0.49351]
X6.76028 Y-2.45800 Z[#3+#4]
#1=[#537+[#538-#537]*0.61558]
#2=[#544+[#545-#544]*0.61558]
#3=[#1+[#2-#1]*0.51343]
X6.76782 Y-2.45650 Z[#3+#4]
#1=[#544+[#545-#544]*0.61558]
#2=[#551+[#552-#551]*0.61558]
#3=[#1+[#2-#1]*0.14311]
X7.00591 Y-2.45650 Z[#3+#4]
#1=[#544+[#545-#544]*0.61433]
#2=[#551+[#552-#551]*0.61433]
#3=[#1+[#2-#1]*0.15393]
X7.01000 Y-2.45694 Z[#3+#4]
#1=[#544+[#545-#544]*0.61064]
#2=[#551+[#552-#551]*0.61064]
#3=[#1+[#2-#1]*0.16428]
X7.01392 Y-2.45821 Z[#3+#4]
#1=[#544+[#545-#544]*0.60466]
#2=[#551+[#552-#551]*0.60466]
#3=[#1+[#2-#1]*0.17371]
X7.01748 Y-2.46026 Z[#3+#4]
#1=[#544+[#545-#544]*0.59666]
#2=[#551+[#552-#551]*0.59666]
#3=[#1+[#2-#1]*0.18180]
X7.02054 Y-2.46302 Z[#3+#4]
#1=[#544+[#545-#544]*0.58699]
#2=[#551+[#552-#551]*0.58699]
#3=[#1+[#2-#1]*0.18819]
X7.02296 Y-2.46635 Z[#3+#4]
#1=[#544+[#545-#544]*0.57607]
#2=[#551+[#552-#551]*0.57607]
#3=[#1+[#2-#1]*0.19262]
X7.02463 Y-2.47011 Z[#3+#4]
#1=[#544+[#545-#544]*0.56437]
#2=[#551+[#552-#551]*0.56437]
#3=[#1+[#2-#1]*0.19488]
X7.02549 Y-2.47413 Z[#3+#4]
#1=[#544+[#545-#544]*0.55242]
#2=[#551+[#552-#551]*0.55242]
#3=[#1+[#2-#1]*0.19488]
X7.02549 Y-2.47825 Z[#3+#4]
#1=[#544+[#545-#544]*0.54072]
#2=[#551+[#552-#551]*0.54072]
#3=[#1+[#2-#1]*0.19262]
X7.02463 Y-2.48227 Z[#3+#4]
#1=[#544+[#545-#544]*0.52981]
#2=[#551+[#552-#551]*0.52981]
#3=[#1+[#2-#1]*0.18819]
X7.02296 Y-2.48603 Z[#3+#4]
#1=[#544+[#545-#544]*0.52013]
#2=[#551+[#552-#551]*0.52013]
#3=[#1+[#2-#1]*0.18180]
X7.02054 Y-2.48936 Z[#3+#4]
#1=[#544+[#545-#544]*0.51213]
#2=[#551+[#552-#551]*0.51213]
#3=[#1+[#2-#1]*0.17371]
X7.01748 Y-2.49212 Z[#3+#4]
#1=[#544+[#545-#544]*0.50616]
#2=[#551+[#552-#551]*0.50616]
#3=[#1+[#2-#1]*0.16428]
X7.01392 Y-2.49417 Z[#3+#4]
#1=[#544+[#545-#544]*0.50246]
#2=[#551+[#552-#551]*0.50246]
#3=[#1+[#2-#1]*0.15393]
X7.01000 Y-2.49545 Z[#3+#4]
#1=[#544+[#545-#544]*0.50121]
#2=[#551+[#552-#551]*0.50121]
#3=[#1+[#2-#1]*0.14311]
X7.00591 Y-2.49587 Z[#3+#4]
#1=[#537+[#538-#537]*0.50121]
#2=[#544+[#545-#544]*0.50121]
#3=[#1+[#2-#1]*0.56549]
X6.78750 Y-2.49587 Z[#3+#4]
#1=[#536+[#537-#536]*0.92393]
#2=[#543+[#544-#543]*0.92393]
#3=[#1+[#2-#1]*0.56549]
X6.78750 Y-2.69460 Z[#3+#4]
#1=[#536+[#537-#536]*0.92393]
#2=[#543+[#544-#543]*0.92393]
#3=[#1+[#2-#1]*0.95421]
X6.93448 Y-2.69460 Z[#3+#4]
#1=[#536+[#537-#536]*0.92268]
#2=[#543+[#544-#543]*0.92268]
#3=[#1+[#2-#1]*0.96503]
X6.93858 Y-2.69503 Z[#3+#4]
#1=[#536+[#537-#536]*0.91898]
#2=[#543+[#544-#543]*0.91898]
#3=[#1+[#2-#1]*0.97538]
X6.94249 Y-2.69630 Z[#3+#4]
#1=[#536+[#537-#536]*0.91300]
#2=[#543+[#544-#543]*0.91300]
#3=[#1+[#2-#1]*0.98481]
X6.94605 Y-2.69836 Z[#3+#4]
#1=[#536+[#537-#536]*0.90501]
#2=[#543+[#544-#543]*0.90501]
#3=[#1+[#2-#1]*0.99289]
X6.94911 Y-2.70111 Z[#3+#4]
#1=[#536+[#537-#536]*0.89533]
#2=[#543+[#544-#543]*0.89533]
#3=[#1+[#2-#1]*0.99929]
X6.95153 Y-2.70444 Z[#3+#4]
#1=[#543+[#544-#543]*0.88441]
#2=[#550+[#551-#550]*0.88441]
#3=[#1+[#2-#1]*0.00372]
X6.95320 Y-2.70820 Z[#3+#4]
#1=[#543+[#544-#543]*0.87272]
#2=[#550+[#551-#550]*0.87272]
#3=[#1+[#2-#1]*0.00598]
X6.95406 Y-2.71223 Z[#3+#4]
#1=[#543+[#544-#543]*0.86076]
#2=[#550+[#551-#550]*0.86076]
#3=[#1+[#2-#1]*0.00598]
X6.95406 Y-2.71634 Z[#3+#4]
#1=[#543+[#544-#543]*0.84907]
#2=[#550+[#551-#550]*0.84907]
#3=[#1+[#2-#1]*0.00372]
X6.95320 Y-2.72037 Z[#3+#4]
#1=[#536+[#537-#536]*0.83815]
#2=[#543+[#544-#543]*0.83815]
#3=[#1+[#2-#1]*0.99929]
X6.95153 Y-2.72413 Z[#3+#4]
#1=[#536+[#537-#536]*0.82848]
#2=[#543+[#544-#543]*0.82848]
#3=[#1+[#2-#1]*0.99289]
X6.94911 Y-2.72746 Z[#3+#4]
#1=[#536+[#537-#536]*0.82048]
#2=[#543+[#544-#543]*0.82048]
#3=[#1+[#2-#1]*0.98481]
X6.94605 Y-2.73021 Z[#3+#4]
#1=[#536+[#537-#536]*0.81450]
#2=[#543+[#544-#543]*0.81450]
#3=[#1+[#2-#1]*0.97538]
X6.94249 Y-2.73227 Z[#3+#4]
#1=[#536+[#537-#536]*0.81081]
#2=[#543+[#544-#543]*0.81081]
#3=[#1+[#2-#1]*0.96503]
X6.93858 Y-2.73354 Z[#3+#4]
#1=[#536+[#537-#536]*0.80956]
#2=[#543+[#544-#543]*0.80956]
#3=[#1+[#2-#1]*0.95421]
X6.93448 Y-2.73397 Z[#3+#4]
#1=[#536+[#537-#536]*0.80956]
#2=[#543+[#544-#543]*0.80956]
#3=[#1+[#2-#1]*0.56549]
X6.78750 Y-2.73397 Z[#3+#4]
#1=[#536+[#537-#536]*0.10592]
#2=[#543+[#544-#543]*0.10592]
#3=[#1+[#2-#1]*0.56549]
X6.78750 Y-2.97619 Z[#3+#4]
#1=[#536+[#537-#536]*0.09403]
#2=[#543+[#544-#543]*0.09403]
#3=[#1+[#2-#1]*0.56435]
X6.78707 Y-2.98028 Z[#3+#4]
#1=[#536+[#537-#536]*0.08266]
#2=[#543+[#544-#543]*0.08266]
#3=[#1+[#2-#1]*0.56099]
X6.78580 Y-2.98420 Z[#3+#4]
#1=[#536+[#537-#536]*0.07231]
#2=[#543+[#544-#543]*0.07231]
#3=[#1+[#2-#1]*0.55555]
X6.78374 Y-2.98776 Z[#3+#4]
#1=[#536+[#537-#536]*0.06343]
#2=[#543+[#544-#543]*0.06343]
#3=[#1+[#2-#1]*0.54826]
X6.78099 Y-2.99082 Z[#3+#4]
#1=[#536+[#537-#536]*0.05640]
#2=[#543+[#544-#543]*0.05640]
#3=[#1+[#2-#1]*0.53946]
X6.77766 Y-2.99324 Z[#3+#4]
#1=[#536+[#537-#536]*0.05154]
#2=[#543+[#544-#543]*0.05154]
#3=[#1+[#2-#1]*0.52952]
X6.77390 Y-2.99491 Z[#3+#4]
#1=[#536+[#537-#536]*0.04905]
#2=[#543+[#544-#543]*0.04905]
#3=[#1+[#2-#1]*0.51887]
X6.76987 Y-2.99577 Z[#3+#4]
#1=[#536+[#537-#536]*0.04905]
#2=[#543+[#544-#543]*0.04905]
#3=[#1+[#2-#1]*0.50799]
X6.76576 Y-2.99577 Z[#3+#4]
#1=[#536+[#537-#536]*0.05154]
#2=[#543+[#544-#543]*0.05154]
#3=[#1+[#2-#1]*0.49734]
X6.76173 Y-2.99491 Z[#3+#4]
#1=[#536+[#537-#536]*0.05640]
#2=[#543+[#544-#543]*0.05640]
#3=[#1+[#2-#1]*0.48740]
X6.75797 Y-2.99324 Z[#3+#4]
#1=[#536+[#537-#536]*0.06343]
#2=[#543+[#544-#543]*0.06343]
#3=[#1+[#2-#1]*0.47859]
X6.75464 Y-2.99082 Z[#3+#4]
#1=[#536+[#537-#536]*0.07231]
#2=[#543+[#544-#543]*0.07231]
#3=[#1+[#2-#1]*0.47131]
X6.75189 Y-2.98776 Z[#3+#4]
#1=[#536+[#537-#536]*0.08266]
#2=[#543+[#544-#543]*0.08266]
#3=[#1+[#2-#1]*0.46587]
X6.74983 Y-2.98420 Z[#3+#4]
#1=[#536+[#537-#536]*0.09403]
#2=[#543+[#544-#543]*0.09403]
#3=[#1+[#2-#1]*0.46251]
X6.74856 Y-2.98028 Z[#3+#4]
#1=[#536+[#537-#536]*0.10592]
#2=[#543+[#544-#543]*0.10592]
#3=[#1+[#2-#1]*0.46137]
X6.74813 Y-2.97619 Z[#3+#4]
G04 P0 ( dwell for no time -- G64 should not smooth over this point )
G00 Z0.08000 ( retract )

G00 X7.17670 Y-2.97619 ( rapid move to begin. )
G01 F180.00000
#1=[#543+[#544-#543]*0.10592]
#2=[#550+[#551-#550]*0.10592]
#3=[#1+[#2-#1]*0.59479]
G01 Z[-0.04000+#111]
G04 P0 ( dwell for no time -- G64 should not smooth over this point )
G01 F360.00000
#1=[#544+[#545-#544]*0.07424]
#2=[#551+[#552-#551]*0.07424]
#3=[#1+[#2-#1]*0.59479]
X7.17670 Y-2.64286 Z[#3+#4]
#1=[#544+[#545-#544]*0.08613]
#2=[#551+[#552-#551]*0.08613]
#3=[#1+[#2-#1]*0.59593]
X7.17713 Y-2.63876 Z[#3+#4]
#1=[#544+[#545-#544]*0.09750]
#2=[#551+[#552-#551]*0.09750]
#3=[#1+[#2-#1]*0.59930]
X7.17840 Y-2.63485 Z[#3+#4]
#1=[#544+[#545-#544]*0.10785]
#2=[#551+[#552-#551]*0.10785]
#3=[#1+[#2-#1]*0.60474]
X7.18046 Y-2.63129 Z[#3+#4]
#1=[#544+[#545-#544]*0.11673]
#2=[#551+[#552-#551]*0.11673]
#3=[#1+[#2-#1]*0.61202]
X7.18322 Y-2.62823 Z[#3+#4]
#1=[#544+[#545-#544]*0.12376]
#2=[#551+[#552-#551]*0.12376]
#3=[#1+[#2-#1]*0.62082]
X7.18654 Y-2.62581 Z[#3+#4]
#1=[#544+[#545-#544]*0.12862]
#2=[#551+[#552-#551]*0.12862]
#3=[#1+[#2-#1]*0.63077]
X7.19030 Y-2.62413 Z[#3+#4]
#1=[#544+[#545-#544]*0.13111]
#2=[#551+[#552-#551]*0.13111]
#3=[#1+[#2-#1]*0.64141]
X7.19433 Y-2.62328 Z[#3+#4]
#1=[#544+[#545-#544]*0.13111]
#2=[#551+[#552-#551]*0.13111]
#3=[#1+[#2-#1]*0.65229]
X7.19844 Y-2.62328 Z[#3+#4]
#1=[#544+[#545-#544]*0.12862]
#2=[#551+[#552-#551]*0.12862]
#3=[#1+[#2-#1]*0.66294]
X7.20247 Y-2.62413 Z[#3+#4]
#1=[#544+[#545-#544]*0.12376]
#2=[#551+[#552-#551]*0.12376]
#3=[#1+[#2-#1]*0.67288]
X7.20623 Y-2.62581 Z[#3+#4]
#1=[#544+[#545-#544]*0.11673]
#2=[#551+[#552-#551]*0.11673]
#3=[#1+[#2-#1]*0.68169]
X7.20956 Y-2.62823 Z[#3+#4]
#1=[#544+[#545-#544]*0.10785]
#2=[#551+[#552-#551]*0.10785]
#3=[#1+[#2-#1]*0.68897]
X7.21231 Y-2.63129 Z[#3+#4]
#1=[#544+[#545-#544]*0.09750]
#2=[#551+[#552-#551]*0.09750]
#3=[#1+[#2-#1]*0.69441]
X7.21437 Y-2.63485 Z[#3+#4]
#1=[#544+[#545-#544]*0.08613]
#2=[#551+[#552-#551]*0.08613]
#3=[#1+[#2-#1]*0.69778]
X7.21564 Y-2.63876 Z[#3+#4]
#1=[#544+[#545-#544]*0.00480]
#2=[#551+[#552-#551]*0.00480]
#3=[#1+[#2-#1]*0.69891]
X7.21607 Y-2.66676 Z[#3+#4]
#1=[#544+[#545-#544]*0.05146]
#2=[#551+[#552-#551]*0.05146]
#3=[#1+[#2-#1]*0.74235]
X7.23250 Y-2.65070 Z[#3+#4]
#1=[#544+[#545-#544]*0.12871]
#2=[#551+[#552-#551]*0.12871]
#3=[#1+[#2-#1]*0.88289]
X7.28564 Y-2.62410 Z[#3+#4]
#1=[#544+[#545-#544]*0.13142]
#2=[#551+[#552-#551]*0.13142]
#3=[#1+[#2-#1]*0.89873]
X7.29163 Y-2.62317 Z[#3+#4]
#1=[#551+[#552-#551]*0.13142]
#2=[#558+[#559-#558]*0.13142]
#3=[#1+[#2-#1]*0.02466]
X7.33924 Y-2.62317 Z[#3+#4]
#1=[#551+[#552-#551]*0.13017]
#2=[#558+[#559-#558]*0.13017]
#3=[#1+[#2-#1]*0.03549]
X7.34334 Y-2.62360 Z[#3+#4]
#1=[#551+[#552-#551]*0.12648]
#2=[#558+[#559-#558]*0.12648]
#3=[#1+[#2-#1]*0.04584]
X7.34725 Y-2.62487 Z[#3+#4]
#1=[#551+[#552-#551]*0.12050]
#2=[#558+[#559-#558]*0.12050]
#3=[#1+[#2-#1]*0.05526]
X7.35082 Y-2.62693 Z[#3+#4]
#1=[#551+[#552-#551]*0.11250]
#2=[#558+[#559-#558]*0.11250]
#3=[#1+[#2-#1]*0.06335]
X7.35387 Y-2.62968 Z[#3+#4]
#1=[#551+[#552-#551]*0.10283]
#2=[#558+[#559-#558]*0.10283]
#3=[#1+[#2-#1]*0.06975]
X7.35629 Y-2.63301 Z[#3+#4]
#1=[#551+[#552-#551]*0.09191]
#2=[#558+[#559-#558]*0.09191]
#3=[#1+[#2-#1]*0.07418]
X7.35797 Y-2.63677 Z[#3+#4]
#1=[#551+[#552-#551]*0.08022]
#2=[#558+[#559-#558]*0.08022]
#3=[#1+[#2-#1]*0.07644]
X7.35882 Y-2.64080 Z[#3+#4]
#1=[#551+[#552-#551]*0.06826]
#2=[#558+[#559-#558]*0.06826]
#3=[#1+[#2-#1]*0.07644]
X7.35882 Y-2.64491 Z[#3+#4]
#1=[#551+[#552-#551]*0.05657]
#2=[#558+[#559-#558]*0.05657]
#3=[#1+[#2-#1]*0.07418]
X7.35797 Y-2.64894 Z[#3+#4]
#1=[#551+[#552-#551]*0.04565]
#2=[#558+[#559-#558]*0.04565]
#3=[#1+[#2-#1]*0.06975]
X7.35629 Y-2.65270 Z[#3+#4]
#1=[#551+[#552-#551]*0.03598]
#2=[#558+[#559-#558]*0.03598]
#3=[#1+[#2-#1]*0.06335]
X7.35387 Y-2.65603 Z[#3+#4]
#1=[#551+[#552-#551]*0.02798]
#2=[#558+[#559-#558]*0.02798]
#3=[#1+[#2-#1]*0.05526]
X7.35082 Y-2.65878 Z[#3+#4]
#1=[#551+[#552-#551]*0.02200]
#2=[#558+[#559-#558]*0.02200]
#3=[#1+[#2-#1]*0.04584]
X7.34725 Y-2.66084 Z[#3+#4]
#1=[#551+[#552-#551]*0.01830]
#2=[#558+[#559-#558]*0.01830]
#3=[#1+[#2-#1]*0.03549]
X7.34334 Y-2.66211 Z[#3+#4]
#1=[#551+[#552-#551]*0.01705]
#2=[#558+[#559-#558]*0.01705]
#3=[#1+[#2-#1]*0.02466]
X7.33924 Y-2.66254 Z[#3+#4]
#1=[#544+[#545-#544]*0.01705]
#2=[#551+[#552-#551]*0.01705]
#3=[#1+[#2-#1]*0.91102]
X7.29627 Y-2.66254 Z[#3+#4]
#1=[#543+[#544-#543]*0.95808]
#2=[#550+[#551-#550]*0.95808]
#3=[#1+[#2-#1]*0.80363]
X7.25567 Y-2.68284 Z[#3+#4]
#1=[#543+[#544-#543]*0.90204]
#2=[#550+[#551-#550]*0.90204]
#3=[#1+[#2-#1]*0.75261]
X7.23638 Y-2.70214 Z[#3+#4]
#1=[#543+[#544-#543]*0.78408]
#2=[#550+[#551-#550]*0.78408]
#3=[#1+[#2-#1]*0.69891]
X7.21607 Y-2.74274 Z[#3+#4]
#1=[#543+[#544-#543]*0.10592]
#2=[#550+[#551-#550]*0.10592]
#3=[#1+[#2-#1]*0.69891]
X7.21607 Y-2.97619 Z[#3+#4]
#1=[#543+[#544-#543]*0.09403]
#2=[#550+[#551-#550]*0.09403]
#3=[#1+[#2-#1]*0.69778]
X7.21564 Y-2.98028 Z[#3+#4]
#1=[#543+[#544-#543]*0.08266]
#2=[#550+[#551-#550]*0.08266]
#3=[#1+[#2-#1]*0.69441]
X7.21437 Y-2.98420 Z[#3+#4]
#1=[#543+[#544-#543]*0.07231]
#2=[#550+[#551-#550]*0.07231]
#3=[#1+[#2-#1]*0.68897]
X7.21231 Y-2.98776 Z[#3+#4]
#1=[#543+[#544-#543]*0.06343]
#2=[#550+[#551-#550]*0.06343]
#3=[#1+[#2-#1]*0.68169]
X7.20956 Y-2.99082 Z[#3+#4]
#1=[#543+[#544-#543]*0.05640]
#2=[#550+[#551-#550]*0.05640]
#3=[#1+[#2-#1]*0.67288]
X7.20623 Y-2.99324 Z[#3+#4]
#1=[#543+[#544-#543]*0.05154]
#2=[#550+[#551-#550]*0.05154]
#3=[#1+[#2-#1]*0.66294]
X7.20247 Y-2.99491 Z[#3+#4]
#1=[#543+[#544-#543]*0.04905]
#2=[#550+[#551-#550]*0.04905]
#3=[#1+[#2-#1]*0.65229]
X7.19844 Y-2.99577 Z[#3+#4]
#1=[#543+[#544-#543]*0.04905]
#2=[#550+[#551-#550]*0.04905]
#3=[#1+[#2-#1]*0.64141]
X7.19433 Y-2.99577 Z[#3+#4]
#1=[#543+[#544-#543]*0.05154]
#2=[#550+[#551-#550]*0.05154]
#3=[#1+[#2-#1]*0.63077]
X7.19030 Y-2.99491 Z[#3+#4]
#1=[#543+[#544-#543]*0.05640]
#2=[#550+[#551-#550]*0.05640]
#3=[#1+[#2-#1]*0.62082]
X7.18654 Y-2.99324 Z[#3+#4]
#1=[#543+[#544-#543]*0.06343]
#2=[#550+[#551-#550]*0.06343]
#3=[#1+[#2-#1]*0.61202]
X7.18322 Y-2.99082 Z[#3+#4]
#1=[#543+[#544-#543]*0.07231]
#2=[#550+[#551-#550]*0.07231]
#3=[#1+[#2-#1]*0.60474]
X7.18046 Y-2.98776 Z[#3+#4]
#1=[#543+[#544-#543]*0.08266]
#2=[#550+[#551-#550]*0.08266]
#3=[#1+[#2-#1]*0.59930]
X7.17840 Y-2.98420 Z[#3+#4]
#1=[#543+[#544-#543]*0.09403]
#2=[#550+[#551-#550]*0.09403]
#3=[#1+[#2-#1]*0.59593]
X7.17713 Y-2.98028 Z[#3+#4]
#1=[#543+[#544-#543]*0.10592]
#2=[#550+[#551-#550]*0.10592]
#3=[#1+[#2-#1]*0.59479]
X7.17670 Y-2.97619 Z[#3+#4]
G04 P0 ( dwell for no time -- G64 should not smooth over this point )
G00 Z0.08000 ( retract )

G00 X7.46242 Y-2.88095 ( rapid move to begin. )
G01 F180.00000
#1=[#550+[#551-#550]*0.38258]
#2=[#557+[#558-#557]*0.38258]
#3=[#1+[#2-#1]*0.35041]
G01 Z[-0.04000+#111]
G04 P0 ( dwell for no time -- G64 should not smooth over this point )
G01 F360.00000
#1=[#550+[#551-#550]*0.79758]
#2=[#557+[#558-#557]*0.79758]
#3=[#1+[#2-#1]*0.35041]
X7.46242 Y-2.73809 Z[#3+#4]
#1=[#550+[#551-#550]*0.81497]
#2=[#557+[#558-#557]*0.81497]
#3=[#1+[#2-#1]*0.35288]
X7.46335 Y-2.73211 Z[#3+#4]
#1=[#550+[#551-#550]*0.96934]
#2=[#557+[#558-#557]*0.96934]
#3=[#1+[#2-#1]*0.42321]
X7.48994 Y-2.67897 Z[#3+#4]
#1=[#551+[#552-#551]*0.05146]
#2=[#558+[#559-#558]*0.05146]
#3=[#1+[#2-#1]*0.49797]
X7.51821 Y-2.65070 Z[#3+#4]
#1=[#551+[#552-#551]*0.12538]
#2=[#558+[#559-#558]*0.12538]
#3=[#1+[#2-#1]*0.63106]
X7.56854 Y-2.62525 Z[#3+#4]
#1=[#551+[#552-#551]*0.13074]
#2=[#558+[#559-#558]*0.13074]
#3=[#1+[#2-#1]*0.64633]
X7.57431 Y-2.62341 Z[#3+#4]
#1=[#551+[#552-#551]*0.13074]
#2=[#558+[#559-#558]*0.13074]
#3=[#1+[#2-#1]*0.85126]
X7.65180 Y-2.62341 Z[#3+#4]
#1=[#551+[#552-#551]*0.12538]
#2=[#558+[#559-#558]*0.12538]
#3=[#1+[#2-#1]*0.86653]
X7.65757 Y-2.62525 Z[#3+#4]
#1=[#551+[#552-#551]*0.05146]
#2=[#558+[#559-#558]*0.05146]
#3=[#1+[#2-#1]*0.99962]
X7.70790 Y-2.65070 Z[#3+#4]
#1=[#557+[#558-#557]*0.96934]
#2=[#564+[#565-#564]*0.96934]
#3=[#1+[#2-#1]*0.07439]
X7.73617 Y-2.67897 Z[#3+#4]
#1=[#557+[#558-#557]*0.82315]
#2=[#564+[#565-#564]*0.82315]
#3=[#1+[#2-#1]*0.14168]
X7.76161 Y-2.72929 Z[#3+#4]
#1=[#557+[#558-#557]*0.80638]
#2=[#564+[#565-#564]*0.80638]
#3=[#1+[#2-#1]*0.14656]
X7.76346 Y-2.73507 Z[#3+#4]
#1=[#557+[#558-#557]*0.37378]
#2=[#564+[#565-#564]*0.37378]
#3=[#1+[#2-#1]*0.14656]
X7.76346 Y-2.88398 Z[#3+#4]
#1=[#557+[#558-#557]*0.35701]
#2=[#564+[#565-#564]*0.35701]
#3=[#1+[#2-#1]*0.14168]
X7.76161 Y-2.88976 Z[#3+#4]
#1=[#557+[#558-#557]*0.21082]
#2=[#564+[#565-#564]*0.21082]
#3=[#1+[#2-#1]*0.07439]
X7.73617 Y-2.94008 Z[#3+#4]
#1=[#550+[#551-#550]*0.12870]
#2=[#557+[#558-#557]*0.12870]
#3=[#1+[#2-#1]*0.99962]
X7.70790 Y-2.96835 Z[#3+#4]
#1=[#550+[#551-#550]*0.05478]
#2=[#557+[#558-#557]*0.05478]
#3=[#1+[#2-#1]*0.86653]
X7.65757 Y-2.99380 Z[#3+#4]
#1=[#550+[#551-#550]*0.04942]
#2=[#557+[#558-#557]*0.04942]
#3=[#1+[#2-#1]*0.85126]
X7.65180 Y-2.99564 Z[#3+#4]
#1=[#550+[#551-#550]*0.04874]
#2=[#557+[#558-#557]*0.04874]
#3=[#1+[#2-#1]*0.65434]
X7.57734 Y-2.99587 Z[#3+#4]
#1=[#550+[#551-#550]*0.05145]
#2=[#557+[#558-#557]*0.05145]
#3=[#1+[#2-#1]*0.63851]
X7.57135 Y-2.99494 Z[#3+#4]
#1=[#550+[#551-#550]*0.12870]
#2=[#557+[#558-#557]*0.12870]
#3=[#1+[#2-#1]*0.49797]
X7.51821 Y-2.96835 Z[#3+#4]
#1=[#550+[#551-#550]*0.20382]
#2=[#557+[#558-#557]*0.20382]
#3=[#1+[#2-#1]*0.42863]
X7.49199 Y-2.94249 Z[#3+#4]
#1=[#550+[#551-#550]*0.21868]
#2=[#557+[#558-#557]*0.21868]
#3=[#1+[#2-#1]*0.41888]
X7.48830 Y-2.93737 Z[#3+#4]
#1=[#550+[#551-#550]*0.35822]
#2=[#557+[#558-#557]*0.35822]
#3=[#1+[#2-#1]*0.35550]
X7.46434 Y-2.88934 Z[#3+#4]
#1=[#550+[#551-#550]*0.37069]
#2=[#557+[#558-#557]*0.37069]
#3=[#1+[#2-#1]*0.35155]
X7.46285 Y-2.88504 Z[#3+#4]
#1=[#550+[#551-#550]*0.38258]
#2=[#557+[#558-#557]*0.38258]
#3=[#1+[#2-#1]*0.35041]
X7.46242 Y-2.88095 Z[#3+#4]
G04 P0 ( dwell for no time -- G64 should not smooth over this point )
G00 Z0.08000 ( retract )

G00 X7.50179 Y-2.87630 ( rapid move to begin. )
G01 F180.00000
#1=[#550+[#551-#550]*0.39608]
#2=[#557+[#558-#557]*0.39608]
#3=[#1+[#2-#1]*0.45453]
G01 Z[-0.04000+#111]
G04 P0 ( dwell for no time -- G64 should not smooth over this point )
G01 F360.00000
#1=[#550+[#551-#550]*0.78408]
#2=[#557+[#558-#557]*0.78408]
#3=[#1+[#2-#1]*0.45453]
X7.50179 Y-2.74274 Z[#3+#4]
#1=[#550+[#551-#550]*0.90204]
#2=[#557+[#558-#557]*0.90204]
#3=[#1+[#2-#1]*0.50823]
X7.52209 Y-2.70214 Z[#3+#4]
#1=[#550+[#551-#550]*0.95808]
#2=[#557+[#558-#557]*0.95808]
#3=[#1+[#2-#1]*0.55925]
X7.54138 Y-2.68284 Z[#3+#4]
#1=[#551+[#552-#551]*0.01705]
#2=[#558+[#559-#558]*0.01705]
#3=[#1+[#2-#1]*0.66663]
X7.58199 Y-2.66254 Z[#3+#4]
#1=[#551+[#552-#551]*0.01705]
#2=[#558+[#559-#558]*0.01705]
#3=[#1+[#2-#1]*0.83096]
X7.64412 Y-2.66254 Z[#3+#4]
#1=[#550+[#551-#550]*0.95808]
#2=[#557+[#558-#557]*0.95808]
#3=[#1+[#2-#1]*0.93835]
X7.68473 Y-2.68284 Z[#3+#4]
#1=[#550+[#551-#550]*0.90204]
#2=[#557+[#558-#557]*0.90204]
#3=[#1+[#2-#1]*0.98937]
X7.70402 Y-2.70214 Z[#3+#4]
#1=[#557+[#558-#557]*0.78408]
#2=[#564+[#565-#564]*0.78408]
#3=[#1+[#2-#1]*0.04306]
X7.72432 Y-2.74274 Z[#3+#4]
#1=[#557+[#558-#557]*0.39608]
#2=[#564+[#565-#564]*0.39608]
#3=[#1+[#2-#1]*0.04306]
X7.72432 Y-2.87630 Z[#3+#4]
#1=[#550+[#551-#550]*0.27813]
#2=[#557+[#558-#557]*0.27813]
#3=[#1+[#2-#1]*0.98937]
X7.70402 Y-2.91691 Z[#3+#4]
#1=[#550+[#551-#550]*0.22209]
#2=[#557+[#558-#557]*0.22209]
#3=[#1+[#2-#1]*0.93835]
X7.68473 Y-2.93620 Z[#3+#4]
#1=[#550+[#551-#550]*0.16311]
#2=[#557+[#558-#557]*0.16311]
#3=[#1+[#2-#1]*0.83096]
X7.64412 Y-2.95650 Z[#3+#4]
#1=[#550+[#551-#550]*0.16311]
#2=[#557+[#558-#557]*0.16311]
#3=[#1+[#2-#1]*0.66663]
X7.58199 Y-2.95650 Z[#3+#4]
#1=[#550+[#551-#550]*0.22209]
#2=[#557+[#558-#557]*0.22209]
#3=[#1+[#2-#1]*0.55925]
X7.54138 Y-2.93620 Z[#3+#4]
#1=[#550+[#551-#550]*0.27813]
#2=[#557+[#558-#557]*0.27813]
#3=[#1+[#2-#1]*0.50823]
X7.52209 Y-2.91691 Z[#3+#4]
#1=[#550+[#551-#550]*0.39608]
#2=[#557+[#558-#557]*0.39608]
#3=[#1+[#2-#1]*0.45453]
X7.50179 Y-2.87630 Z[#3+#4]
G04 P0 ( dwell for no time -- G64 should not smooth over this point )
G00 Z0.08000 ( retract )

G00 X7.93861 Y-2.97619 ( rapid move to begin. )
G01 F180.00000
#1=[#557+[#558-#557]*0.10592]
#2=[#564+[#565-#564]*0.10592]
#3=[#1+[#2-#1]*0.60977]
G01 Z[-0.04000+#111]
G04 P0 ( dwell for no time -- G64 should not smooth over this point )
G01 F360.00000
#1=[#558+[#559-#558]*0.07424]
#2=[#565+[#566-#565]*0.07424]
#3=[#1+[#2-#1]*0.60977]
X7.93861 Y-2.64286 Z[#3+#4]
#1=[#558+[#559-#558]*0.08613]
#2=[#565+[#566-#565]*0.08613]
#3=[#1+[#2-#1]*0.61091]
X7.93904 Y-2.63876 Z[#3+#4]
#1=[#558+[#559-#558]*0.09750]
#2=[#565+[#566-#565]*0.09750]
#3=[#1+[#2-#1]*0.61427]
X7.94031 Y-2.63485 Z[#3+#4]
#1=[#558+[#559-#558]*0.10785]
#2=[#565+[#566-#565]*0.10785]
#3=[#1+[#2-#1]*0.61972]
X7.94237 Y-2.63129 Z[#3+#4]
#1=[#558+[#559-#558]*0.11673]
#2=[#565+[#566-#565]*0.11673]
#3=[#1+[#2-#1]*0.62700]
X7.94512 Y-2.62823 Z[#3+#4]
#1=[#558+[#559-#558]*0.12376]
#2=[#565+[#566-#565]*0.12376]
#3=[#1+[#2-#1]*0.63580]
X7.94845 Y-2.62581 Z[#3+#4]
#1=[#558+[#559-#558]*0.12862]
#2=[#565+[#566-#565]*0.12862]
#3=[#1+[#2-#1]*0.64575]
X7.95221 Y-2.62413 Z[#3+#4]
#1=[#558+[#559-#558]*0.13111]
#2=[#565+[#566-#565]*0.13111]
#3=[#1+[#2-#1]*0.65639]
X7.95623 Y-2.62328 Z[#3+#4]
#1=[#558+[#559-#558]*0.13111]
#2=[#565+[#566-#565]*0.13111]
#3=[#1+[#2-#1]*0.66727]
X7.96035 Y-2.62328 Z[#3+#4]
#1=[#558+[#559-#558]*0.12862]
#2=[#565+[#566-#565]*0.12862]
#3=[#1+[#2-#1]*0.67792]
X7.96438 Y-2.62413 Z[#3+#4]
#1=[#558+[#559-#558]*0.12376]
#2=[#565+[#566-#565]*0.12376]
#3=[#1+[#2-#1]*0.68786]
X7.96813 Y-2.62581 Z[#3+#4]
#1=[#558+[#559-#558]*0.11673]
#2=[#565+[#566-#565]*0.11673]
#3=[#1+[#2-#1]*0.69667]
X7.97146 Y-2.62823 Z[#3+#4]
#1=[#558+[#559-#558]*0.10785]
#2=[#565+[#566-#565]*0.10785]
#3=[#1+[#2-#1]*0.70395]
X7.97422 Y-2.63129 Z[#3+#4]
#1=[#558+[#559-#558]*0.09750]
#2=[#565+[#566-#565]*0.09750]
#3=[#1+[#2-#1]*0.70939]
X7.97628 Y-2.63485 Z[#3+#4]
#1=[#558+[#559-#558]*0.08613]
#2=[#565+[#566-#565]*0.08613]
#3=[#1+[#2-#1]*0.71275]
X7.97755 Y-2.63876 Z[#3+#4]
#1=[#558+[#559-#558]*0.06302]
#2=[#565+[#566-#565]*0.06302]
#3=[#1+[#2-#1]*0.71389]
X7.97798 Y-2.64672 Z[#3+#4]
#1=[#558+[#559-#558]*0.12538]
#2=[#565+[#566-#565]*0.12538]
#3=[#1+[#2-#1]*0.82746]
X8.02092 Y-2.62525 Z[#3+#4]
#1=[#558+[#559-#558]*0.13074]
#2=[#565+[#566-#565]*0.13074]
#3=[#1+[#2-#1]*0.84272]
X8.02669 Y-2.62341 Z[#3+#4]
#1=[#565+[#566-#565]*0.13074]
#2=[#572+[#573-#572]*0.13074]
#3=[#1+[#2-#1]*0.04766]
X8.10418 Y-2.62341 Z[#3+#4]
#1=[#565+[#566-#565]*0.12538]
#2=[#572+[#573-#572]*0.12538]
#3=[#1+[#2-#1]*0.06292]
X8.10995 Y-2.62525 Z[#3+#4]
#1=[#565+[#566-#565]*0.05146]
#2=[#572+[#573-#572]*0.05146]
#3=[#1+[#2-#1]*0.19602]
X8.16028 Y-2.65070 Z[#3+#4]
#1=[#565+[#566-#565]*0.03851]
#2=[#572+[#573-#572]*0.03851]
#3=[#1+[#2-#1]*0.20781]
X8.16474 Y-2.65516 Z[#3+#4]
#1=[#565+[#566-#565]*0.03065]
#2=[#572+[#573-#572]*0.03065]
#3=[#1+[#2-#1]*0.21214]
X8.16638 Y-2.65786 Z[#3+#4]
#1=[#564+[#565-#564]*0.89232]
#2=[#571+[#572-#571]*0.89232]
#3=[#1+[#2-#1]*0.27511]
X8.19018 Y-2.70548 Z[#3+#4]
#1=[#564+[#565-#564]*0.87555]
#2=[#571+[#572-#571]*0.87555]
#3=[#1+[#2-#1]*0.27999]
X8.19203 Y-2.71125 Z[#3+#4]
#1=[#564+[#565-#564]*0.10592]
#2=[#571+[#572-#571]*0.10592]
#3=[#1+[#2-#1]*0.28061]
X8.19226 Y-2.97619 Z[#3+#4]
#1=[#564+[#565-#564]*0.09403]
#2=[#571+[#572-#571]*0.09403]
#3=[#1+[#2-#1]*0.27947]
X8.19183 Y-2.98028 Z[#3+#4]
#1=[#564+[#565-#564]*0.08266]
#2=[#571+[#572-#571]*0.08266]
#3=[#1+[#2-#1]*0.27610]
X8.19056 Y-2.98420 Z[#3+#4]
#1=[#564+[#565-#564]*0.07231]
#2=[#571+[#572-#571]*0.07231]
#3=[#1+[#2-#1]*0.27066]
X8.18850 Y-2.98776 Z[#3+#4]
#1=[#564+[#565-#564]*0.06343]
#2=[#571+[#572-#571]*0.06343]
#3=[#1+[#2-#1]*0.26338]
X8.18575 Y-2.99082 Z[#3+#4]
#1=[#564+[#565-#564]*0.05640]
#2=[#571+[#572-#571]*0.05640]
#3=[#1+[#2-#1]*0.25458]
X8.18242 Y-2.99324 Z[#3+#4]
#1=[#564+[#565-#564]*0.05154]
#2=[#571+[#572-#571]*0.05154]
#3=[#1+[#2-#1]*0.24463]
X8.17866 Y-2.99491 Z[#3+#4]
#1=[#564+[#565-#564]*0.04905]
#2=[#571+[#572-#571]*0.04905]
#3=[#1+[#2-#1]*0.23399]
X8.17464 Y-2.99577 Z[#3+#4]
#1=[#564+[#565-#564]*0.04905]
#2=[#571+[#572-#571]*0.04905]
#3=[#1+[#2-#1]*0.22310]
X8.17052 Y-2.99577 Z[#3+#4]
#1=[#564+[#565-#564]*0.05154]
#2=[#571+[#572-#571]*0.05154]
#3=[#1+[#2-#1]*0.21246]
X8.16649 Y-2.99491 Z[#3+#4]
#1=[#564+[#565-#564]*0.05640]
#2=[#571+[#572-#571]*0.05640]
#3=[#1+[#2-#1]*0.20252]
X8.16274 Y-2.99324 Z[#3+#4]
#1=[#564+[#565-#564]*0.06343]
#2=[#571+[#572-#571]*0.06343]
#3=[#1+[#2-#1]*0.19371]
X8.15941 Y-2.99082 Z[#3+#4]
#1=[#564+[#565-#564]*0.07231]
#2=[#571+[#572-#571]*0.07231]
#3=[#1+[#2-#1]*0.18643]
X8.15665 Y-2.98776 Z[#3+#4]
#1=[#564+[#565-#564]*0.08266]
#2=[#571+[#572-#571]*0.08266]
#3=[#1+[#2-#1]*0.18099]
X8.15459 Y-2.98420 Z[#3+#4]
#1=[#564+[#565-#564]*0.09403]
#2=[#571+[#572-#571]*0.09403]
#3=[#1+[#2-#1]*0.17762]
X8.15332 Y-2.98028 Z[#3+#4]
#1=[#564+[#565-#564]*0.10592]
#2=[#571+[#572-#571]*0.10592]
#3=[#1+[#2-#1]*0.17648]
X8.15289 Y-2.97619 Z[#3+#4]
#1=[#564+[#565-#564]*0.85324]
#2=[#571+[#572-#571]*0.85324]
#3=[#1+[#2-#1]*0.17648]
X8.15289 Y-2.71893 Z[#3+#4]
#1=[#564+[#565-#564]*0.96245]
#2=[#571+[#572-#571]*0.96245]
#3=[#1+[#2-#1]*0.12678]
X8.13410 Y-2.68134 Z[#3+#4]
#1=[#565+[#566-#565]*0.01705]
#2=[#572+[#573-#572]*0.01705]
#3=[#1+[#2-#1]*0.02735]
X8.09650 Y-2.66254 Z[#3+#4]
#1=[#558+[#559-#558]*0.01705]
#2=[#565+[#566-#565]*0.01705]
#3=[#1+[#2-#1]*0.86303]
X8.03437 Y-2.66254 Z[#3+#4]
#1=[#557+[#558-#557]*0.95808]
#2=[#564+[#565-#564]*0.95808]
#3=[#1+[#2-#1]*0.75564]
X7.99376 Y-2.68284 Z[#3+#4]
#1=[#557+[#558-#557]*0.91222]
#2=[#564+[#565-#564]*0.91222]
#3=[#1+[#2-#1]*0.71389]
X7.97798 Y-2.69863 Z[#3+#4]
#1=[#557+[#558-#557]*0.10592]
#2=[#564+[#565-#564]*0.10592]
#3=[#1+[#2-#1]*0.71389]
X7.97798 Y-2.97619 Z[#3+#4]
#1=[#557+[#558-#557]*0.09403]
#2=[#564+[#565-#564]*0.09403]
#3=[#1+[#2-#1]*0.71275]
X7.97755 Y-2.98028 Z[#3+#4]
#1=[#557+[#558-#557]*0.08266]
#2=[#564+[#565-#564]*0.08266]
#3=[#1+[#2-#1]*0.70939]
X7.97628 Y-2.98420 Z[#3+#4]
#1=[#557+[#558-#557]*0.07231]
#2=[#564+[#565-#564]*0.07231]
#3=[#1+[#2-#1]*0.70395]
X7.97422 Y-2.98776 Z[#3+#4]
#1=[#557+[#558-#557]*0.06343]
#2=[#564+[#565-#564]*0.06343]
#3=[#1+[#2-#1]*0.69667]
X7.97146 Y-2.99082 Z[#3+#4]
#1=[#557+[#558-#557]*0.05640]
#2=[#564+[#565-#564]*0.05640]
#3=[#1+[#2-#1]*0.68786]
X7.96813 Y-2.99324 Z[#3+#4]
#1=[#557+[#558-#557]*0.05154]
#2=[#564+[#565-#564]*0.05154]
#3=[#1+[#2-#1]*0.67792]
X7.96438 Y-2.99491 Z[#3+#4]
#1=[#557+[#558-#557]*0.04905]
#2=[#564+[#565-#564]*0.04905]
#3=[#1+[#2-#1]*0.66727]
X7.96035 Y-2.99577 Z[#3+#4]
#1=[#557+[#558-#557]*0.04905]
#2=[#564+[#565-#564]*0.04905]
#3=[#1+[#2-#1]*0.65639]
X7.95623 Y-2.99577 Z[#3+#4]
#1=[#557+[#558-#557]*0.05154]
#2=[#564+[#565-#564]*0.05154]
#3=[#1+[#2-#1]*0.64575]
X7.95221 Y-2.99491 Z[#3+#4]
#1=[#557+[#558-#557]*0.05640]
#2=[#564+[#565-#564]*0.05640]
#3=[#1+[#2-#1]*0.63580]
X7.94845 Y-2.99324 Z[#3+#4]
#1=[#557+[#558-#557]*0.06343]
#2=[#564+[#565-#564]*0.06343]
#3=[#1+[#2-#1]*0.62700]
X7.94512 Y-2.99082 Z[#3+#4]
#1=[#557+[#558-#557]*0.07231]
#2=[#564+[#565-#564]*0.07231]
#3=[#1+[#2-#1]*0.61972]
X7.94237 Y-2.98776 Z[#3+#4]
#1=[#557+[#558-#557]*0.08266]
#2=[#564+[#565-#564]*0.08266]
#3=[#1+[#2-#1]*0.61427]
X7.94031 Y-2.98420 Z[#3+#4]
#1=[#557+[#558-#557]*0.09403]
#2=[#564+[#565-#564]*0.09403]
#3=[#1+[#2-#1]*0.61091]
X7.93904 Y-2.98028 Z[#3+#4]
#1=[#557+[#558-#557]*0.10592]
#2=[#564+[#565-#564]*0.10592]
#3=[#1+[#2-#1]*0.60977]
X7.93861 Y-2.97619 Z[#3+#4]
G04 P0 ( dwell for no time -- G64 should not smooth over this point )
G00 Z0.08000 ( retract )

G00 X8.31967 Y-2.64491 ( rapid move to begin. )
G01 F180.00000
#1=[#565+[#566-#565]*0.06826]
#2=[#572+[#573-#572]*0.06826]
#3=[#1+[#2-#1]*0.61755]
G01 Z[-0.04000+#111]
G04 P0 ( dwell for no time -- G64 should not smooth over this point )
G01 F360.00000
#1=[#565+[#566-#565]*0.08022]
#2=[#572+[#573-#572]*0.08022]
#3=[#1+[#2-#1]*0.61755]
X8.31967 Y-2.64080 Z[#3+#4]
#1=[#565+[#566-#565]*0.09191]
#2=[#572+[#573-#572]*0.09191]
#3=[#1+[#2-#1]*0.61981]
X8.32052 Y-2.63677 Z[#3+#4]
#1=[#565+[#566-#565]*0.10283]
#2=[#572+[#573-#572]*0.10283]
#3=[#1+[#2-#1]*0.62424]
X8.32220 Y-2.63301 Z[#3+#4]
#1=[#565+[#566-#565]*0.11250]
#2=[#572+[#573-#572]*0.11250]
#3=[#1+[#2-#1]*0.63063]
X8.32462 Y-2.62968 Z[#3+#4]
#1=[#565+[#566-#565]*0.12050]
#2=[#572+[#573-#572]*0.12050]
#3=[#1+[#2-#1]*0.63872]
X8.32767 Y-2.62693 Z[#3+#4]
#1=[#565+[#566-#565]*0.12648]
#2=[#572+[#573-#572]*0.12648]
#3=[#1+[#2-#1]*0.64815]
X8.33124 Y-2.62487 Z[#3+#4]
#1=[#565+[#566-#565]*0.13017]
#2=[#572+[#573-#572]*0.13017]
#3=[#1+[#2-#1]*0.65850]
X8.33515 Y-2.62360 Z[#3+#4]
#1=[#565+[#566-#565]*0.13142]
#2=[#572+[#573-#572]*0.13142]
#3=[#1+[#2-#1]*0.80617]
X8.39099 Y-2.62317 Z[#3+#4]
#1=[#565+[#566-#565]*0.55840]
#2=[#572+[#573-#572]*0.55840]
#3=[#1+[#2-#1]*0.80617]
X8.39099 Y-2.47619 Z[#3+#4]
#1=[#565+[#566-#565]*0.57029]
#2=[#572+[#573-#572]*0.57029]
#3=[#1+[#2-#1]*0.80730]
X8.39142 Y-2.47210 Z[#3+#4]
#1=[#565+[#566-#565]*0.58166]
#2=[#572+[#573-#572]*0.58166]
#3=[#1+[#2-#1]*0.81067]
X8.39269 Y-2.46818 Z[#3+#4]
#1=[#565+[#566-#565]*0.59201]
#2=[#572+[#573-#572]*0.59201]
#3=[#1+[#2-#1]*0.81611]
X8.39475 Y-2.46462 Z[#3+#4]
#1=[#565+[#566-#565]*0.60089]
#2=[#572+[#573-#572]*0.60089]
#3=[#1+[#2-#1]*0.82339]
X8.39750 Y-2.46156 Z[#3+#4]
#1=[#565+[#566-#565]*0.60792]
#2=[#572+[#573-#572]*0.60792]
#3=[#1+[#2-#1]*0.83220]
X8.40083 Y-2.45914 Z[#3+#4]
#1=[#565+[#566-#565]*0.61278]
#2=[#572+[#573-#572]*0.61278]
#3=[#1+[#2-#1]*0.84214]
X8.40459 Y-2.45747 Z[#3+#4]
#1=[#565+[#566-#565]*0.61527]
#2=[#572+[#573-#572]*0.61527]
#3=[#1+[#2-#1]*0.85279]
X8.40862 Y-2.45661 Z[#3+#4]
#1=[#565+[#566-#565]*0.61527]
#2=[#572+[#573-#572]*0.61527]
#3=[#1+[#2-#1]*0.86367]
X8.41273 Y-2.45661 Z[#3+#4]
#1=[#565+[#566-#565]*0.61278]
#2=[#572+[#573-#572]*0.61278]
#3=[#1+[#2-#1]*0.87432]
X8.41676 Y-2.45747 Z[#3+#4]
#1=[#565+[#566-#565]*0.60792]
#2=[#572+[#573-#572]*0.60792]
#3=[#1+[#2-#1]*0.88426]
X8.42052 Y-2.45914 Z[#3+#4]
#1=[#565+[#566-#565]*0.60089]
#2=[#572+[#573-#572]*0.60089]
#3=[#1+[#2-#1]*0.89306]
X8.42384 Y-2.46156 Z[#3+#4]
#1=[#565+[#566-#565]*0.59201]
#2=[#572+[#573-#572]*0.59201]
#3=[#1+[#2-#1]*0.90034]
X8.42660 Y-2.46462 Z[#3+#4]
#1=[#565+[#566-#565]*0.58166]
#2=[#572+[#573-#572]*0.58166]
#3=[#1+[#2-#1]*0.90579]
X8.42866 Y-2.46818 Z[#3+#4]
#1=[#565+[#566-#565]*0.57029]
#2=[#572+[#573-#572]*0.57029]
#3=[#1+[#2-#1]*0.90915]
X8.42993 Y-2.47210 Z[#3+#4]
#1=[#565+[#566-#565]*0.55840]
#2=[#572+[#573-#572]*0.55840]
#3=[#1+[#2-#1]*0.91029]
X8.43036 Y-2.47619 Z[#3+#4]
#1=[#565+[#566-#565]*0.13142]
#2=[#572+[#573-#572]*0.13142]
#3=[#1+[#2-#1]*0.91029]
X8.43036 Y-2.62317 Z[#3+#4]
#1=[#572+[#573-#572]*0.13142]
#2=[#579+[#580-#579]*0.13142]
#3=[#1+[#2-#1]*0.17307]
X8.52972 Y-2.62317 Z[#3+#4]
#1=[#572+[#573-#572]*0.13017]
#2=[#579+[#580-#579]*0.13017]
#3=[#1+[#2-#1]*0.18389]
X8.53381 Y-2.62360 Z[#3+#4]
#1=[#572+[#573-#572]*0.12648]
#2=[#579+[#580-#579]*0.12648]
#3=[#1+[#2-#1]*0.19424]
X8.53773 Y-2.62487 Z[#3+#4]
#1=[#572+[#573-#572]*0.12050]
#2=[#579+[#580-#579]*0.12050]
#3=[#1+[#2-#1]*0.20367]
X8.54129 Y-2.62693 Z[#3+#4]
#1=[#572+[#573-#572]*0.11250]
#2=[#579+[#580-#579]*0.11250]
#3=[#1+[#2-#1]*0.21176]
X8.54435 Y-2.62968 Z[#3+#4]
#1=[#572+[#573-#572]*0.10283]
#2=[#579+[#580-#579]*0.10283]
#3=[#1+[#2-#1]*0.21815]
X8.54677 Y-2.63301 Z[#3+#4]
#1=[#572+[#573-#572]*0.09191]
#2=[#579+[#580-#579]*0.09191]
#3=[#1+[#2-#1]*0.22258]
X8.54844 Y-2.63677 Z[#3+#4]
#1=[#572+[#573-#572]*0.08022]
#2=[#579+[#580-#579]*0.08022]
#3=[#1+[#2-#1]*0.22484]
X8.54930 Y-2.64080 Z[#3+#4]
#1=[#572+[#573-#572]*0.06826]
#2=[#579+[#580-#579]*0.06826]
#3=[#1+[#2-#1]*0.22484]
X8.54930 Y-2.64491 Z[#3+#4]
#1=[#572+[#573-#572]*0.05657]
#2=[#579+[#580-#579]*0.05657]
#3=[#1+[#2-#1]*0.22258]
X8.54844 Y-2.64894 Z[#3+#4]
#1=[#572+[#573-#572]*0.04565]
#2=[#579+[#580-#579]*0.04565]
#3=[#1+[#2-#1]*0.21815]
X8.54677 Y-2.65270 Z[#3+#4]
#1=[#572+[#573-#572]*0.03598]
#2=[#579+[#580-#579]*0.03598]
#3=[#1+[#2-#1]*0.21176]
X8.54435 Y-2.65603 Z[#3+#4]
#1=[#572+[#573-#572]*0.02798]
#2=[#579+[#580-#579]*0.02798]
#3=[#1+[#2-#1]*0.20367]
X8.54129 Y-2.65878 Z[#3+#4]
#1=[#572+[#573-#572]*0.02200]
#2=[#579+[#580-#579]*0.02200]
#3=[#1+[#2-#1]*0.19424]
X8.53773 Y-2.66084 Z[#3+#4]
#1=[#572+[#573-#572]*0.01830]
#2=[#579+[#580-#579]*0.01830]
#3=[#1+[#2-#1]*0.18389]
X8.53381 Y-2.66211 Z[#3+#4]
#1=[#572+[#573-#572]*0.01705]
#2=[#579+[#580-#579]*0.01705]
#3=[#1+[#2-#1]*0.17307]
X8.52972 Y-2.66254 Z[#3+#4]
#1=[#565+[#566-#565]*0.01705]
#2=[#572+[#573-#572]*0.01705]
#3=[#1+[#2-#1]*0.91029]
X8.43036 Y-2.66254 Z[#3+#4]
#1=[#564+[#565-#564]*0.32692]
#2=[#571+[#572-#571]*0.32692]
#3=[#1+[#2-#1]*0.91029]
X8.43036 Y-2.90011 Z[#3+#4]
#1=[#564+[#565-#564]*0.21771]
#2=[#571+[#572-#571]*0.21771]
#3=[#1+[#2-#1]*0.96000]
X8.44915 Y-2.93771 Z[#3+#4]
#1=[#571+[#572-#571]*0.16311]
#2=[#578+[#579-#578]*0.16311]
#3=[#1+[#2-#1]*0.05942]
X8.48675 Y-2.95650 Z[#3+#4]
#1=[#571+[#572-#571]*0.16311]
#2=[#578+[#579-#578]*0.16311]
#3=[#1+[#2-#1]*0.17307]
X8.52972 Y-2.95650 Z[#3+#4]
#1=[#571+[#572-#571]*0.16186]
#2=[#578+[#579-#578]*0.16186]
#3=[#1+[#2-#1]*0.18389]
X8.53381 Y-2.95694 Z[#3+#4]
#1=[#571+[#572-#571]*0.15816]
#2=[#578+[#579-#578]*0.15816]
#3=[#1+[#2-#1]*0.19424]
X8.53773 Y-2.95821 Z[#3+#4]
#1=[#571+[#572-#571]*0.15219]
#2=[#578+[#579-#578]*0.15219]
#3=[#1+[#2-#1]*0.20367]
X8.54129 Y-2.96026 Z[#3+#4]
#1=[#571+[#572-#571]*0.14419]
#2=[#578+[#579-#578]*0.14419]
#3=[#1+[#2-#1]*0.21176]
X8.54435 Y-2.96302 Z[#3+#4]
#1=[#571+[#572-#571]*0.13452]
#2=[#578+[#579-#578]*0.13452]
#3=[#1+[#2-#1]*0.21815]
X8.54677 Y-2.96635 Z[#3+#4]
#1=[#571+[#572-#571]*0.12359]
#2=[#578+[#579-#578]*0.12359]
#3=[#1+[#2-#1]*0.22258]
X8.54844 Y-2.97011 Z[#3+#4]
#1=[#571+[#572-#571]*0.11190]
#2=[#578+[#579-#578]*0.11190]
#3=[#1+[#2-#1]*0.22484]
X8.54930 Y-2.97413 Z[#3+#4]
#1=[#571+[#572-#571]*0.09995]
#2=[#578+[#579-#578]*0.09995]
#3=[#1+[#2-#1]*0.22484]
X8.54930 Y-2.97825 Z[#3+#4]
#1=[#571+[#572-#571]*0.08825]
#2=[#578+[#579-#578]*0.08825]
#3=[#1+[#2-#1]*0.22258]
X8.54844 Y-2.98227 Z[#3+#4]
#1=[#571+[#572-#571]*0.07733]
#2=[#578+[#579-#578]*0.07733]
#3=[#1+[#2-#1]*0.21815]
X8.54677 Y-2.98603 Z[#3+#4]
#1=[#571+[#572-#571]*0.06766]
#2=[#578+[#579-#578]*0.06766]
#3=[#1+[#2-#1]*0.21176]
X8.54435 Y-2.98936 Z[#3+#4]
#1=[#571+[#572-#571]*0.05966]
#2=[#578+[#579-#578]*0.05966]
#3=[#1+[#2-#1]*0.20367]
X8.54129 Y-2.99212 Z[#3+#4]
#1=[#571+[#572-#571]*0.05368]
#2=[#578+[#579-#578]*0.05368]
#3=[#1+[#2-#1]*0.19424]
X8.53773 Y-2.99417 Z[#3+#4]
#1=[#571+[#572-#571]*0.04999]
#2=[#578+[#579-#578]*0.04999]
#3=[#1+[#2-#1]*0.18389]
X8.53381 Y-2.99545 Z[#3+#4]
#1=[#571+[#572-#571]*0.04874]
#2=[#578+[#579-#578]*0.04874]
#3=[#1+[#2-#1]*0.17307]
X8.52972 Y-2.99587 Z[#3+#4]
#1=[#571+[#572-#571]*0.04942]
#2=[#578+[#579-#578]*0.04942]
#3=[#1+[#2-#1]*0.03912]
X8.47907 Y-2.99564 Z[#3+#4]
#1=[#571+[#572-#571]*0.05478]
#2=[#578+[#579-#578]*0.05478]
#3=[#1+[#2-#1]*0.02385]
X8.47330 Y-2.99380 Z[#3+#4]
#1=[#564+[#565-#564]*0.12394]
#2=[#571+[#572-#571]*0.12394]
#3=[#1+[#2-#1]*0.89791]
X8.42568 Y-2.96999 Z[#3+#4]
#1=[#564+[#565-#564]*0.12870]
#2=[#571+[#572-#571]*0.12870]
#3=[#1+[#2-#1]*0.89075]
X8.42297 Y-2.96835 Z[#3+#4]
#1=[#564+[#565-#564]*0.14165]
#2=[#571+[#572-#571]*0.14165]
#3=[#1+[#2-#1]*0.87896]
X8.41851 Y-2.96389 Z[#3+#4]
#1=[#564+[#565-#564]*0.28785]
#2=[#571+[#572-#571]*0.28785]
#3=[#1+[#2-#1]*0.81166]
X8.39307 Y-2.91357 Z[#3+#4]
#1=[#564+[#565-#564]*0.30462]
#2=[#571+[#572-#571]*0.30462]
#3=[#1+[#2-#1]*0.80679]
X8.39122 Y-2.90779 Z[#3+#4]
#1=[#565+[#566-#565]*0.01705]
#2=[#572+[#573-#572]*0.01705]
#3=[#1+[#2-#1]*0.80617]
X8.39099 Y-2.66254 Z[#3+#4]
#1=[#565+[#566-#565]*0.01830]
#2=[#572+[#573-#572]*0.01830]
#3=[#1+[#2-#1]*0.65850]
X8.33515 Y-2.66211 Z[#3+#4]
#1=[#565+[#566-#565]*0.02200]
#2=[#572+[#573-#572]*0.02200]
#3=[#1+[#2-#1]*0.64815]
X8.33124 Y-2.66084 Z[#3+#4]
#1=[#565+[#566-#565]*0.02798]
#2=[#572+[#573-#572]*0.02798]
#3=[#1+[#2-#1]*0.63872]
X8.32767 Y-2.65878 Z[#3+#4]
#1=[#565+[#566-#565]*0.03598]
#2=[#572+[#573-#572]*0.03598]
#3=[#1+[#2-#1]*0.63063]
X8.32462 Y-2.65603 Z[#3+#4]
#1=[#565+[#566-#565]*0.04565]
#2=[#572+[#573-#572]*0.04565]
#3=[#1+[#2-#1]*0.62424]
X8.32220 Y-2.65270 Z[#3+#4]
#1=[#565+[#566-#565]*0.05657]
#2=[#572+[#573-#572]*0.05657]
#3=[#1+[#2-#1]*0.61981]
X8.32052 Y-2.64894 Z[#3+#4]
#1=[#565+[#566-#565]*0.06826]
#2=[#572+[#573-#572]*0.06826]
#3=[#1+[#2-#1]*0.61755]
X8.31967 Y-2.64491 Z[#3+#4]
G04 P0 ( dwell for no time -- G64 should not smooth over this point )
G00 Z0.08000 ( retract )

G00 X8.55816 Y-3.30051 ( rapid move to begin. )
G01 F180.00000
#1=[#570+[#571-#570]*0.16378]
#2=[#577+[#578-#577]*0.16378]
#3=[#1+[#2-#1]*0.24828]
G01 Z[-0.04000+#111]
G04 P0 ( dwell for no time -- G64 should not smooth over this point )
G01 F360.00000
#1=[#570+[#571-#570]*0.16969]
#2=[#577+[#578-#577]*0.16969]
#3=[#1+[#2-#1]*0.24884]
X8.55837 Y-3.29848 Z[#3+#4]
#1=[#570+[#571-#570]*0.17484]
#2=[#577+[#578-#577]*0.17484]
#3=[#1+[#2-#1]*0.25155]
X8.55940 Y-3.29671 Z[#3+#4]
#1=[#570+[#571-#570]*0.17926]
#2=[#577+[#578-#577]*0.17926]
#3=[#1+[#2-#1]*0.25852]
X8.56203 Y-3.29519 Z[#3+#4]
#1=[#570+[#571-#570]*0.17957]
#2=[#577+[#578-#577]*0.17957]
#3=[#1+[#2-#1]*0.38044]
X8.60813 Y-3.29508 Z[#3+#4]
#1=[#570+[#571-#570]*0.31052]
#2=[#577+[#578-#577]*0.31052]
#3=[#1+[#2-#1]*0.38044]
X8.60813 Y-3.25000 Z[#3+#4]
#1=[#570+[#571-#570]*0.31893]
#2=[#577+[#578-#577]*0.31893]
#3=[#1+[#2-#1]*0.38293]
X8.60907 Y-3.24711 Z[#3+#4]
#1=[#570+[#571-#570]*0.32290]
#2=[#577+[#578-#577]*0.32290]
#3=[#1+[#2-#1]*0.38695]
X8.61059 Y-3.24574 Z[#3+#4]
#1=[#570+[#571-#570]*0.32474]
#2=[#577+[#578-#577]*0.32474]
#3=[#1+[#2-#1]*0.39209]
X8.61254 Y-3.24511 Z[#3+#4]
#1=[#570+[#571-#570]*0.32412]
#2=[#577+[#578-#577]*0.32412]
#3=[#1+[#2-#1]*0.39748]
X8.61457 Y-3.24532 Z[#3+#4]
#1=[#570+[#571-#570]*0.32115]
#2=[#577+[#578-#577]*0.32115]
#3=[#1+[#2-#1]*0.40216]
X8.61635 Y-3.24634 Z[#3+#4]
#1=[#570+[#571-#570]*0.31350]
#2=[#577+[#578-#577]*0.31350]
#3=[#1+[#2-#1]*0.40619]
X8.61787 Y-3.24898 Z[#3+#4]
#1=[#570+[#571-#570]*0.17957]
#2=[#577+[#578-#577]*0.17957]
#3=[#1+[#2-#1]*0.40647]
X8.61798 Y-3.29508 Z[#3+#4]
#1=[#570+[#571-#570]*0.17957]
#2=[#577+[#578-#577]*0.17957]
#3=[#1+[#2-#1]*0.52569]
X8.66305 Y-3.29508 Z[#3+#4]
#1=[#570+[#571-#570]*0.17684]
#2=[#577+[#578-#577]*0.17684]
#3=[#1+[#2-#1]*0.53334]
X8.66595 Y-3.29602 Z[#3+#4]
#1=[#570+[#571-#570]*0.17242]
#2=[#577+[#578-#577]*0.17242]
#3=[#1+[#2-#1]*0.53696]
X8.66732 Y-3.29754 Z[#3+#4]
#1=[#570+[#571-#570]*0.16677]
#2=[#577+[#578-#577]*0.16677]
#3=[#1+[#2-#1]*0.53863]
X8.66795 Y-3.29948 Z[#3+#4]
#1=[#570+[#571-#570]*0.16086]
#2=[#577+[#578-#577]*0.16086]
#3=[#1+[#2-#1]*0.53807]
X8.66773 Y-3.30152 Z[#3+#4]
#1=[#570+[#571-#570]*0.15571]
#2=[#577+[#578-#577]*0.15571]
#3=[#1+[#2-#1]*0.53536]
X8.66671 Y-3.30329 Z[#3+#4]
#1=[#570+[#571-#570]*0.15129]
#2=[#577+[#578-#577]*0.15129]
#3=[#1+[#2-#1]*0.52840]
X8.66408 Y-3.30481 Z[#3+#4]
#1=[#570+[#571-#570]*0.15098]
#2=[#577+[#578-#577]*0.15098]
#3=[#1+[#2-#1]*0.40647]
X8.61798 Y-3.30492 Z[#3+#4]
#1=[#570+[#571-#570]*0.02003]
#2=[#577+[#578-#577]*0.02003]
#3=[#1+[#2-#1]*0.40647]
X8.61798 Y-3.35000 Z[#3+#4]
#1=[#570+[#571-#570]*0.01163]
#2=[#577+[#578-#577]*0.01163]
#3=[#1+[#2-#1]*0.40399]
X8.61704 Y-3.35289 Z[#3+#4]
#1=[#570+[#571-#570]*0.00765]
#2=[#577+[#578-#577]*0.00765]
#3=[#1+[#2-#1]*0.39996]
X8.61551 Y-3.35426 Z[#3+#4]
#1=[#570+[#571-#570]*0.00581]
#2=[#577+[#578-#577]*0.00581]
#3=[#1+[#2-#1]*0.39482]
X8.61357 Y-3.35489 Z[#3+#4]
#1=[#570+[#571-#570]*0.00643]
#2=[#577+[#578-#577]*0.00643]
#3=[#1+[#2-#1]*0.38943]
X8.61153 Y-3.35468 Z[#3+#4]
#1=[#570+[#571-#570]*0.00940]
#2=[#577+[#578-#577]*0.00940]
#3=[#1+[#2-#1]*0.38475]
X8.60976 Y-3.35366 Z[#3+#4]
#1=[#570+[#571-#570]*0.01705]
#2=[#577+[#578-#577]*0.01705]
#3=[#1+[#2-#1]*0.38073]
X8.60824 Y-3.35102 Z[#3+#4]
#1=[#570+[#571-#570]*0.15098]
#2=[#577+[#578-#577]*0.15098]
#3=[#1+[#2-#1]*0.38044]
X8.60813 Y-3.30492 Z[#3+#4]
#1=[#570+[#571-#570]*0.15098]
#2=[#577+[#578-#577]*0.15098]
#3=[#1+[#2-#1]*0.26122]
X8.56305 Y-3.30492 Z[#3+#4]
#1=[#570+[#571-#570]*0.15371]
#2=[#577+[#578-#577]*0.15371]
#3=[#1+[#2-#1]*0.25357]
X8.56016 Y-3.30398 Z[#3+#4]
#1=[#570+[#571-#570]*0.15813]
#2=[#577+[#578-#577]*0.15813]
#3=[#1+[#2-#1]*0.24995]
X8.55879 Y-3.30246 Z[#3+#4]
#1=[#570+[#571-#570]*0.16378]
#2=[#577+[#578-#577]*0.16378]
#3=[#1+[#2-#1]*0.24828]
X8.55816 Y-3.30051 Z[#3+#4]
( Piece #3, position [2;0] )

G04 P0 ( dwell for no time -- G64 should not smooth over this point )
G00 Z0.08000 ( retract )

G00 X8.81119 Y-2.97619 ( rapid move to begin. )
G01 F180.00000
#1=[#571+[#572-#571]*0.10592]
#2=[#578+[#579-#578]*0.10592]
#3=[#1+[#2-#1]*0.91745]
G01 Z[-0.04000+#111]
G04 P0 ( dwell for no time -- G64 should not smooth over this point )
G01 F360.00000
#1=[#571+[#572-#571]*0.83216]
#2=[#578+[#579-#578]*0.83216]
#3=[#1+[#2-#1]*0.91745]
X8.81119 Y-2.72619 Z[#3+#4]
#1=[#572+[#573-#572]*0.55840]
#2=[#579+[#580-#579]*0.55840]
#3=[#1+[#2-#1]*0.91745]
X8.81119 Y-2.47619 Z[#3+#4]
#1=[#572+[#573-#572]*0.58028]
#2=[#579+[#580-#579]*0.58028]
#3=[#1+[#2-#1]*0.92141]
X8.81268 Y-2.46866 Z[#3+#4]
#1=[#572+[#573-#572]*0.59016]
#2=[#579+[#580-#579]*0.59016]
#3=[#1+[#2-#1]*0.92622]
X8.81450 Y-2.46525 Z[#3+#4]
#1=[#572+[#573-#572]*0.60594]
#2=[#579+[#580-#579]*0.60594]
#3=[#1+[#2-#1]*0.94058]
X8.81993 Y-2.45982 Z[#3+#4]
#1=[#572+[#573-#572]*0.61123]
#2=[#579+[#580-#579]*0.61123]
#3=[#1+[#2-#1]*0.94958]
X8.82334 Y-2.45800 Z[#3+#4]
#1=[#572+[#573-#572]*0.61558]
#2=[#579+[#580-#579]*0.61558]
#3=[#1+[#2-#1]*0.96951]
X8.83087 Y-2.45650 Z[#3+#4]
#1=[#579+[#580-#579]*0.61558]
#2=[#586+[#587-#586]*0.61558]
#3=[#1+[#2-#1]*0.59919]
X9.06897 Y-2.45650 Z[#3+#4]
#1=[#579+[#580-#579]*0.61433]
#2=[#586+[#587-#586]*0.61433]
#3=[#1+[#2-#1]*0.61001]
X9.07306 Y-2.45694 Z[#3+#4]
#1=[#579+[#580-#579]*0.61064]
#2=[#586+[#587-#586]*0.61064]
#3=[#1+[#2-#1]*0.62036]
X9.07697 Y-2.45821 Z[#3+#4]
#1=[#579+[#580-#579]*0.60466]
#2=[#586+[#587-#586]*0.60466]
#3=[#1+[#2-#1]*0.62979]
X9.08054 Y-2.46026 Z[#3+#4]
#1=[#579+[#580-#579]*0.59666]
#2=[#586+[#587-#586]*0.59666]
#3=[#1+[#2-#1]*0.63788]
X9.08360 Y-2.46302 Z[#3+#4]
#1=[#579+[#580-#579]*0.58699]
#2=[#586+[#587-#586]*0.58699]
#3=[#1+[#2-#1]*0.64427]
X9.08601 Y-2.46635 Z[#3+#4]
#1=[#579+[#580-#579]*0.57607]
#2=[#586+[#587-#586]*0.57607]
#3=[#1+[#2-#1]*0.64870]
X9.08769 Y-2.47011 Z[#3+#4]
#1=[#579+[#580-#579]*0.56437]
#2=[#586+[#587-#586]*0.56437]
#3=[#1+[#2-#1]*0.65096]
X9.08854 Y-2.47413 Z[#3+#4]
#1=[#579+[#580-#579]*0.55242]
#2=[#586+[#587-#586]*0.55242]
#3=[#1+[#2-#1]*0.65096]
X9.08854 Y-2.47825 Z[#3+#4]
#1=[#579+[#580-#579]*0.54072]
#2=[#586+[#587-#586]*0.54072]
#3=[#1+[#2-#1]*0.64870]
X9.08769 Y-2.48227 Z[#3+#4]
#1=[#579+[#580-#579]*0.52981]
#2=[#586+[#587-#586]*0.52981]
#3=[#1+[#2-#1]*0.64427]
X9.08601 Y-2.48603 Z[#3+#4]
#1=[#579+[#580-#579]*0.52013]
#2=[#586+[#587-#586]*0.52013]
#3=[#1+[#2-#1]*0.63788]
X9.08360 Y-2.48936 Z[#3+#4]
#1=[#579+[#580-#579]*0.51213]
#2=[#586+[#587-#586]*0.51213]
#3=[#1+[#2-#1]*0.62979]
X9.08054 Y-2.49212 Z[#3+#4]
#1=[#579+[#580-#579]*0.50616]
#2=[#586+[#587-#586]*0.50616]
#3=[#1+[#2-#1]*0.62036]
X9.07697 Y-2.49417 Z[#3+#4]
#1=[#579+[#580-#579]*0.50246]
#2=[#586+[#587-#586]*0.50246]
#3=[#1+[#2-#1]*0.61001]
X9.07306 Y-2.49545 Z[#3+#4]
#1=[#579+[#580-#579]*0.50121]
#2=[#586+[#587-#586]*0.50121]
#3=[#1+[#2-#1]*0.59919]
X9.06897 Y-2.49587 Z[#3+#4]
#1=[#579+[#580-#579]*0.50121]
#2=[#586+[#587-#586]*0.50121]
#3=[#1+[#2-#1]*0.02157]
X8.85056 Y-2.49587 Z[#3+#4]
#1=[#578+[#579-#578]*0.92393]
#2=[#585+[#586-#585]*0.92393]
#3=[#1+[#2-#1]*0.02157]
X8.85056 Y-2.69460 Z[#3+#4]
#1=[#578+[#579-#578]*0.92393]
#2=[#585+[#586-#585]*0.92393]
#3=[#1+[#2-#1]*0.41028]
X8.99754 Y-2.69460 Z[#3+#4]
#1=[#578+[#579-#578]*0.92268]
#2=[#585+[#586-#585]*0.92268]
#3=[#1+[#2-#1]*0.42111]
X9.00163 Y-2.69503 Z[#3+#4]
#1=[#578+[#579-#578]*0.91898]
#2=[#585+[#586-#585]*0.91898]
#3=[#1+[#2-#1]*0.43146]
X9.00554 Y-2.69630 Z[#3+#4]
#1=[#578+[#579-#578]*0.91300]
#2=[#585+[#586-#585]*0.91300]
#3=[#1+[#2-#1]*0.44088]
X9.00911 Y-2.69836 Z[#3+#4]
#1=[#578+[#579-#578]*0.90501]
#2=[#585+[#586-#585]*0.90501]
#3=[#1+[#2-#1]*0.44897]
X9.01217 Y-2.70111 Z[#3+#4]
#1=[#578+[#579-#578]*0.89533]
#2=[#585+[#586-#585]*0.89533]
#3=[#1+[#2-#1]*0.45537]
X9.01459 Y-2.70444 Z[#3+#4]
#1=[#578+[#579-#578]*0.88441]
#2=[#585+[#586-#585]*0.88441]
#3=[#1+[#2-#1]*0.45980]
X9.01626 Y-2.70820 Z[#3+#4]
#1=[#578+[#579-#578]*0.87272]
#2=[#585+[#586-#585]*0.87272]
#3=[#1+[#2-#1]*0.46206]
X9.01711 Y-2.71223 Z[#3+#4]
#1=[#578+[#579-#578]*0.86076]
#2=[#585+[#586-#585]*0.86076]
#3=[#1+[#2-#1]*0.46206]
X9.01711 Y-2.71634 Z[#3+#4]
#1=[#578+[#579-#578]*0.84907]
#2=[#585+[#586-#585]*0.84907]
#3=[#1+[#2-#1]*0.45980]
X9.01626 Y-2.72037 Z[#3+#4]
#1=[#578+[#579-#578]*0.83815]
#2=[#585+[#586-#585]*0.83815]
#3=[#1+[#2-#1]*0.45537]
X9.01459 Y-2.72413 Z[#3+#4]
#1=[#578+[#579-#578]*0.82848]
#2=[#585+[#586-#585]*0.82848]
#3=[#1+[#2-#1]*0.44897]
X9.01217 Y-2.72746 Z[#3+#4]
#1=[#578+[#579-#578]*0.82048]
#2=[#585+[#586-#585]*0.82048]
#3=[#1+[#2-#1]*0.44088]
X9.00911 Y-2.73021 Z[#3+#4]
#1=[#578+[#579-#578]*0.81450]
#2=[#585+[#586-#585]*0.81450]
#3=[#1+[#2-#1]*0.43146]
X9.00554 Y-2.73227 Z[#3+#4]
#1=[#578+[#579-#578]*0.81081]
#2=[#585+[#586-#585]*0.81081]
#3=[#1+[#2-#1]*0.42111]
X9.00163 Y-2.73354 Z[#3+#4]
#1=[#578+[#579-#578]*0.80956]
#2=[#585+[#586-#585]*0.80956]
#3=[#1+[#2-#1]*0.41028]
X8.99754 Y-2.73397 Z[#3+#4]
#1=[#578+[#579-#578]*0.80956]
#2=[#585+[#586-#585]*0.80956]
#3=[#1+[#2-#1]*0.02157]
X8.85056 Y-2.73397 Z[#3+#4]
#1=[#578+[#579-#578]*0.10592]
#2=[#585+[#586-#585]*0.10592]
#3=[#1+[#2-#1]*0.02157]
X8.85056 Y-2.97619 Z[#3+#4]
#1=[#578+[#579-#578]*0.09403]
#2=[#585+[#586-#585]*0.09403]
#3=[#1+[#2-#1]*0.02043]
X8.85013 Y-2.98028 Z[#3+#4]
#1=[#578+[#579-#578]*0.08266]
#2=[#585+[#586-#585]*0.08266]
#3=[#1+[#2-#1]*0.01707]
X8.84885 Y-2.98420 Z[#3+#4]
#1=[#578+[#579-#578]*0.07231]
#2=[#585+[#586-#585]*0.07231]
#3=[#1+[#2-#1]*0.01162]
X8.84680 Y-2.98776 Z[#3+#4]
#1=[#578+[#579-#578]*0.06343]
#2=[#585+[#586-#585]*0.06343]
#3=[#1+[#2-#1]*0.00434]
X8.84404 Y-2.99082 Z[#3+#4]
#1=[#571+[#572-#571]*0.05640]
#2=[#578+[#579-#578]*0.05640]
#3=[#1+[#2-#1]*0.99554]
X8.84071 Y-2.99324 Z[#3+#4]
#1=[#571+[#572-#571]*0.05154]
#2=[#578+[#579-#578]*0.05154]
#3=[#1+[#2-#1]*0.98559]
X8.83695 Y-2.99491 Z[#3+#4]
#1=[#571+[#572-#571]*0.04905]
#2=[#578+[#579-#578]*0.04905]
#3=[#1+[#2-#1]*0.97495]
X8.83293 Y-2.99577 Z[#3+#4]
#1=[#571+[#572-#571]*0.04905]
#2=[#578+[#579-#578]*0.04905]
#3=[#1+[#2-#1]*0.96407]
X8.82881 Y-2.99577 Z[#3+#4]
#1=[#571+[#572-#571]*0.05154]
#2=[#578+[#579-#578]*0.05154]
#3=[#1+[#2-#1]*0.95342]
X8.82479 Y-2.99491 Z[#3+#4]
#1=[#571+[#572-#571]*0.05640]
#2=[#578+[#579-#578]*0.05640]
#3=[#1+[#2-#1]*0.94348]
X8.82103 Y-2.99324 Z[#3+#4]
#1=[#571+[#572-#571]*0.06343]
#2=[#578+[#579-#578]*0.06343]
#3=[#1+[#2-#1]*0.93467]
X8.81770 Y-2.99082 Z[#3+#4]
#1=[#571+[#572-#571]*0.07231]
#2=[#578+[#579-#578]*0.07231]
#3=[#1+[#2-#1]*0.92739]
X8.81495 Y-2.98776 Z[#3+#4]
#1=[#571+[#572-#571]*0.08266]
#2=[#578+[#579-#578]*0.08266]
#3=[#1+[#2-#1]*0.92195]
X8.81289 Y-2.98420 Z[#3+#4]
#1=[#571+[#572-#571]*0.09403]
#2=[#578+[#579-#578]*0.09403]
#3=[#1+[#2-#1]*0.91859]
X8.81162 Y-2.98028 Z[#3+#4]
#1=[#571+[#572-#571]*0.10592]
#2=[#578+[#579-#578]*0.10592]
#3=[#1+[#2-#1]*0.91745]
X8.81119 Y-2.97619 Z[#3+#4]
G04 P0 ( dwell for no time -- G64 should not smooth over this point )
G00 Z0.08000 ( retract )

G00 X9.23976 Y-2.97619 ( rapid move to begin. )
G01 F180.00000
#1=[#585+[#586-#585]*0.10592]
#2=[#592+[#593-#592]*0.10592]
#3=[#1+[#2-#1]*0.05087]
G01 Z[-0.04000+#111]
G04 P0 ( dwell for no time -- G64 should not smooth over this point )
G01 F360.00000
#1=[#586+[#587-#586]*0.07424]
#2=[#593+[#594-#593]*0.07424]
#3=[#1+[#2-#1]*0.05087]
X9.23976 Y-2.64286 Z[#3+#4]
#1=[#586+[#587-#586]*0.08613]
#2=[#593+[#594-#593]*0.08613]
#3=[#1+[#2-#1]*0.05201]
X9.24019 Y-2.63876 Z[#3+#4]
#1=[#586+[#587-#586]*0.09750]
#2=[#593+[#594-#593]*0.09750]
#3=[#1+[#2-#1]*0.05537]
X9.24146 Y-2.63485 Z[#3+#4]
#1=[#586+[#587-#586]*0.10785]
#2=[#593+[#594-#593]*0.10785]
#3=[#1+[#2-#1]*0.06081]
X9.24352 Y-2.63129 Z[#3+#4]
#1=[#586+[#587-#586]*0.11673]
#2=[#593+[#594-#593]*0.11673]
#3=[#1+[#2-#1]*0.06810]
X9.24627 Y-2.62823 Z[#3+#4]
#1=[#586+[#587-#586]*0.12376]
#2=[#593+[#594-#593]*0.12376]
#3=[#1+[#2-#1]*0.07690]
X9.24960 Y-2.62581 Z[#3+#4]
#1=[#586+[#587-#586]*0.12862]
#2=[#593+[#594-#593]*0.12862]
#3=[#1+[#2-#1]*0.08685]
X9.25336 Y-2.62413 Z[#3+#4]
#1=[#586+[#587-#586]*0.13111]
#2=[#593+[#594-#593]*0.13111]
#3=[#1+[#2-#1]*0.09749]
X9.25738 Y-2.62328 Z[#3+#4]
#1=[#586+[#587-#586]*0.13111]
#2=[#593+[#594-#593]*0.13111]
#3=[#1+[#2-#1]*0.10837]
X9.26150 Y-2.62328 Z[#3+#4]
#1=[#586+[#587-#586]*0.12862]
#2=[#593+[#594-#593]*0.12862]
#3=[#1+[#2-#1]*0.11902]
X9.26553 Y-2.62413 Z[#3+#4]
#1=[#586+[#587-#586]*0.12376]
#2=[#593+[#594-#593]*0.12376]
#3=[#1+[#2-#1]*0.12896]
X9.26928 Y-2.62581 Z[#3+#4]
#1=[#586+[#587-#586]*0.11673]
#2=[#593+[#594-#593]*0.11673]
#3=[#1+[#2-#1]*0.13777]
X9.27261 Y-2.62823 Z[#3+#4]
#1=[#586+[#587-#586]*0.10785]
#2=[#593+[#594-#593]*0.10785]
#3=[#1+[#2-#1]*0.14505]
X9.27537 Y-2.63129 Z[#3+#4]
#1=[#586+[#587-#586]*0.09750]
#2=[#593+[#594-#593]*0.09750]
#3=[#1+[#2-#1]*0.15049]
X9.27743 Y-2.63485 Z[#3+#4]
#1=[#586+[#587-#586]*0.08613]
#2=[#593+[#594-#593]*0.08613]
#3=[#1+[#2-#1]*0.15386]
X9.27870 Y-2.63876 Z[#3+#4]
#1=[#586+[#587-#586]*0.00480]
#2=[#593+[#594-#593]*0.00480]
#3=[#1+[#2-#1]*0.15499]
X9.27913 Y-2.66676 Z[#3+#4]
#1=[#586+[#587-#586]*0.05146]
#2=[#593+[#594-#593]*0.05146]
#3=[#1+[#2-#1]*0.19843]
X9.29555 Y-2.65070 Z[#3+#4]
#1=[#586+[#587-#586]*0.12871]
#2=[#593+[#594-#593]*0.12871]
#3=[#1+[#2-#1]*0.33897]
X9.34869 Y-2.62410 Z[#3+#4]
#1=[#586+[#587-#586]*0.13142]
#2=[#593+[#594-#593]*0.13142]
#3=[#1+[#2-#1]*0.35480]
X9.35468 Y-2.62317 Z[#3+#4]
#1=[#586+[#587-#586]*0.13142]
#2=[#593+[#594-#593]*0.13142]
#3=[#1+[#2-#1]*0.48074]
X9.40230 Y-2.62317 Z[#3+#4]
#1=[#586+[#587-#586]*0.13017]
#2=[#593+[#594-#593]*0.13017]
#3=[#1+[#2-#1]*0.49157]
X9.40639 Y-2.62360 Z[#3+#4]
#1=[#586+[#587-#586]*0.12648]
#2=[#593+[#594-#593]*0.12648]
#3=[#1+[#2-#1]*0.50192]
X9.41031 Y-2.62487 Z[#3+#4]
#1=[#586+[#587-#586]*0.12050]
#2=[#593+[#594-#593]*0.12050]
#3=[#1+[#2-#1]*0.51134]
X9.41387 Y-2.62693 Z[#3+#4]
#1=[#586+[#587-#586]*0.11250]
#2=[#593+[#594-#593]*0.11250]
#3=[#1+[#2-#1]*0.51943]
X9.41693 Y-2.62968 Z[#3+#4]
#1=[#586+[#587-#586]*0.10283]
#2=[#593+[#594-#593]*0.10283]
#3=[#1+[#2-#1]*0.52583]
X9.41935 Y-2.63301 Z[#3+#4]
#1=[#586+[#587-#586]*0.09191]
#2=[#593+[#594-#593]*0.09191]
#3=[#1+[#2-#1]*0.53025]
X9.42102 Y-2.63677 Z[#3+#4]
#1=[#586+[#587-#586]*0.08022]
#2=[#593+[#594-#593]*0.08022]
#3=[#1+[#2-#1]*0.53252]
X9.42188 Y-2.64080 Z[#3+#4]
#1=[#586+[#587-#586]*0.06826]
#2=[#593+[#594-#593]*0.06826]
#3=[#1+[#2-#1]*0.53252]
X9.42188 Y-2.64491 Z[#3+#4]
#1=[#586+[#587-#586]*0.05657]
#2=[#593+[#594-#593]*0.05657]
#3=[#1+[#2-#1]*0.53025]
X9.42102 Y-2.64894 Z[#3+#4]
#1=[#586+[#587-#586]*0.04565]
#2=[#593+[#594-#593]*0.04565]
#3=[#1+[#2-#1]*0.52583]
X9.41935 Y-2.65270 Z[#3+#4]
#1=[#586+[#587-#586]*0.03598]
#2=[#593+[#594-#593]*0.03598]
#3=[#1+[#2-#1]*0.51943]
X9.41693 Y-2.65603 Z[#3+#4]
#1=[#586+[#587-#586]*0.02798]
#2=[#593+[#594-#593]*0.02798]
#3=[#1+[#2-#1]*0.51134]
X9.41387 Y-2.65878 Z[#3+#4]
#1=[#586+[#587-#586]*0.02200]
#2=[#593+[#594-#593]*0.02200]
#3=[#1+[#2-#1]*0.50192]
X9.41031 Y-2.66084 Z[#3+#4]
#1=[#586+[#587-#586]*0.01830]
#2=[#593+[#594-#593]*0.01830]
#3=[#1+[#2-#1]*0.49157]
X9.40639 Y-2.66211 Z[#3+#4]
#1=[#586+[#587-#586]*0.01705]
#2=[#593+[#594-#593]*0.01705]
#3=[#1+[#2-#1]*0.48074]
X9.40230 Y-2.66254 Z[#3+#4]
#1=[#586+[#587-#586]*0.01705]
#2=[#593+[#594-#593]*0.01705]
#3=[#1+[#2-#1]*0.36709]
X9.35933 Y-2.66254 Z[#3+#4]
#1=[#585+[#586-#585]*0.95808]
#2=[#592+[#593-#592]*0.95808]
#3=[#1+[#2-#1]*0.25971]
X9.31872 Y-2.68284 Z[#3+#4]
#1=[#585+[#586-#585]*0.90204]
#2=[#592+[#593-#592]*0.90204]
#3=[#1+[#2-#1]*0.20869]
X9.29943 Y-2.70214 Z[#3+#4]
#1=[#585+[#586-#585]*0.78408]
#2=[#592+[#593-#592]*0.78408]
#3=[#1+[#2-#1]*0.15499]
X9.27913 Y-2.74274 Z[#3+#4]
#1=[#585+[#586-#585]*0.10592]
#2=[#592+[#593-#592]*0.10592]
#3=[#1+[#2-#1]*0.15499]
X9.27913 Y-2.97619 Z[#3+#4]
#1=[#585+[#586-#585]*0.09403]
#2=[#592+[#593-#592]*0.09403]
#3=[#1+[#2-#1]*0.15386]
X9.27870 Y-2.98028 Z[#3+#4]
#1=[#585+[#586-#585]*0.08266]
#2=[#592+[#593-#592]*0.08266]
#3=[#1+[#2-#1]*0.15049]
X9.27743 Y-2.98420 Z[#3+#4]
#1=[#585+[#586-#585]*0.07231]
#2=[#592+[#593-#592]*0.07231]
#3=[#1+[#2-#1]*0.14505]
X9.27537 Y-2.98776 Z[#3+#4]
#1=[#585+[#586-#585]*0.06343]
#2=[#592+[#593-#592]*0.06343]
#3=[#1+[#2-#1]*0.13777]
X9.27261 Y-2.99082 Z[#3+#4]
#1=[#585+[#586-#585]*0.05640]
#2=[#592+[#593-#592]*0.05640]
#3=[#1+[#2-#1]*0.12896]
X9.26928 Y-2.99324 Z[#3+#4]
#1=[#585+[#586-#585]*0.05154]
#2=[#592+[#593-#592]*0.05154]
#3=[#1+[#2-#1]*0.11902]
X9.26553 Y-2.99491 Z[#3+#4]
#1=[#585+[#586-#585]*0.04905]
#2=[#592+[#593-#592]*0.04905]
#3=[#1+[#2-#1]*0.10837]
X9.26150 Y-2.99577 Z[#3+#4]
#1=[#585+[#586-#585]*0.04905]
#2=[#592+[#593-#592]*0.04905]
#3=[#1+[#2-#1]*0.09749]
X9.25738 Y-2.99577 Z[#3+#4]
#1=[#585+[#586-#585]*0.05154]
#2=[#592+[#593-#592]*0.05154]
#3=[#1+[#2-#1]*0.08685]
X9.25336 Y-2.99491 Z[#3+#4]
#1=[#585+[#586-#585]*0.05640]
#2=[#592+[#593-#592]*0.05640]
#3=[#1+[#2-#1]*0.07690]
X9.24960 Y-2.99324 Z[#3+#4]
#1=[#585+[#586-#585]*0.06343]
#2=[#592+[#593-#592]*0.06343]
#3=[#1+[#2-#1]*0.06810]
X9.24627 Y-2.99082 Z[#3+#4]
#1=[#585+[#586-#585]*0.07231]
#2=[#592+[#593-#592]*0.07231]
#3=[#1+[#2-#1]*0.06081]
X9.24352 Y-2.98776 Z[#3+#4]
#1=[#585+[#586-#585]*0.08266]
#2=[#592+[#593-#592]*0.08266]
#3=[#1+[#2-#1]*0.05537]
X9.24146 Y-2.98420 Z[#3+#4]
#1=[#585+[#586-#585]*0.09403]
#2=[#592+[#593-#592]*0.09403]
#3=[#1+[#2-#1]*0.05201]
X9.24019 Y-2.98028 Z[#3+#4]
#1=[#585+[#586-#585]*0.10592]
#2=[#592+[#593-#592]*0.10592]
#3=[#1+[#2-#1]*0.05087]
X9.23976 Y-2.97619 Z[#3+#4]
G04 P0 ( dwell for no time -- G64 should not smooth over this point )
G00 Z0.08000 ( retract )

G00 X9.52547 Y-2.88095 ( rapid move to begin. )
