( pcb2gcode 1.3.2 )
( Gcode for custom )

G94 ( Inches per minute feed rate. )
G20 ( Units == INCHES. )

G90 ( Absolute coordinates. )
G00 S12000 ( RPM spindle speed. )
G64 P0.00040 ( set maximum deviation from commanded toolpath )
G01 F360.00000 ( Feedrate. )

#118 = #5211
#119 = #5212

(MSG, Attach the probe tool)
M0 ( Temporary machine stop. )
G0 Z0.080 ( Move Z to safe height )
G0 X4.68308 Y-3.35689 ( Move XY to start point )
G0 Z0.080 ( Move Z to probe height )
G38.2 Z-0.1 F2.362205 ( Z-probe )
#500 = 0 ( Probe point [0, 0] is our reference )
G92 Z0 ( Set the current Z as zero-value )

( We now start the real probing: move the Z axis to the probing height, move to )
( the probing XY position, probe it and save the result, parameter #2002, )
( in a numbered parameter; we will make 17 probes on the X-axis and )
( 7 probes on the Y-axis, for a grand total of 119 probes )

G0 Z0.080
X4.68308 Y-3.01305
G38.2 Z-0.1 F2.362205
#501=#2002
G0 Z0.080
X4.68308 Y-2.66920
G38.2 Z-0.1 F2.362205
#502=#2002
G0 Z0.080
X4.68308 Y-2.32535
G38.2 Z-0.1 F2.362205
#503=#2002
G0 Z0.080
X4.68308 Y-1.98151
G38.2 Z-0.1 F2.362205
#504=#2002
G0 Z0.080
X4.68308 Y-1.63766
G38.2 Z-0.1 F2.362205
#505=#2002
G0 Z0.080
X4.68308 Y-1.29381
G38.2 Z-0.1 F2.362205
#506=#2002
G0 Z0.080
X5.06090 Y-1.29381
G38.2 Z-0.1 F2.362205
#513=#2002
G0 Z0.080
X5.06090 Y-1.63766
G38.2 Z-0.1 F2.362205
#512=#2002
G0 Z0.080
X5.06090 Y-1.98151
G38.2 Z-0.1 F2.362205
#511=#2002
G0 Z0.080
X5.06090 Y-2.32535
G38.2 Z-0.1 F2.362205
#510=#2002
G0 Z0.080
X5.06090 Y-2.66920
G38.2 Z-0.1 F2.362205
#509=#2002
G0 Z0.080
X5.06090 Y-3.01305
G38.2 Z-0.1 F2.362205
#508=#2002
G0 Z0.080
X5.06090 Y-3.35689
G38.2 Z-0.1 F2.362205
#507=#2002
G0 Z0.080
X5.43873 Y-3.35689
G38.2 Z-0.1 F2.362205
#514=#2002
G0 Z0.080
X5.43873 Y-3.01305
G38.2 Z-0.1 F2.362205
#515=#2002
G0 Z0.080
X5.43873 Y-2.66920
G38.2 Z-0.1 F2.362205
#516=#2002
G0 Z0.080
X5.43873 Y-2.32535
G38.2 Z-0.1 F2.362205
#517=#2002
G0 Z0.080
X5.43873 Y-1.98151
G38.2 Z-0.1 F2.362205
#518=#2002
G0 Z0.080
X5.43873 Y-1.63766
G38.2 Z-0.1 F2.362205
#519=#2002
G0 Z0.080
X5.43873 Y-1.29381
G38.2 Z-0.1 F2.362205
#520=#2002
G0 Z0.080
X5.81655 Y-1.29381
G38.2 Z-0.1 F2.362205
#527=#2002
G0 Z0.080
X5.81655 Y-1.63766
G38.2 Z-0.1 F2.362205
#526=#2002
G0 Z0.080
X5.81655 Y-1.98151
G38.2 Z-0.1 F2.362205
#525=#2002
G0 Z0.080
X5.81655 Y-2.32535
G38.2 Z-0.1 F2.362205
#524=#2002
G0 Z0.080
X5.81655 Y-2.66920
G38.2 Z-0.1 F2.362205
#523=#2002
G0 Z0.080
X5.81655 Y-3.01305
G38.2 Z-0.1 F2.362205
#522=#2002
G0 Z0.080
X5.81655 Y-3.35689
G38.2 Z-0.1 F2.362205
#521=#2002
G0 Z0.080
X6.19438 Y-3.35689
G38.2 Z-0.1 F2.362205
#528=#2002
G0 Z0.080
X6.19438 Y-3.01305
G38.2 Z-0.1 F2.362205
#529=#2002
G0 Z0.080
X6.19438 Y-2.66920
G38.2 Z-0.1 F2.362205
#530=#2002
G0 Z0.080
X6.19438 Y-2.32535
G38.2 Z-0.1 F2.362205
#531=#2002
G0 Z0.080
X6.19438 Y-1.98151
G38.2 Z-0.1 F2.362205
#532=#2002
G0 Z0.080
X6.19438 Y-1.63766
G38.2 Z-0.1 F2.362205
#533=#2002
G0 Z0.080
X6.19438 Y-1.29381
G38.2 Z-0.1 F2.362205
#534=#2002
G0 Z0.080
X6.57220 Y-1.29381
G38.2 Z-0.1 F2.362205
#541=#2002
G0 Z0.080
X6.57220 Y-1.63766
G38.2 Z-0.1 F2.362205
#540=#2002
G0 Z0.080
X6.57220 Y-1.98151
G38.2 Z-0.1 F2.362205
#539=#2002
G0 Z0.080
X6.57220 Y-2.32535
G38.2 Z-0.1 F2.362205
#538=#2002
G0 Z0.080
X6.57220 Y-2.66920
G38.2 Z-0.1 F2.362205
#537=#2002
G0 Z0.080
X6.57220 Y-3.01305
G38.2 Z-0.1 F2.362205
#536=#2002
G0 Z0.080
X6.57220 Y-3.35689
G38.2 Z-0.1 F2.362205
#535=#2002
G0 Z0.080
X6.95003 Y-3.35689
G38.2 Z-0.1 F2.362205
#542=#2002
G0 Z0.080
X6.95003 Y-3.01305
G38.2 Z-0.1 F2.362205
#543=#2002
G0 Z0.080
X6.95003 Y-2.66920
G38.2 Z-0.1 F2.362205
#544=#2002
G0 Z0.080
X6.95003 Y-2.32535
G38.2 Z-0.1 F2.362205
#545=#2002
G0 Z0.080
X6.95003 Y-1.98151
G38.2 Z-0.1 F2.362205
#546=#2002
G0 Z0.080
X6.95003 Y-1.63766
G38.2 Z-0.1 F2.362205
#547=#2002
G0 Z0.080
X6.95003 Y-1.29381
G38.2 Z-0.1 F2.362205
#548=#2002
G0 Z0.080
X7.32785 Y-1.29381
G38.2 Z-0.1 F2.362205
#555=#2002
G0 Z0.080
X7.32785 Y-1.63766
G38.2 Z-0.1 F2.362205
#554=#2002
G0 Z0.080
X7.32785 Y-1.98151
G38.2 Z-0.1 F2.362205
#553=#2002
G0 Z0.080
X7.32785 Y-2.32535
G38.2 Z-0.1 F2.362205
#552=#2002
G0 Z0.080
X7.32785 Y-2.66920
G38.2 Z-0.1 F2.362205
#551=#2002
G0 Z0.080
X7.32785 Y-3.01305
G38.2 Z-0.1 F2.362205
#550=#2002
G0 Z0.080
X7.32785 Y-3.35689
G38.2 Z-0.1 F2.362205
#549=#2002
G0 Z0.080
X7.70568 Y-3.35689
G38.2 Z-0.1 F2.362205
#556=#2002
G0 Z0.080
X7.70568 Y-3.01305
G38.2 Z-0.1 F2.362205
#557=#2002
G0 Z0.080
X7.70568 Y-2.66920
G38.2 Z-0.1 F2.362205
#558=#2002
G0 Z0.080
X7.70568 Y-2.32535
G38.2 Z-0.1 F2.362205
#559=#2002
G0 Z0.080
X7.70568 Y-1.98151
G38.2 Z-0.1 F2.362205
#560=#2002
G0 Z0.080
X7.70568 Y-1.63766
G38.2 Z-0.1 F2.362205
#561=#2002
G0 Z0.080
X7.70568 Y-1.29381
G38.2 Z-0.1 F2.362205
#562=#2002
G0 Z0.080
X8.08350 Y-1.29381
G38.2 Z-0.1 F2.362205
#569=#2002
G0 Z0.080
X8.08350 Y-1.63766
G38.2 Z-0.1 F2.362205
#568=#2002
G0 Z0.080
X8.08350 Y-1.98151
G38.2 Z-0.1 F2.362205
#567=#2002
G0 Z0.080
X8.08350 Y-2.32535
G38.2 Z-0.1 F2.362205
#566=#2002
G0 Z0.080
X8.08350 Y-2.66920
G38.2 Z-0.1 F2.362205
#565=#2002
G0 Z0.080
X8.08350 Y-3.01305
G38.2 Z-0.1 F2.362205
#564=#2002
G0 Z0.080
X8.08350 Y-3.35689
G38.2 Z-0.1 F2.362205
#563=#2002
G0 Z0.080
X8.46133 Y-3.35689
G38.2 Z-0.1 F2.362205
#570=#2002
G0 Z0.080
X8.46133 Y-3.01305
G38.2 Z-0.1 F2.362205
#571=#2002
G0 Z0.080
X8.46133 Y-2.66920
G38.2 Z-0.1 F2.362205
#572=#2002
G0 Z0.080
X8.46133 Y-2.32535
G38.2 Z-0.1 F2.362205
#573=#2002
G0 Z0.080
X8.46133 Y-1.98151
G38.2 Z-0.1 F2.362205
#574=#2002
G0 Z0.080
X8.46133 Y-1.63766
G38.2 Z-0.1 F2.362205
#575=#2002
G0 Z0.080
X8.46133 Y-1.29381
G38.2 Z-0.1 F2.362205
#576=#2002
G0 Z0.080
X8.83915 Y-1.29381
G38.2 Z-0.1 F2.362205
#583=#2002
G0 Z0.080
X8.83915 Y-1.63766
G38.2 Z-0.1 F2.362205
#582=#2002
G0 Z0.080
X8.83915 Y-1.98151
G38.2 Z-0.1 F2.362205
#581=#2002
G0 Z0.080
X8.83915 Y-2.32535
G38.2 Z-0.1 F2.362205
#580=#2002
G0 Z0.080
X8.83915 Y-2.66920
G38.2 Z-0.1 F2.362205
#579=#2002
G0 Z0.080
X8.83915 Y-3.01305
G38.2 Z-0.1 F2.362205
#578=#2002
G0 Z0.080
X8.83915 Y-3.35689
G38.2 Z-0.1 F2.362205
#577=#2002
G0 Z0.080
X9.21698 Y-3.35689
G38.2 Z-0.1 F2.362205
#584=#2002
G0 Z0.080
X9.21698 Y-3.01305
G38.2 Z-0.1 F2.362205
#585=#2002
G0 Z0.080
X9.21698 Y-2.66920
G38.2 Z-0.1 F2.362205
#586=#2002
G0 Z0.080
X9.21698 Y-2.32535
G38.2 Z-0.1 F2.362205
#587=#2002
G0 Z0.080
X9.21698 Y-1.98151
G38.2 Z-0.1 F2.362205
#588=#2002
G0 Z0.080
X9.21698 Y-1.63766
G38.2 Z-0.1 F2.362205
#589=#2002
G0 Z0.080
X9.21698 Y-1.29381
G38.2 Z-0.1 F2.362205
#590=#2002
G0 Z0.080
X9.59480 Y-1.29381
G38.2 Z-0.1 F2.362205
#597=#2002
G0 Z0.080
X9.59480 Y-1.63766
G38.2 Z-0.1 F2.362205
#596=#2002
G0 Z0.080
X9.59480 Y-1.98151
G38.2 Z-0.1 F2.362205
#595=#2002
G0 Z0.080
X9.59480 Y-2.32535
G38.2 Z-0.1 F2.362205
#594=#2002
G0 Z0.080
X9.59480 Y-2.66920
G38.2 Z-0.1 F2.362205
#593=#2002
G0 Z0.080
X9.59480 Y-3.01305
G38.2 Z-0.1 F2.362205
#592=#2002
G0 Z0.080
X9.59480 Y-3.35689
G38.2 Z-0.1 F2.362205
#591=#2002
G0 Z0.080
X9.97263 Y-3.35689
G38.2 Z-0.1 F2.362205
#598=#2002
G0 Z0.080
X9.97263 Y-3.01305
G38.2 Z-0.1 F2.362205
#599=#2002
G0 Z0.080
X9.97263 Y-2.66920
G38.2 Z-0.1 F2.362205
#600=#2002
G0 Z0.080
X9.97263 Y-2.32535
G38.2 Z-0.1 F2.362205
#601=#2002
G0 Z0.080
X9.97263 Y-1.98151
G38.2 Z-0.1 F2.362205
#602=#2002
G0 Z0.080
X9.97263 Y-1.63766
G38.2 Z-0.1 F2.362205
#603=#2002
G0 Z0.080
X9.97263 Y-1.29381
G38.2 Z-0.1 F2.362205
#604=#2002
G0 Z0.080
X10.35045 Y-1.29381
G38.2 Z-0.1 F2.362205
#611=#2002
G0 Z0.080
X10.35045 Y-1.63766
G38.2 Z-0.1 F2.362205
#610=#2002
G0 Z0.080
X10.35045 Y-1.98151
G38.2 Z-0.1 F2.362205
#609=#2002
G0 Z0.080
X10.35045 Y-2.32535
G38.2 Z-0.1 F2.362205
#608=#2002
G0 Z0.080
X10.35045 Y-2.66920
G38.2 Z-0.1 F2.362205
#607=#2002
G0 Z0.080
X10.35045 Y-3.01305
G38.2 Z-0.1 F2.362205
#606=#2002
G0 Z0.080
X10.35045 Y-3.35689
G38.2 Z-0.1 F2.362205
#605=#2002
G0 Z0.080
X10.72828 Y-3.35689
G38.2 Z-0.1 F2.362205
#612=#2002
G0 Z0.080
X10.72828 Y-3.01305
G38.2 Z-0.1 F2.362205
#613=#2002
G0 Z0.080
X10.72828 Y-2.66920
G38.2 Z-0.1 F2.362205
#614=#2002
G0 Z0.080
X10.72828 Y-2.32535
G38.2 Z-0.1 F2.362205
#615=#2002
G0 Z0.080
X10.72828 Y-1.98151
G38.2 Z-0.1 F2.362205
#616=#2002
G0 Z0.080
X10.72828 Y-1.63766
G38.2 Z-0.1 F2.362205
#617=#2002
G0 Z0.080
X10.72828 Y-1.29381
G38.2 Z-0.1 F2.362205
#618=#2002

G0 Z0.080 ( Move Z to safe height )
( Probing has ended, each Z-coordinate will be corrected with a bilinear interpolation )
(MSG, Detach the probe tool)
M0 ( Temporary machine stop. )

#4 = -0.04000

G01 F360.00000 ( Feedrate. )
M3 ( Spindle on clockwise. )
G04 P1.00000
( Piece #1, position [0;0] )

G04 P0 ( dwell for no time -- G64 should not smooth over this point )
G00 Z0.08000 ( retract )

G00 X4.68508 Y-2.97619 ( rapid move to begin. )
G01 F180.00000
#1=[#501+[#502-#501]*0.10719]
#2=[#508+[#509-#508]*0.10719]
#3=[#1+[#2-#1]*0.00529]
G01 Z[-0.04000+#111]
G04 P0 ( dwell for no time -- G64 should not smooth over this point )
G01 F360.00000
#1=[#501+[#502-#501]*0.83426]
#2=[#508+[#509-#508]*0.83426]
#3=[#1+[#2-#1]*0.00529]
X4.68508 Y-2.72619 Z[#3+#4]
#1=[#502+[#503-#502]*0.56133]
#2=[#509+[#510-#509]*0.56133]
#3=[#1+[#2-#1]*0.00529]
X4.68508 Y-2.47619 Z[#3+#4]
#1=[#502+[#503-#502]*0.58323]
#2=[#509+[#510-#509]*0.58323]
#3=[#1+[#2-#1]*0.00926]
X4.68658 Y-2.46866 Z[#3+#4]
#1=[#502+[#503-#502]*0.59313]
#2=[#509+[#510-#509]*0.59313]
#3=[#1+[#2-#1]*0.01408]
X4.68839 Y-2.46525 Z[#3+#4]
#1=[#502+[#503-#502]*0.60893]
#2=[#509+[#510-#509]*0.60893]
#3=[#1+[#2-#1]*0.02845]
X4.69383 Y-2.45982 Z[#3+#4]
#1=[#502+[#503-#502]*0.61422]
#2=[#509+[#510-#509]*0.61422]
#3=[#1+[#2-#1]*0.03746]
X4.69723 Y-2.45800 Z[#3+#4]
#1=[#502+[#503-#502]*0.61857]
#2=[#509+[#510-#509]*0.61857]
#3=[#1+[#2-#1]*0.05739]
X4.70476 Y-2.45650 Z[#3+#4]
#1=[#502+[#503-#502]*0.61857]
#2=[#509+[#510-#509]*0.61857]
#3=[#1+[#2-#1]*0.68757]
X4.94286 Y-2.45650 Z[#3+#4]
#1=[#502+[#503-#502]*0.61732]
#2=[#509+[#510-#509]*0.61732]
#3=[#1+[#2-#1]*0.69840]
X4.94695 Y-2.45694 Z[#3+#4]
#1=[#502+[#503-#502]*0.61362]
#2=[#509+[#510-#509]*0.61362]
#3=[#1+[#2-#1]*0.70876]
X4.95086 Y-2.45821 Z[#3+#4]
#1=[#502+[#503-#502]*0.60764]
#2=[#509+[#510-#509]*0.60764]
#3=[#1+[#2-#1]*0.71819]
X4.95443 Y-2.46026 Z[#3+#4]
#1=[#502+[#503-#502]*0.59963]
#2=[#509+[#510-#509]*0.59963]
#3=[#1+[#2-#1]*0.72629]
X4.95749 Y-2.46302 Z[#3+#4]
#1=[#502+[#503-#502]*0.58995]
#2=[#509+[#510-#509]*0.58995]
#3=[#1+[#2-#1]*0.73269]
X4.95990 Y-2.46635 Z[#3+#4]
#1=[#502+[#503-#502]*0.57902]
#2=[#509+[#510-#509]*0.57902]
#3=[#1+[#2-#1]*0.73712]
X4.96158 Y-2.47011 Z[#3+#4]
#1=[#502+[#503-#502]*0.56731]
#2=[#509+[#510-#509]*0.56731]
#3=[#1+[#2-#1]*0.73938]
X4.96243 Y-2.47413 Z[#3+#4]
#1=[#502+[#503-#502]*0.55534]
#2=[#509+[#510-#509]*0.55534]
#3=[#1+[#2-#1]*0.73938]
X4.96243 Y-2.47825 Z[#3+#4]
#1=[#502+[#503-#502]*0.54363]
#2=[#509+[#510-#509]*0.54363]
#3=[#1+[#2-#1]*0.73712]
X4.96158 Y-2.48227 Z[#3+#4]
#1=[#502+[#503-#502]*0.53270]
#2=[#509+[#510-#509]*0.53270]
#3=[#1+[#2-#1]*0.73269]
X4.95990 Y-2.48603 Z[#3+#4]
#1=[#502+[#503-#502]*0.52302]
#2=[#509+[#510-#509]*0.52302]
#3=[#1+[#2-#1]*0.72629]
X4.95749 Y-2.48936 Z[#3+#4]
#1=[#502+[#503-#502]*0.51501]
#2=[#509+[#510-#509]*0.51501]
#3=[#1+[#2-#1]*0.71819]
X4.95443 Y-2.49212 Z[#3+#4]
#1=[#502+[#503-#502]*0.50903]
#2=[#509+[#510-#509]*0.50903]
#3=[#1+[#2-#1]*0.70876]
X4.95086 Y-2.49417 Z[#3+#4]
#1=[#502+[#503-#502]*0.50533]
#2=[#509+[#510-#509]*0.50533]
#3=[#1+[#2-#1]*0.69840]
X4.94695 Y-2.49545 Z[#3+#4]
#1=[#502+[#503-#502]*0.50408]
#2=[#509+[#510-#509]*0.50408]
#3=[#1+[#2-#1]*0.68757]
X4.94286 Y-2.49587 Z[#3+#4]
#1=[#502+[#503-#502]*0.50408]
#2=[#509+[#510-#509]*0.50408]
#3=[#1+[#2-#1]*0.10950]
X4.72445 Y-2.49587 Z[#3+#4]
#1=[#501+[#502-#501]*0.92613]
#2=[#508+[#509-#508]*0.92613]
#3=[#1+[#2-#1]*0.10950]
X4.72445 Y-2.69460 Z[#3+#4]
#1=[#501+[#502-#501]*0.92613]
#2=[#508+[#509-#508]*0.92613]
#3=[#1+[#2-#1]*0.49852]
X4.87143 Y-2.69460 Z[#3+#4]
#1=[#501+[#502-#501]*0.92488]
#2=[#508+[#509-#508]*0.92488]
#3=[#1+[#2-#1]*0.50935]
X4.87552 Y-2.69503 Z[#3+#4]
#1=[#501+[#502-#501]*0.92118]
#2=[#508+[#509-#508]*0.92118]
#3=[#1+[#2-#1]*0.51971]
X4.87943 Y-2.69630 Z[#3+#4]
#1=[#501+[#502-#501]*0.91519]
#2=[#508+[#509-#508]*0.91519]
#3=[#1+[#2-#1]*0.52914]
X4.88300 Y-2.69836 Z[#3+#4]
#1=[#501+[#502-#501]*0.90719]
#2=[#508+[#509-#508]*0.90719]
#3=[#1+[#2-#1]*0.53724]
X4.88606 Y-2.70111 Z[#3+#4]
#1=[#501+[#502-#501]*0.89750]
#2=[#508+[#509-#508]*0.89750]
#3=[#1+[#2-#1]*0.54364]
X4.88848 Y-2.70444 Z[#3+#4]
#1=[#501+[#502-#501]*0.88657]
#2=[#508+[#509-#508]*0.88657]
#3=[#1+[#2-#1]*0.54807]
X4.89015 Y-2.70820 Z[#3+#4]
#1=[#501+[#502-#501]*0.87486]
#2=[#508+[#509-#508]*0.87486]
#3=[#1+[#2-#1]*0.55033]
X4.89100 Y-2.71223 Z[#3+#4]
#1=[#501+[#502-#501]*0.86290]
#2=[#508+[#509-#508]*0.86290]
#3=[#1+[#2-#1]*0.55033]
X4.89100 Y-2.71634 Z[#3+#4]
#1=[#501+[#502-#501]*0.85119]
#2=[#508+[#509-#508]*0.85119]
#3=[#1+[#2-#1]*0.54807]
X4.89015 Y-2.72037 Z[#3+#4]
#1=[#501+[#502-#501]*0.84025]
#2=[#508+[#509-#508]*0.84025]
#3=[#1+[#2-#1]*0.54364]
X4.88848 Y-2.72413 Z[#3+#4]
#1=[#501+[#502-#501]*0.83057]
#2=[#508+[#509-#508]*0.83057]
#3=[#1+[#2-#1]*0.53724]
X4.88606 Y-2.72746 Z[#3+#4]
#1=[#501+[#502-#501]*0.82256]
#2=[#508+[#509-#508]*0.82256]
#3=[#1+[#2-#1]*0.52914]
X4.88300 Y-2.73021 Z[#3+#4]
#1=[#501+[#502-#501]*0.81658]
#2=[#508+[#509-#508]*0.81658]
#3=[#1+[#2-#1]*0.51971]
X4.87943 Y-2.73227 Z[#3+#4]
#1=[#501+[#502-#501]*0.81288]
#2=[#508+[#509-#508]*0.81288]
#3=[#1+[#2-#1]*0.50935]
X4.87552 Y-2.73354 Z[#3+#4]
#1=[#501+[#502-#501]*0.81163]
#2=[#508+[#509-#508]*0.81163]
#3=[#1+[#2-#1]*0.49852]
X4.87143 Y-2.73397 Z[#3+#4]
#1=[#501+[#502-#501]*0.81163]
#2=[#508+[#509-#508]*0.81163]
#3=[#1+[#2-#1]*0.10950]
X4.72445 Y-2.73397 Z[#3+#4]
#1=[#501+[#502-#501]*0.10719]
#2=[#508+[#509-#508]*0.10719]
#3=[#1+[#2-#1]*0.10950]
X4.72445 Y-2.97619 Z[#3+#4]
#1=[#501+[#502-#501]*0.09529]
#2=[#508+[#509-#508]*0.09529]
#3=[#1+[#2-#1]*0.10836]
X4.72402 Y-2.98028 Z[#3+#4]
#1=[#501+[#502-#501]*0.08390]
#2=[#508+[#509-#508]*0.08390]
#3=[#1+[#2-#1]*0.10499]
X4.72274 Y-2.98420 Z[#3+#4]
#1=[#501+[#502-#501]*0.07354]
#2=[#508+[#509-#508]*0.07354]
#3=[#1+[#2-#1]*0.09955]
X4.72069 Y-2.98776 Z[#3+#4]
#1=[#501+[#502-#501]*0.06464]
#2=[#508+[#509-#508]*0.06464]
#3=[#1+[#2-#1]*0.09226]
X4.71793 Y-2.99082 Z[#3+#4]
#1=[#501+[#502-#501]*0.05761]
#2=[#508+[#509-#508]*0.05761]
#3=[#1+[#2-#1]*0.08345]
X4.71460 Y-2.99324 Z[#3+#4]
#1=[#501+[#502-#501]*0.05274]
#2=[#508+[#509-#508]*0.05274]
#3=[#1+[#2-#1]*0.07349]
X4.71084 Y-2.99491 Z[#3+#4]
#1=[#501+[#502-#501]*0.05025]
#2=[#508+[#509-#508]*0.05025]
#3=[#1+[#2-#1]*0.06284]
X4.70682 Y-2.99577 Z[#3+#4]
#1=[#501+[#502-#501]*0.05025]
#2=[#508+[#509-#508]*0.05025]
#3=[#1+[#2-#1]*0.05195]
X4.70270 Y-2.99577 Z[#3+#4]
#1=[#501+[#502-#501]*0.05274]
#2=[#508+[#509-#508]*0.05274]
#3=[#1+[#2-#1]*0.04129]
X4.69868 Y-2.99491 Z[#3+#4]
#1=[#501+[#502-#501]*0.05761]
#2=[#508+[#509-#508]*0.05761]
#3=[#1+[#2-#1]*0.03135]
X4.69492 Y-2.99324 Z[#3+#4]
#1=[#501+[#502-#501]*0.06464]
#2=[#508+[#509-#508]*0.06464]
#3=[#1+[#2-#1]*0.02253]
X4.69159 Y-2.99082 Z[#3+#4]
#1=[#501+[#502-#501]*0.07354]
#2=[#508+[#509-#508]*0.07354]
#3=[#1+[#2-#1]*0.01525]
X4.68884 Y-2.98776 Z[#3+#4]
#1=[#501+[#502-#501]*0.08390]
#2=[#508+[#509-#508]*0.08390]
#3=[#1+[#2-#1]*0.00980]
X4.68678 Y-2.98420 Z[#3+#4]
#1=[#501+[#502-#501]*0.09529]
#2=[#508+[#509-#508]*0.09529]
#3=[#1+[#2-#1]*0.00643]
X4.68551 Y-2.98028 Z[#3+#4]
#1=[#501+[#502-#501]*0.10719]
#2=[#508+[#509-#508]*0.10719]
#3=[#1+[#2-#1]*0.00529]
X4.68508 Y-2.97619 Z[#3+#4]
G04 P0 ( dwell for no time -- G64 should not smooth over this point )
G00 Z0.08000 ( retract )

G00 X5.11365 Y-2.97619 ( rapid move to begin. )
G01 F180.00000
#1=[#508+[#509-#508]*0.10719]
#2=[#515+[#516-#515]*0.10719]
#3=[#1+[#2-#1]*0.13961]
G01 Z[-0.04000+#111]
G04 P0 ( dwell for no time -- G64 should not smooth over this point )
G01 F360.00000
#1=[#509+[#510-#509]*0.07661]
#2=[#516+[#517-#516]*0.07661]
#3=[#1+[#2-#1]*0.13961]
X5.11365 Y-2.64286 Z[#3+#4]
#1=[#509+[#510-#509]*0.08852]
#2=[#516+[#517-#516]*0.08852]
#3=[#1+[#2-#1]*0.14074]
X5.11408 Y-2.63876 Z[#3+#4]
#1=[#509+[#510-#509]*0.09990]
#2=[#516+[#517-#516]*0.09990]
#3=[#1+[#2-#1]*0.14411]
X5.11535 Y-2.63485 Z[#3+#4]
#1=[#509+[#510-#509]*0.11026]
#2=[#516+[#517-#516]*0.11026]
#3=[#1+[#2-#1]*0.14956]
X5.11741 Y-2.63129 Z[#3+#4]
#1=[#509+[#510-#509]*0.11916]
#2=[#516+[#517-#516]*0.11916]
#3=[#1+[#2-#1]*0.15684]
X5.12016 Y-2.62823 Z[#3+#4]
#1=[#509+[#510-#509]*0.12619]
#2=[#516+[#517-#516]*0.12619]
#3=[#1+[#2-#1]*0.16566]
X5.12349 Y-2.62581 Z[#3+#4]
#1=[#509+[#510-#509]*0.13106]
#2=[#516+[#517-#516]*0.13106]
#3=[#1+[#2-#1]*0.17561]
X5.12725 Y-2.62413 Z[#3+#4]
#1=[#509+[#510-#509]*0.13355]
#2=[#516+[#517-#516]*0.13355]
#3=[#1+[#2-#1]*0.18626]
X5.13127 Y-2.62328 Z[#3+#4]
#1=[#509+[#510-#509]*0.13355]
#2=[#516+[#517-#516]*0.13355]
#3=[#1+[#2-#1]*0.19715]
X5.13539 Y-2.62328 Z[#3+#4]
#1=[#509+[#510-#509]*0.13106]
#2=[#516+[#517-#516]*0.13106]
#3=[#1+[#2-#1]*0.20781]
X5.13942 Y-2.62413 Z[#3+#4]
#1=[#509+[#510-#509]*0.12619]
#2=[#516+[#517-#516]*0.12619]
#3=[#1+[#2-#1]*0.21776]
X5.14318 Y-2.62581 Z[#3+#4]
#1=[#509+[#510-#509]*0.11916]
#2=[#516+[#517-#516]*0.11916]
#3=[#1+[#2-#1]*0.22657]
X5.14651 Y-2.62823 Z[#3+#4]
#1=[#509+[#510-#509]*0.11026]
#2=[#516+[#517-#516]*0.11026]
#3=[#1+[#2-#1]*0.23386]
X5.14926 Y-2.63129 Z[#3+#4]
#1=[#509+[#510-#509]*0.09990]
#2=[#516+[#517-#516]*0.09990]
#3=[#1+[#2-#1]*0.23930]
X5.15132 Y-2.63485 Z[#3+#4]
#1=[#509+[#510-#509]*0.08852]
#2=[#516+[#517-#516]*0.08852]
#3=[#1+[#2-#1]*0.24267]
X5.15259 Y-2.63876 Z[#3+#4]
#1=[#509+[#510-#509]*0.00709]
#2=[#516+[#517-#516]*0.00709]
#3=[#1+[#2-#1]*0.24381]
X5.15302 Y-2.66676 Z[#3+#4]
#1=[#509+[#510-#509]*0.05381]
#2=[#516+[#517-#516]*0.05381]
#3=[#1+[#2-#1]*0.28728]
X5.16944 Y-2.65070 Z[#3+#4]
#1=[#509+[#510-#509]*0.13115]
#2=[#516+[#517-#516]*0.13115]
#3=[#1+[#2-#1]*0.42793]
X5.22258 Y-2.62410 Z[#3+#4]
#1=[#509+[#510-#509]*0.13386]
#2=[#516+[#517-#516]*0.13386]
#3=[#1+[#2-#1]*0.44378]
X5.22857 Y-2.62317 Z[#3+#4]
#1=[#509+[#510-#509]*0.13386]
#2=[#516+[#517-#516]*0.13386]
#3=[#1+[#2-#1]*0.56981]
X5.27619 Y-2.62317 Z[#3+#4]
#1=[#509+[#510-#509]*0.13261]
#2=[#516+[#517-#516]*0.13261]
#3=[#1+[#2-#1]*0.58064]
X5.28028 Y-2.62360 Z[#3+#4]
#1=[#509+[#510-#509]*0.12891]
#2=[#516+[#517-#516]*0.12891]
#3=[#1+[#2-#1]*0.59100]
X5.28420 Y-2.62487 Z[#3+#4]
#1=[#509+[#510-#509]*0.12293]
#2=[#516+[#517-#516]*0.12293]
#3=[#1+[#2-#1]*0.60044]
X5.28776 Y-2.62693 Z[#3+#4]
#1=[#509+[#510-#509]*0.11492]
#2=[#516+[#517-#516]*0.11492]
#3=[#1+[#2-#1]*0.60853]
X5.29082 Y-2.62968 Z[#3+#4]
#1=[#509+[#510-#509]*0.10524]
#2=[#516+[#517-#516]*0.10524]
#3=[#1+[#2-#1]*0.61493]
X5.29324 Y-2.63301 Z[#3+#4]
#1=[#509+[#510-#509]*0.09430]
#2=[#516+[#517-#516]*0.09430]
#3=[#1+[#2-#1]*0.61936]
X5.29491 Y-2.63677 Z[#3+#4]
#1=[#509+[#510-#509]*0.08260]
#2=[#516+[#517-#516]*0.08260]
#3=[#1+[#2-#1]*0.62163]
X5.29577 Y-2.64080 Z[#3+#4]
#1=[#509+[#510-#509]*0.07063]
#2=[#516+[#517-#516]*0.07063]
#3=[#1+[#2-#1]*0.62163]
X5.29577 Y-2.64491 Z[#3+#4]
#1=[#509+[#510-#509]*0.05892]
#2=[#516+[#517-#516]*0.05892]
#3=[#1+[#2-#1]*0.61936]
X5.29491 Y-2.64894 Z[#3+#4]
#1=[#509+[#510-#509]*0.04799]
#2=[#516+[#517-#516]*0.04799]
#3=[#1+[#2-#1]*0.61493]
X5.29324 Y-2.65270 Z[#3+#4]
#1=[#509+[#510-#509]*0.03831]
#2=[#516+[#517-#516]*0.03831]
#3=[#1+[#2-#1]*0.60853]
X5.29082 Y-2.65603 Z[#3+#4]
#1=[#509+[#510-#509]*0.03030]
#2=[#516+[#517-#516]*0.03030]
#3=[#1+[#2-#1]*0.60044]
X5.28776 Y-2.65878 Z[#3+#4]
#1=[#509+[#510-#509]*0.02431]
#2=[#516+[#517-#516]*0.02431]
#3=[#1+[#2-#1]*0.59100]
X5.28420 Y-2.66084 Z[#3+#4]
#1=[#509+[#510-#509]*0.02061]
#2=[#516+[#517-#516]*0.02061]
#3=[#1+[#2-#1]*0.58064]
X5.28028 Y-2.66211 Z[#3+#4]
#1=[#509+[#510-#509]*0.01936]
#2=[#516+[#517-#516]*0.01936]
#3=[#1+[#2-#1]*0.56981]
X5.27619 Y-2.66254 Z[#3+#4]
#1=[#509+[#510-#509]*0.01936]
#2=[#516+[#517-#516]*0.01936]
#3=[#1+[#2-#1]*0.45608]
X5.23322 Y-2.66254 Z[#3+#4]
#1=[#508+[#509-#508]*0.96032]
#2=[#515+[#516-#515]*0.96032]
#3=[#1+[#2-#1]*0.34861]
X5.19261 Y-2.68284 Z[#3+#4]
#1=[#508+[#509-#508]*0.90421]
#2=[#515+[#516-#515]*0.90421]
#3=[#1+[#2-#1]*0.29754]
X5.17332 Y-2.70214 Z[#3+#4]
#1=[#508+[#509-#508]*0.78612]
#2=[#515+[#516-#515]*0.78612]
#3=[#1+[#2-#1]*0.24381]
X5.15302 Y-2.74274 Z[#3+#4]
#1=[#508+[#509-#508]*0.10719]
#2=[#515+[#516-#515]*0.10719]
#3=[#1+[#2-#1]*0.24381]
X5.15302 Y-2.97619 Z[#3+#4]
#1=[#508+[#509-#508]*0.09529]
#2=[#515+[#516-#515]*0.09529]
#3=[#1+[#2-#1]*0.24267]
X5.15259 Y-2.98028 Z[#3+#4]
#1=[#508+[#509-#508]*0.08390]
#2=[#515+[#516-#515]*0.08390]
#3=[#1+[#2-#1]*0.23930]
X5.15132 Y-2.98420 Z[#3+#4]
#1=[#508+[#509-#508]*0.07354]
#2=[#515+[#516-#515]*0.07354]
#3=[#1+[#2-#1]*0.23386]
X5.14926 Y-2.98776 Z[#3+#4]
#1=[#508+[#509-#508]*0.06464]
#2=[#515+[#516-#515]*0.06464]
#3=[#1+[#2-#1]*0.22657]
X5.14651 Y-2.99082 Z[#3+#4]
#1=[#508+[#509-#508]*0.05761]
#2=[#515+[#516-#515]*0.05761]
#3=[#1+[#2-#1]*0.21776]
X5.14318 Y-2.99324 Z[#3+#4]
#1=[#508+[#509-#508]*0.05274]
#2=[#515+[#516-#515]*0.05274]
#3=[#1+[#2-#1]*0.20781]
X5.13942 Y-2.99491 Z[#3+#4]
#1=[#508+[#509-#508]*0.05025]
#2=[#515+[#516-#515]*0.05025]
#3=[#1+[#2-#1]*0.19715]
X5.13539 Y-2.99577 Z[#3+#4]
#1=[#508+[#509-#508]*0.05025]
#2=[#515+[#516-#515]*0.05025]
#3=[#1+[#2-#1]*0.18626]
X5.13127 Y-2.99577 Z[#3+#4]
#1=[#508+[#509-#508]*0.05274]
#2=[#515+[#516-#515]*0.05274]
#3=[#1+[#2-#1]*0.17561]
X5.12725 Y-2.99491 Z[#3+#4]
#1=[#508+[#509-#508]*0.05761]
#2=[#515+[#516-#515]*0.05761]
#3=[#1+[#2-#1]*0.16566]
X5.12349 Y-2.99324 Z[#3+#4]
#1=[#508+[#509-#508]*0.06464]
#2=[#515+[#516-#515]*0.06464]
#3=[#1+[#2-#1]*0.15684]
X5.12016 Y-2.99082 Z[#3+#4]
#1=[#508+[#509-#508]*0.07354]
#2=[#515+[#516-#515]*0.07354]
#3=[#1+[#2-#1]*0.14956]
X5.11741 Y-2.98776 Z[#3+#4]
#1=[#508+[#509-#508]*0.08390]
#2=[#515+[#516-#515]*0.08390]
#3=[#1+[#2-#1]*0.14411]
X5.11535 Y-2.98420 Z[#3+#4]
#1=[#508+[#509-#508]*0.09529]
#2=[#515+[#516-#515]*0.09529]
#3=[#1+[#2-#1]*0.14074]
X5.11408 Y-2.98028 Z[#3+#4]
#1=[#508+[#509-#508]*0.10719]
#2=[#515+[#516-#515]*0.10719]
#3=[#1+[#2-#1]*0.13961]
X5.11365 Y-2.97619 Z[#3+#4]
G04 P0 ( dwell for no time -- G64 should not smooth over this point )
G00 Z0.08000 ( retract )

G00 X5.39936 Y-2.88095 ( rapid move to begin. )
G01 F180.00000
#1=[#508+[#509-#508]*0.38417]
#2=[#515+[#516-#515]*0.38417]
#3=[#1+[#2-#1]*0.89581]
G01 Z[-0.04000+#111]
G04 P0 ( dwell for no time -- G64 should not smooth over this point )
G01 F360.00000
#1=[#508+[#509-#508]*0.79963]
#2=[#515+[#516-#515]*0.79963]
#3=[#1+[#2-#1]*0.89581]
X5.39936 Y-2.73809 Z[#3+#4]
#1=[#508+[#509-#508]*0.81705]
#2=[#515+[#516-#515]*0.81705]
#3=[#1+[#2-#1]*0.89828]
X5.40029 Y-2.73211 Z[#3+#4]
#1=[#508+[#509-#508]*0.97160]
#2=[#515+[#516-#515]*0.97160]
#3=[#1+[#2-#1]*0.96866]
X5.42689 Y-2.67897 Z[#3+#4]
#1=[#516+[#517-#516]*0.05381]
#2=[#523+[#524-#523]*0.05381]
#3=[#1+[#2-#1]*0.04348]
X5.45516 Y-2.65070 Z[#3+#4]
#1=[#516+[#517-#516]*0.12782]
#2=[#523+[#524-#523]*0.12782]
#3=[#1+[#2-#1]*0.17668]
X5.50548 Y-2.62525 Z[#3+#4]
#1=[#516+[#517-#516]*0.13318]
#2=[#523+[#524-#523]*0.13318]
#3=[#1+[#2-#1]*0.19196]
X5.51126 Y-2.62341 Z[#3+#4]
#1=[#516+[#517-#516]*0.13318]
#2=[#523+[#524-#523]*0.13318]
#3=[#1+[#2-#1]*0.39706]
X5.58874 Y-2.62341 Z[#3+#4]
#1=[#516+[#517-#516]*0.12782]
#2=[#523+[#524-#523]*0.12782]
#3=[#1+[#2-#1]*0.41234]
X5.59452 Y-2.62525 Z[#3+#4]
#1=[#516+[#517-#516]*0.05381]
#2=[#523+[#524-#523]*0.05381]
#3=[#1+[#2-#1]*0.54553]
X5.64484 Y-2.65070 Z[#3+#4]
#1=[#515+[#516-#515]*0.97160]
#2=[#522+[#523-#522]*0.97160]
#3=[#1+[#2-#1]*0.62035]
X5.67311 Y-2.67897 Z[#3+#4]
#1=[#515+[#516-#515]*0.82524]
#2=[#522+[#523-#522]*0.82524]
#3=[#1+[#2-#1]*0.68771]
X5.69856 Y-2.72929 Z[#3+#4]
#1=[#515+[#516-#515]*0.80845]
#2=[#522+[#523-#522]*0.80845]
#3=[#1+[#2-#1]*0.69258]
X5.70040 Y-2.73507 Z[#3+#4]
#1=[#515+[#516-#515]*0.37536]
#2=[#522+[#523-#522]*0.37536]
#3=[#1+[#2-#1]*0.69258]
X5.70040 Y-2.88398 Z[#3+#4]
#1=[#515+[#516-#515]*0.35857]
#2=[#522+[#523-#522]*0.35857]
#3=[#1+[#2-#1]*0.68771]
X5.69856 Y-2.88976 Z[#3+#4]
#1=[#515+[#516-#515]*0.21220]
#2=[#522+[#523-#522]*0.21220]
#3=[#1+[#2-#1]*0.62035]
X5.67311 Y-2.94008 Z[#3+#4]
#1=[#515+[#516-#515]*0.12999]
#2=[#522+[#523-#522]*0.12999]
#3=[#1+[#2-#1]*0.54553]
X5.64484 Y-2.96835 Z[#3+#4]
#1=[#515+[#516-#515]*0.05598]
#2=[#522+[#523-#522]*0.05598]
#3=[#1+[#2-#1]*0.41234]
X5.59452 Y-2.99380 Z[#3+#4]
#1=[#515+[#516-#515]*0.05062]
#2=[#522+[#523-#522]*0.05062]
#3=[#1+[#2-#1]*0.39706]
X5.58874 Y-2.99564 Z[#3+#4]
#1=[#515+[#516-#515]*0.04994]
#2=[#522+[#523-#522]*0.04994]
#3=[#1+[#2-#1]*0.19998]
X5.51429 Y-2.99587 Z[#3+#4]
#1=[#515+[#516-#515]*0.05265]
#2=[#522+[#523-#522]*0.05265]
#3=[#1+[#2-#1]*0.18413]
X5.50830 Y-2.99494 Z[#3+#4]
#1=[#515+[#516-#515]*0.12999]
#2=[#522+[#523-#522]*0.12999]
#3=[#1+[#2-#1]*0.04348]
X5.45516 Y-2.96835 Z[#3+#4]
#1=[#508+[#509-#508]*0.20520]
#2=[#515+[#516-#515]*0.20520]
#3=[#1+[#2-#1]*0.97409]
X5.42894 Y-2.94249 Z[#3+#4]
#1=[#508+[#509-#508]*0.22008]
#2=[#515+[#516-#515]*0.22008]
#3=[#1+[#2-#1]*0.96433]
X5.42525 Y-2.93737 Z[#3+#4]
#1=[#508+[#509-#508]*0.35977]
#2=[#515+[#516-#515]*0.35977]
#3=[#1+[#2-#1]*0.90090]
X5.40128 Y-2.88934 Z[#3+#4]
#1=[#508+[#509-#508]*0.37226]
#2=[#515+[#516-#515]*0.37226]
#3=[#1+[#2-#1]*0.89695]
X5.39979 Y-2.88504 Z[#3+#4]
#1=[#508+[#509-#508]*0.38417]
#2=[#515+[#516-#515]*0.38417]
#3=[#1+[#2-#1]*0.89581]
X5.39936 Y-2.88095 Z[#3+#4]
G04 P0 ( dwell for no time -- G64 should not smooth over this point )
G00 Z0.08000 ( retract )

G00 X5.43873 Y-2.87630 ( rapid move to begin. )
G01 F180.00000
#1=[#515+[#516-#515]*0.39768]
#2=[#522+[#523-#522]*0.39768]
#3=[#1+[#2-#1]*0.00001]
G01 Z[-0.04000+#111]
G04 P0 ( dwell for no time -- G64 should not smooth over this point )
G01 F360.00000
#1=[#515+[#516-#515]*0.78612]
#2=[#522+[#523-#522]*0.78612]
#3=[#1+[#2-#1]*0.00001]
X5.43873 Y-2.74274 Z[#3+#4]
#1=[#515+[#516-#515]*0.90421]
#2=[#522+[#523-#522]*0.90421]
#3=[#1+[#2-#1]*0.05375]
X5.45904 Y-2.70214 Z[#3+#4]
#1=[#515+[#516-#515]*0.96032]
#2=[#522+[#523-#522]*0.96032]
#3=[#1+[#2-#1]*0.10481]
X5.47833 Y-2.68284 Z[#3+#4]
#1=[#516+[#517-#516]*0.01936]
#2=[#523+[#524-#523]*0.01936]
#3=[#1+[#2-#1]*0.21228]
X5.51893 Y-2.66254 Z[#3+#4]
#1=[#516+[#517-#516]*0.01936]
#2=[#523+[#524-#523]*0.01936]
#3=[#1+[#2-#1]*0.37674]
X5.58107 Y-2.66254 Z[#3+#4]
#1=[#515+[#516-#515]*0.96032]
#2=[#522+[#523-#522]*0.96032]
#3=[#1+[#2-#1]*0.48421]
X5.62167 Y-2.68284 Z[#3+#4]
#1=[#515+[#516-#515]*0.90421]
#2=[#522+[#523-#522]*0.90421]
#3=[#1+[#2-#1]*0.53527]
X5.64096 Y-2.70214 Z[#3+#4]
#1=[#515+[#516-#515]*0.78612]
#2=[#522+[#523-#522]*0.78612]
#3=[#1+[#2-#1]*0.58900]
X5.66127 Y-2.74274 Z[#3+#4]
#1=[#515+[#516-#515]*0.39768]
#2=[#522+[#523-#522]*0.39768]
#3=[#1+[#2-#1]*0.58900]
X5.66127 Y-2.87630 Z[#3+#4]
#1=[#515+[#516-#515]*0.27959]
#2=[#522+[#523-#522]*0.27959]
#3=[#1+[#2-#1]*0.53527]
X5.64096 Y-2.91691 Z[#3+#4]
#1=[#515+[#516-#515]*0.22349]
#2=[#522+[#523-#522]*0.22349]
#3=[#1+[#2-#1]*0.48421]
X5.62167 Y-2.93620 Z[#3+#4]
#1=[#515+[#516-#515]*0.16444]
#2=[#522+[#523-#522]*0.16444]
#3=[#1+[#2-#1]*0.37674]
X5.58107 Y-2.95650 Z[#3+#4]
#1=[#515+[#516-#515]*0.16444]
#2=[#522+[#523-#522]*0.16444]
#3=[#1+[#2-#1]*0.21228]
X5.51893 Y-2.95650 Z[#3+#4]
#1=[#515+[#516-#515]*0.22349]
#2=[#522+[#523-#522]*0.22349]
#3=[#1+[#2-#1]*0.10481]
X5.47833 Y-2.93620 Z[#3+#4]
#1=[#515+[#516-#515]*0.27959]
#2=[#522+[#523-#522]*0.27959]
#3=[#1+[#2-#1]*0.05375]
X5.45904 Y-2.91691 Z[#3+#4]
#1=[#515+[#516-#515]*0.39768]
#2=[#522+[#523-#522]*0.39768]
#3=[#1+[#2-#1]*0.00001]
X5.43873 Y-2.87630 Z[#3+#4]
G04 P0 ( dwell for no time -- G64 should not smooth over this point )
G00 Z0.08000 ( retract )

G00 X5.87555 Y-2.97619 ( rapid move to begin. )
G01 F180.00000
#1=[#522+[#523-#522]*0.10719]
#2=[#529+[#530-#529]*0.10719]
#3=[#1+[#2-#1]*0.15616]
G01 Z[-0.04000+#111]
G04 P0 ( dwell for no time -- G64 should not smooth over this point )
G01 F360.00000
#1=[#523+[#524-#523]*0.07661]
#2=[#530+[#531-#530]*0.07661]
#3=[#1+[#2-#1]*0.15616]
X5.87555 Y-2.64286 Z[#3+#4]
#1=[#523+[#524-#523]*0.08852]
#2=[#530+[#531-#530]*0.08852]
#3=[#1+[#2-#1]*0.15730]
X5.87598 Y-2.63876 Z[#3+#4]
#1=[#523+[#524-#523]*0.09990]
#2=[#530+[#531-#530]*0.09990]
#3=[#1+[#2-#1]*0.16066]
X5.87725 Y-2.63485 Z[#3+#4]
#1=[#523+[#524-#523]*0.11026]
#2=[#530+[#531-#530]*0.11026]
#3=[#1+[#2-#1]*0.16611]
X5.87931 Y-2.63129 Z[#3+#4]
#1=[#523+[#524-#523]*0.11916]
#2=[#530+[#531-#530]*0.11916]
#3=[#1+[#2-#1]*0.17340]
X5.88207 Y-2.62823 Z[#3+#4]
#1=[#523+[#524-#523]*0.12619]
#2=[#530+[#531-#530]*0.12619]
#3=[#1+[#2-#1]*0.18221]
X5.88539 Y-2.62581 Z[#3+#4]
#1=[#523+[#524-#523]*0.13106]
#2=[#530+[#531-#530]*0.13106]
#3=[#1+[#2-#1]*0.19216]
X5.88915 Y-2.62413 Z[#3+#4]
#1=[#523+[#524-#523]*0.13355]
#2=[#530+[#531-#530]*0.13355]
#3=[#1+[#2-#1]*0.20281]
X5.89318 Y-2.62328 Z[#3+#4]
#1=[#523+[#524-#523]*0.13355]
#2=[#530+[#531-#530]*0.13355]
#3=[#1+[#2-#1]*0.21371]
X5.89729 Y-2.62328 Z[#3+#4]
#1=[#523+[#524-#523]*0.13106]
#2=[#530+[#531-#530]*0.13106]
#3=[#1+[#2-#1]*0.22436]
X5.90132 Y-2.62413 Z[#3+#4]
#1=[#523+[#524-#523]*0.12619]
#2=[#530+[#531-#530]*0.12619]
#3=[#1+[#2-#1]*0.23431]
X5.90508 Y-2.62581 Z[#3+#4]
#1=[#523+[#524-#523]*0.11916]
#2=[#530+[#531-#530]*0.11916]
#3=[#1+[#2-#1]*0.24312]
X5.90841 Y-2.62823 Z[#3+#4]
#1=[#523+[#524-#523]*0.11026]
#2=[#530+[#531-#530]*0.11026]
#3=[#1+[#2-#1]*0.25041]
X5.91116 Y-2.63129 Z[#3+#4]
#1=[#523+[#524-#523]*0.09990]
#2=[#530+[#531-#530]*0.09990]
#3=[#1+[#2-#1]*0.25586]
X5.91322 Y-2.63485 Z[#3+#4]
#1=[#523+[#524-#523]*0.08852]
#2=[#530+[#531-#530]*0.08852]
#3=[#1+[#2-#1]*0.25922]
X5.91449 Y-2.63876 Z[#3+#4]
#1=[#523+[#524-#523]*0.06538]
#2=[#530+[#531-#530]*0.06538]
#3=[#1+[#2-#1]*0.26036]
X5.91492 Y-2.64672 Z[#3+#4]
#1=[#523+[#524-#523]*0.12782]
#2=[#530+[#531-#530]*0.12782]
#3=[#1+[#2-#1]*0.37401]
X5.95786 Y-2.62525 Z[#3+#4]
#1=[#523+[#524-#523]*0.13318]
#2=[#530+[#531-#530]*0.13318]
#3=[#1+[#2-#1]*0.38929]
X5.96364 Y-2.62341 Z[#3+#4]
#1=[#523+[#524-#523]*0.13318]
#2=[#530+[#531-#530]*0.13318]
#3=[#1+[#2-#1]*0.59438]
X6.04113 Y-2.62341 Z[#3+#4]
#1=[#523+[#524-#523]*0.12782]
#2=[#530+[#531-#530]*0.12782]
#3=[#1+[#2-#1]*0.60966]
X6.04690 Y-2.62525 Z[#3+#4]
#1=[#523+[#524-#523]*0.05381]
#2=[#530+[#531-#530]*0.05381]
#3=[#1+[#2-#1]*0.74286]
X6.09722 Y-2.65070 Z[#3+#4]
#1=[#523+[#524-#523]*0.04084]
#2=[#530+[#531-#530]*0.04084]
#3=[#1+[#2-#1]*0.75466]
X6.10168 Y-2.65516 Z[#3+#4]
#1=[#523+[#524-#523]*0.03297]
#2=[#530+[#531-#530]*0.03297]
#3=[#1+[#2-#1]*0.75900]
X6.10332 Y-2.65786 Z[#3+#4]
#1=[#522+[#523-#522]*0.89448]
#2=[#529+[#530-#529]*0.89448]
#3=[#1+[#2-#1]*0.82202]
X6.12713 Y-2.70548 Z[#3+#4]
#1=[#522+[#523-#522]*0.87769]
#2=[#529+[#530-#529]*0.87769]
#3=[#1+[#2-#1]*0.82690]
X6.12897 Y-2.71125 Z[#3+#4]
#1=[#522+[#523-#522]*0.10719]
#2=[#529+[#530-#529]*0.10719]
#3=[#1+[#2-#1]*0.82752]
X6.12921 Y-2.97619 Z[#3+#4]
#1=[#522+[#523-#522]*0.09529]
#2=[#529+[#530-#529]*0.09529]
#3=[#1+[#2-#1]*0.82638]
X6.12878 Y-2.98028 Z[#3+#4]
#1=[#522+[#523-#522]*0.08390]
#2=[#529+[#530-#529]*0.08390]
#3=[#1+[#2-#1]*0.82301]
X6.12751 Y-2.98420 Z[#3+#4]
#1=[#522+[#523-#522]*0.07354]
#2=[#529+[#530-#529]*0.07354]
#3=[#1+[#2-#1]*0.81757]
X6.12545 Y-2.98776 Z[#3+#4]
#1=[#522+[#523-#522]*0.06464]
#2=[#529+[#530-#529]*0.06464]
#3=[#1+[#2-#1]*0.81028]
X6.12270 Y-2.99082 Z[#3+#4]
#1=[#522+[#523-#522]*0.05761]
#2=[#529+[#530-#529]*0.05761]
#3=[#1+[#2-#1]*0.80147]
X6.11937 Y-2.99324 Z[#3+#4]
#1=[#522+[#523-#522]*0.05274]
#2=[#529+[#530-#529]*0.05274]
#3=[#1+[#2-#1]*0.79152]
X6.11561 Y-2.99491 Z[#3+#4]
#1=[#522+[#523-#522]*0.05025]
#2=[#529+[#530-#529]*0.05025]
#3=[#1+[#2-#1]*0.78086]
X6.11158 Y-2.99577 Z[#3+#4]
#1=[#522+[#523-#522]*0.05025]
#2=[#529+[#530-#529]*0.05025]
#3=[#1+[#2-#1]*0.76997]
X6.10747 Y-2.99577 Z[#3+#4]
#1=[#522+[#523-#522]*0.05274]
#2=[#529+[#530-#529]*0.05274]
#3=[#1+[#2-#1]*0.75931]
X6.10344 Y-2.99491 Z[#3+#4]
#1=[#522+[#523-#522]*0.05761]
#2=[#529+[#530-#529]*0.05761]
#3=[#1+[#2-#1]*0.74937]
X6.09968 Y-2.99324 Z[#3+#4]
#1=[#522+[#523-#522]*0.06464]
#2=[#529+[#530-#529]*0.06464]
#3=[#1+[#2-#1]*0.74055]
X6.09635 Y-2.99082 Z[#3+#4]
#1=[#522+[#523-#522]*0.07354]
#2=[#529+[#530-#529]*0.07354]
#3=[#1+[#2-#1]*0.73327]
X6.09360 Y-2.98776 Z[#3+#4]
#1=[#522+[#523-#522]*0.08390]
#2=[#529+[#530-#529]*0.08390]
#3=[#1+[#2-#1]*0.72782]
X6.09154 Y-2.98420 Z[#3+#4]
#1=[#522+[#523-#522]*0.09529]
#2=[#529+[#530-#529]*0.09529]
#3=[#1+[#2-#1]*0.72445]
X6.09027 Y-2.98028 Z[#3+#4]
#1=[#522+[#523-#522]*0.10719]
#2=[#529+[#530-#529]*0.10719]
#3=[#1+[#2-#1]*0.72331]
X6.08984 Y-2.97619 Z[#3+#4]
#1=[#522+[#523-#522]*0.85537]
#2=[#529+[#530-#529]*0.85537]
#3=[#1+[#2-#1]*0.72331]
X6.08984 Y-2.71893 Z[#3+#4]
#1=[#522+[#523-#522]*0.96470]
#2=[#529+[#530-#529]*0.96470]
#3=[#1+[#2-#1]*0.67357]
X6.07104 Y-2.68134 Z[#3+#4]
#1=[#523+[#524-#523]*0.01936]
#2=[#530+[#531-#530]*0.01936]
#3=[#1+[#2-#1]*0.57407]
X6.03345 Y-2.66254 Z[#3+#4]
#1=[#523+[#524-#523]*0.01936]
#2=[#530+[#531-#530]*0.01936]
#3=[#1+[#2-#1]*0.40961]
X5.97131 Y-2.66254 Z[#3+#4]
#1=[#522+[#523-#522]*0.96032]
#2=[#529+[#530-#529]*0.96032]
#3=[#1+[#2-#1]*0.30214]
X5.93071 Y-2.68284 Z[#3+#4]
#1=[#522+[#523-#522]*0.91441]
#2=[#529+[#530-#529]*0.91441]
#3=[#1+[#2-#1]*0.26036]
X5.91492 Y-2.69863 Z[#3+#4]
#1=[#522+[#523-#522]*0.10719]
#2=[#529+[#530-#529]*0.10719]
#3=[#1+[#2-#1]*0.26036]
X5.91492 Y-2.97619 Z[#3+#4]
#1=[#522+[#523-#522]*0.09529]
#2=[#529+[#530-#529]*0.09529]
#3=[#1+[#2-#1]*0.25922]
X5.91449 Y-2.98028 Z[#3+#4]
#1=[#522+[#523-#522]*0.08390]
#2=[#529+[#530-#529]*0.08390]
#3=[#1+[#2-#1]*0.25586]
X5.91322 Y-2.98420 Z[#3+#4]
#1=[#522+[#523-#522]*0.07354]
#2=[#529+[#530-#529]*0.07354]
#3=[#1+[#2-#1]*0.25041]
X5.91116 Y-2.98776 Z[#3+#4]
#1=[#522+[#523-#522]*0.06464]
#2=[#529+[#530-#529]*0.06464]
#3=[#1+[#2-#1]*0.24312]
X5.90841 Y-2.99082 Z[#3+#4]
#1=[#522+[#523-#522]*0.05761]
#2=[#529+[#530-#529]*0.05761]
#3=[#1+[#2-#1]*0.23431]
X5.90508 Y-2.99324 Z[#3+#4]
#1=[#522+[#523-#522]*0.05274]
#2=[#529+[#530-#529]*0.05274]
#3=[#1+[#2-#1]*0.22436]
X5.90132 Y-2.99491 Z[#3+#4]
#1=[#522+[#523-#522]*0.05025]
#2=[#529+[#530-#529]*0.05025]
#3=[#1+[#2-#1]*0.21371]
X5.89729 Y-2.99577 Z[#3+#4]
#1=[#522+[#523-#522]*0.05025]
#2=[#529+[#530-#529]*0.05025]
#3=[#1+[#2-#1]*0.20281]
X5.89318 Y-2.99577 Z[#3+#4]
#1=[#522+[#523-#522]*0.05274]
#2=[#529+[#530-#529]*0.05274]
#3=[#1+[#2-#1]*0.19216]
X5.88915 Y-2.99491 Z[#3+#4]
#1=[#522+[#523-#522]*0.05761]
#2=[#529+[#530-#529]*0.05761]
#3=[#1+[#2-#1]*0.18221]
X5.88539 Y-2.99324 Z[#3+#4]
#1=[#522+[#523-#522]*0.06464]
#2=[#529+[#530-#529]*0.06464]
#3=[#1+[#2-#1]*0.17340]
X5.88207 Y-2.99082 Z[#3+#4]
#1=[#522+[#523-#522]*0.07354]
#2=[#529+[#530-#529]*0.07354]
#3=[#1+[#2-#1]*0.16611]
X5.87931 Y-2.98776 Z[#3+#4]
#1=[#522+[#523-#522]*0.08390]
#2=[#529+[#530-#529]*0.08390]
#3=[#1+[#2-#1]*0.16066]
X5.87725 Y-2.98420 Z[#3+#4]
#1=[#522+[#523-#522]*0.09529]
#2=[#529+[#530-#529]*0.09529]
#3=[#1+[#2-#1]*0.15730]
X5.87598 Y-2.98028 Z[#3+#4]
#1=[#522+[#523-#522]*0.10719]
#2=[#529+[#530-#529]*0.10719]
#3=[#1+[#2-#1]*0.15616]
X5.87555 Y-2.97619 Z[#3+#4]
G04 P0 ( dwell for no time -- G64 should not smooth over this point )
G00 Z0.08000 ( retract )

G00 X6.25661 Y-2.64491 ( rapid move to begin. )
G01 F180.00000
#1=[#530+[#531-#530]*0.07063]
#2=[#537+[#538-#537]*0.07063]
#3=[#1+[#2-#1]*0.16472]
G01 Z[-0.04000+#111]
G04 P0 ( dwell for no time -- G64 should not smooth over this point )
G01 F360.00000
#1=[#530+[#531-#530]*0.08260]
#2=[#537+[#538-#537]*0.08260]
#3=[#1+[#2-#1]*0.16472]
X6.25661 Y-2.64080 Z[#3+#4]
#1=[#530+[#531-#530]*0.09430]
#2=[#537+[#538-#537]*0.09430]
#3=[#1+[#2-#1]*0.16698]
X6.25747 Y-2.63677 Z[#3+#4]
#1=[#530+[#531-#530]*0.10524]
#2=[#537+[#538-#537]*0.10524]
#3=[#1+[#2-#1]*0.17142]
X6.25914 Y-2.63301 Z[#3+#4]
#1=[#530+[#531-#530]*0.11492]
#2=[#537+[#538-#537]*0.11492]
#3=[#1+[#2-#1]*0.17782]
X6.26156 Y-2.62968 Z[#3+#4]
#1=[#530+[#531-#530]*0.12293]
#2=[#537+[#538-#537]*0.12293]
#3=[#1+[#2-#1]*0.18591]
X6.26462 Y-2.62693 Z[#3+#4]
#1=[#530+[#531-#530]*0.12891]
#2=[#537+[#538-#537]*0.12891]
#3=[#1+[#2-#1]*0.19534]
X6.26818 Y-2.62487 Z[#3+#4]
#1=[#530+[#531-#530]*0.13261]
#2=[#537+[#538-#537]*0.13261]
#3=[#1+[#2-#1]*0.20570]
X6.27210 Y-2.62360 Z[#3+#4]
#1=[#530+[#531-#530]*0.13386]
#2=[#537+[#538-#537]*0.13386]
#3=[#1+[#2-#1]*0.35349]
X6.32793 Y-2.62317 Z[#3+#4]
#1=[#530+[#531-#530]*0.56133]
#2=[#537+[#538-#537]*0.56133]
#3=[#1+[#2-#1]*0.35349]
X6.32793 Y-2.47619 Z[#3+#4]
#1=[#530+[#531-#530]*0.57323]
#2=[#537+[#538-#537]*0.57323]
#3=[#1+[#2-#1]*0.35463]
X6.32836 Y-2.47210 Z[#3+#4]
#1=[#530+[#531-#530]*0.58461]
#2=[#537+[#538-#537]*0.58461]
#3=[#1+[#2-#1]*0.35799]
X6.32963 Y-2.46818 Z[#3+#4]
#1=[#530+[#531-#530]*0.59498]
#2=[#537+[#538-#537]*0.59498]
#3=[#1+[#2-#1]*0.36344]
X6.33169 Y-2.46462 Z[#3+#4]
#1=[#530+[#531-#530]*0.60387]
#2=[#537+[#538-#537]*0.60387]
#3=[#1+[#2-#1]*0.37073]
X6.33445 Y-2.46156 Z[#3+#4]
#1=[#530+[#531-#530]*0.61091]
#2=[#537+[#538-#537]*0.61091]
#3=[#1+[#2-#1]*0.37954]
X6.33778 Y-2.45914 Z[#3+#4]
#1=[#530+[#531-#530]*0.61577]
#2=[#537+[#538-#537]*0.61577]
#3=[#1+[#2-#1]*0.38949]
X6.34154 Y-2.45747 Z[#3+#4]
#1=[#530+[#531-#530]*0.61826]
#2=[#537+[#538-#537]*0.61826]
#3=[#1+[#2-#1]*0.40014]
X6.34556 Y-2.45661 Z[#3+#4]
#1=[#530+[#531-#530]*0.61826]
#2=[#537+[#538-#537]*0.61826]
#3=[#1+[#2-#1]*0.41103]
X6.34968 Y-2.45661 Z[#3+#4]
#1=[#530+[#531-#530]*0.61577]
#2=[#537+[#538-#537]*0.61577]
#3=[#1+[#2-#1]*0.42169]
X6.35370 Y-2.45747 Z[#3+#4]
#1=[#530+[#531-#530]*0.61091]
#2=[#537+[#538-#537]*0.61091]
#3=[#1+[#2-#1]*0.43164]
X6.35746 Y-2.45914 Z[#3+#4]
#1=[#530+[#531-#530]*0.60387]
#2=[#537+[#538-#537]*0.60387]
#3=[#1+[#2-#1]*0.44045]
X6.36079 Y-2.46156 Z[#3+#4]
#1=[#530+[#531-#530]*0.59498]
#2=[#537+[#538-#537]*0.59498]
#3=[#1+[#2-#1]*0.44774]
X6.36354 Y-2.46462 Z[#3+#4]
#1=[#530+[#531-#530]*0.58461]
#2=[#537+[#538-#537]*0.58461]
#3=[#1+[#2-#1]*0.45319]
X6.36560 Y-2.46818 Z[#3+#4]
#1=[#530+[#531-#530]*0.57323]
#2=[#537+[#538-#537]*0.57323]
#3=[#1+[#2-#1]*0.45655]
X6.36687 Y-2.47210 Z[#3+#4]
#1=[#530+[#531-#530]*0.56133]
#2=[#537+[#538-#537]*0.56133]
#3=[#1+[#2-#1]*0.45769]
X6.36730 Y-2.47619 Z[#3+#4]
#1=[#530+[#531-#530]*0.13386]
#2=[#537+[#538-#537]*0.13386]
#3=[#1+[#2-#1]*0.45769]
X6.36730 Y-2.62317 Z[#3+#4]
#1=[#530+[#531-#530]*0.13386]
#2=[#537+[#538-#537]*0.13386]
#3=[#1+[#2-#1]*0.72067]
X6.46667 Y-2.62317 Z[#3+#4]
#1=[#530+[#531-#530]*0.13261]
#2=[#537+[#538-#537]*0.13261]
#3=[#1+[#2-#1]*0.73151]
X6.47076 Y-2.62360 Z[#3+#4]
#1=[#530+[#531-#530]*0.12891]
#2=[#537+[#538-#537]*0.12891]
#3=[#1+[#2-#1]*0.74187]
X6.47467 Y-2.62487 Z[#3+#4]
#1=[#530+[#531-#530]*0.12293]
#2=[#537+[#538-#537]*0.12293]
#3=[#1+[#2-#1]*0.75130]
X6.47824 Y-2.62693 Z[#3+#4]
#1=[#530+[#531-#530]*0.11492]
#2=[#537+[#538-#537]*0.11492]
#3=[#1+[#2-#1]*0.75939]
X6.48130 Y-2.62968 Z[#3+#4]
#1=[#530+[#531-#530]*0.10524]
#2=[#537+[#538-#537]*0.10524]
#3=[#1+[#2-#1]*0.76580]
X6.48371 Y-2.63301 Z[#3+#4]
#1=[#530+[#531-#530]*0.09430]
#2=[#537+[#538-#537]*0.09430]
#3=[#1+[#2-#1]*0.77023]
X6.48539 Y-2.63677 Z[#3+#4]
#1=[#530+[#531-#530]*0.08260]
#2=[#537+[#538-#537]*0.08260]
#3=[#1+[#2-#1]*0.77249]
X6.48624 Y-2.64080 Z[#3+#4]
#1=[#530+[#531-#530]*0.07063]
#2=[#537+[#538-#537]*0.07063]
#3=[#1+[#2-#1]*0.77249]
X6.48624 Y-2.64491 Z[#3+#4]
#1=[#530+[#531-#530]*0.05892]
#2=[#537+[#538-#537]*0.05892]
#3=[#1+[#2-#1]*0.77023]
X6.48539 Y-2.64894 Z[#3+#4]
#1=[#530+[#531-#530]*0.04799]
#2=[#537+[#538-#537]*0.04799]
#3=[#1+[#2-#1]*0.76580]
X6.48371 Y-2.65270 Z[#3+#4]
#1=[#530+[#531-#530]*0.03831]
#2=[#537+[#538-#537]*0.03831]
#3=[#1+[#2-#1]*0.75939]
X6.48130 Y-2.65603 Z[#3+#4]
#1=[#530+[#531-#530]*0.03030]
#2=[#537+[#538-#537]*0.03030]
#3=[#1+[#2-#1]*0.75130]
X6.47824 Y-2.65878 Z[#3+#4]
#1=[#530+[#531-#530]*0.02431]
#2=[#537+[#538-#537]*0.02431]
#3=[#1+[#2-#1]*0.74187]
X6.47467 Y-2.66084 Z[#3+#4]
#1=[#530+[#531-#530]*0.02061]
#2=[#537+[#538-#537]*0.02061]
#3=[#1+[#2-#1]*0.73151]
X6.47076 Y-2.66211 Z[#3+#4]
#1=[#530+[#531-#530]*0.01936]
#2=[#537+[#538-#537]*0.01936]
#3=[#1+[#2-#1]*0.72067]
X6.46667 Y-2.66254 Z[#3+#4]
#1=[#530+[#531-#530]*0.01936]
#2=[#537+[#538-#537]*0.01936]
#3=[#1+[#2-#1]*0.45769]
X6.36730 Y-2.66254 Z[#3+#4]
#1=[#529+[#530-#529]*0.32844]
#2=[#536+[#537-#536]*0.32844]
#3=[#1+[#2-#1]*0.45769]
X6.36730 Y-2.90011 Z[#3+#4]
#1=[#529+[#530-#529]*0.21911]
#2=[#536+[#537-#536]*0.21911]
#3=[#1+[#2-#1]*0.50744]
X6.38610 Y-2.93771 Z[#3+#4]
#1=[#529+[#530-#529]*0.16444]
#2=[#536+[#537-#536]*0.16444]
#3=[#1+[#2-#1]*0.60694]
X6.42369 Y-2.95650 Z[#3+#4]
#1=[#529+[#530-#529]*0.16444]
#2=[#536+[#537-#536]*0.16444]
#3=[#1+[#2-#1]*0.72067]
X6.46667 Y-2.95650 Z[#3+#4]
#1=[#529+[#530-#529]*0.16319]
#2=[#536+[#537-#536]*0.16319]
#3=[#1+[#2-#1]*0.73151]
X6.47076 Y-2.95694 Z[#3+#4]
#1=[#529+[#530-#529]*0.15949]
#2=[#536+[#537-#536]*0.15949]
#3=[#1+[#2-#1]*0.74187]
X6.47467 Y-2.95821 Z[#3+#4]
#1=[#529+[#530-#529]*0.15351]
#2=[#536+[#537-#536]*0.15351]
#3=[#1+[#2-#1]*0.75130]
X6.47824 Y-2.96026 Z[#3+#4]
#1=[#529+[#530-#529]*0.14550]
#2=[#536+[#537-#536]*0.14550]
#3=[#1+[#2-#1]*0.75939]
X6.48130 Y-2.96302 Z[#3+#4]
#1=[#529+[#530-#529]*0.13582]
#2=[#536+[#537-#536]*0.13582]
#3=[#1+[#2-#1]*0.76580]
X6.48371 Y-2.96635 Z[#3+#4]
#1=[#529+[#530-#529]*0.12488]
#2=[#536+[#537-#536]*0.12488]
#3=[#1+[#2-#1]*0.77023]
X6.48539 Y-2.97011 Z[#3+#4]
#1=[#529+[#530-#529]*0.11318]
#2=[#536+[#537-#536]*0.11318]
#3=[#1+[#2-#1]*0.77249]
X6.48624 Y-2.97413 Z[#3+#4]
#1=[#529+[#530-#529]*0.10120]
#2=[#536+[#537-#536]*0.10120]
#3=[#1+[#2-#1]*0.77249]
X6.48624 Y-2.97825 Z[#3+#4]
#1=[#529+[#530-#529]*0.08950]
#2=[#536+[#537-#536]*0.08950]
#3=[#1+[#2-#1]*0.77023]
X6.48539 Y-2.98227 Z[#3+#4]
#1=[#529+[#530-#529]*0.07857]
#2=[#536+[#537-#536]*0.07857]
#3=[#1+[#2-#1]*0.76580]
X6.48371 Y-2.98603 Z[#3+#4]
#1=[#529+[#530-#529]*0.06888]
#2=[#536+[#537-#536]*0.06888]
#3=[#1+[#2-#1]*0.75939]
X6.48130 Y-2.98936 Z[#3+#4]
#1=[#529+[#530-#529]*0.06087]
#2=[#536+[#537-#536]*0.06087]
#3=[#1+[#2-#1]*0.75130]
X6.47824 Y-2.99212 Z[#3+#4]
#1=[#529+[#530-#529]*0.05489]
#2=[#536+[#537-#536]*0.05489]
#3=[#1+[#2-#1]*0.74187]
X6.47467 Y-2.99417 Z[#3+#4]
#1=[#529+[#530-#529]*0.05119]
#2=[#536+[#537-#536]*0.05119]
#3=[#1+[#2-#1]*0.73151]
X6.47076 Y-2.99545 Z[#3+#4]
#1=[#529+[#530-#529]*0.04994]
#2=[#536+[#537-#536]*0.04994]
#3=[#1+[#2-#1]*0.72067]
X6.46667 Y-2.99587 Z[#3+#4]
#1=[#529+[#530-#529]*0.05062]
#2=[#536+[#537-#536]*0.05062]
#3=[#1+[#2-#1]*0.58662]
X6.41602 Y-2.99564 Z[#3+#4]
#1=[#529+[#530-#529]*0.05598]
#2=[#536+[#537-#536]*0.05598]
#3=[#1+[#2-#1]*0.57134]
X6.41024 Y-2.99380 Z[#3+#4]
#1=[#529+[#530-#529]*0.12523]
#2=[#536+[#537-#536]*0.12523]
#3=[#1+[#2-#1]*0.44531]
X6.36263 Y-2.96999 Z[#3+#4]
#1=[#529+[#530-#529]*0.12999]
#2=[#536+[#537-#536]*0.12999]
#3=[#1+[#2-#1]*0.43814]
X6.35992 Y-2.96835 Z[#3+#4]
#1=[#529+[#530-#529]*0.14296]
#2=[#536+[#537-#536]*0.14296]
#3=[#1+[#2-#1]*0.42634]
X6.35546 Y-2.96389 Z[#3+#4]
#1=[#529+[#530-#529]*0.28932]
#2=[#536+[#537-#536]*0.28932]
#3=[#1+[#2-#1]*0.35899]
X6.33001 Y-2.91357 Z[#3+#4]
#1=[#529+[#530-#529]*0.30611]
#2=[#536+[#537-#536]*0.30611]
#3=[#1+[#2-#1]*0.35411]
X6.32817 Y-2.90779 Z[#3+#4]
#1=[#530+[#531-#530]*0.01936]
#2=[#537+[#538-#537]*0.01936]
#3=[#1+[#2-#1]*0.35349]
X6.32793 Y-2.66254 Z[#3+#4]
#1=[#530+[#531-#530]*0.02061]
#2=[#537+[#538-#537]*0.02061]
#3=[#1+[#2-#1]*0.20570]
X6.27210 Y-2.66211 Z[#3+#4]
#1=[#530+[#531-#530]*0.02431]
#2=[#537+[#538-#537]*0.02431]
#3=[#1+[#2-#1]*0.19534]
X6.26818 Y-2.66084 Z[#3+#4]
#1=[#530+[#531-#530]*0.03030]
#2=[#537+[#538-#537]*0.03030]
#3=[#1+[#2-#1]*0.18591]
X6.26462 Y-2.65878 Z[#3+#4]
#1=[#530+[#531-#530]*0.03831]
#2=[#537+[#538-#537]*0.03831]
#3=[#1+[#2-#1]*0.17782]
X6.26156 Y-2.65603 Z[#3+#4]
#1=[#530+[#531-#530]*0.04799]
#2=[#537+[#538-#537]*0.04799]
#3=[#1+[#2-#1]*0.17142]
X6.25914 Y-2.65270 Z[#3+#4]
#1=[#530+[#531-#530]*0.05892]
#2=[#537+[#538-#537]*0.05892]
#3=[#1+[#2-#1]*0.16698]
X6.25747 Y-2.64894 Z[#3+#4]
#1=[#530+[#531-#530]*0.07063]
#2=[#537+[#538-#537]*0.07063]
#3=[#1+[#2-#1]*0.16472]
X6.25661 Y-2.64491 Z[#3+#4]
G04 P0 ( dwell for no time -- G64 should not smooth over this point )
G00 Z0.08000 ( retract )

G00 X6.49510 Y-3.30051 ( rapid move to begin. )
G01 F180.00000
#1=[#528+[#529-#528]*0.16397]
#2=[#535+[#536-#535]*0.16397]
#3=[#1+[#2-#1]*0.79595]
G01 Z[-0.04000+#111]
G04 P0 ( dwell for no time -- G64 should not smooth over this point )
G01 F360.00000
#1=[#528+[#529-#528]*0.16989]
#2=[#535+[#536-#535]*0.16989]
#3=[#1+[#2-#1]*0.79651]
X6.49532 Y-3.29848 Z[#3+#4]
#1=[#528+[#529-#528]*0.17504]
#2=[#535+[#536-#535]*0.17504]
#3=[#1+[#2-#1]*0.79922]
X6.49634 Y-3.29671 Z[#3+#4]
#1=[#528+[#529-#528]*0.17946]
#2=[#535+[#536-#535]*0.17946]
#3=[#1+[#2-#1]*0.80619]
X6.49898 Y-3.29519 Z[#3+#4]
#1=[#528+[#529-#528]*0.17978]
#2=[#535+[#536-#535]*0.17978]
#3=[#1+[#2-#1]*0.92821]
X6.54508 Y-3.29508 Z[#3+#4]
#1=[#528+[#529-#528]*0.31088]
#2=[#535+[#536-#535]*0.31088]
#3=[#1+[#2-#1]*0.92821]
X6.54508 Y-3.25000 Z[#3+#4]
#1=[#528+[#529-#528]*0.31929]
#2=[#535+[#536-#535]*0.31929]
#3=[#1+[#2-#1]*0.93070]
X6.54602 Y-3.24711 Z[#3+#4]
#1=[#528+[#529-#528]*0.32327]
#2=[#535+[#536-#535]*0.32327]
#3=[#1+[#2-#1]*0.93472]
X6.54754 Y-3.24574 Z[#3+#4]
#1=[#528+[#529-#528]*0.32511]
#2=[#535+[#536-#535]*0.32511]
#3=[#1+[#2-#1]*0.93987]
X6.54948 Y-3.24511 Z[#3+#4]
#1=[#528+[#529-#528]*0.32449]
#2=[#535+[#536-#535]*0.32449]
#3=[#1+[#2-#1]*0.94526]
X6.55152 Y-3.24532 Z[#3+#4]
#1=[#528+[#529-#528]*0.32152]
#2=[#535+[#536-#535]*0.32152]
#3=[#1+[#2-#1]*0.94995]
X6.55329 Y-3.24634 Z[#3+#4]
#1=[#528+[#529-#528]*0.31385]
#2=[#535+[#536-#535]*0.31385]
#3=[#1+[#2-#1]*0.95398]
X6.55481 Y-3.24898 Z[#3+#4]
#1=[#528+[#529-#528]*0.17978]
#2=[#535+[#536-#535]*0.17978]
#3=[#1+[#2-#1]*0.95426]
X6.55492 Y-3.29508 Z[#3+#4]
#1=[#535+[#536-#535]*0.17978]
#2=[#542+[#543-#542]*0.17978]
#3=[#1+[#2-#1]*0.07357]
X6.60000 Y-3.29508 Z[#3+#4]
#1=[#535+[#536-#535]*0.17704]
#2=[#542+[#543-#542]*0.17704]
#3=[#1+[#2-#1]*0.08123]
X6.60289 Y-3.29602 Z[#3+#4]
#1=[#535+[#536-#535]*0.17262]
#2=[#542+[#543-#542]*0.17262]
#3=[#1+[#2-#1]*0.08485]
X6.60426 Y-3.29754 Z[#3+#4]
#1=[#535+[#536-#535]*0.16696]
#2=[#542+[#543-#542]*0.16696]
#3=[#1+[#2-#1]*0.08653]
X6.60489 Y-3.29948 Z[#3+#4]
#1=[#535+[#536-#535]*0.16104]
#2=[#542+[#543-#542]*0.16104]
#3=[#1+[#2-#1]*0.08596]
X6.60468 Y-3.30152 Z[#3+#4]
#1=[#535+[#536-#535]*0.15589]
#2=[#542+[#543-#542]*0.15589]
#3=[#1+[#2-#1]*0.08325]
X6.60366 Y-3.30329 Z[#3+#4]
#1=[#535+[#536-#535]*0.15147]
#2=[#542+[#543-#542]*0.15147]
#3=[#1+[#2-#1]*0.07628]
X6.60102 Y-3.30481 Z[#3+#4]
#1=[#528+[#529-#528]*0.15115]
#2=[#535+[#536-#535]*0.15115]
#3=[#1+[#2-#1]*0.95426]
X6.55492 Y-3.30492 Z[#3+#4]
#1=[#528+[#529-#528]*0.02005]
#2=[#535+[#536-#535]*0.02005]
#3=[#1+[#2-#1]*0.95426]
X6.55492 Y-3.35000 Z[#3+#4]
#1=[#528+[#529-#528]*0.01164]
#2=[#535+[#536-#535]*0.01164]
#3=[#1+[#2-#1]*0.95177]
X6.55398 Y-3.35289 Z[#3+#4]
#1=[#528+[#529-#528]*0.00766]
#2=[#535+[#536-#535]*0.00766]
#3=[#1+[#2-#1]*0.94775]
X6.55246 Y-3.35426 Z[#3+#4]
#1=[#528+[#529-#528]*0.00582]
#2=[#535+[#536-#535]*0.00582]
#3=[#1+[#2-#1]*0.94260]
X6.55051 Y-3.35489 Z[#3+#4]
#1=[#528+[#529-#528]*0.00644]
#2=[#535+[#536-#535]*0.00644]
#3=[#1+[#2-#1]*0.93721]
X6.54848 Y-3.35468 Z[#3+#4]
#1=[#528+[#529-#528]*0.00941]
#2=[#535+[#536-#535]*0.00941]
#3=[#1+[#2-#1]*0.93252]
X6.54671 Y-3.35366 Z[#3+#4]
#1=[#528+[#529-#528]*0.01707]
#2=[#535+[#536-#535]*0.01707]
#3=[#1+[#2-#1]*0.92850]
X6.54519 Y-3.35102 Z[#3+#4]
#1=[#528+[#529-#528]*0.15115]
#2=[#535+[#536-#535]*0.15115]
#3=[#1+[#2-#1]*0.92821]
X6.54508 Y-3.30492 Z[#3+#4]
#1=[#528+[#529-#528]*0.15115]
#2=[#535+[#536-#535]*0.15115]
#3=[#1+[#2-#1]*0.80890]
X6.50000 Y-3.30492 Z[#3+#4]
#1=[#528+[#529-#528]*0.15389]
#2=[#535+[#536-#535]*0.15389]
#3=[#1+[#2-#1]*0.80124]
X6.49711 Y-3.30398 Z[#3+#4]
#1=[#528+[#529-#528]*0.15831]
#2=[#535+[#536-#535]*0.15831]
#3=[#1+[#2-#1]*0.79762]
X6.49574 Y-3.30246 Z[#3+#4]
#1=[#528+[#529-#528]*0.16397]
#2=[#535+[#536-#535]*0.16397]
#3=[#1+[#2-#1]*0.79595]
X6.49510 Y-3.30051 Z[#3+#4]
( Piece #2, position [1;0] )

G04 P0 ( dwell for no time -- G64 should not smooth over this point )
G00 Z0.08000 ( retract )

G00 X6.74577 Y-2.97619 ( rapid move to begin. )
G01 F180.00000
#1=[#536+[#537-#536]*0.10719]
#2=[#543+[#544-#543]*0.10719]
#3=[#1+[#2-#1]*0.45938]
G01 Z[-0.04000+#111]
G04 P0 ( dwell for no time -- G64 should not smooth over this point )
G01 F360.00000
#1=[#536+[#537-#536]*0.83426]
#2=[#543+[#544-#543]*0.83426]
#3=[#1+[#2-#1]*0.45938]
X6.74577 Y-2.72619 Z[#3+#4]
#1=[#537+[#538-#537]*0.56133]
#2=[#544+[#545-#544]*0.56133]
#3=[#1+[#2-#1]*0.45938]
X6.74577 Y-2.47619 Z[#3+#4]
#1=[#537+[#538-#537]*0.58323]
#2=[#544+[#545-#544]*0.58323]
#3=[#1+[#2-#1]*0.46335]
X6.74727 Y-2.46866 Z[#3+#4]
#1=[#537+[#538-#537]*0.59313]
#2=[#544+[#545-#544]*0.59313]
#3=[#1+[#2-#1]*0.46817]
X6.74909 Y-2.46525 Z[#3+#4]
#1=[#537+[#538-#537]*0.60893]
#2=[#544+[#545-#544]*0.60893]
#3=[#1+[#2-#1]*0.48254]
X6.75452 Y-2.45982 Z[#3+#4]
#1=[#537+[#538-#537]*0.61422]
#2=[#544+[#545-#544]*0.61422]
#3=[#1+[#2-#1]*0.49155]
X6.75792 Y-2.45800 Z[#3+#4]
#1=[#537+[#538-#537]*0.61857]
#2=[#544+[#545-#544]*0.61857]
#3=[#1+[#2-#1]*0.51148]
X6.76545 Y-2.45650 Z[#3+#4]
#1=[#544+[#545-#544]*0.61857]
#2=[#551+[#552-#551]*0.61857]
#3=[#1+[#2-#1]*0.14166]
X7.00355 Y-2.45650 Z[#3+#4]
#1=[#544+[#545-#544]*0.61732]
#2=[#551+[#552-#551]*0.61732]
#3=[#1+[#2-#1]*0.15249]
X7.00764 Y-2.45694 Z[#3+#4]
#1=[#544+[#545-#544]*0.61362]
#2=[#551+[#552-#551]*0.61362]
#3=[#1+[#2-#1]*0.16285]
X7.01156 Y-2.45821 Z[#3+#4]
#1=[#544+[#545-#544]*0.60764]
#2=[#551+[#552-#551]*0.60764]
#3=[#1+[#2-#1]*0.17228]
X7.01512 Y-2.46026 Z[#3+#4]
#1=[#544+[#545-#544]*0.59963]
#2=[#551+[#552-#551]*0.59963]
#3=[#1+[#2-#1]*0.18038]
X7.01818 Y-2.46302 Z[#3+#4]
#1=[#544+[#545-#544]*0.58995]
#2=[#551+[#552-#551]*0.58995]
#3=[#1+[#2-#1]*0.18678]
X7.02060 Y-2.46635 Z[#3+#4]
#1=[#544+[#545-#544]*0.57902]
#2=[#551+[#552-#551]*0.57902]
#3=[#1+[#2-#1]*0.19121]
X7.02227 Y-2.47011 Z[#3+#4]
#1=[#544+[#545-#544]*0.56731]
#2=[#551+[#552-#551]*0.56731]
#3=[#1+[#2-#1]*0.19347]
X7.02313 Y-2.47413 Z[#3+#4]
#1=[#544+[#545-#544]*0.55534]
#2=[#551+[#552-#551]*0.55534]
#3=[#1+[#2-#1]*0.19347]
X7.02313 Y-2.47825 Z[#3+#4]
#1=[#544+[#545-#544]*0.54363]
#2=[#551+[#552-#551]*0.54363]
#3=[#1+[#2-#1]*0.19121]
X7.02227 Y-2.48227 Z[#3+#4]
#1=[#544+[#545-#544]*0.53270]
#2=[#551+[#552-#551]*0.53270]
#3=[#1+[#2-#1]*0.18678]
X7.02060 Y-2.48603 Z[#3+#4]
#1=[#544+[#545-#544]*0.52302]
#2=[#551+[#552-#551]*0.52302]
#3=[#1+[#2-#1]*0.18038]
X7.01818 Y-2.48936 Z[#3+#4]
#1=[#544+[#545-#544]*0.51501]
#2=[#551+[#552-#551]*0.51501]
#3=[#1+[#2-#1]*0.17228]
X7.01512 Y-2.49212 Z[#3+#4]
#1=[#544+[#545-#544]*0.50903]
#2=[#551+[#552-#551]*0.50903]
#3=[#1+[#2-#1]*0.16285]
X7.01156 Y-2.49417 Z[#3+#4]
#1=[#544+[#545-#544]*0.50533]
#2=[#551+[#552-#551]*0.50533]
#3=[#1+[#2-#1]*0.15249]
X7.00764 Y-2.49545 Z[#3+#4]
#1=[#544+[#545-#544]*0.50408]
#2=[#551+[#552-#551]*0.50408]
#3=[#1+[#2-#1]*0.14166]
X7.00355 Y-2.49587 Z[#3+#4]
#1=[#537+[#538-#537]*0.50408]
#2=[#544+[#545-#544]*0.50408]
#3=[#1+[#2-#1]*0.56359]
X6.78514 Y-2.49587 Z[#3+#4]
#1=[#536+[#537-#536]*0.92613]
#2=[#543+[#544-#543]*0.92613]
#3=[#1+[#2-#1]*0.56359]
X6.78514 Y-2.69460 Z[#3+#4]
#1=[#536+[#537-#536]*0.92613]
#2=[#543+[#544-#543]*0.92613]
#3=[#1+[#2-#1]*0.95261]
X6.93212 Y-2.69460 Z[#3+#4]
#1=[#536+[#537-#536]*0.92488]
#2=[#543+[#544-#543]*0.92488]
#3=[#1+[#2-#1]*0.96344]
X6.93621 Y-2.69503 Z[#3+#4]
#1=[#536+[#537-#536]*0.92118]
#2=[#543+[#544-#543]*0.92118]
#3=[#1+[#2-#1]*0.97380]
X6.94013 Y-2.69630 Z[#3+#4]
#1=[#536+[#537-#536]*0.91519]
#2=[#543+[#544-#543]*0.91519]
#3=[#1+[#2-#1]*0.98323]
X6.94369 Y-2.69836 Z[#3+#4]
#1=[#536+[#537-#536]*0.90719]
#2=[#543+[#544-#543]*0.90719]
#3=[#1+[#2-#1]*0.99133]
X6.94675 Y-2.70111 Z[#3+#4]
#1=[#536+[#537-#536]*0.89750]
#2=[#543+[#544-#543]*0.89750]
#3=[#1+[#2-#1]*0.99773]
X6.94917 Y-2.70444 Z[#3+#4]
#1=[#543+[#544-#543]*0.88657]
#2=[#550+[#551-#550]*0.88657]
#3=[#1+[#2-#1]*0.00216]
X6.95084 Y-2.70820 Z[#3+#4]
#1=[#543+[#544-#543]*0.87486]
#2=[#550+[#551-#550]*0.87486]
#3=[#1+[#2-#1]*0.00442]
X6.95170 Y-2.71223 Z[#3+#4]
#1=[#543+[#544-#543]*0.86290]
#2=[#550+[#551-#550]*0.86290]
#3=[#1+[#2-#1]*0.00442]
X6.95170 Y-2.71634 Z[#3+#4]
#1=[#543+[#544-#543]*0.85119]
#2=[#550+[#551-#550]*0.85119]
#3=[#1+[#2-#1]*0.00216]
X6.95084 Y-2.72037 Z[#3+#4]
#1=[#536+[#537-#536]*0.84025]
#2=[#543+[#544-#543]*0.84025]
#3=[#1+[#2-#1]*0.99773]
X6.94917 Y-2.72413 Z[#3+#4]
#1=[#536+[#537-#536]*0.83057]
#2=[#543+[#544-#543]*0.83057]
#3=[#1+[#2-#1]*0.99133]
X6.94675 Y-2.72746 Z[#3+#4]
#1=[#536+[#537-#536]*0.82256]
#2=[#543+[#544-#543]*0.82256]
#3=[#1+[#2-#1]*0.98323]
X6.94369 Y-2.73021 Z[#3+#4]
#1=[#536+[#537-#536]*0.81658]
#2=[#543+[#544-#543]*0.81658]
#3=[#1+[#2-#1]*0.97380]
X6.94013 Y-2.73227 Z[#3+#4]
#1=[#536+[#537-#536]*0.81288]
#2=[#543+[#544-#543]*0.81288]
#3=[#1+[#2-#1]*0.96344]
X6.93621 Y-2.73354 Z[#3+#4]
#1=[#536+[#537-#536]*0.81163]
#2=[#543+[#544-#543]*0.81163]
#3=[#1+[#2-#1]*0.95261]
X6.93212 Y-2.73397 Z[#3+#4]
#1=[#536+[#537-#536]*0.81163]
#2=[#543+[#544-#543]*0.81163]
#3=[#1+[#2-#1]*0.56359]
X6.78514 Y-2.73397 Z[#3+#4]
#1=[#536+[#537-#536]*0.10719]
#2=[#543+[#544-#543]*0.10719]
#3=[#1+[#2-#1]*0.56359]
X6.78514 Y-2.97619 Z[#3+#4]
#1=[#536+[#537-#536]*0.09529]
#2=[#543+[#544-#543]*0.09529]
#3=[#1+[#2-#1]*0.56245]
X6.78471 Y-2.98028 Z[#3+#4]
#1=[#536+[#537-#536]*0.08390]
#2=[#543+[#544-#543]*0.08390]
#3=[#1+[#2-#1]*0.55908]
X6.78344 Y-2.98420 Z[#3+#4]
#1=[#536+[#537-#536]*0.07354]
#2=[#543+[#544-#543]*0.07354]
#3=[#1+[#2-#1]*0.55364]
X6.78138 Y-2.98776 Z[#3+#4]
#1=[#536+[#537-#536]*0.06464]
#2=[#543+[#544-#543]*0.06464]
#3=[#1+[#2-#1]*0.54635]
X6.77863 Y-2.99082 Z[#3+#4]
#1=[#536+[#537-#536]*0.05761]
#2=[#543+[#544-#543]*0.05761]
#3=[#1+[#2-#1]*0.53754]
X6.77530 Y-2.99324 Z[#3+#4]
#1=[#536+[#537-#536]*0.05274]
#2=[#543+[#544-#543]*0.05274]
#3=[#1+[#2-#1]*0.52758]
X6.77154 Y-2.99491 Z[#3+#4]
#1=[#536+[#537-#536]*0.05025]
#2=[#543+[#544-#543]*0.05025]
#3=[#1+[#2-#1]*0.51693]
X6.76751 Y-2.99577 Z[#3+#4]
#1=[#536+[#537-#536]*0.05025]
#2=[#543+[#544-#543]*0.05025]
#3=[#1+[#2-#1]*0.50604]
X6.76340 Y-2.99577 Z[#3+#4]
#1=[#536+[#537-#536]*0.05274]
#2=[#543+[#544-#543]*0.05274]
#3=[#1+[#2-#1]*0.49538]
X6.75937 Y-2.99491 Z[#3+#4]
#1=[#536+[#537-#536]*0.05761]
#2=[#543+[#544-#543]*0.05761]
#3=[#1+[#2-#1]*0.48544]
X6.75561 Y-2.99324 Z[#3+#4]
#1=[#536+[#537-#536]*0.06464]
#2=[#543+[#544-#543]*0.06464]
#3=[#1+[#2-#1]*0.47662]
X6.75228 Y-2.99082 Z[#3+#4]
#1=[#536+[#537-#536]*0.07354]
#2=[#543+[#544-#543]*0.07354]
#3=[#1+[#2-#1]*0.46934]
X6.74953 Y-2.98776 Z[#3+#4]
#1=[#536+[#537-#536]*0.08390]
#2=[#543+[#544-#543]*0.08390]
#3=[#1+[#2-#1]*0.46389]
X6.74747 Y-2.98420 Z[#3+#4]
#1=[#536+[#537-#536]*0.09529]
#2=[#543+[#544-#543]*0.09529]
#3=[#1+[#2-#1]*0.46052]
X6.74620 Y-2.98028 Z[#3+#4]
#1=[#536+[#537-#536]*0.10719]
#2=[#543+[#544-#543]*0.10719]
#3=[#1+[#2-#1]*0.45938]
X6.74577 Y-2.97619 Z[#3+#4]
G04 P0 ( dwell for no time -- G64 should not smooth over this point )
G00 Z0.08000 ( retract )

G00 X7.17434 Y-2.97619 ( rapid move to begin. )
G01 F180.00000
#1=[#543+[#544-#543]*0.10719]
#2=[#550+[#551-#550]*0.10719]
#3=[#1+[#2-#1]*0.59370]
G01 Z[-0.04000+#111]
G04 P0 ( dwell for no time -- G64 should not smooth over this point )
G01 F360.00000
#1=[#544+[#545-#544]*0.07661]
#2=[#551+[#552-#551]*0.07661]
#3=[#1+[#2-#1]*0.59370]
X7.17434 Y-2.64286 Z[#3+#4]
#1=[#544+[#545-#544]*0.08852]
#2=[#551+[#552-#551]*0.08852]
#3=[#1+[#2-#1]*0.59483]
X7.17477 Y-2.63876 Z[#3+#4]
#1=[#544+[#545-#544]*0.09990]
#2=[#551+[#552-#551]*0.09990]
#3=[#1+[#2-#1]*0.59820]
X7.17604 Y-2.63485 Z[#3+#4]
#1=[#544+[#545-#544]*0.11026]
#2=[#551+[#552-#551]*0.11026]
#3=[#1+[#2-#1]*0.60365]
X7.17810 Y-2.63129 Z[#3+#4]
#1=[#544+[#545-#544]*0.11916]
#2=[#551+[#552-#551]*0.11916]
#3=[#1+[#2-#1]*0.61093]
X7.18085 Y-2.62823 Z[#3+#4]
#1=[#544+[#545-#544]*0.12619]
#2=[#551+[#552-#551]*0.12619]
#3=[#1+[#2-#1]*0.61975]
X7.18418 Y-2.62581 Z[#3+#4]
#1=[#544+[#545-#544]*0.13106]
#2=[#551+[#552-#551]*0.13106]
#3=[#1+[#2-#1]*0.62970]
X7.18794 Y-2.62413 Z[#3+#4]
#1=[#544+[#545-#544]*0.13355]
#2=[#551+[#552-#551]*0.13355]
#3=[#1+[#2-#1]*0.64035]
X7.19197 Y-2.62328 Z[#3+#4]
#1=[#544+[#545-#544]*0.13355]
#2=[#551+[#552-#551]*0.13355]
#3=[#1+[#2-#1]*0.65124]
X7.19608 Y-2.62328 Z[#3+#4]
#1=[#544+[#545-#544]*0.13106]
#2=[#551+[#552-#551]*0.13106]
#3=[#1+[#2-#1]*0.66190]
X7.20011 Y-2.62413 Z[#3+#4]
#1=[#544+[#545-#544]*0.12619]
#2=[#551+[#552-#551]*0.12619]
#3=[#1+[#2-#1]*0.67185]
X7.20387 Y-2.62581 Z[#3+#4]
#1=[#544+[#545-#544]*0.11916]
#2=[#551+[#552-#551]*0.11916]
#3=[#1+[#2-#1]*0.68066]
X7.20720 Y-2.62823 Z[#3+#4]
#1=[#544+[#545-#544]*0.11026]
#2=[#551+[#552-#551]*0.11026]
#3=[#1+[#2-#1]*0.68795]
X7.20995 Y-2.63129 Z[#3+#4]
#1=[#544+[#545-#544]*0.09990]
#2=[#551+[#552-#551]*0.09990]
#3=[#1+[#2-#1]*0.69339]
X7.21201 Y-2.63485 Z[#3+#4]
#1=[#544+[#545-#544]*0.08852]
#2=[#551+[#552-#551]*0.08852]
#3=[#1+[#2-#1]*0.69676]
X7.21328 Y-2.63876 Z[#3+#4]
#1=[#544+[#545-#544]*0.00709]
#2=[#551+[#552-#551]*0.00709]
#3=[#1+[#2-#1]*0.69790]
X7.21371 Y-2.66676 Z[#3+#4]
#1=[#544+[#545-#544]*0.05381]
#2=[#551+[#552-#551]*0.05381]
#3=[#1+[#2-#1]*0.74137]
X7.23013 Y-2.65070 Z[#3+#4]
#1=[#544+[#545-#544]*0.13115]
#2=[#551+[#552-#551]*0.13115]
#3=[#1+[#2-#1]*0.88202]
X7.28328 Y-2.62410 Z[#3+#4]
#1=[#544+[#545-#544]*0.13386]
#2=[#551+[#552-#551]*0.13386]
#3=[#1+[#2-#1]*0.89787]
X7.28926 Y-2.62317 Z[#3+#4]
#1=[#551+[#552-#551]*0.13386]
#2=[#558+[#559-#558]*0.13386]
#3=[#1+[#2-#1]*0.02390]
X7.33688 Y-2.62317 Z[#3+#4]
#1=[#551+[#552-#551]*0.13261]
#2=[#558+[#559-#558]*0.13261]
#3=[#1+[#2-#1]*0.03473]
X7.34098 Y-2.62360 Z[#3+#4]
#1=[#551+[#552-#551]*0.12891]
#2=[#558+[#559-#558]*0.12891]
#3=[#1+[#2-#1]*0.04509]
X7.34489 Y-2.62487 Z[#3+#4]
#1=[#551+[#552-#551]*0.12293]
#2=[#558+[#559-#558]*0.12293]
#3=[#1+[#2-#1]*0.05453]
X7.34845 Y-2.62693 Z[#3+#4]
#1=[#551+[#552-#551]*0.11492]
#2=[#558+[#559-#558]*0.11492]
#3=[#1+[#2-#1]*0.06262]
X7.35151 Y-2.62968 Z[#3+#4]
#1=[#551+[#552-#551]*0.10524]
#2=[#558+[#559-#558]*0.10524]
#3=[#1+[#2-#1]*0.06902]
X7.35393 Y-2.63301 Z[#3+#4]
#1=[#551+[#552-#551]*0.09430]
#2=[#558+[#559-#558]*0.09430]
#3=[#1+[#2-#1]*0.07345]
X7.35560 Y-2.63677 Z[#3+#4]
#1=[#551+[#552-#551]*0.08260]
#2=[#558+[#559-#558]*0.08260]
#3=[#1+[#2-#1]*0.07572]
X7.35646 Y-2.64080 Z[#3+#4]
#1=[#551+[#552-#551]*0.07063]
#2=[#558+[#559-#558]*0.07063]
#3=[#1+[#2-#1]*0.07572]
X7.35646 Y-2.64491 Z[#3+#4]
#1=[#551+[#552-#551]*0.05892]
#2=[#558+[#559-#558]*0.05892]
#3=[#1+[#2-#1]*0.07345]
X7.35560 Y-2.64894 Z[#3+#4]
#1=[#551+[#552-#551]*0.04799]
#2=[#558+[#559-#558]*0.04799]
#3=[#1+[#2-#1]*0.06902]
X7.35393 Y-2.65270 Z[#3+#4]
#1=[#551+[#552-#551]*0.03831]
#2=[#558+[#559-#558]*0.03831]
#3=[#1+[#2-#1]*0.06262]
X7.35151 Y-2.65603 Z[#3+#4]
#1=[#551+[#552-#551]*0.03030]
#2=[#558+[#559-#558]*0.03030]
#3=[#1+[#2-#1]*0.05453]
X7.34845 Y-2.65878 Z[#3+#4]
#1=[#551+[#552-#551]*0.02431]
#2=[#558+[#559-#558]*0.02431]
#3=[#1+[#2-#1]*0.04509]
X7.34489 Y-2.66084 Z[#3+#4]
#1=[#551+[#552-#551]*0.02061]
#2=[#558+[#559-#558]*0.02061]
#3=[#1+[#2-#1]*0.03473]
X7.34098 Y-2.66211 Z[#3+#4]
#1=[#551+[#552-#551]*0.01936]
#2=[#558+[#559-#558]*0.01936]
#3=[#1+[#2-#1]*0.02390]
X7.33688 Y-2.66254 Z[#3+#4]
#1=[#544+[#545-#544]*0.01936]
#2=[#551+[#552-#551]*0.01936]
#3=[#1+[#2-#1]*0.91017]
X7.29391 Y-2.66254 Z[#3+#4]
#1=[#543+[#544-#543]*0.96032]
#2=[#550+[#551-#550]*0.96032]
#3=[#1+[#2-#1]*0.80270]
X7.25331 Y-2.68284 Z[#3+#4]
#1=[#543+[#544-#543]*0.90421]
#2=[#550+[#551-#550]*0.90421]
#3=[#1+[#2-#1]*0.75163]
X7.23401 Y-2.70214 Z[#3+#4]
#1=[#543+[#544-#543]*0.78612]
#2=[#550+[#551-#550]*0.78612]
#3=[#1+[#2-#1]*0.69790]
X7.21371 Y-2.74274 Z[#3+#4]
#1=[#543+[#544-#543]*0.10719]
#2=[#550+[#551-#550]*0.10719]
#3=[#1+[#2-#1]*0.69790]
X7.21371 Y-2.97619 Z[#3+#4]
#1=[#543+[#544-#543]*0.09529]
#2=[#550+[#551-#550]*0.09529]
#3=[#1+[#2-#1]*0.69676]
X7.21328 Y-2.98028 Z[#3+#4]
#1=[#543+[#544-#543]*0.08390]
#2=[#550+[#551-#550]*0.08390]
#3=[#1+[#2-#1]*0.69339]
X7.21201 Y-2.98420 Z[#3+#4]
#1=[#543+[#544-#543]*0.07354]
#2=[#550+[#551-#550]*0.07354]
#3=[#1+[#2-#1]*0.68795]
X7.20995 Y-2.98776 Z[#3+#4]
#1=[#543+[#544-#543]*0.06464]
#2=[#550+[#551-#550]*0.06464]
#3=[#1+[#2-#1]*0.68066]
X7.20720 Y-2.99082 Z[#3+#4]
#1=[#543+[#544-#543]*0.05761]
#2=[#550+[#551-#550]*0.05761]
#3=[#1+[#2-#1]*0.67185]
X7.20387 Y-2.99324 Z[#3+#4]
#1=[#543+[#544-#543]*0.05274]
#2=[#550+[#551-#550]*0.05274]
#3=[#1+[#2-#1]*0.66190]
X7.20011 Y-2.99491 Z[#3+#4]
#1=[#543+[#544-#543]*0.05025]
#2=[#550+[#551-#550]*0.05025]
#3=[#1+[#2-#1]*0.65124]
X7.19608 Y-2.99577 Z[#3+#4]
#1=[#543+[#544-#543]*0.05025]
#2=[#550+[#551-#550]*0.05025]
#3=[#1+[#2-#1]*0.64035]
X7.19197 Y-2.99577 Z[#3+#4]
#1=[#543+[#544-#543]*0.05274]
#2=[#550+[#551-#550]*0.05274]
#3=[#1+[#2-#1]*0.62970]
X7.18794 Y-2.99491 Z[#3+#4]
#1=[#543+[#544-#543]*0.05761]
#2=[#550+[#551-#550]*0.05761]
#3=[#1+[#2-#1]*0.61975]
X7.18418 Y-2.99324 Z[#3+#4]
#1=[#543+[#544-#543]*0.06464]
#2=[#550+[#551-#550]*0.06464]
#3=[#1+[#2-#1]*0.61093]
X7.18085 Y-2.99082 Z[#3+#4]
#1=[#543+[#544-#543]*0.07354]
#2=[#550+[#551-#550]*0.07354]
#3=[#1+[#2-#1]*0.60365]
X7.17810 Y-2.98776 Z[#3+#4]
#1=[#543+[#544-#543]*0.08390]
#2=[#550+[#551-#550]*0.08390]
#3=[#1+[#2-#1]*0.59820]
X7.17604 Y-2.98420 Z[#3+#4]
#1=[#543+[#544-#543]*0.09529]
#2=[#550+[#551-#550]*0.09529]
#3=[#1+[#2-#1]*0.59483]
X7.17477 Y-2.98028 Z[#3+#4]
#1=[#543+[#544-#543]*0.10719]
#2=[#550+[#551-#550]*0.10719]
#3=[#1+[#2-#1]*0.59370]
X7.17434 Y-2.97619 Z[#3+#4]
G04 P0 ( dwell for no time -- G64 should not smooth over this point )
G00 Z0.08000 ( retract )

G00 X7.46005 Y-2.88095 ( rapid move to begin. )
G01 F180.00000
#1=[#550+[#551-#550]*0.38417]
#2=[#557+[#558-#557]*0.38417]
#3=[#1+[#2-#1]*0.34990]
G01 Z[-0.04000+#111]
G04 P0 ( dwell for no time -- G64 should not smooth over this point )
G01 F360.00000
#1=[#550+[#551-#550]*0.79963]
#2=[#557+[#558-#557]*0.79963]
#3=[#1+[#2-#1]*0.34990]
X7.46005 Y-2.73809 Z[#3+#4]
#1=[#550+[#551-#550]*0.81705]
#2=[#557+[#558-#557]*0.81705]
#3=[#1+[#2-#1]*0.35237]
X7.46099 Y-2.73211 Z[#3+#4]
#1=[#550+[#551-#550]*0.97160]
#2=[#557+[#558-#557]*0.97160]
#3=[#1+[#2-#1]*0.42275]
X7.48758 Y-2.67897 Z[#3+#4]
#1=[#551+[#552-#551]*0.05381]
#2=[#558+[#559-#558]*0.05381]
#3=[#1+[#2-#1]*0.49757]
X7.51585 Y-2.65070 Z[#3+#4]
#1=[#551+[#552-#551]*0.12782]
#2=[#558+[#559-#558]*0.12782]
#3=[#1+[#2-#1]*0.63077]
X7.56617 Y-2.62525 Z[#3+#4]
#1=[#551+[#552-#551]*0.13318]
#2=[#558+[#559-#558]*0.13318]
#3=[#1+[#2-#1]*0.64605]
X7.57195 Y-2.62341 Z[#3+#4]
#1=[#551+[#552-#551]*0.13318]
#2=[#558+[#559-#558]*0.13318]
#3=[#1+[#2-#1]*0.85115]
X7.64944 Y-2.62341 Z[#3+#4]
#1=[#551+[#552-#551]*0.12782]
#2=[#558+[#559-#558]*0.12782]
#3=[#1+[#2-#1]*0.86643]
X7.65521 Y-2.62525 Z[#3+#4]
#1=[#551+[#552-#551]*0.05381]
#2=[#558+[#559-#558]*0.05381]
#3=[#1+[#2-#1]*0.99962]
X7.70554 Y-2.65070 Z[#3+#4]
#1=[#557+[#558-#557]*0.97160]
#2=[#564+[#565-#564]*0.97160]
#3=[#1+[#2-#1]*0.07444]
X7.73380 Y-2.67897 Z[#3+#4]
#1=[#557+[#558-#557]*0.82524]
#2=[#564+[#565-#564]*0.82524]
#3=[#1+[#2-#1]*0.14180]
X7.75925 Y-2.72929 Z[#3+#4]
#1=[#557+[#558-#557]*0.80845]
#2=[#564+[#565-#564]*0.80845]
#3=[#1+[#2-#1]*0.14667]
X7.76109 Y-2.73507 Z[#3+#4]
#1=[#557+[#558-#557]*0.37536]
#2=[#564+[#565-#564]*0.37536]
#3=[#1+[#2-#1]*0.14667]
X7.76109 Y-2.88398 Z[#3+#4]
#1=[#557+[#558-#557]*0.35857]
#2=[#564+[#565-#564]*0.35857]
#3=[#1+[#2-#1]*0.14180]
X7.75925 Y-2.88976 Z[#3+#4]
#1=[#557+[#558-#557]*0.21220]
#2=[#564+[#565-#564]*0.21220]
#3=[#1+[#2-#1]*0.07444]
X7.73380 Y-2.94008 Z[#3+#4]
#1=[#550+[#551-#550]*0.12999]
#2=[#557+[#558-#557]*0.12999]
#3=[#1+[#2-#1]*0.99962]
X7.70554 Y-2.96835 Z[#3+#4]
#1=[#550+[#551-#550]*0.05598]
#2=[#557+[#558-#557]*0.05598]
#3=[#1+[#2-#1]*0.86643]
X7.65521 Y-2.99380 Z[#3+#4]
#1=[#550+[#551-#550]*0.05062]
#2=[#557+[#558-#557]*0.05062]
#3=[#1+[#2-#1]*0.85115]
X7.64944 Y-2.99564 Z[#3+#4]
#1=[#550+[#551-#550]*0.04994]
#2=[#557+[#558-#557]*0.04994]
#3=[#1+[#2-#1]*0.65407]
X7.57498 Y-2.99587 Z[#3+#4]
#1=[#550+[#551-#550]*0.05265]
#2=[#557+[#558-#557]*0.05265]
#3=[#1+[#2-#1]*0.63822]
X7.56899 Y-2.99494 Z[#3+#4]
#1=[#550+[#551-#550]*0.12999]
#2=[#557+[#558-#557]*0.12999]
#3=[#1+[#2-#1]*0.49757]
X7.51585 Y-2.96835 Z[#3+#4]
#1=[#550+[#551-#550]*0.20520]
#2=[#557+[#558-#557]*0.20520]
#3=[#1+[#2-#1]*0.42818]
X7.48963 Y-2.94249 Z[#3+#4]
#1=[#550+[#551-#550]*0.22008]
#2=[#557+[#558-#557]*0.22008]
#3=[#1+[#2-#1]*0.41842]
X7.48594 Y-2.93737 Z[#3+#4]
#1=[#550+[#551-#550]*0.35977]
#2=[#557+[#558-#557]*0.35977]
#3=[#1+[#2-#1]*0.35499]
X7.46198 Y-2.88934 Z[#3+#4]
#1=[#550+[#551-#550]*0.37226]
#2=[#557+[#558-#557]*0.37226]
#3=[#1+[#2-#1]*0.35104]
X7.46048 Y-2.88504 Z[#3+#4]
#1=[#550+[#551-#550]*0.38417]
#2=[#557+[#558-#557]*0.38417]
#3=[#1+[#2-#1]*0.34990]
X7.46005 Y-2.88095 Z[#3+#4]
G04 P0 ( dwell for no time -- G64 should not smooth over this point )
G00 Z0.08000 ( retract )

G00 X7.49942 Y-2.87630 ( rapid move to begin. )
G01 F180.00000
#1=[#550+[#551-#550]*0.39768]
#2=[#557+[#558-#557]*0.39768]
#3=[#1+[#2-#1]*0.45410]
G01 Z[-0.04000+#111]
G04 P0 ( dwell for no time -- G64 should not smooth over this point )
G01 F360.00000
#1=[#550+[#551-#550]*0.78612]
#2=[#557+[#558-#557]*0.78612]
#3=[#1+[#2-#1]*0.45410]
X7.49942 Y-2.74274 Z[#3+#4]
#1=[#550+[#551-#550]*0.90421]
#2=[#557+[#558-#557]*0.90421]
#3=[#1+[#2-#1]*0.50784]
X7.51973 Y-2.70214 Z[#3+#4]
#1=[#550+[#551-#550]*0.96032]
#2=[#557+[#558-#557]*0.96032]
#3=[#1+[#2-#1]*0.55890]
X7.53902 Y-2.68284 Z[#3+#4]
#1=[#551+[#552-#551]*0.01936]
#2=[#558+[#559-#558]*0.01936]
#3=[#1+[#2-#1]*0.66637]
X7.57962 Y-2.66254 Z[#3+#4]
#1=[#551+[#552-#551]*0.01936]
#2=[#558+[#559-#558]*0.01936]
#3=[#1+[#2-#1]*0.83083]
X7.64176 Y-2.66254 Z[#3+#4]
#1=[#550+[#551-#550]*0.96032]
#2=[#557+[#558-#557]*0.96032]
#3=[#1+[#2-#1]*0.93830]
X7.68236 Y-2.68284 Z[#3+#4]
#1=[#550+[#551-#550]*0.90421]
#2=[#557+[#558-#557]*0.90421]
#3=[#1+[#2-#1]*0.98936]
X7.70166 Y-2.70214 Z[#3+#4]
#1=[#557+[#558-#557]*0.78612]
#2=[#564+[#565-#564]*0.78612]
#3=[#1+[#2-#1]*0.04309]
X7.72196 Y-2.74274 Z[#3+#4]
#1=[#557+[#558-#557]*0.39768]
#2=[#564+[#565-#564]*0.39768]
#3=[#1+[#2-#1]*0.04309]
X7.72196 Y-2.87630 Z[#3+#4]
#1=[#550+[#551-#550]*0.27959]
#2=[#557+[#558-#557]*0.27959]
#3=[#1+[#2-#1]*0.98936]
X7.70166 Y-2.91691 Z[#3+#4]
#1=[#550+[#551-#550]*0.22349]
#2=[#557+[#558-#557]*0.22349]
#3=[#1+[#2-#1]*0.93830]
X7.68236 Y-2.93620 Z[#3+#4]
#1=[#550+[#551-#550]*0.16444]
#2=[#557+[#558-#557]*0.16444]
#3=[#1+[#2-#1]*0.83083]
X7.64176 Y-2.95650 Z[#3+#4]
#1=[#550+[#551-#550]*0.16444]
#2=[#557+[#558-#557]*0.16444]
#3=[#1+[#2-#1]*0.66637]
X7.57962 Y-2.95650 Z[#3+#4]
#1=[#550+[#551-#550]*0.22349]
#2=[#557+[#558-#557]*0.22349]
#3=[#1+[#2-#1]*0.55890]
X7.53902 Y-2.93620 Z[#3+#4]
#1=[#550+[#551-#550]*0.27959]
#2=[#557+[#558-#557]*0.27959]
#3=[#1+[#2-#1]*0.50784]
X7.51973 Y-2.91691 Z[#3+#4]
#1=[#550+[#551-#550]*0.39768]
#2=[#557+[#558-#557]*0.39768]
#3=[#1+[#2-#1]*0.45410]
X7.49942 Y-2.87630 Z[#3+#4]
G04 P0 ( dwell for no time -- G64 should not smooth over this point )
G00 Z0.08000 ( retract )

G00 X7.93625 Y-2.97619 ( rapid move to begin. )
G01 F180.00000
#1=[#557+[#558-#557]*0.10719]
#2=[#564+[#565-#564]*0.10719]
#3=[#1+[#2-#1]*0.61025]
G01 Z[-0.04000+#111]
G04 P0 ( dwell for no time -- G64 should not smooth over this point )
G01 F360.00000
#1=[#558+[#559-#558]*0.07661]
#2=[#565+[#566-#565]*0.07661]
#3=[#1+[#2-#1]*0.61025]
X7.93625 Y-2.64286 Z[#3+#4]
#1=[#558+[#559-#558]*0.08852]
#2=[#565+[#566-#565]*0.08852]
#3=[#1+[#2-#1]*0.61139]
X7.93668 Y-2.63876 Z[#3+#4]
#1=[#558+[#559-#558]*0.09990]
#2=[#565+[#566-#565]*0.09990]
#3=[#1+[#2-#1]*0.61475]
X7.93795 Y-2.63485 Z[#3+#4]
#1=[#558+[#559-#558]*0.11026]
#2=[#565+[#566-#565]*0.11026]
#3=[#1+[#2-#1]*0.62020]
X7.94000 Y-2.63129 Z[#3+#4]
#1=[#558+[#559-#558]*0.11916]
#2=[#565+[#566-#565]*0.11916]
#3=[#1+[#2-#1]*0.62749]
X7.94276 Y-2.62823 Z[#3+#4]
#1=[#558+[#559-#558]*0.12619]
#2=[#565+[#566-#565]*0.12619]
#3=[#1+[#2-#1]*0.63630]
X7.94609 Y-2.62581 Z[#3+#4]
#1=[#558+[#559-#558]*0.13106]
#2=[#565+[#566-#565]*0.13106]
#3=[#1+[#2-#1]*0.64625]
X7.94985 Y-2.62413 Z[#3+#4]
#1=[#558+[#559-#558]*0.13355]
#2=[#565+[#566-#565]*0.13355]
#3=[#1+[#2-#1]*0.65690]
X7.95387 Y-2.62328 Z[#3+#4]
#1=[#558+[#559-#558]*0.13355]
#2=[#565+[#566-#565]*0.13355]
#3=[#1+[#2-#1]*0.66780]
X7.95799 Y-2.62328 Z[#3+#4]
#1=[#558+[#559-#558]*0.13106]
#2=[#565+[#566-#565]*0.13106]
#3=[#1+[#2-#1]*0.67845]
X7.96201 Y-2.62413 Z[#3+#4]
#1=[#558+[#559-#558]*0.12619]
#2=[#565+[#566-#565]*0.12619]
#3=[#1+[#2-#1]*0.68840]
X7.96577 Y-2.62581 Z[#3+#4]
#1=[#558+[#559-#558]*0.11916]
#2=[#565+[#566-#565]*0.11916]
#3=[#1+[#2-#1]*0.69721]
X7.96910 Y-2.62823 Z[#3+#4]
#1=[#558+[#559-#558]*0.11026]
#2=[#565+[#566-#565]*0.11026]
#3=[#1+[#2-#1]*0.70450]
X7.97186 Y-2.63129 Z[#3+#4]
#1=[#558+[#559-#558]*0.09990]
#2=[#565+[#566-#565]*0.09990]
#3=[#1+[#2-#1]*0.70995]
X7.97391 Y-2.63485 Z[#3+#4]
#1=[#558+[#559-#558]*0.08852]
#2=[#565+[#566-#565]*0.08852]
#3=[#1+[#2-#1]*0.71331]
X7.97518 Y-2.63876 Z[#3+#4]
#1=[#558+[#559-#558]*0.06538]
#2=[#565+[#566-#565]*0.06538]
#3=[#1+[#2-#1]*0.71445]
X7.97562 Y-2.64672 Z[#3+#4]
#1=[#558+[#559-#558]*0.12782]
#2=[#565+[#566-#565]*0.12782]
#3=[#1+[#2-#1]*0.82810]
X8.01856 Y-2.62525 Z[#3+#4]
#1=[#558+[#559-#558]*0.13318]
#2=[#565+[#566-#565]*0.13318]
#3=[#1+[#2-#1]*0.84338]
X8.02433 Y-2.62341 Z[#3+#4]
#1=[#565+[#566-#565]*0.13318]
#2=[#572+[#573-#572]*0.13318]
#3=[#1+[#2-#1]*0.04847]
X8.10182 Y-2.62341 Z[#3+#4]
#1=[#565+[#566-#565]*0.12782]
#2=[#572+[#573-#572]*0.12782]
#3=[#1+[#2-#1]*0.06375]
X8.10759 Y-2.62525 Z[#3+#4]
#1=[#565+[#566-#565]*0.05381]
#2=[#572+[#573-#572]*0.05381]
#3=[#1+[#2-#1]*0.19695]
X8.15792 Y-2.65070 Z[#3+#4]
#1=[#565+[#566-#565]*0.04084]
#2=[#572+[#573-#572]*0.04084]
#3=[#1+[#2-#1]*0.20875]
X8.16238 Y-2.65516 Z[#3+#4]
#1=[#565+[#566-#565]*0.03297]
#2=[#572+[#573-#572]*0.03297]
#3=[#1+[#2-#1]*0.21309]
X8.16401 Y-2.65786 Z[#3+#4]
#1=[#564+[#565-#564]*0.89448]
#2=[#571+[#572-#571]*0.89448]
#3=[#1+[#2-#1]*0.27611]
X8.18782 Y-2.70548 Z[#3+#4]
#1=[#564+[#565-#564]*0.87769]
#2=[#571+[#572-#571]*0.87769]
#3=[#1+[#2-#1]*0.28099]
X8.18967 Y-2.71125 Z[#3+#4]
#1=[#564+[#565-#564]*0.10719]
#2=[#571+[#572-#571]*0.10719]
#3=[#1+[#2-#1]*0.28161]
X8.18990 Y-2.97619 Z[#3+#4]
#1=[#564+[#565-#564]*0.09529]
#2=[#571+[#572-#571]*0.09529]
#3=[#1+[#2-#1]*0.28047]
X8.18947 Y-2.98028 Z[#3+#4]
#1=[#564+[#565-#564]*0.08390]
#2=[#571+[#572-#571]*0.08390]
#3=[#1+[#2-#1]*0.27710]
X8.18820 Y-2.98420 Z[#3+#4]
#1=[#564+[#565-#564]*0.07354]
#2=[#571+[#572-#571]*0.07354]
#3=[#1+[#2-#1]*0.27166]
X8.18614 Y-2.98776 Z[#3+#4]
#1=[#564+[#565-#564]*0.06464]
#2=[#571+[#572-#571]*0.06464]
#3=[#1+[#2-#1]*0.26437]
X8.18339 Y-2.99082 Z[#3+#4]
#1=[#564+[#565-#564]*0.05761]
#2=[#571+[#572-#571]*0.05761]
#3=[#1+[#2-#1]*0.25556]
X8.18006 Y-2.99324 Z[#3+#4]
#1=[#564+[#565-#564]*0.05274]
#2=[#571+[#572-#571]*0.05274]
#3=[#1+[#2-#1]*0.24561]
X8.17630 Y-2.99491 Z[#3+#4]
#1=[#564+[#565-#564]*0.05025]
#2=[#571+[#572-#571]*0.05025]
#3=[#1+[#2-#1]*0.23495]
X8.17227 Y-2.99577 Z[#3+#4]
#1=[#564+[#565-#564]*0.05025]
#2=[#571+[#572-#571]*0.05025]
#3=[#1+[#2-#1]*0.22406]
X8.16816 Y-2.99577 Z[#3+#4]
#1=[#564+[#565-#564]*0.05274]
#2=[#571+[#572-#571]*0.05274]
#3=[#1+[#2-#1]*0.21340]
X8.16413 Y-2.99491 Z[#3+#4]
#1=[#564+[#565-#564]*0.05761]
#2=[#571+[#572-#571]*0.05761]
#3=[#1+[#2-#1]*0.20346]
X8.16037 Y-2.99324 Z[#3+#4]
#1=[#564+[#565-#564]*0.06464]
#2=[#571+[#572-#571]*0.06464]
#3=[#1+[#2-#1]*0.19464]
X8.15704 Y-2.99082 Z[#3+#4]
#1=[#564+[#565-#564]*0.07354]
#2=[#571+[#572-#571]*0.07354]
#3=[#1+[#2-#1]*0.18736]
X8.15429 Y-2.98776 Z[#3+#4]
#1=[#564+[#565-#564]*0.08390]
#2=[#571+[#572-#571]*0.08390]
#3=[#1+[#2-#1]*0.18191]
X8.15223 Y-2.98420 Z[#3+#4]
#1=[#564+[#565-#564]*0.09529]
#2=[#571+[#572-#571]*0.09529]
#3=[#1+[#2-#1]*0.17854]
X8.15096 Y-2.98028 Z[#3+#4]
#1=[#564+[#565-#564]*0.10719]
#2=[#571+[#572-#571]*0.10719]
#3=[#1+[#2-#1]*0.17740]
X8.15053 Y-2.97619 Z[#3+#4]
#1=[#564+[#565-#564]*0.85537]
#2=[#571+[#572-#571]*0.85537]
#3=[#1+[#2-#1]*0.17740]
X8.15053 Y-2.71893 Z[#3+#4]
#1=[#564+[#565-#564]*0.96470]
#2=[#571+[#572-#571]*0.96470]
#3=[#1+[#2-#1]*0.12766]
X8.13173 Y-2.68134 Z[#3+#4]
#1=[#565+[#566-#565]*0.01936]
#2=[#572+[#573-#572]*0.01936]
#3=[#1+[#2-#1]*0.02816]
X8.09414 Y-2.66254 Z[#3+#4]
#1=[#558+[#559-#558]*0.01936]
#2=[#565+[#566-#565]*0.01936]
#3=[#1+[#2-#1]*0.86370]
X8.03201 Y-2.66254 Z[#3+#4]
#1=[#557+[#558-#557]*0.96032]
#2=[#564+[#565-#564]*0.96032]
#3=[#1+[#2-#1]*0.75623]
X7.99140 Y-2.68284 Z[#3+#4]
#1=[#557+[#558-#557]*0.91441]
#2=[#564+[#565-#564]*0.91441]
#3=[#1+[#2-#1]*0.71445]
X7.97562 Y-2.69863 Z[#3+#4]
#1=[#557+[#558-#557]*0.10719]
#2=[#564+[#565-#564]*0.10719]
#3=[#1+[#2-#1]*0.71445]
X7.97562 Y-2.97619 Z[#3+#4]
#1=[#557+[#558-#557]*0.09529]
#2=[#564+[#565-#564]*0.09529]
#3=[#1+[#2-#1]*0.71331]
X7.97518 Y-2.98028 Z[#3+#4]
#1=[#557+[#558-#557]*0.08390]
#2=[#564+[#565-#564]*0.08390]
#3=[#1+[#2-#1]*0.70995]
X7.97391 Y-2.98420 Z[#3+#4]
#1=[#557+[#558-#557]*0.07354]
#2=[#564+[#565-#564]*0.07354]
#3=[#1+[#2-#1]*0.70450]
X7.97186 Y-2.98776 Z[#3+#4]
#1=[#557+[#558-#557]*0.06464]
#2=[#564+[#565-#564]*0.06464]
#3=[#1+[#2-#1]*0.69721]
X7.96910 Y-2.99082 Z[#3+#4]
#1=[#557+[#558-#557]*0.05761]
#2=[#564+[#565-#564]*0.05761]
#3=[#1+[#2-#1]*0.68840]
X7.96577 Y-2.99324 Z[#3+#4]
#1=[#557+[#558-#557]*0.05274]
#2=[#564+[#565-#564]*0.05274]
#3=[#1+[#2-#1]*0.67845]
X7.96201 Y-2.99491 Z[#3+#4]
#1=[#557+[#558-#557]*0.05025]
#2=[#564+[#565-#564]*0.05025]
#3=[#1+[#2-#1]*0.66780]
X7.95799 Y-2.99577 Z[#3+#4]
#1=[#557+[#558-#557]*0.05025]
#2=[#564+[#565-#564]*0.05025]
#3=[#1+[#2-#1]*0.65690]
X7.95387 Y-2.99577 Z[#3+#4]
#1=[#557+[#558-#557]*0.05274]
#2=[#564+[#565-#564]*0.05274]
#3=[#1+[#2-#1]*0.64625]
X7.94985 Y-2.99491 Z[#3+#4]
#1=[#557+[#558-#557]*0.05761]
#2=[#564+[#565-#564]*0.05761]
#3=[#1+[#2-#1]*0.63630]
X7.94609 Y-2.99324 Z[#3+#4]
#1=[#557+[#558-#557]*0.06464]
#2=[#564+[#565-#564]*0.06464]
#3=[#1+[#2-#1]*0.62749]
X7.94276 Y-2.99082 Z[#3+#4]
#1=[#557+[#558-#557]*0.07354]
#2=[#564+[#565-#564]*0.07354]
#3=[#1+[#2-#1]*0.62020]
X7.94000 Y-2.98776 Z[#3+#4]
#1=[#557+[#558-#557]*0.08390]
#2=[#564+[#565-#564]*0.08390]
#3=[#1+[#2-#1]*0.61475]
X7.93795 Y-2.98420 Z[#3+#4]
#1=[#557+[#558-#557]*0.09529]
#2=[#564+[#565-#564]*0.09529]
#3=[#1+[#2-#1]*0.61139]
X7.93668 Y-2.98028 Z[#3+#4]
#1=[#557+[#558-#557]*0.10719]
#2=[#564+[#565-#564]*0.10719]
#3=[#1+[#2-#1]*0.61025]
X7.93625 Y-2.97619 Z[#3+#4]
G04 P0 ( dwell for no time -- G64 should not smooth over this point )
G00 Z0.08000 ( retract )

G00 X8.31731 Y-2.64491 ( rapid move to begin. )
G01 F180.00000
#1=[#565+[#566-#565]*0.07063]
#2=[#572+[#573-#572]*0.07063]
#3=[#1+[#2-#1]*0.61881]
G01 Z[-0.04000+#111]
G04 P0 ( dwell for no time -- G64 should not smooth over this point )
G01 F360.00000
#1=[#565+[#566-#565]*0.08260]
#2=[#572+[#573-#572]*0.08260]
#3=[#1+[#2-#1]*0.61881]
X8.31731 Y-2.64080 Z[#3+#4]
#1=[#565+[#566-#565]*0.09430]
#2=[#572+[#573-#572]*0.09430]
#3=[#1+[#2-#1]*0.62107]
X8.31816 Y-2.63677 Z[#3+#4]
#1=[#565+[#566-#565]*0.10524]
#2=[#572+[#573-#572]*0.10524]
#3=[#1+[#2-#1]*0.62551]
X8.31983 Y-2.63301 Z[#3+#4]
#1=[#565+[#566-#565]*0.11492]
#2=[#572+[#573-#572]*0.11492]
#3=[#1+[#2-#1]*0.63191]
X8.32225 Y-2.62968 Z[#3+#4]
#1=[#565+[#566-#565]*0.12293]
#2=[#572+[#573-#572]*0.12293]
#3=[#1+[#2-#1]*0.64000]
X8.32531 Y-2.62693 Z[#3+#4]
#1=[#565+[#566-#565]*0.12891]
#2=[#572+[#573-#572]*0.12891]
#3=[#1+[#2-#1]*0.64943]
X8.32888 Y-2.62487 Z[#3+#4]
#1=[#565+[#566-#565]*0.13261]
#2=[#572+[#573-#572]*0.13261]
#3=[#1+[#2-#1]*0.65979]
X8.33279 Y-2.62360 Z[#3+#4]
#1=[#565+[#566-#565]*0.13386]
#2=[#572+[#573-#572]*0.13386]
#3=[#1+[#2-#1]*0.80758]
X8.38863 Y-2.62317 Z[#3+#4]
#1=[#565+[#566-#565]*0.56133]
#2=[#572+[#573-#572]*0.56133]
#3=[#1+[#2-#1]*0.80758]
X8.38863 Y-2.47619 Z[#3+#4]
#1=[#565+[#566-#565]*0.57323]
#2=[#572+[#573-#572]*0.57323]
#3=[#1+[#2-#1]*0.80872]
X8.38906 Y-2.47210 Z[#3+#4]
#1=[#565+[#566-#565]*0.58461]
#2=[#572+[#573-#572]*0.58461]
#3=[#1+[#2-#1]*0.81208]
X8.39033 Y-2.46818 Z[#3+#4]
#1=[#565+[#566-#565]*0.59498]
#2=[#572+[#573-#572]*0.59498]
#3=[#1+[#2-#1]*0.81753]
X8.39239 Y-2.46462 Z[#3+#4]
#1=[#565+[#566-#565]*0.60387]
#2=[#572+[#573-#572]*0.60387]
#3=[#1+[#2-#1]*0.82482]
X8.39514 Y-2.46156 Z[#3+#4]
#1=[#565+[#566-#565]*0.61091]
#2=[#572+[#573-#572]*0.61091]
#3=[#1+[#2-#1]*0.83363]
X8.39847 Y-2.45914 Z[#3+#4]
#1=[#565+[#566-#565]*0.61577]
#2=[#572+[#573-#572]*0.61577]
#3=[#1+[#2-#1]*0.84358]
X8.40223 Y-2.45747 Z[#3+#4]
#1=[#565+[#566-#565]*0.61826]
#2=[#572+[#573-#572]*0.61826]
#3=[#1+[#2-#1]*0.85423]
X8.40625 Y-2.45661 Z[#3+#4]
#1=[#565+[#566-#565]*0.61826]
#2=[#572+[#573-#572]*0.61826]
#3=[#1+[#2-#1]*0.86512]
X8.41037 Y-2.45661 Z[#3+#4]
#1=[#565+[#566-#565]*0.61577]
#2=[#572+[#573-#572]*0.61577]
#3=[#1+[#2-#1]*0.87578]
X8.41439 Y-2.45747 Z[#3+#4]
#1=[#565+[#566-#565]*0.61091]
#2=[#572+[#573-#572]*0.61091]
#3=[#1+[#2-#1]*0.88573]
X8.41815 Y-2.45914 Z[#3+#4]
#1=[#565+[#566-#565]*0.60387]
#2=[#572+[#573-#572]*0.60387]
#3=[#1+[#2-#1]*0.89454]
X8.42148 Y-2.46156 Z[#3+#4]
#1=[#565+[#566-#565]*0.59498]
#2=[#572+[#573-#572]*0.59498]
#3=[#1+[#2-#1]*0.90183]
X8.42424 Y-2.46462 Z[#3+#4]
#1=[#565+[#566-#565]*0.58461]
#2=[#572+[#573-#572]*0.58461]
#3=[#1+[#2-#1]*0.90728]
X8.42629 Y-2.46818 Z[#3+#4]
#1=[#565+[#566-#565]*0.57323]
#2=[#572+[#573-#572]*0.57323]
#3=[#1+[#2-#1]*0.91064]
X8.42757 Y-2.47210 Z[#3+#4]
#1=[#565+[#566-#565]*0.56133]
#2=[#572+[#573-#572]*0.56133]
#3=[#1+[#2-#1]*0.91178]
X8.42800 Y-2.47619 Z[#3+#4]
#1=[#565+[#566-#565]*0.13386]
#2=[#572+[#573-#572]*0.13386]
#3=[#1+[#2-#1]*0.91178]
X8.42800 Y-2.62317 Z[#3+#4]
#1=[#572+[#573-#572]*0.13386]
#2=[#579+[#580-#579]*0.13386]
#3=[#1+[#2-#1]*0.17476]
X8.52736 Y-2.62317 Z[#3+#4]
#1=[#572+[#573-#572]*0.13261]
#2=[#579+[#580-#579]*0.13261]
#3=[#1+[#2-#1]*0.18560]
X8.53145 Y-2.62360 Z[#3+#4]
#1=[#572+[#573-#572]*0.12891]
#2=[#579+[#580-#579]*0.12891]
#3=[#1+[#2-#1]*0.19596]
X8.53537 Y-2.62487 Z[#3+#4]
#1=[#572+[#573-#572]*0.12293]
#2=[#579+[#580-#579]*0.12293]
#3=[#1+[#2-#1]*0.20539]
X8.53893 Y-2.62693 Z[#3+#4]
#1=[#572+[#573-#572]*0.11492]
#2=[#579+[#580-#579]*0.11492]
#3=[#1+[#2-#1]*0.21348]
X8.54199 Y-2.62968 Z[#3+#4]
#1=[#572+[#573-#572]*0.10524]
#2=[#579+[#580-#579]*0.10524]
#3=[#1+[#2-#1]*0.21989]
X8.54441 Y-2.63301 Z[#3+#4]
#1=[#572+[#573-#572]*0.09430]
#2=[#579+[#580-#579]*0.09430]
#3=[#1+[#2-#1]*0.22432]
X8.54608 Y-2.63677 Z[#3+#4]
#1=[#572+[#573-#572]*0.08260]
#2=[#579+[#580-#579]*0.08260]
#3=[#1+[#2-#1]*0.22658]
X8.54694 Y-2.64080 Z[#3+#4]
#1=[#572+[#573-#572]*0.07063]
#2=[#579+[#580-#579]*0.07063]
#3=[#1+[#2-#1]*0.22658]
X8.54694 Y-2.64491 Z[#3+#4]
#1=[#572+[#573-#572]*0.05892]
#2=[#579+[#580-#579]*0.05892]
#3=[#1+[#2-#1]*0.22432]
X8.54608 Y-2.64894 Z[#3+#4]
#1=[#572+[#573-#572]*0.04799]
#2=[#579+[#580-#579]*0.04799]
#3=[#1+[#2-#1]*0.21989]
X8.54441 Y-2.65270 Z[#3+#4]
#1=[#572+[#573-#572]*0.03831]
#2=[#579+[#580-#579]*0.03831]
#3=[#1+[#2-#1]*0.21348]
X8.54199 Y-2.65603 Z[#3+#4]
#1=[#572+[#573-#572]*0.03030]
#2=[#579+[#580-#579]*0.03030]
#3=[#1+[#2-#1]*0.20539]
X8.53893 Y-2.65878 Z[#3+#4]
#1=[#572+[#573-#572]*0.02431]
#2=[#579+[#580-#579]*0.02431]
#3=[#1+[#2-#1]*0.19596]
X8.53537 Y-2.66084 Z[#3+#4]
#1=[#572+[#573-#572]*0.02061]
#2=[#579+[#580-#579]*0.02061]
#3=[#1+[#2-#1]*0.18560]
X8.53145 Y-2.66211 Z[#3+#4]
#1=[#572+[#573-#572]*0.01936]
#2=[#579+[#580-#579]*0.01936]
#3=[#1+[#2-#1]*0.17476]
X8.52736 Y-2.66254 Z[#3+#4]
#1=[#565+[#566-#565]*0.01936]
#2=[#572+[#573-#572]*0.01936]
#3=[#1+[#2-#1]*0.91178]
X8.42800 Y-2.66254 Z[#3+#4]
#1=[#564+[#565-#564]*0.32844]
#2=[#571+[#572-#571]*0.32844]
#3=[#1+[#2-#1]*0.91178]
X8.42800 Y-2.90011 Z[#3+#4]
#1=[#564+[#565-#564]*0.21911]
#2=[#571+[#572-#571]*0.21911]
#3=[#1+[#2-#1]*0.96153]
X8.44679 Y-2.93771 Z[#3+#4]
#1=[#571+[#572-#571]*0.16444]
#2=[#578+[#579-#578]*0.16444]
#3=[#1+[#2-#1]*0.06103]
X8.48439 Y-2.95650 Z[#3+#4]
#1=[#571+[#572-#571]*0.16444]
#2=[#578+[#579-#578]*0.16444]
#3=[#1+[#2-#1]*0.17476]
X8.52736 Y-2.95650 Z[#3+#4]
#1=[#571+[#572-#571]*0.16319]
#2=[#578+[#579-#578]*0.16319]
#3=[#1+[#2-#1]*0.18560]
X8.53145 Y-2.95694 Z[#3+#4]
#1=[#571+[#572-#571]*0.15949]
#2=[#578+[#579-#578]*0.15949]
#3=[#1+[#2-#1]*0.19596]
X8.53537 Y-2.95821 Z[#3+#4]
#1=[#571+[#572-#571]*0.15351]
#2=[#578+[#579-#578]*0.15351]
#3=[#1+[#2-#1]*0.20539]
X8.53893 Y-2.96026 Z[#3+#4]
#1=[#571+[#572-#571]*0.14550]
#2=[#578+[#579-#578]*0.14550]
#3=[#1+[#2-#1]*0.21348]
X8.54199 Y-2.96302 Z[#3+#4]
#1=[#571+[#572-#571]*0.13582]
#2=[#578+[#579-#578]*0.13582]
#3=[#1+[#2-#1]*0.21989]
X8.54441 Y-2.96635 Z[#3+#4]
#1=[#571+[#572-#571]*0.12488]
#2=[#578+[#579-#578]*0.12488]
#3=[#1+[#2-#1]*0.22432]
X8.54608 Y-2.97011 Z[#3+#4]
#1=[#571+[#572-#571]*0.11318]
#2=[#578+[#579-#578]*0.11318]
#3=[#1+[#2-#1]*0.22658]
X8.54694 Y-2.97413 Z[#3+#4]
#1=[#571+[#572-#571]*0.10120]
#2=[#578+[#579-#578]*0.10120]
#3=[#1+[#2-#1]*0.22658]
X8.54694 Y-2.97825 Z[#3+#4]
#1=[#571+[#572-#571]*0.08950]
#2=[#578+[#579-#578]*0.08950]
#3=[#1+[#2-#1]*0.22432]
X8.54608 Y-2.98227 Z[#3+#4]
#1=[#571+[#572-#571]*0.07857]
#2=[#578+[#579-#578]*0.07857]
#3=[#1+[#2-#1]*0.21989]
X8.54441 Y-2.98603 Z[#3+#4]
#1=[#571+[#572-#571]*0.06888]
#2=[#578+[#579-#578]*0.06888]
#3=[#1+[#2-#1]*0.21348]
X8.54199 Y-2.98936 Z[#3+#4]
#1=[#571+[#572-#571]*0.06087]
#2=[#578+[#579-#578]*0.06087]
#3=[#1+[#2-#1]*0.20539]
X8.53893 Y-2.99212 Z[#3+#4]
#1=[#571+[#572-#571]*0.05489]
#2=[#578+[#579-#578]*0.05489]
#3=[#1+[#2-#1]*0.19596]
X8.53537 Y-2.99417 Z[#3+#4]
#1=[#571+[#572-#571]*0.05119]
#2=[#578+[#579-#578]*0.05119]
#3=[#1+[#2-#1]*0.18560]
X8.53145 Y-2.99545 Z[#3+#4]
#1=[#571+[#572-#571]*0.04994]
#2=[#578+[#579-#578]*0.04994]
#3=[#1+[#2-#1]*0.17476]
X8.52736 Y-2.99587 Z[#3+#4]
#1=[#571+[#572-#571]*0.05062]
#2=[#578+[#579-#578]*0.05062]
#3=[#1+[#2-#1]*0.04071]
X8.47671 Y-2.99564 Z[#3+#4]
#1=[#571+[#572-#571]*0.05598]
#2=[#578+[#579-#578]*0.05598]
#3=[#1+[#2-#1]*0.02543]
X8.47094 Y-2.99380 Z[#3+#4]
#1=[#564+[#565-#564]*0.12523]
#2=[#571+[#572-#571]*0.12523]
#3=[#1+[#2-#1]*0.89940]
X8.42332 Y-2.96999 Z[#3+#4]
#1=[#564+[#565-#564]*0.12999]
#2=[#571+[#572-#571]*0.12999]
#3=[#1+[#2-#1]*0.89223]
X8.42061 Y-2.96835 Z[#3+#4]
#1=[#564+[#565-#564]*0.14296]
#2=[#571+[#572-#571]*0.14296]
#3=[#1+[#2-#1]*0.88043]
X8.41615 Y-2.96389 Z[#3+#4]
#1=[#564+[#565-#564]*0.28932]
#2=[#571+[#572-#571]*0.28932]
#3=[#1+[#2-#1]*0.81308]
X8.39070 Y-2.91357 Z[#3+#4]
#1=[#564+[#565-#564]*0.30611]
#2=[#571+[#572-#571]*0.30611]
#3=[#1+[#2-#1]*0.80820]
X8.38886 Y-2.90779 Z[#3+#4]
#1=[#565+[#566-#565]*0.01936]
#2=[#572+[#573-#572]*0.01936]
#3=[#1+[#2-#1]*0.80758]
X8.38863 Y-2.66254 Z[#3+#4]
#1=[#565+[#566-#565]*0.02061]
#2=[#572+[#573-#572]*0.02061]
#3=[#1+[#2-#1]*0.65979]
X8.33279 Y-2.66211 Z[#3+#4]
#1=[#565+[#566-#565]*0.02431]
#2=[#572+[#573-#572]*0.02431]
#3=[#1+[#2-#1]*0.64943]
X8.32888 Y-2.66084 Z[#3+#4]
#1=[#565+[#566-#565]*0.03030]
#2=[#572+[#573-#572]*0.03030]
#3=[#1+[#2-#1]*0.64000]
X8.32531 Y-2.65878 Z[#3+#4]
#1=[#565+[#566-#565]*0.03831]
#2=[#572+[#573-#572]*0.03831]
#3=[#1+[#2-#1]*0.63191]
X8.32225 Y-2.65603 Z[#3+#4]
#1=[#565+[#566-#565]*0.04799]
#2=[#572+[#573-#572]*0.04799]
#3=[#1+[#2-#1]*0.62551]
X8.31983 Y-2.65270 Z[#3+#4]
#1=[#565+[#566-#565]*0.05892]
#2=[#572+[#573-#572]*0.05892]
#3=[#1+[#2-#1]*0.62107]
X8.31816 Y-2.64894 Z[#3+#4]
#1=[#565+[#566-#565]*0.07063]
#2=[#572+[#573-#572]*0.07063]
#3=[#1+[#2-#1]*0.61881]
X8.31731 Y-2.64491 Z[#3+#4]
G04 P0 ( dwell for no time -- G64 should not smooth over this point )
G00 Z0.08000 ( retract )

G00 X8.55580 Y-3.30051 ( rapid move to begin. )
G01 F180.00000
#1=[#570+[#571-#570]*0.16397]
#2=[#577+[#578-#577]*0.16397]
#3=[#1+[#2-#1]*0.25004]
G01 Z[-0.04000+#111]
G04 P0 ( dwell for no time -- G64 should not smooth over this point )
G01 F360.00000
#1=[#570+[#571-#570]*0.16989]
#2=[#577+[#578-#577]*0.16989]
#3=[#1+[#2-#1]*0.25060]
X8.55601 Y-3.29848 Z[#3+#4]
#1=[#570+[#571-#570]*0.17504]
#2=[#577+[#578-#577]*0.17504]
#3=[#1+[#2-#1]*0.25331]
X8.55703 Y-3.29671 Z[#3+#4]
#1=[#570+[#571-#570]*0.17946]
#2=[#577+[#578-#577]*0.17946]
#3=[#1+[#2-#1]*0.26028]
X8.55967 Y-3.29519 Z[#3+#4]
#1=[#570+[#571-#570]*0.17978]
#2=[#577+[#578-#577]*0.17978]
#3=[#1+[#2-#1]*0.38230]
X8.60577 Y-3.29508 Z[#3+#4]
#1=[#570+[#571-#570]*0.31088]
#2=[#577+[#578-#577]*0.31088]
#3=[#1+[#2-#1]*0.38230]
X8.60577 Y-3.25000 Z[#3+#4]
#1=[#570+[#571-#570]*0.31929]
#2=[#577+[#578-#577]*0.31929]
#3=[#1+[#2-#1]*0.38479]
X8.60671 Y-3.24711 Z[#3+#4]
#1=[#570+[#571-#570]*0.32327]
#2=[#577+[#578-#577]*0.32327]
#3=[#1+[#2-#1]*0.38881]
X8.60823 Y-3.24574 Z[#3+#4]
#1=[#570+[#571-#570]*0.32511]
#2=[#577+[#578-#577]*0.32511]
#3=[#1+[#2-#1]*0.39396]
X8.61018 Y-3.24511 Z[#3+#4]
#1=[#570+[#571-#570]*0.32449]
#2=[#577+[#578-#577]*0.32449]
#3=[#1+[#2-#1]*0.39935]
X8.61221 Y-3.24532 Z[#3+#4]
#1=[#570+[#571-#570]*0.32152]
#2=[#577+[#578-#577]*0.32152]
#3=[#1+[#2-#1]*0.40404]
X8.61398 Y-3.24634 Z[#3+#4]
#1=[#570+[#571-#570]*0.31385]
#2=[#577+[#578-#577]*0.31385]
#3=[#1+[#2-#1]*0.40807]
X8.61551 Y-3.24898 Z[#3+#4]
#1=[#570+[#571-#570]*0.17978]
#2=[#577+[#578-#577]*0.17978]
#3=[#1+[#2-#1]*0.40835]
X8.61561 Y-3.29508 Z[#3+#4]
#1=[#570+[#571-#570]*0.17978]
#2=[#577+[#578-#577]*0.17978]
#3=[#1+[#2-#1]*0.52766]
X8.66069 Y-3.29508 Z[#3+#4]
#1=[#570+[#571-#570]*0.17704]
#2=[#577+[#578-#577]*0.17704]
#3=[#1+[#2-#1]*0.53532]
X8.66358 Y-3.29602 Z[#3+#4]
#1=[#570+[#571-#570]*0.17262]
#2=[#577+[#578-#577]*0.17262]
#3=[#1+[#2-#1]*0.53894]
X8.66495 Y-3.29754 Z[#3+#4]
#1=[#570+[#571-#570]*0.16696]
#2=[#577+[#578-#577]*0.16696]
#3=[#1+[#2-#1]*0.54062]
X8.66559 Y-3.29948 Z[#3+#4]
#1=[#570+[#571-#570]*0.16104]
#2=[#577+[#578-#577]*0.16104]
#3=[#1+[#2-#1]*0.54005]
X8.66537 Y-3.30152 Z[#3+#4]
#1=[#570+[#571-#570]*0.15589]
#2=[#577+[#578-#577]*0.15589]
#3=[#1+[#2-#1]*0.53734]
X8.66435 Y-3.30329 Z[#3+#4]
#1=[#570+[#571-#570]*0.15147]
#2=[#577+[#578-#577]*0.15147]
#3=[#1+[#2-#1]*0.53037]
X8.66172 Y-3.30481 Z[#3+#4]
#1=[#570+[#571-#570]*0.15115]
#2=[#577+[#578-#577]*0.15115]
#3=[#1+[#2-#1]*0.40835]
X8.61561 Y-3.30492 Z[#3+#4]
#1=[#570+[#571-#570]*0.02005]
#2=[#577+[#578-#577]*0.02005]
#3=[#1+[#2-#1]*0.40835]
X8.61561 Y-3.35000 Z[#3+#4]
#1=[#570+[#571-#570]*0.01164]
#2=[#577+[#578-#577]*0.01164]
#3=[#1+[#2-#1]*0.40586]
X8.61467 Y-3.35289 Z[#3+#4]
#1=[#570+[#571-#570]*0.00766]
#2=[#577+[#578-#577]*0.00766]
#3=[#1+[#2-#1]*0.40184]
X8.61315 Y-3.35426 Z[#3+#4]
#1=[#570+[#571-#570]*0.00582]
#2=[#577+[#578-#577]*0.00582]
#3=[#1+[#2-#1]*0.39669]
X8.61121 Y-3.35489 Z[#3+#4]
#1=[#570+[#571-#570]*0.00644]
#2=[#577+[#578-#577]*0.00644]
#3=[#1+[#2-#1]*0.39130]
X8.60917 Y-3.35468 Z[#3+#4]
#1=[#570+[#571-#570]*0.00941]
#2=[#577+[#578-#577]*0.00941]
#3=[#1+[#2-#1]*0.38661]
X8.60740 Y-3.35366 Z[#3+#4]
#1=[#570+[#571-#570]*0.01707]
#2=[#577+[#578-#577]*0.01707]
#3=[#1+[#2-#1]*0.38259]
X8.60588 Y-3.35102 Z[#3+#4]
#1=[#570+[#571-#570]*0.15115]
#2=[#577+[#578-#577]*0.15115]
#3=[#1+[#2-#1]*0.38230]
X8.60577 Y-3.30492 Z[#3+#4]
#1=[#570+[#571-#570]*0.15115]
#2=[#577+[#578-#577]*0.15115]
#3=[#1+[#2-#1]*0.26299]
X8.56069 Y-3.30492 Z[#3+#4]
#1=[#570+[#571-#570]*0.15389]
#2=[#577+[#578-#577]*0.15389]
#3=[#1+[#2-#1]*0.25533]
X8.55780 Y-3.30398 Z[#3+#4]
#1=[#570+[#571-#570]*0.15831]
#2=[#577+[#578-#577]*0.15831]
#3=[#1+[#2-#1]*0.25171]
X8.55643 Y-3.30246 Z[#3+#4]
#1=[#570+[#571-#570]*0.16397]
#2=[#577+[#578-#577]*0.16397]
#3=[#1+[#2-#1]*0.25004]
X8.55580 Y-3.30051 Z[#3+#4]
( Piece #3, position [2;0] )

G04 P0 ( dwell for no time -- G64 should not smooth over this point )
G00 Z0.08000 ( retract )

G00 X8.80646 Y-2.97619 ( rapid move to begin. )
G01 F180.00000
#1=[#571+[#572-#571]*0.10719]
#2=[#578+[#579-#578]*0.10719]
#3=[#1+[#2-#1]*0.91347]
G01 Z[-0.04000+#111]
G04 P0 ( dwell for no time -- G64 should not smooth over this point )
G01 F360.00000
#1=[#571+[#572-#571]*0.83426]
#2=[#578+[#579-#578]*0.83426]
#3=[#1+[#2-#1]*0.91347]
X8.80646 Y-2.72619 Z[#3+#4]
#1=[#572+[#573-#572]*0.56133]
#2=[#579+[#580-#579]*0.56133]
#3=[#1+[#2-#1]*0.91347]
X8.80646 Y-2.47619 Z[#3+#4]
#1=[#572+[#573-#572]*0.58323]
#2=[#579+[#580-#579]*0.58323]
#3=[#1+[#2-#1]*0.91744]
X8.80796 Y-2.46866 Z[#3+#4]
#1=[#572+[#573-#572]*0.59313]
#2=[#579+[#580-#579]*0.59313]
#3=[#1+[#2-#1]*0.92226]
X8.80978 Y-2.46525 Z[#3+#4]
#1=[#572+[#573-#572]*0.60893]
#2=[#579+[#580-#579]*0.60893]
#3=[#1+[#2-#1]*0.93663]
X8.81521 Y-2.45982 Z[#3+#4]
#1=[#572+[#573-#572]*0.61422]
#2=[#579+[#580-#579]*0.61422]
#3=[#1+[#2-#1]*0.94564]
X8.81861 Y-2.45800 Z[#3+#4]
#1=[#572+[#573-#572]*0.61857]
#2=[#579+[#580-#579]*0.61857]
#3=[#1+[#2-#1]*0.96557]
X8.82615 Y-2.45650 Z[#3+#4]
#1=[#579+[#580-#579]*0.61857]
#2=[#586+[#587-#586]*0.61857]
#3=[#1+[#2-#1]*0.59575]
X9.06424 Y-2.45650 Z[#3+#4]
#1=[#579+[#580-#579]*0.61732]
#2=[#586+[#587-#586]*0.61732]
#3=[#1+[#2-#1]*0.60658]
X9.06833 Y-2.45694 Z[#3+#4]
#1=[#579+[#580-#579]*0.61362]
#2=[#586+[#587-#586]*0.61362]
#3=[#1+[#2-#1]*0.61694]
X9.07225 Y-2.45821 Z[#3+#4]
#1=[#579+[#580-#579]*0.60764]
#2=[#586+[#587-#586]*0.60764]
#3=[#1+[#2-#1]*0.62637]
X9.07581 Y-2.46026 Z[#3+#4]
#1=[#579+[#580-#579]*0.59963]
#2=[#586+[#587-#586]*0.59963]
#3=[#1+[#2-#1]*0.63447]
X9.07887 Y-2.46302 Z[#3+#4]
#1=[#579+[#580-#579]*0.58995]
#2=[#586+[#587-#586]*0.58995]
#3=[#1+[#2-#1]*0.64087]
X9.08129 Y-2.46635 Z[#3+#4]
#1=[#579+[#580-#579]*0.57902]
#2=[#586+[#587-#586]*0.57902]
#3=[#1+[#2-#1]*0.64530]
X9.08296 Y-2.47011 Z[#3+#4]
#1=[#579+[#580-#579]*0.56731]
#2=[#586+[#587-#586]*0.56731]
#3=[#1+[#2-#1]*0.64756]
X9.08382 Y-2.47413 Z[#3+#4]
#1=[#579+[#580-#579]*0.55534]
#2=[#586+[#587-#586]*0.55534]
#3=[#1+[#2-#1]*0.64756]
X9.08382 Y-2.47825 Z[#3+#4]
#1=[#579+[#580-#579]*0.54363]
#2=[#586+[#587-#586]*0.54363]
#3=[#1+[#2-#1]*0.64530]
X9.08296 Y-2.48227 Z[#3+#4]
#1=[#579+[#580-#579]*0.53270]
#2=[#586+[#587-#586]*0.53270]
#3=[#1+[#2-#1]*0.64087]
X9.08129 Y-2.48603 Z[#3+#4]
#1=[#579+[#580-#579]*0.52302]
#2=[#586+[#587-#586]*0.52302]
#3=[#1+[#2-#1]*0.63447]
X9.07887 Y-2.48936 Z[#3+#4]
#1=[#579+[#580-#579]*0.51501]
#2=[#586+[#587-#586]*0.51501]
#3=[#1+[#2-#1]*0.62637]
X9.07581 Y-2.49212 Z[#3+#4]
#1=[#579+[#580-#579]*0.50903]
#2=[#586+[#587-#586]*0.50903]
#3=[#1+[#2-#1]*0.61694]
X9.07225 Y-2.49417 Z[#3+#4]
#1=[#579+[#580-#579]*0.50533]
#2=[#586+[#587-#586]*0.50533]
#3=[#1+[#2-#1]*0.60658]
X9.06833 Y-2.49545 Z[#3+#4]
#1=[#579+[#580-#579]*0.50408]
#2=[#586+[#587-#586]*0.50408]
#3=[#1+[#2-#1]*0.59575]
X9.06424 Y-2.49587 Z[#3+#4]
#1=[#579+[#580-#579]*0.50408]
#2=[#586+[#587-#586]*0.50408]
#3=[#1+[#2-#1]*0.01768]
X8.84583 Y-2.49587 Z[#3+#4]
#1=[#578+[#579-#578]*0.92613]
#2=[#585+[#586-#585]*0.92613]
#3=[#1+[#2-#1]*0.01768]
X8.84583 Y-2.69460 Z[#3+#4]
#1=[#578+[#579-#578]*0.92613]
#2=[#585+[#586-#585]*0.92613]
#3=[#1+[#2-#1]*0.40670]
X8.99281 Y-2.69460 Z[#3+#4]
#1=[#578+[#579-#578]*0.92488]
#2=[#585+[#586-#585]*0.92488]
#3=[#1+[#2-#1]*0.41753]
X8.99691 Y-2.69503 Z[#3+#4]
#1=[#578+[#579-#578]*0.92118]
#2=[#585+[#586-#585]*0.92118]
#3=[#1+[#2-#1]*0.42789]
X9.00082 Y-2.69630 Z[#3+#4]
#1=[#578+[#579-#578]*0.91519]
#2=[#585+[#586-#585]*0.91519]
#3=[#1+[#2-#1]*0.43732]
X9.00438 Y-2.69836 Z[#3+#4]
#1=[#578+[#579-#578]*0.90719]
#2=[#585+[#586-#585]*0.90719]
#3=[#1+[#2-#1]*0.44542]
X9.00744 Y-2.70111 Z[#3+#4]
#1=[#578+[#579-#578]*0.89750]
#2=[#585+[#586-#585]*0.89750]
#3=[#1+[#2-#1]*0.45182]
X9.00986 Y-2.70444 Z[#3+#4]
#1=[#578+[#579-#578]*0.88657]
#2=[#585+[#586-#585]*0.88657]
#3=[#1+[#2-#1]*0.45625]
X9.01154 Y-2.70820 Z[#3+#4]
#1=[#578+[#579-#578]*0.87486]
#2=[#585+[#586-#585]*0.87486]
#3=[#1+[#2-#1]*0.45851]
X9.01239 Y-2.71223 Z[#3+#4]
#1=[#578+[#579-#578]*0.86290]
#2=[#585+[#586-#585]*0.86290]
#3=[#1+[#2-#1]*0.45851]
X9.01239 Y-2.71634 Z[#3+#4]
#1=[#578+[#579-#578]*0.85119]
#2=[#585+[#586-#585]*0.85119]
#3=[#1+[#2-#1]*0.45625]
X9.01154 Y-2.72037 Z[#3+#4]
#1=[#578+[#579-#578]*0.84025]
#2=[#585+[#586-#585]*0.84025]
#3=[#1+[#2-#1]*0.45182]
X9.00986 Y-2.72413 Z[#3+#4]
#1=[#578+[#579-#578]*0.83057]
#2=[#585+[#586-#585]*0.83057]
#3=[#1+[#2-#1]*0.44542]
X9.00744 Y-2.72746 Z[#3+#4]
#1=[#578+[#579-#578]*0.82256]
#2=[#585+[#586-#585]*0.82256]
#3=[#1+[#2-#1]*0.43732]
X9.00438 Y-2.73021 Z[#3+#4]
#1=[#578+[#579-#578]*0.81658]
#2=[#585+[#586-#585]*0.81658]
#3=[#1+[#2-#1]*0.42789]
X9.00082 Y-2.73227 Z[#3+#4]
#1=[#578+[#579-#578]*0.81288]
#2=[#585+[#586-#585]*0.81288]
#3=[#1+[#2-#1]*0.41753]
X8.99691 Y-2.73354 Z[#3+#4]
#1=[#578+[#579-#578]*0.81163]
#2=[#585+[#586-#585]*0.81163]
#3=[#1+[#2-#1]*0.40670]
X8.99281 Y-2.73397 Z[#3+#4]
#1=[#578+[#579-#578]*0.81163]
#2=[#585+[#586-#585]*0.81163]
#3=[#1+[#2-#1]*0.01768]
X8.84583 Y-2.73397 Z[#3+#4]
#1=[#578+[#579-#578]*0.10719]
#2=[#585+[#586-#585]*0.10719]
#3=[#1+[#2-#1]*0.01768]
X8.84583 Y-2.97619 Z[#3+#4]
#1=[#578+[#579-#578]*0.09529]
#2=[#585+[#586-#585]*0.09529]
#3=[#1+[#2-#1]*0.01654]
X8.84540 Y-2.98028 Z[#3+#4]
#1=[#578+[#579-#578]*0.08390]
#2=[#585+[#586-#585]*0.08390]
#3=[#1+[#2-#1]*0.01317]
X8.84413 Y-2.98420 Z[#3+#4]
#1=[#578+[#579-#578]*0.07354]
#2=[#585+[#586-#585]*0.07354]
#3=[#1+[#2-#1]*0.00773]
X8.84207 Y-2.98776 Z[#3+#4]
#1=[#578+[#579-#578]*0.06464]
#2=[#585+[#586-#585]*0.06464]
#3=[#1+[#2-#1]*0.00044]
X8.83932 Y-2.99082 Z[#3+#4]
#1=[#571+[#572-#571]*0.05761]
#2=[#578+[#579-#578]*0.05761]
#3=[#1+[#2-#1]*0.99163]
X8.83599 Y-2.99324 Z[#3+#4]
#1=[#571+[#572-#571]*0.05274]
#2=[#578+[#579-#578]*0.05274]
#3=[#1+[#2-#1]*0.98167]
X8.83223 Y-2.99491 Z[#3+#4]
#1=[#571+[#572-#571]*0.05025]
#2=[#578+[#579-#578]*0.05025]
#3=[#1+[#2-#1]*0.97102]
X8.82820 Y-2.99577 Z[#3+#4]
#1=[#571+[#572-#571]*0.05025]
#2=[#578+[#579-#578]*0.05025]
#3=[#1+[#2-#1]*0.96013]
X8.82409 Y-2.99577 Z[#3+#4]
#1=[#571+[#572-#571]*0.05274]
#2=[#578+[#579-#578]*0.05274]
#3=[#1+[#2-#1]*0.94947]
X8.82006 Y-2.99491 Z[#3+#4]
#1=[#571+[#572-#571]*0.05761]
#2=[#578+[#579-#578]*0.05761]
#3=[#1+[#2-#1]*0.93953]
X8.81630 Y-2.99324 Z[#3+#4]
#1=[#571+[#572-#571]*0.06464]
#2=[#578+[#579-#578]*0.06464]
#3=[#1+[#2-#1]*0.93071]
X8.81298 Y-2.99082 Z[#3+#4]
#1=[#571+[#572-#571]*0.07354]
#2=[#578+[#579-#578]*0.07354]
#3=[#1+[#2-#1]*0.92343]
X8.81022 Y-2.98776 Z[#3+#4]
#1=[#571+[#572-#571]*0.08390]
#2=[#578+[#579-#578]*0.08390]
#3=[#1+[#2-#1]*0.91798]
X8.80816 Y-2.98420 Z[#3+#4]
#1=[#571+[#572-#571]*0.09529]
#2=[#578+[#579-#578]*0.09529]
#3=[#1+[#2-#1]*0.91461]
X8.80689 Y-2.98028 Z[#3+#4]
#1=[#571+[#572-#571]*0.10719]
#2=[#578+[#579-#578]*0.10719]
#3=[#1+[#2-#1]*0.91347]
X8.80646 Y-2.97619 Z[#3+#4]
G04 P0 ( dwell for no time -- G64 should not smooth over this point )
G00 Z0.08000 ( retract )

G00 X9.23503 Y-2.97619 ( rapid move to begin. )
G01 F180.00000
#1=[#585+[#586-#585]*0.10719]
#2=[#592+[#593-#592]*0.10719]
#3=[#1+[#2-#1]*0.04779]
G01 Z[-0.04000+#111]
G04 P0 ( dwell for no time -- G64 should not smooth over this point )
G01 F360.00000
#1=[#586+[#587-#586]*0.07661]
#2=[#593+[#594-#593]*0.07661]
#3=[#1+[#2-#1]*0.04779]
X9.23503 Y-2.64286 Z[#3+#4]
#1=[#586+[#587-#586]*0.08852]
#2=[#593+[#594-#593]*0.08852]
#3=[#1+[#2-#1]*0.04892]
X9.23546 Y-2.63876 Z[#3+#4]
#1=[#586+[#587-#586]*0.09990]
#2=[#593+[#594-#593]*0.09990]
#3=[#1+[#2-#1]*0.05229]
X9.23674 Y-2.63485 Z[#3+#4]
#1=[#586+[#587-#586]*0.11026]
#2=[#593+[#594-#593]*0.11026]
#3=[#1+[#2-#1]*0.05774]
X9.23879 Y-2.63129 Z[#3+#4]
#1=[#586+[#587-#586]*0.11916]
#2=[#593+[#594-#593]*0.11916]
#3=[#1+[#2-#1]*0.06502]
X9.24155 Y-2.62823 Z[#3+#4]
#1=[#586+[#587-#586]*0.12619]
#2=[#593+[#594-#593]*0.12619]
#3=[#1+[#2-#1]*0.07384]
X9.24488 Y-2.62581 Z[#3+#4]
#1=[#586+[#587-#586]*0.13106]
#2=[#593+[#594-#593]*0.13106]
#3=[#1+[#2-#1]*0.08379]
X9.24864 Y-2.62413 Z[#3+#4]
#1=[#586+[#587-#586]*0.13355]
#2=[#593+[#594-#593]*0.13355]
#3=[#1+[#2-#1]*0.09444]
X9.25266 Y-2.62328 Z[#3+#4]
#1=[#586+[#587-#586]*0.13355]
#2=[#593+[#594-#593]*0.13355]
#3=[#1+[#2-#1]*0.10533]
X9.25678 Y-2.62328 Z[#3+#4]
#1=[#586+[#587-#586]*0.13106]
#2=[#593+[#594-#593]*0.13106]
#3=[#1+[#2-#1]*0.11599]
X9.26080 Y-2.62413 Z[#3+#4]
#1=[#586+[#587-#586]*0.12619]
#2=[#593+[#594-#593]*0.12619]
#3=[#1+[#2-#1]*0.12594]
X9.26456 Y-2.62581 Z[#3+#4]
#1=[#586+[#587-#586]*0.11916]
#2=[#593+[#594-#593]*0.11916]
#3=[#1+[#2-#1]*0.13475]
X9.26789 Y-2.62823 Z[#3+#4]
#1=[#586+[#587-#586]*0.11026]
#2=[#593+[#594-#593]*0.11026]
#3=[#1+[#2-#1]*0.14204]
X9.27064 Y-2.63129 Z[#3+#4]
#1=[#586+[#587-#586]*0.09990]
#2=[#593+[#594-#593]*0.09990]
#3=[#1+[#2-#1]*0.14748]
X9.27270 Y-2.63485 Z[#3+#4]
#1=[#586+[#587-#586]*0.08852]
#2=[#593+[#594-#593]*0.08852]
#3=[#1+[#2-#1]*0.15085]
X9.27397 Y-2.63876 Z[#3+#4]
#1=[#586+[#587-#586]*0.00709]
#2=[#593+[#594-#593]*0.00709]
#3=[#1+[#2-#1]*0.15199]
X9.27440 Y-2.66676 Z[#3+#4]
#1=[#586+[#587-#586]*0.05381]
#2=[#593+[#594-#593]*0.05381]
#3=[#1+[#2-#1]*0.19546]
X9.29083 Y-2.65070 Z[#3+#4]
#1=[#586+[#587-#586]*0.13115]
#2=[#593+[#594-#593]*0.13115]
#3=[#1+[#2-#1]*0.33611]
X9.34397 Y-2.62410 Z[#3+#4]
#1=[#586+[#587-#586]*0.13386]
#2=[#593+[#594-#593]*0.13386]
#3=[#1+[#2-#1]*0.35196]
X9.34996 Y-2.62317 Z[#3+#4]
#1=[#586+[#587-#586]*0.13386]
#2=[#593+[#594-#593]*0.13386]
#3=[#1+[#2-#1]*0.47799]
X9.39758 Y-2.62317 Z[#3+#4]
#1=[#586+[#587-#586]*0.13261]
#2=[#593+[#594-#593]*0.13261]
#3=[#1+[#2-#1]*0.48882]
X9.40167 Y-2.62360 Z[#3+#4]
#1=[#586+[#587-#586]*0.12891]
#2=[#593+[#594-#593]*0.12891]
#3=[#1+[#2-#1]*0.49918]
X9.40558 Y-2.62487 Z[#3+#4]
#1=[#586+[#587-#586]*0.12293]
#2=[#593+[#594-#593]*0.12293]
#3=[#1+[#2-#1]*0.50862]
X9.40915 Y-2.62693 Z[#3+#4]
#1=[#586+[#587-#586]*0.11492]
#2=[#593+[#594-#593]*0.11492]
#3=[#1+[#2-#1]*0.51671]
X9.41220 Y-2.62968 Z[#3+#4]
#1=[#586+[#587-#586]*0.10524]
#2=[#593+[#594-#593]*0.10524]
#3=[#1+[#2-#1]*0.52311]
X9.41462 Y-2.63301 Z[#3+#4]
#1=[#586+[#587-#586]*0.09430]
#2=[#593+[#594-#593]*0.09430]
#3=[#1+[#2-#1]*0.52754]
X9.41630 Y-2.63677 Z[#3+#4]
#1=[#586+[#587-#586]*0.08260]
#2=[#593+[#594-#593]*0.08260]
#3=[#1+[#2-#1]*0.52981]
X9.41715 Y-2.64080 Z[#3+#4]
#1=[#586+[#587-#586]*0.07063]
#2=[#593+[#594-#593]*0.07063]
#3=[#1+[#2-#1]*0.52981]
X9.41715 Y-2.64491 Z[#3+#4]
#1=[#586+[#587-#586]*0.05892]
#2=[#593+[#594-#593]*0.05892]
#3=[#1+[#2-#1]*0.52754]
X9.41630 Y-2.64894 Z[#3+#4]
#1=[#586+[#587-#586]*0.04799]
#2=[#593+[#594-#593]*0.04799]
#3=[#1+[#2-#1]*0.52311]
X9.41462 Y-2.65270 Z[#3+#4]
#1=[#586+[#587-#586]*0.03831]
#2=[#593+[#594-#593]*0.03831]
#3=[#1+[#2-#1]*0.51671]
X9.41220 Y-2.65603 Z[#3+#4]
#1=[#586+[#587-#586]*0.03030]
#2=[#593+[#594-#593]*0.03030]
#3=[#1+[#2-#1]*0.50862]
X9.40915 Y-2.65878 Z[#3+#4]
#1=[#586+[#587-#586]*0.02431]
#2=[#593+[#594-#593]*0.02431]
#3=[#1+[#2-#1]*0.49918]
X9.40558 Y-2.66084 Z[#3+#4]
#1=[#586+[#587-#586]*0.02061]
#2=[#593+[#594-#593]*0.02061]
#3=[#1+[#2-#1]*0.48882]
X9.40167 Y-2.66211 Z[#3+#4]
#1=[#586+[#587-#586]*0.01936]
#2=[#593+[#594-#593]*0.01936]
#3=[#1+[#2-#1]*0.47799]
X9.39758 Y-2.66254 Z[#3+#4]
#1=[#586+[#587-#586]*0.01936]
#2=[#593+[#594-#593]*0.01936]
#3=[#1+[#2-#1]*0.36426]
X9.35460 Y-2.66254 Z[#3+#4]
#1=[#585+[#586-#585]*0.96032]
#2=[#592+[#593-#592]*0.96032]
#3=[#1+[#2-#1]*0.25679]
X9.31400 Y-2.68284 Z[#3+#4]
#1=[#585+[#586-#585]*0.90421]
#2=[#592+[#593-#592]*0.90421]
#3=[#1+[#2-#1]*0.20572]
X9.29471 Y-2.70214 Z[#3+#4]
#1=[#585+[#586-#585]*0.78612]
#2=[#592+[#593-#592]*0.78612]
#3=[#1+[#2-#1]*0.15199]
X9.27440 Y-2.74274 Z[#3+#4]
#1=[#585+[#586-#585]*0.10719]
#2=[#592+[#593-#592]*0.10719]
#3=[#1+[#2-#1]*0.15199]
X9.27440 Y-2.97619 Z[#3+#4]
#1=[#585+[#586-#585]*0.09529]
#2=[#592+[#593-#592]*0.09529]
#3=[#1+[#2-#1]*0.15085]
X9.27397 Y-2.98028 Z[#3+#4]
#1=[#585+[#586-#585]*0.08390]
#2=[#592+[#593-#592]*0.08390]
#3=[#1+[#2-#1]*0.14748]
X9.27270 Y-2.98420 Z[#3+#4]
#1=[#585+[#586-#585]*0.07354]
#2=[#592+[#593-#592]*0.07354]
#3=[#1+[#2-#1]*0.14204]
X9.27064 Y-2.98776 Z[#3+#4]
#1=[#585+[#586-#585]*0.06464]
#2=[#592+[#593-#592]*0.06464]
#3=[#1+[#2-#1]*0.13475]
X9.26789 Y-2.99082 Z[#3+#4]
#1=[#585+[#586-#585]*0.05761]
#2=[#592+[#593-#592]*0.05761]
#3=[#1+[#2-#1]*0.12594]
X9.26456 Y-2.99324 Z[#3+#4]
#1=[#585+[#586-#585]*0.05274]
#2=[#592+[#593-#592]*0.05274]
#3=[#1+[#2-#1]*0.11599]
X9.26080 Y-2.99491 Z[#3+#4]
#1=[#585+[#586-#585]*0.05025]
#2=[#592+[#593-#592]*0.05025]
#3=[#1+[#2-#1]*0.10533]
X9.25678 Y-2.99577 Z[#3+#4]
#1=[#585+[#586-#585]*0.05025]
#2=[#592+[#593-#592]*0.05025]
#3=[#1+[#2-#1]*0.09444]
X9.25266 Y-2.99577 Z[#3+#4]
#1=[#585+[#586-#585]*0.05274]
#2=[#592+[#593-#592]*0.05274]
#3=[#1+[#2-#1]*0.08379]
X9.24864 Y-2.99491 Z[#3+#4]
#1=[#585+[#586-#585]*0.05761]
#2=[#592+[#593-#592]*0.05761]
#3=[#1+[#2-#1]*0.07384]
X9.24488 Y-2.99324 Z[#3+#4]
#1=[#585+[#586-#585]*0.06464]
#2=[#592+[#593-#592]*0.06464]
#3=[#1+[#2-#1]*0.06502]
X9.24155 Y-2.99082 Z[#3+#4]
#1=[#585+[#586-#585]*0.07354]
#2=[#592+[#593-#592]*0.07354]
#3=[#1+[#2-#1]*0.05774]
X9.23879 Y-2.98776 Z[#3+#4]
#1=[#585+[#586-#585]*0.08390]
#2=[#592+[#593-#592]*0.08390]
#3=[#1+[#2-#1]*0.05229]
X9.23674 Y-2.98420 Z[#3+#4]
#1=[#585+[#586-#585]*0.09529]
#2=[#592+[#593-#592]*0.09529]
#3=[#1+[#2-#1]*0.04892]
X9.23546 Y-2.98028 Z[#3+#4]
#1=[#585+[#586-#585]*0.10719]
#2=[#592+[#593-#592]*0.10719]
#3=[#1+[#2-#1]*0.04779]
X9.23503 Y-2.97619 Z[#3+#4]
G04 P0 ( dwell for no time -- G64 should not smooth over this point )
G00 Z0.08000 ( retract )

G00 X9.52075 Y-2.88095 ( rapid move to begin. )
