( pcb2gcode 2.5.0 )
( Gcode for custom )

G94 ( Inches per minute feed rate. )
G20 ( Units == INCHES. )

G90 ( Absolute coordinates. )
G00 S12000 ( RPM spindle speed. )
G64 P0.00040 ( set maximum deviation from commanded toolpath )
G01 F360.00000 ( Feedrate. )

#118 = 0
#119 = 0

(MSG, Attach the probe tool)
M0 ( Temporary machine stop. )
G0 Z0.080 ( Move Z to safe height )
G0 X4.68509 Y-3.35490 ( Move XY to start point )
G0 Z0.080 ( Move Z to probe height )
G38.2 Z-0.1 F2.362205 ( Z-probe )
#500 = 0 ( Probe point [0, 0] is our reference )
G92 Z0 ( Set the current Z as zero-value )

( We now start the real probing: move the Z axis to the probing height, move to )
( the probing XY position, probe it and save the result, parameter #2002, )
( in a numbered parameter; we will make 6 probes on the X-axis and )
( 4 probes on the Y-axis, for a grand total of 24 probes )

G0 Z0.080
X4.68509 Y-3.05544
G38.2 Z-0.1 F2.362205
#501=#2002
G0 Z0.080
X4.68509 Y-2.75597
G38.2 Z-0.1 F2.362205
#502=#2002
G0 Z0.080
X4.68509 Y-2.45650
G38.2 Z-0.1 F2.362205
#503=#2002
G0 Z0.080
X5.06905 Y-2.45650
G38.2 Z-0.1 F2.362205
#507=#2002
G0 Z0.080
X5.06905 Y-2.75597
G38.2 Z-0.1 F2.362205
#506=#2002
G0 Z0.080
X5.06905 Y-3.05544
G38.2 Z-0.1 F2.362205
#505=#2002
G0 Z0.080
X5.06905 Y-3.35490
G38.2 Z-0.1 F2.362205
#504=#2002
G0 Z0.080
X5.45302 Y-3.35490
G38.2 Z-0.1 F2.362205
#508=#2002
G0 Z0.080
X5.45302 Y-3.05544
G38.2 Z-0.1 F2.362205
#509=#2002
G0 Z0.080
X5.45302 Y-2.75597
G38.2 Z-0.1 F2.362205
#510=#2002
G0 Z0.080
X5.45302 Y-2.45650
G38.2 Z-0.1 F2.362205
#511=#2002
G0 Z0.080
X5.83698 Y-2.45650
G38.2 Z-0.1 F2.362205
#515=#2002
G0 Z0.080
X5.83698 Y-2.75597
G38.2 Z-0.1 F2.362205
#514=#2002
G0 Z0.080
X5.83698 Y-3.05544
G38.2 Z-0.1 F2.362205
#513=#2002
G0 Z0.080
X5.83698 Y-3.35490
G38.2 Z-0.1 F2.362205
#512=#2002
G0 Z0.080
X6.22094 Y-3.35490
G38.2 Z-0.1 F2.362205
#516=#2002
G0 Z0.080
X6.22094 Y-3.05544
G38.2 Z-0.1 F2.362205
#517=#2002
G0 Z0.080
X6.22094 Y-2.75597
G38.2 Z-0.1 F2.362205
#518=#2002
G0 Z0.080
X6.22094 Y-2.45650
G38.2 Z-0.1 F2.362205
#519=#2002
G0 Z0.080
X6.60490 Y-2.45650
G38.2 Z-0.1 F2.362205
#523=#2002
G0 Z0.080
X6.60490 Y-2.75597
G38.2 Z-0.1 F2.362205
#522=#2002
G0 Z0.080
X6.60490 Y-3.05544
G38.2 Z-0.1 F2.362205
#521=#2002
G0 Z0.080
X6.60490 Y-3.35490
G38.2 Z-0.1 F2.362205
#520=#2002

G0 Z0.080 ( Move Z to safe height )
( Probing has ended, each Z-coordinate will be corrected with a bilinear interpolation )
(MSG, Detach the probe tool)
M0 ( Temporary machine stop. )


G00 Z1.00000 (Retract to tool change height)
T1
M5      (Spindle stop.)
G04 P1.00000 (Wait for spindle to stop)
(MSG, Change tool bit to mill diameter 0.00000in)
M6      (Tool change.)
M0      (Temporary machine stop.)
M3 ( Spindle on clockwise. )
G04 P1.00000 (Wait for spindle to get up to speed)
G04 P0 ( dwell for no time -- G64 should not smooth over this point )
G00 Z0.08000 ( retract )

G00 X4.68509 Y-2.97699 ( rapid move to begin. )
G01 F180.00000
( Mill infeed pass 1/1 )
#111=[#501+[#502-#501]*0.26195]
G01 Z[-0.04000+#111]
G04 P0 ( dwell for no time -- G64 should not smooth over this point )
G01 F360.00000
#111=[#502+[#503-#502]*0.00000]
X4.68509 Y-2.75597 Z[#111+-0.04000]
#111=[#502+[#503-#502]*0.93694]
X4.68509 Y-2.47539 Z[#111+-0.04000]
#116=[#502+[#503-#502]*0.94889]
#117=[#506+[#507-#506]*0.94889]
#111=[#116+[#117-#116]*0.00124]
X4.68557 Y-2.47181 Z[#111+-0.04000]
#116=[#502+[#503-#502]*0.96035]
#117=[#506+[#507-#506]*0.96035]
#111=[#116+[#117-#116]*0.00416]
X4.68669 Y-2.46838 Z[#111+-0.04000]
#116=[#502+[#503-#502]*0.97092]
#117=[#506+[#507-#506]*0.97092]
#111=[#116+[#117-#116]*0.00867]
X4.68842 Y-2.46521 Z[#111+-0.04000]
#116=[#502+[#503-#502]*0.97629]
#117=[#506+[#507-#506]*0.97629]
#111=[#116+[#117-#116]*0.01180]
X4.68962 Y-2.46360 Z[#111+-0.04000]
#116=[#502+[#503-#502]*0.98122]
#117=[#506+[#507-#506]*0.98122]
#111=[#116+[#117-#116]*0.01535]
X4.69098 Y-2.46213 Z[#111+-0.04000]
#116=[#502+[#503-#502]*0.98883]
#117=[#506+[#507-#506]*0.98883]
#111=[#116+[#117-#116]*0.02263]
X4.69378 Y-2.45985 Z[#111+-0.04000]
#116=[#502+[#503-#502]*0.99228]
#117=[#506+[#507-#506]*0.99228]
#111=[#116+[#117-#116]*0.02711]
X4.69550 Y-2.45882 Z[#111+-0.04000]
#116=[#502+[#503-#502]*0.99512]
#117=[#506+[#507-#506]*0.99512]
#111=[#116+[#117-#116]*0.03185]
X4.69732 Y-2.45797 Z[#111+-0.04000]
#116=[#502+[#503-#502]*0.99734]
#117=[#506+[#507-#506]*0.99734]
#111=[#116+[#117-#116]*0.03678]
X4.69921 Y-2.45730 Z[#111+-0.04000]
#116=[#502+[#503-#502]*0.99889]
#117=[#506+[#507-#506]*0.99889]
#111=[#116+[#117-#116]*0.04187]
X4.70117 Y-2.45683 Z[#111+-0.04000]
#116=[#502+[#503-#502]*1.00000]
#117=[#506+[#507-#506]*1.00000]
#111=[#116+[#117-#116]*0.05123]
X4.70476 Y-2.45650 Z[#111+-0.04000]
#116=[#502+[#503-#502]*0.99978]
#117=[#506+[#507-#506]*0.99978]
#111=[#116+[#117-#116]*0.67551]
X4.94446 Y-2.45657 Z[#111+-0.04000]
#116=[#502+[#503-#502]*0.99770]
#117=[#506+[#507-#506]*0.99770]
#111=[#116+[#117-#116]*0.68476]
X4.94802 Y-2.45719 Z[#111+-0.04000]
#116=[#502+[#503-#502]*0.99349]
#117=[#506+[#507-#506]*0.99349]
#111=[#116+[#117-#116]*0.69357]
X4.95140 Y-2.45845 Z[#111+-0.04000]
#116=[#502+[#503-#502]*0.98807]
#117=[#506+[#507-#506]*0.98807]
#111=[#116+[#117-#116]*0.70078]
X4.95417 Y-2.46008 Z[#111+-0.04000]
#116=[#502+[#503-#502]*0.98027]
#117=[#506+[#507-#506]*0.98027]
#111=[#116+[#117-#116]*0.70795]
X4.95692 Y-2.46241 Z[#111+-0.04000]
#116=[#502+[#503-#502]*0.97092]
#117=[#506+[#507-#506]*0.97092]
#111=[#116+[#117-#116]*0.71388]
X4.95920 Y-2.46521 Z[#111+-0.04000]
#116=[#502+[#503-#502]*0.96035]
#117=[#506+[#507-#506]*0.96035]
#111=[#116+[#117-#116]*0.71839]
X4.96093 Y-2.46838 Z[#111+-0.04000]
#116=[#502+[#503-#502]*0.94889]
#117=[#506+[#507-#506]*0.94889]
#111=[#116+[#117-#116]*0.72131]
X4.96205 Y-2.47181 Z[#111+-0.04000]
#116=[#502+[#503-#502]*0.93694]
#117=[#506+[#507-#506]*0.93694]
#111=[#116+[#117-#116]*0.72255]
X4.96253 Y-2.47539 Z[#111+-0.04000]
#116=[#502+[#503-#502]*0.92491]
#117=[#506+[#507-#506]*0.92491]
#111=[#116+[#117-#116]*0.72207]
X4.96234 Y-2.47899 Z[#111+-0.04000]
#116=[#502+[#503-#502]*0.91833]
#117=[#506+[#507-#506]*0.91833]
#111=[#116+[#117-#116]*0.72107]
X4.96195 Y-2.48096 Z[#111+-0.04000]
#116=[#502+[#503-#502]*0.91192]
#117=[#506+[#507-#506]*0.91192]
#111=[#116+[#117-#116]*0.71954]
X4.96137 Y-2.48288 Z[#111+-0.04000]
#116=[#502+[#503-#502]*0.90574]
#117=[#506+[#507-#506]*0.90574]
#111=[#116+[#117-#116]*0.71752]
X4.96059 Y-2.48473 Z[#111+-0.04000]
#116=[#502+[#503-#502]*0.89986]
#117=[#506+[#507-#506]*0.89986]
#111=[#116+[#117-#116]*0.71501]
X4.95963 Y-2.48649 Z[#111+-0.04000]
#116=[#502+[#503-#502]*0.89021]
#117=[#506+[#507-#506]*0.89021]
#111=[#116+[#117-#116]*0.70938]
X4.95747 Y-2.48938 Z[#111+-0.04000]
#116=[#502+[#503-#502]*0.88205]
#117=[#506+[#507-#506]*0.88205]
#111=[#116+[#117-#116]*0.70247]
X4.95481 Y-2.49183 Z[#111+-0.04000]
#116=[#502+[#503-#502]*0.87564]
#117=[#506+[#507-#506]*0.87564]
#111=[#116+[#117-#116]*0.69451]
X4.95176 Y-2.49375 Z[#111+-0.04000]
#116=[#502+[#503-#502]*0.87119]
#117=[#506+[#507-#506]*0.87119]
#111=[#116+[#117-#116]*0.68577]
X4.94840 Y-2.49508 Z[#111+-0.04000]
#116=[#502+[#503-#502]*0.86963]
#117=[#506+[#507-#506]*0.86963]
#111=[#116+[#117-#116]*0.68069]
X4.94645 Y-2.49554 Z[#111+-0.04000]
#116=[#502+[#503-#502]*0.86875]
#117=[#506+[#507-#506]*0.86875]
#111=[#116+[#117-#116]*0.67551]
X4.94446 Y-2.49581 Z[#111+-0.04000]
#116=[#502+[#503-#502]*0.86853]
#117=[#506+[#507-#506]*0.86853]
#111=[#116+[#117-#116]*0.10249]
X4.72445 Y-2.49587 Z[#111+-0.04000]
#116=[#502+[#503-#502]*0.20494]
#117=[#506+[#507-#506]*0.20494]
#111=[#116+[#117-#116]*0.10249]
X4.72445 Y-2.69460 Z[#111+-0.04000]
#116=[#502+[#503-#502]*0.20494]
#117=[#506+[#507-#506]*0.20494]
#111=[#116+[#117-#116]*0.48530]
X4.87143 Y-2.69460 Z[#111+-0.04000]
#116=[#502+[#503-#502]*0.20444]
#117=[#506+[#507-#506]*0.20444]
#111=[#116+[#117-#116]*0.49156]
X4.87383 Y-2.69475 Z[#111+-0.04000]
#116=[#502+[#503-#502]*0.20188]
#117=[#506+[#507-#506]*0.20188]
#111=[#116+[#117-#116]*0.50074]
X4.87736 Y-2.69551 Z[#111+-0.04000]
#116=[#502+[#503-#502]*0.19954]
#117=[#506+[#507-#506]*0.19954]
#111=[#116+[#117-#116]*0.50564]
X4.87924 Y-2.69622 Z[#111+-0.04000]
#116=[#502+[#503-#502]*0.19657]
#117=[#506+[#507-#506]*0.19657]
#111=[#116+[#117-#116]*0.51032]
X4.88104 Y-2.69710 Z[#111+-0.04000]
#116=[#502+[#503-#502]*0.18975]
#117=[#506+[#507-#506]*0.18975]
#111=[#116+[#117-#116]*0.51807]
X4.88401 Y-2.69915 Z[#111+-0.04000]
#116=[#502+[#503-#502]*0.18122]
#117=[#506+[#507-#506]*0.18122]
#111=[#116+[#117-#116]*0.52472]
X4.88656 Y-2.70170 Z[#111+-0.04000]
#116=[#502+[#503-#502]*0.17129]
#117=[#506+[#507-#506]*0.17129]
#111=[#116+[#117-#116]*0.53004]
X4.88861 Y-2.70467 Z[#111+-0.04000]
#116=[#502+[#503-#502]*0.16028]
#117=[#506+[#507-#506]*0.16028]
#111=[#116+[#117-#116]*0.53386]
X4.89007 Y-2.70797 Z[#111+-0.04000]
#116=[#502+[#503-#502]*0.14856]
#117=[#506+[#507-#506]*0.14856]
#111=[#116+[#117-#116]*0.53604]
X4.89091 Y-2.71148 Z[#111+-0.04000]
#116=[#502+[#503-#502]*0.13652]
#117=[#506+[#507-#506]*0.13652]
#111=[#116+[#117-#116]*0.53652]
X4.89110 Y-2.71509 Z[#111+-0.04000]
#116=[#502+[#503-#502]*0.12589]
#117=[#506+[#507-#506]*0.12589]
#111=[#116+[#117-#116]*0.53550]
X4.89070 Y-2.71827 Z[#111+-0.04000]
#116=[#502+[#503-#502]*0.11436]
#117=[#506+[#507-#506]*0.11436]
#111=[#116+[#117-#116]*0.53276]
X4.88965 Y-2.72173 Z[#111+-0.04000]
#116=[#502+[#503-#502]*0.10366]
#117=[#506+[#507-#506]*0.10366]
#111=[#116+[#117-#116]*0.52843]
X4.88799 Y-2.72493 Z[#111+-0.04000]
#116=[#502+[#503-#502]*0.09416]
#117=[#506+[#507-#506]*0.09416]
#111=[#116+[#117-#116]*0.52264]
X4.88577 Y-2.72777 Z[#111+-0.04000]
#116=[#502+[#503-#502]*0.08698]
#117=[#506+[#507-#506]*0.08698]
#111=[#116+[#117-#116]*0.51644]
X4.88338 Y-2.72992 Z[#111+-0.04000]
#116=[#502+[#503-#502]*0.08057]
#117=[#506+[#507-#506]*0.08057]
#111=[#116+[#117-#116]*0.50848]
X4.88033 Y-2.73184 Z[#111+-0.04000]
#116=[#502+[#503-#502]*0.07613]
#117=[#506+[#507-#506]*0.07613]
#111=[#116+[#117-#116]*0.49974]
X4.87697 Y-2.73317 Z[#111+-0.04000]
#116=[#502+[#503-#502]*0.07396]
#117=[#506+[#507-#506]*0.07396]
#111=[#116+[#117-#116]*0.49156]
X4.87383 Y-2.73382 Z[#111+-0.04000]
#116=[#502+[#503-#502]*0.07347]
#117=[#506+[#507-#506]*0.07347]
#111=[#116+[#117-#116]*0.48530]
X4.87143 Y-2.73397 Z[#111+-0.04000]
#116=[#502+[#503-#502]*0.07347]
#117=[#506+[#507-#506]*0.07347]
#111=[#116+[#117-#116]*0.10249]
X4.72445 Y-2.73397 Z[#111+-0.04000]
#116=[#502+[#503-#502]*0.00000]
#117=[#506+[#507-#506]*0.00000]
#111=[#116+[#117-#116]*0.10248]
X4.72444 Y-2.75597 Z[#111+-0.04000]
#116=[#501+[#502-#501]*0.25927]
#117=[#505+[#506-#505]*0.25927]
#111=[#116+[#117-#116]*0.10232]
X4.72438 Y-2.97779 Z[#111+-0.04000]
#116=[#501+[#502-#501]*0.24740]
#117=[#505+[#506-#505]*0.24740]
#111=[#116+[#117-#116]*0.10070]
X4.72376 Y-2.98135 Z[#111+-0.04000]
#116=[#501+[#502-#501]*0.23611]
#117=[#505+[#506-#505]*0.23611]
#111=[#116+[#117-#116]*0.09742]
X4.72250 Y-2.98473 Z[#111+-0.04000]
#116=[#501+[#502-#501]*0.22686]
#117=[#505+[#506-#505]*0.22686]
#111=[#116+[#117-#116]*0.09319]
X4.72087 Y-2.98750 Z[#111+-0.04000]
#116=[#501+[#502-#501]*0.21768]
#117=[#505+[#506-#505]*0.21768]
#111=[#116+[#117-#116]*0.08710]
X4.71854 Y-2.99025 Z[#111+-0.04000]
#116=[#501+[#502-#501]*0.21007]
#117=[#505+[#506-#505]*0.21007]
#111=[#116+[#117-#116]*0.07982]
X4.71574 Y-2.99253 Z[#111+-0.04000]
#116=[#501+[#502-#501]*0.20429]
#117=[#505+[#506-#505]*0.20429]
#111=[#116+[#117-#116]*0.07157]
X4.71257 Y-2.99426 Z[#111+-0.04000]
#116=[#501+[#502-#501]*0.20054]
#117=[#505+[#506-#505]*0.20054]
#111=[#116+[#117-#116]*0.06263]
X4.70914 Y-2.99538 Z[#111+-0.04000]
#116=[#501+[#502-#501]*0.19895]
#117=[#505+[#506-#505]*0.19895]
#111=[#116+[#117-#116]*0.05332]
X4.70556 Y-2.99586 Z[#111+-0.04000]
#116=[#501+[#502-#501]*0.19902]
#117=[#505+[#506-#505]*0.19902]
#111=[#116+[#117-#116]*0.04809]
X4.70356 Y-2.99584 Z[#111+-0.04000]
#116=[#501+[#502-#501]*0.19977]
#117=[#505+[#506-#505]*0.19977]
#111=[#116+[#117-#116]*0.04289]
X4.70156 Y-2.99561 Z[#111+-0.04000]
#116=[#501+[#502-#501]*0.20120]
#117=[#505+[#506-#505]*0.20120]
#111=[#116+[#117-#116]*0.03779]
X4.69960 Y-2.99519 Z[#111+-0.04000]
#116=[#501+[#502-#501]*0.20328]
#117=[#505+[#506-#505]*0.20328]
#111=[#116+[#117-#116]*0.03282]
X4.69769 Y-2.99456 Z[#111+-0.04000]
#116=[#501+[#502-#501]*0.20862]
#117=[#505+[#506-#505]*0.20862]
#111=[#116+[#117-#116]*0.02439]
X4.69446 Y-2.99296 Z[#111+-0.04000]
#116=[#501+[#502-#501]*0.21241]
#117=[#505+[#506-#505]*0.21241]
#111=[#116+[#117-#116]*0.02009]
X4.69280 Y-2.99183 Z[#111+-0.04000]
#116=[#501+[#502-#501]*0.21675]
#117=[#505+[#506-#505]*0.21675]
#111=[#116+[#117-#116]*0.01610]
X4.69127 Y-2.99053 Z[#111+-0.04000]
#116=[#501+[#502-#501]*0.22159]
#117=[#505+[#506-#505]*0.22159]
#111=[#116+[#117-#116]*0.01248]
X4.68988 Y-2.98908 Z[#111+-0.04000]
#116=[#501+[#502-#501]*0.22686]
#117=[#505+[#506-#505]*0.22686]
#111=[#116+[#117-#116]*0.00926]
X4.68865 Y-2.98750 Z[#111+-0.04000]
#116=[#501+[#502-#501]*0.23732]
#117=[#505+[#506-#505]*0.23732]
#111=[#116+[#117-#116]*0.00459]
X4.68685 Y-2.98437 Z[#111+-0.04000]
#116=[#501+[#502-#501]*0.24870]
#117=[#505+[#506-#505]*0.24870]
#111=[#116+[#117-#116]*0.00148]
X4.68566 Y-2.98096 Z[#111+-0.04000]
#116=[#501+[#502-#501]*0.25527]
#117=[#505+[#506-#505]*0.25527]
#111=[#116+[#117-#116]*0.00048]
X4.68528 Y-2.97899 Z[#111+-0.04000]
#111=[#501+[#502-#501]*0.26195]
X4.68509 Y-2.97699 Z[#111+-0.04000]
G04 P0 ( dwell for no time -- G64 should not smooth over this point )
G00 Z0.08000 ( retract )

G00 X5.11368 Y-2.97739 ( rapid move to begin. )
G01 F180.00000
( Mill infeed pass 1/1 )
#116=[#505+[#506-#505]*0.26061]
#117=[#509+[#510-#509]*0.26061]
#111=[#116+[#117-#116]*0.11623]
G01 Z[-0.04000+#111]
G04 P0 ( dwell for no time -- G64 should not smooth over this point )
G01 F360.00000
#116=[#506+[#507-#506]*0.00000]
#117=[#510+[#511-#510]*0.00000]
#111=[#116+[#117-#116]*0.11623]
X5.11368 Y-2.75597 Z[#111+-0.04000]
#116=[#506+[#507-#506]*0.38174]
#117=[#510+[#511-#510]*0.38174]
#111=[#116+[#117-#116]*0.11623]
X5.11368 Y-2.64165 Z[#111+-0.04000]
#116=[#506+[#507-#506]*0.38972]
#117=[#510+[#511-#510]*0.38972]
#111=[#116+[#117-#116]*0.11700]
X5.11398 Y-2.63926 Z[#111+-0.04000]
#116=[#506+[#507-#506]*0.39879]
#117=[#510+[#511-#510]*0.39879]
#111=[#116+[#117-#116]*0.11885]
X5.11469 Y-2.63654 Z[#111+-0.04000]
#116=[#506+[#507-#506]*0.40744]
#117=[#510+[#511-#510]*0.40744]
#111=[#116+[#117-#116]*0.12168]
X5.11578 Y-2.63395 Z[#111+-0.04000]
#116=[#506+[#507-#506]*0.41438]
#117=[#510+[#511-#510]*0.41438]
#111=[#116+[#117-#116]*0.12485]
X5.11699 Y-2.63188 Z[#111+-0.04000]
#116=[#506+[#507-#506]*0.42076]
#117=[#510+[#511-#510]*0.42076]
#111=[#116+[#117-#116]*0.12866]
X5.11846 Y-2.62997 Z[#111+-0.04000]
#116=[#506+[#507-#506]*0.42651]
#117=[#510+[#511-#510]*0.42651]
#111=[#116+[#117-#116]*0.13305]
X5.12014 Y-2.62825 Z[#111+-0.04000]
#116=[#506+[#507-#506]*0.43228]
#117=[#510+[#511-#510]*0.43228]
#111=[#116+[#117-#116]*0.13881]
X5.12235 Y-2.62652 Z[#111+-0.04000]
#116=[#506+[#507-#506]*0.43635]
#117=[#510+[#511-#510]*0.43635]
#111=[#116+[#117-#116]*0.14422]
X5.12443 Y-2.62530 Z[#111+-0.04000]
#116=[#506+[#507-#506]*0.43954]
#117=[#510+[#511-#510]*0.43954]
#111=[#116+[#117-#116]*0.14998]
X5.12664 Y-2.62434 Z[#111+-0.04000]
#116=[#506+[#507-#506]*0.44209]
#117=[#510+[#511-#510]*0.44209]
#111=[#116+[#117-#116]*0.15702]
X5.12934 Y-2.62358 Z[#111+-0.04000]
#116=[#506+[#507-#506]*0.44323]
#117=[#510+[#511-#510]*0.44323]
#111=[#116+[#117-#116]*0.16323]
X5.13173 Y-2.62324 Z[#111+-0.04000]
#116=[#506+[#507-#506]*0.44340]
#117=[#510+[#511-#510]*0.44340]
#111=[#116+[#117-#116]*0.16950]
X5.13413 Y-2.62319 Z[#111+-0.04000]
#116=[#506+[#507-#506]*0.44235]
#117=[#510+[#511-#510]*0.44235]
#111=[#116+[#117-#116]*0.17677]
X5.13693 Y-2.62350 Z[#111+-0.04000]
#116=[#506+[#507-#506]*0.44040]
#117=[#510+[#511-#510]*0.44040]
#111=[#116+[#117-#116]*0.18285]
X5.13926 Y-2.62409 Z[#111+-0.04000]
#116=[#506+[#507-#506]*0.43694]
#117=[#510+[#511-#510]*0.43694]
#111=[#116+[#117-#116]*0.18965]
X5.14187 Y-2.62512 Z[#111+-0.04000]
#116=[#506+[#507-#506]*0.43302]
#117=[#510+[#511-#510]*0.43302]
#111=[#116+[#117-#116]*0.19512]
X5.14398 Y-2.62630 Z[#111+-0.04000]
#116=[#506+[#507-#506]*0.42911]
#117=[#510+[#511-#510]*0.42911]
#111=[#116+[#117-#116]*0.19937]
X5.14561 Y-2.62747 Z[#111+-0.04000]
#116=[#506+[#507-#506]*0.42467]
#117=[#510+[#511-#510]*0.42467]
#111=[#116+[#117-#116]*0.20329]
X5.14711 Y-2.62880 Z[#111+-0.04000]
#116=[#506+[#507-#506]*0.41548]
#117=[#510+[#511-#510]*0.41548]
#111=[#116+[#117-#116]*0.20937]
X5.14945 Y-2.63155 Z[#111+-0.04000]
#116=[#506+[#507-#506]*0.40981]
#117=[#510+[#511-#510]*0.40981]
#111=[#116+[#117-#116]*0.21215]
X5.15051 Y-2.63325 Z[#111+-0.04000]
#116=[#506+[#507-#506]*0.40380]
#117=[#510+[#511-#510]*0.40380]
#111=[#116+[#117-#116]*0.21447]
X5.15140 Y-2.63505 Z[#111+-0.04000]
#116=[#506+[#507-#506]*0.39235]
#117=[#510+[#511-#510]*0.39235]
#111=[#116+[#117-#116]*0.21739]
X5.15252 Y-2.63848 Z[#111+-0.04000]
#116=[#506+[#507-#506]*0.38574]
#117=[#510+[#511-#510]*0.38574]
#111=[#116+[#117-#116]*0.21829]
X5.15287 Y-2.64045 Z[#111+-0.04000]
#116=[#506+[#507-#506]*0.37906]
#117=[#510+[#511-#510]*0.37906]
#111=[#116+[#117-#116]*0.21866]
X5.15301 Y-2.64245 Z[#111+-0.04000]
#116=[#506+[#507-#506]*0.29790]
#117=[#510+[#511-#510]*0.29790]
#111=[#116+[#117-#116]*0.21868]
X5.15302 Y-2.66676 Z[#111+-0.04000]
#116=[#506+[#507-#506]*0.34562]
#117=[#510+[#511-#510]*0.34562]
#111=[#116+[#117-#116]*0.25591]
X5.16732 Y-2.65247 Z[#111+-0.04000]
#116=[#506+[#507-#506]*0.34995]
#117=[#510+[#511-#510]*0.34995]
#111=[#116+[#117-#116]*0.25980]
X5.16881 Y-2.65117 Z[#111+-0.04000]
#116=[#506+[#507-#506]*0.35446]
#117=[#510+[#511-#510]*0.35446]
#111=[#116+[#117-#116]*0.26489]
X5.17076 Y-2.64982 Z[#111+-0.04000]
#116=[#506+[#507-#506]*0.43709]
#117=[#510+[#511-#510]*0.43709]
#111=[#116+[#117-#116]*0.39345]
X5.22012 Y-2.62508 Z[#111+-0.04000]
#116=[#506+[#507-#506]*0.44006]
#117=[#510+[#511-#510]*0.44006]
#111=[#116+[#117-#116]*0.39920]
X5.22233 Y-2.62419 Z[#111+-0.04000]
#116=[#506+[#507-#506]*0.44237]
#117=[#510+[#511-#510]*0.44237]
#111=[#116+[#117-#116]*0.40620]
X5.22502 Y-2.62350 Z[#111+-0.04000]
#116=[#506+[#507-#506]*0.44345]
#117=[#510+[#511-#510]*0.44345]
#111=[#116+[#117-#116]*0.41545]
X5.22857 Y-2.62317 Z[#111+-0.04000]
#116=[#506+[#507-#506]*0.44345]
#117=[#510+[#511-#510]*0.44345]
#111=[#116+[#117-#116]*0.53947]
X5.27619 Y-2.62317 Z[#111+-0.04000]
#116=[#506+[#507-#506]*0.44296]
#117=[#510+[#511-#510]*0.44296]
#111=[#116+[#117-#116]*0.54573]
X5.27859 Y-2.62332 Z[#111+-0.04000]
#116=[#506+[#507-#506]*0.44149]
#117=[#510+[#511-#510]*0.44149]
#111=[#116+[#117-#116]*0.55189]
X5.28096 Y-2.62376 Z[#111+-0.04000]
#116=[#506+[#507-#506]*0.43858]
#117=[#510+[#511-#510]*0.43858]
#111=[#116+[#117-#116]*0.55885]
X5.28363 Y-2.62463 Z[#111+-0.04000]
#116=[#506+[#507-#506]*0.43373]
#117=[#510+[#511-#510]*0.43373]
#111=[#116+[#117-#116]*0.56630]
X5.28649 Y-2.62608 Z[#111+-0.04000]
#116=[#506+[#507-#506]*0.42740]
#117=[#510+[#511-#510]*0.42740]
#111=[#116+[#117-#116]*0.57304]
X5.28908 Y-2.62798 Z[#111+-0.04000]
#116=[#506+[#507-#506]*0.41974]
#117=[#510+[#511-#510]*0.41974]
#111=[#116+[#117-#116]*0.57889]
X5.29133 Y-2.63027 Z[#111+-0.04000]
#116=[#506+[#507-#506]*0.41097]
#117=[#510+[#511-#510]*0.41097]
#111=[#116+[#117-#116]*0.58369]
X5.29317 Y-2.63290 Z[#111+-0.04000]
#116=[#506+[#507-#506]*0.40132]
#117=[#510+[#511-#510]*0.40132]
#111=[#116+[#117-#116]*0.58732]
X5.29456 Y-2.63579 Z[#111+-0.04000]
#116=[#506+[#507-#506]*0.39103]
#117=[#510+[#511-#510]*0.39103]
#111=[#116+[#117-#116]*0.58967]
X5.29547 Y-2.63887 Z[#111+-0.04000]
#116=[#506+[#507-#506]*0.38174]
#117=[#510+[#511-#510]*0.38174]
#111=[#116+[#117-#116]*0.59064]
X5.29584 Y-2.64165 Z[#111+-0.04000]
#116=[#506+[#507-#506]*0.37103]
#117=[#510+[#511-#510]*0.37103]
#111=[#116+[#117-#116]*0.59047]
X5.29577 Y-2.64486 Z[#111+-0.04000]
#116=[#506+[#507-#506]*0.36179]
#117=[#510+[#511-#510]*0.36179]
#111=[#116+[#117-#116]*0.58921]
X5.29529 Y-2.64763 Z[#111+-0.04000]
#116=[#506+[#507-#506]*0.35287]
#117=[#510+[#511-#510]*0.35287]
#111=[#116+[#117-#116]*0.58693]
X5.29441 Y-2.65030 Z[#111+-0.04000]
#116=[#506+[#507-#506]*0.34332]
#117=[#510+[#511-#510]*0.34332]
#111=[#116+[#117-#116]*0.58315]
X5.29296 Y-2.65316 Z[#111+-0.04000]
#116=[#506+[#507-#506]*0.33467]
#117=[#510+[#511-#510]*0.33467]
#111=[#116+[#117-#116]*0.57821]
X5.29107 Y-2.65575 Z[#111+-0.04000]
#116=[#506+[#507-#506]*0.32717]
#117=[#510+[#511-#510]*0.32717]
#111=[#116+[#117-#116]*0.57224]
X5.28877 Y-2.65799 Z[#111+-0.04000]
#116=[#506+[#507-#506]*0.32171]
#117=[#510+[#511-#510]*0.32171]
#111=[#116+[#117-#116]*0.56630]
X5.28649 Y-2.65963 Z[#111+-0.04000]
#116=[#506+[#507-#506]*0.31686]
#117=[#510+[#511-#510]*0.31686]
#111=[#116+[#117-#116]*0.55885]
X5.28363 Y-2.66108 Z[#111+-0.04000]
#116=[#506+[#507-#506]*0.31335]
#117=[#510+[#511-#510]*0.31335]
#111=[#116+[#117-#116]*0.54985]
X5.28018 Y-2.66213 Z[#111+-0.04000]
#116=[#506+[#507-#506]*0.31200]
#117=[#510+[#511-#510]*0.31200]
#111=[#116+[#117-#116]*0.54051]
X5.27659 Y-2.66254 Z[#111+-0.04000]
#116=[#506+[#507-#506]*0.31198]
#117=[#510+[#511-#510]*0.31198]
#111=[#116+[#117-#116]*0.42755]
X5.23322 Y-2.66254 Z[#111+-0.04000]
#116=[#506+[#507-#506]*0.24419]
#117=[#510+[#511-#510]*0.24419]
#111=[#116+[#117-#116]*0.32180]
X5.19261 Y-2.68284 Z[#111+-0.04000]
#116=[#506+[#507-#506]*0.17977]
#117=[#510+[#511-#510]*0.17977]
#111=[#116+[#117-#116]*0.27155]
X5.17332 Y-2.70214 Z[#111+-0.04000]
#116=[#506+[#507-#506]*0.04418]
#117=[#510+[#511-#510]*0.04418]
#111=[#116+[#117-#116]*0.21868]
X5.15302 Y-2.74274 Z[#111+-0.04000]
#116=[#506+[#507-#506]*0.00000]
#117=[#510+[#511-#510]*0.00000]
#111=[#116+[#117-#116]*0.21867]
X5.15301 Y-2.75597 Z[#111+-0.04000]
#116=[#505+[#506-#505]*0.25927]
#117=[#509+[#510-#509]*0.25927]
#111=[#116+[#117-#116]*0.21850]
X5.15295 Y-2.97779 Z[#111+-0.04000]
#116=[#505+[#506-#505]*0.24740]
#117=[#509+[#510-#509]*0.24740]
#111=[#116+[#117-#116]*0.21688]
X5.15233 Y-2.98135 Z[#111+-0.04000]
#116=[#505+[#506-#505]*0.23611]
#117=[#509+[#510-#509]*0.23611]
#111=[#116+[#117-#116]*0.21360]
X5.15107 Y-2.98473 Z[#111+-0.04000]
#116=[#505+[#506-#505]*0.22686]
#117=[#509+[#510-#509]*0.22686]
#111=[#116+[#117-#116]*0.20937]
X5.14945 Y-2.98750 Z[#111+-0.04000]
#116=[#505+[#506-#505]*0.21768]
#117=[#509+[#510-#509]*0.21768]
#111=[#116+[#117-#116]*0.20329]
X5.14711 Y-2.99025 Z[#111+-0.04000]
#116=[#505+[#506-#505]*0.21007]
#117=[#509+[#510-#509]*0.21007]
#111=[#116+[#117-#116]*0.19600]
X5.14431 Y-2.99253 Z[#111+-0.04000]
#116=[#505+[#506-#505]*0.20429]
#117=[#509+[#510-#509]*0.20429]
#111=[#116+[#117-#116]*0.18775]
X5.14114 Y-2.99426 Z[#111+-0.04000]
#116=[#505+[#506-#505]*0.20085]
#117=[#509+[#510-#509]*0.20085]
#111=[#116+[#117-#116]*0.17983]
X5.13810 Y-2.99529 Z[#111+-0.04000]
#116=[#505+[#506-#505]*0.19902]
#117=[#509+[#510-#509]*0.19902]
#111=[#116+[#117-#116]*0.17054]
X5.13454 Y-2.99584 Z[#111+-0.04000]
#116=[#505+[#506-#505]*0.19895]
#117=[#509+[#510-#509]*0.19895]
#111=[#116+[#117-#116]*0.16532]
X5.13253 Y-2.99586 Z[#111+-0.04000]
#116=[#505+[#506-#505]*0.19957]
#117=[#509+[#510-#509]*0.19957]
#111=[#116+[#117-#116]*0.16011]
X5.13053 Y-2.99567 Z[#111+-0.04000]
#116=[#505+[#506-#505]*0.20085]
#117=[#509+[#510-#509]*0.20085]
#111=[#116+[#117-#116]*0.15498]
X5.12856 Y-2.99529 Z[#111+-0.04000]
#116=[#505+[#506-#505]*0.20281]
#117=[#509+[#510-#509]*0.20281]
#111=[#116+[#117-#116]*0.14998]
X5.12664 Y-2.99470 Z[#111+-0.04000]
#116=[#505+[#506-#505]*0.20541]
#117=[#509+[#510-#509]*0.20541]
#111=[#116+[#117-#116]*0.14516]
X5.12479 Y-2.99392 Z[#111+-0.04000]
#116=[#505+[#506-#505]*0.20862]
#117=[#509+[#510-#509]*0.20862]
#111=[#116+[#117-#116]*0.14058]
X5.12303 Y-2.99296 Z[#111+-0.04000]
#116=[#505+[#506-#505]*0.21584]
#117=[#509+[#510-#509]*0.21584]
#111=[#116+[#117-#116]*0.13305]
X5.12014 Y-2.99080 Z[#111+-0.04000]
#116=[#505+[#506-#505]*0.22470]
#117=[#509+[#510-#509]*0.22470]
#111=[#116+[#117-#116]*0.12668]
X5.11770 Y-2.98815 Z[#111+-0.04000]
#116=[#505+[#506-#505]*0.23023]
#117=[#509+[#510-#509]*0.23023]
#111=[#116+[#117-#116]*0.12372]
X5.11656 Y-2.98649 Z[#111+-0.04000]
#116=[#505+[#506-#505]*0.23611]
#117=[#509+[#510-#509]*0.23611]
#111=[#116+[#117-#116]*0.12122]
X5.11560 Y-2.98473 Z[#111+-0.04000]
#116=[#505+[#506-#505]*0.24740]
#117=[#509+[#510-#509]*0.24740]
#111=[#116+[#117-#116]*0.11793]
X5.11434 Y-2.98135 Z[#111+-0.04000]
#116=[#505+[#506-#505]*0.25395]
#117=[#509+[#510-#509]*0.25395]
#111=[#116+[#117-#116]*0.11682]
X5.11391 Y-2.97939 Z[#111+-0.04000]
#116=[#505+[#506-#505]*0.26061]
#117=[#509+[#510-#509]*0.26061]
#111=[#116+[#117-#116]*0.11623]
X5.11368 Y-2.97739 Z[#111+-0.04000]
G04 P0 ( dwell for no time -- G64 should not smooth over this point )
G00 Z0.08000 ( retract )

G00 X5.39936 Y-2.88095 ( rapid move to begin. )
G01 F180.00000
( Mill infeed pass 1/1 )
#116=[#505+[#506-#505]*0.58265]
#117=[#509+[#510-#509]*0.58265]
#111=[#116+[#117-#116]*0.86026]
G01 Z[-0.04000+#111]
G04 P0 ( dwell for no time -- G64 should not smooth over this point )
G01 F360.00000
#116=[#506+[#507-#506]*0.00000]
#117=[#510+[#511-#510]*0.00000]
#111=[#116+[#117-#116]*0.86026]
X5.39936 Y-2.75597 Z[#111+-0.04000]
#116=[#506+[#507-#506]*0.05969]
#117=[#510+[#511-#510]*0.05969]
#111=[#116+[#117-#116]*0.86026]
X5.39936 Y-2.73809 Z[#111+-0.04000]
#116=[#506+[#507-#506]*0.06631]
#117=[#510+[#511-#510]*0.06631]
#111=[#116+[#117-#116]*0.86052]
X5.39946 Y-2.73611 Z[#111+-0.04000]
#116=[#506+[#507-#506]*0.07415]
#117=[#510+[#511-#510]*0.07415]
#111=[#116+[#117-#116]*0.86151]
X5.39984 Y-2.73377 Z[#111+-0.04000]
#116=[#506+[#507-#506]*0.08178]
#117=[#510+[#511-#510]*0.08178]
#111=[#116+[#117-#116]*0.86324]
X5.40051 Y-2.73148 Z[#111+-0.04000]
#116=[#506+[#507-#506]*0.08909]
#117=[#510+[#511-#510]*0.08909]
#111=[#116+[#117-#116]*0.86567]
X5.40144 Y-2.72929 Z[#111+-0.04000]
#116=[#506+[#507-#506]*0.24810]
#117=[#510+[#511-#510]*0.24810]
#111=[#116+[#117-#116]*0.92768]
X5.42525 Y-2.68167 Z[#111+-0.04000]
#116=[#506+[#507-#506]*0.25497]
#117=[#510+[#511-#510]*0.25497]
#111=[#116+[#117-#116]*0.93077]
X5.42644 Y-2.67962 Z[#111+-0.04000]
#116=[#506+[#507-#506]*0.26519]
#117=[#510+[#511-#510]*0.26519]
#111=[#116+[#117-#116]*0.93729]
X5.42894 Y-2.67656 Z[#111+-0.04000]
#116=[#506+[#507-#506]*0.34470]
#117=[#510+[#511-#510]*0.34470]
#111=[#116+[#117-#116]*0.99929]
X5.45275 Y-2.65275 Z[#111+-0.04000]
#116=[#510+[#511-#510]*0.34550]
#117=[#514+[#515-#514]*0.34550]
#111=[#116+[#117-#116]*0.00000]
X5.45302 Y-2.65251 Z[#111+-0.04000]
#116=[#510+[#511-#510]*0.34995]
#117=[#514+[#515-#514]*0.34995]
#111=[#116+[#117-#116]*0.00392]
X5.45452 Y-2.65117 Z[#111+-0.04000]
#116=[#510+[#511-#510]*0.35701]
#117=[#514+[#515-#514]*0.35701]
#111=[#116+[#117-#116]*0.01262]
X5.45786 Y-2.64906 Z[#111+-0.04000]
#116=[#510+[#511-#510]*0.43651]
#117=[#514+[#515-#514]*0.43651]
#111=[#116+[#117-#116]*0.13664]
X5.50548 Y-2.62525 Z[#111+-0.04000]
#116=[#510+[#511-#510]*0.44006]
#117=[#514+[#515-#514]*0.44006]
#111=[#116+[#117-#116]*0.14332]
X5.50805 Y-2.62419 Z[#111+-0.04000]
#116=[#510+[#511-#510]*0.44212]
#117=[#514+[#515-#514]*0.44212]
#111=[#116+[#117-#116]*0.14930]
X5.51034 Y-2.62357 Z[#111+-0.04000]
#116=[#510+[#511-#510]*0.44345]
#117=[#514+[#515-#514]*0.44345]
#111=[#116+[#117-#116]*0.15957]
X5.51429 Y-2.62317 Z[#111+-0.04000]
#116=[#510+[#511-#510]*0.44345]
#117=[#514+[#515-#514]*0.44345]
#111=[#116+[#117-#116]*0.34560]
X5.58571 Y-2.62317 Z[#111+-0.04000]
#116=[#510+[#511-#510]*0.44297]
#117=[#514+[#515-#514]*0.44297]
#111=[#116+[#117-#116]*0.35178]
X5.58809 Y-2.62331 Z[#111+-0.04000]
#116=[#510+[#511-#510]*0.44085]
#117=[#514+[#515-#514]*0.44085]
#111=[#116+[#117-#116]*0.35987]
X5.59119 Y-2.62395 Z[#111+-0.04000]
#116=[#510+[#511-#510]*0.43709]
#117=[#514+[#515-#514]*0.43709]
#111=[#116+[#117-#116]*0.36760]
X5.59416 Y-2.62508 Z[#111+-0.04000]
#116=[#510+[#511-#510]*0.35701]
#117=[#514+[#515-#514]*0.35701]
#111=[#116+[#117-#116]*0.49255]
X5.64214 Y-2.64906 Z[#111+-0.04000]
#116=[#510+[#511-#510]*0.35304]
#117=[#514+[#515-#514]*0.35304]
#111=[#116+[#117-#116]*0.49790]
X5.64419 Y-2.65025 Z[#111+-0.04000]
#116=[#510+[#511-#510]*0.34470]
#117=[#514+[#515-#514]*0.34470]
#111=[#116+[#117-#116]*0.50587]
X5.64725 Y-2.65275 Z[#111+-0.04000]
#116=[#510+[#511-#510]*0.26519]
#117=[#514+[#515-#514]*0.26519]
#111=[#116+[#117-#116]*0.56788]
X5.67106 Y-2.67656 Z[#111+-0.04000]
#116=[#510+[#511-#510]*0.25925]
#117=[#514+[#515-#514]*0.25925]
#111=[#116+[#117-#116]*0.57198]
X5.67263 Y-2.67833 Z[#111+-0.04000]
#116=[#510+[#511-#510]*0.24810]
#117=[#514+[#515-#514]*0.24810]
#111=[#116+[#117-#116]*0.57748]
X5.67475 Y-2.68167 Z[#111+-0.04000]
#116=[#510+[#511-#510]*0.08909]
#117=[#514+[#515-#514]*0.08909]
#111=[#116+[#117-#116]*0.63949]
X5.69856 Y-2.72929 Z[#111+-0.04000]
#116=[#510+[#511-#510]*0.07927]
#117=[#514+[#515-#514]*0.07927]
#111=[#116+[#117-#116]*0.64258]
X5.69974 Y-2.73223 Z[#111+-0.04000]
#116=[#510+[#511-#510]*0.06894]
#117=[#514+[#515-#514]*0.06894]
#111=[#116+[#117-#116]*0.64440]
X5.70044 Y-2.73533 Z[#111+-0.04000]
#116=[#510+[#511-#510]*0.05969]
#117=[#514+[#515-#514]*0.05969]
#111=[#116+[#117-#116]*0.64491]
X5.70064 Y-2.73809 Z[#111+-0.04000]
#116=[#510+[#511-#510]*0.00000]
#117=[#514+[#515-#514]*0.00000]
#111=[#116+[#117-#116]*0.64488]
X5.70062 Y-2.75597 Z[#111+-0.04000]
#116=[#509+[#510-#509]*0.57604]
#117=[#513+[#514-#513]*0.57604]
#111=[#116+[#117-#116]*0.64465]
X5.70054 Y-2.88293 Z[#111+-0.04000]
#116=[#509+[#510-#509]*0.56435]
#117=[#513+[#514-#513]*0.56435]
#111=[#116+[#117-#116]*0.64288]
X5.69986 Y-2.88643 Z[#111+-0.04000]
#116=[#509+[#510-#509]*0.55445]
#117=[#513+[#514-#513]*0.55445]
#111=[#116+[#117-#116]*0.63995]
X5.69873 Y-2.88940 Z[#111+-0.04000]
#116=[#509+[#510-#509]*0.39425]
#117=[#513+[#514-#513]*0.39425]
#111=[#116+[#117-#116]*0.57748]
X5.67475 Y-2.93737 Z[#111+-0.04000]
#116=[#509+[#510-#509]*0.38738]
#117=[#513+[#514-#513]*0.38738]
#111=[#116+[#117-#116]*0.57439]
X5.67356 Y-2.93943 Z[#111+-0.04000]
#116=[#509+[#510-#509]*0.37716]
#117=[#513+[#514-#513]*0.37716]
#111=[#116+[#117-#116]*0.56788]
X5.67106 Y-2.94249 Z[#111+-0.04000]
#116=[#509+[#510-#509]*0.29766]
#117=[#513+[#514-#513]*0.29766]
#111=[#116+[#117-#116]*0.50587]
X5.64725 Y-2.96630 Z[#111+-0.04000]
#116=[#509+[#510-#509]*0.29240]
#117=[#513+[#514-#513]*0.29240]
#111=[#116+[#117-#116]*0.50124]
X5.64548 Y-2.96787 Z[#111+-0.04000]
#116=[#509+[#510-#509]*0.28535]
#117=[#513+[#514-#513]*0.28535]
#111=[#116+[#117-#116]*0.49255]
X5.64214 Y-2.96999 Z[#111+-0.04000]
#116=[#509+[#510-#509]*0.20584]
#117=[#513+[#514-#513]*0.20584]
#111=[#116+[#117-#116]*0.36853]
X5.59452 Y-2.99380 Z[#111+-0.04000]
#116=[#509+[#510-#509]*0.20272]
#117=[#513+[#514-#513]*0.20272]
#111=[#116+[#117-#116]*0.36283]
X5.59233 Y-2.99473 Z[#111+-0.04000]
#116=[#509+[#510-#509]*0.20023]
#117=[#513+[#514-#513]*0.20023]
#111=[#116+[#117-#116]*0.35586]
X5.58965 Y-2.99548 Z[#111+-0.04000]
#116=[#509+[#510-#509]*0.19889]
#117=[#513+[#514-#513]*0.19889]
#111=[#116+[#117-#116]*0.34560]
X5.58571 Y-2.99587 Z[#111+-0.04000]
#116=[#509+[#510-#509]*0.19889]
#117=[#513+[#514-#513]*0.19889]
#111=[#116+[#117-#116]*0.15957]
X5.51429 Y-2.99587 Z[#111+-0.04000]
#116=[#509+[#510-#509]*0.19975]
#117=[#513+[#514-#513]*0.19975]
#111=[#116+[#117-#116]*0.15134]
X5.51112 Y-2.99562 Z[#111+-0.04000]
#116=[#509+[#510-#509]*0.20229]
#117=[#513+[#514-#513]*0.20229]
#111=[#116+[#117-#116]*0.14332]
X5.50805 Y-2.99486 Z[#111+-0.04000]
#116=[#509+[#510-#509]*0.20584]
#117=[#513+[#514-#513]*0.20584]
#111=[#116+[#117-#116]*0.13664]
X5.50548 Y-2.99380 Z[#111+-0.04000]
#116=[#509+[#510-#509]*0.28595]
#117=[#513+[#514-#513]*0.28595]
#111=[#116+[#117-#116]*0.01170]
X5.45751 Y-2.96981 Z[#111+-0.04000]
#116=[#509+[#510-#509]*0.29160]
#117=[#513+[#514-#513]*0.29160]
#111=[#116+[#117-#116]*0.00474]
X5.45484 Y-2.96811 Z[#111+-0.04000]
#116=[#509+[#510-#509]*0.29687]
#117=[#513+[#514-#513]*0.29687]
#111=[#116+[#117-#116]*0.00000]
X5.45302 Y-2.96653 Z[#111+-0.04000]
#116=[#505+[#506-#505]*0.29766]
#117=[#509+[#510-#509]*0.29766]
#111=[#116+[#117-#116]*0.99929]
X5.45275 Y-2.96630 Z[#111+-0.04000]
#116=[#505+[#506-#505]*0.37811]
#117=[#509+[#510-#509]*0.37811]
#111=[#116+[#117-#116]*0.93656]
X5.42866 Y-2.94221 Z[#111+-0.04000]
#116=[#505+[#506-#505]*0.38738]
#117=[#509+[#510-#509]*0.38738]
#111=[#116+[#117-#116]*0.93077]
X5.42644 Y-2.93943 Z[#111+-0.04000]
#116=[#505+[#506-#505]*0.39425]
#117=[#509+[#510-#509]*0.39425]
#111=[#116+[#117-#116]*0.92768]
X5.42525 Y-2.93737 Z[#111+-0.04000]
#116=[#505+[#506-#505]*0.55686]
#117=[#509+[#510-#509]*0.55686]
#111=[#116+[#117-#116]*0.86437]
X5.40094 Y-2.88868 Z[#111+-0.04000]
#116=[#505+[#506-#505]*0.56949]
#117=[#509+[#510-#509]*0.56949]
#111=[#116+[#117-#116]*0.86130]
X5.39976 Y-2.88489 Z[#111+-0.04000]
#116=[#505+[#506-#505]*0.58265]
#117=[#509+[#510-#509]*0.58265]
#111=[#116+[#117-#116]*0.86026]
X5.39936 Y-2.88095 Z[#111+-0.04000]
G04 P0 ( dwell for no time -- G64 should not smooth over this point )
G00 Z0.08000 ( retract )

G00 X5.43873 Y-2.87630 ( rapid move to begin. )
G01 F180.00000
( Mill infeed pass 1/1 )
#116=[#505+[#506-#505]*0.59817]
#117=[#509+[#510-#509]*0.59817]
#111=[#116+[#117-#116]*0.96280]
G01 Z[-0.04000+#111]
G04 P0 ( dwell for no time -- G64 should not smooth over this point )
G01 F360.00000
#116=[#506+[#507-#506]*0.00000]
#117=[#510+[#511-#510]*0.00000]
#111=[#116+[#117-#116]*0.96280]
X5.43873 Y-2.75597 Z[#111+-0.04000]
#116=[#506+[#507-#506]*0.04417]
#117=[#510+[#511-#510]*0.04417]
#111=[#116+[#117-#116]*0.96280]
X5.43873 Y-2.74274 Z[#111+-0.04000]
#116=[#510+[#511-#510]*0.13958]
#117=[#514+[#515-#514]*0.13958]
#111=[#116+[#117-#116]*0.00000]
X5.45302 Y-2.71417 Z[#111+-0.04000]
#116=[#510+[#511-#510]*0.17977]
#117=[#514+[#515-#514]*0.17977]
#111=[#116+[#117-#116]*0.01567]
X5.45904 Y-2.70214 Z[#111+-0.04000]
#116=[#510+[#511-#510]*0.24419]
#117=[#514+[#515-#514]*0.24419]
#111=[#116+[#117-#116]*0.06592]
X5.47833 Y-2.68284 Z[#111+-0.04000]
#116=[#510+[#511-#510]*0.31198]
#117=[#514+[#515-#514]*0.31198]
#111=[#116+[#117-#116]*0.17167]
X5.51893 Y-2.66254 Z[#111+-0.04000]
#116=[#510+[#511-#510]*0.31198]
#117=[#514+[#515-#514]*0.31198]
#111=[#116+[#117-#116]*0.33350]
X5.58107 Y-2.66254 Z[#111+-0.04000]
#116=[#510+[#511-#510]*0.24419]
#117=[#514+[#515-#514]*0.24419]
#111=[#116+[#117-#116]*0.43925]
X5.62167 Y-2.68284 Z[#111+-0.04000]
#116=[#510+[#511-#510]*0.17977]
#117=[#514+[#515-#514]*0.17977]
#111=[#116+[#117-#116]*0.48949]
X5.64096 Y-2.70214 Z[#111+-0.04000]
#116=[#510+[#511-#510]*0.04417]
#117=[#514+[#515-#514]*0.04417]
#111=[#116+[#117-#116]*0.54237]
X5.66127 Y-2.74274 Z[#111+-0.04000]
#116=[#510+[#511-#510]*0.00000]
#117=[#514+[#515-#514]*0.00000]
#111=[#116+[#117-#116]*0.54237]
X5.66127 Y-2.75597 Z[#111+-0.04000]
#116=[#509+[#510-#509]*0.59817]
#117=[#513+[#514-#513]*0.59817]
#111=[#116+[#117-#116]*0.54237]
X5.66127 Y-2.87630 Z[#111+-0.04000]
#116=[#509+[#510-#509]*0.46258]
#117=[#513+[#514-#513]*0.46258]
#111=[#116+[#117-#116]*0.48949]
X5.64096 Y-2.91691 Z[#111+-0.04000]
#116=[#509+[#510-#509]*0.39816]
#117=[#513+[#514-#513]*0.39816]
#111=[#116+[#117-#116]*0.43925]
X5.62167 Y-2.93620 Z[#111+-0.04000]
#116=[#509+[#510-#509]*0.33037]
#117=[#513+[#514-#513]*0.33037]
#111=[#116+[#117-#116]*0.33349]
X5.58107 Y-2.95650 Z[#111+-0.04000]
#116=[#509+[#510-#509]*0.33037]
#117=[#513+[#514-#513]*0.33037]
#111=[#116+[#117-#116]*0.17167]
X5.51893 Y-2.95650 Z[#111+-0.04000]
#116=[#509+[#510-#509]*0.39816]
#117=[#513+[#514-#513]*0.39816]
#111=[#116+[#117-#116]*0.06592]
X5.47833 Y-2.93620 Z[#111+-0.04000]
#116=[#509+[#510-#509]*0.46258]
#117=[#513+[#514-#513]*0.46258]
#111=[#116+[#117-#116]*0.01567]
X5.45904 Y-2.91691 Z[#111+-0.04000]
#116=[#509+[#510-#509]*0.50277]
#117=[#513+[#514-#513]*0.50277]
#111=[#116+[#117-#116]*0.00000]
X5.45302 Y-2.90487 Z[#111+-0.04000]
#116=[#505+[#506-#505]*0.59817]
#117=[#509+[#510-#509]*0.59817]
#111=[#116+[#117-#116]*0.96280]
X5.43873 Y-2.87630 Z[#111+-0.04000]
G04 P0 ( dwell for no time -- G64 should not smooth over this point )
G00 Z0.08000 ( retract )

G00 X5.87556 Y-2.97659 ( rapid move to begin. )
G01 F180.00000
( Mill infeed pass 1/1 )
#116=[#513+[#514-#513]*0.26329]
#117=[#517+[#518-#517]*0.26329]
#111=[#116+[#117-#116]*0.10047]
G01 Z[-0.04000+#111]
G04 P0 ( dwell for no time -- G64 should not smooth over this point )
G01 F360.00000
#116=[#514+[#515-#514]*0.00000]
#117=[#518+[#519-#518]*0.00000]
#111=[#116+[#117-#116]*0.10049]
X5.87556 Y-2.75597 Z[#111+-0.04000]
#116=[#514+[#515-#514]*0.38040]
#117=[#518+[#519-#518]*0.38040]
#111=[#116+[#117-#116]*0.10050]
X5.87557 Y-2.64205 Z[#111+-0.04000]
#116=[#514+[#515-#514]*0.39103]
#117=[#518+[#519-#518]*0.39103]
#111=[#116+[#117-#116]*0.10153]
X5.87596 Y-2.63887 Z[#111+-0.04000]
#116=[#514+[#515-#514]*0.40256]
#117=[#518+[#519-#518]*0.40256]
#111=[#116+[#117-#116]*0.10426]
X5.87701 Y-2.63542 Z[#111+-0.04000]
#116=[#514+[#515-#514]*0.41326]
#117=[#518+[#519-#518]*0.41326]
#111=[#116+[#117-#116]*0.10860]
X5.87868 Y-2.63221 Z[#111+-0.04000]
#116=[#514+[#515-#514]*0.42276]
#117=[#518+[#519-#518]*0.42276]
#111=[#116+[#117-#116]*0.11439]
X5.88090 Y-2.62937 Z[#111+-0.04000]
#116=[#514+[#515-#514]*0.42994]
#117=[#518+[#519-#518]*0.42994]
#111=[#116+[#117-#116]*0.12059]
X5.88328 Y-2.62722 Z[#111+-0.04000]
#116=[#514+[#515-#514]*0.43635]
#117=[#518+[#519-#518]*0.43635]
#111=[#116+[#117-#116]*0.12855]
X5.88634 Y-2.62530 Z[#111+-0.04000]
#116=[#514+[#515-#514]*0.44079]
#117=[#518+[#519-#518]*0.44079]
#111=[#116+[#117-#116]*0.13729]
X5.88969 Y-2.62397 Z[#111+-0.04000]
#116=[#514+[#515-#514]*0.44296]
#117=[#518+[#519-#518]*0.44296]
#111=[#116+[#117-#116]*0.14547]
X5.89283 Y-2.62332 Z[#111+-0.04000]
#116=[#514+[#515-#514]*0.44345]
#117=[#518+[#519-#518]*0.44345]
#111=[#116+[#117-#116]*0.15173]
X5.89524 Y-2.62317 Z[#111+-0.04000]
#116=[#514+[#515-#514]*0.44296]
#117=[#518+[#519-#518]*0.44296]
#111=[#116+[#117-#116]*0.15799]
X5.89764 Y-2.62332 Z[#111+-0.04000]
#116=[#514+[#515-#514]*0.44149]
#117=[#518+[#519-#518]*0.44149]
#111=[#116+[#117-#116]*0.16415]
X5.90001 Y-2.62376 Z[#111+-0.04000]
#116=[#514+[#515-#514]*0.43954]
#117=[#518+[#519-#518]*0.43954]
#111=[#116+[#117-#116]*0.16915]
X5.90193 Y-2.62434 Z[#111+-0.04000]
#116=[#514+[#515-#514]*0.43635]
#117=[#518+[#519-#518]*0.43635]
#111=[#116+[#117-#116]*0.17491]
X5.90414 Y-2.62530 Z[#111+-0.04000]
#116=[#514+[#515-#514]*0.43228]
#117=[#518+[#519-#518]*0.43228]
#111=[#116+[#117-#116]*0.18032]
X5.90622 Y-2.62652 Z[#111+-0.04000]
#116=[#514+[#515-#514]*0.42826]
#117=[#518+[#519-#518]*0.42826]
#111=[#116+[#117-#116]*0.18450]
X5.90782 Y-2.62772 Z[#111+-0.04000]
#116=[#514+[#515-#514]*0.42276]
#117=[#518+[#519-#518]*0.42276]
#111=[#116+[#117-#116]*0.18907]
X5.90958 Y-2.62937 Z[#111+-0.04000]
#116=[#514+[#515-#514]*0.41764]
#117=[#518+[#519-#518]*0.41764]
#111=[#116+[#117-#116]*0.19246]
X5.91087 Y-2.63090 Z[#111+-0.04000]
#116=[#514+[#515-#514]*0.41097]
#117=[#518+[#519-#518]*0.41097]
#111=[#116+[#117-#116]*0.19595]
X5.91222 Y-2.63290 Z[#111+-0.04000]
#116=[#514+[#515-#514]*0.40380]
#117=[#518+[#519-#518]*0.40380]
#111=[#116+[#117-#116]*0.19879]
X5.91331 Y-2.63505 Z[#111+-0.04000]
#116=[#514+[#515-#514]*0.39752]
#117=[#518+[#519-#518]*0.39752]
#111=[#116+[#117-#116]*0.20062]
X5.91401 Y-2.63693 Z[#111+-0.04000]
#116=[#514+[#515-#514]*0.39103]
#117=[#518+[#519-#518]*0.39103]
#111=[#116+[#117-#116]*0.20193]
X5.91451 Y-2.63887 Z[#111+-0.04000]
#116=[#514+[#515-#514]*0.38441]
#117=[#518+[#519-#518]*0.38441]
#111=[#116+[#117-#116]*0.20273]
X5.91482 Y-2.64085 Z[#111+-0.04000]
#116=[#514+[#515-#514]*0.36482]
#117=[#518+[#519-#518]*0.36482]
#111=[#116+[#117-#116]*0.20300]
X5.91492 Y-2.64672 Z[#111+-0.04000]
#116=[#514+[#515-#514]*0.43709]
#117=[#518+[#519-#518]*0.43709]
#111=[#116+[#117-#116]*0.31576]
X5.95822 Y-2.62508 Z[#111+-0.04000]
#116=[#514+[#515-#514]*0.44006]
#117=[#518+[#519-#518]*0.44006]
#111=[#116+[#117-#116]*0.32151]
X5.96043 Y-2.62419 Z[#111+-0.04000]
#116=[#514+[#515-#514]*0.44237]
#117=[#518+[#519-#518]*0.44237]
#111=[#116+[#117-#116]*0.32851]
X5.96311 Y-2.62350 Z[#111+-0.04000]
#116=[#514+[#515-#514]*0.44345]
#117=[#518+[#519-#518]*0.44345]
#111=[#116+[#117-#116]*0.33776]
X5.96667 Y-2.62317 Z[#111+-0.04000]
#116=[#514+[#515-#514]*0.44333]
#117=[#518+[#519-#518]*0.44333]
#111=[#116+[#117-#116]*0.52689]
X6.03928 Y-2.62321 Z[#111+-0.04000]
#116=[#514+[#515-#514]*0.44154]
#117=[#518+[#519-#518]*0.44154]
#111=[#116+[#117-#116]*0.53607]
X6.04281 Y-2.62374 Z[#111+-0.04000]
#116=[#514+[#515-#514]*0.43709]
#117=[#518+[#519-#518]*0.43709]
#111=[#116+[#117-#116]*0.54579]
X6.04654 Y-2.62508 Z[#111+-0.04000]
#116=[#514+[#515-#514]*0.35641]
#117=[#518+[#519-#518]*0.35641]
#111=[#116+[#117-#116]*0.67165]
X6.09487 Y-2.64924 Z[#111+-0.04000]
#116=[#514+[#515-#514]*0.35230]
#117=[#518+[#519-#518]*0.35230]
#111=[#116+[#117-#116]*0.67694]
X6.09690 Y-2.65047 Z[#111+-0.04000]
#116=[#514+[#515-#514]*0.34741]
#117=[#518+[#519-#518]*0.34741]
#111=[#116+[#117-#116]*0.68181]
X6.09877 Y-2.65193 Z[#111+-0.04000]
#116=[#514+[#515-#514]*0.34181]
#117=[#518+[#519-#518]*0.34181]
#111=[#116+[#117-#116]*0.68618]
X6.10045 Y-2.65361 Z[#111+-0.04000]
#116=[#514+[#515-#514]*0.33557]
#117=[#518+[#519-#518]*0.33557]
#111=[#116+[#117-#116]*0.68999]
X6.10191 Y-2.65548 Z[#111+-0.04000]
#116=[#514+[#515-#514]*0.32761]
#117=[#518+[#519-#518]*0.32761]
#111=[#116+[#117-#116]*0.69366]
X6.10332 Y-2.65786 Z[#111+-0.04000]
#116=[#514+[#515-#514]*0.16741]
#117=[#518+[#519-#518]*0.16741]
#111=[#116+[#117-#116]*0.75613]
X6.12730 Y-2.70584 Z[#111+-0.04000]
#116=[#514+[#515-#514]*0.15495]
#117=[#518+[#519-#518]*0.15495]
#111=[#116+[#117-#116]*0.75959]
X6.12863 Y-2.70957 Z[#111+-0.04000]
#116=[#514+[#515-#514]*0.14317]
#117=[#518+[#519-#518]*0.14317]
#111=[#116+[#117-#116]*0.76099]
X6.12917 Y-2.71310 Z[#111+-0.04000]
#116=[#514+[#515-#514]*0.00000]
#117=[#518+[#519-#518]*0.00000]
#111=[#116+[#117-#116]*0.76101]
X6.12918 Y-2.75597 Z[#111+-0.04000]
#116=[#513+[#514-#513]*0.26329]
#117=[#517+[#518-#517]*0.26329]
#111=[#116+[#117-#116]*0.76107]
X6.12920 Y-2.97659 Z[#111+-0.04000]
#116=[#513+[#514-#513]*0.25527]
#117=[#517+[#518-#517]*0.25527]
#111=[#116+[#117-#116]*0.76056]
X6.12901 Y-2.97899 Z[#111+-0.04000]
#116=[#513+[#514-#513]*0.24740]
#117=[#517+[#518-#517]*0.24740]
#111=[#116+[#117-#116]*0.75929]
X6.12852 Y-2.98135 Z[#111+-0.04000]
#116=[#513+[#514-#513]*0.24103]
#117=[#517+[#518-#517]*0.24103]
#111=[#116+[#117-#116]*0.75767]
X6.12789 Y-2.98326 Z[#111+-0.04000]
#116=[#513+[#514-#513]*0.23372]
#117=[#517+[#518-#517]*0.23372]
#111=[#116+[#117-#116]*0.75506]
X6.12690 Y-2.98545 Z[#111+-0.04000]
#116=[#513+[#514-#513]*0.22686]
#117=[#517+[#518-#517]*0.22686]
#111=[#116+[#117-#116]*0.75178]
X6.12563 Y-2.98750 Z[#111+-0.04000]
#116=[#513+[#514-#513]*0.22058]
#117=[#517+[#518-#517]*0.22058]
#111=[#116+[#117-#116]*0.74787]
X6.12413 Y-2.98938 Z[#111+-0.04000]
#116=[#513+[#514-#513]*0.21584]
#117=[#517+[#518-#517]*0.21584]
#111=[#116+[#117-#116]*0.74417]
X6.12271 Y-2.99080 Z[#111+-0.04000]
#116=[#513+[#514-#513]*0.21083]
#117=[#517+[#518-#517]*0.21083]
#111=[#116+[#117-#116]*0.73927]
X6.12083 Y-2.99230 Z[#111+-0.04000]
#116=[#513+[#514-#513]*0.20662]
#117=[#517+[#518-#517]*0.20662]
#111=[#116+[#117-#116]*0.73393]
X6.11878 Y-2.99356 Z[#111+-0.04000]
#116=[#513+[#514-#513]*0.20328]
#117=[#517+[#518-#517]*0.20328]
#111=[#116+[#117-#116]*0.72822]
X6.11659 Y-2.99456 Z[#111+-0.04000]
#116=[#513+[#514-#513]*0.20054]
#117=[#517+[#518-#517]*0.20054]
#111=[#116+[#117-#116]*0.72123]
X6.11390 Y-2.99538 Z[#111+-0.04000]
#116=[#513+[#514-#513]*0.19924]
#117=[#517+[#518-#517]*0.19924]
#111=[#116+[#117-#116]*0.71504]
X6.11153 Y-2.99577 Z[#111+-0.04000]
#116=[#513+[#514-#513]*0.19891]
#117=[#517+[#518-#517]*0.19891]
#111=[#116+[#117-#116]*0.70877]
X6.10912 Y-2.99587 Z[#111+-0.04000]
#116=[#513+[#514-#513]*0.19957]
#117=[#517+[#518-#517]*0.19957]
#111=[#116+[#117-#116]*0.70252]
X6.10672 Y-2.99567 Z[#111+-0.04000]
#116=[#513+[#514-#513]*0.20156]
#117=[#517+[#518-#517]*0.20156]
#111=[#116+[#117-#116]*0.69537]
X6.10398 Y-2.99508 Z[#111+-0.04000]
#116=[#513+[#514-#513]*0.20429]
#117=[#517+[#518-#517]*0.20429]
#111=[#116+[#117-#116]*0.68948]
X6.10171 Y-2.99426 Z[#111+-0.04000]
#116=[#513+[#514-#513]*0.20793]
#117=[#517+[#518-#517]*0.20793]
#111=[#116+[#117-#116]*0.68388]
X6.09956 Y-2.99317 Z[#111+-0.04000]
#116=[#513+[#514-#513]*0.21241]
#117=[#517+[#518-#517]*0.21241]
#111=[#116+[#117-#116]*0.67868]
X6.09757 Y-2.99183 Z[#111+-0.04000]
#116=[#513+[#514-#513]*0.21768]
#117=[#517+[#518-#517]*0.21768]
#111=[#116+[#117-#116]*0.67394]
X6.09575 Y-2.99025 Z[#111+-0.04000]
#116=[#513+[#514-#513]*0.22470]
#117=[#517+[#518-#517]*0.22470]
#111=[#116+[#117-#116]*0.66909]
X6.09389 Y-2.98815 Z[#111+-0.04000]
#116=[#513+[#514-#513]*0.23254]
#117=[#517+[#518-#517]*0.23254]
#111=[#116+[#117-#116]*0.66507]
X6.09234 Y-2.98580 Z[#111+-0.04000]
#116=[#513+[#514-#513]*0.23978]
#117=[#517+[#518-#517]*0.23978]
#111=[#116+[#117-#116]*0.66235]
X6.09130 Y-2.98363 Z[#111+-0.04000]
#116=[#513+[#514-#513]*0.24740]
#117=[#517+[#518-#517]*0.24740]
#111=[#116+[#117-#116]*0.66034]
X6.09053 Y-2.98135 Z[#111+-0.04000]
#116=[#513+[#514-#513]*0.25660]
#117=[#517+[#518-#517]*0.25660]
#111=[#116+[#117-#116]*0.65893]
X6.08999 Y-2.97859 Z[#111+-0.04000]
#116=[#513+[#514-#513]*0.26463]
#117=[#517+[#518-#517]*0.26463]
#111=[#116+[#117-#116]*0.65855]
X6.08984 Y-2.97619 Z[#111+-0.04000]
#116=[#514+[#515-#514]*0.00000]
#117=[#518+[#519-#518]*0.00000]
#111=[#116+[#117-#116]*0.65855]
X6.08984 Y-2.75597 Z[#111+-0.04000]
#116=[#514+[#515-#514]*0.12369]
#117=[#518+[#519-#518]*0.12369]
#111=[#116+[#117-#116]*0.65855]
X6.08984 Y-2.71893 Z[#111+-0.04000]
#116=[#514+[#515-#514]*0.24922]
#117=[#518+[#519-#518]*0.24922]
#111=[#116+[#117-#116]*0.60960]
X6.07104 Y-2.68134 Z[#111+-0.04000]
#116=[#514+[#515-#514]*0.31198]
#117=[#518+[#519-#518]*0.31198]
#111=[#116+[#117-#116]*0.51169]
X6.03345 Y-2.66254 Z[#111+-0.04000]
#116=[#514+[#515-#514]*0.31198]
#117=[#518+[#519-#518]*0.31198]
#111=[#116+[#117-#116]*0.34986]
X5.97131 Y-2.66254 Z[#111+-0.04000]
#116=[#514+[#515-#514]*0.24419]
#117=[#518+[#519-#518]*0.24419]
#111=[#116+[#117-#116]*0.24411]
X5.93071 Y-2.68284 Z[#111+-0.04000]
#116=[#514+[#515-#514]*0.19148]
#117=[#518+[#519-#518]*0.19148]
#111=[#116+[#117-#116]*0.20300]
X5.91492 Y-2.69863 Z[#111+-0.04000]
#116=[#514+[#515-#514]*0.00000]
#117=[#518+[#519-#518]*0.00000]
#111=[#116+[#117-#116]*0.20300]
X5.91492 Y-2.75597 Z[#111+-0.04000]
#116=[#513+[#514-#513]*0.26463]
#117=[#517+[#518-#517]*0.26463]
#111=[#116+[#117-#116]*0.20300]
X5.91492 Y-2.97619 Z[#111+-0.04000]
#116=[#513+[#514-#513]*0.25660]
#117=[#517+[#518-#517]*0.25660]
#111=[#116+[#117-#116]*0.20261]
X5.91477 Y-2.97859 Z[#111+-0.04000]
#116=[#513+[#514-#513]*0.24611]
#117=[#517+[#518-#517]*0.24611]
#111=[#116+[#117-#116]*0.20092]
X5.91413 Y-2.98174 Z[#111+-0.04000]
#116=[#513+[#514-#513]*0.23732]
#117=[#517+[#518-#517]*0.23732]
#111=[#116+[#117-#116]*0.19837]
X5.91314 Y-2.98437 Z[#111+-0.04000]
#116=[#513+[#514-#513]*0.22797]
#117=[#517+[#518-#517]*0.22797]
#111=[#116+[#117-#116]*0.19428]
X5.91158 Y-2.98717 Z[#111+-0.04000]
#116=[#513+[#514-#513]*0.22058]
#117=[#517+[#518-#517]*0.22058]
#111=[#116+[#117-#116]*0.18978]
X5.90985 Y-2.98938 Z[#111+-0.04000]
#116=[#513+[#514-#513]*0.21409]
#117=[#517+[#518-#517]*0.21409]
#111=[#116+[#117-#116]*0.18450]
X5.90782 Y-2.99133 Z[#111+-0.04000]
#116=[#513+[#514-#513]*0.20862]
#117=[#517+[#518-#517]*0.20862]
#111=[#116+[#117-#116]*0.17856]
X5.90554 Y-2.99296 Z[#111+-0.04000]
#116=[#513+[#514-#513]*0.20377]
#117=[#517+[#518-#517]*0.20377]
#111=[#116+[#117-#116]*0.17111]
X5.90268 Y-2.99441 Z[#111+-0.04000]
#116=[#513+[#514-#513]*0.20085]
#117=[#517+[#518-#517]*0.20085]
#111=[#116+[#117-#116]*0.16415]
X5.90001 Y-2.99529 Z[#111+-0.04000]
#116=[#513+[#514-#513]*0.19924]
#117=[#517+[#518-#517]*0.19924]
#111=[#116+[#117-#116]*0.15695]
X5.89724 Y-2.99577 Z[#111+-0.04000]
#116=[#513+[#514-#513]*0.19902]
#117=[#517+[#518-#517]*0.19902]
#111=[#116+[#117-#116]*0.14859]
X5.89403 Y-2.99584 Z[#111+-0.04000]
#116=[#513+[#514-#513]*0.20026]
#117=[#517+[#518-#517]*0.20026]
#111=[#116+[#117-#116]*0.14134]
X5.89125 Y-2.99547 Z[#111+-0.04000]
#116=[#513+[#514-#513]*0.20328]
#117=[#517+[#518-#517]*0.20328]
#111=[#116+[#117-#116]*0.13333]
X5.88817 Y-2.99456 Z[#111+-0.04000]
#116=[#513+[#514-#513]*0.20726]
#117=[#517+[#518-#517]*0.20726]
#111=[#116+[#117-#116]*0.12670]
X5.88563 Y-2.99337 Z[#111+-0.04000]
#116=[#513+[#514-#513]*0.21241]
#117=[#517+[#518-#517]*0.21241]
#111=[#116+[#117-#116]*0.12059]
X5.88328 Y-2.99183 Z[#111+-0.04000]
#116=[#513+[#514-#513]*0.21863]
#117=[#517+[#518-#517]*0.21863]
#111=[#116+[#117-#116]*0.11511]
X5.88118 Y-2.98997 Z[#111+-0.04000]
#116=[#513+[#514-#513]*0.22686]
#117=[#517+[#518-#517]*0.22686]
#111=[#116+[#117-#116]*0.10977]
X5.87913 Y-2.98750 Z[#111+-0.04000]
#116=[#513+[#514-#513]*0.23491]
#117=[#517+[#518-#517]*0.23491]
#111=[#116+[#117-#116]*0.10600]
X5.87768 Y-2.98509 Z[#111+-0.04000]
#116=[#513+[#514-#513]*0.24483]
#117=[#517+[#518-#517]*0.24483]
#111=[#116+[#117-#116]*0.10284]
X5.87647 Y-2.98212 Z[#111+-0.04000]
#116=[#513+[#514-#513]*0.25395]
#117=[#517+[#518-#517]*0.25395]
#111=[#116+[#117-#116]*0.10114]
X5.87581 Y-2.97939 Z[#111+-0.04000]
#116=[#513+[#514-#513]*0.26329]
#117=[#517+[#518-#517]*0.26329]
#111=[#116+[#117-#116]*0.10047]
X5.87556 Y-2.97659 Z[#111+-0.04000]
G04 P0 ( dwell for no time -- G64 should not smooth over this point )
G00 Z0.08000 ( retract )

G00 X6.25650 Y-2.64286 ( rapid move to begin. )
G01 F180.00000
( Mill infeed pass 1/1 )
#116=[#518+[#519-#518]*0.37772]
#117=[#522+[#523-#522]*0.37772]
#111=[#116+[#117-#116]*0.09262]
G01 Z[-0.04000+#111]
G04 P0 ( dwell for no time -- G64 should not smooth over this point )
G01 F360.00000
#116=[#518+[#519-#518]*0.36836]
#117=[#522+[#523-#522]*0.36836]
#111=[#116+[#117-#116]*0.09314]
X6.25671 Y-2.64566 Z[#111+-0.04000]
#116=[#518+[#519-#518]*0.35792]
#117=[#522+[#523-#522]*0.35792]
#111=[#116+[#117-#116]*0.09500]
X6.25742 Y-2.64879 Z[#111+-0.04000]
#116=[#518+[#519-#518]*0.34799]
#117=[#522+[#523-#522]*0.34799]
#111=[#116+[#117-#116]*0.09816]
X6.25863 Y-2.65176 Z[#111+-0.04000]
#116=[#518+[#519-#518]*0.33995]
#117=[#522+[#523-#522]*0.33995]
#111=[#116+[#117-#116]*0.10193]
X6.26008 Y-2.65417 Z[#111+-0.04000]
#116=[#518+[#519-#518]*0.33172]
#117=[#522+[#523-#522]*0.33172]
#111=[#116+[#117-#116]*0.10727]
X6.26213 Y-2.65663 Z[#111+-0.04000]
#116=[#518+[#519-#518]*0.32550]
#117=[#522+[#523-#522]*0.32550]
#111=[#116+[#117-#116]*0.11275]
X6.26423 Y-2.65849 Z[#111+-0.04000]
#116=[#518+[#519-#518]*0.32035]
#117=[#522+[#523-#522]*0.32035]
#111=[#116+[#117-#116]*0.11886]
X6.26658 Y-2.66004 Z[#111+-0.04000]
#116=[#518+[#519-#518]*0.31590]
#117=[#522+[#523-#522]*0.31590]
#111=[#116+[#117-#116]*0.12646]
X6.26950 Y-2.66137 Z[#111+-0.04000]
#116=[#518+[#519-#518]*0.31309]
#117=[#522+[#523-#522]*0.31309]
#111=[#116+[#117-#116]*0.13453]
X6.27260 Y-2.66221 Z[#111+-0.04000]
#116=[#518+[#519-#518]*0.31204]
#117=[#522+[#523-#522]*0.31204]
#111=[#116+[#117-#116]*0.14180]
X6.27539 Y-2.66253 Z[#111+-0.04000]
#116=[#518+[#519-#518]*0.31198]
#117=[#522+[#523-#522]*0.31198]
#111=[#116+[#117-#116]*0.27865]
X6.32793 Y-2.66254 Z[#111+-0.04000]
#116=[#518+[#519-#518]*0.00000]
#117=[#522+[#523-#522]*0.00000]
#111=[#116+[#117-#116]*0.27871]
X6.32796 Y-2.75597 Z[#111+-0.04000]
#116=[#517+[#518-#517]*0.49786]
#117=[#521+[#522-#521]*0.49786]
#111=[#116+[#117-#116]*0.27882]
X6.32800 Y-2.90635 Z[#111+-0.04000]
#116=[#517+[#518-#517]*0.48612]
#117=[#521+[#522-#521]*0.48612]
#111=[#116+[#117-#116]*0.28040]
X6.32861 Y-2.90986 Z[#111+-0.04000]
#116=[#517+[#518-#517]*0.47495]
#117=[#521+[#522-#521]*0.47495]
#111=[#116+[#117-#116]*0.28361]
X6.32984 Y-2.91321 Z[#111+-0.04000]
#116=[#517+[#518-#517]*0.31011]
#117=[#521+[#522-#521]*0.31011]
#111=[#116+[#117-#116]*0.34806]
X6.35459 Y-2.96257 Z[#111+-0.04000]
#116=[#517+[#518-#517]*0.30256]
#117=[#521+[#522-#521]*0.30256]
#111=[#116+[#117-#116]*0.35222]
X6.35618 Y-2.96483 Z[#111+-0.04000]
#116=[#517+[#518-#517]*0.29673]
#117=[#521+[#522-#521]*0.29673]
#111=[#116+[#117-#116]*0.35641]
X6.35779 Y-2.96658 Z[#111+-0.04000]
#116=[#517+[#518-#517]*0.29081]
#117=[#521+[#522-#521]*0.29081]
#111=[#116+[#117-#116]*0.36195]
X6.35992 Y-2.96835 Z[#111+-0.04000]
#116=[#517+[#518-#517]*0.28657]
#117=[#521+[#522-#521]*0.28657]
#111=[#116+[#117-#116]*0.36718]
X6.36192 Y-2.96962 Z[#111+-0.04000]
#116=[#517+[#518-#517]*0.20584]
#117=[#521+[#522-#521]*0.20584]
#111=[#116+[#117-#116]*0.49302]
X6.41024 Y-2.99380 Z[#111+-0.04000]
#116=[#517+[#518-#517]*0.20318]
#117=[#521+[#522-#521]*0.20318]
#111=[#116+[#117-#116]*0.49775]
X6.41206 Y-2.99459 Z[#111+-0.04000]
#116=[#517+[#518-#517]*0.20081]
#117=[#521+[#522-#521]*0.20081]
#111=[#116+[#117-#116]*0.50367]
X6.41433 Y-2.99530 Z[#111+-0.04000]
#116=[#517+[#518-#517]*0.19938]
#117=[#521+[#522-#521]*0.19938]
#111=[#116+[#117-#116]*0.50976]
X6.41667 Y-2.99573 Z[#111+-0.04000]
#116=[#517+[#518-#517]*0.19891]
#117=[#521+[#522-#521]*0.19891]
#111=[#116+[#117-#116]*0.51492]
X6.41865 Y-2.99587 Z[#111+-0.04000]
#116=[#517+[#518-#517]*0.19895]
#117=[#521+[#522-#521]*0.19895]
#111=[#116+[#117-#116]*0.64206]
X6.46747 Y-2.99586 Z[#111+-0.04000]
#116=[#517+[#518-#517]*0.19977]
#117=[#521+[#522-#521]*0.19977]
#111=[#116+[#117-#116]*0.64830]
X6.46986 Y-2.99561 Z[#111+-0.04000]
#116=[#517+[#518-#517]*0.20156]
#117=[#521+[#522-#521]*0.20156]
#111=[#116+[#117-#116]*0.65441]
X6.47221 Y-2.99508 Z[#111+-0.04000]
#116=[#517+[#518-#517]*0.20429]
#117=[#521+[#522-#521]*0.20429]
#111=[#116+[#117-#116]*0.66031]
X6.47448 Y-2.99426 Z[#111+-0.04000]
#116=[#517+[#518-#517]*0.20862]
#117=[#521+[#522-#521]*0.20862]
#111=[#116+[#117-#116]*0.66680]
X6.47697 Y-2.99296 Z[#111+-0.04000]
#116=[#517+[#518-#517]*0.21324]
#117=[#521+[#522-#521]*0.21324]
#111=[#116+[#117-#116]*0.67193]
X6.47894 Y-2.99158 Z[#111+-0.04000]
#116=[#517+[#518-#517]*0.21863]
#117=[#521+[#522-#521]*0.21863]
#111=[#116+[#117-#116]*0.67659]
X6.48073 Y-2.98997 Z[#111+-0.04000]
#116=[#517+[#518-#517]*0.22470]
#117=[#521+[#522-#521]*0.22470]
#111=[#116+[#117-#116]*0.68070]
X6.48230 Y-2.98815 Z[#111+-0.04000]
#116=[#517+[#518-#517]*0.23023]
#117=[#521+[#522-#521]*0.23023]
#111=[#116+[#117-#116]*0.68365]
X6.48344 Y-2.98649 Z[#111+-0.04000]
#116=[#517+[#518-#517]*0.23732]
#117=[#521+[#522-#521]*0.23732]
#111=[#116+[#117-#116]*0.68660]
X6.48457 Y-2.98437 Z[#111+-0.04000]
#116=[#517+[#518-#517]*0.24483]
#117=[#521+[#522-#521]*0.24483]
#111=[#116+[#117-#116]*0.68885]
X6.48544 Y-2.98212 Z[#111+-0.04000]
#116=[#517+[#518-#517]*0.25263]
#117=[#521+[#522-#521]*0.25263]
#111=[#116+[#117-#116]*0.69038]
X6.48602 Y-2.97978 Z[#111+-0.04000]
#116=[#517+[#518-#517]*0.26061]
#117=[#521+[#522-#521]*0.26061]
#111=[#116+[#117-#116]*0.69114]
X6.48631 Y-2.97739 Z[#111+-0.04000]
#116=[#517+[#518-#517]*0.26865]
#117=[#521+[#522-#521]*0.26865]
#111=[#116+[#117-#116]*0.69114]
X6.48631 Y-2.97499 Z[#111+-0.04000]
#116=[#517+[#518-#517]*0.27663]
#117=[#521+[#522-#521]*0.27663]
#111=[#116+[#117-#116]*0.69038]
X6.48602 Y-2.97260 Z[#111+-0.04000]
#116=[#517+[#518-#517]*0.28315]
#117=[#521+[#522-#521]*0.28315]
#111=[#116+[#117-#116]*0.68916]
X6.48555 Y-2.97064 Z[#111+-0.04000]
#116=[#517+[#518-#517]*0.29071]
#117=[#521+[#522-#521]*0.29071]
#111=[#116+[#117-#116]*0.68703]
X6.48473 Y-2.96838 Z[#111+-0.04000]
#116=[#517+[#518-#517]*0.29788]
#117=[#521+[#522-#521]*0.29788]
#111=[#116+[#117-#116]*0.68419]
X6.48365 Y-2.96623 Z[#111+-0.04000]
#116=[#517+[#518-#517]*0.30456]
#117=[#521+[#522-#521]*0.30456]
#111=[#116+[#117-#116]*0.68070]
X6.48230 Y-2.96423 Z[#111+-0.04000]
#116=[#517+[#518-#517]*0.31063]
#117=[#521+[#522-#521]*0.31063]
#111=[#116+[#117-#116]*0.67659]
X6.48073 Y-2.96241 Z[#111+-0.04000]
#116=[#517+[#518-#517]*0.31517]
#117=[#521+[#522-#521]*0.31517]
#111=[#116+[#117-#116]*0.67274]
X6.47925 Y-2.96105 Z[#111+-0.04000]
#116=[#517+[#518-#517]*0.32064]
#117=[#521+[#522-#521]*0.32064]
#111=[#116+[#117-#116]*0.66680]
X6.47697 Y-2.95942 Z[#111+-0.04000]
#116=[#517+[#518-#517]*0.32549]
#117=[#521+[#522-#521]*0.32549]
#111=[#116+[#117-#116]*0.65935]
X6.47411 Y-2.95797 Z[#111+-0.04000]
#116=[#517+[#518-#517]*0.32840]
#117=[#521+[#522-#521]*0.32840]
#111=[#116+[#117-#116]*0.65239]
X6.47144 Y-2.95709 Z[#111+-0.04000]
#116=[#517+[#518-#517]*0.33014]
#117=[#521+[#522-#521]*0.33014]
#111=[#116+[#117-#116]*0.64415]
X6.46827 Y-2.95657 Z[#111+-0.04000]
#116=[#517+[#518-#517]*0.33037]
#117=[#521+[#522-#521]*0.33037]
#111=[#116+[#117-#116]*0.52805]
X6.42369 Y-2.95650 Z[#111+-0.04000]
#116=[#517+[#518-#517]*0.39313]
#117=[#521+[#522-#521]*0.39313]
#111=[#116+[#117-#116]*0.43014]
X6.38610 Y-2.93771 Z[#111+-0.04000]
#116=[#517+[#518-#517]*0.51867]
#117=[#521+[#522-#521]*0.51867]
#111=[#116+[#117-#116]*0.38119]
X6.36730 Y-2.90011 Z[#111+-0.04000]
#116=[#518+[#519-#518]*0.00000]
#117=[#522+[#523-#522]*0.00000]
#111=[#116+[#117-#116]*0.38119]
X6.36730 Y-2.75597 Z[#111+-0.04000]
#116=[#518+[#519-#518]*0.31198]
#117=[#522+[#523-#522]*0.31198]
#111=[#116+[#117-#116]*0.38119]
X6.36730 Y-2.66254 Z[#111+-0.04000]
#116=[#518+[#519-#518]*0.31198]
#117=[#522+[#523-#522]*0.31198]
#111=[#116+[#117-#116]*0.63997]
X6.46667 Y-2.66254 Z[#111+-0.04000]
#116=[#518+[#519-#518]*0.31233]
#117=[#522+[#523-#522]*0.31233]
#111=[#116+[#117-#116]*0.64519]
X6.46867 Y-2.66244 Z[#111+-0.04000]
#116=[#518+[#519-#518]*0.31335]
#117=[#522+[#523-#522]*0.31335]
#111=[#116+[#117-#116]*0.65035]
X6.47065 Y-2.66213 Z[#111+-0.04000]
#116=[#518+[#519-#518]*0.31686]
#117=[#522+[#523-#522]*0.31686]
#111=[#116+[#117-#116]*0.65935]
X6.47411 Y-2.66108 Z[#111+-0.04000]
#116=[#518+[#519-#518]*0.31971]
#117=[#522+[#523-#522]*0.31971]
#111=[#116+[#117-#116]*0.66408]
X6.47592 Y-2.66023 Z[#111+-0.04000]
#116=[#518+[#519-#518]*0.32316]
#117=[#522+[#523-#522]*0.32316]
#111=[#116+[#117-#116]*0.66856]
X6.47764 Y-2.65920 Z[#111+-0.04000]
#116=[#518+[#519-#518]*0.32717]
#117=[#522+[#523-#522]*0.32717]
#111=[#116+[#117-#116]*0.67274]
X6.47925 Y-2.65799 Z[#111+-0.04000]
#116=[#518+[#519-#518]*0.33172]
#117=[#522+[#523-#522]*0.33172]
#111=[#116+[#117-#116]*0.67659]
X6.48073 Y-2.65663 Z[#111+-0.04000]
#116=[#518+[#519-#518]*0.33673]
#117=[#522+[#523-#522]*0.33673]
#111=[#116+[#117-#116]*0.68005]
X6.48206 Y-2.65513 Z[#111+-0.04000]
#116=[#518+[#519-#518]*0.34218]
#117=[#522+[#523-#522]*0.34218]
#111=[#116+[#117-#116]*0.68310]
X6.48323 Y-2.65350 Z[#111+-0.04000]
#116=[#518+[#519-#518]*0.34799]
#117=[#522+[#523-#522]*0.34799]
#111=[#116+[#117-#116]*0.68570]
X6.48422 Y-2.65176 Z[#111+-0.04000]
#116=[#518+[#519-#518]*0.35412]
#117=[#522+[#523-#522]*0.35412]
#111=[#116+[#117-#116]*0.68782]
X6.48504 Y-2.64992 Z[#111+-0.04000]
#116=[#518+[#519-#518]*0.36572]
#117=[#522+[#523-#522]*0.36572]
#111=[#116+[#117-#116]*0.69038]
X6.48602 Y-2.64645 Z[#111+-0.04000]
#116=[#518+[#519-#518]*0.37236]
#117=[#522+[#523-#522]*0.37236]
#111=[#116+[#117-#116]*0.69107]
X6.48628 Y-2.64446 Z[#111+-0.04000]
#116=[#518+[#519-#518]*0.37906]
#117=[#522+[#523-#522]*0.37906]
#111=[#116+[#117-#116]*0.69122]
X6.48635 Y-2.64245 Z[#111+-0.04000]
#116=[#518+[#519-#518]*0.38574]
#117=[#522+[#523-#522]*0.38574]
#111=[#116+[#117-#116]*0.69085]
X6.48620 Y-2.64045 Z[#111+-0.04000]
#116=[#518+[#519-#518]*0.39235]
#117=[#522+[#523-#522]*0.39235]
#111=[#116+[#117-#116]*0.68995]
X6.48586 Y-2.63848 Z[#111+-0.04000]
#116=[#518+[#519-#518]*0.40132]
#117=[#522+[#523-#522]*0.40132]
#111=[#116+[#117-#116]*0.68782]
X6.48504 Y-2.63579 Z[#111+-0.04000]
#116=[#518+[#519-#518]*0.41097]
#117=[#522+[#523-#522]*0.41097]
#111=[#116+[#117-#116]*0.68419]
X6.48365 Y-2.63290 Z[#111+-0.04000]
#116=[#518+[#519-#518]*0.41974]
#117=[#522+[#523-#522]*0.41974]
#111=[#116+[#117-#116]*0.67939]
X6.48180 Y-2.63027 Z[#111+-0.04000]
#116=[#518+[#519-#518]*0.42651]
#117=[#522+[#523-#522]*0.42651]
#111=[#116+[#117-#116]*0.67432]
X6.47986 Y-2.62825 Z[#111+-0.04000]
#116=[#518+[#519-#518]*0.43228]
#117=[#522+[#523-#522]*0.43228]
#111=[#116+[#117-#116]*0.66856]
X6.47764 Y-2.62652 Z[#111+-0.04000]
#116=[#518+[#519-#518]*0.43751]
#117=[#522+[#523-#522]*0.43751]
#111=[#116+[#117-#116]*0.66127]
X6.47484 Y-2.62495 Z[#111+-0.04000]
#116=[#518+[#519-#518]*0.44079]
#117=[#522+[#523-#522]*0.44079]
#111=[#116+[#117-#116]*0.65441]
X6.47221 Y-2.62397 Z[#111+-0.04000]
#116=[#518+[#519-#518]*0.44296]
#117=[#522+[#523-#522]*0.44296]
#111=[#116+[#117-#116]*0.64623]
X6.46907 Y-2.62332 Z[#111+-0.04000]
#116=[#518+[#519-#518]*0.44345]
#117=[#522+[#523-#522]*0.44345]
#111=[#116+[#117-#116]*0.63997]
X6.46667 Y-2.62317 Z[#111+-0.04000]
#116=[#518+[#519-#518]*0.44345]
#117=[#522+[#523-#522]*0.44345]
#111=[#116+[#117-#116]*0.38119]
X6.36730 Y-2.62317 Z[#111+-0.04000]
#116=[#518+[#519-#518]*0.93962]
#117=[#522+[#523-#522]*0.93962]
#111=[#116+[#117-#116]*0.38102]
X6.36724 Y-2.47458 Z[#111+-0.04000]
#116=[#518+[#519-#518]*0.94889]
#117=[#522+[#523-#522]*0.94889]
#111=[#116+[#117-#116]*0.37990]
X6.36681 Y-2.47181 Z[#111+-0.04000]
#116=[#518+[#519-#518]*0.95786]
#117=[#522+[#523-#522]*0.95786]
#111=[#116+[#117-#116]*0.37777]
X6.36599 Y-2.46912 Z[#111+-0.04000]
#116=[#518+[#519-#518]*0.96635]
#117=[#522+[#523-#522]*0.96635]
#111=[#116+[#117-#116]*0.37467]
X6.36480 Y-2.46658 Z[#111+-0.04000]
#116=[#518+[#519-#518]*0.97419]
#117=[#522+[#523-#522]*0.97419]
#111=[#116+[#117-#116]*0.37065]
X6.36326 Y-2.46423 Z[#111+-0.04000]
#116=[#518+[#519-#518]*0.98122]
#117=[#522+[#523-#522]*0.98122]
#111=[#116+[#117-#116]*0.36580]
X6.36139 Y-2.46213 Z[#111+-0.04000]
#116=[#518+[#519-#518]*0.98648]
#117=[#522+[#523-#522]*0.98648]
#111=[#116+[#117-#116]*0.36106]
X6.35958 Y-2.46055 Z[#111+-0.04000]
#116=[#518+[#519-#518]*0.99164]
#117=[#522+[#523-#522]*0.99164]
#111=[#116+[#117-#116]*0.35495]
X6.35723 Y-2.45901 Z[#111+-0.04000]
#116=[#518+[#519-#518]*0.99562]
#117=[#522+[#523-#522]*0.99562]
#111=[#116+[#117-#116]*0.34832]
X6.35468 Y-2.45782 Z[#111+-0.04000]
#116=[#518+[#519-#518]*0.99770]
#117=[#522+[#523-#522]*0.99770]
#111=[#116+[#117-#116]*0.34336]
X6.35278 Y-2.45719 Z[#111+-0.04000]
#116=[#518+[#519-#518]*0.99933]
#117=[#522+[#523-#522]*0.99933]
#111=[#116+[#117-#116]*0.33722]
X6.35042 Y-2.45670 Z[#111+-0.04000]
#116=[#518+[#519-#518]*0.99994]
#117=[#522+[#523-#522]*0.99994]
#111=[#116+[#117-#116]*0.33201]
X6.34842 Y-2.45652 Z[#111+-0.04000]
#116=[#518+[#519-#518]*0.99988]
#117=[#522+[#523-#522]*0.99988]
#111=[#116+[#117-#116]*0.32679]
X6.34642 Y-2.45654 Z[#111+-0.04000]
#116=[#518+[#519-#518]*0.99889]
#117=[#522+[#523-#522]*0.99889]
#111=[#116+[#117-#116]*0.32056]
X6.34403 Y-2.45683 Z[#111+-0.04000]
#116=[#518+[#519-#518]*0.99734]
#117=[#522+[#523-#522]*0.99734]
#111=[#116+[#117-#116]*0.31548]
X6.34207 Y-2.45730 Z[#111+-0.04000]
#116=[#518+[#519-#518]*0.99512]
#117=[#522+[#523-#522]*0.99512]
#111=[#116+[#117-#116]*0.31054]
X6.34018 Y-2.45797 Z[#111+-0.04000]
#116=[#518+[#519-#518]*0.99164]
#117=[#522+[#523-#522]*0.99164]
#111=[#116+[#117-#116]*0.30489]
X6.33801 Y-2.45901 Z[#111+-0.04000]
#116=[#518+[#519-#518]*0.98807]
#117=[#522+[#523-#522]*0.98807]
#111=[#116+[#117-#116]*0.30047]
X6.33631 Y-2.46008 Z[#111+-0.04000]
#116=[#518+[#519-#518]*0.98305]
#117=[#522+[#523-#522]*0.98305]
#111=[#116+[#117-#116]*0.29556]
X6.33443 Y-2.46158 Z[#111+-0.04000]
#116=[#518+[#519-#518]*0.97831]
#117=[#522+[#523-#522]*0.97831]
#111=[#116+[#117-#116]*0.29187]
X6.33301 Y-2.46300 Z[#111+-0.04000]
#116=[#518+[#519-#518]*0.97203]
#117=[#522+[#523-#522]*0.97203]
#111=[#116+[#117-#116]*0.28796]
X6.33151 Y-2.46488 Z[#111+-0.04000]
#116=[#518+[#519-#518]*0.96635]
#117=[#522+[#523-#522]*0.96635]
#111=[#116+[#117-#116]*0.28517]
X6.33044 Y-2.46658 Z[#111+-0.04000]
#116=[#518+[#519-#518]*0.95911]
#117=[#522+[#523-#522]*0.95911]
#111=[#116+[#117-#116]*0.28246]
X6.32939 Y-2.46875 Z[#111+-0.04000]
#116=[#518+[#519-#518]*0.95278]
#117=[#522+[#523-#522]*0.95278]
#111=[#116+[#117-#116]*0.28073]
X6.32873 Y-2.47064 Z[#111+-0.04000]
#116=[#518+[#519-#518]*0.94495]
#117=[#522+[#523-#522]*0.94495]
#111=[#116+[#117-#116]*0.27933]
X6.32820 Y-2.47299 Z[#111+-0.04000]
#116=[#518+[#519-#518]*0.93426]
#117=[#522+[#523-#522]*0.93426]
#111=[#116+[#117-#116]*0.27865]
X6.32793 Y-2.47619 Z[#111+-0.04000]
#116=[#518+[#519-#518]*0.44345]
#117=[#522+[#523-#522]*0.44345]
#111=[#116+[#117-#116]*0.27865]
X6.32793 Y-2.62317 Z[#111+-0.04000]
#116=[#518+[#519-#518]*0.44333]
#117=[#522+[#523-#522]*0.44333]
#111=[#116+[#117-#116]*0.14075]
X6.27499 Y-2.62321 Z[#111+-0.04000]
#116=[#518+[#519-#518]*0.44209]
#117=[#522+[#523-#522]*0.44209]
#111=[#116+[#117-#116]*0.13350]
X6.27220 Y-2.62358 Z[#111+-0.04000]
#116=[#518+[#519-#518]*0.43907]
#117=[#522+[#523-#522]*0.43907]
#111=[#116+[#117-#116]*0.12548]
X6.26912 Y-2.62448 Z[#111+-0.04000]
#116=[#518+[#519-#518]*0.43509]
#117=[#522+[#523-#522]*0.43509]
#111=[#116+[#117-#116]*0.11886]
X6.26658 Y-2.62568 Z[#111+-0.04000]
#116=[#518+[#519-#518]*0.42994]
#117=[#522+[#523-#522]*0.42994]
#111=[#116+[#117-#116]*0.11275]
X6.26423 Y-2.62722 Z[#111+-0.04000]
#116=[#518+[#519-#518]*0.42372]
#117=[#522+[#523-#522]*0.42372]
#111=[#116+[#117-#116]*0.10727]
X6.26213 Y-2.62908 Z[#111+-0.04000]
#116=[#518+[#519-#518]*0.41548]
#117=[#522+[#523-#522]*0.41548]
#111=[#116+[#117-#116]*0.10193]
X6.26008 Y-2.63155 Z[#111+-0.04000]
#116=[#518+[#519-#518]*0.40744]
#117=[#522+[#523-#522]*0.40744]
#111=[#116+[#117-#116]*0.09816]
X6.25863 Y-2.63395 Z[#111+-0.04000]
#116=[#518+[#519-#518]*0.39752]
#117=[#522+[#523-#522]*0.39752]
#111=[#116+[#117-#116]*0.09500]
X6.25742 Y-2.63693 Z[#111+-0.04000]
#116=[#518+[#519-#518]*0.38707]
#117=[#522+[#523-#522]*0.38707]
#111=[#116+[#117-#116]*0.09314]
X6.25671 Y-2.64005 Z[#111+-0.04000]
#116=[#518+[#519-#518]*0.37772]
#117=[#522+[#523-#522]*0.37772]
#111=[#116+[#117-#116]*0.09262]
X6.25650 Y-2.64286 Z[#111+-0.04000]
G04 P0 ( dwell for no time -- G64 should not smooth over this point )
G00 Z0.08000 ( retract )

G00 X6.49510 Y-3.30041 ( rapid move to begin. )
G01 F180.00000
( Mill infeed pass 1/1 )
#116=[#516+[#517-#516]*0.18198]
#117=[#520+[#521-#520]*0.18198]
#111=[#116+[#117-#116]*0.71401]
G01 Z[-0.04000+#111]
G04 P0 ( dwell for no time -- G64 should not smooth over this point )
G01 F360.00000
#116=[#516+[#517-#516]*0.17931]
#117=[#520+[#521-#520]*0.17931]
#111=[#116+[#117-#116]*0.71436]
X6.49523 Y-3.30121 Z[#111+-0.04000]
#116=[#516+[#517-#516]*0.17552]
#117=[#520+[#521-#520]*0.17552]
#111=[#116+[#117-#116]*0.71551]
X6.49567 Y-3.30234 Z[#111+-0.04000]
#116=[#516+[#517-#516]*0.17125]
#117=[#520+[#521-#520]*0.17125]
#111=[#116+[#117-#116]*0.71810]
X6.49667 Y-3.30362 Z[#111+-0.04000]
#116=[#516+[#517-#516]*0.16829]
#117=[#520+[#521-#520]*0.16829]
#111=[#116+[#117-#116]*0.72164]
X6.49802 Y-3.30451 Z[#111+-0.04000]
#116=[#516+[#517-#516]*0.16696]
#117=[#520+[#521-#520]*0.16696]
#111=[#116+[#117-#116]*0.72573]
X6.49959 Y-3.30490 Z[#111+-0.04000]
#116=[#516+[#517-#516]*0.16691]
#117=[#520+[#521-#520]*0.16691]
#111=[#116+[#117-#116]*0.84419]
X6.54508 Y-3.30492 Z[#111+-0.04000]
#116=[#516+[#517-#516]*0.01502]
#117=[#520+[#521-#520]*0.01502]
#111=[#116+[#117-#116]*0.84423]
X6.54509 Y-3.35041 Z[#111+-0.04000]
#116=[#516+[#517-#516]*0.01234]
#117=[#520+[#521-#520]*0.01234]
#111=[#116+[#117-#116]*0.84458]
X6.54523 Y-3.35121 Z[#111+-0.04000]
#116=[#516+[#517-#516]*0.00856]
#117=[#520+[#521-#520]*0.00856]
#111=[#116+[#117-#116]*0.84573]
X6.54567 Y-3.35234 Z[#111+-0.04000]
#116=[#516+[#517-#516]*0.00628]
#117=[#520+[#521-#520]*0.00628]
#111=[#116+[#117-#116]*0.84689]
X6.54612 Y-3.35302 Z[#111+-0.04000]
#116=[#516+[#517-#516]*0.00341]
#117=[#520+[#521-#520]*0.00341]
#111=[#116+[#117-#116]*0.84913]
X6.54698 Y-3.35388 Z[#111+-0.04000]
#116=[#516+[#517-#516]*0.00192]
#117=[#520+[#521-#520]*0.00192]
#111=[#116+[#117-#116]*0.85090]
X6.54766 Y-3.35433 Z[#111+-0.04000]
#116=[#516+[#517-#516]*0.00045]
#117=[#520+[#521-#520]*0.00045]
#111=[#116+[#117-#116]*0.85386]
X6.54879 Y-3.35477 Z[#111+-0.04000]
#111=[#516+[#520-#516]*0.85806]
X6.55041 Y-3.35490 Z[#111+-0.04000]
#116=[#516+[#517-#516]*0.00045]
#117=[#520+[#521-#520]*0.00045]
#111=[#116+[#117-#116]*0.86015]
X6.55121 Y-3.35477 Z[#111+-0.04000]
#116=[#516+[#517-#516]*0.00192]
#117=[#520+[#521-#520]*0.00192]
#111=[#116+[#117-#116]*0.86311]
X6.55234 Y-3.35433 Z[#111+-0.04000]
#116=[#516+[#517-#516]*0.00525]
#117=[#520+[#521-#520]*0.00525]
#111=[#116+[#117-#116]*0.86643]
X6.55362 Y-3.35333 Z[#111+-0.04000]
#116=[#516+[#517-#516]*0.00978]
#117=[#520+[#521-#520]*0.00978]
#111=[#116+[#117-#116]*0.86874]
X6.55451 Y-3.35198 Z[#111+-0.04000]
#116=[#516+[#517-#516]*0.01502]
#117=[#520+[#521-#520]*0.01502]
#111=[#116+[#117-#116]*0.86978]
X6.55490 Y-3.35041 Z[#111+-0.04000]
#116=[#516+[#517-#516]*0.16691]
#117=[#520+[#521-#520]*0.16691]
#111=[#116+[#117-#116]*0.86982]
X6.55492 Y-3.30492 Z[#111+-0.04000]
#116=[#516+[#517-#516]*0.16696]
#117=[#520+[#521-#520]*0.16696]
#111=[#116+[#117-#116]*0.98829]
X6.60041 Y-3.30490 Z[#111+-0.04000]
#116=[#516+[#517-#516]*0.16741]
#117=[#520+[#521-#520]*0.16741]
#111=[#116+[#117-#116]*0.99037]
X6.60121 Y-3.30477 Z[#111+-0.04000]
#116=[#516+[#517-#516]*0.16889]
#117=[#520+[#521-#520]*0.16889]
#111=[#116+[#117-#116]*0.99333]
X6.60234 Y-3.30433 Z[#111+-0.04000]
#116=[#516+[#517-#516]*0.17037]
#117=[#520+[#521-#520]*0.17037]
#111=[#116+[#117-#116]*0.99510]
X6.60302 Y-3.30388 Z[#111+-0.04000]
#116=[#516+[#517-#516]*0.17325]
#117=[#520+[#521-#520]*0.17325]
#111=[#116+[#117-#116]*0.99734]
X6.60388 Y-3.30302 Z[#111+-0.04000]
#116=[#516+[#517-#516]*0.17552]
#117=[#520+[#521-#520]*0.17552]
#111=[#116+[#117-#116]*0.99850]
X6.60433 Y-3.30234 Z[#111+-0.04000]
#116=[#516+[#517-#516]*0.17931]
#117=[#520+[#521-#520]*0.17931]
#111=[#116+[#117-#116]*0.99965]
X6.60477 Y-3.30121 Z[#111+-0.04000]
#111=[#520+[#521-#520]*0.18470]
X6.60490 Y-3.29959 Z[#111+-0.04000]
#116=[#516+[#517-#516]*0.18738]
#117=[#520+[#521-#520]*0.18738]
#111=[#116+[#117-#116]*0.99965]
X6.60477 Y-3.29879 Z[#111+-0.04000]
#116=[#516+[#517-#516]*0.19116]
#117=[#520+[#521-#520]*0.19116]
#111=[#116+[#117-#116]*0.99850]
X6.60433 Y-3.29766 Z[#111+-0.04000]
#116=[#516+[#517-#516]*0.19543]
#117=[#520+[#521-#520]*0.19543]
#111=[#116+[#117-#116]*0.99591]
X6.60333 Y-3.29638 Z[#111+-0.04000]
#116=[#516+[#517-#516]*0.19839]
#117=[#520+[#521-#520]*0.19839]
#111=[#116+[#117-#116]*0.99237]
X6.60198 Y-3.29549 Z[#111+-0.04000]
#116=[#516+[#517-#516]*0.19972]
#117=[#520+[#521-#520]*0.19972]
#111=[#116+[#117-#116]*0.98829]
X6.60041 Y-3.29509 Z[#111+-0.04000]
#116=[#516+[#517-#516]*0.19978]
#117=[#520+[#521-#520]*0.19978]
#111=[#116+[#117-#116]*0.86982]
X6.55492 Y-3.29508 Z[#111+-0.04000]
#116=[#516+[#517-#516]*0.35166]
#117=[#520+[#521-#520]*0.35166]
#111=[#116+[#117-#116]*0.86978]
X6.55490 Y-3.24959 Z[#111+-0.04000]
#116=[#516+[#517-#516]*0.35434]
#117=[#520+[#521-#520]*0.35434]
#111=[#116+[#117-#116]*0.86943]
X6.55477 Y-3.24879 Z[#111+-0.04000]
#116=[#516+[#517-#516]*0.35813]
#117=[#520+[#521-#520]*0.35813]
#111=[#116+[#117-#116]*0.86828]
X6.55433 Y-3.24766 Z[#111+-0.04000]
#116=[#516+[#517-#516]*0.36040]
#117=[#520+[#521-#520]*0.36040]
#111=[#116+[#117-#116]*0.86712]
X6.55388 Y-3.24698 Z[#111+-0.04000]
#116=[#516+[#517-#516]*0.36327]
#117=[#520+[#521-#520]*0.36327]
#111=[#116+[#117-#116]*0.86488]
X6.55302 Y-3.24612 Z[#111+-0.04000]
#116=[#516+[#517-#516]*0.36476]
#117=[#520+[#521-#520]*0.36476]
#111=[#116+[#117-#116]*0.86311]
X6.55234 Y-3.24567 Z[#111+-0.04000]
#116=[#516+[#517-#516]*0.36623]
#117=[#520+[#521-#520]*0.36623]
#111=[#116+[#117-#116]*0.86015]
X6.55121 Y-3.24523 Z[#111+-0.04000]
#116=[#516+[#517-#516]*0.36668]
#117=[#520+[#521-#520]*0.36668]
#111=[#116+[#117-#116]*0.85595]
X6.54959 Y-3.24510 Z[#111+-0.04000]
#116=[#516+[#517-#516]*0.36623]
#117=[#520+[#521-#520]*0.36623]
#111=[#116+[#117-#116]*0.85386]
X6.54879 Y-3.24523 Z[#111+-0.04000]
#116=[#516+[#517-#516]*0.36476]
#117=[#520+[#521-#520]*0.36476]
#111=[#116+[#117-#116]*0.85090]
X6.54766 Y-3.24567 Z[#111+-0.04000]
#116=[#516+[#517-#516]*0.36144]
#117=[#520+[#521-#520]*0.36144]
#111=[#116+[#117-#116]*0.84758]
X6.54638 Y-3.24667 Z[#111+-0.04000]
#116=[#516+[#517-#516]*0.35690]
#117=[#520+[#521-#520]*0.35690]
#111=[#116+[#117-#116]*0.84527]
X6.54549 Y-3.24802 Z[#111+-0.04000]
#116=[#516+[#517-#516]*0.35166]
#117=[#520+[#521-#520]*0.35166]
#111=[#116+[#117-#116]*0.84423]
X6.54509 Y-3.24959 Z[#111+-0.04000]
#116=[#516+[#517-#516]*0.19978]
#117=[#520+[#521-#520]*0.19978]
#111=[#116+[#117-#116]*0.84419]
X6.54508 Y-3.29508 Z[#111+-0.04000]
#116=[#516+[#517-#516]*0.19978]
#117=[#520+[#521-#520]*0.19978]
#111=[#116+[#117-#116]*0.72679]
X6.50000 Y-3.29508 Z[#111+-0.04000]
#116=[#516+[#517-#516]*0.19927]
#117=[#520+[#521-#520]*0.19927]
#111=[#116+[#117-#116]*0.72364]
X6.49879 Y-3.29523 Z[#111+-0.04000]
#116=[#516+[#517-#516]*0.19710]
#117=[#520+[#521-#520]*0.19710]
#111=[#116+[#117-#116]*0.71977]
X6.49731 Y-3.29588 Z[#111+-0.04000]
#116=[#516+[#517-#516]*0.19343]
#117=[#520+[#521-#520]*0.19343]
#111=[#116+[#117-#116]*0.71667]
X6.49612 Y-3.29698 Z[#111+-0.04000]
#116=[#516+[#517-#516]*0.19116]
#117=[#520+[#521-#520]*0.19116]
#111=[#116+[#117-#116]*0.71551]
X6.49567 Y-3.29766 Z[#111+-0.04000]
#116=[#516+[#517-#516]*0.18738]
#117=[#520+[#521-#520]*0.18738]
#111=[#116+[#117-#116]*0.71436]
X6.49523 Y-3.29879 Z[#111+-0.04000]
#116=[#516+[#517-#516]*0.18198]
#117=[#520+[#521-#520]*0.18198]
#111=[#116+[#117-#116]*0.71401]
X6.49510 Y-3.30041 Z[#111+-0.04000]

G04 P0 ( dwell for no time -- G64 should not smooth over this point )
G00 Z1.000000 ( retract )

M5 ( Spindle off. )
G04 P1.000000
M9 ( Coolant off. )
M2 ( Program end. )

