( pcb2gcode 2.0.0 )
( Gcode for custom )

G94 ( Inches per minute feed rate. )
G20 ( Units == INCHES. )

G90 ( Absolute coordinates. )
G00 S12000 ( RPM spindle speed. )
G64 P0.00040 ( set maximum deviation from commanded toolpath )
G01 F360.00000 ( Feedrate. )

#118 = #5211
#119 = #5212

(MSG, Attach the probe tool)
M0 ( Temporary machine stop. )
G0 Z0.080 ( Move Z to safe height )
G0 X4.68308 Y-3.35689 ( Move XY to start point )
G0 Z0.080 ( Move Z to probe height )
G38.2 Z-0.1 F2.362205 ( Z-probe )
#500 = 0 ( Probe point [0, 0] is our reference )
G92 Z0 ( Set the current Z as zero-value )

( We now start the real probing: move the Z axis to the probing height, move to )
( the probing XY position, probe it and save the result, parameter #2002, )
( in a numbered parameter; we will make 17 probes on the X-axis and )
( 7 probes on the Y-axis, for a grand total of 119 probes )

G0 Z0.080
X4.68308 Y-2.99416
G38.2 Z-0.1 F2.362205
#501=#2002
G0 Z0.080
X4.68308 Y-2.63143
G38.2 Z-0.1 F2.362205
#502=#2002
G0 Z0.080
X4.68308 Y-2.26869
G38.2 Z-0.1 F2.362205
#503=#2002
G0 Z0.080
X4.68308 Y-1.90596
G38.2 Z-0.1 F2.362205
#504=#2002
G0 Z0.080
X4.68308 Y-1.54322
G38.2 Z-0.1 F2.362205
#505=#2002
G0 Z0.080
X4.68308 Y-1.18049
G38.2 Z-0.1 F2.362205
#506=#2002
G0 Z0.080
X5.07507 Y-1.18049
G38.2 Z-0.1 F2.362205
#513=#2002
G0 Z0.080
X5.07507 Y-1.54322
G38.2 Z-0.1 F2.362205
#512=#2002
G0 Z0.080
X5.07507 Y-1.90596
G38.2 Z-0.1 F2.362205
#511=#2002
G0 Z0.080
X5.07507 Y-2.26869
G38.2 Z-0.1 F2.362205
#510=#2002
G0 Z0.080
X5.07507 Y-2.63143
G38.2 Z-0.1 F2.362205
#509=#2002
G0 Z0.080
X5.07507 Y-2.99416
G38.2 Z-0.1 F2.362205
#508=#2002
G0 Z0.080
X5.07507 Y-3.35689
G38.2 Z-0.1 F2.362205
#507=#2002
G0 Z0.080
X5.46706 Y-3.35689
G38.2 Z-0.1 F2.362205
#514=#2002
G0 Z0.080
X5.46706 Y-2.99416
G38.2 Z-0.1 F2.362205
#515=#2002
G0 Z0.080
X5.46706 Y-2.63143
G38.2 Z-0.1 F2.362205
#516=#2002
G0 Z0.080
X5.46706 Y-2.26869
G38.2 Z-0.1 F2.362205
#517=#2002
G0 Z0.080
X5.46706 Y-1.90596
G38.2 Z-0.1 F2.362205
#518=#2002
G0 Z0.080
X5.46706 Y-1.54322
G38.2 Z-0.1 F2.362205
#519=#2002
G0 Z0.080
X5.46706 Y-1.18049
G38.2 Z-0.1 F2.362205
#520=#2002
G0 Z0.080
X5.85905 Y-1.18049
G38.2 Z-0.1 F2.362205
#527=#2002
G0 Z0.080
X5.85905 Y-1.54322
G38.2 Z-0.1 F2.362205
#526=#2002
G0 Z0.080
X5.85905 Y-1.90596
G38.2 Z-0.1 F2.362205
#525=#2002
G0 Z0.080
X5.85905 Y-2.26869
G38.2 Z-0.1 F2.362205
#524=#2002
G0 Z0.080
X5.85905 Y-2.63143
G38.2 Z-0.1 F2.362205
#523=#2002
G0 Z0.080
X5.85905 Y-2.99416
G38.2 Z-0.1 F2.362205
#522=#2002
G0 Z0.080
X5.85905 Y-3.35689
G38.2 Z-0.1 F2.362205
#521=#2002
G0 Z0.080
X6.25104 Y-3.35689
G38.2 Z-0.1 F2.362205
#528=#2002
G0 Z0.080
X6.25104 Y-2.99416
G38.2 Z-0.1 F2.362205
#529=#2002
G0 Z0.080
X6.25104 Y-2.63143
G38.2 Z-0.1 F2.362205
#530=#2002
G0 Z0.080
X6.25104 Y-2.26869
G38.2 Z-0.1 F2.362205
#531=#2002
G0 Z0.080
X6.25104 Y-1.90596
G38.2 Z-0.1 F2.362205
#532=#2002
G0 Z0.080
X6.25104 Y-1.54322
G38.2 Z-0.1 F2.362205
#533=#2002
G0 Z0.080
X6.25104 Y-1.18049
G38.2 Z-0.1 F2.362205
#534=#2002
G0 Z0.080
X6.64303 Y-1.18049
G38.2 Z-0.1 F2.362205
#541=#2002
G0 Z0.080
X6.64303 Y-1.54322
G38.2 Z-0.1 F2.362205
#540=#2002
G0 Z0.080
X6.64303 Y-1.90596
G38.2 Z-0.1 F2.362205
#539=#2002
G0 Z0.080
X6.64303 Y-2.26869
G38.2 Z-0.1 F2.362205
#538=#2002
G0 Z0.080
X6.64303 Y-2.63143
G38.2 Z-0.1 F2.362205
#537=#2002
G0 Z0.080
X6.64303 Y-2.99416
G38.2 Z-0.1 F2.362205
#536=#2002
G0 Z0.080
X6.64303 Y-3.35689
G38.2 Z-0.1 F2.362205
#535=#2002
G0 Z0.080
X7.03502 Y-3.35689
G38.2 Z-0.1 F2.362205
#542=#2002
G0 Z0.080
X7.03502 Y-2.99416
G38.2 Z-0.1 F2.362205
#543=#2002
G0 Z0.080
X7.03502 Y-2.63143
G38.2 Z-0.1 F2.362205
#544=#2002
G0 Z0.080
X7.03502 Y-2.26869
G38.2 Z-0.1 F2.362205
#545=#2002
G0 Z0.080
X7.03502 Y-1.90596
G38.2 Z-0.1 F2.362205
#546=#2002
G0 Z0.080
X7.03502 Y-1.54322
G38.2 Z-0.1 F2.362205
#547=#2002
G0 Z0.080
X7.03502 Y-1.18049
G38.2 Z-0.1 F2.362205
#548=#2002
G0 Z0.080
X7.42701 Y-1.18049
G38.2 Z-0.1 F2.362205
#555=#2002
G0 Z0.080
X7.42701 Y-1.54322
G38.2 Z-0.1 F2.362205
#554=#2002
G0 Z0.080
X7.42701 Y-1.90596
G38.2 Z-0.1 F2.362205
#553=#2002
G0 Z0.080
X7.42701 Y-2.26869
G38.2 Z-0.1 F2.362205
#552=#2002
G0 Z0.080
X7.42701 Y-2.63143
G38.2 Z-0.1 F2.362205
#551=#2002
G0 Z0.080
X7.42701 Y-2.99416
G38.2 Z-0.1 F2.362205
#550=#2002
G0 Z0.080
X7.42701 Y-3.35689
G38.2 Z-0.1 F2.362205
#549=#2002
G0 Z0.080
X7.81900 Y-3.35689
G38.2 Z-0.1 F2.362205
#556=#2002
G0 Z0.080
X7.81900 Y-2.99416
G38.2 Z-0.1 F2.362205
#557=#2002
G0 Z0.080
X7.81900 Y-2.63143
G38.2 Z-0.1 F2.362205
#558=#2002
G0 Z0.080
X7.81900 Y-2.26869
G38.2 Z-0.1 F2.362205
#559=#2002
G0 Z0.080
X7.81900 Y-1.90596
G38.2 Z-0.1 F2.362205
#560=#2002
G0 Z0.080
X7.81900 Y-1.54322
G38.2 Z-0.1 F2.362205
#561=#2002
G0 Z0.080
X7.81900 Y-1.18049
G38.2 Z-0.1 F2.362205
#562=#2002
G0 Z0.080
X8.21099 Y-1.18049
G38.2 Z-0.1 F2.362205
#569=#2002
G0 Z0.080
X8.21099 Y-1.54322
G38.2 Z-0.1 F2.362205
#568=#2002
G0 Z0.080
X8.21099 Y-1.90596
G38.2 Z-0.1 F2.362205
#567=#2002
G0 Z0.080
X8.21099 Y-2.26869
G38.2 Z-0.1 F2.362205
#566=#2002
G0 Z0.080
X8.21099 Y-2.63143
G38.2 Z-0.1 F2.362205
#565=#2002
G0 Z0.080
X8.21099 Y-2.99416
G38.2 Z-0.1 F2.362205
#564=#2002
G0 Z0.080
X8.21099 Y-3.35689
G38.2 Z-0.1 F2.362205
#563=#2002
G0 Z0.080
X8.60298 Y-3.35689
G38.2 Z-0.1 F2.362205
#570=#2002
G0 Z0.080
X8.60298 Y-2.99416
G38.2 Z-0.1 F2.362205
#571=#2002
G0 Z0.080
X8.60298 Y-2.63143
G38.2 Z-0.1 F2.362205
#572=#2002
G0 Z0.080
X8.60298 Y-2.26869
G38.2 Z-0.1 F2.362205
#573=#2002
G0 Z0.080
X8.60298 Y-1.90596
G38.2 Z-0.1 F2.362205
#574=#2002
G0 Z0.080
X8.60298 Y-1.54322
G38.2 Z-0.1 F2.362205
#575=#2002
G0 Z0.080
X8.60298 Y-1.18049
G38.2 Z-0.1 F2.362205
#576=#2002
G0 Z0.080
X8.99497 Y-1.18049
G38.2 Z-0.1 F2.362205
#583=#2002
G0 Z0.080
X8.99497 Y-1.54322
G38.2 Z-0.1 F2.362205
#582=#2002
G0 Z0.080
X8.99497 Y-1.90596
G38.2 Z-0.1 F2.362205
#581=#2002
G0 Z0.080
X8.99497 Y-2.26869
G38.2 Z-0.1 F2.362205
#580=#2002
G0 Z0.080
X8.99497 Y-2.63143
G38.2 Z-0.1 F2.362205
#579=#2002
G0 Z0.080
X8.99497 Y-2.99416
G38.2 Z-0.1 F2.362205
#578=#2002
G0 Z0.080
X8.99497 Y-3.35689
G38.2 Z-0.1 F2.362205
#577=#2002
G0 Z0.080
X9.38696 Y-3.35689
G38.2 Z-0.1 F2.362205
#584=#2002
G0 Z0.080
X9.38696 Y-2.99416
G38.2 Z-0.1 F2.362205
#585=#2002
G0 Z0.080
X9.38696 Y-2.63143
G38.2 Z-0.1 F2.362205
#586=#2002
G0 Z0.080
X9.38696 Y-2.26869
G38.2 Z-0.1 F2.362205
#587=#2002
G0 Z0.080
X9.38696 Y-1.90596
G38.2 Z-0.1 F2.362205
#588=#2002
G0 Z0.080
X9.38696 Y-1.54322
G38.2 Z-0.1 F2.362205
#589=#2002
G0 Z0.080
X9.38696 Y-1.18049
G38.2 Z-0.1 F2.362205
#590=#2002
G0 Z0.080
X9.77895 Y-1.18049
G38.2 Z-0.1 F2.362205
#597=#2002
G0 Z0.080
X9.77895 Y-1.54322
G38.2 Z-0.1 F2.362205
#596=#2002
G0 Z0.080
X9.77895 Y-1.90596
G38.2 Z-0.1 F2.362205
#595=#2002
G0 Z0.080
X9.77895 Y-2.26869
G38.2 Z-0.1 F2.362205
#594=#2002
G0 Z0.080
X9.77895 Y-2.63143
G38.2 Z-0.1 F2.362205
#593=#2002
G0 Z0.080
X9.77895 Y-2.99416
G38.2 Z-0.1 F2.362205
#592=#2002
G0 Z0.080
X9.77895 Y-3.35689
G38.2 Z-0.1 F2.362205
#591=#2002
G0 Z0.080
X10.17094 Y-3.35689
G38.2 Z-0.1 F2.362205
#598=#2002
G0 Z0.080
X10.17094 Y-2.99416
G38.2 Z-0.1 F2.362205
#599=#2002
G0 Z0.080
X10.17094 Y-2.63143
G38.2 Z-0.1 F2.362205
#600=#2002
G0 Z0.080
X10.17094 Y-2.26869
G38.2 Z-0.1 F2.362205
#601=#2002
G0 Z0.080
X10.17094 Y-1.90596
G38.2 Z-0.1 F2.362205
#602=#2002
G0 Z0.080
X10.17094 Y-1.54322
G38.2 Z-0.1 F2.362205
#603=#2002
G0 Z0.080
X10.17094 Y-1.18049
G38.2 Z-0.1 F2.362205
#604=#2002
G0 Z0.080
X10.56293 Y-1.18049
G38.2 Z-0.1 F2.362205
#611=#2002
G0 Z0.080
X10.56293 Y-1.54322
G38.2 Z-0.1 F2.362205
#610=#2002
G0 Z0.080
X10.56293 Y-1.90596
G38.2 Z-0.1 F2.362205
#609=#2002
G0 Z0.080
X10.56293 Y-2.26869
G38.2 Z-0.1 F2.362205
#608=#2002
G0 Z0.080
X10.56293 Y-2.63143
G38.2 Z-0.1 F2.362205
#607=#2002
G0 Z0.080
X10.56293 Y-2.99416
G38.2 Z-0.1 F2.362205
#606=#2002
G0 Z0.080
X10.56293 Y-3.35689
G38.2 Z-0.1 F2.362205
#605=#2002
G0 Z0.080
X10.95493 Y-3.35689
G38.2 Z-0.1 F2.362205
#612=#2002
G0 Z0.080
X10.95493 Y-2.99416
G38.2 Z-0.1 F2.362205
#613=#2002
G0 Z0.080
X10.95493 Y-2.63143
G38.2 Z-0.1 F2.362205
#614=#2002
G0 Z0.080
X10.95493 Y-2.26869
G38.2 Z-0.1 F2.362205
#615=#2002
G0 Z0.080
X10.95493 Y-1.90596
G38.2 Z-0.1 F2.362205
#616=#2002
G0 Z0.080
X10.95493 Y-1.54322
G38.2 Z-0.1 F2.362205
#617=#2002
G0 Z0.080
X10.95493 Y-1.18049
G38.2 Z-0.1 F2.362205
#618=#2002

G0 Z0.080 ( Move Z to safe height )
( Probing has ended, each Z-coordinate will be corrected with a bilinear interpolation )
(MSG, Detach the probe tool)
M0 ( Temporary machine stop. )

#4 = -0.04000


G00 Z1.00000 (Retract to tool change height)
T0
M5      (Spindle stop.)
G04 P1.00000 (Wait for spindle to stop)
(MSG, Change tool bit to mill diameter 0.00000in)
M6      (Tool change.)
M0      (Temporary machine stop.)
M3 ( Spindle on clockwise. )
G04 P1.00000 (Wait for spindle to get up to speed)
( Piece #1, position [0;0] )

G04 P0 ( dwell for no time -- G64 should not smooth over this point )
G00 Z0.08000 ( retract )

G00 X4.68508 Y-2.97619 ( rapid move to begin. )
G01 F180.00000
#1=[#501+[#502-#501]*0.04954]
#2=[#508+[#509-#508]*0.04954]
#3=[#1+[#2-#1]*0.00510]
G01 Z[-0.04000+#111]
G04 P0 ( dwell for no time -- G64 should not smooth over this point )
G01 F360.00000
#1=[#501+[#502-#501]*0.73875]
#2=[#508+[#509-#508]*0.73875]
#3=[#1+[#2-#1]*0.00510]
X4.68508 Y-2.72619 Z[#3+#4]
#1=[#502+[#503-#502]*0.42796]
#2=[#509+[#510-#509]*0.42796]
#3=[#1+[#2-#1]*0.00510]
X4.68508 Y-2.47619 Z[#3+#4]
#1=[#502+[#503-#502]*0.44873]
#2=[#509+[#510-#509]*0.44873]
#3=[#1+[#2-#1]*0.00893]
X4.68658 Y-2.46866 Z[#3+#4]
#1=[#502+[#503-#502]*0.45811]
#2=[#509+[#510-#509]*0.45811]
#3=[#1+[#2-#1]*0.01357]
X4.68839 Y-2.46525 Z[#3+#4]
#1=[#502+[#503-#502]*0.47308]
#2=[#509+[#510-#509]*0.47308]
#3=[#1+[#2-#1]*0.02742]
X4.69383 Y-2.45982 Z[#3+#4]
#1=[#502+[#503-#502]*0.47810]
#2=[#509+[#510-#509]*0.47810]
#3=[#1+[#2-#1]*0.03610]
X4.69723 Y-2.45800 Z[#3+#4]
#1=[#502+[#503-#502]*0.48223]
#2=[#509+[#510-#509]*0.48223]
#3=[#1+[#2-#1]*0.05532]
X4.70476 Y-2.45650 Z[#3+#4]
#1=[#502+[#503-#502]*0.48223]
#2=[#509+[#510-#509]*0.48223]
#3=[#1+[#2-#1]*0.66272]
X4.94286 Y-2.45650 Z[#3+#4]
#1=[#502+[#503-#502]*0.48104]
#2=[#509+[#510-#509]*0.48104]
#3=[#1+[#2-#1]*0.67316]
X4.94695 Y-2.45694 Z[#3+#4]
#1=[#502+[#503-#502]*0.47754]
#2=[#509+[#510-#509]*0.47754]
#3=[#1+[#2-#1]*0.68315]
X4.95086 Y-2.45821 Z[#3+#4]
#1=[#502+[#503-#502]*0.47187]
#2=[#509+[#510-#509]*0.47187]
#3=[#1+[#2-#1]*0.69224]
X4.95443 Y-2.46026 Z[#3+#4]
#1=[#502+[#503-#502]*0.46427]
#2=[#509+[#510-#509]*0.46427]
#3=[#1+[#2-#1]*0.70004]
X4.95749 Y-2.46302 Z[#3+#4]
#1=[#502+[#503-#502]*0.45510]
#2=[#509+[#510-#509]*0.45510]
#3=[#1+[#2-#1]*0.70621]
X4.95990 Y-2.46635 Z[#3+#4]
#1=[#502+[#503-#502]*0.44473]
#2=[#509+[#510-#509]*0.44473]
#3=[#1+[#2-#1]*0.71048]
X4.96158 Y-2.47011 Z[#3+#4]
#1=[#502+[#503-#502]*0.43363]
#2=[#509+[#510-#509]*0.43363]
#3=[#1+[#2-#1]*0.71267]
X4.96243 Y-2.47413 Z[#3+#4]
#1=[#502+[#503-#502]*0.42229]
#2=[#509+[#510-#509]*0.42229]
#3=[#1+[#2-#1]*0.71267]
X4.96243 Y-2.47825 Z[#3+#4]
#1=[#502+[#503-#502]*0.41119]
#2=[#509+[#510-#509]*0.41119]
#3=[#1+[#2-#1]*0.71048]
X4.96158 Y-2.48227 Z[#3+#4]
#1=[#502+[#503-#502]*0.40083]
#2=[#509+[#510-#509]*0.40083]
#3=[#1+[#2-#1]*0.70621]
X4.95990 Y-2.48603 Z[#3+#4]
#1=[#502+[#503-#502]*0.39165]
#2=[#509+[#510-#509]*0.39165]
#3=[#1+[#2-#1]*0.70004]
X4.95749 Y-2.48936 Z[#3+#4]
#1=[#502+[#503-#502]*0.38405]
#2=[#509+[#510-#509]*0.38405]
#3=[#1+[#2-#1]*0.69224]
X4.95443 Y-2.49212 Z[#3+#4]
#1=[#502+[#503-#502]*0.37838]
#2=[#509+[#510-#509]*0.37838]
#3=[#1+[#2-#1]*0.68315]
X4.95086 Y-2.49417 Z[#3+#4]
#1=[#502+[#503-#502]*0.37488]
#2=[#509+[#510-#509]*0.37488]
#3=[#1+[#2-#1]*0.67316]
X4.94695 Y-2.49545 Z[#3+#4]
#1=[#502+[#503-#502]*0.37369]
#2=[#509+[#510-#509]*0.37369]
#3=[#1+[#2-#1]*0.66272]
X4.94286 Y-2.49587 Z[#3+#4]
#1=[#502+[#503-#502]*0.37369]
#2=[#509+[#510-#509]*0.37369]
#3=[#1+[#2-#1]*0.10554]
X4.72445 Y-2.49587 Z[#3+#4]
#1=[#501+[#502-#501]*0.82584]
#2=[#508+[#509-#508]*0.82584]
#3=[#1+[#2-#1]*0.10554]
X4.72445 Y-2.69460 Z[#3+#4]
#1=[#501+[#502-#501]*0.82584]
#2=[#508+[#509-#508]*0.82584]
#3=[#1+[#2-#1]*0.48050]
X4.87143 Y-2.69460 Z[#3+#4]
#1=[#501+[#502-#501]*0.82465]
#2=[#508+[#509-#508]*0.82465]
#3=[#1+[#2-#1]*0.49094]
X4.87552 Y-2.69503 Z[#3+#4]
#1=[#501+[#502-#501]*0.82115]
#2=[#508+[#509-#508]*0.82115]
#3=[#1+[#2-#1]*0.50093]
X4.87943 Y-2.69630 Z[#3+#4]
#1=[#501+[#502-#501]*0.81547]
#2=[#508+[#509-#508]*0.81547]
#3=[#1+[#2-#1]*0.51002]
X4.88300 Y-2.69836 Z[#3+#4]
#1=[#501+[#502-#501]*0.80788]
#2=[#508+[#509-#508]*0.80788]
#3=[#1+[#2-#1]*0.51782]
X4.88606 Y-2.70111 Z[#3+#4]
#1=[#501+[#502-#501]*0.79870]
#2=[#508+[#509-#508]*0.79870]
#3=[#1+[#2-#1]*0.52399]
X4.88848 Y-2.70444 Z[#3+#4]
#1=[#501+[#502-#501]*0.78834]
#2=[#508+[#509-#508]*0.78834]
#3=[#1+[#2-#1]*0.52826]
X4.89015 Y-2.70820 Z[#3+#4]
#1=[#501+[#502-#501]*0.77724]
#2=[#508+[#509-#508]*0.77724]
#3=[#1+[#2-#1]*0.53044]
X4.89100 Y-2.71223 Z[#3+#4]
#1=[#501+[#502-#501]*0.76590]
#2=[#508+[#509-#508]*0.76590]
#3=[#1+[#2-#1]*0.53044]
X4.89100 Y-2.71634 Z[#3+#4]
#1=[#501+[#502-#501]*0.75480]
#2=[#508+[#509-#508]*0.75480]
#3=[#1+[#2-#1]*0.52826]
X4.89015 Y-2.72037 Z[#3+#4]
#1=[#501+[#502-#501]*0.74443]
#2=[#508+[#509-#508]*0.74443]
#3=[#1+[#2-#1]*0.52399]
X4.88848 Y-2.72413 Z[#3+#4]
#1=[#501+[#502-#501]*0.73526]
#2=[#508+[#509-#508]*0.73526]
#3=[#1+[#2-#1]*0.51782]
X4.88606 Y-2.72746 Z[#3+#4]
#1=[#501+[#502-#501]*0.72766]
#2=[#508+[#509-#508]*0.72766]
#3=[#1+[#2-#1]*0.51002]
X4.88300 Y-2.73021 Z[#3+#4]
#1=[#501+[#502-#501]*0.72199]
#2=[#508+[#509-#508]*0.72199]
#3=[#1+[#2-#1]*0.50093]
X4.87943 Y-2.73227 Z[#3+#4]
#1=[#501+[#502-#501]*0.71849]
#2=[#508+[#509-#508]*0.71849]
#3=[#1+[#2-#1]*0.49094]
X4.87552 Y-2.73354 Z[#3+#4]
#1=[#501+[#502-#501]*0.71730]
#2=[#508+[#509-#508]*0.71730]
#3=[#1+[#2-#1]*0.48050]
X4.87143 Y-2.73397 Z[#3+#4]
#1=[#501+[#502-#501]*0.71730]
#2=[#508+[#509-#508]*0.71730]
#3=[#1+[#2-#1]*0.10554]
X4.72445 Y-2.73397 Z[#3+#4]
#1=[#501+[#502-#501]*0.04954]
#2=[#508+[#509-#508]*0.04954]
#3=[#1+[#2-#1]*0.10554]
X4.72445 Y-2.97619 Z[#3+#4]
#1=[#501+[#502-#501]*0.03826]
#2=[#508+[#509-#508]*0.03826]
#3=[#1+[#2-#1]*0.10444]
X4.72402 Y-2.98028 Z[#3+#4]
#1=[#501+[#502-#501]*0.02747]
#2=[#508+[#509-#508]*0.02747]
#3=[#1+[#2-#1]*0.10120]
X4.72274 Y-2.98420 Z[#3+#4]
#1=[#501+[#502-#501]*0.01764]
#2=[#508+[#509-#508]*0.01764]
#3=[#1+[#2-#1]*0.09595]
X4.72069 Y-2.98776 Z[#3+#4]
#1=[#501+[#502-#501]*0.00921]
#2=[#508+[#509-#508]*0.00921]
#3=[#1+[#2-#1]*0.08892]
X4.71793 Y-2.99082 Z[#3+#4]
#1=[#501+[#502-#501]*0.00254]
#2=[#508+[#509-#508]*0.00254]
#3=[#1+[#2-#1]*0.08043]
X4.71460 Y-2.99324 Z[#3+#4]
#1=[#500+[#501-#500]*0.99793]
#2=[#507+[#508-#507]*0.99793]
#3=[#1+[#2-#1]*0.07084]
X4.71084 Y-2.99491 Z[#3+#4]
#1=[#500+[#501-#500]*0.99557]
#2=[#507+[#508-#507]*0.99557]
#3=[#1+[#2-#1]*0.06057]
X4.70682 Y-2.99577 Z[#3+#4]
#1=[#500+[#501-#500]*0.99557]
#2=[#507+[#508-#507]*0.99557]
#3=[#1+[#2-#1]*0.05007]
X4.70270 Y-2.99577 Z[#3+#4]
#1=[#500+[#501-#500]*0.99793]
#2=[#507+[#508-#507]*0.99793]
#3=[#1+[#2-#1]*0.03980]
X4.69868 Y-2.99491 Z[#3+#4]
#1=[#501+[#502-#501]*0.00254]
#2=[#508+[#509-#508]*0.00254]
#3=[#1+[#2-#1]*0.03021]
X4.69492 Y-2.99324 Z[#3+#4]
#1=[#501+[#502-#501]*0.00921]
#2=[#508+[#509-#508]*0.00921]
#3=[#1+[#2-#1]*0.02172]
X4.69159 Y-2.99082 Z[#3+#4]
#1=[#501+[#502-#501]*0.01764]
#2=[#508+[#509-#508]*0.01764]
#3=[#1+[#2-#1]*0.01469]
X4.68884 Y-2.98776 Z[#3+#4]
#1=[#501+[#502-#501]*0.02747]
#2=[#508+[#509-#508]*0.02747]
#3=[#1+[#2-#1]*0.00944]
X4.68678 Y-2.98420 Z[#3+#4]
#1=[#501+[#502-#501]*0.03826]
#2=[#508+[#509-#508]*0.03826]
#3=[#1+[#2-#1]*0.00620]
X4.68551 Y-2.98028 Z[#3+#4]
#1=[#501+[#502-#501]*0.04954]
#2=[#508+[#509-#508]*0.04954]
#3=[#1+[#2-#1]*0.00510]
X4.68508 Y-2.97619 Z[#3+#4]
G04 P0 ( dwell for no time -- G64 should not smooth over this point )
G00 Z0.08000 ( retract )

G00 X5.11365 Y-2.97619 ( rapid move to begin. )
G01 F180.00000
#1=[#508+[#509-#508]*0.04954]
#2=[#515+[#516-#515]*0.04954]
#3=[#1+[#2-#1]*0.09842]
G01 Z[-0.04000+#111]
G04 P0 ( dwell for no time -- G64 should not smooth over this point )
G01 F360.00000
#1=[#508+[#509-#508]*0.96849]
#2=[#515+[#516-#515]*0.96849]
#3=[#1+[#2-#1]*0.09842]
X5.11365 Y-2.64286 Z[#3+#4]
#1=[#508+[#509-#508]*0.97977]
#2=[#515+[#516-#515]*0.97977]
#3=[#1+[#2-#1]*0.09952]
X5.11408 Y-2.63876 Z[#3+#4]
#1=[#508+[#509-#508]*0.99056]
#2=[#515+[#516-#515]*0.99056]
#3=[#1+[#2-#1]*0.10277]
X5.11535 Y-2.63485 Z[#3+#4]
#1=[#509+[#510-#509]*0.00039]
#2=[#516+[#517-#516]*0.00039]
#3=[#1+[#2-#1]*0.10801]
X5.11741 Y-2.63129 Z[#3+#4]
#1=[#509+[#510-#509]*0.00882]
#2=[#516+[#517-#516]*0.00882]
#3=[#1+[#2-#1]*0.11504]
X5.12016 Y-2.62823 Z[#3+#4]
#1=[#509+[#510-#509]*0.01548]
#2=[#516+[#517-#516]*0.01548]
#3=[#1+[#2-#1]*0.12353]
X5.12349 Y-2.62581 Z[#3+#4]
#1=[#509+[#510-#509]*0.02010]
#2=[#516+[#517-#516]*0.02010]
#3=[#1+[#2-#1]*0.13312]
X5.12725 Y-2.62413 Z[#3+#4]
#1=[#509+[#510-#509]*0.02246]
#2=[#516+[#517-#516]*0.02246]
#3=[#1+[#2-#1]*0.14339]
X5.13127 Y-2.62328 Z[#3+#4]
#1=[#509+[#510-#509]*0.02246]
#2=[#516+[#517-#516]*0.02246]
#3=[#1+[#2-#1]*0.15389]
X5.13539 Y-2.62328 Z[#3+#4]
#1=[#509+[#510-#509]*0.02010]
#2=[#516+[#517-#516]*0.02010]
#3=[#1+[#2-#1]*0.16416]
X5.13942 Y-2.62413 Z[#3+#4]
#1=[#509+[#510-#509]*0.01548]
#2=[#516+[#517-#516]*0.01548]
#3=[#1+[#2-#1]*0.17375]
X5.14318 Y-2.62581 Z[#3+#4]
#1=[#509+[#510-#509]*0.00882]
#2=[#516+[#517-#516]*0.00882]
#3=[#1+[#2-#1]*0.18225]
X5.14651 Y-2.62823 Z[#3+#4]
#1=[#509+[#510-#509]*0.00039]
#2=[#516+[#517-#516]*0.00039]
#3=[#1+[#2-#1]*0.18927]
X5.14926 Y-2.63129 Z[#3+#4]
#1=[#508+[#509-#508]*0.99056]
#2=[#515+[#516-#515]*0.99056]
#3=[#1+[#2-#1]*0.19452]
X5.15132 Y-2.63485 Z[#3+#4]
#1=[#508+[#509-#508]*0.97977]
#2=[#515+[#516-#515]*0.97977]
#3=[#1+[#2-#1]*0.19776]
X5.15259 Y-2.63876 Z[#3+#4]
#1=[#508+[#509-#508]*0.90259]
#2=[#515+[#516-#515]*0.90259]
#3=[#1+[#2-#1]*0.19886]
X5.15302 Y-2.66676 Z[#3+#4]
#1=[#508+[#509-#508]*0.94687]
#2=[#515+[#516-#515]*0.94687]
#3=[#1+[#2-#1]*0.24076]
X5.16944 Y-2.65070 Z[#3+#4]
#1=[#509+[#510-#509]*0.02018]
#2=[#516+[#517-#516]*0.02018]
#3=[#1+[#2-#1]*0.37633]
X5.22258 Y-2.62410 Z[#3+#4]
#1=[#509+[#510-#509]*0.02275]
#2=[#516+[#517-#516]*0.02275]
#3=[#1+[#2-#1]*0.39160]
X5.22857 Y-2.62317 Z[#3+#4]
#1=[#509+[#510-#509]*0.02275]
#2=[#516+[#517-#516]*0.02275]
#3=[#1+[#2-#1]*0.51308]
X5.27619 Y-2.62317 Z[#3+#4]
#1=[#509+[#510-#509]*0.02157]
#2=[#516+[#517-#516]*0.02157]
#3=[#1+[#2-#1]*0.52352]
X5.28028 Y-2.62360 Z[#3+#4]
#1=[#509+[#510-#509]*0.01806]
#2=[#516+[#517-#516]*0.01806]
#3=[#1+[#2-#1]*0.53351]
X5.28420 Y-2.62487 Z[#3+#4]
#1=[#509+[#510-#509]*0.01239]
#2=[#516+[#517-#516]*0.01239]
#3=[#1+[#2-#1]*0.54260]
X5.28776 Y-2.62693 Z[#3+#4]
#1=[#509+[#510-#509]*0.00480]
#2=[#516+[#517-#516]*0.00480]
#3=[#1+[#2-#1]*0.55040]
X5.29082 Y-2.62968 Z[#3+#4]
#1=[#508+[#509-#508]*0.99562]
#2=[#515+[#516-#515]*0.99562]
#3=[#1+[#2-#1]*0.55657]
X5.29324 Y-2.63301 Z[#3+#4]
#1=[#508+[#509-#508]*0.98526]
#2=[#515+[#516-#515]*0.98526]
#3=[#1+[#2-#1]*0.56084]
X5.29491 Y-2.63677 Z[#3+#4]
#1=[#508+[#509-#508]*0.97416]
#2=[#515+[#516-#515]*0.97416]
#3=[#1+[#2-#1]*0.56302]
X5.29577 Y-2.64080 Z[#3+#4]
#1=[#508+[#509-#508]*0.96282]
#2=[#515+[#516-#515]*0.96282]
#3=[#1+[#2-#1]*0.56302]
X5.29577 Y-2.64491 Z[#3+#4]
#1=[#508+[#509-#508]*0.95172]
#2=[#515+[#516-#515]*0.95172]
#3=[#1+[#2-#1]*0.56084]
X5.29491 Y-2.64894 Z[#3+#4]
#1=[#508+[#509-#508]*0.94135]
#2=[#515+[#516-#515]*0.94135]
#3=[#1+[#2-#1]*0.55657]
X5.29324 Y-2.65270 Z[#3+#4]
#1=[#508+[#509-#508]*0.93218]
#2=[#515+[#516-#515]*0.93218]
#3=[#1+[#2-#1]*0.55040]
X5.29082 Y-2.65603 Z[#3+#4]
#1=[#508+[#509-#508]*0.92458]
#2=[#515+[#516-#515]*0.92458]
#3=[#1+[#2-#1]*0.54260]
X5.28776 Y-2.65878 Z[#3+#4]
#1=[#508+[#509-#508]*0.91891]
#2=[#515+[#516-#515]*0.91891]
#3=[#1+[#2-#1]*0.53351]
X5.28420 Y-2.66084 Z[#3+#4]
#1=[#508+[#509-#508]*0.91540]
#2=[#515+[#516-#515]*0.91540]
#3=[#1+[#2-#1]*0.52352]
X5.28028 Y-2.66211 Z[#3+#4]
#1=[#508+[#509-#508]*0.91422]
#2=[#515+[#516-#515]*0.91422]
#3=[#1+[#2-#1]*0.51308]
X5.27619 Y-2.66254 Z[#3+#4]
#1=[#508+[#509-#508]*0.91422]
#2=[#515+[#516-#515]*0.91422]
#3=[#1+[#2-#1]*0.40346]
X5.23322 Y-2.66254 Z[#3+#4]
#1=[#508+[#509-#508]*0.85825]
#2=[#515+[#516-#515]*0.85825]
#3=[#1+[#2-#1]*0.29987]
X5.19261 Y-2.68284 Z[#3+#4]
#1=[#508+[#509-#508]*0.80506]
#2=[#515+[#516-#515]*0.80506]
#3=[#1+[#2-#1]*0.25066]
X5.17332 Y-2.70214 Z[#3+#4]
#1=[#508+[#509-#508]*0.69312]
#2=[#515+[#516-#515]*0.69312]
#3=[#1+[#2-#1]*0.19886]
X5.15302 Y-2.74274 Z[#3+#4]
#1=[#508+[#509-#508]*0.04954]
#2=[#515+[#516-#515]*0.04954]
#3=[#1+[#2-#1]*0.19886]
X5.15302 Y-2.97619 Z[#3+#4]
#1=[#508+[#509-#508]*0.03826]
#2=[#515+[#516-#515]*0.03826]
#3=[#1+[#2-#1]*0.19776]
X5.15259 Y-2.98028 Z[#3+#4]
#1=[#508+[#509-#508]*0.02747]
#2=[#515+[#516-#515]*0.02747]
#3=[#1+[#2-#1]*0.19452]
X5.15132 Y-2.98420 Z[#3+#4]
#1=[#508+[#509-#508]*0.01764]
#2=[#515+[#516-#515]*0.01764]
#3=[#1+[#2-#1]*0.18927]
X5.14926 Y-2.98776 Z[#3+#4]
#1=[#508+[#509-#508]*0.00921]
#2=[#515+[#516-#515]*0.00921]
#3=[#1+[#2-#1]*0.18225]
X5.14651 Y-2.99082 Z[#3+#4]
#1=[#508+[#509-#508]*0.00254]
#2=[#515+[#516-#515]*0.00254]
#3=[#1+[#2-#1]*0.17375]
X5.14318 Y-2.99324 Z[#3+#4]
#1=[#507+[#508-#507]*0.99793]
#2=[#514+[#515-#514]*0.99793]
#3=[#1+[#2-#1]*0.16416]
X5.13942 Y-2.99491 Z[#3+#4]
#1=[#507+[#508-#507]*0.99557]
#2=[#514+[#515-#514]*0.99557]
#3=[#1+[#2-#1]*0.15389]
X5.13539 Y-2.99577 Z[#3+#4]
#1=[#507+[#508-#507]*0.99557]
#2=[#514+[#515-#514]*0.99557]
#3=[#1+[#2-#1]*0.14339]
X5.13127 Y-2.99577 Z[#3+#4]
#1=[#507+[#508-#507]*0.99793]
#2=[#514+[#515-#514]*0.99793]
#3=[#1+[#2-#1]*0.13312]
X5.12725 Y-2.99491 Z[#3+#4]
#1=[#508+[#509-#508]*0.00254]
#2=[#515+[#516-#515]*0.00254]
#3=[#1+[#2-#1]*0.12353]
X5.12349 Y-2.99324 Z[#3+#4]
#1=[#508+[#509-#508]*0.00921]
#2=[#515+[#516-#515]*0.00921]
#3=[#1+[#2-#1]*0.11504]
X5.12016 Y-2.99082 Z[#3+#4]
#1=[#508+[#509-#508]*0.01764]
#2=[#515+[#516-#515]*0.01764]
#3=[#1+[#2-#1]*0.10801]
X5.11741 Y-2.98776 Z[#3+#4]
#1=[#508+[#509-#508]*0.02747]
#2=[#515+[#516-#515]*0.02747]
#3=[#1+[#2-#1]*0.10277]
X5.11535 Y-2.98420 Z[#3+#4]
#1=[#508+[#509-#508]*0.03826]
#2=[#515+[#516-#515]*0.03826]
#3=[#1+[#2-#1]*0.09952]
X5.11408 Y-2.98028 Z[#3+#4]
#1=[#508+[#509-#508]*0.04954]
#2=[#515+[#516-#515]*0.04954]
#3=[#1+[#2-#1]*0.09842]
X5.11365 Y-2.97619 Z[#3+#4]
G04 P0 ( dwell for no time -- G64 should not smooth over this point )
G00 Z0.08000 ( retract )

G00 X5.39936 Y-2.88095 ( rapid move to begin. )
G01 F180.00000
#1=[#508+[#509-#508]*0.31210]
#2=[#515+[#516-#515]*0.31210]
#3=[#1+[#2-#1]*0.82730]
G01 Z[-0.04000+#111]
G04 P0 ( dwell for no time -- G64 should not smooth over this point )
G01 F360.00000
#1=[#508+[#509-#508]*0.70593]
#2=[#515+[#516-#515]*0.70593]
#3=[#1+[#2-#1]*0.82730]
X5.39936 Y-2.73809 Z[#3+#4]
#1=[#508+[#509-#508]*0.72244]
#2=[#515+[#516-#515]*0.72244]
#3=[#1+[#2-#1]*0.82968]
X5.40029 Y-2.73211 Z[#3+#4]
#1=[#508+[#509-#508]*0.86894]
#2=[#515+[#516-#515]*0.86894]
#3=[#1+[#2-#1]*0.89752]
X5.42689 Y-2.67897 Z[#3+#4]
#1=[#508+[#509-#508]*0.94687]
#2=[#515+[#516-#515]*0.94687]
#3=[#1+[#2-#1]*0.96964]
X5.45516 Y-2.65070 Z[#3+#4]
#1=[#516+[#517-#516]*0.01703]
#2=[#523+[#524-#523]*0.01703]
#3=[#1+[#2-#1]*0.09802]
X5.50548 Y-2.62525 Z[#3+#4]
#1=[#516+[#517-#516]*0.02211]
#2=[#523+[#524-#523]*0.02211]
#3=[#1+[#2-#1]*0.11275]
X5.51126 Y-2.62341 Z[#3+#4]
#1=[#516+[#517-#516]*0.02211]
#2=[#523+[#524-#523]*0.02211]
#3=[#1+[#2-#1]*0.31043]
X5.58874 Y-2.62341 Z[#3+#4]
#1=[#516+[#517-#516]*0.01703]
#2=[#523+[#524-#523]*0.01703]
#3=[#1+[#2-#1]*0.32516]
X5.59452 Y-2.62525 Z[#3+#4]
#1=[#515+[#516-#515]*0.94687]
#2=[#522+[#523-#522]*0.94687]
#3=[#1+[#2-#1]*0.45355]
X5.64484 Y-2.65070 Z[#3+#4]
#1=[#515+[#516-#515]*0.86894]
#2=[#522+[#523-#522]*0.86894]
#3=[#1+[#2-#1]*0.52566]
X5.67311 Y-2.67897 Z[#3+#4]
#1=[#515+[#516-#515]*0.73020]
#2=[#522+[#523-#522]*0.73020]
#3=[#1+[#2-#1]*0.59058]
X5.69856 Y-2.72929 Z[#3+#4]
#1=[#515+[#516-#515]*0.71428]
#2=[#522+[#523-#522]*0.71428]
#3=[#1+[#2-#1]*0.59528]
X5.70040 Y-2.73507 Z[#3+#4]
#1=[#515+[#516-#515]*0.30374]
#2=[#522+[#523-#522]*0.30374]
#3=[#1+[#2-#1]*0.59528]
X5.70040 Y-2.88398 Z[#3+#4]
#1=[#515+[#516-#515]*0.28783]
#2=[#522+[#523-#522]*0.28783]
#3=[#1+[#2-#1]*0.59058]
X5.69856 Y-2.88976 Z[#3+#4]
#1=[#515+[#516-#515]*0.14909]
#2=[#522+[#523-#522]*0.14909]
#3=[#1+[#2-#1]*0.52566]
X5.67311 Y-2.94008 Z[#3+#4]
#1=[#515+[#516-#515]*0.07115]
#2=[#522+[#523-#522]*0.07115]
#3=[#1+[#2-#1]*0.45355]
X5.64484 Y-2.96835 Z[#3+#4]
#1=[#515+[#516-#515]*0.00100]
#2=[#522+[#523-#522]*0.00100]
#3=[#1+[#2-#1]*0.32516]
X5.59452 Y-2.99380 Z[#3+#4]
#1=[#514+[#515-#514]*0.99592]
#2=[#521+[#522-#521]*0.99592]
#3=[#1+[#2-#1]*0.31043]
X5.58874 Y-2.99564 Z[#3+#4]
#1=[#514+[#515-#514]*0.99527]
#2=[#521+[#522-#521]*0.99527]
#3=[#1+[#2-#1]*0.12048]
X5.51429 Y-2.99587 Z[#3+#4]
#1=[#514+[#515-#514]*0.99784]
#2=[#521+[#522-#521]*0.99784]
#3=[#1+[#2-#1]*0.10521]
X5.50830 Y-2.99494 Z[#3+#4]
#1=[#508+[#509-#508]*0.07115]
#2=[#515+[#516-#515]*0.07115]
#3=[#1+[#2-#1]*0.96964]
X5.45516 Y-2.96835 Z[#3+#4]
#1=[#508+[#509-#508]*0.14245]
#2=[#515+[#516-#515]*0.14245]
#3=[#1+[#2-#1]*0.90275]
X5.42894 Y-2.94249 Z[#3+#4]
#1=[#508+[#509-#508]*0.15655]
#2=[#515+[#516-#515]*0.15655]
#3=[#1+[#2-#1]*0.89335]
X5.42525 Y-2.93737 Z[#3+#4]
#1=[#508+[#509-#508]*0.28897]
#2=[#515+[#516-#515]*0.28897]
#3=[#1+[#2-#1]*0.83221]
X5.40128 Y-2.88934 Z[#3+#4]
#1=[#508+[#509-#508]*0.30081]
#2=[#515+[#516-#515]*0.30081]
#3=[#1+[#2-#1]*0.82840]
X5.39979 Y-2.88504 Z[#3+#4]
#1=[#508+[#509-#508]*0.31210]
#2=[#515+[#516-#515]*0.31210]
#3=[#1+[#2-#1]*0.82730]
X5.39936 Y-2.88095 Z[#3+#4]
G04 P0 ( dwell for no time -- G64 should not smooth over this point )
G00 Z0.08000 ( retract )

G00 X5.43873 Y-2.87630 ( rapid move to begin. )
G01 F180.00000
#1=[#508+[#509-#508]*0.32491]
#2=[#515+[#516-#515]*0.32491]
#3=[#1+[#2-#1]*0.92774]
G01 Z[-0.04000+#111]
G04 P0 ( dwell for no time -- G64 should not smooth over this point )
G01 F360.00000
#1=[#508+[#509-#508]*0.69312]
#2=[#515+[#516-#515]*0.69312]
#3=[#1+[#2-#1]*0.92774]
X5.43873 Y-2.74274 Z[#3+#4]
#1=[#508+[#509-#508]*0.80506]
#2=[#515+[#516-#515]*0.80506]
#3=[#1+[#2-#1]*0.97953]
X5.45904 Y-2.70214 Z[#3+#4]
#1=[#515+[#516-#515]*0.85825]
#2=[#522+[#523-#522]*0.85825]
#3=[#1+[#2-#1]*0.02875]
X5.47833 Y-2.68284 Z[#3+#4]
#1=[#515+[#516-#515]*0.91422]
#2=[#522+[#523-#522]*0.91422]
#3=[#1+[#2-#1]*0.13234]
X5.51893 Y-2.66254 Z[#3+#4]
#1=[#515+[#516-#515]*0.91422]
#2=[#522+[#523-#522]*0.91422]
#3=[#1+[#2-#1]*0.29085]
X5.58107 Y-2.66254 Z[#3+#4]
#1=[#515+[#516-#515]*0.85825]
#2=[#522+[#523-#522]*0.85825]
#3=[#1+[#2-#1]*0.39444]
X5.62167 Y-2.68284 Z[#3+#4]
#1=[#515+[#516-#515]*0.80506]
#2=[#522+[#523-#522]*0.80506]
#3=[#1+[#2-#1]*0.44365]
X5.64096 Y-2.70214 Z[#3+#4]
#1=[#515+[#516-#515]*0.69312]
#2=[#522+[#523-#522]*0.69312]
#3=[#1+[#2-#1]*0.49545]
X5.66127 Y-2.74274 Z[#3+#4]
#1=[#515+[#516-#515]*0.32491]
#2=[#522+[#523-#522]*0.32491]
#3=[#1+[#2-#1]*0.49545]
X5.66127 Y-2.87630 Z[#3+#4]
#1=[#515+[#516-#515]*0.21297]
#2=[#522+[#523-#522]*0.21297]
#3=[#1+[#2-#1]*0.44365]
X5.64096 Y-2.91691 Z[#3+#4]
#1=[#515+[#516-#515]*0.15978]
#2=[#522+[#523-#522]*0.15978]
#3=[#1+[#2-#1]*0.39444]
X5.62167 Y-2.93620 Z[#3+#4]
#1=[#515+[#516-#515]*0.10381]
#2=[#522+[#523-#522]*0.10381]
#3=[#1+[#2-#1]*0.29085]
X5.58107 Y-2.95650 Z[#3+#4]
#1=[#515+[#516-#515]*0.10381]
#2=[#522+[#523-#522]*0.10381]
#3=[#1+[#2-#1]*0.13234]
X5.51893 Y-2.95650 Z[#3+#4]
#1=[#515+[#516-#515]*0.15978]
#2=[#522+[#523-#522]*0.15978]
#3=[#1+[#2-#1]*0.02875]
X5.47833 Y-2.93620 Z[#3+#4]
#1=[#508+[#509-#508]*0.21297]
#2=[#515+[#516-#515]*0.21297]
#3=[#1+[#2-#1]*0.97953]
X5.45904 Y-2.91691 Z[#3+#4]
#1=[#508+[#509-#508]*0.32491]
#2=[#515+[#516-#515]*0.32491]
#3=[#1+[#2-#1]*0.92774]
X5.43873 Y-2.87630 Z[#3+#4]
G04 P0 ( dwell for no time -- G64 should not smooth over this point )
G00 Z0.08000 ( retract )

G00 X5.87555 Y-2.97619 ( rapid move to begin. )
G01 F180.00000
#1=[#522+[#523-#522]*0.04954]
#2=[#529+[#530-#529]*0.04954]
#3=[#1+[#2-#1]*0.04211]
G01 Z[-0.04000+#111]
G04 P0 ( dwell for no time -- G64 should not smooth over this point )
G01 F360.00000
#1=[#522+[#523-#522]*0.96849]
#2=[#529+[#530-#529]*0.96849]
#3=[#1+[#2-#1]*0.04211]
X5.87555 Y-2.64286 Z[#3+#4]
#1=[#522+[#523-#522]*0.97977]
#2=[#529+[#530-#529]*0.97977]
#3=[#1+[#2-#1]*0.04320]
X5.87598 Y-2.63876 Z[#3+#4]
#1=[#522+[#523-#522]*0.99056]
#2=[#529+[#530-#529]*0.99056]
#3=[#1+[#2-#1]*0.04645]
X5.87725 Y-2.63485 Z[#3+#4]
#1=[#523+[#524-#523]*0.00039]
#2=[#530+[#531-#530]*0.00039]
#3=[#1+[#2-#1]*0.05170]
X5.87931 Y-2.63129 Z[#3+#4]
#1=[#523+[#524-#523]*0.00882]
#2=[#530+[#531-#530]*0.00882]
#3=[#1+[#2-#1]*0.05872]
X5.88207 Y-2.62823 Z[#3+#4]
#1=[#523+[#524-#523]*0.01548]
#2=[#530+[#531-#530]*0.01548]
#3=[#1+[#2-#1]*0.06721]
X5.88539 Y-2.62581 Z[#3+#4]
#1=[#523+[#524-#523]*0.02010]
#2=[#530+[#531-#530]*0.02010]
#3=[#1+[#2-#1]*0.07681]
X5.88915 Y-2.62413 Z[#3+#4]
#1=[#523+[#524-#523]*0.02246]
#2=[#530+[#531-#530]*0.02246]
#3=[#1+[#2-#1]*0.08707]
X5.89318 Y-2.62328 Z[#3+#4]
#1=[#523+[#524-#523]*0.02246]
#2=[#530+[#531-#530]*0.02246]
#3=[#1+[#2-#1]*0.09757]
X5.89729 Y-2.62328 Z[#3+#4]
#1=[#523+[#524-#523]*0.02010]
#2=[#530+[#531-#530]*0.02010]
#3=[#1+[#2-#1]*0.10784]
X5.90132 Y-2.62413 Z[#3+#4]
#1=[#523+[#524-#523]*0.01548]
#2=[#530+[#531-#530]*0.01548]
#3=[#1+[#2-#1]*0.11743]
X5.90508 Y-2.62581 Z[#3+#4]
#1=[#523+[#524-#523]*0.00882]
#2=[#530+[#531-#530]*0.00882]
#3=[#1+[#2-#1]*0.12592]
X5.90841 Y-2.62823 Z[#3+#4]
#1=[#523+[#524-#523]*0.00039]
#2=[#530+[#531-#530]*0.00039]
#3=[#1+[#2-#1]*0.13295]
X5.91116 Y-2.63129 Z[#3+#4]
#1=[#522+[#523-#522]*0.99056]
#2=[#529+[#530-#529]*0.99056]
#3=[#1+[#2-#1]*0.13820]
X5.91322 Y-2.63485 Z[#3+#4]
#1=[#522+[#523-#522]*0.97977]
#2=[#529+[#530-#529]*0.97977]
#3=[#1+[#2-#1]*0.14144]
X5.91449 Y-2.63876 Z[#3+#4]
#1=[#522+[#523-#522]*0.95784]
#2=[#529+[#530-#529]*0.95784]
#3=[#1+[#2-#1]*0.14254]
X5.91492 Y-2.64672 Z[#3+#4]
#1=[#523+[#524-#523]*0.01703]
#2=[#530+[#531-#530]*0.01703]
#3=[#1+[#2-#1]*0.25209]
X5.95786 Y-2.62525 Z[#3+#4]
#1=[#523+[#524-#523]*0.02211]
#2=[#530+[#531-#530]*0.02211]
#3=[#1+[#2-#1]*0.26681]
X5.96364 Y-2.62341 Z[#3+#4]
#1=[#523+[#524-#523]*0.02211]
#2=[#530+[#531-#530]*0.02211]
#3=[#1+[#2-#1]*0.46449]
X6.04113 Y-2.62341 Z[#3+#4]
#1=[#523+[#524-#523]*0.01703]
#2=[#530+[#531-#530]*0.01703]
#3=[#1+[#2-#1]*0.47922]
X6.04690 Y-2.62525 Z[#3+#4]
#1=[#522+[#523-#522]*0.94687]
#2=[#529+[#530-#529]*0.94687]
#3=[#1+[#2-#1]*0.60761]
X6.09722 Y-2.65070 Z[#3+#4]
#1=[#522+[#523-#522]*0.93458]
#2=[#529+[#530-#529]*0.93458]
#3=[#1+[#2-#1]*0.61898]
X6.10168 Y-2.65516 Z[#3+#4]
#1=[#522+[#523-#522]*0.92712]
#2=[#529+[#530-#529]*0.92712]
#3=[#1+[#2-#1]*0.62316]
X6.10332 Y-2.65786 Z[#3+#4]
#1=[#522+[#523-#522]*0.79584]
#2=[#529+[#530-#529]*0.79584]
#3=[#1+[#2-#1]*0.68390]
X6.12713 Y-2.70548 Z[#3+#4]
#1=[#522+[#523-#522]*0.77992]
#2=[#529+[#530-#529]*0.77992]
#3=[#1+[#2-#1]*0.68860]
X6.12897 Y-2.71125 Z[#3+#4]
#1=[#522+[#523-#522]*0.04954]
#2=[#529+[#530-#529]*0.04954]
#3=[#1+[#2-#1]*0.68920]
X6.12921 Y-2.97619 Z[#3+#4]
#1=[#522+[#523-#522]*0.03826]
#2=[#529+[#530-#529]*0.03826]
#3=[#1+[#2-#1]*0.68810]
X6.12878 Y-2.98028 Z[#3+#4]
#1=[#522+[#523-#522]*0.02747]
#2=[#529+[#530-#529]*0.02747]
#3=[#1+[#2-#1]*0.68486]
X6.12751 Y-2.98420 Z[#3+#4]
#1=[#522+[#523-#522]*0.01764]
#2=[#529+[#530-#529]*0.01764]
#3=[#1+[#2-#1]*0.67961]
X6.12545 Y-2.98776 Z[#3+#4]
#1=[#522+[#523-#522]*0.00921]
#2=[#529+[#530-#529]*0.00921]
#3=[#1+[#2-#1]*0.67259]
X6.12270 Y-2.99082 Z[#3+#4]
#1=[#522+[#523-#522]*0.00254]
#2=[#529+[#530-#529]*0.00254]
#3=[#1+[#2-#1]*0.66409]
X6.11937 Y-2.99324 Z[#3+#4]
#1=[#521+[#522-#521]*0.99793]
#2=[#528+[#529-#528]*0.99793]
#3=[#1+[#2-#1]*0.65450]
X6.11561 Y-2.99491 Z[#3+#4]
#1=[#521+[#522-#521]*0.99557]
#2=[#528+[#529-#528]*0.99557]
#3=[#1+[#2-#1]*0.64423]
X6.11158 Y-2.99577 Z[#3+#4]
#1=[#521+[#522-#521]*0.99557]
#2=[#528+[#529-#528]*0.99557]
#3=[#1+[#2-#1]*0.63374]
X6.10747 Y-2.99577 Z[#3+#4]
#1=[#521+[#522-#521]*0.99793]
#2=[#528+[#529-#528]*0.99793]
#3=[#1+[#2-#1]*0.62346]
X6.10344 Y-2.99491 Z[#3+#4]
#1=[#522+[#523-#522]*0.00254]
#2=[#529+[#530-#529]*0.00254]
#3=[#1+[#2-#1]*0.61387]
X6.09968 Y-2.99324 Z[#3+#4]
#1=[#522+[#523-#522]*0.00921]
#2=[#529+[#530-#529]*0.00921]
#3=[#1+[#2-#1]*0.60538]
X6.09635 Y-2.99082 Z[#3+#4]
#1=[#522+[#523-#522]*0.01764]
#2=[#529+[#530-#529]*0.01764]
#3=[#1+[#2-#1]*0.59836]
X6.09360 Y-2.98776 Z[#3+#4]
#1=[#522+[#523-#522]*0.02747]
#2=[#529+[#530-#529]*0.02747]
#3=[#1+[#2-#1]*0.59311]
X6.09154 Y-2.98420 Z[#3+#4]
#1=[#522+[#523-#522]*0.03826]
#2=[#529+[#530-#529]*0.03826]
#3=[#1+[#2-#1]*0.58986]
X6.09027 Y-2.98028 Z[#3+#4]
#1=[#522+[#523-#522]*0.04954]
#2=[#529+[#530-#529]*0.04954]
#3=[#1+[#2-#1]*0.58876]
X6.08984 Y-2.97619 Z[#3+#4]
#1=[#522+[#523-#522]*0.75876]
#2=[#529+[#530-#529]*0.75876]
#3=[#1+[#2-#1]*0.58876]
X6.08984 Y-2.71893 Z[#3+#4]
#1=[#522+[#523-#522]*0.86240]
#2=[#529+[#530-#529]*0.86240]
#3=[#1+[#2-#1]*0.54081]
X6.07104 Y-2.68134 Z[#3+#4]
#1=[#522+[#523-#522]*0.91422]
#2=[#529+[#530-#529]*0.91422]
#3=[#1+[#2-#1]*0.44491]
X6.03345 Y-2.66254 Z[#3+#4]
#1=[#522+[#523-#522]*0.91422]
#2=[#529+[#530-#529]*0.91422]
#3=[#1+[#2-#1]*0.28640]
X5.97131 Y-2.66254 Z[#3+#4]
#1=[#522+[#523-#522]*0.85825]
#2=[#529+[#530-#529]*0.85825]
#3=[#1+[#2-#1]*0.18281]
X5.93071 Y-2.68284 Z[#3+#4]
#1=[#522+[#523-#522]*0.81473]
#2=[#529+[#530-#529]*0.81473]
#3=[#1+[#2-#1]*0.14254]
X5.91492 Y-2.69863 Z[#3+#4]
#1=[#522+[#523-#522]*0.04954]
#2=[#529+[#530-#529]*0.04954]
#3=[#1+[#2-#1]*0.14254]
X5.91492 Y-2.97619 Z[#3+#4]
#1=[#522+[#523-#522]*0.03826]
#2=[#529+[#530-#529]*0.03826]
#3=[#1+[#2-#1]*0.14144]
X5.91449 Y-2.98028 Z[#3+#4]
#1=[#522+[#523-#522]*0.02747]
#2=[#529+[#530-#529]*0.02747]
#3=[#1+[#2-#1]*0.13820]
X5.91322 Y-2.98420 Z[#3+#4]
#1=[#522+[#523-#522]*0.01764]
#2=[#529+[#530-#529]*0.01764]
#3=[#1+[#2-#1]*0.13295]
X5.91116 Y-2.98776 Z[#3+#4]
#1=[#522+[#523-#522]*0.00921]
#2=[#529+[#530-#529]*0.00921]
#3=[#1+[#2-#1]*0.12592]
X5.90841 Y-2.99082 Z[#3+#4]
#1=[#522+[#523-#522]*0.00254]
#2=[#529+[#530-#529]*0.00254]
#3=[#1+[#2-#1]*0.11743]
X5.90508 Y-2.99324 Z[#3+#4]
#1=[#521+[#522-#521]*0.99793]
#2=[#528+[#529-#528]*0.99793]
#3=[#1+[#2-#1]*0.10784]
X5.90132 Y-2.99491 Z[#3+#4]
#1=[#521+[#522-#521]*0.99557]
#2=[#528+[#529-#528]*0.99557]
#3=[#1+[#2-#1]*0.09757]
X5.89729 Y-2.99577 Z[#3+#4]
#1=[#521+[#522-#521]*0.99557]
#2=[#528+[#529-#528]*0.99557]
#3=[#1+[#2-#1]*0.08707]
X5.89318 Y-2.99577 Z[#3+#4]
#1=[#521+[#522-#521]*0.99793]
#2=[#528+[#529-#528]*0.99793]
#3=[#1+[#2-#1]*0.07681]
X5.88915 Y-2.99491 Z[#3+#4]
#1=[#522+[#523-#522]*0.00254]
#2=[#529+[#530-#529]*0.00254]
#3=[#1+[#2-#1]*0.06721]
X5.88539 Y-2.99324 Z[#3+#4]
#1=[#522+[#523-#522]*0.00921]
#2=[#529+[#530-#529]*0.00921]
#3=[#1+[#2-#1]*0.05872]
X5.88207 Y-2.99082 Z[#3+#4]
#1=[#522+[#523-#522]*0.01764]
#2=[#529+[#530-#529]*0.01764]
#3=[#1+[#2-#1]*0.05170]
X5.87931 Y-2.98776 Z[#3+#4]
#1=[#522+[#523-#522]*0.02747]
#2=[#529+[#530-#529]*0.02747]
#3=[#1+[#2-#1]*0.04645]
X5.87725 Y-2.98420 Z[#3+#4]
#1=[#522+[#523-#522]*0.03826]
#2=[#529+[#530-#529]*0.03826]
#3=[#1+[#2-#1]*0.04320]
X5.87598 Y-2.98028 Z[#3+#4]
#1=[#522+[#523-#522]*0.04954]
#2=[#529+[#530-#529]*0.04954]
#3=[#1+[#2-#1]*0.04211]
X5.87555 Y-2.97619 Z[#3+#4]
G04 P0 ( dwell for no time -- G64 should not smooth over this point )
G00 Z0.08000 ( retract )

G00 X6.25661 Y-2.64491 ( rapid move to begin. )
G01 F180.00000
#1=[#529+[#530-#529]*0.96282]
#2=[#536+[#537-#536]*0.96282]
#3=[#1+[#2-#1]*0.01422]
G01 Z[-0.04000+#111]
G04 P0 ( dwell for no time -- G64 should not smooth over this point )
G01 F360.00000
#1=[#529+[#530-#529]*0.97416]
#2=[#536+[#537-#536]*0.97416]
#3=[#1+[#2-#1]*0.01422]
X6.25661 Y-2.64080 Z[#3+#4]
#1=[#529+[#530-#529]*0.98526]
#2=[#536+[#537-#536]*0.98526]
#3=[#1+[#2-#1]*0.01640]
X6.25747 Y-2.63677 Z[#3+#4]
#1=[#529+[#530-#529]*0.99562]
#2=[#536+[#537-#536]*0.99562]
#3=[#1+[#2-#1]*0.02067]
X6.25914 Y-2.63301 Z[#3+#4]
#1=[#530+[#531-#530]*0.00480]
#2=[#537+[#538-#537]*0.00480]
#3=[#1+[#2-#1]*0.02684]
X6.26156 Y-2.62968 Z[#3+#4]
#1=[#530+[#531-#530]*0.01239]
#2=[#537+[#538-#537]*0.01239]
#3=[#1+[#2-#1]*0.03465]
X6.26462 Y-2.62693 Z[#3+#4]
#1=[#530+[#531-#530]*0.01806]
#2=[#537+[#538-#537]*0.01806]
#3=[#1+[#2-#1]*0.04374]
X6.26818 Y-2.62487 Z[#3+#4]
#1=[#530+[#531-#530]*0.02157]
#2=[#537+[#538-#537]*0.02157]
#3=[#1+[#2-#1]*0.05372]
X6.27210 Y-2.62360 Z[#3+#4]
#1=[#530+[#531-#530]*0.02275]
#2=[#537+[#538-#537]*0.02275]
#3=[#1+[#2-#1]*0.19617]
X6.32793 Y-2.62317 Z[#3+#4]
#1=[#530+[#531-#530]*0.42796]
#2=[#537+[#538-#537]*0.42796]
#3=[#1+[#2-#1]*0.19617]
X6.32793 Y-2.47619 Z[#3+#4]
#1=[#530+[#531-#530]*0.43924]
#2=[#537+[#538-#537]*0.43924]
#3=[#1+[#2-#1]*0.19726]
X6.32836 Y-2.47210 Z[#3+#4]
#1=[#530+[#531-#530]*0.45003]
#2=[#537+[#538-#537]*0.45003]
#3=[#1+[#2-#1]*0.20051]
X6.32963 Y-2.46818 Z[#3+#4]
#1=[#530+[#531-#530]*0.45986]
#2=[#537+[#538-#537]*0.45986]
#3=[#1+[#2-#1]*0.20576]
X6.33169 Y-2.46462 Z[#3+#4]
#1=[#530+[#531-#530]*0.46829]
#2=[#537+[#538-#537]*0.46829]
#3=[#1+[#2-#1]*0.21278]
X6.33445 Y-2.46156 Z[#3+#4]
#1=[#530+[#531-#530]*0.47496]
#2=[#537+[#538-#537]*0.47496]
#3=[#1+[#2-#1]*0.22127]
X6.33778 Y-2.45914 Z[#3+#4]
#1=[#530+[#531-#530]*0.47957]
#2=[#537+[#538-#537]*0.47957]
#3=[#1+[#2-#1]*0.23087]
X6.34154 Y-2.45747 Z[#3+#4]
#1=[#530+[#531-#530]*0.48193]
#2=[#537+[#538-#537]*0.48193]
#3=[#1+[#2-#1]*0.24113]
X6.34556 Y-2.45661 Z[#3+#4]
#1=[#530+[#531-#530]*0.48193]
#2=[#537+[#538-#537]*0.48193]
#3=[#1+[#2-#1]*0.25163]
X6.34968 Y-2.45661 Z[#3+#4]
#1=[#530+[#531-#530]*0.47957]
#2=[#537+[#538-#537]*0.47957]
#3=[#1+[#2-#1]*0.26190]
X6.35370 Y-2.45747 Z[#3+#4]
#1=[#530+[#531-#530]*0.47496]
#2=[#537+[#538-#537]*0.47496]
#3=[#1+[#2-#1]*0.27149]
X6.35746 Y-2.45914 Z[#3+#4]
#1=[#530+[#531-#530]*0.46829]
#2=[#537+[#538-#537]*0.46829]
#3=[#1+[#2-#1]*0.27999]
X6.36079 Y-2.46156 Z[#3+#4]
#1=[#530+[#531-#530]*0.45986]
#2=[#537+[#538-#537]*0.45986]
#3=[#1+[#2-#1]*0.28701]
X6.36354 Y-2.46462 Z[#3+#4]
#1=[#530+[#531-#530]*0.45003]
#2=[#537+[#538-#537]*0.45003]
#3=[#1+[#2-#1]*0.29226]
X6.36560 Y-2.46818 Z[#3+#4]
#1=[#530+[#531-#530]*0.43924]
#2=[#537+[#538-#537]*0.43924]
#3=[#1+[#2-#1]*0.29550]
X6.36687 Y-2.47210 Z[#3+#4]
#1=[#530+[#531-#530]*0.42796]
#2=[#537+[#538-#537]*0.42796]
#3=[#1+[#2-#1]*0.29660]
X6.36730 Y-2.47619 Z[#3+#4]
#1=[#530+[#531-#530]*0.02275]
#2=[#537+[#538-#537]*0.02275]
#3=[#1+[#2-#1]*0.29660]
X6.36730 Y-2.62317 Z[#3+#4]
#1=[#530+[#531-#530]*0.02275]
#2=[#537+[#538-#537]*0.02275]
#3=[#1+[#2-#1]*0.55008]
X6.46667 Y-2.62317 Z[#3+#4]
#1=[#530+[#531-#530]*0.02157]
#2=[#537+[#538-#537]*0.02157]
#3=[#1+[#2-#1]*0.56053]
X6.47076 Y-2.62360 Z[#3+#4]
#1=[#530+[#531-#530]*0.01806]
#2=[#537+[#538-#537]*0.01806]
#3=[#1+[#2-#1]*0.57051]
X6.47467 Y-2.62487 Z[#3+#4]
#1=[#530+[#531-#530]*0.01239]
#2=[#537+[#538-#537]*0.01239]
#3=[#1+[#2-#1]*0.57960]
X6.47824 Y-2.62693 Z[#3+#4]
#1=[#530+[#531-#530]*0.00480]
#2=[#537+[#538-#537]*0.00480]
#3=[#1+[#2-#1]*0.58740]
X6.48130 Y-2.62968 Z[#3+#4]
#1=[#529+[#530-#529]*0.99562]
#2=[#536+[#537-#536]*0.99562]
#3=[#1+[#2-#1]*0.59357]
X6.48371 Y-2.63301 Z[#3+#4]
#1=[#529+[#530-#529]*0.98526]
#2=[#536+[#537-#536]*0.98526]
#3=[#1+[#2-#1]*0.59785]
X6.48539 Y-2.63677 Z[#3+#4]
#1=[#529+[#530-#529]*0.97416]
#2=[#536+[#537-#536]*0.97416]
#3=[#1+[#2-#1]*0.60003]
X6.48624 Y-2.64080 Z[#3+#4]
#1=[#529+[#530-#529]*0.96282]
#2=[#536+[#537-#536]*0.96282]
#3=[#1+[#2-#1]*0.60003]
X6.48624 Y-2.64491 Z[#3+#4]
#1=[#529+[#530-#529]*0.95172]
#2=[#536+[#537-#536]*0.95172]
#3=[#1+[#2-#1]*0.59785]
X6.48539 Y-2.64894 Z[#3+#4]
#1=[#529+[#530-#529]*0.94135]
#2=[#536+[#537-#536]*0.94135]
#3=[#1+[#2-#1]*0.59357]
X6.48371 Y-2.65270 Z[#3+#4]
#1=[#529+[#530-#529]*0.93218]
#2=[#536+[#537-#536]*0.93218]
#3=[#1+[#2-#1]*0.58740]
X6.48130 Y-2.65603 Z[#3+#4]
#1=[#529+[#530-#529]*0.92458]
#2=[#536+[#537-#536]*0.92458]
#3=[#1+[#2-#1]*0.57960]
X6.47824 Y-2.65878 Z[#3+#4]
#1=[#529+[#530-#529]*0.91891]
#2=[#536+[#537-#536]*0.91891]
#3=[#1+[#2-#1]*0.57051]
X6.47467 Y-2.66084 Z[#3+#4]
#1=[#529+[#530-#529]*0.91540]
#2=[#536+[#537-#536]*0.91540]
#3=[#1+[#2-#1]*0.56053]
X6.47076 Y-2.66211 Z[#3+#4]
#1=[#529+[#530-#529]*0.91422]
#2=[#536+[#537-#536]*0.91422]
#3=[#1+[#2-#1]*0.55008]
X6.46667 Y-2.66254 Z[#3+#4]
#1=[#529+[#530-#529]*0.91422]
#2=[#536+[#537-#536]*0.91422]
#3=[#1+[#2-#1]*0.29660]
X6.36730 Y-2.66254 Z[#3+#4]
#1=[#529+[#530-#529]*0.25927]
#2=[#536+[#537-#536]*0.25927]
#3=[#1+[#2-#1]*0.29660]
X6.36730 Y-2.90011 Z[#3+#4]
#1=[#529+[#530-#529]*0.15563]
#2=[#536+[#537-#536]*0.15563]
#3=[#1+[#2-#1]*0.34455]
X6.38610 Y-2.93771 Z[#3+#4]
#1=[#529+[#530-#529]*0.10381]
#2=[#536+[#537-#536]*0.10381]
#3=[#1+[#2-#1]*0.44046]
X6.42369 Y-2.95650 Z[#3+#4]
#1=[#529+[#530-#529]*0.10381]
#2=[#536+[#537-#536]*0.10381]
#3=[#1+[#2-#1]*0.55008]
X6.46667 Y-2.95650 Z[#3+#4]
#1=[#529+[#530-#529]*0.10262]
#2=[#536+[#537-#536]*0.10262]
#3=[#1+[#2-#1]*0.56053]
X6.47076 Y-2.95694 Z[#3+#4]
#1=[#529+[#530-#529]*0.09912]
#2=[#536+[#537-#536]*0.09912]
#3=[#1+[#2-#1]*0.57051]
X6.47467 Y-2.95821 Z[#3+#4]
#1=[#529+[#530-#529]*0.09345]
#2=[#536+[#537-#536]*0.09345]
#3=[#1+[#2-#1]*0.57960]
X6.47824 Y-2.96026 Z[#3+#4]
#1=[#529+[#530-#529]*0.08585]
#2=[#536+[#537-#536]*0.08585]
#3=[#1+[#2-#1]*0.58740]
X6.48130 Y-2.96302 Z[#3+#4]
#1=[#529+[#530-#529]*0.07668]
#2=[#536+[#537-#536]*0.07668]
#3=[#1+[#2-#1]*0.59357]
X6.48371 Y-2.96635 Z[#3+#4]
#1=[#529+[#530-#529]*0.06631]
#2=[#536+[#537-#536]*0.06631]
#3=[#1+[#2-#1]*0.59785]
X6.48539 Y-2.97011 Z[#3+#4]
#1=[#529+[#530-#529]*0.05521]
#2=[#536+[#537-#536]*0.05521]
#3=[#1+[#2-#1]*0.60003]
X6.48624 Y-2.97413 Z[#3+#4]
#1=[#529+[#530-#529]*0.04387]
#2=[#536+[#537-#536]*0.04387]
#3=[#1+[#2-#1]*0.60003]
X6.48624 Y-2.97825 Z[#3+#4]
#1=[#529+[#530-#529]*0.03277]
#2=[#536+[#537-#536]*0.03277]
#3=[#1+[#2-#1]*0.59785]
X6.48539 Y-2.98227 Z[#3+#4]
#1=[#529+[#530-#529]*0.02241]
#2=[#536+[#537-#536]*0.02241]
#3=[#1+[#2-#1]*0.59357]
X6.48371 Y-2.98603 Z[#3+#4]
#1=[#529+[#530-#529]*0.01323]
#2=[#536+[#537-#536]*0.01323]
#3=[#1+[#2-#1]*0.58740]
X6.48130 Y-2.98936 Z[#3+#4]
#1=[#529+[#530-#529]*0.00563]
#2=[#536+[#537-#536]*0.00563]
#3=[#1+[#2-#1]*0.57960]
X6.47824 Y-2.99212 Z[#3+#4]
#1=[#528+[#529-#528]*0.99996]
#2=[#535+[#536-#535]*0.99996]
#3=[#1+[#2-#1]*0.57051]
X6.47467 Y-2.99417 Z[#3+#4]
#1=[#528+[#529-#528]*0.99646]
#2=[#535+[#536-#535]*0.99646]
#3=[#1+[#2-#1]*0.56053]
X6.47076 Y-2.99545 Z[#3+#4]
#1=[#528+[#529-#528]*0.99527]
#2=[#535+[#536-#535]*0.99527]
#3=[#1+[#2-#1]*0.55008]
X6.46667 Y-2.99587 Z[#3+#4]
#1=[#528+[#529-#528]*0.99592]
#2=[#535+[#536-#535]*0.99592]
#3=[#1+[#2-#1]*0.42087]
X6.41602 Y-2.99564 Z[#3+#4]
#1=[#529+[#530-#529]*0.00100]
#2=[#536+[#537-#536]*0.00100]
#3=[#1+[#2-#1]*0.40615]
X6.41024 Y-2.99380 Z[#3+#4]
#1=[#529+[#530-#529]*0.06664]
#2=[#536+[#537-#536]*0.06664]
#3=[#1+[#2-#1]*0.28467]
X6.36263 Y-2.96999 Z[#3+#4]
#1=[#529+[#530-#529]*0.07115]
#2=[#536+[#537-#536]*0.07115]
#3=[#1+[#2-#1]*0.27776]
X6.35992 Y-2.96835 Z[#3+#4]
#1=[#529+[#530-#529]*0.08345]
#2=[#536+[#537-#536]*0.08345]
#3=[#1+[#2-#1]*0.26639]
X6.35546 Y-2.96389 Z[#3+#4]
#1=[#529+[#530-#529]*0.22219]
#2=[#536+[#537-#536]*0.22219]
#3=[#1+[#2-#1]*0.20147]
X6.33001 Y-2.91357 Z[#3+#4]
#1=[#529+[#530-#529]*0.23810]
#2=[#536+[#537-#536]*0.23810]
#3=[#1+[#2-#1]*0.19676]
X6.32817 Y-2.90779 Z[#3+#4]
#1=[#529+[#530-#529]*0.91422]
#2=[#536+[#537-#536]*0.91422]
#3=[#1+[#2-#1]*0.19617]
X6.32793 Y-2.66254 Z[#3+#4]
#1=[#529+[#530-#529]*0.91540]
#2=[#536+[#537-#536]*0.91540]
#3=[#1+[#2-#1]*0.05372]
X6.27210 Y-2.66211 Z[#3+#4]
#1=[#529+[#530-#529]*0.91891]
#2=[#536+[#537-#536]*0.91891]
#3=[#1+[#2-#1]*0.04374]
X6.26818 Y-2.66084 Z[#3+#4]
#1=[#529+[#530-#529]*0.92458]
#2=[#536+[#537-#536]*0.92458]
#3=[#1+[#2-#1]*0.03465]
X6.26462 Y-2.65878 Z[#3+#4]
#1=[#529+[#530-#529]*0.93218]
#2=[#536+[#537-#536]*0.93218]
#3=[#1+[#2-#1]*0.02684]
X6.26156 Y-2.65603 Z[#3+#4]
#1=[#529+[#530-#529]*0.94135]
#2=[#536+[#537-#536]*0.94135]
#3=[#1+[#2-#1]*0.02067]
X6.25914 Y-2.65270 Z[#3+#4]
#1=[#529+[#530-#529]*0.95172]
#2=[#536+[#537-#536]*0.95172]
#3=[#1+[#2-#1]*0.01640]
X6.25747 Y-2.64894 Z[#3+#4]
#1=[#529+[#530-#529]*0.96282]
#2=[#536+[#537-#536]*0.96282]
#3=[#1+[#2-#1]*0.01422]
X6.25661 Y-2.64491 Z[#3+#4]
G04 P0 ( dwell for no time -- G64 should not smooth over this point )
G00 Z0.08000 ( retract )

G00 X6.49510 Y-3.30051 ( rapid move to begin. )
G01 F180.00000
#1=[#528+[#529-#528]*0.15543]
#2=[#535+[#536-#535]*0.15543]
#3=[#1+[#2-#1]*0.62263]
G01 Z[-0.04000+#111]
G04 P0 ( dwell for no time -- G64 should not smooth over this point )
G01 F360.00000
#1=[#528+[#529-#528]*0.16104]
#2=[#535+[#536-#535]*0.16104]
#3=[#1+[#2-#1]*0.62318]
X6.49532 Y-3.29848 Z[#3+#4]
#1=[#528+[#529-#528]*0.16593]
#2=[#535+[#536-#535]*0.16593]
#3=[#1+[#2-#1]*0.62579]
X6.49634 Y-3.29671 Z[#3+#4]
#1=[#528+[#529-#528]*0.17012]
#2=[#535+[#536-#535]*0.17012]
#3=[#1+[#2-#1]*0.63251]
X6.49898 Y-3.29519 Z[#3+#4]
#1=[#528+[#529-#528]*0.17042]
#2=[#535+[#536-#535]*0.17042]
#3=[#1+[#2-#1]*0.75012]
X6.54508 Y-3.29508 Z[#3+#4]
#1=[#528+[#529-#528]*0.29469]
#2=[#535+[#536-#535]*0.29469]
#3=[#1+[#2-#1]*0.75012]
X6.54508 Y-3.25000 Z[#3+#4]
#1=[#528+[#529-#528]*0.30267]
#2=[#535+[#536-#535]*0.30267]
#3=[#1+[#2-#1]*0.75252]
X6.54602 Y-3.24711 Z[#3+#4]
#1=[#528+[#529-#528]*0.30644]
#2=[#535+[#536-#535]*0.30644]
#3=[#1+[#2-#1]*0.75640]
X6.54754 Y-3.24574 Z[#3+#4]
#1=[#528+[#529-#528]*0.30818]
#2=[#535+[#536-#535]*0.30818]
#3=[#1+[#2-#1]*0.76136]
X6.54948 Y-3.24511 Z[#3+#4]
#1=[#528+[#529-#528]*0.30759]
#2=[#535+[#536-#535]*0.30759]
#3=[#1+[#2-#1]*0.76655]
X6.55152 Y-3.24532 Z[#3+#4]
#1=[#528+[#529-#528]*0.30477]
#2=[#535+[#536-#535]*0.30477]
#3=[#1+[#2-#1]*0.77107]
X6.55329 Y-3.24634 Z[#3+#4]
#1=[#528+[#529-#528]*0.29751]
#2=[#535+[#536-#535]*0.29751]
#3=[#1+[#2-#1]*0.77495]
X6.55481 Y-3.24898 Z[#3+#4]
#1=[#528+[#529-#528]*0.17042]
#2=[#535+[#536-#535]*0.17042]
#3=[#1+[#2-#1]*0.77523]
X6.55492 Y-3.29508 Z[#3+#4]
#1=[#528+[#529-#528]*0.17042]
#2=[#535+[#536-#535]*0.17042]
#3=[#1+[#2-#1]*0.89023]
X6.60000 Y-3.29508 Z[#3+#4]
#1=[#528+[#529-#528]*0.16783]
#2=[#535+[#536-#535]*0.16783]
#3=[#1+[#2-#1]*0.89761]
X6.60289 Y-3.29602 Z[#3+#4]
#1=[#528+[#529-#528]*0.16363]
#2=[#535+[#536-#535]*0.16363]
#3=[#1+[#2-#1]*0.90110]
X6.60426 Y-3.29754 Z[#3+#4]
#1=[#528+[#529-#528]*0.15827]
#2=[#535+[#536-#535]*0.15827]
#3=[#1+[#2-#1]*0.90271]
X6.60489 Y-3.29948 Z[#3+#4]
#1=[#528+[#529-#528]*0.15266]
#2=[#535+[#536-#535]*0.15266]
#3=[#1+[#2-#1]*0.90217]
X6.60468 Y-3.30152 Z[#3+#4]
#1=[#528+[#529-#528]*0.14777]
#2=[#535+[#536-#535]*0.14777]
#3=[#1+[#2-#1]*0.89956]
X6.60366 Y-3.30329 Z[#3+#4]
#1=[#528+[#529-#528]*0.14358]
#2=[#535+[#536-#535]*0.14358]
#3=[#1+[#2-#1]*0.89284]
X6.60102 Y-3.30481 Z[#3+#4]
#1=[#528+[#529-#528]*0.14328]
#2=[#535+[#536-#535]*0.14328]
#3=[#1+[#2-#1]*0.77523]
X6.55492 Y-3.30492 Z[#3+#4]
#1=[#528+[#529-#528]*0.01901]
#2=[#535+[#536-#535]*0.01901]
#3=[#1+[#2-#1]*0.77523]
X6.55492 Y-3.35000 Z[#3+#4]
#1=[#528+[#529-#528]*0.01103]
#2=[#535+[#536-#535]*0.01103]
#3=[#1+[#2-#1]*0.77283]
X6.55398 Y-3.35289 Z[#3+#4]
#1=[#528+[#529-#528]*0.00726]
#2=[#535+[#536-#535]*0.00726]
#3=[#1+[#2-#1]*0.76895]
X6.55246 Y-3.35426 Z[#3+#4]
#1=[#528+[#529-#528]*0.00551]
#2=[#535+[#536-#535]*0.00551]
#3=[#1+[#2-#1]*0.76399]
X6.55051 Y-3.35489 Z[#3+#4]
#1=[#528+[#529-#528]*0.00610]
#2=[#535+[#536-#535]*0.00610]
#3=[#1+[#2-#1]*0.75880]
X6.54848 Y-3.35468 Z[#3+#4]
#1=[#528+[#529-#528]*0.00892]
#2=[#535+[#536-#535]*0.00892]
#3=[#1+[#2-#1]*0.75427]
X6.54671 Y-3.35366 Z[#3+#4]
#1=[#528+[#529-#528]*0.01619]
#2=[#535+[#536-#535]*0.01619]
#3=[#1+[#2-#1]*0.75039]
X6.54519 Y-3.35102 Z[#3+#4]
#1=[#528+[#529-#528]*0.14328]
#2=[#535+[#536-#535]*0.14328]
#3=[#1+[#2-#1]*0.75012]
X6.54508 Y-3.30492 Z[#3+#4]
#1=[#528+[#529-#528]*0.14328]
#2=[#535+[#536-#535]*0.14328]
#3=[#1+[#2-#1]*0.63512]
X6.50000 Y-3.30492 Z[#3+#4]
#1=[#528+[#529-#528]*0.14587]
#2=[#535+[#536-#535]*0.14587]
#3=[#1+[#2-#1]*0.62774]
X6.49711 Y-3.30398 Z[#3+#4]
#1=[#528+[#529-#528]*0.15007]
#2=[#535+[#536-#535]*0.15007]
#3=[#1+[#2-#1]*0.62425]
X6.49574 Y-3.30246 Z[#3+#4]
#1=[#528+[#529-#528]*0.15543]
#2=[#535+[#536-#535]*0.15543]
#3=[#1+[#2-#1]*0.62263]
X6.49510 Y-3.30051 Z[#3+#4]
( Piece #2, position [1;0] )

G04 P0 ( dwell for no time -- G64 should not smooth over this point )
G00 Z0.08000 ( retract )

G00 X6.85909 Y-2.97619 ( rapid move to begin. )
G01 F180.00000
#1=[#536+[#537-#536]*0.04954]
#2=[#543+[#544-#543]*0.04954]
#3=[#1+[#2-#1]*0.55119]
G01 Z[-0.04000+#111]
G04 P0 ( dwell for no time -- G64 should not smooth over this point )
G01 F360.00000
#1=[#536+[#537-#536]*0.73875]
#2=[#543+[#544-#543]*0.73875]
#3=[#1+[#2-#1]*0.55119]
X6.85909 Y-2.72619 Z[#3+#4]
#1=[#537+[#538-#537]*0.42796]
#2=[#544+[#545-#544]*0.42796]
#3=[#1+[#2-#1]*0.55119]
X6.85909 Y-2.47619 Z[#3+#4]
#1=[#537+[#538-#537]*0.44873]
#2=[#544+[#545-#544]*0.44873]
#3=[#1+[#2-#1]*0.55502]
X6.86059 Y-2.46866 Z[#3+#4]
#1=[#537+[#538-#537]*0.45811]
#2=[#544+[#545-#544]*0.45811]
#3=[#1+[#2-#1]*0.55966]
X6.86241 Y-2.46525 Z[#3+#4]
#1=[#537+[#538-#537]*0.47308]
#2=[#544+[#545-#544]*0.47308]
#3=[#1+[#2-#1]*0.57351]
X6.86784 Y-2.45982 Z[#3+#4]
#1=[#537+[#538-#537]*0.47810]
#2=[#544+[#545-#544]*0.47810]
#3=[#1+[#2-#1]*0.58219]
X6.87124 Y-2.45800 Z[#3+#4]
#1=[#537+[#538-#537]*0.48223]
#2=[#544+[#545-#544]*0.48223]
#3=[#1+[#2-#1]*0.60141]
X6.87878 Y-2.45650 Z[#3+#4]
#1=[#544+[#545-#544]*0.48223]
#2=[#551+[#552-#551]*0.48223]
#3=[#1+[#2-#1]*0.20881]
X7.11687 Y-2.45650 Z[#3+#4]
#1=[#544+[#545-#544]*0.48104]
#2=[#551+[#552-#551]*0.48104]
#3=[#1+[#2-#1]*0.21925]
X7.12096 Y-2.45694 Z[#3+#4]
#1=[#544+[#545-#544]*0.47754]
#2=[#551+[#552-#551]*0.47754]
#3=[#1+[#2-#1]*0.22924]
X7.12488 Y-2.45821 Z[#3+#4]
#1=[#544+[#545-#544]*0.47187]
#2=[#551+[#552-#551]*0.47187]
#3=[#1+[#2-#1]*0.23833]
X7.12844 Y-2.46026 Z[#3+#4]
#1=[#544+[#545-#544]*0.46427]
#2=[#551+[#552-#551]*0.46427]
#3=[#1+[#2-#1]*0.24613]
X7.13150 Y-2.46302 Z[#3+#4]
#1=[#544+[#545-#544]*0.45510]
#2=[#551+[#552-#551]*0.45510]
#3=[#1+[#2-#1]*0.25230]
X7.13392 Y-2.46635 Z[#3+#4]
#1=[#544+[#545-#544]*0.44473]
#2=[#551+[#552-#551]*0.44473]
#3=[#1+[#2-#1]*0.25657]
X7.13559 Y-2.47011 Z[#3+#4]
#1=[#544+[#545-#544]*0.43363]
#2=[#551+[#552-#551]*0.43363]
#3=[#1+[#2-#1]*0.25876]
X7.13645 Y-2.47413 Z[#3+#4]
#1=[#544+[#545-#544]*0.42229]
#2=[#551+[#552-#551]*0.42229]
#3=[#1+[#2-#1]*0.25876]
X7.13645 Y-2.47825 Z[#3+#4]
#1=[#544+[#545-#544]*0.41119]
#2=[#551+[#552-#551]*0.41119]
#3=[#1+[#2-#1]*0.25657]
X7.13559 Y-2.48227 Z[#3+#4]
#1=[#544+[#545-#544]*0.40083]
#2=[#551+[#552-#551]*0.40083]
#3=[#1+[#2-#1]*0.25230]
X7.13392 Y-2.48603 Z[#3+#4]
#1=[#544+[#545-#544]*0.39165]
#2=[#551+[#552-#551]*0.39165]
#3=[#1+[#2-#1]*0.24613]
X7.13150 Y-2.48936 Z[#3+#4]
#1=[#544+[#545-#544]*0.38405]
#2=[#551+[#552-#551]*0.38405]
#3=[#1+[#2-#1]*0.23833]
X7.12844 Y-2.49212 Z[#3+#4]
#1=[#544+[#545-#544]*0.37838]
#2=[#551+[#552-#551]*0.37838]
#3=[#1+[#2-#1]*0.22924]
X7.12488 Y-2.49417 Z[#3+#4]
#1=[#544+[#545-#544]*0.37488]
#2=[#551+[#552-#551]*0.37488]
#3=[#1+[#2-#1]*0.21925]
X7.12096 Y-2.49545 Z[#3+#4]
#1=[#544+[#545-#544]*0.37369]
#2=[#551+[#552-#551]*0.37369]
#3=[#1+[#2-#1]*0.20881]
X7.11687 Y-2.49587 Z[#3+#4]
#1=[#537+[#538-#537]*0.37369]
#2=[#544+[#545-#544]*0.37369]
#3=[#1+[#2-#1]*0.65163]
X6.89846 Y-2.49587 Z[#3+#4]
#1=[#536+[#537-#536]*0.82584]
#2=[#543+[#544-#543]*0.82584]
#3=[#1+[#2-#1]*0.65163]
X6.89846 Y-2.69460 Z[#3+#4]
#1=[#543+[#544-#543]*0.82584]
#2=[#550+[#551-#550]*0.82584]
#3=[#1+[#2-#1]*0.02659]
X7.04544 Y-2.69460 Z[#3+#4]
#1=[#543+[#544-#543]*0.82465]
#2=[#550+[#551-#550]*0.82465]
#3=[#1+[#2-#1]*0.03703]
X7.04954 Y-2.69503 Z[#3+#4]
#1=[#543+[#544-#543]*0.82115]
#2=[#550+[#551-#550]*0.82115]
#3=[#1+[#2-#1]*0.04702]
X7.05345 Y-2.69630 Z[#3+#4]
#1=[#543+[#544-#543]*0.81547]
#2=[#550+[#551-#550]*0.81547]
#3=[#1+[#2-#1]*0.05611]
X7.05701 Y-2.69836 Z[#3+#4]
#1=[#543+[#544-#543]*0.80788]
#2=[#550+[#551-#550]*0.80788]
#3=[#1+[#2-#1]*0.06391]
X7.06007 Y-2.70111 Z[#3+#4]
#1=[#543+[#544-#543]*0.79870]
#2=[#550+[#551-#550]*0.79870]
#3=[#1+[#2-#1]*0.07008]
X7.06249 Y-2.70444 Z[#3+#4]
#1=[#543+[#544-#543]*0.78834]
#2=[#550+[#551-#550]*0.78834]
#3=[#1+[#2-#1]*0.07435]
X7.06417 Y-2.70820 Z[#3+#4]
#1=[#543+[#544-#543]*0.77724]
#2=[#550+[#551-#550]*0.77724]
#3=[#1+[#2-#1]*0.07654]
X7.06502 Y-2.71223 Z[#3+#4]
#1=[#543+[#544-#543]*0.76590]
#2=[#550+[#551-#550]*0.76590]
#3=[#1+[#2-#1]*0.07654]
X7.06502 Y-2.71634 Z[#3+#4]
#1=[#543+[#544-#543]*0.75480]
#2=[#550+[#551-#550]*0.75480]
#3=[#1+[#2-#1]*0.07435]
X7.06417 Y-2.72037 Z[#3+#4]
#1=[#543+[#544-#543]*0.74443]
#2=[#550+[#551-#550]*0.74443]
#3=[#1+[#2-#1]*0.07008]
X7.06249 Y-2.72413 Z[#3+#4]
#1=[#543+[#544-#543]*0.73526]
#2=[#550+[#551-#550]*0.73526]
#3=[#1+[#2-#1]*0.06391]
X7.06007 Y-2.72746 Z[#3+#4]
#1=[#543+[#544-#543]*0.72766]
#2=[#550+[#551-#550]*0.72766]
#3=[#1+[#2-#1]*0.05611]
X7.05701 Y-2.73021 Z[#3+#4]
#1=[#543+[#544-#543]*0.72199]
#2=[#550+[#551-#550]*0.72199]
#3=[#1+[#2-#1]*0.04702]
X7.05345 Y-2.73227 Z[#3+#4]
#1=[#543+[#544-#543]*0.71849]
#2=[#550+[#551-#550]*0.71849]
#3=[#1+[#2-#1]*0.03703]
X7.04954 Y-2.73354 Z[#3+#4]
#1=[#543+[#544-#543]*0.71730]
#2=[#550+[#551-#550]*0.71730]
#3=[#1+[#2-#1]*0.02659]
X7.04544 Y-2.73397 Z[#3+#4]
#1=[#536+[#537-#536]*0.71730]
#2=[#543+[#544-#543]*0.71730]
#3=[#1+[#2-#1]*0.65163]
X6.89846 Y-2.73397 Z[#3+#4]
#1=[#536+[#537-#536]*0.04954]
#2=[#543+[#544-#543]*0.04954]
#3=[#1+[#2-#1]*0.65163]
X6.89846 Y-2.97619 Z[#3+#4]
#1=[#536+[#537-#536]*0.03826]
#2=[#543+[#544-#543]*0.03826]
#3=[#1+[#2-#1]*0.65053]
X6.89803 Y-2.98028 Z[#3+#4]
#1=[#536+[#537-#536]*0.02747]
#2=[#543+[#544-#543]*0.02747]
#3=[#1+[#2-#1]*0.64729]
X6.89676 Y-2.98420 Z[#3+#4]
#1=[#536+[#537-#536]*0.01764]
#2=[#543+[#544-#543]*0.01764]
#3=[#1+[#2-#1]*0.64204]
X6.89470 Y-2.98776 Z[#3+#4]
#1=[#536+[#537-#536]*0.00921]
#2=[#543+[#544-#543]*0.00921]
#3=[#1+[#2-#1]*0.63501]
X6.89195 Y-2.99082 Z[#3+#4]
#1=[#536+[#537-#536]*0.00254]
#2=[#543+[#544-#543]*0.00254]
#3=[#1+[#2-#1]*0.62652]
X6.88862 Y-2.99324 Z[#3+#4]
#1=[#535+[#536-#535]*0.99793]
#2=[#542+[#543-#542]*0.99793]
#3=[#1+[#2-#1]*0.61693]
X6.88486 Y-2.99491 Z[#3+#4]
#1=[#535+[#536-#535]*0.99557]
#2=[#542+[#543-#542]*0.99557]
#3=[#1+[#2-#1]*0.60666]
X6.88083 Y-2.99577 Z[#3+#4]
#1=[#535+[#536-#535]*0.99557]
#2=[#542+[#543-#542]*0.99557]
#3=[#1+[#2-#1]*0.59616]
X6.87672 Y-2.99577 Z[#3+#4]
#1=[#535+[#536-#535]*0.99793]
#2=[#542+[#543-#542]*0.99793]
#3=[#1+[#2-#1]*0.58589]
X6.87269 Y-2.99491 Z[#3+#4]
#1=[#536+[#537-#536]*0.00254]
#2=[#543+[#544-#543]*0.00254]
#3=[#1+[#2-#1]*0.57630]
X6.86893 Y-2.99324 Z[#3+#4]
#1=[#536+[#537-#536]*0.00921]
#2=[#543+[#544-#543]*0.00921]
#3=[#1+[#2-#1]*0.56781]
X6.86561 Y-2.99082 Z[#3+#4]
#1=[#536+[#537-#536]*0.01764]
#2=[#543+[#544-#543]*0.01764]
#3=[#1+[#2-#1]*0.56079]
X6.86285 Y-2.98776 Z[#3+#4]
#1=[#536+[#537-#536]*0.02747]
#2=[#543+[#544-#543]*0.02747]
#3=[#1+[#2-#1]*0.55554]
X6.86079 Y-2.98420 Z[#3+#4]
#1=[#536+[#537-#536]*0.03826]
#2=[#543+[#544-#543]*0.03826]
#3=[#1+[#2-#1]*0.55229]
X6.85952 Y-2.98028 Z[#3+#4]
#1=[#536+[#537-#536]*0.04954]
#2=[#543+[#544-#543]*0.04954]
#3=[#1+[#2-#1]*0.55119]
X6.85909 Y-2.97619 Z[#3+#4]
G04 P0 ( dwell for no time -- G64 should not smooth over this point )
G00 Z0.08000 ( retract )

G00 X7.28766 Y-2.97619 ( rapid move to begin. )
G01 F180.00000
#1=[#543+[#544-#543]*0.04954]
#2=[#550+[#551-#550]*0.04954]
#3=[#1+[#2-#1]*0.64452]
G01 Z[-0.04000+#111]
G04 P0 ( dwell for no time -- G64 should not smooth over this point )
G01 F360.00000
#1=[#543+[#544-#543]*0.96849]
#2=[#550+[#551-#550]*0.96849]
#3=[#1+[#2-#1]*0.64452]
X7.28766 Y-2.64286 Z[#3+#4]
#1=[#543+[#544-#543]*0.97977]
#2=[#550+[#551-#550]*0.97977]
#3=[#1+[#2-#1]*0.64561]
X7.28809 Y-2.63876 Z[#3+#4]
#1=[#543+[#544-#543]*0.99056]
#2=[#550+[#551-#550]*0.99056]
#3=[#1+[#2-#1]*0.64886]
X7.28937 Y-2.63485 Z[#3+#4]
#1=[#544+[#545-#544]*0.00039]
#2=[#551+[#552-#551]*0.00039]
#3=[#1+[#2-#1]*0.65411]
X7.29142 Y-2.63129 Z[#3+#4]
#1=[#544+[#545-#544]*0.00882]
#2=[#551+[#552-#551]*0.00882]
#3=[#1+[#2-#1]*0.66113]
X7.29418 Y-2.62823 Z[#3+#4]
#1=[#544+[#545-#544]*0.01548]
#2=[#551+[#552-#551]*0.01548]
#3=[#1+[#2-#1]*0.66962]
X7.29751 Y-2.62581 Z[#3+#4]
#1=[#544+[#545-#544]*0.02010]
#2=[#551+[#552-#551]*0.02010]
#3=[#1+[#2-#1]*0.67922]
X7.30127 Y-2.62413 Z[#3+#4]
#1=[#544+[#545-#544]*0.02246]
#2=[#551+[#552-#551]*0.02246]
#3=[#1+[#2-#1]*0.68948]
X7.30529 Y-2.62328 Z[#3+#4]
#1=[#544+[#545-#544]*0.02246]
#2=[#551+[#552-#551]*0.02246]
#3=[#1+[#2-#1]*0.69998]
X7.30941 Y-2.62328 Z[#3+#4]
#1=[#544+[#545-#544]*0.02010]
#2=[#551+[#552-#551]*0.02010]
#3=[#1+[#2-#1]*0.71025]
X7.31343 Y-2.62413 Z[#3+#4]
#1=[#544+[#545-#544]*0.01548]
#2=[#551+[#552-#551]*0.01548]
#3=[#1+[#2-#1]*0.71984]
X7.31719 Y-2.62581 Z[#3+#4]
#1=[#544+[#545-#544]*0.00882]
#2=[#551+[#552-#551]*0.00882]
#3=[#1+[#2-#1]*0.72834]
X7.32052 Y-2.62823 Z[#3+#4]
#1=[#544+[#545-#544]*0.00039]
#2=[#551+[#552-#551]*0.00039]
#3=[#1+[#2-#1]*0.73536]
X7.32327 Y-2.63129 Z[#3+#4]
#1=[#543+[#544-#543]*0.99056]
#2=[#550+[#551-#550]*0.99056]
#3=[#1+[#2-#1]*0.74061]
X7.32533 Y-2.63485 Z[#3+#4]
#1=[#543+[#544-#543]*0.97977]
#2=[#550+[#551-#550]*0.97977]
#3=[#1+[#2-#1]*0.74386]
X7.32660 Y-2.63876 Z[#3+#4]
#1=[#543+[#544-#543]*0.90259]
#2=[#550+[#551-#550]*0.90259]
#3=[#1+[#2-#1]*0.74495]
X7.32703 Y-2.66676 Z[#3+#4]
#1=[#543+[#544-#543]*0.94687]
#2=[#550+[#551-#550]*0.94687]
#3=[#1+[#2-#1]*0.78685]
X7.34346 Y-2.65070 Z[#3+#4]
#1=[#544+[#545-#544]*0.02018]
#2=[#551+[#552-#551]*0.02018]
#3=[#1+[#2-#1]*0.92242]
X7.39660 Y-2.62410 Z[#3+#4]
#1=[#544+[#545-#544]*0.02275]
#2=[#551+[#552-#551]*0.02275]
#3=[#1+[#2-#1]*0.93769]
X7.40259 Y-2.62317 Z[#3+#4]
#1=[#551+[#552-#551]*0.02275]
#2=[#558+[#559-#558]*0.02275]
#3=[#1+[#2-#1]*0.05917]
X7.45021 Y-2.62317 Z[#3+#4]
#1=[#551+[#552-#551]*0.02157]
#2=[#558+[#559-#558]*0.02157]
#3=[#1+[#2-#1]*0.06962]
X7.45430 Y-2.62360 Z[#3+#4]
#1=[#551+[#552-#551]*0.01806]
#2=[#558+[#559-#558]*0.01806]
#3=[#1+[#2-#1]*0.07960]
X7.45821 Y-2.62487 Z[#3+#4]
#1=[#551+[#552-#551]*0.01239]
#2=[#558+[#559-#558]*0.01239]
#3=[#1+[#2-#1]*0.08869]
X7.46178 Y-2.62693 Z[#3+#4]
#1=[#551+[#552-#551]*0.00480]
#2=[#558+[#559-#558]*0.00480]
#3=[#1+[#2-#1]*0.09649]
X7.46483 Y-2.62968 Z[#3+#4]
#1=[#550+[#551-#550]*0.99562]
#2=[#557+[#558-#557]*0.99562]
#3=[#1+[#2-#1]*0.10266]
X7.46725 Y-2.63301 Z[#3+#4]
#1=[#550+[#551-#550]*0.98526]
#2=[#557+[#558-#557]*0.98526]
#3=[#1+[#2-#1]*0.10694]
X7.46893 Y-2.63677 Z[#3+#4]
#1=[#550+[#551-#550]*0.97416]
#2=[#557+[#558-#557]*0.97416]
#3=[#1+[#2-#1]*0.10912]
X7.46978 Y-2.64080 Z[#3+#4]
#1=[#550+[#551-#550]*0.96282]
#2=[#557+[#558-#557]*0.96282]
#3=[#1+[#2-#1]*0.10912]
X7.46978 Y-2.64491 Z[#3+#4]
#1=[#550+[#551-#550]*0.95172]
#2=[#557+[#558-#557]*0.95172]
#3=[#1+[#2-#1]*0.10694]
X7.46893 Y-2.64894 Z[#3+#4]
#1=[#550+[#551-#550]*0.94135]
#2=[#557+[#558-#557]*0.94135]
#3=[#1+[#2-#1]*0.10266]
X7.46725 Y-2.65270 Z[#3+#4]
#1=[#550+[#551-#550]*0.93218]
#2=[#557+[#558-#557]*0.93218]
#3=[#1+[#2-#1]*0.09649]
X7.46483 Y-2.65603 Z[#3+#4]
#1=[#550+[#551-#550]*0.92458]
#2=[#557+[#558-#557]*0.92458]
#3=[#1+[#2-#1]*0.08869]
X7.46178 Y-2.65878 Z[#3+#4]
#1=[#550+[#551-#550]*0.91891]
#2=[#557+[#558-#557]*0.91891]
#3=[#1+[#2-#1]*0.07960]
X7.45821 Y-2.66084 Z[#3+#4]
#1=[#550+[#551-#550]*0.91540]
#2=[#557+[#558-#557]*0.91540]
#3=[#1+[#2-#1]*0.06962]
X7.45430 Y-2.66211 Z[#3+#4]
#1=[#550+[#551-#550]*0.91422]
#2=[#557+[#558-#557]*0.91422]
#3=[#1+[#2-#1]*0.05917]
X7.45021 Y-2.66254 Z[#3+#4]
#1=[#543+[#544-#543]*0.91422]
#2=[#550+[#551-#550]*0.91422]
#3=[#1+[#2-#1]*0.94955]
X7.40723 Y-2.66254 Z[#3+#4]
#1=[#543+[#544-#543]*0.85825]
#2=[#550+[#551-#550]*0.85825]
#3=[#1+[#2-#1]*0.84596]
X7.36663 Y-2.68284 Z[#3+#4]
#1=[#543+[#544-#543]*0.80506]
#2=[#550+[#551-#550]*0.80506]
#3=[#1+[#2-#1]*0.79675]
X7.34734 Y-2.70214 Z[#3+#4]
#1=[#543+[#544-#543]*0.69312]
#2=[#550+[#551-#550]*0.69312]
#3=[#1+[#2-#1]*0.74495]
X7.32703 Y-2.74274 Z[#3+#4]
#1=[#543+[#544-#543]*0.04954]
#2=[#550+[#551-#550]*0.04954]
#3=[#1+[#2-#1]*0.74495]
X7.32703 Y-2.97619 Z[#3+#4]
#1=[#543+[#544-#543]*0.03826]
#2=[#550+[#551-#550]*0.03826]
#3=[#1+[#2-#1]*0.74386]
X7.32660 Y-2.98028 Z[#3+#4]
#1=[#543+[#544-#543]*0.02747]
#2=[#550+[#551-#550]*0.02747]
#3=[#1+[#2-#1]*0.74061]
X7.32533 Y-2.98420 Z[#3+#4]
#1=[#543+[#544-#543]*0.01764]
#2=[#550+[#551-#550]*0.01764]
#3=[#1+[#2-#1]*0.73536]
X7.32327 Y-2.98776 Z[#3+#4]
#1=[#543+[#544-#543]*0.00921]
#2=[#550+[#551-#550]*0.00921]
#3=[#1+[#2-#1]*0.72834]
X7.32052 Y-2.99082 Z[#3+#4]
#1=[#543+[#544-#543]*0.00254]
#2=[#550+[#551-#550]*0.00254]
#3=[#1+[#2-#1]*0.71984]
X7.31719 Y-2.99324 Z[#3+#4]
#1=[#542+[#543-#542]*0.99793]
#2=[#549+[#550-#549]*0.99793]
#3=[#1+[#2-#1]*0.71025]
X7.31343 Y-2.99491 Z[#3+#4]
#1=[#542+[#543-#542]*0.99557]
#2=[#549+[#550-#549]*0.99557]
#3=[#1+[#2-#1]*0.69998]
X7.30941 Y-2.99577 Z[#3+#4]
#1=[#542+[#543-#542]*0.99557]
#2=[#549+[#550-#549]*0.99557]
#3=[#1+[#2-#1]*0.68948]
X7.30529 Y-2.99577 Z[#3+#4]
#1=[#542+[#543-#542]*0.99793]
#2=[#549+[#550-#549]*0.99793]
#3=[#1+[#2-#1]*0.67922]
X7.30127 Y-2.99491 Z[#3+#4]
#1=[#543+[#544-#543]*0.00254]
#2=[#550+[#551-#550]*0.00254]
#3=[#1+[#2-#1]*0.66962]
X7.29751 Y-2.99324 Z[#3+#4]
#1=[#543+[#544-#543]*0.00921]
#2=[#550+[#551-#550]*0.00921]
#3=[#1+[#2-#1]*0.66113]
X7.29418 Y-2.99082 Z[#3+#4]
#1=[#543+[#544-#543]*0.01764]
#2=[#550+[#551-#550]*0.01764]
#3=[#1+[#2-#1]*0.65411]
X7.29142 Y-2.98776 Z[#3+#4]
#1=[#543+[#544-#543]*0.02747]
#2=[#550+[#551-#550]*0.02747]
#3=[#1+[#2-#1]*0.64886]
X7.28937 Y-2.98420 Z[#3+#4]
#1=[#543+[#544-#543]*0.03826]
#2=[#550+[#551-#550]*0.03826]
#3=[#1+[#2-#1]*0.64561]
X7.28809 Y-2.98028 Z[#3+#4]
#1=[#543+[#544-#543]*0.04954]
#2=[#550+[#551-#550]*0.04954]
#3=[#1+[#2-#1]*0.64452]
X7.28766 Y-2.97619 Z[#3+#4]
G04 P0 ( dwell for no time -- G64 should not smooth over this point )
G00 Z0.08000 ( retract )

G00 X7.57338 Y-2.88095 ( rapid move to begin. )
G01 F180.00000
#1=[#550+[#551-#550]*0.31210]
#2=[#557+[#558-#557]*0.31210]
#3=[#1+[#2-#1]*0.37340]
G01 Z[-0.04000+#111]
G04 P0 ( dwell for no time -- G64 should not smooth over this point )
G01 F360.00000
#1=[#550+[#551-#550]*0.70593]
#2=[#557+[#558-#557]*0.70593]
#3=[#1+[#2-#1]*0.37340]
X7.57338 Y-2.73809 Z[#3+#4]
#1=[#550+[#551-#550]*0.72244]
#2=[#557+[#558-#557]*0.72244]
#3=[#1+[#2-#1]*0.37578]
X7.57431 Y-2.73211 Z[#3+#4]
#1=[#550+[#551-#550]*0.86894]
#2=[#557+[#558-#557]*0.86894]
#3=[#1+[#2-#1]*0.44361]
X7.60090 Y-2.67897 Z[#3+#4]
#1=[#550+[#551-#550]*0.94687]
#2=[#557+[#558-#557]*0.94687]
#3=[#1+[#2-#1]*0.51573]
X7.62917 Y-2.65070 Z[#3+#4]
#1=[#551+[#552-#551]*0.01703]
#2=[#558+[#559-#558]*0.01703]
#3=[#1+[#2-#1]*0.64412]
X7.67950 Y-2.62525 Z[#3+#4]
#1=[#551+[#552-#551]*0.02211]
#2=[#558+[#559-#558]*0.02211]
#3=[#1+[#2-#1]*0.65884]
X7.68527 Y-2.62341 Z[#3+#4]
#1=[#551+[#552-#551]*0.02211]
#2=[#558+[#559-#558]*0.02211]
#3=[#1+[#2-#1]*0.85652]
X7.76276 Y-2.62341 Z[#3+#4]
#1=[#551+[#552-#551]*0.01703]
#2=[#558+[#559-#558]*0.01703]
#3=[#1+[#2-#1]*0.87125]
X7.76853 Y-2.62525 Z[#3+#4]
#1=[#550+[#551-#550]*0.94687]
#2=[#557+[#558-#557]*0.94687]
#3=[#1+[#2-#1]*0.99964]
X7.81886 Y-2.65070 Z[#3+#4]
#1=[#557+[#558-#557]*0.86894]
#2=[#564+[#565-#564]*0.86894]
#3=[#1+[#2-#1]*0.07175]
X7.84713 Y-2.67897 Z[#3+#4]
#1=[#557+[#558-#557]*0.73020]
#2=[#564+[#565-#564]*0.73020]
#3=[#1+[#2-#1]*0.13667]
X7.87257 Y-2.72929 Z[#3+#4]
#1=[#557+[#558-#557]*0.71428]
#2=[#564+[#565-#564]*0.71428]
#3=[#1+[#2-#1]*0.14137]
X7.87442 Y-2.73507 Z[#3+#4]
#1=[#557+[#558-#557]*0.30374]
#2=[#564+[#565-#564]*0.30374]
#3=[#1+[#2-#1]*0.14137]
X7.87442 Y-2.88398 Z[#3+#4]
#1=[#557+[#558-#557]*0.28783]
#2=[#564+[#565-#564]*0.28783]
#3=[#1+[#2-#1]*0.13667]
X7.87257 Y-2.88976 Z[#3+#4]
#1=[#557+[#558-#557]*0.14909]
#2=[#564+[#565-#564]*0.14909]
#3=[#1+[#2-#1]*0.07175]
X7.84713 Y-2.94008 Z[#3+#4]
#1=[#550+[#551-#550]*0.07115]
#2=[#557+[#558-#557]*0.07115]
#3=[#1+[#2-#1]*0.99964]
X7.81886 Y-2.96835 Z[#3+#4]
#1=[#550+[#551-#550]*0.00100]
#2=[#557+[#558-#557]*0.00100]
#3=[#1+[#2-#1]*0.87125]
X7.76853 Y-2.99380 Z[#3+#4]
#1=[#549+[#550-#549]*0.99592]
#2=[#556+[#557-#556]*0.99592]
#3=[#1+[#2-#1]*0.85652]
X7.76276 Y-2.99564 Z[#3+#4]
#1=[#549+[#550-#549]*0.99527]
#2=[#556+[#557-#556]*0.99527]
#3=[#1+[#2-#1]*0.66657]
X7.68830 Y-2.99587 Z[#3+#4]
#1=[#549+[#550-#549]*0.99784]
#2=[#556+[#557-#556]*0.99784]
#3=[#1+[#2-#1]*0.65130]
X7.68231 Y-2.99494 Z[#3+#4]
#1=[#550+[#551-#550]*0.07115]
#2=[#557+[#558-#557]*0.07115]
#3=[#1+[#2-#1]*0.51573]
X7.62917 Y-2.96835 Z[#3+#4]
#1=[#550+[#551-#550]*0.14245]
#2=[#557+[#558-#557]*0.14245]
#3=[#1+[#2-#1]*0.44884]
X7.60295 Y-2.94249 Z[#3+#4]
#1=[#550+[#551-#550]*0.15655]
#2=[#557+[#558-#557]*0.15655]
#3=[#1+[#2-#1]*0.43944]
X7.59927 Y-2.93737 Z[#3+#4]
#1=[#550+[#551-#550]*0.28897]
#2=[#557+[#558-#557]*0.28897]
#3=[#1+[#2-#1]*0.37830]
X7.57530 Y-2.88934 Z[#3+#4]
#1=[#550+[#551-#550]*0.30081]
#2=[#557+[#558-#557]*0.30081]
#3=[#1+[#2-#1]*0.37449]
X7.57381 Y-2.88504 Z[#3+#4]
#1=[#550+[#551-#550]*0.31210]
#2=[#557+[#558-#557]*0.31210]
#3=[#1+[#2-#1]*0.37340]
X7.57338 Y-2.88095 Z[#3+#4]
G04 P0 ( dwell for no time -- G64 should not smooth over this point )
G00 Z0.08000 ( retract )

G00 X7.61275 Y-2.87630 ( rapid move to begin. )
G01 F180.00000
#1=[#550+[#551-#550]*0.32491]
#2=[#557+[#558-#557]*0.32491]
#3=[#1+[#2-#1]*0.47383]
G01 Z[-0.04000+#111]
G04 P0 ( dwell for no time -- G64 should not smooth over this point )
G01 F360.00000
#1=[#550+[#551-#550]*0.69312]
#2=[#557+[#558-#557]*0.69312]
#3=[#1+[#2-#1]*0.47383]
X7.61275 Y-2.74274 Z[#3+#4]
#1=[#550+[#551-#550]*0.80506]
#2=[#557+[#558-#557]*0.80506]
#3=[#1+[#2-#1]*0.52563]
X7.63305 Y-2.70214 Z[#3+#4]
#1=[#550+[#551-#550]*0.85825]
#2=[#557+[#558-#557]*0.85825]
#3=[#1+[#2-#1]*0.57484]
X7.65234 Y-2.68284 Z[#3+#4]
#1=[#550+[#551-#550]*0.91422]
#2=[#557+[#558-#557]*0.91422]
#3=[#1+[#2-#1]*0.67843]
X7.69295 Y-2.66254 Z[#3+#4]
#1=[#550+[#551-#550]*0.91422]
#2=[#557+[#558-#557]*0.91422]
#3=[#1+[#2-#1]*0.83694]
X7.75508 Y-2.66254 Z[#3+#4]
#1=[#550+[#551-#550]*0.85825]
#2=[#557+[#558-#557]*0.85825]
#3=[#1+[#2-#1]*0.94053]
X7.79569 Y-2.68284 Z[#3+#4]
#1=[#550+[#551-#550]*0.80506]
#2=[#557+[#558-#557]*0.80506]
#3=[#1+[#2-#1]*0.98974]
X7.81498 Y-2.70214 Z[#3+#4]
#1=[#557+[#558-#557]*0.69312]
#2=[#564+[#565-#564]*0.69312]
#3=[#1+[#2-#1]*0.04154]
X7.83528 Y-2.74274 Z[#3+#4]
#1=[#557+[#558-#557]*0.32491]
#2=[#564+[#565-#564]*0.32491]
#3=[#1+[#2-#1]*0.04154]
X7.83528 Y-2.87630 Z[#3+#4]
#1=[#550+[#551-#550]*0.21297]
#2=[#557+[#558-#557]*0.21297]
#3=[#1+[#2-#1]*0.98974]
X7.81498 Y-2.91691 Z[#3+#4]
#1=[#550+[#551-#550]*0.15978]
#2=[#557+[#558-#557]*0.15978]
#3=[#1+[#2-#1]*0.94053]
X7.79569 Y-2.93620 Z[#3+#4]
#1=[#550+[#551-#550]*0.10381]
#2=[#557+[#558-#557]*0.10381]
#3=[#1+[#2-#1]*0.83694]
X7.75508 Y-2.95650 Z[#3+#4]
#1=[#550+[#551-#550]*0.10381]
#2=[#557+[#558-#557]*0.10381]
#3=[#1+[#2-#1]*0.67843]
X7.69295 Y-2.95650 Z[#3+#4]
#1=[#550+[#551-#550]*0.15978]
#2=[#557+[#558-#557]*0.15978]
#3=[#1+[#2-#1]*0.57484]
X7.65234 Y-2.93620 Z[#3+#4]
#1=[#550+[#551-#550]*0.21297]
#2=[#557+[#558-#557]*0.21297]
#3=[#1+[#2-#1]*0.52563]
X7.63305 Y-2.91691 Z[#3+#4]
#1=[#550+[#551-#550]*0.32491]
#2=[#557+[#558-#557]*0.32491]
#3=[#1+[#2-#1]*0.47383]
X7.61275 Y-2.87630 Z[#3+#4]
G04 P0 ( dwell for no time -- G64 should not smooth over this point )
G00 Z0.08000 ( retract )

G00 X8.04957 Y-2.97619 ( rapid move to begin. )
G01 F180.00000
#1=[#557+[#558-#557]*0.04954]
#2=[#564+[#565-#564]*0.04954]
#3=[#1+[#2-#1]*0.58820]
G01 Z[-0.04000+#111]
G04 P0 ( dwell for no time -- G64 should not smooth over this point )
G01 F360.00000
#1=[#557+[#558-#557]*0.96849]
#2=[#564+[#565-#564]*0.96849]
#3=[#1+[#2-#1]*0.58820]
X8.04957 Y-2.64286 Z[#3+#4]
#1=[#557+[#558-#557]*0.97977]
#2=[#564+[#565-#564]*0.97977]
#3=[#1+[#2-#1]*0.58929]
X8.05000 Y-2.63876 Z[#3+#4]
#1=[#557+[#558-#557]*0.99056]
#2=[#564+[#565-#564]*0.99056]
#3=[#1+[#2-#1]*0.59254]
X8.05127 Y-2.63485 Z[#3+#4]
#1=[#558+[#559-#558]*0.00039]
#2=[#565+[#566-#565]*0.00039]
#3=[#1+[#2-#1]*0.59779]
X8.05333 Y-2.63129 Z[#3+#4]
#1=[#558+[#559-#558]*0.00882]
#2=[#565+[#566-#565]*0.00882]
#3=[#1+[#2-#1]*0.60481]
X8.05608 Y-2.62823 Z[#3+#4]
#1=[#558+[#559-#558]*0.01548]
#2=[#565+[#566-#565]*0.01548]
#3=[#1+[#2-#1]*0.61331]
X8.05941 Y-2.62581 Z[#3+#4]
#1=[#558+[#559-#558]*0.02010]
#2=[#565+[#566-#565]*0.02010]
#3=[#1+[#2-#1]*0.62290]
X8.06317 Y-2.62413 Z[#3+#4]
#1=[#558+[#559-#558]*0.02246]
#2=[#565+[#566-#565]*0.02246]
#3=[#1+[#2-#1]*0.63317]
X8.06720 Y-2.62328 Z[#3+#4]
#1=[#558+[#559-#558]*0.02246]
#2=[#565+[#566-#565]*0.02246]
#3=[#1+[#2-#1]*0.64366]
X8.07131 Y-2.62328 Z[#3+#4]
#1=[#558+[#559-#558]*0.02010]
#2=[#565+[#566-#565]*0.02010]
#3=[#1+[#2-#1]*0.65393]
X8.07534 Y-2.62413 Z[#3+#4]
#1=[#558+[#559-#558]*0.01548]
#2=[#565+[#566-#565]*0.01548]
#3=[#1+[#2-#1]*0.66352]
X8.07910 Y-2.62581 Z[#3+#4]
#1=[#558+[#559-#558]*0.00882]
#2=[#565+[#566-#565]*0.00882]
#3=[#1+[#2-#1]*0.67202]
X8.08242 Y-2.62823 Z[#3+#4]
#1=[#558+[#559-#558]*0.00039]
#2=[#565+[#566-#565]*0.00039]
#3=[#1+[#2-#1]*0.67904]
X8.08518 Y-2.63129 Z[#3+#4]
#1=[#557+[#558-#557]*0.99056]
#2=[#564+[#565-#564]*0.99056]
#3=[#1+[#2-#1]*0.68429]
X8.08724 Y-2.63485 Z[#3+#4]
#1=[#557+[#558-#557]*0.97977]
#2=[#564+[#565-#564]*0.97977]
#3=[#1+[#2-#1]*0.68753]
X8.08851 Y-2.63876 Z[#3+#4]
#1=[#557+[#558-#557]*0.95784]
#2=[#564+[#565-#564]*0.95784]
#3=[#1+[#2-#1]*0.68863]
X8.08894 Y-2.64672 Z[#3+#4]
#1=[#558+[#559-#558]*0.01703]
#2=[#565+[#566-#565]*0.01703]
#3=[#1+[#2-#1]*0.79818]
X8.13188 Y-2.62525 Z[#3+#4]
#1=[#558+[#559-#558]*0.02211]
#2=[#565+[#566-#565]*0.02211]
#3=[#1+[#2-#1]*0.81290]
X8.13765 Y-2.62341 Z[#3+#4]
#1=[#565+[#566-#565]*0.02211]
#2=[#572+[#573-#572]*0.02211]
#3=[#1+[#2-#1]*0.01059]
X8.21514 Y-2.62341 Z[#3+#4]
#1=[#565+[#566-#565]*0.01703]
#2=[#572+[#573-#572]*0.01703]
#3=[#1+[#2-#1]*0.02531]
X8.22091 Y-2.62525 Z[#3+#4]
#1=[#564+[#565-#564]*0.94687]
#2=[#571+[#572-#571]*0.94687]
#3=[#1+[#2-#1]*0.15370]
X8.27124 Y-2.65070 Z[#3+#4]
#1=[#564+[#565-#564]*0.93458]
#2=[#571+[#572-#571]*0.93458]
#3=[#1+[#2-#1]*0.16507]
X8.27570 Y-2.65516 Z[#3+#4]
#1=[#564+[#565-#564]*0.92712]
#2=[#571+[#572-#571]*0.92712]
#3=[#1+[#2-#1]*0.16925]
X8.27734 Y-2.65786 Z[#3+#4]
#1=[#564+[#565-#564]*0.79584]
#2=[#571+[#572-#571]*0.79584]
#3=[#1+[#2-#1]*0.22999]
X8.30115 Y-2.70548 Z[#3+#4]
#1=[#564+[#565-#564]*0.77992]
#2=[#571+[#572-#571]*0.77992]
#3=[#1+[#2-#1]*0.23470]
X8.30299 Y-2.71125 Z[#3+#4]
#1=[#564+[#565-#564]*0.04954]
#2=[#571+[#572-#571]*0.04954]
#3=[#1+[#2-#1]*0.23529]
X8.30322 Y-2.97619 Z[#3+#4]
#1=[#564+[#565-#564]*0.03826]
#2=[#571+[#572-#571]*0.03826]
#3=[#1+[#2-#1]*0.23420]
X8.30279 Y-2.98028 Z[#3+#4]
#1=[#564+[#565-#564]*0.02747]
#2=[#571+[#572-#571]*0.02747]
#3=[#1+[#2-#1]*0.23095]
X8.30152 Y-2.98420 Z[#3+#4]
#1=[#564+[#565-#564]*0.01764]
#2=[#571+[#572-#571]*0.01764]
#3=[#1+[#2-#1]*0.22570]
X8.29946 Y-2.98776 Z[#3+#4]
#1=[#564+[#565-#564]*0.00921]
#2=[#571+[#572-#571]*0.00921]
#3=[#1+[#2-#1]*0.21868]
X8.29671 Y-2.99082 Z[#3+#4]
#1=[#564+[#565-#564]*0.00254]
#2=[#571+[#572-#571]*0.00254]
#3=[#1+[#2-#1]*0.21018]
X8.29338 Y-2.99324 Z[#3+#4]
#1=[#563+[#564-#563]*0.99793]
#2=[#570+[#571-#570]*0.99793]
#3=[#1+[#2-#1]*0.20059]
X8.28962 Y-2.99491 Z[#3+#4]
#1=[#563+[#564-#563]*0.99557]
#2=[#570+[#571-#570]*0.99557]
#3=[#1+[#2-#1]*0.19032]
X8.28560 Y-2.99577 Z[#3+#4]
#1=[#563+[#564-#563]*0.99557]
#2=[#570+[#571-#570]*0.99557]
#3=[#1+[#2-#1]*0.17983]
X8.28148 Y-2.99577 Z[#3+#4]
#1=[#563+[#564-#563]*0.99793]
#2=[#570+[#571-#570]*0.99793]
#3=[#1+[#2-#1]*0.16956]
X8.27746 Y-2.99491 Z[#3+#4]
#1=[#564+[#565-#564]*0.00254]
#2=[#571+[#572-#571]*0.00254]
#3=[#1+[#2-#1]*0.15997]
X8.27370 Y-2.99324 Z[#3+#4]
#1=[#564+[#565-#564]*0.00921]
#2=[#571+[#572-#571]*0.00921]
#3=[#1+[#2-#1]*0.15147]
X8.27037 Y-2.99082 Z[#3+#4]
#1=[#564+[#565-#564]*0.01764]
#2=[#571+[#572-#571]*0.01764]
#3=[#1+[#2-#1]*0.14445]
X8.26761 Y-2.98776 Z[#3+#4]
#1=[#564+[#565-#564]*0.02747]
#2=[#571+[#572-#571]*0.02747]
#3=[#1+[#2-#1]*0.13920]
X8.26556 Y-2.98420 Z[#3+#4]
#1=[#564+[#565-#564]*0.03826]
#2=[#571+[#572-#571]*0.03826]
#3=[#1+[#2-#1]*0.13595]
X8.26428 Y-2.98028 Z[#3+#4]
#1=[#564+[#565-#564]*0.04954]
#2=[#571+[#572-#571]*0.04954]
#3=[#1+[#2-#1]*0.13486]
X8.26385 Y-2.97619 Z[#3+#4]
#1=[#564+[#565-#564]*0.75876]
#2=[#571+[#572-#571]*0.75876]
#3=[#1+[#2-#1]*0.13486]
X8.26385 Y-2.71893 Z[#3+#4]
#1=[#564+[#565-#564]*0.86240]
#2=[#571+[#572-#571]*0.86240]
#3=[#1+[#2-#1]*0.08691]
X8.24506 Y-2.68134 Z[#3+#4]
#1=[#557+[#558-#557]*0.91422]
#2=[#564+[#565-#564]*0.91422]
#3=[#1+[#2-#1]*0.99100]
X8.20746 Y-2.66254 Z[#3+#4]
#1=[#557+[#558-#557]*0.91422]
#2=[#564+[#565-#564]*0.91422]
#3=[#1+[#2-#1]*0.83249]
X8.14533 Y-2.66254 Z[#3+#4]
#1=[#557+[#558-#557]*0.85825]
#2=[#564+[#565-#564]*0.85825]
#3=[#1+[#2-#1]*0.72890]
X8.10472 Y-2.68284 Z[#3+#4]
#1=[#557+[#558-#557]*0.81473]
#2=[#564+[#565-#564]*0.81473]
#3=[#1+[#2-#1]*0.68863]
X8.08894 Y-2.69863 Z[#3+#4]
#1=[#557+[#558-#557]*0.04954]
#2=[#564+[#565-#564]*0.04954]
#3=[#1+[#2-#1]*0.68863]
X8.08894 Y-2.97619 Z[#3+#4]
#1=[#557+[#558-#557]*0.03826]
#2=[#564+[#565-#564]*0.03826]
#3=[#1+[#2-#1]*0.68753]
X8.08851 Y-2.98028 Z[#3+#4]
#1=[#557+[#558-#557]*0.02747]
#2=[#564+[#565-#564]*0.02747]
#3=[#1+[#2-#1]*0.68429]
X8.08724 Y-2.98420 Z[#3+#4]
#1=[#557+[#558-#557]*0.01764]
#2=[#564+[#565-#564]*0.01764]
#3=[#1+[#2-#1]*0.67904]
X8.08518 Y-2.98776 Z[#3+#4]
#1=[#557+[#558-#557]*0.00921]
#2=[#564+[#565-#564]*0.00921]
#3=[#1+[#2-#1]*0.67202]
X8.08242 Y-2.99082 Z[#3+#4]
#1=[#557+[#558-#557]*0.00254]
#2=[#564+[#565-#564]*0.00254]
#3=[#1+[#2-#1]*0.66352]
X8.07910 Y-2.99324 Z[#3+#4]
#1=[#556+[#557-#556]*0.99793]
#2=[#563+[#564-#563]*0.99793]
#3=[#1+[#2-#1]*0.65393]
X8.07534 Y-2.99491 Z[#3+#4]
#1=[#556+[#557-#556]*0.99557]
#2=[#563+[#564-#563]*0.99557]
#3=[#1+[#2-#1]*0.64366]
X8.07131 Y-2.99577 Z[#3+#4]
#1=[#556+[#557-#556]*0.99557]
#2=[#563+[#564-#563]*0.99557]
#3=[#1+[#2-#1]*0.63317]
X8.06720 Y-2.99577 Z[#3+#4]
#1=[#556+[#557-#556]*0.99793]
#2=[#563+[#564-#563]*0.99793]
#3=[#1+[#2-#1]*0.62290]
X8.06317 Y-2.99491 Z[#3+#4]
#1=[#557+[#558-#557]*0.00254]
#2=[#564+[#565-#564]*0.00254]
#3=[#1+[#2-#1]*0.61331]
X8.05941 Y-2.99324 Z[#3+#4]
#1=[#557+[#558-#557]*0.00921]
#2=[#564+[#565-#564]*0.00921]
#3=[#1+[#2-#1]*0.60481]
X8.05608 Y-2.99082 Z[#3+#4]
#1=[#557+[#558-#557]*0.01764]
#2=[#564+[#565-#564]*0.01764]
#3=[#1+[#2-#1]*0.59779]
X8.05333 Y-2.98776 Z[#3+#4]
#1=[#557+[#558-#557]*0.02747]
#2=[#564+[#565-#564]*0.02747]
#3=[#1+[#2-#1]*0.59254]
X8.05127 Y-2.98420 Z[#3+#4]
#1=[#557+[#558-#557]*0.03826]
#2=[#564+[#565-#564]*0.03826]
#3=[#1+[#2-#1]*0.58929]
X8.05000 Y-2.98028 Z[#3+#4]
#1=[#557+[#558-#557]*0.04954]
#2=[#564+[#565-#564]*0.04954]
#3=[#1+[#2-#1]*0.58820]
X8.04957 Y-2.97619 Z[#3+#4]
G04 P0 ( dwell for no time -- G64 should not smooth over this point )
G00 Z0.08000 ( retract )

G00 X8.43063 Y-2.64491 ( rapid move to begin. )
G01 F180.00000
#1=[#564+[#565-#564]*0.96282]
#2=[#571+[#572-#571]*0.96282]
#3=[#1+[#2-#1]*0.56031]
G01 Z[-0.04000+#111]
G04 P0 ( dwell for no time -- G64 should not smooth over this point )
G01 F360.00000
#1=[#564+[#565-#564]*0.97416]
#2=[#571+[#572-#571]*0.97416]
#3=[#1+[#2-#1]*0.56031]
X8.43063 Y-2.64080 Z[#3+#4]
#1=[#564+[#565-#564]*0.98526]
#2=[#571+[#572-#571]*0.98526]
#3=[#1+[#2-#1]*0.56249]
X8.43148 Y-2.63677 Z[#3+#4]
#1=[#564+[#565-#564]*0.99562]
#2=[#571+[#572-#571]*0.99562]
#3=[#1+[#2-#1]*0.56676]
X8.43316 Y-2.63301 Z[#3+#4]
#1=[#565+[#566-#565]*0.00480]
#2=[#572+[#573-#572]*0.00480]
#3=[#1+[#2-#1]*0.57294]
X8.43558 Y-2.62968 Z[#3+#4]
#1=[#565+[#566-#565]*0.01239]
#2=[#572+[#573-#572]*0.01239]
#3=[#1+[#2-#1]*0.58074]
X8.43863 Y-2.62693 Z[#3+#4]
#1=[#565+[#566-#565]*0.01806]
#2=[#572+[#573-#572]*0.01806]
#3=[#1+[#2-#1]*0.58983]
X8.44220 Y-2.62487 Z[#3+#4]
#1=[#565+[#566-#565]*0.02157]
#2=[#572+[#573-#572]*0.02157]
#3=[#1+[#2-#1]*0.59981]
X8.44611 Y-2.62360 Z[#3+#4]
#1=[#565+[#566-#565]*0.02275]
#2=[#572+[#573-#572]*0.02275]
#3=[#1+[#2-#1]*0.74226]
X8.50195 Y-2.62317 Z[#3+#4]
#1=[#565+[#566-#565]*0.42796]
#2=[#572+[#573-#572]*0.42796]
#3=[#1+[#2-#1]*0.74226]
X8.50195 Y-2.47619 Z[#3+#4]
#1=[#565+[#566-#565]*0.43924]
#2=[#572+[#573-#572]*0.43924]
#3=[#1+[#2-#1]*0.74336]
X8.50238 Y-2.47210 Z[#3+#4]
#1=[#565+[#566-#565]*0.45003]
#2=[#572+[#573-#572]*0.45003]
#3=[#1+[#2-#1]*0.74660]
X8.50365 Y-2.46818 Z[#3+#4]
#1=[#565+[#566-#565]*0.45986]
#2=[#572+[#573-#572]*0.45986]
#3=[#1+[#2-#1]*0.75185]
X8.50571 Y-2.46462 Z[#3+#4]
#1=[#565+[#566-#565]*0.46829]
#2=[#572+[#573-#572]*0.46829]
#3=[#1+[#2-#1]*0.75887]
X8.50846 Y-2.46156 Z[#3+#4]
#1=[#565+[#566-#565]*0.47496]
#2=[#572+[#573-#572]*0.47496]
#3=[#1+[#2-#1]*0.76737]
X8.51179 Y-2.45914 Z[#3+#4]
#1=[#565+[#566-#565]*0.47957]
#2=[#572+[#573-#572]*0.47957]
#3=[#1+[#2-#1]*0.77696]
X8.51555 Y-2.45747 Z[#3+#4]
#1=[#565+[#566-#565]*0.48193]
#2=[#572+[#573-#572]*0.48193]
#3=[#1+[#2-#1]*0.78723]
X8.51958 Y-2.45661 Z[#3+#4]
#1=[#565+[#566-#565]*0.48193]
#2=[#572+[#573-#572]*0.48193]
#3=[#1+[#2-#1]*0.79772]
X8.52369 Y-2.45661 Z[#3+#4]
#1=[#565+[#566-#565]*0.47957]
#2=[#572+[#573-#572]*0.47957]
#3=[#1+[#2-#1]*0.80799]
X8.52772 Y-2.45747 Z[#3+#4]
#1=[#565+[#566-#565]*0.47496]
#2=[#572+[#573-#572]*0.47496]
#3=[#1+[#2-#1]*0.81758]
X8.53148 Y-2.45914 Z[#3+#4]
#1=[#565+[#566-#565]*0.46829]
#2=[#572+[#573-#572]*0.46829]
#3=[#1+[#2-#1]*0.82608]
X8.53481 Y-2.46156 Z[#3+#4]
#1=[#565+[#566-#565]*0.45986]
#2=[#572+[#573-#572]*0.45986]
#3=[#1+[#2-#1]*0.83310]
X8.53756 Y-2.46462 Z[#3+#4]
#1=[#565+[#566-#565]*0.45003]
#2=[#572+[#573-#572]*0.45003]
#3=[#1+[#2-#1]*0.83835]
X8.53962 Y-2.46818 Z[#3+#4]
#1=[#565+[#566-#565]*0.43924]
#2=[#572+[#573-#572]*0.43924]
#3=[#1+[#2-#1]*0.84160]
X8.54089 Y-2.47210 Z[#3+#4]
#1=[#565+[#566-#565]*0.42796]
#2=[#572+[#573-#572]*0.42796]
#3=[#1+[#2-#1]*0.84269]
X8.54132 Y-2.47619 Z[#3+#4]
#1=[#565+[#566-#565]*0.02275]
#2=[#572+[#573-#572]*0.02275]
#3=[#1+[#2-#1]*0.84269]
X8.54132 Y-2.62317 Z[#3+#4]
#1=[#572+[#573-#572]*0.02275]
#2=[#579+[#580-#579]*0.02275]
#3=[#1+[#2-#1]*0.09618]
X8.64068 Y-2.62317 Z[#3+#4]
#1=[#572+[#573-#572]*0.02157]
#2=[#579+[#580-#579]*0.02157]
#3=[#1+[#2-#1]*0.10662]
X8.64477 Y-2.62360 Z[#3+#4]
#1=[#572+[#573-#572]*0.01806]
#2=[#579+[#580-#579]*0.01806]
#3=[#1+[#2-#1]*0.11660]
X8.64869 Y-2.62487 Z[#3+#4]
#1=[#572+[#573-#572]*0.01239]
#2=[#579+[#580-#579]*0.01239]
#3=[#1+[#2-#1]*0.12569]
X8.65225 Y-2.62693 Z[#3+#4]
#1=[#572+[#573-#572]*0.00480]
#2=[#579+[#580-#579]*0.00480]
#3=[#1+[#2-#1]*0.13350]
X8.65531 Y-2.62968 Z[#3+#4]
#1=[#571+[#572-#571]*0.99562]
#2=[#578+[#579-#578]*0.99562]
#3=[#1+[#2-#1]*0.13967]
X8.65773 Y-2.63301 Z[#3+#4]
#1=[#571+[#572-#571]*0.98526]
#2=[#578+[#579-#578]*0.98526]
#3=[#1+[#2-#1]*0.14394]
X8.65940 Y-2.63677 Z[#3+#4]
#1=[#571+[#572-#571]*0.97416]
#2=[#578+[#579-#578]*0.97416]
#3=[#1+[#2-#1]*0.14612]
X8.66026 Y-2.64080 Z[#3+#4]
#1=[#571+[#572-#571]*0.96282]
#2=[#578+[#579-#578]*0.96282]
#3=[#1+[#2-#1]*0.14612]
X8.66026 Y-2.64491 Z[#3+#4]
#1=[#571+[#572-#571]*0.95172]
#2=[#578+[#579-#578]*0.95172]
#3=[#1+[#2-#1]*0.14394]
X8.65940 Y-2.64894 Z[#3+#4]
#1=[#571+[#572-#571]*0.94135]
#2=[#578+[#579-#578]*0.94135]
#3=[#1+[#2-#1]*0.13967]
X8.65773 Y-2.65270 Z[#3+#4]
#1=[#571+[#572-#571]*0.93218]
#2=[#578+[#579-#578]*0.93218]
#3=[#1+[#2-#1]*0.13350]
X8.65531 Y-2.65603 Z[#3+#4]
#1=[#571+[#572-#571]*0.92458]
#2=[#578+[#579-#578]*0.92458]
#3=[#1+[#2-#1]*0.12569]
X8.65225 Y-2.65878 Z[#3+#4]
#1=[#571+[#572-#571]*0.91891]
#2=[#578+[#579-#578]*0.91891]
#3=[#1+[#2-#1]*0.11660]
X8.64869 Y-2.66084 Z[#3+#4]
#1=[#571+[#572-#571]*0.91540]
#2=[#578+[#579-#578]*0.91540]
#3=[#1+[#2-#1]*0.10662]
X8.64477 Y-2.66211 Z[#3+#4]
#1=[#571+[#572-#571]*0.91422]
#2=[#578+[#579-#578]*0.91422]
#3=[#1+[#2-#1]*0.09618]
X8.64068 Y-2.66254 Z[#3+#4]
#1=[#564+[#565-#564]*0.91422]
#2=[#571+[#572-#571]*0.91422]
#3=[#1+[#2-#1]*0.84269]
X8.54132 Y-2.66254 Z[#3+#4]
#1=[#564+[#565-#564]*0.25927]
#2=[#571+[#572-#571]*0.25927]
#3=[#1+[#2-#1]*0.84269]
X8.54132 Y-2.90011 Z[#3+#4]
#1=[#564+[#565-#564]*0.15563]
#2=[#571+[#572-#571]*0.15563]
#3=[#1+[#2-#1]*0.89064]
X8.56012 Y-2.93771 Z[#3+#4]
#1=[#564+[#565-#564]*0.10381]
#2=[#571+[#572-#571]*0.10381]
#3=[#1+[#2-#1]*0.98655]
X8.59771 Y-2.95650 Z[#3+#4]
#1=[#571+[#572-#571]*0.10381]
#2=[#578+[#579-#578]*0.10381]
#3=[#1+[#2-#1]*0.09618]
X8.64068 Y-2.95650 Z[#3+#4]
#1=[#571+[#572-#571]*0.10262]
#2=[#578+[#579-#578]*0.10262]
#3=[#1+[#2-#1]*0.10662]
X8.64477 Y-2.95694 Z[#3+#4]
#1=[#571+[#572-#571]*0.09912]
#2=[#578+[#579-#578]*0.09912]
#3=[#1+[#2-#1]*0.11660]
X8.64869 Y-2.95821 Z[#3+#4]
#1=[#571+[#572-#571]*0.09345]
#2=[#578+[#579-#578]*0.09345]
#3=[#1+[#2-#1]*0.12569]
X8.65225 Y-2.96026 Z[#3+#4]
#1=[#571+[#572-#571]*0.08585]
#2=[#578+[#579-#578]*0.08585]
#3=[#1+[#2-#1]*0.13350]
X8.65531 Y-2.96302 Z[#3+#4]
#1=[#571+[#572-#571]*0.07668]
#2=[#578+[#579-#578]*0.07668]
#3=[#1+[#2-#1]*0.13967]
X8.65773 Y-2.96635 Z[#3+#4]
#1=[#571+[#572-#571]*0.06631]
#2=[#578+[#579-#578]*0.06631]
#3=[#1+[#2-#1]*0.14394]
X8.65940 Y-2.97011 Z[#3+#4]
#1=[#571+[#572-#571]*0.05521]
#2=[#578+[#579-#578]*0.05521]
#3=[#1+[#2-#1]*0.14612]
X8.66026 Y-2.97413 Z[#3+#4]
#1=[#571+[#572-#571]*0.04387]
#2=[#578+[#579-#578]*0.04387]
#3=[#1+[#2-#1]*0.14612]
X8.66026 Y-2.97825 Z[#3+#4]
#1=[#571+[#572-#571]*0.03277]
#2=[#578+[#579-#578]*0.03277]
#3=[#1+[#2-#1]*0.14394]
X8.65940 Y-2.98227 Z[#3+#4]
#1=[#571+[#572-#571]*0.02241]
#2=[#578+[#579-#578]*0.02241]
#3=[#1+[#2-#1]*0.13967]
X8.65773 Y-2.98603 Z[#3+#4]
#1=[#571+[#572-#571]*0.01323]
#2=[#578+[#579-#578]*0.01323]
#3=[#1+[#2-#1]*0.13350]
X8.65531 Y-2.98936 Z[#3+#4]
#1=[#571+[#572-#571]*0.00563]
#2=[#578+[#579-#578]*0.00563]
#3=[#1+[#2-#1]*0.12569]
X8.65225 Y-2.99212 Z[#3+#4]
#1=[#570+[#571-#570]*0.99996]
#2=[#577+[#578-#577]*0.99996]
#3=[#1+[#2-#1]*0.11660]
X8.64869 Y-2.99417 Z[#3+#4]
#1=[#570+[#571-#570]*0.99646]
#2=[#577+[#578-#577]*0.99646]
#3=[#1+[#2-#1]*0.10662]
X8.64477 Y-2.99545 Z[#3+#4]
#1=[#570+[#571-#570]*0.99527]
#2=[#577+[#578-#577]*0.99527]
#3=[#1+[#2-#1]*0.09618]
X8.64068 Y-2.99587 Z[#3+#4]
#1=[#563+[#564-#563]*0.99592]
#2=[#570+[#571-#570]*0.99592]
#3=[#1+[#2-#1]*0.96697]
X8.59003 Y-2.99564 Z[#3+#4]
#1=[#564+[#565-#564]*0.00100]
#2=[#571+[#572-#571]*0.00100]
#3=[#1+[#2-#1]*0.95224]
X8.58426 Y-2.99380 Z[#3+#4]
#1=[#564+[#565-#564]*0.06664]
#2=[#571+[#572-#571]*0.06664]
#3=[#1+[#2-#1]*0.83076]
X8.53664 Y-2.96999 Z[#3+#4]
#1=[#564+[#565-#564]*0.07115]
#2=[#571+[#572-#571]*0.07115]
#3=[#1+[#2-#1]*0.82385]
X8.53393 Y-2.96835 Z[#3+#4]
#1=[#564+[#565-#564]*0.08345]
#2=[#571+[#572-#571]*0.08345]
#3=[#1+[#2-#1]*0.81248]
X8.52947 Y-2.96389 Z[#3+#4]
#1=[#564+[#565-#564]*0.22219]
#2=[#571+[#572-#571]*0.22219]
#3=[#1+[#2-#1]*0.74756]
X8.50403 Y-2.91357 Z[#3+#4]
#1=[#564+[#565-#564]*0.23810]
#2=[#571+[#572-#571]*0.23810]
#3=[#1+[#2-#1]*0.74286]
X8.50218 Y-2.90779 Z[#3+#4]
#1=[#564+[#565-#564]*0.91422]
#2=[#571+[#572-#571]*0.91422]
#3=[#1+[#2-#1]*0.74226]
X8.50195 Y-2.66254 Z[#3+#4]
#1=[#564+[#565-#564]*0.91540]
#2=[#571+[#572-#571]*0.91540]
#3=[#1+[#2-#1]*0.59981]
X8.44611 Y-2.66211 Z[#3+#4]
#1=[#564+[#565-#564]*0.91891]
#2=[#571+[#572-#571]*0.91891]
#3=[#1+[#2-#1]*0.58983]
X8.44220 Y-2.66084 Z[#3+#4]
#1=[#564+[#565-#564]*0.92458]
#2=[#571+[#572-#571]*0.92458]
#3=[#1+[#2-#1]*0.58074]
X8.43863 Y-2.65878 Z[#3+#4]
#1=[#564+[#565-#564]*0.93218]
#2=[#571+[#572-#571]*0.93218]
#3=[#1+[#2-#1]*0.57294]
X8.43558 Y-2.65603 Z[#3+#4]
#1=[#564+[#565-#564]*0.94135]
#2=[#571+[#572-#571]*0.94135]
#3=[#1+[#2-#1]*0.56676]
X8.43316 Y-2.65270 Z[#3+#4]
#1=[#564+[#565-#564]*0.95172]
#2=[#571+[#572-#571]*0.95172]
#3=[#1+[#2-#1]*0.56249]
X8.43148 Y-2.64894 Z[#3+#4]
#1=[#564+[#565-#564]*0.96282]
#2=[#571+[#572-#571]*0.96282]
#3=[#1+[#2-#1]*0.56031]
X8.43063 Y-2.64491 Z[#3+#4]
G04 P0 ( dwell for no time -- G64 should not smooth over this point )
G00 Z0.08000 ( retract )

G00 X8.66912 Y-3.30051 ( rapid move to begin. )
G01 F180.00000
#1=[#570+[#571-#570]*0.15543]
#2=[#577+[#578-#577]*0.15543]
#3=[#1+[#2-#1]*0.16873]
G01 Z[-0.04000+#111]
G04 P0 ( dwell for no time -- G64 should not smooth over this point )
G01 F360.00000
#1=[#570+[#571-#570]*0.16104]
#2=[#577+[#578-#577]*0.16104]
#3=[#1+[#2-#1]*0.16927]
X8.66933 Y-3.29848 Z[#3+#4]
#1=[#570+[#571-#570]*0.16593]
#2=[#577+[#578-#577]*0.16593]
#3=[#1+[#2-#1]*0.17188]
X8.67036 Y-3.29671 Z[#3+#4]
#1=[#570+[#571-#570]*0.17012]
#2=[#577+[#578-#577]*0.17012]
#3=[#1+[#2-#1]*0.17860]
X8.67299 Y-3.29519 Z[#3+#4]
#1=[#570+[#571-#570]*0.17042]
#2=[#577+[#578-#577]*0.17042]
#3=[#1+[#2-#1]*0.29621]
X8.71909 Y-3.29508 Z[#3+#4]
#1=[#570+[#571-#570]*0.29469]
#2=[#577+[#578-#577]*0.29469]
#3=[#1+[#2-#1]*0.29621]
X8.71909 Y-3.25000 Z[#3+#4]
#1=[#570+[#571-#570]*0.30267]
#2=[#577+[#578-#577]*0.30267]
#3=[#1+[#2-#1]*0.29861]
X8.72003 Y-3.24711 Z[#3+#4]
#1=[#570+[#571-#570]*0.30644]
#2=[#577+[#578-#577]*0.30644]
#3=[#1+[#2-#1]*0.30249]
X8.72155 Y-3.24574 Z[#3+#4]
#1=[#570+[#571-#570]*0.30818]
#2=[#577+[#578-#577]*0.30818]
#3=[#1+[#2-#1]*0.30745]
X8.72350 Y-3.24511 Z[#3+#4]
#1=[#570+[#571-#570]*0.30759]
#2=[#577+[#578-#577]*0.30759]
#3=[#1+[#2-#1]*0.31264]
X8.72554 Y-3.24532 Z[#3+#4]
#1=[#570+[#571-#570]*0.30477]
#2=[#577+[#578-#577]*0.30477]
#3=[#1+[#2-#1]*0.31717]
X8.72731 Y-3.24634 Z[#3+#4]
#1=[#570+[#571-#570]*0.29751]
#2=[#577+[#578-#577]*0.29751]
#3=[#1+[#2-#1]*0.32105]
X8.72883 Y-3.24898 Z[#3+#4]
#1=[#570+[#571-#570]*0.17042]
#2=[#577+[#578-#577]*0.17042]
#3=[#1+[#2-#1]*0.32132]
X8.72894 Y-3.29508 Z[#3+#4]
#1=[#570+[#571-#570]*0.17042]
#2=[#577+[#578-#577]*0.17042]
#3=[#1+[#2-#1]*0.43632]
X8.77402 Y-3.29508 Z[#3+#4]
#1=[#570+[#571-#570]*0.16783]
#2=[#577+[#578-#577]*0.16783]
#3=[#1+[#2-#1]*0.44370]
X8.77691 Y-3.29602 Z[#3+#4]
#1=[#570+[#571-#570]*0.16363]
#2=[#577+[#578-#577]*0.16363]
#3=[#1+[#2-#1]*0.44719]
X8.77828 Y-3.29754 Z[#3+#4]
#1=[#570+[#571-#570]*0.15827]
#2=[#577+[#578-#577]*0.15827]
#3=[#1+[#2-#1]*0.44881]
X8.77891 Y-3.29948 Z[#3+#4]
#1=[#570+[#571-#570]*0.15266]
#2=[#577+[#578-#577]*0.15266]
#3=[#1+[#2-#1]*0.44826]
X8.77870 Y-3.30152 Z[#3+#4]
#1=[#570+[#571-#570]*0.14777]
#2=[#577+[#578-#577]*0.14777]
#3=[#1+[#2-#1]*0.44565]
X8.77767 Y-3.30329 Z[#3+#4]
#1=[#570+[#571-#570]*0.14358]
#2=[#577+[#578-#577]*0.14358]
#3=[#1+[#2-#1]*0.43893]
X8.77504 Y-3.30481 Z[#3+#4]
#1=[#570+[#571-#570]*0.14328]
#2=[#577+[#578-#577]*0.14328]
#3=[#1+[#2-#1]*0.32132]
X8.72894 Y-3.30492 Z[#3+#4]
#1=[#570+[#571-#570]*0.01901]
#2=[#577+[#578-#577]*0.01901]
#3=[#1+[#2-#1]*0.32132]
X8.72894 Y-3.35000 Z[#3+#4]
#1=[#570+[#571-#570]*0.01103]
#2=[#577+[#578-#577]*0.01103]
#3=[#1+[#2-#1]*0.31892]
X8.72800 Y-3.35289 Z[#3+#4]
#1=[#570+[#571-#570]*0.00726]
#2=[#577+[#578-#577]*0.00726]
#3=[#1+[#2-#1]*0.31504]
X8.72648 Y-3.35426 Z[#3+#4]
#1=[#570+[#571-#570]*0.00551]
#2=[#577+[#578-#577]*0.00551]
#3=[#1+[#2-#1]*0.31008]
X8.72453 Y-3.35489 Z[#3+#4]
#1=[#570+[#571-#570]*0.00610]
#2=[#577+[#578-#577]*0.00610]
#3=[#1+[#2-#1]*0.30489]
X8.72249 Y-3.35468 Z[#3+#4]
#1=[#570+[#571-#570]*0.00892]
#2=[#577+[#578-#577]*0.00892]
#3=[#1+[#2-#1]*0.30037]
X8.72072 Y-3.35366 Z[#3+#4]
#1=[#570+[#571-#570]*0.01619]
#2=[#577+[#578-#577]*0.01619]
#3=[#1+[#2-#1]*0.29649]
X8.71920 Y-3.35102 Z[#3+#4]
#1=[#570+[#571-#570]*0.14328]
#2=[#577+[#578-#577]*0.14328]
#3=[#1+[#2-#1]*0.29621]
X8.71909 Y-3.30492 Z[#3+#4]
#1=[#570+[#571-#570]*0.14328]
#2=[#577+[#578-#577]*0.14328]
#3=[#1+[#2-#1]*0.18121]
X8.67402 Y-3.30492 Z[#3+#4]
#1=[#570+[#571-#570]*0.14587]
#2=[#577+[#578-#577]*0.14587]
#3=[#1+[#2-#1]*0.17383]
X8.67112 Y-3.30398 Z[#3+#4]
#1=[#570+[#571-#570]*0.15007]
#2=[#577+[#578-#577]*0.15007]
#3=[#1+[#2-#1]*0.17034]
X8.66975 Y-3.30246 Z[#3+#4]
#1=[#570+[#571-#570]*0.15543]
#2=[#577+[#578-#577]*0.15543]
#3=[#1+[#2-#1]*0.16873]
X8.66912 Y-3.30051 Z[#3+#4]
( Piece #3, position [2;0] )

G04 P0 ( dwell for no time -- G64 should not smooth over this point )
G00 Z0.08000 ( retract )

G00 X9.03311 Y-2.97619 ( rapid move to begin. )
G01 F180.00000
#1=[#578+[#579-#578]*0.04954]
#2=[#585+[#586-#585]*0.04954]
#3=[#1+[#2-#1]*0.09729]
G01 Z[-0.04000+#111]
G04 P0 ( dwell for no time -- G64 should not smooth over this point )
G01 F360.00000
#1=[#578+[#579-#578]*0.73875]
#2=[#585+[#586-#585]*0.73875]
#3=[#1+[#2-#1]*0.09729]
X9.03311 Y-2.72619 Z[#3+#4]
#1=[#579+[#580-#579]*0.42796]
#2=[#586+[#587-#586]*0.42796]
#3=[#1+[#2-#1]*0.09729]
X9.03311 Y-2.47619 Z[#3+#4]
#1=[#579+[#580-#579]*0.44873]
#2=[#586+[#587-#586]*0.44873]
#3=[#1+[#2-#1]*0.10111]
X9.03461 Y-2.46866 Z[#3+#4]
#1=[#579+[#580-#579]*0.45811]
#2=[#586+[#587-#586]*0.45811]
#3=[#1+[#2-#1]*0.10575]
X9.03643 Y-2.46525 Z[#3+#4]
#1=[#579+[#580-#579]*0.47308]
#2=[#586+[#587-#586]*0.47308]
#3=[#1+[#2-#1]*0.11960]
X9.04186 Y-2.45982 Z[#3+#4]
#1=[#579+[#580-#579]*0.47810]
#2=[#586+[#587-#586]*0.47810]
#3=[#1+[#2-#1]*0.12829]
X9.04526 Y-2.45800 Z[#3+#4]
#1=[#579+[#580-#579]*0.48223]
#2=[#586+[#587-#586]*0.48223]
#3=[#1+[#2-#1]*0.14750]
X9.05279 Y-2.45650 Z[#3+#4]
#1=[#579+[#580-#579]*0.48223]
#2=[#586+[#587-#586]*0.48223]
#3=[#1+[#2-#1]*0.75491]
X9.29089 Y-2.45650 Z[#3+#4]
#1=[#579+[#580-#579]*0.48104]
#2=[#586+[#587-#586]*0.48104]
#3=[#1+[#2-#1]*0.76534]
X9.29498 Y-2.45694 Z[#3+#4]
#1=[#579+[#580-#579]*0.47754]
#2=[#586+[#587-#586]*0.47754]
#3=[#1+[#2-#1]*0.77533]
X9.29889 Y-2.45821 Z[#3+#4]
#1=[#579+[#580-#579]*0.47187]
#2=[#586+[#587-#586]*0.47187]
#3=[#1+[#2-#1]*0.78442]
X9.30246 Y-2.46026 Z[#3+#4]
#1=[#579+[#580-#579]*0.46427]
#2=[#586+[#587-#586]*0.46427]
#3=[#1+[#2-#1]*0.79223]
X9.30552 Y-2.46302 Z[#3+#4]
#1=[#579+[#580-#579]*0.45510]
#2=[#586+[#587-#586]*0.45510]
#3=[#1+[#2-#1]*0.79839]
X9.30794 Y-2.46635 Z[#3+#4]
#1=[#579+[#580-#579]*0.44473]
#2=[#586+[#587-#586]*0.44473]
#3=[#1+[#2-#1]*0.80266]
X9.30961 Y-2.47011 Z[#3+#4]
#1=[#579+[#580-#579]*0.43363]
#2=[#586+[#587-#586]*0.43363]
#3=[#1+[#2-#1]*0.80485]
X9.31047 Y-2.47413 Z[#3+#4]
#1=[#579+[#580-#579]*0.42229]
#2=[#586+[#587-#586]*0.42229]
#3=[#1+[#2-#1]*0.80485]
X9.31047 Y-2.47825 Z[#3+#4]
#1=[#579+[#580-#579]*0.41119]
#2=[#586+[#587-#586]*0.41119]
#3=[#1+[#2-#1]*0.80266]
X9.30961 Y-2.48227 Z[#3+#4]
#1=[#579+[#580-#579]*0.40083]
#2=[#586+[#587-#586]*0.40083]
#3=[#1+[#2-#1]*0.79839]
X9.30794 Y-2.48603 Z[#3+#4]
#1=[#579+[#580-#579]*0.39165]
#2=[#586+[#587-#586]*0.39165]
#3=[#1+[#2-#1]*0.79223]
X9.30552 Y-2.48936 Z[#3+#4]
#1=[#579+[#580-#579]*0.38405]
#2=[#586+[#587-#586]*0.38405]
#3=[#1+[#2-#1]*0.78442]
X9.30246 Y-2.49212 Z[#3+#4]
#1=[#579+[#580-#579]*0.37838]
#2=[#586+[#587-#586]*0.37838]
#3=[#1+[#2-#1]*0.77533]
X9.29889 Y-2.49417 Z[#3+#4]
#1=[#579+[#580-#579]*0.37488]
#2=[#586+[#587-#586]*0.37488]
#3=[#1+[#2-#1]*0.76534]
X9.29498 Y-2.49545 Z[#3+#4]
#1=[#579+[#580-#579]*0.37369]
#2=[#586+[#587-#586]*0.37369]
#3=[#1+[#2-#1]*0.75491]
X9.29089 Y-2.49587 Z[#3+#4]
#1=[#579+[#580-#579]*0.37369]
#2=[#586+[#587-#586]*0.37369]
#3=[#1+[#2-#1]*0.19772]
X9.07248 Y-2.49587 Z[#3+#4]
#1=[#578+[#579-#578]*0.82584]
#2=[#585+[#586-#585]*0.82584]
#3=[#1+[#2-#1]*0.19772]
X9.07248 Y-2.69460 Z[#3+#4]
#1=[#578+[#579-#578]*0.82584]
#2=[#585+[#586-#585]*0.82584]
#3=[#1+[#2-#1]*0.57268]
X9.21946 Y-2.69460 Z[#3+#4]
#1=[#578+[#579-#578]*0.82465]
#2=[#585+[#586-#585]*0.82465]
#3=[#1+[#2-#1]*0.58313]
X9.22355 Y-2.69503 Z[#3+#4]
#1=[#578+[#579-#578]*0.82115]
#2=[#585+[#586-#585]*0.82115]
#3=[#1+[#2-#1]*0.59311]
X9.22747 Y-2.69630 Z[#3+#4]
#1=[#578+[#579-#578]*0.81547]
#2=[#585+[#586-#585]*0.81547]
#3=[#1+[#2-#1]*0.60220]
X9.23103 Y-2.69836 Z[#3+#4]
#1=[#578+[#579-#578]*0.80788]
#2=[#585+[#586-#585]*0.80788]
#3=[#1+[#2-#1]*0.61000]
X9.23409 Y-2.70111 Z[#3+#4]
#1=[#578+[#579-#578]*0.79870]
#2=[#585+[#586-#585]*0.79870]
#3=[#1+[#2-#1]*0.61618]
X9.23651 Y-2.70444 Z[#3+#4]
#1=[#578+[#579-#578]*0.78834]
#2=[#585+[#586-#585]*0.78834]
#3=[#1+[#2-#1]*0.62045]
X9.23818 Y-2.70820 Z[#3+#4]
#1=[#578+[#579-#578]*0.77724]
#2=[#585+[#586-#585]*0.77724]
#3=[#1+[#2-#1]*0.62263]
X9.23904 Y-2.71223 Z[#3+#4]
#1=[#578+[#579-#578]*0.76590]
#2=[#585+[#586-#585]*0.76590]
#3=[#1+[#2-#1]*0.62263]
X9.23904 Y-2.71634 Z[#3+#4]
#1=[#578+[#579-#578]*0.75480]
#2=[#585+[#586-#585]*0.75480]
#3=[#1+[#2-#1]*0.62045]
X9.23818 Y-2.72037 Z[#3+#4]
#1=[#578+[#579-#578]*0.74443]
#2=[#585+[#586-#585]*0.74443]
#3=[#1+[#2-#1]*0.61618]
X9.23651 Y-2.72413 Z[#3+#4]
#1=[#578+[#579-#578]*0.73526]
#2=[#585+[#586-#585]*0.73526]
#3=[#1+[#2-#1]*0.61000]
X9.23409 Y-2.72746 Z[#3+#4]
#1=[#578+[#579-#578]*0.72766]
#2=[#585+[#586-#585]*0.72766]
#3=[#1+[#2-#1]*0.60220]
X9.23103 Y-2.73021 Z[#3+#4]
#1=[#578+[#579-#578]*0.72199]
#2=[#585+[#586-#585]*0.72199]
#3=[#1+[#2-#1]*0.59311]
X9.22747 Y-2.73227 Z[#3+#4]
#1=[#578+[#579-#578]*0.71849]
#2=[#585+[#586-#585]*0.71849]
#3=[#1+[#2-#1]*0.58313]
X9.22355 Y-2.73354 Z[#3+#4]
#1=[#578+[#579-#578]*0.71730]
#2=[#585+[#586-#585]*0.71730]
#3=[#1+[#2-#1]*0.57268]
X9.21946 Y-2.73397 Z[#3+#4]
#1=[#578+[#579-#578]*0.71730]
#2=[#585+[#586-#585]*0.71730]
#3=[#1+[#2-#1]*0.19772]
X9.07248 Y-2.73397 Z[#3+#4]
#1=[#578+[#579-#578]*0.04954]
#2=[#585+[#586-#585]*0.04954]
#3=[#1+[#2-#1]*0.19772]
X9.07248 Y-2.97619 Z[#3+#4]
#1=[#578+[#579-#578]*0.03826]
#2=[#585+[#586-#585]*0.03826]
#3=[#1+[#2-#1]*0.19662]
X9.07205 Y-2.98028 Z[#3+#4]
#1=[#578+[#579-#578]*0.02747]
#2=[#585+[#586-#585]*0.02747]
#3=[#1+[#2-#1]*0.19338]
X9.07078 Y-2.98420 Z[#3+#4]
#1=[#578+[#579-#578]*0.01764]
#2=[#585+[#586-#585]*0.01764]
#3=[#1+[#2-#1]*0.18813]
X9.06872 Y-2.98776 Z[#3+#4]
#1=[#578+[#579-#578]*0.00921]
#2=[#585+[#586-#585]*0.00921]
#3=[#1+[#2-#1]*0.18111]
X9.06596 Y-2.99082 Z[#3+#4]
#1=[#578+[#579-#578]*0.00254]
#2=[#585+[#586-#585]*0.00254]
#3=[#1+[#2-#1]*0.17261]
X9.06264 Y-2.99324 Z[#3+#4]
#1=[#577+[#578-#577]*0.99793]
#2=[#584+[#585-#584]*0.99793]
#3=[#1+[#2-#1]*0.16302]
X9.05888 Y-2.99491 Z[#3+#4]
#1=[#577+[#578-#577]*0.99557]
#2=[#584+[#585-#584]*0.99557]
#3=[#1+[#2-#1]*0.15275]
X9.05485 Y-2.99577 Z[#3+#4]
#1=[#577+[#578-#577]*0.99557]
#2=[#584+[#585-#584]*0.99557]
#3=[#1+[#2-#1]*0.14226]
X9.05074 Y-2.99577 Z[#3+#4]
#1=[#577+[#578-#577]*0.99793]
#2=[#584+[#585-#584]*0.99793]
#3=[#1+[#2-#1]*0.13199]
X9.04671 Y-2.99491 Z[#3+#4]
#1=[#578+[#579-#578]*0.00254]
#2=[#585+[#586-#585]*0.00254]
#3=[#1+[#2-#1]*0.12240]
X9.04295 Y-2.99324 Z[#3+#4]
#1=[#578+[#579-#578]*0.00921]
#2=[#585+[#586-#585]*0.00921]
#3=[#1+[#2-#1]*0.11390]
X9.03962 Y-2.99082 Z[#3+#4]
#1=[#578+[#579-#578]*0.01764]
#2=[#585+[#586-#585]*0.01764]
#3=[#1+[#2-#1]*0.10688]
X9.03687 Y-2.98776 Z[#3+#4]
#1=[#578+[#579-#578]*0.02747]
#2=[#585+[#586-#585]*0.02747]
#3=[#1+[#2-#1]*0.10163]
X9.03481 Y-2.98420 Z[#3+#4]
#1=[#578+[#579-#578]*0.03826]
#2=[#585+[#586-#585]*0.03826]
#3=[#1+[#2-#1]*0.09838]
X9.03354 Y-2.98028 Z[#3+#4]
#1=[#578+[#579-#578]*0.04954]
#2=[#585+[#586-#585]*0.04954]
#3=[#1+[#2-#1]*0.09729]
X9.03311 Y-2.97619 Z[#3+#4]
G04 P0 ( dwell for no time -- G64 should not smooth over this point )
G00 Z0.08000 ( retract )

G00 X9.46168 Y-2.97619 ( rapid move to begin. )
G01 F180.00000
#1=[#585+[#586-#585]*0.04954]
#2=[#592+[#593-#592]*0.04954]
#3=[#1+[#2-#1]*0.19061]
G01 Z[-0.04000+#111]
G04 P0 ( dwell for no time -- G64 should not smooth over this point )
G01 F360.00000
#1=[#585+[#586-#585]*0.96849]
#2=[#592+[#593-#592]*0.96849]
#3=[#1+[#2-#1]*0.19061]
X9.46168 Y-2.64286 Z[#3+#4]
#1=[#585+[#586-#585]*0.97977]
#2=[#592+[#593-#592]*0.97977]
#3=[#1+[#2-#1]*0.19170]
X9.46211 Y-2.63876 Z[#3+#4]
#1=[#585+[#586-#585]*0.99056]
#2=[#592+[#593-#592]*0.99056]
#3=[#1+[#2-#1]*0.19495]
X9.46338 Y-2.63485 Z[#3+#4]
#1=[#586+[#587-#586]*0.00039]
#2=[#593+[#594-#593]*0.00039]
#3=[#1+[#2-#1]*0.20020]
X9.46544 Y-2.63129 Z[#3+#4]
#1=[#586+[#587-#586]*0.00882]
#2=[#593+[#594-#593]*0.00882]
#3=[#1+[#2-#1]*0.20722]
X9.46819 Y-2.62823 Z[#3+#4]
#1=[#586+[#587-#586]*0.01548]
#2=[#593+[#594-#593]*0.01548]
#3=[#1+[#2-#1]*0.21572]
X9.47152 Y-2.62581 Z[#3+#4]
#1=[#586+[#587-#586]*0.02010]
#2=[#593+[#594-#593]*0.02010]
#3=[#1+[#2-#1]*0.22531]
X9.47528 Y-2.62413 Z[#3+#4]
#1=[#586+[#587-#586]*0.02246]
#2=[#593+[#594-#593]*0.02246]
#3=[#1+[#2-#1]*0.23558]
X9.47931 Y-2.62328 Z[#3+#4]
#1=[#586+[#587-#586]*0.02246]
#2=[#593+[#594-#593]*0.02246]
#3=[#1+[#2-#1]*0.24607]
X9.48342 Y-2.62328 Z[#3+#4]
#1=[#586+[#587-#586]*0.02010]
#2=[#593+[#594-#593]*0.02010]
#3=[#1+[#2-#1]*0.25634]
X9.48745 Y-2.62413 Z[#3+#4]
#1=[#586+[#587-#586]*0.01548]
#2=[#593+[#594-#593]*0.01548]
#3=[#1+[#2-#1]*0.26593]
X9.49121 Y-2.62581 Z[#3+#4]
#1=[#586+[#587-#586]*0.00882]
#2=[#593+[#594-#593]*0.00882]
#3=[#1+[#2-#1]*0.27443]
X9.49454 Y-2.62823 Z[#3+#4]
#1=[#586+[#587-#586]*0.00039]
#2=[#593+[#594-#593]*0.00039]
#3=[#1+[#2-#1]*0.28145]
X9.49729 Y-2.63129 Z[#3+#4]
#1=[#585+[#586-#585]*0.99056]
#2=[#592+[#593-#592]*0.99056]
#3=[#1+[#2-#1]*0.28670]
X9.49935 Y-2.63485 Z[#3+#4]
#1=[#585+[#586-#585]*0.97977]
#2=[#592+[#593-#592]*0.97977]
#3=[#1+[#2-#1]*0.28995]
X9.50062 Y-2.63876 Z[#3+#4]
#1=[#585+[#586-#585]*0.90259]
#2=[#592+[#593-#592]*0.90259]
#3=[#1+[#2-#1]*0.29104]
X9.50105 Y-2.66676 Z[#3+#4]
#1=[#585+[#586-#585]*0.94687]
#2=[#592+[#593-#592]*0.94687]
#3=[#1+[#2-#1]*0.33294]
X9.51747 Y-2.65070 Z[#3+#4]
#1=[#586+[#587-#586]*0.02018]
#2=[#593+[#594-#593]*0.02018]
#3=[#1+[#2-#1]*0.46851]
X9.57061 Y-2.62410 Z[#3+#4]
#1=[#586+[#587-#586]*0.02275]
#2=[#593+[#594-#593]*0.02275]
#3=[#1+[#2-#1]*0.48379]
X9.57660 Y-2.62317 Z[#3+#4]
#1=[#586+[#587-#586]*0.02275]
#2=[#593+[#594-#593]*0.02275]
#3=[#1+[#2-#1]*0.60527]
X9.62422 Y-2.62317 Z[#3+#4]
#1=[#586+[#587-#586]*0.02157]
#2=[#593+[#594-#593]*0.02157]
#3=[#1+[#2-#1]*0.61571]
X9.62831 Y-2.62360 Z[#3+#4]
#1=[#586+[#587-#586]*0.01806]
#2=[#593+[#594-#593]*0.01806]
#3=[#1+[#2-#1]*0.62569]
X9.63223 Y-2.62487 Z[#3+#4]
#1=[#586+[#587-#586]*0.01239]
#2=[#593+[#594-#593]*0.01239]
#3=[#1+[#2-#1]*0.63478]
X9.63579 Y-2.62693 Z[#3+#4]
#1=[#586+[#587-#586]*0.00480]
#2=[#593+[#594-#593]*0.00480]
#3=[#1+[#2-#1]*0.64259]
X9.63885 Y-2.62968 Z[#3+#4]
#1=[#585+[#586-#585]*0.99562]
#2=[#592+[#593-#592]*0.99562]
#3=[#1+[#2-#1]*0.64876]
X9.64127 Y-2.63301 Z[#3+#4]
#1=[#585+[#586-#585]*0.98526]
#2=[#592+[#593-#592]*0.98526]
#3=[#1+[#2-#1]*0.65303]
X9.64294 Y-2.63677 Z[#3+#4]
#1=[#585+[#586-#585]*0.97416]
#2=[#592+[#593-#592]*0.97416]
#3=[#1+[#2-#1]*0.65521]
X9.64380 Y-2.64080 Z[#3+#4]
#1=[#585+[#586-#585]*0.96282]
#2=[#592+[#593-#592]*0.96282]
#3=[#1+[#2-#1]*0.65521]
X9.64380 Y-2.64491 Z[#3+#4]
#1=[#585+[#586-#585]*0.95172]
#2=[#592+[#593-#592]*0.95172]
#3=[#1+[#2-#1]*0.65303]
X9.64294 Y-2.64894 Z[#3+#4]
#1=[#585+[#586-#585]*0.94135]
#2=[#592+[#593-#592]*0.94135]
#3=[#1+[#2-#1]*0.64876]
X9.64127 Y-2.65270 Z[#3+#4]
#1=[#585+[#586-#585]*0.93218]
#2=[#592+[#593-#592]*0.93218]
#3=[#1+[#2-#1]*0.64259]
X9.63885 Y-2.65603 Z[#3+#4]
#1=[#585+[#586-#585]*0.92458]
#2=[#592+[#593-#592]*0.92458]
#3=[#1+[#2-#1]*0.63478]
X9.63579 Y-2.65878 Z[#3+#4]
#1=[#585+[#586-#585]*0.91891]
#2=[#592+[#593-#592]*0.91891]
#3=[#1+[#2-#1]*0.62569]
X9.63223 Y-2.66084 Z[#3+#4]
#1=[#585+[#586-#585]*0.91540]
#2=[#592+[#593-#592]*0.91540]
#3=[#1+[#2-#1]*0.61571]
X9.62831 Y-2.66211 Z[#3+#4]
#1=[#585+[#586-#585]*0.91422]
#2=[#592+[#593-#592]*0.91422]
#3=[#1+[#2-#1]*0.60527]
X9.62422 Y-2.66254 Z[#3+#4]
#1=[#585+[#586-#585]*0.91422]
#2=[#592+[#593-#592]*0.91422]
#3=[#1+[#2-#1]*0.49564]
X9.58125 Y-2.66254 Z[#3+#4]
#1=[#585+[#586-#585]*0.85825]
#2=[#592+[#593-#592]*0.85825]
#3=[#1+[#2-#1]*0.39205]
X9.54064 Y-2.68284 Z[#3+#4]
#1=[#585+[#586-#585]*0.80506]
#2=[#592+[#593-#592]*0.80506]
#3=[#1+[#2-#1]*0.34284]
X9.52135 Y-2.70214 Z[#3+#4]
#1=[#585+[#586-#585]*0.69312]
#2=[#592+[#593-#592]*0.69312]
#3=[#1+[#2-#1]*0.29104]
X9.50105 Y-2.74274 Z[#3+#4]
#1=[#585+[#586-#585]*0.04954]
#2=[#592+[#593-#592]*0.04954]
#3=[#1+[#2-#1]*0.29104]
X9.50105 Y-2.97619 Z[#3+#4]
#1=[#585+[#586-#585]*0.03826]
#2=[#592+[#593-#592]*0.03826]
#3=[#1+[#2-#1]*0.28995]
X9.50062 Y-2.98028 Z[#3+#4]
#1=[#585+[#586-#585]*0.02747]
#2=[#592+[#593-#592]*0.02747]
#3=[#1+[#2-#1]*0.28670]
X9.49935 Y-2.98420 Z[#3+#4]
#1=[#585+[#586-#585]*0.01764]
#2=[#592+[#593-#592]*0.01764]
#3=[#1+[#2-#1]*0.28145]
X9.49729 Y-2.98776 Z[#3+#4]
#1=[#585+[#586-#585]*0.00921]
#2=[#592+[#593-#592]*0.00921]
#3=[#1+[#2-#1]*0.27443]
X9.49454 Y-2.99082 Z[#3+#4]
#1=[#585+[#586-#585]*0.00254]
#2=[#592+[#593-#592]*0.00254]
#3=[#1+[#2-#1]*0.26593]
X9.49121 Y-2.99324 Z[#3+#4]
#1=[#584+[#585-#584]*0.99793]
#2=[#591+[#592-#591]*0.99793]
#3=[#1+[#2-#1]*0.25634]
X9.48745 Y-2.99491 Z[#3+#4]
#1=[#584+[#585-#584]*0.99557]
#2=[#591+[#592-#591]*0.99557]
#3=[#1+[#2-#1]*0.24607]
X9.48342 Y-2.99577 Z[#3+#4]
#1=[#584+[#585-#584]*0.99557]
#2=[#591+[#592-#591]*0.99557]
#3=[#1+[#2-#1]*0.23558]
X9.47931 Y-2.99577 Z[#3+#4]
#1=[#584+[#585-#584]*0.99793]
#2=[#591+[#592-#591]*0.99793]
#3=[#1+[#2-#1]*0.22531]
X9.47528 Y-2.99491 Z[#3+#4]
#1=[#585+[#586-#585]*0.00254]
#2=[#592+[#593-#592]*0.00254]
#3=[#1+[#2-#1]*0.21572]
X9.47152 Y-2.99324 Z[#3+#4]
#1=[#585+[#586-#585]*0.00921]
#2=[#592+[#593-#592]*0.00921]
#3=[#1+[#2-#1]*0.20722]
X9.46819 Y-2.99082 Z[#3+#4]
#1=[#585+[#586-#585]*0.01764]
#2=[#592+[#593-#592]*0.01764]
#3=[#1+[#2-#1]*0.20020]
X9.46544 Y-2.98776 Z[#3+#4]
#1=[#585+[#586-#585]*0.02747]
#2=[#592+[#593-#592]*0.02747]
#3=[#1+[#2-#1]*0.19495]
X9.46338 Y-2.98420 Z[#3+#4]
#1=[#585+[#586-#585]*0.03826]
#2=[#592+[#593-#592]*0.03826]
#3=[#1+[#2-#1]*0.19170]
X9.46211 Y-2.98028 Z[#3+#4]
#1=[#585+[#586-#585]*0.04954]
