( pcb2gcode 2.2.2 )
( Gcode for custom )

G94 ( Inches per minute feed rate. )
G20 ( Units == INCHES. )

G90 ( Absolute coordinates. )
G00 S12000 ( RPM spindle speed. )
G64 P0.00040 ( set maximum deviation from commanded toolpath )
G01 F360.00000 ( Feedrate. )

#118 = 0
#119 = 0

(MSG, Attach the probe tool)
M0 ( Temporary machine stop. )
G0 Z0.080 ( Move Z to safe height )
G0 X4.68507 Y-3.35492 ( Move XY to start point )
G0 Z0.080 ( Move Z to probe height )
G38.2 Z-0.1 F2.362205 ( Z-probe )
#500 = 0 ( Probe point [0, 0] is our reference )
G92 Z0 ( Set the current Z as zero-value )

( We now start the real probing: move the Z axis to the probing height, move to )
( the probing XY position, probe it and save the result, parameter #2002, )
( in a numbered parameter; we will make 6 probes on the X-axis and )
( 4 probes on the Y-axis, for a grand total of 24 probes )

G0 Z0.080
X4.68507 Y-3.05545
G38.2 Z-0.1 F2.362205
#501=#2002
G0 Z0.080
X4.68507 Y-2.75597
G38.2 Z-0.1 F2.362205
#502=#2002
G0 Z0.080
X4.68507 Y-2.45650
G38.2 Z-0.1 F2.362205
#503=#2002
G0 Z0.080
X5.06904 Y-2.45650
G38.2 Z-0.1 F2.362205
#507=#2002
G0 Z0.080
X5.06904 Y-2.75597
G38.2 Z-0.1 F2.362205
#506=#2002
G0 Z0.080
X5.06904 Y-3.05545
G38.2 Z-0.1 F2.362205
#505=#2002
G0 Z0.080
X5.06904 Y-3.35492
G38.2 Z-0.1 F2.362205
#504=#2002
G0 Z0.080
X5.45301 Y-3.35492
G38.2 Z-0.1 F2.362205
#508=#2002
G0 Z0.080
X5.45301 Y-3.05545
G38.2 Z-0.1 F2.362205
#509=#2002
G0 Z0.080
X5.45301 Y-2.75597
G38.2 Z-0.1 F2.362205
#510=#2002
G0 Z0.080
X5.45301 Y-2.45650
G38.2 Z-0.1 F2.362205
#511=#2002
G0 Z0.080
X5.83698 Y-2.45650
G38.2 Z-0.1 F2.362205
#515=#2002
G0 Z0.080
X5.83698 Y-2.75597
G38.2 Z-0.1 F2.362205
#514=#2002
G0 Z0.080
X5.83698 Y-3.05545
G38.2 Z-0.1 F2.362205
#513=#2002
G0 Z0.080
X5.83698 Y-3.35492
G38.2 Z-0.1 F2.362205
#512=#2002
G0 Z0.080
X6.22095 Y-3.35492
G38.2 Z-0.1 F2.362205
#516=#2002
G0 Z0.080
X6.22095 Y-3.05545
G38.2 Z-0.1 F2.362205
#517=#2002
G0 Z0.080
X6.22095 Y-2.75597
G38.2 Z-0.1 F2.362205
#518=#2002
G0 Z0.080
X6.22095 Y-2.45650
G38.2 Z-0.1 F2.362205
#519=#2002
G0 Z0.080
X6.60492 Y-2.45650
G38.2 Z-0.1 F2.362205
#523=#2002
G0 Z0.080
X6.60492 Y-2.75597
G38.2 Z-0.1 F2.362205
#522=#2002
G0 Z0.080
X6.60492 Y-3.05545
G38.2 Z-0.1 F2.362205
#521=#2002
G0 Z0.080
X6.60492 Y-3.35492
G38.2 Z-0.1 F2.362205
#520=#2002

G0 Z0.080 ( Move Z to safe height )
( Probing has ended, each Z-coordinate will be corrected with a bilinear interpolation )
(MSG, Detach the probe tool)
M0 ( Temporary machine stop. )


G00 Z1.00000 (Retract to tool change height)
T0
M5      (Spindle stop.)
G04 P1.00000 (Wait for spindle to stop)
(MSG, Change tool bit to mill diameter 0.00000in)
M6      (Tool change.)
M0      (Temporary machine stop.)
M3 ( Spindle on clockwise. )
G04 P1.00000 (Wait for spindle to get up to speed)
G04 P0 ( dwell for no time -- G64 should not smooth over this point )
G00 Z0.08000 ( retract )

G00 X4.68507 Y-2.97619 ( rapid move to begin. )
G01 F180.00000
( Mill infeed pass 1/1 )
#111=[#501+[#502-#501]*0.26465]
G01 Z[-0.04000+#111]
G04 P0 ( dwell for no time -- G64 should not smooth over this point )
G01 F360.00000
#111=#502
X4.68507 Y-2.75597 Z[#111+-0.04000]
#111=[#502+[#503-#502]*0.93425]
X4.68507 Y-2.47619 Z[#111+-0.04000]
#116=[#502+[#503-#502]*0.94707]
#117=[#506+[#507-#506]*0.94707]
#111=[#116+[#117-#116]*0.00099]
X4.68545 Y-2.47235 Z[#111+-0.04000]
#116=[#502+[#503-#502]*0.95940]
#117=[#506+[#507-#506]*0.95940]
#111=[#116+[#117-#116]*0.00391]
X4.68657 Y-2.46866 Z[#111+-0.04000]
#116=[#502+[#503-#502]*0.97078]
#117=[#506+[#507-#506]*0.97078]
#111=[#116+[#117-#116]*0.00865]
X4.68839 Y-2.46525 Z[#111+-0.04000]
#116=[#502+[#503-#502]*0.98073]
#117=[#506+[#507-#506]*0.98073]
#111=[#116+[#117-#116]*0.01503]
X4.69084 Y-2.46227 Z[#111+-0.04000]
#116=[#502+[#503-#502]*0.98891]
#117=[#506+[#507-#506]*0.98891]
#111=[#116+[#117-#116]*0.02279]
X4.69382 Y-2.45982 Z[#111+-0.04000]
#116=[#502+[#503-#502]*0.99499]
#117=[#506+[#507-#506]*0.99499]
#111=[#116+[#117-#116]*0.03167]
X4.69723 Y-2.45800 Z[#111+-0.04000]
#116=[#502+[#503-#502]*0.99873]
#117=[#506+[#507-#506]*0.99873]
#111=[#116+[#117-#116]*0.04128]
X4.70092 Y-2.45688 Z[#111+-0.04000]
#111=[#503+[#507-#503]*0.05128]
X4.70476 Y-2.45650 Z[#111+-0.04000]
#111=[#503+[#507-#503]*0.67138]
X4.94286 Y-2.45650 Z[#111+-0.04000]
#116=[#502+[#503-#502]*0.99873]
#117=[#506+[#507-#506]*0.99873]
#111=[#116+[#117-#116]*0.68138]
X4.94670 Y-2.45688 Z[#111+-0.04000]
#116=[#502+[#503-#502]*0.99499]
#117=[#506+[#507-#506]*0.99499]
#111=[#116+[#117-#116]*0.69099]
X4.95039 Y-2.45800 Z[#111+-0.04000]
#116=[#502+[#503-#502]*0.98891]
#117=[#506+[#507-#506]*0.98891]
#111=[#116+[#117-#116]*0.69987]
X4.95380 Y-2.45982 Z[#111+-0.04000]
#116=[#502+[#503-#502]*0.98073]
#117=[#506+[#507-#506]*0.98073]
#111=[#116+[#117-#116]*0.70763]
X4.95678 Y-2.46227 Z[#111+-0.04000]
#116=[#502+[#503-#502]*0.97078]
#117=[#506+[#507-#506]*0.97078]
#111=[#116+[#117-#116]*0.71401]
X4.95923 Y-2.46525 Z[#111+-0.04000]
#116=[#502+[#503-#502]*0.95940]
#117=[#506+[#507-#506]*0.95940]
#111=[#116+[#117-#116]*0.71875]
X4.96105 Y-2.46866 Z[#111+-0.04000]
#116=[#502+[#503-#502]*0.94707]
#117=[#506+[#507-#506]*0.94707]
#111=[#116+[#117-#116]*0.72167]
X4.96217 Y-2.47235 Z[#111+-0.04000]
#116=[#502+[#503-#502]*0.93425]
#117=[#506+[#507-#506]*0.93425]
#111=[#116+[#117-#116]*0.72266]
X4.96255 Y-2.47619 Z[#111+-0.04000]
#116=[#502+[#503-#502]*0.92143]
#117=[#506+[#507-#506]*0.92143]
#111=[#116+[#117-#116]*0.72167]
X4.96217 Y-2.48003 Z[#111+-0.04000]
#116=[#502+[#503-#502]*0.90911]
#117=[#506+[#507-#506]*0.90911]
#111=[#116+[#117-#116]*0.71875]
X4.96105 Y-2.48372 Z[#111+-0.04000]
#116=[#502+[#503-#502]*0.89772]
#117=[#506+[#507-#506]*0.89772]
#111=[#116+[#117-#116]*0.71401]
X4.95923 Y-2.48713 Z[#111+-0.04000]
#116=[#502+[#503-#502]*0.88777]
#117=[#506+[#507-#506]*0.88777]
#111=[#116+[#117-#116]*0.70763]
X4.95678 Y-2.49011 Z[#111+-0.04000]
#116=[#502+[#503-#502]*0.87959]
#117=[#506+[#507-#506]*0.87959]
#111=[#116+[#117-#116]*0.69987]
X4.95380 Y-2.49256 Z[#111+-0.04000]
#116=[#502+[#503-#502]*0.87351]
#117=[#506+[#507-#506]*0.87351]
#111=[#116+[#117-#116]*0.69099]
X4.95039 Y-2.49438 Z[#111+-0.04000]
#116=[#502+[#503-#502]*0.86977]
#117=[#506+[#507-#506]*0.86977]
#111=[#116+[#117-#116]*0.68138]
X4.94670 Y-2.49550 Z[#111+-0.04000]
#116=[#502+[#503-#502]*0.86850]
#117=[#506+[#507-#506]*0.86850]
#111=[#116+[#117-#116]*0.67138]
X4.94286 Y-2.49588 Z[#111+-0.04000]
#116=[#502+[#503-#502]*0.86850]
#117=[#506+[#507-#506]*0.86850]
#111=[#116+[#117-#116]*0.10256]
X4.72445 Y-2.49588 Z[#111+-0.04000]
#116=[#502+[#503-#502]*0.20497]
#117=[#506+[#507-#506]*0.20497]
#111=[#116+[#117-#116]*0.10256]
X4.72445 Y-2.69459 Z[#111+-0.04000]
#116=[#502+[#503-#502]*0.20497]
#117=[#506+[#507-#506]*0.20497]
#111=[#116+[#117-#116]*0.48535]
X4.87143 Y-2.69459 Z[#111+-0.04000]
#116=[#502+[#503-#502]*0.20370]
#117=[#506+[#507-#506]*0.20370]
#111=[#116+[#117-#116]*0.49535]
X4.87527 Y-2.69497 Z[#111+-0.04000]
#116=[#502+[#503-#502]*0.19996]
#117=[#506+[#507-#506]*0.19996]
#111=[#116+[#117-#116]*0.50496]
X4.87896 Y-2.69609 Z[#111+-0.04000]
#116=[#502+[#503-#502]*0.19388]
#117=[#506+[#507-#506]*0.19388]
#111=[#116+[#117-#116]*0.51384]
X4.88237 Y-2.69791 Z[#111+-0.04000]
#116=[#502+[#503-#502]*0.18570]
#117=[#506+[#507-#506]*0.18570]
#111=[#116+[#117-#116]*0.52160]
X4.88535 Y-2.70036 Z[#111+-0.04000]
#116=[#502+[#503-#502]*0.17575]
#117=[#506+[#507-#506]*0.17575]
#111=[#116+[#117-#116]*0.52798]
X4.88780 Y-2.70334 Z[#111+-0.04000]
#116=[#502+[#503-#502]*0.16437]
#117=[#506+[#507-#506]*0.16437]
#111=[#116+[#117-#116]*0.53272]
X4.88962 Y-2.70675 Z[#111+-0.04000]
#116=[#502+[#503-#502]*0.15204]
#117=[#506+[#507-#506]*0.15204]
#111=[#116+[#117-#116]*0.53564]
X4.89074 Y-2.71044 Z[#111+-0.04000]
#116=[#502+[#503-#502]*0.13922]
#117=[#506+[#507-#506]*0.13922]
#111=[#116+[#117-#116]*0.53663]
X4.89112 Y-2.71428 Z[#111+-0.04000]
#116=[#502+[#503-#502]*0.12640]
#117=[#506+[#507-#506]*0.12640]
#111=[#116+[#117-#116]*0.53564]
X4.89074 Y-2.71812 Z[#111+-0.04000]
#116=[#502+[#503-#502]*0.11408]
#117=[#506+[#507-#506]*0.11408]
#111=[#116+[#117-#116]*0.53272]
X4.88962 Y-2.72181 Z[#111+-0.04000]
#116=[#502+[#503-#502]*0.10269]
#117=[#506+[#507-#506]*0.10269]
#111=[#116+[#117-#116]*0.52798]
X4.88780 Y-2.72522 Z[#111+-0.04000]
#116=[#502+[#503-#502]*0.09274]
#117=[#506+[#507-#506]*0.09274]
#111=[#116+[#117-#116]*0.52160]
X4.88535 Y-2.72820 Z[#111+-0.04000]
#116=[#502+[#503-#502]*0.08456]
#117=[#506+[#507-#506]*0.08456]
#111=[#116+[#117-#116]*0.51384]
X4.88237 Y-2.73065 Z[#111+-0.04000]
#116=[#502+[#503-#502]*0.07848]
#117=[#506+[#507-#506]*0.07848]
#111=[#116+[#117-#116]*0.50496]
X4.87896 Y-2.73247 Z[#111+-0.04000]
#116=[#502+[#503-#502]*0.07474]
#117=[#506+[#507-#506]*0.07474]
#111=[#116+[#117-#116]*0.49535]
X4.87527 Y-2.73359 Z[#111+-0.04000]
#116=[#502+[#503-#502]*0.07347]
#117=[#506+[#507-#506]*0.07347]
#111=[#116+[#117-#116]*0.48535]
X4.87143 Y-2.73397 Z[#111+-0.04000]
#116=[#502+[#503-#502]*0.07347]
#117=[#506+[#507-#506]*0.07347]
#111=[#116+[#117-#116]*0.10256]
X4.72445 Y-2.73397 Z[#111+-0.04000]
#111=[#502+[#506-#502]*0.10256]
X4.72445 Y-2.75597 Z[#111+-0.04000]
#116=[#501+[#502-#501]*0.26465]
#117=[#505+[#506-#505]*0.26465]
#111=[#116+[#117-#116]*0.10256]
X4.72445 Y-2.97619 Z[#111+-0.04000]
#116=[#501+[#502-#501]*0.25183]
#117=[#505+[#506-#505]*0.25183]
#111=[#116+[#117-#116]*0.10157]
X4.72407 Y-2.98003 Z[#111+-0.04000]
#116=[#501+[#502-#501]*0.23951]
#117=[#505+[#506-#505]*0.23951]
#111=[#116+[#117-#116]*0.09865]
X4.72295 Y-2.98372 Z[#111+-0.04000]
#116=[#501+[#502-#501]*0.22812]
#117=[#505+[#506-#505]*0.22812]
#111=[#116+[#117-#116]*0.09391]
X4.72113 Y-2.98713 Z[#111+-0.04000]
#116=[#501+[#502-#501]*0.21817]
#117=[#505+[#506-#505]*0.21817]
#111=[#116+[#117-#116]*0.08753]
X4.71868 Y-2.99011 Z[#111+-0.04000]
#116=[#501+[#502-#501]*0.20999]
#117=[#505+[#506-#505]*0.20999]
#111=[#116+[#117-#116]*0.07977]
X4.71570 Y-2.99256 Z[#111+-0.04000]
#116=[#501+[#502-#501]*0.20391]
#117=[#505+[#506-#505]*0.20391]
#111=[#116+[#117-#116]*0.07089]
X4.71229 Y-2.99438 Z[#111+-0.04000]
#116=[#501+[#502-#501]*0.20017]
#117=[#505+[#506-#505]*0.20017]
#111=[#116+[#117-#116]*0.06128]
X4.70860 Y-2.99550 Z[#111+-0.04000]
#116=[#501+[#502-#501]*0.19890]
#117=[#505+[#506-#505]*0.19890]
#111=[#116+[#117-#116]*0.05128]
X4.70476 Y-2.99588 Z[#111+-0.04000]
#116=[#501+[#502-#501]*0.20017]
#117=[#505+[#506-#505]*0.20017]
#111=[#116+[#117-#116]*0.04128]
X4.70092 Y-2.99550 Z[#111+-0.04000]
#116=[#501+[#502-#501]*0.20391]
#117=[#505+[#506-#505]*0.20391]
#111=[#116+[#117-#116]*0.03167]
X4.69723 Y-2.99438 Z[#111+-0.04000]
#116=[#501+[#502-#501]*0.20999]
#117=[#505+[#506-#505]*0.20999]
#111=[#116+[#117-#116]*0.02279]
X4.69382 Y-2.99256 Z[#111+-0.04000]
#116=[#501+[#502-#501]*0.21817]
#117=[#505+[#506-#505]*0.21817]
#111=[#116+[#117-#116]*0.01503]
X4.69084 Y-2.99011 Z[#111+-0.04000]
#116=[#501+[#502-#501]*0.22812]
#117=[#505+[#506-#505]*0.22812]
#111=[#116+[#117-#116]*0.00865]
X4.68839 Y-2.98713 Z[#111+-0.04000]
#116=[#501+[#502-#501]*0.23951]
#117=[#505+[#506-#505]*0.23951]
#111=[#116+[#117-#116]*0.00391]
X4.68657 Y-2.98372 Z[#111+-0.04000]
#116=[#501+[#502-#501]*0.25183]
#117=[#505+[#506-#505]*0.25183]
#111=[#116+[#117-#116]*0.00099]
X4.68545 Y-2.98003 Z[#111+-0.04000]
#111=[#501+[#502-#501]*0.26465]
X4.68507 Y-2.97619 Z[#111+-0.04000]
G04 P0 ( dwell for no time -- G64 should not smooth over this point )
G00 Z0.08000 ( retract )

G00 X5.11364 Y-2.97619 ( rapid move to begin. )
G01 F180.00000
( Mill infeed pass 1/1 )
#116=[#505+[#506-#505]*0.26465]
#117=[#509+[#510-#509]*0.26465]
#111=[#116+[#117-#116]*0.11615]
G01 Z[-0.04000+#111]
G04 P0 ( dwell for no time -- G64 should not smooth over this point )
G01 F360.00000
#111=[#506+[#510-#506]*0.11615]
X5.11364 Y-2.75597 Z[#111+-0.04000]
#116=[#506+[#507-#506]*0.37771]
#117=[#510+[#511-#510]*0.37771]
#111=[#116+[#117-#116]*0.11615]
X5.11364 Y-2.64286 Z[#111+-0.04000]
#116=[#506+[#507-#506]*0.39053]
#117=[#510+[#511-#510]*0.39053]
#111=[#116+[#117-#116]*0.11714]
X5.11402 Y-2.63902 Z[#111+-0.04000]
#116=[#506+[#507-#506]*0.40285]
#117=[#510+[#511-#510]*0.40285]
#111=[#116+[#117-#116]*0.12006]
X5.11514 Y-2.63533 Z[#111+-0.04000]
#116=[#506+[#507-#506]*0.41424]
#117=[#510+[#511-#510]*0.41424]
#111=[#116+[#117-#116]*0.12480]
X5.11696 Y-2.63192 Z[#111+-0.04000]
#116=[#506+[#507-#506]*0.42419]
#117=[#510+[#511-#510]*0.42419]
#111=[#116+[#117-#116]*0.13118]
X5.11941 Y-2.62894 Z[#111+-0.04000]
#116=[#506+[#507-#506]*0.43237]
#117=[#510+[#511-#510]*0.43237]
#111=[#116+[#117-#116]*0.13894]
X5.12239 Y-2.62649 Z[#111+-0.04000]
#116=[#506+[#507-#506]*0.43845]
#117=[#510+[#511-#510]*0.43845]
#111=[#116+[#117-#116]*0.14782]
X5.12580 Y-2.62467 Z[#111+-0.04000]
#116=[#506+[#507-#506]*0.44219]
#117=[#510+[#511-#510]*0.44219]
#111=[#116+[#117-#116]*0.15743]
X5.12949 Y-2.62355 Z[#111+-0.04000]
#116=[#506+[#507-#506]*0.44346]
#117=[#510+[#511-#510]*0.44346]
#111=[#116+[#117-#116]*0.16743]
X5.13333 Y-2.62317 Z[#111+-0.04000]
#116=[#506+[#507-#506]*0.44219]
#117=[#510+[#511-#510]*0.44219]
#111=[#116+[#117-#116]*0.17744]
X5.13717 Y-2.62355 Z[#111+-0.04000]
#116=[#506+[#507-#506]*0.43845]
#117=[#510+[#511-#510]*0.43845]
#111=[#116+[#117-#116]*0.18705]
X5.14086 Y-2.62467 Z[#111+-0.04000]
#116=[#506+[#507-#506]*0.43237]
#117=[#510+[#511-#510]*0.43237]
#111=[#116+[#117-#116]*0.19593]
X5.14427 Y-2.62649 Z[#111+-0.04000]
#116=[#506+[#507-#506]*0.42419]
#117=[#510+[#511-#510]*0.42419]
#111=[#116+[#117-#116]*0.20369]
X5.14725 Y-2.62894 Z[#111+-0.04000]
#116=[#506+[#507-#506]*0.41424]
#117=[#510+[#511-#510]*0.41424]
#111=[#116+[#117-#116]*0.21007]
X5.14970 Y-2.63192 Z[#111+-0.04000]
#116=[#506+[#507-#506]*0.40285]
#117=[#510+[#511-#510]*0.40285]
#111=[#116+[#117-#116]*0.21481]
X5.15152 Y-2.63533 Z[#111+-0.04000]
#116=[#506+[#507-#506]*0.39053]
#117=[#510+[#511-#510]*0.39053]
#111=[#116+[#117-#116]*0.21773]
X5.15264 Y-2.63902 Z[#111+-0.04000]
#116=[#506+[#507-#506]*0.37771]
#117=[#510+[#511-#510]*0.37771]
#111=[#116+[#117-#116]*0.21872]
X5.15302 Y-2.64286 Z[#111+-0.04000]
#116=[#506+[#507-#506]*0.29787]
#117=[#510+[#511-#510]*0.29787]
#111=[#116+[#117-#116]*0.21872]
X5.15302 Y-2.66677 Z[#111+-0.04000]
#116=[#506+[#507-#506]*0.34468]
#117=[#510+[#511-#510]*0.34468]
#111=[#116+[#117-#116]*0.25520]
X5.16703 Y-2.65275 Z[#111+-0.04000]
#116=[#506+[#507-#506]*0.35153]
#117=[#510+[#511-#510]*0.35153]
#111=[#116+[#117-#116]*0.26148]
X5.16944 Y-2.65070 Z[#111+-0.04000]
#116=[#506+[#507-#506]*0.35700]
#117=[#510+[#511-#510]*0.35700]
#111=[#116+[#117-#116]*0.26854]
X5.17215 Y-2.64906 Z[#111+-0.04000]
#116=[#506+[#507-#506]*0.43651]
#117=[#510+[#511-#510]*0.43651]
#111=[#116+[#117-#116]*0.39256]
X5.21977 Y-2.62525 Z[#111+-0.04000]
#116=[#506+[#507-#506]*0.44169]
#117=[#510+[#511-#510]*0.44169]
#111=[#116+[#117-#116]*0.40370]
X5.22405 Y-2.62370 Z[#111+-0.04000]
#116=[#506+[#507-#506]*0.44346]
#117=[#510+[#511-#510]*0.44346]
#111=[#116+[#117-#116]*0.41548]
X5.22857 Y-2.62317 Z[#111+-0.04000]
#116=[#506+[#507-#506]*0.44346]
#117=[#510+[#511-#510]*0.44346]
#111=[#116+[#117-#116]*0.53950]
X5.27619 Y-2.62317 Z[#111+-0.04000]
#116=[#506+[#507-#506]*0.44219]
#117=[#510+[#511-#510]*0.44219]
#111=[#116+[#117-#116]*0.54950]
X5.28003 Y-2.62355 Z[#111+-0.04000]
#116=[#506+[#507-#506]*0.43845]
#117=[#510+[#511-#510]*0.43845]
#111=[#116+[#117-#116]*0.55911]
X5.28372 Y-2.62467 Z[#111+-0.04000]
#116=[#506+[#507-#506]*0.43237]
#117=[#510+[#511-#510]*0.43237]
#111=[#116+[#117-#116]*0.56799]
X5.28713 Y-2.62649 Z[#111+-0.04000]
#116=[#506+[#507-#506]*0.42419]
#117=[#510+[#511-#510]*0.42419]
#111=[#116+[#117-#116]*0.57575]
X5.29011 Y-2.62894 Z[#111+-0.04000]
#116=[#506+[#507-#506]*0.41424]
#117=[#510+[#511-#510]*0.41424]
#111=[#116+[#117-#116]*0.58213]
X5.29256 Y-2.63192 Z[#111+-0.04000]
#116=[#506+[#507-#506]*0.40285]
#117=[#510+[#511-#510]*0.40285]
#111=[#116+[#117-#116]*0.58687]
X5.29438 Y-2.63533 Z[#111+-0.04000]
#116=[#506+[#507-#506]*0.39053]
#117=[#510+[#511-#510]*0.39053]
#111=[#116+[#117-#116]*0.58979]
X5.29550 Y-2.63902 Z[#111+-0.04000]
#116=[#506+[#507-#506]*0.37771]
#117=[#510+[#511-#510]*0.37771]
#111=[#116+[#117-#116]*0.59078]
X5.29588 Y-2.64286 Z[#111+-0.04000]
#116=[#506+[#507-#506]*0.36489]
#117=[#510+[#511-#510]*0.36489]
#111=[#116+[#117-#116]*0.58979]
X5.29550 Y-2.64670 Z[#111+-0.04000]
#116=[#506+[#507-#506]*0.35256]
#117=[#510+[#511-#510]*0.35256]
#111=[#116+[#117-#116]*0.58687]
X5.29438 Y-2.65039 Z[#111+-0.04000]
#116=[#506+[#507-#506]*0.34118]
#117=[#510+[#511-#510]*0.34118]
#111=[#116+[#117-#116]*0.58213]
X5.29256 Y-2.65380 Z[#111+-0.04000]
#116=[#506+[#507-#506]*0.33123]
#117=[#510+[#511-#510]*0.33123]
#111=[#116+[#117-#116]*0.57575]
X5.29011 Y-2.65678 Z[#111+-0.04000]
#116=[#506+[#507-#506]*0.32304]
#117=[#510+[#511-#510]*0.32304]
#111=[#116+[#117-#116]*0.56799]
X5.28713 Y-2.65923 Z[#111+-0.04000]
#116=[#506+[#507-#506]*0.31697]
#117=[#510+[#511-#510]*0.31697]
#111=[#116+[#117-#116]*0.55911]
X5.28372 Y-2.66105 Z[#111+-0.04000]
#116=[#506+[#507-#506]*0.31323]
#117=[#510+[#511-#510]*0.31323]
#111=[#116+[#117-#116]*0.54950]
X5.28003 Y-2.66217 Z[#111+-0.04000]
#116=[#506+[#507-#506]*0.31196]
#117=[#510+[#511-#510]*0.31196]
#111=[#116+[#117-#116]*0.53950]
X5.27619 Y-2.66255 Z[#111+-0.04000]
#116=[#506+[#507-#506]*0.31196]
#117=[#510+[#511-#510]*0.31196]
#111=[#116+[#117-#116]*0.42759]
X5.23322 Y-2.66255 Z[#111+-0.04000]
#116=[#506+[#507-#506]*0.24417]
#117=[#510+[#511-#510]*0.24417]
#111=[#116+[#117-#116]*0.32182]
X5.19261 Y-2.68285 Z[#111+-0.04000]
#116=[#506+[#507-#506]*0.17976]
#117=[#510+[#511-#510]*0.17976]
#111=[#116+[#117-#116]*0.27158]
X5.17332 Y-2.70214 Z[#111+-0.04000]
#116=[#506+[#507-#506]*0.04419]
#117=[#510+[#511-#510]*0.04419]
#111=[#116+[#117-#116]*0.21872]
X5.15302 Y-2.74274 Z[#111+-0.04000]
#111=[#506+[#510-#506]*0.21872]
X5.15302 Y-2.75597 Z[#111+-0.04000]
#116=[#505+[#506-#505]*0.26465]
#117=[#509+[#510-#509]*0.26465]
#111=[#116+[#117-#116]*0.21872]
X5.15302 Y-2.97619 Z[#111+-0.04000]
#116=[#505+[#506-#505]*0.25183]
#117=[#509+[#510-#509]*0.25183]
#111=[#116+[#117-#116]*0.21773]
X5.15264 Y-2.98003 Z[#111+-0.04000]
#116=[#505+[#506-#505]*0.23951]
#117=[#509+[#510-#509]*0.23951]
#111=[#116+[#117-#116]*0.21481]
X5.15152 Y-2.98372 Z[#111+-0.04000]
#116=[#505+[#506-#505]*0.22812]
#117=[#509+[#510-#509]*0.22812]
#111=[#116+[#117-#116]*0.21007]
X5.14970 Y-2.98713 Z[#111+-0.04000]
#116=[#505+[#506-#505]*0.21817]
#117=[#509+[#510-#509]*0.21817]
#111=[#116+[#117-#116]*0.20369]
X5.14725 Y-2.99011 Z[#111+-0.04000]
#116=[#505+[#506-#505]*0.20999]
#117=[#509+[#510-#509]*0.20999]
#111=[#116+[#117-#116]*0.19593]
X5.14427 Y-2.99256 Z[#111+-0.04000]
#116=[#505+[#506-#505]*0.20391]
#117=[#509+[#510-#509]*0.20391]
#111=[#116+[#117-#116]*0.18705]
X5.14086 Y-2.99438 Z[#111+-0.04000]
#116=[#505+[#506-#505]*0.20017]
#117=[#509+[#510-#509]*0.20017]
#111=[#116+[#117-#116]*0.17744]
X5.13717 Y-2.99550 Z[#111+-0.04000]
#116=[#505+[#506-#505]*0.19890]
#117=[#509+[#510-#509]*0.19890]
#111=[#116+[#117-#116]*0.16743]
X5.13333 Y-2.99588 Z[#111+-0.04000]
#116=[#505+[#506-#505]*0.20017]
#117=[#509+[#510-#509]*0.20017]
#111=[#116+[#117-#116]*0.15743]
X5.12949 Y-2.99550 Z[#111+-0.04000]
#116=[#505+[#506-#505]*0.20391]
#117=[#509+[#510-#509]*0.20391]
#111=[#116+[#117-#116]*0.14782]
X5.12580 Y-2.99438 Z[#111+-0.04000]
#116=[#505+[#506-#505]*0.20999]
#117=[#509+[#510-#509]*0.20999]
#111=[#116+[#117-#116]*0.13894]
X5.12239 Y-2.99256 Z[#111+-0.04000]
#116=[#505+[#506-#505]*0.21817]
#117=[#509+[#510-#509]*0.21817]
#111=[#116+[#117-#116]*0.13118]
X5.11941 Y-2.99011 Z[#111+-0.04000]
#116=[#505+[#506-#505]*0.22812]
#117=[#509+[#510-#509]*0.22812]
#111=[#116+[#117-#116]*0.12480]
X5.11696 Y-2.98713 Z[#111+-0.04000]
#116=[#505+[#506-#505]*0.23951]
#117=[#509+[#510-#509]*0.23951]
#111=[#116+[#117-#116]*0.12006]
X5.11514 Y-2.98372 Z[#111+-0.04000]
#116=[#505+[#506-#505]*0.25183]
#117=[#509+[#510-#509]*0.25183]
#111=[#116+[#117-#116]*0.11714]
X5.11402 Y-2.98003 Z[#111+-0.04000]
#116=[#505+[#506-#505]*0.26465]
#117=[#509+[#510-#509]*0.26465]
#111=[#116+[#117-#116]*0.11615]
X5.11364 Y-2.97619 Z[#111+-0.04000]
G04 P0 ( dwell for no time -- G64 should not smooth over this point )
G00 Z0.08000 ( retract )

G00 X5.39936 Y-2.88095 ( rapid move to begin. )
G01 F180.00000
( Mill infeed pass 1/1 )
#116=[#505+[#506-#505]*0.58268]
#117=[#509+[#510-#509]*0.58268]
#111=[#116+[#117-#116]*0.86028]
G01 Z[-0.04000+#111]
G04 P0 ( dwell for no time -- G64 should not smooth over this point )
G01 F360.00000
#111=[#506+[#510-#506]*0.86028]
X5.39936 Y-2.75597 Z[#111+-0.04000]
#116=[#506+[#507-#506]*0.05972]
#117=[#510+[#511-#510]*0.05972]
#111=[#116+[#117-#116]*0.86028]
X5.39936 Y-2.73809 Z[#111+-0.04000]
#116=[#506+[#507-#506]*0.07481]
#117=[#510+[#511-#510]*0.07481]
#111=[#116+[#117-#116]*0.86166]
X5.39989 Y-2.73357 Z[#111+-0.04000]
#116=[#506+[#507-#506]*0.08910]
#117=[#510+[#511-#510]*0.08910]
#111=[#116+[#117-#116]*0.86569]
X5.40144 Y-2.72929 Z[#111+-0.04000]
#116=[#506+[#507-#506]*0.24808]
#117=[#510+[#511-#510]*0.24808]
#111=[#116+[#117-#116]*0.92770]
X5.42525 Y-2.68168 Z[#111+-0.04000]
#116=[#506+[#507-#506]*0.25713]
#117=[#510+[#511-#510]*0.25713]
#111=[#116+[#117-#116]*0.93197]
X5.42689 Y-2.67897 Z[#111+-0.04000]
#116=[#506+[#507-#506]*0.26518]
#117=[#510+[#511-#510]*0.26518]
#111=[#116+[#117-#116]*0.93731]
X5.42894 Y-2.67656 Z[#111+-0.04000]
#116=[#506+[#507-#506]*0.34468]
#117=[#510+[#511-#510]*0.34468]
#111=[#116+[#117-#116]*0.99932]
X5.45275 Y-2.65275 Z[#111+-0.04000]
#116=[#510+[#511-#510]*0.34542]
#117=[#514+[#515-#514]*0.34542]
#111=[#116+[#117-#116]*0.00000]
X5.45301 Y-2.65253 Z[#111+-0.04000]
#116=[#510+[#511-#510]*0.35153]
#117=[#514+[#515-#514]*0.35153]
#111=[#116+[#117-#116]*0.00560]
X5.45516 Y-2.65070 Z[#111+-0.04000]
#116=[#510+[#511-#510]*0.35700]
#117=[#514+[#515-#514]*0.35700]
#111=[#116+[#117-#116]*0.01266]
X5.45787 Y-2.64906 Z[#111+-0.04000]
#116=[#510+[#511-#510]*0.43651]
#117=[#514+[#515-#514]*0.43651]
#111=[#116+[#117-#116]*0.13668]
X5.50549 Y-2.62525 Z[#111+-0.04000]
#116=[#510+[#511-#510]*0.44169]
#117=[#514+[#515-#514]*0.44169]
#111=[#116+[#117-#116]*0.14782]
X5.50977 Y-2.62370 Z[#111+-0.04000]
#116=[#510+[#511-#510]*0.44346]
#117=[#514+[#515-#514]*0.44346]
#111=[#116+[#117-#116]*0.15960]
X5.51429 Y-2.62317 Z[#111+-0.04000]
#116=[#510+[#511-#510]*0.44346]
#117=[#514+[#515-#514]*0.44346]
#111=[#116+[#117-#116]*0.34560]
X5.58571 Y-2.62317 Z[#111+-0.04000]
#116=[#510+[#511-#510]*0.44169]
#117=[#514+[#515-#514]*0.44169]
#111=[#116+[#117-#116]*0.35737]
X5.59023 Y-2.62370 Z[#111+-0.04000]
#116=[#510+[#511-#510]*0.43651]
#117=[#514+[#515-#514]*0.43651]
#111=[#116+[#117-#116]*0.36852]
X5.59451 Y-2.62525 Z[#111+-0.04000]
#116=[#510+[#511-#510]*0.35700]
#117=[#514+[#515-#514]*0.35700]
#111=[#116+[#117-#116]*0.49254]
X5.64213 Y-2.64906 Z[#111+-0.04000]
#116=[#510+[#511-#510]*0.35153]
#117=[#514+[#515-#514]*0.35153]
#111=[#116+[#117-#116]*0.49960]
X5.64484 Y-2.65070 Z[#111+-0.04000]
#116=[#510+[#511-#510]*0.34468]
#117=[#514+[#515-#514]*0.34468]
#111=[#116+[#117-#116]*0.50587]
X5.64725 Y-2.65275 Z[#111+-0.04000]
#116=[#510+[#511-#510]*0.26518]
#117=[#514+[#515-#514]*0.26518]
#111=[#116+[#117-#116]*0.56788]
X5.67106 Y-2.67656 Z[#111+-0.04000]
#116=[#510+[#511-#510]*0.25713]
#117=[#514+[#515-#514]*0.25713]
#111=[#116+[#117-#116]*0.57322]
X5.67311 Y-2.67897 Z[#111+-0.04000]
#116=[#510+[#511-#510]*0.24808]
#117=[#514+[#515-#514]*0.24808]
#111=[#116+[#117-#116]*0.57749]
X5.67475 Y-2.68168 Z[#111+-0.04000]
#116=[#510+[#511-#510]*0.08910]
#117=[#514+[#515-#514]*0.08910]
#111=[#116+[#117-#116]*0.63950]
X5.69856 Y-2.72929 Z[#111+-0.04000]
#116=[#510+[#511-#510]*0.07481]
#117=[#514+[#515-#514]*0.07481]
#111=[#116+[#117-#116]*0.64354]
X5.70011 Y-2.73357 Z[#111+-0.04000]
#116=[#510+[#511-#510]*0.05972]
#117=[#514+[#515-#514]*0.05972]
#111=[#116+[#117-#116]*0.64492]
X5.70064 Y-2.73809 Z[#111+-0.04000]
#111=[#510+[#514-#510]*0.64492]
X5.70064 Y-2.75597 Z[#111+-0.04000]
#116=[#509+[#510-#509]*0.58268]
#117=[#513+[#514-#513]*0.58268]
#111=[#116+[#117-#116]*0.64492]
X5.70064 Y-2.88095 Z[#111+-0.04000]
#116=[#509+[#510-#509]*0.56759]
#117=[#513+[#514-#513]*0.56759]
#111=[#116+[#117-#116]*0.64354]
X5.70011 Y-2.88547 Z[#111+-0.04000]
#116=[#509+[#510-#509]*0.55329]
#117=[#513+[#514-#513]*0.55329]
#111=[#116+[#117-#116]*0.63950]
X5.69856 Y-2.88975 Z[#111+-0.04000]
#116=[#509+[#510-#509]*0.39428]
#117=[#513+[#514-#513]*0.39428]
#111=[#116+[#117-#116]*0.57749]
X5.67475 Y-2.93737 Z[#111+-0.04000]
#116=[#509+[#510-#509]*0.38523]
#117=[#513+[#514-#513]*0.38523]
#111=[#116+[#117-#116]*0.57322]
X5.67311 Y-2.94008 Z[#111+-0.04000]
#116=[#509+[#510-#509]*0.37718]
#117=[#513+[#514-#513]*0.37718]
#111=[#116+[#117-#116]*0.56788]
X5.67106 Y-2.94249 Z[#111+-0.04000]
#116=[#509+[#510-#509]*0.29768]
#117=[#513+[#514-#513]*0.29768]
#111=[#116+[#117-#116]*0.50587]
X5.64725 Y-2.96630 Z[#111+-0.04000]
#116=[#509+[#510-#509]*0.29083]
#117=[#513+[#514-#513]*0.29083]
#111=[#116+[#117-#116]*0.49960]
X5.64484 Y-2.96835 Z[#111+-0.04000]
#116=[#509+[#510-#509]*0.28536]
#117=[#513+[#514-#513]*0.28536]
#111=[#116+[#117-#116]*0.49254]
X5.64213 Y-2.96999 Z[#111+-0.04000]
#116=[#509+[#510-#509]*0.20585]
#117=[#513+[#514-#513]*0.20585]
#111=[#116+[#117-#116]*0.36852]
X5.59451 Y-2.99380 Z[#111+-0.04000]
#116=[#509+[#510-#509]*0.20067]
#117=[#513+[#514-#513]*0.20067]
#111=[#116+[#117-#116]*0.35737]
X5.59023 Y-2.99535 Z[#111+-0.04000]
#116=[#509+[#510-#509]*0.19890]
#117=[#513+[#514-#513]*0.19890]
#111=[#116+[#117-#116]*0.34560]
X5.58571 Y-2.99588 Z[#111+-0.04000]
#116=[#509+[#510-#509]*0.19890]
#117=[#513+[#514-#513]*0.19890]
#111=[#116+[#117-#116]*0.15960]
X5.51429 Y-2.99588 Z[#111+-0.04000]
#116=[#509+[#510-#509]*0.20067]
#117=[#513+[#514-#513]*0.20067]
#111=[#116+[#117-#116]*0.14782]
X5.50977 Y-2.99535 Z[#111+-0.04000]
#116=[#509+[#510-#509]*0.20585]
#117=[#513+[#514-#513]*0.20585]
#111=[#116+[#117-#116]*0.13668]
X5.50549 Y-2.99380 Z[#111+-0.04000]
#116=[#509+[#510-#509]*0.28536]
#117=[#513+[#514-#513]*0.28536]
#111=[#116+[#117-#116]*0.01266]
X5.45787 Y-2.96999 Z[#111+-0.04000]
#116=[#509+[#510-#509]*0.29083]
#117=[#513+[#514-#513]*0.29083]
#111=[#116+[#117-#116]*0.00560]
X5.45516 Y-2.96835 Z[#111+-0.04000]
#116=[#509+[#510-#509]*0.29694]
#117=[#513+[#514-#513]*0.29694]
#111=[#116+[#117-#116]*0.00000]
X5.45301 Y-2.96652 Z[#111+-0.04000]
#116=[#505+[#506-#505]*0.29768]
#117=[#509+[#510-#509]*0.29768]
#111=[#116+[#117-#116]*0.99932]
X5.45275 Y-2.96630 Z[#111+-0.04000]
#116=[#505+[#506-#505]*0.37718]
#117=[#509+[#510-#509]*0.37718]
#111=[#116+[#117-#116]*0.93731]
X5.42894 Y-2.94249 Z[#111+-0.04000]
#116=[#505+[#506-#505]*0.38523]
#117=[#509+[#510-#509]*0.38523]
#111=[#116+[#117-#116]*0.93197]
X5.42689 Y-2.94008 Z[#111+-0.04000]
#116=[#505+[#506-#505]*0.39428]
#117=[#509+[#510-#509]*0.39428]
#111=[#116+[#117-#116]*0.92770]
X5.42525 Y-2.93737 Z[#111+-0.04000]
#116=[#505+[#506-#505]*0.55329]
#117=[#509+[#510-#509]*0.55329]
#111=[#116+[#117-#116]*0.86569]
X5.40144 Y-2.88975 Z[#111+-0.04000]
#116=[#505+[#506-#505]*0.56759]
#117=[#509+[#510-#509]*0.56759]
#111=[#116+[#117-#116]*0.86166]
X5.39989 Y-2.88547 Z[#111+-0.04000]
#116=[#505+[#506-#505]*0.58268]
#117=[#509+[#510-#509]*0.58268]
#111=[#116+[#117-#116]*0.86028]
X5.39936 Y-2.88095 Z[#111+-0.04000]
G04 P0 ( dwell for no time -- G64 should not smooth over this point )
G00 Z0.08000 ( retract )

G00 X5.43874 Y-2.87630 ( rapid move to begin. )
G01 F180.00000
( Mill infeed pass 1/1 )
#116=[#505+[#506-#505]*0.59821]
#117=[#509+[#510-#509]*0.59821]
#111=[#116+[#117-#116]*0.96284]
G01 Z[-0.04000+#111]
G04 P0 ( dwell for no time -- G64 should not smooth over this point )
G01 F360.00000
#111=[#506+[#510-#506]*0.96284]
X5.43874 Y-2.75597 Z[#111+-0.04000]
#116=[#506+[#507-#506]*0.04419]
#117=[#510+[#511-#510]*0.04419]
#111=[#116+[#117-#116]*0.96284]
X5.43874 Y-2.74274 Z[#111+-0.04000]
#116=[#510+[#511-#510]*0.13949]
#117=[#514+[#515-#514]*0.13949]
#111=[#116+[#117-#116]*0.00000]
X5.45301 Y-2.71420 Z[#111+-0.04000]
#116=[#510+[#511-#510]*0.17976]
#117=[#514+[#515-#514]*0.17976]
#111=[#116+[#117-#116]*0.01570]
X5.45904 Y-2.70214 Z[#111+-0.04000]
#116=[#510+[#511-#510]*0.24417]
#117=[#514+[#515-#514]*0.24417]
#111=[#116+[#117-#116]*0.06594]
X5.47833 Y-2.68285 Z[#111+-0.04000]
#116=[#510+[#511-#510]*0.31196]
#117=[#514+[#515-#514]*0.31196]
#111=[#116+[#117-#116]*0.17171]
X5.51894 Y-2.66255 Z[#111+-0.04000]
#116=[#510+[#511-#510]*0.31196]
#117=[#514+[#515-#514]*0.31196]
#111=[#116+[#117-#116]*0.33349]
X5.58106 Y-2.66255 Z[#111+-0.04000]
#116=[#510+[#511-#510]*0.24417]
#117=[#514+[#515-#514]*0.24417]
#111=[#116+[#117-#116]*0.43925]
X5.62167 Y-2.68285 Z[#111+-0.04000]
#116=[#510+[#511-#510]*0.17976]
#117=[#514+[#515-#514]*0.17976]
#111=[#116+[#117-#116]*0.48949]
X5.64096 Y-2.70214 Z[#111+-0.04000]
#116=[#510+[#511-#510]*0.04419]
#117=[#514+[#515-#514]*0.04419]
#111=[#116+[#117-#116]*0.54236]
X5.66126 Y-2.74274 Z[#111+-0.04000]
#111=[#510+[#514-#510]*0.54236]
X5.66126 Y-2.75597 Z[#111+-0.04000]
#116=[#509+[#510-#509]*0.59821]
#117=[#513+[#514-#513]*0.59821]
#111=[#116+[#117-#116]*0.54236]
X5.66126 Y-2.87630 Z[#111+-0.04000]
#116=[#509+[#510-#509]*0.46260]
#117=[#513+[#514-#513]*0.46260]
#111=[#116+[#117-#116]*0.48949]
X5.64096 Y-2.91691 Z[#111+-0.04000]
#116=[#509+[#510-#509]*0.39819]
#117=[#513+[#514-#513]*0.39819]
#111=[#116+[#117-#116]*0.43925]
X5.62167 Y-2.93620 Z[#111+-0.04000]
#116=[#509+[#510-#509]*0.33040]
#117=[#513+[#514-#513]*0.33040]
#111=[#116+[#117-#116]*0.33349]
X5.58106 Y-2.95650 Z[#111+-0.04000]
#116=[#509+[#510-#509]*0.33040]
#117=[#513+[#514-#513]*0.33040]
#111=[#116+[#117-#116]*0.17171]
X5.51894 Y-2.95650 Z[#111+-0.04000]
#116=[#509+[#510-#509]*0.39819]
#117=[#513+[#514-#513]*0.39819]
#111=[#116+[#117-#116]*0.06594]
X5.47833 Y-2.93620 Z[#111+-0.04000]
#116=[#509+[#510-#509]*0.46260]
#117=[#513+[#514-#513]*0.46260]
#111=[#116+[#117-#116]*0.01570]
X5.45904 Y-2.91691 Z[#111+-0.04000]
#116=[#509+[#510-#509]*0.50288]
#117=[#513+[#514-#513]*0.50288]
#111=[#116+[#117-#116]*0.00000]
X5.45301 Y-2.90485 Z[#111+-0.04000]
#116=[#505+[#506-#505]*0.59821]
#117=[#509+[#510-#509]*0.59821]
#111=[#116+[#117-#116]*0.96284]
X5.43874 Y-2.87630 Z[#111+-0.04000]
G04 P0 ( dwell for no time -- G64 should not smooth over this point )
G00 Z0.08000 ( retract )

G00 X5.87555 Y-2.97619 ( rapid move to begin. )
G01 F180.00000
( Mill infeed pass 1/1 )
#116=[#513+[#514-#513]*0.26465]
#117=[#517+[#518-#517]*0.26465]
#111=[#116+[#117-#116]*0.10045]
G01 Z[-0.04000+#111]
G04 P0 ( dwell for no time -- G64 should not smooth over this point )
G01 F360.00000
#111=[#514+[#518-#514]*0.10045]
X5.87555 Y-2.75597 Z[#111+-0.04000]
#116=[#514+[#515-#514]*0.37771]
#117=[#518+[#519-#518]*0.37771]
#111=[#116+[#117-#116]*0.10045]
X5.87555 Y-2.64286 Z[#111+-0.04000]
#116=[#514+[#515-#514]*0.39053]
#117=[#518+[#519-#518]*0.39053]
#111=[#116+[#117-#116]*0.10144]
X5.87593 Y-2.63902 Z[#111+-0.04000]
#116=[#514+[#515-#514]*0.40285]
#117=[#518+[#519-#518]*0.40285]
#111=[#116+[#117-#116]*0.10436]
X5.87705 Y-2.63533 Z[#111+-0.04000]
#116=[#514+[#515-#514]*0.41424]
#117=[#518+[#519-#518]*0.41424]
#111=[#116+[#117-#116]*0.10910]
X5.87887 Y-2.63192 Z[#111+-0.04000]
#116=[#514+[#515-#514]*0.42419]
#117=[#518+[#519-#518]*0.42419]
#111=[#116+[#117-#116]*0.11548]
X5.88132 Y-2.62894 Z[#111+-0.04000]
#116=[#514+[#515-#514]*0.43237]
#117=[#518+[#519-#518]*0.43237]
#111=[#116+[#117-#116]*0.12324]
X5.88430 Y-2.62649 Z[#111+-0.04000]
#116=[#514+[#515-#514]*0.43845]
#117=[#518+[#519-#518]*0.43845]
#111=[#116+[#117-#116]*0.13212]
X5.88771 Y-2.62467 Z[#111+-0.04000]
#116=[#514+[#515-#514]*0.44219]
#117=[#518+[#519-#518]*0.44219]
#111=[#116+[#117-#116]*0.14173]
X5.89140 Y-2.62355 Z[#111+-0.04000]
#116=[#514+[#515-#514]*0.44346]
#117=[#518+[#519-#518]*0.44346]
#111=[#116+[#117-#116]*0.15173]
X5.89524 Y-2.62317 Z[#111+-0.04000]
#116=[#514+[#515-#514]*0.44219]
#117=[#518+[#519-#518]*0.44219]
#111=[#116+[#117-#116]*0.16173]
X5.89908 Y-2.62355 Z[#111+-0.04000]
#116=[#514+[#515-#514]*0.43845]
#117=[#518+[#519-#518]*0.43845]
#111=[#116+[#117-#116]*0.17134]
X5.90277 Y-2.62467 Z[#111+-0.04000]
#116=[#514+[#515-#514]*0.43237]
#117=[#518+[#519-#518]*0.43237]
#111=[#116+[#117-#116]*0.18022]
X5.90618 Y-2.62649 Z[#111+-0.04000]
#116=[#514+[#515-#514]*0.42419]
#117=[#518+[#519-#518]*0.42419]
#111=[#116+[#117-#116]*0.18798]
X5.90916 Y-2.62894 Z[#111+-0.04000]
#116=[#514+[#515-#514]*0.41424]
#117=[#518+[#519-#518]*0.41424]
#111=[#116+[#117-#116]*0.19436]
X5.91161 Y-2.63192 Z[#111+-0.04000]
#116=[#514+[#515-#514]*0.40285]
#117=[#518+[#519-#518]*0.40285]
#111=[#116+[#117-#116]*0.19910]
X5.91343 Y-2.63533 Z[#111+-0.04000]
#116=[#514+[#515-#514]*0.39053]
#117=[#518+[#519-#518]*0.39053]
#111=[#116+[#117-#116]*0.20202]
X5.91455 Y-2.63902 Z[#111+-0.04000]
#116=[#514+[#515-#514]*0.37771]
#117=[#518+[#519-#518]*0.37771]
#111=[#116+[#117-#116]*0.20301]
X5.91493 Y-2.64286 Z[#111+-0.04000]
#116=[#514+[#515-#514]*0.36482]
#117=[#518+[#519-#518]*0.36482]
#111=[#116+[#117-#116]*0.20301]
X5.91493 Y-2.64672 Z[#111+-0.04000]
#116=[#514+[#515-#514]*0.43651]
#117=[#518+[#519-#518]*0.43651]
#111=[#116+[#117-#116]*0.31484]
X5.95787 Y-2.62525 Z[#111+-0.04000]
#116=[#514+[#515-#514]*0.44169]
#117=[#518+[#519-#518]*0.44169]
#111=[#116+[#117-#116]*0.32599]
X5.96215 Y-2.62370 Z[#111+-0.04000]
#116=[#514+[#515-#514]*0.44346]
#117=[#518+[#519-#518]*0.44346]
#111=[#116+[#117-#116]*0.33776]
X5.96667 Y-2.62317 Z[#111+-0.04000]
#116=[#514+[#515-#514]*0.44346]
#117=[#518+[#519-#518]*0.44346]
#111=[#116+[#117-#116]*0.52379]
X6.03810 Y-2.62317 Z[#111+-0.04000]
#116=[#514+[#515-#514]*0.44169]
#117=[#518+[#519-#518]*0.44169]
#111=[#116+[#117-#116]*0.53556]
X6.04262 Y-2.62370 Z[#111+-0.04000]
#116=[#514+[#515-#514]*0.43651]
#117=[#518+[#519-#518]*0.43651]
#111=[#116+[#117-#116]*0.54671]
X6.04690 Y-2.62525 Z[#111+-0.04000]
#116=[#514+[#515-#514]*0.35700]
#117=[#518+[#519-#518]*0.35700]
#111=[#116+[#117-#116]*0.67070]
X6.09451 Y-2.64906 Z[#111+-0.04000]
#116=[#514+[#515-#514]*0.34939]
#117=[#518+[#519-#518]*0.34939]
#111=[#116+[#117-#116]*0.67995]
X6.09806 Y-2.65134 Z[#111+-0.04000]
#116=[#514+[#515-#514]*0.33944]
#117=[#518+[#519-#518]*0.33944]
#111=[#116+[#117-#116]*0.68771]
X6.10104 Y-2.65432 Z[#111+-0.04000]
#116=[#514+[#515-#514]*0.32759]
#117=[#518+[#519-#518]*0.32759]
#111=[#116+[#117-#116]*0.69365]
X6.10332 Y-2.65787 Z[#111+-0.04000]
#116=[#514+[#515-#514]*0.16861]
#117=[#518+[#519-#518]*0.16861]
#111=[#116+[#117-#116]*0.75566]
X6.12713 Y-2.70548 Z[#111+-0.04000]
#116=[#514+[#515-#514]*0.15432]
#117=[#518+[#519-#518]*0.15432]
#111=[#116+[#117-#116]*0.75969]
X6.12868 Y-2.70976 Z[#111+-0.04000]
#116=[#514+[#515-#514]*0.13922]
#117=[#518+[#519-#518]*0.13922]
#111=[#116+[#117-#116]*0.76108]
X6.12921 Y-2.71428 Z[#111+-0.04000]
#111=[#514+[#518-#514]*0.76108]
X6.12921 Y-2.75597 Z[#111+-0.04000]
#116=[#513+[#514-#513]*0.26465]
#117=[#517+[#518-#517]*0.26465]
#111=[#116+[#117-#116]*0.76108]
X6.12921 Y-2.97619 Z[#111+-0.04000]
#116=[#513+[#514-#513]*0.25183]
#117=[#517+[#518-#517]*0.25183]
#111=[#116+[#117-#116]*0.76009]
X6.12883 Y-2.98003 Z[#111+-0.04000]
#116=[#513+[#514-#513]*0.23951]
#117=[#517+[#518-#517]*0.23951]
#111=[#116+[#117-#116]*0.75717]
X6.12771 Y-2.98372 Z[#111+-0.04000]
#116=[#513+[#514-#513]*0.22812]
#117=[#517+[#518-#517]*0.22812]
#111=[#116+[#117-#116]*0.75243]
X6.12589 Y-2.98713 Z[#111+-0.04000]
#116=[#513+[#514-#513]*0.21817]
#117=[#517+[#518-#517]*0.21817]
#111=[#116+[#117-#116]*0.74605]
X6.12344 Y-2.99011 Z[#111+-0.04000]
#116=[#513+[#514-#513]*0.20999]
#117=[#517+[#518-#517]*0.20999]
#111=[#116+[#117-#116]*0.73829]
X6.12046 Y-2.99256 Z[#111+-0.04000]
#116=[#513+[#514-#513]*0.20391]
#117=[#517+[#518-#517]*0.20391]
#111=[#116+[#117-#116]*0.72941]
X6.11705 Y-2.99438 Z[#111+-0.04000]
#116=[#513+[#514-#513]*0.20017]
#117=[#517+[#518-#517]*0.20017]
#111=[#116+[#117-#116]*0.71980]
X6.11336 Y-2.99550 Z[#111+-0.04000]
#116=[#513+[#514-#513]*0.19890]
#117=[#517+[#518-#517]*0.19890]
#111=[#116+[#117-#116]*0.70980]
X6.10952 Y-2.99588 Z[#111+-0.04000]
#116=[#513+[#514-#513]*0.20017]
#117=[#517+[#518-#517]*0.20017]
#111=[#116+[#117-#116]*0.69979]
X6.10568 Y-2.99550 Z[#111+-0.04000]
#116=[#513+[#514-#513]*0.20391]
#117=[#517+[#518-#517]*0.20391]
#111=[#116+[#117-#116]*0.69018]
X6.10199 Y-2.99438 Z[#111+-0.04000]
#116=[#513+[#514-#513]*0.20999]
#117=[#517+[#518-#517]*0.20999]
#111=[#116+[#117-#116]*0.68130]
X6.09858 Y-2.99256 Z[#111+-0.04000]
#116=[#513+[#514-#513]*0.21817]
#117=[#517+[#518-#517]*0.21817]
#111=[#116+[#117-#116]*0.67354]
X6.09560 Y-2.99011 Z[#111+-0.04000]
#116=[#513+[#514-#513]*0.22812]
#117=[#517+[#518-#517]*0.22812]
#111=[#116+[#117-#116]*0.66716]
X6.09315 Y-2.98713 Z[#111+-0.04000]
#116=[#513+[#514-#513]*0.23951]
#117=[#517+[#518-#517]*0.23951]
#111=[#116+[#117-#116]*0.66242]
X6.09133 Y-2.98372 Z[#111+-0.04000]
#116=[#513+[#514-#513]*0.25183]
#117=[#517+[#518-#517]*0.25183]
#111=[#116+[#117-#116]*0.65950]
X6.09021 Y-2.98003 Z[#111+-0.04000]
#116=[#513+[#514-#513]*0.26465]
#117=[#517+[#518-#517]*0.26465]
#111=[#116+[#117-#116]*0.65851]
X6.08983 Y-2.97619 Z[#111+-0.04000]
#111=[#514+[#518-#514]*0.65851]
X6.08983 Y-2.75597 Z[#111+-0.04000]
#116=[#514+[#515-#514]*0.12369]
#117=[#518+[#519-#518]*0.12369]
#111=[#116+[#117-#116]*0.65851]
X6.08983 Y-2.71893 Z[#111+-0.04000]
#116=[#514+[#515-#514]*0.24922]
#117=[#518+[#519-#518]*0.24922]
#111=[#116+[#117-#116]*0.60958]
X6.07104 Y-2.68134 Z[#111+-0.04000]
#116=[#514+[#515-#514]*0.31196]
#117=[#518+[#519-#518]*0.31196]
#111=[#116+[#117-#116]*0.51168]
X6.03345 Y-2.66255 Z[#111+-0.04000]
#116=[#514+[#515-#514]*0.31196]
#117=[#518+[#519-#518]*0.31196]
#111=[#116+[#117-#116]*0.34987]
X5.97132 Y-2.66255 Z[#111+-0.04000]
#116=[#514+[#515-#514]*0.24417]
#117=[#518+[#519-#518]*0.24417]
#111=[#116+[#117-#116]*0.24411]
X5.93071 Y-2.68285 Z[#111+-0.04000]
#116=[#514+[#515-#514]*0.19148]
#117=[#518+[#519-#518]*0.19148]
#111=[#116+[#117-#116]*0.20301]
X5.91493 Y-2.69863 Z[#111+-0.04000]
#111=[#514+[#518-#514]*0.20301]
X5.91493 Y-2.75597 Z[#111+-0.04000]
#116=[#513+[#514-#513]*0.26465]
#117=[#517+[#518-#517]*0.26465]
#111=[#116+[#117-#116]*0.20301]
X5.91493 Y-2.97619 Z[#111+-0.04000]
#116=[#513+[#514-#513]*0.25183]
#117=[#517+[#518-#517]*0.25183]
#111=[#116+[#117-#116]*0.20202]
X5.91455 Y-2.98003 Z[#111+-0.04000]
#116=[#513+[#514-#513]*0.23951]
#117=[#517+[#518-#517]*0.23951]
#111=[#116+[#117-#116]*0.19910]
X5.91343 Y-2.98372 Z[#111+-0.04000]
#116=[#513+[#514-#513]*0.22812]
#117=[#517+[#518-#517]*0.22812]
#111=[#116+[#117-#116]*0.19436]
X5.91161 Y-2.98713 Z[#111+-0.04000]
#116=[#513+[#514-#513]*0.21817]
#117=[#517+[#518-#517]*0.21817]
#111=[#116+[#117-#116]*0.18798]
X5.90916 Y-2.99011 Z[#111+-0.04000]
#116=[#513+[#514-#513]*0.20999]
#117=[#517+[#518-#517]*0.20999]
#111=[#116+[#117-#116]*0.18022]
X5.90618 Y-2.99256 Z[#111+-0.04000]
#116=[#513+[#514-#513]*0.20391]
#117=[#517+[#518-#517]*0.20391]
#111=[#116+[#117-#116]*0.17134]
X5.90277 Y-2.99438 Z[#111+-0.04000]
#116=[#513+[#514-#513]*0.20017]
#117=[#517+[#518-#517]*0.20017]
#111=[#116+[#117-#116]*0.16173]
X5.89908 Y-2.99550 Z[#111+-0.04000]
#116=[#513+[#514-#513]*0.19890]
#117=[#517+[#518-#517]*0.19890]
#111=[#116+[#117-#116]*0.15173]
X5.89524 Y-2.99588 Z[#111+-0.04000]
#116=[#513+[#514-#513]*0.20017]
#117=[#517+[#518-#517]*0.20017]
#111=[#116+[#117-#116]*0.14173]
X5.89140 Y-2.99550 Z[#111+-0.04000]
#116=[#513+[#514-#513]*0.20391]
#117=[#517+[#518-#517]*0.20391]
#111=[#116+[#117-#116]*0.13212]
X5.88771 Y-2.99438 Z[#111+-0.04000]
#116=[#513+[#514-#513]*0.20999]
#117=[#517+[#518-#517]*0.20999]
#111=[#116+[#117-#116]*0.12324]
X5.88430 Y-2.99256 Z[#111+-0.04000]
#116=[#513+[#514-#513]*0.21817]
#117=[#517+[#518-#517]*0.21817]
#111=[#116+[#117-#116]*0.11548]
X5.88132 Y-2.99011 Z[#111+-0.04000]
#116=[#513+[#514-#513]*0.22812]
#117=[#517+[#518-#517]*0.22812]
#111=[#116+[#117-#116]*0.10910]
X5.87887 Y-2.98713 Z[#111+-0.04000]
#116=[#513+[#514-#513]*0.23951]
#117=[#517+[#518-#517]*0.23951]
#111=[#116+[#117-#116]*0.10436]
X5.87705 Y-2.98372 Z[#111+-0.04000]
#116=[#513+[#514-#513]*0.25183]
#117=[#517+[#518-#517]*0.25183]
#111=[#116+[#117-#116]*0.10144]
X5.87593 Y-2.98003 Z[#111+-0.04000]
#116=[#513+[#514-#513]*0.26465]
#117=[#517+[#518-#517]*0.26465]
#111=[#116+[#117-#116]*0.10045]
X5.87555 Y-2.97619 Z[#111+-0.04000]
G04 P0 ( dwell for no time -- G64 should not smooth over this point )
G00 Z0.08000 ( retract )

G00 X6.25650 Y-2.64286 ( rapid move to begin. )
G01 F180.00000
( Mill infeed pass 1/1 )
#116=[#518+[#519-#518]*0.37771]
#117=[#522+[#523-#522]*0.37771]
#111=[#116+[#117-#116]*0.09259]
G01 Z[-0.04000+#111]
G04 P0 ( dwell for no time -- G64 should not smooth over this point )
G01 F360.00000
#116=[#518+[#519-#518]*0.36489]
#117=[#522+[#523-#522]*0.36489]
#111=[#116+[#117-#116]*0.09358]
X6.25688 Y-2.64670 Z[#111+-0.04000]
#116=[#518+[#519-#518]*0.35256]
#117=[#522+[#523-#522]*0.35256]
#111=[#116+[#117-#116]*0.09649]
X6.25800 Y-2.65039 Z[#111+-0.04000]
#116=[#518+[#519-#518]*0.34118]
#117=[#522+[#523-#522]*0.34118]
#111=[#116+[#117-#116]*0.10123]
X6.25982 Y-2.65380 Z[#111+-0.04000]
#116=[#518+[#519-#518]*0.33123]
#117=[#522+[#523-#522]*0.33123]
#111=[#116+[#117-#116]*0.10761]
X6.26227 Y-2.65678 Z[#111+-0.04000]
#116=[#518+[#519-#518]*0.32304]
#117=[#522+[#523-#522]*0.32304]
#111=[#116+[#117-#116]*0.11537]
X6.26525 Y-2.65923 Z[#111+-0.04000]
#116=[#518+[#519-#518]*0.31697]
#117=[#522+[#523-#522]*0.31697]
#111=[#116+[#117-#116]*0.12425]
X6.26866 Y-2.66105 Z[#111+-0.04000]
#116=[#518+[#519-#518]*0.31323]
#117=[#522+[#523-#522]*0.31323]
#111=[#116+[#117-#116]*0.13386]
X6.27235 Y-2.66217 Z[#111+-0.04000]
#116=[#518+[#519-#518]*0.31196]
#117=[#522+[#523-#522]*0.31196]
#111=[#116+[#117-#116]*0.14387]
X6.27619 Y-2.66255 Z[#111+-0.04000]
#116=[#518+[#519-#518]*0.31196]
#117=[#522+[#523-#522]*0.31196]
#111=[#116+[#117-#116]*0.27862]
X6.32793 Y-2.66255 Z[#111+-0.04000]
#111=[#518+[#522-#518]*0.27862]
X6.32793 Y-2.75597 Z[#111+-0.04000]
#116=[#517+[#518-#517]*0.50317]
#117=[#521+[#522-#521]*0.50317]
#111=[#116+[#117-#116]*0.27862]
X6.32793 Y-2.90476 Z[#111+-0.04000]
#116=[#517+[#518-#517]*0.48808]
#117=[#521+[#522-#521]*0.48808]
#111=[#116+[#117-#116]*0.28000]
X6.32846 Y-2.90928 Z[#111+-0.04000]
#116=[#517+[#518-#517]*0.47379]
#117=[#521+[#522-#521]*0.47379]
#111=[#116+[#117-#116]*0.28403]
X6.33001 Y-2.91356 Z[#111+-0.04000]
#116=[#517+[#518-#517]*0.31477]
#117=[#521+[#522-#521]*0.31477]
#111=[#116+[#117-#116]*0.34604]
X6.35382 Y-2.96118 Z[#111+-0.04000]
#116=[#517+[#518-#517]*0.30292]
#117=[#521+[#522-#521]*0.30292]
#111=[#116+[#117-#116]*0.35198]
X6.35610 Y-2.96473 Z[#111+-0.04000]
#116=[#517+[#518-#517]*0.29297]
#117=[#521+[#522-#521]*0.29297]
#111=[#116+[#117-#116]*0.35974]
X6.35908 Y-2.96771 Z[#111+-0.04000]
#116=[#517+[#518-#517]*0.28536]
#117=[#521+[#522-#521]*0.28536]
#111=[#116+[#117-#116]*0.36899]
X6.36263 Y-2.96999 Z[#111+-0.04000]
#116=[#517+[#518-#517]*0.20585]
#117=[#521+[#522-#521]*0.20585]
#111=[#116+[#117-#116]*0.49301]
X6.41025 Y-2.99380 Z[#111+-0.04000]
#116=[#517+[#518-#517]*0.20067]
#117=[#521+[#522-#521]*0.20067]
#111=[#116+[#117-#116]*0.50415]
X6.41453 Y-2.99535 Z[#111+-0.04000]
#116=[#517+[#518-#517]*0.19890]
#117=[#521+[#522-#521]*0.19890]
#111=[#116+[#117-#116]*0.51593]
X6.41905 Y-2.99588 Z[#111+-0.04000]
#116=[#517+[#518-#517]*0.19890]
#117=[#521+[#522-#521]*0.19890]
#111=[#116+[#117-#116]*0.63995]
X6.46667 Y-2.99588 Z[#111+-0.04000]
#116=[#517+[#518-#517]*0.20017]
#117=[#521+[#522-#521]*0.20017]
#111=[#116+[#117-#116]*0.64995]
X6.47051 Y-2.99550 Z[#111+-0.04000]
#116=[#517+[#518-#517]*0.20391]
#117=[#521+[#522-#521]*0.20391]
#111=[#116+[#117-#116]*0.65956]
X6.47420 Y-2.99438 Z[#111+-0.04000]
#116=[#517+[#518-#517]*0.20999]
#117=[#521+[#522-#521]*0.20999]
#111=[#116+[#117-#116]*0.66844]
X6.47761 Y-2.99256 Z[#111+-0.04000]
#116=[#517+[#518-#517]*0.21817]
#117=[#521+[#522-#521]*0.21817]
#111=[#116+[#117-#116]*0.67620]
X6.48059 Y-2.99011 Z[#111+-0.04000]
#116=[#517+[#518-#517]*0.22812]
#117=[#521+[#522-#521]*0.22812]
#111=[#116+[#117-#116]*0.68258]
X6.48304 Y-2.98713 Z[#111+-0.04000]
#116=[#517+[#518-#517]*0.23951]
#117=[#521+[#522-#521]*0.23951]
#111=[#116+[#117-#116]*0.68732]
X6.48486 Y-2.98372 Z[#111+-0.04000]
#116=[#517+[#518-#517]*0.25183]
#117=[#521+[#522-#521]*0.25183]
#111=[#116+[#117-#116]*0.69024]
X6.48598 Y-2.98003 Z[#111+-0.04000]
#116=[#517+[#518-#517]*0.26465]
#117=[#521+[#522-#521]*0.26465]
#111=[#116+[#117-#116]*0.69123]
X6.48636 Y-2.97619 Z[#111+-0.04000]
#116=[#517+[#518-#517]*0.27748]
#117=[#521+[#522-#521]*0.27748]
#111=[#116+[#117-#116]*0.69024]
X6.48598 Y-2.97235 Z[#111+-0.04000]
#116=[#517+[#518-#517]*0.28980]
#117=[#521+[#522-#521]*0.28980]
#111=[#116+[#117-#116]*0.68732]
X6.48486 Y-2.96866 Z[#111+-0.04000]
#116=[#517+[#518-#517]*0.30118]
#117=[#521+[#522-#521]*0.30118]
#111=[#116+[#117-#116]*0.68258]
X6.48304 Y-2.96525 Z[#111+-0.04000]
#116=[#517+[#518-#517]*0.31114]
#117=[#521+[#522-#521]*0.31114]
#111=[#116+[#117-#116]*0.67620]
X6.48059 Y-2.96227 Z[#111+-0.04000]
#116=[#517+[#518-#517]*0.31932]
#117=[#521+[#522-#521]*0.31932]
#111=[#116+[#117-#116]*0.66844]
X6.47761 Y-2.95982 Z[#111+-0.04000]
#116=[#517+[#518-#517]*0.32539]
#117=[#521+[#522-#521]*0.32539]
#111=[#116+[#117-#116]*0.65956]
X6.47420 Y-2.95800 Z[#111+-0.04000]
#116=[#517+[#518-#517]*0.32913]
#117=[#521+[#522-#521]*0.32913]
#111=[#116+[#117-#116]*0.64995]
X6.47051 Y-2.95688 Z[#111+-0.04000]
#116=[#517+[#518-#517]*0.33040]
#117=[#521+[#522-#521]*0.33040]
#111=[#116+[#117-#116]*0.63995]
X6.46667 Y-2.95650 Z[#111+-0.04000]
#116=[#517+[#518-#517]*0.33040]
#117=[#521+[#522-#521]*0.33040]
#111=[#116+[#117-#116]*0.52804]
X6.42370 Y-2.95650 Z[#111+-0.04000]
#116=[#517+[#518-#517]*0.39315]
#117=[#521+[#522-#521]*0.39315]
#111=[#116+[#117-#116]*0.43011]
X6.38610 Y-2.93771 Z[#111+-0.04000]
#116=[#517+[#518-#517]*0.51870]
#117=[#521+[#522-#521]*0.51870]
#111=[#116+[#117-#116]*0.38118]
X6.36731 Y-2.90011 Z[#111+-0.04000]
#111=[#518+[#522-#518]*0.38118]
X6.36731 Y-2.75597 Z[#111+-0.04000]
#116=[#518+[#519-#518]*0.31196]
#117=[#522+[#523-#522]*0.31196]
#111=[#116+[#117-#116]*0.38118]
X6.36731 Y-2.66255 Z[#111+-0.04000]
#116=[#518+[#519-#518]*0.31196]
#117=[#522+[#523-#522]*0.31196]
#111=[#116+[#117-#116]*0.63995]
X6.46667 Y-2.66255 Z[#111+-0.04000]
#116=[#518+[#519-#518]*0.31323]
#117=[#522+[#523-#522]*0.31323]
#111=[#116+[#117-#116]*0.64995]
X6.47051 Y-2.66217 Z[#111+-0.04000]
#116=[#518+[#519-#518]*0.31697]
#117=[#522+[#523-#522]*0.31697]
#111=[#116+[#117-#116]*0.65956]
X6.47420 Y-2.66105 Z[#111+-0.04000]
#116=[#518+[#519-#518]*0.32304]
#117=[#522+[#523-#522]*0.32304]
#111=[#116+[#117-#116]*0.66844]
X6.47761 Y-2.65923 Z[#111+-0.04000]
#116=[#518+[#519-#518]*0.33123]
#117=[#522+[#523-#522]*0.33123]
#111=[#116+[#117-#116]*0.67620]
X6.48059 Y-2.65678 Z[#111+-0.04000]
#116=[#518+[#519-#518]*0.34118]
#117=[#522+[#523-#522]*0.34118]
#111=[#116+[#117-#116]*0.68258]
X6.48304 Y-2.65380 Z[#111+-0.04000]
#116=[#518+[#519-#518]*0.35256]
#117=[#522+[#523-#522]*0.35256]
#111=[#116+[#117-#116]*0.68732]
X6.48486 Y-2.65039 Z[#111+-0.04000]
#116=[#518+[#519-#518]*0.36489]
#117=[#522+[#523-#522]*0.36489]
#111=[#116+[#117-#116]*0.69024]
X6.48598 Y-2.64670 Z[#111+-0.04000]
#116=[#518+[#519-#518]*0.37771]
#117=[#522+[#523-#522]*0.37771]
#111=[#116+[#117-#116]*0.69123]
X6.48636 Y-2.64286 Z[#111+-0.04000]
#116=[#518+[#519-#518]*0.39053]
#117=[#522+[#523-#522]*0.39053]
#111=[#116+[#117-#116]*0.69024]
X6.48598 Y-2.63902 Z[#111+-0.04000]
#116=[#518+[#519-#518]*0.40285]
#117=[#522+[#523-#522]*0.40285]
#111=[#116+[#117-#116]*0.68732]
X6.48486 Y-2.63533 Z[#111+-0.04000]
#116=[#518+[#519-#518]*0.41424]
#117=[#522+[#523-#522]*0.41424]
#111=[#116+[#117-#116]*0.68258]
X6.48304 Y-2.63192 Z[#111+-0.04000]
#116=[#518+[#519-#518]*0.42419]
#117=[#522+[#523-#522]*0.42419]
#111=[#116+[#117-#116]*0.67620]
X6.48059 Y-2.62894 Z[#111+-0.04000]
#116=[#518+[#519-#518]*0.43237]
#117=[#522+[#523-#522]*0.43237]
#111=[#116+[#117-#116]*0.66844]
X6.47761 Y-2.62649 Z[#111+-0.04000]
#116=[#518+[#519-#518]*0.43845]
#117=[#522+[#523-#522]*0.43845]
#111=[#116+[#117-#116]*0.65956]
X6.47420 Y-2.62467 Z[#111+-0.04000]
#116=[#518+[#519-#518]*0.44219]
#117=[#522+[#523-#522]*0.44219]
#111=[#116+[#117-#116]*0.64995]
X6.47051 Y-2.62355 Z[#111+-0.04000]
#116=[#518+[#519-#518]*0.44346]
#117=[#522+[#523-#522]*0.44346]
#111=[#116+[#117-#116]*0.63995]
X6.46667 Y-2.62317 Z[#111+-0.04000]
#116=[#518+[#519-#518]*0.44346]
#117=[#522+[#523-#522]*0.44346]
#111=[#116+[#117-#116]*0.38118]
X6.36731 Y-2.62317 Z[#111+-0.04000]
#116=[#518+[#519-#518]*0.93425]
#117=[#522+[#523-#522]*0.93425]
#111=[#116+[#117-#116]*0.38118]
X6.36731 Y-2.47619 Z[#111+-0.04000]
#116=[#518+[#519-#518]*0.94707]
#117=[#522+[#523-#522]*0.94707]
#111=[#116+[#117-#116]*0.38019]
X6.36693 Y-2.47235 Z[#111+-0.04000]
#116=[#518+[#519-#518]*0.95940]
#117=[#522+[#523-#522]*0.95940]
#111=[#116+[#117-#116]*0.37727]
X6.36581 Y-2.46866 Z[#111+-0.04000]
#116=[#518+[#519-#518]*0.97078]
#117=[#522+[#523-#522]*0.97078]
#111=[#116+[#117-#116]*0.37253]
X6.36399 Y-2.46525 Z[#111+-0.04000]
#116=[#518+[#519-#518]*0.98073]
#117=[#522+[#523-#522]*0.98073]
#111=[#116+[#117-#116]*0.36615]
X6.36154 Y-2.46227 Z[#111+-0.04000]
#116=[#518+[#519-#518]*0.98891]
#117=[#522+[#523-#522]*0.98891]
#111=[#116+[#117-#116]*0.35839]
X6.35856 Y-2.45982 Z[#111+-0.04000]
#116=[#518+[#519-#518]*0.99499]
#117=[#522+[#523-#522]*0.99499]
#111=[#116+[#117-#116]*0.34951]
X6.35515 Y-2.45800 Z[#111+-0.04000]
#116=[#518+[#519-#518]*0.99873]
#117=[#522+[#523-#522]*0.99873]
#111=[#116+[#117-#116]*0.33990]
X6.35146 Y-2.45688 Z[#111+-0.04000]
#111=[#519+[#523-#519]*0.32990]
X6.34762 Y-2.45650 Z[#111+-0.04000]
#116=[#518+[#519-#518]*0.99873]
#117=[#522+[#523-#522]*0.99873]
#111=[#116+[#117-#116]*0.31989]
X6.34378 Y-2.45688 Z[#111+-0.04000]
#116=[#518+[#519-#518]*0.99499]
#117=[#522+[#523-#522]*0.99499]
#111=[#116+[#117-#116]*0.31028]
X6.34009 Y-2.45800 Z[#111+-0.04000]
#116=[#518+[#519-#518]*0.98891]
#117=[#522+[#523-#522]*0.98891]
#111=[#116+[#117-#116]*0.30140]
X6.33668 Y-2.45982 Z[#111+-0.04000]
#116=[#518+[#519-#518]*0.98073]
#117=[#522+[#523-#522]*0.98073]
#111=[#116+[#117-#116]*0.29364]
X6.33370 Y-2.46227 Z[#111+-0.04000]
#116=[#518+[#519-#518]*0.97078]
#117=[#522+[#523-#522]*0.97078]
#111=[#116+[#117-#116]*0.28726]
X6.33125 Y-2.46525 Z[#111+-0.04000]
#116=[#518+[#519-#518]*0.95940]
#117=[#522+[#523-#522]*0.95940]
#111=[#116+[#117-#116]*0.28252]
X6.32943 Y-2.46866 Z[#111+-0.04000]
#116=[#518+[#519-#518]*0.94707]
#117=[#522+[#523-#522]*0.94707]
#111=[#116+[#117-#116]*0.27961]
X6.32831 Y-2.47235 Z[#111+-0.04000]
#116=[#518+[#519-#518]*0.93425]
#117=[#522+[#523-#522]*0.93425]
#111=[#116+[#117-#116]*0.27862]
X6.32793 Y-2.47619 Z[#111+-0.04000]
#116=[#518+[#519-#518]*0.44346]
#117=[#522+[#523-#522]*0.44346]
#111=[#116+[#117-#116]*0.27862]
X6.32793 Y-2.62317 Z[#111+-0.04000]
#116=[#518+[#519-#518]*0.44346]
#117=[#522+[#523-#522]*0.44346]
#111=[#116+[#117-#116]*0.14387]
X6.27619 Y-2.62317 Z[#111+-0.04000]
#116=[#518+[#519-#518]*0.44219]
#117=[#522+[#523-#522]*0.44219]
#111=[#116+[#117-#116]*0.13386]
X6.27235 Y-2.62355 Z[#111+-0.04000]
#116=[#518+[#519-#518]*0.43845]
#117=[#522+[#523-#522]*0.43845]
#111=[#116+[#117-#116]*0.12425]
X6.26866 Y-2.62467 Z[#111+-0.04000]
#116=[#518+[#519-#518]*0.43237]
#117=[#522+[#523-#522]*0.43237]
#111=[#116+[#117-#116]*0.11537]
X6.26525 Y-2.62649 Z[#111+-0.04000]
#116=[#518+[#519-#518]*0.42419]
#117=[#522+[#523-#522]*0.42419]
#111=[#116+[#117-#116]*0.10761]
X6.26227 Y-2.62894 Z[#111+-0.04000]
#116=[#518+[#519-#518]*0.41424]
#117=[#522+[#523-#522]*0.41424]
#111=[#116+[#117-#116]*0.10123]
X6.25982 Y-2.63192 Z[#111+-0.04000]
#116=[#518+[#519-#518]*0.40285]
#117=[#522+[#523-#522]*0.40285]
#111=[#116+[#117-#116]*0.09649]
X6.25800 Y-2.63533 Z[#111+-0.04000]
#116=[#518+[#519-#518]*0.39053]
#117=[#522+[#523-#522]*0.39053]
#111=[#116+[#117-#116]*0.09358]
X6.25688 Y-2.63902 Z[#111+-0.04000]
#116=[#518+[#519-#518]*0.37771]
#117=[#522+[#523-#522]*0.37771]
#111=[#116+[#117-#116]*0.09259]
X6.25650 Y-2.64286 Z[#111+-0.04000]
G04 P0 ( dwell for no time -- G64 should not smooth over this point )
G00 Z0.08000 ( retract )

G00 X6.49508 Y-3.30000 ( rapid move to begin. )
G01 F180.00000
( Mill infeed pass 1/1 )
#116=[#516+[#517-#516]*0.18339]
#117=[#520+[#521-#520]*0.18339]
#111=[#116+[#117-#116]*0.71394]
G01 Z[-0.04000+#111]
G04 P0 ( dwell for no time -- G64 should not smooth over this point )
G01 F360.00000
#116=[#516+[#517-#516]*0.17711]
#117=[#520+[#521-#520]*0.17711]
#111=[#116+[#117-#116]*0.71490]
X6.49545 Y-3.30188 Z[#111+-0.04000]
#116=[#516+[#517-#516]*0.17177]
#117=[#520+[#521-#520]*0.17177]
#111=[#116+[#117-#116]*0.71769]
X6.49652 Y-3.30348 Z[#111+-0.04000]
#116=[#516+[#517-#516]*0.16820]
#117=[#520+[#521-#520]*0.16820]
#111=[#116+[#117-#116]*0.72185]
X6.49812 Y-3.30455 Z[#111+-0.04000]
#116=[#516+[#517-#516]*0.16726]
#117=[#520+[#521-#520]*0.16726]
#111=[#116+[#117-#116]*0.72425]
X6.49904 Y-3.30483 Z[#111+-0.04000]
#116=[#516+[#517-#516]*0.16696]
#117=[#520+[#521-#520]*0.16696]
#111=[#116+[#117-#116]*0.84415]
X6.54508 Y-3.30492 Z[#111+-0.04000]
#116=[#516+[#517-#516]*0.01322]
#117=[#520+[#521-#520]*0.01322]
#111=[#116+[#117-#116]*0.84439]
X6.54517 Y-3.35096 Z[#111+-0.04000]
#116=[#516+[#517-#516]*0.01015]
#117=[#520+[#521-#520]*0.01015]
#111=[#116+[#117-#116]*0.84512]
X6.54545 Y-3.35188 Z[#111+-0.04000]
#116=[#516+[#517-#516]*0.00481]
#117=[#520+[#521-#520]*0.00481]
#111=[#116+[#117-#116]*0.84790]
X6.54652 Y-3.35348 Z[#111+-0.04000]
#116=[#516+[#517-#516]*0.00124]
#117=[#520+[#521-#520]*0.00124]
#111=[#116+[#117-#116]*0.85207]
X6.54812 Y-3.35455 Z[#111+-0.04000]
#111=[#516+[#520-#516]*0.85697]
X6.55000 Y-3.35492 Z[#111+-0.04000]
#116=[#516+[#517-#516]*0.00124]
#117=[#520+[#521-#520]*0.00124]
#111=[#116+[#117-#116]*0.86186]
X6.55188 Y-3.35455 Z[#111+-0.04000]
#116=[#516+[#517-#516]*0.00481]
#117=[#520+[#521-#520]*0.00481]
#111=[#116+[#117-#116]*0.86603]
X6.55348 Y-3.35348 Z[#111+-0.04000]
#116=[#516+[#517-#516]*0.01015]
#117=[#520+[#521-#520]*0.01015]
#111=[#116+[#117-#116]*0.86882]
X6.55455 Y-3.35188 Z[#111+-0.04000]
#116=[#516+[#517-#516]*0.01322]
#117=[#520+[#521-#520]*0.01322]
#111=[#116+[#117-#116]*0.86955]
X6.55483 Y-3.35096 Z[#111+-0.04000]
#116=[#516+[#517-#516]*0.16696]
#117=[#520+[#521-#520]*0.16696]
#111=[#116+[#117-#116]*0.86978]
X6.55492 Y-3.30492 Z[#111+-0.04000]
#116=[#516+[#517-#516]*0.16726]
#117=[#520+[#521-#520]*0.16726]
#111=[#116+[#117-#116]*0.98969]
X6.60096 Y-3.30483 Z[#111+-0.04000]
#116=[#516+[#517-#516]*0.16820]
#117=[#520+[#521-#520]*0.16820]
#111=[#116+[#117-#116]*0.99208]
X6.60188 Y-3.30455 Z[#111+-0.04000]
#116=[#516+[#517-#516]*0.17177]
#117=[#520+[#521-#520]*0.17177]
#111=[#116+[#117-#116]*0.99625]
X6.60348 Y-3.30348 Z[#111+-0.04000]
#116=[#516+[#517-#516]*0.17711]
#117=[#520+[#521-#520]*0.17711]
#111=[#116+[#117-#116]*0.99904]
X6.60455 Y-3.30188 Z[#111+-0.04000]
#111=[#520+[#521-#520]*0.18339]
X6.60492 Y-3.30000 Z[#111+-0.04000]
#116=[#516+[#517-#516]*0.18967]
#117=[#520+[#521-#520]*0.18967]
#111=[#116+[#117-#116]*0.99904]
X6.60455 Y-3.29812 Z[#111+-0.04000]
#116=[#516+[#517-#516]*0.19501]
#117=[#520+[#521-#520]*0.19501]
#111=[#116+[#117-#116]*0.99625]
X6.60348 Y-3.29652 Z[#111+-0.04000]
#116=[#516+[#517-#516]*0.19858]
#117=[#520+[#521-#520]*0.19858]
#111=[#116+[#117-#116]*0.99208]
X6.60188 Y-3.29545 Z[#111+-0.04000]
#116=[#516+[#517-#516]*0.19952]
#117=[#520+[#521-#520]*0.19952]
#111=[#116+[#117-#116]*0.98969]
X6.60096 Y-3.29517 Z[#111+-0.04000]
#116=[#516+[#517-#516]*0.19982]
#117=[#520+[#521-#520]*0.19982]
#111=[#116+[#117-#116]*0.86978]
X6.55492 Y-3.29508 Z[#111+-0.04000]
#116=[#516+[#517-#516]*0.35355]
#117=[#520+[#521-#520]*0.35355]
#111=[#116+[#117-#116]*0.86955]
X6.55483 Y-3.24904 Z[#111+-0.04000]
#116=[#516+[#517-#516]*0.35663]
#117=[#520+[#521-#520]*0.35663]
#111=[#116+[#117-#116]*0.86882]
X6.55455 Y-3.24812 Z[#111+-0.04000]
#116=[#516+[#517-#516]*0.36197]
#117=[#520+[#521-#520]*0.36197]
#111=[#116+[#117-#116]*0.86603]
X6.55348 Y-3.24652 Z[#111+-0.04000]
#116=[#516+[#517-#516]*0.36554]
#117=[#520+[#521-#520]*0.36554]
#111=[#116+[#117-#116]*0.86186]
X6.55188 Y-3.24545 Z[#111+-0.04000]
#116=[#516+[#517-#516]*0.36678]
#117=[#520+[#521-#520]*0.36678]
#111=[#116+[#117-#116]*0.85697]
X6.55000 Y-3.24508 Z[#111+-0.04000]
#116=[#516+[#517-#516]*0.36554]
#117=[#520+[#521-#520]*0.36554]
#111=[#116+[#117-#116]*0.85207]
X6.54812 Y-3.24545 Z[#111+-0.04000]
#116=[#516+[#517-#516]*0.36197]
#117=[#520+[#521-#520]*0.36197]
#111=[#116+[#117-#116]*0.84790]
X6.54652 Y-3.24652 Z[#111+-0.04000]
#116=[#516+[#517-#516]*0.35663]
#117=[#520+[#521-#520]*0.35663]
#111=[#116+[#117-#116]*0.84512]
X6.54545 Y-3.24812 Z[#111+-0.04000]
#116=[#516+[#517-#516]*0.35355]
#117=[#520+[#521-#520]*0.35355]
#111=[#116+[#117-#116]*0.84439]
X6.54517 Y-3.24904 Z[#111+-0.04000]
#116=[#516+[#517-#516]*0.19982]
#117=[#520+[#521-#520]*0.19982]
#111=[#116+[#117-#116]*0.84415]
X6.54508 Y-3.29508 Z[#111+-0.04000]
#116=[#516+[#517-#516]*0.19952]
#117=[#520+[#521-#520]*0.19952]
#111=[#116+[#117-#116]*0.72425]
X6.49904 Y-3.29517 Z[#111+-0.04000]
#116=[#516+[#517-#516]*0.19858]
#117=[#520+[#521-#520]*0.19858]
#111=[#116+[#117-#116]*0.72185]
X6.49812 Y-3.29545 Z[#111+-0.04000]
#116=[#516+[#517-#516]*0.19501]
#117=[#520+[#521-#520]*0.19501]
#111=[#116+[#117-#116]*0.71769]
X6.49652 Y-3.29652 Z[#111+-0.04000]
#116=[#516+[#517-#516]*0.18967]
#117=[#520+[#521-#520]*0.18967]
#111=[#116+[#117-#116]*0.71490]
X6.49545 Y-3.29812 Z[#111+-0.04000]
#116=[#516+[#517-#516]*0.18339]
#117=[#520+[#521-#520]*0.18339]
#111=[#116+[#117-#116]*0.71394]
X6.49508 Y-3.30000 Z[#111+-0.04000]

G04 P0 ( dwell for no time -- G64 should not smooth over this point )
G00 Z1.000000 ( retract )

M5 ( Spindle off. )
G04 P1.000000
M9 ( Coolant off. )
M2 ( Program end. )

