( pcb2gcode 2.5.0 )
( Gcode for custom )

G94 ( Inches per minute feed rate. )
G20 ( Units == INCHES. )

G90 ( Absolute coordinates. )
G00 S12000 ( RPM spindle speed. )
G64 P0.00040 ( set maximum deviation from commanded toolpath )
G01 F360.00000 ( Feedrate. )

#118 = 0
#119 = 0

(MSG, Attach the probe tool)
M0 ( Temporary machine stop. )
G0 Z0.080 ( Move Z to safe height )
G0 X4.68508 Y-3.35492 ( Move XY to start point )
G0 Z0.080 ( Move Z to probe height )
G38.2 Z-0.1 F2.362205 ( Z-probe )
#500 = 0 ( Probe point [0, 0] is our reference )
G92 Z0 ( Set the current Z as zero-value )

( We now start the real probing: move the Z axis to the probing height, move to )
( the probing XY position, probe it and save the result, parameter #2002, )
( in a numbered parameter; we will make 6 probes on the X-axis and )
( 4 probes on the Y-axis, for a grand total of 24 probes )

G0 Z0.080
X4.68508 Y-3.05545
G38.2 Z-0.1 F2.362205
#501=#2002
G0 Z0.080
X4.68508 Y-2.75598
G38.2 Z-0.1 F2.362205
#502=#2002
G0 Z0.080
X4.68508 Y-2.45650
G38.2 Z-0.1 F2.362205
#503=#2002
G0 Z0.080
X5.06904 Y-2.45650
G38.2 Z-0.1 F2.362205
#507=#2002
G0 Z0.080
X5.06904 Y-2.75598
G38.2 Z-0.1 F2.362205
#506=#2002
G0 Z0.080
X5.06904 Y-3.05545
G38.2 Z-0.1 F2.362205
#505=#2002
G0 Z0.080
X5.06904 Y-3.35492
G38.2 Z-0.1 F2.362205
#504=#2002
G0 Z0.080
X5.45301 Y-3.35492
G38.2 Z-0.1 F2.362205
#508=#2002
G0 Z0.080
X5.45301 Y-3.05545
G38.2 Z-0.1 F2.362205
#509=#2002
G0 Z0.080
X5.45301 Y-2.75598
G38.2 Z-0.1 F2.362205
#510=#2002
G0 Z0.080
X5.45301 Y-2.45650
G38.2 Z-0.1 F2.362205
#511=#2002
G0 Z0.080
X5.83698 Y-2.45650
G38.2 Z-0.1 F2.362205
#515=#2002
G0 Z0.080
X5.83698 Y-2.75598
G38.2 Z-0.1 F2.362205
#514=#2002
G0 Z0.080
X5.83698 Y-3.05545
G38.2 Z-0.1 F2.362205
#513=#2002
G0 Z0.080
X5.83698 Y-3.35492
G38.2 Z-0.1 F2.362205
#512=#2002
G0 Z0.080
X6.22095 Y-3.35492
G38.2 Z-0.1 F2.362205
#516=#2002
G0 Z0.080
X6.22095 Y-3.05545
G38.2 Z-0.1 F2.362205
#517=#2002
G0 Z0.080
X6.22095 Y-2.75598
G38.2 Z-0.1 F2.362205
#518=#2002
G0 Z0.080
X6.22095 Y-2.45650
G38.2 Z-0.1 F2.362205
#519=#2002
G0 Z0.080
X6.60492 Y-2.45650
G38.2 Z-0.1 F2.362205
#523=#2002
G0 Z0.080
X6.60492 Y-2.75598
G38.2 Z-0.1 F2.362205
#522=#2002
G0 Z0.080
X6.60492 Y-3.05545
G38.2 Z-0.1 F2.362205
#521=#2002
G0 Z0.080
X6.60492 Y-3.35492
G38.2 Z-0.1 F2.362205
#520=#2002

G0 Z0.080 ( Move Z to safe height )
( Probing has ended, each Z-coordinate will be corrected with a bilinear interpolation )
(MSG, Detach the probe tool)
M0 ( Temporary machine stop. )


G00 Z1.00000 (Retract to tool change height)
T1
M5      (Spindle stop.)
G04 P1.00000 (Wait for spindle to stop)
(MSG, Change tool bit to mill diameter 0.00000in)
M6      (Tool change.)
M0      (Temporary machine stop.)
M3 ( Spindle on clockwise. )
G04 P1.00000 (Wait for spindle to get up to speed)
G04 P0 ( dwell for no time -- G64 should not smooth over this point )
G00 Z0.08000 ( retract )

G00 X4.68508 Y-2.97619 ( rapid move to begin. )
G01 F180.00000
( Mill infeed pass 1/1 )
#111=[#501+[#502-#501]*0.26466]
G01 Z[-0.04000+#111]
G04 P0 ( dwell for no time -- G64 should not smooth over this point )
G01 F360.00000
#111=[#501+[#502-#501]*1.00000]
X4.68508 Y-2.75598 Z[#111+-0.04000]
#111=[#502+[#503-#502]*0.93426]
X4.68508 Y-2.47619 Z[#111+-0.04000]
#116=[#502+[#503-#502]*0.94709]
#117=[#506+[#507-#506]*0.94709]
#111=[#116+[#117-#116]*0.00099]
X4.68545 Y-2.47235 Z[#111+-0.04000]
#116=[#502+[#503-#502]*0.95942]
#117=[#506+[#507-#506]*0.95942]
#111=[#116+[#117-#116]*0.00390]
X4.68657 Y-2.46866 Z[#111+-0.04000]
#116=[#502+[#503-#502]*0.97079]
#117=[#506+[#507-#506]*0.97079]
#111=[#116+[#117-#116]*0.00864]
X4.68839 Y-2.46525 Z[#111+-0.04000]
#116=[#502+[#503-#502]*0.98075]
#117=[#506+[#507-#506]*0.98075]
#111=[#116+[#117-#116]*0.01502]
X4.69084 Y-2.46227 Z[#111+-0.04000]
#116=[#502+[#503-#502]*0.98892]
#117=[#506+[#507-#506]*0.98892]
#111=[#116+[#117-#116]*0.02279]
X4.69382 Y-2.45982 Z[#111+-0.04000]
#116=[#502+[#503-#502]*0.99499]
#117=[#506+[#507-#506]*0.99499]
#111=[#116+[#117-#116]*0.03165]
X4.69723 Y-2.45800 Z[#111+-0.04000]
#116=[#502+[#503-#502]*0.99873]
#117=[#506+[#507-#506]*0.99873]
#111=[#116+[#117-#116]*0.04127]
X4.70092 Y-2.45688 Z[#111+-0.04000]
#111=[#503+[#507-#503]*0.05127]
X4.70476 Y-2.45650 Z[#111+-0.04000]
#111=[#503+[#507-#503]*0.67136]
X4.94286 Y-2.45650 Z[#111+-0.04000]
#116=[#502+[#503-#502]*0.99873]
#117=[#506+[#507-#506]*0.99873]
#111=[#116+[#117-#116]*0.68136]
X4.94670 Y-2.45688 Z[#111+-0.04000]
#116=[#502+[#503-#502]*0.99499]
#117=[#506+[#507-#506]*0.99499]
#111=[#116+[#117-#116]*0.69098]
X4.95039 Y-2.45800 Z[#111+-0.04000]
#116=[#502+[#503-#502]*0.98892]
#117=[#506+[#507-#506]*0.98892]
#111=[#116+[#117-#116]*0.69984]
X4.95379 Y-2.45982 Z[#111+-0.04000]
#116=[#502+[#503-#502]*0.98075]
#117=[#506+[#507-#506]*0.98075]
#111=[#116+[#117-#116]*0.70761]
X4.95678 Y-2.46227 Z[#111+-0.04000]
#116=[#502+[#503-#502]*0.97079]
#117=[#506+[#507-#506]*0.97079]
#111=[#116+[#117-#116]*0.71399]
X4.95922 Y-2.46525 Z[#111+-0.04000]
#116=[#502+[#503-#502]*0.95942]
#117=[#506+[#507-#506]*0.95942]
#111=[#116+[#117-#116]*0.71872]
X4.96104 Y-2.46866 Z[#111+-0.04000]
#116=[#502+[#503-#502]*0.94709]
#117=[#506+[#507-#506]*0.94709]
#111=[#116+[#117-#116]*0.72164]
X4.96216 Y-2.47235 Z[#111+-0.04000]
#116=[#502+[#503-#502]*0.93426]
#117=[#506+[#507-#506]*0.93426]
#111=[#116+[#117-#116]*0.72263]
X4.96254 Y-2.47619 Z[#111+-0.04000]
#116=[#502+[#503-#502]*0.92144]
#117=[#506+[#507-#506]*0.92144]
#111=[#116+[#117-#116]*0.72164]
X4.96216 Y-2.48003 Z[#111+-0.04000]
#116=[#502+[#503-#502]*0.90911]
#117=[#506+[#507-#506]*0.90911]
#111=[#116+[#117-#116]*0.71872]
X4.96104 Y-2.48372 Z[#111+-0.04000]
#116=[#502+[#503-#502]*0.89775]
#117=[#506+[#507-#506]*0.89775]
#111=[#116+[#117-#116]*0.71399]
X4.95922 Y-2.48713 Z[#111+-0.04000]
#116=[#502+[#503-#502]*0.88779]
#117=[#506+[#507-#506]*0.88779]
#111=[#116+[#117-#116]*0.70761]
X4.95678 Y-2.49011 Z[#111+-0.04000]
#116=[#502+[#503-#502]*0.87961]
#117=[#506+[#507-#506]*0.87961]
#111=[#116+[#117-#116]*0.69984]
X4.95379 Y-2.49256 Z[#111+-0.04000]
#116=[#502+[#503-#502]*0.87354]
#117=[#506+[#507-#506]*0.87354]
#111=[#116+[#117-#116]*0.69098]
X4.95039 Y-2.49438 Z[#111+-0.04000]
#116=[#502+[#503-#502]*0.86980]
#117=[#506+[#507-#506]*0.86980]
#111=[#116+[#117-#116]*0.68136]
X4.94670 Y-2.49550 Z[#111+-0.04000]
#116=[#502+[#503-#502]*0.86853]
#117=[#506+[#507-#506]*0.86853]
#111=[#116+[#117-#116]*0.67136]
X4.94286 Y-2.49587 Z[#111+-0.04000]
#116=[#502+[#503-#502]*0.86853]
#117=[#506+[#507-#506]*0.86853]
#111=[#116+[#117-#116]*0.10254]
X4.72445 Y-2.49587 Z[#111+-0.04000]
#116=[#502+[#503-#502]*0.20495]
#117=[#506+[#507-#506]*0.20495]
#111=[#116+[#117-#116]*0.10254]
X4.72445 Y-2.69460 Z[#111+-0.04000]
#116=[#502+[#503-#502]*0.20495]
#117=[#506+[#507-#506]*0.20495]
#111=[#116+[#117-#116]*0.48533]
X4.87143 Y-2.69460 Z[#111+-0.04000]
#116=[#502+[#503-#502]*0.20369]
#117=[#506+[#507-#506]*0.20369]
#111=[#116+[#117-#116]*0.49533]
X4.87527 Y-2.69498 Z[#111+-0.04000]
#116=[#502+[#503-#502]*0.19995]
#117=[#506+[#507-#506]*0.19995]
#111=[#116+[#117-#116]*0.50495]
X4.87896 Y-2.69610 Z[#111+-0.04000]
#116=[#502+[#503-#502]*0.19387]
#117=[#506+[#507-#506]*0.19387]
#111=[#116+[#117-#116]*0.51381]
X4.88236 Y-2.69792 Z[#111+-0.04000]
#116=[#502+[#503-#502]*0.18570]
#117=[#506+[#507-#506]*0.18570]
#111=[#116+[#117-#116]*0.52158]
X4.88535 Y-2.70037 Z[#111+-0.04000]
#116=[#502+[#503-#502]*0.17574]
#117=[#506+[#507-#506]*0.17574]
#111=[#116+[#117-#116]*0.52796]
X4.88779 Y-2.70335 Z[#111+-0.04000]
#116=[#502+[#503-#502]*0.16437]
#117=[#506+[#507-#506]*0.16437]
#111=[#116+[#117-#116]*0.53270]
X4.88961 Y-2.70675 Z[#111+-0.04000]
#116=[#502+[#503-#502]*0.15204]
#117=[#506+[#507-#506]*0.15204]
#111=[#116+[#117-#116]*0.53561]
X4.89073 Y-2.71044 Z[#111+-0.04000]
#116=[#502+[#503-#502]*0.13922]
#117=[#506+[#507-#506]*0.13922]
#111=[#116+[#117-#116]*0.53660]
X4.89111 Y-2.71428 Z[#111+-0.04000]
#116=[#502+[#503-#502]*0.12639]
#117=[#506+[#507-#506]*0.12639]
#111=[#116+[#117-#116]*0.53561]
X4.89073 Y-2.71813 Z[#111+-0.04000]
#116=[#502+[#503-#502]*0.11406]
#117=[#506+[#507-#506]*0.11406]
#111=[#116+[#117-#116]*0.53270]
X4.88961 Y-2.72182 Z[#111+-0.04000]
#116=[#502+[#503-#502]*0.10270]
#117=[#506+[#507-#506]*0.10270]
#111=[#116+[#117-#116]*0.52796]
X4.88779 Y-2.72522 Z[#111+-0.04000]
#116=[#502+[#503-#502]*0.09274]
#117=[#506+[#507-#506]*0.09274]
#111=[#116+[#117-#116]*0.52158]
X4.88535 Y-2.72820 Z[#111+-0.04000]
#116=[#502+[#503-#502]*0.08456]
#117=[#506+[#507-#506]*0.08456]
#111=[#116+[#117-#116]*0.51381]
X4.88236 Y-2.73065 Z[#111+-0.04000]
#116=[#502+[#503-#502]*0.07849]
#117=[#506+[#507-#506]*0.07849]
#111=[#116+[#117-#116]*0.50495]
X4.87896 Y-2.73247 Z[#111+-0.04000]
#116=[#502+[#503-#502]*0.07475]
#117=[#506+[#507-#506]*0.07475]
#111=[#116+[#117-#116]*0.49533]
X4.87527 Y-2.73359 Z[#111+-0.04000]
#116=[#502+[#503-#502]*0.07348]
#117=[#506+[#507-#506]*0.07348]
#111=[#116+[#117-#116]*0.48533]
X4.87143 Y-2.73397 Z[#111+-0.04000]
#116=[#502+[#503-#502]*0.07348]
#117=[#506+[#507-#506]*0.07348]
#111=[#116+[#117-#116]*0.10254]
X4.72445 Y-2.73397 Z[#111+-0.04000]
#116=[#501+[#502-#501]*1.00000]
#117=[#505+[#506-#505]*1.00000]
#111=[#116+[#117-#116]*0.10254]
X4.72445 Y-2.75598 Z[#111+-0.04000]
#116=[#501+[#502-#501]*0.26466]
#117=[#505+[#506-#505]*0.26466]
#111=[#116+[#117-#116]*0.10254]
X4.72445 Y-2.97619 Z[#111+-0.04000]
#116=[#501+[#502-#501]*0.25184]
#117=[#505+[#506-#505]*0.25184]
#111=[#116+[#117-#116]*0.10155]
X4.72407 Y-2.98003 Z[#111+-0.04000]
#116=[#501+[#502-#501]*0.23951]
#117=[#505+[#506-#505]*0.23951]
#111=[#116+[#117-#116]*0.09863]
X4.72295 Y-2.98372 Z[#111+-0.04000]
#116=[#501+[#502-#501]*0.22814]
#117=[#505+[#506-#505]*0.22814]
#111=[#116+[#117-#116]*0.09390]
X4.72113 Y-2.98713 Z[#111+-0.04000]
#116=[#501+[#502-#501]*0.21818]
#117=[#505+[#506-#505]*0.21818]
#111=[#116+[#117-#116]*0.08752]
X4.71868 Y-2.99011 Z[#111+-0.04000]
#116=[#501+[#502-#501]*0.21001]
#117=[#505+[#506-#505]*0.21001]
#111=[#116+[#117-#116]*0.07975]
X4.71570 Y-2.99256 Z[#111+-0.04000]
#116=[#501+[#502-#501]*0.20393]
#117=[#505+[#506-#505]*0.20393]
#111=[#116+[#117-#116]*0.07089]
X4.71229 Y-2.99438 Z[#111+-0.04000]
#116=[#501+[#502-#501]*0.20019]
#117=[#505+[#506-#505]*0.20019]
#111=[#116+[#117-#116]*0.06127]
X4.70860 Y-2.99550 Z[#111+-0.04000]
#116=[#501+[#502-#501]*0.19893]
#117=[#505+[#506-#505]*0.19893]
#111=[#116+[#117-#116]*0.05127]
X4.70476 Y-2.99587 Z[#111+-0.04000]
#116=[#501+[#502-#501]*0.20019]
#117=[#505+[#506-#505]*0.20019]
#111=[#116+[#117-#116]*0.04127]
X4.70092 Y-2.99550 Z[#111+-0.04000]
#116=[#501+[#502-#501]*0.20393]
#117=[#505+[#506-#505]*0.20393]
#111=[#116+[#117-#116]*0.03165]
X4.69723 Y-2.99438 Z[#111+-0.04000]
#116=[#501+[#502-#501]*0.21001]
#117=[#505+[#506-#505]*0.21001]
#111=[#116+[#117-#116]*0.02279]
X4.69382 Y-2.99256 Z[#111+-0.04000]
#116=[#501+[#502-#501]*0.21818]
#117=[#505+[#506-#505]*0.21818]
#111=[#116+[#117-#116]*0.01502]
X4.69084 Y-2.99011 Z[#111+-0.04000]
#116=[#501+[#502-#501]*0.22814]
#117=[#505+[#506-#505]*0.22814]
#111=[#116+[#117-#116]*0.00864]
X4.68839 Y-2.98713 Z[#111+-0.04000]
#116=[#501+[#502-#501]*0.23951]
#117=[#505+[#506-#505]*0.23951]
#111=[#116+[#117-#116]*0.00390]
X4.68657 Y-2.98372 Z[#111+-0.04000]
#116=[#501+[#502-#501]*0.25184]
#117=[#505+[#506-#505]*0.25184]
#111=[#116+[#117-#116]*0.00099]
X4.68545 Y-2.98003 Z[#111+-0.04000]
#111=[#501+[#502-#501]*0.26466]
X4.68508 Y-2.97619 Z[#111+-0.04000]
G04 P0 ( dwell for no time -- G64 should not smooth over this point )
G00 Z0.08000 ( retract )

G00 X5.11365 Y-2.97619 ( rapid move to begin. )
G01 F180.00000
( Mill infeed pass 1/1 )
#116=[#505+[#506-#505]*0.26466]
#117=[#509+[#510-#509]*0.26466]
#111=[#116+[#117-#116]*0.11616]
G01 Z[-0.04000+#111]
G04 P0 ( dwell for no time -- G64 should not smooth over this point )
G01 F360.00000
#116=[#505+[#506-#505]*1.00000]
#117=[#509+[#510-#509]*1.00000]
#111=[#116+[#117-#116]*0.11616]
X5.11365 Y-2.75598 Z[#111+-0.04000]
#116=[#506+[#507-#506]*0.37773]
#117=[#510+[#511-#510]*0.37773]
#111=[#116+[#117-#116]*0.11616]
X5.11365 Y-2.64286 Z[#111+-0.04000]
#116=[#506+[#507-#506]*0.39055]
#117=[#510+[#511-#510]*0.39055]
#111=[#116+[#117-#116]*0.11715]
X5.11403 Y-2.63902 Z[#111+-0.04000]
#116=[#506+[#507-#506]*0.40289]
#117=[#510+[#511-#510]*0.40289]
#111=[#116+[#117-#116]*0.12007]
X5.11515 Y-2.63532 Z[#111+-0.04000]
#116=[#506+[#507-#506]*0.41425]
#117=[#510+[#511-#510]*0.41425]
#111=[#116+[#117-#116]*0.12480]
X5.11697 Y-2.63192 Z[#111+-0.04000]
#116=[#506+[#507-#506]*0.42421]
#117=[#510+[#511-#510]*0.42421]
#111=[#116+[#117-#116]*0.13118]
X5.11941 Y-2.62894 Z[#111+-0.04000]
#116=[#506+[#507-#506]*0.43238]
#117=[#510+[#511-#510]*0.43238]
#111=[#116+[#117-#116]*0.13895]
X5.12240 Y-2.62649 Z[#111+-0.04000]
#116=[#506+[#507-#506]*0.43846]
#117=[#510+[#511-#510]*0.43846]
#111=[#116+[#117-#116]*0.14781]
X5.12580 Y-2.62467 Z[#111+-0.04000]
#116=[#506+[#507-#506]*0.44220]
#117=[#510+[#511-#510]*0.44220]
#111=[#116+[#117-#116]*0.15743]
X5.12949 Y-2.62355 Z[#111+-0.04000]
#116=[#506+[#507-#506]*0.44346]
#117=[#510+[#511-#510]*0.44346]
#111=[#116+[#117-#116]*0.16743]
X5.13333 Y-2.62317 Z[#111+-0.04000]
#116=[#506+[#507-#506]*0.44220]
#117=[#510+[#511-#510]*0.44220]
#111=[#116+[#117-#116]*0.17743]
X5.13717 Y-2.62355 Z[#111+-0.04000]
#116=[#506+[#507-#506]*0.43846]
#117=[#510+[#511-#510]*0.43846]
#111=[#116+[#117-#116]*0.18705]
X5.14087 Y-2.62467 Z[#111+-0.04000]
#116=[#506+[#507-#506]*0.43238]
#117=[#510+[#511-#510]*0.43238]
#111=[#116+[#117-#116]*0.19591]
X5.14427 Y-2.62649 Z[#111+-0.04000]
#116=[#506+[#507-#506]*0.42421]
#117=[#510+[#511-#510]*0.42421]
#111=[#116+[#117-#116]*0.20368]
X5.14725 Y-2.62894 Z[#111+-0.04000]
#116=[#506+[#507-#506]*0.41425]
#117=[#510+[#511-#510]*0.41425]
#111=[#116+[#117-#116]*0.21006]
X5.14970 Y-2.63192 Z[#111+-0.04000]
#116=[#506+[#507-#506]*0.40289]
#117=[#510+[#511-#510]*0.40289]
#111=[#116+[#117-#116]*0.21480]
X5.15152 Y-2.63532 Z[#111+-0.04000]
#116=[#506+[#507-#506]*0.39055]
#117=[#510+[#511-#510]*0.39055]
#111=[#116+[#117-#116]*0.21771]
X5.15264 Y-2.63902 Z[#111+-0.04000]
#116=[#506+[#507-#506]*0.37773]
#117=[#510+[#511-#510]*0.37773]
#111=[#116+[#117-#116]*0.21870]
X5.15302 Y-2.64286 Z[#111+-0.04000]
#116=[#506+[#507-#506]*0.29791]
#117=[#510+[#511-#510]*0.29791]
#111=[#116+[#117-#116]*0.21870]
X5.15302 Y-2.66676 Z[#111+-0.04000]
#116=[#506+[#507-#506]*0.34471]
#117=[#510+[#511-#510]*0.34471]
#111=[#116+[#117-#116]*0.25520]
X5.16703 Y-2.65275 Z[#111+-0.04000]
#116=[#506+[#507-#506]*0.35155]
#117=[#510+[#511-#510]*0.35155]
#111=[#116+[#117-#116]*0.26147]
X5.16944 Y-2.65070 Z[#111+-0.04000]
#116=[#506+[#507-#506]*0.35702]
#117=[#510+[#511-#510]*0.35702]
#111=[#116+[#117-#116]*0.26852]
X5.17215 Y-2.64906 Z[#111+-0.04000]
#116=[#506+[#507-#506]*0.43652]
#117=[#510+[#511-#510]*0.43652]
#111=[#116+[#117-#116]*0.39254]
X5.21977 Y-2.62525 Z[#111+-0.04000]
#116=[#506+[#507-#506]*0.44170]
#117=[#510+[#511-#510]*0.44170]
#111=[#116+[#117-#116]*0.40369]
X5.22405 Y-2.62370 Z[#111+-0.04000]
#116=[#506+[#507-#506]*0.44346]
#117=[#510+[#511-#510]*0.44346]
#111=[#116+[#117-#116]*0.41547]
X5.22857 Y-2.62317 Z[#111+-0.04000]
#116=[#506+[#507-#506]*0.44346]
#117=[#510+[#511-#510]*0.44346]
#111=[#116+[#117-#116]*0.53949]
X5.27619 Y-2.62317 Z[#111+-0.04000]
#116=[#506+[#507-#506]*0.44220]
#117=[#510+[#511-#510]*0.44220]
#111=[#116+[#117-#116]*0.54949]
X5.28003 Y-2.62355 Z[#111+-0.04000]
#116=[#506+[#507-#506]*0.43846]
#117=[#510+[#511-#510]*0.43846]
#111=[#116+[#117-#116]*0.55910]
X5.28372 Y-2.62467 Z[#111+-0.04000]
#116=[#506+[#507-#506]*0.43238]
#117=[#510+[#511-#510]*0.43238]
#111=[#116+[#117-#116]*0.56797]
X5.28713 Y-2.62649 Z[#111+-0.04000]
#116=[#506+[#507-#506]*0.42421]
#117=[#510+[#511-#510]*0.42421]
#111=[#116+[#117-#116]*0.57574]
X5.29011 Y-2.62894 Z[#111+-0.04000]
#116=[#506+[#507-#506]*0.41425]
#117=[#510+[#511-#510]*0.41425]
#111=[#116+[#117-#116]*0.58211]
X5.29256 Y-2.63192 Z[#111+-0.04000]
#116=[#506+[#507-#506]*0.40289]
#117=[#510+[#511-#510]*0.40289]
#111=[#116+[#117-#116]*0.58685]
X5.29438 Y-2.63532 Z[#111+-0.04000]
#116=[#506+[#507-#506]*0.39055]
#117=[#510+[#511-#510]*0.39055]
#111=[#116+[#117-#116]*0.58977]
X5.29550 Y-2.63902 Z[#111+-0.04000]
#116=[#506+[#507-#506]*0.37773]
#117=[#510+[#511-#510]*0.37773]
#111=[#116+[#117-#116]*0.59075]
X5.29587 Y-2.64286 Z[#111+-0.04000]
#116=[#506+[#507-#506]*0.36491]
#117=[#510+[#511-#510]*0.36491]
#111=[#116+[#117-#116]*0.58977]
X5.29550 Y-2.64670 Z[#111+-0.04000]
#116=[#506+[#507-#506]*0.35257]
#117=[#510+[#511-#510]*0.35257]
#111=[#116+[#117-#116]*0.58685]
X5.29438 Y-2.65039 Z[#111+-0.04000]
#116=[#506+[#507-#506]*0.34121]
#117=[#510+[#511-#510]*0.34121]
#111=[#116+[#117-#116]*0.58211]
X5.29256 Y-2.65379 Z[#111+-0.04000]
#116=[#506+[#507-#506]*0.33125]
#117=[#510+[#511-#510]*0.33125]
#111=[#116+[#117-#116]*0.57574]
X5.29011 Y-2.65678 Z[#111+-0.04000]
#116=[#506+[#507-#506]*0.32308]
#117=[#510+[#511-#510]*0.32308]
#111=[#116+[#117-#116]*0.56797]
X5.28713 Y-2.65922 Z[#111+-0.04000]
#116=[#506+[#507-#506]*0.31700]
#117=[#510+[#511-#510]*0.31700]
#111=[#116+[#117-#116]*0.55910]
X5.28372 Y-2.66104 Z[#111+-0.04000]
#116=[#506+[#507-#506]*0.31326]
#117=[#510+[#511-#510]*0.31326]
#111=[#116+[#117-#116]*0.54949]
X5.28003 Y-2.66216 Z[#111+-0.04000]
#116=[#506+[#507-#506]*0.31200]
#117=[#510+[#511-#510]*0.31200]
#111=[#116+[#117-#116]*0.53949]
X5.27619 Y-2.66254 Z[#111+-0.04000]
#116=[#506+[#507-#506]*0.31200]
#117=[#510+[#511-#510]*0.31200]
#111=[#116+[#117-#116]*0.42757]
X5.23322 Y-2.66254 Z[#111+-0.04000]
#116=[#506+[#507-#506]*0.24420]
#117=[#510+[#511-#510]*0.24420]
#111=[#116+[#117-#116]*0.32182]
X5.19261 Y-2.68284 Z[#111+-0.04000]
#116=[#506+[#507-#506]*0.17978]
#117=[#510+[#511-#510]*0.17978]
#111=[#116+[#117-#116]*0.27157]
X5.17332 Y-2.70214 Z[#111+-0.04000]
#116=[#506+[#507-#506]*0.04420]
#117=[#510+[#511-#510]*0.04420]
#111=[#116+[#117-#116]*0.21870]
X5.15302 Y-2.74274 Z[#111+-0.04000]
#116=[#505+[#506-#505]*1.00000]
#117=[#509+[#510-#509]*1.00000]
#111=[#116+[#117-#116]*0.21870]
X5.15302 Y-2.75598 Z[#111+-0.04000]
#116=[#505+[#506-#505]*0.26466]
#117=[#509+[#510-#509]*0.26466]
#111=[#116+[#117-#116]*0.21870]
X5.15302 Y-2.97619 Z[#111+-0.04000]
#116=[#505+[#506-#505]*0.25184]
#117=[#509+[#510-#509]*0.25184]
#111=[#116+[#117-#116]*0.21771]
X5.15264 Y-2.98003 Z[#111+-0.04000]
#116=[#505+[#506-#505]*0.23951]
#117=[#509+[#510-#509]*0.23951]
#111=[#116+[#117-#116]*0.21480]
X5.15152 Y-2.98372 Z[#111+-0.04000]
#116=[#505+[#506-#505]*0.22814]
#117=[#509+[#510-#509]*0.22814]
#111=[#116+[#117-#116]*0.21006]
X5.14970 Y-2.98713 Z[#111+-0.04000]
#116=[#505+[#506-#505]*0.21818]
#117=[#509+[#510-#509]*0.21818]
#111=[#116+[#117-#116]*0.20368]
X5.14725 Y-2.99011 Z[#111+-0.04000]
#116=[#505+[#506-#505]*0.21001]
#117=[#509+[#510-#509]*0.21001]
#111=[#116+[#117-#116]*0.19591]
X5.14427 Y-2.99256 Z[#111+-0.04000]
#116=[#505+[#506-#505]*0.20393]
#117=[#509+[#510-#509]*0.20393]
#111=[#116+[#117-#116]*0.18705]
X5.14087 Y-2.99438 Z[#111+-0.04000]
#116=[#505+[#506-#505]*0.20019]
#117=[#509+[#510-#509]*0.20019]
#111=[#116+[#117-#116]*0.17743]
X5.13717 Y-2.99550 Z[#111+-0.04000]
#116=[#505+[#506-#505]*0.19893]
#117=[#509+[#510-#509]*0.19893]
#111=[#116+[#117-#116]*0.16743]
X5.13333 Y-2.99587 Z[#111+-0.04000]
#116=[#505+[#506-#505]*0.20019]
#117=[#509+[#510-#509]*0.20019]
#111=[#116+[#117-#116]*0.15743]
X5.12949 Y-2.99550 Z[#111+-0.04000]
#116=[#505+[#506-#505]*0.20393]
#117=[#509+[#510-#509]*0.20393]
#111=[#116+[#117-#116]*0.14781]
X5.12580 Y-2.99438 Z[#111+-0.04000]
#116=[#505+[#506-#505]*0.21001]
#117=[#509+[#510-#509]*0.21001]
#111=[#116+[#117-#116]*0.13895]
X5.12240 Y-2.99256 Z[#111+-0.04000]
#116=[#505+[#506-#505]*0.21818]
#117=[#509+[#510-#509]*0.21818]
#111=[#116+[#117-#116]*0.13118]
X5.11941 Y-2.99011 Z[#111+-0.04000]
#116=[#505+[#506-#505]*0.22814]
#117=[#509+[#510-#509]*0.22814]
#111=[#116+[#117-#116]*0.12480]
X5.11697 Y-2.98713 Z[#111+-0.04000]
#116=[#505+[#506-#505]*0.23951]
#117=[#509+[#510-#509]*0.23951]
#111=[#116+[#117-#116]*0.12007]
X5.11515 Y-2.98372 Z[#111+-0.04000]
#116=[#505+[#506-#505]*0.25184]
#117=[#509+[#510-#509]*0.25184]
#111=[#116+[#117-#116]*0.11715]
X5.11403 Y-2.98003 Z[#111+-0.04000]
#116=[#505+[#506-#505]*0.26466]
#117=[#509+[#510-#509]*0.26466]
#111=[#116+[#117-#116]*0.11616]
X5.11365 Y-2.97619 Z[#111+-0.04000]
G04 P0 ( dwell for no time -- G64 should not smooth over this point )
G00 Z0.08000 ( retract )

G00 X5.39936 Y-2.88095 ( rapid move to begin. )
G01 F180.00000
( Mill infeed pass 1/1 )
#116=[#505+[#506-#505]*0.58268]
#117=[#509+[#510-#509]*0.58268]
#111=[#116+[#117-#116]*0.86027]
G01 Z[-0.04000+#111]
G04 P0 ( dwell for no time -- G64 should not smooth over this point )
G01 F360.00000
#116=[#505+[#506-#505]*1.00000]
#117=[#509+[#510-#509]*1.00000]
#111=[#116+[#117-#116]*0.86027]
X5.39936 Y-2.75598 Z[#111+-0.04000]
#116=[#506+[#507-#506]*0.05971]
#117=[#510+[#511-#510]*0.05971]
#111=[#116+[#117-#116]*0.86027]
X5.39936 Y-2.73809 Z[#111+-0.04000]
#116=[#506+[#507-#506]*0.07481]
#117=[#510+[#511-#510]*0.07481]
#111=[#116+[#117-#116]*0.86164]
X5.39989 Y-2.73357 Z[#111+-0.04000]
#116=[#506+[#507-#506]*0.08911]
#117=[#510+[#511-#510]*0.08911]
#111=[#116+[#117-#116]*0.86568]
X5.40144 Y-2.72929 Z[#111+-0.04000]
#116=[#506+[#507-#506]*0.24812]
#117=[#510+[#511-#510]*0.24812]
#111=[#116+[#117-#116]*0.92769]
X5.42525 Y-2.68167 Z[#111+-0.04000]
#116=[#506+[#507-#506]*0.25715]
#117=[#510+[#511-#510]*0.25715]
#111=[#116+[#117-#116]*0.93196]
X5.42689 Y-2.67897 Z[#111+-0.04000]
#116=[#506+[#507-#506]*0.26520]
#117=[#510+[#511-#510]*0.26520]
#111=[#116+[#117-#116]*0.93730]
X5.42894 Y-2.67656 Z[#111+-0.04000]
#116=[#506+[#507-#506]*0.34471]
#117=[#510+[#511-#510]*0.34471]
#111=[#116+[#117-#116]*0.99930]
X5.45275 Y-2.65275 Z[#111+-0.04000]
#116=[#510+[#511-#510]*0.34547]
#117=[#514+[#515-#514]*0.34547]
#111=[#116+[#117-#116]*0.00000]
X5.45301 Y-2.65252 Z[#111+-0.04000]
#116=[#510+[#511-#510]*0.35155]
#117=[#514+[#515-#514]*0.35155]
#111=[#116+[#117-#116]*0.00558]
X5.45516 Y-2.65070 Z[#111+-0.04000]
#116=[#510+[#511-#510]*0.35702]
#117=[#514+[#515-#514]*0.35702]
#111=[#116+[#117-#116]*0.01263]
X5.45786 Y-2.64906 Z[#111+-0.04000]
#116=[#510+[#511-#510]*0.43652]
#117=[#514+[#515-#514]*0.43652]
#111=[#116+[#117-#116]*0.13665]
X5.50548 Y-2.62525 Z[#111+-0.04000]
#116=[#510+[#511-#510]*0.44170]
#117=[#514+[#515-#514]*0.44170]
#111=[#116+[#117-#116]*0.14779]
X5.50976 Y-2.62370 Z[#111+-0.04000]
#116=[#510+[#511-#510]*0.44346]
#117=[#514+[#515-#514]*0.44346]
#111=[#116+[#117-#116]*0.15957]
X5.51429 Y-2.62317 Z[#111+-0.04000]
#116=[#510+[#511-#510]*0.44346]
#117=[#514+[#515-#514]*0.44346]
#111=[#116+[#117-#116]*0.34560]
X5.58571 Y-2.62317 Z[#111+-0.04000]
#116=[#510+[#511-#510]*0.44170]
#117=[#514+[#515-#514]*0.44170]
#111=[#116+[#117-#116]*0.35738]
X5.59024 Y-2.62370 Z[#111+-0.04000]
#116=[#510+[#511-#510]*0.43652]
#117=[#514+[#515-#514]*0.43652]
#111=[#116+[#117-#116]*0.36853]
X5.59452 Y-2.62525 Z[#111+-0.04000]
#116=[#510+[#511-#510]*0.35702]
#117=[#514+[#515-#514]*0.35702]
#111=[#116+[#117-#116]*0.49255]
X5.64214 Y-2.64906 Z[#111+-0.04000]
#116=[#510+[#511-#510]*0.35155]
#117=[#514+[#515-#514]*0.35155]
#111=[#116+[#117-#116]*0.49960]
X5.64484 Y-2.65070 Z[#111+-0.04000]
#116=[#510+[#511-#510]*0.34471]
#117=[#514+[#515-#514]*0.34471]
#111=[#116+[#117-#116]*0.50587]
X5.64725 Y-2.65275 Z[#111+-0.04000]
#116=[#510+[#511-#510]*0.26520]
#117=[#514+[#515-#514]*0.26520]
#111=[#116+[#117-#116]*0.56788]
X5.67106 Y-2.67656 Z[#111+-0.04000]
#116=[#510+[#511-#510]*0.25715]
#117=[#514+[#515-#514]*0.25715]
#111=[#116+[#117-#116]*0.57322]
X5.67311 Y-2.67897 Z[#111+-0.04000]
#116=[#510+[#511-#510]*0.24812]
#117=[#514+[#515-#514]*0.24812]
#111=[#116+[#117-#116]*0.57748]
X5.67475 Y-2.68167 Z[#111+-0.04000]
#116=[#510+[#511-#510]*0.08911]
#117=[#514+[#515-#514]*0.08911]
#111=[#116+[#117-#116]*0.63949]
X5.69856 Y-2.72929 Z[#111+-0.04000]
#116=[#510+[#511-#510]*0.07481]
#117=[#514+[#515-#514]*0.07481]
#111=[#116+[#117-#116]*0.64353]
X5.70011 Y-2.73357 Z[#111+-0.04000]
#116=[#510+[#511-#510]*0.05971]
#117=[#514+[#515-#514]*0.05971]
#111=[#116+[#117-#116]*0.64490]
X5.70064 Y-2.73809 Z[#111+-0.04000]
#116=[#509+[#510-#509]*1.00000]
#117=[#513+[#514-#513]*1.00000]
#111=[#116+[#117-#116]*0.64490]
X5.70064 Y-2.75598 Z[#111+-0.04000]
#116=[#509+[#510-#509]*0.58268]
#117=[#513+[#514-#513]*0.58268]
#111=[#116+[#117-#116]*0.64490]
X5.70064 Y-2.88095 Z[#111+-0.04000]
#116=[#509+[#510-#509]*0.56758]
#117=[#513+[#514-#513]*0.56758]
#111=[#116+[#117-#116]*0.64353]
X5.70011 Y-2.88547 Z[#111+-0.04000]
#116=[#509+[#510-#509]*0.55329]
#117=[#513+[#514-#513]*0.55329]
#111=[#116+[#117-#116]*0.63949]
X5.69856 Y-2.88976 Z[#111+-0.04000]
#116=[#509+[#510-#509]*0.39428]
#117=[#513+[#514-#513]*0.39428]
#111=[#116+[#117-#116]*0.57748]
X5.67475 Y-2.93737 Z[#111+-0.04000]
#116=[#509+[#510-#509]*0.38524]
#117=[#513+[#514-#513]*0.38524]
#111=[#116+[#117-#116]*0.57322]
X5.67311 Y-2.94008 Z[#111+-0.04000]
#116=[#509+[#510-#509]*0.37719]
#117=[#513+[#514-#513]*0.37719]
#111=[#116+[#117-#116]*0.56788]
X5.67106 Y-2.94249 Z[#111+-0.04000]
#116=[#509+[#510-#509]*0.29769]
#117=[#513+[#514-#513]*0.29769]
#111=[#116+[#117-#116]*0.50587]
X5.64725 Y-2.96630 Z[#111+-0.04000]
#116=[#509+[#510-#509]*0.29084]
#117=[#513+[#514-#513]*0.29084]
#111=[#116+[#117-#116]*0.49960]
X5.64484 Y-2.96835 Z[#111+-0.04000]
#116=[#509+[#510-#509]*0.28538]
#117=[#513+[#514-#513]*0.28538]
#111=[#116+[#117-#116]*0.49255]
X5.64214 Y-2.96999 Z[#111+-0.04000]
#116=[#509+[#510-#509]*0.20587]
#117=[#513+[#514-#513]*0.20587]
#111=[#116+[#117-#116]*0.36853]
X5.59452 Y-2.99380 Z[#111+-0.04000]
#116=[#509+[#510-#509]*0.20069]
#117=[#513+[#514-#513]*0.20069]
#111=[#116+[#117-#116]*0.35738]
X5.59024 Y-2.99535 Z[#111+-0.04000]
#116=[#509+[#510-#509]*0.19893]
#117=[#513+[#514-#513]*0.19893]
#111=[#116+[#117-#116]*0.34560]
X5.58571 Y-2.99587 Z[#111+-0.04000]
#116=[#509+[#510-#509]*0.19893]
#117=[#513+[#514-#513]*0.19893]
#111=[#116+[#117-#116]*0.15957]
X5.51429 Y-2.99587 Z[#111+-0.04000]
#116=[#509+[#510-#509]*0.20069]
#117=[#513+[#514-#513]*0.20069]
#111=[#116+[#117-#116]*0.14779]
X5.50976 Y-2.99535 Z[#111+-0.04000]
#116=[#509+[#510-#509]*0.20587]
#117=[#513+[#514-#513]*0.20587]
#111=[#116+[#117-#116]*0.13665]
X5.50548 Y-2.99380 Z[#111+-0.04000]
#116=[#509+[#510-#509]*0.28538]
#117=[#513+[#514-#513]*0.28538]
#111=[#116+[#117-#116]*0.01263]
X5.45786 Y-2.96999 Z[#111+-0.04000]
#116=[#509+[#510-#509]*0.29084]
#117=[#513+[#514-#513]*0.29084]
#111=[#116+[#117-#116]*0.00558]
X5.45516 Y-2.96835 Z[#111+-0.04000]
#116=[#509+[#510-#509]*0.29693]
#117=[#513+[#514-#513]*0.29693]
#111=[#116+[#117-#116]*0.00000]
X5.45301 Y-2.96653 Z[#111+-0.04000]
#116=[#505+[#506-#505]*0.29769]
#117=[#509+[#510-#509]*0.29769]
#111=[#116+[#117-#116]*0.99930]
X5.45275 Y-2.96630 Z[#111+-0.04000]
#116=[#505+[#506-#505]*0.37719]
#117=[#509+[#510-#509]*0.37719]
#111=[#116+[#117-#116]*0.93730]
X5.42894 Y-2.94249 Z[#111+-0.04000]
#116=[#505+[#506-#505]*0.38524]
#117=[#509+[#510-#509]*0.38524]
#111=[#116+[#117-#116]*0.93196]
X5.42689 Y-2.94008 Z[#111+-0.04000]
#116=[#505+[#506-#505]*0.39428]
#117=[#509+[#510-#509]*0.39428]
#111=[#116+[#117-#116]*0.92769]
X5.42525 Y-2.93737 Z[#111+-0.04000]
#116=[#505+[#506-#505]*0.55329]
#117=[#509+[#510-#509]*0.55329]
#111=[#116+[#117-#116]*0.86568]
X5.40144 Y-2.88976 Z[#111+-0.04000]
#116=[#505+[#506-#505]*0.56758]
#117=[#509+[#510-#509]*0.56758]
#111=[#116+[#117-#116]*0.86164]
X5.39989 Y-2.88547 Z[#111+-0.04000]
#116=[#505+[#506-#505]*0.58268]
#117=[#509+[#510-#509]*0.58268]
#111=[#116+[#117-#116]*0.86027]
X5.39936 Y-2.88095 Z[#111+-0.04000]
G04 P0 ( dwell for no time -- G64 should not smooth over this point )
G00 Z0.08000 ( retract )

G00 X5.43873 Y-2.87630 ( rapid move to begin. )
G01 F180.00000
( Mill infeed pass 1/1 )
#116=[#505+[#506-#505]*0.59820]
#117=[#509+[#510-#509]*0.59820]
#111=[#116+[#117-#116]*0.96281]
G01 Z[-0.04000+#111]
G04 P0 ( dwell for no time -- G64 should not smooth over this point )
G01 F360.00000
#116=[#505+[#506-#505]*1.00000]
#117=[#509+[#510-#509]*1.00000]
#111=[#116+[#117-#116]*0.96281]
X5.43873 Y-2.75598 Z[#111+-0.04000]
#116=[#506+[#507-#506]*0.04419]
#117=[#510+[#511-#510]*0.04419]
#111=[#116+[#117-#116]*0.96281]
X5.43873 Y-2.74274 Z[#111+-0.04000]
#116=[#510+[#511-#510]*0.13957]
#117=[#514+[#515-#514]*0.13957]
#111=[#116+[#117-#116]*0.00000]
X5.45301 Y-2.71418 Z[#111+-0.04000]
#116=[#510+[#511-#510]*0.17978]
#117=[#514+[#515-#514]*0.17978]
#111=[#116+[#117-#116]*0.01568]
X5.45904 Y-2.70214 Z[#111+-0.04000]
#116=[#510+[#511-#510]*0.24420]
#117=[#514+[#515-#514]*0.24420]
#111=[#116+[#117-#116]*0.06592]
X5.47833 Y-2.68284 Z[#111+-0.04000]
#116=[#510+[#511-#510]*0.31200]
#117=[#514+[#515-#514]*0.31200]
#111=[#116+[#117-#116]*0.17167]
X5.51893 Y-2.66254 Z[#111+-0.04000]
#116=[#510+[#511-#510]*0.31200]
#117=[#514+[#515-#514]*0.31200]
#111=[#116+[#117-#116]*0.33350]
X5.58107 Y-2.66254 Z[#111+-0.04000]
#116=[#510+[#511-#510]*0.24420]
#117=[#514+[#515-#514]*0.24420]
#111=[#116+[#117-#116]*0.43925]
X5.62167 Y-2.68284 Z[#111+-0.04000]
#116=[#510+[#511-#510]*0.17978]
#117=[#514+[#515-#514]*0.17978]
#111=[#116+[#117-#116]*0.48949]
X5.64096 Y-2.70214 Z[#111+-0.04000]
#116=[#510+[#511-#510]*0.04419]
#117=[#514+[#515-#514]*0.04419]
#111=[#116+[#117-#116]*0.54237]
X5.66127 Y-2.74274 Z[#111+-0.04000]
#116=[#509+[#510-#509]*1.00000]
#117=[#513+[#514-#513]*1.00000]
#111=[#116+[#117-#116]*0.54237]
X5.66127 Y-2.75598 Z[#111+-0.04000]
#116=[#509+[#510-#509]*0.59820]
#117=[#513+[#514-#513]*0.59820]
#111=[#116+[#117-#116]*0.54237]
X5.66127 Y-2.87630 Z[#111+-0.04000]
#116=[#509+[#510-#509]*0.46261]
#117=[#513+[#514-#513]*0.46261]
#111=[#116+[#117-#116]*0.48949]
X5.64096 Y-2.91691 Z[#111+-0.04000]
#116=[#509+[#510-#509]*0.39819]
#117=[#513+[#514-#513]*0.39819]
#111=[#116+[#117-#116]*0.43925]
X5.62167 Y-2.93620 Z[#111+-0.04000]
#116=[#509+[#510-#509]*0.33040]
#117=[#513+[#514-#513]*0.33040]
#111=[#116+[#117-#116]*0.33350]
X5.58107 Y-2.95650 Z[#111+-0.04000]
#116=[#509+[#510-#509]*0.33040]
#117=[#513+[#514-#513]*0.33040]
#111=[#116+[#117-#116]*0.17168]
X5.51893 Y-2.95650 Z[#111+-0.04000]
#116=[#509+[#510-#509]*0.39819]
#117=[#513+[#514-#513]*0.39819]
#111=[#116+[#117-#116]*0.06592]
X5.47833 Y-2.93620 Z[#111+-0.04000]
#116=[#509+[#510-#509]*0.46261]
#117=[#513+[#514-#513]*0.46261]
#111=[#116+[#117-#116]*0.01568]
X5.45904 Y-2.91691 Z[#111+-0.04000]
#116=[#509+[#510-#509]*0.50282]
#117=[#513+[#514-#513]*0.50282]
#111=[#116+[#117-#116]*0.00000]
X5.45301 Y-2.90487 Z[#111+-0.04000]
#116=[#505+[#506-#505]*0.59820]
#117=[#509+[#510-#509]*0.59820]
#111=[#116+[#117-#116]*0.96281]
X5.43873 Y-2.87630 Z[#111+-0.04000]
G04 P0 ( dwell for no time -- G64 should not smooth over this point )
G00 Z0.08000 ( retract )

G00 X5.87555 Y-2.97619 ( rapid move to begin. )
G01 F180.00000
( Mill infeed pass 1/1 )
#116=[#513+[#514-#513]*0.26466]
#117=[#517+[#518-#517]*0.26466]
#111=[#116+[#117-#116]*0.10045]
G01 Z[-0.04000+#111]
G04 P0 ( dwell for no time -- G64 should not smooth over this point )
G01 F360.00000
#116=[#513+[#514-#513]*1.00000]
#117=[#517+[#518-#517]*1.00000]
#111=[#116+[#117-#116]*0.10045]
X5.87555 Y-2.75598 Z[#111+-0.04000]
#116=[#514+[#515-#514]*0.37773]
#117=[#518+[#519-#518]*0.37773]
#111=[#116+[#117-#116]*0.10045]
X5.87555 Y-2.64286 Z[#111+-0.04000]
#116=[#514+[#515-#514]*0.39055]
#117=[#518+[#519-#518]*0.39055]
#111=[#116+[#117-#116]*0.10144]
X5.87593 Y-2.63902 Z[#111+-0.04000]
#116=[#514+[#515-#514]*0.40289]
#117=[#518+[#519-#518]*0.40289]
#111=[#116+[#117-#116]*0.10435]
X5.87705 Y-2.63532 Z[#111+-0.04000]
#116=[#514+[#515-#514]*0.41425]
#117=[#518+[#519-#518]*0.41425]
#111=[#116+[#117-#116]*0.10909]
X5.87887 Y-2.63192 Z[#111+-0.04000]
#116=[#514+[#515-#514]*0.42421]
#117=[#518+[#519-#518]*0.42421]
#111=[#116+[#117-#116]*0.11547]
X5.88132 Y-2.62894 Z[#111+-0.04000]
#116=[#514+[#515-#514]*0.43238]
#117=[#518+[#519-#518]*0.43238]
#111=[#116+[#117-#116]*0.12323]
X5.88430 Y-2.62649 Z[#111+-0.04000]
#116=[#514+[#515-#514]*0.43846]
#117=[#518+[#519-#518]*0.43846]
#111=[#116+[#117-#116]*0.13210]
X5.88770 Y-2.62467 Z[#111+-0.04000]
#116=[#514+[#515-#514]*0.44220]
#117=[#518+[#519-#518]*0.44220]
#111=[#116+[#117-#116]*0.14172]
X5.89140 Y-2.62355 Z[#111+-0.04000]
#116=[#514+[#515-#514]*0.44346]
#117=[#518+[#519-#518]*0.44346]
#111=[#116+[#117-#116]*0.15172]
X5.89524 Y-2.62317 Z[#111+-0.04000]
#116=[#514+[#515-#514]*0.44220]
#117=[#518+[#519-#518]*0.44220]
#111=[#116+[#117-#116]*0.16172]
X5.89908 Y-2.62355 Z[#111+-0.04000]
#116=[#514+[#515-#514]*0.43846]
#117=[#518+[#519-#518]*0.43846]
#111=[#116+[#117-#116]*0.17134]
X5.90277 Y-2.62467 Z[#111+-0.04000]
#116=[#514+[#515-#514]*0.43238]
#117=[#518+[#519-#518]*0.43238]
#111=[#116+[#117-#116]*0.18020]
X5.90617 Y-2.62649 Z[#111+-0.04000]
#116=[#514+[#515-#514]*0.42421]
#117=[#518+[#519-#518]*0.42421]
#111=[#116+[#117-#116]*0.18797]
X5.90916 Y-2.62894 Z[#111+-0.04000]
#116=[#514+[#515-#514]*0.41425]
#117=[#518+[#519-#518]*0.41425]
#111=[#116+[#117-#116]*0.19434]
X5.91160 Y-2.63192 Z[#111+-0.04000]
#116=[#514+[#515-#514]*0.40289]
#117=[#518+[#519-#518]*0.40289]
#111=[#116+[#117-#116]*0.19908]
X5.91342 Y-2.63532 Z[#111+-0.04000]
#116=[#514+[#515-#514]*0.39055]
#117=[#518+[#519-#518]*0.39055]
#111=[#116+[#117-#116]*0.20200]
X5.91454 Y-2.63902 Z[#111+-0.04000]
#116=[#514+[#515-#514]*0.37773]
#117=[#518+[#519-#518]*0.37773]
#111=[#116+[#117-#116]*0.20299]
X5.91492 Y-2.64286 Z[#111+-0.04000]
#116=[#514+[#515-#514]*0.36483]
#117=[#518+[#519-#518]*0.36483]
#111=[#116+[#117-#116]*0.20299]
X5.91492 Y-2.64672 Z[#111+-0.04000]
#116=[#514+[#515-#514]*0.43652]
#117=[#518+[#519-#518]*0.43652]
#111=[#116+[#117-#116]*0.31482]
X5.95786 Y-2.62525 Z[#111+-0.04000]
#116=[#514+[#515-#514]*0.44170]
#117=[#518+[#519-#518]*0.44170]
#111=[#116+[#117-#116]*0.32596]
X5.96214 Y-2.62370 Z[#111+-0.04000]
#116=[#514+[#515-#514]*0.44346]
#117=[#518+[#519-#518]*0.44346]
#111=[#116+[#117-#116]*0.33774]
X5.96667 Y-2.62317 Z[#111+-0.04000]
#116=[#514+[#515-#514]*0.44346]
#117=[#518+[#519-#518]*0.44346]
#111=[#116+[#117-#116]*0.52377]
X6.03810 Y-2.62317 Z[#111+-0.04000]
#116=[#514+[#515-#514]*0.44170]
#117=[#518+[#519-#518]*0.44170]
#111=[#116+[#117-#116]*0.53555]
X6.04262 Y-2.62370 Z[#111+-0.04000]
#116=[#514+[#515-#514]*0.43652]
#117=[#518+[#519-#518]*0.43652]
#111=[#116+[#117-#116]*0.54670]
X6.04690 Y-2.62525 Z[#111+-0.04000]
#116=[#514+[#515-#514]*0.35702]
#117=[#518+[#519-#518]*0.35702]
#111=[#116+[#117-#116]*0.67072]
X6.09452 Y-2.64906 Z[#111+-0.04000]
#116=[#514+[#515-#514]*0.34942]
#117=[#518+[#519-#518]*0.34942]
#111=[#116+[#117-#116]*0.67995]
X6.09806 Y-2.65134 Z[#111+-0.04000]
#116=[#514+[#515-#514]*0.33946]
#117=[#518+[#519-#518]*0.33946]
#111=[#116+[#117-#116]*0.68771]
X6.10104 Y-2.65432 Z[#111+-0.04000]
#116=[#514+[#515-#514]*0.32762]
#117=[#518+[#519-#518]*0.32762]
#111=[#116+[#117-#116]*0.69364]
X6.10332 Y-2.65786 Z[#111+-0.04000]
#116=[#514+[#515-#514]*0.16861]
#117=[#518+[#519-#518]*0.16861]
#111=[#116+[#117-#116]*0.75565]
X6.12713 Y-2.70548 Z[#111+-0.04000]
#116=[#514+[#515-#514]*0.15432]
#117=[#518+[#519-#518]*0.15432]
#111=[#116+[#117-#116]*0.75969]
X6.12868 Y-2.70976 Z[#111+-0.04000]
#116=[#514+[#515-#514]*0.13922]
#117=[#518+[#519-#518]*0.13922]
#111=[#116+[#117-#116]*0.76106]
X6.12921 Y-2.71428 Z[#111+-0.04000]
#116=[#513+[#514-#513]*1.00000]
#117=[#517+[#518-#517]*1.00000]
#111=[#116+[#117-#116]*0.76106]
X6.12921 Y-2.75598 Z[#111+-0.04000]
#116=[#513+[#514-#513]*0.26466]
#117=[#517+[#518-#517]*0.26466]
#111=[#116+[#117-#116]*0.76106]
X6.12921 Y-2.97619 Z[#111+-0.04000]
#116=[#513+[#514-#513]*0.25184]
#117=[#517+[#518-#517]*0.25184]
#111=[#116+[#117-#116]*0.76008]
X6.12883 Y-2.98003 Z[#111+-0.04000]
#116=[#513+[#514-#513]*0.23951]
#117=[#517+[#518-#517]*0.23951]
#111=[#116+[#117-#116]*0.75716]
X6.12771 Y-2.98372 Z[#111+-0.04000]
#116=[#513+[#514-#513]*0.22814]
#117=[#517+[#518-#517]*0.22814]
#111=[#116+[#117-#116]*0.75242]
X6.12589 Y-2.98713 Z[#111+-0.04000]
#116=[#513+[#514-#513]*0.21818]
#117=[#517+[#518-#517]*0.21818]
#111=[#116+[#117-#116]*0.74605]
X6.12344 Y-2.99011 Z[#111+-0.04000]
#116=[#513+[#514-#513]*0.21001]
#117=[#517+[#518-#517]*0.21001]
#111=[#116+[#117-#116]*0.73828]
X6.12046 Y-2.99256 Z[#111+-0.04000]
#116=[#513+[#514-#513]*0.20393]
#117=[#517+[#518-#517]*0.20393]
#111=[#116+[#117-#116]*0.72942]
X6.11706 Y-2.99438 Z[#111+-0.04000]
#116=[#513+[#514-#513]*0.20019]
#117=[#517+[#518-#517]*0.20019]
#111=[#116+[#117-#116]*0.71980]
X6.11336 Y-2.99550 Z[#111+-0.04000]
#116=[#513+[#514-#513]*0.19893]
#117=[#517+[#518-#517]*0.19893]
#111=[#116+[#117-#116]*0.70980]
X6.10952 Y-2.99587 Z[#111+-0.04000]
#116=[#513+[#514-#513]*0.20019]
#117=[#517+[#518-#517]*0.20019]
#111=[#116+[#117-#116]*0.69979]
X6.10568 Y-2.99550 Z[#111+-0.04000]
#116=[#513+[#514-#513]*0.20393]
#117=[#517+[#518-#517]*0.20393]
#111=[#116+[#117-#116]*0.69018]
X6.10199 Y-2.99438 Z[#111+-0.04000]
#116=[#513+[#514-#513]*0.21001]
#117=[#517+[#518-#517]*0.21001]
#111=[#116+[#117-#116]*0.68131]
X6.09859 Y-2.99256 Z[#111+-0.04000]
#116=[#513+[#514-#513]*0.21818]
#117=[#517+[#518-#517]*0.21818]
#111=[#116+[#117-#116]*0.67354]
X6.09560 Y-2.99011 Z[#111+-0.04000]
#116=[#513+[#514-#513]*0.22814]
#117=[#517+[#518-#517]*0.22814]
#111=[#116+[#117-#116]*0.66717]
X6.09316 Y-2.98713 Z[#111+-0.04000]
#116=[#513+[#514-#513]*0.23951]
#117=[#517+[#518-#517]*0.23951]
#111=[#116+[#117-#116]*0.66243]
X6.09134 Y-2.98372 Z[#111+-0.04000]
#116=[#513+[#514-#513]*0.25184]
#117=[#517+[#518-#517]*0.25184]
#111=[#116+[#117-#116]*0.65951]
X6.09022 Y-2.98003 Z[#111+-0.04000]
#116=[#513+[#514-#513]*0.26466]
#117=[#517+[#518-#517]*0.26466]
#111=[#116+[#117-#116]*0.65853]
X6.08984 Y-2.97619 Z[#111+-0.04000]
#116=[#513+[#514-#513]*1.00000]
#117=[#517+[#518-#517]*1.00000]
#111=[#116+[#117-#116]*0.65853]
X6.08984 Y-2.75598 Z[#111+-0.04000]
#116=[#514+[#515-#514]*0.12370]
#117=[#518+[#519-#518]*0.12370]
#111=[#116+[#117-#116]*0.65853]
X6.08984 Y-2.71893 Z[#111+-0.04000]
#116=[#514+[#515-#514]*0.24923]
#117=[#518+[#519-#518]*0.24923]
#111=[#116+[#117-#116]*0.60958]
X6.07104 Y-2.68134 Z[#111+-0.04000]
#116=[#514+[#515-#514]*0.31200]
#117=[#518+[#519-#518]*0.31200]
#111=[#116+[#117-#116]*0.51167]
X6.03345 Y-2.66254 Z[#111+-0.04000]
#116=[#514+[#515-#514]*0.31200]
#117=[#518+[#519-#518]*0.31200]
#111=[#116+[#117-#116]*0.34984]
X5.97131 Y-2.66254 Z[#111+-0.04000]
#116=[#514+[#515-#514]*0.24420]
#117=[#518+[#519-#518]*0.24420]
#111=[#116+[#117-#116]*0.24409]
X5.93071 Y-2.68284 Z[#111+-0.04000]
#116=[#514+[#515-#514]*0.19149]
#117=[#518+[#519-#518]*0.19149]
#111=[#116+[#117-#116]*0.20299]
X5.91492 Y-2.69863 Z[#111+-0.04000]
#116=[#513+[#514-#513]*1.00000]
#117=[#517+[#518-#517]*1.00000]
#111=[#116+[#117-#116]*0.20299]
X5.91492 Y-2.75598 Z[#111+-0.04000]
#116=[#513+[#514-#513]*0.26466]
#117=[#517+[#518-#517]*0.26466]
#111=[#116+[#117-#116]*0.20299]
X5.91492 Y-2.97619 Z[#111+-0.04000]
#116=[#513+[#514-#513]*0.25184]
#117=[#517+[#518-#517]*0.25184]
#111=[#116+[#117-#116]*0.20200]
X5.91454 Y-2.98003 Z[#111+-0.04000]
#116=[#513+[#514-#513]*0.23951]
#117=[#517+[#518-#517]*0.23951]
#111=[#116+[#117-#116]*0.19908]
X5.91342 Y-2.98372 Z[#111+-0.04000]
#116=[#513+[#514-#513]*0.22814]
#117=[#517+[#518-#517]*0.22814]
#111=[#116+[#117-#116]*0.19434]
X5.91160 Y-2.98713 Z[#111+-0.04000]
#116=[#513+[#514-#513]*0.21818]
#117=[#517+[#518-#517]*0.21818]
#111=[#116+[#117-#116]*0.18797]
X5.90916 Y-2.99011 Z[#111+-0.04000]
#116=[#513+[#514-#513]*0.21001]
#117=[#517+[#518-#517]*0.21001]
#111=[#116+[#117-#116]*0.18020]
X5.90617 Y-2.99256 Z[#111+-0.04000]
#116=[#513+[#514-#513]*0.20393]
#117=[#517+[#518-#517]*0.20393]
#111=[#116+[#117-#116]*0.17134]
X5.90277 Y-2.99438 Z[#111+-0.04000]
#116=[#513+[#514-#513]*0.20019]
#117=[#517+[#518-#517]*0.20019]
#111=[#116+[#117-#116]*0.16172]
X5.89908 Y-2.99550 Z[#111+-0.04000]
#116=[#513+[#514-#513]*0.19893]
#117=[#517+[#518-#517]*0.19893]
#111=[#116+[#117-#116]*0.15172]
X5.89524 Y-2.99587 Z[#111+-0.04000]
#116=[#513+[#514-#513]*0.20019]
#117=[#517+[#518-#517]*0.20019]
#111=[#116+[#117-#116]*0.14172]
X5.89140 Y-2.99550 Z[#111+-0.04000]
#116=[#513+[#514-#513]*0.20393]
#117=[#517+[#518-#517]*0.20393]
#111=[#116+[#117-#116]*0.13210]
X5.88770 Y-2.99438 Z[#111+-0.04000]
#116=[#513+[#514-#513]*0.21001]
#117=[#517+[#518-#517]*0.21001]
#111=[#116+[#117-#116]*0.12323]
X5.88430 Y-2.99256 Z[#111+-0.04000]
#116=[#513+[#514-#513]*0.21818]
#117=[#517+[#518-#517]*0.21818]
#111=[#116+[#117-#116]*0.11547]
X5.88132 Y-2.99011 Z[#111+-0.04000]
#116=[#513+[#514-#513]*0.22814]
#117=[#517+[#518-#517]*0.22814]
#111=[#116+[#117-#116]*0.10909]
X5.87887 Y-2.98713 Z[#111+-0.04000]
#116=[#513+[#514-#513]*0.23951]
#117=[#517+[#518-#517]*0.23951]
#111=[#116+[#117-#116]*0.10435]
X5.87705 Y-2.98372 Z[#111+-0.04000]
#116=[#513+[#514-#513]*0.25184]
#117=[#517+[#518-#517]*0.25184]
#111=[#116+[#117-#116]*0.10144]
X5.87593 Y-2.98003 Z[#111+-0.04000]
#116=[#513+[#514-#513]*0.26466]
#117=[#517+[#518-#517]*0.26466]
#111=[#116+[#117-#116]*0.10045]
X5.87555 Y-2.97619 Z[#111+-0.04000]
G04 P0 ( dwell for no time -- G64 should not smooth over this point )
G00 Z0.08000 ( retract )

G00 X6.25650 Y-2.64286 ( rapid move to begin. )
G01 F180.00000
( Mill infeed pass 1/1 )
#116=[#518+[#519-#518]*0.37773]
#117=[#522+[#523-#522]*0.37773]
#111=[#116+[#117-#116]*0.09259]
G01 Z[-0.04000+#111]
G04 P0 ( dwell for no time -- G64 should not smooth over this point )
G01 F360.00000
#116=[#518+[#519-#518]*0.36491]
#117=[#522+[#523-#522]*0.36491]
#111=[#116+[#117-#116]*0.09358]
X6.25688 Y-2.64670 Z[#111+-0.04000]
#116=[#518+[#519-#518]*0.35257]
#117=[#522+[#523-#522]*0.35257]
#111=[#116+[#117-#116]*0.09650]
X6.25800 Y-2.65039 Z[#111+-0.04000]
#116=[#518+[#519-#518]*0.34121]
#117=[#522+[#523-#522]*0.34121]
#111=[#116+[#117-#116]*0.10123]
X6.25982 Y-2.65379 Z[#111+-0.04000]
#116=[#518+[#519-#518]*0.33125]
#117=[#522+[#523-#522]*0.33125]
#111=[#116+[#117-#116]*0.10761]
X6.26227 Y-2.65678 Z[#111+-0.04000]
#116=[#518+[#519-#518]*0.32308]
#117=[#522+[#523-#522]*0.32308]
#111=[#116+[#117-#116]*0.11538]
X6.26525 Y-2.65922 Z[#111+-0.04000]
#116=[#518+[#519-#518]*0.31700]
#117=[#522+[#523-#522]*0.31700]
#111=[#116+[#117-#116]*0.12424]
X6.26866 Y-2.66104 Z[#111+-0.04000]
#116=[#518+[#519-#518]*0.31326]
#117=[#522+[#523-#522]*0.31326]
#111=[#116+[#117-#116]*0.13386]
X6.27235 Y-2.66216 Z[#111+-0.04000]
#116=[#518+[#519-#518]*0.31200]
#117=[#522+[#523-#522]*0.31200]
#111=[#116+[#117-#116]*0.14386]
X6.27619 Y-2.66254 Z[#111+-0.04000]
#116=[#518+[#519-#518]*0.31200]
#117=[#522+[#523-#522]*0.31200]
#111=[#116+[#117-#116]*0.27862]
X6.32793 Y-2.66254 Z[#111+-0.04000]
#116=[#517+[#518-#517]*1.00000]
#117=[#521+[#522-#521]*1.00000]
#111=[#116+[#117-#116]*0.27862]
X6.32793 Y-2.75598 Z[#111+-0.04000]
#116=[#517+[#518-#517]*0.50318]
#117=[#521+[#522-#521]*0.50318]
#111=[#116+[#117-#116]*0.27862]
X6.32793 Y-2.90476 Z[#111+-0.04000]
#116=[#517+[#518-#517]*0.48808]
#117=[#521+[#522-#521]*0.48808]
#111=[#116+[#117-#116]*0.27999]
X6.32846 Y-2.90928 Z[#111+-0.04000]
#116=[#517+[#518-#517]*0.47378]
#117=[#521+[#522-#521]*0.47378]
#111=[#116+[#117-#116]*0.28403]
X6.33001 Y-2.91356 Z[#111+-0.04000]
#116=[#517+[#518-#517]*0.31477]
#117=[#521+[#522-#521]*0.31477]
#111=[#116+[#117-#116]*0.34604]
X6.35382 Y-2.96118 Z[#111+-0.04000]
#116=[#517+[#518-#517]*0.30293]
#117=[#521+[#522-#521]*0.30293]
#111=[#116+[#117-#116]*0.35197]
X6.35610 Y-2.96473 Z[#111+-0.04000]
#116=[#517+[#518-#517]*0.29298]
#117=[#521+[#522-#521]*0.29298]
#111=[#116+[#117-#116]*0.35973]
X6.35908 Y-2.96771 Z[#111+-0.04000]
#116=[#517+[#518-#517]*0.28538]
#117=[#521+[#522-#521]*0.28538]
#111=[#116+[#117-#116]*0.36897]
X6.36262 Y-2.96999 Z[#111+-0.04000]
#116=[#517+[#518-#517]*0.20587]
#117=[#521+[#522-#521]*0.20587]
#111=[#116+[#117-#116]*0.49299]
X6.41024 Y-2.99380 Z[#111+-0.04000]
#116=[#517+[#518-#517]*0.20069]
#117=[#521+[#522-#521]*0.20069]
#111=[#116+[#117-#116]*0.50413]
X6.41452 Y-2.99535 Z[#111+-0.04000]
#116=[#517+[#518-#517]*0.19893]
#117=[#521+[#522-#521]*0.19893]
#111=[#116+[#117-#116]*0.51591]
X6.41905 Y-2.99587 Z[#111+-0.04000]
#116=[#517+[#518-#517]*0.19893]
#117=[#521+[#522-#521]*0.19893]
#111=[#116+[#117-#116]*0.63993]
X6.46667 Y-2.99587 Z[#111+-0.04000]
#116=[#517+[#518-#517]*0.20019]
#117=[#521+[#522-#521]*0.20019]
#111=[#116+[#117-#116]*0.64993]
X6.47051 Y-2.99550 Z[#111+-0.04000]
#116=[#517+[#518-#517]*0.20393]
#117=[#521+[#522-#521]*0.20393]
#111=[#116+[#117-#116]*0.65955]
X6.47420 Y-2.99438 Z[#111+-0.04000]
#116=[#517+[#518-#517]*0.21001]
#117=[#521+[#522-#521]*0.21001]
#111=[#116+[#117-#116]*0.66841]
X6.47760 Y-2.99256 Z[#111+-0.04000]
#116=[#517+[#518-#517]*0.21818]
#117=[#521+[#522-#521]*0.21818]
#111=[#116+[#117-#116]*0.67618]
X6.48058 Y-2.99011 Z[#111+-0.04000]
#116=[#517+[#518-#517]*0.22814]
#117=[#521+[#522-#521]*0.22814]
#111=[#116+[#117-#116]*0.68256]
X6.48303 Y-2.98713 Z[#111+-0.04000]
#116=[#517+[#518-#517]*0.23951]
#117=[#521+[#522-#521]*0.23951]
#111=[#116+[#117-#116]*0.68730]
X6.48485 Y-2.98372 Z[#111+-0.04000]
#116=[#517+[#518-#517]*0.25184]
#117=[#521+[#522-#521]*0.25184]
#111=[#116+[#117-#116]*0.69021]
X6.48597 Y-2.98003 Z[#111+-0.04000]
#116=[#517+[#518-#517]*0.26466]
#117=[#521+[#522-#521]*0.26466]
#111=[#116+[#117-#116]*0.69120]
X6.48635 Y-2.97619 Z[#111+-0.04000]
#116=[#517+[#518-#517]*0.27749]
#117=[#521+[#522-#521]*0.27749]
#111=[#116+[#117-#116]*0.69021]
X6.48597 Y-2.97235 Z[#111+-0.04000]
#116=[#517+[#518-#517]*0.28982]
#117=[#521+[#522-#521]*0.28982]
#111=[#116+[#117-#116]*0.68730]
X6.48485 Y-2.96866 Z[#111+-0.04000]
#116=[#517+[#518-#517]*0.30118]
#117=[#521+[#522-#521]*0.30118]
#111=[#116+[#117-#116]*0.68256]
X6.48303 Y-2.96525 Z[#111+-0.04000]
#116=[#517+[#518-#517]*0.31114]
#117=[#521+[#522-#521]*0.31114]
#111=[#116+[#117-#116]*0.67618]
X6.48058 Y-2.96227 Z[#111+-0.04000]
#116=[#517+[#518-#517]*0.31932]
#117=[#521+[#522-#521]*0.31932]
#111=[#116+[#117-#116]*0.66841]
X6.47760 Y-2.95982 Z[#111+-0.04000]
#116=[#517+[#518-#517]*0.32539]
#117=[#521+[#522-#521]*0.32539]
#111=[#116+[#117-#116]*0.65955]
X6.47420 Y-2.95800 Z[#111+-0.04000]
#116=[#517+[#518-#517]*0.32913]
#117=[#521+[#522-#521]*0.32913]
#111=[#116+[#117-#116]*0.64993]
X6.47051 Y-2.95688 Z[#111+-0.04000]
#116=[#517+[#518-#517]*0.33040]
#117=[#521+[#522-#521]*0.33040]
#111=[#116+[#117-#116]*0.63993]
X6.46667 Y-2.95650 Z[#111+-0.04000]
#116=[#517+[#518-#517]*0.33040]
#117=[#521+[#522-#521]*0.33040]
#111=[#116+[#117-#116]*0.52802]
X6.42369 Y-2.95650 Z[#111+-0.04000]
#116=[#517+[#518-#517]*0.39316]
#117=[#521+[#522-#521]*0.39316]
#111=[#116+[#117-#116]*0.43011]
X6.38610 Y-2.93771 Z[#111+-0.04000]
#116=[#517+[#518-#517]*0.51869]
#117=[#521+[#522-#521]*0.51869]
#111=[#116+[#117-#116]*0.38116]
X6.36730 Y-2.90011 Z[#111+-0.04000]
#116=[#517+[#518-#517]*1.00000]
#117=[#521+[#522-#521]*1.00000]
#111=[#116+[#117-#116]*0.38116]
X6.36730 Y-2.75598 Z[#111+-0.04000]
#116=[#518+[#519-#518]*0.31200]
#117=[#522+[#523-#522]*0.31200]
#111=[#116+[#117-#116]*0.38116]
X6.36730 Y-2.66254 Z[#111+-0.04000]
#116=[#518+[#519-#518]*0.31200]
#117=[#522+[#523-#522]*0.31200]
#111=[#116+[#117-#116]*0.63993]
X6.46667 Y-2.66254 Z[#111+-0.04000]
#116=[#518+[#519-#518]*0.31326]
#117=[#522+[#523-#522]*0.31326]
#111=[#116+[#117-#116]*0.64993]
X6.47051 Y-2.66216 Z[#111+-0.04000]
#116=[#518+[#519-#518]*0.31700]
#117=[#522+[#523-#522]*0.31700]
#111=[#116+[#117-#116]*0.65955]
X6.47420 Y-2.66104 Z[#111+-0.04000]
#116=[#518+[#519-#518]*0.32308]
#117=[#522+[#523-#522]*0.32308]
#111=[#116+[#117-#116]*0.66841]
X6.47760 Y-2.65922 Z[#111+-0.04000]
#116=[#518+[#519-#518]*0.33125]
#117=[#522+[#523-#522]*0.33125]
#111=[#116+[#117-#116]*0.67618]
X6.48058 Y-2.65678 Z[#111+-0.04000]
#116=[#518+[#519-#518]*0.34121]
#117=[#522+[#523-#522]*0.34121]
#111=[#116+[#117-#116]*0.68256]
X6.48303 Y-2.65379 Z[#111+-0.04000]
#116=[#518+[#519-#518]*0.35257]
#117=[#522+[#523-#522]*0.35257]
#111=[#116+[#117-#116]*0.68730]
X6.48485 Y-2.65039 Z[#111+-0.04000]
#116=[#518+[#519-#518]*0.36491]
#117=[#522+[#523-#522]*0.36491]
#111=[#116+[#117-#116]*0.69021]
X6.48597 Y-2.64670 Z[#111+-0.04000]
#116=[#518+[#519-#518]*0.37773]
#117=[#522+[#523-#522]*0.37773]
#111=[#116+[#117-#116]*0.69120]
X6.48635 Y-2.64286 Z[#111+-0.04000]
#116=[#518+[#519-#518]*0.39055]
#117=[#522+[#523-#522]*0.39055]
#111=[#116+[#117-#116]*0.69021]
X6.48597 Y-2.63902 Z[#111+-0.04000]
#116=[#518+[#519-#518]*0.40289]
#117=[#522+[#523-#522]*0.40289]
#111=[#116+[#117-#116]*0.68730]
X6.48485 Y-2.63532 Z[#111+-0.04000]
#116=[#518+[#519-#518]*0.41425]
#117=[#522+[#523-#522]*0.41425]
#111=[#116+[#117-#116]*0.68256]
X6.48303 Y-2.63192 Z[#111+-0.04000]
#116=[#518+[#519-#518]*0.42421]
#117=[#522+[#523-#522]*0.42421]
#111=[#116+[#117-#116]*0.67618]
X6.48058 Y-2.62894 Z[#111+-0.04000]
#116=[#518+[#519-#518]*0.43238]
#117=[#522+[#523-#522]*0.43238]
#111=[#116+[#117-#116]*0.66841]
X6.47760 Y-2.62649 Z[#111+-0.04000]
#116=[#518+[#519-#518]*0.43846]
#117=[#522+[#523-#522]*0.43846]
#111=[#116+[#117-#116]*0.65955]
X6.47420 Y-2.62467 Z[#111+-0.04000]
#116=[#518+[#519-#518]*0.44220]
#117=[#522+[#523-#522]*0.44220]
#111=[#116+[#117-#116]*0.64993]
X6.47051 Y-2.62355 Z[#111+-0.04000]
#116=[#518+[#519-#518]*0.44346]
#117=[#522+[#523-#522]*0.44346]
#111=[#116+[#117-#116]*0.63993]
X6.46667 Y-2.62317 Z[#111+-0.04000]
#116=[#518+[#519-#518]*0.44346]
#117=[#522+[#523-#522]*0.44346]
#111=[#116+[#117-#116]*0.38116]
X6.36730 Y-2.62317 Z[#111+-0.04000]
#116=[#518+[#519-#518]*0.93426]
#117=[#522+[#523-#522]*0.93426]
#111=[#116+[#117-#116]*0.38116]
X6.36730 Y-2.47619 Z[#111+-0.04000]
#116=[#518+[#519-#518]*0.94709]
#117=[#522+[#523-#522]*0.94709]
#111=[#116+[#117-#116]*0.38017]
X6.36693 Y-2.47235 Z[#111+-0.04000]
#116=[#518+[#519-#518]*0.95942]
#117=[#522+[#523-#522]*0.95942]
#111=[#116+[#117-#116]*0.37725]
X6.36580 Y-2.46866 Z[#111+-0.04000]
#116=[#518+[#519-#518]*0.97079]
#117=[#522+[#523-#522]*0.97079]
#111=[#116+[#117-#116]*0.37251]
X6.36399 Y-2.46525 Z[#111+-0.04000]
#116=[#518+[#519-#518]*0.98075]
#117=[#522+[#523-#522]*0.98075]
#111=[#116+[#117-#116]*0.36614]
X6.36154 Y-2.46227 Z[#111+-0.04000]
#116=[#518+[#519-#518]*0.98892]
#117=[#522+[#523-#522]*0.98892]
#111=[#116+[#117-#116]*0.35837]
X6.35855 Y-2.45982 Z[#111+-0.04000]
#116=[#518+[#519-#518]*0.99499]
#117=[#522+[#523-#522]*0.99499]
#111=[#116+[#117-#116]*0.34951]
X6.35515 Y-2.45800 Z[#111+-0.04000]
#116=[#518+[#519-#518]*0.99873]
#117=[#522+[#523-#522]*0.99873]
#111=[#116+[#117-#116]*0.33989]
X6.35146 Y-2.45688 Z[#111+-0.04000]
#111=[#519+[#523-#519]*0.32989]
X6.34762 Y-2.45650 Z[#111+-0.04000]
#116=[#518+[#519-#518]*0.99873]
#117=[#522+[#523-#522]*0.99873]
#111=[#116+[#117-#116]*0.31989]
X6.34378 Y-2.45688 Z[#111+-0.04000]
#116=[#518+[#519-#518]*0.99499]
#117=[#522+[#523-#522]*0.99499]
#111=[#116+[#117-#116]*0.31027]
X6.34009 Y-2.45800 Z[#111+-0.04000]
#116=[#518+[#519-#518]*0.98892]
#117=[#522+[#523-#522]*0.98892]
#111=[#116+[#117-#116]*0.30140]
X6.33668 Y-2.45982 Z[#111+-0.04000]
#116=[#518+[#519-#518]*0.98075]
#117=[#522+[#523-#522]*0.98075]
#111=[#116+[#117-#116]*0.29364]
X6.33370 Y-2.46227 Z[#111+-0.04000]
#116=[#518+[#519-#518]*0.97079]
#117=[#522+[#523-#522]*0.97079]
#111=[#116+[#117-#116]*0.28726]
X6.33125 Y-2.46525 Z[#111+-0.04000]
#116=[#518+[#519-#518]*0.95942]
#117=[#522+[#523-#522]*0.95942]
#111=[#116+[#117-#116]*0.28252]
X6.32943 Y-2.46866 Z[#111+-0.04000]
#116=[#518+[#519-#518]*0.94709]
#117=[#522+[#523-#522]*0.94709]
#111=[#116+[#117-#116]*0.27961]
X6.32831 Y-2.47235 Z[#111+-0.04000]
#116=[#518+[#519-#518]*0.93426]
#117=[#522+[#523-#522]*0.93426]
#111=[#116+[#117-#116]*0.27862]
X6.32793 Y-2.47619 Z[#111+-0.04000]
#116=[#518+[#519-#518]*0.44346]
#117=[#522+[#523-#522]*0.44346]
#111=[#116+[#117-#116]*0.27862]
X6.32793 Y-2.62317 Z[#111+-0.04000]
#116=[#518+[#519-#518]*0.44346]
#117=[#522+[#523-#522]*0.44346]
#111=[#116+[#117-#116]*0.14386]
X6.27619 Y-2.62317 Z[#111+-0.04000]
#116=[#518+[#519-#518]*0.44220]
#117=[#522+[#523-#522]*0.44220]
#111=[#116+[#117-#116]*0.13386]
X6.27235 Y-2.62355 Z[#111+-0.04000]
#116=[#518+[#519-#518]*0.43846]
#117=[#522+[#523-#522]*0.43846]
#111=[#116+[#117-#116]*0.12424]
X6.26866 Y-2.62467 Z[#111+-0.04000]
#116=[#518+[#519-#518]*0.43238]
#117=[#522+[#523-#522]*0.43238]
#111=[#116+[#117-#116]*0.11538]
X6.26525 Y-2.62649 Z[#111+-0.04000]
#116=[#518+[#519-#518]*0.42421]
#117=[#522+[#523-#522]*0.42421]
#111=[#116+[#117-#116]*0.10761]
X6.26227 Y-2.62894 Z[#111+-0.04000]
#116=[#518+[#519-#518]*0.41425]
#117=[#522+[#523-#522]*0.41425]
#111=[#116+[#117-#116]*0.10123]
X6.25982 Y-2.63192 Z[#111+-0.04000]
#116=[#518+[#519-#518]*0.40289]
#117=[#522+[#523-#522]*0.40289]
#111=[#116+[#117-#116]*0.09650]
X6.25800 Y-2.63532 Z[#111+-0.04000]
#116=[#518+[#519-#518]*0.39055]
#117=[#522+[#523-#522]*0.39055]
#111=[#116+[#117-#116]*0.09358]
X6.25688 Y-2.63902 Z[#111+-0.04000]
#116=[#518+[#519-#518]*0.37773]
#117=[#522+[#523-#522]*0.37773]
#111=[#116+[#117-#116]*0.09259]
X6.25650 Y-2.64286 Z[#111+-0.04000]
G04 P0 ( dwell for no time -- G64 should not smooth over this point )
G00 Z0.08000 ( retract )

G00 X6.49508 Y-3.30000 ( rapid move to begin. )
G01 F180.00000
( Mill infeed pass 1/1 )
#116=[#516+[#517-#516]*0.18339]
#117=[#520+[#521-#520]*0.18339]
#111=[#116+[#117-#116]*0.71393]
G01 Z[-0.04000+#111]
G04 P0 ( dwell for no time -- G64 should not smooth over this point )
G01 F360.00000
#116=[#516+[#517-#516]*0.18019]
#117=[#520+[#521-#520]*0.18019]
#111=[#116+[#117-#116]*0.71417]
X6.49517 Y-3.30096 Z[#111+-0.04000]
#116=[#516+[#517-#516]*0.17426]
#117=[#520+[#521-#520]*0.17426]
#111=[#116+[#117-#116]*0.71609]
X6.49591 Y-3.30273 Z[#111+-0.04000]
#116=[#516+[#517-#516]*0.16973]
#117=[#520+[#521-#520]*0.16973]
#111=[#116+[#117-#116]*0.71962]
X6.49726 Y-3.30409 Z[#111+-0.04000]
#116=[#516+[#517-#516]*0.16728]
#117=[#520+[#521-#520]*0.16728]
#111=[#116+[#117-#116]*0.72424]
X6.49904 Y-3.30483 Z[#111+-0.04000]
#116=[#516+[#517-#516]*0.16696]
#117=[#520+[#521-#520]*0.16696]
#111=[#116+[#117-#116]*0.84415]
X6.54508 Y-3.30492 Z[#111+-0.04000]
#116=[#516+[#517-#516]*0.01643]
#117=[#520+[#521-#520]*0.01643]
#111=[#116+[#117-#116]*0.84415]
X6.54508 Y-3.35000 Z[#111+-0.04000]
#116=[#516+[#517-#516]*0.01014]
#117=[#520+[#521-#520]*0.01014]
#111=[#116+[#117-#116]*0.84512]
X6.54545 Y-3.35188 Z[#111+-0.04000]
#116=[#516+[#517-#516]*0.00482]
#117=[#520+[#521-#520]*0.00482]
#111=[#116+[#117-#116]*0.84790]
X6.54652 Y-3.35348 Z[#111+-0.04000]
#116=[#516+[#517-#516]*0.00125]
#117=[#520+[#521-#520]*0.00125]
#111=[#116+[#117-#116]*0.85206]
X6.54812 Y-3.35455 Z[#111+-0.04000]
#111=[#516+[#520-#516]*0.85697]
X6.55000 Y-3.35492 Z[#111+-0.04000]
#116=[#516+[#517-#516]*0.00125]
#117=[#520+[#521-#520]*0.00125]
#111=[#116+[#117-#116]*0.86187]
X6.55188 Y-3.35455 Z[#111+-0.04000]
#116=[#516+[#517-#516]*0.00482]
#117=[#520+[#521-#520]*0.00482]
#111=[#116+[#117-#116]*0.86603]
X6.55348 Y-3.35348 Z[#111+-0.04000]
#116=[#516+[#517-#516]*0.01014]
#117=[#520+[#521-#520]*0.01014]
#111=[#116+[#117-#116]*0.86880]
X6.55455 Y-3.35188 Z[#111+-0.04000]
#116=[#516+[#517-#516]*0.01643]
#117=[#520+[#521-#520]*0.01643]
#111=[#116+[#117-#116]*0.86978]
X6.55492 Y-3.35000 Z[#111+-0.04000]
#116=[#516+[#517-#516]*0.16696]
#117=[#520+[#521-#520]*0.16696]
#111=[#116+[#117-#116]*0.86978]
X6.55492 Y-3.30492 Z[#111+-0.04000]
#116=[#516+[#517-#516]*0.16696]
#117=[#520+[#521-#520]*0.16696]
#111=[#116+[#117-#116]*0.98718]
X6.60000 Y-3.30492 Z[#111+-0.04000]
#116=[#516+[#517-#516]*0.16821]
#117=[#520+[#521-#520]*0.16821]
#111=[#116+[#117-#116]*0.99209]
X6.60188 Y-3.30455 Z[#111+-0.04000]
#116=[#516+[#517-#516]*0.17178]
#117=[#520+[#521-#520]*0.17178]
#111=[#116+[#117-#116]*0.99624]
X6.60348 Y-3.30348 Z[#111+-0.04000]
#116=[#516+[#517-#516]*0.17710]
#117=[#520+[#521-#520]*0.17710]
#111=[#116+[#117-#116]*0.99902]
X6.60455 Y-3.30188 Z[#111+-0.04000]
#116=[#516+[#517-#516]*0.18339]
#117=[#520+[#521-#520]*0.18339]
#111=[#116+[#117-#116]*1.00000]
X6.60492 Y-3.30000 Z[#111+-0.04000]
#116=[#516+[#517-#516]*0.18968]
#117=[#520+[#521-#520]*0.18968]
#111=[#116+[#117-#116]*0.99902]
X6.60455 Y-3.29812 Z[#111+-0.04000]
#116=[#516+[#517-#516]*0.19501]
#117=[#520+[#521-#520]*0.19501]
#111=[#116+[#117-#116]*0.99624]
X6.60348 Y-3.29652 Z[#111+-0.04000]
#116=[#516+[#517-#516]*0.19858]
#117=[#520+[#521-#520]*0.19858]
#111=[#116+[#117-#116]*0.99209]
X6.60188 Y-3.29545 Z[#111+-0.04000]
#116=[#516+[#517-#516]*0.19983]
#117=[#520+[#521-#520]*0.19983]
#111=[#116+[#117-#116]*0.98718]
X6.60000 Y-3.29508 Z[#111+-0.04000]
#116=[#516+[#517-#516]*0.19983]
#117=[#520+[#521-#520]*0.19983]
#111=[#116+[#117-#116]*0.86978]
X6.55492 Y-3.29508 Z[#111+-0.04000]
#116=[#516+[#517-#516]*0.35035]
#117=[#520+[#521-#520]*0.35035]
#111=[#116+[#117-#116]*0.86978]
X6.55492 Y-3.25000 Z[#111+-0.04000]
#116=[#516+[#517-#516]*0.35664]
#117=[#520+[#521-#520]*0.35664]
#111=[#116+[#117-#116]*0.86880]
X6.55455 Y-3.24812 Z[#111+-0.04000]
#116=[#516+[#517-#516]*0.36197]
#117=[#520+[#521-#520]*0.36197]
#111=[#116+[#117-#116]*0.86603]
X6.55348 Y-3.24652 Z[#111+-0.04000]
#116=[#516+[#517-#516]*0.36554]
#117=[#520+[#521-#520]*0.36554]
#111=[#116+[#117-#116]*0.86187]
X6.55188 Y-3.24545 Z[#111+-0.04000]
#116=[#516+[#517-#516]*0.36679]
#117=[#520+[#521-#520]*0.36679]
#111=[#116+[#117-#116]*0.85697]
X6.55000 Y-3.24508 Z[#111+-0.04000]
#116=[#516+[#517-#516]*0.36554]
#117=[#520+[#521-#520]*0.36554]
#111=[#116+[#117-#116]*0.85206]
X6.54812 Y-3.24545 Z[#111+-0.04000]
#116=[#516+[#517-#516]*0.36197]
#117=[#520+[#521-#520]*0.36197]
#111=[#116+[#117-#116]*0.84790]
X6.54652 Y-3.24652 Z[#111+-0.04000]
#116=[#516+[#517-#516]*0.35664]
#117=[#520+[#521-#520]*0.35664]
#111=[#116+[#117-#116]*0.84512]
X6.54545 Y-3.24812 Z[#111+-0.04000]
#116=[#516+[#517-#516]*0.35035]
#117=[#520+[#521-#520]*0.35035]
#111=[#116+[#117-#116]*0.84415]
X6.54508 Y-3.25000 Z[#111+-0.04000]
#116=[#516+[#517-#516]*0.19983]
#117=[#520+[#521-#520]*0.19983]
#111=[#116+[#117-#116]*0.84415]
X6.54508 Y-3.29508 Z[#111+-0.04000]
#116=[#516+[#517-#516]*0.19951]
#117=[#520+[#521-#520]*0.19951]
#111=[#116+[#117-#116]*0.72424]
X6.49904 Y-3.29517 Z[#111+-0.04000]
#116=[#516+[#517-#516]*0.19706]
#117=[#520+[#521-#520]*0.19706]
#111=[#116+[#117-#116]*0.71962]
X6.49726 Y-3.29591 Z[#111+-0.04000]
#116=[#516+[#517-#516]*0.19253]
#117=[#520+[#521-#520]*0.19253]
#111=[#116+[#117-#116]*0.71609]
X6.49591 Y-3.29726 Z[#111+-0.04000]
#116=[#516+[#517-#516]*0.18660]
#117=[#520+[#521-#520]*0.18660]
#111=[#116+[#117-#116]*0.71417]
X6.49517 Y-3.29904 Z[#111+-0.04000]
#116=[#516+[#517-#516]*0.18339]
#117=[#520+[#521-#520]*0.18339]
#111=[#116+[#117-#116]*0.71393]
X6.49508 Y-3.30000 Z[#111+-0.04000]

G04 P0 ( dwell for no time -- G64 should not smooth over this point )
G00 Z1.000000 ( retract )

M5 ( Spindle off. )
G04 P1.000000
M9 ( Coolant off. )
M2 ( Program end. )

