( pcb2gcode 1.3.2 )
( Gcode for custom )

G94 ( Inches per minute feed rate. )
G20 ( Units == INCHES. )

G90 ( Absolute coordinates. )
G00 S12000 ( RPM spindle speed. )
G64 P0.00040 ( set maximum deviation from commanded toolpath )
G01 F360.00000 ( Feedrate. )

#118 = #5211
#119 = #5212

(MSG, Attach the probe tool)
M0 ( Temporary machine stop. )
G0 Z0.080 ( Move Z to safe height )
G0 X4.68308 Y-3.35689 ( Move XY to start point )
G0 Z0.080 ( Move Z to probe height )
G38.2 Z-0.1 F2.362205 ( Z-probe )
#500 = 0 ( Probe point [0, 0] is our reference )
G92 Z0 ( Set the current Z as zero-value )

( We now start the real probing: move the Z axis to the probing height, move to )
( the probing XY position, probe it and save the result, parameter #2002, )
( in a numbered parameter; we will make 17 probes on the X-axis and )
( 7 probes on the Y-axis, for a grand total of 119 probes )

G0 Z0.080
X4.68308 Y-3.00334
G38.2 Z-0.1 F2.362205
#501=#2002
G0 Z0.080
X4.68308 Y-2.64978
G38.2 Z-0.1 F2.362205
#502=#2002
G0 Z0.080
X4.68308 Y-2.29622
G38.2 Z-0.1 F2.362205
#503=#2002
G0 Z0.080
X4.68308 Y-1.94266
G38.2 Z-0.1 F2.362205
#504=#2002
G0 Z0.080
X4.68308 Y-1.58910
G38.2 Z-0.1 F2.362205
#505=#2002
G0 Z0.080
X4.68308 Y-1.23554
G38.2 Z-0.1 F2.362205
#506=#2002
G0 Z0.080
X5.06818 Y-1.23554
G38.2 Z-0.1 F2.362205
#513=#2002
G0 Z0.080
X5.06818 Y-1.58910
G38.2 Z-0.1 F2.362205
#512=#2002
G0 Z0.080
X5.06818 Y-1.94266
G38.2 Z-0.1 F2.362205
#511=#2002
G0 Z0.080
X5.06818 Y-2.29622
G38.2 Z-0.1 F2.362205
#510=#2002
G0 Z0.080
X5.06818 Y-2.64978
G38.2 Z-0.1 F2.362205
#509=#2002
G0 Z0.080
X5.06818 Y-3.00334
G38.2 Z-0.1 F2.362205
#508=#2002
G0 Z0.080
X5.06818 Y-3.35689
G38.2 Z-0.1 F2.362205
#507=#2002
G0 Z0.080
X5.45329 Y-3.35689
G38.2 Z-0.1 F2.362205
#514=#2002
G0 Z0.080
X5.45329 Y-3.00334
G38.2 Z-0.1 F2.362205
#515=#2002
G0 Z0.080
X5.45329 Y-2.64978
G38.2 Z-0.1 F2.362205
#516=#2002
G0 Z0.080
X5.45329 Y-2.29622
G38.2 Z-0.1 F2.362205
#517=#2002
G0 Z0.080
X5.45329 Y-1.94266
G38.2 Z-0.1 F2.362205
#518=#2002
G0 Z0.080
X5.45329 Y-1.58910
G38.2 Z-0.1 F2.362205
#519=#2002
G0 Z0.080
X5.45329 Y-1.23554
G38.2 Z-0.1 F2.362205
#520=#2002
G0 Z0.080
X5.83840 Y-1.23554
G38.2 Z-0.1 F2.362205
#527=#2002
G0 Z0.080
X5.83840 Y-1.58910
G38.2 Z-0.1 F2.362205
#526=#2002
G0 Z0.080
X5.83840 Y-1.94266
G38.2 Z-0.1 F2.362205
#525=#2002
G0 Z0.080
X5.83840 Y-2.29622
G38.2 Z-0.1 F2.362205
#524=#2002
G0 Z0.080
X5.83840 Y-2.64978
G38.2 Z-0.1 F2.362205
#523=#2002
G0 Z0.080
X5.83840 Y-3.00334
G38.2 Z-0.1 F2.362205
#522=#2002
G0 Z0.080
X5.83840 Y-3.35689
G38.2 Z-0.1 F2.362205
#521=#2002
G0 Z0.080
X6.22351 Y-3.35689
G38.2 Z-0.1 F2.362205
#528=#2002
G0 Z0.080
X6.22351 Y-3.00334
G38.2 Z-0.1 F2.362205
#529=#2002
G0 Z0.080
X6.22351 Y-2.64978
G38.2 Z-0.1 F2.362205
#530=#2002
G0 Z0.080
X6.22351 Y-2.29622
G38.2 Z-0.1 F2.362205
#531=#2002
G0 Z0.080
X6.22351 Y-1.94266
G38.2 Z-0.1 F2.362205
#532=#2002
G0 Z0.080
X6.22351 Y-1.58910
G38.2 Z-0.1 F2.362205
#533=#2002
G0 Z0.080
X6.22351 Y-1.23554
G38.2 Z-0.1 F2.362205
#534=#2002
G0 Z0.080
X6.60862 Y-1.23554
G38.2 Z-0.1 F2.362205
#541=#2002
G0 Z0.080
X6.60862 Y-1.58910
G38.2 Z-0.1 F2.362205
#540=#2002
G0 Z0.080
X6.60862 Y-1.94266
G38.2 Z-0.1 F2.362205
#539=#2002
G0 Z0.080
X6.60862 Y-2.29622
G38.2 Z-0.1 F2.362205
#538=#2002
G0 Z0.080
X6.60862 Y-2.64978
G38.2 Z-0.1 F2.362205
#537=#2002
G0 Z0.080
X6.60862 Y-3.00334
G38.2 Z-0.1 F2.362205
#536=#2002
G0 Z0.080
X6.60862 Y-3.35689
G38.2 Z-0.1 F2.362205
#535=#2002
G0 Z0.080
X6.99373 Y-3.35689
G38.2 Z-0.1 F2.362205
#542=#2002
G0 Z0.080
X6.99373 Y-3.00334
G38.2 Z-0.1 F2.362205
#543=#2002
G0 Z0.080
X6.99373 Y-2.64978
G38.2 Z-0.1 F2.362205
#544=#2002
G0 Z0.080
X6.99373 Y-2.29622
G38.2 Z-0.1 F2.362205
#545=#2002
G0 Z0.080
X6.99373 Y-1.94266
G38.2 Z-0.1 F2.362205
#546=#2002
G0 Z0.080
X6.99373 Y-1.58910
G38.2 Z-0.1 F2.362205
#547=#2002
G0 Z0.080
X6.99373 Y-1.23554
G38.2 Z-0.1 F2.362205
#548=#2002
G0 Z0.080
X7.37884 Y-1.23554
G38.2 Z-0.1 F2.362205
#555=#2002
G0 Z0.080
X7.37884 Y-1.58910
G38.2 Z-0.1 F2.362205
#554=#2002
G0 Z0.080
X7.37884 Y-1.94266
G38.2 Z-0.1 F2.362205
#553=#2002
G0 Z0.080
X7.37884 Y-2.29622
G38.2 Z-0.1 F2.362205
#552=#2002
G0 Z0.080
X7.37884 Y-2.64978
G38.2 Z-0.1 F2.362205
#551=#2002
G0 Z0.080
X7.37884 Y-3.00334
G38.2 Z-0.1 F2.362205
#550=#2002
G0 Z0.080
X7.37884 Y-3.35689
G38.2 Z-0.1 F2.362205
#549=#2002
G0 Z0.080
X7.76395 Y-3.35689
G38.2 Z-0.1 F2.362205
#556=#2002
G0 Z0.080
X7.76395 Y-3.00334
G38.2 Z-0.1 F2.362205
#557=#2002
G0 Z0.080
X7.76395 Y-2.64978
G38.2 Z-0.1 F2.362205
#558=#2002
G0 Z0.080
X7.76395 Y-2.29622
G38.2 Z-0.1 F2.362205
#559=#2002
G0 Z0.080
X7.76395 Y-1.94266
G38.2 Z-0.1 F2.362205
#560=#2002
G0 Z0.080
X7.76395 Y-1.58910
G38.2 Z-0.1 F2.362205
#561=#2002
G0 Z0.080
X7.76395 Y-1.23554
G38.2 Z-0.1 F2.362205
#562=#2002
G0 Z0.080
X8.14905 Y-1.23554
G38.2 Z-0.1 F2.362205
#569=#2002
G0 Z0.080
X8.14905 Y-1.58910
G38.2 Z-0.1 F2.362205
#568=#2002
G0 Z0.080
X8.14905 Y-1.94266
G38.2 Z-0.1 F2.362205
#567=#2002
G0 Z0.080
X8.14905 Y-2.29622
G38.2 Z-0.1 F2.362205
#566=#2002
G0 Z0.080
X8.14905 Y-2.64978
G38.2 Z-0.1 F2.362205
#565=#2002
G0 Z0.080
X8.14905 Y-3.00334
G38.2 Z-0.1 F2.362205
#564=#2002
G0 Z0.080
X8.14905 Y-3.35689
G38.2 Z-0.1 F2.362205
#563=#2002
G0 Z0.080
X8.53416 Y-3.35689
G38.2 Z-0.1 F2.362205
#570=#2002
G0 Z0.080
X8.53416 Y-3.00334
G38.2 Z-0.1 F2.362205
#571=#2002
G0 Z0.080
X8.53416 Y-2.64978
G38.2 Z-0.1 F2.362205
#572=#2002
G0 Z0.080
X8.53416 Y-2.29622
G38.2 Z-0.1 F2.362205
#573=#2002
G0 Z0.080
X8.53416 Y-1.94266
G38.2 Z-0.1 F2.362205
#574=#2002
G0 Z0.080
X8.53416 Y-1.58910
G38.2 Z-0.1 F2.362205
#575=#2002
G0 Z0.080
X8.53416 Y-1.23554
G38.2 Z-0.1 F2.362205
#576=#2002
G0 Z0.080
X8.91927 Y-1.23554
G38.2 Z-0.1 F2.362205
#583=#2002
G0 Z0.080
X8.91927 Y-1.58910
G38.2 Z-0.1 F2.362205
#582=#2002
G0 Z0.080
X8.91927 Y-1.94266
G38.2 Z-0.1 F2.362205
#581=#2002
G0 Z0.080
X8.91927 Y-2.29622
G38.2 Z-0.1 F2.362205
#580=#2002
G0 Z0.080
X8.91927 Y-2.64978
G38.2 Z-0.1 F2.362205
#579=#2002
G0 Z0.080
X8.91927 Y-3.00334
G38.2 Z-0.1 F2.362205
#578=#2002
G0 Z0.080
X8.91927 Y-3.35689
G38.2 Z-0.1 F2.362205
#577=#2002
G0 Z0.080
X9.30438 Y-3.35689
G38.2 Z-0.1 F2.362205
#584=#2002
G0 Z0.080
X9.30438 Y-3.00334
G38.2 Z-0.1 F2.362205
#585=#2002
G0 Z0.080
X9.30438 Y-2.64978
G38.2 Z-0.1 F2.362205
#586=#2002
G0 Z0.080
X9.30438 Y-2.29622
G38.2 Z-0.1 F2.362205
#587=#2002
G0 Z0.080
X9.30438 Y-1.94266
G38.2 Z-0.1 F2.362205
#588=#2002
G0 Z0.080
X9.30438 Y-1.58910
G38.2 Z-0.1 F2.362205
#589=#2002
G0 Z0.080
X9.30438 Y-1.23554
G38.2 Z-0.1 F2.362205
#590=#2002
G0 Z0.080
X9.68949 Y-1.23554
G38.2 Z-0.1 F2.362205
#597=#2002
G0 Z0.080
X9.68949 Y-1.58910
G38.2 Z-0.1 F2.362205
#596=#2002
G0 Z0.080
X9.68949 Y-1.94266
G38.2 Z-0.1 F2.362205
#595=#2002
G0 Z0.080
X9.68949 Y-2.29622
G38.2 Z-0.1 F2.362205
#594=#2002
G0 Z0.080
X9.68949 Y-2.64978
G38.2 Z-0.1 F2.362205
#593=#2002
G0 Z0.080
X9.68949 Y-3.00334
G38.2 Z-0.1 F2.362205
#592=#2002
G0 Z0.080
X9.68949 Y-3.35689
G38.2 Z-0.1 F2.362205
#591=#2002
G0 Z0.080
X10.07460 Y-3.35689
G38.2 Z-0.1 F2.362205
#598=#2002
G0 Z0.080
X10.07460 Y-3.00334
G38.2 Z-0.1 F2.362205
#599=#2002
G0 Z0.080
X10.07460 Y-2.64978
G38.2 Z-0.1 F2.362205
#600=#2002
G0 Z0.080
X10.07460 Y-2.29622
G38.2 Z-0.1 F2.362205
#601=#2002
G0 Z0.080
X10.07460 Y-1.94266
G38.2 Z-0.1 F2.362205
#602=#2002
G0 Z0.080
X10.07460 Y-1.58910
G38.2 Z-0.1 F2.362205
#603=#2002
G0 Z0.080
X10.07460 Y-1.23554
G38.2 Z-0.1 F2.362205
#604=#2002
G0 Z0.080
X10.45971 Y-1.23554
G38.2 Z-0.1 F2.362205
#611=#2002
G0 Z0.080
X10.45971 Y-1.58910
G38.2 Z-0.1 F2.362205
#610=#2002
G0 Z0.080
X10.45971 Y-1.94266
G38.2 Z-0.1 F2.362205
#609=#2002
G0 Z0.080
X10.45971 Y-2.29622
G38.2 Z-0.1 F2.362205
#608=#2002
G0 Z0.080
X10.45971 Y-2.64978
G38.2 Z-0.1 F2.362205
#607=#2002
G0 Z0.080
X10.45971 Y-3.00334
G38.2 Z-0.1 F2.362205
#606=#2002
G0 Z0.080
X10.45971 Y-3.35689
G38.2 Z-0.1 F2.362205
#605=#2002
G0 Z0.080
X10.84482 Y-3.35689
G38.2 Z-0.1 F2.362205
#612=#2002
G0 Z0.080
X10.84482 Y-3.00334
G38.2 Z-0.1 F2.362205
#613=#2002
G0 Z0.080
X10.84482 Y-2.64978
G38.2 Z-0.1 F2.362205
#614=#2002
G0 Z0.080
X10.84482 Y-2.29622
G38.2 Z-0.1 F2.362205
#615=#2002
G0 Z0.080
X10.84482 Y-1.94266
G38.2 Z-0.1 F2.362205
#616=#2002
G0 Z0.080
X10.84482 Y-1.58910
G38.2 Z-0.1 F2.362205
#617=#2002
G0 Z0.080
X10.84482 Y-1.23554
G38.2 Z-0.1 F2.362205
#618=#2002

G0 Z0.080 ( Move Z to safe height )
( Probing has ended, each Z-coordinate will be corrected with a bilinear interpolation )
(MSG, Detach the probe tool)
M0 ( Temporary machine stop. )

#4 = -0.04000

G01 F360.00000 ( Feedrate. )
M3 ( Spindle on clockwise. )
G04 P1.00000
( Piece #1, position [0;0] )

G04 P0 ( dwell for no time -- G64 should not smooth over this point )
G00 Z0.08000 ( retract )

G00 X4.68508 Y-2.97619 ( rapid move to begin. )
G01 F180.00000
#1=[#501+[#502-#501]*0.07678]
#2=[#508+[#509-#508]*0.07678]
#3=[#1+[#2-#1]*0.00519]
G01 Z[-0.04000+#111]
G04 P0 ( dwell for no time -- G64 should not smooth over this point )
G01 F360.00000
#1=[#501+[#502-#501]*0.78388]
#2=[#508+[#509-#508]*0.78388]
#3=[#1+[#2-#1]*0.00519]
X4.68508 Y-2.72619 Z[#3+#4]
#1=[#502+[#503-#502]*0.49097]
#2=[#509+[#510-#509]*0.49097]
#3=[#1+[#2-#1]*0.00519]
X4.68508 Y-2.47619 Z[#3+#4]
#1=[#502+[#503-#502]*0.51228]
#2=[#509+[#510-#509]*0.51228]
#3=[#1+[#2-#1]*0.00909]
X4.68658 Y-2.46866 Z[#3+#4]
#1=[#502+[#503-#502]*0.52190]
#2=[#509+[#510-#509]*0.52190]
#3=[#1+[#2-#1]*0.01381]
X4.68839 Y-2.46525 Z[#3+#4]
#1=[#502+[#503-#502]*0.53727]
#2=[#509+[#510-#509]*0.53727]
#3=[#1+[#2-#1]*0.02791]
X4.69383 Y-2.45982 Z[#3+#4]
#1=[#502+[#503-#502]*0.54241]
#2=[#509+[#510-#509]*0.54241]
#3=[#1+[#2-#1]*0.03675]
X4.69723 Y-2.45800 Z[#3+#4]
#1=[#502+[#503-#502]*0.54665]
#2=[#509+[#510-#509]*0.54665]
#3=[#1+[#2-#1]*0.05631]
X4.70476 Y-2.45650 Z[#3+#4]
#1=[#502+[#503-#502]*0.54665]
#2=[#509+[#510-#509]*0.54665]
#3=[#1+[#2-#1]*0.67457]
X4.94286 Y-2.45650 Z[#3+#4]
#1=[#502+[#503-#502]*0.54543]
#2=[#509+[#510-#509]*0.54543]
#3=[#1+[#2-#1]*0.68519]
X4.94695 Y-2.45694 Z[#3+#4]
#1=[#502+[#503-#502]*0.54184]
#2=[#509+[#510-#509]*0.54184]
#3=[#1+[#2-#1]*0.69535]
X4.95086 Y-2.45821 Z[#3+#4]
#1=[#502+[#503-#502]*0.53602]
#2=[#509+[#510-#509]*0.53602]
#3=[#1+[#2-#1]*0.70461]
X4.95443 Y-2.46026 Z[#3+#4]
#1=[#502+[#503-#502]*0.52823]
#2=[#509+[#510-#509]*0.52823]
#3=[#1+[#2-#1]*0.71255]
X4.95749 Y-2.46302 Z[#3+#4]
#1=[#502+[#503-#502]*0.51881]
#2=[#509+[#510-#509]*0.51881]
#3=[#1+[#2-#1]*0.71883]
X4.95990 Y-2.46635 Z[#3+#4]
#1=[#502+[#503-#502]*0.50818]
#2=[#509+[#510-#509]*0.50818]
#3=[#1+[#2-#1]*0.72318]
X4.96158 Y-2.47011 Z[#3+#4]
#1=[#502+[#503-#502]*0.49679]
#2=[#509+[#510-#509]*0.49679]
#3=[#1+[#2-#1]*0.72540]
X4.96243 Y-2.47413 Z[#3+#4]
#1=[#502+[#503-#502]*0.48515]
#2=[#509+[#510-#509]*0.48515]
#3=[#1+[#2-#1]*0.72540]
X4.96243 Y-2.47825 Z[#3+#4]
#1=[#502+[#503-#502]*0.47377]
#2=[#509+[#510-#509]*0.47377]
#3=[#1+[#2-#1]*0.72318]
X4.96158 Y-2.48227 Z[#3+#4]
#1=[#502+[#503-#502]*0.46314]
#2=[#509+[#510-#509]*0.46314]
#3=[#1+[#2-#1]*0.71883]
X4.95990 Y-2.48603 Z[#3+#4]
#1=[#502+[#503-#502]*0.45372]
#2=[#509+[#510-#509]*0.45372]
#3=[#1+[#2-#1]*0.71255]
X4.95749 Y-2.48936 Z[#3+#4]
#1=[#502+[#503-#502]*0.44593]
#2=[#509+[#510-#509]*0.44593]
#3=[#1+[#2-#1]*0.70461]
X4.95443 Y-2.49212 Z[#3+#4]
#1=[#502+[#503-#502]*0.44011]
#2=[#509+[#510-#509]*0.44011]
#3=[#1+[#2-#1]*0.69535]
X4.95086 Y-2.49417 Z[#3+#4]
#1=[#502+[#503-#502]*0.43651]
#2=[#509+[#510-#509]*0.43651]
#3=[#1+[#2-#1]*0.68519]
X4.94695 Y-2.49545 Z[#3+#4]
#1=[#502+[#503-#502]*0.43530]
#2=[#509+[#510-#509]*0.43530]
#3=[#1+[#2-#1]*0.67457]
X4.94286 Y-2.49587 Z[#3+#4]
#1=[#502+[#503-#502]*0.43530]
#2=[#509+[#510-#509]*0.43530]
#3=[#1+[#2-#1]*0.10742]
X4.72445 Y-2.49587 Z[#3+#4]
#1=[#501+[#502-#501]*0.87322]
#2=[#508+[#509-#508]*0.87322]
#3=[#1+[#2-#1]*0.10742]
X4.72445 Y-2.69460 Z[#3+#4]
#1=[#501+[#502-#501]*0.87322]
#2=[#508+[#509-#508]*0.87322]
#3=[#1+[#2-#1]*0.48909]
X4.87143 Y-2.69460 Z[#3+#4]
#1=[#501+[#502-#501]*0.87201]
#2=[#508+[#509-#508]*0.87201]
#3=[#1+[#2-#1]*0.49972]
X4.87552 Y-2.69503 Z[#3+#4]
#1=[#501+[#502-#501]*0.86841]
#2=[#508+[#509-#508]*0.86841]
#3=[#1+[#2-#1]*0.50988]
X4.87943 Y-2.69630 Z[#3+#4]
#1=[#501+[#502-#501]*0.86259]
#2=[#508+[#509-#508]*0.86259]
#3=[#1+[#2-#1]*0.51913]
X4.88300 Y-2.69836 Z[#3+#4]
#1=[#501+[#502-#501]*0.85480]
#2=[#508+[#509-#508]*0.85480]
#3=[#1+[#2-#1]*0.52707]
X4.88606 Y-2.70111 Z[#3+#4]
#1=[#501+[#502-#501]*0.84538]
#2=[#508+[#509-#508]*0.84538]
#3=[#1+[#2-#1]*0.53336]
X4.88848 Y-2.70444 Z[#3+#4]
#1=[#501+[#502-#501]*0.83475]
#2=[#508+[#509-#508]*0.83475]
#3=[#1+[#2-#1]*0.53770]
X4.89015 Y-2.70820 Z[#3+#4]
#1=[#501+[#502-#501]*0.82337]
#2=[#508+[#509-#508]*0.82337]
#3=[#1+[#2-#1]*0.53992]
X4.89100 Y-2.71223 Z[#3+#4]
#1=[#501+[#502-#501]*0.81173]
#2=[#508+[#509-#508]*0.81173]
#3=[#1+[#2-#1]*0.53992]
X4.89100 Y-2.71634 Z[#3+#4]
#1=[#501+[#502-#501]*0.80034]
#2=[#508+[#509-#508]*0.80034]
#3=[#1+[#2-#1]*0.53770]
X4.89015 Y-2.72037 Z[#3+#4]
#1=[#501+[#502-#501]*0.78971]
#2=[#508+[#509-#508]*0.78971]
#3=[#1+[#2-#1]*0.53336]
X4.88848 Y-2.72413 Z[#3+#4]
#1=[#501+[#502-#501]*0.78029]
#2=[#508+[#509-#508]*0.78029]
#3=[#1+[#2-#1]*0.52707]
X4.88606 Y-2.72746 Z[#3+#4]
#1=[#501+[#502-#501]*0.77250]
#2=[#508+[#509-#508]*0.77250]
#3=[#1+[#2-#1]*0.51913]
X4.88300 Y-2.73021 Z[#3+#4]
#1=[#501+[#502-#501]*0.76668]
#2=[#508+[#509-#508]*0.76668]
#3=[#1+[#2-#1]*0.50988]
X4.87943 Y-2.73227 Z[#3+#4]
#1=[#501+[#502-#501]*0.76309]
#2=[#508+[#509-#508]*0.76309]
#3=[#1+[#2-#1]*0.49972]
X4.87552 Y-2.73354 Z[#3+#4]
#1=[#501+[#502-#501]*0.76187]
#2=[#508+[#509-#508]*0.76187]
#3=[#1+[#2-#1]*0.48909]
X4.87143 Y-2.73397 Z[#3+#4]
#1=[#501+[#502-#501]*0.76187]
#2=[#508+[#509-#508]*0.76187]
#3=[#1+[#2-#1]*0.10742]
X4.72445 Y-2.73397 Z[#3+#4]
#1=[#501+[#502-#501]*0.07678]
#2=[#508+[#509-#508]*0.07678]
#3=[#1+[#2-#1]*0.10742]
X4.72445 Y-2.97619 Z[#3+#4]
#1=[#501+[#502-#501]*0.06520]
#2=[#508+[#509-#508]*0.06520]
#3=[#1+[#2-#1]*0.10631]
X4.72402 Y-2.98028 Z[#3+#4]
#1=[#501+[#502-#501]*0.05413]
#2=[#508+[#509-#508]*0.05413]
#3=[#1+[#2-#1]*0.10301]
X4.72274 Y-2.98420 Z[#3+#4]
#1=[#501+[#502-#501]*0.04405]
#2=[#508+[#509-#508]*0.04405]
#3=[#1+[#2-#1]*0.09766]
X4.72069 Y-2.98776 Z[#3+#4]
#1=[#501+[#502-#501]*0.03540]
#2=[#508+[#509-#508]*0.03540]
#3=[#1+[#2-#1]*0.09051]
X4.71793 Y-2.99082 Z[#3+#4]
#1=[#501+[#502-#501]*0.02856]
#2=[#508+[#509-#508]*0.02856]
#3=[#1+[#2-#1]*0.08187]
X4.71460 Y-2.99324 Z[#3+#4]
#1=[#501+[#502-#501]*0.02383]
#2=[#508+[#509-#508]*0.02383]
#3=[#1+[#2-#1]*0.07210]
X4.71084 Y-2.99491 Z[#3+#4]
#1=[#501+[#502-#501]*0.02141]
#2=[#508+[#509-#508]*0.02141]
#3=[#1+[#2-#1]*0.06165]
X4.70682 Y-2.99577 Z[#3+#4]
#1=[#501+[#502-#501]*0.02141]
#2=[#508+[#509-#508]*0.02141]
#3=[#1+[#2-#1]*0.05097]
X4.70270 Y-2.99577 Z[#3+#4]
#1=[#501+[#502-#501]*0.02383]
#2=[#508+[#509-#508]*0.02383]
#3=[#1+[#2-#1]*0.04051]
X4.69868 Y-2.99491 Z[#3+#4]
#1=[#501+[#502-#501]*0.02856]
#2=[#508+[#509-#508]*0.02856]
#3=[#1+[#2-#1]*0.03075]
X4.69492 Y-2.99324 Z[#3+#4]
#1=[#501+[#502-#501]*0.03540]
#2=[#508+[#509-#508]*0.03540]
#3=[#1+[#2-#1]*0.02211]
X4.69159 Y-2.99082 Z[#3+#4]
#1=[#501+[#502-#501]*0.04405]
#2=[#508+[#509-#508]*0.04405]
#3=[#1+[#2-#1]*0.01496]
X4.68884 Y-2.98776 Z[#3+#4]
#1=[#501+[#502-#501]*0.05413]
#2=[#508+[#509-#508]*0.05413]
#3=[#1+[#2-#1]*0.00961]
X4.68678 Y-2.98420 Z[#3+#4]
#1=[#501+[#502-#501]*0.06520]
#2=[#508+[#509-#508]*0.06520]
#3=[#1+[#2-#1]*0.00631]
X4.68551 Y-2.98028 Z[#3+#4]
#1=[#501+[#502-#501]*0.07678]
#2=[#508+[#509-#508]*0.07678]
#3=[#1+[#2-#1]*0.00519]
X4.68508 Y-2.97619 Z[#3+#4]
G04 P0 ( dwell for no time -- G64 should not smooth over this point )
G00 Z0.08000 ( retract )

G00 X5.11365 Y-2.97619 ( rapid move to begin. )
G01 F180.00000
#1=[#508+[#509-#508]*0.07678]
#2=[#515+[#516-#515]*0.07678]
#3=[#1+[#2-#1]*0.11805]
G01 Z[-0.04000+#111]
G04 P0 ( dwell for no time -- G64 should not smooth over this point )
G01 F360.00000
#1=[#509+[#510-#509]*0.01957]
#2=[#516+[#517-#516]*0.01957]
#3=[#1+[#2-#1]*0.11805]
X5.11365 Y-2.64286 Z[#3+#4]
#1=[#509+[#510-#509]*0.03115]
#2=[#516+[#517-#516]*0.03115]
#3=[#1+[#2-#1]*0.11917]
X5.11408 Y-2.63876 Z[#3+#4]
#1=[#509+[#510-#509]*0.04222]
#2=[#516+[#517-#516]*0.04222]
#3=[#1+[#2-#1]*0.12247]
X5.11535 Y-2.63485 Z[#3+#4]
#1=[#509+[#510-#509]*0.05230]
#2=[#516+[#517-#516]*0.05230]
#3=[#1+[#2-#1]*0.12781]
X5.11741 Y-2.63129 Z[#3+#4]
#1=[#509+[#510-#509]*0.06095]
#2=[#516+[#517-#516]*0.06095]
#3=[#1+[#2-#1]*0.13497]
X5.12016 Y-2.62823 Z[#3+#4]
#1=[#509+[#510-#509]*0.06779]
#2=[#516+[#517-#516]*0.06779]
#3=[#1+[#2-#1]*0.14361]
X5.12349 Y-2.62581 Z[#3+#4]
#1=[#509+[#510-#509]*0.07253]
#2=[#516+[#517-#516]*0.07253]
#3=[#1+[#2-#1]*0.15337]
X5.12725 Y-2.62413 Z[#3+#4]
#1=[#509+[#510-#509]*0.07495]
#2=[#516+[#517-#516]*0.07495]
#3=[#1+[#2-#1]*0.16382]
X5.13127 Y-2.62328 Z[#3+#4]
#1=[#509+[#510-#509]*0.07495]
#2=[#516+[#517-#516]*0.07495]
#3=[#1+[#2-#1]*0.17451]
X5.13539 Y-2.62328 Z[#3+#4]
#1=[#509+[#510-#509]*0.07253]
#2=[#516+[#517-#516]*0.07253]
#3=[#1+[#2-#1]*0.18496]
X5.13942 Y-2.62413 Z[#3+#4]
#1=[#509+[#510-#509]*0.06779]
#2=[#516+[#517-#516]*0.06779]
#3=[#1+[#2-#1]*0.19473]
X5.14318 Y-2.62581 Z[#3+#4]
#1=[#509+[#510-#509]*0.06095]
#2=[#516+[#517-#516]*0.06095]
#3=[#1+[#2-#1]*0.20337]
X5.14651 Y-2.62823 Z[#3+#4]
#1=[#509+[#510-#509]*0.05230]
#2=[#516+[#517-#516]*0.05230]
#3=[#1+[#2-#1]*0.21052]
X5.14926 Y-2.63129 Z[#3+#4]
#1=[#509+[#510-#509]*0.04222]
#2=[#516+[#517-#516]*0.04222]
#3=[#1+[#2-#1]*0.21586]
X5.15132 Y-2.63485 Z[#3+#4]
#1=[#509+[#510-#509]*0.03115]
#2=[#516+[#517-#516]*0.03115]
#3=[#1+[#2-#1]*0.21917]
X5.15259 Y-2.63876 Z[#3+#4]
#1=[#508+[#509-#508]*0.95196]
#2=[#515+[#516-#515]*0.95196]
#3=[#1+[#2-#1]*0.22028]
X5.15302 Y-2.66676 Z[#3+#4]
#1=[#508+[#509-#508]*0.99740]
#2=[#515+[#516-#515]*0.99740]
#3=[#1+[#2-#1]*0.26293]
X5.16944 Y-2.65070 Z[#3+#4]
#1=[#509+[#510-#509]*0.07261]
#2=[#516+[#517-#516]*0.07261]
#3=[#1+[#2-#1]*0.40092]
X5.22258 Y-2.62410 Z[#3+#4]
#1=[#509+[#510-#509]*0.07525]
#2=[#516+[#517-#516]*0.07525]
#3=[#1+[#2-#1]*0.41647]
X5.22857 Y-2.62317 Z[#3+#4]
#1=[#509+[#510-#509]*0.07525]
#2=[#516+[#517-#516]*0.07525]
#3=[#1+[#2-#1]*0.54012]
X5.27619 Y-2.62317 Z[#3+#4]
#1=[#509+[#510-#509]*0.07403]
#2=[#516+[#517-#516]*0.07403]
#3=[#1+[#2-#1]*0.55075]
X5.28028 Y-2.62360 Z[#3+#4]
#1=[#509+[#510-#509]*0.07044]
#2=[#516+[#517-#516]*0.07044]
#3=[#1+[#2-#1]*0.56091]
X5.28420 Y-2.62487 Z[#3+#4]
#1=[#509+[#510-#509]*0.06462]
#2=[#516+[#517-#516]*0.06462]
#3=[#1+[#2-#1]*0.57017]
X5.28776 Y-2.62693 Z[#3+#4]
#1=[#509+[#510-#509]*0.05683]
#2=[#516+[#517-#516]*0.05683]
#3=[#1+[#2-#1]*0.57811]
X5.29082 Y-2.62968 Z[#3+#4]
#1=[#509+[#510-#509]*0.04741]
#2=[#516+[#517-#516]*0.04741]
#3=[#1+[#2-#1]*0.58439]
X5.29324 Y-2.63301 Z[#3+#4]
#1=[#509+[#510-#509]*0.03678]
#2=[#516+[#517-#516]*0.03678]
#3=[#1+[#2-#1]*0.58874]
X5.29491 Y-2.63677 Z[#3+#4]
#1=[#509+[#510-#509]*0.02539]
#2=[#516+[#517-#516]*0.02539]
#3=[#1+[#2-#1]*0.59096]
X5.29577 Y-2.64080 Z[#3+#4]
#1=[#509+[#510-#509]*0.01376]
#2=[#516+[#517-#516]*0.01376]
#3=[#1+[#2-#1]*0.59096]
X5.29577 Y-2.64491 Z[#3+#4]
#1=[#509+[#510-#509]*0.00237]
#2=[#516+[#517-#516]*0.00237]
#3=[#1+[#2-#1]*0.58874]
X5.29491 Y-2.64894 Z[#3+#4]
#1=[#508+[#509-#508]*0.99174]
#2=[#515+[#516-#515]*0.99174]
#3=[#1+[#2-#1]*0.58439]
X5.29324 Y-2.65270 Z[#3+#4]
#1=[#508+[#509-#508]*0.98232]
#2=[#515+[#516-#515]*0.98232]
#3=[#1+[#2-#1]*0.57811]
X5.29082 Y-2.65603 Z[#3+#4]
#1=[#508+[#509-#508]*0.97453]
#2=[#515+[#516-#515]*0.97453]
#3=[#1+[#2-#1]*0.57017]
X5.28776 Y-2.65878 Z[#3+#4]
#1=[#508+[#509-#508]*0.96871]
#2=[#515+[#516-#515]*0.96871]
#3=[#1+[#2-#1]*0.56091]
X5.28420 Y-2.66084 Z[#3+#4]
#1=[#508+[#509-#508]*0.96511]
#2=[#515+[#516-#515]*0.96511]
#3=[#1+[#2-#1]*0.55075]
X5.28028 Y-2.66211 Z[#3+#4]
#1=[#508+[#509-#508]*0.96390]
#2=[#515+[#516-#515]*0.96390]
#3=[#1+[#2-#1]*0.54012]
X5.27619 Y-2.66254 Z[#3+#4]
#1=[#508+[#509-#508]*0.96390]
#2=[#515+[#516-#515]*0.96390]
#3=[#1+[#2-#1]*0.42854]
X5.23322 Y-2.66254 Z[#3+#4]
#1=[#508+[#509-#508]*0.90647]
#2=[#515+[#516-#515]*0.90647]
#3=[#1+[#2-#1]*0.32310]
X5.19261 Y-2.68284 Z[#3+#4]
#1=[#508+[#509-#508]*0.85191]
#2=[#515+[#516-#515]*0.85191]
#3=[#1+[#2-#1]*0.27300]
X5.17332 Y-2.70214 Z[#3+#4]
#1=[#508+[#509-#508]*0.73706]
#2=[#515+[#516-#515]*0.73706]
#3=[#1+[#2-#1]*0.22028]
X5.15302 Y-2.74274 Z[#3+#4]
#1=[#508+[#509-#508]*0.07678]
#2=[#515+[#516-#515]*0.07678]
#3=[#1+[#2-#1]*0.22028]
X5.15302 Y-2.97619 Z[#3+#4]
#1=[#508+[#509-#508]*0.06520]
#2=[#515+[#516-#515]*0.06520]
#3=[#1+[#2-#1]*0.21917]
X5.15259 Y-2.98028 Z[#3+#4]
#1=[#508+[#509-#508]*0.05413]
#2=[#515+[#516-#515]*0.05413]
#3=[#1+[#2-#1]*0.21586]
X5.15132 Y-2.98420 Z[#3+#4]
#1=[#508+[#509-#508]*0.04405]
#2=[#515+[#516-#515]*0.04405]
#3=[#1+[#2-#1]*0.21052]
X5.14926 Y-2.98776 Z[#3+#4]
#1=[#508+[#509-#508]*0.03540]
#2=[#515+[#516-#515]*0.03540]
#3=[#1+[#2-#1]*0.20337]
X5.14651 Y-2.99082 Z[#3+#4]
#1=[#508+[#509-#508]*0.02856]
#2=[#515+[#516-#515]*0.02856]
#3=[#1+[#2-#1]*0.19473]
X5.14318 Y-2.99324 Z[#3+#4]
#1=[#508+[#509-#508]*0.02383]
#2=[#515+[#516-#515]*0.02383]
#3=[#1+[#2-#1]*0.18496]
X5.13942 Y-2.99491 Z[#3+#4]
#1=[#508+[#509-#508]*0.02141]
#2=[#515+[#516-#515]*0.02141]
#3=[#1+[#2-#1]*0.17451]
X5.13539 Y-2.99577 Z[#3+#4]
#1=[#508+[#509-#508]*0.02141]
#2=[#515+[#516-#515]*0.02141]
#3=[#1+[#2-#1]*0.16382]
X5.13127 Y-2.99577 Z[#3+#4]
#1=[#508+[#509-#508]*0.02383]
#2=[#515+[#516-#515]*0.02383]
#3=[#1+[#2-#1]*0.15337]
X5.12725 Y-2.99491 Z[#3+#4]
#1=[#508+[#509-#508]*0.02856]
#2=[#515+[#516-#515]*0.02856]
#3=[#1+[#2-#1]*0.14361]
X5.12349 Y-2.99324 Z[#3+#4]
#1=[#508+[#509-#508]*0.03540]
#2=[#515+[#516-#515]*0.03540]
#3=[#1+[#2-#1]*0.13497]
X5.12016 Y-2.99082 Z[#3+#4]
#1=[#508+[#509-#508]*0.04405]
#2=[#515+[#516-#515]*0.04405]
#3=[#1+[#2-#1]*0.12781]
X5.11741 Y-2.98776 Z[#3+#4]
#1=[#508+[#509-#508]*0.05413]
#2=[#515+[#516-#515]*0.05413]
#3=[#1+[#2-#1]*0.12247]
X5.11535 Y-2.98420 Z[#3+#4]
#1=[#508+[#509-#508]*0.06520]
#2=[#515+[#516-#515]*0.06520]
#3=[#1+[#2-#1]*0.11917]
X5.11408 Y-2.98028 Z[#3+#4]
#1=[#508+[#509-#508]*0.07678]
#2=[#515+[#516-#515]*0.07678]
#3=[#1+[#2-#1]*0.11805]
X5.11365 Y-2.97619 Z[#3+#4]
G04 P0 ( dwell for no time -- G64 should not smooth over this point )
G00 Z0.08000 ( retract )

G00 X5.39936 Y-2.88095 ( rapid move to begin. )
G01 F180.00000
#1=[#508+[#509-#508]*0.34615]
#2=[#515+[#516-#515]*0.34615]
#3=[#1+[#2-#1]*0.85996]
G01 Z[-0.04000+#111]
G04 P0 ( dwell for no time -- G64 should not smooth over this point )
G01 F360.00000
#1=[#508+[#509-#508]*0.75020]
#2=[#515+[#516-#515]*0.75020]
#3=[#1+[#2-#1]*0.85996]
X5.39936 Y-2.73809 Z[#3+#4]
#1=[#508+[#509-#508]*0.76714]
#2=[#515+[#516-#515]*0.76714]
#3=[#1+[#2-#1]*0.86238]
X5.40029 Y-2.73211 Z[#3+#4]
#1=[#508+[#509-#508]*0.91744]
#2=[#515+[#516-#515]*0.91744]
#3=[#1+[#2-#1]*0.93143]
X5.42689 Y-2.67897 Z[#3+#4]
#1=[#515+[#516-#515]*0.99740]
#2=[#522+[#523-#522]*0.99740]
#3=[#1+[#2-#1]*0.00484]
X5.45516 Y-2.65070 Z[#3+#4]
#1=[#516+[#517-#516]*0.06937]
#2=[#523+[#524-#523]*0.06937]
#3=[#1+[#2-#1]*0.13552]
X5.50548 Y-2.62525 Z[#3+#4]
#1=[#516+[#517-#516]*0.07459]
#2=[#523+[#524-#523]*0.07459]
#3=[#1+[#2-#1]*0.15051]
X5.51126 Y-2.62341 Z[#3+#4]
#1=[#516+[#517-#516]*0.07459]
#2=[#523+[#524-#523]*0.07459]
#3=[#1+[#2-#1]*0.35172]
X5.58874 Y-2.62341 Z[#3+#4]
#1=[#516+[#517-#516]*0.06937]
#2=[#523+[#524-#523]*0.06937]
#3=[#1+[#2-#1]*0.36671]
X5.59452 Y-2.62525 Z[#3+#4]
#1=[#515+[#516-#515]*0.99740]
#2=[#522+[#523-#522]*0.99740]
#3=[#1+[#2-#1]*0.49739]
X5.64484 Y-2.65070 Z[#3+#4]
#1=[#515+[#516-#515]*0.91744]
#2=[#522+[#523-#522]*0.91744]
#3=[#1+[#2-#1]*0.57080]
X5.67311 Y-2.67897 Z[#3+#4]
#1=[#515+[#516-#515]*0.77510]
#2=[#522+[#523-#522]*0.77510]
#3=[#1+[#2-#1]*0.63687]
X5.69856 Y-2.72929 Z[#3+#4]
#1=[#515+[#516-#515]*0.75877]
#2=[#522+[#523-#522]*0.75877]
#3=[#1+[#2-#1]*0.64166]
X5.70040 Y-2.73507 Z[#3+#4]
#1=[#515+[#516-#515]*0.33758]
#2=[#522+[#523-#522]*0.33758]
#3=[#1+[#2-#1]*0.64166]
X5.70040 Y-2.88398 Z[#3+#4]
#1=[#515+[#516-#515]*0.32125]
#2=[#522+[#523-#522]*0.32125]
#3=[#1+[#2-#1]*0.63687]
X5.69856 Y-2.88976 Z[#3+#4]
#1=[#515+[#516-#515]*0.17891]
#2=[#522+[#523-#522]*0.17891]
#3=[#1+[#2-#1]*0.57080]
X5.67311 Y-2.94008 Z[#3+#4]
#1=[#515+[#516-#515]*0.09895]
#2=[#522+[#523-#522]*0.09895]
#3=[#1+[#2-#1]*0.49739]
X5.64484 Y-2.96835 Z[#3+#4]
#1=[#515+[#516-#515]*0.02698]
#2=[#522+[#523-#522]*0.02698]
#3=[#1+[#2-#1]*0.36671]
X5.59452 Y-2.99380 Z[#3+#4]
#1=[#515+[#516-#515]*0.02177]
#2=[#522+[#523-#522]*0.02177]
#3=[#1+[#2-#1]*0.35172]
X5.58874 Y-2.99564 Z[#3+#4]
#1=[#515+[#516-#515]*0.02110]
#2=[#522+[#523-#522]*0.02110]
#3=[#1+[#2-#1]*0.15838]
X5.51429 Y-2.99587 Z[#3+#4]
#1=[#515+[#516-#515]*0.02374]
#2=[#522+[#523-#522]*0.02374]
#3=[#1+[#2-#1]*0.14283]
X5.50830 Y-2.99494 Z[#3+#4]
#1=[#515+[#516-#515]*0.09895]
#2=[#522+[#523-#522]*0.09895]
#3=[#1+[#2-#1]*0.00484]
X5.45516 Y-2.96835 Z[#3+#4]
#1=[#508+[#509-#508]*0.17210]
#2=[#515+[#516-#515]*0.17210]
#3=[#1+[#2-#1]*0.93675]
X5.42894 Y-2.94249 Z[#3+#4]
#1=[#508+[#509-#508]*0.18657]
#2=[#515+[#516-#515]*0.18657]
#3=[#1+[#2-#1]*0.92718]
X5.42525 Y-2.93737 Z[#3+#4]
#1=[#508+[#509-#508]*0.32242]
#2=[#515+[#516-#515]*0.32242]
#3=[#1+[#2-#1]*0.86495]
X5.40128 Y-2.88934 Z[#3+#4]
#1=[#508+[#509-#508]*0.33457]
#2=[#515+[#516-#515]*0.33457]
#3=[#1+[#2-#1]*0.86107]
X5.39979 Y-2.88504 Z[#3+#4]
#1=[#508+[#509-#508]*0.34615]
#2=[#515+[#516-#515]*0.34615]
#3=[#1+[#2-#1]*0.85996]
X5.39936 Y-2.88095 Z[#3+#4]
G04 P0 ( dwell for no time -- G64 should not smooth over this point )
G00 Z0.08000 ( retract )

G00 X5.43873 Y-2.87630 ( rapid move to begin. )
G01 F180.00000
#1=[#508+[#509-#508]*0.35929]
#2=[#515+[#516-#515]*0.35929]
#3=[#1+[#2-#1]*0.96219]
G01 Z[-0.04000+#111]
G04 P0 ( dwell for no time -- G64 should not smooth over this point )
G01 F360.00000
#1=[#508+[#509-#508]*0.73706]
#2=[#515+[#516-#515]*0.73706]
#3=[#1+[#2-#1]*0.96219]
X5.43873 Y-2.74274 Z[#3+#4]
#1=[#515+[#516-#515]*0.85191]
#2=[#522+[#523-#522]*0.85191]
#3=[#1+[#2-#1]*0.01491]
X5.45904 Y-2.70214 Z[#3+#4]
#1=[#515+[#516-#515]*0.90647]
#2=[#522+[#523-#522]*0.90647]
#3=[#1+[#2-#1]*0.06500]
X5.47833 Y-2.68284 Z[#3+#4]
#1=[#515+[#516-#515]*0.96390]
#2=[#522+[#523-#522]*0.96390]
#3=[#1+[#2-#1]*0.17044]
X5.51893 Y-2.66254 Z[#3+#4]
#1=[#515+[#516-#515]*0.96390]
#2=[#522+[#523-#522]*0.96390]
#3=[#1+[#2-#1]*0.33179]
X5.58107 Y-2.66254 Z[#3+#4]
#1=[#515+[#516-#515]*0.90647]
#2=[#522+[#523-#522]*0.90647]
#3=[#1+[#2-#1]*0.43722]
X5.62167 Y-2.68284 Z[#3+#4]
#1=[#515+[#516-#515]*0.85191]
#2=[#522+[#523-#522]*0.85191]
#3=[#1+[#2-#1]*0.48732]
X5.64096 Y-2.70214 Z[#3+#4]
#1=[#515+[#516-#515]*0.73706]
#2=[#522+[#523-#522]*0.73706]
#3=[#1+[#2-#1]*0.54004]
X5.66127 Y-2.74274 Z[#3+#4]
#1=[#515+[#516-#515]*0.35929]
#2=[#522+[#523-#522]*0.35929]
#3=[#1+[#2-#1]*0.54004]
X5.66127 Y-2.87630 Z[#3+#4]
#1=[#515+[#516-#515]*0.24445]
#2=[#522+[#523-#522]*0.24445]
#3=[#1+[#2-#1]*0.48732]
X5.64096 Y-2.91691 Z[#3+#4]
#1=[#515+[#516-#515]*0.18988]
#2=[#522+[#523-#522]*0.18988]
#3=[#1+[#2-#1]*0.43722]
X5.62167 Y-2.93620 Z[#3+#4]
#1=[#515+[#516-#515]*0.13246]
#2=[#522+[#523-#522]*0.13246]
#3=[#1+[#2-#1]*0.33179]
X5.58107 Y-2.95650 Z[#3+#4]
#1=[#515+[#516-#515]*0.13246]
#2=[#522+[#523-#522]*0.13246]
#3=[#1+[#2-#1]*0.17044]
X5.51893 Y-2.95650 Z[#3+#4]
#1=[#515+[#516-#515]*0.18988]
#2=[#522+[#523-#522]*0.18988]
#3=[#1+[#2-#1]*0.06500]
X5.47833 Y-2.93620 Z[#3+#4]
#1=[#515+[#516-#515]*0.24445]
#2=[#522+[#523-#522]*0.24445]
#3=[#1+[#2-#1]*0.01491]
X5.45904 Y-2.91691 Z[#3+#4]
#1=[#508+[#509-#508]*0.35929]
#2=[#515+[#516-#515]*0.35929]
#3=[#1+[#2-#1]*0.96219]
X5.43873 Y-2.87630 Z[#3+#4]
G04 P0 ( dwell for no time -- G64 should not smooth over this point )
G00 Z0.08000 ( retract )

G00 X5.87555 Y-2.97619 ( rapid move to begin. )
G01 F180.00000
#1=[#522+[#523-#522]*0.07678]
#2=[#529+[#530-#529]*0.07678]
#3=[#1+[#2-#1]*0.09647]
G01 Z[-0.04000+#111]
G04 P0 ( dwell for no time -- G64 should not smooth over this point )
G01 F360.00000
#1=[#523+[#524-#523]*0.01957]
#2=[#530+[#531-#530]*0.01957]
#3=[#1+[#2-#1]*0.09647]
X5.87555 Y-2.64286 Z[#3+#4]
#1=[#523+[#524-#523]*0.03115]
#2=[#530+[#531-#530]*0.03115]
#3=[#1+[#2-#1]*0.09759]
X5.87598 Y-2.63876 Z[#3+#4]
#1=[#523+[#524-#523]*0.04222]
#2=[#530+[#531-#530]*0.04222]
#3=[#1+[#2-#1]*0.10089]
X5.87725 Y-2.63485 Z[#3+#4]
#1=[#523+[#524-#523]*0.05230]
#2=[#530+[#531-#530]*0.05230]
#3=[#1+[#2-#1]*0.10623]
X5.87931 Y-2.63129 Z[#3+#4]
#1=[#523+[#524-#523]*0.06095]
#2=[#530+[#531-#530]*0.06095]
#3=[#1+[#2-#1]*0.11338]
X5.88207 Y-2.62823 Z[#3+#4]
#1=[#523+[#524-#523]*0.06779]
#2=[#530+[#531-#530]*0.06779]
#3=[#1+[#2-#1]*0.12202]
X5.88539 Y-2.62581 Z[#3+#4]
#1=[#523+[#524-#523]*0.07253]
#2=[#530+[#531-#530]*0.07253]
#3=[#1+[#2-#1]*0.13179]
X5.88915 Y-2.62413 Z[#3+#4]
#1=[#523+[#524-#523]*0.07495]
#2=[#530+[#531-#530]*0.07495]
#3=[#1+[#2-#1]*0.14224]
X5.89318 Y-2.62328 Z[#3+#4]
#1=[#523+[#524-#523]*0.07495]
#2=[#530+[#531-#530]*0.07495]
#3=[#1+[#2-#1]*0.15293]
X5.89729 Y-2.62328 Z[#3+#4]
#1=[#523+[#524-#523]*0.07253]
#2=[#530+[#531-#530]*0.07253]
#3=[#1+[#2-#1]*0.16338]
X5.90132 Y-2.62413 Z[#3+#4]
#1=[#523+[#524-#523]*0.06779]
#2=[#530+[#531-#530]*0.06779]
#3=[#1+[#2-#1]*0.17314]
X5.90508 Y-2.62581 Z[#3+#4]
#1=[#523+[#524-#523]*0.06095]
#2=[#530+[#531-#530]*0.06095]
#3=[#1+[#2-#1]*0.18178]
X5.90841 Y-2.62823 Z[#3+#4]
#1=[#523+[#524-#523]*0.05230]
#2=[#530+[#531-#530]*0.05230]
#3=[#1+[#2-#1]*0.18894]
X5.91116 Y-2.63129 Z[#3+#4]
#1=[#523+[#524-#523]*0.04222]
#2=[#530+[#531-#530]*0.04222]
#3=[#1+[#2-#1]*0.19428]
X5.91322 Y-2.63485 Z[#3+#4]
#1=[#523+[#524-#523]*0.03115]
#2=[#530+[#531-#530]*0.03115]
#3=[#1+[#2-#1]*0.19758]
X5.91449 Y-2.63876 Z[#3+#4]
#1=[#523+[#524-#523]*0.00865]
#2=[#530+[#531-#530]*0.00865]
#3=[#1+[#2-#1]*0.19870]
X5.91492 Y-2.64672 Z[#3+#4]
#1=[#523+[#524-#523]*0.06937]
#2=[#530+[#531-#530]*0.06937]
#3=[#1+[#2-#1]*0.31020]
X5.95786 Y-2.62525 Z[#3+#4]
#1=[#523+[#524-#523]*0.07459]
#2=[#530+[#531-#530]*0.07459]
#3=[#1+[#2-#1]*0.32519]
X5.96364 Y-2.62341 Z[#3+#4]
#1=[#523+[#524-#523]*0.07459]
#2=[#530+[#531-#530]*0.07459]
#3=[#1+[#2-#1]*0.52640]
X6.04113 Y-2.62341 Z[#3+#4]
#1=[#523+[#524-#523]*0.06937]
#2=[#530+[#531-#530]*0.06937]
#3=[#1+[#2-#1]*0.54139]
X6.04690 Y-2.62525 Z[#3+#4]
#1=[#522+[#523-#522]*0.99740]
#2=[#529+[#530-#529]*0.99740]
#3=[#1+[#2-#1]*0.67207]
X6.09722 Y-2.65070 Z[#3+#4]
#1=[#522+[#523-#522]*0.98479]
#2=[#529+[#530-#529]*0.98479]
#3=[#1+[#2-#1]*0.68365]
X6.10168 Y-2.65516 Z[#3+#4]
#1=[#522+[#523-#522]*0.97713]
#2=[#529+[#530-#529]*0.97713]
#3=[#1+[#2-#1]*0.68791]
X6.10332 Y-2.65786 Z[#3+#4]
#1=[#522+[#523-#522]*0.84245]
#2=[#529+[#530-#529]*0.84245]
#3=[#1+[#2-#1]*0.74973]
X6.12713 Y-2.70548 Z[#3+#4]
#1=[#522+[#523-#522]*0.82612]
#2=[#529+[#530-#529]*0.82612]
#3=[#1+[#2-#1]*0.75452]
X6.12897 Y-2.71125 Z[#3+#4]
#1=[#522+[#523-#522]*0.07678]
#2=[#529+[#530-#529]*0.07678]
#3=[#1+[#2-#1]*0.75513]
X6.12921 Y-2.97619 Z[#3+#4]
#1=[#522+[#523-#522]*0.06520]
#2=[#529+[#530-#529]*0.06520]
#3=[#1+[#2-#1]*0.75401]
X6.12878 Y-2.98028 Z[#3+#4]
#1=[#522+[#523-#522]*0.05413]
#2=[#529+[#530-#529]*0.05413]
#3=[#1+[#2-#1]*0.75071]
X6.12751 Y-2.98420 Z[#3+#4]
#1=[#522+[#523-#522]*0.04405]
#2=[#529+[#530-#529]*0.04405]
#3=[#1+[#2-#1]*0.74537]
X6.12545 Y-2.98776 Z[#3+#4]
#1=[#522+[#523-#522]*0.03540]
#2=[#529+[#530-#529]*0.03540]
#3=[#1+[#2-#1]*0.73821]
X6.12270 Y-2.99082 Z[#3+#4]
#1=[#522+[#523-#522]*0.02856]
#2=[#529+[#530-#529]*0.02856]
#3=[#1+[#2-#1]*0.72957]
X6.11937 Y-2.99324 Z[#3+#4]
#1=[#522+[#523-#522]*0.02383]
#2=[#529+[#530-#529]*0.02383]
#3=[#1+[#2-#1]*0.71981]
X6.11561 Y-2.99491 Z[#3+#4]
#1=[#522+[#523-#522]*0.02141]
#2=[#529+[#530-#529]*0.02141]
#3=[#1+[#2-#1]*0.70936]
X6.11158 Y-2.99577 Z[#3+#4]
#1=[#522+[#523-#522]*0.02141]
#2=[#529+[#530-#529]*0.02141]
#3=[#1+[#2-#1]*0.69867]
X6.10747 Y-2.99577 Z[#3+#4]
#1=[#522+[#523-#522]*0.02383]
#2=[#529+[#530-#529]*0.02383]
#3=[#1+[#2-#1]*0.68822]
X6.10344 Y-2.99491 Z[#3+#4]
#1=[#522+[#523-#522]*0.02856]
#2=[#529+[#530-#529]*0.02856]
#3=[#1+[#2-#1]*0.67845]
X6.09968 Y-2.99324 Z[#3+#4]
#1=[#522+[#523-#522]*0.03540]
#2=[#529+[#530-#529]*0.03540]
#3=[#1+[#2-#1]*0.66981]
X6.09635 Y-2.99082 Z[#3+#4]
#1=[#522+[#523-#522]*0.04405]
#2=[#529+[#530-#529]*0.04405]
#3=[#1+[#2-#1]*0.66266]
X6.09360 Y-2.98776 Z[#3+#4]
#1=[#522+[#523-#522]*0.05413]
#2=[#529+[#530-#529]*0.05413]
#3=[#1+[#2-#1]*0.65732]
X6.09154 Y-2.98420 Z[#3+#4]
#1=[#522+[#523-#522]*0.06520]
#2=[#529+[#530-#529]*0.06520]
#3=[#1+[#2-#1]*0.65401]
X6.09027 Y-2.98028 Z[#3+#4]
#1=[#522+[#523-#522]*0.07678]
#2=[#529+[#530-#529]*0.07678]
#3=[#1+[#2-#1]*0.65290]
X6.08984 Y-2.97619 Z[#3+#4]
#1=[#522+[#523-#522]*0.80440]
#2=[#529+[#530-#529]*0.80440]
#3=[#1+[#2-#1]*0.65290]
X6.08984 Y-2.71893 Z[#3+#4]
#1=[#522+[#523-#522]*0.91073]
#2=[#529+[#530-#529]*0.91073]
#3=[#1+[#2-#1]*0.60409]
X6.07104 Y-2.68134 Z[#3+#4]
#1=[#522+[#523-#522]*0.96390]
#2=[#529+[#530-#529]*0.96390]
#3=[#1+[#2-#1]*0.50647]
X6.03345 Y-2.66254 Z[#3+#4]
#1=[#522+[#523-#522]*0.96390]
#2=[#529+[#530-#529]*0.96390]
#3=[#1+[#2-#1]*0.34513]
X5.97131 Y-2.66254 Z[#3+#4]
#1=[#522+[#523-#522]*0.90647]
#2=[#529+[#530-#529]*0.90647]
#3=[#1+[#2-#1]*0.23969]
X5.93071 Y-2.68284 Z[#3+#4]
#1=[#522+[#523-#522]*0.86183]
#2=[#529+[#530-#529]*0.86183]
#3=[#1+[#2-#1]*0.19870]
X5.91492 Y-2.69863 Z[#3+#4]
#1=[#522+[#523-#522]*0.07678]
#2=[#529+[#530-#529]*0.07678]
#3=[#1+[#2-#1]*0.19870]
X5.91492 Y-2.97619 Z[#3+#4]
#1=[#522+[#523-#522]*0.06520]
#2=[#529+[#530-#529]*0.06520]
#3=[#1+[#2-#1]*0.19758]
X5.91449 Y-2.98028 Z[#3+#4]
#1=[#522+[#523-#522]*0.05413]
#2=[#529+[#530-#529]*0.05413]
#3=[#1+[#2-#1]*0.19428]
X5.91322 Y-2.98420 Z[#3+#4]
#1=[#522+[#523-#522]*0.04405]
#2=[#529+[#530-#529]*0.04405]
#3=[#1+[#2-#1]*0.18894]
X5.91116 Y-2.98776 Z[#3+#4]
#1=[#522+[#523-#522]*0.03540]
#2=[#529+[#530-#529]*0.03540]
#3=[#1+[#2-#1]*0.18178]
X5.90841 Y-2.99082 Z[#3+#4]
#1=[#522+[#523-#522]*0.02856]
#2=[#529+[#530-#529]*0.02856]
#3=[#1+[#2-#1]*0.17314]
X5.90508 Y-2.99324 Z[#3+#4]
#1=[#522+[#523-#522]*0.02383]
#2=[#529+[#530-#529]*0.02383]
#3=[#1+[#2-#1]*0.16338]
X5.90132 Y-2.99491 Z[#3+#4]
#1=[#522+[#523-#522]*0.02141]
#2=[#529+[#530-#529]*0.02141]
#3=[#1+[#2-#1]*0.15293]
X5.89729 Y-2.99577 Z[#3+#4]
#1=[#522+[#523-#522]*0.02141]
#2=[#529+[#530-#529]*0.02141]
#3=[#1+[#2-#1]*0.14224]
X5.89318 Y-2.99577 Z[#3+#4]
#1=[#522+[#523-#522]*0.02383]
#2=[#529+[#530-#529]*0.02383]
#3=[#1+[#2-#1]*0.13179]
X5.88915 Y-2.99491 Z[#3+#4]
#1=[#522+[#523-#522]*0.02856]
#2=[#529+[#530-#529]*0.02856]
#3=[#1+[#2-#1]*0.12202]
X5.88539 Y-2.99324 Z[#3+#4]
#1=[#522+[#523-#522]*0.03540]
#2=[#529+[#530-#529]*0.03540]
#3=[#1+[#2-#1]*0.11338]
X5.88207 Y-2.99082 Z[#3+#4]
#1=[#522+[#523-#522]*0.04405]
#2=[#529+[#530-#529]*0.04405]
#3=[#1+[#2-#1]*0.10623]
X5.87931 Y-2.98776 Z[#3+#4]
#1=[#522+[#523-#522]*0.05413]
#2=[#529+[#530-#529]*0.05413]
#3=[#1+[#2-#1]*0.10089]
X5.87725 Y-2.98420 Z[#3+#4]
#1=[#522+[#523-#522]*0.06520]
#2=[#529+[#530-#529]*0.06520]
#3=[#1+[#2-#1]*0.09759]
X5.87598 Y-2.98028 Z[#3+#4]
#1=[#522+[#523-#522]*0.07678]
#2=[#529+[#530-#529]*0.07678]
#3=[#1+[#2-#1]*0.09647]
X5.87555 Y-2.97619 Z[#3+#4]
G04 P0 ( dwell for no time -- G64 should not smooth over this point )
G00 Z0.08000 ( retract )

G00 X6.25661 Y-2.64491 ( rapid move to begin. )
G01 F180.00000
#1=[#530+[#531-#530]*0.01376]
#2=[#537+[#538-#537]*0.01376]
#3=[#1+[#2-#1]*0.08596]
G01 Z[-0.04000+#111]
G04 P0 ( dwell for no time -- G64 should not smooth over this point )
G01 F360.00000
#1=[#530+[#531-#530]*0.02539]
#2=[#537+[#538-#537]*0.02539]
#3=[#1+[#2-#1]*0.08596]
X6.25661 Y-2.64080 Z[#3+#4]
#1=[#530+[#531-#530]*0.03678]
#2=[#537+[#538-#537]*0.03678]
#3=[#1+[#2-#1]*0.08818]
X6.25747 Y-2.63677 Z[#3+#4]
#1=[#530+[#531-#530]*0.04741]
#2=[#537+[#538-#537]*0.04741]
#3=[#1+[#2-#1]*0.09252]
X6.25914 Y-2.63301 Z[#3+#4]
#1=[#530+[#531-#530]*0.05683]
#2=[#537+[#538-#537]*0.05683]
#3=[#1+[#2-#1]*0.09880]
X6.26156 Y-2.62968 Z[#3+#4]
#1=[#530+[#531-#530]*0.06462]
#2=[#537+[#538-#537]*0.06462]
#3=[#1+[#2-#1]*0.10674]
X6.26462 Y-2.62693 Z[#3+#4]
#1=[#530+[#531-#530]*0.07044]
#2=[#537+[#538-#537]*0.07044]
#3=[#1+[#2-#1]*0.11600]
X6.26818 Y-2.62487 Z[#3+#4]
#1=[#530+[#531-#530]*0.07403]
#2=[#537+[#538-#537]*0.07403]
#3=[#1+[#2-#1]*0.12616]
X6.27210 Y-2.62360 Z[#3+#4]
#1=[#530+[#531-#530]*0.07525]
#2=[#537+[#538-#537]*0.07525]
#3=[#1+[#2-#1]*0.27115]
X6.32793 Y-2.62317 Z[#3+#4]
#1=[#530+[#531-#530]*0.49097]
#2=[#537+[#538-#537]*0.49097]
#3=[#1+[#2-#1]*0.27115]
X6.32793 Y-2.47619 Z[#3+#4]
#1=[#530+[#531-#530]*0.50255]
#2=[#537+[#538-#537]*0.50255]
#3=[#1+[#2-#1]*0.27227]
X6.32836 Y-2.47210 Z[#3+#4]
#1=[#530+[#531-#530]*0.51362]
#2=[#537+[#538-#537]*0.51362]
#3=[#1+[#2-#1]*0.27557]
X6.32963 Y-2.46818 Z[#3+#4]
#1=[#530+[#531-#530]*0.52370]
#2=[#537+[#538-#537]*0.52370]
#3=[#1+[#2-#1]*0.28091]
X6.33169 Y-2.46462 Z[#3+#4]
#1=[#530+[#531-#530]*0.53235]
#2=[#537+[#538-#537]*0.53235]
#3=[#1+[#2-#1]*0.28806]
X6.33445 Y-2.46156 Z[#3+#4]
#1=[#530+[#531-#530]*0.53919]
#2=[#537+[#538-#537]*0.53919]
#3=[#1+[#2-#1]*0.29671]
X6.33778 Y-2.45914 Z[#3+#4]
#1=[#530+[#531-#530]*0.54393]
#2=[#537+[#538-#537]*0.54393]
#3=[#1+[#2-#1]*0.30647]
X6.34154 Y-2.45747 Z[#3+#4]
#1=[#530+[#531-#530]*0.54634]
#2=[#537+[#538-#537]*0.54634]
#3=[#1+[#2-#1]*0.31692]
X6.34556 Y-2.45661 Z[#3+#4]
#1=[#530+[#531-#530]*0.54634]
#2=[#537+[#538-#537]*0.54634]
#3=[#1+[#2-#1]*0.32761]
X6.34968 Y-2.45661 Z[#3+#4]
#1=[#530+[#531-#530]*0.54393]
#2=[#537+[#538-#537]*0.54393]
#3=[#1+[#2-#1]*0.33806]
X6.35370 Y-2.45747 Z[#3+#4]
#1=[#530+[#531-#530]*0.53919]
#2=[#537+[#538-#537]*0.53919]
#3=[#1+[#2-#1]*0.34782]
X6.35746 Y-2.45914 Z[#3+#4]
#1=[#530+[#531-#530]*0.53235]
#2=[#537+[#538-#537]*0.53235]
#3=[#1+[#2-#1]*0.35647]
X6.36079 Y-2.46156 Z[#3+#4]
#1=[#530+[#531-#530]*0.52370]
#2=[#537+[#538-#537]*0.52370]
#3=[#1+[#2-#1]*0.36362]
X6.36354 Y-2.46462 Z[#3+#4]
#1=[#530+[#531-#530]*0.51362]
#2=[#537+[#538-#537]*0.51362]
#3=[#1+[#2-#1]*0.36896]
X6.36560 Y-2.46818 Z[#3+#4]
#1=[#530+[#531-#530]*0.50255]
#2=[#537+[#538-#537]*0.50255]
#3=[#1+[#2-#1]*0.37226]
X6.36687 Y-2.47210 Z[#3+#4]
#1=[#530+[#531-#530]*0.49097]
#2=[#537+[#538-#537]*0.49097]
#3=[#1+[#2-#1]*0.37338]
X6.36730 Y-2.47619 Z[#3+#4]
#1=[#530+[#531-#530]*0.07525]
#2=[#537+[#538-#537]*0.07525]
#3=[#1+[#2-#1]*0.37338]
X6.36730 Y-2.62317 Z[#3+#4]
#1=[#530+[#531-#530]*0.07525]
#2=[#537+[#538-#537]*0.07525]
#3=[#1+[#2-#1]*0.63139]
X6.46667 Y-2.62317 Z[#3+#4]
#1=[#530+[#531-#530]*0.07403]
#2=[#537+[#538-#537]*0.07403]
#3=[#1+[#2-#1]*0.64202]
X6.47076 Y-2.62360 Z[#3+#4]
#1=[#530+[#531-#530]*0.07044]
#2=[#537+[#538-#537]*0.07044]
#3=[#1+[#2-#1]*0.65219]
X6.47467 Y-2.62487 Z[#3+#4]
#1=[#530+[#531-#530]*0.06462]
#2=[#537+[#538-#537]*0.06462]
#3=[#1+[#2-#1]*0.66144]
X6.47824 Y-2.62693 Z[#3+#4]
#1=[#530+[#531-#530]*0.05683]
#2=[#537+[#538-#537]*0.05683]
#3=[#1+[#2-#1]*0.66938]
X6.48130 Y-2.62968 Z[#3+#4]
#1=[#530+[#531-#530]*0.04741]
#2=[#537+[#538-#537]*0.04741]
#3=[#1+[#2-#1]*0.67566]
X6.48371 Y-2.63301 Z[#3+#4]
#1=[#530+[#531-#530]*0.03678]
#2=[#537+[#538-#537]*0.03678]
#3=[#1+[#2-#1]*0.68001]
X6.48539 Y-2.63677 Z[#3+#4]
#1=[#530+[#531-#530]*0.02539]
#2=[#537+[#538-#537]*0.02539]
#3=[#1+[#2-#1]*0.68223]
X6.48624 Y-2.64080 Z[#3+#4]
#1=[#530+[#531-#530]*0.01376]
#2=[#537+[#538-#537]*0.01376]
#3=[#1+[#2-#1]*0.68223]
X6.48624 Y-2.64491 Z[#3+#4]
#1=[#530+[#531-#530]*0.00237]
#2=[#537+[#538-#537]*0.00237]
#3=[#1+[#2-#1]*0.68001]
X6.48539 Y-2.64894 Z[#3+#4]
#1=[#529+[#530-#529]*0.99174]
#2=[#536+[#537-#536]*0.99174]
#3=[#1+[#2-#1]*0.67566]
X6.48371 Y-2.65270 Z[#3+#4]
#1=[#529+[#530-#529]*0.98232]
#2=[#536+[#537-#536]*0.98232]
#3=[#1+[#2-#1]*0.66938]
X6.48130 Y-2.65603 Z[#3+#4]
#1=[#529+[#530-#529]*0.97453]
#2=[#536+[#537-#536]*0.97453]
#3=[#1+[#2-#1]*0.66144]
X6.47824 Y-2.65878 Z[#3+#4]
#1=[#529+[#530-#529]*0.96871]
#2=[#536+[#537-#536]*0.96871]
#3=[#1+[#2-#1]*0.65219]
X6.47467 Y-2.66084 Z[#3+#4]
#1=[#529+[#530-#529]*0.96511]
#2=[#536+[#537-#536]*0.96511]
#3=[#1+[#2-#1]*0.64202]
X6.47076 Y-2.66211 Z[#3+#4]
#1=[#529+[#530-#529]*0.96390]
#2=[#536+[#537-#536]*0.96390]
#3=[#1+[#2-#1]*0.63139]
X6.46667 Y-2.66254 Z[#3+#4]
#1=[#529+[#530-#529]*0.96390]
#2=[#536+[#537-#536]*0.96390]
#3=[#1+[#2-#1]*0.37338]
X6.36730 Y-2.66254 Z[#3+#4]
#1=[#529+[#530-#529]*0.29195]
#2=[#536+[#537-#536]*0.29195]
#3=[#1+[#2-#1]*0.37338]
X6.36730 Y-2.90011 Z[#3+#4]
#1=[#529+[#530-#529]*0.18562]
#2=[#536+[#537-#536]*0.18562]
#3=[#1+[#2-#1]*0.42219]
X6.38610 Y-2.93771 Z[#3+#4]
#1=[#529+[#530-#529]*0.13246]
#2=[#536+[#537-#536]*0.13246]
#3=[#1+[#2-#1]*0.51981]
X6.42369 Y-2.95650 Z[#3+#4]
#1=[#529+[#530-#529]*0.13246]
#2=[#536+[#537-#536]*0.13246]
#3=[#1+[#2-#1]*0.63139]
X6.46667 Y-2.95650 Z[#3+#4]
#1=[#529+[#530-#529]*0.13124]
#2=[#536+[#537-#536]*0.13124]
#3=[#1+[#2-#1]*0.64202]
X6.47076 Y-2.95694 Z[#3+#4]
#1=[#529+[#530-#529]*0.12764]
#2=[#536+[#537-#536]*0.12764]
#3=[#1+[#2-#1]*0.65219]
X6.47467 Y-2.95821 Z[#3+#4]
#1=[#529+[#530-#529]*0.12182]
#2=[#536+[#537-#536]*0.12182]
#3=[#1+[#2-#1]*0.66144]
X6.47824 Y-2.96026 Z[#3+#4]
#1=[#529+[#530-#529]*0.11403]
#2=[#536+[#537-#536]*0.11403]
#3=[#1+[#2-#1]*0.66938]
X6.48130 Y-2.96302 Z[#3+#4]
#1=[#529+[#530-#529]*0.10462]
#2=[#536+[#537-#536]*0.10462]
#3=[#1+[#2-#1]*0.67566]
X6.48371 Y-2.96635 Z[#3+#4]
#1=[#529+[#530-#529]*0.09398]
#2=[#536+[#537-#536]*0.09398]
#3=[#1+[#2-#1]*0.68001]
X6.48539 Y-2.97011 Z[#3+#4]
#1=[#529+[#530-#529]*0.08260]
#2=[#536+[#537-#536]*0.08260]
#3=[#1+[#2-#1]*0.68223]
X6.48624 Y-2.97413 Z[#3+#4]
#1=[#529+[#530-#529]*0.07096]
#2=[#536+[#537-#536]*0.07096]
#3=[#1+[#2-#1]*0.68223]
X6.48624 Y-2.97825 Z[#3+#4]
#1=[#529+[#530-#529]*0.05957]
#2=[#536+[#537-#536]*0.05957]
#3=[#1+[#2-#1]*0.68001]
X6.48539 Y-2.98227 Z[#3+#4]
#1=[#529+[#530-#529]*0.04894]
#2=[#536+[#537-#536]*0.04894]
#3=[#1+[#2-#1]*0.67566]
X6.48371 Y-2.98603 Z[#3+#4]
#1=[#529+[#530-#529]*0.03952]
#2=[#536+[#537-#536]*0.03952]
#3=[#1+[#2-#1]*0.66938]
X6.48130 Y-2.98936 Z[#3+#4]
#1=[#529+[#530-#529]*0.03173]
#2=[#536+[#537-#536]*0.03173]
#3=[#1+[#2-#1]*0.66144]
X6.47824 Y-2.99212 Z[#3+#4]
#1=[#529+[#530-#529]*0.02592]
#2=[#536+[#537-#536]*0.02592]
#3=[#1+[#2-#1]*0.65219]
X6.47467 Y-2.99417 Z[#3+#4]
#1=[#529+[#530-#529]*0.02232]
#2=[#536+[#537-#536]*0.02232]
#3=[#1+[#2-#1]*0.64202]
X6.47076 Y-2.99545 Z[#3+#4]
#1=[#529+[#530-#529]*0.02110]
#2=[#536+[#537-#536]*0.02110]
#3=[#1+[#2-#1]*0.63139]
X6.46667 Y-2.99587 Z[#3+#4]
#1=[#529+[#530-#529]*0.02177]
#2=[#536+[#537-#536]*0.02177]
#3=[#1+[#2-#1]*0.49987]
X6.41602 Y-2.99564 Z[#3+#4]
#1=[#529+[#530-#529]*0.02698]
#2=[#536+[#537-#536]*0.02698]
#3=[#1+[#2-#1]*0.48488]
X6.41024 Y-2.99380 Z[#3+#4]
#1=[#529+[#530-#529]*0.09432]
#2=[#536+[#537-#536]*0.09432]
#3=[#1+[#2-#1]*0.36123]
X6.36263 Y-2.96999 Z[#3+#4]
#1=[#529+[#530-#529]*0.09895]
#2=[#536+[#537-#536]*0.09895]
#3=[#1+[#2-#1]*0.35420]
X6.35992 Y-2.96835 Z[#3+#4]
#1=[#529+[#530-#529]*0.11157]
#2=[#536+[#537-#536]*0.11157]
#3=[#1+[#2-#1]*0.34263]
X6.35546 Y-2.96389 Z[#3+#4]
#1=[#529+[#530-#529]*0.25391]
#2=[#536+[#537-#536]*0.25391]
#3=[#1+[#2-#1]*0.27655]
X6.33001 Y-2.91357 Z[#3+#4]
#1=[#529+[#530-#529]*0.27023]
#2=[#536+[#537-#536]*0.27023]
#3=[#1+[#2-#1]*0.27176]
X6.32817 Y-2.90779 Z[#3+#4]
#1=[#529+[#530-#529]*0.96390]
#2=[#536+[#537-#536]*0.96390]
#3=[#1+[#2-#1]*0.27115]
X6.32793 Y-2.66254 Z[#3+#4]
#1=[#529+[#530-#529]*0.96511]
#2=[#536+[#537-#536]*0.96511]
#3=[#1+[#2-#1]*0.12616]
X6.27210 Y-2.66211 Z[#3+#4]
#1=[#529+[#530-#529]*0.96871]
#2=[#536+[#537-#536]*0.96871]
#3=[#1+[#2-#1]*0.11600]
X6.26818 Y-2.66084 Z[#3+#4]
#1=[#529+[#530-#529]*0.97453]
#2=[#536+[#537-#536]*0.97453]
#3=[#1+[#2-#1]*0.10674]
X6.26462 Y-2.65878 Z[#3+#4]
#1=[#529+[#530-#529]*0.98232]
#2=[#536+[#537-#536]*0.98232]
#3=[#1+[#2-#1]*0.09880]
X6.26156 Y-2.65603 Z[#3+#4]
#1=[#529+[#530-#529]*0.99174]
#2=[#536+[#537-#536]*0.99174]
#3=[#1+[#2-#1]*0.09252]
X6.25914 Y-2.65270 Z[#3+#4]
#1=[#530+[#531-#530]*0.00237]
#2=[#537+[#538-#537]*0.00237]
#3=[#1+[#2-#1]*0.08818]
X6.25747 Y-2.64894 Z[#3+#4]
#1=[#530+[#531-#530]*0.01376]
#2=[#537+[#538-#537]*0.01376]
#3=[#1+[#2-#1]*0.08596]
X6.25661 Y-2.64491 Z[#3+#4]
G04 P0 ( dwell for no time -- G64 should not smooth over this point )
G00 Z0.08000 ( retract )

G00 X6.49510 Y-3.30051 ( rapid move to begin. )
G01 F180.00000
#1=[#528+[#529-#528]*0.15946]
#2=[#535+[#536-#535]*0.15946]
#3=[#1+[#2-#1]*0.70524]
G01 Z[-0.04000+#111]
G04 P0 ( dwell for no time -- G64 should not smooth over this point )
G01 F360.00000
#1=[#528+[#529-#528]*0.16522]
#2=[#535+[#536-#535]*0.16522]
#3=[#1+[#2-#1]*0.70580]
X6.49532 Y-3.29848 Z[#3+#4]
#1=[#528+[#529-#528]*0.17023]
#2=[#535+[#536-#535]*0.17023]
#3=[#1+[#2-#1]*0.70845]
X6.49634 Y-3.29671 Z[#3+#4]
#1=[#528+[#529-#528]*0.17453]
#2=[#535+[#536-#535]*0.17453]
#3=[#1+[#2-#1]*0.71529]
X6.49898 Y-3.29519 Z[#3+#4]
#1=[#528+[#529-#528]*0.17484]
#2=[#535+[#536-#535]*0.17484]
#3=[#1+[#2-#1]*0.83500]
X6.54508 Y-3.29508 Z[#3+#4]
#1=[#528+[#529-#528]*0.30234]
#2=[#535+[#536-#535]*0.30234]
#3=[#1+[#2-#1]*0.83500]
X6.54508 Y-3.25000 Z[#3+#4]
#1=[#528+[#529-#528]*0.31052]
#2=[#535+[#536-#535]*0.31052]
#3=[#1+[#2-#1]*0.83744]
X6.54602 Y-3.24711 Z[#3+#4]
#1=[#528+[#529-#528]*0.31439]
#2=[#535+[#536-#535]*0.31439]
#3=[#1+[#2-#1]*0.84139]
X6.54754 Y-3.24574 Z[#3+#4]
#1=[#528+[#529-#528]*0.31618]
#2=[#535+[#536-#535]*0.31618]
#3=[#1+[#2-#1]*0.84645]
X6.54948 Y-3.24511 Z[#3+#4]
#1=[#528+[#529-#528]*0.31558]
#2=[#535+[#536-#535]*0.31558]
#3=[#1+[#2-#1]*0.85173]
X6.55152 Y-3.24532 Z[#3+#4]
#1=[#528+[#529-#528]*0.31268]
#2=[#535+[#536-#535]*0.31268]
#3=[#1+[#2-#1]*0.85633]
X6.55329 Y-3.24634 Z[#3+#4]
#1=[#528+[#529-#528]*0.30523]
#2=[#535+[#536-#535]*0.30523]
#3=[#1+[#2-#1]*0.86028]
X6.55481 Y-3.24898 Z[#3+#4]
#1=[#528+[#529-#528]*0.17484]
#2=[#535+[#536-#535]*0.17484]
#3=[#1+[#2-#1]*0.86056]
X6.55492 Y-3.29508 Z[#3+#4]
#1=[#528+[#529-#528]*0.17484]
#2=[#535+[#536-#535]*0.17484]
#3=[#1+[#2-#1]*0.97762]
X6.60000 Y-3.29508 Z[#3+#4]
#1=[#528+[#529-#528]*0.17218]
#2=[#535+[#536-#535]*0.17218]
#3=[#1+[#2-#1]*0.98513]
X6.60289 Y-3.29602 Z[#3+#4]
#1=[#528+[#529-#528]*0.16788]
#2=[#535+[#536-#535]*0.16788]
#3=[#1+[#2-#1]*0.98868]
X6.60426 Y-3.29754 Z[#3+#4]
#1=[#528+[#529-#528]*0.16237]
#2=[#535+[#536-#535]*0.16237]
#3=[#1+[#2-#1]*0.99033]
X6.60489 Y-3.29948 Z[#3+#4]
#1=[#528+[#529-#528]*0.15662]
#2=[#535+[#536-#535]*0.15662]
#3=[#1+[#2-#1]*0.98977]
X6.60468 Y-3.30152 Z[#3+#4]
#1=[#528+[#529-#528]*0.15161]
#2=[#535+[#536-#535]*0.15161]
#3=[#1+[#2-#1]*0.98711]
X6.60366 Y-3.30329 Z[#3+#4]
#1=[#528+[#529-#528]*0.14731]
#2=[#535+[#536-#535]*0.14731]
#3=[#1+[#2-#1]*0.98027]
X6.60102 Y-3.30481 Z[#3+#4]
#1=[#528+[#529-#528]*0.14700]
#2=[#535+[#536-#535]*0.14700]
#3=[#1+[#2-#1]*0.86056]
X6.55492 Y-3.30492 Z[#3+#4]
#1=[#528+[#529-#528]*0.01950]
#2=[#535+[#536-#535]*0.01950]
#3=[#1+[#2-#1]*0.86056]
X6.55492 Y-3.35000 Z[#3+#4]
#1=[#528+[#529-#528]*0.01132]
#2=[#535+[#536-#535]*0.01132]
#3=[#1+[#2-#1]*0.85812]
X6.55398 Y-3.35289 Z[#3+#4]
#1=[#528+[#529-#528]*0.00745]
#2=[#535+[#536-#535]*0.00745]
#3=[#1+[#2-#1]*0.85417]
X6.55246 Y-3.35426 Z[#3+#4]
#1=[#528+[#529-#528]*0.00566]
#2=[#535+[#536-#535]*0.00566]
#3=[#1+[#2-#1]*0.84912]
X6.55051 Y-3.35489 Z[#3+#4]
#1=[#528+[#529-#528]*0.00626]
#2=[#535+[#536-#535]*0.00626]
#3=[#1+[#2-#1]*0.84383]
X6.54848 Y-3.35468 Z[#3+#4]
#1=[#528+[#529-#528]*0.00916]
#2=[#535+[#536-#535]*0.00916]
#3=[#1+[#2-#1]*0.83923]
X6.54671 Y-3.35366 Z[#3+#4]
#1=[#528+[#529-#528]*0.01661]
#2=[#535+[#536-#535]*0.01661]
#3=[#1+[#2-#1]*0.83528]
X6.54519 Y-3.35102 Z[#3+#4]
#1=[#528+[#529-#528]*0.14700]
#2=[#535+[#536-#535]*0.14700]
#3=[#1+[#2-#1]*0.83500]
X6.54508 Y-3.30492 Z[#3+#4]
#1=[#528+[#529-#528]*0.14700]
#2=[#535+[#536-#535]*0.14700]
#3=[#1+[#2-#1]*0.71795]
X6.50000 Y-3.30492 Z[#3+#4]
#1=[#528+[#529-#528]*0.14966]
#2=[#535+[#536-#535]*0.14966]
#3=[#1+[#2-#1]*0.71044]
X6.49711 Y-3.30398 Z[#3+#4]
#1=[#528+[#529-#528]*0.15396]
#2=[#535+[#536-#535]*0.15396]
#3=[#1+[#2-#1]*0.70688]
X6.49574 Y-3.30246 Z[#3+#4]
#1=[#528+[#529-#528]*0.15946]
#2=[#535+[#536-#535]*0.15946]
#3=[#1+[#2-#1]*0.70524]
X6.49510 Y-3.30051 Z[#3+#4]
( Piece #2, position [1;0] )

G04 P0 ( dwell for no time -- G64 should not smooth over this point )
G00 Z0.08000 ( retract )

G00 X6.80404 Y-2.97619 ( rapid move to begin. )
G01 F180.00000
#1=[#536+[#537-#536]*0.07678]
#2=[#543+[#544-#543]*0.07678]
#3=[#1+[#2-#1]*0.50743]
G01 Z[-0.04000+#111]
G04 P0 ( dwell for no time -- G64 should not smooth over this point )
G01 F360.00000
#1=[#536+[#537-#536]*0.78388]
#2=[#543+[#544-#543]*0.78388]
#3=[#1+[#2-#1]*0.50743]
X6.80404 Y-2.72619 Z[#3+#4]
#1=[#537+[#538-#537]*0.49097]
#2=[#544+[#545-#544]*0.49097]
#3=[#1+[#2-#1]*0.50743]
X6.80404 Y-2.47619 Z[#3+#4]
#1=[#537+[#538-#537]*0.51228]
#2=[#544+[#545-#544]*0.51228]
#3=[#1+[#2-#1]*0.51133]
X6.80554 Y-2.46866 Z[#3+#4]
#1=[#537+[#538-#537]*0.52190]
#2=[#544+[#545-#544]*0.52190]
#3=[#1+[#2-#1]*0.51605]
X6.80735 Y-2.46525 Z[#3+#4]
#1=[#537+[#538-#537]*0.53727]
#2=[#544+[#545-#544]*0.53727]
#3=[#1+[#2-#1]*0.53015]
X6.81279 Y-2.45982 Z[#3+#4]
#1=[#537+[#538-#537]*0.54241]
#2=[#544+[#545-#544]*0.54241]
#3=[#1+[#2-#1]*0.53899]
X6.81619 Y-2.45800 Z[#3+#4]
#1=[#537+[#538-#537]*0.54665]
#2=[#544+[#545-#544]*0.54665]
#3=[#1+[#2-#1]*0.55855]
X6.82372 Y-2.45650 Z[#3+#4]
#1=[#544+[#545-#544]*0.54665]
#2=[#551+[#552-#551]*0.54665]
#3=[#1+[#2-#1]*0.17681]
X7.06182 Y-2.45650 Z[#3+#4]
#1=[#544+[#545-#544]*0.54543]
#2=[#551+[#552-#551]*0.54543]
#3=[#1+[#2-#1]*0.18743]
X7.06591 Y-2.45694 Z[#3+#4]
#1=[#544+[#545-#544]*0.54184]
#2=[#551+[#552-#551]*0.54184]
#3=[#1+[#2-#1]*0.19759]
X7.06982 Y-2.45821 Z[#3+#4]
#1=[#544+[#545-#544]*0.53602]
#2=[#551+[#552-#551]*0.53602]
#3=[#1+[#2-#1]*0.20685]
X7.07339 Y-2.46026 Z[#3+#4]
#1=[#544+[#545-#544]*0.52823]
#2=[#551+[#552-#551]*0.52823]
#3=[#1+[#2-#1]*0.21479]
X7.07645 Y-2.46302 Z[#3+#4]
#1=[#544+[#545-#544]*0.51881]
#2=[#551+[#552-#551]*0.51881]
#3=[#1+[#2-#1]*0.22107]
X7.07886 Y-2.46635 Z[#3+#4]
#1=[#544+[#545-#544]*0.50818]
#2=[#551+[#552-#551]*0.50818]
#3=[#1+[#2-#1]*0.22542]
X7.08054 Y-2.47011 Z[#3+#4]
#1=[#544+[#545-#544]*0.49679]
#2=[#551+[#552-#551]*0.49679]
#3=[#1+[#2-#1]*0.22764]
X7.08139 Y-2.47413 Z[#3+#4]
#1=[#544+[#545-#544]*0.48515]
#2=[#551+[#552-#551]*0.48515]
#3=[#1+[#2-#1]*0.22764]
X7.08139 Y-2.47825 Z[#3+#4]
#1=[#544+[#545-#544]*0.47377]
#2=[#551+[#552-#551]*0.47377]
#3=[#1+[#2-#1]*0.22542]
X7.08054 Y-2.48227 Z[#3+#4]
#1=[#544+[#545-#544]*0.46314]
#2=[#551+[#552-#551]*0.46314]
#3=[#1+[#2-#1]*0.22107]
X7.07886 Y-2.48603 Z[#3+#4]
#1=[#544+[#545-#544]*0.45372]
#2=[#551+[#552-#551]*0.45372]
#3=[#1+[#2-#1]*0.21479]
X7.07645 Y-2.48936 Z[#3+#4]
#1=[#544+[#545-#544]*0.44593]
#2=[#551+[#552-#551]*0.44593]
#3=[#1+[#2-#1]*0.20685]
X7.07339 Y-2.49212 Z[#3+#4]
#1=[#544+[#545-#544]*0.44011]
#2=[#551+[#552-#551]*0.44011]
#3=[#1+[#2-#1]*0.19759]
X7.06982 Y-2.49417 Z[#3+#4]
#1=[#544+[#545-#544]*0.43651]
#2=[#551+[#552-#551]*0.43651]
#3=[#1+[#2-#1]*0.18743]
X7.06591 Y-2.49545 Z[#3+#4]
#1=[#544+[#545-#544]*0.43530]
#2=[#551+[#552-#551]*0.43530]
#3=[#1+[#2-#1]*0.17681]
X7.06182 Y-2.49587 Z[#3+#4]
#1=[#537+[#538-#537]*0.43530]
#2=[#544+[#545-#544]*0.43530]
#3=[#1+[#2-#1]*0.60966]
X6.84341 Y-2.49587 Z[#3+#4]
#1=[#536+[#537-#536]*0.87322]
#2=[#543+[#544-#543]*0.87322]
#3=[#1+[#2-#1]*0.60966]
X6.84341 Y-2.69460 Z[#3+#4]
#1=[#536+[#537-#536]*0.87322]
#2=[#543+[#544-#543]*0.87322]
#3=[#1+[#2-#1]*0.99133]
X6.99039 Y-2.69460 Z[#3+#4]
#1=[#543+[#544-#543]*0.87201]
#2=[#550+[#551-#550]*0.87201]
#3=[#1+[#2-#1]*0.00196]
X6.99448 Y-2.69503 Z[#3+#4]
#1=[#543+[#544-#543]*0.86841]
#2=[#550+[#551-#550]*0.86841]
#3=[#1+[#2-#1]*0.01212]
X6.99840 Y-2.69630 Z[#3+#4]
#1=[#543+[#544-#543]*0.86259]
#2=[#550+[#551-#550]*0.86259]
#3=[#1+[#2-#1]*0.02137]
X7.00196 Y-2.69836 Z[#3+#4]
#1=[#543+[#544-#543]*0.85480]
#2=[#550+[#551-#550]*0.85480]
#3=[#1+[#2-#1]*0.02931]
X7.00502 Y-2.70111 Z[#3+#4]
#1=[#543+[#544-#543]*0.84538]
#2=[#550+[#551-#550]*0.84538]
#3=[#1+[#2-#1]*0.03560]
X7.00744 Y-2.70444 Z[#3+#4]
#1=[#543+[#544-#543]*0.83475]
#2=[#550+[#551-#550]*0.83475]
#3=[#1+[#2-#1]*0.03994]
X7.00911 Y-2.70820 Z[#3+#4]
#1=[#543+[#544-#543]*0.82337]
#2=[#550+[#551-#550]*0.82337]
#3=[#1+[#2-#1]*0.04216]
X7.00997 Y-2.71223 Z[#3+#4]
#1=[#543+[#544-#543]*0.81173]
#2=[#550+[#551-#550]*0.81173]
#3=[#1+[#2-#1]*0.04216]
X7.00997 Y-2.71634 Z[#3+#4]
#1=[#543+[#544-#543]*0.80034]
#2=[#550+[#551-#550]*0.80034]
#3=[#1+[#2-#1]*0.03994]
X7.00911 Y-2.72037 Z[#3+#4]
#1=[#543+[#544-#543]*0.78971]
#2=[#550+[#551-#550]*0.78971]
#3=[#1+[#2-#1]*0.03560]
X7.00744 Y-2.72413 Z[#3+#4]
#1=[#543+[#544-#543]*0.78029]
#2=[#550+[#551-#550]*0.78029]
#3=[#1+[#2-#1]*0.02931]
X7.00502 Y-2.72746 Z[#3+#4]
#1=[#543+[#544-#543]*0.77250]
#2=[#550+[#551-#550]*0.77250]
#3=[#1+[#2-#1]*0.02137]
X7.00196 Y-2.73021 Z[#3+#4]
#1=[#543+[#544-#543]*0.76668]
#2=[#550+[#551-#550]*0.76668]
#3=[#1+[#2-#1]*0.01212]
X6.99840 Y-2.73227 Z[#3+#4]
#1=[#543+[#544-#543]*0.76309]
#2=[#550+[#551-#550]*0.76309]
#3=[#1+[#2-#1]*0.00196]
X6.99448 Y-2.73354 Z[#3+#4]
#1=[#536+[#537-#536]*0.76187]
#2=[#543+[#544-#543]*0.76187]
#3=[#1+[#2-#1]*0.99133]
X6.99039 Y-2.73397 Z[#3+#4]
#1=[#536+[#537-#536]*0.76187]
#2=[#543+[#544-#543]*0.76187]
#3=[#1+[#2-#1]*0.60966]
X6.84341 Y-2.73397 Z[#3+#4]
#1=[#536+[#537-#536]*0.07678]
#2=[#543+[#544-#543]*0.07678]
#3=[#1+[#2-#1]*0.60966]
X6.84341 Y-2.97619 Z[#3+#4]
#1=[#536+[#537-#536]*0.06520]
#2=[#543+[#544-#543]*0.06520]
#3=[#1+[#2-#1]*0.60855]
X6.84298 Y-2.98028 Z[#3+#4]
#1=[#536+[#537-#536]*0.05413]
#2=[#543+[#544-#543]*0.05413]
#3=[#1+[#2-#1]*0.60525]
X6.84171 Y-2.98420 Z[#3+#4]
#1=[#536+[#537-#536]*0.04405]
#2=[#543+[#544-#543]*0.04405]
#3=[#1+[#2-#1]*0.59990]
X6.83965 Y-2.98776 Z[#3+#4]
#1=[#536+[#537-#536]*0.03540]
#2=[#543+[#544-#543]*0.03540]
#3=[#1+[#2-#1]*0.59275]
X6.83689 Y-2.99082 Z[#3+#4]
#1=[#536+[#537-#536]*0.02856]
#2=[#543+[#544-#543]*0.02856]
#3=[#1+[#2-#1]*0.58411]
X6.83356 Y-2.99324 Z[#3+#4]
#1=[#536+[#537-#536]*0.02383]
#2=[#543+[#544-#543]*0.02383]
#3=[#1+[#2-#1]*0.57434]
X6.82980 Y-2.99491 Z[#3+#4]
#1=[#536+[#537-#536]*0.02141]
#2=[#543+[#544-#543]*0.02141]
#3=[#1+[#2-#1]*0.56389]
X6.82578 Y-2.99577 Z[#3+#4]
#1=[#536+[#537-#536]*0.02141]
#2=[#543+[#544-#543]*0.02141]
#3=[#1+[#2-#1]*0.55321]
X6.82166 Y-2.99577 Z[#3+#4]
#1=[#536+[#537-#536]*0.02383]
#2=[#543+[#544-#543]*0.02383]
#3=[#1+[#2-#1]*0.54275]
X6.81764 Y-2.99491 Z[#3+#4]
#1=[#536+[#537-#536]*0.02856]
#2=[#543+[#544-#543]*0.02856]
#3=[#1+[#2-#1]*0.53299]
X6.81388 Y-2.99324 Z[#3+#4]
#1=[#536+[#537-#536]*0.03540]
#2=[#543+[#544-#543]*0.03540]
#3=[#1+[#2-#1]*0.52435]
X6.81055 Y-2.99082 Z[#3+#4]
#1=[#536+[#537-#536]*0.04405]
#2=[#543+[#544-#543]*0.04405]
#3=[#1+[#2-#1]*0.51720]
X6.80780 Y-2.98776 Z[#3+#4]
#1=[#536+[#537-#536]*0.05413]
#2=[#543+[#544-#543]*0.05413]
#3=[#1+[#2-#1]*0.51185]
X6.80574 Y-2.98420 Z[#3+#4]
#1=[#536+[#537-#536]*0.06520]
#2=[#543+[#544-#543]*0.06520]
#3=[#1+[#2-#1]*0.50855]
X6.80447 Y-2.98028 Z[#3+#4]
#1=[#536+[#537-#536]*0.07678]
#2=[#543+[#544-#543]*0.07678]
#3=[#1+[#2-#1]*0.50743]
X6.80404 Y-2.97619 Z[#3+#4]
G04 P0 ( dwell for no time -- G64 should not smooth over this point )
G00 Z0.08000 ( retract )

G00 X7.23261 Y-2.97619 ( rapid move to begin. )
G01 F180.00000
#1=[#543+[#544-#543]*0.07678]
#2=[#550+[#551-#550]*0.07678]
#3=[#1+[#2-#1]*0.62029]
G01 Z[-0.04000+#111]
G04 P0 ( dwell for no time -- G64 should not smooth over this point )
G01 F360.00000
#1=[#544+[#545-#544]*0.01957]
#2=[#551+[#552-#551]*0.01957]
#3=[#1+[#2-#1]*0.62029]
X7.23261 Y-2.64286 Z[#3+#4]
#1=[#544+[#545-#544]*0.03115]
#2=[#551+[#552-#551]*0.03115]
#3=[#1+[#2-#1]*0.62141]
X7.23304 Y-2.63876 Z[#3+#4]
#1=[#544+[#545-#544]*0.04222]
#2=[#551+[#552-#551]*0.04222]
#3=[#1+[#2-#1]*0.62471]
X7.23431 Y-2.63485 Z[#3+#4]
#1=[#544+[#545-#544]*0.05230]
#2=[#551+[#552-#551]*0.05230]
#3=[#1+[#2-#1]*0.63005]
X7.23637 Y-2.63129 Z[#3+#4]
#1=[#544+[#545-#544]*0.06095]
#2=[#551+[#552-#551]*0.06095]
#3=[#1+[#2-#1]*0.63721]
X7.23912 Y-2.62823 Z[#3+#4]
#1=[#544+[#545-#544]*0.06779]
#2=[#551+[#552-#551]*0.06779]
#3=[#1+[#2-#1]*0.64585]
X7.24245 Y-2.62581 Z[#3+#4]
#1=[#544+[#545-#544]*0.07253]
#2=[#551+[#552-#551]*0.07253]
#3=[#1+[#2-#1]*0.65561]
X7.24621 Y-2.62413 Z[#3+#4]
#1=[#544+[#545-#544]*0.07495]
#2=[#551+[#552-#551]*0.07495]
#3=[#1+[#2-#1]*0.66606]
X7.25024 Y-2.62328 Z[#3+#4]
#1=[#544+[#545-#544]*0.07495]
#2=[#551+[#552-#551]*0.07495]
#3=[#1+[#2-#1]*0.67675]
X7.25435 Y-2.62328 Z[#3+#4]
#1=[#544+[#545-#544]*0.07253]
#2=[#551+[#552-#551]*0.07253]
#3=[#1+[#2-#1]*0.68720]
X7.25838 Y-2.62413 Z[#3+#4]
#1=[#544+[#545-#544]*0.06779]
#2=[#551+[#552-#551]*0.06779]
#3=[#1+[#2-#1]*0.69697]
X7.26214 Y-2.62581 Z[#3+#4]
#1=[#544+[#545-#544]*0.06095]
#2=[#551+[#552-#551]*0.06095]
#3=[#1+[#2-#1]*0.70561]
X7.26547 Y-2.62823 Z[#3+#4]
#1=[#544+[#545-#544]*0.05230]
#2=[#551+[#552-#551]*0.05230]
#3=[#1+[#2-#1]*0.71276]
X7.26822 Y-2.63129 Z[#3+#4]
#1=[#544+[#545-#544]*0.04222]
#2=[#551+[#552-#551]*0.04222]
#3=[#1+[#2-#1]*0.71810]
X7.27028 Y-2.63485 Z[#3+#4]
#1=[#544+[#545-#544]*0.03115]
#2=[#551+[#552-#551]*0.03115]
#3=[#1+[#2-#1]*0.72141]
X7.27155 Y-2.63876 Z[#3+#4]
#1=[#543+[#544-#543]*0.95196]
#2=[#550+[#551-#550]*0.95196]
#3=[#1+[#2-#1]*0.72252]
X7.27198 Y-2.66676 Z[#3+#4]
#1=[#543+[#544-#543]*0.99740]
#2=[#550+[#551-#550]*0.99740]
#3=[#1+[#2-#1]*0.76517]
X7.28840 Y-2.65070 Z[#3+#4]
#1=[#544+[#545-#544]*0.07261]
#2=[#551+[#552-#551]*0.07261]
#3=[#1+[#2-#1]*0.90316]
X7.34154 Y-2.62410 Z[#3+#4]
#1=[#544+[#545-#544]*0.07525]
#2=[#551+[#552-#551]*0.07525]
#3=[#1+[#2-#1]*0.91871]
X7.34753 Y-2.62317 Z[#3+#4]
#1=[#551+[#552-#551]*0.07525]
#2=[#558+[#559-#558]*0.07525]
#3=[#1+[#2-#1]*0.04236]
X7.39515 Y-2.62317 Z[#3+#4]
#1=[#551+[#552-#551]*0.07403]
#2=[#558+[#559-#558]*0.07403]
#3=[#1+[#2-#1]*0.05299]
X7.39924 Y-2.62360 Z[#3+#4]
#1=[#551+[#552-#551]*0.07044]
#2=[#558+[#559-#558]*0.07044]
#3=[#1+[#2-#1]*0.06315]
X7.40316 Y-2.62487 Z[#3+#4]
#1=[#551+[#552-#551]*0.06462]
#2=[#558+[#559-#558]*0.06462]
#3=[#1+[#2-#1]*0.07241]
X7.40672 Y-2.62693 Z[#3+#4]
#1=[#551+[#552-#551]*0.05683]
#2=[#558+[#559-#558]*0.05683]
#3=[#1+[#2-#1]*0.08035]
X7.40978 Y-2.62968 Z[#3+#4]
#1=[#551+[#552-#551]*0.04741]
#2=[#558+[#559-#558]*0.04741]
#3=[#1+[#2-#1]*0.08663]
X7.41220 Y-2.63301 Z[#3+#4]
#1=[#551+[#552-#551]*0.03678]
#2=[#558+[#559-#558]*0.03678]
#3=[#1+[#2-#1]*0.09098]
X7.41387 Y-2.63677 Z[#3+#4]
#1=[#551+[#552-#551]*0.02539]
#2=[#558+[#559-#558]*0.02539]
#3=[#1+[#2-#1]*0.09320]
X7.41473 Y-2.64080 Z[#3+#4]
#1=[#551+[#552-#551]*0.01376]
#2=[#558+[#559-#558]*0.01376]
#3=[#1+[#2-#1]*0.09320]
X7.41473 Y-2.64491 Z[#3+#4]
#1=[#551+[#552-#551]*0.00237]
#2=[#558+[#559-#558]*0.00237]
#3=[#1+[#2-#1]*0.09098]
X7.41387 Y-2.64894 Z[#3+#4]
#1=[#550+[#551-#550]*0.99174]
#2=[#557+[#558-#557]*0.99174]
#3=[#1+[#2-#1]*0.08663]
X7.41220 Y-2.65270 Z[#3+#4]
#1=[#550+[#551-#550]*0.98232]
#2=[#557+[#558-#557]*0.98232]
#3=[#1+[#2-#1]*0.08035]
X7.40978 Y-2.65603 Z[#3+#4]
#1=[#550+[#551-#550]*0.97453]
#2=[#557+[#558-#557]*0.97453]
#3=[#1+[#2-#1]*0.07241]
X7.40672 Y-2.65878 Z[#3+#4]
#1=[#550+[#551-#550]*0.96871]
#2=[#557+[#558-#557]*0.96871]
#3=[#1+[#2-#1]*0.06315]
X7.40316 Y-2.66084 Z[#3+#4]
#1=[#550+[#551-#550]*0.96511]
#2=[#557+[#558-#557]*0.96511]
#3=[#1+[#2-#1]*0.05299]
X7.39924 Y-2.66211 Z[#3+#4]
#1=[#550+[#551-#550]*0.96390]
#2=[#557+[#558-#557]*0.96390]
#3=[#1+[#2-#1]*0.04236]
X7.39515 Y-2.66254 Z[#3+#4]
#1=[#543+[#544-#543]*0.96390]
#2=[#550+[#551-#550]*0.96390]
#3=[#1+[#2-#1]*0.93078]
X7.35218 Y-2.66254 Z[#3+#4]
#1=[#543+[#544-#543]*0.90647]
#2=[#550+[#551-#550]*0.90647]
#3=[#1+[#2-#1]*0.82534]
X7.31157 Y-2.68284 Z[#3+#4]
#1=[#543+[#544-#543]*0.85191]
#2=[#550+[#551-#550]*0.85191]
#3=[#1+[#2-#1]*0.77524]
X7.29228 Y-2.70214 Z[#3+#4]
#1=[#543+[#544-#543]*0.73706]
#2=[#550+[#551-#550]*0.73706]
#3=[#1+[#2-#1]*0.72252]
X7.27198 Y-2.74274 Z[#3+#4]
#1=[#543+[#544-#543]*0.07678]
#2=[#550+[#551-#550]*0.07678]
#3=[#1+[#2-#1]*0.72252]
X7.27198 Y-2.97619 Z[#3+#4]
#1=[#543+[#544-#543]*0.06520]
#2=[#550+[#551-#550]*0.06520]
#3=[#1+[#2-#1]*0.72141]
X7.27155 Y-2.98028 Z[#3+#4]
#1=[#543+[#544-#543]*0.05413]
#2=[#550+[#551-#550]*0.05413]
#3=[#1+[#2-#1]*0.71810]
X7.27028 Y-2.98420 Z[#3+#4]
#1=[#543+[#544-#543]*0.04405]
#2=[#550+[#551-#550]*0.04405]
#3=[#1+[#2-#1]*0.71276]
X7.26822 Y-2.98776 Z[#3+#4]
#1=[#543+[#544-#543]*0.03540]
#2=[#550+[#551-#550]*0.03540]
#3=[#1+[#2-#1]*0.70561]
X7.26547 Y-2.99082 Z[#3+#4]
#1=[#543+[#544-#543]*0.02856]
#2=[#550+[#551-#550]*0.02856]
#3=[#1+[#2-#1]*0.69697]
X7.26214 Y-2.99324 Z[#3+#4]
#1=[#543+[#544-#543]*0.02383]
#2=[#550+[#551-#550]*0.02383]
#3=[#1+[#2-#1]*0.68720]
X7.25838 Y-2.99491 Z[#3+#4]
#1=[#543+[#544-#543]*0.02141]
#2=[#550+[#551-#550]*0.02141]
#3=[#1+[#2-#1]*0.67675]
X7.25435 Y-2.99577 Z[#3+#4]
#1=[#543+[#544-#543]*0.02141]
#2=[#550+[#551-#550]*0.02141]
#3=[#1+[#2-#1]*0.66606]
X7.25024 Y-2.99577 Z[#3+#4]
#1=[#543+[#544-#543]*0.02383]
#2=[#550+[#551-#550]*0.02383]
#3=[#1+[#2-#1]*0.65561]
X7.24621 Y-2.99491 Z[#3+#4]
#1=[#543+[#544-#543]*0.02856]
#2=[#550+[#551-#550]*0.02856]
#3=[#1+[#2-#1]*0.64585]
X7.24245 Y-2.99324 Z[#3+#4]
#1=[#543+[#544-#543]*0.03540]
#2=[#550+[#551-#550]*0.03540]
#3=[#1+[#2-#1]*0.63721]
X7.23912 Y-2.99082 Z[#3+#4]
#1=[#543+[#544-#543]*0.04405]
#2=[#550+[#551-#550]*0.04405]
#3=[#1+[#2-#1]*0.63005]
X7.23637 Y-2.98776 Z[#3+#4]
#1=[#543+[#544-#543]*0.05413]
#2=[#550+[#551-#550]*0.05413]
#3=[#1+[#2-#1]*0.62471]
X7.23431 Y-2.98420 Z[#3+#4]
#1=[#543+[#544-#543]*0.06520]
#2=[#550+[#551-#550]*0.06520]
#3=[#1+[#2-#1]*0.62141]
X7.23304 Y-2.98028 Z[#3+#4]
#1=[#543+[#544-#543]*0.07678]
#2=[#550+[#551-#550]*0.07678]
#3=[#1+[#2-#1]*0.62029]
X7.23261 Y-2.97619 Z[#3+#4]
G04 P0 ( dwell for no time -- G64 should not smooth over this point )
G00 Z0.08000 ( retract )

G00 X7.51832 Y-2.88095 ( rapid move to begin. )
G01 F180.00000
#1=[#550+[#551-#550]*0.34615]
#2=[#557+[#558-#557]*0.34615]
#3=[#1+[#2-#1]*0.36220]
G01 Z[-0.04000+#111]
G04 P0 ( dwell for no time -- G64 should not smooth over this point )
G01 F360.00000
#1=[#550+[#551-#550]*0.75020]
#2=[#557+[#558-#557]*0.75020]
#3=[#1+[#2-#1]*0.36220]
X7.51832 Y-2.73809 Z[#3+#4]
#1=[#550+[#551-#550]*0.76714]
#2=[#557+[#558-#557]*0.76714]
#3=[#1+[#2-#1]*0.36462]
X7.51926 Y-2.73211 Z[#3+#4]
#1=[#550+[#551-#550]*0.91744]
#2=[#557+[#558-#557]*0.91744]
#3=[#1+[#2-#1]*0.43367]
X7.54585 Y-2.67897 Z[#3+#4]
#1=[#550+[#551-#550]*0.99740]
#2=[#557+[#558-#557]*0.99740]
#3=[#1+[#2-#1]*0.50708]
X7.57412 Y-2.65070 Z[#3+#4]
#1=[#551+[#552-#551]*0.06937]
#2=[#558+[#559-#558]*0.06937]
#3=[#1+[#2-#1]*0.63776]
X7.62444 Y-2.62525 Z[#3+#4]
#1=[#551+[#552-#551]*0.07459]
#2=[#558+[#559-#558]*0.07459]
#3=[#1+[#2-#1]*0.65275]
X7.63022 Y-2.62341 Z[#3+#4]
#1=[#551+[#552-#551]*0.07459]
#2=[#558+[#559-#558]*0.07459]
#3=[#1+[#2-#1]*0.85396]
X7.70770 Y-2.62341 Z[#3+#4]
#1=[#551+[#552-#551]*0.06937]
#2=[#558+[#559-#558]*0.06937]
#3=[#1+[#2-#1]*0.86895]
X7.71348 Y-2.62525 Z[#3+#4]
#1=[#550+[#551-#550]*0.99740]
#2=[#557+[#558-#557]*0.99740]
#3=[#1+[#2-#1]*0.99963]
X7.76380 Y-2.65070 Z[#3+#4]
#1=[#557+[#558-#557]*0.91744]
#2=[#564+[#565-#564]*0.91744]
#3=[#1+[#2-#1]*0.07304]
X7.79207 Y-2.67897 Z[#3+#4]
#1=[#557+[#558-#557]*0.77510]
#2=[#564+[#565-#564]*0.77510]
#3=[#1+[#2-#1]*0.13911]
X7.81752 Y-2.72929 Z[#3+#4]
#1=[#557+[#558-#557]*0.75877]
#2=[#564+[#565-#564]*0.75877]
#3=[#1+[#2-#1]*0.14390]
X7.81936 Y-2.73507 Z[#3+#4]
#1=[#557+[#558-#557]*0.33758]
#2=[#564+[#565-#564]*0.33758]
#3=[#1+[#2-#1]*0.14390]
X7.81936 Y-2.88398 Z[#3+#4]
#1=[#557+[#558-#557]*0.32125]
#2=[#564+[#565-#564]*0.32125]
#3=[#1+[#2-#1]*0.13911]
X7.81752 Y-2.88976 Z[#3+#4]
#1=[#557+[#558-#557]*0.17891]
#2=[#564+[#565-#564]*0.17891]
#3=[#1+[#2-#1]*0.07304]
X7.79207 Y-2.94008 Z[#3+#4]
#1=[#550+[#551-#550]*0.09895]
#2=[#557+[#558-#557]*0.09895]
#3=[#1+[#2-#1]*0.99963]
X7.76380 Y-2.96835 Z[#3+#4]
#1=[#550+[#551-#550]*0.02698]
#2=[#557+[#558-#557]*0.02698]
#3=[#1+[#2-#1]*0.86895]
X7.71348 Y-2.99380 Z[#3+#4]
#1=[#550+[#551-#550]*0.02177]
#2=[#557+[#558-#557]*0.02177]
#3=[#1+[#2-#1]*0.85396]
X7.70770 Y-2.99564 Z[#3+#4]
#1=[#550+[#551-#550]*0.02110]
#2=[#557+[#558-#557]*0.02110]
#3=[#1+[#2-#1]*0.66062]
X7.63325 Y-2.99587 Z[#3+#4]
#1=[#550+[#551-#550]*0.02374]
#2=[#557+[#558-#557]*0.02374]
#3=[#1+[#2-#1]*0.64507]
X7.62726 Y-2.99494 Z[#3+#4]
#1=[#550+[#551-#550]*0.09895]
#2=[#557+[#558-#557]*0.09895]
#3=[#1+[#2-#1]*0.50708]
X7.57412 Y-2.96835 Z[#3+#4]
#1=[#550+[#551-#550]*0.17210]
#2=[#557+[#558-#557]*0.17210]
#3=[#1+[#2-#1]*0.43899]
X7.54790 Y-2.94249 Z[#3+#4]
#1=[#550+[#551-#550]*0.18657]
#2=[#557+[#558-#557]*0.18657]
#3=[#1+[#2-#1]*0.42942]
X7.54421 Y-2.93737 Z[#3+#4]
#1=[#550+[#551-#550]*0.32242]
#2=[#557+[#558-#557]*0.32242]
#3=[#1+[#2-#1]*0.36719]
X7.52025 Y-2.88934 Z[#3+#4]
#1=[#550+[#551-#550]*0.33457]
#2=[#557+[#558-#557]*0.33457]
#3=[#1+[#2-#1]*0.36331]
X7.51875 Y-2.88504 Z[#3+#4]
#1=[#550+[#551-#550]*0.34615]
#2=[#557+[#558-#557]*0.34615]
#3=[#1+[#2-#1]*0.36220]
X7.51832 Y-2.88095 Z[#3+#4]
G04 P0 ( dwell for no time -- G64 should not smooth over this point )
G00 Z0.08000 ( retract )

G00 X7.55769 Y-2.87630 ( rapid move to begin. )
G01 F180.00000
#1=[#550+[#551-#550]*0.35929]
#2=[#557+[#558-#557]*0.35929]
#3=[#1+[#2-#1]*0.46443]
G01 Z[-0.04000+#111]
G04 P0 ( dwell for no time -- G64 should not smooth over this point )
G01 F360.00000
#1=[#550+[#551-#550]*0.73706]
#2=[#557+[#558-#557]*0.73706]
#3=[#1+[#2-#1]*0.46443]
X7.55769 Y-2.74274 Z[#3+#4]
#1=[#550+[#551-#550]*0.85191]
#2=[#557+[#558-#557]*0.85191]
#3=[#1+[#2-#1]*0.51715]
X7.57800 Y-2.70214 Z[#3+#4]
#1=[#550+[#551-#550]*0.90647]
#2=[#557+[#558-#557]*0.90647]
#3=[#1+[#2-#1]*0.56724]
X7.59729 Y-2.68284 Z[#3+#4]
#1=[#550+[#551-#550]*0.96390]
#2=[#557+[#558-#557]*0.96390]
#3=[#1+[#2-#1]*0.67268]
X7.63789 Y-2.66254 Z[#3+#4]
#1=[#550+[#551-#550]*0.96390]
#2=[#557+[#558-#557]*0.96390]
#3=[#1+[#2-#1]*0.83403]
X7.70003 Y-2.66254 Z[#3+#4]
#1=[#550+[#551-#550]*0.90647]
#2=[#557+[#558-#557]*0.90647]
#3=[#1+[#2-#1]*0.93946]
X7.74063 Y-2.68284 Z[#3+#4]
#1=[#550+[#551-#550]*0.85191]
#2=[#557+[#558-#557]*0.85191]
#3=[#1+[#2-#1]*0.98956]
X7.75992 Y-2.70214 Z[#3+#4]
#1=[#557+[#558-#557]*0.73706]
#2=[#564+[#565-#564]*0.73706]
#3=[#1+[#2-#1]*0.04228]
X7.78023 Y-2.74274 Z[#3+#4]
#1=[#557+[#558-#557]*0.35929]
#2=[#564+[#565-#564]*0.35929]
#3=[#1+[#2-#1]*0.04228]
X7.78023 Y-2.87630 Z[#3+#4]
#1=[#550+[#551-#550]*0.24445]
#2=[#557+[#558-#557]*0.24445]
#3=[#1+[#2-#1]*0.98956]
X7.75992 Y-2.91691 Z[#3+#4]
#1=[#550+[#551-#550]*0.18988]
#2=[#557+[#558-#557]*0.18988]
#3=[#1+[#2-#1]*0.93946]
X7.74063 Y-2.93620 Z[#3+#4]
#1=[#550+[#551-#550]*0.13246]
#2=[#557+[#558-#557]*0.13246]
#3=[#1+[#2-#1]*0.83403]
X7.70003 Y-2.95650 Z[#3+#4]
#1=[#550+[#551-#550]*0.13246]
#2=[#557+[#558-#557]*0.13246]
#3=[#1+[#2-#1]*0.67268]
X7.63789 Y-2.95650 Z[#3+#4]
#1=[#550+[#551-#550]*0.18988]
#2=[#557+[#558-#557]*0.18988]
#3=[#1+[#2-#1]*0.56724]
X7.59729 Y-2.93620 Z[#3+#4]
#1=[#550+[#551-#550]*0.24445]
#2=[#557+[#558-#557]*0.24445]
#3=[#1+[#2-#1]*0.51715]
X7.57800 Y-2.91691 Z[#3+#4]
#1=[#550+[#551-#550]*0.35929]
#2=[#557+[#558-#557]*0.35929]
#3=[#1+[#2-#1]*0.46443]
X7.55769 Y-2.87630 Z[#3+#4]
G04 P0 ( dwell for no time -- G64 should not smooth over this point )
G00 Z0.08000 ( retract )

G00 X7.99451 Y-2.97619 ( rapid move to begin. )
G01 F180.00000
#1=[#557+[#558-#557]*0.07678]
#2=[#564+[#565-#564]*0.07678]
#3=[#1+[#2-#1]*0.59871]
G01 Z[-0.04000+#111]
G04 P0 ( dwell for no time -- G64 should not smooth over this point )
G01 F360.00000
#1=[#558+[#559-#558]*0.01957]
#2=[#565+[#566-#565]*0.01957]
#3=[#1+[#2-#1]*0.59871]
X7.99451 Y-2.64286 Z[#3+#4]
#1=[#558+[#559-#558]*0.03115]
#2=[#565+[#566-#565]*0.03115]
#3=[#1+[#2-#1]*0.59983]
X7.99494 Y-2.63876 Z[#3+#4]
#1=[#558+[#559-#558]*0.04222]
#2=[#565+[#566-#565]*0.04222]
#3=[#1+[#2-#1]*0.60313]
X7.99621 Y-2.63485 Z[#3+#4]
#1=[#558+[#559-#558]*0.05230]
#2=[#565+[#566-#565]*0.05230]
#3=[#1+[#2-#1]*0.60847]
X7.99827 Y-2.63129 Z[#3+#4]
#1=[#558+[#559-#558]*0.06095]
#2=[#565+[#566-#565]*0.06095]
#3=[#1+[#2-#1]*0.61562]
X8.00103 Y-2.62823 Z[#3+#4]
#1=[#558+[#559-#558]*0.06779]
#2=[#565+[#566-#565]*0.06779]
#3=[#1+[#2-#1]*0.62427]
X8.00436 Y-2.62581 Z[#3+#4]
#1=[#558+[#559-#558]*0.07253]
#2=[#565+[#566-#565]*0.07253]
#3=[#1+[#2-#1]*0.63403]
X8.00812 Y-2.62413 Z[#3+#4]
#1=[#558+[#559-#558]*0.07495]
#2=[#565+[#566-#565]*0.07495]
#3=[#1+[#2-#1]*0.64448]
X8.01214 Y-2.62328 Z[#3+#4]
#1=[#558+[#559-#558]*0.07495]
#2=[#565+[#566-#565]*0.07495]
#3=[#1+[#2-#1]*0.65517]
X8.01626 Y-2.62328 Z[#3+#4]
#1=[#558+[#559-#558]*0.07253]
#2=[#565+[#566-#565]*0.07253]
#3=[#1+[#2-#1]*0.66562]
X8.02028 Y-2.62413 Z[#3+#4]
#1=[#558+[#559-#558]*0.06779]
#2=[#565+[#566-#565]*0.06779]
#3=[#1+[#2-#1]*0.67538]
X8.02404 Y-2.62581 Z[#3+#4]
#1=[#558+[#559-#558]*0.06095]
#2=[#565+[#566-#565]*0.06095]
#3=[#1+[#2-#1]*0.68403]
X8.02737 Y-2.62823 Z[#3+#4]
#1=[#558+[#559-#558]*0.05230]
#2=[#565+[#566-#565]*0.05230]
#3=[#1+[#2-#1]*0.69118]
X8.03012 Y-2.63129 Z[#3+#4]
#1=[#558+[#559-#558]*0.04222]
#2=[#565+[#566-#565]*0.04222]
#3=[#1+[#2-#1]*0.69652]
X8.03218 Y-2.63485 Z[#3+#4]
#1=[#558+[#559-#558]*0.03115]
#2=[#565+[#566-#565]*0.03115]
#3=[#1+[#2-#1]*0.69982]
X8.03345 Y-2.63876 Z[#3+#4]
#1=[#558+[#559-#558]*0.00865]
#2=[#565+[#566-#565]*0.00865]
#3=[#1+[#2-#1]*0.70094]
X8.03388 Y-2.64672 Z[#3+#4]
#1=[#558+[#559-#558]*0.06937]
#2=[#565+[#566-#565]*0.06937]
#3=[#1+[#2-#1]*0.81244]
X8.07682 Y-2.62525 Z[#3+#4]
#1=[#558+[#559-#558]*0.07459]
#2=[#565+[#566-#565]*0.07459]
#3=[#1+[#2-#1]*0.82743]
X8.08260 Y-2.62341 Z[#3+#4]
#1=[#565+[#566-#565]*0.07459]
#2=[#572+[#573-#572]*0.07459]
#3=[#1+[#2-#1]*0.02864]
X8.16009 Y-2.62341 Z[#3+#4]
#1=[#565+[#566-#565]*0.06937]
#2=[#572+[#573-#572]*0.06937]
#3=[#1+[#2-#1]*0.04364]
X8.16586 Y-2.62525 Z[#3+#4]
#1=[#564+[#565-#564]*0.99740]
#2=[#571+[#572-#571]*0.99740]
#3=[#1+[#2-#1]*0.17432]
X8.21618 Y-2.65070 Z[#3+#4]
#1=[#564+[#565-#564]*0.98479]
#2=[#571+[#572-#571]*0.98479]
#3=[#1+[#2-#1]*0.18589]
X8.22064 Y-2.65516 Z[#3+#4]
#1=[#564+[#565-#564]*0.97713]
#2=[#571+[#572-#571]*0.97713]
#3=[#1+[#2-#1]*0.19015]
X8.22228 Y-2.65786 Z[#3+#4]
#1=[#564+[#565-#564]*0.84245]
#2=[#571+[#572-#571]*0.84245]
#3=[#1+[#2-#1]*0.25197]
X8.24609 Y-2.70548 Z[#3+#4]
#1=[#564+[#565-#564]*0.82612]
#2=[#571+[#572-#571]*0.82612]
#3=[#1+[#2-#1]*0.25676]
X8.24793 Y-2.71125 Z[#3+#4]
#1=[#564+[#565-#564]*0.07678]
#2=[#571+[#572-#571]*0.07678]
#3=[#1+[#2-#1]*0.25737]
X8.24817 Y-2.97619 Z[#3+#4]
#1=[#564+[#565-#564]*0.06520]
#2=[#571+[#572-#571]*0.06520]
#3=[#1+[#2-#1]*0.25625]
X8.24774 Y-2.98028 Z[#3+#4]
#1=[#564+[#565-#564]*0.05413]
#2=[#571+[#572-#571]*0.05413]
#3=[#1+[#2-#1]*0.25295]
X8.24647 Y-2.98420 Z[#3+#4]
#1=[#564+[#565-#564]*0.04405]
#2=[#571+[#572-#571]*0.04405]
#3=[#1+[#2-#1]*0.24761]
X8.24441 Y-2.98776 Z[#3+#4]
#1=[#564+[#565-#564]*0.03540]
#2=[#571+[#572-#571]*0.03540]
#3=[#1+[#2-#1]*0.24045]
X8.24166 Y-2.99082 Z[#3+#4]
#1=[#564+[#565-#564]*0.02856]
#2=[#571+[#572-#571]*0.02856]
#3=[#1+[#2-#1]*0.23181]
X8.23833 Y-2.99324 Z[#3+#4]
#1=[#564+[#565-#564]*0.02383]
#2=[#571+[#572-#571]*0.02383]
#3=[#1+[#2-#1]*0.22205]
X8.23457 Y-2.99491 Z[#3+#4]
#1=[#564+[#565-#564]*0.02141]
#2=[#571+[#572-#571]*0.02141]
#3=[#1+[#2-#1]*0.21160]
X8.23054 Y-2.99577 Z[#3+#4]
#1=[#564+[#565-#564]*0.02141]
#2=[#571+[#572-#571]*0.02141]
#3=[#1+[#2-#1]*0.20091]
X8.22643 Y-2.99577 Z[#3+#4]
#1=[#564+[#565-#564]*0.02383]
#2=[#571+[#572-#571]*0.02383]
#3=[#1+[#2-#1]*0.19046]
X8.22240 Y-2.99491 Z[#3+#4]
#1=[#564+[#565-#564]*0.02856]
#2=[#571+[#572-#571]*0.02856]
#3=[#1+[#2-#1]*0.18070]
X8.21864 Y-2.99324 Z[#3+#4]
#1=[#564+[#565-#564]*0.03540]
#2=[#571+[#572-#571]*0.03540]
#3=[#1+[#2-#1]*0.17205]
X8.21531 Y-2.99082 Z[#3+#4]
#1=[#564+[#565-#564]*0.04405]
#2=[#571+[#572-#571]*0.04405]
#3=[#1+[#2-#1]*0.16490]
X8.21256 Y-2.98776 Z[#3+#4]
#1=[#564+[#565-#564]*0.05413]
#2=[#571+[#572-#571]*0.05413]
#3=[#1+[#2-#1]*0.15956]
X8.21050 Y-2.98420 Z[#3+#4]
#1=[#564+[#565-#564]*0.06520]
#2=[#571+[#572-#571]*0.06520]
#3=[#1+[#2-#1]*0.15625]
X8.20923 Y-2.98028 Z[#3+#4]
#1=[#564+[#565-#564]*0.07678]
#2=[#571+[#572-#571]*0.07678]
#3=[#1+[#2-#1]*0.15514]
X8.20880 Y-2.97619 Z[#3+#4]
#1=[#564+[#565-#564]*0.80440]
#2=[#571+[#572-#571]*0.80440]
#3=[#1+[#2-#1]*0.15514]
X8.20880 Y-2.71893 Z[#3+#4]
#1=[#564+[#565-#564]*0.91073]
#2=[#571+[#572-#571]*0.91073]
#3=[#1+[#2-#1]*0.10633]
X8.19000 Y-2.68134 Z[#3+#4]
#1=[#564+[#565-#564]*0.96390]
#2=[#571+[#572-#571]*0.96390]
#3=[#1+[#2-#1]*0.00871]
X8.15241 Y-2.66254 Z[#3+#4]
#1=[#557+[#558-#557]*0.96390]
#2=[#564+[#565-#564]*0.96390]
#3=[#1+[#2-#1]*0.84737]
X8.09027 Y-2.66254 Z[#3+#4]
#1=[#557+[#558-#557]*0.90647]
#2=[#564+[#565-#564]*0.90647]
#3=[#1+[#2-#1]*0.74193]
X8.04967 Y-2.68284 Z[#3+#4]
#1=[#557+[#558-#557]*0.86183]
#2=[#564+[#565-#564]*0.86183]
#3=[#1+[#2-#1]*0.70094]
X8.03388 Y-2.69863 Z[#3+#4]
#1=[#557+[#558-#557]*0.07678]
#2=[#564+[#565-#564]*0.07678]
#3=[#1+[#2-#1]*0.70094]
X8.03388 Y-2.97619 Z[#3+#4]
#1=[#557+[#558-#557]*0.06520]
#2=[#564+[#565-#564]*0.06520]
#3=[#1+[#2-#1]*0.69982]
X8.03345 Y-2.98028 Z[#3+#4]
#1=[#557+[#558-#557]*0.05413]
#2=[#564+[#565-#564]*0.05413]
#3=[#1+[#2-#1]*0.69652]
X8.03218 Y-2.98420 Z[#3+#4]
#1=[#557+[#558-#557]*0.04405]
#2=[#564+[#565-#564]*0.04405]
#3=[#1+[#2-#1]*0.69118]
X8.03012 Y-2.98776 Z[#3+#4]
#1=[#557+[#558-#557]*0.03540]
#2=[#564+[#565-#564]*0.03540]
#3=[#1+[#2-#1]*0.68403]
X8.02737 Y-2.99082 Z[#3+#4]
#1=[#557+[#558-#557]*0.02856]
#2=[#564+[#565-#564]*0.02856]
#3=[#1+[#2-#1]*0.67538]
X8.02404 Y-2.99324 Z[#3+#4]
#1=[#557+[#558-#557]*0.02383]
#2=[#564+[#565-#564]*0.02383]
#3=[#1+[#2-#1]*0.66562]
X8.02028 Y-2.99491 Z[#3+#4]
#1=[#557+[#558-#557]*0.02141]
#2=[#564+[#565-#564]*0.02141]
#3=[#1+[#2-#1]*0.65517]
X8.01626 Y-2.99577 Z[#3+#4]
#1=[#557+[#558-#557]*0.02141]
#2=[#564+[#565-#564]*0.02141]
#3=[#1+[#2-#1]*0.64448]
X8.01214 Y-2.99577 Z[#3+#4]
#1=[#557+[#558-#557]*0.02383]
#2=[#564+[#565-#564]*0.02383]
#3=[#1+[#2-#1]*0.63403]
X8.00812 Y-2.99491 Z[#3+#4]
#1=[#557+[#558-#557]*0.02856]
#2=[#564+[#565-#564]*0.02856]
#3=[#1+[#2-#1]*0.62427]
X8.00436 Y-2.99324 Z[#3+#4]
#1=[#557+[#558-#557]*0.03540]
#2=[#564+[#565-#564]*0.03540]
#3=[#1+[#2-#1]*0.61562]
X8.00103 Y-2.99082 Z[#3+#4]
#1=[#557+[#558-#557]*0.04405]
#2=[#564+[#565-#564]*0.04405]
#3=[#1+[#2-#1]*0.60847]
X7.99827 Y-2.98776 Z[#3+#4]
#1=[#557+[#558-#557]*0.05413]
#2=[#564+[#565-#564]*0.05413]
#3=[#1+[#2-#1]*0.60313]
X7.99621 Y-2.98420 Z[#3+#4]
#1=[#557+[#558-#557]*0.06520]
#2=[#564+[#565-#564]*0.06520]
#3=[#1+[#2-#1]*0.59983]
X7.99494 Y-2.98028 Z[#3+#4]
#1=[#557+[#558-#557]*0.07678]
#2=[#564+[#565-#564]*0.07678]
#3=[#1+[#2-#1]*0.59871]
X7.99451 Y-2.97619 Z[#3+#4]
G04 P0 ( dwell for no time -- G64 should not smooth over this point )
G00 Z0.08000 ( retract )

G00 X8.37557 Y-2.64491 ( rapid move to begin. )
G01 F180.00000
#1=[#565+[#566-#565]*0.01376]
#2=[#572+[#573-#572]*0.01376]
#3=[#1+[#2-#1]*0.58820]
G01 Z[-0.04000+#111]
G04 P0 ( dwell for no time -- G64 should not smooth over this point )
G01 F360.00000
#1=[#565+[#566-#565]*0.02539]
#2=[#572+[#573-#572]*0.02539]
#3=[#1+[#2-#1]*0.58820]
X8.37557 Y-2.64080 Z[#3+#4]
#1=[#565+[#566-#565]*0.03678]
#2=[#572+[#573-#572]*0.03678]
#3=[#1+[#2-#1]*0.59042]
X8.37643 Y-2.63677 Z[#3+#4]
#1=[#565+[#566-#565]*0.04741]
#2=[#572+[#573-#572]*0.04741]
#3=[#1+[#2-#1]*0.59476]
X8.37810 Y-2.63301 Z[#3+#4]
#1=[#565+[#566-#565]*0.05683]
#2=[#572+[#573-#572]*0.05683]
#3=[#1+[#2-#1]*0.60104]
X8.38052 Y-2.62968 Z[#3+#4]
#1=[#565+[#566-#565]*0.06462]
#2=[#572+[#573-#572]*0.06462]
#3=[#1+[#2-#1]*0.60898]
X8.38358 Y-2.62693 Z[#3+#4]
#1=[#565+[#566-#565]*0.07044]
#2=[#572+[#573-#572]*0.07044]
#3=[#1+[#2-#1]*0.61824]
X8.38714 Y-2.62487 Z[#3+#4]
#1=[#565+[#566-#565]*0.07403]
#2=[#572+[#573-#572]*0.07403]
#3=[#1+[#2-#1]*0.62840]
X8.39106 Y-2.62360 Z[#3+#4]
#1=[#565+[#566-#565]*0.07525]
#2=[#572+[#573-#572]*0.07525]
#3=[#1+[#2-#1]*0.77339]
X8.44689 Y-2.62317 Z[#3+#4]
#1=[#565+[#566-#565]*0.49097]
#2=[#572+[#573-#572]*0.49097]
#3=[#1+[#2-#1]*0.77339]
X8.44689 Y-2.47619 Z[#3+#4]
#1=[#565+[#566-#565]*0.50255]
#2=[#572+[#573-#572]*0.50255]
#3=[#1+[#2-#1]*0.77451]
X8.44732 Y-2.47210 Z[#3+#4]
#1=[#565+[#566-#565]*0.51362]
#2=[#572+[#573-#572]*0.51362]
#3=[#1+[#2-#1]*0.77781]
X8.44860 Y-2.46818 Z[#3+#4]
#1=[#565+[#566-#565]*0.52370]
#2=[#572+[#573-#572]*0.52370]
#3=[#1+[#2-#1]*0.78315]
X8.45065 Y-2.46462 Z[#3+#4]
#1=[#565+[#566-#565]*0.53235]
#2=[#572+[#573-#572]*0.53235]
#3=[#1+[#2-#1]*0.79030]
X8.45341 Y-2.46156 Z[#3+#4]
#1=[#565+[#566-#565]*0.53919]
#2=[#572+[#573-#572]*0.53919]
#3=[#1+[#2-#1]*0.79895]
X8.45674 Y-2.45914 Z[#3+#4]
#1=[#565+[#566-#565]*0.54393]
#2=[#572+[#573-#572]*0.54393]
#3=[#1+[#2-#1]*0.80871]
X8.46050 Y-2.45747 Z[#3+#4]
#1=[#565+[#566-#565]*0.54634]
#2=[#572+[#573-#572]*0.54634]
#3=[#1+[#2-#1]*0.81916]
X8.46452 Y-2.45661 Z[#3+#4]
#1=[#565+[#566-#565]*0.54634]
#2=[#572+[#573-#572]*0.54634]
#3=[#1+[#2-#1]*0.82985]
X8.46864 Y-2.45661 Z[#3+#4]
#1=[#565+[#566-#565]*0.54393]
#2=[#572+[#573-#572]*0.54393]
#3=[#1+[#2-#1]*0.84030]
X8.47266 Y-2.45747 Z[#3+#4]
#1=[#565+[#566-#565]*0.53919]
#2=[#572+[#573-#572]*0.53919]
#3=[#1+[#2-#1]*0.85006]
X8.47642 Y-2.45914 Z[#3+#4]
#1=[#565+[#566-#565]*0.53235]
#2=[#572+[#573-#572]*0.53235]
#3=[#1+[#2-#1]*0.85871]
X8.47975 Y-2.46156 Z[#3+#4]
#1=[#565+[#566-#565]*0.52370]
#2=[#572+[#573-#572]*0.52370]
#3=[#1+[#2-#1]*0.86586]
X8.48250 Y-2.46462 Z[#3+#4]
#1=[#565+[#566-#565]*0.51362]
#2=[#572+[#573-#572]*0.51362]
#3=[#1+[#2-#1]*0.87120]
X8.48456 Y-2.46818 Z[#3+#4]
#1=[#565+[#566-#565]*0.50255]
#2=[#572+[#573-#572]*0.50255]
#3=[#1+[#2-#1]*0.87450]
X8.48583 Y-2.47210 Z[#3+#4]
#1=[#565+[#566-#565]*0.49097]
#2=[#572+[#573-#572]*0.49097]
#3=[#1+[#2-#1]*0.87562]
X8.48626 Y-2.47619 Z[#3+#4]
#1=[#565+[#566-#565]*0.07525]
#2=[#572+[#573-#572]*0.07525]
#3=[#1+[#2-#1]*0.87562]
X8.48626 Y-2.62317 Z[#3+#4]
#1=[#572+[#573-#572]*0.07525]
#2=[#579+[#580-#579]*0.07525]
#3=[#1+[#2-#1]*0.13363]
X8.58563 Y-2.62317 Z[#3+#4]
#1=[#572+[#573-#572]*0.07403]
#2=[#579+[#580-#579]*0.07403]
#3=[#1+[#2-#1]*0.14426]
X8.58972 Y-2.62360 Z[#3+#4]
#1=[#572+[#573-#572]*0.07044]
#2=[#579+[#580-#579]*0.07044]
#3=[#1+[#2-#1]*0.15443]
X8.59363 Y-2.62487 Z[#3+#4]
#1=[#572+[#573-#572]*0.06462]
#2=[#579+[#580-#579]*0.06462]
#3=[#1+[#2-#1]*0.16368]
X8.59720 Y-2.62693 Z[#3+#4]
#1=[#572+[#573-#572]*0.05683]
#2=[#579+[#580-#579]*0.05683]
#3=[#1+[#2-#1]*0.17162]
X8.60026 Y-2.62968 Z[#3+#4]
#1=[#572+[#573-#572]*0.04741]
#2=[#579+[#580-#579]*0.04741]
#3=[#1+[#2-#1]*0.17790]
X8.60267 Y-2.63301 Z[#3+#4]
#1=[#572+[#573-#572]*0.03678]
#2=[#579+[#580-#579]*0.03678]
#3=[#1+[#2-#1]*0.18225]
X8.60435 Y-2.63677 Z[#3+#4]
#1=[#572+[#573-#572]*0.02539]
#2=[#579+[#580-#579]*0.02539]
#3=[#1+[#2-#1]*0.18447]
X8.60520 Y-2.64080 Z[#3+#4]
#1=[#572+[#573-#572]*0.01376]
#2=[#579+[#580-#579]*0.01376]
#3=[#1+[#2-#1]*0.18447]
X8.60520 Y-2.64491 Z[#3+#4]
#1=[#572+[#573-#572]*0.00237]
#2=[#579+[#580-#579]*0.00237]
#3=[#1+[#2-#1]*0.18225]
X8.60435 Y-2.64894 Z[#3+#4]
#1=[#571+[#572-#571]*0.99174]
#2=[#578+[#579-#578]*0.99174]
#3=[#1+[#2-#1]*0.17790]
X8.60267 Y-2.65270 Z[#3+#4]
#1=[#571+[#572-#571]*0.98232]
#2=[#578+[#579-#578]*0.98232]
#3=[#1+[#2-#1]*0.17162]
X8.60026 Y-2.65603 Z[#3+#4]
#1=[#571+[#572-#571]*0.97453]
#2=[#578+[#579-#578]*0.97453]
#3=[#1+[#2-#1]*0.16368]
X8.59720 Y-2.65878 Z[#3+#4]
#1=[#571+[#572-#571]*0.96871]
#2=[#578+[#579-#578]*0.96871]
#3=[#1+[#2-#1]*0.15443]
X8.59363 Y-2.66084 Z[#3+#4]
#1=[#571+[#572-#571]*0.96511]
#2=[#578+[#579-#578]*0.96511]
#3=[#1+[#2-#1]*0.14426]
X8.58972 Y-2.66211 Z[#3+#4]
#1=[#571+[#572-#571]*0.96390]
#2=[#578+[#579-#578]*0.96390]
#3=[#1+[#2-#1]*0.13363]
X8.58563 Y-2.66254 Z[#3+#4]
#1=[#564+[#565-#564]*0.96390]
#2=[#571+[#572-#571]*0.96390]
#3=[#1+[#2-#1]*0.87562]
X8.48626 Y-2.66254 Z[#3+#4]
#1=[#564+[#565-#564]*0.29195]
#2=[#571+[#572-#571]*0.29195]
#3=[#1+[#2-#1]*0.87562]
X8.48626 Y-2.90011 Z[#3+#4]
#1=[#564+[#565-#564]*0.18562]
#2=[#571+[#572-#571]*0.18562]
#3=[#1+[#2-#1]*0.92443]
X8.50506 Y-2.93771 Z[#3+#4]
#1=[#571+[#572-#571]*0.13246]
#2=[#578+[#579-#578]*0.13246]
#3=[#1+[#2-#1]*0.02205]
X8.54265 Y-2.95650 Z[#3+#4]
#1=[#571+[#572-#571]*0.13246]
#2=[#578+[#579-#578]*0.13246]
#3=[#1+[#2-#1]*0.13363]
X8.58563 Y-2.95650 Z[#3+#4]
#1=[#571+[#572-#571]*0.13124]
#2=[#578+[#579-#578]*0.13124]
#3=[#1+[#2-#1]*0.14426]
X8.58972 Y-2.95694 Z[#3+#4]
#1=[#571+[#572-#571]*0.12764]
#2=[#578+[#579-#578]*0.12764]
#3=[#1+[#2-#1]*0.15443]
X8.59363 Y-2.95821 Z[#3+#4]
#1=[#571+[#572-#571]*0.12182]
#2=[#578+[#579-#578]*0.12182]
#3=[#1+[#2-#1]*0.16368]
X8.59720 Y-2.96026 Z[#3+#4]
#1=[#571+[#572-#571]*0.11403]
#2=[#578+[#579-#578]*0.11403]
#3=[#1+[#2-#1]*0.17162]
X8.60026 Y-2.96302 Z[#3+#4]
#1=[#571+[#572-#571]*0.10462]
#2=[#578+[#579-#578]*0.10462]
#3=[#1+[#2-#1]*0.17790]
X8.60267 Y-2.96635 Z[#3+#4]
#1=[#571+[#572-#571]*0.09398]
#2=[#578+[#579-#578]*0.09398]
#3=[#1+[#2-#1]*0.18225]
X8.60435 Y-2.97011 Z[#3+#4]
#1=[#571+[#572-#571]*0.08260]
#2=[#578+[#579-#578]*0.08260]
#3=[#1+[#2-#1]*0.18447]
X8.60520 Y-2.97413 Z[#3+#4]
#1=[#571+[#572-#571]*0.07096]
#2=[#578+[#579-#578]*0.07096]
#3=[#1+[#2-#1]*0.18447]
X8.60520 Y-2.97825 Z[#3+#4]
#1=[#571+[#572-#571]*0.05957]
#2=[#578+[#579-#578]*0.05957]
#3=[#1+[#2-#1]*0.18225]
X8.60435 Y-2.98227 Z[#3+#4]
#1=[#571+[#572-#571]*0.04894]
#2=[#578+[#579-#578]*0.04894]
#3=[#1+[#2-#1]*0.17790]
X8.60267 Y-2.98603 Z[#3+#4]
#1=[#571+[#572-#571]*0.03952]
#2=[#578+[#579-#578]*0.03952]
#3=[#1+[#2-#1]*0.17162]
X8.60026 Y-2.98936 Z[#3+#4]
#1=[#571+[#572-#571]*0.03173]
#2=[#578+[#579-#578]*0.03173]
#3=[#1+[#2-#1]*0.16368]
X8.59720 Y-2.99212 Z[#3+#4]
#1=[#571+[#572-#571]*0.02592]
#2=[#578+[#579-#578]*0.02592]
#3=[#1+[#2-#1]*0.15443]
X8.59363 Y-2.99417 Z[#3+#4]
#1=[#571+[#572-#571]*0.02232]
#2=[#578+[#579-#578]*0.02232]
#3=[#1+[#2-#1]*0.14426]
X8.58972 Y-2.99545 Z[#3+#4]
#1=[#571+[#572-#571]*0.02110]
#2=[#578+[#579-#578]*0.02110]
#3=[#1+[#2-#1]*0.13363]
X8.58563 Y-2.99587 Z[#3+#4]
#1=[#571+[#572-#571]*0.02177]
#2=[#578+[#579-#578]*0.02177]
#3=[#1+[#2-#1]*0.00212]
X8.53498 Y-2.99564 Z[#3+#4]
#1=[#564+[#565-#564]*0.02698]
#2=[#571+[#572-#571]*0.02698]
#3=[#1+[#2-#1]*0.98712]
X8.52920 Y-2.99380 Z[#3+#4]
#1=[#564+[#565-#564]*0.09432]
#2=[#571+[#572-#571]*0.09432]
#3=[#1+[#2-#1]*0.86347]
X8.48159 Y-2.96999 Z[#3+#4]
#1=[#564+[#565-#564]*0.09895]
#2=[#571+[#572-#571]*0.09895]
#3=[#1+[#2-#1]*0.85644]
X8.47888 Y-2.96835 Z[#3+#4]
#1=[#564+[#565-#564]*0.11157]
#2=[#571+[#572-#571]*0.11157]
#3=[#1+[#2-#1]*0.84487]
X8.47442 Y-2.96389 Z[#3+#4]
#1=[#564+[#565-#564]*0.25391]
#2=[#571+[#572-#571]*0.25391]
#3=[#1+[#2-#1]*0.77879]
X8.44897 Y-2.91357 Z[#3+#4]
#1=[#564+[#565-#564]*0.27023]
#2=[#571+[#572-#571]*0.27023]
#3=[#1+[#2-#1]*0.77400]
X8.44713 Y-2.90779 Z[#3+#4]
#1=[#564+[#565-#564]*0.96390]
#2=[#571+[#572-#571]*0.96390]
#3=[#1+[#2-#1]*0.77339]
X8.44689 Y-2.66254 Z[#3+#4]
#1=[#564+[#565-#564]*0.96511]
#2=[#571+[#572-#571]*0.96511]
#3=[#1+[#2-#1]*0.62840]
X8.39106 Y-2.66211 Z[#3+#4]
#1=[#564+[#565-#564]*0.96871]
#2=[#571+[#572-#571]*0.96871]
#3=[#1+[#2-#1]*0.61824]
X8.38714 Y-2.66084 Z[#3+#4]
#1=[#564+[#565-#564]*0.97453]
#2=[#571+[#572-#571]*0.97453]
#3=[#1+[#2-#1]*0.60898]
X8.38358 Y-2.65878 Z[#3+#4]
#1=[#564+[#565-#564]*0.98232]
#2=[#571+[#572-#571]*0.98232]
#3=[#1+[#2-#1]*0.60104]
X8.38052 Y-2.65603 Z[#3+#4]
#1=[#564+[#565-#564]*0.99174]
#2=[#571+[#572-#571]*0.99174]
#3=[#1+[#2-#1]*0.59476]
X8.37810 Y-2.65270 Z[#3+#4]
#1=[#565+[#566-#565]*0.00237]
#2=[#572+[#573-#572]*0.00237]
#3=[#1+[#2-#1]*0.59042]
X8.37643 Y-2.64894 Z[#3+#4]
#1=[#565+[#566-#565]*0.01376]
#2=[#572+[#573-#572]*0.01376]
#3=[#1+[#2-#1]*0.58820]
X8.37557 Y-2.64491 Z[#3+#4]
G04 P0 ( dwell for no time -- G64 should not smooth over this point )
G00 Z0.08000 ( retract )

G00 X8.61407 Y-3.30051 ( rapid move to begin. )
G01 F180.00000
#1=[#570+[#571-#570]*0.15946]
#2=[#577+[#578-#577]*0.15946]
#3=[#1+[#2-#1]*0.20748]
G01 Z[-0.04000+#111]
G04 P0 ( dwell for no time -- G64 should not smooth over this point )
G01 F360.00000
#1=[#570+[#571-#570]*0.16522]
#2=[#577+[#578-#577]*0.16522]
#3=[#1+[#2-#1]*0.20804]
X8.61428 Y-3.29848 Z[#3+#4]
#1=[#570+[#571-#570]*0.17023]
#2=[#577+[#578-#577]*0.17023]
#3=[#1+[#2-#1]*0.21069]
X8.61530 Y-3.29671 Z[#3+#4]
#1=[#570+[#571-#570]*0.17453]
#2=[#577+[#578-#577]*0.17453]
#3=[#1+[#2-#1]*0.21753]
X8.61794 Y-3.29519 Z[#3+#4]
#1=[#570+[#571-#570]*0.17484]
#2=[#577+[#578-#577]*0.17484]
#3=[#1+[#2-#1]*0.33724]
X8.66404 Y-3.29508 Z[#3+#4]
#1=[#570+[#571-#570]*0.30234]
#2=[#577+[#578-#577]*0.30234]
#3=[#1+[#2-#1]*0.33724]
X8.66404 Y-3.25000 Z[#3+#4]
#1=[#570+[#571-#570]*0.31052]
#2=[#577+[#578-#577]*0.31052]
#3=[#1+[#2-#1]*0.33968]
X8.66498 Y-3.24711 Z[#3+#4]
#1=[#570+[#571-#570]*0.31439]
#2=[#577+[#578-#577]*0.31439]
#3=[#1+[#2-#1]*0.34363]
X8.66650 Y-3.24574 Z[#3+#4]
#1=[#570+[#571-#570]*0.31618]
#2=[#577+[#578-#577]*0.31618]
#3=[#1+[#2-#1]*0.34869]
X8.66845 Y-3.24511 Z[#3+#4]
#1=[#570+[#571-#570]*0.31558]
#2=[#577+[#578-#577]*0.31558]
#3=[#1+[#2-#1]*0.35397]
X8.67048 Y-3.24532 Z[#3+#4]
#1=[#570+[#571-#570]*0.31268]
#2=[#577+[#578-#577]*0.31268]
#3=[#1+[#2-#1]*0.35857]
X8.67225 Y-3.24634 Z[#3+#4]
#1=[#570+[#571-#570]*0.30523]
#2=[#577+[#578-#577]*0.30523]
#3=[#1+[#2-#1]*0.36252]
X8.67377 Y-3.24898 Z[#3+#4]
#1=[#570+[#571-#570]*0.17484]
#2=[#577+[#578-#577]*0.17484]
#3=[#1+[#2-#1]*0.36280]
X8.67388 Y-3.29508 Z[#3+#4]
#1=[#570+[#571-#570]*0.17484]
#2=[#577+[#578-#577]*0.17484]
#3=[#1+[#2-#1]*0.47986]
X8.71896 Y-3.29508 Z[#3+#4]
#1=[#570+[#571-#570]*0.17218]
#2=[#577+[#578-#577]*0.17218]
#3=[#1+[#2-#1]*0.48737]
X8.72185 Y-3.29602 Z[#3+#4]
#1=[#570+[#571-#570]*0.16788]
#2=[#577+[#578-#577]*0.16788]
#3=[#1+[#2-#1]*0.49092]
X8.72322 Y-3.29754 Z[#3+#4]
#1=[#570+[#571-#570]*0.16237]
#2=[#577+[#578-#577]*0.16237]
#3=[#1+[#2-#1]*0.49257]
X8.72385 Y-3.29948 Z[#3+#4]
#1=[#570+[#571-#570]*0.15662]
#2=[#577+[#578-#577]*0.15662]
#3=[#1+[#2-#1]*0.49201]
X8.72364 Y-3.30152 Z[#3+#4]
#1=[#570+[#571-#570]*0.15161]
#2=[#577+[#578-#577]*0.15161]
#3=[#1+[#2-#1]*0.48935]
X8.72262 Y-3.30329 Z[#3+#4]
#1=[#570+[#571-#570]*0.14731]
#2=[#577+[#578-#577]*0.14731]
#3=[#1+[#2-#1]*0.48251]
X8.71998 Y-3.30481 Z[#3+#4]
#1=[#570+[#571-#570]*0.14700]
#2=[#577+[#578-#577]*0.14700]
#3=[#1+[#2-#1]*0.36280]
X8.67388 Y-3.30492 Z[#3+#4]
#1=[#570+[#571-#570]*0.01950]
#2=[#577+[#578-#577]*0.01950]
#3=[#1+[#2-#1]*0.36280]
X8.67388 Y-3.35000 Z[#3+#4]
#1=[#570+[#571-#570]*0.01132]
#2=[#577+[#578-#577]*0.01132]
#3=[#1+[#2-#1]*0.36036]
X8.67294 Y-3.35289 Z[#3+#4]
#1=[#570+[#571-#570]*0.00745]
#2=[#577+[#578-#577]*0.00745]
#3=[#1+[#2-#1]*0.35641]
X8.67142 Y-3.35426 Z[#3+#4]
#1=[#570+[#571-#570]*0.00566]
#2=[#577+[#578-#577]*0.00566]
#3=[#1+[#2-#1]*0.35136]
X8.66947 Y-3.35489 Z[#3+#4]
#1=[#570+[#571-#570]*0.00626]
#2=[#577+[#578-#577]*0.00626]
#3=[#1+[#2-#1]*0.34608]
X8.66744 Y-3.35468 Z[#3+#4]
#1=[#570+[#571-#570]*0.00916]
#2=[#577+[#578-#577]*0.00916]
#3=[#1+[#2-#1]*0.34147]
X8.66567 Y-3.35366 Z[#3+#4]
#1=[#570+[#571-#570]*0.01661]
#2=[#577+[#578-#577]*0.01661]
#3=[#1+[#2-#1]*0.33752]
X8.66415 Y-3.35102 Z[#3+#4]
#1=[#570+[#571-#570]*0.14700]
#2=[#577+[#578-#577]*0.14700]
#3=[#1+[#2-#1]*0.33724]
X8.66404 Y-3.30492 Z[#3+#4]
#1=[#570+[#571-#570]*0.14700]
#2=[#577+[#578-#577]*0.14700]
#3=[#1+[#2-#1]*0.22019]
X8.61896 Y-3.30492 Z[#3+#4]
#1=[#570+[#571-#570]*0.14966]
#2=[#577+[#578-#577]*0.14966]
#3=[#1+[#2-#1]*0.21268]
X8.61607 Y-3.30398 Z[#3+#4]
#1=[#570+[#571-#570]*0.15396]
#2=[#577+[#578-#577]*0.15396]
#3=[#1+[#2-#1]*0.20912]
X8.61470 Y-3.30246 Z[#3+#4]
#1=[#570+[#571-#570]*0.15946]
#2=[#577+[#578-#577]*0.15946]
#3=[#1+[#2-#1]*0.20748]
X8.61407 Y-3.30051 Z[#3+#4]
( Piece #3, position [2;0] )

G04 P0 ( dwell for no time -- G64 should not smooth over this point )
G00 Z0.08000 ( retract )

G00 X8.92300 Y-2.97619 ( rapid move to begin. )
G01 F180.00000
#1=[#578+[#579-#578]*0.07678]
#2=[#585+[#586-#585]*0.07678]
#3=[#1+[#2-#1]*0.00967]
G01 Z[-0.04000+#111]
G04 P0 ( dwell for no time -- G64 should not smooth over this point )
G01 F360.00000
#1=[#578+[#579-#578]*0.78388]
#2=[#585+[#586-#585]*0.78388]
#3=[#1+[#2-#1]*0.00967]
X8.92300 Y-2.72619 Z[#3+#4]
#1=[#579+[#580-#579]*0.49097]
#2=[#586+[#587-#586]*0.49097]
#3=[#1+[#2-#1]*0.00967]
X8.92300 Y-2.47619 Z[#3+#4]
#1=[#579+[#580-#579]*0.51228]
#2=[#586+[#587-#586]*0.51228]
#3=[#1+[#2-#1]*0.01357]
X8.92450 Y-2.46866 Z[#3+#4]
#1=[#579+[#580-#579]*0.52190]
#2=[#586+[#587-#586]*0.52190]
#3=[#1+[#2-#1]*0.01829]
X8.92632 Y-2.46525 Z[#3+#4]
#1=[#579+[#580-#579]*0.53727]
#2=[#586+[#587-#586]*0.53727]
#3=[#1+[#2-#1]*0.03239]
X8.93175 Y-2.45982 Z[#3+#4]
#1=[#579+[#580-#579]*0.54241]
#2=[#586+[#587-#586]*0.54241]
#3=[#1+[#2-#1]*0.04123]
X8.93515 Y-2.45800 Z[#3+#4]
#1=[#579+[#580-#579]*0.54665]
#2=[#586+[#587-#586]*0.54665]
#3=[#1+[#2-#1]*0.06079]
X8.94268 Y-2.45650 Z[#3+#4]
#1=[#579+[#580-#579]*0.54665]
#2=[#586+[#587-#586]*0.54665]
#3=[#1+[#2-#1]*0.67905]
X9.18078 Y-2.45650 Z[#3+#4]
#1=[#579+[#580-#579]*0.54543]
#2=[#586+[#587-#586]*0.54543]
#3=[#1+[#2-#1]*0.68967]
X9.18487 Y-2.45694 Z[#3+#4]
#1=[#579+[#580-#579]*0.54184]
#2=[#586+[#587-#586]*0.54184]
#3=[#1+[#2-#1]*0.69983]
X9.18878 Y-2.45821 Z[#3+#4]
#1=[#579+[#580-#579]*0.53602]
#2=[#586+[#587-#586]*0.53602]
#3=[#1+[#2-#1]*0.70909]
X9.19235 Y-2.46026 Z[#3+#4]
#1=[#579+[#580-#579]*0.52823]
#2=[#586+[#587-#586]*0.52823]
#3=[#1+[#2-#1]*0.71703]
X9.19541 Y-2.46302 Z[#3+#4]
#1=[#579+[#580-#579]*0.51881]
#2=[#586+[#587-#586]*0.51881]
#3=[#1+[#2-#1]*0.72331]
X9.19783 Y-2.46635 Z[#3+#4]
#1=[#579+[#580-#579]*0.50818]
#2=[#586+[#587-#586]*0.50818]
#3=[#1+[#2-#1]*0.72766]
X9.19950 Y-2.47011 Z[#3+#4]
#1=[#579+[#580-#579]*0.49679]
#2=[#586+[#587-#586]*0.49679]
#3=[#1+[#2-#1]*0.72988]
X9.20036 Y-2.47413 Z[#3+#4]
#1=[#579+[#580-#579]*0.48515]
#2=[#586+[#587-#586]*0.48515]
#3=[#1+[#2-#1]*0.72988]
X9.20036 Y-2.47825 Z[#3+#4]
#1=[#579+[#580-#579]*0.47377]
#2=[#586+[#587-#586]*0.47377]
#3=[#1+[#2-#1]*0.72766]
X9.19950 Y-2.48227 Z[#3+#4]
#1=[#579+[#580-#579]*0.46314]
#2=[#586+[#587-#586]*0.46314]
#3=[#1+[#2-#1]*0.72331]
X9.19783 Y-2.48603 Z[#3+#4]
#1=[#579+[#580-#579]*0.45372]
#2=[#586+[#587-#586]*0.45372]
#3=[#1+[#2-#1]*0.71703]
X9.19541 Y-2.48936 Z[#3+#4]
#1=[#579+[#580-#579]*0.44593]
#2=[#586+[#587-#586]*0.44593]
#3=[#1+[#2-#1]*0.70909]
X9.19235 Y-2.49212 Z[#3+#4]
#1=[#579+[#580-#579]*0.44011]
#2=[#586+[#587-#586]*0.44011]
#3=[#1+[#2-#1]*0.69983]
X9.18878 Y-2.49417 Z[#3+#4]
#1=[#579+[#580-#579]*0.43651]
#2=[#586+[#587-#586]*0.43651]
#3=[#1+[#2-#1]*0.68967]
X9.18487 Y-2.49545 Z[#3+#4]
#1=[#579+[#580-#579]*0.43530]
#2=[#586+[#587-#586]*0.43530]
#3=[#1+[#2-#1]*0.67905]
X9.18078 Y-2.49587 Z[#3+#4]
#1=[#579+[#580-#579]*0.43530]
#2=[#586+[#587-#586]*0.43530]
#3=[#1+[#2-#1]*0.11190]
X8.96237 Y-2.49587 Z[#3+#4]
#1=[#578+[#579-#578]*0.87322]
#2=[#585+[#586-#585]*0.87322]
#3=[#1+[#2-#1]*0.11190]
X8.96237 Y-2.69460 Z[#3+#4]
#1=[#578+[#579-#578]*0.87322]
#2=[#585+[#586-#585]*0.87322]
#3=[#1+[#2-#1]*0.49357]
X9.10935 Y-2.69460 Z[#3+#4]
#1=[#578+[#579-#578]*0.87201]
#2=[#585+[#586-#585]*0.87201]
#3=[#1+[#2-#1]*0.50420]
X9.11344 Y-2.69503 Z[#3+#4]
#1=[#578+[#579-#578]*0.86841]
#2=[#585+[#586-#585]*0.86841]
#3=[#1+[#2-#1]*0.51436]
X9.11736 Y-2.69630 Z[#3+#4]
#1=[#578+[#579-#578]*0.86259]
#2=[#585+[#586-#585]*0.86259]
#3=[#1+[#2-#1]*0.52361]
X9.12092 Y-2.69836 Z[#3+#4]
#1=[#578+[#579-#578]*0.85480]
#2=[#585+[#586-#585]*0.85480]
#3=[#1+[#2-#1]*0.53156]
X9.12398 Y-2.70111 Z[#3+#4]
#1=[#578+[#579-#578]*0.84538]
#2=[#585+[#586-#585]*0.84538]
#3=[#1+[#2-#1]*0.53784]
X9.12640 Y-2.70444 Z[#3+#4]
#1=[#578+[#579-#578]*0.83475]
#2=[#585+[#586-#585]*0.83475]
#3=[#1+[#2-#1]*0.54218]
X9.12807 Y-2.70820 Z[#3+#4]
#1=[#578+[#579-#578]*0.82337]
#2=[#585+[#586-#585]*0.82337]
#3=[#1+[#2-#1]*0.54440]
X9.12893 Y-2.71223 Z[#3+#4]
#1=[#578+[#579-#578]*0.81173]
#2=[#585+[#586-#585]*0.81173]
#3=[#1+[#2-#1]*0.54440]
X9.12893 Y-2.71634 Z[#3+#4]
#1=[#578+[#579-#578]*0.80034]
#2=[#585+[#586-#585]*0.80034]
#3=[#1+[#2-#1]*0.54218]
X9.12807 Y-2.72037 Z[#3+#4]
#1=[#578+[#579-#578]*0.78971]
#2=[#585+[#586-#585]*0.78971]
#3=[#1+[#2-#1]*0.53784]
X9.12640 Y-2.72413 Z[#3+#4]
#1=[#578+[#579-#578]*0.78029]
#2=[#585+[#586-#585]*0.78029]
#3=[#1+[#2-#1]*0.53156]
X9.12398 Y-2.72746 Z[#3+#4]
#1=[#578+[#579-#578]*0.77250]
#2=[#585+[#586-#585]*0.77250]
#3=[#1+[#2-#1]*0.52361]
X9.12092 Y-2.73021 Z[#3+#4]
#1=[#578+[#579-#578]*0.76668]
#2=[#585+[#586-#585]*0.76668]
#3=[#1+[#2-#1]*0.51436]
X9.11736 Y-2.73227 Z[#3+#4]
#1=[#578+[#579-#578]*0.76309]
#2=[#585+[#586-#585]*0.76309]
#3=[#1+[#2-#1]*0.50420]
X9.11344 Y-2.73354 Z[#3+#4]
#1=[#578+[#579-#578]*0.76187]
#2=[#585+[#586-#585]*0.76187]
#3=[#1+[#2-#1]*0.49357]
X9.10935 Y-2.73397 Z[#3+#4]
#1=[#578+[#579-#578]*0.76187]
#2=[#585+[#586-#585]*0.76187]
#3=[#1+[#2-#1]*0.11190]
X8.96237 Y-2.73397 Z[#3+#4]
#1=[#578+[#579-#578]*0.07678]
#2=[#585+[#586-#585]*0.07678]
#3=[#1+[#2-#1]*0.11190]
X8.96237 Y-2.97619 Z[#3+#4]
#1=[#578+[#579-#578]*0.06520]
#2=[#585+[#586-#585]*0.06520]
#3=[#1+[#2-#1]*0.11079]
X8.96194 Y-2.98028 Z[#3+#4]
#1=[#578+[#579-#578]*0.05413]
#2=[#585+[#586-#585]*0.05413]
#3=[#1+[#2-#1]*0.10749]
X8.96067 Y-2.98420 Z[#3+#4]
#1=[#578+[#579-#578]*0.04405]
#2=[#585+[#586-#585]*0.04405]
#3=[#1+[#2-#1]*0.10214]
X8.95861 Y-2.98776 Z[#3+#4]
#1=[#578+[#579-#578]*0.03540]
#2=[#585+[#586-#585]*0.03540]
#3=[#1+[#2-#1]*0.09499]
X8.95585 Y-2.99082 Z[#3+#4]
#1=[#578+[#579-#578]*0.02856]
#2=[#585+[#586-#585]*0.02856]
#3=[#1+[#2-#1]*0.08635]
X8.95253 Y-2.99324 Z[#3+#4]
#1=[#578+[#579-#578]*0.02383]
#2=[#585+[#586-#585]*0.02383]
#3=[#1+[#2-#1]*0.07658]
X8.94877 Y-2.99491 Z[#3+#4]
#1=[#578+[#579-#578]*0.02141]
#2=[#585+[#586-#585]*0.02141]
#3=[#1+[#2-#1]*0.06613]
X8.94474 Y-2.99577 Z[#3+#4]
#1=[#578+[#579-#578]*0.02141]
#2=[#585+[#586-#585]*0.02141]
#3=[#1+[#2-#1]*0.05545]
X8.94063 Y-2.99577 Z[#3+#4]
#1=[#578+[#579-#578]*0.02383]
#2=[#585+[#586-#585]*0.02383]
#3=[#1+[#2-#1]*0.04499]
X8.93660 Y-2.99491 Z[#3+#4]
#1=[#578+[#579-#578]*0.02856]
#2=[#585+[#586-#585]*0.02856]
#3=[#1+[#2-#1]*0.03523]
X8.93284 Y-2.99324 Z[#3+#4]
#1=[#578+[#579-#578]*0.03540]
#2=[#585+[#586-#585]*0.03540]
#3=[#1+[#2-#1]*0.02659]
X8.92951 Y-2.99082 Z[#3+#4]
#1=[#578+[#579-#578]*0.04405]
#2=[#585+[#586-#585]*0.04405]
#3=[#1+[#2-#1]*0.01944]
X8.92676 Y-2.98776 Z[#3+#4]
#1=[#578+[#579-#578]*0.05413]
#2=[#585+[#586-#585]*0.05413]
#3=[#1+[#2-#1]*0.01409]
X8.92470 Y-2.98420 Z[#3+#4]
#1=[#578+[#579-#578]*0.06520]
#2=[#585+[#586-#585]*0.06520]
#3=[#1+[#2-#1]*0.01079]
X8.92343 Y-2.98028 Z[#3+#4]
#1=[#578+[#579-#578]*0.07678]
#2=[#585+[#586-#585]*0.07678]
#3=[#1+[#2-#1]*0.00967]
X8.92300 Y-2.97619 Z[#3+#4]
G04 P0 ( dwell for no time -- G64 should not smooth over this point )
G00 Z0.08000 ( retract )

G00 X9.35157 Y-2.97619 ( rapid move to begin. )
G01 F180.00000
#1=[#585+[#586-#585]*0.07678]
#2=[#592+[#593-#592]*0.07678]
#3=[#1+[#2-#1]*0.12253]
G01 Z[-0.04000+#111]
G04 P0 ( dwell for no time -- G64 should not smooth over this point )
G01 F360.00000
#1=[#586+[#587-#586]*0.01957]
#2=[#593+[#594-#593]*0.01957]
#3=[#1+[#2-#1]*0.12253]
X9.35157 Y-2.64286 Z[#3+#4]
#1=[#586+[#587-#586]*0.03115]
#2=[#593+[#594-#593]*0.03115]
#3=[#1+[#2-#1]*0.12365]
X9.35200 Y-2.63876 Z[#3+#4]
#1=[#586+[#587-#586]*0.04222]
#2=[#593+[#594-#593]*0.04222]
#3=[#1+[#2-#1]*0.12695]
X9.35327 Y-2.63485 Z[#3+#4]
#1=[#586+[#587-#586]*0.05230]
#2=[#593+[#594-#593]*0.05230]
#3=[#1+[#2-#1]*0.13229]
X9.35533 Y-2.63129 Z[#3+#4]
#1=[#586+[#587-#586]*0.06095]
#2=[#593+[#594-#593]*0.06095]
#3=[#1+[#2-#1]*0.13945]
X9.35808 Y-2.62823 Z[#3+#4]
#1=[#586+[#587-#586]*0.06779]
#2=[#593+[#594-#593]*0.06779]
#3=[#1+[#2-#1]*0.14809]
X9.36141 Y-2.62581 Z[#3+#4]
#1=[#586+[#587-#586]*0.07253]
#2=[#593+[#594-#593]*0.07253]
#3=[#1+[#2-#1]*0.15785]
X9.36517 Y-2.62413 Z[#3+#4]
#1=[#586+[#587-#586]*0.07495]
#2=[#593+[#594-#593]*0.07495]
#3=[#1+[#2-#1]*0.16831]
X9.36920 Y-2.62328 Z[#3+#4]
#1=[#586+[#587-#586]*0.07495]
#2=[#593+[#594-#593]*0.07495]
#3=[#1+[#2-#1]*0.17899]
X9.37331 Y-2.62328 Z[#3+#4]
#1=[#586+[#587-#586]*0.07253]
#2=[#593+[#594-#593]*0.07253]
#3=[#1+[#2-#1]*0.18944]
X9.37734 Y-2.62413 Z[#3+#4]
#1=[#586+[#587-#586]*0.06779]
#2=[#593+[#594-#593]*0.06779]
#3=[#1+[#2-#1]*0.19921]
X9.38110 Y-2.62581 Z[#3+#4]
#1=[#586+[#587-#586]*0.06095]
#2=[#593+[#594-#593]*0.06095]
#3=[#1+[#2-#1]*0.20785]
X9.38443 Y-2.62823 Z[#3+#4]
#1=[#586+[#587-#586]*0.05230]
#2=[#593+[#594-#593]*0.05230]
#3=[#1+[#2-#1]*0.21500]
X9.38718 Y-2.63129 Z[#3+#4]
#1=[#586+[#587-#586]*0.04222]
#2=[#593+[#594-#593]*0.04222]
#3=[#1+[#2-#1]*0.22035]
X9.38924 Y-2.63485 Z[#3+#4]
#1=[#586+[#587-#586]*0.03115]
#2=[#593+[#594-#593]*0.03115]
#3=[#1+[#2-#1]*0.22365]
X9.39051 Y-2.63876 Z[#3+#4]
#1=[#585+[#586-#585]*0.95196]
#2=[#592+[#593-#592]*0.95196]
#3=[#1+[#2-#1]*0.22476]
X9.39094 Y-2.66676 Z[#3+#4]
#1=[#585+[#586-#585]*0.99740]
#2=[#592+[#593-#592]*0.99740]
#3=[#1+[#2-#1]*0.26741]
X9.40736 Y-2.65070 Z[#3+#4]
#1=[#586+[#587-#586]*0.07261]
#2=[#593+[#594-#593]*0.07261]
#3=[#1+[#2-#1]*0.40540]
X9.46050 Y-2.62410 Z[#3+#4]
#1=[#586+[#587-#586]*0.07525]
#2=[#593+[#594-#593]*0.07525]
#3=[#1+[#2-#1]*0.42095]
X9.46649 Y-2.62317 Z[#3+#4]
#1=[#586+[#587-#586]*0.07525]
#2=[#593+[#594-#593]*0.07525]
#3=[#1+[#2-#1]*0.54460]
X9.51411 Y-2.62317 Z[#3+#4]
#1=[#586+[#587-#586]*0.07403]
#2=[#593+[#594-#593]*0.07403]
#3=[#1+[#2-#1]*0.55523]
X9.51820 Y-2.62360 Z[#3+#4]
#1=[#586+[#587-#586]*0.07044]
#2=[#593+[#594-#593]*0.07044]
#3=[#1+[#2-#1]*0.56539]
X9.52212 Y-2.62487 Z[#3+#4]
#1=[#586+[#587-#586]*0.06462]
#2=[#593+[#594-#593]*0.06462]
#3=[#1+[#2-#1]*0.57465]
X9.52568 Y-2.62693 Z[#3+#4]
#1=[#586+[#587-#586]*0.05683]
#2=[#593+[#594-#593]*0.05683]
#3=[#1+[#2-#1]*0.58259]
X9.52874 Y-2.62968 Z[#3+#4]
#1=[#586+[#587-#586]*0.04741]
#2=[#593+[#594-#593]*0.04741]
#3=[#1+[#2-#1]*0.58887]
X9.53116 Y-2.63301 Z[#3+#4]
#1=[#586+[#587-#586]*0.03678]
#2=[#593+[#594-#593]*0.03678]
#3=[#1+[#2-#1]*0.59322]
X9.53283 Y-2.63677 Z[#3+#4]
#1=[#586+[#587-#586]*0.02539]
#2=[#593+[#594-#593]*0.02539]
#3=[#1+[#2-#1]*0.59544]
X9.53369 Y-2.64080 Z[#3+#4]
#1=[#586+[#587-#586]*0.01376]
#2=[#593+[#594-#593]*0.01376]
#3=[#1+[#2-#1]*0.59544]
X9.53369 Y-2.64491 Z[#3+#4]
#1=[#586+[#587-#586]*0.00237]
#2=[#593+[#594-#593]*0.00237]
#3=[#1+[#2-#1]*0.59322]
X9.53283 Y-2.64894 Z[#3+#4]
#1=[#585+[#586-#585]*0.99174]
#2=[#592+[#593-#592]*0.99174]
#3=[#1+[#2-#1]*0.58887]
X9.53116 Y-2.65270 Z[#3+#4]
#1=[#585+[#586-#585]*0.98232]
#2=[#592+[#593-#592]*0.98232]
#3=[#1+[#2-#1]*0.58259]
X9.52874 Y-2.65603 Z[#3+#4]
#1=[#585+[#586-#585]*0.97453]
#2=[#592+[#593-#592]*0.97453]
#3=[#1+[#2-#1]*0.57465]
X9.52568 Y-2.65878 Z[#3+#4]
#1=[#585+[#586-#585]*0.96871]
#2=[#592+[#593-#592]*0.96871]
#3=[#1+[#2-#1]*0.56539]
X9.52212 Y-2.66084 Z[#3+#4]
#1=[#585+[#586-#585]*0.96511]
#2=[#592+[#593-#592]*0.96511]
#3=[#1+[#2-#1]*0.55523]
X9.51820 Y-2.66211 Z[#3+#4]
#1=[#585+[#586-#585]*0.96390]
#2=[#592+[#593-#592]*0.96390]
#3=[#1+[#2-#1]*0.54460]
X9.51411 Y-2.66254 Z[#3+#4]
#1=[#585+[#586-#585]*0.96390]
#2=[#592+[#593-#592]*0.96390]
#3=[#1+[#2-#1]*0.43302]
X9.47114 Y-2.66254 Z[#3+#4]
#1=[#585+[#586-#585]*0.90647]
#2=[#592+[#593-#592]*0.90647]
#3=[#1+[#2-#1]*0.32758]
X9.43053 Y-2.68284 Z[#3+#4]
#1=[#585+[#586-#585]*0.85191]
#2=[#592+[#593-#592]*0.85191]
#3=[#1+[#2-#1]*0.27748]
X9.41124 Y-2.70214 Z[#3+#4]
#1=[#585+[#586-#585]*0.73706]
#2=[#592+[#593-#592]*0.73706]
#3=[#1+[#2-#1]*0.22476]
X9.39094 Y-2.74274 Z[#3+#4]
#1=[#585+[#586-#585]*0.07678]
#2=[#592+[#593-#592]*0.07678]
#3=[#1+[#2-#1]*0.22476]
X9.39094 Y-2.97619 Z[#3+#4]
#1=[#585+[#586-#585]*0.06520]
#2=[#592+[#593-#592]*0.06520]
#3=[#1+[#2-#1]*0.22365]
X9.39051 Y-2.98028 Z[#3+#4]
#1=[#585+[#586-#585]*0.05413]
#2=[#592+[#593-#592]*0.05413]
#3=[#1+[#2-#1]*0.22035]
X9.38924 Y-2.98420 Z[#3+#4]
#1=[#585+[#586-#585]*0.04405]
#2=[#592+[#593-#592]*0.04405]
#3=[#1+[#2-#1]*0.21500]
X9.38718 Y-2.98776 Z[#3+#4]
#1=[#585+[#586-#585]*0.03540]
#2=[#592+[#593-#592]*0.03540]
#3=[#1+[#2-#1]*0.20785]
X9.38443 Y-2.99082 Z[#3+#4]
#1=[#585+[#586-#585]*0.02856]
#2=[#592+[#593-#592]*0.02856]
#3=[#1+[#2-#1]*0.19921]
X9.38110 Y-2.99324 Z[#3+#4]
#1=[#585+[#586-#585]*0.02383]
#2=[#592+[#593-#592]*0.02383]
#3=[#1+[#2-#1]*0.18944]
X9.37734 Y-2.99491 Z[#3+#4]
#1=[#585+[#586-#585]*0.02141]
#2=[#592+[#593-#592]*0.02141]
#3=[#1+[#2-#1]*0.17899]
X9.37331 Y-2.99577 Z[#3+#4]
#1=[#585+[#586-#585]*0.02141]
#2=[#592+[#593-#592]*0.02141]
#3=[#1+[#2-#1]*0.16831]
X9.36920 Y-2.99577 Z[#3+#4]
#1=[#585+[#586-#585]*0.02383]
#2=[#592+[#593-#592]*0.02383]
#3=[#1+[#2-#1]*0.15785]
X9.36517 Y-2.99491 Z[#3+#4]
#1=[#585+[#586-#585]*0.02856]
#2=[#592+[#593-#592]*0.02856]
#3=[#1+[#2-#1]*0.14809]
X9.36141 Y-2.99324 Z[#3+#4]
#1=[#585+[#586-#585]*0.03540]
#2=[#592+[#593-#592]*0.03540]
#3=[#1+[#2-#1]*0.13945]
X9.35808 Y-2.99082 Z[#3+#4]
#1=[#585+[#586-#585]*0.04405]
#2=[#592+[#593-#592]*0.04405]
#3=[#1+[#2-#1]*0.13229]
X9.35533 Y-2.98776 Z[#3+#4]
#1=[#585+[#586-#585]*0.05413]
#2=[#592+[#593-#592]*0.05413]
#3=[#1+[#2-#1]*0.12695]
X9.35327 Y-2.98420 Z[#3+#4]
#1=[#585+[#586-#585]*0.06520]
#2=[#592+[#593-#592]*0.06520]
#3=[#1+[#2-#1]*0.12365]
X9.35200 Y-2.98028 Z[#3+#4]
#1=[#585+[#586-#585]*0.07678]
#2=[#592+[#593-#592]*0.07678]
#3=[#1+[#2-#1]*0.12253]
X9.35157 Y-2.97619 Z[#3+#4]
G04 P0 ( dwell for no time -- G64 should not smooth over this point )
G00 Z0.08000 ( retract )

G00 X9.63728 Y-2.88095 ( rapid move to begin. )
