( pcb2gcode 1.3.2 )
( Software-independent Gcode )

G94 ( Inches per minute feed rate. )
G20 ( Units == INCHES. )

G90 ( Absolute coordinates. )
G00 S10000 ( RPM spindle speed. )
G64 P0.00040 ( set maximum deviation from commanded toolpath )
G01 F100.00000 ( Feedrate. )

G01 F100.00000 ( Feedrate. )
M3 ( Spindle on clockwise. )
G04 P1.00000
( Piece #1, position [0;0] )

G04 P0 ( dwell for no time -- G64 should not smooth over this point )
G00 Z0.08000 ( retract )

G00 X4.59547 Y-3.45000 ( rapid move to begin. )
G01 Z-0.00512 F50.00000 ( plunge. )
G04 P0 ( dwell for no time -- G64 should not smooth over this point )
G01 F100.00000
G01 X4.59547 Y-3.45000
G01 X4.59547 Y-2.30000
G01 X4.59619 Y-2.29755
G01 X4.59827 Y-2.29582
G01 X6.50000 Y-2.29547
G01 X6.50320 Y-2.29680
G01 X6.65418 Y-2.44827
G01 X6.65453 Y-3.45000
G01 X6.65381 Y-3.45245
G01 X6.65173 Y-3.45418
G01 X4.59985 Y-3.45451
G01 X4.59671 Y-3.45311
G01 X4.59547 Y-3.45000
( Piece #2, position [1;0] )

G04 P0 ( dwell for no time -- G64 should not smooth over this point )
G00 Z0.08000 ( retract )

G00 X6.65853 Y-3.45000 ( rapid move to begin. )
G01 Z-0.00512 F50.00000 ( plunge. )
G04 P0 ( dwell for no time -- G64 should not smooth over this point )
G01 F100.00000
G01 X6.65853 Y-3.45000
G01 X6.65853 Y-2.30000
G01 X6.65925 Y-2.29755
G01 X6.66132 Y-2.29582
G01 X8.56305 Y-2.29547
G01 X8.56625 Y-2.29680
G01 X8.71724 Y-2.44827
G01 X8.71758 Y-3.45000
G01 X8.71686 Y-3.45245
G01 X8.71479 Y-3.45418
G01 X6.66290 Y-3.45451
G01 X6.65977 Y-3.45311
G01 X6.65853 Y-3.45000
( Piece #3, position [2;0] )

G04 P0 ( dwell for no time -- G64 should not smooth over this point )
G00 Z0.08000 ( retract )

G00 X8.72158 Y-3.45000 ( rapid move to begin. )
G01 Z-0.00512 F50.00000 ( plunge. )
G04 P0 ( dwell for no time -- G64 should not smooth over this point )
G01 F100.00000
G01 X8.72158 Y-3.45000
G01 X8.72158 Y-2.30000
G01 X8.72230 Y-2.29755
G01 X8.72438 Y-2.29582
G01 X10.62611 Y-2.29547
G01 X10.62931 Y-2.29680
G01 X10.78029 Y-2.44827
G01 X10.78064 Y-3.45000
G01 X10.77991 Y-3.45245
G01 X10.77784 Y-3.45418
G01 X8.72595 Y-3.45451
G01 X8.72282 Y-3.45311
G01 X8.72158 Y-3.45000
( Piece #4, position [0;1] )

G04 P0 ( dwell for no time -- G64 should not smooth over this point )
G00 Z0.08000 ( retract )

G00 X8.72158 Y-2.28694 ( rapid move to begin. )
G01 Z-0.00512 F50.00000 ( plunge. )
G04 P0 ( dwell for no time -- G64 should not smooth over this point )
G01 F100.00000
G01 X8.72158 Y-2.28694
G01 X8.72158 Y-1.13694
G01 X8.72230 Y-1.13449
G01 X8.72438 Y-1.13276
G01 X10.62611 Y-1.13242
G01 X10.62931 Y-1.13374
G01 X10.78029 Y-1.28521
G01 X10.78064 Y-2.28694
G01 X10.77991 Y-2.28939
G01 X10.77784 Y-2.29113
G01 X8.72595 Y-2.29145
G01 X8.72282 Y-2.29005
G01 X8.72158 Y-2.28694
( Piece #5, position [1;1] )

G04 P0 ( dwell for no time -- G64 should not smooth over this point )
G00 Z0.08000 ( retract )

G00 X6.65853 Y-2.28694 ( rapid move to begin. )
G01 Z-0.00512 F50.00000 ( plunge. )
G04 P0 ( dwell for no time -- G64 should not smooth over this point )
G01 F100.00000
G01 X6.65853 Y-2.28694
G01 X6.65853 Y-1.13694
G01 X6.65925 Y-1.13449
G01 X6.66132 Y-1.13276
G01 X8.56305 Y-1.13242
G01 X8.56625 Y-1.13374
G01 X8.71724 Y-1.28521
G01 X8.71758 Y-2.28694
G01 X8.71686 Y-2.28939
G01 X8.71479 Y-2.29113
G01 X6.66290 Y-2.29145
G01 X6.65977 Y-2.29005
G01 X6.65853 Y-2.28694
( Piece #6, position [2;1] )

G04 P0 ( dwell for no time -- G64 should not smooth over this point )
G00 Z0.08000 ( retract )

G00 X4.59547 Y-2.28694 ( rapid move to begin. )
G01 Z-0.00512 F50.00000 ( plunge. )
G04 P0 ( dwell for no time -- G64 should not smooth over this point )
G01 F100.00000
G01 X4.59547 Y-2.28694
G01 X4.59547 Y-1.13694
G01 X4.59619 Y-1.13449
G01 X4.59827 Y-1.13276
G01 X6.50000 Y-1.13242
G01 X6.50320 Y-1.13374
G01 X6.65418 Y-1.28521
G01 X6.65453 Y-2.28694
G01 X6.65381 Y-2.28939
G01 X6.65173 Y-2.29113
G01 X4.59985 Y-2.29145
G01 X4.59671 Y-2.29005
G01 X4.59547 Y-2.28694

G04 P0 ( dwell for no time -- G64 should not smooth over this point )
G00 Z1.000 ( retract )

M5 ( Spindle off. )
G04 P1.000000
M9 ( Coolant off. )
M2 ( Program end. )

