( pcb2gcode 1.3.2 )
( Software-independent Gcode )

G94 ( Inches per minute feed rate. )
G20 ( Units == INCHES. )

G90 ( Absolute coordinates. )
G00 S10000 ( RPM spindle speed. )
G64 P0.00040 ( set maximum deviation from commanded toolpath )
G01 F100.00000 ( Feedrate. )

G01 F100.00000 ( Feedrate. )
M3 ( Spindle on clockwise. )
G04 P1.00000
( Piece #1, position [0;0] )

G04 P0 ( dwell for no time -- G64 should not smooth over this point )
G00 Z0.08000 ( retract )

G00 X4.20000 Y-3.45000 ( rapid move to begin. )
G01 Z-0.13000 F50.00000 ( plunge. )
G04 P0 ( dwell for no time -- G64 should not smooth over this point )
G01 F100.00000
G01 X4.20000 Y-3.45000
G01 X4.20000 Y-2.30000
G01 X4.20768 Y-2.22196
G01 X4.23045 Y-2.14693
G01 X4.26741 Y-2.07777
G01 X4.31716 Y-2.01716
G01 X4.37777 Y-1.96741
G01 X4.44693 Y-1.93045
G01 X4.52196 Y-1.90769
G01 X4.60000 Y-1.90000
G01 X6.50000 Y-1.90000
G01 X6.57804 Y-1.90769
G01 X6.65307 Y-1.93045
G01 X6.72223 Y-1.96741
G01 X6.78284 Y-2.01716
G01 X6.93284 Y-2.16716
G01 X6.98259 Y-2.22777
G01 X7.01955 Y-2.29693
G01 X7.04231 Y-2.37196
G01 X7.05000 Y-2.45000
G01 X7.05000 Y-3.45000
G01 X7.04231 Y-3.52804
G01 X7.01955 Y-3.60307
G01 X6.98259 Y-3.67223
G01 X6.93284 Y-3.73284
G01 X6.87223 Y-3.78259
G01 X6.80307 Y-3.81955
G01 X6.72804 Y-3.84231
G01 X6.65000 Y-3.85000
G01 X4.60000 Y-3.85000
G01 X4.52196 Y-3.84231
G01 X4.44693 Y-3.81955
G01 X4.37777 Y-3.78259
G01 X4.31716 Y-3.73284
G01 X4.26741 Y-3.67223
G01 X4.23045 Y-3.60307
G01 X4.20768 Y-3.52804
G01 X4.20000 Y-3.45000
( Piece #2, position [1;0] )

G04 P0 ( dwell for no time -- G64 should not smooth over this point )
G00 Z0.08000 ( retract )

G00 X7.05991 Y-3.45000 ( rapid move to begin. )
G01 Z-0.13000 F50.00000 ( plunge. )
G04 P0 ( dwell for no time -- G64 should not smooth over this point )
G01 F100.00000
G01 X7.05991 Y-3.45000
G01 X7.05991 Y-2.30000
G01 X7.06759 Y-2.22196
G01 X7.09035 Y-2.14693
G01 X7.12732 Y-2.07777
G01 X7.17706 Y-2.01716
G01 X7.23768 Y-1.96741
G01 X7.30683 Y-1.93045
G01 X7.38187 Y-1.90769
G01 X7.45991 Y-1.90000
G01 X9.35991 Y-1.90000
G01 X9.43794 Y-1.90769
G01 X9.51298 Y-1.93045
G01 X9.58213 Y-1.96741
G01 X9.64275 Y-2.01716
G01 X9.79275 Y-2.16716
G01 X9.84249 Y-2.22777
G01 X9.87946 Y-2.29693
G01 X9.90222 Y-2.37196
G01 X9.90991 Y-2.45000
G01 X9.90991 Y-3.45000
G01 X9.90222 Y-3.52804
G01 X9.87946 Y-3.60307
G01 X9.84249 Y-3.67223
G01 X9.79275 Y-3.73284
G01 X9.73213 Y-3.78259
G01 X9.66298 Y-3.81955
G01 X9.58794 Y-3.84231
G01 X9.50991 Y-3.85000
G01 X7.45991 Y-3.85000
G01 X7.38187 Y-3.84231
G01 X7.30683 Y-3.81955
G01 X7.23768 Y-3.78259
G01 X7.17706 Y-3.73284
G01 X7.12732 Y-3.67223
G01 X7.09035 Y-3.60307
G01 X7.06759 Y-3.52804
G01 X7.05991 Y-3.45000
( Piece #3, position [2;0] )

G04 P0 ( dwell for no time -- G64 should not smooth over this point )
G00 Z0.08000 ( retract )

G00 X9.91981 Y-3.45000 ( rapid move to begin. )
G01 Z-0.13000 F50.00000 ( plunge. )
G04 P0 ( dwell for no time -- G64 should not smooth over this point )
G01 F100.00000
G01 X9.91981 Y-3.45000
G01 X9.91981 Y-2.30000
G01 X9.92750 Y-2.22196
G01 X9.95026 Y-2.14693
G01 X9.98722 Y-2.07777
G01 X10.03697 Y-2.01716
G01 X10.09758 Y-1.96741
G01 X10.16674 Y-1.93045
G01 X10.24177 Y-1.90769
G01 X10.31981 Y-1.90000
G01 X12.21981 Y-1.90000
G01 X12.29785 Y-1.90769
G01 X12.37288 Y-1.93045
G01 X12.44204 Y-1.96741
G01 X12.50265 Y-2.01716
G01 X12.65265 Y-2.16716
G01 X12.70240 Y-2.22777
G01 X12.73936 Y-2.29693
G01 X12.76212 Y-2.37196
G01 X12.76981 Y-2.45000
G01 X12.76981 Y-3.45000
G01 X12.76212 Y-3.52804
G01 X12.73936 Y-3.60307
G01 X12.70240 Y-3.67223
G01 X12.65265 Y-3.73284
G01 X12.59204 Y-3.78259
G01 X12.52288 Y-3.81955
G01 X12.44785 Y-3.84231
G01 X12.36981 Y-3.85000
G01 X10.31981 Y-3.85000
G01 X10.24177 Y-3.84231
G01 X10.16674 Y-3.81955
G01 X10.09758 Y-3.78259
G01 X10.03697 Y-3.73284
G01 X9.98722 Y-3.67223
G01 X9.95026 Y-3.60307
G01 X9.92750 Y-3.52804
G01 X9.91981 Y-3.45000
( Piece #4, position [0;1] )

G04 P0 ( dwell for no time -- G64 should not smooth over this point )
G00 Z0.08000 ( retract )

G00 X9.91981 Y-1.49009 ( rapid move to begin. )
G01 Z-0.13000 F50.00000 ( plunge. )
G04 P0 ( dwell for no time -- G64 should not smooth over this point )
G01 F100.00000
G01 X9.91981 Y-1.49009
G01 X9.91981 Y-0.34009
G01 X9.92750 Y-0.26206
G01 X9.95026 Y-0.18702
G01 X9.98722 Y-0.11787
G01 X10.03697 Y-0.05725
G01 X10.09758 Y-0.00751
G01 X10.16674 Y0.02946
G01 X10.24177 Y0.05222
G01 X10.31981 Y0.05991
G01 X12.21981 Y0.05991
G01 X12.29785 Y0.05222
G01 X12.37288 Y0.02946
G01 X12.44204 Y-0.00751
G01 X12.50265 Y-0.05725
G01 X12.65265 Y-0.20725
G01 X12.70240 Y-0.26787
G01 X12.73936 Y-0.33702
G01 X12.76212 Y-0.41206
G01 X12.76981 Y-0.49009
G01 X12.76981 Y-1.49009
G01 X12.76212 Y-1.56813
G01 X12.73936 Y-1.64317
G01 X12.70240 Y-1.71232
G01 X12.65265 Y-1.77294
G01 X12.59204 Y-1.82268
G01 X12.52288 Y-1.85965
G01 X12.44785 Y-1.88241
G01 X12.36981 Y-1.89009
G01 X10.31981 Y-1.89009
G01 X10.24177 Y-1.88241
G01 X10.16674 Y-1.85965
G01 X10.09758 Y-1.82268
G01 X10.03697 Y-1.77294
G01 X9.98722 Y-1.71232
G01 X9.95026 Y-1.64317
G01 X9.92750 Y-1.56813
G01 X9.91981 Y-1.49009
( Piece #5, position [1;1] )

G04 P0 ( dwell for no time -- G64 should not smooth over this point )
G00 Z0.08000 ( retract )

G00 X7.05991 Y-1.49009 ( rapid move to begin. )
G01 Z-0.13000 F50.00000 ( plunge. )
G04 P0 ( dwell for no time -- G64 should not smooth over this point )
G01 F100.00000
G01 X7.05991 Y-1.49009
G01 X7.05991 Y-0.34009
G01 X7.06759 Y-0.26206
G01 X7.09035 Y-0.18702
G01 X7.12732 Y-0.11787
G01 X7.17706 Y-0.05725
G01 X7.23768 Y-0.00751
G01 X7.30683 Y0.02946
G01 X7.38187 Y0.05222
G01 X7.45991 Y0.05991
G01 X9.35991 Y0.05991
G01 X9.43794 Y0.05222
G01 X9.51298 Y0.02946
G01 X9.58213 Y-0.00751
G01 X9.64275 Y-0.05725
G01 X9.79275 Y-0.20725
G01 X9.84249 Y-0.26787
G01 X9.87946 Y-0.33702
G01 X9.90222 Y-0.41206
G01 X9.90991 Y-0.49009
G01 X9.90991 Y-1.49009
G01 X9.90222 Y-1.56813
G01 X9.87946 Y-1.64317
G01 X9.84249 Y-1.71232
G01 X9.79275 Y-1.77294
G01 X9.73213 Y-1.82268
G01 X9.66298 Y-1.85965
G01 X9.58794 Y-1.88241
G01 X9.50991 Y-1.89009
G01 X7.45991 Y-1.89009
G01 X7.38187 Y-1.88241
G01 X7.30683 Y-1.85965
G01 X7.23768 Y-1.82268
G01 X7.17706 Y-1.77294
G01 X7.12732 Y-1.71232
G01 X7.09035 Y-1.64317
G01 X7.06759 Y-1.56813
G01 X7.05991 Y-1.49009
( Piece #6, position [2;1] )

G04 P0 ( dwell for no time -- G64 should not smooth over this point )
G00 Z0.08000 ( retract )

G00 X4.20000 Y-1.49009 ( rapid move to begin. )
G01 Z-0.13000 F50.00000 ( plunge. )
G04 P0 ( dwell for no time -- G64 should not smooth over this point )
G01 F100.00000
G01 X4.20000 Y-1.49009
G01 X4.20000 Y-0.34009
G01 X4.20768 Y-0.26206
G01 X4.23045 Y-0.18702
G01 X4.26741 Y-0.11787
G01 X4.31716 Y-0.05725
G01 X4.37777 Y-0.00751
G01 X4.44693 Y0.02946
G01 X4.52196 Y0.05222
G01 X4.60000 Y0.05991
G01 X6.50000 Y0.05991
G01 X6.57804 Y0.05222
G01 X6.65307 Y0.02946
G01 X6.72223 Y-0.00751
G01 X6.78284 Y-0.05725
G01 X6.93284 Y-0.20725
G01 X6.98259 Y-0.26787
G01 X7.01955 Y-0.33702
G01 X7.04231 Y-0.41206
G01 X7.05000 Y-0.49009
G01 X7.05000 Y-1.49009
G01 X7.04231 Y-1.56813
G01 X7.01955 Y-1.64317
G01 X6.98259 Y-1.71232
G01 X6.93284 Y-1.77294
G01 X6.87223 Y-1.82268
G01 X6.80307 Y-1.85965
G01 X6.72804 Y-1.88241
G01 X6.65000 Y-1.89009
G01 X4.60000 Y-1.89009
G01 X4.52196 Y-1.88241
G01 X4.44693 Y-1.85965
G01 X4.37777 Y-1.82268
G01 X4.31716 Y-1.77294
G01 X4.26741 Y-1.71232
G01 X4.23045 Y-1.64317
G01 X4.20768 Y-1.56813
G01 X4.20000 Y-1.49009

G04 P0 ( dwell for no time -- G64 should not smooth over this point )
G00 Z1.000 ( retract )

M5 ( Spindle off. )
G04 P1.000000
M9 ( Coolant off. )
M2 ( Program end. )

