( pcb2gcode 1.3.2 )
( Software-independent Gcode )

G94 ( Inches per minute feed rate. )
G20 ( Units == INCHES. )

G90 ( Absolute coordinates. )
G00 S10000 ( RPM spindle speed. )
G64 P0.00040 ( set maximum deviation from commanded toolpath )
G01 F100.00000 ( Feedrate. )

G01 F100.00000 ( Feedrate. )
M3 ( Spindle on clockwise. )
G04 P1.00000
( Piece #1, position [0;0] )

G04 P0 ( dwell for no time -- G64 should not smooth over this point )
G00 Z0.08000 ( retract )

G00 X4.57047 Y-3.45000 ( rapid move to begin. )
G01 Z-0.00512 F50.00000 ( plunge. )
G04 P0 ( dwell for no time -- G64 should not smooth over this point )
G01 F100.00000
G01 X4.57047 Y-3.45000
G01 X4.57047 Y-2.30000
G01 X4.57104 Y-2.29424
G01 X4.57272 Y-2.28870
G01 X4.57545 Y-2.28360
G01 X4.57912 Y-2.27912
G01 X4.58359 Y-2.27545
G01 X4.58870 Y-2.27272
G01 X4.59424 Y-2.27104
G01 X4.60000 Y-2.27047
G01 X6.50000 Y-2.27047
G01 X6.50576 Y-2.27104
G01 X6.51130 Y-2.27272
G01 X6.51640 Y-2.27545
G01 X6.52088 Y-2.27912
G01 X6.67088 Y-2.42912
G01 X6.67455 Y-2.43359
G01 X6.67728 Y-2.43870
G01 X6.67896 Y-2.44424
G01 X6.67953 Y-2.45000
G01 X6.67953 Y-3.45000
G01 X6.67896 Y-3.45576
G01 X6.67728 Y-3.46130
G01 X6.67455 Y-3.46640
G01 X6.67088 Y-3.47088
G01 X6.66640 Y-3.47455
G01 X6.66130 Y-3.47728
G01 X6.65576 Y-3.47896
G01 X6.65000 Y-3.47953
G01 X4.60000 Y-3.47953
G01 X4.59424 Y-3.47896
G01 X4.58870 Y-3.47728
G01 X4.58359 Y-3.47455
G01 X4.57912 Y-3.47088
G01 X4.57545 Y-3.46640
G01 X4.57272 Y-3.46130
G01 X4.57104 Y-3.45576
G01 X4.57047 Y-3.45000
( Piece #2, position [1;0] )

G04 P0 ( dwell for no time -- G64 should not smooth over this point )
G00 Z0.08000 ( retract )

G00 X6.68943 Y-3.45000 ( rapid move to begin. )
G01 Z-0.00512 F50.00000 ( plunge. )
G04 P0 ( dwell for no time -- G64 should not smooth over this point )
G01 F100.00000
G01 X6.68943 Y-3.45000
G01 X6.68943 Y-2.30000
G01 X6.69000 Y-2.29424
G01 X6.69168 Y-2.28870
G01 X6.69441 Y-2.28360
G01 X6.69808 Y-2.27912
G01 X6.70256 Y-2.27545
G01 X6.70766 Y-2.27272
G01 X6.71320 Y-2.27104
G01 X6.71896 Y-2.27047
G01 X8.61896 Y-2.27047
G01 X8.62472 Y-2.27104
G01 X8.63026 Y-2.27272
G01 X8.63536 Y-2.27545
G01 X8.63984 Y-2.27912
G01 X8.78984 Y-2.42912
G01 X8.79351 Y-2.43359
G01 X8.79624 Y-2.43870
G01 X8.79792 Y-2.44424
G01 X8.79849 Y-2.45000
G01 X8.79849 Y-3.45000
G01 X8.79792 Y-3.45576
G01 X8.79624 Y-3.46130
G01 X8.79351 Y-3.46640
G01 X8.78984 Y-3.47088
G01 X8.78536 Y-3.47455
G01 X8.78026 Y-3.47728
G01 X8.77472 Y-3.47896
G01 X8.76896 Y-3.47953
G01 X6.71896 Y-3.47953
G01 X6.71320 Y-3.47896
G01 X6.70766 Y-3.47728
G01 X6.70256 Y-3.47455
G01 X6.69808 Y-3.47088
G01 X6.69441 Y-3.46640
G01 X6.69168 Y-3.46130
G01 X6.69000 Y-3.45576
G01 X6.68943 Y-3.45000
( Piece #3, position [2;0] )

G04 P0 ( dwell for no time -- G64 should not smooth over this point )
G00 Z0.08000 ( retract )

G00 X8.80839 Y-3.45000 ( rapid move to begin. )
G01 Z-0.00512 F50.00000 ( plunge. )
G04 P0 ( dwell for no time -- G64 should not smooth over this point )
G01 F100.00000
G01 X8.80839 Y-3.45000
G01 X8.80839 Y-2.30000
G01 X8.80896 Y-2.29424
G01 X8.81064 Y-2.28870
G01 X8.81337 Y-2.28360
G01 X8.81704 Y-2.27912
G01 X8.82152 Y-2.27545
G01 X8.82662 Y-2.27272
G01 X8.83216 Y-2.27104
G01 X8.83792 Y-2.27047
G01 X10.73792 Y-2.27047
G01 X10.74368 Y-2.27104
G01 X10.74922 Y-2.27272
G01 X10.75433 Y-2.27545
G01 X10.75880 Y-2.27912
G01 X10.90880 Y-2.42912
G01 X10.91247 Y-2.43359
G01 X10.91520 Y-2.43870
G01 X10.91688 Y-2.44424
G01 X10.91745 Y-2.45000
G01 X10.91745 Y-3.45000
G01 X10.91688 Y-3.45576
G01 X10.91520 Y-3.46130
G01 X10.91247 Y-3.46640
G01 X10.90880 Y-3.47088
G01 X10.90433 Y-3.47455
G01 X10.89922 Y-3.47728
G01 X10.89368 Y-3.47896
G01 X10.88792 Y-3.47953
G01 X8.83792 Y-3.47953
G01 X8.83216 Y-3.47896
G01 X8.82662 Y-3.47728
G01 X8.82152 Y-3.47455
G01 X8.81704 Y-3.47088
G01 X8.81337 Y-3.46640
G01 X8.81064 Y-3.46130
G01 X8.80896 Y-3.45576
G01 X8.80839 Y-3.45000
( Piece #4, position [0;1] )

G04 P0 ( dwell for no time -- G64 should not smooth over this point )
G00 Z0.08000 ( retract )

G00 X8.80839 Y-2.23104 ( rapid move to begin. )
G01 Z-0.00512 F50.00000 ( plunge. )
G04 P0 ( dwell for no time -- G64 should not smooth over this point )
G01 F100.00000
G01 X8.80839 Y-2.23104
G01 X8.80839 Y-1.08104
G01 X8.80896 Y-1.07528
G01 X8.81064 Y-1.06974
G01 X8.81337 Y-1.06463
G01 X8.81704 Y-1.06016
G01 X8.82152 Y-1.05649
G01 X8.82662 Y-1.05376
G01 X8.83216 Y-1.05208
G01 X8.83792 Y-1.05151
G01 X10.73792 Y-1.05151
G01 X10.74368 Y-1.05208
G01 X10.74922 Y-1.05376
G01 X10.75433 Y-1.05649
G01 X10.75880 Y-1.06016
G01 X10.90880 Y-1.21016
G01 X10.91247 Y-1.21463
G01 X10.91520 Y-1.21974
G01 X10.91688 Y-1.22528
G01 X10.91745 Y-1.23104
G01 X10.91745 Y-2.23104
G01 X10.91688 Y-2.23680
G01 X10.91520 Y-2.24234
G01 X10.91247 Y-2.24744
G01 X10.90880 Y-2.25192
G01 X10.90433 Y-2.25559
G01 X10.89922 Y-2.25832
G01 X10.89368 Y-2.26000
G01 X10.88792 Y-2.26057
G01 X8.83792 Y-2.26057
G01 X8.83216 Y-2.26000
G01 X8.82662 Y-2.25832
G01 X8.82152 Y-2.25559
G01 X8.81704 Y-2.25192
G01 X8.81337 Y-2.24744
G01 X8.81064 Y-2.24234
G01 X8.80896 Y-2.23680
G01 X8.80839 Y-2.23104
( Piece #5, position [1;1] )

G04 P0 ( dwell for no time -- G64 should not smooth over this point )
G00 Z0.08000 ( retract )

G00 X6.68943 Y-2.23104 ( rapid move to begin. )
G01 Z-0.00512 F50.00000 ( plunge. )
G04 P0 ( dwell for no time -- G64 should not smooth over this point )
G01 F100.00000
G01 X6.68943 Y-2.23104
G01 X6.68943 Y-1.08104
G01 X6.69000 Y-1.07528
G01 X6.69168 Y-1.06974
G01 X6.69441 Y-1.06463
G01 X6.69808 Y-1.06016
G01 X6.70256 Y-1.05649
G01 X6.70766 Y-1.05376
G01 X6.71320 Y-1.05208
G01 X6.71896 Y-1.05151
G01 X8.61896 Y-1.05151
G01 X8.62472 Y-1.05208
G01 X8.63026 Y-1.05376
G01 X8.63536 Y-1.05649
G01 X8.63984 Y-1.06016
G01 X8.78984 Y-1.21016
G01 X8.79351 Y-1.21463
G01 X8.79624 Y-1.21974
G01 X8.79792 Y-1.22528
G01 X8.79849 Y-1.23104
G01 X8.79849 Y-2.23104
G01 X8.79792 Y-2.23680
G01 X8.79624 Y-2.24234
G01 X8.79351 Y-2.24744
G01 X8.78984 Y-2.25192
G01 X8.78536 Y-2.25559
G01 X8.78026 Y-2.25832
G01 X8.77472 Y-2.26000
G01 X8.76896 Y-2.26057
G01 X6.71896 Y-2.26057
G01 X6.71320 Y-2.26000
G01 X6.70766 Y-2.25832
G01 X6.70256 Y-2.25559
G01 X6.69808 Y-2.25192
G01 X6.69441 Y-2.24744
G01 X6.69168 Y-2.24234
G01 X6.69000 Y-2.23680
G01 X6.68943 Y-2.23104
( Piece #6, position [2;1] )

G04 P0 ( dwell for no time -- G64 should not smooth over this point )
G00 Z0.08000 ( retract )

G00 X4.57047 Y-2.23104 ( rapid move to begin. )
G01 Z-0.00512 F50.00000 ( plunge. )
G04 P0 ( dwell for no time -- G64 should not smooth over this point )
G01 F100.00000
G01 X4.57047 Y-2.23104
G01 X4.57047 Y-1.08104
G01 X4.57104 Y-1.07528
G01 X4.57272 Y-1.06974
G01 X4.57545 Y-1.06463
G01 X4.57912 Y-1.06016
G01 X4.58359 Y-1.05649
G01 X4.58870 Y-1.05376
G01 X4.59424 Y-1.05208
G01 X4.60000 Y-1.05151
G01 X6.50000 Y-1.05151
G01 X6.50576 Y-1.05208
G01 X6.51130 Y-1.05376
G01 X6.51640 Y-1.05649
G01 X6.52088 Y-1.06016
G01 X6.67088 Y-1.21016
G01 X6.67455 Y-1.21463
G01 X6.67728 Y-1.21974
G01 X6.67896 Y-1.22528
G01 X6.67953 Y-1.23104
G01 X6.67953 Y-2.23104
G01 X6.67896 Y-2.23680
G01 X6.67728 Y-2.24234
G01 X6.67455 Y-2.24744
G01 X6.67088 Y-2.25192
G01 X6.66640 Y-2.25559
G01 X6.66130 Y-2.25832
G01 X6.65576 Y-2.26000
G01 X6.65000 Y-2.26057
G01 X4.60000 Y-2.26057
G01 X4.59424 Y-2.26000
G01 X4.58870 Y-2.25832
G01 X4.58359 Y-2.25559
G01 X4.57912 Y-2.25192
G01 X4.57545 Y-2.24744
G01 X4.57272 Y-2.24234
G01 X4.57104 Y-2.23680
G01 X4.57047 Y-2.23104

G04 P0 ( dwell for no time -- G64 should not smooth over this point )
G00 Z1.000 ( retract )

M5 ( Spindle off. )
G04 P1.000000
M9 ( Coolant off. )
M2 ( Program end. )

