( pcb2gcode 1.3.2 )
( Software-independent Gcode )

G94 ( Inches per minute feed rate. )
G20 ( Units == INCHES. )

G90 ( Absolute coordinates. )
G00 S10000 ( RPM spindle speed. )
G64 P0.00040 ( set maximum deviation from commanded toolpath )
G01 F100.00000 ( Feedrate. )

G01 F100.00000 ( Feedrate. )
M3 ( Spindle on clockwise. )
G04 P1.00000
( Piece #1, position [0;0] )

G04 P0 ( dwell for no time -- G64 should not smooth over this point )
G00 Z0.08000 ( retract )

G00 X4.19705 Y-3.45000 ( rapid move to begin. )
G01 Z-0.13000 F50.00000 ( plunge. )
G04 P0 ( dwell for no time -- G64 should not smooth over this point )
G01 F100.00000
G01 X4.19705 Y-3.45000
G01 X4.19705 Y-2.30000
G01 X4.20138 Y-2.24131
G01 X4.21427 Y-2.18389
G01 X4.21477 Y-2.18225
G01 X4.24478 Y-2.10980
G01 X4.28834 Y-2.04460
G01 X4.34379 Y-1.98916
G01 X4.34511 Y-1.98807
G01 X4.40170 Y-1.94924
G01 X4.46409 Y-1.92066
G01 X4.53045 Y-1.90317
G01 X4.59882 Y-1.89727
G01 X6.49995 Y-1.89705
G01 X6.57801 Y-1.90473
G01 X6.65307 Y-1.92750
G01 X6.65516 Y-1.92836
G01 X6.72449 Y-1.96544
G01 X6.78523 Y-2.01537
G01 X6.93587 Y-2.16633
G01 X6.98548 Y-2.22689
G01 X7.02234 Y-2.29595
G01 X7.04505 Y-2.37087
G01 X7.05273 Y-2.44878
G01 X7.05295 Y-3.44991
G01 X7.04863 Y-3.50865
G01 X7.03573 Y-3.56611
G01 X7.03523 Y-3.56775
G01 X7.00522 Y-3.64020
G01 X6.96166 Y-3.70540
G01 X6.90621 Y-3.76084
G01 X6.90489 Y-3.76193
G01 X6.84830 Y-3.80076
G01 X6.78591 Y-3.82934
G01 X6.71955 Y-3.84683
G01 X6.65117 Y-3.85273
G01 X4.60004 Y-3.85295
G01 X4.52713 Y-3.84626
G01 X4.45665 Y-3.82638
G01 X4.45468 Y-3.82563
G01 X4.38458 Y-3.79049
G01 X4.32268 Y-3.74234
G01 X4.27137 Y-3.68305
G01 X4.23261 Y-3.61489
G01 X4.23163 Y-3.61269
G01 X4.21254 Y-3.56025
G01 X4.20094 Y-3.50567
G01 X4.19705 Y-3.45000
( Piece #2, position [1;0] )

G04 P0 ( dwell for no time -- G64 should not smooth over this point )
G00 Z0.08000 ( retract )

G00 X7.05695 Y-3.45000 ( rapid move to begin. )
G01 Z-0.13000 F50.00000 ( plunge. )
G04 P0 ( dwell for no time -- G64 should not smooth over this point )
G01 F100.00000
G01 X7.05695 Y-3.45000
G01 X7.05695 Y-2.30000
G01 X7.06128 Y-2.24131
G01 X7.07418 Y-2.18389
G01 X7.07467 Y-2.18225
G01 X7.10468 Y-2.10980
G01 X7.14825 Y-2.04460
G01 X7.20369 Y-1.98916
G01 X7.20502 Y-1.98807
G01 X7.26161 Y-1.94924
G01 X7.32400 Y-1.92066
G01 X7.39036 Y-1.90317
G01 X7.45873 Y-1.89727
G01 X9.35986 Y-1.89705
G01 X9.43792 Y-1.90473
G01 X9.51298 Y-1.92750
G01 X9.51507 Y-1.92836
G01 X9.58440 Y-1.96544
G01 X9.64513 Y-2.01537
G01 X9.79577 Y-2.16633
G01 X9.84538 Y-2.22689
G01 X9.88225 Y-2.29595
G01 X9.90495 Y-2.37087
G01 X9.91263 Y-2.44878
G01 X9.91286 Y-3.44991
G01 X9.90854 Y-3.50865
G01 X9.89563 Y-3.56611
G01 X9.89514 Y-3.56775
G01 X9.86513 Y-3.64020
G01 X9.82156 Y-3.70540
G01 X9.76612 Y-3.76084
G01 X9.76479 Y-3.76193
G01 X9.70820 Y-3.80076
G01 X9.64581 Y-3.82934
G01 X9.57945 Y-3.84683
G01 X9.51108 Y-3.85273
G01 X7.45995 Y-3.85295
G01 X7.38703 Y-3.84626
G01 X7.31656 Y-3.82638
G01 X7.31458 Y-3.82563
G01 X7.24448 Y-3.79049
G01 X7.18259 Y-3.74234
G01 X7.13127 Y-3.68305
G01 X7.09251 Y-3.61489
G01 X7.09153 Y-3.61269
G01 X7.07245 Y-3.56025
G01 X7.06085 Y-3.50567
G01 X7.05695 Y-3.45000
( Piece #3, position [2;0] )

G04 P0 ( dwell for no time -- G64 should not smooth over this point )
G00 Z0.08000 ( retract )

G00 X9.91686 Y-3.45000 ( rapid move to begin. )
G01 Z-0.13000 F50.00000 ( plunge. )
G04 P0 ( dwell for no time -- G64 should not smooth over this point )
G01 F100.00000
G01 X9.91686 Y-3.45000
G01 X9.91686 Y-2.30000
G01 X9.92119 Y-2.24131
G01 X9.93408 Y-2.18389
G01 X9.93458 Y-2.18225
G01 X9.96459 Y-2.10980
G01 X10.00815 Y-2.04460
G01 X10.06360 Y-1.98916
G01 X10.06492 Y-1.98807
G01 X10.12151 Y-1.94924
G01 X10.18390 Y-1.92066
G01 X10.25026 Y-1.90317
G01 X10.31863 Y-1.89727
G01 X12.21976 Y-1.89705
G01 X12.29782 Y-1.90473
G01 X12.37288 Y-1.92750
G01 X12.37497 Y-1.92836
G01 X12.44430 Y-1.96544
G01 X12.50504 Y-2.01537
G01 X12.65568 Y-2.16633
G01 X12.70529 Y-2.22689
G01 X12.74215 Y-2.29595
G01 X12.76486 Y-2.37087
G01 X12.77254 Y-2.44878
G01 X12.77276 Y-3.44991
G01 X12.76844 Y-3.50865
G01 X12.75554 Y-3.56611
G01 X12.75504 Y-3.56775
G01 X12.72503 Y-3.64020
G01 X12.68147 Y-3.70540
G01 X12.62602 Y-3.76084
G01 X12.62470 Y-3.76193
G01 X12.56811 Y-3.80076
G01 X12.50572 Y-3.82934
G01 X12.43936 Y-3.84683
G01 X12.37098 Y-3.85273
G01 X10.31985 Y-3.85295
G01 X10.24694 Y-3.84626
G01 X10.17646 Y-3.82638
G01 X10.17449 Y-3.82563
G01 X10.10439 Y-3.79049
G01 X10.04249 Y-3.74234
G01 X9.99118 Y-3.68305
G01 X9.95242 Y-3.61489
G01 X9.95144 Y-3.61269
G01 X9.93235 Y-3.56025
G01 X9.92075 Y-3.50567
G01 X9.91686 Y-3.45000
( Piece #4, position [0;1] )

G04 P0 ( dwell for no time -- G64 should not smooth over this point )
G00 Z0.08000 ( retract )

G00 X9.91686 Y-1.49009 ( rapid move to begin. )
G01 Z-0.13000 F50.00000 ( plunge. )
G04 P0 ( dwell for no time -- G64 should not smooth over this point )
G01 F100.00000
G01 X9.91686 Y-1.49009
G01 X9.91686 Y-0.34009
G01 X9.92119 Y-0.28140
G01 X9.93408 Y-0.22398
G01 X9.93458 Y-0.22234
G01 X9.96459 Y-0.14990
G01 X10.00815 Y-0.08470
G01 X10.06360 Y-0.02925
G01 X10.06492 Y-0.02816
G01 X10.12151 Y0.01066
G01 X10.18390 Y0.03924
G01 X10.25026 Y0.05674
G01 X10.31863 Y0.06263
G01 X12.21976 Y0.06286
G01 X12.29782 Y0.05518
G01 X12.37288 Y0.03241
G01 X12.37497 Y0.03155
G01 X12.44430 Y-0.00554
G01 X12.50504 Y-0.05546
G01 X12.65568 Y-0.20642
G01 X12.70529 Y-0.26698
G01 X12.74215 Y-0.33604
G01 X12.76486 Y-0.41097
G01 X12.77254 Y-0.48887
G01 X12.77276 Y-1.49000
G01 X12.76844 Y-1.54874
G01 X12.75554 Y-1.60621
G01 X12.75504 Y-1.60785
G01 X12.72503 Y-1.68029
G01 X12.68147 Y-1.74549
G01 X12.62602 Y-1.80094
G01 X12.62470 Y-1.80203
G01 X12.56811 Y-1.84085
G01 X12.50572 Y-1.86943
G01 X12.43936 Y-1.88693
G01 X12.37098 Y-1.89282
G01 X10.31985 Y-1.89305
G01 X10.24694 Y-1.88635
G01 X10.17646 Y-1.86648
G01 X10.17449 Y-1.86572
G01 X10.10439 Y-1.83058
G01 X10.04249 Y-1.78244
G01 X9.99118 Y-1.72315
G01 X9.95242 Y-1.65498
G01 X9.95144 Y-1.65279
G01 X9.93235 Y-1.60035
G01 X9.92075 Y-1.54576
G01 X9.91686 Y-1.49009
( Piece #5, position [1;1] )

G04 P0 ( dwell for no time -- G64 should not smooth over this point )
G00 Z0.08000 ( retract )

G00 X7.05695 Y-1.49009 ( rapid move to begin. )
G01 Z-0.13000 F50.00000 ( plunge. )
G04 P0 ( dwell for no time -- G64 should not smooth over this point )
G01 F100.00000
G01 X7.05695 Y-1.49009
G01 X7.05695 Y-0.34009
G01 X7.06128 Y-0.28140
G01 X7.07418 Y-0.22398
G01 X7.07467 Y-0.22234
G01 X7.10468 Y-0.14990
G01 X7.14825 Y-0.08470
G01 X7.20369 Y-0.02925
G01 X7.20502 Y-0.02816
G01 X7.26161 Y0.01066
G01 X7.32400 Y0.03924
G01 X7.39036 Y0.05674
G01 X7.45873 Y0.06263
G01 X9.35986 Y0.06286
G01 X9.43792 Y0.05518
G01 X9.51298 Y0.03241
G01 X9.51507 Y0.03155
G01 X9.58440 Y-0.00554
G01 X9.64513 Y-0.05546
G01 X9.79577 Y-0.20642
G01 X9.84538 Y-0.26698
G01 X9.88225 Y-0.33604
G01 X9.90495 Y-0.41097
G01 X9.91263 Y-0.48887
G01 X9.91286 Y-1.49000
G01 X9.90854 Y-1.54874
G01 X9.89563 Y-1.60621
G01 X9.89514 Y-1.60785
G01 X9.86513 Y-1.68029
G01 X9.82156 Y-1.74549
G01 X9.76612 Y-1.80094
G01 X9.76479 Y-1.80203
G01 X9.70820 Y-1.84085
G01 X9.64581 Y-1.86943
G01 X9.57945 Y-1.88693
G01 X9.51108 Y-1.89282
G01 X7.45995 Y-1.89305
G01 X7.38703 Y-1.88635
G01 X7.31656 Y-1.86648
G01 X7.31458 Y-1.86572
G01 X7.24448 Y-1.83058
G01 X7.18259 Y-1.78244
G01 X7.13127 Y-1.72315
G01 X7.09251 Y-1.65498
G01 X7.09153 Y-1.65279
G01 X7.07245 Y-1.60035
G01 X7.06085 Y-1.54576
G01 X7.05695 Y-1.49009
( Piece #6, position [2;1] )

G04 P0 ( dwell for no time -- G64 should not smooth over this point )
G00 Z0.08000 ( retract )

G00 X4.19705 Y-1.49009 ( rapid move to begin. )
G01 Z-0.13000 F50.00000 ( plunge. )
G04 P0 ( dwell for no time -- G64 should not smooth over this point )
G01 F100.00000
G01 X4.19705 Y-1.49009
G01 X4.19705 Y-0.34009
G01 X4.20138 Y-0.28140
G01 X4.21427 Y-0.22398
G01 X4.21477 Y-0.22234
G01 X4.24478 Y-0.14990
G01 X4.28834 Y-0.08470
G01 X4.34379 Y-0.02925
G01 X4.34511 Y-0.02816
G01 X4.40170 Y0.01066
G01 X4.46409 Y0.03924
G01 X4.53045 Y0.05674
G01 X4.59882 Y0.06263
G01 X6.49995 Y0.06286
G01 X6.57801 Y0.05518
G01 X6.65307 Y0.03241
G01 X6.65516 Y0.03155
G01 X6.72449 Y-0.00554
G01 X6.78523 Y-0.05546
G01 X6.93587 Y-0.20642
G01 X6.98548 Y-0.26698
G01 X7.02234 Y-0.33604
G01 X7.04505 Y-0.41097
G01 X7.05273 Y-0.48887
G01 X7.05295 Y-1.49000
G01 X7.04863 Y-1.54874
G01 X7.03573 Y-1.60621
G01 X7.03523 Y-1.60785
G01 X7.00522 Y-1.68029
G01 X6.96166 Y-1.74549
G01 X6.90621 Y-1.80094
G01 X6.90489 Y-1.80203
G01 X6.84830 Y-1.84085
G01 X6.78591 Y-1.86943
G01 X6.71955 Y-1.88693
G01 X6.65117 Y-1.89282
G01 X4.60004 Y-1.89305
G01 X4.52713 Y-1.88635
G01 X4.45665 Y-1.86648
G01 X4.45468 Y-1.86572
G01 X4.38458 Y-1.83058
G01 X4.32268 Y-1.78244
G01 X4.27137 Y-1.72315
G01 X4.23261 Y-1.65498
G01 X4.23163 Y-1.65279
G01 X4.21254 Y-1.60035
G01 X4.20094 Y-1.54576
G01 X4.19705 Y-1.49009

G04 P0 ( dwell for no time -- G64 should not smooth over this point )
G00 Z1.000 ( retract )

M5 ( Spindle off. )
G04 P1.000000
M9 ( Coolant off. )
M2 ( Program end. )

