( pcb2gcode 1.3.2 )
( Software-independent Gcode )

G94 ( Inches per minute feed rate. )
G20 ( Units == INCHES. )

G90 ( Absolute coordinates. )
G00 S10000 ( RPM spindle speed. )
G64 P0.00040 ( set maximum deviation from commanded toolpath )
G01 F100.00000 ( Feedrate. )

G01 F100.00000 ( Feedrate. )
M3 ( Spindle on clockwise. )
G04 P1.00000
( Piece #1, position [0;0] )

G04 P0 ( dwell for no time -- G64 should not smooth over this point )
G00 Z0.08000 ( retract )

G00 X4.56752 Y-3.45000 ( rapid move to begin. )
G01 Z-0.00512 F50.00000 ( plunge. )
G04 P0 ( dwell for no time -- G64 should not smooth over this point )
G01 F100.00000
G01 X4.56752 Y-3.45000
G01 X4.56752 Y-2.30000
G01 X4.56846 Y-2.29225
G01 X4.57222 Y-2.28318
G01 X4.57808 Y-2.27603
G01 X4.58247 Y-2.27272
G01 X4.58757 Y-2.26999
G01 X4.59424 Y-2.26809
G01 X4.60000 Y-2.26752
G01 X6.50000 Y-2.26752
G01 X6.50576 Y-2.26809
G01 X6.51243 Y-2.26999
G01 X6.51849 Y-2.27336
G01 X6.52297 Y-2.27703
G01 X6.67297 Y-2.42703
G01 X6.67664 Y-2.43151
G01 X6.68001 Y-2.43757
G01 X6.68191 Y-2.44424
G01 X6.68248 Y-2.45000
G01 X6.68248 Y-3.45000
G01 X6.68154 Y-3.45775
G01 X6.67778 Y-3.46682
G01 X6.67192 Y-3.47397
G01 X6.66753 Y-3.47728
G01 X6.66243 Y-3.48001
G01 X6.65576 Y-3.48191
G01 X6.65000 Y-3.48248
G01 X4.59985 Y-3.48246
G01 X4.59327 Y-3.48172
G01 X4.58658 Y-3.47958
G01 X4.58045 Y-3.47586
G01 X4.57586 Y-3.47173
G01 X4.57223 Y-3.46674
G01 X4.56936 Y-3.46077
G01 X4.56803 Y-3.45553
G01 X4.56752 Y-3.45000
G04 P0 ( dwell for no time -- G64 should not smooth over this point )
G00 Z0.08000 ( retract )

G00 X4.63248 Y-3.41752 ( rapid move to begin. )
G01 Z-0.00512 F50.00000 ( plunge. )
G04 P0 ( dwell for no time -- G64 should not smooth over this point )
G01 F100.00000
G01 X4.63248 Y-3.41752
G01 X4.63248 Y-2.33248
G01 X6.48655 Y-2.33248
G01 X6.61752 Y-2.46345
G01 X6.61752 Y-3.41752
G01 X4.63248 Y-3.41752
( Piece #2, position [1;0] )

G04 P0 ( dwell for no time -- G64 should not smooth over this point )
G00 Z0.08000 ( retract )

G00 X6.68648 Y-3.45000 ( rapid move to begin. )
G01 Z-0.00512 F50.00000 ( plunge. )
G04 P0 ( dwell for no time -- G64 should not smooth over this point )
G01 F100.00000
G01 X6.68648 Y-3.45000
G01 X6.68648 Y-2.30000
G01 X6.68742 Y-2.29225
G01 X6.69118 Y-2.28318
G01 X6.69704 Y-2.27603
G01 X6.70143 Y-2.27272
G01 X6.70653 Y-2.26999
G01 X6.71320 Y-2.26809
G01 X6.71896 Y-2.26752
G01 X8.61896 Y-2.26752
G01 X8.62472 Y-2.26809
G01 X8.63139 Y-2.26999
G01 X8.63745 Y-2.27336
G01 X8.64193 Y-2.27703
G01 X8.79193 Y-2.42703
G01 X8.79560 Y-2.43151
G01 X8.79897 Y-2.43757
G01 X8.80087 Y-2.44424
G01 X8.80144 Y-2.45000
G01 X8.80144 Y-3.45000
G01 X8.80050 Y-3.45775
G01 X8.79674 Y-3.46682
G01 X8.79088 Y-3.47397
G01 X8.78649 Y-3.47728
G01 X8.78139 Y-3.48001
G01 X8.77472 Y-3.48191
G01 X8.76896 Y-3.48248
G01 X6.71881 Y-3.48246
G01 X6.71223 Y-3.48172
G01 X6.70554 Y-3.47958
G01 X6.69941 Y-3.47586
G01 X6.69482 Y-3.47173
G01 X6.69119 Y-3.46674
G01 X6.68832 Y-3.46077
G01 X6.68699 Y-3.45553
G01 X6.68648 Y-3.45000
G04 P0 ( dwell for no time -- G64 should not smooth over this point )
G00 Z0.08000 ( retract )

G00 X6.75144 Y-3.41752 ( rapid move to begin. )
G01 Z-0.00512 F50.00000 ( plunge. )
G04 P0 ( dwell for no time -- G64 should not smooth over this point )
G01 F100.00000
G01 X6.75144 Y-3.41752
G01 X6.75144 Y-2.33248
G01 X8.60551 Y-2.33248
G01 X8.73648 Y-2.46345
G01 X8.73648 Y-3.41752
G01 X6.75144 Y-3.41752
( Piece #3, position [2;0] )

G04 P0 ( dwell for no time -- G64 should not smooth over this point )
G00 Z0.08000 ( retract )

G00 X8.80544 Y-3.45000 ( rapid move to begin. )
G01 Z-0.00512 F50.00000 ( plunge. )
G04 P0 ( dwell for no time -- G64 should not smooth over this point )
G01 F100.00000
G01 X8.80544 Y-3.45000
G01 X8.80544 Y-2.30000
G01 X8.80638 Y-2.29225
G01 X8.81014 Y-2.28318
G01 X8.81600 Y-2.27603
G01 X8.82039 Y-2.27272
G01 X8.82549 Y-2.26999
G01 X8.83216 Y-2.26809
G01 X8.83792 Y-2.26752
G01 X10.73792 Y-2.26752
G01 X10.74368 Y-2.26809
G01 X10.75035 Y-2.26999
G01 X10.75641 Y-2.27336
G01 X10.76089 Y-2.27703
G01 X10.91089 Y-2.42703
G01 X10.91456 Y-2.43151
G01 X10.91793 Y-2.43757
G01 X10.91983 Y-2.44424
G01 X10.92040 Y-2.45000
G01 X10.92040 Y-3.45000
G01 X10.91946 Y-3.45775
G01 X10.91570 Y-3.46682
G01 X10.90984 Y-3.47397
G01 X10.90545 Y-3.47728
G01 X10.90035 Y-3.48001
G01 X10.89368 Y-3.48191
G01 X10.88792 Y-3.48248
G01 X8.83777 Y-3.48246
G01 X8.83119 Y-3.48172
G01 X8.82450 Y-3.47958
G01 X8.81837 Y-3.47586
G01 X8.81378 Y-3.47173
G01 X8.81015 Y-3.46674
G01 X8.80728 Y-3.46077
G01 X8.80595 Y-3.45553
G01 X8.80544 Y-3.45000
G04 P0 ( dwell for no time -- G64 should not smooth over this point )
G00 Z0.08000 ( retract )

G00 X8.87040 Y-3.41752 ( rapid move to begin. )
G01 Z-0.00512 F50.00000 ( plunge. )
G04 P0 ( dwell for no time -- G64 should not smooth over this point )
G01 F100.00000
G01 X8.87040 Y-3.41752
G01 X8.87040 Y-2.33248
G01 X10.72447 Y-2.33248
G01 X10.85544 Y-2.46345
G01 X10.85544 Y-3.41752
G01 X8.87040 Y-3.41752
( Piece #4, position [0;1] )

G04 P0 ( dwell for no time -- G64 should not smooth over this point )
G00 Z0.08000 ( retract )

G00 X8.80544 Y-2.23104 ( rapid move to begin. )
G01 Z-0.00512 F50.00000 ( plunge. )
G04 P0 ( dwell for no time -- G64 should not smooth over this point )
G01 F100.00000
G01 X8.80544 Y-2.23104
G01 X8.80544 Y-1.08104
G01 X8.80638 Y-1.07329
G01 X8.81014 Y-1.06422
G01 X8.81600 Y-1.05707
G01 X8.82039 Y-1.05376
G01 X8.82549 Y-1.05103
G01 X8.83216 Y-1.04913
G01 X8.83792 Y-1.04856
G01 X10.73792 Y-1.04856
G01 X10.74368 Y-1.04913
G01 X10.75035 Y-1.05103
G01 X10.75641 Y-1.05440
G01 X10.76089 Y-1.05807
G01 X10.91089 Y-1.20807
G01 X10.91456 Y-1.21255
G01 X10.91793 Y-1.21861
G01 X10.91983 Y-1.22528
G01 X10.92040 Y-1.23104
G01 X10.92040 Y-2.23104
G01 X10.91946 Y-2.23879
G01 X10.91570 Y-2.24786
G01 X10.90984 Y-2.25500
G01 X10.90545 Y-2.25832
G01 X10.90035 Y-2.26105
G01 X10.89368 Y-2.26295
G01 X10.88792 Y-2.26352
G01 X8.83777 Y-2.26350
G01 X8.83119 Y-2.26276
G01 X8.82450 Y-2.26062
G01 X8.81837 Y-2.25690
G01 X8.81378 Y-2.25277
G01 X8.81015 Y-2.24778
G01 X8.80728 Y-2.24181
G01 X8.80595 Y-2.23657
G01 X8.80544 Y-2.23104
G04 P0 ( dwell for no time -- G64 should not smooth over this point )
G00 Z0.08000 ( retract )

G00 X8.87040 Y-2.19856 ( rapid move to begin. )
G01 Z-0.00512 F50.00000 ( plunge. )
G04 P0 ( dwell for no time -- G64 should not smooth over this point )
G01 F100.00000
G01 X8.87040 Y-2.19856
G01 X8.87040 Y-1.11352
G01 X10.72447 Y-1.11352
G01 X10.85544 Y-1.24449
G01 X10.85544 Y-2.19856
G01 X8.87040 Y-2.19856
( Piece #5, position [1;1] )

G04 P0 ( dwell for no time -- G64 should not smooth over this point )
G00 Z0.08000 ( retract )

G00 X6.68648 Y-2.23104 ( rapid move to begin. )
G01 Z-0.00512 F50.00000 ( plunge. )
G04 P0 ( dwell for no time -- G64 should not smooth over this point )
G01 F100.00000
G01 X6.68648 Y-2.23104
G01 X6.68648 Y-1.08104
G01 X6.68742 Y-1.07329
G01 X6.69118 Y-1.06422
G01 X6.69704 Y-1.05707
G01 X6.70143 Y-1.05376
G01 X6.70653 Y-1.05103
G01 X6.71320 Y-1.04913
G01 X6.71896 Y-1.04856
G01 X8.61896 Y-1.04856
G01 X8.62472 Y-1.04913
G01 X8.63139 Y-1.05103
G01 X8.63745 Y-1.05440
G01 X8.64193 Y-1.05807
G01 X8.79193 Y-1.20807
G01 X8.79560 Y-1.21255
G01 X8.79897 Y-1.21861
G01 X8.80087 Y-1.22528
G01 X8.80144 Y-1.23104
G01 X8.80144 Y-2.23104
G01 X8.80050 Y-2.23879
G01 X8.79674 Y-2.24786
G01 X8.79088 Y-2.25500
G01 X8.78649 Y-2.25832
G01 X8.78139 Y-2.26105
G01 X8.77472 Y-2.26295
G01 X8.76896 Y-2.26352
G01 X6.71881 Y-2.26350
G01 X6.71223 Y-2.26276
G01 X6.70554 Y-2.26062
G01 X6.69941 Y-2.25690
G01 X6.69482 Y-2.25277
G01 X6.69119 Y-2.24778
G01 X6.68832 Y-2.24181
G01 X6.68699 Y-2.23657
G01 X6.68648 Y-2.23104
G04 P0 ( dwell for no time -- G64 should not smooth over this point )
G00 Z0.08000 ( retract )

G00 X6.75144 Y-2.19856 ( rapid move to begin. )
G01 Z-0.00512 F50.00000 ( plunge. )
G04 P0 ( dwell for no time -- G64 should not smooth over this point )
G01 F100.00000
G01 X6.75144 Y-2.19856
G01 X6.75144 Y-1.11352
G01 X8.60551 Y-1.11352
G01 X8.73648 Y-1.24449
G01 X8.73648 Y-2.19856
G01 X6.75144 Y-2.19856
( Piece #6, position [2;1] )

G04 P0 ( dwell for no time -- G64 should not smooth over this point )
G00 Z0.08000 ( retract )

G00 X4.56752 Y-2.23104 ( rapid move to begin. )
G01 Z-0.00512 F50.00000 ( plunge. )
G04 P0 ( dwell for no time -- G64 should not smooth over this point )
G01 F100.00000
G01 X4.56752 Y-2.23104
G01 X4.56752 Y-1.08104
G01 X4.56846 Y-1.07329
G01 X4.57222 Y-1.06422
G01 X4.57808 Y-1.05707
G01 X4.58247 Y-1.05376
G01 X4.58757 Y-1.05103
G01 X4.59424 Y-1.04913
G01 X4.60000 Y-1.04856
G01 X6.50000 Y-1.04856
G01 X6.50576 Y-1.04913
G01 X6.51243 Y-1.05103
G01 X6.51849 Y-1.05440
G01 X6.52297 Y-1.05807
G01 X6.67297 Y-1.20807
G01 X6.67664 Y-1.21255
G01 X6.68001 Y-1.21861
G01 X6.68191 Y-1.22528
G01 X6.68248 Y-1.23104
G01 X6.68248 Y-2.23104
G01 X6.68154 Y-2.23879
G01 X6.67778 Y-2.24786
G01 X6.67192 Y-2.25500
G01 X6.66753 Y-2.25832
G01 X6.66243 Y-2.26105
G01 X6.65576 Y-2.26295
G01 X6.65000 Y-2.26352
G01 X4.59985 Y-2.26350
G01 X4.59327 Y-2.26276
G01 X4.58658 Y-2.26062
G01 X4.58045 Y-2.25690
G01 X4.57586 Y-2.25277
G01 X4.57223 Y-2.24778
G01 X4.56936 Y-2.24181
G01 X4.56803 Y-2.23657
G01 X4.56752 Y-2.23104
G04 P0 ( dwell for no time -- G64 should not smooth over this point )
G00 Z0.08000 ( retract )

G00 X4.63248 Y-2.19856 ( rapid move to begin. )
G01 Z-0.00512 F50.00000 ( plunge. )
G04 P0 ( dwell for no time -- G64 should not smooth over this point )
G01 F100.00000
G01 X4.63248 Y-2.19856
G01 X4.63248 Y-1.11352
G01 X6.48655 Y-1.11352
G01 X6.61752 Y-1.24449
G01 X6.61752 Y-2.19856
G01 X4.63248 Y-2.19856

G04 P0 ( dwell for no time -- G64 should not smooth over this point )
G00 Z1.000 ( retract )

M5 ( Spindle off. )
G04 P1.000000
M9 ( Coolant off. )
M2 ( Program end. )

