( pcb2gcode 1.3.2 )
( Software-independent Gcode )

G94 ( Inches per minute feed rate. )
G20 ( Units == INCHES. )

G90 ( Absolute coordinates. )
G00 S10000 ( RPM spindle speed. )
G64 P0.00040 ( set maximum deviation from commanded toolpath )
G01 F100.00000 ( Feedrate. )

G01 F100.00000 ( Feedrate. )
M3 ( Spindle on clockwise. )
G04 P1.00000
( Piece #1, position [0;0] )

G04 P0 ( dwell for no time -- G64 should not smooth over this point )
G00 Z0.08000 ( retract )

G00 X4.59665 Y-3.45000 ( rapid move to begin. )
G01 Z-0.00512 F50.00000 ( plunge. )
G04 P0 ( dwell for no time -- G64 should not smooth over this point )
G01 F100.00000
G01 X4.59665 Y-3.45000
G01 X4.59665 Y-2.30000
G01 X4.59721 Y-2.29816
G01 X4.59872 Y-2.29691
G01 X6.50000 Y-2.29665
G01 X6.50237 Y-2.29763
G01 X6.65309 Y-2.44872
G01 X6.65334 Y-3.45000
G01 X6.65279 Y-3.45184
G01 X6.65128 Y-3.45309
G01 X4.59985 Y-3.45333
G01 X4.59753 Y-3.45226
G01 X4.59665 Y-3.45000
( Piece #2, position [1;0] )

G04 P0 ( dwell for no time -- G64 should not smooth over this point )
G00 Z0.08000 ( retract )

G00 X6.65735 Y-3.45000 ( rapid move to begin. )
G01 Z-0.00512 F50.00000 ( plunge. )
G04 P0 ( dwell for no time -- G64 should not smooth over this point )
G01 F100.00000
G01 X6.65735 Y-3.45000
G01 X6.65735 Y-2.30000
G01 X6.65790 Y-2.29816
G01 X6.65941 Y-2.29691
G01 X8.56069 Y-2.29665
G01 X8.56306 Y-2.29763
G01 X8.71378 Y-2.44872
G01 X8.71404 Y-3.45000
G01 X8.71348 Y-3.45184
G01 X8.71197 Y-3.45309
G01 X6.66054 Y-3.45333
G01 X6.65822 Y-3.45226
G01 X6.65735 Y-3.45000
( Piece #3, position [2;0] )

G04 P0 ( dwell for no time -- G64 should not smooth over this point )
G00 Z0.08000 ( retract )

G00 X8.71804 Y-3.45000 ( rapid move to begin. )
G01 Z-0.00512 F50.00000 ( plunge. )
G04 P0 ( dwell for no time -- G64 should not smooth over this point )
G01 F100.00000
G01 X8.71804 Y-3.45000
G01 X8.71804 Y-2.30000
G01 X8.71859 Y-2.29816
G01 X8.72010 Y-2.29691
G01 X10.62139 Y-2.29665
G01 X10.62375 Y-2.29763
G01 X10.77448 Y-2.44872
G01 X10.77473 Y-3.45000
G01 X10.77418 Y-3.45184
G01 X10.77267 Y-3.45309
G01 X8.72123 Y-3.45333
G01 X8.71892 Y-3.45226
G01 X8.71804 Y-3.45000
( Piece #4, position [0;1] )

G04 P0 ( dwell for no time -- G64 should not smooth over this point )
G00 Z0.08000 ( retract )

G00 X8.71804 Y-2.28931 ( rapid move to begin. )
G01 Z-0.00512 F50.00000 ( plunge. )
G04 P0 ( dwell for no time -- G64 should not smooth over this point )
G01 F100.00000
G01 X8.71804 Y-2.28931
G01 X8.71804 Y-1.13931
G01 X8.71859 Y-1.13746
G01 X8.72010 Y-1.13621
G01 X10.62139 Y-1.13596
G01 X10.62375 Y-1.13694
G01 X10.77448 Y-1.28803
G01 X10.77473 Y-2.28931
G01 X10.77418 Y-2.29115
G01 X10.77267 Y-2.29240
G01 X8.72123 Y-2.29264
G01 X8.71892 Y-2.29156
G01 X8.71804 Y-2.28931
( Piece #5, position [1;1] )

G04 P0 ( dwell for no time -- G64 should not smooth over this point )
G00 Z0.08000 ( retract )

G00 X6.65735 Y-2.28931 ( rapid move to begin. )
G01 Z-0.00512 F50.00000 ( plunge. )
G04 P0 ( dwell for no time -- G64 should not smooth over this point )
G01 F100.00000
G01 X6.65735 Y-2.28931
G01 X6.65735 Y-1.13931
G01 X6.65790 Y-1.13746
G01 X6.65941 Y-1.13621
G01 X8.56069 Y-1.13596
G01 X8.56306 Y-1.13694
G01 X8.71378 Y-1.28803
G01 X8.71404 Y-2.28931
G01 X8.71348 Y-2.29115
G01 X8.71197 Y-2.29240
G01 X6.66054 Y-2.29264
G01 X6.65822 Y-2.29156
G01 X6.65735 Y-2.28931
( Piece #6, position [2;1] )

G04 P0 ( dwell for no time -- G64 should not smooth over this point )
G00 Z0.08000 ( retract )

G00 X4.59665 Y-2.28931 ( rapid move to begin. )
G01 Z-0.00512 F50.00000 ( plunge. )
G04 P0 ( dwell for no time -- G64 should not smooth over this point )
G01 F100.00000
G01 X4.59665 Y-2.28931
G01 X4.59665 Y-1.13931
G01 X4.59721 Y-1.13746
G01 X4.59872 Y-1.13621
G01 X6.50000 Y-1.13596
G01 X6.50237 Y-1.13694
G01 X6.65309 Y-1.28803
G01 X6.65334 Y-2.28931
G01 X6.65279 Y-2.29115
G01 X6.65128 Y-2.29240
G01 X4.59985 Y-2.29264
G01 X4.59753 Y-2.29156
G01 X4.59665 Y-2.28931

G04 P0 ( dwell for no time -- G64 should not smooth over this point )
G00 Z1.000 ( retract )

M5 ( Spindle off. )
G04 P1.000000
M9 ( Coolant off. )
M2 ( Program end. )

