( pcb2gcode 2.5.0 )
( Software-independent Gcode )

G94 ( Inches per minute feed rate. )
G20 ( Units == INCHES. )

G90 ( Absolute coordinates. )
G00 S30000 ( RPM spindle speed. )
G64 P0.00040 ( set maximum deviation from commanded toolpath )
G01 F6.00000 ( Feedrate. )


G00 Z1.00000 (Retract to tool change height)
T1
M5      (Spindle stop.)
G04 P1.00000 (Wait for spindle to stop)
(MSG, Change tool bit to mill diameter 0.02000in)
M6      (Tool change.)
M0      (Temporary machine stop.)
M3 ( Spindle on clockwise. )
G04 P1.00000 (Wait for spindle to get up to speed)
G04 P0 ( dwell for no time -- G64 should not smooth over this point )
G00 Z0.08000 ( retract )

G00 X0.10396 Y-0.10396 ( rapid move to begin. )
G01 F3.00000
( Mill infeed pass 1/1 )
G01 Z-0.00800
G04 P0 ( dwell for no time -- G64 should not smooth over this point )
G01 F6.00000
G01 X0.10396 Y-0.10396
G01 X0.10250 Y-0.10250
G01 X0.10250 Y10.10250
G01 X0.10396 Y10.10396
G01 X0.10250 Y10.10250
G01 X-10.10250 Y10.10250
G01 X-10.10396 Y10.10396
G01 X-10.10250 Y10.10250
G01 X-10.10250 Y-0.10250
G01 X-10.10396 Y-0.10396
G01 X-10.10250 Y-0.10250
G01 X0.10250 Y-0.10250
G01 X0.09250 Y-0.09250
G01 X0.09250 Y10.09250
G01 X0.09543 Y10.09543
G01 X0.09250 Y10.09250
G01 X-10.09250 Y10.09250
G01 X-10.09543 Y10.09543
G01 X-10.09250 Y10.09250
G01 X-10.09250 Y-0.09250
G01 X-10.09543 Y-0.09543
G01 X-10.09250 Y-0.09250
G01 X0.09250 Y-0.09250
G04 P0 ( dwell for no time -- G64 should not smooth over this point )
G00 Z0.08000 ( retract )

G00 X-1.22581 Y3.80721 ( rapid move to begin. )
G01 F3.00000
( Mill infeed pass 1/1 )
G01 Z-0.00800
G04 P0 ( dwell for no time -- G64 should not smooth over this point )
G01 F6.00000
G01 X-1.22581 Y3.80721
G01 X-1.45657 Y4.00564
G01 X-1.50724 Y4.04860
G01 X-1.55668 Y4.08924
G01 X-1.76123 Y4.25472
G01 X-1.79468 Y4.28113
G01 X-1.82760 Y4.30581
G01 X-1.92386 Y4.37602
G01 X-1.95000 Y4.39441
G01 X-1.97597 Y4.41136
G01 X-2.03620 Y4.44907
G01 X-2.05903 Y4.46271
G01 X-2.08197 Y4.47506
G01 X-2.09713 Y4.48279
G01 X-2.12919 Y4.50053
G01 X-2.17328 Y4.52696
G01 X-2.19324 Y4.53958
G01 X-2.21297 Y4.55345
G01 X-2.25307 Y4.58318
G01 X-2.27115 Y4.59730
G01 X-2.28789 Y4.61174
G01 X-2.32424 Y4.64469
G01 X-2.33989 Y4.65959
G01 X-2.35530 Y4.67575
G01 X-2.38826 Y4.71211
G01 X-2.40269 Y4.72885
G01 X-2.41682 Y4.74693
G01 X-2.44633 Y4.78672
G01 X-2.46001 Y4.80615
G01 X-2.47323 Y4.82703
G01 X-2.49939 Y4.87069
G01 X-2.51275 Y4.89432
G01 X-2.52494 Y4.91859
G01 X-2.54720 Y4.96565
G01 X-2.56026 Y4.99520
G01 X-2.57182 Y5.02525
G01 X-2.59008 Y5.07630
G01 X-2.60245 Y5.11389
G01 X-2.61303 Y5.15230
G01 X-2.62692 Y5.20773
G01 X-2.63787 Y5.25682
G01 X-2.64325 Y5.30753
G01 X-2.65049 Y5.36548
G01 X-2.66081 Y5.43412
G01 X-2.67098 Y5.50450
G01 X-2.68309 Y5.57758
G01 X-2.68954 Y5.61241
G01 X-2.72866 Y5.82853
G01 X-2.74045 Y5.89055
G01 X-2.74829 Y5.92950
G01 X-2.86413 Y6.49210
G01 X-2.87801 Y6.56017
G01 X-2.91445 Y6.73224
G01 X-3.07949 Y7.48426
G01 X-3.07767 Y7.48658
G01 X-3.07949 Y7.48426
G01 X-3.15460 Y7.48257
G01 X-3.24199 Y7.47905
G01 X-3.32887 Y7.47401
G01 X-3.33112 Y7.47633
G01 X-3.32887 Y7.47401
G01 X-3.41713 Y6.43445
G01 X-3.46361 Y5.90057
G01 X-3.48030 Y5.71562
G01 X-3.48500 Y5.65570
G01 X-3.48500 Y5.36509
G01 X-3.48196 Y5.33076
G01 X-3.47811 Y5.29663
G01 X-3.47345 Y5.25923
G01 X-3.46033 Y5.14918
G01 X-3.44925 Y5.05063
G01 X-3.43972 Y4.95990
G01 X-3.43092 Y4.86951
G01 X-3.42148 Y4.76431
G01 X-3.41239 Y4.65457
G01 X-3.40051 Y4.49999
G01 X-3.39665 Y4.44629
G01 X-3.39661 Y4.37598
G01 X-3.39804 Y4.29892
G01 X-3.40231 Y4.21907
G01 X-3.40941 Y4.13643
G01 X-3.41934 Y4.05101
G01 X-3.43210 Y3.96279
G01 X-3.44763 Y3.87214
G01 X-3.46611 Y3.77798
G01 X-3.48727 Y3.68168
G01 X-3.51141 Y3.58197
G01 X-3.53822 Y3.48002
G01 X-3.56792 Y3.37499
G01 X-3.60053 Y3.26692
G01 X-3.63588 Y3.15630
G01 X-3.67398 Y3.04306
G01 X-3.71497 Y2.92681
G01 X-3.75882 Y2.80765
G01 X-3.88809 Y2.46330
G01 X-3.89192 Y2.46154
G01 X-3.88809 Y2.46330
G01 X-3.79307 Y2.42876
G01 X-3.68398 Y2.39192
G01 X-3.57489 Y2.35789
G01 X-3.46581 Y2.32668
G01 X-3.35673 Y2.29829
G01 X-3.24766 Y2.27271
G01 X-3.13860 Y2.24994
G01 X-3.02954 Y2.22999
G01 X-2.92049 Y2.21285
G01 X-2.81144 Y2.19853
G01 X-2.70239 Y2.18702
G01 X-2.59335 Y2.17832
G01 X-2.48431 Y2.17243
G01 X-2.37527 Y2.16935
G01 X-2.26623 Y2.16909
G01 X-2.16340 Y2.17150
G01 X-2.16304 Y2.17070
G01 X-2.16340 Y2.17150
G01 X-2.10070 Y2.24010
G01 X-2.03614 Y2.31333
G01 X-1.97395 Y2.38655
G01 X-1.91412 Y2.45977
G01 X-1.85667 Y2.53296
G01 X-1.80158 Y2.60615
G01 X-1.74886 Y2.67933
G01 X-1.69850 Y2.75249
G01 X-1.65052 Y2.82565
G01 X-1.60490 Y2.89879
G01 X-1.56164 Y2.97191
G01 X-1.52075 Y3.04503
G01 X-1.48223 Y3.11813
G01 X-1.44606 Y3.19121
G01 X-1.41226 Y3.26429
G01 X-1.38078 Y3.33744
G01 X-1.36014 Y3.38727
G01 X-1.33855 Y3.44094
G01 X-1.31829 Y3.49452
G01 X-1.29932 Y3.54810
G01 X-1.28163 Y3.60167
G01 X-1.26523 Y3.65524
G01 X-1.25013 Y3.70880
G01 X-1.23631 Y3.76235
G01 X-1.22581 Y3.80721
G01 X-1.21469 Y3.81083
G01 X-1.45008 Y4.01325
G01 X-1.50083 Y4.05628
G01 X-1.55036 Y4.09699
G01 X-1.75498 Y4.26253
G01 X-1.78858 Y4.28906
G01 X-1.82165 Y4.31385
G01 X-1.91804 Y4.38415
G01 X-1.94439 Y4.40269
G01 X-1.97059 Y4.41978
G01 X-2.03098 Y4.45761
G01 X-2.05410 Y4.47140
G01 X-2.07733 Y4.48392
G01 X-2.09228 Y4.49154
G01 X-2.12435 Y4.50928
G01 X-2.16793 Y4.53541
G01 X-2.18809 Y4.54817
G01 X-2.20722 Y4.56163
G01 X-2.24711 Y4.59121
G01 X-2.26462 Y4.60488
G01 X-2.28117 Y4.61915
G01 X-2.31753 Y4.65210
G01 X-2.33300 Y4.66683
G01 X-2.34789 Y4.68247
G01 X-2.38085 Y4.71883
G01 X-2.39512 Y4.73538
G01 X-2.40878 Y4.75289
G01 X-2.43830 Y4.79268
G01 X-2.45183 Y4.81191
G01 X-2.46466 Y4.83217
G01 X-2.49063 Y4.87550
G01 X-2.50381 Y4.89881
G01 X-2.51590 Y4.92287
G01 X-2.53816 Y4.96992
G01 X-2.55083 Y4.99857
G01 X-2.56240 Y5.02862
G01 X-2.58067 Y5.07967
G01 X-2.59281 Y5.11655
G01 X-2.60333 Y5.15473
G01 X-2.61721 Y5.21016
G01 X-2.62811 Y5.25900
G01 X-2.63331 Y5.30865
G01 X-2.64059 Y5.36685
G01 X-2.65092 Y5.43558
G01 X-2.66110 Y5.50603
G01 X-2.67324 Y5.57931
G01 X-2.67970 Y5.61419
G01 X-2.71883 Y5.83036
G01 X-2.73063 Y5.89246
G01 X-2.73849 Y5.93150
G01 X-2.85433 Y6.49412
G01 X-2.86822 Y6.56221
G01 X-2.90467 Y6.73435
G01 X-3.07149 Y7.49445
G01 X-3.07057 Y7.49561
G01 X-3.07149 Y7.49445
G01 X-3.15491 Y7.49256
G01 X-3.24243 Y7.48904
G01 X-3.33810 Y7.48349
G01 X-3.33923 Y7.48465
G01 X-3.33810 Y7.48349
G01 X-3.42709 Y6.43529
G01 X-3.47357 Y5.90146
G01 X-3.49027 Y5.71646
G01 X-3.49500 Y5.65609
G01 X-3.49500 Y5.36465
G01 X-3.49191 Y5.32976
G01 X-3.48804 Y5.29545
G01 X-3.48338 Y5.25805
G01 X-3.47027 Y5.14803
G01 X-3.45919 Y5.04949
G01 X-3.44967 Y4.95889
G01 X-3.44087 Y4.86858
G01 X-3.43144 Y4.76348
G01 X-3.42235 Y4.65375
G01 X-3.41049 Y4.49925
G01 X-3.40662 Y4.44558
G01 X-3.40661 Y4.37626
G01 X-3.40803 Y4.29945
G01 X-3.41227 Y4.21992
G01 X-3.41934 Y4.13759
G01 X-3.42922 Y4.05258
G01 X-3.44196 Y3.96448
G01 X-3.45748 Y3.87383
G01 X-3.47585 Y3.78023
G01 X-3.49704 Y3.68383
G01 X-3.52108 Y3.58451
G01 X-3.54791 Y3.48248
G01 X-3.57755 Y3.37771
G01 X-3.61005 Y3.26997
G01 X-3.64533 Y3.15956
G01 X-3.68348 Y3.04619
G01 X-3.72440 Y2.93013
G01 X-3.76818 Y2.81116
G01 X-3.90100 Y2.45735
G01 X-3.90292 Y2.45647
G01 X-3.90100 Y2.45735
G01 X-3.79638 Y2.41932
G01 X-3.68707 Y2.38241
G01 X-3.57775 Y2.34831
G01 X-3.46844 Y2.31704
G01 X-3.35913 Y2.28858
G01 X-3.24982 Y2.26295
G01 X-3.14052 Y2.24013
G01 X-3.03122 Y2.22013
G01 X-2.92191 Y2.20295
G01 X-2.81262 Y2.18860
G01 X-2.70332 Y2.17706
G01 X-2.59402 Y2.16834
G01 X-2.48472 Y2.16244
G01 X-2.37542 Y2.15935
G01 X-2.26613 Y2.15909
G01 X-2.15890 Y2.16160
G01 X-2.15872 Y2.16120
G01 X-2.15890 Y2.16160
G01 X-2.09326 Y2.23342
G01 X-2.02858 Y2.30679
G01 X-1.96626 Y2.38015
G01 X-1.90632 Y2.45351
G01 X-1.84874 Y2.52687
G01 X-1.79353 Y2.60022
G01 X-1.74068 Y2.67357
G01 X-1.69020 Y2.74692
G01 X-1.64210 Y2.82026
G01 X-1.59635 Y2.89359
G01 X-1.55297 Y2.96693
G01 X-1.51197 Y3.04025
G01 X-1.47332 Y3.11358
G01 X-1.43704 Y3.18690
G01 X-1.40313 Y3.26021
G01 X-1.37157 Y3.33355
G01 X-1.35088 Y3.38350
G01 X-1.32924 Y3.43730
G01 X-1.30890 Y3.49109
G01 X-1.28985 Y3.54487
G01 X-1.27210 Y3.59864
G01 X-1.25564 Y3.65242
G01 X-1.24047 Y3.70619
G01 X-1.22660 Y3.75996
G01 X-1.21469 Y3.81083
G01 X-1.21388 Y3.81110
G04 P0 ( dwell for no time -- G64 should not smooth over this point )
G00 Z0.08000 ( retract )

G00 X-0.88625 Y4.99994 ( rapid move to begin. )
G01 F3.00000
( Mill infeed pass 1/1 )
G01 Z-0.00800
G04 P0 ( dwell for no time -- G64 should not smooth over this point )
G01 F6.00000
G01 X-0.88625 Y4.99994
G01 X-0.87625 Y4.99982
G01 X-0.87677 Y5.04237
G01 X-0.87833 Y5.08492
G01 X-0.88075 Y5.13411
G01 X-0.88339 Y5.17702
G01 X-0.88714 Y5.22047
G01 X-0.89193 Y5.26356
G01 X-0.89776 Y5.30646
G01 X-0.90506 Y5.35566
G01 X-0.91221 Y5.40000
G01 X-0.92062 Y5.44507
G01 X-0.93003 Y5.48941
G01 X-0.94065 Y5.53411
G01 X-0.95301 Y5.58347
G01 X-0.96547 Y5.63069
G01 X-0.97941 Y5.67861
G01 X-0.99440 Y5.72583
G01 X-1.01077 Y5.77339
G01 X-1.02843 Y5.82275
G01 X-1.04762 Y5.87430
G01 X-1.06857 Y5.92654
G01 X-1.09072 Y5.97809
G01 X-1.11451 Y6.02997
G01 X-1.13785 Y6.07931
G01 X-1.16610 Y6.13711
G01 X-1.19652 Y6.19557
G01 X-1.22859 Y6.25367
G01 X-1.26232 Y6.31147
G01 X-1.29179 Y6.36063
G01 X-1.33297 Y6.42736
G01 X-1.37663 Y6.49425
G01 X-1.42286 Y6.56142
G01 X-1.47104 Y6.62799
G01 X-1.50750 Y6.67714
G01 X-1.56783 Y6.75630
G01 X-1.63177 Y6.83589
G01 X-1.69873 Y6.91516
G01 X-1.76882 Y6.99429
G01 X-1.81324 Y7.04330
G01 X-1.85795 Y7.09197
G01 X-1.90365 Y7.14042
G01 X-1.95081 Y7.18914
G01 X-1.99890 Y7.23759
G01 X-2.04831 Y7.28617
G01 X-2.09891 Y7.33474
G01 X-2.15070 Y7.38331
G01 X-2.20369 Y7.43188
G01 X-2.25790 Y7.48101
G01 X-2.32679 Y7.54260
G01 X-2.39741 Y7.60406
G01 X-2.39986 Y7.60579
G01 X-2.40260 Y7.60700
G01 X-2.40553 Y7.60764
G01 X-2.40853 Y7.60769
G01 X-2.49430 Y7.60040
G01 X-2.58008 Y7.59155
G01 X-2.66585 Y7.58116
G01 X-2.75149 Y7.56923
G01 X-2.80050 Y7.56196
G01 X-2.86810 Y7.55145
G01 X-2.93540 Y7.54003
G01 X-3.00290 Y7.52762
G01 X-3.06912 Y7.51447
G01 X-3.15568 Y7.51255
G01 X-3.24326 Y7.50902
G01 X-3.34210 Y7.50324
G01 X-3.46062 Y7.52006
G01 X-3.58099 Y7.53413
G01 X-3.70137 Y7.54521
G01 X-3.82174 Y7.55330
G01 X-3.94212 Y7.55842
G01 X-4.06287 Y7.56055
G01 X-4.18325 Y7.55969
G01 X-4.30140 Y7.55585
G01 X-4.37569 Y7.57224
G01 X-4.45227 Y7.58778
G01 X-4.52839 Y7.60198
G01 X-4.60498 Y7.61500
G01 X-4.68134 Y7.62672
G01 X-4.75746 Y7.63714
G01 X-4.83382 Y7.64635
G01 X-4.91018 Y7.65429
G01 X-4.98679 Y7.66100
G01 X-5.06291 Y7.66640
G01 X-5.13927 Y7.67057
G01 X-5.21564 Y7.67347
G01 X-5.29225 Y7.67512
G01 X-5.36837 Y7.67550
G01 X-5.44474 Y7.67463
G01 X-5.51984 Y7.67249
G01 X-5.61741 Y7.68639
G01 X-5.71593 Y7.69824
G01 X-5.81477 Y7.70797
G01 X-5.91361 Y7.71554
G01 X-6.01278 Y7.72097
G01 X-6.11130 Y7.72422
G01 X-6.21014 Y7.72532
G01 X-6.30898 Y7.72427
G01 X-6.40815 Y7.72105
G01 X-6.50700 Y7.71567
G01 X-6.60584 Y7.70814
G01 X-6.70435 Y7.69849
G01 X-6.80319 Y7.68665
G01 X-6.90235 Y7.67261
G01 X-7.00086 Y7.65651
G01 X-7.09484 Y7.63910
G01 X-7.09491 Y7.63858
G01 X-7.09484 Y7.63910
G01 X-7.19348 Y7.68710
G01 X-7.30802 Y7.73970
G01 X-7.41569 Y7.78598
G01 X-7.52370 Y7.82930
G01 X-7.63190 Y7.86958
G01 X-7.71704 Y7.89922
G01 X-7.79540 Y7.92480
G01 X-7.87403 Y7.94882
G01 X-7.95267 Y7.97120
G01 X-7.95562 Y7.97173
G01 X-7.95861 Y7.97166
G01 X-7.96154 Y7.97100
G01 X-7.96427 Y7.96977
G01 X-8.03820 Y7.92712
G01 X-8.11050 Y7.88434
G01 X-8.18589 Y7.83869
G01 X-8.24928 Y7.79928
G01 X-8.31082 Y7.76004
G01 X-8.37094 Y7.72071
G01 X-8.42949 Y7.68137
G01 X-8.48664 Y7.64192
G01 X-8.54206 Y7.60256
G01 X-8.60455 Y7.55679
G01 X-8.68309 Y7.49719
G01 X-8.75854 Y7.43714
G01 X-8.82978 Y7.37753
G01 X-8.89767 Y7.31767
G01 X-8.90497 Y7.31105
G01 X-8.95641 Y7.26337
G01 X-9.00576 Y7.21544
G01 X-9.05303 Y7.16722
G01 X-9.09755 Y7.11939
G01 X-9.13846 Y7.07335
G01 X-9.17232 Y7.03325
G01 X-9.20409 Y6.99371
G01 X-9.23941 Y6.94720
G01 X-9.26402 Y6.91320
G01 X-9.28783 Y6.87861
G01 X-9.31023 Y6.84429
G01 X-9.33513 Y6.80375
G01 X-9.35291 Y6.77328
G01 X-9.36964 Y6.74295
G01 X-9.38526 Y6.71294
G01 X-9.40319 Y6.67605
G01 X-9.42774 Y6.62073
G01 X-9.44888 Y6.56605
G01 X-9.45128 Y6.55934
G01 X-9.46799 Y6.50886
G01 X-9.48230 Y6.45732
G01 X-9.48398 Y6.45059
G01 X-9.49476 Y6.40267
G01 X-9.50329 Y6.35366
G01 X-9.50429 Y6.34693
G01 X-9.51009 Y6.29982
G01 X-9.51351 Y6.25345
G01 X-9.51386 Y6.24634
G01 X-9.51500 Y6.19963
G01 X-9.51385 Y6.15329
G01 X-9.51351 Y6.14655
G01 X-9.51001 Y6.09945
G01 X-9.50429 Y6.05307
G01 X-9.50323 Y6.04597
G01 X-9.49476 Y5.99732
G01 X-9.48398 Y5.94940
G01 X-9.48221 Y5.94237
G01 X-9.47205 Y5.90522
G01 X-9.47119 Y5.90510
G01 X-9.47205 Y5.90522
G01 X-9.48700 Y5.88045
G01 X-9.50425 Y5.84977
G01 X-9.55744 Y5.75155
G01 X-9.57784 Y5.71166
G01 X-9.59600 Y5.67142
G01 X-9.62744 Y5.59670
G01 X-9.63853 Y5.57090
G01 X-9.64883 Y5.54425
G01 X-9.65256 Y5.53398
G01 X-9.66121 Y5.50871
G01 X-9.66861 Y5.48405
G01 X-9.69205 Y5.40825
G01 X-9.69990 Y5.38054
G01 X-9.70655 Y5.35175
G01 X-9.72668 Y5.25338
G01 X-9.73122 Y5.22798
G01 X-9.73440 Y5.20330
G01 X-9.74464 Y5.10492
G01 X-9.74651 Y5.08137
G01 X-9.74726 Y5.05708
G01 X-9.74779 Y4.95906
G01 X-9.74735 Y4.93559
G01 X-9.74570 Y4.91138
G01 X-9.73659 Y4.81337
G01 X-9.73367 Y4.78856
G01 X-9.72939 Y4.76304
G01 X-9.71045 Y4.66502
G01 X-9.70439 Y4.63736
G01 X-9.69671 Y4.60901
G01 X-9.66756 Y4.51100
G01 X-9.65683 Y4.47805
G01 X-9.64458 Y4.44582
G01 X-9.61438 Y4.37179
G01 X-9.60305 Y4.34347
G01 X-9.59024 Y4.31459
G01 X-9.58534 Y4.30409
G01 X-9.57042 Y4.27362
G01 X-9.55438 Y4.24369
G01 X-9.51611 Y4.17113
G01 X-9.48886 Y4.12252
G01 X-9.45802 Y4.07331
G01 X-9.39330 Y3.97530
G01 X-9.37220 Y3.94423
G01 X-9.34982 Y3.91302
G01 X-9.32606 Y3.88154
G01 X-9.30146 Y3.85050
G01 X-9.22190 Y3.75248
G01 X-9.18798 Y3.71180
G01 X-9.15214 Y3.67097
G01 X-9.11426 Y3.62991
G01 X-9.07495 Y3.58926
G01 X-8.97799 Y3.49124
G01 X-8.92212 Y3.43626
G01 X-8.86345 Y3.38144
G01 X-8.80184 Y3.32664
G01 X-8.73743 Y3.27196
G01 X-8.61931 Y3.17394
G01 X-8.57287 Y3.13595
G01 X-8.52482 Y3.09771
G01 X-8.42561 Y3.02184
G01 X-8.32062 Y2.94556
G01 X-8.21101 Y2.86970
G01 X-8.06577 Y2.77150
G01 X-7.94024 Y2.68856
G01 X-7.81047 Y2.60663
G01 X-7.75886 Y2.55725
G01 X-7.70467 Y2.50665
G01 X-7.64952 Y2.45627
G01 X-7.59303 Y2.40578
G01 X-7.59061 Y2.40402
G01 X-7.58790 Y2.40278
G01 X-7.58499 Y2.40210
G01 X-7.58200 Y2.40200
G01 X-7.51133 Y2.40687
G01 X-7.44044 Y2.41281
G01 X-7.36956 Y2.41980
G01 X-7.30014 Y2.42773
G01 X-7.18846 Y2.41822
G01 X-7.07529 Y2.41131
G01 X-6.96212 Y2.40707
G01 X-6.85126 Y2.40562
G01 X-6.76888 Y2.38230
G01 X-6.68435 Y2.36008
G01 X-6.59981 Y2.33947
G01 X-6.51527 Y2.32049
G01 X-6.43045 Y2.30307
G01 X-6.34590 Y2.28732
G01 X-6.26134 Y2.27319
G01 X-6.17678 Y2.26068
G01 X-6.09251 Y2.24983
G01 X-6.00766 Y2.24052
G01 X-5.92310 Y2.23287
G01 X-5.83854 Y2.22683
G01 X-5.75426 Y2.22243
G01 X-5.66941 Y2.21963
G01 X-5.58513 Y2.21845
G01 X-5.50057 Y2.21889
G01 X-5.41571 Y2.22095
G01 X-5.33115 Y2.22463
G01 X-5.24687 Y2.22991
G01 X-5.16231 Y2.23683
G01 X-5.07747 Y2.24539
G01 X-4.99319 Y2.25551
G01 X-4.90863 Y2.26728
G01 X-4.82380 Y2.28071
G01 X-4.73925 Y2.29573
G01 X-4.65470 Y2.31236
G01 X-4.57042 Y2.33054
G01 X-4.48588 Y2.35041
G01 X-4.40108 Y2.37195
G01 X-4.31680 Y2.39498
G01 X-4.23201 Y2.41978
G01 X-4.15018 Y2.44527
G01 X-4.15021 Y2.44541
G01 X-4.15018 Y2.44527
G01 X-4.03038 Y2.44083
G01 X-3.91019 Y2.43941
G01 X-3.91016 Y2.43955
G01 X-3.91019 Y2.43941
G01 X-3.80316 Y2.40051
G01 X-3.69341 Y2.36344
G01 X-3.58365 Y2.32920
G01 X-3.47388 Y2.29779
G01 X-3.36376 Y2.26912
G01 X-3.25433 Y2.24346
G01 X-3.14418 Y2.22047
G01 X-3.03438 Y2.20038
G01 X-2.92496 Y2.18319
G01 X-2.81478 Y2.16871
G01 X-2.70497 Y2.15713
G01 X-2.59516 Y2.14837
G01 X-2.48574 Y2.14246
G01 X-2.37554 Y2.13935
G01 X-2.26572 Y2.13909
G01 X-2.15630 Y2.14165
G01 X-2.15330 Y2.14203
G01 X-2.15044 Y2.14299
G01 X-2.14783 Y2.14452
G01 X-2.14558 Y2.14653
G01 X-2.07847 Y2.21997
G01 X-2.01355 Y2.29360
G01 X-1.95081 Y2.36746
G01 X-1.89080 Y2.44090
G01 X-1.83297 Y2.51456
G01 X-1.77733 Y2.58849
G01 X-1.72424 Y2.66219
G01 X-1.67370 Y2.73562
G01 X-1.62516 Y2.80962
G01 X-1.57917 Y2.88336
G01 X-1.53573 Y2.95680
G01 X-1.49448 Y3.03055
G01 X-1.45542 Y3.10465
G01 X-1.41892 Y3.17844
G01 X-1.38495 Y3.25188
G01 X-1.35318 Y3.32568
G01 X-1.33239 Y3.37587
G01 X-1.31066 Y3.42989
G01 X-1.29017 Y3.48406
G01 X-1.27098 Y3.53824
G01 X-1.25299 Y3.59274
G01 X-1.23641 Y3.64694
G01 X-1.22112 Y3.70114
G01 X-1.20722 Y3.75502
G01 X-1.19503 Y3.80742
G01 X-1.16585 Y3.86338
G01 X-1.13785 Y3.92069
G01 X-1.11451 Y3.97003
G01 X-1.09072 Y4.02191
G01 X-1.06857 Y4.07346
G01 X-1.04776 Y4.12535
G01 X-1.02837 Y4.17743
G01 X-1.01083 Y4.22644
G01 X-0.99440 Y4.27417
G01 X-0.97941 Y4.32138
G01 X-0.96557 Y4.36895
G01 X-0.95301 Y4.41653
G01 X-0.94069 Y4.46572
G01 X-0.93011 Y4.51023
G01 X-0.92062 Y4.55493
G01 X-0.91221 Y4.60000
G01 X-0.90503 Y4.64453
G01 X-0.89776 Y4.69353
G01 X-0.89189 Y4.73680
G01 X-0.88714 Y4.77952
G01 X-0.88341 Y4.82261
G01 X-0.88075 Y4.86589
G01 X-0.87834 Y4.91490
G01 X-0.87678 Y4.95727
G01 X-0.87625 Y4.99982
G01 X-0.88625 Y4.99994
G01 X-0.88677 Y5.04237
G01 X-0.88833 Y5.08455
G01 X-0.89074 Y5.13368
G01 X-0.89338 Y5.17652
G01 X-0.89708 Y5.21937
G01 X-0.90182 Y5.26209
G01 X-0.90765 Y5.30500
G01 X-0.91492 Y5.35400
G01 X-0.92210 Y5.39853
G01 X-0.93040 Y5.44299
G01 X-0.93981 Y5.48733
G01 X-0.95039 Y5.53185
G01 X-0.96268 Y5.58092
G01 X-0.97514 Y5.62814
G01 X-0.98890 Y5.67547
G01 X-1.00397 Y5.72292
G01 X-1.02025 Y5.77019
G01 X-1.03778 Y5.81920
G01 X-1.05699 Y5.87081
G01 X-1.07776 Y5.92259
G01 X-1.09996 Y5.97425
G01 X-1.12360 Y6.02580
G01 X-1.14681 Y6.07486
G01 X-1.17508 Y6.13272
G01 X-1.20527 Y6.19073
G01 X-1.23723 Y6.24863
G01 X-1.27096 Y6.30643
G01 X-1.30036 Y6.35548
G01 X-1.34148 Y6.42211
G01 X-1.38500 Y6.48879
G01 X-1.43096 Y6.55556
G01 X-1.47918 Y6.62217
G01 X-1.51557 Y6.67123
G01 X-1.57578 Y6.75024
G01 X-1.63934 Y6.82934
G01 X-1.70622 Y6.90853
G01 X-1.77619 Y6.98753
G01 X-1.82065 Y7.03658
G01 X-1.86518 Y7.08506
G01 X-1.91097 Y7.13360
G01 X-1.95791 Y7.18210
G01 X-2.00600 Y7.23055
G01 X-2.05536 Y7.27908
G01 X-2.10588 Y7.32757
G01 X-2.15759 Y7.37606
G01 X-2.21047 Y7.42452
G01 X-2.26456 Y7.47355
G01 X-2.33331 Y7.53501
G01 X-2.40398 Y7.59651
G01 X-2.40479 Y7.59709
G01 X-2.40571 Y7.59749
G01 X-2.40768 Y7.59772
G01 X-2.49328 Y7.59045
G01 X-2.57879 Y7.58164
G01 X-2.66447 Y7.57125
G01 X-2.75002 Y7.55933
G01 X-2.79907 Y7.55206
G01 X-2.86643 Y7.54159
G01 X-2.93380 Y7.53016
G01 X-3.00109 Y7.51778
G01 X-3.06803 Y7.50451
G01 X-3.15518 Y7.50256
G01 X-3.24286 Y7.49903
G01 X-3.34251 Y7.49322
G01 X-3.46214 Y7.51018
G01 X-3.58215 Y7.52419
G01 X-3.70241 Y7.53526
G01 X-3.82241 Y7.54333
G01 X-3.94267 Y7.54843
G01 X-4.06280 Y7.55055
G01 X-4.18293 Y7.54970
G01 X-4.30232 Y7.54586
G01 X-4.37783 Y7.56247
G01 X-4.45403 Y7.57794
G01 X-4.53022 Y7.59215
G01 X-4.60650 Y7.60511
G01 X-4.68262 Y7.61680
G01 X-4.75882 Y7.62724
G01 X-4.83510 Y7.63643
G01 X-4.91122 Y7.64435
G01 X-4.98750 Y7.65102
G01 X-5.06362 Y7.65643
G01 X-5.13990 Y7.66059
G01 X-5.21610 Y7.66348
G01 X-5.29222 Y7.66512
G01 X-5.36850 Y7.66550
G01 X-5.44462 Y7.66463
G01 X-5.52040 Y7.66249
G01 X-5.61861 Y7.67646
G01 X-5.71723 Y7.68832
G01 X-5.81575 Y7.69801
G01 X-5.91437 Y7.70557
G01 X-6.01311 Y7.71098
G01 X-6.11173 Y7.71423
G01 X-6.21025 Y7.71533
G01 X-6.30888 Y7.71427
G01 X-6.40761 Y7.71106
G01 X-6.50624 Y7.70570
G01 X-6.60475 Y7.69820
G01 X-6.70349 Y7.68853
G01 X-6.80200 Y7.67672
G01 X-6.90063 Y7.66276
G01 X-6.99935 Y7.64662
G01 X-7.09625 Y7.62867
G01 X-7.09629 Y7.62840
G01 X-7.09625 Y7.62867
G01 X-7.19776 Y7.67806
G01 X-7.31196 Y7.73051
G01 X-7.41975 Y7.77684
G01 X-7.52742 Y7.82001
G01 X-7.63527 Y7.86016
G01 X-7.72014 Y7.88971
G01 X-7.79850 Y7.91529
G01 X-7.87695 Y7.93926
G01 X-7.95639 Y7.96176
G01 X-7.95739 Y7.96174
G01 X-7.95927 Y7.96111
G01 X-8.03325 Y7.91843
G01 X-8.10536 Y7.87576
G01 X-8.18075 Y7.83011
G01 X-8.24391 Y7.79085
G01 X-8.30550 Y7.75158
G01 X-8.36552 Y7.71231
G01 X-8.42397 Y7.67304
G01 X-8.48079 Y7.63380
G01 X-8.53616 Y7.59449
G01 X-8.59846 Y7.54886
G01 X-8.67704 Y7.48922
G01 X-8.75212 Y7.42947
G01 X-8.82336 Y7.36986
G01 X-8.89110 Y7.31013
G01 X-8.89818 Y7.30372
G01 X-8.94970 Y7.25595
G01 X-8.99879 Y7.20827
G01 X-9.04571 Y7.16040
G01 X-9.09010 Y7.11272
G01 X-9.13097 Y7.06672
G01 X-9.16445 Y7.02708
G01 X-9.19629 Y6.98745
G01 X-9.23131 Y6.94134
G01 X-9.25599 Y6.90724
G01 X-9.27939 Y6.87324
G01 X-9.30165 Y6.83915
G01 X-9.32655 Y6.79861
G01 X-9.34415 Y6.76845
G01 X-9.36077 Y6.73833
G01 X-9.37639 Y6.70832
G01 X-9.39420 Y6.67166
G01 X-9.41842 Y6.61712
G01 X-9.43946 Y6.56268
G01 X-9.44178 Y6.55620
G01 X-9.45849 Y6.50572
G01 X-9.47260 Y6.45489
G01 X-9.47422 Y6.44840
G01 X-9.48500 Y6.40048
G01 X-9.49340 Y6.35220
G01 X-9.49436 Y6.34570
G01 X-9.50011 Y6.29909
G01 X-9.50354 Y6.25271
G01 X-9.50387 Y6.24610
G01 X-9.50500 Y6.19988
G01 X-9.50386 Y6.15379
G01 X-9.50354 Y6.14729
G01 X-9.50009 Y6.10067
G01 X-9.49436 Y6.05429
G01 X-9.49338 Y6.04768
G01 X-9.48500 Y5.99952
G01 X-9.47422 Y5.95160
G01 X-9.47257 Y5.94501
G01 X-9.46128 Y5.90373
G01 X-9.46084 Y5.90367
G01 X-9.46128 Y5.90373
G01 X-9.47843 Y5.87528
G01 X-9.49553 Y5.84487
G01 X-9.54865 Y5.74678
G01 X-9.56894 Y5.70711
G01 X-9.58689 Y5.66731
G01 X-9.61823 Y5.59279
G01 X-9.62934 Y5.56695
G01 X-9.63943 Y5.54083
G01 X-9.64307 Y5.53083
G01 X-9.65163 Y5.50584
G01 X-9.65904 Y5.48114
G01 X-9.68243 Y5.40552
G01 X-9.69027 Y5.37782
G01 X-9.69676 Y5.34975
G01 X-9.71683 Y5.25161
G01 X-9.72126 Y5.22694
G01 X-9.72448 Y5.20202
G01 X-9.73469 Y5.10388
G01 X-9.73656 Y5.08033
G01 X-9.73726 Y5.05703
G01 X-9.73779 Y4.95901
G01 X-9.73734 Y4.93553
G01 X-9.73575 Y4.91231
G01 X-9.72663 Y4.81429
G01 X-9.72370 Y4.78949
G01 X-9.71957 Y4.76493
G01 X-9.70063 Y4.66692
G01 X-9.69456 Y4.63927
G01 X-9.68712 Y4.61186
G01 X-9.65797 Y4.51385
G01 X-9.64757 Y4.48183
G01 X-9.63532 Y4.44960
G01 X-9.60511 Y4.37554
G01 X-9.59377 Y4.34719
G01 X-9.58110 Y4.31865
G01 X-9.57640 Y4.30857
G01 X-9.56160 Y4.27834
G01 X-9.54555 Y4.24838
G01 X-9.50727 Y4.17579
G01 X-9.48014 Y4.12741
G01 X-9.44974 Y4.07892
G01 X-9.38491 Y3.98075
G01 X-9.36385 Y3.94975
G01 X-9.34169 Y3.91884
G01 X-9.31822 Y3.88775
G01 X-9.29369 Y3.85680
G01 X-9.21414 Y3.75879
G01 X-9.18030 Y3.71820
G01 X-9.14463 Y3.67757
G01 X-9.10707 Y3.63686
G01 X-9.06788 Y3.59633
G01 X-8.97084 Y3.49823
G01 X-8.91529 Y3.44357
G01 X-8.85680 Y3.38891
G01 X-8.79546 Y3.33434
G01 X-8.73104 Y3.27966
G01 X-8.61290 Y3.18162
G01 X-8.56649 Y3.14364
G01 X-8.51883 Y3.10571
G01 X-8.41954 Y3.02979
G01 X-8.31493 Y2.95378
G01 X-8.20528 Y2.87789
G01 X-8.06026 Y2.77984
G01 X-7.93498 Y2.69707
G01 X-7.80430 Y2.61454
G01 X-7.75195 Y2.56448
G01 X-7.69793 Y2.51403
G01 X-7.64273 Y2.46362
G01 X-7.58636 Y2.41324
G01 X-7.58465 Y2.41224
G01 X-7.58269 Y2.41198
G01 X-7.51195 Y2.41685
G01 X-7.44121 Y2.42278
G01 X-7.37054 Y2.42975
G01 X-7.30029 Y2.43775
G01 X-7.18796 Y2.42821
G01 X-7.07491 Y2.42130
G01 X-6.96209 Y2.41707
G01 X-6.84981 Y2.41556
G01 X-6.76608 Y2.39190
G01 X-6.68181 Y2.36975
G01 X-6.59735 Y2.34917
G01 X-6.51307 Y2.33024
G01 X-6.42862 Y2.31290
G01 X-6.34434 Y2.29720
G01 X-6.25988 Y2.28308
G01 X-6.17551 Y2.27060
G01 X-6.09123 Y2.25974
G01 X-6.00686 Y2.25049
G01 X-5.92239 Y2.24284
G01 X-5.83811 Y2.23683
G01 X-5.75374 Y2.23242
G01 X-5.66936 Y2.22963
G01 X-5.58499 Y2.22845
G01 X-5.50062 Y2.22889
G01 X-5.41615 Y2.23094
G01 X-5.33187 Y2.23461
G01 X-5.24750 Y2.23989
G01 X-5.16303 Y2.24680
G01 X-5.07866 Y2.25532
G01 X-4.99429 Y2.26545
G01 X-4.91001 Y2.27718
G01 X-4.82555 Y2.29056
G01 X-4.74118 Y2.30554
G01 X-4.65681 Y2.32213
G01 X-4.57244 Y2.34034
G01 X-4.48817 Y2.36014
G01 X-4.40380 Y2.38158
G01 X-4.31935 Y2.40465
G01 X-4.23507 Y2.42930
G01 X-4.15154 Y2.45540
G01 X-4.02989 Y2.45082
G01 X-3.90836 Y2.44946
G01 X-3.79974 Y2.40991
G01 X-3.69010 Y2.37288
G01 X-3.58056 Y2.33871
G01 X-3.47102 Y2.30737
G01 X-3.36159 Y2.27889
G01 X-3.25205 Y2.25319
G01 X-3.14238 Y2.23030
G01 X-3.03283 Y2.21026
G01 X-2.92340 Y2.19307
G01 X-2.81386 Y2.17867
G01 X-2.70418 Y2.16709
G01 X-2.59462 Y2.15835
G01 X-2.48520 Y2.15245
G01 X-2.37551 Y2.14935
G01 X-2.26609 Y2.14909
G01 X-2.15653 Y2.15165
G01 X-2.15553 Y2.15178
G01 X-2.15458 Y2.15210
G01 X-2.15371 Y2.15260
G01 X-2.15296 Y2.15328
G01 X-2.08579 Y2.22678
G01 X-2.02105 Y2.30021
G01 X-1.95855 Y2.37379
G01 X-1.89848 Y2.44730
G01 X-1.84084 Y2.52074
G01 X-1.78544 Y2.59434
G01 X-1.73247 Y2.66786
G01 X-1.68194 Y2.74129
G01 X-1.63370 Y2.81482
G01 X-1.58777 Y2.88845
G01 X-1.54434 Y2.96189
G01 X-1.50321 Y3.03543
G01 X-1.46444 Y3.10897
G01 X-1.42805 Y3.18252
G01 X-1.39397 Y3.25620
G01 X-1.36237 Y3.32963
G01 X-1.34163 Y3.37969
G01 X-1.31994 Y3.43362
G01 X-1.29949 Y3.48770
G01 X-1.28038 Y3.54168
G01 X-1.26255 Y3.59566
G01 X-1.24603 Y3.64965
G01 X-1.23083 Y3.70353
G01 X-1.21690 Y3.75752
G01 X-1.20444 Y3.81091
G01 X-1.17484 Y3.86776
G01 X-1.14681 Y3.92513
G01 X-1.12360 Y3.97420
G01 X-1.09996 Y4.02575
G01 X-1.07776 Y4.07741
G01 X-1.05699 Y4.12919
G01 X-1.03778 Y4.18080
G01 X-1.02025 Y4.22981
G01 X-1.00397 Y4.27708
G01 X-0.98890 Y4.32453
G01 X-0.97517 Y4.37174
G01 X-0.96268 Y4.41908
G01 X-0.95039 Y4.46815
G01 X-0.93983 Y4.51255
G01 X-0.93038 Y4.55713
G01 X-0.92210 Y4.60147
G01 X-0.91492 Y4.64599
G01 X-0.90765 Y4.69500
G01 X-0.90182 Y4.73791
G01 X-0.89708 Y4.78063
G01 X-0.89338 Y4.82348
G01 X-0.89074 Y4.86632
G01 X-0.88833 Y4.91539
G01 X-0.88677 Y4.95763
G01 X-0.88625 Y4.99988
G01 X-0.90625 Y5.00000
G01 X-0.90676 Y4.95819
G01 X-0.90831 Y4.91628
G01 X-0.91071 Y4.86746
G01 X-0.91332 Y4.82501
G01 X-0.91697 Y4.78266
G01 X-0.92168 Y4.74030
G01 X-0.92745 Y4.69785
G01 X-0.93470 Y4.64902
G01 X-0.94179 Y4.60496
G01 X-0.95000 Y4.56098
G01 X-0.95933 Y4.51699
G01 X-0.96981 Y4.47292
G01 X-0.98204 Y4.42409
G01 X-0.99443 Y4.37715
G01 X-1.00805 Y4.33029
G01 X-1.02294 Y4.28342
G01 X-1.03911 Y4.23646
G01 X-1.05658 Y4.18763
G01 X-1.07567 Y4.13634
G01 X-1.09620 Y4.08514
G01 X-1.11822 Y4.03392
G01 X-1.14174 Y3.98261
G01 X-1.16484 Y3.93377
G01 X-1.19272 Y3.87671
G01 X-1.21371 Y3.83636
G01 X-1.21255 Y3.83039
G01 X-1.21371 Y3.83636
G01 X-1.43705 Y4.02842
G01 X-1.48793 Y4.07156
G01 X-1.53776 Y4.11253
G01 X-1.74243 Y4.27810
G01 X-1.77624 Y4.30479
G01 X-1.80984 Y4.32999
G01 X-1.90629 Y4.40033
G01 X-1.93295 Y4.41910
G01 X-1.95970 Y4.43656
G01 X-2.02041 Y4.47458
G01 X-2.04394 Y4.48863
G01 X-2.06790 Y4.50155
G01 X-2.08283 Y4.50917
G01 X-2.11444 Y4.52666
G01 X-2.15739 Y4.55240
G01 X-2.17688 Y4.56474
G01 X-2.19555 Y4.57788
G01 X-2.23505 Y4.60717
G01 X-2.25184 Y4.62026
G01 X-2.26788 Y4.63410
G01 X-2.30396 Y4.66680
G01 X-2.31894 Y4.68106
G01 X-2.33320 Y4.69604
G01 X-2.36590 Y4.73212
G01 X-2.37973 Y4.74816
G01 X-2.39283 Y4.76495
G01 X-2.42212 Y4.80444
G01 X-2.43526 Y4.82311
G01 X-2.44759 Y4.84260
G01 X-2.47338 Y4.88562
G01 X-2.48611 Y4.90812
G01 X-2.49790 Y4.93158
G01 X-2.52000 Y4.97830
G01 X-2.53239 Y5.00632
G01 X-2.54363 Y5.03553
G01 X-2.56177 Y5.08622
G01 X-2.57363 Y5.12222
G01 X-2.58398 Y5.15976
G01 X-2.59777 Y5.21483
G01 X-2.60842 Y5.26251
G01 X-2.61346 Y5.31106
G01 X-2.62080 Y5.36977
G01 X-2.63113 Y5.43847
G01 X-2.64136 Y5.50925
G01 X-2.65352 Y5.58263
G01 X-2.66003 Y5.61777
G01 X-2.69915 Y5.83394
G01 X-2.71365 Y5.90960
G01 X-2.83474 Y6.49814
G01 X-2.84863 Y6.56622
G01 X-2.88511 Y6.73851
G01 X-3.04955 Y7.48780
G01 X-3.05314 Y7.49015
G01 X-3.04955 Y7.48780
G01 X-2.99737 Y7.49813
G01 X-2.93028 Y7.51047
G01 X-2.86319 Y7.52185
G01 X-2.79605 Y7.53229
G01 X-2.74715 Y7.53954
G01 X-2.66185 Y7.55142
G01 X-2.57660 Y7.56175
G01 X-2.49136 Y7.57054
G01 X-2.41232 Y7.57726
G01 X-2.41205 Y7.57807
G01 X-2.41232 Y7.57726
G01 X-2.34656 Y7.52003
G01 X-2.27793 Y7.45868
G01 X-2.22393 Y7.40973
G01 X-2.17116 Y7.36137
G01 X-2.11962 Y7.31304
G01 X-2.06928 Y7.26471
G01 X-2.02013 Y7.21639
G01 X-1.97217 Y7.16807
G01 X-1.92541 Y7.11976
G01 X-1.87984 Y7.07146
G01 X-1.83544 Y7.02312
G01 X-1.79111 Y6.97421
G01 X-1.72131 Y6.89540
G01 X-1.65481 Y6.81667
G01 X-1.59157 Y6.73796
G01 X-1.53153 Y6.65919
G01 X-1.49530 Y6.61033
G01 X-1.44726 Y6.54397
G01 X-1.40165 Y6.47770
G01 X-1.35840 Y6.41144
G01 X-1.31747 Y6.34512
G01 X-1.28819 Y6.29627
G01 X-1.25459 Y6.23871
G01 X-1.22287 Y6.18123
G01 X-1.19297 Y6.12376
G01 X-1.16484 Y6.06623
G01 X-1.14174 Y6.01738
G01 X-1.11821 Y5.96608
G01 X-1.09620 Y5.91486
G01 X-1.07567 Y5.86366
G01 X-1.05658 Y5.81237
G01 X-1.03911 Y5.76354
G01 X-1.02294 Y5.71658
G01 X-1.00805 Y5.66971
G01 X-0.99443 Y5.62285
G01 X-0.98204 Y5.57591
G01 X-0.96981 Y5.52708
G01 X-0.95933 Y5.48300
G01 X-0.95000 Y5.43902
G01 X-0.94179 Y5.39504
G01 X-0.93470 Y5.35098
G01 X-0.92745 Y5.30215
G01 X-0.92168 Y5.25970
G01 X-0.91697 Y5.21734
G01 X-0.91332 Y5.17499
G01 X-0.91071 Y5.13254
G01 X-0.90831 Y5.08372
G01 X-0.90676 Y5.04181
G01 X-0.90625 Y5.00000
G01 X-0.89625 Y5.00000
G01 X-0.89677 Y4.95794
G01 X-0.89832 Y4.91585
G01 X-0.90072 Y4.86690
G01 X-0.90334 Y4.82427
G01 X-0.90702 Y4.78167
G01 X-0.91175 Y4.73907
G01 X-0.91755 Y4.69644
G01 X-0.92481 Y4.64749
G01 X-0.93194 Y4.60324
G01 X-0.94020 Y4.55902
G01 X-0.94958 Y4.51480
G01 X-0.96010 Y4.47055
G01 X-0.97236 Y4.42160
G01 X-0.98479 Y4.37447
G01 X-0.99849 Y4.32738
G01 X-1.01344 Y4.28028
G01 X-1.02967 Y4.23315
G01 X-1.04719 Y4.18420
G01 X-1.06634 Y4.13274
G01 X-1.08697 Y4.08130
G01 X-1.10908 Y4.02986
G01 X-1.13268 Y3.97839
G01 X-1.15583 Y3.92944
G01 X-1.18379 Y3.87221
G01 X-1.21066 Y3.82055
G01 X-1.21008 Y3.81756
G01 X-1.21066 Y3.82055
G01 X-1.44357 Y4.02084
G01 X-1.49446 Y4.06398
G01 X-1.54402 Y4.10473
G01 X-1.74872 Y4.27032
G01 X-1.78253 Y4.29702
G01 X-1.81573 Y4.32191
G01 X-1.91225 Y4.39230
G01 X-1.93885 Y4.41102
G01 X-1.96524 Y4.42823
G01 X-2.02572 Y4.46611
G01 X-2.04907 Y4.48005
G01 X-2.07264 Y4.49275
G01 X-2.08752 Y4.50033
G01 X-2.11943 Y4.51799
G01 X-2.16264 Y4.54389
G01 X-2.18244 Y4.55642
G01 X-2.20141 Y4.56977
G01 X-2.24111 Y4.59921
G01 X-2.25818 Y4.61253
G01 X-2.27450 Y4.62660
G01 X-2.31077 Y4.65947
G01 X-2.32601 Y4.67399
G01 X-2.34053 Y4.68923
G01 X-2.37339 Y4.72550
G01 X-2.38747 Y4.74182
G01 X-2.40079 Y4.75889
G01 X-2.43023 Y4.79859
G01 X-2.44358 Y4.81756
G01 X-2.45611 Y4.83736
G01 X-2.48202 Y4.88059
G01 X-2.49493 Y4.90341
G01 X-2.50689 Y4.92720
G01 X-2.52909 Y4.97414
G01 X-2.54164 Y5.00250
G01 X-2.55301 Y5.03205
G01 X-2.57123 Y5.08298
G01 X-2.58320 Y5.11933
G01 X-2.59365 Y5.15722
G01 X-2.60750 Y5.21252
G01 X-2.61829 Y5.26089
G01 X-2.62338 Y5.30982
G01 X-2.63067 Y5.36815
G01 X-2.64102 Y5.43703
G01 X-2.65123 Y5.50762
G01 X-2.66340 Y5.58109
G01 X-2.66986 Y5.61598
G01 X-2.70900 Y5.83220
G01 X-2.72346 Y5.90767
G01 X-2.84454 Y6.49613
G01 X-2.85842 Y6.56422
G01 X-2.89489 Y6.73644
G01 X-3.06151 Y7.49563
G01 X-3.06330 Y7.49680
G01 X-3.06151 Y7.49563
G01 X-2.99925 Y7.50796
G01 X-2.93202 Y7.52032
G01 X-2.86479 Y7.53172
G01 X-2.79755 Y7.54218
G01 X-2.74858 Y7.54944
G01 X-2.66314 Y7.56134
G01 X-2.57772 Y7.57169
G01 X-2.49230 Y7.58050
G01 X-2.40894 Y7.58758
G01 X-2.40881 Y7.58799
G01 X-2.40894 Y7.58758
G01 X-2.33995 Y7.52753
G01 X-2.27124 Y7.46611
G01 X-2.21719 Y7.41712
G01 X-2.16436 Y7.36870
G01 X-2.11274 Y7.32029
G01 X-2.06231 Y7.27189
G01 X-2.01307 Y7.22348
G01 X-1.96503 Y7.17507
G01 X-1.91818 Y7.12667
G01 X-1.87252 Y7.07827
G01 X-1.82805 Y7.02986
G01 X-1.78366 Y6.98088
G01 X-1.71374 Y6.90194
G01 X-1.64709 Y6.82303
G01 X-1.58370 Y6.74412
G01 X-1.52354 Y6.66520
G01 X-1.48723 Y6.61624
G01 X-1.43909 Y6.54974
G01 X-1.39334 Y6.48327
G01 X-1.34996 Y6.41680
G01 X-1.30892 Y6.35032
G01 X-1.27958 Y6.30136
G01 X-1.24590 Y6.24364
G01 X-1.21406 Y6.18595
G01 X-1.18404 Y6.12827
G01 X-1.15583 Y6.07056
G01 X-1.13268 Y6.02161
G01 X-1.10908 Y5.97014
G01 X-1.08697 Y5.91870
G01 X-1.06634 Y5.86726
G01 X-1.04719 Y5.81580
G01 X-1.02967 Y5.76685
G01 X-1.01344 Y5.71972
G01 X-0.99849 Y5.67262
G01 X-0.98479 Y5.62552
G01 X-0.97236 Y5.57840
G01 X-0.96010 Y5.52945
G01 X-0.94958 Y5.48520
G01 X-0.94020 Y5.44098
G01 X-0.93194 Y5.39676
G01 X-0.92481 Y5.35251
G01 X-0.91755 Y5.30356
G01 X-0.91175 Y5.26093
G01 X-0.90702 Y5.21833
G01 X-0.90334 Y5.17573
G01 X-0.90072 Y5.13310
G01 X-0.89832 Y5.08415
G01 X-0.89677 Y5.04206
G01 X-0.89625 Y5.00000
G04 P0 ( dwell for no time -- G64 should not smooth over this point )
G00 Z0.08000 ( retract )

G00 X-3.34662 Y7.48511 ( rapid move to begin. )
G01 F3.00000
( Mill infeed pass 1/1 )
G01 Z-0.00800
G04 P0 ( dwell for no time -- G64 should not smooth over this point )
G01 F6.00000
G01 X-3.34662 Y7.48511
G01 X-3.34810 Y7.48394
G01 X-3.43706 Y6.43614
G01 X-3.48353 Y5.90233
G01 X-3.50023 Y5.71734
G01 X-3.50500 Y5.65629
G01 X-3.50498 Y5.36399
G01 X-3.50185 Y5.32870
G01 X-3.49797 Y5.29423
G01 X-3.49330 Y5.25686
G01 X-3.48020 Y5.14687
G01 X-3.46913 Y5.04841
G01 X-3.45962 Y4.95788
G01 X-3.45083 Y4.86764
G01 X-3.44141 Y4.76265
G01 X-3.43232 Y4.65293
G01 X-3.42046 Y4.49850
G01 X-3.41661 Y4.44504
G01 X-3.41661 Y4.37630
G01 X-3.41802 Y4.29989
G01 X-3.42224 Y4.22070
G01 X-3.42929 Y4.13867
G01 X-3.43915 Y4.05380
G01 X-3.45183 Y3.96611
G01 X-3.46733 Y3.87558
G01 X-3.48565 Y3.78222
G01 X-3.50679 Y3.68603
G01 X-3.53076 Y3.58700
G01 X-3.55755 Y3.48516
G01 X-3.58716 Y3.38048
G01 X-3.61959 Y3.27297
G01 X-3.65484 Y3.16264
G01 X-3.69292 Y3.04948
G01 X-3.73382 Y2.93349
G01 X-3.77755 Y2.81466
G01 X-3.91091 Y2.45942
G01 X-3.91028 Y2.45851
G01 X-3.91091 Y2.45942
G01 X-4.02971 Y2.46082
G01 X-4.14832 Y2.46521
G01 X-4.14908 Y2.46426
G01 X-4.14832 Y2.46521
G01 X-4.35171 Y3.22644
G01 X-4.38529 Y3.35751
G01 X-4.41494 Y3.48463
G01 X-4.44067 Y3.60781
G01 X-4.46248 Y3.72708
G01 X-4.47191 Y3.78521
G01 X-4.48036 Y3.84237
G01 X-4.48783 Y3.89855
G01 X-4.49432 Y3.95375
G01 X-4.49983 Y4.00796
G01 X-4.50435 Y4.06118
G01 X-4.50790 Y4.11342
G01 X-4.51047 Y4.16437
G01 X-4.49977 Y4.28266
G01 X-4.49500 Y4.34371
G01 X-4.49502 Y4.63601
G01 X-4.49814 Y4.67130
G01 X-4.50203 Y4.70576
G01 X-4.50669 Y4.74314
G01 X-4.51980 Y4.85313
G01 X-4.53088 Y4.95167
G01 X-4.54037 Y5.04206
G01 X-4.54917 Y5.13236
G01 X-4.55859 Y5.23735
G01 X-4.56768 Y5.34707
G01 X-4.57954 Y5.50149
G01 X-4.58327 Y5.55335
G01 X-4.59029 Y5.63107
G01 X-4.59971 Y5.71798
G01 X-4.59741 Y5.76792
G01 X-4.59400 Y5.81931
G01 X-4.58948 Y5.87181
G01 X-4.58384 Y5.92544
G01 X-4.57709 Y5.98019
G01 X-4.56922 Y6.03606
G01 X-4.56023 Y6.09305
G01 X-4.55013 Y6.15117
G01 X-4.29859 Y7.53601
G01 X-4.29952 Y7.53709
G01 X-4.29859 Y7.53601
G01 X-4.18268 Y7.53970
G01 X-4.06279 Y7.54055
G01 X-3.94291 Y7.53843
G01 X-3.82302 Y7.53334
G01 X-3.70314 Y7.52529
G01 X-3.58325 Y7.51425
G01 X-3.46336 Y7.50025
G01 X-3.34810 Y7.48394
G01 X-3.35886 Y7.47536
G01 X-3.46464 Y7.49034
G01 X-3.58429 Y7.50431
G01 X-3.70393 Y7.51532
G01 X-3.82357 Y7.52336
G01 X-3.94321 Y7.52844
G01 X-4.06285 Y7.53055
G01 X-4.18248 Y7.52970
G01 X-4.29019 Y7.52627
G01 X-4.29206 Y7.52843
G01 X-4.29019 Y7.52627
G01 X-4.54029 Y6.14942
G01 X-4.55037 Y6.09141
G01 X-4.55933 Y6.03458
G01 X-4.56717 Y5.97888
G01 X-4.57390 Y5.92431
G01 X-4.57952 Y5.87086
G01 X-4.58403 Y5.81855
G01 X-4.58743 Y5.76736
G01 X-4.58970 Y5.71829
G01 X-4.58033 Y5.63197
G01 X-4.57331 Y5.55424
G01 X-4.56957 Y5.50225
G01 X-4.55771 Y5.34788
G01 X-4.54863 Y5.23819
G01 X-4.53921 Y5.13331
G01 X-4.53042 Y5.04308
G01 X-4.52094 Y4.95276
G01 X-4.50987 Y4.85429
G01 X-4.49676 Y4.74434
G01 X-4.49209 Y4.70682
G01 X-4.48817 Y4.67206
G01 X-4.48500 Y4.63557
G01 X-4.48500 Y4.34371
G01 X-4.48981 Y4.28176
G01 X-4.50046 Y4.16418
G01 X-4.49792 Y4.11401
G01 X-4.49438 Y4.06194
G01 X-4.48987 Y4.00889
G01 X-4.48438 Y3.95484
G01 X-4.47790 Y3.89979
G01 X-4.47046 Y3.84376
G01 X-4.46202 Y3.78674
G01 X-4.45262 Y3.72878
G01 X-4.43086 Y3.60973
G01 X-4.40518 Y3.48679
G01 X-4.37558 Y3.35989
G01 X-4.34203 Y3.22897
G01 X-4.14056 Y2.47493
G01 X-4.14208 Y2.47303
G01 X-4.14056 Y2.47493
G01 X-4.02946 Y2.47082
G01 X-3.91780 Y2.46950
G01 X-3.91655 Y2.46767
G01 X-3.91780 Y2.46950
G01 X-3.78692 Y2.81815
G01 X-3.74323 Y2.93688
G01 X-3.70238 Y3.05274
G01 X-3.66435 Y3.16575
G01 X-3.62914 Y3.27594
G01 X-3.59676 Y3.38328
G01 X-3.56720 Y3.48779
G01 X-3.54046 Y3.58945
G01 X-3.51654 Y3.68828
G01 X-3.49544 Y3.78425
G01 X-3.47716 Y3.87738
G01 X-3.46171 Y3.96767
G01 X-3.44906 Y4.05510
G01 X-3.43924 Y4.13967
G01 X-3.43222 Y4.22139
G01 X-3.42801 Y4.30025
G01 X-3.42661 Y4.37639
G01 X-3.42660 Y4.44468
G01 X-3.43043 Y4.49775
G01 X-3.44229 Y4.65212
G01 X-3.45137 Y4.76181
G01 X-3.46079 Y4.86669
G01 X-3.46957 Y4.95686
G01 X-3.47907 Y5.04731
G01 X-3.49013 Y5.14570
G01 X-3.50323 Y5.25566
G01 X-3.50791 Y5.29318
G01 X-3.51179 Y5.32758
G01 X-3.51494 Y5.36311
G01 X-3.51500 Y5.65629
G01 X-3.51019 Y5.71823
G01 X-3.49349 Y5.90321
G01 X-3.44702 Y6.43699
G01 X-3.35886 Y7.47536
G04 P0 ( dwell for no time -- G64 should not smooth over this point )
G00 Z0.08000 ( retract )

G00 X-7.10152 Y7.62139 ( rapid move to begin. )
G01 F3.00000
( Mill infeed pass 1/1 )
G01 Z-0.00800
G04 P0 ( dwell for no time -- G64 should not smooth over this point )
G01 F6.00000
G01 X-7.10152 Y7.62139
G01 X-7.10289 Y7.62077
G01 X-7.14886 Y7.45479
G01 X-7.18692 Y7.32267
G01 X-7.28469 Y7.11797
G01 X-7.42930 Y6.81378
G01 X-7.60055 Y6.62556
G01 X-7.88614 Y6.31017
G01 X-7.93448 Y6.25803
G01 X-7.98279 Y6.20830
G01 X-8.03110 Y6.16095
G01 X-8.07942 Y6.11595
G01 X-8.08574 Y6.11022
G01 X-8.12829 Y6.07259
G01 X-8.18860 Y6.02043
G01 X-8.27849 Y5.98872
G01 X-8.31582 Y5.97535
G01 X-8.36784 Y5.95849
G01 X-8.41864 Y5.94348
G01 X-8.48459 Y5.92492
G01 X-8.56497 Y5.90185
G01 X-8.61189 Y5.88936
G01 X-8.65157 Y5.88014
G01 X-8.68312 Y5.87390
G01 X-8.72677 Y5.86593
G01 X-8.77153 Y5.85742
G01 X-8.80811 Y5.85133
G01 X-8.81472 Y5.85039
G01 X-8.84446 Y5.84673
G01 X-8.87395 Y5.84429
G01 X-8.89389 Y5.84302
G01 X-8.94221 Y5.83955
G01 X-8.96726 Y5.83819
G01 X-8.99997 Y5.83757
G01 X-9.03266 Y5.83855
G01 X-9.11278 Y5.84299
G01 X-9.14878 Y5.84586
G01 X-9.18514 Y5.85057
G01 X-9.20837 Y5.85433
G01 X-9.29328 Y5.86913
G01 X-9.33633 Y5.87733
G01 X-9.38023 Y5.88764
G01 X-9.40898 Y5.89522
G01 X-9.45181 Y5.90704
G01 X-9.45236 Y5.90650
G01 X-9.45181 Y5.90704
G01 X-9.46291 Y5.94759
G01 X-9.46448 Y5.95385
G01 X-9.47522 Y6.00159
G01 X-9.48352 Y6.04933
G01 X-9.48444 Y6.05558
G01 X-9.49015 Y6.10177
G01 X-9.49357 Y6.14797
G01 X-9.49387 Y6.15422
G01 X-9.49500 Y6.20000
G01 X-9.49387 Y6.24579
G01 X-9.49357 Y6.25204
G01 X-9.49015 Y6.29823
G01 X-9.48444 Y6.34442
G01 X-9.48352 Y6.35067
G01 X-9.47522 Y6.39840
G01 X-9.46448 Y6.44614
G01 X-9.46291 Y6.45240
G01 X-9.44896 Y6.50270
G01 X-9.43231 Y6.55300
G01 X-9.43007 Y6.55925
G01 X-9.40913 Y6.61340
G01 X-9.38508 Y6.66755
G01 X-9.38211 Y6.67384
G01 X-9.36749 Y6.70376
G01 X-9.35193 Y6.73366
G01 X-9.33543 Y6.76357
G01 X-9.31796 Y6.79350
G01 X-9.29324 Y6.83373
G01 X-9.27112 Y6.86763
G01 X-9.24779 Y6.90152
G01 X-9.21854 Y6.94177
G01 X-9.18846 Y6.98123
G01 X-9.15677 Y7.02068
G01 X-9.12345 Y7.06013
G01 X-9.08275 Y7.10593
G01 X-9.03843 Y7.15354
G01 X-8.99178 Y7.20114
G01 X-8.94277 Y7.24874
G01 X-8.88441 Y7.30269
G01 X-8.81689 Y7.36223
G01 X-8.74575 Y7.42176
G01 X-8.67095 Y7.48129
G01 X-8.59248 Y7.54084
G01 X-8.58393 Y7.54719
G01 X-8.53028 Y7.58639
G01 X-8.47508 Y7.62559
G01 X-8.41831 Y7.66479
G01 X-8.35996 Y7.70399
G01 X-8.30005 Y7.74319
G01 X-8.23855 Y7.78240
G01 X-8.17549 Y7.82161
G01 X-8.10024 Y7.86718
G01 X-8.02819 Y7.90981
G01 X-7.95611 Y7.95139
G01 X-7.95616 Y7.95181
G01 X-7.95611 Y7.95139
G01 X-7.87983 Y7.92968
G01 X-7.80156 Y7.90577
G01 X-7.72329 Y7.88022
G01 X-7.63867 Y7.85076
G01 X-7.53109 Y7.81071
G01 X-7.42353 Y7.76758
G01 X-7.31597 Y7.72135
G01 X-7.20838 Y7.67202
G01 X-7.10289 Y7.62077
G01 X-7.11475 Y7.61542
G01 X-7.15849 Y7.45751
G01 X-7.19629 Y7.32622
G01 X-7.29372 Y7.12227
G01 X-7.43773 Y6.81944
G01 X-7.43765 Y6.81938
G01 X-7.43773 Y6.81944
G01 X-7.60796 Y6.63227
G01 X-7.89351 Y6.31693
G01 X-7.94173 Y6.26492
G01 X-7.98988 Y6.21535
G01 X-8.03800 Y6.16818
G01 X-8.09242 Y6.11767
G01 X-8.13487 Y6.08012
G01 X-8.19375 Y6.02931
G01 X-8.19367 Y6.02916
G01 X-8.19375 Y6.02931
G01 X-8.28185 Y5.99814
G01 X-8.31905 Y5.98482
G01 X-8.37080 Y5.96805
G01 X-8.42141 Y5.95308
G01 X-8.48732 Y5.93454
G01 X-8.56763 Y5.91148
G01 X-8.61436 Y5.89905
G01 X-8.65366 Y5.88992
G01 X-8.68499 Y5.88372
G01 X-8.72860 Y5.87576
G01 X-8.77329 Y5.86727
G01 X-8.80964 Y5.86121
G01 X-8.81603 Y5.86030
G01 X-8.84549 Y5.85668
G01 X-8.87468 Y5.85426
G01 X-8.89456 Y5.85299
G01 X-8.94285 Y5.84953
G01 X-8.96757 Y5.84819
G01 X-8.99991 Y5.84757
G01 X-9.03223 Y5.84854
G01 X-9.11211 Y5.85297
G01 X-9.14774 Y5.85581
G01 X-9.18374 Y5.86047
G01 X-9.20669 Y5.86419
G01 X-9.29151 Y5.87897
G01 X-9.33425 Y5.88711
G01 X-9.37785 Y5.89735
G01 X-9.38528 Y5.89926
G01 X-9.40637 Y5.90487
G01 X-9.44367 Y5.91517
G01 X-9.44475 Y5.91409
G01 X-9.44367 Y5.91517
G01 X-9.45323 Y5.95013
G01 X-9.45475 Y5.95617
G01 X-9.46541 Y6.00355
G01 X-9.47364 Y6.05092
G01 X-9.47453 Y6.05693
G01 X-9.48020 Y6.10276
G01 X-9.48358 Y6.14858
G01 X-9.48388 Y6.15458
G01 X-9.48499 Y6.20000
G01 X-9.48388 Y6.24542
G01 X-9.48358 Y6.25142
G01 X-9.48020 Y6.29724
G01 X-9.47453 Y6.34307
G01 X-9.47364 Y6.34908
G01 X-9.46541 Y6.39645
G01 X-9.45475 Y6.44383
G01 X-9.45324 Y6.44984
G01 X-9.43939 Y6.49979
G01 X-9.42285 Y6.54974
G01 X-9.42070 Y6.55577
G01 X-9.39990 Y6.60956
G01 X-9.37599 Y6.66338
G01 X-9.35856 Y6.69926
G01 X-9.34312 Y6.72894
G01 X-9.32673 Y6.75863
G01 X-9.30563 Y6.79462
G01 X-9.28480 Y6.82837
G01 X-9.26281 Y6.86206
G01 X-9.23962 Y6.89576
G01 X-9.21055 Y6.93576
G01 X-9.18058 Y6.97507
G01 X-9.14905 Y7.01432
G01 X-9.11589 Y7.05359
G01 X-9.07539 Y7.09917
G01 X-9.03120 Y7.14663
G01 X-8.98472 Y7.19405
G01 X-8.93589 Y7.24148
G01 X-8.87775 Y7.29524
G01 X-8.81038 Y7.35465
G01 X-8.73943 Y7.41401
G01 X-8.66482 Y7.47339
G01 X-8.58648 Y7.53285
G01 X-8.52444 Y7.57828
G01 X-8.46935 Y7.61740
G01 X-8.41268 Y7.65653
G01 X-8.35444 Y7.69566
G01 X-8.29462 Y7.73479
G01 X-8.23323 Y7.77394
G01 X-8.17026 Y7.81308
G01 X-8.09512 Y7.85859
G01 X-8.02314 Y7.90117
G01 X-7.95478 Y7.94061
G01 X-7.95488 Y7.94146
G01 X-7.95478 Y7.94061
G01 X-7.88266 Y7.92009
G01 X-7.80457 Y7.89623
G01 X-7.72648 Y7.87074
G01 X-7.64210 Y7.84136
G01 X-7.53469 Y7.80138
G01 X-7.42736 Y7.75834
G01 X-7.32003 Y7.71221
G01 X-7.21260 Y7.66295
G01 X-7.11475 Y7.61542
G04 P0 ( dwell for no time -- G64 should not smooth over this point )
G00 Z0.08000 ( retract )

G00 X-7.18426 Y7.29690 ( rapid move to begin. )
G01 F3.00000
( Mill infeed pass 1/1 )
G01 Z-0.00800
G04 P0 ( dwell for no time -- G64 should not smooth over this point )
G01 F6.00000
G01 X-7.18426 Y7.29690
G01 X-7.18577 Y7.27871
G01 X-7.26663 Y7.10938
G01 X-7.41008 Y6.80775
G01 X-7.41035 Y6.80781
G01 X-7.41008 Y6.80775
G01 X-7.39116 Y5.82115
G01 X-7.39072 Y5.77323
G01 X-7.39126 Y5.72659
G01 X-7.39277 Y5.68144
G01 X-7.39526 Y5.63710
G01 X-7.39876 Y5.59352
G01 X-7.40318 Y5.55184
G01 X-7.40861 Y5.51092
G01 X-7.41506 Y5.47092
G01 X-7.45847 Y5.22475
G01 X-7.46412 Y5.18821
G01 X-7.46801 Y5.15272
G01 X-7.49329 Y4.85935
G01 X-7.49530 Y4.82504
G01 X-7.49549 Y4.78984
G01 X-7.49386 Y4.75353
G01 X-7.49043 Y4.71610
G01 X-7.48517 Y4.67757
G01 X-7.47808 Y4.63792
G01 X-7.46915 Y4.59716
G01 X-7.45837 Y4.55518
G01 X-7.42431 Y4.43147
G01 X-7.41212 Y4.38501
G01 X-7.40064 Y4.33692
G01 X-7.38989 Y4.28731
G01 X-7.37970 Y4.23531
G01 X-7.37028 Y4.18206
G01 X-7.36149 Y4.12673
G01 X-7.35336 Y4.06959
G01 X-7.34588 Y4.01042
G01 X-7.33909 Y3.94968
G01 X-7.33297 Y3.88712
G01 X-7.32753 Y3.82293
G01 X-7.32272 Y3.75648
G01 X-7.31515 Y3.61869
G01 X-7.31024 Y3.47392
G01 X-7.28569 Y2.45656
G01 X-7.28819 Y2.45421
G01 X-7.28569 Y2.45656
G01 X-7.18645 Y2.44815
G01 X-7.07399 Y2.44128
G01 X-6.96152 Y2.43706
G01 X-6.86027 Y2.43566
G01 X-6.85876 Y2.43360
G01 X-6.86027 Y2.43566
G01 X-6.76586 Y2.75677
G01 X-6.66647 Y4.69668
G01 X-6.66604 Y4.73351
G01 X-6.65604 Y4.73382
G01 X-6.65647 Y4.69637
G01 X-6.75597 Y2.75508
G01 X-6.85282 Y2.42556
G01 X-6.85206 Y2.42453
G01 X-6.85282 Y2.42556
G01 X-6.96178 Y2.42707
G01 X-7.07448 Y2.43129
G01 X-7.18718 Y2.43818
G01 X-7.29547 Y2.44735
G01 X-7.29672 Y2.44618
G01 X-7.29547 Y2.44735
G01 X-7.32024 Y3.47358
G01 X-7.32514 Y3.61835
G01 X-7.33271 Y3.75593
G01 X-7.33749 Y3.82203
G01 X-7.34293 Y3.88627
G01 X-7.34905 Y3.94877
G01 X-7.35582 Y4.00938
G01 X-7.36326 Y4.06818
G01 X-7.37136 Y4.12516
G01 X-7.38013 Y4.18032
G01 X-7.38955 Y4.23357
G01 X-7.39967 Y4.28519
G01 X-7.41043 Y4.33490
G01 X-7.42184 Y4.38269
G01 X-7.43394 Y4.42876
G01 X-7.46803 Y4.55261
G01 X-7.47889 Y4.59485
G01 X-7.48789 Y4.63597
G01 X-7.49505 Y4.67601
G01 X-7.50036 Y4.71497
G01 X-7.50384 Y4.75285
G01 X-7.50549 Y4.78965
G01 X-7.50530 Y4.82536
G01 X-7.50327 Y4.86007
G01 X-7.47797 Y5.15370
G01 X-7.47404 Y5.18952
G01 X-7.46833 Y5.22638
G01 X-7.42491 Y5.47265
G01 X-7.41852 Y5.51224
G01 X-7.41312 Y5.55289
G01 X-7.40869 Y5.59470
G01 X-7.40525 Y5.63754
G01 X-7.40276 Y5.68177
G01 X-7.40126 Y5.72703
G01 X-7.40072 Y5.77334
G01 X-7.40116 Y5.82091
G01 X-7.42012 Y6.80991
G01 X-7.42026 Y6.80994
G01 X-7.42012 Y6.80991
G01 X-7.27104 Y7.12337
G01 X-7.18342 Y7.30683
G01 X-7.18267 Y7.31593
G01 X-7.18342 Y7.30683
G01 X-7.14213 Y7.16265
G01 X-7.10000 Y7.01177
G01 X-7.06066 Y6.86686
G01 X-7.02409 Y6.72793
G01 X-6.99031 Y6.59497
G01 X-6.95932 Y6.46798
G01 X-6.93111 Y6.34697
G01 X-6.90568 Y6.23193
G01 X-6.88304 Y6.12287
G01 X-6.86318 Y6.01978
G01 X-6.84610 Y5.92268
G01 X-6.83181 Y5.83155
G01 X-6.82030 Y5.74641
G01 X-6.81158 Y5.66726
G01 X-6.80563 Y5.59410
G01 X-6.80247 Y5.52689
G01 X-6.79499 Y5.25674
G01 X-6.79387 Y5.23885
G01 X-6.79160 Y5.22169
G01 X-6.78808 Y5.20439
G01 X-6.78330 Y5.18715
G01 X-6.67297 Y4.83721
G01 X-6.66824 Y4.82084
G01 X-6.66428 Y4.80416
G01 X-6.66109 Y4.78712
G01 X-6.65865 Y4.76977
G01 X-6.65604 Y4.73382
G01 X-6.66604 Y4.73351
G01 X-6.66859 Y4.76872
G01 X-6.67096 Y4.78550
G01 X-6.67406 Y4.80208
G01 X-6.67791 Y4.81830
G01 X-6.68254 Y4.83432
G01 X-6.79284 Y5.18414
G01 X-6.79763 Y5.20138
G01 X-6.80134 Y5.21934
G01 X-6.80378 Y5.23754
G01 X-6.80498 Y5.25646
G01 X-6.81246 Y5.52652
G01 X-6.81561 Y5.59346
G01 X-6.82153 Y5.66631
G01 X-6.83023 Y5.74519
G01 X-6.84171 Y5.83011
G01 X-6.85597 Y5.92103
G01 X-6.87301 Y6.01797
G01 X-6.89284 Y6.12090
G01 X-6.91546 Y6.22983
G01 X-6.94086 Y6.34475
G01 X-6.96905 Y6.46566
G01 X-7.00002 Y6.59255
G01 X-7.03377 Y6.72543
G01 X-7.07032 Y6.86428
G01 X-7.10965 Y7.00912
G01 X-7.15176 Y7.15993
G01 X-7.18577 Y7.27871
G04 P0 ( dwell for no time -- G64 should not smooth over this point )
G00 Z0.08000 ( retract )

G00 X-7.43341 Y6.78902 ( rapid move to begin. )
G01 F3.00000
( Mill infeed pass 1/1 )
G01 Z-0.00800
G04 P0 ( dwell for no time -- G64 should not smooth over this point )
G01 F6.00000
G01 X-7.43341 Y6.78902
G01 X-7.43942 Y6.77301
G01 X-7.42116 Y5.82065
G01 X-7.42072 Y5.77342
G01 X-7.42125 Y5.72743
G01 X-7.42275 Y5.68261
G01 X-7.42520 Y5.63897
G01 X-7.42861 Y5.59649
G01 X-7.43299 Y5.55520
G01 X-7.43832 Y5.51508
G01 X-7.44463 Y5.47602
G01 X-7.48804 Y5.22980
G01 X-7.49391 Y5.19181
G01 X-7.49789 Y5.15547
G01 X-7.52320 Y4.86172
G01 X-7.52529 Y4.82560
G01 X-7.52547 Y4.78888
G01 X-7.52377 Y4.75114
G01 X-7.52020 Y4.71237
G01 X-7.51475 Y4.67259
G01 X-7.50744 Y4.63179
G01 X-7.49828 Y4.58996
G01 X-7.48739 Y4.54759
G01 X-7.45326 Y4.42359
G01 X-7.44126 Y4.37788
G01 X-7.42992 Y4.33041
G01 X-7.41925 Y4.28110
G01 X-7.40922 Y4.22995
G01 X-7.39985 Y4.17696
G01 X-7.39113 Y4.12214
G01 X-7.38308 Y4.06548
G01 X-7.37568 Y4.00698
G01 X-7.36893 Y3.94665
G01 X-7.36285 Y3.88449
G01 X-7.35743 Y3.82049
G01 X-7.35267 Y3.75471
G01 X-7.34513 Y3.61751
G01 X-7.34023 Y3.47297
G01 X-7.31569 Y2.45610
G01 X-7.30413 Y2.44603
G01 X-7.30547 Y2.44720
G01 X-7.33023 Y3.47326
G01 X-7.33514 Y3.61796
G01 X-7.34269 Y3.75534
G01 X-7.34746 Y3.82128
G01 X-7.35290 Y3.88540
G01 X-7.35899 Y3.94769
G01 X-7.36575 Y4.00817
G01 X-7.37317 Y4.06681
G01 X-7.38125 Y4.12363
G01 X-7.38999 Y4.17862
G01 X-7.39939 Y4.23178
G01 X-7.40945 Y4.28312
G01 X-7.42017 Y4.33263
G01 X-7.43156 Y4.38031
G01 X-7.44360 Y4.42619
G01 X-7.47771 Y4.55008
G01 X-7.48864 Y4.59262
G01 X-7.49768 Y4.63392
G01 X-7.50491 Y4.67435
G01 X-7.51029 Y4.71373
G01 X-7.51381 Y4.75205
G01 X-7.51548 Y4.78933
G01 X-7.51529 Y4.82581
G01 X-7.51324 Y4.86086
G01 X-7.48792 Y5.15461
G01 X-7.48397 Y5.19072
G01 X-7.47819 Y5.22806
G01 X-7.43476 Y5.47436
G01 X-7.42843 Y5.51362
G01 X-7.42306 Y5.55401
G01 X-7.41866 Y5.59557
G01 X-7.41522 Y5.63828
G01 X-7.41275 Y5.68216
G01 X-7.41125 Y5.72720
G01 X-7.41072 Y5.77341
G01 X-7.41116 Y5.82079
G01 X-7.42990 Y6.79833
G01 X-7.42690 Y6.80634
G01 X-7.42990 Y6.79833
G01 X-7.59314 Y6.61884
G01 X-7.87879 Y6.30339
G01 X-7.92718 Y6.25119
G01 X-7.97575 Y6.20120
G01 X-8.02423 Y6.15367
G01 X-8.07263 Y6.10861
G01 X-8.07905 Y6.10279
G01 X-8.12173 Y6.06504
G01 X-8.18173 Y6.01327
G01 X-8.18191 Y6.01338
G01 X-8.18173 Y6.01327
G01 X-8.20691 Y5.93027
G01 X-8.26185 Y5.74533
G01 X-8.27855 Y5.68026
G01 X-8.29214 Y5.61820
G01 X-8.31543 Y5.50107
G01 X-8.32138 Y5.46805
G01 X-8.32591 Y5.43601
G01 X-8.32902 Y5.40492
G01 X-8.33071 Y5.37471
G01 X-8.33192 Y5.33859
G01 X-8.33297 Y5.31835
G01 X-8.34070 Y5.20953
G01 X-8.34254 Y5.19009
G01 X-8.34531 Y5.17091
G01 X-8.36748 Y5.04143
G01 X-8.37048 Y5.01731
G01 X-8.37112 Y4.99330
G01 X-8.36944 Y4.96926
G01 X-8.36541 Y4.94506
G01 X-8.36280 Y4.93295
G01 X-8.35988 Y4.91730
G01 X-8.34335 Y4.81367
G01 X-8.34068 Y4.79369
G01 X-8.33898 Y4.77343
G01 X-8.33241 Y4.66403
G01 X-8.32912 Y4.60421
G01 X-8.32489 Y4.55626
G01 X-8.31736 Y4.50608
G01 X-8.29717 Y4.40890
G01 X-8.27162 Y4.29253
G01 X-8.25377 Y4.22395
G01 X-8.23268 Y4.15201
G01 X-8.12021 Y3.78755
G01 X-8.09908 Y3.71778
G01 X-8.00106 Y3.38817
G01 X-7.96832 Y3.27574
G01 X-7.93561 Y3.15868
G01 X-7.90287 Y3.03681
G01 X-7.87015 Y2.91029
G01 X-7.79673 Y2.62110
G01 X-7.79691 Y2.62100
G01 X-7.79673 Y2.62110
G01 X-7.74506 Y2.57173
G01 X-7.69116 Y2.52140
G01 X-7.63605 Y2.47105
G01 X-7.58127 Y2.42210
G01 X-7.58141 Y2.42170
G01 X-7.58127 Y2.42210
G01 X-7.51274 Y2.42682
G01 X-7.44215 Y2.43274
G01 X-7.37155 Y2.43970
G01 X-7.30547 Y2.44720
G01 X-7.31569 Y2.45610
G01 X-7.37261 Y2.44964
G01 X-7.44306 Y2.44269
G01 X-7.51351 Y2.43679
G01 X-7.57775 Y2.43237
G01 X-7.57803 Y2.43155
G01 X-7.57775 Y2.43237
G01 X-7.62934 Y2.47847
G01 X-7.68438 Y2.52874
G01 X-7.73820 Y2.57900
G01 X-7.78775 Y2.62634
G01 X-7.78810 Y2.62614
G01 X-7.78775 Y2.62634
G01 X-7.86048 Y2.91282
G01 X-7.89319 Y3.03931
G01 X-7.92598 Y3.16137
G01 X-7.95873 Y3.27859
G01 X-7.99145 Y3.39094
G01 X-8.08951 Y3.72067
G01 X-8.11067 Y3.79053
G01 X-8.22310 Y4.15489
G01 X-8.24413 Y4.22662
G01 X-8.26189 Y4.29486
G01 X-8.28740 Y4.41101
G01 X-8.30752 Y4.50783
G01 X-8.31496 Y4.55744
G01 X-8.31914 Y4.60493
G01 X-8.32243 Y4.66465
G01 X-8.32900 Y4.77403
G01 X-8.33072 Y4.79453
G01 X-8.33347 Y4.81524
G01 X-8.35000 Y4.91888
G01 X-8.35305 Y4.93519
G01 X-8.35558 Y4.94693
G01 X-8.35951 Y4.97043
G01 X-8.36113 Y4.99352
G01 X-8.36050 Y5.01656
G01 X-8.35758 Y5.03996
G01 X-8.33546 Y5.16923
G01 X-8.33259 Y5.18915
G01 X-8.33072 Y5.20883
G01 X-8.32300 Y5.31755
G01 X-8.32192 Y5.33835
G01 X-8.32072 Y5.37427
G01 X-8.31904 Y5.40414
G01 X-8.31598 Y5.43482
G01 X-8.31151 Y5.46646
G01 X-8.30561 Y5.49921
G01 X-8.28235 Y5.61616
G01 X-8.26882 Y5.67794
G01 X-8.25221 Y5.74266
G01 X-8.19733 Y5.92741
G01 X-8.17301 Y6.00759
G01 X-8.17336 Y6.00781
G01 X-8.17301 Y6.00759
G01 X-8.11520 Y6.05746
G01 X-8.07247 Y6.09526
G01 X-8.06582 Y6.10130
G01 X-8.01742 Y6.14635
G01 X-7.96849 Y6.19432
G01 X-7.92009 Y6.24414
G01 X-7.87134 Y6.29672
G01 X-7.58573 Y6.61212
G01 X-7.43942 Y6.77301
G04 P0 ( dwell for no time -- G64 should not smooth over this point )
G00 Z0.08000 ( retract )

G00 X-8.76178 Y5.30723 ( rapid move to begin. )
G01 F3.00000
( Mill infeed pass 1/1 )
G01 Z-0.00800
G04 P0 ( dwell for no time -- G64 should not smooth over this point )
G01 F6.00000
G01 X-8.76178 Y5.30723
G01 X-8.81244 Y5.34188
G01 X-8.88274 Y5.37190
G01 X-8.95755 Y5.38763
G01 X-9.03399 Y5.38847
G01 X-9.10912 Y5.37437
G01 X-9.18006 Y5.34589
G01 X-9.24408 Y5.30412
G01 X-9.28795 Y5.26120
G01 X-9.02070 Y5.03695
G01 X-9.01715 Y5.03885
G01 X-9.01534 Y5.03960
G01 X-9.00924 Y5.04144
G01 X-9.00732 Y5.04183
G01 X-9.00098 Y5.04245
G01 X-8.99902 Y5.04245
G01 X-8.99268 Y5.04183
G01 X-8.99076 Y5.04144
G01 X-8.98601 Y5.04000
G01 X-8.76178 Y5.30723
G01 X-8.77654 Y5.30521
G01 X-8.81727 Y5.33307
G01 X-8.88576 Y5.36232
G01 X-8.95864 Y5.37765
G01 X-9.03311 Y5.37846
G01 X-9.10631 Y5.36473
G01 X-9.17542 Y5.33698
G01 X-9.23779 Y5.29628
G01 X-9.27307 Y5.26176
G01 X-9.01922 Y5.04876
G01 X-9.01215 Y5.05101
G01 X-9.00830 Y5.05178
G01 X-9.00196 Y5.05240
G01 X-8.99804 Y5.05240
G01 X-8.99170 Y5.05178
G01 X-8.98955 Y5.05135
G01 X-8.77654 Y5.30521
G01 X-8.79129 Y5.30318
G01 X-8.82210 Y5.32426
G01 X-8.88878 Y5.35274
G01 X-8.95974 Y5.36766
G01 X-9.03223 Y5.36845
G01 X-9.10350 Y5.35508
G01 X-9.17078 Y5.32806
G01 X-9.23150 Y5.28844
G01 X-9.25819 Y5.26233
G01 X-9.01703 Y5.05998
G01 X-9.01505 Y5.06058
G01 X-9.00928 Y5.06173
G01 X-9.00294 Y5.06236
G01 X-8.99706 Y5.06236
G01 X-8.99365 Y5.06202
G01 X-8.79129 Y5.30318
G01 X-8.80604 Y5.30116
G01 X-8.99807 Y5.07231
G01 X-9.00392 Y5.07231
G01 X-9.01026 Y5.07168
G01 X-9.01443 Y5.07085
G01 X-9.24331 Y5.26290
G01 X-9.22521 Y5.28061
G01 X-9.16614 Y5.31915
G01 X-9.10068 Y5.34543
G01 X-9.03136 Y5.35844
G01 X-8.96083 Y5.35767
G01 X-8.89180 Y5.34315
G01 X-8.82694 Y5.31545
G01 X-8.80604 Y5.30116
G04 P0 ( dwell for no time -- G64 should not smooth over this point )
G00 Z0.08000 ( retract )

G00 X-8.61153 Y5.03399 ( rapid move to begin. )
G01 F3.00000
( Mill infeed pass 1/1 )
G01 Z-0.00800
G04 P0 ( dwell for no time -- G64 should not smooth over this point )
G01 F6.00000
G01 X-8.61153 Y5.03399
G01 X-8.61237 Y4.95755
G01 X-8.62810 Y4.88274
G01 X-8.65812 Y4.81244
G01 X-8.69277 Y4.76178
G01 X-8.95999 Y4.98601
G01 X-8.95856 Y4.99076
G01 X-8.95817 Y4.99268
G01 X-8.95755 Y4.99902
G01 X-8.95755 Y5.00098
G01 X-8.95817 Y5.00732
G01 X-8.95856 Y5.00924
G01 X-8.96040 Y5.01534
G01 X-8.96115 Y5.01715
G01 X-8.96305 Y5.02070
G01 X-8.73880 Y5.28795
G01 X-8.69588 Y5.24408
G01 X-8.65411 Y5.18006
G01 X-8.62563 Y5.10912
G01 X-8.61153 Y5.03399
G01 X-8.62154 Y5.03311
G01 X-8.62235 Y4.95864
G01 X-8.63768 Y4.88576
G01 X-8.66693 Y4.81727
G01 X-8.69479 Y4.77654
G01 X-8.94865 Y4.98955
G01 X-8.94822 Y4.99170
G01 X-8.94760 Y4.99804
G01 X-8.94760 Y5.00196
G01 X-8.94822 Y5.00830
G01 X-8.94899 Y5.01215
G01 X-8.95124 Y5.01922
G01 X-8.73823 Y5.27307
G01 X-8.70372 Y5.23779
G01 X-8.66302 Y5.17542
G01 X-8.63527 Y5.10631
G01 X-8.62154 Y5.03311
G01 X-8.63155 Y5.03223
G01 X-8.63234 Y4.95974
G01 X-8.64726 Y4.88878
G01 X-8.67574 Y4.82210
G01 X-8.69682 Y4.79129
G01 X-8.93798 Y4.99365
G01 X-8.93764 Y4.99706
G01 X-8.93764 Y5.00294
G01 X-8.93827 Y5.00928
G01 X-8.93942 Y5.01505
G01 X-8.94002 Y5.01703
G01 X-8.73767 Y5.25819
G01 X-8.71156 Y5.23150
G01 X-8.67193 Y5.17078
G01 X-8.64492 Y5.10350
G01 X-8.63155 Y5.03223
G01 X-8.64156 Y5.03136
G01 X-8.65457 Y5.10068
G01 X-8.68085 Y5.16614
G01 X-8.71939 Y5.22521
G01 X-8.73710 Y5.24331
G01 X-8.92915 Y5.01443
G01 X-8.92832 Y5.01026
G01 X-8.92769 Y5.00392
G01 X-8.92769 Y4.99807
G01 X-8.69884 Y4.80604
G01 X-8.68455 Y4.82694
G01 X-8.65685 Y4.89180
G01 X-8.64233 Y4.96083
G01 X-8.64156 Y5.03136
G04 P0 ( dwell for no time -- G64 should not smooth over this point )
G00 Z0.08000 ( retract )

G00 X-9.03695 Y4.97930 ( rapid move to begin. )
G01 F3.00000
( Mill infeed pass 1/1 )
G01 Z-0.00800
G04 P0 ( dwell for no time -- G64 should not smooth over this point )
G01 F6.00000
G01 X-9.03695 Y4.97930
G01 X-9.03885 Y4.98285
G01 X-9.03960 Y4.98466
G01 X-9.04144 Y4.99076
G01 X-9.04183 Y4.99268
G01 X-9.04245 Y4.99902
G01 X-9.04245 Y5.00098
G01 X-9.04183 Y5.00732
G01 X-9.04144 Y5.00924
G01 X-9.04001 Y5.01399
G01 X-9.30723 Y5.23822
G01 X-9.34188 Y5.18756
G01 X-9.37190 Y5.11726
G01 X-9.38763 Y5.04245
G01 X-9.38847 Y4.96601
G01 X-9.37437 Y4.89088
G01 X-9.34589 Y4.81994
G01 X-9.30412 Y4.75592
G01 X-9.26120 Y4.71205
G01 X-9.03695 Y4.97930
G01 X-9.04876 Y4.98078
G01 X-9.05101 Y4.98785
G01 X-9.05178 Y4.99170
G01 X-9.05240 Y4.99804
G01 X-9.05240 Y5.00196
G01 X-9.05178 Y5.00830
G01 X-9.05135 Y5.01045
G01 X-9.30521 Y5.22346
G01 X-9.33307 Y5.18273
G01 X-9.36232 Y5.11424
G01 X-9.37764 Y5.04136
G01 X-9.37846 Y4.96689
G01 X-9.36473 Y4.89369
G01 X-9.33698 Y4.82458
G01 X-9.29628 Y4.76221
G01 X-9.26177 Y4.72693
G01 X-9.04876 Y4.98078
G01 X-9.05998 Y4.98297
G01 X-9.06058 Y4.98495
G01 X-9.06173 Y4.99072
G01 X-9.06236 Y4.99706
G01 X-9.06236 Y5.00294
G01 X-9.06202 Y5.00635
G01 X-9.30318 Y5.20871
G01 X-9.32426 Y5.17790
G01 X-9.35274 Y5.11122
G01 X-9.36766 Y5.04026
G01 X-9.36845 Y4.96776
G01 X-9.35508 Y4.89650
G01 X-9.32807 Y4.82922
G01 X-9.28844 Y4.76850
G01 X-9.26233 Y4.74181
G01 X-9.05998 Y4.98297
G01 X-9.07085 Y4.98557
G01 X-9.26290 Y4.75669
G01 X-9.28061 Y4.77479
G01 X-9.31915 Y4.83386
G01 X-9.34543 Y4.89931
G01 X-9.35844 Y4.96864
G01 X-9.35767 Y5.03917
G01 X-9.34315 Y5.10820
G01 X-9.31545 Y5.17306
G01 X-9.30116 Y5.19396
G01 X-9.07231 Y5.00193
G01 X-9.07231 Y4.99608
G01 X-9.07168 Y4.98974
G01 X-9.07085 Y4.98557
G04 P0 ( dwell for no time -- G64 should not smooth over this point )
G00 Z0.08000 ( retract )

G00 X-8.75669 Y4.73710 ( rapid move to begin. )
G01 F3.00000
( Mill infeed pass 1/1 )
G01 Z-0.00800
G04 P0 ( dwell for no time -- G64 should not smooth over this point )
G01 F6.00000
G01 X-8.75669 Y4.73710
G01 X-8.98557 Y4.92915
G01 X-8.98974 Y4.92832
G01 X-8.99608 Y4.92769
G01 X-9.00193 Y4.92769
G01 X-9.19396 Y4.69884
G01 X-9.17306 Y4.68455
G01 X-9.10820 Y4.65685
G01 X-9.03917 Y4.64233
G01 X-8.96864 Y4.64156
G01 X-8.89931 Y4.65457
G01 X-8.83386 Y4.68085
G01 X-8.77479 Y4.71939
G01 X-8.75669 Y4.73710
G01 X-8.74181 Y4.73767
G01 X-8.98297 Y4.94002
G01 X-8.98495 Y4.93942
G01 X-8.99072 Y4.93827
G01 X-8.99706 Y4.93764
G01 X-9.00294 Y4.93764
G01 X-9.00635 Y4.93798
G01 X-9.20871 Y4.69682
G01 X-9.17790 Y4.67574
G01 X-9.11122 Y4.64726
G01 X-9.04026 Y4.63234
G01 X-8.96776 Y4.63155
G01 X-8.89650 Y4.64492
G01 X-8.82922 Y4.67193
G01 X-8.76850 Y4.71155
G01 X-8.74181 Y4.73767
G01 X-8.72693 Y4.73823
G01 X-8.98078 Y4.95124
G01 X-8.98785 Y4.94899
G01 X-8.99170 Y4.94822
G01 X-8.99804 Y4.94760
G01 X-9.00196 Y4.94760
G01 X-9.00830 Y4.94822
G01 X-9.01045 Y4.94865
G01 X-9.22346 Y4.69479
G01 X-9.18273 Y4.66693
G01 X-9.11424 Y4.63768
G01 X-9.04136 Y4.62235
G01 X-8.96689 Y4.62154
G01 X-8.89369 Y4.63527
G01 X-8.82458 Y4.66302
G01 X-8.76221 Y4.70372
G01 X-8.72693 Y4.73823
G01 X-8.71205 Y4.73880
G01 X-8.97930 Y4.96305
G01 X-8.98285 Y4.96115
G01 X-8.98466 Y4.96040
G01 X-8.99076 Y4.95855
G01 X-8.99268 Y4.95817
G01 X-8.99902 Y4.95755
G01 X-9.00098 Y4.95755
G01 X-9.00732 Y4.95817
G01 X-9.00924 Y4.95855
G01 X-9.01399 Y4.95999
G01 X-9.23822 Y4.69277
G01 X-9.18756 Y4.65812
G01 X-9.11726 Y4.62810
G01 X-9.04245 Y4.61237
G01 X-8.96601 Y4.61153
G01 X-8.89088 Y4.62563
G01 X-8.81994 Y4.65411
G01 X-8.75592 Y4.69588
G01 X-8.71205 Y4.73880
G04 P0 ( dwell for no time -- G64 should not smooth over this point )
G00 Z0.08000 ( retract )

G00 X-7.82502 Y2.65126 ( rapid move to begin. )
G01 F3.00000
( Mill infeed pass 1/1 )
G01 Z-0.00800
G04 P0 ( dwell for no time -- G64 should not smooth over this point )
G01 F6.00000
G01 X-7.82502 Y2.65126
G01 X-7.88953 Y2.90534
G01 X-7.92222 Y3.03173
G01 X-7.95489 Y3.15337
G01 X-7.98756 Y3.27028
G01 X-8.02024 Y3.38251
G01 X-8.11823 Y3.71201
G01 X-8.13934 Y3.78172
G01 X-8.25180 Y4.14614
G01 X-8.27311 Y4.21884
G01 X-8.29113 Y4.28815
G01 X-8.31673 Y4.40472
G01 X-8.33698 Y4.50216
G01 X-8.34480 Y4.55435
G01 X-8.34909 Y4.60304
G01 X-8.35238 Y4.66287
G01 X-8.35894 Y4.77206
G01 X-8.36058 Y4.79165
G01 X-8.36313 Y4.81070
G01 X-8.37960 Y4.91395
G01 X-8.38242 Y4.92908
G01 X-8.38511 Y4.94165
G01 X-8.38921 Y4.96620
G01 X-8.39109 Y4.99215
G01 X-8.39035 Y5.01954
G01 X-8.38721 Y5.04472
G01 X-8.36506 Y5.17409
G01 X-8.36241 Y5.19235
G01 X-8.36064 Y5.21113
G01 X-8.35294 Y5.31953
G01 X-8.35190 Y5.33949
G01 X-8.35069 Y5.37578
G01 X-8.34893 Y5.40680
G01 X-8.34573 Y5.43871
G01 X-8.34117 Y5.47094
G01 X-8.33506 Y5.50493
G01 X-8.31175 Y5.62215
G01 X-8.29806 Y5.68462
G01 X-8.28120 Y5.75039
G01 X-8.22608 Y5.93598
G01 X-8.20909 Y5.99206
G01 X-8.20077 Y6.00083
G01 X-8.20909 Y5.99206
G01 X-8.30958 Y5.95635
G01 X-8.36211 Y5.93933
G01 X-8.41300 Y5.92429
G01 X-8.47910 Y5.90569
G01 X-8.55978 Y5.88253
G01 X-8.60679 Y5.87002
G01 X-8.61482 Y5.86805
G01 X-8.64717 Y5.86064
G01 X-8.67928 Y5.85427
G01 X-8.72309 Y5.84627
G01 X-8.76819 Y5.83770
G01 X-8.80522 Y5.83154
G01 X-8.81223 Y5.83054
G01 X-8.84272 Y5.82681
G01 X-8.87235 Y5.82435
G01 X-8.89251 Y5.82306
G01 X-8.94102 Y5.81959
G01 X-8.96645 Y5.81821
G01 X-8.99971 Y5.81757
G01 X-9.03332 Y5.81856
G01 X-9.04074 Y5.81896
G01 X-9.11393 Y5.82303
G01 X-9.15049 Y5.82594
G01 X-9.18812 Y5.83079
G01 X-9.21165 Y5.83460
G01 X-9.29697 Y5.84947
G01 X-9.34017 Y5.85771
G01 X-9.38514 Y5.86825
G01 X-9.41428 Y5.87593
G01 X-9.44892 Y5.88549
G01 X-9.44986 Y5.88783
G01 X-9.44892 Y5.88549
G01 X-9.46119 Y5.86515
G01 X-9.47804 Y5.83517
G01 X-9.53098 Y5.73742
G01 X-9.55096 Y5.69833
G01 X-9.56858 Y5.65926
G01 X-9.59980 Y5.58502
G01 X-9.61086 Y5.55931
G01 X-9.62068 Y5.53385
G01 X-9.62422 Y5.52412
G01 X-9.63256 Y5.49981
G01 X-9.63989 Y5.47537
G01 X-9.66324 Y5.39990
G01 X-9.67093 Y5.37272
G01 X-9.67720 Y5.34556
G01 X-9.69718 Y5.24790
G01 X-9.70151 Y5.22377
G01 X-9.70463 Y5.19964
G01 X-9.71478 Y5.10199
G01 X-9.71658 Y5.07936
G01 X-9.71726 Y5.05673
G01 X-9.71779 Y4.95908
G01 X-9.71736 Y4.93653
G01 X-9.71582 Y4.91398
G01 X-9.70674 Y4.81633
G01 X-9.70392 Y4.79244
G01 X-9.69990 Y4.76855
G01 X-9.68103 Y4.67089
G01 X-9.67516 Y4.64415
G01 X-9.66790 Y4.61739
G01 X-9.63885 Y4.51973
G01 X-9.62866 Y4.48837
G01 X-9.61673 Y4.45699
G01 X-9.58655 Y4.38298
G01 X-9.57531 Y4.35488
G01 X-9.56288 Y4.32690
G01 X-9.55833 Y4.31715
G01 X-9.54384 Y4.28754
G01 X-9.52787 Y4.25772
G01 X-9.48967 Y4.18530
G01 X-9.46287 Y4.13751
G01 X-9.43289 Y4.08970
G01 X-9.36832 Y3.99191
G01 X-9.34749 Y3.96124
G01 X-9.32555 Y3.93065
G01 X-9.30244 Y3.90003
G01 X-9.27811 Y3.86934
G01 X-9.19867 Y3.77147
G01 X-9.16507 Y3.73116
G01 X-9.12972 Y3.69091
G01 X-9.09257 Y3.65064
G01 X-9.05356 Y3.61030
G01 X-8.95674 Y3.51241
G01 X-8.90149 Y3.45805
G01 X-8.84337 Y3.40373
G01 X-8.78230 Y3.34940
G01 X-8.71820 Y3.29500
G01 X-8.60019 Y3.19706
G01 X-8.55395 Y3.15923
G01 X-8.50649 Y3.12145
G01 X-8.40753 Y3.04579
G01 X-8.30341 Y2.97013
G01 X-8.19401 Y2.89441
G01 X-8.04917 Y2.79649
G01 X-7.92408 Y2.71384
G01 X-7.82502 Y2.65126
G01 X-7.80916 Y2.62940
G01 X-7.92951 Y2.70545
G01 X-8.05472 Y2.78817
G01 X-8.19965 Y2.88616
G01 X-8.30919 Y2.96197
G01 X-8.41351 Y3.03777
G01 X-8.51264 Y3.11357
G01 X-8.56023 Y3.15145
G01 X-8.60655 Y3.18935
G01 X-8.72463 Y3.28734
G01 X-8.78886 Y3.34185
G01 X-8.85011 Y3.39634
G01 X-8.90842 Y3.45083
G01 X-8.96380 Y3.50533
G01 X-9.06071 Y3.60330
G01 X-9.09984 Y3.64377
G01 X-9.13715 Y3.68422
G01 X-9.17266 Y3.72465
G01 X-9.20640 Y3.76511
G01 X-9.28591 Y3.86308
G01 X-9.31035 Y3.89391
G01 X-9.33360 Y3.92472
G01 X-9.35569 Y3.95552
G01 X-9.37662 Y3.98634
G01 X-9.44130 Y4.08429
G01 X-9.47147 Y4.13241
G01 X-9.49845 Y4.18052
G01 X-9.53672 Y4.25306
G01 X-9.55274 Y4.28298
G01 X-9.56735 Y4.31284
G01 X-9.57198 Y4.32275
G01 X-9.58452 Y4.35099
G01 X-9.59585 Y4.37930
G01 X-9.62604 Y4.45332
G01 X-9.63810 Y4.48504
G01 X-9.64840 Y4.51676
G01 X-9.67752 Y4.61465
G01 X-9.68488 Y4.64177
G01 X-9.69082 Y4.66887
G01 X-9.70974 Y4.76677
G01 X-9.71382 Y4.79103
G01 X-9.71668 Y4.81528
G01 X-9.72578 Y4.91317
G01 X-9.72735 Y4.93609
G01 X-9.72779 Y4.95902
G01 X-9.72726 Y5.05691
G01 X-9.72657 Y5.07991
G01 X-9.72474 Y5.10291
G01 X-9.71456 Y5.20080
G01 X-9.71139 Y5.22529
G01 X-9.70700 Y5.24979
G01 X-9.68697 Y5.34769
G01 X-9.68062 Y5.37521
G01 X-9.67282 Y5.40274
G01 X-9.64948 Y5.47820
G01 X-9.64208 Y5.50287
G01 X-9.63365 Y5.52745
G01 X-9.63005 Y5.53736
G01 X-9.62012 Y5.56309
G01 X-9.60902 Y5.58889
G01 X-9.57775 Y5.66326
G01 X-9.55998 Y5.70266
G01 X-9.53983 Y5.74207
G01 X-9.48679 Y5.84000
G01 X-9.46983 Y5.87018
G01 X-9.45356 Y5.89715
G01 X-9.45403 Y5.89833
G01 X-9.45356 Y5.89715
G01 X-9.41162 Y5.88557
G01 X-9.39031 Y5.87990
G01 X-9.38256 Y5.87791
G01 X-9.33830 Y5.86753
G01 X-9.29498 Y5.85928
G01 X-9.21002 Y5.84447
G01 X-9.18648 Y5.84066
G01 X-9.14970 Y5.83591
G01 X-9.11338 Y5.83301
G01 X-9.03314 Y5.82856
G01 X-8.99990 Y5.82757
G01 X-8.96688 Y5.82820
G01 X-8.94153 Y5.82958
G01 X-8.89321 Y5.83304
G01 X-8.87318 Y5.83432
G01 X-8.84354 Y5.83677
G01 X-8.81345 Y5.84047
G01 X-8.80664 Y5.84144
G01 X-8.76983 Y5.84757
G01 X-8.72494 Y5.85610
G01 X-8.68129 Y5.86407
G01 X-8.64940 Y5.87038
G01 X-8.61727 Y5.87775
G01 X-8.60936 Y5.87969
G01 X-8.56235 Y5.89220
G01 X-8.48185 Y5.91530
G01 X-8.41590 Y5.93386
G01 X-8.36482 Y5.94896
G01 X-8.31251 Y5.96591
G01 X-8.27514 Y5.97930
G01 X-8.19376 Y6.00809
G01 X-8.18959 Y6.01248
G01 X-8.19376 Y6.00809
G01 X-8.21649 Y5.93313
G01 X-8.27151 Y5.74790
G01 X-8.28830 Y5.68248
G01 X-8.30192 Y5.62029
G01 X-8.32525 Y5.50298
G01 X-8.33127 Y5.46954
G01 X-8.33585 Y5.43711
G01 X-8.33898 Y5.40581
G01 X-8.34070 Y5.37522
G01 X-8.34191 Y5.33907
G01 X-8.34295 Y5.31892
G01 X-8.35067 Y5.21030
G01 X-8.35248 Y5.19116
G01 X-8.35518 Y5.17253
G01 X-8.37735 Y5.04302
G01 X-8.38043 Y5.01831
G01 X-8.38112 Y4.99284
G01 X-8.37935 Y4.96785
G01 X-8.37525 Y4.94330
G01 X-8.37262 Y4.93105
G01 X-8.36974 Y4.91566
G01 X-8.35323 Y4.81215
G01 X-8.35064 Y4.79273
G01 X-8.34896 Y4.77278
G01 X-8.34240 Y4.66345
G01 X-8.33910 Y4.60358
G01 X-8.33484 Y4.55523
G01 X-8.32718 Y4.50419
G01 X-8.30694 Y4.40677
G01 X-8.28137 Y4.29029
G01 X-8.26339 Y4.22121
G01 X-8.24225 Y4.14909
G01 X-8.12978 Y3.78464
G01 X-8.10865 Y3.71489
G01 X-8.01065 Y3.38534
G01 X-7.97794 Y3.27303
G01 X-7.94525 Y3.15601
G01 X-7.91255 Y3.03428
G01 X-7.87984 Y2.90782
G01 X-7.80916 Y2.62940
G01 X-7.80415 Y2.62251
G04 P0 ( dwell for no time -- G64 should not smooth over this point )
G00 Z0.08000 ( retract )

G00 X-6.74237 Y2.79387 ( rapid move to begin. )
G01 F3.00000
( Mill infeed pass 1/1 )
G01 Z-0.00800
G04 P0 ( dwell for no time -- G64 should not smooth over this point )
G01 F6.00000
G01 X-6.74237 Y2.79387
G01 X-6.73143 Y2.84381
G01 X-6.43614 Y3.58332
G01 X-6.39797 Y3.68142
G01 X-6.36323 Y3.77606
G01 X-6.33186 Y3.86728
G01 X-6.30389 Y3.95509
G01 X-6.27930 Y4.03948
G01 X-6.25809 Y4.12044
G01 X-6.24026 Y4.19797
G01 X-6.22579 Y4.27221
G01 X-6.17730 Y4.54718
G01 X-6.16701 Y4.59859
G01 X-6.15522 Y4.64523
G01 X-6.14147 Y4.68899
G01 X-6.12591 Y4.72916
G01 X-6.10807 Y4.76658
G01 X-6.09894 Y4.78296
G01 X-6.08903 Y4.79901
G01 X-6.07865 Y4.81415
G01 X-6.06777 Y4.82839
G01 X-6.05641 Y4.84171
G01 X-6.04455 Y4.85410
G01 X-6.04254 Y4.85585
G01 X-6.04025 Y4.85722
G01 X-6.01746 Y4.86812
G01 X-5.99994 Y4.87600
G01 X-5.99045 Y4.88044
G01 X-5.97327 Y4.88960
G01 X-5.96828 Y4.89260
G01 X-5.95353 Y4.90243
G01 X-5.94896 Y4.90584
G01 X-5.93602 Y4.91645
G01 X-5.93183 Y4.92023
G01 X-5.92024 Y4.93184
G01 X-5.91645 Y4.93601
G01 X-5.90583 Y4.94895
G01 X-5.90244 Y4.95354
G01 X-5.89259 Y4.96827
G01 X-5.88961 Y4.97328
G01 X-5.88043 Y4.99045
G01 X-5.87787 Y4.99590
G01 X-5.86938 Y5.01642
G01 X-5.86726 Y5.02237
G01 X-5.85963 Y5.04762
G01 X-5.85797 Y5.05429
G01 X-5.85451 Y5.06976
G01 X-5.85172 Y5.08595
G01 X-5.85061 Y5.09343
G01 X-5.84814 Y5.11372
G01 X-5.84661 Y5.13499
G01 X-5.84620 Y5.14321
G01 X-5.84557 Y5.17082
G01 X-5.84634 Y5.19987
G01 X-5.84748 Y5.22104
G01 X-5.84728 Y5.22451
G01 X-5.76893 Y5.66883
G01 X-5.76291 Y5.70632
G01 X-5.75788 Y5.74483
G01 X-5.53727 Y7.64471
G01 X-5.52464 Y7.65444
G01 X-5.52621 Y7.65323
G01 X-5.61985 Y7.66654
G01 X-5.71826 Y7.67837
G01 X-5.81667 Y7.68806
G01 X-5.91508 Y7.69560
G01 X-6.01349 Y7.70099
G01 X-6.11190 Y7.70423
G01 X-6.21031 Y7.70533
G01 X-6.30872 Y7.70427
G01 X-6.40712 Y7.70107
G01 X-6.50553 Y7.69573
G01 X-6.60394 Y7.68823
G01 X-6.70235 Y7.67859
G01 X-6.80076 Y7.66680
G01 X-6.89917 Y7.65286
G01 X-6.99758 Y7.63678
G01 X-7.09298 Y7.61910
G01 X-7.09358 Y7.61976
G01 X-7.09298 Y7.61910
G01 X-7.13923 Y7.45209
G01 X-7.17705 Y7.32089
G01 X-7.17725 Y7.32089
G01 X-7.17705 Y7.32089
G01 X-7.13252 Y7.16539
G01 X-7.09037 Y7.01444
G01 X-7.05099 Y6.86943
G01 X-7.01441 Y6.73041
G01 X-6.98060 Y6.59736
G01 X-6.94960 Y6.47033
G01 X-6.92136 Y6.34921
G01 X-6.89591 Y6.23405
G01 X-6.87322 Y6.12479
G01 X-6.85334 Y6.02155
G01 X-6.83624 Y5.92436
G01 X-6.82192 Y5.83305
G01 X-6.81038 Y5.74769
G01 X-6.80163 Y5.66829
G01 X-6.79565 Y5.59466
G01 X-6.79247 Y5.52731
G01 X-6.78499 Y5.25710
G01 X-6.78393 Y5.23999
G01 X-6.78171 Y5.22317
G01 X-6.77832 Y5.20656
G01 X-6.77374 Y5.19007
G01 X-6.66338 Y4.84005
G01 X-6.65860 Y4.82350
G01 X-6.65453 Y4.80635
G01 X-6.65120 Y4.78862
G01 X-6.64869 Y4.77066
G01 X-6.64604 Y4.73391
G01 X-6.64648 Y4.69595
G01 X-6.74450 Y2.78410
G01 X-6.74997 Y2.75913
G01 X-6.74450 Y2.78410
G01 X-6.42683 Y3.57965
G01 X-6.38862 Y3.67789
G01 X-6.35380 Y3.77271
G01 X-6.32237 Y3.86414
G01 X-6.29432 Y3.95217
G01 X-6.26966 Y4.03681
G01 X-6.24838 Y4.11805
G01 X-6.23048 Y4.19590
G01 X-6.21595 Y4.27038
G01 X-6.16745 Y4.54544
G01 X-6.15737 Y4.59589
G01 X-6.14544 Y4.64305
G01 X-6.13193 Y4.68599
G01 X-6.11658 Y4.72554
G01 X-6.09933 Y4.76171
G01 X-6.09009 Y4.77829
G01 X-6.08053 Y4.79375
G01 X-6.07041 Y4.80849
G01 X-6.05983 Y4.82231
G01 X-6.04881 Y4.83521
G01 X-6.03733 Y4.84718
G01 X-6.03590 Y4.84822
G01 X-6.01994 Y4.85593
G01 X-5.98596 Y4.87150
G01 X-5.96835 Y4.88090
G01 X-5.96293 Y4.88415
G01 X-5.94778 Y4.89426
G01 X-5.94280 Y4.89795
G01 X-5.92948 Y4.90888
G01 X-5.92494 Y4.91299
G01 X-5.91300 Y4.92494
G01 X-5.90888 Y4.92948
G01 X-5.89795 Y4.94280
G01 X-5.89426 Y4.94778
G01 X-5.88415 Y4.96293
G01 X-5.88090 Y4.96835
G01 X-5.87150 Y4.98595
G01 X-5.86872 Y4.99185
G01 X-5.86005 Y5.01283
G01 X-5.85776 Y5.01924
G01 X-5.84999 Y5.04496
G01 X-5.84823 Y5.05198
G01 X-5.84470 Y5.06782
G01 X-5.84185 Y5.08436
G01 X-5.84070 Y5.09209
G01 X-5.83819 Y5.11275
G01 X-5.83662 Y5.13438
G01 X-5.83621 Y5.14285
G01 X-5.83557 Y5.17083
G01 X-5.83635 Y5.20024
G01 X-5.83750 Y5.22162
G01 X-5.83743 Y5.22277
G01 X-5.75907 Y5.66716
G01 X-5.75301 Y5.70488
G01 X-5.74796 Y5.74360
G01 X-5.52621 Y7.65323
G01 X-5.53727 Y7.64471
G01 X-5.62115 Y7.65662
G01 X-5.71935 Y7.66843
G01 X-5.81754 Y7.67810
G01 X-5.91574 Y7.68562
G01 X-6.01393 Y7.69100
G01 X-6.11212 Y7.69423
G01 X-6.21031 Y7.69533
G01 X-6.30850 Y7.69428
G01 X-6.40669 Y7.69108
G01 X-6.50488 Y7.68575
G01 X-6.60307 Y7.67827
G01 X-6.70127 Y7.66865
G01 X-6.79946 Y7.65688
G01 X-6.89766 Y7.64298
G01 X-6.99587 Y7.62692
G01 X-7.08501 Y7.61041
G01 X-7.08622 Y7.61173
G01 X-7.08501 Y7.61041
G01 X-7.12960 Y7.44942
G01 X-7.16664 Y7.32088
G01 X-7.16705 Y7.32088
G01 X-7.16664 Y7.32088
G01 X-7.12290 Y7.16814
G01 X-7.08071 Y7.01703
G01 X-7.04135 Y6.87209
G01 X-7.00471 Y6.73287
G01 X-6.97089 Y6.59973
G01 X-6.93988 Y6.47270
G01 X-6.91162 Y6.35148
G01 X-6.88610 Y6.23602
G01 X-6.86345 Y6.12690
G01 X-6.84353 Y6.02353
G01 X-6.82635 Y5.92582
G01 X-6.81204 Y5.83460
G01 X-6.80047 Y5.74903
G01 X-6.79169 Y5.66938
G01 X-6.78569 Y5.59564
G01 X-6.78249 Y5.52778
G01 X-6.77500 Y5.25755
G01 X-6.77397 Y5.24095
G01 X-6.77184 Y5.22483
G01 X-6.76859 Y5.20890
G01 X-6.76415 Y5.19292
G01 X-6.65377 Y4.84282
G01 X-6.64899 Y4.82627
G01 X-6.64465 Y4.80797
G01 X-6.64130 Y4.79001
G01 X-6.63872 Y4.77139
G01 X-6.63604 Y4.73380
G01 X-6.63650 Y4.69544
G01 X-6.73143 Y2.84381
G04 P0 ( dwell for no time -- G64 should not smooth over this point )
G00 Z0.08000 ( retract )

G00 X-4.17040 Y2.47039 ( rapid move to begin. )
G01 F3.00000
( Mill infeed pass 1/1 )
G01 Z-0.00800
G04 P0 ( dwell for no time -- G64 should not smooth over this point )
G01 F6.00000
G01 X-4.17040 Y2.47039
G01 X-4.24081 Y2.44846
G01 X-4.32484 Y2.42389
G01 X-4.40885 Y2.40093
G01 X-4.49287 Y2.37958
G01 X-4.57688 Y2.35984
G01 X-4.66089 Y2.34171
G01 X-4.74490 Y2.32519
G01 X-4.82890 Y2.31028
G01 X-4.91291 Y2.29697
G01 X-4.99690 Y2.28528
G01 X-5.08090 Y2.27519
G01 X-5.16490 Y2.26672
G01 X-5.24889 Y2.25984
G01 X-5.33288 Y2.25458
G01 X-5.41688 Y2.25093
G01 X-5.50087 Y2.24889
G01 X-5.58486 Y2.24845
G01 X-5.66885 Y2.24962
G01 X-5.75284 Y2.25240
G01 X-5.83683 Y2.25679
G01 X-5.92082 Y2.26278
G01 X-6.00482 Y2.27039
G01 X-6.08881 Y2.27960
G01 X-6.17281 Y2.29042
G01 X-6.25681 Y2.30285
G01 X-6.34081 Y2.31689
G01 X-6.42482 Y2.33253
G01 X-6.50883 Y2.34979
G01 X-6.59284 Y2.36865
G01 X-6.67685 Y2.38913
G01 X-6.76087 Y2.41121
G01 X-6.83042 Y2.43083
G01 X-6.83412 Y2.42878
G01 X-6.83042 Y2.43083
G01 X-6.73686 Y2.74934
G01 X-6.40820 Y3.57238
G01 X-6.36986 Y3.67095
G01 X-6.33501 Y3.76586
G01 X-6.30333 Y3.85801
G01 X-6.27514 Y3.94652
G01 X-6.25044 Y4.03128
G01 X-6.22890 Y4.11350
G01 X-6.21097 Y4.19150
G01 X-6.19631 Y4.26660
G01 X-6.14779 Y4.54180
G01 X-6.13783 Y4.59160
G01 X-6.12624 Y4.63746
G01 X-6.11300 Y4.67952
G01 X-6.09814 Y4.71778
G01 X-6.08163 Y4.75239
G01 X-6.07290 Y4.76806
G01 X-6.06371 Y4.78292
G01 X-6.05414 Y4.79684
G01 X-6.04420 Y4.80983
G01 X-6.03389 Y4.82188
G01 X-6.02477 Y4.83139
G01 X-6.02487 Y4.83153
G01 X-6.02477 Y4.83139
G01 X-6.00487 Y4.84089
G01 X-5.98744 Y4.84873
G01 X-5.97665 Y4.85381
G01 X-5.95818 Y4.86368
G01 X-5.95193 Y4.86745
G01 X-5.93596 Y4.87812
G01 X-5.93021 Y4.88241
G01 X-5.91670 Y4.89349
G01 X-5.91089 Y4.89877
G01 X-5.89877 Y4.91089
G01 X-5.89398 Y4.91614
G01 X-5.88241 Y4.93021
G01 X-5.87770 Y4.93657
G01 X-5.86745 Y4.95193
G01 X-5.86368 Y4.95818
G01 X-5.85381 Y4.97665
G01 X-5.85059 Y4.98342
G01 X-5.84152 Y5.00531
G01 X-5.83889 Y5.01262
G01 X-5.83062 Y5.03998
G01 X-5.82873 Y5.04756
G01 X-5.82501 Y5.06431
G01 X-5.82213 Y5.08103
G01 X-5.82091 Y5.08922
G01 X-5.81825 Y5.11119
G01 X-5.81667 Y5.13300
G01 X-5.81623 Y5.14193
G01 X-5.81558 Y5.17050
G01 X-5.81636 Y5.20083
G01 X-5.81749 Y5.22102
G01 X-5.73937 Y5.66373
G01 X-5.73325 Y5.70178
G01 X-5.72812 Y5.74105
G01 X-5.50728 Y7.64287
G01 X-5.50946 Y7.64525
G01 X-5.50728 Y7.64287
G01 X-5.44427 Y7.64463
G01 X-5.36840 Y7.64550
G01 X-5.29253 Y7.64512
G01 X-5.21666 Y7.64349
G01 X-5.14079 Y7.64060
G01 X-5.06491 Y7.63647
G01 X-4.98904 Y7.63108
G01 X-4.91316 Y7.62444
G01 X-4.83729 Y7.61655
G01 X-4.76141 Y7.60741
G01 X-4.68553 Y7.59701
G01 X-4.60965 Y7.58536
G01 X-4.53377 Y7.57246
G01 X-4.45789 Y7.55831
G01 X-4.38200 Y7.54291
G01 X-4.32013 Y7.52933
G01 X-4.31689 Y7.53148
G01 X-4.32013 Y7.52933
G01 X-4.56981 Y6.15473
G01 X-4.57998 Y6.09620
G01 X-4.58898 Y6.03913
G01 X-4.59690 Y5.98294
G01 X-4.60373 Y5.92758
G01 X-4.60937 Y5.87386
G01 X-4.61396 Y5.82068
G01 X-4.61737 Y5.76919
G01 X-4.61969 Y5.71851
G01 X-4.61962 Y5.71621
G01 X-4.61019 Y5.62914
G01 X-4.60320 Y5.55169
G01 X-4.59948 Y5.50001
G01 X-4.58761 Y5.34543
G01 X-4.57852 Y5.23569
G01 X-4.56908 Y5.13049
G01 X-4.56027 Y5.04004
G01 X-4.55075 Y4.94945
G01 X-4.53967 Y4.85082
G01 X-4.52655 Y4.74076
G01 X-4.52189 Y4.70337
G01 X-4.51804 Y4.66924
G01 X-4.51499 Y4.63491
G01 X-4.51499 Y4.34429
G01 X-4.51969 Y4.28437
G01 X-4.53041 Y4.16582
G01 X-4.53045 Y4.16373
G01 X-4.52787 Y4.11238
G01 X-4.52431 Y4.05978
G01 X-4.51975 Y4.00622
G01 X-4.51418 Y3.95145
G01 X-4.50766 Y3.89595
G01 X-4.50018 Y3.83970
G01 X-4.49169 Y3.78225
G01 X-4.48221 Y3.72382
G01 X-4.46026 Y3.60378
G01 X-4.43443 Y3.48014
G01 X-4.40468 Y3.35260
G01 X-4.37104 Y3.22130
G01 X-4.17040 Y2.47039
G01 X-4.15827 Y2.46370
G01 X-4.36137 Y3.22388
G01 X-4.39499 Y3.35508
G01 X-4.42469 Y3.48241
G01 X-4.45047 Y3.60583
G01 X-4.47234 Y3.72542
G01 X-4.48179 Y3.78371
G01 X-4.49026 Y3.84094
G01 X-4.49775 Y3.89735
G01 X-4.50425 Y3.95262
G01 X-4.50979 Y4.00707
G01 X-4.51433 Y4.06046
G01 X-4.51789 Y4.11288
G01 X-4.52046 Y4.16423
G01 X-4.50973 Y4.28353
G01 X-4.50500 Y4.34390
G01 X-4.50499 Y4.63535
G01 X-4.50809 Y4.67024
G01 X-4.51196 Y4.70455
G01 X-4.51662 Y4.74195
G01 X-4.52973 Y4.85197
G01 X-4.54082 Y4.95058
G01 X-4.55032 Y5.04105
G01 X-4.55912 Y5.13142
G01 X-4.56856 Y5.23652
G01 X-4.57765 Y5.34625
G01 X-4.58951 Y5.50075
G01 X-4.59323 Y5.55249
G01 X-4.60024 Y5.63013
G01 X-4.60970 Y5.71805
G01 X-4.60740 Y5.76843
G01 X-4.60398 Y5.82002
G01 X-4.59943 Y5.87281
G01 X-4.59377 Y5.92662
G01 X-4.58701 Y5.98146
G01 X-4.57910 Y6.03758
G01 X-4.57011 Y6.09464
G01 X-4.55998 Y6.15290
G01 X-4.30856 Y7.53703
G01 X-4.30694 Y7.53810
G01 X-4.30856 Y7.53703
G01 X-4.37994 Y7.55269
G01 X-4.45598 Y7.56813
G01 X-4.53202 Y7.58231
G01 X-4.60806 Y7.59523
G01 X-4.68410 Y7.60691
G01 X-4.76014 Y7.61732
G01 X-4.83617 Y7.62649
G01 X-4.91221 Y7.63439
G01 X-4.98825 Y7.64105
G01 X-5.06429 Y7.64645
G01 X-5.14032 Y7.65059
G01 X-5.21636 Y7.65348
G01 X-5.29240 Y7.65512
G01 X-5.36843 Y7.65550
G01 X-5.44447 Y7.65463
G01 X-5.51622 Y7.65262
G01 X-5.51731 Y7.65381
G01 X-5.51622 Y7.65262
G01 X-5.73803 Y5.74242
G01 X-5.74313 Y5.70337
G01 X-5.74920 Y5.66554
G01 X-5.82751 Y5.22161
G01 X-5.82635 Y5.20056
G01 X-5.82557 Y5.17097
G01 X-5.82621 Y5.14255
G01 X-5.82665 Y5.13372
G01 X-5.82825 Y5.11166
G01 X-5.83078 Y5.09082
G01 X-5.83197 Y5.08284
G01 X-5.83491 Y5.06576
G01 X-5.83849 Y5.04974
G01 X-5.84032 Y5.04241
G01 X-5.84823 Y5.01622
G01 X-5.85068 Y5.00935
G01 X-5.85952 Y4.98792
G01 X-5.86263 Y4.98136
G01 X-5.87226 Y4.96332
G01 X-5.87577 Y4.95748
G01 X-5.88601 Y4.94212
G01 X-5.89015 Y4.93656
G01 X-5.90123 Y4.92305
G01 X-5.90567 Y4.91813
G01 X-5.91796 Y4.90584
G01 X-5.92286 Y4.90139
G01 X-5.93656 Y4.89015
G01 X-5.94212 Y4.88601
G01 X-5.95768 Y4.87564
G01 X-5.96353 Y4.87214
G01 X-5.98157 Y4.86252
G01 X-5.99167 Y4.85779
G01 X-6.00904 Y4.84998
G01 X-6.03079 Y4.83968
G01 X-6.04130 Y4.82860
G01 X-6.05197 Y4.81612
G01 X-6.06224 Y4.80272
G01 X-6.07209 Y4.78839
G01 X-6.08152 Y4.77313
G01 X-6.09052 Y4.75698
G01 X-6.10733 Y4.72175
G01 X-6.12244 Y4.68283
G01 X-6.13586 Y4.64019
G01 X-6.14759 Y4.59381
G01 X-6.15761 Y4.54365
G01 X-6.20613 Y4.26851
G01 X-6.22071 Y4.19374
G01 X-6.23865 Y4.11574
G01 X-6.26004 Y4.03408
G01 X-6.28474 Y3.94931
G01 X-6.31286 Y3.86105
G01 X-6.34440 Y3.76931
G01 X-6.37928 Y3.67430
G01 X-6.41752 Y3.57600
G01 X-6.74631 Y2.75261
G01 X-6.84287 Y2.42394
G01 X-6.84472 Y2.42292
G01 X-6.84287 Y2.42394
G01 X-6.76350 Y2.40156
G01 X-6.67931 Y2.37943
G01 X-6.59512 Y2.35892
G01 X-6.51093 Y2.34001
G01 X-6.42674 Y2.32272
G01 X-6.34255 Y2.30704
G01 X-6.25837 Y2.29297
G01 X-6.17418 Y2.28051
G01 X-6.09000 Y2.26967
G01 X-6.00581 Y2.26044
G01 X-5.92163 Y2.25282
G01 X-5.83745 Y2.24681
G01 X-5.75326 Y2.24241
G01 X-5.66908 Y2.23962
G01 X-5.58490 Y2.23845
G01 X-5.50072 Y2.23889
G01 X-5.41654 Y2.24094
G01 X-5.33235 Y2.24460
G01 X-5.24817 Y2.24987
G01 X-5.16399 Y2.25676
G01 X-5.07980 Y2.26525
G01 X-4.99562 Y2.27536
G01 X-4.91143 Y2.28708
G01 X-4.82725 Y2.30042
G01 X-4.74306 Y2.31536
G01 X-4.65887 Y2.33192
G01 X-4.57469 Y2.35009
G01 X-4.49050 Y2.36987
G01 X-4.40630 Y2.39126
G01 X-4.32211 Y2.41426
G01 X-4.23792 Y2.43888
G01 X-4.15827 Y2.46370
G01 X-4.15658 Y2.46277

G04 P0 ( dwell for no time -- G64 should not smooth over this point )
G00 Z1.000000 ( retract )

M5 ( Spindle off. )
G04 P1.000000
M9 ( Coolant off. )
M2 ( Program end. )

