( pcb2gcode 2.0.0 )
( Software-independent Gcode )
( This file uses bit sizes: [0.02000in] )

G94 ( Inches per minute feed rate. )
G20 ( Units == INCHES. )

G90 ( Absolute coordinates. )
G00 S30000 ( RPM spindle speed. )
G64 P0.00040 ( set maximum deviation from commanded toolpath )
G01 F6.00000 ( Feedrate. )


G00 Z1.00000 (Retract to tool change height)
T0
M5      (Spindle stop.)
G04 P1.00000 (Wait for spindle to stop)
(MSG, Change tool bit to mill diameter 0.02000in)
M6      (Tool change.)
M0      (Temporary machine stop.)
M3 ( Spindle on clockwise. )
G04 P1.00000 (Wait for spindle to get up to speed)
G04 P0 ( dwell for no time -- G64 should not smooth over this point )
G00 Z0.08000 ( retract )

G00 X0.10250 Y-0.10250 ( rapid move to begin. )
G01 F3.00000
G01 Z-0.00800
G04 P0 ( dwell for no time -- G64 should not smooth over this point )
G01 F6.00000
G01 X0.10250 Y-0.10250
G01 X0.10250 Y10.10250
G01 X-10.10250 Y10.10250
G01 X-10.10250 Y-0.10250
G01 X0.10250 Y-0.10250
G01 X0.09250 Y-0.09250
G01 X0.09250 Y10.09250
G01 X-10.09250 Y10.09250
G01 X-10.09250 Y-0.09250
G01 X0.09250 Y-0.09250
G04 P0 ( dwell for no time -- G64 should not smooth over this point )
G00 Z0.08000 ( retract )

G00 X-1.22554 Y3.80842 ( rapid move to begin. )
G01 F3.00000
G01 Z-0.00800
G04 P0 ( dwell for no time -- G64 should not smooth over this point )
G01 F6.00000
G01 X-1.22554 Y3.80842
G01 X-1.59474 Y4.12087
G01 X-1.63993 Y4.15839
G01 X-1.68411 Y4.19362
G01 X-1.83932 Y4.31475
G01 X-1.87085 Y4.33860
G01 X-1.90202 Y4.36067
G01 X-1.98222 Y4.41550
G01 X-2.00794 Y4.43232
G01 X-2.03366 Y4.44762
G01 X-2.16020 Y4.51845
G01 X-2.18238 Y4.53285
G01 X-2.22650 Y4.56318
G01 X-2.24575 Y4.57715
G01 X-2.26504 Y4.59275
G01 X-2.30491 Y4.62679
G01 X-2.32265 Y4.64279
G01 X-2.33896 Y4.65911
G01 X-2.37495 Y4.69703
G01 X-2.39110 Y4.71500
G01 X-2.40586 Y4.73324
G01 X-2.43795 Y4.77506
G01 X-2.45311 Y4.79596
G01 X-2.46685 Y4.81715
G01 X-2.49493 Y4.86298
G01 X-2.50907 Y4.88749
G01 X-2.52246 Y4.91377
G01 X-2.54633 Y4.96381
G01 X-2.56000 Y4.99458
G01 X-2.57259 Y5.02742
G01 X-2.59192 Y5.08200
G01 X-2.60509 Y5.12275
G01 X-2.61613 Y5.16413
G01 X-2.63782 Y5.25691
G01 X-2.65019 Y5.36577
G01 X-2.68691 Y5.60262
G01 X-2.75688 Y5.97416
G01 X-2.77958 Y6.08723
G01 X-3.00622 Y7.15968
G01 X-3.07681 Y7.48429
G01 X-3.13391 Y7.48318
G01 X-3.20321 Y7.48085
G01 X-3.27248 Y7.47755
G01 X-3.32895 Y7.47407
G01 X-3.38164 Y6.84899
G01 X-3.45027 Y6.05176
G01 X-3.48022 Y5.71564
G01 X-3.48500 Y5.65520
G01 X-3.48500 Y5.36485
G01 X-3.48193 Y5.33070
G01 X-3.46159 Y5.16010
G01 X-3.44960 Y5.05391
G01 X-3.43005 Y4.86039
G01 X-3.41993 Y4.74632
G01 X-3.40989 Y4.62315
G01 X-3.39665 Y4.44747
G01 X-3.39661 Y4.37626
G01 X-3.39804 Y4.29892
G01 X-3.40228 Y4.21955
G01 X-3.40941 Y4.13643
G01 X-3.41934 Y4.05101
G01 X-3.43204 Y3.96318
G01 X-3.44763 Y3.87214
G01 X-3.46604 Y3.77831
G01 X-3.48734 Y3.68137
G01 X-3.51133 Y3.58225
G01 X-3.53822 Y3.48002
G01 X-3.56792 Y3.37499
G01 X-3.60053 Y3.26693
G01 X-3.63587 Y3.15630
G01 X-3.67405 Y3.04286
G01 X-3.71497 Y2.92681
G01 X-3.75878 Y2.80774
G01 X-3.88809 Y2.46330
G01 X-3.79307 Y2.42876
G01 X-3.68398 Y2.39192
G01 X-3.57488 Y2.35789
G01 X-3.46582 Y2.32669
G01 X-3.35673 Y2.29829
G01 X-3.24765 Y2.27271
G01 X-3.13859 Y2.24994
G01 X-3.02953 Y2.22999
G01 X-2.92049 Y2.21285
G01 X-2.81143 Y2.19853
G01 X-2.70240 Y2.18702
G01 X-2.59334 Y2.17832
G01 X-2.48430 Y2.17243
G01 X-2.37527 Y2.16935
G01 X-2.26624 Y2.16909
G01 X-2.16340 Y2.17150
G01 X-2.10069 Y2.24012
G01 X-2.03614 Y2.31333
G01 X-1.97395 Y2.38655
G01 X-1.91413 Y2.45975
G01 X-1.85666 Y2.53297
G01 X-1.80157 Y2.60616
G01 X-1.74886 Y2.67933
G01 X-1.69849 Y2.75251
G01 X-1.65052 Y2.82564
G01 X-1.60489 Y2.89879
G01 X-1.56164 Y2.97192
G01 X-1.52076 Y3.04501
G01 X-1.48223 Y3.11812
G01 X-1.44606 Y3.19121
G01 X-1.41226 Y3.26430
G01 X-1.38077 Y3.33746
G01 X-1.36014 Y3.38727
G01 X-1.33849 Y3.44110
G01 X-1.31817 Y3.49487
G01 X-1.29915 Y3.54858
G01 X-1.28143 Y3.60232
G01 X-1.26500 Y3.65603
G01 X-1.24986 Y3.70977
G01 X-1.23603 Y3.76349
G01 X-1.22554 Y3.80842
G01 X-1.21441 Y3.81211
G01 X-1.58830 Y4.12852
G01 X-1.63361 Y4.16614
G01 X-1.67793 Y4.20148
G01 X-1.83319 Y4.32264
G01 X-1.86494 Y4.34666
G01 X-1.89630 Y4.36888
G01 X-1.97665 Y4.42381
G01 X-2.00265 Y4.44081
G01 X-2.02865 Y4.45628
G01 X-2.15476 Y4.52684
G01 X-2.17671 Y4.54109
G01 X-2.22063 Y4.57127
G01 X-2.23987 Y4.58524
G01 X-2.25845 Y4.60027
G01 X-2.29841 Y4.63440
G01 X-2.31558 Y4.64986
G01 X-2.33170 Y4.66599
G01 X-2.36769 Y4.70391
G01 X-2.38333 Y4.72129
G01 X-2.39793 Y4.73933
G01 X-2.43002 Y4.78115
G01 X-2.44457 Y4.80119
G01 X-2.45832 Y4.82238
G01 X-2.48648 Y4.86832
G01 X-2.50053 Y4.89271
G01 X-2.51338 Y4.91796
G01 X-2.53730 Y4.96812
G01 X-2.55096 Y4.99889
G01 X-2.56316 Y5.03076
G01 X-2.58249 Y5.08534
G01 X-2.59543 Y5.12533
G01 X-2.60650 Y5.16683
G01 X-2.62806 Y5.25908
G01 X-2.64027 Y5.36707
G01 X-2.67706 Y5.60435
G01 X-2.74706 Y5.97605
G01 X-2.76978 Y6.08925
G01 X-2.99644 Y7.16175
G01 X-3.06882 Y7.49445
G01 X-3.13421 Y7.49317
G01 X-3.20360 Y7.49085
G01 X-3.27303 Y7.48754
G01 X-3.33819 Y7.48351
G01 X-3.39160 Y6.84985
G01 X-3.46023 Y6.05264
G01 X-3.49018 Y5.71652
G01 X-3.49500 Y5.65557
G01 X-3.49500 Y5.36441
G01 X-3.49188 Y5.32967
G01 X-3.47153 Y5.15897
G01 X-3.45954 Y5.05285
G01 X-3.44001 Y4.85948
G01 X-3.42989 Y4.74546
G01 X-3.41986 Y4.62238
G01 X-3.40663 Y4.44672
G01 X-3.40661 Y4.37616
G01 X-3.40803 Y4.29945
G01 X-3.41227 Y4.21992
G01 X-3.41934 Y4.13759
G01 X-3.42924 Y4.05244
G01 X-3.44194 Y3.96461
G01 X-3.45748 Y3.87383
G01 X-3.47585 Y3.78024
G01 X-3.49706 Y3.68373
G01 X-3.52108 Y3.58451
G01 X-3.54789 Y3.48257
G01 X-3.57755 Y3.37772
G01 X-3.61005 Y3.26997
G01 X-3.64533 Y3.15956
G01 X-3.68348 Y3.04619
G01 X-3.72442 Y2.93007
G01 X-3.76817 Y2.81120
G01 X-3.90100 Y2.45735
G01 X-3.79638 Y2.41932
G01 X-3.68706 Y2.38241
G01 X-3.57774 Y2.34831
G01 X-3.46844 Y2.31704
G01 X-3.35914 Y2.28858
G01 X-3.24983 Y2.26295
G01 X-3.14051 Y2.24013
G01 X-3.03121 Y2.22013
G01 X-2.92192 Y2.20296
G01 X-2.81262 Y2.18860
G01 X-2.70334 Y2.17706
G01 X-2.59402 Y2.16834
G01 X-2.48472 Y2.16244
G01 X-2.37543 Y2.15935
G01 X-2.26612 Y2.15909
G01 X-2.15890 Y2.16160
G01 X-2.09326 Y2.23343
G01 X-2.02858 Y2.30678
G01 X-1.96627 Y2.38014
G01 X-1.90631 Y2.45352
G01 X-1.84873 Y2.52688
G01 X-1.79353 Y2.60022
G01 X-1.74068 Y2.67358
G01 X-1.69020 Y2.74693
G01 X-1.64209 Y2.82026
G01 X-1.59635 Y2.89359
G01 X-1.55298 Y2.96692
G01 X-1.51196 Y3.04026
G01 X-1.47332 Y3.11358
G01 X-1.43704 Y3.18691
G01 X-1.40314 Y3.26020
G01 X-1.37156 Y3.33358
G01 X-1.32918 Y3.43747
G01 X-1.30879 Y3.49140
G01 X-1.28968 Y3.54536
G01 X-1.27189 Y3.59929
G01 X-1.25540 Y3.65324
G01 X-1.24021 Y3.70717
G01 X-1.22632 Y3.76109
G01 X-1.21441 Y3.81211
G04 P0 ( dwell for no time -- G64 should not smooth over this point )
G00 Z0.08000 ( retract )

G00 X-0.87625 Y4.99980 ( rapid move to begin. )
G01 F3.00000
G01 Z-0.00800
G04 P0 ( dwell for no time -- G64 should not smooth over this point )
G01 F6.00000
G01 X-0.87625 Y4.99980
G01 X-0.87685 Y4.95441
G01 X-0.87862 Y4.90940
G01 X-0.88438 Y4.81110
G01 X-0.88865 Y4.76467
G01 X-0.89412 Y4.71863
G01 X-0.90077 Y4.67280
G01 X-0.91728 Y4.57270
G01 X-0.92694 Y4.52428
G01 X-0.93775 Y4.47664
G01 X-0.94995 Y4.42863
G01 X-0.97862 Y4.32444
G01 X-0.99455 Y4.27328
G01 X-1.01221 Y4.22139
G01 X-1.05124 Y4.11779
G01 X-1.07407 Y4.06068
G01 X-1.09860 Y4.00376
G01 X-1.12492 Y3.94686
G01 X-1.15284 Y3.89031
G01 X-1.19466 Y3.80871
G01 X-1.20693 Y3.75616
G01 X-1.22086 Y3.70212
G01 X-1.23616 Y3.64775
G01 X-1.25278 Y3.59339
G01 X-1.27082 Y3.53873
G01 X-1.28994 Y3.48469
G01 X-1.31060 Y3.43005
G01 X-1.35310 Y3.32587
G01 X-1.38478 Y3.25224
G01 X-1.41892 Y3.17844
G01 X-1.45560 Y3.10431
G01 X-1.49448 Y3.03055
G01 X-1.53573 Y2.95680
G01 X-1.57917 Y2.88336
G01 X-1.62534 Y2.80933
G01 X-1.67351 Y2.73590
G01 X-1.72442 Y2.66193
G01 X-1.77733 Y2.58849
G01 X-1.83279 Y2.51480
G01 X-1.89080 Y2.44090
G01 X-1.95081 Y2.36746
G01 X-2.01336 Y2.29381
G01 X-2.07829 Y2.22016
G01 X-2.14558 Y2.14653
G01 X-2.15044 Y2.14299
G01 X-2.15630 Y2.14165
G01 X-2.26572 Y2.13909
G01 X-2.37554 Y2.13935
G01 X-2.48573 Y2.14246
G01 X-2.59516 Y2.14837
G01 X-2.70535 Y2.15716
G01 X-2.81478 Y2.16871
G01 X-2.92496 Y2.18319
G01 X-3.03475 Y2.20045
G01 X-3.14418 Y2.22047
G01 X-3.25433 Y2.24346
G01 X-3.36376 Y2.26912
G01 X-3.47388 Y2.29779
G01 X-3.58365 Y2.32920
G01 X-3.69341 Y2.36344
G01 X-3.80283 Y2.40039
G01 X-3.91019 Y2.43941
G01 X-4.03038 Y2.44083
G01 X-4.15019 Y2.44527
G01 X-4.23201 Y2.41978
G01 X-4.31680 Y2.39498
G01 X-4.40108 Y2.37195
G01 X-4.48588 Y2.35041
G01 X-4.57042 Y2.33054
G01 X-4.65470 Y2.31236
G01 X-4.73925 Y2.29573
G01 X-4.82380 Y2.28071
G01 X-4.90863 Y2.26728
G01 X-4.99319 Y2.25551
G01 X-5.07747 Y2.24539
G01 X-5.16231 Y2.23683
G01 X-5.24687 Y2.22991
G01 X-5.33115 Y2.22463
G01 X-5.41571 Y2.22095
G01 X-5.50057 Y2.21889
G01 X-5.58513 Y2.21845
G01 X-5.66941 Y2.21963
G01 X-5.75426 Y2.22243
G01 X-5.83854 Y2.22683
G01 X-5.92310 Y2.23287
G01 X-6.00766 Y2.24052
G01 X-6.09251 Y2.24983
G01 X-6.17678 Y2.26068
G01 X-6.26134 Y2.27319
G01 X-6.34590 Y2.28732
G01 X-6.43045 Y2.30307
G01 X-6.51527 Y2.32049
G01 X-6.59981 Y2.33947
G01 X-6.68435 Y2.36008
G01 X-6.76888 Y2.38230
G01 X-6.85127 Y2.40553
G01 X-6.96247 Y2.40708
G01 X-7.07529 Y2.41131
G01 X-7.18846 Y2.41822
G01 X-7.30014 Y2.42768
G01 X-7.36956 Y2.41980
G01 X-7.44044 Y2.41281
G01 X-7.51133 Y2.40687
G01 X-7.58200 Y2.40200
G01 X-7.58790 Y2.40278
G01 X-7.59303 Y2.40578
G01 X-7.64939 Y2.45615
G01 X-7.70466 Y2.50663
G01 X-7.75884 Y2.55723
G01 X-7.81044 Y2.60654
G01 X-7.90429 Y2.66507
G01 X-7.99665 Y2.72454
G01 X-8.08605 Y2.78401
G01 X-8.17250 Y2.84350
G01 X-8.32188 Y2.94809
G01 X-8.42763 Y3.02400
G01 X-8.52770 Y3.09958
G01 X-8.57600 Y3.13755
G01 X-8.62308 Y3.17560
G01 X-8.66868 Y3.21353
G01 X-8.71281 Y3.25132
G01 X-8.83314 Y3.35592
G01 X-8.89380 Y3.40994
G01 X-8.95142 Y3.46385
G01 X-9.00582 Y3.51750
G01 X-9.05775 Y3.57160
G01 X-9.15535 Y3.67626
G01 X-9.19121 Y3.71566
G01 X-9.22581 Y3.75564
G01 X-9.25814 Y3.79504
G01 X-9.28897 Y3.83476
G01 X-9.36787 Y3.93946
G01 X-9.39007 Y3.96970
G01 X-9.41081 Y3.99948
G01 X-9.43085 Y4.02993
G01 X-9.51223 Y4.16442
G01 X-9.53888 Y4.21142
G01 X-9.58546 Y4.30434
G01 X-9.62741 Y4.40031
G01 X-9.64173 Y4.43849
G01 X-9.67773 Y4.54302
G01 X-9.68759 Y4.57422
G01 X-9.69589 Y4.60619
G01 X-9.72003 Y4.71072
G01 X-9.72559 Y4.73799
G01 X-9.72981 Y4.76606
G01 X-9.74264 Y4.87059
G01 X-9.74509 Y4.89585
G01 X-9.74624 Y4.92191
G01 X-9.74807 Y5.02683
G01 X-9.74785 Y5.05142
G01 X-9.74632 Y5.07680
G01 X-9.73714 Y5.18172
G01 X-9.73402 Y5.20892
G01 X-9.72966 Y5.23494
G01 X-9.70927 Y5.33985
G01 X-9.70249 Y5.37029
G01 X-9.69425 Y5.39994
G01 X-9.66164 Y5.50734
G01 X-9.64883 Y5.54425
G01 X-9.63792 Y5.57239
G01 X-9.59204 Y5.67988
G01 X-9.57231 Y5.72307
G01 X-9.54944 Y5.76694
G01 X-9.49150 Y5.87146
G01 X-9.47203 Y5.90503
G01 X-9.47953 Y5.93203
G01 X-9.49188 Y5.98340
G01 X-9.50165 Y6.03592
G01 X-9.50932 Y6.09265
G01 X-9.51371 Y6.15056
G01 X-9.51499 Y6.20040
G01 X-9.51371 Y6.24945
G01 X-9.50940 Y6.30657
G01 X-9.50165 Y6.36408
G01 X-9.49188 Y6.41660
G01 X-9.47761 Y6.47513
G01 X-9.46129 Y6.53012
G01 X-9.44154 Y6.58582
G01 X-9.42698 Y6.62251
G01 X-9.41387 Y6.65294
G01 X-9.40014 Y6.68264
G01 X-9.38176 Y6.71965
G01 X-9.36394 Y6.75344
G01 X-9.34506 Y6.78703
G01 X-9.32521 Y6.82029
G01 X-9.29949 Y6.86081
G01 X-9.27365 Y6.89941
G01 X-9.24616 Y6.93816
G01 X-9.21713 Y6.97690
G01 X-9.18094 Y7.02255
G01 X-9.14260 Y7.06854
G01 X-9.10195 Y7.11468
G01 X-9.05887 Y7.16107
G01 X-9.01413 Y7.20690
G01 X-8.94839 Y7.27096
G01 X-8.88609 Y7.32824
G01 X-8.82017 Y7.38572
G01 X-8.74295 Y7.44962
G01 X-8.69609 Y7.48699
G01 X-8.64755 Y7.52456
G01 X-8.59776 Y7.56198
G01 X-8.54656 Y7.59940
G01 X-8.49394 Y7.63682
G01 X-8.43982 Y7.67427
G01 X-8.31705 Y7.75584
G01 X-8.23336 Y7.80924
G01 X-8.14657 Y7.86277
G01 X-8.05689 Y7.91628
G01 X-7.96431 Y7.96979
G01 X-7.95864 Y7.97170
G01 X-7.95563 Y7.97176
G01 X-7.85874 Y7.94425
G01 X-7.75753 Y7.91256
G01 X-7.70095 Y7.89375
G01 X-7.64465 Y7.87419
G01 X-7.53142 Y7.83230
G01 X-7.41848 Y7.78711
G01 X-7.30572 Y7.73860
G01 X-7.19471 Y7.68774
G01 X-7.09480 Y7.63911
G01 X-7.00114 Y7.65646
G01 X-6.90231 Y7.67261
G01 X-6.80316 Y7.68666
G01 X-6.70432 Y7.69849
G01 X-6.60581 Y7.70815
G01 X-6.50697 Y7.71568
G01 X-6.40813 Y7.72105
G01 X-6.30896 Y7.72427
G01 X-6.21012 Y7.72532
G01 X-6.11128 Y7.72422
G01 X-6.01276 Y7.72097
G01 X-5.91360 Y7.71554
G01 X-5.81476 Y7.70797
G01 X-5.71592 Y7.69823
G01 X-5.61741 Y7.68639
G01 X-5.51984 Y7.67253
G01 X-5.44474 Y7.67463
G01 X-5.36837 Y7.67550
G01 X-5.29225 Y7.67512
G01 X-5.21564 Y7.67347
G01 X-5.13927 Y7.67057
G01 X-5.06291 Y7.66640
G01 X-4.98679 Y7.66100
G01 X-4.91018 Y7.65429
G01 X-4.83382 Y7.64635
G01 X-4.75746 Y7.63714
G01 X-4.68134 Y7.62672
G01 X-4.60498 Y7.61500
G01 X-4.52839 Y7.60198
G01 X-4.45227 Y7.58778
G01 X-4.37592 Y7.57228
G01 X-4.30139 Y7.55593
G01 X-4.18326 Y7.55969
G01 X-4.06252 Y7.56055
G01 X-3.94216 Y7.55842
G01 X-3.82179 Y7.55331
G01 X-3.70179 Y7.54524
G01 X-3.58143 Y7.53417
G01 X-3.46106 Y7.52012
G01 X-3.34221 Y7.50330
G01 X-3.27403 Y7.50751
G01 X-3.20432 Y7.51083
G01 X-3.13483 Y7.51316
G01 X-3.06643 Y7.51450
G01 X-2.94509 Y7.53826
G01 X-2.82211 Y7.55916
G01 X-2.69911 Y7.57688
G01 X-2.57611 Y7.59140
G01 X-2.52366 Y7.59692
G01 X-2.40872 Y7.60760
G01 X-2.40274 Y7.60695
G01 X-2.39751 Y7.60400
G01 X-2.29622 Y7.51621
G01 X-2.19899 Y7.42861
G01 X-2.10517 Y7.34058
G01 X-2.01564 Y7.25298
G01 X-1.96326 Y7.20060
G01 X-1.87301 Y7.10816
G01 X-1.82927 Y7.06166
G01 X-1.78682 Y7.01535
G01 X-1.74560 Y6.96920
G01 X-1.70521 Y6.92273
G01 X-1.66619 Y6.87657
G01 X-1.58574 Y6.77790
G01 X-1.52553 Y6.70167
G01 X-1.46872 Y6.62587
G01 X-1.41471 Y6.54976
G01 X-1.36373 Y6.47363
G01 X-1.32958 Y6.42104
G01 X-1.28887 Y6.35661
G01 X-1.25021 Y6.29186
G01 X-1.21361 Y6.22674
G01 X-1.17956 Y6.16212
G01 X-1.12492 Y6.05314
G01 X-1.09860 Y5.99624
G01 X-1.07391 Y5.93895
G01 X-1.05124 Y5.88220
G01 X-1.01208 Y5.77824
G01 X-0.99455 Y5.72671
G01 X-0.97850 Y5.67517
G01 X-0.96406 Y5.62402
G01 X-0.93784 Y5.52373
G01 X-0.92694 Y5.47572
G01 X-0.91728 Y5.42730
G01 X-0.90075 Y5.32701
G01 X-0.89412 Y5.28136
G01 X-0.88865 Y5.23533
G01 X-0.88438 Y5.18890
G01 X-0.87862 Y5.09060
G01 X-0.87685 Y5.04559
G01 X-0.87625 Y4.99980
G01 X-0.88625 Y4.99993
G01 X-0.88684 Y5.04507
G01 X-0.88861 Y5.09021
G01 X-0.89435 Y5.18825
G01 X-0.89858 Y5.23415
G01 X-0.90402 Y5.27993
G01 X-0.91064 Y5.32557
G01 X-0.92714 Y5.42561
G01 X-0.93669 Y5.47351
G01 X-0.94753 Y5.52127
G01 X-0.95966 Y5.56897
G01 X-0.98813 Y5.67246
G01 X-1.00414 Y5.72386
G01 X-1.02155 Y5.77502
G01 X-1.04051 Y5.82636
G01 X-1.08320 Y5.93524
G01 X-1.10762 Y5.99192
G01 X-1.13388 Y6.04871
G01 X-1.18847 Y6.15758
G01 X-1.22246 Y6.22207
G01 X-1.25879 Y6.28673
G01 X-1.29732 Y6.35127
G01 X-1.33803 Y6.41570
G01 X-1.37201 Y6.46801
G01 X-1.42286 Y6.54398
G01 X-1.47664 Y6.61977
G01 X-1.53354 Y6.69567
G01 X-1.59347 Y6.77156
G01 X-1.67383 Y6.87012
G01 X-1.71290 Y6.91632
G01 X-1.75302 Y6.96248
G01 X-1.79433 Y7.00874
G01 X-1.83669 Y7.05495
G01 X-1.88017 Y7.10117
G01 X-1.97033 Y7.19353
G01 X-2.02260 Y7.24580
G01 X-2.11216 Y7.33344
G01 X-2.20569 Y7.42118
G01 X-2.30291 Y7.50878
G01 X-2.40580 Y7.59743
G01 X-2.52261 Y7.58697
G01 X-2.57494 Y7.58147
G01 X-2.69769 Y7.56698
G01 X-2.82043 Y7.54931
G01 X-2.94305 Y7.52847
G01 X-3.06536 Y7.50452
G01 X-3.13442 Y7.50317
G01 X-3.20399 Y7.50084
G01 X-3.27355 Y7.49752
G01 X-3.34261 Y7.49326
G01 X-3.46210 Y7.51017
G01 X-3.58234 Y7.52421
G01 X-3.70246 Y7.53526
G01 X-3.82258 Y7.54333
G01 X-3.94270 Y7.54843
G01 X-4.06270 Y7.55055
G01 X-4.18295 Y7.54970
G01 X-4.30232 Y7.54589
G01 X-4.37783 Y7.56247
G01 X-4.45403 Y7.57794
G01 X-4.53022 Y7.59215
G01 X-4.60650 Y7.60511
G01 X-4.68262 Y7.61680
G01 X-4.75882 Y7.62724
G01 X-4.83510 Y7.63643
G01 X-4.91122 Y7.64435
G01 X-4.98750 Y7.65102
G01 X-5.06362 Y7.65643
G01 X-5.13990 Y7.66059
G01 X-5.21610 Y7.66348
G01 X-5.29222 Y7.66512
G01 X-5.36850 Y7.66550
G01 X-5.44462 Y7.66463
G01 X-5.52040 Y7.66251
G01 X-5.61850 Y7.67645
G01 X-5.71712 Y7.68831
G01 X-5.81574 Y7.69801
G01 X-5.91436 Y7.70557
G01 X-6.01309 Y7.71098
G01 X-6.11161 Y7.71423
G01 X-6.21023 Y7.71533
G01 X-6.30886 Y7.71427
G01 X-6.40748 Y7.71107
G01 X-6.50621 Y7.70570
G01 X-6.60483 Y7.69819
G01 X-6.70346 Y7.68853
G01 X-6.80197 Y7.67673
G01 X-6.90070 Y7.66275
G01 X-6.99932 Y7.64663
G01 X-7.09621 Y7.62867
G01 X-7.19889 Y7.67866
G01 X-7.30978 Y7.72947
G01 X-7.42243 Y7.77792
G01 X-7.53513 Y7.82301
G01 X-7.64784 Y7.86471
G01 X-7.70429 Y7.88433
G01 X-7.76059 Y7.90304
G01 X-7.86150 Y7.93464
G01 X-7.95543 Y7.96161
G01 X-7.95840 Y7.96155
G01 X-8.05176 Y7.90770
G01 X-8.14126 Y7.85429
G01 X-8.22791 Y7.80085
G01 X-8.32217 Y7.74059
G01 X-8.43428 Y7.66595
G01 X-8.48830 Y7.62856
G01 X-8.54076 Y7.59125
G01 X-8.59192 Y7.55387
G01 X-8.64154 Y7.51656
G01 X-8.68979 Y7.47922
G01 X-8.73665 Y7.44184
G01 X-8.81388 Y7.37795
G01 X-8.87932 Y7.32087
G01 X-8.94143 Y7.26379
G01 X-9.00009 Y7.20681
G01 X-9.05180 Y7.15400
G01 X-9.09445 Y7.10807
G01 X-9.13483 Y7.06224
G01 X-9.17867 Y7.00946
G01 X-9.20905 Y6.97100
G01 X-9.23800 Y6.93237
G01 X-9.26534 Y6.89384
G01 X-9.29110 Y6.85537
G01 X-9.31656 Y6.81527
G01 X-9.33654 Y6.78179
G01 X-9.35529 Y6.74842
G01 X-9.37285 Y6.71511
G01 X-9.39100 Y6.67856
G01 X-9.40484 Y6.64862
G01 X-9.41765 Y6.61892
G01 X-9.42959 Y6.58904
G01 X-9.45170 Y6.52727
G01 X-9.46795 Y6.47255
G01 X-9.48216 Y6.41426
G01 X-9.49177 Y6.36251
G01 X-9.49943 Y6.30579
G01 X-9.50371 Y6.24919
G01 X-9.50500 Y6.19987
G01 X-9.50371 Y6.15069
G01 X-9.49940 Y6.09395
G01 X-9.49175 Y6.03735
G01 X-9.48216 Y5.98573
G01 X-9.46980 Y5.93437
G01 X-9.46125 Y5.90367
G01 X-9.48275 Y5.86662
G01 X-9.54069 Y5.76209
G01 X-9.56310 Y5.71915
G01 X-9.58284 Y5.67597
G01 X-9.62874 Y5.56841
G01 X-9.64307 Y5.53083
G01 X-9.65206 Y5.50450
G01 X-9.68468 Y5.39702
G01 X-9.69286 Y5.36761
G01 X-9.69946 Y5.33794
G01 X-9.71978 Y5.23341
G01 X-9.72420 Y5.20700
G01 X-9.72718 Y5.18085
G01 X-9.73633 Y5.07632
G01 X-9.73785 Y5.05133
G01 X-9.73807 Y5.02661
G01 X-9.73624 Y4.92208
G01 X-9.73515 Y4.89707
G01 X-9.73272 Y4.87180
G01 X-9.71988 Y4.76727
G01 X-9.71579 Y4.73999
G01 X-9.71028 Y4.71297
G01 X-9.68615 Y4.60844
G01 X-9.67812 Y4.57748
G01 X-9.66827 Y4.54628
G01 X-9.63228 Y4.44175
G01 X-9.61834 Y4.40455
G01 X-9.57640 Y4.30857
G01 X-9.52994 Y4.21590
G01 X-9.50372 Y4.16968
G01 X-9.44081 Y4.06498
G01 X-9.42228 Y4.03508
G01 X-9.40268 Y4.00530
G01 X-9.38179 Y3.97531
G01 X-9.35988 Y3.94548
G01 X-9.28107 Y3.84089
G01 X-9.25041 Y3.80139
G01 X-9.21799 Y3.76188
G01 X-9.18389 Y3.72248
G01 X-9.14791 Y3.68295
G01 X-9.05039 Y3.57836
G01 X-8.99880 Y3.52462
G01 X-8.94440 Y3.47097
G01 X-8.88697 Y3.41724
G01 X-8.82658 Y3.36347
G01 X-8.70634 Y3.25894
G01 X-8.66218 Y3.22112
G01 X-8.61663 Y3.18324
G01 X-8.56987 Y3.14545
G01 X-8.52175 Y3.10762
G01 X-8.42151 Y3.03190
G01 X-8.31619 Y2.95632
G01 X-8.16686 Y2.85176
G01 X-8.08052 Y2.79234
G01 X-7.99130 Y2.73299
G01 X-7.89900 Y2.67356
G01 X-7.80428 Y2.61448
G01 X-7.75189 Y2.56442
G01 X-7.69791 Y2.51402
G01 X-7.64272 Y2.46361
G01 X-7.58465 Y2.41224
G01 X-7.51195 Y2.41685
G01 X-7.44121 Y2.42278
G01 X-7.37054 Y2.42975
G01 X-7.30028 Y2.43772
G01 X-7.18796 Y2.42821
G01 X-7.07491 Y2.42130
G01 X-6.96209 Y2.41707
G01 X-6.84982 Y2.41551
G01 X-6.76608 Y2.39190
G01 X-6.68181 Y2.36975
G01 X-6.59735 Y2.34917
G01 X-6.51307 Y2.33024
G01 X-6.42862 Y2.31290
G01 X-6.34434 Y2.29720
G01 X-6.25988 Y2.28308
G01 X-6.17551 Y2.27060
G01 X-6.09123 Y2.25974
G01 X-6.00686 Y2.25049
G01 X-5.92239 Y2.24284
G01 X-5.83811 Y2.23683
G01 X-5.75374 Y2.23242
G01 X-5.66936 Y2.22963
G01 X-5.58499 Y2.22845
G01 X-5.50062 Y2.22889
G01 X-5.41615 Y2.23094
G01 X-5.33187 Y2.23461
G01 X-5.24750 Y2.23989
G01 X-5.16303 Y2.24680
G01 X-5.07866 Y2.25532
G01 X-4.99429 Y2.26545
G01 X-4.91001 Y2.27718
G01 X-4.82555 Y2.29056
G01 X-4.74118 Y2.30554
G01 X-4.65681 Y2.32213
G01 X-4.57244 Y2.34034
G01 X-4.48817 Y2.36014
G01 X-4.40380 Y2.38158
G01 X-4.31935 Y2.40465
G01 X-4.23507 Y2.42930
G01 X-4.15153 Y2.45532
G01 X-4.02989 Y2.45082
G01 X-3.90837 Y2.44939
G01 X-3.79974 Y2.40991
G01 X-3.69021 Y2.37291
G01 X-3.58056 Y2.33871
G01 X-3.47102 Y2.30737
G01 X-3.36159 Y2.27889
G01 X-3.25193 Y2.25317
G01 X-3.14238 Y2.23030
G01 X-3.03283 Y2.21026
G01 X-2.92340 Y2.19307
G01 X-2.81373 Y2.17866
G01 X-2.70418 Y2.16709
G01 X-2.59475 Y2.15836
G01 X-2.48520 Y2.15245
G01 X-2.37551 Y2.14935
G01 X-2.26609 Y2.14909
G01 X-2.15458 Y2.15210
G01 X-2.08579 Y2.22678
G01 X-2.02099 Y2.30028
G01 X-1.95855 Y2.37379
G01 X-1.89848 Y2.44730
G01 X-1.84078 Y2.52082
G01 X-1.78544 Y2.59434
G01 X-1.73247 Y2.66786
G01 X-1.68187 Y2.74139
G01 X-1.63370 Y2.81482
G01 X-1.58784 Y2.88835
G01 X-1.54428 Y2.96199
G01 X-1.50321 Y3.03543
G01 X-1.46444 Y3.10897
G01 X-1.42799 Y3.18264
G01 X-1.39397 Y3.25619
G01 X-1.36234 Y3.32969
G01 X-1.31988 Y3.43378
G01 X-1.29941 Y3.48792
G01 X-1.28021 Y3.54217
G01 X-1.26238 Y3.59621
G01 X-1.24582 Y3.65036
G01 X-1.23057 Y3.70451
G01 X-1.21662 Y3.75866
G01 X-1.20411 Y3.81220
G01 X-1.16184 Y3.89468
G01 X-1.13383 Y3.95140
G01 X-1.10768 Y4.00796
G01 X-1.08325 Y4.06463
G01 X-1.06057 Y4.12138
G01 X-1.02159 Y4.22486
G01 X-1.00410 Y4.27626
G01 X-0.98813 Y4.32754
G01 X-0.95964 Y4.43109
G01 X-0.94753 Y4.47873
G01 X-0.93669 Y4.52649
G01 X-0.92714 Y4.57439
G01 X-0.91064 Y4.67443
G01 X-0.90402 Y4.72007
G01 X-0.89857 Y4.76598
G01 X-0.89436 Y4.81162
G01 X-0.89135 Y4.85747
G01 X-0.88684 Y4.95480
G01 X-0.88625 Y4.99993
G04 P0 ( dwell for no time -- G64 should not smooth over this point )
G00 Z0.08000 ( retract )

G00 X-0.89625 Y5.00000 ( rapid move to begin. )
G01 F3.00000
G01 Z-0.00800
G04 P0 ( dwell for no time -- G64 should not smooth over this point )
G01 F6.00000
G01 X-0.89625 Y5.00000
G01 X-0.89684 Y4.95513
G01 X-0.90134 Y4.85800
G01 X-0.90433 Y4.81248
G01 X-0.90852 Y4.76696
G01 X-0.91392 Y4.72144
G01 X-0.92880 Y4.62368
G01 X-0.93698 Y4.57615
G01 X-0.94646 Y4.52864
G01 X-0.95724 Y4.48113
G01 X-0.96933 Y4.43358
G01 X-0.99773 Y4.33033
G01 X-1.01362 Y4.27930
G01 X-1.03100 Y4.22826
G01 X-1.06989 Y4.12501
G01 X-1.09245 Y4.06854
G01 X-1.11678 Y4.01210
G01 X-1.14288 Y3.95566
G01 X-1.17076 Y3.89920
G01 X-1.21040 Y3.82181
G01 X-1.58185 Y4.13616
G01 X-1.62727 Y4.17387
G01 X-1.67174 Y4.20934
G01 X-1.82708 Y4.33056
G01 X-1.85897 Y4.35469
G01 X-1.89062 Y4.37711
G01 X-1.97104 Y4.43209
G01 X-1.99726 Y4.44924
G01 X-2.02367 Y4.46495
G01 X-2.14942 Y4.53530
G01 X-2.17111 Y4.54937
G01 X-2.21481 Y4.57940
G01 X-2.23389 Y4.59326
G01 X-2.25210 Y4.60800
G01 X-2.29187 Y4.64196
G01 X-2.30860 Y4.65702
G01 X-2.32449 Y4.67292
G01 X-2.36039 Y4.71075
G01 X-2.37564 Y4.72768
G01 X-2.39004 Y4.74547
G01 X-2.42205 Y4.78719
G01 X-2.43640 Y4.80696
G01 X-2.44983 Y4.82766
G01 X-2.47785 Y4.87338
G01 X-2.49167 Y4.89736
G01 X-2.50443 Y4.92244
G01 X-2.52825 Y4.97237
G01 X-2.54167 Y5.00258
G01 X-2.55376 Y5.03414
G01 X-2.57304 Y5.08861
G01 X-2.58580 Y5.12803
G01 X-2.59679 Y5.16923
G01 X-2.61824 Y5.26098
G01 X-2.63037 Y5.36846
G01 X-2.66719 Y5.60600
G01 X-2.73724 Y5.97795
G01 X-2.75998 Y6.09125
G01 X-2.98665 Y7.16382
G01 X-3.05884 Y7.49561
G01 X-2.94132 Y7.51862
G01 X-2.81881 Y7.53944
G01 X-2.69633 Y7.55707
G01 X-2.57378 Y7.57154
G01 X-2.52161 Y7.57702
G01 X-2.40899 Y7.58749
G01 X-2.30958 Y7.50133
G01 X-2.21242 Y7.41379
G01 X-2.11911 Y7.32625
G01 X-2.02965 Y7.23871
G01 X-1.97741 Y7.18647
G01 X-1.88735 Y7.09421
G01 X-1.84399 Y7.04812
G01 X-1.80171 Y7.00199
G01 X-1.76054 Y6.95589
G01 X-1.72046 Y6.90979
G01 X-1.68148 Y6.86368
G01 X-1.60130 Y6.76534
G01 X-1.54150 Y6.68963
G01 X-1.48476 Y6.61393
G01 X-1.43105 Y6.53824
G01 X-1.38038 Y6.46254
G01 X-1.34646 Y6.41032
G01 X-1.30581 Y6.34598
G01 X-1.26741 Y6.28167
G01 X-1.23127 Y6.21735
G01 X-1.19735 Y6.15299
G01 X-1.17076 Y6.10080
G01 X-1.14288 Y6.04433
G01 X-1.11678 Y5.98790
G01 X-1.09245 Y5.93146
G01 X-1.06989 Y5.87500
G01 X-1.03100 Y5.77174
G01 X-1.01362 Y5.72070
G01 X-0.99773 Y5.66967
G01 X-0.98331 Y5.61861
G01 X-0.95724 Y5.51887
G01 X-0.94646 Y5.47136
G01 X-0.93698 Y5.42385
G01 X-0.92880 Y5.37631
G01 X-0.91392 Y5.27854
G01 X-0.90852 Y5.23304
G01 X-0.90433 Y5.18752
G01 X-0.90134 Y5.14197
G01 X-0.89684 Y5.04487
G01 X-0.89625 Y5.00000
G01 X-0.90625 Y5.00000
G01 X-0.90683 Y4.95539
G01 X-0.90859 Y4.91067
G01 X-0.91430 Y4.81327
G01 X-0.91847 Y4.76801
G01 X-0.92384 Y4.72275
G01 X-0.93042 Y4.67741
G01 X-0.94681 Y4.57799
G01 X-0.95624 Y4.53073
G01 X-0.96696 Y4.48346
G01 X-0.99296 Y4.38403
G01 X-1.00732 Y4.33317
G01 X-1.02313 Y4.28239
G01 X-1.04042 Y4.23160
G01 X-1.05921 Y4.18073
G01 X-1.10170 Y4.07236
G01 X-1.12591 Y4.01619
G01 X-1.15190 Y3.95998
G01 X-1.17971 Y3.90367
G01 X-1.21351 Y3.83755
G01 X-1.57539 Y4.14379
G01 X-1.62088 Y4.18157
G01 X-1.66559 Y4.21722
G01 X-1.82092 Y4.33844
G01 X-1.85294 Y4.36267
G01 X-1.88477 Y4.38522
G01 X-1.96540 Y4.44034
G01 X-1.99179 Y4.45761
G01 X-2.01875 Y4.47365
G01 X-2.14420 Y4.54383
G01 X-2.16555 Y4.55768
G01 X-2.20903 Y4.58757
G01 X-2.22781 Y4.60120
G01 X-2.24571 Y4.61569
G01 X-2.28527 Y4.64948
G01 X-2.30171 Y4.66428
G01 X-2.31732 Y4.67989
G01 X-2.35304 Y4.71753
G01 X-2.36803 Y4.73418
G01 X-2.38218 Y4.75165
G01 X-2.41403 Y4.79317
G01 X-2.42815 Y4.81262
G01 X-2.44137 Y4.83299
G01 X-2.46925 Y4.87848
G01 X-2.48288 Y4.90213
G01 X-2.49546 Y4.92685
G01 X-2.51917 Y4.97655
G01 X-2.53243 Y5.00640
G01 X-2.54438 Y5.03762
G01 X-2.56357 Y5.09182
G01 X-2.57621 Y5.13086
G01 X-2.58710 Y5.17169
G01 X-2.60836 Y5.26262
G01 X-2.62047 Y5.36989
G01 X-2.65732 Y5.60760
G01 X-2.72745 Y5.97998
G01 X-2.75021 Y6.09338
G01 X-2.97687 Y7.16589
G01 X-3.04686 Y7.48776
G01 X-2.93952 Y7.50878
G01 X-2.81728 Y7.52956
G01 X-2.69502 Y7.54716
G01 X-2.57269 Y7.56160
G01 X-2.52062 Y7.56707
G01 X-2.41232 Y7.57714
G01 X-2.31619 Y7.49383
G01 X-2.21919 Y7.40642
G01 X-2.12603 Y7.31903
G01 X-2.03667 Y7.23159
G01 X-1.98454 Y7.17945
G01 X-1.89457 Y7.08729
G01 X-1.85133 Y7.04132
G01 X-1.80914 Y6.99530
G01 X-1.76806 Y6.94930
G01 X-1.72805 Y6.90327
G01 X-1.68918 Y6.85729
G01 X-1.65132 Y6.81122
G01 X-1.60910 Y6.75908
G01 X-1.54943 Y6.68352
G01 X-1.49284 Y6.60804
G01 X-1.43929 Y6.53257
G01 X-1.38873 Y6.45704
G01 X-1.35489 Y6.40493
G01 X-1.31433 Y6.34074
G01 X-1.27607 Y6.27665
G01 X-1.24005 Y6.21257
G01 X-1.20625 Y6.14842
G01 X-1.17971 Y6.09633
G01 X-1.15190 Y6.04002
G01 X-1.12591 Y5.98382
G01 X-1.10170 Y5.92764
G01 X-1.07921 Y5.87137
G01 X-1.04042 Y5.76839
G01 X-1.02313 Y5.71761
G01 X-1.00732 Y5.66682
G01 X-0.99296 Y5.61597
G01 X-0.96696 Y5.51654
G01 X-0.95624 Y5.46927
G01 X-0.94681 Y5.42201
G01 X-0.93867 Y5.37469
G01 X-0.92384 Y5.27725
G01 X-0.91847 Y5.23199
G01 X-0.91430 Y5.18673
G01 X-0.91132 Y5.14140
G01 X-0.90683 Y5.04461
G01 X-0.90625 Y5.00000
G04 P0 ( dwell for no time -- G64 should not smooth over this point )
G00 Z0.08000 ( retract )

G00 X-3.34819 Y7.48395 ( rapid move to begin. )
G01 F3.00000
G01 Z-0.00800
G04 P0 ( dwell for no time -- G64 should not smooth over this point )
G01 F6.00000
G01 X-3.34819 Y7.48395
G01 X-3.40157 Y6.85070
G01 X-3.47019 Y6.05350
G01 X-3.50014 Y5.71741
G01 X-3.50500 Y5.65575
G01 X-3.50498 Y5.36373
G01 X-3.50182 Y5.32860
G01 X-3.48146 Y5.15777
G01 X-3.46948 Y5.05173
G01 X-3.44997 Y4.85854
G01 X-3.43986 Y4.74464
G01 X-3.42983 Y4.62158
G01 X-3.41661 Y4.44615
G01 X-3.41661 Y4.37629
G01 X-3.41802 Y4.29990
G01 X-3.42224 Y4.22070
G01 X-3.42929 Y4.13866
G01 X-3.43915 Y4.05381
G01 X-3.45183 Y3.96610
G01 X-3.46733 Y3.87558
G01 X-3.48565 Y3.78222
G01 X-3.50679 Y3.68604
G01 X-3.53076 Y3.58699
G01 X-3.55755 Y3.48515
G01 X-3.58715 Y3.38050
G01 X-3.61960 Y3.27295
G01 X-3.65484 Y3.16264
G01 X-3.69292 Y3.04947
G01 X-3.73382 Y2.93349
G01 X-3.77754 Y2.81468
G01 X-3.91091 Y2.45942
G01 X-4.02970 Y2.46082
G01 X-4.14832 Y2.46521
G01 X-4.35171 Y3.22646
G01 X-4.38527 Y3.35743
G01 X-4.41491 Y3.48449
G01 X-4.44063 Y3.60761
G01 X-4.46244 Y3.72683
G01 X-4.47186 Y3.78492
G01 X-4.48031 Y3.84205
G01 X-4.48778 Y3.89820
G01 X-4.49428 Y3.95338
G01 X-4.49979 Y4.00757
G01 X-4.50432 Y4.06080
G01 X-4.50788 Y4.11297
G01 X-4.51044 Y4.16393
G01 X-4.49986 Y4.28258
G01 X-4.49500 Y4.34424
G01 X-4.49502 Y4.63626
G01 X-4.49817 Y4.67140
G01 X-4.51940 Y4.84962
G01 X-4.54134 Y5.05159
G01 X-4.56014 Y5.25535
G01 X-4.57084 Y5.38696
G01 X-4.58473 Y5.57106
G01 X-4.59032 Y5.63111
G01 X-4.59967 Y5.71870
G01 X-4.59738 Y5.76858
G01 X-4.59396 Y5.81988
G01 X-4.58943 Y5.87228
G01 X-4.58380 Y5.92584
G01 X-4.57705 Y5.98049
G01 X-4.56919 Y6.03624
G01 X-4.56022 Y6.09315
G01 X-4.55014 Y6.15116
G01 X-4.29859 Y7.53601
G01 X-4.18269 Y7.53970
G01 X-4.06282 Y7.54055
G01 X-3.94295 Y7.53843
G01 X-3.82307 Y7.53335
G01 X-3.70320 Y7.52529
G01 X-3.58332 Y7.51426
G01 X-3.46344 Y7.50026
G01 X-3.34819 Y7.48395
G01 X-3.35894 Y7.47537
G01 X-3.41153 Y6.85155
G01 X-3.48016 Y6.05435
G01 X-3.51010 Y5.71830
G01 X-3.51500 Y5.65575
G01 X-3.51494 Y5.36284
G01 X-3.51176 Y5.32747
G01 X-3.49139 Y5.15658
G01 X-3.47942 Y5.05067
G01 X-3.45993 Y4.85762
G01 X-3.44982 Y4.74383
G01 X-3.43979 Y4.62075
G01 X-3.42661 Y4.44578
G01 X-3.42661 Y4.37639
G01 X-3.42801 Y4.30025
G01 X-3.43222 Y4.22139
G01 X-3.43924 Y4.13968
G01 X-3.44906 Y4.05511
G01 X-3.46171 Y3.96766
G01 X-3.47716 Y3.87739
G01 X-3.49544 Y3.78425
G01 X-3.51654 Y3.68827
G01 X-3.54045 Y3.58946
G01 X-3.56720 Y3.48778
G01 X-3.59676 Y3.38327
G01 X-3.62913 Y3.27596
G01 X-3.66434 Y3.16578
G01 X-3.70238 Y3.05272
G01 X-3.74323 Y2.93689
G01 X-3.78691 Y2.81819
G01 X-3.91781 Y2.46950
G01 X-4.02946 Y2.47082
G01 X-4.14056 Y2.47493
G01 X-4.34204 Y3.22898
G01 X-4.37556 Y3.35983
G01 X-4.40515 Y3.48665
G01 X-4.43082 Y3.60955
G01 X-4.45258 Y3.72853
G01 X-4.46198 Y3.78645
G01 X-4.47041 Y3.84342
G01 X-4.47786 Y3.89946
G01 X-4.48434 Y3.95448
G01 X-4.48983 Y4.00849
G01 X-4.49435 Y4.06154
G01 X-4.49789 Y4.11358
G01 X-4.50042 Y4.16374
G01 X-4.48989 Y4.28177
G01 X-4.48500 Y4.34424
G01 X-4.48500 Y4.63582
G01 X-4.48824 Y4.67253
G01 X-4.50861 Y4.84341
G01 X-4.52059 Y4.94946
G01 X-4.54007 Y5.14238
G01 X-4.55018 Y5.25617
G01 X-4.56020 Y5.37920
G01 X-4.57478 Y5.57199
G01 X-4.58038 Y5.63224
G01 X-4.58964 Y5.71901
G01 X-4.58739 Y5.76801
G01 X-4.58399 Y5.81911
G01 X-4.57948 Y5.87133
G01 X-4.57386 Y5.92471
G01 X-4.56713 Y5.97919
G01 X-4.55930 Y6.03479
G01 X-4.55035 Y6.09151
G01 X-4.54029 Y6.14943
G01 X-4.29019 Y7.52627
G01 X-4.18249 Y7.52970
G01 X-4.06287 Y7.53055
G01 X-3.94324 Y7.52844
G01 X-3.82363 Y7.52336
G01 X-3.70399 Y7.51532
G01 X-3.58437 Y7.50432
G01 X-3.46471 Y7.49034
G01 X-3.35894 Y7.47537
G04 P0 ( dwell for no time -- G64 should not smooth over this point )
G00 Z0.08000 ( retract )

G00 X-5.52621 Y7.65323 ( rapid move to begin. )
G01 F3.00000
G01 Z-0.00800
G04 P0 ( dwell for no time -- G64 should not smooth over this point )
G01 F6.00000
G01 X-5.52621 Y7.65323
G01 X-5.61985 Y7.66654
G01 X-5.71827 Y7.67837
G01 X-5.81667 Y7.68806
G01 X-5.91508 Y7.69560
G01 X-6.01347 Y7.70099
G01 X-6.11188 Y7.70423
G01 X-6.21029 Y7.70533
G01 X-6.30868 Y7.70427
G01 X-6.40711 Y7.70108
G01 X-6.50550 Y7.69573
G01 X-6.60389 Y7.68824
G01 X-6.70233 Y7.67859
G01 X-6.80073 Y7.66680
G01 X-6.89913 Y7.65287
G01 X-6.99756 Y7.63678
G01 X-7.09294 Y7.61911
G01 X-7.13926 Y7.45206
G01 X-7.17707 Y7.32098
G01 X-7.13254 Y7.16547
G01 X-7.09038 Y7.01448
G01 X-7.05102 Y6.86953
G01 X-7.01443 Y6.73051
G01 X-6.98062 Y6.59741
G01 X-6.94960 Y6.47032
G01 X-6.92136 Y6.34919
G01 X-6.89591 Y6.23409
G01 X-6.87324 Y6.12489
G01 X-6.85334 Y6.02158
G01 X-6.83625 Y5.92438
G01 X-6.82193 Y5.83306
G01 X-6.81039 Y5.74770
G01 X-6.80163 Y5.66829
G01 X-6.79566 Y5.59483
G01 X-6.79247 Y5.52731
G01 X-6.78500 Y5.25711
G01 X-6.78393 Y5.23999
G01 X-6.78171 Y5.22317
G01 X-6.77832 Y5.20656
G01 X-6.77374 Y5.19007
G01 X-6.66338 Y4.84005
G01 X-6.65860 Y4.82350
G01 X-6.65453 Y4.80635
G01 X-6.65120 Y4.78862
G01 X-6.64869 Y4.77066
G01 X-6.64604 Y4.73391
G01 X-6.64648 Y4.69595
G01 X-6.74450 Y2.78410
G01 X-6.42683 Y3.57966
G01 X-6.38862 Y3.67789
G01 X-6.35380 Y3.77271
G01 X-6.32237 Y3.86414
G01 X-6.29432 Y3.95218
G01 X-6.26966 Y4.03681
G01 X-6.24837 Y4.11806
G01 X-6.23048 Y4.19590
G01 X-6.21595 Y4.27039
G01 X-6.16745 Y4.54544
G01 X-6.15735 Y4.59596
G01 X-6.14541 Y4.64317
G01 X-6.13187 Y4.68616
G01 X-6.11650 Y4.72574
G01 X-6.09921 Y4.76194
G01 X-6.08995 Y4.77853
G01 X-6.08037 Y4.79399
G01 X-6.07023 Y4.80874
G01 X-6.05963 Y4.82256
G01 X-6.04859 Y4.83545
G01 X-6.03709 Y4.84742
G01 X-5.97834 Y4.87538
G01 X-5.95520 Y4.88912
G01 X-5.92996 Y4.90847
G01 X-5.91236 Y4.92564
G01 X-5.90049 Y4.93954
G01 X-5.88209 Y4.96635
G01 X-5.86903 Y4.99120
G01 X-5.85736 Y5.02045
G01 X-5.84915 Y5.04830
G01 X-5.84366 Y5.07329
G01 X-5.83969 Y5.09991
G01 X-5.83728 Y5.12325
G01 X-5.83580 Y5.15700
G01 X-5.83583 Y5.18834
G01 X-5.83747 Y5.22254
G01 X-5.75908 Y5.66715
G01 X-5.75301 Y5.70489
G01 X-5.74796 Y5.74359
G01 X-5.52621 Y7.65323
G01 X-5.53727 Y7.64471
G01 X-5.62115 Y7.65662
G01 X-5.71936 Y7.66843
G01 X-5.81753 Y7.67809
G01 X-5.91573 Y7.68562
G01 X-6.01391 Y7.69100
G01 X-6.11212 Y7.69423
G01 X-6.21030 Y7.69533
G01 X-6.30848 Y7.69428
G01 X-6.40668 Y7.69108
G01 X-6.50486 Y7.68575
G01 X-6.60306 Y7.67827
G01 X-6.70123 Y7.66865
G01 X-6.79944 Y7.65689
G01 X-6.89761 Y7.64298
G01 X-6.99585 Y7.62693
G01 X-7.08497 Y7.61042
G01 X-7.12961 Y7.44944
G01 X-7.16667 Y7.32097
G01 X-7.12290 Y7.16813
G01 X-7.08076 Y7.01721
G01 X-7.04134 Y6.87204
G01 X-7.00476 Y6.73306
G01 X-6.97094 Y6.59992
G01 X-6.93989 Y6.47274
G01 X-6.91163 Y6.35152
G01 X-6.88615 Y6.23625
G01 X-6.86345 Y6.12692
G01 X-6.84349 Y6.02331
G01 X-6.82635 Y5.92584
G01 X-6.81205 Y5.83461
G01 X-6.80047 Y5.74904
G01 X-6.79169 Y5.66939
G01 X-6.78569 Y5.59564
G01 X-6.78249 Y5.52778
G01 X-6.77500 Y5.25754
G01 X-6.77397 Y5.24096
G01 X-6.77184 Y5.22483
G01 X-6.76859 Y5.20890
G01 X-6.76415 Y5.19292
G01 X-6.65377 Y4.84282
G01 X-6.64899 Y4.82627
G01 X-6.64465 Y4.80797
G01 X-6.64130 Y4.79001
G01 X-6.63872 Y4.77139
G01 X-6.63604 Y4.73380
G01 X-6.63650 Y4.69544
G01 X-6.73143 Y2.84381
G01 X-6.43612 Y3.58336
G01 X-6.39798 Y3.68141
G01 X-6.36322 Y3.77607
G01 X-6.33186 Y3.86728
G01 X-6.30389 Y3.95510
G01 X-6.27930 Y4.03947
G01 X-6.25809 Y4.12043
G01 X-6.24026 Y4.19797
G01 X-6.22579 Y4.27221
G01 X-6.17730 Y4.54718
G01 X-6.16716 Y4.59792
G01 X-6.15495 Y4.64618
G01 X-6.14141 Y4.68916
G01 X-6.12582 Y4.72937
G01 X-6.10794 Y4.76681
G01 X-6.09880 Y4.78320
G01 X-6.08887 Y4.79926
G01 X-6.07846 Y4.81441
G01 X-6.06757 Y4.82864
G01 X-6.05618 Y4.84196
G01 X-6.04429 Y4.85435
G01 X-6.03994 Y4.85750
G01 X-5.98290 Y4.88428
G01 X-5.96064 Y4.89751
G01 X-5.93665 Y4.91591
G01 X-5.91979 Y4.93234
G01 X-5.90827 Y4.94583
G01 X-5.89075 Y4.97135
G01 X-5.87817 Y4.99527
G01 X-5.86687 Y5.02353
G01 X-5.85882 Y5.05088
G01 X-5.85350 Y5.07509
G01 X-5.84962 Y5.10107
G01 X-5.84725 Y5.12401
G01 X-5.84579 Y5.15714
G01 X-5.84583 Y5.18808
G01 X-5.84732 Y5.22427
G01 X-5.76893 Y5.66883
G01 X-5.76291 Y5.70632
G01 X-5.75788 Y5.74484
G01 X-5.53727 Y7.64471
G04 P0 ( dwell for no time -- G64 should not smooth over this point )
G00 Z0.08000 ( retract )

G00 X-7.10285 Y7.62078 ( rapid move to begin. )
G01 F3.00000
G01 Z-0.00800
G04 P0 ( dwell for no time -- G64 should not smooth over this point )
G01 F6.00000
G01 X-7.10285 Y7.62078
G01 X-7.14888 Y7.45480
G01 X-7.18696 Y7.32277
G01 X-7.42934 Y6.81386
G01 X-7.87893 Y6.31815
G01 X-7.93055 Y6.26218
G01 X-7.98213 Y6.20896
G01 X-8.03370 Y6.15846
G01 X-8.09205 Y6.10457
G01 X-8.18865 Y6.02050
G01 X-8.26465 Y5.99358
G01 X-8.44796 Y5.93450
G01 X-8.49924 Y5.91884
G01 X-8.54769 Y5.90554
G01 X-8.69844 Y5.87065
G01 X-8.75407 Y5.85948
G01 X-8.78332 Y5.85484
G01 X-8.81225 Y5.85130
G01 X-8.91940 Y5.84008
G01 X-8.96014 Y5.83809
G01 X-9.07392 Y5.84009
G01 X-9.11776 Y5.84261
G01 X-9.15510 Y5.84688
G01 X-9.25555 Y5.86201
G01 X-9.30381 Y5.87025
G01 X-9.35309 Y5.88128
G01 X-9.45183 Y5.90710
G01 X-9.46009 Y5.93677
G01 X-9.47240 Y5.98794
G01 X-9.48191 Y6.03911
G01 X-9.48947 Y6.09513
G01 X-9.49337 Y6.14448
G01 X-9.49500 Y6.20000
G01 X-9.49337 Y6.25552
G01 X-9.48947 Y6.30487
G01 X-9.48191 Y6.36089
G01 X-9.47240 Y6.41205
G01 X-9.45831 Y6.46989
G01 X-9.44215 Y6.52430
G01 X-9.42027 Y6.58540
G01 X-9.40844 Y6.61503
G01 X-9.39569 Y6.64460
G01 X-9.38201 Y6.67419
G01 X-9.36738 Y6.70381
G01 X-9.34648 Y6.74370
G01 X-9.32785 Y6.77684
G01 X-9.30807 Y6.80998
G01 X-9.28711 Y6.84315
G01 X-9.25707 Y6.88823
G01 X-9.22988 Y6.92654
G01 X-9.20116 Y6.96486
G01 X-9.17088 Y7.00319
G01 X-9.12728 Y7.05568
G01 X-9.08699 Y7.10141
G01 X-9.04452 Y7.14715
G01 X-8.99309 Y7.19966
G01 X-8.93451 Y7.25657
G01 X-8.87260 Y7.31346
G01 X-8.80735 Y7.37037
G01 X-8.73873 Y7.42730
G01 X-8.68365 Y7.47133
G01 X-8.63550 Y7.50859
G01 X-8.58594 Y7.54585
G01 X-8.53494 Y7.58313
G01 X-8.48253 Y7.62038
G01 X-8.42869 Y7.65765
G01 X-8.30630 Y7.73897
G01 X-8.22262 Y7.79236
G01 X-8.13610 Y7.84572
G01 X-8.04667 Y7.89909
G01 X-7.95615 Y7.95141
G01 X-7.86432 Y7.92504
G01 X-7.76372 Y7.89354
G01 X-7.65126 Y7.85532
G01 X-7.53878 Y7.81370
G01 X-7.42632 Y7.76871
G01 X-7.31382 Y7.72032
G01 X-7.20311 Y7.66959
G01 X-7.10285 Y7.62078
G01 X-7.11471 Y7.61543
G01 X-7.15850 Y7.45751
G01 X-7.19634 Y7.32634
G01 X-7.43773 Y6.81950
G01 X-7.88633 Y6.32488
G01 X-7.93782 Y6.26905
G01 X-7.98922 Y6.21602
G01 X-8.04060 Y6.16570
G01 X-8.09868 Y6.11205
G01 X-8.19376 Y6.02930
G01 X-8.26784 Y6.00307
G01 X-8.45096 Y5.94404
G01 X-8.50207 Y5.92843
G01 X-8.55017 Y5.91523
G01 X-8.70057 Y5.88042
G01 X-8.75573 Y5.86934
G01 X-8.78471 Y5.86475
G01 X-8.81337 Y5.86124
G01 X-8.92021 Y5.85004
G01 X-8.96033 Y5.84809
G01 X-9.07357 Y5.85008
G01 X-9.11689 Y5.85257
G01 X-9.15383 Y5.85680
G01 X-9.25397 Y5.87188
G01 X-9.30187 Y5.88007
G01 X-9.35079 Y5.89101
G01 X-9.44375 Y5.91531
G01 X-9.45040 Y5.93924
G01 X-9.46262 Y5.99003
G01 X-9.47205 Y6.04081
G01 X-9.47952 Y6.09618
G01 X-9.48339 Y6.14513
G01 X-9.48499 Y6.20000
G01 X-9.48339 Y6.25486
G01 X-9.47952 Y6.30382
G01 X-9.47205 Y6.35919
G01 X-9.46262 Y6.40997
G01 X-9.44868 Y6.46718
G01 X-9.43264 Y6.52120
G01 X-9.41095 Y6.58178
G01 X-9.39920 Y6.61119
G01 X-9.38656 Y6.64053
G01 X-9.37298 Y6.66988
G01 X-9.35845 Y6.69931
G01 X-9.33769 Y6.73892
G01 X-9.31920 Y6.77182
G01 X-9.29955 Y6.80475
G01 X-9.27868 Y6.83777
G01 X-9.24884 Y6.88255
G01 X-9.22180 Y6.92065
G01 X-9.19323 Y6.95875
G01 X-9.16307 Y6.99695
G01 X-9.11969 Y7.04918
G01 X-9.07957 Y7.09470
G01 X-9.03727 Y7.14025
G01 X-8.98607 Y7.19253
G01 X-8.92764 Y7.24930
G01 X-8.86594 Y7.30601
G01 X-8.80087 Y7.36275
G01 X-8.73238 Y7.41957
G01 X-8.67747 Y7.46347
G01 X-8.62944 Y7.50064
G01 X-8.57997 Y7.53783
G01 X-8.52909 Y7.57502
G01 X-8.47678 Y7.61220
G01 X-8.42309 Y7.64937
G01 X-8.31121 Y7.72386
G01 X-8.21732 Y7.78389
G01 X-8.13090 Y7.83718
G01 X-8.04161 Y7.89046
G01 X-7.95482 Y7.94063
G01 X-7.86719 Y7.91546
G01 X-7.76683 Y7.88404
G01 X-7.65465 Y7.84591
G01 X-7.54238 Y7.80437
G01 X-7.43016 Y7.75947
G01 X-7.31783 Y7.71116
G01 X-7.20738 Y7.66055
G01 X-7.11471 Y7.61543
G04 P0 ( dwell for no time -- G64 should not smooth over this point )
G00 Z0.08000 ( retract )

G00 X-8.78195 Y5.32328 ( rapid move to begin. )
G01 F3.00000
G01 Z-0.00800
G04 P0 ( dwell for no time -- G64 should not smooth over this point )
G01 F6.00000
G01 X-8.78195 Y5.32328
G01 X-8.76221 Y5.30672
G01 X-8.98596 Y5.04007
G01 X-8.99452 Y5.04210
G01 X-9.00340 Y5.04232
G01 X-9.01313 Y5.04042
G01 X-9.02078 Y5.03702
G01 X-9.28787 Y5.26113
G01 X-9.24007 Y5.30728
G01 X-9.17094 Y5.35048
G01 X-9.09434 Y5.37836
G01 X-9.01361 Y5.38971
G01 X-8.93229 Y5.38402
G01 X-8.85392 Y5.36155
G01 X-8.78195 Y5.32328
G01 X-8.78757 Y5.31494
G01 X-8.77630 Y5.30549
G01 X-8.98960 Y5.05128
G01 X-8.99556 Y5.05227
G01 X-9.00444 Y5.05227
G01 X-9.01471 Y5.05035
G01 X-9.01918 Y5.04873
G01 X-9.27293 Y5.26165
G01 X-9.23388 Y5.29936
G01 X-9.16653 Y5.34144
G01 X-9.09190 Y5.36860
G01 X-9.01326 Y5.37966
G01 X-8.93403 Y5.37412
G01 X-8.85769 Y5.35223
G01 X-8.78757 Y5.31494
G01 X-8.79319 Y5.30661
G01 X-8.79039 Y5.30426
G01 X-8.99357 Y5.06211
G01 X-9.00549 Y5.06221
G01 X-9.01712 Y5.06005
G01 X-9.25799 Y5.26217
G01 X-9.22769 Y5.29143
G01 X-9.16212 Y5.33240
G01 X-9.08947 Y5.35885
G01 X-9.01291 Y5.36961
G01 X-8.93578 Y5.36422
G01 X-8.86146 Y5.34290
G01 X-8.79319 Y5.30661
G01 X-8.80549 Y5.30182
G01 X-8.86522 Y5.33358
G01 X-8.93752 Y5.35431
G01 X-9.01256 Y5.35956
G01 X-9.08704 Y5.34909
G01 X-9.15772 Y5.32337
G01 X-9.22150 Y5.28351
G01 X-9.24306 Y5.26269
G01 X-9.01445 Y5.07087
G01 X-9.00653 Y5.07216
G01 X-8.99806 Y5.07232
G01 X-8.80549 Y5.30182
G04 P0 ( dwell for no time -- G64 should not smooth over this point )
G00 Z0.08000 ( retract )

G00 X-9.07098 Y4.98542 ( rapid move to begin. )
G01 F3.00000
G01 Z-0.00800
G04 P0 ( dwell for no time -- G64 should not smooth over this point )
G01 F6.00000
G01 X-9.07098 Y4.98542
G01 X-9.26346 Y4.75603
G01 X-9.30511 Y4.80935
G01 X-9.33808 Y4.87695
G01 X-9.35628 Y4.94993
G01 X-9.35890 Y5.02510
G01 X-9.34584 Y5.09917
G01 X-9.31767 Y5.16891
G01 X-9.30091 Y5.19375
G01 X-9.07240 Y5.00200
G01 X-9.07228 Y4.99582
G01 X-9.07098 Y4.98542
G01 X-9.06133 Y4.98803
G01 X-9.06245 Y4.99895
G01 X-9.06200 Y5.00633
G01 X-9.30299 Y5.20855
G01 X-9.32654 Y5.17363
G01 X-9.35551 Y5.10194
G01 X-9.36893 Y5.02580
G01 X-9.36623 Y4.94853
G01 X-9.34753 Y4.87351
G01 X-9.31364 Y4.80402
G01 X-9.26604 Y4.74309
G01 X-9.26323 Y4.74074
G01 X-9.05999 Y4.98296
G01 X-9.06133 Y4.98803
G01 X-9.05145 Y4.98960
G01 X-9.05245 Y5.00105
G01 X-9.05142 Y5.01051
G01 X-9.30507 Y5.22335
G01 X-9.33542 Y5.17835
G01 X-9.36517 Y5.10471
G01 X-9.37896 Y5.02650
G01 X-9.37619 Y4.94713
G01 X-9.35698 Y4.87007
G01 X-9.32216 Y4.79869
G01 X-9.27327 Y4.73611
G01 X-9.26200 Y4.72665
G01 X-9.04877 Y4.98077
G01 X-9.05145 Y4.98960
G01 X-9.04157 Y4.99116
G01 X-9.04245 Y5.00105
G01 X-9.04157 Y5.00884
G01 X-9.03997 Y5.01395
G01 X-9.30715 Y5.23815
G01 X-9.34430 Y5.18307
G01 X-9.37484 Y5.10748
G01 X-9.38899 Y5.02720
G01 X-9.38615 Y4.94573
G01 X-9.36643 Y4.86663
G01 X-9.33069 Y4.79336
G01 X-9.28050 Y4.72912
G01 X-9.26077 Y4.71256
G01 X-9.03693 Y4.97932
G01 X-9.03920 Y4.98369
G01 X-9.04157 Y4.99116
G04 P0 ( dwell for no time -- G64 should not smooth over this point )
G00 Z0.08000 ( retract )

G00 X-8.64110 Y4.97490 ( rapid move to begin. )
G01 F3.00000
G01 Z-0.00800
G04 P0 ( dwell for no time -- G64 should not smooth over this point )
G01 F6.00000
G01 X-8.64110 Y4.97490
G01 X-8.65416 Y4.90083
G01 X-8.68233 Y4.83109
G01 X-8.69909 Y4.80625
G01 X-8.92760 Y4.99800
G01 X-8.92772 Y5.00418
G01 X-8.92902 Y5.01458
G01 X-8.73654 Y5.24397
G01 X-8.69489 Y5.19065
G01 X-8.66192 Y5.12305
G01 X-8.64372 Y5.05007
G01 X-8.64110 Y4.97490
G01 X-8.63107 Y4.97420
G01 X-8.64449 Y4.89806
G01 X-8.67346 Y4.82637
G01 X-8.69701 Y4.79145
G01 X-8.93800 Y4.99367
G01 X-8.93766 Y5.00314
G01 X-8.93867 Y5.01196
G01 X-8.94001 Y5.01704
G01 X-8.73677 Y5.25926
G01 X-8.73396 Y5.25691
G01 X-8.68636 Y5.19598
G01 X-8.65247 Y5.12649
G01 X-8.63376 Y5.05147
G01 X-8.63107 Y4.97420
G01 X-8.62103 Y4.97350
G01 X-8.63483 Y4.89529
G01 X-8.66458 Y4.82165
G01 X-8.69493 Y4.77665
G01 X-8.94858 Y4.98949
G01 X-8.94761 Y5.00209
G01 X-8.94855 Y5.01040
G01 X-8.95123 Y5.01922
G01 X-8.73800 Y5.27335
G01 X-8.72673 Y5.26389
G01 X-8.67783 Y5.20131
G01 X-8.64302 Y5.12993
G01 X-8.62381 Y5.05287
G01 X-8.62103 Y4.97350
G01 X-8.61100 Y4.97280
G01 X-8.62516 Y4.89252
G01 X-8.65570 Y4.81693
G01 X-8.69285 Y4.76185
G01 X-8.96003 Y4.98604
G01 X-8.95843 Y4.99116
G01 X-8.95755 Y5.00105
G01 X-8.95870 Y5.00985
G01 X-8.96080 Y5.01631
G01 X-8.96307 Y5.02068
G01 X-8.73923 Y5.28744
G01 X-8.71950 Y5.27088
G01 X-8.66931 Y5.20664
G01 X-8.63357 Y5.13337
G01 X-8.61385 Y5.05427
G01 X-8.61100 Y4.97280
G04 P0 ( dwell for no time -- G64 should not smooth over this point )
G00 Z0.08000 ( retract )

G00 X-8.71213 Y4.73887 ( rapid move to begin. )
G01 F3.00000
G01 Z-0.00800
G04 P0 ( dwell for no time -- G64 should not smooth over this point )
G01 F6.00000
G01 X-8.71213 Y4.73887
G01 X-8.75993 Y4.69272
G01 X-8.82906 Y4.64952
G01 X-8.90566 Y4.62164
G01 X-8.98639 Y4.61029
G01 X-9.06771 Y4.61598
G01 X-9.14608 Y4.63845
G01 X-9.21805 Y4.67672
G01 X-9.23779 Y4.69328
G01 X-9.01404 Y4.95993
G01 X-9.00548 Y4.95790
G01 X-8.99660 Y4.95768
G01 X-8.98687 Y4.95958
G01 X-8.97922 Y4.96298
G01 X-8.71213 Y4.73887
G01 X-8.72707 Y4.73835
G01 X-8.76612 Y4.70064
G01 X-8.83347 Y4.65856
G01 X-8.90810 Y4.63139
G01 X-8.98674 Y4.62034
G01 X-9.06597 Y4.62588
G01 X-9.14231 Y4.64777
G01 X-9.21243 Y4.68506
G01 X-9.22370 Y4.69451
G01 X-9.01040 Y4.94872
G01 X-9.00444 Y4.94773
G01 X-8.99556 Y4.94773
G01 X-8.98529 Y4.94965
G01 X-8.98082 Y4.95127
G01 X-8.72707 Y4.73835
G01 X-8.74201 Y4.73783
G01 X-8.77231 Y4.70857
G01 X-8.83788 Y4.66759
G01 X-8.91053 Y4.64115
G01 X-8.98709 Y4.63039
G01 X-9.06422 Y4.63578
G01 X-9.13854 Y4.65709
G01 X-9.20681 Y4.69339
G01 X-9.20961 Y4.69574
G01 X-9.00643 Y4.93789
G01 X-8.99451 Y4.93779
G01 X-8.98288 Y4.93995
G01 X-8.74201 Y4.73783
G01 X-8.75694 Y4.73731
G01 X-8.77850 Y4.71649
G01 X-8.84228 Y4.67663
G01 X-8.91296 Y4.65091
G01 X-8.98744 Y4.64044
G01 X-9.06247 Y4.64569
G01 X-9.13477 Y4.66642
G01 X-9.19451 Y4.69818
G01 X-9.00194 Y4.92768
G01 X-8.99347 Y4.92784
G01 X-8.98555 Y4.92913
G01 X-8.75694 Y4.73731
G04 P0 ( dwell for no time -- G64 should not smooth over this point )
G00 Z0.08000 ( retract )

G00 X-7.30547 Y2.44720 ( rapid move to begin. )
G01 F3.00000
G01 Z-0.00800
G04 P0 ( dwell for no time -- G64 should not smooth over this point )
G01 F6.00000
G01 X-7.30547 Y2.44720
G01 X-7.33023 Y3.47325
G01 X-7.33514 Y3.61794
G01 X-7.34269 Y3.75536
G01 X-7.34746 Y3.82128
G01 X-7.35289 Y3.88538
G01 X-7.35899 Y3.94769
G01 X-7.36575 Y4.00818
G01 X-7.37316 Y4.06680
G01 X-7.38124 Y4.12361
G01 X-7.38999 Y4.17863
G01 X-7.39939 Y4.23177
G01 X-7.40945 Y4.28312
G01 X-7.42017 Y4.33263
G01 X-7.43156 Y4.38031
G01 X-7.44361 Y4.42620
G01 X-7.47771 Y4.55008
G01 X-7.48864 Y4.59262
G01 X-7.49768 Y4.63392
G01 X-7.50491 Y4.67435
G01 X-7.51029 Y4.71373
G01 X-7.51381 Y4.75205
G01 X-7.51548 Y4.78933
G01 X-7.51529 Y4.82581
G01 X-7.51324 Y4.86086
G01 X-7.48792 Y5.15461
G01 X-7.48397 Y5.19072
G01 X-7.47819 Y5.22806
G01 X-7.43476 Y5.47437
G01 X-7.42843 Y5.51362
G01 X-7.42306 Y5.55401
G01 X-7.41866 Y5.59558
G01 X-7.41522 Y5.63830
G01 X-7.41276 Y5.68216
G01 X-7.41125 Y5.72719
G01 X-7.41072 Y5.77341
G01 X-7.41116 Y5.82077
G01 X-7.42990 Y6.79839
G01 X-7.87154 Y6.31142
G01 X-7.92333 Y6.25526
G01 X-7.97509 Y6.20186
G01 X-8.02685 Y6.15117
G01 X-8.08541 Y6.09709
G01 X-8.18173 Y6.01326
G01 X-8.24820 Y5.79125
G01 X-8.29334 Y5.61344
G01 X-8.30299 Y5.57284
G01 X-8.31098 Y5.53357
G01 X-8.31732 Y5.49561
G01 X-8.32202 Y5.45891
G01 X-8.33029 Y5.38191
G01 X-8.33334 Y5.33941
G01 X-8.33601 Y5.26309
G01 X-8.33744 Y5.23933
G01 X-8.34003 Y5.21648
G01 X-8.35574 Y5.10472
G01 X-8.35842 Y5.08868
G01 X-8.36827 Y5.04271
G01 X-8.37081 Y5.01846
G01 X-8.37101 Y4.99432
G01 X-8.36884 Y4.97013
G01 X-8.36503 Y4.94270
G01 X-8.34593 Y4.83333
G01 X-8.34292 Y4.81305
G01 X-8.34096 Y4.79246
G01 X-8.33285 Y4.67638
G01 X-8.32852 Y4.58952
G01 X-8.32603 Y4.56366
G01 X-8.32258 Y4.53713
G01 X-8.31817 Y4.50997
G01 X-8.30055 Y4.42475
G01 X-8.26988 Y4.28459
G01 X-8.25021 Y4.20950
G01 X-8.22674 Y4.13044
G01 X-8.12022 Y3.79006
G01 X-8.09428 Y3.70529
G01 X-8.06835 Y3.61676
G01 X-7.96382 Y3.25223
G01 X-7.91698 Y3.08415
G01 X-7.87017 Y2.90677
G01 X-7.79671 Y2.62108
G01 X-7.74505 Y2.57172
G01 X-7.69113 Y2.52136
G01 X-7.63603 Y2.47104
G01 X-7.58127 Y2.42210
G01 X-7.51274 Y2.42682
G01 X-7.44216 Y2.43273
G01 X-7.37154 Y2.43970
G01 X-7.30547 Y2.44720
G01 X-7.31569 Y2.45610
G01 X-7.34023 Y3.47299
G01 X-7.34513 Y3.61750
G01 X-7.35267 Y3.75470
G01 X-7.35743 Y3.82050
G01 X-7.36285 Y3.88449
G01 X-7.36894 Y3.94667
G01 X-7.37568 Y4.00697
G01 X-7.38308 Y4.06549
G01 X-7.39114 Y4.12215
G01 X-7.39985 Y4.17695
G01 X-7.40922 Y4.22995
G01 X-7.41925 Y4.28110
G01 X-7.42993 Y4.33042
G01 X-7.44126 Y4.37789
G01 X-7.45326 Y4.42360
G01 X-7.48739 Y4.54759
G01 X-7.49828 Y4.58996
G01 X-7.50744 Y4.63179
G01 X-7.51475 Y4.67259
G01 X-7.52020 Y4.71237
G01 X-7.52377 Y4.75114
G01 X-7.52547 Y4.78888
G01 X-7.52529 Y4.82560
G01 X-7.52320 Y4.86172
G01 X-7.49789 Y5.15547
G01 X-7.49391 Y5.19181
G01 X-7.48804 Y5.22980
G01 X-7.44462 Y5.47604
G01 X-7.43832 Y5.51509
G01 X-7.43299 Y5.55521
G01 X-7.42862 Y5.59649
G01 X-7.42520 Y5.63896
G01 X-7.42275 Y5.68260
G01 X-7.42125 Y5.72742
G01 X-7.42072 Y5.77341
G01 X-7.42116 Y5.82066
G01 X-7.43942 Y6.77307
G01 X-7.86412 Y6.30472
G01 X-7.91615 Y6.24831
G01 X-7.96781 Y6.19500
G01 X-8.02006 Y6.14384
G01 X-8.07868 Y6.08969
G01 X-8.17301 Y6.00758
G01 X-8.23856 Y5.78860
G01 X-8.28363 Y5.61105
G01 X-8.29323 Y5.57067
G01 X-8.30114 Y5.53175
G01 X-8.30743 Y5.49414
G01 X-8.31209 Y5.45773
G01 X-8.32033 Y5.38102
G01 X-8.32336 Y5.33887
G01 X-8.32601 Y5.26274
G01 X-8.32751 Y5.23820
G01 X-8.33012 Y5.21509
G01 X-8.34587 Y5.10307
G01 X-8.34865 Y5.08652
G01 X-8.35837 Y5.04119
G01 X-8.36082 Y5.01790
G01 X-8.36100 Y4.99473
G01 X-8.35890 Y4.97128
G01 X-8.35514 Y4.94419
G01 X-8.33609 Y4.83507
G01 X-8.33297 Y4.81400
G01 X-8.33099 Y4.79316
G01 X-8.32287 Y4.67715
G01 X-8.31855 Y4.59030
G01 X-8.31609 Y4.56478
G01 X-8.31268 Y4.53857
G01 X-8.30833 Y4.51178
G01 X-8.29077 Y4.42683
G01 X-8.26015 Y4.28692
G01 X-8.24057 Y4.21219
G01 X-8.21718 Y4.13337
G01 X-8.11068 Y3.79307
G01 X-8.08469 Y3.70810
G01 X-8.05874 Y3.61952
G01 X-7.95418 Y3.25488
G01 X-7.90731 Y3.08671
G01 X-7.86047 Y2.90923
G01 X-7.78774 Y2.62633
G01 X-7.73817 Y2.57897
G01 X-7.68436 Y2.52873
G01 X-7.57775 Y2.43237
G01 X-7.51351 Y2.43679
G01 X-7.44307 Y2.44269
G01 X-7.37260 Y2.44964
G01 X-7.31569 Y2.45610
G04 P0 ( dwell for no time -- G64 should not smooth over this point )
G00 Z0.08000 ( retract )

G00 X-7.80915 Y2.62930 ( rapid move to begin. )
G01 F3.00000
G01 Z-0.00800
G04 P0 ( dwell for no time -- G64 should not smooth over this point )
G01 F6.00000
G01 X-7.80915 Y2.62930
G01 X-7.87983 Y2.90422
G01 X-7.92664 Y3.08156
G01 X-7.97344 Y3.24947
G01 X-8.07796 Y3.61398
G01 X-8.10387 Y3.70246
G01 X-8.12977 Y3.78710
G01 X-8.23630 Y4.12749
G01 X-8.25986 Y4.20689
G01 X-8.27962 Y4.28234
G01 X-8.30694 Y4.40677
G01 X-8.32798 Y4.50805
G01 X-8.33249 Y4.53576
G01 X-8.33598 Y4.56262
G01 X-8.33849 Y4.58883
G01 X-8.34003 Y4.61422
G01 X-8.34283 Y4.67579
G01 X-8.35093 Y4.79169
G01 X-8.35287 Y4.81197
G01 X-8.35579 Y4.83166
G01 X-8.37329 Y4.93089
G01 X-8.37876 Y4.96888
G01 X-8.38101 Y4.99416
G01 X-8.38078 Y5.01927
G01 X-8.37812 Y5.04445
G01 X-8.36821 Y5.09071
G01 X-8.36561 Y5.10629
G01 X-8.34994 Y5.21781
G01 X-8.34740 Y5.24032
G01 X-8.34600 Y5.26349
G01 X-8.34333 Y5.33985
G01 X-8.34024 Y5.38289
G01 X-8.33194 Y5.46013
G01 X-8.32723 Y5.49697
G01 X-8.32080 Y5.53548
G01 X-8.31274 Y5.57507
G01 X-8.30307 Y5.61579
G01 X-8.25787 Y5.79381
G01 X-8.19376 Y6.00808
G01 X-8.26155 Y5.98408
G01 X-8.44492 Y5.92498
G01 X-8.49644 Y5.90924
G01 X-8.54528 Y5.89584
G01 X-8.69624 Y5.86090
G01 X-8.75239 Y5.84962
G01 X-8.78185 Y5.84495
G01 X-8.81108 Y5.84137
G01 X-8.91854 Y5.83012
G01 X-8.96007 Y5.82809
G01 X-8.99415 Y5.82828
G01 X-9.07420 Y5.83009
G01 X-9.11851 Y5.83263
G01 X-9.15630 Y5.83695
G01 X-9.25703 Y5.85212
G01 X-9.30587 Y5.86047
G01 X-9.35545 Y5.87156
G01 X-9.45346 Y5.89718
G01 X-9.47403 Y5.86172
G01 X-9.53192 Y5.75730
G01 X-9.55418 Y5.71464
G01 X-9.57366 Y5.67200
G01 X-9.61953 Y5.56452
G01 X-9.63005 Y5.53736
G01 X-9.64250 Y5.50156
G01 X-9.67510 Y5.39415
G01 X-9.68319 Y5.36506
G01 X-9.68966 Y5.33595
G01 X-9.70994 Y5.23157
G01 X-9.71428 Y5.20574
G01 X-9.71723 Y5.17991
G01 X-9.72636 Y5.07551
G01 X-9.72785 Y5.05112
G01 X-9.72807 Y5.02671
G01 X-9.72625 Y4.92232
G01 X-9.72517 Y4.89764
G01 X-9.72279 Y4.87295
G01 X-9.70997 Y4.76857
G01 X-9.70597 Y4.74186
G01 X-9.70053 Y4.71516
G01 X-9.67642 Y4.61076
G01 X-9.66848 Y4.58012
G01 X-9.65880 Y4.54948
G01 X-9.62284 Y4.44506
G01 X-9.60902 Y4.40818
G01 X-9.56737 Y4.31286
G01 X-9.52105 Y4.22049
G01 X-9.49505 Y4.17467
G01 X-9.43230 Y4.07023
G01 X-9.41389 Y4.04053
G01 X-9.39435 Y4.01085
G01 X-9.37369 Y3.98118
G01 X-9.35186 Y3.95146
G01 X-9.27315 Y3.84700
G01 X-9.24264 Y3.80768
G01 X-9.21038 Y3.76837
G01 X-9.17638 Y3.72908
G01 X-9.14056 Y3.68972
G01 X-9.04316 Y3.58527
G01 X-8.99173 Y3.53169
G01 X-8.93743 Y3.47815
G01 X-8.88019 Y3.42458
G01 X-8.82000 Y3.37099
G01 X-8.69980 Y3.26651
G01 X-8.65570 Y3.22875
G01 X-8.61032 Y3.19100
G01 X-8.56360 Y3.15324
G01 X-8.51562 Y3.11551
G01 X-8.41564 Y3.04000
G01 X-8.31037 Y2.96445
G01 X-8.16114 Y2.85996
G01 X-8.07495 Y2.80065
G01 X-7.98579 Y2.74133
G01 X-7.89368 Y2.68202
G01 X-7.80915 Y2.62930
G01 X-7.82506 Y2.65101
G01 X-7.88830 Y2.69046
G01 X-7.98033 Y2.74971
G01 X-8.06934 Y2.80893
G01 X-8.15543 Y2.86817
G01 X-8.30460 Y2.97262
G01 X-8.40971 Y3.04805
G01 X-8.50950 Y3.12343
G01 X-8.55739 Y3.16107
G01 X-8.60397 Y3.19873
G01 X-8.64926 Y3.23639
G01 X-8.69325 Y3.27407
G01 X-8.81339 Y3.37851
G01 X-8.87344 Y3.43197
G01 X-8.93049 Y3.48535
G01 X-8.98462 Y3.53872
G01 X-9.03588 Y3.59213
G01 X-9.13323 Y3.69652
G01 X-9.16889 Y3.73571
G01 X-9.20274 Y3.77482
G01 X-9.23482 Y3.81391
G01 X-9.26520 Y3.85306
G01 X-9.34385 Y3.95743
G01 X-9.36556 Y3.98700
G01 X-9.38607 Y4.01645
G01 X-9.40546 Y4.04591
G01 X-9.48642 Y4.17971
G01 X-9.51223 Y4.22520
G01 X-9.56284 Y4.32682
G01 X-9.59975 Y4.41194
G01 X-9.61343 Y4.44845
G01 X-9.64930 Y4.55260
G01 X-9.65886 Y4.58288
G01 X-9.66671 Y4.61313
G01 X-9.69075 Y4.71728
G01 X-9.69612 Y4.74360
G01 X-9.70006 Y4.76992
G01 X-9.71284 Y4.87405
G01 X-9.71519 Y4.89834
G01 X-9.71625 Y4.92263
G01 X-9.71807 Y5.02676
G01 X-9.71786 Y5.05077
G01 X-9.71639 Y5.07478
G01 X-9.70728 Y5.17891
G01 X-9.70437 Y5.20434
G01 X-9.70010 Y5.22979
G01 X-9.67986 Y5.33392
G01 X-9.67348 Y5.36263
G01 X-9.66550 Y5.39135
G01 X-9.63297 Y5.49852
G01 X-9.62423 Y5.52411
G01 X-9.61028 Y5.56073
G01 X-9.56451 Y5.66797
G01 X-9.54519 Y5.71025
G01 X-9.52311 Y5.75256
G01 X-9.46532 Y5.85680
G01 X-9.44863 Y5.88557
G01 X-9.35787 Y5.86186
G01 X-9.30805 Y5.85071
G01 X-9.25850 Y5.84223
G01 X-9.15744 Y5.82702
G01 X-9.11912 Y5.82265
G01 X-9.07448 Y5.82010
G01 X-8.99453 Y5.81829
G01 X-8.96013 Y5.81809
G01 X-8.91762 Y5.82016
G01 X-8.80987 Y5.83145
G01 X-8.78028 Y5.83507
G01 X-8.75065 Y5.83977
G01 X-8.69398 Y5.85116
G01 X-8.54294 Y5.88612
G01 X-8.49368 Y5.89963
G01 X-8.44208 Y5.91539
G01 X-8.25852 Y5.97455
G01 X-8.20910 Y5.99204
G01 X-8.26756 Y5.79627
G01 X-8.31279 Y5.61810
G01 X-8.32247 Y5.57738
G01 X-8.33060 Y5.53747
G01 X-8.33715 Y5.49824
G01 X-8.34186 Y5.46140
G01 X-8.35018 Y5.38396
G01 X-8.35333 Y5.34020
G01 X-8.35599 Y5.26398
G01 X-8.35736 Y5.24118
G01 X-8.35986 Y5.21907
G01 X-8.37550 Y5.10782
G01 X-8.37803 Y5.09261
G01 X-8.38792 Y5.04642
G01 X-8.39073 Y5.02031
G01 X-8.39101 Y4.99423
G01 X-8.38866 Y4.96751
G01 X-8.38316 Y4.92934
G01 X-8.36566 Y4.83007
G01 X-8.36280 Y4.81076
G01 X-8.36090 Y4.79088
G01 X-8.35281 Y4.67515
G01 X-8.34848 Y4.58823
G01 X-8.34587 Y4.56116
G01 X-8.34233 Y4.53400
G01 X-8.33778 Y4.50603
G01 X-8.31673 Y4.40472
G01 X-8.28939 Y4.28020
G01 X-8.26954 Y4.20436
G01 X-8.24584 Y4.12450
G01 X-8.13932 Y3.78415
G01 X-8.11345 Y3.69958
G01 X-8.08756 Y3.61117
G01 X-7.98306 Y3.24675
G01 X-7.93629 Y3.07894
G01 X-7.88951 Y2.90168
G01 X-7.82506 Y2.65101
G04 P0 ( dwell for no time -- G64 should not smooth over this point )
G00 Z0.08000 ( retract )

G00 X-6.66605 Y4.73351 ( rapid move to begin. )
G01 F3.00000
G01 Z-0.00800
G04 P0 ( dwell for no time -- G64 should not smooth over this point )
G01 F6.00000
G01 X-6.66605 Y4.73351
G01 X-6.66860 Y4.76872
G01 X-6.67407 Y4.80209
G01 X-6.67791 Y4.81830
G01 X-6.79284 Y5.18414
G01 X-6.79788 Y5.20239
G01 X-6.80151 Y5.22038
G01 X-6.80388 Y5.23857
G01 X-6.80498 Y5.25646
G01 X-6.81246 Y5.52651
G01 X-6.81562 Y5.59348
G01 X-6.82153 Y5.66631
G01 X-6.83023 Y5.74521
G01 X-6.84171 Y5.83012
G01 X-6.85597 Y5.92105
G01 X-6.87302 Y6.01800
G01 X-6.89285 Y6.12093
G01 X-6.91547 Y6.22987
G01 X-6.94087 Y6.34481
G01 X-6.96905 Y6.46569
G01 X-7.00003 Y6.59260
G01 X-7.03379 Y6.72548
G01 X-7.07033 Y6.86432
G01 X-7.10967 Y7.00920
G01 X-7.15178 Y7.15999
G01 X-7.18580 Y7.27881
G01 X-7.41008 Y6.80780
G01 X-7.39116 Y5.82115
G01 X-7.39072 Y5.77323
G01 X-7.39126 Y5.72659
G01 X-7.39277 Y5.68144
G01 X-7.39526 Y5.63710
G01 X-7.39876 Y5.59352
G01 X-7.40318 Y5.55184
G01 X-7.40861 Y5.51092
G01 X-7.41506 Y5.47092
G01 X-7.45847 Y5.22476
G01 X-7.46412 Y5.18821
G01 X-7.46801 Y5.15272
G01 X-7.49329 Y4.85934
G01 X-7.49530 Y4.82505
G01 X-7.49549 Y4.78984
G01 X-7.49386 Y4.75353
G01 X-7.49043 Y4.71610
G01 X-7.48516 Y4.67756
G01 X-7.47807 Y4.63791
G01 X-7.46915 Y4.59715
G01 X-7.45837 Y4.55517
G01 X-7.42427 Y4.43130
G01 X-7.41212 Y4.38501
G01 X-7.40071 Y4.33722
G01 X-7.38983 Y4.28702
G01 X-7.37975 Y4.23559
G01 X-7.37024 Y4.18180
G01 X-7.36149 Y4.12673
G01 X-7.35336 Y4.06959
G01 X-7.34588 Y4.01042
G01 X-7.33909 Y3.94968
G01 X-7.33297 Y3.88712
G01 X-7.32753 Y3.82293
G01 X-7.32272 Y3.75648
G01 X-7.31515 Y3.61869
G01 X-7.31024 Y3.47392
G01 X-7.28569 Y2.45656
G01 X-7.18645 Y2.44815
G01 X-7.07400 Y2.44128
G01 X-6.96153 Y2.43706
G01 X-6.86027 Y2.43566
G01 X-6.76593 Y2.75678
G01 X-6.66647 Y4.69668
G01 X-6.66605 Y4.73351
G01 X-6.65604 Y4.73382
G01 X-6.65865 Y4.76977
G01 X-6.66109 Y4.78712
G01 X-6.66428 Y4.80416
G01 X-6.66824 Y4.82084
G01 X-6.78330 Y5.18715
G01 X-6.78808 Y5.20439
G01 X-6.79160 Y5.22169
G01 X-6.79387 Y5.23885
G01 X-6.79499 Y5.25674
G01 X-6.80247 Y5.52688
G01 X-6.80563 Y5.59410
G01 X-6.81158 Y5.66727
G01 X-6.82031 Y5.74643
G01 X-6.83181 Y5.83156
G01 X-6.84611 Y5.92270
G01 X-6.86318 Y6.01980
G01 X-6.88304 Y6.12291
G01 X-6.90568 Y6.23195
G01 X-6.93112 Y6.34701
G01 X-6.95933 Y6.46805
G01 X-6.99033 Y6.59504
G01 X-7.02410 Y6.72797
G01 X-7.06067 Y6.86691
G01 X-7.10002 Y7.01183
G01 X-7.14216 Y7.16273
G01 X-7.18345 Y7.30693
G01 X-7.42012 Y6.80996
G01 X-7.40116 Y5.82091
G01 X-7.40072 Y5.77334
G01 X-7.40126 Y5.72703
G01 X-7.40276 Y5.68177
G01 X-7.40525 Y5.63754
G01 X-7.40869 Y5.59470
G01 X-7.41312 Y5.55289
G01 X-7.41854 Y5.51210
G01 X-7.42491 Y5.47265
G01 X-7.46833 Y5.22638
G01 X-7.47404 Y5.18952
G01 X-7.47797 Y5.15372
G01 X-7.50327 Y4.86006
G01 X-7.50530 Y4.82537
G01 X-7.50549 Y4.78965
G01 X-7.50384 Y4.75284
G01 X-7.50036 Y4.71497
G01 X-7.49505 Y4.67601
G01 X-7.48789 Y4.63598
G01 X-7.47889 Y4.59485
G01 X-7.46803 Y4.55260
G01 X-7.43394 Y4.42876
G01 X-7.42184 Y4.38269
G01 X-7.41043 Y4.33490
G01 X-7.39965 Y4.28509
G01 X-7.38957 Y4.23366
G01 X-7.38012 Y4.18023
G01 X-7.37136 Y4.12516
G01 X-7.36326 Y4.06818
G01 X-7.35582 Y4.00938
G01 X-7.34905 Y3.94877
G01 X-7.34293 Y3.88627
G01 X-7.33749 Y3.82203
G01 X-7.33271 Y3.75593
G01 X-7.32514 Y3.61835
G01 X-7.32024 Y3.47358
G01 X-7.29547 Y2.44735
G01 X-7.18719 Y2.43818
G01 X-7.07448 Y2.43129
G01 X-6.96178 Y2.42707
G01 X-6.85282 Y2.42556
G01 X-6.75600 Y2.75509
G01 X-6.65648 Y4.69637
G01 X-6.65604 Y4.73382
G04 P0 ( dwell for no time -- G64 should not smooth over this point )
G00 Z0.08000 ( retract )

G00 X-4.17040 Y2.47039 ( rapid move to begin. )
G01 F3.00000
G01 Z-0.00800
G04 P0 ( dwell for no time -- G64 should not smooth over this point )
G01 F6.00000
G01 X-4.17040 Y2.47039
G01 X-4.37104 Y3.22130
G01 X-4.40474 Y3.35284
G01 X-4.43448 Y3.48034
G01 X-4.46022 Y3.60358
G01 X-4.48217 Y3.72356
G01 X-4.49161 Y3.78175
G01 X-4.50010 Y3.83917
G01 X-4.50764 Y3.89584
G01 X-4.51417 Y3.95132
G01 X-4.51971 Y4.00583
G01 X-4.52427 Y4.05937
G01 X-4.52785 Y4.11195
G01 X-4.53043 Y4.16327
G01 X-4.51500 Y4.34479
G01 X-4.51500 Y4.63514
G01 X-4.51807 Y4.66932
G01 X-4.53841 Y4.83989
G01 X-4.55040 Y4.94610
G01 X-4.56994 Y5.13961
G01 X-4.58007 Y5.25368
G01 X-4.59011 Y5.37685
G01 X-4.60466 Y5.56933
G01 X-4.61022 Y5.62915
G01 X-4.61966 Y5.71924
G01 X-4.61735 Y5.76953
G01 X-4.61391 Y5.82125
G01 X-4.60933 Y5.87434
G01 X-4.60368 Y5.92797
G01 X-4.59686 Y5.98324
G01 X-4.58899 Y6.03910
G01 X-4.57997 Y6.09631
G01 X-4.56981 Y6.15473
G01 X-4.32013 Y7.52933
G01 X-4.38203 Y7.54291
G01 X-4.45791 Y7.55831
G01 X-4.53378 Y7.57246
G01 X-4.60967 Y7.58537
G01 X-4.68553 Y7.59701
G01 X-4.76141 Y7.60740
G01 X-4.83729 Y7.61655
G01 X-4.91316 Y7.62444
G01 X-4.98902 Y7.63108
G01 X-5.06492 Y7.63647
G01 X-5.14078 Y7.64060
G01 X-5.21664 Y7.64349
G01 X-5.29253 Y7.64512
G01 X-5.36838 Y7.64550
G01 X-5.44427 Y7.64463
G01 X-5.50728 Y7.64287
G01 X-5.72812 Y5.74105
G01 X-5.73325 Y5.70178
G01 X-5.73937 Y5.66373
G01 X-5.81748 Y5.22074
G01 X-5.81583 Y5.18849
G01 X-5.81580 Y5.15656
G01 X-5.81731 Y5.12211
G01 X-5.81985 Y5.09737
G01 X-5.82392 Y5.07006
G01 X-5.82973 Y5.04350
G01 X-5.83846 Y5.01390
G01 X-5.85092 Y4.98272
G01 X-5.86496 Y4.95602
G01 X-5.88471 Y4.92726
G01 X-5.89776 Y4.91197
G01 X-5.91629 Y4.89387
G01 X-5.93828 Y4.87648
G01 X-5.96889 Y4.85775
G01 X-6.02456 Y4.83159
G01 X-6.03368 Y4.82212
G01 X-6.04401 Y4.81006
G01 X-6.05397 Y4.79708
G01 X-6.06356 Y4.78315
G01 X-6.07277 Y4.76829
G01 X-6.08151 Y4.75261
G01 X-6.09806 Y4.71797
G01 X-6.11294 Y4.67968
G01 X-6.12620 Y4.63758
G01 X-6.13782 Y4.59166
G01 X-6.14779 Y4.54180
G01 X-6.19631 Y4.26660
G01 X-6.21097 Y4.19150
G01 X-6.22890 Y4.11350
G01 X-6.25044 Y4.03128
G01 X-6.27514 Y3.94652
G01 X-6.30333 Y3.85801
G01 X-6.33501 Y3.76586
G01 X-6.36986 Y3.67095
G01 X-6.40820 Y3.57238
G01 X-6.73685 Y2.74934
G01 X-6.83042 Y2.43083
G01 X-6.76088 Y2.41121
G01 X-6.67684 Y2.38912
G01 X-6.59284 Y2.36865
G01 X-6.50883 Y2.34979
G01 X-6.42480 Y2.33253
G01 X-6.34082 Y2.31689
G01 X-6.25681 Y2.30285
G01 X-6.17279 Y2.29042
G01 X-6.08880 Y2.27960
G01 X-6.00482 Y2.27039
G01 X-5.92082 Y2.26278
G01 X-5.83682 Y2.25679
G01 X-5.75283 Y2.25240
G01 X-5.66884 Y2.24962
G01 X-5.58485 Y2.24845
G01 X-5.50086 Y2.24889
G01 X-5.41687 Y2.25093
G01 X-5.33288 Y2.25459
G01 X-5.24891 Y2.25984
G01 X-5.16488 Y2.26672
G01 X-5.08090 Y2.27519
G01 X-4.99692 Y2.28528
G01 X-4.91290 Y2.29698
G01 X-4.82889 Y2.31028
G01 X-4.74489 Y2.32519
G01 X-4.66089 Y2.34171
G01 X-4.57688 Y2.35984
G01 X-4.49287 Y2.37958
G01 X-4.40883 Y2.40094
G01 X-4.32482 Y2.42389
G01 X-4.24083 Y2.44845
G01 X-4.17040 Y2.47039
G01 X-4.15827 Y2.46370
G01 X-4.36137 Y3.22388
G01 X-4.39500 Y3.35512
G01 X-4.42467 Y3.48228
G01 X-4.45043 Y3.60563
G01 X-4.47230 Y3.72517
G01 X-4.48174 Y3.78335
G01 X-4.49022 Y3.84070
G01 X-4.49770 Y3.89693
G01 X-4.50421 Y3.95225
G01 X-4.50975 Y4.00668
G01 X-4.51430 Y4.06005
G01 X-4.51786 Y4.11236
G01 X-4.52044 Y4.16378
G01 X-4.50500 Y4.34443
G01 X-4.50500 Y4.63560
G01 X-4.50812 Y4.67034
G01 X-4.52847 Y4.84103
G01 X-4.54047 Y4.94724
G01 X-4.55998 Y5.14051
G01 X-4.57011 Y5.25454
G01 X-4.58014 Y5.37762
G01 X-4.59469 Y5.57017
G01 X-4.60027 Y5.63013
G01 X-4.60967 Y5.71878
G01 X-4.60736 Y5.76907
G01 X-4.60393 Y5.82059
G01 X-4.59938 Y5.87330
G01 X-4.59373 Y5.92702
G01 X-4.58697 Y5.98176
G01 X-4.57909 Y6.03770
G01 X-4.57009 Y6.09475
G01 X-4.55998 Y6.15290
G01 X-4.30856 Y7.53703
G01 X-4.37993 Y7.55269
G01 X-4.45598 Y7.56813
G01 X-4.53201 Y7.58231
G01 X-4.60804 Y7.59523
G01 X-4.68411 Y7.60691
G01 X-4.76014 Y7.61732
G01 X-4.83620 Y7.62649
G01 X-4.91219 Y7.63439
G01 X-4.98825 Y7.64105
G01 X-5.06430 Y7.64645
G01 X-5.14032 Y7.65059
G01 X-5.21634 Y7.65348
G01 X-5.29240 Y7.65512
G01 X-5.36845 Y7.65550
G01 X-5.44447 Y7.65463
G01 X-5.51622 Y7.65262
G01 X-5.73803 Y5.74242
G01 X-5.74313 Y5.70337
G01 X-5.74920 Y5.66554
G01 X-5.82752 Y5.22136
G01 X-5.82583 Y5.18848
G01 X-5.82580 Y5.15682
G01 X-5.82730 Y5.12261
G01 X-5.82977 Y5.09868
G01 X-5.83380 Y5.07161
G01 X-5.83946 Y5.04584
G01 X-5.84788 Y5.01724
G01 X-5.85994 Y4.98702
G01 X-5.87349 Y4.96124
G01 X-5.89264 Y4.93335
G01 X-5.90501 Y4.91886
G01 X-5.92317 Y4.90113
G01 X-5.94395 Y4.88472
G01 X-5.97366 Y4.86654
G01 X-6.03051 Y4.83984
G01 X-6.04108 Y4.82884
G01 X-6.05178 Y4.81636
G01 X-6.06206 Y4.80296
G01 X-6.07193 Y4.78863
G01 X-6.08138 Y4.77337
G01 X-6.09040 Y4.75720
G01 X-6.10724 Y4.72195
G01 X-6.12239 Y4.68300
G01 X-6.13583 Y4.64030
G01 X-6.14757 Y4.59387
G01 X-6.15761 Y4.54366
G01 X-6.20613 Y4.26851
G01 X-6.22068 Y4.19390
G01 X-6.23865 Y4.11574
G01 X-6.26004 Y4.03408
G01 X-6.28474 Y3.94931
G01 X-6.31286 Y3.86105
G01 X-6.34440 Y3.76931
G01 X-6.37928 Y3.67430
G01 X-6.41752 Y3.57600
G01 X-6.74631 Y2.75261
G01 X-6.84287 Y2.42394
G01 X-6.76350 Y2.40156
G01 X-6.67929 Y2.37943
G01 X-6.59512 Y2.35892
G01 X-6.51092 Y2.34001
G01 X-6.42675 Y2.32272
G01 X-6.34256 Y2.30704
G01 X-6.25838 Y2.29297
G01 X-6.17419 Y2.28051
G01 X-6.08998 Y2.26967
G01 X-6.00580 Y2.26044
G01 X-5.92163 Y2.25281
G01 X-5.83745 Y2.24681
G01 X-5.75328 Y2.24241
G01 X-5.66908 Y2.23962
G01 X-5.58491 Y2.23845
G01 X-5.50071 Y2.23889
G01 X-5.41653 Y2.24094
G01 X-5.33236 Y2.24460
G01 X-5.24816 Y2.24987
G01 X-5.16398 Y2.25676
G01 X-5.07981 Y2.26525
G01 X-4.99562 Y2.27536
G01 X-4.91144 Y2.28708
G01 X-4.82723 Y2.30042
G01 X-4.74305 Y2.31536
G01 X-4.65888 Y2.33192
G01 X-4.57468 Y2.35009
G01 X-4.49048 Y2.36987
G01 X-4.40630 Y2.39126
G01 X-4.32209 Y2.41427
G01 X-4.23791 Y2.43889
G01 X-4.15827 Y2.46370

G04 P0 ( dwell for no time -- G64 should not smooth over this point )
G00 Z1.000 ( retract )

M5 ( Spindle off. )
G04 P1.000000
M9 ( Coolant off. )
M2 ( Program end. )

