( pcb2gcode 2.5.0 )
( Software-independent Gcode )

G94 ( Inches per minute feed rate. )
G20 ( Units == INCHES. )

G90 ( Absolute coordinates. )
G00 S30000 ( RPM spindle speed. )
G64 P0.00040 ( set maximum deviation from commanded toolpath )
G01 F6.00000 ( Feedrate. )


G00 Z1.00000 (Retract to tool change height)
T1
M5      (Spindle stop.)
G04 P1.00000 (Wait for spindle to stop)
(MSG, Change tool bit to mill diameter 0.02000in)
M6      (Tool change.)
M0      (Temporary machine stop.)
M3 ( Spindle on clockwise. )
G04 P1.00000 (Wait for spindle to get up to speed)
G04 P0 ( dwell for no time -- G64 should not smooth over this point )
G00 Z0.08000 ( retract )

G00 X0.10396 Y-0.10396 ( rapid move to begin. )
G01 F3.00000
( Mill infeed pass 1/1 )
G01 Z-0.00800
G04 P0 ( dwell for no time -- G64 should not smooth over this point )
G01 F6.00000
G01 X0.10396 Y-0.10396
G01 X0.10250 Y-0.10250
G01 X0.10250 Y10.10250
G01 X0.10396 Y10.10396
G01 X0.10250 Y10.10250
G01 X-10.10250 Y10.10250
G01 X-10.10396 Y10.10396
G01 X-10.10250 Y10.10250
G01 X-10.10250 Y-0.10250
G01 X-10.10396 Y-0.10396
G01 X-10.10250 Y-0.10250
G01 X0.10250 Y-0.10250
G01 X0.09250 Y-0.09250
G01 X0.09250 Y10.09250
G01 X0.09543 Y10.09543
G01 X0.09250 Y10.09250
G01 X-10.09250 Y10.09250
G01 X-10.09543 Y10.09543
G01 X-10.09250 Y10.09250
G01 X-10.09250 Y-0.09250
G01 X-10.09543 Y-0.09543
G01 X-10.09250 Y-0.09250
G01 X0.09250 Y-0.09250
G04 P0 ( dwell for no time -- G64 should not smooth over this point )
G00 Z0.08000 ( retract )

G00 X-1.22581 Y3.80721 ( rapid move to begin. )
G01 F3.00000
( Mill infeed pass 1/1 )
G01 Z-0.00800
G04 P0 ( dwell for no time -- G64 should not smooth over this point )
G01 F6.00000
G01 X-1.22581 Y3.80721
G01 X-1.31389 Y3.88283
G01 X-1.42987 Y3.98146
G01 X-1.45705 Y4.00442
G01 X-1.56418 Y4.09410
G01 X-1.62774 Y4.14653
G01 X-1.69874 Y4.20419
G01 X-1.75796 Y4.25127
G01 X-1.80859 Y4.29058
G01 X-1.82472 Y4.30289
G01 X-1.86738 Y4.33481
G01 X-1.90510 Y4.36219
G01 X-1.93929 Y4.38618
G01 X-1.97054 Y4.40729
G01 X-1.99943 Y4.42604
G01 X-2.01440 Y4.43543
G01 X-2.04013 Y4.45100
G01 X-2.05172 Y4.45779
G01 X-2.07601 Y4.47146
G01 X-2.11135 Y4.49031
G01 X-2.13399 Y4.50293
G01 X-2.15597 Y4.51589
G01 X-2.17730 Y4.52918
G01 X-2.19806 Y4.54284
G01 X-2.21781 Y4.55654
G01 X-2.22807 Y4.56393
G01 X-2.24745 Y4.57847
G01 X-2.25634 Y4.58540
G01 X-2.27472 Y4.60027
G01 X-2.29249 Y4.61537
G01 X-2.31004 Y4.63105
G01 X-2.32681 Y4.64679
G01 X-2.34341 Y4.66314
G01 X-2.35226 Y4.67220
G01 X-2.36815 Y4.68908
G01 X-2.38360 Y4.70633
G01 X-2.39884 Y4.72421
G01 X-2.41373 Y4.74257
G01 X-2.42821 Y4.76133
G01 X-2.44232 Y4.78059
G01 X-2.44913 Y4.79023
G01 X-2.46283 Y4.81042
G01 X-2.47627 Y4.83132
G01 X-2.48951 Y4.85304
G01 X-2.49611 Y4.86435
G01 X-2.50872 Y4.88689
G01 X-2.52104 Y4.91021
G01 X-2.53313 Y4.93453
G01 X-2.53936 Y4.94767
G01 X-2.54499 Y4.95993
G01 X-2.55640 Y4.98601
G01 X-2.56755 Y5.01331
G01 X-2.57364 Y5.02907
G01 X-2.58428 Y5.05824
G01 X-2.58882 Y5.07141
G01 X-2.59882 Y5.10215
G01 X-2.60460 Y5.12115
G01 X-2.60857 Y5.13481
G01 X-2.61408 Y5.15466
G01 X-2.61781 Y5.16878
G01 X-2.62314 Y5.19000
G01 X-2.62650 Y5.20411
G01 X-2.63166 Y5.22703
G01 X-2.63815 Y5.25855
G01 X-2.64058 Y5.28109
G01 X-2.64526 Y5.32100
G01 X-2.65076 Y5.36394
G01 X-2.65724 Y5.41060
G01 X-2.66230 Y5.44495
G01 X-2.67091 Y5.50040
G01 X-2.68110 Y5.56229
G01 X-2.69321 Y5.63248
G01 X-2.71198 Y5.73597
G01 X-2.73050 Y5.83376
G01 X-2.74800 Y5.92357
G01 X-2.78199 Y6.09314
G01 X-2.81683 Y6.26226
G01 X-2.86059 Y6.47105
G01 X-2.93931 Y6.83940
G01 X-3.03113 Y7.26330
G01 X-3.07954 Y7.48432
G01 X-3.07769 Y7.48669
G01 X-3.07954 Y7.48432
G01 X-3.10515 Y7.48387
G01 X-3.22349 Y7.47999
G01 X-3.32891 Y7.47400
G01 X-3.33117 Y7.47632
G01 X-3.32891 Y7.47400
G01 X-3.33036 Y7.45677
G01 X-3.39512 Y6.69353
G01 X-3.43094 Y6.27590
G01 X-3.45458 Y6.00424
G01 X-3.47037 Y5.82580
G01 X-3.48030 Y5.71558
G01 X-3.48284 Y5.68549
G01 X-3.48501 Y5.65620
G01 X-3.48500 Y5.36496
G01 X-3.47911 Y5.30486
G01 X-3.46383 Y5.17862
G01 X-3.45169 Y5.07233
G01 X-3.44218 Y4.98340
G01 X-3.43398 Y4.90113
G01 X-3.42982 Y4.85706
G01 X-3.42234 Y4.77358
G01 X-3.41397 Y4.67337
G01 X-3.40413 Y4.54717
G01 X-3.39665 Y4.44597
G01 X-3.39661 Y4.37598
G01 X-3.39804 Y4.29892
G01 X-3.40228 Y4.21955
G01 X-3.40941 Y4.13643
G01 X-3.41934 Y4.05101
G01 X-3.43204 Y3.96318
G01 X-3.44763 Y3.87214
G01 X-3.46604 Y3.77831
G01 X-3.48734 Y3.68137
G01 X-3.51133 Y3.58225
G01 X-3.53822 Y3.48002
G01 X-3.56792 Y3.37499
G01 X-3.60053 Y3.26693
G01 X-3.63587 Y3.15630
G01 X-3.67405 Y3.04286
G01 X-3.71497 Y2.92681
G01 X-3.75882 Y2.80765
G01 X-3.88809 Y2.46330
G01 X-3.89192 Y2.46154
G01 X-3.88809 Y2.46330
G01 X-3.79307 Y2.42876
G01 X-3.68398 Y2.39192
G01 X-3.57489 Y2.35789
G01 X-3.46581 Y2.32668
G01 X-3.35673 Y2.29829
G01 X-3.24766 Y2.27271
G01 X-3.13860 Y2.24994
G01 X-3.02954 Y2.22999
G01 X-2.92049 Y2.21285
G01 X-2.81144 Y2.19853
G01 X-2.70239 Y2.18702
G01 X-2.59335 Y2.17832
G01 X-2.48431 Y2.17243
G01 X-2.37527 Y2.16935
G01 X-2.26623 Y2.16909
G01 X-2.16340 Y2.17150
G01 X-2.16304 Y2.17070
G01 X-2.16340 Y2.17150
G01 X-2.10070 Y2.24010
G01 X-2.03614 Y2.31333
G01 X-1.97395 Y2.38655
G01 X-1.91412 Y2.45977
G01 X-1.85667 Y2.53296
G01 X-1.80158 Y2.60615
G01 X-1.74886 Y2.67933
G01 X-1.69850 Y2.75249
G01 X-1.65052 Y2.82565
G01 X-1.60490 Y2.89879
G01 X-1.56164 Y2.97191
G01 X-1.52075 Y3.04503
G01 X-1.48223 Y3.11813
G01 X-1.44606 Y3.19121
G01 X-1.41226 Y3.26429
G01 X-1.38078 Y3.33744
G01 X-1.36014 Y3.38727
G01 X-1.33855 Y3.44094
G01 X-1.31829 Y3.49452
G01 X-1.29931 Y3.54810
G01 X-1.28163 Y3.60168
G01 X-1.26523 Y3.65524
G01 X-1.25012 Y3.70880
G01 X-1.23630 Y3.76235
G01 X-1.22581 Y3.80721
G01 X-1.21469 Y3.81084
G01 X-1.30740 Y3.89044
G01 X-1.42341 Y3.98909
G01 X-1.45062 Y4.01207
G01 X-1.55780 Y4.10180
G01 X-1.62139 Y4.15426
G01 X-1.69247 Y4.21197
G01 X-1.75178 Y4.25913
G01 X-1.76927 Y4.27282
G01 X-1.81868 Y4.31086
G01 X-1.86145 Y4.34287
G01 X-1.89930 Y4.37034
G01 X-1.93363 Y4.39442
G01 X-1.96503 Y4.41563
G01 X-1.99407 Y4.43448
G01 X-2.00913 Y4.44393
G01 X-2.03503 Y4.45961
G01 X-2.04672 Y4.46645
G01 X-2.07121 Y4.48023
G01 X-2.10664 Y4.49914
G01 X-2.12912 Y4.51167
G01 X-2.15084 Y4.52447
G01 X-2.17196 Y4.53763
G01 X-2.19241 Y4.55109
G01 X-2.21211 Y4.56475
G01 X-2.22222 Y4.57204
G01 X-2.24130 Y4.58636
G01 X-2.25009 Y4.59321
G01 X-2.26829 Y4.60792
G01 X-2.28601 Y4.62299
G01 X-2.30319 Y4.63833
G01 X-2.31992 Y4.65403
G01 X-2.33635 Y4.67022
G01 X-2.35234 Y4.68677
G01 X-2.36790 Y4.70369
G01 X-2.38320 Y4.72116
G01 X-2.39123 Y4.73070
G01 X-2.40597 Y4.74887
G01 X-2.42029 Y4.76744
G01 X-2.43422 Y4.78645
G01 X-2.44085 Y4.79585
G01 X-2.45452 Y4.81598
G01 X-2.46783 Y4.83668
G01 X-2.47454 Y4.84753
G01 X-2.48741 Y4.86928
G01 X-2.49997 Y4.89171
G01 X-2.51217 Y4.91483
G01 X-2.52415 Y4.93893
G01 X-2.53035 Y4.95201
G01 X-2.53585 Y4.96399
G01 X-2.54721 Y4.98996
G01 X-2.55827 Y5.01703
G01 X-2.56427 Y5.03256
G01 X-2.56901 Y5.04529
G01 X-2.57931 Y5.07450
G01 X-2.58929 Y5.10518
G01 X-2.59498 Y5.12388
G01 X-2.59893 Y5.13748
G01 X-2.60444 Y5.15734
G01 X-2.60809 Y5.17115
G01 X-2.61345 Y5.19250
G01 X-2.61677 Y5.20643
G01 X-2.62191 Y5.22923
G01 X-2.62821 Y5.25959
G01 X-2.63064 Y5.28222
G01 X-2.63534 Y5.32224
G01 X-2.64085 Y5.36528
G01 X-2.64735 Y5.41203
G01 X-2.65241 Y5.44644
G01 X-2.66103 Y5.50197
G01 X-2.67123 Y5.56393
G01 X-2.68336 Y5.63421
G01 X-2.70216 Y5.73781
G01 X-2.72069 Y5.83565
G01 X-2.73819 Y5.92550
G01 X-2.77219 Y6.09514
G01 X-2.80704 Y6.26430
G01 X-2.85081 Y6.47312
G01 X-2.92953 Y6.84151
G01 X-3.02135 Y7.26543
G01 X-3.07153 Y7.49446
G01 X-3.07062 Y7.49561
G01 X-3.07153 Y7.49446
G01 X-3.10542 Y7.49387
G01 X-3.22394 Y7.48998
G01 X-3.33815 Y7.48349
G01 X-3.33928 Y7.48465
G01 X-3.33815 Y7.48349
G01 X-3.40508 Y6.69437
G01 X-3.44090 Y6.27675
G01 X-3.46398 Y6.01150
G01 X-3.48033 Y5.82668
G01 X-3.49027 Y5.71645
G01 X-3.49281 Y5.68630
G01 X-3.49501 Y5.65657
G01 X-3.49499 Y5.36448
G01 X-3.48905 Y5.30378
G01 X-3.47376 Y5.17743
G01 X-3.46163 Y5.07125
G01 X-3.45213 Y4.98238
G01 X-3.44393 Y4.90017
G01 X-3.43977 Y4.85613
G01 X-3.43230 Y4.77269
G01 X-3.42394 Y4.67255
G01 X-3.41410 Y4.54640
G01 X-3.40662 Y4.44525
G01 X-3.40661 Y4.37616
G01 X-3.40803 Y4.29945
G01 X-3.41227 Y4.21992
G01 X-3.41934 Y4.13759
G01 X-3.42924 Y4.05244
G01 X-3.44194 Y3.96461
G01 X-3.45748 Y3.87383
G01 X-3.47585 Y3.78024
G01 X-3.49706 Y3.68373
G01 X-3.52108 Y3.58451
G01 X-3.54789 Y3.48257
G01 X-3.57755 Y3.37772
G01 X-3.61005 Y3.26997
G01 X-3.64533 Y3.15956
G01 X-3.68348 Y3.04619
G01 X-3.72440 Y2.93014
G01 X-3.76817 Y2.81120
G01 X-3.90100 Y2.45735
G01 X-3.90292 Y2.45647
G01 X-3.90100 Y2.45735
G01 X-3.79638 Y2.41932
G01 X-3.68707 Y2.38241
G01 X-3.57775 Y2.34831
G01 X-3.46844 Y2.31704
G01 X-3.35913 Y2.28858
G01 X-3.24982 Y2.26295
G01 X-3.14052 Y2.24013
G01 X-3.03122 Y2.22013
G01 X-2.92191 Y2.20295
G01 X-2.81262 Y2.18860
G01 X-2.70332 Y2.17706
G01 X-2.59402 Y2.16834
G01 X-2.48472 Y2.16244
G01 X-2.37542 Y2.15935
G01 X-2.26613 Y2.15909
G01 X-2.15890 Y2.16160
G01 X-2.15872 Y2.16120
G01 X-2.15890 Y2.16160
G01 X-2.09326 Y2.23342
G01 X-2.02858 Y2.30679
G01 X-1.96626 Y2.38015
G01 X-1.90632 Y2.45351
G01 X-1.84874 Y2.52687
G01 X-1.79353 Y2.60022
G01 X-1.74068 Y2.67357
G01 X-1.69020 Y2.74692
G01 X-1.64210 Y2.82026
G01 X-1.59635 Y2.89359
G01 X-1.55297 Y2.96693
G01 X-1.51197 Y3.04025
G01 X-1.47332 Y3.11358
G01 X-1.43704 Y3.18690
G01 X-1.40313 Y3.26021
G01 X-1.37157 Y3.33355
G01 X-1.35088 Y3.38350
G01 X-1.32924 Y3.43730
G01 X-1.30890 Y3.49109
G01 X-1.28985 Y3.54487
G01 X-1.27210 Y3.59864
G01 X-1.25564 Y3.65242
G01 X-1.24047 Y3.70619
G01 X-1.22660 Y3.75996
G01 X-1.21469 Y3.81084
G01 X-1.21388 Y3.81110
G04 P0 ( dwell for no time -- G64 should not smooth over this point )
G00 Z0.08000 ( retract )

G00 X-0.88636 Y4.98102 ( rapid move to begin. )
G01 F3.00000
( Mill infeed pass 1/1 )
G01 Z-0.00800
G04 P0 ( dwell for no time -- G64 should not smooth over this point )
G01 F6.00000
G01 X-0.88636 Y4.98102
G01 X-0.88640 Y5.02315
G01 X-0.88656 Y5.03551
G01 X-0.88764 Y5.07767
G01 X-0.88810 Y5.08999
G01 X-0.89021 Y5.13226
G01 X-0.89098 Y5.14462
G01 X-0.89416 Y5.18714
G01 X-0.89523 Y5.19950
G01 X-0.89951 Y5.24248
G01 X-0.90089 Y5.25485
G01 X-0.90625 Y5.29796
G01 X-0.90795 Y5.31038
G01 X-0.91445 Y5.35385
G01 X-0.91644 Y5.36615
G01 X-0.92409 Y5.40998
G01 X-0.92640 Y5.42230
G01 X-0.93526 Y5.46660
G01 X-0.93789 Y5.47896
G01 X-0.94805 Y5.52400
G01 X-0.95100 Y5.53636
G01 X-0.96252 Y5.58214
G01 X-0.96581 Y5.59456
G01 X-0.97868 Y5.64086
G01 X-0.98227 Y5.65318
G01 X-0.99660 Y5.70025
G01 X-1.00055 Y5.71267
G01 X-1.01656 Y5.76094
G01 X-1.02084 Y5.77336
G01 X-1.03848 Y5.82248
G01 X-1.04305 Y5.83474
G01 X-1.06250 Y5.88500
G01 X-1.06746 Y5.89735
G01 X-1.08893 Y5.94904
G01 X-1.09424 Y5.96139
G01 X-1.11779 Y6.01435
G01 X-1.12339 Y6.02655
G01 X-1.14918 Y6.08093
G01 X-1.15525 Y6.09334
G01 X-1.18355 Y6.14941
G01 X-1.19000 Y6.16182
G01 X-1.22111 Y6.21985
G01 X-1.22792 Y6.23221
G01 X-1.26197 Y6.29213
G01 X-1.26918 Y6.30448
G01 X-1.30642 Y6.36642
G01 X-1.31408 Y6.37883
G01 X-1.35471 Y6.44281
G01 X-1.36270 Y6.45506
G01 X-1.40712 Y6.52137
G01 X-1.41554 Y6.53362
G01 X-1.46431 Y6.60270
G01 X-1.47329 Y6.61510
G01 X-1.52693 Y6.68726
G01 X-1.53626 Y6.69951
G01 X-1.59526 Y6.77495
G01 X-1.60516 Y6.78730
G01 X-1.66998 Y6.86611
G01 X-1.68030 Y6.87836
G01 X-1.75174 Y6.96102
G01 X-1.76271 Y6.97341
G01 X-1.84190 Y7.06061
G01 X-1.85343 Y7.07300
G01 X-1.94123 Y7.16502
G01 X-2.00133 Y7.22590
G01 X-2.06320 Y7.28673
G01 X-2.11659 Y7.33807
G01 X-2.17133 Y7.38944
G01 X-2.24399 Y7.45611
G01 X-2.31871 Y7.52270
G01 X-2.40386 Y7.59664
G01 X-2.40558 Y7.59761
G01 X-2.40755 Y7.59784
G01 X-2.46074 Y7.59339
G01 X-2.57789 Y7.58174
G01 X-2.59021 Y7.58036
G01 X-2.70771 Y7.56576
G01 X-2.72007 Y7.56407
G01 X-2.83918 Y7.54629
G01 X-2.85154 Y7.54429
G01 X-2.97144 Y7.52336
G01 X-3.06805 Y7.50451
G01 X-3.10566 Y7.50387
G01 X-3.22433 Y7.49997
G01 X-3.34256 Y7.49323
G01 X-3.46219 Y7.51018
G01 X-3.58231 Y7.52421
G01 X-3.70232 Y7.53525
G01 X-3.82256 Y7.54333
G01 X-3.94269 Y7.54843
G01 X-4.06269 Y7.55055
G01 X-4.18294 Y7.54970
G01 X-4.30232 Y7.54586
G01 X-4.37783 Y7.56247
G01 X-4.45403 Y7.57794
G01 X-4.53022 Y7.59215
G01 X-4.60650 Y7.60511
G01 X-4.68262 Y7.61680
G01 X-4.75882 Y7.62724
G01 X-4.83510 Y7.63643
G01 X-4.91122 Y7.64435
G01 X-4.98750 Y7.65102
G01 X-5.06362 Y7.65643
G01 X-5.13990 Y7.66059
G01 X-5.21610 Y7.66348
G01 X-5.29222 Y7.66512
G01 X-5.36850 Y7.66550
G01 X-5.44462 Y7.66463
G01 X-5.52040 Y7.66249
G01 X-5.61860 Y7.67646
G01 X-5.71723 Y7.68832
G01 X-5.81574 Y7.69801
G01 X-5.91437 Y7.70557
G01 X-6.01310 Y7.71098
G01 X-6.11172 Y7.71423
G01 X-6.21024 Y7.71533
G01 X-6.30887 Y7.71427
G01 X-6.40760 Y7.71106
G01 X-6.50622 Y7.70570
G01 X-6.60474 Y7.69820
G01 X-6.70347 Y7.68853
G01 X-6.80199 Y7.67673
G01 X-6.90061 Y7.66276
G01 X-6.99923 Y7.64664
G01 X-7.09621 Y7.62868
G01 X-7.09624 Y7.62842
G01 X-7.09621 Y7.62868
G01 X-7.12381 Y7.64238
G01 X-7.23414 Y7.69521
G01 X-7.34458 Y7.74485
G01 X-7.45517 Y7.79138
G01 X-7.56267 Y7.83349
G01 X-7.66969 Y7.87244
G01 X-7.77356 Y7.90732
G01 X-7.86620 Y7.93607
G01 X-7.95542 Y7.96160
G01 X-7.95640 Y7.96178
G01 X-7.95837 Y7.96154
G01 X-8.00126 Y7.93705
G01 X-8.07792 Y7.89226
G01 X-8.15252 Y7.84749
G01 X-8.22508 Y7.80271
G01 X-8.30054 Y7.75475
G01 X-8.41463 Y7.67938
G01 X-8.46955 Y7.64166
G01 X-8.52736 Y7.60084
G01 X-8.61696 Y7.53520
G01 X-8.70224 Y7.46947
G01 X-8.77856 Y7.40770
G01 X-8.84736 Y7.34909
G01 X-8.90958 Y7.29345
G01 X-8.96519 Y7.24114
G01 X-9.01597 Y7.19102
G01 X-9.06430 Y7.14076
G01 X-9.10368 Y7.09781
G01 X-9.14111 Y7.05490
G01 X-9.17634 Y7.01252
G01 X-9.20718 Y6.97344
G01 X-9.23686 Y6.93394
G01 X-9.26264 Y6.89774
G01 X-9.28781 Y6.86058
G01 X-9.30949 Y6.82671
G01 X-9.33061 Y6.79194
G01 X-9.34861 Y6.76052
G01 X-9.36661 Y6.72733
G01 X-9.38349 Y6.69409
G01 X-9.40980 Y6.63734
G01 X-9.43319 Y6.57982
G01 X-9.45368 Y6.52108
G01 X-9.46941 Y6.46736
G01 X-9.48180 Y6.41584
G01 X-9.49140 Y6.36518
G01 X-9.49806 Y6.31797
G01 X-9.50266 Y6.26830
G01 X-9.50486 Y6.21552
G01 X-9.50440 Y6.16574
G01 X-9.50150 Y6.11632
G01 X-9.49652 Y6.06957
G01 X-9.48863 Y6.01873
G01 X-9.47724 Y5.96386
G01 X-9.46436 Y5.91428
G01 X-9.46132 Y5.90376
G01 X-9.46090 Y5.90371
G01 X-9.46132 Y5.90376
G01 X-9.47013 Y5.88929
G01 X-9.49170 Y5.85285
G01 X-9.51218 Y5.81673
G01 X-9.53091 Y5.78226
G01 X-9.54285 Y5.75945
G01 X-9.56050 Y5.72443
G01 X-9.57592 Y5.69240
G01 X-9.59156 Y5.65832
G01 X-9.60499 Y5.62757
G01 X-9.61880 Y5.59429
G01 X-9.63043 Y5.56473
G01 X-9.64307 Y5.53083
G01 X-9.65310 Y5.50220
G01 X-9.66357 Y5.47048
G01 X-9.67202 Y5.44327
G01 X-9.67779 Y5.42366
G01 X-9.68322 Y5.40437
G01 X-9.69156 Y5.37275
G01 X-9.69789 Y5.34686
G01 X-9.70493 Y5.31555
G01 X-9.70886 Y5.29663
G01 X-9.71254 Y5.27776
G01 X-9.71703 Y5.25288
G01 X-9.72202 Y5.22194
G01 X-9.72550 Y5.19746
G01 X-9.72785 Y5.17908
G01 X-9.72996 Y5.16078
G01 X-9.73298 Y5.13023
G01 X-9.73448 Y5.11207
G01 X-9.73575 Y5.09385
G01 X-9.73709 Y5.06982
G01 X-9.73784 Y5.05171
G01 X-9.73836 Y5.03357
G01 X-9.73874 Y5.00323
G01 X-9.73867 Y4.98527
G01 X-9.73838 Y4.96720
G01 X-9.73786 Y4.94905
G01 X-9.73712 Y4.93089
G01 X-9.73580 Y4.90692
G01 X-9.73454 Y4.88870
G01 X-9.73305 Y4.87050
G01 X-9.73134 Y4.85235
G01 X-9.72940 Y4.83414
G01 X-9.72722 Y4.81578
G01 X-9.72479 Y4.79731
G01 X-9.72213 Y4.77881
G01 X-9.71925 Y4.76040
G01 X-9.71609 Y4.74172
G01 X-9.71269 Y4.72299
G01 X-9.70902 Y4.70416
G01 X-9.70510 Y4.68523
G01 X-9.70093 Y4.66629
G01 X-9.69649 Y4.64726
G01 X-9.69176 Y4.62805
G01 X-9.68675 Y4.60869
G01 X-9.68144 Y4.58921
G01 X-9.67586 Y4.56967
G01 X-9.66996 Y4.54996
G01 X-9.66373 Y4.53002
G01 X-9.65719 Y4.50996
G01 X-9.65033 Y4.48974
G01 X-9.63871 Y4.45726
G01 X-9.63097 Y4.43666
G01 X-9.62286 Y4.41586
G01 X-9.61073 Y4.38604
G01 X-9.59631 Y4.35240
G01 X-9.58057 Y4.31752
G01 X-9.57190 Y4.29911
G01 X-9.56104 Y4.27666
G01 X-9.54345 Y4.24171
G01 X-9.52574 Y4.20807
G01 X-9.50603 Y4.17225
G01 X-9.48548 Y4.13649
G01 X-9.46344 Y4.09970
G01 X-9.43976 Y4.06180
G01 X-9.41512 Y4.02390
G01 X-9.39757 Y3.99781
G01 X-9.38783 Y3.98359
G01 X-9.36021 Y3.94436
G01 X-9.34021 Y3.91684
G01 X-9.32861 Y3.90120
G01 X-9.30700 Y3.87263
G01 X-9.27466 Y3.83118
G01 X-9.25098 Y3.80174
G01 X-9.22607 Y3.77154
G01 X-9.21053 Y3.75307
G01 X-9.18374 Y3.72184
G01 X-9.15553 Y3.68978
G01 X-9.12585 Y3.65687
G01 X-9.09474 Y3.62322
G01 X-9.06214 Y3.58882
G01 X-9.02814 Y3.55381
G01 X-8.99227 Y3.51777
G01 X-8.95476 Y3.48100
G01 X-8.94196 Y3.46865
G01 X-8.90207 Y3.43080
G01 X-8.86014 Y3.39198
G01 X-8.81573 Y3.35186
G01 X-8.78333 Y3.32320
G01 X-8.73479 Y3.28115
G01 X-8.72036 Y3.26885
G01 X-8.66856 Y3.22539
G01 X-8.62940 Y3.19322
G01 X-8.57214 Y3.14721
G01 X-8.51140 Y3.09961
G01 X-8.44677 Y3.05024
G01 X-8.43039 Y3.03792
G01 X-8.36226 Y2.98751
G01 X-8.30663 Y2.94727
G01 X-8.28938 Y2.93496
G01 X-8.22970 Y2.89289
G01 X-8.21202 Y2.88059
G01 X-8.14768 Y2.83641
G01 X-8.12950 Y2.82410
G01 X-8.06071 Y2.77810
G01 X-8.04204 Y2.76578
G01 X-7.96804 Y2.71760
G01 X-7.94902 Y2.70539
G01 X-7.86961 Y2.65506
G01 X-7.80411 Y2.61435
G01 X-7.75181 Y2.56435
G01 X-7.69787 Y2.51398
G01 X-7.64268 Y2.46357
G01 X-7.58636 Y2.41324
G01 X-7.58465 Y2.41224
G01 X-7.58269 Y2.41198
G01 X-7.51195 Y2.41685
G01 X-7.44121 Y2.42278
G01 X-7.37054 Y2.42975
G01 X-7.30029 Y2.43775
G01 X-7.18796 Y2.42821
G01 X-7.07491 Y2.42130
G01 X-6.96209 Y2.41707
G01 X-6.84981 Y2.41556
G01 X-6.76608 Y2.39190
G01 X-6.68181 Y2.36975
G01 X-6.59735 Y2.34917
G01 X-6.51307 Y2.33024
G01 X-6.42862 Y2.31290
G01 X-6.34434 Y2.29720
G01 X-6.25988 Y2.28308
G01 X-6.17551 Y2.27060
G01 X-6.09123 Y2.25974
G01 X-6.00686 Y2.25049
G01 X-5.92239 Y2.24284
G01 X-5.83811 Y2.23683
G01 X-5.75374 Y2.23242
G01 X-5.66936 Y2.22963
G01 X-5.58499 Y2.22845
G01 X-5.50062 Y2.22889
G01 X-5.41615 Y2.23094
G01 X-5.33187 Y2.23461
G01 X-5.24750 Y2.23989
G01 X-5.16303 Y2.24680
G01 X-5.07866 Y2.25532
G01 X-4.99429 Y2.26545
G01 X-4.91001 Y2.27718
G01 X-4.82555 Y2.29056
G01 X-4.74118 Y2.30554
G01 X-4.65681 Y2.32213
G01 X-4.57244 Y2.34034
G01 X-4.48817 Y2.36014
G01 X-4.40380 Y2.38158
G01 X-4.31935 Y2.40465
G01 X-4.23507 Y2.42930
G01 X-4.15154 Y2.45540
G01 X-4.02989 Y2.45082
G01 X-3.90836 Y2.44946
G01 X-3.79974 Y2.40991
G01 X-3.69021 Y2.37291
G01 X-3.58056 Y2.33871
G01 X-3.47102 Y2.30737
G01 X-3.36159 Y2.27889
G01 X-3.25205 Y2.25319
G01 X-3.14238 Y2.23030
G01 X-3.03295 Y2.21028
G01 X-2.92340 Y2.19307
G01 X-2.81386 Y2.17867
G01 X-2.70418 Y2.16709
G01 X-2.59462 Y2.15835
G01 X-2.48520 Y2.15245
G01 X-2.37551 Y2.14935
G01 X-2.26609 Y2.14909
G01 X-2.15653 Y2.15165
G01 X-2.15553 Y2.15178
G01 X-2.15458 Y2.15210
G01 X-2.15371 Y2.15260
G01 X-2.15296 Y2.15328
G01 X-2.08579 Y2.22678
G01 X-2.02105 Y2.30021
G01 X-1.95855 Y2.37379
G01 X-1.89848 Y2.44730
G01 X-1.84084 Y2.52074
G01 X-1.78550 Y2.59425
G01 X-1.73247 Y2.66786
G01 X-1.68194 Y2.74129
G01 X-1.63370 Y2.81482
G01 X-1.58777 Y2.88845
G01 X-1.54434 Y2.96189
G01 X-1.50315 Y3.03554
G01 X-1.46444 Y3.10897
G01 X-1.42805 Y3.18252
G01 X-1.39403 Y3.25607
G01 X-1.36237 Y3.32963
G01 X-1.34163 Y3.37969
G01 X-1.31994 Y3.43362
G01 X-1.29953 Y3.48760
G01 X-1.28037 Y3.54168
G01 X-1.26259 Y3.59556
G01 X-1.24606 Y3.64955
G01 X-1.23083 Y3.70353
G01 X-1.21690 Y3.75752
G01 X-1.20444 Y3.81090
G01 X-1.18073 Y3.85606
G01 X-1.15255 Y3.91215
G01 X-1.14654 Y3.92451
G01 X-1.12085 Y3.97897
G01 X-1.11518 Y3.99138
G01 X-1.09184 Y4.04416
G01 X-1.08660 Y4.05642
G01 X-1.06539 Y4.10777
G01 X-1.06047 Y4.12012
G01 X-1.04113 Y4.17039
G01 X-1.03659 Y4.18265
G01 X-1.01914 Y4.23154
G01 X-1.01488 Y4.24396
G01 X-0.99906 Y4.29198
G01 X-0.99517 Y4.30430
G01 X-0.98096 Y4.35130
G01 X-0.97741 Y4.36356
G01 X-0.96466 Y4.40975
G01 X-0.96142 Y4.42211
G01 X-0.94999 Y4.46787
G01 X-0.94708 Y4.48017
G01 X-0.93698 Y4.52528
G01 X-0.93439 Y4.53758
G01 X-0.92562 Y4.58182
G01 X-0.92334 Y4.59414
G01 X-0.91579 Y4.63782
G01 X-0.91381 Y4.65018
G01 X-0.90738 Y4.69371
G01 X-0.90571 Y4.70613
G01 X-0.90042 Y4.74932
G01 X-0.89906 Y4.76168
G01 X-0.89489 Y4.80441
G01 X-0.89383 Y4.81683
G01 X-0.89072 Y4.85946
G01 X-0.88998 Y4.87176
G01 X-0.88793 Y4.91424
G01 X-0.88749 Y4.92661
G01 X-0.88650 Y4.96870
G01 X-0.88636 Y4.98102
G01 X-0.87636 Y4.98103
G01 X-0.87640 Y5.02316
G01 X-0.87656 Y5.03564
G01 X-0.87764 Y5.07792
G01 X-0.87811 Y5.09049
G01 X-0.88022 Y5.13270
G01 X-0.88101 Y5.14536
G01 X-0.88419 Y5.18789
G01 X-0.88527 Y5.20037
G01 X-0.88955 Y5.24341
G01 X-0.89097 Y5.25608
G01 X-0.89633 Y5.29920
G01 X-0.89804 Y5.31168
G01 X-0.90455 Y5.35527
G01 X-0.90657 Y5.36775
G01 X-0.91424 Y5.41170
G01 X-0.91660 Y5.42426
G01 X-0.92546 Y5.46856
G01 X-0.92815 Y5.48122
G01 X-0.93830 Y5.52620
G01 X-0.94127 Y5.53868
G01 X-0.95283 Y5.58458
G01 X-0.95618 Y5.59724
G01 X-0.96905 Y5.64354
G01 X-0.97265 Y5.65591
G01 X-0.98704 Y5.70316
G01 X-0.99106 Y5.71581
G01 X-1.00713 Y5.76426
G01 X-1.01137 Y5.77656
G01 X-1.02907 Y5.82586
G01 X-1.03368 Y5.83823
G01 X-1.05318 Y5.88861
G01 X-1.05825 Y5.90125
G01 X-1.07970 Y5.95287
G01 X-1.08506 Y5.96534
G01 X-1.10862 Y6.01836
G01 X-1.11438 Y6.03089
G01 X-1.14023 Y6.08538
G01 X-1.14633 Y6.09785
G01 X-1.17462 Y6.15391
G01 X-1.18110 Y6.16638
G01 X-1.21226 Y6.22452
G01 X-1.21914 Y6.23698
G01 X-1.25327 Y6.29707
G01 X-1.26055 Y6.30952
G01 X-1.29785 Y6.37158
G01 X-1.30554 Y6.38403
G01 X-1.34627 Y6.44817
G01 X-1.35432 Y6.46052
G01 X-1.39881 Y6.52693
G01 X-1.40730 Y6.53928
G01 X-1.45614 Y6.60846
G01 X-1.46515 Y6.62091
G01 X-1.51901 Y6.69337
G01 X-1.52842 Y6.70572
G01 X-1.58750 Y6.78125
G01 X-1.59748 Y6.79370
G01 X-1.66225 Y6.87247
G01 X-1.67277 Y6.88495
G01 X-1.74417 Y6.96756
G01 X-1.75519 Y6.97999
G01 X-1.83450 Y7.06733
G01 X-1.84606 Y7.07977
G01 X-1.93395 Y7.17188
G01 X-1.99431 Y7.23302
G01 X-2.05629 Y7.29396
G01 X-2.10966 Y7.34528
G01 X-2.16449 Y7.39673
G01 X-2.23724 Y7.46349
G01 X-2.31209 Y7.53020
G01 X-2.39730 Y7.60419
G01 X-2.39974 Y7.60591
G01 X-2.40247 Y7.60712
G01 X-2.40539 Y7.60776
G01 X-2.40837 Y7.60781
G01 X-2.46161 Y7.60335
G01 X-2.57888 Y7.59169
G01 X-2.59144 Y7.59029
G01 X-2.70888 Y7.57569
G01 X-2.72136 Y7.57399
G01 X-2.84059 Y7.55619
G01 X-2.85326 Y7.55414
G01 X-2.97328 Y7.53319
G01 X-2.98571 Y7.53087
G01 X-3.06910 Y7.51447
G01 X-3.10605 Y7.51386
G01 X-3.22465 Y7.50997
G01 X-3.34214 Y7.50324
G01 X-3.46067 Y7.52007
G01 X-3.58140 Y7.53417
G01 X-3.70177 Y7.54524
G01 X-3.82177 Y7.55330
G01 X-3.94214 Y7.55842
G01 X-4.06289 Y7.56055
G01 X-4.18326 Y7.55969
G01 X-4.30140 Y7.55585
G01 X-4.37569 Y7.57224
G01 X-4.45227 Y7.58778
G01 X-4.52839 Y7.60198
G01 X-4.60498 Y7.61500
G01 X-4.68134 Y7.62672
G01 X-4.75746 Y7.63714
G01 X-4.83382 Y7.64635
G01 X-4.91018 Y7.65429
G01 X-4.98679 Y7.66100
G01 X-5.06291 Y7.66640
G01 X-5.13927 Y7.67057
G01 X-5.21564 Y7.67347
G01 X-5.29225 Y7.67512
G01 X-5.36837 Y7.67550
G01 X-5.44474 Y7.67463
G01 X-5.51984 Y7.67249
G01 X-5.61741 Y7.68639
G01 X-5.71593 Y7.69824
G01 X-5.81476 Y7.70797
G01 X-5.91393 Y7.71556
G01 X-6.01277 Y7.72097
G01 X-6.11129 Y7.72422
G01 X-6.21013 Y7.72532
G01 X-6.30897 Y7.72427
G01 X-6.40814 Y7.72105
G01 X-6.50698 Y7.71567
G01 X-6.60582 Y7.70814
G01 X-6.70434 Y7.69849
G01 X-6.80318 Y7.68665
G01 X-6.90233 Y7.67261
G01 X-7.00084 Y7.65651
G01 X-7.09475 Y7.63912
G01 X-7.09482 Y7.63860
G01 X-7.09475 Y7.63912
G01 X-7.11939 Y7.65135
G01 X-7.22982 Y7.70423
G01 X-7.34059 Y7.75402
G01 X-7.45129 Y7.80060
G01 X-7.55896 Y7.84278
G01 X-7.66627 Y7.88183
G01 X-7.77038 Y7.91680
G01 X-7.86344 Y7.94568
G01 X-7.95266 Y7.97121
G01 X-7.95561 Y7.97175
G01 X-7.95860 Y7.97168
G01 X-7.96152 Y7.97103
G01 X-7.96425 Y7.96981
G01 X-8.00626 Y7.94571
G01 X-8.08291 Y7.90093
G01 X-8.15761 Y7.85609
G01 X-8.23044 Y7.81115
G01 X-8.30091 Y7.76641
G01 X-8.42014 Y7.68773
G01 X-8.47521 Y7.64991
G01 X-8.52885 Y7.61207
G01 X-8.62287 Y7.54326
G01 X-8.70845 Y7.47731
G01 X-8.78514 Y7.41524
G01 X-8.85765 Y7.35338
G01 X-8.91643 Y7.30074
G01 X-8.97199 Y7.24847
G01 X-9.02326 Y7.19787
G01 X-9.06855 Y7.15085
G01 X-9.11097 Y7.10466
G01 X-9.14873 Y7.06137
G01 X-9.18396 Y7.01900
G01 X-9.21511 Y6.97953
G01 X-9.24479 Y6.94004
G01 X-9.27086 Y6.90344
G01 X-9.29602 Y6.86628
G01 X-9.31798 Y6.83200
G01 X-9.33910 Y6.79723
G01 X-9.35738 Y6.76532
G01 X-9.37541 Y6.73209
G01 X-9.39246 Y6.69851
G01 X-9.41897 Y6.64132
G01 X-9.44260 Y6.58323
G01 X-9.46214 Y6.52745
G01 X-9.47822 Y6.47315
G01 X-9.49090 Y6.42106
G01 X-9.50131 Y6.36657
G01 X-9.50836 Y6.31593
G01 X-9.51288 Y6.26527
G01 X-9.51481 Y6.21889
G01 X-9.51451 Y6.16911
G01 X-9.51175 Y6.11907
G01 X-9.50600 Y6.06494
G01 X-9.49789 Y6.01374
G01 X-9.48697 Y5.96159
G01 X-9.47398 Y5.91153
G01 X-9.47215 Y5.90521
G01 X-9.47132 Y5.90509
G01 X-9.47215 Y5.90521
G01 X-9.49336 Y5.86984
G01 X-9.51404 Y5.83390
G01 X-9.53389 Y5.79789
G01 X-9.54618 Y5.77473
G01 X-9.56330 Y5.74129
G01 X-9.57444 Y5.71869
G01 X-9.59071 Y5.68434
G01 X-9.60071 Y5.66235
G01 X-9.61420 Y5.63145
G01 X-9.62805 Y5.59810
G01 X-9.63976 Y5.56834
G01 X-9.64883 Y5.54425
G01 X-9.65999 Y5.51292
G01 X-9.66911 Y5.48585
G01 X-9.67931 Y5.45368
G01 X-9.68739 Y5.42647
G01 X-9.69618 Y5.39475
G01 X-9.70300 Y5.36826
G01 X-9.71048 Y5.33681
G01 X-9.71611 Y5.31104
G01 X-9.72236 Y5.27969
G01 X-9.72690 Y5.25450
G01 X-9.73191 Y5.22342
G01 X-9.73541 Y5.19884
G01 X-9.73924 Y5.16786
G01 X-9.74181 Y5.14339
G01 X-9.74445 Y5.11287
G01 X-9.74610 Y5.08860
G01 X-9.74761 Y5.05786
G01 X-9.74836 Y5.03372
G01 X-9.74874 Y5.00323
G01 X-9.74860 Y4.97932
G01 X-9.74823 Y4.96117
G01 X-9.74764 Y4.94280
G01 X-9.74683 Y4.92463
G01 X-9.74578 Y4.90634
G01 X-9.74451 Y4.88799
G01 X-9.74300 Y4.86955
G01 X-9.74129 Y4.85131
G01 X-9.73790 Y4.82068
G01 X-9.73554 Y4.80216
G01 X-9.73295 Y4.78361
G01 X-9.73012 Y4.76500
G01 X-9.72706 Y4.74642
G01 X-9.72371 Y4.72756
G01 X-9.72012 Y4.70871
G01 X-9.71630 Y4.68985
G01 X-9.71219 Y4.67080
G01 X-9.70783 Y4.65172
G01 X-9.70318 Y4.63248
G01 X-9.69828 Y4.61323
G01 X-9.69307 Y4.59375
G01 X-9.68757 Y4.57417
G01 X-9.68177 Y4.55444
G01 X-9.67567 Y4.53458
G01 X-9.66926 Y4.51461
G01 X-9.66251 Y4.49444
G01 X-9.65547 Y4.47420
G01 X-9.64810 Y4.45384
G01 X-9.64033 Y4.43315
G01 X-9.63218 Y4.41224
G01 X-9.61993 Y4.38213
G01 X-9.61084 Y4.36071
G01 X-9.60132 Y4.33902
G01 X-9.59480 Y4.32456
G01 X-9.58475 Y4.30286
G01 X-9.57500 Y4.28246
G01 X-9.56391 Y4.25992
G01 X-9.54678 Y4.22640
G01 X-9.53456 Y4.20336
G01 X-9.52164 Y4.17970
G01 X-9.50103 Y4.14332
G01 X-9.47940 Y4.10671
G01 X-9.45651 Y4.06955
G01 X-9.43151 Y4.03060
G01 X-9.40586 Y3.99220
G01 X-9.38754 Y3.96566
G01 X-9.37717 Y3.95093
G01 X-9.35730 Y3.92326
G01 X-9.32729 Y3.88279
G01 X-9.30542 Y3.85420
G01 X-9.29223 Y3.83729
G01 X-9.25869 Y3.79538
G01 X-9.23378 Y3.76518
G01 X-9.20773 Y3.73436
G01 X-9.18060 Y3.70304
G01 X-9.15191 Y3.67074
G01 X-9.12194 Y3.63781
G01 X-9.09045 Y3.60405
G01 X-9.05759 Y3.56968
G01 X-9.02309 Y3.53446
G01 X-8.98689 Y3.49839
G01 X-8.94892 Y3.46148
G01 X-8.90892 Y3.42352
G01 X-8.86690 Y3.38461
G01 X-8.83620 Y3.35678
G01 X-8.78991 Y3.31567
G01 X-8.74128 Y3.27354
G01 X-8.68972 Y3.22998
G01 X-8.67490 Y3.21766
G01 X-8.62066 Y3.17326
G01 X-8.57839 Y3.13940
G01 X-8.56270 Y3.12699
G01 X-8.50149 Y3.07934
G01 X-8.43639 Y3.02993
G01 X-8.38489 Y2.99170
G01 X-8.31252 Y2.93919
G01 X-8.29514 Y2.92678
G01 X-8.23549 Y2.88473
G01 X-8.21766 Y2.87233
G01 X-8.15337 Y2.82819
G01 X-8.13506 Y2.81578
G01 X-8.06619 Y2.76974
G01 X-8.04747 Y2.75739
G01 X-7.97352 Y2.70924
G01 X-7.95446 Y2.69699
G01 X-7.87491 Y2.64658
G01 X-7.81025 Y2.60642
G01 X-7.75860 Y2.55701
G01 X-7.70458 Y2.50656
G01 X-7.64947 Y2.45622
G01 X-7.59303 Y2.40578
G01 X-7.59061 Y2.40402
G01 X-7.58790 Y2.40278
G01 X-7.58499 Y2.40210
G01 X-7.58200 Y2.40200
G01 X-7.51133 Y2.40687
G01 X-7.44044 Y2.41281
G01 X-7.36956 Y2.41980
G01 X-7.30014 Y2.42773
G01 X-7.18846 Y2.41822
G01 X-7.07529 Y2.41131
G01 X-6.96212 Y2.40707
G01 X-6.85126 Y2.40562
G01 X-6.76888 Y2.38230
G01 X-6.68435 Y2.36008
G01 X-6.59981 Y2.33947
G01 X-6.51527 Y2.32049
G01 X-6.43045 Y2.30307
G01 X-6.34590 Y2.28732
G01 X-6.26134 Y2.27319
G01 X-6.17678 Y2.26068
G01 X-6.09251 Y2.24983
G01 X-6.00766 Y2.24052
G01 X-5.92310 Y2.23287
G01 X-5.83854 Y2.22683
G01 X-5.75426 Y2.22243
G01 X-5.66941 Y2.21963
G01 X-5.58513 Y2.21845
G01 X-5.50057 Y2.21889
G01 X-5.41571 Y2.22095
G01 X-5.33115 Y2.22463
G01 X-5.24687 Y2.22991
G01 X-5.16231 Y2.23683
G01 X-5.07747 Y2.24539
G01 X-4.99319 Y2.25551
G01 X-4.90863 Y2.26728
G01 X-4.82380 Y2.28071
G01 X-4.73925 Y2.29573
G01 X-4.65470 Y2.31236
G01 X-4.57042 Y2.33054
G01 X-4.48588 Y2.35041
G01 X-4.40108 Y2.37195
G01 X-4.31680 Y2.39498
G01 X-4.23201 Y2.41978
G01 X-4.15018 Y2.44527
G01 X-4.15021 Y2.44541
G01 X-4.15018 Y2.44527
G01 X-4.03038 Y2.44083
G01 X-3.91019 Y2.43941
G01 X-3.91016 Y2.43955
G01 X-3.91019 Y2.43941
G01 X-3.80316 Y2.40051
G01 X-3.69341 Y2.36344
G01 X-3.58365 Y2.32920
G01 X-3.47388 Y2.29779
G01 X-3.36376 Y2.26912
G01 X-3.25433 Y2.24346
G01 X-3.14418 Y2.22047
G01 X-3.03438 Y2.20038
G01 X-2.92496 Y2.18319
G01 X-2.81478 Y2.16871
G01 X-2.70535 Y2.15716
G01 X-2.59516 Y2.14837
G01 X-2.48574 Y2.14246
G01 X-2.37554 Y2.13935
G01 X-2.26572 Y2.13909
G01 X-2.15630 Y2.14165
G01 X-2.15330 Y2.14203
G01 X-2.15044 Y2.14299
G01 X-2.14783 Y2.14452
G01 X-2.14558 Y2.14653
G01 X-2.07847 Y2.21997
G01 X-2.01355 Y2.29360
G01 X-1.95081 Y2.36746
G01 X-1.89080 Y2.44090
G01 X-1.83297 Y2.51456
G01 X-1.77751 Y2.58824
G01 X-1.72424 Y2.66219
G01 X-1.67370 Y2.73562
G01 X-1.62516 Y2.80962
G01 X-1.57935 Y2.88306
G01 X-1.53573 Y2.95680
G01 X-1.49430 Y3.03087
G01 X-1.45542 Y3.10465
G01 X-1.41892 Y3.17844
G01 X-1.38495 Y3.25188
G01 X-1.35310 Y3.32587
G01 X-1.33239 Y3.37587
G01 X-1.31066 Y3.42989
G01 X-1.29017 Y3.48406
G01 X-1.27098 Y3.53824
G01 X-1.25299 Y3.59274
G01 X-1.23640 Y3.64694
G01 X-1.22112 Y3.70114
G01 X-1.20721 Y3.75502
G01 X-1.19504 Y3.80739
G01 X-1.17176 Y3.85163
G01 X-1.14362 Y3.90767
G01 X-1.13755 Y3.92013
G01 X-1.11180 Y3.97470
G01 X-1.10611 Y3.98717
G01 X-1.08272 Y4.04007
G01 X-1.07743 Y4.05244
G01 X-1.05608 Y4.10412
G01 X-1.05118 Y4.11642
G01 X-1.03182 Y4.16674
G01 X-1.02723 Y4.17912
G01 X-1.00966 Y4.22836
G01 X-1.00538 Y4.24083
G01 X-0.98951 Y4.28903
G01 X-0.98560 Y4.30140
G01 X-0.97140 Y4.34834
G01 X-0.96777 Y4.36090
G01 X-0.95499 Y4.40720
G01 X-0.95171 Y4.41968
G01 X-0.94025 Y4.46557
G01 X-0.93730 Y4.47804
G01 X-0.92724 Y4.52304
G01 X-0.92460 Y4.53552
G01 X-0.91578 Y4.58006
G01 X-0.91348 Y4.59244
G01 X-0.90591 Y4.63630
G01 X-0.90391 Y4.64878
G01 X-0.89749 Y4.69225
G01 X-0.89578 Y4.70492
G01 X-0.89048 Y4.74823
G01 X-0.88910 Y4.76071
G01 X-0.88492 Y4.80363
G01 X-0.88385 Y4.81611
G01 X-0.88075 Y4.85867
G01 X-0.87999 Y4.87134
G01 X-0.87795 Y4.91370
G01 X-0.87750 Y4.92619
G01 X-0.87650 Y4.96865
G01 X-0.87636 Y4.98103
G01 X-0.89636 Y4.98108
G01 X-0.89650 Y4.96891
G01 X-0.89749 Y4.92687
G01 X-0.89793 Y4.91463
G01 X-0.89996 Y4.87233
G01 X-0.90070 Y4.86010
G01 X-0.90380 Y4.81759
G01 X-0.90484 Y4.80535
G01 X-0.90901 Y4.76269
G01 X-0.91035 Y4.75045
G01 X-0.91563 Y4.70738
G01 X-0.91728 Y4.69514
G01 X-0.92369 Y4.65173
G01 X-0.92565 Y4.63949
G01 X-0.93319 Y4.59587
G01 X-0.93544 Y4.58373
G01 X-0.94418 Y4.53962
G01 X-0.94676 Y4.52738
G01 X-0.95681 Y4.48244
G01 X-0.95971 Y4.47020
G01 X-0.97111 Y4.42456
G01 X-0.97433 Y4.41232
G01 X-0.98704 Y4.36625
G01 X-0.99055 Y4.35410
G01 X-1.00474 Y4.30722
G01 X-1.00857 Y4.29508
G01 X-1.02437 Y4.24712
G01 X-1.02857 Y4.23488
G01 X-1.04600 Y4.18604
G01 X-1.05050 Y4.17390
G01 X-1.06977 Y4.12380
G01 X-1.07465 Y4.11156
G01 X-1.09583 Y4.06027
G01 X-1.10102 Y4.04812
G01 X-1.12431 Y3.99545
G01 X-1.12990 Y3.98321
G01 X-1.15554 Y3.92886
G01 X-1.16150 Y3.91661
G01 X-1.18962 Y3.86063
G01 X-1.21063 Y3.82054
G01 X-1.21006 Y3.81757
G01 X-1.21063 Y3.82054
G01 X-1.26895 Y3.87071
G01 X-1.41693 Y3.99671
G01 X-1.52782 Y4.08986
G01 X-1.61503 Y4.16198
G01 X-1.63623 Y4.17930
G01 X-1.70537 Y4.23512
G01 X-1.76314 Y4.28072
G01 X-1.81266 Y4.31884
G01 X-1.84048 Y4.33977
G01 X-1.87928 Y4.36827
G01 X-1.91437 Y4.39322
G01 X-1.94646 Y4.41526
G01 X-1.95953 Y4.42399
G01 X-1.98870 Y4.44291
G01 X-2.00388 Y4.45244
G01 X-2.02996 Y4.46823
G01 X-2.05472 Y4.48251
G01 X-2.06643 Y4.48901
G01 X-2.10191 Y4.50795
G01 X-2.11299 Y4.51403
G01 X-2.12412 Y4.52033
G01 X-2.14568 Y4.53304
G01 X-2.15640 Y4.53963
G01 X-2.17708 Y4.55288
G01 X-2.19697 Y4.56633
G01 X-2.21634 Y4.58014
G01 X-2.23518 Y4.59427
G01 X-2.25350 Y4.60873
G01 X-2.27129 Y4.62350
G01 X-2.27942 Y4.63051
G01 X-2.29646 Y4.64573
G01 X-2.31301 Y4.66126
G01 X-2.32178 Y4.66980
G01 X-2.33781 Y4.68602
G01 X-2.35336 Y4.70255
G01 X-2.36860 Y4.71956
G01 X-2.38353 Y4.73707
G01 X-2.39041 Y4.74544
G01 X-2.39811 Y4.75505
G01 X-2.41228 Y4.77343
G01 X-2.42610 Y4.79229
G01 X-2.43266 Y4.80159
G01 X-2.44619 Y4.82152
G01 X-2.45937 Y4.84201
G01 X-2.46598 Y4.85271
G01 X-2.47873 Y4.87424
G01 X-2.49120 Y4.89652
G01 X-2.49741 Y4.90812
G01 X-2.50946 Y4.93167
G01 X-2.52128 Y4.95621
G01 X-2.52672 Y4.96808
G01 X-2.53801 Y4.99388
G01 X-2.54897 Y5.02072
G01 X-2.55491 Y5.03608
G01 X-2.56544 Y5.06496
G01 X-2.57558 Y5.09503
G01 X-2.57975 Y5.10818
G01 X-2.58540 Y5.12676
G01 X-2.58930 Y5.14018
G01 X-2.59480 Y5.15998
G01 X-2.59842 Y5.17368
G01 X-2.60373 Y5.19484
G01 X-2.60704 Y5.20872
G01 X-2.61215 Y5.23140
G01 X-2.61829 Y5.26087
G01 X-2.62071 Y5.28336
G01 X-2.62542 Y5.32350
G01 X-2.63094 Y5.36663
G01 X-2.63745 Y5.41347
G01 X-2.64253 Y5.44793
G01 X-2.65116 Y5.50355
G01 X-2.66456 Y5.58443
G01 X-2.67716 Y5.65637
G01 X-2.69233 Y5.73966
G01 X-2.71087 Y5.83754
G01 X-2.73363 Y5.95394
G01 X-2.76240 Y6.09713
G01 X-2.79259 Y6.24387
G01 X-2.84942 Y6.51481
G01 X-2.91976 Y6.84362
G01 X-3.01158 Y7.26755
G01 X-3.06154 Y7.49561
G01 X-3.06334 Y7.49679
G01 X-3.06154 Y7.49561
G01 X-2.96963 Y7.51353
G01 X-2.84985 Y7.53443
G01 X-2.83761 Y7.53641
G01 X-2.71862 Y7.55418
G01 X-2.70639 Y7.55585
G01 X-2.58901 Y7.57044
G01 X-2.57687 Y7.57179
G01 X-2.45984 Y7.58343
G01 X-2.40883 Y7.58770
G01 X-2.40869 Y7.58811
G01 X-2.40883 Y7.58770
G01 X-2.32531 Y7.51519
G01 X-2.31151 Y7.50301
G01 X-2.25072 Y7.44871
G01 X-2.19141 Y7.39442
G01 X-2.12350 Y7.33085
G01 X-2.07016 Y7.27955
G01 X-2.00838 Y7.21880
G01 X-1.96039 Y7.17032
G01 X-1.94840 Y7.15806
G01 X-1.86068 Y7.06612
G01 X-1.84928 Y7.05386
G01 X-1.77014 Y6.96671
G01 X-1.75928 Y6.95446
G01 X-1.68792 Y6.87189
G01 X-1.67768 Y6.85974
G01 X-1.61294 Y6.78102
G01 X-1.60312 Y6.76877
G01 X-1.54420 Y6.69343
G01 X-1.53493 Y6.68127
G01 X-1.48133 Y6.60916
G01 X-1.47246 Y6.59691
G01 X-1.42376 Y6.52792
G01 X-1.41541 Y6.51578
G01 X-1.37106 Y6.44957
G01 X-1.36313 Y6.43742
G01 X-1.32254 Y6.37350
G01 X-1.31497 Y6.36125
G01 X-1.27780 Y6.29941
G01 X-1.27065 Y6.28716
G01 X-1.23663 Y6.22729
G01 X-1.22988 Y6.21505
G01 X-1.19883 Y6.15712
G01 X-1.19246 Y6.14488
G01 X-1.16419 Y6.08887
G01 X-1.15820 Y6.07662
G01 X-1.13247 Y6.02235
G01 X-1.12689 Y6.01021
G01 X-1.10342 Y5.95742
G01 X-1.09815 Y5.94517
G01 X-1.07673 Y5.89360
G01 X-1.07182 Y5.88136
G01 X-1.05241 Y5.83121
G01 X-1.04788 Y5.81907
G01 X-1.03026 Y5.77001
G01 X-1.02604 Y5.75777
G01 X-1.01005 Y5.70955
G01 X-1.00616 Y5.69731
G01 X-0.99184 Y5.65029
G01 X-0.98831 Y5.63815
G01 X-0.97546 Y5.59191
G01 X-0.97222 Y5.57967
G01 X-0.96072 Y5.53400
G01 X-0.95780 Y5.52176
G01 X-0.94767 Y5.47685
G01 X-0.94506 Y5.46461
G01 X-0.93621 Y5.42037
G01 X-0.93394 Y5.40823
G01 X-0.92631 Y5.36452
G01 X-0.92432 Y5.35228
G01 X-0.91785 Y5.30894
G01 X-0.91617 Y5.29670
G01 X-0.91082 Y5.25364
G01 X-0.90945 Y5.24140
G01 X-0.90519 Y5.19861
G01 X-0.90413 Y5.18637
G01 X-0.90096 Y5.14391
G01 X-0.90020 Y5.13167
G01 X-0.89809 Y5.08952
G01 X-0.89763 Y5.07738
G01 X-0.89656 Y5.03535
G01 X-0.89640 Y5.02311
G01 X-0.89636 Y4.98105
G01 X-0.90636 Y4.98110
G01 X-0.90640 Y5.02304
G01 X-0.90656 Y5.03515
G01 X-0.90763 Y5.07707
G01 X-0.90808 Y5.08908
G01 X-0.91018 Y5.13111
G01 X-0.91094 Y5.14322
G01 X-0.91410 Y5.18556
G01 X-0.91515 Y5.19768
G01 X-0.91939 Y5.24035
G01 X-0.92075 Y5.25247
G01 X-0.92609 Y5.29540
G01 X-0.92775 Y5.30752
G01 X-0.93421 Y5.35074
G01 X-0.93617 Y5.36286
G01 X-0.94378 Y5.40645
G01 X-0.94603 Y5.41847
G01 X-0.95486 Y5.46259
G01 X-0.95743 Y5.47471
G01 X-0.96754 Y5.51950
G01 X-0.97044 Y5.53162
G01 X-0.98190 Y5.57717
G01 X-0.98511 Y5.58929
G01 X-0.99793 Y5.63541
G01 X-1.00143 Y5.64744
G01 X-1.01571 Y5.69434
G01 X-1.01956 Y5.70646
G01 X-1.03551 Y5.75456
G01 X-1.03970 Y5.76669
G01 X-1.05727 Y5.81563
G01 X-1.06176 Y5.82766
G01 X-1.08112 Y5.87769
G01 X-1.08598 Y5.88982
G01 X-1.10736 Y5.94128
G01 X-1.11258 Y5.95341
G01 X-1.13600 Y6.00609
G01 X-1.14153 Y6.01812
G01 X-1.16721 Y6.07228
G01 X-1.17315 Y6.08441
G01 X-1.20136 Y6.14032
G01 X-1.20768 Y6.15245
G01 X-1.23866 Y6.21027
G01 X-1.24536 Y6.22241
G01 X-1.27931 Y6.28217
G01 X-1.28640 Y6.29431
G01 X-1.32351 Y6.35604
G01 X-1.33102 Y6.36819
G01 X-1.37154 Y6.43201
G01 X-1.37940 Y6.44405
G01 X-1.42369 Y6.51016
G01 X-1.43197 Y6.52221
G01 X-1.48059 Y6.59109
G01 X-1.48939 Y6.60324
G01 X-1.54293 Y6.67526
G01 X-1.55211 Y6.68731
G01 X-1.61096 Y6.76256
G01 X-1.62071 Y6.77471
G01 X-1.68537 Y6.85334
G01 X-1.69553 Y6.86540
G01 X-1.76681 Y6.94787
G01 X-1.77758 Y6.96003
G01 X-1.85664 Y7.04710
G01 X-1.86796 Y7.05926
G01 X-1.95559 Y7.15111
G01 X-2.01544 Y7.21172
G01 X-2.07712 Y7.27237
G01 X-2.13039 Y7.32360
G01 X-2.19819 Y7.38706
G01 X-2.25743 Y7.44130
G01 X-2.33190 Y7.50767
G01 X-2.41220 Y7.57739
G01 X-2.41194 Y7.57820
G01 X-2.41220 Y7.57739
G01 X-2.45892 Y7.57347
G01 X-2.57582 Y7.56185
G01 X-2.58784 Y7.56051
G01 X-2.70509 Y7.54593
G01 X-2.71721 Y7.54428
G01 X-2.83607 Y7.52653
G01 X-2.84819 Y7.52457
G01 X-2.96785 Y7.50369
G01 X-3.04958 Y7.48777
G01 X-3.05317 Y7.49013
G01 X-3.04958 Y7.48777
G01 X-3.00181 Y7.26966
G01 X-2.89980 Y6.79832
G01 X-2.83964 Y6.51690
G01 X-2.78747 Y6.26839
G01 X-2.75260 Y6.09917
G01 X-2.72382 Y5.95587
G01 X-2.70105 Y5.83947
G01 X-2.68250 Y5.74152
G01 X-2.66732 Y5.65813
G01 X-2.65469 Y5.58607
G01 X-2.64128 Y5.50514
G01 X-2.63264 Y5.44944
G01 X-2.62755 Y5.41484
G01 X-2.62104 Y5.36800
G01 X-2.61549 Y5.32467
G01 X-2.61077 Y5.28446
G01 X-2.60840 Y5.26239
G01 X-2.60238 Y5.23354
G01 X-2.59729 Y5.21098
G01 X-2.59402 Y5.19722
G01 X-2.58873 Y5.17617
G01 X-2.58514 Y5.16260
G01 X-2.57968 Y5.14291
G01 X-2.57582 Y5.12961
G01 X-2.56606 Y5.09812
G01 X-2.55601 Y5.06828
G01 X-2.54556 Y5.03962
G01 X-2.53476 Y5.01214
G01 X-2.52364 Y4.98577
G01 X-2.51761 Y4.97219
G01 X-2.50614 Y4.94763
G01 X-2.49438 Y4.92397
G01 X-2.48241 Y4.90129
G01 X-2.47632 Y4.89024
G01 X-2.46375 Y4.86841
G01 X-2.45744 Y4.85791
G01 X-2.44455 Y4.83732
G01 X-2.43144 Y4.81746
G01 X-2.42446 Y4.80730
G01 X-2.41083 Y4.78825
G01 X-2.40429 Y4.77944
G01 X-2.39026 Y4.76126
G01 X-2.37584 Y4.74347
G01 X-2.36800 Y4.73417
G01 X-2.35303 Y4.71706
G01 X-2.34599 Y4.70931
G01 X-2.33061 Y4.69297
G01 X-2.31475 Y4.67692
G01 X-2.30607 Y4.66846
G01 X-2.28970 Y4.65310
G01 X-2.27284 Y4.63804
G01 X-2.26480 Y4.63112
G01 X-2.24720 Y4.61651
G01 X-2.22908 Y4.60220
G01 X-2.21044 Y4.58821
G01 X-2.19127 Y4.57455
G01 X-2.17158 Y4.56124
G01 X-2.16119 Y4.55449
G01 X-2.14049 Y4.54159
G01 X-2.11915 Y4.52900
G01 X-2.10812 Y4.52277
G01 X-2.09715 Y4.51674
G01 X-2.06152 Y4.49773
G01 X-2.04977 Y4.49120
G01 X-2.02478 Y4.47678
G01 X-1.99866 Y4.46096
G01 X-1.98342 Y4.45141
G01 X-1.95405 Y4.43235
G01 X-1.94083 Y4.42352
G01 X-1.90867 Y4.40144
G01 X-1.87338 Y4.37634
G01 X-1.83445 Y4.34774
G01 X-1.80665 Y4.32683
G01 X-1.75703 Y4.28863
G01 X-1.73937 Y4.27481
G01 X-1.67996 Y4.22758
G01 X-1.60872 Y4.16974
G01 X-1.52138 Y4.09751
G01 X-1.43776 Y4.02739
G01 X-1.29444 Y3.90567
G01 X-1.21362 Y3.83630
G01 X-1.21242 Y3.83027
G01 X-1.21362 Y3.83630
G01 X-1.19853 Y3.86517
G01 X-1.17047 Y3.92105
G01 X-1.16456 Y3.93318
G01 X-1.13897 Y3.98742
G01 X-1.13343 Y3.99955
G01 X-1.11020 Y4.05211
G01 X-1.10505 Y4.06414
G01 X-1.08391 Y4.11532
G01 X-1.07908 Y4.12745
G01 X-1.05985 Y4.17743
G01 X-1.05540 Y4.18946
G01 X-1.03801 Y4.23818
G01 X-1.03385 Y4.25031
G01 X-1.01809 Y4.29815
G01 X-1.01429 Y4.31018
G01 X-1.00014 Y4.35694
G01 X-0.99667 Y4.36897
G01 X-0.98398 Y4.41492
G01 X-0.98080 Y4.42704
G01 X-0.96943 Y4.47257
G01 X-0.96656 Y4.48468
G01 X-0.95653 Y4.52950
G01 X-0.95398 Y4.54162
G01 X-0.94526 Y4.58562
G01 X-0.94303 Y4.59763
G01 X-0.93551 Y4.64113
G01 X-0.93357 Y4.65325
G01 X-0.92718 Y4.69654
G01 X-0.92555 Y4.70866
G01 X-0.92029 Y4.75160
G01 X-0.91895 Y4.76372
G01 X-0.91480 Y4.80626
G01 X-0.91377 Y4.81838
G01 X-0.91068 Y4.86076
G01 X-0.90995 Y4.87288
G01 X-0.90792 Y4.91505
G01 X-0.90748 Y4.92717
G01 X-0.90650 Y4.96908
G01 X-0.90636 Y4.98110
G01 X-0.89636 Y4.98108
G04 P0 ( dwell for no time -- G64 should not smooth over this point )
G00 Z0.08000 ( retract )

G00 X-3.34667 Y7.48512 ( rapid move to begin. )
G01 F3.00000
( Mill infeed pass 1/1 )
G01 Z-0.00800
G04 P0 ( dwell for no time -- G64 should not smooth over this point )
G01 F6.00000
G01 X-3.34667 Y7.48512
G01 X-3.34815 Y7.48394
G01 X-3.41504 Y6.69522
G01 X-3.45086 Y6.27761
G01 X-3.47450 Y6.00599
G01 X-3.49029 Y5.82756
G01 X-3.50023 Y5.71733
G01 X-3.50277 Y5.68713
G01 X-3.50501 Y5.65676
G01 X-3.50497 Y5.36375
G01 X-3.49899 Y5.30265
G01 X-3.48369 Y5.17626
G01 X-3.47157 Y5.07017
G01 X-3.46208 Y4.98135
G01 X-3.45361 Y4.89631
G01 X-3.44617 Y4.81618
G01 X-3.44226 Y4.77183
G01 X-3.43390 Y4.67174
G01 X-3.42407 Y4.54564
G01 X-3.41661 Y4.44471
G01 X-3.41661 Y4.37630
G01 X-3.41802 Y4.29989
G01 X-3.42224 Y4.22070
G01 X-3.42929 Y4.13867
G01 X-3.43915 Y4.05380
G01 X-3.45183 Y3.96611
G01 X-3.46733 Y3.87558
G01 X-3.48565 Y3.78222
G01 X-3.50679 Y3.68603
G01 X-3.53076 Y3.58701
G01 X-3.55755 Y3.48516
G01 X-3.58716 Y3.38048
G01 X-3.61959 Y3.27297
G01 X-3.65484 Y3.16264
G01 X-3.69292 Y3.04948
G01 X-3.73382 Y2.93349
G01 X-3.77755 Y2.81467
G01 X-3.91091 Y2.45942
G01 X-3.91028 Y2.45851
G01 X-3.91091 Y2.45942
G01 X-4.02971 Y2.46082
G01 X-4.14832 Y2.46521
G01 X-4.14908 Y2.46426
G01 X-4.14832 Y2.46521
G01 X-4.35171 Y3.22644
G01 X-4.38528 Y3.35746
G01 X-4.41492 Y3.48453
G01 X-4.44064 Y3.60767
G01 X-4.46245 Y3.72690
G01 X-4.47188 Y3.78501
G01 X-4.48033 Y3.84215
G01 X-4.48780 Y3.89832
G01 X-4.49429 Y3.95350
G01 X-4.49980 Y4.00769
G01 X-4.50433 Y4.06090
G01 X-4.50788 Y4.11313
G01 X-4.51046 Y4.16407
G01 X-4.49898 Y4.29175
G01 X-4.49498 Y4.34325
G01 X-4.49502 Y4.63622
G01 X-4.49903 Y4.67964
G01 X-4.50201 Y4.70577
G01 X-4.51441 Y4.80770
G01 X-4.52632 Y4.91091
G01 X-4.53612 Y5.00133
G01 X-4.54503 Y5.08963
G01 X-4.55349 Y5.18010
G01 X-4.56240 Y5.28304
G01 X-4.57276 Y5.41279
G01 X-4.58323 Y5.55328
G01 X-4.58713 Y5.59958
G01 X-4.59030 Y5.63116
G01 X-4.59969 Y5.71858
G01 X-4.59738 Y5.76846
G01 X-4.59397 Y5.81978
G01 X-4.58944 Y5.87221
G01 X-4.58380 Y5.92577
G01 X-4.57705 Y5.98044
G01 X-4.56919 Y6.03623
G01 X-4.56022 Y6.09314
G01 X-4.55013 Y6.15117
G01 X-4.29859 Y7.53601
G01 X-4.29952 Y7.53709
G01 X-4.29859 Y7.53601
G01 X-4.18268 Y7.53970
G01 X-4.06281 Y7.54055
G01 X-3.94293 Y7.53843
G01 X-3.82305 Y7.53335
G01 X-3.70317 Y7.52529
G01 X-3.58329 Y7.51426
G01 X-3.46341 Y7.50026
G01 X-3.34815 Y7.48394
G01 X-3.35890 Y7.47537
G01 X-3.46469 Y7.49034
G01 X-3.58433 Y7.50431
G01 X-3.70396 Y7.51532
G01 X-3.82360 Y7.52336
G01 X-3.94323 Y7.52844
G01 X-4.06286 Y7.53055
G01 X-4.18249 Y7.52970
G01 X-4.29019 Y7.52627
G01 X-4.29206 Y7.52843
G01 X-4.29019 Y7.52627
G01 X-4.54029 Y6.14942
G01 X-4.55035 Y6.09150
G01 X-4.55930 Y6.03475
G01 X-4.56714 Y5.97913
G01 X-4.57387 Y5.92463
G01 X-4.57949 Y5.87126
G01 X-4.58400 Y5.81901
G01 X-4.58740 Y5.76789
G01 X-4.58968 Y5.71889
G01 X-4.58036 Y5.63223
G01 X-4.57717 Y5.60042
G01 X-4.57325 Y5.55395
G01 X-4.56247 Y5.40930
G01 X-4.55243 Y5.28386
G01 X-4.54354 Y5.18099
G01 X-4.53508 Y5.09059
G01 X-4.53041 Y5.04347
G01 X-4.52112 Y4.95494
G01 X-4.51043 Y4.85968
G01 X-4.50405 Y4.80527
G01 X-4.49207 Y4.70686
G01 X-4.48909 Y4.68077
G01 X-4.48500 Y4.63578
G01 X-4.48498 Y4.34324
G01 X-4.48902 Y4.29087
G01 X-4.50045 Y4.16387
G01 X-4.49790 Y4.11372
G01 X-4.49436 Y4.06166
G01 X-4.48984 Y4.00862
G01 X-4.48435 Y3.95458
G01 X-4.47788 Y3.89956
G01 X-4.47042 Y3.84355
G01 X-4.46199 Y3.78654
G01 X-4.45259 Y3.72860
G01 X-4.43083 Y3.60960
G01 X-4.40516 Y3.48669
G01 X-4.37556 Y3.35984
G01 X-4.34203 Y3.22897
G01 X-4.14056 Y2.47493
G01 X-4.14208 Y2.47303
G01 X-4.14056 Y2.47493
G01 X-4.02946 Y2.47082
G01 X-3.91780 Y2.46950
G01 X-3.91655 Y2.46767
G01 X-3.91780 Y2.46950
G01 X-3.78692 Y2.81815
G01 X-3.74323 Y2.93688
G01 X-3.70237 Y3.05274
G01 X-3.66434 Y3.16576
G01 X-3.62914 Y3.27594
G01 X-3.59676 Y3.38328
G01 X-3.56719 Y3.48779
G01 X-3.54046 Y3.58946
G01 X-3.51654 Y3.68828
G01 X-3.49544 Y3.78425
G01 X-3.47716 Y3.87738
G01 X-3.46171 Y3.96767
G01 X-3.44906 Y4.05510
G01 X-3.43924 Y4.13967
G01 X-3.43222 Y4.22139
G01 X-3.42801 Y4.30025
G01 X-3.42661 Y4.37639
G01 X-3.42660 Y4.44434
G01 X-3.43404 Y4.54488
G01 X-3.44387 Y4.67093
G01 X-3.45222 Y4.77096
G01 X-3.45969 Y4.85430
G01 X-3.46384 Y4.89825
G01 X-3.47202 Y4.98031
G01 X-3.48151 Y5.06908
G01 X-3.49363 Y5.17508
G01 X-3.50892 Y5.30146
G01 X-3.51492 Y5.36278
G01 X-3.51501 Y5.65677
G01 X-3.51274 Y5.68788
G01 X-3.51019 Y5.71823
G01 X-3.50025 Y5.82845
G01 X-3.48446 Y6.00687
G01 X-3.46083 Y6.27846
G01 X-3.42501 Y6.69607
G01 X-3.35890 Y7.47537
G04 P0 ( dwell for no time -- G64 should not smooth over this point )
G00 Z0.08000 ( retract )

G00 X-7.10148 Y7.62144 ( rapid move to begin. )
G01 F3.00000
( Mill infeed pass 1/1 )
G01 Z-0.00800
G04 P0 ( dwell for no time -- G64 should not smooth over this point )
G01 F6.00000
G01 X-7.10148 Y7.62144
G01 X-7.10286 Y7.62081
G01 X-7.12821 Y7.63340
G01 X-7.23840 Y7.68617
G01 X-7.34859 Y7.73569
G01 X-7.45898 Y7.78214
G01 X-7.56623 Y7.82415
G01 X-7.67304 Y7.86302
G01 X-7.77672 Y7.89783
G01 X-7.86900 Y7.92647
G01 X-7.95614 Y7.95140
G01 X-7.95619 Y7.95183
G01 X-7.95614 Y7.95140
G01 X-7.99626 Y7.92839
G01 X-8.07280 Y7.88367
G01 X-8.14729 Y7.83896
G01 X-8.21974 Y7.79425
G01 X-8.29017 Y7.74953
G01 X-8.40908 Y7.67106
G01 X-8.46387 Y7.63344
G01 X-8.52152 Y7.59272
G01 X-8.61100 Y7.52717
G01 X-8.69606 Y7.46161
G01 X-8.77221 Y7.39997
G01 X-8.84085 Y7.34150
G01 X-8.90277 Y7.28613
G01 X-8.95826 Y7.23392
G01 X-9.00890 Y7.18395
G01 X-9.05399 Y7.13714
G01 X-9.09619 Y7.09119
G01 X-9.13619 Y7.04525
G01 X-9.16853 Y7.00628
G01 X-9.19928 Y6.96732
G01 X-9.22875 Y6.92809
G01 X-9.25444 Y6.89202
G01 X-9.27942 Y6.85513
G01 X-9.30297 Y6.81825
G01 X-9.32196 Y6.78691
G01 X-9.34167 Y6.75243
G01 X-9.35778 Y6.72263
G01 X-9.37296 Y6.69283
G01 X-9.40065 Y6.63331
G01 X-9.42390 Y6.57612
G01 X-9.44312 Y6.52128
G01 X-9.45891 Y6.46792
G01 X-9.47137 Y6.41677
G01 X-9.48100 Y6.36680
G01 X-9.48813 Y6.31676
G01 X-9.49269 Y6.26745
G01 X-9.49481 Y6.21849
G01 X-9.49451 Y6.16932
G01 X-9.49154 Y6.11719
G01 X-9.48617 Y6.06761
G01 X-9.47822 Y6.01739
G01 X-9.46823 Y5.96928
G01 X-9.45473 Y5.91697
G01 X-9.45188 Y5.90714
G01 X-9.45245 Y5.90657
G01 X-9.45188 Y5.90714
G01 X-9.42793 Y5.90080
G01 X-9.40556 Y5.89510
G01 X-9.38377 Y5.88973
G01 X-9.35561 Y5.88310
G01 X-9.31434 Y5.87402
G01 X-9.28874 Y5.86884
G01 X-9.25314 Y5.86219
G01 X-9.21632 Y5.85607
G01 X-9.18390 Y5.85139
G01 X-9.14918 Y5.84714
G01 X-9.12775 Y5.84494
G01 X-9.10649 Y5.84306
G01 X-9.07707 Y5.84102
G01 X-9.06472 Y5.84035
G01 X-9.04422 Y5.83950
G01 X-9.02374 Y5.83896
G01 X-9.01130 Y5.83880
G01 X-8.99512 Y5.83875
G01 X-8.97467 Y5.83900
G01 X-8.96240 Y5.83929
G01 X-8.94232 Y5.84003
G01 X-8.91288 Y5.84164
G01 X-8.87935 Y5.84427
G01 X-8.84898 Y5.84734
G01 X-8.81435 Y5.85163
G01 X-8.78181 Y5.85638
G01 X-8.75834 Y5.86019
G01 X-8.74500 Y5.86252
G01 X-8.70923 Y5.86922
G01 X-8.66913 Y5.87755
G01 X-8.62891 Y5.88671
G01 X-8.60007 Y5.89369
G01 X-8.58479 Y5.89754
G01 X-8.53789 Y5.90988
G01 X-8.48777 Y5.92392
G01 X-8.45172 Y5.93449
G01 X-8.39126 Y5.95300
G01 X-8.34832 Y5.96667
G01 X-8.30255 Y5.98166
G01 X-8.25343 Y5.99816
G01 X-8.18856 Y6.02048
G01 X-8.11201 Y6.08674
G01 X-8.06758 Y6.12665
G01 X-8.01999 Y6.17164
G01 X-7.97064 Y6.22058
G01 X-7.92128 Y6.27200
G01 X-7.87869 Y6.31822
G01 X-7.65825 Y6.56180
G01 X-7.42930 Y6.81381
G01 X-7.32723 Y7.02848
G01 X-7.18692 Y7.32270
G01 X-7.18225 Y7.33843
G01 X-7.14886 Y7.45479
G01 X-7.10286 Y7.62081
G01 X-7.11470 Y7.61553
G01 X-7.15849 Y7.45750
G01 X-7.19185 Y7.34123
G01 X-7.19626 Y7.32630
G01 X-7.33626 Y7.03277
G01 X-7.43773 Y6.81947
G01 X-7.43764 Y6.81942
G01 X-7.43773 Y6.81947
G01 X-7.46382 Y6.79080
G01 X-7.66169 Y6.57289
G01 X-7.80996 Y6.40921
G01 X-7.88608 Y6.32496
G01 X-7.92854 Y6.27888
G01 X-7.97777 Y6.22759
G01 X-8.02699 Y6.17878
G01 X-8.07436 Y6.13401
G01 X-8.11865 Y6.09422
G01 X-8.19369 Y6.02938
G01 X-8.19360 Y6.02921
G01 X-8.19369 Y6.02938
G01 X-8.25665 Y6.00763
G01 X-8.30569 Y5.99116
G01 X-8.35140 Y5.97619
G01 X-8.37584 Y5.96835
G01 X-8.41658 Y5.95561
G01 X-8.45458 Y5.94407
G01 X-8.50609 Y5.92911
G01 X-8.54051 Y5.91953
G01 X-8.58727 Y5.90723
G01 X-8.61650 Y5.89995
G01 X-8.65880 Y5.89008
G01 X-8.69730 Y5.88184
G01 X-8.72241 Y5.87685
G01 X-8.73602 Y5.87431
G01 X-8.77018 Y5.86835
G01 X-8.80623 Y5.86284
G01 X-8.82565 Y5.86023
G01 X-8.85010 Y5.85728
G01 X-8.88025 Y5.85423
G01 X-8.91354 Y5.85162
G01 X-8.94277 Y5.85002
G01 X-8.96267 Y5.84928
G01 X-8.97485 Y5.84900
G01 X-8.99517 Y5.84875
G01 X-9.01121 Y5.84880
G01 X-9.02356 Y5.84896
G01 X-9.04389 Y5.84950
G01 X-9.06422 Y5.85033
G01 X-9.07648 Y5.85100
G01 X-9.10567 Y5.85302
G01 X-9.13923 Y5.85613
G01 X-9.16988 Y5.85966
G01 X-9.18257 Y5.86130
G01 X-9.20497 Y5.86448
G01 X-9.22794 Y5.86804
G01 X-9.24277 Y5.87053
G01 X-9.27567 Y5.87648
G01 X-9.31229 Y5.88381
G01 X-9.35337 Y5.89285
G01 X-9.38142 Y5.89945
G01 X-9.39932 Y5.90385
G01 X-9.44385 Y5.91533
G01 X-9.44499 Y5.91419
G01 X-9.44385 Y5.91533
G01 X-9.44508 Y5.91961
G01 X-9.45780 Y5.96859
G01 X-9.46892 Y6.02213
G01 X-9.47627 Y6.06904
G01 X-9.48158 Y6.11813
G01 X-9.48442 Y6.16669
G01 X-9.48486 Y6.21537
G01 X-9.48272 Y6.26667
G01 X-9.47821 Y6.31549
G01 X-9.47115 Y6.36504
G01 X-9.46162 Y6.41453
G01 X-9.44928 Y6.46521
G01 X-9.43363 Y6.51810
G01 X-9.41459 Y6.57248
G01 X-9.39152 Y6.62921
G01 X-9.36402 Y6.68835
G01 X-9.34893 Y6.71798
G01 X-9.33290 Y6.74762
G01 X-9.31335 Y6.78183
G01 X-9.29445 Y6.81302
G01 X-9.27106 Y6.84964
G01 X-9.24626 Y6.88627
G01 X-9.22068 Y6.92219
G01 X-9.19139 Y6.96117
G01 X-9.16075 Y6.99999
G01 X-9.12854 Y7.03881
G01 X-9.08873 Y7.08452
G01 X-9.04674 Y7.13025
G01 X-9.00178 Y7.17692
G01 X-8.95136 Y7.22668
G01 X-8.89601 Y7.27876
G01 X-8.83432 Y7.33393
G01 X-8.76582 Y7.39228
G01 X-8.68991 Y7.45373
G01 X-8.60499 Y7.51917
G01 X-8.51566 Y7.58462
G01 X-8.45815 Y7.62523
G01 X-8.40349 Y7.66277
G01 X-8.28478 Y7.74111
G01 X-8.21444 Y7.78578
G01 X-8.14209 Y7.83042
G01 X-8.06771 Y7.87507
G01 X-7.99124 Y7.91974
G01 X-7.95483 Y7.94063
G01 X-7.95493 Y7.94149
G01 X-7.95483 Y7.94063
G01 X-7.87186 Y7.91689
G01 X-7.77984 Y7.88833
G01 X-7.67634 Y7.85358
G01 X-7.56982 Y7.81481
G01 X-7.46274 Y7.77287
G01 X-7.35264 Y7.72654
G01 X-7.24261 Y7.67710
G01 X-7.13259 Y7.62441
G01 X-7.11470 Y7.61553
G04 P0 ( dwell for no time -- G64 should not smooth over this point )
G00 Z0.08000 ( retract )

G00 X-7.18426 Y7.29688 ( rapid move to begin. )
G01 F3.00000
( Mill infeed pass 1/1 )
G01 Z-0.00800
G04 P0 ( dwell for no time -- G64 should not smooth over this point )
G01 F6.00000
G01 X-7.18426 Y7.29688
G01 X-7.18576 Y7.27869
G01 X-7.30917 Y7.01988
G01 X-7.41008 Y6.80778
G01 X-7.41035 Y6.80783
G01 X-7.41008 Y6.80778
G01 X-7.39116 Y5.82115
G01 X-7.39072 Y5.77323
G01 X-7.39126 Y5.72659
G01 X-7.39277 Y5.68144
G01 X-7.39526 Y5.63710
G01 X-7.39876 Y5.59352
G01 X-7.40318 Y5.55184
G01 X-7.40861 Y5.51092
G01 X-7.41506 Y5.47092
G01 X-7.45847 Y5.22475
G01 X-7.46412 Y5.18821
G01 X-7.46801 Y5.15272
G01 X-7.49329 Y4.85935
G01 X-7.49530 Y4.82504
G01 X-7.49549 Y4.78984
G01 X-7.49386 Y4.75353
G01 X-7.49043 Y4.71610
G01 X-7.48517 Y4.67757
G01 X-7.47808 Y4.63792
G01 X-7.46915 Y4.59716
G01 X-7.45837 Y4.55518
G01 X-7.42431 Y4.43147
G01 X-7.41212 Y4.38501
G01 X-7.40064 Y4.33692
G01 X-7.38989 Y4.28731
G01 X-7.37970 Y4.23531
G01 X-7.37028 Y4.18206
G01 X-7.36149 Y4.12673
G01 X-7.35336 Y4.06959
G01 X-7.34588 Y4.01042
G01 X-7.33909 Y3.94968
G01 X-7.33297 Y3.88712
G01 X-7.32753 Y3.82293
G01 X-7.32272 Y3.75648
G01 X-7.31515 Y3.61869
G01 X-7.31024 Y3.47392
G01 X-7.28569 Y2.45656
G01 X-7.28819 Y2.45421
G01 X-7.28569 Y2.45656
G01 X-7.18645 Y2.44815
G01 X-7.07399 Y2.44128
G01 X-6.96152 Y2.43706
G01 X-6.86027 Y2.43566
G01 X-6.85876 Y2.43360
G01 X-6.86027 Y2.43566
G01 X-6.76586 Y2.75677
G01 X-6.66647 Y4.69668
G01 X-6.66604 Y4.73351
G01 X-6.65604 Y4.73382
G01 X-6.65647 Y4.69637
G01 X-6.75597 Y2.75508
G01 X-6.85282 Y2.42556
G01 X-6.85206 Y2.42453
G01 X-6.85282 Y2.42556
G01 X-6.96178 Y2.42707
G01 X-7.07448 Y2.43129
G01 X-7.18718 Y2.43818
G01 X-7.29547 Y2.44735
G01 X-7.29672 Y2.44618
G01 X-7.29547 Y2.44735
G01 X-7.32024 Y3.47358
G01 X-7.32514 Y3.61835
G01 X-7.33271 Y3.75593
G01 X-7.33749 Y3.82203
G01 X-7.34293 Y3.88627
G01 X-7.34905 Y3.94877
G01 X-7.35582 Y4.00938
G01 X-7.36326 Y4.06818
G01 X-7.37136 Y4.12516
G01 X-7.38013 Y4.18032
G01 X-7.38955 Y4.23357
G01 X-7.39967 Y4.28519
G01 X-7.41043 Y4.33490
G01 X-7.42184 Y4.38269
G01 X-7.43394 Y4.42876
G01 X-7.46803 Y4.55261
G01 X-7.47889 Y4.59485
G01 X-7.48789 Y4.63597
G01 X-7.49505 Y4.67601
G01 X-7.50036 Y4.71497
G01 X-7.50384 Y4.75285
G01 X-7.50549 Y4.78965
G01 X-7.50530 Y4.82536
G01 X-7.50327 Y4.86007
G01 X-7.47797 Y5.15370
G01 X-7.47404 Y5.18952
G01 X-7.46833 Y5.22638
G01 X-7.42491 Y5.47265
G01 X-7.41852 Y5.51224
G01 X-7.41312 Y5.55289
G01 X-7.40869 Y5.59470
G01 X-7.40525 Y5.63754
G01 X-7.40276 Y5.68177
G01 X-7.40126 Y5.72703
G01 X-7.40072 Y5.77334
G01 X-7.40116 Y5.82091
G01 X-7.42012 Y6.80994
G01 X-7.42026 Y6.80997
G01 X-7.42012 Y6.80994
G01 X-7.31598 Y7.02884
G01 X-7.18342 Y7.30683
G01 X-7.18267 Y7.31593
G01 X-7.18342 Y7.30683
G01 X-7.14214 Y7.16266
G01 X-7.10001 Y7.01178
G01 X-7.06066 Y6.86687
G01 X-7.02409 Y6.72794
G01 X-6.99031 Y6.59498
G01 X-6.95932 Y6.46799
G01 X-6.93111 Y6.34697
G01 X-6.90568 Y6.23193
G01 X-6.88304 Y6.12287
G01 X-6.86318 Y6.01978
G01 X-6.84610 Y5.92268
G01 X-6.83181 Y5.83155
G01 X-6.82030 Y5.74641
G01 X-6.81158 Y5.66726
G01 X-6.80563 Y5.59410
G01 X-6.80247 Y5.52689
G01 X-6.79499 Y5.25674
G01 X-6.79387 Y5.23885
G01 X-6.79160 Y5.22169
G01 X-6.78808 Y5.20439
G01 X-6.78330 Y5.18715
G01 X-6.67297 Y4.83721
G01 X-6.66824 Y4.82084
G01 X-6.66428 Y4.80416
G01 X-6.66109 Y4.78712
G01 X-6.65865 Y4.76977
G01 X-6.65604 Y4.73382
G01 X-6.66604 Y4.73351
G01 X-6.66859 Y4.76872
G01 X-6.67096 Y4.78550
G01 X-6.67406 Y4.80208
G01 X-6.67791 Y4.81830
G01 X-6.68254 Y4.83432
G01 X-6.79284 Y5.18414
G01 X-6.79763 Y5.20138
G01 X-6.80134 Y5.21934
G01 X-6.80378 Y5.23754
G01 X-6.80498 Y5.25646
G01 X-6.81246 Y5.52652
G01 X-6.81561 Y5.59346
G01 X-6.82153 Y5.66631
G01 X-6.83023 Y5.74520
G01 X-6.84171 Y5.83011
G01 X-6.85597 Y5.92104
G01 X-6.87301 Y6.01797
G01 X-6.89284 Y6.12091
G01 X-6.91546 Y6.22984
G01 X-6.94086 Y6.34476
G01 X-6.96905 Y6.46567
G01 X-7.00002 Y6.59256
G01 X-7.03378 Y6.72544
G01 X-7.07032 Y6.86429
G01 X-7.10965 Y7.00913
G01 X-7.15176 Y7.15994
G01 X-7.18576 Y7.27869
G04 P0 ( dwell for no time -- G64 should not smooth over this point )
G00 Z0.08000 ( retract )

G00 X-7.43342 Y6.78902 ( rapid move to begin. )
G01 F3.00000
( Mill infeed pass 1/1 )
G01 Z-0.00800
G04 P0 ( dwell for no time -- G64 should not smooth over this point )
G01 F6.00000
G01 X-7.43342 Y6.78902
G01 X-7.43942 Y6.77304
G01 X-7.42116 Y5.82065
G01 X-7.42072 Y5.77342
G01 X-7.42125 Y5.72743
G01 X-7.42275 Y5.68261
G01 X-7.42520 Y5.63897
G01 X-7.42861 Y5.59649
G01 X-7.43299 Y5.55520
G01 X-7.43832 Y5.51508
G01 X-7.44463 Y5.47602
G01 X-7.48804 Y5.22980
G01 X-7.49391 Y5.19181
G01 X-7.49789 Y5.15547
G01 X-7.52320 Y4.86172
G01 X-7.52529 Y4.82560
G01 X-7.52547 Y4.78888
G01 X-7.52377 Y4.75114
G01 X-7.52020 Y4.71237
G01 X-7.51475 Y4.67259
G01 X-7.50744 Y4.63179
G01 X-7.49828 Y4.58996
G01 X-7.48739 Y4.54759
G01 X-7.45326 Y4.42359
G01 X-7.44126 Y4.37788
G01 X-7.42992 Y4.33041
G01 X-7.41925 Y4.28110
G01 X-7.40922 Y4.22995
G01 X-7.39985 Y4.17696
G01 X-7.39113 Y4.12214
G01 X-7.38308 Y4.06548
G01 X-7.37568 Y4.00698
G01 X-7.36893 Y3.94665
G01 X-7.36285 Y3.88449
G01 X-7.35743 Y3.82049
G01 X-7.35267 Y3.75471
G01 X-7.34513 Y3.61751
G01 X-7.34023 Y3.47297
G01 X-7.31569 Y2.45610
G01 X-7.30413 Y2.44603
G01 X-7.30547 Y2.44720
G01 X-7.33023 Y3.47326
G01 X-7.33514 Y3.61796
G01 X-7.34269 Y3.75534
G01 X-7.34746 Y3.82128
G01 X-7.35290 Y3.88540
G01 X-7.35899 Y3.94769
G01 X-7.36575 Y4.00817
G01 X-7.37317 Y4.06681
G01 X-7.38125 Y4.12363
G01 X-7.38999 Y4.17862
G01 X-7.39939 Y4.23178
G01 X-7.40945 Y4.28312
G01 X-7.42017 Y4.33263
G01 X-7.43156 Y4.38031
G01 X-7.44360 Y4.42619
G01 X-7.47771 Y4.55008
G01 X-7.48864 Y4.59262
G01 X-7.49768 Y4.63392
G01 X-7.50491 Y4.67435
G01 X-7.51029 Y4.71373
G01 X-7.51381 Y4.75205
G01 X-7.51548 Y4.78933
G01 X-7.51529 Y4.82581
G01 X-7.51324 Y4.86086
G01 X-7.48792 Y5.15461
G01 X-7.48397 Y5.19072
G01 X-7.47819 Y5.22806
G01 X-7.43476 Y5.47436
G01 X-7.42843 Y5.51362
G01 X-7.42306 Y5.55401
G01 X-7.41866 Y5.59557
G01 X-7.41522 Y5.63828
G01 X-7.41275 Y5.68216
G01 X-7.41125 Y5.72720
G01 X-7.41072 Y5.77341
G01 X-7.41116 Y5.82079
G01 X-7.42990 Y6.79837
G01 X-7.42690 Y6.80638
G01 X-7.42990 Y6.79837
G01 X-7.65084 Y6.55508
G01 X-7.87129 Y6.31150
G01 X-7.91400 Y6.26514
G01 X-7.96355 Y6.21352
G01 X-8.01302 Y6.16447
G01 X-8.06076 Y6.11934
G01 X-8.10861 Y6.07642
G01 X-8.18170 Y6.01331
G01 X-8.18187 Y6.01342
G01 X-8.18170 Y6.01331
G01 X-8.20691 Y5.93027
G01 X-8.21985 Y5.88670
G01 X-8.22960 Y5.85320
G01 X-8.24664 Y5.79291
G01 X-8.26090 Y5.74034
G01 X-8.27327 Y5.69259
G01 X-8.27869 Y5.67083
G01 X-8.28838 Y5.63036
G01 X-8.29306 Y5.60986
G01 X-8.30092 Y5.57361
G01 X-8.30401 Y5.55855
G01 X-8.31020 Y5.52656
G01 X-8.31544 Y5.49684
G01 X-8.31984 Y5.46898
G01 X-8.32351 Y5.44259
G01 X-8.32543 Y5.42684
G01 X-8.32799 Y5.40245
G01 X-8.32991 Y5.37930
G01 X-8.33122 Y5.35716
G01 X-8.33292 Y5.30903
G01 X-8.33390 Y5.28913
G01 X-8.33511 Y5.26949
G01 X-8.33654 Y5.25019
G01 X-8.33817 Y5.23127
G01 X-8.34000 Y5.21277
G01 X-8.34202 Y5.19454
G01 X-8.34600 Y5.16345
G01 X-8.34854 Y5.14590
G01 X-8.35127 Y5.12859
G01 X-8.35417 Y5.11158
G01 X-8.35725 Y5.09478
G01 X-8.36442 Y5.05895
G01 X-8.36651 Y5.04654
G01 X-8.36871 Y5.02822
G01 X-8.36973 Y5.01304
G01 X-8.37000 Y4.99791
G01 X-8.36953 Y4.98287
G01 X-8.36861 Y4.97064
G01 X-8.36679 Y4.95543
G01 X-8.36420 Y4.93989
G01 X-8.35772 Y4.90768
G01 X-8.35465 Y4.89112
G01 X-8.35174 Y4.87424
G01 X-8.34900 Y4.85709
G01 X-8.34581 Y4.83522
G01 X-8.34347 Y4.81746
G01 X-8.34130 Y4.79924
G01 X-8.33933 Y4.78073
G01 X-8.33756 Y4.76197
G01 X-8.33599 Y4.74280
G01 X-8.33384 Y4.70970
G01 X-8.33260 Y4.68319
G01 X-8.33147 Y4.64840
G01 X-8.32980 Y4.61923
G01 X-8.32861 Y4.60435
G01 X-8.32627 Y4.58059
G01 X-8.32328 Y4.55570
G01 X-8.31960 Y4.52941
G01 X-8.31516 Y4.50149
G01 X-8.30998 Y4.47225
G01 X-8.30760 Y4.45969
G01 X-8.30372 Y4.44006
G01 X-8.29717 Y4.40890
G01 X-8.28749 Y4.36581
G01 X-8.28274 Y4.34579
G01 X-8.27748 Y4.32423
G01 X-8.26612 Y4.27953
G01 X-8.25287 Y4.22979
G01 X-8.23761 Y4.17488
G01 X-8.22792 Y4.14097
G01 X-8.20812 Y4.07362
G01 X-8.18463 Y3.99619
G01 X-8.15687 Y3.90724
G01 X-8.14579 Y3.87230
G01 X-8.11119 Y3.76472
G01 X-8.08530 Y3.68280
G01 X-8.07309 Y3.64334
G01 X-8.04398 Y3.54714
G01 X-8.03178 Y3.50594
G01 X-7.99910 Y3.39298
G01 X-7.98679 Y3.34946
G01 X-7.95013 Y3.21666
G01 X-7.93793 Y3.17142
G01 X-7.89637 Y3.01338
G01 X-7.87015 Y2.91074
G01 X-7.82243 Y2.72210
G01 X-7.79656 Y2.62093
G01 X-7.79673 Y2.62083
G01 X-7.79656 Y2.62093
G01 X-7.74493 Y2.57160
G01 X-7.69107 Y2.52131
G01 X-7.63600 Y2.47101
G01 X-7.58127 Y2.42210
G01 X-7.58141 Y2.42169
G01 X-7.58127 Y2.42210
G01 X-7.51274 Y2.42682
G01 X-7.44215 Y2.43274
G01 X-7.37155 Y2.43970
G01 X-7.30547 Y2.44720
G01 X-7.31569 Y2.45610
G01 X-7.37261 Y2.44964
G01 X-7.44306 Y2.44269
G01 X-7.51351 Y2.43679
G01 X-7.57775 Y2.43237
G01 X-7.57803 Y2.43155
G01 X-7.57775 Y2.43237
G01 X-7.62929 Y2.47843
G01 X-7.68428 Y2.52865
G01 X-7.73806 Y2.57887
G01 X-7.78758 Y2.62618
G01 X-7.78793 Y2.62598
G01 X-7.78758 Y2.62618
G01 X-7.81274 Y2.72457
G01 X-7.86046 Y2.91319
G01 X-7.88668 Y3.01583
G01 X-7.92825 Y3.17394
G01 X-7.94050 Y3.21935
G01 X-7.97717 Y3.35218
G01 X-7.98949 Y3.39576
G01 X-8.02219 Y3.50878
G01 X-8.03439 Y3.54998
G01 X-8.06352 Y3.64624
G01 X-8.07577 Y3.68584
G01 X-8.10167 Y3.76779
G01 X-8.13626 Y3.87534
G01 X-8.14734 Y3.91025
G01 X-8.17507 Y3.99913
G01 X-8.19853 Y4.07647
G01 X-8.21831 Y4.14374
G01 X-8.22799 Y4.17760
G01 X-8.24322 Y4.23242
G01 X-8.25644 Y4.28205
G01 X-8.26777 Y4.32664
G01 X-8.27301 Y4.34813
G01 X-8.27775 Y4.36807
G01 X-8.28740 Y4.41101
G01 X-8.29391 Y4.44205
G01 X-8.29778 Y4.46159
G01 X-8.30015 Y4.47407
G01 X-8.30529 Y4.50314
G01 X-8.30971 Y4.53088
G01 X-8.31337 Y4.55698
G01 X-8.31633 Y4.58167
G01 X-8.31865 Y4.60521
G01 X-8.31983 Y4.61998
G01 X-8.32147 Y4.64879
G01 X-8.32261 Y4.68359
G01 X-8.32386 Y4.71032
G01 X-8.32602 Y4.74357
G01 X-8.32761 Y4.76290
G01 X-8.32937 Y4.78166
G01 X-8.33137 Y4.80041
G01 X-8.33355 Y4.81872
G01 X-8.33590 Y4.83654
G01 X-8.33913 Y4.85869
G01 X-8.34188 Y4.87593
G01 X-8.34480 Y4.89283
G01 X-8.34791 Y4.90964
G01 X-8.35436 Y4.94170
G01 X-8.35689 Y4.95678
G01 X-8.35837 Y4.96874
G01 X-8.35956 Y4.98349
G01 X-8.36000 Y4.99806
G01 X-8.35973 Y5.01269
G01 X-8.35875 Y5.02738
G01 X-8.35662 Y5.04500
G01 X-8.35458 Y5.05718
G01 X-8.34742 Y5.09290
G01 X-8.34433 Y5.10979
G01 X-8.34141 Y5.12693
G01 X-8.33865 Y5.14445
G01 X-8.33608 Y5.16215
G01 X-8.33208 Y5.19339
G01 X-8.33005 Y5.21177
G01 X-8.32822 Y5.23028
G01 X-8.32658 Y5.24932
G01 X-8.32514 Y5.26874
G01 X-8.32392 Y5.28850
G01 X-8.32293 Y5.30853
G01 X-8.32123 Y5.35667
G01 X-8.31993 Y5.37857
G01 X-8.31804 Y5.40150
G01 X-8.31650 Y5.41674
G01 X-8.31358 Y5.44132
G01 X-8.30995 Y5.46752
G01 X-8.30557 Y5.49520
G01 X-8.30036 Y5.52475
G01 X-8.29420 Y5.55658
G01 X-8.29113 Y5.57156
G01 X-8.28330 Y5.60767
G01 X-8.27863 Y5.62810
G01 X-8.26898 Y5.66844
G01 X-8.26357 Y5.69014
G01 X-8.25123 Y5.73778
G01 X-8.23700 Y5.79024
G01 X-8.21999 Y5.85043
G01 X-8.21026 Y5.88388
G01 X-8.19733 Y5.92741
G01 X-8.17298 Y6.00762
G01 X-8.17333 Y6.00785
G01 X-8.17298 Y6.00762
G01 X-8.10205 Y6.06887
G01 X-8.05390 Y6.11207
G01 X-8.00607 Y6.15728
G01 X-7.95651 Y6.20642
G01 X-7.90683 Y6.25817
G01 X-7.86387 Y6.30480
G01 X-7.64343 Y6.54837
G01 X-7.43942 Y6.77304
G04 P0 ( dwell for no time -- G64 should not smooth over this point )
G00 Z0.08000 ( retract )

G00 X-8.76099 Y5.30817 ( rapid move to begin. )
G01 F3.00000
( Mill infeed pass 1/1 )
G01 Z-0.00800
G04 P0 ( dwell for no time -- G64 should not smooth over this point )
G01 F6.00000
G01 X-8.76099 Y5.30817
G01 X-8.76791 Y5.31342
G01 X-8.77558 Y5.31896
G01 X-8.78330 Y5.32425
G01 X-8.79115 Y5.32936
G01 X-8.79919 Y5.33433
G01 X-8.80736 Y5.33910
G01 X-8.81564 Y5.34367
G01 X-8.82394 Y5.34800
G01 X-8.83243 Y5.35216
G01 X-8.84093 Y5.35608
G01 X-8.84961 Y5.35984
G01 X-8.85829 Y5.36334
G01 X-8.86714 Y5.36667
G01 X-8.87607 Y5.36979
G01 X-8.88508 Y5.37268
G01 X-8.89414 Y5.37536
G01 X-8.90328 Y5.37782
G01 X-8.91247 Y5.38005
G01 X-8.92161 Y5.38204
G01 X-8.93080 Y5.38381
G01 X-8.94013 Y5.38538
G01 X-8.94940 Y5.38670
G01 X-8.95879 Y5.38781
G01 X-8.96821 Y5.38870
G01 X-8.97764 Y5.38936
G01 X-8.98709 Y5.38978
G01 X-8.99645 Y5.38998
G01 X-9.00581 Y5.38996
G01 X-9.01526 Y5.38970
G01 X-9.02461 Y5.38922
G01 X-9.03404 Y5.38851
G01 X-9.04345 Y5.38757
G01 X-9.05274 Y5.38642
G01 X-9.06200 Y5.38504
G01 X-9.07132 Y5.38342
G01 X-9.08050 Y5.38160
G01 X-9.08972 Y5.37954
G01 X-9.09890 Y5.37725
G01 X-9.10793 Y5.37477
G01 X-9.11698 Y5.37204
G01 X-9.12588 Y5.36913
G01 X-9.13470 Y5.36600
G01 X-9.14353 Y5.36263
G01 X-9.15229 Y5.35904
G01 X-9.16086 Y5.35528
G01 X-9.16943 Y5.35128
G01 X-9.17789 Y5.34706
G01 X-9.18626 Y5.34265
G01 X-9.19451 Y5.33803
G01 X-9.20265 Y5.33321
G01 X-9.21059 Y5.32826
G01 X-9.21849 Y5.32305
G01 X-9.22618 Y5.31772
G01 X-9.23381 Y5.31214
G01 X-9.24124 Y5.30644
G01 X-9.24860 Y5.30050
G01 X-9.25581 Y5.29438
G01 X-9.26280 Y5.28816
G01 X-9.26971 Y5.28170
G01 X-9.27639 Y5.27515
G01 X-9.28299 Y5.26836
G01 X-9.28889 Y5.26199
G01 X-9.02075 Y5.03699
G01 X-9.01600 Y5.03935
G01 X-9.01117 Y5.04098
G01 X-9.00965 Y5.04136
G01 X-9.00307 Y5.04237
G01 X-8.99641 Y5.04232
G01 X-8.99137 Y5.04159
G01 X-8.98598 Y5.04005
G01 X-8.76099 Y5.30817
G01 X-8.77543 Y5.30652
G01 X-8.78886 Y5.31594
G01 X-8.79650 Y5.32092
G01 X-8.80434 Y5.32576
G01 X-8.81230 Y5.33040
G01 X-8.82037 Y5.33486
G01 X-8.82845 Y5.33907
G01 X-8.83673 Y5.34313
G01 X-8.84501 Y5.34695
G01 X-8.85347 Y5.35061
G01 X-8.86192 Y5.35402
G01 X-8.87055 Y5.35727
G01 X-8.87925 Y5.36030
G01 X-8.88802 Y5.36313
G01 X-8.89686 Y5.36573
G01 X-8.90576 Y5.36813
G01 X-8.91471 Y5.37030
G01 X-8.92362 Y5.37224
G01 X-8.93258 Y5.37397
G01 X-8.94167 Y5.37549
G01 X-8.95069 Y5.37679
G01 X-8.95985 Y5.37787
G01 X-8.96902 Y5.37873
G01 X-8.97821 Y5.37937
G01 X-8.98742 Y5.37979
G01 X-8.99654 Y5.37998
G01 X-9.00566 Y5.37996
G01 X-9.01487 Y5.37971
G01 X-9.02398 Y5.37924
G01 X-9.03317 Y5.37855
G01 X-9.04234 Y5.37763
G01 X-9.05139 Y5.37651
G01 X-9.06040 Y5.37517
G01 X-9.06949 Y5.37359
G01 X-9.07843 Y5.37182
G01 X-9.08742 Y5.36981
G01 X-9.09637 Y5.36758
G01 X-9.10516 Y5.36516
G01 X-9.11398 Y5.36250
G01 X-9.12265 Y5.35966
G01 X-9.13124 Y5.35661
G01 X-9.13985 Y5.35333
G01 X-9.14838 Y5.34983
G01 X-9.15673 Y5.34617
G01 X-9.16508 Y5.34227
G01 X-9.17333 Y5.33816
G01 X-9.18148 Y5.33386
G01 X-9.18952 Y5.32936
G01 X-9.19745 Y5.32467
G01 X-9.20519 Y5.31984
G01 X-9.21288 Y5.31477
G01 X-9.22038 Y5.30957
G01 X-9.22782 Y5.30413
G01 X-9.23505 Y5.29858
G01 X-9.24222 Y5.29279
G01 X-9.24925 Y5.28683
G01 X-9.25606 Y5.28077
G01 X-9.26280 Y5.27447
G01 X-9.27438 Y5.26287
G01 X-9.01926 Y5.04880
G01 X-9.01438 Y5.05045
G01 X-9.01134 Y5.05122
G01 X-9.00631 Y5.05208
G01 X-9.00319 Y5.05236
G01 X-8.99810 Y5.05243
G01 X-8.99497 Y5.05222
G01 X-8.98951 Y5.05139
G01 X-8.77543 Y5.30652
G01 X-8.79006 Y5.30464
G01 X-8.80185 Y5.31247
G01 X-8.80949 Y5.31718
G01 X-8.81724 Y5.32171
G01 X-8.82510 Y5.32605
G01 X-8.83297 Y5.33015
G01 X-8.84103 Y5.33410
G01 X-8.84909 Y5.33782
G01 X-8.85732 Y5.34138
G01 X-8.86556 Y5.34471
G01 X-8.87396 Y5.34787
G01 X-8.88243 Y5.35082
G01 X-8.89097 Y5.35357
G01 X-8.89957 Y5.35611
G01 X-8.90824 Y5.35844
G01 X-8.91696 Y5.36056
G01 X-8.92563 Y5.36245
G01 X-8.93435 Y5.36413
G01 X-8.94320 Y5.36561
G01 X-8.95199 Y5.36687
G01 X-8.96090 Y5.36793
G01 X-8.96984 Y5.36877
G01 X-8.97879 Y5.36939
G01 X-8.98775 Y5.36979
G01 X-8.99663 Y5.36998
G01 X-9.00551 Y5.36996
G01 X-9.01448 Y5.36971
G01 X-9.02334 Y5.36926
G01 X-9.03229 Y5.36859
G01 X-9.04122 Y5.36769
G01 X-9.05003 Y5.36660
G01 X-9.05881 Y5.36529
G01 X-9.06766 Y5.36376
G01 X-9.07636 Y5.36203
G01 X-9.08512 Y5.36007
G01 X-9.09383 Y5.35790
G01 X-9.10239 Y5.35555
G01 X-9.11098 Y5.35296
G01 X-9.11942 Y5.35020
G01 X-9.12779 Y5.34723
G01 X-9.13617 Y5.34403
G01 X-9.14448 Y5.34062
G01 X-9.15261 Y5.33706
G01 X-9.16074 Y5.33326
G01 X-9.16877 Y5.32926
G01 X-9.17671 Y5.32507
G01 X-9.18454 Y5.32069
G01 X-9.19226 Y5.31612
G01 X-9.19979 Y5.31142
G01 X-9.20728 Y5.30648
G01 X-9.21457 Y5.30142
G01 X-9.22182 Y5.29613
G01 X-9.22886 Y5.29072
G01 X-9.23585 Y5.28509
G01 X-9.24269 Y5.27928
G01 X-9.24932 Y5.27338
G01 X-9.25965 Y5.26356
G01 X-9.01711 Y5.06004
G01 X-9.01302 Y5.06108
G01 X-9.00800 Y5.06194
G01 X-9.00332 Y5.06236
G01 X-8.99822 Y5.06243
G01 X-8.99357 Y5.06212
G01 X-8.79006 Y5.30464
G01 X-8.80490 Y5.30252
G01 X-8.81464 Y5.30861
G01 X-8.82218 Y5.31301
G01 X-8.82982 Y5.31724
G01 X-8.83748 Y5.32123
G01 X-8.84532 Y5.32507
G01 X-8.85316 Y5.32869
G01 X-8.86118 Y5.33216
G01 X-8.86919 Y5.33539
G01 X-8.87736 Y5.33846
G01 X-8.88560 Y5.34134
G01 X-8.89392 Y5.34401
G01 X-8.90229 Y5.34648
G01 X-8.91072 Y5.34875
G01 X-8.91920 Y5.35081
G01 X-8.92764 Y5.35265
G01 X-8.93613 Y5.35428
G01 X-8.94474 Y5.35573
G01 X-8.95329 Y5.35695
G01 X-8.96196 Y5.35798
G01 X-8.97065 Y5.35880
G01 X-8.97936 Y5.35940
G01 X-8.98808 Y5.35980
G01 X-8.99672 Y5.35998
G01 X-9.00536 Y5.35996
G01 X-9.01409 Y5.35972
G01 X-9.02271 Y5.35928
G01 X-9.03142 Y5.35862
G01 X-9.04011 Y5.35776
G01 X-9.04868 Y5.35669
G01 X-9.05722 Y5.35542
G01 X-9.06583 Y5.35393
G01 X-9.07430 Y5.35224
G01 X-9.08282 Y5.35034
G01 X-9.09130 Y5.34823
G01 X-9.09962 Y5.34594
G01 X-9.10799 Y5.34342
G01 X-9.11619 Y5.34073
G01 X-9.12434 Y5.33784
G01 X-9.13249 Y5.33473
G01 X-9.14057 Y5.33142
G01 X-9.14848 Y5.32795
G01 X-9.15639 Y5.32425
G01 X-9.16421 Y5.32036
G01 X-9.17193 Y5.31629
G01 X-9.17955 Y5.31203
G01 X-9.18706 Y5.30758
G01 X-9.19439 Y5.30300
G01 X-9.20168 Y5.29820
G01 X-9.20877 Y5.29328
G01 X-9.21583 Y5.28812
G01 X-9.22268 Y5.28286
G01 X-9.22947 Y5.27738
G01 X-9.23613 Y5.27173
G01 X-9.24467 Y5.26404
G01 X-9.01456 Y5.07096
G01 X-9.00968 Y5.07179
G01 X-9.00344 Y5.07236
G01 X-8.99799 Y5.07240
G01 X-8.80490 Y5.30252
G04 P0 ( dwell for no time -- G64 should not smooth over this point )
G00 Z0.08000 ( retract )

G00 X-9.07099 Y4.98541 ( rapid move to begin. )
G01 F3.00000
( Mill infeed pass 1/1 )
G01 Z-0.00800
G04 P0 ( dwell for no time -- G64 should not smooth over this point )
G01 F6.00000
G01 X-9.07099 Y4.98541
G01 X-9.07192 Y4.99094
G01 X-9.07227 Y4.99443
G01 X-9.07243 Y4.99732
G01 X-9.07242 Y5.00203
G01 X-9.30252 Y5.19510
G01 X-9.30861 Y5.18536
G01 X-9.31301 Y5.17782
G01 X-9.31724 Y5.17018
G01 X-9.32123 Y5.16252
G01 X-9.32507 Y5.15468
G01 X-9.32869 Y5.14684
G01 X-9.33216 Y5.13882
G01 X-9.33539 Y5.13081
G01 X-9.33846 Y5.12264
G01 X-9.34134 Y5.11439
G01 X-9.34401 Y5.10608
G01 X-9.34648 Y5.09771
G01 X-9.34875 Y5.08928
G01 X-9.35081 Y5.08080
G01 X-9.35265 Y5.07235
G01 X-9.35429 Y5.06387
G01 X-9.35573 Y5.05526
G01 X-9.35695 Y5.04671
G01 X-9.35798 Y5.03804
G01 X-9.35880 Y5.02935
G01 X-9.35940 Y5.02064
G01 X-9.35980 Y5.01192
G01 X-9.35998 Y5.00328
G01 X-9.35996 Y4.99464
G01 X-9.35972 Y4.98591
G01 X-9.35928 Y4.97729
G01 X-9.35862 Y4.96858
G01 X-9.35775 Y4.95989
G01 X-9.35669 Y4.95132
G01 X-9.35542 Y4.94278
G01 X-9.35393 Y4.93417
G01 X-9.35224 Y4.92570
G01 X-9.35034 Y4.91718
G01 X-9.34823 Y4.90870
G01 X-9.34594 Y4.90038
G01 X-9.34342 Y4.89201
G01 X-9.34073 Y4.88380
G01 X-9.33784 Y4.87566
G01 X-9.33473 Y4.86751
G01 X-9.33142 Y4.85943
G01 X-9.32795 Y4.85152
G01 X-9.32425 Y4.84361
G01 X-9.32036 Y4.83579
G01 X-9.31629 Y4.82807
G01 X-9.31203 Y4.82045
G01 X-9.30758 Y4.81294
G01 X-9.30300 Y4.80561
G01 X-9.29820 Y4.79832
G01 X-9.29327 Y4.79122
G01 X-9.28812 Y4.78417
G01 X-9.28286 Y4.77732
G01 X-9.27738 Y4.77053
G01 X-9.27173 Y4.76387
G01 X-9.26404 Y4.75533
G01 X-9.07099 Y4.98541
G01 X-9.06007 Y4.98286
G01 X-9.26356 Y4.74035
G01 X-9.27338 Y4.75068
G01 X-9.27928 Y4.75731
G01 X-9.28509 Y4.76415
G01 X-9.29072 Y4.77114
G01 X-9.29613 Y4.77818
G01 X-9.30142 Y4.78542
G01 X-9.30648 Y4.79272
G01 X-9.31142 Y4.80021
G01 X-9.31612 Y4.80774
G01 X-9.32069 Y4.81546
G01 X-9.32507 Y4.82329
G01 X-9.32926 Y4.83123
G01 X-9.33326 Y4.83926
G01 X-9.33706 Y4.84739
G01 X-9.34062 Y4.85552
G01 X-9.34403 Y4.86383
G01 X-9.34723 Y4.87221
G01 X-9.35019 Y4.88058
G01 X-9.35296 Y4.88901
G01 X-9.35555 Y4.89761
G01 X-9.35790 Y4.90617
G01 X-9.36007 Y4.91488
G01 X-9.36203 Y4.92363
G01 X-9.36376 Y4.93234
G01 X-9.36529 Y4.94118
G01 X-9.36660 Y4.94997
G01 X-9.36769 Y4.95878
G01 X-9.36858 Y4.96771
G01 X-9.36926 Y4.97666
G01 X-9.36971 Y4.98552
G01 X-9.36996 Y4.99449
G01 X-9.36998 Y5.00337
G01 X-9.36979 Y5.01225
G01 X-9.36939 Y5.02121
G01 X-9.36877 Y5.03016
G01 X-9.36793 Y5.03910
G01 X-9.36687 Y5.04801
G01 X-9.36561 Y5.05680
G01 X-9.36413 Y5.06565
G01 X-9.36245 Y5.07437
G01 X-9.36056 Y5.08304
G01 X-9.35844 Y5.09176
G01 X-9.35611 Y5.10043
G01 X-9.35357 Y5.10903
G01 X-9.35082 Y5.11757
G01 X-9.34787 Y5.12604
G01 X-9.34471 Y5.13444
G01 X-9.34138 Y5.14267
G01 X-9.33782 Y5.15091
G01 X-9.33410 Y5.15897
G01 X-9.33015 Y5.16703
G01 X-9.32605 Y5.17490
G01 X-9.32171 Y5.18276
G01 X-9.31718 Y5.19051
G01 X-9.31247 Y5.19814
G01 X-9.30464 Y5.20993
G01 X-9.06211 Y5.00643
G01 X-9.06245 Y5.00131
G01 X-9.06228 Y4.99500
G01 X-9.06162 Y4.98961
G01 X-9.06007 Y4.98286
G01 X-9.04881 Y4.98072
G01 X-9.26287 Y4.72562
G01 X-9.27448 Y4.73720
G01 X-9.28077 Y4.74394
G01 X-9.28683 Y4.75075
G01 X-9.29279 Y4.75778
G01 X-9.29858 Y4.76495
G01 X-9.30413 Y4.77218
G01 X-9.30957 Y4.77962
G01 X-9.31477 Y4.78711
G01 X-9.31984 Y4.79481
G01 X-9.32467 Y4.80254
G01 X-9.32936 Y4.81048
G01 X-9.33386 Y4.81852
G01 X-9.33816 Y4.82667
G01 X-9.34227 Y4.83492
G01 X-9.34617 Y4.84327
G01 X-9.34983 Y4.85162
G01 X-9.35333 Y4.86015
G01 X-9.35661 Y4.86876
G01 X-9.35966 Y4.87735
G01 X-9.36250 Y4.88602
G01 X-9.36516 Y4.89484
G01 X-9.36758 Y4.90363
G01 X-9.36980 Y4.91258
G01 X-9.37182 Y4.92157
G01 X-9.37359 Y4.93051
G01 X-9.37517 Y4.93959
G01 X-9.37651 Y4.94861
G01 X-9.37763 Y4.95766
G01 X-9.37855 Y4.96683
G01 X-9.37924 Y4.97602
G01 X-9.37971 Y4.98513
G01 X-9.37996 Y4.99434
G01 X-9.37998 Y5.00346
G01 X-9.37979 Y5.01258
G01 X-9.37937 Y5.02179
G01 X-9.37873 Y5.03098
G01 X-9.37787 Y5.04015
G01 X-9.37679 Y5.04931
G01 X-9.37549 Y5.05833
G01 X-9.37397 Y5.06742
G01 X-9.37224 Y5.07637
G01 X-9.37030 Y5.08528
G01 X-9.36813 Y5.09424
G01 X-9.36573 Y5.10314
G01 X-9.36313 Y5.11198
G01 X-9.36030 Y5.12075
G01 X-9.35727 Y5.12945
G01 X-9.35402 Y5.13808
G01 X-9.35061 Y5.14653
G01 X-9.34695 Y5.15499
G01 X-9.34313 Y5.16327
G01 X-9.33907 Y5.17155
G01 X-9.33486 Y5.17963
G01 X-9.33041 Y5.18770
G01 X-9.32576 Y5.19566
G01 X-9.32091 Y5.20350
G01 X-9.31594 Y5.21114
G01 X-9.30652 Y5.22457
G01 X-9.05137 Y5.01047
G01 X-9.05221 Y5.00523
G01 X-9.05246 Y5.00074
G01 X-9.05230 Y4.99557
G01 X-9.05139 Y4.98933
G01 X-9.05024 Y4.98479
G01 X-9.04881 Y4.98072
G01 X-9.03703 Y4.97920
G01 X-9.26199 Y4.71111
G01 X-9.26836 Y4.71701
G01 X-9.27515 Y4.72361
G01 X-9.28170 Y4.73029
G01 X-9.28816 Y4.73720
G01 X-9.29438 Y4.74419
G01 X-9.30050 Y4.75140
G01 X-9.30644 Y4.75876
G01 X-9.31214 Y4.76619
G01 X-9.31772 Y4.77382
G01 X-9.32305 Y4.78151
G01 X-9.32826 Y4.78941
G01 X-9.33321 Y4.79735
G01 X-9.33803 Y4.80549
G01 X-9.34265 Y4.81374
G01 X-9.34706 Y4.82210
G01 X-9.35127 Y4.83057
G01 X-9.35528 Y4.83914
G01 X-9.35904 Y4.84771
G01 X-9.36262 Y4.85646
G01 X-9.36600 Y4.86530
G01 X-9.36913 Y4.87412
G01 X-9.37204 Y4.88302
G01 X-9.37477 Y4.89207
G01 X-9.37725 Y4.90110
G01 X-9.37954 Y4.91027
G01 X-9.38160 Y4.91950
G01 X-9.38342 Y4.92868
G01 X-9.38504 Y4.93800
G01 X-9.38642 Y4.94726
G01 X-9.38757 Y4.95655
G01 X-9.38851 Y4.96596
G01 X-9.38922 Y4.97539
G01 X-9.38970 Y4.98474
G01 X-9.38996 Y4.99419
G01 X-9.38998 Y5.00355
G01 X-9.38978 Y5.01291
G01 X-9.38936 Y5.02236
G01 X-9.38870 Y5.03179
G01 X-9.38781 Y5.04121
G01 X-9.38670 Y5.05060
G01 X-9.38538 Y5.05987
G01 X-9.38381 Y5.06919
G01 X-9.38204 Y5.07838
G01 X-9.38005 Y5.08753
G01 X-9.37782 Y5.09672
G01 X-9.37536 Y5.10585
G01 X-9.37268 Y5.11492
G01 X-9.36979 Y5.12393
G01 X-9.36667 Y5.13286
G01 X-9.36334 Y5.14171
G01 X-9.35984 Y5.15039
G01 X-9.35608 Y5.15907
G01 X-9.35216 Y5.16757
G01 X-9.34800 Y5.17606
G01 X-9.34367 Y5.18436
G01 X-9.33910 Y5.19264
G01 X-9.33433 Y5.20080
G01 X-9.32936 Y5.20885
G01 X-9.32426 Y5.21670
G01 X-9.31896 Y5.22442
G01 X-9.31343 Y5.23208
G01 X-9.30817 Y5.23900
G01 X-9.04004 Y5.01402
G01 X-9.04118 Y5.01044
G01 X-9.04205 Y5.00603
G01 X-9.04248 Y5.00017
G01 X-9.04232 Y4.99614
G01 X-9.04166 Y4.99163
G01 X-9.04075 Y4.98795
G01 X-9.03952 Y4.98438
G01 X-9.03840 Y4.98182
G01 X-9.03703 Y4.97920
G04 P0 ( dwell for no time -- G64 should not smooth over this point )
G00 Z0.08000 ( retract )

G00 X-8.64002 Y4.99672 ( rapid move to begin. )
G01 F3.00000
( Mill infeed pass 1/1 )
G01 Z-0.00800
G04 P0 ( dwell for no time -- G64 should not smooth over this point )
G01 F6.00000
G01 X-8.64002 Y4.99672
G01 X-8.64004 Y5.00536
G01 X-8.64028 Y5.01409
G01 X-8.64072 Y5.02271
G01 X-8.64138 Y5.03142
G01 X-8.64224 Y5.04011
G01 X-8.64331 Y5.04868
G01 X-8.64458 Y5.05722
G01 X-8.64607 Y5.06583
G01 X-8.64775 Y5.07430
G01 X-8.64966 Y5.08282
G01 X-8.65177 Y5.09130
G01 X-8.65406 Y5.09962
G01 X-8.65658 Y5.10799
G01 X-8.65927 Y5.11619
G01 X-8.66216 Y5.12434
G01 X-8.66527 Y5.13249
G01 X-8.66858 Y5.14057
G01 X-8.67205 Y5.14848
G01 X-8.67575 Y5.15639
G01 X-8.67963 Y5.16421
G01 X-8.68371 Y5.17193
G01 X-8.68797 Y5.17955
G01 X-8.69242 Y5.18706
G01 X-8.69699 Y5.19439
G01 X-8.70180 Y5.20168
G01 X-8.70672 Y5.20878
G01 X-8.71187 Y5.21583
G01 X-8.71714 Y5.22268
G01 X-8.72262 Y5.22947
G01 X-8.72827 Y5.23613
G01 X-8.73596 Y5.24467
G01 X-8.92904 Y5.01456
G01 X-8.92822 Y5.00979
G01 X-8.92764 Y5.00355
G01 X-8.92760 Y4.99799
G01 X-8.69748 Y4.80490
G01 X-8.69139 Y4.81464
G01 X-8.68698 Y4.82218
G01 X-8.68276 Y4.82982
G01 X-8.67877 Y4.83748
G01 X-8.67493 Y4.84532
G01 X-8.67131 Y4.85316
G01 X-8.66784 Y4.86118
G01 X-8.66461 Y4.86919
G01 X-8.66154 Y4.87736
G01 X-8.65866 Y4.88560
G01 X-8.65599 Y4.89392
G01 X-8.65352 Y4.90229
G01 X-8.65125 Y4.91072
G01 X-8.64919 Y4.91920
G01 X-8.64735 Y4.92764
G01 X-8.64571 Y4.93613
G01 X-8.64427 Y4.94474
G01 X-8.64305 Y4.95329
G01 X-8.64202 Y4.96196
G01 X-8.64120 Y4.97065
G01 X-8.64059 Y4.97936
G01 X-8.64020 Y4.98808
G01 X-8.64002 Y4.99672
G01 X-8.63002 Y4.99663
G01 X-8.63020 Y4.98775
G01 X-8.63061 Y4.97879
G01 X-8.63123 Y4.96984
G01 X-8.63207 Y4.96090
G01 X-8.63313 Y4.95199
G01 X-8.63439 Y4.94320
G01 X-8.63587 Y4.93435
G01 X-8.63755 Y4.92563
G01 X-8.63944 Y4.91696
G01 X-8.64156 Y4.90824
G01 X-8.64389 Y4.89957
G01 X-8.64643 Y4.89097
G01 X-8.64918 Y4.88243
G01 X-8.65213 Y4.87395
G01 X-8.65529 Y4.86555
G01 X-8.65862 Y4.85733
G01 X-8.66218 Y4.84909
G01 X-8.66590 Y4.84103
G01 X-8.66985 Y4.83297
G01 X-8.67395 Y4.82510
G01 X-8.67829 Y4.81724
G01 X-8.68282 Y4.80949
G01 X-8.68753 Y4.80185
G01 X-8.69536 Y4.79006
G01 X-8.93788 Y4.99357
G01 X-8.93757 Y4.99832
G01 X-8.93764 Y5.00341
G01 X-8.93807 Y5.00809
G01 X-8.93894 Y5.01311
G01 X-8.93996 Y5.01711
G01 X-8.73644 Y5.25965
G01 X-8.72662 Y5.24932
G01 X-8.72072 Y5.24269
G01 X-8.71491 Y5.23585
G01 X-8.70928 Y5.22886
G01 X-8.70387 Y5.22182
G01 X-8.69858 Y5.21457
G01 X-8.69352 Y5.20728
G01 X-8.68858 Y5.19979
G01 X-8.68388 Y5.19226
G01 X-8.67930 Y5.18454
G01 X-8.67492 Y5.17671
G01 X-8.67074 Y5.16877
G01 X-8.66674 Y5.16074
G01 X-8.66294 Y5.15261
G01 X-8.65938 Y5.14448
G01 X-8.65597 Y5.13617
G01 X-8.65277 Y5.12779
G01 X-8.64980 Y5.11942
G01 X-8.64704 Y5.11099
G01 X-8.64445 Y5.10239
G01 X-8.64210 Y5.09383
G01 X-8.63993 Y5.08512
G01 X-8.63797 Y5.07637
G01 X-8.63624 Y5.06766
G01 X-8.63471 Y5.05882
G01 X-8.63340 Y5.05003
G01 X-8.63231 Y5.04122
G01 X-8.63141 Y5.03229
G01 X-8.63074 Y5.02334
G01 X-8.63029 Y5.01448
G01 X-8.63004 Y5.00551
G01 X-8.63002 Y4.99663
G01 X-8.62002 Y4.99654
G01 X-8.62021 Y4.98742
G01 X-8.62063 Y4.97821
G01 X-8.62127 Y4.96902
G01 X-8.62213 Y4.95985
G01 X-8.62321 Y4.95069
G01 X-8.62450 Y4.94167
G01 X-8.62603 Y4.93258
G01 X-8.62776 Y4.92362
G01 X-8.62969 Y4.91471
G01 X-8.63187 Y4.90576
G01 X-8.63427 Y4.89686
G01 X-8.63687 Y4.88802
G01 X-8.63970 Y4.87925
G01 X-8.64273 Y4.87055
G01 X-8.64597 Y4.86192
G01 X-8.64939 Y4.85347
G01 X-8.65305 Y4.84501
G01 X-8.65686 Y4.83673
G01 X-8.66093 Y4.82845
G01 X-8.66514 Y4.82037
G01 X-8.66959 Y4.81230
G01 X-8.67424 Y4.80434
G01 X-8.67908 Y4.79650
G01 X-8.68406 Y4.78886
G01 X-8.69348 Y4.77543
G01 X-8.94861 Y4.98951
G01 X-8.94777 Y4.99508
G01 X-8.94757 Y4.99818
G01 X-8.94764 Y5.00327
G01 X-8.94793 Y5.00639
G01 X-8.94880 Y5.01142
G01 X-8.94957 Y5.01445
G01 X-8.95120 Y5.01926
G01 X-8.73713 Y5.27438
G01 X-8.72552 Y5.26280
G01 X-8.71923 Y5.25606
G01 X-8.71317 Y5.24925
G01 X-8.70721 Y5.24222
G01 X-8.70142 Y5.23505
G01 X-8.69587 Y5.22782
G01 X-8.69043 Y5.22037
G01 X-8.68523 Y5.21288
G01 X-8.68016 Y5.20519
G01 X-8.67533 Y5.19745
G01 X-8.67064 Y5.18952
G01 X-8.66614 Y5.18148
G01 X-8.66184 Y5.17333
G01 X-8.65773 Y5.16508
G01 X-8.65383 Y5.15673
G01 X-8.65017 Y5.14838
G01 X-8.64667 Y5.13985
G01 X-8.64339 Y5.13124
G01 X-8.64034 Y5.12265
G01 X-8.63750 Y5.11398
G01 X-8.63484 Y5.10516
G01 X-8.63242 Y5.09637
G01 X-8.63019 Y5.08742
G01 X-8.62818 Y5.07843
G01 X-8.62641 Y5.06949
G01 X-8.62483 Y5.06041
G01 X-8.62349 Y5.05139
G01 X-8.62237 Y5.04234
G01 X-8.62145 Y5.03317
G01 X-8.62076 Y5.02398
G01 X-8.62029 Y5.01487
G01 X-8.62004 Y5.00566
G01 X-8.62002 Y4.99654
G01 X-8.61002 Y4.99645
G01 X-8.61021 Y4.98709
G01 X-8.61064 Y4.97764
G01 X-8.61130 Y4.96821
G01 X-8.61218 Y4.95879
G01 X-8.61330 Y4.94940
G01 X-8.61462 Y4.94013
G01 X-8.61619 Y4.93080
G01 X-8.61796 Y4.92161
G01 X-8.61995 Y4.91247
G01 X-8.62218 Y4.90328
G01 X-8.62464 Y4.89414
G01 X-8.62732 Y4.88507
G01 X-8.63021 Y4.87607
G01 X-8.63333 Y4.86714
G01 X-8.63666 Y4.85829
G01 X-8.64016 Y4.84961
G01 X-8.64391 Y4.84093
G01 X-8.64784 Y4.83243
G01 X-8.65200 Y4.82394
G01 X-8.65633 Y4.81564
G01 X-8.66090 Y4.80736
G01 X-8.66567 Y4.79919
G01 X-8.67064 Y4.79115
G01 X-8.67574 Y4.78330
G01 X-8.68104 Y4.77558
G01 X-8.68657 Y4.76791
G01 X-8.69183 Y4.76099
G01 X-8.95995 Y4.98597
G01 X-8.95837 Y4.99155
G01 X-8.95767 Y4.99649
G01 X-8.95764 Y5.00313
G01 X-8.95778 Y5.00469
G01 X-8.95904 Y5.01124
G01 X-8.96068 Y5.01606
G01 X-8.96301 Y5.02075
G01 X-8.73801 Y5.28889
G01 X-8.73164 Y5.28299
G01 X-8.72485 Y5.27639
G01 X-8.71830 Y5.26971
G01 X-8.71184 Y5.26280
G01 X-8.70562 Y5.25581
G01 X-8.69950 Y5.24860
G01 X-8.69356 Y5.24124
G01 X-8.68786 Y5.23381
G01 X-8.68228 Y5.22618
G01 X-8.67695 Y5.21849
G01 X-8.67174 Y5.21059
G01 X-8.66679 Y5.20265
G01 X-8.66197 Y5.19451
G01 X-8.65735 Y5.18626
G01 X-8.65294 Y5.17789
G01 X-8.64872 Y5.16943
G01 X-8.64472 Y5.16086
G01 X-8.64096 Y5.15229
G01 X-8.63737 Y5.14353
G01 X-8.63400 Y5.13470
G01 X-8.63087 Y5.12588
G01 X-8.62796 Y5.11698
G01 X-8.62523 Y5.10793
G01 X-8.62275 Y5.09890
G01 X-8.62046 Y5.08972
G01 X-8.61840 Y5.08049
G01 X-8.61658 Y5.07132
G01 X-8.61496 Y5.06200
G01 X-8.61358 Y5.05274
G01 X-8.61243 Y5.04345
G01 X-8.61149 Y5.03404
G01 X-8.61078 Y5.02461
G01 X-8.61030 Y5.01526
G01 X-8.61004 Y5.00580
G01 X-8.61002 Y4.99645
G04 P0 ( dwell for no time -- G64 should not smooth over this point )
G00 Z0.08000 ( retract )

G00 X-8.71111 Y4.73801 ( rapid move to begin. )
G01 F3.00000
( Mill infeed pass 1/1 )
G01 Z-0.00800
G04 P0 ( dwell for no time -- G64 should not smooth over this point )
G01 F6.00000
G01 X-8.71111 Y4.73801
G01 X-8.71701 Y4.73164
G01 X-8.72360 Y4.72485
G01 X-8.73029 Y4.71830
G01 X-8.73720 Y4.71184
G01 X-8.74419 Y4.70562
G01 X-8.75140 Y4.69950
G01 X-8.75876 Y4.69356
G01 X-8.76619 Y4.68786
G01 X-8.77382 Y4.68228
G01 X-8.78151 Y4.67695
G01 X-8.78941 Y4.67174
G01 X-8.79735 Y4.66678
G01 X-8.80549 Y4.66197
G01 X-8.81374 Y4.65735
G01 X-8.82211 Y4.65294
G01 X-8.83057 Y4.64872
G01 X-8.83914 Y4.64472
G01 X-8.84771 Y4.64096
G01 X-8.85646 Y4.63737
G01 X-8.86530 Y4.63400
G01 X-8.87412 Y4.63087
G01 X-8.88302 Y4.62796
G01 X-8.89207 Y4.62523
G01 X-8.90110 Y4.62275
G01 X-8.91027 Y4.62046
G01 X-8.91950 Y4.61840
G01 X-8.92868 Y4.61658
G01 X-8.93800 Y4.61496
G01 X-8.94726 Y4.61358
G01 X-8.95655 Y4.61243
G01 X-8.96596 Y4.61149
G01 X-8.97539 Y4.61078
G01 X-8.98474 Y4.61030
G01 X-8.99419 Y4.61004
G01 X-9.00355 Y4.61002
G01 X-9.01291 Y4.61021
G01 X-9.02236 Y4.61064
G01 X-9.03179 Y4.61130
G01 X-9.04121 Y4.61218
G01 X-9.05060 Y4.61330
G01 X-9.05987 Y4.61462
G01 X-9.06920 Y4.61619
G01 X-9.07839 Y4.61796
G01 X-9.08753 Y4.61995
G01 X-9.09672 Y4.62218
G01 X-9.10585 Y4.62464
G01 X-9.11492 Y4.62732
G01 X-9.12393 Y4.63021
G01 X-9.13286 Y4.63333
G01 X-9.14171 Y4.63666
G01 X-9.15039 Y4.64016
G01 X-9.15907 Y4.64391
G01 X-9.16757 Y4.64783
G01 X-9.17606 Y4.65200
G01 X-9.18436 Y4.65633
G01 X-9.19264 Y4.66090
G01 X-9.20081 Y4.66567
G01 X-9.20885 Y4.67064
G01 X-9.21670 Y4.67574
G01 X-9.22442 Y4.68104
G01 X-9.23208 Y4.68657
G01 X-9.23901 Y4.69183
G01 X-9.01402 Y4.95995
G01 X-9.00863 Y4.95841
G01 X-9.00359 Y4.95768
G01 X-8.99693 Y4.95763
G01 X-8.99035 Y4.95863
G01 X-8.98883 Y4.95902
G01 X-8.98400 Y4.96065
G01 X-8.97925 Y4.96301
G01 X-8.71111 Y4.73801
G01 X-8.72562 Y4.73713
G01 X-8.73720 Y4.72552
G01 X-8.74394 Y4.71923
G01 X-8.75075 Y4.71317
G01 X-8.75778 Y4.70721
G01 X-8.76495 Y4.70142
G01 X-8.77218 Y4.69587
G01 X-8.77962 Y4.69043
G01 X-8.78711 Y4.68523
G01 X-8.79481 Y4.68016
G01 X-8.80254 Y4.67533
G01 X-8.81048 Y4.67064
G01 X-8.81852 Y4.66614
G01 X-8.82667 Y4.66184
G01 X-8.83492 Y4.65773
G01 X-8.84327 Y4.65383
G01 X-8.85162 Y4.65017
G01 X-8.86014 Y4.64667
G01 X-8.86876 Y4.64339
G01 X-8.87735 Y4.64034
G01 X-8.88602 Y4.63750
G01 X-8.89484 Y4.63484
G01 X-8.90363 Y4.63242
G01 X-8.91258 Y4.63019
G01 X-8.92157 Y4.62818
G01 X-8.93051 Y4.62641
G01 X-8.93959 Y4.62483
G01 X-8.94861 Y4.62349
G01 X-8.95766 Y4.62237
G01 X-8.96683 Y4.62145
G01 X-8.97602 Y4.62076
G01 X-8.98513 Y4.62029
G01 X-8.99434 Y4.62004
G01 X-9.00346 Y4.62002
G01 X-9.01258 Y4.62021
G01 X-9.02178 Y4.62063
G01 X-9.03098 Y4.62127
G01 X-9.04015 Y4.62213
G01 X-9.04931 Y4.62321
G01 X-9.05833 Y4.62451
G01 X-9.06742 Y4.62603
G01 X-9.07638 Y4.62775
G01 X-9.08529 Y4.62969
G01 X-9.09424 Y4.63187
G01 X-9.10314 Y4.63427
G01 X-9.11198 Y4.63687
G01 X-9.12075 Y4.63970
G01 X-9.12945 Y4.64273
G01 X-9.13808 Y4.64597
G01 X-9.14653 Y4.64939
G01 X-9.15499 Y4.65305
G01 X-9.16327 Y4.65686
G01 X-9.17155 Y4.66093
G01 X-9.17963 Y4.66514
G01 X-9.18770 Y4.66959
G01 X-9.19566 Y4.67424
G01 X-9.20350 Y4.67908
G01 X-9.21114 Y4.68406
G01 X-9.22457 Y4.69348
G01 X-9.01049 Y4.94861
G01 X-9.00503 Y4.94778
G01 X-9.00190 Y4.94757
G01 X-8.99681 Y4.94764
G01 X-8.99368 Y4.94792
G01 X-8.98866 Y4.94878
G01 X-8.98562 Y4.94955
G01 X-8.98074 Y4.95120
G01 X-8.72562 Y4.73713
G01 X-8.74035 Y4.73644
G01 X-8.75068 Y4.72662
G01 X-8.75731 Y4.72072
G01 X-8.76415 Y4.71491
G01 X-8.77113 Y4.70928
G01 X-8.77817 Y4.70387
G01 X-8.78542 Y4.69858
G01 X-8.79272 Y4.69352
G01 X-8.80021 Y4.68858
G01 X-8.80774 Y4.68387
G01 X-8.81546 Y4.67931
G01 X-8.82329 Y4.67492
G01 X-8.83123 Y4.67073
G01 X-8.83926 Y4.66674
G01 X-8.84739 Y4.66294
G01 X-8.85552 Y4.65938
G01 X-8.86383 Y4.65597
G01 X-8.87221 Y4.65277
G01 X-8.88058 Y4.64980
G01 X-8.88901 Y4.64704
G01 X-8.89761 Y4.64445
G01 X-8.90617 Y4.64210
G01 X-8.91488 Y4.63993
G01 X-8.92363 Y4.63797
G01 X-8.93234 Y4.63624
G01 X-8.94118 Y4.63471
G01 X-8.94997 Y4.63340
G01 X-8.95878 Y4.63230
G01 X-8.96771 Y4.63141
G01 X-8.97665 Y4.63074
G01 X-8.98552 Y4.63028
G01 X-8.99449 Y4.63004
G01 X-9.00337 Y4.63002
G01 X-9.01225 Y4.63020
G01 X-9.02121 Y4.63061
G01 X-9.03016 Y4.63123
G01 X-9.03910 Y4.63207
G01 X-9.04801 Y4.63313
G01 X-9.05679 Y4.63439
G01 X-9.06565 Y4.63587
G01 X-9.07437 Y4.63755
G01 X-9.08304 Y4.63944
G01 X-9.09176 Y4.64156
G01 X-9.10042 Y4.64389
G01 X-9.10903 Y4.64643
G01 X-9.11757 Y4.64918
G01 X-9.12604 Y4.65213
G01 X-9.13444 Y4.65529
G01 X-9.14267 Y4.65862
G01 X-9.15091 Y4.66218
G01 X-9.15897 Y4.66589
G01 X-9.16703 Y4.66985
G01 X-9.17490 Y4.67395
G01 X-9.18276 Y4.67829
G01 X-9.19051 Y4.68282
G01 X-9.19814 Y4.68753
G01 X-9.20993 Y4.69536
G01 X-9.00643 Y4.93788
G01 X-9.00178 Y4.93757
G01 X-8.99668 Y4.93764
G01 X-8.99200 Y4.93806
G01 X-8.98698 Y4.93892
G01 X-8.98289 Y4.93995
G01 X-8.74035 Y4.73644
G01 X-8.75533 Y4.73596
G01 X-8.76387 Y4.72827
G01 X-8.77053 Y4.72262
G01 X-8.77732 Y4.71713
G01 X-8.78417 Y4.71188
G01 X-8.79122 Y4.70672
G01 X-8.79832 Y4.70180
G01 X-8.80561 Y4.69700
G01 X-8.81294 Y4.69242
G01 X-8.82045 Y4.68797
G01 X-8.82807 Y4.68371
G01 X-8.83579 Y4.67964
G01 X-8.84361 Y4.67575
G01 X-8.85152 Y4.67205
G01 X-8.85943 Y4.66858
G01 X-8.86751 Y4.66527
G01 X-8.87566 Y4.66216
G01 X-8.88381 Y4.65927
G01 X-8.89201 Y4.65658
G01 X-8.90038 Y4.65406
G01 X-8.90870 Y4.65177
G01 X-8.91718 Y4.64966
G01 X-8.92570 Y4.64775
G01 X-8.93417 Y4.64607
G01 X-8.94277 Y4.64458
G01 X-8.95132 Y4.64331
G01 X-8.95989 Y4.64224
G01 X-8.96858 Y4.64138
G01 X-8.97729 Y4.64072
G01 X-8.98591 Y4.64028
G01 X-8.99464 Y4.64004
G01 X-9.00328 Y4.64002
G01 X-9.01192 Y4.64020
G01 X-9.02064 Y4.64060
G01 X-9.02935 Y4.64120
G01 X-9.03804 Y4.64202
G01 X-9.04671 Y4.64305
G01 X-9.05526 Y4.64427
G01 X-9.06387 Y4.64571
G01 X-9.07235 Y4.64735
G01 X-9.08080 Y4.64919
G01 X-9.08928 Y4.65125
G01 X-9.09771 Y4.65352
G01 X-9.10608 Y4.65599
G01 X-9.11439 Y4.65866
G01 X-9.12264 Y4.66153
G01 X-9.13081 Y4.66461
G01 X-9.13882 Y4.66784
G01 X-9.14683 Y4.67131
G01 X-9.15468 Y4.67493
G01 X-9.16252 Y4.67877
G01 X-9.17018 Y4.68276
G01 X-9.17782 Y4.68698
G01 X-9.18536 Y4.69139
G01 X-9.19510 Y4.69748
G01 X-9.00201 Y4.92760
G01 X-8.99656 Y4.92764
G01 X-8.99032 Y4.92821
G01 X-8.98544 Y4.92904
G01 X-8.75533 Y4.73596
G04 P0 ( dwell for no time -- G64 should not smooth over this point )
G00 Z0.08000 ( retract )

G00 X-7.82482 Y2.65071 ( rapid move to begin. )
G01 F3.00000
( Mill infeed pass 1/1 )
G01 Z-0.00800
G04 P0 ( dwell for no time -- G64 should not smooth over this point )
G01 F6.00000
G01 X-7.82482 Y2.65071
G01 X-7.85897 Y2.67199
G01 X-7.93828 Y2.72226
G01 X-7.95719 Y2.73441
G01 X-8.03107 Y2.78250
G01 X-8.04963 Y2.79475
G01 X-8.11835 Y2.84070
G01 X-8.13642 Y2.85295
G01 X-8.20064 Y2.89703
G01 X-8.21824 Y2.90928
G01 X-8.27782 Y2.95128
G01 X-8.29497 Y2.96352
G01 X-8.35047 Y3.00367
G01 X-8.41840 Y3.05394
G01 X-8.48328 Y3.10318
G01 X-8.49915 Y3.11542
G01 X-8.54419 Y3.15060
G01 X-8.60179 Y3.19659
G01 X-8.61676 Y3.20873
G01 X-8.67043 Y3.25295
G01 X-8.72178 Y3.29634
G01 X-8.77013 Y3.33822
G01 X-8.80242 Y3.36679
G01 X-8.84664 Y3.40674
G01 X-8.88840 Y3.44540
G01 X-8.92813 Y3.48310
G01 X-8.96590 Y3.51983
G01 X-9.00178 Y3.55557
G01 X-9.03602 Y3.59052
G01 X-9.06862 Y3.62463
G01 X-9.09986 Y3.65812
G01 X-9.12965 Y3.69085
G01 X-9.15803 Y3.72281
G01 X-9.18493 Y3.75385
G01 X-9.21074 Y3.78438
G01 X-9.23547 Y3.81437
G01 X-9.25900 Y3.84362
G01 X-9.29111 Y3.88477
G01 X-9.31257 Y3.91314
G01 X-9.32412 Y3.92872
G01 X-9.34395 Y3.95601
G01 X-9.36294 Y3.98282
G01 X-9.38931 Y4.02128
G01 X-9.40643 Y4.04707
G01 X-9.43108 Y4.08548
G01 X-9.45374 Y4.12225
G01 X-9.47509 Y4.15838
G01 X-9.49542 Y4.19428
G01 X-9.51383 Y4.22822
G01 X-9.53191 Y4.26307
G01 X-9.54798 Y4.29549
G01 X-9.56242 Y4.32592
G01 X-9.57801 Y4.36046
G01 X-9.59227 Y4.39373
G01 X-9.60427 Y4.42324
G01 X-9.61692 Y4.45603
G01 X-9.62435 Y4.47627
G01 X-9.63143 Y4.49629
G01 X-9.64073 Y4.52389
G01 X-9.64705 Y4.54360
G01 X-9.65305 Y4.56310
G01 X-9.66217 Y4.59459
G01 X-9.66742 Y4.61383
G01 X-9.67237 Y4.63295
G01 X-9.67863 Y4.65860
G01 X-9.68289 Y4.67723
G01 X-9.68692 Y4.69592
G01 X-9.69304 Y4.72672
G01 X-9.69640 Y4.74521
G01 X-9.69951 Y4.76362
G01 X-9.70236 Y4.78182
G01 X-9.70499 Y4.80008
G01 X-9.70737 Y4.81827
G01 X-9.70953 Y4.83641
G01 X-9.71201 Y4.86015
G01 X-9.71362 Y4.87803
G01 X-9.71502 Y4.89601
G01 X-9.71619 Y4.91394
G01 X-9.71714 Y4.93183
G01 X-9.71787 Y4.94974
G01 X-9.71838 Y4.96761
G01 X-9.71867 Y4.98547
G01 X-9.71874 Y5.00317
G01 X-9.71859 Y5.02091
G01 X-9.71823 Y5.03880
G01 X-9.71764 Y5.05670
G01 X-9.71683 Y5.07459
G01 X-9.71497 Y5.10475
G01 X-9.71356 Y5.12273
G01 X-9.71194 Y5.14057
G01 X-9.70943 Y5.16449
G01 X-9.70568 Y5.19484
G01 X-9.70314 Y5.21293
G01 X-9.70035 Y5.23117
G01 X-9.69732 Y5.24950
G01 X-9.69406 Y5.26779
G01 X-9.68926 Y5.29265
G01 X-9.68538 Y5.31132
G01 X-9.68124 Y5.33009
G01 X-9.67386 Y5.36109
G01 X-9.66903 Y5.38005
G01 X-9.66393 Y5.39907
G01 X-9.65648 Y5.42532
G01 X-9.64688 Y5.45694
G01 X-9.64061 Y5.47648
G01 X-9.63417 Y5.49574
G01 X-9.62426 Y5.52403
G01 X-9.61176 Y5.55757
G01 X-9.60025 Y5.58681
G01 X-9.58658 Y5.61974
G01 X-9.57331 Y5.65014
G01 X-9.55781 Y5.68391
G01 X-9.54256 Y5.71561
G01 X-9.53134 Y5.73805
G01 X-9.51323 Y5.77290
G01 X-9.49470 Y5.80701
G01 X-9.47440 Y5.84281
G01 X-9.46029 Y5.86682
G01 X-9.44894 Y5.88564
G01 X-9.44991 Y5.88794
G01 X-9.44894 Y5.88564
G01 X-9.41045 Y5.87571
G01 X-9.38843 Y5.87028
G01 X-9.36012 Y5.86361
G01 X-9.33274 Y5.85750
G01 X-9.30651 Y5.85199
G01 X-9.26741 Y5.84442
G01 X-9.23270 Y5.83842
G01 X-9.20707 Y5.83446
G01 X-9.18661 Y5.83157
G01 X-9.15145 Y5.82727
G01 X-9.12970 Y5.82504
G01 X-9.10818 Y5.82313
G01 X-9.07832 Y5.82106
G01 X-9.06565 Y5.82037
G01 X-9.04490 Y5.81951
G01 X-9.02417 Y5.81897
G01 X-9.01144 Y5.81880
G01 X-8.99496 Y5.81875
G01 X-8.97437 Y5.81901
G01 X-8.96178 Y5.81929
G01 X-8.94148 Y5.82005
G01 X-8.91160 Y5.82169
G01 X-8.87761 Y5.82435
G01 X-8.84669 Y5.82748
G01 X-8.82189 Y5.83047
G01 X-8.80207 Y5.83313
G01 X-8.76542 Y5.83873
G01 X-8.73069 Y5.84478
G01 X-8.70529 Y5.84961
G01 X-8.69119 Y5.85246
G01 X-8.65218 Y5.86082
G01 X-8.60940 Y5.87080
G01 X-8.56458 Y5.88210
G01 X-8.51642 Y5.89504
G01 X-8.48228 Y5.90469
G01 X-8.44603 Y5.91532
G01 X-8.38532 Y5.93390
G01 X-8.32300 Y5.95389
G01 X-8.27641 Y5.96929
G01 X-8.24701 Y5.97922
G01 X-8.20902 Y5.99230
G01 X-8.20078 Y6.00091
G01 X-8.20902 Y5.99230
G01 X-8.22607 Y5.93603
G01 X-8.23905 Y5.89231
G01 X-8.24881 Y5.85877
G01 X-8.26590 Y5.79828
G01 X-8.27378 Y5.76953
G01 X-8.28678 Y5.72046
G01 X-8.29267 Y5.69744
G01 X-8.30335 Y5.65402
G01 X-8.30785 Y5.63493
G01 X-8.31632 Y5.59727
G01 X-8.32360 Y5.56255
G01 X-8.32733 Y5.54364
G01 X-8.33309 Y5.51226
G01 X-8.33518 Y5.50005
G01 X-8.33962 Y5.47196
G01 X-8.34335 Y5.44504
G01 X-8.34632 Y5.41999
G01 X-8.34789 Y5.40444
G01 X-8.34986 Y5.38067
G01 X-8.35119 Y5.35824
G01 X-8.35290 Y5.30991
G01 X-8.35387 Y5.29025
G01 X-8.35507 Y5.27085
G01 X-8.35647 Y5.25180
G01 X-8.35809 Y5.23313
G01 X-8.35988 Y5.21490
G01 X-8.36188 Y5.19688
G01 X-8.36405 Y5.17928
G01 X-8.36641 Y5.16185
G01 X-8.37101 Y5.13178
G01 X-8.37387 Y5.11501
G01 X-8.37690 Y5.09848
G01 X-8.38413 Y5.06233
G01 X-8.38676 Y5.04622
G01 X-8.38832 Y5.03321
G01 X-8.38956 Y5.01700
G01 X-8.39000 Y5.00088
G01 X-8.38965 Y4.98488
G01 X-8.38851 Y4.96872
G01 X-8.38659 Y4.95256
G01 X-8.38390 Y4.93644
G01 X-8.37667 Y4.90030
G01 X-8.37366 Y4.88375
G01 X-8.37081 Y4.86696
G01 X-8.36813 Y4.84989
G01 X-8.36563 Y4.83253
G01 X-8.36332 Y4.81498
G01 X-8.36118 Y4.79704
G01 X-8.35923 Y4.77875
G01 X-8.35749 Y4.76026
G01 X-8.35498 Y4.72786
G01 X-8.35380 Y4.70860
G01 X-8.35284 Y4.68880
G01 X-8.35145 Y4.64753
G01 X-8.35029 Y4.62558
G01 X-8.34776 Y4.59412
G01 X-8.34509 Y4.56906
G01 X-8.34313 Y4.55322
G01 X-8.33939 Y4.52654
G01 X-8.33489 Y4.49825
G01 X-8.33279 Y4.48601
G01 X-8.32723 Y4.45583
G01 X-8.32333 Y4.43616
G01 X-8.31673 Y4.40472
G01 X-8.30698 Y4.36133
G01 X-8.29690 Y4.31948
G01 X-8.29137 Y4.29743
G01 X-8.27875 Y4.24896
G01 X-8.26409 Y4.19521
G01 X-8.24714 Y4.13546
G01 X-8.23909 Y4.10781
G01 X-8.21832 Y4.03808
G01 X-8.20375 Y3.99035
G01 X-8.17594 Y3.90120
G01 X-8.16483 Y3.86620
G01 X-8.13024 Y3.75862
G01 X-8.10439 Y3.67684
G01 X-8.09222 Y3.63751
G01 X-8.06314 Y3.54142
G01 X-8.05097 Y3.50030
G01 X-8.01832 Y3.38747
G01 X-8.00605 Y3.34406
G01 X-7.96943 Y3.21141
G01 X-7.95725 Y3.16626
G01 X-7.91572 Y3.00833
G01 X-7.88954 Y2.90583
G01 X-7.85518 Y2.76975
G01 X-7.82482 Y2.65071
G01 X-7.80897 Y2.62910
G01 X-7.86429 Y2.66353
G01 X-7.94366 Y2.71383
G01 X-7.96262 Y2.72601
G01 X-8.03655 Y2.77414
G01 X-8.05516 Y2.78642
G01 X-8.12393 Y2.83240
G01 X-8.14206 Y2.84468
G01 X-8.20632 Y2.88881
G01 X-8.22397 Y2.90109
G01 X-8.28361 Y2.94312
G01 X-8.35636 Y2.99559
G01 X-8.42439 Y3.04593
G01 X-8.48936 Y3.09524
G01 X-8.55037 Y3.14274
G01 X-8.60807 Y3.18880
G01 X-8.66220 Y3.23310
G01 X-8.67685 Y3.24528
G01 X-8.72829 Y3.28875
G01 X-8.76280 Y3.31853
G01 X-8.80907 Y3.35932
G01 X-8.85338 Y3.39935
G01 X-8.89523 Y3.43810
G01 X-8.90817 Y3.45028
G01 X-8.93505 Y3.47588
G01 X-8.97291 Y3.51269
G01 X-8.98523 Y3.52487
G01 X-9.02100 Y3.56080
G01 X-9.04320 Y3.58357
G01 X-9.07589 Y3.61776
G01 X-9.08743 Y3.63003
G01 X-9.11847 Y3.66362
G01 X-9.13708 Y3.68416
G01 X-9.16554 Y3.71621
G01 X-9.20289 Y3.75952
G01 X-9.21841 Y3.77797
G01 X-9.24322 Y3.80805
G01 X-9.26682 Y3.83740
G01 X-9.28959 Y3.86642
G01 X-9.32058 Y3.90716
G01 X-9.34115 Y3.93506
G01 X-9.36083 Y3.96246
G01 X-9.37959 Y3.98926
G01 X-9.39761 Y4.01570
G01 X-9.41480 Y4.04159
G01 X-9.43134 Y4.06719
G01 X-9.44721 Y4.09243
G01 X-9.46230 Y4.11708
G01 X-9.47687 Y4.14157
G01 X-9.49080 Y4.16564
G01 X-9.50417 Y4.18943
G01 X-9.51693 Y4.21280
G01 X-9.52907 Y4.23571
G01 X-9.54599 Y4.26881
G01 X-9.55698 Y4.29113
G01 X-9.57149 Y4.32171
G01 X-9.58304 Y4.34713
G01 X-9.59247 Y4.36860
G01 X-9.60149 Y4.38988
G01 X-9.61357 Y4.41956
G01 X-9.62163 Y4.44025
G01 X-9.63376 Y4.47287
G01 X-9.64087 Y4.49301
G01 X-9.65024 Y4.52078
G01 X-9.65660 Y4.54061
G01 X-9.66627 Y4.57250
G01 X-9.67181 Y4.59189
G01 X-9.67891 Y4.61822
G01 X-9.68676 Y4.64959
G01 X-9.69265 Y4.67507
G01 X-9.69671 Y4.69388
G01 X-9.70286 Y4.72487
G01 X-9.70733 Y4.74973
G01 X-9.71224 Y4.78033
G01 X-9.71489 Y4.79870
G01 X-9.71803 Y4.82301
G01 X-9.72139 Y4.85337
G01 X-9.72359 Y4.87721
G01 X-9.72500 Y4.89531
G01 X-9.72685 Y4.92562
G01 X-9.72787 Y4.94940
G01 X-9.72860 Y4.97967
G01 X-9.72874 Y5.00321
G01 X-9.72836 Y5.03334
G01 X-9.72763 Y5.05710
G01 X-9.72613 Y5.08738
G01 X-9.72451 Y5.11129
G01 X-9.72189 Y5.14152
G01 X-9.72002 Y5.15969
G01 X-9.71718 Y5.18388
G01 X-9.71303 Y5.21437
G01 X-9.70923 Y5.23891
G01 X-9.70609 Y5.25742
G01 X-9.70035 Y5.28819
G01 X-9.69516 Y5.31343
G01 X-9.68815 Y5.34459
G01 X-9.68186 Y5.37031
G01 X-9.67687 Y5.38954
G01 X-9.66817 Y5.42091
G01 X-9.66244 Y5.44041
G01 X-9.65405 Y5.46741
G01 X-9.64763 Y5.48709
G01 X-9.64110 Y5.50633
G01 X-9.63004 Y5.53739
G01 X-9.62110 Y5.56114
G01 X-9.60952 Y5.59056
G01 X-9.59578 Y5.62366
G01 X-9.58657 Y5.64491
G01 X-9.57690 Y5.66649
G01 X-9.56686 Y5.68816
G01 X-9.55153 Y5.72003
G01 X-9.54026 Y5.74258
G01 X-9.52848 Y5.76541
G01 X-9.51626 Y5.78843
G01 X-9.49664 Y5.82404
G01 X-9.48305 Y5.84782
G01 X-9.46888 Y5.87194
G01 X-9.45358 Y5.89724
G01 X-9.45406 Y5.89838
G01 X-9.45358 Y5.89724
G01 X-9.41543 Y5.88728
G01 X-9.38611 Y5.88000
G01 X-9.34326 Y5.87006
G01 X-9.31638 Y5.86423
G01 X-9.29766 Y5.86040
G01 X-9.27944 Y5.85684
G01 X-9.25487 Y5.85234
G01 X-9.21787 Y5.84619
G01 X-9.18520 Y5.84147
G01 X-9.15027 Y5.83720
G01 X-9.12872 Y5.83499
G01 X-9.10727 Y5.83309
G01 X-9.07764 Y5.83103
G01 X-9.06524 Y5.83036
G01 X-9.04456 Y5.82951
G01 X-9.02390 Y5.82896
G01 X-9.01141 Y5.82880
G01 X-8.99505 Y5.82875
G01 X-8.97451 Y5.82901
G01 X-8.96210 Y5.82929
G01 X-8.94188 Y5.83004
G01 X-8.91223 Y5.83167
G01 X-8.87847 Y5.83431
G01 X-8.84789 Y5.83740
G01 X-8.82310 Y5.84040
G01 X-8.80344 Y5.84304
G01 X-8.76695 Y5.84861
G01 X-8.73241 Y5.85464
G01 X-8.71869 Y5.85719
G01 X-8.69328 Y5.86224
G01 X-8.65444 Y5.87056
G01 X-8.61181 Y5.88050
G01 X-8.56715 Y5.89176
G01 X-8.51905 Y5.90469
G01 X-8.46608 Y5.91981
G01 X-8.41912 Y5.93391
G01 X-8.36976 Y5.94929
G01 X-8.32616 Y5.96338
G01 X-8.27957 Y5.97878
G01 X-8.22996 Y5.99562
G01 X-8.19373 Y6.00819
G01 X-8.18963 Y6.01244
G01 X-8.19373 Y6.00819
G01 X-8.20919 Y5.95740
G01 X-8.22945 Y5.88951
G01 X-8.23921 Y5.85598
G01 X-8.24913 Y5.82114
G01 X-8.26411 Y5.76697
G01 X-8.27712 Y5.71789
G01 X-8.28297 Y5.69502
G01 X-8.29361 Y5.65175
G01 X-8.29812 Y5.63260
G01 X-8.30657 Y5.59507
G01 X-8.31381 Y5.56054
G01 X-8.31750 Y5.54183
G01 X-8.32324 Y5.51057
G01 X-8.32530 Y5.49850
G01 X-8.32974 Y5.47041
G01 X-8.33342 Y5.44388
G01 X-8.33639 Y5.41883
G01 X-8.33794 Y5.40343
G01 X-8.33988 Y5.38005
G01 X-8.34121 Y5.35763
G01 X-8.34291 Y5.30946
G01 X-8.34389 Y5.28968
G01 X-8.34509 Y5.27016
G01 X-8.34651 Y5.25099
G01 X-8.34813 Y5.23219
G01 X-8.34994 Y5.21384
G01 X-8.35195 Y5.19570
G01 X-8.35590 Y5.16483
G01 X-8.35843 Y5.14737
G01 X-8.36115 Y5.13018
G01 X-8.36402 Y5.11329
G01 X-8.36707 Y5.09664
G01 X-8.37427 Y5.06067
G01 X-8.37640 Y5.04803
G01 X-8.37837 Y5.03225
G01 X-8.37957 Y5.01653
G01 X-8.38000 Y5.00102
G01 X-8.37967 Y4.98538
G01 X-8.37856 Y4.96971
G01 X-8.37669 Y4.95403
G01 X-8.37404 Y4.93814
G01 X-8.36684 Y4.90214
G01 X-8.36380 Y4.88547
G01 X-8.36094 Y4.86855
G01 X-8.35824 Y4.85136
G01 X-8.35572 Y4.83388
G01 X-8.35340 Y4.81621
G01 X-8.35124 Y4.79815
G01 X-8.34928 Y4.77973
G01 X-8.34753 Y4.76113
G01 X-8.34500 Y4.72855
G01 X-8.34382 Y4.70916
G01 X-8.34285 Y4.68924
G01 X-8.34146 Y4.64798
G01 X-8.34031 Y4.62632
G01 X-8.33779 Y4.59498
G01 X-8.33517 Y4.57034
G01 X-8.33320 Y4.55440
G01 X-8.32950 Y4.52796
G01 X-8.32502 Y4.49982
G01 X-8.31982 Y4.47045
G01 X-8.31742 Y4.45781
G01 X-8.31034 Y4.42273
G01 X-8.30292 Y4.38846
G01 X-8.29722 Y4.36352
G01 X-8.28719 Y4.32185
G01 X-8.27579 Y4.27700
G01 X-8.26252 Y4.22717
G01 X-8.24723 Y4.17214
G01 X-8.23753 Y4.13821
G01 X-8.21770 Y4.07077
G01 X-8.20874 Y4.04094
G01 X-8.18422 Y3.96105
G01 X-8.16641 Y3.90422
G01 X-8.15531 Y3.86926
G01 X-8.12071 Y3.76166
G01 X-8.09485 Y3.67983
G01 X-8.08266 Y3.64043
G01 X-8.05356 Y3.54429
G01 X-8.04137 Y3.50311
G01 X-8.00871 Y3.39022
G01 X-7.99642 Y3.34675
G01 X-7.95978 Y3.21405
G01 X-7.94759 Y3.16883
G01 X-7.90604 Y3.01085
G01 X-7.87985 Y2.90829
G01 X-7.83212 Y2.71963
G01 X-7.80897 Y2.62910
G01 X-7.80398 Y2.62223
G04 P0 ( dwell for no time -- G64 should not smooth over this point )
G00 Z0.08000 ( retract )

G00 X-6.74237 Y2.79387 ( rapid move to begin. )
G01 F3.00000
( Mill infeed pass 1/1 )
G01 Z-0.00800
G04 P0 ( dwell for no time -- G64 should not smooth over this point )
G01 F6.00000
G01 X-6.74237 Y2.79387
G01 X-6.73143 Y2.84381
G01 X-6.43614 Y3.58332
G01 X-6.39797 Y3.68142
G01 X-6.36323 Y3.77606
G01 X-6.33186 Y3.86728
G01 X-6.30389 Y3.95509
G01 X-6.27930 Y4.03948
G01 X-6.25809 Y4.12044
G01 X-6.24026 Y4.19797
G01 X-6.22579 Y4.27221
G01 X-6.17730 Y4.54718
G01 X-6.16700 Y4.59860
G01 X-6.15521 Y4.64525
G01 X-6.14146 Y4.68903
G01 X-6.12589 Y4.72920
G01 X-6.10804 Y4.76662
G01 X-6.09856 Y4.78360
G01 X-6.08861 Y4.79967
G01 X-6.07861 Y4.81420
G01 X-6.06773 Y4.82844
G01 X-6.05637 Y4.84175
G01 X-6.04450 Y4.85415
G01 X-6.04248 Y4.85591
G01 X-6.04018 Y4.85728
G01 X-6.02266 Y4.86564
G01 X-5.99524 Y4.87812
G01 X-5.98630 Y4.88245
G01 X-5.97553 Y4.88824
G01 X-5.96290 Y4.89595
G01 X-5.95570 Y4.90083
G01 X-5.94680 Y4.90744
G01 X-5.93633 Y4.91610
G01 X-5.92843 Y4.92341
G01 X-5.92281 Y4.92906
G01 X-5.91375 Y4.93907
G01 X-5.90675 Y4.94769
G01 X-5.90172 Y4.95446
G01 X-5.89532 Y4.96388
G01 X-5.88918 Y4.97390
G01 X-5.88199 Y4.98722
G01 X-5.87636 Y4.99912
G01 X-5.87212 Y5.00914
G01 X-5.86707 Y5.02276
G01 X-5.86226 Y5.03790
G01 X-5.85780 Y5.05470
G01 X-5.85315 Y5.07708
G01 X-5.85023 Y5.09577
G01 X-5.84973 Y5.09964
G01 X-5.84718 Y5.12519
G01 X-5.84578 Y5.15408
G01 X-5.84574 Y5.18340
G01 X-5.84747 Y5.22127
G01 X-5.84726 Y5.22460
G01 X-5.76893 Y5.66883
G01 X-5.76291 Y5.70632
G01 X-5.75788 Y5.74483
G01 X-5.53727 Y7.64471
G01 X-5.52464 Y7.65444
G01 X-5.52621 Y7.65323
G01 X-5.61985 Y7.66654
G01 X-5.71826 Y7.67837
G01 X-5.81667 Y7.68806
G01 X-5.91508 Y7.69560
