( pcb2gcode 1.3.2 )
( Software-independent Gcode )

G94 ( Inches per minute feed rate. )
G20 ( Units == INCHES. )

G90 ( Absolute coordinates. )
G00 S30000 ( RPM spindle speed. )
G64 P0.00040 ( set maximum deviation from commanded toolpath )
G01 F6.00000 ( Feedrate. )

G01 F6.00000 ( Feedrate. )
M3 ( Spindle on clockwise. )
G04 P1.00000
G04 P0 ( dwell for no time -- G64 should not smooth over this point )
G00 Z0.08000 ( retract )

G00 X0.04250 Y0.00000 ( rapid move to begin. )
G01 F3.00000
G01 Z-0.00800
G04 P0 ( dwell for no time -- G64 should not smooth over this point )
G01 F6.00000
G01 X0.04250 Y0.00000
G01 X0.04250 Y10.00000
G01 X0.04144 Y10.00924
G01 X0.03884 Y10.01715
G01 X0.03475 Y10.02440
G01 X0.02932 Y10.03071
G01 X0.02277 Y10.03584
G01 X0.01534 Y10.03960
G01 X0.00732 Y10.04183
G01 X-0.00000 Y10.04250
G01 X-10.00000 Y10.04250
G01 X-10.00924 Y10.04144
G01 X-10.01715 Y10.03885
G01 X-10.02440 Y10.03475
G01 X-10.03071 Y10.02932
G01 X-10.03584 Y10.02277
G01 X-10.03960 Y10.01534
G01 X-10.04183 Y10.00732
G01 X-10.04250 Y10.00000
G01 X-10.04250 Y0.00000
G01 X-10.04144 Y-0.00924
G01 X-10.03885 Y-0.01715
G01 X-10.03475 Y-0.02440
G01 X-10.02932 Y-0.03071
G01 X-10.02277 Y-0.03584
G01 X-10.01534 Y-0.03959
G01 X-10.00732 Y-0.04183
G01 X-10.00000 Y-0.04250
G01 X-0.00000 Y-0.04250
G01 X0.00832 Y-0.04167
G01 X0.01680 Y-0.03903
G01 X0.02170 Y-0.03653
G01 X0.02882 Y-0.03122
G01 X0.03468 Y-0.02455
G01 X0.03903 Y-0.01680
G01 X0.04167 Y-0.00832
G01 X0.04250 Y0.00000
G04 P0 ( dwell for no time -- G64 should not smooth over this point )
G00 Z0.08000 ( retract )

G00 X-2.48432 Y2.17243 ( rapid move to begin. )
G01 F3.00000
G01 Z-0.00800
G04 P0 ( dwell for no time -- G64 should not smooth over this point )
G01 F6.00000
G01 X-2.48432 Y2.17243
G01 X-2.37527 Y2.16935
G01 X-2.26623 Y2.16909
G01 X-2.16340 Y2.17150
G01 X-2.10070 Y2.24011
G01 X-2.03614 Y2.31333
G01 X-1.97395 Y2.38655
G01 X-1.91412 Y2.45977
G01 X-1.85666 Y2.53297
G01 X-1.80157 Y2.60617
G01 X-1.74885 Y2.67934
G01 X-1.69851 Y2.75249
G01 X-1.65052 Y2.82564
G01 X-1.60489 Y2.89879
G01 X-1.56164 Y2.97191
G01 X-1.52075 Y3.04503
G01 X-1.48223 Y3.11812
G01 X-1.44606 Y3.19121
G01 X-1.41226 Y3.26429
G01 X-1.38079 Y3.33743
G01 X-1.36014 Y3.38728
G01 X-1.33849 Y3.44110
G01 X-1.31817 Y3.49484
G01 X-1.29915 Y3.54860
G01 X-1.28143 Y3.60232
G01 X-1.26499 Y3.65605
G01 X-1.24986 Y3.70978
G01 X-1.23603 Y3.76348
G01 X-1.22554 Y3.80842
G01 X-1.59470 Y4.12083
G01 X-1.63993 Y4.15839
G01 X-1.68410 Y4.19361
G01 X-1.83929 Y4.31472
G01 X-1.87085 Y4.33860
G01 X-1.90202 Y4.36067
G01 X-1.98220 Y4.41549
G01 X-2.00794 Y4.43232
G01 X-2.03365 Y4.44761
G01 X-2.16020 Y4.51845
G01 X-2.18238 Y4.53285
G01 X-2.22650 Y4.56318
G01 X-2.24575 Y4.57715
G01 X-2.26504 Y4.59275
G01 X-2.30491 Y4.62679
G01 X-2.32265 Y4.64279
G01 X-2.33896 Y4.65911
G01 X-2.37495 Y4.69703
G01 X-2.39110 Y4.71500
G01 X-2.40586 Y4.73324
G01 X-2.43795 Y4.77506
G01 X-2.45311 Y4.79596
G01 X-2.46685 Y4.81715
G01 X-2.49493 Y4.86298
G01 X-2.50907 Y4.88749
G01 X-2.52246 Y4.91377
G01 X-2.54633 Y4.96381
G01 X-2.56000 Y4.99458
G01 X-2.57259 Y5.02742
G01 X-2.59192 Y5.08200
G01 X-2.60509 Y5.12275
G01 X-2.61613 Y5.16413
G01 X-2.63782 Y5.25691
G01 X-2.65019 Y5.36579
G01 X-2.68691 Y5.60264
G01 X-2.75688 Y5.97417
G01 X-2.77958 Y6.08724
G01 X-3.00622 Y7.15969
G01 X-3.07681 Y7.48429
G01 X-3.13392 Y7.48318
G01 X-3.20321 Y7.48085
G01 X-3.27249 Y7.47755
G01 X-3.32895 Y7.47407
G01 X-3.38164 Y6.84899
G01 X-3.45027 Y6.05176
G01 X-3.48022 Y5.71564
G01 X-3.48500 Y5.65520
G01 X-3.48500 Y5.36485
G01 X-3.48193 Y5.33068
G01 X-3.46159 Y5.16010
G01 X-3.44960 Y5.05391
G01 X-3.43005 Y4.86039
G01 X-3.41993 Y4.74632
G01 X-3.40989 Y4.62315
G01 X-3.39665 Y4.44747
G01 X-3.39661 Y4.37598
G01 X-3.39804 Y4.29892
G01 X-3.40228 Y4.21955
G01 X-3.40941 Y4.13643
G01 X-3.41934 Y4.05101
G01 X-3.43204 Y3.96318
G01 X-3.44763 Y3.87214
G01 X-3.46604 Y3.77831
G01 X-3.48734 Y3.68137
G01 X-3.51133 Y3.58225
G01 X-3.53822 Y3.48002
G01 X-3.56792 Y3.37499
G01 X-3.60053 Y3.26693
G01 X-3.63587 Y3.15630
G01 X-3.67405 Y3.04286
G01 X-3.71497 Y2.92681
G01 X-3.75878 Y2.80774
G01 X-3.88809 Y2.46330
G01 X-3.79307 Y2.42876
G01 X-3.68399 Y2.39192
G01 X-3.57488 Y2.35789
G01 X-3.46581 Y2.32668
G01 X-3.35673 Y2.29829
G01 X-3.24765 Y2.27271
G01 X-3.13860 Y2.24994
G01 X-3.02954 Y2.22999
G01 X-2.92048 Y2.21285
G01 X-2.81142 Y2.19853
G01 X-2.70240 Y2.18702
G01 X-2.59334 Y2.17832
G01 X-2.48432 Y2.17243
G01 X-2.48473 Y2.16244
G01 X-2.37542 Y2.15935
G01 X-2.26612 Y2.15909
G01 X-2.15890 Y2.16160
G01 X-2.09325 Y2.23343
G01 X-2.02857 Y2.30680
G01 X-1.96627 Y2.38015
G01 X-1.90632 Y2.45351
G01 X-1.84874 Y2.52687
G01 X-1.79353 Y2.60022
G01 X-1.74068 Y2.67357
G01 X-1.69021 Y2.74691
G01 X-1.64209 Y2.82027
G01 X-1.59635 Y2.89359
G01 X-1.55297 Y2.96694
G01 X-1.51197 Y3.04025
G01 X-1.47332 Y3.11358
G01 X-1.43704 Y3.18690
G01 X-1.40313 Y3.26022
G01 X-1.37156 Y3.33356
G01 X-1.32917 Y3.43747
G01 X-1.30878 Y3.49141
G01 X-1.28969 Y3.54535
G01 X-1.27189 Y3.59929
G01 X-1.25540 Y3.65324
G01 X-1.24021 Y3.70717
G01 X-1.22632 Y3.76108
G01 X-1.21441 Y3.81211
G01 X-1.58831 Y4.12852
G01 X-1.63363 Y4.16615
G01 X-1.67790 Y4.20146
G01 X-1.83319 Y4.32265
G01 X-1.86494 Y4.34667
G01 X-1.89629 Y4.36887
G01 X-1.97667 Y4.42382
G01 X-2.00264 Y4.44081
G01 X-2.02862 Y4.45626
G01 X-2.15476 Y4.52684
G01 X-2.17671 Y4.54109
G01 X-2.22063 Y4.57127
G01 X-2.23987 Y4.58524
G01 X-2.25845 Y4.60027
G01 X-2.29841 Y4.63440
G01 X-2.31558 Y4.64986
G01 X-2.33170 Y4.66599
G01 X-2.36769 Y4.70391
G01 X-2.38333 Y4.72129
G01 X-2.39793 Y4.73933
G01 X-2.43002 Y4.78115
G01 X-2.44457 Y4.80119
G01 X-2.45832 Y4.82238
G01 X-2.48648 Y4.86832
G01 X-2.50053 Y4.89271
G01 X-2.51338 Y4.91796
G01 X-2.53730 Y4.96812
G01 X-2.55096 Y4.99889
G01 X-2.56316 Y5.03076
G01 X-2.58249 Y5.08534
G01 X-2.59543 Y5.12533
G01 X-2.60650 Y5.16683
G01 X-2.62806 Y5.25908
G01 X-2.64028 Y5.36708
G01 X-2.67706 Y5.60434
G01 X-2.74707 Y5.97607
G01 X-2.76979 Y6.08928
G01 X-2.99644 Y7.16176
G01 X-3.06882 Y7.49445
G01 X-3.13420 Y7.49317
G01 X-3.20359 Y7.49085
G01 X-3.27305 Y7.48754
G01 X-3.33819 Y7.48351
G01 X-3.39160 Y6.84985
G01 X-3.46023 Y6.05264
G01 X-3.49018 Y5.71652
G01 X-3.49500 Y5.65557
G01 X-3.49500 Y5.36440
G01 X-3.49188 Y5.32966
G01 X-3.47153 Y5.15897
G01 X-3.45954 Y5.05285
G01 X-3.44001 Y4.85948
G01 X-3.42989 Y4.74546
G01 X-3.41986 Y4.62238
G01 X-3.40663 Y4.44672
G01 X-3.40661 Y4.37616
G01 X-3.40803 Y4.29945
G01 X-3.41227 Y4.21992
G01 X-3.41934 Y4.13759
G01 X-3.42924 Y4.05244
G01 X-3.44194 Y3.96461
G01 X-3.45748 Y3.87383
G01 X-3.47585 Y3.78024
G01 X-3.49706 Y3.68373
G01 X-3.52108 Y3.58451
G01 X-3.54789 Y3.48257
G01 X-3.57755 Y3.37772
G01 X-3.61005 Y3.26997
G01 X-3.64533 Y3.15956
G01 X-3.68348 Y3.04619
G01 X-3.72442 Y2.93007
G01 X-3.76817 Y2.81120
G01 X-3.90100 Y2.45735
G01 X-3.79638 Y2.41932
G01 X-3.68706 Y2.38241
G01 X-3.57776 Y2.34831
G01 X-3.46844 Y2.31704
G01 X-3.35914 Y2.28858
G01 X-3.24982 Y2.26294
G01 X-3.14053 Y2.24013
G01 X-3.03122 Y2.22013
G01 X-2.92193 Y2.20296
G01 X-2.81262 Y2.18860
G01 X-2.70330 Y2.17706
G01 X-2.59402 Y2.16834
G01 X-2.48473 Y2.16244
G04 P0 ( dwell for no time -- G64 should not smooth over this point )
G00 Z0.08000 ( retract )

G00 X-3.91091 Y2.45942 ( rapid move to begin. )
G01 F3.00000
G01 Z-0.00800
G04 P0 ( dwell for no time -- G64 should not smooth over this point )
G01 F6.00000
G01 X-3.91091 Y2.45942
G01 X-3.77754 Y2.81468
G01 X-3.73382 Y2.93350
G01 X-3.69292 Y3.04948
G01 X-3.65485 Y3.16263
G01 X-3.61958 Y3.27299
G01 X-3.58716 Y3.38047
G01 X-3.55755 Y3.48515
G01 X-3.53076 Y3.58701
G01 X-3.50679 Y3.68604
G01 X-3.48565 Y3.78222
G01 X-3.46733 Y3.87559
G01 X-3.45183 Y3.96610
G01 X-3.43915 Y4.05379
G01 X-3.42929 Y4.13867
G01 X-3.42224 Y4.22069
G01 X-3.41802 Y4.29989
G01 X-3.41661 Y4.37629
G01 X-3.41661 Y4.44616
G01 X-3.42982 Y4.62157
G01 X-3.43986 Y4.74463
G01 X-3.44997 Y4.85854
G01 X-3.46948 Y5.05173
G01 X-3.48146 Y5.15779
G01 X-3.50182 Y5.32860
G01 X-3.50498 Y5.36373
G01 X-3.50500 Y5.65575
G01 X-3.50014 Y5.71741
G01 X-3.47019 Y6.05351
G01 X-3.40157 Y6.85070
G01 X-3.34819 Y7.48395
G01 X-3.46345 Y7.50026
G01 X-3.58333 Y7.51426
G01 X-3.70321 Y7.52529
G01 X-3.82306 Y7.53335
G01 X-3.94295 Y7.53843
G01 X-4.06280 Y7.54055
G01 X-4.18269 Y7.53970
G01 X-4.29859 Y7.53601
G01 X-4.55013 Y6.15119
G01 X-4.56022 Y6.09316
G01 X-4.56919 Y6.03626
G01 X-4.57705 Y5.98051
G01 X-4.58380 Y5.92583
G01 X-4.58943 Y5.87230
G01 X-4.59396 Y5.81987
G01 X-4.59738 Y5.76855
G01 X-4.59967 Y5.71870
G01 X-4.59032 Y5.63111
G01 X-4.58473 Y5.57106
G01 X-4.57084 Y5.38696
G01 X-4.56014 Y5.25536
G01 X-4.54134 Y5.05157
G01 X-4.51940 Y4.84963
G01 X-4.49817 Y4.67140
G01 X-4.49502 Y4.63626
G01 X-4.49500 Y4.34424
G01 X-4.49986 Y4.28258
G01 X-4.51044 Y4.16393
G01 X-4.50788 Y4.11301
G01 X-4.50432 Y4.06077
G01 X-4.49979 Y4.00758
G01 X-4.49428 Y3.95339
G01 X-4.48778 Y3.89820
G01 X-4.48031 Y3.84203
G01 X-4.47186 Y3.78490
G01 X-4.46244 Y3.72682
G01 X-4.44063 Y3.60761
G01 X-4.41491 Y3.48449
G01 X-4.38528 Y3.35745
G01 X-4.35171 Y3.22645
G01 X-4.14832 Y2.46521
G01 X-4.02970 Y2.46082
G01 X-3.91091 Y2.45942
G01 X-3.91780 Y2.46950
G01 X-3.78691 Y2.81818
G01 X-3.74322 Y2.93689
G01 X-3.70238 Y3.05274
G01 X-3.66435 Y3.16576
G01 X-3.62914 Y3.27594
G01 X-3.59676 Y3.38328
G01 X-3.56719 Y3.48779
G01 X-3.54046 Y3.58945
G01 X-3.51654 Y3.68826
G01 X-3.49544 Y3.78425
G01 X-3.47716 Y3.87739
G01 X-3.46171 Y3.96766
G01 X-3.44906 Y4.05510
G01 X-3.43924 Y4.13967
G01 X-3.43222 Y4.22138
G01 X-3.42801 Y4.30026
G01 X-3.42661 Y4.37640
G01 X-3.42661 Y4.44578
G01 X-3.43979 Y4.62080
G01 X-3.44982 Y4.74381
G01 X-3.45993 Y4.85759
G01 X-3.47942 Y5.05066
G01 X-3.49139 Y5.15664
G01 X-3.51176 Y5.32747
G01 X-3.51494 Y5.36284
G01 X-3.51500 Y5.65575
G01 X-3.51010 Y5.71830
G01 X-3.48016 Y6.05436
G01 X-3.41153 Y6.85155
G01 X-3.35894 Y7.47537
G01 X-3.46471 Y7.49034
G01 X-3.58436 Y7.50432
G01 X-3.70398 Y7.51532
G01 X-3.82361 Y7.52336
G01 X-3.94325 Y7.52844
G01 X-4.06287 Y7.53055
G01 X-4.18250 Y7.52970
G01 X-4.29019 Y7.52627
G01 X-4.54029 Y6.14942
G01 X-4.55035 Y6.09152
G01 X-4.55930 Y6.03480
G01 X-4.56714 Y5.97917
G01 X-4.57386 Y5.92469
G01 X-4.57948 Y5.87135
G01 X-4.58399 Y5.81911
G01 X-4.58739 Y5.76799
G01 X-4.58964 Y5.71900
G01 X-4.58038 Y5.63224
G01 X-4.57478 Y5.57199
G01 X-4.56020 Y5.37920
G01 X-4.55018 Y5.25619
G01 X-4.54007 Y5.14241
G01 X-4.52058 Y4.94941
G01 X-4.50861 Y4.84341
G01 X-4.48824 Y4.67253
G01 X-4.48500 Y4.63582
G01 X-4.48500 Y4.34424
G01 X-4.48989 Y4.28177
G01 X-4.50042 Y4.16374
G01 X-4.49789 Y4.11360
G01 X-4.49435 Y4.06154
G01 X-4.48983 Y4.00849
G01 X-4.48434 Y3.95449
G01 X-4.47786 Y3.89944
G01 X-4.47041 Y3.84344
G01 X-4.46198 Y3.78644
G01 X-4.45258 Y3.72852
G01 X-4.43082 Y3.60954
G01 X-4.40515 Y3.48666
G01 X-4.37556 Y3.35983
G01 X-4.34203 Y3.22897
G01 X-4.14057 Y2.47493
G01 X-4.02947 Y2.47082
G01 X-3.91780 Y2.46950
G04 P0 ( dwell for no time -- G64 should not smooth over this point )
G00 Z0.08000 ( retract )

G00 X-5.41655 Y2.24094 ( rapid move to begin. )
G01 F3.00000
G01 Z-0.00800
G04 P0 ( dwell for no time -- G64 should not smooth over this point )
G01 F6.00000
G01 X-5.41655 Y2.24094
G01 X-5.33236 Y2.24460
G01 X-5.24819 Y2.24987
G01 X-5.16397 Y2.25676
G01 X-5.07980 Y2.26525
G01 X-4.99560 Y2.27536
G01 X-4.91142 Y2.28708
G01 X-4.82725 Y2.30042
G01 X-4.74306 Y2.31536
G01 X-4.65888 Y2.33192
G01 X-4.57469 Y2.35008
G01 X-4.49049 Y2.36987
G01 X-4.40630 Y2.39126
G01 X-4.32212 Y2.41426
G01 X-4.23791 Y2.43888
G01 X-4.15827 Y2.46370
G01 X-4.36137 Y3.22388
G01 X-4.39500 Y3.35512
G01 X-4.42467 Y3.48228
G01 X-4.45043 Y3.60563
G01 X-4.47230 Y3.72517
G01 X-4.48174 Y3.78335
G01 X-4.49022 Y3.84070
G01 X-4.49770 Y3.89693
G01 X-4.50421 Y3.95225
G01 X-4.50975 Y4.00668
G01 X-4.51430 Y4.06005
G01 X-4.51786 Y4.11236
G01 X-4.52044 Y4.16378
G01 X-4.50500 Y4.34443
G01 X-4.50500 Y4.63559
G01 X-4.50812 Y4.67032
G01 X-4.52847 Y4.84103
G01 X-4.54047 Y4.94724
G01 X-4.55998 Y5.14051
G01 X-4.57011 Y5.25454
G01 X-4.58014 Y5.37762
G01 X-4.59469 Y5.57017
G01 X-4.60027 Y5.63013
G01 X-4.60967 Y5.71878
G01 X-4.60736 Y5.76907
G01 X-4.60393 Y5.82059
G01 X-4.59938 Y5.87330
G01 X-4.59373 Y5.92702
G01 X-4.58697 Y5.98176
G01 X-4.57909 Y6.03770
G01 X-4.57009 Y6.09475
G01 X-4.55998 Y6.15290
G01 X-4.30856 Y7.53703
G01 X-4.37995 Y7.55269
G01 X-4.45596 Y7.56812
G01 X-4.53202 Y7.58231
G01 X-4.60808 Y7.59524
G01 X-4.68410 Y7.60691
G01 X-4.76013 Y7.61732
G01 X-4.83618 Y7.62649
G01 X-4.91223 Y7.63440
G01 X-4.98825 Y7.64105
G01 X-5.06429 Y7.64645
G01 X-5.14034 Y7.65059
G01 X-5.21636 Y7.65348
G01 X-5.29240 Y7.65512
G01 X-5.36842 Y7.65550
G01 X-5.44446 Y7.65463
G01 X-5.51622 Y7.65262
G01 X-5.73803 Y5.74242
G01 X-5.74313 Y5.70337
G01 X-5.74920 Y5.66554
G01 X-5.82752 Y5.22136
G01 X-5.82583 Y5.18848
G01 X-5.82580 Y5.15682
G01 X-5.82730 Y5.12261
G01 X-5.82977 Y5.09868
G01 X-5.83380 Y5.07161
G01 X-5.83946 Y5.04584
G01 X-5.84788 Y5.01724
G01 X-5.85994 Y4.98702
G01 X-5.87349 Y4.96124
G01 X-5.89264 Y4.93335
G01 X-5.90501 Y4.91886
G01 X-5.92317 Y4.90113
G01 X-5.94395 Y4.88472
G01 X-5.97366 Y4.86654
G01 X-6.03051 Y4.83984
G01 X-6.04109 Y4.82884
G01 X-6.05178 Y4.81636
G01 X-6.06206 Y4.80296
G01 X-6.07193 Y4.78862
G01 X-6.08139 Y4.77336
G01 X-6.09040 Y4.75720
G01 X-6.10725 Y4.72195
G01 X-6.12239 Y4.68299
G01 X-6.13583 Y4.64031
G01 X-6.14757 Y4.59387
G01 X-6.15761 Y4.54365
G01 X-6.20613 Y4.26851
G01 X-6.22068 Y4.19390
G01 X-6.23865 Y4.11574
G01 X-6.26004 Y4.03408
G01 X-6.28474 Y3.94931
G01 X-6.31286 Y3.86105
G01 X-6.34440 Y3.76931
G01 X-6.37928 Y3.67430
G01 X-6.41752 Y3.57600
G01 X-6.74631 Y2.75262
G01 X-6.84287 Y2.42394
G01 X-6.76348 Y2.40156
G01 X-6.67931 Y2.37943
G01 X-6.59511 Y2.35891
G01 X-6.51092 Y2.34001
G01 X-6.42675 Y2.32272
G01 X-6.34257 Y2.30704
G01 X-6.25836 Y2.29297
G01 X-6.17419 Y2.28051
G01 X-6.08999 Y2.26967
G01 X-6.00582 Y2.26044
G01 X-5.92165 Y2.25282
G01 X-5.83745 Y2.24681
G01 X-5.75326 Y2.24241
G01 X-5.66907 Y2.23962
G01 X-5.58491 Y2.23845
G01 X-5.50071 Y2.23889
G01 X-5.41655 Y2.24094
G01 X-5.41689 Y2.25093
G01 X-5.33289 Y2.25458
G01 X-5.24890 Y2.25985
G01 X-5.16489 Y2.26672
G01 X-5.08091 Y2.27519
G01 X-4.99689 Y2.28528
G01 X-4.91290 Y2.29698
G01 X-4.82889 Y2.31028
G01 X-4.74490 Y2.32519
G01 X-4.66088 Y2.34172
G01 X-4.57686 Y2.35985
G01 X-4.49287 Y2.37958
G01 X-4.40885 Y2.40093
G01 X-4.32483 Y2.42389
G01 X-4.24082 Y2.44846
G01 X-4.17040 Y2.47039
G01 X-4.37104 Y3.22130
G01 X-4.40474 Y3.35284
G01 X-4.43448 Y3.48034
G01 X-4.46022 Y3.60358
G01 X-4.48217 Y3.72356
G01 X-4.49161 Y3.78175
G01 X-4.50010 Y3.83917
G01 X-4.50764 Y3.89584
G01 X-4.51417 Y3.95132
G01 X-4.51971 Y4.00583
G01 X-4.52427 Y4.05937
G01 X-4.52785 Y4.11195
G01 X-4.53043 Y4.16327
G01 X-4.51500 Y4.34480
G01 X-4.51500 Y4.63514
G01 X-4.51807 Y4.66932
G01 X-4.53841 Y4.83989
G01 X-4.55040 Y4.94610
G01 X-4.56994 Y5.13961
G01 X-4.58007 Y5.25368
G01 X-4.59011 Y5.37685
G01 X-4.60466 Y5.56932
G01 X-4.61022 Y5.62917
G01 X-4.61966 Y5.71924
G01 X-4.61735 Y5.76953
G01 X-4.61391 Y5.82125
G01 X-4.60933 Y5.87434
G01 X-4.60368 Y5.92797
G01 X-4.59686 Y5.98324
G01 X-4.58899 Y6.03910
G01 X-4.57997 Y6.09631
G01 X-4.56981 Y6.15473
G01 X-4.32013 Y7.52933
G01 X-4.38200 Y7.54291
G01 X-4.45789 Y7.55831
G01 X-4.53375 Y7.57246
G01 X-4.60965 Y7.58536
G01 X-4.68553 Y7.59701
G01 X-4.76139 Y7.60740
G01 X-4.83728 Y7.61655
G01 X-4.91316 Y7.62444
G01 X-4.98904 Y7.63108
G01 X-5.06491 Y7.63647
G01 X-5.14078 Y7.64060
G01 X-5.21668 Y7.64349
G01 X-5.29254 Y7.64512
G01 X-5.36841 Y7.64550
G01 X-5.44425 Y7.64463
G01 X-5.50728 Y7.64287
G01 X-5.72812 Y5.74105
G01 X-5.73325 Y5.70178
G01 X-5.73937 Y5.66373
G01 X-5.81748 Y5.22074
G01 X-5.81583 Y5.18849
G01 X-5.81580 Y5.15656
G01 X-5.81731 Y5.12211
G01 X-5.81985 Y5.09737
G01 X-5.82392 Y5.07006
G01 X-5.82973 Y5.04350
G01 X-5.83846 Y5.01390
G01 X-5.85092 Y4.98272
G01 X-5.86496 Y4.95602
G01 X-5.88471 Y4.92726
G01 X-5.89776 Y4.91197
G01 X-5.91629 Y4.89387
G01 X-5.93828 Y4.87648
G01 X-5.96889 Y4.85775
G01 X-6.02456 Y4.83159
G01 X-6.03368 Y4.82211
G01 X-6.04401 Y4.81006
G01 X-6.05397 Y4.79708
G01 X-6.06356 Y4.78315
G01 X-6.07276 Y4.76829
G01 X-6.08151 Y4.75261
G01 X-6.09806 Y4.71797
G01 X-6.11294 Y4.67968
G01 X-6.12620 Y4.63758
G01 X-6.13782 Y4.59166
G01 X-6.14778 Y4.54181
G01 X-6.19631 Y4.26660
G01 X-6.21097 Y4.19150
G01 X-6.22890 Y4.11350
G01 X-6.25044 Y4.03128
G01 X-6.27514 Y3.94652
G01 X-6.30333 Y3.85801
G01 X-6.33501 Y3.76586
G01 X-6.36986 Y3.67095
G01 X-6.40820 Y3.57238
G01 X-6.73685 Y2.74934
G01 X-6.83042 Y2.43083
G01 X-6.76086 Y2.41121
G01 X-6.67683 Y2.38912
G01 X-6.59284 Y2.36865
G01 X-6.50882 Y2.34979
G01 X-6.42481 Y2.33253
G01 X-6.34082 Y2.31689
G01 X-6.25683 Y2.30285
G01 X-6.17281 Y2.29042
G01 X-6.08881 Y2.27960
G01 X-6.00483 Y2.27039
G01 X-5.92082 Y2.26278
G01 X-5.83685 Y2.25679
G01 X-5.75283 Y2.25240
G01 X-5.66883 Y2.24962
G01 X-5.58487 Y2.24845
G01 X-5.50085 Y2.24889
G01 X-5.41689 Y2.25093
G04 P0 ( dwell for no time -- G64 should not smooth over this point )
G00 Z0.08000 ( retract )

G00 X-7.07399 Y2.44128 ( rapid move to begin. )
G01 F3.00000
G01 Z-0.00800
G04 P0 ( dwell for no time -- G64 should not smooth over this point )
G01 F6.00000
G01 X-7.07399 Y2.44128
G01 X-6.96152 Y2.43706
G01 X-6.86027 Y2.43566
G01 X-6.76593 Y2.75678
G01 X-6.66647 Y4.69668
G01 X-6.66605 Y4.73352
G01 X-6.66860 Y4.76872
G01 X-6.67407 Y4.80209
G01 X-6.67791 Y4.81829
G01 X-6.79284 Y5.18414
G01 X-6.79763 Y5.20138
G01 X-6.80134 Y5.21934
G01 X-6.80378 Y5.23754
G01 X-6.80498 Y5.25646
G01 X-6.81246 Y5.52655
G01 X-6.81466 Y5.57786
G01 X-6.81852 Y5.63271
G01 X-6.82404 Y5.69118
G01 X-6.83123 Y5.75327
G01 X-6.84009 Y5.81896
G01 X-6.85062 Y5.88828
G01 X-6.86281 Y5.96116
G01 X-6.87669 Y6.03772
G01 X-6.89223 Y6.11784
G01 X-6.90944 Y6.20153
G01 X-6.92831 Y6.28881
G01 X-6.94887 Y6.37974
G01 X-6.99500 Y6.57234
G01 X-7.03957 Y6.74701
G01 X-7.23672 Y6.45428
G01 X-7.27245 Y6.39992
G01 X-7.30646 Y6.34580
G01 X-7.39835 Y6.19618
G01 X-7.39116 Y5.82115
G01 X-7.39072 Y5.77354
G01 X-7.39126 Y5.72659
G01 X-7.39277 Y5.68144
G01 X-7.39528 Y5.63674
G01 X-7.39876 Y5.59352
G01 X-7.40318 Y5.55184
G01 X-7.40867 Y5.51050
G01 X-7.41506 Y5.47092
G01 X-7.45847 Y5.22475
G01 X-7.46412 Y5.18821
G01 X-7.46801 Y5.15274
G01 X-7.49329 Y4.85935
G01 X-7.49530 Y4.82505
G01 X-7.49549 Y4.78985
G01 X-7.49386 Y4.75353
G01 X-7.49043 Y4.71610
G01 X-7.48516 Y4.67756
G01 X-7.47807 Y4.63791
G01 X-7.46915 Y4.59716
G01 X-7.45837 Y4.55518
G01 X-7.42427 Y4.43130
G01 X-7.41212 Y4.38501
G01 X-7.40071 Y4.33722
G01 X-7.38983 Y4.28702
G01 X-7.37975 Y4.23559
G01 X-7.37024 Y4.18180
G01 X-7.36149 Y4.12673
G01 X-7.35336 Y4.06959
G01 X-7.34588 Y4.01042
G01 X-7.33909 Y3.94968
G01 X-7.33297 Y3.88712
G01 X-7.32753 Y3.82293
G01 X-7.32272 Y3.75648
G01 X-7.31515 Y3.61869
G01 X-7.31024 Y3.47392
G01 X-7.28569 Y2.45656
G01 X-7.18645 Y2.44815
G01 X-7.07399 Y2.44128
G01 X-7.07449 Y2.43129
G01 X-6.96178 Y2.42707
G01 X-6.85282 Y2.42556
G01 X-6.75600 Y2.75509
G01 X-6.65648 Y4.69636
G01 X-6.65604 Y4.73382
G01 X-6.65866 Y4.76978
G01 X-6.66109 Y4.78712
G01 X-6.66428 Y4.80416
G01 X-6.66824 Y4.82084
G01 X-6.78330 Y5.18715
G01 X-6.78808 Y5.20439
G01 X-6.79154 Y5.22134
G01 X-6.79387 Y5.23885
G01 X-6.79499 Y5.25674
G01 X-6.80247 Y5.52689
G01 X-6.80468 Y5.57843
G01 X-6.80855 Y5.63354
G01 X-6.81410 Y5.69222
G01 X-6.82131 Y5.75450
G01 X-6.83019 Y5.82039
G01 X-6.84074 Y5.88983
G01 X-6.85297 Y5.96293
G01 X-6.86686 Y6.03958
G01 X-6.88242 Y6.11980
G01 X-6.89965 Y6.20360
G01 X-6.91855 Y6.29099
G01 X-6.93913 Y6.38199
G01 X-6.98529 Y6.57474
G01 X-7.03538 Y6.77104
G01 X-7.24508 Y6.45977
G01 X-7.28085 Y6.40534
G01 X-7.31497 Y6.35106
G01 X-7.40841 Y6.19891
G01 X-7.40116 Y5.82091
G01 X-7.40072 Y5.77344
G01 X-7.40126 Y5.72703
G01 X-7.40276 Y5.68177
G01 X-7.40525 Y5.63754
G01 X-7.40869 Y5.59470
G01 X-7.41312 Y5.55289
G01 X-7.41854 Y5.51210
G01 X-7.42491 Y5.47265
G01 X-7.46834 Y5.22637
G01 X-7.47404 Y5.18952
G01 X-7.47797 Y5.15368
G01 X-7.50327 Y4.86007
G01 X-7.50530 Y4.82536
G01 X-7.50549 Y4.78965
G01 X-7.50384 Y4.75285
G01 X-7.50036 Y4.71497
G01 X-7.49504 Y4.67600
G01 X-7.48789 Y4.63597
G01 X-7.47888 Y4.59484
G01 X-7.46803 Y4.55260
G01 X-7.43394 Y4.42876
G01 X-7.42184 Y4.38269
G01 X-7.41043 Y4.33490
G01 X-7.39965 Y4.28509
G01 X-7.38957 Y4.23366
G01 X-7.38012 Y4.18023
G01 X-7.37136 Y4.12516
G01 X-7.36326 Y4.06818
G01 X-7.35582 Y4.00938
G01 X-7.34905 Y3.94877
G01 X-7.34293 Y3.88627
G01 X-7.33749 Y3.82203
G01 X-7.33271 Y3.75593
G01 X-7.32514 Y3.61835
G01 X-7.32024 Y3.47358
G01 X-7.29547 Y2.44735
G01 X-7.18717 Y2.43818
G01 X-7.07449 Y2.43129
G04 P0 ( dwell for no time -- G64 should not smooth over this point )
G00 Z0.08000 ( retract )

G00 X-7.78774 Y2.62633 ( rapid move to begin. )
G01 F3.00000
G01 Z-0.00800
G04 P0 ( dwell for no time -- G64 should not smooth over this point )
G01 F6.00000
G01 X-7.78774 Y2.62633
G01 X-7.73818 Y2.57899
G01 X-7.68438 Y2.52874
G01 X-7.57775 Y2.43237
G01 X-7.51350 Y2.43679
G01 X-7.44306 Y2.44269
G01 X-7.37261 Y2.44964
G01 X-7.31569 Y2.45610
G01 X-7.34023 Y3.47298
G01 X-7.34513 Y3.61751
G01 X-7.35267 Y3.75472
G01 X-7.35743 Y3.82048
G01 X-7.36285 Y3.88449
G01 X-7.36893 Y3.94664
G01 X-7.37568 Y4.00697
G01 X-7.38308 Y4.06547
G01 X-7.39114 Y4.12215
G01 X-7.39985 Y4.17695
G01 X-7.40922 Y4.22996
G01 X-7.41925 Y4.28111
G01 X-7.42993 Y4.33042
G01 X-7.44126 Y4.37788
G01 X-7.45326 Y4.42359
G01 X-7.48739 Y4.54759
G01 X-7.49828 Y4.58996
G01 X-7.50744 Y4.63179
G01 X-7.51475 Y4.67259
G01 X-7.52020 Y4.71237
G01 X-7.52377 Y4.75114
G01 X-7.52547 Y4.78888
G01 X-7.52529 Y4.82560
G01 X-7.52320 Y4.86172
G01 X-7.49789 Y5.15547
G01 X-7.49391 Y5.19181
G01 X-7.48804 Y5.22980
G01 X-7.44462 Y5.47603
G01 X-7.43832 Y5.51508
G01 X-7.43299 Y5.55520
G01 X-7.42861 Y5.59650
G01 X-7.42520 Y5.63896
G01 X-7.42275 Y5.68261
G01 X-7.42125 Y5.72743
G01 X-7.42072 Y5.77342
G01 X-7.42116 Y5.82064
G01 X-7.42792 Y6.17343
G01 X-7.52608 Y6.11159
G01 X-7.59702 Y6.06553
G01 X-7.66413 Y6.01914
G01 X-7.84300 Y5.89141
G01 X-7.97752 Y5.79273
G01 X-8.00757 Y5.77219
G01 X-8.03797 Y5.75256
G01 X-8.14410 Y5.68898
G01 X-8.25420 Y5.61597
G01 X-8.28829 Y5.59184
G01 X-8.29538 Y5.56072
G01 X-8.30232 Y5.52532
G01 X-8.30788 Y5.49106
G01 X-8.31208 Y5.45775
G01 X-8.32033 Y5.38101
G01 X-8.32336 Y5.33887
G01 X-8.32601 Y5.26274
G01 X-8.32751 Y5.23820
G01 X-8.33012 Y5.21509
G01 X-8.34581 Y5.10345
G01 X-8.34865 Y5.08652
G01 X-8.35837 Y5.04119
G01 X-8.36082 Y5.01790
G01 X-8.36100 Y4.99473
G01 X-8.35890 Y4.97127
G01 X-8.35355 Y4.93413
G01 X-8.33609 Y4.83507
G01 X-8.33297 Y4.81400
G01 X-8.33099 Y4.79316
G01 X-8.32287 Y4.67715
G01 X-8.31855 Y4.59030
G01 X-8.31609 Y4.56478
G01 X-8.31268 Y4.53857
G01 X-8.30833 Y4.51178
G01 X-8.29077 Y4.42683
G01 X-8.26015 Y4.28693
G01 X-8.24058 Y4.21220
G01 X-8.21718 Y4.13335
G01 X-8.11068 Y3.79307
G01 X-8.08469 Y3.70810
G01 X-8.05874 Y3.61952
G01 X-7.95418 Y3.25488
G01 X-7.90737 Y3.08690
G01 X-7.86047 Y2.90923
G01 X-7.78774 Y2.62633
G01 X-7.79671 Y2.62108
G01 X-7.74504 Y2.57171
G01 X-7.69115 Y2.52139
G01 X-7.63605 Y2.47106
G01 X-7.58127 Y2.42210
G01 X-7.51274 Y2.42682
G01 X-7.44215 Y2.43274
G01 X-7.37154 Y2.43970
G01 X-7.30547 Y2.44720
G01 X-7.33023 Y3.47325
G01 X-7.33514 Y3.61796
G01 X-7.34269 Y3.75533
G01 X-7.34746 Y3.82126
G01 X-7.35289 Y3.88538
G01 X-7.35899 Y3.94771
G01 X-7.36575 Y4.00817
G01 X-7.37316 Y4.06679
G01 X-7.38124 Y4.12362
G01 X-7.38999 Y4.17861
G01 X-7.39939 Y4.23179
G01 X-7.40945 Y4.28312
G01 X-7.42017 Y4.33263
G01 X-7.43156 Y4.38031
G01 X-7.44360 Y4.42619
G01 X-7.47771 Y4.55008
G01 X-7.48864 Y4.59262
G01 X-7.49768 Y4.63392
G01 X-7.50491 Y4.67435
G01 X-7.51029 Y4.71373
G01 X-7.51381 Y4.75205
G01 X-7.51548 Y4.78933
G01 X-7.51529 Y4.82581
G01 X-7.51324 Y4.86086
G01 X-7.48792 Y5.15461
G01 X-7.48397 Y5.19072
G01 X-7.47819 Y5.22806
G01 X-7.43477 Y5.47434
G01 X-7.42843 Y5.51362
G01 X-7.42306 Y5.55400
G01 X-7.41866 Y5.59556
G01 X-7.41522 Y5.63829
G01 X-7.41276 Y5.68215
G01 X-7.41125 Y5.72721
G01 X-7.41072 Y5.77341
G01 X-7.41116 Y5.82082
G01 X-7.41826 Y6.19133
G01 X-7.53145 Y6.12002
G01 X-7.60259 Y6.07383
G01 X-7.66987 Y6.02733
G01 X-7.84881 Y5.89955
G01 X-7.95364 Y5.82228
G01 X-7.98348 Y5.80077
G01 X-8.01321 Y5.78045
G01 X-8.04317 Y5.76110
G01 X-8.14941 Y5.69745
G01 X-8.25988 Y5.62420
G01 X-8.29719 Y5.59779
G01 X-8.30517 Y5.56280
G01 X-8.31217 Y5.52708
G01 X-8.31778 Y5.49247
G01 X-8.32202 Y5.45892
G01 X-8.33029 Y5.38191
G01 X-8.33334 Y5.33941
G01 X-8.33601 Y5.26309
G01 X-8.33744 Y5.23933
G01 X-8.34003 Y5.21648
G01 X-8.35574 Y5.10472
G01 X-8.35842 Y5.08868
G01 X-8.36827 Y5.04270
G01 X-8.37081 Y5.01846
G01 X-8.37101 Y4.99432
G01 X-8.36884 Y4.97013
G01 X-8.36503 Y4.94270
G01 X-8.34593 Y4.83333
G01 X-8.34292 Y4.81305
G01 X-8.34096 Y4.79246
G01 X-8.33285 Y4.67638
G01 X-8.33005 Y4.61478
G01 X-8.32852 Y4.58953
G01 X-8.32603 Y4.56366
G01 X-8.32258 Y4.53714
G01 X-8.31817 Y4.50997
G01 X-8.29717 Y4.40891
G01 X-8.26988 Y4.28459
G01 X-8.25021 Y4.20951
G01 X-8.22675 Y4.13045
G01 X-8.12022 Y3.79006
G01 X-8.09428 Y3.70529
G01 X-8.06835 Y3.61676
G01 X-7.96382 Y3.25223
G01 X-7.91698 Y3.08415
G01 X-7.87017 Y2.90677
G01 X-7.79671 Y2.62108
G01 X-7.80915 Y2.62930
G01 X-7.87983 Y2.90422
G01 X-7.92664 Y3.08157
G01 X-7.97344 Y3.24948
G01 X-8.07797 Y3.61400
G01 X-8.10387 Y3.70245
G01 X-8.12977 Y3.78711
G01 X-8.23630 Y4.12749
G01 X-8.25986 Y4.20689
G01 X-8.27962 Y4.28234
G01 X-8.30694 Y4.40677
G01 X-8.32802 Y4.50826
G01 X-8.33249 Y4.53576
G01 X-8.33596 Y4.56245
G01 X-8.33848 Y4.58866
G01 X-8.34283 Y4.67578
G01 X-8.35093 Y4.79171
G01 X-8.35287 Y4.81197
G01 X-8.35579 Y4.83166
G01 X-8.37329 Y4.93089
G01 X-8.37876 Y4.96888
G01 X-8.38099 Y4.99367
G01 X-8.38081 Y5.01879
G01 X-8.37812 Y5.04445
G01 X-8.36821 Y5.09070
G01 X-8.36561 Y5.10630
G01 X-8.34994 Y5.21781
G01 X-8.34740 Y5.24032
G01 X-8.34600 Y5.26350
G01 X-8.34333 Y5.33985
G01 X-8.34026 Y5.38272
G01 X-8.33196 Y5.46003
G01 X-8.32769 Y5.49381
G01 X-8.32199 Y5.52893
G01 X-8.31493 Y5.56494
G01 X-8.30787 Y5.59593
G01 X-8.35356 Y5.59655
G01 X-8.43573 Y5.59405
G01 X-8.50216 Y5.59621
G01 X-8.52671 Y5.59642
G01 X-8.55065 Y5.59574
G01 X-8.58900 Y5.59621
G01 X-8.64225 Y5.59392
G01 X-8.73970 Y5.59601
G01 X-8.75666 Y5.59603
G01 X-8.80748 Y5.59403
G01 X-8.88204 Y5.59597
G01 X-8.93711 Y5.59404
G01 X-9.01037 Y5.59596
G01 X-9.06344 Y5.59404
G01 X-9.13724 Y5.59596
G01 X-9.19820 Y5.59401
G01 X-9.27443 Y5.59600
G01 X-9.29258 Y5.59600
G01 X-9.33483 Y5.59390
G01 X-9.46004 Y5.59621
G01 X-9.53642 Y5.59361
G01 X-9.60639 Y5.59489
G01 X-9.61953 Y5.56452
G01 X-9.63005 Y5.53737
G01 X-9.64250 Y5.50155
G01 X-9.67510 Y5.39416
G01 X-9.68319 Y5.36506
G01 X-9.68966 Y5.33596
G01 X-9.70995 Y5.23157
G01 X-9.71428 Y5.20574
G01 X-9.71723 Y5.17992
G01 X-9.72636 Y5.07552
G01 X-9.72785 Y5.05111
G01 X-9.72807 Y5.02671
G01 X-9.72625 Y4.92232
G01 X-9.72517 Y4.89764
G01 X-9.72279 Y4.87296
G01 X-9.70997 Y4.76856
G01 X-9.70597 Y4.74186
G01 X-9.70052 Y4.71516
G01 X-9.67642 Y4.61076
G01 X-9.66848 Y4.58011
G01 X-9.65879 Y4.54947
G01 X-9.62284 Y4.44507
G01 X-9.60902 Y4.40819
G01 X-9.56737 Y4.31287
G01 X-9.52105 Y4.22049
G01 X-9.49505 Y4.17466
G01 X-9.41389 Y4.04053
G01 X-9.39435 Y4.01085
G01 X-9.37369 Y3.98117
G01 X-9.35188 Y3.95147
G01 X-9.27315 Y3.84700
G01 X-9.24263 Y3.80767
G01 X-9.21039 Y3.76838
G01 X-9.17638 Y3.72908
G01 X-9.14058 Y3.68975
G01 X-9.04314 Y3.58526
G01 X-8.99174 Y3.53170
G01 X-8.93743 Y3.47815
G01 X-8.88018 Y3.42458
G01 X-8.82000 Y3.37100
G01 X-8.69980 Y3.26651
G01 X-8.65570 Y3.22874
G01 X-8.61032 Y3.19100
G01 X-8.56361 Y3.15325
G01 X-8.51562 Y3.11551
G01 X-8.41563 Y3.03999
G01 X-8.31039 Y2.96447
G01 X-8.16113 Y2.85995
G01 X-8.07494 Y2.80064
G01 X-7.98579 Y2.74133
G01 X-7.89367 Y2.68202
G01 X-7.80915 Y2.62930
G04 P0 ( dwell for no time -- G64 should not smooth over this point )
G00 Z0.08000 ( retract )

G00 X-7.82506 Y2.65101 ( rapid move to begin. )
G01 F3.00000
G01 Z-0.00800
G04 P0 ( dwell for no time -- G64 should not smooth over this point )
G01 F6.00000
G01 X-7.82506 Y2.65101
G01 X-7.88834 Y2.69048
G01 X-7.98032 Y2.74970
G01 X-8.06933 Y2.80892
G01 X-8.15544 Y2.86818
G01 X-8.30458 Y2.97261
G01 X-8.40969 Y3.04804
G01 X-8.50951 Y3.12343
G01 X-8.55737 Y3.16106
G01 X-8.60398 Y3.19874
G01 X-8.64926 Y3.23639
G01 X-8.69325 Y3.27406
G01 X-8.81340 Y3.37851
G01 X-8.87344 Y3.43197
G01 X-8.93050 Y3.48536
G01 X-8.98461 Y3.53872
G01 X-9.03588 Y3.59213
G01 X-9.13321 Y3.69651
G01 X-9.16889 Y3.73571
G01 X-9.20274 Y3.77483
G01 X-9.23483 Y3.81392
G01 X-9.26520 Y3.85306
G01 X-9.34386 Y3.95745
G01 X-9.36556 Y3.98700
G01 X-9.38608 Y4.01646
G01 X-9.40546 Y4.04591
G01 X-9.42376 Y4.07543
G01 X-9.48641 Y4.17971
G01 X-9.51223 Y4.22520
G01 X-9.56284 Y4.32682
G01 X-9.59975 Y4.41194
G01 X-9.61343 Y4.44845
G01 X-9.64930 Y4.55260
G01 X-9.65886 Y4.58288
G01 X-9.66671 Y4.61314
G01 X-9.69075 Y4.71729
G01 X-9.69612 Y4.74360
G01 X-9.70006 Y4.76991
G01 X-9.71284 Y4.87404
G01 X-9.71519 Y4.89834
G01 X-9.71625 Y4.92262
G01 X-9.71807 Y5.02676
G01 X-9.71786 Y5.05076
G01 X-9.71639 Y5.07477
G01 X-9.70727 Y5.17892
G01 X-9.70437 Y5.20434
G01 X-9.70010 Y5.22979
G01 X-9.67986 Y5.33393
G01 X-9.67348 Y5.36263
G01 X-9.66550 Y5.39135
G01 X-9.63297 Y5.49852
G01 X-9.62068 Y5.53385
G01 X-9.61028 Y5.56073
G01 X-9.59988 Y5.58471
G01 X-9.53615 Y5.58361
G01 X-9.45992 Y5.58621
G01 X-9.33485 Y5.58390
G01 X-9.29233 Y5.58600
G01 X-9.27456 Y5.58599
G01 X-9.19795 Y5.58401
G01 X-9.13723 Y5.58596
G01 X-9.06318 Y5.58404
G01 X-9.01037 Y5.58595
G01 X-8.93684 Y5.58405
G01 X-8.88205 Y5.58597
G01 X-8.80721 Y5.58403
G01 X-8.75641 Y5.58603
G01 X-8.64228 Y5.58392
G01 X-8.58884 Y5.58621
G01 X-8.55037 Y5.58574
G01 X-8.52661 Y5.58642
G01 X-8.50232 Y5.58621
G01 X-8.43539 Y5.58406
G01 X-8.35351 Y5.58655
G01 X-8.32035 Y5.58619
G01 X-8.33189 Y5.53037
G01 X-8.33761 Y5.49507
G01 X-8.34190 Y5.46110
G01 X-8.35023 Y5.38343
G01 X-8.35333 Y5.34020
G01 X-8.35599 Y5.26397
G01 X-8.35736 Y5.24117
G01 X-8.35986 Y5.21907
G01 X-8.37550 Y5.10781
G01 X-8.37803 Y5.09261
G01 X-8.38792 Y5.04642
G01 X-8.39081 Y5.01886
G01 X-8.39095 Y4.99277
G01 X-8.38866 Y4.96751
G01 X-8.38317 Y4.92934
G01 X-8.36567 Y4.83007
G01 X-8.36280 Y4.81076
G01 X-8.36090 Y4.79088
G01 X-8.35281 Y4.67517
G01 X-8.34843 Y4.58770
G01 X-8.34587 Y4.56116
G01 X-8.34233 Y4.53400
G01 X-8.33789 Y4.50666
G01 X-8.31673 Y4.40472
G01 X-8.28939 Y4.28020
G01 X-8.26954 Y4.20436
G01 X-8.24584 Y4.12450
G01 X-8.13933 Y3.78417
G01 X-8.11345 Y3.69958
G01 X-8.08756 Y3.61117
G01 X-7.98307 Y3.24677
G01 X-7.93629 Y3.07895
G01 X-7.88951 Y2.90169
G01 X-7.82506 Y2.65101
G04 P0 ( dwell for no time -- G64 should not smooth over this point )
G00 Z0.08000 ( retract )

G00 X-9.39585 Y4.94331 ( rapid move to begin. )
G01 F3.00000
G01 Z-0.00800
G04 P0 ( dwell for no time -- G64 should not smooth over this point )
G01 F6.00000
G01 X-9.39585 Y4.94331
G01 X-9.39897 Y5.02790
G01 X-9.38469 Y5.10922
G01 X-9.35313 Y5.18776
G01 X-9.31544 Y5.24374
G01 X-9.31284 Y5.24637
G01 X-9.30945 Y5.24788
G01 X-9.30576 Y5.24805
G01 X-9.30072 Y5.24581
G01 X-9.03354 Y5.02161
G01 X-9.03035 Y5.01671
G01 X-9.03003 Y5.01279
G01 X-9.03179 Y5.00676
G01 X-9.03249 Y5.00000
G01 X-9.03179 Y4.99324
G01 X-9.02700 Y4.98048
G01 X-9.02735 Y4.97645
G01 X-9.02927 Y4.97289
G01 X-9.25311 Y4.70613
G01 X-9.25615 Y4.70369
G01 X-9.25990 Y4.70260
G01 X-9.26378 Y4.70303
G01 X-9.26720 Y4.70490
G01 X-9.28838 Y4.72296
G01 X-9.33968 Y4.78898
G01 X-9.37583 Y4.86321
G01 X-9.39585 Y4.94331
G01 X-9.38615 Y4.94573
G01 X-9.38899 Y5.02720
G01 X-9.37484 Y5.10748
G01 X-9.34430 Y5.18307
G01 X-9.30715 Y5.23815
G01 X-9.03997 Y5.01395
G01 X-9.04157 Y5.00884
G01 X-9.04245 Y4.99895
G01 X-9.04130 Y4.99015
G01 X-9.03920 Y4.98369
G01 X-9.03693 Y4.97932
G01 X-9.26077 Y4.71256
G01 X-9.28050 Y4.72912
G01 X-9.33069 Y4.79336
G01 X-9.36643 Y4.86663
G01 X-9.38615 Y4.94573
G04 P0 ( dwell for no time -- G64 should not smooth over this point )
G00 Z0.08000 ( retract )

G00 X-8.98709 Y4.60032 ( rapid move to begin. )
G01 F3.00000
G01 Z-0.00800
G04 P0 ( dwell for no time -- G64 should not smooth over this point )
G01 F6.00000
G01 X-8.98709 Y4.60032
G01 X-9.07047 Y4.60637
G01 X-9.14883 Y4.62884
G01 X-9.22365 Y4.66843
G01 X-9.24559 Y4.68702
G01 X-9.24739 Y4.69048
G01 X-9.24773 Y4.69437
G01 X-9.24545 Y4.69971
G01 X-9.02170 Y4.96636
G01 X-9.01732 Y4.96938
G01 X-9.01379 Y4.96992
G01 X-9.00340 Y4.96768
G01 X-8.99660 Y4.96768
G01 X-8.98996 Y4.96910
G01 X-8.98351 Y4.97197
G01 X-8.97984 Y4.97293
G01 X-8.97608 Y4.97246
G01 X-8.97276 Y4.97062
G01 X-8.70571 Y4.74653
G01 X-8.70315 Y4.74325
G01 X-8.70214 Y4.73922
G01 X-8.70286 Y4.73512
G01 X-8.70519 Y4.73168
G01 X-8.75298 Y4.68553
G01 X-8.82467 Y4.64053
G01 X-8.90324 Y4.61193
G01 X-8.98500 Y4.60039
G01 X-8.98709 Y4.60032
G01 X-8.98639 Y4.61029
G01 X-9.06771 Y4.61598
G01 X-9.14608 Y4.63845
G01 X-9.21805 Y4.67672
G01 X-9.23779 Y4.69328
G01 X-9.01404 Y4.95993
G01 X-9.00444 Y4.95773
G01 X-8.99556 Y4.95773
G01 X-8.98788 Y4.95931
G01 X-8.97920 Y4.96296
G01 X-8.71213 Y4.73887
G01 X-8.75993 Y4.69272
G01 X-8.82906 Y4.64952
G01 X-8.90566 Y4.62164
G01 X-8.98639 Y4.61029
G04 P0 ( dwell for no time -- G64 should not smooth over this point )
G00 Z0.08000 ( retract )

G00 X-8.61100 Y4.97280 ( rapid move to begin. )
G01 F3.00000
G01 Z-0.00800
G04 P0 ( dwell for no time -- G64 should not smooth over this point )
G01 F6.00000
G01 X-8.61100 Y4.97280
G01 X-8.62516 Y4.89252
G01 X-8.65570 Y4.81693
G01 X-8.69285 Y4.76185
G01 X-8.96003 Y4.98604
G01 X-8.95843 Y4.99116
G01 X-8.95755 Y5.00105
G01 X-8.95870 Y5.00985
G01 X-8.96080 Y5.01631
G01 X-8.96307 Y5.02068
G01 X-8.73923 Y5.28744
G01 X-8.71950 Y5.27088
G01 X-8.66931 Y5.20664
G01 X-8.63357 Y5.13337
G01 X-8.61385 Y5.05427
G01 X-8.61100 Y4.97280
G01 X-8.60101 Y4.97315
G01 X-8.60415 Y5.05669
G01 X-8.62417 Y5.13679
G01 X-8.66143 Y5.21279
G01 X-8.71162 Y5.27703
G01 X-8.73280 Y5.29510
G01 X-8.73814 Y5.29738
G01 X-8.74385 Y5.29631
G01 X-8.74689 Y5.29386
G01 X-8.97073 Y5.02710
G01 X-8.97187 Y5.02542
G01 X-8.97303 Y5.02155
G01 X-8.97256 Y5.01753
G01 X-8.97031 Y5.01322
G01 X-8.96821 Y5.00676
G01 X-8.96752 Y4.99983
G01 X-8.96821 Y4.99324
G01 X-8.96954 Y4.98914
G01 X-8.97000 Y4.98523
G01 X-8.96892 Y4.98145
G01 X-8.96646 Y4.97838
G01 X-8.69928 Y4.75419
G01 X-8.69561 Y4.75224
G01 X-8.69355 Y4.75188
G01 X-8.69146 Y4.75195
G01 X-8.68755 Y4.75337
G01 X-8.68456 Y4.75626
G01 X-8.64643 Y4.81318
G01 X-8.61555 Y4.88976
G01 X-8.60101 Y4.97315
G04 P0 ( dwell for no time -- G64 should not smooth over this point )
G00 Z0.08000 ( retract )

G00 X-8.93229 Y5.38402 ( rapid move to begin. )
G01 F3.00000
G01 Z-0.00800
G04 P0 ( dwell for no time -- G64 should not smooth over this point )
G01 F6.00000
G01 X-8.93229 Y5.38402
G01 X-9.01361 Y5.38971
G01 X-9.09434 Y5.37836
G01 X-9.17094 Y5.35048
G01 X-9.24007 Y5.30728
G01 X-9.28787 Y5.26113
G01 X-9.02080 Y5.03704
G01 X-9.01212 Y5.04069
G01 X-9.00444 Y5.04227
G01 X-8.99556 Y5.04227
G01 X-8.98596 Y5.04007
G01 X-8.76221 Y5.30672
G01 X-8.78195 Y5.32328
G01 X-8.85392 Y5.36155
G01 X-8.93229 Y5.38402
G01 X-8.92953 Y5.39363
G01 X-9.01500 Y5.39961
G01 X-9.09675 Y5.38806
G01 X-9.17532 Y5.35947
G01 X-9.24702 Y5.31447
G01 X-9.29481 Y5.26832
G01 X-9.29757 Y5.26355
G01 X-9.29738 Y5.25804
G01 X-9.29429 Y5.25347
G01 X-9.02724 Y5.02938
G01 X-9.02392 Y5.02754
G01 X-9.02016 Y5.02707
G01 X-9.01648 Y5.02803
G01 X-9.01004 Y5.03090
G01 X-9.00340 Y5.03232
G01 X-8.99660 Y5.03232
G01 X-8.98561 Y5.03008
G01 X-8.98157 Y5.03108
G01 X-8.97830 Y5.03364
G01 X-8.75455 Y5.30029
G01 X-8.75227 Y5.30563
G01 X-8.75261 Y5.30952
G01 X-8.75441 Y5.31298
G01 X-8.77635 Y5.33157
G01 X-8.84923 Y5.37038
G01 X-8.92953 Y5.39363
G04 P0 ( dwell for no time -- G64 should not smooth over this point )
G00 Z0.08000 ( retract )

G00 X-9.49524 Y6.08053 ( rapid move to begin. )
G01 F3.00000
G01 Z-0.00800
G04 P0 ( dwell for no time -- G64 should not smooth over this point )
G01 F6.00000
G01 X-9.49524 Y6.08053
G01 X-9.49511 Y6.08569
G01 X-9.49749 Y6.09028
G01 X-9.49725 Y6.08926
G04 P0 ( dwell for no time -- G64 should not smooth over this point )
G00 Z0.08000 ( retract )

G00 X-9.03618 Y6.33449 ( rapid move to begin. )
G01 F3.00000
G01 Z-0.00800
G04 P0 ( dwell for no time -- G64 should not smooth over this point )
G01 F6.00000
G01 X-9.03618 Y6.33449
G01 X-9.02642 Y6.29218
G01 X-9.03164 Y6.29071
G01 X-9.04208 Y6.28605
G01 X-9.04913 Y6.28255
G01 X-9.05351 Y6.27952
G01 X-9.06580 Y6.27000
G01 X-9.07891 Y6.25479
G01 X-9.08858 Y6.23718
G01 X-9.09423 Y6.21872
G01 X-9.09606 Y6.19872
G01 X-9.09437 Y6.18335
G01 X-9.13697 Y6.17351
G01 X-9.13724 Y6.16831
G01 X-9.13472 Y6.16377
G04 P0 ( dwell for no time -- G64 should not smooth over this point )
G00 Z0.08000 ( retract )

G00 X-9.13145 Y6.15426 ( rapid move to begin. )
G01 F3.00000
G01 Z-0.00800
G04 P0 ( dwell for no time -- G64 should not smooth over this point )
G01 F6.00000
G01 X-9.13145 Y6.15426
G01 X-9.13976 Y6.16411
G01 X-9.13724 Y6.16831
G01 X-9.14134 Y6.17099
G01 X-9.14677 Y6.17125
G01 X-9.48780 Y6.09251
G01 X-9.49157 Y6.09076
G01 X-9.49310 Y6.08933
G01 X-9.49511 Y6.08569
G01 X-9.49170 Y6.08331
G01 X-9.48971 Y6.08270
G01 X-9.48555 Y6.08277
G01 X-9.14452 Y6.16150
G01 X-9.13976 Y6.16411
G04 P0 ( dwell for no time -- G64 should not smooth over this point )
G00 Z0.08000 ( retract )

G00 X-9.13697 Y6.17351 ( rapid move to begin. )
G01 F3.00000
G01 Z-0.00800
G04 P0 ( dwell for no time -- G64 should not smooth over this point )
G01 F6.00000
G01 X-9.13697 Y6.17351
G01 X-9.13820 Y6.18349
G01 X-9.10542 Y6.19106
G01 X-9.10604 Y6.19935
G01 X-9.10431 Y6.21911
G01 X-9.10164 Y6.22931
G01 X-9.09713 Y6.24254
G01 X-9.08752 Y6.25988
G01 X-9.07316 Y6.27677
G01 X-9.05560 Y6.29030
G01 X-9.03820 Y6.29877
G01 X-9.04591 Y6.33216
G01 X-9.03618 Y6.33449
G01 X-9.03162 Y6.33696
G01 X-9.03554 Y6.33920
G01 X-9.03843 Y6.34423
G01 X-9.11673 Y6.68339
G01 X-9.11634 Y6.68918
G01 X-9.11380 Y6.69291
G01 X-9.11898 Y6.69313
G01 X-9.27150 Y7.35394
G01 X-9.33128 Y7.27799
G01 X-9.35466 Y7.24623
G01 X-9.37677 Y7.21448
G01 X-9.39764 Y7.18270
G01 X-9.46418 Y7.07826
G01 X-9.49370 Y7.02926
G01 X-9.51982 Y6.98027
G01 X-9.57188 Y6.87586
G01 X-9.59005 Y6.83698
G01 X-9.60580 Y6.79810
G01 X-9.64483 Y6.69370
G01 X-9.65587 Y6.66172
G01 X-9.66506 Y6.62976
G01 X-9.69205 Y6.52536
G01 X-9.69842 Y6.49786
G01 X-9.70327 Y6.47037
G01 X-9.71888 Y6.36597
G01 X-9.72195 Y6.34095
G01 X-9.72371 Y6.31593
G01 X-9.72827 Y6.21153
G01 X-9.72869 Y6.18722
G01 X-9.72784 Y6.16291
G01 X-9.72176 Y6.06356
G01 X-9.71949 Y6.03904
G01 X-9.49749 Y6.09028
G01 X-9.49882 Y6.10024
G01 X-9.71059 Y6.05135
G01 X-9.71785 Y6.16339
G01 X-9.71869 Y6.18731
G01 X-9.71827 Y6.21123
G01 X-9.71373 Y6.31536
G01 X-9.71200 Y6.33999
G01 X-9.70897 Y6.36462
G01 X-9.69341 Y6.46876
G01 X-9.68862 Y6.49586
G01 X-9.68234 Y6.52298
G01 X-9.65541 Y6.62712
G01 X-9.64633 Y6.65871
G01 X-9.63542 Y6.69032
G01 X-9.59648 Y6.79447
G01 X-9.58088 Y6.83298
G01 X-9.56287 Y6.87151
G01 X-9.51093 Y6.97569
G01 X-9.48500 Y7.02432
G01 X-9.45568 Y7.07299
G01 X-9.38925 Y7.17727
G01 X-9.36849 Y7.20887
G01 X-9.34653 Y7.24040
G01 X-9.32330 Y7.27196
G01 X-9.27658 Y7.33148
G01 X-9.12871 Y6.69089
G01 X-9.11898 Y6.69313
G04 P0 ( dwell for no time -- G64 should not smooth over this point )
G00 Z0.08000 ( retract )

G00 X-9.10924 Y6.69538 ( rapid move to begin. )
G01 F3.00000
G01 Z-0.00800
G04 P0 ( dwell for no time -- G64 should not smooth over this point )
G01 F6.00000
G01 X-9.10924 Y6.69538
G01 X-9.11380 Y6.69291
G01 X-9.10988 Y6.69067
G01 X-9.10699 Y6.68564
G01 X-9.02868 Y6.34648
G01 X-9.02908 Y6.34069
G01 X-9.03162 Y6.33696
G01 X-9.02644 Y6.33674
G01 X-9.01667 Y6.33891
G01 X-9.00896 Y6.30551
G01 X-8.98956 Y6.30553
G01 X-8.96785 Y6.30105
G01 X-8.94959 Y6.29330
G01 X-8.93130 Y6.28078
G01 X-8.92379 Y6.27337
G01 X-8.91459 Y6.26285
G01 X-8.90438 Y6.24585
G01 X-8.90133 Y6.23817
G01 X-8.86855 Y6.24574
G01 X-8.86494 Y6.23524
G01 X-8.86528 Y6.23623
G01 X-8.90786 Y6.22640
G01 X-8.91309 Y6.24095
G01 X-8.92350 Y6.25812
G01 X-8.93726 Y6.27276
G01 X-8.95307 Y6.28383
G01 X-8.97153 Y6.29175
G01 X-8.99123 Y6.29567
G01 X-9.01131 Y6.29540
G01 X-9.01666 Y6.29439
G01 X-9.02644 Y6.33674
G04 P0 ( dwell for no time -- G64 should not smooth over this point )
G00 Z0.08000 ( retract )

G00 X-8.86494 Y6.23524 ( rapid move to begin. )
G01 F3.00000
G01 Z-0.00800
G04 P0 ( dwell for no time -- G64 should not smooth over this point )
G01 F6.00000
G01 X-8.86494 Y6.23524
G01 X-8.86275 Y6.23168
G01 X-8.86303 Y6.22649
G01 X-8.90563 Y6.21665
G01 X-8.90394 Y6.20127
G01 X-8.90577 Y6.18127
G01 X-8.91142 Y6.16281
G01 X-8.92108 Y6.14521
G01 X-8.93420 Y6.13000
G01 X-8.94642 Y6.12053
G01 X-8.95086 Y6.11745
G01 X-8.95791 Y6.11395
G01 X-8.96836 Y6.10929
G01 X-8.97358 Y6.10782
G01 X-8.96382 Y6.06551
G04 P0 ( dwell for no time -- G64 should not smooth over this point )
G00 Z0.08000 ( retract )

G00 X-8.99639 Y6.10428 ( rapid move to begin. )
G01 F3.00000
G01 Z-0.00800
G04 P0 ( dwell for no time -- G64 should not smooth over this point )
G01 F6.00000
G01 X-8.99639 Y6.10428
G01 X-8.99673 Y6.11427
G01 X-8.98950 Y6.11457
G01 X-8.98067 Y6.11634
G01 X-8.97200 Y6.11861
G01 X-8.96214 Y6.12302
G01 X-8.95566 Y6.12623
G01 X-8.94697 Y6.13256
G01 X-8.94129 Y6.13706
G01 X-8.93411 Y6.14506
G01 X-8.92949 Y6.15064
G01 X-8.92077 Y6.16638
G01 X-8.91551 Y6.18359
G01 X-8.91394 Y6.20151
G01 X-8.91614 Y6.21937
G01 X-8.92200 Y6.23638
G01 X-8.93127 Y6.25181
G01 X-8.94354 Y6.26496
G01 X-8.95828 Y6.27528
G01 X-8.97485 Y6.28231
G01 X-8.99251 Y6.28574
G01 X-9.01050 Y6.28543
G01 X-9.02800 Y6.28139
G01 X-9.04434 Y6.27377
G01 X-9.05870 Y6.26294
G01 X-9.06589 Y6.25494
G01 X-9.07051 Y6.24936
G01 X-9.07923 Y6.23362
G01 X-9.08449 Y6.21641
G01 X-9.08605 Y6.19849
G01 X-9.08386 Y6.18063
G01 X-9.07800 Y6.16362
G01 X-9.06873 Y6.14819
G01 X-9.05646 Y6.13504
G01 X-9.04172 Y6.12472
G01 X-9.02515 Y6.11769
G01 X-9.00749 Y6.11426
G01 X-8.99673 Y6.11427
G01 X-8.99698 Y6.12427
G01 X-8.99070 Y6.12453
G01 X-8.97531 Y6.12807
G01 X-8.96081 Y6.13484
G01 X-8.94812 Y6.14441
G01 X-8.93769 Y6.15641
G01 X-8.92999 Y6.17032
G01 X-8.92897 Y6.17337
G01 X-8.92535 Y6.18552
G01 X-8.92437 Y6.19509
G01 X-8.92397 Y6.20136
G01 X-8.92592 Y6.21713
G01 X-8.93110 Y6.23216
G01 X-8.93592 Y6.24047
G01 X-8.93929 Y6.24578
G01 X-8.95013 Y6.25741
G01 X-8.96316 Y6.26652
G01 X-8.97780 Y6.27272
G01 X-8.99340 Y6.27575
G01 X-9.00930 Y6.27547
G01 X-9.01713 Y6.27390
G01 X-9.02469 Y6.27193
G01 X-9.03919 Y6.26516
G01 X-9.05188 Y6.25559
G01 X-9.06230 Y6.24359
G01 X-9.07000 Y6.22968
G01 X-9.07465 Y6.21448
G01 X-9.07603 Y6.19864
G01 X-9.07500 Y6.18907
G01 X-9.07408 Y6.18287
G01 X-9.06890 Y6.16784
G01 X-9.06071 Y6.15421
G01 X-9.04986 Y6.14259
G01 X-9.03684 Y6.13348
G01 X-9.02220 Y6.12727
G01 X-9.00660 Y6.12425
G01 X-8.99698 Y6.12427
G04 P0 ( dwell for no time -- G64 should not smooth over this point )
G00 Z0.08000 ( retract )

G00 X-8.97356 Y6.06326 ( rapid move to begin. )
G01 F3.00000
G01 Z-0.00800
G04 P0 ( dwell for no time -- G64 should not smooth over this point )
G01 F6.00000
G01 X-8.97356 Y6.06326
G01 X-8.98334 Y6.10561
G01 X-8.98869 Y6.10460
G01 X-9.00877 Y6.10433
G01 X-9.02847 Y6.10825
G01 X-9.04693 Y6.11617
G01 X-9.06274 Y6.12724
G01 X-9.07649 Y6.14188
G01 X-9.08691 Y6.15905
G01 X-9.09213 Y6.17359
G01 X-9.13472 Y6.16377
G01 X-9.13145 Y6.15426
G01 X-9.09867 Y6.16183
G01 X-9.09562 Y6.15414
G01 X-9.08541 Y6.13715
G01 X-9.07620 Y6.12663
G01 X-9.06870 Y6.11922
G01 X-9.05040 Y6.10670
G01 X-9.03215 Y6.09895
G01 X-9.01044 Y6.09447
G01 X-8.99103 Y6.09449
G01 X-8.98332 Y6.06109
G01 X-8.97356 Y6.06326
G01 X-8.96838 Y6.06304
G01 X-8.97092 Y6.05931
G01 X-8.97131 Y6.05352
G01 X-8.89301 Y5.71436
G01 X-8.89012 Y5.70932
G01 X-8.88620 Y5.70709
G01 X-8.89076 Y5.70462
G01 X-8.90051 Y5.70236
G01 X-8.88056 Y5.61594
G01 X-8.93724 Y5.61405
G01 X-9.00997 Y5.61595
G01 X-9.06357 Y5.61404
G01 X-9.13684 Y5.61596
G01 X-9.19832 Y5.61401
G01 X-9.27436 Y5.61599
G01 X-9.29344 Y5.61598
G01 X-9.33516 Y5.61390
G01 X-9.45998 Y5.61621
G01 X-9.53670 Y5.61361
G01 X-9.59935 Y5.61471
G01 X-9.62530 Y5.68060
G01 X-9.63718 Y5.71317
G01 X-9.64716 Y5.74572
G01 X-9.67604 Y5.84987
G01 X-9.68296 Y5.87759
G01 X-9.68836 Y5.90529
G01 X-9.70494 Y6.00436
G01 X-9.70724 Y6.02134
G01 X-9.49207 Y6.07101
G01 X-9.49524 Y6.08053
G01 X-9.71837 Y6.02903
G01 X-9.71483 Y6.00286
G01 X-9.69820 Y5.90351
G01 X-9.69273 Y5.87542
G01 X-9.68571 Y5.84732
G01 X-9.65676 Y5.74292
G01 X-9.64667 Y5.70999
G01 X-9.63465 Y5.67705
G01 X-9.60623 Y5.60489
G01 X-9.53661 Y5.60361
G01 X-9.46005 Y5.60621
G01 X-9.33493 Y5.60390
G01 X-9.29295 Y5.60599
G01 X-9.27436 Y5.60600
G01 X-9.19833 Y5.60400
G01 X-9.13711 Y5.60596
G01 X-9.06357 Y5.60404
G01 X-9.01024 Y5.60595
G01 X-8.93724 Y5.60404
G01 X-8.88217 Y5.60597
G01 X-8.86791 Y5.60560
G01 X-8.89076 Y5.70462
G04 P0 ( dwell for no time -- G64 should not smooth over this point )
G00 Z0.08000 ( retract )

G00 X-8.88102 Y5.70686 ( rapid move to begin. )
G01 F3.00000
G01 Z-0.00800
G04 P0 ( dwell for no time -- G64 should not smooth over this point )
G01 F6.00000
G01 X-8.88102 Y5.70686
G01 X-8.88620 Y5.70709
G01 X-8.88366 Y5.71082
G01 X-8.88327 Y5.71661
G01 X-8.96157 Y6.05577
G01 X-8.96446 Y6.06080
G01 X-8.96838 Y6.06304
G01 X-8.96382 Y6.06551
G01 X-8.95409 Y6.06784
G01 X-8.96180 Y6.10123
G01 X-8.94440 Y6.10970
G01 X-8.92684 Y6.12323
G01 X-8.91248 Y6.14012
G01 X-8.90286 Y6.15746
G01 X-8.89836 Y6.17068
G01 X-8.89569 Y6.18089
G01 X-8.89396 Y6.20064
G01 X-8.89458 Y6.20894
G01 X-8.86180 Y6.21651
G01 X-8.86303 Y6.22649
G04 P0 ( dwell for no time -- G64 should not smooth over this point )
G00 Z0.08000 ( retract )

G00 X-8.50476 Y6.31947 ( rapid move to begin. )
G01 F3.00000
G01 Z-0.00800
G04 P0 ( dwell for no time -- G64 should not smooth over this point )
G01 F6.00000
G01 X-8.50476 Y6.31947
G01 X-8.50453 Y6.31845
G01 X-8.50793 Y6.32900
G01 X-7.14590 Y6.64337
G01 X-7.04650 Y6.79030
G01 X-6.95095 Y7.01534
G01 X-6.75005 Y7.50503
G01 X-6.71600 Y7.58658
G01 X-6.67478 Y7.68189
G01 X-6.77200 Y7.73491
G01 X-6.88112 Y7.79097
G01 X-6.99025 Y7.84359
G01 X-7.09943 Y7.89279
G01 X-7.20380 Y7.93816
G01 X-7.30482 Y7.98058
G01 X-7.40574 Y8.01994
G01 X-7.50667 Y8.05629
G01 X-7.60766 Y8.08963
G01 X-7.71201 Y8.12254
G01 X-7.80485 Y8.15051
G01 X-7.89759 Y8.17586
G01 X-7.99032 Y8.19862
G01 X-8.08313 Y8.21880
G01 X-8.18748 Y8.24003
G01 X-8.26775 Y8.25530
G01 X-8.34734 Y8.19858
G01 X-8.42874 Y8.13824
G01 X-8.50685 Y8.07790
G01 X-8.58173 Y8.01753
G01 X-8.70839 Y7.91312
G01 X-8.77715 Y7.85506
G01 X-8.84249 Y7.79706
G01 X-8.90446 Y7.73910
G01 X-8.96313 Y7.68110
G01 X-9.06572 Y7.57671
G01 X-9.10624 Y7.53446
G01 X-9.14472 Y7.49230
G01 X-9.18119 Y7.45016
G01 X-9.21575 Y7.40796
G01 X-9.25271 Y7.36147
G01 X-9.09948 Y6.69764
G01 X-9.10924 Y6.69538
G01 X-9.26354 Y7.36393
G01 X-9.22354 Y7.41423
G01 X-9.18885 Y7.45660
G01 X-9.15219 Y7.49895
G01 X-9.11355 Y7.54129
G01 X-9.07289 Y7.58367
G01 X-8.97022 Y7.68815
G01 X-8.91139 Y7.74632
G01 X-8.84922 Y7.80446
G01 X-8.78370 Y7.86261
G01 X-8.71481 Y7.92079
G01 X-8.58804 Y8.02529
G01 X-8.51304 Y8.08576
G01 X-8.43478 Y8.14621
G01 X-8.35322 Y8.20667
G01 X-8.27007 Y8.26592
G01 X-8.18554 Y8.24984
G01 X-8.08107 Y8.22858
G01 X-7.98806 Y8.20836
G01 X-7.89508 Y8.18554
G01 X-7.80209 Y8.16012
G01 X-7.70905 Y8.13209
G01 X-7.60460 Y8.09916
G01 X-7.50340 Y8.06574
G01 X-7.40224 Y8.02931
G01 X-7.30107 Y7.98985
G01 X-7.19985 Y7.94735
G01 X-7.09539 Y7.90193
G01 X-6.98602 Y7.85265
G01 X-6.87667 Y7.79992
G01 X-6.76732 Y7.74374
G01 X-6.66194 Y7.68628
G01 X-6.70682 Y7.58262
G01 X-6.74083 Y7.50115
G01 X-6.94170 Y7.01152
G01 X-7.03769 Y6.78547
G01 X-7.13981 Y6.63451
G01 X-8.50476 Y6.31947
G04 P0 ( dwell for no time -- G64 should not smooth over this point )
G00 Z0.08000 ( retract )

G00 X-8.50453 Y6.31845 ( rapid move to begin. )
G01 F3.00000
G01 Z-0.00800
G04 P0 ( dwell for no time -- G64 should not smooth over this point )
G01 F6.00000
G01 X-8.50453 Y6.31845
G01 X-8.50489 Y6.31431
G01 X-8.50251 Y6.30972
G01 X-8.50571 Y6.31238
G01 X-8.50489 Y6.31431
G01 X-8.50647 Y6.31568
G01 X-8.51029 Y6.31730
G01 X-8.51445 Y6.31723
G01 X-8.85548 Y6.23850
G01 X-8.86024 Y6.23588
G01 X-8.86275 Y6.23168
G01 X-8.85865 Y6.22901
G01 X-8.85323 Y6.22875
G01 X-8.51220 Y6.30748
G01 X-8.50843 Y6.30924
G01 X-8.50571 Y6.31238
G04 P0 ( dwell for no time -- G64 should not smooth over this point )
G00 Z0.08000 ( retract )

G00 X-8.50251 Y6.30972 ( rapid move to begin. )
G01 F3.00000
G01 Z-0.00800
G04 P0 ( dwell for no time -- G64 should not smooth over this point )
G01 F6.00000
G01 X-8.50251 Y6.30972
G01 X-8.50118 Y6.29977
G01 X-8.50251 Y6.30972
G01 X-7.14798 Y6.62236
G01 X-7.25338 Y6.46534
G01 X-7.28929 Y6.41069
G01 X-7.32343 Y6.35638
G01 X-7.41708 Y6.20389
G01 X-7.53683 Y6.12845
G01 X-7.60822 Y6.08210
G01 X-7.67565 Y6.03549
G01 X-7.85465 Y5.90766
G01 X-7.95950 Y5.83038
G01 X-7.98917 Y5.80899
G01 X-8.01880 Y5.78874
G01 X-8.04842 Y5.76961
G01 X-8.15479 Y5.70589
G01 X-8.26548 Y5.63248
G01 X-8.30318 Y5.60581
G01 X-8.35370 Y5.60655
G01 X-8.43590 Y5.60405
G01 X-8.50193 Y5.60621
G01 X-8.52672 Y5.60642
G01 X-8.55080 Y5.60574
G01 X-8.58928 Y5.60620
G01 X-8.64232 Y5.60392
G01 X-8.73962 Y5.60601
G01 X-8.75704 Y5.60602
G01 X-8.80762 Y5.60403
G01 X-8.85759 Y5.60535
G01 X-8.88102 Y5.70686
G01 X-8.87128 Y5.70911
G01 X-8.84958 Y5.61513
G01 X-8.80762 Y5.61403
G01 X-8.75756 Y5.61601
G01 X-8.73961 Y5.61601
G01 X-8.64251 Y5.61392
G01 X-8.58967 Y5.61620
G01 X-8.55081 Y5.61574
G01 X-8.52664 Y5.61642
G01 X-8.50167 Y5.61620
G01 X-8.43590 Y5.61406
G01 X-8.35391 Y5.61655
G01 X-8.30624 Y5.61590
G01 X-8.27104 Y5.64080
G01 X-8.16022 Y5.71428
G01 X-8.05373 Y5.77809
G01 X-8.02433 Y5.79707
G01 X-7.99492 Y5.81717
G01 X-7.96541 Y5.83845
G01 X-7.86046 Y5.91580
G01 X-7.68146 Y6.04362
G01 X-7.61390 Y6.09033
G01 X-7.54216 Y6.13691
G01 X-7.42439 Y6.21111
G01 X-7.33198 Y6.36157
G01 X-7.29776 Y6.41602
G01 X-7.26169 Y6.47092
G01 X-7.17038 Y6.60693
G01 X-8.50118 Y6.29977
G04 P0 ( dwell for no time -- G64 should not smooth over this point )
G00 Z0.08000 ( retract )

G00 X-6.25809 Y4.12045 ( rapid move to begin. )
G01 F3.00000
G01 Z-0.00800
G04 P0 ( dwell for no time -- G64 should not smooth over this point )
G01 F6.00000
G01 X-6.25809 Y4.12045
G01 X-6.27930 Y4.03948
G01 X-6.30389 Y3.95508
G01 X-6.33186 Y3.86729
G01 X-6.36322 Y3.77607
G01 X-6.39798 Y3.68142
G01 X-6.43614 Y3.58330
G01 X-6.73143 Y2.84381
G01 X-6.63650 Y4.69544
G01 X-6.63604 Y4.73380
G01 X-6.63872 Y4.77139
G01 X-6.64130 Y4.79001
G01 X-6.64465 Y4.80797
G01 X-6.64899 Y4.82627
G01 X-6.65377 Y4.84282
G01 X-6.76415 Y5.19292
G01 X-6.76859 Y5.20891
G01 X-6.77184 Y5.22483
G01 X-6.77397 Y5.24096
G01 X-6.77500 Y5.25754
G01 X-6.78248 Y5.52772
G01 X-6.78472 Y5.57977
G01 X-6.78861 Y5.63499
G01 X-6.79422 Y5.69447
G01 X-6.80148 Y5.75713
G01 X-6.81038 Y5.82310
G01 X-6.82101 Y5.89312
G01 X-6.83328 Y5.96645
G01 X-6.84718 Y6.04315
G01 X-6.86279 Y6.12362
G01 X-6.88010 Y6.20781
G01 X-6.89901 Y6.29526
G01 X-6.91967 Y6.38661
G01 X-6.96584 Y6.57942
G01 X-7.01749 Y6.78181
G01 X-6.92324 Y7.00382
G01 X-6.72234 Y7.49353
G01 X-6.68842 Y7.57478
G01 X-6.64534 Y7.67433
G01 X-6.58334 Y7.67995
G01 X-6.51268 Y7.68523
G01 X-6.44197 Y7.68941
G01 X-6.37129 Y7.69248
G01 X-6.30057 Y7.69444
G01 X-6.22989 Y7.69529
G01 X-6.15922 Y7.69502
G01 X-6.08851 Y7.69365
G01 X-6.01783 Y7.69116
G01 X-5.94714 Y7.68757
G01 X-5.87643 Y7.68286
G01 X-5.80574 Y7.67705
G01 X-5.73505 Y7.67012
G01 X-5.66435 Y7.66208
G01 X-5.59365 Y7.65293
G01 X-5.53727 Y7.64475
G01 X-5.75788 Y5.74484
G01 X-5.76291 Y5.70631
G01 X-5.76893 Y5.66882
G01 X-5.84732 Y5.22427
G01 X-5.84583 Y5.18807
G01 X-5.84579 Y5.15714
G01 X-5.84725 Y5.12402
G01 X-5.84962 Y5.10108
G01 X-5.85350 Y5.07510
G01 X-5.85882 Y5.05088
G01 X-5.86687 Y5.02353
G01 X-5.87817 Y4.99527
G01 X-5.89075 Y4.97135
G01 X-5.90827 Y4.94583
G01 X-5.91979 Y4.93234
G01 X-5.93665 Y4.91591
G01 X-5.96064 Y4.89752
G01 X-5.98289 Y4.88428
G01 X-6.03994 Y4.85750
G01 X-6.04429 Y4.85435
G01 X-6.05618 Y4.84196
G01 X-6.06757 Y4.82864
G01 X-6.07846 Y4.81441
G01 X-6.08887 Y4.79926
G01 X-6.09880 Y4.78320
G01 X-6.10794 Y4.76681
G01 X-6.12582 Y4.72937
G01 X-6.14141 Y4.68916
G01 X-6.15495 Y4.64618
G01 X-6.16716 Y4.59792
G01 X-6.17730 Y4.54718
G01 X-6.22579 Y4.27221
G01 X-6.24026 Y4.19798
G01 X-6.25809 Y4.12045
G01 X-6.24838 Y4.11806
G01 X-6.26966 Y4.03681
G01 X-6.29432 Y3.95218
G01 X-6.32237 Y3.86414
G01 X-6.35381 Y3.77270
G01 X-6.38863 Y3.67787
G01 X-6.42684 Y3.57964
G01 X-6.74450 Y2.78410
G01 X-6.64648 Y4.69595
G01 X-6.64605 Y4.73433
G01 X-6.64869 Y4.77066
G01 X-6.65120 Y4.78862
G01 X-6.65453 Y4.80635
G01 X-6.65860 Y4.82350
G01 X-6.66341 Y4.84016
G01 X-6.77374 Y5.19008
G01 X-6.77832 Y5.20656
G01 X-6.78171 Y5.22318
G01 X-6.78393 Y5.23999
G01 X-6.78500 Y5.25711
G01 X-6.79247 Y5.52722
G01 X-6.79470 Y5.57907
G01 X-6.79858 Y5.63429
G01 X-6.80416 Y5.69332
G01 X-6.81139 Y5.75580
G01 X-6.82030 Y5.82185
G01 X-6.83086 Y5.89139
G01 X-6.84311 Y5.96459
G01 X-6.85702 Y6.04137
G01 X-6.87262 Y6.12177
G01 X-6.88987 Y6.20570
G01 X-6.90879 Y6.29315
G01 X-6.92939 Y6.38429
G01 X-6.97559 Y6.57717
G01 X-7.02802 Y6.78264
G01 X-6.93246 Y7.00770
G01 X-6.73159 Y7.49733
G01 X-6.69762 Y7.57870
G01 X-6.65212 Y7.68376
G01 X-6.58418 Y7.68991
G01 X-6.51332 Y7.69521
G01 X-6.44248 Y7.69940
G01 X-6.37165 Y7.70247
G01 X-6.30078 Y7.70444
G01 X-6.22995 Y7.70529
G01 X-6.15911 Y7.70502
G01 X-6.08825 Y7.70365
G01 X-6.01741 Y7.70116
G01 X-5.94655 Y7.69755
G01 X-5.87571 Y7.69284
G01 X-5.80484 Y7.68701
G01 X-5.73397 Y7.68006
G01 X-5.66313 Y7.67201
G01 X-5.59229 Y7.66284
G01 X-5.52621 Y7.65325
G01 X-5.74796 Y5.74359
G01 X-5.75301 Y5.70489
G01 X-5.75907 Y5.66717
G01 X-5.83747 Y5.22254
G01 X-5.83583 Y5.18833
G01 X-5.83604 Y5.14778
G01 X-5.83728 Y5.12325
G01 X-5.83969 Y5.09990
G01 X-5.84366 Y5.07329
G01 X-5.84915 Y5.04829
G01 X-5.85736 Y5.02045
G01 X-5.86903 Y4.99120
G01 X-5.88208 Y4.96636
G01 X-5.90049 Y4.93954
G01 X-5.91236 Y4.92565
G01 X-5.92995 Y4.90848
G01 X-5.95519 Y4.88912
G01 X-5.97832 Y4.87538
G01 X-6.03709 Y4.84742
G01 X-6.04859 Y4.83545
G01 X-6.05963 Y4.82256
G01 X-6.07023 Y4.80874
G01 X-6.08037 Y4.79399
G01 X-6.08995 Y4.77853
G01 X-6.09921 Y4.76194
G01 X-6.11650 Y4.72574
G01 X-6.13187 Y4.68616
G01 X-6.14541 Y4.64317
G01 X-6.15735 Y4.59596
G01 X-6.16745 Y4.54544
G01 X-6.21595 Y4.27039
G01 X-6.23048 Y4.19588
G01 X-6.24838 Y4.11806
G04 P0 ( dwell for no time -- G64 should not smooth over this point )
G00 Z0.08000 ( retract )

G00 X-1.89458 Y7.08730 ( rapid move to begin. )
G01 F3.00000
G01 Z-0.00800
G04 P0 ( dwell for no time -- G64 should not smooth over this point )
G01 F6.00000
G01 X-1.89458 Y7.08730
G01 X-1.98453 Y7.17945
G01 X-2.03668 Y7.23160
G01 X-2.12604 Y7.31904
G01 X-2.21918 Y7.40642
G01 X-2.31619 Y7.49383
G01 X-2.41232 Y7.57714
G01 X-2.52063 Y7.56707
G01 X-2.57270 Y7.56160
G01 X-2.69503 Y7.54716
G01 X-2.81726 Y7.52956
G01 X-2.93951 Y7.50878
G01 X-3.04686 Y7.48776
G01 X-2.97687 Y7.16589
G01 X-2.75021 Y6.09338
G01 X-2.72745 Y5.97998
G01 X-2.65732 Y5.60760
G01 X-2.62047 Y5.36989
G01 X-2.60836 Y5.26262
G01 X-2.58710 Y5.17168
G01 X-2.57621 Y5.13086
G01 X-2.56357 Y5.09182
G01 X-2.54438 Y5.03761
G01 X-2.53242 Y5.00640
G01 X-2.51916 Y4.97655
G01 X-2.49547 Y4.92687
G01 X-2.48289 Y4.90214
G01 X-2.46925 Y4.87850
G01 X-2.44137 Y4.83299
G01 X-2.42816 Y4.81262
G01 X-2.41403 Y4.79317
G01 X-2.38218 Y4.75166
G01 X-2.36803 Y4.73418
G01 X-2.35305 Y4.71754
G01 X-2.31733 Y4.67990
G01 X-2.30171 Y4.66428
G01 X-2.28527 Y4.64948
G01 X-2.24571 Y4.61569
G01 X-2.22781 Y4.60120
G01 X-2.20903 Y4.58757
G01 X-2.16554 Y4.55768
G01 X-2.14420 Y4.54383
G01 X-2.01875 Y4.47365
G01 X-1.99233 Y4.45794
G01 X-1.96540 Y4.44034
G01 X-1.88497 Y4.38536
G01 X-1.85294 Y4.36267
G01 X-1.82092 Y4.33844
G01 X-1.66559 Y4.21722
G01 X-1.62088 Y4.18157
G01 X-1.57539 Y4.14379
G01 X-1.21351 Y3.83755
G01 X-1.17970 Y3.90367
G01 X-1.15190 Y3.95998
G01 X-1.12591 Y4.01618
G01 X-1.10170 Y4.07236
G01 X-1.07921 Y4.12865
G01 X-1.04042 Y4.23160
G01 X-1.02313 Y4.28240
G01 X-1.00732 Y4.33316
G01 X-0.99296 Y4.38403
G01 X-0.96696 Y4.48346
G01 X-0.95624 Y4.53072
G01 X-0.94681 Y4.57799
G01 X-0.93042 Y4.67740
G01 X-0.92384 Y4.72275
G01 X-0.91847 Y4.76801
G01 X-0.91430 Y4.81326
G01 X-0.91132 Y4.85861
G01 X-0.90683 Y4.95539
G01 X-0.90625 Y5.00000
G01 X-0.90683 Y5.04461
G01 X-0.90859 Y5.08932
G01 X-0.91430 Y5.18675
G01 X-0.91847 Y5.23200
G01 X-0.92384 Y5.27724
G01 X-0.93867 Y5.37468
G01 X-0.94681 Y5.42201
G01 X-0.95624 Y5.46927
G01 X-0.96696 Y5.51654
G01 X-0.99295 Y5.61596
G01 X-1.00732 Y5.66684
G01 X-1.02313 Y5.71760
G01 X-1.04042 Y5.76840
G01 X-1.07920 Y5.87134
G01 X-1.10170 Y5.92764
G01 X-1.12591 Y5.98382
G01 X-1.15190 Y6.04002
G01 X-1.17970 Y6.09632
G01 X-1.20625 Y6.14843
G01 X-1.24005 Y6.21257
G01 X-1.27607 Y6.27665
G01 X-1.31433 Y6.34075
G01 X-1.35489 Y6.40493
G01 X-1.38872 Y6.45703
G01 X-1.43929 Y6.53257
G01 X-1.49284 Y6.60803
G01 X-1.54943 Y6.68352
G01 X-1.60912 Y6.75911
G01 X-1.68916 Y6.85728
G01 X-1.72805 Y6.90328
G01 X-1.76806 Y6.94930
G01 X-1.80913 Y6.99529
G01 X-1.85132 Y7.04131
G01 X-1.89458 Y7.08730
G01 X-1.88736 Y7.09422
G01 X-1.97743 Y7.18649
G01 X-2.02964 Y7.23870
G01 X-2.11912 Y7.32626
G01 X-2.21242 Y7.41378
G01 X-2.30956 Y7.50131
G01 X-2.40899 Y7.58749
G01 X-2.52160 Y7.57702
G01 X-2.57382 Y7.57154
G01 X-2.69633 Y7.55707
G01 X-2.81881 Y7.53944
G01 X-2.94132 Y7.51862
G01 X-3.05884 Y7.49561
G01 X-2.98665 Y7.16382
G01 X-2.75998 Y6.09125
G01 X-2.73724 Y5.97795
G01 X-2.66719 Y5.60600
G01 X-2.63037 Y5.36846
G01 X-2.61824 Y5.26098
G01 X-2.59679 Y5.16922
G01 X-2.58580 Y5.12803
G01 X-2.57304 Y5.08861
G01 X-2.55376 Y5.03416
G01 X-2.54167 Y5.00258
G01 X-2.52825 Y4.97237
G01 X-2.50444 Y4.92244
G01 X-2.49168 Y4.89736
G01 X-2.47785 Y4.87338
G01 X-2.44983 Y4.82766
G01 X-2.43640 Y4.80696
G01 X-2.42204 Y4.78718
G01 X-2.39003 Y4.74547
G01 X-2.37564 Y4.72768
G01 X-2.36039 Y4.71075
G01 X-2.32449 Y4.67292
G01 X-2.30859 Y4.65702
G01 X-2.29187 Y4.64196
G01 X-2.25210 Y4.60799
G01 X-2.23389 Y4.59326
G01 X-2.21481 Y4.57940
G01 X-2.17110 Y4.54936
G01 X-2.14942 Y4.53530
G01 X-2.02367 Y4.46495
G01 X-1.99744 Y4.44935
G01 X-1.97104 Y4.43209
G01 X-1.89062 Y4.37711
G01 X-1.85897 Y4.35469
G01 X-1.82708 Y4.33056
G01 X-1.67174 Y4.20934
G01 X-1.62727 Y4.17387
G01 X-1.58185 Y4.13616
G01 X-1.21040 Y3.82181
G01 X-1.17075 Y3.89921
G01 X-1.14288 Y3.95566
G01 X-1.11678 Y4.01210
G01 X-1.09246 Y4.06853
G01 X-1.04986 Y4.17720
G01 X-1.03100 Y4.22826
G01 X-1.01362 Y4.27929
G01 X-0.99773 Y4.33032
G01 X-0.98331 Y4.38140
G01 X-0.95724 Y4.48113
G01 X-0.94646 Y4.52864
G01 X-0.93698 Y4.57615
G01 X-0.92880 Y4.62368
G01 X-0.91392 Y4.72145
G01 X-0.90852 Y4.76696
G01 X-0.90433 Y4.81247
G01 X-0.90134 Y4.85801
G01 X-0.89684 Y4.95512
G01 X-0.89625 Y5.00000
G01 X-0.89684 Y5.04488
G01 X-0.90134 Y5.14196
G01 X-0.90433 Y5.18752
G01 X-0.90852 Y5.23304
G01 X-0.91392 Y5.27855
G01 X-0.92880 Y5.37631
G01 X-0.93698 Y5.42385
G01 X-0.94646 Y5.47136
G01 X-0.95724 Y5.51887
G01 X-0.98331 Y5.61861
G01 X-0.99773 Y5.66968
G01 X-1.01363 Y5.72071
G01 X-1.03100 Y5.77173
G01 X-1.06990 Y5.87502
G01 X-1.09246 Y5.93147
G01 X-1.11678 Y5.98790
G01 X-1.14288 Y6.04433
G01 X-1.17076 Y6.10080
G01 X-1.19738 Y6.15304
G01 X-1.23127 Y6.21735
G01 X-1.26741 Y6.28166
G01 X-1.30581 Y6.34598
G01 X-1.34647 Y6.41033
G01 X-1.38037 Y6.46253
G01 X-1.43105 Y6.53824
G01 X-1.48476 Y6.61393
G01 X-1.54150 Y6.68963
G01 X-1.60128 Y6.76532
G01 X-1.68147 Y6.86367
G01 X-1.72047 Y6.90979
G01 X-1.76054 Y6.95590
G01 X-1.80172 Y7.00201
G01 X-1.84399 Y7.04812
G01 X-1.88736 Y7.09422
G01 X-1.88018 Y7.10119
G01 X-1.97033 Y7.19353
G01 X-2.02260 Y7.24580
G01 X-2.11224 Y7.33351
G01 X-2.20569 Y7.42118
G01 X-2.30291 Y7.50878
G01 X-2.40580 Y7.59743
G01 X-2.52261 Y7.58697
G01 X-2.57494 Y7.58147
G01 X-2.69769 Y7.56698
G01 X-2.82043 Y7.54931
G01 X-2.94305 Y7.52847
G01 X-3.06537 Y7.50452
G01 X-3.13442 Y7.50317
G01 X-3.20399 Y7.50084
G01 X-3.27355 Y7.49752
G01 X-3.34261 Y7.49326
G01 X-3.46210 Y7.51017
G01 X-3.58234 Y7.52421
G01 X-3.70246 Y7.53526
G01 X-3.82258 Y7.54333
G01 X-3.94270 Y7.54843
G01 X-4.06270 Y7.55055
G01 X-4.18295 Y7.54970
G01 X-4.30232 Y7.54589
G01 X-4.37783 Y7.56247
G01 X-4.45403 Y7.57794
G01 X-4.53022 Y7.59215
G01 X-4.60650 Y7.60511
G01 X-4.68262 Y7.61680
G01 X-4.75890 Y7.62725
G01 X-4.83510 Y7.63643
G01 X-4.91122 Y7.64435
G01 X-4.98750 Y7.65102
G01 X-5.06370 Y7.65643
G01 X-5.13990 Y7.66059
G01 X-5.21610 Y7.66348
G01 X-5.29222 Y7.66512
G01 X-5.36850 Y7.66550
G01 X-5.44462 Y7.66463
G01 X-5.52039 Y7.66251
G01 X-5.59089 Y7.67274
G01 X-5.66197 Y7.68194
G01 X-5.73298 Y7.69001
G01 X-5.80391 Y7.69696
G01 X-5.87499 Y7.70281
G01 X-5.94599 Y7.70754
G01 X-6.01700 Y7.71115
G01 X-6.08800 Y7.71364
G01 X-6.15901 Y7.71502
G01 X-6.23002 Y7.71529
G01 X-6.30094 Y7.71444
G01 X-6.37195 Y7.71247
G01 X-6.44295 Y7.70939
G01 X-6.51404 Y7.70519
G01 X-6.58504 Y7.69987
G01 X-6.65446 Y7.69359
G01 X-6.76269 Y7.75261
G01 X-6.87216 Y7.80885
G01 X-6.98185 Y7.86174
G01 X-7.09131 Y7.91106
G01 X-7.19596 Y7.95656
G01 X-7.29725 Y7.99909
G01 X-7.39878 Y8.03869
G01 X-7.50008 Y8.07517
G01 X-7.60150 Y8.10866
G01 X-7.70615 Y8.14166
G01 X-7.79939 Y8.16975
G01 X-7.89250 Y8.19521
G01 X-7.98588 Y8.21812
G01 X-8.07899 Y8.23836
G01 X-8.18358 Y8.25965
G01 X-8.27230 Y8.27612
G01 X-8.35914 Y8.21473
G01 X-8.44077 Y8.15422
G01 X-8.51928 Y8.09357
G01 X-8.59438 Y8.03302
G01 X-8.72123 Y7.92845
G01 X-8.79030 Y7.87014
G01 X-8.85601 Y7.81181
G01 X-8.91837 Y7.75348
G01 X-8.97728 Y7.69524
G01 X-9.08009 Y7.59062
G01 X-9.12089 Y7.54808
G01 X-9.15962 Y7.50563
G01 X-9.19654 Y7.46299
G01 X-9.23134 Y7.42049
G01 X-9.33930 Y7.28396
G01 X-9.36283 Y7.25200
G01 X-9.38502 Y7.22014
G01 X-9.40602 Y7.18816
G01 X-9.47265 Y7.08357
G01 X-9.50233 Y7.03431
G01 X-9.52874 Y6.98480
G01 X-9.58085 Y6.88027
G01 X-9.59927 Y6.84085
G01 X-9.61514 Y6.80167
G01 X-9.65422 Y6.69714
G01 X-9.66536 Y6.66486
G01 X-9.67472 Y6.63233
G01 X-9.70175 Y6.52780
G01 X-9.70819 Y6.49999
G01 X-9.71316 Y6.47191
G01 X-9.72878 Y6.36738
G01 X-9.73190 Y6.34204
G01 X-9.73370 Y6.31643
G01 X-9.73826 Y6.21190
G01 X-9.73869 Y6.18701
G01 X-9.73783 Y6.16237
G01 X-9.73174 Y6.06287
G01 X-9.72892 Y6.03242
G01 X-9.72471 Y6.00129
G01 X-9.70803 Y5.90166
G01 X-9.70252 Y5.87338
G01 X-9.69537 Y5.84471
G01 X-9.66638 Y5.74018
G01 X-9.65619 Y5.70693
G01 X-9.64398 Y5.67345
G01 X-9.61507 Y5.60005
G01 X-9.62882 Y5.56823
G01 X-9.63943 Y5.54083
G01 X-9.65199 Y5.50469
G01 X-9.68468 Y5.39702
G01 X-9.69286 Y5.36761
G01 X-9.69946 Y5.33794
G01 X-9.71978 Y5.23341
G01 X-9.72416 Y5.20726
G01 X-9.72718 Y5.18085
G01 X-9.73633 Y5.07632
G01 X-9.73785 Y5.05133
G01 X-9.73807 Y5.02661
G01 X-9.73624 Y4.92208
G01 X-9.73513 Y4.89681
G01 X-9.73273 Y4.87193
G01 X-9.71988 Y4.76727
G01 X-9.71579 Y4.73999
G01 X-9.71028 Y4.71297
G01 X-9.68615 Y4.60844
G01 X-9.67805 Y4.57723
G01 X-9.66827 Y4.54628
G01 X-9.63228 Y4.44175
G01 X-9.61824 Y4.40431
G01 X-9.57640 Y4.30857
G01 X-9.52981 Y4.21567
G01 X-9.50366 Y4.16957
G01 X-9.44085 Y4.06504
G01 X-9.42228 Y4.03509
G01 X-9.40268 Y4.00530
G01 X-9.38179 Y3.97531
G01 X-9.35988 Y3.94548
G01 X-9.28111 Y3.84095
G01 X-9.25041 Y3.80139
G01 X-9.21799 Y3.76188
G01 X-9.18381 Y3.72239
G01 X-9.14791 Y3.68295
G01 X-9.05039 Y3.57836
G01 X-8.99880 Y3.52462
G01 X-8.94440 Y3.47097
G01 X-8.88697 Y3.41724
G01 X-8.82658 Y3.36347
G01 X-8.70634 Y3.25894
G01 X-8.66218 Y3.22112
G01 X-8.61663 Y3.18324
G01 X-8.56987 Y3.14545
G01 X-8.52175 Y3.10762
G01 X-8.42161 Y3.03198
G01 X-8.31619 Y2.95632
G01 X-8.16686 Y2.85176
G01 X-8.08052 Y2.79234
G01 X-7.99124 Y2.73295
G01 X-7.89900 Y2.67356
G01 X-7.80428 Y2.61448
G01 X-7.75189 Y2.56442
G01 X-7.69791 Y2.51402
G01 X-7.64272 Y2.46361
G01 X-7.58556 Y2.41265
G01 X-7.58269 Y2.41198
G01 X-7.51195 Y2.41685
G01 X-7.44121 Y2.42278
G01 X-7.37054 Y2.42975
G01 X-7.30029 Y2.43772
G01 X-7.18796 Y2.42821
G01 X-7.07491 Y2.42130
G01 X-6.96209 Y2.41707
G01 X-6.84982 Y2.41551
G01 X-6.76608 Y2.39190
G01 X-6.68181 Y2.36975
G01 X-6.59735 Y2.34917
G01 X-6.51307 Y2.33024
G01 X-6.42862 Y2.31290
G01 X-6.34434 Y2.29720
G01 X-6.25988 Y2.28308
G01 X-6.17551 Y2.27060
G01 X-6.09123 Y2.25974
G01 X-6.00686 Y2.25049
G01 X-5.92239 Y2.24284
G01 X-5.83811 Y2.23683
G01 X-5.75374 Y2.23242
G01 X-5.66936 Y2.22963
G01 X-5.58499 Y2.22845
G01 X-5.50062 Y2.22889
G01 X-5.41615 Y2.23094
G01 X-5.33187 Y2.23461
G01 X-5.24750 Y2.23989
G01 X-5.16303 Y2.24680
G01 X-5.07866 Y2.25532
G01 X-4.99429 Y2.26545
G01 X-4.91001 Y2.27718
G01 X-4.82555 Y2.29056
G01 X-4.74118 Y2.30554
G01 X-4.65681 Y2.32213
G01 X-4.57244 Y2.34034
G01 X-4.48817 Y2.36014
G01 X-4.40380 Y2.38158
G01 X-4.31935 Y2.40465
G01 X-4.23507 Y2.42930
G01 X-4.15153 Y2.45532
G01 X-4.02989 Y2.45082
G01 X-3.90837 Y2.44939
G01 X-3.79974 Y2.40991
G01 X-3.69021 Y2.37291
G01 X-3.58056 Y2.33871
G01 X-3.47102 Y2.30737
G01 X-3.36159 Y2.27889
G01 X-3.25193 Y2.25317
G01 X-3.14238 Y2.23030
G01 X-3.03283 Y2.21026
G01 X-2.92340 Y2.19307
G01 X-2.81373 Y2.17866
G01 X-2.70418 Y2.16709
G01 X-2.59475 Y2.15836
G01 X-2.48520 Y2.15245
G01 X-2.37551 Y2.14935
G01 X-2.26609 Y2.14909
G01 X-2.15553 Y2.15178
G01 X-2.15296 Y2.15328
G01 X-2.08579 Y2.22678
G01 X-2.02099 Y2.30028
G01 X-1.95855 Y2.37379
G01 X-1.89848 Y2.44730
G01 X-1.84078 Y2.52082
G01 X-1.78544 Y2.59434
G01 X-1.73247 Y2.66786
G01 X-1.68187 Y2.74139
G01 X-1.63370 Y2.81482
G01 X-1.58784 Y2.88835
G01 X-1.54428 Y2.96199
G01 X-1.50321 Y3.03543
G01 X-1.46444 Y3.10897
G01 X-1.42799 Y3.18264
G01 X-1.39397 Y3.25619
G01 X-1.36234 Y3.32969
G01 X-1.31988 Y3.43378
G01 X-1.29941 Y3.48792
G01 X-1.28021 Y3.54217
G01 X-1.26238 Y3.59621
G01 X-1.24579 Y3.65046
G01 X-1.23054 Y3.70461
G01 X-1.21662 Y3.75866
G01 X-1.20411 Y3.81221
G01 X-1.16184 Y3.89468
G01 X-1.13383 Y3.95140
G01 X-1.10768 Y4.00796
G01 X-1.08320 Y4.06476
G01 X-1.06057 Y4.12138
G01 X-1.02155 Y4.22498
G01 X-1.00410 Y4.27626
G01 X-0.98816 Y4.32741
G01 X-0.97366 Y4.37876
G01 X-0.94753 Y4.47873
G01 X-0.93666 Y4.52662
G01 X-0.92716 Y4.57426
G01 X-0.91893 Y4.62210
G01 X-0.90400 Y4.72020
G01 X-0.89857 Y4.76598
G01 X-0.89436 Y4.81162
G01 X-0.88861 Y4.90979
G01 X-0.88684 Y4.95480
G01 X-0.88625 Y4.99993
G01 X-0.88684 Y5.04507
G01 X-0.88861 Y5.09021
G01 X-0.89435 Y5.18825
G01 X-0.89858 Y5.23415
G01 X-0.90402 Y5.27993
G01 X-0.91064 Y5.32557
G01 X-0.92714 Y5.42561
G01 X-0.93669 Y5.47351
G01 X-0.94753 Y5.52127
G01 X-0.95966 Y5.56897
G01 X-0.98813 Y5.67246
G01 X-1.00410 Y5.72374
G01 X-1.02159 Y5.77514
G01 X-1.06060 Y5.87868
G01 X-1.08325 Y5.93536
G01 X-1.10768 Y5.99204
G01 X-1.13383 Y6.04859
G01 X-1.18847 Y6.15758
G01 X-1.22246 Y6.22207
G01 X-1.25873 Y6.28662
G01 X-1.29725 Y6.35116
G01 X-1.33803 Y6.41570
G01 X-1.37201 Y6.46801
G01 X-1.42278 Y6.54387
G01 X-1.47664 Y6.61977
G01 X-1.53354 Y6.69567
G01 X-1.59347 Y6.77156
G01 X-1.63585 Y6.82390
G01 X-1.67383 Y6.87012
G01 X-1.71290 Y6.91632
G01 X-1.75306 Y6.96253
G01 X-1.79433 Y7.00874
G01 X-1.83669 Y7.05495
G01 X-1.88018 Y7.10119
G01 X-1.87301 Y7.10816
G01 X-1.96326 Y7.20060
G01 X-2.01564 Y7.25298
G01 X-2.10539 Y7.34080
G01 X-2.19899 Y7.42861
G01 X-2.29622 Y7.51621
G01 X-2.39751 Y7.60400
G01 X-2.40274 Y7.60695
G01 X-2.40872 Y7.60760
G01 X-2.52366 Y7.59692
G01 X-2.57611 Y7.59140
G01 X-2.69911 Y7.57688
G01 X-2.82211 Y7.55916
G01 X-2.94509 Y7.53826
G01 X-3.06643 Y7.51450
G01 X-3.13483 Y7.51316
G01 X-3.20432 Y7.51083
G01 X-3.27403 Y7.50751
G01 X-3.34221 Y7.50330
G01 X-3.46106 Y7.52012
G01 X-3.58143 Y7.53417
G01 X-3.70179 Y7.54524
G01 X-3.82179 Y7.55331
G01 X-3.94216 Y7.55842
G01 X-4.06252 Y7.56055
G01 X-4.18326 Y7.55969
G01 X-4.30139 Y7.55593
G01 X-4.37592 Y7.57228
G01 X-4.45204 Y7.58774
G01 X-4.52839 Y7.60198
G01 X-4.60498 Y7.61500
G01 X-4.68134 Y7.62672
G01 X-4.75746 Y7.63714
G01 X-4.83382 Y7.64635
G01 X-4.91018 Y7.65429
G01 X-4.98679 Y7.66100
G01 X-5.06316 Y7.66642
G01 X-5.13927 Y7.67057
G01 X-5.21564 Y7.67347
G01 X-5.29225 Y7.67512
G01 X-5.36862 Y7.67550
G01 X-5.44474 Y7.67463
G01 X-5.51981 Y7.67253
G01 X-5.58946 Y7.68264
G01 X-5.66085 Y7.69188
G01 X-5.73200 Y7.69996
G01 X-5.80316 Y7.70694
G01 X-5.87432 Y7.71279
G01 X-5.94549 Y7.71753
G01 X-6.01665 Y7.72114
G01 X-6.08781 Y7.72364
G01 X-6.15897 Y7.72502
G01 X-6.22990 Y7.72529
G01 X-6.30130 Y7.72443
G01 X-6.37246 Y7.72246
G01 X-6.44362 Y7.71937
G01 X-6.51478 Y7.71516
G01 X-6.58594 Y7.70983
G01 X-6.65233 Y7.70382
G01 X-6.75780 Y7.76133
G01 X-6.86759 Y7.81774
G01 X-6.97774 Y7.87085
G01 X-7.08738 Y7.92026
G01 X-7.19191 Y7.96571
G01 X-7.29338 Y8.00831
G01 X-7.39503 Y8.04796
G01 X-7.49669 Y8.08458
G01 X-7.59855 Y8.11822
G01 X-7.70327 Y8.15123
G01 X-7.79638 Y8.17929
G01 X-7.89025 Y8.20495
G01 X-7.98375 Y8.22789
G01 X-8.07706 Y8.24818
G01 X-8.18178 Y8.26948
G01 X-8.26843 Y8.28597
G01 X-8.27144 Y8.28623
G01 X-8.27731 Y8.28495
G01 X-8.36509 Y8.22277
G01 X-8.44697 Y8.16207
G01 X-8.52531 Y8.10155
G01 X-8.60074 Y8.04073
G01 X-8.72755 Y7.93621
G01 X-8.79693 Y7.87761
G01 X-8.86284 Y7.81911
G01 X-8.92540 Y7.76059
G01 X-8.98446 Y7.70220
G01 X-9.08731 Y7.59754
G01 X-9.12802 Y7.55509
G01 X-9.16701 Y7.51237
G01 X-9.20428 Y7.46932
G01 X-9.23903 Y7.42688
G01 X-9.32241 Y7.32205
G01 X-9.34713 Y7.29019
G01 X-9.37081 Y7.25803
G01 X-9.39322 Y7.22585
G01 X-9.41449 Y7.19348
G01 X-9.48109 Y7.08895
G01 X-9.51129 Y7.03878
G01 X-9.53769 Y6.98926
G01 X-9.58981 Y6.88473
G01 X-9.60823 Y6.84533
G01 X-9.62451 Y6.80517
G01 X-9.66359 Y6.70064
G01 X-9.67505 Y6.66737
G01 X-9.68440 Y6.63483
G01 X-9.71143 Y6.53030
G01 X-9.71793 Y6.50224
G01 X-9.72305 Y6.47339
G01 X-9.73867 Y6.36886
G01 X-9.74182 Y6.34326
G01 X-9.74369 Y6.31687
G01 X-9.74826 Y6.21195
G01 X-9.74868 Y6.18666
G01 X-9.74781 Y6.16176
G01 X-9.74172 Y6.06226
G01 X-9.73888 Y6.03149
G01 X-9.73457 Y5.99964
G01 X-9.71792 Y5.90014
G01 X-9.71234 Y5.87146
G01 X-9.70500 Y5.84204
G01 X-9.67601 Y5.73751
G01 X-9.66575 Y5.70400
G01 X-9.65328 Y5.66978
G01 X-9.62587 Y5.60019
G01 X-9.63814 Y5.57184
G01 X-9.64872 Y5.54453
G01 X-9.66146 Y5.50793
G01 X-9.69425 Y5.39994
G01 X-9.70268 Y5.36952
G01 X-9.70927 Y5.33985
G01 X-9.72959 Y5.23532
G01 X-9.73402 Y5.20892
G01 X-9.73714 Y5.18172
G01 X-9.74629 Y5.07719
G01 X-9.74783 Y5.05221
G01 X-9.74807 Y5.02643
G01 X-9.74624 Y4.92191
G01 X-9.74514 Y4.89663
G01 X-9.74264 Y4.87059
G01 X-9.72976 Y4.76566
G01 X-9.72573 Y4.73877
G01 X-9.72011 Y4.71110
G01 X-9.69589 Y4.60619
G01 X-9.68781 Y4.57497
G01 X-9.67785 Y4.54338
G01 X-9.64173 Y4.43849
G01 X-9.62770 Y4.40104
G01 X-9.58546 Y4.30434
G01 X-9.53851 Y4.21074
G01 X-9.51223 Y4.16442
G01 X-9.43063 Y4.02959
G01 X-9.41081 Y3.99948
G01 X-9.39007 Y3.96970
G01 X-9.36787 Y3.93946
G01 X-9.28897 Y3.83476
G01 X-9.25814 Y3.79504
G01 X-9.22581 Y3.75564
G01 X-9.19121 Y3.71566
G01 X-9.15522 Y3.67612
G01 X-9.05775 Y3.57160
G01 X-9.00611 Y3.51779
G01 X-8.95113 Y3.46358
G01 X-8.89380 Y3.40994
G01 X-8.83314 Y3.35592
G01 X-8.66852 Y3.21339
G01 X-8.62291 Y3.17547
G01 X-8.57616 Y3.13767
G01 X-8.52793 Y3.09976
G01 X-8.42763 Y3.02400
G01 X-8.32202 Y2.94820
G01 X-8.17250 Y2.84350
G01 X-8.08625 Y2.78415
G01 X-7.99665 Y2.72454
G01 X-7.90429 Y2.66507
G01 X-7.81044 Y2.60654
G01 X-7.75884 Y2.55723
G01 X-7.70466 Y2.50663
G01 X-7.64939 Y2.45615
G01 X-7.59303 Y2.40578
G01 X-7.58790 Y2.40278
G01 X-7.58200 Y2.40200
G01 X-7.51133 Y2.40687
G01 X-7.44044 Y2.41281
G01 X-7.36956 Y2.41980
G01 X-7.30014 Y2.42768
G01 X-7.18846 Y2.41822
G01 X-7.07529 Y2.41131
G01 X-6.96247 Y2.40708
G01 X-6.85127 Y2.40553
G01 X-6.76888 Y2.38230
G01 X-6.68435 Y2.36008
G01 X-6.59981 Y2.33947
G01 X-6.51527 Y2.32049
G01 X-6.43045 Y2.30307
G01 X-6.34590 Y2.28732
G01 X-6.26134 Y2.27319
G01 X-6.17678 Y2.26068
G01 X-6.09251 Y2.24983
G01 X-6.00766 Y2.24052
G01 X-5.92310 Y2.23287
G01 X-5.83854 Y2.22683
G01 X-5.75426 Y2.22243
G01 X-5.66941 Y2.21963
G01 X-5.58513 Y2.21845
G01 X-5.50057 Y2.21889
G01 X-5.41571 Y2.22095
G01 X-5.33115 Y2.22463
G01 X-5.24687 Y2.22991
G01 X-5.16231 Y2.23683
G01 X-5.07747 Y2.24539
G01 X-4.99319 Y2.25551
G01 X-4.90863 Y2.26728
G01 X-4.82380 Y2.28071
G01 X-4.73925 Y2.29573
G01 X-4.65470 Y2.31236
G01 X-4.57042 Y2.33054
G01 X-4.48588 Y2.35041
G01 X-4.40108 Y2.37195
G01 X-4.31680 Y2.39498
G01 X-4.23201 Y2.41978
G01 X-4.15019 Y2.44527
G01 X-4.03038 Y2.44083
G01 X-3.91019 Y2.43941
G01 X-3.80283 Y2.40039
G01 X-3.69341 Y2.36344
G01 X-3.58365 Y2.32920
G01 X-3.47388 Y2.29779
G01 X-3.36376 Y2.26912
G01 X-3.25397 Y2.24338
G01 X-3.14418 Y2.22047
G01 X-3.03438 Y2.20038
G01 X-2.92496 Y2.18319
G01 X-2.81478 Y2.16871
G01 X-2.70497 Y2.15713
G01 X-2.59516 Y2.14837
G01 X-2.48573 Y2.14246
G01 X-2.37554 Y2.13935
G01 X-2.26572 Y2.13909
G01 X-2.15330 Y2.14203
G01 X-2.15044 Y2.14299
G01 X-2.14558 Y2.14653
G01 X-2.07829 Y2.22016
G01 X-2.01336 Y2.29381
G01 X-1.95081 Y2.36746
G01 X-1.89080 Y2.44090
G01 X-1.83297 Y2.51456
G01 X-1.77733 Y2.58849
G01 X-1.72442 Y2.66193
G01 X-1.67351 Y2.73590
G01 X-1.62515 Y2.80962
G01 X-1.57917 Y2.88336
G01 X-1.53573 Y2.95680
G01 X-1.49448 Y3.03055
G01 X-1.45560 Y3.10431
G01 X-1.41892 Y3.17844
G01 X-1.38495 Y3.25187
G01 X-1.35310 Y3.32587
G01 X-1.31060 Y3.43005
G01 X-1.28994 Y3.48469
G01 X-1.27082 Y3.53873
G01 X-1.25288 Y3.59308
G01 X-1.23616 Y3.64775
G01 X-1.22086 Y3.70212
G01 X-1.20693 Y3.75616
G01 X-1.19466 Y3.80871
G01 X-1.15284 Y3.89031
G01 X-1.12492 Y3.94686
G01 X-1.09860 Y4.00376
G01 X-1.07407 Y4.06068
G01 X-1.05124 Y4.11779
G01 X-1.03111 Y4.17024
G01 X-1.01208 Y4.22176
G01 X-0.99455 Y4.27328
G01 X-0.97850 Y4.32482
G01 X-0.94995 Y4.42863
G01 X-0.93775 Y4.47664
G01 X-0.92686 Y4.52466
G01 X-0.91735 Y4.57231
G01 X-0.90905 Y4.62053
G01 X-0.89407 Y4.71902
G01 X-0.88865 Y4.76467
G01 X-0.88441 Y4.81070
G01 X-0.88137 Y4.85694
G01 X-0.87685 Y4.95441
G01 X-0.87625 Y5.00020
G01 X-0.87685 Y5.04559
G01 X-0.88138 Y5.14326
G01 X-0.88441 Y5.18930
G01 X-0.88865 Y5.23533
G01 X-0.89407 Y5.28098
G01 X-0.90905 Y5.37947
G01 X-0.91735 Y5.42769
G01 X-0.92686 Y5.47533
G01 X-0.93775 Y5.52336
G01 X-0.94995 Y5.57137
G01 X-0.97850 Y5.67517
G01 X-0.99455 Y5.72671
G01 X-1.01221 Y5.77861
G01 X-1.05124 Y5.88220
G01 X-1.07407 Y5.93932
G01 X-1.09844 Y5.99588
G01 X-1.12492 Y6.05314
G01 X-1.17956 Y6.16212
G01 X-1.21380 Y6.22709
G01 X-1.25001 Y6.29152
G01 X-1.28887 Y6.35661
G01 X-1.32958 Y6.42104
G01 X-1.36373 Y6.47363
G01 X-1.41471 Y6.54976
G01 X-1.46849 Y6.62556
G01 X-1.52553 Y6.70167
G01 X-1.58574 Y6.77790
G01 X-1.66619 Y6.87657
G01 X-1.70535 Y6.92289
G01 X-1.74560 Y6.96920
G01 X-1.78682 Y7.01535
G01 X-1.82927 Y7.06166
G01 X-1.87282 Y7.10796
G01 X-1.88017 Y7.10117

G04 P0 ( dwell for no time -- G64 should not smooth over this point )
G00 Z1.000 ( retract )

M5 ( Spindle off. )
G04 P1.000000
M9 ( Coolant off. )
M2 ( Program end. )

