( pcb2gcode 1.3.2 )
( Software-independent Gcode )

G94 ( Inches per minute feed rate. )
G20 ( Units == INCHES. )

G90 ( Absolute coordinates. )
G00 S30000 ( RPM spindle speed. )
G64 P0.00040 ( set maximum deviation from commanded toolpath )
G01 F6.00000 ( Feedrate. )

G01 F6.00000 ( Feedrate. )
M3 ( Spindle on clockwise. )
G04 P1.00000
G04 P0 ( dwell for no time -- G64 should not smooth over this point )
G00 Z0.08000 ( retract )

G00 X0.04250 Y-0.04250 ( rapid move to begin. )
G01 F3.00000
G01 Z-0.00800
G04 P0 ( dwell for no time -- G64 should not smooth over this point )
G01 F6.00000
G01 X0.04250 Y-0.04250
G01 X0.04250 Y10.04250
G01 X-10.04250 Y10.04250
G01 X-10.04250 Y-0.04250
G01 X0.04250 Y-0.04250
G04 P0 ( dwell for no time -- G64 should not smooth over this point )
G00 Z0.08000 ( retract )

G00 X0.05250 Y-0.05250 ( rapid move to begin. )
G01 F3.00000
G01 Z-0.00800
G04 P0 ( dwell for no time -- G64 should not smooth over this point )
G01 F6.00000
G01 X0.05250 Y-0.05250
G01 X0.05250 Y10.05250
G01 X-10.05250 Y10.05250
G01 X-10.05250 Y-0.05250
G01 X0.05250 Y-0.05250
G04 P0 ( dwell for no time -- G64 should not smooth over this point )
G00 Z0.08000 ( retract )

G00 X-2.48432 Y2.17243 ( rapid move to begin. )
G01 F3.00000
G01 Z-0.00800
G04 P0 ( dwell for no time -- G64 should not smooth over this point )
G01 F6.00000
G01 X-2.48432 Y2.17243
G01 X-2.37527 Y2.16935
G01 X-2.26623 Y2.16909
G01 X-2.16340 Y2.17150
G01 X-2.10070 Y2.24011
G01 X-2.03614 Y2.31333
G01 X-1.97395 Y2.38655
G01 X-1.91412 Y2.45977
G01 X-1.85666 Y2.53297
G01 X-1.80157 Y2.60617
G01 X-1.74885 Y2.67934
G01 X-1.69851 Y2.75249
G01 X-1.65052 Y2.82564
G01 X-1.60489 Y2.89879
G01 X-1.56164 Y2.97191
G01 X-1.52075 Y3.04503
G01 X-1.48223 Y3.11812
G01 X-1.44606 Y3.19121
G01 X-1.41226 Y3.26429
G01 X-1.38079 Y3.33743
G01 X-1.36014 Y3.38728
G01 X-1.33849 Y3.44110
G01 X-1.31817 Y3.49484
G01 X-1.29915 Y3.54860
G01 X-1.28143 Y3.60232
G01 X-1.26499 Y3.65605
G01 X-1.24986 Y3.70978
G01 X-1.23603 Y3.76348
G01 X-1.22554 Y3.80842
G01 X-1.59470 Y4.12083
G01 X-1.63993 Y4.15839
G01 X-1.68410 Y4.19361
G01 X-1.83929 Y4.31472
G01 X-1.87085 Y4.33860
G01 X-1.90202 Y4.36067
G01 X-1.98220 Y4.41549
G01 X-2.00794 Y4.43232
G01 X-2.03365 Y4.44761
G01 X-2.16020 Y4.51845
G01 X-2.18238 Y4.53285
G01 X-2.22650 Y4.56318
G01 X-2.24575 Y4.57715
G01 X-2.26504 Y4.59275
G01 X-2.30491 Y4.62679
G01 X-2.32265 Y4.64279
G01 X-2.33896 Y4.65911
G01 X-2.37495 Y4.69703
G01 X-2.39110 Y4.71500
G01 X-2.40586 Y4.73324
G01 X-2.43795 Y4.77506
G01 X-2.45311 Y4.79596
G01 X-2.46685 Y4.81715
G01 X-2.49493 Y4.86298
G01 X-2.50907 Y4.88749
G01 X-2.52246 Y4.91377
G01 X-2.54633 Y4.96381
G01 X-2.56000 Y4.99458
G01 X-2.57259 Y5.02742
G01 X-2.59192 Y5.08200
G01 X-2.60509 Y5.12275
G01 X-2.61613 Y5.16413
G01 X-2.63782 Y5.25691
G01 X-2.65019 Y5.36579
G01 X-2.68691 Y5.60264
G01 X-2.75688 Y5.97417
G01 X-2.77958 Y6.08724
G01 X-3.00622 Y7.15969
G01 X-3.07681 Y7.48429
G01 X-3.13392 Y7.48318
G01 X-3.20321 Y7.48085
G01 X-3.27249 Y7.47755
G01 X-3.32895 Y7.47407
G01 X-3.38164 Y6.84899
G01 X-3.45027 Y6.05176
G01 X-3.48022 Y5.71564
G01 X-3.48500 Y5.65520
G01 X-3.48500 Y5.36485
G01 X-3.48193 Y5.33068
G01 X-3.46159 Y5.16010
G01 X-3.44960 Y5.05391
G01 X-3.43005 Y4.86039
G01 X-3.41993 Y4.74632
G01 X-3.40989 Y4.62315
G01 X-3.39665 Y4.44747
G01 X-3.39661 Y4.37598
G01 X-3.39804 Y4.29892
G01 X-3.40228 Y4.21955
G01 X-3.40941 Y4.13643
G01 X-3.41934 Y4.05101
G01 X-3.43204 Y3.96318
G01 X-3.44763 Y3.87214
G01 X-3.46604 Y3.77831
G01 X-3.48734 Y3.68137
G01 X-3.51133 Y3.58225
G01 X-3.53822 Y3.48002
G01 X-3.56792 Y3.37499
G01 X-3.60053 Y3.26693
G01 X-3.63587 Y3.15630
G01 X-3.67405 Y3.04286
G01 X-3.71497 Y2.92681
G01 X-3.75878 Y2.80774
G01 X-3.88809 Y2.46330
G01 X-3.79307 Y2.42876
G01 X-3.68399 Y2.39192
G01 X-3.57488 Y2.35789
G01 X-3.46581 Y2.32668
G01 X-3.35673 Y2.29829
G01 X-3.24765 Y2.27271
G01 X-3.13860 Y2.24994
G01 X-3.02954 Y2.22999
G01 X-2.92048 Y2.21285
G01 X-2.81142 Y2.19853
G01 X-2.70240 Y2.18702
G01 X-2.59334 Y2.17832
G01 X-2.48432 Y2.17243
G01 X-2.48473 Y2.16244
G01 X-2.37542 Y2.15935
G01 X-2.26612 Y2.15909
G01 X-2.15890 Y2.16160
G01 X-2.09325 Y2.23343
G01 X-2.02857 Y2.30680
G01 X-1.96627 Y2.38015
G01 X-1.90632 Y2.45351
G01 X-1.84874 Y2.52687
G01 X-1.79353 Y2.60022
G01 X-1.74068 Y2.67357
G01 X-1.69021 Y2.74691
G01 X-1.64209 Y2.82027
G01 X-1.59635 Y2.89359
G01 X-1.55297 Y2.96694
G01 X-1.51197 Y3.04025
G01 X-1.47332 Y3.11358
G01 X-1.43704 Y3.18690
G01 X-1.40313 Y3.26022
G01 X-1.37156 Y3.33356
G01 X-1.32917 Y3.43747
G01 X-1.30878 Y3.49141
G01 X-1.28969 Y3.54535
G01 X-1.27189 Y3.59929
G01 X-1.25540 Y3.65324
G01 X-1.24021 Y3.70717
G01 X-1.22632 Y3.76108
G01 X-1.21441 Y3.81211
G01 X-1.58831 Y4.12852
G01 X-1.63363 Y4.16615
G01 X-1.67790 Y4.20146
G01 X-1.83319 Y4.32265
G01 X-1.86494 Y4.34667
G01 X-1.89629 Y4.36887
G01 X-1.97667 Y4.42382
G01 X-2.00264 Y4.44081
G01 X-2.02862 Y4.45626
G01 X-2.15476 Y4.52684
G01 X-2.17671 Y4.54109
G01 X-2.22063 Y4.57127
G01 X-2.23987 Y4.58524
G01 X-2.25845 Y4.60027
G01 X-2.29841 Y4.63440
G01 X-2.31558 Y4.64986
G01 X-2.33170 Y4.66599
G01 X-2.36769 Y4.70391
G01 X-2.38333 Y4.72129
G01 X-2.39793 Y4.73933
G01 X-2.43002 Y4.78115
G01 X-2.44457 Y4.80119
G01 X-2.45832 Y4.82238
G01 X-2.48648 Y4.86832
G01 X-2.50053 Y4.89271
G01 X-2.51338 Y4.91796
G01 X-2.53730 Y4.96812
G01 X-2.55096 Y4.99889
G01 X-2.56316 Y5.03076
G01 X-2.58249 Y5.08534
G01 X-2.59543 Y5.12533
G01 X-2.60650 Y5.16683
G01 X-2.62806 Y5.25908
G01 X-2.64028 Y5.36708
G01 X-2.67706 Y5.60434
G01 X-2.74707 Y5.97607
G01 X-2.76979 Y6.08928
G01 X-2.99644 Y7.16176
G01 X-3.06882 Y7.49445
G01 X-3.13420 Y7.49317
G01 X-3.20359 Y7.49085
G01 X-3.27305 Y7.48754
G01 X-3.33819 Y7.48351
G01 X-3.39160 Y6.84985
G01 X-3.46023 Y6.05264
G01 X-3.49018 Y5.71652
G01 X-3.49500 Y5.65557
G01 X-3.49500 Y5.36440
G01 X-3.49188 Y5.32966
G01 X-3.47153 Y5.15897
G01 X-3.45954 Y5.05285
G01 X-3.44001 Y4.85948
G01 X-3.42989 Y4.74546
G01 X-3.41986 Y4.62238
G01 X-3.40663 Y4.44672
G01 X-3.40661 Y4.37616
G01 X-3.40803 Y4.29945
G01 X-3.41227 Y4.21992
G01 X-3.41934 Y4.13759
G01 X-3.42924 Y4.05244
G01 X-3.44194 Y3.96461
G01 X-3.45748 Y3.87383
G01 X-3.47585 Y3.78024
G01 X-3.49706 Y3.68373
G01 X-3.52108 Y3.58451
G01 X-3.54789 Y3.48257
G01 X-3.57755 Y3.37772
G01 X-3.61005 Y3.26997
G01 X-3.64533 Y3.15956
G01 X-3.68348 Y3.04619
G01 X-3.72442 Y2.93007
G01 X-3.76817 Y2.81120
G01 X-3.90100 Y2.45735
G01 X-3.79638 Y2.41932
G01 X-3.68706 Y2.38241
G01 X-3.57776 Y2.34831
G01 X-3.46844 Y2.31704
G01 X-3.35914 Y2.28858
G01 X-3.24982 Y2.26294
G01 X-3.14053 Y2.24013
G01 X-3.03122 Y2.22013
G01 X-2.92193 Y2.20296
G01 X-2.81262 Y2.18860
G01 X-2.70330 Y2.17706
G01 X-2.59402 Y2.16834
G01 X-2.48473 Y2.16244
G04 P0 ( dwell for no time -- G64 should not smooth over this point )
G00 Z0.08000 ( retract )

G00 X-3.91091 Y2.45942 ( rapid move to begin. )
G01 F3.00000
G01 Z-0.00800
G04 P0 ( dwell for no time -- G64 should not smooth over this point )
G01 F6.00000
G01 X-3.91091 Y2.45942
G01 X-3.77754 Y2.81468
G01 X-3.73382 Y2.93350
G01 X-3.69292 Y3.04948
G01 X-3.65485 Y3.16263
G01 X-3.61958 Y3.27299
G01 X-3.58716 Y3.38047
G01 X-3.55755 Y3.48515
G01 X-3.53076 Y3.58701
G01 X-3.50679 Y3.68604
G01 X-3.48565 Y3.78222
G01 X-3.46733 Y3.87559
G01 X-3.45183 Y3.96610
G01 X-3.43915 Y4.05379
G01 X-3.42929 Y4.13867
G01 X-3.42224 Y4.22069
G01 X-3.41802 Y4.29989
G01 X-3.41661 Y4.37629
G01 X-3.41661 Y4.44616
G01 X-3.42982 Y4.62157
G01 X-3.43986 Y4.74463
G01 X-3.44997 Y4.85854
G01 X-3.46948 Y5.05173
G01 X-3.48146 Y5.15779
G01 X-3.50182 Y5.32860
G01 X-3.50498 Y5.36373
G01 X-3.50500 Y5.65575
G01 X-3.50014 Y5.71741
G01 X-3.47019 Y6.05351
G01 X-3.40157 Y6.85070
G01 X-3.34819 Y7.48395
G01 X-3.46345 Y7.50026
G01 X-3.58333 Y7.51426
G01 X-3.70321 Y7.52529
G01 X-3.82306 Y7.53335
G01 X-3.94295 Y7.53843
G01 X-4.06280 Y7.54055
G01 X-4.18269 Y7.53970
G01 X-4.29859 Y7.53601
G01 X-4.55013 Y6.15119
G01 X-4.56022 Y6.09316
G01 X-4.56919 Y6.03626
G01 X-4.57705 Y5.98051
G01 X-4.58380 Y5.92583
G01 X-4.58943 Y5.87230
G01 X-4.59396 Y5.81987
G01 X-4.59738 Y5.76855
G01 X-4.59967 Y5.71870
G01 X-4.59032 Y5.63111
G01 X-4.58473 Y5.57106
G01 X-4.57084 Y5.38696
G01 X-4.56014 Y5.25536
G01 X-4.54134 Y5.05157
G01 X-4.51940 Y4.84963
G01 X-4.49817 Y4.67140
G01 X-4.49502 Y4.63626
G01 X-4.49500 Y4.34424
G01 X-4.49986 Y4.28258
G01 X-4.51044 Y4.16393
G01 X-4.50788 Y4.11301
G01 X-4.50432 Y4.06077
G01 X-4.49979 Y4.00758
G01 X-4.49428 Y3.95339
G01 X-4.48778 Y3.89820
G01 X-4.48031 Y3.84203
G01 X-4.47186 Y3.78490
G01 X-4.46244 Y3.72682
G01 X-4.44063 Y3.60761
G01 X-4.41491 Y3.48449
G01 X-4.38528 Y3.35745
G01 X-4.35171 Y3.22645
G01 X-4.14832 Y2.46521
G01 X-4.02970 Y2.46082
G01 X-3.91091 Y2.45942
G01 X-3.91780 Y2.46950
G01 X-3.78691 Y2.81818
G01 X-3.74322 Y2.93689
G01 X-3.70238 Y3.05274
G01 X-3.66435 Y3.16576
G01 X-3.62914 Y3.27594
G01 X-3.59676 Y3.38328
G01 X-3.56719 Y3.48779
G01 X-3.54046 Y3.58945
G01 X-3.51654 Y3.68826
G01 X-3.49544 Y3.78425
G01 X-3.47716 Y3.87739
G01 X-3.46171 Y3.96766
G01 X-3.44906 Y4.05510
G01 X-3.43924 Y4.13967
G01 X-3.43222 Y4.22138
G01 X-3.42801 Y4.30026
G01 X-3.42661 Y4.37640
G01 X-3.42661 Y4.44578
G01 X-3.43979 Y4.62080
G01 X-3.44982 Y4.74381
G01 X-3.45993 Y4.85759
G01 X-3.47942 Y5.05066
G01 X-3.49139 Y5.15664
G01 X-3.51176 Y5.32747
G01 X-3.51494 Y5.36284
G01 X-3.51500 Y5.65575
G01 X-3.51010 Y5.71830
G01 X-3.48016 Y6.05436
G01 X-3.41153 Y6.85155
G01 X-3.35894 Y7.47537
G01 X-3.46471 Y7.49034
G01 X-3.58436 Y7.50432
G01 X-3.70398 Y7.51532
G01 X-3.82361 Y7.52336
G01 X-3.94325 Y7.52844
G01 X-4.06287 Y7.53055
G01 X-4.18250 Y7.52970
G01 X-4.29019 Y7.52627
G01 X-4.54029 Y6.14942
G01 X-4.55035 Y6.09152
G01 X-4.55930 Y6.03480
G01 X-4.56714 Y5.97917
G01 X-4.57386 Y5.92469
G01 X-4.57948 Y5.87135
G01 X-4.58399 Y5.81911
G01 X-4.58739 Y5.76799
G01 X-4.58964 Y5.71900
G01 X-4.58038 Y5.63224
G01 X-4.57478 Y5.57199
G01 X-4.56020 Y5.37920
G01 X-4.55018 Y5.25619
G01 X-4.54007 Y5.14241
G01 X-4.52058 Y4.94941
G01 X-4.50861 Y4.84341
G01 X-4.48824 Y4.67253
G01 X-4.48500 Y4.63582
G01 X-4.48500 Y4.34424
G01 X-4.48989 Y4.28177
G01 X-4.50042 Y4.16374
G01 X-4.49789 Y4.11360
G01 X-4.49435 Y4.06154
G01 X-4.48983 Y4.00849
G01 X-4.48434 Y3.95449
G01 X-4.47786 Y3.89944
G01 X-4.47041 Y3.84344
G01 X-4.46198 Y3.78644
G01 X-4.45258 Y3.72852
G01 X-4.43082 Y3.60954
G01 X-4.40515 Y3.48666
G01 X-4.37556 Y3.35983
G01 X-4.34203 Y3.22897
G01 X-4.14057 Y2.47493
G01 X-4.02947 Y2.47082
G01 X-3.91780 Y2.46950
G04 P0 ( dwell for no time -- G64 should not smooth over this point )
G00 Z0.08000 ( retract )

G00 X-5.41655 Y2.24094 ( rapid move to begin. )
G01 F3.00000
G01 Z-0.00800
G04 P0 ( dwell for no time -- G64 should not smooth over this point )
G01 F6.00000
G01 X-5.41655 Y2.24094
G01 X-5.33236 Y2.24460
G01 X-5.24819 Y2.24987
G01 X-5.16397 Y2.25676
G01 X-5.07980 Y2.26525
G01 X-4.99560 Y2.27536
G01 X-4.91142 Y2.28708
G01 X-4.82725 Y2.30042
G01 X-4.74306 Y2.31536
G01 X-4.65888 Y2.33192
G01 X-4.57469 Y2.35008
G01 X-4.49049 Y2.36987
G01 X-4.40630 Y2.39126
G01 X-4.32212 Y2.41426
G01 X-4.23791 Y2.43888
G01 X-4.15827 Y2.46370
G01 X-4.36137 Y3.22388
G01 X-4.39500 Y3.35512
G01 X-4.42467 Y3.48228
G01 X-4.45043 Y3.60563
G01 X-4.47230 Y3.72517
G01 X-4.48174 Y3.78335
G01 X-4.49022 Y3.84070
G01 X-4.49770 Y3.89693
G01 X-4.50421 Y3.95225
G01 X-4.50975 Y4.00668
G01 X-4.51430 Y4.06005
G01 X-4.51786 Y4.11236
G01 X-4.52044 Y4.16378
G01 X-4.50500 Y4.34443
G01 X-4.50500 Y4.63559
G01 X-4.50812 Y4.67032
G01 X-4.52847 Y4.84103
G01 X-4.54047 Y4.94724
G01 X-4.55998 Y5.14051
G01 X-4.57011 Y5.25454
G01 X-4.58014 Y5.37762
G01 X-4.59469 Y5.57017
G01 X-4.60027 Y5.63013
G01 X-4.60967 Y5.71878
G01 X-4.60736 Y5.76907
G01 X-4.60393 Y5.82059
G01 X-4.59938 Y5.87330
G01 X-4.59373 Y5.92702
G01 X-4.58697 Y5.98176
G01 X-4.57909 Y6.03770
G01 X-4.57009 Y6.09475
G01 X-4.55998 Y6.15290
G01 X-4.30856 Y7.53703
G01 X-4.37995 Y7.55269
G01 X-4.45596 Y7.56812
G01 X-4.53202 Y7.58231
G01 X-4.60808 Y7.59524
G01 X-4.68410 Y7.60691
G01 X-4.76013 Y7.61732
G01 X-4.83618 Y7.62649
G01 X-4.91223 Y7.63440
G01 X-4.98825 Y7.64105
G01 X-5.06429 Y7.64645
G01 X-5.14034 Y7.65059
G01 X-5.21636 Y7.65348
G01 X-5.29240 Y7.65512
G01 X-5.36842 Y7.65550
G01 X-5.44446 Y7.65463
G01 X-5.51622 Y7.65262
G01 X-5.73803 Y5.74242
G01 X-5.74313 Y5.70337
G01 X-5.74920 Y5.66554
G01 X-5.82752 Y5.22136
G01 X-5.82583 Y5.18848
G01 X-5.82580 Y5.15682
G01 X-5.82730 Y5.12261
G01 X-5.82977 Y5.09868
G01 X-5.83380 Y5.07161
G01 X-5.83946 Y5.04584
G01 X-5.84788 Y5.01724
G01 X-5.85994 Y4.98702
G01 X-5.87349 Y4.96124
G01 X-5.89264 Y4.93335
G01 X-5.90501 Y4.91886
G01 X-5.92317 Y4.90113
G01 X-5.94395 Y4.88472
G01 X-5.97366 Y4.86654
G01 X-6.03051 Y4.83984
G01 X-6.04109 Y4.82884
G01 X-6.05178 Y4.81636
G01 X-6.06206 Y4.80296
G01 X-6.07193 Y4.78862
G01 X-6.08139 Y4.77336
G01 X-6.09040 Y4.75720
G01 X-6.10725 Y4.72195
G01 X-6.12239 Y4.68299
G01 X-6.13583 Y4.64031
G01 X-6.14757 Y4.59387
G01 X-6.15761 Y4.54365
G01 X-6.20613 Y4.26851
G01 X-6.22068 Y4.19390
G01 X-6.23865 Y4.11574
G01 X-6.26004 Y4.03408
G01 X-6.28474 Y3.94931
G01 X-6.31286 Y3.86105
G01 X-6.34440 Y3.76931
G01 X-6.37928 Y3.67430
G01 X-6.41752 Y3.57600
G01 X-6.74631 Y2.75262
G01 X-6.84287 Y2.42394
G01 X-6.76348 Y2.40156
G01 X-6.67931 Y2.37943
G01 X-6.59511 Y2.35891
G01 X-6.51092 Y2.34001
G01 X-6.42675 Y2.32272
G01 X-6.34257 Y2.30704
G01 X-6.25836 Y2.29297
G01 X-6.17419 Y2.28051
G01 X-6.08999 Y2.26967
G01 X-6.00582 Y2.26044
G01 X-5.92165 Y2.25282
G01 X-5.83745 Y2.24681
G01 X-5.75326 Y2.24241
G01 X-5.66907 Y2.23962
G01 X-5.58491 Y2.23845
G01 X-5.50071 Y2.23889
G01 X-5.41655 Y2.24094
G01 X-5.41689 Y2.25093
G01 X-5.33289 Y2.25458
G01 X-5.24890 Y2.25985
G01 X-5.16489 Y2.26672
G01 X-5.08091 Y2.27519
G01 X-4.99689 Y2.28528
G01 X-4.91290 Y2.29698
G01 X-4.82889 Y2.31028
G01 X-4.74490 Y2.32519
G01 X-4.66088 Y2.34172
G01 X-4.57686 Y2.35985
G01 X-4.49287 Y2.37958
G01 X-4.40885 Y2.40093
G01 X-4.32483 Y2.42389
G01 X-4.24082 Y2.44846
G01 X-4.17040 Y2.47039
G01 X-4.37104 Y3.22130
G01 X-4.40474 Y3.35284
G01 X-4.43448 Y3.48034
G01 X-4.46022 Y3.60358
G01 X-4.48217 Y3.72356
G01 X-4.49161 Y3.78175
G01 X-4.50010 Y3.83917
G01 X-4.50764 Y3.89584
G01 X-4.51417 Y3.95132
G01 X-4.51971 Y4.00583
G01 X-4.52427 Y4.05937
G01 X-4.52785 Y4.11195
G01 X-4.53043 Y4.16327
G01 X-4.51500 Y4.34480
G01 X-4.51500 Y4.63514
G01 X-4.51807 Y4.66932
G01 X-4.53841 Y4.83989
G01 X-4.55040 Y4.94610
G01 X-4.56994 Y5.13961
G01 X-4.58007 Y5.25368
G01 X-4.59011 Y5.37685
G01 X-4.60466 Y5.56932
G01 X-4.61022 Y5.62917
G01 X-4.61966 Y5.71924
G01 X-4.61735 Y5.76953
G01 X-4.61391 Y5.82125
G01 X-4.60933 Y5.87434
G01 X-4.60368 Y5.92797
G01 X-4.59686 Y5.98324
G01 X-4.58899 Y6.03910
G01 X-4.57997 Y6.09631
G01 X-4.56981 Y6.15473
G01 X-4.32013 Y7.52933
G01 X-4.38200 Y7.54291
G01 X-4.45789 Y7.55831
G01 X-4.53375 Y7.57246
G01 X-4.60965 Y7.58536
G01 X-4.68553 Y7.59701
G01 X-4.76139 Y7.60740
G01 X-4.83728 Y7.61655
G01 X-4.91316 Y7.62444
G01 X-4.98904 Y7.63108
G01 X-5.06491 Y7.63647
G01 X-5.14078 Y7.64060
G01 X-5.21668 Y7.64349
G01 X-5.29254 Y7.64512
G01 X-5.36841 Y7.64550
G01 X-5.44425 Y7.64463
G01 X-5.50728 Y7.64287
G01 X-5.72812 Y5.74105
G01 X-5.73325 Y5.70178
G01 X-5.73937 Y5.66373
G01 X-5.81748 Y5.22074
G01 X-5.81583 Y5.18849
G01 X-5.81580 Y5.15656
G01 X-5.81731 Y5.12211
G01 X-5.81985 Y5.09737
G01 X-5.82392 Y5.07006
G01 X-5.82973 Y5.04350
G01 X-5.83846 Y5.01390
G01 X-5.85092 Y4.98272
G01 X-5.86496 Y4.95602
G01 X-5.88471 Y4.92726
G01 X-5.89776 Y4.91197
G01 X-5.91629 Y4.89387
G01 X-5.93828 Y4.87648
G01 X-5.96889 Y4.85775
G01 X-6.02456 Y4.83159
G01 X-6.03368 Y4.82211
G01 X-6.04401 Y4.81006
G01 X-6.05397 Y4.79708
G01 X-6.06356 Y4.78315
G01 X-6.07276 Y4.76829
G01 X-6.08151 Y4.75261
G01 X-6.09806 Y4.71797
G01 X-6.11294 Y4.67968
G01 X-6.12620 Y4.63758
G01 X-6.13782 Y4.59166
G01 X-6.14778 Y4.54181
G01 X-6.19631 Y4.26660
G01 X-6.21097 Y4.19150
G01 X-6.22890 Y4.11350
G01 X-6.25044 Y4.03128
G01 X-6.27514 Y3.94652
G01 X-6.30333 Y3.85801
G01 X-6.33501 Y3.76586
G01 X-6.36986 Y3.67095
G01 X-6.40820 Y3.57238
G01 X-6.73685 Y2.74934
G01 X-6.83042 Y2.43083
G01 X-6.76086 Y2.41121
G01 X-6.67683 Y2.38912
G01 X-6.59284 Y2.36865
G01 X-6.50882 Y2.34979
G01 X-6.42481 Y2.33253
G01 X-6.34082 Y2.31689
G01 X-6.25683 Y2.30285
G01 X-6.17281 Y2.29042
G01 X-6.08881 Y2.27960
G01 X-6.00483 Y2.27039
G01 X-5.92082 Y2.26278
G01 X-5.83685 Y2.25679
G01 X-5.75283 Y2.25240
G01 X-5.66883 Y2.24962
G01 X-5.58487 Y2.24845
G01 X-5.50085 Y2.24889
G01 X-5.41689 Y2.25093
G04 P0 ( dwell for no time -- G64 should not smooth over this point )
G00 Z0.08000 ( retract )

G00 X-7.07399 Y2.44128 ( rapid move to begin. )
G01 F3.00000
G01 Z-0.00800
G04 P0 ( dwell for no time -- G64 should not smooth over this point )
G01 F6.00000
G01 X-7.07399 Y2.44128
G01 X-6.96152 Y2.43706
G01 X-6.86027 Y2.43566
G01 X-6.76593 Y2.75678
G01 X-6.66647 Y4.69668
G01 X-6.66605 Y4.73352
G01 X-6.66860 Y4.76872
G01 X-6.67407 Y4.80209
G01 X-6.67791 Y4.81829
G01 X-6.79284 Y5.18414
G01 X-6.79788 Y5.20239
G01 X-6.80151 Y5.22038
G01 X-6.80388 Y5.23857
G01 X-6.80498 Y5.25646
G01 X-6.81246 Y5.52650
G01 X-6.81561 Y5.59346
G01 X-6.82153 Y5.66631
G01 X-6.83023 Y5.74519
G01 X-6.84171 Y5.83012
G01 X-6.85597 Y5.92105
G01 X-6.87301 Y6.01798
G01 X-6.89285 Y6.12094
G01 X-6.91547 Y6.22988
G01 X-6.94086 Y6.34477
G01 X-6.96907 Y6.46575
G01 X-7.00003 Y6.59260
G01 X-7.03379 Y6.72548
G01 X-7.07033 Y6.86432
G01 X-7.10967 Y7.00919
G01 X-7.15178 Y7.16001
G01 X-7.18580 Y7.27881
G01 X-7.41008 Y6.80780
G01 X-7.39116 Y5.82115
G01 X-7.39072 Y5.77323
G01 X-7.39126 Y5.72659
G01 X-7.39277 Y5.68144
G01 X-7.39526 Y5.63710
G01 X-7.39876 Y5.59352
G01 X-7.40318 Y5.55184
G01 X-7.40861 Y5.51092
G01 X-7.41506 Y5.47092
G01 X-7.45847 Y5.22475
G01 X-7.46412 Y5.18821
G01 X-7.46801 Y5.15274
G01 X-7.49329 Y4.85935
G01 X-7.49530 Y4.82505
G01 X-7.49549 Y4.78985
G01 X-7.49386 Y4.75353
G01 X-7.49043 Y4.71610
G01 X-7.48516 Y4.67756
G01 X-7.47807 Y4.63791
G01 X-7.46915 Y4.59716
G01 X-7.45837 Y4.55518
G01 X-7.42427 Y4.43130
G01 X-7.41212 Y4.38501
G01 X-7.40071 Y4.33722
G01 X-7.38983 Y4.28702
G01 X-7.37975 Y4.23559
G01 X-7.37024 Y4.18180
G01 X-7.36149 Y4.12673
G01 X-7.35336 Y4.06959
G01 X-7.34588 Y4.01042
G01 X-7.33909 Y3.94968
G01 X-7.33297 Y3.88712
G01 X-7.32753 Y3.82293
G01 X-7.32272 Y3.75648
G01 X-7.31515 Y3.61869
G01 X-7.31024 Y3.47392
G01 X-7.28569 Y2.45656
G01 X-7.18645 Y2.44815
G01 X-7.07399 Y2.44128
G01 X-7.07449 Y2.43129
G01 X-6.96178 Y2.42707
G01 X-6.85282 Y2.42556
G01 X-6.75600 Y2.75509
G01 X-6.65648 Y4.69636
G01 X-6.65604 Y4.73382
G01 X-6.65866 Y4.76978
G01 X-6.66109 Y4.78712
G01 X-6.66428 Y4.80416
G01 X-6.66824 Y4.82084
G01 X-6.78330 Y5.18715
G01 X-6.78808 Y5.20439
G01 X-6.79160 Y5.22169
G01 X-6.79387 Y5.23885
G01 X-6.79499 Y5.25674
G01 X-6.80247 Y5.52688
G01 X-6.80563 Y5.59411
G01 X-6.81158 Y5.66728
G01 X-6.82030 Y5.74643
G01 X-6.83181 Y5.83155
G01 X-6.84610 Y5.92268
G01 X-6.86318 Y6.01982
G01 X-6.88304 Y6.12289
G01 X-6.90569 Y6.23196
G01 X-6.93112 Y6.34703
G01 X-6.95933 Y6.46802
G01 X-6.99033 Y6.59504
G01 X-7.02410 Y6.72797
G01 X-7.06067 Y6.86693
G01 X-7.10002 Y7.01185
G01 X-7.14216 Y7.16273
G01 X-7.18345 Y7.30693
G01 X-7.42012 Y6.80996
G01 X-7.40116 Y5.82091
G01 X-7.40072 Y5.77334
G01 X-7.40126 Y5.72703
G01 X-7.40276 Y5.68177
G01 X-7.40525 Y5.63754
G01 X-7.40869 Y5.59470
G01 X-7.41312 Y5.55289
G01 X-7.41854 Y5.51210
G01 X-7.42491 Y5.47265
G01 X-7.46834 Y5.22637
G01 X-7.47404 Y5.18952
G01 X-7.47797 Y5.15368
G01 X-7.50327 Y4.86007
G01 X-7.50530 Y4.82536
G01 X-7.50549 Y4.78965
G01 X-7.50384 Y4.75285
G01 X-7.50036 Y4.71497
G01 X-7.49504 Y4.67600
G01 X-7.48789 Y4.63597
G01 X-7.47888 Y4.59484
G01 X-7.46803 Y4.55260
G01 X-7.43394 Y4.42876
G01 X-7.42184 Y4.38269
G01 X-7.41043 Y4.33490
G01 X-7.39967 Y4.28519
G01 X-7.38955 Y4.23357
G01 X-7.38013 Y4.18032
G01 X-7.37136 Y4.12516
G01 X-7.36326 Y4.06818
G01 X-7.35582 Y4.00938
G01 X-7.34905 Y3.94877
G01 X-7.34293 Y3.88627
G01 X-7.33749 Y3.82203
G01 X-7.33271 Y3.75593
G01 X-7.32514 Y3.61835
G01 X-7.32024 Y3.47358
G01 X-7.29547 Y2.44735
G01 X-7.18717 Y2.43818
G01 X-7.07449 Y2.43129
G04 P0 ( dwell for no time -- G64 should not smooth over this point )
G00 Z0.08000 ( retract )

G00 X-7.78774 Y2.62633 ( rapid move to begin. )
G01 F3.00000
G01 Z-0.00800
G04 P0 ( dwell for no time -- G64 should not smooth over this point )
G01 F6.00000
G01 X-7.78774 Y2.62633
G01 X-7.73817 Y2.57898
G01 X-7.68438 Y2.52874
G01 X-7.57775 Y2.43237
G01 X-7.51350 Y2.43679
G01 X-7.44306 Y2.44269
G01 X-7.37259 Y2.44964
G01 X-7.31569 Y2.45610
G01 X-7.34023 Y3.47295
G01 X-7.34513 Y3.61751
G01 X-7.35267 Y3.75471
G01 X-7.35743 Y3.82046
G01 X-7.36285 Y3.88451
G01 X-7.36894 Y3.94665
G01 X-7.37567 Y4.00696
G01 X-7.38308 Y4.06549
G01 X-7.39113 Y4.12213
G01 X-7.39985 Y4.17698
G01 X-7.40922 Y4.22993
G01 X-7.41924 Y4.28109
G01 X-7.42992 Y4.33041
G01 X-7.44126 Y4.37788
G01 X-7.45326 Y4.42359
G01 X-7.48739 Y4.54759
G01 X-7.49828 Y4.58996
G01 X-7.50744 Y4.63179
G01 X-7.51475 Y4.67259
G01 X-7.52020 Y4.71237
G01 X-7.52377 Y4.75114
G01 X-7.52547 Y4.78888
G01 X-7.52529 Y4.82560
G01 X-7.52320 Y4.86172
G01 X-7.49789 Y5.15547
G01 X-7.49391 Y5.19181
G01 X-7.48804 Y5.22980
G01 X-7.44463 Y5.47600
G01 X-7.43832 Y5.51508
G01 X-7.43299 Y5.55521
G01 X-7.42861 Y5.59650
G01 X-7.42520 Y5.63897
G01 X-7.42275 Y5.68260
G01 X-7.42125 Y5.72742
G01 X-7.42072 Y5.77341
G01 X-7.42116 Y5.82064
G01 X-7.43942 Y6.77307
G01 X-7.86412 Y6.30472
G01 X-7.91615 Y6.24831
G01 X-7.96781 Y6.19500
G01 X-8.02006 Y6.14384
G01 X-8.07868 Y6.08969
G01 X-8.17301 Y6.00758
G01 X-8.23856 Y5.78859
G01 X-8.28363 Y5.61106
G01 X-8.29322 Y5.57069
G01 X-8.30115 Y5.53174
G01 X-8.30743 Y5.49415
G01 X-8.31208 Y5.45774
G01 X-8.32033 Y5.38103
G01 X-8.32336 Y5.33888
G01 X-8.32603 Y5.26236
G01 X-8.32751 Y5.23820
G01 X-8.33007 Y5.21549
G01 X-8.34587 Y5.10307
G01 X-8.34865 Y5.08652
G01 X-8.35837 Y5.04119
G01 X-8.36082 Y5.01790
G01 X-8.36100 Y4.99473
G01 X-8.35890 Y4.97127
G01 X-8.35355 Y4.93413
G01 X-8.33609 Y4.83507
G01 X-8.33297 Y4.81400
G01 X-8.33099 Y4.79316
G01 X-8.32287 Y4.67715
G01 X-8.31855 Y4.59031
G01 X-8.31609 Y4.56478
G01 X-8.31268 Y4.53858
G01 X-8.30833 Y4.51179
G01 X-8.29077 Y4.42682
G01 X-8.26015 Y4.28693
G01 X-8.24057 Y4.21219
G01 X-8.21718 Y4.13337
G01 X-8.11068 Y3.79307
G01 X-8.08469 Y3.70810
G01 X-8.05874 Y3.61952
G01 X-7.95418 Y3.25488
G01 X-7.90737 Y3.08690
G01 X-7.86047 Y2.90923
G01 X-7.78774 Y2.62633
G01 X-7.79671 Y2.62108
G01 X-7.74505 Y2.57172
G01 X-7.69117 Y2.52140
G01 X-7.63606 Y2.47106
G01 X-7.58127 Y2.42210
G01 X-7.51275 Y2.42682
G01 X-7.44216 Y2.43273
G01 X-7.37157 Y2.43970
G01 X-7.30547 Y2.44720
G01 X-7.33023 Y3.47327
G01 X-7.33514 Y3.61795
G01 X-7.34269 Y3.75534
G01 X-7.34746 Y3.82129
G01 X-7.35290 Y3.88541
G01 X-7.35899 Y3.94769
G01 X-7.36575 Y4.00816
G01 X-7.37317 Y4.06682
G01 X-7.38124 Y4.12362
G01 X-7.38999 Y4.17863
G01 X-7.39939 Y4.23179
G01 X-7.40945 Y4.28313
G01 X-7.42017 Y4.33261
G01 X-7.43156 Y4.38032
G01 X-7.44360 Y4.42617
G01 X-7.47771 Y4.55008
G01 X-7.48864 Y4.59262
G01 X-7.49768 Y4.63392
G01 X-7.50491 Y4.67435
G01 X-7.51029 Y4.71373
G01 X-7.51381 Y4.75205
G01 X-7.51548 Y4.78933
G01 X-7.51529 Y4.82581
G01 X-7.51324 Y4.86086
G01 X-7.48792 Y5.15461
G01 X-7.48397 Y5.19072
G01 X-7.47819 Y5.22806
G01 X-7.43476 Y5.47436
G01 X-7.42843 Y5.51361
G01 X-7.42306 Y5.55402
G01 X-7.41866 Y5.59558
G01 X-7.41522 Y5.63827
G01 X-7.41275 Y5.68217
G01 X-7.41125 Y5.72722
G01 X-7.41072 Y5.77341
G01 X-7.41116 Y5.82082
G01 X-7.42990 Y6.79839
G01 X-7.87154 Y6.31142
G01 X-7.92333 Y6.25526
G01 X-7.97509 Y6.20186
G01 X-8.02685 Y6.15117
G01 X-8.08541 Y6.09709
G01 X-8.18173 Y6.01326
G01 X-8.24821 Y5.79125
G01 X-8.29335 Y5.61342
G01 X-8.30299 Y5.57283
G01 X-8.31098 Y5.53357
G01 X-8.31732 Y5.49561
G01 X-8.32202 Y5.45889
G01 X-8.33029 Y5.38192
G01 X-8.33334 Y5.33941
G01 X-8.33601 Y5.26296
G01 X-8.33744 Y5.23933
G01 X-8.34001 Y5.21662
G01 X-8.35574 Y5.10472
G01 X-8.35842 Y5.08868
G01 X-8.36827 Y5.04270
G01 X-8.37081 Y5.01847
G01 X-8.37101 Y4.99432
G01 X-8.36884 Y4.97014
G01 X-8.36342 Y4.93249
G01 X-8.34593 Y4.83333
G01 X-8.34292 Y4.81305
G01 X-8.34096 Y4.79246
G01 X-8.33285 Y4.67638
G01 X-8.32852 Y4.58952
G01 X-8.32603 Y4.56365
G01 X-8.32258 Y4.53713
G01 X-8.31817 Y4.50997
G01 X-8.30056 Y4.42478
G01 X-8.26988 Y4.28460
G01 X-8.25021 Y4.20950
G01 X-8.22674 Y4.13044
G01 X-8.12022 Y3.79006
G01 X-8.09428 Y3.70529
G01 X-8.06835 Y3.61676
G01 X-7.96382 Y3.25223
G01 X-7.91698 Y3.08415
G01 X-7.87017 Y2.90677
G01 X-7.79671 Y2.62108
G04 P0 ( dwell for no time -- G64 should not smooth over this point )
G00 Z0.08000 ( retract )

G00 X-7.82506 Y2.65101 ( rapid move to begin. )
G01 F3.00000
G01 Z-0.00800
G04 P0 ( dwell for no time -- G64 should not smooth over this point )
G01 F6.00000
G01 X-7.82506 Y2.65101
G01 X-7.88834 Y2.69048
G01 X-7.98032 Y2.74970
G01 X-8.06933 Y2.80892
G01 X-8.15544 Y2.86818
G01 X-8.30458 Y2.97261
G01 X-8.40969 Y3.04804
G01 X-8.50951 Y3.12343
G01 X-8.55737 Y3.16106
G01 X-8.60398 Y3.19874
G01 X-8.64926 Y3.23639
G01 X-8.69325 Y3.27406
G01 X-8.81340 Y3.37851
G01 X-8.87344 Y3.43197
G01 X-8.93050 Y3.48536
G01 X-8.98461 Y3.53872
G01 X-9.03588 Y3.59213
G01 X-9.13321 Y3.69651
G01 X-9.16889 Y3.73571
G01 X-9.20274 Y3.77483
G01 X-9.23483 Y3.81392
G01 X-9.26520 Y3.85306
G01 X-9.34386 Y3.95745
G01 X-9.36556 Y3.98700
G01 X-9.38608 Y4.01646
G01 X-9.40546 Y4.04591
G01 X-9.42376 Y4.07543
G01 X-9.48641 Y4.17971
G01 X-9.51223 Y4.22520
G01 X-9.55837 Y4.31723
G01 X-9.59975 Y4.41194
G01 X-9.61343 Y4.44845
G01 X-9.64930 Y4.55260
G01 X-9.65886 Y4.58288
G01 X-9.66671 Y4.61314
G01 X-9.69075 Y4.71729
G01 X-9.69612 Y4.74360
G01 X-9.70006 Y4.76991
G01 X-9.71284 Y4.87404
G01 X-9.71519 Y4.89834
G01 X-9.71625 Y4.92262
G01 X-9.71807 Y5.02676
G01 X-9.71786 Y5.05076
G01 X-9.71639 Y5.07477
G01 X-9.70727 Y5.17892
G01 X-9.70437 Y5.20434
G01 X-9.70010 Y5.22979
G01 X-9.67986 Y5.33393
G01 X-9.67348 Y5.36263
G01 X-9.66550 Y5.39135
G01 X-9.63297 Y5.49852
G01 X-9.62068 Y5.53385
G01 X-9.61028 Y5.56073
G01 X-9.56451 Y5.66797
G01 X-9.54519 Y5.71025
G01 X-9.52311 Y5.75255
G01 X-9.46533 Y5.85679
G01 X-9.44863 Y5.88557
G01 X-9.35787 Y5.86186
G01 X-9.30805 Y5.85071
G01 X-9.25850 Y5.84223
G01 X-9.15744 Y5.82702
G01 X-9.11912 Y5.82265
G01 X-9.07448 Y5.82010
G01 X-8.99453 Y5.81829
G01 X-8.96013 Y5.81809
G01 X-8.91762 Y5.82016
G01 X-8.80987 Y5.83145
G01 X-8.78028 Y5.83507
G01 X-8.75065 Y5.83977
G01 X-8.69398 Y5.85116
G01 X-8.54294 Y5.88612
G01 X-8.49368 Y5.89963
G01 X-8.44208 Y5.91539
G01 X-8.25852 Y5.97455
G01 X-8.20910 Y5.99204
G01 X-8.26756 Y5.79627
G01 X-8.31279 Y5.61810
G01 X-8.32247 Y5.57738
G01 X-8.33060 Y5.53747
G01 X-8.33715 Y5.49824
G01 X-8.34186 Y5.46140
G01 X-8.35018 Y5.38396
G01 X-8.35333 Y5.34020
G01 X-8.35599 Y5.26397
G01 X-8.35736 Y5.24117
G01 X-8.35986 Y5.21907
G01 X-8.37550 Y5.10781
G01 X-8.37803 Y5.09261
G01 X-8.38792 Y5.04642
G01 X-8.39073 Y5.02031
G01 X-8.39101 Y4.99423
G01 X-8.38866 Y4.96751
G01 X-8.38317 Y4.92934
G01 X-8.36567 Y4.83007
G01 X-8.36280 Y4.81076
G01 X-8.36090 Y4.79088
G01 X-8.35281 Y4.67517
G01 X-8.34848 Y4.58823
G01 X-8.34587 Y4.56116
G01 X-8.34233 Y4.53400
G01 X-8.33778 Y4.50603
G01 X-8.31673 Y4.40472
G01 X-8.28939 Y4.28020
G01 X-8.26954 Y4.20436
G01 X-8.24584 Y4.12450
G01 X-8.13933 Y3.78417
G01 X-8.11345 Y3.69958
G01 X-8.08756 Y3.61117
G01 X-7.98307 Y3.24677
G01 X-7.93629 Y3.07895
G01 X-7.88951 Y2.90169
G01 X-7.82506 Y2.65101
G04 P0 ( dwell for no time -- G64 should not smooth over this point )
G00 Z0.08000 ( retract )

G00 X-8.75953 Y4.73721 ( rapid move to begin. )
G01 F3.00000
G01 Z-0.00800
G04 P0 ( dwell for no time -- G64 should not smooth over this point )
G01 F6.00000
G01 X-8.75953 Y4.73721
G01 X-8.76599 Y4.72885
G01 X-8.77864 Y4.71667
G01 X-8.84239 Y4.67684
G01 X-8.91302 Y4.65113
G01 X-8.98745 Y4.64067
G01 X-9.06366 Y4.64623
G01 X-9.13469 Y4.66663
G01 X-9.18238 Y4.69195
G01 X-9.18939 Y4.69670
G01 X-9.19142 Y4.69878
G01 X-9.18554 Y4.70856
G01 X-9.00546 Y4.92317
G01 X-9.00122 Y4.92719
G01 X-8.98609 Y4.92844
G01 X-8.98119 Y4.92521
G01 X-8.76655 Y4.74511
G01 X-8.75953 Y4.73721
G04 P0 ( dwell for no time -- G64 should not smooth over this point )
G00 Z0.08000 ( retract )

G00 X-8.99178 Y4.93787 ( rapid move to begin. )
G01 F3.00000
G01 Z-0.00800
G04 P0 ( dwell for no time -- G64 should not smooth over this point )
G01 F6.00000
G01 X-8.99178 Y4.93787
G01 X-8.98347 Y4.93869
G01 X-8.97520 Y4.93324
G01 X-8.75970 Y4.75242
G01 X-8.75247 Y4.74483
G01 X-8.74804 Y4.73762
G01 X-8.75195 Y4.73011
G01 X-8.75864 Y4.72204
G01 X-8.77247 Y4.70877
G01 X-8.83799 Y4.66783
G01 X-8.91059 Y4.64140
G01 X-8.98710 Y4.63065
G01 X-9.06200 Y4.63583
G01 X-9.06629 Y4.63658
G01 X-9.13845 Y4.65733
G01 X-9.18754 Y4.68337
G01 X-9.19584 Y4.68899
G01 X-9.20301 Y4.69637
G01 X-9.19965 Y4.70530
G01 X-9.19358 Y4.71454
G01 X-9.01275 Y4.93004
G01 X-9.00565 Y4.93676
G01 X-8.99178 Y4.93787
G01 X-8.99332 Y4.94775
G01 X-8.98503 Y4.94864
G01 X-8.98020 Y4.94838
G01 X-8.96900 Y4.94109
G01 X-8.75306 Y4.75990
G01 X-8.74452 Y4.75095
G01 X-8.73759 Y4.73950
G01 X-8.73731 Y4.73748
G01 X-8.73786 Y4.73550
G01 X-8.74391 Y4.72414
G01 X-8.75150 Y4.71504
G01 X-8.76662 Y4.70065
G01 X-8.83396 Y4.65867
G01 X-8.90779 Y4.63179
G01 X-8.98636 Y4.62067
G01 X-9.06277 Y4.62586
G01 X-9.06898 Y4.62695
G01 X-9.14255 Y4.64821
G01 X-9.19247 Y4.67467
G01 X-9.20264 Y4.68164
G01 X-9.21088 Y4.69013
G01 X-9.21321 Y4.69404
G01 X-9.21355 Y4.69581
G01 X-9.20859 Y4.70984
G01 X-9.20142 Y4.72075
G01 X-9.02023 Y4.93669
G01 X-9.01003 Y4.94604
G01 X-8.99332 Y4.94775
G01 X-8.99479 Y4.95764
G01 X-8.98600 Y4.95859
G01 X-8.97945 Y4.95851
G01 X-8.97650 Y4.95768
G01 X-8.96257 Y4.94875
G01 X-8.74542 Y4.76642
G01 X-8.73570 Y4.75574
G01 X-8.72951 Y4.74566
G01 X-8.72744 Y4.73988
G01 X-8.72733 Y4.73679
G01 X-8.72899 Y4.73088
G01 X-8.73621 Y4.71776
G01 X-8.74455 Y4.70784
G01 X-8.76110 Y4.69231
G01 X-8.83029 Y4.64936
G01 X-8.90462 Y4.62231
G01 X-8.98523 Y4.61073
G01 X-9.06346 Y4.61588
G01 X-9.07174 Y4.61734
G01 X-9.14702 Y4.63926
G01 X-9.19716 Y4.66584
G01 X-9.20747 Y4.67271
G01 X-9.21877 Y4.68399
G01 X-9.22254 Y4.69044
G01 X-9.22355 Y4.69577
G01 X-9.22259 Y4.70111
G01 X-9.21750 Y4.71438
G01 X-9.20908 Y4.72717
G01 X-9.02789 Y4.94312
G01 X-9.01821 Y4.95242
G01 X-9.01430 Y4.95508
G01 X-9.00976 Y4.95640
G01 X-8.99479 Y4.95764
G04 P0 ( dwell for no time -- G64 should not smooth over this point )
G00 Z0.08000 ( retract )

G00 X-9.04257 Y4.99828 ( rapid move to begin. )
G01 F3.00000
G01 Z-0.00800
G04 P0 ( dwell for no time -- G64 should not smooth over this point )
G01 F6.00000
G01 X-9.04257 Y4.99828
G01 X-9.04118 Y4.98319
G01 X-9.04164 Y4.97838
G01 X-9.04362 Y4.97396
G01 X-9.05117 Y4.96266
G01 X-9.23237 Y4.74671
G01 X-9.24351 Y4.73620
G01 X-9.25569 Y4.72889
G01 X-9.26079 Y4.72702
G01 X-9.26621 Y4.72708
G01 X-9.27322 Y4.72968
G01 X-9.28629 Y4.73885
G01 X-9.29485 Y4.74780
G01 X-9.32973 Y4.79257
G01 X-9.36439 Y4.86290
G01 X-9.36726 Y4.87080
G01 X-9.38592 Y4.94695
G01 X-9.38868 Y5.02600
G01 X-9.37478 Y5.10624
G01 X-9.34450 Y5.18184
G01 X-9.33207 Y5.20084
G01 X-9.32376 Y5.21076
G01 X-9.31209 Y5.22015
G01 X-9.30946 Y5.22177
G01 X-9.30350 Y5.22325
G01 X-9.29744 Y5.22221
G01 X-9.28644 Y5.21787
G01 X-9.27424 Y5.21015
G01 X-9.05695 Y5.02795
G01 X-9.04598 Y5.01616
G01 X-9.04395 Y5.01175
G01 X-9.04296 Y5.00425
G01 X-9.04257 Y4.99828
G01 X-9.05254 Y4.99740
G01 X-9.05131 Y4.98093
G01 X-9.05883 Y4.96909
G01 X-9.24003 Y4.75314
G01 X-9.24953 Y4.74419
G01 X-9.26248 Y4.73687
G01 X-9.26429 Y4.73689
G01 X-9.26854 Y4.73851
G01 X-9.27833 Y4.74515
G01 X-9.28697 Y4.75396
G01 X-9.32169 Y4.79852
G01 X-9.35540 Y4.86728
G01 X-9.35756 Y4.87322
G01 X-9.37594 Y4.94756
G01 X-9.37868 Y5.02609
G01 X-9.36498 Y5.10425
G01 X-9.33533 Y5.17785
G01 X-9.32378 Y5.19524
G01 X-9.31614 Y5.20429
G01 X-9.30599 Y5.21222
G01 X-9.30415 Y5.21311
G01 X-9.30210 Y5.21319
G01 X-9.28963 Y5.20835
G01 X-9.27933 Y5.20149
G01 X-9.06338 Y5.02029
G01 X-9.05427 Y5.01058
G01 X-9.05291 Y5.00320
G01 X-9.05254 Y4.99740
G01 X-9.06250 Y4.99660
G01 X-9.06125 Y4.98355
G01 X-9.06668 Y4.97529
G01 X-9.24751 Y4.75979
G01 X-9.25556 Y4.75221
G01 X-9.26377 Y4.74735
G01 X-9.27228 Y4.75313
G01 X-9.27925 Y4.76033
G01 X-9.31342 Y4.80415
G01 X-9.34638 Y4.87161
G01 X-9.34787 Y4.87570
G01 X-9.36598 Y4.94856
G01 X-9.36867 Y5.02578
G01 X-9.35526 Y5.10187
G01 X-9.32632 Y5.17350
G01 X-9.31565 Y5.18942
G01 X-9.30886 Y5.19741
G01 X-9.30215 Y5.20257
G01 X-9.29427 Y5.19946
G01 X-9.28555 Y5.19365
G01 X-9.07003 Y5.01281
G01 X-9.06321 Y5.00558
G01 X-9.06286 Y5.00227
G01 X-9.06250 Y4.99660
G01 X-9.07247 Y4.99580
G01 X-9.07150 Y4.98616
G01 X-9.07471 Y4.98127
G01 X-9.25479 Y4.76667
G01 X-9.26340 Y4.75918
G01 X-9.26580 Y4.76082
G01 X-9.27169 Y4.76690
G01 X-9.30491 Y4.80947
G01 X-9.33734 Y4.87587
G01 X-9.35604 Y4.94996
G01 X-9.35867 Y5.02508
G01 X-9.34562 Y5.09910
G01 X-9.31746 Y5.16880
G01 X-9.30767 Y5.18337
G01 X-9.30193 Y5.19013
G01 X-9.30055 Y5.19119
G01 X-9.29893 Y5.19055
G01 X-9.29155 Y5.18564
G01 X-9.07691 Y5.00553
G01 X-9.07282 Y5.00119
G01 X-9.07247 Y4.99580
G01 X-9.06250 Y4.99649
G04 P0 ( dwell for no time -- G64 should not smooth over this point )
G00 Z0.08000 ( retract )

G00 X-9.00822 Y5.06213 ( rapid move to begin. )
G01 F3.00000
G01 Z-0.00800
G04 P0 ( dwell for no time -- G64 should not smooth over this point )
G01 F6.00000
G01 X-9.00822 Y5.06213
G01 X-9.01652 Y5.06131
G01 X-9.02479 Y5.06675
G01 X-9.24030 Y5.24758
G01 X-9.24753 Y5.25517
G01 X-9.25196 Y5.26238
G01 X-9.24804 Y5.26989
G01 X-9.24136 Y5.27796
G01 X-9.22753 Y5.29123
G01 X-9.16201 Y5.33217
G01 X-9.08941 Y5.35860
G01 X-9.01290 Y5.36935
G01 X-8.93800 Y5.36417
G01 X-8.93371 Y5.36341
G01 X-8.86155 Y5.34266
G01 X-8.81246 Y5.31663
G01 X-8.80416 Y5.31101
G01 X-8.79699 Y5.30363
G01 X-8.80035 Y5.29470
G01 X-8.80642 Y5.28546
G01 X-8.98725 Y5.06996
G01 X-8.99435 Y5.06324
G01 X-9.00822 Y5.06213
G01 X-9.00667 Y5.05225
G01 X-9.01496 Y5.05136
G01 X-9.01980 Y5.05161
G01 X-9.03100 Y5.05891
G01 X-9.24694 Y5.24010
G01 X-9.25548 Y5.24905
G01 X-9.26241 Y5.26049
G01 X-9.26269 Y5.26252
G01 X-9.26214 Y5.26449
G01 X-9.25608 Y5.27586
G01 X-9.24850 Y5.28496
G01 X-9.23338 Y5.29935
G01 X-9.16604 Y5.34133
G01 X-9.09221 Y5.36821
G01 X-9.01364 Y5.37933
G01 X-8.93723 Y5.37414
G01 X-8.93102 Y5.37305
G01 X-8.85744 Y5.35179
G01 X-8.80753 Y5.32533
G01 X-8.79735 Y5.31836
G01 X-8.78912 Y5.30987
G01 X-8.78679 Y5.30596
G01 X-8.78645 Y5.30418
G01 X-8.79141 Y5.29016
G01 X-8.79857 Y5.27925
G01 X-8.97977 Y5.06331
G01 X-8.98997 Y5.05396
G01 X-9.00667 Y5.05225
G01 X-9.00520 Y5.04236
G01 X-9.01400 Y5.04141
G01 X-9.02055 Y5.04149
G01 X-9.02349 Y5.04232
G01 X-9.03743 Y5.05125
G01 X-9.25458 Y5.23358
G01 X-9.26430 Y5.24425
G01 X-9.27049 Y5.25434
G01 X-9.27256 Y5.26012
G01 X-9.27267 Y5.26320
G01 X-9.27100 Y5.26912
G01 X-9.26378 Y5.28224
G01 X-9.25545 Y5.29215
G01 X-9.23890 Y5.30769
G01 X-9.16971 Y5.35064
G01 X-9.09538 Y5.37769
G01 X-9.01477 Y5.38927
G01 X-8.93653 Y5.38412
G01 X-8.92826 Y5.38266
G01 X-8.85298 Y5.36074
G01 X-8.80283 Y5.33416
G01 X-8.79253 Y5.32729
G01 X-8.78123 Y5.31601
G01 X-8.77745 Y5.30956
G01 X-8.77645 Y5.30423
G01 X-8.77741 Y5.29888
G01 X-8.78249 Y5.28562
G01 X-8.79091 Y5.27282
G01 X-8.97211 Y5.05688
G01 X-8.98179 Y5.04758
G01 X-8.98570 Y5.04491
G01 X-8.99024 Y5.04359
G01 X-9.00520 Y5.04236
G04 P0 ( dwell for no time -- G64 should not smooth over this point )
G00 Z0.08000 ( retract )

G00 X-8.95739 Y5.00132 ( rapid move to begin. )
G01 F3.00000
G01 Z-0.00800
G04 P0 ( dwell for no time -- G64 should not smooth over this point )
G01 F6.00000
G01 X-8.95739 Y5.00132
G01 X-8.95882 Y5.01681
G01 X-8.95835 Y5.02162
G01 X-8.95638 Y5.02603
G01 X-8.94882 Y5.03734
G01 X-8.76763 Y5.25328
G01 X-8.75648 Y5.26380
G01 X-8.74431 Y5.27111
G01 X-8.73921 Y5.27298
G01 X-8.73378 Y5.27292
G01 X-8.72678 Y5.27032
G01 X-8.71371 Y5.26115
G01 X-8.70515 Y5.25219
G01 X-8.67027 Y5.20742
G01 X-8.63561 Y5.13710
G01 X-8.63274 Y5.12920
G01 X-8.61408 Y5.05305
G01 X-8.61132 Y4.97400
G01 X-8.62522 Y4.89376
G01 X-8.65550 Y4.81816
G01 X-8.66793 Y4.79916
G01 X-8.67624 Y4.78923
G01 X-8.68791 Y4.77984
G01 X-8.69054 Y4.77822
G01 X-8.69650 Y4.77675
G01 X-8.70256 Y4.77779
G01 X-8.71356 Y4.78213
G01 X-8.72576 Y4.78985
G01 X-8.94305 Y4.97205
G01 X-8.95402 Y4.98383
G01 X-8.95604 Y4.98825
G01 X-8.95704 Y4.99575
G01 X-8.95739 Y5.00132
G01 X-8.94743 Y5.00223
G01 X-8.94868 Y5.01907
G01 X-8.94116 Y5.03091
G01 X-8.75996 Y5.24686
G01 X-8.75047 Y5.25581
G01 X-8.73752 Y5.26312
G01 X-8.73571 Y5.26310
G01 X-8.73146 Y5.26148
G01 X-8.72167 Y5.25485
G01 X-8.71303 Y5.24604
G01 X-8.67831 Y5.20148
G01 X-8.64460 Y5.13271
G01 X-8.64244 Y5.12678
G01 X-8.62406 Y5.05244
G01 X-8.62132 Y4.97391
G01 X-8.63502 Y4.89575
G01 X-8.66467 Y4.82214
G01 X-8.67622 Y4.80475
G01 X-8.68386 Y4.79571
G01 X-8.69400 Y4.78777
G01 X-8.69585 Y4.78688
G01 X-8.69789 Y4.78681
G01 X-8.71037 Y4.79165
G01 X-8.72067 Y4.79851
G01 X-8.93662 Y4.97971
G01 X-8.94573 Y4.98942
G01 X-8.94709 Y4.99681
G01 X-8.94743 Y5.00223
G01 X-8.93747 Y5.00320
G01 X-8.93875 Y5.01645
G01 X-8.93332 Y5.02471
G01 X-8.75249 Y5.24020
G01 X-8.74444 Y5.24779
G01 X-8.73623 Y5.25265
G01 X-8.72772 Y5.24687
G01 X-8.72075 Y5.23967
G01 X-8.68658 Y5.19584
G01 X-8.65362 Y5.12839
G01 X-8.65213 Y5.12430
G01 X-8.63402 Y5.05143
G01 X-8.63132 Y4.97422
G01 X-8.64474 Y4.89813
G01 X-8.67368 Y4.82649
G01 X-8.68435 Y4.81057
G01 X-8.69114 Y4.80259
G01 X-8.69785 Y4.79743
G01 X-8.70572 Y4.80054
G01 X-8.71445 Y4.80634
G01 X-8.92997 Y4.98718
G01 X-8.93679 Y4.99442
G01 X-8.93714 Y4.99774
G01 X-8.93747 Y5.00320
G01 X-8.92752 Y5.00418
G01 X-8.92850 Y5.01384
G01 X-8.92528 Y5.01872
G01 X-8.74521 Y5.23333
G01 X-8.73659 Y5.24082
G01 X-8.73420 Y5.23918
G01 X-8.72830 Y5.23310
G01 X-8.69509 Y5.19053
G01 X-8.66266 Y5.12412
G01 X-8.64395 Y5.05004
G01 X-8.64133 Y4.97492
G01 X-8.65438 Y4.90090
G01 X-8.68254 Y4.83120
G01 X-8.69233 Y4.81663
G01 X-8.69807 Y4.80987
G01 X-8.69945 Y4.80881
G01 X-8.70107 Y4.80945
G01 X-8.70845 Y4.81436
G01 X-8.92309 Y4.99447
G01 X-8.92718 Y4.99881
G01 X-8.92752 Y5.00418
G01 X-8.93750 Y5.00350
G04 P0 ( dwell for no time -- G64 should not smooth over this point )
G00 Z0.08000 ( retract )

G00 X-8.80858 Y5.30122 ( rapid move to begin. )
G01 F3.00000
G01 Z-0.00800
G04 P0 ( dwell for no time -- G64 should not smooth over this point )
G01 F6.00000
G01 X-8.80858 Y5.30122
G01 X-8.81446 Y5.29144
G01 X-8.99454 Y5.07683
G01 X-8.99878 Y5.07281
G01 X-9.01390 Y5.07156
G01 X-9.01881 Y5.07479
G01 X-9.23344 Y5.25489
G01 X-9.24047 Y5.26278
G01 X-9.23401 Y5.27115
G01 X-9.22136 Y5.28332
G01 X-9.15761 Y5.32316
G01 X-9.08698 Y5.34886
G01 X-9.01255 Y5.35933
G01 X-8.93634 Y5.35377
G01 X-8.86531 Y5.33336
G01 X-8.81762 Y5.30804
G01 X-8.81061 Y5.30330
G01 X-8.80858 Y5.30122
G04 P0 ( dwell for no time -- G64 should not smooth over this point )
G00 Z0.08000 ( retract )

G00 X-8.26140 Y5.98413 ( rapid move to begin. )
G01 F3.00000
G01 Z-0.00800
G04 P0 ( dwell for no time -- G64 should not smooth over this point )
G01 F6.00000
G01 X-8.26140 Y5.98413
G01 X-8.19376 Y6.00808
G01 X-8.25787 Y5.79381
G01 X-8.30307 Y5.61579
G01 X-8.31274 Y5.57507
G01 X-8.32080 Y5.53548
G01 X-8.32723 Y5.49697
G01 X-8.33194 Y5.46013
G01 X-8.34024 Y5.38289
G01 X-8.34333 Y5.33985
G01 X-8.34600 Y5.26350
G01 X-8.34740 Y5.24032
G01 X-8.34994 Y5.21781
G01 X-8.36561 Y5.10630
G01 X-8.36821 Y5.09070
G01 X-8.37812 Y5.04445
G01 X-8.38081 Y5.01879
G01 X-8.38099 Y4.99367
G01 X-8.37876 Y4.96888
G01 X-8.37329 Y4.93089
G01 X-8.35579 Y4.83166
G01 X-8.35287 Y4.81197
G01 X-8.35093 Y4.79171
G01 X-8.34283 Y4.67578
G01 X-8.33849 Y4.58883
G01 X-8.33598 Y4.56262
G01 X-8.33249 Y4.53576
G01 X-8.32798 Y4.50805
G01 X-8.31034 Y4.42270
G01 X-8.27962 Y4.28234
G01 X-8.25986 Y4.20689
G01 X-8.23630 Y4.12749
G01 X-8.12977 Y3.78711
G01 X-8.10387 Y3.70245
G01 X-8.07797 Y3.61400
G01 X-7.97344 Y3.24948
G01 X-7.92664 Y3.08157
G01 X-7.87983 Y2.90422
G01 X-7.80915 Y2.62930
G01 X-7.89367 Y2.68202
G01 X-7.98579 Y2.74133
G01 X-8.07494 Y2.80064
G01 X-8.16113 Y2.85995
G01 X-8.31039 Y2.96447
G01 X-8.41563 Y3.03999
G01 X-8.51562 Y3.11551
G01 X-8.56361 Y3.15325
G01 X-8.61032 Y3.19100
G01 X-8.65570 Y3.22874
G01 X-8.69980 Y3.26651
G01 X-8.82000 Y3.37100
G01 X-8.88018 Y3.42458
G01 X-8.93743 Y3.47815
G01 X-8.99174 Y3.53170
G01 X-9.04314 Y3.58526
G01 X-9.14058 Y3.68975
G01 X-9.17638 Y3.72908
G01 X-9.21039 Y3.76838
G01 X-9.24263 Y3.80767
G01 X-9.27315 Y3.84700
G01 X-9.35188 Y3.95147
G01 X-9.37369 Y3.98117
G01 X-9.39435 Y4.01085
G01 X-9.41389 Y4.04053
G01 X-9.49505 Y4.17466
G01 X-9.52105 Y4.22049
G01 X-9.56737 Y4.31287
G01 X-9.60902 Y4.40819
G01 X-9.62284 Y4.44507
G01 X-9.65879 Y4.54947
G01 X-9.66848 Y4.58011
G01 X-9.67642 Y4.61076
G01 X-9.70052 Y4.71516
G01 X-9.70597 Y4.74186
G01 X-9.70997 Y4.76856
G01 X-9.72279 Y4.87296
G01 X-9.72517 Y4.89764
G01 X-9.72625 Y4.92232
G01 X-9.72807 Y5.02671
G01 X-9.72785 Y5.05111
G01 X-9.72636 Y5.07552
G01 X-9.71723 Y5.17992
G01 X-9.71428 Y5.20574
G01 X-9.70995 Y5.23157
G01 X-9.68966 Y5.33596
G01 X-9.68319 Y5.36506
G01 X-9.67510 Y5.39416
G01 X-9.64250 Y5.50155
G01 X-9.63005 Y5.53737
G01 X-9.61953 Y5.56452
G01 X-9.57366 Y5.67201
G01 X-9.55418 Y5.71464
G01 X-9.53192 Y5.75729
G01 X-9.47402 Y5.86174
G01 X-9.45346 Y5.89718
G01 X-9.35545 Y5.87156
G01 X-9.30562 Y5.86042
G01 X-9.25703 Y5.85212
G01 X-9.17215 Y5.83923
G01 X-9.11851 Y5.83263
G01 X-9.07420 Y5.83009
G01 X-8.99415 Y5.82828
G01 X-8.95982 Y5.82809
G01 X-8.92549 Y5.82963
G01 X-8.88856 Y5.83286
G01 X-8.78185 Y5.84495
G01 X-8.74481 Y5.85096
G01 X-8.69637 Y5.86087
G01 X-8.54514 Y5.89587
G01 X-8.49644 Y5.90924
G01 X-8.44500 Y5.92495
G01 X-8.26140 Y5.98413
G01 X-8.26465 Y5.99358
G01 X-8.18865 Y6.02050
G01 X-8.12827 Y6.07262
G01 X-8.08529 Y6.11065
G01 X-8.03370 Y6.15846
G01 X-7.98212 Y6.20897
G01 X-7.93055 Y6.26218
G01 X-7.87894 Y6.31815
G01 X-7.42934 Y6.81386
G01 X-7.18696 Y7.32277
G01 X-7.14888 Y7.45480
G01 X-7.10285 Y7.62078
G01 X-7.20311 Y7.66959
G01 X-7.31382 Y7.72032
G01 X-7.42632 Y7.76871
G01 X-7.53878 Y7.81370
G01 X-7.65126 Y7.85532
G01 X-7.76374 Y7.89355
G01 X-7.86432 Y7.92504
G01 X-7.95614 Y7.95141
G01 X-8.04666 Y7.89909
G01 X-8.13610 Y7.84572
G01 X-8.22263 Y7.79236
G01 X-8.31670 Y7.73222
G01 X-8.42870 Y7.65765
G01 X-8.48253 Y7.62038
G01 X-8.53495 Y7.58311
G01 X-8.58593 Y7.54586
G01 X-8.63550 Y7.50859
G01 X-8.68364 Y7.47134
G01 X-8.73037 Y7.43407
G01 X-8.80735 Y7.37037
G01 X-8.87260 Y7.31347
G01 X-8.93451 Y7.25657
G01 X-8.99984 Y7.19291
G01 X-9.04451 Y7.14715
G01 X-9.08699 Y7.10141
G01 X-9.12728 Y7.05569
G01 X-9.17088 Y7.00320
G01 X-9.20117 Y6.96484
G01 X-9.22989 Y6.92653
G01 X-9.25707 Y6.88823
G01 X-9.28273 Y6.84989
G01 X-9.30807 Y6.80998
G01 X-9.32785 Y6.77683
G01 X-9.34647 Y6.74370
G01 X-9.36395 Y6.71054
G01 X-9.38201 Y6.67419
G01 X-9.39569 Y6.64460
G01 X-9.40844 Y6.61503
G01 X-9.42284 Y6.57872
G01 X-9.44215 Y6.52430
G01 X-9.45831 Y6.46989
G01 X-9.47240 Y6.41205
G01 X-9.48191 Y6.36088
G01 X-9.48947 Y6.30487
G01 X-9.49372 Y6.24886
G01 X-9.49500 Y6.20000
G01 X-9.49372 Y6.15115
G01 X-9.48947 Y6.09513
G01 X-9.48191 Y6.03912
G01 X-9.47240 Y5.98795
G01 X-9.46010 Y5.93678
G01 X-9.45183 Y5.90710
G01 X-9.35309 Y5.88128
G01 X-9.30381 Y5.87025
G01 X-9.25555 Y5.86201
G01 X-9.15510 Y5.84688
G01 X-9.11776 Y5.84261
G01 X-9.07389 Y5.84009
G01 X-8.96014 Y5.83809
G01 X-8.91940 Y5.84008
G01 X-8.81225 Y5.85130
G01 X-8.78333 Y5.85484
G01 X-8.75408 Y5.85947
G01 X-8.69844 Y5.87065
G01 X-8.58637 Y5.89624
G01 X-8.54769 Y5.90554
G01 X-8.49924 Y5.91884
G01 X-8.44796 Y5.93450
G01 X-8.26465 Y5.99358
G01 X-8.26785 Y6.00306
G01 X-8.19376 Y6.02930
G01 X-8.13486 Y6.08014
G01 X-8.09204 Y6.11803
G01 X-8.04060 Y6.16570
G01 X-7.98922 Y6.21601
G01 X-7.93781 Y6.26906
G01 X-7.88633 Y6.32489
G01 X-7.43773 Y6.81950
G01 X-7.19634 Y7.32633
G01 X-7.15850 Y7.45753
G01 X-7.11471 Y7.61543
G01 X-7.20739 Y7.66055
G01 X-7.31783 Y7.71116
G01 X-7.43016 Y7.75947
G01 X-7.54239 Y7.80437
G01 X-7.65464 Y7.84590
G01 X-7.76685 Y7.88404
G01 X-7.86719 Y7.91546
G01 X-7.95482 Y7.94063
G01 X-8.04161 Y7.89047
G01 X-8.13091 Y7.83718
G01 X-8.21732 Y7.78388
G01 X-8.31122 Y7.72386
G01 X-8.42308 Y7.64938
G01 X-8.47679 Y7.61220
G01 X-8.52910 Y7.57501
G01 X-8.57998 Y7.53782
G01 X-8.62942 Y7.50065
G01 X-8.67747 Y7.46347
G01 X-8.72411 Y7.42627
G01 X-8.80087 Y7.36275
G01 X-8.86593 Y7.30601
G01 X-8.92764 Y7.24930
G01 X-8.99273 Y7.18588
G01 X-9.03727 Y7.14025
G01 X-9.07957 Y7.09470
G01 X-9.11969 Y7.04918
G01 X-9.16308 Y6.99693
G01 X-9.19324 Y6.95875
G01 X-9.22181 Y6.92064
G01 X-9.24883 Y6.88255
G01 X-9.27438 Y6.84439
G01 X-9.29955 Y6.80475
G01 X-9.31920 Y6.77182
G01 X-9.33769 Y6.73891
G01 X-9.35508 Y6.70593
G01 X-9.37298 Y6.66988
G01 X-9.38656 Y6.64052
G01 X-9.39920 Y6.61119
G01 X-9.41346 Y6.57526
G01 X-9.43264 Y6.52120
G01 X-9.44868 Y6.46718
G01 X-9.46262 Y6.40997
G01 X-9.47205 Y6.35918
G01 X-9.47952 Y6.30382
G01 X-9.48372 Y6.24847
G01 X-9.48499 Y6.20000
G01 X-9.48372 Y6.15155
G01 X-9.47952 Y6.09618
G01 X-9.47205 Y6.04082
G01 X-9.46262 Y5.99003
G01 X-9.45040 Y5.93924
G01 X-9.44375 Y5.91531
G01 X-9.35078 Y5.89101
G01 X-9.30187 Y5.88007
G01 X-9.25397 Y5.87188
G01 X-9.15384 Y5.85680
G01 X-9.11689 Y5.85257
G01 X-9.07359 Y5.85008
G01 X-8.96033 Y5.84809
G01 X-8.92020 Y5.85005
G01 X-8.81338 Y5.86124
G01 X-8.78471 Y5.86475
G01 X-8.75574 Y5.86934
G01 X-8.70057 Y5.88042
G01 X-8.58865 Y5.90598
G01 X-8.55017 Y5.91523
G01 X-8.50207 Y5.92843
G01 X-8.45096 Y5.94404
G01 X-8.26785 Y6.00306
G04 P0 ( dwell for no time -- G64 should not smooth over this point )
G00 Z0.08000 ( retract )

G00 X-6.33186 Y3.86729 ( rapid move to begin. )
G01 F3.00000
G01 Z-0.00800
G04 P0 ( dwell for no time -- G64 should not smooth over this point )
G01 F6.00000
G01 X-6.33186 Y3.86729
G01 X-6.36322 Y3.77607
G01 X-6.39798 Y3.68142
G01 X-6.43614 Y3.58330
G01 X-6.73143 Y2.84381
G01 X-6.63650 Y4.69544
G01 X-6.63604 Y4.73380
G01 X-6.63872 Y4.77139
G01 X-6.64130 Y4.79001
G01 X-6.64465 Y4.80797
G01 X-6.64899 Y4.82627
G01 X-6.65377 Y4.84282
G01 X-6.76415 Y5.19292
G01 X-6.76859 Y5.20891
G01 X-6.77184 Y5.22483
G01 X-6.77397 Y5.24096
G01 X-6.77500 Y5.25754
G01 X-6.78249 Y5.52778
G01 X-6.78569 Y5.59564
G01 X-6.79169 Y5.66939
G01 X-6.80047 Y5.74904
G01 X-6.81205 Y5.83461
G01 X-6.82635 Y5.92584
G01 X-6.84349 Y6.02331
G01 X-6.86345 Y6.12692
G01 X-6.88615 Y6.23625
G01 X-6.91163 Y6.35152
G01 X-6.93989 Y6.47274
G01 X-6.97094 Y6.59992
G01 X-7.00476 Y6.73306
G01 X-7.04134 Y6.87204
G01 X-7.08076 Y7.01721
G01 X-7.12290 Y7.16813
G01 X-7.16667 Y7.32097
G01 X-7.12961 Y7.44944
G01 X-7.08497 Y7.61042
G01 X-6.99583 Y7.62693
G01 X-6.89764 Y7.64298
G01 X-6.79944 Y7.65689
G01 X-6.70124 Y7.66865
G01 X-6.60304 Y7.67827
G01 X-6.50485 Y7.68575
G01 X-6.40666 Y7.69108
G01 X-6.30848 Y7.69428
G01 X-6.21027 Y7.69533
G01 X-6.11209 Y7.69423
G01 X-6.01393 Y7.69100
G01 X-5.91572 Y7.68562
G01 X-5.81755 Y7.67809
G01 X-5.71933 Y7.66843
G01 X-5.62117 Y7.65662
G01 X-5.53727 Y7.64471
G01 X-5.75788 Y5.74484
G01 X-5.76291 Y5.70631
G01 X-5.76893 Y5.66882
G01 X-5.84732 Y5.22427
G01 X-5.84583 Y5.18807
G01 X-5.84579 Y5.15714
G01 X-5.84725 Y5.12402
G01 X-5.84962 Y5.10108
G01 X-5.85350 Y5.07510
G01 X-5.85882 Y5.05088
G01 X-5.86687 Y5.02353
G01 X-5.87817 Y4.99527
G01 X-5.89075 Y4.97135
G01 X-5.90827 Y4.94583
G01 X-5.91979 Y4.93234
G01 X-5.93665 Y4.91591
G01 X-5.96064 Y4.89752
G01 X-5.98289 Y4.88428
G01 X-6.03994 Y4.85750
G01 X-6.04429 Y4.85435
G01 X-6.05618 Y4.84196
G01 X-6.06757 Y4.82864
G01 X-6.07846 Y4.81441
G01 X-6.08887 Y4.79926
G01 X-6.09880 Y4.78320
G01 X-6.10794 Y4.76681
G01 X-6.12582 Y4.72937
G01 X-6.14141 Y4.68916
G01 X-6.15518 Y4.64535
G01 X-6.16699 Y4.59865
G01 X-6.17730 Y4.54718
G01 X-6.22579 Y4.27221
G01 X-6.24026 Y4.19798
G01 X-6.25809 Y4.12045
G01 X-6.27930 Y4.03948
G01 X-6.30389 Y3.95508
G01 X-6.33186 Y3.86729
G01 X-6.32237 Y3.86414
G01 X-6.35381 Y3.77270
G01 X-6.38863 Y3.67787
G01 X-6.42684 Y3.57964
G01 X-6.74450 Y2.78410
G01 X-6.64648 Y4.69595
G01 X-6.64604 Y4.73391
G01 X-6.64869 Y4.77066
G01 X-6.65120 Y4.78862
G01 X-6.65453 Y4.80635
G01 X-6.65860 Y4.82350
G01 X-6.66338 Y4.84005
G01 X-6.77374 Y5.19008
G01 X-6.77832 Y5.20656
G01 X-6.78171 Y5.22318
G01 X-6.78393 Y5.23999
G01 X-6.78500 Y5.25711
G01 X-6.79247 Y5.52731
G01 X-6.79566 Y5.59483
G01 X-6.80163 Y5.66829
G01 X-6.81039 Y5.74770
G01 X-6.82193 Y5.83306
G01 X-6.83625 Y5.92438
G01 X-6.85334 Y6.02158
G01 X-6.87324 Y6.12489
G01 X-6.89591 Y6.23409
G01 X-6.92136 Y6.34919
G01 X-6.94960 Y6.47032
G01 X-6.98062 Y6.59741
G01 X-7.01443 Y6.73051
G01 X-7.05102 Y6.86953
G01 X-7.09038 Y7.01448
G01 X-7.13254 Y7.16547
G01 X-7.17707 Y7.32098
G01 X-7.13926 Y7.45206
G01 X-7.09294 Y7.61911
G01 X-6.99754 Y7.63678
G01 X-6.89913 Y7.65287
G01 X-6.80074 Y7.66680
G01 X-6.70231 Y7.67859
G01 X-6.60392 Y7.68823
G01 X-6.50550 Y7.69573
G01 X-6.40709 Y7.70108
G01 X-6.30870 Y7.70427
G01 X-6.21029 Y7.70533
G01 X-6.11188 Y7.70423
G01 X-6.01349 Y7.70099
G01 X-5.91508 Y7.69560
G01 X-5.81666 Y7.68806
G01 X-5.71825 Y7.67837
G01 X-5.61985 Y7.66654
G01 X-5.52621 Y7.65323
G01 X-5.74796 Y5.74359
G01 X-5.75301 Y5.70489
G01 X-5.75907 Y5.66717
G01 X-5.83747 Y5.22254
G01 X-5.83583 Y5.18833
G01 X-5.83604 Y5.14778
G01 X-5.83728 Y5.12325
G01 X-5.83969 Y5.09990
G01 X-5.84366 Y5.07329
G01 X-5.84915 Y5.04829
G01 X-5.85736 Y5.02045
G01 X-5.86903 Y4.99120
G01 X-5.88208 Y4.96636
G01 X-5.90049 Y4.93954
G01 X-5.91236 Y4.92565
G01 X-5.92995 Y4.90848
G01 X-5.95519 Y4.88912
G01 X-5.97832 Y4.87538
G01 X-6.03709 Y4.84742
G01 X-6.04859 Y4.83545
G01 X-6.05963 Y4.82256
G01 X-6.07023 Y4.80874
G01 X-6.08037 Y4.79399
G01 X-6.08995 Y4.77853
G01 X-6.09921 Y4.76194
G01 X-6.11650 Y4.72574
G01 X-6.13187 Y4.68616
G01 X-6.14541 Y4.64317
G01 X-6.15735 Y4.59596
G01 X-6.16745 Y4.54544
G01 X-6.21595 Y4.27039
G01 X-6.23048 Y4.19588
G01 X-6.24838 Y4.11806
G01 X-6.26966 Y4.03681
G01 X-6.29432 Y3.95218
G01 X-6.32237 Y3.86414
G04 P0 ( dwell for no time -- G64 should not smooth over this point )
G00 Z0.08000 ( retract )

G00 X-1.89458 Y7.08730 ( rapid move to begin. )
G01 F3.00000
G01 Z-0.00800
G04 P0 ( dwell for no time -- G64 should not smooth over this point )
G01 F6.00000
G01 X-1.89458 Y7.08730
G01 X-1.98453 Y7.17945
G01 X-2.03668 Y7.23160
G01 X-2.12604 Y7.31904
G01 X-2.21918 Y7.40642
G01 X-2.31619 Y7.49383
G01 X-2.41232 Y7.57714
G01 X-2.52063 Y7.56707
G01 X-2.57270 Y7.56160
G01 X-2.69503 Y7.54716
G01 X-2.81726 Y7.52956
G01 X-2.93951 Y7.50878
G01 X-3.04686 Y7.48776
G01 X-2.97687 Y7.16589
G01 X-2.75021 Y6.09338
G01 X-2.72745 Y5.97998
G01 X-2.65732 Y5.60760
G01 X-2.62047 Y5.36989
G01 X-2.60836 Y5.26262
G01 X-2.58710 Y5.17168
G01 X-2.57621 Y5.13086
G01 X-2.56357 Y5.09182
G01 X-2.54438 Y5.03761
G01 X-2.53242 Y5.00640
G01 X-2.51916 Y4.97655
G01 X-2.49547 Y4.92687
G01 X-2.48289 Y4.90214
G01 X-2.46925 Y4.87850
G01 X-2.44137 Y4.83299
G01 X-2.42816 Y4.81262
G01 X-2.41403 Y4.79317
G01 X-2.38218 Y4.75166
G01 X-2.36803 Y4.73418
G01 X-2.35305 Y4.71754
G01 X-2.31733 Y4.67990
G01 X-2.30171 Y4.66428
G01 X-2.28527 Y4.64948
G01 X-2.24571 Y4.61569
G01 X-2.22781 Y4.60120
G01 X-2.20903 Y4.58757
G01 X-2.16554 Y4.55768
G01 X-2.14420 Y4.54383
G01 X-2.01875 Y4.47365
G01 X-1.99233 Y4.45794
G01 X-1.96540 Y4.44034
G01 X-1.88497 Y4.38536
G01 X-1.85294 Y4.36267
G01 X-1.82092 Y4.33844
G01 X-1.66559 Y4.21722
G01 X-1.62088 Y4.18157
G01 X-1.57539 Y4.14379
G01 X-1.21351 Y3.83755
G01 X-1.17970 Y3.90367
G01 X-1.15190 Y3.95998
G01 X-1.12591 Y4.01618
G01 X-1.10170 Y4.07236
G01 X-1.07921 Y4.12865
G01 X-1.04042 Y4.23160
G01 X-1.02313 Y4.28240
G01 X-1.00732 Y4.33316
G01 X-0.99296 Y4.38403
G01 X-0.96696 Y4.48346
G01 X-0.95624 Y4.53072
G01 X-0.94681 Y4.57799
G01 X-0.93042 Y4.67740
G01 X-0.92384 Y4.72275
G01 X-0.91847 Y4.76801
G01 X-0.91430 Y4.81326
G01 X-0.91132 Y4.85861
G01 X-0.90683 Y4.95539
G01 X-0.90625 Y5.00000
G01 X-0.90683 Y5.04461
G01 X-0.90859 Y5.08932
G01 X-0.91430 Y5.18675
G01 X-0.91847 Y5.23200
G01 X-0.92384 Y5.27724
G01 X-0.93867 Y5.37468
G01 X-0.94681 Y5.42201
G01 X-0.95624 Y5.46927
G01 X-0.96696 Y5.51654
G01 X-0.99295 Y5.61596
G01 X-1.00732 Y5.66684
G01 X-1.02313 Y5.71760
G01 X-1.04042 Y5.76840
G01 X-1.07920 Y5.87134
G01 X-1.10170 Y5.92764
G01 X-1.12591 Y5.98382
G01 X-1.15190 Y6.04002
G01 X-1.17970 Y6.09632
G01 X-1.20625 Y6.14843
G01 X-1.24005 Y6.21257
G01 X-1.27607 Y6.27665
G01 X-1.31433 Y6.34075
G01 X-1.35489 Y6.40493
G01 X-1.38872 Y6.45703
G01 X-1.43929 Y6.53257
G01 X-1.49284 Y6.60803
G01 X-1.54943 Y6.68352
G01 X-1.60912 Y6.75911
G01 X-1.68916 Y6.85728
G01 X-1.72805 Y6.90328
G01 X-1.76806 Y6.94930
G01 X-1.80913 Y6.99529
G01 X-1.85132 Y7.04131
G01 X-1.89458 Y7.08730
G01 X-1.88736 Y7.09422
G01 X-1.97743 Y7.18649
G01 X-2.02964 Y7.23870
G01 X-2.11912 Y7.32626
G01 X-2.21242 Y7.41378
G01 X-2.30956 Y7.50131
G01 X-2.40899 Y7.58749
G01 X-2.52160 Y7.57702
G01 X-2.57382 Y7.57154
G01 X-2.69633 Y7.55707
G01 X-2.81881 Y7.53944
G01 X-2.94132 Y7.51862
G01 X-3.05884 Y7.49561
G01 X-2.98665 Y7.16382
G01 X-2.75998 Y6.09125
G01 X-2.73724 Y5.97795
G01 X-2.66719 Y5.60600
G01 X-2.63037 Y5.36846
G01 X-2.61824 Y5.26098
G01 X-2.59679 Y5.16922
G01 X-2.58580 Y5.12803
G01 X-2.57304 Y5.08861
G01 X-2.55376 Y5.03416
G01 X-2.54167 Y5.00258
G01 X-2.52825 Y4.97237
G01 X-2.50444 Y4.92244
G01 X-2.49168 Y4.89736
G01 X-2.47785 Y4.87338
G01 X-2.44983 Y4.82766
G01 X-2.43640 Y4.80696
G01 X-2.42204 Y4.78718
G01 X-2.39003 Y4.74547
G01 X-2.37564 Y4.72768
G01 X-2.36039 Y4.71075
G01 X-2.32449 Y4.67292
G01 X-2.30859 Y4.65702
G01 X-2.29187 Y4.64196
G01 X-2.25210 Y4.60799
G01 X-2.23389 Y4.59326
G01 X-2.21481 Y4.57940
G01 X-2.17110 Y4.54936
G01 X-2.14942 Y4.53530
G01 X-2.02367 Y4.46495
G01 X-1.99744 Y4.44935
G01 X-1.97104 Y4.43209
G01 X-1.89062 Y4.37711
G01 X-1.85897 Y4.35469
G01 X-1.82708 Y4.33056
G01 X-1.67174 Y4.20934
G01 X-1.62727 Y4.17387
G01 X-1.58185 Y4.13616
G01 X-1.21040 Y3.82181
G01 X-1.17075 Y3.89921
G01 X-1.14288 Y3.95566
G01 X-1.11678 Y4.01210
G01 X-1.09246 Y4.06853
G01 X-1.04986 Y4.17720
G01 X-1.03100 Y4.22826
G01 X-1.01362 Y4.27929
G01 X-0.99773 Y4.33032
G01 X-0.98331 Y4.38140
G01 X-0.95724 Y4.48113
G01 X-0.94646 Y4.52864
G01 X-0.93698 Y4.57615
G01 X-0.92880 Y4.62368
G01 X-0.91392 Y4.72145
G01 X-0.90852 Y4.76696
G01 X-0.90433 Y4.81247
G01 X-0.90134 Y4.85801
G01 X-0.89684 Y4.95512
G01 X-0.89625 Y5.00000
G01 X-0.89684 Y5.04488
G01 X-0.90134 Y5.14196
G01 X-0.90433 Y5.18752
G01 X-0.90852 Y5.23304
G01 X-0.91392 Y5.27855
G01 X-0.92880 Y5.37631
G01 X-0.93698 Y5.42385
G01 X-0.94646 Y5.47136
G01 X-0.95724 Y5.51887
G01 X-0.98331 Y5.61861
G01 X-0.99773 Y5.66968
G01 X-1.01363 Y5.72071
G01 X-1.03100 Y5.77173
G01 X-1.06990 Y5.87502
G01 X-1.09246 Y5.93147
G01 X-1.11678 Y5.98790
G01 X-1.14288 Y6.04433
G01 X-1.17076 Y6.10080
G01 X-1.19738 Y6.15304
G01 X-1.23127 Y6.21735
G01 X-1.26741 Y6.28166
G01 X-1.30581 Y6.34598
G01 X-1.34647 Y6.41033
G01 X-1.38037 Y6.46253
G01 X-1.43105 Y6.53824
G01 X-1.48476 Y6.61393
G01 X-1.54150 Y6.68963
G01 X-1.60128 Y6.76532
G01 X-1.68147 Y6.86367
G01 X-1.72047 Y6.90979
G01 X-1.76054 Y6.95590
G01 X-1.80172 Y7.00201
G01 X-1.84399 Y7.04812
G01 X-1.88736 Y7.09422
G01 X-1.88018 Y7.10119
G01 X-1.97033 Y7.19353
G01 X-2.02260 Y7.24580
G01 X-2.11224 Y7.33351
G01 X-2.20569 Y7.42118
G01 X-2.30291 Y7.50878
G01 X-2.40406 Y7.59645
G01 X-2.40679 Y7.59764
G01 X-2.52255 Y7.58698
G01 X-2.57488 Y7.58148
G01 X-2.69769 Y7.56698
G01 X-2.82043 Y7.54931
G01 X-2.94305 Y7.52847
G01 X-3.06537 Y7.50452
G01 X-3.13442 Y7.50317
G01 X-3.20399 Y7.50084
G01 X-3.27355 Y7.49752
G01 X-3.34261 Y7.49326
G01 X-3.46210 Y7.51017
G01 X-3.58234 Y7.52421
G01 X-3.70246 Y7.53526
G01 X-3.82258 Y7.54333
G01 X-3.94270 Y7.54843
G01 X-4.06270 Y7.55055
G01 X-4.18295 Y7.54970
G01 X-4.30232 Y7.54589
G01 X-4.37783 Y7.56247
G01 X-4.45403 Y7.57794
G01 X-4.53022 Y7.59215
G01 X-4.60650 Y7.60511
G01 X-4.68262 Y7.61680
G01 X-4.75882 Y7.62724
G01 X-4.83510 Y7.63643
G01 X-4.91122 Y7.64435
G01 X-4.98750 Y7.65102
G01 X-5.06362 Y7.65643
G01 X-5.13990 Y7.66059
G01 X-5.21610 Y7.66348
G01 X-5.29222 Y7.66512
G01 X-5.36850 Y7.66550
G01 X-5.44462 Y7.66463
G01 X-5.52040 Y7.66251
G01 X-5.61850 Y7.67645
G01 X-5.71712 Y7.68831
G01 X-5.81574 Y7.69801
G01 X-5.91436 Y7.70557
G01 X-6.01309 Y7.71098
G01 X-6.11161 Y7.71423
G01 X-6.21023 Y7.71533
G01 X-6.30886 Y7.71427
G01 X-6.40748 Y7.71107
G01 X-6.50621 Y7.70570
G01 X-6.60483 Y7.69819
G01 X-6.70346 Y7.68853
G01 X-6.80197 Y7.67673
G01 X-6.90070 Y7.66275
G01 X-6.99932 Y7.64663
G01 X-7.09621 Y7.62867
G01 X-7.19889 Y7.67866
G01 X-7.30978 Y7.72947
G01 X-7.42243 Y7.77792
G01 X-7.53513 Y7.82301
G01 X-7.64784 Y7.86471
G01 X-7.70429 Y7.88433
G01 X-7.76059 Y7.90304
G01 X-7.86150 Y7.93464
G01 X-7.95543 Y7.96161
G01 X-7.95840 Y7.96155
G01 X-8.05176 Y7.90770
G01 X-8.14126 Y7.85429
G01 X-8.22791 Y7.80085
G01 X-8.32217 Y7.74059
G01 X-8.43428 Y7.66595
G01 X-8.48830 Y7.62856
G01 X-8.54076 Y7.59125
G01 X-8.59192 Y7.55387
G01 X-8.64154 Y7.51656
G01 X-8.68979 Y7.47922
G01 X-8.73665 Y7.44184
G01 X-8.81388 Y7.37795
G01 X-8.87922 Y7.32096
G01 X-8.94143 Y7.26379
G01 X-9.00693 Y7.19996
G01 X-9.05180 Y7.15400
G01 X-9.09445 Y7.10807
G01 X-9.13492 Y7.06214
G01 X-9.17317 Y7.01626
G01 X-9.20913 Y6.97090
G01 X-9.23793 Y6.93248
G01 X-9.26534 Y6.89384
G01 X-9.29110 Y6.85537
G01 X-9.31656 Y6.81527
G01 X-9.33654 Y6.78179
G01 X-9.35523 Y6.74854
G01 X-9.37634 Y6.70826
G01 X-9.39106 Y6.67844
G01 X-9.40479 Y6.64874
G01 X-9.41765 Y6.61892
G01 X-9.42959 Y6.58904
G01 X-9.45162 Y6.52752
G01 X-9.46795 Y6.47255
G01 X-9.48216 Y6.41426
G01 X-9.49177 Y6.36251
G01 X-9.49940 Y6.30605
G01 X-9.50335 Y6.25611
G01 X-9.50500 Y6.20013
G01 X-9.50335 Y6.14389
G01 X-9.49940 Y6.09395
G01 X-9.49175 Y6.03735
G01 X-9.48216 Y5.98573
G01 X-9.46980 Y5.93437
G01 X-9.46125 Y5.90367
G01 X-9.48275 Y5.86662
G01 X-9.54069 Y5.76209
G01 X-9.56322 Y5.71892
G01 X-9.58284 Y5.67597
G01 X-9.62874 Y5.56841
G01 X-9.63943 Y5.54083
G01 X-9.65199 Y5.50469
G01 X-9.68468 Y5.39702
G01 X-9.69286 Y5.36761
G01 X-9.69946 Y5.33794
G01 X-9.71978 Y5.23341
G01 X-9.72420 Y5.20700
G01 X-9.72717 Y5.18098
G01 X-9.73633 Y5.07632
G01 X-9.73784 Y5.05160
G01 X-9.73807 Y5.02661
G01 X-9.73624 Y4.92208
G01 X-9.73513 Y4.89681
G01 X-9.73272 Y4.87180
G01 X-9.71988 Y4.76727
G01 X-9.71579 Y4.73999
G01 X-9.71028 Y4.71297
G01 X-9.68615 Y4.60844
G01 X-9.67805 Y4.57723
G01 X-9.66827 Y4.54628
G01 X-9.63228 Y4.44175
G01 X-9.61834 Y4.40455
G01 X-9.57640 Y4.30857
G01 X-9.52994 Y4.21590
G01 X-9.50366 Y4.16957
G01 X-9.44085 Y4.06504
G01 X-9.42228 Y4.03509
G01 X-9.40268 Y4.00530
G01 X-9.38179 Y3.97531
G01 X-9.28111 Y3.84095
G01 X-9.25041 Y3.80139
G01 X-9.21799 Y3.76188
G01 X-9.18381 Y3.72239
G01 X-9.14791 Y3.68295
G01 X-9.05044 Y3.57842
G01 X-8.99880 Y3.52462
G01 X-8.94440 Y3.47097
G01 X-8.88688 Y3.41716
G01 X-8.82658 Y3.36347
G01 X-8.66212 Y3.22108
G01 X-8.61663 Y3.18324
G01 X-8.56987 Y3.14545
G01 X-8.52168 Y3.10756
G01 X-8.42151 Y3.03190
G01 X-8.31619 Y2.95632
G01 X-8.16686 Y2.85176
G01 X-8.08052 Y2.79234
G01 X-7.99124 Y2.73295
G01 X-7.89900 Y2.67356
G01 X-7.80428 Y2.61448
G01 X-7.75189 Y2.56442
G01 X-7.69791 Y2.51402
G01 X-7.64272 Y2.46361
G01 X-7.58465 Y2.41224
G01 X-7.51195 Y2.41685
G01 X-7.44121 Y2.42278
G01 X-7.37054 Y2.42975
G01 X-7.30029 Y2.43772
G01 X-7.18796 Y2.42821
G01 X-7.07491 Y2.42130
G01 X-6.96209 Y2.41707
G01 X-6.84982 Y2.41551
G01 X-6.76608 Y2.39190
G01 X-6.68181 Y2.36975
G01 X-6.59735 Y2.34917
G01 X-6.51307 Y2.33024
G01 X-6.42862 Y2.31290
G01 X-6.34434 Y2.29720
G01 X-6.25988 Y2.28308
G01 X-6.17551 Y2.27060
G01 X-6.09123 Y2.25974
G01 X-6.00686 Y2.25049
G01 X-5.92239 Y2.24284
G01 X-5.83811 Y2.23683
G01 X-5.75374 Y2.23242
G01 X-5.66936 Y2.22963
G01 X-5.58499 Y2.22845
G01 X-5.50062 Y2.22889
G01 X-5.41615 Y2.23094
G01 X-5.33187 Y2.23461
G01 X-5.24750 Y2.23989
G01 X-5.16303 Y2.24680
G01 X-5.07866 Y2.25532
G01 X-4.99429 Y2.26545
G01 X-4.91001 Y2.27718
G01 X-4.82555 Y2.29056
G01 X-4.74118 Y2.30554
G01 X-4.65681 Y2.32213
G01 X-4.57244 Y2.34034
G01 X-4.48817 Y2.36014
G01 X-4.40380 Y2.38158
G01 X-4.31935 Y2.40465
G01 X-4.23507 Y2.42930
G01 X-4.15153 Y2.45532
G01 X-4.02989 Y2.45082
G01 X-3.90837 Y2.44939
G01 X-3.79974 Y2.40991
G01 X-3.69021 Y2.37291
G01 X-3.58056 Y2.33871
G01 X-3.47102 Y2.30737
G01 X-3.36159 Y2.27889
G01 X-3.25193 Y2.25317
G01 X-3.14238 Y2.23030
G01 X-3.03283 Y2.21026
G01 X-2.92340 Y2.19307
G01 X-2.81373 Y2.17866
G01 X-2.70418 Y2.16709
G01 X-2.59475 Y2.15836
G01 X-2.48520 Y2.15245
G01 X-2.37551 Y2.14935
G01 X-2.26609 Y2.14909
G01 X-2.15553 Y2.15178
G01 X-2.15296 Y2.15328
G01 X-2.08579 Y2.22678
G01 X-2.02099 Y2.30028
G01 X-1.95855 Y2.37379
G01 X-1.89848 Y2.44730
G01 X-1.84078 Y2.52082
G01 X-1.78544 Y2.59434
G01 X-1.73247 Y2.66786
G01 X-1.68187 Y2.74139
G01 X-1.63370 Y2.81482
G01 X-1.58784 Y2.88835
G01 X-1.54428 Y2.96199
G01 X-1.50321 Y3.03543
G01 X-1.46444 Y3.10897
G01 X-1.42799 Y3.18264
G01 X-1.39397 Y3.25619
G01 X-1.36234 Y3.32969
G01 X-1.31988 Y3.43378
G01 X-1.29941 Y3.48792
G01 X-1.28021 Y3.54217
G01 X-1.26238 Y3.59621
G01 X-1.24579 Y3.65046
G01 X-1.23054 Y3.70461
G01 X-1.21662 Y3.75866
G01 X-1.20411 Y3.81221
G01 X-1.16184 Y3.89468
G01 X-1.13383 Y3.95140
G01 X-1.10768 Y4.00796
G01 X-1.08320 Y4.06476
G01 X-1.06057 Y4.12138
G01 X-1.02155 Y4.22498
G01 X-1.00410 Y4.27626
G01 X-0.98816 Y4.32741
G01 X-0.97366 Y4.37876
G01 X-0.94753 Y4.47873
G01 X-0.93666 Y4.52662
G01 X-0.92716 Y4.57426
G01 X-0.91893 Y4.62210
G01 X-0.90400 Y4.72020
G01 X-0.89857 Y4.76598
G01 X-0.89436 Y4.81162
G01 X-0.88861 Y4.90979
G01 X-0.88684 Y4.95480
G01 X-0.88625 Y4.99993
G01 X-0.88684 Y5.04507
G01 X-0.88861 Y5.09021
G01 X-0.89435 Y5.18825
G01 X-0.89858 Y5.23415
G01 X-0.90402 Y5.27993
G01 X-0.91064 Y5.32557
G01 X-0.92714 Y5.42561
G01 X-0.93669 Y5.47351
G01 X-0.94753 Y5.52127
G01 X-0.95966 Y5.56897
G01 X-0.98813 Y5.67246
G01 X-1.00410 Y5.72374
G01 X-1.02159 Y5.77514
G01 X-1.06060 Y5.87868
G01 X-1.08325 Y5.93536
G01 X-1.10768 Y5.99204
G01 X-1.13383 Y6.04859
G01 X-1.18847 Y6.15758
G01 X-1.22246 Y6.22207
G01 X-1.25873 Y6.28662
G01 X-1.29725 Y6.35116
G01 X-1.33803 Y6.41570
G01 X-1.37201 Y6.46801
G01 X-1.42278 Y6.54387
G01 X-1.47664 Y6.61977
G01 X-1.53354 Y6.69567
G01 X-1.59347 Y6.77156
G01 X-1.63585 Y6.82390
G01 X-1.67383 Y6.87012
G01 X-1.71290 Y6.91632
G01 X-1.75306 Y6.96253
G01 X-1.79433 Y7.00874
G01 X-1.83669 Y7.05495
G01 X-1.88018 Y7.10119
G01 X-1.87301 Y7.10816
G01 X-1.96326 Y7.20060
G01 X-2.01564 Y7.25298
G01 X-2.10539 Y7.34080
G01 X-2.19899 Y7.42861
G01 X-2.29622 Y7.51621
G01 X-2.39751 Y7.60400
G01 X-2.40274 Y7.60695
G01 X-2.40872 Y7.60760
G01 X-2.52366 Y7.59692
G01 X-2.57611 Y7.59140
G01 X-2.69911 Y7.57688
G01 X-2.82211 Y7.55916
G01 X-2.94509 Y7.53826
G01 X-3.06643 Y7.51450
G01 X-3.13483 Y7.51316
G01 X-3.20432 Y7.51083
G01 X-3.27403 Y7.50751
G01 X-3.34221 Y7.50330
G01 X-3.46106 Y7.52012
G01 X-3.58143 Y7.53417
G01 X-3.70179 Y7.54524
G01 X-3.82179 Y7.55331
G01 X-3.94216 Y7.55842
G01 X-4.06252 Y7.56055
G01 X-4.18326 Y7.55969
G01 X-4.30139 Y7.55593
G01 X-4.37592 Y7.57228
G01 X-4.45227 Y7.58778
G01 X-4.52839 Y7.60198
G01 X-4.60498 Y7.61500
G01 X-4.68134 Y7.62672
G01 X-4.75746 Y7.63714
G01 X-4.83382 Y7.64635
G01 X-4.91018 Y7.65429
G01 X-4.98679 Y7.66100
G01 X-5.06291 Y7.66640
G01 X-5.13927 Y7.67057
G01 X-5.21564 Y7.67347
G01 X-5.29225 Y7.67512
G01 X-5.36837 Y7.67550
G01 X-5.44474 Y7.67463
G01 X-5.51984 Y7.67253
G01 X-5.61741 Y7.68639
G01 X-5.71592 Y7.69823
G01 X-5.81476 Y7.70797
G01 X-5.91360 Y7.71554
G01 X-6.01276 Y7.72097
G01 X-6.11128 Y7.72422
G01 X-6.21012 Y7.72532
G01 X-6.30896 Y7.72427
G01 X-6.40813 Y7.72105
G01 X-6.50697 Y7.71568
G01 X-6.60581 Y7.70815
G01 X-6.70432 Y7.69849
G01 X-6.80316 Y7.68666
G01 X-6.90231 Y7.67261
G01 X-7.00114 Y7.65646
G01 X-7.09480 Y7.63911
G01 X-7.19471 Y7.68774
G01 X-7.30572 Y7.73860
G01 X-7.41848 Y7.78711
G01 X-7.53179 Y7.83244
G01 X-7.64465 Y7.87419
G01 X-7.70095 Y7.89375
G01 X-7.76432 Y7.91477
G01 X-7.85841 Y7.94415
G01 X-7.95267 Y7.97122
G01 X-7.95864 Y7.97170
G01 X-7.96157 Y7.97103
G01 X-8.05689 Y7.91628
G01 X-8.14657 Y7.86277
G01 X-8.23336 Y7.80924
G01 X-8.32776 Y7.74888
G01 X-8.43982 Y7.67427
G01 X-8.49394 Y7.63682
G01 X-8.54656 Y7.59940
G01 X-8.59776 Y7.56198
G01 X-8.64755 Y7.52456
G01 X-8.69609 Y7.48699
G01 X-8.75134 Y7.44282
G01 X-8.82017 Y7.38572
G01 X-8.88580 Y7.32850
G01 X-8.94839 Y7.27096
G01 X-9.00721 Y7.21382
G01 X-9.05887 Y7.16107
G01 X-9.10195 Y7.11468
G01 X-9.14233 Y7.06886
G01 X-9.18094 Y7.02255
G01 X-9.21690 Y6.97720
G01 X-9.24593 Y6.93848
G01 X-9.27365 Y6.89941
G01 X-9.29949 Y6.86081
G01 X-9.32501 Y6.82061
G01 X-9.34526 Y6.78669
G01 X-9.36414 Y6.75308
G01 X-9.38530 Y6.71268
G01 X-9.40014 Y6.68264
G01 X-9.41387 Y6.65294
G01 X-9.42683 Y6.62288
G01 X-9.44154 Y6.58582
G01 X-9.46129 Y6.53012
G01 X-9.47761 Y6.47513
G01 X-9.49188 Y6.41660
G01 X-9.50165 Y6.36408
G01 X-9.50932 Y6.30736
G01 X-9.51333 Y6.25664
G01 X-9.51499 Y6.20040
G01 X-9.51369 Y6.15016
G01 X-9.50940 Y6.09343
G01 X-9.50165 Y6.03592
G01 X-9.49204 Y5.98416
G01 X-9.47953 Y5.93203
G01 X-9.47203 Y5.90503
G01 X-9.49150 Y5.87146
G01 X-9.54944 Y5.76694
G01 X-9.57197 Y5.72378
G01 X-9.59204 Y5.67988
G01 X-9.63792 Y5.57239
G01 X-9.64872 Y5.54453
G01 X-9.66164 Y5.50734
G01 X-9.69425 Y5.39994
G01 X-9.70249 Y5.37029
G01 X-9.70927 Y5.33985
G01 X-9.72959 Y5.23532
G01 X-9.73413 Y5.20814
G01 X-9.73714 Y5.18172
G01 X-9.74629 Y5.07719
G01 X-9.74785 Y5.05142
G01 X-9.74807 Y5.02643
G01 X-9.74624 Y4.92191
G01 X-9.74509 Y4.89585
G01 X-9.74264 Y4.87059
G01 X-9.72981 Y4.76606
G01 X-9.72559 Y4.73799
G01 X-9.72003 Y4.71072
G01 X-9.69580 Y4.60580
G01 X-9.68759 Y4.57422
G01 X-9.67785 Y4.54338
G01 X-9.64173 Y4.43849
G01 X-9.62770 Y4.40104
G01 X-9.58546 Y4.30434
G01 X-9.53851 Y4.21074
G01 X-9.51223 Y4.16442
G01 X-9.43063 Y4.02959
G01 X-9.41081 Y3.99948
G01 X-9.39007 Y3.96970
G01 X-9.36787 Y3.93946
G01 X-9.28897 Y3.83476
G01 X-9.25814 Y3.79504
G01 X-9.22581 Y3.75564
G01 X-9.19121 Y3.71566
G01 X-9.15522 Y3.67612
G01 X-9.05775 Y3.57160
G01 X-9.00611 Y3.51779
G01 X-8.95113 Y3.46358
G01 X-8.89380 Y3.40994
G01 X-8.83314 Y3.35592
G01 X-8.66852 Y3.21339
G01 X-8.62291 Y3.17547
G01 X-8.57616 Y3.13767
G01 X-8.52793 Y3.09976
G01 X-8.42763 Y3.02400
G01 X-8.32202 Y2.94820
G01 X-8.17250 Y2.84350
G01 X-8.08625 Y2.78415
G01 X-7.99665 Y2.72454
G01 X-7.90429 Y2.66507
G01 X-7.81044 Y2.60654
G01 X-7.75884 Y2.55723
G01 X-7.70466 Y2.50663
G01 X-7.64939 Y2.45615
G01 X-7.59303 Y2.40578
G01 X-7.58790 Y2.40278
G01 X-7.58200 Y2.40200
G01 X-7.51133 Y2.40687
G01 X-7.44044 Y2.41281
G01 X-7.36956 Y2.41980
G01 X-7.30014 Y2.42768
G01 X-7.18846 Y2.41822
G01 X-7.07529 Y2.41131
G01 X-6.96247 Y2.40708
G01 X-6.85127 Y2.40553
G01 X-6.76888 Y2.38230
G01 X-6.68435 Y2.36008
G01 X-6.59981 Y2.33947
G01 X-6.51527 Y2.32049
G01 X-6.43045 Y2.30307
G01 X-6.34590 Y2.28732
G01 X-6.26134 Y2.27319
G01 X-6.17678 Y2.26068
G01 X-6.09251 Y2.24983
G01 X-6.00766 Y2.24052
G01 X-5.92310 Y2.23287
G01 X-5.83854 Y2.22683
G01 X-5.75426 Y2.22243
G01 X-5.66941 Y2.21963
G01 X-5.58513 Y2.21845
G01 X-5.50057 Y2.21889
G01 X-5.41571 Y2.22095
G01 X-5.33115 Y2.22463
G01 X-5.24687 Y2.22991
G01 X-5.16231 Y2.23683
G01 X-5.07747 Y2.24539
G01 X-4.99319 Y2.25551
G01 X-4.90863 Y2.26728
G01 X-4.82380 Y2.28071
G01 X-4.73925 Y2.29573
G01 X-4.65470 Y2.31236
G01 X-4.57042 Y2.33054
G01 X-4.48588 Y2.35041
G01 X-4.40108 Y2.37195
G01 X-4.31680 Y2.39498
G01 X-4.23201 Y2.41978
G01 X-4.15019 Y2.44527
G01 X-4.03038 Y2.44083
G01 X-3.91019 Y2.43941
G01 X-3.80283 Y2.40039
G01 X-3.69341 Y2.36344
G01 X-3.58365 Y2.32920
G01 X-3.47388 Y2.29779
G01 X-3.36376 Y2.26912
G01 X-3.25397 Y2.24338
G01 X-3.14418 Y2.22047
G01 X-3.03438 Y2.20038
G01 X-2.92496 Y2.18319
G01 X-2.81478 Y2.16871
G01 X-2.70497 Y2.15713
G01 X-2.59516 Y2.14837
G01 X-2.48573 Y2.14246
G01 X-2.37554 Y2.13935
G01 X-2.26572 Y2.13909
G01 X-2.15330 Y2.14203
G01 X-2.15044 Y2.14299
G01 X-2.14558 Y2.14653
G01 X-2.07829 Y2.22016
G01 X-2.01336 Y2.29381
G01 X-1.95081 Y2.36746
G01 X-1.89080 Y2.44090
G01 X-1.83297 Y2.51456
G01 X-1.77733 Y2.58849
G01 X-1.72442 Y2.66193
G01 X-1.67351 Y2.73590
G01 X-1.62515 Y2.80962
G01 X-1.57917 Y2.88336
G01 X-1.53573 Y2.95680
G01 X-1.49448 Y3.03055
G01 X-1.45560 Y3.10431
G01 X-1.41892 Y3.17844
G01 X-1.38495 Y3.25187
G01 X-1.35310 Y3.32587
G01 X-1.31060 Y3.43005
G01 X-1.28994 Y3.48469
G01 X-1.27082 Y3.53873
G01 X-1.25288 Y3.59308
G01 X-1.23616 Y3.64775
G01 X-1.22086 Y3.70212
G01 X-1.20693 Y3.75616
G01 X-1.19466 Y3.80871
G01 X-1.15284 Y3.89031
G01 X-1.12492 Y3.94686
G01 X-1.09860 Y4.00376
G01 X-1.07407 Y4.06068
G01 X-1.05124 Y4.11779
G01 X-1.03111 Y4.17024
G01 X-1.01208 Y4.22176
G01 X-0.99455 Y4.27328
G01 X-0.97850 Y4.32482
G01 X-0.94995 Y4.42863
G01 X-0.93775 Y4.47664
G01 X-0.92686 Y4.52466
G01 X-0.91735 Y4.57231
G01 X-0.90905 Y4.62053
G01 X-0.89407 Y4.71902
G01 X-0.88865 Y4.76467
G01 X-0.88441 Y4.81070
G01 X-0.88137 Y4.85694
G01 X-0.87685 Y4.95441
G01 X-0.87625 Y5.00020
G01 X-0.87685 Y5.04559
G01 X-0.88138 Y5.14326
G01 X-0.88441 Y5.18930
G01 X-0.88865 Y5.23533
G01 X-0.89407 Y5.28098
G01 X-0.90905 Y5.37947
G01 X-0.91735 Y5.42769
G01 X-0.92686 Y5.47533
G01 X-0.93775 Y5.52336
G01 X-0.94995 Y5.57137
G01 X-0.97850 Y5.67517
G01 X-0.99455 Y5.72671
G01 X-1.01221 Y5.77861
G01 X-1.05124 Y5.88220
G01 X-1.07407 Y5.93932
G01 X-1.09844 Y5.99588
G01 X-1.12492 Y6.05314
G01 X-1.17956 Y6.16212
G01 X-1.21380 Y6.22709
G01 X-1.25001 Y6.29152
G01 X-1.28887 Y6.35661
G01 X-1.32958 Y6.42104
G01 X-1.36373 Y6.47363
G01 X-1.41471 Y6.54976
G01 X-1.46849 Y6.62556
G01 X-1.52553 Y6.70167
G01 X-1.58574 Y6.77790
G01 X-1.66619 Y6.87657
G01 X-1.70535 Y6.92289
G01 X-1.74560 Y6.96920
G01 X-1.78682 Y7.01535
G01 X-1.82927 Y7.06166
G01 X-1.87282 Y7.10796
G01 X-1.88017 Y7.10117

G04 P0 ( dwell for no time -- G64 should not smooth over this point )
G00 Z1.000 ( retract )

M5 ( Spindle off. )
G04 P1.000000
M9 ( Coolant off. )
M2 ( Program end. )

