( pcb2gcode 2.2.2 )
( Software-independent Gcode )

G94 ( Inches per minute feed rate. )
G20 ( Units == INCHES. )

G90 ( Absolute coordinates. )
G00 S30000 ( RPM spindle speed. )
G64 P0.00040 ( set maximum deviation from commanded toolpath )
G01 F6.00000 ( Feedrate. )


G00 Z1.00000 (Retract to tool change height)
T0
M5      (Spindle stop.)
G04 P1.00000 (Wait for spindle to stop)
(MSG, Change tool bit to mill diameter 0.02000in)
M6      (Tool change.)
M0      (Temporary machine stop.)
M3 ( Spindle on clockwise. )
G04 P1.00000 (Wait for spindle to get up to speed)
G04 P0 ( dwell for no time -- G64 should not smooth over this point )
G00 Z0.08000 ( retract )

G00 X0.10396 Y-0.10396 ( rapid move to begin. )
G01 F3.00000
( Mill infeed pass 1/1 )
G01 Z-0.00800
G04 P0 ( dwell for no time -- G64 should not smooth over this point )
G01 F6.00000
G01 X0.10396 Y-0.10396
G01 X0.10250 Y-0.10250
G01 X0.10250 Y10.10250
G01 X0.10396 Y10.10396
G01 X0.10250 Y10.10250
G01 X-10.10250 Y10.10250
G01 X-10.10396 Y10.10396
G01 X-10.10250 Y10.10250
G01 X-10.10250 Y-0.10250
G01 X-10.10396 Y-0.10396
G01 X-10.10250 Y-0.10250
G01 X0.10250 Y-0.10250
G01 X0.09250 Y-0.09250
G01 X0.09250 Y10.09250
G01 X0.09543 Y10.09543
G01 X0.09250 Y10.09250
G01 X-10.09250 Y10.09250
G01 X-10.09543 Y10.09543
G01 X-10.09250 Y10.09250
G01 X-10.09250 Y-0.09250
G01 X-10.09543 Y-0.09543
G01 X-10.09250 Y-0.09250
G01 X0.09250 Y-0.09250
G04 P0 ( dwell for no time -- G64 should not smooth over this point )
G00 Z0.08000 ( retract )

G00 X-1.22553 Y3.80843 ( rapid move to begin. )
G01 F3.00000
( Mill infeed pass 1/1 )
G01 Z-0.00800
G04 P0 ( dwell for no time -- G64 should not smooth over this point )
G01 F6.00000
G01 X-1.22553 Y3.80843
G01 X-1.59472 Y4.12084
G01 X-1.63994 Y4.15839
G01 X-1.68411 Y4.19361
G01 X-1.83929 Y4.31473
G01 X-1.87085 Y4.33860
G01 X-1.90201 Y4.36067
G01 X-1.98221 Y4.41549
G01 X-2.00794 Y4.43232
G01 X-2.03365 Y4.44761
G01 X-2.08864 Y4.47868
G01 X-2.13670 Y4.50487
G01 X-2.16020 Y4.51846
G01 X-2.18237 Y4.53285
G01 X-2.22650 Y4.56317
G01 X-2.24575 Y4.57715
G01 X-2.26504 Y4.59274
G01 X-2.30490 Y4.62679
G01 X-2.32264 Y4.64279
G01 X-2.33896 Y4.65910
G01 X-2.37495 Y4.69702
G01 X-2.39110 Y4.71500
G01 X-2.40586 Y4.73324
G01 X-2.43795 Y4.77506
G01 X-2.45310 Y4.79596
G01 X-2.46685 Y4.81715
G01 X-2.49494 Y4.86298
G01 X-2.50907 Y4.88749
G01 X-2.52246 Y4.91377
G01 X-2.54633 Y4.96381
G01 X-2.56000 Y4.99458
G01 X-2.57259 Y5.02742
G01 X-2.59192 Y5.08200
G01 X-2.60509 Y5.12274
G01 X-2.61613 Y5.16413
G01 X-2.63054 Y5.22410
G01 X-2.63782 Y5.25691
G01 X-2.64650 Y5.33468
G01 X-2.65019 Y5.36578
G01 X-2.65479 Y5.39740
G01 X-2.66798 Y5.48096
G01 X-2.68025 Y5.56167
G01 X-2.68691 Y5.60264
G01 X-2.69458 Y5.64453
G01 X-2.70532 Y5.70029
G01 X-2.75688 Y5.97416
G01 X-2.77958 Y6.08723
G01 X-3.01127 Y7.18353
G01 X-3.01806 Y7.21546
G01 X-3.06019 Y7.40933
G01 X-3.07681 Y7.48429
G01 X-3.07499 Y7.48660
G01 X-3.07681 Y7.48429
G01 X-3.13392 Y7.48317
G01 X-3.20321 Y7.48085
G01 X-3.27249 Y7.47755
G01 X-3.32895 Y7.47407
G01 X-3.33120 Y7.47637
G01 X-3.32895 Y7.47407
G01 X-3.37965 Y6.87235
G01 X-3.45027 Y6.05175
G01 X-3.48021 Y5.71568
G01 X-3.48244 Y5.68917
G01 X-3.48500 Y5.65520
G01 X-3.48500 Y5.36485
G01 X-3.48194 Y5.33069
G01 X-3.47806 Y5.29670
G01 X-3.46160 Y5.16016
G01 X-3.44960 Y5.05391
G01 X-3.43944 Y4.95718
G01 X-3.43006 Y4.86044
G01 X-3.41992 Y4.74633
G01 X-3.40989 Y4.62314
G01 X-3.39665 Y4.44744
G01 X-3.39661 Y4.37598
G01 X-3.39804 Y4.29891
G01 X-3.40231 Y4.21907
G01 X-3.40941 Y4.13644
G01 X-3.41934 Y4.05101
G01 X-3.43204 Y3.96318
G01 X-3.44769 Y3.87178
G01 X-3.46604 Y3.77831
G01 X-3.48734 Y3.68137
G01 X-3.51133 Y3.58225
G01 X-3.53829 Y3.47976
G01 X-3.56793 Y3.37500
G01 X-3.60045 Y3.26716
G01 X-3.63580 Y3.15651
G01 X-3.67404 Y3.04286
G01 X-3.71497 Y2.92681
G01 X-3.75882 Y2.80765
G01 X-3.88809 Y2.46330
G01 X-3.89192 Y2.46153
G01 X-3.88809 Y2.46330
G01 X-3.79308 Y2.42876
G01 X-3.68398 Y2.39192
G01 X-3.57488 Y2.35789
G01 X-3.46581 Y2.32668
G01 X-3.35673 Y2.29829
G01 X-3.24766 Y2.27271
G01 X-3.13860 Y2.24994
G01 X-3.02955 Y2.22999
G01 X-2.92049 Y2.21286
G01 X-2.81143 Y2.19853
G01 X-2.70240 Y2.18702
G01 X-2.59335 Y2.17832
G01 X-2.48431 Y2.17243
G01 X-2.37527 Y2.16935
G01 X-2.26624 Y2.16909
G01 X-2.16340 Y2.17150
G01 X-2.16304 Y2.17070
G01 X-2.16340 Y2.17150
G01 X-2.10070 Y2.24010
G01 X-2.03614 Y2.31333
G01 X-1.97394 Y2.38655
G01 X-1.91412 Y2.45977
G01 X-1.85666 Y2.53296
G01 X-1.80158 Y2.60616
G01 X-1.74885 Y2.67933
G01 X-1.69851 Y2.75250
G01 X-1.65051 Y2.82564
G01 X-1.60490 Y2.89879
G01 X-1.56164 Y2.97191
G01 X-1.52075 Y3.04503
G01 X-1.48223 Y3.11812
G01 X-1.44606 Y3.19122
G01 X-1.41226 Y3.26428
G01 X-1.38078 Y3.33744
G01 X-1.36014 Y3.38728
G01 X-1.33849 Y3.44110
G01 X-1.31818 Y3.49485
G01 X-1.29915 Y3.54858
G01 X-1.28143 Y3.60232
G01 X-1.26499 Y3.65605
G01 X-1.24986 Y3.70976
G01 X-1.23603 Y3.76349
G01 X-1.22553 Y3.80843
G01 X-1.21440 Y3.81211
G01 X-1.58829 Y4.12851
G01 X-1.63363 Y4.16615
G01 X-1.67792 Y4.20146
G01 X-1.83320 Y4.32266
G01 X-1.86494 Y4.34666
G01 X-1.89630 Y4.36888
G01 X-1.97665 Y4.42380
G01 X-2.00265 Y4.44081
G01 X-2.02864 Y4.45626
G01 X-2.08375 Y4.48741
G01 X-2.13158 Y4.51347
G01 X-2.15476 Y4.52684
G01 X-2.17671 Y4.54109
G01 X-2.22052 Y4.57119
G01 X-2.23988 Y4.58524
G01 X-2.25845 Y4.60026
G01 X-2.29841 Y4.63440
G01 X-2.31557 Y4.64986
G01 X-2.33171 Y4.66599
G01 X-2.36770 Y4.70391
G01 X-2.38333 Y4.72129
G01 X-2.39793 Y4.73933
G01 X-2.43002 Y4.78115
G01 X-2.44457 Y4.80119
G01 X-2.45832 Y4.82238
G01 X-2.48648 Y4.86832
G01 X-2.50054 Y4.89271
G01 X-2.51343 Y4.91808
G01 X-2.53730 Y4.96812
G01 X-2.55096 Y4.99888
G01 X-2.56316 Y5.03076
G01 X-2.58249 Y5.08534
G01 X-2.59543 Y5.12532
G01 X-2.60650 Y5.16683
G01 X-2.62083 Y5.22652
G01 X-2.62806 Y5.25908
G01 X-2.63656 Y5.33579
G01 X-2.64028 Y5.36709
G01 X-2.64490 Y5.39890
G01 X-2.65810 Y5.48251
G01 X-2.67037 Y5.56322
G01 X-2.67706 Y5.60434
G01 X-2.68475 Y5.64637
G01 X-2.69549 Y5.70216
G01 X-2.74707 Y5.97607
G01 X-2.76979 Y6.08926
G01 X-3.00829 Y7.21756
G01 X-3.05042 Y7.41148
G01 X-3.06882 Y7.49445
G01 X-3.06791 Y7.49561
G01 X-3.06882 Y7.49445
G01 X-3.13419 Y7.49317
G01 X-3.20362 Y7.49084
G01 X-3.27304 Y7.48754
G01 X-3.33819 Y7.48351
G01 X-3.33931 Y7.48466
G01 X-3.33819 Y7.48351
G01 X-3.39160 Y6.84986
G01 X-3.46023 Y6.05264
G01 X-3.49018 Y5.71654
G01 X-3.49241 Y5.68998
G01 X-3.49500 Y5.65557
G01 X-3.49500 Y5.36440
G01 X-3.49188 Y5.32968
G01 X-3.48799 Y5.29551
G01 X-3.47153 Y5.15897
G01 X-3.45954 Y5.05285
G01 X-3.44939 Y4.95614
G01 X-3.44001 Y4.85948
G01 X-3.42989 Y4.74546
G01 X-3.41986 Y4.62238
G01 X-3.40662 Y4.44671
G01 X-3.40661 Y4.37617
G01 X-3.40803 Y4.29944
G01 X-3.41228 Y4.21992
G01 X-3.41934 Y4.13759
G01 X-3.42924 Y4.05244
G01 X-3.44196 Y3.96449
G01 X-3.45750 Y3.87371
G01 X-3.47585 Y3.78024
G01 X-3.49704 Y3.68383
G01 X-3.52107 Y3.58451
G01 X-3.54791 Y3.48248
G01 X-3.57755 Y3.37772
G01 X-3.61002 Y3.27005
G01 X-3.64533 Y3.15956
G01 X-3.68347 Y3.04619
G01 X-3.72440 Y2.93014
G01 X-3.76818 Y2.81116
G01 X-3.90100 Y2.45735
G01 X-3.90292 Y2.45647
G01 X-3.90100 Y2.45735
G01 X-3.79638 Y2.41932
G01 X-3.68707 Y2.38240
G01 X-3.57775 Y2.34831
G01 X-3.46844 Y2.31703
G01 X-3.35913 Y2.28858
G01 X-3.24983 Y2.26294
G01 X-3.14052 Y2.24013
G01 X-3.03122 Y2.22013
G01 X-2.92192 Y2.20296
G01 X-2.81261 Y2.18859
G01 X-2.70332 Y2.17706
G01 X-2.59402 Y2.16834
G01 X-2.48472 Y2.16244
G01 X-2.37542 Y2.15935
G01 X-2.26613 Y2.15909
G01 X-2.15890 Y2.16160
G01 X-2.15872 Y2.16120
G01 X-2.15890 Y2.16160
G01 X-2.09326 Y2.23342
G01 X-2.02858 Y2.30679
G01 X-1.96626 Y2.38015
G01 X-1.90631 Y2.45351
G01 X-1.84873 Y2.52687
G01 X-1.79353 Y2.60022
G01 X-1.74068 Y2.67357
G01 X-1.69021 Y2.74692
G01 X-1.64209 Y2.82025
G01 X-1.59635 Y2.89359
G01 X-1.55297 Y2.96692
G01 X-1.51196 Y3.04026
G01 X-1.47332 Y3.11357
G01 X-1.43704 Y3.18690
G01 X-1.40312 Y3.26021
G01 X-1.37157 Y3.33355
G01 X-1.35088 Y3.38350
G01 X-1.32918 Y3.43747
G01 X-1.30879 Y3.49141
G01 X-1.28969 Y3.54535
G01 X-1.27189 Y3.59929
G01 X-1.25540 Y3.65323
G01 X-1.24021 Y3.70716
G01 X-1.22632 Y3.76110
G01 X-1.21440 Y3.81211
G01 X-1.21359 Y3.81238
G04 P0 ( dwell for no time -- G64 should not smooth over this point )
G00 Z0.08000 ( retract )

G00 X-1.21232 Y3.83158 ( rapid move to begin. )
G01 F3.00000
( Mill infeed pass 1/1 )
G01 Z-0.00800
G04 P0 ( dwell for no time -- G64 should not smooth over this point )
G01 F6.00000
G01 X-1.21232 Y3.83158
G01 X-1.21351 Y3.83755
G01 X-1.57550 Y4.14388
G01 X-1.62089 Y4.18157
G01 X-1.66547 Y4.21712
G01 X-1.82110 Y4.33858
G01 X-1.85294 Y4.36266
G01 X-1.88477 Y4.38522
G01 X-1.96541 Y4.44034
G01 X-1.99179 Y4.45760
G01 X-2.01875 Y4.47365
G01 X-2.07393 Y4.50483
G01 X-2.12187 Y4.53095
G01 X-2.14420 Y4.54384
G01 X-2.16555 Y4.55769
G01 X-2.20903 Y4.58756
G01 X-2.22781 Y4.60120
G01 X-2.24571 Y4.61568
G01 X-2.28527 Y4.64948
G01 X-2.30171 Y4.66428
G01 X-2.31734 Y4.67990
G01 X-2.35305 Y4.71753
G01 X-2.36803 Y4.73418
G01 X-2.38218 Y4.75166
G01 X-2.41403 Y4.79316
G01 X-2.42815 Y4.81262
G01 X-2.44137 Y4.83299
G01 X-2.46925 Y4.87849
G01 X-2.48289 Y4.90213
G01 X-2.49546 Y4.92686
G01 X-2.51916 Y4.97654
G01 X-2.53242 Y5.00640
G01 X-2.54437 Y5.03762
G01 X-2.56357 Y5.09182
G01 X-2.57621 Y5.13086
G01 X-2.58710 Y5.17168
G01 X-2.60133 Y5.23098
G01 X-2.60838 Y5.26262
G01 X-2.61669 Y5.33812
G01 X-2.62048 Y5.36990
G01 X-2.62514 Y5.40199
G01 X-2.63833 Y5.48554
G01 X-2.65062 Y5.56641
G01 X-2.65732 Y5.60760
G01 X-2.66511 Y5.65015
G01 X-2.67584 Y5.70587
G01 X-2.72742 Y5.97980
G01 X-2.75018 Y6.09322
G01 X-2.98873 Y7.22173
G01 X-3.03090 Y7.41580
G01 X-3.04686 Y7.48776
G01 X-3.05044 Y7.49012
G01 X-3.04686 Y7.48776
G01 X-2.93951 Y7.50878
G01 X-2.81726 Y7.52956
G01 X-2.69502 Y7.54716
G01 X-2.57270 Y7.56160
G01 X-2.52061 Y7.56707
G01 X-2.41232 Y7.57714
G01 X-2.41205 Y7.57797
G01 X-2.41232 Y7.57714
G01 X-2.31619 Y7.49383
G01 X-2.21918 Y7.40642
G01 X-2.12604 Y7.31903
G01 X-2.03668 Y7.23160
G01 X-1.98454 Y7.17946
G01 X-1.89457 Y7.08730
G01 X-1.85132 Y7.04131
G01 X-1.80913 Y6.99529
G01 X-1.76805 Y6.94928
G01 X-1.72806 Y6.90328
G01 X-1.68916 Y6.85729
G01 X-1.65134 Y6.81125
G01 X-1.60910 Y6.75909
G01 X-1.54943 Y6.68352
G01 X-1.49284 Y6.60804
G01 X-1.43929 Y6.53257
G01 X-1.38872 Y6.45703
G01 X-1.35489 Y6.40494
G01 X-1.31433 Y6.34075
G01 X-1.27607 Y6.27665
G01 X-1.24005 Y6.21257
G01 X-1.20625 Y6.14841
G01 X-1.17970 Y6.09632
G01 X-1.15190 Y6.04002
G01 X-1.12592 Y5.98382
G01 X-1.10169 Y5.92763
G01 X-1.07921 Y5.87136
G01 X-1.05922 Y5.81927
G01 X-1.04042 Y5.76839
G01 X-1.02313 Y5.71760
G01 X-1.00732 Y5.66683
G01 X-0.99295 Y5.61596
G01 X-0.97900 Y5.56389
G01 X-0.96696 Y5.51653
G01 X-0.95624 Y5.46927
G01 X-0.94681 Y5.42202
G01 X-0.93867 Y5.37467
G01 X-0.93042 Y5.32260
G01 X-0.92384 Y5.27725
G01 X-0.91847 Y5.23199
G01 X-0.91430 Y5.18674
G01 X-0.91132 Y5.14139
G01 X-0.90859 Y5.08932
G01 X-0.90683 Y5.04462
G01 X-0.90625 Y5.00000
G01 X-0.87625 Y4.99980
G01 X-0.87685 Y5.04560
G01 X-0.87862 Y5.09060
G01 X-0.88137 Y5.14306
G01 X-0.88438 Y5.18890
G01 X-0.88865 Y5.23533
G01 X-0.89412 Y5.28136
G01 X-0.90077 Y5.32720
G01 X-0.90905 Y5.37947
G01 X-0.91728 Y5.42730
G01 X-0.92694 Y5.47572
G01 X-0.93775 Y5.52336
G01 X-0.94995 Y5.57138
G01 X-0.96406 Y5.62402
G01 X-0.97850 Y5.67518
G01 X-0.99467 Y5.72708
G01 X-1.01221 Y5.77861
G01 X-1.03111 Y5.82976
G01 X-1.05123 Y5.88220
G01 X-1.07391 Y5.93895
G01 X-1.09844 Y5.99588
G01 X-1.12492 Y6.05313
G01 X-1.15284 Y6.10969
G01 X-1.17957 Y6.16212
G01 X-1.21380 Y6.22709
G01 X-1.25021 Y6.29186
G01 X-1.28887 Y6.35661
G01 X-1.32958 Y6.42104
G01 X-1.36362 Y6.47346
G01 X-1.41447 Y6.54942
G01 X-1.46872 Y6.62588
G01 X-1.52577 Y6.70197
G01 X-1.58573 Y6.77790
G01 X-1.62813 Y6.83025
G01 X-1.66619 Y6.87658
G01 X-1.70535 Y6.92288
G01 X-1.74547 Y6.96904
G01 X-1.78695 Y7.01550
G01 X-1.82940 Y7.06180
G01 X-1.87301 Y7.10816
G01 X-1.96326 Y7.20061
G01 X-2.01564 Y7.25298
G01 X-2.10517 Y7.34058
G01 X-2.19877 Y7.42840
G01 X-2.29622 Y7.51621
G01 X-2.39751 Y7.60400
G01 X-2.39997 Y7.60574
G01 X-2.40274 Y7.60695
G01 X-2.40570 Y7.60758
G01 X-2.40872 Y7.60761
G01 X-2.52366 Y7.59692
G01 X-2.57612 Y7.59141
G01 X-2.69911 Y7.57688
G01 X-2.82210 Y7.55917
G01 X-2.94509 Y7.53826
G01 X-3.06643 Y7.51446
G01 X-3.13461 Y7.51317
G01 X-3.20453 Y7.51082
G01 X-3.27402 Y7.50751
G01 X-3.34222 Y7.50325
G01 X-3.46070 Y7.52007
G01 X-3.58143 Y7.53418
G01 X-3.70143 Y7.54521
G01 X-3.82179 Y7.55331
G01 X-3.94215 Y7.55842
G01 X-4.06290 Y7.56055
G01 X-4.18327 Y7.55969
G01 X-4.30140 Y7.55585
G01 X-4.37568 Y7.57223
G01 X-4.45203 Y7.58774
G01 X-4.52863 Y7.60202
G01 X-4.60498 Y7.61500
G01 X-4.68110 Y7.62669
G01 X-4.75770 Y7.63717
G01 X-4.83382 Y7.64635
G01 X-4.91019 Y7.65429
G01 X-4.98679 Y7.66099
G01 X-5.06291 Y7.66640
G01 X-5.13952 Y7.67058
G01 X-5.21564 Y7.67347
G01 X-5.29201 Y7.67512
G01 X-5.36862 Y7.67550
G01 X-5.44474 Y7.67463
G01 X-5.51984 Y7.67249
G01 X-5.61741 Y7.68639
G01 X-5.71625 Y7.69827
G01 X-5.81476 Y7.70797
G01 X-5.91360 Y7.71555
G01 X-6.01276 Y7.72097
G01 X-6.11160 Y7.72423
G01 X-6.21012 Y7.72533
G01 X-6.30929 Y7.72426
G01 X-6.40813 Y7.72105
G01 X-6.50697 Y7.71568
G01 X-6.60549 Y7.70818
G01 X-6.70432 Y7.69849
G01 X-6.80316 Y7.68665
G01 X-6.90199 Y7.67266
G01 X-7.00114 Y7.65646
G01 X-7.09480 Y7.63911
G01 X-7.09487 Y7.63858
G01 X-7.09480 Y7.63911
G01 X-7.19440 Y7.68760
G01 X-7.30573 Y7.73861
G01 X-7.41847 Y7.78711
G01 X-7.53179 Y7.83244
G01 X-7.64466 Y7.87419
G01 X-7.70114 Y7.89381
G01 X-7.75752 Y7.91256
G01 X-7.85874 Y7.94425
G01 X-7.95267 Y7.97123
G01 X-7.95563 Y7.97176
G01 X-7.95864 Y7.97170
G01 X-7.96157 Y7.97103
G01 X-7.96432 Y7.96980
G01 X-8.05689 Y7.91628
G01 X-8.14656 Y7.86277
G01 X-8.23316 Y7.80936
G01 X-8.32762 Y7.74898
G01 X-8.43982 Y7.67427
G01 X-8.49409 Y7.63671
G01 X-8.54672 Y7.59929
G01 X-8.59792 Y7.56186
G01 X-8.64754 Y7.52456
G01 X-8.69608 Y7.48699
G01 X-8.74286 Y7.44969
G01 X-8.75148 Y7.44271
G01 X-8.82045 Y7.38549
G01 X-8.88609 Y7.32823
G01 X-8.94839 Y7.27097
G01 X-9.00721 Y7.21383
G01 X-9.01413 Y7.20690
G01 X-9.05887 Y7.16108
G01 X-9.10169 Y7.11498
G01 X-9.14233 Y7.06886
G01 X-9.18093 Y7.02256
G01 X-9.21690 Y6.97720
G01 X-9.24593 Y6.93848
G01 X-9.27342 Y6.89974
G01 X-9.29948 Y6.86082
G01 X-9.32521 Y6.82029
G01 X-9.34506 Y6.78703
G01 X-9.36394 Y6.75344
G01 X-9.38522 Y6.71284
G01 X-9.40014 Y6.68263
G01 X-9.41386 Y6.65293
G01 X-9.42683 Y6.62288
G01 X-9.44153 Y6.58583
G01 X-9.46105 Y6.53087
G01 X-9.47750 Y6.47552
G01 X-9.47952 Y6.46797
G01 X-9.49204 Y6.41584
G01 X-9.50166 Y6.36406
G01 X-9.50278 Y6.35690
G01 X-9.50940 Y6.30657
G01 X-9.51334 Y6.25662
G01 X-9.51370 Y6.24945
G01 X-9.51499 Y6.20039
G01 X-9.51370 Y6.15055
G01 X-9.51331 Y6.14298
G01 X-9.50932 Y6.09265
G01 X-9.50273 Y6.04272
G01 X-9.50159 Y6.03553
G01 X-9.49187 Y5.98339
G01 X-9.47943 Y5.93166
G01 X-9.47203 Y5.90503
G01 X-9.47119 Y5.90492
G01 X-9.47203 Y5.90503
G01 X-9.49150 Y5.87146
G01 X-9.54944 Y5.76693
G01 X-9.57231 Y5.72307
G01 X-9.59205 Y5.67988
G01 X-9.62611 Y5.59964
G01 X-9.63792 Y5.57239
G01 X-9.64883 Y5.54425
G01 X-9.65256 Y5.53397
G01 X-9.66146 Y5.50793
G01 X-9.66935 Y5.48137
G01 X-9.69424 Y5.39994
G01 X-9.70249 Y5.37029
G01 X-9.70927 Y5.33984
G01 X-9.72959 Y5.23532
G01 X-9.73413 Y5.20814
G01 X-9.73710 Y5.18212
G01 X-9.74629 Y5.07720
G01 X-9.74782 Y5.05220
G01 X-9.74807 Y5.02644
G01 X-9.74625 Y4.92191
G01 X-9.74509 Y4.89585
G01 X-9.74265 Y4.87058
G01 X-9.72981 Y4.76605
G01 X-9.72572 Y4.73877
G01 X-9.72011 Y4.71110
G01 X-9.69580 Y4.60581
G01 X-9.68781 Y4.57498
G01 X-9.67784 Y4.54339
G01 X-9.64173 Y4.43850
G01 X-9.62771 Y4.40105
G01 X-9.61014 Y4.36085
G01 X-9.59012 Y4.31433
G01 X-9.58526 Y4.30395
G01 X-9.53888 Y4.21143
G01 X-9.51223 Y4.16442
G01 X-9.44942 Y4.05989
G01 X-9.43063 Y4.02959
G01 X-9.41081 Y3.99948
G01 X-9.39007 Y3.96970
G01 X-9.36787 Y3.93946
G01 X-9.28910 Y3.83493
G01 X-9.25840 Y3.79536
G01 X-9.22580 Y3.75564
G01 X-9.19145 Y3.71594
G01 X-9.15522 Y3.67613
G01 X-9.05760 Y3.57144
G01 X-9.00611 Y3.51779
G01 X-8.95114 Y3.46359
G01 X-8.89353 Y3.40969
G01 X-8.83327 Y3.35604
G01 X-8.71282 Y3.25133
G01 X-8.66869 Y3.21353
G01 X-8.62291 Y3.17546
G01 X-8.57600 Y3.13755
G01 X-8.52793 Y3.09976
G01 X-8.42734 Y3.02378
G01 X-8.32202 Y2.94819
G01 X-8.17259 Y2.84356
G01 X-8.08625 Y2.78414
G01 X-7.99684 Y2.72466
G01 X-7.90447 Y2.66519
G01 X-7.81041 Y2.60658
G01 X-7.75884 Y2.55723
G01 X-7.70465 Y2.50663
G01 X-7.64938 Y2.45615
G01 X-7.59302 Y2.40578
G01 X-7.59061 Y2.40403
G01 X-7.58789 Y2.40278
G01 X-7.58498 Y2.40210
G01 X-7.58200 Y2.40200
G01 X-7.51133 Y2.40687
G01 X-7.44045 Y2.41281
G01 X-7.36934 Y2.41982
G01 X-7.30015 Y2.42773
G01 X-7.18845 Y2.41822
G01 X-7.07564 Y2.41133
G01 X-6.96247 Y2.40708
G01 X-6.85125 Y2.40561
G01 X-6.76888 Y2.38230
G01 X-6.68435 Y2.36008
G01 X-6.59955 Y2.33941
G01 X-6.51527 Y2.32048
G01 X-6.43045 Y2.30306
G01 X-6.34617 Y2.28736
G01 X-6.26135 Y2.27319
G01 X-6.17679 Y2.26068
G01 X-6.09251 Y2.24982
G01 X-6.00794 Y2.24055
G01 X-5.92338 Y2.23289
G01 X-5.83854 Y2.22684
G01 X-5.75426 Y2.22243
G01 X-5.66941 Y2.21962
G01 X-5.58513 Y2.21845
G01 X-5.50056 Y2.21889
G01 X-5.41601 Y2.22094
G01 X-5.33115 Y2.22464
G01 X-5.24687 Y2.22991
G01 X-5.16202 Y2.23685
G01 X-5.07774 Y2.24535
G01 X-4.99291 Y2.25554
G01 X-4.90835 Y2.26732
G01 X-4.82407 Y2.28066
G01 X-4.73925 Y2.29573
G01 X-4.65498 Y2.31230
G01 X-4.57043 Y2.33055
G01 X-4.48588 Y2.35041
G01 X-4.40108 Y2.37196
G01 X-4.31654 Y2.39505
G01 X-4.23202 Y2.41978
G01 X-4.15019 Y2.44527
G01 X-4.15021 Y2.44541
G01 X-4.15019 Y2.44527
G01 X-4.03038 Y2.44083
G01 X-3.91019 Y2.43941
G01 X-3.91016 Y2.43955
G01 X-3.91019 Y2.43941
G01 X-3.80316 Y2.40050
G01 X-3.69308 Y2.36333
G01 X-3.58331 Y2.32910
G01 X-3.47389 Y2.29779
G01 X-3.36411 Y2.26921
G01 X-3.25434 Y2.24346
G01 X-3.14418 Y2.22046
G01 X-3.03439 Y2.20038
G01 X-2.92458 Y2.18314
G01 X-2.81477 Y2.16871
G01 X-2.70535 Y2.15716
G01 X-2.59516 Y2.14837
G01 X-2.48535 Y2.14244
G01 X-2.37554 Y2.13935
G01 X-2.26573 Y2.13909
G01 X-2.15630 Y2.14165
G01 X-2.15330 Y2.14203
G01 X-2.15044 Y2.14299
G01 X-2.14783 Y2.14452
G01 X-2.14558 Y2.14653
G01 X-2.07829 Y2.22016
G01 X-2.01355 Y2.29360
G01 X-1.95080 Y2.36746
G01 X-1.89079 Y2.44090
G01 X-1.83297 Y2.51456
G01 X-1.77751 Y2.58824
G01 X-1.72423 Y2.66219
G01 X-1.67370 Y2.73563
G01 X-1.62534 Y2.80933
G01 X-1.57917 Y2.88336
G01 X-1.53573 Y2.95679
G01 X-1.49448 Y3.03055
G01 X-1.45542 Y3.10465
G01 X-1.41908 Y3.17809
G01 X-1.38478 Y3.25224
G01 X-1.35310 Y3.32587
G01 X-1.33233 Y3.37601
G01 X-1.31060 Y3.43005
G01 X-1.28995 Y3.48468
G01 X-1.27082 Y3.53872
G01 X-1.25289 Y3.59308
G01 X-1.23616 Y3.64775
G01 X-1.22085 Y3.70212
G01 X-1.20693 Y3.75617
G01 X-1.19473 Y3.80874
G01 X-1.17961 Y3.83779
G01 X-1.15284 Y3.89031
G01 X-1.12492 Y3.94686
G01 X-1.09860 Y4.00376
G01 X-1.07407 Y4.06067
G01 X-1.05124 Y4.11779
G01 X-1.03111 Y4.17023
G01 X-1.01221 Y4.22139
G01 X-0.99467 Y4.27292
G01 X-0.97850 Y4.32482
G01 X-0.96406 Y4.37598
G01 X-0.94995 Y4.42862
G01 X-0.93775 Y4.47664
G01 X-0.92694 Y4.52428
G01 X-0.91728 Y4.57270
G01 X-0.90905 Y4.62053
G01 X-0.90077 Y4.67279
G01 X-0.89412 Y4.71863
G01 X-0.88865 Y4.76467
G01 X-0.88438 Y4.81110
G01 X-0.88137 Y4.85694
G01 X-0.87862 Y4.90940
G01 X-0.87685 Y4.95441
G01 X-0.87625 Y4.99980
G01 X-0.88625 Y4.99993
G01 X-0.88684 Y4.95480
G01 X-0.88861 Y4.90979
G01 X-0.89135 Y4.85747
G01 X-0.89436 Y4.81162
G01 X-0.89858 Y4.76585
G01 X-0.90400 Y4.72020
G01 X-0.91064 Y4.67442
G01 X-0.91893 Y4.62210
G01 X-0.92716 Y4.57426
G01 X-0.93669 Y4.52649
G01 X-0.94750 Y4.47885
G01 X-0.95966 Y4.43102
G01 X-0.97366 Y4.37876
G01 X-0.98817 Y4.32741
G01 X-1.00413 Y4.27614
G01 X-1.02159 Y4.22486
G01 X-1.04049 Y4.17370
G01 X-1.06060 Y4.12131
G01 X-1.08320 Y4.06475
G01 X-1.10763 Y4.00808
G01 X-1.13389 Y3.95129
G01 X-1.16181 Y3.89474
G01 X-1.18849 Y3.84239
G01 X-1.20415 Y3.81222
G01 X-1.21662 Y3.75866
G01 X-1.23054 Y3.70461
G01 X-1.24579 Y3.65046
G01 X-1.26238 Y3.59621
G01 X-1.28021 Y3.54216
G01 X-1.29938 Y3.48802
G01 X-1.31988 Y3.43378
G01 X-1.34161 Y3.37974
G01 X-1.36234 Y3.32970
G01 X-1.39402 Y3.25607
G01 X-1.42805 Y3.18252
G01 X-1.46445 Y3.10897
G01 X-1.50315 Y3.03554
G01 X-1.54434 Y2.96188
G01 X-1.58778 Y2.88845
G01 X-1.63370 Y2.81482
G01 X-1.68194 Y2.74130
G01 X-1.73247 Y2.66785
G01 X-1.78550 Y2.59425
G01 X-1.84084 Y2.52073
G01 X-1.89848 Y2.44730
G01 X-1.95855 Y2.37379
G01 X-2.02099 Y2.30028
G01 X-2.08579 Y2.22677
G01 X-2.15296 Y2.15328
G01 X-2.15371 Y2.15260
G01 X-2.15458 Y2.15210
G01 X-2.15553 Y2.15178
G01 X-2.15653 Y2.15165
G01 X-2.26596 Y2.14909
G01 X-2.37564 Y2.14935
G01 X-2.48507 Y2.15244
G01 X-2.59475 Y2.15836
G01 X-2.70418 Y2.16710
G01 X-2.81385 Y2.17867
G01 X-2.92328 Y2.19305
G01 X-3.03296 Y2.21028
G01 X-3.14238 Y2.23030
G01 X-3.25193 Y2.25317
G01 X-3.36159 Y2.27889
G01 X-3.47113 Y2.30740
G01 X-3.58055 Y2.33871
G01 X-3.69021 Y2.37291
G01 X-3.79975 Y2.40990
G01 X-3.90836 Y2.44946
G01 X-4.03001 Y2.45082
G01 X-4.15154 Y2.45539
G01 X-4.23499 Y2.42933
G01 X-4.31943 Y2.40463
G01 X-4.40371 Y2.38161
G01 X-4.48817 Y2.36014
G01 X-4.57245 Y2.34034
G01 X-4.65691 Y2.32211
G01 X-4.74118 Y2.30554
G01 X-4.82564 Y2.29054
G01 X-4.91001 Y2.27719
G01 X-4.99429 Y2.26545
G01 X-5.07865 Y2.25531
G01 X-5.16312 Y2.24680
G01 X-5.24750 Y2.23989
G01 X-5.33178 Y2.23462
G01 X-5.41615 Y2.23094
G01 X-5.50061 Y2.22889
G01 X-5.58499 Y2.22845
G01 X-5.66936 Y2.22962
G01 X-5.75374 Y2.23242
G01 X-5.83802 Y2.23683
G01 X-5.92239 Y2.24284
G01 X-6.00685 Y2.25049
G01 X-6.09123 Y2.25974
G01 X-6.17551 Y2.27060
G01 X-6.25988 Y2.28308
G01 X-6.34434 Y2.29719
G01 X-6.42861 Y2.31289
G01 X-6.51307 Y2.33024
G01 X-6.59736 Y2.34917
G01 X-6.68181 Y2.36975
G01 X-6.76617 Y2.39193
G01 X-6.84981 Y2.41555
G01 X-6.96210 Y2.41707
G01 X-7.07492 Y2.42130
G01 X-7.18796 Y2.42821
G01 X-7.30029 Y2.43775
G01 X-7.37047 Y2.42976
G01 X-7.44128 Y2.42278
G01 X-7.51202 Y2.41685
G01 X-7.58269 Y2.41198
G01 X-7.58465 Y2.41224
G01 X-7.58636 Y2.41324
G01 X-7.64272 Y2.46361
G01 X-7.69795 Y2.51405
G01 X-7.75193 Y2.56446
G01 X-7.80427 Y2.61450
G01 X-7.89900 Y2.67356
G01 X-7.99130 Y2.73299
G01 X-8.08052 Y2.79234
G01 X-8.16686 Y2.85175
G01 X-8.31619 Y2.95632
G01 X-8.42150 Y3.03191
G01 X-8.52175 Y3.10762
G01 X-8.56987 Y3.14545
G01 X-8.61662 Y3.18324
G01 X-8.66218 Y3.22112
G01 X-8.70634 Y3.25895
G01 X-8.82658 Y3.36347
G01 X-8.88688 Y3.41716
G01 X-8.94440 Y3.47098
G01 X-8.99890 Y3.52472
G01 X-9.05039 Y3.57837
G01 X-9.14795 Y3.68299
G01 X-9.18389 Y3.72249
G01 X-9.21799 Y3.76189
G01 X-9.25050 Y3.80149
G01 X-9.28107 Y3.84089
G01 X-9.35988 Y3.94548
G01 X-9.38186 Y3.97541
G01 X-9.40260 Y4.00519
G01 X-9.42228 Y4.03509
G01 X-9.44084 Y4.06504
G01 X-9.50366 Y4.16957
G01 X-9.52982 Y4.21567
G01 X-9.57633 Y4.30844
G01 X-9.58106 Y4.31856
G01 X-9.60101 Y4.36494
G01 X-9.61834 Y4.40456
G01 X-9.63228 Y4.44175
G01 X-9.66827 Y4.54628
G01 X-9.67813 Y4.57749
G01 X-9.68615 Y4.60844
G01 X-9.71028 Y4.71298
G01 X-9.71579 Y4.73999
G01 X-9.71988 Y4.76727
G01 X-9.73272 Y4.87180
G01 X-9.73516 Y4.89707
G01 X-9.73625 Y4.92208
G01 X-9.73807 Y5.02661
G01 X-9.73785 Y5.05133
G01 X-9.73633 Y5.07633
G01 X-9.72718 Y5.18086
G01 X-9.72416 Y5.20727
G01 X-9.71978 Y5.23341
G01 X-9.69946 Y5.33793
G01 X-9.69286 Y5.36761
G01 X-9.68468 Y5.39702
G01 X-9.65978 Y5.47848
G01 X-9.65205 Y5.50450
G01 X-9.64307 Y5.53083
G01 X-9.63939 Y5.54092
G01 X-9.62875 Y5.56841
G01 X-9.61692 Y5.59570
G01 X-9.58284 Y5.67597
G01 X-9.56310 Y5.71915
G01 X-9.54075 Y5.76197
G01 X-9.48275 Y5.86661
G01 X-9.46125 Y5.90367
G01 X-9.46083 Y5.90362
G01 X-9.46125 Y5.90367
G01 X-9.46977 Y5.93424
G01 X-9.48215 Y5.98573
G01 X-9.49178 Y6.03749
G01 X-9.49287 Y6.04441
G01 X-9.49941 Y6.09396
G01 X-9.50334 Y6.14377
G01 X-9.50370 Y6.15069
G01 X-9.50500 Y6.19987
G01 X-9.50371 Y6.24919
G01 X-9.50334 Y6.25624
G01 X-9.49943 Y6.30578
G01 X-9.49287 Y6.35559
G01 X-9.49178 Y6.36251
G01 X-9.48221 Y6.41401
G01 X-9.46980 Y6.46563
G01 X-9.46795 Y6.47254
G01 X-9.45170 Y6.52727
G01 X-9.43224 Y6.58212
G01 X-9.42956 Y6.58909
G01 X-9.41765 Y6.61892
G01 X-9.40484 Y6.64862
G01 X-9.39100 Y6.67855
G01 X-9.37285 Y6.71511
G01 X-9.35529 Y6.74842
G01 X-9.33647 Y6.78190
G01 X-9.31662 Y6.81516
G01 X-9.29106 Y6.85543
G01 X-9.26534 Y6.89384
G01 X-9.23801 Y6.93237
G01 X-9.20913 Y6.97090
G01 X-9.17867 Y7.00947
G01 X-9.17312 Y7.01631
G01 X-9.13483 Y7.06224
G01 X-9.09445 Y7.10808
G01 X-9.05180 Y7.15400
G01 X-9.00698 Y7.19991
G01 X-9.00008 Y7.20681
G01 X-8.94132 Y7.26389
G01 X-8.87923 Y7.32096
G01 X-8.81388 Y7.37795
G01 X-8.74509 Y7.43502
G01 X-8.73663 Y7.44187
G01 X-8.68985 Y7.47917
G01 X-8.64153 Y7.51657
G01 X-8.59191 Y7.55387
G01 X-8.54077 Y7.59126
G01 X-8.48830 Y7.62856
G01 X-8.43436 Y7.66590
G01 X-8.32222 Y7.74056
G01 X-8.22791 Y7.80084
G01 X-8.14125 Y7.85429
G01 X-8.05176 Y7.90769
G01 X-7.95931 Y7.96114
G01 X-7.95840 Y7.96155
G01 X-7.95742 Y7.96177
G01 X-7.95642 Y7.96179
G01 X-7.95543 Y7.96162
G01 X-7.86150 Y7.93464
G01 X-7.76061 Y7.90304
G01 X-7.70429 Y7.88432
G01 X-7.64785 Y7.86471
G01 X-7.53513 Y7.82301
G01 X-7.42254 Y7.77797
G01 X-7.30984 Y7.72949
G01 X-7.19878 Y7.67861
G01 X-7.09621 Y7.62868
G01 X-7.09625 Y7.62841
G01 X-7.09621 Y7.62868
G01 X-6.99932 Y7.64663
G01 X-6.90059 Y7.66276
G01 X-6.80197 Y7.67672
G01 X-6.70335 Y7.68854
G01 X-6.60473 Y7.69820
G01 X-6.50621 Y7.70571
G01 X-6.40759 Y7.71106
G01 X-6.30896 Y7.71427
G01 X-6.21023 Y7.71533
G01 X-6.11160 Y7.71423
G01 X-6.01309 Y7.71098
G01 X-5.91437 Y7.70557
G01 X-5.81574 Y7.69801
G01 X-5.71712 Y7.68830
G01 X-5.61860 Y7.67646
G01 X-5.52041 Y7.66249
G01 X-5.44471 Y7.66463
G01 X-5.36851 Y7.66550
G01 X-5.29222 Y7.66512
G01 X-5.21602 Y7.66348
G01 X-5.13990 Y7.66059
G01 X-5.06362 Y7.65643
G01 X-4.98750 Y7.65102
G01 X-4.91122 Y7.64434
G01 X-4.83502 Y7.63642
G01 X-4.75890 Y7.62724
G01 X-4.68262 Y7.61680
G01 X-4.60650 Y7.60511
G01 X-4.53022 Y7.59215
G01 X-4.45410 Y7.57796
G01 X-4.37783 Y7.56246
G01 X-4.30232 Y7.54586
G01 X-4.18295 Y7.54970
G01 X-4.06270 Y7.55055
G01 X-3.94270 Y7.54843
G01 X-3.82259 Y7.54333
G01 X-3.70234 Y7.53525
G01 X-3.58234 Y7.52422
G01 X-3.46222 Y7.51019
G01 X-3.34261 Y7.49324
G01 X-3.27355 Y7.49752
G01 X-3.20399 Y7.50084
G01 X-3.13442 Y7.50317
G01 X-3.06536 Y7.50450
G01 X-2.94305 Y7.52847
G01 X-2.82043 Y7.54931
G01 X-2.69768 Y7.56698
G01 X-2.57495 Y7.58148
G01 X-2.52261 Y7.58697
G01 X-2.40779 Y7.59765
G01 X-2.40679 Y7.59764
G01 X-2.40580 Y7.59743
G01 X-2.40488 Y7.59703
G01 X-2.40406 Y7.59645
G01 X-2.30291 Y7.50878
G01 X-2.20561 Y7.42111
G01 X-2.11224 Y7.33351
G01 X-2.02259 Y7.24580
G01 X-1.97033 Y7.19353
G01 X-1.88010 Y7.10110
G01 X-1.83669 Y7.05495
G01 X-1.79428 Y7.00869
G01 X-1.75302 Y6.96248
G01 X-1.71290 Y6.91632
G01 X-1.67382 Y6.87012
G01 X-1.63586 Y6.82390
G01 X-1.59346 Y6.77156
G01 X-1.53361 Y6.69577
G01 X-1.47672 Y6.61988
G01 X-1.42278 Y6.54386
G01 X-1.37201 Y6.46801
G01 X-1.33807 Y6.41575
G01 X-1.29726 Y6.35116
G01 X-1.25880 Y6.28673
G01 X-1.22246 Y6.22207
G01 X-1.18851 Y6.15764
G01 X-1.16181 Y6.10526
G01 X-1.13383 Y6.04859
G01 X-1.10763 Y5.99192
G01 X-1.08325 Y5.93536
G01 X-1.06057 Y5.87862
G01 X-1.04051 Y5.82635
G01 X-1.02159 Y5.77514
G01 X-1.00413 Y5.72386
G01 X-0.98817 Y5.67259
G01 X-0.97366 Y5.62123
G01 X-0.95966 Y5.56897
G01 X-0.94753 Y5.52127
G01 X-0.93669 Y5.47351
G01 X-0.92716 Y5.42574
G01 X-0.91893 Y5.37790
G01 X-0.91064 Y5.32557
G01 X-0.90402 Y5.27993
G01 X-0.89858 Y5.23415
G01 X-0.89435 Y5.18825
G01 X-0.89135 Y5.14253
G01 X-0.88862 Y5.09027
G01 X-0.88684 Y5.04521
G01 X-0.88625 Y4.99993
G01 X-0.89625 Y5.00000
G01 X-0.89684 Y4.95513
G01 X-0.89860 Y4.91022
G01 X-0.90134 Y4.85802
G01 X-0.90433 Y4.81247
G01 X-0.90852 Y4.76696
G01 X-0.91392 Y4.72144
G01 X-0.92053 Y4.67589
G01 X-0.92880 Y4.62369
G01 X-0.93698 Y4.57615
G01 X-0.94646 Y4.52864
G01 X-0.95724 Y4.48113
G01 X-0.96932 Y4.43358
G01 X-0.98331 Y4.38139
G01 X-0.99773 Y4.33032
G01 X-1.01362 Y4.27930
G01 X-1.03099 Y4.22826
G01 X-1.04986 Y4.17719
G01 X-1.06990 Y4.12499
G01 X-1.09246 Y4.06853
G01 X-1.11678 Y4.01210
G01 X-1.14288 Y3.95566
G01 X-1.17076 Y3.89919
G01 X-1.19738 Y3.84697
G01 X-1.21040 Y3.82182
G01 X-1.20980 Y3.81883
G01 X-1.21040 Y3.82182
G01 X-1.58188 Y4.13619
G01 X-1.62728 Y4.17388
G01 X-1.67170 Y4.20930
G01 X-1.82713 Y4.33061
G01 X-1.85897 Y4.35469
G01 X-1.89055 Y4.37706
G01 X-1.97105 Y4.43209
G01 X-1.99726 Y4.44923
G01 X-2.02367 Y4.46494
G01 X-2.07885 Y4.49612
G01 X-2.12676 Y4.52222
G01 X-2.14943 Y4.53531
G01 X-2.17110 Y4.54937
G01 X-2.21480 Y4.57939
G01 X-2.23390 Y4.59326
G01 X-2.25210 Y4.60799
G01 X-2.29186 Y4.64196
G01 X-2.30860 Y4.65703
G01 X-2.32450 Y4.67292
G01 X-2.36040 Y4.71074
G01 X-2.37563 Y4.72769
G01 X-2.39003 Y4.74547
G01 X-2.42204 Y4.78718
G01 X-2.43640 Y4.80696
G01 X-2.44983 Y4.82766
G01 X-2.47785 Y4.87338
G01 X-2.49168 Y4.89736
G01 X-2.50443 Y4.92244
G01 X-2.52825 Y4.97236
G01 X-2.54167 Y5.00258
G01 X-2.55376 Y5.03416
G01 X-2.57304 Y5.08861
G01 X-2.58580 Y5.12803
G01 X-2.59679 Y5.16923
G01 X-2.61108 Y5.22872
G01 X-2.61824 Y5.26098
G01 X-2.62662 Y5.33694
G01 X-2.63037 Y5.36846
G01 X-2.63502 Y5.40043
G01 X-2.64822 Y5.48402
G01 X-2.66049 Y5.56475
G01 X-2.66719 Y5.60599
G01 X-2.67493 Y5.64825
G01 X-2.68567 Y5.70402
G01 X-2.73726 Y5.97800
G01 X-2.75999 Y6.09125
G01 X-2.99851 Y7.21965
G01 X-3.04066 Y7.41363
G01 X-3.05884 Y7.49561
G01 X-3.06063 Y7.49679
G01 X-3.05884 Y7.49561
G01 X-2.94131 Y7.51862
G01 X-2.81881 Y7.53944
G01 X-2.69632 Y7.55707
G01 X-2.57381 Y7.57154
G01 X-2.52160 Y7.57702
G01 X-2.40899 Y7.58749
G01 X-2.40886 Y7.58791
G01 X-2.40899 Y7.58749
G01 X-2.30957 Y7.50132
G01 X-2.21241 Y7.41378
G01 X-2.11912 Y7.32625
G01 X-2.02965 Y7.23871
G01 X-1.97743 Y7.18649
G01 X-1.88735 Y7.09422
G01 X-1.84399 Y7.04812
G01 X-1.80172 Y7.00200
G01 X-1.76054 Y6.95589
G01 X-1.72046 Y6.90979
G01 X-1.68148 Y6.86369
G01 X-1.64359 Y6.81757
G01 X-1.60129 Y6.76534
G01 X-1.54150 Y6.68962
G01 X-1.48476 Y6.61393
G01 X-1.43106 Y6.53824
G01 X-1.38037 Y6.46254
G01 X-1.34647 Y6.41033
G01 X-1.30581 Y6.34598
G01 X-1.26742 Y6.28166
G01 X-1.23127 Y6.21735
G01 X-1.19737 Y6.15301
G01 X-1.17076 Y6.10081
G01 X-1.14288 Y6.04433
G01 X-1.11678 Y5.98790
G01 X-1.09246 Y5.93146
G01 X-1.06990 Y5.87501
G01 X-1.04986 Y5.82280
G01 X-1.03099 Y5.77174
G01 X-1.01362 Y5.72070
G01 X-0.99773 Y5.66968
G01 X-0.98331 Y5.61861
G01 X-0.96932 Y5.56642
G01 X-0.95724 Y5.51887
G01 X-0.94646 Y5.47136
G01 X-0.93698 Y5.42385
G01 X-0.92880 Y5.37631
G01 X-0.92053 Y5.32410
G01 X-0.91392 Y5.27856
G01 X-0.90852 Y5.23304
G01 X-0.90433 Y5.18753
G01 X-0.90134 Y5.14198
G01 X-0.89860 Y5.08978
G01 X-0.89684 Y5.04488
G01 X-0.89625 Y5.00000
G01 X-0.90625 Y5.00000
G01 X-0.90683 Y4.95539
G01 X-0.90859 Y4.91068
G01 X-0.91132 Y4.85861
G01 X-0.91430 Y4.81326
G01 X-0.91847 Y4.76801
G01 X-0.92384 Y4.72275
G01 X-0.93042 Y4.67739
G01 X-0.93867 Y4.62533
G01 X-0.94681 Y4.57798
G01 X-0.95624 Y4.53073
G01 X-0.96696 Y4.48347
G01 X-0.97900 Y4.43611
G01 X-0.99295 Y4.38404
G01 X-1.00732 Y4.33317
G01 X-1.02313 Y4.28240
G01 X-1.04042 Y4.23161
G01 X-1.05922 Y4.18072
G01 X-1.07921 Y4.12864
G01 X-1.10169 Y4.07236
G01 X-1.12592 Y4.01618
G01 X-1.15190 Y3.95997
G01 X-1.17970 Y3.90368
G01 X-1.21351 Y3.83755
G04 P0 ( dwell for no time -- G64 should not smooth over this point )
G00 Z0.08000 ( retract )

G00 X-4.15658 Y2.46276 ( rapid move to begin. )
G01 F3.00000
( Mill infeed pass 1/1 )
G01 Z-0.00800
G04 P0 ( dwell for no time -- G64 should not smooth over this point )
G01 F6.00000
G01 X-4.15658 Y2.46276
G01 X-4.15827 Y2.46370
G01 X-4.23792 Y2.43889
G01 X-4.32211 Y2.41426
G01 X-4.40630 Y2.39126
G01 X-4.49050 Y2.36987
G01 X-4.57469 Y2.35009
G01 X-4.65888 Y2.33192
G01 X-4.74306 Y2.31536
G01 X-4.82725 Y2.30041
G01 X-4.91143 Y2.28708
G01 X-4.99562 Y2.27536
G01 X-5.07980 Y2.26525
G01 X-5.16398 Y2.25676
G01 X-5.24817 Y2.24987
G01 X-5.33235 Y2.24460
G01 X-5.41654 Y2.24094
G01 X-5.50071 Y2.23889
G01 X-5.58490 Y2.23845
G01 X-5.66908 Y2.23962
G01 X-5.75327 Y2.24241
G01 X-5.83745 Y2.24681
G01 X-5.92163 Y2.25281
G01 X-6.00581 Y2.26044
G01 X-6.09000 Y2.26966
G01 X-6.17418 Y2.28051
G01 X-6.25837 Y2.29297
G01 X-6.34255 Y2.30703
G01 X-6.42674 Y2.32272
G01 X-6.51093 Y2.34001
G01 X-6.59512 Y2.35892
G01 X-6.67931 Y2.37944
G01 X-6.76350 Y2.40156
G01 X-6.84287 Y2.42394
G01 X-6.84471 Y2.42292
G01 X-6.84287 Y2.42394
G01 X-6.74631 Y2.75261
G01 X-6.41754 Y3.57597
G01 X-6.37925 Y3.67440
G01 X-6.34440 Y3.76931
G01 X-6.31285 Y3.86105
G01 X-6.28477 Y3.94919
G01 X-6.26004 Y4.03408
G01 X-6.23865 Y4.11574
G01 X-6.22068 Y4.19390
G01 X-6.20611 Y4.26860
G01 X-6.15761 Y4.54366
G01 X-6.14757 Y4.59387
G01 X-6.13583 Y4.64030
G01 X-6.12239 Y4.68300
G01 X-6.10725 Y4.72194
G01 X-6.09040 Y4.75720
G01 X-6.08139 Y4.77336
G01 X-6.07193 Y4.78862
G01 X-6.06206 Y4.80296
G01 X-6.05178 Y4.81636
G01 X-6.04109 Y4.82884
G01 X-6.03055 Y4.83991
G01 X-6.00132 Y4.85353
G01 X-5.99155 Y4.85786
G01 X-5.97366 Y4.86653
G01 X-5.96721 Y4.87005
G01 X-5.94986 Y4.88066
G01 X-5.94395 Y4.88472
G01 X-5.92876 Y4.89636
G01 X-5.92317 Y4.90113
G01 X-5.90988 Y4.91374
G01 X-5.90501 Y4.91886
G01 X-5.89264 Y4.93335
G01 X-5.88832 Y4.93900
G01 X-5.87728 Y4.95507
G01 X-5.87349 Y4.96125
G01 X-5.86316 Y4.98029
G01 X-5.85995 Y4.98702
G01 X-5.85049 Y5.00990
G01 X-5.84789 Y5.01723
G01 X-5.83946 Y5.04584
G01 X-5.83757 Y5.05372
G01 X-5.83380 Y5.07160
G01 X-5.83090 Y5.09006
G01 X-5.82976 Y5.09868
G01 X-5.82730 Y5.12262
G01 X-5.82605 Y5.14733
G01 X-5.82579 Y5.15682
G01 X-5.82583 Y5.18848
G01 X-5.82756 Y5.22136
G01 X-5.74922 Y5.66546
G01 X-5.74312 Y5.70337
G01 X-5.73802 Y5.74241
G01 X-5.51622 Y7.65262
G01 X-5.51731 Y7.65381
G01 X-5.51622 Y7.65262
G01 X-5.44447 Y7.65463
G01 X-5.36843 Y7.65550
G01 X-5.29240 Y7.65512
G01 X-5.21636 Y7.65348
G01 X-5.14032 Y7.65060
G01 X-5.06428 Y7.64645
G01 X-4.98825 Y7.64105
G01 X-4.91222 Y7.63439
G01 X-4.83618 Y7.62649
G01 X-4.76014 Y7.61732
G01 X-4.68410 Y7.60691
G01 X-4.60806 Y7.59523
G01 X-4.53202 Y7.58231
G01 X-4.45597 Y7.56813
G01 X-4.37993 Y7.55269
G01 X-4.30856 Y7.53703
G01 X-4.30694 Y7.53811
G01 X-4.30856 Y7.53703
G01 X-4.55999 Y6.15290
G01 X-4.57009 Y6.09475
G01 X-4.57907 Y6.03778
G01 X-4.58695 Y5.98185
G01 X-4.59372 Y5.92701
G01 X-4.59938 Y5.87329
G01 X-4.60394 Y5.82058
G01 X-4.60736 Y5.76908
G01 X-4.60967 Y5.71878
G01 X-4.60027 Y5.63015
G01 X-4.59469 Y5.57017
G01 X-4.58014 Y5.37761
G01 X-4.57011 Y5.25454
G01 X-4.55999 Y5.14052
G01 X-4.55061 Y5.04381
G01 X-4.54122 Y4.95414
G01 X-4.52847 Y4.84103
G01 X-4.51201 Y4.70448
G01 X-4.50811 Y4.67032
G01 X-4.50500 Y4.63560
G01 X-4.50500 Y4.34442
G01 X-4.50678 Y4.32031
G01 X-4.50982 Y4.28346
G01 X-4.52044 Y4.16378
G01 X-4.51786 Y4.11236
G01 X-4.51430 Y4.06005
G01 X-4.50974 Y4.00660
G01 X-4.50422 Y3.95233
G01 X-4.49772 Y3.89701
G01 X-4.49022 Y3.84063
G01 X-4.48175 Y3.78342
G01 X-4.47229 Y3.72517
G01 X-4.45043 Y3.60563
G01 X-4.42467 Y3.48227
G01 X-4.39500 Y3.35511
G01 X-4.36138 Y3.22388
G01 X-4.15827 Y2.46370
G01 X-4.17041 Y2.47039
G01 X-4.37104 Y3.22130
G01 X-4.40466 Y3.35253
G01 X-4.43448 Y3.48034
G01 X-4.46022 Y3.60358
G01 X-4.48217 Y3.72357
G01 X-4.49164 Y3.78195
G01 X-4.50011 Y3.83916
G01 X-4.50765 Y3.89584
G01 X-4.51417 Y3.95132
G01 X-4.51969 Y4.00559
G01 X-4.52428 Y4.05937
G01 X-4.52785 Y4.11195
G01 X-4.53043 Y4.16328
G01 X-4.53039 Y4.16536
G01 X-4.51978 Y4.28432
G01 X-4.51675 Y4.32108
G01 X-4.51499 Y4.34479
G01 X-4.51499 Y4.63515
G01 X-4.51806 Y4.66931
G01 X-4.52194 Y4.70329
G01 X-4.53927 Y4.84732
G01 X-4.55116 Y4.95305
G01 X-4.56125 Y5.04965
G01 X-4.57059 Y5.14660
G01 X-4.58007 Y5.25367
G01 X-4.59078 Y5.38540
G01 X-4.60466 Y5.56932
G01 X-4.61022 Y5.62916
G01 X-4.61960 Y5.71696
G01 X-4.61966 Y5.71924
G01 X-4.61734 Y5.76985
G01 X-4.61389 Y5.82154
G01 X-4.60933 Y5.87434
G01 X-4.60368 Y5.92797
G01 X-4.59685 Y5.98324
G01 X-4.58895 Y6.03934
G01 X-4.57997 Y6.09631
G01 X-4.56982 Y6.15473
G01 X-4.32012 Y7.52933
G01 X-4.31688 Y7.53149
G01 X-4.32012 Y7.52933
G01 X-4.38200 Y7.54290
G01 X-4.45789 Y7.55832
G01 X-4.53377 Y7.57246
G01 X-4.60966 Y7.58536
G01 X-4.68553 Y7.59701
G01 X-4.76142 Y7.60740
G01 X-4.83729 Y7.61655
G01 X-4.91317 Y7.62444
G01 X-4.98904 Y7.63108
G01 X-5.06491 Y7.63647
G01 X-5.14078 Y7.64060
G01 X-5.21666 Y7.64349
G01 X-5.29253 Y7.64512
G01 X-5.36840 Y7.64550
G01 X-5.44427 Y7.64463
G01 X-5.50729 Y7.64287
G01 X-5.50947 Y7.64525
G01 X-5.50729 Y7.64287
G01 X-5.72812 Y5.74105
G01 X-5.73319 Y5.70222
G01 X-5.73937 Y5.66373
G01 X-5.81754 Y5.22075
G01 X-5.81583 Y5.18849
G01 X-5.81579 Y5.15655
G01 X-5.81606 Y5.14682
G01 X-5.81731 Y5.12211
G01 X-5.81985 Y5.09737
G01 X-5.82102 Y5.08851
G01 X-5.82392 Y5.07005
G01 X-5.82778 Y5.05165
G01 X-5.82974 Y5.04350
G01 X-5.83846 Y5.01389
G01 X-5.84124 Y5.00608
G01 X-5.85092 Y4.98271
G01 X-5.85437 Y4.97553
G01 X-5.86496 Y4.95603
G01 X-5.86904 Y4.94941
G01 X-5.88008 Y4.93334
G01 X-5.88471 Y4.92726
G01 X-5.89776 Y4.91197
G01 X-5.90299 Y4.90649
G01 X-5.91629 Y4.89388
G01 X-5.92267 Y4.88843
G01 X-5.93828 Y4.87648
G01 X-5.94464 Y4.87214
G01 X-5.96199 Y4.86152
G01 X-5.96890 Y4.85775
G01 X-5.98719 Y4.84886
G01 X-5.99715 Y4.84444
G01 X-6.02456 Y4.83160
G01 X-6.02466 Y4.83174
G01 X-6.02456 Y4.83160
G01 X-6.03368 Y4.82211
G01 X-6.04401 Y4.81006
G01 X-6.05398 Y4.79707
G01 X-6.06356 Y4.78315
G01 X-6.07277 Y4.76829
G01 X-6.08151 Y4.75261
G01 X-6.09806 Y4.71797
G01 X-6.11295 Y4.67968
G01 X-6.12620 Y4.63758
G01 X-6.13781 Y4.59167
G01 X-6.14779 Y4.54181
G01 X-6.19632 Y4.26660
G01 X-6.21097 Y4.19150
G01 X-6.22890 Y4.11350
G01 X-6.25044 Y4.03128
G01 X-6.27514 Y3.94651
G01 X-6.30333 Y3.85802
G01 X-6.33501 Y3.76586
G01 X-6.36996 Y3.67068
G01 X-6.40820 Y3.57238
G01 X-6.73686 Y2.74935
G01 X-6.83042 Y2.43082
G01 X-6.83412 Y2.42878
G01 X-6.83042 Y2.43082
G01 X-6.76087 Y2.41121
G01 X-6.67686 Y2.38913
G01 X-6.59284 Y2.36865
G01 X-6.50883 Y2.34978
G01 X-6.42482 Y2.33253
G01 X-6.34081 Y2.31688
G01 X-6.25682 Y2.30285
G01 X-6.17281 Y2.29042
G01 X-6.08881 Y2.27960
G01 X-6.00482 Y2.27039
G01 X-5.92082 Y2.26278
G01 X-5.83683 Y2.25679
G01 X-5.75284 Y2.25240
G01 X-5.66885 Y2.24962
G01 X-5.58486 Y2.24845
G01 X-5.50086 Y2.24889
G01 X-5.41688 Y2.25093
G01 X-5.33288 Y2.25459
G01 X-5.24889 Y2.25984
G01 X-5.16489 Y2.26672
G01 X-5.08090 Y2.27519
G01 X-4.99691 Y2.28527
G01 X-4.91291 Y2.29698
G01 X-4.82890 Y2.31027
G01 X-4.74490 Y2.32519
G01 X-4.66090 Y2.34171
G01 X-4.57689 Y2.35984
G01 X-4.49287 Y2.37958
G01 X-4.40885 Y2.40093
G01 X-4.32483 Y2.42388
G01 X-4.24082 Y2.44846
G01 X-4.17041 Y2.47039
G04 P0 ( dwell for no time -- G64 should not smooth over this point )
G00 Z0.08000 ( retract )

G00 X-6.73143 Y2.84381 ( rapid move to begin. )
G01 F3.00000
( Mill infeed pass 1/1 )
G01 Z-0.00800
G04 P0 ( dwell for no time -- G64 should not smooth over this point )
G01 F6.00000
G01 X-6.73143 Y2.84381
G01 X-6.63650 Y4.69544
G01 X-6.63604 Y4.73379
G01 X-6.63872 Y4.77139
G01 X-6.64130 Y4.79001
G01 X-6.64465 Y4.80797
G01 X-6.64880 Y4.82557
G01 X-6.65377 Y4.84282
G01 X-6.76415 Y5.19291
G01 X-6.76859 Y5.20890
G01 X-6.77184 Y5.22483
G01 X-6.77397 Y5.24096
G01 X-6.77500 Y5.25755
G01 X-6.78249 Y5.52778
G01 X-6.78569 Y5.59565
G01 X-6.79169 Y5.66938
G01 X-6.80047 Y5.74904
G01 X-6.81205 Y5.83461
G01 X-6.82635 Y5.92583
G01 X-6.84353 Y6.02355
G01 X-6.86345 Y6.12693
G01 X-6.88615 Y6.23625
G01 X-6.91163 Y6.35152
G01 X-6.93990 Y6.47275
G01 X-6.97091 Y6.59979
G01 X-7.00473 Y6.73293
G01 X-7.04133 Y6.87204
G01 X-7.08076 Y7.01721
G01 X-7.12290 Y7.16813
G01 X-7.16667 Y7.32097
G01 X-7.16708 Y7.32097
G01 X-7.16667 Y7.32097
G01 X-7.12965 Y7.44929
G01 X-7.08497 Y7.61042
G01 X-7.08618 Y7.61174
G01 X-7.08497 Y7.61042
G01 X-6.99583 Y7.62693
G01 X-6.89763 Y7.64298
G01 X-6.79944 Y7.65688
G01 X-6.70123 Y7.66865
G01 X-6.60305 Y7.67828
G01 X-6.50485 Y7.68575
G01 X-6.40667 Y7.69108
G01 X-6.30847 Y7.69427
G01 X-6.21029 Y7.69533
G01 X-6.11210 Y7.69423
G01 X-6.01392 Y7.69099
G01 X-5.91573 Y7.68562
G01 X-5.81754 Y7.67810
G01 X-5.71935 Y7.66843
G01 X-5.62115 Y7.65663
G01 X-5.53728 Y7.64471
G01 X-5.52622 Y7.65323
G01 X-5.74795 Y5.74360
G01 X-5.75301 Y5.70488
G01 X-5.75907 Y5.66716
G01 X-5.83747 Y5.22254
G01 X-5.83754 Y5.22141
G01 X-5.83583 Y5.18834
G01 X-5.83579 Y5.15701
G01 X-5.83603 Y5.14777
G01 X-5.83727 Y5.12325
G01 X-5.83969 Y5.09991
G01 X-5.84079 Y5.09155
G01 X-5.84366 Y5.07328
G01 X-5.84734 Y5.05585
G01 X-5.84915 Y5.04830
G01 X-5.85735 Y5.02044
G01 X-5.85978 Y5.01360
G01 X-5.86902 Y4.99120
G01 X-5.87202 Y4.98494
G01 X-5.88208 Y4.96635
G01 X-5.88560 Y4.96062
G01 X-5.89648 Y4.94476
G01 X-5.90050 Y4.93954
G01 X-5.91235 Y4.92564
G01 X-5.91686 Y4.92091
G01 X-5.92995 Y4.90847
G01 X-5.93495 Y4.90422
G01 X-5.94972 Y4.89288
G01 X-5.95519 Y4.88912
G01 X-5.97232 Y4.87864
G01 X-5.97833 Y4.87538
G01 X-5.99581 Y4.86691
G01 X-6.00545 Y4.86264
G01 X-6.03137 Y4.85051
G01 X-6.03563 Y4.84847
G01 X-6.03708 Y4.84743
G01 X-6.04859 Y4.83545
G01 X-6.05962 Y4.82256
G01 X-6.07023 Y4.80874
G01 X-6.08037 Y4.79399
G01 X-6.09007 Y4.77833
G01 X-6.09921 Y4.76193
G01 X-6.11650 Y4.72574
G01 X-6.13188 Y4.68616
G01 X-6.14549 Y4.64290
G01 X-6.15735 Y4.59596
G01 X-6.16745 Y4.54545
G01 X-6.21596 Y4.27038
G01 X-6.23048 Y4.19590
G01 X-6.24838 Y4.11805
G01 X-6.26966 Y4.03681
G01 X-6.29432 Y3.95217
G01 X-6.32237 Y3.86414
G01 X-6.35380 Y3.77270
G01 X-6.38862 Y3.67789
G01 X-6.42683 Y3.57965
G01 X-6.74450 Y2.78410
G01 X-6.74997 Y2.75913
G01 X-6.74450 Y2.78410
G01 X-6.64649 Y4.69595
G01 X-6.64604 Y4.73391
G01 X-6.64869 Y4.77066
G01 X-6.65123 Y4.78885
G01 X-6.65452 Y4.80635
G01 X-6.65853 Y4.82326
G01 X-6.66338 Y4.84005
G01 X-6.77374 Y5.19007
G01 X-6.77832 Y5.20656
G01 X-6.78171 Y5.22317
G01 X-6.78393 Y5.23999
G01 X-6.78499 Y5.25710
G01 X-6.79247 Y5.52731
G01 X-6.79566 Y5.59483
G01 X-6.80163 Y5.66829
G01 X-6.81039 Y5.74770
G01 X-6.82193 Y5.83306
G01 X-6.83623 Y5.92428
G01 X-6.85334 Y6.02158
G01 X-6.87324 Y6.12490
G01 X-6.89592 Y6.23409
G01 X-6.92137 Y6.34924
G01 X-6.94961 Y6.47037
G01 X-6.98063 Y6.59746
G01 X-7.01442 Y6.73047
G01 X-7.05101 Y6.86953
G01 X-7.09038 Y7.01449
G01 X-7.13254 Y7.16548
G01 X-7.17708 Y7.32098
G01 X-7.17728 Y7.32099
G01 X-7.17708 Y7.32098
G01 X-7.13926 Y7.45206
G01 X-7.09294 Y7.61911
G01 X-7.09354 Y7.61977
G01 X-7.09294 Y7.61911
G01 X-6.99755 Y7.63678
G01 X-6.89914 Y7.65287
G01 X-6.80073 Y7.66680
G01 X-6.70232 Y7.67859
G01 X-6.60392 Y7.68824
G01 X-6.50550 Y7.69573
G01 X-6.40710 Y7.70107
G01 X-6.30869 Y7.70427
G01 X-6.21029 Y7.70533
G01 X-6.11188 Y7.70423
G01 X-6.01348 Y7.70098
G01 X-5.91508 Y7.69560
G01 X-5.81667 Y7.68806
G01 X-5.71826 Y7.67837
G01 X-5.61985 Y7.66654
G01 X-5.52622 Y7.65323
G01 X-5.52465 Y7.65445
G01 X-5.53728 Y7.64471
G01 X-5.75788 Y5.74483
G01 X-5.76290 Y5.70632
G01 X-5.76893 Y5.66882
G01 X-5.84732 Y5.22427
G01 X-5.84753 Y5.22089
G01 X-5.84583 Y5.18807
G01 X-5.84579 Y5.15714
G01 X-5.84603 Y5.14816
G01 X-5.84725 Y5.12402
G01 X-5.84962 Y5.10108
G01 X-5.85069 Y5.09298
G01 X-5.85349 Y5.07509
G01 X-5.85709 Y5.05805
G01 X-5.85881 Y5.05088
G01 X-5.86686 Y5.02352
G01 X-5.86912 Y5.01718
G01 X-5.87816 Y4.99526
G01 X-5.88093 Y4.98947
G01 X-5.89074 Y4.97135
G01 X-5.89399 Y4.96607
G01 X-5.90457 Y4.95064
G01 X-5.90827 Y4.94583
G01 X-5.91978 Y4.93233
G01 X-5.92393 Y4.92798
G01 X-5.93664 Y4.91590
G01 X-5.94124 Y4.91199
G01 X-5.95559 Y4.90097
G01 X-5.96064 Y4.89752
G01 X-5.97731 Y4.88729
G01 X-5.98290 Y4.88428
G01 X-5.99996 Y4.87601
G01 X-6.00976 Y4.87167
G01 X-6.03994 Y4.85750
G01 X-6.04226 Y4.85612
G01 X-6.04429 Y4.85436
G01 X-6.05618 Y4.84196
G01 X-6.06756 Y4.82864
G01 X-6.07846 Y4.81440
G01 X-6.08887 Y4.79926
G01 X-6.09880 Y4.78320
G01 X-6.10794 Y4.76680
G01 X-6.12582 Y4.72937
G01 X-6.14142 Y4.68916
G01 X-6.15518 Y4.64535
G01 X-6.16699 Y4.59866
G01 X-6.17730 Y4.54718
G01 X-6.22579 Y4.27221
G01 X-6.24026 Y4.19798
G01 X-6.25809 Y4.12044
G01 X-6.27930 Y4.03948
G01 X-6.30389 Y3.95508
G01 X-6.33186 Y3.86728
G01 X-6.36322 Y3.77605
G01 X-6.39797 Y3.68142
G01 X-6.43614 Y3.58332
G01 X-6.73143 Y2.84381
G01 X-6.74236 Y2.79387
G04 P0 ( dwell for no time -- G64 should not smooth over this point )
G00 Z0.08000 ( retract )

G00 X-7.80415 Y2.62248 ( rapid move to begin. )
G01 F3.00000
( Mill infeed pass 1/1 )
G01 Z-0.00800
G04 P0 ( dwell for no time -- G64 should not smooth over this point )
G01 F6.00000
G01 X-7.80415 Y2.62248
G01 X-7.80915 Y2.62930
G01 X-7.87984 Y2.90424
G01 X-7.92664 Y3.08157
G01 X-7.97344 Y3.24949
G01 X-8.07796 Y3.61399
G01 X-8.10387 Y3.70244
G01 X-8.12978 Y3.78712
G01 X-8.23632 Y4.12756
G01 X-8.25987 Y4.20689
G01 X-8.27962 Y4.28235
G01 X-8.30695 Y4.40680
G01 X-8.32803 Y4.50826
G01 X-8.33249 Y4.53576
G01 X-8.33598 Y4.56262
G01 X-8.33849 Y4.58884
G01 X-8.34003 Y4.61422
G01 X-8.34199 Y4.66085
G01 X-8.34283 Y4.67579
G01 X-8.35093 Y4.79171
G01 X-8.35286 Y4.81197
G01 X-8.35580 Y4.83167
G01 X-8.37327 Y4.93080
G01 X-8.37492 Y4.94129
G01 X-8.37875 Y4.96888
G01 X-8.38101 Y4.99416
G01 X-8.38078 Y5.01927
G01 X-8.37812 Y5.04445
G01 X-8.37312 Y5.06925
G01 X-8.37156 Y5.07555
G01 X-8.36821 Y5.09071
G01 X-8.36561 Y5.10630
G01 X-8.34994 Y5.21781
G01 X-8.34739 Y5.24032
G01 X-8.34600 Y5.26350
G01 X-8.34334 Y5.33985
G01 X-8.34024 Y5.38289
G01 X-8.33194 Y5.46012
G01 X-8.32720 Y5.49716
G01 X-8.32080 Y5.53548
G01 X-8.31274 Y5.57507
G01 X-8.30305 Y5.61586
G01 X-8.25788 Y5.79381
G01 X-8.21649 Y5.93315
G01 X-8.19376 Y6.00808
G01 X-8.18959 Y6.01246
G01 X-8.19376 Y6.00808
G01 X-8.26154 Y5.98407
G01 X-8.31098 Y5.96832
G01 X-8.44500 Y5.92495
G01 X-8.49644 Y5.90924
G01 X-8.50559 Y5.90661
G01 X-8.54528 Y5.89584
G01 X-8.58407 Y5.88651
G01 X-8.63775 Y5.87446
G01 X-8.69624 Y5.86090
G01 X-8.74481 Y5.85096
G01 X-8.75239 Y5.84962
G01 X-8.78202 Y5.84493
G01 X-8.81108 Y5.84138
G01 X-8.84412 Y5.83791
G01 X-8.88846 Y5.83287
G01 X-8.91854 Y5.83011
G01 X-8.92562 Y5.82962
G01 X-8.96007 Y5.82809
G01 X-8.99428 Y5.82828
G01 X-9.07420 Y5.83009
G01 X-9.08126 Y5.83034
G01 X-9.11851 Y5.83264
G01 X-9.15642 Y5.83697
G01 X-9.17215 Y5.83923
G01 X-9.25704 Y5.85212
G01 X-9.30587 Y5.86047
G01 X-9.35533 Y5.87153
G01 X-9.36343 Y5.87355
G01 X-9.45346 Y5.89718
G01 X-9.45395 Y5.89837
G01 X-9.45346 Y5.89718
G01 X-9.47403 Y5.86172
G01 X-9.53192 Y5.75729
G01 X-9.55418 Y5.71464
G01 X-9.57366 Y5.67200
G01 X-9.60772 Y5.59178
G01 X-9.61953 Y5.56452
G01 X-9.63005 Y5.53736
G01 X-9.63365 Y5.52746
G01 X-9.64250 Y5.50156
G01 X-9.65020 Y5.47562
G01 X-9.67510 Y5.39416
G01 X-9.68319 Y5.36506
G01 X-9.68965 Y5.33596
G01 X-9.70995 Y5.23157
G01 X-9.71428 Y5.20574
G01 X-9.71722 Y5.17992
G01 X-9.72636 Y5.07552
G01 X-9.72785 Y5.05112
G01 X-9.72807 Y5.02672
G01 X-9.72625 Y4.92232
G01 X-9.72517 Y4.89764
G01 X-9.72279 Y4.87295
G01 X-9.70997 Y4.76856
G01 X-9.70596 Y4.74186
G01 X-9.70052 Y4.71516
G01 X-9.67642 Y4.61076
G01 X-9.66848 Y4.58012
G01 X-9.65879 Y4.54948
G01 X-9.62284 Y4.44507
G01 X-9.60902 Y4.40819
G01 X-9.59186 Y4.36896
G01 X-9.57197 Y4.32273
G01 X-9.56736 Y4.31286
G01 X-9.52106 Y4.22049
G01 X-9.49505 Y4.17467
G01 X-9.43229 Y4.07022
G01 X-9.41389 Y4.04053
G01 X-9.39436 Y4.01085
G01 X-9.37369 Y3.98118
G01 X-9.35188 Y3.95147
G01 X-9.27315 Y3.84700
G01 X-9.24264 Y3.80768
G01 X-9.21039 Y3.76838
G01 X-9.17637 Y3.72908
G01 X-9.14057 Y3.68975
G01 X-9.04315 Y3.58527
G01 X-8.99173 Y3.53169
G01 X-8.93742 Y3.47815
G01 X-8.88019 Y3.42458
G01 X-8.82000 Y3.37099
G01 X-8.69979 Y3.26650
G01 X-8.65570 Y3.22874
G01 X-8.61031 Y3.19100
G01 X-8.56361 Y3.15325
G01 X-8.51561 Y3.11551
G01 X-8.41563 Y3.04000
G01 X-8.31038 Y2.96446
G01 X-8.16114 Y2.85996
G01 X-8.07495 Y2.80064
G01 X-7.98579 Y2.74133
G01 X-7.89367 Y2.68202
G01 X-7.80915 Y2.62930
G01 X-7.82506 Y2.65101
G01 X-7.88952 Y2.90172
G01 X-7.93630 Y3.07895
G01 X-7.98306 Y3.24677
G01 X-8.08757 Y3.61120
G01 X-8.11345 Y3.69958
G01 X-8.13933 Y3.78416
G01 X-8.24591 Y4.12471
G01 X-8.26941 Y4.20389
G01 X-8.28939 Y4.28020
G01 X-8.31673 Y4.40471
G01 X-8.33778 Y4.50602
G01 X-8.34234 Y4.53401
G01 X-8.34587 Y4.56117
G01 X-8.34847 Y4.58823
G01 X-8.35003 Y4.61389
G01 X-8.35198 Y4.66036
G01 X-8.35281 Y4.67516
G01 X-8.36090 Y4.79089
G01 X-8.36279 Y4.81076
G01 X-8.36566 Y4.83006
G01 X-8.38312 Y4.92906
G01 X-8.38483 Y4.93992
G01 X-8.38866 Y4.96751
G01 X-8.39101 Y4.99424
G01 X-8.39073 Y5.02031
G01 X-8.38792 Y5.04642
G01 X-8.38292 Y5.07122
G01 X-8.38129 Y5.07784
G01 X-8.37803 Y5.09261
G01 X-8.37550 Y5.10782
G01 X-8.35986 Y5.21907
G01 X-8.35736 Y5.24118
G01 X-8.35599 Y5.26397
G01 X-8.35333 Y5.34020
G01 X-8.35018 Y5.38396
G01 X-8.34186 Y5.46139
G01 X-8.33707 Y5.49881
G01 X-8.33060 Y5.53747
G01 X-8.32247 Y5.57738
G01 X-8.31279 Y5.61810
G01 X-8.26741 Y5.79685
G01 X-8.22606 Y5.93603
G01 X-8.20910 Y5.99204
G01 X-8.20078 Y6.00078
G01 X-8.20910 Y5.99204
G01 X-8.25851 Y5.97454
G01 X-8.30791 Y5.95880
G01 X-8.44208 Y5.91538
G01 X-8.49368 Y5.89963
G01 X-8.50297 Y5.89696
G01 X-8.54294 Y5.88612
G01 X-8.58196 Y5.87673
G01 X-8.63554 Y5.86471
G01 X-8.69397 Y5.85116
G01 X-8.74280 Y5.84116
G01 X-8.75064 Y5.83977
G01 X-8.78028 Y5.83507
G01 X-8.80987 Y5.83145
G01 X-8.84301 Y5.82797
G01 X-8.88733 Y5.82294
G01 X-8.91763 Y5.82015
G01 X-8.92517 Y5.81963
G01 X-8.96012 Y5.81809
G01 X-8.99460 Y5.81829
G01 X-9.07447 Y5.82010
G01 X-9.08187 Y5.82036
G01 X-9.11912 Y5.82266
G01 X-9.15781 Y5.82706
G01 X-9.17368 Y5.82935
G01 X-9.25847 Y5.84223
G01 X-9.30805 Y5.85071
G01 X-9.35751 Y5.86177
G01 X-9.38040 Y5.86758
G01 X-9.44863 Y5.88557
G01 X-9.44962 Y5.88794
G01 X-9.44863 Y5.88557
G01 X-9.46533 Y5.85679
G01 X-9.52311 Y5.75255
G01 X-9.54519 Y5.71025
G01 X-9.56451 Y5.66797
G01 X-9.59856 Y5.58776
G01 X-9.61028 Y5.56073
G01 X-9.62069 Y5.53385
G01 X-9.62422 Y5.52413
G01 X-9.63297 Y5.49852
G01 X-9.64064 Y5.47265
G01 X-9.66550 Y5.39136
G01 X-9.67348 Y5.36263
G01 X-9.67986 Y5.33392
G01 X-9.70011 Y5.22979
G01 X-9.70437 Y5.20435
G01 X-9.70727 Y5.17891
G01 X-9.71639 Y5.07478
G01 X-9.71785 Y5.05077
G01 X-9.71807 Y5.02676
G01 X-9.71626 Y4.92263
G01 X-9.71519 Y4.89834
G01 X-9.71285 Y4.87404
G01 X-9.70006 Y4.76991
G01 X-9.69611 Y4.74360
G01 X-9.69075 Y4.71729
G01 X-9.66671 Y4.61314
G01 X-9.65887 Y4.58289
G01 X-9.64930 Y4.55261
G01 X-9.61343 Y4.44845
G01 X-9.59975 Y4.41194
G01 X-9.58267 Y4.37291
G01 X-9.56284 Y4.32682
G01 X-9.55836 Y4.31722
G01 X-9.51223 Y4.22520
G01 X-9.48642 Y4.17971
G01 X-9.42376 Y4.07543
G01 X-9.40546 Y4.04591
G01 X-9.38608 Y4.01646
G01 X-9.36556 Y3.98700
G01 X-9.34385 Y3.95744
G01 X-9.26520 Y3.85307
G01 X-9.23483 Y3.81392
G01 X-9.20274 Y3.77483
G01 X-9.16889 Y3.73572
G01 X-9.13322 Y3.69652
G01 X-9.03588 Y3.59214
G01 X-8.98461 Y3.53871
G01 X-8.93050 Y3.48536
G01 X-8.87345 Y3.43197
G01 X-8.81339 Y3.37850
G01 X-8.69326 Y3.27408
G01 X-8.64926 Y3.23638
G01 X-8.60397 Y3.19873
G01 X-8.55738 Y3.16107
G01 X-8.50950 Y3.12343
G01 X-8.40969 Y3.04805
G01 X-8.30459 Y2.97262
G01 X-8.15544 Y2.86817
G01 X-8.06934 Y2.80892
G01 X-7.98032 Y2.74970
G01 X-7.88832 Y2.69047
G01 X-7.82506 Y2.65101
G04 P0 ( dwell for no time -- G64 should not smooth over this point )
G00 Z0.08000 ( retract )

G00 X-8.75695 Y4.73731 ( rapid move to begin. )
G01 F3.00000
( Mill infeed pass 1/1 )
G01 Z-0.00800
G04 P0 ( dwell for no time -- G64 should not smooth over this point )
G01 F6.00000
G01 X-8.75695 Y4.73731
G01 X-8.98556 Y4.92913
G01 X-8.98829 Y4.92855
G01 X-8.99344 Y4.92782
G01 X-9.00194 Y4.92768
G01 X-9.19452 Y4.69818
G01 X-9.13477 Y4.66642
G01 X-9.06247 Y4.64569
G01 X-8.98744 Y4.64044
G01 X-8.91296 Y4.65091
G01 X-8.84228 Y4.67663
G01 X-8.77850 Y4.71649
G01 X-8.75695 Y4.73731
G01 X-8.74201 Y4.73783
G01 X-8.98291 Y4.93996
G01 X-8.99037 Y4.93834
G01 X-8.99449 Y4.93774
G01 X-9.00340 Y4.93768
G01 X-9.00643 Y4.93789
G01 X-9.20961 Y4.69574
G01 X-9.20681 Y4.69339
G01 X-9.13854 Y4.65710
G01 X-9.06422 Y4.63578
G01 X-8.98709 Y4.63039
G01 X-8.91052 Y4.64115
G01 X-8.83788 Y4.66759
G01 X-8.77231 Y4.70857
G01 X-8.74201 Y4.73783
G01 X-8.72707 Y4.73835
G01 X-8.98082 Y4.95127
G01 X-8.98282 Y4.95043
G01 X-8.98579 Y4.94950
G01 X-8.99244 Y4.94812
G01 X-8.99554 Y4.94769
G01 X-9.00445 Y4.94770
G01 X-9.00756 Y4.94812
G01 X-9.01039 Y4.94872
G01 X-9.22370 Y4.69451
G01 X-9.21244 Y4.68506
G01 X-9.14230 Y4.64777
G01 X-9.06596 Y4.62588
G01 X-8.98674 Y4.62034
G01 X-8.90809 Y4.63140
G01 X-8.83347 Y4.65856
G01 X-8.76612 Y4.70064
G01 X-8.72707 Y4.73835
G01 X-8.71214 Y4.73887
G01 X-8.75993 Y4.69272
G01 X-8.82906 Y4.64952
G01 X-8.90566 Y4.62164
G01 X-8.98639 Y4.61029
G01 X-9.06771 Y4.61598
G01 X-9.14607 Y4.63845
G01 X-9.21806 Y4.67672
G01 X-9.23779 Y4.69328
G01 X-9.01404 Y4.95993
G01 X-9.01212 Y4.95931
G01 X-9.00548 Y4.95790
G01 X-9.00340 Y4.95768
G01 X-8.99660 Y4.95768
G01 X-8.99452 Y4.95790
G01 X-8.98788 Y4.95931
G01 X-8.98590 Y4.95995
G01 X-8.97922 Y4.96298
G01 X-8.71214 Y4.73887
G04 P0 ( dwell for no time -- G64 should not smooth over this point )
G00 Z0.08000 ( retract )

G00 X-8.61100 Y4.97280 ( rapid move to begin. )
G01 F3.00000
( Mill infeed pass 1/1 )
G01 Z-0.00800
G04 P0 ( dwell for no time -- G64 should not smooth over this point )
G01 F6.00000
G01 X-8.61100 Y4.97280
G01 X-8.61385 Y5.05427
G01 X-8.63357 Y5.13337
G01 X-8.66931 Y5.20664
G01 X-8.71949 Y5.27088
G01 X-8.73923 Y5.28744
G01 X-8.96307 Y5.02067
G01 X-8.96165 Y5.01823
G01 X-8.96080 Y5.01631
G01 X-8.95870 Y5.00985
G01 X-8.95826 Y5.00780
G01 X-8.95755 Y5.00104
G01 X-8.95755 Y4.99895
G01 X-8.95826 Y4.99219
G01 X-8.95870 Y4.99015
G01 X-8.96003 Y4.98604
G01 X-8.69285 Y4.76185
G01 X-8.65570 Y4.81693
G01 X-8.62517 Y4.89252
G01 X-8.61100 Y4.97280
G01 X-8.62103 Y4.97350
G01 X-8.62381 Y5.05287
G01 X-8.64302 Y5.12993
G01 X-8.67784 Y5.20131
G01 X-8.72672 Y5.26389
G01 X-8.73800 Y5.27335
G01 X-8.95123 Y5.01922
G01 X-8.94919 Y5.01294
G01 X-8.94844 Y5.00991
G01 X-8.94756 Y5.00209
G01 X-8.94760 Y4.99791
G01 X-8.94861 Y4.98951
G01 X-8.69493 Y4.77665
G01 X-8.66458 Y4.82165
G01 X-8.63484 Y4.89529
G01 X-8.62103 Y4.97350
G01 X-8.63106 Y4.97420
G01 X-8.63376 Y5.05147
G01 X-8.65247 Y5.12649
G01 X-8.68636 Y5.19598
G01 X-8.73396 Y5.25691
G01 X-8.73676 Y5.25926
G01 X-8.94001 Y5.01704
G01 X-8.93868 Y5.01200
G01 X-8.93763 Y5.00313
G01 X-8.93755 Y4.99896
G01 X-8.93800 Y4.99366
G01 X-8.69701 Y4.79145
G01 X-8.67346 Y4.82637
G01 X-8.64450 Y4.89806
G01 X-8.63106 Y4.97420
G01 X-8.64109 Y4.97490
G01 X-8.65417 Y4.90083
G01 X-8.68234 Y4.83109
G01 X-8.69909 Y4.80625
G01 X-8.92760 Y4.99799
G01 X-8.92770 Y5.00417
G01 X-8.92842 Y5.01093
G01 X-8.92903 Y5.01457
G01 X-8.73654 Y5.24397
G01 X-8.69489 Y5.19065
G01 X-8.66192 Y5.12305
G01 X-8.64372 Y5.05007
G01 X-8.64109 Y4.97490
G04 P0 ( dwell for no time -- G64 should not smooth over this point )
G00 Z0.08000 ( retract )

G00 X-9.03693 Y4.97933 ( rapid move to begin. )
G01 F3.00000
( Mill infeed pass 1/1 )
G01 Z-0.00800
G04 P0 ( dwell for no time -- G64 should not smooth over this point )
G01 F6.00000
G01 X-9.03693 Y4.97933
G01 X-9.03835 Y4.98177
G01 X-9.03920 Y4.98369
G01 X-9.04130 Y4.99015
G01 X-9.04173 Y4.99219
G01 X-9.04245 Y4.99895
G01 X-9.04245 Y5.00104
G01 X-9.04173 Y5.00780
G01 X-9.04130 Y5.00985
G01 X-9.03997 Y5.01396
G01 X-9.30715 Y5.23815
G01 X-9.34430 Y5.18307
G01 X-9.37483 Y5.10748
G01 X-9.38900 Y5.02720
G01 X-9.38615 Y4.94573
G01 X-9.36643 Y4.86663
G01 X-9.33069 Y4.79336
G01 X-9.28051 Y4.72912
G01 X-9.26077 Y4.71256
G01 X-9.03693 Y4.97933
G01 X-9.04877 Y4.98078
G01 X-9.05081 Y4.98706
G01 X-9.05155 Y4.99009
G01 X-9.05244 Y4.99791
G01 X-9.05240 Y5.00208
G01 X-9.05139 Y5.01049
G01 X-9.30507 Y5.22335
G01 X-9.33542 Y5.17835
G01 X-9.36516 Y5.10471
G01 X-9.37897 Y5.02650
G01 X-9.37619 Y4.94713
G01 X-9.35698 Y4.87007
G01 X-9.32216 Y4.79869
G01 X-9.27328 Y4.73610
G01 X-9.26200 Y4.72665
G01 X-9.04877 Y4.98078
G01 X-9.05999 Y4.98296
G01 X-9.06132 Y4.98800
G01 X-9.06237 Y4.99687
G01 X-9.06245 Y5.00104
G01 X-9.06200 Y5.00634
G01 X-9.30299 Y5.20855
G01 X-9.32654 Y5.17363
G01 X-9.35550 Y5.10194
G01 X-9.36894 Y5.02580
G01 X-9.36623 Y4.94853
G01 X-9.34753 Y4.87351
G01 X-9.31363 Y4.80402
G01 X-9.26604 Y4.74309
G01 X-9.26324 Y4.74073
G01 X-9.05999 Y4.98296
G01 X-9.07097 Y4.98543
G01 X-9.26346 Y4.75603
G01 X-9.30511 Y4.80934
G01 X-9.33808 Y4.87695
G01 X-9.35628 Y4.94993
G01 X-9.35891 Y5.02509
G01 X-9.34583 Y5.09916
G01 X-9.31766 Y5.16891
G01 X-9.30091 Y5.19375
G01 X-9.07240 Y5.00201
G01 X-9.07230 Y4.99582
G01 X-9.07157 Y4.98907
G01 X-9.07097 Y4.98543
G04 P0 ( dwell for no time -- G64 should not smooth over this point )
G00 Z0.08000 ( retract )

G00 X-8.80548 Y5.30182 ( rapid move to begin. )
G01 F3.00000
( Mill infeed pass 1/1 )
G01 Z-0.00800
G04 P0 ( dwell for no time -- G64 should not smooth over this point )
G01 F6.00000
G01 X-8.80548 Y5.30182
G01 X-8.99806 Y5.07232
G01 X-9.00656 Y5.07218
G01 X-9.01171 Y5.07144
G01 X-9.01444 Y5.07087
G01 X-9.24305 Y5.26269
G01 X-9.22150 Y5.28351
G01 X-9.15772 Y5.32337
G01 X-9.08704 Y5.34909
G01 X-9.01256 Y5.35956
G01 X-8.93753 Y5.35431
G01 X-8.86523 Y5.33358
G01 X-8.80548 Y5.30182
G01 X-8.79039 Y5.30426
G01 X-8.99357 Y5.06211
G01 X-8.99660 Y5.06232
G01 X-9.00551 Y5.06226
G01 X-9.00963 Y5.06166
G01 X-9.01709 Y5.06004
G01 X-9.25799 Y5.26217
G01 X-9.22769 Y5.29143
G01 X-9.16212 Y5.33240
G01 X-9.08947 Y5.35885
G01 X-9.01291 Y5.36961
G01 X-8.93578 Y5.36421
G01 X-8.86146 Y5.34290
G01 X-8.79319 Y5.30661
G01 X-8.79039 Y5.30426
G01 X-8.77630 Y5.30549
G01 X-8.98961 Y5.05128
G01 X-8.99244 Y5.05188
G01 X-8.99554 Y5.05230
G01 X-9.00446 Y5.05230
G01 X-9.00756 Y5.05188
G01 X-9.01420 Y5.05050
G01 X-9.01717 Y5.04957
G01 X-9.01918 Y5.04873
G01 X-9.27292 Y5.26165
G01 X-9.23388 Y5.29936
G01 X-9.16653 Y5.34144
G01 X-9.09191 Y5.36860
G01 X-9.01326 Y5.37966
G01 X-8.93404 Y5.37412
G01 X-8.85770 Y5.35223
G01 X-8.78756 Y5.31494
G01 X-8.77630 Y5.30549
G01 X-8.76221 Y5.30672
G01 X-8.78194 Y5.32328
G01 X-8.85393 Y5.36155
G01 X-8.93229 Y5.38402
G01 X-9.01361 Y5.38971
G01 X-9.09434 Y5.37836
G01 X-9.17094 Y5.35048
G01 X-9.24007 Y5.30728
G01 X-9.28786 Y5.26113
G01 X-9.02078 Y5.03702
G01 X-9.01410 Y5.04005
G01 X-9.01212 Y5.04069
G01 X-9.00548 Y5.04210
G01 X-9.00340 Y5.04232
G01 X-8.99660 Y5.04232
G01 X-8.99452 Y5.04210
G01 X-8.98788 Y5.04069
G01 X-8.98596 Y5.04007
G01 X-8.76221 Y5.30672
G04 P0 ( dwell for no time -- G64 should not smooth over this point )
G00 Z0.08000 ( retract )

G00 X-7.43941 Y6.77308 ( rapid move to begin. )
G01 F3.00000
( Mill infeed pass 1/1 )
G01 Z-0.00800
G04 P0 ( dwell for no time -- G64 should not smooth over this point )
G01 F6.00000
G01 X-7.43941 Y6.77308
G01 X-7.54706 Y6.65476
G01 X-7.86406 Y6.30478
G01 X-7.91615 Y6.24831
G01 X-7.96808 Y6.19472
G01 X-8.02005 Y6.14384
G01 X-8.07172 Y6.09596
G01 X-8.07867 Y6.08970
G01 X-8.11520 Y6.05748
G01 X-8.17300 Y6.00758
G01 X-8.17335 Y6.00780
G01 X-8.17300 Y6.00758
G01 X-8.19733 Y5.92741
G01 X-8.23856 Y5.78860
G01 X-8.28363 Y5.61105
G01 X-8.29323 Y5.57068
G01 X-8.30115 Y5.53175
G01 X-8.30743 Y5.49415
G01 X-8.31208 Y5.45774
G01 X-8.32033 Y5.38102
G01 X-8.32336 Y5.33888
G01 X-8.32604 Y5.26236
G01 X-8.32744 Y5.23899
G01 X-8.33008 Y5.21549
G01 X-8.34581 Y5.10345
G01 X-8.34865 Y5.08652
G01 X-8.35204 Y5.07118
G01 X-8.35358 Y5.06496
G01 X-8.35839 Y5.04119
G01 X-8.36083 Y5.01790
G01 X-8.36102 Y4.99473
G01 X-8.35889 Y4.97127
G01 X-8.35513 Y4.94418
G01 X-8.35355 Y4.93414
G01 X-8.33609 Y4.83507
G01 X-8.33297 Y4.81400
G01 X-8.33099 Y4.79317
G01 X-8.32288 Y4.67715
G01 X-8.32201 Y4.66173
G01 X-8.32006 Y4.61529
G01 X-8.31854 Y4.59031
G01 X-8.31609 Y4.56478
G01 X-8.31269 Y4.53858
G01 X-8.30833 Y4.51178
G01 X-8.29077 Y4.42682
G01 X-8.26015 Y4.28693
G01 X-8.24058 Y4.21220
G01 X-8.21718 Y4.13335
G01 X-8.11068 Y3.79308
G01 X-8.08468 Y3.70810
G01 X-8.05874 Y3.61951
G01 X-7.95418 Y3.25488
G01 X-7.90732 Y3.08671
G01 X-7.86050 Y2.90933
G01 X-7.78774 Y2.62634
G01 X-7.78808 Y2.62613
G01 X-7.78774 Y2.62634
G01 X-7.73818 Y2.57898
G01 X-7.68436 Y2.52873
G01 X-7.62933 Y2.47847
G01 X-7.57775 Y2.43237
G01 X-7.57803 Y2.43155
G01 X-7.57775 Y2.43237
G01 X-7.51350 Y2.43680
G01 X-7.44306 Y2.44270
G01 X-7.37261 Y2.44965
G01 X-7.31569 Y2.45611
G01 X-7.30547 Y2.44720
G01 X-7.37156 Y2.43970
G01 X-7.44215 Y2.43274
G01 X-7.51274 Y2.42683
G01 X-7.58127 Y2.42210
G01 X-7.58141 Y2.42169
G01 X-7.58127 Y2.42210
G01 X-7.63604 Y2.47105
G01 X-7.69115 Y2.52138
G01 X-7.74505 Y2.57171
G01 X-7.79671 Y2.62108
G01 X-7.79688 Y2.62098
G01 X-7.79671 Y2.62108
G01 X-7.87017 Y2.90678
G01 X-7.91699 Y3.08416
G01 X-7.96382 Y3.25223
G01 X-8.06836 Y3.61679
G01 X-8.09428 Y3.70528
G01 X-8.12022 Y3.79006
G01 X-8.22675 Y4.13044
G01 X-8.25021 Y4.20951
G01 X-8.26988 Y4.28459
G01 X-8.30056 Y4.42477
G01 X-8.31817 Y4.50997
G01 X-8.32258 Y4.53713
G01 X-8.32603 Y4.56366
G01 X-8.32851 Y4.58953
G01 X-8.33005 Y4.61478
G01 X-8.33200 Y4.66131
G01 X-8.33285 Y4.67638
G01 X-8.34096 Y4.79247
G01 X-8.34292 Y4.81305
G01 X-8.34594 Y4.83334
G01 X-8.36342 Y4.93249
G01 X-8.36502 Y4.94271
G01 X-8.36883 Y4.97014
G01 X-8.37101 Y4.99432
G01 X-8.37081 Y5.01847
G01 X-8.36827 Y5.04270
G01 X-8.36334 Y5.06716
G01 X-8.36184 Y5.07320
G01 X-8.35842 Y5.08868
G01 X-8.35572 Y5.10484
G01 X-8.34001 Y5.21662
G01 X-8.33742 Y5.23959
G01 X-8.33602 Y5.26296
G01 X-8.33335 Y5.33941
G01 X-8.33029 Y5.38191
G01 X-8.32201 Y5.45890
G01 X-8.31732 Y5.49561
G01 X-8.31098 Y5.53357
G01 X-8.30300 Y5.57283
G01 X-8.29334 Y5.61344
G01 X-8.24821 Y5.79125
G01 X-8.20691 Y5.93028
G01 X-8.18173 Y6.01326
G01 X-8.18190 Y6.01337
G01 X-8.18173 Y6.01326
G01 X-8.12173 Y6.06506
G01 X-8.08540 Y6.09709
G01 X-8.07857 Y6.10325
G01 X-8.02685 Y6.15117
G01 X-7.97508 Y6.20187
G01 X-7.92333 Y6.25527
G01 X-7.87152 Y6.31144
G01 X-7.55447 Y6.66148
G01 X-7.42990 Y6.79839
G01 X-7.42690 Y6.80640
G01 X-7.42990 Y6.79839
G01 X-7.41116 Y5.82079
G01 X-7.41072 Y5.77341
G01 X-7.41126 Y5.72720
G01 X-7.41275 Y5.68216
G01 X-7.41523 Y5.63828
G01 X-7.41866 Y5.59556
G01 X-7.42305 Y5.55401
G01 X-7.42843 Y5.51362
G01 X-7.43476 Y5.47435
G01 X-7.47819 Y5.22806
G01 X-7.48397 Y5.19072
G01 X-7.48792 Y5.15462
G01 X-7.51324 Y4.86086
G01 X-7.51529 Y4.82581
G01 X-7.51548 Y4.78933
G01 X-7.51381 Y4.75205
G01 X-7.51031 Y4.71394
G01 X-7.50494 Y4.67455
G01 X-7.49767 Y4.63392
G01 X-7.48863 Y4.59262
G01 X-7.47770 Y4.55007
G01 X-7.44361 Y4.42619
G01 X-7.43156 Y4.38031
G01 X-7.42018 Y4.33263
G01 X-7.40945 Y4.28312
G01 X-7.39938 Y4.23178
G01 X-7.38999 Y4.17862
G01 X-7.38124 Y4.12362
G01 X-7.37317 Y4.06681
G01 X-7.36574 Y4.00817
G01 X-7.35899 Y3.94770
G01 X-7.35290 Y3.88539
G01 X-7.34746 Y3.82128
G01 X-7.34269 Y3.75534
G01 X-7.33514 Y3.61796
G01 X-7.33023 Y3.47326
G01 X-7.30547 Y2.44720
G01 X-7.30413 Y2.44604
G01 X-7.31569 Y2.45611
G01 X-7.34022 Y3.47297
G01 X-7.34513 Y3.61751
G01 X-7.35267 Y3.75471
G01 X-7.35743 Y3.82049
G01 X-7.36286 Y3.88449
G01 X-7.36894 Y3.94666
G01 X-7.37567 Y4.00699
G01 X-7.38308 Y4.06548
G01 X-7.39113 Y4.12214
G01 X-7.39985 Y4.17697
G01 X-7.40922 Y4.22995
G01 X-7.41924 Y4.28110
G01 X-7.42992 Y4.33041
G01 X-7.44126 Y4.37788
G01 X-7.45327 Y4.42359
G01 X-7.48739 Y4.54759
G01 X-7.49840 Y4.59048
G01 X-7.50744 Y4.63178
G01 X-7.51476 Y4.67259
G01 X-7.52019 Y4.71237
G01 X-7.52377 Y4.75114
G01 X-7.52547 Y4.78888
G01 X-7.52530 Y4.82560
G01 X-7.52320 Y4.86172
G01 X-7.49788 Y5.15548
G01 X-7.49391 Y5.19181
G01 X-7.48804 Y5.22980
G01 X-7.44462 Y5.47602
G01 X-7.43832 Y5.51507
G01 X-7.43298 Y5.55520
G01 X-7.42861 Y5.59649
G01 X-7.42521 Y5.63896
G01 X-7.42274 Y5.68261
G01 X-7.42126 Y5.72743
G01 X-7.42072 Y5.77342
G01 X-7.42116 Y5.82065
G01 X-7.43941 Y6.77308
G01 X-7.43341 Y6.78909
G04 P0 ( dwell for no time -- G64 should not smooth over this point )
G00 Z0.08000 ( retract )

G00 X-7.18581 Y7.27882 ( rapid move to begin. )
G01 F3.00000
( Mill infeed pass 1/1 )
G01 Z-0.00800
G04 P0 ( dwell for no time -- G64 should not smooth over this point )
G01 F6.00000
G01 X-7.18581 Y7.27882
G01 X-7.15178 Y7.16002
G01 X-7.10967 Y7.00920
G01 X-7.07033 Y6.86435
G01 X-7.03379 Y6.72548
G01 X-7.00003 Y6.59260
G01 X-6.96906 Y6.46571
G01 X-6.94087 Y6.34479
G01 X-6.91547 Y6.22987
G01 X-6.89285 Y6.12094
G01 X-6.87301 Y6.01799
G01 X-6.85597 Y5.92105
G01 X-6.84171 Y5.83012
G01 X-6.83023 Y5.74520
G01 X-6.82153 Y5.66631
G01 X-6.81561 Y5.59347
G01 X-6.81246 Y5.52652
G01 X-6.80498 Y5.25646
G01 X-6.80378 Y5.23754
G01 X-6.80134 Y5.21934
G01 X-6.79763 Y5.20137
G01 X-6.79284 Y5.18414
G01 X-6.68254 Y4.83432
G01 X-6.67790 Y4.81830
G01 X-6.67406 Y4.80208
G01 X-6.67096 Y4.78550
G01 X-6.66859 Y4.76872
G01 X-6.66604 Y4.73351
G01 X-6.65604 Y4.73382
G01 X-6.65865 Y4.76977
G01 X-6.66108 Y4.78712
G01 X-6.66428 Y4.80416
G01 X-6.66823 Y4.82084
G01 X-6.67297 Y4.83721
G01 X-6.78330 Y5.18715
G01 X-6.78800 Y5.20405
G01 X-6.79160 Y5.22168
G01 X-6.79390 Y5.23920
G01 X-6.79499 Y5.25674
G01 X-6.80247 Y5.52689
G01 X-6.80563 Y5.59411
G01 X-6.81158 Y5.66726
G01 X-6.82030 Y5.74642
G01 X-6.83182 Y5.83157
G01 X-6.84610 Y5.92269
G01 X-6.86318 Y6.01980
G01 X-6.88304 Y6.12290
G01 X-6.90569 Y6.23196
G01 X-6.93112 Y6.34700
G01 X-6.95933 Y6.46803
G01 X-6.99033 Y6.59502
G01 X-7.02411 Y6.72799
G01 X-7.06067 Y6.86693
G01 X-7.10003 Y7.01185
G01 X-7.14216 Y7.16274
G01 X-7.18346 Y7.30693
G01 X-7.18270 Y7.31603
G01 X-7.18346 Y7.30693
G01 X-7.22769 Y7.21436
G01 X-7.42012 Y6.80997
G01 X-7.42025 Y6.80999
G01 X-7.42012 Y6.80997
G01 X-7.40116 Y5.82095
G01 X-7.40072 Y5.77334
G01 X-7.40126 Y5.72692
G01 X-7.40276 Y5.68177
G01 X-7.40525 Y5.63766
G01 X-7.40871 Y5.59457
G01 X-7.41312 Y5.55289
G01 X-7.41852 Y5.51223
G01 X-7.42490 Y5.47265
G01 X-7.46834 Y5.22637
G01 X-7.47404 Y5.18952
G01 X-7.47796 Y5.15370
G01 X-7.50327 Y4.86007
G01 X-7.50530 Y4.82536
G01 X-7.50549 Y4.78965
G01 X-7.50384 Y4.75285
G01 X-7.50036 Y4.71497
G01 X-7.49505 Y4.67601
G01 X-7.48789 Y4.63596
G01 X-7.47888 Y4.59485
G01 X-7.46803 Y4.55260
G01 X-7.43394 Y4.42876
G01 X-7.42185 Y4.38269
G01 X-7.41044 Y4.33490
G01 X-7.39966 Y4.28519
G01 X-7.38955 Y4.23357
G01 X-7.38014 Y4.18032
G01 X-7.37136 Y4.12516
G01 X-7.36326 Y4.06818
G01 X-7.35581 Y4.00931
G01 X-7.34905 Y3.94877
G01 X-7.34294 Y3.88627
G01 X-7.33750 Y3.82209
G01 X-7.33271 Y3.75593
G01 X-7.32514 Y3.61835
G01 X-7.32023 Y3.47358
G01 X-7.29547 Y2.44735
G01 X-7.29672 Y2.44618
G01 X-7.29547 Y2.44735
G01 X-7.18718 Y2.43818
G01 X-7.07448 Y2.43129
G01 X-6.96178 Y2.42707
G01 X-6.85282 Y2.42555
G01 X-6.85206 Y2.42452
G01 X-6.85282 Y2.42555
G01 X-6.75597 Y2.75509
G01 X-6.65648 Y4.69637
G01 X-6.65604 Y4.73382
G01 X-6.66604 Y4.73351
G01 X-6.66647 Y4.69668
G01 X-6.76586 Y2.75677
G01 X-6.86027 Y2.43566
G01 X-6.85875 Y2.43360
G01 X-6.86027 Y2.43566
G01 X-6.96152 Y2.43707
G01 X-7.07399 Y2.44128
G01 X-7.18645 Y2.44815
G01 X-7.28569 Y2.45656
G01 X-7.28819 Y2.45421
G01 X-7.28569 Y2.45656
G01 X-7.31024 Y3.47392
G01 X-7.31515 Y3.61869
G01 X-7.32272 Y3.75648
G01 X-7.32753 Y3.82294
G01 X-7.33297 Y3.88712
G01 X-7.33911 Y3.94988
G01 X-7.34587 Y4.01042
G01 X-7.35333 Y4.06936
G01 X-7.36149 Y4.12673
G01 X-7.37029 Y4.18206
G01 X-7.37970 Y4.23531
G01 X-7.38989 Y4.28731
G01 X-7.40064 Y4.33692
G01 X-7.41212 Y4.38501
G01 X-7.42432 Y4.43147
G01 X-7.45836 Y4.55518
G01 X-7.46915 Y4.59716
G01 X-7.47807 Y4.63791
G01 X-7.48517 Y4.67757
G01 X-7.49042 Y4.71610
G01 X-7.49386 Y4.75353
G01 X-7.49549 Y4.78985
G01 X-7.49530 Y4.82504
G01 X-7.49330 Y4.85935
G01 X-7.46801 Y5.15273
G01 X-7.46413 Y5.18821
G01 X-7.45847 Y5.22474
G01 X-7.41506 Y5.47091
G01 X-7.40861 Y5.51091
G01 X-7.40322 Y5.55144
G01 X-7.39876 Y5.59352
G01 X-7.39526 Y5.63710
G01 X-7.39277 Y5.68144
G01 X-7.39127 Y5.72659
G01 X-7.39072 Y5.77323
G01 X-7.39116 Y5.82115
G01 X-7.41007 Y6.80780
G01 X-7.41034 Y6.80786
G01 X-7.41007 Y6.80780
G01 X-7.18581 Y7.27882
G01 X-7.18430 Y7.29702
G04 P0 ( dwell for no time -- G64 should not smooth over this point )
G00 Z0.08000 ( retract )

G00 X-7.11471 Y7.61544 ( rapid move to begin. )
G01 F3.00000
( Mill infeed pass 1/1 )
G01 Z-0.00800
G04 P0 ( dwell for no time -- G64 should not smooth over this point )
G01 F6.00000
G01 X-7.11471 Y7.61544
G01 X-7.15849 Y7.45753
G01 X-7.19632 Y7.32633
G01 X-7.24574 Y7.22295
G01 X-7.43773 Y6.81950
G01 X-7.43764 Y6.81944
G01 X-7.43773 Y6.81950
G01 X-7.56929 Y6.67491
G01 X-7.88636 Y6.32485
G01 X-7.93782 Y6.26905
G01 X-7.98921 Y6.21602
G01 X-8.04060 Y6.16570
G01 X-8.09204 Y6.11803
G01 X-8.09869 Y6.11204
G01 X-8.13486 Y6.08014
G01 X-8.19376 Y6.02930
G01 X-8.19367 Y6.02915
G01 X-8.19376 Y6.02930
G01 X-8.26784 Y6.00306
G01 X-8.31709 Y5.98736
G01 X-8.45096 Y5.94404
G01 X-8.50208 Y5.92843
G01 X-8.51094 Y5.92589
G01 X-8.55017 Y5.91523
G01 X-8.58864 Y5.90598
G01 X-8.64213 Y5.89398
G01 X-8.70057 Y5.88042
G01 X-8.74862 Y5.87059
G01 X-8.75574 Y5.86933
G01 X-8.78471 Y5.86475
G01 X-8.81337 Y5.86125
G01 X-8.84636 Y5.85778
G01 X-8.89055 Y5.85276
G01 X-8.92020 Y5.85004
G01 X-8.92669 Y5.84960
G01 X-8.96033 Y5.84809
G01 X-8.99384 Y5.84828
G01 X-9.07359 Y5.85008
G01 X-9.08023 Y5.85031
G01 X-9.11688 Y5.85258
G01 X-9.15384 Y5.85680
G01 X-9.16920 Y5.85901
G01 X-9.25398 Y5.87189
G01 X-9.30188 Y5.88007
G01 X-9.35079 Y5.89101
G01 X-9.37289 Y5.89663
G01 X-9.44375 Y5.91531
G01 X-9.44483 Y5.91421
G01 X-9.44375 Y5.91531
G01 X-9.45040 Y5.93924
G01 X-9.46261 Y5.99003
G01 X-9.47205 Y6.04081
G01 X-9.47306 Y6.04721
G01 X-9.47953 Y6.09618
G01 X-9.48339 Y6.14514
G01 X-9.48372 Y6.15153
G01 X-9.48499 Y6.20000
G01 X-9.48372 Y6.24848
G01 X-9.48339 Y6.25487
G01 X-9.47953 Y6.30382
G01 X-9.47306 Y6.35279
G01 X-9.47205 Y6.35919
G01 X-9.46261 Y6.40997
G01 X-9.45040 Y6.46076
G01 X-9.44868 Y6.46717
G01 X-9.43264 Y6.52120
G01 X-9.41346 Y6.57525
G01 X-9.41095 Y6.58177
G01 X-9.39921 Y6.61119
G01 X-9.38655 Y6.64052
G01 X-9.37298 Y6.66987
G01 X-9.35844 Y6.69932
G01 X-9.33769 Y6.73892
G01 X-9.31920 Y6.77182
G01 X-9.29955 Y6.80475
G01 X-9.27869 Y6.83775
G01 X-9.24884 Y6.88255
G01 X-9.22181 Y6.92064
G01 X-9.19324 Y6.95875
G01 X-9.16308 Y6.99695
G01 X-9.11969 Y7.04918
G01 X-9.07958 Y7.09471
G01 X-9.03728 Y7.14025
G01 X-8.98607 Y7.19254
G01 X-8.92764 Y7.24931
G01 X-8.86593 Y7.30601
G01 X-8.80087 Y7.36275
G01 X-8.73239 Y7.41957
G01 X-8.67746 Y7.46346
G01 X-8.62943 Y7.50064
G01 X-8.57998 Y7.53782
G01 X-8.52910 Y7.57501
G01 X-8.47678 Y7.61220
G01 X-8.42308 Y7.64938
G01 X-8.31121 Y7.72386
G01 X-8.30087 Y7.73058
G01 X-8.21732 Y7.78388
G01 X-8.13091 Y7.83718
G01 X-8.04160 Y7.89046
G01 X-7.95482 Y7.94063
G01 X-7.95493 Y7.94149
G01 X-7.95482 Y7.94063
G01 X-7.86719 Y7.91546
G01 X-7.76684 Y7.88404
G01 X-7.71070 Y7.86538
G01 X-7.65464 Y7.84590
G01 X-7.54238 Y7.80437
G01 X-7.43015 Y7.75948
G01 X-7.31783 Y7.71116
G01 X-7.20738 Y7.66055
G01 X-7.11471 Y7.61544
G01 X-7.10285 Y7.62078
G01 X-7.20311 Y7.66959
G01 X-7.31382 Y7.72032
G01 X-7.42632 Y7.76871
G01 X-7.53879 Y7.81370
G01 X-7.65127 Y7.85531
G01 X-7.70748 Y7.87485
G01 X-7.76372 Y7.89354
G01 X-7.86432 Y7.92504
G01 X-7.95615 Y7.95142
G01 X-7.95620 Y7.95185
G01 X-7.95615 Y7.95142
G01 X-8.04667 Y7.89909
G01 X-8.13610 Y7.84572
G01 X-8.22263 Y7.79235
G01 X-8.30628 Y7.73898
G01 X-8.31670 Y7.73222
G01 X-8.42870 Y7.65765
G01 X-8.48253 Y7.62039
G01 X-8.53495 Y7.58312
G01 X-8.58593 Y7.54585
G01 X-8.63550 Y7.50859
G01 X-8.68364 Y7.47133
G01 X-8.73873 Y7.42730
G01 X-8.80735 Y7.37037
G01 X-8.87260 Y7.31346
G01 X-8.93450 Y7.25657
G01 X-8.99309 Y7.19966
G01 X-9.04452 Y7.14715
G01 X-9.08699 Y7.10142
G01 X-9.12728 Y7.05569
G01 X-9.17089 Y7.00319
G01 X-9.20117 Y6.96485
G01 X-9.22989 Y6.92653
G01 X-9.25707 Y6.88822
G01 X-9.28711 Y6.84315
G01 X-9.30807 Y6.80998
G01 X-9.32785 Y6.77683
G01 X-9.34648 Y6.74370
G01 X-9.36738 Y6.70380
G01 X-9.38201 Y6.67418
G01 X-9.39568 Y6.64460
G01 X-9.40844 Y6.61502
G01 X-9.42026 Y6.58542
G01 X-9.42284 Y6.57872
G01 X-9.44215 Y6.52430
G01 X-9.45831 Y6.46989
G01 X-9.46009 Y6.46323
G01 X-9.47240 Y6.41206
G01 X-9.48191 Y6.36088
G01 X-9.48296 Y6.35422
G01 X-9.48948 Y6.30487
G01 X-9.49337 Y6.25552
G01 X-9.49371 Y6.24887
G01 X-9.49500 Y6.20000
G01 X-9.49371 Y6.15114
G01 X-9.49337 Y6.14449
G01 X-9.48948 Y6.09513
G01 X-9.48296 Y6.04578
G01 X-9.48191 Y6.03912
G01 X-9.47240 Y5.98794
G01 X-9.46009 Y5.93677
G01 X-9.45183 Y5.90710
G01 X-9.45237 Y5.90655
G01 X-9.45183 Y5.90710
G01 X-9.37541 Y5.88695
G01 X-9.35309 Y5.88128
G01 X-9.30381 Y5.87026
G01 X-9.25554 Y5.86201
G01 X-9.17068 Y5.84912
G01 X-9.15510 Y5.84688
G01 X-9.11776 Y5.84261
G01 X-9.08071 Y5.84032
G01 X-9.07390 Y5.84009
G01 X-8.99403 Y5.83828
G01 X-8.96014 Y5.83809
G01 X-8.92612 Y5.83961
G01 X-8.91940 Y5.84007
G01 X-8.88953 Y5.84281
G01 X-8.84523 Y5.84785
G01 X-8.81225 Y5.85131
G01 X-8.78332 Y5.85484
G01 X-8.75409 Y5.85947
G01 X-8.74675 Y5.86077
G01 X-8.69844 Y5.87065
G01 X-8.63996 Y5.88421
G01 X-8.58637 Y5.89624
G01 X-8.54769 Y5.90554
G01 X-8.50825 Y5.91625
G01 X-8.49924 Y5.91884
G01 X-8.44796 Y5.93450
G01 X-8.31405 Y5.97784
G01 X-8.26465 Y5.99358
G01 X-8.18860 Y6.02042
G01 X-8.12829 Y6.07261
G01 X-8.09204 Y6.10457
G01 X-8.08529 Y6.11065
G01 X-8.03370 Y6.15846
G01 X-7.98212 Y6.20897
G01 X-7.93055 Y6.26218
G01 X-7.87895 Y6.31813
G01 X-7.56187 Y6.66820
G01 X-7.42929 Y6.81384
G01 X-7.23671 Y7.21866
G01 X-7.18695 Y7.32277
G01 X-7.14887 Y7.45481
G01 X-7.10285 Y7.62078
G01 X-7.10148 Y7.62140
G04 P0 ( dwell for no time -- G64 should not smooth over this point )
G00 Z0.08000 ( retract )

G00 X-3.35895 Y7.47537 ( rapid move to begin. )
G01 F3.00000
( Mill infeed pass 1/1 )
G01 Z-0.00800
G04 P0 ( dwell for no time -- G64 should not smooth over this point )
G01 F6.00000
G01 X-3.35895 Y7.47537
G01 X-3.41153 Y6.85156
G01 X-3.48015 Y6.05437
G01 X-3.51011 Y5.71822
G01 X-3.51317 Y5.68107
G01 X-3.51500 Y5.65575
G01 X-3.51494 Y5.36284
G01 X-3.51176 Y5.32747
G01 X-3.50785 Y5.29321
G01 X-3.49139 Y5.15661
G01 X-3.47942 Y5.05064
G01 X-3.46928 Y4.95409
G01 X-3.45992 Y4.85759
G01 X-3.44982 Y4.74380
G01 X-3.43979 Y4.62077
G01 X-3.42660 Y4.44579
G01 X-3.42661 Y4.37640
G01 X-3.42801 Y4.30025
G01 X-3.43222 Y4.22139
G01 X-3.43923 Y4.13968
G01 X-3.44906 Y4.05510
G01 X-3.46171 Y3.96767
G01 X-3.47716 Y3.87738
G01 X-3.49545 Y3.78425
G01 X-3.51654 Y3.68827
G01 X-3.54045 Y3.58945
G01 X-3.56719 Y3.48779
G01 X-3.59676 Y3.38329
G01 X-3.62914 Y3.27594
G01 X-3.66434 Y3.16575
G01 X-3.70237 Y3.05274
G01 X-3.74323 Y2.93688
G01 X-3.78692 Y2.81814
G01 X-3.91780 Y2.46950
G01 X-3.91655 Y2.46767
G01 X-3.91780 Y2.46950
G01 X-4.02946 Y2.47082
G01 X-4.14057 Y2.47493
G01 X-4.14209 Y2.47303
G01 X-4.14057 Y2.47493
G01 X-4.34204 Y3.22897
G01 X-4.37556 Y3.35982
G01 X-4.40515 Y3.48665
G01 X-4.43082 Y3.60953
G01 X-4.45258 Y3.72852
G01 X-4.46198 Y3.78645
G01 X-4.47042 Y3.84345
G01 X-4.47787 Y3.89946
G01 X-4.48434 Y3.95447
G01 X-4.48983 Y4.00851
G01 X-4.49435 Y4.06154
G01 X-4.49789 Y4.11358
G01 X-4.50044 Y4.16374
G01 X-4.48989 Y4.28178
G01 X-4.48683 Y4.31883
G01 X-4.48500 Y4.34424
G01 X-4.48500 Y4.63582
G01 X-4.48824 Y4.67253
G01 X-4.49215 Y4.70678
G01 X-4.50861 Y4.84339
G01 X-4.52133 Y4.95629
G01 X-4.53072 Y5.04586
G01 X-4.54008 Y5.14241
G01 X-4.55018 Y5.25620
G01 X-4.56021 Y5.37922
G01 X-4.57477 Y5.57199
G01 X-4.58038 Y5.63224
G01 X-4.58967 Y5.71900
G01 X-4.58739 Y5.76801
G01 X-4.58399 Y5.81911
G01 X-4.57948 Y5.87134
G01 X-4.57386 Y5.92469
G01 X-4.56713 Y5.97918
G01 X-4.55929 Y6.03479
G01 X-4.55035 Y6.09152
G01 X-4.54029 Y6.14942
G01 X-4.29019 Y7.52627
G01 X-4.29205 Y7.52844
G01 X-4.29019 Y7.52627
G01 X-4.18250 Y7.52970
G01 X-4.06287 Y7.53055
G01 X-3.94324 Y7.52844
G01 X-3.82362 Y7.52336
G01 X-3.70399 Y7.51532
G01 X-3.58436 Y7.50432
G01 X-3.46472 Y7.49034
G01 X-3.35895 Y7.47537
G01 X-3.34819 Y7.48395
G01 X-3.46344 Y7.50026
G01 X-3.58332 Y7.51427
G01 X-3.70320 Y7.52529
G01 X-3.82307 Y7.53335
G01 X-3.94294 Y7.53843
G01 X-4.06281 Y7.54055
G01 X-4.18269 Y7.53970
G01 X-4.29858 Y7.53601
G01 X-4.29952 Y7.53709
G01 X-4.29858 Y7.53601
G01 X-4.55014 Y6.15118
G01 X-4.56022 Y6.09315
G01 X-4.56918 Y6.03626
G01 X-4.57704 Y5.98049
G01 X-4.58379 Y5.92583
G01 X-4.58943 Y5.87229
G01 X-4.59396 Y5.81987
G01 X-4.59738 Y5.76857
G01 X-4.59968 Y5.71870
G01 X-4.59032 Y5.63111
G01 X-4.58473 Y5.57106
G01 X-4.57084 Y5.38695
G01 X-4.56015 Y5.25537
G01 X-4.55067 Y5.14838
G01 X-4.54134 Y5.05158
G01 X-4.53128 Y4.95522
G01 X-4.51940 Y4.84962
G01 X-4.50209 Y4.70571
G01 X-4.49817 Y4.67140
G01 X-4.49502 Y4.63627
G01 X-4.49500 Y4.34424
G01 X-4.49681 Y4.31953
G01 X-4.49986 Y4.28259
G01 X-4.51045 Y4.16393
G01 X-4.50788 Y4.11299
G01 X-4.50432 Y4.06077
G01 X-4.49979 Y4.00758
G01 X-4.49428 Y3.95338
G01 X-4.48779 Y3.89821
G01 X-4.48032 Y3.84206
G01 X-4.47186 Y3.78492
G01 X-4.46243 Y3.72682
G01 X-4.44063 Y3.60761
G01 X-4.41492 Y3.48449
G01 X-4.38527 Y3.35744
G01 X-4.35171 Y3.22643
G01 X-4.14832 Y2.46521
G01 X-4.14908 Y2.46426
G01 X-4.14832 Y2.46521
G01 X-4.02971 Y2.46082
G01 X-3.91091 Y2.45942
G01 X-3.91028 Y2.45851
G01 X-3.91091 Y2.45942
G01 X-3.77755 Y2.81466
G01 X-3.73382 Y2.93349
G01 X-3.69292 Y3.04948
G01 X-3.65484 Y3.16264
G01 X-3.61958 Y3.27297
G01 X-3.58716 Y3.38048
G01 X-3.55754 Y3.48516
G01 X-3.53076 Y3.58700
G01 X-3.50679 Y3.68602
G01 X-3.48565 Y3.78222
G01 X-3.46733 Y3.87557
G01 X-3.45183 Y3.96611
G01 X-3.43915 Y4.05381
G01 X-3.42928 Y4.13867
G01 X-3.42225 Y4.22070
G01 X-3.41802 Y4.29989
G01 X-3.41661 Y4.37631
G01 X-3.41661 Y4.44616
G01 X-3.42982 Y4.62157
G01 X-3.43985 Y4.74463
G01 X-3.44997 Y4.85853
G01 X-3.45933 Y4.95511
G01 X-3.46948 Y5.05174
G01 X-3.48145 Y5.15778
G01 X-3.49791 Y5.29428
G01 X-3.50183 Y5.32860
G01 X-3.50498 Y5.36373
G01 X-3.50500 Y5.65575
G01 X-3.50237 Y5.69081
G01 X-3.50014 Y5.71741
G01 X-3.47019 Y6.05350
G01 X-3.40156 Y6.85070
G01 X-3.34819 Y7.48395
G01 X-3.34672 Y7.48512

G04 P0 ( dwell for no time -- G64 should not smooth over this point )
G00 Z1.000000 ( retract )

M5 ( Spindle off. )
G04 P1.000000
M9 ( Coolant off. )
M2 ( Program end. )

