( pcb2gcode 2.5.0 )
( Software-independent Gcode )

G94 ( Inches per minute feed rate. )
G20 ( Units == INCHES. )

G90 ( Absolute coordinates. )
G00 S30000 ( RPM spindle speed. )
G64 P0.00040 ( set maximum deviation from commanded toolpath )
G01 F6.00000 ( Feedrate. )


G00 Z1.00000 (Retract to tool change height)
T1
M5      (Spindle stop.)
G04 P1.00000 (Wait for spindle to stop)
(MSG, Change tool bit to mill diameter 0.02000in)
M6      (Tool change.)
M0      (Temporary machine stop.)
M3 ( Spindle on clockwise. )
G04 P1.00000 (Wait for spindle to get up to speed)
G04 P0 ( dwell for no time -- G64 should not smooth over this point )
G00 Z0.08000 ( retract )

G00 X0.10396 Y-0.10396 ( rapid move to begin. )
G01 F3.00000
( Mill infeed pass 1/1 )
G01 Z-0.00800
G04 P0 ( dwell for no time -- G64 should not smooth over this point )
G01 F6.00000
G01 X0.10396 Y-0.10396
G01 X0.10250 Y-0.10250
G01 X0.10250 Y10.10250
G01 X0.10396 Y10.10396
G01 X0.10250 Y10.10250
G01 X-10.10250 Y10.10250
G01 X-10.10396 Y10.10396
G01 X-10.10250 Y10.10250
G01 X-10.10250 Y-0.10250
G01 X-10.10396 Y-0.10396
G01 X-10.10250 Y-0.10250
G01 X0.10250 Y-0.10250
G01 X0.09250 Y-0.09250
G01 X0.09250 Y10.09250
G01 X0.09543 Y10.09543
G01 X0.09250 Y10.09250
G01 X-10.09250 Y10.09250
G01 X-10.09543 Y10.09543
G01 X-10.09250 Y10.09250
G01 X-10.09250 Y-0.09250
G01 X-10.09543 Y-0.09543
G01 X-10.09250 Y-0.09250
G01 X0.09250 Y-0.09250
G04 P0 ( dwell for no time -- G64 should not smooth over this point )
G00 Z0.08000 ( retract )

G00 X-1.22581 Y3.80723 ( rapid move to begin. )
G01 F3.00000
( Mill infeed pass 1/1 )
G01 Z-0.00800
G04 P0 ( dwell for no time -- G64 should not smooth over this point )
G01 F6.00000
G01 X-1.22581 Y3.80723
G01 X-1.30268 Y3.87325
G01 X-1.42011 Y3.97319
G01 X-1.53247 Y4.06769
G01 X-1.55665 Y4.08784
G01 X-1.62126 Y4.14122
G01 X-1.69265 Y4.19929
G01 X-1.75327 Y4.24758
G01 X-1.77098 Y4.26147
G01 X-1.82026 Y4.29949
G01 X-1.86356 Y4.33199
G01 X-1.90236 Y4.36023
G01 X-1.93639 Y4.38417
G01 X-1.96782 Y4.40549
G01 X-1.99649 Y4.42417
G01 X-2.01147 Y4.43361
G01 X-2.03764 Y4.44953
G01 X-2.04945 Y4.45647
G01 X-2.07410 Y4.47041
G01 X-2.10905 Y4.48907
G01 X-2.13134 Y4.50142
G01 X-2.15361 Y4.51446
G01 X-2.17451 Y4.52740
G01 X-2.19555 Y4.54115
G01 X-2.21569 Y4.55503
G01 X-2.22621 Y4.56257
G01 X-2.24562 Y4.57707
G01 X-2.26393 Y4.59145
G01 X-2.27263 Y4.59854
G01 X-2.29058 Y4.61371
G01 X-2.30020 Y4.62216
G01 X-2.31707 Y4.63755
G01 X-2.33405 Y4.65382
G01 X-2.35020 Y4.67007
G01 X-2.36612 Y4.68688
G01 X-2.38201 Y4.70452
G01 X-2.39693 Y4.72192
G01 X-2.41187 Y4.74022
G01 X-2.42625 Y4.75873
G01 X-2.44053 Y4.77809
G01 X-2.44742 Y4.78779
G01 X-2.46130 Y4.80811
G01 X-2.47487 Y4.82909
G01 X-2.48793 Y4.85039
G01 X-2.49461 Y4.86175
G01 X-2.50744 Y4.88454
G01 X-2.51988 Y4.90796
G01 X-2.53212 Y4.93245
G01 X-2.53842 Y4.94567
G01 X-2.54412 Y4.95800
G01 X-2.55544 Y4.98374
G01 X-2.56654 Y5.01075
G01 X-2.57269 Y5.02658
G01 X-2.57754 Y5.03951
G01 X-2.58781 Y5.06844
G01 X-2.59792 Y5.09928
G01 X-2.60375 Y5.11829
G01 X-2.60777 Y5.13203
G01 X-2.61326 Y5.15163
G01 X-2.61692 Y5.16538
G01 X-2.62217 Y5.18604
G01 X-2.62551 Y5.19989
G01 X-2.63068 Y5.22254
G01 X-2.63386 Y5.23729
G01 X-2.63814 Y5.25856
G01 X-2.63998 Y5.27574
G01 X-2.64479 Y5.31726
G01 X-2.65027 Y5.36028
G01 X-2.65563 Y5.39924
G01 X-2.66151 Y5.43968
G01 X-2.67009 Y5.49523
G01 X-2.68113 Y5.56248
G01 X-2.69227 Y5.62719
G01 X-2.71065 Y5.72879
G01 X-2.72740 Y5.81753
G01 X-2.74643 Y5.91566
G01 X-2.77979 Y6.08224
G01 X-2.80928 Y6.22598
G01 X-2.85656 Y6.45190
G01 X-2.93261 Y6.80812
G01 X-3.02065 Y7.21516
G01 X-3.07953 Y7.48429
G01 X-3.07770 Y7.48661
G01 X-3.07953 Y7.48429
G01 X-3.14018 Y7.48301
G01 X-3.24102 Y7.47917
G01 X-3.32895 Y7.47402
G01 X-3.33121 Y7.47634
G01 X-3.32895 Y7.47402
G01 X-3.34254 Y7.31279
G01 X-3.40149 Y6.61883
G01 X-3.43477 Y6.23160
G01 X-3.45731 Y5.97311
G01 X-3.48031 Y5.71559
G01 X-3.48398 Y5.67061
G01 X-3.48501 Y5.65616
G01 X-3.48500 Y5.36496
G01 X-3.47862 Y5.30075
G01 X-3.46345 Y5.17539
G01 X-3.45138 Y5.06951
G01 X-3.44189 Y4.98058
G01 X-3.43376 Y4.89883
G01 X-3.42583 Y4.81325
G01 X-3.41782 Y4.72030
G01 X-3.40881 Y4.60819
G01 X-3.40358 Y4.53993
G01 X-3.39665 Y4.44601
G01 X-3.39661 Y4.37598
G01 X-3.39804 Y4.29892
G01 X-3.40228 Y4.21955
G01 X-3.40941 Y4.13643
G01 X-3.41934 Y4.05101
G01 X-3.43204 Y3.96318
G01 X-3.44763 Y3.87214
G01 X-3.46604 Y3.77831
G01 X-3.48734 Y3.68137
G01 X-3.51133 Y3.58225
G01 X-3.53822 Y3.48002
G01 X-3.56792 Y3.37499
G01 X-3.60053 Y3.26693
G01 X-3.63587 Y3.15630
G01 X-3.67405 Y3.04286
G01 X-3.71497 Y2.92681
G01 X-3.75882 Y2.80765
G01 X-3.88809 Y2.46330
G01 X-3.89192 Y2.46154
G01 X-3.88809 Y2.46330
G01 X-3.79307 Y2.42876
G01 X-3.68398 Y2.39192
G01 X-3.57489 Y2.35789
G01 X-3.46581 Y2.32668
G01 X-3.35673 Y2.29829
G01 X-3.24766 Y2.27271
G01 X-3.13860 Y2.24994
G01 X-3.02954 Y2.22999
G01 X-2.92049 Y2.21285
G01 X-2.81144 Y2.19853
G01 X-2.70239 Y2.18702
G01 X-2.59335 Y2.17832
G01 X-2.48431 Y2.17243
G01 X-2.37527 Y2.16935
G01 X-2.26623 Y2.16909
G01 X-2.16340 Y2.17150
G01 X-2.16304 Y2.17070
G01 X-2.16340 Y2.17150
G01 X-2.10070 Y2.24010
G01 X-2.03614 Y2.31333
G01 X-1.97395 Y2.38655
G01 X-1.91412 Y2.45977
G01 X-1.85667 Y2.53296
G01 X-1.80158 Y2.60615
G01 X-1.74886 Y2.67933
G01 X-1.69850 Y2.75249
G01 X-1.65052 Y2.82565
G01 X-1.60490 Y2.89879
G01 X-1.56164 Y2.97191
G01 X-1.52075 Y3.04503
G01 X-1.48223 Y3.11813
G01 X-1.44606 Y3.19121
G01 X-1.41226 Y3.26429
G01 X-1.38078 Y3.33744
G01 X-1.36014 Y3.38727
G01 X-1.33855 Y3.44094
G01 X-1.31829 Y3.49453
G01 X-1.29931 Y3.54811
G01 X-1.28163 Y3.60168
G01 X-1.26523 Y3.65525
G01 X-1.25012 Y3.70881
G01 X-1.23630 Y3.76236
G01 X-1.22581 Y3.80723
G01 X-1.21469 Y3.81085
G01 X-1.29619 Y3.88086
G01 X-1.41364 Y3.98082
G01 X-1.52605 Y4.07537
G01 X-1.55027 Y4.09554
G01 X-1.61491 Y4.14894
G01 X-1.68637 Y4.20707
G01 X-1.74707 Y4.25543
G01 X-1.76484 Y4.26936
G01 X-1.81421 Y4.30745
G01 X-1.85762 Y4.34004
G01 X-1.89655 Y4.36837
G01 X-1.93071 Y4.39240
G01 X-1.96229 Y4.41382
G01 X-1.99112 Y4.43260
G01 X-2.00618 Y4.44210
G01 X-2.03253 Y4.45813
G01 X-2.04444 Y4.46512
G01 X-2.06928 Y4.47917
G01 X-2.10420 Y4.49782
G01 X-2.12645 Y4.51014
G01 X-2.14840 Y4.52300
G01 X-2.16919 Y4.53587
G01 X-2.18993 Y4.54942
G01 X-2.20996 Y4.56323
G01 X-2.22023 Y4.57059
G01 X-2.23950 Y4.58498
G01 X-2.25776 Y4.59932
G01 X-2.26622 Y4.60621
G01 X-2.28408 Y4.62131
G01 X-2.29346 Y4.62955
G01 X-2.31033 Y4.64494
G01 X-2.32696 Y4.66087
G01 X-2.34294 Y4.67694
G01 X-2.35881 Y4.69371
G01 X-2.37442 Y4.71103
G01 X-2.38931 Y4.72839
G01 X-2.40413 Y4.74655
G01 X-2.41831 Y4.76482
G01 X-2.43245 Y4.78398
G01 X-2.43919 Y4.79348
G01 X-2.45304 Y4.81375
G01 X-2.46645 Y4.83447
G01 X-2.47937 Y4.85556
G01 X-2.48593 Y4.86671
G01 X-2.49864 Y4.88928
G01 X-2.51102 Y4.91260
G01 X-2.52315 Y4.93686
G01 X-2.52940 Y4.94997
G01 X-2.53496 Y4.96203
G01 X-2.54621 Y4.98760
G01 X-2.55726 Y5.01450
G01 X-2.56333 Y5.03009
G01 X-2.56813 Y5.04290
G01 X-2.57839 Y5.07178
G01 X-2.58840 Y5.10233
G01 X-2.59415 Y5.12110
G01 X-2.59814 Y5.13472
G01 X-2.60363 Y5.15432
G01 X-2.60723 Y5.16784
G01 X-2.61248 Y5.18850
G01 X-2.61579 Y5.20223
G01 X-2.62093 Y5.22476
G01 X-2.62819 Y5.25958
G01 X-2.63005 Y5.27686
G01 X-2.63487 Y5.31848
G01 X-2.64036 Y5.36160
G01 X-2.64573 Y5.40064
G01 X-2.65162 Y5.44115
G01 X-2.66021 Y5.49679
G01 X-2.67126 Y5.56414
G01 X-2.68242 Y5.62892
G01 X-2.70082 Y5.73062
G01 X-2.71758 Y5.81942
G01 X-2.74190 Y5.94431
G01 X-2.76999 Y6.08423
G01 X-2.79949 Y6.22800
G01 X-2.85484 Y6.49212
G01 X-2.92284 Y6.81023
G01 X-3.01087 Y7.21728
G01 X-3.07152 Y7.49446
G01 X-3.07061 Y7.49561
G01 X-3.07152 Y7.49446
G01 X-3.14051 Y7.49300
G01 X-3.24150 Y7.48916
G01 X-3.33819 Y7.48350
G01 X-3.33932 Y7.48466
G01 X-3.33819 Y7.48350
G01 X-3.41146 Y6.61968
G01 X-3.44473 Y6.23245
G01 X-3.46672 Y5.98022
G01 X-3.48262 Y5.80107
G01 X-3.49027 Y5.71645
G01 X-3.49395 Y5.67138
G01 X-3.49501 Y5.65651
G01 X-3.49498 Y5.36447
G01 X-3.48856 Y5.29965
G01 X-3.47339 Y5.17422
G01 X-3.46132 Y5.06843
G01 X-3.45184 Y4.97955
G01 X-3.44371 Y4.89787
G01 X-3.43579 Y4.81236
G01 X-3.42778 Y4.71949
G01 X-3.41878 Y4.60743
G01 X-3.41356 Y4.53918
G01 X-3.40662 Y4.44529
G01 X-3.40661 Y4.37616
G01 X-3.40803 Y4.29945
G01 X-3.41227 Y4.21992
G01 X-3.41934 Y4.13759
G01 X-3.42924 Y4.05244
G01 X-3.44194 Y3.96461
G01 X-3.45748 Y3.87383
G01 X-3.47585 Y3.78024
G01 X-3.49706 Y3.68373
G01 X-3.52108 Y3.58451
G01 X-3.54789 Y3.48257
G01 X-3.57755 Y3.37772
G01 X-3.61005 Y3.26997
G01 X-3.64533 Y3.15956
G01 X-3.68348 Y3.04619
G01 X-3.72440 Y2.93014
G01 X-3.76817 Y2.81120
G01 X-3.90100 Y2.45735
G01 X-3.90292 Y2.45647
G01 X-3.90100 Y2.45735
G01 X-3.79638 Y2.41932
G01 X-3.68707 Y2.38241
G01 X-3.57775 Y2.34831
G01 X-3.46844 Y2.31704
G01 X-3.35913 Y2.28858
G01 X-3.24982 Y2.26295
G01 X-3.14052 Y2.24013
G01 X-3.03122 Y2.22013
G01 X-2.92191 Y2.20295
G01 X-2.81262 Y2.18860
G01 X-2.70332 Y2.17706
G01 X-2.59402 Y2.16834
G01 X-2.48472 Y2.16244
G01 X-2.37542 Y2.15935
G01 X-2.26613 Y2.15909
G01 X-2.15890 Y2.16160
G01 X-2.15872 Y2.16120
G01 X-2.15890 Y2.16160
G01 X-2.09326 Y2.23342
G01 X-2.02858 Y2.30679
G01 X-1.96626 Y2.38015
G01 X-1.90632 Y2.45351
G01 X-1.84874 Y2.52687
G01 X-1.79353 Y2.60022
G01 X-1.74068 Y2.67357
G01 X-1.69020 Y2.74692
G01 X-1.64210 Y2.82026
G01 X-1.59635 Y2.89359
G01 X-1.55297 Y2.96693
G01 X-1.51197 Y3.04025
G01 X-1.47332 Y3.11358
G01 X-1.43704 Y3.18690
G01 X-1.40313 Y3.26021
G01 X-1.37157 Y3.33355
G01 X-1.35088 Y3.38350
G01 X-1.32924 Y3.43731
G01 X-1.30890 Y3.49109
G01 X-1.28985 Y3.54487
G01 X-1.27210 Y3.59865
G01 X-1.25564 Y3.65243
G01 X-1.24047 Y3.70620
G01 X-1.22659 Y3.75997
G01 X-1.21469 Y3.81085
G01 X-1.21388 Y3.81112
G04 P0 ( dwell for no time -- G64 should not smooth over this point )
G00 Z0.08000 ( retract )

G00 X-0.88633 Y4.98576 ( rapid move to begin. )
G01 F3.00000
( Mill infeed pass 1/1 )
G01 Z-0.00800
G04 P0 ( dwell for no time -- G64 should not smooth over this point )
G01 F6.00000
G01 X-0.88633 Y4.98576
G01 X-0.87633 Y4.98567
G01 X-0.87645 Y5.02795
G01 X-0.87664 Y5.04014
G01 X-0.87779 Y5.08224
G01 X-0.87829 Y5.09483
G01 X-0.88053 Y5.13778
G01 X-0.88133 Y5.15018
G01 X-0.88467 Y5.19355
G01 X-0.88580 Y5.20614
G01 X-0.89022 Y5.24946
G01 X-0.89166 Y5.26205
G01 X-0.89718 Y5.30550
G01 X-0.89897 Y5.31827
G01 X-0.90554 Y5.36147
G01 X-0.90758 Y5.37383
G01 X-0.91532 Y5.41749
G01 X-0.91771 Y5.43007
G01 X-0.92688 Y5.47531
G01 X-0.92960 Y5.48790
G01 X-0.93998 Y5.53330
G01 X-0.94307 Y5.54606
G01 X-0.95465 Y5.59151
G01 X-0.95791 Y5.60369
G01 X-0.97096 Y5.65013
G01 X-0.97471 Y5.66289
G01 X-0.98916 Y5.70986
G01 X-0.99312 Y5.72221
G01 X-1.00917 Y5.77022
G01 X-1.01355 Y5.78280
G01 X-1.03164 Y5.83277
G01 X-1.03643 Y5.84551
G01 X-1.05600 Y5.89567
G01 X-1.06092 Y5.90784
G01 X-1.08249 Y5.95939
G01 X-1.08793 Y5.97196
G01 X-1.11160 Y6.02487
G01 X-1.11722 Y6.03703
G01 X-1.14322 Y6.09151
G01 X-1.14948 Y6.10425
G01 X-1.17826 Y6.16092
G01 X-1.18492 Y6.17365
G01 X-1.21613 Y6.23154
G01 X-1.22287 Y6.24371
G01 X-1.25693 Y6.30335
G01 X-1.26440 Y6.31607
G01 X-1.30214 Y6.37854
G01 X-1.30994 Y6.39110
G01 X-1.35164 Y6.45642
G01 X-1.35988 Y6.46898
G01 X-1.40550 Y6.53666
G01 X-1.41418 Y6.54922
G01 X-1.46348 Y6.61861
G01 X-1.47233 Y6.63076
G01 X-1.52649 Y6.70319
G01 X-1.53611 Y6.71573
G01 X-1.59543 Y6.79116
G01 X-1.60522 Y6.80330
G01 X-1.66949 Y6.88106
G01 X-1.67976 Y6.89320
G01 X-1.75161 Y6.97597
G01 X-1.76289 Y6.98865
G01 X-1.84356 Y7.07707
G01 X-1.89960 Y7.13642
G01 X-1.95715 Y7.19555
G01 X-2.00536 Y7.24402
G01 X-2.05470 Y7.29242
G01 X-2.12088 Y7.35592
G01 X-2.18932 Y7.41970
G01 X-2.24893 Y7.47403
G01 X-2.32380 Y7.54049
G01 X-2.39731 Y7.60420
G01 X-2.39975 Y7.60592
G01 X-2.40248 Y7.60712
G01 X-2.40540 Y7.60776
G01 X-2.40838 Y7.60781
G01 X-2.47209 Y7.60242
G01 X-2.59087 Y7.59035
G01 X-2.60364 Y7.58889
G01 X-2.72056 Y7.57410
G01 X-2.73275 Y7.57241
G01 X-2.85118 Y7.55448
G01 X-2.86394 Y7.55239
G01 X-2.98484 Y7.53103
G01 X-3.06913 Y7.51447
G01 X-3.14110 Y7.51300
G01 X-3.24231 Y7.50914
G01 X-3.34219 Y7.50325
G01 X-3.46106 Y7.52012
G01 X-3.58143 Y7.53417
G01 X-3.70179 Y7.54524
G01 X-3.82179 Y7.55331
G01 X-3.94216 Y7.55842
G01 X-4.06290 Y7.56055
G01 X-4.18326 Y7.55969
G01 X-4.30140 Y7.55585
G01 X-4.37569 Y7.57224
G01 X-4.45227 Y7.58778
G01 X-4.52839 Y7.60198
G01 X-4.60498 Y7.61500
G01 X-4.68134 Y7.62672
G01 X-4.75746 Y7.63714
G01 X-4.83382 Y7.64635
G01 X-4.91018 Y7.65429
G01 X-4.98679 Y7.66100
G01 X-5.06291 Y7.66640
G01 X-5.13927 Y7.67057
G01 X-5.21564 Y7.67347
G01 X-5.29225 Y7.67512
G01 X-5.36837 Y7.67550
G01 X-5.44474 Y7.67463
G01 X-5.51984 Y7.67249
G01 X-5.61741 Y7.68639
G01 X-5.71592 Y7.69823
G01 X-5.81476 Y7.70797
G01 X-5.91360 Y7.71554
G01 X-6.01276 Y7.72097
G01 X-6.11128 Y7.72422
G01 X-6.21012 Y7.72532
G01 X-6.30896 Y7.72427
G01 X-6.40813 Y7.72105
G01 X-6.50697 Y7.71568
G01 X-6.60581 Y7.70815
G01 X-6.70465 Y7.69846
G01 X-6.80316 Y7.68666
G01 X-6.90231 Y7.67261
G01 X-7.00082 Y7.65651
G01 X-7.09476 Y7.63911
G01 X-7.09484 Y7.63858
G01 X-7.09476 Y7.63911
G01 X-7.15983 Y7.67110
G01 X-7.22967 Y7.70414
G01 X-7.34279 Y7.75500
G01 X-7.45307 Y7.80130
G01 X-7.56175 Y7.84385
G01 X-7.66757 Y7.88227
G01 X-7.77288 Y7.91763
G01 X-7.87535 Y7.94919
G01 X-7.95270 Y7.97123
G01 X-7.95566 Y7.97176
G01 X-7.95866 Y7.97169
G01 X-7.96159 Y7.97103
G01 X-7.96432 Y7.96979
G01 X-8.06569 Y7.91111
G01 X-8.16909 Y7.84905
G01 X-8.23591 Y7.80772
G01 X-8.30123 Y7.76625
G01 X-8.36466 Y7.72486
G01 X-8.42619 Y7.68358
G01 X-8.53309 Y7.60908
G01 X-8.63034 Y7.53760
G01 X-8.71521 Y7.47200
G01 X-8.79544 Y7.40661
G01 X-8.86019 Y7.35119
G01 X-8.92155 Y7.29599
G01 X-8.97724 Y7.24343
G01 X-9.03050 Y7.19048
G01 X-9.07353 Y7.14558
G01 X-9.11424 Y7.10096
G01 X-9.15289 Y7.05651
G01 X-9.18661 Y7.01568
G01 X-9.21892 Y6.97461
G01 X-9.24697 Y6.93701
G01 X-9.27411 Y6.89878
G01 X-9.29787 Y6.86343
G01 X-9.32087 Y6.82738
G01 X-9.34236 Y6.79162
G01 X-9.37614 Y6.73066
G01 X-9.40501 Y6.67230
G01 X-9.42951 Y6.61640
G01 X-9.45130 Y6.55945
G01 X-9.45267 Y6.55555
G01 X-9.47047 Y6.50054
G01 X-9.48495 Y6.44689
G01 X-9.49640 Y6.39415
G01 X-9.50443 Y6.34633
G01 X-9.51043 Y6.29609
G01 X-9.51397 Y6.24527
G01 X-9.51494 Y6.19184
G01 X-9.51333 Y6.14211
G01 X-9.50957 Y6.09526
G01 X-9.50300 Y6.04406
G01 X-9.49302 Y5.98892
G01 X-9.48081 Y5.93665
G01 X-9.47210 Y5.90529
G01 X-9.47124 Y5.90518
G01 X-9.47210 Y5.90529
G01 X-9.49371 Y5.86925
G01 X-9.51408 Y5.83383
G01 X-9.53411 Y5.79747
G01 X-9.54662 Y5.77389
G01 X-9.56352 Y5.74085
G01 X-9.57465 Y5.71826
G01 X-9.59066 Y5.68446
G01 X-9.60065 Y5.66249
G01 X-9.61401 Y5.63191
G01 X-9.62787 Y5.59853
G01 X-9.63971 Y5.56847
G01 X-9.64883 Y5.54425
G01 X-9.65999 Y5.51290
G01 X-9.66919 Y5.48561
G01 X-9.67938 Y5.45343
G01 X-9.68733 Y5.42666
G01 X-9.69628 Y5.39438
G01 X-9.70298 Y5.36833
G01 X-9.71056 Y5.33643
G01 X-9.71622 Y5.31054
G01 X-9.72238 Y5.27955
G01 X-9.72699 Y5.25398
G01 X-9.73194 Y5.22317
G01 X-9.73548 Y5.19833
G01 X-9.73933 Y5.16710
G01 X-9.74184 Y5.14302
G01 X-9.74451 Y5.11201
G01 X-9.74612 Y5.08825
G01 X-9.74762 Y5.05772
G01 X-9.74836 Y5.03352
G01 X-9.74874 Y5.00263
G01 X-9.74859 Y4.97903
G01 X-9.74822 Y4.96065
G01 X-9.74762 Y4.94225
G01 X-9.74678 Y4.92380
G01 X-9.74572 Y4.90535
G01 X-9.74443 Y4.88687
G01 X-9.74290 Y4.86834
G01 X-9.74118 Y4.85029
G01 X-9.73920 Y4.83177
G01 X-9.73696 Y4.81309
G01 X-9.73448 Y4.79439
G01 X-9.73187 Y4.77631
G01 X-9.72898 Y4.75795
G01 X-9.72575 Y4.73892
G01 X-9.72232 Y4.72011
G01 X-9.71869 Y4.70152
G01 X-9.71468 Y4.68223
G01 X-9.71044 Y4.66303
G01 X-9.70603 Y4.64414
G01 X-9.70126 Y4.62481
G01 X-9.69627 Y4.60560
G01 X-9.69090 Y4.58591
G01 X-9.68518 Y4.56592
G01 X-9.67919 Y4.54594
G01 X-9.67286 Y4.52573
G01 X-9.66622 Y4.50541
G01 X-9.65940 Y4.48539
G01 X-9.65209 Y4.46477
G01 X-9.64441 Y4.44391
G01 X-9.63659 Y4.42346
G01 X-9.62303 Y4.38959
G01 X-9.61401 Y4.36809
G01 X-9.60461 Y4.34644
G01 X-9.58946 Y4.31292
G01 X-9.58016 Y4.29319
G01 X-9.56937 Y4.27094
G01 X-9.55179 Y4.23606
G01 X-9.53972 Y4.21301
G01 X-9.52702 Y4.18947
G01 X-9.50719 Y4.15402
G01 X-9.48590 Y4.11755
G01 X-9.46338 Y4.08055
G01 X-9.43922 Y4.04245
G01 X-9.41334 Y4.00325
G01 X-9.38668 Y3.96443
G01 X-9.36738 Y3.93721
G01 X-9.35635 Y3.92196
G01 X-9.33531 Y3.89346
G01 X-9.30432 Y3.85277
G01 X-9.28142 Y3.82362
G01 X-9.26762 Y3.80640
G01 X-9.24308 Y3.77637
G01 X-9.20696 Y3.73345
G01 X-9.17952 Y3.70181
G01 X-9.15063 Y3.66932
G01 X-9.12085 Y3.63663
G01 X-9.08944 Y3.60298
G01 X-9.05611 Y3.56814
G01 X-9.02115 Y3.53250
G01 X-8.98444 Y3.49598
G01 X-8.94661 Y3.45925
G01 X-8.90726 Y3.42197
G01 X-8.86523 Y3.38309
G01 X-8.83412 Y3.35490
G01 X-8.78786 Y3.31387
G01 X-8.73997 Y3.27242
G01 X-8.68903 Y3.22940
G01 X-8.67404 Y3.21694
G01 X-8.61855 Y3.17155
G01 X-8.57643 Y3.13784
G01 X-8.51614 Y3.09064
G01 X-8.49991 Y3.07812
G01 X-8.43443 Y3.02846
G01 X-8.38179 Y2.98942
G01 X-8.36484 Y2.97702
G01 X-8.29251 Y2.92491
G01 X-8.21672 Y2.87167
G01 X-8.15315 Y2.82804
G01 X-8.13485 Y2.81564
G01 X-8.06491 Y2.76889
G01 X-8.04603 Y2.75643
G01 X-7.97098 Y2.70761
G01 X-7.95167 Y2.69521
G01 X-7.87073 Y2.64396
G01 X-7.81025 Y2.60642
G01 X-7.75872 Y2.55712
G01 X-7.70458 Y2.50656
G01 X-7.64947 Y2.45622
G01 X-7.59303 Y2.40578
G01 X-7.59061 Y2.40402
G01 X-7.58790 Y2.40278
G01 X-7.58499 Y2.40210
G01 X-7.58200 Y2.40200
G01 X-7.51133 Y2.40687
G01 X-7.44044 Y2.41281
G01 X-7.36956 Y2.41980
G01 X-7.30014 Y2.42773
G01 X-7.18846 Y2.41822
G01 X-7.07529 Y2.41131
G01 X-6.96212 Y2.40707
G01 X-6.85126 Y2.40562
G01 X-6.76888 Y2.38230
G01 X-6.68435 Y2.36008
G01 X-6.59981 Y2.33947
G01 X-6.51527 Y2.32049
G01 X-6.43045 Y2.30307
G01 X-6.34590 Y2.28732
G01 X-6.26134 Y2.27319
G01 X-6.17678 Y2.26068
G01 X-6.09251 Y2.24983
G01 X-6.00766 Y2.24052
G01 X-5.92310 Y2.23287
G01 X-5.83854 Y2.22683
G01 X-5.75426 Y2.22243
G01 X-5.66941 Y2.21963
G01 X-5.58513 Y2.21845
G01 X-5.50057 Y2.21889
G01 X-5.41571 Y2.22095
G01 X-5.33115 Y2.22463
G01 X-5.24687 Y2.22991
G01 X-5.16231 Y2.23683
G01 X-5.07747 Y2.24539
G01 X-4.99319 Y2.25551
G01 X-4.90863 Y2.26728
G01 X-4.82380 Y2.28071
G01 X-4.73925 Y2.29573
G01 X-4.65470 Y2.31236
G01 X-4.57042 Y2.33054
G01 X-4.48588 Y2.35041
G01 X-4.40108 Y2.37195
G01 X-4.31680 Y2.39498
G01 X-4.23201 Y2.41978
G01 X-4.15018 Y2.44527
G01 X-4.15021 Y2.44541
G01 X-4.15018 Y2.44527
G01 X-4.03038 Y2.44083
G01 X-3.91019 Y2.43941
G01 X-3.91016 Y2.43955
G01 X-3.91019 Y2.43941
G01 X-3.80316 Y2.40051
G01 X-3.69341 Y2.36344
G01 X-3.58365 Y2.32920
G01 X-3.47388 Y2.29779
G01 X-3.36376 Y2.26912
G01 X-3.25433 Y2.24346
G01 X-3.14418 Y2.22047
G01 X-3.03438 Y2.20038
G01 X-2.92496 Y2.18319
G01 X-2.81478 Y2.16871
G01 X-2.70497 Y2.15713
G01 X-2.59516 Y2.14837
G01 X-2.48574 Y2.14246
G01 X-2.37554 Y2.13935
G01 X-2.26572 Y2.13909
G01 X-2.15630 Y2.14165
G01 X-2.15330 Y2.14203
G01 X-2.15044 Y2.14299
G01 X-2.14783 Y2.14452
G01 X-2.14558 Y2.14653
G01 X-2.07847 Y2.21997
G01 X-2.01355 Y2.29360
G01 X-1.95081 Y2.36746
G01 X-1.89080 Y2.44090
G01 X-1.83297 Y2.51456
G01 X-1.77733 Y2.58849
G01 X-1.72424 Y2.66219
G01 X-1.67370 Y2.73562
G01 X-1.62516 Y2.80962
G01 X-1.57917 Y2.88336
G01 X-1.53573 Y2.95680
G01 X-1.49448 Y3.03055
G01 X-1.45542 Y3.10465
G01 X-1.41892 Y3.17844
G01 X-1.38495 Y3.25188
G01 X-1.35318 Y3.32568
G01 X-1.33239 Y3.37587
G01 X-1.31055 Y3.43018
G01 X-1.29017 Y3.48406
G01 X-1.27088 Y3.53855
G01 X-1.25299 Y3.59274
G01 X-1.23650 Y3.64662
G01 X-1.22112 Y3.70115
G01 X-1.20721 Y3.75503
G01 X-1.19503 Y3.80740
G01 X-1.17592 Y3.84356
G01 X-1.16968 Y3.85568
G01 X-1.14185 Y3.91128
G01 X-1.13567 Y3.92401
G01 X-1.10995 Y3.97875
G01 X-1.10415 Y3.99149
G01 X-1.08064 Y4.04491
G01 X-1.07530 Y4.05748
G01 X-1.05425 Y4.10870
G01 X-1.04942 Y4.12087
G01 X-1.03033 Y4.17074
G01 X-1.02570 Y4.18331
G01 X-1.00806 Y4.23300
G01 X-1.00378 Y4.24558
G01 X-0.98786 Y4.29425
G01 X-0.98386 Y4.30700
G01 X-0.96975 Y4.35401
G01 X-0.96626 Y4.36619
G01 X-0.95363 Y4.41236
G01 X-0.95040 Y4.42476
G01 X-0.93899 Y4.47087
G01 X-0.93600 Y4.48363
G01 X-0.92596 Y4.52904
G01 X-0.92338 Y4.54144
G01 X-0.91456 Y4.58660
G01 X-0.91226 Y4.59918
G01 X-0.90488 Y4.64264
G01 X-0.90294 Y4.65500
G01 X-0.89679 Y4.69740
G01 X-0.89517 Y4.70958
G01 X-0.89001 Y4.75243
G01 X-0.88863 Y4.76520
G01 X-0.88451 Y4.80829
G01 X-0.88345 Y4.82106
G01 X-0.88047 Y4.86326
G01 X-0.87975 Y4.87545
G01 X-0.87779 Y4.91784
G01 X-0.87736 Y4.93043
G01 X-0.87644 Y4.97309
G01 X-0.87633 Y4.98567
G01 X-0.88633 Y4.98576
G01 X-0.88645 Y5.02780
G01 X-0.88663 Y5.03986
G01 X-0.88778 Y5.08178
G01 X-0.88828 Y5.09424
G01 X-0.89051 Y5.13707
G01 X-0.89131 Y5.14960
G01 X-0.89463 Y5.19260
G01 X-0.89575 Y5.20512
G01 X-0.90015 Y5.24826
G01 X-0.90158 Y5.26079
G01 X-0.90710 Y5.30424
G01 X-0.90885 Y5.31670
G01 X-0.91543 Y5.35996
G01 X-0.91741 Y5.37202
G01 X-0.92517 Y5.41575
G01 X-0.92753 Y5.42821
G01 X-0.93665 Y5.47314
G01 X-0.93933 Y5.48561
G01 X-0.94973 Y5.53107
G01 X-0.95275 Y5.54353
G01 X-0.96434 Y5.58904
G01 X-0.96759 Y5.60116
G01 X-0.98059 Y5.64743
G01 X-0.98427 Y5.65995
G01 X-0.99871 Y5.70692
G01 X-1.00258 Y5.71898
G01 X-1.01868 Y5.76711
G01 X-1.02299 Y5.77951
G01 X-1.04106 Y5.82942
G01 X-1.04573 Y5.84182
G01 X-1.06534 Y5.89209
G01 X-1.07021 Y5.90415
G01 X-1.09174 Y5.95558
G01 X-1.09710 Y5.96799
G01 X-1.12073 Y6.02078
G01 X-1.12630 Y6.03284
G01 X-1.15227 Y6.08726
G01 X-1.15840 Y6.09972
G01 X-1.18718 Y6.15640
G01 X-1.19369 Y6.16885
G01 X-1.22487 Y6.22669
G01 X-1.23156 Y6.23875
G01 X-1.26562 Y6.29839
G01 X-1.27293 Y6.31084
G01 X-1.31070 Y6.37337
G01 X-1.31847 Y6.38588
G01 X-1.36007 Y6.45104
G01 X-1.36824 Y6.46350
G01 X-1.41379 Y6.53108
G01 X-1.42241 Y6.54353
G01 X-1.47163 Y6.61282
G01 X-1.48041 Y6.62487
G01 X-1.53453 Y6.69725
G01 X-1.54404 Y6.70965
G01 X-1.60333 Y6.78502
G01 X-1.61301 Y6.79702
G01 X-1.67723 Y6.87473
G01 X-1.68744 Y6.88678
G01 X-1.75921 Y6.96946
G01 X-1.77024 Y6.98186
G01 X-1.85099 Y7.07038
G01 X-1.90677 Y7.12945
G01 X-1.96422 Y7.18848
G01 X-2.01232 Y7.23684
G01 X-2.06166 Y7.28524
G01 X-2.12771 Y7.34861
G01 X-2.19610 Y7.41235
G01 X-2.25571 Y7.46668
G01 X-2.33043 Y7.53300
G01 X-2.40386 Y7.59664
G01 X-2.40558 Y7.59762
G01 X-2.40755 Y7.59785
G01 X-2.45881 Y7.59356
G01 X-2.47127 Y7.59245
G01 X-2.58986 Y7.58040
G01 X-2.60233 Y7.57898
G01 X-2.71937 Y7.56417
G01 X-2.73143 Y7.56250
G01 X-2.84974 Y7.54458
G01 X-2.86214 Y7.54255
G01 X-2.98317 Y7.52117
G01 X-3.06805 Y7.50451
G01 X-3.14082 Y7.50300
G01 X-3.24193 Y7.49915
G01 X-3.34260 Y7.49324
G01 X-3.46210 Y7.51017
G01 X-3.58234 Y7.52421
G01 X-3.70246 Y7.53526
G01 X-3.82258 Y7.54333
G01 X-3.94270 Y7.54843
G01 X-4.06270 Y7.55055
G01 X-4.18295 Y7.54970
G01 X-4.30232 Y7.54586
G01 X-4.37783 Y7.56247
G01 X-4.45403 Y7.57794
G01 X-4.53022 Y7.59215
G01 X-4.60650 Y7.60511
G01 X-4.68262 Y7.61680
G01 X-4.75882 Y7.62724
G01 X-4.83510 Y7.63643
G01 X-4.91122 Y7.64435
G01 X-4.98750 Y7.65102
G01 X-5.06362 Y7.65643
G01 X-5.13990 Y7.66059
G01 X-5.21610 Y7.66348
G01 X-5.29222 Y7.66512
G01 X-5.36850 Y7.66550
G01 X-5.44462 Y7.66463
G01 X-5.52040 Y7.66249
G01 X-5.61860 Y7.67646
G01 X-5.71723 Y7.68832
G01 X-5.81574 Y7.69801
G01 X-5.91436 Y7.70557
G01 X-6.01309 Y7.71098
G01 X-6.11161 Y7.71423
G01 X-6.21023 Y7.71533
G01 X-6.30896 Y7.71427
G01 X-6.40748 Y7.71107
G01 X-6.50610 Y7.70571
G01 X-6.60473 Y7.69820
G01 X-6.70346 Y7.68853
G01 X-6.80197 Y7.67673
G01 X-6.90059 Y7.66276
G01 X-6.99921 Y7.64664
G01 X-7.09620 Y7.62868
G01 X-7.09624 Y7.62841
G01 X-7.09620 Y7.62868
G01 X-7.16431 Y7.66216
G01 X-7.23384 Y7.69505
G01 X-7.34689 Y7.74588
G01 X-7.45682 Y7.79203
G01 X-7.56539 Y7.83454
G01 X-7.67087 Y7.87283
G01 X-7.77606 Y7.90814
G01 X-7.87817 Y7.93960
G01 X-7.95642 Y7.96179
G01 X-7.95742 Y7.96177
G01 X-7.95931 Y7.96113
G01 X-8.06067 Y7.90245
G01 X-8.16388 Y7.84051
G01 X-8.23065 Y7.79922
G01 X-8.29576 Y7.75787
G01 X-8.35909 Y7.71656
G01 X-8.42065 Y7.67526
G01 X-8.52747 Y7.60081
G01 X-8.62431 Y7.52962
G01 X-8.70880 Y7.46432
G01 X-8.78907 Y7.39890
G01 X-8.85350 Y7.34375
G01 X-8.91477 Y7.28864
G01 X-8.97037 Y7.23617
G01 X-9.02323 Y7.18360
G01 X-9.06605 Y7.13893
G01 X-9.10689 Y7.09417
G01 X-9.14510 Y7.05024
G01 X-9.17882 Y7.00941
G01 X-9.21083 Y6.96872
G01 X-9.23888 Y6.93114
G01 X-9.26602 Y6.89290
G01 X-9.28950 Y6.85796
G01 X-9.31231 Y6.82221
G01 X-9.33374 Y6.78657
G01 X-9.36581 Y6.72881
G01 X-9.39440 Y6.67138
G01 X-9.42175 Y6.60895
G01 X-9.44200 Y6.55577
G01 X-9.45993 Y6.50088
G01 X-9.47445 Y6.44771
G01 X-9.48588 Y6.39594
G01 X-9.49453 Y6.34492
G01 X-9.50082 Y6.29147
G01 X-9.50412 Y6.24152
G01 X-9.50495 Y6.19227
G01 X-9.50352 Y6.14587
G01 X-9.49926 Y6.09274
G01 X-9.49260 Y6.04227
G01 X-9.48328 Y5.99118
G01 X-9.47195 Y5.94235
G01 X-9.46130 Y5.90379
G01 X-9.46087 Y5.90373
G01 X-9.46130 Y5.90379
G01 X-9.47029 Y5.88902
G01 X-9.49197 Y5.85238
G01 X-9.51234 Y5.81644
G01 X-9.53123 Y5.78166
G01 X-9.54326 Y5.75867
G01 X-9.56077 Y5.72389
G01 X-9.57595 Y5.69235
G01 X-9.59153 Y5.65837
G01 X-9.60479 Y5.62802
G01 X-9.61861 Y5.59475
G01 X-9.63039 Y5.56483
G01 X-9.64307 Y5.53083
G01 X-9.65310 Y5.50218
G01 X-9.66372 Y5.47002
G01 X-9.67205 Y5.44318
G01 X-9.67771 Y5.42393
G01 X-9.68324 Y5.40429
G01 X-9.69154 Y5.37283
G01 X-9.69793 Y5.34667
G01 X-9.70504 Y5.31505
G01 X-9.70889 Y5.29652
G01 X-9.71256 Y5.27766
G01 X-9.71712 Y5.25236
G01 X-9.72205 Y5.22170
G01 X-9.72557 Y5.19698
G01 X-9.72793 Y5.17846
G01 X-9.73005 Y5.16005
G01 X-9.73189 Y5.14210
G01 X-9.73354 Y5.12374
G01 X-9.73578 Y5.09342
G01 X-9.73711 Y5.06939
G01 X-9.73784 Y5.05163
G01 X-9.73837 Y5.03334
G01 X-9.73874 Y5.00263
G01 X-9.73867 Y4.98488
G01 X-9.73837 Y4.96673
G01 X-9.73784 Y4.94843
G01 X-9.73709 Y4.93016
G01 X-9.73574 Y4.90594
G01 X-9.73445 Y4.88758
G01 X-9.73294 Y4.86930
G01 X-9.73124 Y4.85137
G01 X-9.72926 Y4.83285
G01 X-9.72704 Y4.81433
G01 X-9.72458 Y4.79581
G01 X-9.72198 Y4.77779
G01 X-9.71911 Y4.75954
G01 X-9.71591 Y4.74069
G01 X-9.71249 Y4.72194
G01 X-9.70888 Y4.70344
G01 X-9.70492 Y4.68440
G01 X-9.70071 Y4.66532
G01 X-9.69632 Y4.64655
G01 X-9.68846 Y4.61521
G01 X-9.68326 Y4.59578
G01 X-9.67774 Y4.57615
G01 X-9.67190 Y4.55634
G01 X-9.66575 Y4.53639
G01 X-9.65930 Y4.51632
G01 X-9.65269 Y4.49661
G01 X-9.64267 Y4.46811
G01 X-9.63507 Y4.44749
G01 X-9.62725 Y4.42704
G01 X-9.61380 Y4.39346
G01 X-9.60483 Y4.37206
G01 X-9.59545 Y4.35044
G01 X-9.58042 Y4.31720
G01 X-9.57111 Y4.29745
G01 X-9.56043 Y4.27541
G01 X-9.54293 Y4.24070
G01 X-9.52499 Y4.20668
G01 X-9.50500 Y4.17042
G01 X-9.48463 Y4.13504
G01 X-9.46270 Y4.09849
G01 X-9.43883 Y4.06033
G01 X-9.41420 Y4.02252
G01 X-9.40501 Y4.00878
G01 X-9.38690 Y3.98224
G01 X-9.36817 Y3.95553
G01 X-9.33913 Y3.91537
G01 X-9.31798 Y3.88705
G01 X-9.29645 Y3.85895
G01 X-9.28341 Y3.84225
G01 X-9.25980 Y3.81263
G01 X-9.22506 Y3.77033
G01 X-9.19935 Y3.73994
G01 X-9.17202 Y3.70844
G01 X-9.14319 Y3.67599
G01 X-9.11355 Y3.64346
G01 X-9.08222 Y3.60990
G01 X-9.04891 Y3.57509
G01 X-9.01404 Y3.53953
G01 X-8.97741 Y3.50310
G01 X-8.95213 Y3.47845
G01 X-8.91327 Y3.44134
G01 X-8.87201 Y3.40288
G01 X-8.82745 Y3.36235
G01 X-8.81356 Y3.34993
G01 X-8.76754 Y3.30940
G01 X-8.73344 Y3.27999
G01 X-8.68256 Y3.23703
G01 X-8.66762 Y3.22461
G01 X-8.61223 Y3.17930
G01 X-8.57018 Y3.14565
G01 X-8.50999 Y3.09852
G01 X-8.49388 Y3.08610
G01 X-8.42840 Y3.03643
G01 X-8.37590 Y2.99751
G01 X-8.35891 Y2.98507
G01 X-8.28668 Y2.93303
G01 X-8.21108 Y2.87994
G01 X-8.14757 Y2.83634
G01 X-8.12922 Y2.82390
G01 X-8.05940 Y2.77723
G01 X-8.04057 Y2.76482
G01 X-7.96558 Y2.71602
G01 X-7.94624 Y2.70360
G01 X-7.86545 Y2.65246
G01 X-7.80410 Y2.61435
G01 X-7.75177 Y2.56431
G01 X-7.69783 Y2.51394
G01 X-7.64268 Y2.46357
G01 X-7.58636 Y2.41324
G01 X-7.58465 Y2.41224
G01 X-7.58269 Y2.41198
G01 X-7.51195 Y2.41685
G01 X-7.44121 Y2.42278
G01 X-7.37054 Y2.42975
G01 X-7.30029 Y2.43775
G01 X-7.18796 Y2.42821
G01 X-7.07491 Y2.42130
G01 X-6.96209 Y2.41707
G01 X-6.84981 Y2.41556
G01 X-6.76608 Y2.39190
G01 X-6.68181 Y2.36975
G01 X-6.59735 Y2.34917
G01 X-6.51307 Y2.33024
G01 X-6.42862 Y2.31290
G01 X-6.34434 Y2.29720
G01 X-6.25988 Y2.28308
G01 X-6.17551 Y2.27060
G01 X-6.09123 Y2.25974
G01 X-6.00686 Y2.25049
G01 X-5.92239 Y2.24284
G01 X-5.83811 Y2.23683
G01 X-5.75374 Y2.23242
G01 X-5.66936 Y2.22963
G01 X-5.58499 Y2.22845
G01 X-5.50062 Y2.22889
G01 X-5.41615 Y2.23094
G01 X-5.33187 Y2.23461
G01 X-5.24750 Y2.23989
G01 X-5.16303 Y2.24680
G01 X-5.07866 Y2.25532
G01 X-4.99429 Y2.26545
G01 X-4.91001 Y2.27718
G01 X-4.82555 Y2.29056
G01 X-4.74118 Y2.30554
G01 X-4.65681 Y2.32213
G01 X-4.57244 Y2.34034
G01 X-4.48817 Y2.36014
G01 X-4.40380 Y2.38158
G01 X-4.31935 Y2.40465
G01 X-4.23507 Y2.42930
G01 X-4.15154 Y2.45540
G01 X-4.02989 Y2.45082
G01 X-3.90836 Y2.44946
G01 X-3.79974 Y2.40991
G01 X-3.69010 Y2.37288
G01 X-3.58056 Y2.33871
G01 X-3.47102 Y2.30737
G01 X-3.36159 Y2.27889
G01 X-3.25205 Y2.25319
G01 X-3.14238 Y2.23030
G01 X-3.03283 Y2.21026
G01 X-2.92340 Y2.19307
G01 X-2.81386 Y2.17867
G01 X-2.70418 Y2.16709
G01 X-2.59462 Y2.15835
G01 X-2.48520 Y2.15245
G01 X-2.37551 Y2.14935
G01 X-2.26609 Y2.14909
G01 X-2.15653 Y2.15165
G01 X-2.15553 Y2.15178
G01 X-2.15458 Y2.15210
G01 X-2.15371 Y2.15260
G01 X-2.15296 Y2.15328
G01 X-2.08579 Y2.22678
G01 X-2.02105 Y2.30021
G01 X-1.95855 Y2.37379
G01 X-1.89848 Y2.44730
G01 X-1.84084 Y2.52074
G01 X-1.78544 Y2.59434
G01 X-1.73247 Y2.66786
G01 X-1.68194 Y2.74129
G01 X-1.63370 Y2.81482
G01 X-1.58777 Y2.88845
G01 X-1.54434 Y2.96189
G01 X-1.50321 Y3.03543
G01 X-1.46444 Y3.10897
G01 X-1.42805 Y3.18252
G01 X-1.39397 Y3.25620
G01 X-1.36237 Y3.32963
G01 X-1.34163 Y3.37969
G01 X-1.31994 Y3.43362
G01 X-1.29949 Y3.48770
G01 X-1.28037 Y3.54169
G01 X-1.26255 Y3.59567
G01 X-1.24606 Y3.64955
G01 X-1.23083 Y3.70354
G01 X-1.21690 Y3.75753
G01 X-1.20444 Y3.81091
G01 X-1.17857 Y3.86026
G01 X-1.15080 Y3.91575
G01 X-1.14472 Y3.92827
G01 X-1.11897 Y3.98306
G01 X-1.11333 Y3.99546
G01 X-1.08985 Y4.04882
G01 X-1.08455 Y4.06128
G01 X-1.06356 Y4.11233
G01 X-1.05878 Y4.12439
G01 X-1.03967 Y4.17431
G01 X-1.03506 Y4.18683
G01 X-1.01749 Y4.23634
G01 X-1.01322 Y4.24886
G01 X-0.99734 Y4.29741
G01 X-0.99344 Y4.30987
G01 X-0.97937 Y4.35677
G01 X-0.97591 Y4.36883
G01 X-0.96332 Y4.41482
G01 X-0.96008 Y4.42729
G01 X-0.94869 Y4.47333
G01 X-0.94577 Y4.48579
G01 X-0.93575 Y4.53108
G01 X-0.93317 Y4.54348
G01 X-0.92441 Y4.58833
G01 X-0.92212 Y4.60085
G01 X-0.91474 Y4.64432
G01 X-0.91283 Y4.65644
G01 X-0.90668 Y4.69884
G01 X-0.90507 Y4.71096
G01 X-0.89994 Y4.75362
G01 X-0.89858 Y4.76615
G01 X-0.89446 Y4.80931
G01 X-0.89343 Y4.82177
G01 X-0.89044 Y4.86403
G01 X-0.88973 Y4.87609
G01 X-0.88779 Y4.91818
G01 X-0.88736 Y4.93058
G01 X-0.88644 Y4.97330
G01 X-0.88633 Y4.98573
G01 X-0.90633 Y4.98586
G01 X-0.90644 Y4.97364
G01 X-0.90735 Y4.93117
G01 X-0.90777 Y4.91895
G01 X-0.90971 Y4.87711
G01 X-0.91040 Y4.86529
G01 X-0.91337 Y4.82327
G01 X-0.91438 Y4.81105
G01 X-0.91848 Y4.76814
G01 X-0.91980 Y4.75592
G01 X-0.92492 Y4.71344
G01 X-0.92649 Y4.70162
G01 X-0.93261 Y4.65940
G01 X-0.93447 Y4.64758
G01 X-0.94183 Y4.60429
G01 X-0.94405 Y4.59207
G01 X-0.95277 Y4.54747
G01 X-0.95531 Y4.53525
G01 X-0.96527 Y4.49020
G01 X-0.96814 Y4.47798
G01 X-0.97945 Y4.43224
G01 X-0.98264 Y4.42001
G01 X-0.99517 Y4.37420
G01 X-0.99856 Y4.36237
G01 X-1.01257 Y4.31571
G01 X-1.01640 Y4.30348
G01 X-1.03220 Y4.25517
G01 X-1.03637 Y4.24294
G01 X-1.05387 Y4.19360
G01 X-1.05838 Y4.18138
G01 X-1.07740 Y4.13168
G01 X-1.08210 Y4.11985
G01 X-1.10301 Y4.06897
G01 X-1.10821 Y4.05673
G01 X-1.13157 Y4.00366
G01 X-1.13714 Y3.99142
G01 X-1.16278 Y3.93686
G01 X-1.16872 Y3.92462
G01 X-1.19638 Y3.86934
G01 X-1.21363 Y3.83633
G01 X-1.21248 Y3.83039
G01 X-1.21363 Y3.83633
G01 X-1.28322 Y3.89608
G01 X-1.42764 Y4.01884
G01 X-1.51324 Y4.09073
G01 X-1.60218 Y4.16437
G01 X-1.67385 Y4.22266
G01 X-1.69337 Y4.23833
G01 X-1.75257 Y4.28516
G01 X-1.80207 Y4.32335
G01 X-1.83033 Y4.34467
G01 X-1.87031 Y4.37412
G01 X-1.90600 Y4.39957
G01 X-1.93792 Y4.42155
G01 X-1.95118 Y4.43045
G01 X-1.96806 Y4.44154
G01 X-1.99567 Y4.45911
G01 X-2.00807 Y4.46675
G01 X-2.03433 Y4.48238
G01 X-2.05971 Y4.49673
G01 X-2.10558 Y4.52135
G01 X-2.11658 Y4.52753
G01 X-2.13805 Y4.54011
G01 X-2.15848 Y4.55276
G01 X-2.17875 Y4.56600
G01 X-2.19843 Y4.57957
G01 X-2.20849 Y4.58679
G01 X-2.22732 Y4.60084
G01 X-2.24519 Y4.61488
G01 X-2.26288 Y4.62949
G01 X-2.27099 Y4.63644
G01 X-2.28796 Y4.65151
G01 X-2.30420 Y4.66667
G01 X-2.31298 Y4.67517
G01 X-2.32861 Y4.69090
G01 X-2.34415 Y4.70731
G01 X-2.35129 Y4.71513
G01 X-2.36632 Y4.73220
G01 X-2.38075 Y4.74942
G01 X-2.38846 Y4.75898
G01 X-2.40239 Y4.77692
G01 X-2.40895 Y4.78569
G01 X-2.41623 Y4.79569
G01 X-2.42986 Y4.81515
G01 X-2.44321 Y4.83523
G01 X-2.45594 Y4.85546
G01 X-2.46221 Y4.86583
G01 X-2.47491 Y4.88774
G01 X-2.48108 Y4.89885
G01 X-2.49326 Y4.92178
G01 X-2.50516 Y4.94560
G01 X-2.51676 Y4.97032
G01 X-2.52274 Y4.98371
G01 X-2.53371 Y5.00957
G01 X-2.54464 Y5.03720
G01 X-2.55513 Y5.06578
G01 X-2.56513 Y5.09523
G01 X-2.56932 Y5.10834
G01 X-2.57498 Y5.12681
G01 X-2.57891 Y5.14020
G01 X-2.58434 Y5.15963
G01 X-2.58787 Y5.17285
G01 X-2.59307 Y5.19333
G01 X-2.59632 Y5.20683
G01 X-2.60141 Y5.22913
G01 X-2.60839 Y5.26236
G01 X-2.61018 Y5.27913
G01 X-2.61503 Y5.32099
G01 X-2.62053 Y5.36421
G01 X-2.62593 Y5.40347
G01 X-2.63183 Y5.44405
G01 X-2.64045 Y5.49985
G01 X-2.65392 Y5.58151
G01 X-2.66625 Y5.65220
G01 X-2.68116 Y5.73431
G01 X-2.69794 Y5.82320
G01 X-2.72229 Y5.94824
G01 X-2.75040 Y6.08825
G01 X-2.78698 Y6.26610
G01 X-2.83527 Y6.49626
G01 X-2.89313 Y6.76727
G01 X-2.99133 Y7.22153
G01 X-3.04958 Y7.48779
G01 X-3.05317 Y7.49014
G01 X-3.04958 Y7.48779
G01 X-2.97953 Y7.50150
G01 X-2.85881 Y7.52283
G01 X-2.84659 Y7.52483
G01 X-2.72853 Y7.54271
G01 X-2.71671 Y7.54435
G01 X-2.59997 Y7.55912
G01 X-2.58775 Y7.56051
G01 X-2.46934 Y7.57254
G01 X-2.41218 Y7.57739
G01 X-2.41192 Y7.57820
G01 X-2.41218 Y7.57739
G01 X-2.34357 Y7.51792
G01 X-2.26907 Y7.45180
G01 X-2.20963 Y7.39762
G01 X-2.14143 Y7.33406
G01 X-2.08793 Y7.28285
G01 X-2.02644 Y7.22267
G01 X-1.97845 Y7.17443
G01 X-1.92119 Y7.11559
G01 X-1.86566 Y7.05679
G01 X-1.78512 Y6.96850
G01 X-1.77421 Y6.95623
G01 X-1.70260 Y6.87374
G01 X-1.69255 Y6.86188
G01 X-1.62852 Y6.78440
G01 X-1.61896 Y6.77254
G01 X-1.55986 Y6.69741
G01 X-1.55046 Y6.68515
G01 X-1.49652 Y6.61301
G01 X-1.48788 Y6.60116
G01 X-1.43880 Y6.53207
G01 X-1.43032 Y6.51982
G01 X-1.38491 Y6.45245
G01 X-1.37688 Y6.44020
G01 X-1.33538 Y6.37520
G01 X-1.32777 Y6.36295
G01 X-1.29013 Y6.30064
G01 X-1.28294 Y6.28839
G01 X-1.24897 Y6.22891
G01 X-1.24240 Y6.21707
G01 X-1.21137 Y6.15950
G01 X-1.20497 Y6.14726
G01 X-1.17628 Y6.09075
G01 X-1.17025 Y6.07851
G01 X-1.14442 Y6.02436
G01 X-1.13895 Y6.01253
G01 X-1.11542 Y5.95996
G01 X-1.11013 Y5.94772
G01 X-1.08869 Y5.89651
G01 X-1.08391 Y5.88468
G01 X-1.06441 Y5.83470
G01 X-1.05982 Y5.82247
G01 X-1.04185 Y5.77285
G01 X-1.03760 Y5.76062
G01 X-1.02160 Y5.71278
G01 X-1.01780 Y5.70096
G01 X-1.00341 Y5.65416
G01 X-0.99982 Y5.64193
G01 X-0.98687 Y5.59584
G01 X-0.98370 Y5.58402
G01 X-0.97216 Y5.53874
G01 X-0.96921 Y5.52652
G01 X-0.95886 Y5.48130
G01 X-0.95623 Y5.46908
G01 X-0.94716 Y5.42438
G01 X-0.94484 Y5.41216
G01 X-0.93714 Y5.36868
G01 X-0.93519 Y5.35686
G01 X-0.92864 Y5.31384
G01 X-0.92693 Y5.30162
G01 X-0.92143 Y5.25836
G01 X-0.92003 Y5.24614
G01 X-0.91565 Y5.20319
G01 X-0.91456 Y5.19097
G01 X-0.91126 Y5.14815
G01 X-0.91047 Y5.13594
G01 X-0.90826 Y5.09336
G01 X-0.90777 Y5.08114
G01 X-0.90663 Y5.03941
G01 X-0.90645 Y5.02759
G01 X-0.90633 Y4.98586
G01 X-0.89633 Y4.98583
G01 X-0.89644 Y4.97349
G01 X-0.89736 Y4.93089
G01 X-0.89778 Y4.91855
G01 X-0.89972 Y4.87658
G01 X-0.90042 Y4.86464
G01 X-0.90340 Y4.82250
G01 X-0.90442 Y4.81016
G01 X-0.90853 Y4.76713
G01 X-0.90987 Y4.75479
G01 X-0.91500 Y4.71218
G01 X-0.91658 Y4.70024
G01 X-0.92273 Y4.65790
G01 X-0.92460 Y4.64596
G01 X-0.93198 Y4.60256
G01 X-0.93423 Y4.59022
G01 X-0.94296 Y4.54549
G01 X-0.94553 Y4.53315
G01 X-0.95552 Y4.48798
G01 X-0.95842 Y4.47564
G01 X-0.96976 Y4.42978
G01 X-0.97298 Y4.41743
G01 X-0.98555 Y4.37150
G01 X-0.98897 Y4.35955
G01 X-1.00301 Y4.31278
G01 X-1.00687 Y4.30043
G01 X-1.02272 Y4.25200
G01 X-1.02692 Y4.23966
G01 X-1.04447 Y4.19020
G01 X-1.04902 Y4.17786
G01 X-1.06808 Y4.12805
G01 X-1.07282 Y4.11611
G01 X-1.09379 Y4.06511
G01 X-1.09904 Y4.05276
G01 X-1.12245 Y3.99957
G01 X-1.12806 Y3.98723
G01 X-1.15376 Y3.93255
G01 X-1.15975 Y3.92020
G01 X-1.18747 Y3.86482
G01 X-1.21063 Y3.82055
G01 X-1.21005 Y3.81758
G01 X-1.21063 Y3.82055
G01 X-1.28969 Y3.88846
G01 X-1.43407 Y4.01118
G01 X-1.54388 Y4.10323
G01 X-1.60857 Y4.15667
G01 X-1.68009 Y4.21485
G01 X-1.74087 Y4.26327
G01 X-1.75868 Y4.27724
G01 X-1.80818 Y4.31543
G01 X-1.85170 Y4.34810
G01 X-1.89072 Y4.37650
G01 X-1.92501 Y4.40062
G01 X-1.95674 Y4.42214
G01 X-1.98577 Y4.44105
G01 X-2.00091 Y4.45060
G01 X-2.02739 Y4.46671
G01 X-2.03945 Y4.47379
G01 X-2.06448 Y4.48794
G01 X-2.09949 Y4.50664
G01 X-2.12152 Y4.51884
G01 X-2.14321 Y4.53155
G01 X-2.16385 Y4.54432
G01 X-2.18433 Y4.55770
G01 X-2.19471 Y4.56477
G01 X-2.21437 Y4.57870
G01 X-2.22346 Y4.58539
G01 X-2.24205 Y4.59961
G01 X-2.25983 Y4.61391
G01 X-2.26934 Y4.62185
G01 X-2.28684 Y4.63704
G01 X-2.30348 Y4.65223
G01 X-2.31998 Y4.66803
G01 X-2.33579 Y4.68393
G01 X-2.34305 Y4.69151
G01 X-2.35872 Y4.70843
G01 X-2.37391 Y4.72569
G01 X-2.38849 Y4.74309
G01 X-2.40303 Y4.76132
G01 X-2.41699 Y4.77975
G01 X-2.43099 Y4.79919
G01 X-2.44469 Y4.81926
G01 X-2.45800 Y4.83982
G01 X-2.47080 Y4.86071
G01 X-2.48362 Y4.88283
G01 X-2.49615 Y4.90574
G01 X-2.50841 Y4.92955
G01 X-2.51416 Y4.94125
G01 X-2.52587 Y4.96619
G01 X-2.53699 Y4.99148
G01 X-2.54296 Y5.00577
G01 X-2.55398 Y5.03363
G01 X-2.55874 Y5.04633
G01 X-2.56891 Y5.07498
G01 X-2.57887 Y5.10535
G01 X-2.58456 Y5.12394
G01 X-2.58852 Y5.13745
G01 X-2.59399 Y5.15699
G01 X-2.59755 Y5.17033
G01 X-2.60278 Y5.19093
G01 X-2.60606 Y5.20455
G01 X-2.61117 Y5.22696
G01 X-2.61827 Y5.26085
G01 X-2.62011 Y5.27799
G01 X-2.62495 Y5.31973
G01 X-2.63045 Y5.36291
G01 X-2.63583 Y5.40205
G01 X-2.64173 Y5.44264
G01 X-2.65033 Y5.49835
G01 X-2.66140 Y5.56580
G01 X-2.67257 Y5.63063
G01 X-2.69099 Y5.73246
G01 X-2.70776 Y5.82130
G01 X-2.73209 Y5.94627
G01 X-2.76019 Y6.08624
G01 X-2.79677 Y6.26408
G01 X-2.84506 Y6.49420
G01 X-2.90291 Y6.76518
G01 X-3.00110 Y7.21940
G01 X-3.06154 Y7.49562
G01 X-3.06333 Y7.49680
G01 X-3.06154 Y7.49562
G01 X-2.98133 Y7.51134
G01 X-2.86049 Y7.53269
G01 X-2.84815 Y7.53471
G01 X-2.72996 Y7.55260
G01 X-2.71802 Y7.55426
G01 X-2.60116 Y7.56905
G01 X-2.58882 Y7.57046
G01 X-2.47029 Y7.58250
G01 X-2.40882 Y7.58770
G01 X-2.40869 Y7.58811
G01 X-2.40882 Y7.58770
G01 X-2.33699 Y7.52545
G01 X-2.32336 Y7.51347
G01 X-2.26238 Y7.45923
G01 X-2.20287 Y7.40499
G01 X-2.13456 Y7.34133
G01 X-2.08099 Y7.29005
G01 X-2.01939 Y7.22976
G01 X-1.97134 Y7.18146
G01 X-1.91397 Y7.12251
G01 X-1.85831 Y7.06357
G01 X-1.77769 Y6.97519
G01 X-1.76670 Y6.96284
G01 X-1.69501 Y6.88025
G01 X-1.68488 Y6.86829
G01 X-1.62077 Y6.79072
G01 X-1.61113 Y6.77877
G01 X-1.55196 Y6.70354
G01 X-1.54249 Y6.69119
G01 X-1.48847 Y6.61895
G01 X-1.47976 Y6.60700
G01 X-1.43061 Y6.53781
G01 X-1.42206 Y6.52546
G01 X-1.37659 Y6.45798
G01 X-1.36849 Y6.44563
G01 X-1.32692 Y6.38053
G01 X-1.31925 Y6.36818
G01 X-1.28154 Y6.30575
G01 X-1.27429 Y6.29340
G01 X-1.24026 Y6.23381
G01 X-1.23363 Y6.22187
G01 X-1.20254 Y6.16419
G01 X-1.19608 Y6.15184
G01 X-1.16733 Y6.09522
G01 X-1.16125 Y6.08287
G01 X-1.13537 Y6.02862
G01 X-1.12984 Y6.01667
G01 X-1.10627 Y5.96399
G01 X-1.10093 Y5.95164
G01 X-1.07945 Y5.90032
G01 X-1.07462 Y5.88837
G01 X-1.05508 Y5.83828
G01 X-1.05043 Y5.82593
G01 X-1.03243 Y5.77619
G01 X-1.02813 Y5.76385
G01 X-1.01210 Y5.71590
G01 X-1.00826 Y5.70395
G01 X-0.99384 Y5.65704
G01 X-0.99021 Y5.64469
G01 X-0.97722 Y5.59849
G01 X-0.97403 Y5.58655
G01 X-0.96246 Y5.54115
G01 X-0.95947 Y5.52881
G01 X-0.94910 Y5.48347
G01 X-0.94644 Y5.47113
G01 X-0.93735 Y5.42631
G01 X-0.93501 Y5.41397
G01 X-0.92728 Y5.37037
G01 X-0.92531 Y5.35843
G01 X-0.91874 Y5.31529
G01 X-0.91702 Y5.30295
G01 X-0.91150 Y5.25956
G01 X-0.91009 Y5.24721
G01 X-0.90570 Y5.20414
G01 X-0.90459 Y5.19180
G01 X-0.90129 Y5.14886
G01 X-0.90049 Y5.13652
G01 X-0.89827 Y5.09382
G01 X-0.89778 Y5.08148
G01 X-0.89663 Y5.03962
G01 X-0.89645 Y5.02768
G01 X-0.89633 Y4.98583
G04 P0 ( dwell for no time -- G64 should not smooth over this point )
G00 Z0.08000 ( retract )

G00 X-3.34671 Y7.48512 ( rapid move to begin. )
G01 F3.00000
( Mill infeed pass 1/1 )
G01 Z-0.00800
G04 P0 ( dwell for no time -- G64 should not smooth over this point )
G01 F6.00000
G01 X-3.34671 Y7.48512
G01 X-3.34819 Y7.48395
G01 X-3.42224 Y6.61090
G01 X-3.45470 Y6.23331
G01 X-3.47669 Y5.98109
G01 X-3.49258 Y5.80196
G01 X-3.50024 Y5.71728
G01 X-3.50392 Y5.67217
G01 X-3.50501 Y5.65670
G01 X-3.50496 Y5.36373
G01 X-3.49850 Y5.29861
G01 X-3.48332 Y5.17305
G01 X-3.47126 Y5.06735
G01 X-3.46178 Y4.97853
G01 X-3.45367 Y4.89692
G01 X-3.44601 Y4.81440
G01 X-3.43775 Y4.71867
G01 X-3.42875 Y4.60666
G01 X-3.42353 Y4.53843
G01 X-3.41661 Y4.44475
G01 X-3.41661 Y4.37630
G01 X-3.41802 Y4.29989
G01 X-3.42224 Y4.22070
G01 X-3.42929 Y4.13867
G01 X-3.43915 Y4.05380
G01 X-3.45183 Y3.96611
G01 X-3.46733 Y3.87558
G01 X-3.48565 Y3.78222
G01 X-3.50679 Y3.68603
G01 X-3.53076 Y3.58701
G01 X-3.55755 Y3.48516
G01 X-3.58716 Y3.38048
G01 X-3.61959 Y3.27297
G01 X-3.65484 Y3.16264
G01 X-3.69292 Y3.04948
G01 X-3.73382 Y2.93349
G01 X-3.77755 Y2.81467
G01 X-3.91091 Y2.45942
G01 X-3.91028 Y2.45851
G01 X-3.91091 Y2.45942
G01 X-4.02971 Y2.46082
G01 X-4.14832 Y2.46521
G01 X-4.14908 Y2.46426
G01 X-4.14832 Y2.46521
G01 X-4.35171 Y3.22644
G01 X-4.38528 Y3.35746
G01 X-4.41492 Y3.48453
G01 X-4.44064 Y3.60767
G01 X-4.46245 Y3.72689
G01 X-4.47188 Y3.78501
G01 X-4.48033 Y3.84215
G01 X-4.48780 Y3.89831
G01 X-4.49429 Y3.95349
G01 X-4.49980 Y4.00769
G01 X-4.50433 Y4.06090
G01 X-4.50788 Y4.11312
G01 X-4.51046 Y4.16406
G01 X-4.49969 Y4.28376
G01 X-4.49498 Y4.34332
G01 X-4.49502 Y4.63624
G01 X-4.49844 Y4.67396
G01 X-4.50200 Y4.70573
G01 X-4.51373 Y4.80205
G01 X-4.52606 Y4.90854
G01 X-4.53528 Y4.99332
G01 X-4.54415 Y5.08057
G01 X-4.55289 Y5.17339
G01 X-4.56197 Y5.27791
G01 X-4.57201 Y5.40308
G01 X-4.57860 Y5.48989
G01 X-4.58323 Y5.55322
G01 X-4.58756 Y5.60399
G01 X-4.59031 Y5.63117
G01 X-4.59968 Y5.71863
G01 X-4.59738 Y5.76851
G01 X-4.59396 Y5.81982
G01 X-4.58944 Y5.87225
G01 X-4.58380 Y5.92580
G01 X-4.57705 Y5.98046
G01 X-4.56919 Y6.03625
G01 X-4.56022 Y6.09314
G01 X-4.55013 Y6.15117
G01 X-4.29859 Y7.53601
G01 X-4.29952 Y7.53709
G01 X-4.29859 Y7.53601
G01 X-4.18269 Y7.53970
G01 X-4.06281 Y7.54055
G01 X-3.94294 Y7.53843
G01 X-3.82307 Y7.53335
G01 X-3.70319 Y7.52529
G01 X-3.58332 Y7.51426
G01 X-3.46344 Y7.50026
G01 X-3.34819 Y7.48395
G01 X-3.35894 Y7.47537
G01 X-3.46473 Y7.49035
G01 X-3.58436 Y7.50432
G01 X-3.70399 Y7.51532
G01 X-3.82362 Y7.52336
G01 X-3.94324 Y7.52844
G01 X-4.06287 Y7.53055
G01 X-4.18249 Y7.52970
G01 X-4.29019 Y7.52627
G01 X-4.29206 Y7.52843
G01 X-4.29019 Y7.52627
G01 X-4.54029 Y6.14942
G01 X-4.55035 Y6.09151
G01 X-4.55930 Y6.03477
G01 X-4.56714 Y5.97915
G01 X-4.57386 Y5.92466
G01 X-4.57948 Y5.87130
G01 X-4.58399 Y5.81906
G01 X-4.58739 Y5.76794
G01 X-4.58967 Y5.71894
G01 X-4.58036 Y5.63223
G01 X-4.57759 Y5.60478
G01 X-4.57325 Y5.55395
G01 X-4.56863 Y5.49064
G01 X-4.56204 Y5.40386
G01 X-4.55200 Y5.27874
G01 X-4.54293 Y5.17428
G01 X-4.53420 Y5.08154
G01 X-4.52567 Y4.99755
G01 X-4.52073 Y4.95141
G01 X-4.50992 Y4.85532
G01 X-4.50337 Y4.79960
G01 X-4.49207 Y4.70686
G01 X-4.48893 Y4.67924
G01 X-4.48500 Y4.63579
G01 X-4.48498 Y4.34331
G01 X-4.48971 Y4.28303
G01 X-4.50045 Y4.16387
G01 X-4.49790 Y4.11371
G01 X-4.49436 Y4.06166
G01 X-4.48984 Y4.00862
G01 X-4.48435 Y3.95458
G01 X-4.47788 Y3.89956
G01 X-4.47042 Y3.84354
G01 X-4.46199 Y3.78654
G01 X-4.45259 Y3.72859
G01 X-4.43083 Y3.60959
G01 X-4.40516 Y3.48669
G01 X-4.37556 Y3.35984
G01 X-4.34203 Y3.22897
G01 X-4.14056 Y2.47493
G01 X-4.14208 Y2.47303
G01 X-4.14056 Y2.47493
G01 X-4.02946 Y2.47082
G01 X-3.91780 Y2.46950
G01 X-3.91655 Y2.46767
G01 X-3.91780 Y2.46950
G01 X-3.78692 Y2.81815
G01 X-3.74323 Y2.93688
G01 X-3.70237 Y3.05274
G01 X-3.66434 Y3.16576
G01 X-3.62914 Y3.27594
G01 X-3.59676 Y3.38328
G01 X-3.56719 Y3.48779
G01 X-3.54046 Y3.58946
G01 X-3.51654 Y3.68828
G01 X-3.49544 Y3.78425
G01 X-3.47716 Y3.87738
G01 X-3.46171 Y3.96767
G01 X-3.44906 Y4.05510
G01 X-3.43924 Y4.13967
G01 X-3.43222 Y4.22139
G01 X-3.42801 Y4.30025
G01 X-3.42661 Y4.37639
G01 X-3.42660 Y4.44438
G01 X-3.43350 Y4.53769
G01 X-3.43872 Y4.60590
G01 X-3.44772 Y4.71784
G01 X-3.45571 Y4.81059
G01 X-3.46362 Y4.89595
G01 X-3.47173 Y4.97749
G01 X-3.48120 Y5.06626
G01 X-3.49325 Y5.17187
G01 X-3.50842 Y5.29728
G01 X-3.51491 Y5.36275
G01 X-3.51501 Y5.65672
G01 X-3.51390 Y5.67285
G01 X-3.51019 Y5.71823
G01 X-3.50254 Y5.80285
G01 X-3.48665 Y5.98196
G01 X-3.46466 Y6.23417
G01 X-3.43221 Y6.61176
G01 X-3.35894 Y7.47537
G04 P0 ( dwell for no time -- G64 should not smooth over this point )
G00 Z0.08000 ( retract )

G00 X-7.10148 Y7.62141 ( rapid move to begin. )
G01 F3.00000
( Mill infeed pass 1/1 )
G01 Z-0.00800
G04 P0 ( dwell for no time -- G64 should not smooth over this point )
G01 F6.00000
G01 X-7.10148 Y7.62141
G01 X-7.10285 Y7.62080
G01 X-7.14888 Y7.45481
G01 X-7.18691 Y7.32264
G01 X-7.26312 Y7.16300
G01 X-7.38863 Y6.89947
G01 X-7.42930 Y6.81377
G01 X-7.56728 Y6.66204
G01 X-7.73764 Y6.47421
G01 X-7.87869 Y6.31825
G01 X-7.92613 Y6.26680
G01 X-7.97672 Y6.21445
G01 X-8.02320 Y6.16850
G01 X-8.06967 Y6.12477
G01 X-8.12829 Y6.07255
G01 X-8.18857 Y6.02045
G01 X-8.25257 Y5.99847
G01 X-8.30240 Y5.98171
G01 X-8.34789 Y5.96680
G01 X-8.37949 Y5.95672
G01 X-8.41355 Y5.94607
G01 X-8.45226 Y5.93433
G01 X-8.50450 Y5.91914
G01 X-8.53816 Y5.90982
G01 X-8.58468 Y5.89755
G01 X-8.62940 Y5.88658
G01 X-8.66977 Y5.87743
G01 X-8.69565 Y5.87195
G01 X-8.70971 Y5.86914
G01 X-8.74498 Y5.86251
G01 X-8.78168 Y5.85638
G01 X-8.81419 Y5.85165
G01 X-8.84580 Y5.84771
G01 X-8.85773 Y5.84639
G01 X-8.88154 Y5.84408
G01 X-8.91257 Y5.84167
G01 X-8.94196 Y5.84003
G01 X-8.97453 Y5.83899
G01 X-8.99168 Y5.83878
G01 X-9.01562 Y5.83884
G01 X-9.04454 Y5.83950
G01 X-9.06720 Y5.84048
G01 X-9.08549 Y5.84153
G01 X-9.11874 Y5.84410
G01 X-9.14933 Y5.84716
G01 X-9.17941 Y5.85080
G01 X-9.19399 Y5.85278
G01 X-9.21651 Y5.85611
G01 X-9.25377 Y5.86229
G01 X-9.28961 Y5.86899
G01 X-9.32068 Y5.87537
G01 X-9.35665 Y5.88333
G01 X-9.39840 Y5.89330
G01 X-9.42875 Y5.90103
G01 X-9.45185 Y5.90713
G01 X-9.45239 Y5.90658
G01 X-9.45185 Y5.90713
G01 X-9.46225 Y5.94479
G01 X-9.47416 Y5.99646
G01 X-9.48323 Y6.04707
G01 X-9.48964 Y6.09692
G01 X-9.49353 Y6.14636
G01 X-9.49497 Y6.19547
G01 X-9.49399 Y6.24435
G01 X-9.49056 Y6.29382
G01 X-9.48464 Y6.34344
G01 X-9.47610 Y6.39386
G01 X-9.46475 Y6.44527
G01 X-9.45037 Y6.49797
G01 X-9.43258 Y6.55239
G01 X-9.41117 Y6.60843
G01 X-9.38542 Y6.66698
G01 X-9.35698 Y6.72411
G01 X-9.32325 Y6.78469
G01 X-9.30377 Y6.81700
G01 X-9.28320 Y6.84931
G01 X-9.25776 Y6.88727
G01 X-9.23310 Y6.92208
G01 X-9.20293 Y6.96260
G01 X-9.17105 Y7.00312
G01 X-9.13751 Y7.04373
G01 X-9.10225 Y7.08435
G01 X-9.05879 Y7.13206
G01 X-9.01608 Y7.17661
G01 X-8.96346 Y7.22894
G01 X-8.90801 Y7.28127
G01 X-8.84686 Y7.33628
G01 X-8.78259 Y7.39128
G01 X-8.70263 Y7.45645
G01 X-8.62251 Y7.51845
G01 X-8.52160 Y7.59271
G01 X-8.41503 Y7.66698
G01 X-8.35354 Y7.70824
G01 X-8.29032 Y7.74948
G01 X-8.22537 Y7.79073
G01 X-8.15344 Y7.83517
G01 X-8.05563 Y7.89382
G01 X-7.95614 Y7.95142
G01 X-7.95619 Y7.95185
G01 X-7.95614 Y7.95142
G01 X-7.88103 Y7.93002
G01 X-7.77918 Y7.89864
G01 X-7.67419 Y7.86340
G01 X-7.56897 Y7.82520
G01 X-7.46061 Y7.78278
G01 X-7.35093 Y7.73673
G01 X-7.23810 Y7.68601
G01 X-7.16862 Y7.65314
G01 X-7.10285 Y7.62080
G01 X-7.11470 Y7.61548
G01 X-7.17297 Y7.64413
G01 X-7.24234 Y7.67695
G01 X-7.35492 Y7.72756
G01 X-7.46442 Y7.77353
G01 X-7.57250 Y7.81585
G01 X-7.67755 Y7.85398
G01 X-7.78224 Y7.88912
G01 X-7.88391 Y7.92044
G01 X-7.95479 Y7.94064
G01 X-7.95490 Y7.94149
G01 X-7.95479 Y7.94064
G01 X-8.05055 Y7.88520
G01 X-8.14827 Y7.82661
G01 X-8.22006 Y7.78226
G01 X-8.28491 Y7.74107
G01 X-8.34802 Y7.69990
G01 X-8.40943 Y7.65870
G01 X-8.51577 Y7.58458
G01 X-8.61643 Y7.51051
G01 X-8.69641 Y7.44862
G01 X-8.77613 Y7.38365
G01 X-8.84026 Y7.32876
G01 X-8.90127 Y7.27388
G01 X-8.95650 Y7.22176
G01 X-9.00589 Y7.17272
G01 X-9.05149 Y7.12523
G01 X-9.09474 Y7.07775
G01 X-9.12988 Y7.03727
G01 X-9.16330 Y6.99680
G01 X-9.19499 Y6.95652
G01 X-9.22276 Y6.91930
G01 X-9.24953 Y6.88159
G01 X-9.27480 Y6.84389
G01 X-9.29527 Y6.81173
G01 X-9.31639 Y6.77661
G01 X-9.34819 Y6.71936
G01 X-9.37641 Y6.66264
G01 X-9.40196 Y6.60453
G01 X-9.42319 Y6.54895
G01 X-9.44082 Y6.49499
G01 X-9.45507 Y6.44278
G01 X-9.46630 Y6.39184
G01 X-9.47476 Y6.34191
G01 X-9.48061 Y6.29277
G01 X-9.48401 Y6.24380
G01 X-9.48495 Y6.19258
G01 X-9.48339 Y6.14396
G01 X-9.47939 Y6.09501
G01 X-9.47289 Y6.04565
G01 X-9.46376 Y5.99552
G01 X-9.45254 Y5.94717
G01 X-9.44374 Y5.91531
G01 X-9.44483 Y5.91421
G01 X-9.44374 Y5.91531
G01 X-9.39600 Y5.90301
G01 X-9.35441 Y5.89307
G01 X-9.31860 Y5.88515
G01 X-9.30120 Y5.88152
G01 X-9.27656 Y5.87666
G01 X-9.23855 Y5.86980
G01 X-9.20525 Y5.86451
G01 X-9.17024 Y5.85971
G01 X-9.13831 Y5.85605
G01 X-9.11787 Y5.85406
G01 X-9.10535 Y5.85301
G01 X-9.08483 Y5.85151
G01 X-9.06669 Y5.85047
G01 X-9.03595 Y5.84925
G01 X-9.01550 Y5.84884
G01 X-9.00324 Y5.84875
G01 X-8.97474 Y5.84899
G01 X-8.94239 Y5.85002
G01 X-8.91322 Y5.85165
G01 X-8.90078 Y5.85252
G01 X-8.87970 Y5.85429
G01 X-8.84692 Y5.85765
G01 X-8.81554 Y5.86156
G01 X-8.78323 Y5.86626
G01 X-8.74672 Y5.87236
G01 X-8.71163 Y5.87895
G01 X-8.69765 Y5.88175
G01 X-8.67191 Y5.88720
G01 X-8.63170 Y5.89631
G01 X-8.58714 Y5.90725
G01 X-8.54077 Y5.91947
G01 X-8.50722 Y5.92876
G01 X-8.45511 Y5.94392
G01 X-8.41650 Y5.95562
G01 X-8.38251 Y5.96625
G01 X-8.35096 Y5.97632
G01 X-8.30555 Y5.99120
G01 X-8.25579 Y6.00794
G01 X-8.19371 Y6.02935
G01 X-8.19361 Y6.02918
G01 X-8.19371 Y6.02935
G01 X-8.13488 Y6.08008
G01 X-8.07648 Y6.13209
G01 X-8.03014 Y6.17570
G01 X-7.98380 Y6.22152
G01 X-7.93340 Y6.27367
G01 X-7.88608 Y6.32499
G01 X-7.74873 Y6.47686
G01 X-7.57898 Y6.66403
G01 X-7.43774 Y6.81943
G01 X-7.43765 Y6.81937
G01 X-7.43774 Y6.81943
G01 X-7.39766 Y6.90377
G01 X-7.27215 Y7.16730
G01 X-7.19628 Y7.32619
G01 X-7.15850 Y7.45753
G01 X-7.11470 Y7.61548
G04 P0 ( dwell for no time -- G64 should not smooth over this point )
G00 Z0.08000 ( retract )

G00 X-7.18425 Y7.29686 ( rapid move to begin. )
G01 F3.00000
( Mill infeed pass 1/1 )
G01 Z-0.00800
G04 P0 ( dwell for no time -- G64 should not smooth over this point )
G01 F6.00000
G01 X-7.18425 Y7.29686
G01 X-7.18576 Y7.27866
G01 X-7.24507 Y7.15440
G01 X-7.41008 Y6.80774
G01 X-7.41035 Y6.80780
G01 X-7.41008 Y6.80774
G01 X-7.39116 Y5.82115
G01 X-7.39072 Y5.77323
G01 X-7.39126 Y5.72659
G01 X-7.39277 Y5.68144
G01 X-7.39526 Y5.63710
G01 X-7.39876 Y5.59352
G01 X-7.40318 Y5.55184
G01 X-7.40861 Y5.51092
G01 X-7.41506 Y5.47092
G01 X-7.45847 Y5.22475
G01 X-7.46412 Y5.18821
G01 X-7.46801 Y5.15272
G01 X-7.49329 Y4.85935
G01 X-7.49530 Y4.82504
G01 X-7.49549 Y4.78984
G01 X-7.49386 Y4.75353
G01 X-7.49043 Y4.71610
G01 X-7.48517 Y4.67757
G01 X-7.47808 Y4.63792
G01 X-7.46915 Y4.59716
G01 X-7.45837 Y4.55518
G01 X-7.42431 Y4.43147
G01 X-7.41212 Y4.38501
G01 X-7.40064 Y4.33692
G01 X-7.38989 Y4.28731
G01 X-7.37970 Y4.23531
G01 X-7.37028 Y4.18206
G01 X-7.36149 Y4.12673
G01 X-7.35336 Y4.06959
G01 X-7.34588 Y4.01042
G01 X-7.33909 Y3.94968
G01 X-7.33297 Y3.88712
G01 X-7.32753 Y3.82293
G01 X-7.32272 Y3.75648
G01 X-7.31515 Y3.61869
G01 X-7.31024 Y3.47392
G01 X-7.28569 Y2.45656
G01 X-7.28819 Y2.45421
G01 X-7.28569 Y2.45656
G01 X-7.18645 Y2.44815
G01 X-7.07399 Y2.44128
G01 X-6.96152 Y2.43706
G01 X-6.86027 Y2.43566
G01 X-6.85876 Y2.43360
G01 X-6.86027 Y2.43566
G01 X-6.76586 Y2.75677
G01 X-6.66647 Y4.69668
G01 X-6.66604 Y4.73351
G01 X-6.65604 Y4.73382
G01 X-6.65647 Y4.69637
G01 X-6.75597 Y2.75508
G01 X-6.85282 Y2.42556
G01 X-6.85206 Y2.42453
G01 X-6.85282 Y2.42556
G01 X-6.96178 Y2.42707
G01 X-7.07448 Y2.43129
G01 X-7.18718 Y2.43818
G01 X-7.29547 Y2.44735
G01 X-7.29672 Y2.44618
G01 X-7.29547 Y2.44735
G01 X-7.32024 Y3.47358
G01 X-7.32514 Y3.61835
G01 X-7.33271 Y3.75593
G01 X-7.33749 Y3.82203
G01 X-7.34293 Y3.88627
G01 X-7.34905 Y3.94877
G01 X-7.35582 Y4.00938
G01 X-7.36326 Y4.06818
G01 X-7.37136 Y4.12516
G01 X-7.38013 Y4.18032
G01 X-7.38955 Y4.23357
G01 X-7.39967 Y4.28519
G01 X-7.41043 Y4.33490
G01 X-7.42184 Y4.38269
G01 X-7.43394 Y4.42876
G01 X-7.46803 Y4.55261
G01 X-7.47889 Y4.59485
G01 X-7.48789 Y4.63597
G01 X-7.49505 Y4.67601
G01 X-7.50036 Y4.71497
G01 X-7.50384 Y4.75285
G01 X-7.50549 Y4.78965
G01 X-7.50530 Y4.82536
G01 X-7.50327 Y4.86007
G01 X-7.47797 Y5.15370
G01 X-7.47404 Y5.18952
G01 X-7.46833 Y5.22638
G01 X-7.42491 Y5.47265
G01 X-7.41852 Y5.51224
G01 X-7.41312 Y5.55289
G01 X-7.40869 Y5.59470
G01 X-7.40525 Y5.63754
G01 X-7.40276 Y5.68177
G01 X-7.40126 Y5.72703
G01 X-7.40072 Y5.77334
G01 X-7.40116 Y5.82091
G01 X-7.42012 Y6.80991
G01 X-7.42026 Y6.80994
G01 X-7.42012 Y6.80991
G01 X-7.25409 Y7.15870
G01 X-7.18341 Y7.30679
G01 X-7.18266 Y7.31589
G01 X-7.18341 Y7.30679
G01 X-7.14213 Y7.16262
G01 X-7.10000 Y7.01175
G01 X-7.06065 Y6.86684
G01 X-7.02409 Y6.72791
G01 X-6.99031 Y6.59495
G01 X-6.95931 Y6.46797
G01 X-6.93110 Y6.34695
G01 X-6.90568 Y6.23192
G01 X-6.88303 Y6.12286
G01 X-6.86318 Y6.01977
G01 X-6.84610 Y5.92267
G01 X-6.83181 Y5.83155
G01 X-6.82030 Y5.74641
G01 X-6.81158 Y5.66726
G01 X-6.80563 Y5.59410
G01 X-6.80247 Y5.52689
G01 X-6.79499 Y5.25674
G01 X-6.79387 Y5.23885
G01 X-6.79160 Y5.22169
G01 X-6.78808 Y5.20439
G01 X-6.78330 Y5.18715
G01 X-6.67297 Y4.83721
G01 X-6.66824 Y4.82084
G01 X-6.66428 Y4.80416
G01 X-6.66109 Y4.78712
G01 X-6.65865 Y4.76977
G01 X-6.65604 Y4.73382
G01 X-6.66604 Y4.73351
G01 X-6.66859 Y4.76872
G01 X-6.67096 Y4.78550
G01 X-6.67406 Y4.80208
G01 X-6.67791 Y4.81830
G01 X-6.68254 Y4.83432
G01 X-6.79284 Y5.18414
G01 X-6.79763 Y5.20138
G01 X-6.80134 Y5.21934
G01 X-6.80378 Y5.23754
G01 X-6.80498 Y5.25646
G01 X-6.81246 Y5.52652
G01 X-6.81561 Y5.59346
G01 X-6.82153 Y5.66631
G01 X-6.83023 Y5.74519
G01 X-6.84171 Y5.83010
G01 X-6.85597 Y5.92103
G01 X-6.87301 Y6.01796
G01 X-6.89284 Y6.12089
G01 X-6.91545 Y6.22982
G01 X-6.94085 Y6.34474
G01 X-6.96904 Y6.46564
G01 X-7.00001 Y6.59253
G01 X-7.03377 Y6.72541
G01 X-7.07031 Y6.86426
G01 X-7.10964 Y7.00909
G01 X-7.15175 Y7.15990
G01 X-7.18576 Y7.27866
G04 P0 ( dwell for no time -- G64 should not smooth over this point )
G00 Z0.08000 ( retract )

G00 X-7.43341 Y6.78900 ( rapid move to begin. )
G01 F3.00000
( Mill infeed pass 1/1 )
G01 Z-0.00800
G04 P0 ( dwell for no time -- G64 should not smooth over this point )
G01 F6.00000
G01 X-7.43341 Y6.78900
G01 X-7.43942 Y6.77298
G01 X-7.42116 Y5.82065
G01 X-7.42072 Y5.77342
G01 X-7.42125 Y5.72743
G01 X-7.42275 Y5.68261
G01 X-7.42520 Y5.63897
G01 X-7.42861 Y5.59649
G01 X-7.43299 Y5.55520
G01 X-7.43832 Y5.51508
G01 X-7.44463 Y5.47602
G01 X-7.48804 Y5.22980
G01 X-7.49391 Y5.19181
G01 X-7.49789 Y5.15547
G01 X-7.52320 Y4.86172
G01 X-7.52529 Y4.82560
G01 X-7.52547 Y4.78888
G01 X-7.52377 Y4.75114
G01 X-7.52020 Y4.71237
G01 X-7.51475 Y4.67259
G01 X-7.50744 Y4.63179
G01 X-7.49828 Y4.58996
G01 X-7.48739 Y4.54759
G01 X-7.45326 Y4.42359
G01 X-7.44126 Y4.37788
G01 X-7.42992 Y4.33041
G01 X-7.41925 Y4.28110
G01 X-7.40922 Y4.22995
G01 X-7.39985 Y4.17696
G01 X-7.39113 Y4.12214
G01 X-7.38308 Y4.06548
G01 X-7.37568 Y4.00698
G01 X-7.36893 Y3.94665
G01 X-7.36285 Y3.88449
G01 X-7.35743 Y3.82049
G01 X-7.35267 Y3.75471
G01 X-7.34513 Y3.61751
G01 X-7.34023 Y3.47297
G01 X-7.31569 Y2.45610
G01 X-7.30413 Y2.44603
G01 X-7.30547 Y2.44720
G01 X-7.33023 Y3.47326
G01 X-7.33514 Y3.61796
G01 X-7.34269 Y3.75534
G01 X-7.34746 Y3.82128
G01 X-7.35290 Y3.88540
G01 X-7.35899 Y3.94769
G01 X-7.36575 Y4.00817
G01 X-7.37317 Y4.06681
G01 X-7.38125 Y4.12363
G01 X-7.38999 Y4.17862
G01 X-7.39939 Y4.23178
G01 X-7.40945 Y4.28312
G01 X-7.42017 Y4.33263
G01 X-7.43156 Y4.38031
G01 X-7.44360 Y4.42619
G01 X-7.47771 Y4.55008
G01 X-7.48864 Y4.59262
G01 X-7.49768 Y4.63392
G01 X-7.50491 Y4.67435
G01 X-7.51029 Y4.71373
G01 X-7.51381 Y4.75205
G01 X-7.51548 Y4.78933
G01 X-7.51529 Y4.82581
G01 X-7.51324 Y4.86086
G01 X-7.48792 Y5.15461
G01 X-7.48397 Y5.19072
G01 X-7.47819 Y5.22806
G01 X-7.43476 Y5.47436
G01 X-7.42843 Y5.51362
G01 X-7.42306 Y5.55401
G01 X-7.41866 Y5.59557
G01 X-7.41522 Y5.63828
G01 X-7.41275 Y5.68216
G01 X-7.41125 Y5.72720
G01 X-7.41072 Y5.77341
G01 X-7.41116 Y5.82079
G01 X-7.42990 Y6.79832
G01 X-7.42690 Y6.80633
G01 X-7.42990 Y6.79832
G01 X-7.56417 Y6.65059
G01 X-7.73022 Y6.46750
G01 X-7.87132 Y6.31149
G01 X-7.91890 Y6.25990
G01 X-7.96967 Y6.20736
G01 X-8.01630 Y6.16127
G01 X-8.06284 Y6.11746
G01 X-8.12168 Y6.06505
G01 X-8.18171 Y6.01328
G01 X-8.18188 Y6.01340
G01 X-8.18171 Y6.01328
G01 X-8.20691 Y5.93027
G01 X-8.21983 Y5.88678
G01 X-8.22957 Y5.85332
G01 X-8.24641 Y5.79373
G01 X-8.26084 Y5.74056
G01 X-8.27303 Y5.69352
G01 X-8.27846 Y5.67178
G01 X-8.28824 Y5.63094
G01 X-8.29656 Y5.59404
G01 X-8.30076 Y5.57434
G01 X-8.30390 Y5.55911
G01 X-8.31013 Y5.52691
G01 X-8.31532 Y5.49751
G01 X-8.31982 Y5.46915
G01 X-8.32349 Y5.44269
G01 X-8.32640 Y5.41818
G01 X-8.32797 Y5.40270
G01 X-8.32986 Y5.37996
G01 X-8.33119 Y5.35774
G01 X-8.33292 Y5.30893
G01 X-8.33391 Y5.28889
G01 X-8.33510 Y5.26961
G01 X-8.33653 Y5.25027
G01 X-8.33812 Y5.23178
G01 X-8.33992 Y5.21349
G01 X-8.34196 Y5.19505
G01 X-8.34418 Y5.17696
G01 X-8.34659 Y5.15918
G01 X-8.34911 Y5.14216
G01 X-8.35188 Y5.12491
G01 X-8.35713 Y5.09539
G01 X-8.36438 Y5.05917
G01 X-8.36649 Y5.04666
G01 X-8.36843 Y5.03113
G01 X-8.36974 Y5.01281
G01 X-8.37000 Y4.99804
G01 X-8.36955 Y4.98320
G01 X-8.36833 Y4.96783
G01 X-8.36679 Y4.95542
G01 X-8.36426 Y4.94020
G01 X-8.35772 Y4.90768
G01 X-8.35471 Y4.89144
G01 X-8.35178 Y4.87450
G01 X-8.34902 Y4.85721
G01 X-8.34580 Y4.83514
G01 X-8.34344 Y4.81717
G01 X-8.34131 Y4.79931
G01 X-8.33932 Y4.78064
G01 X-8.33643 Y4.74845
G01 X-8.33463 Y4.72310
G01 X-8.33286 Y4.68956
G01 X-8.33116 Y4.64160
G01 X-8.32985 Y4.61986
G01 X-8.32866 Y4.60487
G01 X-8.32631 Y4.58095
G01 X-8.32328 Y4.55567
G01 X-8.31964 Y4.52968
G01 X-8.31516 Y4.50148
G01 X-8.30992 Y4.47193
G01 X-8.30754 Y4.45939
G01 X-8.30370 Y4.43998
G01 X-8.29717 Y4.40890
G01 X-8.28751 Y4.36592
G01 X-8.28281 Y4.34611
G01 X-8.27214 Y4.30297
G01 X-8.26620 Y4.27984
G01 X-8.25286 Y4.22974
G01 X-8.23773 Y4.17528
G01 X-8.22805 Y4.14143
G01 X-8.20815 Y4.07373
G01 X-8.18511 Y3.99774
G01 X-8.15711 Y3.90800
G01 X-8.14595 Y3.87279
G01 X-8.11195 Y3.76710
G01 X-8.08612 Y3.68543
G01 X-8.07371 Y3.64536
G01 X-8.04423 Y3.54798
G01 X-8.03182 Y3.50607
G01 X-7.99927 Y3.39358
G01 X-7.98726 Y3.35113
G01 X-7.95064 Y3.21854
G01 X-7.93823 Y3.17254
G01 X-7.89725 Y3.01681
G01 X-7.87015 Y2.91077
G01 X-7.82530 Y2.73340
G01 X-7.79655 Y2.62093
G01 X-7.79673 Y2.62082
G01 X-7.79655 Y2.62093
G01 X-7.74492 Y2.57160
G01 X-7.69107 Y2.52131
G01 X-7.63600 Y2.47101
G01 X-7.58127 Y2.42210
G01 X-7.58141 Y2.42169
G01 X-7.58127 Y2.42210
G01 X-7.51274 Y2.42682
G01 X-7.44215 Y2.43274
G01 X-7.37155 Y2.43970
G01 X-7.30547 Y2.44720
G01 X-7.31569 Y2.45610
G01 X-7.37261 Y2.44964
G01 X-7.44306 Y2.44269
G01 X-7.51351 Y2.43679
G01 X-7.57775 Y2.43237
G01 X-7.57803 Y2.43155
G01 X-7.57775 Y2.43237
G01 X-7.62929 Y2.47843
G01 X-7.68428 Y2.52865
G01 X-7.73806 Y2.57887
G01 X-7.78758 Y2.62618
G01 X-7.78792 Y2.62597
G01 X-7.78758 Y2.62618
G01 X-7.81561 Y2.73587
G01 X-7.86046 Y2.91323
G01 X-7.88758 Y3.01935
G01 X-7.92857 Y3.17514
G01 X-7.94100 Y3.22120
G01 X-7.97761 Y3.35377
G01 X-7.98964 Y3.39627
G01 X-8.02224 Y3.50894
G01 X-8.03467 Y3.55091
G01 X-8.06417 Y3.64834
G01 X-8.07657 Y3.68839
G01 X-8.10240 Y3.77008
G01 X-8.13642 Y3.87583
G01 X-8.14758 Y3.91101
G01 X-8.17555 Y4.00068
G01 X-8.19857 Y4.07659
G01 X-8.21844 Y4.14420
G01 X-8.22811 Y4.17801
G01 X-8.24321 Y4.23237
G01 X-8.25652 Y4.28235
G01 X-8.26245 Y4.30543
G01 X-8.27309 Y4.34845
G01 X-8.27777 Y4.36819
G01 X-8.28740 Y4.41101
G01 X-8.29390 Y4.44196
G01 X-8.29773 Y4.46129
G01 X-8.30009 Y4.47375
G01 X-8.30529 Y4.50313
G01 X-8.30975 Y4.53115
G01 X-8.31336 Y4.55695
G01 X-8.31636 Y4.58202
G01 X-8.31869 Y4.60572
G01 X-8.31988 Y4.62060
G01 X-8.32118 Y4.64210
G01 X-8.32286 Y4.68994
G01 X-8.32464 Y4.72366
G01 X-8.32647 Y4.74928
G01 X-8.32936 Y4.78157
G01 X-8.33138 Y4.80047
G01 X-8.33352 Y4.81846
G01 X-8.33654 Y4.84114
G01 X-8.33915 Y4.85881
G01 X-8.34193 Y4.87619
G01 X-8.34486 Y4.89315
G01 X-8.34791 Y4.90963
G01 X-8.35442 Y4.94200
G01 X-8.35688 Y4.95677
G01 X-8.35867 Y4.97174
G01 X-8.35957 Y4.98382
G01 X-8.36000 Y4.99818
G01 X-8.35974 Y5.01246
G01 X-8.35849 Y5.03006
G01 X-8.35661 Y5.04511
G01 X-8.35454 Y5.05739
G01 X-8.34729 Y5.09361
G01 X-8.34427 Y5.11016
G01 X-8.34134 Y5.12735
G01 X-8.33858 Y5.14487
G01 X-8.33607 Y5.16221
G01 X-8.33202 Y5.19394
G01 X-8.32997 Y5.21251
G01 X-8.32817 Y5.23079
G01 X-8.32657 Y5.24939
G01 X-8.32512 Y5.26896
G01 X-8.32393 Y5.28827
G01 X-8.32293 Y5.30855
G01 X-8.32121 Y5.35724
G01 X-8.31989 Y5.37923
G01 X-8.31802 Y5.40175
G01 X-8.31646 Y5.41711
G01 X-8.31357 Y5.44142
G01 X-8.30992 Y5.46769
G01 X-8.30546 Y5.49587
G01 X-8.30030 Y5.52510
G01 X-8.29409 Y5.55714
G01 X-8.29098 Y5.57229
G01 X-8.28678 Y5.59192
G01 X-8.27850 Y5.62868
G01 X-8.26875 Y5.66939
G01 X-8.26334 Y5.69107
G01 X-8.25117 Y5.73799
G01 X-8.23677 Y5.79106
G01 X-8.21996 Y5.85055
G01 X-8.21024 Y5.88396
G01 X-8.19733 Y5.92741
G01 X-8.17299 Y6.00760
G01 X-8.17334 Y6.00783
G01 X-8.17299 Y6.00760
G01 X-8.11503 Y6.05758
G01 X-8.05598 Y6.11018
G01 X-8.00945 Y6.15398
G01 X-7.96264 Y6.20025
G01 X-7.91170 Y6.25296
G01 X-7.86386 Y6.30484
G01 X-7.72281 Y6.46078
G01 X-7.55676 Y6.64387
G01 X-7.43942 Y6.77298
G04 P0 ( dwell for no time -- G64 should not smooth over this point )
G00 Z0.08000 ( retract )

G00 X-8.76099 Y5.30817 ( rapid move to begin. )
G01 F3.00000
( Mill infeed pass 1/1 )
G01 Z-0.00800
G04 P0 ( dwell for no time -- G64 should not smooth over this point )
G01 F6.00000
G01 X-8.76099 Y5.30817
G01 X-8.76791 Y5.31342
G01 X-8.77550 Y5.31890
G01 X-8.78322 Y5.32420
G01 X-8.79106 Y5.32931
G01 X-8.79903 Y5.33423
G01 X-8.80710 Y5.33896
G01 X-8.81529 Y5.34349
G01 X-8.82394 Y5.34800
G01 X-8.83234 Y5.35212
G01 X-8.84084 Y5.35604
G01 X-8.84943 Y5.35976
G01 X-8.85811 Y5.36327
G01 X-8.86687 Y5.36657
G01 X-8.87570 Y5.36966
G01 X-8.88461 Y5.37254
G01 X-8.89396 Y5.37531
G01 X-8.90300 Y5.37774
G01 X-8.91209 Y5.37996
G01 X-8.92123 Y5.38196
G01 X-8.93042 Y5.38374
G01 X-8.93965 Y5.38530
G01 X-8.94891 Y5.38664
G01 X-8.95821 Y5.38775
G01 X-8.96753 Y5.38864
G01 X-8.97686 Y5.38931
G01 X-8.98621 Y5.38976
G01 X-8.99557 Y5.38997
G01 X-9.00493 Y5.38997
G01 X-9.01429 Y5.38974
G01 X-9.02363 Y5.38928
G01 X-9.03336 Y5.38857
G01 X-9.04267 Y5.38766
G01 X-9.05235 Y5.38647
G01 X-9.06161 Y5.38510
G01 X-9.07084 Y5.38351
G01 X-9.08002 Y5.38170
G01 X-9.08916 Y5.37967
G01 X-9.09824 Y5.37742
G01 X-9.10727 Y5.37496
G01 X-9.11624 Y5.37227
G01 X-9.12551 Y5.36925
G01 X-9.13433 Y5.36613
G01 X-9.14308 Y5.36280
G01 X-9.15175 Y5.35927
G01 X-9.16033 Y5.35552
G01 X-9.16881 Y5.35157
G01 X-9.17720 Y5.34742
G01 X-9.18549 Y5.34307
G01 X-9.19366 Y5.33852
G01 X-9.20173 Y5.33377
G01 X-9.20969 Y5.32883
G01 X-9.21751 Y5.32371
G01 X-9.22554 Y5.31817
G01 X-9.23311 Y5.31266
G01 X-9.24055 Y5.30698
G01 X-9.24784 Y5.30112
G01 X-9.25500 Y5.29508
G01 X-9.26201 Y5.28888
G01 X-9.26886 Y5.28251
G01 X-9.27585 Y5.27570
G01 X-9.28238 Y5.26900
G01 X-9.28889 Y5.26199
G01 X-9.02080 Y5.03704
G01 X-9.01696 Y5.03896
G01 X-9.01133 Y5.04094
G01 X-9.00791 Y5.04175
G01 X-9.00349 Y5.04235
G01 X-8.99989 Y5.04249
G01 X-8.99437 Y5.04212
G01 X-8.99004 Y5.04131
G01 X-8.98595 Y5.04008
G01 X-8.76099 Y5.30817
G01 X-8.77543 Y5.30652
G01 X-8.78878 Y5.31589
G01 X-8.79642 Y5.32087
G01 X-8.80418 Y5.32566
G01 X-8.81205 Y5.33026
G01 X-8.82003 Y5.33468
G01 X-8.82846 Y5.33908
G01 X-8.83664 Y5.34309
G01 X-8.84492 Y5.34691
G01 X-8.85329 Y5.35054
G01 X-8.86175 Y5.35396
G01 X-8.87028 Y5.35717
G01 X-8.87889 Y5.36018
G01 X-8.88756 Y5.36298
G01 X-8.89668 Y5.36568
G01 X-8.90548 Y5.36806
G01 X-8.91434 Y5.37022
G01 X-8.92325 Y5.37217
G01 X-8.93220 Y5.37390
G01 X-8.94120 Y5.37542
G01 X-8.95022 Y5.37672
G01 X-8.95928 Y5.37781
G01 X-8.96836 Y5.37868
G01 X-8.97746 Y5.37933
G01 X-8.98657 Y5.37976
G01 X-8.99568 Y5.37997
G01 X-9.00480 Y5.37997
G01 X-9.01392 Y5.37974
G01 X-9.02302 Y5.37930
G01 X-9.03251 Y5.37861
G01 X-9.04157 Y5.37772
G01 X-9.05101 Y5.37656
G01 X-9.06003 Y5.37523
G01 X-9.06902 Y5.37368
G01 X-9.07797 Y5.37191
G01 X-9.08687 Y5.36993
G01 X-9.09572 Y5.36774
G01 X-9.10452 Y5.36534
G01 X-9.11325 Y5.36273
G01 X-9.12229 Y5.35978
G01 X-9.13089 Y5.35674
G01 X-9.13941 Y5.35350
G01 X-9.14786 Y5.35005
G01 X-9.15621 Y5.34640
G01 X-9.16448 Y5.34255
G01 X-9.17266 Y5.33851
G01 X-9.18073 Y5.33427
G01 X-9.18870 Y5.32984
G01 X-9.19656 Y5.32521
G01 X-9.20431 Y5.32040
G01 X-9.21193 Y5.31541
G01 X-9.21976 Y5.31001
G01 X-9.22713 Y5.30464
G01 X-9.23438 Y5.29911
G01 X-9.24149 Y5.29340
G01 X-9.24846 Y5.28752
G01 X-9.25529 Y5.28147
G01 X-9.26197 Y5.27527
G01 X-9.26877 Y5.26863
G01 X-9.27439 Y5.26287
G01 X-9.01926 Y5.04880
G01 X-9.01240 Y5.05100
G01 X-9.00848 Y5.05180
G01 X-9.00398 Y5.05234
G01 X-9.00118 Y5.05248
G01 X-8.99718 Y5.05241
G01 X-8.99332 Y5.05206
G01 X-8.98949 Y5.05141
G01 X-8.77543 Y5.30652
G01 X-8.79006 Y5.30464
G01 X-8.80178 Y5.31242
G01 X-8.80933 Y5.31709
G01 X-8.81700 Y5.32157
G01 X-8.82476 Y5.32587
G01 X-8.83298 Y5.33015
G01 X-8.84094 Y5.33406
G01 X-8.84900 Y5.33778
G01 X-8.85715 Y5.34131
G01 X-8.86538 Y5.34464
G01 X-8.87369 Y5.34777
G01 X-8.88208 Y5.35070
G01 X-8.89052 Y5.35343
G01 X-8.89940 Y5.35606
G01 X-8.90797 Y5.35837
G01 X-8.91660 Y5.36048
G01 X-8.92527 Y5.36237
G01 X-8.93399 Y5.36406
G01 X-8.94275 Y5.36554
G01 X-8.95153 Y5.36681
G01 X-8.96035 Y5.36787
G01 X-8.96919 Y5.36871
G01 X-8.97805 Y5.36935
G01 X-8.98692 Y5.36977
G01 X-8.99580 Y5.36997
G01 X-9.00468 Y5.36997
G01 X-9.01355 Y5.36975
G01 X-9.02242 Y5.36932
G01 X-9.03166 Y5.36864
G01 X-9.04048 Y5.36778
G01 X-9.04967 Y5.36665
G01 X-9.05845 Y5.36535
G01 X-9.06720 Y5.36384
G01 X-9.07592 Y5.36213
G01 X-9.08458 Y5.36020
G01 X-9.09320 Y5.35807
G01 X-9.10177 Y5.35573
G01 X-9.11027 Y5.35318
G01 X-9.11908 Y5.35031
G01 X-9.12744 Y5.34736
G01 X-9.13574 Y5.34420
G01 X-9.14396 Y5.34084
G01 X-9.15210 Y5.33729
G01 X-9.16015 Y5.33354
G01 X-9.16811 Y5.32960
G01 X-9.17597 Y5.32547
G01 X-9.18373 Y5.32115
G01 X-9.19139 Y5.31665
G01 X-9.19893 Y5.31197
G01 X-9.20636 Y5.30711
G01 X-9.21398 Y5.30185
G01 X-9.22116 Y5.29663
G01 X-9.22821 Y5.29124
G01 X-9.23513 Y5.28567
G01 X-9.24192 Y5.27995
G01 X-9.24857 Y5.27406
G01 X-9.25965 Y5.26356
G01 X-9.01712 Y5.06006
G01 X-9.01219 Y5.06129
G01 X-9.00705 Y5.06209
G01 X-9.00448 Y5.06232
G01 X-8.99928 Y5.06248
G01 X-8.99354 Y5.06214
G01 X-8.79006 Y5.30464
G01 X-8.80490 Y5.30252
G01 X-8.81449 Y5.30852
G01 X-8.82194 Y5.31288
G01 X-8.82950 Y5.31706
G01 X-8.83749 Y5.32123
G01 X-8.84524 Y5.32503
G01 X-8.85308 Y5.32865
G01 X-8.86101 Y5.33209
G01 X-8.86902 Y5.33533
G01 X-8.87711 Y5.33837
G01 X-8.88526 Y5.34122
G01 X-8.89348 Y5.34387
G01 X-8.90212 Y5.34644
G01 X-8.91046 Y5.34868
G01 X-8.91885 Y5.35073
G01 X-8.92729 Y5.35258
G01 X-8.93577 Y5.35422
G01 X-8.94429 Y5.35566
G01 X-8.95284 Y5.35689
G01 X-8.96142 Y5.35792
G01 X-8.97002 Y5.35875
G01 X-8.97864 Y5.35936
G01 X-8.98727 Y5.35977
G01 X-8.99591 Y5.35997
G01 X-9.00455 Y5.35997
G01 X-9.01319 Y5.35975
G01 X-9.02181 Y5.35933
G01 X-9.03080 Y5.35868
G01 X-9.03938 Y5.35784
G01 X-9.04833 Y5.35674
G01 X-9.05687 Y5.35548
G01 X-9.06539 Y5.35401
G01 X-9.07386 Y5.35234
G01 X-9.08230 Y5.35046
G01 X-9.09068 Y5.34839
G01 X-9.09902 Y5.34611
G01 X-9.10729 Y5.34364
G01 X-9.11586 Y5.34084
G01 X-9.12400 Y5.33797
G01 X-9.13207 Y5.33489
G01 X-9.14007 Y5.33163
G01 X-9.14799 Y5.32817
G01 X-9.15582 Y5.32453
G01 X-9.16357 Y5.32069
G01 X-9.17122 Y5.31667
G01 X-9.17877 Y5.31247
G01 X-9.18621 Y5.30809
G01 X-9.19355 Y5.30354
G01 X-9.20078 Y5.29881
G01 X-9.20820 Y5.29368
G01 X-9.21518 Y5.28861
G01 X-9.22204 Y5.28336
G01 X-9.22878 Y5.27795
G01 X-9.23538 Y5.27238
G01 X-9.24466 Y5.26404
G01 X-9.01460 Y5.07100
G01 X-9.01118 Y5.07162
G01 X-9.00497 Y5.07231
G01 X-8.99795 Y5.07245
G01 X-8.80490 Y5.30252
G04 P0 ( dwell for no time -- G64 should not smooth over this point )
G00 Z0.08000 ( retract )

G00 X-9.07099 Y4.98540 ( rapid move to begin. )
G01 F3.00000
( Mill infeed pass 1/1 )
G01 Z-0.00800
G04 P0 ( dwell for no time -- G64 should not smooth over this point )
G01 F6.00000
G01 X-9.07099 Y4.98540
G01 X-9.07168 Y4.98926
G01 X-9.07233 Y4.99523
G01 X-9.07244 Y5.00204
G01 X-9.30252 Y5.19510
G01 X-9.30856 Y5.18544
G01 X-9.31292 Y5.17798
G01 X-9.31711 Y5.17042
G01 X-9.32110 Y5.16276
G01 X-9.32492 Y5.15500
G01 X-9.32854 Y5.14716
G01 X-9.33198 Y5.13923
G01 X-9.33522 Y5.13124
G01 X-9.33841 Y5.12280
G01 X-9.34125 Y5.11465
G01 X-9.34390 Y5.10643
G01 X-9.34636 Y5.09814
G01 X-9.34862 Y5.08980
G01 X-9.35067 Y5.08141
G01 X-9.35252 Y5.07297
G01 X-9.35417 Y5.06449
G01 X-9.35562 Y5.05598
G01 X-9.35691 Y5.04706
G01 X-9.35793 Y5.03849
G01 X-9.35875 Y5.02989
G01 X-9.35937 Y5.02128
G01 X-9.35979 Y5.01227
G01 X-9.35998 Y5.00364
G01 X-9.35996 Y4.99500
G01 X-9.35974 Y4.98636
G01 X-9.35931 Y4.97773
G01 X-9.35867 Y4.96912
G01 X-9.35783 Y4.96052
G01 X-9.35678 Y4.95194
G01 X-9.35552 Y4.94339
G01 X-9.35406 Y4.93488
G01 X-9.35239 Y4.92640
G01 X-9.35052 Y4.91796
G01 X-9.34846 Y4.90959
G01 X-9.34608 Y4.90088
G01 X-9.34361 Y4.89262
G01 X-9.34093 Y4.88440
G01 X-9.33806 Y4.87625
G01 X-9.33499 Y4.86818
G01 X-9.33173 Y4.86017
G01 X-9.32828 Y4.85225
G01 X-9.32464 Y4.84442
G01 X-9.32081 Y4.83667
G01 X-9.31680 Y4.82902
G01 X-9.31261 Y4.82147
G01 X-9.30823 Y4.81402
G01 X-9.30369 Y4.80668
G01 X-9.29875 Y4.79913
G01 X-9.29385 Y4.79203
G01 X-9.28877 Y4.78504
G01 X-9.28353 Y4.77817
G01 X-9.27812 Y4.77143
G01 X-9.27256 Y4.76482
G01 X-9.26404 Y4.75533
G01 X-9.07099 Y4.98540
G01 X-9.06008 Y4.98285
G01 X-9.26356 Y4.74035
G01 X-9.27425 Y4.75163
G01 X-9.28013 Y4.75829
G01 X-9.28585 Y4.76508
G01 X-9.29141 Y4.77201
G01 X-9.29679 Y4.77907
G01 X-9.30201 Y4.78625
G01 X-9.30705 Y4.79355
G01 X-9.31212 Y4.80131
G01 X-9.31680 Y4.80885
G01 X-9.32129 Y4.81651
G01 X-9.32560 Y4.82427
G01 X-9.32973 Y4.83214
G01 X-9.33366 Y4.84010
G01 X-9.33740 Y4.84815
G01 X-9.34095 Y4.85629
G01 X-9.34430 Y4.86451
G01 X-9.34745 Y4.87282
G01 X-9.35040 Y4.88119
G01 X-9.35315 Y4.88963
G01 X-9.35570 Y4.89813
G01 X-9.35814 Y4.90707
G01 X-9.36026 Y4.91569
G01 X-9.36218 Y4.92436
G01 X-9.36389 Y4.93307
G01 X-9.36539 Y4.94182
G01 X-9.36669 Y4.95061
G01 X-9.36777 Y4.95942
G01 X-9.36863 Y4.96826
G01 X-9.36929 Y4.97712
G01 X-9.36973 Y4.98598
G01 X-9.36996 Y4.99486
G01 X-9.36998 Y5.00374
G01 X-9.36978 Y5.01261
G01 X-9.36935 Y5.02187
G01 X-9.36872 Y5.03072
G01 X-9.36788 Y5.03956
G01 X-9.36682 Y5.04837
G01 X-9.36550 Y5.05753
G01 X-9.36401 Y5.06628
G01 X-9.36232 Y5.07500
G01 X-9.36041 Y5.08367
G01 X-9.35830 Y5.09230
G01 X-9.35598 Y5.10087
G01 X-9.35346 Y5.10938
G01 X-9.35073 Y5.11784
G01 X-9.34781 Y5.12621
G01 X-9.34454 Y5.13488
G01 X-9.34120 Y5.14310
G01 X-9.33767 Y5.15125
G01 X-9.33394 Y5.15931
G01 X-9.33002 Y5.16728
G01 X-9.32592 Y5.17515
G01 X-9.32162 Y5.18292
G01 X-9.31714 Y5.19059
G01 X-9.31247 Y5.19814
G01 X-9.30464 Y5.20993
G01 X-9.06214 Y5.00646
G01 X-9.06248 Y5.00052
G01 X-9.06234 Y4.99572
G01 X-9.06136 Y4.98818
G01 X-9.06008 Y4.98285
G01 X-9.04881 Y4.98073
G01 X-9.26288 Y4.72561
G01 X-9.26910 Y4.73170
G01 X-9.27546 Y4.73824
G01 X-9.28166 Y4.74492
G01 X-9.28770 Y4.75175
G01 X-9.29358 Y4.75873
G01 X-9.29928 Y4.76584
G01 X-9.30482 Y4.77309
G01 X-9.31017 Y4.78048
G01 X-9.31535 Y4.78798
G01 X-9.32056 Y4.79594
G01 X-9.32536 Y4.80368
G01 X-9.32998 Y4.81155
G01 X-9.33440 Y4.81952
G01 X-9.33864 Y4.82760
G01 X-9.34268 Y4.83577
G01 X-9.34652 Y4.84405
G01 X-9.35016 Y4.85241
G01 X-9.35360 Y4.86085
G01 X-9.35684 Y4.86938
G01 X-9.35987 Y4.87798
G01 X-9.36270 Y4.88665
G01 X-9.36531 Y4.89538
G01 X-9.36782 Y4.90456
G01 X-9.37000 Y4.91341
G01 X-9.37197 Y4.92231
G01 X-9.37373 Y4.93126
G01 X-9.37527 Y4.94025
G01 X-9.37660 Y4.94927
G01 X-9.37771 Y4.95833
G01 X-9.37860 Y4.96740
G01 X-9.37927 Y4.97650
G01 X-9.37973 Y4.98560
G01 X-9.37996 Y4.99472
G01 X-9.37998 Y5.00384
G01 X-9.37978 Y5.01295
G01 X-9.37933 Y5.02245
G01 X-9.37869 Y5.03155
G01 X-9.37782 Y5.04063
G01 X-9.37674 Y5.04967
G01 X-9.37538 Y5.05909
G01 X-9.37385 Y5.06807
G01 X-9.37211 Y5.07703
G01 X-9.37015 Y5.08593
G01 X-9.36798 Y5.09479
G01 X-9.36560 Y5.10360
G01 X-9.36301 Y5.11234
G01 X-9.36021 Y5.12102
G01 X-9.35721 Y5.12962
G01 X-9.35385 Y5.13852
G01 X-9.35043 Y5.14697
G01 X-9.34680 Y5.15534
G01 X-9.34297 Y5.16362
G01 X-9.33895 Y5.17180
G01 X-9.33472 Y5.17988
G01 X-9.33031 Y5.18787
G01 X-9.32571 Y5.19574
G01 X-9.32092 Y5.20350
G01 X-9.31594 Y5.21114
G01 X-9.30652 Y5.22457
G01 X-9.05141 Y5.01050
G01 X-9.05202 Y5.00700
G01 X-9.05240 Y5.00302
G01 X-9.05249 Y5.00021
G01 X-9.05235 Y4.99622
G01 X-9.05185 Y4.99184
G01 X-9.05108 Y4.98791
G01 X-9.05005 Y4.98417
G01 X-9.04881 Y4.98073
G01 X-9.03703 Y4.97920
G01 X-9.26198 Y4.71111
G01 X-9.26949 Y4.71809
G01 X-9.27618 Y4.72464
G01 X-9.28271 Y4.73135
G01 X-9.28908 Y4.73821
G01 X-9.29527 Y4.74522
G01 X-9.30130 Y4.75238
G01 X-9.30716 Y4.75968
G01 X-9.31284 Y4.76712
G01 X-9.31834 Y4.77470
G01 X-9.32365 Y4.78240
G01 X-9.32899 Y4.79056
G01 X-9.33392 Y4.79852
G01 X-9.33866 Y4.80659
G01 X-9.34320 Y4.81477
G01 X-9.34755 Y4.82306
G01 X-9.35170 Y4.83145
G01 X-9.35564 Y4.83994
G01 X-9.35938 Y4.84852
G01 X-9.36291 Y4.85719
G01 X-9.36623 Y4.86594
G01 X-9.36935 Y4.87477
G01 X-9.37224 Y4.88367
G01 X-9.37493 Y4.89263
G01 X-9.37750 Y4.90204
G01 X-9.37974 Y4.91113
G01 X-9.38176 Y4.92027
G01 X-9.38357 Y4.92945
G01 X-9.38515 Y4.93868
G01 X-9.38651 Y4.94794
G01 X-9.38765 Y4.95723
G01 X-9.38856 Y4.96654
G01 X-9.38925 Y4.97588
G01 X-9.38972 Y4.98523
G01 X-9.38996 Y4.99458
G01 X-9.38998 Y5.00394
G01 X-9.38977 Y5.01330
G01 X-9.38932 Y5.02304
G01 X-9.38865 Y5.03238
G01 X-9.38776 Y5.04169
G01 X-9.38665 Y5.05098
G01 X-9.38526 Y5.06064
G01 X-9.38369 Y5.06987
G01 X-9.38190 Y5.07905
G01 X-9.37989 Y5.08820
G01 X-9.37767 Y5.09729
G01 X-9.37523 Y5.10632
G01 X-9.37257 Y5.11530
G01 X-9.36969 Y5.12420
G01 X-9.36661 Y5.13304
G01 X-9.36316 Y5.14217
G01 X-9.35965 Y5.15084
G01 X-9.35592 Y5.15943
G01 X-9.35200 Y5.16792
G01 X-9.34787 Y5.17632
G01 X-9.34353 Y5.18462
G01 X-9.33900 Y5.19281
G01 X-9.33428 Y5.20089
G01 X-9.32936 Y5.20885
G01 X-9.32426 Y5.21670
G01 X-9.31896 Y5.22442
G01 X-9.31348 Y5.23201
G01 X-9.30817 Y5.23901
G01 X-9.04009 Y5.01406
G01 X-9.04123 Y5.01027
G01 X-9.04208 Y5.00589
G01 X-9.04241 Y5.00271
G01 X-9.04249 Y4.99991
G01 X-9.04237 Y4.99671
G01 X-9.04180 Y4.99234
G01 X-9.04045 Y4.98697
G01 X-9.03888 Y4.98286
G01 X-9.03703 Y4.97920
G04 P0 ( dwell for no time -- G64 should not smooth over this point )
G00 Z0.08000 ( retract )

G00 X-8.64003 Y4.99582 ( rapid move to begin. )
G01 F3.00000
( Mill infeed pass 1/1 )
G01 Z-0.00800
G04 P0 ( dwell for no time -- G64 should not smooth over this point )
G01 F6.00000
G01 X-8.64003 Y4.99582
G01 X-8.64023 Y4.98718
G01 X-8.64064 Y4.97855
G01 X-8.64126 Y4.96993
G01 X-8.64208 Y4.96133
G01 X-8.64312 Y4.95275
G01 X-8.64435 Y4.94420
G01 X-8.64579 Y4.93569
G01 X-8.64744 Y4.92720
G01 X-8.64929 Y4.91876
G01 X-8.65134 Y4.91037
G01 X-8.65359 Y4.90204
G01 X-8.65615 Y4.89339
G01 X-8.65880 Y4.88518
G01 X-8.66166 Y4.87702
G01 X-8.66470 Y4.86895
G01 X-8.66809 Y4.86059
G01 X-8.67153 Y4.85267
G01 X-8.67516 Y4.84483
G01 X-8.67898 Y4.83708
G01 X-8.68298 Y4.82942
G01 X-8.68716 Y4.82187
G01 X-8.69153 Y4.81441
G01 X-8.69748 Y4.80490
G01 X-8.92756 Y4.99796
G01 X-8.92767 Y5.00477
G01 X-8.92832 Y5.01074
G01 X-8.92901 Y5.01460
G01 X-8.73596 Y5.24467
G01 X-8.72756 Y5.23531
G01 X-8.72199 Y5.22872
G01 X-8.71636 Y5.22169
G01 X-8.71090 Y5.21452
G01 X-8.70584 Y5.20753
G01 X-8.70095 Y5.20041
G01 X-8.69622 Y5.19318
G01 X-8.69167 Y5.18583
G01 X-8.68730 Y5.17838
G01 X-8.68311 Y5.17082
G01 X-8.67911 Y5.16317
G01 X-8.67512 Y5.15508
G01 X-8.67150 Y5.14725
G01 X-8.66806 Y5.13933
G01 X-8.66481 Y5.13132
G01 X-8.66175 Y5.12324
G01 X-8.65889 Y5.11509
G01 X-8.65623 Y5.10687
G01 X-8.65376 Y5.09859
G01 X-8.65150 Y5.09025
G01 X-8.64943 Y5.08186
G01 X-8.64757 Y5.07342
G01 X-8.64591 Y5.06494
G01 X-8.64445 Y5.05643
G01 X-8.64320 Y5.04788
G01 X-8.64215 Y5.03930
G01 X-8.64131 Y5.03070
G01 X-8.64068 Y5.02210
G01 X-8.64024 Y5.01309
G01 X-8.64003 Y5.00446
G01 X-8.64003 Y4.99582
G01 X-8.63003 Y4.99570
G01 X-8.63024 Y4.98683
G01 X-8.63066 Y4.97796
G01 X-8.63129 Y4.96910
G01 X-8.63214 Y4.96026
G01 X-8.63320 Y4.95144
G01 X-8.63447 Y4.94265
G01 X-8.63595 Y4.93390
G01 X-8.63764 Y4.92518
G01 X-8.63955 Y4.91651
G01 X-8.64165 Y4.90788
G01 X-8.64396 Y4.89931
G01 X-8.64660 Y4.89043
G01 X-8.64933 Y4.88199
G01 X-8.65226 Y4.87361
G01 X-8.65539 Y4.86531
G01 X-8.65887 Y4.85672
G01 X-8.66240 Y4.84858
G01 X-8.66614 Y4.84052
G01 X-8.67006 Y4.83256
G01 X-8.67417 Y4.82469
G01 X-8.67847 Y4.81692
G01 X-8.68296 Y4.80925
G01 X-8.68763 Y4.80170
G01 X-8.69536 Y4.79006
G01 X-8.93786 Y4.99354
G01 X-8.93752 Y4.99948
G01 X-8.93766 Y5.00428
G01 X-8.93864 Y5.01182
G01 X-8.93992 Y5.01715
G01 X-8.73644 Y5.25965
G01 X-8.72587 Y5.24850
G01 X-8.71999 Y5.24185
G01 X-8.71427 Y5.23507
G01 X-8.70848 Y5.22785
G01 X-8.70287 Y5.22048
G01 X-8.69767 Y5.21329
G01 X-8.69264 Y5.20598
G01 X-8.68778 Y5.19854
G01 X-8.68311 Y5.19099
G01 X-8.67862 Y5.18333
G01 X-8.67431 Y5.17557
G01 X-8.67019 Y5.16771
G01 X-8.66610 Y5.15939
G01 X-8.66237 Y5.15134
G01 X-8.65884 Y5.14320
G01 X-8.65550 Y5.13497
G01 X-8.65236 Y5.12666
G01 X-8.64942 Y5.11828
G01 X-8.64668 Y5.10984
G01 X-8.64415 Y5.10133
G01 X-8.64182 Y5.09276
G01 X-8.63969 Y5.08413
G01 X-8.63778 Y5.07546
G01 X-8.63607 Y5.06675
G01 X-8.63457 Y5.05800
G01 X-8.63329 Y5.04921
G01 X-8.63221 Y5.04039
G01 X-8.63135 Y5.03156
G01 X-8.63070 Y5.02271
G01 X-8.63025 Y5.01345
G01 X-8.63003 Y5.00458
G01 X-8.63003 Y4.99570
G01 X-8.62003 Y4.99559
G01 X-8.62024 Y4.98647
G01 X-8.62068 Y4.97736
G01 X-8.62133 Y4.96826
G01 X-8.62220 Y4.95918
G01 X-8.62329 Y4.95013
G01 X-8.62459 Y4.94110
G01 X-8.62611 Y4.93211
G01 X-8.62785 Y4.92316
G01 X-8.62980 Y4.91425
G01 X-8.63197 Y4.90539
G01 X-8.63434 Y4.89659
G01 X-8.63704 Y4.88747
G01 X-8.63985 Y4.87880
G01 X-8.64286 Y4.87019
G01 X-8.64608 Y4.86166
G01 X-8.64965 Y4.85285
G01 X-8.65328 Y4.84449
G01 X-8.65711 Y4.83621
G01 X-8.66114 Y4.82803
G01 X-8.66536 Y4.81995
G01 X-8.66978 Y4.81197
G01 X-8.67439 Y4.80410
G01 X-8.67919 Y4.79634
G01 X-8.68417 Y4.78870
G01 X-8.69348 Y4.77543
G01 X-8.94859 Y4.98950
G01 X-8.94798 Y4.99300
G01 X-8.94760 Y4.99698
G01 X-8.94751 Y4.99978
G01 X-8.94764 Y5.00378
G01 X-8.94815 Y5.00816
G01 X-8.94892 Y5.01208
G01 X-8.94995 Y5.01582
G01 X-8.95119 Y5.01927
G01 X-8.73712 Y5.27439
G01 X-8.73104 Y5.26843
G01 X-8.72467 Y5.26190
G01 X-8.71847 Y5.25522
G01 X-8.71242 Y5.24839
G01 X-8.70655 Y5.24142
G01 X-8.70060 Y5.23400
G01 X-8.69484 Y5.22644
G01 X-8.68950 Y5.21906
G01 X-8.68433 Y5.21154
G01 X-8.67934 Y5.20391
G01 X-8.67454 Y5.19615
G01 X-8.66993 Y5.18829
G01 X-8.66550 Y5.18031
G01 X-8.66128 Y5.17224
G01 X-8.65707 Y5.16371
G01 X-8.65324 Y5.15543
G01 X-8.64961 Y5.14707
G01 X-8.64619 Y5.13862
G01 X-8.64296 Y5.13009
G01 X-8.63994 Y5.12148
G01 X-8.63713 Y5.11280
G01 X-8.63453 Y5.10406
G01 X-8.63214 Y5.09526
G01 X-8.62996 Y5.08641
G01 X-8.62799 Y5.07750
G01 X-8.62624 Y5.06855
G01 X-8.62470 Y5.05956
G01 X-8.62338 Y5.05054
G01 X-8.62227 Y5.04148
G01 X-8.62139 Y5.03241
G01 X-8.62072 Y5.02332
G01 X-8.62025 Y5.01382
G01 X-8.62003 Y5.00471
G01 X-8.62003 Y4.99559
G01 X-8.61003 Y4.99547
G01 X-8.61025 Y4.98611
G01 X-8.61069 Y4.97676
G01 X-8.61136 Y4.96743
G01 X-8.61226 Y4.95811
G01 X-8.61337 Y4.94882
G01 X-8.61471 Y4.93955
G01 X-8.61627 Y4.93032
G01 X-8.61806 Y4.92114
G01 X-8.62006 Y4.91199
G01 X-8.62228 Y4.90290
G01 X-8.62472 Y4.89387
G01 X-8.62749 Y4.88451
G01 X-8.63037 Y4.87561
G01 X-8.63346 Y4.86677
G01 X-8.63676 Y4.85802
G01 X-8.64043 Y4.84898
G01 X-8.64415 Y4.84040
G01 X-8.64809 Y4.83190
G01 X-8.65222 Y4.82350
G01 X-8.65656 Y4.81521
G01 X-8.66109 Y4.80702
G01 X-8.66582 Y4.79894
G01 X-8.67074 Y4.79098
G01 X-8.67585 Y4.78314
G01 X-8.68115 Y4.77542
G01 X-8.68663 Y4.76784
G01 X-8.69183 Y4.76099
G01 X-8.95991 Y4.98594
G01 X-8.95877 Y4.98972
G01 X-8.95791 Y4.99411
G01 X-8.95759 Y4.99729
G01 X-8.95751 Y5.00009
G01 X-8.95763 Y5.00329
G01 X-8.95820 Y5.00766
G01 X-8.95955 Y5.01303
G01 X-8.96112 Y5.01714
G01 X-8.96297 Y5.02080
G01 X-8.73801 Y5.28889
G01 X-8.73065 Y5.28204
G01 X-8.72396 Y5.27550
G01 X-8.71743 Y5.26879
G01 X-8.71105 Y5.26194
G01 X-8.70485 Y5.25493
G01 X-8.69882 Y5.24777
G01 X-8.69272 Y5.24016
G01 X-8.68681 Y5.23240
G01 X-8.68132 Y5.22482
G01 X-8.67602 Y5.21711
G01 X-8.67090 Y5.20927
G01 X-8.66598 Y5.20132
G01 X-8.66124 Y5.19324
G01 X-8.65670 Y5.18506
G01 X-8.65236 Y5.17677
G01 X-8.64805 Y5.16802
G01 X-8.64412 Y5.15953
G01 X-8.64039 Y5.15094
G01 X-8.63687 Y5.14227
G01 X-8.63357 Y5.13351
G01 X-8.63047 Y5.12468
G01 X-8.62758 Y5.11577
G01 X-8.62491 Y5.10680
G01 X-8.62245 Y5.09777
G01 X-8.62022 Y5.08868
G01 X-8.61820 Y5.07954
G01 X-8.61640 Y5.07036
G01 X-8.61482 Y5.06113
G01 X-8.61346 Y5.05187
G01 X-8.61233 Y5.04258
G01 X-8.61142 Y5.03326
G01 X-8.61074 Y5.02393
G01 X-8.61026 Y5.01419
G01 X-8.61003 Y5.00483
G01 X-8.61003 Y4.99547
G04 P0 ( dwell for no time -- G64 should not smooth over this point )
G00 Z0.08000 ( retract )

G00 X-8.71111 Y4.73801 ( rapid move to begin. )
G01 F3.00000
( Mill infeed pass 1/1 )
G01 Z-0.00800
G04 P0 ( dwell for no time -- G64 should not smooth over this point )
G01 F6.00000
G01 X-8.71111 Y4.73801
G01 X-8.71748 Y4.73114
G01 X-8.72402 Y4.72444
G01 X-8.73071 Y4.71790
G01 X-8.73756 Y4.71151
G01 X-8.74456 Y4.70530
G01 X-8.75170 Y4.69925
G01 X-8.75930 Y4.69314
G01 X-8.76673 Y4.68745
G01 X-8.77430 Y4.68194
G01 X-8.78200 Y4.67662
G01 X-8.79015 Y4.67127
G01 X-8.79810 Y4.66633
G01 X-8.80616 Y4.66158
G01 X-8.81434 Y4.65703
G01 X-8.82263 Y4.65267
G01 X-8.83101 Y4.64851
G01 X-8.83950 Y4.64456
G01 X-8.84807 Y4.64081
G01 X-8.85674 Y4.63727
G01 X-8.86548 Y4.63393
G01 X-8.87430 Y4.63081
G01 X-8.88358 Y4.62778
G01 X-8.89254 Y4.62510
G01 X-8.90157 Y4.62263
G01 X-8.91065 Y4.62037
G01 X-8.91979 Y4.61834
G01 X-8.92897 Y4.61652
G01 X-8.93858 Y4.61487
G01 X-8.94784 Y4.61350
G01 X-8.95713 Y4.61236
G01 X-8.96645 Y4.61145
G01 X-8.97578 Y4.61075
G01 X-8.98513 Y4.61028
G01 X-8.99448 Y4.61004
G01 X-9.00384 Y4.61002
G01 X-9.01360 Y4.61024
G01 X-9.02294 Y4.61068
G01 X-9.03228 Y4.61134
G01 X-9.04160 Y4.61222
G01 X-9.05089 Y4.61334
G01 X-9.06016 Y4.61467
G01 X-9.06939 Y4.61622
G01 X-9.07858 Y4.61800
G01 X-9.08772 Y4.61999
G01 X-9.09681 Y4.62221
G01 X-9.10623 Y4.62475
G01 X-9.11520 Y4.62740
G01 X-9.12411 Y4.63028
G01 X-9.13295 Y4.63336
G01 X-9.14171 Y4.63666
G01 X-9.15039 Y4.64016
G01 X-9.15934 Y4.64404
G01 X-9.16783 Y4.64796
G01 X-9.17623 Y4.65209
G01 X-9.18453 Y4.65642
G01 X-9.19272 Y4.66095
G01 X-9.20081 Y4.66567
G01 X-9.20877 Y4.67058
G01 X-9.21662 Y4.67569
G01 X-9.22434 Y4.68098
G01 X-9.23193 Y4.68646
G01 X-9.23901 Y4.69183
G01 X-9.01405 Y4.95992
G01 X-9.00996 Y4.95869
G01 X-9.00563 Y4.95788
G01 X-9.00011 Y4.95751
G01 X-8.99651 Y4.95765
G01 X-8.99208 Y4.95825
G01 X-8.98867 Y4.95906
G01 X-8.98304 Y4.96104
G01 X-8.97920 Y4.96296
G01 X-8.71111 Y4.73801
G01 X-8.72561 Y4.73713
G01 X-8.73109 Y4.73151
G01 X-8.73762 Y4.72513
G01 X-8.74429 Y4.71891
G01 X-8.75111 Y4.71286
G01 X-8.75807 Y4.70697
G01 X-8.76547 Y4.70101
G01 X-8.77271 Y4.69547
G01 X-8.78009 Y4.69010
G01 X-8.78758 Y4.68492
G01 X-8.79553 Y4.67970
G01 X-8.80328 Y4.67489
G01 X-8.81114 Y4.67026
G01 X-8.81910 Y4.66582
G01 X-8.82717 Y4.66158
G01 X-8.83535 Y4.65753
G01 X-8.84361 Y4.65367
G01 X-8.85197 Y4.65002
G01 X-8.86041 Y4.64657
G01 X-8.86893 Y4.64332
G01 X-8.87753 Y4.64028
G01 X-8.88656 Y4.63733
G01 X-8.89530 Y4.63471
G01 X-8.90409 Y4.63230
G01 X-8.91295 Y4.63011
G01 X-8.92185 Y4.62812
G01 X-8.93079 Y4.62636
G01 X-8.94016 Y4.62474
G01 X-8.94918 Y4.62341
G01 X-8.95823 Y4.62230
G01 X-8.96731 Y4.62141
G01 X-8.97640 Y4.62073
G01 X-8.98551 Y4.62028
G01 X-8.99463 Y4.62004
G01 X-9.00374 Y4.62002
G01 X-9.01325 Y4.62023
G01 X-9.02235 Y4.62066
G01 X-9.03145 Y4.62131
G01 X-9.04053 Y4.62217
G01 X-9.04959 Y4.62325
G01 X-9.05861 Y4.62455
G01 X-9.06761 Y4.62606
G01 X-9.07656 Y4.62779
G01 X-9.08547 Y4.62974
G01 X-9.09433 Y4.63190
G01 X-9.10351 Y4.63437
G01 X-9.11225 Y4.63696
G01 X-9.12093 Y4.63976
G01 X-9.12954 Y4.64276
G01 X-9.13808 Y4.64597
G01 X-9.14653 Y4.64939
G01 X-9.15526 Y4.65317
G01 X-9.16353 Y4.65699
G01 X-9.17171 Y4.66101
G01 X-9.17980 Y4.66523
G01 X-9.18778 Y4.66964
G01 X-9.19566 Y4.67424
G01 X-9.20342 Y4.67903
G01 X-9.21106 Y4.68401
G01 X-9.22457 Y4.69348
G01 X-9.01051 Y4.94858
G01 X-9.00668 Y4.94794
G01 X-9.00282 Y4.94758
G01 X-8.99881 Y4.94752
G01 X-8.99602 Y4.94766
G01 X-8.99152 Y4.94820
G01 X-8.98760 Y4.94899
G01 X-8.98074 Y4.95120
G01 X-8.72561 Y4.73713
G01 X-8.74035 Y4.73644
G01 X-8.75102 Y4.72631
G01 X-8.75766 Y4.72041
G01 X-8.76443 Y4.71468
G01 X-8.77165 Y4.70887
G01 X-8.77870 Y4.70348
G01 X-8.78588 Y4.69826
G01 X-8.79317 Y4.69321
G01 X-8.80092 Y4.68813
G01 X-8.80845 Y4.68344
G01 X-8.81611 Y4.67894
G01 X-8.82386 Y4.67462
G01 X-8.83172 Y4.67048
G01 X-8.83968 Y4.66654
G01 X-8.84773 Y4.66279
G01 X-8.85586 Y4.65923
G01 X-8.86408 Y4.65587
G01 X-8.87238 Y4.65271
G01 X-8.88074 Y4.64975
G01 X-8.88955 Y4.64687
G01 X-8.89805 Y4.64432
G01 X-8.90662 Y4.64198
G01 X-8.91524 Y4.63984
G01 X-8.92390 Y4.63791
G01 X-8.93261 Y4.63619
G01 X-8.94174 Y4.63462
G01 X-8.95052 Y4.63333
G01 X-8.95933 Y4.63224
G01 X-8.96817 Y4.63137
G01 X-8.97702 Y4.63072
G01 X-8.98589 Y4.63027
G01 X-8.99477 Y4.63004
G01 X-9.00364 Y4.63002
G01 X-9.01290 Y4.63023
G01 X-9.02177 Y4.63064
G01 X-9.03062 Y4.63127
G01 X-9.03946 Y4.63211
G01 X-9.04828 Y4.63316
G01 X-9.05707 Y4.63443
G01 X-9.06583 Y4.63591
G01 X-9.07455 Y4.63759
G01 X-9.08322 Y4.63948
G01 X-9.09184 Y4.64158
G01 X-9.10079 Y4.64399
G01 X-9.10929 Y4.64651
G01 X-9.11775 Y4.64924
G01 X-9.12613 Y4.65216
G01 X-9.13444 Y4.65529
G01 X-9.14267 Y4.65861
G01 X-9.15117 Y4.66229
G01 X-9.15923 Y4.66601
G01 X-9.16719 Y4.66993
G01 X-9.17507 Y4.67404
G01 X-9.18284 Y4.67834
G01 X-9.19051 Y4.68282
G01 X-9.19806 Y4.68748
G01 X-9.20993 Y4.69536
G01 X-9.00646 Y4.93786
G01 X-9.00072 Y4.93751
G01 X-8.99552 Y4.93767
G01 X-8.99295 Y4.93791
G01 X-8.98781 Y4.93871
G01 X-8.98288 Y4.93994
G01 X-8.74035 Y4.73644
G01 X-8.75533 Y4.73596
G01 X-8.76421 Y4.72797
G01 X-8.77080 Y4.72240
G01 X-8.77782 Y4.71674
G01 X-8.78468 Y4.71150
G01 X-8.79166 Y4.70641
G01 X-8.79876 Y4.70150
G01 X-8.80630 Y4.69656
G01 X-8.81363 Y4.69200
G01 X-8.82108 Y4.68762
G01 X-8.82862 Y4.68341
G01 X-8.83627 Y4.67939
G01 X-8.84401 Y4.67555
G01 X-8.85184 Y4.67190
G01 X-8.85976 Y4.66844
G01 X-8.86776 Y4.66517
G01 X-8.87583 Y4.66209
G01 X-8.88397 Y4.65921
G01 X-8.89254 Y4.65641
G01 X-8.90081 Y4.65394
G01 X-8.90914 Y4.65166
G01 X-8.91753 Y4.64958
G01 X-8.92596 Y4.64770
G01 X-8.93443 Y4.64602
G01 X-8.94332 Y4.64449
G01 X-8.95185 Y4.64324
G01 X-8.96043 Y4.64218
G01 X-8.96903 Y4.64134
G01 X-8.97764 Y4.64070
G01 X-8.98627 Y4.64026
G01 X-8.99491 Y4.64004
G01 X-9.00354 Y4.64002
G01 X-9.01256 Y4.64022
G01 X-9.02118 Y4.64063
G01 X-9.02980 Y4.64124
G01 X-9.03840 Y4.64206
G01 X-9.04698 Y4.64308
G01 X-9.05553 Y4.64431
G01 X-9.06405 Y4.64575
G01 X-9.07253 Y4.64738
G01 X-9.08097 Y4.64923
G01 X-9.08936 Y4.65127
G01 X-9.09807 Y4.65362
G01 X-9.10634 Y4.65607
G01 X-9.11456 Y4.65872
G01 X-9.12272 Y4.66157
G01 X-9.13081 Y4.66461
G01 X-9.13881 Y4.66784
G01 X-9.14709 Y4.67142
G01 X-9.15492 Y4.67504
G01 X-9.16268 Y4.67885
G01 X-9.17034 Y4.68285
G01 X-9.17790 Y4.68703
G01 X-9.18536 Y4.69139
G01 X-9.19510 Y4.69748
G01 X-9.00205 Y4.92755
G01 X-8.99503 Y4.92769
G01 X-8.98882 Y4.92838
G01 X-8.98540 Y4.92900
G01 X-8.75533 Y4.73596
G04 P0 ( dwell for no time -- G64 should not smooth over this point )
G00 Z0.08000 ( retract )

G00 X-7.82480 Y2.65069 ( rapid move to begin. )
G01 F3.00000
( Mill infeed pass 1/1 )
G01 Z-0.00800
G04 P0 ( dwell for no time -- G64 should not smooth over this point )
G01 F6.00000
G01 X-7.82480 Y2.65069
G01 X-7.85479 Y2.66938
G01 X-7.93550 Y2.72048
G01 X-7.95474 Y2.73283
G01 X-8.02963 Y2.78155
G01 X-8.04835 Y2.79390
G01 X-8.11806 Y2.84050
G01 X-8.13629 Y2.85285
G01 X-8.19970 Y2.89638
G01 X-8.27513 Y2.94936
G01 X-8.34716 Y3.00126
G01 X-8.41645 Y3.05247
G01 X-8.43288 Y3.06482
G01 X-8.48170 Y3.10197
G01 X-8.54260 Y3.14935
G01 X-8.59969 Y3.19489
G01 X-8.61492 Y3.20723
G01 X-8.65490 Y3.24004
G01 X-8.70639 Y3.28322
G01 X-8.75442 Y3.32450
G01 X-8.76810 Y3.33644
G01 X-8.80029 Y3.36489
G01 X-8.84498 Y3.40523
G01 X-8.88682 Y3.44392
G01 X-8.92583 Y3.48089
G01 X-8.96340 Y3.51736
G01 X-8.99985 Y3.55362
G01 X-9.03455 Y3.58900
G01 X-9.06768 Y3.62364
G01 X-9.09885 Y3.65702
G01 X-9.12832 Y3.68937
G01 X-9.15701 Y3.72165
G01 X-9.18416 Y3.75295
G01 X-9.20973 Y3.78318
G01 X-9.23456 Y3.81326
G01 X-9.25792 Y3.84227
G01 X-9.28985 Y3.88313
G01 X-9.31131 Y3.91146
G01 X-9.32304 Y3.92726
G01 X-9.34305 Y3.95476
G01 X-9.36214 Y3.98168
G01 X-9.38843 Y4.01997
G01 X-9.40541 Y4.04551
G01 X-9.43021 Y4.08409
G01 X-9.45289 Y4.12085
G01 X-9.47426 Y4.15694
G01 X-9.49446 Y4.19254
G01 X-9.51320 Y4.22705
G01 X-9.53125 Y4.26177
G01 X-9.54734 Y4.29417
G01 X-9.56227 Y4.32560
G01 X-9.57714 Y4.35849
G01 X-9.59163 Y4.39220
G01 X-9.60032 Y4.41337
G01 X-9.60863 Y4.43432
G01 X-9.61937 Y4.46262
G01 X-9.63108 Y4.49530
G01 X-9.64029 Y4.52253
G01 X-9.64668 Y4.54240
G01 X-9.65275 Y4.56211
G01 X-9.66200 Y4.59396
G01 X-9.66730 Y4.61338
G01 X-9.67217 Y4.63215
G01 X-9.67845 Y4.65784
G01 X-9.68267 Y4.67628
G01 X-9.68675 Y4.69512
G01 X-9.69054 Y4.71375
G01 X-9.69400 Y4.73189
G01 X-9.69937 Y4.76277
G01 X-9.70220 Y4.78078
G01 X-9.70478 Y4.79859
G01 X-9.70720 Y4.81683
G01 X-9.70939 Y4.83514
G01 X-9.71192 Y4.85916
G01 X-9.71352 Y4.87683
G01 X-9.71494 Y4.89494
G01 X-9.71682 Y4.92533
G01 X-9.71764 Y4.94341
G01 X-9.71823 Y4.96143
G01 X-9.71867 Y4.98508
G01 X-9.71874 Y5.00259
G01 X-9.71860 Y5.02061
G01 X-9.71823 Y5.03863
G01 X-9.71764 Y5.05657
G01 X-9.71685 Y5.07414
G01 X-9.71582 Y5.09214
G01 X-9.71460 Y5.10976
G01 X-9.71311 Y5.12791
G01 X-9.71141 Y5.14598
G01 X-9.70951 Y5.16375
G01 X-9.70574 Y5.19434
G01 X-9.70317 Y5.21270
G01 X-9.70043 Y5.23063
G01 X-9.69740 Y5.24899
G01 X-9.69410 Y5.26756
G01 X-9.68929 Y5.29254
G01 X-9.68548 Y5.31086
G01 X-9.68130 Y5.32980
G01 X-9.67385 Y5.36116
G01 X-9.66909 Y5.37983
G01 X-9.66395 Y5.39899
G01 X-9.65642 Y5.42553
G01 X-9.65071 Y5.44459
G01 X-9.64467 Y5.46393
G01 X-9.63417 Y5.49573
G01 X-9.62426 Y5.52403
G01 X-9.61171 Y5.55770
G01 X-9.60008 Y5.58724
G01 X-9.58639 Y5.62019
G01 X-9.57329 Y5.65018
G01 X-9.55785 Y5.68383
G01 X-9.54282 Y5.71507
G01 X-9.53157 Y5.73760
G01 X-9.51357 Y5.77227
G01 X-9.49485 Y5.80675
G01 X-9.47466 Y5.84237
G01 X-9.46053 Y5.86642
G01 X-9.44893 Y5.88565
G01 X-9.44990 Y5.88794
G01 X-9.44893 Y5.88565
G01 X-9.40326 Y5.87390
G01 X-9.37668 Y5.86748
G01 X-9.34641 Y5.86050
G01 X-9.30716 Y5.85212
G01 X-9.26825 Y5.84459
G01 X-9.24361 Y5.84023
G01 X-9.22837 Y5.83773
G01 X-9.20960 Y5.83483
G01 X-9.18718 Y5.83167
G01 X-9.16460 Y5.82878
G01 X-9.15146 Y5.82728
G01 X-9.12043 Y5.82417
G01 X-9.08674 Y5.82157
G01 X-9.06815 Y5.82050
G01 X-9.04530 Y5.81952
G01 X-9.01592 Y5.81884
G01 X-8.99151 Y5.81878
G01 X-8.97405 Y5.81900
G01 X-8.94117 Y5.82005
G01 X-8.91118 Y5.82172
G01 X-8.87977 Y5.82416
G01 X-8.85569 Y5.82650
G01 X-8.84353 Y5.82784
G01 X-8.81156 Y5.83183
G01 X-8.77853 Y5.83663
G01 X-8.75515 Y5.84045
G01 X-8.73064 Y5.84478
G01 X-8.69160 Y5.85236
G01 X-8.65242 Y5.86077
G01 X-8.62483 Y5.86711
G01 X-8.60969 Y5.87075
G01 X-8.56453 Y5.88209
G01 X-8.53290 Y5.89053
G01 X-8.49901 Y5.89991
G01 X-8.44652 Y5.91517
G01 X-8.40761 Y5.92697
G01 X-8.38499 Y5.93402
G01 X-8.32299 Y5.95386
G01 X-8.27581 Y5.96951
G01 X-8.20903 Y5.99227
G01 X-8.20080 Y6.00087
G01 X-8.20903 Y5.99227
G01 X-8.22607 Y5.93603
G01 X-8.23901 Y5.89246
G01 X-8.24880 Y5.85881
G01 X-8.26569 Y5.79903
G01 X-8.27359 Y5.77024
G01 X-8.28670 Y5.72077
G01 X-8.29789 Y5.67651
G01 X-8.30319 Y5.65469
G01 X-8.30773 Y5.63542
G01 X-8.31609 Y5.59835
G01 X-8.32349 Y5.56312
G01 X-8.32723 Y5.54416
G01 X-8.33296 Y5.51302
G01 X-8.33506 Y5.50074
G01 X-8.33959 Y5.47214
G01 X-8.34334 Y5.44515
G01 X-8.34628 Y5.42038
G01 X-8.34787 Y5.40469
G01 X-8.34981 Y5.38134
G01 X-8.35117 Y5.35864
G01 X-8.35290 Y5.30983
G01 X-8.35388 Y5.29001
G01 X-8.35506 Y5.27098
G01 X-8.35647 Y5.25187
G01 X-8.35804 Y5.23363
G01 X-8.35981 Y5.21561
G01 X-8.36182 Y5.19742
G01 X-8.36579 Y5.16634
G01 X-8.36825 Y5.14935
G01 X-8.37095 Y5.13220
G01 X-8.37383 Y5.11528
G01 X-8.37678 Y5.09909
G01 X-8.38409 Y5.06255
G01 X-8.38674 Y5.04633
G01 X-8.38834 Y5.03309
G01 X-8.38958 Y5.01673
G01 X-8.39000 Y5.00095
G01 X-8.38967 Y4.98522
G01 X-8.38854 Y4.96897
G01 X-8.38659 Y4.95256
G01 X-8.38396 Y4.93677
G01 X-8.37667 Y4.90031
G01 X-8.37372 Y4.88411
G01 X-8.37085 Y4.86719
G01 X-8.36814 Y4.84997
G01 X-8.36562 Y4.83245
G01 X-8.36329 Y4.81473
G01 X-8.36119 Y4.79711
G01 X-8.35793 Y4.76518
G01 X-8.35637 Y4.74683
G01 X-8.35497 Y4.72771
G01 X-8.35378 Y4.70809
G01 X-8.35284 Y4.68867
G01 X-8.35146 Y4.64782
G01 X-8.35034 Y4.62636
G01 X-8.34780 Y4.59460
G01 X-8.34512 Y4.56929
G01 X-8.34311 Y4.55304
G01 X-8.33942 Y4.52667
G01 X-8.33489 Y4.49824
G01 X-8.33278 Y4.48597
G01 X-8.32717 Y4.45552
G01 X-8.32329 Y4.43595
G01 X-8.31673 Y4.40472
G01 X-8.30698 Y4.36133
G01 X-8.29707 Y4.32017
G01 X-8.29154 Y4.29810
G01 X-8.27881 Y4.24919
G01 X-8.26411 Y4.19526
G01 X-8.24726 Y4.13585
G01 X-8.23912 Y4.10789
G01 X-8.21857 Y4.03892
G01 X-8.20422 Y3.99185
G01 X-8.17620 Y3.90201
G01 X-8.16499 Y3.86669
G01 X-8.13099 Y3.76099
G01 X-8.10521 Y3.67947
G01 X-8.09284 Y3.63952
G01 X-8.06339 Y3.54226
G01 X-8.05102 Y3.50047
G01 X-8.01849 Y3.38806
G01 X-8.00652 Y3.34573
G01 X-7.96993 Y3.21326
G01 X-7.95755 Y3.16737
G01 X-7.91661 Y3.01176
G01 X-7.88954 Y2.90585
G01 X-7.85765 Y2.77953
G01 X-7.82480 Y2.65069
G01 X-7.80896 Y2.62910
G01 X-7.86012 Y2.66091
G01 X-7.94088 Y2.71204
G01 X-7.96017 Y2.72443
G01 X-8.03511 Y2.77319
G01 X-8.05388 Y2.78557
G01 X-8.12365 Y2.83221
G01 X-8.14192 Y2.84459
G01 X-8.20539 Y2.88815
G01 X-8.28091 Y2.94120
G01 X-8.35304 Y2.99317
G01 X-8.42243 Y3.04446
G01 X-8.48779 Y3.09403
G01 X-8.54878 Y3.14148
G01 X-8.60597 Y3.18710
G01 X-8.62124 Y3.19948
G01 X-8.67616 Y3.24471
G01 X-8.72692 Y3.28757
G01 X-8.76097 Y3.31695
G01 X-8.80693 Y3.35741
G01 X-8.85172 Y3.39783
G01 X-8.86522 Y3.41022
G01 X-8.90639 Y3.44859
G01 X-8.93275 Y3.47367
G01 X-8.97040 Y3.51022
G01 X-8.98295 Y3.52260
G01 X-9.01917 Y3.55895
G01 X-9.04172 Y3.58204
G01 X-9.07495 Y3.61676
G01 X-9.08659 Y3.62914
G01 X-9.11719 Y3.66221
G01 X-9.13575 Y3.68268
G01 X-9.16452 Y3.71505
G01 X-9.20196 Y3.75842
G01 X-9.21740 Y3.77676
G01 X-9.24231 Y3.80694
G01 X-9.26575 Y3.83604
G01 X-9.28855 Y3.86507
G01 X-9.31932 Y3.90547
G01 X-9.34016 Y3.93370
G01 X-9.36001 Y3.96130
G01 X-9.37866 Y3.98792
G01 X-9.39672 Y4.01438
G01 X-9.41377 Y4.04002
G01 X-9.43041 Y4.06572
G01 X-9.44641 Y4.09114
G01 X-9.46145 Y4.11567
G01 X-9.47602 Y4.14013
G01 X-9.48980 Y4.16390
G01 X-9.50320 Y4.18769
G01 X-9.51618 Y4.21141
G01 X-9.52856 Y4.23473
G01 X-9.54531 Y4.26745
G01 X-9.55633 Y4.28980
G01 X-9.57134 Y4.32139
G01 X-9.58235 Y4.34558
G01 X-9.59170 Y4.36684
G01 X-9.60085 Y4.38834
G01 X-9.61308 Y4.41831
G01 X-9.62117 Y4.43902
G01 X-9.63327 Y4.47153
G01 X-9.64053 Y4.49201
G01 X-9.64979 Y4.51942
G01 X-9.65622 Y4.53940
G01 X-9.66600 Y4.57160
G01 X-9.67163 Y4.59126
G01 X-9.67878 Y4.61772
G01 X-9.68660 Y4.64888
G01 X-9.69244 Y4.67411
G01 X-9.69654 Y4.69307
G01 X-9.70266 Y4.72379
G01 X-9.70717 Y4.74878
G01 X-9.71209 Y4.77927
G01 X-9.71550 Y4.80320
G01 X-9.71787 Y4.82163
G01 X-9.72129 Y4.85237
G01 X-9.72349 Y4.87600
G01 X-9.72492 Y4.89423
G01 X-9.72681 Y4.92481
G01 X-9.72785 Y4.94878
G01 X-9.72860 Y4.97930
G01 X-9.72874 Y5.00261
G01 X-9.72837 Y5.03313
G01 X-9.72763 Y5.05697
G01 X-9.72615 Y5.08704
G01 X-9.72457 Y5.11053
G01 X-9.72193 Y5.14117
G01 X-9.71945 Y5.16488
G01 X-9.71726 Y5.18328
G01 X-9.71307 Y5.21414
G01 X-9.70933 Y5.23830
G01 X-9.70394 Y5.26937
G01 X-9.70036 Y5.28815
G01 X-9.69526 Y5.31297
G01 X-9.68819 Y5.34440
G01 X-9.68355 Y5.36357
G01 X-9.67694 Y5.38926
G01 X-9.67161 Y5.40881
G01 X-9.66246 Y5.44032
G01 X-9.65419 Y5.46698
G01 X-9.64767 Y5.48697
G01 X-9.64111 Y5.50631
G01 X-9.63004 Y5.53739
G01 X-9.62105 Y5.56127
G01 X-9.60935 Y5.59099
G01 X-9.59559 Y5.62411
G01 X-9.58651 Y5.64504
G01 X-9.57683 Y5.66665
G01 X-9.56690 Y5.68808
G01 X-9.55179 Y5.71949
G01 X-9.54048 Y5.74213
G01 X-9.52892 Y5.76458
G01 X-9.51652 Y5.78794
G01 X-9.50359 Y5.81160
G01 X-9.48331 Y5.84738
G01 X-9.46912 Y5.87154
G01 X-9.45358 Y5.89724
G01 X-9.45406 Y5.89838
G01 X-9.45358 Y5.89724
G01 X-9.43125 Y5.89134
G01 X-9.40082 Y5.88360
G01 X-9.37439 Y5.87721
G01 X-9.34416 Y5.87024
G01 X-9.30523 Y5.86193
G01 X-9.26644 Y5.85442
G01 X-9.24190 Y5.85009
G01 X-9.22681 Y5.84761
G01 X-9.20817 Y5.84472
G01 X-9.18582 Y5.84157
G01 X-9.16338 Y5.83871
G01 X-9.15040 Y5.83722
G01 X-9.11960 Y5.83413
G01 X-9.08613 Y5.83155
G01 X-9.06768 Y5.83049
G01 X-9.04486 Y5.82951
G01 X-9.01576 Y5.82884
G01 X-8.99160 Y5.82878
G01 X-8.97435 Y5.82899
G01 X-8.94156 Y5.83004
G01 X-8.91189 Y5.83169
G01 X-8.88064 Y5.83412
G01 X-8.85670 Y5.83645
G01 X-8.84468 Y5.83778
G01 X-8.81283 Y5.84175
G01 X-8.78012 Y5.84650
G01 X-8.75689 Y5.85030
G01 X-8.73242 Y5.85462
G01 X-8.69367 Y5.86215
G01 X-8.65462 Y5.87052
G01 X-8.62711 Y5.87685
G01 X-8.61202 Y5.88047
G01 X-8.56711 Y5.89176
G01 X-8.51925 Y5.90463
G01 X-8.48547 Y5.91418
G01 X-8.46649 Y5.91971
G01 X-8.42860 Y5.93100
G01 X-8.36930 Y5.94946
G01 X-8.32607 Y5.96337
G01 X-8.29923 Y5.97222
G01 X-8.24937 Y5.98900
G01 X-8.19373 Y6.00816
G01 X-8.18964 Y6.01241
G01 X-8.19373 Y6.00816
G01 X-8.20919 Y5.95740
G01 X-8.22943 Y5.88959
G01 X-8.23917 Y5.85610
G01 X-8.24901 Y5.82156
G01 X-8.26394 Y5.76759
G01 X-8.27701 Y5.71829
G01 X-8.28817 Y5.67415
G01 X-8.29348 Y5.65229
G01 X-8.29798 Y5.63322
G01 X-8.30632 Y5.59619
G01 X-8.31055 Y5.57641
G01 X-8.31742 Y5.54223
G01 X-8.32312 Y5.51121
G01 X-8.32519 Y5.49914
G01 X-8.32971 Y5.47063
G01 X-8.33341 Y5.44398
G01 X-8.33635 Y5.41921
G01 X-8.33792 Y5.40368
G01 X-8.33984 Y5.38066
G01 X-8.34118 Y5.35827
G01 X-8.34291 Y5.30939
G01 X-8.34390 Y5.28945
G01 X-8.34508 Y5.27029
G01 X-8.34650 Y5.25106
G01 X-8.34808 Y5.23270
G01 X-8.34986 Y5.21456
G01 X-8.35189 Y5.19625
G01 X-8.35588 Y5.16498
G01 X-8.35836 Y5.14787
G01 X-8.36108 Y5.13060
G01 X-8.36397 Y5.11356
G01 X-8.36696 Y5.09725
G01 X-8.37423 Y5.06089
G01 X-8.37685 Y5.04490
G01 X-8.37837 Y5.03226
G01 X-8.37959 Y5.01627
G01 X-8.38000 Y5.00096
G01 X-8.37968 Y4.98572
G01 X-8.37859 Y4.96996
G01 X-8.37669 Y4.95402
G01 X-8.37411 Y4.93846
G01 X-8.36684 Y4.90214
G01 X-8.36387 Y4.88583
G01 X-8.36097 Y4.86878
G01 X-8.35825 Y4.85144
G01 X-8.35571 Y4.83380
G01 X-8.35336 Y4.81595
G01 X-8.35125 Y4.79821
G01 X-8.34797 Y4.76610
G01 X-8.34640 Y4.74763
G01 X-8.34499 Y4.72839
G01 X-8.34379 Y4.70865
G01 X-8.34285 Y4.68911
G01 X-8.34147 Y4.64827
G01 X-8.34035 Y4.62687
G01 X-8.33784 Y4.59551
G01 X-8.33520 Y4.57057
G01 X-8.33320 Y4.55442
G01 X-8.32954 Y4.52823
G01 X-8.32502 Y4.49985
G01 X-8.31975 Y4.47009
G01 X-8.31737 Y4.45751
G01 X-8.31034 Y4.42273
G01 X-8.30292 Y4.38846
G01 X-8.29725 Y4.36364
G01 X-8.28736 Y4.32254
G01 X-8.27588 Y4.27733
G01 X-8.26250 Y4.22710
G01 X-8.24735 Y4.17255
G01 X-8.23766 Y4.13867
G01 X-8.22951 Y4.11066
G01 X-8.20900 Y4.04180
G01 X-8.18464 Y3.96240
G01 X-8.16665 Y3.90499
G01 X-8.15547 Y3.86975
G01 X-8.12147 Y3.76404
G01 X-8.09567 Y3.68246
G01 X-8.08328 Y3.64244
G01 X-8.05381 Y3.54513
G01 X-8.04142 Y3.50328
G01 X-8.00888 Y3.39081
G01 X-7.99688 Y3.34843
G01 X-7.96028 Y3.21589
G01 X-7.94789 Y3.16995
G01 X-7.90693 Y3.01428
G01 X-7.87985 Y2.90830
G01 X-7.84796 Y2.78199
G01 X-7.80896 Y2.62910
G01 X-7.80397 Y2.62223
G04 P0 ( dwell for no time -- G64 should not smooth over this point )
G00 Z0.08000 ( retract )

G00 X-6.74237 Y2.79387 ( rapid move to begin. )
G01 F3.00000
( Mill infeed pass 1/1 )
G01 Z-0.00800
G04 P0 ( dwell for no time -- G64 should not smooth over this point )
G01 F6.00000
G01 X-6.74237 Y2.79387
G01 X-6.73143 Y2.84381
G01 X-6.43614 Y3.58332
G01 X-6.39797 Y3.68142
G01 X-6.36323 Y3.77606
G01 X-6.33186 Y3.86728
G01 X-6.30389 Y3.95509
G01 X-6.27930 Y4.03948
G01 X-6.25809 Y4.12044
G01 X-6.24026 Y4.19797
G01 X-6.22579 Y4.27221
G01 X-6.17730 Y4.54718
G01 X-6.16700 Y4.59860
G01 X-6.15521 Y4.64525
G01 X-6.14146 Y4.68903
G01 X-6.12589 Y4.72920
G01 X-6.10804 Y4.76662
G01 X-6.09856 Y4.78360
G01 X-6.08861 Y4.79967
G01 X-6.07861 Y4.81420
G01 X-6.06773 Y4.82844
G01 X-6.05637 Y4.84176
G01 X-6.04450 Y4.85415
G01 X-6.04248 Y4.85591
G01 X-6.04018 Y4.85728
G01 X-6.02204 Y4.86593
G01 X-5.99403 Y4.87868
G01 X-5.98490 Y4.88317
G01 X-5.97387 Y4.88919
G01 X-5.96404 Y4.89521
G01 X-5.95276 Y4.90293
G01 X-5.94373 Y4.90988
G01 X-5.93734 Y4.91524
G01 X-5.92949 Y4.92239
G01 X-5.92265 Y4.92921
G01 X-5.91387 Y4.93893
G01 X-5.90679 Y4.94764
G01 X-5.89999 Y4.95689
G01 X-5.89537 Y4.96379
G01 X-5.88805 Y4.97588
G01 X-5.88207 Y4.98705
G01 X-5.87635 Y4.99913
G01 X-5.87207 Y5.00928
G01 X-5.86707 Y5.02274
G01 X-5.86255 Y5.03691
G01 X-5.85800 Y5.05387
G01 X-5.85331 Y5.07616
G01 X-5.85033 Y5.09506
G01 X-5.84979 Y5.09917
G01 X-5.84720 Y5.12483
G01 X-5.84580 Y5.15290
G01 X-5.84570 Y5.18093
G01 X-5.84578 Y5.18519
G01 X-5.84746 Y5.22093
G01 X-5.84727 Y5.22457
G01 X-5.76893 Y5.66883
G01 X-5.76291 Y5.70632
G01 X-5.75788 Y5.74483
G01 X-5.53727 Y7.64471
G01 X-5.52464 Y7.65444
G01 X-5.52621 Y7.65323
G01 X-5.61985 Y7.66654
G01 X-5.71826 Y7.67837
G01 X-5.81667 Y7.68806
G01 X-5.91507 Y7.69560
G01 X-6.01348 Y7.70099
G01 X-6.11188 Y7.70423
G01 X-6.21029 Y7.70533
G01 X-6.30870 Y7.70427
G01 X-6.40710 Y7.70108
G01 X-6.50551 Y7.69573
G01 X-6.60391 Y7.68823
G01 X-6.70232 Y7.67859
G01 X-6.80073 Y7.66680
G01 X-6.89914 Y7.65287
G01 X-6.99755 Y7.63678
G01 X-7.09294 Y7.61911
G01 X-7.09354 Y7.61977
