( pcb2gcode 2.2.2 )
( Software-independent Gcode )

G94 ( Inches per minute feed rate. )
G20 ( Units == INCHES. )

G90 ( Absolute coordinates. )
G00 S30000 ( RPM spindle speed. )
G64 P0.00040 ( set maximum deviation from commanded toolpath )
G01 F6.00000 ( Feedrate. )


G00 Z1.00000 (Retract to tool change height)
T0
M5      (Spindle stop.)
G04 P1.00000 (Wait for spindle to stop)
(MSG, Change tool bit to mill diameter 0.02000in)
M6      (Tool change.)
M0      (Temporary machine stop.)
M3 ( Spindle on clockwise. )
G04 P1.00000 (Wait for spindle to get up to speed)
G04 P0 ( dwell for no time -- G64 should not smooth over this point )
G00 Z0.08000 ( retract )

G00 X0.10396 Y-0.10396 ( rapid move to begin. )
G01 F3.00000
( Mill infeed pass 1/1 )
G01 Z-0.00800
G04 P0 ( dwell for no time -- G64 should not smooth over this point )
G01 F6.00000
G01 X0.10396 Y-0.10396
G01 X0.10250 Y-0.10250
G01 X0.10250 Y10.10250
G01 X0.10396 Y10.10396
G01 X0.10250 Y10.10250
G01 X-10.10250 Y10.10250
G01 X-10.10396 Y10.10396
G01 X-10.10250 Y10.10250
G01 X-10.10250 Y-0.10250
G01 X-10.10396 Y-0.10396
G01 X-10.10250 Y-0.10250
G01 X0.10250 Y-0.10250
G01 X0.09250 Y-0.09250
G01 X0.09250 Y10.09250
G01 X0.09543 Y10.09543
G01 X0.09250 Y10.09250
G01 X-10.09250 Y10.09250
G01 X-10.09543 Y10.09543
G01 X-10.09250 Y10.09250
G01 X-10.09250 Y-0.09250
G01 X-10.09543 Y-0.09543
G01 X-10.09250 Y-0.09250
G01 X0.09250 Y-0.09250
G04 P0 ( dwell for no time -- G64 should not smooth over this point )
G00 Z0.08000 ( retract )

G00 X-1.22554 Y3.80841 ( rapid move to begin. )
G01 F3.00000
( Mill infeed pass 1/1 )
G01 Z-0.00800
G04 P0 ( dwell for no time -- G64 should not smooth over this point )
G01 F6.00000
G01 X-1.22554 Y3.80841
G01 X-1.59494 Y4.12102
G01 X-1.64014 Y4.15855
G01 X-1.68430 Y4.19376
G01 X-1.83925 Y4.31470
G01 X-1.87081 Y4.33858
G01 X-1.90197 Y4.36064
G01 X-1.98221 Y4.41549
G01 X-2.00794 Y4.43232
G01 X-2.03365 Y4.44761
G01 X-2.08865 Y4.47869
G01 X-2.13670 Y4.50488
G01 X-2.16019 Y4.51845
G01 X-2.18234 Y4.53282
G01 X-2.22646 Y4.56315
G01 X-2.24635 Y4.57762
G01 X-2.26504 Y4.59274
G01 X-2.30491 Y4.62679
G01 X-2.32264 Y4.64279
G01 X-2.33896 Y4.65911
G01 X-2.37495 Y4.69703
G01 X-2.39110 Y4.71499
G01 X-2.40585 Y4.73323
G01 X-2.43795 Y4.77506
G01 X-2.45310 Y4.79596
G01 X-2.46685 Y4.81715
G01 X-2.49493 Y4.86297
G01 X-2.50908 Y4.88750
G01 X-2.52247 Y4.91379
G01 X-2.54634 Y4.96383
G01 X-2.56000 Y4.99458
G01 X-2.57258 Y5.02739
G01 X-2.59191 Y5.08197
G01 X-2.60487 Y5.12199
G01 X-2.61614 Y5.16415
G01 X-2.63054 Y5.22412
G01 X-2.63783 Y5.25696
G01 X-2.64645 Y5.33421
G01 X-2.65016 Y5.36554
G01 X-2.65479 Y5.39745
G01 X-2.66791 Y5.48051
G01 X-2.68024 Y5.56164
G01 X-2.68690 Y5.60262
G01 X-2.69457 Y5.64450
G01 X-2.70551 Y5.70130
G01 X-2.75687 Y5.97412
G01 X-2.77964 Y6.08751
G01 X-3.01127 Y7.18348
G01 X-3.01806 Y7.21545
G01 X-3.06063 Y7.41138
G01 X-3.07680 Y7.48429
G01 X-3.07498 Y7.48660
G01 X-3.07680 Y7.48429
G01 X-3.13392 Y7.48317
G01 X-3.20321 Y7.48085
G01 X-3.27249 Y7.47755
G01 X-3.32895 Y7.47407
G01 X-3.33120 Y7.47637
G01 X-3.32895 Y7.47407
G01 X-3.37959 Y6.87304
G01 X-3.45013 Y6.05342
G01 X-3.48022 Y5.71567
G01 X-3.48250 Y5.68858
G01 X-3.48500 Y5.65525
G01 X-3.48500 Y5.36486
G01 X-3.48194 Y5.33069
G01 X-3.47806 Y5.29671
G01 X-3.46073 Y5.15273
G01 X-3.44884 Y5.04693
G01 X-3.43945 Y4.95725
G01 X-3.43006 Y4.86036
G01 X-3.41989 Y4.74594
G01 X-3.40994 Y4.62378
G01 X-3.39665 Y4.44751
G01 X-3.39661 Y4.37598
G01 X-3.39804 Y4.29892
G01 X-3.40231 Y4.21908
G01 X-3.40941 Y4.13644
G01 X-3.41934 Y4.05101
G01 X-3.43204 Y3.96318
G01 X-3.44769 Y3.87178
G01 X-3.46604 Y3.77831
G01 X-3.48735 Y3.68137
G01 X-3.51134 Y3.58225
G01 X-3.53830 Y3.47975
G01 X-3.56793 Y3.37499
G01 X-3.60053 Y3.26691
G01 X-3.63581 Y3.15650
G01 X-3.67405 Y3.04284
G01 X-3.71497 Y2.92679
G01 X-3.75883 Y2.80763
G01 X-3.88809 Y2.46330
G01 X-3.89192 Y2.46154
G01 X-3.88809 Y2.46330
G01 X-3.79308 Y2.42877
G01 X-3.68398 Y2.39192
G01 X-3.57488 Y2.35789
G01 X-3.46581 Y2.32669
G01 X-3.35673 Y2.29829
G01 X-3.24766 Y2.27271
G01 X-3.13860 Y2.24994
G01 X-3.02955 Y2.23000
G01 X-2.92049 Y2.21286
G01 X-2.81144 Y2.19853
G01 X-2.70240 Y2.18702
G01 X-2.59335 Y2.17832
G01 X-2.48431 Y2.17243
G01 X-2.37527 Y2.16936
G01 X-2.26624 Y2.16909
G01 X-2.16340 Y2.17150
G01 X-2.16304 Y2.17070
G01 X-2.16340 Y2.17150
G01 X-2.10070 Y2.24011
G01 X-2.03614 Y2.31333
G01 X-1.97394 Y2.38656
G01 X-1.91413 Y2.45977
G01 X-1.85667 Y2.53297
G01 X-1.80158 Y2.60616
G01 X-1.74886 Y2.67934
G01 X-1.69851 Y2.75250
G01 X-1.65051 Y2.82565
G01 X-1.60490 Y2.89879
G01 X-1.56164 Y2.97192
G01 X-1.52075 Y3.04503
G01 X-1.48223 Y3.11813
G01 X-1.44606 Y3.19122
G01 X-1.41226 Y3.26429
G01 X-1.38078 Y3.33745
G01 X-1.36014 Y3.38727
G01 X-1.33849 Y3.44110
G01 X-1.31818 Y3.49485
G01 X-1.29915 Y3.54858
G01 X-1.28143 Y3.60231
G01 X-1.26500 Y3.65604
G01 X-1.24987 Y3.70975
G01 X-1.23604 Y3.76347
G01 X-1.22554 Y3.80841
G01 X-1.21441 Y3.81209
G01 X-1.58851 Y4.12869
G01 X-1.63383 Y4.16631
G01 X-1.67811 Y4.20161
G01 X-1.83316 Y4.32263
G01 X-1.86490 Y4.34664
G01 X-1.89626 Y4.36885
G01 X-1.97665 Y4.42380
G01 X-2.00265 Y4.44081
G01 X-2.02864 Y4.45626
G01 X-2.08377 Y4.48742
G01 X-2.13171 Y4.51354
G01 X-2.15475 Y4.52684
G01 X-2.17667 Y4.54106
G01 X-2.22059 Y4.57124
G01 X-2.23986 Y4.58523
G01 X-2.25855 Y4.60035
G01 X-2.29842 Y4.63440
G01 X-2.31557 Y4.64986
G01 X-2.33171 Y4.66599
G01 X-2.36770 Y4.70392
G01 X-2.38333 Y4.72128
G01 X-2.39792 Y4.73932
G01 X-2.43002 Y4.78115
G01 X-2.44457 Y4.80118
G01 X-2.45832 Y4.82238
G01 X-2.48647 Y4.86831
G01 X-2.50054 Y4.89272
G01 X-2.51339 Y4.91798
G01 X-2.53731 Y4.96814
G01 X-2.55096 Y4.99888
G01 X-2.56315 Y5.03073
G01 X-2.58248 Y5.08531
G01 X-2.59543 Y5.12532
G01 X-2.60651 Y5.16685
G01 X-2.62081 Y5.22645
G01 X-2.62807 Y5.25913
G01 X-2.63651 Y5.33530
G01 X-2.64025 Y5.36685
G01 X-2.64490 Y5.39895
G01 X-2.65803 Y5.48206
G01 X-2.67036 Y5.56319
G01 X-2.67705 Y5.60432
G01 X-2.68474 Y5.64635
G01 X-2.69568 Y5.70315
G01 X-2.74706 Y5.97604
G01 X-2.76985 Y6.08953
G01 X-3.00829 Y7.21755
G01 X-3.05086 Y7.41353
G01 X-3.06881 Y7.49445
G01 X-3.06790 Y7.49561
G01 X-3.06881 Y7.49445
G01 X-3.13419 Y7.49317
G01 X-3.20362 Y7.49084
G01 X-3.27304 Y7.48754
G01 X-3.33819 Y7.48351
G01 X-3.33931 Y7.48466
G01 X-3.33819 Y7.48351
G01 X-3.38956 Y6.87388
G01 X-3.46009 Y6.05431
G01 X-3.49019 Y5.71653
G01 X-3.49247 Y5.68939
G01 X-3.49500 Y5.65562
G01 X-3.49500 Y5.36441
G01 X-3.49188 Y5.32968
G01 X-3.48799 Y5.29551
G01 X-3.47067 Y5.15161
G01 X-3.45878 Y5.04584
G01 X-3.44940 Y4.95621
G01 X-3.44001 Y4.85939
G01 X-3.42986 Y4.74507
G01 X-3.41991 Y4.62297
G01 X-3.40662 Y4.44674
G01 X-3.40661 Y4.37617
G01 X-3.40803 Y4.29945
G01 X-3.41228 Y4.21993
G01 X-3.41934 Y4.13759
G01 X-3.42924 Y4.05244
G01 X-3.44196 Y3.96449
G01 X-3.45750 Y3.87371
G01 X-3.47585 Y3.78024
G01 X-3.49705 Y3.68383
G01 X-3.52108 Y3.58451
G01 X-3.54792 Y3.48247
G01 X-3.57755 Y3.37771
G01 X-3.61003 Y3.27004
G01 X-3.64534 Y3.15955
G01 X-3.68348 Y3.04617
G01 X-3.72440 Y2.93012
G01 X-3.76819 Y2.81114
G01 X-3.90100 Y2.45735
G01 X-3.90292 Y2.45647
G01 X-3.90100 Y2.45735
G01 X-3.79638 Y2.41933
G01 X-3.68707 Y2.38240
G01 X-3.57775 Y2.34831
G01 X-3.46844 Y2.31704
G01 X-3.35913 Y2.28858
G01 X-3.24983 Y2.26295
G01 X-3.14052 Y2.24013
G01 X-3.03122 Y2.22014
G01 X-2.92191 Y2.20296
G01 X-2.81262 Y2.18859
G01 X-2.70332 Y2.17706
G01 X-2.59402 Y2.16834
G01 X-2.48472 Y2.16244
G01 X-2.37542 Y2.15936
G01 X-2.26613 Y2.15909
G01 X-2.15890 Y2.16160
G01 X-2.15872 Y2.16120
G01 X-2.15890 Y2.16160
G01 X-2.09326 Y2.23343
G01 X-2.02858 Y2.30679
G01 X-1.96626 Y2.38016
G01 X-1.90632 Y2.45351
G01 X-1.84874 Y2.52688
G01 X-1.79353 Y2.60022
G01 X-1.74069 Y2.67358
G01 X-1.69021 Y2.74692
G01 X-1.64209 Y2.82026
G01 X-1.59635 Y2.89359
G01 X-1.55297 Y2.96693
G01 X-1.51196 Y3.04026
G01 X-1.47332 Y3.11358
G01 X-1.43704 Y3.18690
G01 X-1.40312 Y3.26022
G01 X-1.37157 Y3.33356
G01 X-1.35088 Y3.38349
G01 X-1.32918 Y3.43747
G01 X-1.30879 Y3.49141
G01 X-1.28969 Y3.54535
G01 X-1.27189 Y3.59928
G01 X-1.25541 Y3.65322
G01 X-1.24022 Y3.70715
G01 X-1.22633 Y3.76108
G01 X-1.21441 Y3.81209
G01 X-1.21360 Y3.81236
G04 P0 ( dwell for no time -- G64 should not smooth over this point )
G00 Z0.08000 ( retract )

G00 X-0.87625 Y4.99980 ( rapid move to begin. )
G01 F3.00000
( Mill infeed pass 1/1 )
G01 Z-0.00800
G04 P0 ( dwell for no time -- G64 should not smooth over this point )
G01 F6.00000
G01 X-0.87625 Y4.99980
G01 X-0.87685 Y4.95443
G01 X-0.87862 Y4.90945
G01 X-0.88136 Y4.85700
G01 X-0.88437 Y4.81113
G01 X-0.88865 Y4.76467
G01 X-0.89412 Y4.71861
G01 X-0.90075 Y4.67295
G01 X-0.90906 Y4.62050
G01 X-0.91729 Y4.57266
G01 X-0.92695 Y4.52424
G01 X-0.93776 Y4.47660
G01 X-0.94996 Y4.42858
G01 X-0.96407 Y4.37592
G01 X-0.97863 Y4.32440
G01 X-0.99456 Y4.27327
G01 X-1.01221 Y4.22139
G01 X-1.03110 Y4.17026
G01 X-1.05123 Y4.11782
G01 X-1.07405 Y4.06070
G01 X-1.09842 Y4.00415
G01 X-1.12490 Y3.94690
G01 X-1.15291 Y3.89017
G01 X-1.17959 Y3.83782
G01 X-1.19474 Y3.80872
G01 X-1.20686 Y3.75648
G01 X-1.22095 Y3.70178
G01 X-1.23617 Y3.64774
G01 X-1.25279 Y3.59338
G01 X-1.27082 Y3.53872
G01 X-1.28995 Y3.48468
G01 X-1.31060 Y3.43005
G01 X-1.33233 Y3.37600
G01 X-1.35310 Y3.32587
G01 X-1.38478 Y3.25225
G01 X-1.41891 Y3.17844
G01 X-1.45560 Y3.10432
G01 X-1.49448 Y3.03055
G01 X-1.53555 Y2.95712
G01 X-1.57935 Y2.88306
G01 X-1.62515 Y2.80963
G01 X-1.67370 Y2.73563
G01 X-1.72443 Y2.66193
G01 X-1.77733 Y2.58849
G01 X-1.83298 Y2.51457
G01 X-1.89062 Y2.44113
G01 X-1.95080 Y2.36747
G01 X-2.01355 Y2.29360
G01 X-2.07847 Y2.21997
G01 X-2.14558 Y2.14653
G01 X-2.14783 Y2.14452
G01 X-2.15044 Y2.14300
G01 X-2.15330 Y2.14203
G01 X-2.15630 Y2.14165
G01 X-2.26573 Y2.13909
G01 X-2.37554 Y2.13936
G01 X-2.48574 Y2.14246
G01 X-2.59516 Y2.14837
G01 X-2.70535 Y2.15716
G01 X-2.81516 Y2.16876
G01 X-2.92496 Y2.18319
G01 X-3.03439 Y2.20039
G01 X-3.14418 Y2.22046
G01 X-3.25398 Y2.24339
G01 X-3.36375 Y2.26913
G01 X-3.47389 Y2.29780
G01 X-3.58331 Y2.32910
G01 X-3.69341 Y2.36344
G01 X-3.80284 Y2.40040
G01 X-3.91019 Y2.43941
G01 X-3.91016 Y2.43955
G01 X-3.91019 Y2.43941
G01 X-4.03038 Y2.44083
G01 X-4.15018 Y2.44527
G01 X-4.15020 Y2.44541
G01 X-4.15018 Y2.44527
G01 X-4.23226 Y2.41970
G01 X-4.31654 Y2.39506
G01 X-4.40108 Y2.37196
G01 X-4.48588 Y2.35041
G01 X-4.57041 Y2.33055
G01 X-4.65497 Y2.31230
G01 X-4.73925 Y2.29573
G01 X-4.82407 Y2.28066
G01 X-4.90835 Y2.26732
G01 X-4.99319 Y2.25551
G01 X-5.07747 Y2.24539
G01 X-5.16202 Y2.23685
G01 X-5.24687 Y2.22991
G01 X-5.33115 Y2.22463
G01 X-5.41601 Y2.22094
G01 X-5.50057 Y2.21889
G01 X-5.58514 Y2.21845
G01 X-5.66942 Y2.21962
G01 X-5.75426 Y2.22243
G01 X-5.83854 Y2.22683
G01 X-5.92311 Y2.23287
G01 X-6.00795 Y2.24055
G01 X-6.09252 Y2.24982
G01 X-6.17680 Y2.26068
G01 X-6.26136 Y2.27319
G01 X-6.34618 Y2.28736
G01 X-6.43046 Y2.30306
G01 X-6.51528 Y2.32048
G01 X-6.59956 Y2.33941
G01 X-6.68436 Y2.36008
G01 X-6.76864 Y2.38223
G01 X-6.85127 Y2.40562
G01 X-6.96248 Y2.40708
G01 X-7.07564 Y2.41133
G01 X-7.18845 Y2.41822
G01 X-7.30014 Y2.42773
G01 X-7.36933 Y2.41982
G01 X-7.44044 Y2.41280
G01 X-7.51111 Y2.40688
G01 X-7.58200 Y2.40200
G01 X-7.58499 Y2.40210
G01 X-7.58789 Y2.40278
G01 X-7.59061 Y2.40403
G01 X-7.59302 Y2.40578
G01 X-7.64938 Y2.45615
G01 X-7.70465 Y2.50662
G01 X-7.75883 Y2.55722
G01 X-7.81041 Y2.60657
G01 X-7.90448 Y2.66519
G01 X-7.99686 Y2.72467
G01 X-8.08608 Y2.78403
G01 X-8.17263 Y2.84359
G01 X-8.32191 Y2.94812
G01 X-8.42769 Y3.02404
G01 X-8.52801 Y3.09982
G01 X-8.57609 Y3.13762
G01 X-8.62317 Y3.17568
G01 X-8.66879 Y3.21362
G01 X-8.71293 Y3.25142
G01 X-8.83324 Y3.35601
G01 X-8.89387 Y3.41001
G01 X-8.95117 Y3.46363
G01 X-9.00612 Y3.51781
G01 X-9.05774 Y3.57159
G01 X-9.15533 Y3.67624
G01 X-9.19119 Y3.71564
G01 X-9.22580 Y3.75563
G01 X-9.25813 Y3.79504
G01 X-9.28896 Y3.83475
G01 X-9.36785 Y3.93944
G01 X-9.39006 Y3.96968
G01 X-9.41101 Y3.99978
G01 X-9.43083 Y4.02991
G01 X-9.44940 Y4.05986
G01 X-9.51222 Y4.16439
G01 X-9.53888 Y4.21143
G01 X-9.58549 Y4.30441
G01 X-9.59035 Y4.31483
G01 X-9.61013 Y4.36082
G01 X-9.62740 Y4.40031
G01 X-9.64174 Y4.43851
G01 X-9.67773 Y4.54304
G01 X-9.68758 Y4.57421
G01 X-9.69589 Y4.60617
G01 X-9.72002 Y4.71070
G01 X-9.72559 Y4.73800
G01 X-9.72982 Y4.76607
G01 X-9.74265 Y4.87060
G01 X-9.74508 Y4.89585
G01 X-9.74624 Y4.92190
G01 X-9.74807 Y5.02682
G01 X-9.74782 Y5.05220
G01 X-9.74632 Y5.07680
G01 X-9.73714 Y5.18172
G01 X-9.73413 Y5.20814
G01 X-9.72959 Y5.23532
G01 X-9.70927 Y5.33985
G01 X-9.70268 Y5.36953
G01 X-9.69424 Y5.39994
G01 X-9.66936 Y5.48133
G01 X-9.66164 Y5.50737
G01 X-9.65254 Y5.53403
G01 X-9.64879 Y5.54433
G01 X-9.63793 Y5.57235
G01 X-9.62617 Y5.59950
G01 X-9.59204 Y5.67989
G01 X-9.57231 Y5.72308
G01 X-9.54944 Y5.76694
G01 X-9.49151 Y5.87146
G01 X-9.47203 Y5.90504
G01 X-9.47119 Y5.90493
G01 X-9.47203 Y5.90504
G01 X-9.47933 Y5.93128
G01 X-9.49183 Y5.98316
G01 X-9.50157 Y6.03544
G01 X-9.50277 Y6.04301
G01 X-9.50932 Y6.09264
G01 X-9.51331 Y6.14306
G01 X-9.51370 Y6.15024
G01 X-9.51499 Y6.19961
G01 X-9.51371 Y6.24936
G01 X-9.51331 Y6.25694
G01 X-9.50940 Y6.30658
G01 X-9.50277 Y6.35699
G01 X-9.50163 Y6.36418
G01 X-9.49183 Y6.41684
G01 X-9.47942 Y6.46835
G01 X-9.47751 Y6.47551
G01 X-9.46130 Y6.53008
G01 X-9.44172 Y6.58534
G01 X-9.42701 Y6.62245
G01 X-9.41421 Y6.65219
G01 X-9.40029 Y6.68229
G01 X-9.38191 Y6.71935
G01 X-9.36400 Y6.75335
G01 X-9.34520 Y6.78680
G01 X-9.32503 Y6.82058
G01 X-9.29917 Y6.86130
G01 X-9.27338 Y6.89980
G01 X-9.24572 Y6.93877
G01 X-9.21698 Y6.97709
G01 X-9.18088 Y7.02263
G01 X-9.14255 Y7.06860
G01 X-9.10191 Y7.11473
G01 X-9.05885 Y7.16109
G01 X-9.01413 Y7.20690
G01 X-9.00705 Y7.21398
G01 X-8.94842 Y7.27093
G01 X-8.88587 Y7.32843
G01 X-8.82028 Y7.38562
G01 X-8.75163 Y7.44258
G01 X-8.74311 Y7.44948
G01 X-8.69627 Y7.48685
G01 X-8.64827 Y7.52401
G01 X-8.59852 Y7.56142
G01 X-8.54754 Y7.59869
G01 X-8.49530 Y7.63585
G01 X-8.44128 Y7.67327
G01 X-8.32961 Y7.74769
G01 X-8.31915 Y7.75449
G01 X-8.23471 Y7.80839
G01 X-8.14764 Y7.86212
G01 X-8.05726 Y7.91607
G01 X-7.96432 Y7.96980
G01 X-7.96157 Y7.97103
G01 X-7.95864 Y7.97170
G01 X-7.95563 Y7.97176
G01 X-7.95267 Y7.97123
G01 X-7.85815 Y7.94408
G01 X-7.75623 Y7.91214
G01 X-7.69985 Y7.89337
G01 X-7.64327 Y7.87370
G01 X-7.52984 Y7.83169
G01 X-7.41672 Y7.78638
G01 X-7.30376 Y7.73774
G01 X-7.19343 Y7.68714
G01 X-7.09480 Y7.63911
G01 X-7.09487 Y7.63858
G01 X-7.09480 Y7.63911
G01 X-7.00114 Y7.65646
G01 X-6.90199 Y7.67266
G01 X-6.80316 Y7.68665
G01 X-6.70432 Y7.69849
G01 X-6.60549 Y7.70818
G01 X-6.50665 Y7.71570
G01 X-6.40781 Y7.72106
G01 X-6.30930 Y7.72426
G01 X-6.21012 Y7.72532
G01 X-6.11161 Y7.72423
G01 X-6.01276 Y7.72097
G01 X-5.91360 Y7.71554
G01 X-5.81476 Y7.70797
G01 X-5.71593 Y7.69823
G01 X-5.61741 Y7.68638
G01 X-5.51984 Y7.67249
G01 X-5.44474 Y7.67463
G01 X-5.36862 Y7.67550
G01 X-5.29201 Y7.67512
G01 X-5.21564 Y7.67347
G01 X-5.13952 Y7.67058
G01 X-5.06291 Y7.66640
G01 X-4.98679 Y7.66099
G01 X-4.91018 Y7.65429
G01 X-4.83382 Y7.64634
G01 X-4.75746 Y7.63714
G01 X-4.68134 Y7.62671
G01 X-4.60498 Y7.61500
G01 X-4.52839 Y7.60198
G01 X-4.45204 Y7.58773
G01 X-4.37592 Y7.57228
G01 X-4.30140 Y7.55585
G01 X-4.18327 Y7.55969
G01 X-4.06290 Y7.56055
G01 X-3.94215 Y7.55842
G01 X-3.82179 Y7.55331
G01 X-3.70179 Y7.54524
G01 X-3.58107 Y7.53413
G01 X-3.46071 Y7.52007
G01 X-3.34222 Y7.50325
G01 X-3.27402 Y7.50751
G01 X-3.20453 Y7.51082
G01 X-3.13461 Y7.51317
G01 X-3.06642 Y7.51446
G01 X-2.94513 Y7.53825
G01 X-2.82220 Y7.55915
G01 X-2.69926 Y7.57686
G01 X-2.57632 Y7.59139
G01 X-2.52387 Y7.59690
G01 X-2.40872 Y7.60761
G01 X-2.40570 Y7.60758
G01 X-2.40274 Y7.60695
G01 X-2.39997 Y7.60574
G01 X-2.39751 Y7.60400
G01 X-2.29622 Y7.51621
G01 X-2.19877 Y7.42840
G01 X-2.10517 Y7.34058
G01 X-2.01564 Y7.25298
G01 X-1.96326 Y7.20061
G01 X-1.87299 Y7.10813
G01 X-1.82923 Y7.06161
G01 X-1.78689 Y7.01544
G01 X-1.74553 Y6.96911
G01 X-1.70513 Y6.92263
G01 X-1.66609 Y6.87645
G01 X-1.62802 Y6.83012
G01 X-1.58563 Y6.77777
G01 X-1.52574 Y6.70193
G01 X-1.46876 Y6.62593
G01 X-1.41482 Y6.54991
G01 X-1.36390 Y6.47387
G01 X-1.32973 Y6.42127
G01 X-1.28897 Y6.35678
G01 X-1.25026 Y6.29196
G01 X-1.21363 Y6.22677
G01 X-1.17955 Y6.16209
G01 X-1.15283 Y6.10966
G01 X-1.12490 Y6.05310
G01 X-1.09842 Y5.99585
G01 X-1.07390 Y5.93893
G01 X-1.05123 Y5.88218
G01 X-1.03110 Y5.82974
G01 X-1.01208 Y5.77824
G01 X-0.99456 Y5.72673
G01 X-0.97863 Y5.67560
G01 X-0.96407 Y5.62408
G01 X-0.94996 Y5.57142
G01 X-0.93785 Y5.52378
G01 X-0.92695 Y5.47576
G01 X-0.91729 Y5.42734
G01 X-0.90906 Y5.37950
G01 X-0.90075 Y5.32705
G01 X-0.89412 Y5.28139
G01 X-0.88865 Y5.23533
G01 X-0.88437 Y5.18887
G01 X-0.88136 Y5.14300
G01 X-0.87862 Y5.09055
G01 X-0.87685 Y5.04557
G01 X-0.87625 Y4.99980
G01 X-0.88625 Y4.99993
G01 X-0.88684 Y4.95482
G01 X-0.88861 Y4.90978
G01 X-0.89135 Y4.85752
G01 X-0.89435 Y4.81178
G01 X-0.89858 Y4.76585
G01 X-0.90402 Y4.72005
G01 X-0.91065 Y4.67439
G01 X-0.91893 Y4.62207
G01 X-0.92714 Y4.57435
G01 X-0.93670 Y4.52645
G01 X-0.94751 Y4.47881
G01 X-0.95965 Y4.43105
G01 X-0.97368 Y4.37871
G01 X-0.98814 Y4.32750
G01 X-1.00415 Y4.27612
G01 X-1.02159 Y4.22486
G01 X-1.04048 Y4.17373
G01 X-1.06059 Y4.12134
G01 X-1.08319 Y4.06478
G01 X-1.10761 Y4.00811
G01 X-1.13381 Y3.95144
G01 X-1.16180 Y3.89477
G01 X-1.18847 Y3.84242
G01 X-1.20416 Y3.81220
G01 X-1.21660 Y3.75875
G01 X-1.23058 Y3.70449
G01 X-1.24583 Y3.65035
G01 X-1.26238 Y3.59620
G01 X-1.28021 Y3.54216
G01 X-1.29941 Y3.48792
G01 X-1.31988 Y3.43378
G01 X-1.34161 Y3.37973
G01 X-1.36234 Y3.32970
G01 X-1.39402 Y3.25608
G01 X-1.42799 Y3.18264
G01 X-1.46439 Y3.10909
G01 X-1.50315 Y3.03554
G01 X-1.54434 Y2.96189
G01 X-1.58784 Y2.88835
G01 X-1.63364 Y2.81492
G01 X-1.68188 Y2.74139
G01 X-1.73254 Y2.66778
G01 X-1.78544 Y2.59434
G01 X-1.84085 Y2.52074
G01 X-1.89849 Y2.44730
G01 X-1.95855 Y2.37380
G01 X-2.02105 Y2.30021
G01 X-2.08585 Y2.22672
G01 X-2.15296 Y2.15328
G01 X-2.15371 Y2.15260
G01 X-2.15458 Y2.15210
G01 X-2.15553 Y2.15178
G01 X-2.15653 Y2.15165
G01 X-2.26596 Y2.14909
G01 X-2.37564 Y2.14936
G01 X-2.48507 Y2.15244
G01 X-2.59475 Y2.15836
G01 X-2.70418 Y2.16710
G01 X-2.81386 Y2.17867
G01 X-2.92341 Y2.19307
G01 X-3.03284 Y2.21027
G01 X-3.14250 Y2.23033
G01 X-3.25193 Y2.25318
G01 X-3.36159 Y2.27889
G01 X-3.47113 Y2.30741
G01 X-3.58055 Y2.33871
G01 X-3.69021 Y2.37291
G01 X-3.79964 Y2.40987
G01 X-3.90836 Y2.44946
G01 X-4.03001 Y2.45082
G01 X-4.15153 Y2.45539
G01 X-4.23507 Y2.42930
G01 X-4.31935 Y2.40466
G01 X-4.40371 Y2.38161
G01 X-4.48817 Y2.36014
G01 X-4.57244 Y2.34034
G01 X-4.65689 Y2.32211
G01 X-4.74118 Y2.30554
G01 X-4.82564 Y2.29054
G01 X-4.91001 Y2.27719
G01 X-4.99429 Y2.26545
G01 X-5.07866 Y2.25531
G01 X-5.16312 Y2.24680
G01 X-5.24750 Y2.23989
G01 X-5.33178 Y2.23461
G01 X-5.41615 Y2.23094
G01 X-5.50062 Y2.22889
G01 X-5.58500 Y2.22845
G01 X-5.66937 Y2.22962
G01 X-5.75374 Y2.23242
G01 X-5.83802 Y2.23682
G01 X-5.92240 Y2.24284
G01 X-6.00686 Y2.25049
G01 X-6.09124 Y2.25974
G01 X-6.17552 Y2.27060
G01 X-6.25989 Y2.28308
G01 X-6.34434 Y2.29719
G01 X-6.42863 Y2.31289
G01 X-6.51309 Y2.33024
G01 X-6.59736 Y2.34917
G01 X-6.68182 Y2.36975
G01 X-6.76619 Y2.39193
G01 X-6.84983 Y2.41556
G01 X-6.96211 Y2.41707
G01 X-7.07492 Y2.42130
G01 X-7.18796 Y2.42821
G01 X-7.30028 Y2.43775
G01 X-7.37046 Y2.42976
G01 X-7.44127 Y2.42277
G01 X-7.51202 Y2.41684
G01 X-7.58269 Y2.41198
G01 X-7.58465 Y2.41224
G01 X-7.58636 Y2.41324
G01 X-7.64272 Y2.46361
G01 X-7.69791 Y2.51401
G01 X-7.75188 Y2.56441
G01 X-7.80427 Y2.61449
G01 X-7.89901 Y2.67356
G01 X-7.99132 Y2.73300
G01 X-8.08054 Y2.79236
G01 X-8.16690 Y2.85178
G01 X-8.31622 Y2.95635
G01 X-8.42156 Y3.03195
G01 X-8.52183 Y3.10768
G01 X-8.56996 Y3.14552
G01 X-8.61678 Y3.18336
G01 X-8.66223 Y3.22117
G01 X-8.70645 Y3.25904
G01 X-8.82668 Y3.36356
G01 X-8.88704 Y3.41731
G01 X-8.94443 Y3.47102
G01 X-8.99891 Y3.52474
G01 X-9.05043 Y3.57841
G01 X-9.14790 Y3.68293
G01 X-9.18388 Y3.72247
G01 X-9.21798 Y3.76187
G01 X-9.25039 Y3.80138
G01 X-9.28110 Y3.84094
G01 X-9.35986 Y3.94546
G01 X-9.38185 Y3.97539
G01 X-9.40258 Y4.00517
G01 X-9.42226 Y4.03506
G01 X-9.44083 Y4.06501
G01 X-9.50365 Y4.16954
G01 X-9.52982 Y4.21567
G01 X-9.57637 Y4.30852
G01 X-9.58110 Y4.31864
G01 X-9.60100 Y4.36491
G01 X-9.61823 Y4.40430
G01 X-9.63224 Y4.44163
G01 X-9.66828 Y4.54629
G01 X-9.67812 Y4.57747
G01 X-9.68614 Y4.60842
G01 X-9.71028 Y4.71295
G01 X-9.71579 Y4.73999
G01 X-9.71989 Y4.76729
G01 X-9.73272 Y4.87182
G01 X-9.73514 Y4.89707
G01 X-9.73624 Y4.92207
G01 X-9.73807 Y5.02660
G01 X-9.73785 Y5.05133
G01 X-9.73633 Y5.07633
G01 X-9.72718 Y5.18085
G01 X-9.72416 Y5.20727
G01 X-9.71978 Y5.23341
G01 X-9.69946 Y5.33794
G01 X-9.69286 Y5.36762
G01 X-9.68468 Y5.39702
G01 X-9.65979 Y5.47845
G01 X-9.65205 Y5.50452
G01 X-9.64305 Y5.53089
G01 X-9.63936 Y5.54099
G01 X-9.62876 Y5.56838
G01 X-9.61698 Y5.59556
G01 X-9.58283 Y5.67598
G01 X-9.56310 Y5.71916
G01 X-9.54075 Y5.76198
G01 X-9.48276 Y5.86661
G01 X-9.46126 Y5.90368
G01 X-9.46083 Y5.90362
G01 X-9.46126 Y5.90368
G01 X-9.46967 Y5.93386
G01 X-9.48211 Y5.98550
G01 X-9.49174 Y6.03727
G01 X-9.49286 Y6.04432
G01 X-9.49941 Y6.09394
G01 X-9.50334 Y6.14385
G01 X-9.50372 Y6.15090
G01 X-9.50500 Y6.19987
G01 X-9.50372 Y6.24910
G01 X-9.50334 Y6.25615
G01 X-9.49943 Y6.30579
G01 X-9.49286 Y6.35568
G01 X-9.49176 Y6.36261
G01 X-9.48217 Y6.41424
G01 X-9.46970 Y6.46601
G01 X-9.46785 Y6.47292
G01 X-9.45171 Y6.52723
G01 X-9.43242 Y6.58165
G01 X-9.42975 Y6.58862
G01 X-9.41787 Y6.61837
G01 X-9.40502 Y6.64824
G01 X-9.39116 Y6.67821
G01 X-9.37300 Y6.71482
G01 X-9.35534 Y6.74833
G01 X-9.33641 Y6.78201
G01 X-9.31638 Y6.81556
G01 X-9.29078 Y6.85586
G01 X-9.26500 Y6.89434
G01 X-9.23780 Y6.93266
G01 X-9.20898 Y6.97109
G01 X-9.17860 Y7.00955
G01 X-9.17310 Y7.01634
G01 X-9.13478 Y7.06231
G01 X-9.09441 Y7.10811
G01 X-9.05178 Y7.15401
G01 X-9.00694 Y7.19996
G01 X-9.00014 Y7.20676
G01 X-8.94145 Y7.26376
G01 X-8.87939 Y7.32081
G01 X-8.81399 Y7.37785
G01 X-8.74524 Y7.43489
G01 X-8.73679 Y7.44174
G01 X-8.69021 Y7.47890
G01 X-8.64209 Y7.51615
G01 X-8.59262 Y7.55335
G01 X-8.54180 Y7.59051
G01 X-8.48951 Y7.62770
G01 X-8.43581 Y7.66490
G01 X-8.32415 Y7.73930
G01 X-8.22945 Y7.79988
G01 X-8.14239 Y7.85361
G01 X-8.05231 Y7.90737
G01 X-7.95840 Y7.96155
G01 X-7.95742 Y7.96177
G01 X-7.95642 Y7.96179
G01 X-7.95543 Y7.96162
G01 X-7.86091 Y7.93447
G01 X-7.75939 Y7.90265
G01 X-7.70301 Y7.88388
G01 X-7.64656 Y7.86425
G01 X-7.53356 Y7.82241
G01 X-7.42067 Y7.77719
G01 X-7.30783 Y7.72861
G01 X-7.19791 Y7.67819
G01 X-7.09621 Y7.62868
G01 X-7.09625 Y7.62841
G01 X-7.09621 Y7.62868
G01 X-6.99932 Y7.64663
G01 X-6.90059 Y7.66276
G01 X-6.80197 Y7.67672
G01 X-6.70335 Y7.68854
G01 X-6.60473 Y7.69820
G01 X-6.50611 Y7.70571
G01 X-6.40748 Y7.71107
G01 X-6.30897 Y7.71427
G01 X-6.21023 Y7.71532
G01 X-6.11172 Y7.71423
G01 X-6.01309 Y7.71098
G01 X-5.91437 Y7.70556
G01 X-5.81574 Y7.69801
G01 X-5.71712 Y7.68830
G01 X-5.61860 Y7.67645
G01 X-5.52041 Y7.66249
G01 X-5.44471 Y7.66463
G01 X-5.36851 Y7.66550
G01 X-5.29222 Y7.66512
G01 X-5.21602 Y7.66348
G01 X-5.13990 Y7.66059
G01 X-5.06362 Y7.65643
G01 X-4.98750 Y7.65102
G01 X-4.91121 Y7.64434
G01 X-4.83501 Y7.63641
G01 X-4.75890 Y7.62724
G01 X-4.68262 Y7.61679
G01 X-4.60650 Y7.60511
G01 X-4.53022 Y7.59215
G01 X-4.45402 Y7.57793
G01 X-4.37791 Y7.56248
G01 X-4.30232 Y7.54586
G01 X-4.18295 Y7.54970
G01 X-4.06270 Y7.55055
G01 X-3.94270 Y7.54843
G01 X-3.82259 Y7.54333
G01 X-3.70246 Y7.53526
G01 X-3.58223 Y7.52420
G01 X-3.46223 Y7.51019
G01 X-3.34261 Y7.49324
G01 X-3.27355 Y7.49752
G01 X-3.20399 Y7.50084
G01 X-3.13442 Y7.50317
G01 X-3.06535 Y7.50450
G01 X-2.94309 Y7.52846
G01 X-2.82053 Y7.54929
G01 X-2.69783 Y7.56696
G01 X-2.57515 Y7.58146
G01 X-2.52282 Y7.58695
G01 X-2.40779 Y7.59765
G01 X-2.40679 Y7.59764
G01 X-2.40580 Y7.59743
G01 X-2.40488 Y7.59703
G01 X-2.40406 Y7.59645
G01 X-2.30291 Y7.50878
G01 X-2.20561 Y7.42111
G01 X-2.11224 Y7.33351
G01 X-2.02259 Y7.24580
G01 X-1.97033 Y7.19353
G01 X-1.88008 Y7.10107
G01 X-1.83660 Y7.05485
G01 X-1.79426 Y7.00868
G01 X-1.75295 Y6.96240
G01 X-1.71277 Y6.91618
G01 X-1.67373 Y6.87000
G01 X-1.63575 Y6.82377
G01 X-1.59340 Y6.77148
G01 X-1.53351 Y6.69563
G01 X-1.47676 Y6.61993
G01 X-1.42297 Y6.54412
G01 X-1.37217 Y6.46825
G01 X-1.33822 Y6.41598
G01 X-1.29742 Y6.35144
G01 X-1.25885 Y6.28683
G01 X-1.22248 Y6.22211
G01 X-1.18849 Y6.15761
G01 X-1.16180 Y6.10523
G01 X-1.13387 Y6.04867
G01 X-1.10761 Y5.99189
G01 X-1.08319 Y5.93522
G01 X-1.06059 Y5.87866
G01 X-1.04048 Y5.82627
G01 X-1.02155 Y5.77502
G01 X-1.00415 Y5.72388
G01 X-0.98814 Y5.67250
G01 X-0.97368 Y5.62129
G01 X-0.95967 Y5.56901
G01 X-0.94751 Y5.52119
G01 X-0.93670 Y5.47355
G01 X-0.92714 Y5.42565
G01 X-0.91893 Y5.37793
G01 X-0.91065 Y5.32561
G01 X-0.90402 Y5.27995
G01 X-0.89858 Y5.23415
G01 X-0.89435 Y5.18822
G01 X-0.89135 Y5.14248
G01 X-0.88861 Y5.09016
G01 X-0.88684 Y5.04518
G01 X-0.88625 Y4.99993
G04 P0 ( dwell for no time -- G64 should not smooth over this point )
G00 Z0.08000 ( retract )

G00 X-0.89625 Y5.00000 ( rapid move to begin. )
G01 F3.00000
( Mill infeed pass 1/1 )
G01 Z-0.00800
G04 P0 ( dwell for no time -- G64 should not smooth over this point )
G01 F6.00000
G01 X-0.89625 Y5.00000
G01 X-0.89684 Y5.04485
G01 X-0.89860 Y5.08973
G01 X-0.90133 Y5.14192
G01 X-0.90432 Y5.18750
G01 X-0.90852 Y5.23304
G01 X-0.91392 Y5.27858
G01 X-0.92054 Y5.32414
G01 X-0.92880 Y5.37633
G01 X-0.93699 Y5.42389
G01 X-0.94647 Y5.47140
G01 X-0.95725 Y5.51891
G01 X-0.96934 Y5.56646
G01 X-0.98333 Y5.61867
G01 X-0.99775 Y5.66972
G01 X-1.01363 Y5.72072
G01 X-1.03099 Y5.77174
G01 X-1.04985 Y5.82278
G01 X-1.06988 Y5.87498
G01 X-1.09245 Y5.93144
G01 X-1.11677 Y5.98787
G01 X-1.14286 Y6.04430
G01 X-1.17075 Y6.10078
G01 X-1.19735 Y6.15298
G01 X-1.23129 Y6.21739
G01 X-1.26747 Y6.28176
G01 X-1.30591 Y6.34615
G01 X-1.34662 Y6.41056
G01 X-1.38053 Y6.46278
G01 X-1.43117 Y6.53839
G01 X-1.48480 Y6.61398
G01 X-1.54147 Y6.68958
G01 X-1.60119 Y6.76521
G01 X-1.64348 Y6.81744
G01 X-1.68139 Y6.86357
G01 X-1.72039 Y6.90970
G01 X-1.76047 Y6.95581
G01 X-1.80166 Y7.00195
G01 X-1.84395 Y7.04807
G01 X-1.88733 Y7.09419
G01 X-1.97743 Y7.18649
G01 X-2.02965 Y7.23871
G01 X-2.11912 Y7.32625
G01 X-2.21241 Y7.41378
G01 X-2.30957 Y7.50132
G01 X-2.40899 Y7.58749
G01 X-2.40886 Y7.58791
G01 X-2.40899 Y7.58749
G01 X-2.52181 Y7.57700
G01 X-2.57401 Y7.57152
G01 X-2.69647 Y7.55705
G01 X-2.81891 Y7.53942
G01 X-2.94135 Y7.51861
G01 X-3.05883 Y7.49561
G01 X-3.06062 Y7.49679
G01 X-3.05883 Y7.49561
G01 X-3.04109 Y7.41566
G01 X-2.99851 Y7.21966
G01 X-2.76006 Y6.09158
G01 X-2.73725 Y5.97797
G01 X-2.68586 Y5.70501
G01 X-2.67492 Y5.64822
G01 X-2.66718 Y5.60597
G01 X-2.66048 Y5.56477
G01 X-2.64815 Y5.48357
G01 X-2.63501 Y5.40042
G01 X-2.63034 Y5.36822
G01 X-2.62657 Y5.33644
G01 X-2.61825 Y5.26103
G01 X-2.61108 Y5.22874
G01 X-2.59680 Y5.16925
G01 X-2.58580 Y5.12803
G01 X-2.57303 Y5.08858
G01 X-2.55375 Y5.03413
G01 X-2.54167 Y5.00258
G01 X-2.52826 Y4.97238
G01 X-2.50444 Y4.92246
G01 X-2.49168 Y4.89737
G01 X-2.47784 Y4.87336
G01 X-2.44983 Y4.82766
G01 X-2.43640 Y4.80695
G01 X-2.42204 Y4.78718
G01 X-2.39002 Y4.74545
G01 X-2.37564 Y4.72768
G01 X-2.36040 Y4.71075
G01 X-2.32450 Y4.67292
G01 X-2.30860 Y4.65703
G01 X-2.29187 Y4.64196
G01 X-2.25210 Y4.60799
G01 X-2.23388 Y4.59325
G01 X-2.21476 Y4.57937
G01 X-2.17106 Y4.54934
G01 X-2.14942 Y4.53529
G01 X-2.12677 Y4.52223
G01 X-2.07887 Y4.49613
G01 X-2.02367 Y4.46494
G01 X-1.99726 Y4.44923
G01 X-1.97105 Y4.43209
G01 X-1.89051 Y4.37703
G01 X-1.85893 Y4.35467
G01 X-1.82703 Y4.33053
G01 X-1.67193 Y4.20948
G01 X-1.62748 Y4.17404
G01 X-1.58207 Y4.13634
G01 X-1.21041 Y3.82180
G01 X-1.20981 Y3.81881
G01 X-1.21041 Y3.82180
G01 X-1.19736 Y3.84700
G01 X-1.17075 Y3.89922
G01 X-1.14286 Y3.95570
G01 X-1.11677 Y4.01213
G01 X-1.09245 Y4.06856
G01 X-1.06988 Y4.12502
G01 X-1.04985 Y4.17722
G01 X-1.03099 Y4.22826
G01 X-1.01363 Y4.27928
G01 X-0.99775 Y4.33028
G01 X-0.98333 Y4.38133
G01 X-0.96934 Y4.43354
G01 X-0.95725 Y4.48109
G01 X-0.94647 Y4.52860
G01 X-0.93699 Y4.57611
G01 X-0.92880 Y4.62366
G01 X-0.92054 Y4.67586
G01 X-0.91392 Y4.72142
G01 X-0.90852 Y4.76696
G01 X-0.90432 Y4.81250
G01 X-0.90133 Y4.85807
G01 X-0.89860 Y4.91027
G01 X-0.89684 Y4.95515
G01 X-0.89625 Y5.00000
G01 X-0.90625 Y5.00000
G01 X-0.90683 Y5.04459
G01 X-0.90859 Y5.08927
G01 X-0.91132 Y5.14134
G01 X-0.91429 Y5.18671
G01 X-0.91846 Y5.23199
G01 X-0.92384 Y5.27727
G01 X-0.93042 Y5.32264
G01 X-0.93867 Y5.37470
G01 X-0.94682 Y5.42206
G01 X-0.95625 Y5.46931
G01 X-0.96697 Y5.51657
G01 X-0.97901 Y5.56393
G01 X-0.99297 Y5.61602
G01 X-1.00733 Y5.66687
G01 X-1.02314 Y5.71762
G01 X-1.04042 Y5.76839
G01 X-1.05921 Y5.81925
G01 X-1.07920 Y5.87133
G01 X-1.10168 Y5.92761
G01 X-1.12590 Y5.98379
G01 X-1.15188 Y6.03999
G01 X-1.17969 Y6.09629
G01 X-1.20623 Y6.14838
G01 X-1.24008 Y6.21261
G01 X-1.27612 Y6.27675
G01 X-1.31443 Y6.34092
G01 X-1.35504 Y6.40517
G01 X-1.38888 Y6.45727
G01 X-1.43940 Y6.53272
G01 X-1.49288 Y6.60809
G01 X-1.54940 Y6.68348
G01 X-1.60901 Y6.75896
G01 X-1.65123 Y6.81112
G01 X-1.68907 Y6.85717
G01 X-1.72798 Y6.90319
G01 X-1.76798 Y6.94920
G01 X-1.80907 Y6.99524
G01 X-1.85128 Y7.04126
G01 X-1.89455 Y7.08727
G01 X-1.98454 Y7.17946
G01 X-2.03668 Y7.23160
G01 X-2.12604 Y7.31903
G01 X-2.21918 Y7.40642
G01 X-2.31619 Y7.49383
G01 X-2.41232 Y7.57714
G01 X-2.41205 Y7.57797
G01 X-2.41232 Y7.57714
G01 X-2.52082 Y7.56705
G01 X-2.57290 Y7.56158
G01 X-2.69517 Y7.54713
G01 X-2.81736 Y7.52954
G01 X-2.93955 Y7.50877
G01 X-3.04684 Y7.48776
G01 X-3.05043 Y7.49012
G01 X-3.04684 Y7.48776
G01 X-3.03132 Y7.41778
G01 X-2.98874 Y7.22178
G01 X-2.75028 Y6.09365
G01 X-2.72744 Y5.97994
G01 X-2.67603 Y5.70687
G01 X-2.66507 Y5.64997
G01 X-2.65731 Y5.60758
G01 X-2.65061 Y5.56638
G01 X-2.63826 Y5.48509
G01 X-2.62514 Y5.40205
G01 X-2.62045 Y5.36965
G01 X-2.61664 Y5.33761
G01 X-2.60839 Y5.26267
G01 X-2.60133 Y5.23100
G01 X-2.58711 Y5.17170
G01 X-2.57621 Y5.13086
G01 X-2.56356 Y5.09179
G01 X-2.54436 Y5.03759
G01 X-2.53242 Y5.00640
G01 X-2.51917 Y4.97656
G01 X-2.49547 Y4.92688
G01 X-2.48289 Y4.90214
G01 X-2.46924 Y4.87848
G01 X-2.44137 Y4.83299
G01 X-2.42815 Y4.81261
G01 X-2.41403 Y4.79316
G01 X-2.38217 Y4.75164
G01 X-2.36803 Y4.73417
G01 X-2.35305 Y4.71754
G01 X-2.31733 Y4.67990
G01 X-2.30171 Y4.66428
G01 X-2.28528 Y4.64948
G01 X-2.24571 Y4.61569
G01 X-2.22779 Y4.60119
G01 X-2.20899 Y4.58754
G01 X-2.16551 Y4.55765
G01 X-2.14419 Y4.54383
G01 X-2.12188 Y4.53096
G01 X-2.07406 Y4.50490
G01 X-2.01875 Y4.47365
G01 X-1.99179 Y4.45760
G01 X-1.96540 Y4.44034
G01 X-1.88493 Y4.38533
G01 X-1.85290 Y4.36264
G01 X-1.82088 Y4.33841
G01 X-1.66578 Y4.21736
G01 X-1.62109 Y4.18173
G01 X-1.57561 Y4.14397
G01 X-1.21352 Y3.83753
G01 X-1.21232 Y3.83156
G01 X-1.21352 Y3.83753
G01 X-1.17969 Y3.90371
G01 X-1.15188 Y3.96001
G01 X-1.12590 Y4.01621
G01 X-1.10168 Y4.07239
G01 X-1.07920 Y4.12867
G01 X-1.05921 Y4.18075
G01 X-1.04042 Y4.23161
G01 X-1.02314 Y4.28238
G01 X-1.00733 Y4.33313
G01 X-0.99297 Y4.38398
G01 X-0.97901 Y4.43607
G01 X-0.96697 Y4.48343
G01 X-0.95625 Y4.53069
G01 X-0.94682 Y4.57794
G01 X-0.93867 Y4.62530
G01 X-0.93042 Y4.67736
G01 X-0.92384 Y4.72273
G01 X-0.91846 Y4.76801
G01 X-0.91429 Y4.81329
G01 X-0.91132 Y4.85866
G01 X-0.90859 Y4.91073
G01 X-0.90683 Y4.95541
G01 X-0.90625 Y5.00000
G04 P0 ( dwell for no time -- G64 should not smooth over this point )
G00 Z0.08000 ( retract )

G00 X-3.34672 Y7.48512 ( rapid move to begin. )
G01 F3.00000
( Mill infeed pass 1/1 )
G01 Z-0.00800
G04 P0 ( dwell for no time -- G64 should not smooth over this point )
G01 F6.00000
G01 X-3.34672 Y7.48512
G01 X-3.34819 Y7.48395
G01 X-3.40151 Y6.85141
G01 X-3.47005 Y6.05517
G01 X-3.50015 Y5.71740
G01 X-3.50243 Y5.69021
G01 X-3.50500 Y5.65580
G01 X-3.50498 Y5.36374
G01 X-3.50183 Y5.32860
G01 X-3.49791 Y5.29430
G01 X-3.48061 Y5.15048
G01 X-3.46872 Y5.04476
G01 X-3.45934 Y4.95518
G01 X-3.44997 Y4.85845
G01 X-3.43982 Y4.74424
G01 X-3.42987 Y4.62216
G01 X-3.41661 Y4.44617
G01 X-3.41661 Y4.37631
G01 X-3.41802 Y4.29990
G01 X-3.42225 Y4.22071
G01 X-3.42928 Y4.13867
G01 X-3.43915 Y4.05381
G01 X-3.45183 Y3.96611
G01 X-3.46733 Y3.87557
G01 X-3.48565 Y3.78222
G01 X-3.50680 Y3.68602
G01 X-3.53077 Y3.58700
G01 X-3.55755 Y3.48515
G01 X-3.58716 Y3.38047
G01 X-3.61959 Y3.27296
G01 X-3.65485 Y3.16263
G01 X-3.69293 Y3.04946
G01 X-3.73382 Y2.93347
G01 X-3.77756 Y2.81464
G01 X-3.91091 Y2.45942
G01 X-3.91028 Y2.45851
G01 X-3.91091 Y2.45942
G01 X-4.02971 Y2.46082
G01 X-4.14831 Y2.46521
G01 X-4.14907 Y2.46426
G01 X-4.14831 Y2.46521
G01 X-4.35170 Y3.22641
G01 X-4.38526 Y3.35742
G01 X-4.41491 Y3.48447
G01 X-4.44062 Y3.60759
G01 X-4.46243 Y3.72679
G01 X-4.47186 Y3.78490
G01 X-4.48031 Y3.84204
G01 X-4.48778 Y3.89818
G01 X-4.49427 Y3.95336
G01 X-4.49978 Y4.00755
G01 X-4.50431 Y4.06075
G01 X-4.50787 Y4.11296
G01 X-4.51045 Y4.16390
G01 X-4.49985 Y4.28261
G01 X-4.49757 Y4.30979
G01 X-4.49500 Y4.34420
G01 X-4.49502 Y4.63626
G01 X-4.49817 Y4.67140
G01 X-4.50208 Y4.70566
G01 X-4.51939 Y4.84952
G01 X-4.53052 Y4.94834
G01 X-4.54133 Y5.05156
G01 X-4.55068 Y5.14846
G01 X-4.56018 Y5.25576
G01 X-4.57079 Y5.38635
G01 X-4.58468 Y5.57048
G01 X-4.59031 Y5.63108
G01 X-4.59968 Y5.71873
G01 X-4.59738 Y5.76859
G01 X-4.59395 Y5.81989
G01 X-4.58943 Y5.87231
G01 X-4.58379 Y5.92585
G01 X-4.57704 Y5.98050
G01 X-4.56918 Y6.03627
G01 X-4.56022 Y6.09315
G01 X-4.55014 Y6.15116
G01 X-4.29858 Y7.53601
G01 X-4.29952 Y7.53709
G01 X-4.29858 Y7.53601
G01 X-4.18269 Y7.53970
G01 X-4.06281 Y7.54055
G01 X-3.94294 Y7.53843
G01 X-3.82307 Y7.53335
G01 X-3.70320 Y7.52529
G01 X-3.58333 Y7.51426
G01 X-3.46345 Y7.50026
G01 X-3.34819 Y7.48395
G01 X-3.35895 Y7.47537
G01 X-3.41147 Y6.85226
G01 X-3.48001 Y6.05604
G01 X-3.51012 Y5.71821
G01 X-3.51240 Y5.69104
G01 X-3.51500 Y5.65580
G01 X-3.51494 Y5.36285
G01 X-3.51176 Y5.32747
G01 X-3.50783 Y5.29305
G01 X-3.49054 Y5.14934
G01 X-3.47866 Y5.04369
G01 X-3.46929 Y4.95416
G01 X-3.45992 Y4.85750
G01 X-3.44979 Y4.74341
G01 X-3.43984 Y4.62136
G01 X-3.42660 Y4.44578
G01 X-3.42661 Y4.37640
G01 X-3.42801 Y4.30026
G01 X-3.43222 Y4.22140
G01 X-3.43923 Y4.13968
G01 X-3.44906 Y4.05510
G01 X-3.46171 Y3.96767
G01 X-3.47716 Y3.87738
G01 X-3.49545 Y3.78425
G01 X-3.51654 Y3.68827
G01 X-3.54046 Y3.58945
G01 X-3.56720 Y3.48778
G01 X-3.59676 Y3.38328
G01 X-3.62914 Y3.27593
G01 X-3.66435 Y3.16574
G01 X-3.70238 Y3.05272
G01 X-3.74323 Y2.93686
G01 X-3.78693 Y2.81813
G01 X-3.91780 Y2.46950
G01 X-3.91655 Y2.46767
G01 X-3.91780 Y2.46950
G01 X-4.02946 Y2.47082
G01 X-4.14056 Y2.47493
G01 X-4.14208 Y2.47303
G01 X-4.14056 Y2.47493
G01 X-4.34203 Y3.22895
G01 X-4.37555 Y3.35980
G01 X-4.40514 Y3.48663
G01 X-4.43081 Y3.60951
G01 X-4.45258 Y3.72849
G01 X-4.46198 Y3.78643
G01 X-4.47041 Y3.84343
G01 X-4.47786 Y3.89942
G01 X-4.48433 Y3.95445
G01 X-4.48982 Y4.00847
G01 X-4.49434 Y4.06152
G01 X-4.49789 Y4.11356
G01 X-4.50044 Y4.16371
G01 X-4.48988 Y4.28179
G01 X-4.48760 Y4.30896
G01 X-4.48500 Y4.34420
G01 X-4.48500 Y4.63581
G01 X-4.48824 Y4.67253
G01 X-4.49215 Y4.70679
G01 X-4.50946 Y4.85066
G01 X-4.52058 Y4.94944
G01 X-4.53071 Y5.04584
G01 X-4.54008 Y5.14250
G01 X-4.55021 Y5.25659
G01 X-4.56016 Y5.37864
G01 X-4.57472 Y5.57141
G01 X-4.58037 Y5.63221
G01 X-4.58967 Y5.71903
G01 X-4.58739 Y5.76803
G01 X-4.58398 Y5.81913
G01 X-4.57948 Y5.87136
G01 X-4.57386 Y5.92471
G01 X-4.56713 Y5.97919
G01 X-4.55929 Y6.03479
G01 X-4.55035 Y6.09152
G01 X-4.54029 Y6.14942
G01 X-4.29019 Y7.52627
G01 X-4.29205 Y7.52844
G01 X-4.29019 Y7.52627
G01 X-4.18250 Y7.52970
G01 X-4.06287 Y7.53055
G01 X-3.94324 Y7.52844
G01 X-3.82362 Y7.52336
G01 X-3.70399 Y7.51532
G01 X-3.58437 Y7.50431
G01 X-3.46473 Y7.49034
G01 X-3.35895 Y7.47537
G04 P0 ( dwell for no time -- G64 should not smooth over this point )
G00 Z0.08000 ( retract )

G00 X-7.10148 Y7.62140 ( rapid move to begin. )
G01 F3.00000
( Mill infeed pass 1/1 )
G01 Z-0.00800
G04 P0 ( dwell for no time -- G64 should not smooth over this point )
G01 F6.00000
G01 X-7.10148 Y7.62140
G01 X-7.10285 Y7.62079
G01 X-7.14888 Y7.45479
G01 X-7.18695 Y7.32277
G01 X-7.23556 Y7.22106
G01 X-7.42928 Y6.81386
G01 X-7.56151 Y6.66861
G01 X-7.87901 Y6.31806
G01 X-7.93058 Y6.26215
G01 X-7.98214 Y6.20895
G01 X-8.03370 Y6.15847
G01 X-8.08527 Y6.11068
G01 X-8.09202 Y6.10459
G01 X-8.12828 Y6.07262
G01 X-8.18861 Y6.02042
G01 X-8.26459 Y5.99361
G01 X-8.31426 Y5.97777
G01 X-8.44800 Y5.93449
G01 X-8.49979 Y5.91868
G01 X-8.50879 Y5.91611
G01 X-8.54797 Y5.90547
G01 X-8.58641 Y5.89623
G01 X-8.63950 Y5.88431
G01 X-8.69846 Y5.87064
G01 X-8.74650 Y5.86081
G01 X-8.75384 Y5.85951
G01 X-8.78321 Y5.85485
G01 X-8.81226 Y5.85130
G01 X-8.84552 Y5.84781
G01 X-8.88954 Y5.84281
G01 X-8.91944 Y5.84007
G01 X-8.92616 Y5.83960
G01 X-8.96016 Y5.83808
G01 X-8.99403 Y5.83828
G01 X-9.07387 Y5.84009
G01 X-9.08067 Y5.84032
G01 X-9.11761 Y5.84259
G01 X-9.15483 Y5.84684
G01 X-9.17065 Y5.84912
G01 X-9.25554 Y5.86201
G01 X-9.30403 Y5.87030
G01 X-9.35355 Y5.88140
G01 X-9.37541 Y5.88695
G01 X-9.45183 Y5.90711
G01 X-9.45237 Y5.90656
G01 X-9.45183 Y5.90711
G01 X-9.45999 Y5.93639
G01 X-9.47236 Y5.98771
G01 X-9.48189 Y6.03903
G01 X-9.48295 Y6.04569
G01 X-9.48948 Y6.09512
G01 X-9.49337 Y6.14457
G01 X-9.49372 Y6.15123
G01 X-9.49500 Y6.20000
G01 X-9.49372 Y6.24877
G01 X-9.49337 Y6.25543
G01 X-9.48948 Y6.30488
G01 X-9.48295 Y6.35431
G01 X-9.48189 Y6.36097
G01 X-9.47236 Y6.41229
G01 X-9.45999 Y6.46361
G01 X-9.45821 Y6.47027
G01 X-9.44216 Y6.52426
G01 X-9.42302 Y6.57825
G01 X-9.42045 Y6.58495
G01 X-9.40861 Y6.61460
G01 X-9.39586 Y6.64422
G01 X-9.38217 Y6.67384
G01 X-9.36753 Y6.70351
G01 X-9.34653 Y6.74361
G01 X-9.32779 Y6.77694
G01 X-9.30789 Y6.81027
G01 X-9.28679 Y6.84364
G01 X-9.28242 Y6.85039
G01 X-9.25680 Y6.88861
G01 X-9.22968 Y6.92682
G01 X-9.20102 Y6.96504
G01 X-9.17081 Y7.00328
G01 X-9.16536 Y7.01002
G01 X-9.12723 Y7.05574
G01 X-9.08695 Y7.10145
G01 X-9.04450 Y7.14716
G01 X-8.99984 Y7.19290
G01 X-8.99309 Y7.19966
G01 X-8.93454 Y7.25654
G01 X-8.87267 Y7.31340
G01 X-8.80746 Y7.37027
G01 X-8.73888 Y7.42717
G01 X-8.68400 Y7.47106
G01 X-8.63606 Y7.50817
G01 X-8.58669 Y7.54529
G01 X-8.53593 Y7.58241
G01 X-8.48374 Y7.61954
G01 X-8.43015 Y7.65665
G01 X-8.31868 Y7.73093
G01 X-8.22417 Y7.79139
G01 X-8.13716 Y7.84509
G01 X-8.04722 Y7.89877
G01 X-7.95615 Y7.95142
G01 X-7.95620 Y7.95185
G01 X-7.95615 Y7.95142
G01 X-7.86373 Y7.92487
G01 X-7.76253 Y7.89316
G01 X-7.70620 Y7.87441
G01 X-7.64989 Y7.85482
G01 X-7.53722 Y7.81310
G01 X-7.42457 Y7.76798
G01 X-7.31188 Y7.71946
G01 X-7.20214 Y7.66913
G01 X-7.10285 Y7.62079
G01 X-7.11471 Y7.61544
G01 X-7.20641 Y7.66009
G01 X-7.31589 Y7.71030
G01 X-7.42840 Y7.75875
G01 X-7.54081 Y7.80377
G01 X-7.65327 Y7.84541
G01 X-7.70942 Y7.86494
G01 X-7.76566 Y7.88366
G01 X-7.86660 Y7.91529
G01 X-7.95482 Y7.94063
G01 X-7.95493 Y7.94149
G01 X-7.95482 Y7.94063
G01 X-8.04215 Y7.89015
G01 X-8.13198 Y7.83654
G01 X-8.21885 Y7.78292
G01 X-8.31318 Y7.72258
G01 X-8.42453 Y7.64838
G01 X-8.47799 Y7.61135
G01 X-8.53008 Y7.57430
G01 X-8.58074 Y7.53726
G01 X-8.62999 Y7.50022
G01 X-8.67782 Y7.46319
G01 X-8.73254 Y7.41944
G01 X-8.80098 Y7.36265
G01 X-8.86600 Y7.30595
G01 X-8.92767 Y7.24927
G01 X-8.98607 Y7.19254
G01 X-9.03726 Y7.14027
G01 X-9.07953 Y7.09474
G01 X-9.11964 Y7.04924
G01 X-9.15763 Y7.00367
G01 X-9.16301 Y6.99703
G01 X-9.19309 Y6.95894
G01 X-9.22160 Y6.92093
G01 X-9.24857 Y6.88293
G01 X-9.27407 Y6.84488
G01 X-9.27837 Y6.83825
G01 X-9.29937 Y6.80504
G01 X-9.31914 Y6.77193
G01 X-9.33774 Y6.73883
G01 X-9.35859 Y6.69903
G01 X-9.37314 Y6.66953
G01 X-9.38673 Y6.64015
G01 X-9.39937 Y6.61077
G01 X-9.41114 Y6.58131
G01 X-9.41363 Y6.57479
G01 X-9.43265 Y6.52116
G01 X-9.44858 Y6.46755
G01 X-9.45030 Y6.46114
G01 X-9.46257 Y6.41020
G01 X-9.47204 Y6.35927
G01 X-9.47305 Y6.35287
G01 X-9.47953 Y6.30383
G01 X-9.48339 Y6.25477
G01 X-9.48373 Y6.24838
G01 X-9.48499 Y6.20000
G01 X-9.48373 Y6.15162
G01 X-9.48339 Y6.14523
G01 X-9.47953 Y6.09617
G01 X-9.47305 Y6.04713
G01 X-9.47204 Y6.04073
G01 X-9.46257 Y5.98980
G01 X-9.45030 Y5.93886
G01 X-9.44376 Y5.91532
G01 X-9.44483 Y5.91422
G01 X-9.44376 Y5.91532
G01 X-9.37289 Y5.89663
G01 X-9.35125 Y5.89113
G01 X-9.30209 Y5.88011
G01 X-9.25397 Y5.87189
G01 X-9.16918 Y5.85901
G01 X-9.15356 Y5.85676
G01 X-9.11674 Y5.85256
G01 X-9.08019 Y5.85031
G01 X-9.07356 Y5.85008
G01 X-8.99384 Y5.84828
G01 X-8.96035 Y5.84808
G01 X-8.92673 Y5.84959
G01 X-8.92025 Y5.85004
G01 X-8.89056 Y5.85276
G01 X-8.84658 Y5.85775
G01 X-8.81339 Y5.86123
G01 X-8.78460 Y5.86475
G01 X-8.75549 Y5.86937
G01 X-8.74837 Y5.87064
G01 X-8.70059 Y5.88041
G01 X-8.64173 Y5.89406
G01 X-8.58868 Y5.90597
G01 X-8.55045 Y5.91516
G01 X-8.51148 Y5.92574
G01 X-8.50262 Y5.92827
G01 X-8.45100 Y5.94403
G01 X-8.31731 Y5.98729
G01 X-8.26778 Y6.00309
G01 X-8.19377 Y6.02930
G01 X-8.19368 Y6.02915
G01 X-8.19377 Y6.02930
G01 X-8.13486 Y6.08015
G01 X-8.09868 Y6.11205
G01 X-8.09202 Y6.11806
G01 X-8.04059 Y6.16571
G01 X-7.98923 Y6.21600
G01 X-7.93785 Y6.26901
G01 X-7.88644 Y6.32476
G01 X-7.56892 Y6.67532
G01 X-7.43772 Y6.81952
G01 X-7.43763 Y6.81946
G01 X-7.43772 Y6.81952
G01 X-7.24459 Y7.22536
G01 X-7.19632 Y7.32633
G01 X-7.15850 Y7.45751
G01 X-7.11471 Y7.61544
G04 P0 ( dwell for no time -- G64 should not smooth over this point )
G00 Z0.08000 ( retract )

G00 X-7.18430 Y7.29702 ( rapid move to begin. )
G01 F3.00000
( Mill infeed pass 1/1 )
G01 Z-0.00800
G04 P0 ( dwell for no time -- G64 should not smooth over this point )
G01 F6.00000
G01 X-7.18430 Y7.29702
G01 X-7.18581 Y7.27882
G01 X-7.41006 Y6.80782
G01 X-7.41033 Y6.80788
G01 X-7.41006 Y6.80782
G01 X-7.39115 Y5.82117
G01 X-7.39072 Y5.77324
G01 X-7.39125 Y5.72693
G01 X-7.39277 Y5.68145
G01 X-7.39525 Y5.63711
G01 X-7.39873 Y5.59391
G01 X-7.40322 Y5.55144
G01 X-7.40861 Y5.51092
G01 X-7.41506 Y5.47091
G01 X-7.45847 Y5.22476
G01 X-7.46413 Y5.18822
G01 X-7.46801 Y5.15272
G01 X-7.49330 Y4.85935
G01 X-7.49529 Y4.82504
G01 X-7.49549 Y4.78984
G01 X-7.49386 Y4.75353
G01 X-7.49042 Y4.71610
G01 X-7.48516 Y4.67757
G01 X-7.47807 Y4.63791
G01 X-7.46915 Y4.59716
G01 X-7.45836 Y4.55518
G01 X-7.42426 Y4.43131
G01 X-7.41211 Y4.38501
G01 X-7.40071 Y4.33723
G01 X-7.38989 Y4.28732
G01 X-7.37970 Y4.23532
G01 X-7.37024 Y4.18181
G01 X-7.36149 Y4.12673
G01 X-7.35333 Y4.06937
G01 X-7.34587 Y4.01044
G01 X-7.33910 Y3.94990
G01 X-7.33296 Y3.88714
G01 X-7.32752 Y3.82295
G01 X-7.32274 Y3.75675
G01 X-7.31515 Y3.61901
G01 X-7.31024 Y3.47394
G01 X-7.28568 Y2.45656
G01 X-7.28818 Y2.45421
G01 X-7.28568 Y2.45656
G01 X-7.18645 Y2.44815
G01 X-7.07399 Y2.44128
G01 X-6.96153 Y2.43707
G01 X-6.86029 Y2.43567
G01 X-6.85877 Y2.43361
G01 X-6.86029 Y2.43567
G01 X-6.76587 Y2.75679
G01 X-6.66646 Y4.69668
G01 X-6.66604 Y4.73351
G01 X-6.65604 Y4.73382
G01 X-6.65647 Y4.69637
G01 X-6.75598 Y2.75511
G01 X-6.85284 Y2.42556
G01 X-6.85208 Y2.42453
G01 X-6.85284 Y2.42556
G01 X-6.96179 Y2.42707
G01 X-7.07448 Y2.43129
G01 X-7.18718 Y2.43818
G01 X-7.29546 Y2.44735
G01 X-7.29671 Y2.44618
G01 X-7.29546 Y2.44735
G01 X-7.32023 Y3.47360
G01 X-7.32514 Y3.61846
G01 X-7.33271 Y3.75594
G01 X-7.33749 Y3.82210
G01 X-7.34293 Y3.88629
G01 X-7.34904 Y3.94878
G01 X-7.35581 Y4.00932
G01 X-7.36326 Y4.06819
G01 X-7.37136 Y4.12516
G01 X-7.38011 Y4.18024
G01 X-7.38955 Y4.23358
G01 X-7.39966 Y4.28520
G01 X-7.41044 Y4.33491
G01 X-7.42184 Y4.38269
G01 X-7.43393 Y4.42877
G01 X-7.46803 Y4.55261
G01 X-7.47888 Y4.59485
G01 X-7.48788 Y4.63596
G01 X-7.49504 Y4.67601
G01 X-7.50036 Y4.71497
G01 X-7.50384 Y4.75285
G01 X-7.50549 Y4.78965
G01 X-7.50529 Y4.82536
G01 X-7.50327 Y4.86007
G01 X-7.47796 Y5.15369
G01 X-7.47404 Y5.18952
G01 X-7.46834 Y5.22639
G01 X-7.42490 Y5.47265
G01 X-7.41852 Y5.51224
G01 X-7.41312 Y5.55289
G01 X-7.40871 Y5.59458
G01 X-7.40524 Y5.63767
G01 X-7.40276 Y5.68178
G01 X-7.40125 Y5.72704
G01 X-7.40072 Y5.77335
G01 X-7.40115 Y5.82097
G01 X-7.42011 Y6.80999
G01 X-7.42024 Y6.81001
G01 X-7.42011 Y6.80999
G01 X-7.22654 Y7.21676
G01 X-7.18346 Y7.30693
G01 X-7.18270 Y7.31603
G01 X-7.18346 Y7.30693
G01 X-7.14216 Y7.16273
G01 X-7.10003 Y7.01184
G01 X-7.06067 Y6.86693
G01 X-7.02411 Y6.72799
G01 X-6.99032 Y6.59501
G01 X-6.95932 Y6.46802
G01 X-6.93112 Y6.34699
G01 X-6.90568 Y6.23195
G01 X-6.88303 Y6.12288
G01 X-6.86318 Y6.01979
G01 X-6.84610 Y5.92268
G01 X-6.83181 Y5.83156
G01 X-6.82030 Y5.74641
G01 X-6.81157 Y5.66725
G01 X-6.80563 Y5.59409
G01 X-6.80246 Y5.52688
G01 X-6.79499 Y5.25673
G01 X-6.79390 Y5.23919
G01 X-6.79160 Y5.22168
G01 X-6.78800 Y5.20405
G01 X-6.78330 Y5.18715
G01 X-6.67297 Y4.83721
G01 X-6.66823 Y4.82084
G01 X-6.66428 Y4.80416
G01 X-6.66108 Y4.78712
G01 X-6.65865 Y4.76977
G01 X-6.65604 Y4.73382
G01 X-6.66604 Y4.73351
G01 X-6.66859 Y4.76872
G01 X-6.67096 Y4.78550
G01 X-6.67406 Y4.80208
G01 X-6.67790 Y4.81830
G01 X-6.68254 Y4.83432
G01 X-6.79284 Y5.18414
G01 X-6.79763 Y5.20137
G01 X-6.80134 Y5.21934
G01 X-6.80378 Y5.23753
G01 X-6.80498 Y5.25645
G01 X-6.81245 Y5.52651
G01 X-6.81561 Y5.59345
G01 X-6.82152 Y5.66630
G01 X-6.83023 Y5.74519
G01 X-6.84170 Y5.83011
G01 X-6.85597 Y5.92104
G01 X-6.87301 Y6.01798
G01 X-6.89284 Y6.12092
G01 X-6.91546 Y6.22986
G01 X-6.94087 Y6.34478
G01 X-6.96905 Y6.46570
G01 X-7.00002 Y6.59259
G01 X-7.03379 Y6.72548
G01 X-7.07033 Y6.86435
G01 X-7.10967 Y7.00919
G01 X-7.15178 Y7.16001
G01 X-7.18581 Y7.27882
G04 P0 ( dwell for no time -- G64 should not smooth over this point )
G00 Z0.08000 ( retract )

G00 X-7.43340 Y6.78911 ( rapid move to begin. )
G01 F3.00000
( Mill infeed pass 1/1 )
G01 Z-0.00800
G04 P0 ( dwell for no time -- G64 should not smooth over this point )
G01 F6.00000
G01 X-7.43340 Y6.78911
G01 X-7.43940 Y6.77310
G01 X-7.42115 Y5.82067
G01 X-7.42072 Y5.77343
G01 X-7.42125 Y5.72744
G01 X-7.42274 Y5.68262
G01 X-7.42520 Y5.63897
G01 X-7.42861 Y5.59650
G01 X-7.43298 Y5.55520
G01 X-7.43832 Y5.51508
G01 X-7.44462 Y5.47602
G01 X-7.48804 Y5.22982
G01 X-7.49391 Y5.19181
G01 X-7.49788 Y5.15547
G01 X-7.52320 Y4.86172
G01 X-7.52529 Y4.82560
G01 X-7.52547 Y4.78888
G01 X-7.52377 Y4.75114
G01 X-7.52019 Y4.71237
G01 X-7.51475 Y4.67259
G01 X-7.50744 Y4.63178
G01 X-7.49840 Y4.59048
G01 X-7.48739 Y4.54759
G01 X-7.45326 Y4.42360
G01 X-7.44125 Y4.37788
G01 X-7.42993 Y4.33042
G01 X-7.41924 Y4.28111
G01 X-7.40922 Y4.22996
G01 X-7.39984 Y4.17698
G01 X-7.39113 Y4.12215
G01 X-7.38308 Y4.06549
G01 X-7.37567 Y4.00699
G01 X-7.36893 Y3.94667
G01 X-7.36285 Y3.88451
G01 X-7.35742 Y3.82051
G01 X-7.35267 Y3.75472
G01 X-7.34511 Y3.61752
G01 X-7.34022 Y3.47300
G01 X-7.31568 Y2.45611
G01 X-7.30412 Y2.44603
G01 X-7.30546 Y2.44720
G01 X-7.33023 Y3.47329
G01 X-7.33512 Y3.61797
G01 X-7.34269 Y3.75535
G01 X-7.34745 Y3.82129
G01 X-7.35289 Y3.88542
G01 X-7.35898 Y3.94771
G01 X-7.36574 Y4.00818
G01 X-7.37317 Y4.06682
G01 X-7.38124 Y4.12364
G01 X-7.38998 Y4.17863
G01 X-7.39938 Y4.23179
G01 X-7.40945 Y4.28313
G01 X-7.42018 Y4.33264
G01 X-7.43155 Y4.38031
G01 X-7.44360 Y4.42620
G01 X-7.47770 Y4.55007
G01 X-7.48863 Y4.59262
G01 X-7.49767 Y4.63392
G01 X-7.50490 Y4.67435
G01 X-7.51028 Y4.71372
G01 X-7.51381 Y4.75205
G01 X-7.51548 Y4.78933
G01 X-7.51528 Y4.82581
G01 X-7.51324 Y4.86086
G01 X-7.48792 Y5.15461
G01 X-7.48397 Y5.19072
G01 X-7.47819 Y5.22808
G01 X-7.43476 Y5.47435
G01 X-7.42843 Y5.51363
G01 X-7.42305 Y5.55401
G01 X-7.41866 Y5.59557
G01 X-7.41522 Y5.63829
G01 X-7.41275 Y5.68217
G01 X-7.41125 Y5.72721
G01 X-7.41072 Y5.77341
G01 X-7.41115 Y5.82081
G01 X-7.42989 Y6.79841
G01 X-7.42689 Y6.80642
G01 X-7.42989 Y6.79841
G01 X-7.55410 Y6.66189
G01 X-7.87155 Y6.31140
G01 X-7.92336 Y6.25523
G01 X-7.97501 Y6.20194
G01 X-8.02685 Y6.15118
G01 X-8.07850 Y6.10332
G01 X-8.08534 Y6.09715
G01 X-8.12173 Y6.06506
G01 X-8.18174 Y6.01326
G01 X-8.18191 Y6.01337
G01 X-8.18174 Y6.01326
G01 X-8.20703 Y5.92990
G01 X-8.24819 Y5.79132
G01 X-8.29335 Y5.61341
G01 X-8.30300 Y5.57281
G01 X-8.31099 Y5.53355
G01 X-8.31732 Y5.49559
G01 X-8.32202 Y5.45890
G01 X-8.33029 Y5.38193
G01 X-8.33335 Y5.33941
G01 X-8.33601 Y5.26298
G01 X-8.33744 Y5.23933
G01 X-8.34001 Y5.21661
G01 X-8.35572 Y5.10483
G01 X-8.35842 Y5.08868
G01 X-8.36181 Y5.07334
G01 X-8.36335 Y5.06716
G01 X-8.36827 Y5.04270
G01 X-8.37081 Y5.01847
G01 X-8.37101 Y4.99432
G01 X-8.36884 Y4.97014
G01 X-8.36503 Y4.94271
G01 X-8.36342 Y4.93249
G01 X-8.34594 Y4.83334
G01 X-8.34292 Y4.81305
G01 X-8.34096 Y4.79246
G01 X-8.33285 Y4.67637
G01 X-8.33200 Y4.66130
G01 X-8.33005 Y4.61477
G01 X-8.32852 Y4.58953
G01 X-8.32603 Y4.56367
G01 X-8.32258 Y4.53715
G01 X-8.31818 Y4.51001
G01 X-8.30053 Y4.42464
G01 X-8.26996 Y4.28491
G01 X-8.25025 Y4.20965
G01 X-8.22673 Y4.13040
G01 X-8.12022 Y3.79005
G01 X-8.09430 Y3.70535
G01 X-8.06836 Y3.61679
G01 X-7.96384 Y3.25228
G01 X-7.91699 Y3.08419
G01 X-7.87017 Y2.90678
G01 X-7.79671 Y2.62107
G01 X-7.79688 Y2.62097
G01 X-7.79671 Y2.62107
G01 X-7.74504 Y2.57170
G01 X-7.69115 Y2.52137
G01 X-7.63604 Y2.47105
G01 X-7.58127 Y2.42210
G01 X-7.58141 Y2.42169
G01 X-7.58127 Y2.42210
G01 X-7.51274 Y2.42681
G01 X-7.44214 Y2.43273
G01 X-7.37155 Y2.43970
G01 X-7.30546 Y2.44720
G01 X-7.31568 Y2.45611
G01 X-7.37260 Y2.44965
G01 X-7.44305 Y2.44269
G01 X-7.51350 Y2.43679
G01 X-7.57775 Y2.43237
G01 X-7.57803 Y2.43155
G01 X-7.57775 Y2.43237
G01 X-7.62933 Y2.47847
G01 X-7.68436 Y2.52872
G01 X-7.73817 Y2.57897
G01 X-7.78774 Y2.62633
G01 X-7.78809 Y2.62612
G01 X-7.78774 Y2.62633
G01 X-7.86050 Y2.90933
G01 X-7.90732 Y3.08674
G01 X-7.95420 Y3.25493
G01 X-8.05877 Y3.61963
G01 X-8.08468 Y3.70811
G01 X-8.11068 Y3.79307
G01 X-8.21716 Y4.13331
G01 X-8.24062 Y4.21235
G01 X-8.26023 Y4.28725
G01 X-8.29074 Y4.42669
G01 X-8.30834 Y4.51182
G01 X-8.31269 Y4.53860
G01 X-8.31609 Y4.56480
G01 X-8.31855 Y4.59031
G01 X-8.32006 Y4.61529
G01 X-8.32201 Y4.66172
G01 X-8.32288 Y4.67713
G01 X-8.33099 Y4.79315
G01 X-8.33297 Y4.81400
G01 X-8.33609 Y4.83507
G01 X-8.35355 Y4.93414
G01 X-8.35514 Y4.94418
G01 X-8.35890 Y4.97127
G01 X-8.36102 Y4.99473
G01 X-8.36083 Y5.01790
G01 X-8.35839 Y5.04120
G01 X-8.35359 Y5.06496
G01 X-8.35204 Y5.07118
G01 X-8.34865 Y5.08652
G01 X-8.34587 Y5.10306
G01 X-8.33008 Y5.21548
G01 X-8.32744 Y5.23899
G01 X-8.32603 Y5.26238
G01 X-8.32336 Y5.33888
G01 X-8.32033 Y5.38104
G01 X-8.31209 Y5.45772
G01 X-8.30743 Y5.49413
G01 X-8.30116 Y5.53173
G01 X-8.29323 Y5.57066
G01 X-8.28364 Y5.61102
G01 X-8.23855 Y5.78867
G01 X-8.19745 Y5.92703
G01 X-8.17301 Y6.00758
G01 X-8.17336 Y6.00780
G01 X-8.17301 Y6.00758
G01 X-8.11520 Y6.05750
G01 X-8.07877 Y6.08961
G01 X-8.07170 Y6.09599
G01 X-8.02005 Y6.14385
G01 X-7.96783 Y6.19498
G01 X-7.91618 Y6.24827
G01 X-7.86427 Y6.30454
G01 X-7.54669 Y6.65517
G01 X-7.43940 Y6.77310
G04 P0 ( dwell for no time -- G64 should not smooth over this point )
G00 Z0.08000 ( retract )

G00 X-8.76221 Y5.30672 ( rapid move to begin. )
G01 F3.00000
( Mill infeed pass 1/1 )
G01 Z-0.00800
G04 P0 ( dwell for no time -- G64 should not smooth over this point )
G01 F6.00000
G01 X-8.76221 Y5.30672
G01 X-8.98596 Y5.04007
G01 X-8.98788 Y5.04069
G01 X-8.99452 Y5.04210
G01 X-8.99660 Y5.04232
G01 X-9.00340 Y5.04232
G01 X-9.00548 Y5.04210
G01 X-9.01212 Y5.04069
G01 X-9.01410 Y5.04005
G01 X-9.02078 Y5.03702
G01 X-9.28786 Y5.26113
G01 X-9.24007 Y5.30728
G01 X-9.17094 Y5.35048
G01 X-9.09434 Y5.37836
G01 X-9.01361 Y5.38971
G01 X-8.93229 Y5.38402
G01 X-8.85393 Y5.36155
G01 X-8.78194 Y5.32328
G01 X-8.76221 Y5.30672
G01 X-8.77630 Y5.30549
G01 X-8.78756 Y5.31494
G01 X-8.85770 Y5.35223
G01 X-8.93404 Y5.37412
G01 X-9.01326 Y5.37966
G01 X-9.09191 Y5.36860
G01 X-9.16653 Y5.34144
G01 X-9.23388 Y5.29936
G01 X-9.27292 Y5.26165
G01 X-9.01918 Y5.04873
G01 X-9.01717 Y5.04957
G01 X-9.01420 Y5.05050
G01 X-9.00756 Y5.05188
G01 X-9.00446 Y5.05230
G01 X-8.99554 Y5.05230
G01 X-8.99244 Y5.05188
G01 X-8.98961 Y5.05128
G01 X-8.77630 Y5.30549
G01 X-8.79039 Y5.30426
G01 X-8.79319 Y5.30661
G01 X-8.86146 Y5.34290
G01 X-8.93578 Y5.36421
G01 X-9.01291 Y5.36961
G01 X-9.08947 Y5.35885
G01 X-9.16212 Y5.33240
G01 X-9.22769 Y5.29143
G01 X-9.25799 Y5.26217
G01 X-9.01709 Y5.06004
G01 X-9.00963 Y5.06166
G01 X-9.00551 Y5.06226
G01 X-8.99660 Y5.06232
G01 X-8.99357 Y5.06211
G01 X-8.79039 Y5.30426
G01 X-8.80548 Y5.30182
G01 X-8.86523 Y5.33358
G01 X-8.93753 Y5.35431
G01 X-9.01256 Y5.35956
G01 X-9.08704 Y5.34909
G01 X-9.15772 Y5.32337
G01 X-9.22150 Y5.28351
G01 X-9.24305 Y5.26269
G01 X-9.01444 Y5.07087
G01 X-9.01171 Y5.07144
G01 X-9.00656 Y5.07218
G01 X-8.99806 Y5.07232
G01 X-8.80548 Y5.30182
G04 P0 ( dwell for no time -- G64 should not smooth over this point )
G00 Z0.08000 ( retract )

G00 X-9.07097 Y4.98543 ( rapid move to begin. )
G01 F3.00000
( Mill infeed pass 1/1 )
G01 Z-0.00800
G04 P0 ( dwell for no time -- G64 should not smooth over this point )
G01 F6.00000
G01 X-9.07097 Y4.98543
G01 X-9.07157 Y4.98907
G01 X-9.07230 Y4.99582
G01 X-9.07240 Y5.00201
G01 X-9.30091 Y5.19375
G01 X-9.31766 Y5.16891
G01 X-9.34583 Y5.09916
G01 X-9.35891 Y5.02509
G01 X-9.35628 Y4.94993
G01 X-9.33808 Y4.87695
G01 X-9.30511 Y4.80934
G01 X-9.26346 Y4.75603
G01 X-9.07097 Y4.98543
G01 X-9.05999 Y4.98295
G01 X-9.26324 Y4.74073
G01 X-9.26604 Y4.74309
G01 X-9.31363 Y4.80402
G01 X-9.34753 Y4.87351
G01 X-9.36623 Y4.94853
G01 X-9.36894 Y5.02580
G01 X-9.35550 Y5.10194
G01 X-9.32654 Y5.17363
G01 X-9.30299 Y5.20855
G01 X-9.06200 Y5.00634
G01 X-9.06245 Y5.00104
G01 X-9.06237 Y4.99687
G01 X-9.06132 Y4.98800
G01 X-9.05999 Y4.98295
G01 X-9.04877 Y4.98077
G01 X-9.26200 Y4.72665
G01 X-9.27328 Y4.73610
G01 X-9.32216 Y4.79869
G01 X-9.35698 Y4.87007
G01 X-9.37619 Y4.94713
G01 X-9.37897 Y5.02650
G01 X-9.36516 Y5.10471
G01 X-9.33542 Y5.17835
G01 X-9.30507 Y5.22335
G01 X-9.05139 Y5.01049
G01 X-9.05240 Y5.00208
G01 X-9.05244 Y4.99791
G01 X-9.05155 Y4.99009
G01 X-9.05081 Y4.98706
G01 X-9.04877 Y4.98077
G01 X-9.03693 Y4.97932
G01 X-9.26077 Y4.71256
G01 X-9.28051 Y4.72912
G01 X-9.33069 Y4.79336
G01 X-9.36643 Y4.86663
G01 X-9.38615 Y4.94573
G01 X-9.38900 Y5.02720
G01 X-9.37483 Y5.10748
G01 X-9.34430 Y5.18307
G01 X-9.30715 Y5.23815
G01 X-9.03997 Y5.01396
G01 X-9.04130 Y5.00985
G01 X-9.04173 Y5.00780
G01 X-9.04245 Y5.00104
G01 X-9.04245 Y4.99895
G01 X-9.04173 Y4.99219
G01 X-9.04130 Y4.99015
G01 X-9.03920 Y4.98369
G01 X-9.03835 Y4.98177
G01 X-9.03693 Y4.97932
G04 P0 ( dwell for no time -- G64 should not smooth over this point )
G00 Z0.08000 ( retract )

G00 X-8.64109 Y4.97490 ( rapid move to begin. )
G01 F3.00000
( Mill infeed pass 1/1 )
G01 Z-0.00800
G04 P0 ( dwell for no time -- G64 should not smooth over this point )
G01 F6.00000
G01 X-8.64109 Y4.97490
G01 X-8.64372 Y5.05007
G01 X-8.66192 Y5.12305
G01 X-8.69489 Y5.19065
G01 X-8.73654 Y5.24397
G01 X-8.92903 Y5.01457
G01 X-8.92842 Y5.01093
G01 X-8.92770 Y5.00417
G01 X-8.92760 Y4.99799
G01 X-8.69909 Y4.80625
G01 X-8.68234 Y4.83109
G01 X-8.65417 Y4.90083
G01 X-8.64109 Y4.97490
G01 X-8.63106 Y4.97420
G01 X-8.64450 Y4.89806
G01 X-8.67346 Y4.82637
G01 X-8.69701 Y4.79145
G01 X-8.93800 Y4.99366
G01 X-8.93755 Y4.99896
G01 X-8.93763 Y5.00313
G01 X-8.93868 Y5.01200
G01 X-8.94001 Y5.01705
G01 X-8.73676 Y5.25927
G01 X-8.73396 Y5.25691
G01 X-8.68636 Y5.19598
G01 X-8.65247 Y5.12649
G01 X-8.63376 Y5.05147
G01 X-8.63106 Y4.97420
G01 X-8.62103 Y4.97350
G01 X-8.63484 Y4.89529
G01 X-8.66458 Y4.82165
G01 X-8.69493 Y4.77665
G01 X-8.94861 Y4.98951
G01 X-8.94760 Y4.99791
G01 X-8.94756 Y5.00209
G01 X-8.94844 Y5.00991
G01 X-8.94919 Y5.01294
G01 X-8.95123 Y5.01923
G01 X-8.73800 Y5.27335
G01 X-8.72672 Y5.26389
G01 X-8.67784 Y5.20131
G01 X-8.64302 Y5.12993
G01 X-8.62381 Y5.05287
G01 X-8.62103 Y4.97350
G01 X-8.61100 Y4.97280
G01 X-8.62517 Y4.89252
G01 X-8.65570 Y4.81693
G01 X-8.69285 Y4.76185
G01 X-8.96003 Y4.98604
G01 X-8.95870 Y4.99015
G01 X-8.95826 Y4.99219
G01 X-8.95755 Y4.99895
G01 X-8.95755 Y5.00104
G01 X-8.95826 Y5.00780
G01 X-8.95870 Y5.00985
G01 X-8.96080 Y5.01631
G01 X-8.96165 Y5.01823
G01 X-8.96307 Y5.02068
G01 X-8.73923 Y5.28744
G01 X-8.71949 Y5.27088
G01 X-8.66931 Y5.20664
G01 X-8.63357 Y5.13337
G01 X-8.61385 Y5.05427
G01 X-8.61100 Y4.97280
G04 P0 ( dwell for no time -- G64 should not smooth over this point )
G00 Z0.08000 ( retract )

G00 X-8.71214 Y4.73887 ( rapid move to begin. )
G01 F3.00000
( Mill infeed pass 1/1 )
G01 Z-0.00800
G04 P0 ( dwell for no time -- G64 should not smooth over this point )
G01 F6.00000
G01 X-8.71214 Y4.73887
G01 X-8.97922 Y4.96298
G01 X-8.98590 Y4.95995
G01 X-8.98788 Y4.95931
G01 X-8.99452 Y4.95790
G01 X-8.99660 Y4.95768
G01 X-9.00340 Y4.95768
G01 X-9.00548 Y4.95790
G01 X-9.01212 Y4.95931
G01 X-9.01404 Y4.95993
G01 X-9.23779 Y4.69328
G01 X-9.21806 Y4.67672
G01 X-9.14607 Y4.63845
G01 X-9.06771 Y4.61598
G01 X-8.98639 Y4.61029
G01 X-8.90566 Y4.62164
G01 X-8.82906 Y4.64952
G01 X-8.75993 Y4.69272
G01 X-8.71214 Y4.73887
G01 X-8.72707 Y4.73835
G01 X-8.76612 Y4.70064
G01 X-8.83347 Y4.65856
G01 X-8.90809 Y4.63140
G01 X-8.98674 Y4.62034
G01 X-9.06596 Y4.62588
G01 X-9.14230 Y4.64777
G01 X-9.21244 Y4.68506
G01 X-9.22370 Y4.69451
G01 X-9.01039 Y4.94872
G01 X-9.00756 Y4.94812
G01 X-9.00445 Y4.94770
G01 X-8.99554 Y4.94769
G01 X-8.99244 Y4.94812
G01 X-8.98579 Y4.94950
G01 X-8.98282 Y4.95043
G01 X-8.98082 Y4.95127
G01 X-8.72707 Y4.73835
G01 X-8.74201 Y4.73783
G01 X-8.77231 Y4.70857
G01 X-8.83788 Y4.66759
G01 X-8.91052 Y4.64115
G01 X-8.98709 Y4.63039
G01 X-9.06422 Y4.63578
G01 X-9.13854 Y4.65710
G01 X-9.20681 Y4.69339
G01 X-9.20961 Y4.69574
G01 X-9.00643 Y4.93789
G01 X-9.00340 Y4.93768
G01 X-8.99449 Y4.93774
G01 X-8.99037 Y4.93834
G01 X-8.98291 Y4.93996
G01 X-8.74201 Y4.73783
G01 X-8.75695 Y4.73731
G01 X-8.77850 Y4.71649
G01 X-8.84228 Y4.67663
G01 X-8.91296 Y4.65091
G01 X-8.98744 Y4.64044
G01 X-9.06247 Y4.64569
G01 X-9.13477 Y4.66642
G01 X-9.19452 Y4.69818
G01 X-9.00194 Y4.92768
G01 X-8.99344 Y4.92782
G01 X-8.98829 Y4.92855
G01 X-8.98556 Y4.92913
G01 X-8.75695 Y4.73731
G04 P0 ( dwell for no time -- G64 should not smooth over this point )
G00 Z0.08000 ( retract )

G00 X-7.82506 Y2.65100 ( rapid move to begin. )
G01 F3.00000
( Mill infeed pass 1/1 )
G01 Z-0.00800
G04 P0 ( dwell for no time -- G64 should not smooth over this point )
G01 F6.00000
G01 X-7.82506 Y2.65100
G01 X-7.88952 Y2.90172
G01 X-7.93630 Y3.07898
G01 X-7.98308 Y3.24682
G01 X-8.08758 Y3.61123
G01 X-8.11345 Y3.69959
G01 X-8.13933 Y3.78416
G01 X-8.24582 Y4.12446
G01 X-8.26958 Y4.20451
G01 X-8.28947 Y4.28052
G01 X-8.31670 Y4.40458
G01 X-8.33779 Y4.50606
G01 X-8.34240 Y4.53449
G01 X-8.34587 Y4.56118
G01 X-8.34848 Y4.58824
G01 X-8.35003 Y4.61389
G01 X-8.35198 Y4.66036
G01 X-8.35281 Y4.67515
G01 X-8.36090 Y4.79087
G01 X-8.36279 Y4.81076
G01 X-8.36566 Y4.83006
G01 X-8.38312 Y4.92906
G01 X-8.38484 Y4.93992
G01 X-8.38867 Y4.96751
G01 X-8.39101 Y4.99424
G01 X-8.39073 Y5.02031
G01 X-8.38792 Y5.04642
G01 X-8.38293 Y5.07122
G01 X-8.38129 Y5.07786
G01 X-8.37803 Y5.09261
G01 X-8.37550 Y5.10781
G01 X-8.35986 Y5.21906
G01 X-8.35736 Y5.24118
G01 X-8.35598 Y5.26399
G01 X-8.35333 Y5.34020
G01 X-8.35018 Y5.38398
G01 X-8.34187 Y5.46139
G01 X-8.33707 Y5.49879
G01 X-8.33061 Y5.53745
G01 X-8.32258 Y5.57688
G01 X-8.31280 Y5.61807
G01 X-8.26739 Y5.79692
G01 X-8.22618 Y5.93565
G01 X-8.20910 Y5.99204
G01 X-8.20078 Y6.00079
G01 X-8.20910 Y5.99204
G01 X-8.25845 Y5.97458
G01 X-8.30812 Y5.95873
G01 X-8.44212 Y5.91537
G01 X-8.49424 Y5.89947
G01 X-8.50352 Y5.89681
G01 X-8.54322 Y5.88605
G01 X-8.58177 Y5.87678
G01 X-8.63508 Y5.86481
G01 X-8.69399 Y5.85115
G01 X-8.74255 Y5.84120
G01 X-8.75039 Y5.83981
G01 X-8.78069 Y5.83501
G01 X-8.80988 Y5.83144
G01 X-8.84330 Y5.82793
G01 X-8.88734 Y5.82294
G01 X-8.91767 Y5.82015
G01 X-8.92520 Y5.81962
G01 X-8.96015 Y5.81808
G01 X-8.99461 Y5.81829
G01 X-9.07446 Y5.82010
G01 X-9.08183 Y5.82036
G01 X-9.11897 Y5.82264
G01 X-9.15716 Y5.82698
G01 X-9.17365 Y5.82934
G01 X-9.25848 Y5.84223
G01 X-9.30828 Y5.85075
G01 X-9.35798 Y5.86189
G01 X-9.38040 Y5.86758
G01 X-9.44864 Y5.88558
G01 X-9.44962 Y5.88795
G01 X-9.44864 Y5.88558
G01 X-9.46534 Y5.85679
G01 X-9.52311 Y5.75256
G01 X-9.54519 Y5.71026
G01 X-9.56450 Y5.66798
G01 X-9.59857 Y5.58773
G01 X-9.61029 Y5.56070
G01 X-9.62066 Y5.53391
G01 X-9.62420 Y5.52419
G01 X-9.63297 Y5.49854
G01 X-9.64066 Y5.47262
G01 X-9.66550 Y5.39136
G01 X-9.67348 Y5.36264
G01 X-9.67986 Y5.33393
G01 X-9.70011 Y5.22979
G01 X-9.70437 Y5.20435
G01 X-9.70727 Y5.17891
G01 X-9.71639 Y5.07478
G01 X-9.71785 Y5.05077
G01 X-9.71807 Y5.02675
G01 X-9.71625 Y4.92262
G01 X-9.71518 Y4.89834
G01 X-9.71285 Y4.87406
G01 X-9.70007 Y4.76993
G01 X-9.69611 Y4.74360
G01 X-9.69075 Y4.71726
G01 X-9.66670 Y4.61312
G01 X-9.65886 Y4.58287
G01 X-9.64930 Y4.55262
G01 X-9.61344 Y4.44847
G01 X-9.59974 Y4.41193
G01 X-9.58266 Y4.37288
G01 X-9.56288 Y4.32690
G01 X-9.55840 Y4.31730
G01 X-9.51223 Y4.22520
G01 X-9.48641 Y4.17969
G01 X-9.42374 Y4.07540
G01 X-9.40544 Y4.04589
G01 X-9.38606 Y4.01644
G01 X-9.36555 Y3.98698
G01 X-9.34384 Y3.95742
G01 X-9.26519 Y3.85306
G01 X-9.23480 Y3.81391
G01 X-9.20273 Y3.77481
G01 X-9.16888 Y3.73570
G01 X-9.13321 Y3.69650
G01 X-9.03587 Y3.59213
G01 X-8.98462 Y3.53874
G01 X-8.93053 Y3.48540
G01 X-8.87350 Y3.43204
G01 X-8.81349 Y3.37859
G01 X-8.69337 Y3.27417
G01 X-8.64935 Y3.23647
G01 X-8.60407 Y3.19881
G01 X-8.55747 Y3.16114
G01 X-8.50958 Y3.12349
G01 X-8.40976 Y3.04809
G01 X-8.30463 Y2.97265
G01 X-8.15548 Y2.86820
G01 X-8.06936 Y2.80894
G01 X-7.98033 Y2.74971
G01 X-7.88833 Y2.69047
G01 X-7.82506 Y2.65100
G01 X-7.80915 Y2.62929
G01 X-7.89368 Y2.68202
G01 X-7.98581 Y2.74134
G01 X-8.07497 Y2.80066
G01 X-8.16118 Y2.85999
G01 X-8.31042 Y2.96449
G01 X-8.41568 Y3.04004
G01 X-8.51569 Y3.11557
G01 X-8.56370 Y3.15332
G01 X-8.61041 Y3.19108
G01 X-8.65581 Y3.22883
G01 X-8.69990 Y3.26660
G01 X-8.82010 Y3.37108
G01 X-8.88025 Y3.42465
G01 X-8.93745 Y3.47819
G01 X-8.99174 Y3.53171
G01 X-9.04314 Y3.58526
G01 X-9.14056 Y3.68973
G01 X-9.17636 Y3.72906
G01 X-9.21038 Y3.76836
G01 X-9.24262 Y3.80767
G01 X-9.27314 Y3.84699
G01 X-9.35186 Y3.95145
G01 X-9.37368 Y3.98116
G01 X-9.39434 Y4.01083
G01 X-9.41387 Y4.04050
G01 X-9.43227 Y4.07020
G01 X-9.49504 Y4.17464
G01 X-9.52106 Y4.22049
G01 X-9.56740 Y4.31294
G01 X-9.57201 Y4.32281
G01 X-9.59185 Y4.36892
G01 X-9.60901 Y4.40818
G01 X-9.62285 Y4.44508
G01 X-9.65880 Y4.54949
G01 X-9.66847 Y4.58011
G01 X-9.67641 Y4.61074
G01 X-9.70052 Y4.71514
G01 X-9.70596 Y4.74186
G01 X-9.70998 Y4.76858
G01 X-9.72279 Y4.87297
G01 X-9.72516 Y4.89764
G01 X-9.72624 Y4.92231
G01 X-9.72807 Y5.02671
G01 X-9.72785 Y5.05112
G01 X-9.72636 Y5.07552
G01 X-9.71722 Y5.17991
G01 X-9.71428 Y5.20574
G01 X-9.70995 Y5.23157
G01 X-9.68965 Y5.33597
G01 X-9.68319 Y5.36507
G01 X-9.67510 Y5.39416
G01 X-9.65021 Y5.47559
G01 X-9.64250 Y5.50158
G01 X-9.63363 Y5.52752
G01 X-9.63002 Y5.53743
G01 X-9.61954 Y5.56449
G01 X-9.60778 Y5.59164
G01 X-9.57365 Y5.67201
G01 X-9.55418 Y5.71465
G01 X-9.53192 Y5.75730
G01 X-9.47404 Y5.86172
G01 X-9.45346 Y5.89719
G01 X-9.45395 Y5.89838
G01 X-9.45346 Y5.89719
G01 X-9.36386 Y5.87366
G01 X-9.35579 Y5.87165
G01 X-9.30609 Y5.86051
G01 X-9.25716 Y5.85214
G01 X-9.17211 Y5.83922
G01 X-9.15603 Y5.83691
G01 X-9.11836 Y5.83262
G01 X-9.08122 Y5.83034
G01 X-9.07417 Y5.83009
G01 X-8.99429 Y5.82828
G01 X-8.96009 Y5.82808
G01 X-8.92565 Y5.82961
G01 X-8.91858 Y5.83011
G01 X-8.88847 Y5.83287
G01 X-8.84441 Y5.83787
G01 X-8.81109 Y5.84137
G01 X-8.78190 Y5.84494
G01 X-8.75214 Y5.84966
G01 X-8.74456 Y5.85100
G01 X-8.69626 Y5.86089
G01 X-8.63729 Y5.87456
G01 X-8.58411 Y5.88650
G01 X-8.54556 Y5.89577
G01 X-8.50614 Y5.90646
G01 X-8.49691 Y5.90911
G01 X-8.44504 Y5.92494
G01 X-8.31119 Y5.96825
G01 X-8.26148 Y5.98410
G01 X-8.19377 Y6.00808
G01 X-8.18960 Y6.01246
G01 X-8.19377 Y6.00808
G01 X-8.21661 Y5.93277
G01 X-8.25786 Y5.79388
G01 X-8.30306 Y5.61583
G01 X-8.31278 Y5.57489
G01 X-8.32081 Y5.53546
G01 X-8.32723 Y5.49695
G01 X-8.33195 Y5.46012
G01 X-8.34024 Y5.38291
G01 X-8.34334 Y5.33985
G01 X-8.34599 Y5.26352
G01 X-8.34739 Y5.24032
G01 X-8.34994 Y5.21780
G01 X-8.36561 Y5.10629
G01 X-8.36821 Y5.09071
G01 X-8.37156 Y5.07557
G01 X-8.37313 Y5.06925
G01 X-8.37812 Y5.04445
G01 X-8.38078 Y5.01927
G01 X-8.38099 Y4.99367
G01 X-8.37876 Y4.96888
G01 X-8.37493 Y4.94129
G01 X-8.37327 Y4.93080
G01 X-8.35580 Y4.83167
G01 X-8.35286 Y4.81197
G01 X-8.35093 Y4.79170
G01 X-8.34283 Y4.67577
G01 X-8.34199 Y4.66085
G01 X-8.34004 Y4.61431
G01 X-8.33850 Y4.58884
G01 X-8.33596 Y4.56247
G01 X-8.33249 Y4.53578
G01 X-8.32800 Y4.50809
G01 X-8.30692 Y4.40667
G01 X-8.27970 Y4.28267
G01 X-8.25991 Y4.20704
G01 X-8.23628 Y4.12745
G01 X-8.12978 Y3.78711
G01 X-8.10387 Y3.70246
G01 X-8.07797 Y3.61402
G01 X-7.97346 Y3.24954
G01 X-7.92664 Y3.08160
G01 X-7.87984 Y2.90424
G01 X-7.80915 Y2.62929
G01 X-7.80415 Y2.62247
G04 P0 ( dwell for no time -- G64 should not smooth over this point )
G00 Z0.08000 ( retract )

G00 X-6.74237 Y2.79389 ( rapid move to begin. )
G01 F3.00000
( Mill infeed pass 1/1 )
G01 Z-0.00800
G04 P0 ( dwell for no time -- G64 should not smooth over this point )
G01 F6.00000
G01 X-6.74237 Y2.79389
G01 X-6.73144 Y2.84383
G01 X-6.43614 Y3.58335
G01 X-6.39797 Y3.68144
G01 X-6.36322 Y3.77608
G01 X-6.33186 Y3.86730
G01 X-6.30389 Y3.95511
G01 X-6.27930 Y4.03949
G01 X-6.25809 Y4.12045
G01 X-6.24026 Y4.19799
G01 X-6.22579 Y4.27222
G01 X-6.17729 Y4.54720
G01 X-6.16699 Y4.59867
G01 X-6.15518 Y4.64536
G01 X-6.14141 Y4.68918
G01 X-6.12582 Y4.72937
G01 X-6.10794 Y4.76682
G01 X-6.09879 Y4.78321
G01 X-6.08888 Y4.79926
G01 X-6.07846 Y4.81442
G01 X-6.06756 Y4.82866
G01 X-6.05618 Y4.84196
G01 X-6.04429 Y4.85436
G01 X-6.04225 Y4.85613
G01 X-6.03993 Y4.85750
G01 X-6.00976 Y4.87166
G01 X-5.99998 Y4.87601
G01 X-5.98291 Y4.88428
G01 X-5.97732 Y4.88729
G01 X-5.96070 Y4.89748
G01 X-5.95564 Y4.90093
G01 X-5.94120 Y4.91202
G01 X-5.93660 Y4.91593
G01 X-5.92388 Y4.92803
G01 X-5.91974 Y4.93239
G01 X-5.90831 Y4.94578
G01 X-5.90461 Y4.95059
G01 X-5.89401 Y4.96605
G01 X-5.89076 Y4.97133
G01 X-5.88093 Y4.98947
G01 X-5.87816 Y4.99527
G01 X-5.86912 Y5.01717
G01 X-5.86686 Y5.02352
G01 X-5.85880 Y5.05091
G01 X-5.85708 Y5.05808
G01 X-5.85347 Y5.07518
G01 X-5.85067 Y5.09311
G01 X-5.84961 Y5.10122
G01 X-5.84726 Y5.12398
G01 X-5.84604 Y5.14793
G01 X-5.84580 Y5.15690
G01 X-5.84583 Y5.18795
G01 X-5.84753 Y5.22090
G01 X-5.84732 Y5.22427
G01 X-5.76893 Y5.66882
G01 X-5.76290 Y5.70632
G01 X-5.75788 Y5.74484
G01 X-5.53728 Y7.64471
G01 X-5.52465 Y7.65445
G01 X-5.52622 Y7.65323
G01 X-5.61985 Y7.66653
G01 X-5.71826 Y7.67837
G01 X-5.81667 Y7.68806
G01 X-5.91508 Y7.69559
G01 X-6.01348 Y7.70098
G01 X-6.11189 Y7.70423
G01 X-6.21029 Y7.70532
G01 X-6.30870 Y7.70427
G01 X-6.40710 Y7.70107
G01 X-6.50551 Y7.69573
G01 X-6.60392 Y7.68824
G01 X-6.70232 Y7.67859
G01 X-6.80073 Y7.66680
G01 X-6.89914 Y7.65287
G01 X-6.99755 Y7.63678
G01 X-7.09294 Y7.61911
G01 X-7.09354 Y7.61977
G01 X-7.09294 Y7.61911
G01 X-7.13926 Y7.45204
G01 X-7.17708 Y7.32098
G01 X-7.17728 Y7.32099
G01 X-7.17708 Y7.32098
G01 X-7.13254 Y7.16547
G01 X-7.09038 Y7.01448
G01 X-7.05101 Y6.86953
G01 X-7.01442 Y6.73047
G01 X-6.98062 Y6.59745
G01 X-6.94959 Y6.47031
G01 X-6.92136 Y6.34918
G01 X-6.89591 Y6.23408
G01 X-6.87323 Y6.12488
G01 X-6.85334 Y6.02156
G01 X-6.83624 Y5.92436
G01 X-6.82192 Y5.83305
G01 X-6.81037 Y5.74757
G01 X-6.80162 Y5.66828
G01 X-6.79565 Y5.59464
G01 X-6.79246 Y5.52731
G01 X-6.78499 Y5.25709
G01 X-6.78393 Y5.23998
G01 X-6.78171 Y5.22317
G01 X-6.77832 Y5.20656
G01 X-6.77374 Y5.19007
G01 X-6.66338 Y4.84005
G01 X-6.65853 Y4.82326
G01 X-6.65452 Y4.80635
G01 X-6.65123 Y4.78885
G01 X-6.64869 Y4.77066
G01 X-6.64604 Y4.73391
G01 X-6.64648 Y4.69595
G01 X-6.74451 Y2.78412
G01 X-6.74998 Y2.75915
G01 X-6.74451 Y2.78412
G01 X-6.42683 Y3.57968
G01 X-6.38862 Y3.67791
G01 X-6.35380 Y3.77273
G01 X-6.32237 Y3.86416
G01 X-6.29432 Y3.95219
G01 X-6.26966 Y4.03682
G01 X-6.24838 Y4.11806
G01 X-6.23048 Y4.19591
G01 X-6.21596 Y4.27039
G01 X-6.16744 Y4.54546
G01 X-6.15735 Y4.59597
G01 X-6.14541 Y4.64318
G01 X-6.13187 Y4.68617
G01 X-6.11650 Y4.72575
G01 X-6.09921 Y4.76195
G01 X-6.08994 Y4.77853
G01 X-6.08037 Y4.79400
G01 X-6.07023 Y4.80875
G01 X-6.05946 Y4.82277
G01 X-6.04859 Y4.83545
G01 X-6.03708 Y4.84743
G01 X-6.03563 Y4.84847
G01 X-6.03136 Y4.85051
G01 X-6.00552 Y4.86261
G01 X-5.99581 Y4.86692
G01 X-5.97834 Y4.87538
G01 X-5.97232 Y4.87864
G01 X-5.95526 Y4.88909
G01 X-5.94977 Y4.89284
G01 X-5.93491 Y4.90425
G01 X-5.92991 Y4.90850
G01 X-5.91680 Y4.92096
G01 X-5.91230 Y4.92570
G01 X-5.90054 Y4.93949
G01 X-5.89652 Y4.94471
G01 X-5.88561 Y4.96060
G01 X-5.88210 Y4.96633
G01 X-5.87202 Y4.98494
G01 X-5.86902 Y4.99121
G01 X-5.85978 Y5.01359
G01 X-5.85735 Y5.02044
G01 X-5.84914 Y5.04833
G01 X-5.84733 Y5.05588
G01 X-5.84364 Y5.07337
G01 X-5.84077 Y5.09169
G01 X-5.83967 Y5.10006
G01 X-5.83728 Y5.12321
G01 X-5.83605 Y5.14754
G01 X-5.83580 Y5.15677
G01 X-5.83583 Y5.18821
G01 X-5.83754 Y5.22141
G01 X-5.83747 Y5.22254
G01 X-5.75907 Y5.66716
G01 X-5.75301 Y5.70488
G01 X-5.74795 Y5.74361
G01 X-5.52622 Y7.65323
G01 X-5.53728 Y7.64471
G01 X-5.62115 Y7.65662
G01 X-5.71935 Y7.66843
G01 X-5.81754 Y7.67810
G01 X-5.91573 Y7.68561
G01 X-6.01392 Y7.69099
G01 X-6.11211 Y7.69423
G01 X-6.21029 Y7.69532
G01 X-6.30849 Y7.69427
G01 X-6.40667 Y7.69108
G01 X-6.50486 Y7.68575
G01 X-6.60305 Y7.67828
G01 X-6.70123 Y7.66865
G01 X-6.79944 Y7.65688
G01 X-6.89763 Y7.64298
G01 X-6.99583 Y7.62693
G01 X-7.08497 Y7.61042
G01 X-7.08618 Y7.61174
G01 X-7.08497 Y7.61042
G01 X-7.12962 Y7.44942
G01 X-7.16667 Y7.32097
G01 X-7.16708 Y7.32097
G01 X-7.16667 Y7.32097
G01 X-7.12290 Y7.16812
G01 X-7.08076 Y7.01720
G01 X-7.04133 Y6.87204
G01 X-7.00473 Y6.73293
G01 X-6.97093 Y6.59991
G01 X-6.93985 Y6.47258
G01 X-6.91159 Y6.35134
G01 X-6.88614 Y6.23624
G01 X-6.86344 Y6.12691
G01 X-6.84349 Y6.02330
G01 X-6.82640 Y5.92610
G01 X-6.81204 Y5.83460
G01 X-6.80043 Y5.74866
G01 X-6.79168 Y5.66937
G01 X-6.78566 Y5.59512
G01 X-6.78248 Y5.52778
G01 X-6.77500 Y5.25754
G01 X-6.77397 Y5.24095
G01 X-6.77184 Y5.22483
G01 X-6.76859 Y5.20890
G01 X-6.76415 Y5.19291
G01 X-6.65377 Y4.84282
G01 X-6.64880 Y4.82557
G01 X-6.64465 Y4.80797
G01 X-6.64130 Y4.79001
G01 X-6.63872 Y4.77139
G01 X-6.63604 Y4.73380
G01 X-6.63649 Y4.69544
G01 X-6.73144 Y2.84383
G04 P0 ( dwell for no time -- G64 should not smooth over this point )
G00 Z0.08000 ( retract )

G00 X-4.17040 Y2.47039 ( rapid move to begin. )
G01 F3.00000
( Mill infeed pass 1/1 )
G01 Z-0.00800
G04 P0 ( dwell for no time -- G64 should not smooth over this point )
G01 F6.00000
G01 X-4.17040 Y2.47039
G01 X-4.24080 Y2.44846
G01 X-4.32483 Y2.42389
G01 X-4.40885 Y2.40093
G01 X-4.49287 Y2.37958
G01 X-4.57688 Y2.35984
G01 X-4.66089 Y2.34171
G01 X-4.74490 Y2.32519
G01 X-4.82890 Y2.31027
G01 X-4.91291 Y2.29698
G01 X-4.99691 Y2.28527
G01 X-5.08091 Y2.27519
G01 X-5.16489 Y2.26672
G01 X-5.24889 Y2.25984
G01 X-5.33288 Y2.25458
G01 X-5.41688 Y2.25093
G01 X-5.50087 Y2.24889
G01 X-5.58486 Y2.24845
G01 X-5.66886 Y2.24962
G01 X-5.75284 Y2.25240
G01 X-5.83683 Y2.25678
G01 X-5.92083 Y2.26278
G01 X-6.00483 Y2.27039
G01 X-6.08882 Y2.27960
G01 X-6.17282 Y2.29042
G01 X-6.25683 Y2.30285
G01 X-6.34082 Y2.31688
G01 X-6.42483 Y2.33253
G01 X-6.50884 Y2.34978
G01 X-6.59285 Y2.36865
G01 X-6.67687 Y2.38913
G01 X-6.76089 Y2.41121
G01 X-6.83044 Y2.43083
G01 X-6.83414 Y2.42879
G01 X-6.83044 Y2.43083
G01 X-6.73687 Y2.74937
G01 X-6.40820 Y3.57241
G01 X-6.36986 Y3.67097
G01 X-6.33491 Y3.76618
G01 X-6.30333 Y3.85804
G01 X-6.27525 Y3.94618
G01 X-6.25044 Y4.03129
G01 X-6.22890 Y4.11351
G01 X-6.21097 Y4.19151
G01 X-6.19632 Y4.26661
G01 X-6.14778 Y4.54182
G01 X-6.13781 Y4.59168
G01 X-6.12620 Y4.63758
G01 X-6.11294 Y4.67969
G01 X-6.09806 Y4.71798
G01 X-6.08151 Y4.75261
G01 X-6.07276 Y4.76829
G01 X-6.06356 Y4.78317
G01 X-6.05398 Y4.79708
G01 X-6.04401 Y4.81006
G01 X-6.03368 Y4.82211
G01 X-6.02456 Y4.83159
G01 X-6.02466 Y4.83173
G01 X-6.02456 Y4.83159
G01 X-5.99715 Y4.84444
G01 X-5.98719 Y4.84887
G01 X-5.96891 Y4.85775
G01 X-5.96200 Y4.86151
G01 X-5.94471 Y4.87209
G01 X-5.93835 Y4.87643
G01 X-5.92263 Y4.88846
G01 X-5.91624 Y4.89391
G01 X-5.90293 Y4.90655
G01 X-5.89770 Y4.91204
G01 X-5.88474 Y4.92721
G01 X-5.88012 Y4.93329
G01 X-5.86906 Y4.94939
G01 X-5.86498 Y4.95601
G01 X-5.85437 Y4.97552
G01 X-5.85092 Y4.98273
G01 X-5.84125 Y5.00607
G01 X-5.83846 Y5.01390
G01 X-5.82972 Y5.04354
G01 X-5.82777 Y5.05168
G01 X-5.82390 Y5.07015
G01 X-5.82100 Y5.08866
G01 X-5.81984 Y5.09754
G01 X-5.81732 Y5.12207
G01 X-5.81607 Y5.14659
G01 X-5.81581 Y5.15631
G01 X-5.81583 Y5.18835
G01 X-5.81754 Y5.22075
G01 X-5.73937 Y5.66373
G01 X-5.73319 Y5.70222
G01 X-5.72809 Y5.74127
G01 X-5.50729 Y7.64287
G01 X-5.50947 Y7.64525
G01 X-5.50729 Y7.64287
G01 X-5.44427 Y7.64463
G01 X-5.36840 Y7.64550
G01 X-5.29253 Y7.64512
G01 X-5.21666 Y7.64349
G01 X-5.14078 Y7.64060
G01 X-5.06491 Y7.63647
G01 X-4.98904 Y7.63108
G01 X-4.91316 Y7.62444
G01 X-4.83728 Y7.61654
G01 X-4.76142 Y7.60740
G01 X-4.68553 Y7.59701
G01 X-4.60965 Y7.58536
G01 X-4.53377 Y7.57246
G01 X-4.45789 Y7.55831
G01 X-4.38200 Y7.54290
G01 X-4.32012 Y7.52933
G01 X-4.31688 Y7.53149
G01 X-4.32012 Y7.52933
G01 X-4.56982 Y6.15472
G01 X-4.57993 Y6.09654
G01 X-4.58898 Y6.03910
G01 X-4.59685 Y5.98325
G01 X-4.60368 Y5.92799
G01 X-4.60933 Y5.87436
G01 X-4.61388 Y5.82156
G01 X-4.61734 Y5.76987
G01 X-4.61966 Y5.71927
G01 X-4.61960 Y5.71699
G01 X-4.61022 Y5.62913
G01 X-4.60461 Y5.56874
G01 X-4.59074 Y5.38485
G01 X-4.58010 Y5.25406
G01 X-4.57060 Y5.14668
G01 X-4.56124 Y5.04963
G01 X-4.55040 Y4.94617
G01 X-4.53927 Y4.84727
G01 X-4.52194 Y4.70330
G01 X-4.51806 Y4.66931
G01 X-4.51499 Y4.63514
G01 X-4.51499 Y4.34475
G01 X-4.51750 Y4.31142
G01 X-4.51977 Y4.28434
G01 X-4.53039 Y4.16533
G01 X-4.53043 Y4.16324
G01 X-4.52782 Y4.11165
G01 X-4.52426 Y4.05935
G01 X-4.51968 Y4.00556
G01 X-4.51416 Y3.95129
G01 X-4.50764 Y3.89581
G01 X-4.50010 Y3.83914
G01 X-4.49161 Y3.78173
G01 X-4.48217 Y3.72354
G01 X-4.46028 Y3.60393
G01 X-4.43447 Y3.48032
G01 X-4.40465 Y3.35251
G01 X-4.37103 Y3.22128
G01 X-4.17040 Y2.47039
G01 X-4.15826 Y2.46370
G01 X-4.36137 Y3.22386
G01 X-4.39499 Y3.35509
G01 X-4.42466 Y3.48225
G01 X-4.45042 Y3.60561
G01 X-4.47229 Y3.72514
G01 X-4.48175 Y3.78340
G01 X-4.49022 Y3.84068
G01 X-4.49770 Y3.89697
G01 X-4.50421 Y3.95230
G01 X-4.50973 Y4.00657
G01 X-4.51429 Y4.06003
G01 X-4.51785 Y4.11233
G01 X-4.52044 Y4.16375
G01 X-4.50981 Y4.28348
G01 X-4.50753 Y4.31061
G01 X-4.50500 Y4.34438
G01 X-4.50500 Y4.63559
G01 X-4.50811 Y4.67032
G01 X-4.51201 Y4.70449
G01 X-4.52933 Y4.84839
G01 X-4.54046 Y4.94723
G01 X-4.55060 Y5.04379
G01 X-4.55999 Y5.14061
G01 X-4.57014 Y5.25493
G01 X-4.58009 Y5.37703
G01 X-4.59464 Y5.56959
G01 X-4.60027 Y5.63012
G01 X-4.60967 Y5.71881
G01 X-4.60736 Y5.76920
G01 X-4.60392 Y5.82070
G01 X-4.59938 Y5.87331
G01 X-4.59372 Y5.92703
G01 X-4.58695 Y5.98186
G01 X-4.57908 Y6.03771
G01 X-4.57008 Y6.09483
G01 X-4.55999 Y6.15290
G01 X-4.30856 Y7.53703
G01 X-4.30694 Y7.53811
G01 X-4.30856 Y7.53703
G01 X-4.37993 Y7.55269
G01 X-4.45597 Y7.56812
G01 X-4.53202 Y7.58231
G01 X-4.60806 Y7.59523
G01 X-4.68410 Y7.60690
G01 X-4.76014 Y7.61732
G01 X-4.83617 Y7.62648
G01 X-4.91221 Y7.63439
G01 X-4.98825 Y7.64105
G01 X-5.06428 Y7.64645
G01 X-5.14032 Y7.65060
G01 X-5.21636 Y7.65348
G01 X-5.29240 Y7.65512
G01 X-5.36843 Y7.65550
G01 X-5.44447 Y7.65463
G01 X-5.51622 Y7.65262
G01 X-5.51731 Y7.65381
G01 X-5.51622 Y7.65262
G01 X-5.73802 Y5.74242
G01 X-5.74312 Y5.70337
G01 X-5.74922 Y5.66546
G01 X-5.82756 Y5.22136
G01 X-5.82583 Y5.18834
G01 X-5.82580 Y5.15658
G01 X-5.82606 Y5.14710
G01 X-5.82731 Y5.12258
G01 X-5.82975 Y5.09883
G01 X-5.83088 Y5.09021
G01 X-5.83378 Y5.07170
G01 X-5.83756 Y5.05375
G01 X-5.83945 Y5.04587
G01 X-5.84788 Y5.01723
G01 X-5.85049 Y5.00989
G01 X-5.85994 Y4.98703
G01 X-5.86316 Y4.98029
G01 X-5.87351 Y4.96123
G01 X-5.87730 Y4.95505
G01 X-5.88836 Y4.93895
G01 X-5.89268 Y4.93330
G01 X-5.90479 Y4.91911
G01 X-5.90963 Y4.91399
G01 X-5.92313 Y4.90116
G01 X-5.92872 Y4.89639
G01 X-5.94401 Y4.88468
G01 X-5.94993 Y4.88063
G01 X-5.96722 Y4.87005
G01 X-5.97368 Y4.86653
G01 X-5.99155 Y4.85787
G01 X-6.00132 Y4.85353
G01 X-6.03056 Y4.83991
G01 X-6.04109 Y4.82884
G01 X-6.05178 Y4.81637
G01 X-6.06206 Y4.80297
G01 X-6.07193 Y4.78864
G01 X-6.08138 Y4.77336
G01 X-6.09040 Y4.75721
G01 X-6.10725 Y4.72195
G01 X-6.12238 Y4.68301
G01 X-6.13583 Y4.64031
G01 X-6.14757 Y4.59389
G01 X-6.15761 Y4.54366
G01 X-6.20611 Y4.26861
G01 X-6.22068 Y4.19391
G01 X-6.23865 Y4.11575
G01 X-6.26004 Y4.03409
G01 X-6.28477 Y3.94921
G01 X-6.31285 Y3.86107
G01 X-6.34436 Y3.76943
G01 X-6.37925 Y3.67442
G01 X-6.41754 Y3.57599
G01 X-6.74632 Y2.75263
G01 X-6.84289 Y2.42395
G01 X-6.84473 Y2.42293
G01 X-6.84289 Y2.42395
G01 X-6.76351 Y2.40156
G01 X-6.67932 Y2.37944
G01 X-6.59513 Y2.35892
G01 X-6.51094 Y2.34001
G01 X-6.42675 Y2.32272
G01 X-6.34256 Y2.30703
G01 X-6.25838 Y2.29297
G01 X-6.17419 Y2.28051
G01 X-6.09001 Y2.26966
G01 X-6.00582 Y2.26044
G01 X-5.92164 Y2.25281
G01 X-5.83745 Y2.24680
G01 X-5.75327 Y2.24241
G01 X-5.66909 Y2.23962
G01 X-5.58491 Y2.23845
G01 X-5.50072 Y2.23889
G01 X-5.41654 Y2.24094
G01 X-5.33235 Y2.24459
G01 X-5.24817 Y2.24987
G01 X-5.16398 Y2.25676
G01 X-5.07981 Y2.26525
G01 X-4.99562 Y2.27536
G01 X-4.91143 Y2.28708
G01 X-4.82725 Y2.30041
G01 X-4.74306 Y2.31536
G01 X-4.65887 Y2.33192
G01 X-4.57468 Y2.35009
G01 X-4.49050 Y2.36987
G01 X-4.40630 Y2.39126
G01 X-4.32211 Y2.41427
G01 X-4.23792 Y2.43889
G01 X-4.15826 Y2.46370
G01 X-4.15657 Y2.46276

G04 P0 ( dwell for no time -- G64 should not smooth over this point )
G00 Z1.000000 ( retract )

M5 ( Spindle off. )
G04 P1.000000
M9 ( Coolant off. )
M2 ( Program end. )

