( pcb2gcode 1.3.2 )
( Software-independent Gcode )

G94 ( Inches per minute feed rate. )
G20 ( Units == INCHES. )

G90 ( Absolute coordinates. )
G00 S12000 ( RPM spindle speed. )
G64 P0.00040 ( set maximum deviation from commanded toolpath )
G01 F360.00000 ( Feedrate. )

G01 F360.00000 ( Feedrate. )
M3 ( Spindle on clockwise. )
G04 P1.00000
G04 P0 ( dwell for no time -- G64 should not smooth over this point )
G00 Z0.08000 ( retract )

G00 X-2.36525 Y-3.21762 ( rapid move to begin. )
G01 F180.00000
G01 Z-0.04000
G04 P0 ( dwell for no time -- G64 should not smooth over this point )
G01 F360.00000
G01 X-2.36525 Y-3.21762
G01 X-2.36643 Y-3.22355
G01 X-2.36979 Y-3.22858
G01 X-2.55096 Y-3.40976
G01 X-2.55331 Y-3.41169
G01 X-2.55890 Y-3.41400
G01 X-3.03719 Y-3.41400
G01 X-3.04010 Y-3.41312
G01 X-3.04513 Y-3.40976
G01 X-3.07549 Y-3.37898
G01 X-3.07692 Y-3.37630
G01 X-3.07810 Y-3.37037
G01 X-3.07810 Y-3.33937
G01 X-3.10000 Y-3.33937
G01 X-3.10000 Y-3.31550
G01 X-3.22520 Y-3.31550
G01 X-3.22520 Y-3.33937
G01 X-3.30000 Y-3.33937
G01 X-3.30000 Y-3.26063
G01 X-3.22520 Y-3.26063
G01 X-3.22520 Y-3.28450
G01 X-3.10000 Y-3.28450
G01 X-3.10000 Y-3.26063
G01 X-3.02520 Y-3.26063
G01 X-3.02520 Y-3.33937
G01 X-3.04710 Y-3.33937
G01 X-3.04710 Y-3.36395
G01 X-3.02775 Y-3.38330
G01 X-2.56835 Y-3.38330
G01 X-2.39625 Y-3.21120
G01 X-2.39625 Y-2.81713
G01 X-2.42973 Y-2.78365
G01 X-2.78857 Y-2.78335
G01 X-2.79148 Y-2.78247
G01 X-2.79651 Y-2.77911
G01 X-2.93412 Y-2.64150
G01 X-2.95870 Y-2.64150
G01 X-2.95870 Y-2.69490
G01 X-3.09650 Y-2.69490
G01 X-3.09650 Y-2.57902
G01 X-3.14370 Y-2.53182
G01 X-3.14370 Y-2.57680
G01 X-3.28150 Y-2.57680
G01 X-3.28150 Y-2.43900
G01 X-3.14370 Y-2.43900
G01 X-3.14370 Y-2.49260
G01 X-3.13977 Y-2.49358
G01 X-3.13474 Y-2.49694
G01 X-3.07458 Y-2.55710
G01 X-2.95870 Y-2.55710
G01 X-2.95870 Y-2.61050
G01 X-2.92770 Y-2.61050
G01 X-2.92467 Y-2.61080
G01 X-2.91909 Y-2.61311
G01 X-2.77913 Y-2.75265
G01 X-2.42331 Y-2.75265
G01 X-2.41738 Y-2.75383
G01 X-2.41235 Y-2.75719
G01 X-2.36979 Y-2.79975
G01 X-2.36643 Y-2.80478
G01 X-2.36555 Y-2.80769
G01 X-2.36525 Y-3.21762
G04 P0 ( dwell for no time -- G64 should not smooth over this point )
G00 Z0.08000 ( retract )

G00 X-2.56354 Y-3.33162 ( rapid move to begin. )
G01 F180.00000
G01 Z-0.04000
G04 P0 ( dwell for no time -- G64 should not smooth over this point )
G01 F360.00000
G01 X-2.56354 Y-3.33162
G01 X-2.56473 Y-3.33726
G01 X-2.56708 Y-3.34252
G01 X-2.57046 Y-3.34718
G01 X-2.57475 Y-3.35103
G01 X-2.57974 Y-3.35392
G01 X-2.58521 Y-3.35570
G01 X-2.59094 Y-3.35630
G01 X-2.63425 Y-3.35630
G01 X-2.63998 Y-3.35570
G01 X-2.64546 Y-3.35392
G01 X-2.65045 Y-3.35103
G01 X-2.65473 Y-3.34718
G01 X-2.65669 Y-3.34449
G01 X-2.88386 Y-3.34449
G01 X-2.88926 Y-3.34354
G01 X-2.93629 Y-3.32637
G01 X-2.94390 Y-3.33239
G01 X-2.95104 Y-3.33557
G01 X-2.95869 Y-3.33720
G01 X-2.96651 Y-3.33720
G01 X-2.97416 Y-3.33557
G01 X-2.98130 Y-3.33239
G01 X-2.98762 Y-3.32779
G01 X-2.99286 Y-3.32198
G01 X-2.99677 Y-3.31521
G01 X-2.99918 Y-3.30778
G01 X-3.00000 Y-3.30000
G01 X-2.99918 Y-3.29222
G01 X-2.99677 Y-3.28479
G01 X-2.99286 Y-3.27801
G01 X-2.98762 Y-3.27221
G01 X-2.98130 Y-3.26761
G01 X-2.97416 Y-3.26443
G01 X-2.96651 Y-3.26280
G01 X-2.95869 Y-3.26280
G01 X-2.95104 Y-3.26443
G01 X-2.94390 Y-3.26761
G01 X-2.93757 Y-3.27221
G01 X-2.93234 Y-3.27801
G01 X-2.92843 Y-3.28479
G01 X-2.92601 Y-3.29222
G01 X-2.92554 Y-3.29676
G01 X-2.88107 Y-3.31299
G01 X-2.65669 Y-3.31299
G01 X-2.65473 Y-3.31030
G01 X-2.65045 Y-3.30644
G01 X-2.64546 Y-3.30356
G01 X-2.63998 Y-3.30178
G01 X-2.63425 Y-3.30118
G01 X-2.59094 Y-3.30118
G01 X-2.58521 Y-3.30178
G01 X-2.57974 Y-3.30356
G01 X-2.57475 Y-3.30644
G01 X-2.57046 Y-3.31030
G01 X-2.56708 Y-3.31496
G01 X-2.56473 Y-3.32022
G01 X-2.56354 Y-3.32586
G01 X-2.56354 Y-3.33162
G04 P0 ( dwell for no time -- G64 should not smooth over this point )
G00 Z0.08000 ( retract )

G00 X-2.56354 Y-3.17414 ( rapid move to begin. )
G01 F180.00000
G01 Z-0.04000
G04 P0 ( dwell for no time -- G64 should not smooth over this point )
G01 F360.00000
G01 X-2.56354 Y-3.17414
G01 X-2.56473 Y-3.17978
G01 X-2.56708 Y-3.18504
G01 X-2.57046 Y-3.18970
G01 X-2.57475 Y-3.19355
G01 X-2.57974 Y-3.19644
G01 X-2.58521 Y-3.19822
G01 X-2.59094 Y-3.19882
G01 X-2.63425 Y-3.19882
G01 X-2.63998 Y-3.19822
G01 X-2.64546 Y-3.19644
G01 X-2.65045 Y-3.19355
G01 X-2.65473 Y-3.18970
G01 X-2.65669 Y-3.18701
G01 X-3.25848 Y-3.18671
G01 X-3.26415 Y-3.18436
G01 X-3.26654 Y-3.18240
G01 X-3.47895 Y-2.96999
G01 X-3.48076 Y-2.97313
G01 X-3.48627 Y-2.97924
G01 X-3.49292 Y-2.98408
G01 X-3.50044 Y-2.98742
G01 X-3.50848 Y-2.98913
G01 X-3.51671 Y-2.98913
G01 X-3.52476 Y-2.98742
G01 X-3.53227 Y-2.98408
G01 X-3.53893 Y-2.97924
G01 X-3.54443 Y-2.97313
G01 X-3.54855 Y-2.96601
G01 X-3.55109 Y-2.95818
G01 X-3.55195 Y-2.95000
G01 X-3.55109 Y-2.94182
G01 X-3.54855 Y-2.93399
G01 X-3.54443 Y-2.92687
G01 X-3.53893 Y-2.92076
G01 X-3.53227 Y-2.91592
G01 X-3.52834 Y-2.91417
G01 X-3.52835 Y-2.86575
G01 X-3.64411 Y-2.86575
G01 X-3.64705 Y-2.86902
G01 X-3.65138 Y-2.87216
G01 X-3.65626 Y-2.87434
G01 X-3.66150 Y-2.87545
G01 X-3.66685 Y-2.87545
G01 X-3.67208 Y-2.87434
G01 X-3.67697 Y-2.87216
G01 X-3.68130 Y-2.86902
G01 X-3.68488 Y-2.86504
G01 X-3.68755 Y-2.86041
G01 X-3.68920 Y-2.85532
G01 X-3.68976 Y-2.85000
G01 X-3.68920 Y-2.84468
G01 X-3.68755 Y-2.83959
G01 X-3.68488 Y-2.83496
G01 X-3.68130 Y-2.83098
G01 X-3.67697 Y-2.82784
G01 X-3.67208 Y-2.82566
G01 X-3.66685 Y-2.82455
G01 X-3.66150 Y-2.82455
G01 X-3.65626 Y-2.82566
G01 X-3.65138 Y-2.82784
G01 X-3.64705 Y-2.83098
G01 X-3.64411 Y-2.83425
G01 X-3.51260 Y-2.83425
G01 X-3.50657 Y-2.83545
G01 X-3.50385 Y-2.83690
G01 X-3.49950 Y-2.84125
G01 X-3.49715 Y-2.84693
G01 X-3.49685 Y-2.90754
G01 X-3.24888 Y-3.15551
G01 X-2.65669 Y-3.15551
G01 X-2.65473 Y-3.15282
G01 X-2.65045 Y-3.14896
G01 X-2.64546 Y-3.14608
G01 X-2.63998 Y-3.14430
G01 X-2.63425 Y-3.14370
G01 X-2.59094 Y-3.14370
G01 X-2.58521 Y-3.14430
G01 X-2.57974 Y-3.14608
G01 X-2.57475 Y-3.14896
G01 X-2.57046 Y-3.15282
G01 X-2.56708 Y-3.15748
G01 X-2.56473 Y-3.16274
G01 X-2.56354 Y-3.16838
G01 X-2.56354 Y-3.17414
G04 P0 ( dwell for no time -- G64 should not smooth over this point )
G00 Z0.08000 ( retract )

G00 X-2.42325 Y-2.95000 ( rapid move to begin. )
G01 F180.00000
G01 Z-0.04000
G04 P0 ( dwell for no time -- G64 should not smooth over this point )
G01 F360.00000
G01 X-2.42325 Y-2.95000
G01 X-2.42411 Y-2.94182
G01 X-2.42665 Y-2.93399
G01 X-2.43076 Y-2.92687
G01 X-2.43627 Y-2.92076
G01 X-2.44292 Y-2.91592
G01 X-2.45044 Y-2.91257
G01 X-2.45848 Y-2.91086
G01 X-2.46671 Y-2.91086
G01 X-2.47476 Y-2.91257
G01 X-2.47707 Y-2.91361
G01 X-2.55399 Y-2.83711
G01 X-2.55957 Y-2.83480
G01 X-2.56260 Y-2.83450
G01 X-2.58701 Y-2.83450
G01 X-2.58701 Y-2.82441
G01 X-2.63819 Y-2.82441
G01 X-2.63819 Y-2.87559
G01 X-2.58701 Y-2.87559
G01 X-2.58701 Y-2.86550
G01 X-2.56902 Y-2.86550
G01 X-2.49903 Y-2.93549
G01 X-2.50109 Y-2.94182
G01 X-2.50195 Y-2.95000
G01 X-2.50109 Y-2.95818
G01 X-2.49855 Y-2.96601
G01 X-2.49443 Y-2.97313
G01 X-2.48893 Y-2.97924
G01 X-2.48227 Y-2.98408
G01 X-2.47810 Y-2.98594
G01 X-2.47810 Y-3.17379
G01 X-2.53881 Y-3.23450
G01 X-2.56833 Y-3.23450
G01 X-2.57046 Y-3.23156
G01 X-2.57475 Y-3.22770
G01 X-2.57974 Y-3.22482
G01 X-2.58521 Y-3.22304
G01 X-2.59094 Y-3.22244
G01 X-2.63425 Y-3.22244
G01 X-2.63998 Y-3.22304
G01 X-2.64546 Y-3.22482
G01 X-2.65045 Y-3.22770
G01 X-2.65473 Y-3.23156
G01 X-2.65812 Y-3.23622
G01 X-2.66046 Y-3.24148
G01 X-2.66166 Y-3.24712
G01 X-2.66166 Y-3.25288
G01 X-2.66046 Y-3.25852
G01 X-2.65812 Y-3.26378
G01 X-2.65473 Y-3.26844
G01 X-2.65045 Y-3.27230
G01 X-2.64546 Y-3.27518
G01 X-2.63998 Y-3.27696
G01 X-2.63425 Y-3.27756
G01 X-2.59094 Y-3.27756
G01 X-2.58521 Y-3.27696
G01 X-2.57974 Y-3.27518
G01 X-2.57475 Y-3.27230
G01 X-2.57046 Y-3.26844
G01 X-2.56833 Y-3.26550
G01 X-2.53239 Y-3.26550
G01 X-2.52645 Y-3.26432
G01 X-2.52143 Y-3.26096
G01 X-2.44971 Y-3.18882
G01 X-2.44828 Y-3.18614
G01 X-2.44710 Y-3.18021
G01 X-2.44710 Y-2.98594
G01 X-2.44292 Y-2.98408
G01 X-2.43627 Y-2.97924
G01 X-2.43076 Y-2.97313
G01 X-2.42665 Y-2.96601
G01 X-2.42411 Y-2.95818
G01 X-2.42325 Y-2.95000
G04 P0 ( dwell for no time -- G64 should not smooth over this point )
G00 Z0.08000 ( retract )

G00 X-2.42325 Y-2.55000 ( rapid move to begin. )
G01 F180.00000
G01 Z-0.04000
G04 P0 ( dwell for no time -- G64 should not smooth over this point )
G01 F360.00000
G01 X-2.42325 Y-2.55000
G01 X-2.42411 Y-2.54182
G01 X-2.42665 Y-2.53399
G01 X-2.43076 Y-2.52687
G01 X-2.43627 Y-2.52076
G01 X-2.44292 Y-2.51592
G01 X-2.45044 Y-2.51258
G01 X-2.45848 Y-2.51086
G01 X-2.46671 Y-2.51086
G01 X-2.47476 Y-2.51258
G01 X-2.48227 Y-2.51592
G01 X-2.48893 Y-2.52076
G01 X-2.49443 Y-2.52687
G01 X-2.49863 Y-2.53425
G01 X-2.82657 Y-2.53425
G01 X-2.83076 Y-2.52687
G01 X-2.83627 Y-2.52076
G01 X-2.84292 Y-2.51592
G01 X-2.85044 Y-2.51258
G01 X-2.85848 Y-2.51086
G01 X-2.86671 Y-2.51086
G01 X-2.87476 Y-2.51258
G01 X-2.87707 Y-2.51361
G01 X-2.99814 Y-2.39254
G01 X-3.00317 Y-2.38918
G01 X-3.00910 Y-2.38800
G01 X-3.36912 Y-2.38830
G01 X-3.37203 Y-2.38918
G01 X-3.37706 Y-2.39254
G01 X-3.49812 Y-2.51361
G01 X-3.50044 Y-2.51258
G01 X-3.50848 Y-2.51086
G01 X-3.51671 Y-2.51086
G01 X-3.52476 Y-2.51258
G01 X-3.53227 Y-2.51592
G01 X-3.53893 Y-2.52076
G01 X-3.54443 Y-2.52687
G01 X-3.54863 Y-2.53425
G01 X-3.87657 Y-2.53425
G01 X-3.88076 Y-2.52687
G01 X-3.88627 Y-2.52076
G01 X-3.89292 Y-2.51592
G01 X-3.90044 Y-2.51258
G01 X-3.90848 Y-2.51086
G01 X-3.91671 Y-2.51086
G01 X-3.92476 Y-2.51258
G01 X-3.93227 Y-2.51592
G01 X-3.93893 Y-2.52076
G01 X-3.94443 Y-2.52687
G01 X-3.94855 Y-2.53399
G01 X-3.95109 Y-2.54182
G01 X-3.95195 Y-2.55000
G01 X-3.95109 Y-2.55818
G01 X-3.94855 Y-2.56601
G01 X-3.94443 Y-2.57313
G01 X-3.93893 Y-2.57924
G01 X-3.93227 Y-2.58408
G01 X-3.92476 Y-2.58742
G01 X-3.91671 Y-2.58913
G01 X-3.90848 Y-2.58913
G01 X-3.90044 Y-2.58742
G01 X-3.89292 Y-2.58408
G01 X-3.88627 Y-2.57924
G01 X-3.88076 Y-2.57313
G01 X-3.87657 Y-2.56575
G01 X-3.54863 Y-2.56575
G01 X-3.54443 Y-2.57313
G01 X-3.53893 Y-2.57924
G01 X-3.53227 Y-2.58408
G01 X-3.52476 Y-2.58742
G01 X-3.51671 Y-2.58913
G01 X-3.50848 Y-2.58913
G01 X-3.50044 Y-2.58742
G01 X-3.49292 Y-2.58408
G01 X-3.48752 Y-2.58015
G01 X-3.28150 Y-2.68316
G01 X-3.28150 Y-2.81300
G01 X-3.14370 Y-2.81300
G01 X-3.14370 Y-2.67520
G01 X-3.22698 Y-2.67520
G01 X-3.47345 Y-2.55196
G01 X-3.47411 Y-2.54182
G01 X-3.47617 Y-2.53549
G01 X-3.35968 Y-2.41900
G01 X-3.01552 Y-2.41900
G01 X-2.89903 Y-2.53549
G01 X-2.90109 Y-2.54182
G01 X-2.90195 Y-2.55000
G01 X-2.90109 Y-2.55818
G01 X-2.89855 Y-2.56601
G01 X-2.89443 Y-2.57313
G01 X-2.88893 Y-2.57924
G01 X-2.88227 Y-2.58408
G01 X-2.87476 Y-2.58742
G01 X-2.86671 Y-2.58913
G01 X-2.85848 Y-2.58913
G01 X-2.85044 Y-2.58742
G01 X-2.84292 Y-2.58408
G01 X-2.83627 Y-2.57924
G01 X-2.83076 Y-2.57313
G01 X-2.82657 Y-2.56575
G01 X-2.49863 Y-2.56575
G01 X-2.49443 Y-2.57313
G01 X-2.48893 Y-2.57924
G01 X-2.48227 Y-2.58408
G01 X-2.47476 Y-2.58742
G01 X-2.46671 Y-2.58913
G01 X-2.45848 Y-2.58913
G01 X-2.45044 Y-2.58742
G01 X-2.44292 Y-2.58408
G01 X-2.43627 Y-2.57924
G01 X-2.43076 Y-2.57313
G01 X-2.42665 Y-2.56601
G01 X-2.42411 Y-2.55818
G01 X-2.42325 Y-2.55000
G04 P0 ( dwell for no time -- G64 should not smooth over this point )
G00 Z0.08000 ( retract )

G00 X-2.68543 Y-2.85000 ( rapid move to begin. )
G01 F180.00000
G01 Z-0.04000
G04 P0 ( dwell for no time -- G64 should not smooth over this point )
G01 F360.00000
G01 X-2.68543 Y-2.85000
G01 X-2.68599 Y-2.84468
G01 X-2.68765 Y-2.83959
G01 X-2.69032 Y-2.83496
G01 X-2.69390 Y-2.83098
G01 X-2.69823 Y-2.82784
G01 X-2.70312 Y-2.82566
G01 X-2.70835 Y-2.82455
G01 X-2.71370 Y-2.82455
G01 X-2.71893 Y-2.82566
G01 X-2.72382 Y-2.82784
G01 X-2.72815 Y-2.83098
G01 X-2.73173 Y-2.83496
G01 X-2.73440 Y-2.83959
G01 X-2.73605 Y-2.84468
G01 X-2.73661 Y-2.85000
G01 X-2.73626 Y-2.85332
G01 X-2.81744 Y-2.93450
G01 X-2.82649 Y-2.93450
G01 X-2.83076 Y-2.92687
G01 X-2.83627 Y-2.92076
G01 X-2.84292 Y-2.91592
G01 X-2.85044 Y-2.91257
G01 X-2.85848 Y-2.91086
G01 X-2.86671 Y-2.91086
G01 X-2.87476 Y-2.91257
G01 X-2.88227 Y-2.91592
G01 X-2.88893 Y-2.92076
G01 X-2.89443 Y-2.92687
G01 X-2.89871 Y-2.93450
G01 X-3.20198 Y-2.93450
G01 X-3.35853 Y-2.77795
G01 X-3.36088 Y-2.77602
G01 X-3.36646 Y-2.77371
G01 X-3.86531 Y-2.77371
G01 X-3.86822 Y-2.77459
G01 X-3.87325 Y-2.77795
G01 X-4.00034 Y-2.90546
G01 X-4.00177 Y-2.90814
G01 X-4.00295 Y-2.91407
G01 X-4.00265 Y-2.98895
G01 X-4.00177 Y-2.99186
G01 X-3.99841 Y-2.99689
G01 X-3.81073 Y-3.18415
G01 X-3.80514 Y-3.18646
G01 X-3.80212 Y-3.18676
G01 X-3.75687 Y-3.18676
G01 X-3.75473 Y-3.18970
G01 X-3.75045 Y-3.19355
G01 X-3.74546 Y-3.19644
G01 X-3.73998 Y-3.19822
G01 X-3.73425 Y-3.19882
G01 X-3.69094 Y-3.19882
G01 X-3.68521 Y-3.19822
G01 X-3.67974 Y-3.19644
G01 X-3.67475 Y-3.19355
G01 X-3.67046 Y-3.18970
G01 X-3.66708 Y-3.18504
G01 X-3.66473 Y-3.17978
G01 X-3.66354 Y-3.17414
G01 X-3.66354 Y-3.16838
G01 X-3.66473 Y-3.16274
G01 X-3.66708 Y-3.15748
G01 X-3.67046 Y-3.15282
G01 X-3.67475 Y-3.14896
G01 X-3.67974 Y-3.14608
G01 X-3.68521 Y-3.14430
G01 X-3.69094 Y-3.14370
G01 X-3.73425 Y-3.14370
G01 X-3.73998 Y-3.14430
G01 X-3.74546 Y-3.14608
G01 X-3.75045 Y-3.14896
G01 X-3.75473 Y-3.15282
G01 X-3.75687 Y-3.15576
G01 X-3.79570 Y-3.15576
G01 X-3.97195 Y-2.97951
G01 X-3.97195 Y-2.92049
G01 X-3.85587 Y-2.80441
G01 X-3.37591 Y-2.80441
G01 X-3.21936 Y-2.96096
G01 X-3.21433 Y-2.96432
G01 X-3.20840 Y-2.96550
G01 X-2.89871 Y-2.96550
G01 X-2.89443 Y-2.97313
G01 X-2.88893 Y-2.97924
G01 X-2.88227 Y-2.98408
G01 X-2.87476 Y-2.98742
G01 X-2.86671 Y-2.98913
G01 X-2.85848 Y-2.98913
G01 X-2.85044 Y-2.98742
G01 X-2.84292 Y-2.98408
G01 X-2.83627 Y-2.97924
G01 X-2.83076 Y-2.97313
G01 X-2.82649 Y-2.96550
G01 X-2.80800 Y-2.96520
G01 X-2.80241 Y-2.96289
G01 X-2.71440 Y-2.87530
G01 X-2.70835 Y-2.87545
G01 X-2.70312 Y-2.87434
G01 X-2.69823 Y-2.87216
G01 X-2.69390 Y-2.86902
G01 X-2.69032 Y-2.86504
G01 X-2.68765 Y-2.86041
G01 X-2.68599 Y-2.85532
G01 X-2.68543 Y-2.85000
G04 P0 ( dwell for no time -- G64 should not smooth over this point )
G00 Z0.08000 ( retract )

G00 X-3.32520 Y-3.30000 ( rapid move to begin. )
G01 F180.00000
G01 Z-0.04000
G04 P0 ( dwell for no time -- G64 should not smooth over this point )
G01 F360.00000
G01 X-3.32520 Y-3.30000
G01 X-3.32601 Y-3.30778
G01 X-3.32843 Y-3.31521
G01 X-3.33234 Y-3.32198
G01 X-3.33757 Y-3.32779
G01 X-3.34390 Y-3.33239
G01 X-3.35104 Y-3.33557
G01 X-3.35869 Y-3.33720
G01 X-3.36651 Y-3.33720
G01 X-3.37536 Y-3.33503
G01 X-3.38259 Y-3.34184
G01 X-3.38531 Y-3.34329
G01 X-3.39134 Y-3.34449
G01 X-3.66851 Y-3.34449
G01 X-3.67046 Y-3.34718
G01 X-3.67475 Y-3.35103
G01 X-3.67974 Y-3.35392
G01 X-3.68521 Y-3.35570
G01 X-3.69094 Y-3.35630
G01 X-3.73425 Y-3.35630
G01 X-3.73998 Y-3.35570
G01 X-3.74546 Y-3.35392
G01 X-3.75045 Y-3.35103
G01 X-3.75473 Y-3.34718
G01 X-3.75812 Y-3.34252
G01 X-3.76046 Y-3.33726
G01 X-3.76166 Y-3.33162
G01 X-3.76166 Y-3.32586
G01 X-3.76046 Y-3.32022
G01 X-3.75812 Y-3.31496
G01 X-3.75473 Y-3.31030
G01 X-3.75045 Y-3.30644
G01 X-3.74546 Y-3.30356
G01 X-3.73998 Y-3.30178
G01 X-3.73425 Y-3.30118
G01 X-3.69094 Y-3.30118
G01 X-3.68521 Y-3.30178
G01 X-3.67974 Y-3.30356
G01 X-3.67475 Y-3.30644
G01 X-3.67046 Y-3.31030
G01 X-3.66851 Y-3.31299
G01 X-3.39786 Y-3.31299
G01 X-3.39918 Y-3.30778
G01 X-3.40000 Y-3.30000
G01 X-3.39918 Y-3.29222
G01 X-3.39677 Y-3.28479
G01 X-3.39286 Y-3.27801
G01 X-3.38762 Y-3.27221
G01 X-3.38130 Y-3.26761
G01 X-3.37416 Y-3.26443
G01 X-3.36651 Y-3.26280
G01 X-3.35869 Y-3.26280
G01 X-3.35104 Y-3.26443
G01 X-3.34390 Y-3.26761
G01 X-3.33757 Y-3.27221
G01 X-3.33234 Y-3.27801
G01 X-3.32843 Y-3.28479
G01 X-3.32601 Y-3.29222
G01 X-3.32520 Y-3.30000
G04 P0 ( dwell for no time -- G64 should not smooth over this point )
G00 Z0.08000 ( retract )

G00 X-3.61239 Y-3.24550 ( rapid move to begin. )
G01 F180.00000
G01 Z-0.04000
G04 P0 ( dwell for no time -- G64 should not smooth over this point )
G01 F360.00000
G01 X-3.61239 Y-3.24550
G01 X-3.61268 Y-3.03828
G01 X-3.61356 Y-3.03537
G01 X-3.61692 Y-3.03034
G01 X-3.74710 Y-2.90017
G01 X-3.74710 Y-2.87559
G01 X-3.73701 Y-2.87559
G01 X-3.73701 Y-2.82441
G01 X-3.78819 Y-2.82441
G01 X-3.78819 Y-2.83450
G01 X-3.81260 Y-2.83450
G01 X-3.81853 Y-2.83568
G01 X-3.82356 Y-2.83904
G01 X-3.89812 Y-2.91361
G01 X-3.90044 Y-2.91257
G01 X-3.90848 Y-2.91086
G01 X-3.91671 Y-2.91086
G01 X-3.92476 Y-2.91257
G01 X-3.93227 Y-2.91592
G01 X-3.93893 Y-2.92076
G01 X-3.94443 Y-2.92687
G01 X-3.94855 Y-2.93399
G01 X-3.95109 Y-2.94182
G01 X-3.95195 Y-2.95000
G01 X-3.95109 Y-2.95818
G01 X-3.94855 Y-2.96601
G01 X-3.94443 Y-2.97313
G01 X-3.93893 Y-2.97924
G01 X-3.93227 Y-2.98408
G01 X-3.92476 Y-2.98742
G01 X-3.91671 Y-2.98913
G01 X-3.90848 Y-2.98913
G01 X-3.90044 Y-2.98742
G01 X-3.89292 Y-2.98408
G01 X-3.88627 Y-2.97924
G01 X-3.88076 Y-2.97313
G01 X-3.87665 Y-2.96601
G01 X-3.87411 Y-2.95818
G01 X-3.87325 Y-2.95000
G01 X-3.87411 Y-2.94182
G01 X-3.87617 Y-2.93549
G01 X-3.80618 Y-2.86550
G01 X-3.78819 Y-2.86550
G01 X-3.78819 Y-2.87559
G01 X-3.77810 Y-2.87559
G01 X-3.77810 Y-2.90659
G01 X-3.77692 Y-2.91252
G01 X-3.77549 Y-2.91520
G01 X-3.64339 Y-3.04772
G01 X-3.64339 Y-3.23450
G01 X-3.66833 Y-3.23450
G01 X-3.67046 Y-3.23156
G01 X-3.67475 Y-3.22770
G01 X-3.67974 Y-3.22482
G01 X-3.68521 Y-3.22304
G01 X-3.69094 Y-3.22244
G01 X-3.73425 Y-3.22244
G01 X-3.73998 Y-3.22304
G01 X-3.74546 Y-3.22482
G01 X-3.75045 Y-3.22770
G01 X-3.75473 Y-3.23156
G01 X-3.75812 Y-3.23622
G01 X-3.76046 Y-3.24148
G01 X-3.76166 Y-3.24712
G01 X-3.76166 Y-3.25288
G01 X-3.76046 Y-3.25852
G01 X-3.75812 Y-3.26378
G01 X-3.75473 Y-3.26844
G01 X-3.75045 Y-3.27230
G01 X-3.74546 Y-3.27518
G01 X-3.73998 Y-3.27696
G01 X-3.73425 Y-3.27756
G01 X-3.69094 Y-3.27756
G01 X-3.68521 Y-3.27696
G01 X-3.67974 Y-3.27518
G01 X-3.67475 Y-3.27230
G01 X-3.67046 Y-3.26844
G01 X-3.66833 Y-3.26550
G01 X-3.63239 Y-3.26550
G01 X-3.62645 Y-3.26432
G01 X-3.62143 Y-3.26096
G01 X-3.61500 Y-3.25411
G01 X-3.61356 Y-3.25143
G01 X-3.61239 Y-3.24550

G04 P0 ( dwell for no time -- G64 should not smooth over this point )
G00 Z1.000 ( retract )

M5 ( Spindle off. )
G04 P1.000000
M9 ( Coolant off. )
M2 ( Program end. )

