( pcb2gcode 2.5.0 )
( Software-independent Gcode )

G94 ( Inches per minute feed rate. )
G20 ( Units == INCHES. )

G90 ( Absolute coordinates. )
G00 S12000 ( RPM spindle speed. )
G64 P0.00040 ( set maximum deviation from commanded toolpath )
G01 F360.00000 ( Feedrate. )


G00 Z1.00000 (Retract to tool change height)
T1
M5      (Spindle stop.)
G04 P1.00000 (Wait for spindle to stop)
(MSG, Change tool bit to mill diameter 0.00000in)
M6      (Tool change.)
M0      (Temporary machine stop.)
M3 ( Spindle on clockwise. )
G04 P1.00000 (Wait for spindle to get up to speed)
G04 P0 ( dwell for no time -- G64 should not smooth over this point )
G00 Z0.08000 ( retract )

G00 X-2.36525 Y-3.21762 ( rapid move to begin. )
G01 F180.00000
( Mill infeed pass 1/1 )
G01 Z-0.04000
G04 P0 ( dwell for no time -- G64 should not smooth over this point )
G01 F360.00000
G01 X-2.36525 Y-3.21762
G01 X-2.36538 Y-3.21964
G01 X-2.36589 Y-3.22202
G01 X-2.36643 Y-3.22355
G01 X-2.36732 Y-3.22537
G01 X-2.36845 Y-3.22706
G01 X-2.36979 Y-3.22858
G01 X-2.55217 Y-3.41084
G01 X-2.55417 Y-3.41222
G01 X-2.55675 Y-3.41341
G01 X-2.55910 Y-3.41404
G01 X-2.56192 Y-3.41430
G01 X-3.03538 Y-3.41425
G01 X-3.03779 Y-3.41387
G01 X-3.04010 Y-3.41312
G01 X-3.04227 Y-3.41201
G01 X-3.04423 Y-3.41059
G01 X-3.07384 Y-3.38104
G01 X-3.07560 Y-3.37881
G01 X-3.07692 Y-3.37630
G01 X-3.07784 Y-3.37319
G01 X-3.07810 Y-3.37037
G01 X-3.07810 Y-3.33937
G01 X-3.10000 Y-3.33937
G01 X-3.10000 Y-3.31550
G01 X-3.22520 Y-3.31550
G01 X-3.22520 Y-3.33937
G01 X-3.30000 Y-3.33937
G01 X-3.30000 Y-3.26063
G01 X-3.22520 Y-3.26063
G01 X-3.22520 Y-3.28450
G01 X-3.10000 Y-3.28450
G01 X-3.10000 Y-3.26063
G01 X-3.02520 Y-3.26063
G01 X-3.02520 Y-3.33937
G01 X-3.04710 Y-3.33937
G01 X-3.04710 Y-3.36395
G01 X-3.02775 Y-3.38330
G01 X-2.56834 Y-3.38330
G01 X-2.39625 Y-3.21120
G01 X-2.39625 Y-2.81713
G01 X-2.42973 Y-2.78365
G01 X-2.78555 Y-2.78365
G01 X-2.78797 Y-2.78346
G01 X-2.79034 Y-2.78289
G01 X-2.79222 Y-2.78214
G01 X-2.79365 Y-2.78136
G01 X-2.79498 Y-2.78045
G01 X-2.79651 Y-2.77911
G01 X-2.93412 Y-2.64150
G01 X-2.95870 Y-2.64150
G01 X-2.95870 Y-2.69490
G01 X-3.09650 Y-2.69490
G01 X-3.09650 Y-2.57902
G01 X-3.14370 Y-2.53182
G01 X-3.14370 Y-2.57680
G01 X-3.28150 Y-2.57680
G01 X-3.28150 Y-2.43900
G01 X-3.14370 Y-2.43900
G01 X-3.14370 Y-2.49253
G01 X-3.14130 Y-2.49304
G01 X-3.13903 Y-2.49391
G01 X-3.13692 Y-2.49513
G01 X-3.13503 Y-2.49666
G01 X-3.07458 Y-2.55710
G01 X-2.95870 Y-2.55710
G01 X-2.95870 Y-2.61050
G01 X-2.92648 Y-2.61055
G01 X-2.92408 Y-2.61093
G01 X-2.92177 Y-2.61168
G01 X-2.91960 Y-2.61278
G01 X-2.91794 Y-2.61395
G01 X-2.77913 Y-2.75265
G01 X-2.42331 Y-2.75265
G01 X-2.42129 Y-2.75278
G01 X-2.41891 Y-2.75329
G01 X-2.41664 Y-2.75416
G01 X-2.41453 Y-2.75537
G01 X-2.41235 Y-2.75719
G01 X-2.36950 Y-2.80004
G01 X-2.36821 Y-2.80160
G01 X-2.36713 Y-2.80332
G01 X-2.36628 Y-2.80516
G01 X-2.36559 Y-2.80749
G01 X-2.36525 Y-2.81071
G01 X-2.36525 Y-3.21762
G04 P0 ( dwell for no time -- G64 should not smooth over this point )
G00 Z0.08000 ( retract )

G00 X-2.56341 Y-3.32768 ( rapid move to begin. )
G01 F180.00000
( Mill infeed pass 1/1 )
G01 Z-0.04000
G04 P0 ( dwell for no time -- G64 should not smooth over this point )
G01 F360.00000
G01 X-2.56341 Y-3.32768
G01 X-2.56364 Y-3.32500
G01 X-2.56413 Y-3.32236
G01 X-2.56488 Y-3.31978
G01 X-2.56588 Y-3.31728
G01 X-2.56712 Y-3.31490
G01 X-2.56858 Y-3.31264
G01 X-2.57025 Y-3.31054
G01 X-2.57212 Y-3.30861
G01 X-2.57417 Y-3.30687
G01 X-2.57638 Y-3.30534
G01 X-2.57933 Y-3.30375
G01 X-2.58246 Y-3.30252
G01 X-2.58571 Y-3.30168
G01 X-2.58904 Y-3.30125
G01 X-2.63515 Y-3.30119
G01 X-2.63849 Y-3.30151
G01 X-2.64156 Y-3.30217
G01 X-2.64453 Y-3.30317
G01 X-2.64736 Y-3.30450
G01 X-2.65003 Y-3.30614
G01 X-2.65266 Y-3.30823
G01 X-2.65487 Y-3.31046
G01 X-2.65687 Y-3.31299
G01 X-2.88107 Y-3.31299
G01 X-2.92533 Y-3.29684
G01 X-2.92578 Y-3.29343
G01 X-2.92658 Y-3.28992
G01 X-2.92772 Y-3.28650
G01 X-2.92900 Y-3.28357
G01 X-2.93074 Y-3.28041
G01 X-2.93277 Y-3.27744
G01 X-2.93508 Y-3.27467
G01 X-2.93734 Y-3.27241
G01 X-2.93980 Y-3.27035
G01 X-2.94275 Y-3.26830
G01 X-2.94590 Y-3.26654
G01 X-2.94882 Y-3.26523
G01 X-2.95223 Y-3.26406
G01 X-2.95573 Y-3.26323
G01 X-2.95930 Y-3.26274
G01 X-2.96250 Y-3.26260
G01 X-2.96610 Y-3.26276
G01 X-2.97005 Y-3.26335
G01 X-2.97354 Y-3.26424
G01 X-2.97693 Y-3.26546
G01 X-2.98019 Y-3.26699
G01 X-2.98362 Y-3.26906
G01 X-2.98649 Y-3.27123
G01 X-2.98915 Y-3.27366
G01 X-2.99181 Y-3.27665
G01 X-2.99392 Y-3.27956
G01 X-2.99574 Y-3.28267
G01 X-2.99726 Y-3.28594
G01 X-2.99845 Y-3.28934
G01 X-2.99931 Y-3.29284
G01 X-2.99983 Y-3.29640
G01 X-3.00000 Y-3.30000
G01 X-2.99983 Y-3.30360
G01 X-2.99938 Y-3.30677
G01 X-2.99867 Y-3.30989
G01 X-2.99755 Y-3.31331
G01 X-2.99611 Y-3.31661
G01 X-2.99435 Y-3.31976
G01 X-2.99255 Y-3.32240
G01 X-2.99025 Y-3.32518
G01 X-2.98800 Y-3.32745
G01 X-2.98524 Y-3.32977
G01 X-2.98261 Y-3.33160
G01 X-2.97948 Y-3.33337
G01 X-2.97656 Y-3.33470
G01 X-2.97316 Y-3.33588
G01 X-2.97005 Y-3.33665
G01 X-2.96649 Y-3.33720
G01 X-2.96250 Y-3.33740
G01 X-2.95811 Y-3.33713
G01 X-2.95377 Y-3.33635
G01 X-2.94994 Y-3.33520
G01 X-2.94590 Y-3.33346
G01 X-2.94242 Y-3.33149
G01 X-2.93917 Y-3.32915
G01 X-2.93613 Y-3.32643
G01 X-2.88926 Y-3.34354
G01 X-2.88737 Y-3.34409
G01 X-2.88543 Y-3.34441
G01 X-2.65687 Y-3.34449
G01 X-2.65480 Y-3.34711
G01 X-2.65241 Y-3.34947
G01 X-2.64975 Y-3.35153
G01 X-2.64707 Y-3.35314
G01 X-2.64421 Y-3.35444
G01 X-2.64101 Y-3.35546
G01 X-2.63794 Y-3.35605
G01 X-2.63459 Y-3.35630
G01 X-2.59072 Y-3.35630
G01 X-2.58826 Y-3.35617
G01 X-2.58560 Y-3.35578
G01 X-2.58299 Y-3.35513
G01 X-2.58026 Y-3.35414
G01 X-2.57783 Y-3.35298
G01 X-2.57535 Y-3.35146
G01 X-2.57304 Y-3.34969
G01 X-2.57108 Y-3.34785
G01 X-2.56918 Y-3.34565
G01 X-2.56752 Y-3.34326
G01 X-2.56622 Y-3.34091
G01 X-2.56515 Y-3.33844
G01 X-2.56427 Y-3.33567
G01 X-2.56372 Y-3.33303
G01 X-2.56343 Y-3.33036
G01 X-2.56341 Y-3.32768
G04 P0 ( dwell for no time -- G64 should not smooth over this point )
G00 Z0.08000 ( retract )

G00 X-2.56341 Y-3.17020 ( rapid move to begin. )
G01 F180.00000
( Mill infeed pass 1/1 )
G01 Z-0.04000
G04 P0 ( dwell for no time -- G64 should not smooth over this point )
G01 F360.00000
G01 X-2.56341 Y-3.17020
G01 X-2.56364 Y-3.16752
G01 X-2.56413 Y-3.16488
G01 X-2.56488 Y-3.16230
G01 X-2.56588 Y-3.15980
G01 X-2.56712 Y-3.15741
G01 X-2.56858 Y-3.15516
G01 X-2.57025 Y-3.15306
G01 X-2.57212 Y-3.15113
G01 X-2.57417 Y-3.14939
G01 X-2.57638 Y-3.14786
G01 X-2.57933 Y-3.14627
G01 X-2.58246 Y-3.14504
G01 X-2.58571 Y-3.14420
G01 X-2.58904 Y-3.14377
G01 X-2.63515 Y-3.14371
G01 X-2.63827 Y-3.14399
G01 X-2.64134 Y-3.14463
G01 X-2.64432 Y-3.14560
G01 X-2.64736 Y-3.14702
G01 X-2.65003 Y-3.14866
G01 X-2.65266 Y-3.15075
G01 X-2.65487 Y-3.15298
G01 X-2.65687 Y-3.15551
G01 X-3.24888 Y-3.15551
G01 X-3.49685 Y-2.90754
G01 X-3.49693 Y-2.84838
G01 X-3.49727 Y-2.84638
G01 X-3.49772 Y-2.84483
G01 X-3.49910 Y-2.84189
G01 X-3.50104 Y-2.83930
G01 X-3.50347 Y-2.83716
G01 X-3.50520 Y-2.83610
G01 X-3.50742 Y-2.83512
G01 X-3.50977 Y-2.83451
G01 X-3.51219 Y-2.83426
G01 X-3.64400 Y-2.83425
G01 X-3.64590 Y-2.83208
G01 X-3.64828 Y-2.82994
G01 X-3.65092 Y-2.82811
G01 X-3.65339 Y-2.82679
G01 X-3.65638 Y-2.82563
G01 X-3.65909 Y-2.82492
G01 X-3.66227 Y-2.82448
G01 X-3.66507 Y-2.82443
G01 X-3.66905 Y-2.82488
G01 X-3.67291 Y-2.82595
G01 X-3.67656 Y-2.82761
G01 X-3.67990 Y-2.82981
G01 X-3.68286 Y-2.83252
G01 X-3.68536 Y-2.83565
G01 X-3.68734 Y-2.83913
G01 X-3.68875 Y-2.84288
G01 X-3.68938 Y-2.84561
G01 X-3.68968 Y-2.84800
G01 X-3.68975 Y-2.85080
G01 X-3.68951 Y-2.85360
G01 X-3.68896 Y-2.85635
G01 X-3.68812 Y-2.85902
G01 X-3.68699 Y-2.86159
G01 X-3.68558 Y-2.86402
G01 X-3.68392 Y-2.86628
G01 X-3.68202 Y-2.86834
G01 X-3.68022 Y-2.86993
G01 X-3.67794 Y-2.87157
G01 X-3.67549 Y-2.87295
G01 X-3.67291 Y-2.87405
G01 X-3.67023 Y-2.87486
G01 X-3.66787 Y-2.87532
G01 X-3.66467 Y-2.87559
G01 X-3.66107 Y-2.87540
G01 X-3.65792 Y-2.87481
G01 X-3.65450 Y-2.87369
G01 X-3.65161 Y-2.87229
G01 X-3.64860 Y-2.87031
G01 X-3.64618 Y-2.86820
G01 X-3.64400 Y-2.86575
G01 X-3.52835 Y-2.86575
G01 X-3.52835 Y-2.91394
G01 X-3.53296 Y-2.91633
G01 X-3.53722 Y-2.91931
G01 X-3.54105 Y-2.92282
G01 X-3.54415 Y-2.92648
G01 X-3.54697 Y-2.93085
G01 X-3.54905 Y-2.93517
G01 X-3.55058 Y-2.93972
G01 X-3.55160 Y-2.94481
G01 X-3.55193 Y-2.94880
G01 X-3.55182 Y-2.95320
G01 X-3.55129 Y-2.95716
G01 X-3.55036 Y-2.96105
G01 X-3.54905 Y-2.96483
G01 X-3.54717 Y-2.96880
G01 X-3.54508 Y-2.97221
G01 X-3.54266 Y-2.97539
G01 X-3.53934 Y-2.97886
G01 X-3.53595 Y-2.98167
G01 X-3.53193 Y-2.98428
G01 X-3.52761 Y-2.98637
G01 X-3.52346 Y-2.98782
G01 X-3.51877 Y-2.98886
G01 X-3.51400 Y-2.98933
G01 X-3.50920 Y-2.98920
G01 X-3.50485 Y-2.98858
G01 X-3.50021 Y-2.98735
G01 X-3.49576 Y-2.98556
G01 X-3.49155 Y-2.98325
G01 X-3.48797 Y-2.98069
G01 X-3.48442 Y-2.97747
G01 X-3.48129 Y-2.97383
G01 X-3.47879 Y-2.97014
G01 X-3.26654 Y-3.18240
G01 X-3.26499 Y-3.18375
G01 X-3.26363 Y-3.18469
G01 X-3.26181 Y-3.18565
G01 X-3.25988 Y-3.18636
G01 X-3.25787 Y-3.18682
G01 X-3.25540 Y-3.18701
G01 X-2.65687 Y-3.18701
G01 X-2.65509 Y-3.18929
G01 X-2.65324 Y-3.19123
G01 X-2.65120 Y-3.19299
G01 X-2.64901 Y-3.19454
G01 X-2.64667 Y-3.19586
G01 X-2.64421 Y-3.19695
G01 X-2.64166 Y-3.19780
G01 X-2.63904 Y-3.19840
G01 X-2.63459 Y-3.19882
G01 X-2.59094 Y-3.19882
G01 X-2.58759 Y-3.19861
G01 X-2.58407 Y-3.19795
G01 X-2.58067 Y-3.19683
G01 X-2.57764 Y-3.19539
G01 X-2.57462 Y-3.19346
G01 X-2.57188 Y-3.19116
G01 X-2.56960 Y-3.18869
G01 X-2.56752 Y-3.18578
G01 X-2.56622 Y-3.18343
G01 X-2.56515 Y-3.18096
G01 X-2.56427 Y-3.17819
G01 X-2.56372 Y-3.17555
G01 X-2.56343 Y-3.17288
G01 X-2.56341 Y-3.17020
G04 P0 ( dwell for no time -- G64 should not smooth over this point )
G00 Z0.08000 ( retract )

G00 X-2.42325 Y-2.95040 ( rapid move to begin. )
G01 F180.00000
( Mill infeed pass 1/1 )
G01 Z-0.04000
G04 P0 ( dwell for no time -- G64 should not smooth over this point )
G01 F360.00000
G01 X-2.42325 Y-2.95040
G01 X-2.42349 Y-2.95439
G01 X-2.42406 Y-2.95795
G01 X-2.42506 Y-2.96182
G01 X-2.42630 Y-2.96520
G01 X-2.42803 Y-2.96880
G01 X-2.42989 Y-2.97188
G01 X-2.43228 Y-2.97509
G01 X-2.43470 Y-2.97775
G01 X-2.43736 Y-2.98019
G01 X-2.44055 Y-2.98259
G01 X-2.44362 Y-2.98447
G01 X-2.44710 Y-2.98617
G01 X-2.44710 Y-3.18021
G01 X-2.44723 Y-3.18223
G01 X-2.44774 Y-3.18461
G01 X-2.44879 Y-3.18725
G01 X-2.45006 Y-3.18932
G01 X-2.45164 Y-3.19117
G01 X-2.52172 Y-3.26124
G01 X-2.52327 Y-3.26254
G01 X-2.52499 Y-3.26362
G01 X-2.52683 Y-3.26447
G01 X-2.52916 Y-3.26516
G01 X-2.53239 Y-3.26550
G01 X-2.56816 Y-3.26550
G01 X-2.57003 Y-3.26795
G01 X-2.57220 Y-3.27020
G01 X-2.57462 Y-3.27220
G01 X-2.57705 Y-3.27380
G01 X-2.57984 Y-3.27522
G01 X-2.58257 Y-3.27625
G01 X-2.58538 Y-3.27699
G01 X-2.58848 Y-3.27745
G01 X-2.59094 Y-3.27756
G01 X-2.63526 Y-3.27754
G01 X-2.63771 Y-3.27734
G01 X-2.64014 Y-3.27692
G01 X-2.64463 Y-3.27553
G01 X-2.64882 Y-3.27340
G01 X-2.65085 Y-3.27200
G01 X-2.65419 Y-3.26903
G01 X-2.65581 Y-3.26717
G01 X-2.65726 Y-3.26518
G01 X-2.65941 Y-3.26125
G01 X-2.66031 Y-3.25896
G01 X-2.66146 Y-3.25441
G01 X-2.66181 Y-3.24972
G01 X-2.66167 Y-3.24726
G01 X-2.66136 Y-3.24504
G01 X-2.66013 Y-3.24051
G01 X-2.65814 Y-3.23625
G01 X-2.65694 Y-3.23436
G01 X-2.65396 Y-3.23073
G01 X-2.65216 Y-3.22905
G01 X-2.64834 Y-3.22631
G01 X-2.64637 Y-3.22525
G01 X-2.64199 Y-3.22355
G01 X-2.63959 Y-3.22296
G01 X-2.63515 Y-3.22246
G01 X-2.59083 Y-3.22244
G01 X-2.58748 Y-3.22266
G01 X-2.58462 Y-3.22318
G01 X-2.58182 Y-3.22399
G01 X-2.57913 Y-3.22510
G01 X-2.57657 Y-3.22648
G01 X-2.57417 Y-3.22813
G01 X-2.57196 Y-3.23002
G01 X-2.56996 Y-3.23214
G01 X-2.56816 Y-3.23450
G01 X-2.53881 Y-3.23450
G01 X-2.47810 Y-3.17379
G01 X-2.47810 Y-2.98617
G01 X-2.48158 Y-2.98447
G01 X-2.48465 Y-2.98259
G01 X-2.48784 Y-2.98019
G01 X-2.49049 Y-2.97775
G01 X-2.49291 Y-2.97509
G01 X-2.49530 Y-2.97188
G01 X-2.49717 Y-2.96880
G01 X-2.49889 Y-2.96520
G01 X-2.50013 Y-2.96182
G01 X-2.50114 Y-2.95795
G01 X-2.50170 Y-2.95439
G01 X-2.50195 Y-2.95040
G01 X-2.50182 Y-2.94680
G01 X-2.50129 Y-2.94284
G01 X-2.50036 Y-2.93895
G01 X-2.49913 Y-2.93539
G01 X-2.56902 Y-2.86550
G01 X-2.58701 Y-2.86550
G01 X-2.58701 Y-2.87559
G01 X-2.63819 Y-2.87559
G01 X-2.63819 Y-2.82441
G01 X-2.58701 Y-2.82441
G01 X-2.58701 Y-2.83450
G01 X-2.56098 Y-2.83458
G01 X-2.55898 Y-2.83493
G01 X-2.55667 Y-2.83568
G01 X-2.55485 Y-2.83658
G01 X-2.55284 Y-2.83795
G01 X-2.47721 Y-2.91346
G01 X-2.47346 Y-2.91218
G01 X-2.46956 Y-2.91127
G01 X-2.46560 Y-2.91076
G01 X-2.46200 Y-2.91065
G01 X-2.45801 Y-2.91092
G01 X-2.45406 Y-2.91159
G01 X-2.45021 Y-2.91265
G01 X-2.44685 Y-2.91394
G01 X-2.44327 Y-2.91572
G01 X-2.43989 Y-2.91786
G01 X-2.43705 Y-2.92007
G01 X-2.43414 Y-2.92282
G01 X-2.43153 Y-2.92585
G01 X-2.42946 Y-2.92879
G01 X-2.42766 Y-2.93190
G01 X-2.42600 Y-2.93554
G01 X-2.42483 Y-2.93895
G01 X-2.42391 Y-2.94284
G01 X-2.42338 Y-2.94680
G01 X-2.42325 Y-2.95040
G04 P0 ( dwell for no time -- G64 should not smooth over this point )
G00 Z0.08000 ( retract )

G00 X-2.42325 Y-2.55000 ( rapid move to begin. )
G01 F180.00000
( Mill infeed pass 1/1 )
G01 Z-0.04000
G04 P0 ( dwell for no time -- G64 should not smooth over this point )
G01 F360.00000
G01 X-2.42325 Y-2.55000
G01 X-2.42341 Y-2.54640
G01 X-2.42398 Y-2.54244
G01 X-2.42483 Y-2.53895
G01 X-2.42600 Y-2.53554
G01 X-2.42766 Y-2.53190
G01 X-2.42946 Y-2.52879
G01 X-2.43153 Y-2.52585
G01 X-2.43414 Y-2.52282
G01 X-2.43705 Y-2.52007
G01 X-2.43989 Y-2.51786
G01 X-2.44327 Y-2.51572
G01 X-2.44648 Y-2.51410
G01 X-2.45021 Y-2.51265
G01 X-2.45367 Y-2.51167
G01 X-2.45761 Y-2.51097
G01 X-2.46120 Y-2.51067
G01 X-2.46400 Y-2.51067
G01 X-2.46719 Y-2.51092
G01 X-2.47035 Y-2.51142
G01 X-2.47307 Y-2.51207
G01 X-2.47574 Y-2.51291
G01 X-2.47871 Y-2.51410
G01 X-2.48364 Y-2.51675
G01 X-2.48815 Y-2.52007
G01 X-2.49049 Y-2.52225
G01 X-2.49240 Y-2.52430
G01 X-2.49415 Y-2.52648
G01 X-2.49595 Y-2.52913
G01 X-2.49735 Y-2.53155
G01 X-2.49866 Y-2.53425
G01 X-2.82654 Y-2.53425
G01 X-2.82822 Y-2.53085
G01 X-2.83012 Y-2.52779
G01 X-2.83254 Y-2.52460
G01 X-2.83499 Y-2.52196
G01 X-2.83797 Y-2.51931
G01 X-2.84088 Y-2.51718
G01 X-2.84432 Y-2.51515
G01 X-2.84759 Y-2.51363
G01 X-2.85135 Y-2.51229
G01 X-2.85485 Y-2.51142
G01 X-2.85880 Y-2.51083
G01 X-2.86240 Y-2.51065
G01 X-2.86599 Y-2.51080
G01 X-2.86996 Y-2.51134
G01 X-2.87346 Y-2.51218
G01 X-2.87721 Y-2.51346
G01 X-2.99843 Y-2.39226
G01 X-3.00066 Y-2.39050
G01 X-3.00317 Y-2.38918
G01 X-3.00627 Y-2.38826
G01 X-3.00910 Y-2.38800
G01 X-3.36610 Y-2.38800
G01 X-3.36852 Y-2.38819
G01 X-3.37050 Y-2.38864
G01 X-3.37277 Y-2.38951
G01 X-3.37488 Y-2.39073
G01 X-3.37677 Y-2.39226
G01 X-3.49798 Y-2.51346
G01 X-3.50174 Y-2.51218
G01 X-3.50524 Y-2.51134
G01 X-3.50920 Y-2.51080
G01 X-3.51280 Y-2.51065
G01 X-3.51639 Y-2.51083
G01 X-3.52035 Y-2.51142
G01 X-3.52384 Y-2.51229
G01 X-3.52761 Y-2.51363
G01 X-3.53087 Y-2.51515
G01 X-3.53431 Y-2.51718
G01 X-3.53722 Y-2.51931
G01 X-3.54021 Y-2.52196
G01 X-3.54266 Y-2.52460
G01 X-3.54508 Y-2.52779
G01 X-3.54697 Y-2.53085
G01 X-3.54866 Y-2.53425
G01 X-3.87654 Y-2.53425
G01 X-3.87784 Y-2.53155
G01 X-3.87924 Y-2.52913
G01 X-3.88105 Y-2.52648
G01 X-3.88280 Y-2.52430
G01 X-3.88470 Y-2.52225
G01 X-3.88705 Y-2.52007
G01 X-3.89155 Y-2.51675
G01 X-3.89648 Y-2.51410
G01 X-3.89945 Y-2.51291
G01 X-3.90212 Y-2.51207
G01 X-3.90485 Y-2.51142
G01 X-3.90801 Y-2.51092
G01 X-3.91120 Y-2.51067
G01 X-3.91400 Y-2.51067
G01 X-3.91759 Y-2.51097
G01 X-3.92152 Y-2.51167
G01 X-3.92499 Y-2.51265
G01 X-3.92871 Y-2.51410
G01 X-3.93193 Y-2.51572
G01 X-3.93530 Y-2.51786
G01 X-3.93815 Y-2.52007
G01 X-3.94105 Y-2.52282
G01 X-3.94366 Y-2.52585
G01 X-3.94574 Y-2.52879
G01 X-3.94754 Y-2.53190
G01 X-3.94920 Y-2.53554
G01 X-3.95036 Y-2.53895
G01 X-3.95122 Y-2.54244
G01 X-3.95178 Y-2.54640
G01 X-3.95195 Y-2.55000
G01 X-3.95178 Y-2.55360
G01 X-3.95122 Y-2.55755
G01 X-3.95036 Y-2.56105
G01 X-3.94920 Y-2.56446
G01 X-3.94754 Y-2.56810
G01 X-3.94574 Y-2.57121
G01 X-3.94366 Y-2.57415
G01 X-3.94133 Y-2.57689
G01 X-3.93875 Y-2.57940
G01 X-3.93595 Y-2.58167
G01 X-3.93262 Y-2.58388
G01 X-3.92944 Y-2.58556
G01 X-3.92574 Y-2.58709
G01 X-3.92230 Y-2.58813
G01 X-3.91877 Y-2.58886
G01 X-3.91520 Y-2.58926
G01 X-3.91200 Y-2.58934
G01 X-3.90920 Y-2.58920
G01 X-3.90603 Y-2.58880
G01 X-3.90329 Y-2.58823
G01 X-3.90021 Y-2.58735
G01 X-3.89759 Y-2.58637
G01 X-3.89468 Y-2.58503
G01 X-3.89223 Y-2.58367
G01 X-3.88989 Y-2.58214
G01 X-3.88736 Y-2.58019
G01 X-3.88499 Y-2.57804
G01 X-3.88306 Y-2.57600
G01 X-3.88105 Y-2.57352
G01 X-3.87946 Y-2.57121
G01 X-3.87784 Y-2.56845
G01 X-3.87654 Y-2.56575
G01 X-3.54866 Y-2.56575
G01 X-3.54658 Y-2.56985
G01 X-3.54415 Y-2.57352
G01 X-3.54105 Y-2.57718
G01 X-3.53784 Y-2.58019
G01 X-3.53431 Y-2.58282
G01 X-3.53016 Y-2.58521
G01 X-3.52574 Y-2.58709
G01 X-3.52152 Y-2.58832
G01 X-3.51719 Y-2.58908
G01 X-3.51280 Y-2.58935
G01 X-3.50841 Y-2.58913
G01 X-3.50367 Y-2.58832
G01 X-3.49945 Y-2.58709
G01 X-3.49504 Y-2.58521
G01 X-3.49122 Y-2.58303
G01 X-3.48739 Y-2.58021
G01 X-3.28150 Y-2.68316
G01 X-3.28150 Y-2.81300
G01 X-3.14370 Y-2.81300
G01 X-3.14370 Y-2.67520
G01 X-3.22698 Y-2.67520
G01 X-3.47330 Y-2.55204
G01 X-3.47330 Y-2.54800
G01 X-3.47377 Y-2.54363
G01 X-3.47472 Y-2.53933
G01 X-3.47606 Y-2.53539
G01 X-3.35968 Y-2.41900
G01 X-3.01552 Y-2.41900
G01 X-2.89913 Y-2.53538
G01 X-2.90047 Y-2.53933
G01 X-2.90143 Y-2.54363
G01 X-2.90190 Y-2.54800
G01 X-2.90190 Y-2.55200
G01 X-2.90155 Y-2.55558
G01 X-2.90097 Y-2.55873
G01 X-2.90001 Y-2.56220
G01 X-2.89874 Y-2.56556
G01 X-2.89717 Y-2.56880
G01 X-2.89552 Y-2.57155
G01 X-2.89342 Y-2.57447
G01 X-2.89105 Y-2.57718
G01 X-2.88845 Y-2.57967
G01 X-2.88563 Y-2.58190
G01 X-2.88262 Y-2.58388
G01 X-2.87944 Y-2.58556
G01 X-2.87649 Y-2.58681
G01 X-2.87307 Y-2.58793
G01 X-2.86956 Y-2.58873
G01 X-2.86599 Y-2.58920
G01 X-2.86280 Y-2.58935
G01 X-2.85960 Y-2.58923
G01 X-2.85642 Y-2.58886
G01 X-2.85367 Y-2.58832
G01 X-2.85059 Y-2.58747
G01 X-2.84540 Y-2.58539
G01 X-2.84258 Y-2.58388
G01 X-2.83989 Y-2.58214
G01 X-2.83736 Y-2.58019
G01 X-2.83499 Y-2.57804
G01 X-2.83306 Y-2.57600
G01 X-2.83105 Y-2.57352
G01 X-2.82946 Y-2.57121
G01 X-2.82784 Y-2.56845
G01 X-2.82654 Y-2.56575
G01 X-2.49866 Y-2.56575
G01 X-2.49735 Y-2.56845
G01 X-2.49595 Y-2.57087
G01 X-2.49266 Y-2.57539
G01 X-2.49049 Y-2.57775
G01 X-2.48845 Y-2.57967
G01 X-2.48398 Y-2.58303
G01 X-2.48122 Y-2.58466
G01 X-2.47871 Y-2.58590
G01 X-2.47346 Y-2.58782
G01 X-2.46798 Y-2.58898
G01 X-2.46240 Y-2.58935
G01 X-2.45880 Y-2.58917
G01 X-2.45485 Y-2.58858
G01 X-2.45135 Y-2.58771
G01 X-2.44759 Y-2.58637
G01 X-2.44397 Y-2.58466
G01 X-2.44055 Y-2.58259
G01 X-2.43736 Y-2.58019
G01 X-2.43470 Y-2.57775
G01 X-2.43228 Y-2.57509
G01 X-2.42989 Y-2.57188
G01 X-2.42803 Y-2.56880
G01 X-2.42630 Y-2.56520
G01 X-2.42506 Y-2.56182
G01 X-2.42406 Y-2.55795
G01 X-2.42345 Y-2.55399
G01 X-2.42325 Y-2.55000
G04 P0 ( dwell for no time -- G64 should not smooth over this point )
G00 Z0.08000 ( retract )

G00 X-2.68550 Y-2.84820 ( rapid move to begin. )
G01 F180.00000
( Mill infeed pass 1/1 )
G01 Z-0.04000
G04 P0 ( dwell for no time -- G64 should not smooth over this point )
G01 F360.00000
G01 X-2.68550 Y-2.84820
G01 X-2.68553 Y-2.85220
G01 X-2.68618 Y-2.85615
G01 X-2.68745 Y-2.85995
G01 X-2.68929 Y-2.86351
G01 X-2.69193 Y-2.86704
G01 X-2.69421 Y-2.86929
G01 X-2.69642 Y-2.87102
G01 X-2.69916 Y-2.87268
G01 X-2.70209 Y-2.87398
G01 X-2.70516 Y-2.87491
G01 X-2.70832 Y-2.87545
G01 X-2.71152 Y-2.87559
G01 X-2.71446 Y-2.87536
G01 X-2.80127 Y-2.96204
G01 X-2.80292 Y-2.96321
G01 X-2.80472 Y-2.96416
G01 X-2.80623 Y-2.96474
G01 X-2.80940 Y-2.96542
G01 X-2.82643 Y-2.96550
G01 X-2.82766 Y-2.96809
G01 X-2.82903 Y-2.97053
G01 X-2.83228 Y-2.97509
G01 X-2.83615 Y-2.97913
G01 X-2.84055 Y-2.98259
G01 X-2.84540 Y-2.98539
G01 X-2.85059 Y-2.98747
G01 X-2.85603 Y-2.98880
G01 X-2.86160 Y-2.98934
G01 X-2.86480 Y-2.98929
G01 X-2.86759 Y-2.98903
G01 X-2.87307 Y-2.98793
G01 X-2.87574 Y-2.98709
G01 X-2.87871 Y-2.98590
G01 X-2.88364 Y-2.98325
G01 X-2.88627 Y-2.98143
G01 X-2.89049 Y-2.97775
G01 X-2.89266 Y-2.97539
G01 X-2.89595 Y-2.97087
G01 X-2.89754 Y-2.96809
G01 X-2.89874 Y-2.96556
G01 X-3.20840 Y-2.96550
G01 X-3.21082 Y-2.96531
G01 X-3.21319 Y-2.96474
G01 X-3.21470 Y-2.96416
G01 X-3.21650 Y-2.96321
G01 X-3.21783 Y-2.96230
G01 X-3.21936 Y-2.96096
G01 X-3.37591 Y-2.80441
G01 X-3.85586 Y-2.80441
G01 X-3.97195 Y-2.92049
G01 X-3.97195 Y-2.97951
G01 X-3.79570 Y-3.15576
G01 X-3.75704 Y-3.15576
G01 X-3.75517 Y-3.15331
G01 X-3.75316 Y-3.15121
G01 X-3.75094 Y-3.14932
G01 X-3.74853 Y-3.14769
G01 X-3.74596 Y-3.14631
G01 X-3.74305 Y-3.14514
G01 X-3.74025 Y-3.14436
G01 X-3.73738 Y-3.14388
G01 X-3.73425 Y-3.14370
G01 X-3.69061 Y-3.14370
G01 X-3.68704 Y-3.14398
G01 X-3.68375 Y-3.14466
G01 X-3.68036 Y-3.14581
G01 X-3.67734 Y-3.14729
G01 X-3.67453 Y-3.14912
G01 X-3.67180 Y-3.15144
G01 X-3.66953 Y-3.15391
G01 X-3.66746 Y-3.15684
G01 X-3.66617 Y-3.15919
G01 X-3.66511 Y-3.16166
G01 X-3.66430 Y-3.16423
G01 X-3.66374 Y-3.16685
G01 X-3.66344 Y-3.16952
G01 X-3.66340 Y-3.17221
G01 X-3.66363 Y-3.17489
G01 X-3.66411 Y-3.17753
G01 X-3.66485 Y-3.18012
G01 X-3.66593 Y-3.18282
G01 X-3.66717 Y-3.18520
G01 X-3.66864 Y-3.18745
G01 X-3.67032 Y-3.18954
G01 X-3.67220 Y-3.19146
G01 X-3.67426 Y-3.19319
G01 X-3.67648 Y-3.19471
G01 X-3.67944 Y-3.19630
G01 X-3.68257 Y-3.19751
G01 X-3.68582 Y-3.19834
G01 X-3.68915 Y-3.19876
G01 X-3.73548 Y-3.19879
G01 X-3.73860 Y-3.19847
G01 X-3.74166 Y-3.19780
G01 X-3.74463 Y-3.19679
G01 X-3.74766 Y-3.19534
G01 X-3.75031 Y-3.19366
G01 X-3.75291 Y-3.19154
G01 X-3.75509 Y-3.18929
G01 X-3.75704 Y-3.18676
G01 X-3.80293 Y-3.18674
G01 X-3.80494 Y-3.18650
G01 X-3.80729 Y-3.18587
G01 X-3.80951 Y-3.18488
G01 X-3.81155 Y-3.18356
G01 X-3.81308 Y-3.18222
G01 X-3.99869 Y-2.99660
G01 X-4.00045 Y-2.99437
G01 X-4.00177 Y-2.99186
G01 X-4.00261 Y-2.98915
G01 X-4.00293 Y-2.98674
G01 X-4.00293 Y-2.91326
G01 X-4.00252 Y-2.91045
G01 X-4.00161 Y-2.90777
G01 X-4.00022 Y-2.90529
G01 X-3.99841 Y-2.90311
G01 X-3.87295 Y-2.77766
G01 X-3.87073 Y-2.77591
G01 X-3.86822 Y-2.77459
G01 X-3.86590 Y-2.77384
G01 X-3.86310 Y-2.77343
G01 X-3.36949 Y-2.77341
G01 X-3.36746 Y-2.77354
G01 X-3.36587 Y-2.77384
G01 X-3.36393 Y-2.77444
G01 X-3.36174 Y-2.77549
G01 X-3.36005 Y-2.77661
G01 X-3.35853 Y-2.77795
G01 X-3.20198 Y-2.93450
G01 X-2.89877 Y-2.93450
G01 X-2.89754 Y-2.93190
G01 X-2.89617 Y-2.92946
G01 X-2.89291 Y-2.92491
G01 X-2.88905 Y-2.92086
G01 X-2.88691 Y-2.91906
G01 X-2.88431 Y-2.91718
G01 X-2.87944 Y-2.91444
G01 X-2.87687 Y-2.91333
G01 X-2.87384 Y-2.91229
G01 X-2.87113 Y-2.91159
G01 X-2.86798 Y-2.91102
G01 X-2.86240 Y-2.91065
G01 X-2.85761 Y-2.91097
G01 X-2.85290 Y-2.91186
G01 X-2.84833 Y-2.91333
G01 X-2.84432 Y-2.91515
G01 X-2.84155 Y-2.91675
G01 X-2.83860 Y-2.91881
G01 X-2.83585 Y-2.92113
G01 X-2.83360 Y-2.92340
G01 X-2.83153 Y-2.92585
G01 X-2.82946 Y-2.92879
G01 X-2.82784 Y-2.93155
G01 X-2.82643 Y-2.93450
G01 X-2.81744 Y-2.93450
G01 X-2.73638 Y-2.85344
G01 X-2.73661 Y-2.85000
G01 X-2.73641 Y-2.84680
G01 X-2.73581 Y-2.84365
G01 X-2.73468 Y-2.84023
G01 X-2.73327 Y-2.83735
G01 X-2.73127 Y-2.83435
G01 X-2.72887 Y-2.83166
G01 X-2.72644 Y-2.82957
G01 X-2.72445 Y-2.82821
G01 X-2.72198 Y-2.82687
G01 X-2.71939 Y-2.82581
G01 X-2.71708 Y-2.82514
G01 X-2.71432 Y-2.82462
G01 X-2.71193 Y-2.82443
G01 X-2.70912 Y-2.82448
G01 X-2.70634 Y-2.82484
G01 X-2.70361 Y-2.82551
G01 X-2.70098 Y-2.82646
G01 X-2.69881 Y-2.82751
G01 X-2.69642 Y-2.82898
G01 X-2.69421 Y-2.83071
G01 X-2.69247 Y-2.83237
G01 X-2.69065 Y-2.83451
G01 X-2.68929 Y-2.83649
G01 X-2.68745 Y-2.84004
G01 X-2.68618 Y-2.84384
G01 X-2.68550 Y-2.84820
G04 P0 ( dwell for no time -- G64 should not smooth over this point )
G00 Z0.08000 ( retract )

G00 X-3.32520 Y-3.29980 ( rapid move to begin. )
G01 F180.00000
( Mill infeed pass 1/1 )
G01 Z-0.04000
G04 P0 ( dwell for no time -- G64 should not smooth over this point )
G01 F360.00000
G01 X-3.32520 Y-3.29980
G01 X-3.32539 Y-3.29620
G01 X-3.32593 Y-3.29264
G01 X-3.32681 Y-3.28915
G01 X-3.32801 Y-3.28576
G01 X-3.32954 Y-3.28250
G01 X-3.33138 Y-3.27940
G01 X-3.33351 Y-3.27649
G01 X-3.33619 Y-3.27352
G01 X-3.33886 Y-3.27110
G01 X-3.34175 Y-3.26895
G01 X-3.34518 Y-3.26690
G01 X-3.34845 Y-3.26538
G01 X-3.35184 Y-3.26418
G01 X-3.35573 Y-3.26323
G01 X-3.35930 Y-3.26274
G01 X-3.36290 Y-3.26260
G01 X-3.36729 Y-3.26289
G01 X-3.37162 Y-3.26370
G01 X-3.37582 Y-3.26501
G01 X-3.37984 Y-3.26681
G01 X-3.38362 Y-3.26906
G01 X-3.38741 Y-3.27201
G01 X-3.39052 Y-3.27512
G01 X-3.39325 Y-3.27857
G01 X-3.39574 Y-3.28267
G01 X-3.39755 Y-3.28669
G01 X-3.39887 Y-3.29088
G01 X-3.39969 Y-3.29521
G01 X-3.40000 Y-3.29960
G01 X-3.39979 Y-3.30400
G01 X-3.39915 Y-3.30795
G01 X-3.39772 Y-3.31285
G01 X-3.39786 Y-3.31299
G01 X-3.66833 Y-3.31299
G01 X-3.67010 Y-3.31071
G01 X-3.67196 Y-3.30876
G01 X-3.67399 Y-3.30701
G01 X-3.67619 Y-3.30546
G01 X-3.67853 Y-3.30414
G01 X-3.68098 Y-3.30304
G01 X-3.68353 Y-3.30220
G01 X-3.68615 Y-3.30160
G01 X-3.69061 Y-3.30118
G01 X-3.73515 Y-3.30119
G01 X-3.73893 Y-3.30158
G01 X-3.74263 Y-3.30248
G01 X-3.74617 Y-3.30389
G01 X-3.74948 Y-3.30577
G01 X-3.75249 Y-3.30808
G01 X-3.75517 Y-3.31079
G01 X-3.75744 Y-3.31384
G01 X-3.75927 Y-3.31718
G01 X-3.76062 Y-3.32074
G01 X-3.76147 Y-3.32444
G01 X-3.76181 Y-3.32824
G01 X-3.76161 Y-3.33204
G01 X-3.76090 Y-3.33577
G01 X-3.75968 Y-3.33938
G01 X-3.75797 Y-3.34278
G01 X-3.75581 Y-3.34591
G01 X-3.75403 Y-3.34793
G01 X-3.75224 Y-3.34962
G01 X-3.75012 Y-3.35127
G01 X-3.74805 Y-3.35260
G01 X-3.74586 Y-3.35373
G01 X-3.74358 Y-3.35467
G01 X-3.74101 Y-3.35546
G01 X-3.73860 Y-3.35595
G01 X-3.73436 Y-3.35630
G01 X-3.69094 Y-3.35630
G01 X-3.68759 Y-3.35609
G01 X-3.68429 Y-3.35548
G01 X-3.68130 Y-3.35455
G01 X-3.67823 Y-3.35319
G01 X-3.67535 Y-3.35146
G01 X-3.67270 Y-3.34940
G01 X-3.67032 Y-3.34702
G01 X-3.66833 Y-3.34449
G01 X-3.39134 Y-3.34449
G01 X-3.38895 Y-3.34431
G01 X-3.38701 Y-3.34388
G01 X-3.38550 Y-3.34337
G01 X-3.38369 Y-3.34251
G01 X-3.38234 Y-3.34167
G01 X-3.38049 Y-3.34016
G01 X-3.37545 Y-3.33512
G01 X-3.37123 Y-3.33639
G01 X-3.36689 Y-3.33715
G01 X-3.36250 Y-3.33740
G01 X-3.35771 Y-3.33708
G01 X-3.35339 Y-3.33625
G01 X-3.34882 Y-3.33477
G01 X-3.34483 Y-3.33291
G01 X-3.34109 Y-3.33060
G01 X-3.33764 Y-3.32786
G01 X-3.33454 Y-3.32473
G01 X-3.33183 Y-3.32126
G01 X-3.32936 Y-3.31715
G01 X-3.32757 Y-3.31312
G01 X-3.32628 Y-3.30892
G01 X-3.32548 Y-3.30459
G01 X-3.32520 Y-3.29980
G04 P0 ( dwell for no time -- G64 should not smooth over this point )
G00 Z0.08000 ( retract )

G00 X-3.61239 Y-3.24550 ( rapid move to begin. )
G01 F180.00000
( Mill infeed pass 1/1 )
G01 Z-0.04000
G04 P0 ( dwell for no time -- G64 should not smooth over this point )
G01 F360.00000
G01 X-3.61239 Y-3.24550
G01 X-3.61239 Y-3.04130
G01 X-3.61252 Y-3.03928
G01 X-3.61302 Y-3.03690
G01 X-3.61389 Y-3.03463
G01 X-3.61511 Y-3.03252
G01 X-3.61664 Y-3.03063
G01 X-3.74710 Y-2.90017
G01 X-3.74710 Y-2.87559
G01 X-3.73701 Y-2.87559
G01 X-3.73701 Y-2.82441
G01 X-3.78819 Y-2.82441
G01 X-3.78819 Y-2.83450
G01 X-3.81422 Y-2.83458
G01 X-3.81622 Y-2.83493
G01 X-3.81853 Y-2.83568
G01 X-3.82035 Y-2.83658
G01 X-3.82235 Y-2.83795
G01 X-3.89798 Y-2.91346
G01 X-3.90290 Y-2.91186
G01 X-3.90801 Y-2.91092
G01 X-3.91320 Y-2.91065
G01 X-3.91838 Y-2.91108
G01 X-3.92346 Y-2.91218
G01 X-3.92835 Y-2.91394
G01 X-3.93296 Y-2.91633
G01 X-3.93722 Y-2.91931
G01 X-3.94105 Y-2.92282
G01 X-3.94415 Y-2.92648
G01 X-3.94697 Y-2.93085
G01 X-3.94920 Y-2.93554
G01 X-3.95078 Y-2.94049
G01 X-3.95166 Y-2.94521
G01 X-3.95195 Y-2.95040
G01 X-3.95160 Y-2.95519
G01 X-3.95078 Y-2.95951
G01 X-3.94934 Y-2.96408
G01 X-3.94754 Y-2.96809
G01 X-3.94508 Y-2.97221
G01 X-3.94213 Y-2.97600
G01 X-3.93905 Y-2.97913
G01 X-3.93530 Y-2.98214
G01 X-3.93158 Y-2.98447
G01 X-3.92761 Y-2.98637
G01 X-3.92307 Y-2.98793
G01 X-3.91877 Y-2.98886
G01 X-3.91400 Y-2.98933
G01 X-3.90960 Y-2.98923
G01 X-3.90485 Y-2.98858
G01 X-3.90021 Y-2.98735
G01 X-3.89612 Y-2.98573
G01 X-3.89292 Y-2.98408
G01 X-3.88989 Y-2.98214
G01 X-3.88705 Y-2.97993
G01 X-3.88414 Y-2.97718
G01 X-3.88153 Y-2.97415
G01 X-3.87946 Y-2.97121
G01 X-3.87766 Y-2.96809
G01 X-3.87600 Y-2.96446
G01 X-3.87483 Y-2.96105
G01 X-3.87398 Y-2.95755
G01 X-3.87341 Y-2.95359
G01 X-3.87325 Y-2.95000
G01 X-3.87341 Y-2.94640
G01 X-3.87398 Y-2.94245
G01 X-3.87483 Y-2.93895
G01 X-3.87606 Y-2.93539
G01 X-3.80618 Y-2.86550
G01 X-3.78819 Y-2.86550
G01 X-3.78819 Y-2.87559
G01 X-3.77810 Y-2.87559
G01 X-3.77805 Y-2.90781
G01 X-3.77767 Y-2.91021
G01 X-3.77707 Y-2.91214
G01 X-3.77602 Y-2.91434
G01 X-3.77489 Y-2.91602
G01 X-3.77356 Y-2.91755
G01 X-3.64339 Y-3.04772
G01 X-3.64339 Y-3.23450
G01 X-3.66816 Y-3.23450
G01 X-3.66981 Y-3.23231
G01 X-3.67180 Y-3.23018
G01 X-3.67399 Y-3.22827
G01 X-3.67638 Y-3.22660
G01 X-3.67893 Y-3.22520
G01 X-3.68161 Y-3.22407
G01 X-3.68440 Y-3.22323
G01 X-3.68726 Y-3.22269
G01 X-3.69083 Y-3.22244
G01 X-3.73515 Y-3.22246
G01 X-3.73760 Y-3.22264
G01 X-3.74003 Y-3.22305
G01 X-3.74242 Y-3.22368
G01 X-3.74453 Y-3.22443
G01 X-3.74677 Y-3.22545
G01 X-3.74891 Y-3.22666
G01 X-3.75094 Y-3.22806
G01 X-3.75283 Y-3.22964
G01 X-3.75457 Y-3.23138
G01 X-3.75615 Y-3.23327
G01 X-3.75756 Y-3.23529
G01 X-3.75878 Y-3.23743
G01 X-3.75980 Y-3.23967
G01 X-3.76062 Y-3.24200
G01 X-3.76123 Y-3.24438
G01 X-3.76163 Y-3.24681
G01 X-3.76180 Y-3.24927
G01 X-3.76176 Y-3.25173
G01 X-3.76149 Y-3.25418
G01 X-3.76101 Y-3.25660
G01 X-3.76031 Y-3.25896
G01 X-3.75941 Y-3.26125
G01 X-3.75830 Y-3.26345
G01 X-3.75701 Y-3.26555
G01 X-3.75553 Y-3.26752
G01 X-3.75388 Y-3.26935
G01 X-3.75207 Y-3.27102
G01 X-3.75012 Y-3.27253
G01 X-3.74805 Y-3.27386
G01 X-3.74586 Y-3.27499
G01 X-3.74358 Y-3.27593
G01 X-3.74123 Y-3.27666
G01 X-3.73794 Y-3.27731
G01 X-3.73459 Y-3.27756
G01 X-3.69072 Y-3.27756
G01 X-3.68848 Y-3.27745
G01 X-3.68604 Y-3.27712
G01 X-3.68321 Y-3.27645
G01 X-3.68067 Y-3.27557
G01 X-3.67823 Y-3.27445
G01 X-3.67591 Y-3.27310
G01 X-3.67373 Y-3.27152
G01 X-3.67172 Y-3.26974
G01 X-3.66989 Y-3.26778
G01 X-3.66816 Y-3.26550
G01 X-3.63198 Y-3.26549
G01 X-3.62996 Y-3.26531
G01 X-3.62759 Y-3.26474
G01 X-3.62463 Y-3.26342
G01 X-3.62232 Y-3.26179
G01 X-3.61664 Y-3.25617
G01 X-3.61511 Y-3.25428
G01 X-3.61389 Y-3.25217
G01 X-3.61302 Y-3.24990
G01 X-3.61258 Y-3.24792
G01 X-3.61239 Y-3.24550

G04 P0 ( dwell for no time -- G64 should not smooth over this point )
G00 Z1.000000 ( retract )

M5 ( Spindle off. )
G04 P1.000000
M9 ( Coolant off. )
M2 ( Program end. )

