( pcb2gcode 2.5.0 )
( Software-independent Gcode )

G94 ( Inches per minute feed rate. )
G20 ( Units == INCHES. )

G90 ( Absolute coordinates. )
G00 S12000 ( RPM spindle speed. )
G64 P0.00040 ( set maximum deviation from commanded toolpath )
G01 F360.00000 ( Feedrate. )


G00 Z1.00000 (Retract to tool change height)
T0
M5      (Spindle stop.)
G04 P1.00000 (Wait for spindle to stop)
(MSG, Change tool bit to mill diameter 0.00000in)
M6      (Tool change.)
M0      (Temporary machine stop.)
M3 ( Spindle on clockwise. )
G04 P1.00000 (Wait for spindle to get up to speed)
G04 P0 ( dwell for no time -- G64 should not smooth over this point )
G00 Z0.08000 ( retract )

G00 X-2.36525 Y-3.21762 ( rapid move to begin. )
G01 F180.00000
( Mill infeed pass 1/1 )
G01 Z-0.04000
G04 P0 ( dwell for no time -- G64 should not smooth over this point )
G01 F360.00000
G01 X-2.36525 Y-3.21762
G01 X-2.36554 Y-3.22065
G01 X-2.36643 Y-3.22355
G01 X-2.36786 Y-3.22623
G01 X-2.36979 Y-3.22858
G01 X-2.55096 Y-3.40976
G01 X-2.55331 Y-3.41169
G01 X-2.55599 Y-3.41312
G01 X-2.55890 Y-3.41400
G01 X-2.56192 Y-3.41430
G01 X-3.03417 Y-3.41430
G01 X-3.03719 Y-3.41400
G01 X-3.04010 Y-3.41312
G01 X-3.04278 Y-3.41169
G01 X-3.04513 Y-3.40976
G01 X-3.07356 Y-3.38133
G01 X-3.07549 Y-3.37898
G01 X-3.07692 Y-3.37630
G01 X-3.07780 Y-3.37339
G01 X-3.07810 Y-3.37037
G01 X-3.07810 Y-3.33937
G01 X-3.10000 Y-3.33937
G01 X-3.10000 Y-3.31550
G01 X-3.22520 Y-3.31550
G01 X-3.22520 Y-3.33937
G01 X-3.30000 Y-3.33937
G01 X-3.30000 Y-3.26063
G01 X-3.22520 Y-3.26063
G01 X-3.22520 Y-3.28450
G01 X-3.10000 Y-3.28450
G01 X-3.10000 Y-3.26063
G01 X-3.02520 Y-3.26063
G01 X-3.02520 Y-3.33937
G01 X-3.04710 Y-3.33937
G01 X-3.04710 Y-3.36395
G01 X-3.02775 Y-3.38330
G01 X-2.56834 Y-3.38330
G01 X-2.39625 Y-3.21120
G01 X-2.39625 Y-2.81713
G01 X-2.42973 Y-2.78365
G01 X-2.78555 Y-2.78365
G01 X-2.78857 Y-2.78335
G01 X-2.79148 Y-2.78247
G01 X-2.79416 Y-2.78104
G01 X-2.79651 Y-2.77911
G01 X-2.93412 Y-2.64150
G01 X-2.95870 Y-2.64150
G01 X-2.95870 Y-2.69490
G01 X-3.09650 Y-2.69490
G01 X-3.09650 Y-2.57902
G01 X-3.14370 Y-2.53182
G01 X-3.14370 Y-2.57680
G01 X-3.28150 Y-2.57680
G01 X-3.28150 Y-2.43900
G01 X-3.14370 Y-2.43900
G01 X-3.14370 Y-2.49260
G01 X-3.14267 Y-2.49270
G01 X-3.13977 Y-2.49358
G01 X-3.13709 Y-2.49501
G01 X-3.13474 Y-2.49694
G01 X-3.07458 Y-2.55710
G01 X-2.95870 Y-2.55710
G01 X-2.95870 Y-2.61050
G01 X-2.92770 Y-2.61050
G01 X-2.92467 Y-2.61080
G01 X-2.92177 Y-2.61168
G01 X-2.91909 Y-2.61311
G01 X-2.91674 Y-2.61504
G01 X-2.77913 Y-2.75265
G01 X-2.42331 Y-2.75265
G01 X-2.42029 Y-2.75295
G01 X-2.41738 Y-2.75383
G01 X-2.41470 Y-2.75526
G01 X-2.41235 Y-2.75719
G01 X-2.36979 Y-2.79975
G01 X-2.36786 Y-2.80210
G01 X-2.36643 Y-2.80478
G01 X-2.36554 Y-2.80769
G01 X-2.36525 Y-2.81071
G01 X-2.36525 Y-3.21762
G04 P0 ( dwell for no time -- G64 should not smooth over this point )
G00 Z0.08000 ( retract )

G00 X-2.56339 Y-3.32874 ( rapid move to begin. )
G01 F180.00000
( Mill infeed pass 1/1 )
G01 Z-0.04000
G04 P0 ( dwell for no time -- G64 should not smooth over this point )
G01 F360.00000
G01 X-2.56339 Y-3.32874
G01 X-2.56391 Y-3.32336
G01 X-2.56548 Y-3.31819
G01 X-2.56803 Y-3.31343
G01 X-2.57146 Y-3.30925
G01 X-2.57563 Y-3.30583
G01 X-2.58040 Y-3.30328
G01 X-2.58557 Y-3.30171
G01 X-2.59094 Y-3.30118
G01 X-2.63425 Y-3.30118
G01 X-2.63963 Y-3.30171
G01 X-2.64480 Y-3.30328
G01 X-2.64956 Y-3.30583
G01 X-2.65374 Y-3.30925
G01 X-2.65681 Y-3.31299
G01 X-2.88107 Y-3.31299
G01 X-2.92551 Y-3.29677
G01 X-2.92592 Y-3.29270
G01 X-2.92804 Y-3.28569
G01 X-2.93150 Y-3.27922
G01 X-2.93615 Y-3.27355
G01 X-2.94182 Y-3.26890
G01 X-2.94829 Y-3.26545
G01 X-2.95530 Y-3.26332
G01 X-2.96260 Y-3.26260
G01 X-2.96989 Y-3.26332
G01 X-2.97691 Y-3.26545
G01 X-2.98338 Y-3.26890
G01 X-2.98904 Y-3.27355
G01 X-2.99370 Y-3.27922
G01 X-2.99715 Y-3.28569
G01 X-2.99928 Y-3.29270
G01 X-3.00000 Y-3.30000
G01 X-2.99928 Y-3.30730
G01 X-2.99715 Y-3.31431
G01 X-2.99370 Y-3.32078
G01 X-2.98904 Y-3.32645
G01 X-2.98338 Y-3.33110
G01 X-2.97691 Y-3.33455
G01 X-2.96989 Y-3.33668
G01 X-2.96260 Y-3.33740
G01 X-2.95530 Y-3.33668
G01 X-2.94829 Y-3.33455
G01 X-2.94182 Y-3.33110
G01 X-2.93613 Y-3.32642
G01 X-2.88926 Y-3.34354
G01 X-2.88660 Y-3.34425
G01 X-2.88386 Y-3.34449
G01 X-2.65681 Y-3.34449
G01 X-2.65374 Y-3.34823
G01 X-2.64956 Y-3.35165
G01 X-2.64480 Y-3.35420
G01 X-2.63963 Y-3.35577
G01 X-2.63425 Y-3.35630
G01 X-2.59094 Y-3.35630
G01 X-2.58557 Y-3.35577
G01 X-2.58040 Y-3.35420
G01 X-2.57563 Y-3.35165
G01 X-2.57146 Y-3.34823
G01 X-2.56803 Y-3.34405
G01 X-2.56548 Y-3.33929
G01 X-2.56391 Y-3.33412
G01 X-2.56339 Y-3.32874
G04 P0 ( dwell for no time -- G64 should not smooth over this point )
G00 Z0.08000 ( retract )

G00 X-2.56339 Y-3.17126 ( rapid move to begin. )
G01 F180.00000
( Mill infeed pass 1/1 )
G01 Z-0.04000
G04 P0 ( dwell for no time -- G64 should not smooth over this point )
G01 F360.00000
G01 X-2.56339 Y-3.17126
G01 X-2.56391 Y-3.16588
G01 X-2.56548 Y-3.16071
G01 X-2.56803 Y-3.15595
G01 X-2.57146 Y-3.15177
G01 X-2.57563 Y-3.14834
G01 X-2.58040 Y-3.14580
G01 X-2.58557 Y-3.14423
G01 X-2.59094 Y-3.14370
G01 X-2.63425 Y-3.14370
G01 X-2.63963 Y-3.14423
G01 X-2.64480 Y-3.14580
G01 X-2.64956 Y-3.14834
G01 X-2.65374 Y-3.15177
G01 X-2.65681 Y-3.15551
G01 X-3.24888 Y-3.15551
G01 X-3.49685 Y-2.90754
G01 X-3.49685 Y-2.85000
G01 X-3.49715 Y-2.84693
G01 X-3.49805 Y-2.84397
G01 X-3.49950 Y-2.84125
G01 X-3.50146 Y-2.83886
G01 X-3.50385 Y-2.83690
G01 X-3.50657 Y-2.83545
G01 X-3.50953 Y-2.83455
G01 X-3.51260 Y-2.83425
G01 X-3.64415 Y-2.83425
G01 X-3.64608 Y-2.83190
G01 X-3.64996 Y-2.82872
G01 X-3.65438 Y-2.82636
G01 X-3.65918 Y-2.82490
G01 X-3.66417 Y-2.82441
G01 X-3.66917 Y-2.82490
G01 X-3.67397 Y-2.82636
G01 X-3.67839 Y-2.82872
G01 X-3.68227 Y-2.83190
G01 X-3.68545 Y-2.83578
G01 X-3.68782 Y-2.84021
G01 X-3.68927 Y-2.84501
G01 X-3.68976 Y-2.85000
G01 X-3.68927 Y-2.85499
G01 X-3.68782 Y-2.85979
G01 X-3.68545 Y-2.86422
G01 X-3.68227 Y-2.86809
G01 X-3.67839 Y-2.87128
G01 X-3.67397 Y-2.87364
G01 X-3.66917 Y-2.87510
G01 X-3.66417 Y-2.87559
G01 X-3.65918 Y-2.87510
G01 X-3.65438 Y-2.87364
G01 X-3.64996 Y-2.87128
G01 X-3.64608 Y-2.86809
G01 X-3.64415 Y-2.86575
G01 X-3.52835 Y-2.86575
G01 X-3.52835 Y-2.91401
G01 X-3.53446 Y-2.91728
G01 X-3.54042 Y-2.92218
G01 X-3.54532 Y-2.92814
G01 X-3.54895 Y-2.93494
G01 X-3.55119 Y-2.94232
G01 X-3.55195 Y-2.95000
G01 X-3.55119 Y-2.95768
G01 X-3.54895 Y-2.96506
G01 X-3.54532 Y-2.97186
G01 X-3.54042 Y-2.97782
G01 X-3.53446 Y-2.98272
G01 X-3.52766 Y-2.98635
G01 X-3.52027 Y-2.98859
G01 X-3.51260 Y-2.98935
G01 X-3.50492 Y-2.98859
G01 X-3.49754 Y-2.98635
G01 X-3.49074 Y-2.98272
G01 X-3.48477 Y-2.97782
G01 X-3.47988 Y-2.97186
G01 X-3.47890 Y-2.97003
G01 X-3.26654 Y-3.18240
G01 X-3.26415 Y-3.18435
G01 X-3.26143 Y-3.18581
G01 X-3.25847 Y-3.18671
G01 X-3.25540 Y-3.18701
G01 X-2.65681 Y-3.18701
G01 X-2.65374 Y-3.19075
G01 X-2.64956 Y-3.19417
G01 X-2.64480 Y-3.19672
G01 X-2.63963 Y-3.19829
G01 X-2.63425 Y-3.19882
G01 X-2.59094 Y-3.19882
G01 X-2.58557 Y-3.19829
G01 X-2.58040 Y-3.19672
G01 X-2.57563 Y-3.19417
G01 X-2.57146 Y-3.19075
G01 X-2.56803 Y-3.18657
G01 X-2.56548 Y-3.18181
G01 X-2.56391 Y-3.17664
G01 X-2.56339 Y-3.17126
G04 P0 ( dwell for no time -- G64 should not smooth over this point )
G00 Z0.08000 ( retract )

G00 X-2.42325 Y-2.95000 ( rapid move to begin. )
G01 F180.00000
( Mill infeed pass 1/1 )
G01 Z-0.04000
G04 P0 ( dwell for no time -- G64 should not smooth over this point )
G01 F360.00000
G01 X-2.42325 Y-2.95000
G01 X-2.42400 Y-2.94232
G01 X-2.42624 Y-2.93494
G01 X-2.42988 Y-2.92814
G01 X-2.43477 Y-2.92218
G01 X-2.44074 Y-2.91728
G01 X-2.44754 Y-2.91364
G01 X-2.45492 Y-2.91141
G01 X-2.46260 Y-2.91065
G01 X-2.47027 Y-2.91141
G01 X-2.47718 Y-2.91350
G01 X-2.55164 Y-2.83904
G01 X-2.55399 Y-2.83711
G01 X-2.55667 Y-2.83568
G01 X-2.55957 Y-2.83480
G01 X-2.56260 Y-2.83450
G01 X-2.58701 Y-2.83450
G01 X-2.58701 Y-2.82441
G01 X-2.63819 Y-2.82441
G01 X-2.63819 Y-2.87559
G01 X-2.58701 Y-2.87559
G01 X-2.58701 Y-2.86550
G01 X-2.56902 Y-2.86550
G01 X-2.49910 Y-2.93542
G01 X-2.50119 Y-2.94232
G01 X-2.50195 Y-2.95000
G01 X-2.50119 Y-2.95768
G01 X-2.49895 Y-2.96506
G01 X-2.49532 Y-2.97186
G01 X-2.49042 Y-2.97782
G01 X-2.48446 Y-2.98272
G01 X-2.47810 Y-2.98612
G01 X-2.47810 Y-3.17379
G01 X-2.53881 Y-3.23450
G01 X-2.56819 Y-3.23450
G01 X-2.57146 Y-3.23051
G01 X-2.57563 Y-3.22709
G01 X-2.58040 Y-3.22454
G01 X-2.58557 Y-3.22297
G01 X-2.59094 Y-3.22244
G01 X-2.63425 Y-3.22244
G01 X-2.63963 Y-3.22297
G01 X-2.64480 Y-3.22454
G01 X-2.64956 Y-3.22709
G01 X-2.65374 Y-3.23051
G01 X-2.65717 Y-3.23469
G01 X-2.65971 Y-3.23945
G01 X-2.66128 Y-3.24462
G01 X-2.66181 Y-3.25000
G01 X-2.66128 Y-3.25538
G01 X-2.65971 Y-3.26055
G01 X-2.65717 Y-3.26531
G01 X-2.65374 Y-3.26949
G01 X-2.64956 Y-3.27291
G01 X-2.64480 Y-3.27546
G01 X-2.63963 Y-3.27703
G01 X-2.63425 Y-3.27756
G01 X-2.59094 Y-3.27756
G01 X-2.58557 Y-3.27703
G01 X-2.58040 Y-3.27546
G01 X-2.57563 Y-3.27291
G01 X-2.57146 Y-3.26949
G01 X-2.56819 Y-3.26550
G01 X-2.53239 Y-3.26550
G01 X-2.52936 Y-3.26520
G01 X-2.52645 Y-3.26432
G01 X-2.52377 Y-3.26289
G01 X-2.52142 Y-3.26096
G01 X-2.45164 Y-3.19117
G01 X-2.44971 Y-3.18882
G01 X-2.44828 Y-3.18614
G01 X-2.44740 Y-3.18323
G01 X-2.44710 Y-3.18021
G01 X-2.44710 Y-2.98612
G01 X-2.44074 Y-2.98272
G01 X-2.43477 Y-2.97782
G01 X-2.42988 Y-2.97186
G01 X-2.42624 Y-2.96506
G01 X-2.42400 Y-2.95768
G01 X-2.42325 Y-2.95000
G04 P0 ( dwell for no time -- G64 should not smooth over this point )
G00 Z0.08000 ( retract )

G00 X-2.42325 Y-2.55000 ( rapid move to begin. )
G01 F180.00000
( Mill infeed pass 1/1 )
G01 Z-0.04000
G04 P0 ( dwell for no time -- G64 should not smooth over this point )
G01 F360.00000
G01 X-2.42325 Y-2.55000
G01 X-2.42400 Y-2.54232
G01 X-2.42624 Y-2.53494
G01 X-2.42988 Y-2.52814
G01 X-2.43477 Y-2.52217
G01 X-2.44074 Y-2.51728
G01 X-2.44754 Y-2.51364
G01 X-2.45492 Y-2.51141
G01 X-2.46260 Y-2.51065
G01 X-2.47027 Y-2.51141
G01 X-2.47766 Y-2.51364
G01 X-2.48446 Y-2.51728
G01 X-2.49042 Y-2.52217
G01 X-2.49532 Y-2.52814
G01 X-2.49858 Y-2.53425
G01 X-2.82661 Y-2.53425
G01 X-2.82988 Y-2.52814
G01 X-2.83477 Y-2.52217
G01 X-2.84074 Y-2.51728
G01 X-2.84754 Y-2.51364
G01 X-2.85492 Y-2.51141
G01 X-2.86260 Y-2.51065
G01 X-2.87027 Y-2.51141
G01 X-2.87718 Y-2.51350
G01 X-2.99814 Y-2.39254
G01 X-3.00049 Y-2.39061
G01 X-3.00317 Y-2.38918
G01 X-3.00607 Y-2.38830
G01 X-3.00910 Y-2.38800
G01 X-3.36610 Y-2.38800
G01 X-3.36912 Y-2.38830
G01 X-3.37203 Y-2.38918
G01 X-3.37471 Y-2.39061
G01 X-3.37706 Y-2.39254
G01 X-3.49802 Y-2.51350
G01 X-3.50492 Y-2.51141
G01 X-3.51260 Y-2.51065
G01 X-3.52027 Y-2.51141
G01 X-3.52766 Y-2.51364
G01 X-3.53446 Y-2.51728
G01 X-3.54042 Y-2.52217
G01 X-3.54532 Y-2.52814
G01 X-3.54858 Y-2.53425
G01 X-3.87661 Y-2.53425
G01 X-3.87988 Y-2.52814
G01 X-3.88477 Y-2.52217
G01 X-3.89074 Y-2.51728
G01 X-3.89754 Y-2.51364
G01 X-3.90492 Y-2.51141
G01 X-3.91260 Y-2.51065
G01 X-3.92027 Y-2.51141
G01 X-3.92766 Y-2.51364
G01 X-3.93446 Y-2.51728
G01 X-3.94042 Y-2.52217
G01 X-3.94532 Y-2.52814
G01 X-3.94895 Y-2.53494
G01 X-3.95119 Y-2.54232
G01 X-3.95195 Y-2.55000
G01 X-3.95119 Y-2.55768
G01 X-3.94895 Y-2.56506
G01 X-3.94532 Y-2.57186
G01 X-3.94042 Y-2.57782
G01 X-3.93446 Y-2.58272
G01 X-3.92766 Y-2.58635
G01 X-3.92027 Y-2.58859
G01 X-3.91260 Y-2.58935
G01 X-3.90492 Y-2.58859
G01 X-3.89754 Y-2.58635
G01 X-3.89074 Y-2.58272
G01 X-3.88477 Y-2.57782
G01 X-3.87988 Y-2.57186
G01 X-3.87661 Y-2.56575
G01 X-3.54858 Y-2.56575
G01 X-3.54532 Y-2.57186
G01 X-3.54042 Y-2.57782
G01 X-3.53446 Y-2.58272
G01 X-3.52766 Y-2.58635
G01 X-3.52027 Y-2.58859
G01 X-3.51260 Y-2.58935
G01 X-3.50492 Y-2.58859
G01 X-3.49754 Y-2.58635
G01 X-3.49074 Y-2.58272
G01 X-3.48757 Y-2.58012
G01 X-3.28150 Y-2.68316
G01 X-3.28150 Y-2.81300
G01 X-3.14370 Y-2.81300
G01 X-3.14370 Y-2.67520
G01 X-3.22698 Y-2.67520
G01 X-3.47344 Y-2.55197
G01 X-3.47325 Y-2.55000
G01 X-3.47400 Y-2.54232
G01 X-3.47610 Y-2.53542
G01 X-3.35968 Y-2.41900
G01 X-3.01552 Y-2.41900
G01 X-2.89910 Y-2.53542
G01 X-2.90119 Y-2.54232
G01 X-2.90195 Y-2.55000
G01 X-2.90119 Y-2.55768
G01 X-2.89895 Y-2.56506
G01 X-2.89532 Y-2.57186
G01 X-2.89042 Y-2.57782
G01 X-2.88446 Y-2.58272
G01 X-2.87766 Y-2.58635
G01 X-2.87027 Y-2.58859
G01 X-2.86260 Y-2.58935
G01 X-2.85492 Y-2.58859
G01 X-2.84754 Y-2.58635
G01 X-2.84074 Y-2.58272
G01 X-2.83477 Y-2.57782
G01 X-2.82988 Y-2.57186
G01 X-2.82661 Y-2.56575
G01 X-2.49858 Y-2.56575
G01 X-2.49532 Y-2.57186
G01 X-2.49042 Y-2.57782
G01 X-2.48446 Y-2.58272
G01 X-2.47766 Y-2.58635
G01 X-2.47027 Y-2.58859
G01 X-2.46260 Y-2.58935
G01 X-2.45492 Y-2.58859
G01 X-2.44754 Y-2.58635
G01 X-2.44074 Y-2.58272
G01 X-2.43477 Y-2.57782
G01 X-2.42988 Y-2.57186
G01 X-2.42624 Y-2.56506
G01 X-2.42400 Y-2.55768
G01 X-2.42325 Y-2.55000
G04 P0 ( dwell for no time -- G64 should not smooth over this point )
G00 Z0.08000 ( retract )

G00 X-2.68543 Y-2.85000 ( rapid move to begin. )
G01 F180.00000
( Mill infeed pass 1/1 )
G01 Z-0.04000
G04 P0 ( dwell for no time -- G64 should not smooth over this point )
G01 F360.00000
G01 X-2.68543 Y-2.85000
G01 X-2.68592 Y-2.84501
G01 X-2.68738 Y-2.84021
G01 X-2.68975 Y-2.83578
G01 X-2.69293 Y-2.83190
G01 X-2.69681 Y-2.82872
G01 X-2.70123 Y-2.82636
G01 X-2.70603 Y-2.82490
G01 X-2.71102 Y-2.82441
G01 X-2.71602 Y-2.82490
G01 X-2.72082 Y-2.82636
G01 X-2.72524 Y-2.82872
G01 X-2.72912 Y-2.83190
G01 X-2.73230 Y-2.83578
G01 X-2.73467 Y-2.84021
G01 X-2.73612 Y-2.84501
G01 X-2.73661 Y-2.85000
G01 X-2.73628 Y-2.85334
G01 X-2.81744 Y-2.93450
G01 X-2.82648 Y-2.93450
G01 X-2.82988 Y-2.92814
G01 X-2.83477 Y-2.92218
G01 X-2.84074 Y-2.91728
G01 X-2.84754 Y-2.91364
G01 X-2.85492 Y-2.91141
G01 X-2.86260 Y-2.91065
G01 X-2.87027 Y-2.91141
G01 X-2.87766 Y-2.91364
G01 X-2.88446 Y-2.91728
G01 X-2.89042 Y-2.92218
G01 X-2.89532 Y-2.92814
G01 X-2.89872 Y-2.93450
G01 X-3.20198 Y-2.93450
G01 X-3.35853 Y-2.77795
G01 X-3.36088 Y-2.77602
G01 X-3.36356 Y-2.77459
G01 X-3.36646 Y-2.77371
G01 X-3.36949 Y-2.77341
G01 X-3.86229 Y-2.77341
G01 X-3.86531 Y-2.77371
G01 X-3.86822 Y-2.77459
G01 X-3.87090 Y-2.77602
G01 X-3.87325 Y-2.77795
G01 X-3.99841 Y-2.90311
G01 X-4.00034 Y-2.90546
G01 X-4.00177 Y-2.90814
G01 X-4.00265 Y-2.91105
G01 X-4.00295 Y-2.91407
G01 X-4.00295 Y-2.98593
G01 X-4.00265 Y-2.98895
G01 X-4.00177 Y-2.99186
G01 X-4.00034 Y-2.99454
G01 X-3.99841 Y-2.99689
G01 X-3.81308 Y-3.18222
G01 X-3.81073 Y-3.18415
G01 X-3.80805 Y-3.18558
G01 X-3.80514 Y-3.18646
G01 X-3.80212 Y-3.18676
G01 X-3.75701 Y-3.18676
G01 X-3.75374 Y-3.19075
G01 X-3.74956 Y-3.19417
G01 X-3.74480 Y-3.19672
G01 X-3.73963 Y-3.19829
G01 X-3.73425 Y-3.19882
G01 X-3.69094 Y-3.19882
G01 X-3.68557 Y-3.19829
G01 X-3.68040 Y-3.19672
G01 X-3.67563 Y-3.19417
G01 X-3.67146 Y-3.19075
G01 X-3.66803 Y-3.18657
G01 X-3.66548 Y-3.18181
G01 X-3.66391 Y-3.17664
G01 X-3.66339 Y-3.17126
G01 X-3.66391 Y-3.16588
G01 X-3.66548 Y-3.16071
G01 X-3.66803 Y-3.15595
G01 X-3.67146 Y-3.15177
G01 X-3.67563 Y-3.14834
G01 X-3.68040 Y-3.14580
G01 X-3.68557 Y-3.14423
G01 X-3.69094 Y-3.14370
G01 X-3.73425 Y-3.14370
G01 X-3.73963 Y-3.14423
G01 X-3.74480 Y-3.14580
G01 X-3.74956 Y-3.14834
G01 X-3.75374 Y-3.15177
G01 X-3.75701 Y-3.15576
G01 X-3.79570 Y-3.15576
G01 X-3.97195 Y-2.97951
G01 X-3.97195 Y-2.92049
G01 X-3.85586 Y-2.80441
G01 X-3.37591 Y-2.80441
G01 X-3.21936 Y-2.96096
G01 X-3.21701 Y-2.96289
G01 X-3.21433 Y-2.96432
G01 X-3.21142 Y-2.96520
G01 X-3.20840 Y-2.96550
G01 X-2.89872 Y-2.96550
G01 X-2.89532 Y-2.97186
G01 X-2.89042 Y-2.97782
G01 X-2.88446 Y-2.98272
G01 X-2.87766 Y-2.98635
G01 X-2.87027 Y-2.98859
G01 X-2.86260 Y-2.98935
G01 X-2.85492 Y-2.98859
G01 X-2.84754 Y-2.98635
G01 X-2.84074 Y-2.98272
G01 X-2.83477 Y-2.97782
G01 X-2.82988 Y-2.97186
G01 X-2.82648 Y-2.96550
G01 X-2.81102 Y-2.96550
G01 X-2.80800 Y-2.96520
G01 X-2.80509 Y-2.96432
G01 X-2.80241 Y-2.96289
G01 X-2.80006 Y-2.96096
G01 X-2.71436 Y-2.87526
G01 X-2.71102 Y-2.87559
G01 X-2.70603 Y-2.87510
G01 X-2.70123 Y-2.87364
G01 X-2.69681 Y-2.87128
G01 X-2.69293 Y-2.86809
G01 X-2.68975 Y-2.86422
G01 X-2.68738 Y-2.85979
G01 X-2.68592 Y-2.85499
G01 X-2.68543 Y-2.85000
G04 P0 ( dwell for no time -- G64 should not smooth over this point )
G00 Z0.08000 ( retract )

G00 X-3.32520 Y-3.30000 ( rapid move to begin. )
G01 F180.00000
( Mill infeed pass 1/1 )
G01 Z-0.04000
G04 P0 ( dwell for no time -- G64 should not smooth over this point )
G01 F360.00000
G01 X-3.32520 Y-3.30000
G01 X-3.32592 Y-3.30730
G01 X-3.32804 Y-3.31431
G01 X-3.33150 Y-3.32078
G01 X-3.33615 Y-3.32645
G01 X-3.34182 Y-3.33110
G01 X-3.34829 Y-3.33455
G01 X-3.35530 Y-3.33668
G01 X-3.36260 Y-3.33740
G01 X-3.36989 Y-3.33668
G01 X-3.37535 Y-3.33503
G01 X-3.38020 Y-3.33988
G01 X-3.38259 Y-3.34184
G01 X-3.38531 Y-3.34329
G01 X-3.38827 Y-3.34419
G01 X-3.39134 Y-3.34449
G01 X-3.66839 Y-3.34449
G01 X-3.67146 Y-3.34823
G01 X-3.67563 Y-3.35165
G01 X-3.68040 Y-3.35420
G01 X-3.68557 Y-3.35577
G01 X-3.69094 Y-3.35630
G01 X-3.73425 Y-3.35630
G01 X-3.73963 Y-3.35577
G01 X-3.74480 Y-3.35420
G01 X-3.74956 Y-3.35165
G01 X-3.75374 Y-3.34823
G01 X-3.75717 Y-3.34405
G01 X-3.75971 Y-3.33929
G01 X-3.76128 Y-3.33412
G01 X-3.76181 Y-3.32874
G01 X-3.76128 Y-3.32336
G01 X-3.75971 Y-3.31819
G01 X-3.75717 Y-3.31343
G01 X-3.75374 Y-3.30925
G01 X-3.74956 Y-3.30583
G01 X-3.74480 Y-3.30328
G01 X-3.73963 Y-3.30171
G01 X-3.73425 Y-3.30118
G01 X-3.69094 Y-3.30118
G01 X-3.68557 Y-3.30171
G01 X-3.68040 Y-3.30328
G01 X-3.67563 Y-3.30583
G01 X-3.67146 Y-3.30925
G01 X-3.66839 Y-3.31299
G01 X-3.39786 Y-3.31299
G01 X-3.39763 Y-3.31275
G01 X-3.39928 Y-3.30730
G01 X-3.40000 Y-3.30000
G01 X-3.39928 Y-3.29270
G01 X-3.39715 Y-3.28569
G01 X-3.39370 Y-3.27922
G01 X-3.38904 Y-3.27355
G01 X-3.38338 Y-3.26890
G01 X-3.37691 Y-3.26545
G01 X-3.36989 Y-3.26332
G01 X-3.36260 Y-3.26260
G01 X-3.35530 Y-3.26332
G01 X-3.34829 Y-3.26545
G01 X-3.34182 Y-3.26890
G01 X-3.33615 Y-3.27355
G01 X-3.33150 Y-3.27922
G01 X-3.32804 Y-3.28569
G01 X-3.32592 Y-3.29270
G01 X-3.32520 Y-3.30000
G04 P0 ( dwell for no time -- G64 should not smooth over this point )
G00 Z0.08000 ( retract )

G00 X-3.61239 Y-3.24550 ( rapid move to begin. )
G01 F180.00000
( Mill infeed pass 1/1 )
G01 Z-0.04000
G04 P0 ( dwell for no time -- G64 should not smooth over this point )
G01 F360.00000
G01 X-3.61239 Y-3.24550
G01 X-3.61239 Y-3.04130
G01 X-3.61268 Y-3.03828
G01 X-3.61356 Y-3.03537
G01 X-3.61500 Y-3.03269
G01 X-3.61692 Y-3.03034
G01 X-3.74710 Y-2.90017
G01 X-3.74710 Y-2.87559
G01 X-3.73701 Y-2.87559
G01 X-3.73701 Y-2.82441
G01 X-3.78819 Y-2.82441
G01 X-3.78819 Y-2.83450
G01 X-3.81260 Y-2.83450
G01 X-3.81562 Y-2.83480
G01 X-3.81853 Y-2.83568
G01 X-3.82121 Y-2.83711
G01 X-3.82356 Y-2.83904
G01 X-3.89802 Y-2.91350
G01 X-3.90492 Y-2.91141
G01 X-3.91260 Y-2.91065
G01 X-3.92027 Y-2.91141
G01 X-3.92766 Y-2.91364
G01 X-3.93446 Y-2.91728
G01 X-3.94042 Y-2.92218
G01 X-3.94532 Y-2.92814
G01 X-3.94895 Y-2.93494
G01 X-3.95119 Y-2.94232
G01 X-3.95195 Y-2.95000
G01 X-3.95119 Y-2.95768
G01 X-3.94895 Y-2.96506
G01 X-3.94532 Y-2.97186
G01 X-3.94042 Y-2.97782
G01 X-3.93446 Y-2.98272
G01 X-3.92766 Y-2.98635
G01 X-3.92027 Y-2.98859
G01 X-3.91260 Y-2.98935
G01 X-3.90492 Y-2.98859
G01 X-3.89754 Y-2.98635
G01 X-3.89074 Y-2.98272
G01 X-3.88477 Y-2.97782
G01 X-3.87988 Y-2.97186
G01 X-3.87624 Y-2.96506
G01 X-3.87400 Y-2.95768
G01 X-3.87325 Y-2.95000
G01 X-3.87400 Y-2.94232
G01 X-3.87610 Y-2.93542
G01 X-3.80618 Y-2.86550
G01 X-3.78819 Y-2.86550
G01 X-3.78819 Y-2.87559
G01 X-3.77810 Y-2.87559
G01 X-3.77810 Y-2.90659
G01 X-3.77780 Y-2.90961
G01 X-3.77692 Y-2.91252
G01 X-3.77549 Y-2.91520
G01 X-3.77356 Y-2.91755
G01 X-3.64339 Y-3.04772
G01 X-3.64339 Y-3.23450
G01 X-3.66819 Y-3.23450
G01 X-3.67146 Y-3.23051
G01 X-3.67563 Y-3.22709
G01 X-3.68040 Y-3.22454
G01 X-3.68557 Y-3.22297
G01 X-3.69094 Y-3.22244
G01 X-3.73425 Y-3.22244
G01 X-3.73963 Y-3.22297
G01 X-3.74480 Y-3.22454
G01 X-3.74956 Y-3.22709
G01 X-3.75374 Y-3.23051
G01 X-3.75717 Y-3.23469
G01 X-3.75971 Y-3.23945
G01 X-3.76128 Y-3.24462
G01 X-3.76181 Y-3.25000
G01 X-3.76128 Y-3.25538
G01 X-3.75971 Y-3.26055
G01 X-3.75717 Y-3.26531
G01 X-3.75374 Y-3.26949
G01 X-3.74956 Y-3.27291
G01 X-3.74480 Y-3.27546
G01 X-3.73963 Y-3.27703
G01 X-3.73425 Y-3.27756
G01 X-3.69094 Y-3.27756
G01 X-3.68557 Y-3.27703
G01 X-3.68040 Y-3.27546
G01 X-3.67563 Y-3.27291
G01 X-3.67146 Y-3.26949
G01 X-3.66819 Y-3.26550
G01 X-3.63239 Y-3.26550
G01 X-3.62936 Y-3.26520
G01 X-3.62645 Y-3.26432
G01 X-3.62377 Y-3.26289
G01 X-3.62142 Y-3.26096
G01 X-3.61692 Y-3.25646
G01 X-3.61500 Y-3.25411
G01 X-3.61356 Y-3.25143
G01 X-3.61268 Y-3.24852
G01 X-3.61239 Y-3.24550

G04 P0 ( dwell for no time -- G64 should not smooth over this point )
G00 Z1.000000 ( retract )

M5 ( Spindle off. )
G04 P1.000000
M9 ( Coolant off. )
M2 ( Program end. )

