( pcb2gcode 2.5.0 )
( Software-independent Gcode )

G94 ( Inches per minute feed rate. )
G20 ( Units == INCHES. )

G90 ( Absolute coordinates. )
G00 S12000 ( RPM spindle speed. )
G64 P0.00040 ( set maximum deviation from commanded toolpath )
G01 F360.00000 ( Feedrate. )


G00 Z1.00000 (Retract to tool change height)
T1
M5      (Spindle stop.)
G04 P1.00000 (Wait for spindle to stop)
(MSG, Change tool bit to mill diameter 0.00000in)
M6      (Tool change.)
M0      (Temporary machine stop.)
M3 ( Spindle on clockwise. )
G04 P1.00000 (Wait for spindle to get up to speed)
G04 P0 ( dwell for no time -- G64 should not smooth over this point )
G00 Z0.08000 ( retract )

G00 X-2.36525 Y-3.21762 ( rapid move to begin. )
G01 F180.00000
( Mill infeed pass 1/1 )
G01 Z-0.04000
G04 P0 ( dwell for no time -- G64 should not smooth over this point )
G01 F360.00000
G01 X-2.36525 Y-3.21762
G01 X-2.36554 Y-3.22065
G01 X-2.36643 Y-3.22355
G01 X-2.36786 Y-3.22623
G01 X-2.36979 Y-3.22858
G01 X-2.55096 Y-3.40976
G01 X-2.55331 Y-3.41169
G01 X-2.55599 Y-3.41312
G01 X-2.55890 Y-3.41400
G01 X-2.56192 Y-3.41430
G01 X-3.03417 Y-3.41430
G01 X-3.03719 Y-3.41400
G01 X-3.04010 Y-3.41312
G01 X-3.04278 Y-3.41169
G01 X-3.04513 Y-3.40976
G01 X-3.07356 Y-3.38133
G01 X-3.07549 Y-3.37898
G01 X-3.07692 Y-3.37630
G01 X-3.07780 Y-3.37339
G01 X-3.07810 Y-3.37037
G01 X-3.07810 Y-3.33937
G01 X-3.10000 Y-3.33937
G01 X-3.10000 Y-3.31550
G01 X-3.22520 Y-3.31550
G01 X-3.22520 Y-3.33937
G01 X-3.30000 Y-3.33937
G01 X-3.30000 Y-3.26063
G01 X-3.22520 Y-3.26063
G01 X-3.22520 Y-3.28450
G01 X-3.10000 Y-3.28450
G01 X-3.10000 Y-3.26063
G01 X-3.02520 Y-3.26063
G01 X-3.02520 Y-3.33937
G01 X-3.04710 Y-3.33937
G01 X-3.04710 Y-3.36395
G01 X-3.02775 Y-3.38330
G01 X-2.56834 Y-3.38330
G01 X-2.39625 Y-3.21120
G01 X-2.39625 Y-2.81713
G01 X-2.42973 Y-2.78365
G01 X-2.78555 Y-2.78365
G01 X-2.78857 Y-2.78335
G01 X-2.79148 Y-2.78247
G01 X-2.79416 Y-2.78104
G01 X-2.79651 Y-2.77911
G01 X-2.93412 Y-2.64150
G01 X-2.95870 Y-2.64150
G01 X-2.95870 Y-2.69490
G01 X-3.09650 Y-2.69490
G01 X-3.09650 Y-2.57902
G01 X-3.14370 Y-2.53182
G01 X-3.14370 Y-2.57680
G01 X-3.28150 Y-2.57680
G01 X-3.28150 Y-2.43900
G01 X-3.14370 Y-2.43900
G01 X-3.14370 Y-2.49260
G01 X-3.14267 Y-2.49270
G01 X-3.13977 Y-2.49358
G01 X-3.13709 Y-2.49501
G01 X-3.13474 Y-2.49694
G01 X-3.07458 Y-2.55710
G01 X-2.95870 Y-2.55710
G01 X-2.95870 Y-2.61050
G01 X-2.92770 Y-2.61050
G01 X-2.92467 Y-2.61080
G01 X-2.92177 Y-2.61168
G01 X-2.91909 Y-2.61311
G01 X-2.91674 Y-2.61504
G01 X-2.77913 Y-2.75265
G01 X-2.42331 Y-2.75265
G01 X-2.42029 Y-2.75295
G01 X-2.41738 Y-2.75383
G01 X-2.41470 Y-2.75526
G01 X-2.41235 Y-2.75719
G01 X-2.36979 Y-2.79975
G01 X-2.36786 Y-2.80210
G01 X-2.36643 Y-2.80478
G01 X-2.36554 Y-2.80769
G01 X-2.36525 Y-2.81071
G01 X-2.36525 Y-3.21762
G04 P0 ( dwell for no time -- G64 should not smooth over this point )
G00 Z0.08000 ( retract )

G00 X-2.56339 Y-3.32812 ( rapid move to begin. )
G01 F180.00000
( Mill infeed pass 1/1 )
G01 Z-0.04000
G04 P0 ( dwell for no time -- G64 should not smooth over this point )
G01 F360.00000
G01 X-2.56339 Y-3.32812
G01 X-2.56358 Y-3.32544
G01 X-2.56405 Y-3.32274
G01 X-2.56476 Y-3.32015
G01 X-2.56574 Y-3.31759
G01 X-2.56698 Y-3.31514
G01 X-2.56841 Y-3.31287
G01 X-2.57007 Y-3.31075
G01 X-2.57192 Y-3.30880
G01 X-2.57395 Y-3.30704
G01 X-2.57619 Y-3.30546
G01 X-2.57913 Y-3.30384
G01 X-2.58230 Y-3.30257
G01 X-2.58555 Y-3.30171
G01 X-2.58893 Y-3.30125
G01 X-2.63448 Y-3.30118
G01 X-2.63777 Y-3.30141
G01 X-2.64101 Y-3.30202
G01 X-2.64411 Y-3.30300
G01 X-2.64712 Y-3.30437
G01 X-2.64989 Y-3.30605
G01 X-2.65249 Y-3.30808
G01 X-2.65483 Y-3.31041
G01 X-2.65687 Y-3.31299
G01 X-2.88107 Y-3.31299
G01 X-2.92533 Y-3.29684
G01 X-2.92578 Y-3.29343
G01 X-2.92655 Y-3.29002
G01 X-2.92764 Y-3.28670
G01 X-2.92899 Y-3.28358
G01 X-2.93068 Y-3.28051
G01 X-2.93264 Y-3.27761
G01 X-2.93486 Y-3.27491
G01 X-2.93725 Y-3.27250
G01 X-2.93985 Y-3.27031
G01 X-2.94273 Y-3.26831
G01 X-2.94577 Y-3.26660
G01 X-2.94897 Y-3.26517
G01 X-2.95228 Y-3.26405
G01 X-2.95559 Y-3.26326
G01 X-2.95905 Y-3.26277
G01 X-2.96245 Y-3.26260
G01 X-2.96614 Y-3.26277
G01 X-2.96980 Y-3.26330
G01 X-2.97339 Y-3.26419
G01 X-2.97678 Y-3.26539
G01 X-2.98013 Y-3.26696
G01 X-2.98331 Y-3.26886
G01 X-2.98628 Y-3.27105
G01 X-2.98896 Y-3.27346
G01 X-2.99145 Y-3.27620
G01 X-2.99366 Y-3.27916
G01 X-2.99552 Y-3.28225
G01 X-2.99711 Y-3.28558
G01 X-2.99836 Y-3.28906
G01 X-2.99927 Y-3.29265
G01 X-2.99981 Y-3.29621
G01 X-3.00000 Y-3.29990
G01 X-2.99985 Y-3.30340
G01 X-2.99938 Y-3.30676
G01 X-2.99859 Y-3.31017
G01 X-2.99752 Y-3.31339
G01 X-2.99611 Y-3.31660
G01 X-2.99447 Y-3.31957
G01 X-2.99256 Y-3.32239
G01 X-2.99034 Y-3.32509
G01 X-2.98794 Y-3.32750
G01 X-2.98534 Y-3.32969
G01 X-2.98247 Y-3.33168
G01 X-2.97951 Y-3.33336
G01 X-2.97632 Y-3.33479
G01 X-2.97310 Y-3.33589
G01 X-2.96980 Y-3.33670
G01 X-2.96634 Y-3.33721
G01 X-2.96225 Y-3.33740
G01 X-2.95806 Y-3.33712
G01 X-2.95402 Y-3.33641
G01 X-2.95000 Y-3.33521
G01 X-2.94622 Y-3.33363
G01 X-2.94256 Y-3.33158
G01 X-2.93922 Y-3.32920
G01 X-2.93613 Y-3.32643
G01 X-2.88926 Y-3.34354
G01 X-2.88660 Y-3.34425
G01 X-2.88386 Y-3.34449
G01 X-2.65687 Y-3.34449
G01 X-2.65483 Y-3.34707
G01 X-2.65254 Y-3.34936
G01 X-2.64998 Y-3.35137
G01 X-2.64722 Y-3.35306
G01 X-2.64421 Y-3.35444
G01 X-2.64112 Y-3.35543
G01 X-2.63794 Y-3.35605
G01 X-2.63470 Y-3.35629
G01 X-2.59066 Y-3.35630
G01 X-2.58820 Y-3.35616
G01 X-2.58577 Y-3.35581
G01 X-2.58305 Y-3.35514
G01 X-2.58036 Y-3.35419
G01 X-2.57783 Y-3.35298
G01 X-2.57544 Y-3.35153
G01 X-2.57321 Y-3.34984
G01 X-2.57116 Y-3.34793
G01 X-2.56932 Y-3.34582
G01 X-2.56767 Y-3.34349
G01 X-2.56634 Y-3.34116
G01 X-2.56525 Y-3.33870
G01 X-2.56440 Y-3.33615
G01 X-2.56380 Y-3.33348
G01 X-2.56346 Y-3.33081
G01 X-2.56339 Y-3.32812
G04 P0 ( dwell for no time -- G64 should not smooth over this point )
G00 Z0.08000 ( retract )

G00 X-2.56339 Y-3.17064 ( rapid move to begin. )
G01 F180.00000
( Mill infeed pass 1/1 )
G01 Z-0.04000
G04 P0 ( dwell for no time -- G64 should not smooth over this point )
G01 F360.00000
G01 X-2.56339 Y-3.17064
G01 X-2.56358 Y-3.16796
G01 X-2.56405 Y-3.16526
G01 X-2.56476 Y-3.16267
G01 X-2.56574 Y-3.16011
G01 X-2.56695 Y-3.15771
G01 X-2.56838 Y-3.15543
G01 X-2.57003 Y-3.15331
G01 X-2.57192 Y-3.15132
G01 X-2.57399 Y-3.14953
G01 X-2.57619 Y-3.14798
G01 X-2.57913 Y-3.14636
G01 X-2.58230 Y-3.14509
G01 X-2.58555 Y-3.14423
G01 X-2.58893 Y-3.14377
G01 X-2.63448 Y-3.14370
G01 X-2.63777 Y-3.14393
G01 X-2.64101 Y-3.14454
G01 X-2.64416 Y-3.14554
G01 X-2.64712 Y-3.14689
G01 X-2.64994 Y-3.14860
G01 X-2.65249 Y-3.15060
G01 X-2.65483 Y-3.15293
G01 X-2.65687 Y-3.15551
G01 X-3.24888 Y-3.15551
G01 X-3.49685 Y-2.90754
G01 X-3.49685 Y-2.85000
G01 X-3.49715 Y-2.84693
G01 X-3.49805 Y-2.84397
G01 X-3.49950 Y-2.84125
G01 X-3.50146 Y-2.83886
G01 X-3.50385 Y-2.83690
G01 X-3.50657 Y-2.83545
G01 X-3.50953 Y-2.83455
G01 X-3.51260 Y-2.83425
G01 X-3.64400 Y-2.83425
G01 X-3.64605 Y-2.83193
G01 X-3.64829 Y-2.82993
G01 X-3.65075 Y-2.82821
G01 X-3.65339 Y-2.82679
G01 X-3.65618 Y-2.82569
G01 X-3.65908 Y-2.82492
G01 X-3.66205 Y-2.82450
G01 X-3.66505 Y-2.82442
G01 X-3.66902 Y-2.82487
G01 X-3.67288 Y-2.82593
G01 X-3.67661 Y-2.82763
G01 X-3.67994 Y-2.82984
G01 X-3.68288 Y-2.83254
G01 X-3.68538 Y-2.83567
G01 X-3.68739 Y-2.83924
G01 X-3.68878 Y-2.84299
G01 X-3.68939 Y-2.84562
G01 X-3.68971 Y-2.84830
G01 X-3.68974 Y-2.85110
G01 X-3.68948 Y-2.85379
G01 X-3.68894 Y-2.85643
G01 X-3.68813 Y-2.85901
G01 X-3.68704 Y-2.86148
G01 X-3.68565 Y-2.86391
G01 X-3.68407 Y-2.86610
G01 X-3.68219 Y-2.86817
G01 X-3.68009 Y-2.87003
G01 X-3.67790 Y-2.87160
G01 X-3.67554 Y-2.87293
G01 X-3.67306 Y-2.87400
G01 X-3.67049 Y-2.87480
G01 X-3.66774 Y-2.87534
G01 X-3.66445 Y-2.87559
G01 X-3.66105 Y-2.87540
G01 X-3.65781 Y-2.87479
G01 X-3.65458 Y-2.87372
G01 X-3.65161 Y-2.87229
G01 X-3.64877 Y-2.87043
G01 X-3.64626 Y-2.86828
G01 X-3.64400 Y-2.86575
G01 X-3.52835 Y-2.86575
G01 X-3.52835 Y-2.91394
G01 X-3.53288 Y-2.91628
G01 X-3.53707 Y-2.91918
G01 X-3.54077 Y-2.92253
G01 X-3.54409 Y-2.92640
G01 X-3.54683 Y-2.93059
G01 X-3.54905 Y-2.93517
G01 X-3.55063 Y-2.93991
G01 X-3.55162 Y-2.94491
G01 X-3.55194 Y-2.94900
G01 X-3.55183 Y-2.95310
G01 X-3.55131 Y-2.95706
G01 X-3.55036 Y-2.96105
G01 X-3.54901 Y-2.96492
G01 X-3.54731 Y-2.96854
G01 X-3.54519 Y-2.97205
G01 X-3.54272 Y-2.97532
G01 X-3.53949 Y-2.97873
G01 X-3.53587 Y-2.98173
G01 X-3.53193 Y-2.98428
G01 X-3.52770 Y-2.98633
G01 X-3.52326 Y-2.98788
G01 X-3.51867 Y-2.98888
G01 X-3.51410 Y-2.98932
G01 X-3.50940 Y-2.98922
G01 X-3.50475 Y-2.98856
G01 X-3.50021 Y-2.98735
G01 X-3.49594 Y-2.98565
G01 X-3.49181 Y-2.98341
G01 X-3.48797 Y-2.98069
G01 X-3.48449 Y-2.97754
G01 X-3.48141 Y-2.97399
G01 X-3.47879 Y-2.97014
G01 X-3.26654 Y-3.18240
G01 X-3.26415 Y-3.18435
G01 X-3.26143 Y-3.18581
G01 X-3.25847 Y-3.18671
G01 X-3.25540 Y-3.18701
G01 X-2.65687 Y-3.18701
G01 X-2.65520 Y-3.18916
G01 X-2.65336 Y-3.19112
G01 X-2.65133 Y-3.19288
G01 X-2.64910 Y-3.19448
G01 X-2.64672 Y-3.19584
G01 X-2.64427 Y-3.19693
G01 X-2.64172 Y-3.19779
G01 X-2.63910 Y-3.19839
G01 X-2.63448 Y-3.19882
G01 X-2.59094 Y-3.19882
G01 X-2.58748 Y-3.19860
G01 X-2.58407 Y-3.19795
G01 X-2.58077 Y-3.19687
G01 X-2.57764 Y-3.19539
G01 X-2.57475 Y-3.19356
G01 X-2.57208 Y-3.19135
G01 X-2.56971 Y-3.18882
G01 X-2.56767 Y-3.18601
G01 X-2.56634 Y-3.18368
G01 X-2.56525 Y-3.18122
G01 X-2.56440 Y-3.17867
G01 X-2.56380 Y-3.17600
G01 X-2.56346 Y-3.17333
G01 X-2.56339 Y-3.17064
G04 P0 ( dwell for no time -- G64 should not smooth over this point )
G00 Z0.08000 ( retract )

G00 X-2.42325 Y-2.95050 ( rapid move to begin. )
G01 F180.00000
( Mill infeed pass 1/1 )
G01 Z-0.04000
G04 P0 ( dwell for no time -- G64 should not smooth over this point )
G01 F360.00000
G01 X-2.42325 Y-2.95050
G01 X-2.42348 Y-2.95429
G01 X-2.42408 Y-2.95804
G01 X-2.42503 Y-2.96172
G01 X-2.42630 Y-2.96520
G01 X-2.42789 Y-2.96854
G01 X-2.42984 Y-2.97180
G01 X-2.43209 Y-2.97486
G01 X-2.43463 Y-2.97768
G01 X-2.43743 Y-2.98025
G01 X-2.44047 Y-2.98254
G01 X-2.44371 Y-2.98452
G01 X-2.44710 Y-2.98617
G01 X-2.44710 Y-3.18021
G01 X-2.44740 Y-3.18323
G01 X-2.44828 Y-3.18614
G01 X-2.44971 Y-3.18882
G01 X-2.45164 Y-3.19117
G01 X-2.52142 Y-3.26096
G01 X-2.52377 Y-3.26289
G01 X-2.52645 Y-3.26432
G01 X-2.52936 Y-3.26520
G01 X-2.53239 Y-3.26550
G01 X-2.56816 Y-3.26550
G01 X-2.56974 Y-3.26760
G01 X-2.57152 Y-3.26955
G01 X-2.57347 Y-3.27131
G01 X-2.57558 Y-3.27288
G01 X-2.57783 Y-3.27424
G01 X-2.58020 Y-3.27538
G01 X-2.58267 Y-3.27629
G01 X-2.58527 Y-3.27697
G01 X-2.58798 Y-3.27740
G01 X-2.59072 Y-3.27756
G01 X-2.63436 Y-3.27756
G01 X-2.63760 Y-3.27735
G01 X-2.64003 Y-3.27694
G01 X-2.64242 Y-3.27632
G01 X-2.64473 Y-3.27549
G01 X-2.64697 Y-3.27445
G01 X-2.64910 Y-3.27322
G01 X-2.65111 Y-3.27180
G01 X-2.65299 Y-3.27020
G01 X-2.65472 Y-3.26845
G01 X-2.65713 Y-3.26536
G01 X-2.65910 Y-3.26191
G01 X-2.66054 Y-3.25827
G01 X-2.66146 Y-3.25441
G01 X-2.66181 Y-3.25045
G01 X-2.66159 Y-3.24654
G01 X-2.66081 Y-3.24264
G01 X-2.65948 Y-3.23890
G01 X-2.65765 Y-3.23544
G01 X-2.65531 Y-3.23222
G01 X-2.65254 Y-3.22938
G01 X-2.64943 Y-3.22700
G01 X-2.64601 Y-3.22508
G01 X-2.64231 Y-3.22364
G01 X-2.63844 Y-3.22276
G01 X-2.63448 Y-3.22244
G01 X-2.59083 Y-3.22244
G01 X-2.58748 Y-3.22266
G01 X-2.58456 Y-3.22319
G01 X-2.58177 Y-3.22401
G01 X-2.57908 Y-3.22512
G01 X-2.57652 Y-3.22652
G01 X-2.57413 Y-3.22817
G01 X-2.57192 Y-3.23006
G01 X-2.56992 Y-3.23218
G01 X-2.56816 Y-3.23450
G01 X-2.53881 Y-3.23450
G01 X-2.47810 Y-3.17379
G01 X-2.47810 Y-2.98617
G01 X-2.48158 Y-2.98447
G01 X-2.48481 Y-2.98248
G01 X-2.48784 Y-2.98019
G01 X-2.49063 Y-2.97761
G01 X-2.49317 Y-2.97478
G01 X-2.49541 Y-2.97172
G01 X-2.49735 Y-2.96845
G01 X-2.49897 Y-2.96501
G01 X-2.50025 Y-2.96143
G01 X-2.50118 Y-2.95775
G01 X-2.50174 Y-2.95399
G01 X-2.50195 Y-2.95020
G01 X-2.50178 Y-2.94640
G01 X-2.50125 Y-2.94264
G01 X-2.50036 Y-2.93895
G01 X-2.49913 Y-2.93539
G01 X-2.56902 Y-2.86550
G01 X-2.58701 Y-2.86550
G01 X-2.58701 Y-2.87559
G01 X-2.63819 Y-2.87559
G01 X-2.63819 Y-2.82441
G01 X-2.58701 Y-2.82441
G01 X-2.58701 Y-2.83450
G01 X-2.56260 Y-2.83450
G01 X-2.55957 Y-2.83480
G01 X-2.55667 Y-2.83568
G01 X-2.55399 Y-2.83711
G01 X-2.55164 Y-2.83904
G01 X-2.47721 Y-2.91346
G01 X-2.47355 Y-2.91221
G01 X-2.46976 Y-2.91131
G01 X-2.46589 Y-2.91079
G01 X-2.46200 Y-2.91065
G01 X-2.45811 Y-2.91091
G01 X-2.45426 Y-2.91154
G01 X-2.45050 Y-2.91256
G01 X-2.44694 Y-2.91390
G01 X-2.44344 Y-2.91562
G01 X-2.44014 Y-2.91769
G01 X-2.43705 Y-2.92007
G01 X-2.43428 Y-2.92267
G01 X-2.43172 Y-2.92561
G01 X-2.42946 Y-2.92879
G01 X-2.42752 Y-2.93217
G01 X-2.42593 Y-2.93573
G01 X-2.42472 Y-2.93933
G01 X-2.42389 Y-2.94294
G01 X-2.42339 Y-2.94670
G01 X-2.42325 Y-2.95050
G04 P0 ( dwell for no time -- G64 should not smooth over this point )
G00 Z0.08000 ( retract )

G00 X-2.42325 Y-2.55000 ( rapid move to begin. )
G01 F180.00000
( Mill infeed pass 1/1 )
G01 Z-0.04000
G04 P0 ( dwell for no time -- G64 should not smooth over this point )
G01 F360.00000
G01 X-2.42325 Y-2.55000
G01 X-2.42343 Y-2.54621
G01 X-2.42398 Y-2.54244
G01 X-2.42486 Y-2.53885
G01 X-2.42611 Y-2.53526
G01 X-2.42766 Y-2.53190
G01 X-2.42956 Y-2.52862
G01 X-2.43178 Y-2.52553
G01 X-2.43428 Y-2.52267
G01 X-2.43705 Y-2.52007
G01 X-2.43997 Y-2.51780
G01 X-2.44318 Y-2.51577
G01 X-2.44648 Y-2.51410
G01 X-2.45002 Y-2.51271
G01 X-2.45367 Y-2.51167
G01 X-2.45731 Y-2.51101
G01 X-2.46110 Y-2.51068
G01 X-2.46410 Y-2.51068
G01 X-2.46699 Y-2.51090
G01 X-2.46986 Y-2.51132
G01 X-2.47278 Y-2.51199
G01 X-2.47555 Y-2.51284
G01 X-2.47826 Y-2.51390
G01 X-2.48087 Y-2.51515
G01 X-2.48347 Y-2.51664
G01 X-2.48595 Y-2.51833
G01 X-2.48822 Y-2.52014
G01 X-2.49035 Y-2.52210
G01 X-2.49240 Y-2.52430
G01 X-2.49427 Y-2.52664
G01 X-2.49590 Y-2.52904
G01 X-2.49735 Y-2.53155
G01 X-2.49866 Y-2.53425
G01 X-2.82654 Y-2.53425
G01 X-2.82822 Y-2.53085
G01 X-2.83023 Y-2.52762
G01 X-2.83254 Y-2.52460
G01 X-2.83513 Y-2.52182
G01 X-2.83797 Y-2.51931
G01 X-2.84105 Y-2.51707
G01 X-2.84432 Y-2.51515
G01 X-2.84768 Y-2.51359
G01 X-2.85126 Y-2.51232
G01 X-2.85495 Y-2.51140
G01 X-2.85870 Y-2.51084
G01 X-2.86240 Y-2.51065
G01 X-2.86619 Y-2.51081
G01 X-2.86996 Y-2.51134
G01 X-2.87365 Y-2.51223
G01 X-2.87721 Y-2.51346
G01 X-2.99814 Y-2.39254
G01 X-3.00049 Y-2.39061
G01 X-3.00317 Y-2.38918
G01 X-3.00607 Y-2.38830
G01 X-3.00910 Y-2.38800
G01 X-3.36610 Y-2.38800
G01 X-3.36912 Y-2.38830
G01 X-3.37203 Y-2.38918
G01 X-3.37471 Y-2.39061
G01 X-3.37706 Y-2.39254
G01 X-3.49798 Y-2.51346
G01 X-3.50155 Y-2.51223
G01 X-3.50524 Y-2.51134
G01 X-3.50900 Y-2.51081
G01 X-3.51280 Y-2.51065
G01 X-3.51649 Y-2.51084
G01 X-3.52025 Y-2.51140
G01 X-3.52394 Y-2.51232
G01 X-3.52752 Y-2.51359
G01 X-3.53087 Y-2.51515
G01 X-3.53415 Y-2.51707
G01 X-3.53722 Y-2.51931
G01 X-3.54007 Y-2.52182
G01 X-3.54266 Y-2.52460
G01 X-3.54496 Y-2.52762
G01 X-3.54697 Y-2.53085
G01 X-3.54866 Y-2.53425
G01 X-3.87654 Y-2.53425
G01 X-3.87784 Y-2.53155
G01 X-3.87929 Y-2.52904
G01 X-3.88093 Y-2.52664
G01 X-3.88280 Y-2.52430
G01 X-3.88484 Y-2.52210
G01 X-3.88697 Y-2.52014
G01 X-3.88924 Y-2.51833
G01 X-3.89172 Y-2.51664
G01 X-3.89432 Y-2.51515
G01 X-3.89694 Y-2.51390
G01 X-3.89964 Y-2.51284
G01 X-3.90241 Y-2.51199
G01 X-3.90534 Y-2.51132
G01 X-3.90821 Y-2.51090
G01 X-3.91110 Y-2.51068
G01 X-3.91410 Y-2.51068
G01 X-3.91788 Y-2.51101
G01 X-3.92152 Y-2.51167
G01 X-3.92518 Y-2.51271
G01 X-3.92871 Y-2.51410
G01 X-3.93201 Y-2.51577
G01 X-3.93522 Y-2.51780
G01 X-3.93815 Y-2.52007
G01 X-3.94091 Y-2.52267
G01 X-3.94342 Y-2.52553
G01 X-3.94563 Y-2.52862
G01 X-3.94754 Y-2.53190
G01 X-3.94909 Y-2.53526
G01 X-3.95034 Y-2.53885
G01 X-3.95122 Y-2.54244
G01 X-3.95176 Y-2.54621
G01 X-3.95195 Y-2.55000
G01 X-3.95177 Y-2.55369
G01 X-3.95125 Y-2.55736
G01 X-3.95039 Y-2.56095
G01 X-3.94920 Y-2.56446
G01 X-3.94768 Y-2.56783
G01 X-3.94585 Y-2.57104
G01 X-3.94372 Y-2.57407
G01 X-3.94133 Y-2.57689
G01 X-3.93867 Y-2.57947
G01 X-3.93579 Y-2.58179
G01 X-3.93270 Y-2.58383
G01 X-3.92944 Y-2.58556
G01 X-3.92603 Y-2.58699
G01 X-3.92249 Y-2.58808
G01 X-3.91887 Y-2.58885
G01 X-3.91520 Y-2.58926
G01 X-3.91220 Y-2.58935
G01 X-3.90910 Y-2.58919
G01 X-3.90613 Y-2.58881
G01 X-3.90319 Y-2.58821
G01 X-3.90031 Y-2.58738
G01 X-3.89749 Y-2.58634
G01 X-3.89477 Y-2.58508
G01 X-3.89215 Y-2.58362
G01 X-3.88965 Y-2.58196
G01 X-3.88728 Y-2.58012
G01 X-3.88506 Y-2.57811
G01 X-3.88300 Y-2.57593
G01 X-3.88111 Y-2.57360
G01 X-3.87940 Y-2.57113
G01 X-3.87789 Y-2.56854
G01 X-3.87654 Y-2.56575
G01 X-3.54866 Y-2.56575
G01 X-3.54658 Y-2.56985
G01 X-3.54403 Y-2.57368
G01 X-3.54105 Y-2.57718
G01 X-3.53776 Y-2.58025
G01 X-3.53415 Y-2.58292
G01 X-3.53016 Y-2.58521
G01 X-3.52593 Y-2.58702
G01 X-3.52162 Y-2.58830
G01 X-3.51709 Y-2.58909
G01 X-3.51260 Y-2.58935
G01 X-3.50811 Y-2.58909
G01 X-3.50358 Y-2.58830
G01 X-3.49926 Y-2.58702
G01 X-3.49504 Y-2.58521
G01 X-3.49105 Y-2.58292
G01 X-3.48739 Y-2.58021
G01 X-3.28150 Y-2.68316
G01 X-3.28150 Y-2.81300
G01 X-3.14370 Y-2.81300
G01 X-3.14370 Y-2.67520
G01 X-3.22698 Y-2.67520
G01 X-3.47330 Y-2.55204
G01 X-3.47331 Y-2.54780
G01 X-3.47378 Y-2.54353
G01 X-3.47469 Y-2.53943
G01 X-3.47606 Y-2.53539
G01 X-3.35968 Y-2.41900
G01 X-3.01552 Y-2.41900
G01 X-2.89913 Y-2.53538
G01 X-2.90039 Y-2.53904
G01 X-2.90129 Y-2.54284
G01 X-2.90180 Y-2.54660
G01 X-2.90194 Y-2.55050
G01 X-2.90173 Y-2.55409
G01 X-2.90120 Y-2.55765
G01 X-2.90034 Y-2.56115
G01 X-2.89912 Y-2.56464
G01 X-2.89763 Y-2.56792
G01 X-2.89585 Y-2.57104
G01 X-2.89379 Y-2.57399
G01 X-2.89146 Y-2.57674
G01 X-2.88890 Y-2.57927
G01 X-2.88611 Y-2.58155
G01 X-2.88313 Y-2.58357
G01 X-2.87998 Y-2.58530
G01 X-2.87668 Y-2.58674
G01 X-2.87326 Y-2.58788
G01 X-2.86966 Y-2.58871
G01 X-2.86609 Y-2.58919
G01 X-2.86300 Y-2.58935
G01 X-2.85990 Y-2.58926
G01 X-2.85692 Y-2.58894
G01 X-2.85387 Y-2.58837
G01 X-2.85088 Y-2.58756
G01 X-2.84805 Y-2.58656
G01 X-2.84522 Y-2.58530
G01 X-2.84258 Y-2.58388
G01 X-2.83997 Y-2.58220
G01 X-2.83751 Y-2.58031
G01 X-2.83527 Y-2.57831
G01 X-2.83313 Y-2.57608
G01 X-2.83117 Y-2.57368
G01 X-2.82946 Y-2.57121
G01 X-2.82789 Y-2.56854
G01 X-2.82654 Y-2.56575
G01 X-2.49866 Y-2.56575
G01 X-2.49740 Y-2.56836
G01 X-2.49601 Y-2.57079
G01 X-2.49444 Y-2.57311
G01 X-2.49266 Y-2.57539
G01 X-2.49077 Y-2.57747
G01 X-2.48867 Y-2.57947
G01 X-2.48643 Y-2.58131
G01 X-2.48415 Y-2.58292
G01 X-2.48166 Y-2.58442
G01 X-2.47917 Y-2.58569
G01 X-2.47649 Y-2.58681
G01 X-2.47113 Y-2.58841
G01 X-2.46828 Y-2.58894
G01 X-2.46540 Y-2.58925
G01 X-2.46260 Y-2.58935
G01 X-2.45870 Y-2.58916
G01 X-2.45495 Y-2.58860
G01 X-2.45116 Y-2.58765
G01 X-2.44759 Y-2.58637
G01 X-2.44406 Y-2.58471
G01 X-2.44080 Y-2.58276
G01 X-2.43766 Y-2.58044
G01 X-2.43477 Y-2.57782
G01 X-2.43216 Y-2.57493
G01 X-2.42984 Y-2.57180
G01 X-2.42789 Y-2.56854
G01 X-2.42622 Y-2.56501
G01 X-2.42495 Y-2.56143
G01 X-2.42400 Y-2.55765
G01 X-2.42344 Y-2.55389
G01 X-2.42325 Y-2.55000
G04 P0 ( dwell for no time -- G64 should not smooth over this point )
G00 Z0.08000 ( retract )

G00 X-2.68550 Y-2.84815 ( rapid move to begin. )
G01 F180.00000
( Mill infeed pass 1/1 )
G01 Z-0.04000
G04 P0 ( dwell for no time -- G64 should not smooth over this point )
G01 F360.00000
G01 X-2.68550 Y-2.84815
G01 X-2.68553 Y-2.85225
G01 X-2.68622 Y-2.85629
G01 X-2.68754 Y-2.86017
G01 X-2.68946 Y-2.86379
G01 X-2.69194 Y-2.86705
G01 X-2.69414 Y-2.86923
G01 X-2.69659 Y-2.87113
G01 X-2.69934 Y-2.87277
G01 X-2.70218 Y-2.87401
G01 X-2.70515 Y-2.87491
G01 X-2.70820 Y-2.87543
G01 X-2.71130 Y-2.87559
G01 X-2.71446 Y-2.87536
G01 X-2.80006 Y-2.96096
G01 X-2.80241 Y-2.96289
G01 X-2.80509 Y-2.96432
G01 X-2.80800 Y-2.96520
G01 X-2.81102 Y-2.96550
G01 X-2.82643 Y-2.96550
G01 X-2.82898 Y-2.97045
G01 X-2.83222 Y-2.97501
G01 X-2.83608 Y-2.97907
G01 X-2.84047 Y-2.98254
G01 X-2.84531 Y-2.98535
G01 X-2.85050 Y-2.98744
G01 X-2.85593 Y-2.98878
G01 X-2.86150 Y-2.98933
G01 X-2.86440 Y-2.98931
G01 X-2.86729 Y-2.98907
G01 X-2.87025 Y-2.98860
G01 X-2.87307 Y-2.98793
G01 X-2.87593 Y-2.98702
G01 X-2.87862 Y-2.98594
G01 X-2.88122 Y-2.98466
G01 X-2.88381 Y-2.98314
G01 X-2.88627 Y-2.98143
G01 X-2.88852 Y-2.97960
G01 X-2.89063 Y-2.97761
G01 X-2.89259 Y-2.97547
G01 X-2.89439 Y-2.97319
G01 X-2.89601 Y-2.97079
G01 X-2.89749 Y-2.96818
G01 X-2.89874 Y-2.96556
G01 X-3.20840 Y-2.96550
G01 X-3.21142 Y-2.96520
G01 X-3.21433 Y-2.96432
G01 X-3.21701 Y-2.96289
G01 X-3.21936 Y-2.96096
G01 X-3.37591 Y-2.80441
G01 X-3.85586 Y-2.80441
G01 X-3.97195 Y-2.92049
G01 X-3.97195 Y-2.97951
G01 X-3.79570 Y-3.15576
G01 X-3.75704 Y-3.15576
G01 X-3.75527 Y-3.15344
G01 X-3.75324 Y-3.15128
G01 X-3.75098 Y-3.14936
G01 X-3.74853 Y-3.14769
G01 X-3.74591 Y-3.14629
G01 X-3.74316 Y-3.14518
G01 X-3.74031 Y-3.14437
G01 X-3.73738 Y-3.14388
G01 X-3.73436 Y-3.14370
G01 X-3.69072 Y-3.14370
G01 X-3.68726 Y-3.14395
G01 X-3.68386 Y-3.14463
G01 X-3.68051 Y-3.14575
G01 X-3.67739 Y-3.14726
G01 X-3.67448 Y-3.14916
G01 X-3.67184 Y-3.15140
G01 X-3.66949 Y-3.15396
G01 X-3.66749 Y-3.15679
G01 X-3.66619 Y-3.15914
G01 X-3.66513 Y-3.16161
G01 X-3.66431 Y-3.16417
G01 X-3.66374 Y-3.16685
G01 X-3.66344 Y-3.16958
G01 X-3.66340 Y-3.17227
G01 X-3.66364 Y-3.17500
G01 X-3.66413 Y-3.17764
G01 X-3.66490 Y-3.18027
G01 X-3.66590 Y-3.18277
G01 X-3.66714 Y-3.18515
G01 X-3.66861 Y-3.18740
G01 X-3.67032 Y-3.18954
G01 X-3.67220 Y-3.19146
G01 X-3.67426 Y-3.19319
G01 X-3.67648 Y-3.19471
G01 X-3.67944 Y-3.19630
G01 X-3.68251 Y-3.19750
G01 X-3.68577 Y-3.19833
G01 X-3.68904 Y-3.19875
G01 X-3.73554 Y-3.19879
G01 X-3.73871 Y-3.19846
G01 X-3.74183 Y-3.19776
G01 X-3.74484 Y-3.19670
G01 X-3.74771 Y-3.19531
G01 X-3.75040 Y-3.19360
G01 X-3.75287 Y-3.19158
G01 X-3.75509 Y-3.18929
G01 X-3.75704 Y-3.18676
G01 X-3.80212 Y-3.18676
G01 X-3.80514 Y-3.18646
G01 X-3.80805 Y-3.18558
G01 X-3.81073 Y-3.18415
G01 X-3.81308 Y-3.18222
G01 X-3.99841 Y-2.99689
G01 X-4.00034 Y-2.99454
G01 X-4.00177 Y-2.99186
G01 X-4.00265 Y-2.98895
G01 X-4.00295 Y-2.98593
G01 X-4.00295 Y-2.91407
G01 X-4.00265 Y-2.91105
G01 X-4.00177 Y-2.90814
G01 X-4.00034 Y-2.90546
G01 X-3.99841 Y-2.90311
G01 X-3.87325 Y-2.77795
G01 X-3.87090 Y-2.77602
G01 X-3.86822 Y-2.77459
G01 X-3.86531 Y-2.77371
G01 X-3.86229 Y-2.77341
G01 X-3.36949 Y-2.77341
G01 X-3.36646 Y-2.77371
G01 X-3.36356 Y-2.77459
G01 X-3.36088 Y-2.77602
G01 X-3.35853 Y-2.77795
G01 X-3.20198 Y-2.93450
G01 X-2.89877 Y-2.93450
G01 X-2.89754 Y-2.93190
G01 X-2.89611 Y-2.92938
G01 X-2.89456 Y-2.92705
G01 X-2.89278 Y-2.92476
G01 X-2.89091 Y-2.92267
G01 X-2.88882 Y-2.92066
G01 X-2.88659 Y-2.91881
G01 X-2.88423 Y-2.91713
G01 X-2.88184 Y-2.91567
G01 X-2.87926 Y-2.91435
G01 X-2.87659 Y-2.91322
G01 X-2.87384 Y-2.91229
G01 X-2.87113 Y-2.91159
G01 X-2.86828 Y-2.91106
G01 X-2.86540 Y-2.91075
G01 X-2.86260 Y-2.91065
G01 X-2.85791 Y-2.91093
G01 X-2.85319 Y-2.91179
G01 X-2.84861 Y-2.91322
G01 X-2.84424 Y-2.91520
G01 X-2.84139 Y-2.91686
G01 X-2.83860 Y-2.91881
G01 X-2.83600 Y-2.92100
G01 X-2.83367 Y-2.92333
G01 X-2.83153 Y-2.92585
G01 X-2.82956 Y-2.92862
G01 X-2.82789 Y-2.93146
G01 X-2.82643 Y-2.93450
G01 X-2.81744 Y-2.93450
G01 X-2.73638 Y-2.85344
G01 X-2.73661 Y-2.85010
G01 X-2.73640 Y-2.84671
G01 X-2.73577 Y-2.84347
G01 X-2.73468 Y-2.84025
G01 X-2.73323 Y-2.83728
G01 X-2.73135 Y-2.83445
G01 X-2.72911 Y-2.83189
G01 X-2.72655 Y-2.82966
G01 X-2.72441 Y-2.82819
G01 X-2.72203 Y-2.82690
G01 X-2.71963 Y-2.82590
G01 X-2.71704 Y-2.82513
G01 X-2.71439 Y-2.82463
G01 X-2.71170 Y-2.82442
G01 X-2.70910 Y-2.82448
G01 X-2.70642 Y-2.82483
G01 X-2.70379 Y-2.82545
G01 X-2.70134 Y-2.82631
G01 X-2.69890 Y-2.82746
G01 X-2.69659 Y-2.82887
G01 X-2.69452 Y-2.83044
G01 X-2.69255 Y-2.83229
G01 X-2.69079 Y-2.83433
G01 X-2.68925 Y-2.83655
G01 X-2.68738 Y-2.84020
G01 X-2.68612 Y-2.84410
G01 X-2.68550 Y-2.84815
G04 P0 ( dwell for no time -- G64 should not smooth over this point )
G00 Z0.08000 ( retract )

G00 X-3.32520 Y-3.29990 ( rapid move to begin. )
G01 F180.00000
( Mill infeed pass 1/1 )
G01 Z-0.04000
G04 P0 ( dwell for no time -- G64 should not smooth over this point )
G01 F360.00000
G01 X-3.32520 Y-3.29990
G01 X-3.32539 Y-3.29621
G01 X-3.32593 Y-3.29265
G01 X-3.32683 Y-3.28906
G01 X-3.32809 Y-3.28558
G01 X-3.32968 Y-3.28225
G01 X-3.33154 Y-3.27916
G01 X-3.33375 Y-3.27620
G01 X-3.33624 Y-3.27346
G01 X-3.33891 Y-3.27105
G01 X-3.34189 Y-3.26886
G01 X-3.34506 Y-3.26696
G01 X-3.34841 Y-3.26539
G01 X-3.35180 Y-3.26419
G01 X-3.35539 Y-3.26330
G01 X-3.35905 Y-3.26277
G01 X-3.36275 Y-3.26260
G01 X-3.36724 Y-3.26289
G01 X-3.37166 Y-3.26371
G01 X-3.37595 Y-3.26506
G01 X-3.37996 Y-3.26687
G01 X-3.38381 Y-3.26919
G01 X-3.38735 Y-3.27196
G01 X-3.39054 Y-3.27513
G01 X-3.39326 Y-3.27859
G01 X-3.39561 Y-3.28242
G01 X-3.39745 Y-3.28642
G01 X-3.39882 Y-3.29070
G01 X-3.39967 Y-3.29501
G01 X-3.39999 Y-3.29930
G01 X-3.39982 Y-3.30369
G01 X-3.39919 Y-3.30774
G01 X-3.39772 Y-3.31285
G01 X-3.39786 Y-3.31299
G01 X-3.66833 Y-3.31299
G01 X-3.66999 Y-3.31083
G01 X-3.67184 Y-3.30888
G01 X-3.67386 Y-3.30711
G01 X-3.67610 Y-3.30552
G01 X-3.67848 Y-3.30416
G01 X-3.68093 Y-3.30306
G01 X-3.68348 Y-3.30221
G01 X-3.68610 Y-3.30161
G01 X-3.69072 Y-3.30118
G01 X-3.73448 Y-3.30118
G01 X-3.73832 Y-3.30148
G01 X-3.74209 Y-3.30232
G01 X-3.74566 Y-3.30365
G01 X-3.74905 Y-3.30549
G01 X-3.75211 Y-3.30775
G01 X-3.75487 Y-3.31046
G01 X-3.75722 Y-3.31352
G01 X-3.75913 Y-3.31688
G01 X-3.76054 Y-3.32047
G01 X-3.76143 Y-3.32417
G01 X-3.76180 Y-3.32796
G01 X-3.76164 Y-3.33181
G01 X-3.76094 Y-3.33561
G01 X-3.75974 Y-3.33922
G01 X-3.75802 Y-3.34268
G01 X-3.75584 Y-3.34587
G01 X-3.75415 Y-3.34781
G01 X-3.75233 Y-3.34954
G01 X-3.75031 Y-3.35114
G01 X-3.74819 Y-3.35251
G01 X-3.74596 Y-3.35369
G01 X-3.74358 Y-3.35467
G01 X-3.74112 Y-3.35543
G01 X-3.73860 Y-3.35595
G01 X-3.73448 Y-3.35630
G01 X-3.69083 Y-3.35630
G01 X-3.68754 Y-3.35609
G01 X-3.68429 Y-3.35548
G01 X-3.68114 Y-3.35450
G01 X-3.67813 Y-3.35314
G01 X-3.67530 Y-3.35143
G01 X-3.67270 Y-3.34940
G01 X-3.67036 Y-3.34707
G01 X-3.66833 Y-3.34449
G01 X-3.39134 Y-3.34449
G01 X-3.38827 Y-3.34419
G01 X-3.38531 Y-3.34329
G01 X-3.38259 Y-3.34184
G01 X-3.38020 Y-3.33988
G01 X-3.37545 Y-3.33512
G01 X-3.37117 Y-3.33641
G01 X-3.36674 Y-3.33717
G01 X-3.36225 Y-3.33740
G01 X-3.35776 Y-3.33709
G01 X-3.35335 Y-3.33624
G01 X-3.34906 Y-3.33487
G01 X-3.34498 Y-3.33299
G01 X-3.34114 Y-3.33064
G01 X-3.33762 Y-3.32784
G01 X-3.33446 Y-3.32464
G01 X-3.33171 Y-3.32108
G01 X-3.32940 Y-3.31722
G01 X-3.32757 Y-3.31311
G01 X-3.32625 Y-3.30882
G01 X-3.32545 Y-3.30439
G01 X-3.32520 Y-3.29990
G04 P0 ( dwell for no time -- G64 should not smooth over this point )
G00 Z0.08000 ( retract )

G00 X-3.61239 Y-3.24550 ( rapid move to begin. )
G01 F180.00000
( Mill infeed pass 1/1 )
G01 Z-0.04000
G04 P0 ( dwell for no time -- G64 should not smooth over this point )
G01 F360.00000
G01 X-3.61239 Y-3.24550
G01 X-3.61239 Y-3.04130
G01 X-3.61268 Y-3.03828
G01 X-3.61356 Y-3.03537
G01 X-3.61500 Y-3.03269
G01 X-3.61692 Y-3.03034
G01 X-3.74710 Y-2.90017
G01 X-3.74710 Y-2.87559
G01 X-3.73701 Y-2.87559
G01 X-3.73701 Y-2.82441
G01 X-3.78819 Y-2.82441
G01 X-3.78819 Y-2.83450
G01 X-3.81260 Y-2.83450
G01 X-3.81562 Y-2.83480
G01 X-3.81853 Y-2.83568
G01 X-3.82121 Y-2.83711
G01 X-3.82356 Y-2.83904
G01 X-3.89798 Y-2.91346
G01 X-3.90290 Y-2.91186
G01 X-3.90801 Y-2.91092
G01 X-3.91320 Y-2.91065
G01 X-3.91838 Y-2.91108
G01 X-3.92346 Y-2.91218
G01 X-3.92835 Y-2.91394
G01 X-3.93296 Y-2.91633
G01 X-3.93722 Y-2.91931
G01 X-3.94091 Y-2.92267
G01 X-3.94421 Y-2.92656
G01 X-3.94692 Y-2.93076
G01 X-3.94912 Y-2.93536
G01 X-3.95071 Y-2.94020
G01 X-3.95166 Y-2.94521
G01 X-3.95195 Y-2.95020
G01 X-3.95159 Y-2.95528
G01 X-3.95071 Y-2.95980
G01 X-3.94931 Y-2.96418
G01 X-3.94740 Y-2.96836
G01 X-3.94502 Y-2.97230
G01 X-3.94220 Y-2.97593
G01 X-3.93905 Y-2.97913
G01 X-3.93547 Y-2.98202
G01 X-3.93158 Y-2.98447
G01 X-3.92743 Y-2.98645
G01 X-3.92307 Y-2.98793
G01 X-3.91858 Y-2.98889
G01 X-3.91410 Y-2.98932
G01 X-3.90950 Y-2.98923
G01 X-3.90495 Y-2.98860
G01 X-3.90050 Y-2.98744
G01 X-3.89621 Y-2.98577
G01 X-3.89292 Y-2.98408
G01 X-3.88981 Y-2.98208
G01 X-3.88690 Y-2.97980
G01 X-3.88414 Y-2.97718
G01 X-3.88172 Y-2.97439
G01 X-3.87951 Y-2.97130
G01 X-3.87766 Y-2.96809
G01 X-3.87607 Y-2.96464
G01 X-3.87486 Y-2.96115
G01 X-3.87396 Y-2.95745
G01 X-3.87342 Y-2.95370
G01 X-3.87325 Y-2.95000
G01 X-3.87342 Y-2.94630
G01 X-3.87396 Y-2.94254
G01 X-3.87483 Y-2.93895
G01 X-3.87606 Y-2.93539
G01 X-3.80618 Y-2.86550
G01 X-3.78819 Y-2.86550
G01 X-3.78819 Y-2.87559
G01 X-3.77810 Y-2.87559
G01 X-3.77810 Y-2.90659
G01 X-3.77780 Y-2.90961
G01 X-3.77692 Y-2.91252
G01 X-3.77549 Y-2.91520
G01 X-3.77356 Y-2.91755
G01 X-3.64339 Y-3.04772
G01 X-3.64339 Y-3.23450
G01 X-3.66816 Y-3.23450
G01 X-3.66989 Y-3.23222
G01 X-3.67188 Y-3.23010
G01 X-3.67408 Y-3.22820
G01 X-3.67648 Y-3.22654
G01 X-3.67903 Y-3.22515
G01 X-3.68167 Y-3.22405
G01 X-3.68445 Y-3.22322
G01 X-3.68731 Y-3.22268
G01 X-3.69083 Y-3.22244
G01 X-3.73448 Y-3.22244
G01 X-3.73694 Y-3.22257
G01 X-3.73937 Y-3.22292
G01 X-3.74177 Y-3.22349
G01 X-3.74411 Y-3.22426
G01 X-3.74637 Y-3.22525
G01 X-3.74858 Y-3.22646
G01 X-3.75062 Y-3.22783
G01 X-3.75254 Y-3.22938
G01 X-3.75430 Y-3.23109
G01 X-3.75591 Y-3.23296
G01 X-3.75735 Y-3.23496
G01 X-3.75862 Y-3.23713
G01 X-3.75970 Y-3.23941
G01 X-3.76054 Y-3.24173
G01 X-3.76117 Y-3.24411
G01 X-3.76159 Y-3.24654
G01 X-3.76179 Y-3.24905
G01 X-3.76177 Y-3.25151
G01 X-3.76152 Y-3.25396
G01 X-3.76106 Y-3.25638
G01 X-3.76038 Y-3.25875
G01 X-3.75950 Y-3.26105
G01 X-3.75838 Y-3.26331
G01 X-3.75710 Y-3.26541
G01 X-3.75560 Y-3.26743
G01 X-3.75396 Y-3.26927
G01 X-3.75216 Y-3.27095
G01 X-3.75021 Y-3.27246
G01 X-3.74814 Y-3.27380
G01 X-3.74591 Y-3.27497
G01 X-3.74364 Y-3.27591
G01 X-3.74129 Y-3.27665
G01 X-3.73788 Y-3.27732
G01 X-3.73448 Y-3.27756
G01 X-3.69072 Y-3.27756
G01 X-3.68610 Y-3.27713
G01 X-3.68342 Y-3.27651
G01 X-3.68083 Y-3.27563
G01 X-3.67833 Y-3.27450
G01 X-3.67596 Y-3.27313
G01 X-3.67373 Y-3.27152
G01 X-3.67168 Y-3.26970
G01 X-3.66981 Y-3.26769
G01 X-3.66816 Y-3.26550
G01 X-3.63239 Y-3.26550
G01 X-3.62936 Y-3.26520
G01 X-3.62645 Y-3.26432
G01 X-3.62377 Y-3.26289
G01 X-3.62142 Y-3.26096
G01 X-3.61692 Y-3.25646
G01 X-3.61500 Y-3.25411
G01 X-3.61356 Y-3.25143
G01 X-3.61268 Y-3.24852
G01 X-3.61239 Y-3.24550

G04 P0 ( dwell for no time -- G64 should not smooth over this point )
G00 Z1.000000 ( retract )

M5 ( Spindle off. )
G04 P1.000000
M9 ( Coolant off. )
M2 ( Program end. )

