( pcb2gcode 2.5.0 )
( Software-independent Gcode )

G94 ( Inches per minute feed rate. )
G20 ( Units == INCHES. )

G90 ( Absolute coordinates. )
G00 S12000 ( RPM spindle speed. )
G64 P0.00040 ( set maximum deviation from commanded toolpath )
G01 F360.00000 ( Feedrate. )


G00 Z1.00000 (Retract to tool change height)
T1
M5      (Spindle stop.)
G04 P1.00000 (Wait for spindle to stop)
(MSG, Change tool bit to mill diameter 0.00000in)
M6      (Tool change.)
M0      (Temporary machine stop.)
M3 ( Spindle on clockwise. )
G04 P1.00000 (Wait for spindle to get up to speed)
G04 P0 ( dwell for no time -- G64 should not smooth over this point )
G00 Z0.08000 ( retract )

G00 X-2.36525 Y-3.21762 ( rapid move to begin. )
G01 F180.00000
( Mill infeed pass 1/1 )
G01 Z-0.04000
G04 P0 ( dwell for no time -- G64 should not smooth over this point )
G01 F360.00000
G01 X-2.36525 Y-3.21762
G01 X-2.36554 Y-3.22065
G01 X-2.36643 Y-3.22355
G01 X-2.36786 Y-3.22623
G01 X-2.36979 Y-3.22858
G01 X-2.55096 Y-3.40976
G01 X-2.55331 Y-3.41169
G01 X-2.55599 Y-3.41312
G01 X-2.55890 Y-3.41400
G01 X-2.56192 Y-3.41430
G01 X-3.03417 Y-3.41430
G01 X-3.03719 Y-3.41400
G01 X-3.04010 Y-3.41312
G01 X-3.04278 Y-3.41169
G01 X-3.04513 Y-3.40976
G01 X-3.07356 Y-3.38133
G01 X-3.07549 Y-3.37898
G01 X-3.07692 Y-3.37630
G01 X-3.07780 Y-3.37339
G01 X-3.07810 Y-3.37037
G01 X-3.07810 Y-3.33937
G01 X-3.10000 Y-3.33937
G01 X-3.10000 Y-3.31550
G01 X-3.22520 Y-3.31550
G01 X-3.22520 Y-3.33937
G01 X-3.30000 Y-3.33937
G01 X-3.30000 Y-3.26063
G01 X-3.22520 Y-3.26063
G01 X-3.22520 Y-3.28450
G01 X-3.10000 Y-3.28450
G01 X-3.10000 Y-3.26063
G01 X-3.02520 Y-3.26063
G01 X-3.02520 Y-3.33937
G01 X-3.04710 Y-3.33937
G01 X-3.04710 Y-3.36395
G01 X-3.02775 Y-3.38330
G01 X-2.56834 Y-3.38330
G01 X-2.39625 Y-3.21120
G01 X-2.39625 Y-2.81713
G01 X-2.42973 Y-2.78365
G01 X-2.78555 Y-2.78365
G01 X-2.78857 Y-2.78335
G01 X-2.79148 Y-2.78247
G01 X-2.79416 Y-2.78104
G01 X-2.79651 Y-2.77911
G01 X-2.93412 Y-2.64150
G01 X-2.95870 Y-2.64150
G01 X-2.95870 Y-2.69490
G01 X-3.09650 Y-2.69490
G01 X-3.09650 Y-2.57902
G01 X-3.14370 Y-2.53182
G01 X-3.14370 Y-2.57680
G01 X-3.28150 Y-2.57680
G01 X-3.28150 Y-2.43900
G01 X-3.14370 Y-2.43900
G01 X-3.14370 Y-2.49260
G01 X-3.14267 Y-2.49270
G01 X-3.13977 Y-2.49358
G01 X-3.13709 Y-2.49501
G01 X-3.13474 Y-2.49694
G01 X-3.07458 Y-2.55710
G01 X-2.95870 Y-2.55710
G01 X-2.95870 Y-2.61050
G01 X-2.92770 Y-2.61050
G01 X-2.92467 Y-2.61080
G01 X-2.92177 Y-2.61168
G01 X-2.91909 Y-2.61311
G01 X-2.91674 Y-2.61504
G01 X-2.77913 Y-2.75265
G01 X-2.42331 Y-2.75265
G01 X-2.42029 Y-2.75295
G01 X-2.41738 Y-2.75383
G01 X-2.41470 Y-2.75526
G01 X-2.41235 Y-2.75719
G01 X-2.36979 Y-2.79975
G01 X-2.36786 Y-2.80210
G01 X-2.36643 Y-2.80478
G01 X-2.36554 Y-2.80769
G01 X-2.36525 Y-2.81071
G01 X-2.36525 Y-3.21762
G04 P0 ( dwell for no time -- G64 should not smooth over this point )
G00 Z0.08000 ( retract )

G00 X-2.56339 Y-3.32874 ( rapid move to begin. )
G01 F180.00000
( Mill infeed pass 1/1 )
G01 Z-0.04000
G04 P0 ( dwell for no time -- G64 should not smooth over this point )
G01 F360.00000
G01 X-2.56339 Y-3.32874
G01 X-2.56391 Y-3.32336
G01 X-2.56548 Y-3.31819
G01 X-2.56803 Y-3.31343
G01 X-2.57146 Y-3.30925
G01 X-2.57563 Y-3.30583
G01 X-2.58040 Y-3.30328
G01 X-2.58557 Y-3.30171
G01 X-2.59094 Y-3.30118
G01 X-2.63425 Y-3.30118
G01 X-2.63963 Y-3.30171
G01 X-2.64480 Y-3.30328
G01 X-2.64956 Y-3.30583
G01 X-2.65374 Y-3.30925
G01 X-2.65681 Y-3.31299
G01 X-2.88107 Y-3.31299
G01 X-2.92533 Y-3.29684
G01 X-2.92578 Y-3.29343
G01 X-2.92653 Y-3.29012
G01 X-2.92757 Y-3.28688
G01 X-2.92891 Y-3.28376
G01 X-2.93052 Y-3.28077
G01 X-2.93240 Y-3.27793
G01 X-2.93453 Y-3.27528
G01 X-2.93689 Y-3.27284
G01 X-2.93946 Y-3.27062
G01 X-2.94222 Y-3.26864
G01 X-2.94515 Y-3.26692
G01 X-2.94823 Y-3.26547
G01 X-2.95142 Y-3.26431
G01 X-2.95471 Y-3.26344
G01 X-2.95806 Y-3.26287
G01 X-2.96145 Y-3.26262
G01 X-2.96515 Y-3.26268
G01 X-2.96882 Y-3.26312
G01 X-2.97233 Y-3.26389
G01 X-2.97585 Y-3.26503
G01 X-2.97924 Y-3.26651
G01 X-2.98247 Y-3.26831
G01 X-2.98542 Y-3.27037
G01 X-2.98824 Y-3.27277
G01 X-2.99074 Y-3.27536
G01 X-2.99303 Y-3.27826
G01 X-2.99503 Y-3.28137
G01 X-2.99671 Y-3.28466
G01 X-2.99803 Y-3.28802
G01 X-2.99904 Y-3.29157
G01 X-2.99969 Y-3.29521
G01 X-2.99998 Y-3.29890
G01 X-2.99992 Y-3.30240
G01 X-2.99952 Y-3.30597
G01 X-2.99880 Y-3.30940
G01 X-2.99776 Y-3.31274
G01 X-2.99642 Y-3.31597
G01 X-2.99473 Y-3.31915
G01 X-2.99280 Y-3.32206
G01 X-2.99060 Y-3.32479
G01 X-2.98816 Y-3.32730
G01 X-2.98542 Y-3.32963
G01 X-2.98255 Y-3.33163
G01 X-2.97951 Y-3.33336
G01 X-2.97623 Y-3.33483
G01 X-2.97291 Y-3.33595
G01 X-2.96951 Y-3.33676
G01 X-2.96604 Y-3.33724
G01 X-2.96195 Y-3.33739
G01 X-2.95786 Y-3.33710
G01 X-2.95383 Y-3.33636
G01 X-2.94991 Y-3.33518
G01 X-2.94613 Y-3.33358
G01 X-2.94256 Y-3.33158
G01 X-2.93922 Y-3.32920
G01 X-2.93613 Y-3.32643
G01 X-2.88926 Y-3.34354
G01 X-2.88660 Y-3.34425
G01 X-2.88386 Y-3.34449
G01 X-2.65681 Y-3.34449
G01 X-2.65374 Y-3.34823
G01 X-2.64956 Y-3.35165
G01 X-2.64480 Y-3.35420
G01 X-2.63963 Y-3.35577
G01 X-2.63425 Y-3.35630
G01 X-2.59094 Y-3.35630
G01 X-2.58557 Y-3.35577
G01 X-2.58040 Y-3.35420
G01 X-2.57563 Y-3.35165
G01 X-2.57146 Y-3.34823
G01 X-2.56803 Y-3.34405
G01 X-2.56548 Y-3.33929
G01 X-2.56391 Y-3.33412
G01 X-2.56339 Y-3.32874
G04 P0 ( dwell for no time -- G64 should not smooth over this point )
G00 Z0.08000 ( retract )

G00 X-2.56339 Y-3.17126 ( rapid move to begin. )
G01 F180.00000
( Mill infeed pass 1/1 )
G01 Z-0.04000
G04 P0 ( dwell for no time -- G64 should not smooth over this point )
G01 F360.00000
G01 X-2.56339 Y-3.17126
G01 X-2.56391 Y-3.16588
G01 X-2.56548 Y-3.16071
G01 X-2.56803 Y-3.15595
G01 X-2.57146 Y-3.15177
G01 X-2.57563 Y-3.14834
G01 X-2.58040 Y-3.14580
G01 X-2.58557 Y-3.14423
G01 X-2.59094 Y-3.14370
G01 X-2.63425 Y-3.14370
G01 X-2.63963 Y-3.14423
G01 X-2.64480 Y-3.14580
G01 X-2.64956 Y-3.14834
G01 X-2.65374 Y-3.15177
G01 X-2.65681 Y-3.15551
G01 X-3.24888 Y-3.15551
G01 X-3.49685 Y-2.90754
G01 X-3.49685 Y-2.85000
G01 X-3.49715 Y-2.84693
G01 X-3.49805 Y-2.84397
G01 X-3.49950 Y-2.84125
G01 X-3.50146 Y-2.83886
G01 X-3.50385 Y-2.83690
G01 X-3.50657 Y-2.83545
G01 X-3.50953 Y-2.83455
G01 X-3.51260 Y-2.83425
G01 X-3.64400 Y-2.83425
G01 X-3.64598 Y-2.83200
G01 X-3.64821 Y-2.83000
G01 X-3.65066 Y-2.82827
G01 X-3.65330 Y-2.82683
G01 X-3.65608 Y-2.82572
G01 X-3.65898 Y-2.82494
G01 X-3.66195 Y-2.82451
G01 X-3.66495 Y-2.82442
G01 X-3.66892 Y-2.82485
G01 X-3.67278 Y-2.82590
G01 X-3.67643 Y-2.82754
G01 X-3.67978 Y-2.82972
G01 X-3.68275 Y-2.83240
G01 X-3.68526 Y-2.83550
G01 X-3.68726 Y-2.83897
G01 X-3.68870 Y-2.84270
G01 X-3.68935 Y-2.84542
G01 X-3.68969 Y-2.84810
G01 X-3.68975 Y-2.85080
G01 X-3.68951 Y-2.85359
G01 X-3.68897 Y-2.85634
G01 X-3.68816 Y-2.85891
G01 X-3.68704 Y-2.86148
G01 X-3.68571 Y-2.86383
G01 X-3.68407 Y-2.86610
G01 X-3.68226 Y-2.86810
G01 X-3.68025 Y-2.86991
G01 X-3.67806 Y-2.87149
G01 X-3.67563 Y-2.87288
G01 X-3.67316 Y-2.87396
G01 X-3.67049 Y-2.87480
G01 X-3.66784 Y-2.87533
G01 X-3.66445 Y-2.87559
G01 X-3.66115 Y-2.87541
G01 X-3.65781 Y-2.87479
G01 X-3.65468 Y-2.87376
G01 X-3.65161 Y-2.87229
G01 X-3.64885 Y-2.87049
G01 X-3.64626 Y-2.86828
G01 X-3.64400 Y-2.86575
G01 X-3.52835 Y-2.86575
G01 X-3.52835 Y-2.91394
G01 X-3.53288 Y-2.91628
G01 X-3.53707 Y-2.91918
G01 X-3.54077 Y-2.92253
G01 X-3.54409 Y-2.92640
G01 X-3.54683 Y-2.93059
G01 X-3.54905 Y-2.93517
G01 X-3.55063 Y-2.93991
G01 X-3.55162 Y-2.94491
G01 X-3.55194 Y-2.94900
G01 X-3.55183 Y-2.95310
G01 X-3.55131 Y-2.95706
G01 X-3.55036 Y-2.96105
G01 X-3.54901 Y-2.96492
G01 X-3.54731 Y-2.96854
G01 X-3.54519 Y-2.97205
G01 X-3.54272 Y-2.97532
G01 X-3.53949 Y-2.97873
G01 X-3.53587 Y-2.98173
G01 X-3.53193 Y-2.98428
G01 X-3.52770 Y-2.98633
G01 X-3.52326 Y-2.98788
G01 X-3.51867 Y-2.98888
G01 X-3.51410 Y-2.98932
G01 X-3.50940 Y-2.98922
G01 X-3.50475 Y-2.98856
G01 X-3.50021 Y-2.98735
G01 X-3.49594 Y-2.98565
G01 X-3.49181 Y-2.98341
G01 X-3.48797 Y-2.98069
G01 X-3.48449 Y-2.97754
G01 X-3.48141 Y-2.97399
G01 X-3.47879 Y-2.97014
G01 X-3.26654 Y-3.18240
G01 X-3.26415 Y-3.18435
G01 X-3.26143 Y-3.18581
G01 X-3.25847 Y-3.18671
G01 X-3.25540 Y-3.18701
G01 X-2.65681 Y-3.18701
G01 X-2.65374 Y-3.19075
G01 X-2.64956 Y-3.19417
G01 X-2.64480 Y-3.19672
G01 X-2.63963 Y-3.19829
G01 X-2.63425 Y-3.19882
G01 X-2.59094 Y-3.19882
G01 X-2.58557 Y-3.19829
G01 X-2.58040 Y-3.19672
G01 X-2.57563 Y-3.19417
G01 X-2.57146 Y-3.19075
G01 X-2.56803 Y-3.18657
G01 X-2.56548 Y-3.18181
G01 X-2.56391 Y-3.17664
G01 X-2.56339 Y-3.17126
G04 P0 ( dwell for no time -- G64 should not smooth over this point )
G00 Z0.08000 ( retract )

G00 X-2.42325 Y-2.95050 ( rapid move to begin. )
G01 F180.00000
( Mill infeed pass 1/1 )
G01 Z-0.04000
G04 P0 ( dwell for no time -- G64 should not smooth over this point )
G01 F360.00000
G01 X-2.42325 Y-2.95050
G01 X-2.42348 Y-2.95429
G01 X-2.42408 Y-2.95804
G01 X-2.42503 Y-2.96172
G01 X-2.42630 Y-2.96520
G01 X-2.42789 Y-2.96854
G01 X-2.42984 Y-2.97180
G01 X-2.43209 Y-2.97486
G01 X-2.43463 Y-2.97768
G01 X-2.43743 Y-2.98025
G01 X-2.44047 Y-2.98254
G01 X-2.44371 Y-2.98452
G01 X-2.44710 Y-2.98617
G01 X-2.44710 Y-3.18021
G01 X-2.44740 Y-3.18323
G01 X-2.44828 Y-3.18614
G01 X-2.44971 Y-3.18882
G01 X-2.45164 Y-3.19117
G01 X-2.52142 Y-3.26096
G01 X-2.52377 Y-3.26289
G01 X-2.52645 Y-3.26432
G01 X-2.52936 Y-3.26520
G01 X-2.53239 Y-3.26550
G01 X-2.56819 Y-3.26550
G01 X-2.57146 Y-3.26949
G01 X-2.57563 Y-3.27291
G01 X-2.58040 Y-3.27546
G01 X-2.58557 Y-3.27703
G01 X-2.59094 Y-3.27756
G01 X-2.63425 Y-3.27756
G01 X-2.63963 Y-3.27703
G01 X-2.64480 Y-3.27546
G01 X-2.64956 Y-3.27291
G01 X-2.65374 Y-3.26949
G01 X-2.65717 Y-3.26531
G01 X-2.65971 Y-3.26055
G01 X-2.66128 Y-3.25538
G01 X-2.66181 Y-3.25000
G01 X-2.66128 Y-3.24462
G01 X-2.65971 Y-3.23945
G01 X-2.65717 Y-3.23469
G01 X-2.65374 Y-3.23051
G01 X-2.64956 Y-3.22709
G01 X-2.64480 Y-3.22454
G01 X-2.63963 Y-3.22297
G01 X-2.63425 Y-3.22244
G01 X-2.59094 Y-3.22244
G01 X-2.58557 Y-3.22297
G01 X-2.58040 Y-3.22454
G01 X-2.57563 Y-3.22709
G01 X-2.57146 Y-3.23051
G01 X-2.56819 Y-3.23450
G01 X-2.53881 Y-3.23450
G01 X-2.47810 Y-3.17379
G01 X-2.47810 Y-2.98617
G01 X-2.48158 Y-2.98447
G01 X-2.48481 Y-2.98248
G01 X-2.48784 Y-2.98019
G01 X-2.49063 Y-2.97761
G01 X-2.49317 Y-2.97478
G01 X-2.49541 Y-2.97172
G01 X-2.49735 Y-2.96845
G01 X-2.49897 Y-2.96501
G01 X-2.50025 Y-2.96143
G01 X-2.50118 Y-2.95775
G01 X-2.50174 Y-2.95399
G01 X-2.50195 Y-2.95020
G01 X-2.50178 Y-2.94640
G01 X-2.50125 Y-2.94264
G01 X-2.50036 Y-2.93895
G01 X-2.49913 Y-2.93539
G01 X-2.56902 Y-2.86550
G01 X-2.58701 Y-2.86550
G01 X-2.58701 Y-2.87559
G01 X-2.63819 Y-2.87559
G01 X-2.63819 Y-2.82441
G01 X-2.58701 Y-2.82441
G01 X-2.58701 Y-2.83450
G01 X-2.56260 Y-2.83450
G01 X-2.55957 Y-2.83480
G01 X-2.55667 Y-2.83568
G01 X-2.55399 Y-2.83711
G01 X-2.55164 Y-2.83904
G01 X-2.47721 Y-2.91346
G01 X-2.47355 Y-2.91221
G01 X-2.46976 Y-2.91131
G01 X-2.46589 Y-2.91079
G01 X-2.46200 Y-2.91065
G01 X-2.45811 Y-2.91091
G01 X-2.45426 Y-2.91154
G01 X-2.45050 Y-2.91256
G01 X-2.44694 Y-2.91390
G01 X-2.44344 Y-2.91562
G01 X-2.44014 Y-2.91769
G01 X-2.43705 Y-2.92007
G01 X-2.43428 Y-2.92267
G01 X-2.43172 Y-2.92561
G01 X-2.42946 Y-2.92879
G01 X-2.42752 Y-2.93217
G01 X-2.42593 Y-2.93573
G01 X-2.42472 Y-2.93933
G01 X-2.42389 Y-2.94294
G01 X-2.42339 Y-2.94670
G01 X-2.42325 Y-2.95050
G04 P0 ( dwell for no time -- G64 should not smooth over this point )
G00 Z0.08000 ( retract )

G00 X-2.42325 Y-2.55000 ( rapid move to begin. )
G01 F180.00000
( Mill infeed pass 1/1 )
G01 Z-0.04000
G04 P0 ( dwell for no time -- G64 should not smooth over this point )
G01 F360.00000
G01 X-2.42325 Y-2.55000
G01 X-2.42343 Y-2.54621
G01 X-2.42398 Y-2.54244
G01 X-2.42486 Y-2.53885
G01 X-2.42611 Y-2.53526
G01 X-2.42766 Y-2.53190
G01 X-2.42956 Y-2.52862
G01 X-2.43178 Y-2.52553
G01 X-2.43428 Y-2.52267
G01 X-2.43705 Y-2.52007
G01 X-2.43997 Y-2.51780
G01 X-2.44318 Y-2.51577
G01 X-2.44648 Y-2.51410
G01 X-2.45002 Y-2.51271
G01 X-2.45367 Y-2.51167
G01 X-2.45731 Y-2.51101
G01 X-2.46110 Y-2.51068
G01 X-2.46410 Y-2.51068
G01 X-2.46699 Y-2.51090
G01 X-2.46986 Y-2.51132
G01 X-2.47278 Y-2.51199
G01 X-2.47555 Y-2.51284
G01 X-2.47826 Y-2.51390
G01 X-2.48087 Y-2.51515
G01 X-2.48347 Y-2.51664
G01 X-2.48595 Y-2.51833
G01 X-2.48822 Y-2.52014
G01 X-2.49035 Y-2.52210
G01 X-2.49240 Y-2.52430
G01 X-2.49427 Y-2.52664
G01 X-2.49590 Y-2.52904
G01 X-2.49735 Y-2.53155
G01 X-2.49866 Y-2.53425
G01 X-2.82654 Y-2.53425
G01 X-2.82822 Y-2.53085
G01 X-2.83023 Y-2.52762
G01 X-2.83254 Y-2.52460
G01 X-2.83513 Y-2.52182
G01 X-2.83797 Y-2.51931
G01 X-2.84105 Y-2.51707
G01 X-2.84432 Y-2.51515
G01 X-2.84768 Y-2.51359
G01 X-2.85126 Y-2.51232
G01 X-2.85495 Y-2.51140
G01 X-2.85870 Y-2.51084
G01 X-2.86240 Y-2.51065
G01 X-2.86619 Y-2.51081
G01 X-2.86996 Y-2.51134
G01 X-2.87365 Y-2.51223
G01 X-2.87721 Y-2.51346
G01 X-2.99814 Y-2.39254
G01 X-3.00049 Y-2.39061
G01 X-3.00317 Y-2.38918
G01 X-3.00607 Y-2.38830
G01 X-3.00910 Y-2.38800
G01 X-3.36610 Y-2.38800
G01 X-3.36912 Y-2.38830
G01 X-3.37203 Y-2.38918
G01 X-3.37471 Y-2.39061
G01 X-3.37706 Y-2.39254
G01 X-3.49798 Y-2.51346
G01 X-3.50155 Y-2.51223
G01 X-3.50524 Y-2.51134
G01 X-3.50900 Y-2.51081
G01 X-3.51280 Y-2.51065
G01 X-3.51649 Y-2.51084
G01 X-3.52025 Y-2.51140
G01 X-3.52394 Y-2.51232
G01 X-3.52752 Y-2.51359
G01 X-3.53087 Y-2.51515
G01 X-3.53415 Y-2.51707
G01 X-3.53722 Y-2.51931
G01 X-3.54007 Y-2.52182
G01 X-3.54266 Y-2.52460
G01 X-3.54496 Y-2.52762
G01 X-3.54697 Y-2.53085
G01 X-3.54866 Y-2.53425
G01 X-3.87654 Y-2.53425
G01 X-3.87784 Y-2.53155
G01 X-3.87929 Y-2.52904
G01 X-3.88093 Y-2.52664
G01 X-3.88280 Y-2.52430
G01 X-3.88484 Y-2.52210
G01 X-3.88697 Y-2.52014
G01 X-3.88924 Y-2.51833
G01 X-3.89172 Y-2.51664
G01 X-3.89432 Y-2.51515
G01 X-3.89694 Y-2.51390
G01 X-3.89964 Y-2.51284
G01 X-3.90241 Y-2.51199
G01 X-3.90534 Y-2.51132
G01 X-3.90821 Y-2.51090
G01 X-3.91110 Y-2.51068
G01 X-3.91410 Y-2.51068
G01 X-3.91788 Y-2.51101
G01 X-3.92152 Y-2.51167
G01 X-3.92518 Y-2.51271
G01 X-3.92871 Y-2.51410
G01 X-3.93201 Y-2.51577
G01 X-3.93522 Y-2.51780
G01 X-3.93815 Y-2.52007
G01 X-3.94091 Y-2.52267
G01 X-3.94342 Y-2.52553
G01 X-3.94563 Y-2.52862
G01 X-3.94754 Y-2.53190
G01 X-3.94909 Y-2.53526
G01 X-3.95034 Y-2.53885
G01 X-3.95122 Y-2.54244
G01 X-3.95176 Y-2.54621
G01 X-3.95195 Y-2.55000
G01 X-3.95177 Y-2.55369
G01 X-3.95125 Y-2.55736
G01 X-3.95039 Y-2.56095
G01 X-3.94920 Y-2.56446
G01 X-3.94768 Y-2.56783
G01 X-3.94585 Y-2.57104
G01 X-3.94372 Y-2.57407
G01 X-3.94133 Y-2.57689
G01 X-3.93867 Y-2.57947
G01 X-3.93579 Y-2.58179
G01 X-3.93270 Y-2.58383
G01 X-3.92944 Y-2.58556
G01 X-3.92603 Y-2.58699
G01 X-3.92249 Y-2.58808
G01 X-3.91887 Y-2.58885
G01 X-3.91520 Y-2.58926
G01 X-3.91220 Y-2.58935
G01 X-3.90910 Y-2.58919
G01 X-3.90613 Y-2.58881
G01 X-3.90319 Y-2.58821
G01 X-3.90031 Y-2.58738
G01 X-3.89749 Y-2.58634
G01 X-3.89477 Y-2.58508
G01 X-3.89215 Y-2.58362
G01 X-3.88965 Y-2.58196
G01 X-3.88728 Y-2.58012
G01 X-3.88506 Y-2.57811
G01 X-3.88300 Y-2.57593
G01 X-3.88111 Y-2.57360
G01 X-3.87940 Y-2.57113
G01 X-3.87789 Y-2.56854
G01 X-3.87654 Y-2.56575
G01 X-3.54866 Y-2.56575
G01 X-3.54658 Y-2.56985
G01 X-3.54403 Y-2.57368
G01 X-3.54105 Y-2.57718
G01 X-3.53776 Y-2.58025
G01 X-3.53415 Y-2.58292
G01 X-3.53016 Y-2.58521
G01 X-3.52593 Y-2.58702
G01 X-3.52162 Y-2.58830
G01 X-3.51709 Y-2.58909
G01 X-3.51260 Y-2.58935
G01 X-3.50811 Y-2.58909
G01 X-3.50358 Y-2.58830
G01 X-3.49926 Y-2.58702
G01 X-3.49504 Y-2.58521
G01 X-3.49105 Y-2.58292
G01 X-3.48739 Y-2.58021
G01 X-3.28150 Y-2.68316
G01 X-3.28150 Y-2.81300
G01 X-3.14370 Y-2.81300
G01 X-3.14370 Y-2.67520
G01 X-3.22698 Y-2.67520
G01 X-3.47330 Y-2.55204
G01 X-3.47331 Y-2.54780
G01 X-3.47378 Y-2.54353
G01 X-3.47469 Y-2.53943
G01 X-3.47606 Y-2.53539
G01 X-3.35968 Y-2.41900
G01 X-3.01552 Y-2.41900
G01 X-2.89913 Y-2.53538
G01 X-2.90039 Y-2.53904
G01 X-2.90129 Y-2.54284
G01 X-2.90180 Y-2.54660
G01 X-2.90194 Y-2.55050
G01 X-2.90173 Y-2.55409
G01 X-2.90120 Y-2.55765
G01 X-2.90034 Y-2.56115
G01 X-2.89912 Y-2.56464
G01 X-2.89763 Y-2.56792
G01 X-2.89585 Y-2.57104
G01 X-2.89379 Y-2.57399
G01 X-2.89146 Y-2.57674
G01 X-2.88890 Y-2.57927
G01 X-2.88611 Y-2.58155
G01 X-2.88313 Y-2.58357
G01 X-2.87998 Y-2.58530
G01 X-2.87668 Y-2.58674
G01 X-2.87326 Y-2.58788
G01 X-2.86966 Y-2.58871
G01 X-2.86609 Y-2.58919
G01 X-2.86300 Y-2.58935
G01 X-2.85990 Y-2.58926
G01 X-2.85692 Y-2.58894
G01 X-2.85387 Y-2.58837
G01 X-2.85088 Y-2.58756
G01 X-2.84805 Y-2.58656
G01 X-2.84522 Y-2.58530
G01 X-2.84258 Y-2.58388
G01 X-2.83997 Y-2.58220
G01 X-2.83751 Y-2.58031
G01 X-2.83527 Y-2.57831
G01 X-2.83313 Y-2.57608
G01 X-2.83117 Y-2.57368
G01 X-2.82946 Y-2.57121
G01 X-2.82789 Y-2.56854
G01 X-2.82654 Y-2.56575
G01 X-2.49866 Y-2.56575
G01 X-2.49740 Y-2.56836
G01 X-2.49601 Y-2.57079
G01 X-2.49444 Y-2.57311
G01 X-2.49266 Y-2.57539
G01 X-2.49077 Y-2.57747
G01 X-2.48867 Y-2.57947
G01 X-2.48643 Y-2.58131
G01 X-2.48415 Y-2.58292
G01 X-2.48166 Y-2.58442
G01 X-2.47917 Y-2.58569
G01 X-2.47649 Y-2.58681
G01 X-2.47113 Y-2.58841
G01 X-2.46828 Y-2.58894
G01 X-2.46540 Y-2.58925
G01 X-2.46260 Y-2.58935
G01 X-2.45870 Y-2.58916
G01 X-2.45495 Y-2.58860
G01 X-2.45116 Y-2.58765
G01 X-2.44759 Y-2.58637
G01 X-2.44406 Y-2.58471
G01 X-2.44080 Y-2.58276
G01 X-2.43766 Y-2.58044
G01 X-2.43477 Y-2.57782
G01 X-2.43216 Y-2.57493
G01 X-2.42984 Y-2.57180
G01 X-2.42789 Y-2.56854
G01 X-2.42622 Y-2.56501
G01 X-2.42495 Y-2.56143
G01 X-2.42400 Y-2.55765
G01 X-2.42344 Y-2.55389
G01 X-2.42325 Y-2.55000
G04 P0 ( dwell for no time -- G64 should not smooth over this point )
G00 Z0.08000 ( retract )

G00 X-2.68550 Y-2.84815 ( rapid move to begin. )
G01 F180.00000
( Mill infeed pass 1/1 )
G01 Z-0.04000
G04 P0 ( dwell for no time -- G64 should not smooth over this point )
G01 F360.00000
G01 X-2.68550 Y-2.84815
G01 X-2.68553 Y-2.85225
G01 X-2.68622 Y-2.85629
G01 X-2.68754 Y-2.86017
G01 X-2.68946 Y-2.86379
G01 X-2.69194 Y-2.86705
G01 X-2.69414 Y-2.86923
G01 X-2.69659 Y-2.87113
G01 X-2.69934 Y-2.87277
G01 X-2.70218 Y-2.87401
G01 X-2.70515 Y-2.87491
G01 X-2.70820 Y-2.87543
G01 X-2.71130 Y-2.87559
G01 X-2.71446 Y-2.87536
G01 X-2.80006 Y-2.96096
G01 X-2.80241 Y-2.96289
G01 X-2.80509 Y-2.96432
G01 X-2.80800 Y-2.96520
G01 X-2.81102 Y-2.96550
G01 X-2.82643 Y-2.96550
G01 X-2.82898 Y-2.97045
G01 X-2.83222 Y-2.97501
G01 X-2.83608 Y-2.97907
G01 X-2.84047 Y-2.98254
G01 X-2.84531 Y-2.98535
G01 X-2.85050 Y-2.98744
G01 X-2.85593 Y-2.98878
G01 X-2.86150 Y-2.98933
G01 X-2.86440 Y-2.98931
G01 X-2.86729 Y-2.98907
G01 X-2.87025 Y-2.98860
G01 X-2.87307 Y-2.98793
G01 X-2.87593 Y-2.98702
G01 X-2.87862 Y-2.98594
G01 X-2.88122 Y-2.98466
G01 X-2.88381 Y-2.98314
G01 X-2.88627 Y-2.98143
G01 X-2.88852 Y-2.97960
G01 X-2.89063 Y-2.97761
G01 X-2.89259 Y-2.97547
G01 X-2.89439 Y-2.97319
G01 X-2.89601 Y-2.97079
G01 X-2.89749 Y-2.96818
G01 X-2.89874 Y-2.96556
G01 X-3.20840 Y-2.96550
G01 X-3.21142 Y-2.96520
G01 X-3.21433 Y-2.96432
G01 X-3.21701 Y-2.96289
G01 X-3.21936 Y-2.96096
G01 X-3.37591 Y-2.80441
G01 X-3.85586 Y-2.80441
G01 X-3.97195 Y-2.92049
G01 X-3.97195 Y-2.97951
G01 X-3.79570 Y-3.15576
G01 X-3.75701 Y-3.15576
G01 X-3.75374 Y-3.15177
G01 X-3.74956 Y-3.14834
G01 X-3.74480 Y-3.14580
G01 X-3.73963 Y-3.14423
G01 X-3.73425 Y-3.14370
G01 X-3.69094 Y-3.14370
G01 X-3.68557 Y-3.14423
G01 X-3.68040 Y-3.14580
G01 X-3.67563 Y-3.14834
G01 X-3.67146 Y-3.15177
G01 X-3.66803 Y-3.15595
G01 X-3.66548 Y-3.16071
G01 X-3.66391 Y-3.16588
G01 X-3.66339 Y-3.17126
G01 X-3.66391 Y-3.17664
G01 X-3.66548 Y-3.18181
G01 X-3.66803 Y-3.18657
G01 X-3.67146 Y-3.19075
G01 X-3.67563 Y-3.19417
G01 X-3.68040 Y-3.19672
G01 X-3.68557 Y-3.19829
G01 X-3.69094 Y-3.19882
G01 X-3.73425 Y-3.19882
G01 X-3.73963 Y-3.19829
G01 X-3.74480 Y-3.19672
G01 X-3.74956 Y-3.19417
G01 X-3.75374 Y-3.19075
G01 X-3.75701 Y-3.18676
G01 X-3.80212 Y-3.18676
G01 X-3.80514 Y-3.18646
G01 X-3.80805 Y-3.18558
G01 X-3.81073 Y-3.18415
G01 X-3.81308 Y-3.18222
G01 X-3.99841 Y-2.99689
G01 X-4.00034 Y-2.99454
G01 X-4.00177 Y-2.99186
G01 X-4.00265 Y-2.98895
G01 X-4.00295 Y-2.98593
G01 X-4.00295 Y-2.91407
G01 X-4.00265 Y-2.91105
G01 X-4.00177 Y-2.90814
G01 X-4.00034 Y-2.90546
G01 X-3.99841 Y-2.90311
G01 X-3.87325 Y-2.77795
G01 X-3.87090 Y-2.77602
G01 X-3.86822 Y-2.77459
G01 X-3.86531 Y-2.77371
G01 X-3.86229 Y-2.77341
G01 X-3.36949 Y-2.77341
G01 X-3.36646 Y-2.77371
G01 X-3.36356 Y-2.77459
G01 X-3.36088 Y-2.77602
G01 X-3.35853 Y-2.77795
G01 X-3.20198 Y-2.93450
G01 X-2.89877 Y-2.93450
G01 X-2.89754 Y-2.93190
G01 X-2.89611 Y-2.92938
G01 X-2.89456 Y-2.92705
G01 X-2.89278 Y-2.92476
G01 X-2.89091 Y-2.92267
G01 X-2.88882 Y-2.92066
G01 X-2.88659 Y-2.91881
G01 X-2.88423 Y-2.91713
G01 X-2.88184 Y-2.91567
G01 X-2.87926 Y-2.91435
G01 X-2.87659 Y-2.91322
G01 X-2.87384 Y-2.91229
G01 X-2.87113 Y-2.91159
G01 X-2.86828 Y-2.91106
G01 X-2.86540 Y-2.91075
G01 X-2.86260 Y-2.91065
G01 X-2.85791 Y-2.91093
G01 X-2.85319 Y-2.91179
G01 X-2.84861 Y-2.91322
G01 X-2.84424 Y-2.91520
G01 X-2.84139 Y-2.91686
G01 X-2.83860 Y-2.91881
G01 X-2.83600 Y-2.92100
G01 X-2.83367 Y-2.92333
G01 X-2.83153 Y-2.92585
G01 X-2.82956 Y-2.92862
G01 X-2.82789 Y-2.93146
G01 X-2.82643 Y-2.93450
G01 X-2.81744 Y-2.93450
G01 X-2.73638 Y-2.85344
G01 X-2.73661 Y-2.85010
G01 X-2.73640 Y-2.84671
G01 X-2.73577 Y-2.84347
G01 X-2.73468 Y-2.84025
G01 X-2.73323 Y-2.83728
G01 X-2.73135 Y-2.83445
G01 X-2.72911 Y-2.83189
G01 X-2.72655 Y-2.82966
G01 X-2.72441 Y-2.82819
G01 X-2.72203 Y-2.82690
G01 X-2.71963 Y-2.82590
G01 X-2.71704 Y-2.82513
G01 X-2.71439 Y-2.82463
G01 X-2.71170 Y-2.82442
G01 X-2.70910 Y-2.82448
G01 X-2.70642 Y-2.82483
G01 X-2.70379 Y-2.82545
G01 X-2.70134 Y-2.82631
G01 X-2.69890 Y-2.82746
G01 X-2.69659 Y-2.82887
G01 X-2.69452 Y-2.83044
G01 X-2.69255 Y-2.83229
G01 X-2.69079 Y-2.83433
G01 X-2.68925 Y-2.83655
G01 X-2.68738 Y-2.84020
G01 X-2.68612 Y-2.84410
G01 X-2.68550 Y-2.84815
G04 P0 ( dwell for no time -- G64 should not smooth over this point )
G00 Z0.08000 ( retract )

G00 X-3.32521 Y-3.29910 ( rapid move to begin. )
G01 F180.00000
( Mill infeed pass 1/1 )
G01 Z-0.04000
G04 P0 ( dwell for no time -- G64 should not smooth over this point )
G01 F360.00000
G01 X-3.32521 Y-3.29910
G01 X-3.32537 Y-3.30359
G01 X-3.32609 Y-3.30813
G01 X-3.32736 Y-3.31255
G01 X-3.32913 Y-3.31669
G01 X-3.33143 Y-3.32067
G01 X-3.33413 Y-3.32426
G01 X-3.33732 Y-3.32757
G01 X-3.34082 Y-3.33040
G01 X-3.34462 Y-3.33280
G01 X-3.34878 Y-3.33476
G01 X-3.35315 Y-3.33619
G01 X-3.35756 Y-3.33706
G01 X-3.36205 Y-3.33740
G01 X-3.36664 Y-3.33718
G01 X-3.37107 Y-3.33643
G01 X-3.37545 Y-3.33512
G01 X-3.38020 Y-3.33988
G01 X-3.38259 Y-3.34184
G01 X-3.38531 Y-3.34329
G01 X-3.38827 Y-3.34419
G01 X-3.39134 Y-3.34449
G01 X-3.66839 Y-3.34449
G01 X-3.67146 Y-3.34823
G01 X-3.67563 Y-3.35165
G01 X-3.68040 Y-3.35420
G01 X-3.68557 Y-3.35577
G01 X-3.69094 Y-3.35630
G01 X-3.73425 Y-3.35630
G01 X-3.73963 Y-3.35577
G01 X-3.74480 Y-3.35420
G01 X-3.74956 Y-3.35165
G01 X-3.75374 Y-3.34823
G01 X-3.75717 Y-3.34405
G01 X-3.75971 Y-3.33929
G01 X-3.76128 Y-3.33412
G01 X-3.76181 Y-3.32874
G01 X-3.76128 Y-3.32336
G01 X-3.75971 Y-3.31819
G01 X-3.75717 Y-3.31343
G01 X-3.75374 Y-3.30925
G01 X-3.74956 Y-3.30583
G01 X-3.74480 Y-3.30328
G01 X-3.73963 Y-3.30171
G01 X-3.73425 Y-3.30118
G01 X-3.69094 Y-3.30118
G01 X-3.68557 Y-3.30171
G01 X-3.68040 Y-3.30328
G01 X-3.67563 Y-3.30583
G01 X-3.67146 Y-3.30925
G01 X-3.66839 Y-3.31299
G01 X-3.39786 Y-3.31299
G01 X-3.39772 Y-3.31285
G01 X-3.39919 Y-3.30774
G01 X-3.39981 Y-3.30379
G01 X-3.40000 Y-3.29950
G01 X-3.39969 Y-3.29521
G01 X-3.39887 Y-3.29089
G01 X-3.39755 Y-3.28670
G01 X-3.39575 Y-3.28269
G01 X-3.39349 Y-3.27892
G01 X-3.39074 Y-3.27536
G01 X-3.38765 Y-3.27223
G01 X-3.38413 Y-3.26942
G01 X-3.38040 Y-3.26710
G01 X-3.37632 Y-3.26521
G01 X-3.37214 Y-3.26384
G01 X-3.36783 Y-3.26297
G01 X-3.36345 Y-3.26261
G01 X-3.35975 Y-3.26271
G01 X-3.35608 Y-3.26317
G01 X-3.35248 Y-3.26399
G01 X-3.34906 Y-3.26513
G01 X-3.34568 Y-3.26664
G01 X-3.34256 Y-3.26842
G01 X-3.33954 Y-3.27055
G01 X-3.33674 Y-3.27298
G01 X-3.33420 Y-3.27566
G01 X-3.33199 Y-3.27850
G01 X-3.33002 Y-3.28163
G01 X-3.32840 Y-3.28485
G01 X-3.32710 Y-3.28820
G01 X-3.32611 Y-3.29177
G01 X-3.32548 Y-3.29541
G01 X-3.32521 Y-3.29910
G04 P0 ( dwell for no time -- G64 should not smooth over this point )
G00 Z0.08000 ( retract )

G00 X-3.61239 Y-3.24550 ( rapid move to begin. )
G01 F180.00000
( Mill infeed pass 1/1 )
G01 Z-0.04000
G04 P0 ( dwell for no time -- G64 should not smooth over this point )
G01 F360.00000
G01 X-3.61239 Y-3.24550
G01 X-3.61239 Y-3.04130
G01 X-3.61268 Y-3.03828
G01 X-3.61356 Y-3.03537
G01 X-3.61500 Y-3.03269
G01 X-3.61692 Y-3.03034
G01 X-3.74710 Y-2.90017
G01 X-3.74710 Y-2.87559
G01 X-3.73701 Y-2.87559
G01 X-3.73701 Y-2.82441
G01 X-3.78819 Y-2.82441
G01 X-3.78819 Y-2.83450
G01 X-3.81260 Y-2.83450
G01 X-3.81562 Y-2.83480
G01 X-3.81853 Y-2.83568
G01 X-3.82121 Y-2.83711
G01 X-3.82356 Y-2.83904
G01 X-3.89798 Y-2.91346
G01 X-3.90290 Y-2.91186
G01 X-3.90791 Y-2.91093
G01 X-3.91300 Y-2.91065
G01 X-3.91818 Y-2.91105
G01 X-3.92326 Y-2.91212
G01 X-3.92807 Y-2.91382
G01 X-3.93262 Y-2.91612
G01 X-3.93691 Y-2.91906
G01 X-3.94056 Y-2.92232
G01 X-3.94379 Y-2.92600
G01 X-3.94647 Y-2.92998
G01 X-3.94870 Y-2.93434
G01 X-3.95034 Y-2.93885
G01 X-3.95143 Y-2.94363
G01 X-3.95192 Y-2.94850
G01 X-3.95181 Y-2.95330
G01 X-3.95110 Y-2.95814
G01 X-3.94979 Y-2.96286
G01 X-3.94790 Y-2.96738
G01 X-3.94552 Y-2.97155
G01 X-3.94266 Y-2.97539
G01 X-3.93927 Y-2.97893
G01 X-3.93555 Y-2.98196
G01 X-3.93140 Y-2.98457
G01 X-3.92696 Y-2.98664
G01 X-3.92230 Y-2.98814
G01 X-3.91759 Y-2.98903
G01 X-3.91270 Y-2.98935
G01 X-3.90781 Y-2.98906
G01 X-3.90299 Y-2.98816
G01 X-3.89833 Y-2.98667
G01 X-3.89397 Y-2.98466
G01 X-3.89088 Y-2.98281
G01 X-3.88797 Y-2.98069
G01 X-3.88527 Y-2.97831
G01 X-3.88280 Y-2.97570
G01 X-3.88063 Y-2.97295
G01 X-3.87867 Y-2.96993
G01 X-3.87699 Y-2.96675
G01 X-3.87561 Y-2.96343
G01 X-3.87456 Y-2.96009
G01 X-3.87380 Y-2.95657
G01 X-3.87336 Y-2.95300
G01 X-3.87325 Y-2.94940
G01 X-3.87347 Y-2.94581
G01 X-3.87402 Y-2.94225
G01 X-3.87489 Y-2.93876
G01 X-3.87606 Y-2.93539
G01 X-3.80618 Y-2.86550
G01 X-3.78819 Y-2.86550
G01 X-3.78819 Y-2.87559
G01 X-3.77810 Y-2.87559
G01 X-3.77810 Y-2.90659
G01 X-3.77780 Y-2.90961
G01 X-3.77692 Y-2.91252
G01 X-3.77549 Y-2.91520
G01 X-3.77356 Y-2.91755
G01 X-3.64339 Y-3.04772
G01 X-3.64339 Y-3.23450
G01 X-3.66819 Y-3.23450
G01 X-3.67146 Y-3.23051
G01 X-3.67563 Y-3.22709
G01 X-3.68040 Y-3.22454
G01 X-3.68557 Y-3.22297
G01 X-3.69094 Y-3.22244
G01 X-3.73425 Y-3.22244
G01 X-3.73963 Y-3.22297
G01 X-3.74480 Y-3.22454
G01 X-3.74956 Y-3.22709
G01 X-3.75374 Y-3.23051
G01 X-3.75717 Y-3.23469
G01 X-3.75971 Y-3.23945
G01 X-3.76128 Y-3.24462
G01 X-3.76181 Y-3.25000
G01 X-3.76128 Y-3.25538
G01 X-3.75971 Y-3.26055
G01 X-3.75717 Y-3.26531
G01 X-3.75374 Y-3.26949
G01 X-3.74956 Y-3.27291
G01 X-3.74480 Y-3.27546
G01 X-3.73963 Y-3.27703
G01 X-3.73425 Y-3.27756
G01 X-3.69094 Y-3.27756
G01 X-3.68557 Y-3.27703
G01 X-3.68040 Y-3.27546
G01 X-3.67563 Y-3.27291
G01 X-3.67146 Y-3.26949
G01 X-3.66819 Y-3.26550
G01 X-3.63239 Y-3.26550
G01 X-3.62936 Y-3.26520
G01 X-3.62645 Y-3.26432
G01 X-3.62377 Y-3.26289
G01 X-3.62142 Y-3.26096
G01 X-3.61692 Y-3.25646
G01 X-3.61500 Y-3.25411
G01 X-3.61356 Y-3.25143
G01 X-3.61268 Y-3.24852
G01 X-3.61239 Y-3.24550

G04 P0 ( dwell for no time -- G64 should not smooth over this point )
G00 Z1.000000 ( retract )

M5 ( Spindle off. )
G04 P1.000000
M9 ( Coolant off. )
M2 ( Program end. )

