( pcb2gcode 1.3.2 )
( Software-independent Gcode )
( This file uses a mill head of 0.00315inch to drill the 2 bit sizes. )
( Bit sizes: [0.0314961 inch] [0.0394094 inch] )

G94       (Inches per minute feed rate.)
G20       (Units == INCHES.)
G91.1     (Incremental arc distance mode.)
G90       (Absolute coordinates.)
S10000    (RPM spindle speed.)
G01 F100.00000 (Feedrate)
M3        (Spindle on clockwise.)
G04 P1.00000
G00 Z0.08000

G0 X-3.38583 Y-2.85000
G1 Z-0.00700
G2  X-3.38583 Y-2.85000 I-0.01417 J0.00000
G1 Z-0.01400
G2  X-3.38583 Y-2.85000 I-0.01417 J0.00000
G1 Z-0.02100
G2  X-3.38583 Y-2.85000 I-0.01417 J0.00000
G1 Z-0.02800
G2  X-3.38583 Y-2.85000 I-0.01417 J0.00000
G1 Z-0.03500
G2  X-3.38583 Y-2.85000 I-0.01417 J0.00000
G1 Z-0.04199
G2  X-3.38583 Y-2.85000 I-0.01417 J0.00000
G1 Z-0.04899
G2  X-3.38583 Y-2.85000 I-0.01417 J0.00000
G1 Z-0.05599
G2  X-3.38583 Y-2.85000 I-0.01417 J0.00000
G1 Z-0.06299
G2  X-3.38583 Y-2.85000 I-0.01417 J0.00000
G0 Z0.08000

G0 X-3.48425 Y-2.85000
G1 Z-0.00700
G2  X-3.48425 Y-2.85000 I-0.01417 J0.00000
G1 Z-0.01400
G2  X-3.48425 Y-2.85000 I-0.01417 J0.00000
G1 Z-0.02100
G2  X-3.48425 Y-2.85000 I-0.01417 J0.00000
G1 Z-0.02800
G2  X-3.48425 Y-2.85000 I-0.01417 J0.00000
G1 Z-0.03500
G2  X-3.48425 Y-2.85000 I-0.01417 J0.00000
G1 Z-0.04199
G2  X-3.48425 Y-2.85000 I-0.01417 J0.00000
G1 Z-0.04899
G2  X-3.48425 Y-2.85000 I-0.01417 J0.00000
G1 Z-0.05599
G2  X-3.48425 Y-2.85000 I-0.01417 J0.00000
G1 Z-0.06299
G2  X-3.48425 Y-2.85000 I-0.01417 J0.00000
G0 Z0.08000

G0 X-3.38583 Y-3.17126
G1 Z-0.00700
G2  X-3.38583 Y-3.17126 I-0.01417 J0.00000
G1 Z-0.01400
G2  X-3.38583 Y-3.17126 I-0.01417 J0.00000
G1 Z-0.02100
G2  X-3.38583 Y-3.17126 I-0.01417 J0.00000
G1 Z-0.02800
G2  X-3.38583 Y-3.17126 I-0.01417 J0.00000
G1 Z-0.03500
G2  X-3.38583 Y-3.17126 I-0.01417 J0.00000
G1 Z-0.04199
G2  X-3.38583 Y-3.17126 I-0.01417 J0.00000
G1 Z-0.04899
G2  X-3.38583 Y-3.17126 I-0.01417 J0.00000
G1 Z-0.05599
G2  X-3.38583 Y-3.17126 I-0.01417 J0.00000
G1 Z-0.06299
G2  X-3.38583 Y-3.17126 I-0.01417 J0.00000
G0 Z0.08000

G0 X-3.38583 Y-3.25000
G1 Z-0.00700
G2  X-3.38583 Y-3.25000 I-0.01417 J0.00000
G1 Z-0.01400
G2  X-3.38583 Y-3.25000 I-0.01417 J0.00000
G1 Z-0.02100
G2  X-3.38583 Y-3.25000 I-0.01417 J0.00000
G1 Z-0.02800
G2  X-3.38583 Y-3.25000 I-0.01417 J0.00000
G1 Z-0.03500
G2  X-3.38583 Y-3.25000 I-0.01417 J0.00000
G1 Z-0.04199
G2  X-3.38583 Y-3.25000 I-0.01417 J0.00000
G1 Z-0.04899
G2  X-3.38583 Y-3.25000 I-0.01417 J0.00000
G1 Z-0.05599
G2  X-3.38583 Y-3.25000 I-0.01417 J0.00000
G1 Z-0.06299
G2  X-3.38583 Y-3.25000 I-0.01417 J0.00000
G0 Z0.08000

G0 X-3.38583 Y-3.32874
G1 Z-0.00700
G2  X-3.38583 Y-3.32874 I-0.01417 J0.00000
G1 Z-0.01400
G2  X-3.38583 Y-3.32874 I-0.01417 J0.00000
G1 Z-0.02100
G2  X-3.38583 Y-3.32874 I-0.01417 J0.00000
G1 Z-0.02800
G2  X-3.38583 Y-3.32874 I-0.01417 J0.00000
G1 Z-0.03500
G2  X-3.38583 Y-3.32874 I-0.01417 J0.00000
G1 Z-0.04199
G2  X-3.38583 Y-3.32874 I-0.01417 J0.00000
G1 Z-0.04899
G2  X-3.38583 Y-3.32874 I-0.01417 J0.00000
G1 Z-0.05599
G2  X-3.38583 Y-3.32874 I-0.01417 J0.00000
G1 Z-0.06299
G2  X-3.38583 Y-3.32874 I-0.01417 J0.00000
G0 Z0.08000

G0 X-4.43740 Y-2.85000
G1 Z-0.00700
G2  X-4.43740 Y-2.85000 I-0.01417 J0.00000
G1 Z-0.01400
G2  X-4.43740 Y-2.85000 I-0.01417 J0.00000
G1 Z-0.02100
G2  X-4.43740 Y-2.85000 I-0.01417 J0.00000
G1 Z-0.02800
G2  X-4.43740 Y-2.85000 I-0.01417 J0.00000
G1 Z-0.03500
G2  X-4.43740 Y-2.85000 I-0.01417 J0.00000
G1 Z-0.04199
G2  X-4.43740 Y-2.85000 I-0.01417 J0.00000
G1 Z-0.04899
G2  X-4.43740 Y-2.85000 I-0.01417 J0.00000
G1 Z-0.05599
G2  X-4.43740 Y-2.85000 I-0.01417 J0.00000
G1 Z-0.06299
G2  X-4.43740 Y-2.85000 I-0.01417 J0.00000
G0 Z0.08000

G0 X-4.53583 Y-2.85000
G1 Z-0.00700
G2  X-4.53583 Y-2.85000 I-0.01417 J0.00000
G1 Z-0.01400
G2  X-4.53583 Y-2.85000 I-0.01417 J0.00000
G1 Z-0.02100
G2  X-4.53583 Y-2.85000 I-0.01417 J0.00000
G1 Z-0.02800
G2  X-4.53583 Y-2.85000 I-0.01417 J0.00000
G1 Z-0.03500
G2  X-4.53583 Y-2.85000 I-0.01417 J0.00000
G1 Z-0.04199
G2  X-4.53583 Y-2.85000 I-0.01417 J0.00000
G1 Z-0.04899
G2  X-4.53583 Y-2.85000 I-0.01417 J0.00000
G1 Z-0.05599
G2  X-4.53583 Y-2.85000 I-0.01417 J0.00000
G1 Z-0.06299
G2  X-4.53583 Y-2.85000 I-0.01417 J0.00000
G0 Z0.08000

G0 X-4.48583 Y-3.17126
G1 Z-0.00700
G2  X-4.48583 Y-3.17126 I-0.01417 J0.00000
G1 Z-0.01400
G2  X-4.48583 Y-3.17126 I-0.01417 J0.00000
G1 Z-0.02100
G2  X-4.48583 Y-3.17126 I-0.01417 J0.00000
G1 Z-0.02800
G2  X-4.48583 Y-3.17126 I-0.01417 J0.00000
G1 Z-0.03500
G2  X-4.48583 Y-3.17126 I-0.01417 J0.00000
G1 Z-0.04199
G2  X-4.48583 Y-3.17126 I-0.01417 J0.00000
G1 Z-0.04899
G2  X-4.48583 Y-3.17126 I-0.01417 J0.00000
G1 Z-0.05599
G2  X-4.48583 Y-3.17126 I-0.01417 J0.00000
G1 Z-0.06299
G2  X-4.48583 Y-3.17126 I-0.01417 J0.00000
G0 Z0.08000

G0 X-4.48583 Y-3.25000
G1 Z-0.00700
G2  X-4.48583 Y-3.25000 I-0.01417 J0.00000
G1 Z-0.01400
G2  X-4.48583 Y-3.25000 I-0.01417 J0.00000
G1 Z-0.02100
G2  X-4.48583 Y-3.25000 I-0.01417 J0.00000
G1 Z-0.02800
G2  X-4.48583 Y-3.25000 I-0.01417 J0.00000
G1 Z-0.03500
G2  X-4.48583 Y-3.25000 I-0.01417 J0.00000
G1 Z-0.04199
G2  X-4.48583 Y-3.25000 I-0.01417 J0.00000
G1 Z-0.04899
G2  X-4.48583 Y-3.25000 I-0.01417 J0.00000
G1 Z-0.05599
G2  X-4.48583 Y-3.25000 I-0.01417 J0.00000
G1 Z-0.06299
G2  X-4.48583 Y-3.25000 I-0.01417 J0.00000
G0 Z0.08000

G0 X-4.48583 Y-3.32874
G1 Z-0.00700
G2  X-4.48583 Y-3.32874 I-0.01417 J0.00000
G1 Z-0.01400
G2  X-4.48583 Y-3.32874 I-0.01417 J0.00000
G1 Z-0.02100
G2  X-4.48583 Y-3.32874 I-0.01417 J0.00000
G1 Z-0.02800
G2  X-4.48583 Y-3.32874 I-0.01417 J0.00000
G1 Z-0.03500
G2  X-4.48583 Y-3.32874 I-0.01417 J0.00000
G1 Z-0.04199
G2  X-4.48583 Y-3.32874 I-0.01417 J0.00000
G1 Z-0.04899
G2  X-4.48583 Y-3.32874 I-0.01417 J0.00000
G1 Z-0.05599
G2  X-4.48583 Y-3.32874 I-0.01417 J0.00000
G1 Z-0.06299
G2  X-4.48583 Y-3.32874 I-0.01417 J0.00000
G0 Z0.08000

G0 X-3.23187 Y-2.95000
G1 Z-0.00700
G2  X-3.23187 Y-2.95000 I-0.01813 J0.00000
G1 Z-0.01400
G2  X-3.23187 Y-2.95000 I-0.01813 J0.00000
G1 Z-0.02100
G2  X-3.23187 Y-2.95000 I-0.01813 J0.00000
G1 Z-0.02800
G2  X-3.23187 Y-2.95000 I-0.01813 J0.00000
G1 Z-0.03500
G2  X-3.23187 Y-2.95000 I-0.01813 J0.00000
G1 Z-0.04199
G2  X-3.23187 Y-2.95000 I-0.01813 J0.00000
G1 Z-0.04899
G2  X-3.23187 Y-2.95000 I-0.01813 J0.00000
G1 Z-0.05599
G2  X-3.23187 Y-2.95000 I-0.01813 J0.00000
G1 Z-0.06299
G2  X-3.23187 Y-2.95000 I-0.01813 J0.00000
G0 Z0.08000

G0 X-3.23187 Y-2.55000
G1 Z-0.00700
G2  X-3.23187 Y-2.55000 I-0.01813 J0.00000
G1 Z-0.01400
G2  X-3.23187 Y-2.55000 I-0.01813 J0.00000
G1 Z-0.02100
G2  X-3.23187 Y-2.55000 I-0.01813 J0.00000
G1 Z-0.02800
G2  X-3.23187 Y-2.55000 I-0.01813 J0.00000
G1 Z-0.03500
G2  X-3.23187 Y-2.55000 I-0.01813 J0.00000
G1 Z-0.04199
G2  X-3.23187 Y-2.55000 I-0.01813 J0.00000
G1 Z-0.04899
G2  X-3.23187 Y-2.55000 I-0.01813 J0.00000
G1 Z-0.05599
G2  X-3.23187 Y-2.55000 I-0.01813 J0.00000
G1 Z-0.06299
G2  X-3.23187 Y-2.55000 I-0.01813 J0.00000
G0 Z0.08000

G0 X-3.63187 Y-2.55000
G1 Z-0.00700
G2  X-3.63187 Y-2.55000 I-0.01813 J0.00000
G1 Z-0.01400
G2  X-3.63187 Y-2.55000 I-0.01813 J0.00000
G1 Z-0.02100
G2  X-3.63187 Y-2.55000 I-0.01813 J0.00000
G1 Z-0.02800
G2  X-3.63187 Y-2.55000 I-0.01813 J0.00000
G1 Z-0.03500
G2  X-3.63187 Y-2.55000 I-0.01813 J0.00000
G1 Z-0.04199
G2  X-3.63187 Y-2.55000 I-0.01813 J0.00000
G1 Z-0.04899
G2  X-3.63187 Y-2.55000 I-0.01813 J0.00000
G1 Z-0.05599
G2  X-3.63187 Y-2.55000 I-0.01813 J0.00000
G1 Z-0.06299
G2  X-3.63187 Y-2.55000 I-0.01813 J0.00000
G0 Z0.08000

G0 X-3.79687 Y-2.66535
G1 Z-0.00700
G2 X-3.83313 Y-2.66535 I-0.01813 J0.00000
G1 X-3.83313 Y-2.58665
G2 X-3.79687 Y-2.58665 I0.01813 J0.00000
G1 X-3.79687 Y-2.66535
G1 Z-0.01400
G2 X-3.83313 Y-2.66535 I-0.01813 J0.00000
G1 X-3.83313 Y-2.58665
G2 X-3.79687 Y-2.58665 I0.01813 J0.00000
G1 X-3.79687 Y-2.66535
G1 Z-0.02100
G2 X-3.83313 Y-2.66535 I-0.01813 J0.00000
G1 X-3.83313 Y-2.58665
G2 X-3.79687 Y-2.58665 I0.01813 J0.00000
G1 X-3.79687 Y-2.66535
G1 Z-0.02800
G2 X-3.83313 Y-2.66535 I-0.01813 J0.00000
G1 X-3.83313 Y-2.58665
G2 X-3.79687 Y-2.58665 I0.01813 J0.00000
G1 X-3.79687 Y-2.66535
G1 Z-0.03500
G2 X-3.83313 Y-2.66535 I-0.01813 J0.00000
G1 X-3.83313 Y-2.58665
G2 X-3.79687 Y-2.58665 I0.01813 J0.00000
G1 X-3.79687 Y-2.66535
G1 Z-0.04199
G2 X-3.83313 Y-2.66535 I-0.01813 J0.00000
G1 X-3.83313 Y-2.58665
G2 X-3.79687 Y-2.58665 I0.01813 J0.00000
G1 X-3.79687 Y-2.66535
G1 Z-0.04899
G2 X-3.83313 Y-2.66535 I-0.01813 J0.00000
G1 X-3.83313 Y-2.58665
G2 X-3.79687 Y-2.58665 I0.01813 J0.00000
G1 X-3.79687 Y-2.66535
G1 Z-0.05599
G2 X-3.83313 Y-2.66535 I-0.01813 J0.00000
G1 X-3.83313 Y-2.58665
G2 X-3.79687 Y-2.58665 I0.01813 J0.00000
G1 X-3.79687 Y-2.66535
G1 Z-0.06299
G2 X-3.83313 Y-2.66535 I-0.01813 J0.00000
G1 X-3.83313 Y-2.58665
G2 X-3.79687 Y-2.58665 I0.01813 J0.00000
G1 X-3.79687 Y-2.66535
G0 Z0.08000

G0 X-3.96067 Y-2.48978
G1 Z-0.00700
G2 X-3.96067 Y-2.52604 I0.00000 J-0.01813
G1 X-4.03933 Y-2.52604
G2 X-4.03933 Y-2.48978 I0.00000 J0.01813
G1 X-3.96067 Y-2.48978
G1 Z-0.01400
G2 X-3.96067 Y-2.52604 I0.00000 J-0.01813
G1 X-4.03933 Y-2.52604
G2 X-4.03933 Y-2.48978 I0.00000 J0.01813
G1 X-3.96067 Y-2.48978
G1 Z-0.02100
G2 X-3.96067 Y-2.52604 I0.00000 J-0.01813
G1 X-4.03933 Y-2.52604
G2 X-4.03933 Y-2.48978 I0.00000 J0.01813
G1 X-3.96067 Y-2.48978
G1 Z-0.02800
G2 X-3.96067 Y-2.52604 I0.00000 J-0.01813
G1 X-4.03933 Y-2.52604
G2 X-4.03933 Y-2.48978 I0.00000 J0.01813
G1 X-3.96067 Y-2.48978
G1 Z-0.03500
G2 X-3.96067 Y-2.52604 I0.00000 J-0.01813
G1 X-4.03933 Y-2.52604
G2 X-4.03933 Y-2.48978 I0.00000 J0.01813
G1 X-3.96067 Y-2.48978
G1 Z-0.04199
G2 X-3.96067 Y-2.52604 I0.00000 J-0.01813
G1 X-4.03933 Y-2.52604
G2 X-4.03933 Y-2.48978 I0.00000 J0.01813
G1 X-3.96067 Y-2.48978
G1 Z-0.04899
G2 X-3.96067 Y-2.52604 I0.00000 J-0.01813
G1 X-4.03933 Y-2.52604
G2 X-4.03933 Y-2.48978 I0.00000 J0.01813
G1 X-3.96067 Y-2.48978
G1 Z-0.05599
G2 X-3.96067 Y-2.52604 I0.00000 J-0.01813
G1 X-4.03933 Y-2.52604
G2 X-4.03933 Y-2.48978 I0.00000 J0.01813
G1 X-3.96067 Y-2.48978
G1 Z-0.06299
G2 X-3.96067 Y-2.52604 I0.00000 J-0.01813
G1 X-4.03933 Y-2.52604
G2 X-4.03933 Y-2.48978 I0.00000 J0.01813
G1 X-3.96067 Y-2.48978
G0 Z0.08000

G0 X-4.03933 Y-2.76222
G1 Z-0.00700
G2 X-4.03933 Y-2.72596 I0.00000 J0.01813
G1 X-3.96067 Y-2.72596
G2 X-3.96067 Y-2.76222 I0.00000 J-0.01813
G1 X-4.03933 Y-2.76222
G1 Z-0.01400
G2 X-4.03933 Y-2.72596 I0.00000 J0.01813
G1 X-3.96067 Y-2.72596
G2 X-3.96067 Y-2.76222 I0.00000 J-0.01813
G1 X-4.03933 Y-2.76222
G1 Z-0.02100
G2 X-4.03933 Y-2.72596 I0.00000 J0.01813
G1 X-3.96067 Y-2.72596
G2 X-3.96067 Y-2.76222 I0.00000 J-0.01813
G1 X-4.03933 Y-2.76222
G1 Z-0.02800
G2 X-4.03933 Y-2.72596 I0.00000 J0.01813
G1 X-3.96067 Y-2.72596
G2 X-3.96067 Y-2.76222 I0.00000 J-0.01813
G1 X-4.03933 Y-2.76222
G1 Z-0.03500
G2 X-4.03933 Y-2.72596 I0.00000 J0.01813
G1 X-3.96067 Y-2.72596
G2 X-3.96067 Y-2.76222 I0.00000 J-0.01813
G1 X-4.03933 Y-2.76222
G1 Z-0.04199
G2 X-4.03933 Y-2.72596 I0.00000 J0.01813
G1 X-3.96067 Y-2.72596
G2 X-3.96067 Y-2.76222 I0.00000 J-0.01813
G1 X-4.03933 Y-2.76222
G1 Z-0.04899
G2 X-4.03933 Y-2.72596 I0.00000 J0.01813
G1 X-3.96067 Y-2.72596
G2 X-3.96067 Y-2.76222 I0.00000 J-0.01813
G1 X-4.03933 Y-2.76222
G1 Z-0.05599
G2 X-4.03933 Y-2.72596 I0.00000 J0.01813
G1 X-3.96067 Y-2.72596
G2 X-3.96067 Y-2.76222 I0.00000 J-0.01813
G1 X-4.03933 Y-2.76222
G1 Z-0.06299
G2 X-4.03933 Y-2.72596 I0.00000 J0.01813
G1 X-3.96067 Y-2.72596
G2 X-3.96067 Y-2.76222 I0.00000 J-0.01813
G1 X-4.03933 Y-2.76222
G0 Z0.08000

G0 X-3.63187 Y-2.95000
G1 Z-0.00700
G2  X-3.63187 Y-2.95000 I-0.01813 J0.00000
G1 Z-0.01400
G2  X-3.63187 Y-2.95000 I-0.01813 J0.00000
G1 Z-0.02100
G2  X-3.63187 Y-2.95000 I-0.01813 J0.00000
G1 Z-0.02800
G2  X-3.63187 Y-2.95000 I-0.01813 J0.00000
G1 Z-0.03500
G2  X-3.63187 Y-2.95000 I-0.01813 J0.00000
G1 Z-0.04199
G2  X-3.63187 Y-2.95000 I-0.01813 J0.00000
G1 Z-0.04899
G2  X-3.63187 Y-2.95000 I-0.01813 J0.00000
G1 Z-0.05599
G2  X-3.63187 Y-2.95000 I-0.01813 J0.00000
G1 Z-0.06299
G2  X-3.63187 Y-2.95000 I-0.01813 J0.00000
G0 Z0.08000

G0 X-3.73187 Y-3.30000
G1 Z-0.00700
G2  X-3.73187 Y-3.30000 I-0.01813 J0.00000
G1 Z-0.01400
G2  X-3.73187 Y-3.30000 I-0.01813 J0.00000
G1 Z-0.02100
G2  X-3.73187 Y-3.30000 I-0.01813 J0.00000
G1 Z-0.02800
G2  X-3.73187 Y-3.30000 I-0.01813 J0.00000
G1 Z-0.03500
G2  X-3.73187 Y-3.30000 I-0.01813 J0.00000
G1 Z-0.04199
G2  X-3.73187 Y-3.30000 I-0.01813 J0.00000
G1 Z-0.04899
G2  X-3.73187 Y-3.30000 I-0.01813 J0.00000
G1 Z-0.05599
G2  X-3.73187 Y-3.30000 I-0.01813 J0.00000
G1 Z-0.06299
G2  X-3.73187 Y-3.30000 I-0.01813 J0.00000
G0 Z0.08000

G0 X-3.83187 Y-3.30000
G1 Z-0.00700
G2  X-3.83187 Y-3.30000 I-0.01813 J0.00000
G1 Z-0.01400
G2  X-3.83187 Y-3.30000 I-0.01813 J0.00000
G1 Z-0.02100
G2  X-3.83187 Y-3.30000 I-0.01813 J0.00000
G1 Z-0.02800
G2  X-3.83187 Y-3.30000 I-0.01813 J0.00000
G1 Z-0.03500
G2  X-3.83187 Y-3.30000 I-0.01813 J0.00000
G1 Z-0.04199
G2  X-3.83187 Y-3.30000 I-0.01813 J0.00000
G1 Z-0.04899
G2  X-3.83187 Y-3.30000 I-0.01813 J0.00000
G1 Z-0.05599
G2  X-3.83187 Y-3.30000 I-0.01813 J0.00000
G1 Z-0.06299
G2  X-3.83187 Y-3.30000 I-0.01813 J0.00000
G0 Z0.08000

G0 X-4.03187 Y-3.30000
G1 Z-0.00700
G2  X-4.03187 Y-3.30000 I-0.01813 J0.00000
G1 Z-0.01400
G2  X-4.03187 Y-3.30000 I-0.01813 J0.00000
G1 Z-0.02100
G2  X-4.03187 Y-3.30000 I-0.01813 J0.00000
G1 Z-0.02800
G2  X-4.03187 Y-3.30000 I-0.01813 J0.00000
G1 Z-0.03500
G2  X-4.03187 Y-3.30000 I-0.01813 J0.00000
G1 Z-0.04199
G2  X-4.03187 Y-3.30000 I-0.01813 J0.00000
G1 Z-0.04899
G2  X-4.03187 Y-3.30000 I-0.01813 J0.00000
G1 Z-0.05599
G2  X-4.03187 Y-3.30000 I-0.01813 J0.00000
G1 Z-0.06299
G2  X-4.03187 Y-3.30000 I-0.01813 J0.00000
G0 Z0.08000

G0 X-4.13187 Y-3.30000
G1 Z-0.00700
G2  X-4.13187 Y-3.30000 I-0.01813 J0.00000
G1 Z-0.01400
G2  X-4.13187 Y-3.30000 I-0.01813 J0.00000
G1 Z-0.02100
G2  X-4.13187 Y-3.30000 I-0.01813 J0.00000
G1 Z-0.02800
G2  X-4.13187 Y-3.30000 I-0.01813 J0.00000
G1 Z-0.03500
G2  X-4.13187 Y-3.30000 I-0.01813 J0.00000
G1 Z-0.04199
G2  X-4.13187 Y-3.30000 I-0.01813 J0.00000
G1 Z-0.04899
G2  X-4.13187 Y-3.30000 I-0.01813 J0.00000
G1 Z-0.05599
G2  X-4.13187 Y-3.30000 I-0.01813 J0.00000
G1 Z-0.06299
G2  X-4.13187 Y-3.30000 I-0.01813 J0.00000
G0 Z0.08000

G0 X-4.28187 Y-2.95000
G1 Z-0.00700
G2  X-4.28187 Y-2.95000 I-0.01813 J0.00000
G1 Z-0.01400
G2  X-4.28187 Y-2.95000 I-0.01813 J0.00000
G1 Z-0.02100
G2  X-4.28187 Y-2.95000 I-0.01813 J0.00000
G1 Z-0.02800
G2  X-4.28187 Y-2.95000 I-0.01813 J0.00000
G1 Z-0.03500
G2  X-4.28187 Y-2.95000 I-0.01813 J0.00000
G1 Z-0.04199
G2  X-4.28187 Y-2.95000 I-0.01813 J0.00000
G1 Z-0.04899
G2  X-4.28187 Y-2.95000 I-0.01813 J0.00000
G1 Z-0.05599
G2  X-4.28187 Y-2.95000 I-0.01813 J0.00000
G1 Z-0.06299
G2  X-4.28187 Y-2.95000 I-0.01813 J0.00000
G0 Z0.08000

G0 X-4.68187 Y-2.95000
G1 Z-0.00700
G2  X-4.68187 Y-2.95000 I-0.01813 J0.00000
G1 Z-0.01400
G2  X-4.68187 Y-2.95000 I-0.01813 J0.00000
G1 Z-0.02100
G2  X-4.68187 Y-2.95000 I-0.01813 J0.00000
G1 Z-0.02800
G2  X-4.68187 Y-2.95000 I-0.01813 J0.00000
G1 Z-0.03500
G2  X-4.68187 Y-2.95000 I-0.01813 J0.00000
G1 Z-0.04199
G2  X-4.68187 Y-2.95000 I-0.01813 J0.00000
G1 Z-0.04899
G2  X-4.68187 Y-2.95000 I-0.01813 J0.00000
G1 Z-0.05599
G2  X-4.68187 Y-2.95000 I-0.01813 J0.00000
G1 Z-0.06299
G2  X-4.68187 Y-2.95000 I-0.01813 J0.00000
G0 Z0.08000

G0 X-4.28187 Y-2.55000
G1 Z-0.00700
G2  X-4.28187 Y-2.55000 I-0.01813 J0.00000
G1 Z-0.01400
G2  X-4.28187 Y-2.55000 I-0.01813 J0.00000
G1 Z-0.02100
G2  X-4.28187 Y-2.55000 I-0.01813 J0.00000
G1 Z-0.02800
G2  X-4.28187 Y-2.55000 I-0.01813 J0.00000
G1 Z-0.03500
G2  X-4.28187 Y-2.55000 I-0.01813 J0.00000
G1 Z-0.04199
G2  X-4.28187 Y-2.55000 I-0.01813 J0.00000
G1 Z-0.04899
G2  X-4.28187 Y-2.55000 I-0.01813 J0.00000
G1 Z-0.05599
G2  X-4.28187 Y-2.55000 I-0.01813 J0.00000
G1 Z-0.06299
G2  X-4.28187 Y-2.55000 I-0.01813 J0.00000
G0 Z0.08000

G0 X-4.68187 Y-2.55000
G1 Z-0.00700
G2  X-4.68187 Y-2.55000 I-0.01813 J0.00000
G1 Z-0.01400
G2  X-4.68187 Y-2.55000 I-0.01813 J0.00000
G1 Z-0.02100
G2  X-4.68187 Y-2.55000 I-0.01813 J0.00000
G1 Z-0.02800
G2  X-4.68187 Y-2.55000 I-0.01813 J0.00000
G1 Z-0.03500
G2  X-4.68187 Y-2.55000 I-0.01813 J0.00000
G1 Z-0.04199
G2  X-4.68187 Y-2.55000 I-0.01813 J0.00000
G1 Z-0.04899
G2  X-4.68187 Y-2.55000 I-0.01813 J0.00000
G1 Z-0.05599
G2  X-4.68187 Y-2.55000 I-0.01813 J0.00000
G1 Z-0.06299
G2  X-4.68187 Y-2.55000 I-0.01813 J0.00000
G0 Z0.08000

G00 Z1.000 ( All done -- retract )

M5      (Spindle off.)
G04 P1.000000
M9      (Coolant off.)
M2      (Program end.)

