( pcb2gcode 2.3.0 )
( Software-independent Gcode )

( This file uses 3 drill bit sizes. )
( Bit sizes: [0.01inch] [0.0394094inch] [0.11811inch] )

G94       (Inches per minute feed rate.)
G20       (Units == INCHES.)
G91.1     (Incremental arc distance mode.)
G90       (Absolute coordinates.)
G00 S12000     (RPM spindle speed.)

G00 Z1.00000 (Retract)
T1
M5      (Spindle stop.)
G04 P1.00000
(MSG, Change tool bit to drill size 0.01inch)
M6      (Tool change.)
M0      (Temporary machine stop.)
M3      (Spindle on clockwise.)
G0 Z0.08000
G04 P1.00000

G81 R0.08000 Z-0.06299 F30.00000 X3.40000 Y-2.85000
X3.49843 Y-2.85000
X3.40000 Y-3.17126
X3.40000 Y-3.25000
X3.40000 Y-3.32874
X4.45157 Y-2.85000
X4.55000 Y-2.85000
X4.50000 Y-3.17126
X4.50000 Y-3.25000
X4.50000 Y-3.32874
G80

G00 Z1.00000 (Retract)
T2
M5      (Spindle stop.)
G04 P1.00000
(MSG, Change tool bit to drill size 0.0394094inch)
M6      (Tool change.)
M0      (Temporary machine stop.)
M3      (Spindle on clockwise.)
G0 Z0.08000
G04 P1.00000

G81 R0.08000 Z-0.06299 F30.00000 X3.25000 Y-2.55000
X3.65000 Y-2.55000
X3.81500 Y-2.66535
X3.81500 Y-2.58665
X3.81500 Y-2.62163
X3.81500 Y-2.63912
X3.81500 Y-2.60414
X3.81500 Y-2.64787
X3.81500 Y-2.63038
X3.81500 Y-2.61289
X3.81500 Y-2.59540
X3.81500 Y-2.65661
X3.96067 Y-2.50791
X4.03933 Y-2.50791
X4.00437 Y-2.50791
X3.98689 Y-2.50791
X4.02185 Y-2.50791
X3.97815 Y-2.50791
X3.99563 Y-2.50791
X4.01311 Y-2.50791
X4.03059 Y-2.50791
X3.96941 Y-2.50791
X4.30000 Y-2.55000
X4.70000 Y-2.55000
X4.70000 Y-2.95000
X4.30000 Y-2.95000
X4.15000 Y-3.30000
X4.05000 Y-3.30000
X3.85000 Y-3.30000
X3.75000 Y-3.30000
X3.65000 Y-2.95000
X3.25000 Y-2.95000
G80

G00 Z1.00000 (Retract)
T3
M5      (Spindle stop.)
G04 P1.00000
(MSG, Change tool bit to drill size 0.11811inch)
M6      (Tool change.)
M0      (Temporary machine stop.)
M3      (Spindle on clockwise.)
G0 Z0.08000
G04 P1.00000

G81 R0.08000 Z-0.06299 F30.00000 X3.96067 Y-2.38976
X4.03933 Y-2.74409
X4.00000 Y-2.56693
X3.98033 Y-2.47835
X4.01967 Y-2.65551
X3.97050 Y-2.43406
X3.99017 Y-2.52264
X4.00983 Y-2.61122
X4.02950 Y-2.69980
X3.96722 Y-2.41929
X3.97378 Y-2.44882
X3.98689 Y-2.50787
X3.99344 Y-2.53740
X4.00656 Y-2.59646
X4.01311 Y-2.62598
X4.02622 Y-2.68504
X4.03278 Y-2.71457
X3.96395 Y-2.40453
X3.97706 Y-2.46358
X3.98361 Y-2.49311
X3.99672 Y-2.55217
X4.00328 Y-2.58169
X4.01639 Y-2.64075
X4.02294 Y-2.67028
X4.03605 Y-2.72933
G80

G00 Z1.000 ( All done -- retract )

M5      (Spindle off.)
G04 P1.000000
M9      (Coolant off.)
M2      (Program end.)

