( pcb2gcode 1.3.2 )
( Software-independent Gcode )

( This file uses 2 drill bit sizes. )
( Bit sizes: [0.03 inch] [0.1 inch] )

G94       (Inches per minute feed rate.)
G20       (Units == INCHES.)
G91.1     (Incremental arc distance mode.)
G90       (Absolute coordinates.)
G00 S12000     (RPM spindle speed.)

G00 Z1.00000 (Retract)
T1
M5      (Spindle stop.)
G04 P1.00000
(MSG, Change tool bit to drill size 0.03 inch)
M6      (Tool change.)
M0      (Temporary machine stop.)
M3      (Spindle on clockwise.)
G0 Z0.08000
G04 P1.00000

G81 R0.08000 Z-1.60000 F30.00000 X3.25000 Y-2.55000
X3.65000 Y-2.55000
X3.81500 Y-2.58665
X3.81500 Y-2.66535
X3.81500 Y-2.62958
X3.81500 Y-2.60812
X3.81500 Y-2.65105
X3.81500 Y-2.60096
X3.81500 Y-2.61527
X3.81500 Y-2.64389
X3.81500 Y-2.65820
X3.81500 Y-2.59381
X3.81500 Y-2.62243
X3.81500 Y-2.63674
X4.03933 Y-2.50791
X3.96067 Y-2.50791
X3.99642 Y-2.50791
X4.01788 Y-2.50791
X3.97497 Y-2.50791
X4.02503 Y-2.50791
X4.01073 Y-2.50791
X3.98212 Y-2.50791
X3.96782 Y-2.50791
X4.03218 Y-2.50791
X4.00358 Y-2.50791
X3.98927 Y-2.50791
X4.30000 Y-2.55000
X4.70000 Y-2.55000
X4.45157 Y-2.85000
X4.55000 Y-2.85000
X4.70000 Y-2.95000
X4.50000 Y-3.17126
X4.50000 Y-3.25000
X4.50000 Y-3.32874
X4.30000 Y-2.95000
X4.15000 Y-3.30000
X4.05000 Y-3.30000
X3.85000 Y-3.30000
X3.75000 Y-3.30000
X3.40000 Y-3.32874
X3.40000 Y-3.25000
X3.40000 Y-3.17126
X3.65000 Y-2.95000
X3.49843 Y-2.85000
X3.40000 Y-2.85000
X3.25000 Y-2.95000

G00 Z1.00000 (Retract)
T3
M5      (Spindle stop.)
G04 P1.00000
(MSG, Change tool bit to drill size 0.1 inch)
M6      (Tool change.)
M0      (Temporary machine stop.)
M3      (Spindle on clockwise.)
G0 Z0.08000
G04 P1.00000

G81 R0.08000 Z-1.60000 F30.00000 X4.03933 Y-2.74409
X3.96067 Y-2.38976
X4.00000 Y-2.56693
X4.01815 Y-2.64870
X3.98185 Y-2.48516
X4.02723 Y-2.68958
X4.00908 Y-2.60781
X3.99092 Y-2.52604
X3.97277 Y-2.44428
X4.03328 Y-2.71684
X4.02118 Y-2.66233
X4.01513 Y-2.63507
X4.00303 Y-2.58056
X3.99697 Y-2.55330
X3.98487 Y-2.49879
X3.97882 Y-2.47153
X3.96672 Y-2.41702
X4.03631 Y-2.73047
X4.03025 Y-2.70321
X4.02420 Y-2.67595
X4.01210 Y-2.62144
X4.00605 Y-2.59419
X3.99395 Y-2.53967
X3.98790 Y-2.51242
X3.97580 Y-2.45790
X3.96975 Y-2.43065
X3.96369 Y-2.40339

G00 Z1.000 ( All done -- retract )

M5      (Spindle off.)
G04 P1.000000
M9      (Coolant off.)
M2      (Program end.)

