( pcb2gcode 2.5.0 )
( Software-independent Gcode )

G94 ( Inches per minute feed rate. )
G20 ( Units == INCHES. )

G90 ( Absolute coordinates. )
G00 S10000 ( RPM spindle speed. )
G64 P0.00040 ( set maximum deviation from commanded toolpath )
G01 F100.00000 ( Feedrate. )


G00 Z1.00000 (Retract to tool change height)
T1
M5      (Spindle stop.)
G04 P1.00000 (Wait for spindle to stop)
(MSG, Change tool bit to cutter diameter 0.00000in)
M6      (Tool change.)
M0      (Temporary machine stop.)
M3 ( Spindle on clockwise. )
G04 P1.00000 (Wait for spindle to get up to speed)
G04 P0 ( dwell for no time -- G64 should not smooth over this point )
G00 Z0.08000 ( retract )

G00 X4.55000 Y-4.25000 ( rapid move to begin. )
G01 Z-0.00512 F50.00000 ( plunge. )
G04 P0 ( dwell for no time -- G64 should not smooth over this point )
G01 F100.00000
G01 X4.55000 Y-4.15000
G01 X4.74999 Y-4.15110
G01 X4.74975 Y-4.15709
G01 X4.74914 Y-4.16306
G01 X4.74818 Y-4.16898
G01 X4.74687 Y-4.17483
G01 X4.74520 Y-4.18060
G01 X4.74320 Y-4.18625
G01 X4.74086 Y-4.19177
G01 X4.73819 Y-4.19714
G01 X4.73520 Y-4.20235
G01 X4.73191 Y-4.20736
G01 X4.72832 Y-4.21217
G01 X4.72446 Y-4.21675
G01 X4.72032 Y-4.22110
G01 X4.71593 Y-4.22519
G01 X4.71130 Y-4.22900
G01 X4.70646 Y-4.23254
G01 X4.70141 Y-4.23577
G01 X4.69617 Y-4.23870
G01 X4.69077 Y-4.24131
G01 X4.68522 Y-4.24359
G01 X4.67955 Y-4.24553
G01 X4.67377 Y-4.24713
G01 X4.66790 Y-4.24838
G01 X4.66197 Y-4.24928
G01 X4.65599 Y-4.24982
G01 X4.65000 Y-4.25000
G01 X4.55000 Y-4.25000
G04 P0 ( dwell for no time -- G64 should not smooth over this point )
G00 Z0.08000 ( retract )

G00 X4.60000 Y-3.95000 ( rapid move to begin. )
G01 Z-0.00512 F50.00000 ( plunge. )
G04 P0 ( dwell for no time -- G64 should not smooth over this point )
G01 F100.00000
G01 X4.60018 Y-3.95600
G01 X4.60072 Y-3.96197
G01 X4.60161 Y-3.96790
G01 X4.60287 Y-3.97377
G01 X4.60447 Y-3.97955
G01 X4.60641 Y-3.98522
G01 X4.60869 Y-3.99077
G01 X4.61130 Y-3.99617
G01 X4.61423 Y-4.00141
G01 X4.61746 Y-4.00646
G01 X4.62099 Y-4.01130
G01 X4.62481 Y-4.01593
G01 X4.62890 Y-4.02032
G01 X4.63324 Y-4.02446
G01 X4.63783 Y-4.02832
G01 X4.64264 Y-4.03191
G01 X4.64765 Y-4.03520
G01 X4.65285 Y-4.03819
G01 X4.65823 Y-4.04086
G01 X4.66375 Y-4.04320
G01 X4.66940 Y-4.04520
G01 X4.67516 Y-4.04687
G01 X4.68102 Y-4.04818
G01 X4.68694 Y-4.04914
G01 X4.69291 Y-4.04975
G01 X4.69890 Y-4.04999
G01 X4.70490 Y-4.04988
G01 X4.71088 Y-4.04941
G01 X4.71682 Y-4.04857
G01 X4.72270 Y-4.04739
G01 X4.72849 Y-4.04585
G01 X4.73419 Y-4.04397
G01 X4.73976 Y-4.04175
G01 X4.74519 Y-4.03920
G01 X4.75046 Y-4.03633
G01 X4.75555 Y-4.03315
G01 X4.76043 Y-4.02967
G01 X4.76510 Y-4.02591
G01 X4.76953 Y-4.02187
G01 X4.77372 Y-4.01757
G01 X4.77764 Y-4.01303
G01 X4.78128 Y-4.00826
G01 X4.78462 Y-4.00328
G01 X4.78766 Y-3.99811
G01 X4.79039 Y-3.99277
G01 X4.79279 Y-3.98727
G01 X4.79486 Y-3.98164
G01 X4.79659 Y-3.97590
G01 X4.79797 Y-3.97006
G01 X4.79899 Y-3.96415
G01 X4.79966 Y-3.95819
G01 X4.79997 Y-3.95220
G01 X4.79966 Y-3.94181
G01 X4.79899 Y-3.93585
G01 X4.79797 Y-3.92994
G01 X4.79659 Y-3.92410
G01 X4.79486 Y-3.91836
G01 X4.79279 Y-3.91273
G01 X4.79039 Y-3.90723
G01 X4.78766 Y-3.90189
G01 X4.78462 Y-3.89672
G01 X4.78128 Y-3.89174
G01 X4.77764 Y-3.88697
G01 X4.77372 Y-3.88243
G01 X4.76953 Y-3.87813
G01 X4.76510 Y-3.87409
G01 X4.76043 Y-3.87033
G01 X4.75555 Y-3.86685
G01 X4.75046 Y-3.86367
G01 X4.74519 Y-3.86079
G01 X4.73976 Y-3.85825
G01 X4.73419 Y-3.85603
G01 X4.72849 Y-3.85414
G01 X4.72270 Y-3.85261
G01 X4.71682 Y-3.85142
G01 X4.71088 Y-3.85059
G01 X4.70490 Y-3.85012
G01 X4.69890 Y-3.85001
G01 X4.69291 Y-3.85025
G01 X4.68694 Y-3.85086
G01 X4.68102 Y-3.85182
G01 X4.67516 Y-3.85313
G01 X4.66940 Y-3.85480
G01 X4.66375 Y-3.85680
G01 X4.65823 Y-3.85914
G01 X4.65285 Y-3.86181
G01 X4.64765 Y-3.86480
G01 X4.64264 Y-3.86809
G01 X4.63783 Y-3.87167
G01 X4.63324 Y-3.87554
G01 X4.62890 Y-3.87968
G01 X4.62481 Y-3.88407
G01 X4.62099 Y-3.88869
G01 X4.61746 Y-3.89354
G01 X4.61423 Y-3.89859
G01 X4.61130 Y-3.90383
G01 X4.60869 Y-3.90923
G01 X4.60641 Y-3.91478
G01 X4.60447 Y-3.92045
G01 X4.60287 Y-3.92623
G01 X4.60161 Y-3.93210
G01 X4.60072 Y-3.93803
G01 X4.60018 Y-3.94400
G01 X4.60000 Y-3.95000

G04 P0 ( dwell for no time -- G64 should not smooth over this point )
G00 Z1.000000 ( retract )

M5 ( Spindle off. )
G04 P1.000000
M9 ( Coolant off. )
M2 ( Program end. )

