( pcb2gcode 2.5.0 )
( Software-independent Gcode )

G94 ( Inches per minute feed rate. )
G20 ( Units == INCHES. )

G90 ( Absolute coordinates. )
G00 S10000 ( RPM spindle speed. )
G64 P0.00040 ( set maximum deviation from commanded toolpath )
G01 F100.00000 ( Feedrate. )


G00 Z1.00000 (Retract to tool change height)
T1
M5      (Spindle stop.)
G04 P1.00000 (Wait for spindle to stop)
(MSG, Change tool bit to cutter diameter 0.00000in)
M6      (Tool change.)
M0      (Temporary machine stop.)
M3 ( Spindle on clockwise. )
G04 P1.00000 (Wait for spindle to get up to speed)
G04 P0 ( dwell for no time -- G64 should not smooth over this point )
G00 Z0.08000 ( retract )

G00 X4.55000 Y-4.25000 ( rapid move to begin. )
G01 Z-0.00512 F50.00000 ( plunge. )
G04 P0 ( dwell for no time -- G64 should not smooth over this point )
G01 F100.00000
G01 X4.55000 Y-4.15000
G01 X4.74999 Y-4.15120
G01 X4.74974 Y-4.15719
G01 X4.74913 Y-4.16315
G01 X4.74817 Y-4.16907
G01 X4.74685 Y-4.17492
G01 X4.74518 Y-4.18067
G01 X4.74317 Y-4.18632
G01 X4.74083 Y-4.19184
G01 X4.73816 Y-4.19721
G01 X4.73517 Y-4.20240
G01 X4.73188 Y-4.20741
G01 X4.72829 Y-4.21221
G01 X4.72442 Y-4.21679
G01 X4.72028 Y-4.22113
G01 X4.71590 Y-4.22522
G01 X4.71127 Y-4.22903
G01 X4.70643 Y-4.23256
G01 X4.70138 Y-4.23579
G01 X4.69614 Y-4.23872
G01 X4.69075 Y-4.24132
G01 X4.68520 Y-4.24360
G01 X4.67953 Y-4.24554
G01 X4.67375 Y-4.24714
G01 X4.66789 Y-4.24839
G01 X4.66196 Y-4.24928
G01 X4.65599 Y-4.24982
G01 X4.65000 Y-4.25000
G01 X4.55000 Y-4.25000
G04 P0 ( dwell for no time -- G64 should not smooth over this point )
G00 Z0.08000 ( retract )

G00 X4.60000 Y-3.95020 ( rapid move to begin. )
G01 Z-0.00512 F50.00000 ( plunge. )
G04 P0 ( dwell for no time -- G64 should not smooth over this point )
G01 F100.00000
G01 X4.60017 Y-3.94420
G01 X4.60069 Y-3.93823
G01 X4.60158 Y-3.93230
G01 X4.60282 Y-3.92643
G01 X4.60441 Y-3.92064
G01 X4.60634 Y-3.91496
G01 X4.60861 Y-3.90941
G01 X4.61120 Y-3.90401
G01 X4.61412 Y-3.89876
G01 X4.61735 Y-3.89371
G01 X4.62087 Y-3.88885
G01 X4.62468 Y-3.88422
G01 X4.62876 Y-3.87982
G01 X4.63310 Y-3.87568
G01 X4.63767 Y-3.87180
G01 X4.64247 Y-3.86820
G01 X4.64748 Y-3.86490
G01 X4.65268 Y-3.86191
G01 X4.65805 Y-3.85923
G01 X4.66356 Y-3.85687
G01 X4.66921 Y-3.85486
G01 X4.67497 Y-3.85318
G01 X4.68082 Y-3.85186
G01 X4.68674 Y-3.85088
G01 X4.69271 Y-3.85027
G01 X4.69870 Y-3.85001
G01 X4.70470 Y-3.85011
G01 X4.71068 Y-3.85057
G01 X4.71662 Y-3.85139
G01 X4.72250 Y-3.85256
G01 X4.72830 Y-3.85409
G01 X4.73400 Y-3.85596
G01 X4.73958 Y-3.85817
G01 X4.74502 Y-3.86070
G01 X4.75029 Y-3.86356
G01 X4.75538 Y-3.86673
G01 X4.76027 Y-3.87020
G01 X4.76495 Y-3.87396
G01 X4.76939 Y-3.87799
G01 X4.77358 Y-3.88228
G01 X4.77751 Y-3.88682
G01 X4.78116 Y-3.89158
G01 X4.78452 Y-3.89655
G01 X4.78757 Y-3.90171
G01 X4.79031 Y-3.90705
G01 X4.79272 Y-3.91254
G01 X4.79480 Y-3.91817
G01 X4.79654 Y-3.92391
G01 X4.79793 Y-3.92974
G01 X4.79896 Y-3.93565
G01 X4.79965 Y-3.94161
G01 X4.79997 Y-3.94760
G01 X4.79968 Y-3.95799
G01 X4.79902 Y-3.96395
G01 X4.79801 Y-3.96986
G01 X4.79664 Y-3.97570
G01 X4.79492 Y-3.98145
G01 X4.79287 Y-3.98709
G01 X4.79048 Y-3.99259
G01 X4.78776 Y-3.99794
G01 X4.78473 Y-4.00311
G01 X4.78139 Y-4.00810
G01 X4.77776 Y-4.01287
G01 X4.77385 Y-4.01742
G01 X4.76968 Y-4.02173
G01 X4.76525 Y-4.02578
G01 X4.76059 Y-4.02955
G01 X4.75571 Y-4.03304
G01 X4.75063 Y-4.03623
G01 X4.74537 Y-4.03911
G01 X4.73995 Y-4.04167
G01 X4.73438 Y-4.04390
G01 X4.72869 Y-4.04580
G01 X4.72289 Y-4.04734
G01 X4.71701 Y-4.04854
G01 X4.71108 Y-4.04938
G01 X4.70510 Y-4.04987
G01 X4.69910 Y-4.05000
G01 X4.69311 Y-4.04976
G01 X4.68714 Y-4.04917
G01 X4.68121 Y-4.04822
G01 X4.67536 Y-4.04692
G01 X4.66959 Y-4.04526
G01 X4.66394 Y-4.04327
G01 X4.65841 Y-4.04094
G01 X4.65303 Y-4.03828
G01 X4.64782 Y-4.03531
G01 X4.64280 Y-4.03203
G01 X4.63799 Y-4.02845
G01 X4.63339 Y-4.02459
G01 X4.62904 Y-4.02046
G01 X4.62495 Y-4.01608
G01 X4.62112 Y-4.01146
G01 X4.61758 Y-4.00662
G01 X4.61433 Y-4.00158
G01 X4.61139 Y-3.99635
G01 X4.60877 Y-3.99095
G01 X4.60648 Y-3.98541
G01 X4.60452 Y-3.97974
G01 X4.60291 Y-3.97396
G01 X4.60165 Y-3.96810
G01 X4.60074 Y-3.96217
G01 X4.60019 Y-3.95620
G01 X4.60000 Y-3.95020

G04 P0 ( dwell for no time -- G64 should not smooth over this point )
G00 Z1.000000 ( retract )

M5 ( Spindle off. )
G04 P1.000000
M9 ( Coolant off. )
M2 ( Program end. )

