( pcb2gcode 2.5.0 )
( Software-independent Gcode )

G94 ( Inches per minute feed rate. )
G20 ( Units == INCHES. )

G90 ( Absolute coordinates. )
G00 S12000 ( RPM spindle speed. )
G64 P0.00040 ( set maximum deviation from commanded toolpath )
G01 F360.00000 ( Feedrate. )


G00 Z1.00000 (Retract to tool change height)
T1
M5      (Spindle stop.)
G04 P1.00000 (Wait for spindle to stop)
(MSG, Change tool bit to mill diameter 0.00000in)
M6      (Tool change.)
M0      (Temporary machine stop.)
M3 ( Spindle on clockwise. )
G04 P1.00000 (Wait for spindle to get up to speed)
G04 P0 ( dwell for no time -- G64 should not smooth over this point )
G00 Z0.08000 ( retract )

G00 X0.05000 Y-0.00492 ( rapid move to begin. )
G01 F180.00000
( Mill infeed pass 1/1 )
G01 Z-0.04000
G04 P0 ( dwell for no time -- G64 should not smooth over this point )
G01 F360.00000
G01 X0.05000 Y-0.00492
G01 X0.00492 Y-0.00492
G01 X0.00490 Y-0.05041
G01 X0.00477 Y-0.05121
G01 X0.00433 Y-0.05234
G01 X0.00388 Y-0.05302
G01 X0.00302 Y-0.05388
G01 X0.00234 Y-0.05433
G01 X0.00121 Y-0.05477
G01 X-0.00041 Y-0.05490
G01 X-0.00121 Y-0.05477
G01 X-0.00234 Y-0.05433
G01 X-0.00362 Y-0.05333
G01 X-0.00451 Y-0.05198
G01 X-0.00490 Y-0.05041
G01 X-0.00492 Y-0.00492
G01 X-0.05041 Y-0.00490
G01 X-0.05121 Y-0.00477
G01 X-0.05234 Y-0.00433
G01 X-0.05302 Y-0.00388
G01 X-0.05388 Y-0.00302
G01 X-0.05433 Y-0.00234
G01 X-0.05477 Y-0.00121
G01 X-0.05490 Y0.00041
G01 X-0.05477 Y0.00121
G01 X-0.05433 Y0.00234
G01 X-0.05333 Y0.00362
G01 X-0.05198 Y0.00451
G01 X-0.05041 Y0.00490
G01 X-0.00492 Y0.00492
G01 X-0.00490 Y0.05000
G01 X0.00490 Y0.05000
G01 X0.00492 Y0.00492
G01 X0.05000 Y0.00485
G01 X0.05000 Y-0.00492
G01 X-0.16301 Y-0.59245
G01 X-0.16317 Y-0.58925
G01 X-0.16367 Y-0.58567
G01 X-0.16439 Y-0.58254
G01 X-0.16535 Y-0.57947
G01 X-0.16674 Y-0.57614
G01 X-0.16822 Y-0.57329
G01 X-0.16993 Y-0.57057
G01 X-0.17185 Y-0.56800
G01 X-0.17398 Y-0.56559
G01 X-0.17630 Y-0.56337
G01 X-0.17911 Y-0.56110
G01 X-0.18177 Y-0.55931
G01 X-0.18494 Y-0.55756
G01 X-0.18787 Y-0.55626
G01 X-0.19090 Y-0.55520
G01 X-0.19401 Y-0.55439
G01 X-0.19717 Y-0.55383
G01 X-0.20037 Y-0.55354
G01 X-0.20358 Y-0.55351
G01 X-0.20679 Y-0.55373
G01 X-0.20996 Y-0.55422
G01 X-0.21309 Y-0.55497
G01 X-0.21651 Y-0.55611
G01 X-0.21982 Y-0.55756
G01 X-0.22333 Y-0.55952
G01 X-0.22661 Y-0.56183
G01 X-0.22964 Y-0.56446
G01 X-0.35349 Y-0.68829
G01 X-0.35349 Y-0.42619
G01 X-0.35378 Y-0.42138
G01 X-0.35457 Y-0.41704
G01 X-0.35611 Y-0.41206
G01 X-0.35721 Y-0.40947
G01 X-0.35850 Y-0.40697
G01 X-0.35996 Y-0.40457
G01 X-0.36158 Y-0.40228
G01 X-0.36502 Y-0.39835
G01 X-0.36894 Y-0.39491
G01 X-0.37364 Y-0.39183
G01 X-0.37835 Y-0.38959
G01 X-0.38332 Y-0.38799
G01 X-0.38606 Y-0.38741
G01 X-0.38885 Y-0.38702
G01 X-0.39406 Y-0.38684
G01 X-0.39925 Y-0.38734
G01 X-0.40201 Y-0.38790
G01 X-0.40472 Y-0.38865
G01 X-0.40736 Y-0.38959
G01 X-0.40994 Y-0.39072
G01 X-0.41448 Y-0.39329
G01 X-0.41864 Y-0.39644
G01 X-0.42235 Y-0.40010
G01 X-0.42461 Y-0.40292
G01 X-0.42640 Y-0.40558
G01 X-0.42815 Y-0.40875
G01 X-0.42960 Y-0.41206
G01 X-0.43063 Y-0.41510
G01 X-0.43149 Y-0.41861
G01 X-0.43202 Y-0.42218
G01 X-0.43222 Y-0.42539
G01 X-0.43223 Y-0.92659
G01 X-0.43188 Y-0.93139
G01 X-0.43105 Y-0.93573
G01 X-0.42960 Y-0.94032
G01 X-0.42779 Y-0.94435
G01 X-0.42531 Y-0.94848
G01 X-0.42261 Y-0.95197
G01 X-0.41924 Y-0.95541
G01 X-0.41580 Y-0.95818
G01 X-0.41208 Y-0.96055
G01 X-0.40811 Y-0.96249
G01 X-0.40395 Y-0.96396
G01 X-0.39925 Y-0.96504
G01 X-0.39486 Y-0.96551
G01 X-0.39045 Y-0.96549
G01 X-0.38606 Y-0.96497
G01 X-0.38177 Y-0.96396
G01 X-0.37761 Y-0.96249
G01 X-0.37364 Y-0.96055
G01 X-0.36991 Y-0.95818
G01 X-0.36647 Y-0.95541
G01 X-0.36337 Y-0.95227
G01 X-0.36063 Y-0.94881
G01 X-0.35830 Y-0.94506
G01 X-0.35641 Y-0.94107
G01 X-0.35520 Y-0.93767
G01 X-0.35430 Y-0.93417
G01 X-0.35373 Y-0.93060
G01 X-0.35350 Y-0.92699
G01 X-0.35349 Y-0.79964
G01 X-0.34950 Y-0.79565
G01 X-0.23388 Y-0.94981
G01 X-0.23103 Y-0.95319
G01 X-0.22813 Y-0.95597
G01 X-0.22464 Y-0.95866
G01 X-0.22122 Y-0.96076
G01 X-0.21760 Y-0.96250
G01 X-0.21382 Y-0.96386
G01 X-0.20993 Y-0.96483
G01 X-0.20595 Y-0.96540
G01 X-0.20194 Y-0.96556
G01 X-0.19794 Y-0.96531
G01 X-0.19358 Y-0.96457
G01 X-0.18972 Y-0.96347
G01 X-0.18599 Y-0.96199
G01 X-0.18243 Y-0.96013
G01 X-0.17908 Y-0.95793
G01 X-0.17597 Y-0.95539
G01 X-0.17287 Y-0.95225
G01 X-0.17037 Y-0.94911
G01 X-0.16881 Y-0.94676
G01 X-0.16743 Y-0.94432
G01 X-0.16623 Y-0.94178
G01 X-0.16521 Y-0.93916
G01 X-0.16438 Y-0.93647
G01 X-0.16374 Y-0.93374
G01 X-0.16330 Y-0.93096
G01 X-0.16306 Y-0.92816
G01 X-0.16302 Y-0.92535
G01 X-0.16318 Y-0.92254
G01 X-0.16354 Y-0.91976
G01 X-0.16410 Y-0.91700
G01 X-0.16485 Y-0.91429
G01 X-0.16594 Y-0.91128
G01 X-0.16710 Y-0.90872
G01 X-0.16844 Y-0.90624
G01 X-0.17088 Y-0.90257
G01 X-0.29325 Y-0.73941
G01 X-0.17343 Y-0.61954
G01 X-0.17135 Y-0.61709
G01 X-0.16948 Y-0.61448
G01 X-0.16763 Y-0.61137
G01 X-0.16624 Y-0.60848
G01 X-0.16509 Y-0.60548
G01 X-0.16418 Y-0.60240
G01 X-0.16353 Y-0.59925
G01 X-0.16311 Y-0.59567
G01 X-0.16301 Y-0.59245
G04 P0 ( dwell for no time -- G64 should not smooth over this point )
G00 Z0.08000 ( retract )

G00 X-0.56781 Y-0.61484 ( rapid move to begin. )
G01 F180.00000
( Mill infeed pass 1/1 )
G01 Z-0.04000
G04 P0 ( dwell for no time -- G64 should not smooth over this point )
G01 F360.00000
G01 X-0.56781 Y-0.61484
G01 X-0.56792 Y-0.62006
G01 X-0.56863 Y-0.62482
G01 X-0.57004 Y-0.62984
G01 X-0.57193 Y-0.63427
G01 X-0.57456 Y-0.63877
G01 X-0.57751 Y-0.64258
G01 X-0.58089 Y-0.64601
G01 X-0.58500 Y-0.64922
G01 X-0.58915 Y-0.65168
G01 X-0.59393 Y-0.65375
G01 X-0.59700 Y-0.65471
G01 X-0.59974 Y-0.65533
G01 X-0.60291 Y-0.65581
G01 X-0.60612 Y-0.65602
G01 X-0.60933 Y-0.65597
G01 X-0.61253 Y-0.65567
G01 X-0.61569 Y-0.65510
G01 X-0.61879 Y-0.65427
G01 X-0.62145 Y-0.65334
G01 X-0.62439 Y-0.65206
G01 X-0.66405 Y-0.63223
G01 X-0.74071 Y-0.63223
G01 X-0.77430 Y-0.64902
G01 X-0.78907 Y-0.66380
G01 X-0.80587 Y-0.69739
G01 X-0.80587 Y-0.82166
G01 X-0.78907 Y-0.85525
G01 X-0.77430 Y-0.87002
G01 X-0.74070 Y-0.88682
G01 X-0.66405 Y-0.88682
G01 X-0.62403 Y-0.86681
G01 X-0.62069 Y-0.86542
G01 X-0.61725 Y-0.86433
G01 X-0.61372 Y-0.86356
G01 X-0.61053 Y-0.86316
G01 X-0.60733 Y-0.86301
G01 X-0.60372 Y-0.86316
G01 X-0.60013 Y-0.86364
G01 X-0.59700 Y-0.86434
G01 X-0.59356 Y-0.86543
G01 X-0.59022 Y-0.86683
G01 X-0.58635 Y-0.86895
G01 X-0.58242 Y-0.87174
G01 X-0.57887 Y-0.87498
G01 X-0.57598 Y-0.87832
G01 X-0.57348 Y-0.88196
G01 X-0.57124 Y-0.88622
G01 X-0.56954 Y-0.89073
G01 X-0.56839 Y-0.89541
G01 X-0.56783 Y-0.90019
G01 X-0.56783 Y-0.90460
G01 X-0.56840 Y-0.90939
G01 X-0.56954 Y-0.91407
G01 X-0.57125 Y-0.91857
G01 X-0.57329 Y-0.92248
G01 X-0.57600 Y-0.92647
G01 X-0.57889 Y-0.92980
G01 X-0.58122 Y-0.93201
G01 X-0.58372 Y-0.93403
G01 X-0.58638 Y-0.93583
G01 X-0.58918 Y-0.93741
G01 X-0.63788 Y-0.96176
G01 X-0.64240 Y-0.96357
G01 X-0.64750 Y-0.96488
G01 X-0.65071 Y-0.96535
G01 X-0.65436 Y-0.96556
G01 X-0.75040 Y-0.96556
G01 X-0.75324 Y-0.96543
G01 X-0.75606 Y-0.96509
G01 X-0.75885 Y-0.96455
G01 X-0.76198 Y-0.96369
G01 X-0.76465 Y-0.96273
G01 X-0.76761 Y-0.96140
G01 X-0.81523 Y-0.93759
G01 X-0.81934 Y-0.93522
G01 X-0.82222 Y-0.93312
G01 X-0.82489 Y-0.93077
G01 X-0.85036 Y-0.90527
G01 X-0.85360 Y-0.90127
G01 X-0.85628 Y-0.89688
G01 X-0.88098 Y-0.84746
G01 X-0.88262 Y-0.84331
G01 X-0.88369 Y-0.83940
G01 X-0.88440 Y-0.83500
G01 X-0.88461 Y-0.83095
G01 X-0.88460 Y-0.68769
G01 X-0.88431 Y-0.68324
G01 X-0.88341 Y-0.67846
G01 X-0.88222 Y-0.67458
G01 X-0.88063 Y-0.67085
G01 X-0.85664 Y-0.62287
G01 X-0.85427 Y-0.61876
G01 X-0.85192 Y-0.61557
G01 X-0.84954 Y-0.61292
G01 X-0.82518 Y-0.58855
G01 X-0.82222 Y-0.58592
G01 X-0.81900 Y-0.58361
G01 X-0.81558 Y-0.58163
G01 X-0.76724 Y-0.55746
G01 X-0.76275 Y-0.55561
G01 X-0.75766 Y-0.55424
G01 X-0.75405 Y-0.55370
G01 X-0.75040 Y-0.55349
G01 X-0.65436 Y-0.55349
G01 X-0.65031 Y-0.55374
G01 X-0.64631 Y-0.55440
G01 X-0.64201 Y-0.55561
G01 X-0.63825 Y-0.55712
G01 X-0.58847 Y-0.58201
G01 X-0.58604 Y-0.58343
G01 X-0.58372 Y-0.58502
G01 X-0.57974 Y-0.58839
G01 X-0.57650 Y-0.59195
G01 X-0.57350 Y-0.59622
G01 X-0.57125 Y-0.60048
G01 X-0.56955 Y-0.60498
G01 X-0.56833 Y-0.61005
G01 X-0.56781 Y-0.61484
G04 P0 ( dwell for no time -- G64 should not smooth over this point )
G00 Z0.08000 ( retract )

G00 X-1.09889 Y-0.87805 ( rapid move to begin. )
G01 F180.00000
( Mill infeed pass 1/1 )
G01 Z-0.04000
G04 P0 ( dwell for no time -- G64 should not smooth over this point )
G01 F360.00000
G01 X-1.09889 Y-0.87805
G01 X-1.09889 Y-0.77421
G01 X-1.10269 Y-0.77483
G01 X-1.10674 Y-0.77508
G01 X-1.21690 Y-0.77508
G01 X-1.24446 Y-0.78887
G01 X-1.25825 Y-0.81644
G01 X-1.25825 Y-0.84547
G01 X-1.24446 Y-0.87304
G01 X-1.21690 Y-0.88682
G01 X-1.11644 Y-0.88682
G01 X-1.09889 Y-0.87805
G04 P0 ( dwell for no time -- G64 should not smooth over this point )
G00 Z0.08000 ( retract )

G00 X-1.44872 Y-0.75952 ( rapid move to begin. )
G01 F180.00000
( Mill infeed pass 1/1 )
G01 Z-0.04000
G04 P0 ( dwell for no time -- G64 should not smooth over this point )
G01 F360.00000
G01 X-1.44872 Y-0.75952
G01 X-1.44873 Y-0.83136
G01 X-1.44898 Y-0.83540
G01 X-1.44973 Y-0.83980
G01 X-1.45084 Y-0.84370
G01 X-1.45253 Y-0.84783
G01 X-1.47687 Y-0.89653
G01 X-1.47974 Y-0.90127
G01 X-1.48324 Y-0.90556
G01 X-1.50844 Y-0.93077
G01 X-1.51143 Y-0.93337
G01 X-1.51466 Y-0.93565
G01 X-1.51811 Y-0.93759
G01 X-1.56645 Y-0.96176
G01 X-1.56906 Y-0.96288
G01 X-1.57174 Y-0.96381
G01 X-1.57448 Y-0.96455
G01 X-1.57727 Y-0.96509
G01 X-1.58009 Y-0.96543
G01 X-1.58333 Y-0.96556
G01 X-1.77541 Y-0.96553
G01 X-1.77901 Y-0.96521
G01 X-1.78218 Y-0.96466
G01 X-1.78567 Y-0.96373
G01 X-1.78906 Y-0.96249
G01 X-1.79232 Y-0.96093
G01 X-1.79543 Y-0.95909
G01 X-1.79835 Y-0.95697
G01 X-1.80078 Y-0.95487
G01 X-1.80356 Y-0.95197
G01 X-1.80603 Y-0.94881
G01 X-1.80817 Y-0.94541
G01 X-1.80995 Y-0.94181
G01 X-1.81135 Y-0.93805
G01 X-1.81236 Y-0.93417
G01 X-1.81297 Y-0.93020
G01 X-1.81318 Y-0.92619
G01 X-1.81317 Y-0.42539
G01 X-1.81293 Y-0.42178
G01 X-1.81236 Y-0.41821
G01 X-1.81147 Y-0.41471
G01 X-1.81026 Y-0.41131
G01 X-1.80874 Y-0.40803
G01 X-1.80693 Y-0.40490
G01 X-1.80484 Y-0.40196
G01 X-1.80249 Y-0.39921
G01 X-1.79989 Y-0.39670
G01 X-1.79708 Y-0.39443
G01 X-1.79407 Y-0.39243
G01 X-1.79053 Y-0.39055
G01 X-1.78719 Y-0.38916
G01 X-1.78335 Y-0.38799
G01 X-1.77981 Y-0.38728
G01 X-1.77622 Y-0.38689
G01 X-1.60714 Y-0.38682
G01 X-1.60430 Y-0.38692
G01 X-1.60068 Y-0.38735
G01 X-1.59711 Y-0.38812
G01 X-1.59363 Y-0.38921
G01 X-1.59026 Y-0.39062
G01 X-1.54121 Y-0.41515
G01 X-1.53781 Y-0.41716
G01 X-1.53431 Y-0.41976
G01 X-1.53168 Y-0.42216
G01 X-1.50732 Y-0.44654
G01 X-1.50473 Y-0.44952
G01 X-1.50245 Y-0.45276
G01 X-1.50050 Y-0.45620
G01 X-1.47616 Y-0.50492
G01 X-1.47493 Y-0.50792
G01 X-1.47405 Y-0.51062
G01 X-1.47337 Y-0.51337
G01 X-1.47283 Y-0.51657
G01 X-1.47254 Y-0.52102
G01 X-1.47254 Y-0.56986
G01 X-1.47294 Y-0.57471
G01 X-1.47383 Y-0.57908
G01 X-1.47493 Y-0.58256
G01 X-1.47651 Y-0.58629
G01 X-1.50068 Y-0.63463
G01 X-1.50332 Y-0.63904
G01 X-1.50678 Y-0.64336
G01 X-1.51689 Y-0.65352
G01 X-1.51249 Y-0.65630
G01 X-1.50846 Y-0.65969
G01 X-1.48351 Y-0.68463
G01 X-1.48116 Y-0.68731
G01 X-1.47907 Y-0.69019
G01 X-1.47669 Y-0.69430
G01 X-1.45235 Y-0.74301
G01 X-1.45098 Y-0.74639
G01 X-1.45002 Y-0.74949
G01 X-1.44933 Y-0.75266
G01 X-1.44889 Y-0.75588
G01 X-1.44872 Y-0.75952
G04 P0 ( dwell for no time -- G64 should not smooth over this point )
G00 Z0.08000 ( retract )

G00 X-1.52747 Y-0.82166 ( rapid move to begin. )
G01 F180.00000
( Mill infeed pass 1/1 )
G01 Z-0.04000
G04 P0 ( dwell for no time -- G64 should not smooth over this point )
G01 F360.00000
G01 X-1.52747 Y-0.82166
G01 X-1.54426 Y-0.85525
G01 X-1.55903 Y-0.87002
G01 X-1.59263 Y-0.88682
G01 X-1.73444 Y-0.88682
G01 X-1.73444 Y-0.70366
G01 X-1.61353 Y-0.70366
G01 X-1.55698 Y-0.72250
G01 X-1.54426 Y-0.73523
G01 X-1.52747 Y-0.76882
G01 X-1.52747 Y-0.82166
G01 X-1.63820 Y-0.80060
G01 X-1.63857 Y-0.80298
G01 X-1.63941 Y-0.80523
G01 X-1.64044 Y-0.80694
G01 X-1.64205 Y-0.80873
G01 X-1.64364 Y-0.80995
G01 X-1.64578 Y-0.81103
G01 X-1.64810 Y-0.81166
G01 X-1.65050 Y-0.81180
G01 X-1.65288 Y-0.81145
G01 X-1.65514 Y-0.81063
G01 X-1.65686 Y-0.80961
G01 X-1.65866 Y-0.80803
G01 X-1.66011 Y-0.80611
G01 X-1.66114 Y-0.80393
G01 X-1.66164 Y-0.80200
G01 X-1.66180 Y-0.79960
G01 X-1.66148 Y-0.79722
G01 X-1.66068 Y-0.79495
G01 X-1.65944 Y-0.79290
G01 X-1.65780 Y-0.79113
G01 X-1.65585 Y-0.78974
G01 X-1.65403 Y-0.78890
G01 X-1.65170 Y-0.78831
G01 X-1.64930 Y-0.78821
G01 X-1.64732 Y-0.78850
G01 X-1.64504 Y-0.78928
G01 X-1.64298 Y-0.79050
G01 X-1.64120 Y-0.79212
G01 X-1.63979 Y-0.79407
G01 X-1.63893 Y-0.79588
G01 X-1.63833 Y-0.79820
G01 X-1.63820 Y-0.80060
G04 P0 ( dwell for no time -- G64 should not smooth over this point )
G00 Z0.08000 ( retract )

G00 X-1.87585 Y-0.62006 ( rapid move to begin. )
G01 F180.00000
( Mill infeed pass 1/1 )
G01 Z-0.04000
G04 P0 ( dwell for no time -- G64 should not smooth over this point )
G01 F360.00000
G01 X-1.87585 Y-0.62006
G01 X-1.87609 Y-0.61888
G01 X-1.87678 Y-0.61743
G01 X-1.87755 Y-0.61649
G01 X-1.88081 Y-0.61328
G01 X-1.88200 Y-0.61252
G01 X-1.88313 Y-0.61212
G01 X-1.88433 Y-0.61195
G01 X-1.88554 Y-0.61204
G01 X-1.88688 Y-0.61244
G01 X-1.88794 Y-0.61303
G01 X-1.89180 Y-0.61679
G01 X-1.89249 Y-0.61777
G01 X-1.89308 Y-0.61927
G01 X-1.89325 Y-0.62047
G01 X-1.89316 Y-0.62167
G01 X-1.89268 Y-0.62321
G01 X-1.89205 Y-0.62424
G01 X-1.88810 Y-0.62819
G01 X-1.88704 Y-0.62883
G01 X-1.88589 Y-0.62923
G01 X-1.88473 Y-0.62938
G01 X-1.88353 Y-0.62930
G01 X-1.88237 Y-0.62897
G01 X-1.88129 Y-0.62842
G01 X-1.87755 Y-0.62484
G01 X-1.87639 Y-0.62321
G01 X-1.87590 Y-0.62167
G01 X-1.87585 Y-0.62006
G01 X-1.87863 Y-0.63754
G01 X-1.87897 Y-0.63556
G01 X-1.87995 Y-0.63382
G01 X-1.88146 Y-0.63250
G01 X-1.88333 Y-0.63176
G01 X-1.88534 Y-0.63169
G01 X-1.88725 Y-0.63230
G01 X-1.88885 Y-0.63351
G01 X-1.88995 Y-0.63519
G01 X-1.89038 Y-0.63674
G01 X-1.89038 Y-0.67772
G01 X-1.88995 Y-0.67926
G01 X-1.88885 Y-0.68094
G01 X-1.88725 Y-0.68215
G01 X-1.88534 Y-0.68276
G01 X-1.88413 Y-0.68280
G01 X-1.88294 Y-0.68260
G01 X-1.88113 Y-0.68174
G01 X-1.88022 Y-0.68094
G01 X-1.87949 Y-0.67998
G01 X-1.87897 Y-0.67889
G01 X-1.87868 Y-0.67772
G01 X-1.87863 Y-0.63754
G04 P0 ( dwell for no time -- G64 should not smooth over this point )
G00 Z0.08000 ( retract )

G00 X-1.90394 Y-0.65160 ( rapid move to begin. )
G01 F180.00000
( Mill infeed pass 1/1 )
G01 Z-0.04000
G04 P0 ( dwell for no time -- G64 should not smooth over this point )
G01 F360.00000
G01 X-1.90394 Y-0.65160
G01 X-1.90399 Y-0.66644
G01 X-1.90440 Y-0.66795
G01 X-1.90755 Y-0.67426
G01 X-1.90848 Y-0.67546
G01 X-1.91217 Y-0.67900
G01 X-1.91845 Y-0.68219
G01 X-1.92031 Y-0.68276
G01 X-1.93593 Y-0.68276
G01 X-1.93744 Y-0.68236
G01 X-1.94375 Y-0.67920
G01 X-1.94495 Y-0.67827
G01 X-1.94804 Y-0.67517
G01 X-1.94874 Y-0.67418
G01 X-1.94922 Y-0.67307
G01 X-1.94949 Y-0.67149
G01 X-1.94932 Y-0.66989
G01 X-1.94874 Y-0.66839
G01 X-1.94776 Y-0.66711
G01 X-1.94648 Y-0.66614
G01 X-1.94537 Y-0.66566
G01 X-1.94379 Y-0.66538
G01 X-1.94258 Y-0.66547
G01 X-1.94142 Y-0.66579
G01 X-1.94035 Y-0.66635
G01 X-1.93728 Y-0.66925
G01 X-1.93376 Y-0.67101
G01 X-1.92248 Y-0.67101
G01 X-1.91896 Y-0.66925
G01 X-1.91751 Y-0.66779
G01 X-1.91575 Y-0.66427
G01 X-1.91575 Y-0.65300
G01 X-1.91751 Y-0.64948
G01 X-1.91896 Y-0.64802
G01 X-1.92248 Y-0.64626
G01 X-1.93376 Y-0.64626
G01 X-1.93728 Y-0.64802
G01 X-1.93971 Y-0.65043
G01 X-1.94069 Y-0.65112
G01 X-1.94180 Y-0.65160
G01 X-1.94298 Y-0.65185
G01 X-1.94419 Y-0.65185
G01 X-1.94575 Y-0.65147
G01 X-1.94715 Y-0.65069
G01 X-1.94829 Y-0.64955
G01 X-1.94921 Y-0.64778
G01 X-1.94946 Y-0.64660
G01 X-1.94946 Y-0.64539
G01 X-1.94665 Y-0.61727
G01 X-1.94642 Y-0.61611
G01 X-1.94596 Y-0.61502
G01 X-1.94502 Y-0.61375
G01 X-1.94412 Y-0.61299
G01 X-1.94271 Y-0.61228
G01 X-1.94117 Y-0.61196
G01 X-1.91265 Y-0.61195
G01 X-1.91106 Y-0.61217
G01 X-1.90925 Y-0.61303
G01 X-1.90783 Y-0.61445
G01 X-1.90697 Y-0.61626
G01 X-1.90676 Y-0.61826
G01 X-1.90724 Y-0.62021
G01 X-1.90807 Y-0.62158
G01 X-1.90959 Y-0.62290
G01 X-1.91145 Y-0.62364
G01 X-1.91265 Y-0.62376
G01 X-1.93543 Y-0.62376
G01 X-1.93652 Y-0.63461
G01 X-1.93515 Y-0.63445
G01 X-1.92109 Y-0.63445
G01 X-1.91954 Y-0.63465
G01 X-1.91845 Y-0.63507
G01 X-1.91217 Y-0.63827
G01 X-1.90798 Y-0.64237
G01 X-1.90440 Y-0.64932
G01 X-1.90405 Y-0.65044
G01 X-1.90394 Y-0.65160
G04 P0 ( dwell for no time -- G64 should not smooth over this point )
G00 Z0.08000 ( retract )

G00 X-1.96018 Y-0.67390 ( rapid move to begin. )
G01 F180.00000
( Mill infeed pass 1/1 )
G01 Z-0.04000
G04 P0 ( dwell for no time -- G64 should not smooth over this point )
G01 F360.00000
G01 X-1.96018 Y-0.67390
G01 X-1.96035 Y-0.67550
G01 X-1.96075 Y-0.67664
G01 X-1.96191 Y-0.67827
G01 X-1.96566 Y-0.68185
G01 X-1.96673 Y-0.68241
G01 X-1.96789 Y-0.68273
G01 X-1.96910 Y-0.68281
G01 X-1.97025 Y-0.68266
G01 X-1.97141 Y-0.68226
G01 X-1.97246 Y-0.68162
G01 X-1.97641 Y-0.67767
G01 X-1.97704 Y-0.67664
G01 X-1.97745 Y-0.67550
G01 X-1.97761 Y-0.67430
G01 X-1.97745 Y-0.67270
G01 X-1.97686 Y-0.67121
G01 X-1.97616 Y-0.67022
G01 X-1.97230 Y-0.66646
G01 X-1.97106 Y-0.66579
G01 X-1.96990 Y-0.66547
G01 X-1.96870 Y-0.66538
G01 X-1.96750 Y-0.66555
G01 X-1.96636 Y-0.66595
G01 X-1.96517 Y-0.66671
G01 X-1.96191 Y-0.66992
G01 X-1.96115 Y-0.67086
G01 X-1.96046 Y-0.67231
G01 X-1.96018 Y-0.67390
G04 P0 ( dwell for no time -- G64 should not smooth over this point )
G00 Z0.08000 ( retract )

G00 X-1.91660 Y-0.53756 ( rapid move to begin. )
G01 F180.00000
( Mill infeed pass 1/1 )
G01 Z-0.04000
G04 P0 ( dwell for no time -- G64 should not smooth over this point )
G01 F360.00000
G01 X-1.91660 Y-0.53756
G01 X-1.91694 Y-0.53913
G01 X-1.93100 Y-0.57850
G01 X-1.93704 Y-0.59349
G01 X-1.93801 Y-0.59475
G01 X-1.94110 Y-0.59783
G01 X-1.94202 Y-0.59849
G01 X-1.94834 Y-0.60165
G01 X-1.94990 Y-0.60206
G01 X-1.95111 Y-0.60209
G01 X-1.95229 Y-0.60186
G01 X-1.95341 Y-0.60141
G01 X-1.95441 Y-0.60073
G01 X-1.95549 Y-0.59954
G01 X-1.95607 Y-0.59848
G01 X-1.95648 Y-0.59692
G01 X-1.95650 Y-0.59571
G01 X-1.95628 Y-0.59453
G01 X-1.95539 Y-0.59273
G01 X-1.95428 Y-0.59157
G01 X-1.95326 Y-0.59092
G01 X-1.94849 Y-0.58854
G01 X-1.94721 Y-0.58726
G01 X-1.94287 Y-0.57640
G01 X-1.95618 Y-0.53913
G01 X-1.95647 Y-0.53796
G01 X-1.95651 Y-0.53675
G01 X-1.95604 Y-0.53480
G01 X-1.95520 Y-0.53343
G01 X-1.95403 Y-0.53233
G01 X-1.95222 Y-0.53146
G01 X-1.95063 Y-0.53124
G01 X-1.94865 Y-0.53158
G01 X-1.94690 Y-0.53256
G01 X-1.94580 Y-0.53373
G01 X-1.94506 Y-0.53516
G01 X-1.93656 Y-0.55896
G01 X-1.92806 Y-0.53516
G01 X-1.92754 Y-0.53407
G01 X-1.92681 Y-0.53311
G01 X-1.92556 Y-0.53210
G01 X-1.92369 Y-0.53136
G01 X-1.92168 Y-0.53130
G01 X-1.92013 Y-0.53173
G01 X-1.91876 Y-0.53257
G01 X-1.91745 Y-0.53409
G01 X-1.91671 Y-0.53595
G01 X-1.91660 Y-0.53756
G04 P0 ( dwell for no time -- G64 should not smooth over this point )
G00 Z0.08000 ( retract )

G00 X-1.89509 Y-0.50041 ( rapid move to begin. )
G01 F180.00000
( Mill infeed pass 1/1 )
G01 Z-0.04000
G04 P0 ( dwell for no time -- G64 should not smooth over this point )
G01 F360.00000
G01 X-1.89509 Y-0.50041
G01 X-1.89523 Y-0.49879
G01 X-1.89567 Y-0.49766
G01 X-1.89612 Y-0.49698
G01 X-1.89698 Y-0.49612
G01 X-1.89766 Y-0.49567
G01 X-1.89879 Y-0.49523
G01 X-1.89959 Y-0.49510
G01 X-1.95000 Y-0.49508
G01 X-1.95081 Y-0.49515
G01 X-1.95198 Y-0.49549
G01 X-1.95333 Y-0.49638
G01 X-1.95433 Y-0.49766
G01 X-1.95485 Y-0.49919
G01 X-1.95485 Y-0.50081
G01 X-1.95433 Y-0.50234
G01 X-1.95333 Y-0.50362
G01 X-1.95198 Y-0.50451
G01 X-1.95041 Y-0.50490
G01 X-1.89959 Y-0.50490
G01 X-1.89802 Y-0.50451
G01 X-1.89667 Y-0.50362
G01 X-1.89567 Y-0.50234
G01 X-1.89523 Y-0.50121
G01 X-1.89509 Y-0.50041
G04 P0 ( dwell for no time -- G64 should not smooth over this point )
G00 Z0.08000 ( retract )

G00 X-1.84911 Y-0.54518 ( rapid move to begin. )
G01 F180.00000
( Mill infeed pass 1/1 )
G01 Z-0.04000
G04 P0 ( dwell for no time -- G64 should not smooth over this point )
G01 F360.00000
G01 X-1.84911 Y-0.54518
G01 X-1.84915 Y-0.54639
G01 X-1.84976 Y-0.54830
G01 X-1.85097 Y-0.54990
G01 X-1.85265 Y-0.55100
G01 X-1.85460 Y-0.55148
G01 X-1.90080 Y-0.55143
G01 X-1.90235 Y-0.55100
G01 X-1.90403 Y-0.54990
G01 X-1.90524 Y-0.54830
G01 X-1.90585 Y-0.54639
G01 X-1.90578 Y-0.54438
G01 X-1.90505 Y-0.54251
G01 X-1.90373 Y-0.54100
G01 X-1.90198 Y-0.54002
G01 X-1.90000 Y-0.53968
G01 X-1.85420 Y-0.53973
G01 X-1.85303 Y-0.54002
G01 X-1.85194 Y-0.54054
G01 X-1.85097 Y-0.54127
G01 X-1.85018 Y-0.54218
G01 X-1.84932 Y-0.54399
G01 X-1.84911 Y-0.54518
G01 X-1.84915 Y-0.56326
G01 X-1.84976 Y-0.56517
G01 X-1.85097 Y-0.56677
G01 X-1.85265 Y-0.56787
G01 X-1.85460 Y-0.56835
G01 X-1.90080 Y-0.56831
G01 X-1.90235 Y-0.56787
G01 X-1.90403 Y-0.56677
G01 X-1.90524 Y-0.56517
G01 X-1.90585 Y-0.56326
G01 X-1.90578 Y-0.56125
G01 X-1.90505 Y-0.55939
G01 X-1.90373 Y-0.55788
G01 X-1.90198 Y-0.55689
G01 X-1.90000 Y-0.55655
G01 X-1.85420 Y-0.55661
G01 X-1.85303 Y-0.55689
G01 X-1.85194 Y-0.55741
G01 X-1.85097 Y-0.55814
G01 X-1.85018 Y-0.55905
G01 X-1.84932 Y-0.56086
G01 X-1.84911 Y-0.56205
G01 X-1.82520 Y-0.64598
G01 X-1.82552 Y-0.64406
G01 X-1.82863 Y-0.63771
G01 X-1.82989 Y-0.63603
G01 X-1.83127 Y-0.63507
G01 X-1.83799 Y-0.63184
G01 X-1.83954 Y-0.63164
G01 X-1.84837 Y-0.63165
G01 X-1.84990 Y-0.63196
G01 X-1.85244 Y-0.63317
G01 X-1.85334 Y-0.63250
G01 X-1.85443 Y-0.63198
G01 X-1.85561 Y-0.63169
G01 X-1.85681 Y-0.63165
G01 X-1.85876 Y-0.63213
G01 X-1.85982 Y-0.63272
G01 X-1.86073 Y-0.63351
G01 X-1.86183 Y-0.63519
G01 X-1.86230 Y-0.63714
G01 X-1.86232 Y-0.67691
G01 X-1.86219 Y-0.67811
G01 X-1.86183 Y-0.67926
G01 X-1.86123 Y-0.68032
G01 X-1.86044 Y-0.68123
G01 X-1.85948 Y-0.68196
G01 X-1.85800 Y-0.68260
G01 X-1.85641 Y-0.68282
G01 X-1.85482 Y-0.68260
G01 X-1.85334 Y-0.68196
G01 X-1.85238 Y-0.68123
G01 X-1.85159 Y-0.68032
G01 X-1.85085 Y-0.67889
G01 X-1.85051 Y-0.67691
G01 X-1.85051 Y-0.64561
G01 X-1.85010 Y-0.64521
G01 X-1.84658 Y-0.64345
G01 X-1.84093 Y-0.64345
G01 X-1.83831 Y-0.64475
G01 X-1.83701 Y-0.64737
G01 X-1.83701 Y-0.67691
G01 X-1.83679 Y-0.67851
G01 X-1.83634 Y-0.67963
G01 X-1.83568 Y-0.68064
G01 X-1.83451 Y-0.68174
G01 X-1.83345 Y-0.68233
G01 X-1.83191 Y-0.68276
G01 X-1.83030 Y-0.68276
G01 X-1.82912 Y-0.68248
G01 X-1.82770 Y-0.68174
G01 X-1.82679 Y-0.68094
G01 X-1.82569 Y-0.67926
G01 X-1.82521 Y-0.67732
G01 X-1.82520 Y-0.64598
G04 P0 ( dwell for no time -- G64 should not smooth over this point )
G00 Z0.08000 ( retract )

G00 X-1.63820 Y-0.55060 ( rapid move to begin. )
G01 F180.00000
( Mill infeed pass 1/1 )
G01 Z-0.04000
G04 P0 ( dwell for no time -- G64 should not smooth over this point )
G01 F360.00000
G01 X-1.63820 Y-0.55060
G01 X-1.63833 Y-0.54820
G01 X-1.63893 Y-0.54588
G01 X-1.63979 Y-0.54407
G01 X-1.64120 Y-0.54212
G01 X-1.64298 Y-0.54050
G01 X-1.64504 Y-0.53928
G01 X-1.64732 Y-0.53850
G01 X-1.64930 Y-0.53821
G01 X-1.65170 Y-0.53831
G01 X-1.65403 Y-0.53890
G01 X-1.65585 Y-0.53974
G01 X-1.65780 Y-0.54113
G01 X-1.65944 Y-0.54290
G01 X-1.66068 Y-0.54495
G01 X-1.66148 Y-0.54722
G01 X-1.66180 Y-0.54960
G01 X-1.66164 Y-0.55200
G01 X-1.66114 Y-0.55393
G01 X-1.66011 Y-0.55611
G01 X-1.65866 Y-0.55803
G01 X-1.65686 Y-0.55961
G01 X-1.65514 Y-0.56063
G01 X-1.65288 Y-0.56145
G01 X-1.65050 Y-0.56180
G01 X-1.64810 Y-0.56166
G01 X-1.64578 Y-0.56103
G01 X-1.64364 Y-0.55995
G01 X-1.64205 Y-0.55873
G01 X-1.64044 Y-0.55694
G01 X-1.63941 Y-0.55523
G01 X-1.63857 Y-0.55298
G01 X-1.63820 Y-0.55060
G01 X-1.55127 Y-0.55975
G01 X-1.55127 Y-0.53072
G01 X-1.56807 Y-0.49713
G01 X-1.58284 Y-0.48236
G01 X-1.61644 Y-0.46556
G01 X-1.73444 Y-0.46556
G01 X-1.73444 Y-0.62491
G01 X-1.61644 Y-0.62491
G01 X-1.58284 Y-0.60812
G01 X-1.56807 Y-0.59335
G01 X-1.55127 Y-0.55975
G04 P0 ( dwell for no time -- G64 should not smooth over this point )
G00 Z0.08000 ( retract )

G00 X-1.08412 Y-0.02601 ( rapid move to begin. )
G01 F180.00000
( Mill infeed pass 1/1 )
G01 Z-0.04000
G04 P0 ( dwell for no time -- G64 should not smooth over this point )
G01 F360.00000
G01 X-1.08412 Y-0.02601
G01 X-1.08415 Y-0.02762
G01 X-1.08479 Y-0.02952
G01 X-1.08574 Y-0.03082
G01 X-1.08736 Y-0.03200
G01 X-1.08928 Y-0.03258
G01 X-1.09129 Y-0.03247
G01 X-1.09243 Y-0.03209
G01 X-1.09347 Y-0.03148
G01 X-1.09463 Y-0.03036
G01 X-1.10546 Y-0.01659
G01 X-1.11628 Y-0.03036
G01 X-1.11743 Y-0.03148
G01 X-1.11848 Y-0.03209
G01 X-1.11962 Y-0.03247
G01 X-1.12163 Y-0.03258
G01 X-1.12355 Y-0.03200
G01 X-1.12517 Y-0.03082
G01 X-1.12612 Y-0.02952
G01 X-1.12676 Y-0.02762
G01 X-1.12678 Y-0.02601
G01 X-1.12621 Y-0.02409
G01 X-1.12556 Y-0.02307
G01 X-1.11296 Y-0.00703
G01 X-1.12556 Y0.00901
G01 X-1.12621 Y0.01003
G01 X-1.12678 Y0.01195
G01 X-1.12676 Y0.01356
G01 X-1.12630 Y0.01510
G01 X-1.12517 Y0.01676
G01 X-1.12355 Y0.01794
G01 X-1.12163 Y0.01852
G01 X-1.12042 Y0.01854
G01 X-1.11923 Y0.01831
G01 X-1.11743 Y0.01742
G01 X-1.11628 Y0.01630
G01 X-1.10546 Y0.00253
G01 X-1.09437 Y0.01661
G01 X-1.09314 Y0.01765
G01 X-1.09206 Y0.01818
G01 X-1.09049 Y0.01854
G01 X-1.08888 Y0.01845
G01 X-1.08700 Y0.01775
G01 X-1.08574 Y0.01676
G01 X-1.08461 Y0.01510
G01 X-1.08415 Y0.01356
G01 X-1.08412 Y0.01195
G01 X-1.08453 Y0.01039
G01 X-1.08534 Y0.00901
G01 X-1.09794 Y-0.00703
G01 X-1.08534 Y-0.02307
G01 X-1.08470 Y-0.02409
G01 X-1.08412 Y-0.02601
G04 P0 ( dwell for no time -- G64 should not smooth over this point )
G00 Z0.08000 ( retract )

G00 X-0.99508 Y-0.05000 ( rapid move to begin. )
G01 F180.00000
( Mill infeed pass 1/1 )
G01 Z-0.04000
G04 P0 ( dwell for no time -- G64 should not smooth over this point )
G01 F360.00000
G01 X-0.99508 Y-0.05000
G01 X-0.99514 Y-0.04919
G01 X-0.99549 Y-0.04802
G01 X-0.99638 Y-0.04667
G01 X-0.99766 Y-0.04567
G01 X-0.99919 Y-0.04514
G01 X-1.00081 Y-0.04514
G01 X-1.00234 Y-0.04567
G01 X-1.00362 Y-0.04667
G01 X-1.00450 Y-0.04802
G01 X-1.00490 Y-0.04959
G01 X-1.00490 Y-0.10041
G01 X-1.00450 Y-0.10198
G01 X-1.00362 Y-0.10333
G01 X-1.00234 Y-0.10433
G01 X-1.00121 Y-0.10477
G01 X-1.00040 Y-0.10490
G01 X-0.99879 Y-0.10477
G01 X-0.99766 Y-0.10433
G01 X-0.99698 Y-0.10388
G01 X-0.99612 Y-0.10302
G01 X-0.99567 Y-0.10234
G01 X-0.99523 Y-0.10121
G01 X-0.99509 Y-0.10041
G01 X-0.99508 Y-0.05000
G01 X-1.01660 Y0.00462
G01 X-1.01665 Y0.00341
G01 X-1.01725 Y0.00150
G01 X-1.01847 Y-0.00010
G01 X-1.02014 Y-0.00120
G01 X-1.02209 Y-0.00167
G01 X-1.06829 Y-0.00163
G01 X-1.06984 Y-0.00120
G01 X-1.07152 Y-0.00010
G01 X-1.07273 Y0.00150
G01 X-1.07334 Y0.00341
G01 X-1.07327 Y0.00542
G01 X-1.07254 Y0.00729
G01 X-1.07122 Y0.00880
G01 X-1.06947 Y0.00978
G01 X-1.06749 Y0.01012
G01 X-1.02169 Y0.01007
G01 X-1.02052 Y0.00978
G01 X-1.01943 Y0.00926
G01 X-1.01847 Y0.00853
G01 X-1.01767 Y0.00762
G01 X-1.01681 Y0.00581
G01 X-1.01660 Y0.00462
G01 X-1.01660 Y-0.01225
G01 X-1.01681 Y-0.01106
G01 X-1.01767 Y-0.00925
G01 X-1.01847 Y-0.00834
G01 X-1.01943 Y-0.00761
G01 X-1.02052 Y-0.00709
G01 X-1.02169 Y-0.00680
G01 X-1.06749 Y-0.00675
G01 X-1.06947 Y-0.00709
G01 X-1.07122 Y-0.00807
G01 X-1.07254 Y-0.00958
G01 X-1.07327 Y-0.01145
G01 X-1.07334 Y-0.01346
G01 X-1.07273 Y-0.01537
G01 X-1.07152 Y-0.01697
G01 X-1.06984 Y-0.01807
G01 X-1.06829 Y-0.01850
G01 X-1.02209 Y-0.01854
G01 X-1.02014 Y-0.01807
G01 X-1.01847 Y-0.01697
G01 X-1.01725 Y-0.01537
G01 X-1.01665 Y-0.01346
G01 X-1.01660 Y-0.01225
G01 X-1.02018 Y-0.92780
G01 X-1.02021 Y-0.66226
G01 X-1.02056 Y-0.65863
G01 X-1.02135 Y-0.65465
G01 X-1.02241 Y-0.65116
G01 X-1.02395 Y-0.64741
G01 X-1.04849 Y-0.59834
G01 X-1.05122 Y-0.59389
G01 X-1.05452 Y-0.58984
G01 X-1.05680 Y-0.58758
G01 X-1.05958 Y-0.58526
G01 X-1.06223 Y-0.58343
G01 X-1.06501 Y-0.58182
G01 X-1.11371 Y-0.55746
G01 X-1.11706 Y-0.55602
G01 X-1.12092 Y-0.55478
G01 X-1.12569 Y-0.55384
G01 X-1.13055 Y-0.55349
G01 X-1.22660 Y-0.55349
G01 X-1.23024 Y-0.55370
G01 X-1.23345 Y-0.55416
G01 X-1.23817 Y-0.55535
G01 X-1.24307 Y-0.55729
G01 X-1.29141 Y-0.58145
G01 X-1.29388 Y-0.58280
G01 X-1.29658 Y-0.58455
G01 X-1.29881 Y-0.58625
G01 X-1.30092 Y-0.58811
G01 X-1.30420 Y-0.59164
G01 X-1.30681 Y-0.59520
G01 X-1.30918 Y-0.59939
G01 X-1.31103 Y-0.60384
G01 X-1.31232 Y-0.60847
G01 X-1.31303 Y-0.61324
G01 X-1.31315 Y-0.61805
G01 X-1.31269 Y-0.62285
G01 X-1.31164 Y-0.62755
G01 X-1.31019 Y-0.63172
G01 X-1.30808 Y-0.63604
G01 X-1.30546 Y-0.64008
G01 X-1.30236 Y-0.64377
G01 X-1.29884 Y-0.64706
G01 X-1.29528 Y-0.64967
G01 X-1.29109 Y-0.65204
G01 X-1.28777 Y-0.65348
G01 X-1.28472 Y-0.65449
G01 X-1.28121 Y-0.65533
G01 X-1.27764 Y-0.65585
G01 X-1.27403 Y-0.65604
G01 X-1.27042 Y-0.65589
G01 X-1.26723 Y-0.65548
G01 X-1.26370 Y-0.65472
G01 X-1.26025 Y-0.65363
G01 X-1.25692 Y-0.65223
G01 X-1.21690 Y-0.63223
G01 X-1.14024 Y-0.63223
G01 X-1.11268 Y-0.64601
G01 X-1.09889 Y-0.67358
G01 X-1.09889 Y-0.68757
G01 X-1.11644 Y-0.69634
G01 X-1.22660 Y-0.69635
G01 X-1.23064 Y-0.69660
G01 X-1.23504 Y-0.69735
G01 X-1.23894 Y-0.69846
G01 X-1.24307 Y-0.70014
G01 X-1.29249 Y-0.72486
G01 X-1.29559 Y-0.72673
G01 X-1.29882 Y-0.72912
G01 X-1.30150 Y-0.73154
G01 X-1.30396 Y-0.73420
G01 X-1.30661 Y-0.73774
G01 X-1.30902 Y-0.74191
G01 X-1.33301 Y-0.78990
G01 X-1.33446 Y-0.79325
G01 X-1.33558 Y-0.79672
G01 X-1.33658 Y-0.80148
G01 X-1.33698 Y-0.80633
G01 X-1.33699 Y-0.85517
G01 X-1.33674 Y-0.85921
G01 X-1.33607 Y-0.86321
G01 X-1.33500 Y-0.86712
G01 X-1.33336 Y-0.87127
G01 X-1.30847 Y-0.92106
G01 X-1.30569 Y-0.92548
G01 X-1.30235 Y-0.92950
G01 X-1.30004 Y-0.93174
G01 X-1.29756 Y-0.93378
G01 X-1.29525 Y-0.93540
G01 X-1.29249 Y-0.93704
G01 X-1.24380 Y-0.96140
G01 X-1.24046 Y-0.96288
G01 X-1.23700 Y-0.96405
G01 X-1.23345 Y-0.96488
G01 X-1.22984 Y-0.96539
G01 X-1.22619 Y-0.96556
G01 X-1.10511 Y-0.96551
G01 X-1.09988 Y-0.96488
G01 X-1.09478 Y-0.96357
G01 X-1.09063 Y-0.96193
G01 X-1.08272 Y-0.95800
G01 X-1.07978 Y-0.95995
G01 X-1.07696 Y-0.96149
G01 X-1.07366 Y-0.96293
G01 X-1.07061 Y-0.96396
G01 X-1.06750 Y-0.96474
G01 X-1.06433 Y-0.96527
G01 X-1.06073 Y-0.96554
G01 X-1.05752 Y-0.96551
G01 X-1.05432 Y-0.96521
G01 X-1.05076 Y-0.96457
G01 X-1.04766 Y-0.96373
G01 X-1.04427 Y-0.96249
G01 X-1.04101 Y-0.96093
G01 X-1.03790 Y-0.95909
G01 X-1.03497 Y-0.95697
G01 X-1.03255 Y-0.95487
G01 X-1.02977 Y-0.95197
G01 X-1.02753 Y-0.94913
G01 X-1.02536 Y-0.94576
G01 X-1.02371 Y-0.94254
G01 X-1.02223 Y-0.93881
G01 X-1.02123 Y-0.93534
G01 X-1.02050 Y-0.93139
G01 X-1.02018 Y-0.92780
G01 X-0.88820 Y-0.45060
G01 X-0.88833 Y-0.44820
G01 X-0.88900 Y-0.44573
G01 X-0.88979 Y-0.44406
G01 X-0.89120 Y-0.44212
G01 X-0.89298 Y-0.44050
G01 X-0.89504 Y-0.43928
G01 X-0.89731 Y-0.43850
G01 X-0.89930 Y-0.43821
G01 X-0.90170 Y-0.43831
G01 X-0.90403 Y-0.43890
G01 X-0.90585 Y-0.43974
G01 X-0.90780 Y-0.44113
G01 X-0.90944 Y-0.44290
G01 X-0.91068 Y-0.44495
G01 X-0.91148 Y-0.44722
G01 X-0.91180 Y-0.44960
G01 X-0.91164 Y-0.45200
G01 X-0.91114 Y-0.45393
G01 X-0.91011 Y-0.45611
G01 X-0.90866 Y-0.45803
G01 X-0.90686 Y-0.45961
G01 X-0.90514 Y-0.46064
G01 X-0.90288 Y-0.46145
G01 X-0.90050 Y-0.46180
G01 X-0.89810 Y-0.46166
G01 X-0.89578 Y-0.46103
G01 X-0.89364 Y-0.45995
G01 X-0.89205 Y-0.45873
G01 X-0.89044 Y-0.45694
G01 X-0.88941 Y-0.45523
G01 X-0.88857 Y-0.45298
G01 X-0.88820 Y-0.45060
G01 X-0.95755 Y-0.02631
G01 X-0.95759 Y-0.02752
G01 X-0.95788 Y-0.02869
G01 X-0.95862 Y-0.03012
G01 X-0.96004 Y-0.03154
G01 X-0.96146 Y-0.03228
G01 X-0.96304 Y-0.03261
G01 X-0.99719 Y-0.03262
G01 X-0.99916 Y-0.03228
G01 X-1.00059 Y-0.03154
G01 X-1.00177 Y-0.03044
G01 X-1.00260 Y-0.02907
G01 X-1.00297 Y-0.02792
G01 X-1.00308 Y-0.02631
G01 X-1.00275 Y-0.02474
G01 X-1.00201 Y-0.02331
G01 X-1.00122 Y-0.02240
G01 X-0.99954 Y-0.02130
G01 X-0.99799 Y-0.02086
G01 X-0.98622 Y-0.02081
G01 X-0.98622 Y0.01527
G01 X-0.98766 Y0.01384
G01 X-0.98859 Y0.01318
G01 X-0.99455 Y0.01018
G01 X-0.99647 Y0.00960
G01 X-0.99808 Y0.00963
G01 X-0.99924 Y0.00993
G01 X-1.00066 Y0.01069
G01 X-1.00156 Y0.01150
G01 X-1.00228 Y0.01247
G01 X-1.00278 Y0.01357
G01 X-1.00308 Y0.01515
G01 X-1.00303 Y0.01635
G01 X-1.00272 Y0.01752
G01 X-1.00196 Y0.01894
G01 X-1.00085 Y0.02010
G01 X-0.99983 Y0.02075
G01 X-0.99506 Y0.02313
G01 X-0.99053 Y0.02766
G01 X-0.98499 Y0.03595
G01 X-0.98415 Y0.03683
G01 X-0.98314 Y0.03752
G01 X-0.98202 Y0.03799
G01 X-0.98082 Y0.03822
G01 X-0.97960 Y0.03820
G01 X-0.97803 Y0.03778
G01 X-0.97696 Y0.03720
G01 X-0.97603 Y0.03640
G01 X-0.97508 Y0.03508
G01 X-0.97463 Y0.03395
G01 X-0.97441 Y0.03234
G01 X-0.97441 Y-0.02081
G01 X-0.96304 Y-0.02082
G01 X-0.96185 Y-0.02103
G01 X-0.96073 Y-0.02147
G01 X-0.95913 Y-0.02268
G01 X-0.95803 Y-0.02436
G01 X-0.95755 Y-0.02631
G01 X-0.88820 Y-0.45060
G01 X-0.93223 Y0.01265
G01 X-0.93257 Y0.01463
G01 X-0.93355 Y0.01638
G01 X-0.93506 Y0.01770
G01 X-0.93693 Y0.01843
G01 X-0.93894 Y0.01850
G01 X-0.94085 Y0.01790
G01 X-0.94245 Y0.01668
G01 X-0.94355 Y0.01501
G01 X-0.94398 Y0.01346
G01 X-0.94398 Y-0.02752
G01 X-0.94355 Y-0.02907
G01 X-0.94245 Y-0.03075
G01 X-0.94085 Y-0.03196
G01 X-0.93894 Y-0.03256
G01 X-0.93773 Y-0.03261
G01 X-0.93654 Y-0.03240
G01 X-0.93473 Y-0.03154
G01 X-0.93382 Y-0.03075
G01 X-0.93309 Y-0.02978
G01 X-0.93257 Y-0.02869
G01 X-0.93228 Y-0.02752
G01 X-0.93223 Y0.01265
G01 X-0.92942 Y0.02933
G01 X-0.92969 Y0.02774
G01 X-0.93017 Y0.02663
G01 X-0.93114 Y0.02535
G01 X-0.93415 Y0.02235
G01 X-0.93514 Y0.02162
G01 X-0.93713 Y0.02090
G01 X-0.93833 Y0.02081
G01 X-0.93953 Y0.02098
G01 X-0.94100 Y0.02156
G01 X-0.94201 Y0.02226
G01 X-0.94565 Y0.02596
G01 X-0.94628 Y0.02699
G01 X-0.94676 Y0.02852
G01 X-0.94685 Y0.02973
G01 X-0.94668 Y0.03093
G01 X-0.94609 Y0.03242
G01 X-0.94539 Y0.03341
G01 X-0.94154 Y0.03716
G01 X-0.94048 Y0.03775
G01 X-0.93914 Y0.03816
G01 X-0.93793 Y0.03824
G01 X-0.93673 Y0.03808
G01 X-0.93541 Y0.03758
G01 X-0.93425 Y0.03679
G01 X-0.93087 Y0.03341
G01 X-0.93017 Y0.03242
G01 X-0.92958 Y0.03093
G01 X-0.92942 Y0.02933
G04 P0 ( dwell for no time -- G64 should not smooth over this point )
G00 Z0.08000 ( retract )

G00 X-0.87879 Y0.00422 ( rapid move to begin. )
G01 F180.00000
( Mill infeed pass 1/1 )
G01 Z-0.04000
G04 P0 ( dwell for no time -- G64 should not smooth over this point )
G01 F360.00000
G01 X-0.87879 Y0.00422
G01 X-0.87881 Y-0.02712
G01 X-0.87928 Y-0.02907
G01 X-0.88038 Y-0.03075
G01 X-0.88130 Y-0.03154
G01 X-0.88272 Y-0.03228
G01 X-0.88390 Y-0.03256
G01 X-0.88550 Y-0.03256
G01 X-0.88705 Y-0.03213
G01 X-0.88811 Y-0.03154
G01 X-0.88928 Y-0.03044
G01 X-0.88994 Y-0.02943
G01 X-0.89039 Y-0.02831
G01 X-0.89061 Y-0.02671
G01 X-0.89061 Y0.00282
G01 X-0.89192 Y0.00544
G01 X-0.89453 Y0.00675
G01 X-0.90018 Y0.00675
G01 X-0.90370 Y0.00499
G01 X-0.90411 Y0.00458
G01 X-0.90411 Y-0.02671
G01 X-0.90445 Y-0.02869
G01 X-0.90519 Y-0.03012
G01 X-0.90598 Y-0.03103
G01 X-0.90694 Y-0.03176
G01 X-0.90842 Y-0.03240
G01 X-0.91001 Y-0.03262
G01 X-0.91160 Y-0.03240
G01 X-0.91308 Y-0.03176
G01 X-0.91404 Y-0.03103
G01 X-0.91483 Y-0.03012
G01 X-0.91543 Y-0.02907
G01 X-0.91579 Y-0.02792
G01 X-0.91592 Y-0.02671
G01 X-0.91590 Y0.01306
G01 X-0.91543 Y0.01501
G01 X-0.91433 Y0.01668
G01 X-0.91342 Y0.01748
G01 X-0.91236 Y0.01807
G01 X-0.91041 Y0.01854
G01 X-0.90921 Y0.01850
G01 X-0.90803 Y0.01822
G01 X-0.90694 Y0.01770
G01 X-0.90604 Y0.01702
G01 X-0.90349 Y0.01824
G01 X-0.90196 Y0.01855
G01 X-0.89314 Y0.01856
G01 X-0.89159 Y0.01835
G01 X-0.88487 Y0.01512
G01 X-0.88349 Y0.01416
G01 X-0.88223 Y0.01248
G01 X-0.87912 Y0.00614
G01 X-0.87879 Y0.00422

G04 P0 ( dwell for no time -- G64 should not smooth over this point )
G00 Z1.000000 ( retract )

M5 ( Spindle off. )
G04 P1.000000
M9 ( Coolant off. )
M2 ( Program end. )

