( pcb2gcode 2.5.0 )
( Software-independent Gcode )

G94 ( Inches per minute feed rate. )
G20 ( Units == INCHES. )

G90 ( Absolute coordinates. )
G00 S12000 ( RPM spindle speed. )
G64 P0.00040 ( set maximum deviation from commanded toolpath )
G01 F360.00000 ( Feedrate. )


G00 Z1.00000 (Retract to tool change height)
T1
M5      (Spindle stop.)
G04 P1.00000 (Wait for spindle to stop)
(MSG, Change tool bit to mill diameter 0.00000in)
M6      (Tool change.)
M0      (Temporary machine stop.)
M3 ( Spindle on clockwise. )
G04 P1.00000 (Wait for spindle to get up to speed)
G04 P0 ( dwell for no time -- G64 should not smooth over this point )
G00 Z0.08000 ( retract )

G00 X0.05000 Y-0.00492 ( rapid move to begin. )
G01 F180.00000
( Mill infeed pass 1/1 )
G01 Z-0.04000
G04 P0 ( dwell for no time -- G64 should not smooth over this point )
G01 F360.00000
G01 X0.05000 Y-0.00492
G01 X0.00492 Y-0.00492
G01 X0.00492 Y-0.05000
G01 X0.00455 Y-0.05188
G01 X0.00348 Y-0.05348
G01 X0.00188 Y-0.05455
G01 X-0.00000 Y-0.05492
G01 X-0.00188 Y-0.05455
G01 X-0.00348 Y-0.05348
G01 X-0.00455 Y-0.05188
G01 X-0.00492 Y-0.05000
G01 X-0.00492 Y-0.00492
G01 X-0.05000 Y-0.00492
G01 X-0.05188 Y-0.00455
G01 X-0.05348 Y-0.00348
G01 X-0.05455 Y-0.00188
G01 X-0.05492 Y0.00000
G01 X-0.05455 Y0.00188
G01 X-0.05348 Y0.00348
G01 X-0.05188 Y0.00455
G01 X-0.05000 Y0.00492
G01 X-0.00492 Y0.00492
G01 X-0.00492 Y0.05000
G01 X0.00492 Y0.05000
G01 X0.00492 Y0.00492
G01 X0.05000 Y0.00483
G01 X0.05000 Y-0.00492
G01 X-0.16301 Y-0.59286
G01 X-0.16377 Y-0.58518
G01 X-0.16601 Y-0.57779
G01 X-0.16964 Y-0.57098
G01 X-0.17454 Y-0.56502
G01 X-0.18051 Y-0.56012
G01 X-0.18731 Y-0.55648
G01 X-0.19470 Y-0.55424
G01 X-0.20238 Y-0.55349
G01 X-0.21006 Y-0.55424
G01 X-0.21745 Y-0.55648
G01 X-0.22425 Y-0.56012
G01 X-0.23022 Y-0.56502
G01 X-0.35349 Y-0.68829
G01 X-0.35349 Y-0.42619
G01 X-0.35424 Y-0.41851
G01 X-0.35648 Y-0.41112
G01 X-0.36012 Y-0.40432
G01 X-0.36502 Y-0.39835
G01 X-0.37098 Y-0.39345
G01 X-0.37779 Y-0.38982
G01 X-0.38518 Y-0.38758
G01 X-0.39286 Y-0.38682
G01 X-0.40054 Y-0.38758
G01 X-0.40792 Y-0.38982
G01 X-0.41473 Y-0.39345
G01 X-0.42069 Y-0.39835
G01 X-0.42559 Y-0.40432
G01 X-0.42923 Y-0.41112
G01 X-0.43147 Y-0.41851
G01 X-0.43223 Y-0.42619
G01 X-0.43223 Y-0.92619
G01 X-0.43147 Y-0.93387
G01 X-0.42923 Y-0.94126
G01 X-0.42559 Y-0.94806
G01 X-0.42069 Y-0.95403
G01 X-0.41473 Y-0.95893
G01 X-0.40792 Y-0.96256
G01 X-0.40054 Y-0.96480
G01 X-0.39286 Y-0.96556
G01 X-0.38518 Y-0.96480
G01 X-0.37779 Y-0.96256
G01 X-0.37098 Y-0.95893
G01 X-0.36502 Y-0.95403
G01 X-0.36012 Y-0.94806
G01 X-0.35648 Y-0.94126
G01 X-0.35424 Y-0.93387
G01 X-0.35349 Y-0.92619
G01 X-0.35349 Y-0.79964
G01 X-0.34950 Y-0.79565
G01 X-0.23388 Y-0.94981
G01 X-0.22866 Y-0.95550
G01 X-0.22244 Y-0.96007
G01 X-0.21544 Y-0.96333
G01 X-0.20795 Y-0.96516
G01 X-0.20024 Y-0.96550
G01 X-0.19261 Y-0.96433
G01 X-0.18536 Y-0.96169
G01 X-0.17876 Y-0.95769
G01 X-0.17307 Y-0.95247
G01 X-0.16850 Y-0.94625
G01 X-0.16524 Y-0.93925
G01 X-0.16340 Y-0.93176
G01 X-0.16307 Y-0.92405
G01 X-0.16424 Y-0.91642
G01 X-0.16688 Y-0.90917
G01 X-0.17088 Y-0.90257
G01 X-0.29325 Y-0.73941
G01 X-0.17454 Y-0.62069
G01 X-0.16964 Y-0.61473
G01 X-0.16601 Y-0.60792
G01 X-0.16377 Y-0.60054
G01 X-0.16301 Y-0.59286
G04 P0 ( dwell for no time -- G64 should not smooth over this point )
G00 Z0.08000 ( retract )

G00 X-0.56787 Y-0.89959 ( rapid move to begin. )
G01 F180.00000
( Mill infeed pass 1/1 )
G01 Z-0.04000
G04 P0 ( dwell for no time -- G64 should not smooth over this point )
G01 F360.00000
G01 X-0.56787 Y-0.89959
G01 X-0.56808 Y-0.90730
G01 X-0.56979 Y-0.91483
G01 X-0.57294 Y-0.92188
G01 X-0.57740 Y-0.92817
G01 X-0.58300 Y-0.93348
G01 X-0.58953 Y-0.93759
G01 X-0.63715 Y-0.96140
G01 X-0.64572 Y-0.96451
G01 X-0.65476 Y-0.96556
G01 X-0.75000 Y-0.96556
G01 X-0.75904 Y-0.96451
G01 X-0.76761 Y-0.96140
G01 X-0.81523 Y-0.93759
G01 X-0.82064 Y-0.93432
G01 X-0.82546 Y-0.93022
G01 X-0.84927 Y-0.90641
G01 X-0.85337 Y-0.90159
G01 X-0.85664 Y-0.89618
G01 X-0.88045 Y-0.84856
G01 X-0.88355 Y-0.84000
G01 X-0.88461 Y-0.83095
G01 X-0.88461 Y-0.68810
G01 X-0.88355 Y-0.67905
G01 X-0.88045 Y-0.67049
G01 X-0.85664 Y-0.62287
G01 X-0.85337 Y-0.61746
G01 X-0.84927 Y-0.61264
G01 X-0.82546 Y-0.58883
G01 X-0.82064 Y-0.58473
G01 X-0.81522 Y-0.58145
G01 X-0.76761 Y-0.55764
G01 X-0.75904 Y-0.55454
G01 X-0.75000 Y-0.55349
G01 X-0.65476 Y-0.55349
G01 X-0.64572 Y-0.55454
G01 X-0.63715 Y-0.55764
G01 X-0.58954 Y-0.58145
G01 X-0.58300 Y-0.58556
G01 X-0.57740 Y-0.59087
G01 X-0.57294 Y-0.59717
G01 X-0.56979 Y-0.60421
G01 X-0.56808 Y-0.61174
G01 X-0.56787 Y-0.61946
G01 X-0.56917 Y-0.62706
G01 X-0.57193 Y-0.63427
G01 X-0.57604 Y-0.64080
G01 X-0.58135 Y-0.64641
G01 X-0.58764 Y-0.65087
G01 X-0.59469 Y-0.65402
G01 X-0.60222 Y-0.65573
G01 X-0.60993 Y-0.65594
G01 X-0.61754 Y-0.65464
G01 X-0.62475 Y-0.65188
G01 X-0.66405 Y-0.63223
G01 X-0.74071 Y-0.63223
G01 X-0.77430 Y-0.64902
G01 X-0.78907 Y-0.66380
G01 X-0.80587 Y-0.69739
G01 X-0.80587 Y-0.82166
G01 X-0.78907 Y-0.85525
G01 X-0.77430 Y-0.87002
G01 X-0.74070 Y-0.88682
G01 X-0.66405 Y-0.88682
G01 X-0.62475 Y-0.86717
G01 X-0.61754 Y-0.86441
G01 X-0.60993 Y-0.86311
G01 X-0.60222 Y-0.86332
G01 X-0.59469 Y-0.86503
G01 X-0.58764 Y-0.86818
G01 X-0.58135 Y-0.87264
G01 X-0.57604 Y-0.87824
G01 X-0.57193 Y-0.88477
G01 X-0.56917 Y-0.89198
G01 X-0.56787 Y-0.89959
G04 P0 ( dwell for no time -- G64 should not smooth over this point )
G00 Z0.08000 ( retract )

G00 X-1.09889 Y-0.87805 ( rapid move to begin. )
G01 F180.00000
( Mill infeed pass 1/1 )
G01 Z-0.04000
G04 P0 ( dwell for no time -- G64 should not smooth over this point )
G01 F360.00000
G01 X-1.09889 Y-0.87805
G01 X-1.09889 Y-0.77412
G01 X-1.10714 Y-0.77508
G01 X-1.21690 Y-0.77508
G01 X-1.24446 Y-0.78887
G01 X-1.25825 Y-0.81644
G01 X-1.25825 Y-0.84547
G01 X-1.24446 Y-0.87304
G01 X-1.21690 Y-0.88682
G01 X-1.11644 Y-0.88682
G01 X-1.09889 Y-0.87805
G04 P0 ( dwell for no time -- G64 should not smooth over this point )
G00 Z0.08000 ( retract )

G00 X-1.44872 Y-0.83095 ( rapid move to begin. )
G01 F180.00000
( Mill infeed pass 1/1 )
G01 Z-0.04000
G04 P0 ( dwell for no time -- G64 should not smooth over this point )
G01 F360.00000
G01 X-1.44872 Y-0.83095
G01 X-1.44872 Y-0.75952
G01 X-1.44978 Y-0.75048
G01 X-1.45288 Y-0.74192
G01 X-1.47669 Y-0.69430
G01 X-1.47996 Y-0.68888
G01 X-1.48406 Y-0.68406
G01 X-1.50788 Y-0.66026
G01 X-1.51502 Y-0.65460
G01 X-1.51703 Y-0.65366
G01 X-1.50787 Y-0.64450
G01 X-1.50378 Y-0.63968
G01 X-1.50050 Y-0.63427
G01 X-1.47669 Y-0.58665
G01 X-1.47359 Y-0.57809
G01 X-1.47253 Y-0.56905
G01 X-1.47253 Y-0.52143
G01 X-1.47359 Y-0.51238
G01 X-1.47669 Y-0.50382
G01 X-1.50050 Y-0.45620
G01 X-1.50378 Y-0.45079
G01 X-1.50788 Y-0.44597
G01 X-1.53168 Y-0.42216
G01 X-1.53650 Y-0.41806
G01 X-1.54191 Y-0.41479
G01 X-1.58953 Y-0.39098
G01 X-1.59810 Y-0.38787
G01 X-1.60714 Y-0.38682
G01 X-1.77381 Y-0.38682
G01 X-1.78149 Y-0.38758
G01 X-1.78887 Y-0.38982
G01 X-1.79568 Y-0.39345
G01 X-1.80165 Y-0.39835
G01 X-1.80654 Y-0.40432
G01 X-1.81018 Y-0.41112
G01 X-1.81242 Y-0.41851
G01 X-1.81318 Y-0.42619
G01 X-1.81318 Y-0.92619
G01 X-1.81242 Y-0.93387
G01 X-1.81018 Y-0.94126
G01 X-1.80654 Y-0.94806
G01 X-1.80165 Y-0.95403
G01 X-1.79568 Y-0.95893
G01 X-1.78887 Y-0.96256
G01 X-1.78149 Y-0.96480
G01 X-1.77381 Y-0.96556
G01 X-1.58333 Y-0.96556
G01 X-1.57429 Y-0.96451
G01 X-1.56573 Y-0.96140
G01 X-1.51811 Y-0.93759
G01 X-1.51269 Y-0.93432
G01 X-1.50788 Y-0.93022
G01 X-1.48406 Y-0.90641
G01 X-1.47996 Y-0.90159
G01 X-1.47669 Y-0.89618
G01 X-1.45288 Y-0.84856
G01 X-1.44978 Y-0.84000
G01 X-1.44872 Y-0.83095
G04 P0 ( dwell for no time -- G64 should not smooth over this point )
G00 Z0.08000 ( retract )

G00 X-1.52747 Y-0.82166 ( rapid move to begin. )
G01 F180.00000
( Mill infeed pass 1/1 )
G01 Z-0.04000
G04 P0 ( dwell for no time -- G64 should not smooth over this point )
G01 F360.00000
G01 X-1.52747 Y-0.82166
G01 X-1.54426 Y-0.85525
G01 X-1.55903 Y-0.87002
G01 X-1.59263 Y-0.88682
G01 X-1.73444 Y-0.88682
G01 X-1.73444 Y-0.70366
G01 X-1.61353 Y-0.70366
G01 X-1.55698 Y-0.72250
G01 X-1.54426 Y-0.73523
G01 X-1.52747 Y-0.76882
G01 X-1.52747 Y-0.82166
G01 X-1.63819 Y-0.80000
G01 X-1.63841 Y-0.80230
G01 X-1.63909 Y-0.80452
G01 X-1.64018 Y-0.80656
G01 X-1.64165 Y-0.80835
G01 X-1.64344 Y-0.80982
G01 X-1.64548 Y-0.81091
G01 X-1.64769 Y-0.81158
G01 X-1.65000 Y-0.81181
G01 X-1.65230 Y-0.81158
G01 X-1.65452 Y-0.81091
G01 X-1.65656 Y-0.80982
G01 X-1.65835 Y-0.80835
G01 X-1.65982 Y-0.80656
G01 X-1.66091 Y-0.80452
G01 X-1.66158 Y-0.80230
G01 X-1.66181 Y-0.80000
G01 X-1.66158 Y-0.79770
G01 X-1.66091 Y-0.79548
G01 X-1.65982 Y-0.79344
G01 X-1.65835 Y-0.79165
G01 X-1.65656 Y-0.79018
G01 X-1.65452 Y-0.78909
G01 X-1.65230 Y-0.78841
G01 X-1.65000 Y-0.78819
G01 X-1.64769 Y-0.78841
G01 X-1.64548 Y-0.78909
G01 X-1.64344 Y-0.79018
G01 X-1.64165 Y-0.79165
G01 X-1.64018 Y-0.79344
G01 X-1.63909 Y-0.79548
G01 X-1.63841 Y-0.79770
G01 X-1.63819 Y-0.80000
G04 P0 ( dwell for no time -- G64 should not smooth over this point )
G00 Z0.08000 ( retract )

G00 X-1.91660 Y-0.53685 ( rapid move to begin. )
G01 F180.00000
( Mill infeed pass 1/1 )
G01 Z-0.04000
G04 P0 ( dwell for no time -- G64 should not smooth over this point )
G01 F360.00000
G01 X-1.91660 Y-0.53685
G01 X-1.91677 Y-0.53571
G01 X-1.91716 Y-0.53462
G01 X-1.91776 Y-0.53363
G01 X-1.91853 Y-0.53277
G01 X-1.91946 Y-0.53208
G01 X-1.92051 Y-0.53159
G01 X-1.92163 Y-0.53131
G01 X-1.92279 Y-0.53125
G01 X-1.92393 Y-0.53142
G01 X-1.92502 Y-0.53181
G01 X-1.92602 Y-0.53241
G01 X-1.92687 Y-0.53318
G01 X-1.92756 Y-0.53412
G01 X-1.92806 Y-0.53516
G01 X-1.93656 Y-0.55896
G01 X-1.94506 Y-0.53516
G01 X-1.94555 Y-0.53411
G01 X-1.94624 Y-0.53318
G01 X-1.94710 Y-0.53241
G01 X-1.94809 Y-0.53181
G01 X-1.94918 Y-0.53142
G01 X-1.95032 Y-0.53125
G01 X-1.95148 Y-0.53131
G01 X-1.95260 Y-0.53159
G01 X-1.95365 Y-0.53208
G01 X-1.95458 Y-0.53277
G01 X-1.95536 Y-0.53363
G01 X-1.95596 Y-0.53462
G01 X-1.95635 Y-0.53571
G01 X-1.95652 Y-0.53685
G01 X-1.95646 Y-0.53801
G01 X-1.95618 Y-0.53913
G01 X-1.94287 Y-0.57640
G01 X-1.94721 Y-0.58726
G01 X-1.94849 Y-0.58854
G01 X-1.95424 Y-0.59154
G01 X-1.95508 Y-0.59233
G01 X-1.95575 Y-0.59328
G01 X-1.95622 Y-0.59433
G01 X-1.95648 Y-0.59546
G01 X-1.95651 Y-0.59662
G01 X-1.95631 Y-0.59776
G01 X-1.95590 Y-0.59884
G01 X-1.95528 Y-0.59982
G01 X-1.95449 Y-0.60066
G01 X-1.95354 Y-0.60133
G01 X-1.95249 Y-0.60181
G01 X-1.95136 Y-0.60206
G01 X-1.95020 Y-0.60209
G01 X-1.94906 Y-0.60190
G01 X-1.94235 Y-0.59867
G01 X-1.94082 Y-0.59757
G01 X-1.93725 Y-0.59383
G01 X-1.93670 Y-0.59277
G01 X-1.93100 Y-0.57850
G01 X-1.91694 Y-0.53913
G01 X-1.91665 Y-0.53801
G01 X-1.91660 Y-0.53685
G04 P0 ( dwell for no time -- G64 should not smooth over this point )
G00 Z0.08000 ( retract )

G00 X-1.89508 Y-0.50000 ( rapid move to begin. )
G01 F180.00000
( Mill infeed pass 1/1 )
G01 Z-0.04000
G04 P0 ( dwell for no time -- G64 should not smooth over this point )
G01 F360.00000
G01 X-1.89508 Y-0.50000
G01 X-1.89545 Y-0.49812
G01 X-1.89652 Y-0.49652
G01 X-1.89812 Y-0.49545
G01 X-1.90000 Y-0.49508
G01 X-1.95000 Y-0.49508
G01 X-1.95096 Y-0.49517
G01 X-1.95273 Y-0.49591
G01 X-1.95409 Y-0.49727
G01 X-1.95483 Y-0.49904
G01 X-1.95492 Y-0.50000
G01 X-1.95483 Y-0.50096
G01 X-1.95409 Y-0.50273
G01 X-1.95273 Y-0.50409
G01 X-1.95096 Y-0.50483
G01 X-1.95000 Y-0.50492
G01 X-1.90000 Y-0.50492
G01 X-1.89812 Y-0.50455
G01 X-1.89652 Y-0.50348
G01 X-1.89545 Y-0.50188
G01 X-1.89508 Y-0.50000
G04 P0 ( dwell for no time -- G64 should not smooth over this point )
G00 Z0.08000 ( retract )

G00 X-1.84910 Y-0.56246 ( rapid move to begin. )
G01 F180.00000
( Mill infeed pass 1/1 )
G01 Z-0.04000
G04 P0 ( dwell for no time -- G64 should not smooth over this point )
G01 F360.00000
G01 X-1.84910 Y-0.56246
G01 X-1.84921 Y-0.56130
G01 X-1.84955 Y-0.56020
G01 X-1.85009 Y-0.55918
G01 X-1.85083 Y-0.55828
G01 X-1.85172 Y-0.55755
G01 X-1.85275 Y-0.55700
G01 X-1.85385 Y-0.55666
G01 X-1.85501 Y-0.55655
G01 X-1.90000 Y-0.55655
G01 X-1.90115 Y-0.55666
G01 X-1.90226 Y-0.55700
G01 X-1.90328 Y-0.55755
G01 X-1.90417 Y-0.55828
G01 X-1.90491 Y-0.55918
G01 X-1.90545 Y-0.56020
G01 X-1.90579 Y-0.56130
G01 X-1.90590 Y-0.56246
G01 X-1.90579 Y-0.56361
G01 X-1.90545 Y-0.56472
G01 X-1.90491 Y-0.56574
G01 X-1.90417 Y-0.56663
G01 X-1.90328 Y-0.56737
G01 X-1.90226 Y-0.56791
G01 X-1.90115 Y-0.56825
G01 X-1.90000 Y-0.56836
G01 X-1.85501 Y-0.56836
G01 X-1.85385 Y-0.56825
G01 X-1.85275 Y-0.56791
G01 X-1.85172 Y-0.56737
G01 X-1.85083 Y-0.56663
G01 X-1.85009 Y-0.56574
G01 X-1.84955 Y-0.56472
G01 X-1.84921 Y-0.56361
G01 X-1.84910 Y-0.56246
G01 X-1.84910 Y-0.54558
G01 X-1.84921 Y-0.54674
G01 X-1.84955 Y-0.54784
G01 X-1.85009 Y-0.54886
G01 X-1.85083 Y-0.54976
G01 X-1.85172 Y-0.55049
G01 X-1.85275 Y-0.55104
G01 X-1.85385 Y-0.55138
G01 X-1.85501 Y-0.55149
G01 X-1.90000 Y-0.55149
G01 X-1.90115 Y-0.55138
G01 X-1.90226 Y-0.55104
G01 X-1.90328 Y-0.55049
G01 X-1.90417 Y-0.54976
G01 X-1.90491 Y-0.54886
G01 X-1.90545 Y-0.54784
G01 X-1.90579 Y-0.54674
G01 X-1.90590 Y-0.54558
G01 X-1.90579 Y-0.54443
G01 X-1.90545 Y-0.54332
G01 X-1.90491 Y-0.54230
G01 X-1.90417 Y-0.54141
G01 X-1.90328 Y-0.54067
G01 X-1.90226 Y-0.54013
G01 X-1.90115 Y-0.53979
G01 X-1.90000 Y-0.53968
G01 X-1.85501 Y-0.53968
G01 X-1.85385 Y-0.53979
G01 X-1.85275 Y-0.54013
G01 X-1.85172 Y-0.54067
G01 X-1.85083 Y-0.54141
G01 X-1.85009 Y-0.54230
G01 X-1.84955 Y-0.54332
G01 X-1.84921 Y-0.54443
G01 X-1.84910 Y-0.54558
G01 X-1.84910 Y-0.56246
G01 X-1.87863 Y-0.67691
G01 X-1.87863 Y-0.63754
G01 X-1.87874 Y-0.63639
G01 X-1.87908 Y-0.63528
G01 X-1.87962 Y-0.63426
G01 X-1.88036 Y-0.63337
G01 X-1.88125 Y-0.63263
G01 X-1.88227 Y-0.63209
G01 X-1.88338 Y-0.63175
G01 X-1.88453 Y-0.63164
G01 X-1.88569 Y-0.63175
G01 X-1.88679 Y-0.63209
G01 X-1.88781 Y-0.63263
G01 X-1.88871 Y-0.63337
G01 X-1.88944 Y-0.63426
G01 X-1.88999 Y-0.63528
G01 X-1.89033 Y-0.63639
G01 X-1.89044 Y-0.63754
G01 X-1.89044 Y-0.67691
G01 X-1.89033 Y-0.67806
G01 X-1.88999 Y-0.67917
G01 X-1.88944 Y-0.68019
G01 X-1.88871 Y-0.68109
G01 X-1.88781 Y-0.68182
G01 X-1.88679 Y-0.68237
G01 X-1.88569 Y-0.68270
G01 X-1.88453 Y-0.68282
G01 X-1.88338 Y-0.68270
G01 X-1.88227 Y-0.68237
G01 X-1.88125 Y-0.68182
G01 X-1.88036 Y-0.68109
G01 X-1.87962 Y-0.68019
G01 X-1.87908 Y-0.67917
G01 X-1.87874 Y-0.67806
G01 X-1.87582 Y-0.62067
G01 X-1.87593 Y-0.61952
G01 X-1.87627 Y-0.61841
G01 X-1.87681 Y-0.61739
G01 X-1.88036 Y-0.61368
G01 X-1.88125 Y-0.61295
G01 X-1.88227 Y-0.61240
G01 X-1.88338 Y-0.61206
G01 X-1.88453 Y-0.61195
G01 X-1.88569 Y-0.61206
G01 X-1.88679 Y-0.61240
G01 X-1.88781 Y-0.61295
G01 X-1.88871 Y-0.61368
G01 X-1.89226 Y-0.61739
G01 X-1.89280 Y-0.61841
G01 X-1.89314 Y-0.61952
G01 X-1.89325 Y-0.62067
G01 X-1.89314 Y-0.62182
G01 X-1.89280 Y-0.62293
G01 X-1.89226 Y-0.62395
G01 X-1.89152 Y-0.62484
G01 X-1.88781 Y-0.62839
G01 X-1.88679 Y-0.62894
G01 X-1.88569 Y-0.62927
G01 X-1.88453 Y-0.62939
G01 X-1.88338 Y-0.62927
G01 X-1.88227 Y-0.62894
G01 X-1.88125 Y-0.62839
G01 X-1.88036 Y-0.62766
G01 X-1.87681 Y-0.62395
G01 X-1.87627 Y-0.62293
G01 X-1.87593 Y-0.62182
G01 X-1.87582 Y-0.62067
G04 P0 ( dwell for no time -- G64 should not smooth over this point )
G00 Z0.08000 ( retract )

G00 X-1.96018 Y-0.67410 ( rapid move to begin. )
G01 F180.00000
( Mill infeed pass 1/1 )
G01 Z-0.04000
G04 P0 ( dwell for no time -- G64 should not smooth over this point )
G01 F360.00000
G01 X-1.96018 Y-0.67410
G01 X-1.96029 Y-0.67525
G01 X-1.96063 Y-0.67636
G01 X-1.96117 Y-0.67738
G01 X-1.96472 Y-0.68109
G01 X-1.96562 Y-0.68182
G01 X-1.96664 Y-0.68237
G01 X-1.96774 Y-0.68270
G01 X-1.96890 Y-0.68282
G01 X-1.97005 Y-0.68270
G01 X-1.97116 Y-0.68237
G01 X-1.97218 Y-0.68182
G01 X-1.97307 Y-0.68109
G01 X-1.97662 Y-0.67738
G01 X-1.97716 Y-0.67636
G01 X-1.97750 Y-0.67525
G01 X-1.97761 Y-0.67410
G01 X-1.97750 Y-0.67295
G01 X-1.97717 Y-0.67184
G01 X-1.97662 Y-0.67082
G01 X-1.97307 Y-0.66711
G01 X-1.97218 Y-0.66638
G01 X-1.97116 Y-0.66583
G01 X-1.97005 Y-0.66549
G01 X-1.96890 Y-0.66538
G01 X-1.96774 Y-0.66549
G01 X-1.96664 Y-0.66583
G01 X-1.96561 Y-0.66638
G01 X-1.96472 Y-0.66711
G01 X-1.96117 Y-0.67082
G01 X-1.96063 Y-0.67184
G01 X-1.96029 Y-0.67295
G01 X-1.96018 Y-0.67410
G04 P0 ( dwell for no time -- G64 should not smooth over this point )
G00 Z0.08000 ( retract )

G00 X-1.90394 Y-0.66566 ( rapid move to begin. )
G01 F180.00000
( Mill infeed pass 1/1 )
G01 Z-0.04000
G04 P0 ( dwell for no time -- G64 should not smooth over this point )
G01 F360.00000
G01 X-1.90394 Y-0.66566
G01 X-1.90409 Y-0.66702
G01 X-1.90456 Y-0.66830
G01 X-1.90786 Y-0.67474
G01 X-1.91201 Y-0.67889
G01 X-1.91845 Y-0.68219
G01 X-1.91973 Y-0.68266
G01 X-1.92109 Y-0.68282
G01 X-1.93515 Y-0.68282
G01 X-1.93651 Y-0.68266
G01 X-1.93779 Y-0.68219
G01 X-1.94423 Y-0.67889
G01 X-1.94776 Y-0.67546
G01 X-1.94850 Y-0.67457
G01 X-1.94904 Y-0.67354
G01 X-1.94938 Y-0.67244
G01 X-1.94949 Y-0.67129
G01 X-1.94938 Y-0.67013
G01 X-1.94904 Y-0.66903
G01 X-1.94850 Y-0.66800
G01 X-1.94776 Y-0.66711
G01 X-1.94687 Y-0.66638
G01 X-1.94585 Y-0.66583
G01 X-1.94474 Y-0.66549
G01 X-1.94359 Y-0.66538
G01 X-1.94243 Y-0.66549
G01 X-1.94133 Y-0.66583
G01 X-1.94031 Y-0.66638
G01 X-1.93728 Y-0.66925
G01 X-1.93376 Y-0.67101
G01 X-1.92248 Y-0.67101
G01 X-1.91896 Y-0.66925
G01 X-1.91751 Y-0.66779
G01 X-1.91575 Y-0.66427
G01 X-1.91575 Y-0.65300
G01 X-1.91751 Y-0.64948
G01 X-1.91896 Y-0.64802
G01 X-1.92248 Y-0.64626
G01 X-1.93376 Y-0.64626
G01 X-1.93728 Y-0.64802
G01 X-1.94027 Y-0.65086
G01 X-1.94125 Y-0.65140
G01 X-1.94231 Y-0.65174
G01 X-1.94341 Y-0.65188
G01 X-1.94452 Y-0.65181
G01 X-1.94560 Y-0.65153
G01 X-1.94661 Y-0.65105
G01 X-1.94751 Y-0.65039
G01 X-1.94827 Y-0.64958
G01 X-1.94886 Y-0.64864
G01 X-1.94927 Y-0.64760
G01 X-1.94947 Y-0.64650
G01 X-1.94946 Y-0.64539
G01 X-1.94665 Y-0.61727
G01 X-1.94640 Y-0.61606
G01 X-1.94590 Y-0.61492
G01 X-1.94518 Y-0.61392
G01 X-1.94426 Y-0.61309
G01 X-1.94318 Y-0.61247
G01 X-1.94201 Y-0.61208
G01 X-1.94078 Y-0.61195
G01 X-1.91265 Y-0.61195
G01 X-1.91150 Y-0.61206
G01 X-1.91039 Y-0.61240
G01 X-1.90937 Y-0.61295
G01 X-1.90848 Y-0.61368
G01 X-1.90774 Y-0.61458
G01 X-1.90720 Y-0.61560
G01 X-1.90686 Y-0.61670
G01 X-1.90675 Y-0.61786
G01 X-1.90686 Y-0.61901
G01 X-1.90720 Y-0.62012
G01 X-1.90774 Y-0.62114
G01 X-1.90848 Y-0.62203
G01 X-1.90937 Y-0.62277
G01 X-1.91039 Y-0.62331
G01 X-1.91150 Y-0.62365
G01 X-1.91265 Y-0.62376
G01 X-1.93543 Y-0.62376
G01 X-1.93652 Y-0.63461
G01 X-1.93515 Y-0.63445
G01 X-1.92109 Y-0.63445
G01 X-1.91973 Y-0.63461
G01 X-1.91845 Y-0.63507
G01 X-1.91201 Y-0.63838
G01 X-1.90786 Y-0.64252
G01 X-1.90456 Y-0.64896
G01 X-1.90409 Y-0.65024
G01 X-1.90394 Y-0.65160
G01 X-1.90394 Y-0.66566
G04 P0 ( dwell for no time -- G64 should not smooth over this point )
G00 Z0.08000 ( retract )

G00 X-1.82520 Y-0.67691 ( rapid move to begin. )
G01 F180.00000
( Mill infeed pass 1/1 )
G01 Z-0.04000
G04 P0 ( dwell for no time -- G64 should not smooth over this point )
G01 F360.00000
G01 X-1.82520 Y-0.67691
G01 X-1.82531 Y-0.67806
G01 X-1.82565 Y-0.67917
G01 X-1.82619 Y-0.68019
G01 X-1.82693 Y-0.68109
G01 X-1.82782 Y-0.68182
G01 X-1.82884 Y-0.68237
G01 X-1.82995 Y-0.68270
G01 X-1.83110 Y-0.68282
G01 X-1.83225 Y-0.68270
G01 X-1.83336 Y-0.68237
G01 X-1.83438 Y-0.68182
G01 X-1.83528 Y-0.68109
G01 X-1.83601 Y-0.68019
G01 X-1.83656 Y-0.67917
G01 X-1.83689 Y-0.67806
G01 X-1.83701 Y-0.67691
G01 X-1.83701 Y-0.64737
G01 X-1.83831 Y-0.64475
G01 X-1.84093 Y-0.64345
G01 X-1.84658 Y-0.64345
G01 X-1.85010 Y-0.64521
G01 X-1.85051 Y-0.64561
G01 X-1.85051 Y-0.67691
G01 X-1.85062 Y-0.67806
G01 X-1.85095 Y-0.67917
G01 X-1.85150 Y-0.68019
G01 X-1.85224 Y-0.68109
G01 X-1.85313 Y-0.68182
G01 X-1.85415 Y-0.68237
G01 X-1.85526 Y-0.68270
G01 X-1.85641 Y-0.68282
G01 X-1.85756 Y-0.68270
G01 X-1.85867 Y-0.68237
G01 X-1.85969 Y-0.68182
G01 X-1.86059 Y-0.68109
G01 X-1.86132 Y-0.68019
G01 X-1.86187 Y-0.67917
G01 X-1.86220 Y-0.67806
G01 X-1.86232 Y-0.67691
G01 X-1.86232 Y-0.63754
G01 X-1.86220 Y-0.63639
G01 X-1.86187 Y-0.63528
G01 X-1.86132 Y-0.63426
G01 X-1.86059 Y-0.63337
G01 X-1.85969 Y-0.63263
G01 X-1.85867 Y-0.63209
G01 X-1.85756 Y-0.63175
G01 X-1.85641 Y-0.63164
G01 X-1.85526 Y-0.63175
G01 X-1.85415 Y-0.63209
G01 X-1.85246 Y-0.63318
G01 X-1.84933 Y-0.63179
G01 X-1.84797 Y-0.63164
G01 X-1.83954 Y-0.63164
G01 X-1.83818 Y-0.63179
G01 X-1.83690 Y-0.63226
G01 X-1.83127 Y-0.63507
G01 X-1.83021 Y-0.63575
G01 X-1.82932 Y-0.63665
G01 X-1.82863 Y-0.63771
G01 X-1.82582 Y-0.64334
G01 X-1.82535 Y-0.64462
G01 X-1.82520 Y-0.64598
G01 X-1.82520 Y-0.67691
G04 P0 ( dwell for no time -- G64 should not smooth over this point )
G00 Z0.08000 ( retract )

G00 X-1.63819 Y-0.55000 ( rapid move to begin. )
G01 F180.00000
( Mill infeed pass 1/1 )
G01 Z-0.04000
G04 P0 ( dwell for no time -- G64 should not smooth over this point )
G01 F360.00000
G01 X-1.63819 Y-0.55000
G01 X-1.63841 Y-0.54770
G01 X-1.63909 Y-0.54548
G01 X-1.64018 Y-0.54344
G01 X-1.64165 Y-0.54165
G01 X-1.64344 Y-0.54018
G01 X-1.64548 Y-0.53909
G01 X-1.64769 Y-0.53841
G01 X-1.65000 Y-0.53819
G01 X-1.65230 Y-0.53841
G01 X-1.65452 Y-0.53909
G01 X-1.65656 Y-0.54018
G01 X-1.65835 Y-0.54165
G01 X-1.65982 Y-0.54344
G01 X-1.66091 Y-0.54548
G01 X-1.66158 Y-0.54770
G01 X-1.66181 Y-0.55000
G01 X-1.66158 Y-0.55230
G01 X-1.66091 Y-0.55452
G01 X-1.65982 Y-0.55656
G01 X-1.65835 Y-0.55835
G01 X-1.65656 Y-0.55982
G01 X-1.65452 Y-0.56091
G01 X-1.65230 Y-0.56158
G01 X-1.65000 Y-0.56181
G01 X-1.64769 Y-0.56158
G01 X-1.64548 Y-0.56091
G01 X-1.64344 Y-0.55982
G01 X-1.64165 Y-0.55835
G01 X-1.64018 Y-0.55656
G01 X-1.63909 Y-0.55452
G01 X-1.63841 Y-0.55230
G01 X-1.63819 Y-0.55000
G01 X-1.55127 Y-0.55975
G01 X-1.55127 Y-0.53072
G01 X-1.56807 Y-0.49713
G01 X-1.58284 Y-0.48236
G01 X-1.61644 Y-0.46556
G01 X-1.73444 Y-0.46556
G01 X-1.73444 Y-0.62491
G01 X-1.61644 Y-0.62491
G01 X-1.58284 Y-0.60812
G01 X-1.56807 Y-0.59335
G01 X-1.55127 Y-0.55975
G04 P0 ( dwell for no time -- G64 should not smooth over this point )
G00 Z0.08000 ( retract )

G00 X-1.08410 Y-0.02626 ( rapid move to begin. )
G01 F180.00000
( Mill infeed pass 1/1 )
G01 Z-0.04000
G04 P0 ( dwell for no time -- G64 should not smooth over this point )
G01 F360.00000
G01 X-1.08410 Y-0.02626
G01 X-1.08412 Y-0.02742
G01 X-1.08437 Y-0.02855
G01 X-1.08484 Y-0.02961
G01 X-1.08550 Y-0.03056
G01 X-1.08634 Y-0.03136
G01 X-1.08732 Y-0.03198
G01 X-1.08839 Y-0.03240
G01 X-1.08953 Y-0.03260
G01 X-1.09069 Y-0.03258
G01 X-1.09182 Y-0.03233
G01 X-1.09288 Y-0.03186
G01 X-1.09383 Y-0.03120
G01 X-1.09463 Y-0.03036
G01 X-1.10546 Y-0.01659
G01 X-1.11628 Y-0.03036
G01 X-1.11708 Y-0.03120
G01 X-1.11803 Y-0.03186
G01 X-1.11909 Y-0.03233
G01 X-1.12022 Y-0.03258
G01 X-1.12138 Y-0.03260
G01 X-1.12251 Y-0.03240
G01 X-1.12359 Y-0.03198
G01 X-1.12457 Y-0.03136
G01 X-1.12541 Y-0.03056
G01 X-1.12607 Y-0.02961
G01 X-1.12654 Y-0.02855
G01 X-1.12678 Y-0.02742
G01 X-1.12681 Y-0.02626
G01 X-1.12661 Y-0.02512
G01 X-1.12619 Y-0.02404
G01 X-1.12556 Y-0.02307
G01 X-1.11296 Y-0.00703
G01 X-1.12556 Y0.00901
G01 X-1.12619 Y0.00998
G01 X-1.12661 Y0.01106
G01 X-1.12681 Y0.01220
G01 X-1.12678 Y0.01336
G01 X-1.12654 Y0.01449
G01 X-1.12607 Y0.01555
G01 X-1.12541 Y0.01650
G01 X-1.12457 Y0.01730
G01 X-1.12359 Y0.01792
G01 X-1.12251 Y0.01834
G01 X-1.12138 Y0.01854
G01 X-1.12022 Y0.01852
G01 X-1.11909 Y0.01827
G01 X-1.11803 Y0.01780
G01 X-1.11708 Y0.01714
G01 X-1.11628 Y0.01630
G01 X-1.10546 Y0.00253
G01 X-1.09463 Y0.01630
G01 X-1.09383 Y0.01714
G01 X-1.09288 Y0.01780
G01 X-1.09182 Y0.01827
G01 X-1.09069 Y0.01852
G01 X-1.08953 Y0.01854
G01 X-1.08839 Y0.01834
G01 X-1.08732 Y0.01792
G01 X-1.08634 Y0.01730
G01 X-1.08550 Y0.01650
G01 X-1.08484 Y0.01555
G01 X-1.08437 Y0.01449
G01 X-1.08412 Y0.01336
G01 X-1.08410 Y0.01220
G01 X-1.08430 Y0.01106
G01 X-1.08472 Y0.00998
G01 X-1.08534 Y0.00901
G01 X-1.09794 Y-0.00703
G01 X-1.08534 Y-0.02307
G01 X-1.08472 Y-0.02404
G01 X-1.08430 Y-0.02512
G01 X-1.08410 Y-0.02626
G04 P0 ( dwell for no time -- G64 should not smooth over this point )
G00 Z0.08000 ( retract )

G00 X-1.01659 Y0.00422 ( rapid move to begin. )
G01 F180.00000
( Mill infeed pass 1/1 )
G01 Z-0.04000
G04 P0 ( dwell for no time -- G64 should not smooth over this point )
G01 F360.00000
G01 X-1.01659 Y0.00422
G01 X-1.01670 Y0.00307
G01 X-1.01704 Y0.00196
G01 X-1.01759 Y0.00094
G01 X-1.01832 Y0.00004
G01 X-1.01921 Y-0.00069
G01 X-1.02024 Y-0.00124
G01 X-1.02134 Y-0.00157
G01 X-1.02250 Y-0.00169
G01 X-1.06749 Y-0.00169
G01 X-1.06864 Y-0.00157
G01 X-1.06975 Y-0.00124
G01 X-1.07077 Y-0.00069
G01 X-1.07167 Y0.00004
G01 X-1.07240 Y0.00094
G01 X-1.07295 Y0.00196
G01 X-1.07328 Y0.00307
G01 X-1.07340 Y0.00422
G01 X-1.07328 Y0.00537
G01 X-1.07295 Y0.00648
G01 X-1.07240 Y0.00750
G01 X-1.07167 Y0.00839
G01 X-1.07077 Y0.00913
G01 X-1.06975 Y0.00967
G01 X-1.06864 Y0.01001
G01 X-1.06749 Y0.01012
G01 X-1.02250 Y0.01012
G01 X-1.02134 Y0.01001
G01 X-1.02024 Y0.00967
G01 X-1.01921 Y0.00913
G01 X-1.01832 Y0.00839
G01 X-1.01759 Y0.00750
G01 X-1.01704 Y0.00648
G01 X-1.01670 Y0.00537
G01 X-1.01659 Y0.00422
G01 X-1.01659 Y-0.01265
G01 X-1.01670 Y-0.01150
G01 X-1.01704 Y-0.01039
G01 X-1.01759 Y-0.00937
G01 X-1.01832 Y-0.00848
G01 X-1.01921 Y-0.00774
G01 X-1.02024 Y-0.00720
G01 X-1.02134 Y-0.00686
G01 X-1.02250 Y-0.00675
G01 X-1.06749 Y-0.00675
G01 X-1.06864 Y-0.00686
G01 X-1.06975 Y-0.00720
G01 X-1.07077 Y-0.00774
G01 X-1.07167 Y-0.00848
G01 X-1.07240 Y-0.00937
G01 X-1.07295 Y-0.01039
G01 X-1.07328 Y-0.01150
G01 X-1.07340 Y-0.01265
G01 X-1.07328 Y-0.01381
G01 X-1.07295 Y-0.01491
G01 X-1.07240 Y-0.01593
G01 X-1.07167 Y-0.01683
G01 X-1.07077 Y-0.01756
G01 X-1.06975 Y-0.01811
G01 X-1.06864 Y-0.01845
G01 X-1.06749 Y-0.01856
G01 X-1.02250 Y-0.01856
G01 X-1.02134 Y-0.01845
G01 X-1.02024 Y-0.01811
G01 X-1.01921 Y-0.01756
G01 X-1.01832 Y-0.01683
G01 X-1.01759 Y-0.01593
G01 X-1.01704 Y-0.01491
G01 X-1.01670 Y-0.01381
G01 X-1.01659 Y-0.01265
G01 X-1.02015 Y-0.92619
G01 X-0.99508 Y-0.10000
G01 X-0.99545 Y-0.10188
G01 X-0.99652 Y-0.10348
G01 X-0.99812 Y-0.10455
G01 X-1.00000 Y-0.10492
G01 X-1.00188 Y-0.10455
G01 X-1.00348 Y-0.10348
G01 X-1.00455 Y-0.10188
G01 X-1.00492 Y-0.10000
G01 X-1.00492 Y-0.05000
G01 X-1.00483 Y-0.04904
G01 X-1.00409 Y-0.04727
G01 X-1.00273 Y-0.04591
G01 X-1.00096 Y-0.04517
G01 X-1.00000 Y-0.04508
G01 X-0.99904 Y-0.04517
G01 X-0.99726 Y-0.04591
G01 X-0.99591 Y-0.04727
G01 X-0.99517 Y-0.04904
G01 X-0.99508 Y-0.05000
G01 X-0.99508 Y-0.10000
G01 X-1.02015 Y-0.92619
G01 X-1.02015 Y-0.66429
G01 X-1.02121 Y-0.65524
G01 X-1.02431 Y-0.64668
G01 X-1.04812 Y-0.59906
G01 X-1.05267 Y-0.59197
G01 X-1.05863 Y-0.58601
G01 X-1.06573 Y-0.58145
G01 X-1.11335 Y-0.55764
G01 X-1.12191 Y-0.55454
G01 X-1.13095 Y-0.55349
G01 X-1.22619 Y-0.55349
G01 X-1.23524 Y-0.55454
G01 X-1.24380 Y-0.55764
G01 X-1.29141 Y-0.58145
G01 X-1.29795 Y-0.58556
G01 X-1.30355 Y-0.59087
G01 X-1.30801 Y-0.59717
G01 X-1.31116 Y-0.60421
G01 X-1.31287 Y-0.61174
G01 X-1.31308 Y-0.61946
G01 X-1.31178 Y-0.62706
G01 X-1.30902 Y-0.63427
G01 X-1.30491 Y-0.64080
G01 X-1.29960 Y-0.64641
G01 X-1.29331 Y-0.65087
G01 X-1.28626 Y-0.65402
G01 X-1.27873 Y-0.65573
G01 X-1.27102 Y-0.65594
G01 X-1.26341 Y-0.65464
G01 X-1.25620 Y-0.65188
G01 X-1.21690 Y-0.63223
G01 X-1.14024 Y-0.63223
G01 X-1.11268 Y-0.64601
G01 X-1.09889 Y-0.67358
G01 X-1.09889 Y-0.68757
G01 X-1.11644 Y-0.69634
G01 X-1.22619 Y-0.69634
G01 X-1.23524 Y-0.69740
G01 X-1.24380 Y-0.70050
G01 X-1.29141 Y-0.72431
G01 X-1.29851 Y-0.72886
G01 X-1.30447 Y-0.73482
G01 X-1.30902 Y-0.74191
G01 X-1.33283 Y-0.78953
G01 X-1.33594 Y-0.79810
G01 X-1.33699 Y-0.80714
G01 X-1.33699 Y-0.85476
G01 X-1.33594 Y-0.86381
G01 X-1.33283 Y-0.87237
G01 X-1.30902 Y-0.91999
G01 X-1.30447 Y-0.92708
G01 X-1.29851 Y-0.93304
G01 X-1.29142 Y-0.93759
G01 X-1.24380 Y-0.96140
G01 X-1.23524 Y-0.96451
G01 X-1.22619 Y-0.96556
G01 X-1.10714 Y-0.96556
G01 X-1.09810 Y-0.96451
G01 X-1.08953 Y-0.96140
G01 X-1.08260 Y-0.95794
G01 X-1.08140 Y-0.95893
G01 X-1.07459 Y-0.96256
G01 X-1.06720 Y-0.96480
G01 X-1.05952 Y-0.96556
G01 X-1.05184 Y-0.96480
G01 X-1.04446 Y-0.96256
G01 X-1.03765 Y-0.95893
G01 X-1.03168 Y-0.95403
G01 X-1.02679 Y-0.94806
G01 X-1.02315 Y-0.94126
G01 X-1.02091 Y-0.93387
G01 X-1.02015 Y-0.92619
G01 X-0.88819 Y-0.45000
G01 X-0.88841 Y-0.44770
G01 X-0.88909 Y-0.44548
G01 X-0.89018 Y-0.44344
G01 X-0.89165 Y-0.44165
G01 X-0.89344 Y-0.44018
G01 X-0.89548 Y-0.43909
G01 X-0.89770 Y-0.43841
G01 X-0.90000 Y-0.43819
G01 X-0.90230 Y-0.43841
G01 X-0.90452 Y-0.43909
G01 X-0.90656 Y-0.44018
G01 X-0.90835 Y-0.44165
G01 X-0.90982 Y-0.44344
G01 X-0.91091 Y-0.44548
G01 X-0.91158 Y-0.44770
G01 X-0.91181 Y-0.45000
G01 X-0.91158 Y-0.45230
G01 X-0.91091 Y-0.45452
G01 X-0.90982 Y-0.45656
G01 X-0.90835 Y-0.45835
G01 X-0.90656 Y-0.45982
G01 X-0.90452 Y-0.46091
G01 X-0.90230 Y-0.46158
G01 X-0.90000 Y-0.46181
G01 X-0.89770 Y-0.46158
G01 X-0.89548 Y-0.46091
G01 X-0.89344 Y-0.45982
G01 X-0.89165 Y-0.45835
G01 X-0.89018 Y-0.45656
G01 X-0.88909 Y-0.45452
G01 X-0.88841 Y-0.45230
G01 X-0.88819 Y-0.45000
G01 X-0.95754 Y-0.02671
G01 X-0.95765 Y-0.02787
G01 X-0.95799 Y-0.02897
G01 X-0.95853 Y-0.03000
G01 X-0.95927 Y-0.03089
G01 X-0.96016 Y-0.03163
G01 X-0.96118 Y-0.03217
G01 X-0.96229 Y-0.03251
G01 X-0.96344 Y-0.03262
G01 X-0.99719 Y-0.03262
G01 X-0.99834 Y-0.03251
G01 X-0.99945 Y-0.03217
G01 X-1.00047 Y-0.03163
G01 X-1.00136 Y-0.03089
G01 X-1.00210 Y-0.03000
G01 X-1.00264 Y-0.02897
G01 X-1.00298 Y-0.02787
G01 X-1.00309 Y-0.02671
G01 X-1.00298 Y-0.02556
G01 X-1.00264 Y-0.02446
G01 X-1.00210 Y-0.02343
G01 X-1.00136 Y-0.02254
G01 X-1.00047 Y-0.02180
G01 X-0.99945 Y-0.02126
G01 X-0.99834 Y-0.02092
G01 X-0.99719 Y-0.02081
G01 X-0.98622 Y-0.02081
G01 X-0.98622 Y0.01527
G01 X-0.98811 Y0.01349
G01 X-0.99455 Y0.01018
G01 X-0.99563 Y0.00977
G01 X-0.99677 Y0.00958
G01 X-0.99792 Y0.00961
G01 X-0.99905 Y0.00986
G01 X-1.00011 Y0.01034
G01 X-1.00106 Y0.01100
G01 X-1.00185 Y0.01184
G01 X-1.00247 Y0.01282
G01 X-1.00288 Y0.01391
G01 X-1.00308 Y0.01505
G01 X-1.00305 Y0.01620
G01 X-1.00279 Y0.01733
G01 X-1.00232 Y0.01839
G01 X-1.00165 Y0.01934
G01 X-1.00081 Y0.02013
G01 X-0.99506 Y0.02313
G01 X-0.99053 Y0.02766
G01 X-0.98523 Y0.03562
G01 X-0.98449 Y0.03651
G01 X-0.98360 Y0.03725
G01 X-0.98258 Y0.03779
G01 X-0.98147 Y0.03813
G01 X-0.98032 Y0.03824
G01 X-0.97916 Y0.03813
G01 X-0.97806 Y0.03780
G01 X-0.97703 Y0.03725
G01 X-0.97614 Y0.03652
G01 X-0.97540 Y0.03562
G01 X-0.97486 Y0.03460
G01 X-0.97452 Y0.03349
G01 X-0.97441 Y0.03234
G01 X-0.97441 Y-0.02081
G01 X-0.96344 Y-0.02081
G01 X-0.96229 Y-0.02092
G01 X-0.96118 Y-0.02126
G01 X-0.96016 Y-0.02180
G01 X-0.95927 Y-0.02254
G01 X-0.95853 Y-0.02343
G01 X-0.95799 Y-0.02446
G01 X-0.95765 Y-0.02556
G01 X-0.88819 Y-0.45000
G01 X-0.87879 Y-0.02671
G01 X-0.87891 Y-0.02787
G01 X-0.87925 Y-0.02897
G01 X-0.87979 Y-0.03000
G01 X-0.88053 Y-0.03089
G01 X-0.88142 Y-0.03163
G01 X-0.88244 Y-0.03217
G01 X-0.88355 Y-0.03251
G01 X-0.88470 Y-0.03262
G01 X-0.88585 Y-0.03251
G01 X-0.88696 Y-0.03217
G01 X-0.88798 Y-0.03163
G01 X-0.88888 Y-0.03089
G01 X-0.88961 Y-0.03000
G01 X-0.89016 Y-0.02897
G01 X-0.89049 Y-0.02787
G01 X-0.89061 Y-0.02671
G01 X-0.89061 Y0.00282
G01 X-0.89192 Y0.00544
G01 X-0.89453 Y0.00675
G01 X-0.90018 Y0.00675
G01 X-0.90370 Y0.00499
G01 X-0.90411 Y0.00458
G01 X-0.90411 Y-0.02671
G01 X-0.90422 Y-0.02787
G01 X-0.90455 Y-0.02897
G01 X-0.90510 Y-0.03000
G01 X-0.90583 Y-0.03089
G01 X-0.90673 Y-0.03163
G01 X-0.90775 Y-0.03217
G01 X-0.90886 Y-0.03251
G01 X-0.91001 Y-0.03262
G01 X-0.91116 Y-0.03251
G01 X-0.91227 Y-0.03217
G01 X-0.91329 Y-0.03163
G01 X-0.91419 Y-0.03089
G01 X-0.91492 Y-0.03000
G01 X-0.91547 Y-0.02897
G01 X-0.91580 Y-0.02787
G01 X-0.91592 Y-0.02671
G01 X-0.91592 Y0.01265
G01 X-0.91580 Y0.01381
G01 X-0.91547 Y0.01491
G01 X-0.91492 Y0.01593
G01 X-0.91419 Y0.01683
G01 X-0.91329 Y0.01756
G01 X-0.91227 Y0.01811
G01 X-0.91116 Y0.01845
G01 X-0.91001 Y0.01856
G01 X-0.90886 Y0.01845
G01 X-0.90775 Y0.01811
G01 X-0.90606 Y0.01701
G01 X-0.90293 Y0.01840
G01 X-0.90157 Y0.01856
G01 X-0.89314 Y0.01856
G01 X-0.89178 Y0.01840
G01 X-0.89050 Y0.01794
G01 X-0.88487 Y0.01512
G01 X-0.88381 Y0.01444
G01 X-0.88292 Y0.01355
G01 X-0.88223 Y0.01248
G01 X-0.87942 Y0.00686
G01 X-0.87895 Y0.00558
G01 X-0.87879 Y0.00422
G01 X-0.87879 Y-0.02671
G01 X-0.88819 Y-0.45000
G01 X-0.93223 Y-0.02671
G01 X-0.93223 Y0.01265
G01 X-0.93234 Y0.01381
G01 X-0.93268 Y0.01491
G01 X-0.93322 Y0.01593
G01 X-0.93396 Y0.01683
G01 X-0.93485 Y0.01756
G01 X-0.93587 Y0.01811
G01 X-0.93698 Y0.01845
G01 X-0.93813 Y0.01856
G01 X-0.93928 Y0.01845
G01 X-0.94039 Y0.01811
G01 X-0.94141 Y0.01756
G01 X-0.94231 Y0.01683
G01 X-0.94304 Y0.01593
G01 X-0.94359 Y0.01491
G01 X-0.94392 Y0.01381
G01 X-0.94404 Y0.01265
G01 X-0.94404 Y-0.02671
G01 X-0.94392 Y-0.02787
G01 X-0.94359 Y-0.02897
G01 X-0.94304 Y-0.03000
G01 X-0.94231 Y-0.03089
G01 X-0.94141 Y-0.03163
G01 X-0.94039 Y-0.03217
G01 X-0.93928 Y-0.03251
G01 X-0.93813 Y-0.03262
G01 X-0.93698 Y-0.03251
G01 X-0.93587 Y-0.03217
G01 X-0.93485 Y-0.03163
G01 X-0.93396 Y-0.03089
G01 X-0.93322 Y-0.03000
G01 X-0.93268 Y-0.02897
G01 X-0.93234 Y-0.02787
G01 X-0.92941 Y0.02953
G01 X-0.92953 Y0.03068
G01 X-0.92986 Y0.03179
G01 X-0.93041 Y0.03281
G01 X-0.93396 Y0.03651
G01 X-0.93485 Y0.03725
G01 X-0.93587 Y0.03779
G01 X-0.93698 Y0.03813
G01 X-0.93813 Y0.03824
G01 X-0.93928 Y0.03813
G01 X-0.94039 Y0.03779
G01 X-0.94141 Y0.03725
G01 X-0.94512 Y0.03370
G01 X-0.94585 Y0.03281
G01 X-0.94640 Y0.03179
G01 X-0.94674 Y0.03068
G01 X-0.94685 Y0.02953
G01 X-0.94674 Y0.02837
G01 X-0.94640 Y0.02727
G01 X-0.94585 Y0.02625
G01 X-0.94512 Y0.02535
G01 X-0.94141 Y0.02180
G01 X-0.94039 Y0.02126
G01 X-0.93928 Y0.02092
G01 X-0.93813 Y0.02081
G01 X-0.93698 Y0.02092
G01 X-0.93587 Y0.02126
G01 X-0.93485 Y0.02180
G01 X-0.93396 Y0.02254
G01 X-0.93041 Y0.02625
G01 X-0.92986 Y0.02727
G01 X-0.92953 Y0.02837
G01 X-0.92941 Y0.02953

G04 P0 ( dwell for no time -- G64 should not smooth over this point )
G00 Z1.000000 ( retract )

M5 ( Spindle off. )
G04 P1.000000
M9 ( Coolant off. )
M2 ( Program end. )

