( pcb2gcode 2.2.2 )
( Software-independent Gcode )

G94 ( Inches per minute feed rate. )
G20 ( Units == INCHES. )

G90 ( Absolute coordinates. )
G00 S12000 ( RPM spindle speed. )
G64 P0.00040 ( set maximum deviation from commanded toolpath )
G01 F360.00000 ( Feedrate. )


G00 Z1.00000 (Retract to tool change height)
T0
M5      (Spindle stop.)
G04 P1.00000 (Wait for spindle to stop)
(MSG, Change tool bit to mill diameter 0.00787in)
M6      (Tool change.)
M0      (Temporary machine stop.)
M3 ( Spindle on clockwise. )
G04 P1.00000 (Wait for spindle to get up to speed)
G04 P0 ( dwell for no time -- G64 should not smooth over this point )
G00 Z0.08000 ( retract )

G00 X-3.18794 Y-2.55239 ( rapid move to begin. )
G01 F180.00000
( Mill infeed pass 1/1 )
G01 Z-0.04000
G04 P0 ( dwell for no time -- G64 should not smooth over this point )
G01 F360.00000
G01 X-3.18794 Y-2.55239
G01 X-3.20673 Y-2.55041
G01 X-3.20777 Y-2.55939
G01 X-3.21064 Y-2.56798
G01 X-3.21524 Y-2.57576
G01 X-3.22074 Y-2.58187
G01 X-3.22873 Y-2.58768
G01 X-3.23702 Y-2.59127
G01 X-3.24589 Y-2.59307
G01 X-3.25493 Y-2.59298
G01 X-3.26298 Y-2.59127
G01 X-3.27127 Y-2.58768
G01 X-3.27926 Y-2.58187
G01 X-3.28476 Y-2.57576
G01 X-3.28832 Y-2.56969
G01 X-3.61168 Y-2.56969
G01 X-3.61524 Y-2.57576
G01 X-3.62074 Y-2.58187
G01 X-3.62873 Y-2.58768
G01 X-3.63702 Y-2.59127
G01 X-3.64507 Y-2.59298
G01 X-3.65493 Y-2.59298
G01 X-3.66298 Y-2.59127
G01 X-3.67127 Y-2.58768
G01 X-3.67864 Y-2.58242
G01 X-3.68476 Y-2.57576
G01 X-3.68936 Y-2.56798
G01 X-3.69240 Y-2.55859
G01 X-3.69326 Y-2.54959
G01 X-3.69240 Y-2.54141
G01 X-3.69092 Y-2.53657
G01 X-3.80455 Y-2.42294
G01 X-4.14545 Y-2.42294
G01 X-4.25908 Y-2.53657
G01 X-4.25759 Y-2.54141
G01 X-4.25673 Y-2.54962
G01 X-4.01345 Y-2.67126
G01 X-3.93110 Y-2.67126
G01 X-3.93033 Y-2.67134
G01 X-3.92891 Y-2.67193
G01 X-3.92783 Y-2.67301
G01 X-3.92724 Y-2.67443
G01 X-3.92716 Y-2.81300
G01 X-3.92746 Y-2.81451
G01 X-3.92832 Y-2.81578
G01 X-3.92959 Y-2.81664
G01 X-3.93110 Y-2.81694
G01 X-4.06890 Y-2.81694
G01 X-4.07041 Y-2.81664
G01 X-4.07168 Y-2.81578
G01 X-4.07254 Y-2.81451
G01 X-4.07284 Y-2.81300
G01 X-4.07284 Y-2.68559
G01 X-4.27454 Y-2.58474
G01 X-4.27872 Y-2.58768
G01 X-4.28624 Y-2.59102
G01 X-4.29507 Y-2.59298
G01 X-4.30411 Y-2.59307
G01 X-4.31298 Y-2.59127
G01 X-4.32128 Y-2.58768
G01 X-4.32865 Y-2.58242
G01 X-4.33476 Y-2.57576
G01 X-4.33832 Y-2.56969
G01 X-4.66168 Y-2.56969
G01 X-4.66524 Y-2.57576
G01 X-4.67074 Y-2.58187
G01 X-4.67872 Y-2.58768
G01 X-4.68702 Y-2.59127
G01 X-4.69507 Y-2.59298
G01 X-4.70411 Y-2.59307
G01 X-4.71298 Y-2.59127
G01 X-4.72128 Y-2.58768
G01 X-4.72926 Y-2.58187
G01 X-4.73524 Y-2.57510
G01 X-4.73969 Y-2.56722
G01 X-4.74240 Y-2.55859
G01 X-4.74327 Y-2.54959
G01 X-4.74223 Y-2.54060
G01 X-4.73936 Y-2.53202
G01 X-4.73476 Y-2.52424
G01 X-4.72926 Y-2.51813
G01 X-4.72128 Y-2.51232
G01 X-4.71298 Y-2.50873
G01 X-4.70411 Y-2.50693
G01 X-4.69507 Y-2.50702
G01 X-4.68702 Y-2.50873
G01 X-4.67872 Y-2.51232
G01 X-4.67074 Y-2.51813
G01 X-4.66524 Y-2.52424
G01 X-4.66168 Y-2.53031
G01 X-4.33832 Y-2.53031
G01 X-4.33476 Y-2.52424
G01 X-4.32865 Y-2.51758
G01 X-4.32128 Y-2.51232
G01 X-4.31376 Y-2.50898
G01 X-4.30411 Y-2.50693
G01 X-4.29507 Y-2.50702
G01 X-4.28641 Y-2.50893
G01 X-4.16724 Y-2.38976
G01 X-4.16461 Y-2.38757
G01 X-4.16128 Y-2.38571
G01 X-4.15691 Y-2.38438
G01 X-4.15350 Y-2.38406
G01 X-3.79650 Y-2.38406
G01 X-3.79234 Y-2.38453
G01 X-3.78872 Y-2.38571
G01 X-3.78539 Y-2.38757
G01 X-3.78276 Y-2.38976
G01 X-3.66358 Y-2.50893
G01 X-3.65493 Y-2.50702
G01 X-3.64589 Y-2.50693
G01 X-3.63624 Y-2.50898
G01 X-3.62873 Y-2.51232
G01 X-3.62135 Y-2.51757
G01 X-3.61524 Y-2.52424
G01 X-3.61168 Y-2.53031
G01 X-3.28832 Y-2.53031
G01 X-3.28476 Y-2.52424
G01 X-3.27926 Y-2.51813
G01 X-3.27127 Y-2.51232
G01 X-3.26298 Y-2.50873
G01 X-3.25493 Y-2.50702
G01 X-3.24589 Y-2.50693
G01 X-3.23702 Y-2.50873
G01 X-3.22873 Y-2.51232
G01 X-3.22074 Y-2.51813
G01 X-3.21476 Y-2.52490
G01 X-3.21030 Y-2.53277
G01 X-3.20759 Y-2.54141
G01 X-3.20673 Y-2.55041
G04 P0 ( dwell for no time -- G64 should not smooth over this point )
G00 Z0.08000 ( retract )

G00 X-3.45012 Y-2.85239 ( rapid move to begin. )
G01 F180.00000
( Mill infeed pass 1/1 )
G01 Z-0.04000
G04 P0 ( dwell for no time -- G64 should not smooth over this point )
G01 F360.00000
G01 X-3.45012 Y-2.85239
G01 X-3.46891 Y-2.85041
G01 X-3.46965 Y-2.85654
G01 X-3.47164 Y-2.86238
G01 X-3.47479 Y-2.86767
G01 X-3.47837 Y-2.87165
G01 X-3.48332 Y-2.87535
G01 X-3.48892 Y-2.87793
G01 X-3.49493 Y-2.87930
G01 X-3.50033 Y-2.87939
G01 X-3.58469 Y-2.96374
G01 X-3.58732 Y-2.96593
G01 X-3.59065 Y-2.96779
G01 X-3.59502 Y-2.96912
G01 X-3.59843 Y-2.96944
G01 X-3.61148 Y-2.96944
G01 X-3.61524 Y-2.97576
G01 X-3.62074 Y-2.98187
G01 X-3.62873 Y-2.98768
G01 X-3.63702 Y-2.99127
G01 X-3.64507 Y-2.99298
G01 X-3.65411 Y-2.99307
G01 X-3.66298 Y-2.99127
G01 X-3.67198 Y-2.98726
G01 X-3.67926 Y-2.98187
G01 X-3.68476 Y-2.97576
G01 X-3.68852 Y-2.96944
G01 X-3.99580 Y-2.96944
G01 X-3.99921 Y-2.96912
G01 X-4.00287 Y-2.96809
G01 X-4.00626 Y-2.96636
G01 X-4.00954 Y-2.96374
G01 X-4.16494 Y-2.80835
G01 X-4.64164 Y-2.80835
G01 X-4.75541 Y-2.92212
G01 X-4.75541 Y-2.97788
G01 X-4.58147 Y-3.15182
G01 X-4.54627 Y-3.15182
G01 X-4.54477 Y-3.14990
G01 X-4.54049 Y-3.14604
G01 X-4.53483 Y-3.14267
G01 X-4.52860 Y-3.14055
G01 X-4.52165 Y-3.13976
G01 X-4.47794 Y-3.13978
G01 X-4.47140 Y-3.14055
G01 X-4.46592 Y-3.14234
G01 X-4.45951 Y-3.14604
G01 X-4.45469 Y-3.15050
G01 X-4.45130 Y-3.15516
G01 X-4.44829 Y-3.16192
G01 X-4.44700 Y-3.16838
G01 X-4.44700 Y-3.17414
G01 X-4.44854 Y-3.18138
G01 X-4.45088 Y-3.18664
G01 X-4.45469 Y-3.19202
G01 X-4.46018 Y-3.19697
G01 X-4.46592 Y-3.20018
G01 X-4.47140 Y-3.20196
G01 X-4.47794 Y-3.20274
G01 X-4.52165 Y-3.20276
G01 X-4.52779 Y-3.20214
G01 X-4.53408 Y-3.20018
G01 X-4.53982 Y-3.19697
G01 X-4.54477 Y-3.19262
G01 X-4.54627 Y-3.19070
G01 X-4.58991 Y-3.19068
G01 X-4.59368 Y-3.19023
G01 X-4.59659 Y-3.18935
G01 X-4.60063 Y-3.18719
G01 X-4.60326 Y-3.18500
G01 X-4.78859 Y-2.99967
G01 X-4.79078 Y-2.99704
G01 X-4.79264 Y-2.99371
G01 X-4.79397 Y-2.98934
G01 X-4.79429 Y-2.98593
G01 X-4.79429 Y-2.91407
G01 X-4.79382 Y-2.90991
G01 X-4.79264 Y-2.90629
G01 X-4.79121 Y-2.90361
G01 X-4.78859 Y-2.90033
G01 X-4.66343 Y-2.77517
G01 X-4.66080 Y-2.77298
G01 X-4.65747 Y-2.77112
G01 X-4.65310 Y-2.76979
G01 X-4.64969 Y-2.76947
G01 X-4.15689 Y-2.76947
G01 X-4.15273 Y-2.76994
G01 X-4.14910 Y-2.77112
G01 X-4.14643 Y-2.77255
G01 X-4.14315 Y-2.77517
G01 X-3.98775 Y-2.93056
G01 X-3.68852 Y-2.93056
G01 X-3.68476 Y-2.92424
G01 X-3.67926 Y-2.91813
G01 X-3.67198 Y-2.91274
G01 X-3.66298 Y-2.90873
G01 X-3.65411 Y-2.90693
G01 X-3.64507 Y-2.90702
G01 X-3.63702 Y-2.90873
G01 X-3.62873 Y-2.91232
G01 X-3.62074 Y-2.91813
G01 X-3.61524 Y-2.92424
G01 X-3.61148 Y-2.93056
G01 X-3.60648 Y-2.93056
G01 X-3.52778 Y-2.85186
G01 X-3.52793 Y-2.84959
G01 X-3.52738 Y-2.84427
G01 X-3.52521 Y-2.83762
G01 X-3.52206 Y-2.83233
G01 X-3.51848 Y-2.82835
G01 X-3.51353 Y-2.82465
G01 X-3.50715 Y-2.82181
G01 X-3.50110 Y-2.82061
G01 X-3.49575 Y-2.82061
G01 X-3.48970 Y-2.82181
G01 X-3.48332 Y-2.82465
G01 X-3.47837 Y-2.82835
G01 X-3.47479 Y-2.83233
G01 X-3.47164 Y-2.83762
G01 X-3.46947 Y-2.84427
G01 X-3.46891 Y-2.85041
G04 P0 ( dwell for no time -- G64 should not smooth over this point )
G00 Z0.08000 ( retract )

G00 X-3.19923 Y-2.92918 ( rapid move to begin. )
G01 F180.00000
( Mill infeed pass 1/1 )
G01 Z-0.04000
G04 P0 ( dwell for no time -- G64 should not smooth over this point )
G01 F360.00000
G01 X-3.19923 Y-2.92918
G01 X-3.19793 Y-2.93741
G01 X-3.19762 Y-2.94036
G01 X-3.19719 Y-2.94858
G01 X-3.19719 Y-2.95141
G01 X-3.20047 Y-2.95107
G01 X-3.20133 Y-2.95925
G01 X-3.20177 Y-2.96134
G01 X-3.20431 Y-2.96917
G01 X-3.20519 Y-2.97114
G01 X-3.20931 Y-2.97826
G01 X-3.21056 Y-2.97998
G01 X-3.21606 Y-2.98609
G01 X-3.21765 Y-2.98752
G01 X-3.22426 Y-2.99233
G01 X-3.22492 Y-2.99200
G01 X-3.22426 Y-2.99233
G01 X-3.22426 Y-3.18021
G01 X-3.22461 Y-3.18424
G01 X-3.22500 Y-3.18619
G01 X-3.22588 Y-3.18910
G01 X-3.22665 Y-3.19096
G01 X-3.22808 Y-3.19364
G01 X-3.22920 Y-3.19532
G01 X-3.23180 Y-3.19841
G01 X-3.30159 Y-3.26820
G01 X-3.30468 Y-3.27080
G01 X-3.30636 Y-3.27192
G01 X-3.30904 Y-3.27335
G01 X-3.31090 Y-3.27412
G01 X-3.31381 Y-3.27500
G01 X-3.31576 Y-3.27539
G01 X-3.31979 Y-3.27574
G01 X-3.35074 Y-3.27574
G01 X-3.35089 Y-3.27534
G01 X-3.35074 Y-3.27574
G01 X-3.35101 Y-3.27604
G01 X-3.35529 Y-3.27990
G01 X-3.35703 Y-3.28117
G01 X-3.36202 Y-3.28404
G01 X-3.36398 Y-3.28491
G01 X-3.36946 Y-3.28669
G01 X-3.37155 Y-3.28714
G01 X-3.37728 Y-3.28774
G01 X-3.42272 Y-3.28774
G01 X-3.42845 Y-3.28714
G01 X-3.43054 Y-3.28669
G01 X-3.43602 Y-3.28491
G01 X-3.43798 Y-3.28404
G01 X-3.44297 Y-3.28117
G01 X-3.44470 Y-3.27990
G01 X-3.44898 Y-3.27604
G01 X-3.45041 Y-3.27446
G01 X-3.45380 Y-3.26980
G01 X-3.45487 Y-3.26794
G01 X-3.45721 Y-3.26268
G01 X-3.45787 Y-3.26065
G01 X-3.45907 Y-3.25501
G01 X-3.45930 Y-3.25288
G01 X-3.45930 Y-3.24712
G01 X-3.45907 Y-3.24499
G01 X-3.45787 Y-3.23935
G01 X-3.45721 Y-3.23732
G01 X-3.45487 Y-3.23206
G01 X-3.45380 Y-3.23020
G01 X-3.45041 Y-3.22554
G01 X-3.44898 Y-3.22396
G01 X-3.44470 Y-3.22010
G01 X-3.44297 Y-3.21883
G01 X-3.43798 Y-3.21595
G01 X-3.43602 Y-3.21508
G01 X-3.43054 Y-3.21330
G01 X-3.42845 Y-3.21286
G01 X-3.42272 Y-3.21226
G01 X-3.37835 Y-3.21220
G01 X-3.37155 Y-3.21286
G01 X-3.36946 Y-3.21330
G01 X-3.36398 Y-3.21508
G01 X-3.36202 Y-3.21595
G01 X-3.35703 Y-3.21883
G01 X-3.35529 Y-3.22010
G01 X-3.35101 Y-3.22396
G01 X-3.35074 Y-3.22426
G01 X-3.35089 Y-3.22466
G01 X-3.35074 Y-3.22426
G01 X-3.33045 Y-3.22426
G01 X-3.33025 Y-3.22474
G01 X-3.33045 Y-3.22426
G01 X-3.27574 Y-3.16955
G01 X-3.27526 Y-3.16975
G01 X-3.27574 Y-3.16955
G01 X-3.27574 Y-2.99233
G01 X-3.27508 Y-2.99200
G01 X-3.27574 Y-2.99233
G01 X-3.28235 Y-2.98752
G01 X-3.28394 Y-2.98609
G01 X-3.28944 Y-2.97998
G01 X-3.29069 Y-2.97826
G01 X-3.29481 Y-2.97114
G01 X-3.29569 Y-2.96917
G01 X-3.29823 Y-2.96134
G01 X-3.29867 Y-2.95925
G01 X-3.29953 Y-2.95107
G01 X-3.29953 Y-2.94893
G01 X-3.29867 Y-2.94075
G01 X-3.29811 Y-2.93829
G01 X-3.29745 Y-2.93806
G01 X-3.29811 Y-2.93829
G01 X-3.36066 Y-2.87574
G01 X-3.36046 Y-2.87526
G01 X-3.36066 Y-2.87574
G01 X-3.36419 Y-2.87574
G01 X-3.36535 Y-2.87431
G01 X-3.36419 Y-2.87574
G01 X-3.36437 Y-2.87759
G01 X-3.36495 Y-2.87951
G01 X-3.36590 Y-2.88128
G01 X-3.36717 Y-2.88283
G01 X-3.36872 Y-2.88410
G01 X-3.37049 Y-2.88505
G01 X-3.37241 Y-2.88563
G01 X-3.37441 Y-2.88583
G01 X-3.42559 Y-2.88583
G01 X-3.42759 Y-2.88563
G01 X-3.42951 Y-2.88505
G01 X-3.43128 Y-2.88410
G01 X-3.43283 Y-2.88283
G01 X-3.43410 Y-2.88128
G01 X-3.43505 Y-2.87951
G01 X-3.43563 Y-2.87759
G01 X-3.43583 Y-2.87559
G01 X-3.43583 Y-2.82441
G01 X-3.43563 Y-2.82241
G01 X-3.43505 Y-2.82049
G01 X-3.43410 Y-2.81872
G01 X-3.43283 Y-2.81717
G01 X-3.43128 Y-2.81590
G01 X-3.42951 Y-2.81495
G01 X-3.42759 Y-2.81437
G01 X-3.42559 Y-2.81417
G01 X-3.37441 Y-2.81417
G01 X-3.37241 Y-2.81437
G01 X-3.37049 Y-2.81495
G01 X-3.36872 Y-2.81590
G01 X-3.36717 Y-2.81717
G01 X-3.36590 Y-2.81872
G01 X-3.36495 Y-2.82049
G01 X-3.36437 Y-2.82241
G01 X-3.36419 Y-2.82426
G01 X-3.36535 Y-2.82567
G01 X-3.36419 Y-2.82426
G01 X-3.34899 Y-2.82431
G01 X-3.34597 Y-2.82461
G01 X-3.34402 Y-2.82500
G01 X-3.34111 Y-2.82588
G01 X-3.33925 Y-2.82665
G01 X-3.33657 Y-2.82808
G01 X-3.33489 Y-2.82920
G01 X-3.33180 Y-2.83180
G01 X-3.26161 Y-2.90200
G01 X-3.26185 Y-2.90277
G01 X-3.26161 Y-2.90200
G01 X-3.25624 Y-2.90086
G01 X-3.25411 Y-2.90063
G01 X-3.24589 Y-2.90063
G01 X-3.24376 Y-2.90086
G01 X-3.23571 Y-2.90257
G01 X-3.23368 Y-2.90323
G01 X-3.22617 Y-2.90657
G01 X-3.22431 Y-2.90764
G01 X-3.21765 Y-2.91248
G01 X-3.21606 Y-2.91391
G01 X-3.21056 Y-2.92002
G01 X-3.20931 Y-2.92174
G01 X-3.20519 Y-2.92886
G01 X-3.20431 Y-2.93083
G01 X-3.20177 Y-2.93866
G01 X-3.20133 Y-2.94075
G01 X-3.20047 Y-2.94893
G01 X-3.20047 Y-2.95107
G01 X-3.20673 Y-2.95041
G01 X-3.20759 Y-2.95859
G01 X-3.21030 Y-2.96722
G01 X-3.21476 Y-2.97510
G01 X-3.22135 Y-2.98242
G01 X-3.22802 Y-2.98726
G01 X-3.23056 Y-2.98849
G01 X-3.23056 Y-3.18021
G01 X-3.23088 Y-3.18362
G01 X-3.23191 Y-3.18728
G01 X-3.23407 Y-3.19132
G01 X-3.23626 Y-3.19395
G01 X-3.30605 Y-3.26374
G01 X-3.30933 Y-3.26636
G01 X-3.31272 Y-3.26809
G01 X-3.31638 Y-3.26912
G01 X-3.31979 Y-3.26944
G01 X-3.35373 Y-3.26944
G01 X-3.35523 Y-3.27136
G01 X-3.35951 Y-3.27522
G01 X-3.36517 Y-3.27859
G01 X-3.37140 Y-3.28070
G01 X-3.37794 Y-3.28147
G01 X-3.42206 Y-3.28147
G01 X-3.42860 Y-3.28070
G01 X-3.43408 Y-3.27892
G01 X-3.43982 Y-3.27571
G01 X-3.44531 Y-3.27076
G01 X-3.44912 Y-3.26538
G01 X-3.45171 Y-3.25934
G01 X-3.45300 Y-3.25288
G01 X-3.45291 Y-3.24630
G01 X-3.45146 Y-3.23988
G01 X-3.44912 Y-3.23462
G01 X-3.44531 Y-3.22924
G01 X-3.43982 Y-3.22429
G01 X-3.43408 Y-3.22107
G01 X-3.42860 Y-3.21929
G01 X-3.42206 Y-3.21852
G01 X-3.37794 Y-3.21852
G01 X-3.37140 Y-3.21929
G01 X-3.36517 Y-3.22141
G01 X-3.35951 Y-3.22478
G01 X-3.35523 Y-3.22864
G01 X-3.35373 Y-3.23056
G01 X-3.32784 Y-3.23056
G01 X-3.26944 Y-3.17216
G01 X-3.26944 Y-2.98849
G01 X-3.27198 Y-2.98726
G01 X-3.27926 Y-2.98187
G01 X-3.28524 Y-2.97510
G01 X-3.28969 Y-2.96722
G01 X-3.29241 Y-2.95859
G01 X-3.29326 Y-2.95041
G01 X-3.29241 Y-2.94141
G01 X-3.29092 Y-2.93657
G01 X-3.35805 Y-2.86944
G01 X-3.37047 Y-2.86944
G01 X-3.37047 Y-2.87559
G01 X-3.37077 Y-2.87710
G01 X-3.37114 Y-2.87778
G01 X-3.37222 Y-2.87886
G01 X-3.37364 Y-2.87945
G01 X-3.42559 Y-2.87953
G01 X-3.42710 Y-2.87923
G01 X-3.42837 Y-2.87837
G01 X-3.42923 Y-2.87710
G01 X-3.42953 Y-2.87559
G01 X-3.42953 Y-2.82441
G01 X-3.42945 Y-2.82364
G01 X-3.42886 Y-2.82222
G01 X-3.42778 Y-2.82114
G01 X-3.42710 Y-2.82077
G01 X-3.42559 Y-2.82047
G01 X-3.37364 Y-2.82055
G01 X-3.37222 Y-2.82114
G01 X-3.37114 Y-2.82222
G01 X-3.37077 Y-2.82290
G01 X-3.37047 Y-2.82441
G01 X-3.37047 Y-2.83056
G01 X-3.35000 Y-2.83056
G01 X-3.34659 Y-2.83088
G01 X-3.34293 Y-2.83191
G01 X-3.33954 Y-2.83364
G01 X-3.33626 Y-2.83626
G01 X-3.26358 Y-2.90893
G01 X-3.25411 Y-2.90693
G01 X-3.24507 Y-2.90702
G01 X-3.23702 Y-2.90873
G01 X-3.22873 Y-2.91232
G01 X-3.22135 Y-2.91757
G01 X-3.21524 Y-2.92424
G01 X-3.21064 Y-2.93202
G01 X-3.20759 Y-2.94141
G01 X-3.20673 Y-2.95041
G04 P0 ( dwell for no time -- G64 should not smooth over this point )
G00 Z0.08000 ( retract )

G00 X-3.32810 Y-3.17414 ( rapid move to begin. )
G01 F180.00000
( Mill infeed pass 1/1 )
G01 Z-0.04000
G04 P0 ( dwell for no time -- G64 should not smooth over this point )
G01 F360.00000
G01 X-3.32810 Y-3.17414
G01 X-3.34700 Y-3.17414
G01 X-3.34829 Y-3.18060
G01 X-3.35088 Y-3.18664
G01 X-3.35523 Y-3.19262
G01 X-3.36018 Y-3.19697
G01 X-3.36592 Y-3.20018
G01 X-3.37221 Y-3.20214
G01 X-3.37835 Y-3.20276
G01 X-3.42165 Y-3.20276
G01 X-3.42779 Y-3.20214
G01 X-3.43408 Y-3.20018
G01 X-3.43982 Y-3.19697
G01 X-3.44477 Y-3.19262
G01 X-3.44609 Y-3.19095
G01 X-4.04280 Y-3.19095
G01 X-4.04702 Y-3.19048
G01 X-4.05068 Y-3.18928
G01 X-4.05340 Y-3.18783
G01 X-4.05672 Y-3.18518
G01 X-4.26567 Y-2.97624
G01 X-4.27135 Y-2.98242
G01 X-4.27800 Y-2.98726
G01 X-4.28624 Y-2.99102
G01 X-4.29507 Y-2.99298
G01 X-4.30411 Y-2.99307
G01 X-4.31298 Y-2.99127
G01 X-4.32128 Y-2.98768
G01 X-4.32865 Y-2.98242
G01 X-4.33476 Y-2.97576
G01 X-4.33936 Y-2.96798
G01 X-4.34223 Y-2.95939
G01 X-4.34326 Y-2.95041
G01 X-4.34241 Y-2.94141
G01 X-4.33936 Y-2.93202
G01 X-4.33476 Y-2.92424
G01 X-4.32865 Y-2.91758
G01 X-4.32200 Y-2.91274
G01 X-4.31968 Y-2.91161
G01 X-4.31969 Y-2.86969
G01 X-4.42976 Y-2.86969
G01 X-4.43214 Y-2.87221
G01 X-4.43647 Y-2.87535
G01 X-4.44207 Y-2.87793
G01 X-4.44890 Y-2.87939
G01 X-4.45507 Y-2.87930
G01 X-4.46108 Y-2.87793
G01 X-4.46668 Y-2.87535
G01 X-4.47163 Y-2.87165
G01 X-4.47569 Y-2.86701
G01 X-4.47869 Y-2.86163
G01 X-4.48053 Y-2.85573
G01 X-4.48109 Y-2.84959
G01 X-4.48035 Y-2.84346
G01 X-4.47836 Y-2.83762
G01 X-4.47569 Y-2.83299
G01 X-4.47101 Y-2.82779
G01 X-4.46668 Y-2.82465
G01 X-4.46108 Y-2.82206
G01 X-4.45425 Y-2.82061
G01 X-4.44808 Y-2.82070
G01 X-4.44207 Y-2.82206
G01 X-4.43647 Y-2.82465
G01 X-4.43214 Y-2.82779
G01 X-4.42976 Y-2.83031
G01 X-4.30000 Y-2.83031
G01 X-4.29655 Y-2.83063
G01 X-4.29282 Y-2.83168
G01 X-4.28875 Y-2.83385
G01 X-4.28582 Y-2.83636
G01 X-4.28343 Y-2.83940
G01 X-4.28168 Y-2.84282
G01 X-4.28063 Y-2.84655
G01 X-4.28031 Y-2.85000
G01 X-4.28031 Y-2.90591
G01 X-4.03465 Y-3.15157
G01 X-3.44609 Y-3.15157
G01 X-3.44477 Y-3.14990
G01 X-3.43982 Y-3.14555
G01 X-3.43408 Y-3.14234
G01 X-3.42779 Y-3.14038
G01 X-3.42165 Y-3.13976
G01 X-3.37835 Y-3.13976
G01 X-3.37221 Y-3.14038
G01 X-3.36592 Y-3.14234
G01 X-3.36018 Y-3.14555
G01 X-3.35523 Y-3.14990
G01 X-3.35130 Y-3.15516
G01 X-3.34854 Y-3.16114
G01 X-3.34709 Y-3.16756
G01 X-3.34700 Y-3.17414
G04 P0 ( dwell for no time -- G64 should not smooth over this point )
G00 Z0.08000 ( retract )

G00 X-3.44770 Y-3.28937 ( rapid move to begin. )
G01 F180.00000
( Mill infeed pass 1/1 )
G01 Z-0.04000
G04 P0 ( dwell for no time -- G64 should not smooth over this point )
G01 F360.00000
G01 X-3.44770 Y-3.28937
G01 X-3.34701 Y-3.28937
G01 X-3.34583 Y-3.28833
G01 X-3.34599 Y-3.28793
G01 X-3.34583 Y-3.28833
G01 X-3.31979 Y-3.28833
G01 X-3.31451 Y-3.28792
G01 X-3.31016 Y-3.28706
G01 X-3.30725 Y-3.28618
G01 X-3.30311 Y-3.28447
G01 X-3.30043 Y-3.28304
G01 X-3.29669 Y-3.28054
G01 X-3.29268 Y-3.27711
G01 X-3.22289 Y-3.20732
G01 X-3.21946 Y-3.20331
G01 X-3.21696 Y-3.19957
G01 X-3.21553 Y-3.19689
G01 X-3.21382 Y-3.19275
G01 X-3.21294 Y-3.18984
G01 X-3.21208 Y-3.18549
G01 X-3.21166 Y-3.18021
G01 X-3.21166 Y-2.99874
G01 X-3.21224 Y-2.99848
G01 X-3.21166 Y-2.99874
G01 X-3.21025 Y-2.99771
G01 X-3.20648 Y-2.99428
G01 X-3.20345 Y-2.98638
G01 X-3.20215 Y-2.98240
G01 X-3.19995 Y-2.97417
G01 X-3.19922 Y-2.97082
G01 X-3.19793 Y-2.96258
G01 X-3.19761 Y-2.95964
G01 X-3.19719 Y-2.95141
G01 X-3.19719 Y-2.94858
G01 X-3.19762 Y-2.94036
G01 X-3.19793 Y-2.93741
G01 X-3.19923 Y-2.92918
G01 X-3.19994 Y-2.92583
G01 X-3.20215 Y-2.91760
G01 X-3.20345 Y-2.91362
G01 X-3.20648 Y-2.90572
G01 X-3.21025 Y-2.90229
G01 X-3.21691 Y-2.89745
G01 X-3.22105 Y-2.89506
G01 X-3.22856 Y-2.89172
G01 X-3.23310 Y-2.89024
G01 X-3.24114 Y-2.88853
G01 X-3.24589 Y-2.88803
G01 X-3.25411 Y-2.88803
G01 X-3.25740 Y-2.88838
G01 X-3.25761 Y-2.88890
G01 X-3.25740 Y-2.88838
G01 X-3.32289 Y-2.82289
G01 X-3.32690 Y-2.81946
G01 X-3.33064 Y-2.81696
G01 X-3.33332 Y-2.81553
G01 X-3.33746 Y-2.81382
G01 X-3.34037 Y-2.81294
G01 X-3.34472 Y-2.81208
G01 X-3.34774 Y-2.81178
G01 X-3.35547 Y-2.81167
G01 X-3.35568 Y-2.81213
G01 X-3.35547 Y-2.81167
G01 X-3.35826 Y-2.80826
G01 X-3.35990 Y-2.80692
G01 X-3.36427 Y-2.80529
G01 X-3.37441 Y-2.80403
G01 X-3.42559 Y-2.80403
G01 X-3.43288 Y-2.80468
G01 X-3.43955 Y-2.80647
G01 X-3.44174 Y-2.80826
G01 X-3.44458 Y-2.81172
G01 X-3.44669 Y-2.81567
G01 X-3.44799 Y-2.81996
G01 X-3.44842 Y-2.82441
G01 X-3.44842 Y-2.87559
G01 X-3.44799 Y-2.88004
G01 X-3.44669 Y-2.88433
G01 X-3.44458 Y-2.88828
G01 X-3.44174 Y-2.89174
G01 X-3.43828 Y-2.89458
G01 X-3.43433 Y-2.89669
G01 X-3.43004 Y-2.89798
G01 X-3.42559 Y-2.89842
G01 X-3.37441 Y-2.89842
G01 X-3.36996 Y-2.89798
G01 X-3.36567 Y-2.89669
G01 X-3.36172 Y-2.89458
G01 X-3.36058 Y-2.89364
G01 X-3.36037 Y-2.89196
G01 X-3.36058 Y-2.89364
G01 X-3.31154 Y-2.94267
G01 X-3.31098 Y-2.94246
G01 X-3.31154 Y-2.94267
G01 X-3.31206 Y-2.94761
G01 X-3.31206 Y-2.95239
G01 X-3.31120 Y-2.96057
G01 X-3.31021 Y-2.96523
G01 X-3.30767 Y-2.97306
G01 X-3.30571 Y-2.97745
G01 X-3.30159 Y-2.98457
G01 X-3.29880 Y-2.98841
G01 X-3.29330 Y-2.99452
G01 X-3.28975 Y-2.99771
G01 X-3.28833 Y-2.99874
G01 X-3.28775 Y-2.99848
G01 X-3.28833 Y-2.99874
G01 X-3.28833 Y-3.16433
G01 X-3.28785 Y-3.16453
G01 X-3.28833 Y-3.16433
G01 X-3.33567 Y-3.21166
G01 X-3.33547 Y-3.21214
G01 X-3.33567 Y-3.21166
G01 X-3.34583 Y-3.21166
G01 X-3.34599 Y-3.21207
G01 X-3.34583 Y-3.21166
G01 X-3.34701 Y-3.21063
G01 X-3.45299 Y-3.21063
G01 X-3.45314 Y-3.21074
G01 X-3.45742 Y-3.21460
G01 X-3.46060 Y-3.21813
G01 X-3.46399 Y-3.22279
G01 X-3.46638 Y-3.22694
G01 X-3.46872 Y-3.23220
G01 X-3.47019 Y-3.23673
G01 X-3.47139 Y-3.24237
G01 X-3.47189 Y-3.24712
G01 X-3.47189 Y-3.25288
G01 X-3.47139 Y-3.25763
G01 X-3.47019 Y-3.26327
G01 X-3.46872 Y-3.26780
G01 X-3.46638 Y-3.27306
G01 X-3.46399 Y-3.27721
G01 X-3.46060 Y-3.28187
G01 X-3.45742 Y-3.28540
G01 X-3.45314 Y-3.28926
G01 X-3.45299 Y-3.28937
G01 X-3.44770 Y-3.28937
G01 X-3.45299 Y-3.28937
G01 X-3.45389 Y-3.29015
G01 X-3.45374 Y-3.29055
G01 X-3.45389 Y-3.29015
G01 X-3.66446 Y-3.29025
G01 X-3.69353 Y-3.27954
G01 X-3.69393 Y-3.27996
G01 X-3.69353 Y-3.27954
G01 X-3.69411 Y-3.27774
G01 X-3.69606 Y-3.27337
G01 X-3.69997 Y-3.26660
G01 X-3.70277 Y-3.26274
G01 X-3.70800 Y-3.25693
G01 X-3.71155 Y-3.25374
G01 X-3.71788 Y-3.24914
G01 X-3.72201 Y-3.24675
G01 X-3.72915 Y-3.24357
G01 X-3.73368 Y-3.24210
G01 X-3.74133 Y-3.24047
G01 X-3.74609 Y-3.23997
G01 X-3.75391 Y-3.23997
G01 X-3.75867 Y-3.24047
G01 X-3.76632 Y-3.24210
G01 X-3.77085 Y-3.24357
G01 X-3.77799 Y-3.24675
G01 X-3.78212 Y-3.24914
G01 X-3.78845 Y-3.25374
G01 X-3.79046 Y-3.25555
G01 X-3.79527 Y-3.26935
G01 X-3.79736 Y-3.27717
G01 X-3.79803 Y-3.28029
G01 X-3.79928 Y-3.28810
G01 X-3.79998 Y-3.29867
G01 X-3.79955 Y-3.30915
G01 X-3.79928 Y-3.31190
G01 X-3.79803 Y-3.31970
G01 X-3.79738 Y-3.32283
G01 X-3.79527 Y-3.33065
G01 X-3.79046 Y-3.34445
G01 X-3.78845 Y-3.34626
G01 X-3.78212 Y-3.35086
G01 X-3.77799 Y-3.35325
G01 X-3.77085 Y-3.35643
G01 X-3.76632 Y-3.35790
G01 X-3.75867 Y-3.35953
G01 X-3.75391 Y-3.36003
G01 X-3.74609 Y-3.36003
G01 X-3.74133 Y-3.35953
G01 X-3.73368 Y-3.35790
G01 X-3.72915 Y-3.35643
G01 X-3.72201 Y-3.35325
G01 X-3.71993 Y-3.35205
G01 X-3.71996 Y-3.35152
G01 X-3.71993 Y-3.35205
G01 X-3.69688 Y-3.36047
G01 X-3.68369 Y-3.36280
G01 X-3.67912 Y-3.36344
G01 X-3.67571 Y-3.36374
G01 X-3.67126 Y-3.36389
G01 X-3.45257 Y-3.36389
G01 X-3.44649 Y-3.36601
G01 X-3.44368 Y-3.36676
G01 X-3.44611 Y-3.36536
G01 X-3.44892 Y-3.36332
G01 X-3.45147 Y-3.36103
G01 X-3.45136 Y-3.36071
G01 X-3.45147 Y-3.36103
G01 X-3.67270 Y-3.36096
G01 X-3.67544 Y-3.36072
G01 X-3.67826 Y-3.36023
G01 X-3.68233 Y-3.35907
G01 X-3.72064 Y-3.34509
G01 X-3.72067 Y-3.34452
G01 X-3.72064 Y-3.34509
G01 X-3.72457 Y-3.34749
G01 X-3.73171 Y-3.35067
G01 X-3.73499 Y-3.35174
G01 X-3.74264 Y-3.35337
G01 X-3.74609 Y-3.35373
G01 X-3.75391 Y-3.35373
G01 X-3.75736 Y-3.35337
G01 X-3.76500 Y-3.35174
G01 X-3.76829 Y-3.35067
G01 X-3.77543 Y-3.34749
G01 X-3.77842 Y-3.34577
G01 X-3.78475 Y-3.34117
G01 X-3.78732 Y-3.33885
G01 X-3.79255 Y-3.33304
G01 X-3.79458 Y-3.33025
G01 X-3.79606 Y-3.32768
G01 X-3.79736 Y-3.32283
G01 X-3.79803 Y-3.31970
G01 X-3.79926 Y-3.31189
G01 X-3.79955 Y-3.30915
G01 X-3.79996 Y-3.30132
G01 X-3.79996 Y-3.29867
G01 X-3.79955 Y-3.29085
G01 X-3.79926 Y-3.28810
G01 X-3.79803 Y-3.28029
G01 X-3.79736 Y-3.27717
G01 X-3.79527 Y-3.26935
G01 X-3.79043 Y-3.25543
G01 X-3.79150 Y-3.25189
G01 X-3.79361 Y-3.24794
G01 X-3.79645 Y-3.24448
G01 X-3.79991 Y-3.24164
G01 X-3.80386 Y-3.23953
G01 X-3.80815 Y-3.23823
G01 X-3.81260 Y-3.23780
G01 X-3.88740 Y-3.23780
G01 X-3.89185 Y-3.23823
G01 X-3.89614 Y-3.23953
G01 X-3.90009 Y-3.24164
G01 X-3.90355 Y-3.24448
G01 X-3.90639 Y-3.24794
G01 X-3.90850 Y-3.25189
G01 X-3.90979 Y-3.25617
G01 X-3.91023 Y-3.26166
G01 X-3.90869 Y-3.26334
G01 X-3.91023 Y-3.26166
G01 X-3.98976 Y-3.26166
G01 X-3.99131 Y-3.26334
G01 X-3.98976 Y-3.26166
G01 X-3.99020 Y-3.25617
G01 X-3.99150 Y-3.25189
G01 X-3.99361 Y-3.24794
G01 X-3.99645 Y-3.24448
G01 X-3.99991 Y-3.24164
G01 X-4.00386 Y-3.23953
G01 X-4.00814 Y-3.23823
G01 X-4.01260 Y-3.23780
G01 X-4.08740 Y-3.23780
G01 X-4.09185 Y-3.23823
G01 X-4.09614 Y-3.23953
G01 X-4.10009 Y-3.24164
G01 X-4.10355 Y-3.24448
G01 X-4.10639 Y-3.24794
G01 X-4.10849 Y-3.25189
G01 X-4.10957 Y-3.25543
G01 X-4.10786 Y-3.26063
G01 X-4.10595 Y-3.26561
G01 X-4.10393 Y-3.27232
G01 X-4.10393 Y-3.26063
G01 X-4.10362 Y-3.25740
G01 X-4.10268 Y-3.25430
G01 X-4.10115 Y-3.25144
G01 X-4.09909 Y-3.24894
G01 X-4.09659 Y-3.24688
G01 X-4.09373 Y-3.24535
G01 X-4.09063 Y-3.24441
G01 X-4.08740 Y-3.24409
G01 X-4.01260 Y-3.24409
G01 X-4.00937 Y-3.24441
G01 X-4.00627 Y-3.24535
G01 X-4.00341 Y-3.24688
G01 X-4.00091 Y-3.24894
G01 X-3.99885 Y-3.25144
G01 X-3.99732 Y-3.25430
G01 X-3.99638 Y-3.25740
G01 X-3.99606 Y-3.26063
G01 X-3.99606 Y-3.26796
G01 X-3.99779 Y-3.26974
G01 X-3.99606 Y-3.26796
G01 X-3.90394 Y-3.26796
G01 X-3.90221 Y-3.26974
G01 X-3.90394 Y-3.26796
G01 X-3.90394 Y-3.26063
G01 X-3.90362 Y-3.25740
G01 X-3.90268 Y-3.25430
G01 X-3.90115 Y-3.25144
G01 X-3.89909 Y-3.24894
G01 X-3.89659 Y-3.24688
G01 X-3.89373 Y-3.24535
G01 X-3.89062 Y-3.24441
G01 X-3.88740 Y-3.24409
G01 X-3.81260 Y-3.24409
G01 X-3.80937 Y-3.24441
G01 X-3.80627 Y-3.24535
G01 X-3.80341 Y-3.24688
G01 X-3.80091 Y-3.24894
G01 X-3.79885 Y-3.25144
G01 X-3.79732 Y-3.25430
G01 X-3.79638 Y-3.25740
G01 X-3.79606 Y-3.26063
G01 X-3.79606 Y-3.27232
G01 X-3.79458 Y-3.26975
G01 X-3.79255 Y-3.26696
G01 X-3.78732 Y-3.26115
G01 X-3.78475 Y-3.25883
G01 X-3.77842 Y-3.25423
G01 X-3.77543 Y-3.25250
G01 X-3.76829 Y-3.24932
G01 X-3.76500 Y-3.24826
G01 X-3.75736 Y-3.24663
G01 X-3.75391 Y-3.24626
G01 X-3.74609 Y-3.24626
G01 X-3.74264 Y-3.24663
G01 X-3.73499 Y-3.24826
G01 X-3.73171 Y-3.24932
G01 X-3.72457 Y-3.25250
G01 X-3.72158 Y-3.25423
G01 X-3.71525 Y-3.25883
G01 X-3.71268 Y-3.26115
G01 X-3.70745 Y-3.26696
G01 X-3.70542 Y-3.26975
G01 X-3.70151 Y-3.27652
G01 X-3.70010 Y-3.27969
G01 X-3.69857 Y-3.28440
G01 X-3.69902 Y-3.28485
G01 X-3.69857 Y-3.28440
G01 X-3.66557 Y-3.29655
G01 X-3.45147 Y-3.29645
G01 X-3.45134 Y-3.29682
G01 X-3.45147 Y-3.29645
G01 X-3.44892 Y-3.29416
G01 X-3.44611 Y-3.29212
G01 X-3.44135 Y-3.28937
G01 X-3.35865 Y-3.28937
G01 X-3.35388 Y-3.29212
G01 X-3.35107 Y-3.29416
G01 X-3.34680 Y-3.29802
G01 X-3.34450 Y-3.30057
G01 X-3.34111 Y-3.30523
G01 X-3.33937 Y-3.30824
G01 X-3.33703 Y-3.31350
G01 X-3.33597 Y-3.31678
G01 X-3.33477 Y-3.32242
G01 X-3.33440 Y-3.32586
G01 X-3.33440 Y-3.33162
G01 X-3.33477 Y-3.33506
G01 X-3.33581 Y-3.33998
G01 X-3.20018 Y-3.20435
G01 X-3.19970 Y-3.20455
G01 X-3.20018 Y-3.20435
G01 X-3.20018 Y-2.97507
G01 X-3.20386 Y-2.98141
G01 X-3.20588 Y-2.98419
G01 X-3.21138 Y-2.99030
G01 X-3.21395 Y-2.99262
G01 X-3.21796 Y-2.99553
G01 X-3.21859 Y-2.99523
G01 X-3.21796 Y-2.99553
G01 X-3.21796 Y-3.18021
G01 X-3.21834 Y-3.18486
G01 X-3.21897 Y-3.18802
G01 X-3.21985 Y-3.19093
G01 X-3.22109 Y-3.19392
G01 X-3.22252 Y-3.19660
G01 X-3.22433 Y-3.19931
G01 X-3.22735 Y-3.20286
G01 X-3.29714 Y-3.27265
G01 X-3.30069 Y-3.27567
G01 X-3.30340 Y-3.27748
G01 X-3.30607 Y-3.27891
G01 X-3.30907 Y-3.28015
G01 X-3.31198 Y-3.28103
G01 X-3.31514 Y-3.28165
G01 X-3.31979 Y-3.28204
G01 X-3.34825 Y-3.28204
G01 X-3.34838 Y-3.28167
G01 X-3.34825 Y-3.28204
G01 X-3.35107 Y-3.28458
G01 X-3.35388 Y-3.28662
G01 X-3.35865 Y-3.28937
G01 X-3.35388 Y-3.29212
G01 X-3.35107 Y-3.29416
G01 X-3.34680 Y-3.29802
G01 X-3.34450 Y-3.30057
G01 X-3.34111 Y-3.30523
G01 X-3.33937 Y-3.30824
G01 X-3.33703 Y-3.31350
G01 X-3.33597 Y-3.31678
G01 X-3.33477 Y-3.32242
G01 X-3.33440 Y-3.32586
G01 X-3.33440 Y-3.33162
G01 X-3.33477 Y-3.33506
G01 X-3.33581 Y-3.33998
G01 X-3.33331 Y-3.33537
G01 X-3.33153 Y-3.33162
G01 X-3.34070 Y-3.33162
G01 X-3.34093 Y-3.33375
G01 X-3.34213 Y-3.33939
G01 X-3.34279 Y-3.34142
G01 X-3.34513 Y-3.34668
G01 X-3.34620 Y-3.34854
G01 X-3.34959 Y-3.35320
G01 X-3.35101 Y-3.35478
G01 X-3.35529 Y-3.35864
G01 X-3.35703 Y-3.35990
G01 X-3.36202 Y-3.36279
G01 X-3.36398 Y-3.36366
G01 X-3.36946 Y-3.36544
G01 X-3.37155 Y-3.36588
G01 X-3.37728 Y-3.36648
G01 X-3.42272 Y-3.36648
G01 X-3.42845 Y-3.36588
G01 X-3.43054 Y-3.36544
G01 X-3.43602 Y-3.36366
G01 X-3.43798 Y-3.36279
G01 X-3.44297 Y-3.35990
G01 X-3.44470 Y-3.35864
G01 X-3.44898 Y-3.35478
G01 X-3.44887 Y-3.35431
G01 X-3.44903 Y-3.35473
G01 X-3.67215 Y-3.35469
G01 X-3.67664 Y-3.35414
G01 X-3.68017 Y-3.35316
G01 X-3.72163 Y-3.33802
G01 X-3.72173 Y-3.33725
G01 X-3.72163 Y-3.33802
G01 X-3.72528 Y-3.34067
G01 X-3.72714 Y-3.34174
G01 X-3.73427 Y-3.34492
G01 X-3.73631 Y-3.34558
G01 X-3.74396 Y-3.34721
G01 X-3.74609 Y-3.34744
G01 X-3.75391 Y-3.34744
G01 X-3.75604 Y-3.34721
G01 X-3.76369 Y-3.34558
G01 X-3.76572 Y-3.34492
G01 X-3.77286 Y-3.34174
G01 X-3.77472 Y-3.34067
G01 X-3.78105 Y-3.33607
G01 X-3.78264 Y-3.33464
G01 X-3.78787 Y-3.32883
G01 X-3.78912 Y-3.32710
G01 X-3.79303 Y-3.32033
G01 X-3.79391 Y-3.31837
G01 X-3.79632 Y-3.31094
G01 X-3.79676 Y-3.30885
G01 X-3.79758 Y-3.30107
G01 X-3.79758 Y-3.29893
G01 X-3.79676 Y-3.29115
G01 X-3.79632 Y-3.28906
G01 X-3.79391 Y-3.28163
G01 X-3.79303 Y-3.27967
G01 X-3.78912 Y-3.27290
G01 X-3.78787 Y-3.27117
G01 X-3.78264 Y-3.26536
G01 X-3.78105 Y-3.26393
G01 X-3.77472 Y-3.25933
G01 X-3.77286 Y-3.25826
G01 X-3.76572 Y-3.25508
G01 X-3.76369 Y-3.25442
G01 X-3.75604 Y-3.25279
G01 X-3.75391 Y-3.25256
G01 X-3.74609 Y-3.25256
G01 X-3.74396 Y-3.25279
G01 X-3.73631 Y-3.25442
G01 X-3.73427 Y-3.25508
G01 X-3.72714 Y-3.25826
G01 X-3.72528 Y-3.25933
G01 X-3.71895 Y-3.26393
G01 X-3.71736 Y-3.26536
G01 X-3.71213 Y-3.27117
G01 X-3.71088 Y-3.27290
G01 X-3.70696 Y-3.27967
G01 X-3.70609 Y-3.28163
G01 X-3.70368 Y-3.28906
G01 X-3.70364 Y-3.28926
G01 X-3.70416 Y-3.28975
G01 X-3.70364 Y-3.28926
G01 X-3.66669 Y-3.30285
G01 X-3.44903 Y-3.30275
G01 X-3.44887 Y-3.30317
G01 X-3.44898 Y-3.30270
G01 X-3.44470 Y-3.29884
G01 X-3.44297 Y-3.29757
G01 X-3.43798 Y-3.29469
G01 X-3.43602 Y-3.29382
G01 X-3.43054 Y-3.29204
G01 X-3.42845 Y-3.29160
G01 X-3.42165 Y-3.29094
G01 X-3.37728 Y-3.29100
G01 X-3.37155 Y-3.29160
G01 X-3.36946 Y-3.29204
G01 X-3.36398 Y-3.29382
G01 X-3.36202 Y-3.29469
G01 X-3.35703 Y-3.29757
G01 X-3.35529 Y-3.29884
G01 X-3.35101 Y-3.30270
G01 X-3.34959 Y-3.30428
G01 X-3.34620 Y-3.30894
G01 X-3.34513 Y-3.31080
G01 X-3.34279 Y-3.31606
G01 X-3.34213 Y-3.31809
G01 X-3.34093 Y-3.32373
G01 X-3.34070 Y-3.32586
G01 X-3.34070 Y-3.33162
G01 X-3.34700 Y-3.33162
G01 X-3.34829 Y-3.33808
G01 X-3.35088 Y-3.34412
G01 X-3.35469 Y-3.34950
G01 X-3.35951 Y-3.35396
G01 X-3.36592 Y-3.35766
G01 X-3.37221 Y-3.35961
G01 X-3.37835 Y-3.36024
G01 X-3.42165 Y-3.36024
G01 X-3.42779 Y-3.35961
G01 X-3.43408 Y-3.35766
G01 X-3.43982 Y-3.35445
G01 X-3.44477 Y-3.35010
G01 X-3.44609 Y-3.34843
G01 X-3.67160 Y-3.34841
G01 X-3.67502 Y-3.34805
G01 X-3.67801 Y-3.34724
G01 X-3.72263 Y-3.33095
G01 X-3.72970 Y-3.33599
G01 X-3.73762 Y-3.33942
G01 X-3.74609 Y-3.34114
G01 X-3.75473 Y-3.34105
G01 X-3.76238 Y-3.33942
G01 X-3.77030 Y-3.33599
G01 X-3.77734 Y-3.33097
G01 X-3.78319 Y-3.32461
G01 X-3.78791 Y-3.31642
G01 X-3.79049 Y-3.30819
G01 X-3.79131 Y-3.29959
G01 X-3.79032 Y-3.29101
G01 X-3.78758 Y-3.28282
G01 X-3.78367 Y-3.27605
G01 X-3.77796 Y-3.26958
G01 X-3.77030 Y-3.26401
G01 X-3.76238 Y-3.26058
G01 X-3.75391 Y-3.25886
G01 X-3.74609 Y-3.25886
G01 X-3.73762 Y-3.26058
G01 X-3.72970 Y-3.26401
G01 X-3.72266 Y-3.26903
G01 X-3.71681 Y-3.27539
G01 X-3.71242 Y-3.28282
G01 X-3.70967 Y-3.29101
G01 X-3.70928 Y-3.29390
G01 X-3.66778 Y-3.30905
G01 X-3.44609 Y-3.30905
G01 X-3.44477 Y-3.30738
G01 X-3.43982 Y-3.30303
G01 X-3.43408 Y-3.29982
G01 X-3.42779 Y-3.29786
G01 X-3.42165 Y-3.29724
G01 X-3.37794 Y-3.29726
G01 X-3.37140 Y-3.29804
G01 X-3.36517 Y-3.30015
G01 X-3.35951 Y-3.30352
G01 X-3.35469 Y-3.30798
G01 X-3.35088 Y-3.31336
G01 X-3.34854 Y-3.31862
G01 X-3.34709 Y-3.32504
G01 X-3.34700 Y-3.33162
G04 P0 ( dwell for no time -- G64 should not smooth over this point )
G00 Z0.08000 ( retract )

G00 X-3.12981 Y-3.21762 ( rapid move to begin. )
G01 F180.00000
( Mill infeed pass 1/1 )
G01 Z-0.04000
G04 P0 ( dwell for no time -- G64 should not smooth over this point )
G01 F360.00000
G01 X-3.12981 Y-3.21762
G01 X-3.12981 Y-2.81071
G01 X-3.13023 Y-2.80543
G01 X-3.13109 Y-2.80108
G01 X-3.13197 Y-2.79817
G01 X-3.13368 Y-2.79403
G01 X-3.13511 Y-2.79135
G01 X-3.13761 Y-2.78761
G01 X-3.13954 Y-2.78526
G01 X-3.14104 Y-2.78360
G01 X-3.18360 Y-2.74104
G01 X-3.18761 Y-2.73761
G01 X-3.19135 Y-2.73511
G01 X-3.19403 Y-2.73368
G01 X-3.19817 Y-2.73197
G01 X-3.20108 Y-2.73109
G01 X-3.20543 Y-2.73023
G01 X-3.21071 Y-2.72981
G01 X-3.55707 Y-2.72981
G01 X-3.55727 Y-2.73029
G01 X-3.55707 Y-2.72981
G01 X-3.68802 Y-2.59892
G01 X-3.69284 Y-2.59490
G01 X-3.69574 Y-2.59296
G01 X-3.69842 Y-2.59153
G01 X-3.70256 Y-2.58982
G01 X-3.70547 Y-2.58894
G01 X-3.70982 Y-2.58808
G01 X-3.71284 Y-2.58778
G01 X-3.72327 Y-2.58766
G01 X-3.72499 Y-2.58936
G01 X-3.72327 Y-2.58766
G01 X-3.72327 Y-2.55710
G01 X-3.72370 Y-2.55265
G01 X-3.72500 Y-2.54836
G01 X-3.72711 Y-2.54441
G01 X-3.72995 Y-2.54095
G01 X-3.73341 Y-2.53811
G01 X-3.73736 Y-2.53600
G01 X-3.74165 Y-2.53470
G01 X-3.74610 Y-2.53426
G01 X-3.85252 Y-2.53426
G01 X-3.85272 Y-2.53474
G01 X-3.85252 Y-2.53426
G01 X-3.90599 Y-2.48079
G01 X-3.90827 Y-2.47879
G01 X-3.90875 Y-2.47899
G01 X-3.90827 Y-2.47879
G01 X-3.90827 Y-2.44183
G01 X-3.91110 Y-2.43900
G01 X-3.91608 Y-2.43460
G01 X-3.92108 Y-2.43146
G01 X-3.92609 Y-2.42958
G01 X-3.92748 Y-2.42945
G01 X-3.92541 Y-2.43049
G01 X-3.92386 Y-2.43176
G01 X-3.92259 Y-2.43331
G01 X-3.92164 Y-2.43508
G01 X-3.92106 Y-2.43700
G01 X-3.92086 Y-2.43900
G01 X-3.92086 Y-2.48534
G01 X-3.92154 Y-2.48569
G01 X-3.92086 Y-2.48534
G01 X-3.91967 Y-2.48598
G01 X-3.91799 Y-2.48710
G01 X-3.91490 Y-2.48970
G01 X-3.85774 Y-2.54686
G01 X-3.85794 Y-2.54734
G01 X-3.85774 Y-2.54686
G01 X-3.74610 Y-2.54686
G01 X-3.74410 Y-2.54706
G01 X-3.74218 Y-2.54764
G01 X-3.74041 Y-2.54859
G01 X-3.73886 Y-2.54986
G01 X-3.73759 Y-2.55141
G01 X-3.73664 Y-2.55318
G01 X-3.73606 Y-2.55510
G01 X-3.73586 Y-2.55710
G01 X-3.73586 Y-2.60026
G01 X-3.73768 Y-2.60205
G01 X-3.73586 Y-2.60026
G01 X-3.71409 Y-2.60031
G01 X-3.71107 Y-2.60061
G01 X-3.70912 Y-2.60100
G01 X-3.70621 Y-2.60188
G01 X-3.70435 Y-2.60265
G01 X-3.70167 Y-2.60408
G01 X-3.69999 Y-2.60520
G01 X-3.69690 Y-2.60780
G01 X-3.56229 Y-2.74241
G01 X-3.56249 Y-2.74289
G01 X-3.56229 Y-2.74241
G01 X-3.21071 Y-2.74241
G01 X-3.20668 Y-2.74276
G01 X-3.20473 Y-2.74315
G01 X-3.20182 Y-2.74403
G01 X-3.19996 Y-2.74480
G01 X-3.19728 Y-2.74623
G01 X-3.19560 Y-2.74735
G01 X-3.19325 Y-2.74928
G01 X-3.14995 Y-2.79251
G01 X-3.14735 Y-2.79560
G01 X-3.14623 Y-2.79728
G01 X-3.14480 Y-2.79996
G01 X-3.14403 Y-2.80182
G01 X-3.14315 Y-2.80473
G01 X-3.14276 Y-2.80668
G01 X-3.14241 Y-2.81071
G01 X-3.14241 Y-3.21762
G01 X-3.14276 Y-3.22165
G01 X-3.14315 Y-3.22360
G01 X-3.14403 Y-3.22651
G01 X-3.14480 Y-3.22837
G01 X-3.14623 Y-3.23105
G01 X-3.14735 Y-3.23273
G01 X-3.14995 Y-3.23582
G01 X-3.33113 Y-3.41700
G01 X-3.33422 Y-3.41960
G01 X-3.33590 Y-3.42072
G01 X-3.33858 Y-3.42215
G01 X-3.34044 Y-3.42292
G01 X-3.34335 Y-3.42380
G01 X-3.34530 Y-3.42419
G01 X-3.34933 Y-3.42454
G01 X-3.82157 Y-3.42454
G01 X-3.82560 Y-3.42419
G01 X-3.82755 Y-3.42380
G01 X-3.83046 Y-3.42292
G01 X-3.83232 Y-3.42215
G01 X-3.83500 Y-3.42072
G01 X-3.83668 Y-3.41960
G01 X-3.83903 Y-3.41767
G01 X-3.86820 Y-3.38857
G01 X-3.87080 Y-3.38548
G01 X-3.87192 Y-3.38380
G01 X-3.87335 Y-3.38112
G01 X-3.87412 Y-3.37926
G01 X-3.87500 Y-3.37635
G01 X-3.87539 Y-3.37440
G01 X-3.87569 Y-3.37138
G01 X-3.87574 Y-3.34961
G01 X-3.87398 Y-3.34785
G01 X-3.87574 Y-3.34961
G01 X-3.88740 Y-3.34961
G01 X-3.88940 Y-3.34941
G01 X-3.89132 Y-3.34883
G01 X-3.89309 Y-3.34788
G01 X-3.89464 Y-3.34661
G01 X-3.89591 Y-3.34506
G01 X-3.89686 Y-3.34329
G01 X-3.89744 Y-3.34137
G01 X-3.89764 Y-3.33937
G01 X-3.89764 Y-3.32574
G01 X-3.89584 Y-3.32392
G01 X-3.89764 Y-3.32574
G01 X-4.00236 Y-3.32574
G01 X-4.00421 Y-3.32389
G01 X-4.00236 Y-3.32574
G01 X-4.00236 Y-3.33937
G01 X-4.00256 Y-3.34137
G01 X-4.00314 Y-3.34329
G01 X-4.00409 Y-3.34506
G01 X-4.00536 Y-3.34661
G01 X-4.00691 Y-3.34788
G01 X-4.00868 Y-3.34883
G01 X-4.01060 Y-3.34941
G01 X-4.01260 Y-3.34961
G01 X-4.08740 Y-3.34961
G01 X-4.08940 Y-3.34941
G01 X-4.09132 Y-3.34883
G01 X-4.09309 Y-3.34788
G01 X-4.09464 Y-3.34661
G01 X-4.09591 Y-3.34506
G01 X-4.09686 Y-3.34329
G01 X-4.09744 Y-3.34137
G01 X-4.09764 Y-3.33937
G01 X-4.09764 Y-3.26063
G01 X-4.09744 Y-3.25863
G01 X-4.09686 Y-3.25671
G01 X-4.09591 Y-3.25494
G01 X-4.09464 Y-3.25339
G01 X-4.09309 Y-3.25212
G01 X-4.09132 Y-3.25117
G01 X-4.08940 Y-3.25059
G01 X-4.08740 Y-3.25039
G01 X-4.01260 Y-3.25039
G01 X-4.01060 Y-3.25059
G01 X-4.00868 Y-3.25117
G01 X-4.00691 Y-3.25212
G01 X-4.00536 Y-3.25339
G01 X-4.00409 Y-3.25494
G01 X-4.00314 Y-3.25671
G01 X-4.00256 Y-3.25863
G01 X-4.00236 Y-3.26063
G01 X-4.00236 Y-3.27426
G01 X-4.00421 Y-3.27611
G01 X-4.00236 Y-3.27426
G01 X-3.89764 Y-3.27426
G01 X-3.89579 Y-3.27611
G01 X-3.89764 Y-3.27426
G01 X-3.89764 Y-3.26063
G01 X-3.89744 Y-3.25863
G01 X-3.89686 Y-3.25671
G01 X-3.89591 Y-3.25494
G01 X-3.89464 Y-3.25339
G01 X-3.89309 Y-3.25212
G01 X-3.89132 Y-3.25117
G01 X-3.88940 Y-3.25059
G01 X-3.88740 Y-3.25039
G01 X-3.81260 Y-3.25039
G01 X-3.81060 Y-3.25059
G01 X-3.80868 Y-3.25117
G01 X-3.80691 Y-3.25212
G01 X-3.80536 Y-3.25339
G01 X-3.80409 Y-3.25494
G01 X-3.80314 Y-3.25671
G01 X-3.80256 Y-3.25863
G01 X-3.80236 Y-3.26063
G01 X-3.80236 Y-3.33937
G01 X-3.80256 Y-3.34137
G01 X-3.80314 Y-3.34329
G01 X-3.80409 Y-3.34506
G01 X-3.80536 Y-3.34661
G01 X-3.80691 Y-3.34788
G01 X-3.80868 Y-3.34883
G01 X-3.81060 Y-3.34941
G01 X-3.81260 Y-3.34961
G01 X-3.82426 Y-3.34961
G01 X-3.82611 Y-3.34776
G01 X-3.82426 Y-3.34961
G01 X-3.82426 Y-3.35971
G01 X-3.82474 Y-3.35991
G01 X-3.82426 Y-3.35971
G01 X-3.81091 Y-3.37306
G01 X-3.81111 Y-3.37354
G01 X-3.81091 Y-3.37306
G01 X-3.35999 Y-3.37306
G01 X-3.35979 Y-3.37354
G01 X-3.35999 Y-3.37306
G01 X-3.19389 Y-3.20696
G01 X-3.19341 Y-3.20716
G01 X-3.19389 Y-3.20696
G01 X-3.19389 Y-2.82137
G01 X-3.19341 Y-2.82117
G01 X-3.19389 Y-2.82137
G01 X-3.22137 Y-2.79389
G01 X-3.22117 Y-2.79341
G01 X-3.22137 Y-2.79389
G01 X-3.57295 Y-2.79389
G01 X-3.57698 Y-2.79354
G01 X-3.57893 Y-2.79315
G01 X-3.58184 Y-2.79227
G01 X-3.58370 Y-2.79150
G01 X-3.58638 Y-2.79007
G01 X-3.58806 Y-2.78895
G01 X-3.59115 Y-2.78635
G01 X-3.72576 Y-2.65174
G01 X-3.72556 Y-2.65126
G01 X-3.72576 Y-2.65174
G01 X-3.73586 Y-2.65174
G01 X-3.73769 Y-2.64990
G01 X-3.73586 Y-2.65174
G01 X-3.73586 Y-2.69490
G01 X-3.73606 Y-2.69690
G01 X-3.73664 Y-2.69882
G01 X-3.73759 Y-2.70059
G01 X-3.73886 Y-2.70214
G01 X-3.74041 Y-2.70341
G01 X-3.74218 Y-2.70436
G01 X-3.74410 Y-2.70494
G01 X-3.74610 Y-2.70514
G01 X-3.88390 Y-2.70514
G01 X-3.88590 Y-2.70494
G01 X-3.88782 Y-2.70436
G01 X-3.88959 Y-2.70341
G01 X-3.89114 Y-2.70214
G01 X-3.89241 Y-2.70059
G01 X-3.89336 Y-2.69882
G01 X-3.89394 Y-2.69690
G01 X-3.89414 Y-2.69490
G01 X-3.89414 Y-2.58326
G01 X-3.89366 Y-2.58306
G01 X-3.89414 Y-2.58326
G01 X-3.92086 Y-2.55653
G01 X-3.92464 Y-2.54729
G01 X-3.92086 Y-2.55653
G01 X-3.92086 Y-2.57680
G01 X-3.92106 Y-2.57880
G01 X-3.92164 Y-2.58072
G01 X-3.92259 Y-2.58249
G01 X-3.92386 Y-2.58404
G01 X-3.92541 Y-2.58531
G01 X-3.92718 Y-2.58626
G01 X-3.92910 Y-2.58684
G01 X-3.93110 Y-2.58704
G01 X-4.06890 Y-2.58704
G01 X-4.07090 Y-2.58684
G01 X-4.07282 Y-2.58626
G01 X-4.07459 Y-2.58531
G01 X-4.07614 Y-2.58404
G01 X-4.07741 Y-2.58249
G01 X-4.07836 Y-2.58072
G01 X-4.07894 Y-2.57880
G01 X-4.07914 Y-2.57680
G01 X-4.07914 Y-2.43900
G01 X-4.07894 Y-2.43700
G01 X-4.07836 Y-2.43508
G01 X-4.07741 Y-2.43331
G01 X-4.07614 Y-2.43176
G01 X-4.07459 Y-2.43049
G01 X-4.07282 Y-2.42954
G01 X-4.07079 Y-2.42924
G01 X-4.14284 Y-2.42924
G01 X-4.14304 Y-2.42876
G01 X-4.14284 Y-2.42924
G01 X-4.25189 Y-2.53829
G01 X-4.25261 Y-2.53805
G01 X-4.25189 Y-2.53829
G01 X-4.25133 Y-2.54075
G01 X-4.25083 Y-2.54553
G01 X-4.25148 Y-2.54600
G01 X-4.25083 Y-2.54553
G01 X-4.01196 Y-2.66496
G01 X-4.01200 Y-2.66513
G01 X-4.01196 Y-2.66496
G01 X-3.93110 Y-2.66496
G01 X-3.92910 Y-2.66516
G01 X-3.92718 Y-2.66574
G01 X-3.92541 Y-2.66669
G01 X-3.92386 Y-2.66796
G01 X-3.92259 Y-2.66951
G01 X-3.92164 Y-2.67128
G01 X-3.92106 Y-2.67320
G01 X-3.92086 Y-2.67520
G01 X-3.92086 Y-2.81300
G01 X-3.92106 Y-2.81500
G01 X-3.92164 Y-2.81692
G01 X-3.92259 Y-2.81869
G01 X-3.92386 Y-2.82024
G01 X-3.92541 Y-2.82151
G01 X-3.92718 Y-2.82246
G01 X-3.92910 Y-2.82304
G01 X-3.93110 Y-2.82324
G01 X-4.06890 Y-2.82324
G01 X-4.07090 Y-2.82304
G01 X-4.07282 Y-2.82246
G01 X-4.07459 Y-2.82151
G01 X-4.07614 Y-2.82024
G01 X-4.07741 Y-2.81869
G01 X-4.07836 Y-2.81692
G01 X-4.07894 Y-2.81500
G01 X-4.07914 Y-2.81300
G01 X-4.07914 Y-2.68949
G01 X-4.07820 Y-2.68890
G01 X-4.07914 Y-2.68949
G01 X-4.27393 Y-2.59209
G01 X-4.27392 Y-2.59137
G01 X-4.27393 Y-2.59209
G01 X-4.27616 Y-2.59343
G01 X-4.28368 Y-2.59678
G01 X-4.28571 Y-2.59743
G01 X-4.29376 Y-2.59914
G01 X-4.29589 Y-2.59937
G01 X-4.30411 Y-2.59937
G01 X-4.30624 Y-2.59914
G01 X-4.31429 Y-2.59743
G01 X-4.31632 Y-2.59678
G01 X-4.32383 Y-2.59343
G01 X-4.32570 Y-2.59236
G01 X-4.33235 Y-2.58752
G01 X-4.33394 Y-2.58609
G01 X-4.33944 Y-2.57998
G01 X-4.34073 Y-2.57819
G01 X-4.34198 Y-2.57599
G01 X-4.34156 Y-2.57521
G01 X-4.34198 Y-2.57599
G01 X-4.65802 Y-2.57599
G01 X-4.65844 Y-2.57521
G01 X-4.65802 Y-2.57599
G01 X-4.65927 Y-2.57819
G01 X-4.66056 Y-2.57998
G01 X-4.66606 Y-2.58609
G01 X-4.66765 Y-2.58752
G01 X-4.67430 Y-2.59236
G01 X-4.67616 Y-2.59343
G01 X-4.68368 Y-2.59678
G01 X-4.68571 Y-2.59743
G01 X-4.69376 Y-2.59914
G01 X-4.69589 Y-2.59937
G01 X-4.70411 Y-2.59937
G01 X-4.70624 Y-2.59914
G01 X-4.71429 Y-2.59743
G01 X-4.71631 Y-2.59678
G01 X-4.72384 Y-2.59343
G01 X-4.72570 Y-2.59236
G01 X-4.73235 Y-2.58752
G01 X-4.73394 Y-2.58609
G01 X-4.73944 Y-2.57998
G01 X-4.74069 Y-2.57826
G01 X-4.74481 Y-2.57114
G01 X-4.74569 Y-2.56917
G01 X-4.74823 Y-2.56134
G01 X-4.74867 Y-2.55925
G01 X-4.74953 Y-2.55107
G01 X-4.74953 Y-2.54893
G01 X-4.74867 Y-2.54075
G01 X-4.74823 Y-2.53866
G01 X-4.74569 Y-2.53083
G01 X-4.74481 Y-2.52886
G01 X-4.74069 Y-2.52174
G01 X-4.73944 Y-2.52002
G01 X-4.73394 Y-2.51391
G01 X-4.73235 Y-2.51248
G01 X-4.72570 Y-2.50764
G01 X-4.72384 Y-2.50656
G01 X-4.71631 Y-2.50322
G01 X-4.71429 Y-2.50257
G01 X-4.70624 Y-2.50086
G01 X-4.70411 Y-2.50063
G01 X-4.69589 Y-2.50063
G01 X-4.69376 Y-2.50086
G01 X-4.68571 Y-2.50257
G01 X-4.68368 Y-2.50322
G01 X-4.67616 Y-2.50656
G01 X-4.67430 Y-2.50764
G01 X-4.66765 Y-2.51248
G01 X-4.66606 Y-2.51391
G01 X-4.66056 Y-2.52002
G01 X-4.65927 Y-2.52181
G01 X-4.65802 Y-2.52401
G01 X-4.65844 Y-2.52479
G01 X-4.65802 Y-2.52401
G01 X-4.34198 Y-2.52401
G01 X-4.34156 Y-2.52479
G01 X-4.34198 Y-2.52401
G01 X-4.34073 Y-2.52181
G01 X-4.33944 Y-2.52002
G01 X-4.33394 Y-2.51391
G01 X-4.33235 Y-2.51248
G01 X-4.32570 Y-2.50764
G01 X-4.32383 Y-2.50656
G01 X-4.31632 Y-2.50322
G01 X-4.31429 Y-2.50257
G01 X-4.30624 Y-2.50086
G01 X-4.30411 Y-2.50063
G01 X-4.29589 Y-2.50063
G01 X-4.29376 Y-2.50086
G01 X-4.28839 Y-2.50200
G01 X-4.28815 Y-2.50277
G01 X-4.28839 Y-2.50200
G01 X-4.17170 Y-2.38530
G01 X-4.16861 Y-2.38270
G01 X-4.16693 Y-2.38158
G01 X-4.16425 Y-2.38015
G01 X-4.16239 Y-2.37938
G01 X-4.15948 Y-2.37850
G01 X-4.15753 Y-2.37811
G01 X-4.15350 Y-2.37776
G01 X-3.79650 Y-2.37776
G01 X-3.79247 Y-2.37811
G01 X-3.79052 Y-2.37850
G01 X-3.78761 Y-2.37938
G01 X-3.78575 Y-2.38015
G01 X-3.78307 Y-2.38158
G01 X-3.78139 Y-2.38270
G01 X-3.77830 Y-2.38530
G01 X-3.66161 Y-2.50200
G01 X-3.66185 Y-2.50277
G01 X-3.66161 Y-2.50200
G01 X-3.65624 Y-2.50086
G01 X-3.65411 Y-2.50063
G01 X-3.64589 Y-2.50063
G01 X-3.64376 Y-2.50086
G01 X-3.63571 Y-2.50257
G01 X-3.63368 Y-2.50323
G01 X-3.62617 Y-2.50657
G01 X-3.62431 Y-2.50764
G01 X-3.61765 Y-2.51248
G01 X-3.61606 Y-2.51391
G01 X-3.61056 Y-2.52002
G01 X-3.60927 Y-2.52181
G01 X-3.60802 Y-2.52401
G01 X-3.60844 Y-2.52479
G01 X-3.60802 Y-2.52401
G01 X-3.29198 Y-2.52401
G01 X-3.29156 Y-2.52479
G01 X-3.29198 Y-2.52401
G01 X-3.29073 Y-2.52181
G01 X-3.28944 Y-2.52002
G01 X-3.28394 Y-2.51391
G01 X-3.28235 Y-2.51248
G01 X-3.27569 Y-2.50764
G01 X-3.27383 Y-2.50657
G01 X-3.26632 Y-2.50323
G01 X-3.26429 Y-2.50257
G01 X-3.25624 Y-2.50086
G01 X-3.25411 Y-2.50063
G01 X-3.24589 Y-2.50063
G01 X-3.24376 Y-2.50086
G01 X-3.23571 Y-2.50257
G01 X-3.23368 Y-2.50323
G01 X-3.22617 Y-2.50657
G01 X-3.22431 Y-2.50764
G01 X-3.21765 Y-2.51248
G01 X-3.21606 Y-2.51391
G01 X-3.21056 Y-2.52002
G01 X-3.20931 Y-2.52174
G01 X-3.20519 Y-2.52886
G01 X-3.20431 Y-2.53083
G01 X-3.20177 Y-2.53866
G01 X-3.20133 Y-2.54075
G01 X-3.20047 Y-2.54893
G01 X-3.20047 Y-2.55107
G01 X-3.20133 Y-2.55925
G01 X-3.20177 Y-2.56134
G01 X-3.20431 Y-2.56917
G01 X-3.20519 Y-2.57114
G01 X-3.20931 Y-2.57826
G01 X-3.21056 Y-2.57998
G01 X-3.21606 Y-2.58609
G01 X-3.21765 Y-2.58752
G01 X-3.22431 Y-2.59236
G01 X-3.22617 Y-2.59343
G01 X-3.23368 Y-2.59677
G01 X-3.23571 Y-2.59743
G01 X-3.24376 Y-2.59914
G01 X-3.24589 Y-2.59937
G01 X-3.25411 Y-2.59937
G01 X-3.25624 Y-2.59914
G01 X-3.26429 Y-2.59743
G01 X-3.26632 Y-2.59677
G01 X-3.27383 Y-2.59343
G01 X-3.27569 Y-2.59236
G01 X-3.28235 Y-2.58752
G01 X-3.28394 Y-2.58609
G01 X-3.28944 Y-2.57998
G01 X-3.29073 Y-2.57819
G01 X-3.29198 Y-2.57599
G01 X-3.29156 Y-2.57521
G01 X-3.29198 Y-2.57599
G01 X-3.60802 Y-2.57599
G01 X-3.60844 Y-2.57521
G01 X-3.60802 Y-2.57599
G01 X-3.60927 Y-2.57819
G01 X-3.61056 Y-2.57998
G01 X-3.61606 Y-2.58609
G01 X-3.61765 Y-2.58752
G01 X-3.62431 Y-2.59236
G01 X-3.62617 Y-2.59343
G01 X-3.63368 Y-2.59677
G01 X-3.63571 Y-2.59743
G01 X-3.64376 Y-2.59914
G01 X-3.64589 Y-2.59937
G01 X-3.65411 Y-2.59937
G01 X-3.65624 Y-2.59914
G01 X-3.66429 Y-2.59743
G01 X-3.66632 Y-2.59677
G01 X-3.67383 Y-2.59343
G01 X-3.67569 Y-2.59236
G01 X-3.68235 Y-2.58752
G01 X-3.68394 Y-2.58609
G01 X-3.68944 Y-2.57998
G01 X-3.69069 Y-2.57826
G01 X-3.69481 Y-2.57114
G01 X-3.69569 Y-2.56917
G01 X-3.69823 Y-2.56134
G01 X-3.69867 Y-2.55925
G01 X-3.69953 Y-2.55107
G01 X-3.69953 Y-2.54893
G01 X-3.69867 Y-2.54075
G01 X-3.69810 Y-2.53829
G01 X-3.69742 Y-2.53806
G01 X-3.69810 Y-2.53829
G01 X-3.80716 Y-2.42924
G01 X-3.80696 Y-2.42876
G01 X-3.80716 Y-2.42924
G01 X-3.92921 Y-2.42924
G01 X-3.92748 Y-2.42945
G01 X-3.93110 Y-2.42899
G01 X-4.06890 Y-2.42899
G01 X-4.07391 Y-2.42958
G01 X-4.07892 Y-2.43146
G01 X-4.08392 Y-2.43460
G01 X-4.08494 Y-2.43553
G01 X-4.14023 Y-2.43553
G01 X-4.14043 Y-2.43506
G01 X-4.14023 Y-2.43553
G01 X-4.24504 Y-2.54034
G01 X-4.24568 Y-2.54012
G01 X-4.24504 Y-2.54034
G01 X-4.24492 Y-2.54144
G01 X-4.24565 Y-2.54194
G01 X-4.24492 Y-2.54144
G01 X-4.01047 Y-2.65866
G01 X-4.01052 Y-2.65883
G01 X-4.01047 Y-2.65866
G01 X-3.93110 Y-2.65866
G01 X-3.92787 Y-2.65898
G01 X-3.92477 Y-2.65992
G01 X-3.92191 Y-2.66145
G01 X-3.91941 Y-2.66351
G01 X-3.91735 Y-2.66601
G01 X-3.91582 Y-2.66887
G01 X-3.91488 Y-2.67197
G01 X-3.91456 Y-2.67520
G01 X-3.91456 Y-2.81300
G01 X-3.91488 Y-2.81623
G01 X-3.91582 Y-2.81933
G01 X-3.91735 Y-2.82219
G01 X-3.91941 Y-2.82469
G01 X-3.92191 Y-2.82675
G01 X-3.92477 Y-2.82828
G01 X-3.92787 Y-2.82922
G01 X-3.93110 Y-2.82953
G01 X-4.06890 Y-2.82953
G01 X-4.07090 Y-2.82934
G01 X-4.07144 Y-2.82905
G01 X-3.98253 Y-2.91796
G01 X-3.98273 Y-2.91844
G01 X-3.98253 Y-2.91796
G01 X-3.69569 Y-2.91796
G01 X-3.69545 Y-2.91850
G01 X-3.69569 Y-2.91796
G01 X-3.69412 Y-2.91581
G01 X-3.68862 Y-2.90970
G01 X-3.68605 Y-2.90738
G01 X-3.67939 Y-2.90254
G01 X-3.67639 Y-2.90081
G01 X-3.66888 Y-2.89747
G01 X-3.66560 Y-2.89641
G01 X-3.65754 Y-2.89470
G01 X-3.65411 Y-2.89433
G01 X-3.64589 Y-2.89433
G01 X-3.64245 Y-2.89470
G01 X-3.63440 Y-2.89641
G01 X-3.63112 Y-2.89747
G01 X-3.62361 Y-2.90081
G01 X-3.62061 Y-2.90254
G01 X-3.61395 Y-2.90738
G01 X-3.61138 Y-2.90970
G01 X-3.60761 Y-2.91388
G01 X-3.60763 Y-2.91655
G01 X-3.60761 Y-2.91388
G01 X-3.54028 Y-2.84655
G01 X-3.53999 Y-2.84670
G01 X-3.54028 Y-2.84655
G01 X-3.53990 Y-2.84295
G01 X-3.53918 Y-2.83955
G01 X-3.53752 Y-2.83446
G01 X-3.53612 Y-2.83133
G01 X-3.53345 Y-2.82670
G01 X-3.53142 Y-2.82390
G01 X-3.52784 Y-2.81992
G01 X-3.52526 Y-2.81759
G01 X-3.52093 Y-2.81445
G01 X-3.51795 Y-2.81274
G01 X-3.51306 Y-2.81056
G01 X-3.50976 Y-2.80948
G01 X-3.50453 Y-2.80837
G01 X-3.50110 Y-2.80801
G01 X-3.49575 Y-2.80801
G01 X-3.49232 Y-2.80837
G01 X-3.48709 Y-2.80948
G01 X-3.48379 Y-2.81056
G01 X-3.47890 Y-2.81274
G01 X-3.47592 Y-2.81445
G01 X-3.47159 Y-2.81759
G01 X-3.46901 Y-2.81992
G01 X-3.46543 Y-2.82390
G01 X-3.46339 Y-2.82670
G01 X-3.46073 Y-2.83133
G01 X-3.45933 Y-2.83446
G01 X-3.45767 Y-2.83955
G01 X-3.45695 Y-2.84295
G01 X-3.45639 Y-2.84827
G01 X-3.45639 Y-2.85173
G01 X-3.45695 Y-2.85705
G01 X-3.45767 Y-2.86045
G01 X-3.45933 Y-2.86554
G01 X-3.46073 Y-2.86867
G01 X-3.46339 Y-2.87330
G01 X-3.46543 Y-2.87610
G01 X-3.46901 Y-2.88008
G01 X-3.47159 Y-2.88241
G01 X-3.47592 Y-2.88555
G01 X-3.47890 Y-2.88726
G01 X-3.48379 Y-2.88944
G01 X-3.48709 Y-2.89052
G01 X-3.49232 Y-2.89162
G01 X-3.49504 Y-2.89191
G01 X-3.49518 Y-2.89164
G01 X-3.49504 Y-2.89191
G01 X-3.57578 Y-2.97265
G01 X-3.57932 Y-2.97567
G01 X-3.58203 Y-2.97748
G01 X-3.58472 Y-2.97891
G01 X-3.58771 Y-2.98015
G01 X-3.59062 Y-2.98103
G01 X-3.59377 Y-2.98165
G01 X-3.59843 Y-2.98204
G01 X-3.60431 Y-2.98204
G01 X-3.60454 Y-2.98151
G01 X-3.60431 Y-2.98204
G01 X-3.60588 Y-2.98419
G01 X-3.61138 Y-2.99030
G01 X-3.61395 Y-2.99262
G01 X-3.62061 Y-2.99746
G01 X-3.62361 Y-2.99919
G01 X-3.63112 Y-3.00253
G01 X-3.63440 Y-3.00359
G01 X-3.64245 Y-3.00530
G01 X-3.64589 Y-3.00567
G01 X-3.65411 Y-3.00567
G01 X-3.65754 Y-3.00530
G01 X-3.66560 Y-3.00359
G01 X-3.66888 Y-3.00253
G01 X-3.67639 Y-2.99919
G01 X-3.67939 Y-2.99746
G01 X-3.68605 Y-2.99262
G01 X-3.68862 Y-2.99030
G01 X-3.69412 Y-2.98419
G01 X-3.69569 Y-2.98204
G01 X-3.69545 Y-2.98150
G01 X-3.69569 Y-2.98204
G01 X-3.99580 Y-2.98204
G01 X-4.00045 Y-2.98165
G01 X-4.00361 Y-2.98103
G01 X-4.00652 Y-2.98015
G01 X-4.00951 Y-2.97891
G01 X-4.01219 Y-2.97748
G01 X-4.01490 Y-2.97567
G01 X-4.01845 Y-2.97265
G01 X-4.17016 Y-2.82095
G01 X-4.16996 Y-2.82046
G01 X-4.17016 Y-2.82095
G01 X-4.28603 Y-2.82095
G01 X-4.28347 Y-2.82231
G01 X-4.28076 Y-2.82411
G01 X-4.27837 Y-2.82607
G01 X-4.27607 Y-2.82837
G01 X-4.27411 Y-2.83076
G01 X-4.27231 Y-2.83347
G01 X-4.27086 Y-2.83619
G01 X-4.26963 Y-2.83916
G01 X-4.26873 Y-2.84212
G01 X-4.26809 Y-2.84532
G01 X-4.26771 Y-2.85000
G01 X-4.26771 Y-2.90069
G01 X-4.26819 Y-2.90089
G01 X-4.26771 Y-2.90069
G01 X-4.02943 Y-3.13897
G01 X-4.02963 Y-3.13945
G01 X-4.02943 Y-3.13897
G01 X-3.45147 Y-3.13897
G01 X-3.45134 Y-3.13934
G01 X-3.45147 Y-3.13897
G01 X-3.44892 Y-3.13668
G01 X-3.44611 Y-3.13464
G01 X-3.44112 Y-3.13176
G01 X-3.43797 Y-3.13035
G01 X-3.43249 Y-3.12857
G01 X-3.42910 Y-3.12785
G01 X-3.42165 Y-3.12716
G01 X-3.37835 Y-3.12716
G01 X-3.37090 Y-3.12785
G01 X-3.36751 Y-3.12857
G01 X-3.36203 Y-3.13035
G01 X-3.35887 Y-3.13176
G01 X-3.35388 Y-3.13464
G01 X-3.35107 Y-3.13668
G01 X-3.34680 Y-3.14054
G01 X-3.34450 Y-3.14309
G01 X-3.34111 Y-3.14775
G01 X-3.33937 Y-3.15076
G01 X-3.33703 Y-3.15602
G01 X-3.33597 Y-3.15930
G01 X-3.33477 Y-3.16494
G01 X-3.33440 Y-3.16838
G01 X-3.33440 Y-3.17414
G01 X-3.33477 Y-3.17758
G01 X-3.33597 Y-3.18322
G01 X-3.33703 Y-3.18650
G01 X-3.33937 Y-3.19176
G01 X-3.34111 Y-3.19477
G01 X-3.34450 Y-3.19943
G01 X-3.34680 Y-3.20198
G01 X-3.35107 Y-3.20584
G01 X-3.35388 Y-3.20788
G01 X-3.35864 Y-3.21063
G01 X-3.35388 Y-3.21338
G01 X-3.35107 Y-3.21542
G01 X-3.34825 Y-3.21796
G01 X-3.34838 Y-3.21833
G01 X-3.34825 Y-3.21796
G01 X-3.33306 Y-3.21796
G01 X-3.33286 Y-3.21844
G01 X-3.33306 Y-3.21796
G01 X-3.28204 Y-3.16694
G01 X-3.28155 Y-3.16714
G01 X-3.28204 Y-3.16694
G01 X-3.28204 Y-2.99553
G01 X-3.28141 Y-2.99523
G01 X-3.28204 Y-2.99553
G01 X-3.28605 Y-2.99262
G01 X-3.28862 Y-2.99030
G01 X-3.29412 Y-2.98419
G01 X-3.29614 Y-2.98141
G01 X-3.30026 Y-2.97429
G01 X-3.30168 Y-2.97111
G01 X-3.30422 Y-2.96328
G01 X-3.30493 Y-2.95991
G01 X-3.30579 Y-2.95173
G01 X-3.30579 Y-2.94827
G01 X-3.30496 Y-2.94034
G01 X-3.30437 Y-2.94012
G01 X-3.30496 Y-2.94034
G01 X-3.36061 Y-2.88469
G01 X-3.36062 Y-2.88206
G01 X-3.36066 Y-2.88478
G01 X-3.36272 Y-2.88728
G01 X-3.36522 Y-2.88934
G01 X-3.36808 Y-2.89087
G01 X-3.37118 Y-2.89181
G01 X-3.37441 Y-2.89213
G01 X-3.42559 Y-2.89213
G01 X-3.42882 Y-2.89181
G01 X-3.43192 Y-2.89087
G01 X-3.43478 Y-2.88934
G01 X-3.43728 Y-2.88728
G01 X-3.43934 Y-2.88478
G01 X-3.44087 Y-2.88192
G01 X-3.44181 Y-2.87881
G01 X-3.44212 Y-2.87559
G01 X-3.44212 Y-2.82441
G01 X-3.44181 Y-2.82118
G01 X-3.44087 Y-2.81808
G01 X-3.43934 Y-2.81522
G01 X-3.43728 Y-2.81272
G01 X-3.43478 Y-2.81066
G01 X-3.43192 Y-2.80913
G01 X-3.42882 Y-2.80819
G01 X-3.42559 Y-2.80787
G01 X-3.37441 Y-2.80787
G01 X-3.37118 Y-2.80819
G01 X-3.36808 Y-2.80913
G01 X-3.36522 Y-2.81066
G01 X-3.36272 Y-2.81272
G01 X-3.36066 Y-2.81522
G01 X-3.35920 Y-2.81796
G01 X-3.35958 Y-2.81865
G01 X-3.35920 Y-2.81796
G01 X-3.35000 Y-2.81796
G01 X-3.34535 Y-2.81834
G01 X-3.34219 Y-2.81897
G01 X-3.33928 Y-2.81985
G01 X-3.33629 Y-2.82109
G01 X-3.33360 Y-2.82252
G01 X-3.33089 Y-2.82433
G01 X-3.32735 Y-2.82735
G01 X-3.25957 Y-2.89513
G01 X-3.25981 Y-2.89583
G01 X-3.25957 Y-2.89513
G01 X-3.25754 Y-2.89470
G01 X-3.25411 Y-2.89433
G01 X-3.24589 Y-2.89433
G01 X-3.24245 Y-2.89470
G01 X-3.23440 Y-2.89641
G01 X-3.23112 Y-2.89747
G01 X-3.22361 Y-2.90081
G01 X-3.22061 Y-2.90254
G01 X-3.21395 Y-2.90738
G01 X-3.21138 Y-2.90970
G01 X-3.20588 Y-2.91581
G01 X-3.20386 Y-2.91859
G01 X-3.20018 Y-2.92494
G01 X-3.19994 Y-2.92583
G01 X-3.20018 Y-2.92494
G01 X-3.20018 Y-2.82398
G01 X-3.19970 Y-2.82378
G01 X-3.20018 Y-2.82398
G01 X-3.22398 Y-2.80018
G01 X-3.22378 Y-2.79970
G01 X-3.22398 Y-2.80018
G01 X-3.57295 Y-2.80018
G01 X-3.57760 Y-2.79980
G01 X-3.58076 Y-2.79918
G01 X-3.58367 Y-2.79830
G01 X-3.58666 Y-2.79706
G01 X-3.58934 Y-2.79563
G01 X-3.59205 Y-2.79382
G01 X-3.59560 Y-2.79080
G01 X-3.72837 Y-2.65803
G01 X-3.72817 Y-2.65755
G01 X-3.72837 Y-2.65803
G01 X-3.72956 Y-2.65803
G01 X-3.73138 Y-2.65621
G01 X-3.72956 Y-2.65803
G01 X-3.72956 Y-2.69490
G01 X-3.72988 Y-2.69813
G01 X-3.73082 Y-2.70123
G01 X-3.73235 Y-2.70409
G01 X-3.73441 Y-2.70659
G01 X-3.73691 Y-2.70865
G01 X-3.73977 Y-2.71018
G01 X-3.74287 Y-2.71112
G01 X-3.74610 Y-2.71143
G01 X-3.88390 Y-2.71143
G01 X-3.88713 Y-2.71112
G01 X-3.89023 Y-2.71018
G01 X-3.89309 Y-2.70865
G01 X-3.89559 Y-2.70659
G01 X-3.89765 Y-2.70409
G01 X-3.89918 Y-2.70123
G01 X-3.90012 Y-2.69813
G01 X-3.90043 Y-2.69490
G01 X-3.90043 Y-2.58587
G01 X-3.89995 Y-2.58567
G01 X-3.90043 Y-2.58587
G01 X-3.91456 Y-2.57174
G01 X-3.91801 Y-2.56295
G01 X-3.91456 Y-2.57174
G01 X-3.91456 Y-2.57680
G01 X-3.91488 Y-2.58003
G01 X-3.91582 Y-2.58313
G01 X-3.91735 Y-2.58599
G01 X-3.91941 Y-2.58849
G01 X-3.92191 Y-2.59055
G01 X-3.92477 Y-2.59208
G01 X-3.92787 Y-2.59302
G01 X-3.93110 Y-2.59334
G01 X-4.06890 Y-2.59334
G01 X-4.07212 Y-2.59302
G01 X-4.07523 Y-2.59208
G01 X-4.07809 Y-2.59055
G01 X-4.08059 Y-2.58849
G01 X-4.08265 Y-2.58599
G01 X-4.08418 Y-2.58313
G01 X-4.08512 Y-2.58003
G01 X-4.08544 Y-2.57680
G01 X-4.08544 Y-2.43900
G01 X-4.08512 Y-2.43577
G01 X-4.08494 Y-2.43553
G01 X-4.08890 Y-2.43900
G01 X-4.09173 Y-2.44183
G01 X-4.09173 Y-2.57680
G01 X-4.09129 Y-2.58125
G01 X-4.09000 Y-2.58554
G01 X-4.08789 Y-2.58949
G01 X-4.08505 Y-2.59295
G01 X-4.08158 Y-2.59579
G01 X-4.07764 Y-2.59790
G01 X-4.07335 Y-2.59919
G01 X-4.06890 Y-2.59963
G01 X-3.93110 Y-2.59963
G01 X-3.92665 Y-2.59919
G01 X-3.92236 Y-2.59790
G01 X-3.91841 Y-2.59579
G01 X-3.91495 Y-2.59295
G01 X-3.91211 Y-2.58949
G01 X-3.91000 Y-2.58554
G01 X-3.90993 Y-2.58529
G01 X-3.91059 Y-2.58098
G01 X-3.90993 Y-2.58529
G01 X-3.90673 Y-2.58848
G01 X-3.90625 Y-2.58828
G01 X-3.90673 Y-2.58848
G01 X-3.90673 Y-2.69490
G01 X-3.90630 Y-2.69935
G01 X-3.90500 Y-2.70364
G01 X-3.90289 Y-2.70759
G01 X-3.90005 Y-2.71105
G01 X-3.89659 Y-2.71389
G01 X-3.89264 Y-2.71600
G01 X-3.88835 Y-2.71730
G01 X-3.88390 Y-2.71773
G01 X-3.74610 Y-2.71773
G01 X-3.74165 Y-2.71730
G01 X-3.73736 Y-2.71600
G01 X-3.73341 Y-2.71389
G01 X-3.72995 Y-2.71105
G01 X-3.72711 Y-2.70759
G01 X-3.72500 Y-2.70364
G01 X-3.72370 Y-2.69935
G01 X-3.72327 Y-2.69490
G01 X-3.72327 Y-2.67205
G01 X-3.72715 Y-2.66266
G01 X-3.72327 Y-2.67205
G01 X-3.60006 Y-2.79526
G01 X-3.59605 Y-2.79869
G01 X-3.59231 Y-2.80119
G01 X-3.58963 Y-2.80262
G01 X-3.58549 Y-2.80433
G01 X-3.58258 Y-2.80521
G01 X-3.57823 Y-2.80607
G01 X-3.57295 Y-2.80648
G01 X-3.51940 Y-2.80648
G01 X-3.51527 Y-2.80561
G01 X-3.51074 Y-2.80489
G01 X-3.50539 Y-2.80432
G01 X-3.50110 Y-2.80410
G01 X-3.49575 Y-2.80410
G01 X-3.49146 Y-2.80431
G01 X-3.48611 Y-2.80489
G01 X-3.48158 Y-2.80561
G01 X-3.47745 Y-2.80648
G01 X-3.43960 Y-2.80648
G01 X-3.43288 Y-2.80466
G01 X-3.42559 Y-2.80403
G01 X-3.37441 Y-2.80402
G01 X-3.36426 Y-2.80525
G01 X-3.36107 Y-2.80648
G01 X-3.22659 Y-2.80648
G01 X-3.22639 Y-2.80600
G01 X-3.22659 Y-2.80648
G01 X-3.20648 Y-2.82659
G01 X-3.20601 Y-2.82639
G01 X-3.20648 Y-2.82659
G01 X-3.20648 Y-2.90572
G01 X-3.20345 Y-2.91362
G01 X-3.20215 Y-2.91760
G01 X-3.19994 Y-2.92583
G01 X-3.19923 Y-2.92918
G01 X-3.19792 Y-2.93741
G01 X-3.19762 Y-2.94036
G01 X-3.19718 Y-2.94858
G01 X-3.19761 Y-2.95964
G01 X-3.19792 Y-2.96259
G01 X-3.19922 Y-2.97082
G01 X-3.19995 Y-2.97417
G01 X-3.20215 Y-2.98240
G01 X-3.20345 Y-2.98638
G01 X-3.20648 Y-2.99428
G01 X-3.20648 Y-3.20174
G01 X-3.20601 Y-3.20194
G01 X-3.20648 Y-3.20174
G01 X-3.32834 Y-3.32360
G01 X-3.33153 Y-3.33162
G01 X-3.33330 Y-3.33537
G01 X-3.33618 Y-3.34065
G01 X-3.33796 Y-3.34357
G01 X-3.34127 Y-3.34840
G01 X-3.34310 Y-3.35080
G01 X-3.34880 Y-3.35723
G01 X-3.35298 Y-3.36121
G01 X-3.35519 Y-3.36309
G01 X-3.36202 Y-3.36816
G01 X-3.36193 Y-3.36838
G01 X-3.36202 Y-3.36816
G01 X-3.36194 Y-3.36835
G01 X-3.36202 Y-3.36816
G01 X-3.36825 Y-3.36916
G01 X-3.37118 Y-3.36946
G01 X-3.37694 Y-3.36977
G01 X-3.42306 Y-3.36976
G01 X-3.43175 Y-3.36917
G01 X-3.43752 Y-3.36827
G01 X-3.44649 Y-3.36601
G01 X-3.45025 Y-3.36479
G01 X-3.45256 Y-3.36382
G01 X-3.67126 Y-3.36389
G01 X-3.67571 Y-3.36374
G01 X-3.68187 Y-3.36308
G01 X-3.69688 Y-3.36047
G01 X-3.80386 Y-3.36047
G01 X-3.79991 Y-3.35836
G01 X-3.79645 Y-3.35552
G01 X-3.79361 Y-3.35206
G01 X-3.79150 Y-3.34811
G01 X-3.79043 Y-3.34456
G01 X-3.79214 Y-3.33937
G01 X-3.79405 Y-3.33439
G01 X-3.79606 Y-3.32768
G01 X-3.79606 Y-3.33937
G01 X-3.79638 Y-3.34260
G01 X-3.79732 Y-3.34570
G01 X-3.79885 Y-3.34856
G01 X-3.80091 Y-3.35106
G01 X-3.80341 Y-3.35312
G01 X-3.80627 Y-3.35465
G01 X-3.80937 Y-3.35559
G01 X-3.81260 Y-3.35590
G01 X-3.81796 Y-3.35590
G01 X-3.81973 Y-3.35421
G01 X-3.81796 Y-3.35590
G01 X-3.81796 Y-3.35710
G01 X-3.81844 Y-3.35730
G01 X-3.81796 Y-3.35710
G01 X-3.81245 Y-3.36262
G01 X-3.80386 Y-3.36047
G01 X-3.81245 Y-3.36262
G01 X-3.80830 Y-3.36676
G01 X-3.80850 Y-3.36724
G01 X-3.80830 Y-3.36676
G01 X-3.44368 Y-3.36676
G01 X-3.43751 Y-3.36824
G01 X-3.43175 Y-3.36915
G01 X-3.42882 Y-3.36946
G01 X-3.42165 Y-3.36980
G01 X-3.37694 Y-3.36977
G01 X-3.36825 Y-3.36916
G01 X-3.36202 Y-3.36816
G01 X-3.35519 Y-3.36309
G01 X-3.34881 Y-3.35723
G01 X-3.34311 Y-3.35079
G01 X-3.34128 Y-3.34839
G01 X-3.33796 Y-3.34357
G01 X-3.33618 Y-3.34065
G01 X-3.33331 Y-3.33537
G01 X-3.33153 Y-3.33162
G01 X-3.32834 Y-3.32360
G01 X-3.32861 Y-3.32111
G01 X-3.32980 Y-3.31547
G01 X-3.33128 Y-3.31094
G01 X-3.33362 Y-3.30568
G01 X-3.33601 Y-3.30153
G01 X-3.33940 Y-3.29687
G01 X-3.34258 Y-3.29334
G01 X-3.34701 Y-3.28937
G01 X-3.44135 Y-3.28937
G01 X-3.44611 Y-3.28662
G01 X-3.44892 Y-3.28458
G01 X-3.45320 Y-3.28072
G01 X-3.45550 Y-3.27817
G01 X-3.45889 Y-3.27351
G01 X-3.46063 Y-3.27050
G01 X-3.46297 Y-3.26524
G01 X-3.46403 Y-3.26196
G01 X-3.46523 Y-3.25632
G01 X-3.46559 Y-3.25288
G01 X-3.46559 Y-3.24712
G01 X-3.46523 Y-3.24368
G01 X-3.46403 Y-3.23804
G01 X-3.46297 Y-3.23476
G01 X-3.46063 Y-3.22950
G01 X-3.45889 Y-3.22649
G01 X-3.45550 Y-3.22183
G01 X-3.45320 Y-3.21928
G01 X-3.44892 Y-3.21542
G01 X-3.44611 Y-3.21338
G01 X-3.44135 Y-3.21063
G01 X-3.34701 Y-3.21063
G01 X-3.34686 Y-3.21052
G01 X-3.34258 Y-3.20666
G01 X-3.33940 Y-3.20313
G01 X-3.33601 Y-3.19847
G01 X-3.33362 Y-3.19432
G01 X-3.33128 Y-3.18906
G01 X-3.32980 Y-3.18453
G01 X-3.32861 Y-3.17889
G01 X-3.32810 Y-3.17414
G01 X-3.32810 Y-3.16838
G01 X-3.32861 Y-3.16363
G01 X-3.32980 Y-3.15799
G01 X-3.33128 Y-3.15346
G01 X-3.33362 Y-3.14820
G01 X-3.33601 Y-3.14405
G01 X-3.33940 Y-3.13939
G01 X-3.34258 Y-3.13586
G01 X-3.34686 Y-3.13200
G01 X-3.35073 Y-3.12918
G01 X-3.35573 Y-3.12630
G01 X-3.36009 Y-3.12436
G01 X-3.36557 Y-3.12258
G01 X-3.37024 Y-3.12159
G01 X-3.37835 Y-3.12086
G01 X-3.42165 Y-3.12086
G01 X-3.42976 Y-3.12159
G01 X-3.43443 Y-3.12258
G01 X-3.43991 Y-3.12436
G01 X-3.44427 Y-3.12630
G01 X-3.44926 Y-3.12918
G01 X-3.45314 Y-3.13200
G01 X-3.45389 Y-3.13267
G01 X-3.45381 Y-3.13294
G01 X-3.45389 Y-3.13267
G01 X-4.02682 Y-3.13267
G01 X-4.02702 Y-3.13315
G01 X-4.02682 Y-3.13267
G01 X-4.26142 Y-2.89808
G01 X-4.26188 Y-2.89828
G01 X-4.26142 Y-2.89808
G01 X-4.26142 Y-2.85000
G01 X-4.26182 Y-2.84471
G01 X-4.26270 Y-2.84029
G01 X-4.26360 Y-2.83733
G01 X-4.26530 Y-2.83323
G01 X-4.26675 Y-2.83051
G01 X-4.26893 Y-2.82724
G01 X-4.27256 Y-2.82549
G01 X-4.27654 Y-2.82384
G01 X-4.28312 Y-2.82164
G01 X-4.28935 Y-2.82027
G01 X-4.29245 Y-2.81981
G01 X-4.29546 Y-2.81949
G01 X-4.30000 Y-2.81932
G01 X-4.42514 Y-2.81940
G01 X-4.43118 Y-2.81736
G01 X-4.43379 Y-2.81665
G01 X-4.43914 Y-2.81550
G01 X-4.44679 Y-2.81458
G01 X-4.44154 Y-2.81565
G01 X-4.43950 Y-2.81631
G01 X-4.43461 Y-2.81849
G01 X-4.43277 Y-2.81955
G01 X-4.42844 Y-2.82269
G01 X-4.42697 Y-2.82401
G01 X-4.42707 Y-2.82432
G01 X-4.42697 Y-2.82401
G01 X-4.30000 Y-2.82401
G01 X-4.29593 Y-2.82436
G01 X-4.29395 Y-2.82476
G01 X-4.29099 Y-2.82566
G01 X-4.28915 Y-2.82642
G01 X-4.28643 Y-2.82787
G01 X-4.28476 Y-2.82898
G01 X-4.28237 Y-2.83094
G01 X-4.28094 Y-2.83237
G01 X-4.27898 Y-2.83476
G01 X-4.27787 Y-2.83643
G01 X-4.27642 Y-2.83915
G01 X-4.27566 Y-2.84099
G01 X-4.27476 Y-2.84395
G01 X-4.27436 Y-2.84593
G01 X-4.27401 Y-2.85000
G01 X-4.27401 Y-2.90330
G01 X-4.27448 Y-2.90350
G01 X-4.27401 Y-2.90330
G01 X-4.03204 Y-3.14527
G01 X-4.03224 Y-3.14575
G01 X-4.03204 Y-3.14527
G01 X-3.44903 Y-3.14527
G01 X-3.44887 Y-3.14569
G01 X-3.44898 Y-3.14522
G01 X-3.44470 Y-3.14136
G01 X-3.44297 Y-3.14009
G01 X-3.43798 Y-3.13721
G01 X-3.43602 Y-3.13634
G01 X-3.43054 Y-3.13456
G01 X-3.42845 Y-3.13412
G01 X-3.42165 Y-3.13346
G01 X-3.37728 Y-3.13352
G01 X-3.37155 Y-3.13412
G01 X-3.36946 Y-3.13456
G01 X-3.36398 Y-3.13634
G01 X-3.36202 Y-3.13721
G01 X-3.35703 Y-3.14009
G01 X-3.35529 Y-3.14136
G01 X-3.35101 Y-3.14522
G01 X-3.34959 Y-3.14680
G01 X-3.34620 Y-3.15146
G01 X-3.34513 Y-3.15332
G01 X-3.34279 Y-3.15858
G01 X-3.34213 Y-3.16061
G01 X-3.34093 Y-3.16625
G01 X-3.34070 Y-3.16838
G01 X-3.34070 Y-3.17414
G01 X-3.34093 Y-3.17627
G01 X-3.34213 Y-3.18191
G01 X-3.34279 Y-3.18394
G01 X-3.34513 Y-3.18920
G01 X-3.34620 Y-3.19106
G01 X-3.34959 Y-3.19572
G01 X-3.35101 Y-3.19730
G01 X-3.35529 Y-3.20116
G01 X-3.35703 Y-3.20242
G01 X-3.36202 Y-3.20531
G01 X-3.36398 Y-3.20617
G01 X-3.36946 Y-3.20796
G01 X-3.37155 Y-3.20840
G01 X-3.37835 Y-3.20906
G01 X-3.42165 Y-3.20906
G01 X-3.42845 Y-3.20840
G01 X-3.43054 Y-3.20796
G01 X-3.43602 Y-3.20617
G01 X-3.43798 Y-3.20531
G01 X-3.44297 Y-3.20242
G01 X-3.44470 Y-3.20116
G01 X-3.44898 Y-3.19730
G01 X-3.44887 Y-3.19683
G01 X-3.44903 Y-3.19725
G01 X-4.04280 Y-3.19725
G01 X-4.04687 Y-3.19690
G01 X-4.04885 Y-3.19650
G01 X-4.05181 Y-3.19560
G01 X-4.05365 Y-3.19484
G01 X-4.05637 Y-3.19339
G01 X-4.05804 Y-3.19227
G01 X-4.06118 Y-3.18964
G01 X-4.26543 Y-2.98539
G01 X-4.26530 Y-2.98327
G01 X-4.26543 Y-2.98539
G01 X-4.26765 Y-2.98752
G01 X-4.27430 Y-2.99236
G01 X-4.27616 Y-2.99343
G01 X-4.28368 Y-2.99677
G01 X-4.28571 Y-2.99743
G01 X-4.29376 Y-2.99914
G01 X-4.29589 Y-2.99937
G01 X-4.30411 Y-2.99937
G01 X-4.30624 Y-2.99914
G01 X-4.31429 Y-2.99743
G01 X-4.31632 Y-2.99677
G01 X-4.32383 Y-2.99343
G01 X-4.32570 Y-2.99236
G01 X-4.33235 Y-2.98752
G01 X-4.33394 Y-2.98609
G01 X-4.33944 Y-2.97998
G01 X-4.34069 Y-2.97826
G01 X-4.34481 Y-2.97114
G01 X-4.34569 Y-2.96917
G01 X-4.34823 Y-2.96134
G01 X-4.34867 Y-2.95925
G01 X-4.34953 Y-2.95107
G01 X-4.34953 Y-2.94893
G01 X-4.34867 Y-2.94075
G01 X-4.34823 Y-2.93866
G01 X-4.34569 Y-2.93083
G01 X-4.34481 Y-2.92886
G01 X-4.34069 Y-2.92174
G01 X-4.33944 Y-2.92002
G01 X-4.33394 Y-2.91391
G01 X-4.33235 Y-2.91248
G01 X-4.32598 Y-2.90784
G01 X-4.32532 Y-2.90817
G01 X-4.32598 Y-2.90784
G01 X-4.32598 Y-2.87599
G01 X-4.32414 Y-2.87414
G01 X-4.32598 Y-2.87599
G01 X-4.42697 Y-2.87599
G01 X-4.42709 Y-2.87565
G01 X-4.42697 Y-2.87599
G01 X-4.42844 Y-2.87731
G01 X-4.43277 Y-2.88045
G01 X-4.43461 Y-2.88151
G01 X-4.43950 Y-2.88369
G01 X-4.44154 Y-2.88435
G01 X-4.44677 Y-2.88546
G01 X-4.44890 Y-2.88569
G01 X-4.45425 Y-2.88569
G01 X-4.45638 Y-2.88546
G01 X-4.46160 Y-2.88435
G01 X-4.46365 Y-2.88369
G01 X-4.46854 Y-2.88151
G01 X-4.47038 Y-2.88045
G01 X-4.47471 Y-2.87731
G01 X-4.47631 Y-2.87587
G01 X-4.47989 Y-2.87188
G01 X-4.48115 Y-2.87015
G01 X-4.48382 Y-2.86552
G01 X-4.48468 Y-2.86358
G01 X-4.48634 Y-2.85849
G01 X-4.48679 Y-2.85639
G01 X-4.48735 Y-2.85107
G01 X-4.48735 Y-2.84893
G01 X-4.48679 Y-2.84361
G01 X-4.48634 Y-2.84151
G01 X-4.48468 Y-2.83642
G01 X-4.48382 Y-2.83448
G01 X-4.48115 Y-2.82985
G01 X-4.47989 Y-2.82811
G01 X-4.47631 Y-2.82413
G01 X-4.47471 Y-2.82269
G01 X-4.47038 Y-2.81955
G01 X-4.46854 Y-2.81849
G01 X-4.46365 Y-2.81631
G01 X-4.46160 Y-2.81565
G01 X-4.45689 Y-2.81465
G01 X-4.52252 Y-2.81465
G01 X-4.52441 Y-2.81440
G01 X-4.52079 Y-2.81486
G01 X-4.51872 Y-2.81590
G01 X-4.51717 Y-2.81717
G01 X-4.51590 Y-2.81872
G01 X-4.51495 Y-2.82049
G01 X-4.51437 Y-2.82241
G01 X-4.51417 Y-2.82441
G01 X-4.51417 Y-2.87559
G01 X-4.51437 Y-2.87759
G01 X-4.51495 Y-2.87951
G01 X-4.51590 Y-2.88128
G01 X-4.51717 Y-2.88283
G01 X-4.51872 Y-2.88410
G01 X-4.52049 Y-2.88505
G01 X-4.52241 Y-2.88563
G01 X-4.52426 Y-2.88581
G01 X-4.52569 Y-2.88465
G01 X-4.52426 Y-2.88581
G01 X-4.52426 Y-2.89593
G01 X-4.52474 Y-2.89613
G01 X-4.52426 Y-2.89593
G01 X-4.39709 Y-3.02310
G01 X-4.39449 Y-3.02619
G01 X-4.39337 Y-3.02787
G01 X-4.39194 Y-3.03055
G01 X-4.39117 Y-3.03241
G01 X-4.39029 Y-3.03532
G01 X-4.38990 Y-3.03727
G01 X-4.38955 Y-3.04130
G01 X-4.38955 Y-3.24550
G01 X-4.38990 Y-3.24953
G01 X-4.39029 Y-3.25148
G01 X-4.39117 Y-3.25439
G01 X-4.39194 Y-3.25625
G01 X-4.39337 Y-3.25893
G01 X-4.39449 Y-3.26061
G01 X-4.39642 Y-3.26296
G01 X-4.40159 Y-3.26820
G01 X-4.40468 Y-3.27080
G01 X-4.40636 Y-3.27192
G01 X-4.40904 Y-3.27335
G01 X-4.41090 Y-3.27412
G01 X-4.41381 Y-3.27500
G01 X-4.41576 Y-3.27539
G01 X-4.41979 Y-3.27574
G01 X-4.45074 Y-3.27574
G01 X-4.45090 Y-3.27531
G01 X-4.45074 Y-3.27574
G01 X-4.45101 Y-3.27604
G01 X-4.45529 Y-3.27990
G01 X-4.45703 Y-3.28117
G01 X-4.46202 Y-3.28404
G01 X-4.46398 Y-3.28491
G01 X-4.46946 Y-3.28669
G01 X-4.47155 Y-3.28714
G01 X-4.47835 Y-3.28780
G01 X-4.52165 Y-3.28780
G01 X-4.52845 Y-3.28714
G01 X-4.53054 Y-3.28669
G01 X-4.53602 Y-3.28491
G01 X-4.53798 Y-3.28404
G01 X-4.54297 Y-3.28117
G01 X-4.54471 Y-3.27990
G01 X-4.54899 Y-3.27604
G01 X-4.55041 Y-3.27446
G01 X-4.55380 Y-3.26980
G01 X-4.55487 Y-3.26794
G01 X-4.55721 Y-3.26268
G01 X-4.55787 Y-3.26065
G01 X-4.55907 Y-3.25501
G01 X-4.55930 Y-3.25288
G01 X-4.55930 Y-3.24712
G01 X-4.55907 Y-3.24499
G01 X-4.55787 Y-3.23935
G01 X-4.55721 Y-3.23732
G01 X-4.55487 Y-3.23206
G01 X-4.55380 Y-3.23020
G01 X-4.55041 Y-3.22554
G01 X-4.54899 Y-3.22396
G01 X-4.54471 Y-3.22010
G01 X-4.54297 Y-3.21883
G01 X-4.53798 Y-3.21595
G01 X-4.53602 Y-3.21508
G01 X-4.53054 Y-3.21330
G01 X-4.52845 Y-3.21286
G01 X-4.52165 Y-3.21220
G01 X-4.47835 Y-3.21220
G01 X-4.47155 Y-3.21286
G01 X-4.46946 Y-3.21330
G01 X-4.46398 Y-3.21508
G01 X-4.46202 Y-3.21595
G01 X-4.45703 Y-3.21883
G01 X-4.45529 Y-3.22010
G01 X-4.45101 Y-3.22396
G01 X-4.45074 Y-3.22426
G01 X-4.45090 Y-3.22469
G01 X-4.45074 Y-3.22426
G01 X-4.44103 Y-3.22426
G01 X-4.43918 Y-3.22611
G01 X-4.44103 Y-3.22426
G01 X-4.44097 Y-3.17626
G01 X-4.44213 Y-3.18191
G01 X-4.44279 Y-3.18394
G01 X-4.44513 Y-3.18920
G01 X-4.44620 Y-3.19106
G01 X-4.44959 Y-3.19572
G01 X-4.45101 Y-3.19730
G01 X-4.45529 Y-3.20116
G01 X-4.45703 Y-3.20242
G01 X-4.46202 Y-3.20531
G01 X-4.46398 Y-3.20617
G01 X-4.46946 Y-3.20796
G01 X-4.47155 Y-3.20840
G01 X-4.47835 Y-3.20906
G01 X-4.52165 Y-3.20906
G01 X-4.52845 Y-3.20840
G01 X-4.53054 Y-3.20796
G01 X-4.53602 Y-3.20617
G01 X-4.53798 Y-3.20531
G01 X-4.54297 Y-3.20242
G01 X-4.54471 Y-3.20116
G01 X-4.54899 Y-3.19730
G01 X-4.54926 Y-3.19700
G01 X-4.54911 Y-3.19660
G01 X-4.54926 Y-3.19700
G01 X-4.58952 Y-3.19700
G01 X-4.59355 Y-3.19665
G01 X-4.59550 Y-3.19626
G01 X-4.59841 Y-3.19538
G01 X-4.60027 Y-3.19461
G01 X-4.60295 Y-3.19318
G01 X-4.60463 Y-3.19206
G01 X-4.60772 Y-3.18946
G01 X-4.79305 Y-3.00413
G01 X-4.79565 Y-3.00104
G01 X-4.79677 Y-2.99936
G01 X-4.79820 Y-2.99668
G01 X-4.79897 Y-2.99482
G01 X-4.79985 Y-2.99191
G01 X-4.80024 Y-2.98996
G01 X-4.80059 Y-2.98593
G01 X-4.80059 Y-2.91407
G01 X-4.80024 Y-2.91004
G01 X-4.79985 Y-2.90809
G01 X-4.79897 Y-2.90518
G01 X-4.79820 Y-2.90332
G01 X-4.79677 Y-2.90064
G01 X-4.79565 Y-2.89896
G01 X-4.79305 Y-2.89587
G01 X-4.66789 Y-2.77071
G01 X-4.66480 Y-2.76811
G01 X-4.66312 Y-2.76699
G01 X-4.66044 Y-2.76556
G01 X-4.65858 Y-2.76479
G01 X-4.65567 Y-2.76391
G01 X-4.65372 Y-2.76352
G01 X-4.64969 Y-2.76317
G01 X-4.15689 Y-2.76317
G01 X-4.15286 Y-2.76352
G01 X-4.15091 Y-2.76391
G01 X-4.14800 Y-2.76479
G01 X-4.14614 Y-2.76556
G01 X-4.14346 Y-2.76699
G01 X-4.14178 Y-2.76811
G01 X-4.13869 Y-2.77071
G01 X-3.98514 Y-2.92426
G01 X-3.98534 Y-2.92474
G01 X-3.98514 Y-2.92426
G01 X-3.69215 Y-2.92426
G01 X-3.69172 Y-2.92504
G01 X-3.69215 Y-2.92426
G01 X-3.69069 Y-2.92174
G01 X-3.68944 Y-2.92002
G01 X-3.68394 Y-2.91391
G01 X-3.68235 Y-2.91248
G01 X-3.67569 Y-2.90764
G01 X-3.67383 Y-2.90657
G01 X-3.66632 Y-2.90323
G01 X-3.66429 Y-2.90257
G01 X-3.65624 Y-2.90086
G01 X-3.65411 Y-2.90063
G01 X-3.64589 Y-2.90063
G01 X-3.64376 Y-2.90086
G01 X-3.63571 Y-2.90257
G01 X-3.63368 Y-2.90323
G01 X-3.62617 Y-2.90657
G01 X-3.62431 Y-2.90764
G01 X-3.61765 Y-2.91248
G01 X-3.61606 Y-2.91391
G01 X-3.61056 Y-2.92002
G01 X-3.60931 Y-2.92174
G01 X-3.60831 Y-2.92348
G01 X-3.60869 Y-2.92716
G01 X-3.60831 Y-2.92348
G01 X-3.53420 Y-2.84937
G01 X-3.53388 Y-2.84953
G01 X-3.53420 Y-2.84937
G01 X-3.53420 Y-2.84893
G01 X-3.53364 Y-2.84361
G01 X-3.53319 Y-2.84151
G01 X-3.53153 Y-2.83642
G01 X-3.53067 Y-2.83448
G01 X-3.52800 Y-2.82985
G01 X-3.52674 Y-2.82811
G01 X-3.52316 Y-2.82413
G01 X-3.52156 Y-2.82269
G01 X-3.51723 Y-2.81955
G01 X-3.51539 Y-2.81849
G01 X-3.51050 Y-2.81631
G01 X-3.50846 Y-2.81565
G01 X-3.50323 Y-2.81454
G01 X-3.50110 Y-2.81431
G01 X-3.49575 Y-2.81431
G01 X-3.49362 Y-2.81454
G01 X-3.48839 Y-2.81565
G01 X-3.48635 Y-2.81631
G01 X-3.48146 Y-2.81849
G01 X-3.47962 Y-2.81955
G01 X-3.47529 Y-2.82269
G01 X-3.47369 Y-2.82413
G01 X-3.47011 Y-2.82811
G01 X-3.46885 Y-2.82985
G01 X-3.46618 Y-2.83448
G01 X-3.46532 Y-2.83642
G01 X-3.46366 Y-2.84151
G01 X-3.46321 Y-2.84361
G01 X-3.46265 Y-2.84893
G01 X-3.46265 Y-2.85107
G01 X-3.46321 Y-2.85639
G01 X-3.46366 Y-2.85849
G01 X-3.46532 Y-2.86358
G01 X-3.46618 Y-2.86552
G01 X-3.46885 Y-2.87015
G01 X-3.47011 Y-2.87188
G01 X-3.47369 Y-2.87587
G01 X-3.47529 Y-2.87731
G01 X-3.47962 Y-2.88045
G01 X-3.48146 Y-2.88151
G01 X-3.48635 Y-2.88369
G01 X-3.48839 Y-2.88435
G01 X-3.49362 Y-2.88546
G01 X-3.49575 Y-2.88569
G01 X-3.49772 Y-2.88569
G01 X-3.49790 Y-2.88528
G01 X-3.49772 Y-2.88569
G01 X-3.58023 Y-2.96820
G01 X-3.58332 Y-2.97080
G01 X-3.58500 Y-2.97192
G01 X-3.58768 Y-2.97335
G01 X-3.58954 Y-2.97412
G01 X-3.59245 Y-2.97500
G01 X-3.59440 Y-2.97539
G01 X-3.59843 Y-2.97574
G01 X-3.60785 Y-2.97574
G01 X-3.60827 Y-2.97496
G01 X-3.60785 Y-2.97574
G01 X-3.60931 Y-2.97826
G01 X-3.61056 Y-2.97998
G01 X-3.61606 Y-2.98609
G01 X-3.61765 Y-2.98752
G01 X-3.62431 Y-2.99236
G01 X-3.62617 Y-2.99343
G01 X-3.63368 Y-2.99677
G01 X-3.63571 Y-2.99743
G01 X-3.64376 Y-2.99914
G01 X-3.64589 Y-2.99937
G01 X-3.65411 Y-2.99937
G01 X-3.65624 Y-2.99914
G01 X-3.66429 Y-2.99743
G01 X-3.66632 Y-2.99677
G01 X-3.67383 Y-2.99343
G01 X-3.67569 Y-2.99236
G01 X-3.68235 Y-2.98752
G01 X-3.68394 Y-2.98609
G01 X-3.68944 Y-2.97998
G01 X-3.69069 Y-2.97826
G01 X-3.69215 Y-2.97574
G01 X-3.69172 Y-2.97496
G01 X-3.69215 Y-2.97574
G01 X-3.99580 Y-2.97574
G01 X-3.99983 Y-2.97539
G01 X-4.00178 Y-2.97500
G01 X-4.00469 Y-2.97412
G01 X-4.00655 Y-2.97335
G01 X-4.00923 Y-2.97192
G01 X-4.01091 Y-2.97080
G01 X-4.01400 Y-2.96820
G01 X-4.16755 Y-2.81465
G01 X-4.16735 Y-2.81417
G01 X-4.16755 Y-2.81465
G01 X-4.44618 Y-2.81465
G01 X-4.44890 Y-2.81446
G01 X-4.45425 Y-2.81446
G01 X-4.46171 Y-2.81513
G01 X-4.46936 Y-2.81663
G01 X-4.47732 Y-2.81909
G01 X-4.48054 Y-2.82032
G01 X-4.48589 Y-2.82272
G01 X-4.48993 Y-2.82478
G01 X-4.49419 Y-2.82724
G01 X-4.49666 Y-2.83251
G01 X-4.49832 Y-2.83760
G01 X-4.49932 Y-2.84229
G01 X-4.49988 Y-2.84761
G01 X-4.49988 Y-2.85239
G01 X-4.49932 Y-2.85771
G01 X-4.49832 Y-2.86240
G01 X-4.49666 Y-2.86749
G01 X-4.49473 Y-2.87182
G01 X-4.49206 Y-2.87645
G01 X-4.48926 Y-2.88031
G01 X-4.48568 Y-2.88429
G01 X-4.48210 Y-2.88750
G01 X-4.47778 Y-2.89065
G01 X-4.47367 Y-2.89302
G01 X-4.46878 Y-2.89520
G01 X-4.46422 Y-2.89668
G01 X-4.45899 Y-2.89779
G01 X-4.45425 Y-2.89828
G01 X-4.44890 Y-2.89828
G01 X-4.44416 Y-2.89779
G01 X-4.43893 Y-2.89668
G01 X-4.43437 Y-2.89520
G01 X-4.42948 Y-2.89302
G01 X-4.42537 Y-2.89065
G01 X-4.42253 Y-2.88858
G01 X-4.42261 Y-2.88833
G01 X-4.42253 Y-2.88858
G01 X-4.33858 Y-2.88858
G01 X-4.33674 Y-2.88674
G01 X-4.33858 Y-2.88858
G01 X-4.33858 Y-2.90143
G01 X-4.33800 Y-2.90170
G01 X-4.33858 Y-2.90143
G01 X-4.33977 Y-2.90230
G01 X-4.34330 Y-2.90548
G01 X-4.34880 Y-2.91159
G01 X-4.35159 Y-2.91543
G01 X-4.35571 Y-2.92255
G01 X-4.35767 Y-2.92694
G01 X-4.36021 Y-2.93477
G01 X-4.36120 Y-2.93943
G01 X-4.36206 Y-2.94761
G01 X-4.36206 Y-2.95239
G01 X-4.36120 Y-2.96057
G01 X-4.36021 Y-2.96523
G01 X-4.35767 Y-2.97306
G01 X-4.35571 Y-2.97745
G01 X-4.35159 Y-2.98457
G01 X-4.34880 Y-2.98841
G01 X-4.34330 Y-2.99452
G01 X-4.33977 Y-2.99770
G01 X-4.33312 Y-3.00254
G01 X-4.32895 Y-3.00495
G01 X-4.32143 Y-3.00829
G01 X-4.31690 Y-3.00976
G01 X-4.30885 Y-3.01147
G01 X-4.30411 Y-3.01196
G01 X-4.29589 Y-3.01196
G01 X-4.29115 Y-3.01147
G01 X-4.28310 Y-3.00976
G01 X-4.27857 Y-3.00829
G01 X-4.27105 Y-3.00495
G01 X-4.26642 Y-3.00221
G01 X-4.26621 Y-3.00055
G01 X-4.26642 Y-3.00221
G01 X-4.07009 Y-3.19855
G01 X-4.06603 Y-3.20202
G01 X-4.06229 Y-3.20451
G01 X-4.05957 Y-3.20596
G01 X-4.05547 Y-3.20766
G01 X-4.05251 Y-3.20856
G01 X-4.04809 Y-3.20944
G01 X-4.04280 Y-3.20984
G01 X-3.45389 Y-3.20984
G01 X-3.45374 Y-3.20944
G01 X-3.45389 Y-3.20984
G01 X-3.45299 Y-3.21063
G01 X-3.44135 Y-3.21063
G01 X-3.44611 Y-3.20788
G01 X-3.44892 Y-3.20584
G01 X-3.45147 Y-3.20355
G01 X-3.45134 Y-3.20318
G01 X-3.45147 Y-3.20355
G01 X-4.04280 Y-3.20355
G01 X-4.04748 Y-3.20317
G01 X-4.05068 Y-3.20253
G01 X-4.05364 Y-3.20163
G01 X-4.05661 Y-3.20040
G01 X-4.05933 Y-3.19895
G01 X-4.06203 Y-3.19714
G01 X-4.06563 Y-3.19409
G01 X-4.26578 Y-2.99395
G01 X-4.26560 Y-2.99210
G01 X-4.26578 Y-2.99395
G01 X-4.27059 Y-2.99745
G01 X-4.27361 Y-2.99919
G01 X-4.28113 Y-3.00253
G01 X-4.28440 Y-3.00359
G01 X-4.29245 Y-3.00530
G01 X-4.29589 Y-3.00567
G01 X-4.30411 Y-3.00567
G01 X-4.30755 Y-3.00530
G01 X-4.31560 Y-3.00359
G01 X-4.31887 Y-3.00253
G01 X-4.32639 Y-2.99919
G01 X-4.32941 Y-2.99745
G01 X-4.33606 Y-2.99261
G01 X-4.33862 Y-2.99030
G01 X-4.34412 Y-2.98419
G01 X-4.34614 Y-2.98141
G01 X-4.35026 Y-2.97429
G01 X-4.35168 Y-2.97111
G01 X-4.35422 Y-2.96328
G01 X-4.35493 Y-2.95991
G01 X-4.35579 Y-2.95173
G01 X-4.35579 Y-2.94827
G01 X-4.35493 Y-2.94009
G01 X-4.35422 Y-2.93672
G01 X-4.35168 Y-2.92889
G01 X-4.35026 Y-2.92571
G01 X-4.34614 Y-2.91859
G01 X-4.34412 Y-2.91581
G01 X-4.33862 Y-2.90970
G01 X-4.33606 Y-2.90739
G01 X-4.33228 Y-2.90464
G01 X-4.33165 Y-2.90494
G01 X-4.33228 Y-2.90464
G01 X-4.33228 Y-2.88228
G01 X-4.33044 Y-2.88044
G01 X-4.33228 Y-2.88228
G01 X-4.42461 Y-2.88228
G01 X-4.42469 Y-2.88201
G01 X-4.42461 Y-2.88228
G01 X-4.42474 Y-2.88241
G01 X-4.42907 Y-2.88555
G01 X-4.43205 Y-2.88726
G01 X-4.43694 Y-2.88944
G01 X-4.44024 Y-2.89052
G01 X-4.44547 Y-2.89162
G01 X-4.44890 Y-2.89199
G01 X-4.45425 Y-2.89199
G01 X-4.45768 Y-2.89162
G01 X-4.46291 Y-2.89052
G01 X-4.46621 Y-2.88944
G01 X-4.47110 Y-2.88726
G01 X-4.47408 Y-2.88555
G01 X-4.47841 Y-2.88241
G01 X-4.48099 Y-2.88008
G01 X-4.48457 Y-2.87610
G01 X-4.48660 Y-2.87330
G01 X-4.48927 Y-2.86867
G01 X-4.49067 Y-2.86554
G01 X-4.49233 Y-2.86045
G01 X-4.49305 Y-2.85705
G01 X-4.49361 Y-2.85173
G01 X-4.49361 Y-2.84827
G01 X-4.49305 Y-2.84295
G01 X-4.49233 Y-2.83955
G01 X-4.49067 Y-2.83446
G01 X-4.48927 Y-2.83133
G01 X-4.48660 Y-2.82670
G01 X-4.48457 Y-2.82390
G01 X-4.48191 Y-2.82095
G01 X-4.47732 Y-2.81909
G01 X-4.46936 Y-2.81665
G01 X-4.46400 Y-2.81552
G01 X-4.45636 Y-2.81459
G01 X-4.44890 Y-2.81448
G01 X-4.44144 Y-2.81515
G01 X-4.43379 Y-2.81665
G01 X-4.42513 Y-2.81933
G01 X-4.30000 Y-2.81933
G01 X-4.29546 Y-2.81951
G01 X-4.28935 Y-2.82027
G01 X-4.28313 Y-2.82167
G01 X-4.27654 Y-2.82384
G01 X-4.27256 Y-2.82549
G01 X-4.26893 Y-2.82724
G01 X-4.17277 Y-2.82724
G01 X-4.17257 Y-2.82676
G01 X-4.17277 Y-2.82724
G01 X-4.02291 Y-2.97711
G01 X-4.01890 Y-2.98054
G01 X-4.01516 Y-2.98304
G01 X-4.01248 Y-2.98447
G01 X-4.00834 Y-2.98618
G01 X-4.00543 Y-2.98706
G01 X-4.00108 Y-2.98792
G01 X-3.99580 Y-2.98833
G01 X-3.69885 Y-2.98833
G01 X-3.69864 Y-2.98784
G01 X-3.69880 Y-2.98841
G01 X-3.69330 Y-2.99452
G01 X-3.68975 Y-2.99771
G01 X-3.68309 Y-3.00255
G01 X-3.67895 Y-3.00494
G01 X-3.67144 Y-3.00828
G01 X-3.66690 Y-3.00976
G01 X-3.65885 Y-3.01147
G01 X-3.65411 Y-3.01196
G01 X-3.64589 Y-3.01196
G01 X-3.64114 Y-3.01147
G01 X-3.63309 Y-3.00976
G01 X-3.62856 Y-3.00828
G01 X-3.62105 Y-3.00494
G01 X-3.61691 Y-3.00255
G01 X-3.61024 Y-2.99771
G01 X-3.60670 Y-2.99452
G01 X-3.60120 Y-2.98841
G01 X-3.60134 Y-2.98791
G01 X-3.60114 Y-2.98833
G01 X-3.59617 Y-2.98822
G01 X-3.59315 Y-2.98792
G01 X-3.58880 Y-2.98706
G01 X-3.58589 Y-2.98618
G01 X-3.58175 Y-2.98447
G01 X-3.57907 Y-2.98304
G01 X-3.57533 Y-2.98054
G01 X-3.57132 Y-2.97711
G01 X-3.49212 Y-2.89790
G01 X-3.49225 Y-2.89765
G01 X-3.49212 Y-2.89790
G01 X-3.49101 Y-2.89779
G01 X-3.48578 Y-2.89668
G01 X-3.48122 Y-2.89520
G01 X-3.47633 Y-2.89302
G01 X-3.47222 Y-2.89065
G01 X-3.46789 Y-2.88750
G01 X-3.46432 Y-2.88429
G01 X-3.46074 Y-2.88031
G01 X-3.45794 Y-2.87645
G01 X-3.45527 Y-2.87182
G01 X-3.45334 Y-2.86749
G01 X-3.45168 Y-2.86240
G01 X-3.45068 Y-2.85771
G01 X-3.45012 Y-2.85239
G01 X-3.45012 Y-2.84761
G01 X-3.45068 Y-2.84229
G01 X-3.45168 Y-2.83760
G01 X-3.45334 Y-2.83251
G01 X-3.45527 Y-2.82818
G01 X-3.45794 Y-2.82355
G01 X-3.46074 Y-2.81969
G01 X-3.46432 Y-2.81571
G01 X-3.46789 Y-2.81249
G01 X-3.47222 Y-2.80935
G01 X-3.47633 Y-2.80698
G01 X-3.47745 Y-2.80648
G01 X-3.48158 Y-2.80561
G01 X-3.48611 Y-2.80489
G01 X-3.49146 Y-2.80432
G01 X-3.49575 Y-2.80410
G01 X-3.50110 Y-2.80410
G01 X-3.50539 Y-2.80432
G01 X-3.51074 Y-2.80489
G01 X-3.51527 Y-2.80561
G01 X-3.51940 Y-2.80648
G01 X-3.52052 Y-2.80698
G01 X-3.52462 Y-2.80935
G01 X-3.52895 Y-2.81249
G01 X-3.53253 Y-2.81571
G01 X-3.53611 Y-2.81969
G01 X-3.53891 Y-2.82355
G01 X-3.54158 Y-2.82818
G01 X-3.54351 Y-2.83251
G01 X-3.54517 Y-2.83760
G01 X-3.54617 Y-2.84229
G01 X-3.54631 Y-2.84367
G01 X-3.54605 Y-2.84381
G01 X-3.54631 Y-2.84367
G01 X-3.60745 Y-2.90481
G01 X-3.60732 Y-2.90691
G01 X-3.60745 Y-2.90481
G01 X-3.61024 Y-2.90229
G01 X-3.61691 Y-2.89745
G01 X-3.62105 Y-2.89506
G01 X-3.62856 Y-2.89172
G01 X-3.63309 Y-2.89024
G01 X-3.64114 Y-2.88853
G01 X-3.64589 Y-2.88803
G01 X-3.65411 Y-2.88803
G01 X-3.65885 Y-2.88853
G01 X-3.66690 Y-2.89024
G01 X-3.67144 Y-2.89172
G01 X-3.67895 Y-2.89506
G01 X-3.68309 Y-2.89745
G01 X-3.68975 Y-2.90229
G01 X-3.69330 Y-2.90548
G01 X-3.69880 Y-2.91159
G01 X-3.69864 Y-2.91216
G01 X-3.69885 Y-2.91167
G01 X-3.97992 Y-2.91167
G01 X-3.98012 Y-2.91214
G01 X-3.97992 Y-2.91167
G01 X-4.05575 Y-2.83583
G01 X-4.06890 Y-2.83039
G01 X-4.07461 Y-2.82742
G01 X-4.07942 Y-2.82352
G01 X-4.08332 Y-2.81871
G01 X-4.08629 Y-2.81300
G01 X-4.09173 Y-2.79985
G01 X-4.12978 Y-2.76180
G01 X-4.13379 Y-2.75837
G01 X-4.13753 Y-2.75587
G01 X-4.14021 Y-2.75444
G01 X-4.14435 Y-2.75273
G01 X-4.14726 Y-2.75185
G01 X-4.15161 Y-2.75099
G01 X-4.15689 Y-2.75057
G01 X-4.64969 Y-2.75057
G01 X-4.65497 Y-2.75099
G01 X-4.65932 Y-2.75185
G01 X-4.66223 Y-2.75273
G01 X-4.66637 Y-2.75444
G01 X-4.66905 Y-2.75587
G01 X-4.67279 Y-2.75837
G01 X-4.67680 Y-2.76180
G01 X-4.80196 Y-2.88696
G01 X-4.80539 Y-2.89097
G01 X-4.80789 Y-2.89471
G01 X-4.80932 Y-2.89739
G01 X-4.81103 Y-2.90153
G01 X-4.81191 Y-2.90444
G01 X-4.81277 Y-2.90879
G01 X-4.81307 Y-2.91181
G01 X-4.81318 Y-2.91407
G01 X-4.81318 Y-2.98593
G01 X-4.81277 Y-2.99121
G01 X-4.81191 Y-2.99556
G01 X-4.81103 Y-2.99847
G01 X-4.80932 Y-3.00261
G01 X-4.80789 Y-3.00529
G01 X-4.80539 Y-3.00903
G01 X-4.80196 Y-3.01304
G01 X-4.61663 Y-3.19837
G01 X-4.61262 Y-3.20180
G01 X-4.60888 Y-3.20430
G01 X-4.60620 Y-3.20573
G01 X-4.60206 Y-3.20744
G01 X-4.59915 Y-3.20832
G01 X-4.59480 Y-3.20918
G01 X-4.58952 Y-3.20959
G01 X-4.55417 Y-3.20959
G01 X-4.55401 Y-3.20919
G01 X-4.55417 Y-3.20959
G01 X-4.55299 Y-3.21063
G01 X-4.45865 Y-3.21063
G01 X-4.45388 Y-3.21338
G01 X-4.45108 Y-3.21542
G01 X-4.44825 Y-3.21796
G01 X-4.44838 Y-3.21833
G01 X-4.44825 Y-3.21796
G01 X-4.44733 Y-3.21796
G01 X-4.44548 Y-3.21981
G01 X-4.44733 Y-3.21796
G01 X-4.44733 Y-3.20246
G01 X-4.45108 Y-3.20584
G01 X-4.45388 Y-3.20788
G01 X-4.45865 Y-3.21063
G01 X-4.45111 Y-3.21063
G01 X-4.45048 Y-3.21162
G01 X-4.45111 Y-3.21063
G01 X-4.55299 Y-3.21063
G01 X-4.55314 Y-3.21074
G01 X-4.55742 Y-3.21460
G01 X-4.56060 Y-3.21813
G01 X-4.56398 Y-3.22279
G01 X-4.56638 Y-3.22694
G01 X-4.56872 Y-3.23220
G01 X-4.57019 Y-3.23673
G01 X-4.57139 Y-3.24237
G01 X-4.57189 Y-3.24712
G01 X-4.57189 Y-3.25288
G01 X-4.57139 Y-3.25763
G01 X-4.57019 Y-3.26327
G01 X-4.56872 Y-3.26780
G01 X-4.56638 Y-3.27306
G01 X-4.56398 Y-3.27721
G01 X-4.56060 Y-3.28187
G01 X-4.55742 Y-3.28540
G01 X-4.55314 Y-3.28926
G01 X-4.55299 Y-3.28937
G01 X-4.44701 Y-3.28937
G01 X-4.44583 Y-3.28833
G01 X-4.44598 Y-3.28795
G01 X-4.44583 Y-3.28833
G01 X-4.41979 Y-3.28833
G01 X-4.41451 Y-3.28792
G01 X-4.41016 Y-3.28706
G01 X-4.40725 Y-3.28618
G01 X-4.40311 Y-3.28447
G01 X-4.40043 Y-3.28304
G01 X-4.39669 Y-3.28054
G01 X-4.39268 Y-3.27711
G01 X-4.38668 Y-3.27095
G01 X-4.38475 Y-3.26860
G01 X-4.38225 Y-3.26486
G01 X-4.38082 Y-3.26218
G01 X-4.37911 Y-3.25804
G01 X-4.37823 Y-3.25513
G01 X-4.37737 Y-3.25078
G01 X-4.37695 Y-3.24550
G01 X-4.37695 Y-3.04130
G01 X-4.37737 Y-3.03602
G01 X-4.37823 Y-3.03167
G01 X-4.37911 Y-3.02876
G01 X-4.38082 Y-3.02462
G01 X-4.38225 Y-3.02194
G01 X-4.38475 Y-3.01820
G01 X-4.38818 Y-3.01419
G01 X-4.50957 Y-2.89281
G01 X-4.51199 Y-2.89286
G01 X-4.50957 Y-2.89281
G01 X-4.50826 Y-2.89174
G01 X-4.50542 Y-2.88828
G01 X-4.50331 Y-2.88433
G01 X-4.50201 Y-2.88004
G01 X-4.50157 Y-2.87559
G01 X-4.50157 Y-2.82724
G01 X-4.50441 Y-2.82441
G01 X-4.50939 Y-2.82001
G01 X-4.51439 Y-2.81687
G01 X-4.51940 Y-2.81499
G01 X-4.52441 Y-2.81441
G01 X-4.57559 Y-2.81439
G01 X-4.57692 Y-2.81465
G01 X-4.63903 Y-2.81465
G01 X-4.63923 Y-2.81417
G01 X-4.63903 Y-2.81465
G01 X-4.74911 Y-2.92473
G01 X-4.74959 Y-2.92453
G01 X-4.74911 Y-2.92473
G01 X-4.74911 Y-2.94497
G01 X-4.74867 Y-2.94075
G01 X-4.74823 Y-2.93866
G01 X-4.74569 Y-2.93083
G01 X-4.74481 Y-2.92886
G01 X-4.74069 Y-2.92174
G01 X-4.73944 Y-2.92002
G01 X-4.73394 Y-2.91391
G01 X-4.73235 Y-2.91248
G01 X-4.72570 Y-2.90764
G01 X-4.72384 Y-2.90656
G01 X-4.71631 Y-2.90322
G01 X-4.71429 Y-2.90257
G01 X-4.70624 Y-2.90086
G01 X-4.70411 Y-2.90063
G01 X-4.69589 Y-2.90063
G01 X-4.69376 Y-2.90086
G01 X-4.68839 Y-2.90200
G01 X-4.68815 Y-2.90277
G01 X-4.68839 Y-2.90200
G01 X-4.61820 Y-2.83180
G01 X-4.61511 Y-2.82920
G01 X-4.61343 Y-2.82808
G01 X-4.61075 Y-2.82665
G01 X-4.60889 Y-2.82588
G01 X-4.60598 Y-2.82500
G01 X-4.60403 Y-2.82461
G01 X-4.60000 Y-2.82426
G01 X-4.58581 Y-2.82426
G01 X-4.58467 Y-2.82563
G01 X-4.58581 Y-2.82426
G01 X-4.58563 Y-2.82241
G01 X-4.58505 Y-2.82049
G01 X-4.58410 Y-2.81872
G01 X-4.58283 Y-2.81717
G01 X-4.58128 Y-2.81590
G01 X-4.57993 Y-2.81518
G01 X-4.57692 Y-2.81465
G01 X-4.58272 Y-2.81560
G01 X-4.58979 Y-2.81946
G01 X-4.58975 Y-2.81963
G01 X-4.58979 Y-2.81946
G01 X-4.58975 Y-2.81962
G01 X-4.58979 Y-2.81946
G01 X-4.60000 Y-2.81946
G01 X-4.60453 Y-2.81963
G01 X-4.61055 Y-2.82039
G01 X-4.61336 Y-2.82095
G01 X-4.63642 Y-2.82095
G01 X-4.63662 Y-2.82046
G01 X-4.63642 Y-2.82095
G01 X-4.71088 Y-2.89540
G01 X-4.70754 Y-2.89470
G01 X-4.70411 Y-2.89433
G01 X-4.69589 Y-2.89433
G01 X-4.69245 Y-2.89470
G01 X-4.69043 Y-2.89513
G01 X-4.69019 Y-2.89583
G01 X-4.69043 Y-2.89513
G01 X-4.62265 Y-2.82735
G01 X-4.61910 Y-2.82433
G01 X-4.61639 Y-2.82252
G01 X-4.61336 Y-2.82095
G01 X-4.61679 Y-2.82178
G01 X-4.62032 Y-2.82286
G01 X-4.62530 Y-2.82470
G01 X-4.63146 Y-2.82724
G01 X-4.69259 Y-2.88838
G01 X-4.69237 Y-2.88902
G01 X-4.69259 Y-2.88838
G01 X-4.69478 Y-2.88815
G01 X-4.69589 Y-2.88857
G01 X-4.70411 Y-2.89197
G01 X-4.70775 Y-2.89371
G01 X-4.71530 Y-2.89780
G01 X-4.71799 Y-2.89945
G01 X-4.72490 Y-2.90418
G01 X-4.72703 Y-2.90582
G01 X-4.73330 Y-2.91119
G01 X-4.73510 Y-2.91287
G01 X-4.74074 Y-2.91885
G01 X-4.74632 Y-2.92589
G01 X-4.74653 Y-2.92579
G01 X-4.74632 Y-2.92589
G01 X-4.74736 Y-2.93029
G01 X-4.74890 Y-2.94073
G01 X-4.74932 Y-2.94895
G01 X-4.74911 Y-2.95504
G01 X-4.74911 Y-2.97527
G01 X-4.74959 Y-2.97547
G01 X-4.74911 Y-2.97527
G01 X-4.57886 Y-3.14552
G01 X-4.57906 Y-3.14600
G01 X-4.57886 Y-3.14552
G01 X-4.54926 Y-3.14552
G01 X-4.54909 Y-3.14595
G01 X-4.54926 Y-3.14552
G01 X-4.54899 Y-3.14522
G01 X-4.54471 Y-3.14136
G01 X-4.54297 Y-3.14009
G01 X-4.53798 Y-3.13721
G01 X-4.53602 Y-3.13634
G01 X-4.53054 Y-3.13456
G01 X-4.52845 Y-3.13412
G01 X-4.52165 Y-3.13346
G01 X-4.47835 Y-3.13346
G01 X-4.47155 Y-3.13412
G01 X-4.46946 Y-3.13456
G01 X-4.46398 Y-3.13634
G01 X-4.46202 Y-3.13721
G01 X-4.45703 Y-3.14009
G01 X-4.45529 Y-3.14136
G01 X-4.45101 Y-3.14522
G01 X-4.44959 Y-3.14680
G01 X-4.44620 Y-3.15146
G01 X-4.44513 Y-3.15332
G01 X-4.44279 Y-3.15858
G01 X-4.44213 Y-3.16061
G01 X-4.44098 Y-3.16626
G01 X-4.44103 Y-3.05196
G01 X-4.44055 Y-3.05176
G01 X-4.44103 Y-3.05196
G01 X-4.56820 Y-2.92479
G01 X-4.57080 Y-2.92170
G01 X-4.57192 Y-2.92002
G01 X-4.57335 Y-2.91734
G01 X-4.57412 Y-2.91548
G01 X-4.57500 Y-2.91257
G01 X-4.57539 Y-2.91062
G01 X-4.57569 Y-2.90760
G01 X-4.57574 Y-2.88581
G01 X-4.57436 Y-2.88467
G01 X-4.57574 Y-2.88581
G01 X-4.57759 Y-2.88563
G01 X-4.57951 Y-2.88505
G01 X-4.58128 Y-2.88410
G01 X-4.58283 Y-2.88283
G01 X-4.58410 Y-2.88128
G01 X-4.58505 Y-2.87951
G01 X-4.58563 Y-2.87759
G01 X-4.58581 Y-2.87574
G01 X-4.58465 Y-2.87431
G01 X-4.58581 Y-2.87574
G01 X-4.58934 Y-2.87574
G01 X-4.58954 Y-2.87526
G01 X-4.58934 Y-2.87574
G01 X-4.65189 Y-2.93829
G01 X-4.65254 Y-2.93806
G01 X-4.65189 Y-2.93829
G01 X-4.65133 Y-2.94075
G01 X-4.65047 Y-2.94893
G01 X-4.65047 Y-2.95107
G01 X-4.65133 Y-2.95925
G01 X-4.65177 Y-2.96134
G01 X-4.65431 Y-2.96917
G01 X-4.65519 Y-2.97114
G01 X-4.65931 Y-2.97826
G01 X-4.66056 Y-2.97998
G01 X-4.66606 Y-2.98609
G01 X-4.66765 Y-2.98752
G01 X-4.67430 Y-2.99236
G01 X-4.67616 Y-2.99343
G01 X-4.68368 Y-2.99677
G01 X-4.68571 Y-2.99743
G01 X-4.69376 Y-2.99914
G01 X-4.69589 Y-2.99937
G01 X-4.70411 Y-2.99937
G01 X-4.70624 Y-2.99914
G01 X-4.71429 Y-2.99743
G01 X-4.71631 Y-2.99677
G01 X-4.72384 Y-2.99343
G01 X-4.72570 Y-2.99236
G01 X-4.73235 Y-2.98752
G01 X-4.73394 Y-2.98609
G01 X-4.73944 Y-2.97998
G01 X-4.74069 Y-2.97826
G01 X-4.74481 Y-2.97114
G01 X-4.74569 Y-2.96917
G01 X-4.74823 Y-2.96134
G01 X-4.74867 Y-2.95925
G01 X-4.74911 Y-2.95504
G01 X-4.74866 Y-2.96148
G01 X-4.74736 Y-2.96971
G01 X-4.74632 Y-2.97411
G01 X-4.74649 Y-2.97419
G01 X-4.74632 Y-2.97411
G01 X-4.74074 Y-2.98115
G01 X-4.73330 Y-2.98882
G01 X-4.72703 Y-2.99417
G01 X-4.72489 Y-2.99581
G01 X-4.71799 Y-3.00055
G01 X-4.71088 Y-3.00460
G01 X-4.57625 Y-3.13922
G01 X-4.57645 Y-3.13970
G01 X-4.57625 Y-3.13922
G01 X-4.55174 Y-3.13922
G01 X-4.55161 Y-3.13959
G01 X-4.55174 Y-3.13922
G01 X-4.54892 Y-3.13668
G01 X-4.54612 Y-3.13464
G01 X-4.54113 Y-3.13176
G01 X-4.53797 Y-3.13035
G01 X-4.53249 Y-3.12857
G01 X-4.52910 Y-3.12785
G01 X-4.52165 Y-3.12716
G01 X-4.47835 Y-3.12716
G01 X-4.47090 Y-3.12785
G01 X-4.46751 Y-3.12857
G01 X-4.46203 Y-3.13035
G01 X-4.45887 Y-3.13176
G01 X-4.45388 Y-3.13464
G01 X-4.45108 Y-3.13668
G01 X-4.44733 Y-3.14006
G01 X-4.44733 Y-3.05457
G01 X-4.44685 Y-3.05437
G01 X-4.44733 Y-3.05457
G01 X-4.57374 Y-2.92804
G01 X-4.57567 Y-2.92569
G01 X-4.57748 Y-2.92298
G01 X-4.57891 Y-2.92030
G01 X-4.58015 Y-2.91731
G01 X-4.58103 Y-2.91440
G01 X-4.58165 Y-2.91124
G01 X-4.58204 Y-2.90659
G01 X-4.58204 Y-2.89080
G01 X-4.58129 Y-2.89041
G01 X-4.58204 Y-2.89080
G01 X-4.58478 Y-2.88934
G01 X-4.58728 Y-2.88728
G01 X-4.58939 Y-2.88469
G01 X-4.58922 Y-2.88158
G01 X-4.58939 Y-2.88469
G01 X-4.64504 Y-2.94034
G01 X-4.64563 Y-2.94012
G01 X-4.64504 Y-2.94034
G01 X-4.64421 Y-2.94827
G01 X-4.64421 Y-2.95173
G01 X-4.64506 Y-2.95991
G01 X-4.64578 Y-2.96328
G01 X-4.64832 Y-2.97111
G01 X-4.64974 Y-2.97429
G01 X-4.65386 Y-2.98141
G01 X-4.65588 Y-2.98419
G01 X-4.66138 Y-2.99030
G01 X-4.66394 Y-2.99261
G01 X-4.67059 Y-2.99745
G01 X-4.67361 Y-2.99919
G01 X-4.68113 Y-3.00253
G01 X-4.68440 Y-3.00359
G01 X-4.69245 Y-3.00530
G01 X-4.69589 Y-3.00567
G01 X-4.70411 Y-3.00567
G01 X-4.70754 Y-3.00530
G01 X-4.71088 Y-3.00460
G01 X-4.70775 Y-3.00629
G01 X-4.70411 Y-3.00803
G01 X-4.69472 Y-3.01184
G01 X-4.69114 Y-3.01147
G01 X-4.68309 Y-3.00976
G01 X-4.67857 Y-3.00829
G01 X-4.67105 Y-3.00495
G01 X-4.66688 Y-3.00254
G01 X-4.66023 Y-2.99770
G01 X-4.65670 Y-2.99452
G01 X-4.65120 Y-2.98841
G01 X-4.64841 Y-2.98457
G01 X-4.64428 Y-2.97745
G01 X-4.64233 Y-2.97306
G01 X-4.63979 Y-2.96523
G01 X-4.63880 Y-2.96057
G01 X-4.63794 Y-2.95239
G01 X-4.63794 Y-2.94761
G01 X-4.63846 Y-2.94267
G01 X-4.63902 Y-2.94246
G01 X-4.63846 Y-2.94267
G01 X-4.58942 Y-2.89364
G01 X-4.58953 Y-2.89143
G01 X-4.58942 Y-2.89364
G01 X-4.58833 Y-2.89453
G01 X-4.58774 Y-2.89425
G01 X-4.58833 Y-2.89453
G01 X-4.58833 Y-2.90659
G01 X-4.58792 Y-2.91187
G01 X-4.58706 Y-2.91622
G01 X-4.58618 Y-2.91913
G01 X-4.58447 Y-2.92327
G01 X-4.58304 Y-2.92595
G01 X-4.58054 Y-2.92969
G01 X-4.57861 Y-2.93204
G01 X-4.57711 Y-2.93370
G01 X-4.45362 Y-3.05718
G01 X-4.45315 Y-3.05698
G01 X-4.45362 Y-3.05718
G01 X-4.45362 Y-3.12751
G01 X-4.45170 Y-3.13085
G01 X-4.44957 Y-3.13501
G01 X-4.44700 Y-3.14077
G01 X-4.44576 Y-3.14401
G01 X-4.44388 Y-3.14977
G01 X-4.44316 Y-3.15244
G01 X-4.44193 Y-3.15820
G01 X-4.44157 Y-3.16049
G01 X-4.44085 Y-3.16838
G01 X-4.44097 Y-3.17626
G01 X-4.44157 Y-3.18203
G01 X-4.44316 Y-3.19007
G01 X-4.44388 Y-3.19275
G01 X-4.44576 Y-3.19851
G01 X-4.44700 Y-3.20175
G01 X-4.45111 Y-3.21063
G01 X-4.44701 Y-3.20174
G01 X-4.44576 Y-3.19851
G01 X-4.44317 Y-3.19007
G01 X-4.44194 Y-3.18432
G01 X-4.44097 Y-3.17626
G01 X-4.44086 Y-3.16838
G01 X-4.44157 Y-3.16049
G01 X-4.44317 Y-3.15245
G01 X-4.44388 Y-3.14977
G01 X-4.44576 Y-3.14401
G01 X-4.44701 Y-3.14078
G01 X-4.44957 Y-3.13501
G01 X-4.45170 Y-3.13085
G01 X-4.45362 Y-3.12751
G01 X-4.45573 Y-3.12630
G01 X-4.46009 Y-3.12436
G01 X-4.46556 Y-3.12258
G01 X-4.47024 Y-3.12159
G01 X-4.47597 Y-3.12099
G01 X-4.47835 Y-3.12086
G01 X-4.52165 Y-3.12086
G01 X-4.52976 Y-3.12159
G01 X-4.53443 Y-3.12258
G01 X-4.53991 Y-3.12436
G01 X-4.54427 Y-3.12630
G01 X-4.54926 Y-3.12918
G01 X-4.55314 Y-3.13200
G01 X-4.55417 Y-3.13293
G01 X-4.55405 Y-3.13326
G01 X-4.55417 Y-3.13293
G01 X-4.57364 Y-3.13293
G01 X-4.57384 Y-3.13340
G01 X-4.57364 Y-3.13293
G01 X-4.69472 Y-3.01184
G01 X-4.70411 Y-3.00803
G01 X-4.70775 Y-3.00629
G01 X-4.71530 Y-3.00220
G01 X-4.71799 Y-3.00055
G01 X-4.72489 Y-2.99581
G01 X-4.72703 Y-2.99417
G01 X-4.73508 Y-2.98712
G01 X-4.74074 Y-2.98115
G01 X-4.74632 Y-2.97411
G01 X-4.74736 Y-2.96971
G01 X-4.74889 Y-2.95927
G01 X-4.74932 Y-2.95105
G01 X-4.74889 Y-2.94073
G01 X-4.74736 Y-2.93029
G01 X-4.74632 Y-2.92589
G01 X-4.74074 Y-2.91885
G01 X-4.73330 Y-2.91119
G01 X-4.72703 Y-2.90582
G01 X-4.72489 Y-2.90419
G01 X-4.71799 Y-2.89945
G01 X-4.71530 Y-2.89780
G01 X-4.70775 Y-2.89371
G01 X-4.70411 Y-2.89197
G01 X-4.69468 Y-2.88811
G01 X-4.63381 Y-2.82724
G01 X-4.63401 Y-2.82676
G01 X-4.63381 Y-2.82724
G01 X-4.63146 Y-2.82724
G01 X-4.62530 Y-2.82470
G01 X-4.62032 Y-2.82286
G01 X-4.61679 Y-2.82178
G01 X-4.61055 Y-2.82039
G01 X-4.60751 Y-2.81994
G01 X-4.60149 Y-2.81949
G01 X-4.58979 Y-2.81946
G01 X-4.58269 Y-2.81567
G01 X-4.57559 Y-2.81441
G01 X-4.52441 Y-2.81441
G01 X-4.51941 Y-2.81503
G01 X-4.51441 Y-2.81691
G01 X-4.50941 Y-2.82003
G01 X-4.50441 Y-2.82441
G01 X-4.50157 Y-2.82724
G01 X-4.49419 Y-2.82724
G01 X-4.48993 Y-2.82478
G01 X-4.48589 Y-2.82272
G01 X-4.48191 Y-2.82095
G01 X-4.50837 Y-2.82095
G01 X-4.50819 Y-2.82118
G01 X-4.50787 Y-2.82441
G01 X-4.50787 Y-2.87559
G01 X-4.50819 Y-2.87881
G01 X-4.50913 Y-2.88192
G01 X-4.51066 Y-2.88478
G01 X-4.51272 Y-2.88728
G01 X-4.51522 Y-2.88934
G01 X-4.51796 Y-2.89080
G01 X-4.51870 Y-2.89041
G01 X-4.51796 Y-2.89080
G01 X-4.51796 Y-2.89332
G01 X-4.51844 Y-2.89352
G01 X-4.51796 Y-2.89332
G01 X-4.39264 Y-3.01865
G01 X-4.38962 Y-3.02219
G01 X-4.38781 Y-3.02490
G01 X-4.38638 Y-3.02759
G01 X-4.38514 Y-3.03058
G01 X-4.38426 Y-3.03349
G01 X-4.38363 Y-3.03665
G01 X-4.38325 Y-3.04130
G01 X-4.38333 Y-3.24713
G01 X-4.38363 Y-3.25015
G01 X-4.38426 Y-3.25331
G01 X-4.38514 Y-3.25622
G01 X-4.38638 Y-3.25921
G01 X-4.38781 Y-3.26189
G01 X-4.38962 Y-3.26460
G01 X-4.39264 Y-3.26815
G01 X-4.39834 Y-3.27374
G01 X-4.40069 Y-3.27567
G01 X-4.40339 Y-3.27748
G01 X-4.40608 Y-3.27891
G01 X-4.40907 Y-3.28015
G01 X-4.41198 Y-3.28103
G01 X-4.41514 Y-3.28165
G01 X-4.41815 Y-3.28195
G01 X-4.44825 Y-3.28204
G01 X-4.44838 Y-3.28167
G01 X-4.44825 Y-3.28204
G01 X-4.45108 Y-3.28458
G01 X-4.45388 Y-3.28662
G01 X-4.45865 Y-3.28937
G01 X-4.54135 Y-3.28937
G01 X-4.54612 Y-3.28662
G01 X-4.54892 Y-3.28458
G01 X-4.55320 Y-3.28072
G01 X-4.55550 Y-3.27817
G01 X-4.55889 Y-3.27351
G01 X-4.56063 Y-3.27050
G01 X-4.56297 Y-3.26524
G01 X-4.56403 Y-3.26196
G01 X-4.56523 Y-3.25632
G01 X-4.56560 Y-3.25288
G01 X-4.56560 Y-3.24712
G01 X-4.56523 Y-3.24368
G01 X-4.56403 Y-3.23804
G01 X-4.56297 Y-3.23476
G01 X-4.56063 Y-3.22950
G01 X-4.55889 Y-3.22649
G01 X-4.55550 Y-3.22183
G01 X-4.55320 Y-3.21928
G01 X-4.54892 Y-3.21542
G01 X-4.54612 Y-3.21338
G01 X-4.54135 Y-3.21063
G01 X-4.54612 Y-3.20788
G01 X-4.54892 Y-3.20584
G01 X-4.55174 Y-3.20329
G01 X-4.55161 Y-3.20293
G01 X-4.55174 Y-3.20329
G01 X-4.58952 Y-3.20329
G01 X-4.59417 Y-3.20291
G01 X-4.59733 Y-3.20229
G01 X-4.60024 Y-3.20141
G01 X-4.60323 Y-3.20017
G01 X-4.60591 Y-3.19874
G01 X-4.60862 Y-3.19693
G01 X-4.61217 Y-3.19391
G01 X-4.79750 Y-3.00858
G01 X-4.80052 Y-3.00503
G01 X-4.80233 Y-3.00232
G01 X-4.80376 Y-2.99964
G01 X-4.80500 Y-2.99665
G01 X-4.80588 Y-2.99374
G01 X-4.80650 Y-2.99058
G01 X-4.80689 Y-2.98593
G01 X-4.80689 Y-2.91407
G01 X-4.80650 Y-2.90942
G01 X-4.80588 Y-2.90626
G01 X-4.80500 Y-2.90335
G01 X-4.80376 Y-2.90035
G01 X-4.80233 Y-2.89768
G01 X-4.80052 Y-2.89497
G01 X-4.79750 Y-2.89142
G01 X-4.67234 Y-2.76626
G01 X-4.66879 Y-2.76324
G01 X-4.66608 Y-2.76143
G01 X-4.66340 Y-2.76000
G01 X-4.66041 Y-2.75876
G01 X-4.65750 Y-2.75788
G01 X-4.65434 Y-2.75725
G01 X-4.64969 Y-2.75687
G01 X-4.15526 Y-2.75696
G01 X-4.15224 Y-2.75725
G01 X-4.14908 Y-2.75788
G01 X-4.14617 Y-2.75876
G01 X-4.14318 Y-2.76000
G01 X-4.14049 Y-2.76143
G01 X-4.13779 Y-2.76324
G01 X-4.13424 Y-2.76626
G01 X-4.08495 Y-2.81555
G01 X-4.08329 Y-2.81870
G01 X-4.07939 Y-2.82349
G01 X-4.07460 Y-2.82739
G01 X-4.06890 Y-2.83039
G01 X-4.05575 Y-2.83583
G01 X-3.93110 Y-2.83583
G01 X-3.92665 Y-2.83540
G01 X-3.92236 Y-2.83410
G01 X-3.91841 Y-2.83199
G01 X-3.91495 Y-2.82915
G01 X-3.91211 Y-2.82569
G01 X-3.91000 Y-2.82174
G01 X-3.90870 Y-2.81745
G01 X-3.90827 Y-2.81300
G01 X-3.90827 Y-2.67520
G01 X-3.90870 Y-2.67075
G01 X-3.91000 Y-2.66646
G01 X-3.91211 Y-2.66251
G01 X-3.91495 Y-2.65905
G01 X-3.91841 Y-2.65621
G01 X-3.92236 Y-2.65410
G01 X-3.92665 Y-2.65280
G01 X-3.93110 Y-2.65237
G01 X-4.00899 Y-2.65237
G01 X-4.00903 Y-2.65253
G01 X-4.00899 Y-2.65237
G01 X-4.23510 Y-2.53931
G01 X-4.23951 Y-2.54003
G01 X-4.23510 Y-2.53931
G01 X-4.13762 Y-2.44183
G01 X-4.13782 Y-2.44136
G01 X-4.13762 Y-2.44183
G01 X-4.09173 Y-2.44183
G01 X-4.08890 Y-2.43900
G01 X-4.08390 Y-2.43463
G01 X-4.07890 Y-2.43150
G01 X-4.07390 Y-2.42962
G01 X-4.06890 Y-2.42900
G01 X-3.93110 Y-2.42900
G01 X-3.92610 Y-2.42962
G01 X-3.92110 Y-2.43150
G01 X-3.91610 Y-2.43463
G01 X-3.91110 Y-2.43900
G01 X-3.90827 Y-2.44183
G01 X-3.81238 Y-2.44183
G01 X-3.81218 Y-2.44136
G01 X-3.81238 Y-2.44183
G01 X-3.71154 Y-2.54267
G01 X-3.71098 Y-2.54246
G01 X-3.71154 Y-2.54267
G01 X-3.71206 Y-2.54761
G01 X-3.71206 Y-2.55239
G01 X-3.71120 Y-2.56057
G01 X-3.71021 Y-2.56522
G01 X-3.70767 Y-2.57306
G01 X-3.70571 Y-2.57745
G01 X-3.70159 Y-2.58457
G01 X-3.69880 Y-2.58841
G01 X-3.69339 Y-2.59441
G01 X-3.68764 Y-2.59925
G01 X-3.68309 Y-2.60255
G01 X-3.67895 Y-2.60494
G01 X-3.67144 Y-2.60828
G01 X-3.66690 Y-2.60976
G01 X-3.65885 Y-2.61147
G01 X-3.65411 Y-2.61196
G01 X-3.64589 Y-2.61196
G01 X-3.64114 Y-2.61147
G01 X-3.63309 Y-2.60976
G01 X-3.62856 Y-2.60828
G01 X-3.62105 Y-2.60494
G01 X-3.61691 Y-2.60255
G01 X-3.61024 Y-2.59771
G01 X-3.60670 Y-2.59452
G01 X-3.60136 Y-2.58858
G01 X-3.60157 Y-2.58809
G01 X-3.60136 Y-2.58858
G01 X-3.29864 Y-2.58858
G01 X-3.29843 Y-2.58809
G01 X-3.29864 Y-2.58858
G01 X-3.29330 Y-2.59452
G01 X-3.28975 Y-2.59771
G01 X-3.28309 Y-2.60255
G01 X-3.27895 Y-2.60494
G01 X-3.27144 Y-2.60828
G01 X-3.26690 Y-2.60976
G01 X-3.25885 Y-2.61147
G01 X-3.25411 Y-2.61196
G01 X-3.24589 Y-2.61196
G01 X-3.24114 Y-2.61147
G01 X-3.23310 Y-2.60976
G01 X-3.22856 Y-2.60828
G01 X-3.22105 Y-2.60494
G01 X-3.21691 Y-2.60255
G01 X-3.21025 Y-2.59771
G01 X-3.20670 Y-2.59452
G01 X-3.20120 Y-2.58841
G01 X-3.19841 Y-2.58457
G01 X-3.19428 Y-2.57745
G01 X-3.19233 Y-2.57306
G01 X-3.18979 Y-2.56522
G01 X-3.18880 Y-2.56057
G01 X-3.18794 Y-2.55239
G01 X-3.18794 Y-2.54761
G01 X-3.18880 Y-2.53943
G01 X-3.18979 Y-2.53477
G01 X-3.19233 Y-2.52694
G01 X-3.19428 Y-2.52255
G01 X-3.19841 Y-2.51543
G01 X-3.20120 Y-2.51159
G01 X-3.20670 Y-2.50548
G01 X-3.21025 Y-2.50229
G01 X-3.21691 Y-2.49745
G01 X-3.22105 Y-2.49505
G01 X-3.22856 Y-2.49172
G01 X-3.23310 Y-2.49024
G01 X-3.24114 Y-2.48853
G01 X-3.24589 Y-2.48803
G01 X-3.25411 Y-2.48803
G01 X-3.25885 Y-2.48853
G01 X-3.26690 Y-2.49024
G01 X-3.27144 Y-2.49172
G01 X-3.27895 Y-2.49505
G01 X-3.28309 Y-2.49745
G01 X-3.28975 Y-2.50229
G01 X-3.29330 Y-2.50548
G01 X-3.29864 Y-2.51141
G01 X-3.29843 Y-2.51191
G01 X-3.29864 Y-2.51141
G01 X-3.60136 Y-2.51141
G01 X-3.60157 Y-2.51191
G01 X-3.60136 Y-2.51141
G01 X-3.60670 Y-2.50548
G01 X-3.61024 Y-2.50229
G01 X-3.61691 Y-2.49745
G01 X-3.62105 Y-2.49505
G01 X-3.62856 Y-2.49172
G01 X-3.63309 Y-2.49024
G01 X-3.64114 Y-2.48853
G01 X-3.64589 Y-2.48803
G01 X-3.65411 Y-2.48803
G01 X-3.65740 Y-2.48838
G01 X-3.65761 Y-2.48890
G01 X-3.65740 Y-2.48838
G01 X-3.76939 Y-2.37639
G01 X-3.77340 Y-2.37296
G01 X-3.77714 Y-2.37046
G01 X-3.77982 Y-2.36903
G01 X-3.78396 Y-2.36732
G01 X-3.78687 Y-2.36644
G01 X-3.79122 Y-2.36558
G01 X-3.79650 Y-2.36517
G01 X-4.15350 Y-2.36517
G01 X-4.15878 Y-2.36558
G01 X-4.16313 Y-2.36644
G01 X-4.16604 Y-2.36732
G01 X-4.17018 Y-2.36903
G01 X-4.17286 Y-2.37046
G01 X-4.17660 Y-2.37296
G01 X-4.17895 Y-2.37489
G01 X-4.18061 Y-2.37639
G01 X-4.29259 Y-2.48838
G01 X-4.29239 Y-2.48890
G01 X-4.29259 Y-2.48838
G01 X-4.29589 Y-2.48803
G01 X-4.30411 Y-2.48803
G01 X-4.30885 Y-2.48853
G01 X-4.31690 Y-2.49024
G01 X-4.32143 Y-2.49171
G01 X-4.32895 Y-2.49505
G01 X-4.33312 Y-2.49746
G01 X-4.33977 Y-2.50230
G01 X-4.34330 Y-2.50548
G01 X-4.34864 Y-2.51141
G01 X-4.34843 Y-2.51191
G01 X-4.34864 Y-2.51141
G01 X-4.65136 Y-2.51141
G01 X-4.65157 Y-2.51191
G01 X-4.65136 Y-2.51141
G01 X-4.65670 Y-2.50548
G01 X-4.66023 Y-2.50230
G01 X-4.66688 Y-2.49746
G01 X-4.67105 Y-2.49505
G01 X-4.67857 Y-2.49171
G01 X-4.68309 Y-2.49024
G01 X-4.69114 Y-2.48853
G01 X-4.69589 Y-2.48803
G01 X-4.70411 Y-2.48803
G01 X-4.70885 Y-2.48853
G01 X-4.71690 Y-2.49024
G01 X-4.72143 Y-2.49171
G01 X-4.72895 Y-2.49505
G01 X-4.73312 Y-2.49746
G01 X-4.73977 Y-2.50230
G01 X-4.74330 Y-2.50548
G01 X-4.74880 Y-2.51159
G01 X-4.75159 Y-2.51543
G01 X-4.75571 Y-2.52255
G01 X-4.75767 Y-2.52694
G01 X-4.76021 Y-2.53477
G01 X-4.76120 Y-2.53943
G01 X-4.76206 Y-2.54761
G01 X-4.76206 Y-2.55239
G01 X-4.76120 Y-2.56057
G01 X-4.76021 Y-2.56522
G01 X-4.75767 Y-2.57306
G01 X-4.75571 Y-2.57745
G01 X-4.75159 Y-2.58457
G01 X-4.74880 Y-2.58841
G01 X-4.74330 Y-2.59452
G01 X-4.73977 Y-2.59770
G01 X-4.73312 Y-2.60254
G01 X-4.72895 Y-2.60495
G01 X-4.72143 Y-2.60829
G01 X-4.71690 Y-2.60976
G01 X-4.70885 Y-2.61147
G01 X-4.70411 Y-2.61196
G01 X-4.69589 Y-2.61196
G01 X-4.69114 Y-2.61147
G01 X-4.68309 Y-2.60976
G01 X-4.67857 Y-2.60829
G01 X-4.67105 Y-2.60495
G01 X-4.66688 Y-2.60254
G01 X-4.66023 Y-2.59770
G01 X-4.65670 Y-2.59452
G01 X-4.65136 Y-2.58858
G01 X-4.65157 Y-2.58809
G01 X-4.65136 Y-2.58858
G01 X-4.34864 Y-2.58858
G01 X-4.34843 Y-2.58809
G01 X-4.34864 Y-2.58858
G01 X-4.34330 Y-2.59452
G01 X-4.33977 Y-2.59770
G01 X-4.33312 Y-2.60254
G01 X-4.32895 Y-2.60495
G01 X-4.32143 Y-2.60829
G01 X-4.31690 Y-2.60976
G01 X-4.30885 Y-2.61147
G01 X-4.30411 Y-2.61196
G01 X-4.29589 Y-2.61196
G01 X-4.29115 Y-2.61147
G01 X-4.28310 Y-2.60976
G01 X-4.27857 Y-2.60829
G01 X-4.27387 Y-2.60620
G01 X-4.27385 Y-2.60562
G01 X-4.27387 Y-2.60620
G01 X-4.09173 Y-2.69727
G01 X-4.09079 Y-2.69669
G01 X-4.09173 Y-2.69727
G01 X-4.09173 Y-2.79985
G01 X-4.08629 Y-2.81300
G01 X-4.08495 Y-2.81555
G01 X-4.08524 Y-2.81500
G01 X-4.08544 Y-2.81300
G01 X-4.08544 Y-2.69338
G01 X-4.08449 Y-2.69280
G01 X-4.08544 Y-2.69338
G01 X-4.27372 Y-2.59924
G01 X-4.27369 Y-2.59862
G01 X-4.27372 Y-2.59924
G01 X-4.28113 Y-2.60253
