( pcb2gcode 2.0.0 )
( Software-independent Gcode )

G94 ( Inches per minute feed rate. )
G20 ( Units == INCHES. )

G90 ( Absolute coordinates. )
G00 S12000 ( RPM spindle speed. )
G64 P0.00040 ( set maximum deviation from commanded toolpath )
G01 F360.00000 ( Feedrate. )


G00 Z1.00000 (Retract to tool change height)
T0
M5      (Spindle stop.)
G04 P1.00000 (Wait for spindle to stop)
(MSG, Change tool bit to mill diameter 0.00787in)
M6      (Tool change.)
M0      (Temporary machine stop.)
M3 ( Spindle on clockwise. )
G04 P1.00000 (Wait for spindle to get up to speed)
G04 P0 ( dwell for no time -- G64 should not smooth over this point )
G00 Z0.08000 ( retract )

G00 X-3.18782 Y-2.55000 ( rapid move to begin. )
G01 F180.00000
( Mill infeed pass 1/1 )
G01 Z-0.04000
G04 P0 ( dwell for no time -- G64 should not smooth over this point )
G01 F360.00000
G01 X-3.18782 Y-2.55000
G01 X-3.18880 Y-2.53943
G01 X-3.18979 Y-2.53476
G01 X-3.19233 Y-2.52694
G01 X-3.19428 Y-2.52258
G01 X-3.19969 Y-2.51345
G01 X-3.20670 Y-2.50548
G01 X-3.21025 Y-2.50228
G01 X-3.21690 Y-2.49745
G01 X-3.22104 Y-2.49506
G01 X-3.22855 Y-2.49172
G01 X-3.23309 Y-2.49024
G01 X-3.24350 Y-2.48816
G01 X-3.24589 Y-2.48803
G01 X-3.25650 Y-2.48816
G01 X-3.26691 Y-2.49024
G01 X-3.27145 Y-2.49172
G01 X-3.27896 Y-2.49506
G01 X-3.28310 Y-2.49745
G01 X-3.28975 Y-2.50228
G01 X-3.29330 Y-2.50548
G01 X-3.29865 Y-2.51141
G01 X-3.60135 Y-2.51141
G01 X-3.60839 Y-2.50379
G01 X-3.61690 Y-2.49745
G01 X-3.62104 Y-2.49506
G01 X-3.62855 Y-2.49172
G01 X-3.63309 Y-2.49024
G01 X-3.64350 Y-2.48816
G01 X-3.65411 Y-2.48803
G01 X-3.65748 Y-2.48831
G01 X-3.76939 Y-2.37639
G01 X-3.77105 Y-2.37489
G01 X-3.77340 Y-2.37296
G01 X-3.77712 Y-2.37047
G01 X-3.77980 Y-2.36904
G01 X-3.78394 Y-2.36733
G01 X-3.78685 Y-2.36645
G01 X-3.79124 Y-2.36557
G01 X-3.79650 Y-2.36517
G01 X-4.15350 Y-2.36517
G01 X-4.15876 Y-2.36557
G01 X-4.16315 Y-2.36645
G01 X-4.16606 Y-2.36733
G01 X-4.17019 Y-2.36904
G01 X-4.17288 Y-2.37047
G01 X-4.17660 Y-2.37296
G01 X-4.18061 Y-2.37639
G01 X-4.29252 Y-2.48831
G01 X-4.29589 Y-2.48803
G01 X-4.30650 Y-2.48816
G01 X-4.31691 Y-2.49024
G01 X-4.32145 Y-2.49172
G01 X-4.32896 Y-2.49506
G01 X-4.33109 Y-2.49615
G01 X-4.33310 Y-2.49745
G01 X-4.33975 Y-2.50228
G01 X-4.34330 Y-2.50548
G01 X-4.34865 Y-2.51141
G01 X-4.65135 Y-2.51141
G01 X-4.65670 Y-2.50548
G01 X-4.66025 Y-2.50228
G01 X-4.66690 Y-2.49745
G01 X-4.66891 Y-2.49615
G01 X-4.67104 Y-2.49506
G01 X-4.67855 Y-2.49172
G01 X-4.68309 Y-2.49024
G01 X-4.69350 Y-2.48816
G01 X-4.69589 Y-2.48803
G01 X-4.70650 Y-2.48816
G01 X-4.71691 Y-2.49024
G01 X-4.72145 Y-2.49172
G01 X-4.72896 Y-2.49506
G01 X-4.73109 Y-2.49615
G01 X-4.73310 Y-2.49745
G01 X-4.73975 Y-2.50228
G01 X-4.74330 Y-2.50548
G01 X-4.75031 Y-2.51345
G01 X-4.75572 Y-2.52258
G01 X-4.75681 Y-2.52471
G01 X-4.76021 Y-2.53476
G01 X-4.76120 Y-2.53943
G01 X-4.76206 Y-2.54761
G01 X-4.76206 Y-2.55239
G01 X-4.76120 Y-2.56057
G01 X-4.76021 Y-2.56524
G01 X-4.75767 Y-2.57306
G01 X-4.75681 Y-2.57529
G01 X-4.75572 Y-2.57742
G01 X-4.75161 Y-2.58455
G01 X-4.75031 Y-2.58655
G01 X-4.74880 Y-2.58841
G01 X-4.74330 Y-2.59452
G01 X-4.73975 Y-2.59772
G01 X-4.73109 Y-2.60385
G01 X-4.72145 Y-2.60828
G01 X-4.71691 Y-2.60976
G01 X-4.70650 Y-2.61184
G01 X-4.70411 Y-2.61197
G01 X-4.69350 Y-2.61184
G01 X-4.68309 Y-2.60976
G01 X-4.67855 Y-2.60828
G01 X-4.67104 Y-2.60494
G01 X-4.66891 Y-2.60385
G01 X-4.66690 Y-2.60255
G01 X-4.66025 Y-2.59772
G01 X-4.65670 Y-2.59452
G01 X-4.65135 Y-2.58858
G01 X-4.34865 Y-2.58858
G01 X-4.34330 Y-2.59452
G01 X-4.33975 Y-2.59772
G01 X-4.33310 Y-2.60255
G01 X-4.33109 Y-2.60385
G01 X-4.32896 Y-2.60494
G01 X-4.32145 Y-2.60828
G01 X-4.31691 Y-2.60976
G01 X-4.30650 Y-2.61184
G01 X-4.30411 Y-2.61197
G01 X-4.29350 Y-2.61184
G01 X-4.28309 Y-2.60976
G01 X-4.27855 Y-2.60828
G01 X-4.27387 Y-2.60620
G01 X-4.09173 Y-2.69727
G01 X-4.09173 Y-2.79985
G01 X-4.08629 Y-2.81300
G01 X-4.08329 Y-2.81870
G01 X-4.07939 Y-2.82349
G01 X-4.07460 Y-2.82739
G01 X-4.06890 Y-2.83039
G01 X-4.05575 Y-2.83583
G01 X-3.93110 Y-2.83583
G01 X-3.92665 Y-2.83540
G01 X-3.92236 Y-2.83410
G01 X-3.91841 Y-2.83199
G01 X-3.91495 Y-2.82915
G01 X-3.91211 Y-2.82569
G01 X-3.91000 Y-2.82174
G01 X-3.90870 Y-2.81745
G01 X-3.90827 Y-2.81300
G01 X-3.90827 Y-2.67520
G01 X-3.90870 Y-2.67075
G01 X-3.91000 Y-2.66646
G01 X-3.91211 Y-2.66251
G01 X-3.91495 Y-2.65905
G01 X-3.91841 Y-2.65621
G01 X-3.92236 Y-2.65410
G01 X-3.92665 Y-2.65280
G01 X-3.93110 Y-2.65237
G01 X-4.00899 Y-2.65237
G01 X-4.23510 Y-2.53931
G01 X-4.13762 Y-2.44183
G01 X-4.09173 Y-2.44183
G01 X-4.08890 Y-2.43900
G01 X-4.08390 Y-2.43462
G01 X-4.07890 Y-2.43150
G01 X-4.07390 Y-2.42962
G01 X-4.06890 Y-2.42900
G01 X-3.93110 Y-2.42900
G01 X-3.92610 Y-2.42962
G01 X-3.92110 Y-2.43150
G01 X-3.91610 Y-2.43462
G01 X-3.91110 Y-2.43900
G01 X-3.90827 Y-2.44183
G01 X-3.81238 Y-2.44183
G01 X-3.71154 Y-2.54267
G01 X-3.71218 Y-2.55000
G01 X-3.71120 Y-2.56057
G01 X-3.71021 Y-2.56524
G01 X-3.70766 Y-2.57306
G01 X-3.70572 Y-2.57742
G01 X-3.70031 Y-2.58655
G01 X-3.69340 Y-2.59441
G01 X-3.68761 Y-2.59927
G01 X-3.68310 Y-2.60255
G01 X-3.67896 Y-2.60494
G01 X-3.67145 Y-2.60828
G01 X-3.66691 Y-2.60976
G01 X-3.65650 Y-2.61184
G01 X-3.65411 Y-2.61197
G01 X-3.64350 Y-2.61184
G01 X-3.63309 Y-2.60976
G01 X-3.62855 Y-2.60828
G01 X-3.62104 Y-2.60494
G01 X-3.61690 Y-2.60255
G01 X-3.61025 Y-2.59772
G01 X-3.60670 Y-2.59452
G01 X-3.60135 Y-2.58858
G01 X-3.29865 Y-2.58858
G01 X-3.29330 Y-2.59452
G01 X-3.28975 Y-2.59772
G01 X-3.28310 Y-2.60255
G01 X-3.27896 Y-2.60494
G01 X-3.27145 Y-2.60828
G01 X-3.26691 Y-2.60976
G01 X-3.25650 Y-2.61184
G01 X-3.25411 Y-2.61197
G01 X-3.24350 Y-2.61184
G01 X-3.23309 Y-2.60976
G01 X-3.22855 Y-2.60828
G01 X-3.22104 Y-2.60494
G01 X-3.21690 Y-2.60255
G01 X-3.21025 Y-2.59772
G01 X-3.20670 Y-2.59452
G01 X-3.19969 Y-2.58655
G01 X-3.19428 Y-2.57742
G01 X-3.19233 Y-2.57306
G01 X-3.18979 Y-2.56524
G01 X-3.18880 Y-2.56057
G01 X-3.18782 Y-2.55000
G01 X-3.20671 Y-2.55000
G01 X-3.20777 Y-2.55940
G01 X-3.21046 Y-2.56761
G01 X-3.21498 Y-2.57544
G01 X-3.22074 Y-2.58188
G01 X-3.22872 Y-2.58767
G01 X-3.23702 Y-2.59127
G01 X-3.24547 Y-2.59305
G01 X-3.25452 Y-2.59305
G01 X-3.26298 Y-2.59127
G01 X-3.27164 Y-2.58749
G01 X-3.27926 Y-2.58188
G01 X-3.28503 Y-2.57543
G01 X-3.28832 Y-2.56969
G01 X-3.61168 Y-2.56969
G01 X-3.61497 Y-2.57543
G01 X-3.62074 Y-2.58188
G01 X-3.62836 Y-2.58749
G01 X-3.63702 Y-2.59127
G01 X-3.64547 Y-2.59305
G01 X-3.65452 Y-2.59305
G01 X-3.66298 Y-2.59127
G01 X-3.67164 Y-2.58749
G01 X-3.67864 Y-2.58243
G01 X-3.68476 Y-2.57576
G01 X-3.68954 Y-2.56761
G01 X-3.69240 Y-2.55859
G01 X-3.69326 Y-2.54959
G01 X-3.69240 Y-2.54141
G01 X-3.69092 Y-2.53656
G01 X-3.80455 Y-2.42294
G01 X-4.14545 Y-2.42294
G01 X-4.25908 Y-2.53656
G01 X-4.25759 Y-2.54141
G01 X-4.25673 Y-2.54962
G01 X-4.01345 Y-2.67126
G01 X-3.93110 Y-2.67126
G01 X-3.93033 Y-2.67134
G01 X-3.92891 Y-2.67193
G01 X-3.92783 Y-2.67301
G01 X-3.92724 Y-2.67443
G01 X-3.92716 Y-2.81300
G01 X-3.92746 Y-2.81451
G01 X-3.92832 Y-2.81578
G01 X-3.92959 Y-2.81664
G01 X-3.93110 Y-2.81694
G01 X-4.06890 Y-2.81694
G01 X-4.07041 Y-2.81664
G01 X-4.07168 Y-2.81578
G01 X-4.07254 Y-2.81451
G01 X-4.07284 Y-2.81300
G01 X-4.07284 Y-2.68559
G01 X-4.27454 Y-2.58474
G01 X-4.27872 Y-2.58767
G01 X-4.28624 Y-2.59102
G01 X-4.29507 Y-2.59299
G01 X-4.30411 Y-2.59307
G01 X-4.31298 Y-2.59127
G01 X-4.32128 Y-2.58767
G01 X-4.32864 Y-2.58243
G01 X-4.33503 Y-2.57543
G01 X-4.33832 Y-2.56969
G01 X-4.66168 Y-2.56969
G01 X-4.66497 Y-2.57543
G01 X-4.67074 Y-2.58188
G01 X-4.67872 Y-2.58767
G01 X-4.68662 Y-2.59117
G01 X-4.69507 Y-2.59299
G01 X-4.70493 Y-2.59299
G01 X-4.71338 Y-2.59117
G01 X-4.72199 Y-2.58726
G01 X-4.72926 Y-2.58188
G01 X-4.73524 Y-2.57510
G01 X-4.73936 Y-2.56797
G01 X-4.74223 Y-2.55940
G01 X-4.74327 Y-2.55041
G01 X-4.74240 Y-2.54141
G01 X-4.73954 Y-2.53239
G01 X-4.73476 Y-2.52424
G01 X-4.72926 Y-2.51812
G01 X-4.72199 Y-2.51274
G01 X-4.71338 Y-2.50883
G01 X-4.70411 Y-2.50693
G01 X-4.69589 Y-2.50693
G01 X-4.68702 Y-2.50872
G01 X-4.67872 Y-2.51233
G01 X-4.67074 Y-2.51812
G01 X-4.66497 Y-2.52457
G01 X-4.66168 Y-2.53031
G01 X-4.33832 Y-2.53031
G01 X-4.33503 Y-2.52457
G01 X-4.32864 Y-2.51757
G01 X-4.32199 Y-2.51274
G01 X-4.31376 Y-2.50898
G01 X-4.30411 Y-2.50693
G01 X-4.29507 Y-2.50701
G01 X-4.28640 Y-2.50892
G01 X-4.16724 Y-2.38976
G01 X-4.16397 Y-2.38714
G01 X-4.16057 Y-2.38541
G01 X-4.15767 Y-2.38453
G01 X-4.15350 Y-2.38406
G01 X-3.79650 Y-2.38406
G01 X-3.79233 Y-2.38453
G01 X-3.78871 Y-2.38571
G01 X-3.78539 Y-2.38757
G01 X-3.78275 Y-2.38976
G01 X-3.66359 Y-2.50892
G01 X-3.65452 Y-2.50695
G01 X-3.64589 Y-2.50693
G01 X-3.63624 Y-2.50898
G01 X-3.62836 Y-2.51251
G01 X-3.62135 Y-2.51757
G01 X-3.61497 Y-2.52457
G01 X-3.61168 Y-2.53031
G01 X-3.28832 Y-2.53031
G01 X-3.28503 Y-2.52457
G01 X-3.27926 Y-2.51812
G01 X-3.27164 Y-2.51251
G01 X-3.26298 Y-2.50872
G01 X-3.25452 Y-2.50695
G01 X-3.24589 Y-2.50693
G01 X-3.23624 Y-2.50898
G01 X-3.22836 Y-2.51251
G01 X-3.22074 Y-2.51812
G01 X-3.21498 Y-2.52456
G01 X-3.21046 Y-2.53239
G01 X-3.20777 Y-2.54060
G01 X-3.20671 Y-2.55000
G04 P0 ( dwell for no time -- G64 should not smooth over this point )
G00 Z0.08000 ( retract )

G00 X-3.43955 Y-2.80647 ( rapid move to begin. )
G01 F180.00000
( Mill infeed pass 1/1 )
G01 Z-0.04000
G04 P0 ( dwell for no time -- G64 should not smooth over this point )
G01 F360.00000
G01 X-3.43955 Y-2.80647
G01 X-3.43955 Y-2.80647
G04 P0 ( dwell for no time -- G64 should not smooth over this point )
G00 Z0.08000 ( retract )

G00 X-3.20018 Y-2.97506 ( rapid move to begin. )
G01 F180.00000
( Mill infeed pass 1/1 )
G01 Z-0.04000
G04 P0 ( dwell for no time -- G64 should not smooth over this point )
G01 F360.00000
G01 X-3.20018 Y-2.97506
G01 X-3.20215 Y-2.98238
G01 X-3.20345 Y-2.98638
G01 X-3.20648 Y-2.99428
G01 X-3.20648 Y-3.20174
G01 X-3.32834 Y-3.32360
G01 X-3.33152 Y-3.33162
G01 X-3.33331 Y-3.33537
G01 X-3.33581 Y-3.33997
G01 X-3.33449 Y-3.33335
G01 X-3.33449 Y-3.32413
G01 X-3.33596 Y-3.31679
G01 X-3.33703 Y-3.31350
G01 X-3.33937 Y-3.30823
G01 X-3.34110 Y-3.30524
G01 X-3.34449 Y-3.30058
G01 X-3.34680 Y-3.29801
G01 X-3.35243 Y-3.29307
G01 X-3.35865 Y-3.28937
G01 X-3.35243 Y-3.28567
G01 X-3.34825 Y-3.28204
G01 X-3.31979 Y-3.28204
G01 X-3.31514 Y-3.28166
G01 X-3.31197 Y-3.28103
G01 X-3.30906 Y-3.28014
G01 X-3.30606 Y-3.27890
G01 X-3.30338 Y-3.27747
G01 X-3.30069 Y-3.27567
G01 X-3.29714 Y-3.27265
G01 X-3.22735 Y-3.20286
G01 X-3.22592 Y-3.20124
G01 X-3.22226 Y-3.19623
G01 X-3.21975 Y-3.19055
G01 X-3.21906 Y-3.18850
G01 X-3.21863 Y-3.18638
G01 X-3.21796 Y-3.18021
G01 X-3.21796 Y-2.99554
G01 X-3.21395 Y-2.99262
G01 X-3.21138 Y-2.99031
G01 X-3.20588 Y-2.98419
G01 X-3.20384 Y-2.98140
G01 X-3.20018 Y-2.97506
G01 X-3.19923 Y-2.97082
G01 X-3.19793 Y-2.96259
G01 X-3.19762 Y-2.95964
G01 X-3.19719 Y-2.95141
G01 X-3.20041 Y-2.95000
G01 X-3.20133 Y-2.95925
G01 X-3.20177 Y-2.96134
G01 X-3.20432 Y-2.96917
G01 X-3.20519 Y-2.97112
G01 X-3.20930 Y-2.97825
G01 X-3.21056 Y-2.97998
G01 X-3.21682 Y-2.98685
G01 X-3.22426 Y-2.99233
G01 X-3.22426 Y-3.18021
G01 X-3.22514 Y-3.18687
G01 X-3.22712 Y-3.19188
G01 X-3.22845 Y-3.19419
G01 X-3.23180 Y-3.19841
G01 X-3.30159 Y-3.26820
G01 X-3.30468 Y-3.27080
G01 X-3.30635 Y-3.27191
G01 X-3.30903 Y-3.27335
G01 X-3.31089 Y-3.27412
G01 X-3.31379 Y-3.27500
G01 X-3.31576 Y-3.27539
G01 X-3.31979 Y-3.27574
G01 X-3.35074 Y-3.27574
G01 X-3.35613 Y-3.28058
G01 X-3.36202 Y-3.28404
G01 X-3.36397 Y-3.28491
G01 X-3.37049 Y-3.28697
G01 X-3.37835 Y-3.28780
G01 X-3.42165 Y-3.28780
G01 X-3.42845 Y-3.28714
G01 X-3.43055 Y-3.28669
G01 X-3.43602 Y-3.28491
G01 X-3.43798 Y-3.28404
G01 X-3.44387 Y-3.28058
G01 X-3.44898 Y-3.27605
G01 X-3.45042 Y-3.27446
G01 X-3.45438 Y-3.26890
G01 X-3.45722 Y-3.26268
G01 X-3.45788 Y-3.26064
G01 X-3.45907 Y-3.25501
G01 X-3.45930 Y-3.25288
G01 X-3.45930 Y-3.24712
G01 X-3.45907 Y-3.24499
G01 X-3.45788 Y-3.23936
G01 X-3.45722 Y-3.23732
G01 X-3.45487 Y-3.23206
G01 X-3.45380 Y-3.23020
G01 X-3.45042 Y-3.22554
G01 X-3.44898 Y-3.22395
G01 X-3.44387 Y-3.21942
G01 X-3.43798 Y-3.21596
G01 X-3.43602 Y-3.21509
G01 X-3.43055 Y-3.21331
G01 X-3.42845 Y-3.21286
G01 X-3.42165 Y-3.21220
G01 X-3.37835 Y-3.21220
G01 X-3.37049 Y-3.21303
G01 X-3.36397 Y-3.21509
G01 X-3.36202 Y-3.21596
G01 X-3.35613 Y-3.21942
G01 X-3.35074 Y-3.22426
G01 X-3.33045 Y-3.22426
G01 X-3.27574 Y-3.16955
G01 X-3.27574 Y-2.99233
G01 X-3.28318 Y-2.98685
G01 X-3.28944 Y-2.97998
G01 X-3.29070 Y-2.97825
G01 X-3.29481 Y-2.97112
G01 X-3.29568 Y-2.96917
G01 X-3.29822 Y-2.96134
G01 X-3.29867 Y-2.95925
G01 X-3.29953 Y-2.95107
G01 X-3.29953 Y-2.94893
G01 X-3.29867 Y-2.94075
G01 X-3.29811 Y-2.93829
G01 X-3.36066 Y-2.87574
G01 X-3.36419 Y-2.87574
G01 X-3.36437 Y-2.87759
G01 X-3.36495 Y-2.87951
G01 X-3.36590 Y-2.88128
G01 X-3.36717 Y-2.88283
G01 X-3.36872 Y-2.88410
G01 X-3.37049 Y-2.88505
G01 X-3.37241 Y-2.88563
G01 X-3.37441 Y-2.88583
G01 X-3.42559 Y-2.88583
G01 X-3.42759 Y-2.88563
G01 X-3.42951 Y-2.88505
G01 X-3.43128 Y-2.88410
G01 X-3.43283 Y-2.88283
G01 X-3.43410 Y-2.88128
G01 X-3.43505 Y-2.87951
G01 X-3.43563 Y-2.87759
G01 X-3.43583 Y-2.87559
G01 X-3.43583 Y-2.82441
G01 X-3.43563 Y-2.82241
G01 X-3.43505 Y-2.82049
G01 X-3.43410 Y-2.81872
G01 X-3.43283 Y-2.81717
G01 X-3.43128 Y-2.81590
G01 X-3.42951 Y-2.81495
G01 X-3.42759 Y-2.81437
G01 X-3.42559 Y-2.81417
G01 X-3.37441 Y-2.81417
G01 X-3.37241 Y-2.81437
G01 X-3.37049 Y-2.81495
G01 X-3.36872 Y-2.81590
G01 X-3.36717 Y-2.81717
G01 X-3.36590 Y-2.81872
G01 X-3.36495 Y-2.82049
G01 X-3.36437 Y-2.82241
G01 X-3.36419 Y-2.82426
G01 X-3.35000 Y-2.82426
G01 X-3.34597 Y-2.82461
G01 X-3.34400 Y-2.82500
G01 X-3.34110 Y-2.82588
G01 X-3.33924 Y-2.82665
G01 X-3.33656 Y-2.82808
G01 X-3.33489 Y-2.82920
G01 X-3.33180 Y-2.83180
G01 X-3.26161 Y-2.90199
G01 X-3.25518 Y-2.90069
G01 X-3.24589 Y-2.90063
G01 X-3.24376 Y-2.90085
G01 X-3.23571 Y-2.90256
G01 X-3.23368 Y-2.90322
G01 X-3.22521 Y-2.90706
G01 X-3.21682 Y-2.91315
G01 X-3.20988 Y-2.92085
G01 X-3.20519 Y-2.92888
G01 X-3.20432 Y-2.93083
G01 X-3.20177 Y-2.93865
G01 X-3.20133 Y-2.94075
G01 X-3.20041 Y-2.95000
G01 X-3.20671 Y-2.95000
G01 X-3.20777 Y-2.95940
G01 X-3.21046 Y-2.96761
G01 X-3.21475 Y-2.97510
G01 X-3.22135 Y-2.98243
G01 X-3.22801 Y-2.98726
G01 X-3.23056 Y-2.98849
G01 X-3.23056 Y-3.18021
G01 X-3.23122 Y-3.18524
G01 X-3.23294 Y-3.18947
G01 X-3.23345 Y-3.19036
G01 X-3.23625 Y-3.19395
G01 X-3.30605 Y-3.26374
G01 X-3.30932 Y-3.26636
G01 X-3.31271 Y-3.26809
G01 X-3.31638 Y-3.26912
G01 X-3.31979 Y-3.26944
G01 X-3.35372 Y-3.26944
G01 X-3.35523 Y-3.27137
G01 X-3.35983 Y-3.27548
G01 X-3.36517 Y-3.27859
G01 X-3.37180 Y-3.28081
G01 X-3.37793 Y-3.28147
G01 X-3.42206 Y-3.28147
G01 X-3.42860 Y-3.28070
G01 X-3.43408 Y-3.27892
G01 X-3.43982 Y-3.27570
G01 X-3.44477 Y-3.27137
G01 X-3.44893 Y-3.26575
G01 X-3.45171 Y-3.25933
G01 X-3.45300 Y-3.25288
G01 X-3.45291 Y-3.24630
G01 X-3.45146 Y-3.23988
G01 X-3.44912 Y-3.23462
G01 X-3.44477 Y-3.22863
G01 X-3.43982 Y-3.22429
G01 X-3.43408 Y-3.22108
G01 X-3.42860 Y-3.21930
G01 X-3.42206 Y-3.21853
G01 X-3.37793 Y-3.21853
G01 X-3.37180 Y-3.21919
G01 X-3.36517 Y-3.22141
G01 X-3.35983 Y-3.22452
G01 X-3.35523 Y-3.22863
G01 X-3.35372 Y-3.23056
G01 X-3.32784 Y-3.23056
G01 X-3.26944 Y-3.17216
G01 X-3.26944 Y-2.98849
G01 X-3.27199 Y-2.98726
G01 X-3.27926 Y-2.98188
G01 X-3.28502 Y-2.97544
G01 X-3.28954 Y-2.96761
G01 X-3.29223 Y-2.95940
G01 X-3.29329 Y-2.95000
G01 X-3.29241 Y-2.94141
G01 X-3.29092 Y-2.93656
G01 X-3.35805 Y-2.86944
G01 X-3.37047 Y-2.86944
G01 X-3.37047 Y-2.87559
G01 X-3.37077 Y-2.87710
G01 X-3.37114 Y-2.87778
G01 X-3.37222 Y-2.87886
G01 X-3.37364 Y-2.87945
G01 X-3.42559 Y-2.87953
G01 X-3.42710 Y-2.87923
G01 X-3.42837 Y-2.87837
G01 X-3.42923 Y-2.87710
G01 X-3.42953 Y-2.87559
G01 X-3.42953 Y-2.82441
G01 X-3.42923 Y-2.82290
G01 X-3.42886 Y-2.82222
G01 X-3.42778 Y-2.82113
G01 X-3.42710 Y-2.82077
G01 X-3.42559 Y-2.82047
G01 X-3.37364 Y-2.82055
G01 X-3.37222 Y-2.82113
G01 X-3.37114 Y-2.82222
G01 X-3.37077 Y-2.82290
G01 X-3.37047 Y-2.82441
G01 X-3.37047 Y-2.83056
G01 X-3.35000 Y-2.83056
G01 X-3.34659 Y-2.83088
G01 X-3.34293 Y-2.83191
G01 X-3.33953 Y-2.83364
G01 X-3.33625 Y-2.83625
G01 X-3.26359 Y-2.90892
G01 X-3.25452 Y-2.90695
G01 X-3.24507 Y-2.90701
G01 X-3.23624 Y-2.90898
G01 X-3.22836 Y-2.91251
G01 X-3.22135 Y-2.91757
G01 X-3.21498 Y-2.92456
G01 X-3.21046 Y-2.93239
G01 X-3.20777 Y-2.94060
G01 X-3.20671 Y-2.95000
G04 P0 ( dwell for no time -- G64 should not smooth over this point )
G00 Z0.08000 ( retract )

G00 X-3.32810 Y-3.17414 ( rapid move to begin. )
G01 F180.00000
( Mill infeed pass 1/1 )
G01 Z-0.04000
G04 P0 ( dwell for no time -- G64 should not smooth over this point )
G01 F360.00000
G01 X-3.32810 Y-3.17414
G01 X-3.32823 Y-3.16599
G01 X-3.32980 Y-3.15800
G01 X-3.33128 Y-3.15346
G01 X-3.33470 Y-3.14606
G01 X-3.33939 Y-3.13940
G01 X-3.34259 Y-3.13585
G01 X-3.34872 Y-3.13049
G01 X-3.35572 Y-3.12631
G01 X-3.36008 Y-3.12437
G01 X-3.36787 Y-3.12197
G01 X-3.37596 Y-3.12099
G01 X-3.37835 Y-3.12087
G01 X-3.42165 Y-3.12087
G01 X-3.42977 Y-3.12159
G01 X-3.43213 Y-3.12197
G01 X-3.43444 Y-3.12258
G01 X-3.43992 Y-3.12437
G01 X-3.44428 Y-3.12631
G01 X-3.45127 Y-3.13049
G01 X-3.45389 Y-3.13267
G01 X-4.02682 Y-3.13267
G01 X-4.26142 Y-2.89808
G01 X-4.26142 Y-2.85000
G01 X-4.26156 Y-2.84744
G01 X-4.26238 Y-2.84141
G01 X-4.26426 Y-2.83562
G01 X-4.26524 Y-2.83326
G01 X-4.26647 Y-2.83102
G01 X-4.26887 Y-2.82729
G01 X-4.27287 Y-2.82536
G01 X-4.27640 Y-2.82390
G01 X-4.28059 Y-2.82243
G01 X-4.28412 Y-2.82141
G01 X-4.28783 Y-2.82056
G01 X-4.28616 Y-2.82095
G01 X-4.29136 Y-2.81996
G01 X-4.29480 Y-2.81957
G01 X-4.30000 Y-2.81933
G01 X-4.42513 Y-2.81933
G01 X-4.43117 Y-2.81736
G01 X-4.43380 Y-2.81665
G01 X-4.43915 Y-2.81551
G01 X-4.44625 Y-2.81465
G01 X-4.16755 Y-2.81465
G01 X-4.01400 Y-2.96820
G01 X-4.01091 Y-2.97080
G01 X-4.00924 Y-2.97192
G01 X-4.00656 Y-2.97335
G01 X-4.00470 Y-2.97411
G01 X-4.00180 Y-2.97500
G01 X-3.99983 Y-2.97539
G01 X-3.99580 Y-2.97574
G01 X-3.69215 Y-2.97574
G01 X-3.69012 Y-2.97915
G01 X-3.68318 Y-2.98685
G01 X-3.67479 Y-2.99294
G01 X-3.66632 Y-2.99677
G01 X-3.66429 Y-2.99744
G01 X-3.65518 Y-2.99931
G01 X-3.64589 Y-2.99937
G01 X-3.64376 Y-2.99915
G01 X-3.63571 Y-2.99744
G01 X-3.63368 Y-2.99677
G01 X-3.62521 Y-2.99294
G01 X-3.61682 Y-2.98685
G01 X-3.60988 Y-2.97915
G01 X-3.60785 Y-2.97574
G01 X-3.59843 Y-2.97574
G01 X-3.59440 Y-2.97539
G01 X-3.59243 Y-2.97500
G01 X-3.58953 Y-2.97411
G01 X-3.58767 Y-2.97335
G01 X-3.58499 Y-2.97192
G01 X-3.58332 Y-2.97080
G01 X-3.58023 Y-2.96820
G01 X-3.49772 Y-2.88569
G01 X-3.49575 Y-2.88569
G01 X-3.49362 Y-2.88546
G01 X-3.48839 Y-2.88435
G01 X-3.48635 Y-2.88369
G01 X-3.48147 Y-2.88151
G01 X-3.47961 Y-2.88044
G01 X-3.47528 Y-2.87730
G01 X-3.47369 Y-2.87587
G01 X-3.47011 Y-2.87189
G01 X-3.46886 Y-2.87016
G01 X-3.46618 Y-2.86553
G01 X-3.46531 Y-2.86357
G01 X-3.46366 Y-2.85848
G01 X-3.46321 Y-2.85639
G01 X-3.46265 Y-2.85107
G01 X-3.46265 Y-2.84893
G01 X-3.46321 Y-2.84361
G01 X-3.46366 Y-2.84152
G01 X-3.46531 Y-2.83643
G01 X-3.46618 Y-2.83447
G01 X-3.46944 Y-2.82894
G01 X-3.47369 Y-2.82413
G01 X-3.47528 Y-2.82270
G01 X-3.47961 Y-2.81956
G01 X-3.48147 Y-2.81849
G01 X-3.48635 Y-2.81631
G01 X-3.48839 Y-2.81565
G01 X-3.49362 Y-2.81454
G01 X-3.49575 Y-2.81431
G01 X-3.50110 Y-2.81431
G01 X-3.50323 Y-2.81454
G01 X-3.50846 Y-2.81565
G01 X-3.51050 Y-2.81631
G01 X-3.51634 Y-2.81897
G01 X-3.52156 Y-2.82270
G01 X-3.52316 Y-2.82413
G01 X-3.52741 Y-2.82894
G01 X-3.53067 Y-2.83447
G01 X-3.53154 Y-2.83643
G01 X-3.53347 Y-2.84255
G01 X-3.53419 Y-2.84937
G01 X-3.60830 Y-2.92348
G01 X-3.60988 Y-2.92085
G01 X-3.61056 Y-2.92002
G01 X-3.61682 Y-2.91315
G01 X-3.62431 Y-2.90764
G01 X-3.62616 Y-2.90657
G01 X-3.63368 Y-2.90322
G01 X-3.63571 Y-2.90256
G01 X-3.64482 Y-2.90069
G01 X-3.65411 Y-2.90063
G01 X-3.65624 Y-2.90085
G01 X-3.66429 Y-2.90256
G01 X-3.66632 Y-2.90322
G01 X-3.67479 Y-2.90706
G01 X-3.68318 Y-2.91315
G01 X-3.69012 Y-2.92085
G01 X-3.69215 Y-2.92426
G01 X-3.98514 Y-2.92426
G01 X-4.13869 Y-2.77071
G01 X-4.14178 Y-2.76811
G01 X-4.14345 Y-2.76699
G01 X-4.14613 Y-2.76556
G01 X-4.14799 Y-2.76479
G01 X-4.15089 Y-2.76391
G01 X-4.15286 Y-2.76352
G01 X-4.15689 Y-2.76317
G01 X-4.64969 Y-2.76317
G01 X-4.65372 Y-2.76352
G01 X-4.65569 Y-2.76391
G01 X-4.65859 Y-2.76479
G01 X-4.66045 Y-2.76556
G01 X-4.66313 Y-2.76699
G01 X-4.66479 Y-2.76811
G01 X-4.66789 Y-2.77071
G01 X-4.79305 Y-2.89587
G01 X-4.79714 Y-2.90120
G01 X-4.79971 Y-2.90741
G01 X-4.80059 Y-2.91407
G01 X-4.80059 Y-2.98593
G01 X-4.79971 Y-2.99259
G01 X-4.79714 Y-2.99880
G01 X-4.79305 Y-3.00413
G01 X-4.60772 Y-3.18946
G01 X-4.60463 Y-3.19206
G01 X-4.60296 Y-3.19318
G01 X-4.60028 Y-3.19461
G01 X-4.59842 Y-3.19537
G01 X-4.59551 Y-3.19626
G01 X-4.59355 Y-3.19665
G01 X-4.58952 Y-3.19700
G01 X-4.54926 Y-3.19700
G01 X-4.54387 Y-3.20184
G01 X-4.53798 Y-3.20530
G01 X-4.53603 Y-3.20617
G01 X-4.52951 Y-3.20823
G01 X-4.52272 Y-3.20900
G01 X-4.47835 Y-3.20906
G01 X-4.47049 Y-3.20823
G01 X-4.46397 Y-3.20617
G01 X-4.46202 Y-3.20530
G01 X-4.45613 Y-3.20184
G01 X-4.45102 Y-3.19731
G01 X-4.44958 Y-3.19572
G01 X-4.44620 Y-3.19106
G01 X-4.44513 Y-3.18920
G01 X-4.44278 Y-3.18394
G01 X-4.44212 Y-3.18190
G01 X-4.44103 Y-3.17674
G01 X-4.44086 Y-3.17414
G01 X-4.44086 Y-3.16838
G01 X-4.44102 Y-3.16578
G01 X-4.44086 Y-3.16838
G01 X-4.44086 Y-3.17414
G01 X-4.44158 Y-3.18202
G01 X-4.44194 Y-3.18431
G01 X-4.44388 Y-3.19274
G01 X-4.44576 Y-3.19850
G01 X-4.44733 Y-3.20246
G01 X-4.44733 Y-3.21796
G01 X-4.44825 Y-3.21796
G01 X-4.45108 Y-3.21542
G01 X-4.45388 Y-3.21338
G01 X-4.45865 Y-3.21063
G01 X-4.45243 Y-3.20693
G01 X-4.44733 Y-3.20246
G01 X-4.44701 Y-3.20175
G01 X-4.45112 Y-3.21063
G01 X-4.55300 Y-3.21063
G01 X-4.55741 Y-3.21459
G01 X-4.56061 Y-3.21814
G01 X-4.56529 Y-3.22480
G01 X-4.56872 Y-3.23220
G01 X-4.57020 Y-3.23674
G01 X-4.57140 Y-3.24237
G01 X-4.57190 Y-3.24712
G01 X-4.57190 Y-3.25288
G01 X-4.57140 Y-3.25763
G01 X-4.57020 Y-3.26326
G01 X-4.56872 Y-3.26780
G01 X-4.56529 Y-3.27520
G01 X-4.56061 Y-3.28186
G01 X-4.55741 Y-3.28541
G01 X-4.55300 Y-3.28937
G01 X-4.44700 Y-3.28937
G01 X-4.44583 Y-3.28833
G01 X-4.41979 Y-3.28833
G01 X-4.41453 Y-3.28793
G01 X-4.41014 Y-3.28705
G01 X-4.40723 Y-3.28617
G01 X-4.40309 Y-3.28446
G01 X-4.40041 Y-3.28303
G01 X-4.39669 Y-3.28054
G01 X-4.39268 Y-3.27711
G01 X-4.38818 Y-3.27261
G01 X-4.38621 Y-3.27036
G01 X-4.38375 Y-3.26715
G01 X-4.38209 Y-3.26467
G01 X-4.38077 Y-3.26199
G01 X-4.37922 Y-3.25825
G01 X-4.37826 Y-3.25542
G01 X-4.37768 Y-3.25249
G01 X-4.37715 Y-3.24848
G01 X-4.37695 Y-3.24550
G01 X-4.38955 Y-3.24550
G01 X-4.38955 Y-3.04130
G01 X-4.39043 Y-3.03464
G01 X-4.39300 Y-3.02843
G01 X-4.39709 Y-3.02310
G01 X-4.52426 Y-2.89593
G01 X-4.52426 Y-2.88581
G01 X-4.52241 Y-2.88563
G01 X-4.52049 Y-2.88505
G01 X-4.51872 Y-2.88410
G01 X-4.51717 Y-2.88283
G01 X-4.51590 Y-2.88128
G01 X-4.51495 Y-2.87951
G01 X-4.51437 Y-2.87759
G01 X-4.51417 Y-2.87559
G01 X-4.51417 Y-2.82441
G01 X-4.51437 Y-2.82241
G01 X-4.51495 Y-2.82049
G01 X-4.51590 Y-2.81872
G01 X-4.51717 Y-2.81717
G01 X-4.51872 Y-2.81590
G01 X-4.52079 Y-2.81486
G01 X-4.51941 Y-2.81503
G01 X-4.51441 Y-2.81691
G01 X-4.50941 Y-2.82003
G01 X-4.50837 Y-2.82095
G01 X-4.50941 Y-2.82003
G01 X-4.51441 Y-2.81691
G01 X-4.51941 Y-2.81503
G01 X-4.52251 Y-2.81465
G01 X-4.51941 Y-2.81503
G01 X-4.51441 Y-2.81691
G01 X-4.50941 Y-2.82003
G01 X-4.50441 Y-2.82441
G01 X-4.50157 Y-2.82724
G01 X-4.49419 Y-2.82724
G01 X-4.48991 Y-2.82477
G01 X-4.48588 Y-2.82271
G01 X-4.48191 Y-2.82095
G01 X-4.48457 Y-2.82389
G01 X-4.48660 Y-2.82669
G01 X-4.48927 Y-2.83132
G01 X-4.49068 Y-2.83448
G01 X-4.49233 Y-2.83957
G01 X-4.49305 Y-2.84295
G01 X-4.49370 Y-2.85000
G01 X-4.49305 Y-2.85705
G01 X-4.49233 Y-2.86043
G01 X-4.49068 Y-2.86552
G01 X-4.48927 Y-2.86868
G01 X-4.48660 Y-2.87331
G01 X-4.48457 Y-2.87611
G01 X-4.48099 Y-2.88008
G01 X-4.47842 Y-2.88239
G01 X-4.47409 Y-2.88554
G01 X-4.47110 Y-2.88727
G01 X-4.46459 Y-2.89006
G01 X-4.45769 Y-2.89162
G01 X-4.45425 Y-2.89199
G01 X-4.44890 Y-2.89199
G01 X-4.44546 Y-2.89162
G01 X-4.43856 Y-2.89006
G01 X-4.43205 Y-2.88727
G01 X-4.42906 Y-2.88554
G01 X-4.42461 Y-2.88228
G01 X-4.33228 Y-2.88228
G01 X-4.33228 Y-2.90464
G01 X-4.33605 Y-2.90738
G01 X-4.33862 Y-2.90969
G01 X-4.34412 Y-2.91581
G01 X-4.34615 Y-2.91860
G01 X-4.35105 Y-2.92727
G01 X-4.35422 Y-2.93671
G01 X-4.35493 Y-2.94009
G01 X-4.35579 Y-2.94827
G01 X-4.35579 Y-2.95173
G01 X-4.35493 Y-2.95991
G01 X-4.35422 Y-2.96329
G01 X-4.35105 Y-2.97273
G01 X-4.34615 Y-2.98140
G01 X-4.34412 Y-2.98419
G01 X-4.33862 Y-2.99031
G01 X-4.33605 Y-2.99262
G01 X-4.32794 Y-2.99840
G01 X-4.31888 Y-3.00253
G01 X-4.31560 Y-3.00360
G01 X-4.30584 Y-3.00558
G01 X-4.29416 Y-3.00558
G01 X-4.28440 Y-3.00360
G01 X-4.28111 Y-3.00253
G01 X-4.27206 Y-2.99840
G01 X-4.26577 Y-2.99394
G01 X-4.06563 Y-3.19409
G01 X-4.06204 Y-3.19714
G01 X-4.05934 Y-3.19894
G01 X-4.05662 Y-3.20039
G01 X-4.05363 Y-3.20163
G01 X-4.05067 Y-3.20253
G01 X-4.04749 Y-3.20316
G01 X-4.04280 Y-3.20355
G01 X-3.45147 Y-3.20355
G01 X-3.44757 Y-3.20693
G01 X-3.44135 Y-3.21063
G01 X-3.44757 Y-3.21433
G01 X-3.45320 Y-3.21927
G01 X-3.45551 Y-3.22184
G01 X-3.45890 Y-3.22650
G01 X-3.46063 Y-3.22949
G01 X-3.46297 Y-3.23476
G01 X-3.46404 Y-3.23805
G01 X-3.46551 Y-3.24539
G01 X-3.46560 Y-3.25288
G01 X-3.46523 Y-3.25632
G01 X-3.46404 Y-3.26195
G01 X-3.46297 Y-3.26524
G01 X-3.45984 Y-3.27205
G01 X-3.45551 Y-3.27816
G01 X-3.45320 Y-3.28073
G01 X-3.44757 Y-3.28567
G01 X-3.44135 Y-3.28937
G01 X-3.44757 Y-3.29307
G01 X-3.45147 Y-3.29645
G01 X-3.66555 Y-3.29645
G01 X-3.69857 Y-3.28440
G01 X-3.70011 Y-3.27968
G01 X-3.70151 Y-3.27652
G01 X-3.70636 Y-3.26830
G01 X-3.71269 Y-3.26114
G01 X-3.71525 Y-3.25883
G01 X-3.72303 Y-3.25329
G01 X-3.73172 Y-3.24932
G01 X-3.73500 Y-3.24825
G01 X-3.74265 Y-3.24663
G01 X-3.74609 Y-3.24627
G01 X-3.75564 Y-3.24636
G01 X-3.76499 Y-3.24825
G01 X-3.76828 Y-3.24932
G01 X-3.77697 Y-3.25329
G01 X-3.78475 Y-3.25883
G01 X-3.78731 Y-3.26114
G01 X-3.79364 Y-3.26830
G01 X-3.79606 Y-3.27232
G01 X-3.79606 Y-3.26063
G01 X-3.79638 Y-3.25740
G01 X-3.79732 Y-3.25430
G01 X-3.79885 Y-3.25144
G01 X-3.80091 Y-3.24894
G01 X-3.80341 Y-3.24688
G01 X-3.80627 Y-3.24535
G01 X-3.80937 Y-3.24441
G01 X-3.81260 Y-3.24409
G01 X-3.88740 Y-3.24409
G01 X-3.89063 Y-3.24441
G01 X-3.89373 Y-3.24535
G01 X-3.89659 Y-3.24688
G01 X-3.89909 Y-3.24894
G01 X-3.90115 Y-3.25144
G01 X-3.90268 Y-3.25430
G01 X-3.90362 Y-3.25740
G01 X-3.90394 Y-3.26063
G01 X-3.90394 Y-3.26796
G01 X-3.99606 Y-3.26796
G01 X-3.99606 Y-3.26063
G01 X-3.99638 Y-3.25740
G01 X-3.99732 Y-3.25430
G01 X-3.99885 Y-3.25144
G01 X-4.00091 Y-3.24894
G01 X-4.00341 Y-3.24688
G01 X-4.00627 Y-3.24535
G01 X-4.00937 Y-3.24441
G01 X-4.01260 Y-3.24409
G01 X-4.08740 Y-3.24409
G01 X-4.09063 Y-3.24441
G01 X-4.09373 Y-3.24535
G01 X-4.09659 Y-3.24688
G01 X-4.09909 Y-3.24894
G01 X-4.10115 Y-3.25144
G01 X-4.10268 Y-3.25430
G01 X-4.10362 Y-3.25740
G01 X-4.10394 Y-3.26063
G01 X-4.10393 Y-3.27232
G01 X-4.10595 Y-3.26560
G01 X-4.10786 Y-3.26063
G01 X-4.10954 Y-3.25555
G01 X-4.11155 Y-3.25373
G01 X-4.11988 Y-3.24783
G01 X-4.12915 Y-3.24357
G01 X-4.13369 Y-3.24209
G01 X-4.14134 Y-3.24047
G01 X-4.14370 Y-3.24009
G01 X-4.14609 Y-3.23997
G01 X-4.15630 Y-3.24009
G01 X-4.16631 Y-3.24209
G01 X-4.17084 Y-3.24357
G01 X-4.18012 Y-3.24783
G01 X-4.18845 Y-3.25373
G01 X-4.19200 Y-3.25692
G01 X-4.19723 Y-3.26274
G01 X-4.20003 Y-3.26660
G01 X-4.20394 Y-3.27337
G01 X-4.20503 Y-3.27550
G01 X-4.20589 Y-3.27773
G01 X-4.20830 Y-3.28517
G01 X-4.20933 Y-3.29015
G01 X-4.44611 Y-3.29015
G01 X-4.44701 Y-3.28937
G01 X-4.44583 Y-3.28833
G01 X-4.41979 Y-3.28833
G01 X-4.41453 Y-3.28793
G01 X-4.41014 Y-3.28705
G01 X-4.40723 Y-3.28617
G01 X-4.40309 Y-3.28446
G01 X-4.40041 Y-3.28303
G01 X-4.39669 Y-3.28054
G01 X-4.39434 Y-3.27861
G01 X-4.38818 Y-3.27261
G01 X-4.38621 Y-3.27036
G01 X-4.38375 Y-3.26715
G01 X-4.38209 Y-3.26467
G01 X-4.38077 Y-3.26199
G01 X-4.37922 Y-3.25825
G01 X-4.37826 Y-3.25542
G01 X-4.37768 Y-3.25249
G01 X-4.37715 Y-3.24848
G01 X-4.37695 Y-3.24550
G01 X-4.37695 Y-3.04130
G01 X-4.37715 Y-3.03832
G01 X-4.37768 Y-3.03431
G01 X-4.37826 Y-3.03138
G01 X-4.37922 Y-3.02855
G01 X-4.38077 Y-3.02481
G01 X-4.38209 Y-3.02213
G01 X-4.38375 Y-3.01965
G01 X-4.38621 Y-3.01644
G01 X-4.38818 Y-3.01419
G01 X-4.50957 Y-2.89281
G01 X-4.50826 Y-2.89174
G01 X-4.50542 Y-2.88828
G01 X-4.50331 Y-2.88433
G01 X-4.50201 Y-2.88004
G01 X-4.50157 Y-2.87559
G01 X-4.50157 Y-2.82724
G01 X-4.50441 Y-2.82441
G01 X-4.50837 Y-2.82095
G01 X-4.48191 Y-2.82095
G01 X-4.47733 Y-2.81910
G01 X-4.46935 Y-2.81665
G01 X-4.46400 Y-2.81551
G01 X-4.45689 Y-2.81465
G01 X-4.46161 Y-2.81565
G01 X-4.46365 Y-2.81631
G01 X-4.46853 Y-2.81849
G01 X-4.47039 Y-2.81956
G01 X-4.47555 Y-2.82337
G01 X-4.47988 Y-2.82811
G01 X-4.48114 Y-2.82984
G01 X-4.48430 Y-2.83543
G01 X-4.48634 Y-2.84152
G01 X-4.48679 Y-2.84361
G01 X-4.48740 Y-2.85000
G01 X-4.48679 Y-2.85639
G01 X-4.48634 Y-2.85848
G01 X-4.48430 Y-2.86457
G01 X-4.48114 Y-2.87016
G01 X-4.47988 Y-2.87189
G01 X-4.47555 Y-2.87662
G01 X-4.47039 Y-2.88044
G01 X-4.46853 Y-2.88151
G01 X-4.46265 Y-2.88407
G01 X-4.45532 Y-2.88563
G01 X-4.44890 Y-2.88569
G01 X-4.44677 Y-2.88546
G01 X-4.44154 Y-2.88435
G01 X-4.43950 Y-2.88369
G01 X-4.43366 Y-2.88103
G01 X-4.42843 Y-2.87730
G01 X-4.42698 Y-2.87599
G01 X-4.32598 Y-2.87599
G01 X-4.32598 Y-2.90785
G01 X-4.33235 Y-2.91248
G01 X-4.33394 Y-2.91391
G01 X-4.34012 Y-2.92085
G01 X-4.34530 Y-2.92983
G01 X-4.34823 Y-2.93865
G01 X-4.34867 Y-2.94075
G01 X-4.34953 Y-2.94893
G01 X-4.34953 Y-2.95107
G01 X-4.34867 Y-2.95925
G01 X-4.34823 Y-2.96134
G01 X-4.34530 Y-2.97017
G01 X-4.34070 Y-2.97825
G01 X-4.33944 Y-2.97998
G01 X-4.33394 Y-2.98609
G01 X-4.33235 Y-2.98752
G01 X-4.32479 Y-2.99294
G01 X-4.31632 Y-2.99677
G01 X-4.31429 Y-2.99744
G01 X-4.30518 Y-2.99931
G01 X-4.29482 Y-2.99931
G01 X-4.28571 Y-2.99744
G01 X-4.28368 Y-2.99677
G01 X-4.27521 Y-2.99294
G01 X-4.26765 Y-2.98752
G01 X-4.26542 Y-2.98538
G01 X-4.06118 Y-3.18963
G01 X-4.05804 Y-3.19227
G01 X-4.05638 Y-3.19338
G01 X-4.05365 Y-3.19484
G01 X-4.05180 Y-3.19561
G01 X-4.04884 Y-3.19650
G01 X-4.04688 Y-3.19689
G01 X-4.04280 Y-3.19725
G01 X-3.44904 Y-3.19725
G01 X-3.44387 Y-3.20184
G01 X-3.43798 Y-3.20530
G01 X-3.43602 Y-3.20617
G01 X-3.42951 Y-3.20823
G01 X-3.42165 Y-3.20906
G01 X-3.37835 Y-3.20906
G01 X-3.37155 Y-3.20840
G01 X-3.36945 Y-3.20795
G01 X-3.36397 Y-3.20617
G01 X-3.36202 Y-3.20530
G01 X-3.35703 Y-3.20242
G01 X-3.35530 Y-3.20116
G01 X-3.35102 Y-3.19731
G01 X-3.34958 Y-3.19572
G01 X-3.34620 Y-3.19106
G01 X-3.34513 Y-3.18920
G01 X-3.34278 Y-3.18394
G01 X-3.34212 Y-3.18190
G01 X-3.34092 Y-3.17627
G01 X-3.34070 Y-3.17414
G01 X-3.34070 Y-3.16838
G01 X-3.34092 Y-3.16625
G01 X-3.34212 Y-3.16061
G01 X-3.34278 Y-3.15858
G01 X-3.34561 Y-3.15236
G01 X-3.34958 Y-3.14680
G01 X-3.35102 Y-3.14521
G01 X-3.35530 Y-3.14136
G01 X-3.35703 Y-3.14010
G01 X-3.36202 Y-3.13722
G01 X-3.36397 Y-3.13635
G01 X-3.36945 Y-3.13457
G01 X-3.37155 Y-3.13412
G01 X-3.37728 Y-3.13352
G01 X-3.42165 Y-3.13346
G01 X-3.42951 Y-3.13429
G01 X-3.43602 Y-3.13635
G01 X-3.43798 Y-3.13722
G01 X-3.44387 Y-3.14068
G01 X-3.44904 Y-3.14527
G01 X-4.03203 Y-3.14527
G01 X-4.27401 Y-2.90330
G01 X-4.27401 Y-2.85000
G01 X-4.27447 Y-2.84535
G01 X-4.27498 Y-2.84311
G01 X-4.27615 Y-2.83979
G01 X-4.27714 Y-2.83772
G01 X-4.27968 Y-2.83380
G01 X-4.28380 Y-2.82968
G01 X-4.28772 Y-2.82714
G01 X-4.28979 Y-2.82615
G01 X-4.29422 Y-2.82466
G01 X-4.30000 Y-2.82401
G01 X-4.42696 Y-2.82401
G01 X-4.42843 Y-2.82270
G01 X-4.43276 Y-2.81956
G01 X-4.43462 Y-2.81849
G01 X-4.44050 Y-2.81593
G01 X-4.44678 Y-2.81459
G01 X-4.45425 Y-2.81448
G01 X-4.45689 Y-2.81465
G01 X-4.45425 Y-2.81448
G01 X-4.44890 Y-2.81448
G01 X-4.44143 Y-2.81515
G01 X-4.43380 Y-2.81665
G01 X-4.43117 Y-2.81736
G01 X-4.42513 Y-2.81933
G01 X-4.30000 Y-2.81933
G01 X-4.29480 Y-2.81957
G01 X-4.29136 Y-2.81996
G01 X-4.28616 Y-2.82095
G01 X-4.17016 Y-2.82095
G01 X-4.01845 Y-2.97265
G01 X-4.01490 Y-2.97567
G01 X-4.01221 Y-2.97747
G01 X-4.00953 Y-2.97890
G01 X-4.00653 Y-2.98014
G01 X-4.00362 Y-2.98102
G01 X-4.00044 Y-2.98166
G01 X-3.99580 Y-2.98204
G01 X-3.69574 Y-2.98204
G01 X-3.69412 Y-2.98419
G01 X-3.68862 Y-2.99031
G01 X-3.68605 Y-2.99262
G01 X-3.67794 Y-2.99840
G01 X-3.66888 Y-3.00253
G01 X-3.66560 Y-3.00360
G01 X-3.65755 Y-3.00531
G01 X-3.65411 Y-3.00567
G01 X-3.64416 Y-3.00558
G01 X-3.63440 Y-3.00360
G01 X-3.63111 Y-3.00253
G01 X-3.62206 Y-2.99840
G01 X-3.61395 Y-2.99262
G01 X-3.61138 Y-2.99031
G01 X-3.60588 Y-2.98419
G01 X-3.60426 Y-2.98204
G01 X-3.59681 Y-2.98196
G01 X-3.59379 Y-2.98166
G01 X-3.59061 Y-2.98102
G01 X-3.58770 Y-2.98014
G01 X-3.58470 Y-2.97890
G01 X-3.58202 Y-2.97747
G01 X-3.57933 Y-2.97567
G01 X-3.57578 Y-2.97265
G01 X-3.49504 Y-2.89191
G01 X-3.49231 Y-2.89162
G01 X-3.48708 Y-2.89051
G01 X-3.48379 Y-2.88944
G01 X-3.47890 Y-2.88727
G01 X-3.47591 Y-2.88554
G01 X-3.47158 Y-2.88239
G01 X-3.46901 Y-2.88008
G01 X-3.46434 Y-2.87476
G01 X-3.46073 Y-2.86868
G01 X-3.45932 Y-2.86552
G01 X-3.45722 Y-2.85876
G01 X-3.45639 Y-2.85173
G01 X-3.45639 Y-2.84827
G01 X-3.45722 Y-2.84124
G01 X-3.45932 Y-2.83448
G01 X-3.46073 Y-2.83132
G01 X-3.46434 Y-2.82524
G01 X-3.46901 Y-2.81992
G01 X-3.47158 Y-2.81760
G01 X-3.47591 Y-2.81446
G01 X-3.47890 Y-2.81273
G01 X-3.48541 Y-2.80993
G01 X-3.49231 Y-2.80837
G01 X-3.49575 Y-2.80801
G01 X-3.50110 Y-2.80801
G01 X-3.50454 Y-2.80837
G01 X-3.50977 Y-2.80949
G01 X-3.51306 Y-2.81056
G01 X-3.51795 Y-2.81273
G01 X-3.52094 Y-2.81446
G01 X-3.52527 Y-2.81760
G01 X-3.52784 Y-2.81992
G01 X-3.53251 Y-2.82524
G01 X-3.53612 Y-2.83132
G01 X-3.53753 Y-2.83448
G01 X-3.53918 Y-2.83957
G01 X-3.53990 Y-2.84295
G01 X-3.54028 Y-2.84654
G01 X-3.60761 Y-2.91388
G01 X-3.61260 Y-2.90847
G01 X-3.62060 Y-2.90254
G01 X-3.62360 Y-2.90082
G01 X-3.63111 Y-2.89747
G01 X-3.63440 Y-2.89640
G01 X-3.64416 Y-2.89442
G01 X-3.65411 Y-2.89433
G01 X-3.65755 Y-2.89469
G01 X-3.66560 Y-2.89640
G01 X-3.66888 Y-2.89747
G01 X-3.67794 Y-2.90160
G01 X-3.68605 Y-2.90738
G01 X-3.68862 Y-2.90969
G01 X-3.69412 Y-2.91581
G01 X-3.69574 Y-2.91796
G01 X-3.98253 Y-2.91796
G01 X-4.07144 Y-2.82905
G01 X-4.07460 Y-2.82739
G01 X-4.07939 Y-2.82349
G01 X-4.08329 Y-2.81870
G01 X-4.08524 Y-2.81499
G04 P0 ( dwell for no time -- G64 should not smooth over this point )
G00 Z0.08000 ( retract )

G00 X-4.08524 Y-2.81499 ( rapid move to begin. )
G01 F180.00000
( Mill infeed pass 1/1 )
G01 Z-0.04000
G04 P0 ( dwell for no time -- G64 should not smooth over this point )
G01 F360.00000
G01 X-4.08524 Y-2.81499
G01 X-4.08524 Y-2.81499
G04 P0 ( dwell for no time -- G64 should not smooth over this point )
G00 Z0.08000 ( retract )

G00 X-4.08524 Y-2.81499 ( rapid move to begin. )
G01 F180.00000
( Mill infeed pass 1/1 )
G01 Z-0.04000
G04 P0 ( dwell for no time -- G64 should not smooth over this point )
G01 F360.00000
G01 X-4.08524 Y-2.81499
G01 X-4.08544 Y-2.81300
G01 X-4.08544 Y-2.69338
G01 X-4.27372 Y-2.59924
G01 X-4.28111 Y-2.60253
G01 X-4.28440 Y-2.60360
G01 X-4.29416 Y-2.60558
G01 X-4.30584 Y-2.60558
G01 X-4.31560 Y-2.60360
G01 X-4.31888 Y-2.60253
G01 X-4.32640 Y-2.59918
G01 X-4.32939 Y-2.59746
G01 X-4.33605 Y-2.59262
G01 X-4.33862 Y-2.59031
G01 X-4.34412 Y-2.58419
G01 X-4.34558 Y-2.58229
G01 X-4.65442 Y-2.58229
G01 X-4.65588 Y-2.58419
G01 X-4.66138 Y-2.59031
G01 X-4.66395 Y-2.59262
G01 X-4.67061 Y-2.59746
G01 X-4.67360 Y-2.59918
G01 X-4.68111 Y-2.60253
G01 X-4.68440 Y-2.60360
G01 X-4.69245 Y-2.60531
G01 X-4.69589 Y-2.60567
G01 X-4.70584 Y-2.60558
G01 X-4.71560 Y-2.60360
G01 X-4.71889 Y-2.60253
G01 X-4.72640 Y-2.59918
G01 X-4.72939 Y-2.59746
G01 X-4.73605 Y-2.59262
G01 X-4.73862 Y-2.59031
G01 X-4.74521 Y-2.58285
G01 X-4.75027 Y-2.57427
G01 X-4.75167 Y-2.57111
G01 X-4.75422 Y-2.56329
G01 X-4.75493 Y-2.55991
G01 X-4.75579 Y-2.55173
G01 X-4.75579 Y-2.54827
G01 X-4.75493 Y-2.54009
G01 X-4.75422 Y-2.53671
G01 X-4.75105 Y-2.52727
G01 X-4.74615 Y-2.51860
G01 X-4.74412 Y-2.51581
G01 X-4.73862 Y-2.50969
G01 X-4.73605 Y-2.50738
G01 X-4.72939 Y-2.50254
G01 X-4.72640 Y-2.50082
G01 X-4.71889 Y-2.49747
G01 X-4.71560 Y-2.49640
G01 X-4.70755 Y-2.49469
G01 X-4.70411 Y-2.49433
G01 X-4.69416 Y-2.49442
G01 X-4.68440 Y-2.49640
G01 X-4.68111 Y-2.49747
G01 X-4.67360 Y-2.50082
G01 X-4.67061 Y-2.50254
G01 X-4.66395 Y-2.50738
G01 X-4.66138 Y-2.50969
G01 X-4.65588 Y-2.51581
G01 X-4.65442 Y-2.51771
G01 X-4.34558 Y-2.51771
G01 X-4.34412 Y-2.51581
G01 X-4.33862 Y-2.50969
G01 X-4.33605 Y-2.50738
G01 X-4.32794 Y-2.50160
G01 X-4.31888 Y-2.49747
G01 X-4.31560 Y-2.49640
G01 X-4.30584 Y-2.49442
G01 X-4.29589 Y-2.49433
G01 X-4.29416 Y-2.49442
G01 X-4.29043 Y-2.49512
G01 X-4.17615 Y-2.38085
G01 X-4.17260 Y-2.37783
G01 X-4.16991 Y-2.37603
G01 X-4.16723 Y-2.37460
G01 X-4.16423 Y-2.37336
G01 X-4.16132 Y-2.37247
G01 X-4.15814 Y-2.37184
G01 X-4.15350 Y-2.37146
G01 X-3.79650 Y-2.37146
G01 X-3.79185 Y-2.37184
G01 X-3.78868 Y-2.37247
G01 X-3.78577 Y-2.37336
G01 X-3.78277 Y-2.37460
G01 X-3.78009 Y-2.37603
G01 X-3.77740 Y-2.37783
G01 X-3.77505 Y-2.37976
G01 X-3.65957 Y-2.49512
G01 X-3.65584 Y-2.49442
G01 X-3.65411 Y-2.49433
G01 X-3.64416 Y-2.49442
G01 X-3.63440 Y-2.49640
G01 X-3.63111 Y-2.49747
G01 X-3.62360 Y-2.50082
G01 X-3.62060 Y-2.50254
G01 X-3.61395 Y-2.50738
G01 X-3.61138 Y-2.50969
G01 X-3.60588 Y-2.51581
G01 X-3.60442 Y-2.51771
G01 X-3.29558 Y-2.51771
G01 X-3.29412 Y-2.51581
G01 X-3.28862 Y-2.50969
G01 X-3.28605 Y-2.50738
G01 X-3.27939 Y-2.50254
G01 X-3.27640 Y-2.50082
G01 X-3.26889 Y-2.49747
G01 X-3.26560 Y-2.49640
G01 X-3.25584 Y-2.49442
G01 X-3.24589 Y-2.49433
G01 X-3.24245 Y-2.49469
G01 X-3.23440 Y-2.49640
G01 X-3.23111 Y-2.49747
G01 X-3.22206 Y-2.50160
G01 X-3.21395 Y-2.50738
G01 X-3.21138 Y-2.50969
G01 X-3.20588 Y-2.51581
G01 X-3.20384 Y-2.51860
G01 X-3.19973 Y-2.52573
G01 X-3.19833 Y-2.52888
G01 X-3.19578 Y-2.53671
G01 X-3.19507 Y-2.54009
G01 X-3.19411 Y-2.55000
G01 X-3.19507 Y-2.55991
G01 X-3.19578 Y-2.56329
G01 X-3.19833 Y-2.57111
G01 X-3.19973 Y-2.57427
G01 X-3.20479 Y-2.58285
G01 X-3.21138 Y-2.59031
G01 X-3.21395 Y-2.59262
G01 X-3.22206 Y-2.59840
G01 X-3.23111 Y-2.60253
G01 X-3.23440 Y-2.60360
G01 X-3.24416 Y-2.60558
G01 X-3.25411 Y-2.60567
G01 X-3.25755 Y-2.60531
G01 X-3.26560 Y-2.60360
G01 X-3.26889 Y-2.60253
G01 X-3.27640 Y-2.59918
G01 X-3.27939 Y-2.59746
G01 X-3.28605 Y-2.59262
G01 X-3.28862 Y-2.59031
G01 X-3.29412 Y-2.58419
G01 X-3.29558 Y-2.58229
G01 X-3.60442 Y-2.58229
G01 X-3.60588 Y-2.58419
G01 X-3.61138 Y-2.59031
G01 X-3.61395 Y-2.59262
G01 X-3.62060 Y-2.59746
G01 X-3.62360 Y-2.59918
G01 X-3.63111 Y-2.60253
G01 X-3.63440 Y-2.60360
G01 X-3.64245 Y-2.60531
G01 X-3.64589 Y-2.60567
G01 X-3.65584 Y-2.60558
G01 X-3.66560 Y-2.60360
G01 X-3.66888 Y-2.60253
G01 X-3.67640 Y-2.59918
G01 X-3.67939 Y-2.59746
G01 X-3.68605 Y-2.59262
G01 X-3.68862 Y-2.59031
G01 X-3.69521 Y-2.58285
G01 X-3.70027 Y-2.57427
G01 X-3.70167 Y-2.57111
G01 X-3.70422 Y-2.56329
G01 X-3.70493 Y-2.55991
G01 X-3.70588 Y-2.55000
G01 X-3.70496 Y-2.54034
G01 X-3.80977 Y-2.43553
G01 X-3.91506 Y-2.43553
G01 X-3.91610 Y-2.43462
G01 X-3.92110 Y-2.43150
G01 X-3.92610 Y-2.42962
G01 X-3.93110 Y-2.42900
G01 X-4.06890 Y-2.42900
G01 X-4.07390 Y-2.42962
G01 X-4.07890 Y-2.43150
G01 X-4.08390 Y-2.43462
G01 X-4.08494 Y-2.43553
G01 X-4.14023 Y-2.43553
G01 X-4.24504 Y-2.54034
G01 X-4.24492 Y-2.54144
G01 X-4.01048 Y-2.65866
G01 X-3.93110 Y-2.65866
G01 X-3.92787 Y-2.65898
G01 X-3.92477 Y-2.65992
G01 X-3.92191 Y-2.66145
G01 X-3.91941 Y-2.66351
G01 X-3.91735 Y-2.66601
G01 X-3.91582 Y-2.66887
G01 X-3.91488 Y-2.67197
G01 X-3.91456 Y-2.67520
G01 X-3.91456 Y-2.81300
G01 X-3.91488 Y-2.81623
G01 X-3.91582 Y-2.81933
G01 X-3.91735 Y-2.82219
G01 X-3.91941 Y-2.82469
G01 X-3.92191 Y-2.82675
G01 X-3.92477 Y-2.82828
G01 X-3.92787 Y-2.82922
G01 X-3.93110 Y-2.82953
G01 X-4.06890 Y-2.82953
G01 X-4.07089 Y-2.82934
G01 X-4.07460 Y-2.82739
G01 X-4.07939 Y-2.82349
G01 X-4.08329 Y-2.81870
G01 X-4.08629 Y-2.81300
G01 X-4.09173 Y-2.79985
G01 X-4.12978 Y-2.76180
G01 X-4.13379 Y-2.75837
G01 X-4.13751 Y-2.75588
G01 X-4.14019 Y-2.75445
G01 X-4.14433 Y-2.75274
G01 X-4.14724 Y-2.75186
G01 X-4.15163 Y-2.75098
G01 X-4.15689 Y-2.75057
G01 X-4.64969 Y-2.75057
G01 X-4.65495 Y-2.75098
G01 X-4.65934 Y-2.75186
G01 X-4.66225 Y-2.75274
G01 X-4.66639 Y-2.75445
G01 X-4.66906 Y-2.75588
G01 X-4.67279 Y-2.75837
G01 X-4.67680 Y-2.76180
G01 X-4.80196 Y-2.88696
G01 X-4.80393 Y-2.88921
G01 X-4.80639 Y-2.89242
G01 X-4.80805 Y-2.89490
G01 X-4.80937 Y-2.89758
G01 X-4.81092 Y-2.90132
G01 X-4.81188 Y-2.90415
G01 X-4.81246 Y-2.90708
G01 X-4.81299 Y-2.91109
G01 X-4.81318 Y-2.91407
G01 X-4.81318 Y-2.98593
G01 X-4.81299 Y-2.98891
G01 X-4.81246 Y-2.99292
G01 X-4.81188 Y-2.99585
G01 X-4.81092 Y-2.99868
G01 X-4.80937 Y-3.00242
G01 X-4.80805 Y-3.00510
G01 X-4.80639 Y-3.00758
G01 X-4.80393 Y-3.01079
G01 X-4.80196 Y-3.01304
G01 X-4.61663 Y-3.19837
G01 X-4.61262 Y-3.20180
G01 X-4.60890 Y-3.20429
G01 X-4.60621 Y-3.20572
G01 X-4.60208 Y-3.20743
G01 X-4.59917 Y-3.20831
G01 X-4.59478 Y-3.20919
G01 X-4.58952 Y-3.20959
G01 X-4.55416 Y-3.20959
G01 X-4.55300 Y-3.21063
G01 X-4.54135 Y-3.21063
G01 X-4.54757 Y-3.21433
G01 X-4.55320 Y-3.21927
G01 X-4.55551 Y-3.22184
G01 X-4.55890 Y-3.22650
G01 X-4.56063 Y-3.22949
G01 X-4.56297 Y-3.23476
G01 X-4.56404 Y-3.23805
G01 X-4.56524 Y-3.24368
G01 X-4.56560 Y-3.24712
G01 X-4.56560 Y-3.25288
G01 X-4.56524 Y-3.25632
G01 X-4.56404 Y-3.26195
G01 X-4.56297 Y-3.26524
G01 X-4.55984 Y-3.27205
G01 X-4.55551 Y-3.27816
G01 X-4.55320 Y-3.28073
G01 X-4.54757 Y-3.28567
G01 X-4.54135 Y-3.28937
G01 X-4.54757 Y-3.29307
G01 X-4.55320 Y-3.29801
G01 X-4.55551 Y-3.30058
G01 X-4.55984 Y-3.30669
G01 X-4.56297 Y-3.31350
G01 X-4.56404 Y-3.31679
G01 X-4.56524 Y-3.32242
G01 X-4.56560 Y-3.32586
G01 X-4.56560 Y-3.33162
G01 X-4.56524 Y-3.33506
G01 X-4.56404 Y-3.34069
G01 X-4.56297 Y-3.34398
G01 X-4.55984 Y-3.35079
G01 X-4.55551 Y-3.35690
G01 X-4.55320 Y-3.35947
G01 X-4.54892 Y-3.36332
G01 X-4.54612 Y-3.36536
G01 X-4.54113 Y-3.36824
G01 X-4.53797 Y-3.36964
G01 X-4.53249 Y-3.37142
G01 X-4.52911 Y-3.37214
G01 X-4.52165 Y-3.37283
G01 X-4.47835 Y-3.37283
G01 X-4.47089 Y-3.37214
G01 X-4.46751 Y-3.37142
G01 X-4.46203 Y-3.36964
G01 X-4.45887 Y-3.36824
G01 X-4.45243 Y-3.36441
G01 X-4.44853 Y-3.36103
G01 X-4.17874 Y-3.36103
G01 X-4.17404 Y-3.36064
G01 X-4.17087 Y-3.36001
G01 X-4.16791 Y-3.35911
G01 X-4.16492 Y-3.35787
G01 X-4.16219 Y-3.35642
G01 X-4.15950 Y-3.35462
G01 X-4.15785 Y-3.35326
G01 X-4.15564 Y-3.35364
G01 X-4.15391 Y-3.35373
G01 X-4.14609 Y-3.35373
G01 X-4.14265 Y-3.35337
G01 X-4.13500 Y-3.35175
G01 X-4.13172 Y-3.35068
G01 X-4.12457 Y-3.34750
G01 X-4.12158 Y-3.34577
G01 X-4.11525 Y-3.34117
G01 X-4.11268 Y-3.33886
G01 X-4.10745 Y-3.33305
G01 X-4.10542 Y-3.33025
G01 X-4.10394 Y-3.32768
G01 X-4.10394 Y-3.33937
G01 X-4.10362 Y-3.34260
G01 X-4.10268 Y-3.34570
G01 X-4.10115 Y-3.34856
G01 X-4.09909 Y-3.35106
G01 X-4.09659 Y-3.35312
G01 X-4.09373 Y-3.35465
G01 X-4.09063 Y-3.35559
G01 X-4.08740 Y-3.35590
G01 X-4.01260 Y-3.35590
G01 X-4.00937 Y-3.35559
G01 X-4.00627 Y-3.35465
G01 X-4.00341 Y-3.35312
G01 X-4.00091 Y-3.35106
G01 X-3.99885 Y-3.34856
G01 X-3.99732 Y-3.34570
G01 X-3.99638 Y-3.34260
G01 X-3.99606 Y-3.33937
G01 X-3.99606 Y-3.33203
G01 X-3.90394 Y-3.33203
G01 X-3.90394 Y-3.33937
G01 X-3.90362 Y-3.34260
G01 X-3.90268 Y-3.34570
G01 X-3.90115 Y-3.34856
G01 X-3.89909 Y-3.35106
G01 X-3.89659 Y-3.35312
G01 X-3.89373 Y-3.35465
G01 X-3.89063 Y-3.35559
G01 X-3.88740 Y-3.35590
G01 X-3.88204 Y-3.35590
G01 X-3.88204 Y-3.37037
G01 X-3.88166 Y-3.37501
G01 X-3.88103 Y-3.37819
G01 X-3.88014 Y-3.38110
G01 X-3.87890 Y-3.38410
G01 X-3.87747 Y-3.38678
G01 X-3.87567 Y-3.38947
G01 X-3.87265 Y-3.39302
G01 X-3.84302 Y-3.42254
G01 X-3.84067 Y-3.42447
G01 X-3.83798 Y-3.42627
G01 X-3.83530 Y-3.42770
G01 X-3.83230 Y-3.42894
G01 X-3.82939 Y-3.42983
G01 X-3.82621 Y-3.43046
G01 X-3.82157 Y-3.43084
G01 X-3.34933 Y-3.43084
G01 X-3.34469 Y-3.43046
G01 X-3.34151 Y-3.42983
G01 X-3.33860 Y-3.42894
G01 X-3.33560 Y-3.42770
G01 X-3.33292 Y-3.42627
G01 X-3.33023 Y-3.42447
G01 X-3.32668 Y-3.42145
G01 X-3.14550 Y-3.24027
G01 X-3.14161 Y-3.23544
G01 X-3.14041 Y-3.23364
G01 X-3.13945 Y-3.23170
G01 X-3.13721 Y-3.22591
G01 X-3.13678 Y-3.22379
G01 X-3.13611 Y-3.21762
G01 X-3.13611 Y-2.81071
G01 X-3.13649 Y-2.80606
G01 X-3.13712 Y-2.80289
G01 X-3.13801 Y-2.79998
G01 X-3.13925 Y-2.79698
G01 X-3.14068 Y-2.79430
G01 X-3.14248 Y-2.79161
G01 X-3.14441 Y-2.78926
G01 X-3.18926 Y-2.74441
G01 X-3.19161 Y-2.74248
G01 X-3.19430 Y-2.74068
G01 X-3.19698 Y-2.73925
G01 X-3.19998 Y-2.73801
G01 X-3.20289 Y-2.73712
G01 X-3.20607 Y-2.73649
G01 X-3.21071 Y-2.73611
G01 X-3.55968 Y-2.73611
G01 X-3.69365 Y-2.60226
G01 X-3.69600 Y-2.60033
G01 X-3.69869 Y-2.59853
G01 X-3.70137 Y-2.59710
G01 X-3.70437 Y-2.59586
G01 X-3.70728 Y-2.59497
G01 X-3.71046 Y-2.59434
G01 X-3.71510 Y-2.59396
G01 X-3.72956 Y-2.59396
G01 X-3.72956 Y-2.55710
G01 X-3.72988 Y-2.55387
G01 X-3.73082 Y-2.55077
G01 X-3.73235 Y-2.54791
G01 X-3.73441 Y-2.54541
G01 X-3.73691 Y-2.54335
G01 X-3.73977 Y-2.54182
G01 X-3.74287 Y-2.54088
G01 X-3.74610 Y-2.54056
G01 X-3.85513 Y-2.54056
G01 X-3.91045 Y-2.48525
G01 X-3.91456 Y-2.48185
G01 X-3.91456 Y-2.43900
G01 X-3.91488 Y-2.43577
G01 X-3.91610 Y-2.43462
G01 X-3.92110 Y-2.43150
G01 X-3.92610 Y-2.42962
G01 X-3.93110 Y-2.42900
G01 X-4.06890 Y-2.42900
G01 X-4.07390 Y-2.42962
G01 X-4.07890 Y-2.43150
G01 X-4.08390 Y-2.43462
G01 X-4.08508 Y-2.43566
G04 P0 ( dwell for no time -- G64 should not smooth over this point )
G00 Z0.08000 ( retract )

G00 X-4.08508 Y-2.43566 ( rapid move to begin. )
G01 F180.00000
( Mill infeed pass 1/1 )
G01 Z-0.04000
G04 P0 ( dwell for no time -- G64 should not smooth over this point )
G01 F360.00000
G01 X-4.08508 Y-2.43566
G01 X-4.08508 Y-2.43566
G04 P0 ( dwell for no time -- G64 should not smooth over this point )
G00 Z0.08000 ( retract )

G00 X-4.08508 Y-2.43566 ( rapid move to begin. )
G01 F180.00000
( Mill infeed pass 1/1 )
G01 Z-0.04000
G04 P0 ( dwell for no time -- G64 should not smooth over this point )
G01 F360.00000
G01 X-4.08508 Y-2.43566
G01 X-4.08544 Y-2.43900
G01 X-4.08544 Y-2.57680
G01 X-4.08512 Y-2.58003
G01 X-4.08418 Y-2.58313
G01 X-4.08265 Y-2.58599
G01 X-4.08059 Y-2.58849
G01 X-4.07809 Y-2.59055
G01 X-4.07523 Y-2.59208
G01 X-4.07212 Y-2.59302
G01 X-4.06890 Y-2.59334
G01 X-3.93110 Y-2.59334
G01 X-3.92787 Y-2.59302
G01 X-3.92477 Y-2.59208
G01 X-3.92191 Y-2.59055
G01 X-3.91941 Y-2.58849
G01 X-3.91735 Y-2.58599
G01 X-3.91582 Y-2.58313
G01 X-3.91488 Y-2.58003
G01 X-3.91456 Y-2.57680
G01 X-3.91456 Y-2.57174
G01 X-3.90043 Y-2.58587
G01 X-3.90043 Y-2.69490
G01 X-3.90012 Y-2.69813
G01 X-3.89918 Y-2.70123
G01 X-3.89765 Y-2.70409
G01 X-3.89559 Y-2.70659
G01 X-3.89309 Y-2.70865
G01 X-3.89023 Y-2.71018
G01 X-3.88713 Y-2.71112
G01 X-3.88390 Y-2.71143
G01 X-3.74610 Y-2.71143
G01 X-3.74287 Y-2.71112
G01 X-3.73977 Y-2.71018
G01 X-3.73691 Y-2.70865
G01 X-3.73441 Y-2.70659
G01 X-3.73235 Y-2.70409
G01 X-3.73082 Y-2.70123
G01 X-3.72988 Y-2.69813
G01 X-3.72956 Y-2.69490
G01 X-3.72956 Y-2.65803
G01 X-3.72837 Y-2.65803
G01 X-3.59560 Y-2.79080
G01 X-3.59205 Y-2.79382
G01 X-3.58936 Y-2.79562
G01 X-3.58668 Y-2.79705
G01 X-3.58368 Y-2.79829
G01 X-3.58077 Y-2.79917
G01 X-3.57759 Y-2.79981
G01 X-3.57295 Y-2.80018
G01 X-3.22398 Y-2.80018
G01 X-3.20018 Y-2.82398
G01 X-3.20018 Y-2.92495
G01 X-3.19994 Y-2.92585
G01 X-3.20018 Y-2.92494
G01 X-3.20479 Y-2.91715
G01 X-3.21138 Y-2.90969
G01 X-3.21395 Y-2.90738
G01 X-3.22206 Y-2.90160
G01 X-3.23111 Y-2.89747
G01 X-3.23440 Y-2.89640
G01 X-3.24245 Y-2.89469
G01 X-3.24589 Y-2.89433
G01 X-3.25411 Y-2.89433
G01 X-3.25584 Y-2.89442
G01 X-3.25957 Y-2.89512
G01 X-3.32735 Y-2.82735
G01 X-3.33090 Y-2.82433
G01 X-3.33359 Y-2.82253
G01 X-3.33627 Y-2.82110
G01 X-3.33927 Y-2.81986
G01 X-3.34218 Y-2.81897
G01 X-3.34536 Y-2.81834
G01 X-3.35000 Y-2.81796
G01 X-3.35920 Y-2.81796
G01 X-3.36066 Y-2.81522
G01 X-3.36272 Y-2.81272
G01 X-3.36522 Y-2.81066
G01 X-3.36808 Y-2.80913
G01 X-3.37118 Y-2.80819
G01 X-3.37441 Y-2.80787
G01 X-3.42559 Y-2.80787
G01 X-3.42882 Y-2.80819
G01 X-3.43192 Y-2.80913
G01 X-3.43478 Y-2.81066
G01 X-3.43728 Y-2.81272
G01 X-3.43934 Y-2.81522
G01 X-3.44087 Y-2.81808
G01 X-3.44181 Y-2.82118
G01 X-3.44212 Y-2.82441
G01 X-3.44212 Y-2.87559
G01 X-3.44181 Y-2.87882
G01 X-3.44087 Y-2.88192
G01 X-3.43934 Y-2.88478
G01 X-3.43728 Y-2.88728
G01 X-3.43478 Y-2.88934
G01 X-3.43192 Y-2.89087
G01 X-3.42882 Y-2.89181
G01 X-3.42559 Y-2.89213
G01 X-3.37441 Y-2.89213
G01 X-3.37118 Y-2.89181
G01 X-3.36808 Y-2.89087
G01 X-3.36522 Y-2.88934
G01 X-3.36272 Y-2.88728
G01 X-3.36061 Y-2.88469
G01 X-3.30496 Y-2.94034
G01 X-3.30588 Y-2.95000
G01 X-3.30493 Y-2.95991
G01 X-3.30422 Y-2.96329
G01 X-3.30167 Y-2.97111
G01 X-3.30027 Y-2.97427
G01 X-3.29521 Y-2.98285
G01 X-3.28862 Y-2.99031
G01 X-3.28605 Y-2.99262
G01 X-3.28204 Y-2.99554
G01 X-3.28204 Y-3.16694
G01 X-3.33306 Y-3.21796
G01 X-3.34825 Y-3.21796
G01 X-3.35243 Y-3.21433
G01 X-3.35865 Y-3.21063
G01 X-3.45300 Y-3.21063
G01 X-3.45741 Y-3.21459
G01 X-3.46061 Y-3.21814
G01 X-3.46529 Y-3.22480
G01 X-3.46872 Y-3.23220
G01 X-3.47020 Y-3.23674
G01 X-3.47177 Y-3.24473
G01 X-3.47190 Y-3.25288
G01 X-3.47177 Y-3.25527
G01 X-3.47140 Y-3.25763
G01 X-3.47020 Y-3.26326
G01 X-3.46872 Y-3.26780
G01 X-3.46529 Y-3.27520
G01 X-3.46061 Y-3.28186
G01 X-3.45741 Y-3.28541
G01 X-3.45300 Y-3.28937
G01 X-3.34700 Y-3.28937
G01 X-3.34583 Y-3.28833
G01 X-3.31979 Y-3.28833
G01 X-3.31453 Y-3.28793
G01 X-3.31014 Y-3.28705
G01 X-3.30723 Y-3.28617
G01 X-3.30309 Y-3.28446
G01 X-3.30041 Y-3.28303
G01 X-3.29669 Y-3.28054
G01 X-3.29268 Y-3.27711
G01 X-3.22289 Y-3.20732
G01 X-3.22092 Y-3.20507
G01 X-3.21846 Y-3.20186
G01 X-3.21680 Y-3.19938
G01 X-3.21548 Y-3.19670
G01 X-3.21393 Y-3.19296
G01 X-3.21297 Y-3.19013
G01 X-3.21239 Y-3.18720
G01 X-3.21186 Y-3.18319
G01 X-3.21166 Y-3.18021
G01 X-3.21166 Y-2.99875
G01 X-3.21025 Y-2.99772
G01 X-3.20648 Y-2.99428
G01 X-3.20345 Y-2.98638
G01 X-3.20215 Y-2.98238
G01 X-3.20018 Y-2.97506
G01 X-3.20018 Y-3.20435
G01 X-3.33581 Y-3.33997
G01 X-3.33796 Y-3.34357
G01 X-3.34128 Y-3.34840
G01 X-3.34311 Y-3.35078
G01 X-3.34881 Y-3.35723
G01 X-3.35299 Y-3.36120
G01 X-3.35519 Y-3.36308
G01 X-3.36202 Y-3.36816
G01 X-3.36824 Y-3.36915
G01 X-3.37117 Y-3.36946
G01 X-3.37834 Y-3.36980
G01 X-3.42165 Y-3.36980
G01 X-3.42883 Y-3.36946
G01 X-3.43175 Y-3.36915
G01 X-3.43751 Y-3.36824
G01 X-3.44074 Y-3.36755
G01 X-3.44650 Y-3.36601
G01 X-3.45257 Y-3.36389
G01 X-3.67126 Y-3.36389
G01 X-3.67571 Y-3.36374
G01 X-3.68190 Y-3.36307
G01 X-3.69687 Y-3.36047
G01 X-3.80386 Y-3.36047
G01 X-3.79991 Y-3.35836
G01 X-3.79645 Y-3.35552
G01 X-3.79361 Y-3.35206
G01 X-3.79150 Y-3.34811
G01 X-3.79043 Y-3.34457
G01 X-3.79527 Y-3.33065
G01 X-3.79736 Y-3.32283
G01 X-3.79803 Y-3.31971
G01 X-3.79926 Y-3.31190
G01 X-3.79955 Y-3.30914
G01 X-3.79996 Y-3.30132
G01 X-3.79996 Y-3.29868
G01 X-3.79955 Y-3.29086
G01 X-3.79926 Y-3.28810
G01 X-3.79803 Y-3.28028
G01 X-3.79736 Y-3.27717
G01 X-3.79527 Y-3.26935
G01 X-3.79043 Y-3.25543
G01 X-3.79150 Y-3.25189
G01 X-3.79361 Y-3.24794
G01 X-3.79645 Y-3.24448
G01 X-3.79991 Y-3.24164
G01 X-3.80386 Y-3.23953
G01 X-3.80814 Y-3.23823
G01 X-3.81260 Y-3.23780
G01 X-3.88740 Y-3.23780
G01 X-3.89186 Y-3.23823
G01 X-3.89614 Y-3.23953
G01 X-3.90009 Y-3.24164
G01 X-3.90355 Y-3.24448
G01 X-3.90639 Y-3.24794
G01 X-3.90850 Y-3.25189
G01 X-3.90980 Y-3.25617
G01 X-3.91024 Y-3.26166
G01 X-3.98976 Y-3.26166
G01 X-3.99020 Y-3.25617
G01 X-3.99150 Y-3.25189
G01 X-3.99361 Y-3.24794
G01 X-3.99645 Y-3.24448
G01 X-3.99991 Y-3.24164
G01 X-4.00386 Y-3.23953
G01 X-4.00814 Y-3.23823
G01 X-4.01260 Y-3.23780
G01 X-4.08740 Y-3.23780
G01 X-4.09186 Y-3.23823
G01 X-4.09614 Y-3.23953
G01 X-4.10009 Y-3.24164
G01 X-4.10355 Y-3.24448
G01 X-4.10639 Y-3.24794
G01 X-4.10850 Y-3.25189
G01 X-4.10957 Y-3.25543
G01 X-4.10887 Y-3.25771
G01 X-4.10954 Y-3.25555
G01 X-4.11155 Y-3.25373
G01 X-4.11788 Y-3.24913
G01 X-4.11988 Y-3.24783
G01 X-4.12201 Y-3.24675
G01 X-4.12915 Y-3.24357
G01 X-4.13369 Y-3.24209
G01 X-4.14370 Y-3.24009
G01 X-4.14609 Y-3.23997
G01 X-4.15630 Y-3.24009
G01 X-4.16631 Y-3.24209
G01 X-4.17084 Y-3.24357
G01 X-4.17799 Y-3.24675
G01 X-4.18012 Y-3.24783
G01 X-4.18212 Y-3.24913
G01 X-4.18845 Y-3.25373
G01 X-4.19200 Y-3.25692
G01 X-4.19723 Y-3.26274
G01 X-4.20003 Y-3.26660
G01 X-4.20394 Y-3.27337
G01 X-4.20503 Y-3.27550
G01 X-4.20589 Y-3.27773
G01 X-4.20830 Y-3.28517
G01 X-4.20933 Y-3.29015
G01 X-4.44611 Y-3.29015
G01 X-4.44701 Y-3.28937
G01 X-4.45865 Y-3.28937
G01 X-4.45243 Y-3.28567
G01 X-4.44825 Y-3.28204
G01 X-4.41817 Y-3.28195
G01 X-4.41514 Y-3.28166
G01 X-4.41197 Y-3.28103
G01 X-4.40906 Y-3.28014
G01 X-4.40606 Y-3.27890
G01 X-4.40338 Y-3.27747
G01 X-4.40069 Y-3.27567
G01 X-4.39834 Y-3.27374
G01 X-4.39264 Y-3.26815
G01 X-4.39121 Y-3.26653
G01 X-4.38755 Y-3.26152
G01 X-4.38659 Y-3.25958
G01 X-4.38435 Y-3.25379
G01 X-4.38392 Y-3.25167
G01 X-4.38325 Y-3.24550
G01 X-4.38325 Y-3.04130
G01 X-4.38340 Y-3.03914
G01 X-4.38435 Y-3.03301
G01 X-4.38659 Y-3.02722
G01 X-4.38755 Y-3.02528
G01 X-4.38875 Y-3.02348
G01 X-4.39264 Y-3.01865
G01 X-4.51796 Y-2.89332
G01 X-4.51796 Y-2.89080
G01 X-4.51522 Y-2.88934
G01 X-4.51272 Y-2.88728
G01 X-4.51066 Y-2.88478
G01 X-4.50913 Y-2.88192
G01 X-4.50819 Y-2.87882
G01 X-4.50787 Y-2.87559
G01 X-4.50787 Y-2.82441
G01 X-4.50819 Y-2.82118
G01 X-4.50837 Y-2.82095
G01 X-4.48191 Y-2.82095
G01 X-4.47733 Y-2.81910
G01 X-4.47198 Y-2.81736
G01 X-4.46400 Y-2.81551
G01 X-4.45636 Y-2.81459
G01 X-4.44890 Y-2.81448
G01 X-4.44143 Y-2.81515
G01 X-4.43915 Y-2.81551
G01 X-4.43117 Y-2.81736
G01 X-4.42513 Y-2.81933
G01 X-4.30000 Y-2.81933
G01 X-4.29480 Y-2.81957
G01 X-4.28783 Y-2.82056
G01 X-4.28412 Y-2.82141
G01 X-4.28059 Y-2.82243
G01 X-4.27640 Y-2.82390
G01 X-4.27287 Y-2.82536
G01 X-4.26898 Y-2.82724
G01 X-4.17277 Y-2.82724
G01 X-4.02291 Y-2.97711
G01 X-4.01890 Y-2.98054
G01 X-4.01518 Y-2.98303
G01 X-4.01250 Y-2.98446
G01 X-4.00836 Y-2.98617
G01 X-4.00545 Y-2.98705
G01 X-4.00106 Y-2.98793
G01 X-3.99580 Y-2.98833
G01 X-3.69886 Y-2.98833
G01 X-3.69330 Y-2.99452
G01 X-3.68975 Y-2.99772
G01 X-3.68310 Y-3.00255
G01 X-3.67896 Y-3.00494
G01 X-3.67145 Y-3.00828
G01 X-3.66691 Y-3.00976
G01 X-3.65886 Y-3.01147
G01 X-3.65650 Y-3.01184
G01 X-3.65411 Y-3.01197
G01 X-3.64350 Y-3.01184
G01 X-3.63309 Y-3.00976
G01 X-3.62855 Y-3.00828
G01 X-3.62104 Y-3.00494
G01 X-3.61690 Y-3.00255
G01 X-3.61025 Y-2.99772
G01 X-3.60670 Y-2.99452
G01 X-3.60114 Y-2.98833
G01 X-3.59619 Y-2.98822
G01 X-3.59317 Y-2.98793
G01 X-3.58878 Y-2.98705
G01 X-3.58587 Y-2.98617
G01 X-3.58173 Y-2.98446
G01 X-3.57905 Y-2.98303
G01 X-3.57533 Y-2.98054
G01 X-3.57132 Y-2.97711
G01 X-3.49212 Y-2.89790
G01 X-3.48577 Y-2.89667
G01 X-3.48123 Y-2.89520
G01 X-3.47421 Y-2.89194
G01 X-3.46788 Y-2.88749
G01 X-3.46433 Y-2.88430
G01 X-3.46075 Y-2.88032
G01 X-3.45925 Y-2.87846
G01 X-3.45795 Y-2.87646
G01 X-3.45527 Y-2.87182
G01 X-3.45333 Y-2.86746
G01 X-3.45106 Y-2.86007
G01 X-3.45012 Y-2.85239
G01 X-3.45012 Y-2.84761
G01 X-3.45106 Y-2.83993
G01 X-3.45333 Y-2.83254
G01 X-3.45527 Y-2.82817
G01 X-3.45925 Y-2.82154
G01 X-3.46433 Y-2.81570
G01 X-3.46788 Y-2.81251
G01 X-3.47221 Y-2.80936
G01 X-3.47634 Y-2.80698
G01 X-3.47745 Y-2.80648
G01 X-3.48159 Y-2.80560
G01 X-3.48610 Y-2.80489
G01 X-3.49145 Y-2.80432
G01 X-3.49575 Y-2.80410
G01 X-3.50110 Y-2.80410
G01 X-3.50540 Y-2.80432
G01 X-3.51075 Y-2.80489
G01 X-3.51526 Y-2.80560
G01 X-3.51940 Y-2.80648
G01 X-3.52051 Y-2.80698
G01 X-3.52264 Y-2.80806
G01 X-3.52464 Y-2.80936
G01 X-3.52897 Y-2.81251
G01 X-3.53252 Y-2.81570
G01 X-3.53760 Y-2.82154
G01 X-3.54158 Y-2.82817
G01 X-3.54352 Y-2.83254
G01 X-3.54579 Y-2.83993
G01 X-3.54631 Y-2.84367
G01 X-3.60741 Y-2.90477
G01 X-3.61025 Y-2.90228
G01 X-3.61690 Y-2.89745
G01 X-3.62104 Y-2.89506
G01 X-3.62855 Y-2.89172
G01 X-3.63309 Y-2.89024
G01 X-3.64350 Y-2.88816
G01 X-3.65411 Y-2.88803
G01 X-3.65650 Y-2.88816
G01 X-3.65886 Y-2.88853
G01 X-3.66691 Y-2.89024
G01 X-3.67145 Y-2.89172
G01 X-3.67896 Y-2.89506
G01 X-3.68310 Y-2.89745
G01 X-3.68975 Y-2.90228
G01 X-3.69330 Y-2.90548
G01 X-3.69886 Y-2.91167
G01 X-3.97992 Y-2.91167
G01 X-4.05575 Y-2.83583
G01 X-4.06890 Y-2.83039
G01 X-4.07460 Y-2.82739
G01 X-4.07939 Y-2.82349
G01 X-4.08329 Y-2.81870
G01 X-4.08495 Y-2.81555
G01 X-4.13424 Y-2.76626
G01 X-4.13779 Y-2.76324
G01 X-4.14048 Y-2.76144
G01 X-4.14316 Y-2.76001
G01 X-4.14616 Y-2.75877
G01 X-4.14907 Y-2.75788
G01 X-4.15224 Y-2.75725
G01 X-4.15689 Y-2.75687
G01 X-4.64969 Y-2.75687
G01 X-4.65433 Y-2.75725
G01 X-4.65751 Y-2.75788
G01 X-4.66042 Y-2.75877
G01 X-4.66342 Y-2.76001
G01 X-4.66610 Y-2.76144
G01 X-4.66879 Y-2.76324
G01 X-4.67234 Y-2.76626
G01 X-4.79750 Y-2.89142
G01 X-4.79893 Y-2.89304
G01 X-4.80259 Y-2.89805
G01 X-4.80355 Y-2.89999
G01 X-4.80579 Y-2.90578
G01 X-4.80621 Y-2.90790
G01 X-4.80689 Y-2.91407
G01 X-4.80689 Y-2.98593
G01 X-4.80621 Y-2.99210
G01 X-4.80579 Y-2.99422
G01 X-4.80355 Y-3.00001
G01 X-4.80259 Y-3.00195
G01 X-4.79893 Y-3.00696
G01 X-4.79750 Y-3.00858
G01 X-4.61217 Y-3.19391
G01 X-4.60862 Y-3.19693
G01 X-4.60593 Y-3.19873
G01 X-4.60325 Y-3.20016
G01 X-4.60025 Y-3.20140
G01 X-4.59734 Y-3.20228
G01 X-4.59416 Y-3.20292
G01 X-4.59114 Y-3.20322
G01 X-4.55175 Y-3.20329
G01 X-4.54757 Y-3.20693
G01 X-4.54135 Y-3.21063
G01 X-4.45112 Y-3.21063
G01 X-4.44701 Y-3.20175
G01 X-4.44576 Y-3.19850
G01 X-4.44388 Y-3.19274
G01 X-4.44194 Y-3.18431
G01 X-4.44097 Y-3.17626
G01 X-4.44194 Y-3.18431
G01 X-4.44388 Y-3.19274
G01 X-4.44576 Y-3.19850
G01 X-4.44701 Y-3.20175
G01 X-4.45112 Y-3.21063
G01 X-4.54135 Y-3.21063
G01 X-4.54757 Y-3.21433
G01 X-4.55320 Y-3.21927
G01 X-4.55551 Y-3.22184
G01 X-4.55984 Y-3.22795
G01 X-4.56297 Y-3.23476
G01 X-4.56404 Y-3.23805
G01 X-4.56524 Y-3.24368
G01 X-4.56560 Y-3.24712
G01 X-4.56560 Y-3.25288
G01 X-4.56524 Y-3.25632
G01 X-4.56404 Y-3.26195
G01 X-4.56297 Y-3.26524
G01 X-4.55984 Y-3.27205
G01 X-4.55551 Y-3.27816
G01 X-4.55320 Y-3.28073
G01 X-4.54757 Y-3.28567
G01 X-4.54135 Y-3.28937
G01 X-4.44700 Y-3.28937
G01 X-4.44583 Y-3.28833
G01 X-4.41979 Y-3.28833
G01 X-4.41453 Y-3.28793
G01 X-4.41014 Y-3.28705
G01 X-4.40723 Y-3.28617
G01 X-4.40309 Y-3.28446
G01 X-4.40041 Y-3.28303
G01 X-4.39669 Y-3.28054
G01 X-4.39434 Y-3.27861
G01 X-4.38818 Y-3.27261
G01 X-4.38621 Y-3.27036
G01 X-4.38375 Y-3.26715
G01 X-4.38209 Y-3.26467
G01 X-4.38077 Y-3.26199
G01 X-4.37922 Y-3.25825
G01 X-4.37826 Y-3.25542
G01 X-4.37768 Y-3.25249
G01 X-4.37715 Y-3.24848
G01 X-4.37695 Y-3.24550
G01 X-4.39585 Y-3.24550
G01 X-4.39651 Y-3.25053
G01 X-4.39823 Y-3.25476
G01 X-4.39874 Y-3.25565
G01 X-4.40154 Y-3.25924
G01 X-4.40633 Y-3.26400
G01 X-4.40932 Y-3.26636
G01 X-4.41272 Y-3.26809
G01 X-4.41638 Y-3.26912
G01 X-4.41979 Y-3.26944
G01 X-4.45372 Y-3.26944
G01 X-4.45523 Y-3.27137
G01 X-4.45983 Y-3.27548
G01 X-4.46517 Y-3.27859
G01 X-4.47180 Y-3.28081
G01 X-4.47793 Y-3.28147
G01 X-4.52165 Y-3.28150
G01 X-4.52860 Y-3.28070
G01 X-4.53408 Y-3.27892
G01 X-4.53982 Y-3.27570
G01 X-4.54477 Y-3.27137
G01 X-4.54893 Y-3.26575
G01 X-4.55146 Y-3.26012
G01 X-4.55291 Y-3.25370
G01 X-4.55300 Y-3.24712
G01 X-4.55171 Y-3.24066
G01 X-4.54893 Y-3.23425
G01 X-4.54477 Y-3.22863
G01 X-4.54017 Y-3.22452
G01 X-4.53408 Y-3.22108
G01 X-4.52820 Y-3.21919
G01 X-4.52165 Y-3.21850
G01 X-4.47835 Y-3.21850
G01 X-4.47220 Y-3.21913
G01 X-4.46554 Y-3.22123
G01 X-4.46018 Y-3.22429
G01 X-4.45523 Y-3.22863
G01 X-4.45372 Y-3.23056
G01 X-4.43473 Y-3.23056
G01 X-4.43473 Y-3.04935
G01 X-4.56408 Y-2.91995
G01 X-4.56683 Y-2.91631
G01 X-4.56861 Y-2.91211
G01 X-4.56888 Y-2.91112
G01 X-4.56944 Y-2.90659
G01 X-4.56944 Y-2.87953
G01 X-4.57636 Y-2.87945
G01 X-4.57778 Y-2.87886
G01 X-4.57837 Y-2.87837
G01 X-4.57886 Y-2.87778
G01 X-4.57945 Y-2.87636
G01 X-4.57953 Y-2.86944
G01 X-4.59195 Y-2.86944
G01 X-4.65908 Y-2.93656
G01 X-4.65759 Y-2.94141
G01 X-4.65673 Y-2.95041
G01 X-4.65777 Y-2.95940
G01 X-4.66031 Y-2.96722
G01 X-4.66476 Y-2.97510
G01 X-4.67074 Y-2.98188
G01 X-4.67872 Y-2.98767
G01 X-4.68662 Y-2.99117
G01 X-4.69589 Y-2.99307
G01 X-4.70493 Y-2.99299
G01 X-4.71376 Y-2.99102
G01 X-4.72199 Y-2.98726
G01 X-4.72926 Y-2.98188
G01 X-4.73524 Y-2.97510
G01 X-4.73936 Y-2.96797
G01 X-4.74223 Y-2.95940
G01 X-4.74327 Y-2.95041
G01 X-4.74223 Y-2.94060
G01 X-4.73936 Y-2.93203
G01 X-4.73524 Y-2.92490
G01 X-4.72926 Y-2.91812
G01 X-4.72199 Y-2.91274
G01 X-4.71298 Y-2.90872
G01 X-4.70411 Y-2.90693
G01 X-4.69589 Y-2.90693
G01 X-4.68640 Y-2.90891
G01 X-4.61374 Y-2.83625
G01 X-4.61047 Y-2.83364
G01 X-4.60707 Y-2.83191
G01 X-4.60341 Y-2.83088
G01 X-4.60000 Y-2.83056
G01 X-4.57953 Y-2.83056
G01 X-4.57953 Y-2.82441
G01 X-4.57923 Y-2.82290
G01 X-4.57886 Y-2.82222
G01 X-4.57778 Y-2.82113
G01 X-4.57636 Y-2.82055
G01 X-4.52441 Y-2.82047
G01 X-4.52290 Y-2.82077
G01 X-4.52222 Y-2.82113
G01 X-4.52114 Y-2.82222
G01 X-4.52077 Y-2.82290
G01 X-4.52047 Y-2.82441
G01 X-4.52055 Y-2.87636
G01 X-4.52114 Y-2.87778
G01 X-4.52222 Y-2.87886
G01 X-4.52290 Y-2.87923
G01 X-4.52441 Y-2.87953
G01 X-4.53056 Y-2.87953
G01 X-4.53056 Y-2.89854
G01 X-4.40154 Y-3.02755
G01 X-4.39846 Y-3.03158
G01 X-4.39651 Y-3.03627
G01 X-4.39585 Y-3.04130
G01 X-4.39585 Y-3.24550
G04 P0 ( dwell for no time -- G64 should not smooth over this point )
G00 Z0.08000 ( retract )

G00 X-4.44102 Y-3.16578 ( rapid move to begin. )
G01 F180.00000
( Mill infeed pass 1/1 )
G01 Z-0.04000
G04 P0 ( dwell for no time -- G64 should not smooth over this point )
G01 F360.00000
G01 X-4.44102 Y-3.16578
G01 X-4.44158 Y-3.16050
G01 X-4.44102 Y-3.16578
G01 X-4.44212 Y-3.16061
G01 X-4.44278 Y-3.15858
G01 X-4.44513 Y-3.15332
G01 X-4.44620 Y-3.15146
G01 X-4.44958 Y-3.14680
G01 X-4.45102 Y-3.14521
G01 X-4.45530 Y-3.14136
G01 X-4.45703 Y-3.14010
G01 X-4.46202 Y-3.13722
G01 X-4.46397 Y-3.13635
G01 X-4.46945 Y-3.13457
G01 X-4.47155 Y-3.13412
G01 X-4.47835 Y-3.13346
G01 X-4.52165 Y-3.13346
G01 X-4.52845 Y-3.13412
G01 X-4.53055 Y-3.13457
G01 X-4.53603 Y-3.13635
G01 X-4.53798 Y-3.13722
G01 X-4.54387 Y-3.14068
G01 X-4.54926 Y-3.14552
G01 X-4.57886 Y-3.14552
G01 X-4.74911 Y-2.97527
G01 X-4.74911 Y-2.95502
G01 X-4.74932 Y-2.95105
G01 X-4.74911 Y-2.94498
G01 X-4.74932 Y-2.95105
G01 X-4.74889 Y-2.95927
G01 X-4.74735 Y-2.96971
G01 X-4.74632 Y-2.97411
G01 X-4.74075 Y-2.98115
G01 X-4.73329 Y-2.98882
G01 X-4.72702 Y-2.99418
G01 X-4.72490 Y-2.99581
G01 X-4.71800 Y-3.00054
G01 X-4.71530 Y-3.00220
G01 X-4.71087 Y-3.00460
G01 X-4.70584 Y-3.00558
G01 X-4.69589 Y-3.00567
G01 X-4.69245 Y-3.00531
G01 X-4.68440 Y-3.00360
G01 X-4.68111 Y-3.00253
G01 X-4.67206 Y-2.99840
G01 X-4.66395 Y-2.99262
G01 X-4.66138 Y-2.99031
G01 X-4.65588 Y-2.98419
G01 X-4.65384 Y-2.98140
G01 X-4.64895 Y-2.97273
G01 X-4.64578 Y-2.96329
G01 X-4.64506 Y-2.95991
G01 X-4.64421 Y-2.95173
G01 X-4.64421 Y-2.94827
G01 X-4.64504 Y-2.94034
G01 X-4.58939 Y-2.88469
G01 X-4.58728 Y-2.88728
G01 X-4.58478 Y-2.88934
G01 X-4.58204 Y-2.89080
G01 X-4.58204 Y-2.90659
G01 X-4.58136 Y-2.91276
G01 X-4.58094 Y-2.91488
G01 X-4.57870 Y-2.92067
G01 X-4.57774 Y-2.92261
G01 X-4.57408 Y-2.92762
G01 X-4.57265 Y-2.92924
G01 X-4.44733 Y-3.05457
G01 X-4.44733 Y-3.14006
G01 X-4.44958 Y-3.13500
G01 X-4.45169 Y-3.13086
G01 X-4.45362 Y-3.12752
G01 X-4.45785 Y-3.12522
G01 X-4.46556 Y-3.12258
G01 X-4.47023 Y-3.12159
G01 X-4.47596 Y-3.12099
G01 X-4.47835 Y-3.12087
G01 X-4.52165 Y-3.12087
G01 X-4.52977 Y-3.12159
G01 X-4.53213 Y-3.12197
G01 X-4.53444 Y-3.12258
G01 X-4.53992 Y-3.12437
G01 X-4.54428 Y-3.12631
G01 X-4.55127 Y-3.13049
G01 X-4.55417 Y-3.13293
G01 X-4.57364 Y-3.13293
G01 X-4.69472 Y-3.01185
G01 X-4.70411 Y-3.00803
G01 X-4.70776 Y-3.00629
G01 X-4.71087 Y-3.00460
G01 X-4.70776 Y-3.00629
G01 X-4.70411 Y-3.00803
G01 X-4.69457 Y-3.01190
G01 X-4.69114 Y-3.01147
G01 X-4.68309 Y-3.00976
G01 X-4.67855 Y-3.00828
G01 X-4.67104 Y-3.00494
G01 X-4.66891 Y-3.00385
G01 X-4.66690 Y-3.00255
G01 X-4.66025 Y-2.99772
G01 X-4.65670 Y-2.99452
G01 X-4.64969 Y-2.98655
G01 X-4.64428 Y-2.97742
G01 X-4.64319 Y-2.97529
G01 X-4.64233 Y-2.97306
G01 X-4.63979 Y-2.96524
G01 X-4.63880 Y-2.96057
G01 X-4.63794 Y-2.95239
G01 X-4.63794 Y-2.94761
G01 X-4.63846 Y-2.94267
G01 X-4.58942 Y-2.89364
G01 X-4.58833 Y-2.89453
G01 X-4.58833 Y-2.90659
G01 X-4.58814 Y-2.90957
G01 X-4.58761 Y-2.91358
G01 X-4.58703 Y-2.91651
G01 X-4.58607 Y-2.91934
G01 X-4.58452 Y-2.92308
G01 X-4.58320 Y-2.92576
G01 X-4.58154 Y-2.92824
G01 X-4.57908 Y-2.93145
G01 X-4.57711 Y-2.93370
G01 X-4.45362 Y-3.05718
G01 X-4.45362 Y-3.12752
G01 X-4.45169 Y-3.13086
G01 X-4.44958 Y-3.13500
G01 X-4.44701 Y-3.14076
G01 X-4.44576 Y-3.14402
G01 X-4.44317 Y-3.15245
G01 X-4.44158 Y-3.16050
G01 X-4.44317 Y-3.15245
G01 X-4.44388 Y-3.14978
G01 X-4.44576 Y-3.14402
G01 X-4.44733 Y-3.14006
G01 X-4.45108 Y-3.13667
G01 X-4.45388 Y-3.13464
G01 X-4.45887 Y-3.13176
G01 X-4.46203 Y-3.13036
G01 X-4.46751 Y-3.12858
G01 X-4.47089 Y-3.12786
G01 X-4.47835 Y-3.12717
G01 X-4.52165 Y-3.12717
G01 X-4.52911 Y-3.12786
G01 X-4.53249 Y-3.12858
G01 X-4.53797 Y-3.13036
G01 X-4.54113 Y-3.13176
G01 X-4.54757 Y-3.13559
G01 X-4.55175 Y-3.13922
G01 X-4.57625 Y-3.13922
G01 X-4.71087 Y-3.00460
G01 X-4.71530 Y-3.00220
G01 X-4.71800 Y-3.00054
G01 X-4.72490 Y-2.99581
G01 X-4.72702 Y-2.99418
G01 X-4.73329 Y-2.98882
G01 X-4.74075 Y-2.98115
G01 X-4.74632 Y-2.97411
G01 X-4.74735 Y-2.96971
G01 X-4.74866 Y-2.96148
G01 X-4.74911 Y-2.95502
G01 X-4.74867 Y-2.95925
G01 X-4.74822 Y-2.96134
G01 X-4.74568 Y-2.96917
G01 X-4.74481 Y-2.97112
G01 X-4.74070 Y-2.97825
G01 X-4.73944 Y-2.97998
G01 X-4.73394 Y-2.98609
G01 X-4.73235 Y-2.98752
G01 X-4.72479 Y-2.99294
G01 X-4.71632 Y-2.99677
G01 X-4.71429 Y-2.99744
G01 X-4.70624 Y-2.99915
G01 X-4.70411 Y-2.99937
G01 X-4.69482 Y-2.99931
G01 X-4.68571 Y-2.99744
G01 X-4.68368 Y-2.99677
G01 X-4.67616 Y-2.99343
G01 X-4.67431 Y-2.99236
G01 X-4.66765 Y-2.98752
G01 X-4.66606 Y-2.98609
G01 X-4.65988 Y-2.97915
G01 X-4.65470 Y-2.97017
G01 X-4.65177 Y-2.96134
G01 X-4.65133 Y-2.95925
G01 X-4.65047 Y-2.95107
G01 X-4.65047 Y-2.94893
G01 X-4.65133 Y-2.94075
G01 X-4.65189 Y-2.93829
G01 X-4.58934 Y-2.87574
G01 X-4.58581 Y-2.87574
G01 X-4.58563 Y-2.87759
G01 X-4.58505 Y-2.87951
G01 X-4.58410 Y-2.88128
G01 X-4.58283 Y-2.88283
G01 X-4.58128 Y-2.88410
G01 X-4.57951 Y-2.88505
G01 X-4.57759 Y-2.88563
G01 X-4.57574 Y-2.88581
G01 X-4.57574 Y-2.90659
G01 X-4.57512 Y-2.91194
G01 X-4.57443 Y-2.91452
G01 X-4.57229 Y-2.91946
G01 X-4.56908 Y-2.92378
G01 X-4.44103 Y-3.05196
G01 X-4.44102 Y-3.16578
G01 X-4.44086 Y-3.16838
G01 X-4.44086 Y-3.17414
G01 X-4.44103 Y-3.17674
G01 X-4.44103 Y-3.22426
G01 X-4.45074 Y-3.22426
G01 X-4.45530 Y-3.22010
G01 X-4.45703 Y-3.21884
G01 X-4.46297 Y-3.21547
G01 X-4.46945 Y-3.21331
G01 X-4.47155 Y-3.21286
G01 X-4.47835 Y-3.21220
G01 X-4.52165 Y-3.21220
G01 X-4.52845 Y-3.21286
G01 X-4.53055 Y-3.21331
G01 X-4.53603 Y-3.21509
G01 X-4.53798 Y-3.21596
G01 X-4.54387 Y-3.21942
G01 X-4.54898 Y-3.22395
G01 X-4.55042 Y-3.22554
G01 X-4.55380 Y-3.23020
G01 X-4.55487 Y-3.23206
G01 X-4.55722 Y-3.23732
G01 X-4.55788 Y-3.23936
G01 X-4.55907 Y-3.24499
G01 X-4.55930 Y-3.24712
G01 X-4.55930 Y-3.25288
G01 X-4.55907 Y-3.25501
G01 X-4.55788 Y-3.26064
G01 X-4.55722 Y-3.26268
G01 X-4.55438 Y-3.26890
G01 X-4.55042 Y-3.27446
G01 X-4.54898 Y-3.27605
G01 X-4.54387 Y-3.28058
G01 X-4.53798 Y-3.28404
G01 X-4.53603 Y-3.28491
G01 X-4.53055 Y-3.28669
G01 X-4.52845 Y-3.28714
G01 X-4.52165 Y-3.28780
G01 X-4.47835 Y-3.28780
G01 X-4.47155 Y-3.28714
G01 X-4.46945 Y-3.28669
G01 X-4.46397 Y-3.28491
G01 X-4.46202 Y-3.28404
G01 X-4.45613 Y-3.28058
G01 X-4.45074 Y-3.27574
G01 X-4.41979 Y-3.27574
G01 X-4.41576 Y-3.27539
G01 X-4.41379 Y-3.27500
G01 X-4.41089 Y-3.27412
G01 X-4.40903 Y-3.27335
G01 X-4.40635 Y-3.27191
G01 X-4.40468 Y-3.27080
G01 X-4.40159 Y-3.26820
G01 X-4.39709 Y-3.26370
G01 X-4.39300 Y-3.25837
G01 X-4.39043 Y-3.25216
G01 X-4.38955 Y-3.24550
G01 X-4.38955 Y-3.04130
G01 X-4.39043 Y-3.03464
G01 X-4.39241 Y-3.02963
G01 X-4.39375 Y-3.02732
G01 X-4.39709 Y-3.02310
G01 X-4.52426 Y-2.89593
G01 X-4.52426 Y-2.88581
G01 X-4.52241 Y-2.88563
G01 X-4.52049 Y-2.88505
G01 X-4.51872 Y-2.88410
G01 X-4.51717 Y-2.88283
G01 X-4.51590 Y-2.88128
G01 X-4.51495 Y-2.87951
G01 X-4.51437 Y-2.87759
G01 X-4.51417 Y-2.87559
G01 X-4.51417 Y-2.82441
G01 X-4.51437 Y-2.82241
G01 X-4.51495 Y-2.82049
G01 X-4.51590 Y-2.81872
G01 X-4.51717 Y-2.81717
G01 X-4.51872 Y-2.81590
G01 X-4.52049 Y-2.81495
G01 X-4.52251 Y-2.81465
G01 X-4.45689 Y-2.81465
G01 X-4.45425 Y-2.81448
G01 X-4.44890 Y-2.81448
G01 X-4.44143 Y-2.81515
G01 X-4.43915 Y-2.81551
G01 X-4.43117 Y-2.81736
G01 X-4.42513 Y-2.81933
G01 X-4.29833 Y-2.81938
G01 X-4.29136 Y-2.81996
G01 X-4.28783 Y-2.82056
G01 X-4.28412 Y-2.82141
G01 X-4.28059 Y-2.82243
G01 X-4.27640 Y-2.82390
G01 X-4.27287 Y-2.82536
G01 X-4.26898 Y-2.82724
G01 X-4.17277 Y-2.82724
G01 X-4.02291 Y-2.97711
G01 X-4.01890 Y-2.98054
G01 X-4.01518 Y-2.98303
G01 X-4.01250 Y-2.98446
G01 X-4.00836 Y-2.98617
G01 X-4.00545 Y-2.98705
G01 X-4.00106 Y-2.98793
G01 X-3.99580 Y-2.98833
G01 X-3.69886 Y-2.98833
G01 X-3.69330 Y-2.99452
G01 X-3.68975 Y-2.99772
G01 X-3.68310 Y-3.00255
G01 X-3.67896 Y-3.00494
G01 X-3.67145 Y-3.00828
G01 X-3.66691 Y-3.00976
G01 X-3.65886 Y-3.01147
G01 X-3.65650 Y-3.01184
G01 X-3.65411 Y-3.01197
G01 X-3.64589 Y-3.01197
G01 X-3.64350 Y-3.01184
G01 X-3.64114 Y-3.01147
G01 X-3.63309 Y-3.00976
G01 X-3.62855 Y-3.00828
G01 X-3.62104 Y-3.00494
G01 X-3.61690 Y-3.00255
G01 X-3.61025 Y-2.99772
G01 X-3.60670 Y-2.99452
G01 X-3.60114 Y-2.98833
G01 X-3.59619 Y-2.98822
G01 X-3.59317 Y-2.98793
G01 X-3.58878 Y-2.98705
G01 X-3.58587 Y-2.98617
G01 X-3.58173 Y-2.98446
G01 X-3.57905 Y-2.98303
G01 X-3.57533 Y-2.98054
G01 X-3.57132 Y-2.97711
G01 X-3.49212 Y-2.89790
G01 X-3.48577 Y-2.89667
G01 X-3.48123 Y-2.89520
G01 X-3.47634 Y-2.89302
G01 X-3.47421 Y-2.89194
G01 X-3.47221 Y-2.89064
G01 X-3.46788 Y-2.88749
G01 X-3.46433 Y-2.88430
G01 X-3.46075 Y-2.88032
G01 X-3.45925 Y-2.87846
G01 X-3.45795 Y-2.87646
G01 X-3.45527 Y-2.87182
G01 X-3.45333 Y-2.86746
G01 X-3.45168 Y-2.86238
G01 X-3.45106 Y-2.86007
G01 X-3.45068 Y-2.85771
G01 X-3.45012 Y-2.85239
G01 X-3.45012 Y-2.84761
G01 X-3.45106 Y-2.83993
G01 X-3.45333 Y-2.83254
G01 X-3.45527 Y-2.82817
G01 X-3.45925 Y-2.82154
G01 X-3.46433 Y-2.81570
G01 X-3.46788 Y-2.81251
G01 X-3.47221 Y-2.80936
G01 X-3.47634 Y-2.80698
G01 X-3.47745 Y-2.80648
G01 X-3.43955 Y-2.80647
G01 X-3.44174 Y-2.80826
G01 X-3.44458 Y-2.81172
G01 X-3.44669 Y-2.81567
G01 X-3.44799 Y-2.81995
G01 X-3.44842 Y-2.82441
G01 X-3.44842 Y-2.87559
G01 X-3.44799 Y-2.88004
G01 X-3.44669 Y-2.88433
G01 X-3.44458 Y-2.88828
G01 X-3.44174 Y-2.89174
G01 X-3.43828 Y-2.89458
G01 X-3.43433 Y-2.89669
G01 X-3.43004 Y-2.89799
G01 X-3.42559 Y-2.89843
G01 X-3.37441 Y-2.89843
G01 X-3.36995 Y-2.89799
G01 X-3.36567 Y-2.89669
G01 X-3.36172 Y-2.89458
G01 X-3.36058 Y-2.89364
G01 X-3.31154 Y-2.94267
G01 X-3.31218 Y-2.95000
G01 X-3.31120 Y-2.96057
G01 X-3.31021 Y-2.96524
G01 X-3.30767 Y-2.97306
G01 X-3.30572 Y-2.97742
G01 X-3.30031 Y-2.98655
G01 X-3.29330 Y-2.99452
G01 X-3.28975 Y-2.99772
G01 X-3.28833 Y-2.99875
G01 X-3.28833 Y-3.16433
G01 X-3.33567 Y-3.21166
G01 X-3.34583 Y-3.21166
G01 X-3.34700 Y-3.21063
G01 X-3.35865 Y-3.21063
G01 X-3.35243 Y-3.20693
G01 X-3.34680 Y-3.20199
G01 X-3.34449 Y-3.19942
G01 X-3.34016 Y-3.19331
G01 X-3.33703 Y-3.18650
G01 X-3.33596 Y-3.18321
G01 X-3.33449 Y-3.17587
G01 X-3.33449 Y-3.16665
G01 X-3.33596 Y-3.15930
G01 X-3.33703 Y-3.15602
G01 X-3.33937 Y-3.15075
G01 X-3.34110 Y-3.14776
G01 X-3.34449 Y-3.14310
G01 X-3.34680 Y-3.14053
G01 X-3.35108 Y-3.13667
G01 X-3.35388 Y-3.13464
G01 X-3.35887 Y-3.13176
G01 X-3.36203 Y-3.13036
G01 X-3.36751 Y-3.12858
G01 X-3.37089 Y-3.12786
G01 X-3.37662 Y-3.12725
G01 X-3.42165 Y-3.12717
G01 X-3.42911 Y-3.12786
G01 X-3.43249 Y-3.12858
G01 X-3.43797 Y-3.13036
G01 X-3.44113 Y-3.13176
G01 X-3.44757 Y-3.13559
G01 X-3.45147 Y-3.13897
G01 X-4.02943 Y-3.13897
G01 X-4.26771 Y-2.90069
G01 X-4.26771 Y-2.85000
G01 X-4.26821 Y-2.84464
G01 X-4.26852 Y-2.84281
G01 X-4.26904 Y-2.84103
G01 X-4.27091 Y-2.83599
G01 X-4.27181 Y-2.83437
G01 X-4.27476 Y-2.82987
G01 X-4.27599 Y-2.82849
G01 X-4.27987 Y-2.82476
G01 X-4.28437 Y-2.82181
G01 X-4.28616 Y-2.82095
G01 X-4.28059 Y-2.82243
G01 X-4.27640 Y-2.82390
G01 X-4.27287 Y-2.82536
G01 X-4.26898 Y-2.82724
G01 X-4.17277 Y-2.82724
G01 X-4.02291 Y-2.97711
G01 X-4.01890 Y-2.98054
G01 X-4.01518 Y-2.98303
G01 X-4.01250 Y-2.98446
G01 X-4.00836 Y-2.98617
G01 X-4.00545 Y-2.98705
G01 X-4.00106 Y-2.98793
G01 X-3.99580 Y-2.98833
G01 X-3.69886 Y-2.98833
G01 X-3.69330 Y-2.99452
G01 X-3.68975 Y-2.99772
G01 X-3.68310 Y-3.00255
G01 X-3.67896 Y-3.00494
G01 X-3.67145 Y-3.00828
G01 X-3.66691 Y-3.00976
G01 X-3.65886 Y-3.01147
G01 X-3.65650 Y-3.01184
G01 X-3.65411 Y-3.01197
G01 X-3.64350 Y-3.01184
G01 X-3.63309 Y-3.00976
G01 X-3.62855 Y-3.00828
G01 X-3.62104 Y-3.00494
G01 X-3.61690 Y-3.00255
G01 X-3.61025 Y-2.99772
G01 X-3.60670 Y-2.99452
G01 X-3.60114 Y-2.98833
G01 X-3.59619 Y-2.98822
G01 X-3.59317 Y-2.98793
G01 X-3.58878 Y-2.98705
G01 X-3.58587 Y-2.98617
G01 X-3.58173 Y-2.98446
G01 X-3.57905 Y-2.98303
G01 X-3.57533 Y-2.98054
G01 X-3.57132 Y-2.97711
G01 X-3.49212 Y-2.89790
G01 X-3.48577 Y-2.89667
G01 X-3.48123 Y-2.89520
G01 X-3.47634 Y-2.89302
G01 X-3.47421 Y-2.89194
G01 X-3.47221 Y-2.89064
G01 X-3.46788 Y-2.88749
G01 X-3.46433 Y-2.88430
G01 X-3.45925 Y-2.87846
G01 X-3.45527 Y-2.87182
G01 X-3.45333 Y-2.86746
G01 X-3.45106 Y-2.86007
G01 X-3.45012 Y-2.85239
G01 X-3.46892 Y-2.85041
G01 X-3.46954 Y-2.85614
G01 X-3.47130 Y-2.86163
G01 X-3.47454 Y-2.86735
G01 X-3.47838 Y-2.87165
G01 X-3.48366 Y-2.87557
G01 X-3.48891 Y-2.87793
G01 X-3.49493 Y-2.87930
G01 X-3.50033 Y-2.87939
G01 X-3.58468 Y-2.96374
G01 X-3.58732 Y-2.96593
G01 X-3.59064 Y-2.96779
G01 X-3.59502 Y-2.96912
G01 X-3.59843 Y-2.96944
G01 X-3.61149 Y-2.96944
G01 X-3.61498 Y-2.97544
G01 X-3.62074 Y-2.98188
G01 X-3.62836 Y-2.98749
G01 X-3.63702 Y-2.99127
G01 X-3.64547 Y-2.99305
G01 X-3.65411 Y-2.99307
G01 X-3.66298 Y-2.99127
G01 X-3.67199 Y-2.98726
G01 X-3.67926 Y-2.98188
G01 X-3.68502 Y-2.97544
G01 X-3.68851 Y-2.96944
G01 X-3.99580 Y-2.96944
G01 X-3.99921 Y-2.96912
G01 X-4.00287 Y-2.96809
G01 X-4.00627 Y-2.96636
G01 X-4.00954 Y-2.96374
G01 X-4.16494 Y-2.80835
G01 X-4.64164 Y-2.80835
G01 X-4.75541 Y-2.92212
G01 X-4.75541 Y-2.97788
G01 X-4.58147 Y-3.15182
G01 X-4.54628 Y-3.15182
G01 X-4.54477 Y-3.14989
G01 X-4.53982 Y-3.14555
G01 X-4.53408 Y-3.14234
G01 X-4.52779 Y-3.14039
G01 X-4.52165 Y-3.13976
G01 X-4.47835 Y-3.13976
G01 X-4.47180 Y-3.14045
G01 X-4.46517 Y-3.14267
G01 X-4.46018 Y-3.14555
G01 X-4.45523 Y-3.14989
G01 X-4.45107 Y-3.15551
G01 X-4.44854 Y-3.16114
G01 X-4.44709 Y-3.16756
G01 X-4.44700 Y-3.17414
G01 X-4.44829 Y-3.18059
G01 X-4.45107 Y-3.18701
G01 X-4.45468 Y-3.19201
G01 X-4.46018 Y-3.19697
G01 X-4.46592 Y-3.20018
G01 X-4.47180 Y-3.20207
G01 X-4.47793 Y-3.20273
G01 X-4.52165 Y-3.20275
G01 X-4.52820 Y-3.20207
G01 X-4.53408 Y-3.20018
G01 X-4.53982 Y-3.19697
G01 X-4.54477 Y-3.19263
G01 X-4.54628 Y-3.19070
G01 X-4.58990 Y-3.19068
G01 X-4.59293 Y-3.19038
G01 X-4.59659 Y-3.18935
G01 X-4.60063 Y-3.18719
G01 X-4.60326 Y-3.18500
G01 X-4.78859 Y-2.99967
G01 X-4.79168 Y-2.99565
G01 X-4.79362 Y-2.99096
G01 X-4.79429 Y-2.98593
G01 X-4.79429 Y-2.91407
G01 X-4.79362 Y-2.90904
G01 X-4.79168 Y-2.90435
G01 X-4.78859 Y-2.90033
G01 X-4.66343 Y-2.77516
G01 X-4.66016 Y-2.77255
G01 X-4.65748 Y-2.77112
G01 X-4.65386 Y-2.76994
G01 X-4.64969 Y-2.76947
G01 X-4.15689 Y-2.76947
G01 X-4.15272 Y-2.76994
G01 X-4.14910 Y-2.77112
G01 X-4.14642 Y-2.77255
G01 X-4.14314 Y-2.77516
G01 X-3.98775 Y-2.93056
G01 X-3.68851 Y-2.93056
G01 X-3.68502 Y-2.92456
G01 X-3.67926 Y-2.91812
G01 X-3.67199 Y-2.91274
G01 X-3.66298 Y-2.90872
G01 X-3.65411 Y-2.90693
G01 X-3.64547 Y-2.90695
G01 X-3.63702 Y-2.90872
G01 X-3.62872 Y-2.91233
G01 X-3.62074 Y-2.91812
G01 X-3.61498 Y-2.92456
G01 X-3.61149 Y-2.93056
G01 X-3.60648 Y-2.93056
G01 X-3.52778 Y-2.85186
G01 X-3.52793 Y-2.84959
G01 X-3.52731 Y-2.84386
G01 X-3.52521 Y-2.83762
G01 X-3.52231 Y-2.83264
G01 X-3.51847 Y-2.82835
G01 X-3.51319 Y-2.82443
G01 X-3.50715 Y-2.82181
G01 X-3.50110 Y-2.82061
G01 X-3.49575 Y-2.82061
G01 X-3.48930 Y-2.82192
G01 X-3.48332 Y-2.82465
G01 X-3.47899 Y-2.82780
G01 X-3.47480 Y-2.83232
G01 X-3.47164 Y-2.83762
G01 X-3.46954 Y-2.84386
G01 X-3.46892 Y-2.85041
G04 P0 ( dwell for no time -- G64 should not smooth over this point )
G00 Z0.08000 ( retract )

G00 X-3.12981 Y-3.21762 ( rapid move to begin. )
G01 F180.00000
( Mill infeed pass 1/1 )
G01 Z-0.04000
G04 P0 ( dwell for no time -- G64 should not smooth over this point )
G01 F360.00000
G01 X-3.12981 Y-3.21762
G01 X-3.12981 Y-2.81071
G01 X-3.13022 Y-2.80545
G01 X-3.13110 Y-2.80106
G01 X-3.13198 Y-2.79815
G01 X-3.13369 Y-2.79401
G01 X-3.13512 Y-2.79133
G01 X-3.13761 Y-2.78761
G01 X-3.13954 Y-2.78526
G01 X-3.14104 Y-2.78360
G01 X-3.18360 Y-2.74104
G01 X-3.18526 Y-2.73954
G01 X-3.18761 Y-2.73761
G01 X-3.19133 Y-2.73512
G01 X-3.19401 Y-2.73369
G01 X-3.19815 Y-2.73198
G01 X-3.20106 Y-2.73110
G01 X-3.20545 Y-2.73022
G01 X-3.21071 Y-2.72981
G01 X-3.55707 Y-2.72981
G01 X-3.68763 Y-2.59925
G01 X-3.69285 Y-2.59490
G01 X-3.69572 Y-2.59297
G01 X-3.69840 Y-2.59154
G01 X-3.70254 Y-2.58983
G01 X-3.70545 Y-2.58895
G01 X-3.70984 Y-2.58807
G01 X-3.71510 Y-2.58766
G01 X-3.72327 Y-2.58766
G01 X-3.72327 Y-2.55710
G01 X-3.72370 Y-2.55265
G01 X-3.72500 Y-2.54836
G01 X-3.72711 Y-2.54441
G01 X-3.72995 Y-2.54095
G01 X-3.73341 Y-2.53811
G01 X-3.73736 Y-2.53600
G01 X-3.74165 Y-2.53470
G01 X-3.74610 Y-2.53426
G01 X-3.85252 Y-2.53426
G01 X-3.90599 Y-2.48079
G01 X-3.90827 Y-2.47879
G01 X-3.90827 Y-2.44183
G01 X-3.91110 Y-2.43900
G01 X-3.91610 Y-2.43462
G01 X-3.92110 Y-2.43150
G01 X-3.92610 Y-2.42962
G01 X-3.93110 Y-2.42900
G01 X-4.06890 Y-2.42900
G01 X-4.07252 Y-2.42945
G01 X-4.07459 Y-2.43049
G01 X-4.07614 Y-2.43176
G01 X-4.07741 Y-2.43331
G01 X-4.07836 Y-2.43508
G01 X-4.07894 Y-2.43700
G01 X-4.07914 Y-2.43900
G01 X-4.07914 Y-2.57680
G01 X-4.07894 Y-2.57880
G01 X-4.07836 Y-2.58072
G01 X-4.07741 Y-2.58249
G01 X-4.07614 Y-2.58404
G01 X-4.07459 Y-2.58531
G01 X-4.07282 Y-2.58626
G01 X-4.07090 Y-2.58684
G01 X-4.06890 Y-2.58704
G01 X-3.93110 Y-2.58704
G01 X-3.92910 Y-2.58684
G01 X-3.92718 Y-2.58626
G01 X-3.92541 Y-2.58531
G01 X-3.92386 Y-2.58404
G01 X-3.92259 Y-2.58249
G01 X-3.92164 Y-2.58072
G01 X-3.92106 Y-2.57880
G01 X-3.92086 Y-2.57680
G01 X-3.92086 Y-2.55653
G01 X-3.89414 Y-2.58326
G01 X-3.89414 Y-2.69490
G01 X-3.89394 Y-2.69690
G01 X-3.89336 Y-2.69882
G01 X-3.89241 Y-2.70059
G01 X-3.89114 Y-2.70214
G01 X-3.88959 Y-2.70341
G01 X-3.88782 Y-2.70436
G01 X-3.88590 Y-2.70494
G01 X-3.88390 Y-2.70514
G01 X-3.74610 Y-2.70514
G01 X-3.74410 Y-2.70494
G01 X-3.74218 Y-2.70436
G01 X-3.74041 Y-2.70341
G01 X-3.73886 Y-2.70214
G01 X-3.73759 Y-2.70059
G01 X-3.73664 Y-2.69882
G01 X-3.73606 Y-2.69690
G01 X-3.73586 Y-2.69490
G01 X-3.73586 Y-2.65174
G01 X-3.72576 Y-2.65174
G01 X-3.59115 Y-2.78635
G01 X-3.58806 Y-2.78895
G01 X-3.58639 Y-2.79006
G01 X-3.58371 Y-2.79150
G01 X-3.58185 Y-2.79226
G01 X-3.57895 Y-2.79315
G01 X-3.57698 Y-2.79354
G01 X-3.57295 Y-2.79389
G01 X-3.22137 Y-2.79389
G01 X-3.19389 Y-2.82137
G01 X-3.19389 Y-3.20696
G01 X-3.35999 Y-3.37306
G01 X-3.81091 Y-3.37306
G01 X-3.82426 Y-3.35971
G01 X-3.82426 Y-3.34961
G01 X-3.81260 Y-3.34961
G01 X-3.81060 Y-3.34941
G01 X-3.80868 Y-3.34883
G01 X-3.80691 Y-3.34788
G01 X-3.80536 Y-3.34661
G01 X-3.80409 Y-3.34506
G01 X-3.80314 Y-3.34329
G01 X-3.80256 Y-3.34137
G01 X-3.80236 Y-3.33937
G01 X-3.80236 Y-3.26063
G01 X-3.80256 Y-3.25863
G01 X-3.80314 Y-3.25671
G01 X-3.80409 Y-3.25494
G01 X-3.80536 Y-3.25339
G01 X-3.80691 Y-3.25212
G01 X-3.80868 Y-3.25117
G01 X-3.81060 Y-3.25059
G01 X-3.81260 Y-3.25039
G01 X-3.88740 Y-3.25039
G01 X-3.88940 Y-3.25059
G01 X-3.89132 Y-3.25117
G01 X-3.89309 Y-3.25212
G01 X-3.89464 Y-3.25339
G01 X-3.89591 Y-3.25494
G01 X-3.89686 Y-3.25671
G01 X-3.89744 Y-3.25863
G01 X-3.89764 Y-3.26063
G01 X-3.89764 Y-3.27426
G01 X-4.00236 Y-3.27426
G01 X-4.00236 Y-3.26063
G01 X-4.00256 Y-3.25863
G01 X-4.00314 Y-3.25671
G01 X-4.00409 Y-3.25494
G01 X-4.00536 Y-3.25339
G01 X-4.00691 Y-3.25212
G01 X-4.00868 Y-3.25117
G01 X-4.01060 Y-3.25059
G01 X-4.01260 Y-3.25039
G01 X-4.08740 Y-3.25039
G01 X-4.08940 Y-3.25059
G01 X-4.09132 Y-3.25117
G01 X-4.09309 Y-3.25212
G01 X-4.09464 Y-3.25339
G01 X-4.09591 Y-3.25494
G01 X-4.09686 Y-3.25671
G01 X-4.09744 Y-3.25863
G01 X-4.09764 Y-3.26063
G01 X-4.09764 Y-3.33937
G01 X-4.09744 Y-3.34137
G01 X-4.09686 Y-3.34329
G01 X-4.09591 Y-3.34506
G01 X-4.09464 Y-3.34661
G01 X-4.09309 Y-3.34788
G01 X-4.09132 Y-3.34883
G01 X-4.08940 Y-3.34941
G01 X-4.08740 Y-3.34961
G01 X-4.01260 Y-3.34961
G01 X-4.01060 Y-3.34941
G01 X-4.00868 Y-3.34883
G01 X-4.00691 Y-3.34788
G01 X-4.00536 Y-3.34661
G01 X-4.00409 Y-3.34506
G01 X-4.00314 Y-3.34329
G01 X-4.00256 Y-3.34137
G01 X-4.00236 Y-3.33937
G01 X-4.00236 Y-3.32574
G01 X-3.89764 Y-3.32574
G01 X-3.89764 Y-3.33937
G01 X-3.89744 Y-3.34137
G01 X-3.89686 Y-3.34329
G01 X-3.89591 Y-3.34506
G01 X-3.89464 Y-3.34661
G01 X-3.89309 Y-3.34788
G01 X-3.89132 Y-3.34883
G01 X-3.88940 Y-3.34941
G01 X-3.88740 Y-3.34961
G01 X-3.87574 Y-3.34961
G01 X-3.87574 Y-3.37037
G01 X-3.87539 Y-3.37440
G01 X-3.87500 Y-3.37636
G01 X-3.87412 Y-3.37927
G01 X-3.87335 Y-3.38113
G01 X-3.87191 Y-3.38381
G01 X-3.87080 Y-3.38548
G01 X-3.86820 Y-3.38857
G01 X-3.83977 Y-3.41700
G01 X-3.83668 Y-3.41960
G01 X-3.83501 Y-3.42071
G01 X-3.83233 Y-3.42215
G01 X-3.83047 Y-3.42292
G01 X-3.82756 Y-3.42380
G01 X-3.82560 Y-3.42419
G01 X-3.82257 Y-3.42449
G01 X-3.34933 Y-3.42454
G01 X-3.34530 Y-3.42419
G01 X-3.34333 Y-3.42380
G01 X-3.34043 Y-3.42292
G01 X-3.33857 Y-3.42215
G01 X-3.33589 Y-3.42071
G01 X-3.33422 Y-3.41960
G01 X-3.33113 Y-3.41700
G01 X-3.14995 Y-3.23582
G01 X-3.14586 Y-3.23049
G01 X-3.14329 Y-3.22428
G01 X-3.14241 Y-3.21762
G01 X-3.14241 Y-2.81071
G01 X-3.14276 Y-2.80668
G01 X-3.14315 Y-2.80471
G01 X-3.14403 Y-2.80181
G01 X-3.14480 Y-2.79995
G01 X-3.14623 Y-2.79727
G01 X-3.14735 Y-2.79560
G01 X-3.14995 Y-2.79251
G01 X-3.19326 Y-2.74928
G01 X-3.19560 Y-2.74735
G01 X-3.19727 Y-2.74623
G01 X-3.19995 Y-2.74480
G01 X-3.20181 Y-2.74403
G01 X-3.20471 Y-2.74315
G01 X-3.20668 Y-2.74276
G01 X-3.21071 Y-2.74241
G01 X-3.56229 Y-2.74241
G01 X-3.69690 Y-2.60780
G01 X-3.69999 Y-2.60520
G01 X-3.70166 Y-2.60408
G01 X-3.70434 Y-2.60265
G01 X-3.70620 Y-2.60188
G01 X-3.70910 Y-2.60100
G01 X-3.71107 Y-2.60061
G01 X-3.71510 Y-2.60026
G01 X-3.73586 Y-2.60026
G01 X-3.73586 Y-2.55710
G01 X-3.73606 Y-2.55510
G01 X-3.73664 Y-2.55318
G01 X-3.73759 Y-2.55141
G01 X-3.73886 Y-2.54986
G01 X-3.74041 Y-2.54859
G01 X-3.74218 Y-2.54764
G01 X-3.74410 Y-2.54706
G01 X-3.74610 Y-2.54686
G01 X-3.85774 Y-2.54686
G01 X-3.91490 Y-2.48970
G01 X-3.91799 Y-2.48710
G01 X-3.92086 Y-2.48534
G01 X-3.92086 Y-2.43900
G01 X-3.92106 Y-2.43700
G01 X-3.92164 Y-2.43508
G01 X-3.92259 Y-2.43331
G01 X-3.92386 Y-2.43176
G01 X-3.92541 Y-2.43049
G01 X-3.92748 Y-2.42945
G01 X-3.93110 Y-2.42900
G01 X-4.06890 Y-2.42900
G01 X-4.07080 Y-2.42924
G01 X-4.14284 Y-2.42924
G01 X-4.25189 Y-2.53829
G01 X-4.25133 Y-2.54075
G01 X-4.25083 Y-2.54553
G01 X-4.01197 Y-2.66496
G01 X-3.93110 Y-2.66496
G01 X-3.92910 Y-2.66516
G01 X-3.92718 Y-2.66574
G01 X-3.92541 Y-2.66669
G01 X-3.92386 Y-2.66796
G01 X-3.92259 Y-2.66951
G01 X-3.92164 Y-2.67128
G01 X-3.92106 Y-2.67320
G01 X-3.92086 Y-2.67520
G01 X-3.92086 Y-2.81300
G01 X-3.92106 Y-2.81500
G01 X-3.92164 Y-2.81692
G01 X-3.92259 Y-2.81869
G01 X-3.92386 Y-2.82024
G01 X-3.92541 Y-2.82151
G01 X-3.92718 Y-2.82246
G01 X-3.92910 Y-2.82304
G01 X-3.93110 Y-2.82324
G01 X-4.06890 Y-2.82324
G01 X-4.07090 Y-2.82304
G01 X-4.07282 Y-2.82246
G01 X-4.07459 Y-2.82151
G01 X-4.07614 Y-2.82024
G01 X-4.07741 Y-2.81869
G01 X-4.07836 Y-2.81692
G01 X-4.07894 Y-2.81500
G01 X-4.07914 Y-2.81300
G01 X-4.07914 Y-2.68948
G01 X-4.27393 Y-2.59209
G01 X-4.27616 Y-2.59343
G01 X-4.28368 Y-2.59678
G01 X-4.28571 Y-2.59744
G01 X-4.29482 Y-2.59931
G01 X-4.30518 Y-2.59931
G01 X-4.31429 Y-2.59744
G01 X-4.31632 Y-2.59678
G01 X-4.32479 Y-2.59294
G01 X-4.33235 Y-2.58752
G01 X-4.33394 Y-2.58609
G01 X-4.33944 Y-2.57998
G01 X-4.34073 Y-2.57819
G01 X-4.34199 Y-2.57599
G01 X-4.65801 Y-2.57599
G01 X-4.65986 Y-2.57912
G01 X-4.66606 Y-2.58609
G01 X-4.66765 Y-2.58752
G01 X-4.67431 Y-2.59236
G01 X-4.67616 Y-2.59343
G01 X-4.68368 Y-2.59678
G01 X-4.68571 Y-2.59744
G01 X-4.69376 Y-2.59915
G01 X-4.69589 Y-2.59937
G01 X-4.70518 Y-2.59931
G01 X-4.71429 Y-2.59744
G01 X-4.71632 Y-2.59678
G01 X-4.72479 Y-2.59294
G01 X-4.73235 Y-2.58752
G01 X-4.73394 Y-2.58609
G01 X-4.74012 Y-2.57915
G01 X-4.74530 Y-2.57017
G01 X-4.74822 Y-2.56134
G01 X-4.74867 Y-2.55925
G01 X-4.74953 Y-2.55107
G01 X-4.74953 Y-2.54893
G01 X-4.74867 Y-2.54075
G01 X-4.74822 Y-2.53865
G01 X-4.74568 Y-2.53083
G01 X-4.74481 Y-2.52888
G01 X-4.74012 Y-2.52085
G01 X-4.73394 Y-2.51391
G01 X-4.73235 Y-2.51247
G01 X-4.72479 Y-2.50706
G01 X-4.71632 Y-2.50322
G01 X-4.71429 Y-2.50256
G01 X-4.70624 Y-2.50085
G01 X-4.70411 Y-2.50063
G01 X-4.69482 Y-2.50068
G01 X-4.68571 Y-2.50256
G01 X-4.68368 Y-2.50322
G01 X-4.67616 Y-2.50657
G01 X-4.67431 Y-2.50764
G01 X-4.66765 Y-2.51247
G01 X-4.66606 Y-2.51391
G01 X-4.65986 Y-2.52088
G01 X-4.65801 Y-2.52401
G01 X-4.34199 Y-2.52401
G01 X-4.34073 Y-2.52181
G01 X-4.33944 Y-2.52002
G01 X-4.33394 Y-2.51391
G01 X-4.33235 Y-2.51247
G01 X-4.32479 Y-2.50706
G01 X-4.31632 Y-2.50322
G01 X-4.31429 Y-2.50256
G01 X-4.30624 Y-2.50085
G01 X-4.30411 Y-2.50063
G01 X-4.29482 Y-2.50068
G01 X-4.28839 Y-2.50199
G01 X-4.17170 Y-2.38530
G01 X-4.16861 Y-2.38270
G01 X-4.16693 Y-2.38158
G01 X-4.16426 Y-2.38015
G01 X-4.16240 Y-2.37938
G01 X-4.15949 Y-2.37850
G01 X-4.15753 Y-2.37811
G01 X-4.15350 Y-2.37776
G01 X-3.79650 Y-2.37776
G01 X-3.79247 Y-2.37811
G01 X-3.79050 Y-2.37850
G01 X-3.78760 Y-2.37938
G01 X-3.78574 Y-2.38015
G01 X-3.78306 Y-2.38158
G01 X-3.78139 Y-2.38270
G01 X-3.77830 Y-2.38530
G01 X-3.66161 Y-2.50199
G01 X-3.65518 Y-2.50068
G01 X-3.64589 Y-2.50063
G01 X-3.64376 Y-2.50085
G01 X-3.63571 Y-2.50256
G01 X-3.63368 Y-2.50322
G01 X-3.62616 Y-2.50657
G01 X-3.62431 Y-2.50764
G01 X-3.61765 Y-2.51247
G01 X-3.61606 Y-2.51391
G01 X-3.61056 Y-2.52002
G01 X-3.60927 Y-2.52181
G01 X-3.60801 Y-2.52401
G01 X-3.29198 Y-2.52401
G01 X-3.29073 Y-2.52181
G01 X-3.28944 Y-2.52002
G01 X-3.28318 Y-2.51315
G01 X-3.27479 Y-2.50706
G01 X-3.26632 Y-2.50322
G01 X-3.26429 Y-2.50256
G01 X-3.25624 Y-2.50085
G01 X-3.25411 Y-2.50063
G01 X-3.24482 Y-2.50068
G01 X-3.23571 Y-2.50256
G01 X-3.23368 Y-2.50322
G01 X-3.22521 Y-2.50706
G01 X-3.21765 Y-2.51247
G01 X-3.21606 Y-2.51391
G01 X-3.20988 Y-2.52085
G01 X-3.20519 Y-2.52888
G01 X-3.20432 Y-2.53083
G01 X-3.20177 Y-2.53865
G01 X-3.20133 Y-2.54075
G01 X-3.20047 Y-2.54893
G01 X-3.20047 Y-2.55107
G01 X-3.20133 Y-2.55925
G01 X-3.20177 Y-2.56134
G01 X-3.20432 Y-2.56917
G01 X-3.20519 Y-2.57112
G01 X-3.20930 Y-2.57825
G01 X-3.21056 Y-2.57998
G01 X-3.21682 Y-2.58685
G01 X-3.22431 Y-2.59236
G01 X-3.22616 Y-2.59343
G01 X-3.23368 Y-2.59678
G01 X-3.23571 Y-2.59744
G01 X-3.24376 Y-2.59915
G01 X-3.24589 Y-2.59937
G01 X-3.25411 Y-2.59937
G01 X-3.25624 Y-2.59915
G01 X-3.26429 Y-2.59744
G01 X-3.26632 Y-2.59678
G01 X-3.27384 Y-2.59343
G01 X-3.27569 Y-2.59236
G01 X-3.28318 Y-2.58685
G01 X-3.28944 Y-2.57998
G01 X-3.29073 Y-2.57819
G01 X-3.29198 Y-2.57599
G01 X-3.60801 Y-2.57599
G01 X-3.60927 Y-2.57819
G01 X-3.61056 Y-2.57998
G01 X-3.61682 Y-2.58685
G01 X-3.62431 Y-2.59236
G01 X-3.62616 Y-2.59343
G01 X-3.63368 Y-2.59678
G01 X-3.63571 Y-2.59744
G01 X-3.64376 Y-2.59915
G01 X-3.64589 Y-2.59937
G01 X-3.65518 Y-2.59931
G01 X-3.66429 Y-2.59744
G01 X-3.66632 Y-2.59678
G01 X-3.67479 Y-2.59294
G01 X-3.68318 Y-2.58685
G01 X-3.68944 Y-2.57998
G01 X-3.69070 Y-2.57825
G01 X-3.69481 Y-2.57112
G01 X-3.69568 Y-2.56917
G01 X-3.69822 Y-2.56134
G01 X-3.69867 Y-2.55925
G01 X-3.69959 Y-2.55000
G01 X-3.69867 Y-2.54075
G01 X-3.69811 Y-2.53829
G01 X-3.80716 Y-2.42924
G01 X-3.92920 Y-2.42924
G01 X-3.93110 Y-2.42900
G01 X-4.06890 Y-2.42900
G01 X-4.07390 Y-2.42962
G01 X-4.07890 Y-2.43150
G01 X-4.08390 Y-2.43462
G01 X-4.08890 Y-2.43900
G01 X-4.09173 Y-2.44183
G01 X-4.09173 Y-2.57680
G01 X-4.09129 Y-2.58125
G01 X-4.09000 Y-2.58554
G01 X-4.08789 Y-2.58949
G01 X-4.08505 Y-2.59295
G01 X-4.08158 Y-2.59579
G01 X-4.07764 Y-2.59790
G01 X-4.07335 Y-2.59919
G01 X-4.06890 Y-2.59963
G01 X-3.93110 Y-2.59963
G01 X-3.92665 Y-2.59919
G01 X-3.92236 Y-2.59790
G01 X-3.91841 Y-2.59579
G01 X-3.91495 Y-2.59295
G01 X-3.91211 Y-2.58949
G01 X-3.90993 Y-2.58529
G01 X-3.90673 Y-2.58848
G01 X-3.90673 Y-2.69490
G01 X-3.90630 Y-2.69935
G01 X-3.90500 Y-2.70364
G01 X-3.90289 Y-2.70759
G01 X-3.90005 Y-2.71105
G01 X-3.89659 Y-2.71389
G01 X-3.89264 Y-2.71600
G01 X-3.88835 Y-2.71730
G01 X-3.88390 Y-2.71773
G01 X-3.74610 Y-2.71773
G01 X-3.74165 Y-2.71730
G01 X-3.73736 Y-2.71600
G01 X-3.73341 Y-2.71389
G01 X-3.72995 Y-2.71105
G01 X-3.72711 Y-2.70759
G01 X-3.72500 Y-2.70364
G01 X-3.72370 Y-2.69935
G01 X-3.72327 Y-2.69490
G01 X-3.72327 Y-2.67205
G01 X-3.60006 Y-2.79526
G01 X-3.59605 Y-2.79869
G01 X-3.59233 Y-2.80118
G01 X-3.58964 Y-2.80261
G01 X-3.58551 Y-2.80432
G01 X-3.58260 Y-2.80520
G01 X-3.57821 Y-2.80608
G01 X-3.57295 Y-2.80648
G01 X-3.51940 Y-2.80648
G01 X-3.51526 Y-2.80560
G01 X-3.51075 Y-2.80489
G01 X-3.50540 Y-2.80432
G01 X-3.50110 Y-2.80410
G01 X-3.49575 Y-2.80410
G01 X-3.49145 Y-2.80432
G01 X-3.48610 Y-2.80489
G01 X-3.48159 Y-2.80560
G01 X-3.47744 Y-2.80648
G01 X-3.43960 Y-2.80648
G01 X-3.43288 Y-2.80468
G01 X-3.42559 Y-2.80403
G01 X-3.37441 Y-2.80403
G01 X-3.36427 Y-2.80529
G01 X-3.36107 Y-2.80648
G01 X-3.22659 Y-2.80648
G01 X-3.20648 Y-2.82659
G01 X-3.20648 Y-2.90572
G01 X-3.20345 Y-2.91362
G01 X-3.20215 Y-2.91762
G01 X-3.19994 Y-2.92585
G01 X-3.20018 Y-2.92495
G01 X-3.19923 Y-2.92918
G01 X-3.19793 Y-2.93741
G01 X-3.19762 Y-2.94036
G01 X-3.19719 Y-2.94859
G01 X-3.19719 Y-2.95141
G01 X-3.19762 Y-2.95964
G01 X-3.19793 Y-2.96259
G01 X-3.19923 Y-2.97082
G01 X-3.20018 Y-2.97505
G01 X-3.19923 Y-2.97082
G01 X-3.19793 Y-2.96259
G01 X-3.19762 Y-2.95964
G01 X-3.19719 Y-2.95141
G01 X-3.19719 Y-2.94859
G01 X-3.19762 Y-2.94036
G01 X-3.19793 Y-2.93741
G01 X-3.19923 Y-2.92918
G01 X-3.19994 Y-2.92585
G01 X-3.20215 Y-2.91762
G01 X-3.20345 Y-2.91362
G01 X-3.20648 Y-2.90572
G01 X-3.21025 Y-2.90228
G01 X-3.21690 Y-2.89745
G01 X-3.22104 Y-2.89506
G01 X-3.22855 Y-2.89172
G01 X-3.23309 Y-2.89024
G01 X-3.24350 Y-2.88816
G01 X-3.25411 Y-2.88803
G01 X-3.25747 Y-2.88831
G01 X-3.32289 Y-2.82289
G01 X-3.32690 Y-2.81946
G01 X-3.33062 Y-2.81697
G01 X-3.33330 Y-2.81554
G01 X-3.33744 Y-2.81383
G01 X-3.34035 Y-2.81295
G01 X-3.34474 Y-2.81207
G01 X-3.35000 Y-2.81167
G01 X-3.35547 Y-2.81167
G01 X-3.35826 Y-2.80826
G01 X-3.35990 Y-2.80692
G01 X-3.36427 Y-2.80529
G01 X-3.37441 Y-2.80403
G01 X-3.42559 Y-2.80403
G01 X-3.43288 Y-2.80468
G01 X-3.43955 Y-2.80647
G04 P0 ( dwell for no time -- G64 should not smooth over this point )
G00 Z0.08000 ( retract )

G00 X-3.79046 Y-3.25554 ( rapid move to begin. )
G01 F180.00000
( Mill infeed pass 1/1 )
G01 Z-0.04000
G04 P0 ( dwell for no time -- G64 should not smooth over this point )
G01 F360.00000
G01 X-3.79046 Y-3.25554
G01 X-3.79150 Y-3.25189
G01 X-3.79361 Y-3.24794
G01 X-3.79645 Y-3.24448
G01 X-3.79991 Y-3.24164
G01 X-3.80386 Y-3.23953
G01 X-3.80814 Y-3.23823
G01 X-3.81260 Y-3.23780
G01 X-3.88740 Y-3.23780
G01 X-3.89186 Y-3.23823
G01 X-3.89614 Y-3.23953
G01 X-3.90009 Y-3.24164
G01 X-3.90355 Y-3.24448
G01 X-3.90639 Y-3.24794
G01 X-3.90850 Y-3.25189
G01 X-3.90980 Y-3.25617
G01 X-3.91024 Y-3.26166
G01 X-3.98976 Y-3.26166
G01 X-3.99020 Y-3.25617
G01 X-3.99150 Y-3.25189
G01 X-3.99361 Y-3.24794
G01 X-3.99645 Y-3.24448
G01 X-3.99991 Y-3.24164
G01 X-4.00386 Y-3.23953
G01 X-4.00814 Y-3.23823
G01 X-4.01260 Y-3.23780
G01 X-4.08740 Y-3.23780
G01 X-4.09186 Y-3.23823
G01 X-4.09614 Y-3.23953
G01 X-4.10009 Y-3.24164
G01 X-4.10355 Y-3.24448
G01 X-4.10639 Y-3.24794
G01 X-4.10850 Y-3.25189
G01 X-4.10957 Y-3.25543
G01 X-4.10786 Y-3.26063
G01 X-4.10595 Y-3.26560
G01 X-4.10393 Y-3.27232
G01 X-4.10542 Y-3.26975
G01 X-4.10745 Y-3.26695
G01 X-4.11268 Y-3.26114
G01 X-4.11525 Y-3.25883
G01 X-4.12303 Y-3.25329
G01 X-4.13172 Y-3.24932
G01 X-4.13500 Y-3.24825
G01 X-4.14436 Y-3.24636
G01 X-4.15564 Y-3.24636
G01 X-4.16500 Y-3.24825
G01 X-4.16828 Y-3.24932
G01 X-4.17543 Y-3.25250
G01 X-4.17842 Y-3.25423
G01 X-4.18475 Y-3.25883
G01 X-4.18731 Y-3.26114
G01 X-4.19255 Y-3.26695
G01 X-4.19458 Y-3.26975
G01 X-4.19849 Y-3.27652
G01 X-4.19989 Y-3.27968
G01 X-4.20231 Y-3.28711
G01 X-4.20303 Y-3.29049
G01 X-4.20366 Y-3.29645
G01 X-4.44853 Y-3.29645
G01 X-4.45108 Y-3.29416
G01 X-4.45388 Y-3.29212
G01 X-4.45865 Y-3.28937
G01 X-4.55300 Y-3.28937
G01 X-4.55741 Y-3.29333
G01 X-4.56061 Y-3.29688
G01 X-4.56399 Y-3.30154
G01 X-4.56529 Y-3.30354
G01 X-4.56638 Y-3.30567
G01 X-4.56872 Y-3.31094
G01 X-4.57020 Y-3.31548
G01 X-4.57140 Y-3.32111
G01 X-4.57190 Y-3.32586
G01 X-4.57190 Y-3.33162
G01 X-4.57140 Y-3.33637
G01 X-4.57020 Y-3.34200
G01 X-4.56872 Y-3.34654
G01 X-4.56529 Y-3.35394
G01 X-4.56061 Y-3.36060
G01 X-4.55741 Y-3.36415
G01 X-4.55127 Y-3.36951
G01 X-4.54428 Y-3.37369
G01 X-4.53992 Y-3.37563
G01 X-4.53213 Y-3.37803
G01 X-4.52404 Y-3.37901
G01 X-4.52165 Y-3.37913
G01 X-4.47835 Y-3.37913
G01 X-4.47023 Y-3.37841
G01 X-4.46787 Y-3.37803
G01 X-4.46556 Y-3.37741
G01 X-4.46008 Y-3.37563
G01 X-4.45572 Y-3.37369
G01 X-4.44872 Y-3.36951
G01 X-4.44611 Y-3.36732
G01 X-4.17874 Y-3.36732
G01 X-4.17650 Y-3.36721
G01 X-4.17343 Y-3.36691
G01 X-4.16904 Y-3.36604
G01 X-4.16608 Y-3.36514
G01 X-4.16195 Y-3.36343
G01 X-4.15923 Y-3.36197
G01 X-4.15614 Y-3.35991
G01 X-4.14609 Y-3.36003
G01 X-4.14370 Y-3.35991
G01 X-4.13369 Y-3.35791
G01 X-4.12915 Y-3.35643
G01 X-4.11988 Y-3.35217
G01 X-4.11155 Y-3.34627
G01 X-4.10954 Y-3.34445
G01 X-4.10473 Y-3.33065
G01 X-4.10264 Y-3.32283
G01 X-4.10197 Y-3.31971
G01 X-4.10073 Y-3.31190
G01 X-4.10044 Y-3.30914
G01 X-4.10003 Y-3.30132
G01 X-4.10003 Y-3.29868
G01 X-4.10044 Y-3.29086
G01 X-4.10073 Y-3.28810
G01 X-4.10197 Y-3.28028
G01 X-4.10264 Y-3.27717
G01 X-4.10393 Y-3.27232
G01 X-4.10264 Y-3.27717
G01 X-4.10197 Y-3.28028
G01 X-4.10073 Y-3.28810
G01 X-4.10044 Y-3.29086
G01 X-4.10003 Y-3.29868
G01 X-4.10236 Y-3.30000
G01 X-4.10323 Y-3.30885
G01 X-4.10368 Y-3.31094
G01 X-4.10648 Y-3.31938
G01 X-4.11088 Y-3.32710
G01 X-4.11213 Y-3.32883
G01 X-4.11737 Y-3.33464
G01 X-4.11896 Y-3.33608
G01 X-4.12618 Y-3.34125
G01 X-4.13428 Y-3.34492
G01 X-4.13631 Y-3.34558
G01 X-4.14502 Y-3.34738
G01 X-4.15498 Y-3.34738
G01 X-4.15968 Y-3.34643
G01 X-4.16350 Y-3.34975
G01 X-4.16516 Y-3.35086
G01 X-4.16789 Y-3.35232
G01 X-4.16974 Y-3.35309
G01 X-4.17270 Y-3.35398
G01 X-4.17466 Y-3.35437
G01 X-4.17874 Y-3.35473
G01 X-4.45096 Y-3.35473
G01 X-4.45613 Y-3.35932
G01 X-4.46202 Y-3.36278
G01 X-4.46397 Y-3.36365
G01 X-4.47049 Y-3.36571
G01 X-4.47835 Y-3.36653
G01 X-4.52272 Y-3.36648
G01 X-4.52951 Y-3.36571
G01 X-4.53603 Y-3.36365
G01 X-4.53798 Y-3.36278
G01 X-4.54387 Y-3.35932
G01 X-4.54898 Y-3.35479
G01 X-4.55042 Y-3.35320
G01 X-4.55438 Y-3.34764
G01 X-4.55722 Y-3.34142
G01 X-4.55788 Y-3.33938
G01 X-4.55907 Y-3.33375
G01 X-4.55930 Y-3.33162
G01 X-4.55930 Y-3.32586
G01 X-4.55907 Y-3.32373
G01 X-4.55788 Y-3.31810
G01 X-4.55722 Y-3.31606
G01 X-4.55487 Y-3.31080
G01 X-4.55380 Y-3.30894
G01 X-4.55042 Y-3.30428
G01 X-4.54898 Y-3.30269
G01 X-4.54387 Y-3.29816
G01 X-4.53798 Y-3.29470
G01 X-4.53603 Y-3.29383
G01 X-4.52951 Y-3.29177
G01 X-4.52272 Y-3.29100
G01 X-4.47835 Y-3.29094
G01 X-4.47155 Y-3.29160
G01 X-4.46945 Y-3.29205
G01 X-4.46397 Y-3.29383
G01 X-4.46202 Y-3.29470
G01 X-4.45703 Y-3.29758
G01 X-4.45530 Y-3.29884
G01 X-4.45096 Y-3.30275
G01 X-4.19740 Y-3.30275
G01 X-4.19764 Y-3.30000
G01 X-4.19758 Y-3.29893
G01 X-4.19676 Y-3.29115
G01 X-4.19632 Y-3.28906
G01 X-4.19352 Y-3.28062
G01 X-4.18912 Y-3.27290
G01 X-4.18787 Y-3.27117
G01 X-4.18187 Y-3.26460
G01 X-4.17382 Y-3.25874
G01 X-4.16572 Y-3.25508
G01 X-4.16369 Y-3.25442
G01 X-4.15498 Y-3.25262
G01 X-4.14502 Y-3.25262
G01 X-4.13631 Y-3.25442
G01 X-4.13428 Y-3.25508
G01 X-4.12618 Y-3.25874
G01 X-4.11812 Y-3.26460
G01 X-4.11213 Y-3.27117
G01 X-4.11088 Y-3.27290
G01 X-4.10697 Y-3.27967
G01 X-4.10610 Y-3.28162
G01 X-4.10340 Y-3.29009
G01 X-4.10236 Y-3.30000
G01 X-4.10866 Y-3.30000
G01 X-4.10967 Y-3.30899
G01 X-4.11242 Y-3.31718
G01 X-4.11633 Y-3.32395
G01 X-4.12205 Y-3.33043
G01 X-4.12899 Y-3.33557
G01 X-4.13722 Y-3.33932
G01 X-4.14527 Y-3.34105
G01 X-4.15391 Y-3.34113
G01 X-4.16172 Y-3.33956
G01 X-4.16510 Y-3.34292
G01 X-4.16813 Y-3.34531
G01 X-4.17086 Y-3.34676
G01 X-4.17452 Y-3.34795
G01 X-4.17874 Y-3.34843
G01 X-4.45390 Y-3.34843
G01 X-4.45523 Y-3.35011
G01 X-4.46018 Y-3.35445
G01 X-4.46592 Y-3.35766
G01 X-4.47180 Y-3.35955
G01 X-4.47835 Y-3.36024
G01 X-4.52165 Y-3.36024
G01 X-4.52820 Y-3.35955
G01 X-4.53408 Y-3.35766
G01 X-4.54049 Y-3.35396
G01 X-4.54532 Y-3.34949
G01 X-4.54893 Y-3.34449
G01 X-4.55146 Y-3.33886
G01 X-4.55291 Y-3.33244
G01 X-4.55300 Y-3.32586
G01 X-4.55171 Y-3.31941
G01 X-4.54893 Y-3.31299
G01 X-4.54532 Y-3.30798
G01 X-4.54017 Y-3.30326
G01 X-4.53483 Y-3.30015
G01 X-4.52820 Y-3.29793
G01 X-4.52206 Y-3.29726
G01 X-4.47835 Y-3.29724
G01 X-4.47180 Y-3.29793
G01 X-4.46554 Y-3.29997
G01 X-4.46018 Y-3.30303
G01 X-4.45523 Y-3.30737
G01 X-4.45390 Y-3.30905
G01 X-4.19031 Y-3.30905
G01 X-4.19134 Y-3.30000
G01 X-4.19050 Y-3.29181
G01 X-4.18776 Y-3.28319
G01 X-4.18367 Y-3.27605
G01 X-4.17795 Y-3.26957
G01 X-4.17030 Y-3.26401
G01 X-4.16277 Y-3.26068
G01 X-4.15391 Y-3.25887
G01 X-4.14527 Y-3.25895
G01 X-4.13722 Y-3.26068
G01 X-4.12899 Y-3.26442
G01 X-4.12205 Y-3.26957
G01 X-4.11633 Y-3.27605
G01 X-4.11209 Y-3.28357
G01 X-4.10956 Y-3.29141
G01 X-4.10866 Y-3.30000
G04 P0 ( dwell for no time -- G64 should not smooth over this point )
G00 Z0.08000 ( retract )

G00 X-3.79046 Y-3.25554 ( rapid move to begin. )
G01 F180.00000
( Mill infeed pass 1/1 )
G01 Z-0.04000
G04 P0 ( dwell for no time -- G64 should not smooth over this point )
G01 F360.00000
G01 X-3.79046 Y-3.25554
G01 X-3.79527 Y-3.26935
G01 X-3.79736 Y-3.27717
G01 X-3.79803 Y-3.28028
G01 X-3.79926 Y-3.28810
G01 X-3.79955 Y-3.29086
G01 X-3.79996 Y-3.29868
G01 X-3.79996 Y-3.30132
G01 X-3.79955 Y-3.30914
G01 X-3.79926 Y-3.31190
G01 X-3.79803 Y-3.31971
G01 X-3.79736 Y-3.32283
G01 X-3.79527 Y-3.33065
G01 X-3.79046 Y-3.34445
G01 X-3.78845 Y-3.34627
G01 X-3.78012 Y-3.35217
G01 X-3.77085 Y-3.35643
G01 X-3.76631 Y-3.35791
G01 X-3.75630 Y-3.35991
G01 X-3.75391 Y-3.36003
G01 X-3.74370 Y-3.35991
G01 X-3.73369 Y-3.35791
G01 X-3.72915 Y-3.35643
G01 X-3.72201 Y-3.35325
G01 X-3.71978 Y-3.35210
G01 X-3.69687 Y-3.36047
G01 X-3.68369 Y-3.36280
G01 X-3.67915 Y-3.36343
G01 X-3.67571 Y-3.36374
G01 X-3.67126 Y-3.36389
G01 X-3.45257 Y-3.36389
G01 X-3.44650 Y-3.36601
G01 X-3.44074 Y-3.36755
G01 X-3.44368 Y-3.36676
G01 X-3.80830 Y-3.36676
G01 X-3.81796 Y-3.35710
G01 X-3.81796 Y-3.35590
G01 X-3.81260 Y-3.35590
G01 X-3.80937 Y-3.35559
G01 X-3.80627 Y-3.35465
G01 X-3.80341 Y-3.35312
G01 X-3.80091 Y-3.35106
G01 X-3.79885 Y-3.34856
G01 X-3.79732 Y-3.34570
G01 X-3.79638 Y-3.34260
G01 X-3.79606 Y-3.33937
G01 X-3.79606 Y-3.32768
G01 X-3.79736 Y-3.32283
G01 X-3.79606 Y-3.32768
G01 X-3.79364 Y-3.33170
G01 X-3.78731 Y-3.33886
G01 X-3.78475 Y-3.34117
G01 X-3.77697 Y-3.34671
G01 X-3.76828 Y-3.35068
G01 X-3.76499 Y-3.35175
G01 X-3.75564 Y-3.35364
G01 X-3.74436 Y-3.35364
G01 X-3.73500 Y-3.35175
G01 X-3.73172 Y-3.35068
G01 X-3.72457 Y-3.34750
G01 X-3.72303 Y-3.34671
G01 X-3.72064 Y-3.34509
G01 X-3.68233 Y-3.35907
G01 X-3.67829 Y-3.36022
G01 X-3.67545 Y-3.36072
G01 X-3.67270 Y-3.36096
G01 X-3.45147 Y-3.36103
G01 X-3.44757 Y-3.36441
G01 X-3.44368 Y-3.36676
G01 X-3.43751 Y-3.36824
G01 X-3.43175 Y-3.36915
G01 X-3.42883 Y-3.36946
G01 X-3.42165 Y-3.36980
G01 X-3.37693 Y-3.36976
G01 X-3.37117 Y-3.36946
G01 X-3.36824 Y-3.36915
G01 X-3.36202 Y-3.36816
G01 X-3.35519 Y-3.36308
G01 X-3.35299 Y-3.36120
G01 X-3.34686 Y-3.35518
G01 X-3.34311 Y-3.35078
G01 X-3.34128 Y-3.34840
G01 X-3.33796 Y-3.34357
G01 X-3.33617 Y-3.34065
G01 X-3.33331 Y-3.33537
G01 X-3.33152 Y-3.33162
G01 X-3.34070 Y-3.33162
G01 X-3.34076 Y-3.32479
G01 X-3.34212 Y-3.31810
G01 X-3.34278 Y-3.31606
G01 X-3.34561 Y-3.30984
G01 X-3.34958 Y-3.30428
G01 X-3.35102 Y-3.30269
G01 X-3.35530 Y-3.29884
G01 X-3.35703 Y-3.29758
G01 X-3.36202 Y-3.29470
G01 X-3.36397 Y-3.29383
G01 X-3.37049 Y-3.29177
G01 X-3.37728 Y-3.29100
G01 X-3.42165 Y-3.29094
G01 X-3.42951 Y-3.29177
G01 X-3.43602 Y-3.29383
G01 X-3.43798 Y-3.29470
G01 X-3.44387 Y-3.29816
G01 X-3.44904 Y-3.30275
G01 X-3.66667 Y-3.30275
G01 X-3.70363 Y-3.28926
G01 X-3.70610 Y-3.28162
G01 X-3.70697 Y-3.27967
G01 X-3.71146 Y-3.27200
G01 X-3.71737 Y-3.26536
G01 X-3.71896 Y-3.26392
G01 X-3.72618 Y-3.25874
G01 X-3.73428 Y-3.25508
G01 X-3.73631 Y-3.25442
G01 X-3.74396 Y-3.25279
G01 X-3.74609 Y-3.25257
G01 X-3.75391 Y-3.25257
G01 X-3.75604 Y-3.25279
G01 X-3.76369 Y-3.25442
G01 X-3.76572 Y-3.25508
G01 X-3.77382 Y-3.25874
G01 X-3.78104 Y-3.26392
G01 X-3.78263 Y-3.26536
G01 X-3.78854 Y-3.27200
G01 X-3.79303 Y-3.27967
G01 X-3.79390 Y-3.28162
G01 X-3.79660 Y-3.29009
G01 X-3.79758 Y-3.29893
G01 X-3.79758 Y-3.30107
G01 X-3.79660 Y-3.30990
G01 X-3.79390 Y-3.31838
G01 X-3.79303 Y-3.32033
G01 X-3.78912 Y-3.32710
G01 X-3.78787 Y-3.32883
G01 X-3.78263 Y-3.33464
G01 X-3.78104 Y-3.33608
G01 X-3.77382 Y-3.34125
G01 X-3.76572 Y-3.34492
G01 X-3.76369 Y-3.34558
G01 X-3.75604 Y-3.34721
G01 X-3.75391 Y-3.34743
G01 X-3.74609 Y-3.34743
G01 X-3.74396 Y-3.34721
G01 X-3.73631 Y-3.34558
