( pcb2gcode 2.5.0 )
( Software-independent Gcode )

G94 ( Inches per minute feed rate. )
G20 ( Units == INCHES. )

G90 ( Absolute coordinates. )
G00 S12000 ( RPM spindle speed. )
G64 P0.00040 ( set maximum deviation from commanded toolpath )
G01 F360.00000 ( Feedrate. )


G00 Z1.00000 (Retract to tool change height)
T1
M5      (Spindle stop.)
G04 P1.00000 (Wait for spindle to stop)
(MSG, Change tool bit to mill diameter 0.00787in)
M6      (Tool change.)
M0      (Temporary machine stop.)
M3 ( Spindle on clockwise. )
G04 P1.00000 (Wait for spindle to get up to speed)
G04 P0 ( dwell for no time -- G64 should not smooth over this point )
G00 Z0.08000 ( retract )

G00 X-3.18784 Y-2.54895 ( rapid move to begin. )
G01 F180.00000
( Mill infeed pass 1/1 )
G01 Z-0.04000
G04 P0 ( dwell for no time -- G64 should not smooth over this point )
G01 F360.00000
G01 X-3.18784 Y-2.54895
G01 X-3.18810 Y-2.54404
G01 X-3.18900 Y-2.53790
G01 X-3.19038 Y-2.53233
G01 X-3.19227 Y-2.52690
G01 X-3.19465 Y-2.52165
G01 X-3.19751 Y-2.51665
G01 X-3.20081 Y-2.51196
G01 X-3.20477 Y-2.50733
G01 X-3.20941 Y-2.50289
G01 X-3.21398 Y-2.49931
G01 X-3.21921 Y-2.49597
G01 X-3.22359 Y-2.49372
G01 X-3.23016 Y-2.49107
G01 X-3.23489 Y-2.48970
G01 X-3.23704 Y-2.48920
G01 X-3.24316 Y-2.48821
G01 X-3.24749 Y-2.48787
G01 X-3.25183 Y-2.48784
G01 X-3.25817 Y-2.48837
G01 X-3.26219 Y-2.48902
G01 X-3.26655 Y-2.49006
G01 X-3.27083 Y-2.49141
G01 X-3.27500 Y-2.49307
G01 X-3.28291 Y-2.49724
G01 X-3.28978 Y-2.50221
G01 X-3.29373 Y-2.50579
G01 X-3.29682 Y-2.50908
G01 X-3.29874 Y-2.51141
G01 X-3.29853 Y-2.51191
G01 X-3.29874 Y-2.51141
G01 X-3.60128 Y-2.51141
G01 X-3.60153 Y-2.51197
G01 X-3.60128 Y-2.51141
G01 X-3.60319 Y-2.50908
G01 X-3.60656 Y-2.50550
G01 X-3.61121 Y-2.50139
G01 X-3.61555 Y-2.49823
G01 X-3.62011 Y-2.49549
G01 X-3.62653 Y-2.49241
G01 X-3.63197 Y-2.49049
G01 X-3.63673 Y-2.48926
G01 X-3.64373 Y-2.48813
G01 X-3.64947 Y-2.48782
G01 X-3.65476 Y-2.48800
G01 X-3.65748 Y-2.48831
G01 X-3.65769 Y-2.48888
G01 X-3.65748 Y-2.48831
G01 X-3.76993 Y-2.37587
G01 X-3.77503 Y-2.37174
G01 X-3.78017 Y-2.36885
G01 X-3.78355 Y-2.36745
G01 X-3.78922 Y-2.36586
G01 X-3.79426 Y-2.36527
G01 X-3.79650 Y-2.36516
G01 X-4.15350 Y-2.36516
G01 X-4.15574 Y-2.36527
G01 X-4.16078 Y-2.36586
G01 X-4.16276 Y-2.36633
G01 X-4.16760 Y-2.36786
G01 X-4.16983 Y-2.36885
G01 X-4.17428 Y-2.37129
G01 X-4.17628 Y-2.37270
G01 X-4.17952 Y-2.37537
G01 X-4.29252 Y-2.48831
G01 X-4.29230 Y-2.48888
G01 X-4.29252 Y-2.48831
G01 X-4.29523 Y-2.48800
G01 X-4.30053 Y-2.48782
G01 X-4.30627 Y-2.48813
G01 X-4.31327 Y-2.48926
G01 X-4.31803 Y-2.49049
G01 X-4.32346 Y-2.49241
G01 X-4.32989 Y-2.49549
G01 X-4.33445 Y-2.49823
G01 X-4.33878 Y-2.50139
G01 X-4.34343 Y-2.50550
G01 X-4.34681 Y-2.50908
G01 X-4.34872 Y-2.51141
G01 X-4.34847 Y-2.51197
G01 X-4.34872 Y-2.51141
G01 X-4.65126 Y-2.51141
G01 X-4.65147 Y-2.51191
G01 X-4.65126 Y-2.51141
G01 X-4.65318 Y-2.50908
G01 X-4.65627 Y-2.50579
G01 X-4.66022 Y-2.50221
G01 X-4.66709 Y-2.49724
G01 X-4.67500 Y-2.49307
G01 X-4.67917 Y-2.49141
G01 X-4.68345 Y-2.49006
G01 X-4.68781 Y-2.48902
G01 X-4.69219 Y-2.48831
G01 X-4.69860 Y-2.48784
G01 X-4.70251 Y-2.48787
G01 X-4.70728 Y-2.48825
G01 X-4.71383 Y-2.48937
G01 X-4.71942 Y-2.49093
G01 X-4.72521 Y-2.49316
G01 X-4.72962 Y-2.49534
G01 X-4.73154 Y-2.49643
G01 X-4.73672 Y-2.49984
G01 X-4.74058 Y-2.50289
G01 X-4.74549 Y-2.50761
G01 X-4.74919 Y-2.51196
G01 X-4.75249 Y-2.51665
G01 X-4.75535 Y-2.52165
G01 X-4.75790 Y-2.52731
G01 X-4.75974 Y-2.53274
G01 X-4.76108 Y-2.53834
G01 X-4.76194 Y-2.54448
G01 X-4.76218 Y-2.55021
G01 X-4.76190 Y-2.55596
G01 X-4.76108 Y-2.56166
G01 X-4.75974 Y-2.56726
G01 X-4.75790 Y-2.57269
G01 X-4.75535 Y-2.57835
G01 X-4.75249 Y-2.58335
G01 X-4.74922 Y-2.58800
G01 X-4.74582 Y-2.59203
G01 X-4.74148 Y-2.59633
G01 X-4.73704 Y-2.59995
G01 X-4.73188 Y-2.60339
G01 X-4.72755 Y-2.60573
G01 X-4.72186 Y-2.60820
G01 X-4.71978 Y-2.60894
G01 X-4.71513 Y-2.61032
G01 X-4.70872 Y-2.61155
G01 X-4.70436 Y-2.61203
G01 X-4.69998 Y-2.61217
G01 X-4.69371 Y-2.61185
G01 X-4.68967 Y-2.61132
G01 X-4.68523 Y-2.61040
G01 X-4.68048 Y-2.60904
G01 X-4.67622 Y-2.60746
G01 X-4.67174 Y-2.60539
G01 X-4.66782 Y-2.60321
G01 X-4.66407 Y-2.60075
G01 X-4.66054 Y-2.59806
G01 X-4.65672 Y-2.59465
G01 X-4.65358 Y-2.59137
G01 X-4.65127 Y-2.58858
G01 X-4.65151 Y-2.58804
G01 X-4.65127 Y-2.58858
G01 X-4.34871 Y-2.58858
G01 X-4.34849 Y-2.58808
G01 X-4.34871 Y-2.58858
G01 X-4.34433 Y-2.59359
G01 X-4.33989 Y-2.59770
G01 X-4.33411 Y-2.60199
G01 X-4.32863 Y-2.60519
G01 X-4.32649 Y-2.60623
G01 X-4.32065 Y-2.60866
G01 X-4.31410 Y-2.61056
G01 X-4.30725 Y-2.61176
G01 X-4.30159 Y-2.61214
G01 X-4.29946 Y-2.61217
G01 X-4.29313 Y-2.61180
G01 X-4.28614 Y-2.61062
G01 X-4.28008 Y-2.60889
G01 X-4.27367 Y-2.60630
G01 X-4.27364 Y-2.60575
G01 X-4.27367 Y-2.60630
G01 X-4.09173 Y-2.69727
G01 X-4.09079 Y-2.69669
G01 X-4.09173 Y-2.69727
G01 X-4.09173 Y-2.79162
G01 X-4.08544 Y-2.80683
G01 X-4.08544 Y-2.69338
G01 X-4.08449 Y-2.69280
G01 X-4.08544 Y-2.69338
G01 X-4.27368 Y-2.59925
G01 X-4.27367 Y-2.59859
G01 X-4.27368 Y-2.59925
G01 X-4.27458 Y-2.59976
G01 X-4.28147 Y-2.60272
G01 X-4.28718 Y-2.60439
G01 X-4.29343 Y-2.60549
G01 X-4.30121 Y-2.60585
G01 X-4.30670 Y-2.60548
G01 X-4.31285 Y-2.60439
G01 X-4.31853 Y-2.60272
G01 X-4.32402 Y-2.60043
G01 X-4.32583 Y-2.59953
G01 X-4.33129 Y-2.59630
G01 X-4.33599 Y-2.59275
G01 X-4.34030 Y-2.58871
G01 X-4.34512 Y-2.58296
G01 X-4.34558 Y-2.58229
G01 X-4.34529 Y-2.58168
G01 X-4.34558 Y-2.58229
G01 X-4.65441 Y-2.58229
G01 X-4.65471 Y-2.58166
G01 X-4.65441 Y-2.58229
G01 X-4.65789 Y-2.58674
G01 X-4.66067 Y-2.58970
G01 X-4.66398 Y-2.59273
G01 X-4.66755 Y-2.59550
G01 X-4.67091 Y-2.59772
G01 X-4.67440 Y-2.59968
G01 X-4.67845 Y-2.60156
G01 X-4.68225 Y-2.60299
G01 X-4.68653 Y-2.60424
G01 X-4.69050 Y-2.60507
G01 X-4.69451 Y-2.60561
G01 X-4.69898 Y-2.60588
G01 X-4.70302 Y-2.60579
G01 X-4.70840 Y-2.60525
G01 X-4.71378 Y-2.60416
G01 X-4.71945 Y-2.60237
G01 X-4.72388 Y-2.60053
G01 X-4.72777 Y-2.59848
G01 X-4.73281 Y-2.59523
G01 X-4.73714 Y-2.59176
G01 X-4.74130 Y-2.58763
G01 X-4.74457 Y-2.58369
G01 X-4.74707 Y-2.58013
G01 X-4.74926 Y-2.57636
G01 X-4.75196 Y-2.57057
G01 X-4.75364 Y-2.56569
G01 X-4.75485 Y-2.56069
G01 X-4.75570 Y-2.55435
G01 X-4.75589 Y-2.55000
G01 X-4.75570 Y-2.54565
G01 X-4.75499 Y-2.54010
G01 X-4.75364 Y-2.53430
G01 X-4.75181 Y-2.52906
G01 X-4.74926 Y-2.52364
G01 X-4.74707 Y-2.51987
G01 X-4.74409 Y-2.51566
G01 X-4.73981 Y-2.51080
G01 X-4.73632 Y-2.50752
G01 X-4.73221 Y-2.50433
G01 X-4.72678 Y-2.50096
G01 X-4.72285 Y-2.49900
G01 X-4.71763 Y-2.49697
G01 X-4.71263 Y-2.49556
G01 X-4.70791 Y-2.49469
G01 X-4.70185 Y-2.49415
G01 X-4.69818 Y-2.49414
G01 X-4.69415 Y-2.49443
G01 X-4.68883 Y-2.49524
G01 X-4.68531 Y-2.49608
G01 X-4.68149 Y-2.49727
G01 X-4.67638 Y-2.49936
G01 X-4.67011 Y-2.50278
G01 X-4.66349 Y-2.50769
G01 X-4.66026 Y-2.51070
G01 X-4.65755 Y-2.51365
G01 X-4.65441 Y-2.51771
G01 X-4.65472 Y-2.51835
G01 X-4.65441 Y-2.51771
G01 X-4.34559 Y-2.51771
G01 X-4.34532 Y-2.51830
G01 X-4.34559 Y-2.51771
G01 X-4.34246 Y-2.51366
G01 X-4.33918 Y-2.51015
G01 X-4.33531 Y-2.50669
G01 X-4.33013 Y-2.50295
G01 X-4.32599 Y-2.50053
G01 X-4.32128 Y-2.49832
G01 X-4.31601 Y-2.49646
G01 X-4.31175 Y-2.49538
G01 X-4.30503 Y-2.49434
G01 X-4.30028 Y-2.49411
G01 X-4.29513 Y-2.49433
G01 X-4.29028 Y-2.49498
G01 X-4.29006 Y-2.49560
G01 X-4.29028 Y-2.49498
G01 X-4.17556 Y-2.38029
G01 X-4.17096 Y-2.37664
G01 X-4.16538 Y-2.37375
G01 X-4.15975 Y-2.37208
G01 X-4.15350 Y-2.37146
G01 X-3.79650 Y-2.37146
G01 X-3.79065 Y-2.37200
G01 X-3.78538 Y-2.37348
G01 X-3.78277 Y-2.37459
G01 X-3.77837 Y-2.37709
G01 X-3.77414 Y-2.38056
G01 X-3.65971 Y-2.49498
G01 X-3.65994 Y-2.49560
G01 X-3.65971 Y-2.49498
G01 X-3.65487 Y-2.49433
G01 X-3.64972 Y-2.49411
G01 X-3.64497 Y-2.49434
G01 X-3.63825 Y-2.49538
G01 X-3.63399 Y-2.49646
G01 X-3.62872 Y-2.49832
G01 X-3.62401 Y-2.50053
G01 X-3.61987 Y-2.50295
G01 X-3.61469 Y-2.50669
G01 X-3.61082 Y-2.51015
G01 X-3.60754 Y-2.51366
G01 X-3.60440 Y-2.51771
G01 X-3.60468 Y-2.51830
G01 X-3.60440 Y-2.51771
G01 X-3.29558 Y-2.51771
G01 X-3.29528 Y-2.51835
G01 X-3.29558 Y-2.51771
G01 X-3.29245 Y-2.51365
G01 X-3.28973 Y-2.51070
G01 X-3.28651 Y-2.50769
G01 X-3.27989 Y-2.50278
G01 X-3.27361 Y-2.49936
G01 X-3.26851 Y-2.49727
G01 X-3.26469 Y-2.49608
G01 X-3.26117 Y-2.49524
G01 X-3.25585 Y-2.49443
G01 X-3.25182 Y-2.49414
G01 X-3.24815 Y-2.49415
G01 X-3.24209 Y-2.49469
G01 X-3.23737 Y-2.49556
G01 X-3.23237 Y-2.49697
G01 X-3.22715 Y-2.49900
G01 X-3.22322 Y-2.50096
G01 X-3.21779 Y-2.50433
G01 X-3.21368 Y-2.50752
G01 X-3.21019 Y-2.51080
G01 X-3.20591 Y-2.51566
G01 X-3.20293 Y-2.51987
G01 X-3.20074 Y-2.52364
G01 X-3.19819 Y-2.52906
G01 X-3.19636 Y-2.53430
G01 X-3.19501 Y-2.54010
G01 X-3.19435 Y-2.54485
G01 X-3.19413 Y-2.54924
G01 X-3.19434 Y-2.55483
G01 X-3.19527 Y-2.56128
G01 X-3.19668 Y-2.56674
G01 X-3.19847 Y-2.57162
G01 X-3.20089 Y-2.57667
G01 X-3.20380 Y-2.58144
G01 X-3.20744 Y-2.58620
G01 X-3.21038 Y-2.58942
G01 X-3.21358 Y-2.59237
G01 X-3.21800 Y-2.59580
G01 X-3.22355 Y-2.59923
G01 X-3.22868 Y-2.60166
G01 X-3.23399 Y-2.60354
G01 X-3.23943 Y-2.60487
G01 X-3.24457 Y-2.60562
G01 X-3.24935 Y-2.60588
G01 X-3.25726 Y-2.60541
G01 X-3.26542 Y-2.60371
G01 X-3.27262 Y-2.60110
G01 X-3.27630 Y-2.59931
G01 X-3.28011 Y-2.59708
G01 X-3.28649 Y-2.59233
G01 X-3.28979 Y-2.58924
G01 X-3.29297 Y-2.58573
G01 X-3.29550 Y-2.58229
G01 X-3.29517 Y-2.58163
G01 X-3.29550 Y-2.58229
G01 X-3.60441 Y-2.58229
G01 X-3.60472 Y-2.58165
G01 X-3.60441 Y-2.58229
G01 X-3.60762 Y-2.58641
G01 X-3.61067 Y-2.58970
G01 X-3.61364 Y-2.59243
G01 X-3.61831 Y-2.59602
G01 X-3.62176 Y-2.59822
G01 X-3.62572 Y-2.60033
G01 X-3.62939 Y-2.60194
G01 X-3.63319 Y-2.60330
G01 X-3.63708 Y-2.60437
G01 X-3.64106 Y-2.60516
G01 X-3.64552 Y-2.60570
G01 X-3.64961 Y-2.60587
G01 X-3.65522 Y-2.60564
G01 X-3.65989 Y-2.60500
G01 X-3.66487 Y-2.60387
G01 X-3.66970 Y-2.60230
G01 X-3.67396 Y-2.60049
G01 X-3.67843 Y-2.59811
G01 X-3.68271 Y-2.59531
G01 X-3.68671 Y-2.59213
G01 X-3.69067 Y-2.58833
G01 X-3.69422 Y-2.58414
G01 X-3.69674 Y-2.58064
G01 X-3.69894 Y-2.57698
G01 X-3.70133 Y-2.57211
G01 X-3.70335 Y-2.56660
G01 X-3.70448 Y-2.56244
G01 X-3.70521 Y-2.55859
G01 X-3.70581 Y-2.55280
G01 X-3.70574 Y-2.54624
G01 X-3.70505 Y-2.54040
G01 X-3.70445 Y-2.54006
G01 X-3.70502 Y-2.54028
G01 X-3.80977 Y-2.43553
G01 X-3.80957 Y-2.43505
G01 X-3.80977 Y-2.43553
G01 X-3.91027 Y-2.43553
G01 X-3.91442 Y-2.43194
G01 X-3.91999 Y-2.42855
G01 X-3.92498 Y-2.42663
G01 X-3.93110 Y-2.42584
G01 X-4.06890 Y-2.42584
G01 X-4.07502 Y-2.42663
G01 X-4.08001 Y-2.42855
G01 X-4.08122 Y-2.42923
G01 X-4.14284 Y-2.42923
G01 X-4.14304 Y-2.42876
G01 X-4.14284 Y-2.42923
G01 X-4.25187 Y-2.53827
G01 X-4.25262 Y-2.53803
G01 X-4.25187 Y-2.53827
G01 X-4.25110 Y-2.54178
G01 X-4.25066 Y-2.54562
G01 X-4.25128 Y-2.54607
G01 X-4.25066 Y-2.54562
G01 X-4.01197 Y-2.66496
G01 X-4.01201 Y-2.66513
G01 X-4.01197 Y-2.66496
G01 X-3.93070 Y-2.66497
G01 X-3.92871 Y-2.66525
G01 X-3.92718 Y-2.66574
G01 X-3.92575 Y-2.66647
G01 X-3.92445 Y-2.66742
G01 X-3.92306 Y-2.66886
G01 X-3.92198 Y-2.67055
G01 X-3.92115 Y-2.67281
G01 X-3.92087 Y-2.67480
G01 X-3.92087 Y-2.81340
G01 X-3.92115 Y-2.81539
G01 X-3.92164 Y-2.81692
G01 X-3.92259 Y-2.81869
G01 X-3.92386 Y-2.82024
G01 X-3.92541 Y-2.82151
G01 X-3.92718 Y-2.82246
G01 X-3.92910 Y-2.82304
G01 X-3.93110 Y-2.82324
G01 X-4.06890 Y-2.82324
G01 X-4.07050 Y-2.82311
G01 X-4.07206 Y-2.82274
G01 X-4.07459 Y-2.82151
G01 X-4.07642 Y-2.81995
G01 X-4.07783 Y-2.81800
G01 X-4.07875 Y-2.81578
G01 X-4.07913 Y-2.81340
G01 X-4.07914 Y-2.68948
G01 X-4.07820 Y-2.68890
G01 X-4.07914 Y-2.68948
G01 X-4.27388 Y-2.59211
G01 X-4.27387 Y-2.59140
G01 X-4.27388 Y-2.59211
G01 X-4.27807 Y-2.59447
G01 X-4.28360 Y-2.59679
G01 X-4.28937 Y-2.59842
G01 X-4.29489 Y-2.59932
G01 X-4.30044 Y-2.59958
G01 X-4.30597 Y-2.59922
G01 X-4.31143 Y-2.59825
G01 X-4.31677 Y-2.59666
G01 X-4.32194 Y-2.59447
G01 X-4.32718 Y-2.59147
G01 X-4.33136 Y-2.58839
G01 X-4.33573 Y-2.58438
G01 X-4.33962 Y-2.57981
G01 X-4.34219 Y-2.57599
G01 X-4.34187 Y-2.57534
G01 X-4.34219 Y-2.57599
G01 X-4.65779 Y-2.57599
G01 X-4.65809 Y-2.57537
G01 X-4.65779 Y-2.57599
G01 X-4.66003 Y-2.57934
G01 X-4.66276 Y-2.58275
G01 X-4.66522 Y-2.58535
G01 X-4.66819 Y-2.58804
G01 X-4.67136 Y-2.59048
G01 X-4.67434 Y-2.59243
G01 X-4.67779 Y-2.59433
G01 X-4.68106 Y-2.59583
G01 X-4.68441 Y-2.59707
G01 X-4.68824 Y-2.59817
G01 X-4.69175 Y-2.59889
G01 X-4.69569 Y-2.59940
G01 X-4.69927 Y-2.59958
G01 X-4.70330 Y-2.59948
G01 X-4.70732 Y-2.59903
G01 X-4.71222 Y-2.59806
G01 X-4.71705 Y-2.59655
G01 X-4.72120 Y-2.59483
G01 X-4.72482 Y-2.59292
G01 X-4.72941 Y-2.58992
G01 X-4.73295 Y-2.58705
G01 X-4.73651 Y-2.58354
G01 X-4.73942 Y-2.58006
G01 X-4.74176 Y-2.57673
G01 X-4.74381 Y-2.57321
G01 X-4.74611 Y-2.56824
G01 X-4.74759 Y-2.56393
G01 X-4.74867 Y-2.55949
G01 X-4.74941 Y-2.55406
G01 X-4.74959 Y-2.55000
G01 X-4.74941 Y-2.54594
G01 X-4.74875 Y-2.54099
G01 X-4.74759 Y-2.53607
G01 X-4.74611 Y-2.53176
G01 X-4.74381 Y-2.52679
G01 X-4.74176 Y-2.52327
G01 X-4.73913 Y-2.51954
G01 X-4.73549 Y-2.51538
G01 X-4.73221 Y-2.51230
G01 X-4.72859 Y-2.50949
G01 X-4.72438 Y-2.50682
G01 X-4.72073 Y-2.50496
G01 X-4.71563 Y-2.50294
G01 X-4.71122 Y-2.50170
G01 X-4.70680 Y-2.50089
G01 X-4.70140 Y-2.50044
G01 X-4.69821 Y-2.50045
G01 X-4.69421 Y-2.50075
G01 X-4.69026 Y-2.50138
G01 X-4.68680 Y-2.50220
G01 X-4.68341 Y-2.50327
G01 X-4.67973 Y-2.50475
G01 X-4.67379 Y-2.50791
G01 X-4.66807 Y-2.51207
G01 X-4.66460 Y-2.51529
G01 X-4.66245 Y-2.51761
G01 X-4.66000 Y-2.52070
G01 X-4.65777 Y-2.52401
G01 X-4.65812 Y-2.52470
G01 X-4.65777 Y-2.52401
G01 X-4.34218 Y-2.52401
G01 X-4.34182 Y-2.52471
G01 X-4.34218 Y-2.52401
G01 X-4.34091 Y-2.52199
G01 X-4.33789 Y-2.51802
G01 X-4.33441 Y-2.51431
G01 X-4.33105 Y-2.51134
G01 X-4.32734 Y-2.50863
G01 X-4.32305 Y-2.50610
G01 X-4.31889 Y-2.50415
G01 X-4.31419 Y-2.50249
G01 X-4.30974 Y-2.50138
G01 X-4.30481 Y-2.50065
G01 X-4.30072 Y-2.50043
G01 X-4.29569 Y-2.50060
G01 X-4.29075 Y-2.50128
G01 X-4.28826 Y-2.50186
G01 X-4.28802 Y-2.50262
G01 X-4.28826 Y-2.50186
G01 X-4.17133 Y-2.38495
G01 X-4.16763 Y-2.38199
G01 X-4.16316 Y-2.37965
G01 X-4.15832 Y-2.37822
G01 X-4.15350 Y-2.37776
G01 X-3.79650 Y-2.37776
G01 X-3.79247 Y-2.37811
G01 X-3.79089 Y-2.37839
G01 X-3.78684 Y-2.37965
G01 X-3.78306 Y-2.38158
G01 X-3.78171 Y-2.38245
G01 X-3.77854 Y-2.38507
G01 X-3.66174 Y-2.50186
G01 X-3.66198 Y-2.50262
G01 X-3.66174 Y-2.50186
G01 X-3.65925 Y-2.50128
G01 X-3.65430 Y-2.50060
G01 X-3.64928 Y-2.50043
G01 X-3.64519 Y-2.50065
G01 X-3.64026 Y-2.50138
G01 X-3.63581 Y-2.50249
G01 X-3.63111 Y-2.50415
G01 X-3.62695 Y-2.50610
G01 X-3.62266 Y-2.50863
G01 X-3.61895 Y-2.51134
G01 X-3.61558 Y-2.51431
G01 X-3.61211 Y-2.51802
G01 X-3.60908 Y-2.52199
G01 X-3.60782 Y-2.52401
G01 X-3.60818 Y-2.52471
G01 X-3.60782 Y-2.52401
G01 X-3.29222 Y-2.52401
G01 X-3.29188 Y-2.52470
G01 X-3.29222 Y-2.52401
G01 X-3.29000 Y-2.52070
G01 X-3.28755 Y-2.51761
G01 X-3.28540 Y-2.51529
G01 X-3.28193 Y-2.51207
G01 X-3.27621 Y-2.50791
G01 X-3.27027 Y-2.50475
G01 X-3.26659 Y-2.50327
G01 X-3.26320 Y-2.50220
G01 X-3.25974 Y-2.50138
G01 X-3.25578 Y-2.50075
G01 X-3.25179 Y-2.50045
G01 X-3.24860 Y-2.50044
G01 X-3.24320 Y-2.50089
G01 X-3.23878 Y-2.50170
G01 X-3.23436 Y-2.50294
G01 X-3.22927 Y-2.50496
G01 X-3.22562 Y-2.50682
G01 X-3.22141 Y-2.50949
G01 X-3.21779 Y-2.51230
G01 X-3.21451 Y-2.51538
G01 X-3.21087 Y-2.51954
G01 X-3.20824 Y-2.52327
G01 X-3.20619 Y-2.52679
G01 X-3.20389 Y-2.53176
G01 X-3.20241 Y-2.53607
G01 X-3.20144 Y-2.54002
G01 X-3.20068 Y-2.54495
G01 X-3.20041 Y-2.55003
G01 X-3.20063 Y-2.55451
G01 X-3.20140 Y-2.55984
G01 X-3.20269 Y-2.56487
G01 X-3.20427 Y-2.56917
G01 X-3.20643 Y-2.57367
G01 X-3.20880 Y-2.57760
G01 X-3.21211 Y-2.58197
G01 X-3.21485 Y-2.58497
G01 X-3.21784 Y-2.58773
G01 X-3.22179 Y-2.59077
G01 X-3.22637 Y-2.59360
G01 X-3.23092 Y-2.59577
G01 X-3.23581 Y-2.59751
G01 X-3.24075 Y-2.59870
G01 X-3.24519 Y-2.59935
G01 X-3.24968 Y-2.59958
G01 X-3.25642 Y-2.59916
G01 X-3.26368 Y-2.59766
G01 X-3.27031 Y-2.59524
G01 X-3.27349 Y-2.59367
G01 X-3.27691 Y-2.59165
G01 X-3.28285 Y-2.58714
G01 X-3.28517 Y-2.58495
G01 X-3.28810 Y-2.58173
G01 X-3.29222 Y-2.57599
G01 X-3.29192 Y-2.57536
G01 X-3.29222 Y-2.57599
G01 X-3.60779 Y-2.57599
G01 X-3.60813 Y-2.57531
G01 X-3.60779 Y-2.57599
G01 X-3.61003 Y-2.57934
G01 X-3.61276 Y-2.58275
G01 X-3.61522 Y-2.58535
G01 X-3.61819 Y-2.58804
G01 X-3.62139 Y-2.59050
G01 X-3.62477 Y-2.59269
G01 X-3.62795 Y-2.59441
G01 X-3.63155 Y-2.59603
G01 X-3.63489 Y-2.59723
G01 X-3.63873 Y-2.59829
G01 X-3.64186 Y-2.59891
G01 X-3.64664 Y-2.59946
G01 X-3.65025 Y-2.59958
G01 X-3.65430 Y-2.59940
G01 X-3.65878 Y-2.59880
G01 X-3.66320 Y-2.59780
G01 X-3.66749 Y-2.59640
G01 X-3.67124 Y-2.59480
G01 X-3.67523 Y-2.59269
G01 X-3.67902 Y-2.59020
G01 X-3.68257 Y-2.58738
G01 X-3.68617 Y-2.58391
G01 X-3.68912 Y-2.58046
G01 X-3.69148 Y-2.57718
G01 X-3.69357 Y-2.57367
G01 X-3.69572 Y-2.56918
G01 X-3.69714 Y-2.56537
G01 X-3.69835 Y-2.56102
G01 X-3.69909 Y-2.55701
G01 X-3.69949 Y-2.55299
G01 X-3.69953 Y-2.54764
G01 X-3.69882 Y-2.54141
G01 X-3.69813 Y-2.53827
G01 X-3.69742 Y-2.53803
G01 X-3.69813 Y-2.53827
G01 X-3.80716 Y-2.42923
G01 X-3.80696 Y-2.42876
G01 X-3.80716 Y-2.42923
G01 X-3.91878 Y-2.42923
G01 X-3.91999 Y-2.42855
G01 X-3.92499 Y-2.42667
G01 X-3.93110 Y-2.42585
G01 X-4.06890 Y-2.42585
G01 X-4.07429 Y-2.42650
G01 X-4.08001 Y-2.42855
G01 X-4.08558 Y-2.43194
G01 X-4.08972 Y-2.43553
G01 X-4.14023 Y-2.43553
G01 X-4.14043 Y-2.43505
G01 X-4.14023 Y-2.43553
G01 X-4.24498 Y-2.54028
G01 X-4.24573 Y-2.54004
G01 X-4.24498 Y-2.54028
G01 X-4.24488 Y-2.54077
G01 X-4.24477 Y-2.54152
G01 X-4.24539 Y-2.54197
G01 X-4.24477 Y-2.54152
G01 X-4.01048 Y-2.65866
G01 X-4.01052 Y-2.65883
G01 X-4.01048 Y-2.65866
G01 X-3.93029 Y-2.65868
G01 X-3.92748 Y-2.65907
G01 X-3.92477 Y-2.65992
G01 X-3.92225 Y-2.66123
G01 X-3.91970 Y-2.66322
G01 X-3.91758 Y-2.66568
G01 X-3.91598 Y-2.66850
G01 X-3.91497 Y-2.67158
G01 X-3.91457 Y-2.67479
G01 X-3.91456 Y-2.81300
G01 X-3.91469 Y-2.81502
G01 X-3.91497 Y-2.81662
G01 X-3.91615 Y-2.82007
G01 X-3.91782 Y-2.82285
G01 X-3.92030 Y-2.82552
G01 X-3.92260 Y-2.82718
G01 X-3.92515 Y-2.82843
G01 X-3.92787 Y-2.82922
G01 X-3.93069 Y-2.82953
G01 X-4.06273 Y-2.82953
G01 X-4.06756 Y-2.82753
G01 X-4.07285 Y-2.82475
G01 X-4.07716 Y-2.82125
G01 X-4.08065 Y-2.81695
G01 X-4.08343 Y-2.81166
G01 X-4.08544 Y-2.80683
G01 X-4.08343 Y-2.81166
G01 X-4.08065 Y-2.81695
G01 X-4.07716 Y-2.82125
G01 X-4.07285 Y-2.82475
G01 X-4.06756 Y-2.82753
G01 X-4.04752 Y-2.83583
G01 X-3.93110 Y-2.83583
G01 X-3.92869 Y-2.83571
G01 X-3.92669 Y-2.83541
G01 X-3.92283 Y-2.83428
G01 X-3.91922 Y-2.83250
G01 X-3.91723 Y-2.83114
G01 X-3.91568 Y-2.82984
G01 X-3.91296 Y-2.82687
G01 X-3.91160 Y-2.82488
G01 X-3.91063 Y-2.82311
G01 X-3.90982 Y-2.82127
G01 X-3.90906 Y-2.81897
G01 X-3.90835 Y-2.81501
G01 X-3.90827 Y-2.70969
G01 X-3.90918 Y-2.70710
G01 X-3.91064 Y-2.69529
G01 X-3.91065 Y-2.67540
G01 X-3.91205 Y-2.66416
G01 X-3.91326 Y-2.66095
G01 X-3.91539 Y-2.65863
G01 X-3.91820 Y-2.65635
G01 X-3.92171 Y-2.65438
G01 X-3.92551 Y-2.65306
G01 X-3.92949 Y-2.65242
G01 X-4.00899 Y-2.65237
G01 X-4.00903 Y-2.65253
G01 X-4.00899 Y-2.65237
G01 X-4.23510 Y-2.53931
G01 X-4.23951 Y-2.54003
G01 X-4.23510 Y-2.53931
G01 X-4.13762 Y-2.44183
G01 X-4.13782 Y-2.44135
G01 X-4.13762 Y-2.44183
G01 X-4.09619 Y-2.44183
G01 X-4.09113 Y-2.43677
G01 X-4.08597 Y-2.43225
G01 X-4.08057 Y-2.42883
G01 X-4.07501 Y-2.42667
G01 X-4.06890 Y-2.42585
G01 X-3.93110 Y-2.42585
G01 X-3.92499 Y-2.42667
G01 X-3.91943 Y-2.42883
G01 X-3.91403 Y-2.43225
G01 X-3.90887 Y-2.43677
G01 X-3.90381 Y-2.44183
G01 X-3.81238 Y-2.44183
G01 X-3.81218 Y-2.44135
G01 X-3.81238 Y-2.44183
G01 X-3.71168 Y-2.54253
G01 X-3.71114 Y-2.54232
G01 X-3.71168 Y-2.54253
G01 X-3.71204 Y-2.54597
G01 X-3.71213 Y-2.55244
G01 X-3.71159 Y-2.55857
G01 X-3.71067 Y-2.56366
G01 X-3.70919 Y-2.56908
G01 X-3.70719 Y-2.57441
G01 X-3.70475 Y-2.57949
G01 X-3.70225 Y-2.58372
G01 X-3.69873 Y-2.58627
G01 X-3.69234 Y-2.59125
G01 X-3.68359 Y-2.59869
G01 X-3.67918 Y-2.60221
G01 X-3.67463 Y-2.60552
G01 X-3.66908 Y-2.60914
G01 X-3.66635 Y-2.61000
G01 X-3.66162 Y-2.61108
G01 X-3.65601 Y-2.61189
G01 X-3.64939 Y-2.61217
G01 X-3.64508 Y-2.61199
G01 X-3.64030 Y-2.61142
G01 X-3.63584 Y-2.61055
G01 X-3.63191 Y-2.60948
G01 X-3.62611 Y-2.60740
G01 X-3.62276 Y-2.60590
G01 X-3.61820 Y-2.60344
G01 X-3.61427 Y-2.60089
G01 X-3.61054 Y-2.59806
G01 X-3.60672 Y-2.59465
G01 X-3.60358 Y-2.59137
G01 X-3.60127 Y-2.58858
G01 X-3.60151 Y-2.58804
G01 X-3.60127 Y-2.58858
G01 X-3.29870 Y-2.58858
G01 X-3.29849 Y-2.58809
G01 X-3.29870 Y-2.58858
G01 X-3.29717 Y-2.59051
G01 X-3.29412 Y-2.59382
G01 X-3.29023 Y-2.59741
G01 X-3.28336 Y-2.60247
G01 X-3.27949 Y-2.60475
G01 X-3.27509 Y-2.60689
G01 X-3.26716 Y-2.60977
G01 X-3.25891 Y-2.61154
G01 X-3.25016 Y-2.61218
G01 X-3.24329 Y-2.61181
G01 X-3.23759 Y-2.61093
G01 X-3.23197 Y-2.60951
G01 X-3.22627 Y-2.60748
G01 X-3.22056 Y-2.60478
G01 X-3.21516 Y-2.60151
G01 X-3.21032 Y-2.59788
G01 X-3.20607 Y-2.59401
G01 X-3.20248 Y-2.59011
G01 X-3.19847 Y-2.58481
G01 X-3.19545 Y-2.57986
G01 X-3.19275 Y-2.57427
G01 X-3.19102 Y-2.56966
G01 X-3.18918 Y-2.56293
G01 X-3.18828 Y-2.55746
G01 X-3.18805 Y-2.55515
G01 X-3.18784 Y-2.54895
G01 X-3.20672 Y-2.54982
G01 X-3.20692 Y-2.55419
G01 X-3.20757 Y-2.55854
G01 X-3.20865 Y-2.56281
G01 X-3.21001 Y-2.56655
G01 X-3.21188 Y-2.57050
G01 X-3.21393 Y-2.57392
G01 X-3.21653 Y-2.57744
G01 X-3.21919 Y-2.58040
G01 X-3.22210 Y-2.58309
G01 X-3.22558 Y-2.58574
G01 X-3.22969 Y-2.58822
G01 X-3.23367 Y-2.59008
G01 X-3.23780 Y-2.59153
G01 X-3.24167 Y-2.59247
G01 X-3.24600 Y-2.59310
G01 X-3.25006 Y-2.59328
G01 X-3.25620 Y-2.59283
G01 X-3.26221 Y-2.59152
G01 X-3.26747 Y-2.58960
G01 X-3.27063 Y-2.58805
G01 X-3.27375 Y-2.58618
G01 X-3.27822 Y-2.58281
G01 X-3.28080 Y-2.58041
G01 X-3.28324 Y-2.57772
G01 X-3.28654 Y-2.57320
G01 X-3.28853 Y-2.56969
G01 X-3.61147 Y-2.56969
G01 X-3.61362 Y-2.57345
G01 X-3.61539 Y-2.57599
G01 X-3.61760 Y-2.57871
G01 X-3.61974 Y-2.58095
G01 X-3.62236 Y-2.58331
G01 X-3.62515 Y-2.58544
G01 X-3.62812 Y-2.58734
G01 X-3.63120 Y-2.58899
G01 X-3.63402 Y-2.59023
G01 X-3.63694 Y-2.59127
G01 X-3.64032 Y-2.59219
G01 X-3.64337 Y-2.59277
G01 X-3.64686 Y-2.59317
G01 X-3.65038 Y-2.59328
G01 X-3.65392 Y-2.59310
G01 X-3.65748 Y-2.59263
G01 X-3.66135 Y-2.59177
G01 X-3.66512 Y-2.59056
G01 X-3.66869 Y-2.58904
G01 X-3.67218 Y-2.58717
G01 X-3.67548 Y-2.58499
G01 X-3.67857 Y-2.58251
G01 X-3.68142 Y-2.57977
G01 X-3.68401 Y-2.57677
G01 X-3.68630 Y-2.57357
G01 X-3.68811 Y-2.57052
G01 X-3.68968 Y-2.56729
G01 X-3.69109 Y-2.56359
G01 X-3.69224 Y-2.55944
G01 X-3.69287 Y-2.55596
G01 X-3.69322 Y-2.55238
G01 X-3.69324 Y-2.54800
G01 X-3.69267 Y-2.54277
G01 X-3.69172 Y-2.53848
G01 X-3.69105 Y-2.53644
G01 X-3.80455 Y-2.42294
G01 X-4.14545 Y-2.42294
G01 X-4.25895 Y-2.53644
G01 X-4.25828 Y-2.53848
G01 X-4.25733 Y-2.54277
G01 X-4.25679 Y-2.54758
G01 X-4.25676 Y-2.54961
G01 X-4.01345 Y-2.67126
G01 X-3.93110 Y-2.67126
G01 X-3.92988 Y-2.67145
G01 X-3.92878 Y-2.67201
G01 X-3.92791 Y-2.67288
G01 X-3.92725 Y-2.67438
G01 X-3.92716 Y-2.81300
G01 X-3.92735 Y-2.81422
G01 X-3.92817 Y-2.81563
G01 X-3.92950 Y-2.81660
G01 X-3.93110 Y-2.81694
G01 X-4.06890 Y-2.81694
G01 X-4.07050 Y-2.81660
G01 X-4.07182 Y-2.81563
G01 X-4.07250 Y-2.81460
G01 X-4.07284 Y-2.81300
G01 X-4.07284 Y-2.68559
G01 X-4.27440 Y-2.58481
G01 X-4.27667 Y-2.58645
G01 X-4.28090 Y-2.58884
G01 X-4.28575 Y-2.59087
G01 X-4.29042 Y-2.59221
G01 X-4.29561 Y-2.59306
G01 X-4.30044 Y-2.59328
G01 X-4.30527 Y-2.59296
G01 X-4.31003 Y-2.59210
G01 X-4.31468 Y-2.59071
G01 X-4.31953 Y-2.58862
G01 X-4.32368 Y-2.58622
G01 X-4.32759 Y-2.58334
G01 X-4.33114 Y-2.58006
G01 X-4.33456 Y-2.57606
G01 X-4.33726 Y-2.57202
G01 X-4.33847 Y-2.56969
G01 X-4.66147 Y-2.56969
G01 X-4.66362 Y-2.57345
G01 X-4.66539 Y-2.57599
G01 X-4.66760 Y-2.57871
G01 X-4.66974 Y-2.58095
G01 X-4.67236 Y-2.58331
G01 X-4.67489 Y-2.58526
G01 X-4.67772 Y-2.58711
G01 X-4.68043 Y-2.58861
G01 X-4.68362 Y-2.59006
G01 X-4.68652 Y-2.59113
G01 X-4.68989 Y-2.59209
G01 X-4.69293 Y-2.59270
G01 X-4.69640 Y-2.59314
G01 X-4.69950 Y-2.59328
G01 X-4.70304 Y-2.59318
G01 X-4.70697 Y-2.59272
G01 X-4.71049 Y-2.59199
G01 X-4.71429 Y-2.59086
G01 X-4.71834 Y-2.58920
G01 X-4.72219 Y-2.58716
G01 X-4.72583 Y-2.58473
G01 X-4.72890 Y-2.58222
G01 X-4.73172 Y-2.57945
G01 X-4.73406 Y-2.57671
G01 X-4.73655 Y-2.57318
G01 X-4.73853 Y-2.56973
G01 X-4.74032 Y-2.56573
G01 X-4.74149 Y-2.56233
G01 X-4.74244 Y-2.55849
G01 X-4.74308 Y-2.55415
G01 X-4.74328 Y-2.55018
G01 X-4.74308 Y-2.54584
G01 X-4.74244 Y-2.54151
G01 X-4.74149 Y-2.53767
G01 X-4.74032 Y-2.53427
G01 X-4.73835 Y-2.52994
G01 X-4.73655 Y-2.52682
G01 X-4.73428 Y-2.52358
G01 X-4.73116 Y-2.51996
G01 X-4.72825 Y-2.51721
G01 X-4.72512 Y-2.51475
G01 X-4.72110 Y-2.51221
G01 X-4.71754 Y-2.51043
G01 X-4.71382 Y-2.50898
G01 X-4.70962 Y-2.50780
G01 X-4.70531 Y-2.50704
G01 X-4.70140 Y-2.50674
G01 X-4.69830 Y-2.50675
G01 X-4.69479 Y-2.50703
G01 X-4.69163 Y-2.50753
G01 X-4.68861 Y-2.50824
G01 X-4.68567 Y-2.50915
G01 X-4.68242 Y-2.51045
G01 X-4.67709 Y-2.51328
G01 X-4.67178 Y-2.51718
G01 X-4.66943 Y-2.51936
G01 X-4.66731 Y-2.52162
G01 X-4.66538 Y-2.52402
G01 X-4.66339 Y-2.52690
G01 X-4.66147 Y-2.53031
G01 X-4.33850 Y-2.53031
G01 X-4.33772 Y-2.52877
G01 X-4.33561 Y-2.52540
G01 X-4.33294 Y-2.52193
G01 X-4.33023 Y-2.51902
G01 X-4.32724 Y-2.51636
G01 X-4.32404 Y-2.51400
G01 X-4.32028 Y-2.51176
G01 X-4.31668 Y-2.51006
G01 X-4.31256 Y-2.50858
G01 X-4.30870 Y-2.50760
G01 X-4.30437 Y-2.50694
G01 X-4.30040 Y-2.50672
G01 X-4.29606 Y-2.50690
G01 X-4.29210 Y-2.50744
G01 X-4.28823 Y-2.50835
G01 X-4.28643 Y-2.50894
G01 X-4.16724 Y-2.38975
G01 X-4.16397 Y-2.38714
G01 X-4.16094 Y-2.38554
G01 X-4.15766 Y-2.38453
G01 X-4.15350 Y-2.38406
G01 X-3.79650 Y-2.38406
G01 X-3.79271 Y-2.38443
G01 X-3.78906 Y-2.38554
G01 X-3.78570 Y-2.38734
G01 X-3.78275 Y-2.38975
G01 X-3.66357 Y-2.50894
G01 X-3.66177 Y-2.50835
G01 X-3.65790 Y-2.50744
G01 X-3.65394 Y-2.50690
G01 X-3.64960 Y-2.50672
G01 X-3.64563 Y-2.50694
G01 X-3.64130 Y-2.50760
G01 X-3.63744 Y-2.50858
G01 X-3.63332 Y-2.51006
G01 X-3.62972 Y-2.51176
G01 X-3.62596 Y-2.51400
G01 X-3.62276 Y-2.51636
G01 X-3.61977 Y-2.51902
G01 X-3.61705 Y-2.52193
G01 X-3.61439 Y-2.52540
G01 X-3.61228 Y-2.52877
G01 X-3.61150 Y-2.53031
G01 X-3.28853 Y-2.53031
G01 X-3.28661 Y-2.52690
G01 X-3.28462 Y-2.52402
G01 X-3.28269 Y-2.52162
G01 X-3.28057 Y-2.51936
G01 X-3.27822 Y-2.51718
G01 X-3.27291 Y-2.51328
G01 X-3.26758 Y-2.51045
G01 X-3.26433 Y-2.50915
G01 X-3.26139 Y-2.50824
G01 X-3.25837 Y-2.50753
G01 X-3.25489 Y-2.50699
G01 X-3.25140 Y-2.50674
G01 X-3.24828 Y-2.50675
G01 X-3.24431 Y-2.50709
G01 X-3.24001 Y-2.50788
G01 X-3.23618 Y-2.50898
G01 X-3.23211 Y-2.51059
G01 X-3.22857 Y-2.51240
G01 X-3.22488 Y-2.51475
G01 X-3.22175 Y-2.51721
G01 X-3.21884 Y-2.51996
G01 X-3.21595 Y-2.52328
G01 X-3.21364 Y-2.52651
G01 X-3.21165 Y-2.52994
G01 X-3.20982 Y-2.53391
G01 X-3.20851 Y-2.53767
G01 X-3.20756 Y-2.54151
G01 X-3.20692 Y-2.54584
G01 X-3.20672 Y-2.54982
G04 P0 ( dwell for no time -- G64 should not smooth over this point )
G00 Z0.08000 ( retract )

G00 X-3.45239 Y-2.84843 ( rapid move to begin. )
G01 F180.00000
( Mill infeed pass 1/1 )
G01 Z-0.04000
G04 P0 ( dwell for no time -- G64 should not smooth over this point )
G01 F360.00000
G01 X-3.45239 Y-2.84843
G01 X-3.45287 Y-2.84039
G01 X-3.45334 Y-2.83651
G01 X-3.45460 Y-2.82949
G01 X-3.45722 Y-2.82456
G01 X-3.45994 Y-2.82061
G01 X-3.46353 Y-2.81643
G01 X-3.46790 Y-2.81244
G01 X-3.47460 Y-2.81038
G01 X-3.47924 Y-2.80926
G01 X-3.48414 Y-2.80834
G01 X-3.48913 Y-2.80767
G01 X-3.49404 Y-2.80729
G01 X-3.49892 Y-2.80719
G01 X-3.50526 Y-2.80745
G01 X-3.51004 Y-2.80795
G01 X-3.51450 Y-2.80864
G01 X-3.51963 Y-2.80972
G01 X-3.52473 Y-2.81108
G01 X-3.52894 Y-2.81244
G01 X-3.53253 Y-2.81562
G01 X-3.53597 Y-2.81945
G01 X-3.53745 Y-2.82136
G01 X-3.54047 Y-2.82598
G01 X-3.54259 Y-2.83021
G01 X-3.54362 Y-2.83266
G01 X-3.54531 Y-2.83790
G01 X-3.54638 Y-2.84334
G01 X-3.54645 Y-2.84381
G01 X-3.54621 Y-2.84395
G01 X-3.54645 Y-2.84381
G01 X-3.60737 Y-2.90473
G01 X-3.60724 Y-2.90682
G01 X-3.60737 Y-2.90473
G01 X-3.61225 Y-2.90059
G01 X-3.61653 Y-2.89759
G01 X-3.62031 Y-2.89537
G01 X-3.62662 Y-2.89239
G01 X-3.63333 Y-2.89012
G01 X-3.63603 Y-2.88943
G01 X-3.64231 Y-2.88829
G01 X-3.65001 Y-2.88782
G01 X-3.65774 Y-2.88831
G01 X-3.66343 Y-2.88928
G01 X-3.66782 Y-2.89042
G01 X-3.67168 Y-2.89173
G01 X-3.67698 Y-2.89398
G01 X-3.68403 Y-2.89795
G01 X-3.68905 Y-2.90162
G01 X-3.69239 Y-2.90451
G01 X-3.69710 Y-2.90943
G01 X-3.69891 Y-2.91167
G01 X-3.69871 Y-2.91215
G01 X-3.69891 Y-2.91167
G01 X-3.97992 Y-2.91167
G01 X-3.98012 Y-2.91214
G01 X-3.97992 Y-2.91167
G01 X-4.04993 Y-2.84165
G01 X-4.06514 Y-2.83535
G01 X-3.98253 Y-2.91796
G01 X-3.98273 Y-2.91844
G01 X-3.98253 Y-2.91796
G01 X-3.69567 Y-2.91796
G01 X-3.69533 Y-2.91864
G01 X-3.69567 Y-2.91796
G01 X-3.69330 Y-2.91467
G01 X-3.68745 Y-2.90852
G01 X-3.68433 Y-2.90590
G01 X-3.68109 Y-2.90356
G01 X-3.67457 Y-2.89982
G01 X-3.66963 Y-2.89769
G01 X-3.66581 Y-2.89640
G01 X-3.66228 Y-2.89548
G01 X-3.65721 Y-2.89459
G01 X-3.65002 Y-2.89412
G01 X-3.64312 Y-2.89454
G01 X-3.63642 Y-2.89579
G01 X-3.62995 Y-2.89783
G01 X-3.62416 Y-2.90045
G01 X-3.62008 Y-2.90280
G01 X-3.61653 Y-2.90526
G01 X-3.61179 Y-2.90922
G01 X-3.60896 Y-2.91206
G01 X-3.60750 Y-2.91377
G01 X-3.60747 Y-2.91628
G01 X-3.60750 Y-2.91377
G01 X-3.54037 Y-2.84664
G01 X-3.54008 Y-2.84679
G01 X-3.54037 Y-2.84664
G01 X-3.54025 Y-2.84494
G01 X-3.53916 Y-2.83927
G01 X-3.53747 Y-2.83418
G01 X-3.53512 Y-2.82931
G01 X-3.53221 Y-2.82486
G01 X-3.53101 Y-2.82334
G01 X-3.52769 Y-2.81970
G01 X-3.52317 Y-2.81592
G01 X-3.52047 Y-2.81410
G01 X-3.51647 Y-2.81193
G01 X-3.51225 Y-2.81021
G01 X-3.50915 Y-2.80927
G01 X-3.50308 Y-2.80814
G01 X-3.49985 Y-2.80790
G01 X-3.49529 Y-2.80799
G01 X-3.49071 Y-2.80858
G01 X-3.48710 Y-2.80944
G01 X-3.48156 Y-2.81140
G01 X-3.47826 Y-2.81301
G01 X-3.47439 Y-2.81540
G01 X-3.47080 Y-2.81820
G01 X-3.46814 Y-2.82072
G01 X-3.46494 Y-2.82444
G01 X-3.46284 Y-2.82745
G01 X-3.45962 Y-2.83361
G01 X-3.45748 Y-2.84012
G01 X-3.45651 Y-2.84600
G01 X-3.45636 Y-2.84794
G01 X-3.45646 Y-2.85363
G01 X-3.45727 Y-2.85886
G01 X-3.45776 Y-2.86096
G01 X-3.45930 Y-2.86558
G01 X-3.46017 Y-2.86756
G01 X-3.46279 Y-2.87246
G01 X-3.46634 Y-2.87727
G01 X-3.46771 Y-2.87880
G01 X-3.47055 Y-2.88159
G01 X-3.47397 Y-2.88429
G01 X-3.47946 Y-2.88761
G01 X-3.48392 Y-2.88955
G01 X-3.48857 Y-2.89096
G01 X-3.49377 Y-2.89187
G01 X-3.49509 Y-2.89197
G01 X-3.49524 Y-2.89168
G01 X-3.49509 Y-2.89197
G01 X-3.57577 Y-2.97265
G01 X-3.58029 Y-2.97641
G01 X-3.58202 Y-2.97747
G01 X-3.58616 Y-2.97960
G01 X-3.59218 Y-2.98142
G01 X-3.59843 Y-2.98204
G01 X-3.60433 Y-2.98204
G01 X-3.60464 Y-2.98146
G01 X-3.60433 Y-2.98204
G01 X-3.60670 Y-2.98533
G01 X-3.61273 Y-2.99164
G01 X-3.61901 Y-2.99650
G01 X-3.62487 Y-2.99990
G01 X-3.62664 Y-3.00074
G01 X-3.63295 Y-3.00322
G01 X-3.64028 Y-3.00503
G01 X-3.64777 Y-3.00583
G01 X-3.65245 Y-3.00582
G01 X-3.65781 Y-3.00533
G01 X-3.66544 Y-3.00370
G01 X-3.66891 Y-3.00259
G01 X-3.67295 Y-3.00096
G01 X-3.67919 Y-2.99764
G01 X-3.68376 Y-2.99453
G01 X-3.68686 Y-2.99200
G01 X-3.68950 Y-2.98953
G01 X-3.69341 Y-2.98514
G01 X-3.69564 Y-2.98210
G01 X-3.69536 Y-2.98150
G01 X-3.69564 Y-2.98210
G01 X-3.99580 Y-2.98204
G01 X-4.00165 Y-2.98149
G01 X-4.00730 Y-2.97989
G01 X-4.00953 Y-2.97890
G01 X-4.01360 Y-2.97664
G01 X-4.01845 Y-2.97265
G01 X-4.17016 Y-2.82094
G01 X-4.16996 Y-2.82046
G01 X-4.17016 Y-2.82094
G01 X-4.27530 Y-2.82094
G01 X-4.27870 Y-2.81972
G01 X-4.28543 Y-2.81783
G01 X-4.29215 Y-2.81668
G01 X-4.29846 Y-2.81622
G01 X-4.42459 Y-2.81618
G01 X-4.43004 Y-2.81439
G01 X-4.43600 Y-2.81290
G01 X-4.44057 Y-2.81206
G01 X-4.44347 Y-2.81171
G01 X-4.44935 Y-2.81130
G01 X-4.45225 Y-2.81125
G01 X-4.45780 Y-2.81153
G01 X-4.46379 Y-2.81226
G01 X-4.46978 Y-2.81350
G01 X-4.47386 Y-2.81465
G01 X-4.51209 Y-2.81464
G01 X-4.51330 Y-2.81396
G01 X-4.51829 Y-2.81203
G01 X-4.52441 Y-2.81124
G01 X-4.57559 Y-2.81123
G01 X-4.58375 Y-2.81262
G01 X-4.59058 Y-2.81630
G01 X-4.60155 Y-2.81634
G01 X-4.60784 Y-2.81678
G01 X-4.61438 Y-2.81794
G01 X-4.61757 Y-2.81872
G01 X-4.62433 Y-2.82094
G01 X-4.63642 Y-2.82094
G01 X-4.63662 Y-2.82046
G01 X-4.63642 Y-2.82094
G01 X-4.70387 Y-2.88840
G01 X-4.71079 Y-2.89169
G01 X-4.71751 Y-2.89542
G01 X-4.72369 Y-2.89942
G01 X-4.72941 Y-2.90368
G01 X-4.73357 Y-2.90717
G01 X-4.73866 Y-2.91194
G01 X-4.74408 Y-2.91786
G01 X-4.74852 Y-2.92344
G01 X-4.74925 Y-2.92459
G01 X-4.74945 Y-2.92517
G01 X-4.74956 Y-2.92513
G01 X-4.74945 Y-2.92517
G01 X-4.75079 Y-2.93140
G01 X-4.75162 Y-2.93670
G01 X-4.75226 Y-2.94316
G01 X-4.75249 Y-2.94975
G01 X-4.75231 Y-2.95611
G01 X-4.75164 Y-2.96324
G01 X-4.75063 Y-2.96949
G01 X-4.74925 Y-2.97548
G01 X-4.74943 Y-2.97556
G01 X-4.74925 Y-2.97548
G01 X-4.74441 Y-2.98174
G01 X-4.74024 Y-2.98643
G01 X-4.73706 Y-2.98961
G01 X-4.73120 Y-2.99487
G01 X-4.72760 Y-2.99774
G01 X-4.72415 Y-3.00023
G01 X-4.57886 Y-3.14552
G01 X-4.57906 Y-3.14600
G01 X-4.57886 Y-3.14552
G01 X-4.54928 Y-3.14552
G01 X-4.54912 Y-3.14595
G01 X-4.54928 Y-3.14552
G01 X-4.54745 Y-3.14364
G01 X-4.54468 Y-3.14129
G01 X-4.54139 Y-3.13903
G01 X-4.53753 Y-3.13696
G01 X-4.53392 Y-3.13551
G01 X-4.53006 Y-3.13441
G01 X-4.52611 Y-3.13373
G01 X-4.52224 Y-3.13348
G01 X-4.47801 Y-3.13347
G01 X-4.47322 Y-3.13381
G01 X-4.46866 Y-3.13473
G01 X-4.46405 Y-3.13627
G01 X-4.45951 Y-3.13849
G01 X-4.45565 Y-3.14104
G01 X-4.45195 Y-3.14421
G01 X-4.44883 Y-3.14766
G01 X-4.44703 Y-3.15018
G01 X-4.44599 Y-3.15410
G01 X-4.44461 Y-3.16144
G01 X-4.44399 Y-3.16854
G01 X-4.44396 Y-3.17295
G01 X-4.44413 Y-3.17648
G01 X-4.44501 Y-3.18369
G01 X-4.44581 Y-3.18764
G01 X-4.44706 Y-3.19241
G01 X-4.45041 Y-3.19670
G01 X-4.45264 Y-3.19897
G01 X-4.45507 Y-3.20103
G01 X-4.45840 Y-3.20336
G01 X-4.46275 Y-3.20569
G01 X-4.46758 Y-3.20747
G01 X-4.45304 Y-3.20748
G01 X-4.45119 Y-3.20359
G01 X-4.44943 Y-3.19937
G01 X-4.44796 Y-3.19532
G01 X-4.44677 Y-3.19143
G01 X-4.44706 Y-3.19241
G01 X-4.44748 Y-3.19305
G01 X-4.45007 Y-3.19634
G01 X-4.45264 Y-3.19897
G01 X-4.45547 Y-3.20134
G01 X-4.45872 Y-3.20356
G01 X-4.46237 Y-3.20551
G01 X-4.46758 Y-3.20747
G01 X-4.53239 Y-3.20748
G01 X-4.53609 Y-3.20619
G01 X-4.53948 Y-3.20457
G01 X-4.54319 Y-3.20231
G01 X-4.54737 Y-3.19895
G01 X-4.54928 Y-3.19699
G01 X-4.54912 Y-3.19658
G01 X-4.54928 Y-3.19699
G01 X-4.59002 Y-3.19698
G01 X-4.59394 Y-3.19660
G01 X-4.59551 Y-3.19626
G01 X-4.59955 Y-3.19496
G01 X-4.60330 Y-3.19298
G01 X-4.60462 Y-3.19206
G01 X-4.60772 Y-3.18946
G01 X-4.79305 Y-3.00413
G01 X-4.79613 Y-3.00039
G01 X-4.79838 Y-2.99633
G01 X-4.80005 Y-2.99114
G01 X-4.80058 Y-2.98626
G01 X-4.80058 Y-2.91374
G01 X-4.80019 Y-2.90964
G01 X-4.79985 Y-2.90808
G01 X-4.79855 Y-2.90404
G01 X-4.79657 Y-2.90028
G01 X-4.79565 Y-2.89897
G01 X-4.79305 Y-2.89587
G01 X-4.66789 Y-2.77071
G01 X-4.66415 Y-2.76762
G01 X-4.66008 Y-2.76538
G01 X-4.65490 Y-2.76371
G01 X-4.64969 Y-2.76317
G01 X-4.15689 Y-2.76317
G01 X-4.15167 Y-2.76371
G01 X-4.14723 Y-2.76506
G01 X-4.14345 Y-2.76699
G01 X-4.14210 Y-2.76786
G01 X-4.13869 Y-2.77071
G01 X-3.98514 Y-2.92426
G01 X-3.98534 Y-2.92474
G01 X-3.98514 Y-2.92426
G01 X-3.69238 Y-2.92426
G01 X-3.69202 Y-2.92496
G01 X-3.69238 Y-2.92426
G01 X-3.68796 Y-2.91811
G01 X-3.68333 Y-2.91329
G01 X-3.68061 Y-2.91099
G01 X-3.67674 Y-2.90827
G01 X-3.67122 Y-2.90518
G01 X-3.66796 Y-2.90378
G01 X-3.66419 Y-2.90249
G01 X-3.66073 Y-2.90159
G01 X-3.65682 Y-2.90088
G01 X-3.64957 Y-2.90042
G01 X-3.64351 Y-2.90084
G01 X-3.63757 Y-2.90200
G01 X-3.63149 Y-2.90401
G01 X-3.62704 Y-2.90605
G01 X-3.62346 Y-2.90811
G01 X-3.61976 Y-2.91070
G01 X-3.61632 Y-2.91361
G01 X-3.61346 Y-2.91648
G01 X-3.61111 Y-2.91924
G01 X-3.60818 Y-2.92336
G01 X-3.60832 Y-2.92639
G01 X-3.60818 Y-2.92336
G01 X-3.53423 Y-2.84941
G01 X-3.53392 Y-2.84957
G01 X-3.53423 Y-2.84941
G01 X-3.53399 Y-2.84573
G01 X-3.53318 Y-2.84129
G01 X-3.53164 Y-2.83657
G01 X-3.52966 Y-2.83245
G01 X-3.52677 Y-2.82809
G01 X-3.52360 Y-2.82451
G01 X-3.52021 Y-2.82156
G01 X-3.51734 Y-2.81957
G01 X-3.51394 Y-2.81771
G01 X-3.51034 Y-2.81621
G01 X-3.50670 Y-2.81514
G01 X-3.50291 Y-2.81446
G01 X-3.49947 Y-2.81419
G01 X-3.49557 Y-2.81429
G01 X-3.49168 Y-2.81481
G01 X-3.48787 Y-2.81576
G01 X-3.48424 Y-2.81710
G01 X-3.48114 Y-2.81862
G01 X-3.47783 Y-2.82068
G01 X-3.47479 Y-2.82308
G01 X-3.47231 Y-2.82548
G01 X-3.46963 Y-2.82870
G01 X-3.46781 Y-2.83140
G01 X-3.46527 Y-2.83643
G01 X-3.46364 Y-2.84142
G01 X-3.46269 Y-2.84743
G01 X-3.46273 Y-2.85308
G01 X-3.46365 Y-2.85861
G01 X-3.46542 Y-2.86394
G01 X-3.46802 Y-2.86895
G01 X-3.47161 Y-2.87376
G01 X-3.47501 Y-2.87711
G01 X-3.47818 Y-2.87956
G01 X-3.48126 Y-2.88143
G01 X-3.48612 Y-2.88365
G01 X-3.49001 Y-2.88482
G01 X-3.49401 Y-2.88554
G01 X-3.49781 Y-2.88578
G01 X-3.49797 Y-2.88545
G01 X-3.49781 Y-2.88578
G01 X-3.58023 Y-2.96820
G01 X-3.58396 Y-2.97128
G01 X-3.58876 Y-2.97385
G01 X-3.59400 Y-2.97534
G01 X-3.59809 Y-2.97573
G01 X-3.60762 Y-2.97574
G01 X-3.60796 Y-2.97509
G01 X-3.60762 Y-2.97574
G01 X-3.61157 Y-2.98133
G01 X-3.61640 Y-2.98646
G01 X-3.62222 Y-2.99107
G01 X-3.62800 Y-2.99443
G01 X-3.63487 Y-2.99722
G01 X-3.64136 Y-2.99882
G01 X-3.64839 Y-2.99955
G01 X-3.65236 Y-2.99952
G01 X-3.65700 Y-2.99907
G01 X-3.66284 Y-2.99789
G01 X-3.66622 Y-2.99685
G01 X-3.67062 Y-2.99509
G01 X-3.67655 Y-2.99188
G01 X-3.68012 Y-2.98938
G01 X-3.68257 Y-2.98738
G01 X-3.68544 Y-2.98467
G01 X-3.68810 Y-2.98173
G01 X-3.69184 Y-2.97660
G01 X-3.69233 Y-2.97580
G01 X-3.69202 Y-2.97516
G01 X-3.69233 Y-2.97580
G01 X-3.99580 Y-2.97574
G01 X-4.00062 Y-2.97528
G01 X-4.00509 Y-2.97399
G01 X-4.00993 Y-2.97151
G01 X-4.01400 Y-2.96820
G01 X-4.16755 Y-2.81465
G01 X-4.16735 Y-2.81417
G01 X-4.16755 Y-2.81465
G01 X-4.42922 Y-2.81465
G01 X-4.43453 Y-2.81322
G01 X-4.44066 Y-2.81207
G01 X-4.44808 Y-2.81135
G01 X-4.45235 Y-2.81127
G01 X-4.45792 Y-2.81154
G01 X-4.46367 Y-2.81226
G01 X-4.47172 Y-2.81400
G01 X-4.47596 Y-2.81528
G01 X-4.48231 Y-2.81764
G01 X-4.48942 Y-2.82094
G01 X-4.50358 Y-2.82094
G01 X-4.50773 Y-2.81735
G01 X-4.51330 Y-2.81396
G01 X-4.51902 Y-2.81191
G01 X-4.52441 Y-2.81126
G01 X-4.57559 Y-2.81126
G01 X-4.58372 Y-2.81269
G01 X-4.58747 Y-2.81464
G01 X-4.63903 Y-2.81465
G01 X-4.63922 Y-2.81417
G01 X-4.63903 Y-2.81465
G01 X-4.72412 Y-2.89973
G01 X-4.72941 Y-2.90368
G01 X-4.73349 Y-2.90710
G01 X-4.73865 Y-2.91195
G01 X-4.74408 Y-2.91786
G01 X-4.74895 Y-2.92405
G01 X-4.74945 Y-2.92517
G01 X-4.75047 Y-2.92974
G01 X-4.75163 Y-2.93680
G01 X-4.75226 Y-2.94316
G01 X-4.75249 Y-2.94985
G01 X-4.75231 Y-2.95611
G01 X-4.75164 Y-2.96315
G01 X-4.75063 Y-2.96949
G01 X-4.74925 Y-2.97548
G01 X-4.74543 Y-2.98052
G01 X-4.74016 Y-2.98649
G01 X-4.73593 Y-2.99068
G01 X-4.73229 Y-2.99395
G01 X-4.72767 Y-2.99768
G01 X-4.72265 Y-3.00129
G01 X-4.71695 Y-3.00490
G01 X-4.71117 Y-3.00812
G01 X-4.70386 Y-3.01161
G01 X-4.57625 Y-3.13922
G01 X-4.57645 Y-3.13970
G01 X-4.57625 Y-3.13922
G01 X-4.55195 Y-3.13922
G01 X-4.55183 Y-3.13956
G01 X-4.55190 Y-3.13917
G01 X-4.54764 Y-3.13565
G01 X-4.54412 Y-3.13332
G01 X-4.53953 Y-3.13097
G01 X-4.53577 Y-3.12949
G01 X-4.53125 Y-3.12822
G01 X-4.52663 Y-3.12745
G01 X-4.52212 Y-3.12717
G01 X-4.47801 Y-3.12717
G01 X-4.47234 Y-3.12758
G01 X-4.46700 Y-3.12865
G01 X-4.46163 Y-3.13046
G01 X-4.45676 Y-3.13281
G01 X-4.45295 Y-3.13524
G01 X-4.45092 Y-3.13955
G01 X-4.44879 Y-3.14485
G01 X-4.44706 Y-3.15009
G01 X-4.44599 Y-3.15410
G01 X-4.44520 Y-3.15781
G01 X-4.44449 Y-3.16239
G01 X-4.44414 Y-3.16593
G01 X-4.44395 Y-3.17205
G01 X-4.44407 Y-3.17556
G01 X-4.44448 Y-3.18004
G01 X-4.44556 Y-3.18652
G01 X-4.44645 Y-3.19025
G01 X-4.44796 Y-3.19532
G01 X-4.44943 Y-3.19937
G01 X-4.45241 Y-3.20621
G01 X-4.45293 Y-3.20726
G01 X-4.45325 Y-3.20748
G01 X-4.54681 Y-3.20746
G01 X-4.55134 Y-3.20386
G01 X-4.55194 Y-3.20329
G01 X-4.55181 Y-3.20293
G01 X-4.55194 Y-3.20329
G01 X-4.58952 Y-3.20329
G01 X-4.59577 Y-3.20268
G01 X-4.60064 Y-3.20128
G01 X-4.60288 Y-3.20035
G01 X-4.60731 Y-3.19789
G01 X-4.61158 Y-3.19447
G01 X-4.79750 Y-3.00858
G01 X-4.80052 Y-3.00503
G01 X-4.80171 Y-3.00339
G01 X-4.80394 Y-2.99929
G01 X-4.80499 Y-2.99666
G01 X-4.80627 Y-2.99218
G01 X-4.80687 Y-2.98674
G01 X-4.80689 Y-2.91407
G01 X-4.80634 Y-2.90822
G01 X-4.80499 Y-2.90334
G01 X-4.80394 Y-2.90070
G01 X-4.80126 Y-2.89594
G01 X-4.79750 Y-2.89142
G01 X-4.67205 Y-2.76597
G01 X-4.66782 Y-2.76250
G01 X-4.66341 Y-2.76001
G01 X-4.66080 Y-2.75889
G01 X-4.65594 Y-2.75749
G01 X-4.64969 Y-2.75687
G01 X-4.15689 Y-2.75687
G01 X-4.15184 Y-2.75730
G01 X-4.14985 Y-2.75767
G01 X-4.14616 Y-2.75876
G01 X-4.14352 Y-2.75982
G01 X-4.13909 Y-2.76227
G01 X-4.13482 Y-2.76570
G01 X-4.09125 Y-2.80924
G01 X-4.08920 Y-2.81420
G01 X-4.08612 Y-2.82019
G01 X-4.08141 Y-2.82596
G01 X-4.07608 Y-2.83021
G01 X-4.07037 Y-2.83318
G01 X-4.06514 Y-2.83535
G01 X-4.07037 Y-2.83318
G01 X-4.07606 Y-2.83018
G01 X-4.08184 Y-2.82548
G01 X-4.08608 Y-2.82016
G01 X-4.08907 Y-2.81447
G01 X-4.09755 Y-2.79403
G01 X-4.13005 Y-2.76154
G01 X-4.13509 Y-2.75738
G01 X-4.13680 Y-2.75628
G01 X-4.14055 Y-2.75426
G01 X-4.14394 Y-2.75286
G01 X-4.14802 Y-2.75163
G01 X-4.15001 Y-2.75120
G01 X-4.15651 Y-2.75058
G01 X-4.64969 Y-2.75057
G01 X-4.65656 Y-2.75120
G01 X-4.65895 Y-2.75174
G01 X-4.66302 Y-2.75299
G01 X-4.66566 Y-2.75408
G01 X-4.67047 Y-2.75670
G01 X-4.67247 Y-2.75811
G01 X-4.67653 Y-2.76154
G01 X-4.80196 Y-2.88696
G01 X-4.80539 Y-2.89097
G01 X-4.80706 Y-2.89329
G01 X-4.80968 Y-2.89810
G01 X-4.81102 Y-2.90151
G01 X-4.81249 Y-2.90679
G01 X-4.81316 Y-2.91295
G01 X-4.81318 Y-2.98593
G01 X-4.81273 Y-2.99159
G01 X-4.81190 Y-2.99558
G01 X-4.81064 Y-2.99965
G01 X-4.80968 Y-3.00190
G01 X-4.80661 Y-3.00739
G01 X-4.80222 Y-3.01277
G01 X-4.61662 Y-3.19836
G01 X-4.61230 Y-3.20205
G01 X-4.60996 Y-3.20368
G01 X-4.60438 Y-3.20660
G01 X-4.59917 Y-3.20831
G01 X-4.59559 Y-3.20909
G01 X-4.59026 Y-3.20958
G01 X-4.56071 Y-3.20959
G01 X-4.55683 Y-3.20805
G01 X-4.55470 Y-3.20738
G01 X-4.55039 Y-3.20749
G01 X-4.45304 Y-3.20748
G01 X-4.45049 Y-3.20199
G01 X-4.44888 Y-3.19794
G01 X-4.44677 Y-3.19143
G01 X-4.44556 Y-3.18652
G01 X-4.44484 Y-3.18265
G01 X-4.44413 Y-3.17648
G01 X-4.44395 Y-3.17205
G01 X-4.44414 Y-3.16593
G01 X-4.44461 Y-3.16144
G01 X-4.44573 Y-3.15519
G01 X-4.44706 Y-3.15009
G01 X-4.44879 Y-3.14485
G01 X-4.45092 Y-3.13955
G01 X-4.45373 Y-3.13370
G01 X-4.45550 Y-3.13042
G01 X-4.45893 Y-3.12476
G01 X-4.46416 Y-3.12292
G01 X-4.46614 Y-3.12238
G01 X-4.47145 Y-3.12134
G01 X-4.47669 Y-3.12091
G01 X-4.52165 Y-3.12087
G01 X-4.52650 Y-3.12111
G01 X-4.53341 Y-3.12226
G01 X-4.53779 Y-3.12352
G01 X-4.54265 Y-3.12545
G01 X-4.54707 Y-3.12775
G01 X-4.54878 Y-3.12881
G01 X-4.55279 Y-3.13165
G01 X-4.55430 Y-3.13292
G01 X-4.55420 Y-3.13324
G01 X-4.55430 Y-3.13292
G01 X-4.57364 Y-3.13292
G01 X-4.57384 Y-3.13340
G01 X-4.57364 Y-3.13292
G01 X-4.68961 Y-3.01695
G01 X-4.69773 Y-3.01414
G01 X-4.70451 Y-3.01133
G01 X-4.70921 Y-3.00911
G01 X-4.71535 Y-3.00583
G01 X-4.72273 Y-3.00124
G01 X-4.72644 Y-2.99861
G01 X-4.73113 Y-2.99492
G01 X-4.73706 Y-2.98961
G01 X-4.74117 Y-2.98541
G01 X-4.74448 Y-2.98167
G01 X-4.74925 Y-2.97548
G01 X-4.75063 Y-2.96949
G01 X-4.75181 Y-2.96180
G01 X-4.75231 Y-2.95611
G01 X-4.75248 Y-2.95122
G01 X-4.75234 Y-2.94456
G01 X-4.75163 Y-2.93680
G01 X-4.75047 Y-2.92974
G01 X-4.74925 Y-2.92459
G01 X-4.74749 Y-2.92208
G01 X-4.74301 Y-2.91662
G01 X-4.73865 Y-2.91195
G01 X-4.73482 Y-2.90829
G01 X-4.72941 Y-2.90368
G01 X-4.72369 Y-2.89942
G01 X-4.71751 Y-2.89543
G01 X-4.71079 Y-2.89169
G01 X-4.70342 Y-2.88819
G01 X-4.69452 Y-2.88468
G01 X-4.63521 Y-2.82545
G01 X-4.63528 Y-2.82535
G01 X-4.63521 Y-2.82545
G01 X-4.62651 Y-2.82178
G01 X-4.62137 Y-2.81989
G01 X-4.61453 Y-2.81797
G01 X-4.61103 Y-2.81727
G01 X-4.60467 Y-2.81649
G01 X-4.60008 Y-2.81630
G01 X-4.59058 Y-2.81630
G01 X-4.58372 Y-2.81269
G01 X-4.57614 Y-2.81131
G01 X-4.52441 Y-2.81126
G01 X-4.51830 Y-2.81208
G01 X-4.51274 Y-2.81424
G01 X-4.50733 Y-2.81766
G01 X-4.50233 Y-2.82204
G01 X-4.49831 Y-2.82606
G01 X-4.49252 Y-2.82259
G01 X-4.48916 Y-2.82081
G01 X-4.48243 Y-2.81769
G01 X-4.47596 Y-2.81528
G01 X-4.46978 Y-2.81350
G01 X-4.46379 Y-2.81228
G01 X-4.45792 Y-2.81154
G01 X-4.45225 Y-2.81127
G01 X-4.44487 Y-2.81157
G01 X-4.43930 Y-2.81228
G01 X-4.43163 Y-2.81394
G01 X-4.42459 Y-2.81618
G01 X-4.30000 Y-2.81618
G01 X-4.29514 Y-2.81638
G01 X-4.28891 Y-2.81715
G01 X-4.28558 Y-2.81781
G01 X-4.27856 Y-2.81977
G01 X-4.27122 Y-2.82263
G01 X-4.26800 Y-2.82417
G01 X-4.26237 Y-2.82724
G01 X-4.17277 Y-2.82724
G01 X-4.17257 Y-2.82676
G01 X-4.17277 Y-2.82724
G01 X-4.02264 Y-2.97737
G01 X-4.01890 Y-2.98054
G01 X-4.01693 Y-2.98199
G01 X-4.01213 Y-2.98465
G01 X-4.00952 Y-2.98578
G01 X-4.00308 Y-2.98764
G01 X-3.99804 Y-2.98822
G01 X-3.99580 Y-2.98833
G01 X-3.69884 Y-2.98840
G01 X-3.69858 Y-2.98783
G01 X-3.69884 Y-2.98840
G01 X-3.69745 Y-2.99019
G01 X-3.69412 Y-2.99382
G01 X-3.69054 Y-2.99715
G01 X-3.68737 Y-2.99970
G01 X-3.68368 Y-3.00227
G01 X-3.67692 Y-3.00601
G01 X-3.67123 Y-3.00844
G01 X-3.66616 Y-3.01004
G01 X-3.65828 Y-3.01163
G01 X-3.65255 Y-3.01212
G01 X-3.64765 Y-3.01213
G01 X-3.63922 Y-3.01124
G01 X-3.63102 Y-3.00922
G01 X-3.62430 Y-3.00658
G01 X-3.62173 Y-3.00537
G01 X-3.61550 Y-3.00173
G01 X-3.60913 Y-2.99684
G01 X-3.60732 Y-2.99520
G01 X-3.60262 Y-2.99026
G01 X-3.60108 Y-2.98833
G01 X-3.60128 Y-2.98790
G01 X-3.60108 Y-2.98833
G01 X-3.59693 Y-2.98828
G01 X-3.59195 Y-2.98777
G01 X-3.58916 Y-2.98717
G01 X-3.58509 Y-2.98592
G01 X-3.58245 Y-2.98483
G01 X-3.57799 Y-2.98242
G01 X-3.57533 Y-2.98054
G01 X-3.57132 Y-2.97711
G01 X-3.49222 Y-2.89801
G01 X-3.49234 Y-2.89779
G01 X-3.49222 Y-2.89801
G01 X-3.49189 Y-2.89796
G01 X-3.48793 Y-2.89727
G01 X-3.48595 Y-2.89677
G01 X-3.48134 Y-2.89531
G01 X-3.47617 Y-2.89301
G01 X-3.47167 Y-2.89035
G01 X-3.46979 Y-2.88903
G01 X-3.46640 Y-2.88632
G01 X-3.46269 Y-2.88267
G01 X-3.46131 Y-2.88106
G01 X-3.45769 Y-2.87617
G01 X-3.45460 Y-2.87051
G01 X-3.45334 Y-2.86349
G01 X-3.45288 Y-2.85979
G01 X-3.45256 Y-2.85591
G01 X-3.45239 Y-2.84843
G01 X-3.46896 Y-2.84823
G01 X-3.46904 Y-2.85285
G01 X-3.46970 Y-2.85680
G01 X-3.47111 Y-2.86120
G01 X-3.47336 Y-2.86560
G01 X-3.47656 Y-2.86984
G01 X-3.47919 Y-2.87240
G01 X-3.48178 Y-2.87438
G01 X-3.48496 Y-2.87627
G01 X-3.48789 Y-2.87758
G01 X-3.49142 Y-2.87868
G01 X-3.49506 Y-2.87933
G01 X-3.49876 Y-2.87952
G01 X-3.50036 Y-2.87942
G01 X-3.58468 Y-2.96374
G01 X-3.58763 Y-2.96616
G01 X-3.59099 Y-2.96796
G01 X-3.59502 Y-2.96912
G01 X-3.59843 Y-2.96944
G01 X-3.61134 Y-2.96944
G01 X-3.61323 Y-2.97282
G01 X-3.61684 Y-2.97781
G01 X-3.62112 Y-2.98223
G01 X-3.62598 Y-2.98600
G01 X-3.63133 Y-2.98904
G01 X-3.63706 Y-2.99130
G01 X-3.64305 Y-2.99272
G01 X-3.64862 Y-2.99325
G01 X-3.65226 Y-2.99322
G01 X-3.65576 Y-2.99289
G01 X-3.66125 Y-2.99179
G01 X-3.66433 Y-2.99084
G01 X-3.66798 Y-2.98937
G01 X-3.67328 Y-2.98649
G01 X-3.67591 Y-2.98467
G01 X-3.67833 Y-2.98272
G01 X-3.68059 Y-2.98063
G01 X-3.68296 Y-2.97806
G01 X-3.68654 Y-2.97320
G01 X-3.68863 Y-2.96950
G01 X-3.99580 Y-2.96944
G01 X-3.99959 Y-2.96906
G01 X-4.00324 Y-2.96796
G01 X-4.00660 Y-2.96616
G01 X-4.00954 Y-2.96374
G01 X-4.16494 Y-2.80835
G01 X-4.64163 Y-2.80835
G01 X-4.75541 Y-2.92212
G01 X-4.75541 Y-2.97788
G01 X-4.58147 Y-3.15182
G01 X-4.54638 Y-3.15182
G01 X-4.54542 Y-3.15059
G01 X-4.54310 Y-3.14820
G01 X-4.54055 Y-3.14607
G01 X-4.53779 Y-3.14422
G01 X-4.53483 Y-3.14266
G01 X-4.53192 Y-3.14149
G01 X-4.52871 Y-3.14057
G01 X-4.52543 Y-3.14000
G01 X-4.52165 Y-3.13976
G01 X-4.47801 Y-3.13977
G01 X-4.47414 Y-3.14005
G01 X-4.47036 Y-3.14080
G01 X-4.46649 Y-3.14209
G01 X-4.46301 Y-3.14375
G01 X-4.45978 Y-3.14582
G01 X-4.45665 Y-3.14844
G01 X-4.45403 Y-3.15125
G01 X-4.45165 Y-3.15456
G01 X-4.45012 Y-3.15730
G01 X-4.44889 Y-3.16011
G01 X-4.44795 Y-3.16304
G01 X-4.44729 Y-3.16604
G01 X-4.44693 Y-3.16908
G01 X-4.44687 Y-3.17216
G01 X-4.44710 Y-3.17522
G01 X-4.44764 Y-3.17824
G01 X-4.44846 Y-3.18120
G01 X-4.44967 Y-3.18428
G01 X-4.45108 Y-3.18702
G01 X-4.45275 Y-3.18960
G01 X-4.45466 Y-3.19201
G01 X-4.45679 Y-3.19422
G01 X-4.45913 Y-3.19621
G01 X-4.46165 Y-3.19796
G01 X-4.46498 Y-3.19977
G01 X-4.46854 Y-3.20119
G01 X-4.47226 Y-3.20215
G01 X-4.47606 Y-3.20267
G01 X-4.52328 Y-3.20271
G01 X-4.52684 Y-3.20232
G01 X-4.53034 Y-3.20153
G01 X-4.53373 Y-3.20034
G01 X-4.53676 Y-3.19889
G01 X-4.53981 Y-3.19699
G01 X-4.54280 Y-3.19460
G01 X-4.54532 Y-3.19203
G01 X-4.54638 Y-3.19070
G01 X-4.58990 Y-3.19068
G01 X-4.59331 Y-3.19032
G01 X-4.59659 Y-3.18935
G01 X-4.60063 Y-3.18719
G01 X-4.60326 Y-3.18500
G01 X-4.78859 Y-2.99967
G01 X-4.79101 Y-2.99673
G01 X-4.79294 Y-2.99300
G01 X-4.79391 Y-2.98972
G01 X-4.79429 Y-2.98593
G01 X-4.79429 Y-2.91407
G01 X-4.79391 Y-2.91028
G01 X-4.79294 Y-2.90700
G01 X-4.79101 Y-2.90327
G01 X-4.78859 Y-2.90033
G01 X-4.66343 Y-2.77516
G01 X-4.66049 Y-2.77275
G01 X-4.65712 Y-2.77095
G01 X-4.65348 Y-2.76985
G01 X-4.64969 Y-2.76947
G01 X-4.15689 Y-2.76947
G01 X-4.15310 Y-2.76985
G01 X-4.14910 Y-2.77112
G01 X-4.14609 Y-2.77275
G01 X-4.14314 Y-2.77516
G01 X-3.98775 Y-2.93056
G01 X-3.68866 Y-2.93056
G01 X-3.68677 Y-2.92718
G01 X-3.68316 Y-2.92219
G01 X-3.67899 Y-2.91786
G01 X-3.67661 Y-2.91587
G01 X-3.67365 Y-2.91376
G01 X-3.66840 Y-2.91082
G01 X-3.66555 Y-2.90960
G01 X-3.66223 Y-2.90848
G01 X-3.65923 Y-2.90771
G01 X-3.65608 Y-2.90714
G01 X-3.65006 Y-2.90672
G01 X-3.64475 Y-2.90704
G01 X-3.63956 Y-2.90800
G01 X-3.63453 Y-2.90958
G01 X-3.62976 Y-2.91174
G01 X-3.62670 Y-2.91352
G01 X-3.62346 Y-2.91580
G01 X-3.62072 Y-2.91813
G01 X-3.61821 Y-2.92063
G01 X-3.61572 Y-2.92358
G01 X-3.61364 Y-2.92652
G01 X-3.61135 Y-2.93056
G01 X-3.60648 Y-2.93056
G01 X-3.52783 Y-2.85192
G01 X-3.52794 Y-2.84975
G01 X-3.52774 Y-2.84655
G01 X-3.52708 Y-2.84292
G01 X-3.52581 Y-2.83899
G01 X-3.52421 Y-2.83562
G01 X-3.52195 Y-2.83217
G01 X-3.51921 Y-2.82904
G01 X-3.51640 Y-2.82658
G01 X-3.51373 Y-2.82475
G01 X-3.51087 Y-2.82323
G01 X-3.50790 Y-2.82204
G01 X-3.50520 Y-2.82127
G01 X-3.50244 Y-2.82075
G01 X-3.49925 Y-2.82049
G01 X-3.49601 Y-2.82058
G01 X-3.49281 Y-2.82102
G01 X-3.48967 Y-2.82180
G01 X-3.48703 Y-2.82276
G01 X-3.48450 Y-2.82397
G01 X-3.48140 Y-2.82588
G01 X-3.47889 Y-2.82786
G01 X-3.47688 Y-2.82982
G01 X-3.47506 Y-2.83196
G01 X-3.47345 Y-2.83425
G01 X-3.47135 Y-2.83823
G01 X-3.46985 Y-2.84260
G01 X-3.46896 Y-2.84823
G04 P0 ( dwell for no time -- G64 should not smooth over this point )
G00 Z0.08000 ( retract )

G00 X-3.32797 Y-3.17043 ( rapid move to begin. )
G01 F180.00000
( Mill infeed pass 1/1 )
G01 Z-0.04000
G04 P0 ( dwell for no time -- G64 should not smooth over this point )
G01 F360.00000
G01 X-3.32797 Y-3.17043
G01 X-3.32829 Y-3.16553
G01 X-3.32860 Y-3.16332
G01 X-3.32941 Y-3.15923
G01 X-3.33108 Y-3.15383
G01 X-3.33267 Y-3.14997
G01 X-3.33496 Y-3.14562
G01 X-3.33766 Y-3.14152
G01 X-3.34126 Y-3.13716
G01 X-3.34420 Y-3.13420
G01 X-3.34797 Y-3.13105
G01 X-3.35183 Y-3.12840
G01 X-3.35694 Y-3.12564
G01 X-3.36264 Y-3.12337
G01 X-3.36742 Y-3.12209
G01 X-3.36976 Y-3.12161
G01 X-3.37516 Y-3.12097
G01 X-3.42252 Y-3.12088
G01 X-3.42900 Y-3.12140
G01 X-3.43503 Y-3.12268
G01 X-3.43920 Y-3.12403
G01 X-3.44134 Y-3.12489
G01 X-3.44576 Y-3.12700
G01 X-3.44975 Y-3.12943
G01 X-3.45402 Y-3.13267
G01 X-3.45392 Y-3.13297
G01 X-3.45402 Y-3.13267
G01 X-4.02682 Y-3.13267
G01 X-4.02702 Y-3.13315
G01 X-4.02682 Y-3.13267
G01 X-4.26142 Y-2.89808
G01 X-4.26189 Y-2.89828
G01 X-4.26142 Y-2.89808
G01 X-4.26142 Y-2.85000
G01 X-4.26183 Y-2.84469
G01 X-4.26220 Y-2.84227
G01 X-4.26398 Y-2.83618
G01 X-4.26561 Y-2.83264
G01 X-4.27090 Y-2.82976
G01 X-4.27750 Y-2.82685
G01 X-4.27634 Y-2.82806
G01 X-4.27339 Y-2.83173
G01 X-4.27086 Y-2.83618
G01 X-4.26962 Y-2.83917
G01 X-4.26851 Y-2.84291
G01 X-4.26814 Y-2.84490
G01 X-4.26771 Y-2.85000
G01 X-4.26771 Y-2.90069
G01 X-4.26818 Y-2.90089
G01 X-4.26771 Y-2.90069
G01 X-4.02943 Y-3.13897
G01 X-4.02963 Y-3.13945
G01 X-4.02943 Y-3.13897
G01 X-3.45167 Y-3.13897
G01 X-3.45154 Y-3.13934
G01 X-3.45167 Y-3.13897
G01 X-3.45123 Y-3.13856
G01 X-3.44740 Y-3.13547
G01 X-3.44208 Y-3.13219
G01 X-3.43797 Y-3.13030
G01 X-3.43390 Y-3.12892
G01 X-3.42827 Y-3.12766
G01 X-3.42253 Y-3.12718
G01 X-3.37557 Y-3.12725
G01 X-3.37097 Y-3.12781
G01 X-3.36899 Y-3.12819
G01 X-3.36458 Y-3.12937
G01 X-3.35995 Y-3.13118
G01 X-3.35437 Y-3.13427
G01 X-3.35119 Y-3.13652
G01 X-3.34765 Y-3.13962
G01 X-3.34524 Y-3.14214
G01 X-3.34256 Y-3.14550
G01 X-3.34022 Y-3.14911
G01 X-3.33824 Y-3.15293
G01 X-3.33665 Y-3.15692
G01 X-3.33545 Y-3.16105
G01 X-3.33466 Y-3.16527
G01 X-3.33428 Y-3.16956
G01 X-3.33440 Y-3.17466
G01 X-3.33479 Y-3.17813
G01 X-3.33548 Y-3.18155
G01 X-3.33706 Y-3.18675
G01 X-3.33878 Y-3.19073
G01 X-3.34104 Y-3.19476
G01 X-3.34457 Y-3.19960
G01 X-3.34802 Y-3.20326
G01 X-3.35171 Y-3.20639
G01 X-3.35321 Y-3.20745
G01 X-3.43233 Y-3.20750
G01 X-3.43532 Y-3.20650
G01 X-3.43823 Y-3.20521
G01 X-3.44189 Y-3.20318
G01 X-3.44490 Y-3.20106
G01 X-3.44732 Y-3.19899
G01 X-3.44905 Y-3.19725
G01 X-3.44892 Y-3.19687
G01 X-3.44905 Y-3.19725
G01 X-4.04280 Y-3.19725
G01 X-4.04728 Y-3.19685
G01 X-4.04885 Y-3.19650
G01 X-4.05256 Y-3.19534
G01 X-4.05638 Y-3.19338
G01 X-4.05773 Y-3.19252
G01 X-4.06118 Y-3.18963
G01 X-4.26537 Y-2.98544
G01 X-4.26525 Y-2.98330
G01 X-4.26537 Y-2.98544
G01 X-4.26880 Y-2.98854
G01 X-4.27367 Y-2.99202
G01 X-4.27897 Y-2.99490
G01 X-4.28419 Y-2.99700
G01 X-4.29001 Y-2.99857
G01 X-4.29555 Y-2.99938
G01 X-4.30156 Y-2.99956
G01 X-4.30839 Y-2.99885
G01 X-4.31385 Y-2.99761
G01 X-4.31949 Y-2.99558
G01 X-4.32454 Y-2.99309
G01 X-4.32957 Y-2.98980
G01 X-4.33386 Y-2.98622
G01 X-4.33772 Y-2.98218
G01 X-4.34083 Y-2.97813
G01 X-4.34348 Y-2.97383
G01 X-4.34585 Y-2.96888
G01 X-4.34754 Y-2.96409
G01 X-4.34879 Y-2.95885
G01 X-4.34944 Y-2.95382
G01 X-4.34957 Y-2.94869
G01 X-4.34917 Y-2.94359
G01 X-4.34792 Y-2.93728
G01 X-4.34601 Y-2.93151
G01 X-4.34341 Y-2.92603
G01 X-4.34014 Y-2.92092
G01 X-4.33599 Y-2.91589
G01 X-4.33120 Y-2.91146
G01 X-4.32599 Y-2.90778
G01 X-4.32536 Y-2.90808
G01 X-4.32599 Y-2.90778
G01 X-4.32599 Y-2.87599
G01 X-4.32414 Y-2.87414
G01 X-4.32599 Y-2.87599
G01 X-4.42694 Y-2.87599
G01 X-4.42704 Y-2.87567
G01 X-4.42694 Y-2.87599
G01 X-4.42963 Y-2.87832
G01 X-4.43375 Y-2.88108
G01 X-4.43827 Y-2.88326
G01 X-4.44300 Y-2.88478
G01 X-4.44750 Y-2.88559
G01 X-4.45246 Y-2.88581
G01 X-4.45722 Y-2.88537
G01 X-4.46026 Y-2.88476
G01 X-4.46328 Y-2.88385
G01 X-4.46726 Y-2.88221
G01 X-4.47100 Y-2.88010
G01 X-4.47440 Y-2.87760
G01 X-4.47671 Y-2.87553
G01 X-4.47885 Y-2.87321
G01 X-4.48144 Y-2.86978
G01 X-4.48343 Y-2.86639
G01 X-4.48503 Y-2.86281
G01 X-4.48633 Y-2.85871
G01 X-4.48707 Y-2.85485
G01 X-4.48739 Y-2.85056
G01 X-4.48731 Y-2.84741
G01 X-4.48694 Y-2.84433
G01 X-4.48613 Y-2.84057
G01 X-4.48432 Y-2.83552
G01 X-4.48364 Y-2.83407
G01 X-4.48124 Y-2.82991
G01 X-4.47800 Y-2.82582
G01 X-4.47328 Y-2.82150
G01 X-4.47204 Y-2.82068
G01 X-4.47008 Y-2.82009
G01 X-4.46438 Y-2.81878
G01 X-4.45887 Y-2.81796
G01 X-4.45349 Y-2.81760
G01 X-4.44955 Y-2.81759
G01 X-4.44535 Y-2.81785
G01 X-4.44033 Y-2.81850
G01 X-4.43592 Y-2.81936
G01 X-4.43179 Y-2.82044
G01 X-4.43111 Y-2.82066
G01 X-4.42917 Y-2.82205
G01 X-4.42697 Y-2.82401
G01 X-4.42709 Y-2.82437
G01 X-4.42697 Y-2.82401
G01 X-4.29950 Y-2.82403
G01 X-4.29513 Y-2.82448
G01 X-4.29100 Y-2.82565
G01 X-4.28951 Y-2.82624
G01 X-4.28540 Y-2.82851
G01 X-4.28148 Y-2.83177
G01 X-4.27828 Y-2.83573
G01 X-4.27592 Y-2.84024
G01 X-4.27441 Y-2.84552
G01 X-4.27401 Y-2.85000
G01 X-4.27401 Y-2.90330
G01 X-4.27448 Y-2.90350
G01 X-4.27401 Y-2.90330
G01 X-4.03204 Y-3.14527
G01 X-4.03224 Y-3.14575
G01 X-4.03204 Y-3.14527
G01 X-3.44905 Y-3.14527
G01 X-3.44890 Y-3.14568
G01 X-3.44905 Y-3.14527
G01 X-3.44673 Y-3.14299
G01 X-3.44347 Y-3.14040
G01 X-3.43979 Y-3.13810
G01 X-3.43491 Y-3.13588
G01 X-3.43119 Y-3.13469
G01 X-3.42735 Y-3.13390
G01 X-3.42254 Y-3.13348
G01 X-3.37599 Y-3.13354
G01 X-3.37056 Y-3.13429
G01 X-3.36651 Y-3.13537
G01 X-3.36261 Y-3.13690
G01 X-3.35796 Y-3.13945
G01 X-3.35534 Y-3.14127
G01 X-3.35217 Y-3.14400
G01 X-3.34997 Y-3.14630
G01 X-3.34767 Y-3.14918
G01 X-3.34567 Y-3.15227
G01 X-3.34397 Y-3.15555
G01 X-3.34260 Y-3.15897
G01 X-3.34158 Y-3.16251
G01 X-3.34090 Y-3.16613
G01 X-3.34058 Y-3.16980
G01 X-3.34062 Y-3.17348
G01 X-3.34101 Y-3.17715
G01 X-3.34173 Y-3.18061
G01 X-3.34279 Y-3.18405
G01 X-3.34443 Y-3.18794
G01 X-3.34597 Y-3.19074
G01 X-3.34867 Y-3.19464
G01 X-3.35206 Y-3.19841
G01 X-3.35614 Y-3.20184
G01 X-3.36065 Y-3.20464
G01 X-3.36408 Y-3.20626
G01 X-3.36771 Y-3.20749
G01 X-3.44672 Y-3.20750
G01 X-3.44877 Y-3.20603
G01 X-3.45168 Y-3.20354
G01 X-3.45156 Y-3.20319
G01 X-3.45168 Y-3.20354
G01 X-4.04280 Y-3.20354
G01 X-4.04790 Y-3.20312
G01 X-4.05068 Y-3.20253
G01 X-4.05516 Y-3.20109
G01 X-4.05970 Y-3.19874
G01 X-4.06173 Y-3.19739
G01 X-4.06563 Y-3.19409
G01 X-4.26565 Y-2.99407
G01 X-4.26546 Y-2.99233
G01 X-4.26565 Y-2.99407
G01 X-4.26999 Y-2.99714
G01 X-4.27590 Y-3.00042
G01 X-4.28184 Y-3.00284
G01 X-4.28801 Y-3.00456
G01 X-4.28990 Y-3.00495
G01 X-4.29541 Y-3.00569
G01 X-4.30259 Y-3.00582
G01 X-4.30897 Y-3.00516
G01 X-4.31520 Y-3.00378
G01 X-4.32118 Y-3.00171
G01 X-4.32656 Y-2.99915
G01 X-4.32831 Y-2.99816
G01 X-4.33360 Y-2.99465
G01 X-4.33815 Y-2.99083
G01 X-4.34251 Y-2.98627
G01 X-4.34613 Y-2.98155
G01 X-4.34911 Y-2.97667
G01 X-4.35175 Y-2.97110
G01 X-4.35364 Y-2.96570
G01 X-4.35495 Y-2.96017
G01 X-4.35570 Y-2.95450
G01 X-4.35586 Y-2.94834
G01 X-4.35545 Y-2.94308
G01 X-4.35419 Y-2.93646
G01 X-4.35365 Y-2.93443
G01 X-4.35169 Y-2.92876
G01 X-4.34848 Y-2.92222
G01 X-4.34471 Y-2.91647
G01 X-4.34053 Y-2.91152
G01 X-4.33480 Y-2.90627
G01 X-4.33228 Y-2.90449
G01 X-4.33171 Y-2.90475
G01 X-4.33228 Y-2.90449
G01 X-4.33228 Y-2.88228
G01 X-4.33044 Y-2.88044
G01 X-4.33228 Y-2.88228
G01 X-4.42458 Y-2.88228
G01 X-4.42467 Y-2.88200
G01 X-4.42458 Y-2.88228
G01 X-4.42617 Y-2.88360
G01 X-4.43103 Y-2.88678
G01 X-4.43550 Y-2.88894
G01 X-4.44058 Y-2.89066
G01 X-4.44545 Y-2.89166
G01 X-4.44763 Y-2.89192
G01 X-4.45256 Y-2.89211
G01 X-4.45753 Y-2.89170
G01 X-4.46161 Y-2.89091
G01 X-4.46511 Y-2.88988
G01 X-4.47021 Y-2.88778
G01 X-4.47499 Y-2.88500
G01 X-4.47794 Y-2.88286
G01 X-4.48100 Y-2.88015
G01 X-4.48408 Y-2.87680
G01 X-4.48630 Y-2.87382
G01 X-4.48913 Y-2.86908
G01 X-4.49129 Y-2.86400
G01 X-4.49238 Y-2.86045
G01 X-4.49328 Y-2.85592
G01 X-4.49368 Y-2.85132
G01 X-4.49362 Y-2.84761
G01 X-4.49290 Y-2.84189
G01 X-4.49192 Y-2.83788
G01 X-4.49006 Y-2.83290
G01 X-4.48932 Y-2.83133
G01 X-4.48658 Y-2.82657
G01 X-4.47997 Y-2.82349
G01 X-4.47397 Y-2.82126
G01 X-4.46826 Y-2.81962
G01 X-4.46276 Y-2.81849
G01 X-4.45887 Y-2.81796
G01 X-4.45349 Y-2.81760
G01 X-4.44955 Y-2.81759
G01 X-4.44535 Y-2.81785
G01 X-4.44151 Y-2.81831
G01 X-4.43721 Y-2.81908
G01 X-4.43320 Y-2.82004
G01 X-4.42518 Y-2.82253
G01 X-4.30004 Y-2.82248
G01 X-4.29568 Y-2.82266
G01 X-4.28991 Y-2.82337
G01 X-4.28688 Y-2.82398
G01 X-4.28061 Y-2.82573
G01 X-4.27750 Y-2.82685
G01 X-4.28061 Y-2.82573
G01 X-4.28688 Y-2.82398
G01 X-4.29284 Y-2.82294
G01 X-4.29865 Y-2.82251
G01 X-4.42517 Y-2.82248
G01 X-4.42630 Y-2.82227
G01 X-4.43320 Y-2.82004
G01 X-4.44033 Y-2.81850
G01 X-4.44535 Y-2.81785
G01 X-4.45226 Y-2.81757
G01 X-4.45738 Y-2.81782
G01 X-4.46276 Y-2.81849
G01 X-4.46826 Y-2.81962
G01 X-4.47397 Y-2.82126
G01 X-4.47997 Y-2.82349
G01 X-4.48637 Y-2.82646
G01 X-4.48940 Y-2.82807
G01 X-4.49590 Y-2.83199
G01 X-4.49684 Y-2.83778
G01 X-4.49736 Y-2.84287
G01 X-4.49759 Y-2.84752
G01 X-4.49759 Y-2.85274
G01 X-4.49729 Y-2.85800
G01 X-4.49670 Y-2.86331
G01 X-4.49579 Y-2.86872
G01 X-4.49528 Y-2.87080
G01 X-4.49415 Y-2.87303
G01 X-4.49137 Y-2.87756
G01 X-4.48867 Y-2.88112
G01 X-4.48456 Y-2.88544
G01 X-4.48156 Y-2.88802
G01 X-4.47727 Y-2.89104
G01 X-4.47300 Y-2.89343
G01 X-4.46772 Y-2.89565
G01 X-4.46275 Y-2.89712
G01 X-4.45756 Y-2.89804
G01 X-4.45205 Y-2.89842
G01 X-4.44693 Y-2.89818
G01 X-4.44467 Y-2.89792
G01 X-4.43929 Y-2.89684
G01 X-4.43299 Y-2.89472
G01 X-4.42707 Y-2.89176
G01 X-4.42248 Y-2.88871
G01 X-4.42232 Y-2.88858
G01 X-4.42239 Y-2.88832
G01 X-4.42232 Y-2.88858
G01 X-4.33858 Y-2.88858
G01 X-4.33674 Y-2.88674
G01 X-4.33858 Y-2.88858
G01 X-4.33858 Y-2.90124
G01 X-4.33806 Y-2.90146
G01 X-4.33858 Y-2.90124
G01 X-4.33908 Y-2.90163
G01 X-4.34535 Y-2.90746
G01 X-4.35002 Y-2.91305
G01 X-4.35419 Y-2.91950
G01 X-4.35752 Y-2.92638
G01 X-4.35975 Y-2.93281
G01 X-4.36037 Y-2.93522
G01 X-4.36173 Y-2.94258
G01 X-4.36216 Y-2.94816
G01 X-4.36198 Y-2.95499
G01 X-4.36115 Y-2.96132
G01 X-4.35957 Y-2.96783
G01 X-4.35758 Y-2.97349
G01 X-4.35465 Y-2.97966
G01 X-4.35133 Y-2.98510
G01 X-4.34715 Y-2.99054
G01 X-4.34244 Y-2.99545
G01 X-4.33791 Y-2.99926
G01 X-4.33608 Y-3.00063
G01 X-4.33037 Y-3.00426
G01 X-4.32395 Y-3.00739
G01 X-4.31838 Y-3.00938
G01 X-4.31581 Y-3.01011
G01 X-4.30917 Y-3.01150
G01 X-4.30241 Y-3.01214
G01 X-4.29602 Y-3.01203
G01 X-4.29336 Y-3.01181
G01 X-4.28676 Y-3.01075
G01 X-4.28023 Y-3.00896
G01 X-4.27321 Y-3.00611
G01 X-4.26634 Y-3.00229
G01 X-4.26612 Y-3.00075
G01 X-4.26634 Y-3.00229
G01 X-4.06982 Y-3.19880
G01 X-4.06540 Y-3.20251
G01 X-4.06267 Y-3.20430
G01 X-4.05776 Y-3.20683
G01 X-4.05251 Y-3.20856
G01 X-4.04892 Y-3.20934
G01 X-4.04280 Y-3.20984
G01 X-3.46090 Y-3.20984
G01 X-3.45612 Y-3.20794
G01 X-3.45427 Y-3.20741
G01 X-3.34586 Y-3.20746
G01 X-3.34179 Y-3.20588
G01 X-3.34023 Y-3.20418
G01 X-3.33866 Y-3.20229
G01 X-3.33584 Y-3.19833
G01 X-3.33313 Y-3.19351
G01 X-3.33103 Y-3.18859
G01 X-3.32940 Y-3.18322
G01 X-3.32842 Y-3.17801
G01 X-3.32804 Y-3.17423
G01 X-3.32797 Y-3.17043
G01 X-3.34687 Y-3.17024
G01 X-3.34692 Y-3.17331
G01 X-3.34727 Y-3.17636
G01 X-3.34792 Y-3.17937
G01 X-3.34894 Y-3.18252
G01 X-3.35017 Y-3.18533
G01 X-3.35171 Y-3.18806
G01 X-3.35380 Y-3.19098
G01 X-3.35639 Y-3.19383
G01 X-3.35990 Y-3.19678
G01 X-3.36292 Y-3.19871
G01 X-3.36638 Y-3.20039
G01 X-3.37074 Y-3.20182
G01 X-3.37475 Y-3.20254
G01 X-3.37835 Y-3.20275
G01 X-3.42199 Y-3.20275
G01 X-3.42732 Y-3.20224
G01 X-3.43031 Y-3.20154
G01 X-3.43286 Y-3.20069
G01 X-3.43567 Y-3.19946
G01 X-3.43835 Y-3.19796
G01 X-3.44087 Y-3.19621
G01 X-3.44321 Y-3.19422
G01 X-3.44619 Y-3.19095
G01 X-4.04280 Y-3.19095
G01 X-4.04702 Y-3.19047
G01 X-4.05034 Y-3.18945
G01 X-4.05341 Y-3.18783
G01 X-4.05672 Y-3.18518
G01 X-4.26562 Y-2.97629
G01 X-4.26884 Y-2.98004
G01 X-4.27273 Y-2.98361
G01 X-4.27667 Y-2.98645
G01 X-4.28126 Y-2.98901
G01 X-4.28615 Y-2.99100
G01 X-4.29124 Y-2.99238
G01 X-4.29605 Y-2.99310
G01 X-4.30130 Y-2.99326
G01 X-4.30703 Y-2.99270
G01 X-4.31215 Y-2.99154
G01 X-4.31673 Y-2.98991
G01 X-4.32147 Y-2.98758
G01 X-4.32587 Y-2.98470
G01 X-4.32959 Y-2.98158
G01 X-4.33319 Y-2.97778
G01 X-4.33584 Y-2.97427
G01 X-4.33812 Y-2.97049
G01 X-4.34017 Y-2.96612
G01 X-4.34160 Y-2.96196
G01 X-4.34260 Y-2.95768
G01 X-4.34316 Y-2.95330
G01 X-4.34327 Y-2.94890
G01 X-4.34293 Y-2.94449
G01 X-4.34184 Y-2.93894
G01 X-4.34018 Y-2.93391
G01 X-4.33792 Y-2.92914
G01 X-4.33486 Y-2.92434
G01 X-4.33146 Y-2.92028
G01 X-4.32728 Y-2.91640
G01 X-4.32262 Y-2.91310
G01 X-4.31969 Y-2.91154
G01 X-4.31969 Y-2.86969
G01 X-4.42964 Y-2.86969
G01 X-4.43100 Y-2.87117
G01 X-4.43342 Y-2.87328
G01 X-4.43684 Y-2.87558
G01 X-4.44018 Y-2.87723
G01 X-4.44409 Y-2.87855
G01 X-4.44775 Y-2.87927
G01 X-4.45188 Y-2.87952
G01 X-4.45559 Y-2.87925
G01 X-4.45877 Y-2.87863
G01 X-4.46186 Y-2.87767
G01 X-4.46483 Y-2.87638
G01 X-4.46764 Y-2.87477
G01 X-4.47023 Y-2.87288
G01 X-4.47232 Y-2.87101
G01 X-4.47449 Y-2.86861
G01 X-4.47615 Y-2.86635
G01 X-4.47780 Y-2.86356
G01 X-4.47912 Y-2.86061
G01 X-4.48012 Y-2.85753
G01 X-4.48077 Y-2.85436
G01 X-4.48109 Y-2.85071
G01 X-4.48102 Y-2.84790
G01 X-4.48069 Y-2.84512
G01 X-4.47999 Y-2.84199
G01 X-4.47816 Y-2.83718
G01 X-4.47584 Y-2.83319
G01 X-4.47334 Y-2.83006
G01 X-4.46996 Y-2.82691
G01 X-4.46559 Y-2.82402
G01 X-4.46137 Y-2.82215
G01 X-4.45751 Y-2.82109
G01 X-4.45240 Y-2.82049
G01 X-4.44913 Y-2.82058
G01 X-4.44550 Y-2.82111
G01 X-4.44235 Y-2.82196
G01 X-4.43936 Y-2.82312
G01 X-4.43647 Y-2.82463
G01 X-4.43344 Y-2.82671
G01 X-4.43067 Y-2.82916
G01 X-4.42962 Y-2.83031
G01 X-4.30000 Y-2.83031
G01 X-4.29616 Y-2.83069
G01 X-4.29283 Y-2.83168
G01 X-4.28906 Y-2.83363
G01 X-4.28608 Y-2.83608
G01 X-4.28363 Y-2.83906
G01 X-4.28181 Y-2.84247
G01 X-4.28063 Y-2.84654
G01 X-4.28031 Y-2.85000
G01 X-4.28031 Y-2.90591
G01 X-4.03465 Y-3.15157
G01 X-3.44618 Y-3.15157
G01 X-3.44507 Y-3.15020
G01 X-3.44251 Y-3.14767
G01 X-3.43988 Y-3.14558
G01 X-3.43683 Y-3.14367
G01 X-3.43295 Y-3.14186
G01 X-3.42997 Y-3.14089
G01 X-3.42646 Y-3.14014
G01 X-3.42254 Y-3.13978
G01 X-3.37644 Y-3.13983
G01 X-3.37213 Y-3.14039
G01 X-3.36888 Y-3.14123
G01 X-3.36530 Y-3.14260
G01 X-3.36154 Y-3.14463
G01 X-3.35903 Y-3.14639
G01 X-3.35670 Y-3.14839
G01 X-3.35457 Y-3.15061
G01 X-3.35267 Y-3.15302
G01 X-3.35102 Y-3.15561
G01 X-3.34963 Y-3.15834
G01 X-3.34850 Y-3.16120
G01 X-3.34767 Y-3.16415
G01 X-3.34712 Y-3.16717
G01 X-3.34687 Y-3.17024
G04 P0 ( dwell for no time -- G64 should not smooth over this point )
G00 Z0.08000 ( retract )

G00 X-3.36766 Y-3.21379 ( rapid move to begin. )
G01 F180.00000
( Mill infeed pass 1/1 )
G01 Z-0.04000
G04 P0 ( dwell for no time -- G64 should not smooth over this point )
G01 F360.00000
G01 X-3.36766 Y-3.21379
G01 X-3.36567 Y-3.21440
G01 X-3.36231 Y-3.21578
G01 X-3.35848 Y-3.21785
G01 X-3.35549 Y-3.21990
G01 X-3.35244 Y-3.22248
G01 X-3.35072 Y-3.22426
G01 X-3.35085 Y-3.22464
G01 X-3.35072 Y-3.22426
G01 X-3.33045 Y-3.22426
G01 X-3.33025 Y-3.22474
G01 X-3.33045 Y-3.22426
G01 X-3.27574 Y-3.16955
G01 X-3.27526 Y-3.16975
G01 X-3.27574 Y-3.16955
G01 X-3.27574 Y-2.99234
G01 X-3.27503 Y-2.99197
G01 X-3.27574 Y-2.99234
G01 X-3.27780 Y-2.99106
G01 X-3.28179 Y-2.98806
G01 X-3.28547 Y-2.98463
G01 X-3.28822 Y-2.98159
G01 X-3.29120 Y-2.97760
G01 X-3.29357 Y-2.97367
G01 X-3.29573 Y-2.96917
G01 X-3.29731 Y-2.96487
G01 X-3.29856 Y-2.96004
G01 X-3.29928 Y-2.95551
G01 X-3.29956 Y-2.95102
G01 X-3.29942 Y-2.94595
G01 X-3.29879 Y-2.94115
G01 X-3.29813 Y-2.93827
G01 X-3.29738 Y-2.93803
G01 X-3.29813 Y-2.93827
G01 X-3.36066 Y-2.87574
G01 X-3.36046 Y-2.87526
G01 X-3.36066 Y-2.87574
G01 X-3.36418 Y-2.87574
G01 X-3.36533 Y-2.87432
G01 X-3.36418 Y-2.87574
G01 X-3.36420 Y-2.87639
G01 X-3.36481 Y-2.87913
G01 X-3.36590 Y-2.88128
G01 X-3.36746 Y-2.88311
G01 X-3.36906 Y-2.88432
G01 X-3.37087 Y-2.88519
G01 X-3.37321 Y-2.88576
G01 X-3.42599 Y-2.88582
G01 X-3.42798 Y-2.88554
G01 X-3.42988 Y-2.88489
G01 X-3.43161 Y-2.88387
G01 X-3.43311 Y-2.88254
G01 X-3.43432 Y-2.88094
G01 X-3.43519 Y-2.87913
G01 X-3.43563 Y-2.87759
G01 X-3.43583 Y-2.87559
G01 X-3.43582 Y-2.82401
G01 X-3.43544 Y-2.82163
G01 X-3.43432 Y-2.81906
G01 X-3.43283 Y-2.81717
G01 X-3.43094 Y-2.81568
G01 X-3.42875 Y-2.81467
G01 X-3.42639 Y-2.81420
G01 X-3.37361 Y-2.81420
G01 X-3.37163 Y-2.81456
G01 X-3.36941 Y-2.81548
G01 X-3.36776 Y-2.81663
G01 X-3.36613 Y-2.81839
G01 X-3.36481 Y-2.82087
G01 X-3.36424 Y-2.82321
G01 X-3.36418 Y-2.82426
G01 X-3.36536 Y-2.82565
G01 X-3.36418 Y-2.82426
G01 X-3.34966 Y-2.82427
G01 X-3.34478 Y-2.82480
G01 X-3.34071 Y-2.82601
G01 X-3.33924 Y-2.82665
G01 X-3.33554 Y-2.82871
G01 X-3.33180 Y-2.83180
G01 X-3.26173 Y-2.90187
G01 X-3.26196 Y-2.90254
G01 X-3.26173 Y-2.90187
G01 X-3.25929 Y-2.90130
G01 X-3.25331 Y-2.90053
G01 X-3.24922 Y-2.90042
G01 X-3.24473 Y-2.90070
G01 X-3.23942 Y-2.90156
G01 X-3.23441 Y-2.90293
G01 X-3.22968 Y-2.90478
G01 X-3.22520 Y-2.90707
G01 X-3.22141 Y-2.90949
G01 X-3.21779 Y-2.91230
G01 X-3.21402 Y-2.91587
G01 X-3.21087 Y-2.91954
G01 X-3.20822 Y-2.92329
G01 X-3.20598 Y-2.92719
G01 X-3.20352 Y-2.93274
G01 X-3.20214 Y-2.93702
G01 X-3.20115 Y-2.94147
G01 X-3.20058 Y-2.94597
G01 X-3.20042 Y-2.95004
G01 X-3.20072 Y-2.95551
G01 X-3.20144 Y-2.96004
G01 X-3.20256 Y-2.96439
G01 X-3.20447 Y-2.96963
G01 X-3.20643 Y-2.97367
G01 X-3.20880 Y-2.97760
G01 X-3.21178 Y-2.98159
G01 X-3.21453 Y-2.98463
G01 X-3.21821 Y-2.98806
G01 X-3.22219 Y-2.99106
G01 X-3.22426 Y-2.99234
G01 X-3.22497 Y-2.99197
G01 X-3.22426 Y-2.99234
G01 X-3.22426 Y-3.18021
G01 X-3.22472 Y-3.18504
G01 X-3.22588 Y-3.18911
G01 X-3.22647 Y-3.19061
G01 X-3.22871 Y-3.19468
G01 X-3.23180 Y-3.19841
G01 X-3.30159 Y-3.26820
G01 X-3.30532 Y-3.27129
G01 X-3.30975 Y-3.27370
G01 X-3.31457 Y-3.27520
G01 X-3.31945 Y-3.27573
G01 X-3.35071 Y-3.27574
G01 X-3.35085 Y-3.27535
G01 X-3.35071 Y-3.27574
G01 X-3.35212 Y-3.27720
G01 X-3.35450 Y-3.27932
G01 X-3.35747 Y-3.28151
G01 X-3.36063 Y-3.28339
G01 X-3.36351 Y-3.28475
G01 X-3.36761 Y-3.28623
G01 X-3.43244 Y-3.28622
G01 X-3.43589 Y-3.28501
G01 X-3.43895 Y-3.28360
G01 X-3.44227 Y-3.28167
G01 X-3.44466 Y-3.27999
G01 X-3.44724 Y-3.27781
G01 X-3.44985 Y-3.27516
G01 X-3.45322 Y-3.27078
G01 X-3.45563 Y-3.26655
G01 X-3.45759 Y-3.26169
G01 X-3.45891 Y-3.25634
G01 X-3.45942 Y-3.25123
G01 X-3.45919 Y-3.24563
G01 X-3.45839 Y-3.24119
G01 X-3.45673 Y-3.23597
G01 X-3.45616 Y-3.23463
G01 X-3.45409 Y-3.23060
G01 X-3.45093 Y-3.22609
G01 X-3.44714 Y-3.22209
G01 X-3.44332 Y-3.21904
G01 X-3.43829 Y-3.21606
G01 X-3.43376 Y-3.21420
G01 X-3.43241 Y-3.21380
G01 X-3.42921 Y-3.21378
G01 X-3.35330 Y-3.21376
G01 X-3.35117 Y-3.21528
G01 X-3.34829 Y-3.21774
G01 X-3.34805 Y-3.21796
G01 X-3.34817 Y-3.21832
G01 X-3.34805 Y-3.21796
G01 X-3.33306 Y-3.21796
G01 X-3.33286 Y-3.21844
G01 X-3.33306 Y-3.21796
G01 X-3.28204 Y-3.16694
G01 X-3.28155 Y-3.16714
G01 X-3.28204 Y-3.16694
G01 X-3.28204 Y-2.99577
G01 X-3.28144 Y-2.99549
G01 X-3.28204 Y-2.99577
G01 X-3.28582 Y-2.99290
G01 X-3.28962 Y-2.98942
G01 X-3.29308 Y-2.98560
G01 X-3.29642 Y-2.98111
G01 X-3.29872 Y-2.97736
G01 X-3.30153 Y-2.97162
G01 X-3.30332 Y-2.96674
G01 X-3.30454 Y-2.96210
G01 X-3.30558 Y-2.95580
G01 X-3.30588 Y-2.95061
G01 X-3.30570 Y-2.94542
G01 X-3.30503 Y-2.94028
G01 X-3.30441 Y-2.94005
G01 X-3.30503 Y-2.94028
G01 X-3.36061 Y-2.88470
G01 X-3.36074 Y-2.88166
G01 X-3.36061 Y-2.88470
G01 X-3.36216 Y-2.88670
G01 X-3.36392 Y-2.88837
G01 X-3.36591 Y-2.88977
G01 X-3.36846 Y-2.89102
G01 X-3.37079 Y-2.89172
G01 X-3.37360 Y-2.89211
G01 X-3.42721 Y-2.89205
G01 X-3.43000 Y-2.89153
G01 X-3.43303 Y-2.89036
G01 X-3.43576 Y-2.88863
G01 X-3.43811 Y-2.88639
G01 X-3.43977 Y-2.88409
G01 X-3.44102 Y-2.88154
G01 X-3.44181 Y-2.87882
G01 X-3.44212 Y-2.87600
G01 X-3.44211 Y-2.82360
G01 X-3.44188 Y-2.82158
G01 X-3.44141 Y-2.81961
G01 X-3.44071 Y-2.81771
G01 X-3.43977 Y-2.81591
G01 X-3.43757 Y-2.81301
G01 X-3.43478 Y-2.81066
G01 X-3.43303 Y-2.80964
G01 X-3.43116 Y-2.80884
G01 X-3.42761 Y-2.80800
G01 X-3.42559 Y-2.80787
G01 X-3.37360 Y-2.80789
G01 X-3.37118 Y-2.80819
G01 X-3.36884 Y-2.80884
G01 X-3.36661 Y-2.80983
G01 X-3.36424 Y-2.81137
G01 X-3.36216 Y-2.81330
G01 X-3.36044 Y-2.81556
G01 X-3.35918 Y-2.81796
G01 X-3.35964 Y-2.81873
G01 X-3.35918 Y-2.81796
G01 X-3.34838 Y-2.81804
G01 X-3.34495 Y-2.81839
G01 X-3.34296 Y-2.81876
G01 X-3.33888 Y-2.81998
G01 X-3.33700 Y-2.82073
G01 X-3.33220 Y-2.82336
G01 X-3.32764 Y-2.82706
G01 X-3.25972 Y-2.89497
G01 X-3.25995 Y-2.89556
G01 X-3.25972 Y-2.89497
G01 X-3.25906 Y-2.89487
G01 X-3.25430 Y-2.89428
G01 X-3.24950 Y-2.89412
G01 X-3.24348 Y-2.89450
G01 X-3.23747 Y-2.89554
G01 X-3.23169 Y-2.89721
G01 X-3.22759 Y-2.89880
G01 X-3.22329 Y-2.90093
G01 X-3.21812 Y-2.90411
G01 X-3.21399 Y-2.90727
G01 X-3.20959 Y-2.91140
G01 X-3.20616 Y-2.91535
G01 X-3.20445 Y-2.92082
G01 X-3.20342 Y-2.92475
G01 X-3.20220 Y-2.93027
G01 X-3.20131 Y-2.93567
G01 X-3.20074 Y-2.94051
G01 X-3.20041 Y-2.94524
G01 X-3.20031 Y-2.95116
G01 X-3.20050 Y-2.95633
G01 X-3.20141 Y-2.96506
G01 X-3.20224 Y-2.96993
G01 X-3.20342 Y-2.97529
G01 X-3.20532 Y-2.98209
G01 X-3.20616 Y-2.98462
G01 X-3.20643 Y-2.98497
G01 X-3.21038 Y-2.98942
G01 X-3.21388 Y-2.99264
G01 X-3.21796 Y-2.99577
G01 X-3.21856 Y-2.99549
G01 X-3.21796 Y-2.99577
G01 X-3.21797 Y-3.18062
G01 X-3.21850 Y-3.18606
G01 X-3.21998 Y-3.19133
G01 X-3.22110 Y-3.19394
G01 X-3.22272 Y-3.19697
G01 X-3.22383 Y-3.19867
G01 X-3.22735 Y-3.20286
G01 X-3.29713 Y-3.27265
G01 X-3.30199 Y-3.27664
G01 X-3.30606 Y-3.27890
G01 X-3.30790 Y-3.27975
G01 X-3.31235 Y-3.28114
G01 X-3.31474 Y-3.28161
G01 X-3.31979 Y-3.28204
G01 X-3.34807 Y-3.28204
G01 X-3.34820 Y-3.28167
G01 X-3.34807 Y-3.28204
G01 X-3.35053 Y-3.28421
G01 X-3.35322 Y-3.28621
G01 X-3.44674 Y-3.28623
G01 X-3.44819 Y-3.28521
G01 X-3.45151 Y-3.28245
G01 X-3.45482 Y-3.27903
G01 X-3.45824 Y-3.27461
G01 X-3.46113 Y-3.26965
G01 X-3.46333 Y-3.26437
G01 X-3.46391 Y-3.26250
G01 X-3.46512 Y-3.25740
G01 X-3.46572 Y-3.25141
G01 X-3.46555 Y-3.24604
G01 X-3.46528 Y-3.24377
G01 X-3.46422 Y-3.23851
G01 X-3.46227 Y-3.23285
G01 X-3.45949 Y-3.22736
G01 X-3.45654 Y-3.22307
G01 X-3.45528 Y-3.22150
G01 X-3.45111 Y-3.21719
G01 X-3.44682 Y-3.21380
G01 X-3.36766 Y-3.21379
G01 X-3.45400 Y-3.21387
G01 X-3.45841 Y-3.21563
G01 X-3.46120 Y-3.21878
G01 X-3.46510 Y-3.22446
G01 X-3.46808 Y-3.23040
G01 X-3.47008 Y-3.23612
G01 X-3.47077 Y-3.23888
G01 X-3.47154 Y-3.24300
G01 X-3.47181 Y-3.24535
G01 X-3.47203 Y-3.25117
G01 X-3.47151 Y-3.25722
G01 X-3.47109 Y-3.25969
G01 X-3.46945 Y-3.26595
G01 X-3.46696 Y-3.27206
G01 X-3.46412 Y-3.27710
G01 X-3.46251 Y-3.27944
G01 X-3.45853 Y-3.28434
G01 X-3.45371 Y-3.28624
G01 X-3.34523 Y-3.28614
G01 X-3.34263 Y-3.28700
G01 X-3.33929 Y-3.28833
G01 X-3.31792 Y-3.28826
G01 X-3.31211 Y-3.28756
G01 X-3.30645 Y-3.28592
G01 X-3.30382 Y-3.28483
G01 X-3.29900 Y-3.28221
G01 X-3.29701 Y-3.28079
G01 X-3.29322 Y-3.27763
G01 X-3.22289 Y-3.20732
G01 X-3.21895 Y-3.20267
G01 X-3.21697 Y-3.19959
G01 X-3.21499 Y-3.19581
G01 X-3.21408 Y-3.19355
G01 X-3.21281 Y-3.18939
G01 X-3.21228 Y-3.18259
G01 X-3.21222 Y-3.00020
G01 X-3.21233 Y-3.00018
G01 X-3.21222 Y-3.00020
G01 X-3.21193 Y-2.99887
G01 X-3.20867 Y-2.99143
G01 X-3.20663 Y-2.98601
G01 X-3.20480 Y-2.98038
G01 X-3.20342 Y-2.97529
G01 X-3.20224 Y-2.96993
G01 X-3.20141 Y-2.96506
G01 X-3.20050 Y-2.95633
G01 X-3.20031 Y-2.95116
G01 X-3.20041 Y-2.94524
G01 X-3.20113 Y-2.93699
G01 X-3.20193 Y-2.93174
G01 X-3.20303 Y-2.92635
G01 X-3.20445 Y-2.92082
G01 X-3.20669 Y-2.91379
G01 X-3.20902 Y-2.90771
G01 X-3.21214 Y-2.90072
G01 X-3.21434 Y-2.89905
G01 X-3.21879 Y-2.89622
G01 X-3.22446 Y-2.89331
G01 X-3.23027 Y-2.89103
G01 X-3.23576 Y-2.88948
G01 X-3.24275 Y-2.88824
G01 X-3.24877 Y-2.88783
G01 X-3.25589 Y-2.88811
G01 X-3.25747 Y-2.88831
G01 X-3.25768 Y-2.88887
G01 X-3.25747 Y-2.88831
G01 X-3.32289 Y-2.82289
G01 X-3.32754 Y-2.81895
G01 X-3.33027 Y-2.81717
G01 X-3.33552 Y-2.81451
G01 X-3.34082 Y-2.81281
G01 X-3.34762 Y-2.81228
G01 X-3.35470 Y-2.81225
G01 X-3.36502 Y-2.80837
G01 X-3.37460 Y-2.80718
G01 X-3.42545 Y-2.80718
G01 X-3.43232 Y-2.80779
G01 X-3.43910 Y-2.80961
G01 X-3.44488 Y-2.81219
G01 X-3.44509 Y-2.81253
G01 X-3.44641 Y-2.81502
G01 X-3.44740 Y-2.81766
G01 X-3.44807 Y-2.82040
G01 X-3.44839 Y-2.82320
G01 X-3.44842 Y-2.82825
G01 X-3.44711 Y-2.83556
G01 X-3.44660 Y-2.83970
G01 X-3.44609 Y-2.84839
G01 X-3.44611 Y-2.85252
G01 X-3.44660 Y-2.86037
G01 X-3.44711 Y-2.86444
G01 X-3.44842 Y-2.87174
G01 X-3.44842 Y-2.87599
G01 X-3.44800 Y-2.88000
G01 X-3.44702 Y-2.88348
G01 X-3.44530 Y-2.88712
G01 X-3.44297 Y-2.89040
G01 X-3.44130 Y-2.89216
G01 X-3.43946 Y-2.89373
G01 X-3.43747 Y-2.89509
G01 X-3.43534 Y-2.89624
G01 X-3.43310 Y-2.89715
G01 X-3.43078 Y-2.89783
G01 X-3.42840 Y-2.89825
G01 X-3.42599 Y-2.89842
G01 X-3.37240 Y-2.89834
G01 X-3.37000 Y-2.89800
G01 X-3.36805 Y-2.89752
G01 X-3.36576 Y-2.89672
G01 X-3.36394 Y-2.89588
G01 X-3.36051 Y-2.89371
G01 X-3.36029 Y-2.89211
G01 X-3.36051 Y-2.89371
G01 X-3.31169 Y-2.94253
G01 X-3.31111 Y-2.94231
G01 X-3.31169 Y-2.94253
G01 X-3.31204 Y-2.94599
G01 X-3.31218 Y-2.95091
G01 X-3.31178 Y-2.95710
G01 X-3.31064 Y-2.96369
G01 X-3.30926 Y-2.96883
G01 X-3.30742 Y-2.97386
G01 X-3.30411 Y-2.98062
G01 X-3.30153 Y-2.98481
G01 X-3.29808 Y-2.98943
G01 X-3.29423 Y-2.99371
G01 X-3.29035 Y-2.99731
G01 X-3.28833 Y-2.99891
G01 X-3.28777 Y-2.99866
G01 X-3.28833 Y-2.99891
G01 X-3.28833 Y-3.16433
G01 X-3.28785 Y-3.16453
G01 X-3.28833 Y-3.16433
G01 X-3.33567 Y-3.21166
G01 X-3.33547 Y-3.21214
G01 X-3.33567 Y-3.21166
G01 X-3.33930 Y-3.21166
G01 X-3.34423 Y-3.21357
G01 X-3.34530 Y-3.21385
G01 X-3.36732 Y-3.21379
G01 X-3.35330 Y-3.21376
G01 X-3.35117 Y-3.21528
G01 X-3.34805 Y-3.21796
G01 X-3.33306 Y-3.21796
G01 X-3.28204 Y-3.16694
G01 X-3.28204 Y-2.99577
G01 X-3.28582 Y-2.99290
G01 X-3.28907 Y-2.98994
G01 X-3.29308 Y-2.98560
G01 X-3.29642 Y-2.98111
G01 X-3.29872 Y-2.97736
G01 X-3.30153 Y-2.97162
G01 X-3.30332 Y-2.96674
G01 X-3.30454 Y-2.96210
G01 X-3.30554 Y-2.95620
G01 X-3.30587 Y-2.94981
G01 X-3.30570 Y-2.94542
G01 X-3.30503 Y-2.94028
G01 X-3.36061 Y-2.88470
G01 X-3.36163 Y-2.88608
G01 X-3.36301 Y-2.88757
G01 X-3.36456 Y-2.88887
G01 X-3.36626 Y-2.88998
G01 X-3.36808 Y-2.89087
G01 X-3.37000 Y-2.89153
G01 X-3.37198 Y-2.89195
G01 X-3.37400 Y-2.89212
G01 X-3.42721 Y-2.89205
G01 X-3.43000 Y-2.89153
G01 X-3.43303 Y-2.89036
G01 X-3.43576 Y-2.88863
G01 X-3.43811 Y-2.88639
G01 X-3.43977 Y-2.88409
G01 X-3.44102 Y-2.88154
G01 X-3.44181 Y-2.87882
G01 X-3.44212 Y-2.87600
G01 X-3.44211 Y-2.82360
G01 X-3.44181 Y-2.82118
G01 X-3.44129 Y-2.81922
G01 X-3.44054 Y-2.81734
G01 X-3.43956 Y-2.81556
G01 X-3.43863 Y-2.81424
G01 X-3.43728 Y-2.81272
G01 X-3.43576 Y-2.81137
G01 X-3.43444 Y-2.81044
G01 X-3.43116 Y-2.80884
G01 X-3.42761 Y-2.80800
G01 X-3.42559 Y-2.80787
G01 X-3.37319 Y-2.80792
G01 X-3.37079 Y-2.80828
G01 X-3.36884 Y-2.80884
G01 X-3.36697 Y-2.80964
G01 X-3.36489 Y-2.81089
G01 X-3.36330 Y-2.81216
G01 X-3.36163 Y-2.81392
G01 X-3.36023 Y-2.81591
G01 X-3.35918 Y-2.81796
G01 X-3.34959 Y-2.81797
G01 X-3.34415 Y-2.81851
G01 X-3.33812 Y-2.82025
G01 X-3.33324 Y-2.82272
G01 X-3.33121 Y-2.82408
G01 X-3.32735 Y-2.82735
G01 X-3.25972 Y-2.89497
G01 X-3.25350 Y-2.89424
G01 X-3.24911 Y-2.89412
G01 X-3.24432 Y-2.89442
G01 X-3.23788 Y-2.89544
G01 X-3.23245 Y-2.89694
G01 X-3.22759 Y-2.89880
G01 X-3.22183 Y-2.90175
G01 X-3.21779 Y-2.90433
G01 X-3.21430 Y-2.90702
G01 X-3.21019 Y-2.91080
G01 X-3.20616 Y-2.91535
G01 X-3.20445 Y-2.92082
G01 X-3.20342 Y-2.92475
G01 X-3.20220 Y-2.93027
G01 X-3.20113 Y-2.93699
G01 X-3.20041 Y-2.94524
G01 X-3.20030 Y-2.94994
G01 X-3.20672 Y-2.95026
G01 X-3.20701 Y-2.95501
G01 X-3.20765 Y-2.95894
G01 X-3.20865 Y-2.96281
G01 X-3.21015 Y-2.96690
G01 X-3.21188 Y-2.97051
G01 X-3.21393 Y-2.97392
G01 X-3.21677 Y-2.97774
G01 X-3.21919 Y-2.98040
G01 X-3.22210 Y-2.98309
G01 X-3.22590 Y-2.98595
G01 X-3.22897 Y-2.98783
G01 X-3.23056 Y-2.98863
G01 X-3.23056 Y-3.18021
G01 X-3.23094 Y-3.18400
G01 X-3.23191 Y-3.18729
G01 X-3.23384 Y-3.19101
G01 X-3.23625 Y-3.19395
G01 X-3.30604 Y-3.26374
G01 X-3.30899 Y-3.26616
G01 X-3.31235 Y-3.26796
G01 X-3.31599 Y-3.26906
G01 X-3.31979 Y-3.26944
G01 X-3.35359 Y-3.26944
G01 X-3.35606 Y-3.27224
G01 X-3.35833 Y-3.27431
G01 X-3.36079 Y-3.27614
G01 X-3.36342 Y-3.27773
G01 X-3.36619 Y-3.27905
G01 X-3.36920 Y-3.28013
G01 X-3.37218 Y-3.28088
G01 X-3.37521 Y-3.28133
G01 X-3.37812 Y-3.28150
G01 X-3.42177 Y-3.28150
G01 X-3.42513 Y-3.28130
G01 X-3.42796 Y-3.28085
G01 X-3.43103 Y-3.28006
G01 X-3.43368 Y-3.27911
G01 X-3.43623 Y-3.27792
G01 X-3.43836 Y-3.27669
G01 X-3.44096 Y-3.27488
G01 X-3.44310 Y-3.27306
G01 X-3.44484 Y-3.27131
G01 X-3.44763 Y-3.26779
G01 X-3.44984 Y-3.26403
G01 X-3.45151 Y-3.26001
G01 X-3.45264 Y-3.25557
G01 X-3.45314 Y-3.25043
G01 X-3.45290 Y-3.24609
G01 X-3.45206 Y-3.24181
G01 X-3.45076 Y-3.23799
G01 X-3.44882 Y-3.23408
G01 X-3.44586 Y-3.22986
G01 X-3.44268 Y-3.22656
G01 X-3.43923 Y-3.22388
G01 X-3.43575 Y-3.22185
G01 X-3.43173 Y-3.22017
G01 X-3.42728 Y-3.21902
G01 X-3.42295 Y-3.21854
G01 X-3.37798 Y-3.21851
G01 X-3.37463 Y-3.21873
G01 X-3.37132 Y-3.21930
G01 X-3.36773 Y-3.22035
G01 X-3.36466 Y-3.22164
G01 X-3.36174 Y-3.22324
G01 X-3.35901 Y-3.22514
G01 X-3.35650 Y-3.22732
G01 X-3.35361 Y-3.23056
G01 X-3.32784 Y-3.23056
G01 X-3.26944 Y-3.17216
G01 X-3.26944 Y-2.98863
G01 X-3.27103 Y-2.98783
G01 X-3.27442 Y-2.98574
G01 X-3.27790 Y-2.98309
G01 X-3.28081 Y-2.98040
G01 X-3.28347 Y-2.97744
G01 X-3.28607 Y-2.97392
G01 X-3.28812 Y-2.97051
G01 X-3.28999 Y-2.96655
G01 X-3.29134 Y-2.96281
G01 X-3.29243 Y-2.95856
G01 X-3.29303 Y-2.95463
G01 X-3.29328 Y-2.95064
G01 X-3.29315 Y-2.94666
G01 X-3.29259 Y-2.94232
G01 X-3.29160 Y-2.93804
G01 X-3.29106 Y-2.93643
G01 X-3.35805 Y-2.86944
G01 X-3.37047 Y-2.86944
G01 X-3.37047 Y-2.87559
G01 X-3.37066 Y-2.87681
G01 X-3.37100 Y-2.87756
G01 X-3.37177 Y-2.87852
G01 X-3.37281 Y-2.87919
G01 X-3.37400 Y-2.87950
G01 X-3.42559 Y-2.87953
G01 X-3.42719 Y-2.87919
G01 X-3.42822 Y-2.87852
G01 X-3.42919 Y-2.87719
G01 X-3.42953 Y-2.87559
G01 X-3.42953 Y-2.82441
G01 X-3.42933 Y-2.82319
G01 X-3.42877 Y-2.82210
G01 X-3.42756 Y-2.82100
G01 X-3.42641 Y-2.82056
G01 X-3.42559 Y-2.82047
G01 X-3.37400 Y-2.82049
G01 X-3.37281 Y-2.82081
G01 X-3.37177 Y-2.82148
G01 X-3.37100 Y-2.82244
G01 X-3.37066 Y-2.82319
G01 X-3.37047 Y-2.82441
G01 X-3.37047 Y-2.83056
G01 X-3.35000 Y-2.83056
G01 X-3.34659 Y-2.83088
G01 X-3.34256 Y-2.83204
G01 X-3.33953 Y-2.83364
G01 X-3.33625 Y-2.83625
G01 X-3.26357 Y-2.90894
G01 X-3.26175 Y-2.90834
G01 X-3.25786 Y-2.90744
G01 X-3.25312 Y-2.90683
G01 X-3.24914 Y-2.90673
G01 X-3.24515 Y-2.90699
G01 X-3.24081 Y-2.90770
G01 X-3.23656 Y-2.90885
G01 X-3.23249 Y-2.91041
G01 X-3.22857 Y-2.91240
G01 X-3.22488 Y-2.91475
G01 X-3.22175 Y-2.91721
G01 X-3.21856 Y-2.92025
G01 X-3.21572 Y-2.92358
G01 X-3.21344 Y-2.92684
G01 X-3.21128 Y-2.93067
G01 X-3.20951 Y-2.93470
G01 X-3.20817 Y-2.93886
G01 X-3.20739 Y-2.94238
G01 X-3.20687 Y-2.94630
G01 X-3.20672 Y-2.95026
G04 P0 ( dwell for no time -- G64 should not smooth over this point )
G00 Z0.08000 ( retract )

G00 X-3.12981 Y-3.21762 ( rapid move to begin. )
G01 F180.00000
( Mill infeed pass 1/1 )
G01 Z-0.04000
G04 P0 ( dwell for no time -- G64 should not smooth over this point )
G01 F360.00000
G01 X-3.12981 Y-3.21762
G01 X-3.12981 Y-2.81071
G01 X-3.13027 Y-2.80504
G01 X-3.13098 Y-2.80145
G01 X-3.13223 Y-2.79738
G01 X-3.13314 Y-2.79511
G01 X-3.13616 Y-2.78958
G01 X-3.13978 Y-2.78498
G01 X-3.18360 Y-2.74104
G01 X-3.18793 Y-2.73735
G01 X-3.19134 Y-2.73512
G01 X-3.19474 Y-2.73332
G01 X-3.19738 Y-2.73223
G01 X-3.20343 Y-2.73051
G01 X-3.21034 Y-2.72982
G01 X-3.55707 Y-2.72981
G01 X-3.55727 Y-2.73029
G01 X-3.55707 Y-2.72981
G01 X-3.67238 Y-2.61451
G01 X-3.67818 Y-2.61072
G01 X-3.68295 Y-2.60725
G01 X-3.68764 Y-2.60351
G01 X-3.69625 Y-2.59619
G01 X-3.70598 Y-2.58879
G01 X-3.70903 Y-2.58817
G01 X-3.71361 Y-2.58771
G01 X-3.72327 Y-2.58766
G01 X-3.72510 Y-2.58949
G01 X-3.72327 Y-2.58766
G01 X-3.72327 Y-2.55710
G01 X-3.72344 Y-2.55429
G01 X-3.72386 Y-2.55191
G01 X-3.72441 Y-2.54997
G01 X-3.72528 Y-2.54771
G01 X-3.72619 Y-2.54592
G01 X-3.72846 Y-2.54259
G01 X-3.72981 Y-2.54110
G01 X-3.73159 Y-2.53946
G01 X-3.73457 Y-2.53739
G01 X-3.73783 Y-2.53581
G01 X-3.74130 Y-2.53477
G01 X-3.74529 Y-2.53428
G01 X-3.85252 Y-2.53426
G01 X-3.85272 Y-2.53474
G01 X-3.85252 Y-2.53426
G01 X-3.90599 Y-2.48079
G01 X-3.90827 Y-2.47879
G01 X-3.90875 Y-2.47899
G01 X-3.90827 Y-2.47879
G01 X-3.90827 Y-2.44629
G01 X-3.91325 Y-2.44130
G01 X-3.91798 Y-2.43716
G01 X-3.92250 Y-2.43434
G01 X-3.92686 Y-2.43270
G01 X-3.93130 Y-2.43215
G01 X-4.06870 Y-2.43215
G01 X-4.07314 Y-2.43270
G01 X-4.07750 Y-2.43434
G01 X-4.08202 Y-2.43716
G01 X-4.08675 Y-2.44130
G01 X-4.09173 Y-2.44629
G01 X-4.09172 Y-2.57761
G01 X-4.09131 Y-2.58121
G01 X-4.09046 Y-2.58431
G01 X-4.08919 Y-2.58727
G01 X-4.08728 Y-2.59035
G01 X-4.08574 Y-2.59222
G01 X-4.08402 Y-2.59391
G01 X-4.08179 Y-2.59565
G01 X-4.07973 Y-2.59690
G01 X-4.07717 Y-2.59808
G01 X-4.07487 Y-2.59884
G01 X-4.07251 Y-2.59935
G01 X-4.07011 Y-2.59960
G01 X-3.92989 Y-2.59960
G01 X-3.92591 Y-2.59904
G01 X-3.92208 Y-2.59778
G01 X-3.91854 Y-2.59587
G01 X-3.91539 Y-2.59337
G01 X-3.91372 Y-2.59161
G01 X-3.91225 Y-2.58969
G01 X-3.91100 Y-2.58763
G01 X-3.90997 Y-2.58544
G01 X-3.91043 Y-2.58131
G01 X-3.90991 Y-2.58530
G01 X-3.90673 Y-2.58848
G01 X-3.90625 Y-2.58828
G01 X-3.90673 Y-2.58848
G01 X-3.90673 Y-2.66040
G01 X-3.90582 Y-2.66300
G01 X-3.90436 Y-2.67481
G01 X-3.90435 Y-2.69470
G01 X-3.90294 Y-2.70594
G01 X-3.90174 Y-2.70915
G01 X-3.89990 Y-2.71119
G01 X-3.89679 Y-2.71374
G01 X-3.89508 Y-2.71481
G01 X-3.89292 Y-2.71588
G01 X-3.89065 Y-2.71671
G01 X-3.88870 Y-2.71722
G01 X-3.88631 Y-2.71761
G01 X-3.88390 Y-2.71773
G01 X-3.74570 Y-2.71773
G01 X-3.74249 Y-2.71745
G01 X-3.73897 Y-2.71659
G01 X-3.73635 Y-2.71555
G01 X-3.73388 Y-2.71419
G01 X-3.73159 Y-2.71253
G01 X-3.72926 Y-2.71032
G01 X-3.72725 Y-2.70779
G01 X-3.72581 Y-2.70537
G01 X-3.72467 Y-2.70279
G01 X-3.72377 Y-2.69970
G01 X-3.72344 Y-2.69771
G01 X-3.72327 Y-2.69530
G01 X-3.72327 Y-2.67205
G01 X-3.72714 Y-2.66268
G01 X-3.72327 Y-2.67205
G01 X-3.59979 Y-2.79552
G01 X-3.59573 Y-2.79894
G01 X-3.59373 Y-2.80036
G01 X-3.58892 Y-2.80298
G01 X-3.58590 Y-2.80420
G01 X-3.58023 Y-2.80579
G01 X-3.57407 Y-2.80646
G01 X-3.53099 Y-2.80648
G01 X-3.52648 Y-2.80503
G01 X-3.52114 Y-2.80360
G01 X-3.51339 Y-2.80204
G01 X-3.50868 Y-2.80144
G01 X-3.50361 Y-2.80103
G01 X-3.49600 Y-2.80090
G01 X-3.48842 Y-2.80141
G01 X-3.48028 Y-2.80260
G01 X-3.47300 Y-2.80429
G01 X-3.46585 Y-2.80648
G01 X-3.44755 Y-2.80648
G01 X-3.44097 Y-2.80357
G01 X-3.43369 Y-2.80161
G01 X-3.42587 Y-2.80089
G01 X-3.37441 Y-2.80088
G01 X-3.36316 Y-2.80230
G01 X-3.35356 Y-2.80592
G01 X-3.34735 Y-2.80599
G01 X-3.34078 Y-2.80648
G01 X-3.22659 Y-2.80648
G01 X-3.22639 Y-2.80600
G01 X-3.22659 Y-2.80648
G01 X-3.20648 Y-2.82659
G01 X-3.20600 Y-2.82639
G01 X-3.20648 Y-2.82659
G01 X-3.20648 Y-2.89795
G01 X-3.20322 Y-2.90525
G01 X-3.20077 Y-2.91163
G01 X-3.19890 Y-2.91736
G01 X-3.19730 Y-2.92325
G01 X-3.19570 Y-2.93071
G01 X-3.19488 Y-2.93619
G01 X-3.19435 Y-2.94128
G01 X-3.19399 Y-2.94994
G01 X-3.19421 Y-2.95671
G01 X-3.19466 Y-2.96190
G01 X-3.19540 Y-2.96747
G01 X-3.19730 Y-2.97680
G01 X-3.19875 Y-2.98211
G01 X-3.20068 Y-2.98811
G01 X-3.20283 Y-2.99381
G01 X-3.20592 Y-3.00089
G01 X-3.20592 Y-3.18021
G01 X-3.20614 Y-3.18589
G01 X-3.20648 Y-3.18943
G01 X-3.20648 Y-3.20174
G01 X-3.20604 Y-3.20193
G01 X-3.20648 Y-3.20174
G01 X-3.32334 Y-3.31860
G01 X-3.32510 Y-3.32406
G01 X-3.32814 Y-3.33187
G01 X-3.33111 Y-3.33804
G01 X-3.33501 Y-3.34486
G01 X-3.33840 Y-3.34984
G01 X-3.34289 Y-3.35551
G01 X-3.34697 Y-3.35988
G01 X-3.35009 Y-3.36285
G01 X-3.35354 Y-3.36582
G01 X-3.35709 Y-3.36856
G01 X-3.36081 Y-3.37108
G01 X-3.36074 Y-3.37125
G01 X-3.36081 Y-3.37108
G01 X-3.36502 Y-3.37190
G01 X-3.36925 Y-3.37247
G01 X-3.37351 Y-3.37281
G01 X-3.37812 Y-3.37295
G01 X-3.42205 Y-3.37295
G01 X-3.42825 Y-3.37269
G01 X-3.43659 Y-3.37163
G01 X-3.44167 Y-3.37059
G01 X-3.44689 Y-3.36920
G01 X-3.45335 Y-3.36704
G01 X-3.67310 Y-3.36700
G01 X-3.67943 Y-3.36657
G01 X-3.68417 Y-3.36591
G01 X-3.71497 Y-3.36046
G01 X-3.72267 Y-3.36046
G01 X-3.72982 Y-3.36185
G01 X-3.73658 Y-3.36277
G01 X-3.74389 Y-3.36334
G01 X-3.75106 Y-3.36348
G01 X-3.75758 Y-3.36326
G01 X-3.76355 Y-3.36275
G01 X-3.76909 Y-3.36202
G01 X-3.77734 Y-3.36046
G01 X-3.80386 Y-3.36046
G01 X-3.81217 Y-3.36289
G01 X-3.80830 Y-3.36676
G01 X-3.80850 Y-3.36724
G01 X-3.80830 Y-3.36676
G01 X-3.67724 Y-3.36676
G01 X-3.67126 Y-3.36704
G01 X-3.45335 Y-3.36704
G01 X-3.44689 Y-3.36920
G01 X-3.44167 Y-3.37059
G01 X-3.43659 Y-3.37163
G01 X-3.42825 Y-3.37269
G01 X-3.42205 Y-3.37295
G01 X-3.37812 Y-3.37295
G01 X-3.37351 Y-3.37281
G01 X-3.36925 Y-3.37247
G01 X-3.36502 Y-3.37190
G01 X-3.36081 Y-3.37108
G01 X-3.35584 Y-3.36763
G01 X-3.35009 Y-3.36285
G01 X-3.34601 Y-3.35889
G01 X-3.34296 Y-3.35556
G01 X-3.34009 Y-3.35207
G01 X-3.33752 Y-3.34860
G01 X-3.33502 Y-3.34486
G01 X-3.33251 Y-3.34064
G01 X-3.33028 Y-3.33641
G01 X-3.32853 Y-3.33270
G01 X-3.20018 Y-3.20435
G01 X-3.19970 Y-3.20455
G01 X-3.20018 Y-3.20435
G01 X-3.20018 Y-2.98660
G01 X-3.19875 Y-2.98211
G01 X-3.19730 Y-2.97680
G01 X-3.19541 Y-2.96747
G01 X-3.19450 Y-2.96039
G01 X-3.19414 Y-2.95539
G01 X-3.19401 Y-2.94994
G01 X-3.19412 Y-2.94495
G01 X-3.19446 Y-2.93993
G01 X-3.19571 Y-2.93072
G01 X-3.19730 Y-2.92325
G01 X-3.19890 Y-2.91736
G01 X-3.20018 Y-2.91335
G01 X-3.20018 Y-2.82398
G01 X-3.19970 Y-2.82378
G01 X-3.20018 Y-2.82398
G01 X-3.22398 Y-2.80018
G01 X-3.22378 Y-2.79970
G01 X-3.22398 Y-2.80018
G01 X-3.57295 Y-2.80018
G01 X-3.57880 Y-2.79964
G01 X-3.58368 Y-2.79829
G01 X-3.58632 Y-2.79724
G01 X-3.59041 Y-2.79501
G01 X-3.59531 Y-2.79108
G01 X-3.72837 Y-2.65803
G01 X-3.72817 Y-2.65755
G01 X-3.72837 Y-2.65803
G01 X-3.72956 Y-2.65803
G01 X-3.73141 Y-2.65619
G01 X-3.72956 Y-2.65803
G01 X-3.72956 Y-2.69490
G01 X-3.72981 Y-2.69773
G01 X-3.73028 Y-2.69970
G01 X-3.73115 Y-2.70197
G01 X-3.73213 Y-2.70375
G01 X-3.73358 Y-2.70570
G01 X-3.73530 Y-2.70742
G01 X-3.73691 Y-2.70865
G01 X-3.73867 Y-2.70967
G01 X-3.74091 Y-2.71060
G01 X-3.74367 Y-2.71126
G01 X-3.74610 Y-2.71143
G01 X-3.88390 Y-2.71143
G01 X-3.88592 Y-2.71131
G01 X-3.88752 Y-2.71103
G01 X-3.89060 Y-2.71002
G01 X-3.89275 Y-2.70887
G01 X-3.89439 Y-2.70768
G01 X-3.89615 Y-2.70600
G01 X-3.89742 Y-2.70442
G01 X-3.89867 Y-2.70233
G01 X-3.89947 Y-2.70047
G01 X-3.90003 Y-2.69852
G01 X-3.90039 Y-2.69612
G01 X-3.90043 Y-2.58587
G01 X-3.89996 Y-2.58567
G01 X-3.90043 Y-2.58587
G01 X-3.91456 Y-2.57174
G01 X-3.91801 Y-2.56295
G01 X-3.91456 Y-2.57174
G01 X-3.91464 Y-2.57842
G01 X-3.91497 Y-2.58042
G01 X-3.91553 Y-2.58237
G01 X-3.91633 Y-2.58423
G01 X-3.91758 Y-2.58632
G01 X-3.91885 Y-2.58790
G01 X-3.92061 Y-2.58958
G01 X-3.92225 Y-2.59077
G01 X-3.92440 Y-2.59192
G01 X-3.92669 Y-2.59274
G01 X-3.92867 Y-2.59316
G01 X-3.93110 Y-2.59334
G01 X-4.06971 Y-2.59332
G01 X-4.07331 Y-2.59274
G01 X-4.07523 Y-2.59208
G01 X-4.07705 Y-2.59119
G01 X-4.07875 Y-2.59008
G01 X-4.08030 Y-2.58878
G01 X-4.08265 Y-2.58599
G01 X-4.08385 Y-2.58387
G01 X-4.08472 Y-2.58160
G01 X-4.08526 Y-2.57923
G01 X-4.08543 Y-2.57721
G01 X-4.08544 Y-2.44015
G01 X-4.08202 Y-2.43716
G01 X-4.07750 Y-2.43434
G01 X-4.07314 Y-2.43270
G01 X-4.06870 Y-2.43215
G01 X-3.93130 Y-2.43215
G01 X-3.92686 Y-2.43270
G01 X-3.92250 Y-2.43434
G01 X-3.91798 Y-2.43716
G01 X-3.91456 Y-2.44015
G01 X-3.91456 Y-2.48179
G01 X-3.91515 Y-2.48206
G01 X-3.91456 Y-2.48179
G01 X-3.91045 Y-2.48525
G01 X-3.85513 Y-2.54056
G01 X-3.85533 Y-2.54104
G01 X-3.85513 Y-2.54056
G01 X-3.74569 Y-2.54057
G01 X-3.74367 Y-2.54074
G01 X-3.74169 Y-2.54116
G01 X-3.73977 Y-2.54182
G01 X-3.73760 Y-2.54292
G01 X-3.73593 Y-2.54406
G01 X-3.73441 Y-2.54541
G01 X-3.73213 Y-2.54825
G01 X-3.73053 Y-2.55153
G01 X-3.72969 Y-2.55507
G01 X-3.72956 Y-2.55710
G01 X-3.72956 Y-2.59396
G01 X-3.73139 Y-2.59580
G01 X-3.72956 Y-2.59396
G01 X-3.71469 Y-2.59397
G01 X-3.70925 Y-2.59450
G01 X-3.70398 Y-2.59598
G01 X-3.70173 Y-2.59691
G01 X-3.69730 Y-2.59936
G01 X-3.69365 Y-2.60226
G01 X-3.55968 Y-2.73611
G01 X-3.55988 Y-2.73659
G01 X-3.55968 Y-2.73611
G01 X-3.21030 Y-2.73612
G01 X-3.20446 Y-2.73673
G01 X-3.19883 Y-2.73840
G01 X-3.19325 Y-2.74129
G01 X-3.18926 Y-2.74441
G01 X-3.14467 Y-2.78895
G01 X-3.14151 Y-2.79291
G01 X-3.13888 Y-2.79771
G01 X-3.13813 Y-2.79959
G01 X-3.13712 Y-2.80289
G01 X-3.13653 Y-2.80566
G01 X-3.13611 Y-2.81071
G01 X-3.13611 Y-3.21762
G01 X-3.13673 Y-3.22387
G01 X-3.13855 Y-3.22988
G01 X-3.14151 Y-3.23542
G01 X-3.14550 Y-3.24027
G01 X-3.32696 Y-3.42173
G01 X-3.33153 Y-3.42543
G01 X-3.33596 Y-3.42789
G01 X-3.33859 Y-3.42894
G01 X-3.34189 Y-3.42994
G01 X-3.34388 Y-3.43036
G01 X-3.34933 Y-3.43083
G01 X-3.82157 Y-3.43083
G01 X-3.82621 Y-3.43046
G01 X-3.82900 Y-3.42994
G01 X-3.83269 Y-3.42882
G01 X-3.83457 Y-3.42807
G01 X-3.83937 Y-3.42543
G01 X-3.84302 Y-3.42254
G01 X-3.87265 Y-3.39302
G01 X-3.87592 Y-3.38915
G01 X-3.87727 Y-3.38713
G01 X-3.87960 Y-3.38263
G01 X-3.88114 Y-3.37780
G01 X-3.88161 Y-3.37542
G01 X-3.88203 Y-3.37078
G01 X-3.88204 Y-3.35590
G01 X-3.88031 Y-3.35415
G01 X-3.88204 Y-3.35590
G01 X-3.88781 Y-3.35590
G01 X-3.89063 Y-3.35559
G01 X-3.89335 Y-3.35480
G01 X-3.89555 Y-3.35376
G01 X-3.89789 Y-3.35215
G01 X-3.89965 Y-3.35047
G01 X-3.90115 Y-3.34856
G01 X-3.90235 Y-3.34644
G01 X-3.90334 Y-3.34378
G01 X-3.90381 Y-3.34139
G01 X-3.90394 Y-3.33203
G01 X-3.90224 Y-3.33027
G01 X-3.90394 Y-3.33203
G01 X-3.99606 Y-3.33203
G01 X-3.99783 Y-3.33023
G01 X-3.99606 Y-3.33203
G01 X-3.99619 Y-3.34139
G01 X-3.99677 Y-3.34417
G01 X-3.99783 Y-3.34680
G01 X-3.99885 Y-3.34856
G01 X-4.00008 Y-3.35017
G01 X-4.00149 Y-3.35162
G01 X-4.00308 Y-3.35289
G01 X-4.00480 Y-3.35395
G01 X-4.00665 Y-3.35480
G01 X-4.00858 Y-3.35541
G01 X-4.01057 Y-3.35578
G01 X-4.01260 Y-3.35590
G01 X-4.08821 Y-3.35588
G01 X-4.09102 Y-3.35550
G01 X-4.09335 Y-3.35480
G01 X-4.09555 Y-3.35376
G01 X-4.09789 Y-3.35215
G01 X-4.10044 Y-3.34954
G01 X-4.10158 Y-3.34787
G01 X-4.10252 Y-3.34607
G01 X-4.10322 Y-3.34417
G01 X-4.10369 Y-3.34220
G01 X-4.10392 Y-3.34018
G01 X-4.10394 Y-3.33817
G01 X-4.10153 Y-3.33102
G01 X-4.09966 Y-3.32402
G01 X-4.09839 Y-3.31785
G01 X-4.09764 Y-3.31265
G01 X-4.09710 Y-3.30710
G01 X-4.09685 Y-3.30055
G01 X-4.09696 Y-3.29544
G01 X-4.09764 Y-3.28743
G01 X-4.09764 Y-3.26063
G01 X-4.09751 Y-3.25903
G01 X-4.09686 Y-3.25671
G01 X-4.09544 Y-3.25429
G01 X-4.09342 Y-3.25235
G01 X-4.09094 Y-3.25103
G01 X-4.08900 Y-3.25052
G01 X-4.08740 Y-3.25039
G01 X-4.01260 Y-3.25039
G01 X-4.00982 Y-3.25078
G01 X-4.00725 Y-3.25190
G01 X-4.00508 Y-3.25368
G01 X-4.00348 Y-3.25598
G01 X-4.00256 Y-3.25863
G01 X-4.00236 Y-3.26063
G01 X-4.00236 Y-3.27426
G01 X-4.00420 Y-3.27611
G01 X-4.00236 Y-3.27426
G01 X-3.89764 Y-3.27426
G01 X-3.89580 Y-3.27611
G01 X-3.89764 Y-3.27426
G01 X-3.89764 Y-3.26063
G01 X-3.89744 Y-3.25863
G01 X-3.89652 Y-3.25598
G01 X-3.89492 Y-3.25368
G01 X-3.89309 Y-3.25212
G01 X-3.89056 Y-3.25089
G01 X-3.88900 Y-3.25052
G01 X-3.88740 Y-3.25039
G01 X-3.81220 Y-3.25040
G01 X-3.81021 Y-3.25068
G01 X-3.80868 Y-3.25117
G01 X-3.80691 Y-3.25212
G01 X-3.80565 Y-3.25311
G01 X-3.80456 Y-3.25429
G01 X-3.80348 Y-3.25598
G01 X-3.80275 Y-3.25785
G01 X-3.80243 Y-3.25943
G01 X-3.80236 Y-3.28744
G01 X-3.80299 Y-3.29441
G01 X-3.80315 Y-3.30061
G01 X-3.80299 Y-3.30558
G01 X-3.80236 Y-3.31264
G01 X-3.80236 Y-3.33937
G01 X-3.80249 Y-3.34097
G01 X-3.80286 Y-3.34253
G01 X-3.80348 Y-3.34402
G01 X-3.80508 Y-3.34632
G01 X-3.80725 Y-3.34810
G01 X-3.80982 Y-3.34922
G01 X-3.81220 Y-3.34960
G01 X-3.82426 Y-3.34961
G01 X-3.82606 Y-3.34784
G01 X-3.82426 Y-3.34961
G01 X-3.82426 Y-3.35971
G01 X-3.82474 Y-3.35991
G01 X-3.82426 Y-3.35971
G01 X-3.81091 Y-3.37306
G01 X-3.81111 Y-3.37354
G01 X-3.81091 Y-3.37306
G01 X-3.35999 Y-3.37306
G01 X-3.35979 Y-3.37354
G01 X-3.35999 Y-3.37306
G01 X-3.19388 Y-3.20696
G01 X-3.19340 Y-3.20716
G01 X-3.19388 Y-3.20696
G01 X-3.19388 Y-2.82137
G01 X-3.19340 Y-2.82117
G01 X-3.19388 Y-2.82137
G01 X-3.22137 Y-2.79388
G01 X-3.22117 Y-2.79340
G01 X-3.22137 Y-2.79388
G01 X-3.57295 Y-2.79388
G01 X-3.57738 Y-2.79349
G01 X-3.57895 Y-2.79315
G01 X-3.58261 Y-2.79200
G01 X-3.58639 Y-2.79006
G01 X-3.58774 Y-2.78920
G01 X-3.59115 Y-2.78635
G01 X-3.72576 Y-2.65174
G01 X-3.72556 Y-2.65126
G01 X-3.72576 Y-2.65174
G01 X-3.73586 Y-2.65174
G01 X-3.73770 Y-2.64989
G01 X-3.73586 Y-2.65174
G01 X-3.73590 Y-2.69570
G01 X-3.73615 Y-2.69729
G01 X-3.73664 Y-2.69882
G01 X-3.73806 Y-2.70124
G01 X-3.74008 Y-2.70318
G01 X-3.74145 Y-2.70402
G01 X-3.74294 Y-2.70464
G01 X-3.74450 Y-2.70501
G01 X-3.74610 Y-2.70514
G01 X-3.88390 Y-2.70514
G01 X-3.88590 Y-2.70494
G01 X-3.88782 Y-2.70436
G01 X-3.89024 Y-2.70294
G01 X-3.89142 Y-2.70185
G01 X-3.89241 Y-2.70059
G01 X-3.89364 Y-2.69806
G01 X-3.89413 Y-2.69530
G01 X-3.89414 Y-2.58326
G01 X-3.89366 Y-2.58306
G01 X-3.89414 Y-2.58326
G01 X-3.92086 Y-2.55653
G01 X-3.92455 Y-2.54741
G01 X-3.92086 Y-2.55653
G01 X-3.92093 Y-2.57800
G01 X-3.92125 Y-2.57958
G01 X-3.92180 Y-2.58108
G01 X-3.92259 Y-2.58249
G01 X-3.92358 Y-2.58375
G01 X-3.92476 Y-2.58484
G01 X-3.92610 Y-2.58573
G01 X-3.92871 Y-2.58675
G01 X-3.93110 Y-2.58704
G01 X-4.06930 Y-2.58703
G01 X-4.07168 Y-2.58665
G01 X-4.07390 Y-2.58573
G01 X-4.07585 Y-2.58432
G01 X-4.07741 Y-2.58249
G01 X-4.07864 Y-2.57996
G01 X-4.07901 Y-2.57840
G01 X-4.07914 Y-2.57680
G01 X-4.07913 Y-2.43860
G01 X-4.07885 Y-2.43661
G01 X-4.07823 Y-2.43479
G01 X-4.07750 Y-2.43434
G01 X-4.07314 Y-2.43270
G01 X-4.06870 Y-2.43215
G01 X-3.93130 Y-2.43215
G01 X-3.92686 Y-2.43270
G01 X-3.92250 Y-2.43434
G01 X-3.92177 Y-2.43480
G01 X-3.92150 Y-2.43546
G01 X-3.92099 Y-2.43740
G01 X-3.92086 Y-2.43900
G01 X-3.92086 Y-2.48534
G01 X-3.92155 Y-2.48569
G01 X-3.92086 Y-2.48534
G01 X-3.91931 Y-2.48618
G01 X-3.91799 Y-2.48710
G01 X-3.91490 Y-2.48970
G01 X-3.85774 Y-2.54686
G01 X-3.85794 Y-2.54734
G01 X-3.85774 Y-2.54686
G01 X-3.74610 Y-2.54686
G01 X-3.74450 Y-2.54699
G01 X-3.74294 Y-2.54736
G01 X-3.74041 Y-2.54859
G01 X-3.73858 Y-2.55015
G01 X-3.73717 Y-2.55210
G01 X-3.73625 Y-2.55432
G01 X-3.73587 Y-2.55670
G01 X-3.73586 Y-2.60026
G01 X-3.73767 Y-2.60204
G01 X-3.73586 Y-2.60026
G01 X-3.71410 Y-2.60031
G01 X-3.70988 Y-2.60080
G01 X-3.70581 Y-2.60201
G01 X-3.70166 Y-2.60408
G01 X-3.69999 Y-2.60520
G01 X-3.69690 Y-2.60780
G01 X-3.56229 Y-2.74241
G01 X-3.56249 Y-2.74289
G01 X-3.56229 Y-2.74241
G01 X-3.21071 Y-2.74241
G01 X-3.20589 Y-2.74287
G01 X-3.20105 Y-2.74430
G01 X-3.19658 Y-2.74664
G01 X-3.19326 Y-2.74928
G01 X-3.14960 Y-2.79288
G01 X-3.14686 Y-2.79625
G01 X-3.14462 Y-2.80031
G01 X-3.14315 Y-2.80471
G01 X-3.14276 Y-2.80668
G01 X-3.14241 Y-2.81071
G01 X-3.14242 Y-3.21796
G01 X-3.14295 Y-3.22284
G01 X-3.14445 Y-3.22765
G01 X-3.14686 Y-3.23209
G01 X-3.14995 Y-3.23582
G01 X-3.33113 Y-3.41700
G01 X-3.33486 Y-3.42008
G01 X-3.33857 Y-3.42215
G01 X-3.34042 Y-3.42291
G01 X-3.34490 Y-3.42414
G01 X-3.34933 Y-3.42454
G01 X-3.82157 Y-3.42454
G01 X-3.82560 Y-3.42419
G01 X-3.82756 Y-3.42380
G01 X-3.83197 Y-3.42233
G01 X-3.83603 Y-3.42008
G01 X-3.83940 Y-3.41734
G01 X-3.86820 Y-3.38857
G01 X-3.87128 Y-3.38483
G01 X-3.87353 Y-3.38077
G01 X-3.87412 Y-3.37927
G01 X-3.87528 Y-3.37519
G01 X-3.87571 Y-3.37104
G01 X-3.87574 Y-3.34961
G01 X-3.87397 Y-3.34783
G01 X-3.87574 Y-3.34961
G01 X-3.88820 Y-3.34957
G01 X-3.88979 Y-3.34932
G01 X-3.89169 Y-3.34867
G01 X-3.89342 Y-3.34765
G01 X-3.89492 Y-3.34632
G01 X-3.89613 Y-3.34472
G01 X-3.89686 Y-3.34329
G01 X-3.89744 Y-3.34137
G01 X-3.89763 Y-3.33977
G01 X-3.89764 Y-3.32574
G01 X-3.89581 Y-3.32390
G01 X-3.89764 Y-3.32574
G01 X-4.00236 Y-3.32574
G01 X-4.00420 Y-3.32389
G01 X-4.00236 Y-3.32574
G01 X-4.00236 Y-3.33937
G01 X-4.00275 Y-3.34215
G01 X-4.00330 Y-3.34366
G01 X-4.00409 Y-3.34506
G01 X-4.00595 Y-3.34715
G01 X-4.00725 Y-3.34810
G01 X-4.00868 Y-3.34883
G01 X-4.01021 Y-3.34932
G01 X-4.01180 Y-3.34957
G01 X-4.08820 Y-3.34957
G01 X-4.09094 Y-3.34897
G01 X-4.09342 Y-3.34765
G01 X-4.09544 Y-3.34571
G01 X-4.09633 Y-3.34437
G01 X-4.09701 Y-3.34291
G01 X-4.09744 Y-3.34137
G01 X-4.09764 Y-3.33937
G01 X-4.09764 Y-3.31265
G01 X-4.09710 Y-3.30710
G01 X-4.09686 Y-3.30055
G01 X-4.09696 Y-3.29544
G01 X-4.09730 Y-3.29038
G01 X-4.09809 Y-3.28405
G01 X-4.09903 Y-3.27882
G01 X-4.10123 Y-3.26996
G01 X-4.10394 Y-3.26184
G01 X-4.10392 Y-3.25982
G01 X-4.10362 Y-3.25740
G01 X-4.10297 Y-3.25506
G01 X-4.10198 Y-3.25284
G01 X-4.10068 Y-3.25078
G01 X-4.09909 Y-3.24894
G01 X-4.09725 Y-3.24735
G01 X-4.09520 Y-3.24605
G01 X-4.09297 Y-3.24506
G01 X-4.09023 Y-3.24434
G01 X-4.08740 Y-3.24409
G01 X-4.01260 Y-3.24409
G01 X-4.01057 Y-3.24422
G01 X-4.00858 Y-3.24459
G01 X-4.00665 Y-3.24520
G01 X-4.00480 Y-3.24605
G01 X-4.00180 Y-3.24811
G01 X-4.00035 Y-3.24953
G01 X-3.99908 Y-3.25111
G01 X-3.99732 Y-3.25430
G01 X-3.99656 Y-3.25661
G01 X-3.99614 Y-3.25901
G01 X-3.99606 Y-3.26796
G01 X-3.99781 Y-3.26976
G01 X-3.99606 Y-3.26796
G01 X-3.90394 Y-3.26796
G01 X-3.90214 Y-3.26978
G01 X-3.90394 Y-3.26796
G01 X-3.90386 Y-3.25901
G01 X-3.90344 Y-3.25661
G01 X-3.90268 Y-3.25430
G01 X-3.90092 Y-3.25111
G01 X-3.89851 Y-3.24838
G01 X-3.89692 Y-3.24711
G01 X-3.89520 Y-3.24605
G01 X-3.89181 Y-3.24469
G01 X-3.88943 Y-3.24422
G01 X-3.88740 Y-3.24409
G01 X-3.81179 Y-3.24411
G01 X-3.80898 Y-3.24450
G01 X-3.80627 Y-3.24535
G01 X-3.80375 Y-3.24666
G01 X-3.80149 Y-3.24838
G01 X-3.79956 Y-3.25046
G01 X-3.79801 Y-3.25284
G01 X-3.79703 Y-3.25506
G01 X-3.79631 Y-3.25780
G01 X-3.79608 Y-3.25982
G01 X-3.79606 Y-3.26185
G01 X-3.79832 Y-3.26847
G01 X-3.79983 Y-3.27386
G01 X-3.80103 Y-3.27911
G01 X-3.80195 Y-3.28433
G01 X-3.80273 Y-3.29074
G01 X-3.80305 Y-3.29564
G01 X-3.80314 Y-3.30061
G01 X-3.80300 Y-3.30551
G01 X-3.80266 Y-3.31004
G01 X-3.80152 Y-3.31829
G01 X-3.80050 Y-3.32334
G01 X-3.79918 Y-3.32857
G01 X-3.79770 Y-3.33349
G01 X-3.79606 Y-3.33817
G01 X-3.79611 Y-3.34059
G01 X-3.79638 Y-3.34260
G01 X-3.79690 Y-3.34456
G01 X-3.79765 Y-3.34644
G01 X-3.79863 Y-3.34822
G01 X-3.79982 Y-3.34986
G01 X-3.80120 Y-3.35134
G01 X-3.80275 Y-3.35265
G01 X-3.80445 Y-3.35376
G01 X-3.80627 Y-3.35465
G01 X-3.80819 Y-3.35531
G01 X-3.81017 Y-3.35573
G01 X-3.81219 Y-3.35590
G01 X-3.81796 Y-3.35590
G01 X-3.81974 Y-3.35418
G01 X-3.81796 Y-3.35590
G01 X-3.81796 Y-3.35710
G01 X-3.81844 Y-3.35730
G01 X-3.81796 Y-3.35710
G01 X-3.81217 Y-3.36289
G01 X-3.80386 Y-3.36046
G01 X-3.80038 Y-3.35866
G01 X-3.79718 Y-3.35621
G01 X-3.79446 Y-3.35324
G01 X-3.79224 Y-3.34971
G01 X-3.79394 Y-3.34390
G01 X-3.79772 Y-3.33342
G01 X-3.79916 Y-3.32864
G01 X-3.80050 Y-3.32334
G01 X-3.80153 Y-3.31821
G01 X-3.80266 Y-3.31004
G01 X-3.80305 Y-3.30435
G01 X-3.80314 Y-3.29939
G01 X-3.80299 Y-3.29434
G01 X-3.80215 Y-3.28572
G01 X-3.80131 Y-3.28058
G01 X-3.80023 Y-3.27551
G01 X-3.79832 Y-3.26847
G01 X-3.79645 Y-3.26288
G01 X-3.79415 Y-3.25669
G01 X-3.79223 Y-3.25030
G01 X-3.79375 Y-3.24774
G01 X-3.79549 Y-3.24551
G01 X-3.79748 Y-3.24352
G01 X-3.79970 Y-3.24178
G01 X-3.80248 Y-3.24016
