( pcb2gcode 2.5.0 )
( Software-independent Gcode )

G94 ( Inches per minute feed rate. )
G20 ( Units == INCHES. )

G90 ( Absolute coordinates. )
G00 S12000 ( RPM spindle speed. )
G64 P0.00040 ( set maximum deviation from commanded toolpath )
G01 F360.00000 ( Feedrate. )


G00 Z1.00000 (Retract to tool change height)
T1
M5      (Spindle stop.)
G04 P1.00000 (Wait for spindle to stop)
(MSG, Change tool bit to mill diameter 0.00787in)
M6      (Tool change.)
M0      (Temporary machine stop.)
M3 ( Spindle on clockwise. )
G04 P1.00000 (Wait for spindle to get up to speed)
G04 P0 ( dwell for no time -- G64 should not smooth over this point )
G00 Z0.08000 ( retract )

G00 X-3.18784 Y-2.55113 ( rapid move to begin. )
G01 F180.00000
( Mill infeed pass 1/1 )
G01 Z-0.04000
G04 P0 ( dwell for no time -- G64 should not smooth over this point )
G01 F360.00000
G01 X-3.18784 Y-2.55113
G01 X-3.18784 Y-2.54890
G01 X-3.18824 Y-2.54291
G01 X-3.18901 Y-2.53786
G01 X-3.19070 Y-2.53133
G01 X-3.19242 Y-2.52653
G01 X-3.19489 Y-2.52120
G01 X-3.19792 Y-2.51603
G01 X-3.20200 Y-2.51049
G01 X-3.20541 Y-2.50666
G01 X-3.20978 Y-2.50257
G01 X-3.21444 Y-2.49899
G01 X-3.21950 Y-2.49581
G01 X-3.22475 Y-2.49317
G01 X-3.23033 Y-2.49101
G01 X-3.23610 Y-2.48939
G01 X-3.24231 Y-2.48830
G01 X-3.24850 Y-2.48784
G01 X-3.25236 Y-2.48786
G01 X-3.25736 Y-2.48825
G01 X-3.26149 Y-2.48888
G01 X-3.26608 Y-2.48993
G01 X-3.27047 Y-2.49128
G01 X-3.27435 Y-2.49279
G01 X-3.27889 Y-2.49493
G01 X-3.28224 Y-2.49684
G01 X-3.28758 Y-2.50046
G01 X-3.29081 Y-2.50308
G01 X-3.29446 Y-2.50654
G01 X-3.29709 Y-2.50939
G01 X-3.29873 Y-2.51141
G01 X-3.29848 Y-2.51197
G01 X-3.29873 Y-2.51141
G01 X-3.60128 Y-2.51141
G01 X-3.60153 Y-2.51197
G01 X-3.60128 Y-2.51141
G01 X-3.60323 Y-2.50904
G01 X-3.60675 Y-2.50532
G01 X-3.61126 Y-2.50136
G01 X-3.61688 Y-2.49739
G01 X-3.62130 Y-2.49483
G01 X-3.62623 Y-2.49254
G01 X-3.63314 Y-2.49016
G01 X-3.63812 Y-2.48896
G01 X-3.64361 Y-2.48814
G01 X-3.64948 Y-2.48782
G01 X-3.65458 Y-2.48800
G01 X-3.65748 Y-2.48830
G01 X-3.65770 Y-2.48888
G01 X-3.65748 Y-2.48830
G01 X-3.77048 Y-2.37537
G01 X-3.77372 Y-2.37270
G01 X-3.77571 Y-2.37129
G01 X-3.78017 Y-2.36885
G01 X-3.78240 Y-2.36786
G01 X-3.78724 Y-2.36633
G01 X-3.78922 Y-2.36586
G01 X-3.79426 Y-2.36527
G01 X-3.79650 Y-2.36516
G01 X-4.15350 Y-2.36516
G01 X-4.15574 Y-2.36527
G01 X-4.16078 Y-2.36586
G01 X-4.16645 Y-2.36745
G01 X-4.16983 Y-2.36885
G01 X-4.17497 Y-2.37174
G01 X-4.18007 Y-2.37587
G01 X-4.29251 Y-2.48830
G01 X-4.29230 Y-2.48888
G01 X-4.29251 Y-2.48830
G01 X-4.29542 Y-2.48800
G01 X-4.30052 Y-2.48782
G01 X-4.30638 Y-2.48814
G01 X-4.31188 Y-2.48896
G01 X-4.31686 Y-2.49016
G01 X-4.32376 Y-2.49254
G01 X-4.32870 Y-2.49483
G01 X-4.33312 Y-2.49739
G01 X-4.33874 Y-2.50136
G01 X-4.34325 Y-2.50532
G01 X-4.34677 Y-2.50904
G01 X-4.34872 Y-2.51141
G01 X-4.34847 Y-2.51197
G01 X-4.34872 Y-2.51141
G01 X-4.65127 Y-2.51141
G01 X-4.65151 Y-2.51197
G01 X-4.65127 Y-2.51141
G01 X-4.65320 Y-2.50906
G01 X-4.65644 Y-2.50563
G01 X-4.66015 Y-2.50227
G01 X-4.66310 Y-2.49994
G01 X-4.66701 Y-2.49729
G01 X-4.67111 Y-2.49493
G01 X-4.67526 Y-2.49295
G01 X-4.67952 Y-2.49128
G01 X-4.68392 Y-2.48993
G01 X-4.68851 Y-2.48888
G01 X-4.69222 Y-2.48831
G01 X-4.69850 Y-2.48784
G01 X-4.70268 Y-2.48787
G01 X-4.70725 Y-2.48826
G01 X-4.71390 Y-2.48939
G01 X-4.71882 Y-2.49075
G01 X-4.72091 Y-2.49146
G01 X-4.72643 Y-2.49373
G01 X-4.73088 Y-2.49603
G01 X-4.73592 Y-2.49924
G01 X-4.74055 Y-2.50285
G01 X-4.74520 Y-2.50730
G01 X-4.74884 Y-2.51151
G01 X-4.75232 Y-2.51640
G01 X-4.75531 Y-2.52158
G01 X-4.75775 Y-2.52693
G01 X-4.75969 Y-2.53258
G01 X-4.76107 Y-2.53829
G01 X-4.76192 Y-2.54422
G01 X-4.76218 Y-2.54977
G01 X-4.76193 Y-2.55563
G01 X-4.76113 Y-2.56142
G01 X-4.75978 Y-2.56711
G01 X-4.75791 Y-2.57264
G01 X-4.75553 Y-2.57798
G01 X-4.75266 Y-2.58307
G01 X-4.74932 Y-2.58787
G01 X-4.74611 Y-2.59169
G01 X-4.74137 Y-2.59643
G01 X-4.73683 Y-2.60011
G01 X-4.73196 Y-2.60334
G01 X-4.72757 Y-2.60572
G01 X-4.72142 Y-2.60838
G01 X-4.71667 Y-2.60989
G01 X-4.71097 Y-2.61119
G01 X-4.70885 Y-2.61153
G01 X-4.70440 Y-2.61203
G01 X-4.70024 Y-2.61217
G01 X-4.69361 Y-2.61184
G01 X-4.68977 Y-2.61134
G01 X-4.68513 Y-2.61038
G01 X-4.68057 Y-2.60907
G01 X-4.67613 Y-2.60742
G01 X-4.67183 Y-2.60543
G01 X-4.66768 Y-2.60313
G01 X-4.66373 Y-2.60051
G01 X-4.66066 Y-2.59815
G01 X-4.65679 Y-2.59472
G01 X-4.65351 Y-2.59130
G01 X-4.65126 Y-2.58858
G01 X-4.65151 Y-2.58804
G01 X-4.65126 Y-2.58858
G01 X-4.34873 Y-2.58858
G01 X-4.34851 Y-2.58808
G01 X-4.34873 Y-2.58858
G01 X-4.34431 Y-2.59361
G01 X-4.33977 Y-2.59781
G01 X-4.33420 Y-2.60194
G01 X-4.32859 Y-2.60521
G01 X-4.32654 Y-2.60621
G01 X-4.32091 Y-2.60856
G01 X-4.31442 Y-2.61049
G01 X-4.30804 Y-2.61165
G01 X-4.30580 Y-2.61189
G01 X-4.29956 Y-2.61218
G01 X-4.29270 Y-2.61175
G01 X-4.28594 Y-2.61057
G01 X-4.27981 Y-2.60880
G01 X-4.27367 Y-2.60630
G01 X-4.27364 Y-2.60575
G01 X-4.27367 Y-2.60630
G01 X-4.09173 Y-2.69727
G01 X-4.09079 Y-2.69669
G01 X-4.09173 Y-2.69727
G01 X-4.09173 Y-2.79162
G01 X-4.08544 Y-2.80683
G01 X-4.08544 Y-2.69338
G01 X-4.08449 Y-2.69280
G01 X-4.08544 Y-2.69338
G01 X-4.27368 Y-2.59925
G01 X-4.27367 Y-2.59859
G01 X-4.27368 Y-2.59925
G01 X-4.27454 Y-2.59974
G01 X-4.28123 Y-2.60264
G01 X-4.28701 Y-2.60435
G01 X-4.29304 Y-2.60544
G01 X-4.30094 Y-2.60586
G01 X-4.30658 Y-2.60550
G01 X-4.31261 Y-2.60444
G01 X-4.31876 Y-2.60264
G01 X-4.32406 Y-2.60042
G01 X-4.32579 Y-2.59956
G01 X-4.33107 Y-2.59644
G01 X-4.33589 Y-2.59284
G01 X-4.34028 Y-2.58873
G01 X-4.34498 Y-2.58316
G01 X-4.34556 Y-2.58229
G01 X-4.34528 Y-2.58168
G01 X-4.34556 Y-2.58229
G01 X-4.65441 Y-2.58229
G01 X-4.65472 Y-2.58165
G01 X-4.65441 Y-2.58229
G01 X-4.65782 Y-2.58666
G01 X-4.66104 Y-2.59006
G01 X-4.66420 Y-2.59291
G01 X-4.66723 Y-2.59527
G01 X-4.67078 Y-2.59764
G01 X-4.67449 Y-2.59972
G01 X-4.67835 Y-2.60152
G01 X-4.68234 Y-2.60302
G01 X-4.68643 Y-2.60421
G01 X-4.69060 Y-2.60509
G01 X-4.69441 Y-2.60560
G01 X-4.70006 Y-2.60588
G01 X-4.70400 Y-2.60574
G01 X-4.70853 Y-2.60523
G01 X-4.71405 Y-2.60409
G01 X-4.71979 Y-2.60225
G01 X-4.72392 Y-2.60051
G01 X-4.72788 Y-2.59842
G01 X-4.73294 Y-2.59515
G01 X-4.73703 Y-2.59185
G01 X-4.74132 Y-2.58761
G01 X-4.74421 Y-2.58419
G01 X-4.74679 Y-2.58053
G01 X-4.74945 Y-2.57600
G01 X-4.75198 Y-2.57053
G01 X-4.75368 Y-2.56556
G01 X-4.75490 Y-2.56045
G01 X-4.75569 Y-2.55447
G01 X-4.75589 Y-2.54999
G01 X-4.75568 Y-2.54541
G01 X-4.75498 Y-2.54006
G01 X-4.75359 Y-2.53416
G01 X-4.75182 Y-2.52908
G01 X-4.74962 Y-2.52429
G01 X-4.74733 Y-2.52031
G01 X-4.74377 Y-2.51525
G01 X-4.73965 Y-2.51063
G01 X-4.73629 Y-2.50750
G01 X-4.73212 Y-2.50427
G01 X-4.72758 Y-2.50140
G01 X-4.72359 Y-2.49935
G01 X-4.71786 Y-2.49705
G01 X-4.71268 Y-2.49557
G01 X-4.70827 Y-2.49474
G01 X-4.70186 Y-2.49415
G01 X-4.69809 Y-2.49415
G01 X-4.69437 Y-2.49441
G01 X-4.68907 Y-2.49520
G01 X-4.68535 Y-2.49607
G01 X-4.68141 Y-2.49730
G01 X-4.67758 Y-2.49881
G01 X-4.67422 Y-2.50041
G01 X-4.67053 Y-2.50252
G01 X-4.66734 Y-2.50466
G01 X-4.66315 Y-2.50799
G01 X-4.66043 Y-2.51054
G01 X-4.65728 Y-2.51398
G01 X-4.65441 Y-2.51771
G01 X-4.65472 Y-2.51835
G01 X-4.65441 Y-2.51771
G01 X-4.34560 Y-2.51771
G01 X-4.34533 Y-2.51830
G01 X-4.34560 Y-2.51771
G01 X-4.34269 Y-2.51393
G01 X-4.33901 Y-2.50998
G01 X-4.33528 Y-2.50666
G01 X-4.32993 Y-2.50282
G01 X-4.32596 Y-2.50051
G01 X-4.32118 Y-2.49828
G01 X-4.31610 Y-2.49648
G01 X-4.31165 Y-2.49535
G01 X-4.30515 Y-2.49436
G01 X-4.30027 Y-2.49411
G01 X-4.29489 Y-2.49435
G01 X-4.29028 Y-2.49498
G01 X-4.29006 Y-2.49560
G01 X-4.29028 Y-2.49498
G01 X-4.17586 Y-2.38056
G01 X-4.17163 Y-2.37709
G01 X-4.16723 Y-2.37459
G01 X-4.16462 Y-2.37348
G01 X-4.15935 Y-2.37200
G01 X-4.15350 Y-2.37146
G01 X-3.79650 Y-2.37146
G01 X-3.79025 Y-2.37208
G01 X-3.78462 Y-2.37375
G01 X-3.77904 Y-2.37664
G01 X-3.77443 Y-2.38029
G01 X-3.65972 Y-2.49498
G01 X-3.65994 Y-2.49560
G01 X-3.65972 Y-2.49498
G01 X-3.65511 Y-2.49435
G01 X-3.64973 Y-2.49411
G01 X-3.64485 Y-2.49436
G01 X-3.63835 Y-2.49535
G01 X-3.63390 Y-2.49648
G01 X-3.62882 Y-2.49828
G01 X-3.62404 Y-2.50051
G01 X-3.62007 Y-2.50282
G01 X-3.61472 Y-2.50666
G01 X-3.61099 Y-2.50998
G01 X-3.60731 Y-2.51393
G01 X-3.60439 Y-2.51771
G01 X-3.60467 Y-2.51830
G01 X-3.60439 Y-2.51771
G01 X-3.29559 Y-2.51771
G01 X-3.29528 Y-2.51835
G01 X-3.29559 Y-2.51771
G01 X-3.29272 Y-2.51398
G01 X-3.28957 Y-2.51054
G01 X-3.28685 Y-2.50799
G01 X-3.28266 Y-2.50466
G01 X-3.27947 Y-2.50252
G01 X-3.27578 Y-2.50041
G01 X-3.27242 Y-2.49881
G01 X-3.26859 Y-2.49730
G01 X-3.26465 Y-2.49607
G01 X-3.26093 Y-2.49520
G01 X-3.25563 Y-2.49441
G01 X-3.25191 Y-2.49415
G01 X-3.24814 Y-2.49415
G01 X-3.24173 Y-2.49474
G01 X-3.23732 Y-2.49557
G01 X-3.23214 Y-2.49705
G01 X-3.22641 Y-2.49935
G01 X-3.22242 Y-2.50140
G01 X-3.21788 Y-2.50427
G01 X-3.21371 Y-2.50750
G01 X-3.21035 Y-2.51063
G01 X-3.20623 Y-2.51525
G01 X-3.20308 Y-2.51963
G01 X-3.20076 Y-2.52360
G01 X-3.19790 Y-2.52982
G01 X-3.19620 Y-2.53492
G01 X-3.19515 Y-2.53928
G01 X-3.19447 Y-2.54382
G01 X-3.19411 Y-2.55001
G01 X-3.19435 Y-2.55512
G01 X-3.19518 Y-2.56088
G01 X-3.19652 Y-2.56623
G01 X-3.19835 Y-2.57133
G01 X-3.20089 Y-2.57667
G01 X-3.20348 Y-2.58097
G01 X-3.20730 Y-2.58603
G01 X-3.21048 Y-2.58952
G01 X-3.21397 Y-2.59270
G01 X-3.21837 Y-2.59605
G01 X-3.22368 Y-2.59930
G01 X-3.22867 Y-2.60165
G01 X-3.23377 Y-2.60348
G01 X-3.23952 Y-2.60489
G01 X-3.24529 Y-2.60567
G01 X-3.25012 Y-2.60588
G01 X-3.25418 Y-2.60573
G01 X-3.25827 Y-2.60527
G01 X-3.26230 Y-2.60451
G01 X-3.26615 Y-2.60350
G01 X-3.27030 Y-2.60206
G01 X-3.27370 Y-2.60061
G01 X-3.27726 Y-2.59878
G01 X-3.28076 Y-2.59666
G01 X-3.28433 Y-2.59409
G01 X-3.28748 Y-2.59144
G01 X-3.28987 Y-2.58916
G01 X-3.29230 Y-2.58651
G01 X-3.29561 Y-2.58229
G01 X-3.29532 Y-2.58169
G01 X-3.29561 Y-2.58229
G01 X-3.60442 Y-2.58229
G01 X-3.60472 Y-2.58165
G01 X-3.60442 Y-2.58229
G01 X-3.60772 Y-2.58654
G01 X-3.61103 Y-2.59006
G01 X-3.61389 Y-2.59264
G01 X-3.61841 Y-2.59609
G01 X-3.62174 Y-2.59821
G01 X-3.62552 Y-2.60024
G01 X-3.62913 Y-2.60184
G01 X-3.63316 Y-2.60329
G01 X-3.63739 Y-2.60444
G01 X-3.64129 Y-2.60519
G01 X-3.64682 Y-2.60579
G01 X-3.65078 Y-2.60588
G01 X-3.65525 Y-2.60564
G01 X-3.66004 Y-2.60498
G01 X-3.66514 Y-2.60379
G01 X-3.67000 Y-2.60218
G01 X-3.67469 Y-2.60014
G01 X-3.67916 Y-2.59767
G01 X-3.68340 Y-2.59481
G01 X-3.68735 Y-2.59157
G01 X-3.69125 Y-2.58770
G01 X-3.69474 Y-2.58347
G01 X-3.69722 Y-2.57989
G01 X-3.69939 Y-2.57611
G01 X-3.70188 Y-2.57078
G01 X-3.70370 Y-2.56547
G01 X-3.70482 Y-2.56087
G01 X-3.70549 Y-2.55656
G01 X-3.70587 Y-2.55107
G01 X-3.70559 Y-2.54438
G01 X-3.70503 Y-2.54028
G01 X-3.70444 Y-2.54006
G01 X-3.70503 Y-2.54028
G01 X-3.80977 Y-2.43553
G01 X-3.80957 Y-2.43505
G01 X-3.80977 Y-2.43553
G01 X-3.91027 Y-2.43553
G01 X-3.91442 Y-2.43194
G01 X-3.91999 Y-2.42855
G01 X-3.92498 Y-2.42663
G01 X-3.93110 Y-2.42584
G01 X-4.06890 Y-2.42584
G01 X-4.07502 Y-2.42663
G01 X-4.08001 Y-2.42855
G01 X-4.08122 Y-2.42923
G01 X-4.14284 Y-2.42923
G01 X-4.14304 Y-2.42876
G01 X-4.14284 Y-2.42923
G01 X-4.25187 Y-2.53826
G01 X-4.25261 Y-2.53803
G01 X-4.25187 Y-2.53826
G01 X-4.25112 Y-2.54167
G01 X-4.25065 Y-2.54562
G01 X-4.25128 Y-2.54608
G01 X-4.25065 Y-2.54562
G01 X-4.01197 Y-2.66496
G01 X-4.01201 Y-2.66513
G01 X-4.01197 Y-2.66496
G01 X-3.93070 Y-2.66497
G01 X-3.92871 Y-2.66525
G01 X-3.92718 Y-2.66574
G01 X-3.92575 Y-2.66647
G01 X-3.92445 Y-2.66742
G01 X-3.92306 Y-2.66886
G01 X-3.92198 Y-2.67055
G01 X-3.92115 Y-2.67281
G01 X-3.92087 Y-2.67480
G01 X-3.92087 Y-2.81340
G01 X-3.92115 Y-2.81539
G01 X-3.92164 Y-2.81692
G01 X-3.92259 Y-2.81869
G01 X-3.92386 Y-2.82024
G01 X-3.92541 Y-2.82151
G01 X-3.92718 Y-2.82246
G01 X-3.92910 Y-2.82304
G01 X-3.93110 Y-2.82324
G01 X-4.06890 Y-2.82324
G01 X-4.07050 Y-2.82311
G01 X-4.07206 Y-2.82274
G01 X-4.07459 Y-2.82151
G01 X-4.07642 Y-2.81995
G01 X-4.07783 Y-2.81800
G01 X-4.07875 Y-2.81578
G01 X-4.07913 Y-2.81340
G01 X-4.07914 Y-2.68948
G01 X-4.07820 Y-2.68890
G01 X-4.07914 Y-2.68948
G01 X-4.27389 Y-2.59211
G01 X-4.27388 Y-2.59138
G01 X-4.27389 Y-2.59211
G01 X-4.27805 Y-2.59446
G01 X-4.28338 Y-2.59672
G01 X-4.28922 Y-2.59838
G01 X-4.29453 Y-2.59928
G01 X-4.30020 Y-2.59958
G01 X-4.30586 Y-2.59924
G01 X-4.31155 Y-2.59822
G01 X-4.31699 Y-2.59658
G01 X-4.32195 Y-2.59446
G01 X-4.32698 Y-2.59160
G01 X-4.33125 Y-2.58848
G01 X-4.33572 Y-2.58439
G01 X-4.33948 Y-2.57999
G01 X-4.34219 Y-2.57599
G01 X-4.34187 Y-2.57534
G01 X-4.34219 Y-2.57599
G01 X-4.65779 Y-2.57599
G01 X-4.65808 Y-2.57537
G01 X-4.65779 Y-2.57599
G01 X-4.66009 Y-2.57942
G01 X-4.66270 Y-2.58267
G01 X-4.66530 Y-2.58542
G01 X-4.66809 Y-2.58796
G01 X-4.67108 Y-2.59028
G01 X-4.67423 Y-2.59236
G01 X-4.67788 Y-2.59437
G01 X-4.68096 Y-2.59579
G01 X-4.68451 Y-2.59710
G01 X-4.68814 Y-2.59815
G01 X-4.69184 Y-2.59891
G01 X-4.69560 Y-2.59939
G01 X-4.69949 Y-2.59958
G01 X-4.70332 Y-2.59947
G01 X-4.70743 Y-2.59902
G01 X-4.71247 Y-2.59799
G01 X-4.71737 Y-2.59644
G01 X-4.72122 Y-2.59482
G01 X-4.72492 Y-2.59286
G01 X-4.72923 Y-2.59006
G01 X-4.73286 Y-2.58713
G01 X-4.73652 Y-2.58353
G01 X-4.73922 Y-2.58033
G01 X-4.74163 Y-2.57692
G01 X-4.74398 Y-2.57289
G01 X-4.74612 Y-2.56822
G01 X-4.74775 Y-2.56334
G01 X-4.74879 Y-2.55880
G01 X-4.74937 Y-2.55466
G01 X-4.74957 Y-2.55048
G01 X-4.74936 Y-2.54522
G01 X-4.74866 Y-2.54049
G01 X-4.74755 Y-2.53595
G01 X-4.74579 Y-2.53099
G01 X-4.74403 Y-2.52719
G01 X-4.74189 Y-2.52348
G01 X-4.73883 Y-2.51917
G01 X-4.73533 Y-2.51522
G01 X-4.73220 Y-2.51229
G01 X-4.72850 Y-2.50942
G01 X-4.72447 Y-2.50687
G01 X-4.72074 Y-2.50497
G01 X-4.71585 Y-2.50301
G01 X-4.71125 Y-2.50171
G01 X-4.70713 Y-2.50094
G01 X-4.70150 Y-2.50044
G01 X-4.69812 Y-2.50045
G01 X-4.69447 Y-2.50072
G01 X-4.69085 Y-2.50127
G01 X-4.68754 Y-2.50201
G01 X-4.68367 Y-2.50318
G01 X-4.68062 Y-2.50436
G01 X-4.67663 Y-2.50627
G01 X-4.67369 Y-2.50797
G01 X-4.67057 Y-2.51009
G01 X-4.66771 Y-2.51237
G01 X-4.66502 Y-2.51485
G01 X-4.66245 Y-2.51761
G01 X-4.66010 Y-2.52056
G01 X-4.65778 Y-2.52401
G01 X-4.65808 Y-2.52464
G01 X-4.65778 Y-2.52401
G01 X-4.34218 Y-2.52401
G01 X-4.34182 Y-2.52471
G01 X-4.34218 Y-2.52401
G01 X-4.34079 Y-2.52180
G01 X-4.33788 Y-2.51800
G01 X-4.33425 Y-2.51416
G01 X-4.33103 Y-2.51132
G01 X-4.32715 Y-2.50851
G01 X-4.32303 Y-2.50609
G01 X-4.31879 Y-2.50411
G01 X-4.31429 Y-2.50252
G01 X-4.30964 Y-2.50136
G01 X-4.30491 Y-2.50066
G01 X-4.30073 Y-2.50043
G01 X-4.29547 Y-2.50062
G01 X-4.29073 Y-2.50129
G01 X-4.28826 Y-2.50187
G01 X-4.28803 Y-2.50263
G01 X-4.28826 Y-2.50187
G01 X-4.17170 Y-2.38530
G01 X-4.16829 Y-2.38245
G01 X-4.16693 Y-2.38158
G01 X-4.16316 Y-2.37965
G01 X-4.15911 Y-2.37839
G01 X-4.15753 Y-2.37811
G01 X-4.15350 Y-2.37776
G01 X-3.79650 Y-2.37776
G01 X-3.79168 Y-2.37822
G01 X-3.78684 Y-2.37965
G01 X-3.78237 Y-2.38199
G01 X-3.77854 Y-2.38507
G01 X-3.66173 Y-2.50187
G01 X-3.66197 Y-2.50263
G01 X-3.66173 Y-2.50187
G01 X-3.65927 Y-2.50129
G01 X-3.65453 Y-2.50062
G01 X-3.64927 Y-2.50043
G01 X-3.64509 Y-2.50066
G01 X-3.64036 Y-2.50136
G01 X-3.63571 Y-2.50252
G01 X-3.63120 Y-2.50411
G01 X-3.62697 Y-2.50609
G01 X-3.62284 Y-2.50851
G01 X-3.61897 Y-2.51132
G01 X-3.61575 Y-2.51416
G01 X-3.61212 Y-2.51800
G01 X-3.60921 Y-2.52180
G01 X-3.60782 Y-2.52401
G01 X-3.60818 Y-2.52471
G01 X-3.60782 Y-2.52401
G01 X-3.29222 Y-2.52401
G01 X-3.29192 Y-2.52464
G01 X-3.29222 Y-2.52401
G01 X-3.28990 Y-2.52056
G01 X-3.28755 Y-2.51761
G01 X-3.28498 Y-2.51485
G01 X-3.28229 Y-2.51237
G01 X-3.27942 Y-2.51009
G01 X-3.27630 Y-2.50797
G01 X-3.27337 Y-2.50627
G01 X-3.26938 Y-2.50436
G01 X-3.26633 Y-2.50318
G01 X-3.26246 Y-2.50201
G01 X-3.25915 Y-2.50127
G01 X-3.25553 Y-2.50072
G01 X-3.25188 Y-2.50045
G01 X-3.24850 Y-2.50044
G01 X-3.24287 Y-2.50094
G01 X-3.23875 Y-2.50171
G01 X-3.23415 Y-2.50301
G01 X-3.22926 Y-2.50497
G01 X-3.22553 Y-2.50687
G01 X-3.22149 Y-2.50942
G01 X-3.21780 Y-2.51229
G01 X-3.21467 Y-2.51522
G01 X-3.21116 Y-2.51917
G01 X-3.20837 Y-2.52306
G01 X-3.20621 Y-2.52676
G01 X-3.20385 Y-2.53190
G01 X-3.20232 Y-2.53642
G01 X-3.20133 Y-2.54049
G01 X-3.20070 Y-2.54473
G01 X-3.20041 Y-2.55001
G01 X-3.20062 Y-2.55440
G01 X-3.20136 Y-2.55965
G01 X-3.20255 Y-2.56440
G01 X-3.20417 Y-2.56892
G01 X-3.20626 Y-2.57335
G01 X-3.20872 Y-2.57748
G01 X-3.21197 Y-2.58180
G01 X-3.21530 Y-2.58541
G01 X-3.21845 Y-2.58825
G01 X-3.22211 Y-2.59099
G01 X-3.22664 Y-2.59374
G01 X-3.23108 Y-2.59583
G01 X-3.23560 Y-2.59745
G01 X-3.24084 Y-2.59872
G01 X-3.24510 Y-2.59934
G01 X-3.24993 Y-2.59958
G01 X-3.25353 Y-2.59946
G01 X-3.25678 Y-2.59911
G01 X-3.26075 Y-2.59841
G01 X-3.26417 Y-2.59752
G01 X-3.26752 Y-2.59639
G01 X-3.27087 Y-2.59498
G01 X-3.27403 Y-2.59337
G01 X-3.27715 Y-2.59149
G01 X-3.28004 Y-2.58945
G01 X-3.28314 Y-2.58688
G01 X-3.28550 Y-2.58462
G01 X-3.28764 Y-2.58228
G01 X-3.29013 Y-2.57913
G01 X-3.29223 Y-2.57599
G01 X-3.29187 Y-2.57530
G01 X-3.29223 Y-2.57599
G01 X-3.60779 Y-2.57599
G01 X-3.60817 Y-2.57526
G01 X-3.60779 Y-2.57599
G01 X-3.61016 Y-2.57952
G01 X-3.61286 Y-2.58286
G01 X-3.61556 Y-2.58568
G01 X-3.61839 Y-2.58820
G01 X-3.62149 Y-2.59057
G01 X-3.62477 Y-2.59268
G01 X-3.62775 Y-2.59431
G01 X-3.63166 Y-2.59607
G01 X-3.63486 Y-2.59721
G01 X-3.63940 Y-2.59843
G01 X-3.64283 Y-2.59906
G01 X-3.64661 Y-2.59947
G01 X-3.65050 Y-2.59958
G01 X-3.65444 Y-2.59939
G01 X-3.65891 Y-2.59878
G01 X-3.66344 Y-2.59773
G01 X-3.66775 Y-2.59630
G01 X-3.67190 Y-2.59449
G01 X-3.67588 Y-2.59230
G01 X-3.67963 Y-2.58976
G01 X-3.68314 Y-2.58688
G01 X-3.68637 Y-2.58370
G01 X-3.68958 Y-2.57986
G01 X-3.69190 Y-2.57652
G01 X-3.69415 Y-2.57258
G01 X-3.69619 Y-2.56800
G01 X-3.69755 Y-2.56405
G01 X-3.69854 Y-2.56010
G01 X-3.69936 Y-2.55469
G01 X-3.69958 Y-2.55061
G01 X-3.69943 Y-2.54623
G01 X-3.69876 Y-2.54097
G01 X-3.69813 Y-2.53827
G01 X-3.69747 Y-2.53804
G01 X-3.69813 Y-2.53827
G01 X-3.80716 Y-2.42923
G01 X-3.80696 Y-2.42876
G01 X-3.80716 Y-2.42923
G01 X-3.91878 Y-2.42923
G01 X-3.91999 Y-2.42855
G01 X-3.92499 Y-2.42667
G01 X-3.93110 Y-2.42585
G01 X-4.06890 Y-2.42585
G01 X-4.07429 Y-2.42650
G01 X-4.08001 Y-2.42855
G01 X-4.08558 Y-2.43194
G01 X-4.08972 Y-2.43553
G01 X-4.14023 Y-2.43553
G01 X-4.14043 Y-2.43505
G01 X-4.14023 Y-2.43553
G01 X-4.24497 Y-2.54028
G01 X-4.24571 Y-2.54004
G01 X-4.24497 Y-2.54028
G01 X-4.24487 Y-2.54082
G01 X-4.24477 Y-2.54152
G01 X-4.24540 Y-2.54198
G01 X-4.24477 Y-2.54152
G01 X-4.01048 Y-2.65866
G01 X-4.01052 Y-2.65883
G01 X-4.01048 Y-2.65866
G01 X-3.93110 Y-2.65866
G01 X-3.92908 Y-2.65879
G01 X-3.92669 Y-2.65926
G01 X-3.92403 Y-2.66025
G01 X-3.92191 Y-2.66145
G01 X-3.92000 Y-2.66295
G01 X-3.91806 Y-2.66503
G01 X-3.91671 Y-2.66705
G01 X-3.91567 Y-2.66925
G01 X-3.91497 Y-2.67158
G01 X-3.91469 Y-2.67318
G01 X-3.91456 Y-2.67520
G01 X-3.91457 Y-2.81340
G01 X-3.91488 Y-2.81623
G01 X-3.91567 Y-2.81895
G01 X-3.91671 Y-2.82115
G01 X-3.91832 Y-2.82349
G01 X-3.92093 Y-2.82604
G01 X-3.92367 Y-2.82777
G01 X-3.92669 Y-2.82894
G01 X-3.93029 Y-2.82951
G01 X-4.06273 Y-2.82953
G01 X-4.06756 Y-2.82753
G01 X-4.07285 Y-2.82475
G01 X-4.07716 Y-2.82125
G01 X-4.08065 Y-2.81695
G01 X-4.08343 Y-2.81166
G01 X-4.08544 Y-2.80683
G01 X-4.08343 Y-2.81166
G01 X-4.08065 Y-2.81695
G01 X-4.07716 Y-2.82125
G01 X-4.07285 Y-2.82475
G01 X-4.06756 Y-2.82753
G01 X-4.04752 Y-2.83583
G01 X-3.92949 Y-2.83578
G01 X-3.92749 Y-2.83555
G01 X-3.92512 Y-2.83504
G01 X-3.92283 Y-2.83428
G01 X-3.92062 Y-2.83329
G01 X-3.91854 Y-2.83207
G01 X-3.91659 Y-2.83064
G01 X-3.91481 Y-2.82900
G01 X-3.91321 Y-2.82719
G01 X-3.91119 Y-2.82418
G01 X-3.90954 Y-2.82051
G01 X-3.90855 Y-2.81661
G01 X-3.90827 Y-2.81300
G01 X-3.90827 Y-2.70969
G01 X-3.90918 Y-2.70710
G01 X-3.91064 Y-2.69529
G01 X-3.91065 Y-2.67540
G01 X-3.91205 Y-2.66416
G01 X-3.91326 Y-2.66095
G01 X-3.91539 Y-2.65863
G01 X-3.91787 Y-2.65659
G01 X-3.92027 Y-2.65510
G01 X-3.92283 Y-2.65392
G01 X-3.92551 Y-2.65306
G01 X-3.92829 Y-2.65254
G01 X-3.93110 Y-2.65237
G01 X-4.00899 Y-2.65237
G01 X-4.00903 Y-2.65253
G01 X-4.00899 Y-2.65237
G01 X-4.23510 Y-2.53931
G01 X-4.23951 Y-2.54003
G01 X-4.23510 Y-2.53931
G01 X-4.13762 Y-2.44183
G01 X-4.13782 Y-2.44135
G01 X-4.13762 Y-2.44183
G01 X-4.09619 Y-2.44183
G01 X-4.09113 Y-2.43677
G01 X-4.08597 Y-2.43225
G01 X-4.08057 Y-2.42883
G01 X-4.07501 Y-2.42667
G01 X-4.06890 Y-2.42585
G01 X-3.93110 Y-2.42585
G01 X-3.92499 Y-2.42667
G01 X-3.91943 Y-2.42883
G01 X-3.91403 Y-2.43225
G01 X-3.90887 Y-2.43677
G01 X-3.90381 Y-2.44183
G01 X-3.81238 Y-2.44183
G01 X-3.81218 Y-2.44135
G01 X-3.81238 Y-2.44183
G01 X-3.71169 Y-2.54252
G01 X-3.71114 Y-2.54230
G01 X-3.71169 Y-2.54252
G01 X-3.71183 Y-2.54354
G01 X-3.71218 Y-2.55053
G01 X-3.71187 Y-2.55626
G01 X-3.71095 Y-2.56230
G01 X-3.70957 Y-2.56783
G01 X-3.70764 Y-2.57332
G01 X-3.70527 Y-2.57850
G01 X-3.70226 Y-2.58370
G01 X-3.69302 Y-2.59072
G01 X-3.67993 Y-2.60163
G01 X-3.67532 Y-2.60503
G01 X-3.66907 Y-2.60915
G01 X-3.66664 Y-2.60992
G01 X-3.66180 Y-2.61105
G01 X-3.65618 Y-2.61187
G01 X-3.64973 Y-2.61217
G01 X-3.64575 Y-2.61204
G01 X-3.64101 Y-2.61153
G01 X-3.63621 Y-2.61063
G01 X-3.63234 Y-2.60961
G01 X-3.62618 Y-2.60743
G01 X-3.62254 Y-2.60580
G01 X-3.61835 Y-2.60353
G01 X-3.61425 Y-2.60088
G01 X-3.61071 Y-2.59819
G01 X-3.60681 Y-2.59474
G01 X-3.60373 Y-2.59154
G01 X-3.60126 Y-2.58858
G01 X-3.60150 Y-2.58804
G01 X-3.60126 Y-2.58858
G01 X-3.29873 Y-2.58858
G01 X-3.29848 Y-2.58802
G01 X-3.29873 Y-2.58858
G01 X-3.29480 Y-2.59312
G01 X-3.29152 Y-2.59629
G01 X-3.28833 Y-2.59896
G01 X-3.28334 Y-2.60248
G01 X-3.27978 Y-2.60459
G01 X-3.27542 Y-2.60674
G01 X-3.27197 Y-2.60817
G01 X-3.26777 Y-2.60959
G01 X-3.26347 Y-2.61071
G01 X-3.25939 Y-2.61147
G01 X-3.25444 Y-2.61203
G01 X-3.25042 Y-2.61218
G01 X-3.24312 Y-2.61179
G01 X-3.23789 Y-2.61099
G01 X-3.23194 Y-2.60950
G01 X-3.22626 Y-2.60747
G01 X-3.22138 Y-2.60520
G01 X-3.21585 Y-2.60197
G01 X-3.21149 Y-2.59880
G01 X-3.20974 Y-2.59737
G01 X-3.20525 Y-2.59315
G01 X-3.20189 Y-2.58940
G01 X-3.19824 Y-2.58446
G01 X-3.19514 Y-2.57928
G01 X-3.19252 Y-2.57374
G01 X-3.19049 Y-2.56806
G01 X-3.18908 Y-2.56247
G01 X-3.18816 Y-2.55651
G01 X-3.18784 Y-2.55113
G01 X-3.20672 Y-2.55019
G01 X-3.20695 Y-2.55447
G01 X-3.20758 Y-2.55861
G01 X-3.20864 Y-2.56276
G01 X-3.21007 Y-2.56669
G01 X-3.21191 Y-2.57056
G01 X-3.21407 Y-2.57414
G01 X-3.21639 Y-2.57728
G01 X-3.21926 Y-2.58047
G01 X-3.22272 Y-2.58361
G01 X-3.22618 Y-2.58614
G01 X-3.22978 Y-2.58827
G01 X-3.23366 Y-2.59008
G01 X-3.23761 Y-2.59147
G01 X-3.24177 Y-2.59249
G01 X-3.24591 Y-2.59309
G01 X-3.24980 Y-2.59328
G01 X-3.25294 Y-2.59318
G01 X-3.25610 Y-2.59285
G01 X-3.25924 Y-2.59228
G01 X-3.26223 Y-2.59152
G01 X-3.26515 Y-2.59055
G01 X-3.26809 Y-2.58932
G01 X-3.27085 Y-2.58793
G01 X-3.27358 Y-2.58630
G01 X-3.27633 Y-2.58435
G01 X-3.27879 Y-2.58232
G01 X-3.28109 Y-2.58012
G01 X-3.28316 Y-2.57782
G01 X-3.28511 Y-2.57531
G01 X-3.28682 Y-2.57275
G01 X-3.28853 Y-2.56969
G01 X-3.61147 Y-2.56969
G01 X-3.61362 Y-2.57346
G01 X-3.61552 Y-2.57617
G01 X-3.61769 Y-2.57880
G01 X-3.62005 Y-2.58125
G01 X-3.62252 Y-2.58344
G01 X-3.62524 Y-2.58550
G01 X-3.62811 Y-2.58734
G01 X-3.63102 Y-2.58890
G01 X-3.63414 Y-2.59027
G01 X-3.63725 Y-2.59137
G01 X-3.64055 Y-2.59224
G01 X-3.64390 Y-2.59285
G01 X-3.64719 Y-2.59319
G01 X-3.65060 Y-2.59328
G01 X-3.65402 Y-2.59309
G01 X-3.65795 Y-2.59255
G01 X-3.66191 Y-2.59161
G01 X-3.66566 Y-2.59035
G01 X-3.66928 Y-2.58875
G01 X-3.67274 Y-2.58683
G01 X-3.67601 Y-2.58460
G01 X-3.67906 Y-2.58207
G01 X-3.68187 Y-2.57928
G01 X-3.68419 Y-2.57653
G01 X-3.68648 Y-2.57330
G01 X-3.68862 Y-2.56955
G01 X-3.69011 Y-2.56627
G01 X-3.69146 Y-2.56244
G01 X-3.69242 Y-2.55859
G01 X-3.69307 Y-2.55432
G01 X-3.69328 Y-2.55036
G01 X-3.69314 Y-2.54646
G01 X-3.69252 Y-2.54193
G01 X-3.69163 Y-2.53814
G01 X-3.69106 Y-2.53643
G01 X-3.80455 Y-2.42294
G01 X-4.14545 Y-2.42294
G01 X-4.25895 Y-2.53644
G01 X-4.25825 Y-2.53857
G01 X-4.25727 Y-2.54309
G01 X-4.25680 Y-2.54737
G01 X-4.25677 Y-2.54960
G01 X-4.01345 Y-2.67126
G01 X-3.93110 Y-2.67126
G01 X-3.92988 Y-2.67145
G01 X-3.92878 Y-2.67201
G01 X-3.92791 Y-2.67288
G01 X-3.92725 Y-2.67438
G01 X-3.92716 Y-2.81300
G01 X-3.92735 Y-2.81422
G01 X-3.92817 Y-2.81563
G01 X-3.92950 Y-2.81660
G01 X-3.93110 Y-2.81694
G01 X-4.06890 Y-2.81694
G01 X-4.07050 Y-2.81660
G01 X-4.07182 Y-2.81563
G01 X-4.07250 Y-2.81460
G01 X-4.07284 Y-2.81300
G01 X-4.07284 Y-2.68559
G01 X-4.27439 Y-2.58482
G01 X-4.27649 Y-2.58634
G01 X-4.28089 Y-2.58883
G01 X-4.28555 Y-2.59080
G01 X-4.29030 Y-2.59218
G01 X-4.29528 Y-2.59302
G01 X-4.30023 Y-2.59328
G01 X-4.30517 Y-2.59297
G01 X-4.31014 Y-2.59208
G01 X-4.31488 Y-2.59064
G01 X-4.31911 Y-2.58883
G01 X-4.32351 Y-2.58634
G01 X-4.32751 Y-2.58342
G01 X-4.33114 Y-2.58006
G01 X-4.33443 Y-2.57622
G01 X-4.33725 Y-2.57203
G01 X-4.33847 Y-2.56969
G01 X-4.66147 Y-2.56969
G01 X-4.66357 Y-2.57337
G01 X-4.66545 Y-2.57607
G01 X-4.66754 Y-2.57863
G01 X-4.66981 Y-2.58102
G01 X-4.67226 Y-2.58323
G01 X-4.67488 Y-2.58525
G01 X-4.67763 Y-2.58706
G01 X-4.68052 Y-2.58865
G01 X-4.68352 Y-2.59002
G01 X-4.68662 Y-2.59116
G01 X-4.68980 Y-2.59206
G01 X-4.69303 Y-2.59272
G01 X-4.69631 Y-2.59313
G01 X-4.69971 Y-2.59328
G01 X-4.70304 Y-2.59318
G01 X-4.70708 Y-2.59270
G01 X-4.71070 Y-2.59194
G01 X-4.71460 Y-2.59075
G01 X-4.71869 Y-2.58904
G01 X-4.72227 Y-2.58711
G01 X-4.72566 Y-2.58486
G01 X-4.72854 Y-2.58254
G01 X-4.73147 Y-2.57971
G01 X-4.73435 Y-2.57633
G01 X-4.73667 Y-2.57299
G01 X-4.73850 Y-2.56977
G01 X-4.74019 Y-2.56607
G01 X-4.74152 Y-2.56223
G01 X-4.74248 Y-2.55827
G01 X-4.74311 Y-2.55388
G01 X-4.74328 Y-2.54981
G01 X-4.74310 Y-2.54602
G01 X-4.74251 Y-2.54188
G01 X-4.74156 Y-2.53792
G01 X-4.74006 Y-2.53362
G01 X-4.73852 Y-2.53026
G01 X-4.73644 Y-2.52664
G01 X-4.73378 Y-2.52294
G01 X-4.73128 Y-2.52008
G01 X-4.72825 Y-2.51720
G01 X-4.72473 Y-2.51448
G01 X-4.72152 Y-2.51245
G01 X-4.71789 Y-2.51059
G01 X-4.71365 Y-2.50893
G01 X-4.70963 Y-2.50780
G01 X-4.70600 Y-2.50713
G01 X-4.70150 Y-2.50674
G01 X-4.69850 Y-2.50674
G01 X-4.69531 Y-2.50697
G01 X-4.69216 Y-2.50743
G01 X-4.68894 Y-2.50815
G01 X-4.68588 Y-2.50908
G01 X-4.68291 Y-2.51023
G01 X-4.68003 Y-2.51160
G01 X-4.67716 Y-2.51323
G01 X-4.67443 Y-2.51507
G01 X-4.67192 Y-2.51706
G01 X-4.66936 Y-2.51942
G01 X-4.66732 Y-2.52162
G01 X-4.66525 Y-2.52419
G01 X-4.66344 Y-2.52682
G01 X-4.66147 Y-2.53031
G01 X-4.33850 Y-2.53031
G01 X-4.33772 Y-2.52877
G01 X-4.33549 Y-2.52523
G01 X-4.33294 Y-2.52192
G01 X-4.33008 Y-2.51887
G01 X-4.32723 Y-2.51636
G01 X-4.32386 Y-2.51389
G01 X-4.32027 Y-2.51175
G01 X-4.31658 Y-2.51002
G01 X-4.31265 Y-2.50861
G01 X-4.30860 Y-2.50758
G01 X-4.30447 Y-2.50695
G01 X-4.30040 Y-2.50672
G01 X-4.29623 Y-2.50688
G01 X-4.29209 Y-2.50745
G01 X-4.28803 Y-2.50841
G01 X-4.28643 Y-2.50894
G01 X-4.16724 Y-2.38975
G01 X-4.16397 Y-2.38714
G01 X-4.16094 Y-2.38554
G01 X-4.15766 Y-2.38453
G01 X-4.15350 Y-2.38406
G01 X-3.79650 Y-2.38406
G01 X-3.79271 Y-2.38443
G01 X-3.78906 Y-2.38554
G01 X-3.78570 Y-2.38734
G01 X-3.78275 Y-2.38975
G01 X-3.66357 Y-2.50894
G01 X-3.66197 Y-2.50841
G01 X-3.65791 Y-2.50745
G01 X-3.65376 Y-2.50688
G01 X-3.64959 Y-2.50672
G01 X-3.64553 Y-2.50695
G01 X-3.64140 Y-2.50758
G01 X-3.63734 Y-2.50861
G01 X-3.63342 Y-2.51002
G01 X-3.62973 Y-2.51175
G01 X-3.62614 Y-2.51389
G01 X-3.62277 Y-2.51636
G01 X-3.61992 Y-2.51887
G01 X-3.61706 Y-2.52192
G01 X-3.61451 Y-2.52523
G01 X-3.61228 Y-2.52877
G01 X-3.61150 Y-2.53031
G01 X-3.28853 Y-2.53031
G01 X-3.28655 Y-2.52682
G01 X-3.28475 Y-2.52419
G01 X-3.28268 Y-2.52162
G01 X-3.28064 Y-2.51942
G01 X-3.27808 Y-2.51706
G01 X-3.27557 Y-2.51507
G01 X-3.27283 Y-2.51323
G01 X-3.26997 Y-2.51160
G01 X-3.26709 Y-2.51023
G01 X-3.26411 Y-2.50908
G01 X-3.26106 Y-2.50815
G01 X-3.25784 Y-2.50743
G01 X-3.25469 Y-2.50697
G01 X-3.25150 Y-2.50674
G01 X-3.24816 Y-2.50676
G01 X-3.24400 Y-2.50713
G01 X-3.24000 Y-2.50789
G01 X-3.23598 Y-2.50905
G01 X-3.23211 Y-2.51059
G01 X-3.22848 Y-2.51245
G01 X-3.22496 Y-2.51469
G01 X-3.22175 Y-2.51720
G01 X-3.21872 Y-2.52008
G01 X-3.21598 Y-2.52324
G01 X-3.21356 Y-2.52664
G01 X-3.21148 Y-2.53026
G01 X-3.20980 Y-2.53397
G01 X-3.20844 Y-2.53792
G01 X-3.20749 Y-2.54188
G01 X-3.20690 Y-2.54602
G01 X-3.20672 Y-2.55019
G04 P0 ( dwell for no time -- G64 should not smooth over this point )
G00 Z0.08000 ( retract )

G00 X-3.45240 Y-2.84838 ( rapid move to begin. )
G01 F180.00000
( Mill infeed pass 1/1 )
G01 Z-0.04000
G04 P0 ( dwell for no time -- G64 should not smooth over this point )
G01 F360.00000
G01 X-3.45240 Y-2.84838
G01 X-3.45283 Y-2.84074
G01 X-3.45327 Y-2.83697
G01 X-3.45459 Y-2.82954
G01 X-3.45706 Y-2.82482
G01 X-3.46013 Y-2.82036
G01 X-3.46375 Y-2.81620
G01 X-3.46786 Y-2.81245
G01 X-3.47483 Y-2.81032
G01 X-3.47983 Y-2.80913
G01 X-3.48456 Y-2.80827
G01 X-3.48932 Y-2.80765
G01 X-3.49404 Y-2.80729
G01 X-3.50063 Y-2.80721
G01 X-3.50534 Y-2.80746
G01 X-3.51010 Y-2.80795
G01 X-3.51488 Y-2.80871
G01 X-3.51969 Y-2.80973
G01 X-3.52472 Y-2.81108
G01 X-3.52896 Y-2.81245
G01 X-3.53292 Y-2.81601
G01 X-3.53618 Y-2.81969
G01 X-3.53777 Y-2.82181
G01 X-3.54054 Y-2.82610
G01 X-3.54277 Y-2.83059
G01 X-3.54359 Y-2.83256
G01 X-3.54529 Y-2.83783
G01 X-3.54636 Y-2.84316
G01 X-3.54645 Y-2.84381
G01 X-3.54621 Y-2.84394
G01 X-3.54645 Y-2.84381
G01 X-3.60737 Y-2.90474
G01 X-3.60724 Y-2.90684
G01 X-3.60737 Y-2.90474
G01 X-3.61255 Y-2.90036
G01 X-3.61630 Y-2.89774
G01 X-3.62048 Y-2.89527
G01 X-3.62697 Y-2.89225
G01 X-3.63379 Y-2.88999
G01 X-3.63649 Y-2.88933
G01 X-3.64277 Y-2.88824
G01 X-3.65038 Y-2.88782
G01 X-3.65444 Y-2.88797
G01 X-3.65814 Y-2.88836
G01 X-3.66347 Y-2.88929
G01 X-3.66778 Y-2.89041
G01 X-3.67171 Y-2.89173
G01 X-3.67708 Y-2.89403
G01 X-3.68039 Y-2.89575
G01 X-3.68420 Y-2.89806
G01 X-3.68792 Y-2.90071
G01 X-3.69081 Y-2.90309
G01 X-3.69445 Y-2.90651
G01 X-3.69745 Y-2.90980
G01 X-3.69893 Y-2.91167
G01 X-3.69867 Y-2.91223
G01 X-3.69893 Y-2.91167
G01 X-3.97992 Y-2.91167
G01 X-3.98012 Y-2.91214
G01 X-3.97992 Y-2.91167
G01 X-4.04993 Y-2.84165
G01 X-4.07037 Y-2.83318
G01 X-4.07608 Y-2.83021
G01 X-4.08141 Y-2.82596
G01 X-4.08612 Y-2.82019
G01 X-4.08907 Y-2.81447
G01 X-4.09755 Y-2.79403
G01 X-4.13115 Y-2.76054
G01 X-4.13576 Y-2.75692
G01 X-4.14055 Y-2.75426
G01 X-4.14355 Y-2.75299
G01 X-4.14841 Y-2.75153
G01 X-4.15122 Y-2.75102
G01 X-4.15689 Y-2.75057
G01 X-4.64969 Y-2.75057
G01 X-4.65495 Y-2.75098
G01 X-4.65895 Y-2.75174
G01 X-4.66302 Y-2.75299
G01 X-4.66566 Y-2.75408
G01 X-4.67115 Y-2.75715
G01 X-4.67626 Y-2.76128
G01 X-4.80196 Y-2.88696
G01 X-4.80539 Y-2.89097
G01 X-4.80684 Y-2.89294
G01 X-4.80968 Y-2.89810
G01 X-4.81090 Y-2.90112
G01 X-4.81249 Y-2.90679
G01 X-4.81313 Y-2.91258
G01 X-4.81318 Y-2.98593
G01 X-4.81273 Y-2.99159
G01 X-4.81190 Y-2.99558
G01 X-4.81064 Y-2.99965
G01 X-4.80968 Y-3.00190
G01 X-4.80661 Y-3.00739
G01 X-4.80222 Y-3.01277
G01 X-4.61662 Y-3.19836
G01 X-4.61198 Y-3.20230
G01 X-4.60889 Y-3.20429
G01 X-4.60549 Y-3.20609
G01 X-4.60285 Y-3.20718
G01 X-4.59720 Y-3.20882
G01 X-4.59101 Y-3.20954
G01 X-4.56072 Y-3.20959
G01 X-4.55615 Y-3.20780
G01 X-4.55469 Y-3.20738
G01 X-4.53221 Y-3.20748
G01 X-4.53671 Y-3.20591
G01 X-4.53993 Y-3.20434
G01 X-4.54330 Y-3.20222
G01 X-4.54733 Y-3.19899
G01 X-4.54928 Y-3.19699
G01 X-4.54912 Y-3.19658
G01 X-4.54928 Y-3.19699
G01 X-4.59052 Y-3.19694
G01 X-4.59474 Y-3.19646
G01 X-4.59880 Y-3.19525
G01 X-4.60295 Y-3.19317
G01 X-4.60462 Y-3.19206
G01 X-4.60772 Y-3.18946
G01 X-4.79305 Y-3.00413
G01 X-4.79590 Y-3.00072
G01 X-4.79676 Y-2.99936
G01 X-4.79870 Y-2.99559
G01 X-4.79985 Y-2.99192
G01 X-4.80019 Y-2.99035
G01 X-4.80059 Y-2.98593
G01 X-4.80058 Y-2.91374
G01 X-4.80013 Y-2.90925
G01 X-4.79896 Y-2.90517
G01 X-4.79838 Y-2.90367
G01 X-4.79636 Y-2.89994
G01 X-4.79305 Y-2.89587
G01 X-4.66789 Y-2.77071
G01 X-4.66382 Y-2.76740
G01 X-4.65897 Y-2.76492
G01 X-4.65451 Y-2.76363
G01 X-4.64969 Y-2.76317
G01 X-4.15689 Y-2.76317
G01 X-4.15167 Y-2.76371
G01 X-4.14723 Y-2.76506
G01 X-4.14345 Y-2.76699
G01 X-4.14210 Y-2.76786
G01 X-4.13869 Y-2.77071
G01 X-3.98514 Y-2.92426
G01 X-3.98534 Y-2.92474
G01 X-3.98514 Y-2.92426
G01 X-3.69238 Y-2.92426
G01 X-3.69206 Y-2.92490
G01 X-3.69238 Y-2.92426
G01 X-3.69048 Y-2.92138
G01 X-3.68804 Y-2.91819
G01 X-3.68568 Y-2.91556
G01 X-3.68305 Y-2.91303
G01 X-3.68024 Y-2.91070
G01 X-3.67726 Y-2.90858
G01 X-3.67424 Y-2.90674
G01 X-3.67099 Y-2.90508
G01 X-3.66763 Y-2.90365
G01 X-3.66417 Y-2.90248
G01 X-3.66111 Y-2.90168
G01 X-3.65678 Y-2.90089
G01 X-3.65353 Y-2.90054
G01 X-3.64988 Y-2.90041
G01 X-3.64388 Y-2.90079
G01 X-3.63754 Y-2.90202
G01 X-3.63179 Y-2.90389
G01 X-3.62710 Y-2.90602
G01 X-3.62326 Y-2.90824
G01 X-3.61976 Y-2.91070
G01 X-3.61649 Y-2.91345
G01 X-3.61354 Y-2.91639
G01 X-3.61112 Y-2.91923
G01 X-3.60818 Y-2.92336
G01 X-3.60832 Y-2.92639
G01 X-3.60818 Y-2.92336
G01 X-3.53423 Y-2.84941
G01 X-3.53392 Y-2.84956
G01 X-3.53423 Y-2.84941
G01 X-3.53398 Y-2.84562
G01 X-3.53312 Y-2.84106
G01 X-3.53163 Y-2.83656
G01 X-3.52962 Y-2.83238
G01 X-3.52702 Y-2.82842
G01 X-3.52390 Y-2.82482
G01 X-3.52038 Y-2.82169
G01 X-3.51730 Y-2.81955
G01 X-3.51401 Y-2.81774
G01 X-3.51063 Y-2.81632
G01 X-3.50703 Y-2.81522
G01 X-3.50332 Y-2.81451
G01 X-3.49920 Y-2.81418
G01 X-3.49554 Y-2.81429
G01 X-3.49180 Y-2.81479
G01 X-3.48814 Y-2.81568
G01 X-3.48470 Y-2.81691
G01 X-3.48129 Y-2.81854
G01 X-3.47808 Y-2.82051
G01 X-3.47492 Y-2.82298
G01 X-3.47244 Y-2.82533
G01 X-3.46978 Y-2.82850
G01 X-3.46775 Y-2.83149
G01 X-3.46518 Y-2.83666
G01 X-3.46356 Y-2.84174
G01 X-3.46269 Y-2.84741
G01 X-3.46274 Y-2.85315
G01 X-3.46370 Y-2.85880
G01 X-3.46555 Y-2.86423
G01 X-3.46824 Y-2.86930
G01 X-3.47164 Y-2.87379
G01 X-3.47495 Y-2.87706
G01 X-3.47805 Y-2.87947
G01 X-3.48151 Y-2.88157
G01 X-3.48624 Y-2.88369
G01 X-3.49000 Y-2.88482
G01 X-3.49427 Y-2.88558
G01 X-3.49782 Y-2.88579
G01 X-3.49798 Y-2.88546
G01 X-3.49782 Y-2.88579
G01 X-3.58023 Y-2.96820
G01 X-3.58396 Y-2.97128
G01 X-3.58876 Y-2.97385
G01 X-3.59400 Y-2.97534
G01 X-3.59809 Y-2.97573
G01 X-3.60762 Y-2.97574
G01 X-3.60796 Y-2.97509
G01 X-3.60762 Y-2.97574
G01 X-3.61149 Y-2.98123
G01 X-3.61631 Y-2.98638
G01 X-3.62211 Y-2.99100
G01 X-3.62789 Y-2.99438
G01 X-3.63475 Y-2.99718
G01 X-3.64124 Y-2.99880
G01 X-3.64825 Y-2.99955
G01 X-3.65189 Y-2.99954
G01 X-3.65592 Y-2.99923
G01 X-3.65926 Y-2.99871
G01 X-3.66357 Y-2.99769
G01 X-3.66680 Y-2.99666
G01 X-3.67019 Y-2.99529
G01 X-3.67348 Y-2.99368
G01 X-3.67640 Y-2.99197
G01 X-3.68013 Y-2.98937
G01 X-3.68267 Y-2.98730
G01 X-3.68559 Y-2.98452
G01 X-3.68779 Y-2.98210
G01 X-3.69027 Y-2.97892
G01 X-3.69234 Y-2.97580
G01 X-3.69202 Y-2.97516
G01 X-3.69234 Y-2.97580
G01 X-3.99580 Y-2.97574
G01 X-4.00062 Y-2.97528
G01 X-4.00509 Y-2.97399
G01 X-4.00993 Y-2.97151
G01 X-4.01400 Y-2.96820
G01 X-4.16755 Y-2.81465
G01 X-4.16735 Y-2.81417
G01 X-4.16755 Y-2.81465
G01 X-4.42920 Y-2.81465
G01 X-4.43447 Y-2.81324
G01 X-4.44031 Y-2.81210
G01 X-4.44480 Y-2.81157
G01 X-4.45217 Y-2.81125
G01 X-4.45787 Y-2.81154
G01 X-4.46374 Y-2.81225
G01 X-4.46983 Y-2.81352
G01 X-4.47386 Y-2.81465
G01 X-4.51209 Y-2.81465
G01 X-4.50733 Y-2.81766
G01 X-4.50233 Y-2.82204
G01 X-4.49831 Y-2.82605
G01 X-4.49251 Y-2.82259
G01 X-4.48521 Y-2.81891
G01 X-4.47837 Y-2.81611
G01 X-4.47386 Y-2.81465
G01 X-4.51209 Y-2.81465
G01 X-4.51330 Y-2.81396
G01 X-4.51829 Y-2.81203
G01 X-4.52441 Y-2.81124
G01 X-4.57559 Y-2.81123
G01 X-4.58375 Y-2.81262
G01 X-4.58747 Y-2.81465
G01 X-4.63903 Y-2.81465
G01 X-4.63922 Y-2.81417
G01 X-4.63903 Y-2.81465
G01 X-4.72412 Y-2.89973
G01 X-4.72950 Y-2.90374
G01 X-4.73357 Y-2.90716
G01 X-4.73850 Y-2.91177
G01 X-4.74313 Y-2.91677
G01 X-4.74845 Y-2.92330
G01 X-4.74950 Y-2.92515
G01 X-4.75074 Y-2.93112
G01 X-4.75157 Y-2.93632
G01 X-4.75226 Y-2.94312
G01 X-4.75249 Y-2.94952
G01 X-4.75230 Y-2.95620
G01 X-4.75176 Y-2.96216
G01 X-4.75059 Y-2.96966
G01 X-4.74925 Y-2.97546
G01 X-4.74943 Y-2.97555
G01 X-4.74925 Y-2.97546
G01 X-4.74435 Y-2.98182
G01 X-4.74031 Y-2.98634
G01 X-4.73708 Y-2.98960
G01 X-4.73138 Y-2.99471
G01 X-4.72762 Y-2.99772
G01 X-4.72417 Y-3.00021
G01 X-4.57886 Y-3.14552
G01 X-4.57906 Y-3.14600
G01 X-4.57886 Y-3.14552
G01 X-4.54928 Y-3.14552
G01 X-4.54911 Y-3.14595
G01 X-4.54928 Y-3.14552
G01 X-4.54808 Y-3.14425
G01 X-4.54474 Y-3.14134
G01 X-4.54139 Y-3.13903
G01 X-4.53748 Y-3.13694
G01 X-4.53370 Y-3.13544
G01 X-4.53013 Y-3.13443
G01 X-4.52612 Y-3.13373
G01 X-4.52207 Y-3.13347
G01 X-4.47812 Y-3.13347
G01 X-4.47351 Y-3.13378
G01 X-4.46883 Y-3.13468
G01 X-4.46385 Y-3.13636
G01 X-4.45957 Y-3.13846
G01 X-4.45527 Y-3.14135
G01 X-4.45199 Y-3.14417
G01 X-4.44854 Y-3.14805
G01 X-4.44703 Y-3.15017
G01 X-4.44601 Y-3.15402
G01 X-4.44462 Y-3.16136
G01 X-4.44399 Y-3.16860
G01 X-4.44396 Y-3.17304
G01 X-4.44414 Y-3.17663
G01 X-4.44505 Y-3.18388
G01 X-4.44579 Y-3.18756
G01 X-4.44706 Y-3.19242
G01 X-4.45041 Y-3.19670
G01 X-4.45264 Y-3.19897
G01 X-4.45507 Y-3.20103
G01 X-4.45840 Y-3.20336
G01 X-4.46275 Y-3.20568
G01 X-4.46759 Y-3.20747
G01 X-4.54680 Y-3.20746
G01 X-4.55130 Y-3.20390
G01 X-4.55194 Y-3.20329
G01 X-4.55181 Y-3.20293
G01 X-4.55194 Y-3.20329
G01 X-4.59114 Y-3.20321
G01 X-4.59577 Y-3.20268
G01 X-4.60064 Y-3.20128
G01 X-4.60288 Y-3.20035
G01 X-4.60698 Y-3.19812
G01 X-4.60862 Y-3.19693
G01 X-4.61217 Y-3.19391
G01 X-4.79750 Y-3.00858
G01 X-4.80149 Y-3.00373
G01 X-4.80429 Y-2.99856
G01 X-4.80619 Y-2.99257
G01 X-4.80688 Y-2.98633
G01 X-4.80688 Y-2.91366
G01 X-4.80646 Y-2.90902
G01 X-4.80588 Y-2.90625
G01 X-4.80445 Y-2.90181
G01 X-4.80192 Y-2.89696
G01 X-4.80077 Y-2.89529
G01 X-4.79750 Y-2.89142
G01 X-4.67234 Y-2.76626
G01 X-4.66748 Y-2.76227
G01 X-4.66232 Y-2.75947
G01 X-4.66042 Y-2.75876
G01 X-4.65594 Y-2.75749
G01 X-4.64969 Y-2.75687
G01 X-4.15689 Y-2.75687
G01 X-4.15224 Y-2.75725
G01 X-4.15024 Y-2.75757
G01 X-4.14577 Y-2.75889
G01 X-4.14316 Y-2.76001
G01 X-4.13876 Y-2.76250
G01 X-4.13453 Y-2.76597
G01 X-4.09125 Y-2.80924
G01 X-4.08907 Y-2.81447
G01 X-4.08608 Y-2.82016
G01 X-4.08184 Y-2.82548
G01 X-4.07606 Y-2.83018
G01 X-4.07037 Y-2.83318
G01 X-4.06514 Y-2.83535
G01 X-3.98253 Y-2.91796
G01 X-3.98273 Y-2.91844
G01 X-3.98253 Y-2.91796
G01 X-3.69578 Y-2.91796
G01 X-3.69553 Y-2.91852
G01 X-3.69578 Y-2.91796
G01 X-3.69300 Y-2.91431
G01 X-3.69034 Y-2.91133
G01 X-3.68769 Y-2.90875
G01 X-3.68359 Y-2.90534
G01 X-3.68056 Y-2.90321
G01 X-3.67714 Y-2.90115
G01 X-3.67384 Y-2.89946
G01 X-3.67043 Y-2.89799
G01 X-3.66540 Y-2.89629
G01 X-3.66191 Y-2.89540
G01 X-3.65787 Y-2.89467
G01 X-3.65379 Y-2.89424
G01 X-3.65019 Y-2.89412
G01 X-3.64353 Y-2.89449
G01 X-3.63683 Y-2.89569
G01 X-3.63032 Y-2.89770
G01 X-3.62406 Y-2.90050
G01 X-3.62006 Y-2.90281
G01 X-3.61650 Y-2.90528
G01 X-3.61206 Y-2.90896
G01 X-3.60907 Y-2.91195
G01 X-3.60750 Y-2.91377
G01 X-3.60747 Y-2.91629
G01 X-3.60750 Y-2.91377
G01 X-3.54037 Y-2.84664
G01 X-3.54008 Y-2.84678
G01 X-3.54037 Y-2.84664
G01 X-3.54017 Y-2.84438
G01 X-3.53897 Y-2.83861
G01 X-3.53729 Y-2.83376
G01 X-3.53464 Y-2.82850
G01 X-3.53175 Y-2.82423
G01 X-3.52804 Y-2.82004
G01 X-3.52393 Y-2.81648
G01 X-3.51970 Y-2.81366
G01 X-3.51617 Y-2.81180
G01 X-3.51218 Y-2.81019
G01 X-3.50834 Y-2.80906
G01 X-3.50353 Y-2.80819
G01 X-3.49955 Y-2.80789
G01 X-3.49481 Y-2.80803
G01 X-3.49042 Y-2.80864
G01 X-3.48572 Y-2.80985
G01 X-3.48208 Y-2.81118
G01 X-3.47808 Y-2.81311
G01 X-3.47433 Y-2.81545
G01 X-3.47061 Y-2.81838
G01 X-3.46772 Y-2.82116
G01 X-3.46460 Y-2.82491
G01 X-3.46214 Y-2.82863
G01 X-3.45930 Y-2.83440
G01 X-3.45739 Y-2.84047
G01 X-3.45640 Y-2.84714
G01 X-3.45648 Y-2.85389
G01 X-3.45755 Y-2.86017
G01 X-3.45969 Y-2.86656
G01 X-3.46264 Y-2.87221
G01 X-3.46665 Y-2.87765
G01 X-3.47049 Y-2.88153
G01 X-3.47554 Y-2.88534
G01 X-3.47936 Y-2.88756
G01 X-3.48331 Y-2.88931
G01 X-3.48934 Y-2.89113
G01 X-3.49398 Y-2.89189
G01 X-3.49508 Y-2.89196
G01 X-3.49523 Y-2.89168
G01 X-3.49508 Y-2.89196
G01 X-3.57577 Y-2.97265
G01 X-3.58063 Y-2.97664
G01 X-3.58616 Y-2.97960
G01 X-3.59218 Y-2.98142
G01 X-3.59843 Y-2.98204
G01 X-3.60433 Y-2.98204
G01 X-3.60464 Y-2.98146
G01 X-3.60433 Y-2.98204
G01 X-3.60661 Y-2.98522
G01 X-3.61262 Y-2.99154
G01 X-3.61890 Y-2.99642
G01 X-3.62474 Y-2.99984
G01 X-3.62652 Y-3.00068
G01 X-3.63281 Y-3.00318
G01 X-3.64014 Y-3.00501
G01 X-3.64771 Y-3.00583
G01 X-3.65195 Y-3.00584
G01 X-3.65728 Y-3.00540
G01 X-3.66106 Y-3.00478
G01 X-3.66469 Y-3.00392
G01 X-3.66951 Y-3.00236
G01 X-3.67294 Y-3.00096
G01 X-3.67664 Y-2.99912
G01 X-3.67995 Y-2.99718
G01 X-3.68311 Y-2.99501
G01 X-3.68727 Y-2.99163
G01 X-3.68996 Y-2.98907
G01 X-3.69273 Y-2.98602
G01 X-3.69573 Y-2.98210
G01 X-3.69548 Y-2.98155
G01 X-3.69573 Y-2.98210
G01 X-3.99580 Y-2.98204
G01 X-4.00165 Y-2.98149
G01 X-4.00730 Y-2.97989
G01 X-4.00953 Y-2.97890
G01 X-4.01360 Y-2.97664
G01 X-4.01845 Y-2.97265
G01 X-4.17016 Y-2.82094
G01 X-4.16996 Y-2.82046
G01 X-4.17016 Y-2.82094
G01 X-4.27530 Y-2.82094
G01 X-4.27870 Y-2.81972
G01 X-4.28543 Y-2.81783
G01 X-4.29215 Y-2.81668
G01 X-4.29846 Y-2.81622
G01 X-4.42459 Y-2.81618
G01 X-4.43129 Y-2.81404
G01 X-4.43894 Y-2.81234
G01 X-4.44471 Y-2.81158
G01 X-4.45217 Y-2.81127
G01 X-4.45787 Y-2.81154
G01 X-4.46361 Y-2.81225
G01 X-4.47180 Y-2.81403
G01 X-4.47603 Y-2.81530
G01 X-4.48237 Y-2.81767
G01 X-4.48942 Y-2.82094
G01 X-4.50358 Y-2.82094
G01 X-4.50774 Y-2.81736
G01 X-4.51330 Y-2.81396
G01 X-4.51902 Y-2.81191
G01 X-4.52441 Y-2.81126
G01 X-4.57559 Y-2.81126
G01 X-4.58372 Y-2.81269
G01 X-4.59058 Y-2.81630
G01 X-4.60155 Y-2.81634
G01 X-4.60784 Y-2.81678
G01 X-4.61438 Y-2.81794
G01 X-4.61757 Y-2.81872
G01 X-4.62432 Y-2.82094
G01 X-4.63642 Y-2.82094
G01 X-4.63662 Y-2.82046
G01 X-4.63642 Y-2.82094
G01 X-4.70387 Y-2.88840
G01 X-4.71079 Y-2.89169
G01 X-4.71751 Y-2.89542
G01 X-4.72369 Y-2.89942
G01 X-4.72941 Y-2.90368
G01 X-4.73472 Y-2.90819
G01 X-4.73954 Y-2.91287
G01 X-4.74414 Y-2.91794
G01 X-4.74848 Y-2.92340
G01 X-4.74925 Y-2.92458
G01 X-4.74944 Y-2.92517
G01 X-4.75074 Y-2.93112
G01 X-4.75157 Y-2.93632
G01 X-4.75226 Y-2.94312
G01 X-4.75249 Y-2.94952
G01 X-4.75230 Y-2.95620
G01 X-4.75175 Y-2.96225
G01 X-4.75059 Y-2.96966
G01 X-4.74925 Y-2.97546
G01 X-4.74532 Y-2.98065
G01 X-4.74024 Y-2.98640
G01 X-4.73701 Y-2.98966
G01 X-4.73253 Y-2.99374
G01 X-4.72770 Y-2.99766
G01 X-4.72245 Y-3.00142
G01 X-4.71691 Y-3.00493
G01 X-4.71094 Y-3.00824
G01 X-4.70386 Y-3.01161
G01 X-4.57625 Y-3.13922
G01 X-4.57645 Y-3.13970
G01 X-4.57625 Y-3.13922
G01 X-4.55195 Y-3.13922
G01 X-4.55183 Y-3.13956
G01 X-4.55195 Y-3.13922
G01 X-4.54806 Y-3.13595
G01 X-4.54450 Y-3.13354
G01 X-4.53991 Y-3.13112
G01 X-4.53591 Y-3.12953
G01 X-4.53134 Y-3.12824
G01 X-4.52665 Y-3.12745
G01 X-4.52225 Y-3.12717
G01 X-4.47812 Y-3.12717
G01 X-4.47266 Y-3.12753
G01 X-4.46720 Y-3.12860
G01 X-4.46186 Y-3.13036
G01 X-4.45684 Y-3.13276
G01 X-4.45295 Y-3.13524
G01 X-4.45008 Y-3.14152
G01 X-4.44815 Y-3.14666
G01 X-4.44601 Y-3.15402
G01 X-4.44462 Y-3.16136
G01 X-4.44399 Y-3.16860
G01 X-4.44408 Y-3.17570
G01 X-4.44488 Y-3.18286
G01 X-4.44579 Y-3.18756
G01 X-4.44752 Y-3.19396
G01 X-4.44888 Y-3.19793
G01 X-4.45049 Y-3.20199
G01 X-4.45293 Y-3.20726
G01 X-4.45326 Y-3.20748
G01 X-4.46957 Y-3.20747
G01 X-4.45304 Y-3.20748
G01 X-4.45049 Y-3.20199
G01 X-4.44888 Y-3.19793
G01 X-4.44674 Y-3.19134
G01 X-4.44555 Y-3.18649
G01 X-4.44488 Y-3.18286
G01 X-4.44414 Y-3.17663
G01 X-4.44395 Y-3.17212
G01 X-4.44414 Y-3.16594
G01 X-4.44462 Y-3.16136
G01 X-4.44575 Y-3.15512
G01 X-4.44707 Y-3.15004
G01 X-4.44877 Y-3.14490
G01 X-4.45094 Y-3.13950
G01 X-4.45370 Y-3.13375
G01 X-4.45553 Y-3.13037
G01 X-4.45893 Y-3.12476
G01 X-4.46438 Y-3.12285
G01 X-4.46638 Y-3.12232
G01 X-4.47181 Y-3.12129
G01 X-4.47690 Y-3.12090
G01 X-4.52177 Y-3.12087
G01 X-4.52654 Y-3.12111
G01 X-4.53352 Y-3.12229
G01 X-4.53794 Y-3.12357
G01 X-4.54260 Y-3.12543
G01 X-4.54705 Y-3.12774
G01 X-4.54880 Y-3.12882
G01 X-4.55288 Y-3.13172
G01 X-4.55430 Y-3.13292
G01 X-4.55420 Y-3.13324
G01 X-4.55430 Y-3.13292
G01 X-4.57364 Y-3.13292
G01 X-4.57384 Y-3.13340
G01 X-4.57364 Y-3.13292
G01 X-4.68961 Y-3.01695
G01 X-4.69763 Y-3.01417
G01 X-4.70235 Y-3.01227
G01 X-4.70899 Y-3.00922
G01 X-4.71531 Y-3.00586
G01 X-4.72253 Y-3.00137
G01 X-4.72762 Y-2.99772
G01 X-4.73131 Y-2.99477
G01 X-4.73701 Y-2.98966
G01 X-4.74124 Y-2.98534
G01 X-4.74435 Y-2.98182
G01 X-4.74925 Y-2.97546
G01 X-4.75059 Y-2.96966
G01 X-4.75176 Y-2.96216
G01 X-4.75230 Y-2.95620
G01 X-4.75248 Y-2.95101
G01 X-4.75234 Y-2.94453
G01 X-4.75158 Y-2.93642
G01 X-4.75042 Y-2.92948
G01 X-4.74925 Y-2.92458
G01 X-4.74743 Y-2.92200
G01 X-4.74306 Y-2.91669
G01 X-4.73954 Y-2.91287
G01 X-4.73479 Y-2.90826
G01 X-4.72941 Y-2.90368
G01 X-4.72369 Y-2.89942
G01 X-4.71751 Y-2.89543
G01 X-4.71079 Y-2.89169
G01 X-4.70342 Y-2.88819
G01 X-4.69452 Y-2.88468
G01 X-4.63521 Y-2.82545
G01 X-4.63528 Y-2.82535
G01 X-4.63521 Y-2.82545
G01 X-4.62651 Y-2.82178
G01 X-4.62137 Y-2.81989
G01 X-4.61453 Y-2.81797
G01 X-4.61103 Y-2.81727
G01 X-4.60467 Y-2.81649
G01 X-4.60008 Y-2.81630
G01 X-4.59058 Y-2.81630
G01 X-4.58372 Y-2.81269
G01 X-4.57614 Y-2.81131
G01 X-4.52441 Y-2.81126
G01 X-4.51830 Y-2.81208
G01 X-4.51274 Y-2.81424
G01 X-4.50733 Y-2.81766
G01 X-4.50233 Y-2.82204
G01 X-4.49831 Y-2.82605
G01 X-4.49261 Y-2.82265
G01 X-4.48921 Y-2.82083
G01 X-4.48249 Y-2.81772
G01 X-4.47603 Y-2.81530
G01 X-4.46983 Y-2.81352
G01 X-4.46373 Y-2.81227
G01 X-4.45787 Y-2.81154
G01 X-4.45217 Y-2.81127
G01 X-4.44471 Y-2.81158
G01 X-4.43894 Y-2.81234
G01 X-4.43129 Y-2.81404
G01 X-4.42459 Y-2.81618
G01 X-4.30000 Y-2.81618
G01 X-4.29514 Y-2.81638
G01 X-4.28891 Y-2.81715
G01 X-4.28558 Y-2.81781
G01 X-4.27856 Y-2.81977
G01 X-4.27122 Y-2.82263
G01 X-4.26800 Y-2.82417
G01 X-4.26237 Y-2.82724
G01 X-4.17277 Y-2.82724
G01 X-4.17257 Y-2.82676
G01 X-4.17277 Y-2.82724
G01 X-4.02264 Y-2.97737
G01 X-4.01890 Y-2.98054
G01 X-4.01693 Y-2.98199
G01 X-4.01213 Y-2.98465
G01 X-4.00952 Y-2.98578
G01 X-4.00308 Y-2.98764
G01 X-3.99804 Y-2.98822
G01 X-3.99580 Y-2.98833
G01 X-3.69888 Y-2.98840
G01 X-3.69866 Y-2.98789
G01 X-3.69888 Y-2.98840
G01 X-3.69740 Y-2.99025
G01 X-3.69430 Y-2.99363
G01 X-3.69097 Y-2.99678
G01 X-3.68740 Y-2.99968
G01 X-3.68425 Y-3.00189
G01 X-3.67907 Y-3.00497
G01 X-3.67532 Y-3.00679
G01 X-3.67186 Y-3.00821
G01 X-3.66657 Y-3.00994
G01 X-3.66208 Y-3.01100
G01 X-3.65827 Y-3.01162
G01 X-3.65242 Y-3.01213
G01 X-3.64705 Y-3.01209
G01 X-3.63866 Y-3.01113
G01 X-3.63087 Y-3.00917
G01 X-3.62416 Y-3.00652
G01 X-3.62159 Y-3.00529
G01 X-3.61536 Y-3.00164
G01 X-3.60901 Y-2.99673
G01 X-3.60721 Y-2.99509
G01 X-3.60252 Y-2.99014
G01 X-3.60108 Y-2.98833
G01 X-3.60129 Y-2.98787
G01 X-3.60108 Y-2.98833
G01 X-3.59730 Y-2.98831
G01 X-3.59235 Y-2.98783
G01 X-3.58916 Y-2.98717
G01 X-3.58509 Y-2.98592
G01 X-3.58245 Y-2.98483
G01 X-3.57799 Y-2.98242
G01 X-3.57533 Y-2.98054
G01 X-3.57132 Y-2.97711
G01 X-3.49223 Y-2.89802
G01 X-3.49235 Y-2.89780
G01 X-3.49211 Y-2.89800
G01 X-3.48788 Y-2.89726
G01 X-3.48597 Y-2.89677
G01 X-3.48150 Y-2.89537
G01 X-3.47648 Y-2.89317
G01 X-3.47232 Y-2.89076
G01 X-3.47031 Y-2.88942
G01 X-3.46633 Y-2.88626
G01 X-3.46271 Y-2.88269
G01 X-3.45796 Y-2.87660
G01 X-3.45463 Y-2.87059
G01 X-3.45338 Y-2.86379
G01 X-3.45291 Y-2.86001
G01 X-3.45257 Y-2.85604
G01 X-3.45240 Y-2.84838
G01 X-3.46896 Y-2.84818
G01 X-3.46901 Y-2.85259
G01 X-3.46974 Y-2.85695
G01 X-3.47121 Y-2.86144
G01 X-3.47355 Y-2.86591
G01 X-3.47657 Y-2.86985
G01 X-3.47913 Y-2.87234
G01 X-3.48198 Y-2.87452
G01 X-3.48473 Y-2.87615
G01 X-3.48800 Y-2.87762
G01 X-3.49141 Y-2.87868
G01 X-3.49493 Y-2.87931
G01 X-3.49850 Y-2.87952
G01 X-3.50035 Y-2.87942
G01 X-3.58468 Y-2.96374
G01 X-3.58763 Y-2.96616
G01 X-3.59099 Y-2.96796
G01 X-3.59502 Y-2.96912
G01 X-3.59843 Y-2.96944
G01 X-3.61143 Y-2.96944
G01 X-3.61317 Y-2.97273
G01 X-3.61677 Y-2.97772
G01 X-3.62104 Y-2.98216
G01 X-3.62589 Y-2.98594
G01 X-3.63123 Y-2.98900
G01 X-3.63695 Y-2.99126
G01 X-3.64294 Y-2.99270
G01 X-3.64851 Y-2.99325
G01 X-3.65183 Y-2.99324
G01 X-3.65501 Y-2.99299
G01 X-3.65827 Y-2.99249
G01 X-3.66138 Y-2.99176
G01 X-3.66452 Y-2.99077
G01 X-3.66749 Y-2.98959
G01 X-3.67036 Y-2.98820
G01 X-3.67346 Y-2.98637
G01 X-3.67616 Y-2.98448
G01 X-3.67841 Y-2.98266
G01 X-3.68074 Y-2.98048
G01 X-3.68290 Y-2.97813
G01 X-3.68488 Y-2.97563
G01 X-3.68667 Y-2.97299
G01 X-3.68863 Y-2.96950
G01 X-3.99580 Y-2.96944
G01 X-3.99959 Y-2.96906
G01 X-4.00324 Y-2.96796
G01 X-4.00660 Y-2.96616
G01 X-4.00954 Y-2.96374
G01 X-4.16494 Y-2.80835
G01 X-4.64163 Y-2.80835
G01 X-4.75541 Y-2.92212
G01 X-4.75541 Y-2.97788
G01 X-4.58147 Y-3.15182
G01 X-4.54639 Y-3.15182
G01 X-4.54319 Y-3.14829
G01 X-4.54060 Y-3.14611
G01 X-4.53779 Y-3.14421
G01 X-4.53479 Y-3.14264
G01 X-4.53163 Y-3.14139
G01 X-4.52878 Y-3.14059
G01 X-4.52544 Y-3.14000
G01 X-4.52177 Y-3.13976
G01 X-4.47812 Y-3.13976
G01 X-4.47438 Y-3.14002
G01 X-4.47049 Y-3.14077
G01 X-4.46666 Y-3.14202
G01 X-4.46308 Y-3.14372
G01 X-4.45974 Y-3.14586
G01 X-4.45669 Y-3.14840
G01 X-4.45399 Y-3.15130
G01 X-4.45168 Y-3.15452
G01 X-4.45015 Y-3.15724
G01 X-4.44891 Y-3.16005
G01 X-4.44796 Y-3.16297
G01 X-4.44729 Y-3.16603
G01 X-4.44693 Y-3.16914
G01 X-4.44687 Y-3.17222
G01 X-4.44712 Y-3.17534
G01 X-4.44767 Y-3.17836
G01 X-4.44852 Y-3.18138
G01 X-4.44965 Y-3.18424
G01 X-4.45105 Y-3.18697
G01 X-4.45271 Y-3.18955
G01 X-4.45465 Y-3.19201
G01 X-4.45679 Y-3.19422
G01 X-4.45913 Y-3.19621
G01 X-4.46165 Y-3.19796
G01 X-4.46498 Y-3.19977
G01 X-4.46849 Y-3.20117
G01 X-4.47220 Y-3.20214
G01 X-4.47594 Y-3.20266
G01 X-4.52335 Y-3.20270
G01 X-4.52698 Y-3.20230
G01 X-4.53053 Y-3.20147
G01 X-4.53396 Y-3.20025
G01 X-4.53683 Y-3.19885
G01 X-4.53991 Y-3.19691
G01 X-4.54276 Y-3.19463
G01 X-4.54532 Y-3.19204
G01 X-4.54638 Y-3.19070
G01 X-4.58990 Y-3.19068
G01 X-4.59331 Y-3.19032
G01 X-4.59659 Y-3.18935
G01 X-4.60063 Y-3.18719
G01 X-4.60326 Y-3.18500
G01 X-4.78859 Y-2.99967
G01 X-4.79101 Y-2.99673
G01 X-4.79294 Y-2.99300
G01 X-4.79391 Y-2.98972
G01 X-4.79429 Y-2.98593
G01 X-4.79429 Y-2.91407
G01 X-4.79391 Y-2.91028
G01 X-4.79294 Y-2.90700
G01 X-4.79101 Y-2.90327
G01 X-4.78859 Y-2.90033
G01 X-4.66343 Y-2.77516
G01 X-4.66049 Y-2.77275
G01 X-4.65712 Y-2.77095
G01 X-4.65348 Y-2.76985
G01 X-4.64969 Y-2.76947
G01 X-4.15689 Y-2.76947
G01 X-4.15310 Y-2.76985
G01 X-4.14910 Y-2.77112
G01 X-4.14609 Y-2.77275
G01 X-4.14314 Y-2.77516
G01 X-3.98775 Y-2.93056
G01 X-3.68866 Y-2.93056
G01 X-3.68679 Y-2.92720
G01 X-3.68507 Y-2.92464
G01 X-3.68311 Y-2.92213
G01 X-3.68105 Y-2.91984
G01 X-3.67874 Y-2.91763
G01 X-3.67628 Y-2.91560
G01 X-3.67368 Y-2.91377
G01 X-3.67104 Y-2.91217
G01 X-3.66819 Y-2.91072
G01 X-3.66525 Y-2.90949
G01 X-3.66223 Y-2.90848
G01 X-3.65924 Y-2.90771
G01 X-3.65611 Y-2.90715
G01 X-3.65322 Y-2.90684
G01 X-3.65014 Y-2.90672
G01 X-3.64460 Y-2.90706
G01 X-3.63942 Y-2.90803
G01 X-3.63439 Y-2.90963
G01 X-3.62966 Y-2.91179
G01 X-3.62681 Y-2.91345
G01 X-3.62374 Y-2.91559
G01 X-3.62087 Y-2.91798
G01 X-3.61829 Y-2.92054
G01 X-3.61593 Y-2.92330
G01 X-3.61376 Y-2.92634
G01 X-3.61135 Y-2.93056
G01 X-3.60648 Y-2.93056
G01 X-3.52784 Y-2.85192
G01 X-3.52794 Y-2.84985
G01 X-3.52773 Y-2.84646
G01 X-3.52703 Y-2.84271
G01 X-3.52582 Y-2.83899
G01 X-3.52417 Y-2.83555
G01 X-3.52203 Y-2.83227
G01 X-3.51947 Y-2.82930
G01 X-3.51654 Y-2.82669
G01 X-3.51369 Y-2.82473
G01 X-3.51095 Y-2.82326
G01 X-3.50816 Y-2.82213
G01 X-3.50557 Y-2.82136
G01 X-3.50251 Y-2.82076
G01 X-3.49941 Y-2.82049
G01 X-3.49600 Y-2.82058
G01 X-3.49291 Y-2.82100
G01 X-3.49028 Y-2.82162
G01 X-3.48744 Y-2.82260
G01 X-3.48462 Y-2.82390
G01 X-3.48195 Y-2.82550
G01 X-3.47923 Y-2.82757
G01 X-3.47697 Y-2.82972
G01 X-3.47521 Y-2.83176
G01 X-3.47342 Y-2.83431
G01 X-3.47115 Y-2.83869
G01 X-3.46978 Y-2.84289
G01 X-3.46896 Y-2.84818
G04 P0 ( dwell for no time -- G64 should not smooth over this point )
G00 Z0.08000 ( retract )

G00 X-3.32797 Y-3.17125 ( rapid move to begin. )
G01 F180.00000
( Mill infeed pass 1/1 )
G01 Z-0.04000
G04 P0 ( dwell for no time -- G64 should not smooth over this point )
G01 F360.00000
G01 X-3.32797 Y-3.17125
G01 X-3.32827 Y-3.16559
G01 X-3.32894 Y-3.16140
G01 X-3.33014 Y-3.15662
G01 X-3.33084 Y-3.15448
G01 X-3.33241 Y-3.15054
G01 X-3.33465 Y-3.14616
G01 X-3.33730 Y-3.14202
G01 X-3.34086 Y-3.13760
G01 X-3.34383 Y-3.13454
G01 X-3.34764 Y-3.13130
G01 X-3.35149 Y-3.12862
G01 X-3.35657 Y-3.12581
G01 X-3.36234 Y-3.12348
G01 X-3.36712 Y-3.12215
G01 X-3.36948 Y-3.12167
G01 X-3.37515 Y-3.12097
G01 X-3.42224 Y-3.12087
G01 X-3.42867 Y-3.12136
G01 X-3.43496 Y-3.12267
G01 X-3.43958 Y-3.12416
G01 X-3.44397 Y-3.12610
G01 X-3.44603 Y-3.12717
G01 X-3.45017 Y-3.12971
G01 X-3.45404 Y-3.13267
G01 X-3.45393 Y-3.13299
G01 X-3.45404 Y-3.13267
G01 X-4.02682 Y-3.13267
G01 X-4.02702 Y-3.13315
G01 X-4.02682 Y-3.13267
G01 X-4.26142 Y-2.89808
G01 X-4.26189 Y-2.89828
G01 X-4.26142 Y-2.89808
G01 X-4.26142 Y-2.85000
G01 X-4.26183 Y-2.84469
G01 X-4.26220 Y-2.84227
G01 X-4.26398 Y-2.83618
G01 X-4.26561 Y-2.83264
G01 X-4.27090 Y-2.82976
G01 X-4.27750 Y-2.82685
G01 X-4.27634 Y-2.82806
G01 X-4.27339 Y-2.83173
G01 X-4.27086 Y-2.83618
G01 X-4.26962 Y-2.83917
G01 X-4.26851 Y-2.84291
G01 X-4.26814 Y-2.84490
G01 X-4.26771 Y-2.85000
G01 X-4.26771 Y-2.90069
G01 X-4.26818 Y-2.90089
G01 X-4.26771 Y-2.90069
G01 X-4.02943 Y-3.13897
G01 X-4.02963 Y-3.13945
G01 X-4.02943 Y-3.13897
G01 X-3.45165 Y-3.13897
G01 X-3.45152 Y-3.13934
G01 X-3.45165 Y-3.13897
G01 X-3.45128 Y-3.13861
G01 X-3.44722 Y-3.13535
G01 X-3.44172 Y-3.13200
G01 X-3.43768 Y-3.13018
G01 X-3.43343 Y-3.12879
G01 X-3.42787 Y-3.12761
G01 X-3.42185 Y-3.12717
G01 X-3.37542 Y-3.12726
G01 X-3.37072 Y-3.12785
G01 X-3.36873 Y-3.12825
G01 X-3.36431 Y-3.12946
G01 X-3.35964 Y-3.13133
G01 X-3.35407 Y-3.13446
G01 X-3.35090 Y-3.13675
G01 X-3.34732 Y-3.13994
G01 X-3.34489 Y-3.14254
G01 X-3.34225 Y-3.14594
G01 X-3.33995 Y-3.14958
G01 X-3.33802 Y-3.15342
G01 X-3.33645 Y-3.15751
G01 X-3.33531 Y-3.16167
G01 X-3.33457 Y-3.16598
G01 X-3.33428 Y-3.16987
G01 X-3.33438 Y-3.17457
G01 X-3.33507 Y-3.17964
G01 X-3.33587 Y-3.18311
G01 X-3.33696 Y-3.18644
G01 X-3.33898 Y-3.19113
G01 X-3.34127 Y-3.19512
G01 X-3.34450 Y-3.19952
G01 X-3.34832 Y-3.20355
G01 X-3.35320 Y-3.20746
G01 X-3.43237 Y-3.20750
G01 X-3.43539 Y-3.20647
G01 X-3.43830 Y-3.20518
G01 X-3.44216 Y-3.20301
G01 X-3.44494 Y-3.20102
G01 X-3.44749 Y-3.19883
G01 X-3.44905 Y-3.19725
G01 X-3.44892 Y-3.19687
G01 X-3.44905 Y-3.19725
G01 X-4.04280 Y-3.19725
G01 X-4.04728 Y-3.19685
G01 X-4.04885 Y-3.19650
G01 X-4.05256 Y-3.19534
G01 X-4.05638 Y-3.19338
G01 X-4.05773 Y-3.19252
G01 X-4.06118 Y-3.18963
G01 X-4.26537 Y-2.98544
G01 X-4.26524 Y-2.98332
G01 X-4.26537 Y-2.98544
G01 X-4.26881 Y-2.98855
G01 X-4.27363 Y-2.99199
G01 X-4.27918 Y-2.99500
G01 X-4.28459 Y-2.99713
G01 X-4.29031 Y-2.99863
G01 X-4.29577 Y-2.99940
G01 X-4.30168 Y-2.99956
G01 X-4.30746 Y-2.99902
G01 X-4.31285 Y-2.99788
G01 X-4.31959 Y-2.99554
G01 X-4.32453 Y-2.99309
G01 X-4.32949 Y-2.98986
G01 X-4.33373 Y-2.98634
G01 X-4.33781 Y-2.98208
G01 X-4.34097 Y-2.97793
G01 X-4.34365 Y-2.97352
G01 X-4.34582 Y-2.96896
G01 X-4.34754 Y-2.96410
G01 X-4.34875 Y-2.95908
G01 X-4.34942 Y-2.95407
G01 X-4.34957 Y-2.94892
G01 X-4.34919 Y-2.94372
G01 X-4.34798 Y-2.93751
G01 X-4.34601 Y-2.93151
G01 X-4.34324 Y-2.92573
G01 X-4.34006 Y-2.92080
G01 X-4.33566 Y-2.91555
G01 X-4.33133 Y-2.91159
G01 X-4.32599 Y-2.90778
G01 X-4.32536 Y-2.90808
G01 X-4.32599 Y-2.90778
G01 X-4.32599 Y-2.87599
G01 X-4.32414 Y-2.87414
G01 X-4.32599 Y-2.87599
G01 X-4.42693 Y-2.87599
G01 X-4.42703 Y-2.87567
G01 X-4.42693 Y-2.87599
G01 X-4.42983 Y-2.87847
G01 X-4.43378 Y-2.88110
G01 X-4.43837 Y-2.88330
G01 X-4.44288 Y-2.88475
G01 X-4.44744 Y-2.88558
G01 X-4.45217 Y-2.88582
G01 X-4.45712 Y-2.88538
G01 X-4.46022 Y-2.88476
G01 X-4.46351 Y-2.88377
G01 X-4.46733 Y-2.88218
G01 X-4.47094 Y-2.88014
G01 X-4.47401 Y-2.87793
G01 X-4.47718 Y-2.87504
G01 X-4.47975 Y-2.87211
G01 X-4.48175 Y-2.86931
G01 X-4.48333 Y-2.86657
G01 X-4.48504 Y-2.86278
G01 X-4.48629 Y-2.85883
G01 X-4.48703 Y-2.85513
G01 X-4.48738 Y-2.85098
G01 X-4.48727 Y-2.84708
G01 X-4.48684 Y-2.84369
G01 X-4.48616 Y-2.84070
G01 X-4.48439 Y-2.83567
G01 X-4.48370 Y-2.83420
G01 X-4.48126 Y-2.82995
G01 X-4.47804 Y-2.82586
G01 X-4.47332 Y-2.82154
G01 X-4.47204 Y-2.82068
G01 X-4.47016 Y-2.82011
G01 X-4.46434 Y-2.81877
G01 X-4.45883 Y-2.81796
G01 X-4.45345 Y-2.81759
G01 X-4.44929 Y-2.81760
G01 X-4.44417 Y-2.81797
G01 X-4.44007 Y-2.81854
G01 X-4.43588 Y-2.81937
G01 X-4.43154 Y-2.82051
G01 X-4.43110 Y-2.82065
G01 X-4.42888 Y-2.82229
G01 X-4.42695 Y-2.82401
G01 X-4.42708 Y-2.82437
G01 X-4.42695 Y-2.82401
G01 X-4.29950 Y-2.82403
G01 X-4.29513 Y-2.82448
G01 X-4.29100 Y-2.82565
G01 X-4.28951 Y-2.82624
G01 X-4.28540 Y-2.82851
G01 X-4.28148 Y-2.83177
G01 X-4.27828 Y-2.83573
G01 X-4.27592 Y-2.84024
G01 X-4.27441 Y-2.84552
G01 X-4.27401 Y-2.85000
G01 X-4.27401 Y-2.90330
G01 X-4.27448 Y-2.90350
G01 X-4.27401 Y-2.90330
G01 X-4.03204 Y-3.14527
G01 X-4.03224 Y-3.14575
G01 X-4.03204 Y-3.14527
G01 X-3.44905 Y-3.14527
G01 X-3.44890 Y-3.14568
G01 X-3.44905 Y-3.14527
G01 X-3.44652 Y-3.14280
G01 X-3.44299 Y-3.14007
G01 X-3.43948 Y-3.13793
G01 X-3.43466 Y-3.13579
G01 X-3.43073 Y-3.13457
G01 X-3.42668 Y-3.13380
G01 X-3.42186 Y-3.13347
G01 X-3.37586 Y-3.13355
G01 X-3.37034 Y-3.13434
G01 X-3.36629 Y-3.13544
G01 X-3.36234 Y-3.13702
G01 X-3.35770 Y-3.13961
G01 X-3.35496 Y-3.14157
G01 X-3.35189 Y-3.14428
G01 X-3.34956 Y-3.14677
G01 X-3.34740 Y-3.14956
G01 X-3.34544 Y-3.15267
G01 X-3.34371 Y-3.15612
G01 X-3.34238 Y-3.15963
G01 X-3.34142 Y-3.16320
G01 X-3.34080 Y-3.16690
G01 X-3.34056 Y-3.17042
G01 X-3.34066 Y-3.17410
G01 X-3.34109 Y-3.17759
G01 X-3.34190 Y-3.18126
G01 X-3.34294 Y-3.18445
G01 X-3.34484 Y-3.18873
G01 X-3.34657 Y-3.19171
G01 X-3.34882 Y-3.19483
G01 X-3.35232 Y-3.19866
G01 X-3.35631 Y-3.20197
G01 X-3.36067 Y-3.20465
G01 X-3.36420 Y-3.20631
G01 X-3.36771 Y-3.20749
G01 X-3.44674 Y-3.20748
G01 X-3.44898 Y-3.20587
G01 X-3.45163 Y-3.20358
G01 X-3.45155 Y-3.20319
G01 X-3.45167 Y-3.20354
G01 X-4.04280 Y-3.20354
G01 X-4.04790 Y-3.20312
G01 X-4.05068 Y-3.20253
G01 X-4.05516 Y-3.20109
G01 X-4.05970 Y-3.19874
G01 X-4.06173 Y-3.19739
G01 X-4.06563 Y-3.19409
G01 X-4.26565 Y-2.99407
G01 X-4.26545 Y-2.99234
G01 X-4.26565 Y-2.99407
G01 X-4.27031 Y-2.99734
G01 X-4.27615 Y-3.00054
G01 X-4.28186 Y-3.00285
G01 X-4.28866 Y-3.00472
G01 X-4.29448 Y-3.00559
G01 X-4.29645 Y-3.00575
G01 X-4.30270 Y-3.00581
G01 X-4.30883 Y-3.00518
G01 X-4.31496 Y-3.00385
G01 X-4.32127 Y-3.00168
G01 X-4.32657 Y-2.99914
G01 X-4.32829 Y-2.99817
G01 X-4.33353 Y-2.99470
G01 X-4.33833 Y-2.99066
G01 X-4.34262 Y-2.98615
G01 X-4.34629 Y-2.98131
G01 X-4.34929 Y-2.97634
G01 X-4.35172 Y-2.97118
G01 X-4.35364 Y-2.96570
G01 X-4.35497 Y-2.96004
G01 X-4.35571 Y-2.95439
G01 X-4.35587 Y-2.94858
G01 X-4.35543 Y-2.94286
G01 X-4.35407 Y-2.93589
G01 X-4.35213 Y-2.92993
G01 X-4.35133 Y-2.92796
G01 X-4.34829 Y-2.92189
G01 X-4.34459 Y-2.91631
G01 X-4.34017 Y-2.91115
G01 X-4.33457 Y-2.90609
G01 X-4.33228 Y-2.90448
G01 X-4.33171 Y-2.90475
G01 X-4.33228 Y-2.90448
G01 X-4.33228 Y-2.88228
G01 X-4.33044 Y-2.88044
G01 X-4.33228 Y-2.88228
G01 X-4.42459 Y-2.88228
G01 X-4.42468 Y-2.88200
G01 X-4.42459 Y-2.88228
G01 X-4.42640 Y-2.88377
G01 X-4.43107 Y-2.88680
G01 X-4.43560 Y-2.88898
G01 X-4.44046 Y-2.89062
G01 X-4.44539 Y-2.89165
G01 X-4.44754 Y-2.89191
G01 X-4.45223 Y-2.89212
G01 X-4.45756 Y-2.89170
G01 X-4.46281 Y-2.89059
G01 X-4.46621 Y-2.88950
G01 X-4.47029 Y-2.88774
G01 X-4.47416 Y-2.88556
G01 X-4.47709 Y-2.88350
G01 X-4.48123 Y-2.87992
G01 X-4.48485 Y-2.87581
G01 X-4.48694 Y-2.87289
G01 X-4.48921 Y-2.86891
G01 X-4.49100 Y-2.86483
G01 X-4.49211 Y-2.86143
G01 X-4.49329 Y-2.85580
G01 X-4.49366 Y-2.85180
G01 X-4.49361 Y-2.84722
G01 X-4.49308 Y-2.84279
G01 X-4.49230 Y-2.83930
G01 X-4.49183 Y-2.83763
G01 X-4.48997 Y-2.83267
G01 X-4.48658 Y-2.82656
G01 X-4.48003 Y-2.82352
G01 X-4.47403 Y-2.82128
G01 X-4.46831 Y-2.81963
G01 X-4.46434 Y-2.81877
G01 X-4.45883 Y-2.81796
G01 X-4.45345 Y-2.81759
G01 X-4.44929 Y-2.81760
G01 X-4.44529 Y-2.81786
G01 X-4.44126 Y-2.81835
G01 X-4.43716 Y-2.81909
G01 X-4.43297 Y-2.82011
G01 X-4.42517 Y-2.82253
G01 X-4.30004 Y-2.82248
G01 X-4.29568 Y-2.82266
G01 X-4.28991 Y-2.82337
G01 X-4.28688 Y-2.82398
G01 X-4.28061 Y-2.82573
G01 X-4.27750 Y-2.82685
G01 X-4.28061 Y-2.82573
G01 X-4.28688 Y-2.82398
G01 X-4.29284 Y-2.82294
G01 X-4.29865 Y-2.82251
G01 X-4.42516 Y-2.82248
G01 X-4.42629 Y-2.82227
G01 X-4.43297 Y-2.82011
G01 X-4.44007 Y-2.81854
G01 X-4.44417 Y-2.81797
G01 X-4.44820 Y-2.81765
G01 X-4.45345 Y-2.81759
G01 X-4.45883 Y-2.81796
G01 X-4.46434 Y-2.81877
G01 X-4.46831 Y-2.81963
G01 X-4.47403 Y-2.82128
G01 X-4.48003 Y-2.82352
G01 X-4.48642 Y-2.82648
G01 X-4.48949 Y-2.82812
G01 X-4.49590 Y-2.83198
G01 X-4.49716 Y-2.84056
G01 X-4.49753 Y-2.84562
G01 X-4.49762 Y-2.85080
G01 X-4.49745 Y-2.85587
G01 X-4.49700 Y-2.86093
G01 X-4.49628 Y-2.86605
G01 X-4.49541 Y-2.87054
G01 X-4.49426 Y-2.87283
G01 X-4.49154 Y-2.87732
G01 X-4.48894 Y-2.88079
G01 X-4.48506 Y-2.88497
G01 X-4.48140 Y-2.88815
G01 X-4.47720 Y-2.89109
G01 X-4.47309 Y-2.89338
G01 X-4.46802 Y-2.89554
G01 X-4.46310 Y-2.89703
G01 X-4.45763 Y-2.89804
G01 X-4.45186 Y-2.89842
G01 X-4.44506 Y-2.89798
G01 X-4.43931 Y-2.89684
G01 X-4.43286 Y-2.89466
G01 X-4.42723 Y-2.89185
G01 X-4.42261 Y-2.88881
G01 X-4.42231 Y-2.88858
G01 X-4.42239 Y-2.88832
G01 X-4.42231 Y-2.88858
G01 X-4.33858 Y-2.88858
G01 X-4.33674 Y-2.88674
G01 X-4.33858 Y-2.88858
G01 X-4.33858 Y-2.90123
G01 X-4.33804 Y-2.90148
G01 X-4.33858 Y-2.90123
G01 X-4.33882 Y-2.90142
G01 X-4.34379 Y-2.90587
G01 X-4.34525 Y-2.90737
G01 X-4.34988 Y-2.91287
G01 X-4.35399 Y-2.91915
G01 X-4.35752 Y-2.92636
G01 X-4.35969 Y-2.93267
G01 X-4.36044 Y-2.93550
G01 X-4.36175 Y-2.94276
G01 X-4.36216 Y-2.94842
G01 X-4.36199 Y-2.95488
G01 X-4.36117 Y-2.96117
G01 X-4.35957 Y-2.96784
G01 X-4.35755 Y-2.97356
G01 X-4.35484 Y-2.97931
G01 X-4.35151 Y-2.98484
G01 X-4.34727 Y-2.99040
G01 X-4.34264 Y-2.99527
G01 X-4.33786 Y-2.99930
G01 X-4.33598 Y-3.00070
G01 X-4.33037 Y-3.00426
G01 X-4.32405 Y-3.00734
G01 X-4.31816 Y-3.00945
G01 X-4.31591 Y-3.01010
G01 X-4.30904 Y-3.01152
G01 X-4.30255 Y-3.01213
G01 X-4.29592 Y-3.01204
G01 X-4.28894 Y-3.01117
G01 X-4.28665 Y-3.01072
G01 X-4.28025 Y-3.00897
G01 X-4.27348 Y-3.00625
G01 X-4.26635 Y-3.00228
G01 X-4.26613 Y-3.00073
G01 X-4.26635 Y-3.00228
G01 X-4.06982 Y-3.19880
G01 X-4.06540 Y-3.20251
G01 X-4.06267 Y-3.20430
G01 X-4.05776 Y-3.20683
G01 X-4.05251 Y-3.20856
G01 X-4.04892 Y-3.20934
G01 X-4.04280 Y-3.20984
G01 X-3.46089 Y-3.20984
G01 X-3.45545 Y-3.20770
G01 X-3.45425 Y-3.20740
G01 X-3.45141 Y-3.20751
G01 X-3.34584 Y-3.20746
G01 X-3.34181 Y-3.20588
G01 X-3.34018 Y-3.20415
G01 X-3.33610 Y-3.19873
G01 X-3.33319 Y-3.19363
G01 X-3.33123 Y-3.18913
G01 X-3.32962 Y-3.18408
G01 X-3.32854 Y-3.17882
G01 X-3.32809 Y-3.17504
G01 X-3.32797 Y-3.17125
G01 X-3.34686 Y-3.17075
G01 X-3.34696 Y-3.17382
G01 X-3.34736 Y-3.17686
G01 X-3.34807 Y-3.17991
G01 X-3.34905 Y-3.18282
G01 X-3.35032 Y-3.18562
G01 X-3.35188 Y-3.18833
G01 X-3.35392 Y-3.19113
G01 X-3.35661 Y-3.19405
G01 X-3.36004 Y-3.19688
G01 X-3.36336 Y-3.19895
G01 X-3.36650 Y-3.20043
G01 X-3.37073 Y-3.20181
G01 X-3.37464 Y-3.20253
G01 X-3.37835 Y-3.20275
G01 X-3.42188 Y-3.20275
G01 X-3.42738 Y-3.20223
G01 X-3.43037 Y-3.20152
G01 X-3.43328 Y-3.20053
G01 X-3.43607 Y-3.19926
G01 X-3.43845 Y-3.19789
G01 X-3.44102 Y-3.19609
G01 X-3.44335 Y-3.19409
G01 X-3.44620 Y-3.19095
G01 X-4.04280 Y-3.19095
G01 X-4.04702 Y-3.19047
G01 X-4.05034 Y-3.18945
G01 X-4.05341 Y-3.18783
G01 X-4.05672 Y-3.18518
G01 X-4.26562 Y-2.97629
G01 X-4.26892 Y-2.98012
G01 X-4.27273 Y-2.98361
G01 X-4.27693 Y-2.98662
G01 X-4.28146 Y-2.98911
G01 X-4.28616 Y-2.99101
G01 X-4.29114 Y-2.99236
G01 X-4.29625 Y-2.99312
G01 X-4.30141 Y-2.99326
G01 X-4.30646 Y-2.99280
G01 X-4.31151 Y-2.99172
G01 X-4.31640 Y-2.99005
G01 X-4.32105 Y-2.98781
G01 X-4.32579 Y-2.98476
G01 X-4.32975 Y-2.98144
G01 X-4.33326 Y-2.97769
G01 X-4.33596 Y-2.97408
G01 X-4.33808 Y-2.97057
G01 X-4.33997 Y-2.96659
G01 X-4.34148 Y-2.96235
G01 X-4.34254 Y-2.95797
G01 X-4.34313 Y-2.95361
G01 X-4.34327 Y-2.94910
G01 X-4.34295 Y-2.94461
G01 X-4.34190 Y-2.93915
G01 X-4.34018 Y-2.93392
G01 X-4.33777 Y-2.92887
G01 X-4.33478 Y-2.92425
G01 X-4.33117 Y-2.91997
G01 X-4.32711 Y-2.91626
G01 X-4.32252 Y-2.91304
G01 X-4.31969 Y-2.91154
G01 X-4.31969 Y-2.86969
G01 X-4.42964 Y-2.86969
G01 X-4.43110 Y-2.87126
G01 X-4.43360 Y-2.87342
G01 X-4.43685 Y-2.87559
G01 X-4.44028 Y-2.87727
G01 X-4.44398 Y-2.87853
G01 X-4.44773 Y-2.87927
G01 X-4.45163 Y-2.87952
G01 X-4.45544 Y-2.87927
G01 X-4.45906 Y-2.87856
G01 X-4.46164 Y-2.87776
G01 X-4.46450 Y-2.87654
G01 X-4.46723 Y-2.87503
G01 X-4.47011 Y-2.87298
G01 X-4.47251 Y-2.87081
G01 X-4.47466 Y-2.86841
G01 X-4.47647 Y-2.86587
G01 X-4.47805 Y-2.86306
G01 X-4.47913 Y-2.86059
G01 X-4.48010 Y-2.85762
G01 X-4.48080 Y-2.85416
G01 X-4.48108 Y-2.85105
G01 X-4.48102 Y-2.84783
G01 X-4.48062 Y-2.84474
G01 X-4.48002 Y-2.84211
G01 X-4.47822 Y-2.83730
G01 X-4.47604 Y-2.83347
G01 X-4.47337 Y-2.83009
G01 X-4.46952 Y-2.82656
G01 X-4.46564 Y-2.82405
G01 X-4.46162 Y-2.82223
G01 X-4.45747 Y-2.82108
G01 X-4.45235 Y-2.82049
G01 X-4.44935 Y-2.82056
G01 X-4.44592 Y-2.82102
G01 X-4.44257 Y-2.82188
G01 X-4.43934 Y-2.82313
G01 X-4.43628 Y-2.82475
G01 X-4.43343 Y-2.82671
G01 X-4.43083 Y-2.82899
G01 X-4.42963 Y-2.83031
G01 X-4.30000 Y-2.83031
G01 X-4.29616 Y-2.83069
G01 X-4.29283 Y-2.83168
G01 X-4.28906 Y-2.83363
G01 X-4.28608 Y-2.83608
G01 X-4.28363 Y-2.83906
G01 X-4.28181 Y-2.84247
G01 X-4.28063 Y-2.84654
G01 X-4.28031 Y-2.85000
G01 X-4.28031 Y-2.90591
G01 X-4.03465 Y-3.15157
G01 X-3.44618 Y-3.15157
G01 X-3.44501 Y-3.15014
G01 X-3.44232 Y-3.14750
G01 X-3.43938 Y-3.14524
G01 X-3.43656 Y-3.14352
G01 X-3.43275 Y-3.14179
G01 X-3.42915 Y-3.14067
G01 X-3.42591 Y-3.14006
G01 X-3.42187 Y-3.13976
G01 X-3.37633 Y-3.13984
G01 X-3.37194 Y-3.14043
G01 X-3.36824 Y-3.14144
G01 X-3.36507 Y-3.14271
G01 X-3.36132 Y-3.14476
G01 X-3.35882 Y-3.14655
G01 X-3.35646 Y-3.14861
G01 X-3.35432 Y-3.15090
G01 X-3.35245 Y-3.15333
G01 X-3.35083 Y-3.15594
G01 X-3.34947 Y-3.15870
G01 X-3.34836 Y-3.16162
G01 X-3.34757 Y-3.16459
G01 X-3.34706 Y-3.16768
G01 X-3.34686 Y-3.17075
G04 P0 ( dwell for no time -- G64 should not smooth over this point )
G00 Z0.08000 ( retract )

G00 X-3.36766 Y-3.21379 ( rapid move to begin. )
G01 F180.00000
( Mill infeed pass 1/1 )
G01 Z-0.04000
G04 P0 ( dwell for no time -- G64 should not smooth over this point )
G01 F360.00000
G01 X-3.36766 Y-3.21379
G01 X-3.36559 Y-3.21442
G01 X-3.36224 Y-3.21581
G01 X-3.35842 Y-3.21789
G01 X-3.35514 Y-3.22017
G01 X-3.35238 Y-3.22253
G01 X-3.35072 Y-3.22426
G01 X-3.35085 Y-3.22464
G01 X-3.35072 Y-3.22426
G01 X-3.33045 Y-3.22426
G01 X-3.33025 Y-3.22474
G01 X-3.33045 Y-3.22426
G01 X-3.27574 Y-3.16955
G01 X-3.27526 Y-3.16975
G01 X-3.27574 Y-3.16955
G01 X-3.27574 Y-2.99233
G01 X-3.27503 Y-2.99197
G01 X-3.27574 Y-2.99233
G01 X-3.27799 Y-2.99093
G01 X-3.28181 Y-2.98804
G01 X-3.28567 Y-2.98443
G01 X-3.28852 Y-2.98122
G01 X-3.29135 Y-2.97736
G01 X-3.29380 Y-2.97325
G01 X-3.29583 Y-2.96892
G01 X-3.29745 Y-2.96441
G01 X-3.29861 Y-2.95977
G01 X-3.29933 Y-2.95503
G01 X-3.29957 Y-2.95075
G01 X-3.29938 Y-2.94547
G01 X-3.29871 Y-2.94073
G01 X-3.29813 Y-2.93826
G01 X-3.29737 Y-2.93802
G01 X-3.29813 Y-2.93826
G01 X-3.36066 Y-2.87574
G01 X-3.36046 Y-2.87526
G01 X-3.36066 Y-2.87574
G01 X-3.36418 Y-2.87574
G01 X-3.36533 Y-2.87432
G01 X-3.36418 Y-2.87574
G01 X-3.36420 Y-2.87639
G01 X-3.36481 Y-2.87913
G01 X-3.36590 Y-2.88128
G01 X-3.36746 Y-2.88311
G01 X-3.36906 Y-2.88432
G01 X-3.37087 Y-2.88519
G01 X-3.37321 Y-2.88576
G01 X-3.42599 Y-2.88582
G01 X-3.42798 Y-2.88554
G01 X-3.42988 Y-2.88489
G01 X-3.43161 Y-2.88387
G01 X-3.43311 Y-2.88254
G01 X-3.43432 Y-2.88094
G01 X-3.43519 Y-2.87913
G01 X-3.43563 Y-2.87759
G01 X-3.43583 Y-2.87559
G01 X-3.43582 Y-2.82401
G01 X-3.43544 Y-2.82163
G01 X-3.43432 Y-2.81906
G01 X-3.43283 Y-2.81717
G01 X-3.43094 Y-2.81568
G01 X-3.42875 Y-2.81467
G01 X-3.42639 Y-2.81420
G01 X-3.37361 Y-2.81420
G01 X-3.37163 Y-2.81456
G01 X-3.36941 Y-2.81548
G01 X-3.36776 Y-2.81663
G01 X-3.36613 Y-2.81839
G01 X-3.36481 Y-2.82087
G01 X-3.36424 Y-2.82321
G01 X-3.36418 Y-2.82426
G01 X-3.36536 Y-2.82565
G01 X-3.36418 Y-2.82426
G01 X-3.34966 Y-2.82427
G01 X-3.34478 Y-2.82480
G01 X-3.34071 Y-2.82601
G01 X-3.33924 Y-2.82665
G01 X-3.33554 Y-2.82871
G01 X-3.33180 Y-2.83180
G01 X-3.26173 Y-2.90187
G01 X-3.26196 Y-2.90253
G01 X-3.26173 Y-2.90187
G01 X-3.25886 Y-2.90121
G01 X-3.25365 Y-2.90056
G01 X-3.24907 Y-2.90042
G01 X-3.24485 Y-2.90069
G01 X-3.23933 Y-2.90158
G01 X-3.23428 Y-2.90298
G01 X-3.23026 Y-2.90451
G01 X-3.22631 Y-2.90645
G01 X-3.22184 Y-2.90919
G01 X-3.21781 Y-2.91228
G01 X-3.21431 Y-2.91557
G01 X-3.21141 Y-2.91888
G01 X-3.20797 Y-2.92370
G01 X-3.20572 Y-2.92768
G01 X-3.20379 Y-2.93201
G01 X-3.20227 Y-2.93655
G01 X-3.20122 Y-2.94111
G01 X-3.20059 Y-2.94584
G01 X-3.20042 Y-2.95013
G01 X-3.20071 Y-2.95541
G01 X-3.20146 Y-2.96014
G01 X-3.20253 Y-2.96429
G01 X-3.20446 Y-2.96959
G01 X-3.20626 Y-2.97337
G01 X-3.20872 Y-2.97747
G01 X-3.21156 Y-2.98132
G01 X-3.21442 Y-2.98452
G01 X-3.21829 Y-2.98812
G01 X-3.22211 Y-2.99100
G01 X-3.22426 Y-2.99233
G01 X-3.22497 Y-2.99196
G01 X-3.22426 Y-2.99233
G01 X-3.22426 Y-3.18021
G01 X-3.22472 Y-3.18504
G01 X-3.22588 Y-3.18911
G01 X-3.22647 Y-3.19061
G01 X-3.22871 Y-3.19468
G01 X-3.23180 Y-3.19841
G01 X-3.30159 Y-3.26820
G01 X-3.30532 Y-3.27129
G01 X-3.30975 Y-3.27370
G01 X-3.31457 Y-3.27520
G01 X-3.31945 Y-3.27573
G01 X-3.35071 Y-3.27574
G01 X-3.35085 Y-3.27535
G01 X-3.35071 Y-3.27574
G01 X-3.35206 Y-3.27714
G01 X-3.35438 Y-3.27922
G01 X-3.35728 Y-3.28138
G01 X-3.36036 Y-3.28324
G01 X-3.36317 Y-3.28460
G01 X-3.36763 Y-3.28623
G01 X-3.43244 Y-3.28621
G01 X-3.43603 Y-3.28495
G01 X-3.43909 Y-3.28353
G01 X-3.44240 Y-3.28159
G01 X-3.44478 Y-3.27989
G01 X-3.44735 Y-3.27771
G01 X-3.44995 Y-3.27505
G01 X-3.45323 Y-3.27076
G01 X-3.45573 Y-3.26634
G01 X-3.45771 Y-3.26134
G01 X-3.45896 Y-3.25604
G01 X-3.45943 Y-3.25099
G01 X-3.45915 Y-3.24525
G01 X-3.45825 Y-3.24063
G01 X-3.45785 Y-3.23921
G01 X-3.45593 Y-3.23412
G01 X-3.45374 Y-3.23002
G01 X-3.45053 Y-3.22562
G01 X-3.44673 Y-3.22173
G01 X-3.44306 Y-3.21887
G01 X-3.43778 Y-3.21582
G01 X-3.43270 Y-3.21386
G01 X-3.42681 Y-3.21375
G01 X-3.35329 Y-3.21376
G01 X-3.35109 Y-3.21534
G01 X-3.34822 Y-3.21780
G01 X-3.34805 Y-3.21796
G01 X-3.34817 Y-3.21832
G01 X-3.34805 Y-3.21796
G01 X-3.33306 Y-3.21796
G01 X-3.33286 Y-3.21844
G01 X-3.33306 Y-3.21796
G01 X-3.28204 Y-3.16694
G01 X-3.28155 Y-3.16714
G01 X-3.28204 Y-3.16694
G01 X-3.28204 Y-2.99578
G01 X-3.28144 Y-2.99550
G01 X-3.28204 Y-2.99578
G01 X-3.28585 Y-2.99287
G01 X-3.28982 Y-2.98921
G01 X-3.29316 Y-2.98550
G01 X-3.29703 Y-2.98016
G01 X-3.29936 Y-2.97620
G01 X-3.30166 Y-2.97132
G01 X-3.30347 Y-2.96624
G01 X-3.30461 Y-2.96178
G01 X-3.30563 Y-2.95527
G01 X-3.30588 Y-2.95028
G01 X-3.30565 Y-2.94489
G01 X-3.30502 Y-2.94028
G01 X-3.30440 Y-2.94006
G01 X-3.30502 Y-2.94028
G01 X-3.36061 Y-2.88470
G01 X-3.36074 Y-2.88166
G01 X-3.36061 Y-2.88470
G01 X-3.36216 Y-2.88670
G01 X-3.36392 Y-2.88837
G01 X-3.36591 Y-2.88977
G01 X-3.36846 Y-2.89102
G01 X-3.37079 Y-2.89172
G01 X-3.37360 Y-2.89211
G01 X-3.42721 Y-2.89205
G01 X-3.43000 Y-2.89153
G01 X-3.43303 Y-2.89036
G01 X-3.43576 Y-2.88863
G01 X-3.43811 Y-2.88639
G01 X-3.43977 Y-2.88409
G01 X-3.44102 Y-2.88154
G01 X-3.44181 Y-2.87882
G01 X-3.44212 Y-2.87600
G01 X-3.44211 Y-2.82360
G01 X-3.44188 Y-2.82158
G01 X-3.44141 Y-2.81961
G01 X-3.44071 Y-2.81771
G01 X-3.43977 Y-2.81591
G01 X-3.43757 Y-2.81301
G01 X-3.43478 Y-2.81066
G01 X-3.43303 Y-2.80964
G01 X-3.43116 Y-2.80884
G01 X-3.42761 Y-2.80800
G01 X-3.42559 Y-2.80787
G01 X-3.37360 Y-2.80789
G01 X-3.37118 Y-2.80819
G01 X-3.36884 Y-2.80884
G01 X-3.36661 Y-2.80983
G01 X-3.36424 Y-2.81137
G01 X-3.36216 Y-2.81330
G01 X-3.36044 Y-2.81556
G01 X-3.35918 Y-2.81796
G01 X-3.35964 Y-2.81873
G01 X-3.35918 Y-2.81796
G01 X-3.34838 Y-2.81804
G01 X-3.34495 Y-2.81839
G01 X-3.34296 Y-2.81876
G01 X-3.33888 Y-2.81998
G01 X-3.33700 Y-2.82073
G01 X-3.33220 Y-2.82336
G01 X-3.32764 Y-2.82706
G01 X-3.25972 Y-2.89497
G01 X-3.25994 Y-2.89557
G01 X-3.25972 Y-2.89497
G01 X-3.25936 Y-2.89492
G01 X-3.25468 Y-2.89431
G01 X-3.24956 Y-2.89412
G01 X-3.24362 Y-2.89448
G01 X-3.23776 Y-2.89547
G01 X-3.23206 Y-2.89709
G01 X-3.22775 Y-2.89873
G01 X-3.22352 Y-2.90080
G01 X-3.21810 Y-2.90411
G01 X-3.21403 Y-2.90723
G01 X-3.20978 Y-2.91120
G01 X-3.20616 Y-2.91534
G01 X-3.20446 Y-2.92080
G01 X-3.20225 Y-2.93001
G01 X-3.20138 Y-2.93517
G01 X-3.20078 Y-2.94010
G01 X-3.20042 Y-2.94508
G01 X-3.20031 Y-2.95126
G01 X-3.20079 Y-2.95996
G01 X-3.20140 Y-2.96496
G01 X-3.20224 Y-2.96992
G01 X-3.20334 Y-2.97494
G01 X-3.20475 Y-2.98020
G01 X-3.20617 Y-2.98465
G01 X-3.21028 Y-2.98931
G01 X-3.21395 Y-2.99270
G01 X-3.21796 Y-2.99578
G01 X-3.21856 Y-2.99550
G01 X-3.21796 Y-2.99578
G01 X-3.21797 Y-3.18062
G01 X-3.21850 Y-3.18606
G01 X-3.21998 Y-3.19133
G01 X-3.22110 Y-3.19394
G01 X-3.22272 Y-3.19697
G01 X-3.22383 Y-3.19867
G01 X-3.22735 Y-3.20286
G01 X-3.29713 Y-3.27265
G01 X-3.30199 Y-3.27664
G01 X-3.30606 Y-3.27890
G01 X-3.30790 Y-3.27975
G01 X-3.31235 Y-3.28114
G01 X-3.31474 Y-3.28161
G01 X-3.31979 Y-3.28204
G01 X-3.34808 Y-3.28204
G01 X-3.34821 Y-3.28167
G01 X-3.34808 Y-3.28204
G01 X-3.35039 Y-3.28410
G01 X-3.35320 Y-3.28621
G01 X-3.44673 Y-3.28623
G01 X-3.44834 Y-3.28510
G01 X-3.45164 Y-3.28233
G01 X-3.45492 Y-3.27892
G01 X-3.45826 Y-3.27457
G01 X-3.46123 Y-3.26942
G01 X-3.46346 Y-3.26397
G01 X-3.46403 Y-3.26208
G01 X-3.46518 Y-3.25705
G01 X-3.46573 Y-3.25112
G01 X-3.46548 Y-3.24524
G01 X-3.46521 Y-3.24328
G01 X-3.46415 Y-3.23823
G01 X-3.46202 Y-3.23225
G01 X-3.45908 Y-3.22669
G01 X-3.45608 Y-3.22250
G01 X-3.45482 Y-3.22096
G01 X-3.45092 Y-3.21701
G01 X-3.44677 Y-3.21378
G01 X-3.36766 Y-3.21379
G01 X-3.45375 Y-3.21380
G01 X-3.45844 Y-3.21565
G01 X-3.46093 Y-3.21846
G01 X-3.46485 Y-3.22406
G01 X-3.46778 Y-3.22971
G01 X-3.46986 Y-3.23536
G01 X-3.47060 Y-3.23815
G01 X-3.47153 Y-3.24285
G01 X-3.47177 Y-3.24488
G01 X-3.47204 Y-3.25083
G01 X-3.47156 Y-3.25683
G01 X-3.47117 Y-3.25927
G01 X-3.46960 Y-3.26550
G01 X-3.46709 Y-3.27180
G01 X-3.46415 Y-3.27705
G01 X-3.46254 Y-3.27941
G01 X-3.45852 Y-3.28434
G01 X-3.45497 Y-3.28577
G01 X-3.45340 Y-3.28624
G01 X-3.34522 Y-3.28614
G01 X-3.33928 Y-3.28833
G01 X-3.31792 Y-3.28826
G01 X-3.31211 Y-3.28756
G01 X-3.30645 Y-3.28592
G01 X-3.30382 Y-3.28483
G01 X-3.29900 Y-3.28221
G01 X-3.29701 Y-3.28079
G01 X-3.29322 Y-3.27763
G01 X-3.22289 Y-3.20732
G01 X-3.21895 Y-3.20267
G01 X-3.21697 Y-3.19959
G01 X-3.21499 Y-3.19581
G01 X-3.21408 Y-3.19355
G01 X-3.21281 Y-3.18939
G01 X-3.21228 Y-3.18259
G01 X-3.21222 Y-3.00020
G01 X-3.21233 Y-3.00018
G01 X-3.21222 Y-3.00020
G01 X-3.21193 Y-2.99888
G01 X-3.20945 Y-2.99333
G01 X-3.20716 Y-2.98751
G01 X-3.20526 Y-2.98190
G01 X-3.20334 Y-2.97494
G01 X-3.20224 Y-2.96992
G01 X-3.20140 Y-2.96496
G01 X-3.20079 Y-2.95996
G01 X-3.20031 Y-2.95126
G01 X-3.20042 Y-2.94508
G01 X-3.20078 Y-2.94010
G01 X-3.20198 Y-2.93144
G01 X-3.20307 Y-2.92619
G01 X-3.20496 Y-2.91909
G01 X-3.20684 Y-2.91337
G01 X-3.20912 Y-2.90745
G01 X-3.21213 Y-2.90073
G01 X-3.21482 Y-2.89873
G01 X-3.21908 Y-2.89606
G01 X-3.22457 Y-2.89326
G01 X-3.23053 Y-2.89094
G01 X-3.23572 Y-2.88949
G01 X-3.24253 Y-2.88827
G01 X-3.24867 Y-2.88783
G01 X-3.25596 Y-2.88811
G01 X-3.25748 Y-2.88831
G01 X-3.25769 Y-2.88886
G01 X-3.25748 Y-2.88831
G01 X-3.32289 Y-2.82289
G01 X-3.32754 Y-2.81895
G01 X-3.33027 Y-2.81717
G01 X-3.33552 Y-2.81451
G01 X-3.34082 Y-2.81281
G01 X-3.34762 Y-2.81228
G01 X-3.35470 Y-2.81225
G01 X-3.36502 Y-2.80837
G01 X-3.37460 Y-2.80718
G01 X-3.42545 Y-2.80718
G01 X-3.43232 Y-2.80779
G01 X-3.43909 Y-2.80961
G01 X-3.44488 Y-2.81219
G01 X-3.44509 Y-2.81253
G01 X-3.44641 Y-2.81502
G01 X-3.44740 Y-2.81766
G01 X-3.44807 Y-2.82040
G01 X-3.44839 Y-2.82320
G01 X-3.44842 Y-2.82824
G01 X-3.44704 Y-2.83605
G01 X-3.44656 Y-2.84007
G01 X-3.44609 Y-2.84835
G01 X-3.44611 Y-2.85257
G01 X-3.44663 Y-2.86060
G01 X-3.44716 Y-2.86476
G01 X-3.44842 Y-2.87171
G01 X-3.44842 Y-2.87599
G01 X-3.44800 Y-2.88000
G01 X-3.44702 Y-2.88348
G01 X-3.44530 Y-2.88712
G01 X-3.44297 Y-2.89040
G01 X-3.44130 Y-2.89216
G01 X-3.43946 Y-2.89373
G01 X-3.43747 Y-2.89509
G01 X-3.43534 Y-2.89624
G01 X-3.43310 Y-2.89715
G01 X-3.43078 Y-2.89783
G01 X-3.42840 Y-2.89825
G01 X-3.42599 Y-2.89842
G01 X-3.37240 Y-2.89834
G01 X-3.37000 Y-2.89800
G01 X-3.36805 Y-2.89752
G01 X-3.36576 Y-2.89672
G01 X-3.36394 Y-2.89588
G01 X-3.36051 Y-2.89371
G01 X-3.36029 Y-2.89211
G01 X-3.36051 Y-2.89371
G01 X-3.31170 Y-2.94252
G01 X-3.31112 Y-2.94230
G01 X-3.31170 Y-2.94252
G01 X-3.31200 Y-2.94542
G01 X-3.31218 Y-2.95054
G01 X-3.31184 Y-2.95653
G01 X-3.31101 Y-2.96203
G01 X-3.30980 Y-2.96701
G01 X-3.30740 Y-2.97393
G01 X-3.30438 Y-2.98012
G01 X-3.30173 Y-2.98450
G01 X-3.29844 Y-2.98899
G01 X-3.29446 Y-2.99348
G01 X-3.29072 Y-2.99698
G01 X-3.28833 Y-2.99892
G01 X-3.28778 Y-2.99866
G01 X-3.28833 Y-2.99892
G01 X-3.28833 Y-3.16433
G01 X-3.28785 Y-3.16453
G01 X-3.28833 Y-3.16433
G01 X-3.33567 Y-3.21166
G01 X-3.33547 Y-3.21214
G01 X-3.33567 Y-3.21166
G01 X-3.33930 Y-3.21166
G01 X-3.34289 Y-3.21309
G01 X-3.34532 Y-3.21386
G01 X-3.36735 Y-3.21379
G01 X-3.35329 Y-3.21376
G01 X-3.35109 Y-3.21534
G01 X-3.34805 Y-3.21796
G01 X-3.33306 Y-3.21796
G01 X-3.28204 Y-3.16694
G01 X-3.28204 Y-2.99578
G01 X-3.28585 Y-2.99287
G01 X-3.28924 Y-2.98977
G01 X-3.29341 Y-2.98519
G01 X-3.29660 Y-2.98084
G01 X-3.29897 Y-2.97690
G01 X-3.30166 Y-2.97132
G01 X-3.30369 Y-2.96547
G01 X-3.30479 Y-2.96101
G01 X-3.30560 Y-2.95567
G01 X-3.30587 Y-2.94949
G01 X-3.30565 Y-2.94489
G01 X-3.30502 Y-2.94028
G01 X-3.36061 Y-2.88470
G01 X-3.36163 Y-2.88608
G01 X-3.36301 Y-2.88757
G01 X-3.36456 Y-2.88887
G01 X-3.36626 Y-2.88998
G01 X-3.36808 Y-2.89087
G01 X-3.37000 Y-2.89153
G01 X-3.37198 Y-2.89195
G01 X-3.37400 Y-2.89212
G01 X-3.42721 Y-2.89205
G01 X-3.43000 Y-2.89153
G01 X-3.43303 Y-2.89036
G01 X-3.43576 Y-2.88863
G01 X-3.43811 Y-2.88639
G01 X-3.43977 Y-2.88409
G01 X-3.44102 Y-2.88154
G01 X-3.44181 Y-2.87882
G01 X-3.44212 Y-2.87600
G01 X-3.44211 Y-2.82360
G01 X-3.44181 Y-2.82118
G01 X-3.44129 Y-2.81922
G01 X-3.44054 Y-2.81734
G01 X-3.43956 Y-2.81556
G01 X-3.43863 Y-2.81424
G01 X-3.43728 Y-2.81272
G01 X-3.43576 Y-2.81137
G01 X-3.43444 Y-2.81044
G01 X-3.43116 Y-2.80884
G01 X-3.42761 Y-2.80800
G01 X-3.42559 Y-2.80787
G01 X-3.37319 Y-2.80792
G01 X-3.37079 Y-2.80828
G01 X-3.36884 Y-2.80884
G01 X-3.36697 Y-2.80964
G01 X-3.36489 Y-2.81089
G01 X-3.36330 Y-2.81216
G01 X-3.36163 Y-2.81392
G01 X-3.36023 Y-2.81591
G01 X-3.35918 Y-2.81796
G01 X-3.34959 Y-2.81797
G01 X-3.34415 Y-2.81851
G01 X-3.33812 Y-2.82025
G01 X-3.33359 Y-2.82253
G01 X-3.33121 Y-2.82408
G01 X-3.32735 Y-2.82735
G01 X-3.25972 Y-2.89497
G01 X-3.25427 Y-2.89428
G01 X-3.24833 Y-2.89415
G01 X-3.24362 Y-2.89448
G01 X-3.23896 Y-2.89523
G01 X-3.23360 Y-2.89659
G01 X-3.22775 Y-2.89873
G01 X-3.22280 Y-2.90118
G01 X-3.21810 Y-2.90411
G01 X-3.21312 Y-2.90803
G01 X-3.20978 Y-2.91120
G01 X-3.20616 Y-2.91534
G01 X-3.20344 Y-2.92463
G01 X-3.20198 Y-2.93144
G01 X-3.20078 Y-2.94010
G01 X-3.20037 Y-2.94631
G01 X-3.20031 Y-2.95004
G01 X-3.20042 Y-2.95013
G01 X-3.20672 Y-2.95036
G01 X-3.20700 Y-2.95491
G01 X-3.20759 Y-2.95866
G01 X-3.20863 Y-2.96271
G01 X-3.21000 Y-2.96654
G01 X-3.21173 Y-2.97023
G01 X-3.21407 Y-2.97414
G01 X-3.21657 Y-2.97749
G01 X-3.21910 Y-2.98031
G01 X-3.22217 Y-2.98315
G01 X-3.22581 Y-2.98590
G01 X-3.23056 Y-2.98863
G01 X-3.23056 Y-3.18021
G01 X-3.23094 Y-3.18400
G01 X-3.23191 Y-3.18729
G01 X-3.23384 Y-3.19101
G01 X-3.23625 Y-3.19395
G01 X-3.30604 Y-3.26374
G01 X-3.30899 Y-3.26616
G01 X-3.31235 Y-3.26796
G01 X-3.31599 Y-3.26906
G01 X-3.31979 Y-3.26944
G01 X-3.35359 Y-3.26944
G01 X-3.35601 Y-3.27220
G01 X-3.35823 Y-3.27423
G01 X-3.36063 Y-3.27604
G01 X-3.36320 Y-3.27761
G01 X-3.36590 Y-3.27893
G01 X-3.36908 Y-3.28010
G01 X-3.37206 Y-3.28086
G01 X-3.37516 Y-3.28133
G01 X-3.37812 Y-3.28150
G01 X-3.42201 Y-3.28149
G01 X-3.42525 Y-3.28128
G01 X-3.42843 Y-3.28075
G01 X-3.43115 Y-3.28003
G01 X-3.43347 Y-3.27919
G01 X-3.43634 Y-3.27786
G01 X-3.43847 Y-3.27663
G01 X-3.44078 Y-3.27502
G01 X-3.44294 Y-3.27321
G01 X-3.44523 Y-3.27087
G01 X-3.44795 Y-3.26732
G01 X-3.45017 Y-3.26336
G01 X-3.45177 Y-3.25918
G01 X-3.45269 Y-3.25531
G01 X-3.45313 Y-3.25080
G01 X-3.45293 Y-3.24632
G01 X-3.45207 Y-3.24187
G01 X-3.45036 Y-3.23706
G01 X-3.44823 Y-3.23312
G01 X-3.44553 Y-3.22947
G01 X-3.44233 Y-3.22626
G01 X-3.43876 Y-3.22356
G01 X-3.43484 Y-3.22140
G01 X-3.43113 Y-3.21997
G01 X-3.42615 Y-3.21884
G01 X-3.42188 Y-3.21850
G01 X-3.37798 Y-3.21851
G01 X-3.37463 Y-3.21873
G01 X-3.37126 Y-3.21932
G01 X-3.36767 Y-3.22037
G01 X-3.36460 Y-3.22167
G01 X-3.36169 Y-3.22327
G01 X-3.35896 Y-3.22518
G01 X-3.35645 Y-3.22736
G01 X-3.35361 Y-3.23056
G01 X-3.32784 Y-3.23056
G01 X-3.26944 Y-3.17216
G01 X-3.26944 Y-2.98863
G01 X-3.27104 Y-2.98782
G01 X-3.27459 Y-2.98562
G01 X-3.27791 Y-2.98308
G01 X-3.28097 Y-2.98023
G01 X-3.28374 Y-2.97711
G01 X-3.28620 Y-2.97373
G01 X-3.28832 Y-2.97013
G01 X-3.28994 Y-2.96669
G01 X-3.29136 Y-2.96276
G01 X-3.29240 Y-2.95871
G01 X-3.29304 Y-2.95458
G01 X-3.29328 Y-2.95041
G01 X-3.29312 Y-2.94623
G01 X-3.29255 Y-2.94209
G01 X-3.29159 Y-2.93803
G01 X-3.29106 Y-2.93643
G01 X-3.35805 Y-2.86944
G01 X-3.37047 Y-2.86944
G01 X-3.37047 Y-2.87559
G01 X-3.37066 Y-2.87681
G01 X-3.37100 Y-2.87756
G01 X-3.37177 Y-2.87852
G01 X-3.37281 Y-2.87919
G01 X-3.37400 Y-2.87950
G01 X-3.42559 Y-2.87953
G01 X-3.42719 Y-2.87919
G01 X-3.42822 Y-2.87852
G01 X-3.42919 Y-2.87719
G01 X-3.42953 Y-2.87559
G01 X-3.42953 Y-2.82441
G01 X-3.42933 Y-2.82319
G01 X-3.42877 Y-2.82210
G01 X-3.42756 Y-2.82100
G01 X-3.42641 Y-2.82056
G01 X-3.42559 Y-2.82047
G01 X-3.37400 Y-2.82049
G01 X-3.37281 Y-2.82081
G01 X-3.37177 Y-2.82148
G01 X-3.37100 Y-2.82244
G01 X-3.37066 Y-2.82319
G01 X-3.37047 Y-2.82441
G01 X-3.37047 Y-2.83056
G01 X-3.35000 Y-2.83056
G01 X-3.34659 Y-2.83088
G01 X-3.34256 Y-2.83204
G01 X-3.33953 Y-2.83364
G01 X-3.33625 Y-2.83625
G01 X-3.26357 Y-2.90894
G01 X-3.26186 Y-2.90837
G01 X-3.25807 Y-2.90748
G01 X-3.25343 Y-2.90685
G01 X-3.24914 Y-2.90672
G01 X-3.24487 Y-2.90702
G01 X-3.24102 Y-2.90766
G01 X-3.23651 Y-2.90887
G01 X-3.23295 Y-2.91021
G01 X-3.22910 Y-2.91209
G01 X-3.22513 Y-2.91457
G01 X-3.22175 Y-2.91720
G01 X-3.21872 Y-2.92008
G01 X-3.21591 Y-2.92333
G01 X-3.21344 Y-2.92683
G01 X-3.21133 Y-2.93056
G01 X-3.20959 Y-2.93448
G01 X-3.20829 Y-2.93845
G01 X-3.20739 Y-2.94242
G01 X-3.20689 Y-2.94618
G01 X-3.20672 Y-2.95036
G04 P0 ( dwell for no time -- G64 should not smooth over this point )
G00 Z0.08000 ( retract )

G00 X-3.12981 Y-3.21762 ( rapid move to begin. )
G01 F180.00000
( Mill infeed pass 1/1 )
G01 Z-0.04000
G04 P0 ( dwell for no time -- G64 should not smooth over this point )
G01 F360.00000
G01 X-3.12981 Y-3.21762
G01 X-3.12981 Y-2.81071
G01 X-3.13027 Y-2.80504
G01 X-3.13098 Y-2.80145
G01 X-3.13223 Y-2.79738
G01 X-3.13314 Y-2.79511
G01 X-3.13616 Y-2.78958
G01 X-3.13978 Y-2.78498
G01 X-3.18360 Y-2.74104
G01 X-3.18793 Y-2.73735
G01 X-3.19134 Y-2.73512
G01 X-3.19474 Y-2.73332
G01 X-3.19738 Y-2.73223
G01 X-3.20343 Y-2.73051
G01 X-3.21034 Y-2.72982
G01 X-3.55707 Y-2.72981
G01 X-3.55727 Y-2.73029
G01 X-3.55707 Y-2.72981
G01 X-3.67238 Y-2.61450
G01 X-3.67890 Y-2.61022
G01 X-3.68374 Y-2.60665
G01 X-3.69697 Y-2.59562
G01 X-3.70595 Y-2.58880
G01 X-3.70903 Y-2.58817
G01 X-3.71361 Y-2.58771
G01 X-3.72327 Y-2.58766
G01 X-3.72510 Y-2.58949
G01 X-3.72327 Y-2.58766
G01 X-3.72327 Y-2.55710
G01 X-3.72344 Y-2.55429
G01 X-3.72386 Y-2.55191
G01 X-3.72441 Y-2.54997
G01 X-3.72528 Y-2.54771
G01 X-3.72619 Y-2.54592
G01 X-3.72846 Y-2.54259
G01 X-3.72981 Y-2.54110
G01 X-3.73159 Y-2.53946
G01 X-3.73457 Y-2.53739
G01 X-3.73783 Y-2.53581
G01 X-3.74130 Y-2.53477
G01 X-3.74529 Y-2.53428
G01 X-3.85252 Y-2.53426
G01 X-3.85272 Y-2.53474
G01 X-3.85252 Y-2.53426
G01 X-3.90599 Y-2.48079
G01 X-3.90827 Y-2.47879
G01 X-3.90875 Y-2.47899
G01 X-3.90827 Y-2.47879
G01 X-3.90827 Y-2.44629
G01 X-3.91325 Y-2.44130
G01 X-3.91798 Y-2.43716
G01 X-3.92250 Y-2.43434
G01 X-3.92686 Y-2.43270
G01 X-3.93130 Y-2.43215
G01 X-4.06870 Y-2.43215
G01 X-4.07314 Y-2.43270
G01 X-4.07750 Y-2.43434
G01 X-4.08202 Y-2.43716
G01 X-4.08675 Y-2.44130
G01 X-4.09173 Y-2.44629
G01 X-4.09172 Y-2.57761
G01 X-4.09131 Y-2.58121
G01 X-4.09046 Y-2.58431
G01 X-4.08919 Y-2.58727
G01 X-4.08728 Y-2.59035
G01 X-4.08574 Y-2.59222
G01 X-4.08402 Y-2.59391
G01 X-4.08179 Y-2.59565
G01 X-4.07973 Y-2.59690
G01 X-4.07717 Y-2.59808
G01 X-4.07487 Y-2.59884
G01 X-4.07251 Y-2.59935
G01 X-4.07011 Y-2.59960
G01 X-3.92989 Y-2.59960
G01 X-3.92591 Y-2.59904
G01 X-3.92208 Y-2.59778
G01 X-3.91854 Y-2.59587
G01 X-3.91539 Y-2.59337
G01 X-3.91372 Y-2.59161
G01 X-3.91225 Y-2.58969
G01 X-3.91100 Y-2.58763
G01 X-3.90997 Y-2.58544
G01 X-3.91043 Y-2.58131
G01 X-3.90991 Y-2.58530
G01 X-3.90673 Y-2.58848
G01 X-3.90625 Y-2.58828
G01 X-3.90673 Y-2.58848
G01 X-3.90673 Y-2.66040
G01 X-3.90582 Y-2.66300
G01 X-3.90436 Y-2.67481
G01 X-3.90435 Y-2.69470
G01 X-3.90294 Y-2.70594
G01 X-3.90174 Y-2.70915
G01 X-3.89990 Y-2.71119
G01 X-3.89679 Y-2.71374
G01 X-3.89508 Y-2.71481
G01 X-3.89292 Y-2.71588
G01 X-3.89065 Y-2.71671
G01 X-3.88870 Y-2.71722
G01 X-3.88631 Y-2.71761
G01 X-3.88390 Y-2.71773
G01 X-3.74570 Y-2.71773
G01 X-3.74249 Y-2.71745
G01 X-3.73897 Y-2.71659
G01 X-3.73635 Y-2.71555
G01 X-3.73388 Y-2.71419
G01 X-3.73159 Y-2.71253
G01 X-3.72926 Y-2.71032
G01 X-3.72725 Y-2.70779
G01 X-3.72581 Y-2.70537
G01 X-3.72467 Y-2.70279
G01 X-3.72377 Y-2.69970
G01 X-3.72344 Y-2.69771
G01 X-3.72327 Y-2.69530
G01 X-3.72327 Y-2.67205
G01 X-3.72714 Y-2.66268
G01 X-3.72327 Y-2.67205
G01 X-3.59979 Y-2.79552
G01 X-3.59573 Y-2.79894
G01 X-3.59373 Y-2.80036
G01 X-3.58892 Y-2.80298
G01 X-3.58590 Y-2.80420
G01 X-3.58023 Y-2.80579
G01 X-3.57407 Y-2.80646
G01 X-3.53098 Y-2.80648
G01 X-3.52654 Y-2.80505
G01 X-3.52120 Y-2.80362
G01 X-3.51367 Y-2.80210
G01 X-3.50580 Y-2.80117
G01 X-3.50075 Y-2.80091
G01 X-3.49588 Y-2.80091
G01 X-3.48862 Y-2.80139
G01 X-3.48086 Y-2.80249
G01 X-3.47317 Y-2.80424
G01 X-3.46584 Y-2.80648
G01 X-3.44755 Y-2.80648
G01 X-3.44097 Y-2.80357
G01 X-3.43369 Y-2.80161
G01 X-3.42587 Y-2.80089
G01 X-3.37441 Y-2.80088
G01 X-3.36316 Y-2.80230
G01 X-3.35356 Y-2.80592
G01 X-3.34735 Y-2.80599
G01 X-3.34078 Y-2.80648
G01 X-3.22659 Y-2.80648
G01 X-3.22639 Y-2.80600
G01 X-3.22659 Y-2.80648
G01 X-3.20648 Y-2.82659
G01 X-3.20600 Y-2.82639
G01 X-3.20648 Y-2.82659
G01 X-3.20648 Y-2.89795
G01 X-3.20330 Y-2.90505
G01 X-3.20090 Y-2.91127
G01 X-3.19893 Y-2.91728
G01 X-3.19733 Y-2.92312
G01 X-3.19576 Y-2.93039
G01 X-3.19495 Y-2.93565
G01 X-3.19439 Y-2.94082
G01 X-3.19399 Y-2.95004
G01 X-3.19421 Y-2.95662
G01 X-3.19467 Y-2.96200
G01 X-3.19538 Y-2.96735
G01 X-3.19721 Y-2.97644
G01 X-3.19871 Y-2.98199
G01 X-3.20053 Y-2.98770
G01 X-3.20275 Y-2.99360
G01 X-3.20592 Y-3.00089
G01 X-3.20592 Y-3.18021
G01 X-3.20614 Y-3.18589
G01 X-3.20648 Y-3.18943
G01 X-3.20648 Y-3.20174
G01 X-3.20604 Y-3.20193
G01 X-3.20648 Y-3.20174
G01 X-3.32335 Y-3.31861
G01 X-3.32541 Y-3.32493
G01 X-3.32849 Y-3.33264
G01 X-3.33065 Y-3.33714
G01 X-3.33381 Y-3.34291
G01 X-3.33774 Y-3.34891
G01 X-3.34128 Y-3.35359
G01 X-3.34615 Y-3.35904
G01 X-3.35025 Y-3.36302
G01 X-3.35593 Y-3.36770
G01 X-3.36081 Y-3.37108
G01 X-3.36073 Y-3.37127
G01 X-3.36081 Y-3.37108
G01 X-3.36505 Y-3.37190
G01 X-3.36948 Y-3.37249
G01 X-3.37349 Y-3.37281
G01 X-3.37802 Y-3.37295
G01 X-3.42216 Y-3.37295
G01 X-3.42828 Y-3.37268
G01 X-3.43662 Y-3.37162
G01 X-3.44189 Y-3.37053
G01 X-3.44732 Y-3.36907
G01 X-3.45335 Y-3.36704
G01 X-3.67310 Y-3.36700
G01 X-3.67943 Y-3.36657
G01 X-3.68417 Y-3.36591
G01 X-3.71497 Y-3.36046
G01 X-3.72265 Y-3.36046
G01 X-3.72990 Y-3.36186
G01 X-3.73691 Y-3.36281
G01 X-3.74376 Y-3.36333
G01 X-3.75068 Y-3.36349
G01 X-3.75728 Y-3.36328
G01 X-3.76319 Y-3.36279
G01 X-3.76892 Y-3.36205
G01 X-3.77733 Y-3.36046
G01 X-3.80386 Y-3.36046
G01 X-3.81217 Y-3.36289
G01 X-3.80830 Y-3.36676
G01 X-3.80850 Y-3.36724
G01 X-3.80830 Y-3.36676
G01 X-3.67724 Y-3.36676
G01 X-3.67126 Y-3.36704
G01 X-3.45335 Y-3.36704
G01 X-3.44732 Y-3.36907
G01 X-3.44189 Y-3.37053
G01 X-3.43662 Y-3.37162
G01 X-3.42828 Y-3.37268
G01 X-3.42216 Y-3.37295
G01 X-3.37802 Y-3.37295
G01 X-3.37349 Y-3.37281
G01 X-3.36948 Y-3.37249
G01 X-3.36505 Y-3.37190
G01 X-3.36081 Y-3.37108
G01 X-3.35587 Y-3.36765
G01 X-3.35026 Y-3.36301
G01 X-3.34712 Y-3.36002
G01 X-3.34413 Y-3.35688
G01 X-3.34124 Y-3.35352
G01 X-3.33778 Y-3.34897
G01 X-3.33531 Y-3.34531
G01 X-3.33294 Y-3.34139
G01 X-3.33065 Y-3.33714
G01 X-3.32852 Y-3.33269
G01 X-3.20018 Y-3.20435
G01 X-3.19970 Y-3.20455
G01 X-3.20018 Y-3.20435
G01 X-3.20018 Y-2.98661
G01 X-3.19871 Y-2.98199
G01 X-3.19721 Y-2.97644
G01 X-3.19539 Y-2.96735
G01 X-3.19451 Y-2.96049
G01 X-3.19413 Y-2.95522
G01 X-3.19401 Y-2.95004
G01 X-3.19439 Y-2.94082
G01 X-3.19495 Y-2.93565
G01 X-3.19577 Y-2.93039
G01 X-3.19735 Y-2.92304
G01 X-3.19840 Y-2.91907
G01 X-3.20018 Y-2.91335
G01 X-3.20018 Y-2.82398
G01 X-3.19970 Y-2.82378
G01 X-3.20018 Y-2.82398
G01 X-3.22398 Y-2.80018
G01 X-3.22378 Y-2.79970
G01 X-3.22398 Y-2.80018
G01 X-3.57295 Y-2.80018
G01 X-3.57880 Y-2.79964
G01 X-3.58368 Y-2.79829
G01 X-3.58632 Y-2.79724
G01 X-3.59041 Y-2.79501
G01 X-3.59531 Y-2.79108
G01 X-3.72837 Y-2.65803
G01 X-3.72817 Y-2.65755
G01 X-3.72837 Y-2.65803
G01 X-3.72956 Y-2.65803
G01 X-3.73141 Y-2.65619
G01 X-3.72956 Y-2.65803
G01 X-3.72956 Y-2.69490
G01 X-3.72981 Y-2.69773
G01 X-3.73028 Y-2.69970
G01 X-3.73115 Y-2.70197
G01 X-3.73213 Y-2.70375
G01 X-3.73358 Y-2.70570
G01 X-3.73530 Y-2.70742
G01 X-3.73691 Y-2.70865
G01 X-3.73867 Y-2.70967
G01 X-3.74091 Y-2.71060
G01 X-3.74367 Y-2.71126
G01 X-3.74610 Y-2.71143
G01 X-3.88390 Y-2.71143
G01 X-3.88592 Y-2.71131
G01 X-3.88752 Y-2.71103
G01 X-3.89060 Y-2.71002
G01 X-3.89275 Y-2.70887
G01 X-3.89439 Y-2.70768
G01 X-3.89615 Y-2.70600
G01 X-3.89742 Y-2.70442
G01 X-3.89867 Y-2.70233
G01 X-3.89947 Y-2.70047
G01 X-3.90003 Y-2.69852
G01 X-3.90039 Y-2.69612
G01 X-3.90043 Y-2.58587
G01 X-3.89996 Y-2.58567
G01 X-3.90043 Y-2.58587
G01 X-3.91456 Y-2.57174
G01 X-3.91801 Y-2.56295
G01 X-3.91456 Y-2.57174
G01 X-3.91464 Y-2.57842
G01 X-3.91497 Y-2.58042
G01 X-3.91553 Y-2.58237
G01 X-3.91633 Y-2.58423
G01 X-3.91758 Y-2.58632
G01 X-3.91885 Y-2.58790
G01 X-3.92061 Y-2.58958
G01 X-3.92225 Y-2.59077
G01 X-3.92440 Y-2.59192
G01 X-3.92669 Y-2.59274
G01 X-3.92867 Y-2.59316
G01 X-3.93110 Y-2.59334
G01 X-4.06971 Y-2.59332
G01 X-4.07331 Y-2.59274
G01 X-4.07523 Y-2.59208
G01 X-4.07705 Y-2.59119
G01 X-4.07875 Y-2.59008
G01 X-4.08030 Y-2.58878
G01 X-4.08265 Y-2.58599
G01 X-4.08385 Y-2.58387
G01 X-4.08472 Y-2.58160
G01 X-4.08526 Y-2.57923
G01 X-4.08543 Y-2.57721
G01 X-4.08544 Y-2.44015
G01 X-4.08202 Y-2.43716
G01 X-4.07750 Y-2.43434
G01 X-4.07314 Y-2.43270
G01 X-4.06870 Y-2.43215
G01 X-3.93130 Y-2.43215
G01 X-3.92686 Y-2.43270
G01 X-3.92250 Y-2.43434
G01 X-3.91798 Y-2.43716
G01 X-3.91456 Y-2.44015
G01 X-3.91456 Y-2.48179
G01 X-3.91515 Y-2.48206
G01 X-3.91456 Y-2.48179
G01 X-3.91045 Y-2.48525
G01 X-3.85513 Y-2.54056
G01 X-3.85533 Y-2.54104
G01 X-3.85513 Y-2.54056
G01 X-3.74569 Y-2.54057
G01 X-3.74367 Y-2.54074
G01 X-3.74169 Y-2.54116
G01 X-3.73977 Y-2.54182
G01 X-3.73760 Y-2.54292
G01 X-3.73593 Y-2.54406
G01 X-3.73441 Y-2.54541
G01 X-3.73213 Y-2.54825
G01 X-3.73053 Y-2.55153
G01 X-3.72969 Y-2.55507
G01 X-3.72956 Y-2.55710
G01 X-3.72956 Y-2.59396
G01 X-3.73139 Y-2.59580
G01 X-3.72956 Y-2.59396
G01 X-3.71469 Y-2.59397
G01 X-3.70925 Y-2.59450
G01 X-3.70398 Y-2.59598
G01 X-3.70173 Y-2.59691
G01 X-3.69730 Y-2.59936
G01 X-3.69365 Y-2.60226
G01 X-3.55968 Y-2.73611
G01 X-3.55988 Y-2.73659
G01 X-3.55968 Y-2.73611
G01 X-3.21030 Y-2.73612
G01 X-3.20446 Y-2.73673
G01 X-3.19883 Y-2.73840
G01 X-3.19325 Y-2.74129
G01 X-3.18926 Y-2.74441
G01 X-3.14467 Y-2.78895
G01 X-3.14151 Y-2.79291
G01 X-3.13888 Y-2.79771
G01 X-3.13813 Y-2.79959
G01 X-3.13712 Y-2.80289
G01 X-3.13653 Y-2.80566
G01 X-3.13611 Y-2.81071
G01 X-3.13611 Y-3.21762
G01 X-3.13673 Y-3.22387
G01 X-3.13855 Y-3.22988
G01 X-3.14151 Y-3.23542
G01 X-3.14550 Y-3.24027
G01 X-3.32696 Y-3.42173
G01 X-3.33153 Y-3.42543
G01 X-3.33596 Y-3.42789
G01 X-3.33859 Y-3.42894
G01 X-3.34189 Y-3.42994
G01 X-3.34388 Y-3.43036
G01 X-3.34933 Y-3.43083
G01 X-3.82157 Y-3.43083
G01 X-3.82621 Y-3.43046
G01 X-3.82900 Y-3.42994
G01 X-3.83269 Y-3.42882
G01 X-3.83457 Y-3.42807
G01 X-3.83937 Y-3.42543
G01 X-3.84302 Y-3.42254
G01 X-3.87265 Y-3.39302
G01 X-3.87592 Y-3.38915
G01 X-3.87727 Y-3.38713
G01 X-3.87960 Y-3.38263
G01 X-3.88114 Y-3.37780
G01 X-3.88161 Y-3.37542
G01 X-3.88203 Y-3.37078
G01 X-3.88204 Y-3.35590
G01 X-3.88031 Y-3.35415
G01 X-3.88204 Y-3.35590
G01 X-3.88781 Y-3.35590
G01 X-3.89063 Y-3.35559
G01 X-3.89335 Y-3.35480
G01 X-3.89555 Y-3.35376
G01 X-3.89789 Y-3.35215
G01 X-3.89965 Y-3.35047
G01 X-3.90115 Y-3.34856
G01 X-3.90235 Y-3.34644
G01 X-3.90334 Y-3.34378
G01 X-3.90381 Y-3.34139
G01 X-3.90394 Y-3.33203
G01 X-3.90224 Y-3.33027
G01 X-3.90394 Y-3.33203
G01 X-3.99606 Y-3.33203
G01 X-3.99783 Y-3.33023
G01 X-3.99606 Y-3.33203
G01 X-3.99619 Y-3.34139
G01 X-3.99677 Y-3.34417
G01 X-3.99783 Y-3.34680
G01 X-3.99885 Y-3.34856
G01 X-4.00008 Y-3.35017
G01 X-4.00149 Y-3.35162
G01 X-4.00308 Y-3.35289
G01 X-4.00480 Y-3.35395
G01 X-4.00665 Y-3.35480
G01 X-4.00858 Y-3.35541
G01 X-4.01057 Y-3.35578
G01 X-4.01260 Y-3.35590
G01 X-4.08821 Y-3.35588
G01 X-4.09102 Y-3.35550
G01 X-4.09335 Y-3.35480
G01 X-4.09555 Y-3.35376
G01 X-4.09789 Y-3.35215
G01 X-4.10044 Y-3.34954
G01 X-4.10158 Y-3.34787
G01 X-4.10252 Y-3.34607
G01 X-4.10322 Y-3.34417
G01 X-4.10369 Y-3.34220
G01 X-4.10392 Y-3.34018
G01 X-4.10394 Y-3.33817
G01 X-4.10145 Y-3.33077
G01 X-4.09968 Y-3.32412
G01 X-4.09839 Y-3.31782
G01 X-4.09764 Y-3.31266
G01 X-4.09709 Y-3.30694
G01 X-4.09685 Y-3.30063
G01 X-4.09696 Y-3.29546
G01 X-4.09764 Y-3.28744
G01 X-4.09764 Y-3.26063
G01 X-4.09751 Y-3.25903
G01 X-4.09686 Y-3.25671
G01 X-4.09544 Y-3.25429
G01 X-4.09342 Y-3.25235
G01 X-4.09094 Y-3.25103
G01 X-4.08900 Y-3.25052
G01 X-4.08740 Y-3.25039
G01 X-4.01260 Y-3.25039
G01 X-4.00982 Y-3.25078
G01 X-4.00725 Y-3.25190
G01 X-4.00508 Y-3.25368
G01 X-4.00348 Y-3.25598
G01 X-4.00256 Y-3.25863
G01 X-4.00236 Y-3.26063
G01 X-4.00236 Y-3.27426
G01 X-4.00420 Y-3.27611
G01 X-4.00236 Y-3.27426
G01 X-3.89764 Y-3.27426
G01 X-3.89580 Y-3.27611
G01 X-3.89764 Y-3.27426
G01 X-3.89764 Y-3.26063
G01 X-3.89744 Y-3.25863
G01 X-3.89652 Y-3.25598
G01 X-3.89492 Y-3.25368
G01 X-3.89309 Y-3.25212
G01 X-3.89056 Y-3.25089
G01 X-3.88900 Y-3.25052
G01 X-3.88740 Y-3.25039
G01 X-3.81220 Y-3.25040
G01 X-3.81021 Y-3.25068
G01 X-3.80868 Y-3.25117
G01 X-3.80691 Y-3.25212
G01 X-3.80565 Y-3.25311
G01 X-3.80456 Y-3.25429
G01 X-3.80348 Y-3.25598
G01 X-3.80275 Y-3.25785
G01 X-3.80243 Y-3.25943
G01 X-3.80236 Y-3.28745
G01 X-3.80298 Y-3.29414
G01 X-3.80315 Y-3.30045
G01 X-3.80301 Y-3.30534
G01 X-3.80236 Y-3.31259
G01 X-3.80236 Y-3.33937
G01 X-3.80249 Y-3.34097
G01 X-3.80286 Y-3.34253
G01 X-3.80348 Y-3.34402
G01 X-3.80508 Y-3.34632
G01 X-3.80725 Y-3.34810
G01 X-3.80982 Y-3.34922
G01 X-3.81220 Y-3.34960
G01 X-3.82426 Y-3.34961
G01 X-3.82606 Y-3.34784
G01 X-3.82426 Y-3.34961
G01 X-3.82426 Y-3.35971
G01 X-3.82474 Y-3.35991
G01 X-3.82426 Y-3.35971
G01 X-3.81091 Y-3.37306
G01 X-3.81111 Y-3.37354
G01 X-3.81091 Y-3.37306
G01 X-3.35999 Y-3.37306
G01 X-3.35979 Y-3.37354
G01 X-3.35999 Y-3.37306
G01 X-3.19388 Y-3.20696
G01 X-3.19340 Y-3.20716
G01 X-3.19388 Y-3.20696
G01 X-3.19388 Y-2.82137
G01 X-3.19340 Y-2.82117
G01 X-3.19388 Y-2.82137
G01 X-3.22137 Y-2.79388
G01 X-3.22117 Y-2.79340
G01 X-3.22137 Y-2.79388
G01 X-3.57295 Y-2.79388
G01 X-3.57738 Y-2.79349
G01 X-3.57895 Y-2.79315
G01 X-3.58261 Y-2.79200
G01 X-3.58639 Y-2.79006
G01 X-3.58774 Y-2.78920
G01 X-3.59115 Y-2.78635
G01 X-3.72576 Y-2.65174
G01 X-3.72556 Y-2.65126
G01 X-3.72576 Y-2.65174
G01 X-3.73586 Y-2.65174
G01 X-3.73770 Y-2.64989
G01 X-3.73586 Y-2.65174
G01 X-3.73590 Y-2.69570
G01 X-3.73615 Y-2.69729
G01 X-3.73664 Y-2.69882
G01 X-3.73806 Y-2.70124
G01 X-3.74008 Y-2.70318
G01 X-3.74145 Y-2.70402
G01 X-3.74294 Y-2.70464
G01 X-3.74450 Y-2.70501
G01 X-3.74610 Y-2.70514
G01 X-3.88390 Y-2.70514
G01 X-3.88590 Y-2.70494
G01 X-3.88782 Y-2.70436
G01 X-3.89024 Y-2.70294
G01 X-3.89142 Y-2.70185
G01 X-3.89241 Y-2.70059
G01 X-3.89364 Y-2.69806
G01 X-3.89413 Y-2.69530
G01 X-3.89414 Y-2.58326
G01 X-3.89366 Y-2.58306
G01 X-3.89414 Y-2.58326
G01 X-3.92086 Y-2.55653
G01 X-3.92455 Y-2.54741
G01 X-3.92086 Y-2.55653
G01 X-3.92093 Y-2.57800
G01 X-3.92125 Y-2.57958
G01 X-3.92180 Y-2.58108
G01 X-3.92259 Y-2.58249
G01 X-3.92358 Y-2.58375
G01 X-3.92476 Y-2.58484
G01 X-3.92610 Y-2.58573
G01 X-3.92871 Y-2.58675
G01 X-3.93110 Y-2.58704
G01 X-4.06930 Y-2.58703
G01 X-4.07168 Y-2.58665
G01 X-4.07390 Y-2.58573
G01 X-4.07585 Y-2.58432
G01 X-4.07741 Y-2.58249
G01 X-4.07864 Y-2.57996
G01 X-4.07901 Y-2.57840
G01 X-4.07914 Y-2.57680
G01 X-4.07913 Y-2.43860
G01 X-4.07885 Y-2.43661
G01 X-4.07823 Y-2.43479
G01 X-4.07750 Y-2.43434
G01 X-4.07314 Y-2.43270
G01 X-4.06870 Y-2.43215
G01 X-3.93130 Y-2.43215
G01 X-3.92686 Y-2.43270
G01 X-3.92250 Y-2.43434
G01 X-3.92177 Y-2.43480
G01 X-3.92150 Y-2.43546
G01 X-3.92099 Y-2.43740
G01 X-3.92086 Y-2.43900
G01 X-3.92086 Y-2.48534
G01 X-3.92155 Y-2.48569
G01 X-3.92086 Y-2.48534
G01 X-3.91931 Y-2.48618
G01 X-3.91799 Y-2.48710
G01 X-3.91490 Y-2.48970
G01 X-3.85774 Y-2.54686
G01 X-3.85794 Y-2.54734
G01 X-3.85774 Y-2.54686
G01 X-3.74610 Y-2.54686
G01 X-3.74450 Y-2.54699
G01 X-3.74294 Y-2.54736
G01 X-3.74041 Y-2.54859
G01 X-3.73858 Y-2.55015
G01 X-3.73717 Y-2.55210
G01 X-3.73625 Y-2.55432
G01 X-3.73587 Y-2.55670
G01 X-3.73586 Y-2.60026
G01 X-3.73767 Y-2.60204
G01 X-3.73586 Y-2.60026
G01 X-3.71410 Y-2.60031
G01 X-3.70988 Y-2.60080
G01 X-3.70581 Y-2.60201
G01 X-3.70166 Y-2.60408
G01 X-3.69999 Y-2.60520
G01 X-3.69690 Y-2.60780
G01 X-3.56229 Y-2.74241
G01 X-3.56249 Y-2.74289
G01 X-3.56229 Y-2.74241
G01 X-3.21071 Y-2.74241
G01 X-3.20589 Y-2.74287
G01 X-3.20105 Y-2.74430
G01 X-3.19658 Y-2.74664
G01 X-3.19326 Y-2.74928
G01 X-3.14960 Y-2.79288
G01 X-3.14686 Y-2.79625
G01 X-3.14462 Y-2.80031
G01 X-3.14315 Y-2.80471
G01 X-3.14276 Y-2.80668
G01 X-3.14241 Y-2.81071
G01 X-3.14242 Y-3.21796
G01 X-3.14295 Y-3.22284
G01 X-3.14445 Y-3.22765
G01 X-3.14686 Y-3.23209
G01 X-3.14995 Y-3.23582
G01 X-3.33113 Y-3.41700
G01 X-3.33486 Y-3.42008
G01 X-3.33857 Y-3.42215
G01 X-3.34042 Y-3.42291
G01 X-3.34490 Y-3.42414
G01 X-3.34933 Y-3.42454
G01 X-3.82157 Y-3.42454
G01 X-3.82560 Y-3.42419
G01 X-3.82756 Y-3.42380
G01 X-3.83197 Y-3.42233
G01 X-3.83603 Y-3.42008
G01 X-3.83940 Y-3.41734
G01 X-3.86820 Y-3.38857
G01 X-3.87128 Y-3.38483
G01 X-3.87353 Y-3.38077
G01 X-3.87412 Y-3.37927
G01 X-3.87528 Y-3.37519
G01 X-3.87571 Y-3.37104
G01 X-3.87574 Y-3.34961
G01 X-3.87397 Y-3.34783
G01 X-3.87574 Y-3.34961
G01 X-3.88820 Y-3.34957
G01 X-3.88979 Y-3.34932
G01 X-3.89169 Y-3.34867
G01 X-3.89342 Y-3.34765
G01 X-3.89492 Y-3.34632
G01 X-3.89613 Y-3.34472
G01 X-3.89686 Y-3.34329
G01 X-3.89744 Y-3.34137
G01 X-3.89763 Y-3.33977
G01 X-3.89764 Y-3.32574
G01 X-3.89581 Y-3.32390
G01 X-3.89764 Y-3.32574
G01 X-4.00236 Y-3.32574
G01 X-4.00420 Y-3.32389
G01 X-4.00236 Y-3.32574
G01 X-4.00236 Y-3.33937
G01 X-4.00275 Y-3.34215
G01 X-4.00330 Y-3.34366
G01 X-4.00409 Y-3.34506
G01 X-4.00595 Y-3.34715
G01 X-4.00725 Y-3.34810
G01 X-4.00868 Y-3.34883
G01 X-4.01021 Y-3.34932
G01 X-4.01180 Y-3.34957
G01 X-4.08820 Y-3.34957
G01 X-4.09094 Y-3.34897
G01 X-4.09342 Y-3.34765
G01 X-4.09544 Y-3.34571
G01 X-4.09633 Y-3.34437
G01 X-4.09701 Y-3.34291
G01 X-4.09744 Y-3.34137
G01 X-4.09764 Y-3.33937
G01 X-4.09764 Y-3.31266
G01 X-4.09708 Y-3.30684
G01 X-4.09686 Y-3.30071
G01 X-4.09696 Y-3.29546
G01 X-4.09730 Y-3.29047
G01 X-4.09811 Y-3.28390
G01 X-4.09909 Y-3.27853
G01 X-4.10138 Y-3.26947
G01 X-4.10394 Y-3.26181
G01 X-4.10392 Y-3.25982
G01 X-4.10362 Y-3.25740
G01 X-4.10297 Y-3.25506
G01 X-4.10198 Y-3.25284
G01 X-4.10068 Y-3.25078
G01 X-4.09909 Y-3.24894
G01 X-4.09725 Y-3.24735
G01 X-4.09520 Y-3.24605
G01 X-4.09297 Y-3.24506
G01 X-4.09023 Y-3.24434
G01 X-4.08740 Y-3.24409
G01 X-4.01260 Y-3.24409
G01 X-4.01057 Y-3.24422
G01 X-4.00858 Y-3.24459
G01 X-4.00665 Y-3.24520
G01 X-4.00480 Y-3.24605
G01 X-4.00180 Y-3.24811
G01 X-4.00035 Y-3.24953
G01 X-3.99908 Y-3.25111
G01 X-3.99732 Y-3.25430
G01 X-3.99656 Y-3.25661
G01 X-3.99614 Y-3.25901
G01 X-3.99606 Y-3.26796
G01 X-3.99781 Y-3.26976
G01 X-3.99606 Y-3.26796
G01 X-3.90394 Y-3.26796
G01 X-3.90214 Y-3.26978
G01 X-3.90394 Y-3.26796
G01 X-3.90386 Y-3.25901
G01 X-3.90344 Y-3.25661
G01 X-3.90268 Y-3.25430
G01 X-3.90092 Y-3.25111
G01 X-3.89851 Y-3.24838
G01 X-3.89692 Y-3.24711
G01 X-3.89520 Y-3.24605
G01 X-3.89181 Y-3.24469
G01 X-3.88943 Y-3.24422
G01 X-3.88740 Y-3.24409
G01 X-3.81179 Y-3.24411
G01 X-3.80898 Y-3.24450
G01 X-3.80627 Y-3.24535
G01 X-3.80375 Y-3.24666
G01 X-3.80149 Y-3.24838
G01 X-3.79956 Y-3.25046
G01 X-3.79801 Y-3.25284
G01 X-3.79703 Y-3.25506
G01 X-3.79631 Y-3.25780
G01 X-3.79608 Y-3.25982
G01 X-3.79606 Y-3.26182
G01 X-3.79808 Y-3.26771
G01 X-3.79966 Y-3.27322
G01 X-3.80092 Y-3.27860
G01 X-3.80187 Y-3.28383
G01 X-3.80270 Y-3.29047
G01 X-3.80304 Y-3.29538
G01 X-3.80314 Y-3.30052
G01 X-3.80301 Y-3.30527
G01 X-3.80266 Y-3.31001
G01 X-3.80149 Y-3.31845
G01 X-3.80048 Y-3.32341
G01 X-3.79924 Y-3.32836
G01 X-3.79773 Y-3.33341
G01 X-3.79606 Y-3.33817
G01 X-3.79611 Y-3.34059
G01 X-3.79638 Y-3.34260
G01 X-3.79690 Y-3.34456
G01 X-3.79765 Y-3.34644
G01 X-3.79863 Y-3.34822
G01 X-3.79982 Y-3.34986
G01 X-3.80120 Y-3.35134
G01 X-3.80275 Y-3.35265
G01 X-3.80445 Y-3.35376
G01 X-3.80627 Y-3.35465
G01 X-3.80819 Y-3.35531
G01 X-3.81017 Y-3.35573
G01 X-3.81219 Y-3.35590
G01 X-3.81796 Y-3.35590
G01 X-3.81974 Y-3.35418
G01 X-3.81796 Y-3.35590
G01 X-3.81796 Y-3.35710
G01 X-3.81844 Y-3.35730
G01 X-3.81796 Y-3.35710
G01 X-3.81217 Y-3.36289
