( pcb2gcode 2.3.0 )
( Software-independent Gcode )

G94 ( Inches per minute feed rate. )
G20 ( Units == INCHES. )

G90 ( Absolute coordinates. )
G00 S12000 ( RPM spindle speed. )
G64 P0.00040 ( set maximum deviation from commanded toolpath )
G01 F360.00000 ( Feedrate. )


G00 Z1.00000 (Retract to tool change height)
T0
M5      (Spindle stop.)
G04 P1.00000 (Wait for spindle to stop)
(MSG, Change tool bit to mill diameter 0.00787in)
M6      (Tool change.)
M0      (Temporary machine stop.)
M3 ( Spindle on clockwise. )
G04 P1.00000 (Wait for spindle to get up to speed)
G04 P0 ( dwell for no time -- G64 should not smooth over this point )
G00 Z0.08000 ( retract )

G00 X-3.18794 Y-2.55239 ( rapid move to begin. )
G01 F180.00000
( Mill infeed pass 1/1 )
G01 Z-0.04000
G04 P0 ( dwell for no time -- G64 should not smooth over this point )
G01 F360.00000
G01 X-3.18794 Y-2.55239
G01 X-3.18794 Y-2.54761
G01 X-3.18880 Y-2.53943
G01 X-3.18979 Y-2.53476
G01 X-3.19233 Y-2.52694
G01 X-3.19428 Y-2.52258
G01 X-3.19839 Y-2.51545
G01 X-3.20119 Y-2.51159
G01 X-3.20670 Y-2.50548
G01 X-3.21025 Y-2.50228
G01 X-3.21690 Y-2.49745
G01 X-3.22104 Y-2.49506
G01 X-3.22855 Y-2.49172
G01 X-3.23309 Y-2.49024
G01 X-3.24114 Y-2.48853
G01 X-3.24589 Y-2.48803
G01 X-3.25411 Y-2.48803
G01 X-3.25886 Y-2.48853
G01 X-3.26691 Y-2.49024
G01 X-3.27145 Y-2.49172
G01 X-3.27896 Y-2.49506
G01 X-3.28310 Y-2.49745
G01 X-3.28975 Y-2.50228
G01 X-3.29330 Y-2.50548
G01 X-3.29865 Y-2.51141
G01 X-3.29844 Y-2.51191
G01 X-3.29865 Y-2.51141
G01 X-3.60135 Y-2.51141
G01 X-3.60156 Y-2.51191
G01 X-3.60135 Y-2.51141
G01 X-3.60670 Y-2.50548
G01 X-3.61025 Y-2.50228
G01 X-3.61690 Y-2.49745
G01 X-3.62104 Y-2.49506
G01 X-3.62855 Y-2.49172
G01 X-3.63309 Y-2.49024
G01 X-3.64114 Y-2.48853
G01 X-3.64589 Y-2.48803
G01 X-3.65411 Y-2.48803
G01 X-3.65741 Y-2.48838
G01 X-3.65761 Y-2.48890
G01 X-3.65741 Y-2.48838
G01 X-3.76939 Y-2.37639
G01 X-3.77105 Y-2.37489
G01 X-3.77340 Y-2.37296
G01 X-3.77712 Y-2.37047
G01 X-3.77980 Y-2.36904
G01 X-3.78394 Y-2.36733
G01 X-3.78685 Y-2.36645
G01 X-3.79124 Y-2.36557
G01 X-3.79650 Y-2.36516
G01 X-4.15350 Y-2.36516
G01 X-4.15876 Y-2.36557
G01 X-4.16315 Y-2.36645
G01 X-4.16606 Y-2.36733
G01 X-4.17019 Y-2.36904
G01 X-4.17287 Y-2.37047
G01 X-4.17660 Y-2.37296
G01 X-4.18060 Y-2.37639
G01 X-4.29259 Y-2.48838
G01 X-4.29238 Y-2.48890
G01 X-4.29259 Y-2.48838
G01 X-4.29589 Y-2.48803
G01 X-4.30411 Y-2.48803
G01 X-4.30886 Y-2.48853
G01 X-4.31691 Y-2.49024
G01 X-4.32145 Y-2.49172
G01 X-4.32896 Y-2.49506
G01 X-4.33310 Y-2.49745
G01 X-4.33975 Y-2.50228
G01 X-4.34330 Y-2.50548
G01 X-4.34865 Y-2.51141
G01 X-4.34844 Y-2.51191
G01 X-4.34865 Y-2.51141
G01 X-4.65135 Y-2.51141
G01 X-4.65156 Y-2.51191
G01 X-4.65135 Y-2.51141
G01 X-4.65670 Y-2.50548
G01 X-4.66025 Y-2.50228
G01 X-4.66690 Y-2.49745
G01 X-4.67104 Y-2.49506
G01 X-4.67855 Y-2.49172
G01 X-4.68309 Y-2.49024
G01 X-4.69114 Y-2.48853
G01 X-4.69589 Y-2.48803
G01 X-4.70411 Y-2.48803
G01 X-4.70886 Y-2.48853
G01 X-4.71691 Y-2.49024
G01 X-4.72145 Y-2.49172
G01 X-4.72896 Y-2.49506
G01 X-4.73310 Y-2.49745
G01 X-4.73975 Y-2.50228
G01 X-4.74330 Y-2.50548
G01 X-4.74880 Y-2.51159
G01 X-4.75161 Y-2.51545
G01 X-4.75572 Y-2.52258
G01 X-4.75767 Y-2.52694
G01 X-4.76021 Y-2.53476
G01 X-4.76120 Y-2.53943
G01 X-4.76206 Y-2.54761
G01 X-4.76206 Y-2.55239
G01 X-4.76120 Y-2.56057
G01 X-4.76021 Y-2.56524
G01 X-4.75767 Y-2.57306
G01 X-4.75572 Y-2.57742
G01 X-4.75161 Y-2.58455
G01 X-4.74880 Y-2.58841
G01 X-4.74330 Y-2.59452
G01 X-4.73975 Y-2.59772
G01 X-4.73310 Y-2.60255
G01 X-4.72896 Y-2.60494
G01 X-4.72145 Y-2.60828
G01 X-4.71691 Y-2.60976
G01 X-4.70886 Y-2.61147
G01 X-4.70411 Y-2.61197
G01 X-4.69589 Y-2.61197
G01 X-4.69114 Y-2.61147
G01 X-4.68309 Y-2.60976
G01 X-4.67855 Y-2.60828
G01 X-4.67104 Y-2.60494
G01 X-4.66690 Y-2.60255
G01 X-4.66025 Y-2.59772
G01 X-4.65670 Y-2.59452
G01 X-4.65135 Y-2.58858
G01 X-4.65156 Y-2.58809
G01 X-4.65135 Y-2.58858
G01 X-4.34865 Y-2.58858
G01 X-4.34844 Y-2.58809
G01 X-4.34865 Y-2.58858
G01 X-4.34330 Y-2.59452
G01 X-4.33975 Y-2.59772
G01 X-4.33310 Y-2.60255
G01 X-4.32896 Y-2.60494
G01 X-4.32145 Y-2.60828
G01 X-4.31691 Y-2.60976
G01 X-4.30886 Y-2.61147
G01 X-4.30411 Y-2.61197
G01 X-4.29589 Y-2.61197
G01 X-4.29114 Y-2.61147
G01 X-4.28309 Y-2.60976
G01 X-4.27855 Y-2.60828
G01 X-4.27387 Y-2.60620
G01 X-4.27385 Y-2.60561
G01 X-4.27387 Y-2.60620
G01 X-4.09173 Y-2.69727
G01 X-4.09079 Y-2.69669
G01 X-4.09173 Y-2.69727
G01 X-4.09173 Y-2.79162
G01 X-4.08544 Y-2.80682
G01 X-4.08544 Y-2.69338
G01 X-4.08449 Y-2.69280
G01 X-4.08544 Y-2.69338
G01 X-4.27372 Y-2.59924
G01 X-4.27370 Y-2.59862
G01 X-4.27372 Y-2.59924
G01 X-4.28111 Y-2.60253
G01 X-4.28440 Y-2.60360
G01 X-4.29245 Y-2.60531
G01 X-4.29589 Y-2.60567
G01 X-4.30411 Y-2.60567
G01 X-4.30755 Y-2.60531
G01 X-4.31560 Y-2.60360
G01 X-4.31888 Y-2.60253
G01 X-4.32640 Y-2.59918
G01 X-4.32939 Y-2.59746
G01 X-4.33605 Y-2.59262
G01 X-4.33862 Y-2.59031
G01 X-4.34412 Y-2.58419
G01 X-4.34550 Y-2.58229
G01 X-4.34523 Y-2.58171
G01 X-4.34550 Y-2.58229
G01 X-4.65450 Y-2.58229
G01 X-4.65473 Y-2.58175
G01 X-4.65450 Y-2.58229
G01 X-4.65588 Y-2.58419
G01 X-4.66138 Y-2.59031
G01 X-4.66395 Y-2.59262
G01 X-4.67061 Y-2.59746
G01 X-4.67360 Y-2.59918
G01 X-4.68111 Y-2.60253
G01 X-4.68440 Y-2.60360
G01 X-4.69245 Y-2.60531
G01 X-4.69589 Y-2.60567
G01 X-4.70411 Y-2.60567
G01 X-4.70755 Y-2.60531
G01 X-4.71560 Y-2.60360
G01 X-4.71889 Y-2.60253
G01 X-4.72640 Y-2.59918
G01 X-4.72939 Y-2.59746
G01 X-4.73605 Y-2.59262
G01 X-4.73862 Y-2.59031
G01 X-4.74412 Y-2.58419
G01 X-4.74615 Y-2.58140
G01 X-4.75027 Y-2.57427
G01 X-4.75167 Y-2.57111
G01 X-4.75422 Y-2.56329
G01 X-4.75493 Y-2.55991
G01 X-4.75579 Y-2.55173
G01 X-4.75579 Y-2.54827
G01 X-4.75493 Y-2.54009
G01 X-4.75422 Y-2.53671
G01 X-4.75167 Y-2.52888
G01 X-4.75027 Y-2.52573
G01 X-4.74615 Y-2.51860
G01 X-4.74412 Y-2.51581
G01 X-4.73862 Y-2.50969
G01 X-4.73605 Y-2.50738
G01 X-4.72939 Y-2.50254
G01 X-4.72640 Y-2.50082
G01 X-4.71889 Y-2.49747
G01 X-4.71560 Y-2.49640
G01 X-4.70755 Y-2.49469
G01 X-4.70411 Y-2.49433
G01 X-4.69589 Y-2.49433
G01 X-4.69245 Y-2.49469
G01 X-4.68440 Y-2.49640
G01 X-4.68111 Y-2.49747
G01 X-4.67360 Y-2.50082
G01 X-4.67061 Y-2.50254
G01 X-4.66395 Y-2.50738
G01 X-4.66138 Y-2.50969
G01 X-4.65588 Y-2.51581
G01 X-4.65450 Y-2.51771
G01 X-4.65473 Y-2.51825
G01 X-4.65450 Y-2.51771
G01 X-4.34550 Y-2.51771
G01 X-4.34526 Y-2.51825
G01 X-4.34550 Y-2.51771
G01 X-4.34412 Y-2.51581
G01 X-4.33862 Y-2.50969
G01 X-4.33605 Y-2.50738
G01 X-4.32939 Y-2.50254
G01 X-4.32640 Y-2.50082
G01 X-4.31888 Y-2.49747
G01 X-4.31560 Y-2.49640
G01 X-4.30755 Y-2.49469
G01 X-4.30411 Y-2.49433
G01 X-4.29589 Y-2.49433
G01 X-4.29245 Y-2.49469
G01 X-4.29043 Y-2.49512
G01 X-4.29019 Y-2.49583
G01 X-4.29043 Y-2.49512
G01 X-4.17615 Y-2.38085
G01 X-4.17260 Y-2.37783
G01 X-4.16990 Y-2.37603
G01 X-4.16723 Y-2.37459
G01 X-4.16423 Y-2.37336
G01 X-4.16132 Y-2.37247
G01 X-4.15814 Y-2.37184
G01 X-4.15350 Y-2.37146
G01 X-3.79650 Y-2.37146
G01 X-3.79185 Y-2.37184
G01 X-3.78868 Y-2.37247
G01 X-3.78577 Y-2.37336
G01 X-3.78277 Y-2.37459
G01 X-3.78009 Y-2.37603
G01 X-3.77740 Y-2.37783
G01 X-3.77385 Y-2.38085
G01 X-3.65957 Y-2.49512
G01 X-3.65981 Y-2.49583
G01 X-3.65957 Y-2.49512
G01 X-3.65755 Y-2.49469
G01 X-3.65411 Y-2.49433
G01 X-3.64589 Y-2.49433
G01 X-3.64245 Y-2.49469
G01 X-3.63440 Y-2.49640
G01 X-3.63111 Y-2.49747
G01 X-3.62360 Y-2.50082
G01 X-3.62060 Y-2.50254
G01 X-3.61395 Y-2.50738
G01 X-3.61138 Y-2.50969
G01 X-3.60588 Y-2.51581
G01 X-3.60450 Y-2.51771
G01 X-3.60473 Y-2.51825
G01 X-3.60450 Y-2.51771
G01 X-3.29550 Y-2.51771
G01 X-3.29526 Y-2.51825
G01 X-3.29550 Y-2.51771
G01 X-3.29412 Y-2.51581
G01 X-3.28862 Y-2.50969
G01 X-3.28605 Y-2.50738
G01 X-3.27939 Y-2.50254
G01 X-3.27640 Y-2.50082
G01 X-3.26889 Y-2.49747
G01 X-3.26560 Y-2.49640
G01 X-3.25755 Y-2.49469
G01 X-3.25411 Y-2.49433
G01 X-3.24589 Y-2.49433
G01 X-3.24245 Y-2.49469
G01 X-3.23440 Y-2.49640
G01 X-3.23111 Y-2.49747
G01 X-3.22360 Y-2.50082
G01 X-3.22060 Y-2.50254
G01 X-3.21395 Y-2.50738
G01 X-3.21138 Y-2.50969
G01 X-3.20588 Y-2.51581
G01 X-3.20384 Y-2.51860
G01 X-3.19973 Y-2.52573
G01 X-3.19833 Y-2.52888
G01 X-3.19578 Y-2.53671
G01 X-3.19507 Y-2.54009
G01 X-3.19421 Y-2.54827
G01 X-3.19421 Y-2.55173
G01 X-3.19507 Y-2.55991
G01 X-3.19578 Y-2.56329
G01 X-3.19833 Y-2.57111
G01 X-3.19973 Y-2.57427
G01 X-3.20384 Y-2.58140
G01 X-3.20588 Y-2.58419
G01 X-3.21138 Y-2.59031
G01 X-3.21395 Y-2.59262
G01 X-3.22060 Y-2.59746
G01 X-3.22360 Y-2.59918
G01 X-3.23111 Y-2.60253
G01 X-3.23440 Y-2.60360
G01 X-3.24245 Y-2.60531
G01 X-3.24589 Y-2.60567
G01 X-3.25411 Y-2.60567
G01 X-3.25755 Y-2.60531
G01 X-3.26560 Y-2.60360
G01 X-3.26889 Y-2.60253
G01 X-3.27640 Y-2.59918
G01 X-3.27939 Y-2.59746
G01 X-3.28605 Y-2.59262
G01 X-3.28862 Y-2.59031
G01 X-3.29412 Y-2.58419
G01 X-3.29550 Y-2.58229
G01 X-3.29526 Y-2.58175
G01 X-3.29550 Y-2.58229
G01 X-3.60450 Y-2.58229
G01 X-3.60473 Y-2.58175
G01 X-3.60450 Y-2.58229
G01 X-3.60588 Y-2.58419
G01 X-3.61138 Y-2.59031
G01 X-3.61395 Y-2.59262
G01 X-3.62060 Y-2.59746
G01 X-3.62360 Y-2.59918
G01 X-3.63111 Y-2.60253
G01 X-3.63440 Y-2.60360
G01 X-3.64245 Y-2.60531
G01 X-3.64589 Y-2.60567
G01 X-3.65411 Y-2.60567
G01 X-3.65755 Y-2.60531
G01 X-3.66560 Y-2.60360
G01 X-3.66888 Y-2.60253
G01 X-3.67640 Y-2.59918
G01 X-3.67939 Y-2.59746
G01 X-3.68605 Y-2.59262
G01 X-3.68862 Y-2.59031
G01 X-3.69412 Y-2.58419
G01 X-3.69615 Y-2.58140
G01 X-3.70027 Y-2.57427
G01 X-3.70167 Y-2.57111
G01 X-3.70422 Y-2.56329
G01 X-3.70493 Y-2.55991
G01 X-3.70579 Y-2.55173
G01 X-3.70579 Y-2.54827
G01 X-3.70496 Y-2.54034
G01 X-3.70437 Y-2.54012
G01 X-3.70496 Y-2.54034
G01 X-3.80977 Y-2.43553
G01 X-3.80957 Y-2.43505
G01 X-3.80977 Y-2.43553
G01 X-3.91028 Y-2.43553
G01 X-3.91442 Y-2.43194
G01 X-3.91999 Y-2.42855
G01 X-3.92498 Y-2.42663
G01 X-3.93110 Y-2.42584
G01 X-4.06890 Y-2.42584
G01 X-4.07502 Y-2.42663
G01 X-4.08001 Y-2.42855
G01 X-4.08122 Y-2.42923
G01 X-4.14284 Y-2.42923
G01 X-4.14304 Y-2.42876
G01 X-4.14284 Y-2.42923
G01 X-4.25189 Y-2.53829
G01 X-4.25261 Y-2.53805
G01 X-4.25189 Y-2.53829
G01 X-4.25133 Y-2.54075
G01 X-4.25083 Y-2.54553
G01 X-4.25148 Y-2.54600
G01 X-4.25083 Y-2.54553
G01 X-4.01197 Y-2.66496
G01 X-4.01201 Y-2.66513
G01 X-4.01197 Y-2.66496
G01 X-3.93110 Y-2.66496
G01 X-3.92910 Y-2.66516
G01 X-3.92718 Y-2.66574
G01 X-3.92541 Y-2.66669
G01 X-3.92386 Y-2.66796
G01 X-3.92259 Y-2.66951
G01 X-3.92164 Y-2.67128
G01 X-3.92106 Y-2.67320
G01 X-3.92086 Y-2.67520
G01 X-3.92086 Y-2.81300
G01 X-3.92106 Y-2.81500
G01 X-3.92164 Y-2.81692
G01 X-3.92259 Y-2.81869
G01 X-3.92386 Y-2.82024
G01 X-3.92541 Y-2.82151
G01 X-3.92718 Y-2.82246
G01 X-3.92910 Y-2.82304
G01 X-3.93110 Y-2.82324
G01 X-4.06890 Y-2.82324
G01 X-4.07090 Y-2.82304
G01 X-4.07282 Y-2.82246
G01 X-4.07459 Y-2.82151
G01 X-4.07614 Y-2.82024
G01 X-4.07741 Y-2.81869
G01 X-4.07836 Y-2.81692
G01 X-4.07894 Y-2.81500
G01 X-4.07914 Y-2.81300
G01 X-4.07914 Y-2.68948
G01 X-4.07820 Y-2.68890
G01 X-4.07914 Y-2.68948
G01 X-4.27393 Y-2.59209
G01 X-4.27393 Y-2.59137
G01 X-4.27393 Y-2.59209
G01 X-4.27616 Y-2.59343
G01 X-4.28368 Y-2.59678
G01 X-4.28571 Y-2.59744
G01 X-4.29376 Y-2.59915
G01 X-4.29589 Y-2.59937
G01 X-4.30411 Y-2.59937
G01 X-4.30624 Y-2.59915
G01 X-4.31429 Y-2.59744
G01 X-4.31632 Y-2.59678
G01 X-4.32384 Y-2.59343
G01 X-4.32569 Y-2.59236
G01 X-4.33235 Y-2.58752
G01 X-4.33394 Y-2.58609
G01 X-4.33944 Y-2.57998
G01 X-4.34073 Y-2.57819
G01 X-4.34199 Y-2.57599
G01 X-4.34156 Y-2.57521
G01 X-4.34199 Y-2.57599
G01 X-4.65801 Y-2.57599
G01 X-4.65844 Y-2.57521
G01 X-4.65801 Y-2.57599
G01 X-4.65927 Y-2.57819
G01 X-4.66056 Y-2.57998
G01 X-4.66606 Y-2.58609
G01 X-4.66765 Y-2.58752
G01 X-4.67431 Y-2.59236
G01 X-4.67616 Y-2.59343
G01 X-4.68368 Y-2.59678
G01 X-4.68571 Y-2.59744
G01 X-4.69376 Y-2.59915
G01 X-4.69589 Y-2.59937
G01 X-4.70411 Y-2.59937
G01 X-4.70624 Y-2.59915
G01 X-4.71429 Y-2.59744
G01 X-4.71632 Y-2.59678
G01 X-4.72384 Y-2.59343
G01 X-4.72569 Y-2.59236
G01 X-4.73235 Y-2.58752
G01 X-4.73394 Y-2.58609
G01 X-4.73944 Y-2.57998
G01 X-4.74070 Y-2.57825
G01 X-4.74481 Y-2.57112
G01 X-4.74568 Y-2.56917
G01 X-4.74822 Y-2.56134
G01 X-4.74867 Y-2.55925
G01 X-4.74953 Y-2.55107
G01 X-4.74953 Y-2.54893
G01 X-4.74867 Y-2.54075
G01 X-4.74822 Y-2.53865
G01 X-4.74568 Y-2.53083
G01 X-4.74481 Y-2.52888
G01 X-4.74070 Y-2.52175
G01 X-4.73944 Y-2.52002
G01 X-4.73394 Y-2.51391
G01 X-4.73235 Y-2.51247
G01 X-4.72569 Y-2.50764
G01 X-4.72384 Y-2.50657
G01 X-4.71632 Y-2.50322
G01 X-4.71429 Y-2.50256
G01 X-4.70624 Y-2.50085
G01 X-4.70411 Y-2.50063
G01 X-4.69589 Y-2.50063
G01 X-4.69376 Y-2.50085
G01 X-4.68571 Y-2.50256
G01 X-4.68368 Y-2.50322
G01 X-4.67616 Y-2.50657
G01 X-4.67431 Y-2.50764
G01 X-4.66765 Y-2.51247
G01 X-4.66606 Y-2.51391
G01 X-4.66056 Y-2.52002
G01 X-4.65927 Y-2.52181
G01 X-4.65801 Y-2.52401
G01 X-4.65844 Y-2.52479
G01 X-4.65801 Y-2.52401
G01 X-4.34199 Y-2.52401
G01 X-4.34156 Y-2.52479
G01 X-4.34199 Y-2.52401
G01 X-4.34073 Y-2.52181
G01 X-4.33944 Y-2.52002
G01 X-4.33394 Y-2.51391
G01 X-4.33235 Y-2.51247
G01 X-4.32569 Y-2.50764
G01 X-4.32384 Y-2.50657
G01 X-4.31632 Y-2.50322
G01 X-4.31429 Y-2.50256
G01 X-4.30624 Y-2.50085
G01 X-4.30411 Y-2.50063
G01 X-4.29589 Y-2.50063
G01 X-4.29376 Y-2.50085
G01 X-4.28839 Y-2.50199
G01 X-4.28815 Y-2.50277
G01 X-4.28839 Y-2.50199
G01 X-4.17170 Y-2.38530
G01 X-4.16860 Y-2.38270
G01 X-4.16693 Y-2.38158
G01 X-4.16425 Y-2.38015
G01 X-4.16240 Y-2.37938
G01 X-4.15949 Y-2.37850
G01 X-4.15753 Y-2.37811
G01 X-4.15350 Y-2.37776
G01 X-3.79650 Y-2.37776
G01 X-3.79247 Y-2.37811
G01 X-3.79050 Y-2.37850
G01 X-3.78760 Y-2.37938
G01 X-3.78574 Y-2.38015
G01 X-3.78306 Y-2.38158
G01 X-3.78139 Y-2.38270
G01 X-3.77830 Y-2.38530
G01 X-3.66161 Y-2.50199
G01 X-3.66185 Y-2.50277
G01 X-3.66161 Y-2.50199
G01 X-3.65624 Y-2.50085
G01 X-3.65411 Y-2.50063
G01 X-3.64589 Y-2.50063
G01 X-3.64376 Y-2.50085
G01 X-3.63571 Y-2.50256
G01 X-3.63368 Y-2.50322
G01 X-3.62616 Y-2.50657
G01 X-3.62431 Y-2.50764
G01 X-3.61765 Y-2.51247
G01 X-3.61606 Y-2.51391
G01 X-3.61056 Y-2.52002
G01 X-3.60927 Y-2.52181
G01 X-3.60801 Y-2.52401
G01 X-3.60844 Y-2.52479
G01 X-3.60801 Y-2.52401
G01 X-3.29198 Y-2.52401
G01 X-3.29156 Y-2.52479
G01 X-3.29198 Y-2.52401
G01 X-3.29073 Y-2.52181
G01 X-3.28944 Y-2.52002
G01 X-3.28394 Y-2.51391
G01 X-3.28235 Y-2.51247
G01 X-3.27569 Y-2.50764
G01 X-3.27384 Y-2.50657
G01 X-3.26632 Y-2.50322
G01 X-3.26429 Y-2.50256
G01 X-3.25624 Y-2.50085
G01 X-3.25411 Y-2.50063
G01 X-3.24589 Y-2.50063
G01 X-3.24376 Y-2.50085
G01 X-3.23571 Y-2.50256
G01 X-3.23368 Y-2.50322
G01 X-3.22616 Y-2.50657
G01 X-3.22431 Y-2.50764
G01 X-3.21765 Y-2.51247
G01 X-3.21606 Y-2.51391
G01 X-3.21056 Y-2.52002
G01 X-3.20930 Y-2.52175
G01 X-3.20519 Y-2.52888
G01 X-3.20432 Y-2.53083
G01 X-3.20177 Y-2.53865
G01 X-3.20133 Y-2.54075
G01 X-3.20047 Y-2.54893
G01 X-3.20047 Y-2.55107
G01 X-3.20133 Y-2.55925
G01 X-3.20177 Y-2.56134
G01 X-3.20432 Y-2.56917
G01 X-3.20519 Y-2.57112
G01 X-3.20930 Y-2.57825
G01 X-3.21056 Y-2.57998
G01 X-3.21606 Y-2.58609
G01 X-3.21765 Y-2.58752
G01 X-3.22431 Y-2.59236
G01 X-3.22616 Y-2.59343
G01 X-3.23368 Y-2.59678
G01 X-3.23571 Y-2.59744
G01 X-3.24376 Y-2.59915
G01 X-3.24589 Y-2.59937
G01 X-3.25411 Y-2.59937
G01 X-3.25624 Y-2.59915
G01 X-3.26429 Y-2.59744
G01 X-3.26632 Y-2.59678
G01 X-3.27384 Y-2.59343
G01 X-3.27569 Y-2.59236
G01 X-3.28235 Y-2.58752
G01 X-3.28394 Y-2.58609
G01 X-3.28944 Y-2.57998
G01 X-3.29073 Y-2.57819
G01 X-3.29198 Y-2.57599
G01 X-3.29156 Y-2.57521
G01 X-3.29198 Y-2.57599
G01 X-3.60801 Y-2.57599
G01 X-3.60844 Y-2.57521
G01 X-3.60801 Y-2.57599
G01 X-3.60927 Y-2.57819
G01 X-3.61056 Y-2.57998
G01 X-3.61606 Y-2.58609
G01 X-3.61765 Y-2.58752
G01 X-3.62431 Y-2.59236
G01 X-3.62616 Y-2.59343
G01 X-3.63368 Y-2.59678
G01 X-3.63571 Y-2.59744
G01 X-3.64376 Y-2.59915
G01 X-3.64589 Y-2.59937
G01 X-3.65411 Y-2.59937
G01 X-3.65624 Y-2.59915
G01 X-3.66429 Y-2.59744
G01 X-3.66632 Y-2.59678
G01 X-3.67384 Y-2.59343
G01 X-3.67569 Y-2.59236
G01 X-3.68235 Y-2.58752
G01 X-3.68394 Y-2.58609
G01 X-3.68944 Y-2.57998
G01 X-3.69070 Y-2.57825
G01 X-3.69481 Y-2.57112
G01 X-3.69568 Y-2.56917
G01 X-3.69822 Y-2.56134
G01 X-3.69867 Y-2.55925
G01 X-3.69953 Y-2.55107
G01 X-3.69953 Y-2.54893
G01 X-3.69867 Y-2.54075
G01 X-3.69811 Y-2.53829
G01 X-3.69742 Y-2.53806
G01 X-3.69811 Y-2.53829
G01 X-3.80716 Y-2.42923
G01 X-3.80696 Y-2.42876
G01 X-3.80716 Y-2.42923
G01 X-3.91878 Y-2.42923
G01 X-3.91999 Y-2.42855
G01 X-3.92499 Y-2.42667
G01 X-3.93110 Y-2.42585
G01 X-4.06890 Y-2.42585
G01 X-4.07429 Y-2.42650
G01 X-4.08001 Y-2.42855
G01 X-4.08558 Y-2.43194
G01 X-4.08972 Y-2.43553
G01 X-4.14023 Y-2.43553
G01 X-4.14043 Y-2.43505
G01 X-4.14023 Y-2.43553
G01 X-4.24504 Y-2.54034
G01 X-4.24568 Y-2.54012
G01 X-4.24504 Y-2.54034
G01 X-4.24492 Y-2.54144
G01 X-4.24565 Y-2.54195
G01 X-4.24492 Y-2.54144
G01 X-4.01048 Y-2.65866
G01 X-4.01052 Y-2.65883
G01 X-4.01048 Y-2.65866
G01 X-3.93110 Y-2.65866
G01 X-3.92787 Y-2.65898
G01 X-3.92477 Y-2.65992
G01 X-3.92191 Y-2.66145
G01 X-3.91941 Y-2.66351
G01 X-3.91735 Y-2.66601
G01 X-3.91582 Y-2.66887
G01 X-3.91488 Y-2.67197
G01 X-3.91456 Y-2.67520
G01 X-3.91456 Y-2.81300
G01 X-3.91488 Y-2.81623
G01 X-3.91582 Y-2.81933
G01 X-3.91735 Y-2.82219
G01 X-3.91941 Y-2.82469
G01 X-3.92191 Y-2.82675
G01 X-3.92477 Y-2.82828
G01 X-3.92787 Y-2.82922
G01 X-3.93110 Y-2.82953
G01 X-4.06273 Y-2.82953
G01 X-4.06756 Y-2.82753
G01 X-4.07285 Y-2.82475
G01 X-4.07716 Y-2.82125
G01 X-4.08065 Y-2.81695
G01 X-4.08343 Y-2.81166
G01 X-4.08544 Y-2.80682
G01 X-4.08343 Y-2.81166
G01 X-4.08065 Y-2.81695
G01 X-4.07716 Y-2.82125
G01 X-4.07285 Y-2.82475
G01 X-4.06756 Y-2.82753
G01 X-4.04752 Y-2.83583
G01 X-3.93110 Y-2.83583
G01 X-3.92665 Y-2.83540
G01 X-3.92236 Y-2.83410
G01 X-3.91841 Y-2.83199
G01 X-3.91495 Y-2.82915
G01 X-3.91211 Y-2.82569
G01 X-3.91000 Y-2.82174
G01 X-3.90870 Y-2.81745
G01 X-3.90827 Y-2.81300
G01 X-3.90827 Y-2.70969
G01 X-3.90918 Y-2.70710
G01 X-3.91064 Y-2.69529
G01 X-3.91065 Y-2.67540
G01 X-3.91205 Y-2.66416
G01 X-3.91314 Y-2.66126
G01 X-3.91495 Y-2.65905
G01 X-3.91841 Y-2.65621
G01 X-3.92236 Y-2.65410
G01 X-3.92665 Y-2.65280
G01 X-3.93110 Y-2.65237
G01 X-4.00899 Y-2.65237
G01 X-4.00903 Y-2.65253
G01 X-4.00899 Y-2.65237
G01 X-4.23510 Y-2.53931
G01 X-4.23951 Y-2.54003
G01 X-4.23510 Y-2.53931
G01 X-4.13762 Y-2.44183
G01 X-4.13782 Y-2.44135
G01 X-4.13762 Y-2.44183
G01 X-4.09619 Y-2.44183
G01 X-4.09113 Y-2.43677
G01 X-4.08597 Y-2.43225
G01 X-4.08057 Y-2.42883
G01 X-4.07501 Y-2.42667
G01 X-4.06890 Y-2.42585
G01 X-3.93110 Y-2.42585
G01 X-3.92499 Y-2.42667
G01 X-3.91943 Y-2.42883
G01 X-3.91403 Y-2.43225
G01 X-3.90887 Y-2.43677
G01 X-3.90381 Y-2.44183
G01 X-3.81238 Y-2.44183
G01 X-3.81218 Y-2.44135
G01 X-3.81238 Y-2.44183
G01 X-3.71154 Y-2.54267
G01 X-3.71098 Y-2.54246
G01 X-3.71154 Y-2.54267
G01 X-3.71206 Y-2.54761
G01 X-3.71206 Y-2.55239
G01 X-3.71120 Y-2.56057
G01 X-3.71021 Y-2.56524
G01 X-3.70766 Y-2.57306
G01 X-3.70572 Y-2.57742
G01 X-3.70202 Y-2.58384
G01 X-3.69359 Y-2.59015
G01 X-3.68137 Y-2.60046
G01 X-3.67755 Y-2.60339
G01 X-3.67079 Y-2.60803
G01 X-3.66918 Y-2.60902
G01 X-3.66691 Y-2.60976
G01 X-3.65886 Y-2.61147
G01 X-3.65411 Y-2.61197
G01 X-3.64589 Y-2.61197
G01 X-3.64114 Y-2.61147
G01 X-3.63309 Y-2.60976
G01 X-3.62855 Y-2.60828
G01 X-3.62104 Y-2.60494
G01 X-3.61690 Y-2.60255
G01 X-3.61025 Y-2.59772
G01 X-3.60670 Y-2.59452
G01 X-3.60135 Y-2.58858
G01 X-3.60156 Y-2.58809
G01 X-3.60135 Y-2.58858
G01 X-3.29865 Y-2.58858
G01 X-3.29844 Y-2.58809
G01 X-3.29865 Y-2.58858
G01 X-3.29330 Y-2.59452
G01 X-3.28975 Y-2.59772
G01 X-3.28310 Y-2.60255
G01 X-3.27896 Y-2.60494
G01 X-3.27145 Y-2.60828
G01 X-3.26691 Y-2.60976
G01 X-3.25886 Y-2.61147
G01 X-3.25411 Y-2.61197
G01 X-3.24589 Y-2.61197
G01 X-3.24114 Y-2.61147
G01 X-3.23309 Y-2.60976
G01 X-3.22855 Y-2.60828
G01 X-3.22104 Y-2.60494
G01 X-3.21690 Y-2.60255
G01 X-3.21025 Y-2.59772
G01 X-3.20670 Y-2.59452
G01 X-3.20119 Y-2.58841
G01 X-3.19839 Y-2.58455
G01 X-3.19428 Y-2.57742
G01 X-3.19233 Y-2.57306
G01 X-3.18979 Y-2.56524
G01 X-3.18880 Y-2.56057
G01 X-3.18794 Y-2.55239
G01 X-3.20673 Y-2.55041
G01 X-3.20777 Y-2.55940
G01 X-3.21031 Y-2.56722
G01 X-3.21475 Y-2.57510
G01 X-3.22074 Y-2.58188
G01 X-3.22801 Y-2.58726
G01 X-3.23624 Y-2.59102
G01 X-3.24589 Y-2.59307
G01 X-3.25411 Y-2.59307
G01 X-3.26298 Y-2.59127
G01 X-3.27128 Y-2.58767
G01 X-3.27926 Y-2.58188
G01 X-3.28476 Y-2.57576
G01 X-3.28832 Y-2.56969
G01 X-3.61168 Y-2.56969
G01 X-3.61524 Y-2.57576
G01 X-3.62074 Y-2.58188
G01 X-3.62872 Y-2.58767
G01 X-3.63702 Y-2.59127
G01 X-3.64507 Y-2.59299
G01 X-3.65493 Y-2.59299
G01 X-3.66376 Y-2.59102
G01 X-3.67199 Y-2.58726
G01 X-3.67926 Y-2.58188
G01 X-3.68476 Y-2.57576
G01 X-3.68969 Y-2.56722
G01 X-3.69240 Y-2.55859
G01 X-3.69326 Y-2.54959
G01 X-3.69240 Y-2.54141
G01 X-3.69092 Y-2.53656
G01 X-3.80455 Y-2.42294
G01 X-4.14545 Y-2.42294
G01 X-4.25908 Y-2.53656
G01 X-4.25759 Y-2.54141
G01 X-4.25673 Y-2.54962
G01 X-4.01345 Y-2.67126
G01 X-3.93110 Y-2.67126
G01 X-3.93033 Y-2.67134
G01 X-3.92891 Y-2.67193
G01 X-3.92783 Y-2.67301
G01 X-3.92724 Y-2.67443
G01 X-3.92716 Y-2.81300
G01 X-3.92746 Y-2.81451
G01 X-3.92832 Y-2.81578
G01 X-3.92959 Y-2.81664
G01 X-3.93110 Y-2.81694
G01 X-4.06890 Y-2.81694
G01 X-4.07041 Y-2.81664
G01 X-4.07168 Y-2.81578
G01 X-4.07254 Y-2.81451
G01 X-4.07284 Y-2.81300
G01 X-4.07284 Y-2.68559
G01 X-4.27454 Y-2.58474
G01 X-4.27872 Y-2.58767
G01 X-4.28624 Y-2.59102
G01 X-4.29507 Y-2.59299
G01 X-4.30411 Y-2.59307
G01 X-4.31298 Y-2.59127
G01 X-4.32128 Y-2.58767
G01 X-4.32864 Y-2.58243
G01 X-4.33476 Y-2.57576
G01 X-4.33832 Y-2.56969
G01 X-4.66168 Y-2.56969
G01 X-4.66524 Y-2.57576
G01 X-4.67074 Y-2.58188
G01 X-4.67872 Y-2.58767
G01 X-4.68702 Y-2.59127
G01 X-4.69507 Y-2.59299
G01 X-4.70493 Y-2.59299
G01 X-4.71376 Y-2.59102
G01 X-4.72199 Y-2.58726
G01 X-4.72926 Y-2.58188
G01 X-4.73524 Y-2.57510
G01 X-4.73969 Y-2.56722
G01 X-4.74223 Y-2.55940
G01 X-4.74327 Y-2.55041
G01 X-4.74240 Y-2.54141
G01 X-4.73969 Y-2.53278
G01 X-4.73476 Y-2.52424
G01 X-4.72926 Y-2.51812
G01 X-4.72199 Y-2.51274
G01 X-4.71298 Y-2.50872
G01 X-4.70411 Y-2.50693
G01 X-4.69589 Y-2.50693
G01 X-4.68702 Y-2.50872
G01 X-4.67872 Y-2.51233
G01 X-4.67074 Y-2.51812
G01 X-4.66524 Y-2.52424
G01 X-4.66168 Y-2.53031
G01 X-4.33832 Y-2.53031
G01 X-4.33476 Y-2.52424
G01 X-4.32864 Y-2.51757
G01 X-4.32199 Y-2.51274
G01 X-4.31376 Y-2.50898
G01 X-4.30411 Y-2.50693
G01 X-4.29507 Y-2.50701
G01 X-4.28641 Y-2.50892
G01 X-4.16724 Y-2.38975
G01 X-4.16397 Y-2.38714
G01 X-4.16057 Y-2.38541
G01 X-4.15766 Y-2.38453
G01 X-4.15350 Y-2.38406
G01 X-3.79650 Y-2.38406
G01 X-3.79233 Y-2.38453
G01 X-3.78871 Y-2.38571
G01 X-3.78539 Y-2.38757
G01 X-3.78275 Y-2.38975
G01 X-3.66359 Y-2.50892
G01 X-3.65493 Y-2.50701
G01 X-3.64589 Y-2.50693
G01 X-3.63624 Y-2.50898
G01 X-3.62801 Y-2.51274
G01 X-3.62135 Y-2.51757
G01 X-3.61524 Y-2.52424
G01 X-3.61168 Y-2.53031
G01 X-3.28832 Y-2.53031
G01 X-3.28476 Y-2.52424
G01 X-3.27926 Y-2.51812
G01 X-3.27128 Y-2.51233
G01 X-3.26298 Y-2.50872
G01 X-3.25411 Y-2.50693
G01 X-3.24589 Y-2.50693
G01 X-3.23624 Y-2.50898
G01 X-3.22801 Y-2.51274
G01 X-3.22074 Y-2.51812
G01 X-3.21475 Y-2.52490
G01 X-3.21031 Y-2.53278
G01 X-3.20759 Y-2.54141
G01 X-3.20673 Y-2.55041
G04 P0 ( dwell for no time -- G64 should not smooth over this point )
G00 Z0.08000 ( retract )

G00 X-3.20034 Y-2.95133 ( rapid move to begin. )
G01 F180.00000
( Mill infeed pass 1/1 )
G01 Z-0.04000
G04 P0 ( dwell for no time -- G64 should not smooth over this point )
G01 F360.00000
G01 X-3.20034 Y-2.95133
G01 X-3.20076 Y-2.95939
G01 X-3.20105 Y-2.96218
G01 X-3.20233 Y-2.97024
G01 X-3.20301 Y-2.97342
G01 X-3.20517 Y-2.98148
G01 X-3.20615 Y-2.98449
G01 X-3.21138 Y-2.99031
G01 X-3.21395 Y-2.99262
G01 X-3.21796 Y-2.99554
G01 X-3.21859 Y-2.99523
G01 X-3.21796 Y-2.99554
G01 X-3.21796 Y-3.18021
G01 X-3.21834 Y-3.18486
G01 X-3.21897 Y-3.18804
G01 X-3.21986 Y-3.19094
G01 X-3.22110 Y-3.19394
G01 X-3.22253 Y-3.19662
G01 X-3.22433 Y-3.19931
G01 X-3.22735 Y-3.20286
G01 X-3.29713 Y-3.27265
G01 X-3.30069 Y-3.27567
G01 X-3.30338 Y-3.27747
G01 X-3.30606 Y-3.27890
G01 X-3.30905 Y-3.28014
G01 X-3.31196 Y-3.28103
G01 X-3.31514 Y-3.28166
G01 X-3.31979 Y-3.28204
G01 X-3.34825 Y-3.28204
G01 X-3.34838 Y-3.28166
G01 X-3.34825 Y-3.28204
G01 X-3.35108 Y-3.28458
G01 X-3.35333 Y-3.28622
G01 X-3.43200 Y-3.28622
G01 X-3.43602 Y-3.28491
G01 X-3.43798 Y-3.28404
G01 X-3.44297 Y-3.28116
G01 X-3.44470 Y-3.27990
G01 X-3.44898 Y-3.27605
G01 X-3.45042 Y-3.27446
G01 X-3.45380 Y-3.26980
G01 X-3.45487 Y-3.26794
G01 X-3.45722 Y-3.26268
G01 X-3.45788 Y-3.26064
G01 X-3.45907 Y-3.25501
G01 X-3.45930 Y-3.25288
G01 X-3.45930 Y-3.24712
G01 X-3.45907 Y-3.24499
G01 X-3.45788 Y-3.23936
G01 X-3.45722 Y-3.23732
G01 X-3.45487 Y-3.23206
G01 X-3.45380 Y-3.23020
G01 X-3.45042 Y-3.22554
G01 X-3.44898 Y-3.22395
G01 X-3.44470 Y-3.22010
G01 X-3.44297 Y-3.21884
G01 X-3.43798 Y-3.21596
G01 X-3.43602 Y-3.21509
G01 X-3.43200 Y-3.21378
G01 X-3.36800 Y-3.21378
G01 X-3.36397 Y-3.21509
G01 X-3.36202 Y-3.21596
G01 X-3.35703 Y-3.21884
G01 X-3.35530 Y-3.22010
G01 X-3.35102 Y-3.22395
G01 X-3.35074 Y-3.22426
G01 X-3.35088 Y-3.22466
G01 X-3.35074 Y-3.22426
G01 X-3.33045 Y-3.22426
G01 X-3.33025 Y-3.22474
G01 X-3.33045 Y-3.22426
G01 X-3.27574 Y-3.16955
G01 X-3.27526 Y-3.16975
G01 X-3.27574 Y-3.16955
G01 X-3.27574 Y-2.99233
G01 X-3.27508 Y-2.99200
G01 X-3.27574 Y-2.99233
G01 X-3.28235 Y-2.98752
G01 X-3.28394 Y-2.98609
G01 X-3.28944 Y-2.97998
G01 X-3.29070 Y-2.97825
G01 X-3.29481 Y-2.97112
G01 X-3.29568 Y-2.96917
G01 X-3.29822 Y-2.96134
G01 X-3.29867 Y-2.95925
G01 X-3.29953 Y-2.95107
G01 X-3.29953 Y-2.94893
G01 X-3.29867 Y-2.94075
G01 X-3.29811 Y-2.93829
G01 X-3.29745 Y-2.93806
G01 X-3.29811 Y-2.93829
G01 X-3.36066 Y-2.87574
G01 X-3.36046 Y-2.87526
G01 X-3.36066 Y-2.87574
G01 X-3.36419 Y-2.87574
G01 X-3.36535 Y-2.87431
G01 X-3.36419 Y-2.87574
G01 X-3.36437 Y-2.87759
G01 X-3.36495 Y-2.87951
G01 X-3.36590 Y-2.88128
G01 X-3.36717 Y-2.88283
G01 X-3.36872 Y-2.88410
G01 X-3.37049 Y-2.88505
G01 X-3.37241 Y-2.88563
G01 X-3.37441 Y-2.88583
G01 X-3.42559 Y-2.88583
G01 X-3.42759 Y-2.88563
G01 X-3.42951 Y-2.88505
G01 X-3.43128 Y-2.88410
G01 X-3.43283 Y-2.88283
G01 X-3.43410 Y-2.88128
G01 X-3.43505 Y-2.87951
G01 X-3.43563 Y-2.87759
G01 X-3.43583 Y-2.87559
G01 X-3.43583 Y-2.82441
G01 X-3.43563 Y-2.82241
G01 X-3.43505 Y-2.82049
G01 X-3.43410 Y-2.81872
G01 X-3.43283 Y-2.81717
G01 X-3.43128 Y-2.81590
G01 X-3.42951 Y-2.81495
G01 X-3.42759 Y-2.81437
G01 X-3.42559 Y-2.81417
G01 X-3.37441 Y-2.81417
G01 X-3.37241 Y-2.81437
G01 X-3.37049 Y-2.81495
G01 X-3.36872 Y-2.81590
G01 X-3.36717 Y-2.81717
G01 X-3.36590 Y-2.81872
G01 X-3.36495 Y-2.82049
G01 X-3.36437 Y-2.82241
G01 X-3.36419 Y-2.82426
G01 X-3.36532 Y-2.82563
G01 X-3.36419 Y-2.82426
G01 X-3.34900 Y-2.82431
G01 X-3.34597 Y-2.82461
G01 X-3.34400 Y-2.82500
G01 X-3.34110 Y-2.82588
G01 X-3.33924 Y-2.82665
G01 X-3.33656 Y-2.82808
G01 X-3.33489 Y-2.82920
G01 X-3.33180 Y-2.83180
G01 X-3.26161 Y-2.90199
G01 X-3.26185 Y-2.90277
G01 X-3.26161 Y-2.90199
G01 X-3.25624 Y-2.90085
G01 X-3.25411 Y-2.90063
G01 X-3.24589 Y-2.90063
G01 X-3.24376 Y-2.90085
G01 X-3.23571 Y-2.90256
G01 X-3.23368 Y-2.90322
G01 X-3.22616 Y-2.90657
G01 X-3.22431 Y-2.90764
G01 X-3.21765 Y-2.91248
G01 X-3.21606 Y-2.91391
G01 X-3.21056 Y-2.92002
G01 X-3.20930 Y-2.92175
G01 X-3.20519 Y-2.92888
G01 X-3.20432 Y-2.93083
G01 X-3.20177 Y-2.93865
G01 X-3.20133 Y-2.94075
G01 X-3.20047 Y-2.94893
G01 X-3.20047 Y-2.95107
G01 X-3.20133 Y-2.95925
G01 X-3.20177 Y-2.96134
G01 X-3.20432 Y-2.96917
G01 X-3.20519 Y-2.97112
G01 X-3.20930 Y-2.97825
G01 X-3.21056 Y-2.97998
G01 X-3.21606 Y-2.98609
G01 X-3.21765 Y-2.98752
G01 X-3.22426 Y-2.99233
G01 X-3.22492 Y-2.99200
G01 X-3.22426 Y-2.99233
G01 X-3.22426 Y-3.18021
G01 X-3.22461 Y-3.18424
G01 X-3.22500 Y-3.18621
G01 X-3.22588 Y-3.18911
G01 X-3.22665 Y-3.19097
G01 X-3.22808 Y-3.19365
G01 X-3.22920 Y-3.19532
G01 X-3.23180 Y-3.19841
G01 X-3.30159 Y-3.26820
G01 X-3.30468 Y-3.27080
G01 X-3.30635 Y-3.27191
G01 X-3.30903 Y-3.27335
G01 X-3.31088 Y-3.27412
G01 X-3.31379 Y-3.27500
G01 X-3.31576 Y-3.27539
G01 X-3.31979 Y-3.27574
G01 X-3.35074 Y-3.27574
G01 X-3.35088 Y-3.27534
G01 X-3.35074 Y-3.27574
G01 X-3.35102 Y-3.27605
G01 X-3.35530 Y-3.27990
G01 X-3.35703 Y-3.28116
G01 X-3.36202 Y-3.28404
G01 X-3.36397 Y-3.28491
G01 X-3.36800 Y-3.28622
G01 X-3.44666 Y-3.28622
G01 X-3.44892 Y-3.28458
G01 X-3.45320 Y-3.28073
G01 X-3.45551 Y-3.27816
G01 X-3.45890 Y-3.27350
G01 X-3.46063 Y-3.27050
G01 X-3.46297 Y-3.26524
G01 X-3.46404 Y-3.26195
G01 X-3.46523 Y-3.25632
G01 X-3.46560 Y-3.25288
G01 X-3.46560 Y-3.24712
G01 X-3.46523 Y-3.24368
G01 X-3.46404 Y-3.23805
G01 X-3.46297 Y-3.23476
G01 X-3.46063 Y-3.22949
G01 X-3.45890 Y-3.22650
G01 X-3.45551 Y-3.22184
G01 X-3.45320 Y-3.21927
G01 X-3.44892 Y-3.21542
G01 X-3.44666 Y-3.21378
G01 X-3.35334 Y-3.21378
G01 X-3.35108 Y-3.21542
G01 X-3.34825 Y-3.21796
G01 X-3.34838 Y-3.21833
G01 X-3.34825 Y-3.21796
G01 X-3.33306 Y-3.21796
G01 X-3.33286 Y-3.21844
G01 X-3.33306 Y-3.21796
G01 X-3.28204 Y-3.16694
G01 X-3.28155 Y-3.16714
G01 X-3.28204 Y-3.16694
G01 X-3.28204 Y-2.99554
G01 X-3.28141 Y-2.99523
G01 X-3.28204 Y-2.99554
G01 X-3.28605 Y-2.99262
G01 X-3.28862 Y-2.99031
G01 X-3.29412 Y-2.98419
G01 X-3.29615 Y-2.98140
G01 X-3.30027 Y-2.97427
G01 X-3.30167 Y-2.97111
G01 X-3.30422 Y-2.96329
G01 X-3.30493 Y-2.95991
G01 X-3.30579 Y-2.95173
G01 X-3.30579 Y-2.94827
G01 X-3.30496 Y-2.94034
G01 X-3.30437 Y-2.94012
G01 X-3.30496 Y-2.94034
G01 X-3.36061 Y-2.88469
G01 X-3.36062 Y-2.88206
G01 X-3.36066 Y-2.88478
G01 X-3.36272 Y-2.88728
G01 X-3.36522 Y-2.88934
G01 X-3.36808 Y-2.89087
G01 X-3.37118 Y-2.89181
G01 X-3.37441 Y-2.89213
G01 X-3.42559 Y-2.89213
G01 X-3.42882 Y-2.89181
G01 X-3.43192 Y-2.89087
G01 X-3.43478 Y-2.88934
G01 X-3.43728 Y-2.88728
G01 X-3.43934 Y-2.88478
G01 X-3.44087 Y-2.88192
G01 X-3.44181 Y-2.87882
G01 X-3.44212 Y-2.87559
G01 X-3.44212 Y-2.82441
G01 X-3.44181 Y-2.82118
G01 X-3.44087 Y-2.81808
G01 X-3.43934 Y-2.81522
G01 X-3.43728 Y-2.81272
G01 X-3.43478 Y-2.81066
G01 X-3.43192 Y-2.80913
G01 X-3.42882 Y-2.80819
G01 X-3.42559 Y-2.80787
G01 X-3.37441 Y-2.80787
G01 X-3.37118 Y-2.80819
G01 X-3.36808 Y-2.80913
G01 X-3.36522 Y-2.81066
G01 X-3.36272 Y-2.81272
G01 X-3.36066 Y-2.81522
G01 X-3.35920 Y-2.81796
G01 X-3.35957 Y-2.81866
G01 X-3.35920 Y-2.81796
G01 X-3.35000 Y-2.81796
G01 X-3.34536 Y-2.81834
G01 X-3.34218 Y-2.81897
G01 X-3.33927 Y-2.81986
G01 X-3.33627 Y-2.82110
G01 X-3.33359 Y-2.82253
G01 X-3.33090 Y-2.82433
G01 X-3.32735 Y-2.82735
G01 X-3.25957 Y-2.89512
G01 X-3.25981 Y-2.89583
G01 X-3.25957 Y-2.89512
G01 X-3.25755 Y-2.89469
G01 X-3.25411 Y-2.89433
G01 X-3.24589 Y-2.89433
G01 X-3.24245 Y-2.89469
G01 X-3.23440 Y-2.89640
G01 X-3.23111 Y-2.89747
G01 X-3.22360 Y-2.90082
G01 X-3.22060 Y-2.90254
G01 X-3.21395 Y-2.90738
G01 X-3.21138 Y-2.90969
G01 X-3.20615 Y-2.91550
G01 X-3.20517 Y-2.91852
G01 X-3.20301 Y-2.92658
G01 X-3.20233 Y-2.92975
G01 X-3.20105 Y-2.93782
G01 X-3.20076 Y-2.94061
G01 X-3.20034 Y-2.94867
G01 X-3.20034 Y-2.95133
G01 X-3.20034 Y-2.94867
G01 X-3.20076 Y-2.94061
G01 X-3.20105 Y-2.93782
G01 X-3.20233 Y-2.92975
G01 X-3.20301 Y-2.92658
G01 X-3.20517 Y-2.91852
G01 X-3.20642 Y-2.91467
G01 X-3.20952 Y-2.90660
G01 X-3.21210 Y-2.90094
G01 X-3.21690 Y-2.89745
G01 X-3.22104 Y-2.89506
G01 X-3.22855 Y-2.89172
G01 X-3.23309 Y-2.89024
G01 X-3.24114 Y-2.88853
G01 X-3.24589 Y-2.88803
G01 X-3.25411 Y-2.88803
G01 X-3.25741 Y-2.88838
G01 X-3.25761 Y-2.88890
G01 X-3.25741 Y-2.88838
G01 X-3.32289 Y-2.82289
G01 X-3.32690 Y-2.81946
G01 X-3.33062 Y-2.81697
G01 X-3.33330 Y-2.81554
G01 X-3.33744 Y-2.81383
G01 X-3.34035 Y-2.81295
G01 X-3.34470 Y-2.81243
G01 X-3.34762 Y-2.81228
G01 X-3.35470 Y-2.81225
G01 X-3.36502 Y-2.80837
G01 X-3.37460 Y-2.80718
G01 X-3.42545 Y-2.80718
G01 X-3.43232 Y-2.80779
G01 X-3.43911 Y-2.80961
G01 X-3.44481 Y-2.81216
G01 X-3.44669 Y-2.81567
G01 X-3.44799 Y-2.81995
G01 X-3.44842 Y-2.82441
G01 X-3.44842 Y-2.82844
G01 X-3.44696 Y-2.83677
G01 X-3.44642 Y-2.84184
G01 X-3.44611 Y-2.84752
G01 X-3.44613 Y-2.85264
G01 X-3.44641 Y-2.85816
G01 X-3.44698 Y-2.86339
G01 X-3.44842 Y-2.87156
G01 X-3.44842 Y-2.87559
G01 X-3.44799 Y-2.88004
G01 X-3.44669 Y-2.88433
G01 X-3.44458 Y-2.88828
G01 X-3.44174 Y-2.89174
G01 X-3.43828 Y-2.89458
G01 X-3.43433 Y-2.89669
G01 X-3.43004 Y-2.89799
G01 X-3.42559 Y-2.89843
G01 X-3.37441 Y-2.89843
G01 X-3.36995 Y-2.89799
G01 X-3.36567 Y-2.89669
G01 X-3.36172 Y-2.89458
G01 X-3.36058 Y-2.89364
G01 X-3.36037 Y-2.89196
G01 X-3.36058 Y-2.89364
G01 X-3.31154 Y-2.94267
G01 X-3.31098 Y-2.94246
G01 X-3.31154 Y-2.94267
G01 X-3.31206 Y-2.94761
G01 X-3.31206 Y-2.95239
G01 X-3.31120 Y-2.96057
G01 X-3.31021 Y-2.96524
G01 X-3.30767 Y-2.97306
G01 X-3.30572 Y-2.97742
G01 X-3.30161 Y-2.98455
G01 X-3.29880 Y-2.98841
G01 X-3.29330 Y-2.99452
G01 X-3.28975 Y-2.99772
G01 X-3.28833 Y-2.99875
G01 X-3.28775 Y-2.99848
G01 X-3.28833 Y-2.99875
G01 X-3.28833 Y-3.16433
G01 X-3.28785 Y-3.16453
G01 X-3.28833 Y-3.16433
G01 X-3.33567 Y-3.21166
G01 X-3.33547 Y-3.21214
G01 X-3.33567 Y-3.21166
G01 X-3.33936 Y-3.21166
G01 X-3.34431 Y-3.21357
G01 X-3.34542 Y-3.21387
G01 X-3.45361 Y-3.21378
G01 X-3.45833 Y-3.21561
G01 X-3.46061 Y-3.21814
G01 X-3.46399 Y-3.22280
G01 X-3.46638 Y-3.22693
G01 X-3.46872 Y-3.23220
G01 X-3.47020 Y-3.23674
G01 X-3.47140 Y-3.24237
G01 X-3.47190 Y-3.24712
G01 X-3.47190 Y-3.25288
G01 X-3.47140 Y-3.25763
G01 X-3.47020 Y-3.26326
G01 X-3.46872 Y-3.26780
G01 X-3.46638 Y-3.27307
G01 X-3.46399 Y-3.27720
G01 X-3.46061 Y-3.28186
G01 X-3.45834 Y-3.28438
G01 X-3.45361 Y-3.28622
G01 X-3.34542 Y-3.28613
G01 X-3.34431 Y-3.28643
G01 X-3.33936 Y-3.28833
G01 X-3.31755 Y-3.28822
G01 X-3.31452 Y-3.28793
G01 X-3.31013 Y-3.28705
G01 X-3.30723 Y-3.28617
G01 X-3.30309 Y-3.28446
G01 X-3.30041 Y-3.28303
G01 X-3.29669 Y-3.28054
G01 X-3.29268 Y-3.27711
G01 X-3.22289 Y-3.20732
G01 X-3.21946 Y-3.20331
G01 X-3.21697 Y-3.19959
G01 X-3.21554 Y-3.19691
G01 X-3.21383 Y-3.19277
G01 X-3.21295 Y-3.18986
G01 X-3.21243 Y-3.18551
G01 X-3.21222 Y-3.18017
G01 X-3.21222 Y-3.00007
G01 X-3.21233 Y-3.00005
G01 X-3.21222 Y-3.00007
G01 X-3.21188 Y-2.99864
G01 X-3.20952 Y-2.99340
G01 X-3.20642 Y-2.98533
G01 X-3.20517 Y-2.98148
G01 X-3.20301 Y-2.97342
G01 X-3.20233 Y-2.97024
G01 X-3.20105 Y-2.96218
G01 X-3.20076 Y-2.95939
G01 X-3.20034 Y-2.95133
G01 X-3.20047 Y-2.95107
G01 X-3.20673 Y-2.95041
G01 X-3.20777 Y-2.95940
G01 X-3.21031 Y-2.96722
G01 X-3.21475 Y-2.97510
G01 X-3.22135 Y-2.98243
G01 X-3.22801 Y-2.98726
G01 X-3.23056 Y-2.98849
G01 X-3.23056 Y-3.18021
G01 X-3.23088 Y-3.18362
G01 X-3.23191 Y-3.18729
G01 X-3.23407 Y-3.19132
G01 X-3.23625 Y-3.19395
G01 X-3.30604 Y-3.26374
G01 X-3.30932 Y-3.26636
G01 X-3.31271 Y-3.26809
G01 X-3.31638 Y-3.26912
G01 X-3.31979 Y-3.26944
G01 X-3.35372 Y-3.26944
G01 X-3.35523 Y-3.27137
G01 X-3.36018 Y-3.27570
G01 X-3.36592 Y-3.27892
G01 X-3.37221 Y-3.28087
G01 X-3.37835 Y-3.28150
G01 X-3.42165 Y-3.28150
G01 X-3.42860 Y-3.28070
G01 X-3.43483 Y-3.27859
G01 X-3.43982 Y-3.27570
G01 X-3.44477 Y-3.27137
G01 X-3.44870 Y-3.26609
G01 X-3.45146 Y-3.26012
G01 X-3.45291 Y-3.25370
G01 X-3.45300 Y-3.24712
G01 X-3.45171 Y-3.24066
G01 X-3.44912 Y-3.23462
G01 X-3.44532 Y-3.22925
G01 X-3.44049 Y-3.22478
G01 X-3.43483 Y-3.22141
G01 X-3.42860 Y-3.21930
G01 X-3.42165 Y-3.21850
G01 X-3.37793 Y-3.21853
G01 X-3.37140 Y-3.21930
G01 X-3.36517 Y-3.22141
G01 X-3.35951 Y-3.22478
G01 X-3.35523 Y-3.22863
G01 X-3.35372 Y-3.23056
G01 X-3.32784 Y-3.23056
G01 X-3.26944 Y-3.17216
G01 X-3.26944 Y-2.98849
G01 X-3.27199 Y-2.98726
G01 X-3.27926 Y-2.98188
G01 X-3.28524 Y-2.97510
G01 X-3.28969 Y-2.96722
G01 X-3.29223 Y-2.95940
G01 X-3.29326 Y-2.95041
G01 X-3.29241 Y-2.94141
G01 X-3.29092 Y-2.93656
G01 X-3.35805 Y-2.86944
G01 X-3.37047 Y-2.86944
G01 X-3.37047 Y-2.87559
G01 X-3.37077 Y-2.87710
G01 X-3.37114 Y-2.87778
G01 X-3.37222 Y-2.87886
G01 X-3.37364 Y-2.87945
G01 X-3.42559 Y-2.87953
G01 X-3.42710 Y-2.87923
G01 X-3.42837 Y-2.87837
G01 X-3.42923 Y-2.87710
G01 X-3.42953 Y-2.87559
G01 X-3.42953 Y-2.82441
G01 X-3.42923 Y-2.82290
G01 X-3.42886 Y-2.82222
G01 X-3.42778 Y-2.82113
G01 X-3.42710 Y-2.82077
G01 X-3.42559 Y-2.82047
G01 X-3.37364 Y-2.82055
G01 X-3.37222 Y-2.82113
G01 X-3.37114 Y-2.82222
G01 X-3.37077 Y-2.82290
G01 X-3.37047 Y-2.82441
G01 X-3.37047 Y-2.83056
G01 X-3.35000 Y-2.83056
G01 X-3.34659 Y-2.83088
G01 X-3.34293 Y-2.83191
G01 X-3.33953 Y-2.83364
G01 X-3.33625 Y-2.83625
G01 X-3.26359 Y-2.90892
G01 X-3.25411 Y-2.90693
G01 X-3.24507 Y-2.90701
G01 X-3.23624 Y-2.90898
G01 X-3.22801 Y-2.91274
G01 X-3.22135 Y-2.91757
G01 X-3.21475 Y-2.92490
G01 X-3.21031 Y-2.93278
G01 X-3.20759 Y-2.94141
G01 X-3.20673 Y-2.95041
G04 P0 ( dwell for no time -- G64 should not smooth over this point )
G00 Z0.08000 ( retract )

G00 X-3.43200 Y-3.20748 ( rapid move to begin. )
G01 F180.00000
( Mill infeed pass 1/1 )
G01 Z-0.04000
G04 P0 ( dwell for no time -- G64 should not smooth over this point )
G01 F360.00000
G01 X-3.43200 Y-3.20748
G01 X-3.34602 Y-3.20748
G01 X-3.34189 Y-3.20589
G01 X-3.33939 Y-3.20312
G01 X-3.33601 Y-3.19846
G01 X-3.33362 Y-3.19433
G01 X-3.33128 Y-3.18906
G01 X-3.32980 Y-3.18452
G01 X-3.32860 Y-3.17889
G01 X-3.32810 Y-3.17414
G01 X-3.32810 Y-3.16838
G01 X-3.32860 Y-3.16363
G01 X-3.32980 Y-3.15800
G01 X-3.33128 Y-3.15346
G01 X-3.33362 Y-3.14819
G01 X-3.33601 Y-3.14406
G01 X-3.33939 Y-3.13940
G01 X-3.34259 Y-3.13585
G01 X-3.34687 Y-3.13199
G01 X-3.35073 Y-3.12919
G01 X-3.35572 Y-3.12631
G01 X-3.36008 Y-3.12437
G01 X-3.36556 Y-3.12258
G01 X-3.37023 Y-3.12159
G01 X-3.37835 Y-3.12087
G01 X-3.42165 Y-3.12087
G01 X-3.42977 Y-3.12159
G01 X-3.43444 Y-3.12258
G01 X-3.43992 Y-3.12437
G01 X-3.44428 Y-3.12631
G01 X-3.44927 Y-3.12919
G01 X-3.45313 Y-3.13199
G01 X-3.45389 Y-3.13267
G01 X-3.45381 Y-3.13294
G01 X-3.45389 Y-3.13267
G01 X-4.02682 Y-3.13267
G01 X-4.02702 Y-3.13315
G01 X-4.02682 Y-3.13267
G01 X-4.26142 Y-2.89808
G01 X-4.26189 Y-2.89828
G01 X-4.26142 Y-2.89808
G01 X-4.26142 Y-2.85000
G01 X-4.26152 Y-2.84776
G01 X-4.26183 Y-2.84469
G01 X-4.26270 Y-2.84030
G01 X-4.26360 Y-2.83734
G01 X-4.26561 Y-2.83264
G01 X-4.27090 Y-2.82976
G01 X-4.27385 Y-2.82837
G01 X-4.28061 Y-2.82573
G01 X-4.28688 Y-2.82398
G01 X-4.28991 Y-2.82337
G01 X-4.29568 Y-2.82266
G01 X-4.30004 Y-2.82248
G01 X-4.42514 Y-2.82253
G01 X-4.43454 Y-2.81971
G01 X-4.43972 Y-2.81861
G01 X-4.44184 Y-2.81827
G01 X-4.44898 Y-2.81763
G01 X-4.45417 Y-2.81763
G01 X-4.46130 Y-2.81827
G01 X-4.46861 Y-2.81971
G01 X-4.47109 Y-2.82038
G01 X-4.47628 Y-2.82207
G01 X-4.47932 Y-2.82324
G01 X-4.48452 Y-2.82556
G01 X-4.48841 Y-2.82754
G01 X-4.49590 Y-2.83198
G01 X-4.49678 Y-2.83752
G01 X-4.49730 Y-2.84242
G01 X-4.49757 Y-2.84761
G01 X-4.49757 Y-2.85239
G01 X-4.49730 Y-2.85758
G01 X-4.49678 Y-2.86248
G01 X-4.49539 Y-2.87033
G01 X-4.49473 Y-2.87182
G01 X-4.49205 Y-2.87646
G01 X-4.48925 Y-2.88032
G01 X-4.48567 Y-2.88430
G01 X-4.48212 Y-2.88749
G01 X-4.47779 Y-2.89064
G01 X-4.47366 Y-2.89302
G01 X-4.46877 Y-2.89520
G01 X-4.46423 Y-2.89667
G01 X-4.45900 Y-2.89779
G01 X-4.45425 Y-2.89829
G01 X-4.44890 Y-2.89829
G01 X-4.44415 Y-2.89779
G01 X-4.43892 Y-2.89667
G01 X-4.43438 Y-2.89520
G01 X-4.42949 Y-2.89302
G01 X-4.42536 Y-2.89064
G01 X-4.42253 Y-2.88858
G01 X-4.42261 Y-2.88833
G01 X-4.42253 Y-2.88858
G01 X-4.33858 Y-2.88858
G01 X-4.33674 Y-2.88674
G01 X-4.33858 Y-2.88858
G01 X-4.33858 Y-2.90143
G01 X-4.33800 Y-2.90169
G01 X-4.33858 Y-2.90143
G01 X-4.33975 Y-2.90228
G01 X-4.34330 Y-2.90548
G01 X-4.34880 Y-2.91159
G01 X-4.35161 Y-2.91545
G01 X-4.35572 Y-2.92258
G01 X-4.35766 Y-2.92694
G01 X-4.36021 Y-2.93476
G01 X-4.36120 Y-2.93943
G01 X-4.36206 Y-2.94761
G01 X-4.36206 Y-2.95239
G01 X-4.36120 Y-2.96057
G01 X-4.36021 Y-2.96524
G01 X-4.35766 Y-2.97306
G01 X-4.35572 Y-2.97742
G01 X-4.35161 Y-2.98455
G01 X-4.34880 Y-2.98841
G01 X-4.34330 Y-2.99452
G01 X-4.33975 Y-2.99772
G01 X-4.33310 Y-3.00255
G01 X-4.32896 Y-3.00494
G01 X-4.32145 Y-3.00828
G01 X-4.31691 Y-3.00976
G01 X-4.30886 Y-3.01147
G01 X-4.30411 Y-3.01197
G01 X-4.29589 Y-3.01197
G01 X-4.29114 Y-3.01147
G01 X-4.28309 Y-3.00976
G01 X-4.27855 Y-3.00828
G01 X-4.27104 Y-3.00494
G01 X-4.26642 Y-3.00220
G01 X-4.26622 Y-3.00054
G01 X-4.26642 Y-3.00220
G01 X-4.07009 Y-3.19854
G01 X-4.06604 Y-3.20201
G01 X-4.06232 Y-3.20449
G01 X-4.05959 Y-3.20595
G01 X-4.05546 Y-3.20766
G01 X-4.05251 Y-3.20856
G01 X-4.04811 Y-3.20943
G01 X-4.04280 Y-3.20984
G01 X-3.46086 Y-3.20984
G01 X-3.45532 Y-3.20769
G01 X-3.45420 Y-3.20739
G01 X-3.43200 Y-3.20748
G01 X-3.43602 Y-3.20617
G01 X-3.43798 Y-3.20530
G01 X-3.44297 Y-3.20242
G01 X-3.44470 Y-3.20116
G01 X-3.44898 Y-3.19731
G01 X-3.44890 Y-3.19686
G01 X-3.44904 Y-3.19725
G01 X-4.04280 Y-3.19725
G01 X-4.04688 Y-3.19689
G01 X-4.04885 Y-3.19650
G01 X-4.05180 Y-3.19561
G01 X-4.05366 Y-3.19484
G01 X-4.05638 Y-3.19338
G01 X-4.05805 Y-3.19227
G01 X-4.06118 Y-3.18963
G01 X-4.26543 Y-2.98539
G01 X-4.26530 Y-2.98327
G01 X-4.26543 Y-2.98539
G01 X-4.26765 Y-2.98752
G01 X-4.27431 Y-2.99236
G01 X-4.27616 Y-2.99343
G01 X-4.28368 Y-2.99677
G01 X-4.28571 Y-2.99744
G01 X-4.29376 Y-2.99915
G01 X-4.29589 Y-2.99937
G01 X-4.30411 Y-2.99937
G01 X-4.30624 Y-2.99915
G01 X-4.31429 Y-2.99744
G01 X-4.31632 Y-2.99677
G01 X-4.32384 Y-2.99343
G01 X-4.32569 Y-2.99236
G01 X-4.33235 Y-2.98752
G01 X-4.33394 Y-2.98609
G01 X-4.33944 Y-2.97998
G01 X-4.34070 Y-2.97825
G01 X-4.34481 Y-2.97112
G01 X-4.34568 Y-2.96917
G01 X-4.34823 Y-2.96134
G01 X-4.34867 Y-2.95925
G01 X-4.34953 Y-2.95107
G01 X-4.34953 Y-2.94893
G01 X-4.34867 Y-2.94075
G01 X-4.34823 Y-2.93865
G01 X-4.34568 Y-2.93083
G01 X-4.34481 Y-2.92888
G01 X-4.34070 Y-2.92175
G01 X-4.33944 Y-2.92002
G01 X-4.33394 Y-2.91391
G01 X-4.33235 Y-2.91248
G01 X-4.32598 Y-2.90785
G01 X-4.32532 Y-2.90817
G01 X-4.32598 Y-2.90785
G01 X-4.32598 Y-2.87599
G01 X-4.32414 Y-2.87414
G01 X-4.32598 Y-2.87599
G01 X-4.42698 Y-2.87599
G01 X-4.42708 Y-2.87568
G01 X-4.42698 Y-2.87599
G01 X-4.42843 Y-2.87730
G01 X-4.43276 Y-2.88044
G01 X-4.43462 Y-2.88151
G01 X-4.43950 Y-2.88369
G01 X-4.44154 Y-2.88435
G01 X-4.44677 Y-2.88546
G01 X-4.44890 Y-2.88569
G01 X-4.45425 Y-2.88569
G01 X-4.45638 Y-2.88546
G01 X-4.46161 Y-2.88435
G01 X-4.46365 Y-2.88369
G01 X-4.46853 Y-2.88151
G01 X-4.47039 Y-2.88044
G01 X-4.47471 Y-2.87730
G01 X-4.47630 Y-2.87587
G01 X-4.47988 Y-2.87189
G01 X-4.48114 Y-2.87016
G01 X-4.48382 Y-2.86553
G01 X-4.48469 Y-2.86357
G01 X-4.48634 Y-2.85848
G01 X-4.48679 Y-2.85639
G01 X-4.48735 Y-2.85107
G01 X-4.48735 Y-2.84893
G01 X-4.48679 Y-2.84361
G01 X-4.48634 Y-2.84152
G01 X-4.48469 Y-2.83643
G01 X-4.48382 Y-2.83447
G01 X-4.48114 Y-2.82984
G01 X-4.47988 Y-2.82811
G01 X-4.47630 Y-2.82413
G01 X-4.47471 Y-2.82270
G01 X-4.47187 Y-2.82063
G01 X-4.46861 Y-2.81971
G01 X-4.46342 Y-2.81861
G01 X-4.46130 Y-2.81827
G01 X-4.45417 Y-2.81763
G01 X-4.44703 Y-2.81773
G01 X-4.43972 Y-2.81861
G01 X-4.43454 Y-2.81971
G01 X-4.42614 Y-2.82231
G01 X-4.42513 Y-2.82248
G01 X-4.29865 Y-2.82251
G01 X-4.29284 Y-2.82294
G01 X-4.28688 Y-2.82398
G01 X-4.28395 Y-2.82471
G01 X-4.27767 Y-2.82678
G01 X-4.27608 Y-2.82837
G01 X-4.27412 Y-2.83076
G01 X-4.27232 Y-2.83345
G01 X-4.27086 Y-2.83618
G01 X-4.26962 Y-2.83917
G01 X-4.26873 Y-2.84213
G01 X-4.26810 Y-2.84531
G01 X-4.26771 Y-2.85000
G01 X-4.26771 Y-2.90069
G01 X-4.26818 Y-2.90089
G01 X-4.26771 Y-2.90069
G01 X-4.02943 Y-3.13897
G01 X-4.02963 Y-3.13945
G01 X-4.02943 Y-3.13897
G01 X-3.45147 Y-3.13897
G01 X-3.45134 Y-3.13933
G01 X-3.45147 Y-3.13897
G01 X-3.44892 Y-3.13667
G01 X-3.44612 Y-3.13464
G01 X-3.44113 Y-3.13176
G01 X-3.43797 Y-3.13036
G01 X-3.43249 Y-3.12858
G01 X-3.42911 Y-3.12786
G01 X-3.42165 Y-3.12717
G01 X-3.37835 Y-3.12717
G01 X-3.37089 Y-3.12786
G01 X-3.36751 Y-3.12858
G01 X-3.36203 Y-3.13036
G01 X-3.35887 Y-3.13176
G01 X-3.35388 Y-3.13464
G01 X-3.35108 Y-3.13667
G01 X-3.34680 Y-3.14053
G01 X-3.34449 Y-3.14310
G01 X-3.34110 Y-3.14776
G01 X-3.33937 Y-3.15075
G01 X-3.33703 Y-3.15602
G01 X-3.33596 Y-3.15930
G01 X-3.33476 Y-3.16494
G01 X-3.33440 Y-3.16838
G01 X-3.33440 Y-3.17414
G01 X-3.33476 Y-3.17758
G01 X-3.33596 Y-3.18321
G01 X-3.33703 Y-3.18650
G01 X-3.33937 Y-3.19176
G01 X-3.34110 Y-3.19476
G01 X-3.34449 Y-3.19942
G01 X-3.34680 Y-3.20199
G01 X-3.35108 Y-3.20584
G01 X-3.35333 Y-3.20748
G01 X-3.44666 Y-3.20748
G01 X-3.44892 Y-3.20584
G01 X-3.45147 Y-3.20354
G01 X-3.45134 Y-3.20318
G01 X-3.45147 Y-3.20354
G01 X-4.04280 Y-3.20354
G01 X-4.04750 Y-3.20316
G01 X-4.05068 Y-3.20253
G01 X-4.05363 Y-3.20163
G01 X-4.05663 Y-3.20039
G01 X-4.05935 Y-3.19894
G01 X-4.06204 Y-3.19714
G01 X-4.06563 Y-3.19409
G01 X-4.26577 Y-2.99395
G01 X-4.26560 Y-2.99210
G01 X-4.26577 Y-2.99395
G01 X-4.27060 Y-2.99745
G01 X-4.27360 Y-2.99918
G01 X-4.28111 Y-3.00253
G01 X-4.28440 Y-3.00360
G01 X-4.29245 Y-3.00531
G01 X-4.29589 Y-3.00567
G01 X-4.30411 Y-3.00567
G01 X-4.30755 Y-3.00531
G01 X-4.31560 Y-3.00360
G01 X-4.31888 Y-3.00253
G01 X-4.32640 Y-2.99918
G01 X-4.32939 Y-2.99745
G01 X-4.33605 Y-2.99262
G01 X-4.33862 Y-2.99031
G01 X-4.34412 Y-2.98419
G01 X-4.34615 Y-2.98140
G01 X-4.35027 Y-2.97427
G01 X-4.35167 Y-2.97111
G01 X-4.35422 Y-2.96329
G01 X-4.35493 Y-2.95991
G01 X-4.35579 Y-2.95173
G01 X-4.35579 Y-2.94827
G01 X-4.35493 Y-2.94009
G01 X-4.35422 Y-2.93671
G01 X-4.35167 Y-2.92889
G01 X-4.35027 Y-2.92573
G01 X-4.34615 Y-2.91860
G01 X-4.34412 Y-2.91581
G01 X-4.33862 Y-2.90969
G01 X-4.33605 Y-2.90738
G01 X-4.33228 Y-2.90464
G01 X-4.33165 Y-2.90494
G01 X-4.33228 Y-2.90464
G01 X-4.33228 Y-2.88228
G01 X-4.33044 Y-2.88044
G01 X-4.33228 Y-2.88228
G01 X-4.42461 Y-2.88228
G01 X-4.42469 Y-2.88201
G01 X-4.42461 Y-2.88228
G01 X-4.42473 Y-2.88239
G01 X-4.42906 Y-2.88554
G01 X-4.43205 Y-2.88727
G01 X-4.43694 Y-2.88944
G01 X-4.44023 Y-2.89051
G01 X-4.44546 Y-2.89162
G01 X-4.44890 Y-2.89199
G01 X-4.45425 Y-2.89199
G01 X-4.45769 Y-2.89162
G01 X-4.46292 Y-2.89051
G01 X-4.46621 Y-2.88944
G01 X-4.47110 Y-2.88727
G01 X-4.47409 Y-2.88554
G01 X-4.47842 Y-2.88239
G01 X-4.48099 Y-2.88008
G01 X-4.48457 Y-2.87611
G01 X-4.48660 Y-2.87331
G01 X-4.48927 Y-2.86868
G01 X-4.49068 Y-2.86552
G01 X-4.49233 Y-2.86043
G01 X-4.49305 Y-2.85705
G01 X-4.49361 Y-2.85173
G01 X-4.49361 Y-2.84827
G01 X-4.49305 Y-2.84295
G01 X-4.49233 Y-2.83957
G01 X-4.49068 Y-2.83448
G01 X-4.48927 Y-2.83132
G01 X-4.48651 Y-2.82657
G01 X-4.47932 Y-2.82324
G01 X-4.47628 Y-2.82207
G01 X-4.46861 Y-2.81971
G01 X-4.46130 Y-2.81827
G01 X-4.45417 Y-2.81763
G01 X-4.44898 Y-2.81763
G01 X-4.44184 Y-2.81827
G01 X-4.43972 Y-2.81861
G01 X-4.43206 Y-2.82038
G01 X-4.43128 Y-2.82063
G01 X-4.42843 Y-2.82270
G01 X-4.42698 Y-2.82401
G01 X-4.42710 Y-2.82436
G01 X-4.42698 Y-2.82401
G01 X-4.30000 Y-2.82401
G01 X-4.29592 Y-2.82436
G01 X-4.29396 Y-2.82476
G01 X-4.29100 Y-2.82565
G01 X-4.28915 Y-2.82642
G01 X-4.28642 Y-2.82788
G01 X-4.28475 Y-2.82899
G01 X-4.28237 Y-2.83095
G01 X-4.28095 Y-2.83237
G01 X-4.27899 Y-2.83475
G01 X-4.27788 Y-2.83642
G01 X-4.27642 Y-2.83915
G01 X-4.27565 Y-2.84100
G01 X-4.27476 Y-2.84395
G01 X-4.27437 Y-2.84592
G01 X-4.27401 Y-2.85000
G01 X-4.27401 Y-2.90330
G01 X-4.27448 Y-2.90350
G01 X-4.27401 Y-2.90330
G01 X-4.03204 Y-3.14527
G01 X-4.03224 Y-3.14575
G01 X-4.03204 Y-3.14527
G01 X-3.44904 Y-3.14527
G01 X-3.44888 Y-3.14569
G01 X-3.44898 Y-3.14521
G01 X-3.44470 Y-3.14136
G01 X-3.44297 Y-3.14010
G01 X-3.43798 Y-3.13722
G01 X-3.43602 Y-3.13635
G01 X-3.43055 Y-3.13457
G01 X-3.42845 Y-3.13412
G01 X-3.42165 Y-3.13346
G01 X-3.37835 Y-3.13346
G01 X-3.37155 Y-3.13412
G01 X-3.36945 Y-3.13457
G01 X-3.36397 Y-3.13635
G01 X-3.36202 Y-3.13722
G01 X-3.35703 Y-3.14010
G01 X-3.35530 Y-3.14136
G01 X-3.35102 Y-3.14521
G01 X-3.34958 Y-3.14680
G01 X-3.34620 Y-3.15146
G01 X-3.34513 Y-3.15332
G01 X-3.34278 Y-3.15858
G01 X-3.34212 Y-3.16061
G01 X-3.34092 Y-3.16625
G01 X-3.34070 Y-3.16838
G01 X-3.34070 Y-3.17414
G01 X-3.34092 Y-3.17627
G01 X-3.34212 Y-3.18190
G01 X-3.34278 Y-3.18394
G01 X-3.34513 Y-3.18920
G01 X-3.34620 Y-3.19106
G01 X-3.34958 Y-3.19572
G01 X-3.35102 Y-3.19731
G01 X-3.35530 Y-3.20116
G01 X-3.35703 Y-3.20242
G01 X-3.36202 Y-3.20530
G01 X-3.36397 Y-3.20617
G01 X-3.36800 Y-3.20748
G01 X-3.34602 Y-3.20748
G01 X-3.34189 Y-3.20589
G01 X-3.33939 Y-3.20312
G01 X-3.33601 Y-3.19846
G01 X-3.33362 Y-3.19433
G01 X-3.33128 Y-3.18906
G01 X-3.32980 Y-3.18452
G01 X-3.32860 Y-3.17889
G01 X-3.32810 Y-3.17414
G01 X-3.34700 Y-3.17414
G01 X-3.34829 Y-3.18059
G01 X-3.35088 Y-3.18664
G01 X-3.35523 Y-3.19263
G01 X-3.36018 Y-3.19697
G01 X-3.36592 Y-3.20018
G01 X-3.37221 Y-3.20213
G01 X-3.37835 Y-3.20275
G01 X-3.42165 Y-3.20275
G01 X-3.42779 Y-3.20213
G01 X-3.43408 Y-3.20018
G01 X-3.43982 Y-3.19697
G01 X-3.44477 Y-3.19263
G01 X-3.44610 Y-3.19095
G01 X-4.04280 Y-3.19095
G01 X-4.04626 Y-3.19062
G01 X-4.04997 Y-3.18958
G01 X-4.05341 Y-3.18783
G01 X-4.05672 Y-3.18518
G01 X-4.26567 Y-2.97624
G01 X-4.27135 Y-2.98243
G01 X-4.27801 Y-2.98726
G01 X-4.28624 Y-2.99102
G01 X-4.29507 Y-2.99299
G01 X-4.30411 Y-2.99307
G01 X-4.31298 Y-2.99127
G01 X-4.32128 Y-2.98767
G01 X-4.32864 Y-2.98243
G01 X-4.33476 Y-2.97576
G01 X-4.33936 Y-2.96797
G01 X-4.34223 Y-2.95940
G01 X-4.34326 Y-2.95041
G01 X-4.34241 Y-2.94141
G01 X-4.33969 Y-2.93278
G01 X-4.33476 Y-2.92424
G01 X-4.32864 Y-2.91757
G01 X-4.32199 Y-2.91274
G01 X-4.31968 Y-2.91161
G01 X-4.31969 Y-2.86969
G01 X-4.42976 Y-2.86969
G01 X-4.43214 Y-2.87220
G01 X-4.43647 Y-2.87535
G01 X-4.44285 Y-2.87819
G01 X-4.44890 Y-2.87939
G01 X-4.45507 Y-2.87930
G01 X-4.46030 Y-2.87819
G01 X-4.46597 Y-2.87576
G01 X-4.47101 Y-2.87220
G01 X-4.47569 Y-2.86701
G01 X-4.47870 Y-2.86163
G01 X-4.48052 Y-2.85573
G01 X-4.48108 Y-2.85041
G01 X-4.48052 Y-2.84427
G01 X-4.47870 Y-2.83837
G01 X-4.47520 Y-2.83232
G01 X-4.47101 Y-2.82780
G01 X-4.46668 Y-2.82465
G01 X-4.46108 Y-2.82206
G01 X-4.45507 Y-2.82070
G01 X-4.44890 Y-2.82061
G01 X-4.44285 Y-2.82181
G01 X-4.43718 Y-2.82424
G01 X-4.43214 Y-2.82780
G01 X-4.42976 Y-2.83031
G01 X-4.30000 Y-2.83031
G01 X-4.29654 Y-2.83063
G01 X-4.29283 Y-2.83168
G01 X-4.28875 Y-2.83386
G01 X-4.28582 Y-2.83636
G01 X-4.28343 Y-2.83939
G01 X-4.28168 Y-2.84283
G01 X-4.28063 Y-2.84654
G01 X-4.28031 Y-2.85000
G01 X-4.28031 Y-2.90591
G01 X-4.03465 Y-3.15157
G01 X-3.44609 Y-3.15157
G01 X-3.44477 Y-3.14989
G01 X-3.43982 Y-3.14555
G01 X-3.43408 Y-3.14234
G01 X-3.42779 Y-3.14039
G01 X-3.42165 Y-3.13976
G01 X-3.37835 Y-3.13976
G01 X-3.37221 Y-3.14039
G01 X-3.36592 Y-3.14234
G01 X-3.36018 Y-3.14555
G01 X-3.35523 Y-3.14989
G01 X-3.35129 Y-3.15517
G01 X-3.34854 Y-3.16114
G01 X-3.34709 Y-3.16756
G01 X-3.34700 Y-3.17414
G04 P0 ( dwell for no time -- G64 should not smooth over this point )
G00 Z0.08000 ( retract )

G00 X-3.33440 Y-3.33034 ( rapid move to begin. )
G01 F180.00000
( Mill infeed pass 1/1 )
G01 Z-0.04000
G04 P0 ( dwell for no time -- G64 should not smooth over this point )
G01 F360.00000
G01 X-3.33440 Y-3.33034
G01 X-3.33208 Y-3.32473
G01 X-3.32949 Y-3.31692
G01 X-3.32980 Y-3.31548
G01 X-3.33128 Y-3.31094
G01 X-3.33362 Y-3.30567
G01 X-3.33601 Y-3.30154
G01 X-3.33939 Y-3.29688
G01 X-3.34189 Y-3.29411
G01 X-3.34602 Y-3.29252
G01 X-3.36800 Y-3.29252
G01 X-3.36397 Y-3.29383
G01 X-3.36202 Y-3.29470
G01 X-3.35703 Y-3.29758
G01 X-3.35530 Y-3.29884
G01 X-3.35102 Y-3.30269
G01 X-3.34958 Y-3.30428
G01 X-3.34620 Y-3.30894
G01 X-3.34513 Y-3.31080
G01 X-3.34278 Y-3.31606
G01 X-3.34212 Y-3.31810
G01 X-3.34092 Y-3.32373
G01 X-3.34070 Y-3.32586
G01 X-3.34070 Y-3.33162
G01 X-3.34092 Y-3.33375
G01 X-3.34212 Y-3.33938
G01 X-3.34278 Y-3.34142
G01 X-3.34513 Y-3.34668
G01 X-3.34620 Y-3.34854
G01 X-3.34958 Y-3.35320
G01 X-3.35102 Y-3.35479
G01 X-3.35530 Y-3.35864
G01 X-3.35703 Y-3.35990
G01 X-3.36202 Y-3.36278
G01 X-3.36397 Y-3.36365
G01 X-3.36945 Y-3.36543
G01 X-3.37155 Y-3.36588
G01 X-3.37835 Y-3.36653
G01 X-3.42165 Y-3.36653
G01 X-3.42845 Y-3.36588
G01 X-3.43055 Y-3.36543
G01 X-3.43602 Y-3.36365
G01 X-3.43798 Y-3.36278
G01 X-3.44297 Y-3.35990
G01 X-3.44470 Y-3.35864
G01 X-3.44898 Y-3.35479
G01 X-3.44888 Y-3.35431
G01 X-3.44904 Y-3.35473
G01 X-3.67215 Y-3.35469
G01 X-3.67666 Y-3.35413
G01 X-3.68017 Y-3.35315
G01 X-3.72163 Y-3.33802
G01 X-3.72172 Y-3.33725
G01 X-3.72163 Y-3.33802
G01 X-3.72528 Y-3.34067
G01 X-3.72714 Y-3.34174
G01 X-3.73428 Y-3.34492
G01 X-3.73631 Y-3.34558
G01 X-3.74396 Y-3.34721
G01 X-3.74609 Y-3.34743
G01 X-3.75391 Y-3.34743
G01 X-3.75604 Y-3.34721
G01 X-3.76369 Y-3.34558
G01 X-3.76572 Y-3.34492
G01 X-3.77286 Y-3.34174
G01 X-3.77472 Y-3.34067
G01 X-3.78104 Y-3.33608
G01 X-3.78263 Y-3.33464
G01 X-3.78787 Y-3.32883
G01 X-3.78912 Y-3.32710
G01 X-3.79303 Y-3.32033
G01 X-3.79390 Y-3.31838
G01 X-3.79614 Y-3.31149
G01 X-3.79641 Y-3.30889
G01 X-3.79682 Y-3.30124
G01 X-3.79641 Y-3.29111
G01 X-3.79614 Y-3.28851
G01 X-3.79390 Y-3.28162
G01 X-3.79303 Y-3.27967
G01 X-3.78912 Y-3.27290
G01 X-3.78787 Y-3.27117
G01 X-3.78263 Y-3.26536
G01 X-3.78104 Y-3.26392
G01 X-3.77472 Y-3.25933
G01 X-3.77286 Y-3.25826
G01 X-3.76572 Y-3.25508
G01 X-3.76369 Y-3.25442
G01 X-3.75604 Y-3.25279
G01 X-3.75391 Y-3.25257
G01 X-3.74609 Y-3.25257
G01 X-3.74396 Y-3.25279
G01 X-3.73631 Y-3.25442
G01 X-3.73428 Y-3.25508
G01 X-3.72714 Y-3.25826
G01 X-3.72528 Y-3.25933
G01 X-3.71896 Y-3.26392
G01 X-3.71737 Y-3.26536
G01 X-3.71213 Y-3.27117
G01 X-3.71088 Y-3.27290
G01 X-3.70697 Y-3.27967
G01 X-3.70610 Y-3.28162
G01 X-3.70368 Y-3.28906
G01 X-3.70364 Y-3.28926
G01 X-3.70412 Y-3.28973
G01 X-3.70364 Y-3.28926
G01 X-3.66668 Y-3.30285
G01 X-3.44904 Y-3.30275
G01 X-3.44889 Y-3.30314
G01 X-3.44898 Y-3.30269
G01 X-3.44470 Y-3.29884
G01 X-3.44297 Y-3.29758
G01 X-3.43798 Y-3.29470
G01 X-3.43602 Y-3.29383
G01 X-3.43200 Y-3.29252
G01 X-3.36800 Y-3.29252
G01 X-3.45420 Y-3.29261
G01 X-3.45532 Y-3.29231
G01 X-3.46086 Y-3.29015
G01 X-3.66445 Y-3.29025
G01 X-3.69353 Y-3.27954
G01 X-3.69393 Y-3.27996
G01 X-3.69353 Y-3.27954
G01 X-3.69411 Y-3.27773
G01 X-3.69606 Y-3.27337
G01 X-3.69997 Y-3.26660
G01 X-3.70277 Y-3.26274
G01 X-3.70800 Y-3.25692
G01 X-3.71155 Y-3.25373
G01 X-3.71788 Y-3.24913
G01 X-3.72201 Y-3.24675
G01 X-3.72915 Y-3.24357
G01 X-3.73369 Y-3.24209
G01 X-3.74134 Y-3.24047
G01 X-3.74609 Y-3.23997
G01 X-3.75391 Y-3.23997
G01 X-3.75866 Y-3.24047
G01 X-3.76631 Y-3.24209
G01 X-3.77085 Y-3.24357
G01 X-3.77799 Y-3.24675
G01 X-3.78212 Y-3.24913
G01 X-3.78619 Y-3.25209
G01 X-3.78815 Y-3.25873
G01 X-3.79108 Y-3.26665
G01 X-3.79225 Y-3.27025
G01 X-3.79430 Y-3.27791
G01 X-3.79493 Y-3.28086
G01 X-3.79614 Y-3.28851
G01 X-3.79641 Y-3.29111
G01 X-3.79682 Y-3.29876
G01 X-3.79641 Y-3.30889
G01 X-3.79614 Y-3.31149
G01 X-3.79493 Y-3.31914
G01 X-3.79430 Y-3.32209
G01 X-3.79225 Y-3.32975
G01 X-3.79018 Y-3.33568
G01 X-3.78731 Y-3.33886
G01 X-3.78475 Y-3.34117
G01 X-3.77842 Y-3.34577
G01 X-3.77543 Y-3.34750
G01 X-3.76828 Y-3.35068
G01 X-3.76499 Y-3.35175
G01 X-3.75735 Y-3.35337
G01 X-3.75391 Y-3.35373
G01 X-3.74609 Y-3.35373
G01 X-3.74265 Y-3.35337
G01 X-3.73500 Y-3.35175
G01 X-3.73172 Y-3.35068
G01 X-3.72457 Y-3.34750
G01 X-3.72064 Y-3.34509
G01 X-3.72067 Y-3.34452
G01 X-3.72064 Y-3.34509
G01 X-3.68233 Y-3.35907
G01 X-3.67829 Y-3.36022
G01 X-3.67551 Y-3.36059
G01 X-3.67122 Y-3.36074
G01 X-3.45256 Y-3.36068
G01 X-3.44560 Y-3.36299
G01 X-3.44000 Y-3.36449
G01 X-3.43694 Y-3.36514
G01 X-3.42858 Y-3.36632
G01 X-3.42161 Y-3.36665
G01 X-3.37839 Y-3.36665
G01 X-3.37141 Y-3.36632
G01 X-3.36323 Y-3.36517
G01 X-3.35717 Y-3.36063
G01 X-3.35510 Y-3.35886
G01 X-3.34920 Y-3.35307
G01 X-3.34383 Y-3.34654
G01 X-3.34060 Y-3.34185
G01 X-3.33890 Y-3.33907
G01 X-3.33611 Y-3.33394
G01 X-3.33440 Y-3.33034
G01 X-3.33440 Y-3.32586
G01 X-3.33476 Y-3.32242
G01 X-3.33596 Y-3.31679
G01 X-3.33703 Y-3.31350
G01 X-3.33937 Y-3.30823
G01 X-3.34110 Y-3.30524
G01 X-3.34449 Y-3.30058
G01 X-3.34680 Y-3.29801
G01 X-3.35108 Y-3.29416
G01 X-3.35334 Y-3.29252
G01 X-3.44666 Y-3.29252
G01 X-3.44892 Y-3.29416
G01 X-3.45147 Y-3.29645
G01 X-3.45134 Y-3.29682
G01 X-3.45147 Y-3.29645
G01 X-3.66557 Y-3.29655
G01 X-3.69857 Y-3.28440
G01 X-3.69902 Y-3.28485
G01 X-3.69857 Y-3.28440
G01 X-3.70011 Y-3.27968
G01 X-3.70151 Y-3.27652
G01 X-3.70542 Y-3.26975
G01 X-3.70745 Y-3.26695
G01 X-3.71269 Y-3.26114
G01 X-3.71525 Y-3.25883
G01 X-3.72158 Y-3.25423
G01 X-3.72457 Y-3.25250
G01 X-3.73172 Y-3.24932
G01 X-3.73500 Y-3.24825
G01 X-3.74265 Y-3.24663
G01 X-3.74609 Y-3.24627
G01 X-3.75391 Y-3.24627
G01 X-3.75735 Y-3.24663
G01 X-3.76499 Y-3.24825
G01 X-3.76828 Y-3.24932
G01 X-3.77543 Y-3.25250
G01 X-3.77842 Y-3.25423
G01 X-3.78475 Y-3.25883
G01 X-3.78731 Y-3.26114
G01 X-3.79018 Y-3.26432
G01 X-3.79225 Y-3.27025
G01 X-3.79430 Y-3.27791
G01 X-3.79493 Y-3.28086
G01 X-3.79614 Y-3.28851
G01 X-3.79641 Y-3.29111
G01 X-3.79682 Y-3.29876
G01 X-3.79641 Y-3.30889
G01 X-3.79614 Y-3.31149
G01 X-3.79493 Y-3.31914
G01 X-3.79430 Y-3.32209
G01 X-3.79225 Y-3.32975
G01 X-3.79108 Y-3.33335
G01 X-3.78815 Y-3.34127
G01 X-3.78616 Y-3.34793
G01 X-3.78212 Y-3.35086
G01 X-3.77799 Y-3.35325
G01 X-3.77563 Y-3.35430
G01 X-3.77113 Y-3.35526
G01 X-3.76616 Y-3.35605
G01 X-3.75850 Y-3.35685
G01 X-3.75383 Y-3.35710
G01 X-3.74617 Y-3.35710
G01 X-3.74149 Y-3.35685
G01 X-3.73384 Y-3.35605
G01 X-3.72887 Y-3.35526
G01 X-3.72437 Y-3.35430
G01 X-3.72201 Y-3.35325
G01 X-3.71993 Y-3.35205
G01 X-3.71996 Y-3.35148
G01 X-3.71993 Y-3.35205
G01 X-3.71387 Y-3.35426
G01 X-3.68317 Y-3.35969
G01 X-3.67881 Y-3.36030
G01 X-3.67286 Y-3.36071
G01 X-3.45257 Y-3.36074
G01 X-3.45144 Y-3.36095
G01 X-3.44560 Y-3.36299
G01 X-3.44000 Y-3.36449
G01 X-3.43694 Y-3.36514
G01 X-3.42858 Y-3.36632
G01 X-3.42161 Y-3.36665
G01 X-3.37839 Y-3.36665
G01 X-3.37141 Y-3.36632
G01 X-3.36323 Y-3.36517
G01 X-3.35717 Y-3.36063
G01 X-3.35510 Y-3.35886
G01 X-3.34920 Y-3.35307
G01 X-3.34383 Y-3.34654
G01 X-3.34060 Y-3.34185
G01 X-3.33890 Y-3.33907
G01 X-3.33611 Y-3.33394
G01 X-3.34070 Y-3.33162
G01 X-3.34700 Y-3.33162
G01 X-3.34829 Y-3.33807
G01 X-3.35088 Y-3.34412
G01 X-3.35523 Y-3.35011
G01 X-3.36018 Y-3.35445
G01 X-3.36592 Y-3.35766
G01 X-3.37221 Y-3.35961
G01 X-3.37835 Y-3.36024
G01 X-3.42165 Y-3.36024
G01 X-3.42779 Y-3.35961
G01 X-3.43408 Y-3.35766
G01 X-3.43982 Y-3.35445
G01 X-3.44477 Y-3.35011
G01 X-3.44609 Y-3.34843
G01 X-3.67160 Y-3.34841
G01 X-3.67502 Y-3.34805
G01 X-3.67801 Y-3.34723
G01 X-3.72262 Y-3.33095
G01 X-3.72970 Y-3.33599
G01 X-3.73762 Y-3.33942
G01 X-3.74609 Y-3.34113
G01 X-3.75473 Y-3.34105
G01 X-3.76316 Y-3.33917
G01 X-3.77030 Y-3.33599
G01 X-3.77734 Y-3.33098
G01 X-3.78318 Y-3.32462
G01 X-3.78791 Y-3.31643
G01 X-3.79050 Y-3.30819
G01 X-3.79132 Y-3.29959
G01 X-3.79033 Y-3.29101
G01 X-3.78791 Y-3.28357
G01 X-3.78367 Y-3.27605
G01 X-3.77795 Y-3.26957
G01 X-3.77030 Y-3.26401
G01 X-3.76238 Y-3.26058
G01 X-3.75391 Y-3.25887
G01 X-3.74527 Y-3.25895
G01 X-3.73684 Y-3.26083
G01 X-3.72970 Y-3.26401
G01 X-3.72266 Y-3.26902
G01 X-3.71681 Y-3.27538
G01 X-3.71242 Y-3.28282
G01 X-3.70967 Y-3.29101
G01 X-3.70928 Y-3.29391
G01 X-3.66778 Y-3.30905
G01 X-3.44609 Y-3.30905
G01 X-3.44477 Y-3.30737
G01 X-3.43982 Y-3.30303
G01 X-3.43408 Y-3.29982
G01 X-3.42779 Y-3.29787
G01 X-3.42165 Y-3.29724
G01 X-3.37793 Y-3.29726
G01 X-3.37221 Y-3.29787
G01 X-3.36592 Y-3.29982
G01 X-3.36018 Y-3.30303
G01 X-3.35523 Y-3.30737
G01 X-3.35129 Y-3.31265
G01 X-3.34854 Y-3.31862
G01 X-3.34709 Y-3.32504
G01 X-3.34700 Y-3.33162
G04 P0 ( dwell for no time -- G64 should not smooth over this point )
G00 Z0.08000 ( retract )

G00 X-3.12981 Y-3.21762 ( rapid move to begin. )
G01 F180.00000
( Mill infeed pass 1/1 )
G01 Z-0.04000
G04 P0 ( dwell for no time -- G64 should not smooth over this point )
G01 F360.00000
G01 X-3.12981 Y-3.21762
G01 X-3.12981 Y-2.81071
G01 X-3.13022 Y-2.80545
G01 X-3.13110 Y-2.80106
G01 X-3.13198 Y-2.79815
G01 X-3.13369 Y-2.79401
G01 X-3.13512 Y-2.79134
G01 X-3.13761 Y-2.78761
G01 X-3.13954 Y-2.78526
G01 X-3.14104 Y-2.78360
G01 X-3.18360 Y-2.74104
G01 X-3.18761 Y-2.73761
G01 X-3.19134 Y-2.73512
G01 X-3.19401 Y-2.73369
G01 X-3.19815 Y-2.73198
G01 X-3.20106 Y-2.73109
G01 X-3.20545 Y-2.73022
G01 X-3.21071 Y-2.72981
G01 X-3.55707 Y-2.72981
G01 X-3.55727 Y-2.73029
G01 X-3.55707 Y-2.72981
G01 X-3.67253 Y-2.61435
G01 X-3.68132 Y-2.60844
G01 X-3.68540 Y-2.60530
G01 X-3.69752 Y-2.59508
G01 X-3.70580 Y-2.58887
G01 X-3.70984 Y-2.58807
G01 X-3.71286 Y-2.58778
G01 X-3.72327 Y-2.58766
G01 X-3.72504 Y-2.58944
G01 X-3.72327 Y-2.58766
G01 X-3.72327 Y-2.55710
G01 X-3.72370 Y-2.55265
G01 X-3.72500 Y-2.54836
G01 X-3.72711 Y-2.54441
G01 X-3.72995 Y-2.54095
G01 X-3.73341 Y-2.53811
G01 X-3.73736 Y-2.53600
G01 X-3.74165 Y-2.53470
G01 X-3.74610 Y-2.53426
G01 X-3.85252 Y-2.53426
G01 X-3.85272 Y-2.53474
G01 X-3.85252 Y-2.53426
G01 X-3.90599 Y-2.48079
G01 X-3.90827 Y-2.47879
G01 X-3.90875 Y-2.47899
G01 X-3.90827 Y-2.47879
G01 X-3.90827 Y-2.44629
G01 X-3.91325 Y-2.44130
G01 X-3.91798 Y-2.43716
G01 X-3.92250 Y-2.43434
G01 X-3.92686 Y-2.43270
G01 X-3.93130 Y-2.43215
G01 X-4.06870 Y-2.43215
G01 X-4.07314 Y-2.43270
G01 X-4.07750 Y-2.43434
G01 X-4.08202 Y-2.43716
G01 X-4.08675 Y-2.44130
G01 X-4.09173 Y-2.44629
G01 X-4.09173 Y-2.57680
G01 X-4.09129 Y-2.58125
G01 X-4.09000 Y-2.58554
G01 X-4.08789 Y-2.58949
G01 X-4.08505 Y-2.59295
G01 X-4.08158 Y-2.59579
G01 X-4.07764 Y-2.59790
G01 X-4.07335 Y-2.59919
G01 X-4.06890 Y-2.59963
G01 X-3.93110 Y-2.59963
G01 X-3.92665 Y-2.59919
G01 X-3.92236 Y-2.59790
G01 X-3.91841 Y-2.59579
G01 X-3.91495 Y-2.59295
G01 X-3.91211 Y-2.58949
G01 X-3.91000 Y-2.58554
G01 X-3.90993 Y-2.58529
G01 X-3.91059 Y-2.58098
G01 X-3.90993 Y-2.58529
G01 X-3.90673 Y-2.58848
G01 X-3.90625 Y-2.58828
G01 X-3.90673 Y-2.58848
G01 X-3.90673 Y-2.66040
G01 X-3.90582 Y-2.66300
G01 X-3.90436 Y-2.67481
G01 X-3.90435 Y-2.69470
G01 X-3.90294 Y-2.70594
G01 X-3.90186 Y-2.70884
G01 X-3.90005 Y-2.71105
G01 X-3.89659 Y-2.71389
G01 X-3.89264 Y-2.71600
G01 X-3.88835 Y-2.71730
G01 X-3.88390 Y-2.71773
G01 X-3.74610 Y-2.71773
G01 X-3.74165 Y-2.71730
G01 X-3.73736 Y-2.71600
G01 X-3.73341 Y-2.71389
G01 X-3.72995 Y-2.71105
G01 X-3.72711 Y-2.70759
G01 X-3.72500 Y-2.70364
G01 X-3.72370 Y-2.69935
G01 X-3.72327 Y-2.69490
G01 X-3.72327 Y-2.67205
G01 X-3.72715 Y-2.66266
G01 X-3.72327 Y-2.67205
G01 X-3.60006 Y-2.79526
G01 X-3.59605 Y-2.79869
G01 X-3.59233 Y-2.80118
G01 X-3.58964 Y-2.80261
G01 X-3.58551 Y-2.80432
G01 X-3.58260 Y-2.80520
G01 X-3.57821 Y-2.80607
G01 X-3.57295 Y-2.80648
G01 X-3.53087 Y-2.80648
G01 X-3.52655 Y-2.80508
G01 X-3.52143 Y-2.80370
G01 X-3.51592 Y-2.80252
G01 X-3.51124 Y-2.80176
G01 X-3.50556 Y-2.80118
G01 X-3.50127 Y-2.80095
G01 X-3.49558 Y-2.80093
G01 X-3.49112 Y-2.80119
G01 X-3.48577 Y-2.80175
G01 X-3.48093 Y-2.80251
G01 X-3.47542 Y-2.80370
G01 X-3.47045 Y-2.80503
G01 X-3.46598 Y-2.80648
G01 X-3.44754 Y-2.80648
G01 X-3.44099 Y-2.80357
G01 X-3.43370 Y-2.80162
G01 X-3.42587 Y-2.80089
G01 X-3.37441 Y-2.80088
G01 X-3.36316 Y-2.80230
G01 X-3.35356 Y-2.80592
G01 X-3.34735 Y-2.80599
G01 X-3.34078 Y-2.80648
G01 X-3.22659 Y-2.80648
G01 X-3.22639 Y-2.80600
G01 X-3.22659 Y-2.80648
G01 X-3.20648 Y-2.82659
G01 X-3.20600 Y-2.82639
G01 X-3.20648 Y-2.82659
G01 X-3.20648 Y-2.89808
G01 X-3.20367 Y-2.90427
G01 X-3.20050 Y-2.91249
G01 X-3.19910 Y-2.91680
G01 X-3.19690 Y-2.92503
G01 X-3.19611 Y-2.92868
G01 X-3.19480 Y-2.93708
G01 X-3.19448 Y-2.94003
G01 X-3.19403 Y-2.94859
G01 X-3.19404 Y-2.95158
G01 X-3.19448 Y-2.95997
G01 X-3.19482 Y-2.96308
G01 X-3.19611 Y-2.97131
G01 X-3.19686 Y-2.97481
G01 X-3.19910 Y-2.98319
G01 X-3.20045 Y-2.98736
G01 X-3.20367 Y-2.99573
G01 X-3.20592 Y-3.00080
G01 X-3.20592 Y-3.18021
G01 X-3.20614 Y-3.18589
G01 X-3.20648 Y-3.18943
G01 X-3.20648 Y-3.20174
G01 X-3.20604 Y-3.20193
G01 X-3.20648 Y-3.20174
G01 X-3.32345 Y-3.31871
G01 X-3.32440 Y-3.32190
G01 X-3.32617 Y-3.32691
G01 X-3.32861 Y-3.33283
G01 X-3.33054 Y-3.33687
G01 X-3.33348 Y-3.34230
G01 X-3.33536 Y-3.34535
G01 X-3.34070 Y-3.35284
G01 X-3.34458 Y-3.35734
G01 X-3.35081 Y-3.36350
G01 X-3.35789 Y-3.36911
G01 X-3.36083 Y-3.37108
G01 X-3.36074 Y-3.37129
G01 X-3.36083 Y-3.37108
G01 X-3.36775 Y-3.37226
G01 X-3.37084 Y-3.37259
G01 X-3.37834 Y-3.37295
G01 X-3.42165 Y-3.37295
G01 X-3.42916 Y-3.37259
G01 X-3.43818 Y-3.37134
G01 X-3.44139 Y-3.37063
G01 X-3.44747 Y-3.36900
G01 X-3.45315 Y-3.36704
G01 X-3.67310 Y-3.36700
G01 X-3.67943 Y-3.36657
G01 X-3.68417 Y-3.36591
G01 X-3.71497 Y-3.36046
G01 X-3.72306 Y-3.36046
G01 X-3.72764 Y-3.36144
G01 X-3.73310 Y-3.36231
G01 X-3.74092 Y-3.36313
G01 X-3.74609 Y-3.36341
G01 X-3.75391 Y-3.36340
G01 X-3.75908 Y-3.36314
G01 X-3.76707 Y-3.36228
G01 X-3.77236 Y-3.36144
G01 X-3.77693 Y-3.36046
G01 X-3.80385 Y-3.36046
G01 X-3.81245 Y-3.36262
G01 X-3.80830 Y-3.36676
G01 X-3.80850 Y-3.36724
G01 X-3.80830 Y-3.36676
G01 X-3.67724 Y-3.36676
G01 X-3.67126 Y-3.36704
G01 X-3.45315 Y-3.36704
G01 X-3.44747 Y-3.36900
G01 X-3.44139 Y-3.37063
G01 X-3.43801 Y-3.37135
G01 X-3.43225 Y-3.37226
G01 X-3.42916 Y-3.37259
G01 X-3.42165 Y-3.37295
G01 X-3.37834 Y-3.37295
G01 X-3.37100 Y-3.37260
G01 X-3.36791 Y-3.37228
G01 X-3.36083 Y-3.37108
G01 X-3.35789 Y-3.36911
G01 X-3.35328 Y-3.36558
G01 X-3.35095 Y-3.36360
G01 X-3.34664 Y-3.35952
G01 X-3.34458 Y-3.35734
G01 X-3.34071 Y-3.35283
G01 X-3.33878 Y-3.35031
G01 X-3.33536 Y-3.34535
G01 X-3.33349 Y-3.34229
G01 X-3.33054 Y-3.33687
G01 X-3.32858 Y-3.33275
G01 X-3.20018 Y-3.20435
G01 X-3.19970 Y-3.20455
G01 X-3.20018 Y-3.20435
G01 X-3.20018 Y-2.98652
G01 X-3.19910 Y-2.98319
G01 X-3.19690 Y-2.97497
G01 X-3.19612 Y-2.97131
G01 X-3.19482 Y-2.96308
G01 X-3.19448 Y-2.95997
G01 X-3.19404 Y-2.95158
G01 X-3.19403 Y-2.94859
G01 X-3.19448 Y-2.94003
G01 X-3.19482 Y-2.93691
G01 X-3.19612 Y-2.92869
G01 X-3.19690 Y-2.92503
G01 X-3.19910 Y-2.91680
G01 X-3.20018 Y-2.91348
G01 X-3.20018 Y-2.82398
G01 X-3.19970 Y-2.82378
G01 X-3.20018 Y-2.82398
G01 X-3.22398 Y-2.80018
G01 X-3.22378 Y-2.79970
G01 X-3.22398 Y-2.80018
G01 X-3.57295 Y-2.80018
G01 X-3.57759 Y-2.79981
G01 X-3.58077 Y-2.79917
G01 X-3.58368 Y-2.79829
G01 X-3.58668 Y-2.79705
G01 X-3.58936 Y-2.79562
G01 X-3.59205 Y-2.79382
G01 X-3.59560 Y-2.79080
G01 X-3.72837 Y-2.65803
G01 X-3.72817 Y-2.65755
G01 X-3.72837 Y-2.65803
G01 X-3.72956 Y-2.65803
G01 X-3.73138 Y-2.65621
G01 X-3.72956 Y-2.65803
G01 X-3.72956 Y-2.69490
G01 X-3.72988 Y-2.69813
G01 X-3.73082 Y-2.70123
G01 X-3.73235 Y-2.70409
G01 X-3.73441 Y-2.70659
G01 X-3.73691 Y-2.70865
G01 X-3.73977 Y-2.71018
G01 X-3.74287 Y-2.71112
G01 X-3.74610 Y-2.71143
G01 X-3.88390 Y-2.71143
G01 X-3.88713 Y-2.71112
G01 X-3.89023 Y-2.71018
G01 X-3.89309 Y-2.70865
G01 X-3.89559 Y-2.70659
G01 X-3.89765 Y-2.70409
G01 X-3.89918 Y-2.70123
G01 X-3.90012 Y-2.69813
G01 X-3.90043 Y-2.69490
G01 X-3.90043 Y-2.58587
G01 X-3.89995 Y-2.58567
G01 X-3.90043 Y-2.58587
G01 X-3.91456 Y-2.57174
G01 X-3.91801 Y-2.56295
G01 X-3.91456 Y-2.57174
G01 X-3.91456 Y-2.57680
G01 X-3.91488 Y-2.58003
G01 X-3.91582 Y-2.58313
G01 X-3.91735 Y-2.58599
G01 X-3.91941 Y-2.58849
G01 X-3.92191 Y-2.59055
G01 X-3.92477 Y-2.59208
G01 X-3.92787 Y-2.59302
G01 X-3.93110 Y-2.59334
G01 X-4.06890 Y-2.59334
G01 X-4.07212 Y-2.59302
G01 X-4.07523 Y-2.59208
G01 X-4.07809 Y-2.59055
G01 X-4.08059 Y-2.58849
G01 X-4.08265 Y-2.58599
G01 X-4.08418 Y-2.58313
G01 X-4.08512 Y-2.58003
G01 X-4.08544 Y-2.57680
G01 X-4.08544 Y-2.44015
G01 X-4.08202 Y-2.43716
G01 X-4.07750 Y-2.43434
G01 X-4.07314 Y-2.43270
G01 X-4.06870 Y-2.43215
G01 X-3.93130 Y-2.43215
G01 X-3.92686 Y-2.43270
G01 X-3.92250 Y-2.43434
G01 X-3.91798 Y-2.43716
G01 X-3.91456 Y-2.44015
G01 X-3.91456 Y-2.48185
G01 X-3.91517 Y-2.48213
G01 X-3.91456 Y-2.48185
G01 X-3.91045 Y-2.48525
G01 X-3.85513 Y-2.54056
G01 X-3.85533 Y-2.54104
G01 X-3.85513 Y-2.54056
G01 X-3.74610 Y-2.54056
G01 X-3.74287 Y-2.54088
G01 X-3.73977 Y-2.54182
G01 X-3.73691 Y-2.54335
G01 X-3.73441 Y-2.54541
G01 X-3.73235 Y-2.54791
G01 X-3.73082 Y-2.55077
G01 X-3.72988 Y-2.55387
G01 X-3.72956 Y-2.55710
G01 X-3.72956 Y-2.59396
G01 X-3.73138 Y-2.59579
G01 X-3.72956 Y-2.59396
G01 X-3.71510 Y-2.59396
G01 X-3.71046 Y-2.59434
G01 X-3.70728 Y-2.59497
G01 X-3.70437 Y-2.59586
G01 X-3.70137 Y-2.59710
G01 X-3.69869 Y-2.59853
G01 X-3.69600 Y-2.60033
G01 X-3.69365 Y-2.60226
G01 X-3.55968 Y-2.73611
G01 X-3.55988 Y-2.73659
G01 X-3.55968 Y-2.73611
G01 X-3.21071 Y-2.73611
G01 X-3.20607 Y-2.73649
G01 X-3.20289 Y-2.73712
G01 X-3.19998 Y-2.73800
G01 X-3.19698 Y-2.73924
G01 X-3.19430 Y-2.74068
G01 X-3.19161 Y-2.74248
G01 X-3.18926 Y-2.74441
G01 X-3.14441 Y-2.78926
G01 X-3.14248 Y-2.79161
G01 X-3.14068 Y-2.79430
G01 X-3.13924 Y-2.79698
G01 X-3.13801 Y-2.79998
G01 X-3.13712 Y-2.80289
G01 X-3.13649 Y-2.80607
G01 X-3.13611 Y-2.81071
G01 X-3.13611 Y-3.21762
G01 X-3.13649 Y-3.22227
G01 X-3.13712 Y-3.22545
G01 X-3.13801 Y-3.22835
G01 X-3.13924 Y-3.23135
G01 X-3.14068 Y-3.23403
G01 X-3.14248 Y-3.23672
G01 X-3.14550 Y-3.24027
G01 X-3.32667 Y-3.42145
G01 X-3.33022 Y-3.42447
G01 X-3.33292 Y-3.42627
G01 X-3.33560 Y-3.42770
G01 X-3.33859 Y-3.42894
G01 X-3.34150 Y-3.42982
G01 X-3.34468 Y-3.43046
G01 X-3.34933 Y-3.43083
G01 X-3.82157 Y-3.43083
G01 X-3.82621 Y-3.43046
G01 X-3.82939 Y-3.42982
G01 X-3.83230 Y-3.42894
G01 X-3.83530 Y-3.42770
G01 X-3.83798 Y-3.42627
G01 X-3.84067 Y-3.42447
G01 X-3.84302 Y-3.42254
G01 X-3.87265 Y-3.39302
G01 X-3.87567 Y-3.38947
G01 X-3.87747 Y-3.38678
G01 X-3.87890 Y-3.38410
G01 X-3.88014 Y-3.38110
G01 X-3.88103 Y-3.37819
G01 X-3.88166 Y-3.37501
G01 X-3.88204 Y-3.37037
G01 X-3.88204 Y-3.35590
G01 X-3.88035 Y-3.35425
G01 X-3.88204 Y-3.35590
G01 X-3.88740 Y-3.35590
G01 X-3.89063 Y-3.35559
G01 X-3.89373 Y-3.35465
G01 X-3.89659 Y-3.35312
G01 X-3.89909 Y-3.35106
G01 X-3.90115 Y-3.34856
G01 X-3.90268 Y-3.34570
G01 X-3.90362 Y-3.34260
G01 X-3.90394 Y-3.33937
G01 X-3.90394 Y-3.33203
G01 X-3.90221 Y-3.33026
G01 X-3.90394 Y-3.33203
G01 X-3.99606 Y-3.33203
G01 X-3.99779 Y-3.33026
G01 X-3.99606 Y-3.33203
G01 X-3.99606 Y-3.33937
G01 X-3.99638 Y-3.34260
G01 X-3.99732 Y-3.34570
G01 X-3.99885 Y-3.34856
G01 X-4.00091 Y-3.35106
G01 X-4.00341 Y-3.35312
G01 X-4.00627 Y-3.35465
G01 X-4.00937 Y-3.35559
G01 X-4.01260 Y-3.35590
G01 X-4.08740 Y-3.35590
G01 X-4.09063 Y-3.35559
G01 X-4.09373 Y-3.35465
G01 X-4.09659 Y-3.35312
G01 X-4.09909 Y-3.35106
G01 X-4.10115 Y-3.34856
G01 X-4.10268 Y-3.34570
G01 X-4.10362 Y-3.34260
G01 X-4.10394 Y-3.33793
G01 X-4.10174 Y-3.33162
G01 X-4.09959 Y-3.32364
G01 X-4.09885 Y-3.32021
G01 X-4.09762 Y-3.31239
G01 X-4.09730 Y-3.30930
G01 X-4.09687 Y-3.30132
G01 X-4.09730 Y-3.29069
G01 X-4.09762 Y-3.28761
G01 X-4.09886 Y-3.27979
G01 X-4.09958 Y-3.27635
G01 X-4.10174 Y-3.26837
G01 X-4.10394 Y-3.26207
G01 X-4.10394 Y-3.26063
G01 X-4.10362 Y-3.25740
G01 X-4.10268 Y-3.25430
G01 X-4.10115 Y-3.25144
G01 X-4.09909 Y-3.24894
G01 X-4.09659 Y-3.24688
G01 X-4.09373 Y-3.24535
G01 X-4.09063 Y-3.24441
G01 X-4.08740 Y-3.24409
G01 X-4.01260 Y-3.24409
G01 X-4.00937 Y-3.24441
G01 X-4.00627 Y-3.24535
G01 X-4.00341 Y-3.24688
G01 X-4.00091 Y-3.24894
G01 X-3.99885 Y-3.25144
G01 X-3.99732 Y-3.25430
G01 X-3.99638 Y-3.25740
G01 X-3.99606 Y-3.26063
G01 X-3.99606 Y-3.26796
G01 X-3.99779 Y-3.26974
G01 X-3.99606 Y-3.26796
G01 X-3.90394 Y-3.26796
G01 X-3.90221 Y-3.26974
G01 X-3.90394 Y-3.26796
G01 X-3.90394 Y-3.26063
G01 X-3.90362 Y-3.25740
G01 X-3.90268 Y-3.25430
G01 X-3.90115 Y-3.25144
G01 X-3.89909 Y-3.24894
G01 X-3.89659 Y-3.24688
G01 X-3.89373 Y-3.24535
G01 X-3.89063 Y-3.24441
G01 X-3.88740 Y-3.24409
G01 X-3.81260 Y-3.24409
G01 X-3.80937 Y-3.24441
G01 X-3.80627 Y-3.24535
G01 X-3.80341 Y-3.24688
G01 X-3.80091 Y-3.24894
G01 X-3.79885 Y-3.25144
G01 X-3.79732 Y-3.25430
G01 X-3.79638 Y-3.25740
G01 X-3.79606 Y-3.26063
G01 X-3.79606 Y-3.26207
G01 X-3.79826 Y-3.26837
G01 X-3.80044 Y-3.27651
G01 X-3.80115 Y-3.27979
G01 X-3.80238 Y-3.28761
G01 X-3.80269 Y-3.29053
G01 X-3.80313 Y-3.30132
G01 X-3.80270 Y-3.30930
G01 X-3.80236 Y-3.31247
G01 X-3.80236 Y-3.33937
G01 X-3.80256 Y-3.34137
G01 X-3.80314 Y-3.34329
G01 X-3.80409 Y-3.34506
G01 X-3.80536 Y-3.34661
G01 X-3.80691 Y-3.34788
G01 X-3.80868 Y-3.34883
G01 X-3.81060 Y-3.34941
G01 X-3.81260 Y-3.34961
G01 X-3.82426 Y-3.34961
G01 X-3.82608 Y-3.34782
G01 X-3.82426 Y-3.34961
G01 X-3.82426 Y-3.35971
G01 X-3.82474 Y-3.35991
G01 X-3.82426 Y-3.35971
G01 X-3.81091 Y-3.37306
G01 X-3.81111 Y-3.37354
G01 X-3.81091 Y-3.37306
G01 X-3.35999 Y-3.37306
G01 X-3.35979 Y-3.37354
G01 X-3.35999 Y-3.37306
G01 X-3.19388 Y-3.20696
G01 X-3.19340 Y-3.20716
G01 X-3.19388 Y-3.20696
G01 X-3.19388 Y-2.82137
G01 X-3.19340 Y-2.82117
G01 X-3.19388 Y-2.82137
G01 X-3.22137 Y-2.79388
G01 X-3.22117 Y-2.79340
G01 X-3.22137 Y-2.79388
G01 X-3.57295 Y-2.79388
G01 X-3.57698 Y-2.79354
G01 X-3.57895 Y-2.79315
G01 X-3.58185 Y-2.79226
G01 X-3.58371 Y-2.79150
G01 X-3.58639 Y-2.79006
G01 X-3.58806 Y-2.78895
G01 X-3.59115 Y-2.78635
G01 X-3.72576 Y-2.65174
G01 X-3.72556 Y-2.65126
G01 X-3.72576 Y-2.65174
G01 X-3.73586 Y-2.65174
G01 X-3.73769 Y-2.64990
G01 X-3.73586 Y-2.65174
G01 X-3.73586 Y-2.69490
G01 X-3.73606 Y-2.69690
G01 X-3.73664 Y-2.69882
G01 X-3.73759 Y-2.70059
G01 X-3.73886 Y-2.70214
G01 X-3.74041 Y-2.70341
G01 X-3.74218 Y-2.70436
G01 X-3.74410 Y-2.70494
G01 X-3.74610 Y-2.70514
G01 X-3.88390 Y-2.70514
G01 X-3.88590 Y-2.70494
G01 X-3.88782 Y-2.70436
G01 X-3.88959 Y-2.70341
G01 X-3.89114 Y-2.70214
G01 X-3.89241 Y-2.70059
G01 X-3.89336 Y-2.69882
G01 X-3.89394 Y-2.69690
G01 X-3.89414 Y-2.69490
G01 X-3.89414 Y-2.58326
G01 X-3.89366 Y-2.58306
G01 X-3.89414 Y-2.58326
G01 X-3.92086 Y-2.55653
G01 X-3.92464 Y-2.54729
G01 X-3.92086 Y-2.55653
G01 X-3.92086 Y-2.57680
G01 X-3.92106 Y-2.57880
G01 X-3.92164 Y-2.58072
G01 X-3.92259 Y-2.58249
G01 X-3.92386 Y-2.58404
G01 X-3.92541 Y-2.58531
G01 X-3.92718 Y-2.58626
G01 X-3.92910 Y-2.58684
G01 X-3.93110 Y-2.58704
G01 X-4.06890 Y-2.58704
G01 X-4.07090 Y-2.58684
G01 X-4.07282 Y-2.58626
G01 X-4.07459 Y-2.58531
G01 X-4.07614 Y-2.58404
G01 X-4.07741 Y-2.58249
G01 X-4.07836 Y-2.58072
G01 X-4.07894 Y-2.57880
G01 X-4.07914 Y-2.57680
G01 X-4.07914 Y-2.43900
G01 X-4.07894 Y-2.43700
G01 X-4.07819 Y-2.43477
G01 X-4.07750 Y-2.43434
G01 X-4.07314 Y-2.43270
G01 X-4.06870 Y-2.43215
G01 X-3.93130 Y-2.43215
G01 X-3.92686 Y-2.43270
G01 X-3.92250 Y-2.43434
G01 X-3.92181 Y-2.43477
G01 X-3.92164 Y-2.43508
G01 X-3.92106 Y-2.43700
G01 X-3.92086 Y-2.43900
G01 X-3.92086 Y-2.48534
G01 X-3.92155 Y-2.48569
G01 X-3.92086 Y-2.48534
G01 X-3.91966 Y-2.48598
G01 X-3.91799 Y-2.48710
G01 X-3.91490 Y-2.48970
G01 X-3.85774 Y-2.54686
G01 X-3.85794 Y-2.54734
G01 X-3.85774 Y-2.54686
G01 X-3.74610 Y-2.54686
G01 X-3.74410 Y-2.54706
G01 X-3.74218 Y-2.54764
G01 X-3.74041 Y-2.54859
G01 X-3.73886 Y-2.54986
G01 X-3.73759 Y-2.55141
G01 X-3.73664 Y-2.55318
G01 X-3.73606 Y-2.55510
G01 X-3.73586 Y-2.55710
G01 X-3.73586 Y-2.60026
G01 X-3.73768 Y-2.60205
G01 X-3.73586 Y-2.60026
G01 X-3.71410 Y-2.60031
G01 X-3.71107 Y-2.60061
G01 X-3.70910 Y-2.60100
G01 X-3.70620 Y-2.60188
G01 X-3.70434 Y-2.60265
G01 X-3.70166 Y-2.60408
G01 X-3.69999 Y-2.60520
G01 X-3.69690 Y-2.60780
G01 X-3.56229 Y-2.74241
G01 X-3.56249 Y-2.74289
G01 X-3.56229 Y-2.74241
G01 X-3.21071 Y-2.74241
G01 X-3.20668 Y-2.74276
G01 X-3.20472 Y-2.74315
G01 X-3.20181 Y-2.74403
G01 X-3.19995 Y-2.74480
G01 X-3.19727 Y-2.74623
G01 X-3.19561 Y-2.74735
G01 X-3.19326 Y-2.74928
G01 X-3.14928 Y-2.79326
G01 X-3.14735 Y-2.79561
G01 X-3.14623 Y-2.79727
G01 X-3.14480 Y-2.79995
G01 X-3.14403 Y-2.80181
G01 X-3.14315 Y-2.80471
G01 X-3.14276 Y-2.80668
G01 X-3.14241 Y-2.81071
G01 X-3.14241 Y-3.21762
G01 X-3.14276 Y-3.22165
G01 X-3.14315 Y-3.22362
G01 X-3.14403 Y-3.22653
G01 X-3.14480 Y-3.22838
G01 X-3.14623 Y-3.23106
G01 X-3.14735 Y-3.23273
G01 X-3.14995 Y-3.23582
G01 X-3.33113 Y-3.41700
G01 X-3.33422 Y-3.41960
G01 X-3.33589 Y-3.42071
G01 X-3.33857 Y-3.42215
G01 X-3.34042 Y-3.42291
G01 X-3.34333 Y-3.42380
G01 X-3.34530 Y-3.42419
G01 X-3.34933 Y-3.42454
G01 X-3.82157 Y-3.42454
G01 X-3.82560 Y-3.42419
G01 X-3.82756 Y-3.42380
G01 X-3.83047 Y-3.42291
G01 X-3.83233 Y-3.42215
G01 X-3.83501 Y-3.42071
G01 X-3.83667 Y-3.41960
G01 X-3.83902 Y-3.41767
G01 X-3.86820 Y-3.38857
G01 X-3.87080 Y-3.38548
G01 X-3.87191 Y-3.38381
G01 X-3.87335 Y-3.38113
G01 X-3.87412 Y-3.37927
G01 X-3.87500 Y-3.37636
G01 X-3.87539 Y-3.37440
G01 X-3.87569 Y-3.37137
G01 X-3.87574 Y-3.34961
G01 X-3.87398 Y-3.34785
G01 X-3.87574 Y-3.34961
G01 X-3.88740 Y-3.34961
G01 X-3.88940 Y-3.34941
G01 X-3.89132 Y-3.34883
G01 X-3.89309 Y-3.34788
G01 X-3.89464 Y-3.34661
G01 X-3.89591 Y-3.34506
G01 X-3.89686 Y-3.34329
G01 X-3.89744 Y-3.34137
G01 X-3.89764 Y-3.33937
G01 X-3.89764 Y-3.32574
G01 X-3.89584 Y-3.32392
G01 X-3.89764 Y-3.32574
G01 X-4.00236 Y-3.32574
G01 X-4.00421 Y-3.32389
G01 X-4.00236 Y-3.32574
G01 X-4.00236 Y-3.33937
G01 X-4.00256 Y-3.34137
G01 X-4.00314 Y-3.34329
G01 X-4.00409 Y-3.34506
G01 X-4.00536 Y-3.34661
G01 X-4.00691 Y-3.34788
G01 X-4.00868 Y-3.34883
G01 X-4.01060 Y-3.34941
G01 X-4.01260 Y-3.34961
G01 X-4.08740 Y-3.34961
G01 X-4.08940 Y-3.34941
G01 X-4.09132 Y-3.34883
G01 X-4.09309 Y-3.34788
G01 X-4.09464 Y-3.34661
G01 X-4.09591 Y-3.34506
G01 X-4.09686 Y-3.34329
G01 X-4.09744 Y-3.34137
G01 X-4.09764 Y-3.33937
G01 X-4.09764 Y-3.31248
G01 X-4.09730 Y-3.30930
G01 X-4.09688 Y-3.30132
G01 X-4.09689 Y-3.29852
G01 X-4.09730 Y-3.29069
G01 X-4.09764 Y-3.28752
G01 X-4.09764 Y-3.26063
G01 X-4.09744 Y-3.25863
G01 X-4.09686 Y-3.25671
G01 X-4.09591 Y-3.25494
G01 X-4.09464 Y-3.25339
G01 X-4.09309 Y-3.25212
G01 X-4.09132 Y-3.25117
G01 X-4.08940 Y-3.25059
G01 X-4.08740 Y-3.25039
G01 X-4.01260 Y-3.25039
G01 X-4.01060 Y-3.25059
G01 X-4.00868 Y-3.25117
G01 X-4.00691 Y-3.25212
G01 X-4.00536 Y-3.25339
G01 X-4.00409 Y-3.25494
G01 X-4.00314 Y-3.25671
G01 X-4.00256 Y-3.25863
G01 X-4.00236 Y-3.26063
G01 X-4.00236 Y-3.27426
G01 X-4.00421 Y-3.27611
G01 X-4.00236 Y-3.27426
G01 X-3.89764 Y-3.27426
G01 X-3.89579 Y-3.27611
G01 X-3.89764 Y-3.27426
G01 X-3.89764 Y-3.26063
G01 X-3.89744 Y-3.25863
G01 X-3.89686 Y-3.25671
G01 X-3.89591 Y-3.25494
G01 X-3.89464 Y-3.25339
G01 X-3.89309 Y-3.25212
G01 X-3.89132 Y-3.25117
G01 X-3.88940 Y-3.25059
G01 X-3.88740 Y-3.25039
G01 X-3.81260 Y-3.25039
G01 X-3.81060 Y-3.25059
G01 X-3.80868 Y-3.25117
G01 X-3.80691 Y-3.25212
G01 X-3.80536 Y-3.25339
G01 X-3.80409 Y-3.25494
G01 X-3.80314 Y-3.25671
G01 X-3.80256 Y-3.25863
G01 X-3.80236 Y-3.26063
G01 X-3.80236 Y-3.28753
G01 X-3.80270 Y-3.29069
G01 X-3.80311 Y-3.29868
G01 X-3.80311 Y-3.30148
G01 X-3.80269 Y-3.30947
G01 X-3.80238 Y-3.31239
G01 X-3.80114 Y-3.32021
G01 X-3.80042 Y-3.32365
G01 X-3.79826 Y-3.33162
G01 X-3.79606 Y-3.33793
G01 X-3.79606 Y-3.33937
G01 X-3.79638 Y-3.34260
G01 X-3.79732 Y-3.34570
G01 X-3.79885 Y-3.34856
G01 X-3.80091 Y-3.35106
G01 X-3.80341 Y-3.35312
G01 X-3.80627 Y-3.35465
G01 X-3.80937 Y-3.35559
G01 X-3.81260 Y-3.35590
G01 X-3.81796 Y-3.35590
G01 X-3.81973 Y-3.35421
G01 X-3.81796 Y-3.35590
G01 X-3.81796 Y-3.35710
G01 X-3.81844 Y-3.35730
G01 X-3.81796 Y-3.35710
G01 X-3.81245 Y-3.36262
G01 X-3.80385 Y-3.36046
G01 X-3.79991 Y-3.35836
G01 X-3.79645 Y-3.35552
G01 X-3.79361 Y-3.35206
G01 X-3.79225 Y-3.34951
G01 X-3.79412 Y-3.34327
G01 X-3.79698 Y-3.33553
G01 X-3.79826 Y-3.33162
G01 X-3.80044 Y-3.32349
G01 X-3.80114 Y-3.32021
G01 X-3.80240 Y-3.31223
G01 X-3.80270 Y-3.30930
G01 X-3.80311 Y-3.30132
G01 X-3.80311 Y-3.29852
G01 X-3.80269 Y-3.29053
G01 X-3.80238 Y-3.28761
G01 X-3.80111 Y-3.27963
G01 X-3.80040 Y-3.27635
G01 X-3.79826 Y-3.26837
G01 X-3.79698 Y-3.26447
G01 X-3.79412 Y-3.25673
G01 X-3.79227 Y-3.25045
G01 X-3.79361 Y-3.24794
G01 X-3.79645 Y-3.24448
G01 X-3.79991 Y-3.24164
G01 X-3.80386 Y-3.23953
G01 X-3.80814 Y-3.23823
G01 X-3.81260 Y-3.23780
G01 X-3.88740 Y-3.23780
G01 X-3.89186 Y-3.23823
G01 X-3.89614 Y-3.23953
G01 X-3.90009 Y-3.24164
G01 X-3.90355 Y-3.24448
G01 X-3.90639 Y-3.24794
G01 X-3.90850 Y-3.25189
G01 X-3.90980 Y-3.25617
G01 X-3.91024 Y-3.26166
G01 X-3.90869 Y-3.26334
G01 X-3.91024 Y-3.26166
G01 X-3.98976 Y-3.26166
G01 X-3.99131 Y-3.26334
G01 X-3.98976 Y-3.26166
G01 X-3.99020 Y-3.25617
G01 X-3.99150 Y-3.25189
G01 X-3.99361 Y-3.24794
G01 X-3.99645 Y-3.24448
G01 X-3.99991 Y-3.24164
G01 X-4.00386 Y-3.23953
G01 X-4.00814 Y-3.23823
G01 X-4.01260 Y-3.23780
G01 X-4.08740 Y-3.23780
G01 X-4.09186 Y-3.23823
G01 X-4.09614 Y-3.23953
G01 X-4.10009 Y-3.24164
G01 X-4.10355 Y-3.24448
G01 X-4.10639 Y-3.24794
G01 X-4.10773 Y-3.25045
G01 X-4.10588 Y-3.25673
G01 X-4.10301 Y-3.26447
G01 X-4.10174 Y-3.26837
G01 X-4.09959 Y-3.27635
G01 X-4.09886 Y-3.27979
G01 X-4.09762 Y-3.28761
G01 X-4.09730 Y-3.29069
G01 X-4.09688 Y-3.29868
G01 X-4.09689 Y-3.30148
G01 X-4.09730 Y-3.30930
G01 X-4.09762 Y-3.31239
G01 X-4.09886 Y-3.32021
G01 X-4.09959 Y-3.32364
G01 X-4.10174 Y-3.33162
G01 X-4.10301 Y-3.33553
G01 X-4.10588 Y-3.34327
G01 X-4.10773 Y-3.34955
G01 X-4.10639 Y-3.35206
G01 X-4.10355 Y-3.35552
G01 X-4.10009 Y-3.35836
G01 X-4.09614 Y-3.36047
G01 X-4.09186 Y-3.36177
G01 X-4.08740 Y-3.36220
G01 X-4.01260 Y-3.36220
G01 X-4.00814 Y-3.36177
G01 X-4.00386 Y-3.36047
G01 X-3.99991 Y-3.35836
G01 X-3.99645 Y-3.35552
G01 X-3.99361 Y-3.35206
G01 X-3.99150 Y-3.34811
G01 X-3.99020 Y-3.34382
G01 X-3.98976 Y-3.33833
G01 X-3.99131 Y-3.33666
G01 X-3.98976 Y-3.33833
G01 X-3.91024 Y-3.33833
G01 X-3.90869 Y-3.33666
G01 X-3.91024 Y-3.33833
G01 X-3.90980 Y-3.34382
G01 X-3.90850 Y-3.34811
G01 X-3.90639 Y-3.35206
G01 X-3.90355 Y-3.35552
G01 X-3.90009 Y-3.35836
G01 X-3.89614 Y-3.36047
G01 X-3.89186 Y-3.36177
G01 X-3.88833 Y-3.36211
G01 X-3.88696 Y-3.36099
G01 X-3.88833 Y-3.36211
G01 X-3.88833 Y-3.37037
G01 X-3.88793 Y-3.37563
G01 X-3.88705 Y-3.38002
G01 X-3.88617 Y-3.38293
G01 X-3.88446 Y-3.38707
G01 X-3.88302 Y-3.38975
G01 X-3.88054 Y-3.39347
G01 X-3.87711 Y-3.39748
G01 X-3.84868 Y-3.42591
G01 X-3.84467 Y-3.42934
G01 X-3.84095 Y-3.43182
G01 X-3.83826 Y-3.43326
G01 X-3.83413 Y-3.43497
G01 X-3.83122 Y-3.43585
G01 X-3.82683 Y-3.43673
G01 X-3.82157 Y-3.43713
G01 X-3.34933 Y-3.43713
G01 X-3.34406 Y-3.43673
G01 X-3.33967 Y-3.43585
G01 X-3.33677 Y-3.43497
G01 X-3.33263 Y-3.43326
G01 X-3.32995 Y-3.43182
G01 X-3.32623 Y-3.42934
G01 X-3.32222 Y-3.42591
G01 X-3.14104 Y-3.24473
G01 X-3.13761 Y-3.24072
G01 X-3.13512 Y-3.23700
G01 X-3.13369 Y-3.23432
G01 X-3.13198 Y-3.23018
G01 X-3.13110 Y-3.22727
G01 X-3.13022 Y-3.22288
G01 X-3.12981 Y-3.21762
G01 X-3.14871 Y-3.21762
G01 X-3.14918 Y-3.22179
G01 X-3.15036 Y-3.22541
G01 X-3.15222 Y-3.22873
G01 X-3.15440 Y-3.23137
G01 X-3.33558 Y-3.41254
G01 X-3.33822 Y-3.41473
G01 X-3.34154 Y-3.41659
G01 X-3.34592 Y-3.41792
G01 X-3.34933 Y-3.41824
G01 X-3.82157 Y-3.41824
G01 X-3.82498 Y-3.41792
G01 X-3.82936 Y-3.41659
G01 X-3.83204 Y-3.41516
G01 X-3.83503 Y-3.41280
G01 X-3.86374 Y-3.38411
G01 X-3.86593 Y-3.38148
G01 X-3.86809 Y-3.37744
G01 X-3.86912 Y-3.37378
G01 X-3.86942 Y-3.37075
G01 X-3.86944 Y-3.34331
G01 X-3.88740 Y-3.34331
G01 X-3.88891 Y-3.34301
G01 X-3.89018 Y-3.34215
G01 X-3.89104 Y-3.34088
G01 X-3.89134 Y-3.33937
G01 X-3.89134 Y-3.31944
G01 X-4.00866 Y-3.31944
G01 X-4.00874 Y-3.34014
G01 X-4.00932 Y-3.34156
G01 X-4.00981 Y-3.34215
G01 X-4.01109 Y-3.34301
G01 X-4.01183 Y-3.34323
G01 X-4.08740 Y-3.34331
G01 X-4.08891 Y-3.34301
G01 X-4.09018 Y-3.34215
G01 X-4.09104 Y-3.34088
G01 X-4.09134 Y-3.33937
G01 X-4.09134 Y-3.26063
G01 X-4.09126 Y-3.25986
G01 X-4.09068 Y-3.25844
G01 X-4.08959 Y-3.25736
G01 X-4.08891 Y-3.25699
G01 X-4.08740 Y-3.25669
G01 X-4.01183 Y-3.25677
G01 X-4.01109 Y-3.25699
G01 X-4.00981 Y-3.25785
G01 X-4.00932 Y-3.25844
G01 X-4.00874 Y-3.25986
G01 X-4.00866 Y-3.28056
G01 X-3.89134 Y-3.28056
G01 X-3.89126 Y-3.25986
G01 X-3.89067 Y-3.25844
G01 X-3.88959 Y-3.25736
G01 X-3.88891 Y-3.25699
G01 X-3.88740 Y-3.25669
G01 X-3.81260 Y-3.25669
G01 X-3.81109 Y-3.25699
G01 X-3.80981 Y-3.25785
G01 X-3.80896 Y-3.25912
G01 X-3.80866 Y-3.26063
G01 X-3.80874 Y-3.34014
G01 X-3.80932 Y-3.34156
G01 X-3.80981 Y-3.34215
G01 X-3.81109 Y-3.34301
G01 X-3.81183 Y-3.34323
G01 X-3.83056 Y-3.34331
G01 X-3.83056 Y-3.36232
G01 X-3.81352 Y-3.37936
G01 X-3.35738 Y-3.37936
G01 X-3.18759 Y-3.20957
G01 X-3.18759 Y-2.81876
G01 X-3.21876 Y-2.78759
G01 X-3.57295 Y-2.78759
G01 X-3.57712 Y-2.78712
G01 X-3.58074 Y-2.78594
G01 X-3.58342 Y-2.78451
G01 X-3.58669 Y-2.78189
G01 X-3.72315 Y-2.64544
G01 X-3.74216 Y-2.64544
G01 X-3.74216 Y-2.69490
G01 X-3.74246 Y-2.69641
G01 X-3.74283 Y-2.69709
G01 X-3.74391 Y-2.69817
G01 X-3.74459 Y-2.69854
G01 X-3.74610 Y-2.69884
G01 X-3.88390 Y-2.69884
G01 X-3.88541 Y-2.69854
G01 X-3.88609 Y-2.69817
G01 X-3.88717 Y-2.69709
G01 X-3.88754 Y-2.69641
G01 X-3.88784 Y-2.69490
G01 X-3.88784 Y-2.58065
G01 X-3.92716 Y-2.54133
G01 X-3.92716 Y-2.57680
G01 X-3.92746 Y-2.57831
G01 X-3.92783 Y-2.57899
G01 X-3.92891 Y-2.58007
G01 X-3.93033 Y-2.58066
G01 X-4.06890 Y-2.58074
G01 X-4.07041 Y-2.58044
G01 X-4.07109 Y-2.58007
G01 X-4.07217 Y-2.57899
G01 X-4.07276 Y-2.57757
G01 X-4.07284 Y-2.57680
G01 X-4.07284 Y-2.43900
G01 X-4.07276 Y-2.43823
G01 X-4.07217 Y-2.43681
G01 X-4.07109 Y-2.43573
G01 X-4.06967 Y-2.43514
G01 X-3.93110 Y-2.43506
G01 X-3.93033 Y-2.43514
G01 X-3.92891 Y-2.43573
G01 X-3.92783 Y-2.43681
G01 X-3.92724 Y-2.43823
G01 X-3.92716 Y-2.43900
G01 X-3.92716 Y-2.48947
G01 X-3.92531 Y-2.49011
G01 X-3.92263 Y-2.49154
G01 X-3.91935 Y-2.49416
G01 X-3.86035 Y-2.55316
G01 X-3.74610 Y-2.55316
G01 X-3.74533 Y-2.55324
G01 X-3.74391 Y-2.55383
G01 X-3.74283 Y-2.55491
G01 X-3.74224 Y-2.55633
G01 X-3.74216 Y-2.55710
G01 X-3.74216 Y-2.60656
G01 X-3.71471 Y-2.60658
G01 X-3.71169 Y-2.60688
G01 X-3.70803 Y-2.60791
G01 X-3.70399 Y-2.61007
G01 X-3.70136 Y-2.61226
G01 X-3.56490 Y-2.74871
G01 X-3.21071 Y-2.74871
G01 X-3.20730 Y-2.74903
G01 X-3.20364 Y-2.75006
G01 X-3.20024 Y-2.75179
G01 X-3.19725 Y-2.75414
G01 X-3.15440 Y-2.79697
G01 X-3.15222 Y-2.79960
G01 X-3.15036 Y-2.80292
G01 X-3.14903 Y-2.80730
G01 X-3.14871 Y-2.81071
G01 X-3.14871 Y-3.21762
G04 P0 ( dwell for no time -- G64 should not smooth over this point )
G00 Z0.08000 ( retract )

G00 X-4.10386 Y-3.31148 ( rapid move to begin. )
G01 F180.00000
( Mill infeed pass 1/1 )
G01 Z-0.04000
G04 P0 ( dwell for no time -- G64 should not smooth over this point )
G01 F360.00000
G01 X-4.10386 Y-3.31148
G01 X-4.10358 Y-3.30889
G01 X-4.10318 Y-3.29876
G01 X-4.10358 Y-3.29111
G01 X-4.10386 Y-3.28851
G01 X-4.10507 Y-3.28086
G01 X-4.10570 Y-3.27791
G01 X-4.10775 Y-3.27025
G01 X-4.10892 Y-3.26665
G01 X-4.11185 Y-3.25873
G01 X-4.11381 Y-3.25209
G01 X-4.11788 Y-3.24913
G01 X-4.12201 Y-3.24675
G01 X-4.12915 Y-3.24357
G01 X-4.13369 Y-3.24209
G01 X-4.14134 Y-3.24047
G01 X-4.14609 Y-3.23997
G01 X-4.15391 Y-3.23997
G01 X-4.15866 Y-3.24047
G01 X-4.16631 Y-3.24209
G01 X-4.17084 Y-3.24357
G01 X-4.17799 Y-3.24675
G01 X-4.18212 Y-3.24913
G01 X-4.18845 Y-3.25373
G01 X-4.19200 Y-3.25692
G01 X-4.19723 Y-3.26274
G01 X-4.20003 Y-3.26660
G01 X-4.20394 Y-3.27337
G01 X-4.20589 Y-3.27773
G01 X-4.20830 Y-3.28517
G01 X-4.20933 Y-3.29015
G01 X-4.20817 Y-3.29157
G01 X-4.20933 Y-3.29015
G01 X-4.40079 Y-3.29015
G01 X-4.40935 Y-3.29171
G01 X-4.41426 Y-3.29218
G01 X-4.41971 Y-3.29240
G01 X-4.55651 Y-3.29252
G01 X-4.55741 Y-3.29333
G01 X-4.56061 Y-3.29688
G01 X-4.56399 Y-3.30154
G01 X-4.56638 Y-3.30567
G01 X-4.56872 Y-3.31094
G01 X-4.57020 Y-3.31548
G01 X-4.57140 Y-3.32111
G01 X-4.57190 Y-3.32586
G01 X-4.57190 Y-3.33162
G01 X-4.57140 Y-3.33637
G01 X-4.57020 Y-3.34200
G01 X-4.56872 Y-3.34654
G01 X-4.56638 Y-3.35181
G01 X-4.56399 Y-3.35594
G01 X-4.56061 Y-3.36060
G01 X-4.55741 Y-3.36415
G01 X-4.55313 Y-3.36801
G01 X-4.54927 Y-3.37081
G01 X-4.54428 Y-3.37369
G01 X-4.53992 Y-3.37563
G01 X-4.53444 Y-3.37741
G01 X-4.52977 Y-3.37841
G01 X-4.52404 Y-3.37901
G01 X-4.52165 Y-3.37913
G01 X-4.47835 Y-3.37913
G01 X-4.47023 Y-3.37841
G01 X-4.46556 Y-3.37741
G01 X-4.46008 Y-3.37563
G01 X-4.45572 Y-3.37369
G01 X-4.45073 Y-3.37081
G01 X-4.44687 Y-3.36801
G01 X-4.44611 Y-3.36732
G01 X-4.44619 Y-3.36706
G01 X-4.44611 Y-3.36732
G01 X-4.17874 Y-3.36732
G01 X-4.17650 Y-3.36721
G01 X-4.17343 Y-3.36691
G01 X-4.16904 Y-3.36604
G01 X-4.16608 Y-3.36514
G01 X-4.16195 Y-3.36343
G01 X-4.15923 Y-3.36197
G01 X-4.15599 Y-3.35981
G01 X-4.15606 Y-3.35956
G01 X-4.15599 Y-3.35981
G01 X-4.15391 Y-3.36003
G01 X-4.14609 Y-3.36003
G01 X-4.14134 Y-3.35953
G01 X-4.13369 Y-3.35791
G01 X-4.12915 Y-3.35643
G01 X-4.12201 Y-3.35325
G01 X-4.11788 Y-3.35086
G01 X-4.11381 Y-3.34791
G01 X-4.11185 Y-3.34127
G01 X-4.10892 Y-3.33335
G01 X-4.10775 Y-3.32975
G01 X-4.10570 Y-3.32209
G01 X-4.10507 Y-3.31914
G01 X-4.10386 Y-3.31148
G01 X-4.10610 Y-3.31838
G01 X-4.10697 Y-3.32033
G01 X-4.11088 Y-3.32710
G01 X-4.11213 Y-3.32883
G01 X-4.11737 Y-3.33464
G01 X-4.11896 Y-3.33608
G01 X-4.12528 Y-3.34067
G01 X-4.12713 Y-3.34174
G01 X-4.13428 Y-3.34492
G01 X-4.13631 Y-3.34558
G01 X-4.14396 Y-3.34721
G01 X-4.14609 Y-3.34743
G01 X-4.15391 Y-3.34743
G01 X-4.15604 Y-3.34721
G01 X-4.15968 Y-3.34643
G01 X-4.15986 Y-3.34578
G01 X-4.15968 Y-3.34643
G01 X-4.16036 Y-3.34712
G01 X-4.16350 Y-3.34975
G01 X-4.16516 Y-3.35086
G01 X-4.16789 Y-3.35232
G01 X-4.16974 Y-3.35309
G01 X-4.17270 Y-3.35398
G01 X-4.17466 Y-3.35437
G01 X-4.17874 Y-3.35473
G01 X-4.45096 Y-3.35473
G01 X-4.45112 Y-3.35431
G01 X-4.45102 Y-3.35479
G01 X-4.45530 Y-3.35864
G01 X-4.45703 Y-3.35990
G01 X-4.46202 Y-3.36278
G01 X-4.46397 Y-3.36365
G01 X-4.46945 Y-3.36543
G01 X-4.47155 Y-3.36588
G01 X-4.47835 Y-3.36653
G01 X-4.52272 Y-3.36648
G01 X-4.52845 Y-3.36588
G01 X-4.53055 Y-3.36543
G01 X-4.53603 Y-3.36365
G01 X-4.53798 Y-3.36278
G01 X-4.54297 Y-3.35990
G01 X-4.54470 Y-3.35864
G01 X-4.54898 Y-3.35479
G01 X-4.55042 Y-3.35320
G01 X-4.55380 Y-3.34854
G01 X-4.55487 Y-3.34668
G01 X-4.55722 Y-3.34142
G01 X-4.55788 Y-3.33938
G01 X-4.55907 Y-3.33375
G01 X-4.55930 Y-3.33162
G01 X-4.55930 Y-3.32586
G01 X-4.55907 Y-3.32373
G01 X-4.55788 Y-3.31810
G01 X-4.55722 Y-3.31606
G01 X-4.55487 Y-3.31080
G01 X-4.55380 Y-3.30894
G01 X-4.55042 Y-3.30428
G01 X-4.54898 Y-3.30269
G01 X-4.54470 Y-3.29884
G01 X-4.54297 Y-3.29758
G01 X-4.53798 Y-3.29470
G01 X-4.53603 Y-3.29383
G01 X-4.53200 Y-3.29252
G01 X-4.45334 Y-3.29252
G01 X-4.45108 Y-3.29416
G01 X-4.44853 Y-3.29645
G01 X-4.44866 Y-3.29682
G01 X-4.44853 Y-3.29645
G01 X-4.20366 Y-3.29645
G01 X-4.20232 Y-3.29799
G01 X-4.20366 Y-3.29645
G01 X-4.20303 Y-3.29049
G01 X-4.20231 Y-3.28711
G01 X-4.19989 Y-3.27968
G01 X-4.19849 Y-3.27652
G01 X-4.19458 Y-3.26975
G01 X-4.19255 Y-3.26695
G01 X-4.18731 Y-3.26114
G01 X-4.18475 Y-3.25883
G01 X-4.17842 Y-3.25423
G01 X-4.17543 Y-3.25250
G01 X-4.16828 Y-3.24932
G01 X-4.16500 Y-3.24825
G01 X-4.15735 Y-3.24663
G01 X-4.15391 Y-3.24627
G01 X-4.14609 Y-3.24627
G01 X-4.14265 Y-3.24663
G01 X-4.13500 Y-3.24825
G01 X-4.13172 Y-3.24932
G01 X-4.12457 Y-3.25250
G01 X-4.12158 Y-3.25423
G01 X-4.11525 Y-3.25883
G01 X-4.11268 Y-3.26114
G01 X-4.10982 Y-3.26433
G01 X-4.10775 Y-3.27025
G01 X-4.10570 Y-3.27791
G01 X-4.10507 Y-3.28086
G01 X-4.10386 Y-3.28851
G01 X-4.10358 Y-3.29111
G01 X-4.10318 Y-3.30124
G01 X-4.10358 Y-3.30889
G01 X-4.10386 Y-3.31148
G01 X-4.10507 Y-3.31914
G01 X-4.10570 Y-3.32209
G01 X-4.10775 Y-3.32975
G01 X-4.10892 Y-3.33335
G01 X-4.10982 Y-3.33567
G01 X-4.11268 Y-3.33886
G01 X-4.11525 Y-3.34117
G01 X-4.12158 Y-3.34577
G01 X-4.12457 Y-3.34750
G01 X-4.13172 Y-3.35068
G01 X-4.13500 Y-3.35175
G01 X-4.14265 Y-3.35337
G01 X-4.14609 Y-3.35373
G01 X-4.15391 Y-3.35373
G01 X-4.15735 Y-3.35337
G01 X-4.15785 Y-3.35326
G01 X-4.15793 Y-3.35296
G01 X-4.15785 Y-3.35326
G01 X-4.15950 Y-3.35462
G01 X-4.16219 Y-3.35642
G01 X-4.16492 Y-3.35787
G01 X-4.16791 Y-3.35911
G01 X-4.17087 Y-3.36001
G01 X-4.17404 Y-3.36064
G01 X-4.17874 Y-3.36103
G01 X-4.44853 Y-3.36103
G01 X-4.44866 Y-3.36067
G01 X-4.44853 Y-3.36103
G01 X-4.45108 Y-3.36332
G01 X-4.45388 Y-3.36536
G01 X-4.45887 Y-3.36824
G01 X-4.46203 Y-3.36964
G01 X-4.46751 Y-3.37142
G01 X-4.47089 Y-3.37214
G01 X-4.47835 Y-3.37283
G01 X-4.52338 Y-3.37274
G01 X-4.52911 Y-3.37214
G01 X-4.53249 Y-3.37142
G01 X-4.53797 Y-3.36964
G01 X-4.54113 Y-3.36824
G01 X-4.54612 Y-3.36536
G01 X-4.54892 Y-3.36332
G01 X-4.55320 Y-3.35947
G01 X-4.55551 Y-3.35690
G01 X-4.55890 Y-3.35224
G01 X-4.56063 Y-3.34924
G01 X-4.56297 Y-3.34398
G01 X-4.56404 Y-3.34069
G01 X-4.56524 Y-3.33506
G01 X-4.56560 Y-3.33162
G01 X-4.56560 Y-3.32586
G01 X-4.56524 Y-3.32242
G01 X-4.56404 Y-3.31679
G01 X-4.56297 Y-3.31350
G01 X-4.56063 Y-3.30823
G01 X-4.55890 Y-3.30524
G01 X-4.55551 Y-3.30058
G01 X-4.55320 Y-3.29801
G01 X-4.54892 Y-3.29416
G01 X-4.54666 Y-3.29252
G01 X-4.46800 Y-3.29252
G01 X-4.46397 Y-3.29383
G01 X-4.46202 Y-3.29470
G01 X-4.45703 Y-3.29758
G01 X-4.45530 Y-3.29884
G01 X-4.45102 Y-3.30269
G01 X-4.45110 Y-3.30314
G01 X-4.45096 Y-3.30275
G01 X-4.19740 Y-3.30275
G01 X-4.19577 Y-3.30448
G01 X-4.19740 Y-3.30275
G01 X-4.19758 Y-3.30107
G01 X-4.19758 Y-3.29893
G01 X-4.19676 Y-3.29115
G01 X-4.19632 Y-3.28906
G01 X-4.19390 Y-3.28162
G01 X-4.19303 Y-3.27967
G01 X-4.18912 Y-3.27290
G01 X-4.18787 Y-3.27117
G01 X-4.18263 Y-3.26536
G01 X-4.18104 Y-3.26392
G01 X-4.17472 Y-3.25933
G01 X-4.17286 Y-3.25826
G01 X-4.16572 Y-3.25508
G01 X-4.16369 Y-3.25442
G01 X-4.15604 Y-3.25279
G01 X-4.15391 Y-3.25257
G01 X-4.14609 Y-3.25257
G01 X-4.14396 Y-3.25279
G01 X-4.13631 Y-3.25442
G01 X-4.13428 Y-3.25508
G01 X-4.12713 Y-3.25826
G01 X-4.12528 Y-3.25933
G01 X-4.11896 Y-3.26392
G01 X-4.11737 Y-3.26536
G01 X-4.11213 Y-3.27117
G01 X-4.11088 Y-3.27290
G01 X-4.10697 Y-3.27967
G01 X-4.10610 Y-3.28162
G01 X-4.10386 Y-3.28851
G01 X-4.10358 Y-3.29111
G01 X-4.10318 Y-3.30124
G01 X-4.10868 Y-3.30041
G01 X-4.10967 Y-3.30899
G01 X-4.11242 Y-3.31718
G01 X-4.11633 Y-3.32395
G01 X-4.12205 Y-3.33043
G01 X-4.12899 Y-3.33557
G01 X-4.13684 Y-3.33917
G01 X-4.14527 Y-3.34105
G01 X-4.15391 Y-3.34113
G01 X-4.16172 Y-3.33956
G01 X-4.16510 Y-3.34292
G01 X-4.16813 Y-3.34531
G01 X-4.17086 Y-3.34676
G01 X-4.17452 Y-3.34795
G01 X-4.17874 Y-3.34843
G01 X-4.45390 Y-3.34843
G01 X-4.45523 Y-3.35011
G01 X-4.46018 Y-3.35445
G01 X-4.46592 Y-3.35766
G01 X-4.47220 Y-3.35961
G01 X-4.47835 Y-3.36024
G01 X-4.52165 Y-3.36024
G01 X-4.52779 Y-3.35961
G01 X-4.53408 Y-3.35766
G01 X-4.54049 Y-3.35396
G01 X-4.54532 Y-3.34949
G01 X-4.54912 Y-3.34412
G01 X-4.55146 Y-3.33886
G01 X-4.55291 Y-3.33244
G01 X-4.55300 Y-3.32586
G01 X-4.55171 Y-3.31941
G01 X-4.54912 Y-3.31336
G01 X-4.54532 Y-3.30798
G01 X-4.54049 Y-3.30352
G01 X-4.53483 Y-3.30015
G01 X-4.52860 Y-3.29804
G01 X-4.52206 Y-3.29726
G01 X-4.47835 Y-3.29724
G01 X-4.47220 Y-3.29787
G01 X-4.46592 Y-3.29982
G01 X-4.46018 Y-3.30303
G01 X-4.45523 Y-3.30737
G01 X-4.45390 Y-3.30905
G01 X-4.19031 Y-3.30905
G01 X-4.19132 Y-3.30041
G01 X-4.19050 Y-3.29181
G01 X-4.18791 Y-3.28357
G01 X-4.18367 Y-3.27605
G01 X-4.17795 Y-3.26957
G01 X-4.17030 Y-3.26401
G01 X-4.16238 Y-3.26058
G01 X-4.15391 Y-3.25887
G01 X-4.14527 Y-3.25895
G01 X-4.13684 Y-3.26083
G01 X-4.12899 Y-3.26442
G01 X-4.12205 Y-3.26957
G01 X-4.11633 Y-3.27605
G01 X-4.11209 Y-3.28357
G01 X-4.10950 Y-3.29181
G01 X-4.10868 Y-3.30041
G04 P0 ( dwell for no time -- G64 should not smooth over this point )
G00 Z0.08000 ( retract )

G00 X-4.37695 Y-3.24550 ( rapid move to begin. )
G01 F180.00000
( Mill infeed pass 1/1 )
G01 Z-0.04000
G04 P0 ( dwell for no time -- G64 should not smooth over this point )
G01 F360.00000
G01 X-4.37695 Y-3.24550
G01 X-4.37695 Y-3.04130
G01 X-4.37736 Y-3.03604
G01 X-4.37823 Y-3.03165
G01 X-4.37911 Y-3.02874
G01 X-4.38083 Y-3.02461
G01 X-4.38226 Y-3.02193
G01 X-4.38475 Y-3.01821
G01 X-4.38818 Y-3.01420
G01 X-4.50957 Y-2.89281
G01 X-4.51199 Y-2.89286
G01 X-4.50957 Y-2.89281
G01 X-4.50826 Y-2.89174
G01 X-4.50542 Y-2.88828
G01 X-4.50331 Y-2.88433
G01 X-4.50201 Y-2.88004
G01 X-4.50157 Y-2.87559
G01 X-4.50157 Y-2.87155
G01 X-4.50304 Y-2.86322
G01 X-4.50359 Y-2.85799
G01 X-4.50387 Y-2.85248
G01 X-4.50387 Y-2.84736
G01 X-4.50357 Y-2.84184
G01 X-4.50302 Y-2.83661
G01 X-4.50215 Y-2.83113
G01 X-4.50787 Y-2.82556
G01 X-4.50787 Y-2.87559
G01 X-4.50819 Y-2.87882
G01 X-4.50913 Y-2.88192
G01 X-4.51066 Y-2.88478
G01 X-4.51272 Y-2.88728
G01 X-4.51522 Y-2.88934
G01 X-4.51796 Y-2.89080
G01 X-4.51870 Y-2.89041
G01 X-4.51796 Y-2.89080
G01 X-4.51796 Y-2.89332
G01 X-4.51844 Y-2.89352
G01 X-4.51796 Y-2.89332
G01 X-4.39263 Y-3.01865
G01 X-4.38962 Y-3.02220
G01 X-4.38782 Y-3.02490
G01 X-4.38638 Y-3.02758
G01 X-4.38514 Y-3.03057
G01 X-4.38426 Y-3.03348
G01 X-4.38363 Y-3.03666
G01 X-4.38325 Y-3.04130
G01 X-4.38325 Y-3.24550
G01 X-4.38363 Y-3.25014
G01 X-4.38426 Y-3.25332
G01 X-4.38514 Y-3.25623
G01 X-4.38638 Y-3.25922
G01 X-4.38781 Y-3.26190
G01 X-4.38962 Y-3.26460
G01 X-4.39154 Y-3.26695
G01 X-4.39713 Y-3.27265
G01 X-4.40068 Y-3.27567
G01 X-4.40338 Y-3.27747
G01 X-4.40606 Y-3.27890
G01 X-4.40905 Y-3.28014
G01 X-4.41196 Y-3.28103
G01 X-4.41514 Y-3.28166
G01 X-4.41979 Y-3.28204
G01 X-4.44825 Y-3.28204
G01 X-4.44839 Y-3.28166
G01 X-4.44825 Y-3.28204
G01 X-4.45108 Y-3.28458
G01 X-4.45333 Y-3.28622
G01 X-4.54666 Y-3.28622
G01 X-4.54892 Y-3.28458
G01 X-4.55320 Y-3.28073
G01 X-4.55551 Y-3.27816
G01 X-4.55890 Y-3.27350
G01 X-4.56063 Y-3.27050
G01 X-4.56297 Y-3.26524
G01 X-4.56404 Y-3.26195
G01 X-4.56524 Y-3.25632
G01 X-4.56560 Y-3.25288
G01 X-4.56560 Y-3.24712
G01 X-4.56524 Y-3.24368
G01 X-4.56404 Y-3.23805
G01 X-4.56297 Y-3.23476
G01 X-4.56063 Y-3.22949
G01 X-4.55890 Y-3.22650
G01 X-4.55551 Y-3.22184
G01 X-4.55320 Y-3.21927
G01 X-4.54892 Y-3.21542
G01 X-4.54666 Y-3.21378
G01 X-4.46800 Y-3.21378
G01 X-4.46397 Y-3.21509
G01 X-4.46202 Y-3.21596
G01 X-4.45703 Y-3.21884
G01 X-4.45530 Y-3.22010
G01 X-4.45102 Y-3.22395
G01 X-4.45074 Y-3.22426
G01 X-4.45088 Y-3.22466
G01 X-4.45074 Y-3.22426
G01 X-4.44102 Y-3.22426
G01 X-4.43918 Y-3.22611
G01 X-4.44102 Y-3.22426
G01 X-4.44102 Y-3.19413
G01 X-4.44089 Y-3.19371
G01 X-4.44275 Y-3.19948
G01 X-4.44413 Y-3.20304
G01 X-4.44829 Y-3.21203
G01 X-4.44819 Y-3.21210
G01 X-4.44829 Y-3.21203
G01 X-4.44899 Y-3.21295
G01 X-4.44998 Y-3.21357
G01 X-4.44981 Y-3.21399
G01 X-4.44998 Y-3.21357
G01 X-4.45111 Y-3.21378
G01 X-4.46800 Y-3.21378
G01 X-4.45334 Y-3.21378
G01 X-4.45108 Y-3.21542
G01 X-4.44825 Y-3.21796
G01 X-4.44839 Y-3.21833
G01 X-4.44825 Y-3.21796
G01 X-4.44732 Y-3.21796
G01 X-4.44548 Y-3.21981
G01 X-4.44732 Y-3.21796
G01 X-4.44732 Y-3.21007
G01 X-4.44407 Y-3.20289
G01 X-4.44276 Y-3.19947
G01 X-4.44089 Y-3.19371
G01 X-4.44009 Y-3.19073
G01 X-4.43843 Y-3.18235
G01 X-4.43783 Y-3.17642
G01 X-4.43769 Y-3.16838
G01 X-4.43845 Y-3.16017
G01 X-4.43882 Y-3.15771
G01 X-4.44013 Y-3.15163
G01 X-4.44276 Y-3.14304
G01 X-4.44406 Y-3.13963
G01 X-4.44732 Y-3.13249
G01 X-4.44732 Y-3.05457
G01 X-4.44684 Y-3.05437
G01 X-4.44732 Y-3.05457
G01 X-4.57374 Y-2.92804
G01 X-4.57567 Y-2.92569
G01 X-4.57747 Y-2.92300
G01 X-4.57890 Y-2.92032
G01 X-4.58014 Y-2.91732
G01 X-4.58103 Y-2.91441
G01 X-4.58166 Y-2.91123
G01 X-4.58204 Y-2.90659
G01 X-4.58204 Y-2.89080
G01 X-4.58129 Y-2.89041
G01 X-4.58204 Y-2.89080
G01 X-4.58478 Y-2.88934
G01 X-4.58728 Y-2.88728
G01 X-4.58939 Y-2.88469
G01 X-4.58922 Y-2.88158
G01 X-4.58939 Y-2.88469
G01 X-4.64504 Y-2.94034
G01 X-4.64563 Y-2.94012
G01 X-4.64504 Y-2.94034
G01 X-4.64421 Y-2.94827
G01 X-4.64421 Y-2.95173
G01 X-4.64506 Y-2.95991
G01 X-4.64578 Y-2.96329
G01 X-4.64832 Y-2.97111
G01 X-4.64973 Y-2.97427
G01 X-4.65384 Y-2.98140
G01 X-4.65588 Y-2.98419
G01 X-4.66138 Y-2.99031
G01 X-4.66395 Y-2.99262
G01 X-4.67061 Y-2.99745
G01 X-4.67360 Y-2.99918
G01 X-4.68111 Y-3.00253
G01 X-4.68440 Y-3.00360
G01 X-4.69245 Y-3.00531
G01 X-4.69589 Y-3.00567
G01 X-4.70157 Y-3.00567
G01 X-4.70283 Y-3.00515
G01 X-4.70633 Y-3.00348
G01 X-4.71372 Y-2.99947
G01 X-4.71629 Y-2.99790
G01 X-4.72304 Y-2.99326
G01 X-4.72503 Y-2.99173
G01 X-4.73118 Y-2.98648
G01 X-4.73840 Y-2.97904
G01 X-4.73994 Y-2.97724
G01 X-4.74344 Y-2.97269
G01 X-4.74426 Y-2.96914
G01 X-4.74575 Y-2.95903
G01 X-4.74617 Y-2.95097
G01 X-4.74575 Y-2.94097
G01 X-4.74426 Y-2.93086
G01 X-4.74344 Y-2.92731
G01 X-4.73840 Y-2.92095
G01 X-4.73118 Y-2.91352
G01 X-4.72503 Y-2.90827
G01 X-4.72304 Y-2.90674
G01 X-4.72088 Y-2.90525
G01 X-4.71632 Y-2.90322
G01 X-4.71429 Y-2.90256
G01 X-4.70624 Y-2.90085
G01 X-4.70411 Y-2.90063
G01 X-4.69589 Y-2.90063
G01 X-4.69376 Y-2.90085
G01 X-4.68839 Y-2.90199
G01 X-4.68815 Y-2.90277
G01 X-4.68839 Y-2.90199
G01 X-4.61820 Y-2.83180
G01 X-4.61510 Y-2.82920
G01 X-4.61344 Y-2.82808
G01 X-4.61076 Y-2.82665
G01 X-4.60890 Y-2.82588
G01 X-4.60600 Y-2.82500
G01 X-4.60403 Y-2.82461
G01 X-4.60000 Y-2.82426
G01 X-4.58581 Y-2.82426
G01 X-4.58467 Y-2.82563
G01 X-4.58581 Y-2.82426
G01 X-4.58563 Y-2.82241
G01 X-4.58505 Y-2.82049
G01 X-4.58165 Y-2.81868
G01 X-4.57531 Y-2.81756
G01 X-4.52461 Y-2.81756
G01 X-4.52017 Y-2.81811
G01 X-4.51581 Y-2.81975
G01 X-4.51512 Y-2.82018
G01 X-4.51437 Y-2.82241
G01 X-4.51417 Y-2.82441
G01 X-4.51417 Y-2.87559
G01 X-4.51437 Y-2.87759
G01 X-4.51495 Y-2.87951
G01 X-4.51590 Y-2.88128
G01 X-4.51717 Y-2.88283
G01 X-4.51872 Y-2.88410
G01 X-4.52049 Y-2.88505
G01 X-4.52241 Y-2.88563
G01 X-4.52426 Y-2.88581
G01 X-4.52569 Y-2.88465
G01 X-4.52426 Y-2.88581
G01 X-4.52426 Y-2.89593
G01 X-4.52474 Y-2.89613
G01 X-4.52426 Y-2.89593
G01 X-4.39709 Y-3.02310
G01 X-4.39449 Y-3.02620
G01 X-4.39337 Y-3.02787
G01 X-4.39194 Y-3.03055
G01 X-4.39117 Y-3.03240
G01 X-4.39029 Y-3.03531
G01 X-4.38990 Y-3.03728
G01 X-4.38955 Y-3.04130
G01 X-4.38955 Y-3.24550
G01 X-4.38990 Y-3.24953
G01 X-4.39029 Y-3.25149
G01 X-4.39117 Y-3.25440
G01 X-4.39194 Y-3.25625
G01 X-4.39337 Y-3.25893
G01 X-4.39449 Y-3.26060
G01 X-4.39641 Y-3.26295
G01 X-4.40233 Y-3.26887
G01 X-4.40468 Y-3.27080
G01 X-4.40635 Y-3.27191
G01 X-4.40903 Y-3.27335
G01 X-4.41088 Y-3.27412
G01 X-4.41379 Y-3.27500
G01 X-4.41576 Y-3.27539
G01 X-4.41979 Y-3.27574
G01 X-4.45074 Y-3.27574
G01 X-4.45088 Y-3.27534
G01 X-4.45074 Y-3.27574
G01 X-4.45102 Y-3.27605
G01 X-4.45530 Y-3.27990
G01 X-4.45703 Y-3.28116
G01 X-4.46202 Y-3.28404
G01 X-4.46397 Y-3.28491
G01 X-4.46800 Y-3.28622
G01 X-4.53200 Y-3.28622
G01 X-4.53603 Y-3.28491
G01 X-4.53798 Y-3.28404
G01 X-4.54297 Y-3.28116
G01 X-4.54470 Y-3.27990
G01 X-4.54898 Y-3.27605
G01 X-4.55042 Y-3.27446
