( pcb2gcode 2.1.0 )
( Software-independent Gcode )

G94 ( Inches per minute feed rate. )
G20 ( Units == INCHES. )

G90 ( Absolute coordinates. )
G00 S12000 ( RPM spindle speed. )
G64 P0.00040 ( set maximum deviation from commanded toolpath )
G01 F360.00000 ( Feedrate. )


G00 Z1.00000 (Retract to tool change height)
T0
M5      (Spindle stop.)
G04 P1.00000 (Wait for spindle to stop)
(MSG, Change tool bit to mill diameter 0.00787in)
M6      (Tool change.)
M0      (Temporary machine stop.)
M3 ( Spindle on clockwise. )
G04 P1.00000 (Wait for spindle to get up to speed)
G04 P0 ( dwell for no time -- G64 should not smooth over this point )
G00 Z0.08000 ( retract )

G00 X-3.18782 Y-2.55000 ( rapid move to begin. )
G01 F180.00000
( Mill infeed pass 1/1 )
G01 Z-0.04000
G04 P0 ( dwell for no time -- G64 should not smooth over this point )
G01 F360.00000
G01 X-3.18782 Y-2.55000
G01 X-3.20671 Y-2.55000
G01 X-3.20766 Y-2.55900
G01 X-3.21046 Y-2.56761
G01 X-3.21498 Y-2.57544
G01 X-3.22074 Y-2.58188
G01 X-3.22872 Y-2.58767
G01 X-3.23662 Y-2.59117
G01 X-3.24547 Y-2.59305
G01 X-3.25452 Y-2.59305
G01 X-3.26298 Y-2.59127
G01 X-3.27164 Y-2.58749
G01 X-3.27926 Y-2.58188
G01 X-3.28503 Y-2.57543
G01 X-3.28832 Y-2.56969
G01 X-3.61168 Y-2.56969
G01 X-3.61497 Y-2.57543
G01 X-3.62074 Y-2.58188
G01 X-3.62836 Y-2.58749
G01 X-3.63702 Y-2.59127
G01 X-3.64547 Y-2.59305
G01 X-3.65452 Y-2.59305
G01 X-3.66338 Y-2.59117
G01 X-3.67164 Y-2.58749
G01 X-3.67896 Y-2.58217
G01 X-3.68476 Y-2.57576
G01 X-3.68954 Y-2.56761
G01 X-3.69240 Y-2.55859
G01 X-3.69326 Y-2.54959
G01 X-3.69234 Y-2.54100
G01 X-3.69092 Y-2.53656
G01 X-3.80455 Y-2.42294
G01 X-4.14545 Y-2.42294
G01 X-4.25908 Y-2.53656
G01 X-4.25766 Y-2.54100
G01 X-4.25673 Y-2.54962
G01 X-4.01345 Y-2.67126
G01 X-3.93110 Y-2.67126
G01 X-3.93033 Y-2.67134
G01 X-3.92891 Y-2.67193
G01 X-3.92783 Y-2.67301
G01 X-3.92724 Y-2.67443
G01 X-3.92716 Y-2.67520
G01 X-3.92716 Y-2.81300
G01 X-3.92746 Y-2.81451
G01 X-3.92832 Y-2.81578
G01 X-3.92959 Y-2.81664
G01 X-3.93110 Y-2.81694
G01 X-4.06890 Y-2.81694
G01 X-4.07041 Y-2.81664
G01 X-4.07109 Y-2.81627
G01 X-4.07217 Y-2.81519
G01 X-4.07276 Y-2.81377
G01 X-4.07284 Y-2.81300
G01 X-4.07284 Y-2.68559
G01 X-4.27454 Y-2.58474
G01 X-4.27836 Y-2.58749
G01 X-4.28624 Y-2.59102
G01 X-4.29507 Y-2.59299
G01 X-4.30452 Y-2.59305
G01 X-4.31298 Y-2.59127
G01 X-4.32164 Y-2.58749
G01 X-4.32896 Y-2.58217
G01 X-4.33503 Y-2.57543
G01 X-4.33832 Y-2.56969
G01 X-4.66168 Y-2.56969
G01 X-4.66497 Y-2.57543
G01 X-4.67074 Y-2.58188
G01 X-4.67836 Y-2.58749
G01 X-4.68702 Y-2.59127
G01 X-4.69548 Y-2.59305
G01 X-4.70452 Y-2.59305
G01 X-4.71338 Y-2.59117
G01 X-4.72128 Y-2.58767
G01 X-4.72926 Y-2.58188
G01 X-4.73502 Y-2.57544
G01 X-4.73954 Y-2.56761
G01 X-4.74234 Y-2.55900
G01 X-4.74329 Y-2.55000
G01 X-4.74234 Y-2.54100
G01 X-4.73954 Y-2.53239
G01 X-4.73502 Y-2.52456
G01 X-4.72926 Y-2.51812
G01 X-4.72164 Y-2.51251
G01 X-4.71376 Y-2.50898
G01 X-4.70411 Y-2.50693
G01 X-4.69548 Y-2.50695
G01 X-4.68702 Y-2.50872
G01 X-4.67836 Y-2.51251
G01 X-4.67074 Y-2.51812
G01 X-4.66497 Y-2.52457
G01 X-4.66168 Y-2.53031
G01 X-4.33832 Y-2.53031
G01 X-4.33503 Y-2.52457
G01 X-4.32896 Y-2.51783
G01 X-4.32164 Y-2.51251
G01 X-4.31376 Y-2.50898
G01 X-4.30411 Y-2.50693
G01 X-4.29547 Y-2.50695
G01 X-4.28640 Y-2.50892
G01 X-4.16724 Y-2.38976
G01 X-4.16461 Y-2.38757
G01 X-4.16094 Y-2.38554
G01 X-4.15729 Y-2.38444
G01 X-4.15350 Y-2.38406
G01 X-3.79650 Y-2.38406
G01 X-3.79271 Y-2.38444
G01 X-3.78871 Y-2.38571
G01 X-3.78539 Y-2.38757
G01 X-3.78275 Y-2.38976
G01 X-3.66360 Y-2.50892
G01 X-3.65452 Y-2.50695
G01 X-3.64589 Y-2.50693
G01 X-3.63624 Y-2.50898
G01 X-3.62836 Y-2.51251
G01 X-3.62104 Y-2.51783
G01 X-3.61497 Y-2.52457
G01 X-3.61168 Y-2.53031
G01 X-3.28832 Y-2.53031
G01 X-3.28503 Y-2.52457
G01 X-3.27926 Y-2.51812
G01 X-3.27164 Y-2.51251
G01 X-3.26298 Y-2.50872
G01 X-3.25452 Y-2.50695
G01 X-3.24589 Y-2.50693
G01 X-3.23624 Y-2.50898
G01 X-3.22836 Y-2.51251
G01 X-3.22074 Y-2.51812
G01 X-3.21498 Y-2.52456
G01 X-3.21046 Y-2.53239
G01 X-3.20766 Y-2.54100
G01 X-3.20671 Y-2.55000
G04 P0 ( dwell for no time -- G64 should not smooth over this point )
G00 Z0.08000 ( retract )

G00 X-3.43955 Y-2.80647 ( rapid move to begin. )
G01 F180.00000
( Mill infeed pass 1/1 )
G01 Z-0.04000
G04 P0 ( dwell for no time -- G64 should not smooth over this point )
G01 F360.00000
G01 X-3.43955 Y-2.80647
G01 X-3.43288 Y-2.80468
G01 X-3.42559 Y-2.80403
G01 X-3.37441 Y-2.80403
G01 X-3.36427 Y-2.80529
G01 X-3.36107 Y-2.80648
G01 X-3.22659 Y-2.80648
G01 X-3.22639 Y-2.80600
G01 X-3.22659 Y-2.80648
G01 X-3.20648 Y-2.82659
G01 X-3.20601 Y-2.82639
G01 X-3.20648 Y-2.82659
G01 X-3.20648 Y-2.90572
G01 X-3.20345 Y-2.91362
G01 X-3.20214 Y-2.91762
G01 X-3.19993 Y-2.92584
G01 X-3.19923 Y-2.92918
G01 X-3.19793 Y-2.93741
G01 X-3.19762 Y-2.94036
G01 X-3.19718 Y-2.94859
G01 X-3.19718 Y-2.95141
G01 X-3.20041 Y-2.95000
G01 X-3.20150 Y-2.96031
G01 X-3.20432 Y-2.96917
G01 X-3.20519 Y-2.97112
G01 X-3.20988 Y-2.97915
G01 X-3.21682 Y-2.98685
G01 X-3.22426 Y-2.99233
G01 X-3.22494 Y-2.99198
G01 X-3.22426 Y-2.99233
G01 X-3.22426 Y-3.18021
G01 X-3.22476 Y-3.18523
G01 X-3.22588 Y-3.18911
G01 X-3.22665 Y-3.19097
G01 X-3.22808 Y-3.19365
G01 X-3.22920 Y-3.19531
G01 X-3.23180 Y-3.19841
G01 X-3.30159 Y-3.26820
G01 X-3.30468 Y-3.27080
G01 X-3.30635 Y-3.27191
G01 X-3.30903 Y-3.27335
G01 X-3.31089 Y-3.27412
G01 X-3.31477 Y-3.27524
G01 X-3.31979 Y-3.27574
G01 X-3.35071 Y-3.27574
G01 X-3.35086 Y-3.27532
G01 X-3.35071 Y-3.27574
G01 X-3.35102 Y-3.27605
G01 X-3.35613 Y-3.28058
G01 X-3.36297 Y-3.28453
G01 X-3.37049 Y-3.28697
G01 X-3.37728 Y-3.28774
G01 X-3.42272 Y-3.28774
G01 X-3.42845 Y-3.28714
G01 X-3.43055 Y-3.28669
G01 X-3.43703 Y-3.28453
G01 X-3.44297 Y-3.28116
G01 X-3.44470 Y-3.27990
G01 X-3.44974 Y-3.27529
G01 X-3.45438 Y-3.26890
G01 X-3.45760 Y-3.26168
G01 X-3.45907 Y-3.25501
G01 X-3.45930 Y-3.25288
G01 X-3.45930 Y-3.24712
G01 X-3.45907 Y-3.24499
G01 X-3.45760 Y-3.23832
G01 X-3.45487 Y-3.23206
G01 X-3.45380 Y-3.23020
G01 X-3.44974 Y-3.22471
G01 X-3.44387 Y-3.21942
G01 X-3.43703 Y-3.21547
G01 X-3.43055 Y-3.21331
G01 X-3.42845 Y-3.21286
G01 X-3.42165 Y-3.21220
G01 X-3.37835 Y-3.21220
G01 X-3.37049 Y-3.21303
G01 X-3.36297 Y-3.21547
G01 X-3.35613 Y-3.21942
G01 X-3.35102 Y-3.22395
G01 X-3.35071 Y-3.22426
G01 X-3.35086 Y-3.22468
G01 X-3.35071 Y-3.22426
G01 X-3.33045 Y-3.22426
G01 X-3.33025 Y-3.22474
G01 X-3.33045 Y-3.22426
G01 X-3.27574 Y-3.16955
G01 X-3.27526 Y-3.16975
G01 X-3.27574 Y-3.16955
G01 X-3.27574 Y-2.99233
G01 X-3.27506 Y-2.99198
G01 X-3.27574 Y-2.99233
G01 X-3.28235 Y-2.98752
G01 X-3.28394 Y-2.98609
G01 X-3.29012 Y-2.97915
G01 X-3.29530 Y-2.97017
G01 X-3.29850 Y-2.96031
G01 X-3.29953 Y-2.95107
G01 X-3.29953 Y-2.94893
G01 X-3.29850 Y-2.93969
G01 X-3.29811 Y-2.93829
G01 X-3.29745 Y-2.93806
G01 X-3.29811 Y-2.93829
G01 X-3.36066 Y-2.87574
G01 X-3.36046 Y-2.87526
G01 X-3.36066 Y-2.87574
G01 X-3.36418 Y-2.87574
G01 X-3.36541 Y-2.87427
G01 X-3.36418 Y-2.87574
G01 X-3.36433 Y-2.87737
G01 X-3.36479 Y-2.87909
G01 X-3.36554 Y-2.88071
G01 X-3.36657 Y-2.88217
G01 X-3.36783 Y-2.88343
G01 X-3.36929 Y-2.88445
G01 X-3.37091 Y-2.88521
G01 X-3.37263 Y-2.88567
G01 X-3.37441 Y-2.88583
G01 X-3.42559 Y-2.88583
G01 X-3.42759 Y-2.88563
G01 X-3.42951 Y-2.88505
G01 X-3.43128 Y-2.88410
G01 X-3.43283 Y-2.88283
G01 X-3.43410 Y-2.88128
G01 X-3.43505 Y-2.87951
G01 X-3.43563 Y-2.87759
G01 X-3.43583 Y-2.87559
G01 X-3.43583 Y-2.82441
G01 X-3.43563 Y-2.82241
G01 X-3.43505 Y-2.82049
G01 X-3.43410 Y-2.81872
G01 X-3.43283 Y-2.81717
G01 X-3.43128 Y-2.81590
G01 X-3.42951 Y-2.81495
G01 X-3.42759 Y-2.81437
G01 X-3.42559 Y-2.81417
G01 X-3.37441 Y-2.81417
G01 X-3.37241 Y-2.81437
G01 X-3.37049 Y-2.81495
G01 X-3.36872 Y-2.81590
G01 X-3.36717 Y-2.81717
G01 X-3.36590 Y-2.81872
G01 X-3.36495 Y-2.82049
G01 X-3.36437 Y-2.82241
G01 X-3.36419 Y-2.82426
G01 X-3.36532 Y-2.82563
G01 X-3.36419 Y-2.82426
G01 X-3.34900 Y-2.82431
G01 X-3.34498 Y-2.82476
G01 X-3.34110 Y-2.82588
G01 X-3.33924 Y-2.82665
G01 X-3.33656 Y-2.82808
G01 X-3.33489 Y-2.82920
G01 X-3.33180 Y-2.83180
G01 X-3.26161 Y-2.90199
G01 X-3.26185 Y-2.90281
G01 X-3.26161 Y-2.90199
G01 X-3.25624 Y-2.90085
G01 X-3.25411 Y-2.90063
G01 X-3.24482 Y-2.90069
G01 X-3.23571 Y-2.90256
G01 X-3.23368 Y-2.90322
G01 X-3.22521 Y-2.90706
G01 X-3.21682 Y-2.91315
G01 X-3.20988 Y-2.92085
G01 X-3.20470 Y-2.92983
G01 X-3.20150 Y-2.93969
G01 X-3.20041 Y-2.95000
G01 X-3.20671 Y-2.95000
G01 X-3.20777 Y-2.95940
G01 X-3.21046 Y-2.96761
G01 X-3.21475 Y-2.97510
G01 X-3.22104 Y-2.98217
G01 X-3.22801 Y-2.98726
G01 X-3.23056 Y-2.98849
G01 X-3.23056 Y-3.18021
G01 X-3.23094 Y-3.18400
G01 X-3.23191 Y-3.18728
G01 X-3.23407 Y-3.19132
G01 X-3.23625 Y-3.19395
G01 X-3.30605 Y-3.26374
G01 X-3.30868 Y-3.26593
G01 X-3.31235 Y-3.26796
G01 X-3.31600 Y-3.26906
G01 X-3.31979 Y-3.26944
G01 X-3.35372 Y-3.26944
G01 X-3.35523 Y-3.27137
G01 X-3.35983 Y-3.27548
G01 X-3.36553 Y-3.27877
G01 X-3.37180 Y-3.28081
G01 X-3.37793 Y-3.28147
G01 X-3.42206 Y-3.28147
G01 X-3.42860 Y-3.28070
G01 X-3.43446 Y-3.27877
G01 X-3.43982 Y-3.27570
G01 X-3.44506 Y-3.27107
G01 X-3.44893 Y-3.26575
G01 X-3.45161 Y-3.25973
G01 X-3.45300 Y-3.25288
G01 X-3.45291 Y-3.24630
G01 X-3.45161 Y-3.24027
G01 X-3.44912 Y-3.23462
G01 X-3.44506 Y-3.22892
G01 X-3.43982 Y-3.22429
G01 X-3.43446 Y-3.22123
G01 X-3.42860 Y-3.21930
G01 X-3.42206 Y-3.21853
G01 X-3.37793 Y-3.21853
G01 X-3.37180 Y-3.21919
G01 X-3.36553 Y-3.22123
G01 X-3.35983 Y-3.22452
G01 X-3.35523 Y-3.22863
G01 X-3.35372 Y-3.23056
G01 X-3.32784 Y-3.23056
G01 X-3.26944 Y-3.17216
G01 X-3.26944 Y-2.98849
G01 X-3.27199 Y-2.98726
G01 X-3.27926 Y-2.98188
G01 X-3.28502 Y-2.97544
G01 X-3.28954 Y-2.96761
G01 X-3.29234 Y-2.95900
G01 X-3.29329 Y-2.95000
G01 X-3.29234 Y-2.94100
G01 X-3.29092 Y-2.93656
G01 X-3.35805 Y-2.86944
G01 X-3.37047 Y-2.86944
G01 X-3.37047 Y-2.87559
G01 X-3.37071 Y-2.87694
G01 X-3.37100 Y-2.87756
G01 X-3.37188 Y-2.87861
G01 X-3.37306 Y-2.87929
G01 X-3.37372 Y-2.87947
G01 X-3.42559 Y-2.87953
G01 X-3.42710 Y-2.87923
G01 X-3.42837 Y-2.87837
G01 X-3.42923 Y-2.87710
G01 X-3.42953 Y-2.87559
G01 X-3.42953 Y-2.82441
G01 X-3.42923 Y-2.82290
G01 X-3.42886 Y-2.82222
G01 X-3.42778 Y-2.82113
G01 X-3.42710 Y-2.82077
G01 X-3.42559 Y-2.82047
G01 X-3.37364 Y-2.82055
G01 X-3.37222 Y-2.82113
G01 X-3.37114 Y-2.82222
G01 X-3.37077 Y-2.82290
G01 X-3.37047 Y-2.82441
G01 X-3.37047 Y-2.83056
G01 X-3.35000 Y-2.83056
G01 X-3.34659 Y-2.83088
G01 X-3.34256 Y-2.83204
G01 X-3.33953 Y-2.83364
G01 X-3.33625 Y-2.83625
G01 X-3.26360 Y-2.90891
G01 X-3.25452 Y-2.90695
G01 X-3.24507 Y-2.90701
G01 X-3.23662 Y-2.90883
G01 X-3.22872 Y-2.91233
G01 X-3.22104 Y-2.91783
G01 X-3.21498 Y-2.92456
G01 X-3.21046 Y-2.93239
G01 X-3.20766 Y-2.94100
G01 X-3.20671 Y-2.95000
G04 P0 ( dwell for no time -- G64 should not smooth over this point )
G00 Z0.08000 ( retract )

G00 X-3.19923 Y-2.92918 ( rapid move to begin. )
G01 F180.00000
( Mill infeed pass 1/1 )
G01 Z-0.04000
G04 P0 ( dwell for no time -- G64 should not smooth over this point )
G01 F360.00000
G01 X-3.19923 Y-2.92918
G01 X-3.19792 Y-2.93740
G01 X-3.19762 Y-2.94036
G01 X-3.19718 Y-2.94859
G01 X-3.19719 Y-2.95141
G01 X-3.19761 Y-2.95964
G01 X-3.19793 Y-2.96259
G01 X-3.19922 Y-2.97082
G01 X-3.19994 Y-2.97415
G01 X-3.20214 Y-2.98238
G01 X-3.20345 Y-2.98638
G01 X-3.20648 Y-2.99428
G01 X-3.20648 Y-3.20174
G01 X-3.20601 Y-3.20194
G01 X-3.20648 Y-3.20174
G01 X-3.32834 Y-3.32360
G01 X-3.33152 Y-3.33162
G01 X-3.33329 Y-3.33537
G01 X-3.33617 Y-3.34065
G01 X-3.33796 Y-3.34357
G01 X-3.34126 Y-3.34841
G01 X-3.34311 Y-3.35078
G01 X-3.34881 Y-3.35724
G01 X-3.35519 Y-3.36308
G01 X-3.36202 Y-3.36816
G01 X-3.36193 Y-3.36838
G01 X-3.36202 Y-3.36816
G01 X-3.36824 Y-3.36915
G01 X-3.37117 Y-3.36946
G01 X-3.37834 Y-3.36981
G01 X-3.42165 Y-3.36980
G01 X-3.42883 Y-3.36946
G01 X-3.43176 Y-3.36917
G01 X-3.43752 Y-3.36826
G01 X-3.44368 Y-3.36676
G01 X-3.44757 Y-3.36441
G01 X-3.45147 Y-3.36103
G01 X-3.45134 Y-3.36066
G01 X-3.45147 Y-3.36103
G01 X-3.67270 Y-3.36096
G01 X-3.67545 Y-3.36072
G01 X-3.67829 Y-3.36022
G01 X-3.68233 Y-3.35907
G01 X-3.72064 Y-3.34509
G01 X-3.72071 Y-3.34439
G01 X-3.72064 Y-3.34509
G01 X-3.72303 Y-3.34671
G01 X-3.73172 Y-3.35068
G01 X-3.73500 Y-3.35175
G01 X-3.74436 Y-3.35364
G01 X-3.75564 Y-3.35364
G01 X-3.76499 Y-3.35175
G01 X-3.76828 Y-3.35068
G01 X-3.77697 Y-3.34671
G01 X-3.78475 Y-3.34117
G01 X-3.78731 Y-3.33886
G01 X-3.79364 Y-3.33170
G01 X-3.79606 Y-3.32768
G01 X-3.79736 Y-3.32283
G01 X-3.79527 Y-3.33065
G01 X-3.79031 Y-3.34476
G01 X-3.78212 Y-3.35086
G01 X-3.78012 Y-3.35217
G01 X-3.77799 Y-3.35325
G01 X-3.76861 Y-3.35729
G01 X-3.75866 Y-3.35953
G01 X-3.75630 Y-3.35991
G01 X-3.75391 Y-3.36003
G01 X-3.74370 Y-3.35991
G01 X-3.73369 Y-3.35791
G01 X-3.73138 Y-3.35729
G01 X-3.72915 Y-3.35643
G01 X-3.72201 Y-3.35325
G01 X-3.71978 Y-3.35210
G01 X-3.71980 Y-3.35161
G01 X-3.71978 Y-3.35210
G01 X-3.69687 Y-3.36047
G01 X-3.68369 Y-3.36280
G01 X-3.67915 Y-3.36343
G01 X-3.67571 Y-3.36374
G01 X-3.67126 Y-3.36389
G01 X-3.45256 Y-3.36383
G01 X-3.45024 Y-3.36479
G01 X-3.44650 Y-3.36601
G01 X-3.44074 Y-3.36755
G01 X-3.44650 Y-3.36601
G01 X-3.45257 Y-3.36389
G01 X-3.67126 Y-3.36389
G01 X-3.67571 Y-3.36374
G01 X-3.68190 Y-3.36307
G01 X-3.69687 Y-3.36047
G01 X-3.80386 Y-3.36047
G01 X-3.81245 Y-3.36262
G01 X-3.80830 Y-3.36676
G01 X-3.80850 Y-3.36724
G01 X-3.80830 Y-3.36676
G01 X-3.44368 Y-3.36676
G01 X-3.43751 Y-3.36824
G01 X-3.43175 Y-3.36915
G01 X-3.42883 Y-3.36946
G01 X-3.42307 Y-3.36976
G01 X-3.37834 Y-3.36981
G01 X-3.37117 Y-3.36946
G01 X-3.36824 Y-3.36915
G01 X-3.36202 Y-3.36816
G01 X-3.35519 Y-3.36308
G01 X-3.34881 Y-3.35723
G01 X-3.34686 Y-3.35518
G01 X-3.34311 Y-3.35078
G01 X-3.34128 Y-3.34840
G01 X-3.33796 Y-3.34357
G01 X-3.33617 Y-3.34065
G01 X-3.33331 Y-3.33537
G01 X-3.33152 Y-3.33162
G01 X-3.32825 Y-3.32334
G01 X-3.32980 Y-3.31548
G01 X-3.33042 Y-3.31317
G01 X-3.33128 Y-3.31094
G01 X-3.33470 Y-3.30354
G01 X-3.33601 Y-3.30154
G01 X-3.34090 Y-3.29502
G01 X-3.34700 Y-3.28937
G01 X-3.45300 Y-3.28937
G01 X-3.45389 Y-3.29015
G01 X-3.45373 Y-3.29056
G01 X-3.45389 Y-3.29015
G01 X-3.66445 Y-3.29025
G01 X-3.69353 Y-3.27954
G01 X-3.69393 Y-3.27996
G01 X-3.69353 Y-3.27954
G01 X-3.69497 Y-3.27550
G01 X-3.69606 Y-3.27337
G01 X-3.70127 Y-3.26459
G01 X-3.70800 Y-3.25692
G01 X-3.70969 Y-3.25523
G01 X-3.71155 Y-3.25373
G01 X-3.71988 Y-3.24783
G01 X-3.72201 Y-3.24675
G01 X-3.73138 Y-3.24271
G01 X-3.74134 Y-3.24047
G01 X-3.74370 Y-3.24009
G01 X-3.74609 Y-3.23997
G01 X-3.75630 Y-3.24009
G01 X-3.75866 Y-3.24047
G01 X-3.76861 Y-3.24271
G01 X-3.77799 Y-3.24675
G01 X-3.78012 Y-3.24783
G01 X-3.78212 Y-3.24913
G01 X-3.78845 Y-3.25373
G01 X-3.79039 Y-3.25532
G01 X-3.79527 Y-3.26935
G01 X-3.79738 Y-3.27717
G01 X-3.79803 Y-3.28028
G01 X-3.79928 Y-3.28810
G01 X-3.79955 Y-3.29086
G01 X-3.79998 Y-3.29868
G01 X-3.79955 Y-3.30914
G01 X-3.79928 Y-3.31190
G01 X-3.79803 Y-3.31971
G01 X-3.79736 Y-3.32283
G01 X-3.79606 Y-3.32768
G01 X-3.79606 Y-3.33937
G01 X-3.79638 Y-3.34260
G01 X-3.79732 Y-3.34570
G01 X-3.79885 Y-3.34856
G01 X-3.80091 Y-3.35106
G01 X-3.80341 Y-3.35312
G01 X-3.80627 Y-3.35465
G01 X-3.80937 Y-3.35559
G01 X-3.81260 Y-3.35590
G01 X-3.81796 Y-3.35590
G01 X-3.81973 Y-3.35421
G01 X-3.81796 Y-3.35590
G01 X-3.81796 Y-3.35710
G01 X-3.81844 Y-3.35730
G01 X-3.81796 Y-3.35710
G01 X-3.81245 Y-3.36262
G01 X-3.80386 Y-3.36047
G01 X-3.79991 Y-3.35836
G01 X-3.79645 Y-3.35552
G01 X-3.79361 Y-3.35206
G01 X-3.79150 Y-3.34811
G01 X-3.79043 Y-3.34457
G01 X-3.79527 Y-3.33065
G01 X-3.79736 Y-3.32283
G01 X-3.79803 Y-3.31971
G01 X-3.79926 Y-3.31190
G01 X-3.79955 Y-3.30914
G01 X-3.79996 Y-3.30132
G01 X-3.79996 Y-3.29868
G01 X-3.79955 Y-3.29086
G01 X-3.79926 Y-3.28810
G01 X-3.79803 Y-3.28028
G01 X-3.79736 Y-3.27717
G01 X-3.79527 Y-3.26935
G01 X-3.79043 Y-3.25543
G01 X-3.79150 Y-3.25189
G01 X-3.79361 Y-3.24794
G01 X-3.79645 Y-3.24448
G01 X-3.79991 Y-3.24164
G01 X-3.80386 Y-3.23953
G01 X-3.80814 Y-3.23823
G01 X-3.81260 Y-3.23780
G01 X-3.88740 Y-3.23780
G01 X-3.89186 Y-3.23823
G01 X-3.89614 Y-3.23953
G01 X-3.90009 Y-3.24164
G01 X-3.90355 Y-3.24448
G01 X-3.90639 Y-3.24794
G01 X-3.90850 Y-3.25189
G01 X-3.90980 Y-3.25617
G01 X-3.91024 Y-3.26166
G01 X-3.90869 Y-3.26334
G01 X-3.91024 Y-3.26166
G01 X-3.98976 Y-3.26166
G01 X-3.99131 Y-3.26334
G01 X-3.98976 Y-3.26166
G01 X-3.99020 Y-3.25617
G01 X-3.99150 Y-3.25189
G01 X-3.99361 Y-3.24794
G01 X-3.99645 Y-3.24448
G01 X-3.99991 Y-3.24164
G01 X-4.00386 Y-3.23953
G01 X-4.00814 Y-3.23823
G01 X-4.01260 Y-3.23780
G01 X-4.08740 Y-3.23780
G01 X-4.09186 Y-3.23823
G01 X-4.09614 Y-3.23953
G01 X-4.10009 Y-3.24164
G01 X-4.10355 Y-3.24448
G01 X-4.10639 Y-3.24794
G01 X-4.10850 Y-3.25189
G01 X-4.10957 Y-3.25543
G01 X-4.10473 Y-3.26935
G01 X-4.10262 Y-3.27717
G01 X-4.10197 Y-3.28028
G01 X-4.10072 Y-3.28810
G01 X-4.10002 Y-3.29868
G01 X-4.10044 Y-3.30914
G01 X-4.10072 Y-3.31190
G01 X-4.10196 Y-3.31972
G01 X-4.10264 Y-3.32283
G01 X-4.10473 Y-3.33065
G01 X-4.10957 Y-3.34457
G01 X-4.10850 Y-3.34811
G01 X-4.10639 Y-3.35206
G01 X-4.10355 Y-3.35552
G01 X-4.10009 Y-3.35836
G01 X-4.09614 Y-3.36047
G01 X-4.09186 Y-3.36177
G01 X-4.08740 Y-3.36220
G01 X-4.01260 Y-3.36220
G01 X-4.00814 Y-3.36177
G01 X-4.00386 Y-3.36047
G01 X-3.99991 Y-3.35836
G01 X-3.99645 Y-3.35552
G01 X-3.99361 Y-3.35206
G01 X-3.99150 Y-3.34811
G01 X-3.99020 Y-3.34382
G01 X-3.98976 Y-3.33833
G01 X-3.99131 Y-3.33666
G01 X-3.98976 Y-3.33833
G01 X-3.91024 Y-3.33833
G01 X-3.90869 Y-3.33666
G01 X-3.91024 Y-3.33833
G01 X-3.90980 Y-3.34382
G01 X-3.90850 Y-3.34811
G01 X-3.90639 Y-3.35206
G01 X-3.90355 Y-3.35552
G01 X-3.90009 Y-3.35836
G01 X-3.89614 Y-3.36047
G01 X-3.89186 Y-3.36177
G01 X-3.88833 Y-3.36211
G01 X-3.88696 Y-3.36099
G01 X-3.88833 Y-3.36211
G01 X-3.88833 Y-3.37037
G01 X-3.88822 Y-3.37261
G01 X-3.88760 Y-3.37785
G01 X-3.88617 Y-3.38293
G01 X-3.88446 Y-3.38707
G01 X-3.88303 Y-3.38975
G01 X-3.88054 Y-3.39347
G01 X-3.87711 Y-3.39748
G01 X-3.84868 Y-3.42591
G01 X-3.84467 Y-3.42934
G01 X-3.84095 Y-3.43183
G01 X-3.83826 Y-3.43326
G01 X-3.83413 Y-3.43497
G01 X-3.82905 Y-3.43640
G01 X-3.82683 Y-3.43673
G01 X-3.82157 Y-3.43713
G01 X-3.34933 Y-3.43713
G01 X-3.34407 Y-3.43673
G01 X-3.34185 Y-3.43640
G01 X-3.33677 Y-3.43497
G01 X-3.33263 Y-3.43326
G01 X-3.32995 Y-3.43183
G01 X-3.32623 Y-3.42934
G01 X-3.32222 Y-3.42591
G01 X-3.14104 Y-3.24473
G01 X-3.13761 Y-3.24072
G01 X-3.13512 Y-3.23699
G01 X-3.13273 Y-3.23229
G01 X-3.13198 Y-3.23018
G01 X-3.13055 Y-3.22510
G01 X-3.12993 Y-3.21986
G01 X-3.12981 Y-3.21762
G01 X-3.14871 Y-3.21762
G01 X-3.14909 Y-3.22141
G01 X-3.15019 Y-3.22506
G01 X-3.15222 Y-3.22873
G01 X-3.15441 Y-3.23136
G01 X-3.33559 Y-3.41254
G01 X-3.33822 Y-3.41473
G01 X-3.34154 Y-3.41659
G01 X-3.34592 Y-3.41792
G01 X-3.34933 Y-3.41824
G01 X-3.82157 Y-3.41824
G01 X-3.82498 Y-3.41792
G01 X-3.82936 Y-3.41659
G01 X-3.83268 Y-3.41473
G01 X-3.83503 Y-3.41280
G01 X-3.86374 Y-3.38411
G01 X-3.86593 Y-3.38148
G01 X-3.86809 Y-3.37744
G01 X-3.86906 Y-3.37416
G01 X-3.86942 Y-3.37075
G01 X-3.86944 Y-3.34331
G01 X-3.88740 Y-3.34331
G01 X-3.88891 Y-3.34301
G01 X-3.89018 Y-3.34215
G01 X-3.89104 Y-3.34088
G01 X-3.89134 Y-3.33937
G01 X-3.89134 Y-3.31944
G01 X-4.00866 Y-3.31944
G01 X-4.00874 Y-3.34014
G01 X-4.00932 Y-3.34156
G01 X-4.00981 Y-3.34215
G01 X-4.01109 Y-3.34301
G01 X-4.01183 Y-3.34323
G01 X-4.08740 Y-3.34331
G01 X-4.08891 Y-3.34301
G01 X-4.09018 Y-3.34215
G01 X-4.09104 Y-3.34088
G01 X-4.09134 Y-3.33937
G01 X-4.09134 Y-3.26063
G01 X-4.09126 Y-3.25986
G01 X-4.09068 Y-3.25844
G01 X-4.08959 Y-3.25736
G01 X-4.08891 Y-3.25699
G01 X-4.08740 Y-3.25669
G01 X-4.01183 Y-3.25677
G01 X-4.01109 Y-3.25699
G01 X-4.00981 Y-3.25785
G01 X-4.00932 Y-3.25844
G01 X-4.00874 Y-3.25986
G01 X-4.00866 Y-3.28056
G01 X-3.89134 Y-3.28056
G01 X-3.89126 Y-3.25986
G01 X-3.89067 Y-3.25844
G01 X-3.88959 Y-3.25736
G01 X-3.88891 Y-3.25699
G01 X-3.88740 Y-3.25669
G01 X-3.81260 Y-3.25669
G01 X-3.81109 Y-3.25699
G01 X-3.80981 Y-3.25785
G01 X-3.80896 Y-3.25912
G01 X-3.80866 Y-3.26063
G01 X-3.80874 Y-3.34014
G01 X-3.80932 Y-3.34156
G01 X-3.80981 Y-3.34215
G01 X-3.81109 Y-3.34301
G01 X-3.81183 Y-3.34323
G01 X-3.83056 Y-3.34331
G01 X-3.83056 Y-3.36232
G01 X-3.81352 Y-3.37936
G01 X-3.35738 Y-3.37936
G01 X-3.18759 Y-3.20957
G01 X-3.18759 Y-2.81876
G01 X-3.21876 Y-2.78759
G01 X-3.57295 Y-2.78759
G01 X-3.57712 Y-2.78712
G01 X-3.58039 Y-2.78611
G01 X-3.58342 Y-2.78451
G01 X-3.58669 Y-2.78189
G01 X-3.72315 Y-2.64544
G01 X-3.74216 Y-2.64544
G01 X-3.74216 Y-2.69490
G01 X-3.74246 Y-2.69641
G01 X-3.74283 Y-2.69709
G01 X-3.74391 Y-2.69817
G01 X-3.74459 Y-2.69854
G01 X-3.74610 Y-2.69884
G01 X-3.88390 Y-2.69884
G01 X-3.88541 Y-2.69854
G01 X-3.88609 Y-2.69817
G01 X-3.88717 Y-2.69709
G01 X-3.88754 Y-2.69641
G01 X-3.88784 Y-2.69490
G01 X-3.88784 Y-2.58065
G01 X-3.92716 Y-2.54133
G01 X-3.92716 Y-2.57680
G01 X-3.92746 Y-2.57831
G01 X-3.92783 Y-2.57899
G01 X-3.92891 Y-2.58007
G01 X-3.93033 Y-2.58066
G01 X-4.06890 Y-2.58074
G01 X-4.07041 Y-2.58044
G01 X-4.07109 Y-2.58007
G01 X-4.07217 Y-2.57899
G01 X-4.07276 Y-2.57757
G01 X-4.07284 Y-2.57680
G01 X-4.07284 Y-2.43900
G01 X-4.07276 Y-2.43823
G01 X-4.07217 Y-2.43681
G01 X-4.07109 Y-2.43573
G01 X-4.07041 Y-2.43536
G01 X-4.06890 Y-2.43506
G01 X-3.93110 Y-2.43506
G01 X-3.93042 Y-2.43512
G01 X-3.92913 Y-2.43559
G01 X-3.92857 Y-2.43598
G01 X-3.92769 Y-2.43703
G01 X-3.92722 Y-2.43832
G01 X-3.92716 Y-2.43900
G01 X-3.92716 Y-2.48947
G01 X-3.92566 Y-2.48994
G01 X-3.92263 Y-2.49154
G01 X-3.91935 Y-2.49416
G01 X-3.86035 Y-2.55316
G01 X-3.74610 Y-2.55316
G01 X-3.74542 Y-2.55322
G01 X-3.74413 Y-2.55369
G01 X-3.74357 Y-2.55408
G01 X-3.74269 Y-2.55513
G01 X-3.74222 Y-2.55642
G01 X-3.74216 Y-2.55710
G01 X-3.74216 Y-2.60656
G01 X-3.71471 Y-2.60658
G01 X-3.71131 Y-2.60694
G01 X-3.70803 Y-2.60791
G01 X-3.70399 Y-2.61007
G01 X-3.70135 Y-2.61226
G01 X-3.56490 Y-2.74871
G01 X-3.21071 Y-2.74871
G01 X-3.20692 Y-2.74909
G01 X-3.20327 Y-2.75019
G01 X-3.20024 Y-2.75179
G01 X-3.19725 Y-2.75415
G01 X-3.15441 Y-2.79697
G01 X-3.15222 Y-2.79960
G01 X-3.15036 Y-2.80292
G01 X-3.14903 Y-2.80730
G01 X-3.14871 Y-2.81071
G01 X-3.14871 Y-3.21762
G04 P0 ( dwell for no time -- G64 should not smooth over this point )
G00 Z0.08000 ( retract )

G00 X-3.12981 Y-3.21762 ( rapid move to begin. )
G01 F180.00000
( Mill infeed pass 1/1 )
G01 Z-0.04000
G04 P0 ( dwell for no time -- G64 should not smooth over this point )
G01 F360.00000
G01 X-3.12981 Y-3.21762
G01 X-3.12981 Y-2.81071
G01 X-3.13022 Y-2.80545
G01 X-3.13055 Y-2.80323
G01 X-3.13198 Y-2.79815
G01 X-3.13369 Y-2.79401
G01 X-3.13512 Y-2.79133
G01 X-3.13761 Y-2.78761
G01 X-3.13954 Y-2.78526
G01 X-3.14104 Y-2.78360
G01 X-3.18360 Y-2.74104
G01 X-3.18761 Y-2.73761
G01 X-3.19133 Y-2.73512
G01 X-3.19401 Y-2.73369
G01 X-3.19815 Y-2.73198
G01 X-3.20323 Y-2.73055
G01 X-3.20847 Y-2.72993
G01 X-3.21071 Y-2.72981
G01 X-3.55707 Y-2.72981
G01 X-3.55727 Y-2.73029
G01 X-3.55707 Y-2.72981
G01 X-3.68802 Y-2.59892
G01 X-3.69285 Y-2.59490
G01 X-3.69572 Y-2.59297
G01 X-3.69840 Y-2.59154
G01 X-3.70254 Y-2.58983
G01 X-3.70545 Y-2.58895
G01 X-3.70762 Y-2.58840
G01 X-3.71286 Y-2.58778
G01 X-3.72327 Y-2.58766
G01 X-3.72500 Y-2.58937
G01 X-3.72327 Y-2.58766
G01 X-3.72327 Y-2.55710
G01 X-3.72361 Y-2.55313
G01 X-3.72464 Y-2.54929
G01 X-3.72632 Y-2.54568
G01 X-3.72861 Y-2.54242
G01 X-3.73142 Y-2.53961
G01 X-3.73468 Y-2.53732
G01 X-3.73829 Y-2.53564
G01 X-3.74213 Y-2.53461
G01 X-3.74610 Y-2.53426
G01 X-3.85252 Y-2.53426
G01 X-3.85272 Y-2.53474
G01 X-3.85252 Y-2.53426
G01 X-3.90599 Y-2.48079
G01 X-3.90827 Y-2.47879
G01 X-3.90875 Y-2.47899
G01 X-3.90827 Y-2.47879
G01 X-3.90827 Y-2.44183
G01 X-3.91110 Y-2.43900
G01 X-3.91608 Y-2.43460
G01 X-3.92108 Y-2.43146
G01 X-3.92609 Y-2.42958
G01 X-3.92743 Y-2.42946
G01 X-3.92598 Y-2.43013
G01 X-3.92452 Y-2.43116
G01 X-3.92326 Y-2.43242
G01 X-3.92224 Y-2.43388
G01 X-3.92148 Y-2.43550
G01 X-3.92102 Y-2.43722
G01 X-3.92086 Y-2.43900
G01 X-3.92086 Y-2.48534
G01 X-3.92154 Y-2.48569
G01 X-3.92086 Y-2.48534
G01 X-3.91966 Y-2.48598
G01 X-3.91799 Y-2.48710
G01 X-3.91490 Y-2.48970
G01 X-3.85774 Y-2.54686
G01 X-3.85794 Y-2.54734
G01 X-3.85774 Y-2.54686
G01 X-3.74610 Y-2.54686
G01 X-3.74432 Y-2.54702
G01 X-3.74260 Y-2.54748
G01 X-3.74098 Y-2.54824
G01 X-3.73952 Y-2.54926
G01 X-3.73826 Y-2.55052
G01 X-3.73724 Y-2.55198
G01 X-3.73648 Y-2.55360
G01 X-3.73602 Y-2.55532
G01 X-3.73586 Y-2.55710
G01 X-3.73586 Y-2.60026
G01 X-3.73766 Y-2.60204
G01 X-3.73586 Y-2.60026
G01 X-3.71410 Y-2.60031
G01 X-3.71008 Y-2.60076
G01 X-3.70620 Y-2.60188
G01 X-3.70434 Y-2.60265
G01 X-3.70166 Y-2.60408
G01 X-3.69999 Y-2.60520
G01 X-3.69690 Y-2.60780
G01 X-3.56229 Y-2.74241
G01 X-3.56249 Y-2.74289
G01 X-3.56229 Y-2.74241
G01 X-3.21071 Y-2.74241
G01 X-3.20668 Y-2.74276
G01 X-3.20471 Y-2.74315
G01 X-3.20181 Y-2.74403
G01 X-3.19995 Y-2.74480
G01 X-3.19727 Y-2.74623
G01 X-3.19560 Y-2.74735
G01 X-3.19326 Y-2.74928
G01 X-3.14995 Y-2.79251
G01 X-3.14735 Y-2.79560
G01 X-3.14623 Y-2.79727
G01 X-3.14480 Y-2.79995
G01 X-3.14403 Y-2.80181
G01 X-3.14291 Y-2.80569
G01 X-3.14241 Y-2.81071
G01 X-3.14241 Y-3.21762
G01 X-3.14291 Y-3.22264
G01 X-3.14437 Y-3.22747
G01 X-3.14623 Y-3.23106
G01 X-3.14735 Y-3.23272
G01 X-3.14995 Y-3.23582
G01 X-3.33113 Y-3.41700
G01 X-3.33422 Y-3.41960
G01 X-3.33589 Y-3.42071
G01 X-3.33857 Y-3.42215
G01 X-3.34043 Y-3.42292
G01 X-3.34333 Y-3.42380
G01 X-3.34530 Y-3.42419
G01 X-3.34933 Y-3.42454
G01 X-3.82157 Y-3.42454
G01 X-3.82560 Y-3.42419
G01 X-3.82756 Y-3.42380
G01 X-3.83047 Y-3.42292
G01 X-3.83233 Y-3.42215
G01 X-3.83501 Y-3.42071
G01 X-3.83668 Y-3.41960
G01 X-3.83902 Y-3.41767
G01 X-3.86820 Y-3.38857
G01 X-3.87080 Y-3.38548
G01 X-3.87191 Y-3.38381
G01 X-3.87335 Y-3.38113
G01 X-3.87412 Y-3.37927
G01 X-3.87524 Y-3.37539
G01 X-3.87569 Y-3.37137
G01 X-3.87574 Y-3.34961
G01 X-3.87398 Y-3.34785
G01 X-3.87574 Y-3.34961
G01 X-3.88740 Y-3.34961
G01 X-3.88940 Y-3.34941
G01 X-3.89132 Y-3.34883
G01 X-3.89309 Y-3.34788
G01 X-3.89464 Y-3.34661
G01 X-3.89591 Y-3.34506
G01 X-3.89686 Y-3.34329
G01 X-3.89744 Y-3.34137
G01 X-3.89764 Y-3.33937
G01 X-3.89764 Y-3.32574
G01 X-3.89584 Y-3.32392
G01 X-3.89764 Y-3.32574
G01 X-4.00236 Y-3.32574
G01 X-4.00421 Y-3.32389
G01 X-4.00236 Y-3.32574
G01 X-4.00236 Y-3.33937
G01 X-4.00256 Y-3.34137
G01 X-4.00314 Y-3.34329
G01 X-4.00409 Y-3.34506
G01 X-4.00536 Y-3.34661
G01 X-4.00691 Y-3.34788
G01 X-4.00868 Y-3.34883
G01 X-4.01060 Y-3.34941
G01 X-4.01260 Y-3.34961
G01 X-4.08740 Y-3.34961
G01 X-4.08940 Y-3.34941
G01 X-4.09132 Y-3.34883
G01 X-4.09309 Y-3.34788
G01 X-4.09464 Y-3.34661
G01 X-4.09591 Y-3.34506
G01 X-4.09686 Y-3.34329
G01 X-4.09744 Y-3.34137
G01 X-4.09764 Y-3.33937
G01 X-4.09764 Y-3.26063
G01 X-4.09744 Y-3.25863
G01 X-4.09686 Y-3.25671
G01 X-4.09591 Y-3.25494
G01 X-4.09464 Y-3.25339
G01 X-4.09309 Y-3.25212
G01 X-4.09132 Y-3.25117
G01 X-4.08940 Y-3.25059
G01 X-4.08740 Y-3.25039
G01 X-4.01260 Y-3.25039
G01 X-4.01060 Y-3.25059
G01 X-4.00868 Y-3.25117
G01 X-4.00691 Y-3.25212
G01 X-4.00536 Y-3.25339
G01 X-4.00409 Y-3.25494
G01 X-4.00314 Y-3.25671
G01 X-4.00256 Y-3.25863
G01 X-4.00236 Y-3.26063
G01 X-4.00236 Y-3.27426
G01 X-4.00421 Y-3.27611
G01 X-4.00236 Y-3.27426
G01 X-3.89764 Y-3.27426
G01 X-3.89579 Y-3.27611
G01 X-3.89764 Y-3.27426
G01 X-3.89764 Y-3.26063
G01 X-3.89744 Y-3.25863
G01 X-3.89686 Y-3.25671
G01 X-3.89591 Y-3.25494
G01 X-3.89464 Y-3.25339
G01 X-3.89309 Y-3.25212
G01 X-3.89132 Y-3.25117
G01 X-3.88940 Y-3.25059
G01 X-3.88740 Y-3.25039
G01 X-3.81260 Y-3.25039
G01 X-3.81060 Y-3.25059
G01 X-3.80868 Y-3.25117
G01 X-3.80691 Y-3.25212
G01 X-3.80536 Y-3.25339
G01 X-3.80409 Y-3.25494
G01 X-3.80314 Y-3.25671
G01 X-3.80256 Y-3.25863
G01 X-3.80236 Y-3.26063
G01 X-3.80236 Y-3.33937
G01 X-3.80256 Y-3.34137
G01 X-3.80314 Y-3.34329
G01 X-3.80409 Y-3.34506
G01 X-3.80536 Y-3.34661
G01 X-3.80691 Y-3.34788
G01 X-3.80868 Y-3.34883
G01 X-3.81060 Y-3.34941
G01 X-3.81260 Y-3.34961
G01 X-3.82426 Y-3.34961
G01 X-3.82611 Y-3.34776
G01 X-3.82426 Y-3.34961
G01 X-3.82426 Y-3.35971
G01 X-3.82474 Y-3.35991
G01 X-3.82426 Y-3.35971
G01 X-3.81091 Y-3.37306
G01 X-3.81111 Y-3.37354
G01 X-3.81091 Y-3.37306
G01 X-3.35999 Y-3.37306
G01 X-3.35979 Y-3.37354
G01 X-3.35999 Y-3.37306
G01 X-3.19389 Y-3.20696
G01 X-3.19341 Y-3.20716
G01 X-3.19389 Y-3.20696
G01 X-3.19389 Y-2.82137
G01 X-3.19341 Y-2.82117
G01 X-3.19389 Y-2.82137
G01 X-3.22137 Y-2.79389
G01 X-3.22117 Y-2.79341
G01 X-3.22137 Y-2.79389
G01 X-3.57295 Y-2.79389
G01 X-3.57797 Y-2.79339
G01 X-3.58185 Y-2.79226
G01 X-3.58371 Y-2.79150
G01 X-3.58639 Y-2.79006
G01 X-3.58806 Y-2.78895
G01 X-3.59115 Y-2.78635
G01 X-3.72576 Y-2.65174
G01 X-3.72556 Y-2.65126
G01 X-3.72576 Y-2.65174
G01 X-3.73586 Y-2.65174
G01 X-3.73769 Y-2.64990
G01 X-3.73586 Y-2.65174
G01 X-3.73586 Y-2.69490
G01 X-3.73606 Y-2.69690
G01 X-3.73664 Y-2.69882
G01 X-3.73759 Y-2.70059
G01 X-3.73886 Y-2.70214
G01 X-3.74041 Y-2.70341
G01 X-3.74218 Y-2.70436
G01 X-3.74410 Y-2.70494
G01 X-3.74610 Y-2.70514
G01 X-3.88390 Y-2.70514
G01 X-3.88590 Y-2.70494
G01 X-3.88782 Y-2.70436
G01 X-3.88959 Y-2.70341
G01 X-3.89114 Y-2.70214
G01 X-3.89241 Y-2.70059
G01 X-3.89336 Y-2.69882
G01 X-3.89394 Y-2.69690
G01 X-3.89414 Y-2.69490
G01 X-3.89414 Y-2.58326
G01 X-3.89366 Y-2.58306
G01 X-3.89414 Y-2.58326
G01 X-3.92086 Y-2.55653
G01 X-3.92464 Y-2.54729
G01 X-3.92086 Y-2.55653
G01 X-3.92086 Y-2.57680
G01 X-3.92106 Y-2.57880
G01 X-3.92164 Y-2.58072
G01 X-3.92259 Y-2.58249
G01 X-3.92386 Y-2.58404
G01 X-3.92541 Y-2.58531
G01 X-3.92718 Y-2.58626
G01 X-3.92910 Y-2.58684
G01 X-3.93110 Y-2.58704
G01 X-4.06890 Y-2.58704
G01 X-4.07090 Y-2.58684
G01 X-4.07282 Y-2.58626
G01 X-4.07459 Y-2.58531
G01 X-4.07614 Y-2.58404
G01 X-4.07741 Y-2.58249
G01 X-4.07836 Y-2.58072
G01 X-4.07894 Y-2.57880
G01 X-4.07914 Y-2.57680
G01 X-4.07914 Y-2.43900
G01 X-4.07894 Y-2.43700
G01 X-4.07836 Y-2.43508
G01 X-4.07741 Y-2.43331
G01 X-4.07614 Y-2.43176
G01 X-4.07459 Y-2.43049
G01 X-4.07252 Y-2.42945
G01 X-4.07391 Y-2.42958
G01 X-4.07892 Y-2.43146
G01 X-4.08392 Y-2.43460
G01 X-4.08494 Y-2.43553
G01 X-4.14023 Y-2.43553
G01 X-4.14043 Y-2.43506
G01 X-4.14023 Y-2.43553
G01 X-4.24504 Y-2.54034
G01 X-4.24568 Y-2.54012
G01 X-4.24504 Y-2.54034
G01 X-4.24492 Y-2.54144
G01 X-4.24565 Y-2.54195
G01 X-4.24492 Y-2.54144
G01 X-4.01048 Y-2.65866
G01 X-4.01052 Y-2.65883
G01 X-4.01048 Y-2.65866
G01 X-3.93110 Y-2.65866
G01 X-3.92787 Y-2.65898
G01 X-3.92477 Y-2.65992
G01 X-3.92191 Y-2.66145
G01 X-3.91941 Y-2.66351
G01 X-3.91735 Y-2.66601
G01 X-3.91582 Y-2.66887
G01 X-3.91488 Y-2.67197
G01 X-3.91456 Y-2.67520
G01 X-3.91456 Y-2.81300
G01 X-3.91488 Y-2.81623
G01 X-3.91582 Y-2.81933
G01 X-3.91735 Y-2.82219
G01 X-3.91941 Y-2.82469
G01 X-3.92191 Y-2.82675
G01 X-3.92477 Y-2.82828
G01 X-3.92787 Y-2.82922
G01 X-3.93110 Y-2.82953
G01 X-4.06890 Y-2.82953
G01 X-4.07089 Y-2.82934
G01 X-4.07144 Y-2.82905
G01 X-4.06890 Y-2.83039
G01 X-4.05575 Y-2.83583
G01 X-3.93110 Y-2.83583
G01 X-3.92665 Y-2.83540
G01 X-3.92236 Y-2.83410
G01 X-3.91841 Y-2.83199
G01 X-3.91495 Y-2.82915
G01 X-3.91211 Y-2.82569
G01 X-3.91000 Y-2.82174
G01 X-3.90870 Y-2.81745
G01 X-3.90827 Y-2.81300
G01 X-3.90827 Y-2.67520
G01 X-3.90870 Y-2.67075
G01 X-3.91000 Y-2.66646
G01 X-3.91211 Y-2.66251
G01 X-3.91495 Y-2.65905
G01 X-3.91841 Y-2.65621
G01 X-3.92236 Y-2.65410
G01 X-3.92665 Y-2.65280
G01 X-3.93110 Y-2.65237
G01 X-4.00899 Y-2.65237
G01 X-4.00903 Y-2.65253
G01 X-4.00899 Y-2.65237
G01 X-4.23510 Y-2.53931
G01 X-4.23951 Y-2.54003
G01 X-4.23510 Y-2.53931
G01 X-4.13762 Y-2.44183
G01 X-4.13782 Y-2.44136
G01 X-4.13762 Y-2.44183
G01 X-4.09173 Y-2.44183
G01 X-4.08890 Y-2.43900
G01 X-4.08494 Y-2.43553
G01 X-4.08890 Y-2.43900
G01 X-4.09173 Y-2.44183
G01 X-4.09173 Y-2.57680
G01 X-4.09129 Y-2.58125
G01 X-4.09000 Y-2.58554
G01 X-4.08789 Y-2.58949
G01 X-4.08505 Y-2.59295
G01 X-4.08158 Y-2.59579
G01 X-4.07764 Y-2.59790
G01 X-4.07335 Y-2.59919
G01 X-4.06890 Y-2.59963
G01 X-3.93110 Y-2.59963
G01 X-3.92665 Y-2.59919
G01 X-3.92236 Y-2.59790
G01 X-3.91841 Y-2.59579
G01 X-3.91495 Y-2.59295
G01 X-3.91211 Y-2.58949
G01 X-3.91000 Y-2.58554
G01 X-3.90993 Y-2.58529
G01 X-3.91059 Y-2.58098
G01 X-3.90993 Y-2.58529
G01 X-3.90673 Y-2.58848
G01 X-3.90625 Y-2.58828
G01 X-3.90673 Y-2.58848
G01 X-3.90673 Y-2.69490
G01 X-3.90630 Y-2.69935
G01 X-3.90500 Y-2.70364
G01 X-3.90289 Y-2.70759
G01 X-3.90005 Y-2.71105
G01 X-3.89659 Y-2.71389
G01 X-3.89264 Y-2.71600
G01 X-3.88835 Y-2.71730
G01 X-3.88390 Y-2.71773
G01 X-3.74610 Y-2.71773
G01 X-3.74165 Y-2.71730
G01 X-3.73736 Y-2.71600
G01 X-3.73341 Y-2.71389
G01 X-3.72995 Y-2.71105
G01 X-3.72711 Y-2.70759
G01 X-3.72500 Y-2.70364
G01 X-3.72370 Y-2.69935
G01 X-3.72327 Y-2.69490
G01 X-3.72327 Y-2.67205
G01 X-3.72715 Y-2.66266
G01 X-3.72327 Y-2.67205
G01 X-3.60006 Y-2.79526
G01 X-3.59605 Y-2.79869
G01 X-3.59233 Y-2.80118
G01 X-3.58964 Y-2.80261
G01 X-3.58551 Y-2.80432
G01 X-3.58043 Y-2.80575
G01 X-3.57519 Y-2.80637
G01 X-3.57295 Y-2.80648
G01 X-3.51940 Y-2.80648
G01 X-3.51526 Y-2.80560
G01 X-3.51075 Y-2.80489
G01 X-3.50540 Y-2.80431
G01 X-3.50110 Y-2.80410
G01 X-3.49575 Y-2.80410
G01 X-3.49145 Y-2.80432
G01 X-3.48610 Y-2.80488
G01 X-3.48159 Y-2.80560
G01 X-3.47744 Y-2.80648
G01 X-3.43955 Y-2.80647
G01 X-3.44174 Y-2.80826
G01 X-3.44458 Y-2.81172
G01 X-3.44669 Y-2.81567
G01 X-3.44799 Y-2.81995
G01 X-3.44842 Y-2.82441
G01 X-3.44842 Y-2.87559
G01 X-3.44799 Y-2.88004
G01 X-3.44669 Y-2.88433
G01 X-3.44458 Y-2.88828
G01 X-3.44174 Y-2.89174
G01 X-3.43828 Y-2.89458
G01 X-3.43433 Y-2.89669
G01 X-3.43004 Y-2.89799
G01 X-3.42559 Y-2.89843
G01 X-3.37441 Y-2.89843
G01 X-3.37044 Y-2.89808
G01 X-3.36660 Y-2.89705
G01 X-3.36299 Y-2.89536
G01 X-3.36055 Y-2.89366
G01 X-3.36034 Y-2.89207
G01 X-3.36055 Y-2.89366
G01 X-3.31154 Y-2.94267
G01 X-3.31093 Y-2.94245
G01 X-3.31154 Y-2.94267
G01 X-3.31218 Y-2.95000
G01 X-3.31120 Y-2.96057
G01 X-3.31082 Y-2.96293
G01 X-3.31021 Y-2.96524
G01 X-3.30681 Y-2.97529
G01 X-3.30161 Y-2.98455
G01 X-3.30031 Y-2.98655
G01 X-3.29880 Y-2.98841
G01 X-3.29161 Y-2.99621
G01 X-3.28833 Y-2.99875
G01 X-3.28775 Y-2.99848
G01 X-3.28833 Y-2.99875
G01 X-3.28833 Y-3.16433
G01 X-3.28785 Y-3.16453
G01 X-3.28833 Y-3.16433
G01 X-3.33567 Y-3.21166
G01 X-3.33547 Y-3.21214
G01 X-3.33567 Y-3.21166
G01 X-3.34583 Y-3.21166
G01 X-3.34599 Y-3.21208
G01 X-3.34583 Y-3.21166
G01 X-3.34700 Y-3.21063
G01 X-3.35865 Y-3.21063
G01 X-3.35243 Y-3.21433
G01 X-3.34825 Y-3.21796
G01 X-3.34840 Y-3.21836
G01 X-3.34825 Y-3.21796
G01 X-3.33306 Y-3.21796
G01 X-3.33286 Y-3.21844
G01 X-3.33306 Y-3.21796
G01 X-3.28204 Y-3.16694
G01 X-3.28155 Y-3.16714
G01 X-3.28204 Y-3.16694
G01 X-3.28204 Y-2.99554
G01 X-3.28137 Y-2.99520
G01 X-3.28204 Y-2.99554
G01 X-3.28739 Y-2.99153
G01 X-3.29412 Y-2.98419
G01 X-3.29615 Y-2.98140
G01 X-3.30105 Y-2.97273
G01 X-3.30466 Y-2.96162
G01 X-3.30579 Y-2.95173
G01 X-3.30579 Y-2.94827
G01 X-3.30496 Y-2.94034
G01 X-3.30434 Y-2.94012
G01 X-3.30496 Y-2.94034
G01 X-3.36065 Y-2.88466
G01 X-3.36075 Y-2.88172
G01 X-3.36065 Y-2.88466
G01 X-3.36174 Y-2.88622
G01 X-3.36378 Y-2.88826
G01 X-3.36614 Y-2.88991
G01 X-3.36875 Y-2.89113
G01 X-3.37154 Y-2.89187
G01 X-3.37441 Y-2.89213
G01 X-3.42559 Y-2.89213
G01 X-3.42882 Y-2.89181
G01 X-3.43192 Y-2.89087
G01 X-3.43478 Y-2.88934
G01 X-3.43728 Y-2.88728
G01 X-3.43934 Y-2.88478
G01 X-3.44087 Y-2.88192
G01 X-3.44181 Y-2.87882
G01 X-3.44212 Y-2.87559
G01 X-3.44212 Y-2.82441
G01 X-3.44181 Y-2.82118
G01 X-3.44087 Y-2.81808
G01 X-3.43934 Y-2.81522
G01 X-3.43728 Y-2.81272
G01 X-3.43478 Y-2.81066
G01 X-3.43192 Y-2.80913
G01 X-3.42882 Y-2.80819
G01 X-3.42559 Y-2.80787
G01 X-3.37441 Y-2.80787
G01 X-3.37118 Y-2.80819
G01 X-3.36808 Y-2.80913
G01 X-3.36522 Y-2.81066
G01 X-3.36272 Y-2.81272
G01 X-3.36066 Y-2.81522
G01 X-3.35920 Y-2.81796
G01 X-3.35957 Y-2.81866
G01 X-3.35920 Y-2.81796
G01 X-3.35000 Y-2.81796
G01 X-3.34536 Y-2.81834
G01 X-3.34218 Y-2.81897
G01 X-3.33927 Y-2.81986
G01 X-3.33627 Y-2.82110
G01 X-3.33220 Y-2.82336
G01 X-3.32735 Y-2.82735
G01 X-3.25957 Y-2.89512
G01 X-3.25981 Y-2.89583
G01 X-3.25957 Y-2.89512
G01 X-3.25584 Y-2.89442
G01 X-3.24416 Y-2.89442
G01 X-3.23273 Y-2.89685
G01 X-3.22360 Y-2.90082
G01 X-3.22060 Y-2.90254
G01 X-3.21395 Y-2.90738
G01 X-3.21138 Y-2.90969
G01 X-3.20479 Y-2.91715
G01 X-3.20018 Y-2.92495
G01 X-3.19993 Y-2.92584
G01 X-3.20018 Y-2.92495
G01 X-3.19993 Y-2.92584
G01 X-3.20018 Y-2.92495
G01 X-3.19993 Y-2.92584
G01 X-3.20018 Y-2.92492
G01 X-3.20018 Y-2.82398
G01 X-3.19971 Y-2.82378
G01 X-3.20018 Y-2.82398
G01 X-3.22398 Y-2.80018
G01 X-3.22378 Y-2.79970
G01 X-3.22398 Y-2.80018
G01 X-3.57295 Y-2.80018
G01 X-3.57920 Y-2.79957
G01 X-3.58368 Y-2.79829
G01 X-3.58668 Y-2.79705
G01 X-3.59075 Y-2.79479
G01 X-3.59560 Y-2.79080
G01 X-3.72837 Y-2.65803
G01 X-3.72817 Y-2.65755
G01 X-3.72837 Y-2.65803
G01 X-3.72956 Y-2.65803
G01 X-3.73138 Y-2.65621
G01 X-3.72956 Y-2.65803
G01 X-3.72956 Y-2.69490
G01 X-3.72988 Y-2.69813
G01 X-3.73082 Y-2.70123
G01 X-3.73235 Y-2.70409
G01 X-3.73441 Y-2.70659
G01 X-3.73691 Y-2.70865
G01 X-3.73977 Y-2.71018
G01 X-3.74287 Y-2.71112
G01 X-3.74610 Y-2.71143
G01 X-3.88390 Y-2.71143
G01 X-3.88713 Y-2.71112
G01 X-3.89023 Y-2.71018
G01 X-3.89309 Y-2.70865
G01 X-3.89559 Y-2.70659
G01 X-3.89765 Y-2.70409
G01 X-3.89918 Y-2.70123
G01 X-3.90012 Y-2.69813
G01 X-3.90043 Y-2.69490
G01 X-3.90043 Y-2.58587
G01 X-3.89995 Y-2.58567
G01 X-3.90043 Y-2.58587
G01 X-3.91456 Y-2.57174
G01 X-3.91801 Y-2.56295
G01 X-3.91456 Y-2.57174
G01 X-3.91456 Y-2.57680
G01 X-3.91488 Y-2.58003
G01 X-3.91582 Y-2.58313
G01 X-3.91735 Y-2.58599
G01 X-3.91941 Y-2.58849
G01 X-3.92191 Y-2.59055
G01 X-3.92477 Y-2.59208
G01 X-3.92787 Y-2.59302
G01 X-3.93110 Y-2.59334
G01 X-4.06890 Y-2.59334
G01 X-4.07212 Y-2.59302
G01 X-4.07523 Y-2.59208
G01 X-4.07809 Y-2.59055
G01 X-4.08059 Y-2.58849
G01 X-4.08265 Y-2.58599
G01 X-4.08418 Y-2.58313
G01 X-4.08512 Y-2.58003
G01 X-4.08544 Y-2.57680
G01 X-4.08544 Y-2.43900
G01 X-4.08508 Y-2.43566
G01 X-4.08390 Y-2.43462
G01 X-4.07890 Y-2.43150
G01 X-4.07390 Y-2.42962
G01 X-4.06890 Y-2.42899
G01 X-4.07252 Y-2.42945
G01 X-4.06890 Y-2.42900
G01 X-3.93110 Y-2.42900
G01 X-3.92743 Y-2.42946
G01 X-3.93110 Y-2.42900
G01 X-4.06890 Y-2.42900
G01 X-4.07080 Y-2.42924
G01 X-4.14284 Y-2.42924
G01 X-4.14304 Y-2.42876
G01 X-4.14284 Y-2.42924
G01 X-4.25189 Y-2.53829
G01 X-4.25261 Y-2.53805
G01 X-4.25189 Y-2.53829
G01 X-4.25133 Y-2.54075
G01 X-4.25083 Y-2.54553
G01 X-4.25148 Y-2.54600
G01 X-4.25083 Y-2.54553
G01 X-4.01197 Y-2.66496
G01 X-4.01201 Y-2.66513
G01 X-4.01197 Y-2.66496
G01 X-3.93110 Y-2.66496
G01 X-3.92910 Y-2.66516
G01 X-3.92718 Y-2.66574
G01 X-3.92541 Y-2.66669
G01 X-3.92386 Y-2.66796
G01 X-3.92259 Y-2.66951
G01 X-3.92164 Y-2.67128
G01 X-3.92106 Y-2.67320
G01 X-3.92086 Y-2.67520
G01 X-3.92086 Y-2.81300
G01 X-3.92106 Y-2.81500
G01 X-3.92164 Y-2.81692
G01 X-3.92259 Y-2.81869
G01 X-3.92386 Y-2.82024
G01 X-3.92541 Y-2.82151
G01 X-3.92718 Y-2.82246
G01 X-3.92910 Y-2.82304
G01 X-3.93110 Y-2.82324
G01 X-4.06890 Y-2.82324
G01 X-4.07090 Y-2.82304
G01 X-4.07282 Y-2.82246
G01 X-4.07459 Y-2.82151
G01 X-4.07614 Y-2.82024
G01 X-4.07741 Y-2.81869
G01 X-4.07836 Y-2.81692
G01 X-4.07894 Y-2.81500
G01 X-4.07914 Y-2.81300
G01 X-4.07914 Y-2.68948
G01 X-4.07820 Y-2.68890
G01 X-4.07914 Y-2.68948
G01 X-4.27393 Y-2.59209
G01 X-4.27393 Y-2.59138
G01 X-4.27393 Y-2.59209
G01 X-4.27521 Y-2.59294
G01 X-4.28468 Y-2.59716
G01 X-4.29482 Y-2.59931
G01 X-4.30518 Y-2.59931
G01 X-4.31429 Y-2.59744
G01 X-4.31632 Y-2.59678
G01 X-4.32479 Y-2.59294
G01 X-4.33318 Y-2.58685
G01 X-4.34014 Y-2.57912
G01 X-4.34199 Y-2.57599
G01 X-4.34156 Y-2.57521
G01 X-4.34199 Y-2.57599
G01 X-4.65801 Y-2.57599
G01 X-4.65844 Y-2.57521
G01 X-4.65801 Y-2.57599
G01 X-4.65986 Y-2.57912
G01 X-4.66606 Y-2.58609
G01 X-4.66765 Y-2.58752
G01 X-4.67521 Y-2.59294
G01 X-4.68368 Y-2.59678
G01 X-4.68571 Y-2.59744
G01 X-4.69482 Y-2.59931
G01 X-4.70518 Y-2.59931
G01 X-4.71429 Y-2.59744
G01 X-4.71632 Y-2.59678
G01 X-4.72479 Y-2.59294
G01 X-4.73318 Y-2.58685
G01 X-4.73944 Y-2.57998
G01 X-4.74070 Y-2.57825
G01 X-4.74530 Y-2.57017
G01 X-4.74850 Y-2.56031
G01 X-4.74959 Y-2.55000
G01 X-4.74850 Y-2.53969
G01 X-4.74530 Y-2.52983
G01 X-4.74012 Y-2.52085
G01 X-4.73318 Y-2.51315
G01 X-4.72479 Y-2.50706
G01 X-4.71532 Y-2.50284
G01 X-4.70518 Y-2.50068
G01 X-4.69482 Y-2.50068
G01 X-4.68571 Y-2.50256
G01 X-4.68368 Y-2.50322
G01 X-4.67521 Y-2.50706
G01 X-4.66765 Y-2.51247
G01 X-4.66606 Y-2.51391
G01 X-4.65986 Y-2.52088
G01 X-4.65801 Y-2.52401
G01 X-4.65844 Y-2.52479
G01 X-4.65801 Y-2.52401
G01 X-4.34199 Y-2.52401
G01 X-4.34156 Y-2.52479
G01 X-4.34199 Y-2.52401
G01 X-4.34014 Y-2.52088
G01 X-4.33318 Y-2.51315
G01 X-4.32479 Y-2.50706
G01 X-4.31632 Y-2.50322
G01 X-4.31429 Y-2.50256
G01 X-4.30624 Y-2.50085
G01 X-4.30411 Y-2.50063
G01 X-4.29482 Y-2.50068
G01 X-4.28839 Y-2.50199
G01 X-4.28814 Y-2.50281
G01 X-4.28839 Y-2.50199
G01 X-4.17170 Y-2.38530
G01 X-4.16861 Y-2.38270
G01 X-4.16693 Y-2.38158
G01 X-4.16426 Y-2.38015
G01 X-4.16240 Y-2.37938
G01 X-4.15852 Y-2.37826
G01 X-4.15350 Y-2.37776
G01 X-3.79650 Y-2.37776
G01 X-3.79148 Y-2.37826
G01 X-3.78760 Y-2.37938
G01 X-3.78574 Y-2.38015
G01 X-3.78306 Y-2.38158
G01 X-3.78139 Y-2.38270
G01 X-3.77830 Y-2.38530
G01 X-3.66161 Y-2.50199
G01 X-3.66185 Y-2.50281
G01 X-3.66161 Y-2.50199
G01 X-3.65518 Y-2.50068
G01 X-3.64589 Y-2.50063
G01 X-3.64376 Y-2.50085
G01 X-3.63571 Y-2.50256
G01 X-3.63368 Y-2.50322
G01 X-3.62521 Y-2.50706
G01 X-3.61682 Y-2.51315
G01 X-3.60986 Y-2.52088
G01 X-3.60801 Y-2.52401
G01 X-3.60844 Y-2.52479
G01 X-3.60801 Y-2.52401
G01 X-3.29198 Y-2.52401
G01 X-3.29156 Y-2.52479
G01 X-3.29198 Y-2.52401
G01 X-3.29013 Y-2.52088
G01 X-3.28394 Y-2.51391
G01 X-3.28235 Y-2.51247
G01 X-3.27479 Y-2.50706
G01 X-3.26632 Y-2.50322
G01 X-3.26429 Y-2.50256
G01 X-3.25518 Y-2.50068
G01 X-3.24589 Y-2.50063
G01 X-3.24376 Y-2.50085
G01 X-3.23571 Y-2.50256
G01 X-3.23368 Y-2.50322
G01 X-3.22521 Y-2.50706
G01 X-3.21682 Y-2.51315
G01 X-3.20988 Y-2.52085
G01 X-3.20519 Y-2.52888
G01 X-3.20432 Y-2.53083
G01 X-3.20177 Y-2.53865
G01 X-3.20133 Y-2.54075
G01 X-3.20041 Y-2.55000
G01 X-3.20150 Y-2.56031
G01 X-3.20470 Y-2.57017
G01 X-3.20988 Y-2.57915
G01 X-3.21682 Y-2.58685
G01 X-3.22521 Y-2.59294
G01 X-3.23468 Y-2.59716
G01 X-3.24482 Y-2.59931
G01 X-3.25518 Y-2.59931
G01 X-3.26429 Y-2.59744
G01 X-3.26632 Y-2.59678
G01 X-3.27479 Y-2.59294
G01 X-3.28235 Y-2.58752
G01 X-3.28394 Y-2.58609
G01 X-3.29013 Y-2.57912
G01 X-3.29198 Y-2.57599
G01 X-3.29156 Y-2.57521
G01 X-3.29198 Y-2.57599
G01 X-3.60801 Y-2.57599
G01 X-3.60844 Y-2.57521
G01 X-3.60801 Y-2.57599
G01 X-3.60986 Y-2.57912
G01 X-3.61606 Y-2.58609
G01 X-3.61765 Y-2.58752
G01 X-3.62521 Y-2.59294
G01 X-3.63368 Y-2.59678
G01 X-3.63571 Y-2.59744
G01 X-3.64482 Y-2.59931
G01 X-3.65518 Y-2.59931
G01 X-3.66532 Y-2.59716
G01 X-3.67479 Y-2.59294
G01 X-3.68318 Y-2.58685
G01 X-3.68944 Y-2.57998
G01 X-3.69070 Y-2.57825
G01 X-3.69530 Y-2.57017
G01 X-3.69850 Y-2.56031
G01 X-3.69959 Y-2.55000
G01 X-3.69850 Y-2.53969
G01 X-3.69811 Y-2.53829
G01 X-3.69743 Y-2.53806
G01 X-3.69811 Y-2.53829
G01 X-3.80716 Y-2.42924
G01 X-3.80696 Y-2.42876
G01 X-3.80716 Y-2.42924
G01 X-3.92920 Y-2.42924
G01 X-3.93110 Y-2.42899
G01 X-3.92610 Y-2.42962
G01 X-3.92110 Y-2.43150
G01 X-3.91610 Y-2.43462
G01 X-3.91110 Y-2.43900
G01 X-3.90827 Y-2.44183
G01 X-3.81238 Y-2.44183
G01 X-3.81218 Y-2.44136
G01 X-3.81238 Y-2.44183
G01 X-3.71154 Y-2.54267
G01 X-3.71093 Y-2.54245
G01 X-3.71154 Y-2.54267
G01 X-3.71218 Y-2.55000
G01 X-3.71120 Y-2.56057
G01 X-3.71082 Y-2.56293
G01 X-3.71021 Y-2.56524
G01 X-3.70681 Y-2.57529
G01 X-3.70161 Y-2.58455
G01 X-3.70031 Y-2.58655
G01 X-3.69880 Y-2.58841
G01 X-3.69340 Y-2.59441
G01 X-3.68761 Y-2.59927
G01 X-3.68109 Y-2.60385
G01 X-3.67896 Y-2.60494
G01 X-3.66922 Y-2.60914
G01 X-3.65886 Y-2.61147
G01 X-3.65650 Y-2.61184
G01 X-3.65411 Y-2.61197
G01 X-3.64350 Y-2.61184
G01 X-3.64114 Y-2.61147
G01 X-3.63078 Y-2.60914
G01 X-3.62104 Y-2.60494
G01 X-3.61891 Y-2.60385
G01 X-3.61690 Y-2.60255
G01 X-3.60839 Y-2.59621
G01 X-3.60135 Y-2.58858
G01 X-3.60159 Y-2.58806
G01 X-3.60135 Y-2.58858
G01 X-3.29865 Y-2.58858
G01 X-3.29841 Y-2.58806
G01 X-3.29865 Y-2.58858
G01 X-3.29330 Y-2.59452
G01 X-3.29161 Y-2.59621
G01 X-3.28975 Y-2.59772
G01 X-3.28109 Y-2.60385
G01 X-3.27145 Y-2.60828
G01 X-3.26922 Y-2.60914
G01 X-3.26691 Y-2.60976
G01 X-3.25650 Y-2.61184
G01 X-3.25411 Y-2.61197
G01 X-3.24350 Y-2.61184
G01 X-3.23309 Y-2.60976
G01 X-3.23078 Y-2.60914
G01 X-3.22855 Y-2.60828
G01 X-3.21891 Y-2.60385
G01 X-3.21025 Y-2.59772
G01 X-3.20839 Y-2.59621
G01 X-3.20670 Y-2.59452
G01 X-3.19969 Y-2.58655
G01 X-3.19428 Y-2.57742
G01 X-3.19319 Y-2.57529
G01 X-3.19233 Y-2.57306
G01 X-3.18917 Y-2.56293
G01 X-3.18794 Y-2.55239
G01 X-3.18782 Y-2.55000
G01 X-3.18794 Y-2.54761
G01 X-3.18917 Y-2.53707
G01 X-3.19233 Y-2.52694
G01 X-3.19319 Y-2.52471
G01 X-3.19428 Y-2.52258
G01 X-3.19839 Y-2.51545
G01 X-3.19969 Y-2.51345
G01 X-3.20119 Y-2.51159
G01 X-3.20839 Y-2.50379
G01 X-3.21025 Y-2.50228
G01 X-3.21891 Y-2.49615
G01 X-3.22104 Y-2.49506
G01 X-3.23078 Y-2.49086
G01 X-3.24114 Y-2.48853
G01 X-3.24350 Y-2.48816
G01 X-3.24589 Y-2.48803
G01 X-3.25650 Y-2.48816
G01 X-3.26691 Y-2.49024
G01 X-3.26922 Y-2.49086
G01 X-3.27145 Y-2.49172
G01 X-3.28109 Y-2.49615
G01 X-3.28975 Y-2.50228
G01 X-3.29161 Y-2.50379
G01 X-3.29330 Y-2.50548
G01 X-3.29865 Y-2.51141
G01 X-3.29841 Y-2.51194
G01 X-3.29865 Y-2.51141
G01 X-3.60135 Y-2.51141
G01 X-3.60159 Y-2.51194
G01 X-3.60135 Y-2.51141
G01 X-3.60670 Y-2.50548
G01 X-3.60839 Y-2.50379
G01 X-3.61025 Y-2.50228
G01 X-3.61891 Y-2.49615
G01 X-3.62855 Y-2.49172
G01 X-3.63078 Y-2.49086
G01 X-3.63309 Y-2.49024
G01 X-3.64350 Y-2.48816
G01 X-3.65411 Y-2.48803
G01 X-3.65748 Y-2.48831
G01 X-3.65768 Y-2.48880
G01 X-3.65748 Y-2.48831
G01 X-3.76939 Y-2.37639
G01 X-3.77340 Y-2.37296
G01 X-3.77712 Y-2.37047
G01 X-3.77980 Y-2.36904
G01 X-3.78394 Y-2.36733
G01 X-3.78902 Y-2.36590
G01 X-3.79124 Y-2.36557
G01 X-3.79650 Y-2.36517
G01 X-4.15350 Y-2.36517
G01 X-4.15876 Y-2.36557
G01 X-4.16098 Y-2.36590
G01 X-4.16315 Y-2.36645
G01 X-4.16606 Y-2.36733
G01 X-4.17019 Y-2.36904
G01 X-4.17288 Y-2.37047
G01 X-4.17660 Y-2.37296
G01 X-4.18061 Y-2.37639
G01 X-4.29252 Y-2.48831
G01 X-4.29232 Y-2.48881
G01 X-4.29252 Y-2.48831
G01 X-4.29589 Y-2.48803
G01 X-4.30650 Y-2.48816
G01 X-4.31691 Y-2.49024
G01 X-4.31922 Y-2.49086
G01 X-4.32145 Y-2.49172
G01 X-4.33109 Y-2.49615
G01 X-4.33975 Y-2.50228
G01 X-4.34161 Y-2.50379
G01 X-4.34330 Y-2.50548
G01 X-4.34865 Y-2.51141
G01 X-4.34841 Y-2.51194
G01 X-4.34865 Y-2.51141
G01 X-4.65135 Y-2.51141
G01 X-4.65158 Y-2.51194
G01 X-4.65135 Y-2.51141
G01 X-4.65839 Y-2.50379
G01 X-4.66025 Y-2.50228
G01 X-4.66891 Y-2.49615
G01 X-4.67104 Y-2.49506
G01 X-4.68078 Y-2.49086
G01 X-4.69114 Y-2.48853
G01 X-4.69350 Y-2.48816
G01 X-4.69589 Y-2.48803
G01 X-4.70411 Y-2.48803
G01 X-4.70650 Y-2.48816
G01 X-4.70886 Y-2.48853
G01 X-4.71922 Y-2.49086
G01 X-4.72896 Y-2.49506
G01 X-4.73109 Y-2.49615
G01 X-4.73975 Y-2.50228
G01 X-4.74161 Y-2.50379
G01 X-4.74880 Y-2.51159
G01 X-4.75031 Y-2.51345
G01 X-4.75161 Y-2.51545
G01 X-4.75681 Y-2.52471
G01 X-4.76021 Y-2.53476
G01 X-4.76082 Y-2.53707
G01 X-4.76120 Y-2.53943
G01 X-4.76218 Y-2.55000
G01 X-4.76120 Y-2.56057
G01 X-4.76082 Y-2.56293
G01 X-4.76021 Y-2.56524
G01 X-4.75767 Y-2.57306
G01 X-4.75681 Y-2.57529
G01 X-4.75572 Y-2.57742
G01 X-4.75031 Y-2.58655
G01 X-4.74330 Y-2.59452
G01 X-4.74161 Y-2.59621
G01 X-4.73975 Y-2.59772
G01 X-4.73109 Y-2.60385
G01 X-4.72145 Y-2.60828
G01 X-4.71922 Y-2.60914
G01 X-4.71691 Y-2.60976
G01 X-4.70650 Y-2.61184
G01 X-4.69589 Y-2.61197
G01 X-4.69350 Y-2.61184
G01 X-4.69114 Y-2.61147
G01 X-4.68078 Y-2.60914
G01 X-4.67104 Y-2.60494
G01 X-4.66891 Y-2.60385
G01 X-4.66690 Y-2.60255
G01 X-4.65839 Y-2.59621
G01 X-4.65135 Y-2.58858
G01 X-4.65158 Y-2.58806
G01 X-4.65135 Y-2.58858
G01 X-4.34865 Y-2.58858
G01 X-4.34841 Y-2.58806
G01 X-4.34865 Y-2.58858
G01 X-4.34161 Y-2.59621
G01 X-4.33310 Y-2.60255
G01 X-4.33109 Y-2.60385
G01 X-4.32896 Y-2.60494
G01 X-4.32145 Y-2.60828
G01 X-4.31922 Y-2.60914
G01 X-4.31691 Y-2.60976
G01 X-4.30650 Y-2.61184
G01 X-4.30411 Y-2.61197
G01 X-4.29350 Y-2.61184
G01 X-4.29114 Y-2.61147
G01 X-4.28078 Y-2.60914
G01 X-4.27387 Y-2.60620
G01 X-4.27385 Y-2.60556
G01 X-4.27387 Y-2.60620
G01 X-4.09173 Y-2.69727
G01 X-4.09079 Y-2.69669
G01 X-4.09173 Y-2.69727
G01 X-4.09173 Y-2.79985
G01 X-4.12978 Y-2.76180
G01 X-4.13379 Y-2.75837
G01 X-4.13751 Y-2.75588
G01 X-4.14019 Y-2.75445
G01 X-4.14433 Y-2.75274
G01 X-4.14941 Y-2.75131
G01 X-4.15465 Y-2.75068
G01 X-4.15689 Y-2.75057
G01 X-4.64969 Y-2.75057
G01 X-4.65495 Y-2.75098
G01 X-4.65717 Y-2.75131
G01 X-4.65934 Y-2.75186
G01 X-4.66225 Y-2.75274
G01 X-4.66639 Y-2.75445
G01 X-4.66906 Y-2.75588
G01 X-4.67279 Y-2.75837
G01 X-4.67680 Y-2.76180
G01 X-4.80196 Y-2.88696
G01 X-4.80346 Y-2.88862
G01 X-4.80672 Y-2.89277
G01 X-4.80931 Y-2.89737
G01 X-4.81102 Y-2.90151
G01 X-4.81245 Y-2.90659
G01 X-4.81307 Y-2.91183
G01 X-4.81318 Y-2.91407
G01 X-4.81318 Y-2.98593
G01 X-4.81278 Y-2.99119
G01 X-4.81245 Y-2.99341
G01 X-4.81102 Y-2.99849
G01 X-4.80931 Y-3.00263
G01 X-4.80672 Y-3.00723
G01 X-4.80346 Y-3.01138
G01 X-4.80196 Y-3.01304
G01 X-4.61663 Y-3.19837
G01 X-4.61262 Y-3.20180
G01 X-4.60890 Y-3.20429
G01 X-4.60621 Y-3.20572
G01 X-4.60208 Y-3.20743
G01 X-4.59700 Y-3.20886
G01 X-4.59478 Y-3.20919
G01 X-4.58952 Y-3.20959
G01 X-4.55416 Y-3.20959
G01 X-4.55401 Y-3.20918
G01 X-4.55416 Y-3.20959
G01 X-4.55300 Y-3.21063
G01 X-4.54135 Y-3.21063
G01 X-4.54757 Y-3.20693
G01 X-4.55175 Y-3.20329
G01 X-4.55160 Y-3.20290
G01 X-4.55175 Y-3.20329
G01 X-4.58952 Y-3.20329
G01 X-4.59416 Y-3.20292
G01 X-4.59734 Y-3.20228
G01 X-4.60025 Y-3.20140
G01 X-4.60325 Y-3.20016
G01 X-4.60593 Y-3.19873
G01 X-4.60862 Y-3.19693
G01 X-4.61217 Y-3.19391
G01 X-4.79750 Y-3.00858
G01 X-4.80052 Y-3.00503
G01 X-4.80232 Y-3.00234
G01 X-4.80375 Y-2.99966
G01 X-4.80499 Y-2.99666
G01 X-4.80588 Y-2.99375
G01 X-4.80651 Y-2.99057
G01 X-4.80689 Y-2.98593
G01 X-4.80689 Y-2.91407
G01 X-4.80627 Y-2.90782
G01 X-4.80499 Y-2.90334
G01 X-4.80375 Y-2.90034
G01 X-4.80149 Y-2.89627
G01 X-4.79750 Y-2.89142
G01 X-4.67234 Y-2.76626
G01 X-4.66879 Y-2.76324
G01 X-4.66610 Y-2.76144
G01 X-4.66342 Y-2.76001
G01 X-4.66042 Y-2.75877
G01 X-4.65594 Y-2.75749
G01 X-4.64969 Y-2.75687
G01 X-4.15689 Y-2.75687
G01 X-4.15064 Y-2.75749
G01 X-4.14616 Y-2.75877
G01 X-4.14316 Y-2.76001
G01 X-4.14048 Y-2.76144
G01 X-4.13779 Y-2.76324
G01 X-4.13424 Y-2.76626
G01 X-4.08495 Y-2.81555
G01 X-4.08332 Y-2.81871
G01 X-4.08629 Y-2.81300
G01 X-4.09173 Y-2.79985
G01 X-4.08629 Y-2.81300
G01 X-4.08329 Y-2.81870
G01 X-4.07942 Y-2.82352
G01 X-4.07461 Y-2.82742
G01 X-4.07144 Y-2.82905
G01 X-4.07460 Y-2.82739
G01 X-4.07144 Y-2.82905
G01 X-3.98253 Y-2.91796
G01 X-3.98273 Y-2.91844
G01 X-3.98253 Y-2.91796
G01 X-3.69574 Y-2.91796
G01 X-3.69549 Y-2.91852
G01 X-3.69574 Y-2.91796
G01 X-3.69521 Y-2.91715
G01 X-3.68739 Y-2.90847
G01 X-3.67794 Y-2.90160
G01 X-3.66727 Y-2.89685
G01 X-3.65755 Y-2.89469
G01 X-3.65411 Y-2.89433
G01 X-3.64416 Y-2.89442
G01 X-3.63440 Y-2.89640
G01 X-3.63111 Y-2.89747
G01 X-3.62360 Y-2.90082
G01 X-3.62060 Y-2.90254
G01 X-3.61260 Y-2.90847
G01 X-3.60761 Y-2.91388
G01 X-3.60767 Y-2.91667
G01 X-3.60761 Y-2.91388
G01 X-3.54028 Y-2.84654
G01 X-3.53995 Y-2.84670
G01 X-3.54028 Y-2.84654
G01 X-3.53963 Y-2.84124
G01 X-3.53691 Y-2.83286
G01 X-3.53251 Y-2.82524
G01 X-3.52661 Y-2.81869
G01 X-3.51949 Y-2.81352
G01 X-3.51306 Y-2.81056
G01 X-3.50977 Y-2.80949
G01 X-3.50454 Y-2.80837
G01 X-3.50110 Y-2.80801
G01 X-3.49402 Y-2.80810
G01 X-3.48708 Y-2.80949
G01 X-3.48379 Y-2.81056
G01 X-3.47736 Y-2.81352
G01 X-3.47024 Y-2.81869
G01 X-3.46434 Y-2.82524
G01 X-3.46073 Y-2.83132
G01 X-3.45932 Y-2.83448
G01 X-3.45722 Y-2.84124
G01 X-3.45639 Y-2.84827
G01 X-3.45639 Y-2.85173
G01 X-3.45695 Y-2.85705
G01 X-3.45767 Y-2.86043
G01 X-3.45994 Y-2.86713
G01 X-3.46434 Y-2.87476
G01 X-3.47024 Y-2.88130
G01 X-3.47736 Y-2.88648
G01 X-3.48541 Y-2.89006
G01 X-3.49231 Y-2.89162
G01 X-3.49507 Y-2.89195
G01 X-3.49521 Y-2.89170
G01 X-3.49507 Y-2.89195
G01 X-3.57578 Y-2.97265
G01 X-3.58063 Y-2.97664
G01 X-3.58470 Y-2.97890
G01 X-3.58770 Y-2.98014
G01 X-3.59218 Y-2.98142
G01 X-3.59843 Y-2.98204
G01 X-3.60426 Y-2.98204
G01 X-3.60449 Y-2.98152
G01 X-3.60426 Y-2.98204
G01 X-3.60588 Y-2.98419
G01 X-3.61260 Y-2.99153
G01 X-3.62206 Y-2.99840
G01 X-3.63273 Y-3.00315
G01 X-3.64245 Y-3.00531
G01 X-3.64589 Y-3.00567
G01 X-3.65584 Y-3.00558
G01 X-3.66560 Y-3.00360
G01 X-3.66888 Y-3.00253
G01 X-3.67640 Y-2.99918
G01 X-3.67939 Y-2.99745
G01 X-3.68739 Y-2.99153
G01 X-3.69521 Y-2.98285
G01 X-3.69574 Y-2.98204
G01 X-3.69549 Y-2.98148
G01 X-3.69574 Y-2.98204
G01 X-3.99580 Y-2.98204
G01 X-4.00205 Y-2.98142
G01 X-4.00653 Y-2.98014
G01 X-4.00953 Y-2.97890
G01 X-4.01221 Y-2.97747
G01 X-4.01490 Y-2.97567
G01 X-4.01845 Y-2.97265
G01 X-4.17016 Y-2.82095
G01 X-4.16996 Y-2.82047
G01 X-4.17016 Y-2.82095
G01 X-4.28603 Y-2.82095
G01 X-4.29246 Y-2.81981
G01 X-4.29545 Y-2.81952
G01 X-4.30000 Y-2.81933
G01 X-4.42514 Y-2.81940
G01 X-4.43117 Y-2.81736
G01 X-4.43380 Y-2.81665
G01 X-4.43914 Y-2.81550
G01 X-4.44143 Y-2.81515
G01 X-4.44890 Y-2.81448
G01 X-4.45425 Y-2.81447
G01 X-4.45689 Y-2.81465
G01 X-4.45425 Y-2.81448
G01 X-4.44678 Y-2.81459
G01 X-4.44050 Y-2.81593
G01 X-4.43366 Y-2.81897
G01 X-4.42760 Y-2.82337
G01 X-4.42696 Y-2.82401
G01 X-4.42706 Y-2.82432
G01 X-4.42696 Y-2.82401
G01 X-4.30000 Y-2.82401
G01 X-4.29592 Y-2.82436
G01 X-4.29396 Y-2.82476
G01 X-4.29100 Y-2.82565
G01 X-4.28915 Y-2.82642
G01 X-4.28642 Y-2.82788
G01 X-4.28475 Y-2.82899
G01 X-4.28237 Y-2.83095
G01 X-4.28095 Y-2.83237
G01 X-4.27839 Y-2.83556
G01 X-4.27599 Y-2.84005
G01 X-4.27476 Y-2.84395
G01 X-4.27437 Y-2.84592
G01 X-4.27401 Y-2.85000
G01 X-4.27401 Y-2.90330
G01 X-4.27448 Y-2.90349
G01 X-4.27401 Y-2.90330
G01 X-4.03203 Y-3.14527
G01 X-4.03223 Y-3.14575
G01 X-4.03203 Y-3.14527
G01 X-3.44904 Y-3.14527
G01 X-3.44889 Y-3.14568
G01 X-3.44898 Y-3.14521
G01 X-3.44470 Y-3.14136
G01 X-3.44297 Y-3.14010
G01 X-3.43703 Y-3.13673
G01 X-3.42951 Y-3.13429
G01 X-3.42165 Y-3.13346
G01 X-3.37728 Y-3.13352
G01 X-3.37049 Y-3.13429
G01 X-3.36297 Y-3.13673
G01 X-3.35613 Y-3.14068
G01 X-3.35102 Y-3.14521
G01 X-3.34958 Y-3.14680
G01 X-3.34620 Y-3.15146
G01 X-3.34513 Y-3.15332
G01 X-3.34240 Y-3.15958
G01 X-3.34076 Y-3.16731
G01 X-3.34076 Y-3.17521
G01 X-3.34212 Y-3.18190
G01 X-3.34278 Y-3.18394
G01 X-3.34513 Y-3.18920
G01 X-3.34620 Y-3.19106
G01 X-3.35026 Y-3.19655
G01 X-3.35613 Y-3.20184
G01 X-3.36297 Y-3.20579
G01 X-3.36945 Y-3.20795
G01 X-3.37155 Y-3.20840
G01 X-3.37835 Y-3.20906
G01 X-3.42165 Y-3.20906
G01 X-3.42845 Y-3.20840
G01 X-3.43055 Y-3.20795
G01 X-3.43602 Y-3.20617
G01 X-3.43798 Y-3.20530
G01 X-3.44387 Y-3.20184
G01 X-3.44898 Y-3.19731
G01 X-3.44889 Y-3.19684
G01 X-3.44904 Y-3.19725
G01 X-4.04280 Y-3.19725
G01 X-4.04688 Y-3.19689
G01 X-4.04884 Y-3.19650
G01 X-4.05180 Y-3.19561
G01 X-4.05365 Y-3.19484
G01 X-4.05724 Y-3.19287
G01 X-4.06118 Y-3.18963
G01 X-4.26542 Y-2.98538
G01 X-4.26529 Y-2.98330
G01 X-4.26542 Y-2.98538
G01 X-4.26765 Y-2.98752
G01 X-4.27521 Y-2.99294
G01 X-4.28368 Y-2.99677
G01 X-4.28571 Y-2.99744
G01 X-4.29482 Y-2.99931
G01 X-4.30411 Y-2.99937
G01 X-4.30624 Y-2.99915
G01 X-4.31532 Y-2.99716
G01 X-4.32479 Y-2.99294
G01 X-4.33318 Y-2.98685
G01 X-4.33944 Y-2.97998
G01 X-4.34070 Y-2.97825
G01 X-4.34530 Y-2.97017
G01 X-4.34850 Y-2.96031
G01 X-4.34959 Y-2.95000
G01 X-4.34867 Y-2.94075
G01 X-4.34823 Y-2.93865
G01 X-4.34530 Y-2.92983
G01 X-4.34012 Y-2.92085
G01 X-4.33318 Y-2.91315
G01 X-4.32598 Y-2.90785
G01 X-4.32530 Y-2.90819
G01 X-4.32598 Y-2.90785
G01 X-4.32598 Y-2.87599
G01 X-4.32414 Y-2.87414
G01 X-4.32598 Y-2.87599
G01 X-4.42696 Y-2.87599
G01 X-4.42707 Y-2.87566
G01 X-4.42696 Y-2.87599
G01 X-4.42760 Y-2.87662
G01 X-4.43366 Y-2.88103
G01 X-4.43950 Y-2.88369
G01 X-4.44154 Y-2.88435
G01 X-4.44783 Y-2.88563
G01 X-4.45425 Y-2.88569
G01 X-4.45638 Y-2.88546
G01 X-4.46265 Y-2.88407
G01 X-4.46853 Y-2.88151
G01 X-4.47039 Y-2.88044
G01 X-4.47555 Y-2.87662
G01 X-4.48056 Y-2.87106
G01 X-4.48430 Y-2.86457
G01 X-4.48634 Y-2.85848
G01 X-4.48679 Y-2.85639
G01 X-4.48735 Y-2.85107
G01 X-4.48735 Y-2.84893
G01 X-4.48662 Y-2.84255
G01 X-4.48430 Y-2.83543
G01 X-4.48056 Y-2.82894
G01 X-4.47630 Y-2.82413
G01 X-4.47471 Y-2.82270
G01 X-4.47039 Y-2.81956
G01 X-4.46853 Y-2.81849
G01 X-4.46265 Y-2.81593
G01 X-4.45636 Y-2.81459
G01 X-4.46400 Y-2.81550
G01 X-4.46936 Y-2.81663
G01 X-4.47733 Y-2.81910
G01 X-4.48191 Y-2.82095
G01 X-4.50837 Y-2.82095
G01 X-4.50819 Y-2.82118
G01 X-4.50787 Y-2.82441
G01 X-4.50787 Y-2.87559
G01 X-4.50812 Y-2.87846
G01 X-4.50887 Y-2.88125
G01 X-4.51009 Y-2.88386
G01 X-4.51174 Y-2.88622
G01 X-4.51378 Y-2.88826
G01 X-4.51614 Y-2.88991
G01 X-4.51796 Y-2.89076
G01 X-4.51796 Y-2.89332
G01 X-4.51844 Y-2.89352
G01 X-4.51796 Y-2.89332
G01 X-4.39264 Y-3.01865
G01 X-4.38865 Y-3.02350
G01 X-4.38639 Y-3.02757
G01 X-4.38515 Y-3.03057
G01 X-4.38426 Y-3.03348
G01 X-4.38363 Y-3.03666
G01 X-4.38325 Y-3.04130
G01 X-4.38325 Y-3.24550
G01 X-4.38363 Y-3.25014
G01 X-4.38426 Y-3.25332
G01 X-4.38515 Y-3.25623
G01 X-4.38639 Y-3.25923
G01 X-4.38865 Y-3.26330
G01 X-4.39155 Y-3.26695
G01 X-4.39834 Y-3.27374
G01 X-4.40069 Y-3.27567
G01 X-4.40338 Y-3.27747
G01 X-4.40606 Y-3.27890
G01 X-4.40906 Y-3.28014
G01 X-4.41197 Y-3.28103
G01 X-4.41354 Y-3.28142
G01 X-4.41817 Y-3.28195
G01 X-4.44825 Y-3.28204
G01 X-4.44840 Y-3.28164
G01 X-4.44825 Y-3.28204
G01 X-4.45243 Y-3.28567
G01 X-4.45865 Y-3.28937
G01 X-4.45243 Y-3.29307
G01 X-4.44853 Y-3.29645
G01 X-4.44868 Y-3.29685
G01 X-4.44853 Y-3.29645
G01 X-4.20366 Y-3.29645
G01 X-4.20276 Y-3.28878
G01 X-4.19927 Y-3.27806
G01 X-4.19363 Y-3.26830
G01 X-4.18731 Y-3.26114
G01 X-4.18475 Y-3.25883
G01 X-4.17842 Y-3.25423
G01 X-4.17543 Y-3.25250
G01 X-4.16667 Y-3.24870
G01 X-4.15735 Y-3.24663
G01 X-4.15391 Y-3.24627
G01 X-4.14436 Y-3.24636
G01 X-4.13500 Y-3.24825
G01 X-4.13172 Y-3.24932
G01 X-4.12303 Y-3.25329
G01 X-4.11391 Y-3.25992
G01 X-4.10636 Y-3.26830
G01 X-4.10393 Y-3.27232
G01 X-4.10595 Y-3.26560
G01 X-4.10786 Y-3.26063
G01 X-4.10960 Y-3.25533
G01 X-4.11155 Y-3.25373
G01 X-4.11988 Y-3.24783
G01 X-4.12915 Y-3.24357
G01 X-4.13138 Y-3.24271
G01 X-4.13369 Y-3.24209
G01 X-4.14134 Y-3.24047
G01 X-4.14370 Y-3.24009
G01 X-4.14609 Y-3.23997
G01 X-4.15630 Y-3.24009
G01 X-4.15866 Y-3.24047
G01 X-4.16861 Y-3.24271
G01 X-4.17799 Y-3.24675
G01 X-4.18012 Y-3.24783
G01 X-4.18845 Y-3.25373
G01 X-4.19031 Y-3.25523
G01 X-4.19200 Y-3.25692
G01 X-4.19873 Y-3.26459
G01 X-4.20394 Y-3.27337
G01 X-4.20503 Y-3.27550
G01 X-4.20830 Y-3.28517
G01 X-4.20892 Y-3.28748
G01 X-4.20933 Y-3.29015
G01 X-4.20817 Y-3.29157
G01 X-4.20933 Y-3.29015
G01 X-4.44611 Y-3.29015
G01 X-4.44627 Y-3.29056
G01 X-4.44611 Y-3.29015
G01 X-4.44700 Y-3.28937
G01 X-4.45865 Y-3.28937
G01 X-4.45243 Y-3.29307
G01 X-4.44853 Y-3.29645
G01 X-4.20366 Y-3.29645
G01 X-4.20224 Y-3.29805
G01 X-4.20366 Y-3.29645
G01 X-4.20303 Y-3.29049
G01 X-4.20231 Y-3.28711
G01 X-4.19927 Y-3.27806
G01 X-4.19363 Y-3.26830
G01 X-4.18731 Y-3.26114
G01 X-4.18475 Y-3.25883
G01 X-4.17842 Y-3.25423
G01 X-4.17543 Y-3.25250
G01 X-4.16667 Y-3.24870
G01 X-4.15564 Y-3.24636
G01 X-4.14609 Y-3.24627
G01 X-4.14265 Y-3.24663
G01 X-4.13333 Y-3.24870
G01 X-4.12457 Y-3.25250
G01 X-4.12158 Y-3.25423
G01 X-4.11391 Y-3.25992
G01 X-4.10636 Y-3.26830
G01 X-4.10393 Y-3.27232
G01 X-4.10394 Y-3.26063
G01 X-4.10362 Y-3.25740
G01 X-4.10268 Y-3.25430
G01 X-4.10115 Y-3.25144
G01 X-4.09909 Y-3.24894
G01 X-4.09659 Y-3.24688
G01 X-4.09373 Y-3.24535
G01 X-4.09063 Y-3.24441
G01 X-4.08740 Y-3.24409
G01 X-4.01260 Y-3.24409
G01 X-4.00937 Y-3.24441
G01 X-4.00627 Y-3.24535
G01 X-4.00341 Y-3.24688
G01 X-4.00091 Y-3.24894
G01 X-3.99885 Y-3.25144
G01 X-3.99732 Y-3.25430
G01 X-3.99638 Y-3.25740
G01 X-3.99606 Y-3.26063
G01 X-3.99606 Y-3.26796
G01 X-3.99779 Y-3.26974
G01 X-3.99606 Y-3.26796
G01 X-3.90394 Y-3.26796
G01 X-3.90221 Y-3.26974
G01 X-3.90394 Y-3.26796
G01 X-3.90394 Y-3.26063
G01 X-3.90362 Y-3.25740
G01 X-3.90268 Y-3.25430
G01 X-3.90115 Y-3.25144
G01 X-3.89909 Y-3.24894
G01 X-3.89659 Y-3.24688
G01 X-3.89373 Y-3.24535
G01 X-3.89063 Y-3.24441
G01 X-3.88740 Y-3.24409
G01 X-3.81260 Y-3.24409
G01 X-3.80937 Y-3.24441
G01 X-3.80627 Y-3.24535
G01 X-3.80341 Y-3.24688
G01 X-3.80091 Y-3.24894
G01 X-3.79885 Y-3.25144
G01 X-3.79732 Y-3.25430
G01 X-3.79638 Y-3.25740
G01 X-3.79606 Y-3.26063
G01 X-3.79606 Y-3.27232
G01 X-3.79364 Y-3.26830
G01 X-3.79255 Y-3.26695
G01 X-3.78731 Y-3.26114
G01 X-3.78475 Y-3.25883
G01 X-3.77697 Y-3.25329
G01 X-3.76667 Y-3.24870
G01 X-3.75735 Y-3.24663
G01 X-3.75391 Y-3.24627
G01 X-3.74436 Y-3.24636
G01 X-3.73333 Y-3.24870
G01 X-3.72303 Y-3.25329
G01 X-3.71525 Y-3.25883
G01 X-3.71269 Y-3.26114
G01 X-3.70636 Y-3.26830
G01 X-3.70151 Y-3.27652
G01 X-3.70011 Y-3.27968
G01 X-3.69857 Y-3.28440
G01 X-3.69906 Y-3.28488
G01 X-3.69857 Y-3.28440
G01 X-3.66557 Y-3.29655
G01 X-3.45147 Y-3.29645
G01 X-3.45132 Y-3.29685
G01 X-3.45147 Y-3.29645
G01 X-3.44757 Y-3.29307
G01 X-3.44135 Y-3.28937
G01 X-3.44757 Y-3.28567
G01 X-3.45320 Y-3.28073
G01 X-3.45551 Y-3.27816
G01 X-3.45984 Y-3.27205
G01 X-3.46359 Y-3.26363
G01 X-3.46523 Y-3.25632
G01 X-3.46560 Y-3.25288
G01 X-3.46551 Y-3.24539
G01 X-3.46359 Y-3.23637
G01 X-3.46063 Y-3.22949
G01 X-3.45890 Y-3.22650
G01 X-3.45551 Y-3.22184
G01 X-3.45320 Y-3.21927
G01 X-3.44757 Y-3.21433
G01 X-3.44135 Y-3.21063
G01 X-3.44757 Y-3.20693
G01 X-3.45147 Y-3.20355
G01 X-3.45132 Y-3.20315
G01 X-3.45147 Y-3.20355
G01 X-4.04280 Y-3.20355
G01 X-4.04749 Y-3.20316
G01 X-4.05067 Y-3.20253
G01 X-4.05363 Y-3.20163
G01 X-4.05662 Y-3.20039
G01 X-4.06074 Y-3.19810
G01 X-4.06563 Y-3.19409
G01 X-4.26577 Y-2.99394
G01 X-4.26561 Y-2.99201
G01 X-4.26577 Y-2.99394
G01 X-4.27060 Y-2.99745
G01 X-4.27360 Y-2.99918
G01 X-4.28273 Y-3.00315
G01 X-4.29416 Y-3.00558
G01 X-4.30584 Y-3.00558
G01 X-4.31727 Y-3.00315
G01 X-4.32794 Y-2.99840
G01 X-4.33739 Y-2.99153
G01 X-4.34412 Y-2.98419
G01 X-4.34615 Y-2.98140
G01 X-4.35105 Y-2.97273
G01 X-4.35466 Y-2.96162
G01 X-4.35588 Y-2.95000
G01 X-4.35493 Y-2.94009
G01 X-4.35422 Y-2.93671
G01 X-4.35105 Y-2.92727
G01 X-4.34521 Y-2.91715
G01 X-4.33739 Y-2.90847
G01 X-4.33228 Y-2.90464
G01 X-4.33165 Y-2.90494
G01 X-4.33228 Y-2.90464
G01 X-4.33228 Y-2.88228
G01 X-4.33044 Y-2.88044
G01 X-4.33228 Y-2.88228
G01 X-4.42460 Y-2.88228
G01 X-4.42468 Y-2.88201
G01 X-4.42460 Y-2.88228
G01 X-4.42906 Y-2.88554
G01 X-4.43205 Y-2.88727
G01 X-4.43856 Y-2.89006
G01 X-4.44546 Y-2.89162
G01 X-4.44890 Y-2.89199
G01 X-4.45598 Y-2.89189
G01 X-4.46292 Y-2.89051
G01 X-4.46621 Y-2.88944
G01 X-4.47110 Y-2.88727
G01 X-4.47409 Y-2.88554
G01 X-4.47976 Y-2.88130
G01 X-4.48457 Y-2.87611
G01 X-4.48660 Y-2.87331
G01 X-4.49006 Y-2.86713
G01 X-4.49278 Y-2.85876
G01 X-4.49370 Y-2.85000
G01 X-4.49305 Y-2.84295
G01 X-4.49233 Y-2.83957
G01 X-4.49068 Y-2.83448
G01 X-4.48927 Y-2.83132
G01 X-4.48566 Y-2.82524
G01 X-4.48191 Y-2.82095
G01 X-4.48588 Y-2.82271
G01 X-4.48991 Y-2.82477
G01 X-4.49419 Y-2.82724
G01 X-4.49581 Y-2.83030
G01 X-4.49667 Y-2.83254
G01 X-4.49894 Y-2.83993
G01 X-4.49932 Y-2.84229
G01 X-4.50000 Y-2.85000
G01 X-4.49932 Y-2.85771
G01 X-4.49894 Y-2.86007
G01 X-4.49832 Y-2.86238
G01 X-4.49581 Y-2.86970
G01 X-4.49205 Y-2.87646
G01 X-4.49075 Y-2.87846
G01 X-4.48925 Y-2.88032
G01 X-4.48398 Y-2.88599
G01 X-4.48212 Y-2.88749
G01 X-4.47579 Y-2.89194
G01 X-4.46877 Y-2.89520
G01 X-4.46654 Y-2.89606
G01 X-4.46423 Y-2.89667
G01 X-4.45900 Y-2.89779
G01 X-4.45664 Y-2.89816
G01 X-4.45425 Y-2.89829
G01 X-4.44651 Y-2.89816
G01 X-4.44415 Y-2.89779
G01 X-4.43661 Y-2.89606
G01 X-4.42949 Y-2.89302
G01 X-4.42736 Y-2.89194
G01 X-4.42253 Y-2.88858
G01 X-4.42262 Y-2.88830
G01 X-4.42253 Y-2.88858
G01 X-4.33858 Y-2.88858
G01 X-4.33674 Y-2.88674
G01 X-4.33858 Y-2.88858
G01 X-4.33858 Y-2.90143
G01 X-4.33800 Y-2.90169
G01 X-4.33858 Y-2.90143
G01 X-4.34161 Y-2.90379
G01 X-4.34330 Y-2.90548
G01 X-4.34880 Y-2.91159
G01 X-4.35031 Y-2.91345
G01 X-4.35161 Y-2.91545
G01 X-4.35681 Y-2.92471
G01 X-4.36021 Y-2.93476
G01 X-4.36083 Y-2.93707
G01 X-4.36120 Y-2.93943
G01 X-4.36218 Y-2.95000
G01 X-4.36120 Y-2.96057
G01 X-4.36083 Y-2.96293
G01 X-4.36021 Y-2.96524
G01 X-4.35681 Y-2.97529
G01 X-4.35161 Y-2.98455
G01 X-4.35031 Y-2.98655
G01 X-4.34880 Y-2.98841
G01 X-4.34161 Y-2.99621
G01 X-4.33975 Y-2.99772
G01 X-4.33109 Y-3.00385
G01 X-4.32896 Y-3.00494
G01 X-4.31922 Y-3.00914
G01 X-4.30886 Y-3.01147
G01 X-4.30650 Y-3.01184
G01 X-4.30411 Y-3.01197
G01 X-4.29350 Y-3.01184
G01 X-4.29114 Y-3.01147
G01 X-4.28078 Y-3.00914
G01 X-4.27104 Y-3.00494
G01 X-4.26891 Y-3.00385
G01 X-4.26642 Y-3.00220
G01 X-4.26621 Y-3.00054
G01 X-4.26642 Y-3.00220
G01 X-4.07008 Y-3.19854
G01 X-4.06604 Y-3.20201
G01 X-4.06424 Y-3.20334
G01 X-4.05959 Y-3.20595
G01 X-4.05546 Y-3.20766
G01 X-4.05250 Y-3.20856
G01 X-4.04811 Y-3.20943
G01 X-4.04280 Y-3.20984
G01 X-3.45389 Y-3.20984
G01 X-3.45373 Y-3.20943
G01 X-3.45389 Y-3.20984
G01 X-3.45300 Y-3.21063
G01 X-3.34700 Y-3.21063
G01 X-3.34090 Y-3.20498
G01 X-3.33601 Y-3.19846
G01 X-3.33470 Y-3.19646
G01 X-3.33362 Y-3.19433
G01 X-3.33042 Y-3.18683
G01 X-3.32980 Y-3.18452
G01 X-3.32823 Y-3.17653
G01 X-3.32810 Y-3.17414
G01 X-3.32823 Y-3.16599
G01 X-3.32980 Y-3.15800
G01 X-3.33042 Y-3.15569
G01 X-3.33362 Y-3.14819
G01 X-3.33470 Y-3.14606
G01 X-3.33601 Y-3.14406
G01 X-3.34090 Y-3.13754
G01 X-3.34687 Y-3.13199
G01 X-3.34872 Y-3.13049
G01 X-3.35073 Y-3.12919
G01 X-3.35785 Y-3.12522
G01 X-3.36556 Y-3.12258
G01 X-3.36787 Y-3.12197
G01 X-3.37023 Y-3.12159
G01 X-3.37596 Y-3.12099
G01 X-3.37835 Y-3.12087
G01 X-3.42165 Y-3.12087
G01 X-3.42977 Y-3.12159
G01 X-3.43213 Y-3.12197
G01 X-3.43444 Y-3.12258
G01 X-3.44215 Y-3.12522
G01 X-3.44927 Y-3.12919
G01 X-3.45127 Y-3.13049
G01 X-3.45389 Y-3.13267
G01 X-3.45378 Y-3.13300
G01 X-3.45389 Y-3.13267
G01 X-4.02682 Y-3.13267
G01 X-4.02701 Y-3.13315
G01 X-4.02682 Y-3.13267
G01 X-4.26142 Y-2.89808
G01 X-4.26188 Y-2.89827
G01 X-4.26142 Y-2.89808
G01 X-4.26142 Y-2.85000
G01 X-4.26183 Y-2.84469
G01 X-4.26216 Y-2.84247
G01 X-4.26360 Y-2.83734
G01 X-4.26531 Y-2.83321
G01 X-4.26792 Y-2.82856
G01 X-4.26887 Y-2.82728
G01 X-4.27257 Y-2.82549
G01 X-4.27653 Y-2.82384
G01 X-4.28310 Y-2.82166
G01 X-4.28603 Y-2.82095
G01 X-4.28206 Y-2.82315
G01 X-4.27837 Y-2.82608
G01 X-4.27608 Y-2.82837
G01 X-4.27412 Y-2.83076
G01 X-4.27316 Y-2.83206
G01 X-4.27086 Y-2.83618
G01 X-4.26962 Y-2.83917
G01 X-4.26833 Y-2.84370
G01 X-4.26771 Y-2.85000
G01 X-4.26771 Y-2.90069
G01 X-4.26819 Y-2.90089
G01 X-4.26771 Y-2.90069
G01 X-4.02943 Y-3.13897
G01 X-4.02963 Y-3.13945
G01 X-4.02943 Y-3.13897
G01 X-3.45147 Y-3.13897
G01 X-3.45132 Y-3.13937
G01 X-3.45147 Y-3.13897
G01 X-3.44757 Y-3.13559
G01 X-3.43959 Y-3.13098
G01 X-3.43082 Y-3.12813
G01 X-3.42338 Y-3.12725
G01 X-3.37662 Y-3.12725
G01 X-3.36918 Y-3.12813
G01 X-3.36203 Y-3.13036
G01 X-3.35887 Y-3.13176
G01 X-3.35243 Y-3.13559
G01 X-3.34680 Y-3.14053
G01 X-3.34449 Y-3.14310
G01 X-3.34110 Y-3.14776
G01 X-3.33937 Y-3.15075
G01 X-3.33641 Y-3.15763
G01 X-3.33476 Y-3.16494
G01 X-3.33440 Y-3.16838
G01 X-3.33449 Y-3.17587
G01 X-3.33641 Y-3.18488
G01 X-3.34016 Y-3.19331
G01 X-3.34558 Y-3.20076
G01 X-3.35243 Y-3.20693
G01 X-3.35865 Y-3.21063
G01 X-3.45300 Y-3.21063
G01 X-3.45741 Y-3.21459
G01 X-3.45910 Y-3.21628
G01 X-3.46061 Y-3.21814
G01 X-3.46529 Y-3.22480
G01 X-3.46872 Y-3.23220
G01 X-3.46958 Y-3.23443
G01 X-3.47020 Y-3.23674
G01 X-3.47177 Y-3.24473
G01 X-3.47190 Y-3.24712
G01 X-3.47177 Y-3.25527
G01 X-3.47020 Y-3.26326
G01 X-3.46958 Y-3.26557
G01 X-3.46872 Y-3.26780
G01 X-3.46529 Y-3.27520
G01 X-3.46399 Y-3.27720
G01 X-3.45910 Y-3.28372
G01 X-3.45300 Y-3.28937
G01 X-3.35865 Y-3.28937
G01 X-3.35388 Y-3.29212
G01 X-3.35108 Y-3.29416
G01 X-3.34680 Y-3.29801
G01 X-3.34449 Y-3.30058
G01 X-3.34016 Y-3.30669
G01 X-3.33641 Y-3.31511
G01 X-3.33476 Y-3.32242
G01 X-3.33440 Y-3.32586
G01 X-3.33449 Y-3.33335
G01 X-3.33581 Y-3.33997
G01 X-3.20018 Y-3.20435
G01 X-3.19970 Y-3.20455
G01 X-3.20018 Y-3.20435
G01 X-3.20018 Y-2.97505
G01 X-3.19994 Y-2.97415
G01 X-3.20018 Y-2.97505
G01 X-3.20384 Y-2.98140
G01 X-3.20588 Y-2.98419
G01 X-3.21260 Y-2.99153
G01 X-3.21796 Y-2.99554
G01 X-3.21863 Y-2.99520
G01 X-3.21796 Y-2.99554
G01 X-3.21796 Y-3.18021
G01 X-3.21858 Y-3.18646
G01 X-3.21986 Y-3.19094
G01 X-3.22110 Y-3.19394
G01 X-3.22336 Y-3.19801
G01 X-3.22735 Y-3.20286
G01 X-3.29714 Y-3.27265
G01 X-3.30199 Y-3.27664
G01 X-3.30606 Y-3.27890
G01 X-3.30906 Y-3.28014
G01 X-3.31354 Y-3.28142
G01 X-3.31514 Y-3.28166
G01 X-3.31979 Y-3.28204
G01 X-3.34825 Y-3.28204
G01 X-3.34840 Y-3.28164
G01 X-3.34825 Y-3.28204
G01 X-3.35243 Y-3.28567
G01 X-3.35865 Y-3.28937
G01 X-3.34700 Y-3.28937
G01 X-3.34583 Y-3.28833
G01 X-3.34599 Y-3.28792
G01 X-3.34583 Y-3.28833
G01 X-3.31979 Y-3.28833
G01 X-3.31453 Y-3.28793
G01 X-3.31231 Y-3.28760
G01 X-3.30723 Y-3.28617
G01 X-3.30309 Y-3.28446
G01 X-3.30041 Y-3.28303
G01 X-3.29669 Y-3.28054
G01 X-3.29268 Y-3.27711
G01 X-3.22289 Y-3.20732
G01 X-3.21946 Y-3.20331
G01 X-3.21697 Y-3.19958
G01 X-3.21458 Y-3.19488
G01 X-3.21383 Y-3.19277
G01 X-3.21240 Y-3.18769
G01 X-3.21177 Y-3.18245
G01 X-3.21166 Y-3.18021
G01 X-3.21166 Y-2.99875
G01 X-3.21224 Y-2.99848
G01 X-3.21166 Y-2.99875
G01 X-3.21025 Y-2.99772
G01 X-3.20839 Y-2.99621
G01 X-3.20648 Y-2.99428
G01 X-3.20345 Y-2.98638
G01 X-3.20214 Y-2.98238
G01 X-3.19994 Y-2.97415
G01 X-3.19922 Y-2.97082
G01 X-3.19792 Y-2.96259
G01 X-3.19761 Y-2.95964
G01 X-3.19719 Y-2.95141
G01 X-3.19718 Y-2.94859
G01 X-3.19762 Y-2.94036
G01 X-3.19792 Y-2.93740
G01 X-3.19923 Y-2.92918
G01 X-3.19993 Y-2.92584
G01 X-3.20214 Y-2.91762
G01 X-3.20345 Y-2.91362
G01 X-3.20648 Y-2.90572
G01 X-3.20839 Y-2.90379
G01 X-3.21025 Y-2.90228
G01 X-3.21891 Y-2.89615
G01 X-3.22104 Y-2.89506
G01 X-3.23078 Y-2.89086
G01 X-3.24114 Y-2.88853
G01 X-3.24350 Y-2.88816
G01 X-3.25411 Y-2.88803
G01 X-3.25747 Y-2.88831
G01 X-3.25768 Y-2.88881
G01 X-3.25747 Y-2.88831
G01 X-3.32289 Y-2.82289
G01 X-3.32690 Y-2.81946
G01 X-3.33062 Y-2.81697
G01 X-3.33330 Y-2.81554
G01 X-3.33744 Y-2.81383
G01 X-3.34252 Y-2.81240
G01 X-3.34776 Y-2.81177
G01 X-3.35000 Y-2.81167
G01 X-3.35547 Y-2.81167
G01 X-3.35568 Y-2.81211
G01 X-3.35547 Y-2.81167
G01 X-3.35826 Y-2.80826
G01 X-3.35990 Y-2.80692
G01 X-3.36426 Y-2.80525
G01 X-3.37441 Y-2.80402
G01 X-3.42559 Y-2.80403
G01 X-3.43288 Y-2.80466
G01 X-3.43955 Y-2.80647
G04 P0 ( dwell for no time -- G64 should not smooth over this point )
G00 Z0.08000 ( retract )

G00 X-3.43955 Y-2.80647 ( rapid move to begin. )
G01 F180.00000
( Mill infeed pass 1/1 )
G01 Z-0.04000
G04 P0 ( dwell for no time -- G64 should not smooth over this point )
G01 F360.00000
G01 X-3.43955 Y-2.80647
G01 X-3.43955 Y-2.80647
G04 P0 ( dwell for no time -- G64 should not smooth over this point )
G00 Z0.08000 ( retract )

G00 X-3.45000 Y-2.85000 ( rapid move to begin. )
G01 F180.00000
( Mill infeed pass 1/1 )
G01 Z-0.04000
G04 P0 ( dwell for no time -- G64 should not smooth over this point )
G01 F360.00000
G01 X-3.45000 Y-2.85000
G01 X-3.45068 Y-2.84229
G01 X-3.45106 Y-2.83993
G01 X-3.45168 Y-2.83762
G01 X-3.45419 Y-2.83030
G01 X-3.45795 Y-2.82354
G01 X-3.45925 Y-2.82154
G01 X-3.46433 Y-2.81570
G01 X-3.46602 Y-2.81401
G01 X-3.46788 Y-2.81251
G01 X-3.47221 Y-2.80936
G01 X-3.47421 Y-2.80806
G01 X-3.47634 Y-2.80698
G01 X-3.47745 Y-2.80648
G01 X-3.48159 Y-2.80560
G01 X-3.48610 Y-2.80488
G01 X-3.49145 Y-2.80432
G01 X-3.49575 Y-2.80410
G01 X-3.50110 Y-2.80410
G01 X-3.50540 Y-2.80432
G01 X-3.51075 Y-2.80489
G01 X-3.51526 Y-2.80560
G01 X-3.51940 Y-2.80648
G01 X-3.52051 Y-2.80698
G01 X-3.52264 Y-2.80806
G01 X-3.52464 Y-2.80936
G01 X-3.52897 Y-2.81251
G01 X-3.53083 Y-2.81401
G01 X-3.53252 Y-2.81570
G01 X-3.53760 Y-2.82154
G01 X-3.53890 Y-2.82354
G01 X-3.54266 Y-2.83030
G01 X-3.54352 Y-2.83254
G01 X-3.54579 Y-2.83993
G01 X-3.54631 Y-2.84367
G01 X-3.54605 Y-2.84380
G01 X-3.54631 Y-2.84367
G01 X-3.60741 Y-2.90477
G01 X-3.60727 Y-2.90680
G01 X-3.60741 Y-2.90477
G01 X-3.60839 Y-2.90379
G01 X-3.61690 Y-2.89745
G01 X-3.61891 Y-2.89615
G01 X-3.62104 Y-2.89506
G01 X-3.62855 Y-2.89172
G01 X-3.63078 Y-2.89086
G01 X-3.63309 Y-2.89024
G01 X-3.64350 Y-2.88816
G01 X-3.65411 Y-2.88803
G01 X-3.65650 Y-2.88816
G01 X-3.65886 Y-2.88853
G01 X-3.66922 Y-2.89086
G01 X-3.67896 Y-2.89506
G01 X-3.68109 Y-2.89615
G01 X-3.68975 Y-2.90228
G01 X-3.69161 Y-2.90379
G01 X-3.69880 Y-2.91159
G01 X-3.69863 Y-2.91220
G01 X-3.69886 Y-2.91167
G01 X-3.97992 Y-2.91167
G01 X-3.98012 Y-2.91214
G01 X-3.97992 Y-2.91167
G01 X-4.05575 Y-2.83583
G01 X-4.06890 Y-2.83039
G01 X-4.07460 Y-2.82739
G01 X-4.07939 Y-2.82349
G01 X-4.08329 Y-2.81870
G01 X-4.08524 Y-2.81499
G04 P0 ( dwell for no time -- G64 should not smooth over this point )
G00 Z0.08000 ( retract )

G00 X-4.08524 Y-2.81499 ( rapid move to begin. )
G01 F180.00000
( Mill infeed pass 1/1 )
G01 Z-0.04000
G04 P0 ( dwell for no time -- G64 should not smooth over this point )
G01 F360.00000
G01 X-4.08524 Y-2.81499
G01 X-4.08524 Y-2.81499
G04 P0 ( dwell for no time -- G64 should not smooth over this point )
G00 Z0.08000 ( retract )

G00 X-4.08524 Y-2.81499 ( rapid move to begin. )
G01 F180.00000
( Mill infeed pass 1/1 )
G01 Z-0.04000
G04 P0 ( dwell for no time -- G64 should not smooth over this point )
G01 F360.00000
G01 X-4.08524 Y-2.81499
G01 X-4.08544 Y-2.81300
G01 X-4.08544 Y-2.69338
G01 X-4.08449 Y-2.69280
G01 X-4.08544 Y-2.69338
G01 X-4.27372 Y-2.59924
G01 X-4.27370 Y-2.59858
G01 X-4.27372 Y-2.59924
G01 X-4.28273 Y-2.60315
G01 X-4.29416 Y-2.60558
G01 X-4.30584 Y-2.60558
G01 X-4.31560 Y-2.60360
G01 X-4.31888 Y-2.60253
G01 X-4.32794 Y-2.59840
G01 X-4.33605 Y-2.59262
G01 X-4.33862 Y-2.59031
G01 X-4.34412 Y-2.58419
G01 X-4.34558 Y-2.58229
G01 X-4.34533 Y-2.58173
G01 X-4.34558 Y-2.58229
G01 X-4.65442 Y-2.58229
G01 X-4.65467 Y-2.58173
G01 X-4.65442 Y-2.58229
G01 X-4.65588 Y-2.58419
G01 X-4.66261 Y-2.59153
G01 X-4.67061 Y-2.59746
G01 X-4.67360 Y-2.59918
G01 X-4.68273 Y-2.60315
G01 X-4.69245 Y-2.60531
G01 X-4.69589 Y-2.60567
G01 X-4.70584 Y-2.60558
G01 X-4.71727 Y-2.60315
G01 X-4.72640 Y-2.59918
G01 X-4.72939 Y-2.59746
G01 X-4.73605 Y-2.59262
G01 X-4.73862 Y-2.59031
G01 X-4.74521 Y-2.58285
G01 X-4.75027 Y-2.57427
G01 X-4.75167 Y-2.57111
G01 X-4.75466 Y-2.56162
G01 X-4.75589 Y-2.55000
G01 X-4.75466 Y-2.53838
G01 X-4.75105 Y-2.52727
G01 X-4.74615 Y-2.51860
G01 X-4.74412 Y-2.51581
G01 X-4.73739 Y-2.50847
G01 X-4.72939 Y-2.50254
G01 X-4.72640 Y-2.50082
G01 X-4.71727 Y-2.49685
G01 X-4.70755 Y-2.49469
G01 X-4.70411 Y-2.49433
G01 X-4.69416 Y-2.49442
G01 X-4.68440 Y-2.49640
G01 X-4.68111 Y-2.49747
G01 X-4.67360 Y-2.50082
G01 X-4.67061 Y-2.50254
G01 X-4.66261 Y-2.50847
G01 X-4.65588 Y-2.51581
G01 X-4.65442 Y-2.51771
G01 X-4.65467 Y-2.51827
G01 X-4.65442 Y-2.51771
G01 X-4.34558 Y-2.51771
G01 X-4.34535 Y-2.51824
G01 X-4.34558 Y-2.51771
G01 X-4.34412 Y-2.51581
G01 X-4.33862 Y-2.50969
G01 X-4.33605 Y-2.50738
G01 X-4.32794 Y-2.50160
G01 X-4.31888 Y-2.49747
G01 X-4.31560 Y-2.49640
G01 X-4.30584 Y-2.49442
G01 X-4.29416 Y-2.49442
G01 X-4.29043 Y-2.49512
G01 X-4.29019 Y-2.49583
G01 X-4.29043 Y-2.49512
G01 X-4.17615 Y-2.38085
G01 X-4.17260 Y-2.37783
G01 X-4.16991 Y-2.37603
G01 X-4.16723 Y-2.37460
G01 X-4.16423 Y-2.37336
G01 X-4.15975 Y-2.37208
G01 X-4.15350 Y-2.37146
G01 X-3.79650 Y-2.37146
G01 X-3.79185 Y-2.37184
G01 X-3.78868 Y-2.37247
G01 X-3.78577 Y-2.37336
G01 X-3.78277 Y-2.37460
G01 X-3.78009 Y-2.37603
G01 X-3.77740 Y-2.37783
G01 X-3.77385 Y-2.38085
G01 X-3.65957 Y-2.49512
G01 X-3.65981 Y-2.49583
G01 X-3.65957 Y-2.49512
G01 X-3.65584 Y-2.49442
G01 X-3.64416 Y-2.49442
G01 X-3.63440 Y-2.49640
G01 X-3.63111 Y-2.49747
G01 X-3.62206 Y-2.50160
G01 X-3.61395 Y-2.50738
G01 X-3.61138 Y-2.50969
G01 X-3.60588 Y-2.51581
G01 X-3.60442 Y-2.51771
G01 X-3.60465 Y-2.51824
G01 X-3.60442 Y-2.51771
G01 X-3.29558 Y-2.51771
G01 X-3.29533 Y-2.51827
G01 X-3.29558 Y-2.51771
G01 X-3.29412 Y-2.51581
G01 X-3.28862 Y-2.50969
G01 X-3.28605 Y-2.50738
G01 X-3.27794 Y-2.50160
G01 X-3.26727 Y-2.49685
G01 X-3.25584 Y-2.49442
G01 X-3.24589 Y-2.49433
G01 X-3.24245 Y-2.49469
G01 X-3.23440 Y-2.49640
G01 X-3.23111 Y-2.49747
G01 X-3.22206 Y-2.50160
G01 X-3.21395 Y-2.50738
G01 X-3.21138 Y-2.50969
G01 X-3.20479 Y-2.51715
G01 X-3.19895 Y-2.52727
G01 X-3.19578 Y-2.53671
G01 X-3.19507 Y-2.54009
G01 X-3.19411 Y-2.55000
G01 X-3.19507 Y-2.55991
G01 X-3.19578 Y-2.56329
G01 X-3.19895 Y-2.57273
G01 X-3.20479 Y-2.58285
G01 X-3.21260 Y-2.59153
G01 X-3.22060 Y-2.59746
G01 X-3.22360 Y-2.59918
G01 X-3.23111 Y-2.60253
G01 X-3.23440 Y-2.60360
G01 X-3.24416 Y-2.60558
G01 X-3.25411 Y-2.60567
G01 X-3.25755 Y-2.60531
G01 X-3.26727 Y-2.60315
G01 X-3.27794 Y-2.59840
G01 X-3.28605 Y-2.59262
G01 X-3.28862 Y-2.59031
G01 X-3.29412 Y-2.58419
G01 X-3.29558 Y-2.58229
G01 X-3.29533 Y-2.58173
G01 X-3.29558 Y-2.58229
G01 X-3.60442 Y-2.58229
G01 X-3.60465 Y-2.58175
G01 X-3.60442 Y-2.58229
G01 X-3.60588 Y-2.58419
G01 X-3.61260 Y-2.59153
G01 X-3.62060 Y-2.59746
G01 X-3.62360 Y-2.59918
G01 X-3.63273 Y-2.60315
G01 X-3.64245 Y-2.60531
G01 X-3.64589 Y-2.60567
G01 X-3.65584 Y-2.60558
G01 X-3.66727 Y-2.60315
G01 X-3.67640 Y-2.59918
G01 X-3.67939 Y-2.59746
G01 X-3.68605 Y-2.59262
G01 X-3.68862 Y-2.59031
G01 X-3.69521 Y-2.58285
G01 X-3.70027 Y-2.57427
G01 X-3.70167 Y-2.57111
G01 X-3.70422 Y-2.56329
G01 X-3.70493 Y-2.55991
G01 X-3.70588 Y-2.55000
G01 X-3.70496 Y-2.54034
G01 X-3.70434 Y-2.54012
G01 X-3.70496 Y-2.54034
G01 X-3.80977 Y-2.43553
G01 X-3.80957 Y-2.43506
G01 X-3.80977 Y-2.43553
G01 X-3.91506 Y-2.43553
G01 X-3.91481 Y-2.43613
G01 X-3.91456 Y-2.43900
G01 X-3.91456 Y-2.48181
G01 X-3.91515 Y-2.48209
G01 X-3.91456 Y-2.48181
G01 X-3.91045 Y-2.48525
G01 X-3.85513 Y-2.54056
G01 X-3.85533 Y-2.54104
G01 X-3.85513 Y-2.54056
G01 X-3.74610 Y-2.54056
G01 X-3.74323 Y-2.54081
G01 X-3.74044 Y-2.54156
G01 X-3.73783 Y-2.54278
G01 X-3.73547 Y-2.54443
G01 X-3.73343 Y-2.54647
G01 X-3.73178 Y-2.54883
G01 X-3.73056 Y-2.55144
G01 X-3.72981 Y-2.55423
G01 X-3.72956 Y-2.55710
G01 X-3.72956 Y-2.59396
G01 X-3.73138 Y-2.59579
G01 X-3.72956 Y-2.59396
G01 X-3.71510 Y-2.59396
G01 X-3.70885 Y-2.59458
G01 X-3.70437 Y-2.59586
G01 X-3.70137 Y-2.59710
G01 X-3.69730 Y-2.59936
G01 X-3.69365 Y-2.60226
G01 X-3.55968 Y-2.73611
G01 X-3.55988 Y-2.73659
G01 X-3.55968 Y-2.73611
G01 X-3.21071 Y-2.73611
G01 X-3.20607 Y-2.73649
G01 X-3.20289 Y-2.73712
G01 X-3.19998 Y-2.73801
G01 X-3.19698 Y-2.73925
G01 X-3.19291 Y-2.74151
G01 X-3.18926 Y-2.74441
G01 X-3.14550 Y-2.78806
G01 X-3.14151 Y-2.79291
G01 X-3.13925 Y-2.79698
G01 X-3.13801 Y-2.79998
G01 X-3.13673 Y-2.80446
G01 X-3.13611 Y-2.81071
G01 X-3.13611 Y-3.21762
G01 X-3.13673 Y-3.22387
G01 X-3.13801 Y-3.22835
G01 X-3.13925 Y-3.23135
G01 X-3.14151 Y-3.23542
G01 X-3.14550 Y-3.24027
G01 X-3.32668 Y-3.42145
G01 X-3.33153 Y-3.42544
G01 X-3.33560 Y-3.42770
G01 X-3.33860 Y-3.42894
G01 X-3.34151 Y-3.42983
G01 X-3.34308 Y-3.43022
G01 X-3.34771 Y-3.43075
G01 X-3.82157 Y-3.43084
G01 X-3.82782 Y-3.43022
G01 X-3.83230 Y-3.42894
G01 X-3.83530 Y-3.42770
G01 X-3.83937 Y-3.42544
G01 X-3.84302 Y-3.42254
G01 X-3.87265 Y-3.39302
G01 X-3.87567 Y-3.38947
G01 X-3.87664 Y-3.38817
G01 X-3.87890 Y-3.38410
G01 X-3.88014 Y-3.38110
G01 X-3.88103 Y-3.37819
G01 X-3.88166 Y-3.37501
G01 X-3.88204 Y-3.37037
G01 X-3.88204 Y-3.35590
G01 X-3.88027 Y-3.35421
G01 X-3.88204 Y-3.35590
G01 X-3.88740 Y-3.35590
G01 X-3.89063 Y-3.35559
G01 X-3.89373 Y-3.35465
G01 X-3.89659 Y-3.35312
G01 X-3.89909 Y-3.35106
G01 X-3.90115 Y-3.34856
G01 X-3.90268 Y-3.34570
G01 X-3.90362 Y-3.34260
G01 X-3.90394 Y-3.33937
G01 X-3.90394 Y-3.33203
G01 X-3.90221 Y-3.33026
G01 X-3.90394 Y-3.33203
G01 X-3.99606 Y-3.33203
G01 X-3.99779 Y-3.33026
G01 X-3.99606 Y-3.33203
G01 X-3.99606 Y-3.33937
G01 X-3.99638 Y-3.34260
G01 X-3.99732 Y-3.34570
G01 X-3.99885 Y-3.34856
G01 X-4.00091 Y-3.35106
G01 X-4.00341 Y-3.35312
G01 X-4.00627 Y-3.35465
G01 X-4.00937 Y-3.35559
G01 X-4.01260 Y-3.35590
G01 X-4.08740 Y-3.35590
G01 X-4.09063 Y-3.35559
G01 X-4.09373 Y-3.35465
G01 X-4.09659 Y-3.35312
G01 X-4.09909 Y-3.35106
G01 X-4.10115 Y-3.34856
G01 X-4.10268 Y-3.34570
G01 X-4.10362 Y-3.34260
G01 X-4.10394 Y-3.33937
G01 X-4.10394 Y-3.32768
G01 X-4.10196 Y-3.31972
G01 X-4.10073 Y-3.31190
G01 X-4.10044 Y-3.30914
G01 X-4.10003 Y-3.30132
G01 X-4.10003 Y-3.29868
G01 X-4.10044 Y-3.29086
G01 X-4.10073 Y-3.28810
G01 X-4.10197 Y-3.28028
G01 X-4.10264 Y-3.27717
G01 X-4.10393 Y-3.27232
G01 X-4.10264 Y-3.27717
G01 X-4.10197 Y-3.28028
G01 X-4.10073 Y-3.28810
G01 X-4.10044 Y-3.29086
G01 X-4.10003 Y-3.29868
G01 X-4.10003 Y-3.30132
G01 X-4.10002 Y-3.29868
G01 X-4.10236 Y-3.30000
G01 X-4.10340 Y-3.30990
G01 X-4.10610 Y-3.31838
G01 X-4.10697 Y-3.32033
G01 X-4.11088 Y-3.32710
G01 X-4.11213 Y-3.32883
G01 X-4.11737 Y-3.33464
G01 X-4.11896 Y-3.33608
G01 X-4.12618 Y-3.34125
G01 X-4.13428 Y-3.34492
G01 X-4.13631 Y-3.34558
G01 X-4.14396 Y-3.34721
G01 X-4.14609 Y-3.34743
G01 X-4.15498 Y-3.34738
G01 X-4.15968 Y-3.34643
G01 X-4.15986 Y-3.34580
G01 X-4.15968 Y-3.34643
G01 X-4.16036 Y-3.34712
G01 X-4.16350 Y-3.34975
G01 X-4.16516 Y-3.35086
G01 X-4.16789 Y-3.35232
G01 X-4.16974 Y-3.35309
G01 X-4.17270 Y-3.35398
G01 X-4.17466 Y-3.35437
G01 X-4.17874 Y-3.35473
G01 X-4.45096 Y-3.35473
G01 X-4.45111 Y-3.35432
G01 X-4.45102 Y-3.35479
G01 X-4.45530 Y-3.35864
G01 X-4.45703 Y-3.35990
G01 X-4.46297 Y-3.36327
G01 X-4.47049 Y-3.36571
G01 X-4.47835 Y-3.36653
G01 X-4.52272 Y-3.36648
G01 X-4.52951 Y-3.36571
G01 X-4.53703 Y-3.36327
G01 X-4.54387 Y-3.35932
G01 X-4.54898 Y-3.35479
G01 X-4.55042 Y-3.35320
G01 X-4.55380 Y-3.34854
G01 X-4.55487 Y-3.34668
G01 X-4.55760 Y-3.34042
G01 X-4.55924 Y-3.33269
G01 X-4.55924 Y-3.32479
G01 X-4.55760 Y-3.31706
G01 X-4.55438 Y-3.30984
G01 X-4.54974 Y-3.30345
G01 X-4.54387 Y-3.29816
G01 X-4.53703 Y-3.29421
G01 X-4.52951 Y-3.29177
G01 X-4.52272 Y-3.29100
G01 X-4.47835 Y-3.29094
G01 X-4.47049 Y-3.29177
G01 X-4.46297 Y-3.29421
G01 X-4.45703 Y-3.29758
G01 X-4.45530 Y-3.29884
G01 X-4.45102 Y-3.30269
G01 X-4.45111 Y-3.30316
G01 X-4.45096 Y-3.30275
G01 X-4.19740 Y-3.30275
G01 X-4.19536 Y-3.30470
G01 X-4.19740 Y-3.30275
G01 X-4.19758 Y-3.30107
G01 X-4.19758 Y-3.29893
G01 X-4.19660 Y-3.29009
G01 X-4.19352 Y-3.28062
G01 X-4.18854 Y-3.27200
G01 X-4.18187 Y-3.26460
G01 X-4.17382 Y-3.25874
G01 X-4.16472 Y-3.25469
G01 X-4.15498 Y-3.25262
G01 X-4.14502 Y-3.25262
G01 X-4.13528 Y-3.25469
G01 X-4.12618 Y-3.25874
G01 X-4.11812 Y-3.26460
G01 X-4.11146 Y-3.27200
G01 X-4.10648 Y-3.28062
G01 X-4.10340 Y-3.29009
G01 X-4.10236 Y-3.30000
G01 X-4.10866 Y-3.30000
G01 X-4.10956 Y-3.30859
G01 X-4.11242 Y-3.31718
G01 X-4.11656 Y-3.32430
G01 X-4.12205 Y-3.33043
G01 X-4.12899 Y-3.33557
G01 X-4.13722 Y-3.33932
G01 X-4.14568 Y-3.34111
G01 X-4.15432 Y-3.34111
G01 X-4.16172 Y-3.33956
G01 X-4.16482 Y-3.34266
G01 X-4.16780 Y-3.34511
G01 X-4.17086 Y-3.34676
G01 X-4.17452 Y-3.34795
G01 X-4.17874 Y-3.34843
G01 X-4.45390 Y-3.34843
G01 X-4.45523 Y-3.35011
G01 X-4.46018 Y-3.35445
G01 X-4.46554 Y-3.35751
G01 X-4.47180 Y-3.35955
G01 X-4.47835 Y-3.36024
G01 X-4.52165 Y-3.36024
G01 X-4.52820 Y-3.35955
G01 X-4.53408 Y-3.35766
G01 X-4.54049 Y-3.35396
G01 X-4.54506 Y-3.34981
G01 X-4.54893 Y-3.34449
G01 X-4.55161 Y-3.33847
G01 X-4.55291 Y-3.33244
G01 X-4.55298 Y-3.32545
G01 X-4.55161 Y-3.31901
G01 X-4.54893 Y-3.31299
G01 X-4.54506 Y-3.30767
G01 X-4.54017 Y-3.30326
G01 X-4.53446 Y-3.29997
G01 X-4.52820 Y-3.29793
G01 X-4.52206 Y-3.29726
G01 X-4.47835 Y-3.29724
G01 X-4.47180 Y-3.29793
G01 X-4.46554 Y-3.29997
G01 X-4.46018 Y-3.30303
G01 X-4.45523 Y-3.30737
G01 X-4.45390 Y-3.30905
G01 X-4.19031 Y-3.30905
G01 X-4.19134 Y-3.30000
G01 X-4.19043 Y-3.29141
G01 X-4.18776 Y-3.28319
G01 X-4.18344 Y-3.27570
G01 X-4.17766 Y-3.26928
G01 X-4.17067 Y-3.26420
G01 X-4.16277 Y-3.26068
G01 X-4.15432 Y-3.25889
G01 X-4.14568 Y-3.25889
G01 X-4.13722 Y-3.26068
G01 X-4.12933 Y-3.26420
G01 X-4.12234 Y-3.26928
G01 X-4.11656 Y-3.27570
G01 X-4.11224 Y-3.28319
G01 X-4.10956 Y-3.29141
G01 X-4.10866 Y-3.30000
G04 P0 ( dwell for no time -- G64 should not smooth over this point )
G00 Z0.08000 ( retract )

G00 X-4.69468 Y-2.88811 ( rapid move to begin. )
G01 F180.00000
( Mill infeed pass 1/1 )
G01 Z-0.04000
G04 P0 ( dwell for no time -- G64 should not smooth over this point )
G01 F360.00000
G01 X-4.69468 Y-2.88811
G01 X-4.70411 Y-2.89197
G01 X-4.70776 Y-2.89371
G01 X-4.71530 Y-2.89780
G01 X-4.71087 Y-2.89540
G01 X-4.71530 Y-2.89780
G01 X-4.71800 Y-2.89945
G01 X-4.72490 Y-2.90418
G01 X-4.72702 Y-2.90582
G01 X-4.73509 Y-2.91286
G01 X-4.74075 Y-2.91885
G01 X-4.74632 Y-2.92589
G01 X-4.74653 Y-2.92579
G01 X-4.74632 Y-2.92589
G01 X-4.74735 Y-2.93029
G01 X-4.74866 Y-2.93851
G01 X-4.74911 Y-2.94498
G01 X-4.74850 Y-2.93969
G01 X-4.74568 Y-2.93083
G01 X-4.74481 Y-2.92888
G01 X-4.74012 Y-2.92085
G01 X-4.73394 Y-2.91391
G01 X-4.73235 Y-2.91248
G01 X-4.72479 Y-2.90706
G01 X-4.71632 Y-2.90322
G01 X-4.71429 Y-2.90256
G01 X-4.70518 Y-2.90069
G01 X-4.69589 Y-2.90063
G01 X-4.69376 Y-2.90085
G01 X-4.68839 Y-2.90199
G01 X-4.68814 Y-2.90281
G01 X-4.68839 Y-2.90199
G01 X-4.61820 Y-2.83180
G01 X-4.61510 Y-2.82920
G01 X-4.61344 Y-2.82808
G01 X-4.61076 Y-2.82665
G01 X-4.60890 Y-2.82588
G01 X-4.60600 Y-2.82500
G01 X-4.60403 Y-2.82461
G01 X-4.60000 Y-2.82426
G01 X-4.58581 Y-2.82426
G01 X-4.58485 Y-2.82550
G01 X-4.58581 Y-2.82426
G01 X-4.58567 Y-2.82263
G01 X-4.58521 Y-2.82091
G01 X-4.58446 Y-2.81929
G01 X-4.58343 Y-2.81783
G01 X-4.58217 Y-2.81657
G01 X-4.58071 Y-2.81554
G01 X-4.57993 Y-2.81518
G01 X-4.57692 Y-2.81465
G01 X-4.58272 Y-2.81560
G01 X-4.58979 Y-2.81946
G01 X-4.58975 Y-2.81963
G01 X-4.58979 Y-2.81946
G01 X-4.60000 Y-2.81946
G01 X-4.60451 Y-2.81962
G01 X-4.61057 Y-2.82039
G01 X-4.61377 Y-2.82101
G01 X-4.62031 Y-2.82285
G01 X-4.62530 Y-2.82470
G01 X-4.63146 Y-2.82724
G01 X-4.69252 Y-2.88831
G01 X-4.69230 Y-2.88895
G01 X-4.69252 Y-2.88831
G01 X-4.69468 Y-2.88811
G01 X-4.63381 Y-2.82724
G01 X-4.63401 Y-2.82676
G01 X-4.63381 Y-2.82724
G01 X-4.63146 Y-2.82724
G01 X-4.62530 Y-2.82470
G01 X-4.62031 Y-2.82285
G01 X-4.61680 Y-2.82179
G01 X-4.61336 Y-2.82095
G01 X-4.63642 Y-2.82095
G01 X-4.63662 Y-2.82047
G01 X-4.63642 Y-2.82095
G01 X-4.71087 Y-2.89540
G01 X-4.70584 Y-2.89442
G01 X-4.69589 Y-2.89433
G01 X-4.69416 Y-2.89442
G01 X-4.69043 Y-2.89512
G01 X-4.69018 Y-2.89591
G01 X-4.69043 Y-2.89512
G01 X-4.62265 Y-2.82735
G01 X-4.61910 Y-2.82433
G01 X-4.61641 Y-2.82253
G01 X-4.61373 Y-2.82110
G01 X-4.61057 Y-2.82039
G01 X-4.60451 Y-2.81964
G01 X-4.60000 Y-2.81946
G01 X-4.58979 Y-2.81946
G01 X-4.58269 Y-2.81567
G01 X-4.57559 Y-2.81439
G01 X-4.52441 Y-2.81440
G01 X-4.52252 Y-2.81465
G01 X-4.52441 Y-2.81441
G01 X-4.57559 Y-2.81441
G01 X-4.57692 Y-2.81465
G01 X-4.63903 Y-2.81465
G01 X-4.63923 Y-2.81417
G01 X-4.63903 Y-2.81465
G01 X-4.74911 Y-2.92473
G01 X-4.74959 Y-2.92453
G01 X-4.74911 Y-2.92473
G01 X-4.74911 Y-2.94498
G01 X-4.74932 Y-2.94895
G01 X-4.74911 Y-2.95502
G01 X-4.74932 Y-2.94895
G01 X-4.74889 Y-2.94072
G01 X-4.74735 Y-2.93029
G01 X-4.74681 Y-2.92772
G01 X-4.74632 Y-2.92589
G01 X-4.74075 Y-2.91885
G01 X-4.73329 Y-2.91118
G01 X-4.72702 Y-2.90582
G01 X-4.72490 Y-2.90419
G01 X-4.71800 Y-2.89945
G01 X-4.71530 Y-2.89780
G01 X-4.70776 Y-2.89371
G01 X-4.70411 Y-2.89197
G01 X-4.69468 Y-2.88811
G01 X-4.63381 Y-2.82724
G01 X-4.63146 Y-2.82724
G01 X-4.62530 Y-2.82470
G01 X-4.62031 Y-2.82285
G01 X-4.61680 Y-2.82179
G01 X-4.61057 Y-2.82039
G01 X-4.60451 Y-2.81964
G01 X-4.60147 Y-2.81949
G01 X-4.58979 Y-2.81946
G01 X-4.58269 Y-2.81567
G01 X-4.57559 Y-2.81441
G01 X-4.52441 Y-2.81441
G01 X-4.52252 Y-2.81465
G01 X-4.45636 Y-2.81459
G01 X-4.46171 Y-2.81515
G01 X-4.46935 Y-2.81665
G01 X-4.47733 Y-2.81910
G01 X-4.48191 Y-2.82095
G01 X-4.50837 Y-2.82095
G01 X-4.50939 Y-2.82001
G01 X-4.51439 Y-2.81687
G01 X-4.51940 Y-2.81499
G01 X-4.52251 Y-2.81465
G01 X-4.52049 Y-2.81495
G01 X-4.51872 Y-2.81590
G01 X-4.51717 Y-2.81717
G01 X-4.51590 Y-2.81872
G01 X-4.51495 Y-2.82049
G01 X-4.51437 Y-2.82241
G01 X-4.51417 Y-2.82441
G01 X-4.51417 Y-2.87559
G01 X-4.51433 Y-2.87737
G01 X-4.51479 Y-2.87909
G01 X-4.51554 Y-2.88071
G01 X-4.51657 Y-2.88217
G01 X-4.51783 Y-2.88343
G01 X-4.51929 Y-2.88445
G01 X-4.52091 Y-2.88521
G01 X-4.52263 Y-2.88567
G01 X-4.52426 Y-2.88581
G01 X-4.52573 Y-2.88459
G01 X-4.52426 Y-2.88581
G01 X-4.52426 Y-2.89593
G01 X-4.52474 Y-2.89613
G01 X-4.52426 Y-2.89593
G01 X-4.39709 Y-3.02310
G01 X-4.39389 Y-3.02700
G01 X-4.39194 Y-3.03054
G01 X-4.39117 Y-3.03240
G01 X-4.39005 Y-3.03628
G01 X-4.38955 Y-3.04130
G01 X-4.38960 Y-3.24650
G01 X-4.39005 Y-3.25052
G01 X-4.39117 Y-3.25440
G01 X-4.39194 Y-3.25626
G01 X-4.39389 Y-3.25980
G01 X-4.39709 Y-3.26370
G01 X-4.40234 Y-3.26887
G01 X-4.40468 Y-3.27080
G01 X-4.40635 Y-3.27191
G01 X-4.40903 Y-3.27335
G01 X-4.41089 Y-3.27412
G01 X-4.41477 Y-3.27524
G01 X-4.41979 Y-3.27574
G01 X-4.45071 Y-3.27574
G01 X-4.45086 Y-3.27532
G01 X-4.45071 Y-3.27574
G01 X-4.45102 Y-3.27605
G01 X-4.45613 Y-3.28058
G01 X-4.46202 Y-3.28404
G01 X-4.46397 Y-3.28491
G01 X-4.46945 Y-3.28669
G01 X-4.47155 Y-3.28714
G01 X-4.47835 Y-3.28780
G01 X-4.52272 Y-3.28774
G01 X-4.52951 Y-3.28697
G01 X-4.53603 Y-3.28491
G01 X-4.53798 Y-3.28404
G01 X-4.54387 Y-3.28058
G01 X-4.54898 Y-3.27605
G01 X-4.55042 Y-3.27446
G01 X-4.55438 Y-3.26890
G01 X-4.55722 Y-3.26268
G01 X-4.55788 Y-3.26064
G01 X-4.55924 Y-3.25395
G01 X-4.55924 Y-3.24605
G01 X-4.55760 Y-3.23832
G01 X-4.55438 Y-3.23110
G01 X-4.54974 Y-3.22471
G01 X-4.54387 Y-3.21942
G01 X-4.53703 Y-3.21547
G01 X-4.53055 Y-3.21331
G01 X-4.52845 Y-3.21286
G01 X-4.52165 Y-3.21220
G01 X-4.47835 Y-3.21220
G01 X-4.47155 Y-3.21286
G01 X-4.46945 Y-3.21331
G01 X-4.46397 Y-3.21509
G01 X-4.46202 Y-3.21596
G01 X-4.45613 Y-3.21942
G01 X-4.45102 Y-3.22395
G01 X-4.45071 Y-3.22426
G01 X-4.45086 Y-3.22468
G01 X-4.45071 Y-3.22426
G01 X-4.44103 Y-3.22426
G01 X-4.43918 Y-3.22611
G01 X-4.44103 Y-3.22426
G01 X-4.44103 Y-3.17674
G01 X-4.44086 Y-3.17414
G01 X-4.44085 Y-3.16838
G01 X-4.44102 Y-3.16578
G01 X-4.44097 Y-3.16626
G01 X-4.44103 Y-3.05196
G01 X-4.44055 Y-3.05176
G01 X-4.44103 Y-3.05196
G01 X-4.56820 Y-2.92479
G01 X-4.57080 Y-2.92170
G01 X-4.57191 Y-2.92003
G01 X-4.57335 Y-2.91735
G01 X-4.57411 Y-2.91549
G01 X-4.57500 Y-2.91258
G01 X-4.57539 Y-2.91062
G01 X-4.57574 Y-2.90659
G01 X-4.57574 Y-2.88581
G01 X-4.57448 Y-2.88484
G01 X-4.57574 Y-2.88581
G01 X-4.57737 Y-2.88567
G01 X-4.57909 Y-2.88521
G01 X-4.58071 Y-2.88445
G01 X-4.58217 Y-2.88343
G01 X-4.58343 Y-2.88217
G01 X-4.58446 Y-2.88071
G01 X-4.58521 Y-2.87909
G01 X-4.58567 Y-2.87737
G01 X-4.58581 Y-2.87574
G01 X-4.58459 Y-2.87427
G01 X-4.58581 Y-2.87574
G01 X-4.58934 Y-2.87574
G01 X-4.58954 Y-2.87526
G01 X-4.58934 Y-2.87574
G01 X-4.65189 Y-2.93829
G01 X-4.65254 Y-2.93806
G01 X-4.65189 Y-2.93829
G01 X-4.65150 Y-2.93969
G01 X-4.65047 Y-2.94893
G01 X-4.65047 Y-2.95107
G01 X-4.65150 Y-2.96031
G01 X-4.65470 Y-2.97017
G01 X-4.65988 Y-2.97915
G01 X-4.66606 Y-2.98609
G01 X-4.66765 Y-2.98752
G01 X-4.67521 Y-2.99294
G01 X-4.68468 Y-2.99716
G01 X-4.69376 Y-2.99915
G01 X-4.69589 Y-2.99937
G01 X-4.70518 Y-2.99931
G01 X-4.71429 Y-2.99744
G01 X-4.71632 Y-2.99677
G01 X-4.72479 Y-2.99294
G01 X-4.73318 Y-2.98685
G01 X-4.73944 Y-2.97998
G01 X-4.74070 Y-2.97825
G01 X-4.74481 Y-2.97112
G01 X-4.74568 Y-2.96917
G01 X-4.74850 Y-2.96031
G01 X-4.74911 Y-2.95503
G01 X-4.74866 Y-2.96148
G01 X-4.74735 Y-2.96971
G01 X-4.74632 Y-2.97411
G01 X-4.74649 Y-2.97419
G01 X-4.74632 Y-2.97411
G01 X-4.74075 Y-2.98115
G01 X-4.73330 Y-2.98883
G01 X-4.72702 Y-2.99418
G01 X-4.72490 Y-2.99581
G01 X-4.71800 Y-3.00054
G01 X-4.71530 Y-3.00220
G01 X-4.71087 Y-3.00460
G01 X-4.57625 Y-3.13922
G01 X-4.57645 Y-3.13970
G01 X-4.57625 Y-3.13922
G01 X-4.55175 Y-3.13922
G01 X-4.55160 Y-3.13962
G01 X-4.55175 Y-3.13922
G01 X-4.54757 Y-3.13559
G01 X-4.54113 Y-3.13176
G01 X-4.53797 Y-3.13036
G01 X-4.53249 Y-3.12858
G01 X-4.52911 Y-3.12786
G01 X-4.52165 Y-3.12717
G01 X-4.47835 Y-3.12717
G01 X-4.46918 Y-3.12813
G01 X-4.46041 Y-3.13098
G01 X-4.45243 Y-3.13559
G01 X-4.44733 Y-3.14006
G01 X-4.44701 Y-3.14076
G01 X-4.44733 Y-3.14006
G01 X-4.44733 Y-3.05457
G01 X-4.44685 Y-3.05437
G01 X-4.44733 Y-3.05457
G01 X-4.57374 Y-2.92804
G01 X-4.57664 Y-2.92439
G01 X-4.57890 Y-2.92032
G01 X-4.58014 Y-2.91732
G01 X-4.58142 Y-2.91284
G01 X-4.58204 Y-2.90659
G01 X-4.58204 Y-2.89076
G01 X-4.58122 Y-2.89030
G01 X-4.58204 Y-2.89076
G01 X-4.58386 Y-2.88991
G01 X-4.58622 Y-2.88826
G01 X-4.58826 Y-2.88622
G01 X-4.58935 Y-2.88466
G01 X-4.58925 Y-2.88172
G01 X-4.58935 Y-2.88466
G01 X-4.64504 Y-2.94034
G01 X-4.64566 Y-2.94012
G01 X-4.64504 Y-2.94034
G01 X-4.64411 Y-2.95000
G01 X-4.64506 Y-2.95991
G01 X-4.64578 Y-2.96329
G01 X-4.64832 Y-2.97111
G01 X-4.64973 Y-2.97427
G01 X-4.65479 Y-2.98285
G01 X-4.66138 Y-2.99031
G01 X-4.66395 Y-2.99262
G01 X-4.67206 Y-2.99840
G01 X-4.68273 Y-3.00315
G01 X-4.69245 Y-3.00531
G01 X-4.69589 Y-3.00567
G01 X-4.70584 Y-3.00558
G01 X-4.71087 Y-3.00460
G01 X-4.70776 Y-3.00629
G01 X-4.70411 Y-3.00803
G01 X-4.69457 Y-3.01190
G01 X-4.69114 Y-3.01147
G01 X-4.68078 Y-3.00914
G01 X-4.67104 Y-3.00494
G01 X-4.66891 Y-3.00385
G01 X-4.66690 Y-3.00255
G01 X-4.65839 Y-2.99621
G01 X-4.65670 Y-2.99452
G01 X-4.64969 Y-2.98655
G01 X-4.64428 Y-2.97742
G01 X-4.64319 Y-2.97529
G01 X-4.64233 Y-2.97306
G01 X-4.63979 Y-2.96524
G01 X-4.63917 Y-2.96293
G01 X-4.63880 Y-2.96057
G01 X-4.63781 Y-2.95000
G01 X-4.63846 Y-2.94267
G01 X-4.63907 Y-2.94245
G01 X-4.63846 Y-2.94267
G01 X-4.58945 Y-2.89366
G01 X-4.58961 Y-2.89174
G01 X-4.58945 Y-2.89366
G01 X-4.58833 Y-2.89444
G01 X-4.58764 Y-2.89407
G01 X-4.58833 Y-2.89444
G01 X-4.58833 Y-2.90659
G01 X-4.58793 Y-2.91185
G01 X-4.58760 Y-2.91407
G01 X-4.58705 Y-2.91624
G01 X-4.58617 Y-2.91915
G01 X-4.58446 Y-2.92328
G01 X-4.58303 Y-2.92597
G01 X-4.58187 Y-2.92789
G01 X-4.57861 Y-2.93204
G01 X-4.57711 Y-2.93370
G01 X-4.45362 Y-3.05718
G01 X-4.45315 Y-3.05698
G01 X-4.45362 Y-3.05718
G01 X-4.45362 Y-3.12752
G01 X-4.45169 Y-3.13086
G01 X-4.44957 Y-3.13500
G01 X-4.44701 Y-3.14076
G01 X-4.44575 Y-3.14402
G01 X-4.44315 Y-3.15244
G01 X-4.44157 Y-3.16050
G01 X-4.44097 Y-3.16626
G01 X-4.44157 Y-3.16050
G01 X-4.44317 Y-3.15245
G01 X-4.44575 Y-3.14402
G01 X-4.44701 Y-3.14076
G01 X-4.44957 Y-3.13500
G01 X-4.45169 Y-3.13086
G01 X-4.45362 Y-3.12752
G01 X-4.45785 Y-3.12522
G01 X-4.46556 Y-3.12258
G01 X-4.46787 Y-3.12197
G01 X-4.47023 Y-3.12159
G01 X-4.47835 Y-3.12087
G01 X-4.52165 Y-3.12087
G01 X-4.52977 Y-3.12159
G01 X-4.53213 Y-3.12197
G01 X-4.53444 Y-3.12258
G01 X-4.54215 Y-3.12522
G01 X-4.54927 Y-3.12919
G01 X-4.55127 Y-3.13049
G01 X-4.55417 Y-3.13293
G01 X-4.55405 Y-3.13326
G01 X-4.55417 Y-3.13293
G01 X-4.57364 Y-3.13293
G01 X-4.57384 Y-3.13340
G01 X-4.57364 Y-3.13293
G01 X-4.69472 Y-3.01185
G01 X-4.70411 Y-3.00803
G01 X-4.70776 Y-3.00629
G01 X-4.71530 Y-3.00220
G01 X-4.71800 Y-3.00054
G01 X-4.72490 Y-2.99581
G01 X-4.72702 Y-2.99418
G01 X-4.73508 Y-2.98712
G01 X-4.74075 Y-2.98115
G01 X-4.74632 Y-2.97411
G01 X-4.74735 Y-2.96971
G01 X-4.74866 Y-2.96148
G01 X-4.74911 Y-2.95502
G01 X-4.74911 Y-2.97527
G01 X-4.74959 Y-2.97547
G01 X-4.74911 Y-2.97527
G01 X-4.57886 Y-3.14552
G01 X-4.57906 Y-3.14600
G01 X-4.57886 Y-3.14552
G01 X-4.54929 Y-3.14552
G01 X-4.54914 Y-3.14594
G01 X-4.54929 Y-3.14552
G01 X-4.54898 Y-3.14521
G01 X-4.54387 Y-3.14068
G01 X-4.53798 Y-3.13722
G01 X-4.53603 Y-3.13635
G01 X-4.53055 Y-3.13457
G01 X-4.52845 Y-3.13412
G01 X-4.52165 Y-3.13346
G01 X-4.47835 Y-3.13346
G01 X-4.47155 Y-3.13412
G01 X-4.46945 Y-3.13457
G01 X-4.46297 Y-3.13673
G01 X-4.45703 Y-3.14010
G01 X-4.45530 Y-3.14136
G01 X-4.45026 Y-3.14597
G01 X-4.44561 Y-3.15236
G01 X-4.44240 Y-3.15958
G01 X-4.44097 Y-3.16626
G01 X-4.44085 Y-3.16838
G01 X-4.44097 Y-3.17626
G01 X-4.44194 Y-3.18431
G01 X-4.44315 Y-3.19008
G01 X-4.44576 Y-3.19850
G01 X-4.44733 Y-3.20246
G01 X-4.45243 Y-3.20693
G01 X-4.45865 Y-3.21063
G01 X-4.45243 Y-3.21433
G01 X-4.44825 Y-3.21796
G01 X-4.44840 Y-3.21836
G01 X-4.44825 Y-3.21796
G01 X-4.44733 Y-3.21796
G01 X-4.44548 Y-3.21981
G01 X-4.44733 Y-3.21796
G01 X-4.44733 Y-3.20246
G01 X-4.44701 Y-3.20175
G01 X-4.45112 Y-3.21063
G01 X-4.45048 Y-3.21162
G01 X-4.45112 Y-3.21063
G01 X-4.55300 Y-3.21063
G01 X-4.55741 Y-3.21459
G01 X-4.55910 Y-3.21628
G01 X-4.56061 Y-3.21814
G01 X-4.56529 Y-3.22480
G01 X-4.56872 Y-3.23220
G01 X-4.56958 Y-3.23443
G01 X-4.57020 Y-3.23674
G01 X-4.57177 Y-3.24473
G01 X-4.57190 Y-3.24712
G01 X-4.57177 Y-3.25527
G01 X-4.57020 Y-3.26326
G01 X-4.56958 Y-3.26557
G01 X-4.56872 Y-3.26780
G01 X-4.56529 Y-3.27520
G01 X-4.56399 Y-3.27720
G01 X-4.55910 Y-3.28372
G01 X-4.55300 Y-3.28937
G01 X-4.44700 Y-3.28937
G01 X-4.44583 Y-3.28833
G01 X-4.44599 Y-3.28792
G01 X-4.44583 Y-3.28833
G01 X-4.41979 Y-3.28833
G01 X-4.41453 Y-3.28793
G01 X-4.41231 Y-3.28760
G01 X-4.40723 Y-3.28617
G01 X-4.40309 Y-3.28446
G01 X-4.40041 Y-3.28303
G01 X-4.39669 Y-3.28054
G01 X-4.39268 Y-3.27711
G01 X-4.38818 Y-3.27261
G01 X-4.38668 Y-3.27095
G01 X-4.38342 Y-3.26680
G01 X-4.38083 Y-3.26220
G01 X-4.37912 Y-3.25806
G01 X-4.37769 Y-3.25298
G01 X-4.37706 Y-3.24774
G01 X-4.37695 Y-3.24550
G01 X-4.37695 Y-3.04130
G01 X-4.37736 Y-3.03604
G01 X-4.37769 Y-3.03382
G01 X-4.37824 Y-3.03165
G01 X-4.37912 Y-3.02874
G01 X-4.38083 Y-3.02460
G01 X-4.38226 Y-3.02192
G01 X-4.38342 Y-3.02000
G01 X-4.38475 Y-3.01820
G01 X-4.38818 Y-3.01419
G01 X-4.50951 Y-2.89286
G01 X-4.51174 Y-2.89296
G01 X-4.50951 Y-2.89286
G01 X-4.50692 Y-2.89027
G01 X-4.50463 Y-2.88701
G01 X-4.50295 Y-2.88340
G01 X-4.50192 Y-2.87955
G01 X-4.50157 Y-2.87559
G01 X-4.50157 Y-2.82724
G01 X-4.50441 Y-2.82441
G01 X-4.50941 Y-2.82003
G01 X-4.51441 Y-2.81691
G01 X-4.51941 Y-2.81503
G01 X-4.52251 Y-2.81465
G01 X-4.51941 Y-2.81503
G01 X-4.51441 Y-2.81691
G01 X-4.50941 Y-2.82003
G01 X-4.50441 Y-2.82441
G01 X-4.50157 Y-2.82724
G01 X-4.49419 Y-2.82724
G01 X-4.48991 Y-2.82477
G01 X-4.48588 Y-2.82271
G01 X-4.48053 Y-2.82033
G01 X-4.47733 Y-2.81910
G01 X-4.46935 Y-2.81665
G01 X-4.46400 Y-2.81551
G01 X-4.45689 Y-2.81465
G01 X-4.46400 Y-2.81551
G01 X-4.46935 Y-2.81665
G01 X-4.47733 Y-2.81910
G01 X-4.48191 Y-2.82095
G01 X-4.50837 Y-2.82095
G01 X-4.50819 Y-2.82118
G01 X-4.50787 Y-2.82441
G01 X-4.50787 Y-2.87559
G01 X-4.50812 Y-2.87846
G01 X-4.50887 Y-2.88125
G01 X-4.51009 Y-2.88386
G01 X-4.51174 Y-2.88622
G01 X-4.51378 Y-2.88826
G01 X-4.51614 Y-2.88991
G01 X-4.51796 Y-2.89076
G01 X-4.51878 Y-2.89030
G01 X-4.51796 Y-2.89076
G01 X-4.51796 Y-2.89332
G01 X-4.39264 Y-3.01865
G01 X-4.38865 Y-3.02350
G01 X-4.38639 Y-3.02757
G01 X-4.38515 Y-3.03057
G01 X-4.38387 Y-3.03505
G01 X-4.38325 Y-3.04130
G01 X-4.38333 Y-3.24712
G01 X-4.38387 Y-3.25175
G01 X-4.38426 Y-3.25332
G01 X-4.38515 Y-3.25623
G01 X-4.38639 Y-3.25923
G01 X-4.38865 Y-3.26330
G01 X-4.39155 Y-3.26695
G01 X-4.39834 Y-3.27374
G01 X-4.40069 Y-3.27567
G01 X-4.40338 Y-3.27747
G01 X-4.40606 Y-3.27890
G01 X-4.40906 Y-3.28014
G01 X-4.41354 Y-3.28142
G01 X-4.41979 Y-3.28204
G01 X-4.44825 Y-3.28204
G01 X-4.45243 Y-3.28567
G01 X-4.45865 Y-3.28937
G01 X-4.55300 Y-3.28937
G01 X-4.55910 Y-3.29502
G01 X-4.56399 Y-3.30154
G01 X-4.56529 Y-3.30354
G01 X-4.56638 Y-3.30567
G01 X-4.56958 Y-3.31317
G01 X-4.57140 Y-3.32111
G01 X-4.57177 Y-3.32347
G01 X-4.57190 Y-3.32586
G01 X-4.57190 Y-3.33162
G01 X-4.57177 Y-3.33401
G01 X-4.57140 Y-3.33637
G01 X-4.56958 Y-3.34431
G01 X-4.56872 Y-3.34654
G01 X-4.56529 Y-3.35394
G01 X-4.56399 Y-3.35594
G01 X-4.55910 Y-3.36246
G01 X-4.55741 Y-3.36415
G01 X-4.55127 Y-3.36951
G01 X-4.54927 Y-3.37081
G01 X-4.54215 Y-3.37478
G01 X-4.53444 Y-3.37741
G01 X-4.53213 Y-3.37803
G01 X-4.52977 Y-3.37841
G01 X-4.52165 Y-3.37913
G01 X-4.47835 Y-3.37913
G01 X-4.47023 Y-3.37841
G01 X-4.46787 Y-3.37803
G01 X-4.46008 Y-3.37563
G01 X-4.45785 Y-3.37478
G01 X-4.45572 Y-3.37369
G01 X-4.45073 Y-3.37081
G01 X-4.44872 Y-3.36951
G01 X-4.44687 Y-3.36801
G01 X-4.44611 Y-3.36732
G01 X-4.44622 Y-3.36700
G01 X-4.44611 Y-3.36732
G01 X-4.17874 Y-3.36732
G01 X-4.17650 Y-3.36721
G01 X-4.17343 Y-3.36691
G01 X-4.16904 Y-3.36604
G01 X-4.16608 Y-3.36514
G01 X-4.16195 Y-3.36343
G01 X-4.15923 Y-3.36197
G01 X-4.15730 Y-3.36082
G01 X-4.15608 Y-3.35992
G01 X-4.15613 Y-3.35974
G01 X-4.15608 Y-3.35992
G01 X-4.15391 Y-3.36003
G01 X-4.14609 Y-3.36003
G01 X-4.14370 Y-3.35991
G01 X-4.14134 Y-3.35953
G01 X-4.13138 Y-3.35729
G01 X-4.12201 Y-3.35325
G01 X-4.11988 Y-3.35217
G01 X-4.11788 Y-3.35086
G01 X-4.11155 Y-3.34627
G01 X-4.10960 Y-3.34468
G01 X-4.10473 Y-3.33065
G01 X-4.10264 Y-3.32283
G01 X-4.10394 Y-3.32768
G01 X-4.10636 Y-3.33170
G01 X-4.10745 Y-3.33305
G01 X-4.11391 Y-3.34008
G01 X-4.12303 Y-3.34671
G01 X-4.13333 Y-3.35130
G01 X-4.14265 Y-3.35337
G01 X-4.14609 Y-3.35373
G01 X-4.15391 Y-3.35373
G01 X-4.15735 Y-3.35337
G01 X-4.15785 Y-3.35326
G01 X-4.15793 Y-3.35297
G01 X-4.15785 Y-3.35326
G01 X-4.16080 Y-3.35558
G01 X-4.16492 Y-3.35787
G01 X-4.16791 Y-3.35911
G01 X-4.17087 Y-3.36001
G01 X-4.17404 Y-3.36064
G01 X-4.17712 Y-3.36095
G01 X-4.44853 Y-3.36103
G01 X-4.44868 Y-3.36063
G01 X-4.44853 Y-3.36103
G01 X-4.45243 Y-3.36441
G01 X-4.46041 Y-3.36902
G01 X-4.46918 Y-3.37187
G01 X-4.47835 Y-3.37283
G01 X-4.52165 Y-3.37283
G01 X-4.52911 Y-3.37214
G01 X-4.53249 Y-3.37142
G01 X-4.53959 Y-3.36902
G01 X-4.54757 Y-3.36441
G01 X-4.55442 Y-3.35825
G01 X-4.55890 Y-3.35224
G01 X-4.56063 Y-3.34924
G01 X-4.56297 Y-3.34398
G01 X-4.56404 Y-3.34069
G01 X-4.56551 Y-3.33335
G01 X-4.56560 Y-3.32586
G01 X-4.56524 Y-3.32242
G01 X-4.56359 Y-3.31511
G01 X-4.55984 Y-3.30669
G01 X-4.55442 Y-3.29923
G01 X-4.54892 Y-3.29416
G01 X-4.54612 Y-3.29212
G01 X-4.54135 Y-3.28937
G01 X-4.44700 Y-3.28937
G01 X-4.44583 Y-3.28833
G01 X-4.41979 Y-3.28833
G01 X-4.41755 Y-3.28822
G01 X-4.41231 Y-3.28760
