( pcb2gcode 1.3.2 )
( Software-independent Gcode )

G94 ( Inches per minute feed rate. )
G20 ( Units == INCHES. )

G90 ( Absolute coordinates. )
G00 S12000 ( RPM spindle speed. )
G64 P0.00040 ( set maximum deviation from commanded toolpath )
G01 F360.00000 ( Feedrate. )

G01 F360.00000 ( Feedrate. )
M3 ( Spindle on clockwise. )
G04 P1.00000
G04 P0 ( dwell for no time -- G64 should not smooth over this point )
G00 Z0.08000 ( retract )

G00 X-3.32790 Y-2.82790 ( rapid move to begin. )
G01 F180.00000
G01 Z-0.04000
G04 P0 ( dwell for no time -- G64 should not smooth over this point )
G01 F360.00000
G01 X-3.32790 Y-2.82790
G01 X-3.33397 Y-2.82322
G01 X-3.34240 Y-2.81973
G01 X-3.34846 Y-2.81883
G01 X-3.35975 Y-2.81875
G01 X-3.36131 Y-2.81566
G01 X-3.36566 Y-2.81132
G01 X-3.36838 Y-2.80986
G01 X-3.37441 Y-2.80866
G01 X-3.42866 Y-2.80896
G01 X-3.43162 Y-2.80986
G01 X-3.43673 Y-2.81327
G01 X-3.44014 Y-2.81838
G01 X-3.44134 Y-2.82441
G01 X-3.44134 Y-2.87559
G01 X-3.44014 Y-2.88162
G01 X-3.43673 Y-2.88673
G01 X-3.43162 Y-2.89014
G01 X-3.42559 Y-2.89134
G01 X-3.37441 Y-2.89134
G01 X-3.36838 Y-2.89014
G01 X-3.36566 Y-2.88868
G01 X-3.36327 Y-2.88673
G01 X-3.36081 Y-2.88339
G01 X-3.30413 Y-2.94006
G01 X-3.30501 Y-2.95165
G01 X-3.30389 Y-2.96145
G01 X-3.30092 Y-2.97087
G01 X-3.29354 Y-2.98367
G01 X-3.28687 Y-2.99094
G01 X-3.28125 Y-2.99513
G01 X-3.28125 Y-3.16727
G01 X-3.33273 Y-3.21875
G01 X-3.34856 Y-3.21875
G01 X-3.35289 Y-3.21496
G01 X-3.36051 Y-3.21063
G01 X-3.35289 Y-3.20629
G01 X-3.34733 Y-3.20140
G01 X-3.34009 Y-3.19144
G01 X-3.33775 Y-3.18618
G01 X-3.33553 Y-3.17741
G01 X-3.33528 Y-3.16673
G01 X-3.33673 Y-3.15947
G01 X-3.34009 Y-3.15108
G01 X-3.34733 Y-3.14112
G01 X-3.35289 Y-3.13622
G01 X-3.35926 Y-3.13245
G01 X-3.37097 Y-3.12864
G01 X-3.37835 Y-3.12795
G01 X-3.42165 Y-3.12795
G01 X-3.42903 Y-3.12864
G01 X-3.44074 Y-3.13245
G01 X-3.44711 Y-3.13622
G01 X-3.45117 Y-3.13976
G01 X-4.02976 Y-3.13976
G01 X-4.03139 Y-3.14370
G01 X-3.44966 Y-3.14370
G01 X-3.44479 Y-3.13941
G01 X-3.43877 Y-3.13585
G01 X-3.42862 Y-3.13256
G01 X-3.42165 Y-3.13189
G01 X-3.37835 Y-3.13189
G01 X-3.37138 Y-3.13256
G01 X-3.36123 Y-3.13585
G01 X-3.35521 Y-3.13941
G01 X-3.34831 Y-3.14588
G01 X-3.34425 Y-3.15157
G01 X-3.34058 Y-3.16029
G01 X-3.33919 Y-3.16714
G01 X-3.33919 Y-3.17537
G01 X-3.34058 Y-3.18223
G01 X-3.34369 Y-3.18984
G01 X-3.34996 Y-3.19848
G01 X-3.35521 Y-3.20311
G01 X-3.36349 Y-3.20767
G01 X-3.37016 Y-3.20977
G01 X-3.37833 Y-3.21063
G01 X-3.36051 Y-3.21063
G01 X-3.37835 Y-3.21063
G01 X-3.37016 Y-3.21149
G01 X-3.36349 Y-3.21359
G01 X-3.35521 Y-3.21815
G01 X-3.35007 Y-3.22269
G01 X-3.33110 Y-3.22269
G01 X-3.27731 Y-3.16890
G01 X-3.27731 Y-2.99313
G01 X-3.28423 Y-2.98802
G01 X-3.29061 Y-2.98103
G01 X-3.29718 Y-2.96965
G01 X-3.29972 Y-2.96183
G01 X-3.30110 Y-2.95123
G01 X-3.29985 Y-2.93877
G01 X-3.36131 Y-2.87731
G01 X-3.36277 Y-2.87731
G01 X-3.36459 Y-2.88215
G01 X-3.36785 Y-2.88541
G01 X-3.36989 Y-2.88650
G01 X-3.37441 Y-2.88740
G01 X-3.42789 Y-2.88717
G01 X-3.43215 Y-2.88541
G01 X-3.43541 Y-2.88215
G01 X-3.43650 Y-2.88011
G01 X-3.43740 Y-2.87559
G01 X-3.43740 Y-2.82441
G01 X-3.43650 Y-2.81989
G01 X-3.43394 Y-2.81606
G01 X-3.43011 Y-2.81350
G01 X-3.42559 Y-2.81260
G01 X-3.37210 Y-2.81283
G01 X-3.36785 Y-2.81459
G01 X-3.36606 Y-2.81606
G01 X-3.36350 Y-2.81989
G01 X-3.36277 Y-2.82269
G01 X-3.34582 Y-2.82304
G01 X-3.33850 Y-2.82526
G01 X-3.33390 Y-2.82798
G01 X-3.26110 Y-2.90028
G01 X-3.25535 Y-2.89912
G01 X-3.24589 Y-2.89905
G01 X-3.23538 Y-2.90102
G01 X-3.22442 Y-2.90569
G01 X-3.21673 Y-2.91120
G01 X-3.20861 Y-2.91993
G01 X-3.20382 Y-2.92809
G01 X-3.19996 Y-2.93936
G01 X-3.19884 Y-2.95000
G01 X-3.20028 Y-2.96183
G01 X-3.20382 Y-2.97191
G01 X-3.20939 Y-2.98103
G01 X-3.21577 Y-2.98802
G01 X-3.22269 Y-2.99313
G01 X-3.22269 Y-3.18021
G01 X-3.22350 Y-3.18667
G01 X-3.22526 Y-3.19171
G01 X-3.23069 Y-3.19952
G01 X-3.30048 Y-3.26931
G01 X-3.30561 Y-3.27330
G01 X-3.31333 Y-3.27650
G01 X-3.31863 Y-3.27725
G01 X-3.35007 Y-3.27731
G01 X-3.35521 Y-3.28185
G01 X-3.36349 Y-3.28641
G01 X-3.37016 Y-3.28851
G01 X-3.37834 Y-3.28937
G01 X-3.36051 Y-3.28937
G01 X-3.35289 Y-3.28504
G01 X-3.34856 Y-3.28125
G01 X-3.31522 Y-3.28087
G01 X-3.30928 Y-3.27939
G01 X-3.30375 Y-3.27678
G01 X-3.29769 Y-3.27210
G01 X-3.22790 Y-3.20231
G01 X-3.22494 Y-3.19881
G01 X-3.22179 Y-3.19357
G01 X-3.21973 Y-3.18781
G01 X-3.21875 Y-3.18021
G01 X-3.21875 Y-2.99513
G01 X-3.21313 Y-2.99094
G01 X-3.20646 Y-2.98367
G01 X-3.20041 Y-2.97388
G01 X-3.19940 Y-2.97159
G01 X-3.19793 Y-2.96259
G01 X-3.19719 Y-2.94859
G01 X-3.19762 Y-2.95964
G01 X-3.19940 Y-2.97159
G01 X-3.19940 Y-3.20468
G01 X-3.33745 Y-3.34273
G01 X-3.34311 Y-3.35078
G01 X-3.34881 Y-3.35723
G01 X-3.35519 Y-3.36308
G01 X-3.36202 Y-3.36816
G01 X-3.37693 Y-3.36976
G01 X-3.42165 Y-3.36980
G01 X-3.43175 Y-3.36915
G01 X-3.44074 Y-3.36755
G01 X-3.80863 Y-3.36755
G01 X-3.81875 Y-3.35743
G01 X-3.81875 Y-3.35512
G01 X-3.80953 Y-3.35481
G01 X-3.80385 Y-3.35246
G01 X-3.79950 Y-3.34812
G01 X-3.79715 Y-3.34244
G01 X-3.79685 Y-3.32474
G01 X-3.79926 Y-3.31190
G01 X-3.79996 Y-3.29868
G01 X-3.79926 Y-3.28810
G01 X-3.79685 Y-3.27526
G01 X-3.79926 Y-3.28810
G01 X-3.79996 Y-3.30132
G01 X-3.79926 Y-3.31190
G01 X-3.79685 Y-3.32474
G01 X-3.79300 Y-3.33124
G01 X-3.78428 Y-3.34054
G01 X-3.77657 Y-3.34603
G01 X-3.76483 Y-3.35097
G01 X-3.75556 Y-3.35286
G01 X-3.74444 Y-3.35286
G01 X-3.73204 Y-3.34996
G01 X-3.72343 Y-3.34603
G01 X-3.72076 Y-3.34420
G01 X-3.68206 Y-3.35833
G01 X-3.67264 Y-3.36018
G01 X-3.45117 Y-3.36024
G01 X-3.44711 Y-3.36378
G01 X-3.44074 Y-3.36755
G01 X-3.42883 Y-3.36946
G01 X-3.37835 Y-3.36980
G01 X-3.36202 Y-3.36816
G01 X-3.35519 Y-3.36308
G01 X-3.34881 Y-3.35723
G01 X-3.34128 Y-3.34840
G01 X-3.33745 Y-3.34273
G01 X-3.33519 Y-3.33162
G01 X-3.33528 Y-3.32421
G01 X-3.33673 Y-3.31695
G01 X-3.34174 Y-3.30570
G01 X-3.34733 Y-3.29860
G01 X-3.35161 Y-3.29474
G01 X-3.36051 Y-3.28937
G01 X-3.37834 Y-3.28937
G01 X-3.37016 Y-3.29023
G01 X-3.36123 Y-3.29333
G01 X-3.35521 Y-3.29689
G01 X-3.34831 Y-3.30336
G01 X-3.34369 Y-3.31016
G01 X-3.34135 Y-3.31542
G01 X-3.33939 Y-3.32340
G01 X-3.33919 Y-3.33285
G01 X-3.34058 Y-3.33971
G01 X-3.34492 Y-3.34946
G01 X-3.34996 Y-3.35596
G01 X-3.35521 Y-3.36059
G01 X-3.36349 Y-3.36515
G01 X-3.37016 Y-3.36725
G01 X-3.37835 Y-3.36811
G01 X-3.42165 Y-3.36811
G01 X-3.42984 Y-3.36725
G01 X-3.43877 Y-3.36415
G01 X-3.44479 Y-3.36059
G01 X-3.44965 Y-3.35630
G01 X-3.67229 Y-3.35625
G01 X-3.68071 Y-3.35463
G01 X-3.72138 Y-3.33978
G01 X-3.72649 Y-3.34318
G01 X-3.73599 Y-3.34712
G01 X-3.74609 Y-3.34901
G01 X-3.75637 Y-3.34875
G01 X-3.76636 Y-3.34636
G01 X-3.77461 Y-3.34262
G01 X-3.78197 Y-3.33735
G01 X-3.78904 Y-3.32989
G01 X-3.79540 Y-3.31886
G01 X-3.79814 Y-3.31023
G01 X-3.79915 Y-3.30123
G01 X-3.79782 Y-3.28857
G01 X-3.79440 Y-3.27888
G01 X-3.78904 Y-3.27011
G01 X-3.78197 Y-3.26265
G01 X-3.77350 Y-3.25682
G01 X-3.76401 Y-3.25288
G01 X-3.75391 Y-3.25099
G01 X-3.74363 Y-3.25125
G01 X-3.73599 Y-3.25288
G01 X-3.72649 Y-3.25682
G01 X-3.71803 Y-3.26265
G01 X-3.71019 Y-3.27107
G01 X-3.70560 Y-3.27888
G01 X-3.70235 Y-3.28805
G01 X-3.66639 Y-3.30118
G01 X-3.44965 Y-3.30118
G01 X-3.44479 Y-3.29689
G01 X-3.43877 Y-3.29333
G01 X-3.42984 Y-3.29023
G01 X-3.42165 Y-3.28937
G01 X-3.37834 Y-3.28937
G01 X-3.42289 Y-3.28931
G01 X-3.42984 Y-3.28851
G01 X-3.43877 Y-3.28540
G01 X-3.44479 Y-3.28185
G01 X-3.45004 Y-3.27722
G01 X-3.45575 Y-3.26968
G01 X-3.45942 Y-3.26097
G01 X-3.46061 Y-3.25534
G01 X-3.46087 Y-3.24712
G01 X-3.45865 Y-3.23668
G01 X-3.45575 Y-3.23031
G01 X-3.45169 Y-3.22462
G01 X-3.44479 Y-3.21815
G01 X-3.43651 Y-3.21359
G01 X-3.42984 Y-3.21149
G01 X-3.42165 Y-3.21063
G01 X-3.37833 Y-3.21063
G04 P0 ( dwell for no time -- G64 should not smooth over this point )
G00 Z0.08000 ( retract )

G00 X-3.37835 Y-3.21063 ( rapid move to begin. )
G01 F180.00000
G01 Z-0.04000
G04 P0 ( dwell for no time -- G64 should not smooth over this point )
G01 F360.00000
G01 X-3.37835 Y-3.21063
G01 X-3.42165 Y-3.21063
G04 P0 ( dwell for no time -- G64 should not smooth over this point )
G00 Z0.08000 ( retract )

G00 X-3.42167 Y-3.21063 ( rapid move to begin. )
G01 F180.00000
G01 Z-0.04000
G04 P0 ( dwell for no time -- G64 should not smooth over this point )
G01 F360.00000
G01 X-3.42167 Y-3.21063
G01 X-3.42984 Y-3.20977
G01 X-3.43651 Y-3.20767
G01 X-3.44479 Y-3.20311
G01 X-3.44966 Y-3.19882
G01 X-4.04280 Y-3.19882
G01 X-4.05226 Y-3.19711
G01 X-4.05712 Y-3.19477
G01 X-4.06229 Y-3.19075
G01 X-4.26542 Y-2.98762
G01 X-4.27442 Y-2.99431
G01 X-4.28304 Y-2.99821
G01 X-4.29343 Y-3.00069
G01 X-4.30535 Y-3.00088
G01 X-4.31461 Y-2.99898
G01 X-4.32558 Y-2.99431
G01 X-4.33327 Y-2.98880
G01 X-4.34061 Y-2.98103
G01 X-4.34618 Y-2.97191
G01 X-4.34972 Y-2.96183
G01 X-4.35116 Y-2.95000
G01 X-4.35024 Y-2.94058
G01 X-4.34718 Y-2.93034
G01 X-4.34139 Y-2.91993
G01 X-4.33511 Y-2.91285
G01 X-4.32755 Y-2.90705
G01 X-4.32756 Y-2.87756
G01 X-4.42638 Y-2.87756
G01 X-4.43287 Y-2.88239
G01 X-4.44121 Y-2.88589
G01 X-4.44890 Y-2.88726
G01 X-4.45671 Y-2.88700
G01 X-4.46194 Y-2.88589
G01 X-4.46917 Y-2.88295
G01 X-4.47564 Y-2.87857
G01 X-4.48105 Y-2.87294
G01 X-4.48518 Y-2.86631
G01 X-4.48835 Y-2.85656
G01 X-4.48898 Y-2.85000
G01 X-4.48784 Y-2.84103
G01 X-4.48574 Y-2.83479
G01 X-4.48251 Y-2.82905
G01 X-4.47564 Y-2.82143
G01 X-4.46731 Y-2.81622
G01 X-4.45636 Y-2.81459
G01 X-4.44143 Y-2.81515
G01 X-4.43380 Y-2.81665
G01 X-4.42513 Y-2.81933
G01 X-4.30000 Y-2.81933
G01 X-4.29012 Y-2.82016
G01 X-4.16983 Y-2.82016
G01 X-4.01790 Y-2.97209
G01 X-4.01183 Y-2.97678
G01 X-4.00630 Y-2.97939
G01 X-4.00037 Y-2.98087
G01 X-3.99580 Y-2.98125
G01 X-3.69531 Y-2.98125
G01 X-3.68559 Y-2.99198
G01 X-3.67755 Y-2.99772
G01 X-3.66703 Y-3.00240
G01 X-3.65411 Y-3.00488
G01 X-3.64424 Y-3.00480
G01 X-3.63456 Y-3.00283
G01 X-3.62107 Y-2.99682
G01 X-3.61313 Y-2.99094
G01 X-3.60468 Y-2.98125
G01 X-3.59688 Y-2.98117
G01 X-3.59083 Y-2.98027
G01 X-3.58507 Y-2.97821
G01 X-3.57982 Y-2.97506
G01 X-3.49539 Y-2.89116
G01 X-3.48565 Y-2.88931
G01 X-3.47776 Y-2.88580
G01 X-3.47205 Y-2.88176
G01 X-3.46602 Y-2.87558
G01 X-3.46007 Y-2.86528
G01 X-3.45799 Y-2.85859
G01 X-3.45717 Y-2.84835
G01 X-3.45799 Y-2.84140
G01 X-3.46141 Y-2.83172
G01 X-3.46498 Y-2.82570
G01 X-3.47205 Y-2.81824
G01 X-3.47776 Y-2.81420
G01 X-3.48411 Y-2.81128
G01 X-3.49410 Y-2.80889
G01 X-3.50275 Y-2.80889
G01 X-3.50961 Y-2.81026
G01 X-3.52048 Y-2.81510
G01 X-3.52725 Y-2.82044
G01 X-3.53277 Y-2.82708
G01 X-3.53678 Y-2.83472
G01 X-3.53886 Y-2.84140
G01 X-3.53952 Y-2.84691
G01 X-3.60764 Y-2.91502
G01 X-3.61313 Y-2.90905
G01 X-3.62107 Y-2.90318
G01 X-3.63143 Y-2.89819
G01 X-3.64424 Y-2.89520
G01 X-3.65411 Y-2.89512
G01 X-3.66543 Y-2.89717
G01 X-3.67755 Y-2.90228
G01 X-3.68803 Y-2.91022
G01 X-3.69531 Y-2.91875
G01 X-3.98286 Y-2.91875
G01 X-4.07379 Y-2.82781
G01 X-4.06890 Y-2.82875
G01 X-3.93110 Y-2.82875
G01 X-3.92507 Y-2.82755
G01 X-3.91996 Y-2.82414
G01 X-3.91655 Y-2.81903
G01 X-3.91535 Y-2.81300
G01 X-3.91535 Y-2.67520
G01 X-3.91565 Y-2.67213
G01 X-3.91801 Y-2.66645
G01 X-3.91996 Y-2.66406
G01 X-3.92507 Y-2.66065
G01 X-3.93110 Y-2.65945
G01 X-4.01066 Y-2.65945
G01 X-4.24566 Y-2.54195
G01 X-4.24587 Y-2.54006
G01 X-4.14056 Y-2.43475
G01 X-4.08404 Y-2.43475
G01 X-4.07890 Y-2.43150
G01 X-4.07390 Y-2.42962
G01 X-4.06890 Y-2.42900
G01 X-3.93110 Y-2.42900
G01 X-3.92610 Y-2.42962
G01 X-3.92110 Y-2.43150
G01 X-3.91596 Y-2.43475
G01 X-3.80944 Y-2.43475
G01 X-3.70413 Y-2.54006
G01 X-3.70510 Y-2.55000
G01 X-3.70347 Y-2.56305
G01 X-3.69959 Y-2.57388
G01 X-3.69457 Y-2.58238
G01 X-3.68803 Y-2.58978
G01 X-3.67608 Y-2.59846
G01 X-3.66543 Y-2.60283
G01 X-3.65576 Y-2.60480
G01 X-3.64261 Y-2.60454
G01 X-3.63143 Y-2.60181
G01 X-3.62392 Y-2.59846
G01 X-3.61441 Y-2.59198
G01 X-3.60485 Y-2.58150
G01 X-3.29515 Y-2.58150
G01 X-3.28559 Y-2.59198
G01 X-3.27893 Y-2.59682
G01 X-3.26857 Y-2.60181
G01 X-3.25576 Y-2.60480
G01 X-3.24261 Y-2.60454
G01 X-3.23143 Y-2.60181
G01 X-3.22107 Y-2.59682
G01 X-3.21441 Y-2.59198
G01 X-3.20542 Y-2.58238
G01 X-3.19907 Y-2.57087
G01 X-3.19611 Y-2.56146
G01 X-3.19499 Y-2.55165
G01 X-3.19585 Y-2.54017
G01 X-3.20041 Y-2.52612
G01 X-3.20646 Y-2.51633
G01 X-3.21441 Y-2.50802
G01 X-3.22107 Y-2.50318
G01 X-3.23143 Y-2.49819
G01 X-3.24261 Y-2.49546
G01 X-3.25411 Y-2.49512
G01 X-3.26703 Y-2.49760
G01 X-3.27608 Y-2.50154
G01 X-3.28687 Y-2.50905
G01 X-3.29515 Y-2.51850
G01 X-3.60485 Y-2.51850
G01 X-3.61441 Y-2.50802
G01 X-3.62107 Y-2.50318
G01 X-3.63143 Y-2.49819
G01 X-3.64424 Y-2.49520
G01 X-3.65411 Y-2.49512
G01 X-3.65983 Y-2.49598
G01 X-3.77440 Y-2.38140
G01 X-3.78046 Y-2.37672
G01 X-3.78890 Y-2.37323
G01 X-3.79650 Y-2.37225
G01 X-4.15350 Y-2.37225
G01 X-4.15350 Y-2.37619
G01 X-3.79232 Y-2.37654
G01 X-3.78500 Y-2.37876
G01 X-3.77719 Y-2.38419
G01 X-3.66110 Y-2.50027
G01 X-3.65411 Y-2.49905
G01 X-3.64589 Y-2.49905
G01 X-3.63304 Y-2.50179
G01 X-3.62338 Y-2.50637
G01 X-3.61673 Y-2.51120
G01 X-3.60939 Y-2.51897
G01 X-3.60710 Y-2.52244
G01 X-3.29290 Y-2.52244
G01 X-3.29061 Y-2.51897
G01 X-3.28423 Y-2.51198
G01 X-3.27448 Y-2.50513
G01 X-3.26696 Y-2.50179
G01 X-3.25657 Y-2.49931
G01 X-3.24589 Y-2.49905
G01 X-3.23304 Y-2.50179
G01 X-3.22338 Y-2.50637
G01 X-3.21577 Y-2.51198
G01 X-3.20861 Y-2.51993
G01 X-3.20382 Y-2.52809
G01 X-3.19976 Y-2.54058
G01 X-3.19884 Y-2.55000
G01 X-3.19996 Y-2.56064
G01 X-3.20382 Y-2.57191
G01 X-3.20861 Y-2.58007
G01 X-3.21673 Y-2.58880
G01 X-3.22442 Y-2.59431
G01 X-3.23538 Y-2.59898
G01 X-3.24465 Y-2.60088
G01 X-3.25657 Y-2.60069
G01 X-3.26696 Y-2.59821
G01 X-3.27448 Y-2.59487
G01 X-3.28511 Y-2.58715
G01 X-3.29061 Y-2.58103
G01 X-3.29290 Y-2.57756
G01 X-3.60710 Y-2.57756
G01 X-3.60939 Y-2.58103
G01 X-3.61489 Y-2.58715
G01 X-3.62552 Y-2.59487
G01 X-3.63304 Y-2.59821
G01 X-3.64343 Y-2.60069
G01 X-3.65535 Y-2.60088
G01 X-3.66461 Y-2.59898
G01 X-3.67558 Y-2.59431
G01 X-3.68327 Y-2.58880
G01 X-3.69061 Y-2.58103
G01 X-3.69618 Y-2.57191
G01 X-3.70004 Y-2.56064
G01 X-3.70116 Y-2.55000
G01 X-3.69985 Y-2.53877
G01 X-3.80781 Y-2.43081
G01 X-3.92293 Y-2.43081
G01 X-3.92610 Y-2.42962
G01 X-3.93110 Y-2.42900
G01 X-4.06890 Y-2.42900
G01 X-4.07390 Y-2.42962
G01 X-4.07753 Y-2.43099
G01 X-4.07707 Y-2.43081
G04 P0 ( dwell for no time -- G64 should not smooth over this point )
G00 Z0.08000 ( retract )

G00 X-4.07707 Y-2.43081 ( rapid move to begin. )
G01 F180.00000
G01 Z-0.04000
G04 P0 ( dwell for no time -- G64 should not smooth over this point )
G01 F360.00000
G01 X-4.07707 Y-2.43081
G01 X-4.14219 Y-2.43081
G01 X-4.25015 Y-2.53877
G01 X-4.24935 Y-2.54451
G01 X-4.01159 Y-2.66339
G01 X-3.93110 Y-2.66339
G01 X-3.92658 Y-2.66429
G01 X-3.92275 Y-2.66685
G01 X-3.92019 Y-2.67068
G01 X-3.91929 Y-2.67520
G01 X-3.91929 Y-2.81300
G01 X-3.91952 Y-2.81530
G01 X-3.92128 Y-2.81956
G01 X-3.92454 Y-2.82282
G01 X-3.92658 Y-2.82391
G01 X-3.93110 Y-2.82481
G01 X-4.06890 Y-2.82481
G01 X-4.07120 Y-2.82458
G01 X-4.07546 Y-2.82282
G01 X-4.07872 Y-2.81956
G01 X-4.08048 Y-2.81530
G01 X-4.08071 Y-2.81300
G01 X-4.08071 Y-2.69046
G01 X-4.27381 Y-2.59391
G01 X-4.28304 Y-2.59821
G01 X-4.29465 Y-2.60088
G01 X-4.30535 Y-2.60088
G01 X-4.31461 Y-2.59898
G01 X-4.32558 Y-2.59431
G01 X-4.33327 Y-2.58880
G01 X-4.34061 Y-2.58103
G01 X-4.34290 Y-2.57756
G01 X-4.65710 Y-2.57756
G01 X-4.65939 Y-2.58103
G01 X-4.66489 Y-2.58715
G01 X-4.67552 Y-2.59487
G01 X-4.68304 Y-2.59821
G01 X-4.69343 Y-2.60069
G01 X-4.70535 Y-2.60088
G01 X-4.71462 Y-2.59898
G01 X-4.72448 Y-2.59487
G01 X-4.73511 Y-2.58715
G01 X-4.74139 Y-2.58007
G01 X-4.74618 Y-2.57191
G01 X-4.75024 Y-2.55941
G01 X-4.75116 Y-2.55000
G01 X-4.74972 Y-2.53817
G01 X-4.74618 Y-2.52809
G01 X-4.74139 Y-2.51993
G01 X-4.73327 Y-2.51120
G01 X-4.72558 Y-2.50569
G01 X-4.71462 Y-2.50102
G01 X-4.70411 Y-2.49905
G01 X-4.69343 Y-2.49931
G01 X-4.68304 Y-2.50179
G01 X-4.67552 Y-2.50513
G01 X-4.66489 Y-2.51285
G01 X-4.65939 Y-2.51897
G01 X-4.65710 Y-2.52244
G01 X-4.34290 Y-2.52244
G01 X-4.34061 Y-2.51897
G01 X-4.33327 Y-2.51120
G01 X-4.32558 Y-2.50569
G01 X-4.31696 Y-2.50179
G01 X-4.30535 Y-2.49912
G01 X-4.29589 Y-2.49905
G01 X-4.28890 Y-2.50027
G01 X-4.17281 Y-2.38419
G01 X-4.16500 Y-2.37876
G01 X-4.15995 Y-2.37699
G01 X-4.15350 Y-2.37619
G01 X-4.15350 Y-2.38013
G01 X-3.79270 Y-2.38046
G01 X-3.78686 Y-2.38224
G01 X-3.77997 Y-2.38697
G01 X-3.66237 Y-2.50457
G01 X-3.65494 Y-2.50303
G01 X-3.64589 Y-2.50299
G01 X-3.63464 Y-2.50538
G01 X-3.62570 Y-2.50955
G01 X-3.61840 Y-2.51491
G01 X-3.61178 Y-2.52226
G01 X-3.60939 Y-2.52638
G01 X-3.29061 Y-2.52638
G01 X-3.28822 Y-2.52226
G01 X-3.28218 Y-2.51549
G01 X-3.27361 Y-2.50910
G01 X-3.26380 Y-2.50487
G01 X-3.25494 Y-2.50303
G01 X-3.24506 Y-2.50303
G01 X-3.23620 Y-2.50487
G01 X-3.22639 Y-2.50910
G01 X-3.21782 Y-2.51549
G01 X-3.21179 Y-2.52224
G01 X-3.20723 Y-2.53006
G01 X-3.20381 Y-2.54018
G01 X-3.20282 Y-2.54918
G01 X-3.20368 Y-2.55900
G01 X-3.20723 Y-2.56994
G01 X-3.21179 Y-2.57776
G01 X-3.21782 Y-2.58451
G01 X-3.22712 Y-2.59127
G01 X-3.23620 Y-2.59513
G01 X-3.24506 Y-2.59696
G01 X-3.25494 Y-2.59696
G01 X-3.26380 Y-2.59513
G01 X-3.27361 Y-2.59090
G01 X-3.28218 Y-2.58451
G01 X-3.28822 Y-2.57774
G01 X-3.29061 Y-2.57362
G01 X-3.60939 Y-2.57362
G01 X-3.61178 Y-2.57774
G01 X-3.61782 Y-2.58451
G01 X-3.62639 Y-2.59090
G01 X-3.63620 Y-2.59513
G01 X-3.64506 Y-2.59696
G01 X-3.65494 Y-2.59696
G01 X-3.66380 Y-2.59513
G01 X-3.67361 Y-2.59090
G01 X-3.68096 Y-2.58561
G01 X-3.68769 Y-2.57840
G01 X-3.69277 Y-2.56994
G01 X-3.69619 Y-2.55982
G01 X-3.69718 Y-2.54918
G01 X-3.69541 Y-2.53764
G01 X-3.80618 Y-2.42687
G01 X-4.14382 Y-2.42687
G01 X-4.25459 Y-2.53764
G01 X-4.25304 Y-2.54707
G01 X-4.01252 Y-2.66732
G01 X-3.93110 Y-2.66733
G01 X-3.92809 Y-2.66792
G01 X-3.92553 Y-2.66963
G01 X-3.92382 Y-2.67219
G01 X-3.92323 Y-2.67520
G01 X-3.92323 Y-2.81300
G01 X-3.92382 Y-2.81601
G01 X-3.92553 Y-2.81857
G01 X-3.92809 Y-2.82027
G01 X-3.93110 Y-2.82087
G01 X-4.06890 Y-2.82087
G01 X-4.07327 Y-2.81955
G01 X-4.07617 Y-2.81601
G01 X-4.07677 Y-2.81300
G01 X-4.07677 Y-2.68803
G01 X-4.27416 Y-2.58933
G01 X-4.28464 Y-2.59462
G01 X-4.29506 Y-2.59696
G01 X-4.30494 Y-2.59696
G01 X-4.31380 Y-2.59513
G01 X-4.32288 Y-2.59127
G01 X-4.33096 Y-2.58561
G01 X-4.33822 Y-2.57774
G01 X-4.34061 Y-2.57362
G01 X-4.65939 Y-2.57362
G01 X-4.66178 Y-2.57774
G01 X-4.66782 Y-2.58451
G01 X-4.67712 Y-2.59127
G01 X-4.68620 Y-2.59513
G01 X-4.69425 Y-2.59684
G01 X-4.70494 Y-2.59696
G01 X-4.71536 Y-2.59462
G01 X-4.72430 Y-2.59045
G01 X-4.73096 Y-2.58561
G01 X-4.73865 Y-2.57707
G01 X-4.74277 Y-2.56994
G01 X-4.74598 Y-2.56061
G01 X-4.74718 Y-2.55082
G01 X-4.74632 Y-2.54100
G01 X-4.74314 Y-2.53079
G01 X-4.73820 Y-2.52224
G01 X-4.73096 Y-2.51439
G01 X-4.72288 Y-2.50873
G01 X-4.71459 Y-2.50509
G01 X-4.70411 Y-2.50299
G01 X-4.69425 Y-2.50316
G01 X-4.68620 Y-2.50487
G01 X-4.67712 Y-2.50873
G01 X-4.66782 Y-2.51549
G01 X-4.66178 Y-2.52226
G01 X-4.65939 Y-2.52638
G01 X-4.34061 Y-2.52638
G01 X-4.33822 Y-2.52226
G01 X-4.33096 Y-2.51439
G01 X-4.32430 Y-2.50955
G01 X-4.31536 Y-2.50538
G01 X-4.30411 Y-2.50299
G01 X-4.29589 Y-2.50299
G01 X-4.28763 Y-2.50457
G01 X-4.17003 Y-2.38697
G01 X-4.16582 Y-2.38367
G01 X-4.16172 Y-2.38164
G01 X-4.15350 Y-2.38013
G01 X-4.15350 Y-2.38406
G01 X-3.79309 Y-2.38438
G01 X-3.78871 Y-2.38571
G01 X-3.78276 Y-2.38976
G01 X-3.66359 Y-2.50892
G01 X-3.65493 Y-2.50701
G01 X-3.64589 Y-2.50693
G01 X-3.63624 Y-2.50898
G01 X-3.62801 Y-2.51274
G01 X-3.62104 Y-2.51783
G01 X-3.61497 Y-2.52457
G01 X-3.61168 Y-2.53031
G01 X-3.28832 Y-2.53031
G01 X-3.28503 Y-2.52457
G01 X-3.27926 Y-2.51812
G01 X-3.27128 Y-2.51233
G01 X-3.26298 Y-2.50872
G01 X-3.25411 Y-2.50693
G01 X-3.24589 Y-2.50693
G01 X-3.23662 Y-2.50883
G01 X-3.22872 Y-2.51233
G01 X-3.22104 Y-2.51783
G01 X-3.21524 Y-2.52424
G01 X-3.21064 Y-2.53203
G01 X-3.20766 Y-2.54100
G01 X-3.20671 Y-2.55000
G01 X-3.20766 Y-2.55900
G01 X-3.21064 Y-2.56797
G01 X-3.21498 Y-2.57544
G01 X-3.22074 Y-2.58188
G01 X-3.22872 Y-2.58767
G01 X-3.23702 Y-2.59127
G01 X-3.24547 Y-2.59305
G01 X-3.25493 Y-2.59299
G01 X-3.26298 Y-2.59127
G01 X-3.27128 Y-2.58767
G01 X-3.27926 Y-2.58188
G01 X-3.28503 Y-2.57543
G01 X-3.28832 Y-2.56969
G01 X-3.61168 Y-2.56969
G01 X-3.61497 Y-2.57543
G01 X-3.62074 Y-2.58188
G01 X-3.62872 Y-2.58767
G01 X-3.63702 Y-2.59127
G01 X-3.64507 Y-2.59299
G01 X-3.65452 Y-2.59305
G01 X-3.66298 Y-2.59127
G01 X-3.67128 Y-2.58767
G01 X-3.67864 Y-2.58243
G01 X-3.68476 Y-2.57576
G01 X-3.68969 Y-2.56722
G01 X-3.69240 Y-2.55859
G01 X-3.69326 Y-2.54959
G01 X-3.69240 Y-2.54141
G01 X-3.69092 Y-2.53656
G01 X-3.80455 Y-2.42294
G01 X-4.14545 Y-2.42294
G01 X-4.25908 Y-2.53656
G01 X-4.25759 Y-2.54141
G01 X-4.25673 Y-2.54962
G01 X-4.01345 Y-2.67126
G01 X-3.93110 Y-2.67126
G01 X-3.92891 Y-2.67193
G01 X-3.92746 Y-2.67369
G01 X-3.92716 Y-2.67520
G01 X-3.92716 Y-2.81300
G01 X-3.92832 Y-2.81578
G01 X-3.93110 Y-2.81694
G01 X-4.06890 Y-2.81694
G01 X-4.07109 Y-2.81627
G01 X-4.07217 Y-2.81519
G01 X-4.07284 Y-2.81300
G01 X-4.07284 Y-2.68559
G01 X-4.27454 Y-2.58474
G01 X-4.27836 Y-2.58749
G01 X-4.28624 Y-2.59102
G01 X-4.29507 Y-2.59299
G01 X-4.30411 Y-2.59307
G01 X-4.31298 Y-2.59127
G01 X-4.32164 Y-2.58749
G01 X-4.32864 Y-2.58243
G01 X-4.33503 Y-2.57543
G01 X-4.33832 Y-2.56969
G01 X-4.66168 Y-2.56969
G01 X-4.66497 Y-2.57543
G01 X-4.67074 Y-2.58188
G01 X-4.67836 Y-2.58749
G01 X-4.68702 Y-2.59127
G01 X-4.69589 Y-2.59307
G01 X-4.70411 Y-2.59307
G01 X-4.71376 Y-2.59102
G01 X-4.72164 Y-2.58749
G01 X-4.72864 Y-2.58243
G01 X-4.73524 Y-2.57510
G01 X-4.73954 Y-2.56761
G01 X-4.74223 Y-2.55940
G01 X-4.74329 Y-2.55000
G01 X-4.74240 Y-2.54141
G01 X-4.73954 Y-2.53239
G01 X-4.73524 Y-2.52490
G01 X-4.72896 Y-2.51783
G01 X-4.72164 Y-2.51251
G01 X-4.71338 Y-2.50883
G01 X-4.70411 Y-2.50693
G01 X-4.69589 Y-2.50693
G01 X-4.68702 Y-2.50872
G01 X-4.67836 Y-2.51251
G01 X-4.67074 Y-2.51812
G01 X-4.66497 Y-2.52457
G01 X-4.66168 Y-2.53031
G01 X-4.33832 Y-2.53031
G01 X-4.33503 Y-2.52457
G01 X-4.32864 Y-2.51757
G01 X-4.32164 Y-2.51251
G01 X-4.31376 Y-2.50898
G01 X-4.30411 Y-2.50693
G01 X-4.29507 Y-2.50701
G01 X-4.28640 Y-2.50892
G01 X-4.16724 Y-2.38976
G01 X-4.16129 Y-2.38571
G01 X-4.15767 Y-2.38453
G01 X-4.15350 Y-2.38406
G04 P0 ( dwell for no time -- G64 should not smooth over this point )
G00 Z0.08000 ( retract )

G00 X-4.15350 Y-2.37225 ( rapid move to begin. )
G01 F180.00000
G01 Z-0.04000
G04 P0 ( dwell for no time -- G64 should not smooth over this point )
G01 F360.00000
G01 X-4.15350 Y-2.37225
G01 X-4.15807 Y-2.37263
G01 X-4.16400 Y-2.37411
G01 X-4.16953 Y-2.37672
G01 X-4.17445 Y-2.38037
G01 X-4.29017 Y-2.49598
G01 X-4.29589 Y-2.49512
G01 X-4.30576 Y-2.49520
G01 X-4.31857 Y-2.49819
G01 X-4.32755 Y-2.50228
G01 X-4.33559 Y-2.50802
G01 X-4.34515 Y-2.51850
G01 X-4.65485 Y-2.51850
G01 X-4.66441 Y-2.50802
G01 X-4.67245 Y-2.50228
G01 X-4.68143 Y-2.49819
G01 X-4.69424 Y-2.49520
G01 X-4.70739 Y-2.49546
G01 X-4.71856 Y-2.49819
G01 X-4.72755 Y-2.50228
G01 X-4.73559 Y-2.50802
G01 X-4.74458 Y-2.51761
G01 X-4.74959 Y-2.52612
G01 X-4.75347 Y-2.53695
G01 X-4.75501 Y-2.54835
G01 X-4.75415 Y-2.55983
G01 X-4.75092 Y-2.57087
G01 X-4.74458 Y-2.58238
G01 X-4.73559 Y-2.59198
G01 X-4.72755 Y-2.59772
G01 X-4.71856 Y-2.60181
G01 X-4.70576 Y-2.60480
G01 X-4.69261 Y-2.60454
G01 X-4.68143 Y-2.60181
G01 X-4.67392 Y-2.59846
G01 X-4.66441 Y-2.59198
G01 X-4.65485 Y-2.58150
G01 X-4.34515 Y-2.58150
G01 X-4.33803 Y-2.58978
G01 X-4.32893 Y-2.59682
G01 X-4.31543 Y-2.60283
G01 X-4.30576 Y-2.60480
G01 X-4.29424 Y-2.60480
G01 X-4.28456 Y-2.60283
G01 X-4.27371 Y-2.59836
G01 X-4.08465 Y-2.69289
G01 X-4.08465 Y-2.81300
G01 X-4.08434 Y-2.81607
G01 X-4.08329 Y-2.81870
G01 X-4.07939 Y-2.82349
G01 X-4.07379 Y-2.82781
G01 X-4.07939 Y-2.82349
G01 X-4.08371 Y-2.81789
G01 X-4.13479 Y-2.76681
G01 X-4.13758 Y-2.76960
G01 X-3.98449 Y-2.92269
G01 X-3.69306 Y-2.92269
G01 X-3.69139 Y-2.91993
G01 X-3.68511 Y-2.91285
G01 X-3.67558 Y-2.90569
G01 X-3.66461 Y-2.90102
G01 X-3.65411 Y-2.89905
G01 X-3.64343 Y-2.89931
G01 X-3.63304 Y-2.90179
G01 X-3.62552 Y-2.90513
G01 X-3.61577 Y-2.91198
G01 X-3.60797 Y-2.92092
G01 X-3.53575 Y-2.84871
G01 X-3.53469 Y-2.84103
G01 X-3.53259 Y-2.83479
G01 X-3.52868 Y-2.82802
G01 X-3.52433 Y-2.82308
G01 X-3.51713 Y-2.81761
G01 X-3.51114 Y-2.81487
G01 X-3.50110 Y-2.81274
G01 X-3.49329 Y-2.81300
G01 X-3.48806 Y-2.81411
G01 X-3.47972 Y-2.81761
G01 X-3.47252 Y-2.82308
G01 X-3.46817 Y-2.82802
G01 X-3.46482 Y-2.83369
G01 X-3.46216 Y-2.84103
G01 X-3.46109 Y-2.85123
G01 X-3.46216 Y-2.85897
G01 X-3.46381 Y-2.86406
G01 X-3.46817 Y-2.87198
G01 X-3.47252 Y-2.87692
G01 X-3.47972 Y-2.88239
G01 X-3.48687 Y-2.88557
G01 X-3.49706 Y-2.88726
G01 X-3.58232 Y-2.97202
G01 X-3.58692 Y-2.97474
G01 X-3.59197 Y-2.97650
G01 X-3.59727 Y-2.97725
G01 X-3.60694 Y-2.97731
G01 X-3.60939 Y-2.98103
G01 X-3.61673 Y-2.98880
G01 X-3.62338 Y-2.99363
G01 X-3.63304 Y-2.99821
G01 X-3.64343 Y-3.00069
G01 X-3.65411 Y-3.00095
G01 X-3.66461 Y-2.99898
G01 X-3.67558 Y-2.99431
G01 X-3.68511 Y-2.98714
G01 X-3.69139 Y-2.98007
G01 X-3.69306 Y-2.97731
G01 X-3.99580 Y-2.97731
G01 X-4.00516 Y-2.97562
G01 X-4.00998 Y-2.97330
G01 X-4.01511 Y-2.96931
G01 X-4.16820 Y-2.81622
G01 X-4.43583 Y-2.81622
G01 X-4.44890 Y-2.81448
G01 X-4.45636 Y-2.81459
G01 X-4.46731 Y-2.81622
G04 P0 ( dwell for no time -- G64 should not smooth over this point )
G00 Z0.08000 ( retract )

G00 X-4.51624 Y-2.81622 ( rapid move to begin. )
G01 F180.00000
G01 Z-0.04000
G04 P0 ( dwell for no time -- G64 should not smooth over this point )
G01 F360.00000
G01 X-4.51624 Y-2.81622
G01 X-4.46731 Y-2.81622
G04 P0 ( dwell for no time -- G64 should not smooth over this point )
G00 Z0.08000 ( retract )

G00 X-4.51624 Y-2.81622 ( rapid move to begin. )
G01 F180.00000
G01 Z-0.04000
G04 P0 ( dwell for no time -- G64 should not smooth over this point )
G01 F360.00000
G01 X-4.51624 Y-2.81622
G01 X-4.51941 Y-2.81503
G01 X-4.51441 Y-2.81691
G01 X-4.50934 Y-2.82009
G01 X-4.51578 Y-2.81639
G01 X-4.51350 Y-2.81989
G01 X-4.51260 Y-2.82441
G01 X-4.51260 Y-2.87559
G01 X-4.51350 Y-2.88011
G01 X-4.51606 Y-2.88394
G01 X-4.51989 Y-2.88650
G01 X-4.52269 Y-2.88723
G01 X-4.52269 Y-2.89528
G01 X-4.39597 Y-3.02199
G01 X-4.39198 Y-3.02712
G01 X-4.38878 Y-3.03485
G01 X-4.38798 Y-3.04130
G01 X-4.38798 Y-3.24550
G01 X-4.38966 Y-3.25486
G01 X-4.39327 Y-3.26160
G01 X-4.40368 Y-3.27202
G01 X-4.40829 Y-3.27474
G01 X-4.41333 Y-3.27650
G01 X-4.41979 Y-3.27731
G01 X-4.45007 Y-3.27731
G01 X-4.45521 Y-3.28185
G01 X-4.46349 Y-3.28641
G01 X-4.47016 Y-3.28851
G01 X-4.47711 Y-3.28931
G01 X-4.52165 Y-3.28937
G01 X-4.52984 Y-3.28851
G01 X-4.53877 Y-3.28540
G01 X-4.54479 Y-3.28185
G01 X-4.55004 Y-3.27722
G01 X-4.55508 Y-3.27072
G01 X-4.55865 Y-3.26332
G01 X-4.56061 Y-3.25534
G01 X-4.56061 Y-3.24466
G01 X-4.55865 Y-3.23668
G01 X-4.55575 Y-3.23031
G01 X-4.55169 Y-3.22462
G01 X-4.54575 Y-3.21893
G01 X-4.53651 Y-3.21359
G01 X-4.52984 Y-3.21149
G01 X-4.52165 Y-3.21063
G01 X-4.53949 Y-3.21063
G01 X-4.54711 Y-3.21496
G01 X-4.55267 Y-3.21986
G01 X-4.55826 Y-3.22696
G01 X-4.56327 Y-3.23821
G01 X-4.56447 Y-3.24384
G01 X-4.56481 Y-3.25288
G01 X-4.56225 Y-3.26492
G01 X-4.55916 Y-3.27165
G01 X-4.55487 Y-3.27770
G01 X-4.54573 Y-3.28593
G01 X-4.53949 Y-3.28937
G01 X-4.52165 Y-3.28937
G01 X-4.53949 Y-3.28937
G01 X-4.54711 Y-3.29370
G01 X-4.55267 Y-3.29860
G01 X-4.55916 Y-3.30709
G01 X-4.56225 Y-3.31382
G01 X-4.56447 Y-3.32259
G01 X-4.56481 Y-3.33162
G01 X-4.56225 Y-3.34366
G01 X-4.55826 Y-3.35178
G01 X-4.55267 Y-3.35888
G01 X-4.54711 Y-3.36378
G01 X-4.54074 Y-3.36755
G01 X-4.53066 Y-3.37110
G01 X-4.52330 Y-3.37196
G01 X-4.47835 Y-3.37205
G01 X-4.46934 Y-3.37110
G01 X-4.46227 Y-3.36889
G01 X-4.45427 Y-3.36467
G01 X-4.44883 Y-3.36024
G01 X-4.17412 Y-3.35986
G01 X-4.16529 Y-3.35718
G01 X-4.15806 Y-3.35241
G01 X-4.14444 Y-3.35286
G01 X-4.13204 Y-3.34996
G01 X-4.12343 Y-3.34603
G01 X-4.11572 Y-3.34054
G01 X-4.10804 Y-3.33252
G01 X-4.10315 Y-3.32474
G01 X-4.10073 Y-3.31190
G01 X-4.10003 Y-3.30132
G01 X-4.10073 Y-3.31190
G01 X-4.10315 Y-3.32474
G01 X-4.10285 Y-3.34244
G01 X-4.10049 Y-3.34812
G01 X-4.09854 Y-3.35051
G01 X-4.09343 Y-3.35392
G01 X-4.09047 Y-3.35481
G01 X-4.00953 Y-3.35481
G01 X-4.00385 Y-3.35246
G01 X-3.99950 Y-3.34812
G01 X-3.99715 Y-3.34244
G01 X-3.99685 Y-3.33125
G01 X-3.90315 Y-3.33125
G01 X-3.90285 Y-3.34244
G01 X-3.90049 Y-3.34812
G01 X-3.89854 Y-3.35051
G01 X-3.89343 Y-3.35392
G01 X-3.89047 Y-3.35481
G01 X-3.88125 Y-3.35512
G01 X-3.88087 Y-3.37494
G01 X-3.87939 Y-3.38087
G01 X-3.87506 Y-3.38897
G01 X-3.84252 Y-3.42193
G01 X-3.83493 Y-3.42701
G01 X-3.82614 Y-3.42967
G01 X-3.34933 Y-3.43005
G01 X-3.34173 Y-3.42907
G01 X-3.33597 Y-3.42701
G01 X-3.33073 Y-3.42386
G01 X-3.32723 Y-3.42089
G01 X-3.14605 Y-3.23972
G01 X-3.14137 Y-3.23366
G01 X-3.13876 Y-3.22812
G01 X-3.13727 Y-3.22219
G01 X-3.13690 Y-3.21762
G01 X-3.13690 Y-2.81071
G01 X-3.13788 Y-2.80312
G01 X-3.13994 Y-2.79736
G01 X-3.14309 Y-2.79211
G01 X-3.14605 Y-2.78862
G01 X-3.18862 Y-2.74605
G01 X-3.19211 Y-2.74309
G01 X-3.19736 Y-2.73994
G01 X-3.20614 Y-2.73727
G01 X-3.56001 Y-2.73690
G01 X-3.69300 Y-2.60390
G01 X-3.69857 Y-2.60947
G01 X-3.56327 Y-2.74478
G01 X-3.20692 Y-2.74511
G01 X-3.20107 Y-2.74688
G01 X-3.19476 Y-2.75110
G01 X-3.15110 Y-2.79476
G01 X-3.14832 Y-2.79839
G01 X-3.14629 Y-2.80249
G01 X-3.14478 Y-2.81071
G01 X-3.14478 Y-3.21762
G01 X-3.14541 Y-3.22293
G01 X-3.14832 Y-3.22994
G01 X-3.15162 Y-3.23415
G01 X-3.33280 Y-3.41533
G01 X-3.33968 Y-3.42006
G01 X-3.34553 Y-3.42184
G01 X-3.82537 Y-3.42184
G01 X-3.83121 Y-3.42006
G01 X-3.83752 Y-3.41585
G01 X-3.86897 Y-3.38398
G01 X-3.87186 Y-3.37859
G01 X-3.87304 Y-3.37417
G01 X-3.87337 Y-3.34724
G01 X-3.88894 Y-3.34709
G01 X-3.89297 Y-3.34494
G01 X-3.89512 Y-3.34091
G01 X-3.89527 Y-3.32337
G01 X-4.00472 Y-3.32337
G01 X-4.00472 Y-3.33937
G01 X-4.00532 Y-3.34238
G01 X-4.00822 Y-3.34592
G01 X-4.01260 Y-3.34724
G01 X-4.08740 Y-3.34724
G01 X-4.09178 Y-3.34592
G01 X-4.09468 Y-3.34238
G01 X-4.09527 Y-3.33937
G01 X-4.09527 Y-3.26063
G01 X-4.09395 Y-3.25625
G01 X-4.09041 Y-3.25335
G01 X-4.08740 Y-3.25276
G01 X-4.01106 Y-3.25291
G01 X-4.00703 Y-3.25506
G01 X-4.00488 Y-3.25909
G01 X-4.00472 Y-3.27663
G01 X-3.89527 Y-3.27663
G01 X-3.89512 Y-3.25909
G01 X-3.89297 Y-3.25506
G01 X-3.88894 Y-3.25291
G01 X-3.81260 Y-3.25276
G01 X-3.80959 Y-3.25335
G01 X-3.80703 Y-3.25506
G01 X-3.80532 Y-3.25762
G01 X-3.80472 Y-3.26063
G01 X-3.80488 Y-3.34091
G01 X-3.80703 Y-3.34494
G01 X-3.81106 Y-3.34709
G01 X-3.82662 Y-3.34724
G01 X-3.82662 Y-3.36069
G01 X-3.81189 Y-3.37542
G01 X-3.35901 Y-3.37542
G01 X-3.19152 Y-3.20794
G01 X-3.19152 Y-2.82039
G01 X-3.22039 Y-2.79152
G01 X-3.57295 Y-2.79152
G01 X-3.57826 Y-2.79089
G01 X-3.58527 Y-2.78798
G01 X-3.58948 Y-2.78468
G01 X-3.72478 Y-2.64937
G01 X-3.73823 Y-2.64937
G01 X-3.73823 Y-2.69490
G01 X-3.73955 Y-2.69927
G01 X-3.74309 Y-2.70217
G01 X-3.74610 Y-2.70277
G01 X-3.88390 Y-2.70277
G01 X-3.88691 Y-2.70217
G01 X-3.89045 Y-2.69927
G01 X-3.89177 Y-2.69490
G01 X-3.89177 Y-2.58228
G01 X-3.92323 Y-2.55083
G01 X-3.92338 Y-2.57834
G01 X-3.92553 Y-2.58237
G01 X-3.92956 Y-2.58452
G01 X-4.06890 Y-2.58467
G01 X-4.07191 Y-2.58407
G01 X-4.07545 Y-2.58117
G01 X-4.07677 Y-2.57680
G01 X-4.07677 Y-2.43900
G01 X-4.07617 Y-2.43599
G01 X-4.07447 Y-2.43343
G01 X-4.07044 Y-2.43128
G01 X-3.93110 Y-2.43113
G01 X-3.92672 Y-2.43245
G01 X-3.92382 Y-2.43599
G01 X-3.92323 Y-2.43900
G01 X-3.92322 Y-2.48676
G01 X-3.91657 Y-2.49137
G01 X-3.85872 Y-2.54923
G01 X-3.74610 Y-2.54922
G01 X-3.74173 Y-2.55055
G01 X-3.73882 Y-2.55409
G01 X-3.73823 Y-2.55710
G01 X-3.73823 Y-2.60263
G01 X-3.71130 Y-2.60296
G01 X-3.70546 Y-2.60473
G01 X-3.69914 Y-2.60895
G01 X-3.69857 Y-2.60947
G01 X-3.70135 Y-2.61226
G01 X-3.56490 Y-2.74871
G01 X-3.21071 Y-2.74871
G01 X-3.20364 Y-2.75006
G01 X-3.19725 Y-2.75415
G01 X-3.15415 Y-2.79725
G01 X-3.15036 Y-2.80292
G01 X-3.14873 Y-2.81033
G01 X-3.14871 Y-3.21762
G01 X-3.14918 Y-3.22179
G01 X-3.15179 Y-3.22809
G01 X-3.15441 Y-3.23137
G01 X-3.33558 Y-3.41254
G01 X-3.34154 Y-3.41659
G01 X-3.34592 Y-3.41792
G01 X-3.82498 Y-3.41792
G01 X-3.82936 Y-3.41659
G01 X-3.83503 Y-3.41280
G01 X-3.86593 Y-3.38148
G01 X-3.86809 Y-3.37744
G01 X-3.86942 Y-3.37075
G01 X-3.86944 Y-3.34331
G01 X-3.88740 Y-3.34331
G01 X-3.89018 Y-3.34215
G01 X-3.89134 Y-3.33937
G01 X-3.89134 Y-3.31944
G01 X-4.00866 Y-3.31944
G01 X-4.00874 Y-3.34014
G01 X-4.00981 Y-3.34215
G01 X-4.01183 Y-3.34323
G01 X-4.08740 Y-3.34331
G01 X-4.09018 Y-3.34215
G01 X-4.09134 Y-3.33937
G01 X-4.09134 Y-3.26063
G01 X-4.09068 Y-3.25844
G01 X-4.08891 Y-3.25699
G01 X-4.01183 Y-3.25677
G01 X-4.00981 Y-3.25785
G01 X-4.00874 Y-3.25986
G01 X-4.00866 Y-3.28056
G01 X-3.89134 Y-3.28056
G01 X-3.89126 Y-3.25986
G01 X-3.89067 Y-3.25844
G01 X-3.88891 Y-3.25699
G01 X-3.81260 Y-3.25669
G01 X-3.80981 Y-3.25785
G01 X-3.80866 Y-3.26063
G01 X-3.80874 Y-3.34014
G01 X-3.80981 Y-3.34215
G01 X-3.81183 Y-3.34323
G01 X-3.83056 Y-3.34331
G01 X-3.83056 Y-3.36232
G01 X-3.81352 Y-3.37936
G01 X-3.35738 Y-3.37936
G01 X-3.18759 Y-3.20957
G01 X-3.18759 Y-2.81876
G01 X-3.21876 Y-2.78759
G01 X-3.57295 Y-2.78759
G01 X-3.57712 Y-2.78712
G01 X-3.58342 Y-2.78451
G01 X-3.58669 Y-2.78189
G01 X-3.72315 Y-2.64544
G01 X-3.74216 Y-2.64544
G01 X-3.74216 Y-2.69490
G01 X-3.74283 Y-2.69709
G01 X-3.74459 Y-2.69854
G01 X-3.88541 Y-2.69854
G01 X-3.88717 Y-2.69709
G01 X-3.88784 Y-2.69490
G01 X-3.88784 Y-2.58065
G01 X-3.92716 Y-2.54133
G01 X-3.92716 Y-2.57680
G01 X-3.92783 Y-2.57899
G01 X-3.93033 Y-2.58066
G01 X-4.06890 Y-2.58074
G01 X-4.07109 Y-2.58007
G01 X-4.07217 Y-2.57899
G01 X-4.07284 Y-2.57680
G01 X-4.07254 Y-2.43749
G01 X-4.07109 Y-2.43573
G01 X-4.06890 Y-2.43506
G01 X-3.92959 Y-2.43536
G01 X-3.92783 Y-2.43681
G01 X-3.92716 Y-2.43900
G01 X-3.92716 Y-2.48947
G01 X-3.92263 Y-2.49154
G01 X-3.91935 Y-2.49416
G01 X-3.86035 Y-2.55316
G01 X-3.74459 Y-2.55346
G01 X-3.74283 Y-2.55491
G01 X-3.74216 Y-2.55710
G01 X-3.74216 Y-2.60656
G01 X-3.71169 Y-2.60688
G01 X-3.70731 Y-2.60821
G01 X-3.70135 Y-2.61226
G04 P0 ( dwell for no time -- G64 should not smooth over this point )
G00 Z0.08000 ( retract )

G00 X-3.69300 Y-2.60390 ( rapid move to begin. )
G01 F180.00000
G01 Z-0.04000
G04 P0 ( dwell for no time -- G64 should not smooth over this point )
G01 F360.00000
G01 X-3.69300 Y-2.60390
G01 X-3.69907 Y-2.59922
G01 X-3.70750 Y-2.59573
G01 X-3.71510 Y-2.59475
G01 X-3.73035 Y-2.59475
G01 X-3.73065 Y-2.55403
G01 X-3.73155 Y-2.55107
G01 X-3.73496 Y-2.54596
G01 X-3.74007 Y-2.54255
G01 X-3.74610 Y-2.54135
G01 X-3.85546 Y-2.54135
G01 X-3.91100 Y-2.48580
G01 X-3.91535 Y-2.48227
G01 X-3.91565 Y-2.43593
G01 X-3.91610 Y-2.43462
G01 X-3.92247 Y-2.43098
G01 X-3.92019 Y-2.43448
G01 X-3.91929 Y-2.43900
G01 X-3.91929 Y-2.48440
G01 X-3.91379 Y-2.48859
G01 X-3.85709 Y-2.54529
G01 X-3.74610 Y-2.54529
G01 X-3.74379 Y-2.54551
G01 X-3.73954 Y-2.54728
G01 X-3.73628 Y-2.55054
G01 X-3.73452 Y-2.55479
G01 X-3.73429 Y-2.59869
G01 X-3.71092 Y-2.59904
G01 X-3.70360 Y-2.60126
G01 X-3.69665 Y-2.60591
G01 X-3.56164 Y-2.74084
G01 X-3.20653 Y-2.74119
G01 X-3.19921 Y-2.74341
G01 X-3.19140 Y-2.74884
G01 X-3.14884 Y-2.79140
G01 X-3.14341 Y-2.79921
G01 X-3.14165 Y-2.80426
G01 X-3.14084 Y-2.81071
G01 X-3.14084 Y-3.21762
G01 X-3.14253 Y-3.22698
G01 X-3.14485 Y-3.23180
G01 X-3.14884 Y-3.23693
G01 X-3.33001 Y-3.41811
G01 X-3.33783 Y-3.42354
G01 X-3.34287 Y-3.42530
G01 X-3.34933 Y-3.42611
G01 X-3.82575 Y-3.42576
G01 X-3.83307 Y-3.42354
G01 X-3.84002 Y-3.41889
G01 X-3.87202 Y-3.38647
G01 X-3.87474 Y-3.38187
G01 X-3.87696 Y-3.37455
G01 X-3.87731 Y-3.35118
G01 X-3.88971 Y-3.35095
G01 X-3.89192 Y-3.35028
G01 X-3.89575 Y-3.34772
G01 X-3.89722 Y-3.34593
G01 X-3.89899 Y-3.34167
G01 X-3.89921 Y-3.32731
G01 X-4.00079 Y-3.32731
G01 X-4.00079 Y-3.33937
G01 X-4.00169 Y-3.34389
G01 X-4.00278 Y-3.34593
G01 X-4.00604 Y-3.34919
G01 X-4.00808 Y-3.35028
G01 X-4.01260 Y-3.35118
G01 X-4.08740 Y-3.35118
G01 X-4.09192 Y-3.35028
G01 X-4.09575 Y-3.34772
G01 X-4.09722 Y-3.34593
G01 X-4.09898 Y-3.34167
G01 X-4.09921 Y-3.33937
G01 X-4.09921 Y-3.26063
G01 X-4.09898 Y-3.25833
G01 X-4.09722 Y-3.25407
G01 X-4.09575 Y-3.25228
G01 X-4.09192 Y-3.24972
G01 X-4.08740 Y-3.24882
G01 X-4.01029 Y-3.24905
G01 X-4.00808 Y-3.24972
G01 X-4.00425 Y-3.25228
G01 X-4.00169 Y-3.25611
G01 X-4.00079 Y-3.26063
G01 X-4.00079 Y-3.27269
G01 X-3.89921 Y-3.27269
G01 X-3.89921 Y-3.26063
G01 X-3.89831 Y-3.25611
G01 X-3.89575 Y-3.25228
G01 X-3.89192 Y-3.24972
G01 X-3.88971 Y-3.24905
G01 X-3.81260 Y-3.24882
G01 X-3.80808 Y-3.24972
G01 X-3.80425 Y-3.25228
G01 X-3.80278 Y-3.25407
G01 X-3.80101 Y-3.25833
G01 X-3.80079 Y-3.33937
G01 X-3.80101 Y-3.34167
G01 X-3.80278 Y-3.34593
G01 X-3.80604 Y-3.34919
G01 X-3.81029 Y-3.35095
G01 X-3.82269 Y-3.35118
G01 X-3.82269 Y-3.35906
G01 X-3.81026 Y-3.37149
G01 X-3.36064 Y-3.37149
G01 X-3.19546 Y-3.20631
G01 X-3.19546 Y-2.82202
G01 X-3.22202 Y-2.79546
G01 X-3.57295 Y-2.79546
G01 X-3.57940 Y-2.79465
G01 X-3.58713 Y-2.79145
G01 X-3.59226 Y-2.78746
G01 X-3.72641 Y-2.65331
G01 X-3.73429 Y-2.65331
G01 X-3.73452 Y-2.69720
G01 X-3.73628 Y-2.70146
G01 X-3.73775 Y-2.70325
G01 X-3.74158 Y-2.70581
G01 X-3.74610 Y-2.70671
G01 X-3.88390 Y-2.70671
G01 X-3.88842 Y-2.70581
G01 X-3.89046 Y-2.70472
G01 X-3.89372 Y-2.70146
G01 X-3.89548 Y-2.69720
G01 X-3.89571 Y-2.69490
G01 X-3.89571 Y-2.58391
G01 X-3.91929 Y-2.56033
G01 X-3.91929 Y-2.57680
G01 X-3.92019 Y-2.58132
G01 X-3.92275 Y-2.58515
G01 X-3.92454 Y-2.58662
G01 X-3.92880 Y-2.58838
G01 X-4.06890 Y-2.58861
G01 X-4.07120 Y-2.58838
G01 X-4.07546 Y-2.58662
G01 X-4.07872 Y-2.58336
G01 X-4.08048 Y-2.57910
G01 X-4.08071 Y-2.57680
G01 X-4.08071 Y-2.43900
G01 X-4.07981 Y-2.43448
G01 X-4.07753 Y-2.43099
G01 X-4.08397 Y-2.43468
G04 P0 ( dwell for no time -- G64 should not smooth over this point )
G00 Z0.08000 ( retract )

G00 X-4.08397 Y-2.43468 ( rapid move to begin. )
G01 F180.00000
G01 Z-0.04000
G04 P0 ( dwell for no time -- G64 should not smooth over this point )
G01 F360.00000
G01 X-4.08397 Y-2.43468
G01 X-4.08397 Y-2.43468
G04 P0 ( dwell for no time -- G64 should not smooth over this point )
G00 Z0.08000 ( retract )

G00 X-4.08397 Y-2.43468 ( rapid move to begin. )
G01 F180.00000
G01 Z-0.04000
G04 P0 ( dwell for no time -- G64 should not smooth over this point )
G01 F360.00000
G01 X-4.08397 Y-2.43468
G01 X-4.08465 Y-2.43900
G01 X-4.08465 Y-2.57680
G01 X-4.08345 Y-2.58283
G01 X-4.08199 Y-2.58555
G01 X-4.08003 Y-2.58793
G01 X-4.07493 Y-2.59135
G01 X-4.06890 Y-2.59255
G01 X-3.93110 Y-2.59255
G01 X-3.92507 Y-2.59135
G01 X-3.91996 Y-2.58793
G01 X-3.91801 Y-2.58555
G01 X-3.91565 Y-2.57987
G01 X-3.91535 Y-2.56984
G01 X-3.89965 Y-2.58554
G01 X-3.89965 Y-2.69490
G01 X-3.89845 Y-2.70093
G01 X-3.89699 Y-2.70365
G01 X-3.89504 Y-2.70603
G01 X-3.88993 Y-2.70945
G01 X-3.88390 Y-2.71065
G01 X-3.74610 Y-2.71065
G01 X-3.74007 Y-2.70945
G01 X-3.73496 Y-2.70603
G01 X-3.73155 Y-2.70093
G01 X-3.73065 Y-2.69797
G01 X-3.73035 Y-2.65725
G01 X-3.72804 Y-2.65725
G01 X-3.59504 Y-2.79025
G01 X-3.58898 Y-2.79493
G01 X-3.58345 Y-2.79754
G01 X-3.57752 Y-2.79902
G01 X-3.57295 Y-2.79940
G01 X-3.22365 Y-2.79940
G01 X-3.19940 Y-2.82366
G01 X-3.19940 Y-2.92840
G01 X-3.19793 Y-2.93741
G01 X-3.19719 Y-2.94859
G01 X-3.19793 Y-2.93741
G01 X-3.19940 Y-2.92840
G01 X-3.20542 Y-2.91761
G01 X-3.21441 Y-2.90802
G01 X-3.22392 Y-2.90153
G01 X-3.23456 Y-2.89717
G01 X-3.24589 Y-2.89512
G01 X-3.25576 Y-2.89520
G01 X-3.25983 Y-2.89598
G01 X-3.32790 Y-2.82790
G01 X-3.33347 Y-2.83347
G01 X-3.26237 Y-2.90457
G01 X-3.25494 Y-2.90303
G01 X-3.24506 Y-2.90303
G01 X-3.23620 Y-2.90487
G01 X-3.22639 Y-2.90910
G01 X-3.21782 Y-2.91549
G01 X-3.21179 Y-2.92224
G01 X-3.20723 Y-2.93006
G01 X-3.20402 Y-2.93939
G01 X-3.20282 Y-2.95082
G01 X-3.20381 Y-2.95982
G01 X-3.20656 Y-2.96844
G01 X-3.21231 Y-2.97840
G01 X-3.21904 Y-2.98561
G01 X-3.22662 Y-2.99102
G01 X-3.22663 Y-3.18021
G01 X-3.22726 Y-3.18552
G01 X-3.22873 Y-3.18986
G01 X-3.23347 Y-3.19674
G01 X-3.30326 Y-3.26653
G01 X-3.31014 Y-3.27126
G01 X-3.31448 Y-3.27274
G01 X-3.31901 Y-3.27334
G01 X-3.35177 Y-3.27337
G01 X-3.35752 Y-3.27867
G01 X-3.36320 Y-3.28200
G01 X-3.37179 Y-3.28479
G01 X-3.37835 Y-3.28543
G01 X-3.42165 Y-3.28543
G01 X-3.42902 Y-3.28466
G01 X-3.43680 Y-3.28200
G01 X-3.44248 Y-3.27867
G01 X-3.44740 Y-3.27429
G01 X-3.45271 Y-3.26698
G01 X-3.45535 Y-3.26095
G01 X-3.45676 Y-3.25452
G01 X-3.45676 Y-3.24548
G01 X-3.45506 Y-3.23828
G01 X-3.45234 Y-3.23228
G01 X-3.44850 Y-3.22693
G01 X-3.44248 Y-3.22133
G01 X-3.43530 Y-3.21733
G01 X-3.42821 Y-3.21521
G01 X-3.42165 Y-3.21457
G01 X-3.37835 Y-3.21457
G01 X-3.37098 Y-3.21534
G01 X-3.36320 Y-3.21800
G01 X-3.35752 Y-3.22133
G01 X-3.35177 Y-3.22662
G01 X-3.32947 Y-3.22662
G01 X-3.27337 Y-3.17053
G01 X-3.27337 Y-2.99102
G01 X-3.28096 Y-2.98561
G01 X-3.28769 Y-2.97840
G01 X-3.29344 Y-2.96844
G01 X-3.29619 Y-2.95982
G01 X-3.29718 Y-2.95082
G01 X-3.29632 Y-2.94100
G01 X-3.29541 Y-2.93764
G01 X-3.35968 Y-2.87337
G01 X-3.36653 Y-2.87337
G01 X-3.36669 Y-2.87713
G01 X-3.36786 Y-2.87996
G01 X-3.37003 Y-2.88214
G01 X-3.37287 Y-2.88331
G01 X-3.42559 Y-2.88346
G01 X-3.42860 Y-2.88286
G01 X-3.43116 Y-2.88116
G01 X-3.43287 Y-2.87860
G01 X-3.43346 Y-2.87559
G01 X-3.43346 Y-2.82441
G01 X-3.43214 Y-2.82003
G01 X-3.42860 Y-2.81713
G01 X-3.42559 Y-2.81654
G01 X-3.37287 Y-2.81669
G01 X-3.37003 Y-2.81786
G01 X-3.36786 Y-2.82003
G01 X-3.36669 Y-2.82287
G01 X-3.36653 Y-2.82663
G01 X-3.34923 Y-2.82666
G01 X-3.34469 Y-2.82726
G01 X-3.34036 Y-2.82873
G01 X-3.33347 Y-2.83347
G01 X-3.33625 Y-2.83625
G01 X-3.26359 Y-2.90892
G01 X-3.25452 Y-2.90695
G01 X-3.24589 Y-2.90693
G01 X-3.23624 Y-2.90898
G01 X-3.22801 Y-2.91274
G01 X-3.22074 Y-2.91812
G01 X-3.21498 Y-2.92456
G01 X-3.21064 Y-2.93203
G01 X-3.20766 Y-2.94100
G01 X-3.20671 Y-2.95000
G01 X-3.20766 Y-2.95900
G01 X-3.21031 Y-2.96722
G01 X-3.21475 Y-2.97510
G01 X-3.22074 Y-2.98188
G01 X-3.22801 Y-2.98726
G01 X-3.23056 Y-2.98849
G01 X-3.23056 Y-3.18021
G01 X-3.23103 Y-3.18438
G01 X-3.23364 Y-3.19068
G01 X-3.23625 Y-3.19396
G01 X-3.30604 Y-3.26374
G01 X-3.30932 Y-3.26636
G01 X-3.31271 Y-3.26809
G01 X-3.31979 Y-3.26944
G01 X-3.35372 Y-3.26944
G01 X-3.36018 Y-3.27570
G01 X-3.36592 Y-3.27892
G01 X-3.37221 Y-3.28087
G01 X-3.37835 Y-3.28150
G01 X-3.42206 Y-3.28147
G01 X-3.42820 Y-3.28081
G01 X-3.43408 Y-3.27892
G01 X-3.44017 Y-3.27548
G01 X-3.44532 Y-3.27075
G01 X-3.44893 Y-3.26575
G01 X-3.45161 Y-3.25973
G01 X-3.45300 Y-3.25288
G01 X-3.45291 Y-3.24630
G01 X-3.45161 Y-3.24027
G01 X-3.44893 Y-3.23425
G01 X-3.44477 Y-3.22863
G01 X-3.44017 Y-3.22452
G01 X-3.43408 Y-3.22108
G01 X-3.42820 Y-3.21919
G01 X-3.42165 Y-3.21850
G01 X-3.37835 Y-3.21850
G01 X-3.37221 Y-3.21913
G01 X-3.36592 Y-3.22108
G01 X-3.36018 Y-3.22429
G01 X-3.35372 Y-3.23056
G01 X-3.32784 Y-3.23056
G01 X-3.26944 Y-3.17216
G01 X-3.26944 Y-2.98849
G01 X-3.27199 Y-2.98726
G01 X-3.27926 Y-2.98188
G01 X-3.28524 Y-2.97510
G01 X-3.28969 Y-2.96722
G01 X-3.29241 Y-2.95859
G01 X-3.29329 Y-2.95000
G01 X-3.29241 Y-2.94141
G01 X-3.29092 Y-2.93656
G01 X-3.35805 Y-2.86944
G01 X-3.37047 Y-2.86944
G01 X-3.37077 Y-2.87710
G01 X-3.37222 Y-2.87886
G01 X-3.37441 Y-2.87953
G01 X-3.42559 Y-2.87953
G01 X-3.42837 Y-2.87837
G01 X-3.42945 Y-2.87636
G01 X-3.42953 Y-2.82441
G01 X-3.42886 Y-2.82222
G01 X-3.42710 Y-2.82077
G01 X-3.37364 Y-2.82055
G01 X-3.37222 Y-2.82113
G01 X-3.37077 Y-2.82290
G01 X-3.37047 Y-2.83056
G01 X-3.34659 Y-2.83088
G01 X-3.34221 Y-2.83221
G01 X-3.33625 Y-2.83625
G04 P0 ( dwell for no time -- G64 should not smooth over this point )
G00 Z0.08000 ( retract )

G00 X-3.66569 Y-3.29724 ( rapid move to begin. )
G01 F180.00000
G01 Z-0.04000
G04 P0 ( dwell for no time -- G64 should not smooth over this point )
G01 F360.00000
G01 X-3.66569 Y-3.29724
G01 X-3.66708 Y-3.30512
G01 X-3.44800 Y-3.30512
G01 X-3.44248 Y-3.30007
G01 X-3.43680 Y-3.29674
G01 X-3.42821 Y-3.29395
G01 X-3.42165 Y-3.29331
G01 X-3.37835 Y-3.29331
G01 X-3.37179 Y-3.29395
G01 X-3.36320 Y-3.29674
G01 X-3.35752 Y-3.30007
G01 X-3.35149 Y-3.30567
G01 X-3.34766 Y-3.31102
G01 X-3.34465 Y-3.31779
G01 X-3.34311 Y-3.32504
G01 X-3.34311 Y-3.33244
G01 X-3.34494 Y-3.34046
G01 X-3.34766 Y-3.34646
G01 X-3.35149 Y-3.35181
G01 X-3.35688 Y-3.35689
G01 X-3.36470 Y-3.36140
G01 X-3.37098 Y-3.36340
G01 X-3.37835 Y-3.36417
G01 X-3.42165 Y-3.36417
G01 X-3.42902 Y-3.36340
G01 X-3.43530 Y-3.36140
G01 X-3.44179 Y-3.35785
G01 X-3.44800 Y-3.35236
G01 X-3.67195 Y-3.35233
G01 X-3.67936 Y-3.35093
G01 X-3.72200 Y-3.33537
G01 X-3.72736 Y-3.33921
G01 X-3.73680 Y-3.34327
G01 X-3.74527 Y-3.34503
G01 X-3.75473 Y-3.34503
G01 X-3.76476 Y-3.34276
G01 X-3.77264 Y-3.33921
G01 X-3.78088 Y-3.33306
G01 X-3.78663 Y-3.32661
G01 X-3.79136 Y-3.31841
G01 X-3.79429 Y-3.30941
G01 X-3.79523 Y-3.30082
G01 X-3.79441 Y-3.29140
G01 X-3.79136 Y-3.28158
G01 X-3.78708 Y-3.27408
G01 X-3.77965 Y-3.26584
G01 X-3.77190 Y-3.26042
G01 X-3.76399 Y-3.25694
G01 X-3.75473 Y-3.25497
G01 X-3.74527 Y-3.25497
G01 X-3.73524 Y-3.25724
G01 X-3.72667 Y-3.26124
G01 X-3.71970 Y-3.26635
G01 X-3.71337 Y-3.27339
G01 X-3.70901 Y-3.28085
G01 X-3.70564 Y-3.29104
G01 X-3.66708 Y-3.30512
G01 X-3.66778 Y-3.30905
G01 X-3.44609 Y-3.30905
G01 X-3.43982 Y-3.30303
G01 X-3.43408 Y-3.29982
G01 X-3.42820 Y-3.29793
G01 X-3.42165 Y-3.29724
G01 X-3.37793 Y-3.29726
G01 X-3.37180 Y-3.29793
G01 X-3.36517 Y-3.30015
G01 X-3.35983 Y-3.30326
G01 X-3.35468 Y-3.30798
G01 X-3.35107 Y-3.31299
G01 X-3.34829 Y-3.31941
G01 X-3.34702 Y-3.32545
G01 X-3.34702 Y-3.33203
G01 X-3.34829 Y-3.33807
G01 X-3.35088 Y-3.34412
G01 X-3.35523 Y-3.35011
G01 X-3.35983 Y-3.35422
G01 X-3.36592 Y-3.35766
G01 X-3.37180 Y-3.35955
G01 X-3.37835 Y-3.36024
G01 X-3.42165 Y-3.36024
G01 X-3.42820 Y-3.35955
G01 X-3.43408 Y-3.35766
G01 X-3.43982 Y-3.35445
G01 X-3.44609 Y-3.34843
G01 X-3.67160 Y-3.34841
G01 X-3.67801 Y-3.34723
G01 X-3.72262 Y-3.33095
G01 X-3.72933 Y-3.33580
G01 X-3.73684 Y-3.33917
G01 X-3.74527 Y-3.34105
G01 X-3.75391 Y-3.34113
G01 X-3.76238 Y-3.33942
G01 X-3.77067 Y-3.33580
G01 X-3.77766 Y-3.33072
G01 X-3.78318 Y-3.32462
G01 X-3.78758 Y-3.31718
G01 X-3.79043 Y-3.30859
G01 X-3.79132 Y-3.30041
G01 X-3.79050 Y-3.29181
G01 X-3.78791 Y-3.28357
G01 X-3.78367 Y-3.27605
G01 X-3.77734 Y-3.26902
G01 X-3.77030 Y-3.26401
G01 X-3.76277 Y-3.26068
G01 X-3.75391 Y-3.25887
G01 X-3.74527 Y-3.25895
G01 X-3.73723 Y-3.26068
G01 X-3.72970 Y-3.26401
G01 X-3.72234 Y-3.26928
G01 X-3.71681 Y-3.27538
G01 X-3.71242 Y-3.28282
G01 X-3.70967 Y-3.29101
G01 X-3.70928 Y-3.29391
G01 X-3.66778 Y-3.30905
G04 P0 ( dwell for no time -- G64 should not smooth over this point )
G00 Z0.08000 ( retract )

G00 X-4.02976 Y-3.13976 ( rapid move to begin. )
G01 F180.00000
G01 Z-0.04000
G04 P0 ( dwell for no time -- G64 should not smooth over this point )
G01 F360.00000
G01 X-4.02976 Y-3.13976
G01 X-4.26850 Y-2.90102
G01 X-4.26888 Y-2.84538
G01 X-4.27038 Y-2.83940
G01 X-4.27302 Y-2.83383
G01 X-4.27669 Y-2.82887
G01 X-4.28126 Y-2.82473
G01 X-4.28940 Y-2.82038
G01 X-4.29545 Y-2.81952
G01 X-4.42513 Y-2.81933
G01 X-4.43583 Y-2.81622
G01 X-4.43184 Y-2.81828
G01 X-4.42638 Y-2.82244
G01 X-4.29884 Y-2.82249
G01 X-4.29350 Y-2.82325
G01 X-4.28841 Y-2.82503
G01 X-4.28137 Y-2.82973
G01 X-4.27649 Y-2.83568
G01 X-4.27415 Y-2.84054
G01 X-4.27280 Y-2.84577
G01 X-4.27244 Y-2.90265
G01 X-4.03139 Y-3.14370
G01 X-4.03302 Y-3.14764
G01 X-3.44800 Y-3.14764
G01 X-3.44179 Y-3.14215
G01 X-3.43530 Y-3.13859
G01 X-3.42902 Y-3.13660
G01 X-3.42165 Y-3.13583
G01 X-3.37835 Y-3.13583
G01 X-3.37098 Y-3.13660
G01 X-3.36470 Y-3.13859
G01 X-3.35752 Y-3.14259
G01 X-3.35260 Y-3.14697
G01 X-3.34766 Y-3.15354
G01 X-3.34494 Y-3.15954
G01 X-3.34311 Y-3.16756
G01 X-3.34306 Y-3.17414
G01 X-3.34494 Y-3.18298
G01 X-3.34766 Y-3.18898
G01 X-3.35260 Y-3.19555
G01 X-3.35752 Y-3.19992
G01 X-3.36470 Y-3.20392
G01 X-3.37098 Y-3.20592
G01 X-3.37835 Y-3.20669
G01 X-3.42165 Y-3.20669
G01 X-3.42902 Y-3.20592
G01 X-3.43530 Y-3.20392
G01 X-3.44179 Y-3.20037
G01 X-3.44800 Y-3.19488
G01 X-4.04280 Y-3.19488
G01 X-4.04816 Y-3.19424
G01 X-4.05527 Y-3.19130
G01 X-4.05951 Y-3.18796
G01 X-4.26552 Y-2.98196
G01 X-4.26904 Y-2.98561
G01 X-4.27570 Y-2.99045
G01 X-4.28464 Y-2.99462
G01 X-4.29425 Y-2.99684
G01 X-4.30411 Y-2.99701
G01 X-4.31459 Y-2.99491
G01 X-4.32288 Y-2.99127
G01 X-4.33096 Y-2.98561
G01 X-4.33769 Y-2.97840
G01 X-4.34314 Y-2.96921
G01 X-4.34598 Y-2.96061
G01 X-4.34718 Y-2.95082
G01 X-4.34632 Y-2.94100
G01 X-4.34344 Y-2.93156
G01 X-4.33821 Y-2.92224
G01 X-4.33096 Y-2.91439
G01 X-4.32361 Y-2.90915
G01 X-4.32362 Y-2.87362
G01 X-4.42800 Y-2.87362
G01 X-4.43484 Y-2.87898
G01 X-4.44203 Y-2.88204
G01 X-4.44726 Y-2.88315
G01 X-4.45425 Y-2.88332
G01 X-4.46192 Y-2.88183
G01 X-4.46900 Y-2.87853
G01 X-4.47397 Y-2.87487
G01 X-4.47910 Y-2.86898
G01 X-4.48244 Y-2.86284
G01 X-4.48444 Y-2.85614
G01 X-4.48504 Y-2.85000
G01 X-4.48444 Y-2.84386
G01 X-4.48215 Y-2.83639
G01 X-4.47910 Y-2.83102
G01 X-4.47455 Y-2.82571
G01 X-4.46831 Y-2.82102
G01 X-4.46192 Y-2.81817
G01 X-4.45425 Y-2.81668
G01 X-4.44726 Y-2.81685
G01 X-4.44123 Y-2.81817
G01 X-4.43415 Y-2.82147
G01 X-4.42800 Y-2.82638
G01 X-4.30000 Y-2.82638
G01 X-4.29169 Y-2.82791
G01 X-4.28625 Y-2.83082
G01 X-4.28278 Y-2.83387
G01 X-4.27996 Y-2.83754
G01 X-4.27791 Y-2.84169
G01 X-4.27672 Y-2.84615
G01 X-4.27638 Y-2.90428
G01 X-4.03302 Y-3.14764
G01 X-4.03465 Y-3.15157
G01 X-3.44609 Y-3.15157
G01 X-3.43982 Y-3.14555
G01 X-3.43408 Y-3.14234
G01 X-3.42820 Y-3.14045
G01 X-3.42165 Y-3.13976
G01 X-3.37835 Y-3.13976
G01 X-3.37180 Y-3.14045
G01 X-3.36592 Y-3.14234
G01 X-3.35983 Y-3.14578
G01 X-3.35523 Y-3.14989
G01 X-3.35107 Y-3.15551
G01 X-3.34854 Y-3.16114
G01 X-3.34702 Y-3.16797
G01 X-3.34700 Y-3.17414
G01 X-3.34829 Y-3.18059
G01 X-3.35088 Y-3.18664
G01 X-3.35523 Y-3.19263
G01 X-3.35983 Y-3.19674
G01 X-3.36592 Y-3.20018
G01 X-3.37180 Y-3.20207
G01 X-3.37835 Y-3.20275
G01 X-3.42165 Y-3.20275
G01 X-3.42820 Y-3.20207
G01 X-3.43408 Y-3.20018
G01 X-3.43982 Y-3.19697
G01 X-3.44609 Y-3.19095
G01 X-4.04280 Y-3.19095
G01 X-4.04702 Y-3.19047
G01 X-4.05341 Y-3.18783
G01 X-4.05673 Y-3.18518
G01 X-4.26567 Y-2.97624
G01 X-4.27104 Y-2.98217
G01 X-4.27801 Y-2.98726
G01 X-4.28624 Y-2.99102
G01 X-4.29507 Y-2.99299
G01 X-4.30411 Y-2.99307
G01 X-4.31338 Y-2.99117
G01 X-4.32164 Y-2.98749
G01 X-4.32864 Y-2.98243
G01 X-4.33476 Y-2.97576
G01 X-4.33954 Y-2.96761
G01 X-4.34223 Y-2.95940
G01 X-4.34329 Y-2.95000
G01 X-4.34241 Y-2.94141
G01 X-4.33954 Y-2.93239
G01 X-4.33502 Y-2.92456
G01 X-4.32864 Y-2.91757
G01 X-4.31968 Y-2.91161
G01 X-4.31969 Y-2.86969
G01 X-4.42976 Y-2.86969
G01 X-4.43647 Y-2.87535
G01 X-4.44245 Y-2.87808
G01 X-4.44890 Y-2.87939
G01 X-4.45507 Y-2.87930
G01 X-4.46030 Y-2.87819
G01 X-4.46634 Y-2.87557
G01 X-4.47133 Y-2.87194
G01 X-4.47569 Y-2.86701
G01 X-4.47870 Y-2.86163
G01 X-4.48052 Y-2.85573
G01 X-4.48110 Y-2.85000
G01 X-4.48052 Y-2.84427
G01 X-4.47855 Y-2.83799
G01 X-4.47569 Y-2.83299
G01 X-4.47101 Y-2.82780
G01 X-4.46597 Y-2.82424
G01 X-4.46030 Y-2.82181
G01 X-4.45507 Y-2.82070
G01 X-4.44890 Y-2.82061
G01 X-4.44245 Y-2.82192
G01 X-4.43718 Y-2.82424
G01 X-4.43214 Y-2.82780
G01 X-4.42976 Y-2.83031
G01 X-4.30000 Y-2.83031
G01 X-4.29283 Y-2.83168
G01 X-4.28875 Y-2.83386
G01 X-4.28343 Y-2.83939
G01 X-4.28063 Y-2.84654
G01 X-4.28031 Y-2.90591
G01 X-4.03465 Y-3.15157
G04 P0 ( dwell for no time -- G64 should not smooth over this point )
G00 Z0.08000 ( retract )

G00 X-4.13479 Y-2.76681 ( rapid move to begin. )
G01 F180.00000
G01 Z-0.04000
G04 P0 ( dwell for no time -- G64 should not smooth over this point )
G01 F360.00000
G01 X-4.13479 Y-2.76681
G01 X-4.13829 Y-2.76385
G01 X-4.14353 Y-2.76070
G01 X-4.14930 Y-2.75864
G01 X-4.15689 Y-2.75766
G01 X-4.65425 Y-2.75804
G01 X-4.66304 Y-2.76070
G01 X-4.66829 Y-2.76385
G01 X-4.67178 Y-2.76681
G01 X-4.79991 Y-2.89547
G01 X-4.80424 Y-2.90357
G01 X-4.80572 Y-2.90950
G01 X-4.80610 Y-2.91407
G01 X-4.80602 Y-2.98747
G01 X-4.80424 Y-2.99643
G01 X-4.80163 Y-3.00196
G01 X-4.79695 Y-3.00802
G01 X-4.60812 Y-3.19632
G01 X-4.60287 Y-3.19947
G01 X-4.59408 Y-3.20213
G01 X-4.55144 Y-3.20251
G01 X-4.54711 Y-3.20629
G01 X-4.53949 Y-3.21063
G01 X-4.46051 Y-3.21063
G01 X-4.45289 Y-3.20629
G01 X-4.44653 Y-3.20052
G01 X-4.44388 Y-3.19274
G01 X-4.44194 Y-3.18431
G01 X-4.44097 Y-3.17626
G01 X-4.44086 Y-3.16838
G01 X-4.44097 Y-3.17626
G01 X-4.44260 Y-3.18739
G04 P0 ( dwell for no time -- G64 should not smooth over this point )
G00 Z0.08000 ( retract )

G00 X-4.44260 Y-3.18739 ( rapid move to begin. )
G01 F180.00000
G01 Z-0.04000
G04 P0 ( dwell for no time -- G64 should not smooth over this point )
G01 F360.00000
G01 X-4.44260 Y-3.18739
G01 X-4.44653 Y-3.20052
G01 X-4.44653 Y-3.21875
G01 X-4.44855 Y-3.21875
G01 X-4.45289 Y-3.21496
G01 X-4.46051 Y-3.21063
G01 X-4.47835 Y-3.21063
G01 X-4.47016 Y-3.21149
G01 X-4.46349 Y-3.21359
G01 X-4.45521 Y-3.21815
G01 X-4.45007 Y-3.22269
G01 X-4.44260 Y-3.22269
G01 X-4.44260 Y-3.18739
G01 X-4.44425 Y-3.19094
G01 X-4.44831 Y-3.19664
G01 X-4.45521 Y-3.20311
G01 X-4.46349 Y-3.20767
G01 X-4.47016 Y-3.20977
G01 X-4.47711 Y-3.21056
G01 X-4.52165 Y-3.21063
G01 X-4.52862 Y-3.20996
G01 X-4.53877 Y-3.20666
G01 X-4.54479 Y-3.20311
G01 X-4.54993 Y-3.19857
G01 X-4.59068 Y-3.19851
G01 X-4.59597 Y-3.19776
G01 X-4.60102 Y-3.19600
G01 X-4.60883 Y-3.19057
G01 X-4.79416 Y-3.00524
G01 X-4.79959 Y-2.99743
G01 X-4.80135 Y-2.99238
G01 X-4.80216 Y-2.98593
G01 X-4.80216 Y-2.91407
G01 X-4.80135 Y-2.90762
G01 X-4.79815 Y-2.89989
G01 X-4.79416 Y-2.89476
G01 X-4.66900 Y-2.76960
G01 X-4.66119 Y-2.76417
G01 X-4.65614 Y-2.76240
G01 X-4.64969 Y-2.76160
G01 X-4.15689 Y-2.76160
G01 X-4.15044 Y-2.76240
G01 X-4.14271 Y-2.76560
G01 X-4.13758 Y-2.76960
G01 X-4.14036 Y-2.77238
G01 X-3.98612 Y-2.92663
G01 X-3.69078 Y-2.92663
G01 X-3.68820 Y-2.92224
G01 X-3.68218 Y-2.91549
G01 X-3.67361 Y-2.90910
G01 X-3.66380 Y-2.90487
G01 X-3.65411 Y-2.90299
G01 X-3.64506 Y-2.90303
G01 X-3.63620 Y-2.90487
G01 X-3.62712 Y-2.90873
G01 X-3.61840 Y-2.91491
G01 X-3.61179 Y-2.92224
G01 X-3.60921 Y-2.92663
G01 X-3.60811 Y-2.92663
G01 X-3.53185 Y-2.85037
G01 X-3.53095 Y-2.84225
G01 X-3.52900 Y-2.83639
G01 X-3.52595 Y-2.83102
G01 X-3.52140 Y-2.82571
G01 X-3.51442 Y-2.82064
G01 X-3.50954 Y-2.81847
G01 X-3.50274 Y-2.81685
G01 X-3.49575 Y-2.81668
G01 X-3.48731 Y-2.81847
G01 X-3.48100 Y-2.82147
G01 X-3.47545 Y-2.82571
G01 X-3.47187 Y-2.82969
G01 X-3.46823 Y-2.83565
G01 X-3.46556 Y-2.84386
G01 X-3.46500 Y-2.84918
G01 X-3.46556 Y-2.85614
G01 X-3.46823 Y-2.86435
G01 X-3.47135 Y-2.86967
G01 X-3.47545 Y-2.87429
G01 X-3.48169 Y-2.87898
G01 X-3.48731 Y-2.88153
G01 X-3.49411 Y-2.88315
G01 X-3.49869 Y-2.88332
G01 X-3.58482 Y-2.96897
G01 X-3.59021 Y-2.97186
G01 X-3.59463 Y-2.97304
G01 X-3.60921 Y-2.97337
G01 X-3.61179 Y-2.97776
G01 X-3.61904 Y-2.98561
G01 X-3.62639 Y-2.99090
G01 X-3.63464 Y-2.99462
G01 X-3.64506 Y-2.99696
G01 X-3.65411 Y-2.99701
G01 X-3.66380 Y-2.99513
G01 X-3.67361 Y-2.99090
G01 X-3.68218 Y-2.98451
G01 X-3.68820 Y-2.97776
G01 X-3.69078 Y-2.97337
G01 X-3.99580 Y-2.97337
G01 X-4.00402 Y-2.97186
G01 X-4.00812 Y-2.96983
G01 X-4.01233 Y-2.96653
G01 X-4.16657 Y-2.81228
G01 X-4.64001 Y-2.81228
G01 X-4.75148 Y-2.92375
G01 X-4.75148 Y-2.97625
G01 X-4.57984 Y-3.14789
G01 X-4.54823 Y-3.14789
G01 X-4.54248 Y-3.14259
G01 X-4.53680 Y-3.13926
G01 X-4.52902 Y-3.13660
G01 X-4.52165 Y-3.13583
G01 X-4.47835 Y-3.13583
G01 X-4.47179 Y-3.13647
G01 X-4.46470 Y-3.13859
G01 X-4.45688 Y-3.14311
G01 X-4.45150 Y-3.14819
G01 X-4.44811 Y-3.15285
G01 X-4.44443 Y-3.16111
G01 X-4.44324 Y-3.16674
G01 X-4.44306 Y-3.17414
G01 X-4.44494 Y-3.18298
G01 X-4.44766 Y-3.18898
G01 X-4.45150 Y-3.19433
G01 X-4.45752 Y-3.19992
G01 X-4.46470 Y-3.20392
G01 X-4.47098 Y-3.20592
G01 X-4.47752 Y-3.20665
G01 X-4.52165 Y-3.20669
G01 X-4.52821 Y-3.20605
G01 X-4.53680 Y-3.20325
G01 X-4.54248 Y-3.19992
G01 X-4.54823 Y-3.19463
G01 X-4.59029 Y-3.19460
G01 X-4.59774 Y-3.19311
G01 X-4.60184 Y-3.19109
G01 X-4.60605 Y-3.18779
G01 X-4.79138 Y-3.00245
G01 X-4.79468 Y-2.99825
G01 X-4.79671 Y-2.99415
G01 X-4.79822 Y-2.98593
G01 X-4.79822 Y-2.91407
G01 X-4.79759 Y-2.90876
G01 X-4.79468 Y-2.90175
G01 X-4.79138 Y-2.89754
G01 X-4.66622 Y-2.77238
G01 X-4.65933 Y-2.76764
G01 X-4.65348 Y-2.76587
G01 X-4.15689 Y-2.76553
G01 X-4.15158 Y-2.76617
G01 X-4.14457 Y-2.76908
G01 X-4.14036 Y-2.77238
G01 X-4.14315 Y-2.77516
G01 X-3.98775 Y-2.93056
G01 X-3.68851 Y-2.93056
G01 X-3.68502 Y-2.92456
G01 X-3.67926 Y-2.91812
G01 X-3.67199 Y-2.91274
G01 X-3.66298 Y-2.90872
G01 X-3.65411 Y-2.90693
G01 X-3.64547 Y-2.90695
G01 X-3.63702 Y-2.90872
G01 X-3.62872 Y-2.91233
G01 X-3.62074 Y-2.91812
G01 X-3.61524 Y-2.92424
G01 X-3.61149 Y-2.93056
G01 X-3.60648 Y-2.93056
G01 X-3.52778 Y-2.85187
G01 X-3.52737 Y-2.84427
G01 X-3.52521 Y-2.83762
G01 X-3.52231 Y-2.83264
G01 X-3.51847 Y-2.82835
G01 X-3.51319 Y-2.82443
G01 X-3.50715 Y-2.82181
G01 X-3.50110 Y-2.82061
G01 X-3.49575 Y-2.82061
G01 X-3.48930 Y-2.82192
G01 X-3.48332 Y-2.82465
G01 X-3.47899 Y-2.82780
G01 X-3.47480 Y-2.83232
G01 X-3.47145 Y-2.83799
G01 X-3.46948 Y-2.84427
G01 X-3.46892 Y-2.84959
G01 X-3.46948 Y-2.85573
G01 X-3.47164 Y-2.86238
G01 X-3.47454 Y-2.86735
G01 X-3.47838 Y-2.87165
G01 X-3.48366 Y-2.87557
G01 X-3.48930 Y-2.87808
G01 X-3.49493 Y-2.87930
G01 X-3.50032 Y-2.87939
G01 X-3.58732 Y-2.96593
G01 X-3.59064 Y-2.96779
G01 X-3.59502 Y-2.96912
G01 X-3.61149 Y-2.96944
G01 X-3.61524 Y-2.97576
G01 X-3.62074 Y-2.98188
G01 X-3.62872 Y-2.98767
G01 X-3.63702 Y-2.99127
G01 X-3.64589 Y-2.99307
G01 X-3.65411 Y-2.99307
G01 X-3.66338 Y-2.99117
G01 X-3.67199 Y-2.98726
G01 X-3.67926 Y-2.98188
G01 X-3.68502 Y-2.97544
G01 X-3.68851 Y-2.96944
G01 X-3.99580 Y-2.96944
G01 X-4.00287 Y-2.96809
G01 X-4.00627 Y-2.96636
G01 X-4.00954 Y-2.96374
G01 X-4.16494 Y-2.80835
G01 X-4.64164 Y-2.80835
G01 X-4.75541 Y-2.92212
G01 X-4.75541 Y-2.97788
G01 X-4.58147 Y-3.15182
G01 X-4.54628 Y-3.15182
G01 X-4.54017 Y-3.14578
G01 X-4.53483 Y-3.14267
G01 X-4.52820 Y-3.14045
G01 X-4.52165 Y-3.13976
G01 X-4.47793 Y-3.13978
G01 X-4.47140 Y-3.14056
G01 X-4.46592 Y-3.14234
G01 X-4.45983 Y-3.14578
G01 X-4.45468 Y-3.15050
G01 X-4.45107 Y-3.15551
G01 X-4.44854 Y-3.16114
G01 X-4.44700 Y-3.16838
G01 X-4.44709 Y-3.17496
G01 X-4.44829 Y-3.18059
G01 X-4.45129 Y-3.18735
G01 X-4.45523 Y-3.19263
G01 X-4.45983 Y-3.19674
G01 X-4.46592 Y-3.20018
G01 X-4.47220 Y-3.20213
G01 X-4.47793 Y-3.20273
G01 X-4.52165 Y-3.20275
G01 X-4.52779 Y-3.20213
G01 X-4.53408 Y-3.20018
G01 X-4.53982 Y-3.19697
G01 X-4.54628 Y-3.19070
G01 X-4.58990 Y-3.19068
G01 X-4.59368 Y-3.19023
G01 X-4.59999 Y-3.18762
G01 X-4.60326 Y-3.18500
G01 X-4.78859 Y-2.99967
G01 X-4.79121 Y-2.99640
G01 X-4.79294 Y-2.99300
G01 X-4.79429 Y-2.98593
G01 X-4.79429 Y-2.91407
G01 X-4.79382 Y-2.90991
G01 X-4.79121 Y-2.90360
G01 X-4.78859 Y-2.90033
G01 X-4.66343 Y-2.77516
G01 X-4.66015 Y-2.77255
G01 X-4.65676 Y-2.77082
G01 X-4.64969 Y-2.76947
G01 X-4.15689 Y-2.76947
G01 X-4.14982 Y-2.77082
G01 X-4.14642 Y-2.77255
G01 X-4.14315 Y-2.77516
G04 P0 ( dwell for no time -- G64 should not smooth over this point )
G00 Z0.08000 ( retract )

G00 X-3.92247 Y-2.43098 ( rapid move to begin. )
G01 F180.00000
G01 Z-0.04000
G04 P0 ( dwell for no time -- G64 should not smooth over this point )
G01 F360.00000
G01 X-3.92247 Y-2.43098
G01 X-3.92293 Y-2.43081
G04 P0 ( dwell for no time -- G64 should not smooth over this point )
G00 Z0.08000 ( retract )

G00 X-4.57559 Y-2.81441 ( rapid move to begin. )
G01 F180.00000
G01 Z-0.04000
G04 P0 ( dwell for no time -- G64 should not smooth over this point )
G01 F360.00000
G01 X-4.57559 Y-2.81441
G01 X-4.58373 Y-2.81622
G01 X-4.63837 Y-2.81622
G01 X-4.73508 Y-2.91288
G01 X-4.74632 Y-2.92589
G01 X-4.74889 Y-2.94072
G01 X-4.74932 Y-2.95105
G01 X-4.74866 Y-2.96148
G01 X-4.74932 Y-2.95105
G01 X-4.74889 Y-2.94072
G01 X-4.74681 Y-2.92772
G01 X-4.74632 Y-2.92589
G01 X-4.74239 Y-2.92077
G01 X-4.73601 Y-2.91386
G01 X-4.74754 Y-2.92538
G01 X-4.74754 Y-2.93145
G01 X-4.74139 Y-2.91993
G01 X-4.73508 Y-2.91288
G01 X-4.72490 Y-2.90419
G01 X-4.71331 Y-2.89672
G01 X-4.63674 Y-2.82016
G01 X-4.60901 Y-2.82016
G01 X-4.58980 Y-2.81945
G01 X-4.58435 Y-2.81655
G01 X-4.58980 Y-2.81945
G01 X-4.60753 Y-2.81994
G01 X-4.61050 Y-2.82061
G01 X-4.61603 Y-2.82322
G01 X-4.62209 Y-2.82790
G01 X-4.69017 Y-2.89598
G01 X-4.69424 Y-2.89520
G01 X-4.70411 Y-2.89512
G01 X-4.71331 Y-2.89672
G01 X-4.72490 Y-2.90419
G01 X-4.73508 Y-2.91288
G01 X-4.72558 Y-2.90569
G01 X-4.71462 Y-2.90102
G01 X-4.70411 Y-2.89905
G01 X-4.69465 Y-2.89912
G01 X-4.68890 Y-2.90028
G01 X-4.61931 Y-2.83069
G01 X-4.61150 Y-2.82526
G01 X-4.60418 Y-2.82304
G01 X-4.58723 Y-2.82269
G01 X-4.58541 Y-2.81785
G01 X-4.58269 Y-2.81567
G01 X-4.58435 Y-2.81655
G01 X-4.58269 Y-2.81567
G01 X-4.57559 Y-2.81441
G01 X-4.52441 Y-2.81441
G01 X-4.51941 Y-2.81503
G01 X-4.51578 Y-2.81639
G01 X-4.51941 Y-2.81503
G01 X-4.52441 Y-2.81441
G01 X-4.57559 Y-2.81441
G01 X-4.57559 Y-2.81654
G01 X-4.52441 Y-2.81654
G01 X-4.52140 Y-2.81713
G01 X-4.51884 Y-2.81884
G01 X-4.51713 Y-2.82140
G01 X-4.51654 Y-2.82441
G01 X-4.51669 Y-2.87713
G01 X-4.51786 Y-2.87996
G01 X-4.52003 Y-2.88214
G01 X-4.52287 Y-2.88331
G01 X-4.52663 Y-2.88346
G01 X-4.52663 Y-2.89691
G01 X-4.39876 Y-3.02477
G01 X-4.39545 Y-3.02898
G01 X-4.39255 Y-3.03599
G01 X-4.39191 Y-3.04130
G01 X-4.39195 Y-3.24627
G01 X-4.39343 Y-3.25372
G01 X-4.39631 Y-3.25911
G01 X-4.40383 Y-3.26705
G01 X-4.40746 Y-3.26983
G01 X-4.41157 Y-3.27185
G01 X-4.41979 Y-3.27337
G01 X-4.45177 Y-3.27337
G01 X-4.45752 Y-3.27867
G01 X-4.46320 Y-3.28200
G01 X-4.47179 Y-3.28479
G01 X-4.47835 Y-3.28543
G01 X-4.52248 Y-3.28539
G01 X-4.52902 Y-3.28466
G01 X-4.53530 Y-3.28267
G01 X-4.54248 Y-3.27867
G01 X-4.54850 Y-3.27307
G01 X-4.55234 Y-3.26772
G01 X-4.55506 Y-3.26172
G01 X-4.55676 Y-3.25452
G01 X-4.55694 Y-3.24712
G01 X-4.55556 Y-3.23985
G01 X-4.55234 Y-3.23228
G01 X-4.54740 Y-3.22571
G01 X-4.54248 Y-3.22133
G01 X-4.53680 Y-3.21800
G01 X-4.52982 Y-3.21555
G01 X-4.52165 Y-3.21457
G01 X-4.47835 Y-3.21457
G01 X-4.47179 Y-3.21521
G01 X-4.46320 Y-3.21800
G01 X-4.45752 Y-3.22133
G01 X-4.45177 Y-3.22662
G01 X-4.43866 Y-3.22662
G01 X-4.43866 Y-3.05098
G01 X-4.56897 Y-2.92020
G01 X-4.57186 Y-2.91481
G01 X-4.57304 Y-2.91039
G01 X-4.57337 Y-2.88346
G01 X-4.57713 Y-2.88331
G01 X-4.58116 Y-2.88116
G01 X-4.58331 Y-2.87713
G01 X-4.58346 Y-2.87337
G01 X-4.59032 Y-2.87337
G01 X-4.65459 Y-2.93764
G01 X-4.65368 Y-2.94100
G01 X-4.65282 Y-2.95082
G01 X-4.65402 Y-2.96061
G01 X-4.65686 Y-2.96921
G01 X-4.66231 Y-2.97840
G01 X-4.66782 Y-2.98451
G01 X-4.67570 Y-2.99045
G01 X-4.68541 Y-2.99491
G01 X-4.69425 Y-2.99684
G01 X-4.70411 Y-2.99701
G01 X-4.71459 Y-2.99491
G01 X-4.72430 Y-2.99045
G01 X-4.73218 Y-2.98451
G01 X-4.73820 Y-2.97776
G01 X-4.74344 Y-2.96844
G01 X-4.74598 Y-2.96061
G01 X-4.74718 Y-2.95082
G01 X-4.74598 Y-2.93939
G01 X-4.74277 Y-2.93006
G01 X-4.73820 Y-2.92224
G01 X-4.73218 Y-2.91549
G01 X-4.72430 Y-2.90955
G01 X-4.71380 Y-2.90487
G01 X-4.70411 Y-2.90299
G01 X-4.69506 Y-2.90303
G01 X-4.68763 Y-2.90457
G01 X-4.61653 Y-2.83347
G01 X-4.61232 Y-2.83017
G01 X-4.60822 Y-2.82814
G01 X-4.60379 Y-2.82696
G01 X-4.58346 Y-2.82663
G01 X-4.58331 Y-2.82287
G01 X-4.58214 Y-2.82003
G01 X-4.57860 Y-2.81713
G01 X-4.57559 Y-2.81654
G01 X-4.57559 Y-2.82047
G01 X-4.52441 Y-2.82047
G01 X-4.52163 Y-2.82163
G01 X-4.52047 Y-2.82441
G01 X-4.52055 Y-2.87636
G01 X-4.52114 Y-2.87778
G01 X-4.52290 Y-2.87923
G01 X-4.53056 Y-2.87953
G01 X-4.53056 Y-2.89854
G01 X-4.40154 Y-3.02756
G01 X-4.39893 Y-3.03084
G01 X-4.39632 Y-3.03714
G01 X-4.39585 Y-3.04130
G01 X-4.39585 Y-3.24550
G01 X-4.39632 Y-3.24967
G01 X-4.39893 Y-3.25597
G01 X-4.40633 Y-3.26400
G01 X-4.41200 Y-3.26779
G01 X-4.41638 Y-3.26912
G01 X-4.45372 Y-3.26944
G01 X-4.46018 Y-3.27570
G01 X-4.46592 Y-3.27892
G01 X-4.47220 Y-3.28087
G01 X-4.47835 Y-3.28150
G01 X-4.52165 Y-3.28150
G01 X-4.52860 Y-3.28070
G01 X-4.53483 Y-3.27859
G01 X-4.54017 Y-3.27548
G01 X-4.54532 Y-3.27075
G01 X-4.54893 Y-3.26575
G01 X-4.55146 Y-3.26012
G01 X-4.55291 Y-3.25370
G01 X-4.55300 Y-3.24712
G01 X-4.55171 Y-3.24066
G01 X-4.54893 Y-3.23425
G01 X-4.54477 Y-3.22863
G01 X-4.54017 Y-3.22452
G01 X-4.53408 Y-3.22108
G01 X-4.52820 Y-3.21919
G01 X-4.52165 Y-3.21850
G01 X-4.47835 Y-3.21850
G01 X-4.47220 Y-3.21913
G01 X-4.46592 Y-3.22108
G01 X-4.46018 Y-3.22429
G01 X-4.45372 Y-3.23056
G01 X-4.43472 Y-3.23056
G01 X-4.43472 Y-3.04935
G01 X-4.56593 Y-2.91770
G01 X-4.56809 Y-2.91366
G01 X-4.56942 Y-2.90698
G01 X-4.56944 Y-2.87953
G01 X-4.57636 Y-2.87945
G01 X-4.57837 Y-2.87837
G01 X-4.57945 Y-2.87636
G01 X-4.57953 Y-2.86944
G01 X-4.59195 Y-2.86944
G01 X-4.65908 Y-2.93656
G01 X-4.65759 Y-2.94141
G01 X-4.65671 Y-2.95000
G01 X-4.65759 Y-2.95859
G01 X-4.66031 Y-2.96722
G01 X-4.66524 Y-2.97576
G01 X-4.67136 Y-2.98243
G01 X-4.67836 Y-2.98749
G01 X-4.68662 Y-2.99117
G01 X-4.69589 Y-2.99307
G01 X-4.70493 Y-2.99299
G01 X-4.71338 Y-2.99117
G01 X-4.72164 Y-2.98749
G01 X-4.72896 Y-2.98217
G01 X-4.73524 Y-2.97510
G01 X-4.73969 Y-2.96722
G01 X-4.74223 Y-2.95940
G01 X-4.74327 Y-2.95041
G01 X-4.74223 Y-2.94060
G01 X-4.73954 Y-2.93239
G01 X-4.73524 Y-2.92490
G01 X-4.72864 Y-2.91757
G01 X-4.72164 Y-2.91251
G01 X-4.71376 Y-2.90898
G01 X-4.70493 Y-2.90701
G01 X-4.69589 Y-2.90693
G01 X-4.68640 Y-2.90891
G01 X-4.61111 Y-2.83407
G01 X-4.60779 Y-2.83221
G01 X-4.60341 Y-2.83088
G01 X-4.57953 Y-2.83056
G01 X-4.57923 Y-2.82290
G01 X-4.57778 Y-2.82113
G01 X-4.57559 Y-2.82047
G04 P0 ( dwell for no time -- G64 should not smooth over this point )
G00 Z0.08000 ( retract )

G00 X-4.73603 Y-2.98612 ( rapid move to begin. )
G01 F180.00000
G01 Z-0.04000
G04 P0 ( dwell for no time -- G64 should not smooth over this point )
G01 F360.00000
G01 X-4.73603 Y-2.98612
G01 X-4.73414 Y-2.98802
G01 X-4.74139 Y-2.98007
G01 X-4.74754 Y-2.96855
G01 X-4.74632 Y-2.97411
G01 X-4.73603 Y-2.98612
G01 X-4.74632 Y-2.97411
G01 X-4.74866 Y-2.96148
G01 X-4.74754 Y-2.96855
G04 P0 ( dwell for no time -- G64 should not smooth over this point )
G00 Z0.08000 ( retract )

G00 X-4.74754 Y-2.96856 ( rapid move to begin. )
G01 F180.00000
G01 Z-0.04000
G04 P0 ( dwell for no time -- G64 should not smooth over this point )
G01 F360.00000
G01 X-4.74754 Y-2.96856
G01 X-4.74754 Y-2.97462
G01 X-4.73598 Y-2.98617
G04 P0 ( dwell for no time -- G64 should not smooth over this point )
G00 Z0.08000 ( retract )

G00 X-4.73414 Y-2.98802 ( rapid move to begin. )
G01 F180.00000
G01 Z-0.04000
G04 P0 ( dwell for no time -- G64 should not smooth over this point )
G01 F360.00000
G01 X-4.73414 Y-2.98802
G01 X-4.57820 Y-3.14395
G01 X-4.54993 Y-3.14395
G01 X-4.54479 Y-3.13941
G01 X-4.53651 Y-3.13485
G01 X-4.52984 Y-3.13275
G01 X-4.52289 Y-3.13195
G01 X-4.47835 Y-3.13189
G01 X-4.47016 Y-3.13275
G01 X-4.46349 Y-3.13485
G01 X-4.45624 Y-3.13874
G01 X-4.44831 Y-3.14588
G01 X-4.44425 Y-3.15157
G01 X-4.44260 Y-3.15513
G01 X-4.44086 Y-3.16838
G01 X-4.44260 Y-3.15513
G01 X-4.44260 Y-3.05262
G01 X-4.57009 Y-2.92504
G01 X-4.57474 Y-2.91809
G01 X-4.57696 Y-2.91077
G01 X-4.57731 Y-2.88723
G01 X-4.58011 Y-2.88650
G01 X-4.58394 Y-2.88394
G01 X-4.58650 Y-2.88011
G01 X-4.58723 Y-2.87731
G01 X-4.58869 Y-2.87731
G01 X-4.65015 Y-2.93877
G01 X-4.64890 Y-2.95123
G01 X-4.65028 Y-2.96183
G01 X-4.65282 Y-2.96965
G01 X-4.65861 Y-2.98007
G01 X-4.66673 Y-2.98880
G01 X-4.67442 Y-2.99431
G01 X-4.68538 Y-2.99898
G01 X-4.69465 Y-3.00088
G01 X-4.70411 Y-3.00095
G01 X-4.71696 Y-2.99821
G01 X-4.72558 Y-2.99431
G01 X-4.73409 Y-2.98806
G01 X-4.72702 Y-2.99418
G01 X-4.71800 Y-3.00054
G01 X-4.71330 Y-3.00328
G01 X-4.70739 Y-3.00454
G01 X-4.69261 Y-3.00454
G01 X-4.68143 Y-3.00181
G01 X-4.67107 Y-2.99682
G01 X-4.66197 Y-2.98978
G01 X-4.65646 Y-2.98367
G01 X-4.64966 Y-2.97241
G01 X-4.64585 Y-2.95983
G01 X-4.64499 Y-2.94835
G01 X-4.64587 Y-2.94006
G01 X-4.58919 Y-2.88339
G01 X-4.58673 Y-2.88673
G01 X-4.58125 Y-2.89025
G01 X-4.58125 Y-2.90659
G01 X-4.58027 Y-2.91418
G01 X-4.57678 Y-2.92263
G01 X-4.57313 Y-2.92754
G01 X-4.44653 Y-3.05425
G01 X-4.44653 Y-3.14200
G01 X-4.44260 Y-3.15513
G01 X-4.44576 Y-3.14402
G01 X-4.44733 Y-3.14112
G01 X-4.45289 Y-3.13622
G01 X-4.45926 Y-3.13245
G01 X-4.47097 Y-3.12864
G01 X-4.47835 Y-3.12795
G01 X-4.52165 Y-3.12795
G01 X-4.52903 Y-3.12864
G01 X-4.54074 Y-3.13245
G01 X-4.54711 Y-3.13622
G01 X-4.55144 Y-3.14001
G01 X-4.57657 Y-3.14001
G01 X-4.71330 Y-3.00328
G01 X-4.72490 Y-2.99580
G01 X-4.73409 Y-2.98806
G04 P0 ( dwell for no time -- G64 should not smooth over this point )
G00 Z0.08000 ( retract )

G00 X-4.44883 Y-3.29724 ( rapid move to begin. )
G01 F180.00000
G01 Z-0.04000
G04 P0 ( dwell for no time -- G64 should not smooth over this point )
G01 F360.00000
G01 X-4.44883 Y-3.29724
G01 X-4.45034 Y-3.30118
G01 X-4.19915 Y-3.30118
G01 X-4.19833 Y-3.29099
G01 X-4.19496 Y-3.27998
G01 X-4.19049 Y-3.27211
G01 X-4.18293 Y-3.26343
G01 X-4.17564 Y-3.25805
G01 X-4.16636 Y-3.25364
G01 X-4.15514 Y-3.25106
G01 X-4.14609 Y-3.25099
G01 X-4.13599 Y-3.25288
G01 X-4.12650 Y-3.25682
G01 X-4.11620 Y-3.26430
G01 X-4.10951 Y-3.27211
G01 X-4.10504 Y-3.27998
G01 X-4.10218 Y-3.28857
G01 X-4.10079 Y-3.30000
G01 X-4.10218 Y-3.31143
G01 X-4.10504 Y-3.32002
G01 X-4.11096 Y-3.32989
G01 X-4.11803 Y-3.33735
G01 X-4.12539 Y-3.34262
G01 X-4.13364 Y-3.34636
G01 X-4.14485 Y-3.34894
G01 X-4.15514 Y-3.34894
G01 X-4.15918 Y-3.34815
G01 X-4.16250 Y-3.35096
G01 X-4.16714 Y-3.35371
G01 X-4.17451 Y-3.35594
G01 X-4.45034 Y-3.35630
G01 X-4.45521 Y-3.36059
G01 X-4.46123 Y-3.36415
G01 X-4.47016 Y-3.36725
G01 X-4.47835 Y-3.36811
G01 X-4.52165 Y-3.36811
G01 X-4.52984 Y-3.36725
G01 X-4.53877 Y-3.36415
G01 X-4.54479 Y-3.36059
G01 X-4.55169 Y-3.35412
G01 X-4.55575 Y-3.34843
G01 X-4.55942 Y-3.33971
G01 X-4.56087 Y-3.33162
G01 X-4.56061 Y-3.32340
G01 X-4.55865 Y-3.31542
G01 X-4.55575 Y-3.30905
G01 X-4.55004 Y-3.30152
G01 X-4.54376 Y-3.29622
G01 X-4.53651 Y-3.29233
G01 X-4.52862 Y-3.29004
G01 X-4.52165 Y-3.28937
G01 X-4.46051 Y-3.28937
G01 X-4.45289 Y-3.28504
G01 X-4.44855 Y-3.28125
G01 X-4.41979 Y-3.28125
G01 X-4.41522 Y-3.28087
G01 X-4.40928 Y-3.27939
G01 X-4.40118 Y-3.27506
G01 X-4.39023 Y-3.26410
G01 X-4.38590 Y-3.25600
G01 X-4.38411 Y-3.24704
G01 X-4.38404 Y-3.04130
G01 X-4.38501 Y-3.03371
G01 X-4.38851 Y-3.02527
G01 X-4.39319 Y-3.01921
G01 X-4.51875 Y-2.89365
G01 X-4.51875 Y-2.89025
G01 X-4.51327 Y-2.88673
G01 X-4.50986 Y-2.88162
G01 X-4.50896 Y-2.87866
G01 X-4.50866 Y-2.82441
G01 X-4.50934 Y-2.82009
G01 X-4.48008 Y-2.82016
G01 X-4.46731 Y-2.81622
G01 X-4.48008 Y-2.82016
G01 X-4.48398 Y-2.82442
G01 X-4.48993 Y-2.83472
G01 X-4.49227 Y-2.84303
G01 X-4.49291 Y-2.85000
G01 X-4.49227 Y-2.85697
G01 X-4.48993 Y-2.86528
G01 X-4.48398 Y-2.87558
G01 X-4.47924 Y-2.88072
G01 X-4.47363 Y-2.88490
G01 X-4.46435 Y-2.88931
G01 X-4.45425 Y-2.89120
G01 X-4.44562 Y-2.89085
G01 X-4.43880 Y-2.88931
G01 X-4.43237 Y-2.88655
G01 X-4.42491 Y-2.88150
G01 X-4.33149 Y-2.88150
G01 X-4.33149 Y-2.90504
G01 X-4.33803 Y-2.91022
G01 X-4.34547 Y-2.91900
G01 X-4.35093 Y-2.92913
G01 X-4.35415 Y-2.94017
G01 X-4.35501 Y-2.95165
G01 X-4.35347 Y-2.96305
G01 X-4.35033 Y-2.97241
G01 X-4.34354 Y-2.98367
G01 X-4.33559 Y-2.99198
G01 X-4.32755 Y-2.99772
G01 X-4.31857 Y-3.00181
G01 X-4.30576 Y-3.00480
G01 X-4.29261 Y-3.00454
G01 X-4.28297 Y-3.00240
G01 X-4.27245 Y-2.99772
G01 X-4.26569 Y-2.99291
G01 X-4.06508 Y-3.19353
G01 X-4.05898 Y-3.19824
G01 X-4.05340 Y-3.20088
G01 X-4.04742 Y-3.20238
G01 X-4.04280 Y-3.20276
G01 X-3.45117 Y-3.20276
G01 X-3.44711 Y-3.20629
G01 X-3.43949 Y-3.21063
G01 X-3.42167 Y-3.21063
G01 X-3.43949 Y-3.21063
G01 X-3.44573 Y-3.21407
G01 X-3.45487 Y-3.22230
G01 X-3.45991 Y-3.22981
G01 X-3.46284 Y-3.23662
G01 X-3.46481 Y-3.24712
G01 X-3.46447 Y-3.25615
G01 X-3.46225 Y-3.26492
G01 X-3.45991 Y-3.27018
G01 X-3.45487 Y-3.27770
G01 X-3.44711 Y-3.28504
G01 X-3.43949 Y-3.28937
G01 X-3.42165 Y-3.28937
G01 X-3.43949 Y-3.28937
G01 X-3.44711 Y-3.29370
G01 X-3.45117 Y-3.29724
G01 X-3.66569 Y-3.29724
G01 X-3.69920 Y-3.28501
G01 X-3.70219 Y-3.27691
G01 X-3.70610 Y-3.27014
G01 X-3.71572 Y-3.25946
G01 X-3.72204 Y-3.25487
G01 X-3.73204 Y-3.25004
G01 X-3.74444 Y-3.24714
G01 X-3.75718 Y-3.24740
G01 X-3.76796 Y-3.25004
G01 X-3.77511 Y-3.25322
G01 X-3.78673 Y-3.26167
G01 X-3.79300 Y-3.26876
G01 X-3.79685 Y-3.27526
G01 X-3.79685 Y-3.26063
G01 X-3.79805 Y-3.25460
G01 X-3.79950 Y-3.25188
G01 X-3.80385 Y-3.24754
G01 X-3.80953 Y-3.24518
G01 X-3.89047 Y-3.24518
G01 X-3.89615 Y-3.24754
G01 X-3.90049 Y-3.25188
G01 X-3.90285 Y-3.25756
G01 X-3.90315 Y-3.26875
G01 X-3.99685 Y-3.26875
G01 X-3.99715 Y-3.25756
G01 X-3.99950 Y-3.25188
G01 X-4.00385 Y-3.24754
G01 X-4.00953 Y-3.24518
G01 X-4.08740 Y-3.24488
G01 X-4.09343 Y-3.24608
G01 X-4.09854 Y-3.24949
G01 X-4.10049 Y-3.25188
G01 X-4.10285 Y-3.25756
G01 X-4.10315 Y-3.27526
G01 X-4.10073 Y-3.28810
G01 X-4.10003 Y-3.30132
G01 X-4.10073 Y-3.28810
G01 X-4.10315 Y-3.27526
G01 X-4.10804 Y-3.26748
G01 X-4.11327 Y-3.26167
G01 X-4.12343 Y-3.25397
G01 X-4.13204 Y-3.25004
G01 X-4.14444 Y-3.24714
G01 X-4.15391 Y-3.24706
G01 X-4.16483 Y-3.24903
G01 X-4.17511 Y-3.25322
G01 X-4.18673 Y-3.26167
G01 X-4.19390 Y-3.27014
G01 X-4.19855 Y-3.27838
G01 X-4.20156 Y-3.28736
G01 X-4.20295 Y-3.29724
G01 X-4.44883 Y-3.29724
G01 X-4.45289 Y-3.29370
G01 X-4.46051 Y-3.28937
G01 X-4.47835 Y-3.28937
G01 X-4.46897 Y-3.29055
G01 X-4.46349 Y-3.29233
G01 X-4.45624 Y-3.29622
G01 X-4.45034 Y-3.30118
G01 X-4.45200 Y-3.30512
G01 X-4.19478 Y-3.30512
G01 X-4.19523 Y-3.29918
G01 X-4.19442 Y-3.29140
G01 X-4.19136 Y-3.28158
G01 X-4.18611 Y-3.27275
G01 X-4.18030 Y-3.26635
G01 X-4.17333 Y-3.26124
G01 X-4.16399 Y-3.25694
G01 X-4.15391 Y-3.25493
G01 X-4.14445 Y-3.25510
G01 X-4.13524 Y-3.25724
G01 X-4.12810 Y-3.26042
G01 X-4.11912 Y-3.26694
G01 X-4.11292 Y-3.27408
G01 X-4.10834 Y-3.28235
G01 X-4.10558 Y-3.29140
G01 X-4.10472 Y-3.30000
G01 X-4.10558 Y-3.30860
G01 X-4.10864 Y-3.31841
G01 X-4.11292 Y-3.32592
G01 X-4.11912 Y-3.33306
G01 X-4.12736 Y-3.33921
G01 X-4.13524 Y-3.34276
G01 X-4.14527 Y-3.34503
G01 X-4.15473 Y-3.34503
G01 X-4.16045 Y-3.34386
G01 X-4.16628 Y-3.34878
G01 X-4.17338 Y-3.35172
G01 X-4.17874 Y-3.35236
G01 X-4.45200 Y-3.35236
G01 X-4.45821 Y-3.35785
G01 X-4.46470 Y-3.36140
G01 X-4.47098 Y-3.36340
G01 X-4.47835 Y-3.36417
G01 X-4.52165 Y-3.36417
G01 X-4.52902 Y-3.36340
G01 X-4.53530 Y-3.36140
G01 X-4.54248 Y-3.35741
G01 X-4.54740 Y-3.35303
G01 X-4.55189 Y-3.34715
G01 X-4.55556 Y-3.33889
G01 X-4.55694 Y-3.33162
G01 X-4.55676 Y-3.32422
G01 X-4.55506 Y-3.31702
G01 X-4.55234 Y-3.31102
G01 X-4.54850 Y-3.30567
G01 X-4.54248 Y-3.30007
G01 X-4.53680 Y-3.29674
G01 X-4.52902 Y-3.29408
G01 X-4.52248 Y-3.29335
G01 X-4.47835 Y-3.29331
G01 X-4.47098 Y-3.29408
G01 X-4.46320 Y-3.29674
G01 X-4.45688 Y-3.30059
G01 X-4.45200 Y-3.30512
G01 X-4.45390 Y-3.30905
G01 X-4.19031 Y-3.30905
G01 X-4.19132 Y-3.30041
G01 X-4.19050 Y-3.29181
G01 X-4.18776 Y-3.28319
G01 X-4.18367 Y-3.27605
G01 X-4.17766 Y-3.26928
G01 X-4.17101 Y-3.26442
G01 X-4.16316 Y-3.26083
G01 X-4.15432 Y-3.25889
G01 X-4.14568 Y-3.25889
G01 X-4.13684 Y-3.26083
G01 X-4.12899 Y-3.26442
G01 X-4.12234 Y-3.26928
G01 X-4.11633 Y-3.27605
G01 X-4.11209 Y-3.28357
G01 X-4.10956 Y-3.29141
G01 X-4.10866 Y-3.30000
G01 X-4.10967 Y-3.30899
G01 X-4.11242 Y-3.31718
G01 X-4.11633 Y-3.32395
G01 X-4.12205 Y-3.33043
G01 X-4.12899 Y-3.33557
G01 X-4.13684 Y-3.33917
G01 X-4.14568 Y-3.34111
G01 X-4.15432 Y-3.34111
G01 X-4.16172 Y-3.33956
G01 X-4.16749 Y-3.34488
G01 X-4.17086 Y-3.34676
G01 X-4.17835 Y-3.34841
G01 X-4.45390 Y-3.34843
G01 X-4.46018 Y-3.35445
G01 X-4.46592 Y-3.35766
G01 X-4.47220 Y-3.35961
G01 X-4.47835 Y-3.36024
G01 X-4.52165 Y-3.36024
G01 X-4.52860 Y-3.35944
G01 X-4.53483 Y-3.35733
G01 X-4.54017 Y-3.35422
G01 X-4.54477 Y-3.35011
G01 X-4.54870 Y-3.34483
G01 X-4.55171 Y-3.33807
G01 X-4.55300 Y-3.33162
G01 X-4.55291 Y-3.32504
G01 X-4.55146 Y-3.31862
G01 X-4.54893 Y-3.31299
G01 X-4.54477 Y-3.30737
G01 X-4.54017 Y-3.30326
G01 X-4.53483 Y-3.30015
G01 X-4.52860 Y-3.29804
G01 X-4.52165 Y-3.29724
G01 X-4.47835 Y-3.29724
G01 X-4.47220 Y-3.29787
G01 X-4.46592 Y-3.29982
G01 X-4.46018 Y-3.30303
G01 X-4.45390 Y-3.30905

G04 P0 ( dwell for no time -- G64 should not smooth over this point )
G00 Z1.000 ( retract )

M5 ( Spindle off. )
G04 P1.000000
M9 ( Coolant off. )
M2 ( Program end. )

