( pcb2gcode 1.3.2 )
( Software-independent Gcode )

G94 ( Inches per minute feed rate. )
G20 ( Units == INCHES. )

G90 ( Absolute coordinates. )
G00 S12000 ( RPM spindle speed. )
G64 P0.00040 ( set maximum deviation from commanded toolpath )
G01 F360.00000 ( Feedrate. )

G01 F360.00000 ( Feedrate. )
M3 ( Spindle on clockwise. )
G04 P1.00000
G04 P0 ( dwell for no time -- G64 should not smooth over this point )
G00 Z0.08000 ( retract )

G00 X-3.25983 Y-2.89598 ( rapid move to begin. )
G01 F180.00000
G01 Z-0.04000
G04 P0 ( dwell for no time -- G64 should not smooth over this point )
G01 F360.00000
G01 X-3.25983 Y-2.89598
G01 X-3.26110 Y-2.90028
G01 X-3.25411 Y-2.89906
G01 X-3.24589 Y-2.89906
G01 X-3.23538 Y-2.90102
G01 X-3.22442 Y-2.90569
G01 X-3.21673 Y-2.91120
G01 X-3.20939 Y-2.91897
G01 X-3.20382 Y-2.92809
G01 X-3.19976 Y-2.94058
G01 X-3.19884 Y-2.95000
G01 X-3.19976 Y-2.95941
G01 X-3.20326 Y-2.97081
G01 X-3.20939 Y-2.98103
G01 X-3.21577 Y-2.98802
G01 X-3.22269 Y-2.99313
G01 X-3.22269 Y-3.18021
G01 X-3.22349 Y-3.18666
G01 X-3.22526 Y-3.19171
G01 X-3.23069 Y-3.19952
G01 X-3.30047 Y-3.26931
G01 X-3.30829 Y-3.27474
G01 X-3.31333 Y-3.27650
G01 X-3.31863 Y-3.27725
G01 X-3.35007 Y-3.27731
G01 X-3.35491 Y-3.28158
G01 X-3.36175 Y-3.28565
G01 X-3.36926 Y-3.28826
G01 X-3.37715 Y-3.28931
G01 X-3.42448 Y-3.28923
G01 X-3.43228 Y-3.28786
G01 X-3.43968 Y-3.28495
G01 X-3.44816 Y-3.27905
G01 X-3.45347 Y-3.27312
G01 X-3.45642 Y-3.26838
G01 X-3.45941 Y-3.26101
G01 X-3.46085 Y-3.25318
G01 X-3.46033 Y-3.24287
G01 X-3.45810 Y-3.23523
G01 X-3.45564 Y-3.23022
G01 X-3.45097 Y-3.22378
G01 X-3.44509 Y-3.21842
G01 X-3.43825 Y-3.21435
G01 X-3.42840 Y-3.21125
G01 X-3.42162 Y-3.21063
G01 X-3.37552 Y-3.21077
G01 X-3.36772 Y-3.21213
G01 X-3.36031 Y-3.21505
G01 X-3.35365 Y-3.21940
G01 X-3.35019 Y-3.22269
G01 X-3.33110 Y-3.22269
G01 X-3.27731 Y-3.16890
G01 X-3.27731 Y-2.99313
G01 X-3.28511 Y-2.98714
G01 X-3.29061 Y-2.98103
G01 X-3.29674 Y-2.97081
G01 X-3.29972 Y-2.96183
G01 X-3.30110 Y-2.95123
G01 X-3.29988 Y-2.93874
G01 X-3.36131 Y-2.87731
G01 X-3.36277 Y-2.87731
G01 X-3.36459 Y-2.88215
G01 X-3.36785 Y-2.88541
G01 X-3.37210 Y-2.88717
G01 X-3.37441 Y-2.88740
G01 X-3.42559 Y-2.88740
G01 X-3.43011 Y-2.88650
G01 X-3.43394 Y-2.88394
G01 X-3.43650 Y-2.88011
G01 X-3.43740 Y-2.87559
G01 X-3.43740 Y-2.82441
G01 X-3.43650 Y-2.81989
G01 X-3.43394 Y-2.81606
G01 X-3.43215 Y-2.81459
G01 X-3.42789 Y-2.81283
G01 X-3.37441 Y-2.81260
G01 X-3.36989 Y-2.81350
G01 X-3.36606 Y-2.81606
G01 X-3.36350 Y-2.81989
G01 X-3.36277 Y-2.82269
G01 X-3.34582 Y-2.82304
G01 X-3.34064 Y-2.82438
G01 X-3.33582 Y-2.82670
G01 X-3.33069 Y-2.83069
G01 X-3.26110 Y-2.90028
G01 X-3.26237 Y-2.90457
G01 X-3.25411 Y-2.90299
G01 X-3.24589 Y-2.90299
G01 X-3.23620 Y-2.90487
G01 X-3.22639 Y-2.90910
G01 X-3.21782 Y-2.91549
G01 X-3.21135 Y-2.92293
G01 X-3.20686 Y-2.93079
G01 X-3.20402 Y-2.93939
G01 X-3.20278 Y-2.95000
G01 X-3.20402 Y-2.96061
G01 X-3.20686 Y-2.96921
G01 X-3.21135 Y-2.97707
G01 X-3.21840 Y-2.98509
G01 X-3.22662 Y-2.99098
G01 X-3.22663 Y-3.18021
G01 X-3.22814 Y-3.18843
G01 X-3.23102 Y-3.19382
G01 X-3.30326 Y-3.26653
G01 X-3.31014 Y-3.27126
G01 X-3.31448 Y-3.27274
G01 X-3.31901 Y-3.27334
G01 X-3.35181 Y-3.27337
G01 X-3.35747 Y-3.27859
G01 X-3.36366 Y-3.28221
G01 X-3.37044 Y-3.28451
G01 X-3.37755 Y-3.28539
G01 X-3.42447 Y-3.28529
G01 X-3.43149 Y-3.28401
G01 X-3.43813 Y-3.28133
G01 X-3.44410 Y-3.27737
G01 X-3.45013 Y-3.27103
G01 X-3.45308 Y-3.26630
G01 X-3.45572 Y-3.25964
G01 X-3.45696 Y-3.25259
G01 X-3.45652 Y-3.24385
G01 X-3.45457 Y-3.23696
G01 X-3.45211 Y-3.23195
G01 X-3.44785 Y-3.22619
G01 X-3.44122 Y-3.22050
G01 X-3.43488 Y-3.21716
G01 X-3.42956 Y-3.21549
G01 X-3.42245 Y-3.21461
G01 X-3.37553 Y-3.21471
G01 X-3.36851 Y-3.21599
G01 X-3.36187 Y-3.21867
G01 X-3.35590 Y-3.22263
G01 X-3.35187 Y-3.22662
G01 X-3.32947 Y-3.22663
G01 X-3.27337 Y-3.17053
G01 X-3.27337 Y-2.99102
G01 X-3.28218 Y-2.98451
G01 X-3.28865 Y-2.97707
G01 X-3.29314 Y-2.96921
G01 X-3.29598 Y-2.96061
G01 X-3.29718 Y-2.95082
G01 X-3.29632 Y-2.94100
G01 X-3.29541 Y-2.93764
G01 X-3.35968 Y-2.87337
G01 X-3.36654 Y-2.87337
G01 X-3.36669 Y-2.87713
G01 X-3.36786 Y-2.87996
G01 X-3.37004 Y-2.88214
G01 X-3.37287 Y-2.88331
G01 X-3.42559 Y-2.88346
G01 X-3.42860 Y-2.88286
G01 X-3.43116 Y-2.88116
G01 X-3.43286 Y-2.87860
G01 X-3.43346 Y-2.87559
G01 X-3.43346 Y-2.82441
G01 X-3.43286 Y-2.82140
G01 X-3.42996 Y-2.81786
G01 X-3.42559 Y-2.81654
G01 X-3.37441 Y-2.81654
G01 X-3.37140 Y-2.81713
G01 X-3.36786 Y-2.82003
G01 X-3.36669 Y-2.82287
G01 X-3.36654 Y-2.82663
G01 X-3.34621 Y-2.82696
G01 X-3.34178 Y-2.82814
G01 X-3.33767 Y-2.83017
G01 X-3.33347 Y-2.83347
G01 X-3.26237 Y-2.90457
G01 X-3.26359 Y-2.90892
G01 X-3.25411 Y-2.90693
G01 X-3.24507 Y-2.90701
G01 X-3.23702 Y-2.90873
G01 X-3.22836 Y-2.91251
G01 X-3.22074 Y-2.91812
G01 X-3.21476 Y-2.92490
G01 X-3.21046 Y-2.93239
G01 X-3.20777 Y-2.94060
G01 X-3.20671 Y-2.95000
G01 X-3.20777 Y-2.95940
G01 X-3.21046 Y-2.96761
G01 X-3.21476 Y-2.97510
G01 X-3.22104 Y-2.98217
G01 X-3.23056 Y-2.98849
G01 X-3.23056 Y-3.18021
G01 X-3.23191 Y-3.18729
G01 X-3.23407 Y-3.19132
G01 X-3.30604 Y-3.26374
G01 X-3.31200 Y-3.26779
G01 X-3.31562 Y-3.26897
G01 X-3.31979 Y-3.26944
G01 X-3.35374 Y-3.26944
G01 X-3.36004 Y-3.27561
G01 X-3.36557 Y-3.27877
G01 X-3.37162 Y-3.28075
G01 X-3.37795 Y-3.28147
G01 X-3.42445 Y-3.28135
G01 X-3.43070 Y-3.28015
G01 X-3.43658 Y-3.27771
G01 X-3.44185 Y-3.27414
G01 X-3.44679 Y-3.26895
G01 X-3.44974 Y-3.26422
G01 X-3.45202 Y-3.25827
G01 X-3.45307 Y-3.25199
G01 X-3.45270 Y-3.24484
G01 X-3.45103 Y-3.23869
G01 X-3.44857 Y-3.23369
G01 X-3.44474 Y-3.22860
G01 X-3.43931 Y-3.22394
G01 X-3.43370 Y-3.22092
G01 X-3.42838 Y-3.21925
G01 X-3.42205 Y-3.21852
G01 X-3.37555 Y-3.21865
G01 X-3.36930 Y-3.21985
G01 X-3.36342 Y-3.22229
G01 X-3.35815 Y-3.22586
G01 X-3.35359 Y-3.23056
G01 X-3.32784 Y-3.23056
G01 X-3.26944 Y-3.17216
G01 X-3.26944 Y-2.98849
G01 X-3.27199 Y-2.98726
G01 X-3.27926 Y-2.98188
G01 X-3.28524 Y-2.97510
G01 X-3.28954 Y-2.96761
G01 X-3.29223 Y-2.95940
G01 X-3.29329 Y-2.95000
G01 X-3.29234 Y-2.94100
G01 X-3.29092 Y-2.93656
G01 X-3.35805 Y-2.86944
G01 X-3.37047 Y-2.86944
G01 X-3.37077 Y-2.87710
G01 X-3.37222 Y-2.87886
G01 X-3.37364 Y-2.87945
G01 X-3.42559 Y-2.87953
G01 X-3.42778 Y-2.87886
G01 X-3.42886 Y-2.87778
G01 X-3.42953 Y-2.87559
G01 X-3.42923 Y-2.82290
G01 X-3.42778 Y-2.82114
G01 X-3.42559 Y-2.82047
G01 X-3.37364 Y-2.82055
G01 X-3.37222 Y-2.82114
G01 X-3.37077 Y-2.82290
G01 X-3.37047 Y-2.83056
G01 X-3.34962 Y-2.83058
G01 X-3.34221 Y-2.83221
G01 X-3.33625 Y-2.83625
G01 X-3.26359 Y-2.90892
G04 P0 ( dwell for no time -- G64 should not smooth over this point )
G00 Z0.08000 ( retract )

G00 X-3.45127 Y-3.20276 ( rapid move to begin. )
G01 F180.00000
G01 Z-0.04000
G04 P0 ( dwell for no time -- G64 should not smooth over this point )
G01 F360.00000
G01 X-3.45127 Y-3.20276
G01 X-3.44789 Y-3.19488
G01 X-4.04280 Y-3.19488
G01 X-4.05112 Y-3.19334
G01 X-4.05527 Y-3.19130
G01 X-4.05951 Y-3.18796
G01 X-4.26552 Y-2.98196
G01 X-4.26840 Y-2.98509
G01 X-4.27570 Y-2.99045
G01 X-4.28464 Y-2.99462
G01 X-4.29425 Y-2.99683
G01 X-4.30411 Y-2.99701
G01 X-4.31379 Y-2.99512
G01 X-4.32361 Y-2.99090
G01 X-4.33096 Y-2.98561
G01 X-4.33768 Y-2.97840
G01 X-4.34314 Y-2.96921
G01 X-4.34598 Y-2.96061
G01 X-4.34722 Y-2.95000
G01 X-4.34632 Y-2.94100
G01 X-4.34314 Y-2.93079
G01 X-4.33865 Y-2.92293
G01 X-4.33160 Y-2.91491
G01 X-4.32362 Y-2.90916
G01 X-4.32362 Y-2.87362
G01 X-4.42800 Y-2.87362
G01 X-4.43484 Y-2.87898
G01 X-4.44203 Y-2.88204
G01 X-4.44890 Y-2.88332
G01 X-4.45425 Y-2.88332
G01 X-4.46112 Y-2.88204
G01 X-4.46831 Y-2.87898
G01 X-4.47332 Y-2.87539
G01 X-4.47813 Y-2.87031
G01 X-4.48215 Y-2.86361
G01 X-4.48409 Y-2.85775
G01 X-4.48499 Y-2.85082
G01 X-4.48444 Y-2.84386
G01 X-4.48244 Y-2.83716
G01 X-4.47813 Y-2.82969
G01 X-4.47455 Y-2.82571
G01 X-4.46900 Y-2.82147
G01 X-4.46191 Y-2.81817
G01 X-4.45425 Y-2.81668
G01 X-4.44726 Y-2.81685
G01 X-4.44123 Y-2.81817
G01 X-4.43484 Y-2.82102
G01 X-4.42800 Y-2.82638
G01 X-4.30000 Y-2.82638
G01 X-4.29169 Y-2.82791
G01 X-4.28625 Y-2.83082
G01 X-4.28278 Y-2.83387
G01 X-4.27996 Y-2.83754
G01 X-4.27791 Y-2.84169
G01 X-4.27672 Y-2.84616
G01 X-4.27638 Y-2.90428
G01 X-4.03302 Y-3.14764
G01 X-3.44799 Y-3.14764
G01 X-3.44122 Y-3.14175
G01 X-3.43488 Y-3.13842
G01 X-3.42800 Y-3.13643
G01 X-3.42163 Y-3.13583
G01 X-3.37553 Y-3.13597
G01 X-3.36851 Y-3.13725
G01 X-3.36187 Y-3.13993
G01 X-3.35590 Y-3.14389
G01 X-3.35085 Y-3.14897
G01 X-3.34692 Y-3.15496
G01 X-3.34428 Y-3.16162
G01 X-3.34296 Y-3.17026
G01 X-3.34348 Y-3.17741
G01 X-3.34543 Y-3.18430
G01 X-3.34873 Y-3.19066
G01 X-3.35324 Y-3.19622
G01 X-3.35878 Y-3.20076
G01 X-3.36512 Y-3.20410
G01 X-3.37200 Y-3.20609
G01 X-3.37837 Y-3.20669
G01 X-3.42447 Y-3.20655
G01 X-3.43149 Y-3.20527
G01 X-3.43953 Y-3.20182
G01 X-3.44531 Y-3.19759
G01 X-3.44789 Y-3.19488
G01 X-3.44620 Y-3.19095
G01 X-4.04280 Y-3.19095
G01 X-4.04997 Y-3.18958
G01 X-4.05341 Y-3.18783
G01 X-4.05672 Y-3.18518
G01 X-4.26567 Y-2.97624
G01 X-4.27104 Y-2.98217
G01 X-4.27801 Y-2.98726
G01 X-4.28624 Y-2.99102
G01 X-4.29507 Y-2.99298
G01 X-4.30411 Y-2.99307
G01 X-4.31298 Y-2.99127
G01 X-4.32164 Y-2.98749
G01 X-4.32864 Y-2.98243
G01 X-4.33476 Y-2.97576
G01 X-4.33954 Y-2.96761
G01 X-4.34223 Y-2.95940
G01 X-4.34329 Y-2.95000
G01 X-4.34241 Y-2.94141
G01 X-4.33954 Y-2.93239
G01 X-4.33476 Y-2.92424
G01 X-4.32896 Y-2.91783
G01 X-4.31968 Y-2.91161
G01 X-4.31969 Y-2.86969
G01 X-4.42976 Y-2.86969
G01 X-4.43646 Y-2.87535
G01 X-4.44245 Y-2.87808
G01 X-4.44890 Y-2.87939
G01 X-4.45425 Y-2.87939
G01 X-4.46030 Y-2.87819
G01 X-4.46634 Y-2.87557
G01 X-4.47162 Y-2.87165
G01 X-4.47569 Y-2.86701
G01 X-4.47870 Y-2.86162
G01 X-4.48052 Y-2.85573
G01 X-4.48108 Y-2.85041
G01 X-4.48052 Y-2.84427
G01 X-4.47855 Y-2.83799
G01 X-4.47520 Y-2.83232
G01 X-4.47101 Y-2.82780
G01 X-4.46597 Y-2.82424
G01 X-4.46030 Y-2.82181
G01 X-4.45507 Y-2.82070
G01 X-4.44890 Y-2.82061
G01 X-4.44245 Y-2.82192
G01 X-4.43718 Y-2.82424
G01 X-4.43214 Y-2.82780
G01 X-4.42976 Y-2.83031
G01 X-4.30000 Y-2.83031
G01 X-4.29283 Y-2.83168
G01 X-4.28875 Y-2.83386
G01 X-4.28343 Y-2.83939
G01 X-4.28063 Y-2.84654
G01 X-4.28031 Y-2.90591
G01 X-4.03465 Y-3.15157
G01 X-3.44606 Y-3.15157
G01 X-3.43931 Y-3.14520
G01 X-3.43370 Y-3.14218
G01 X-3.42760 Y-3.14035
G01 X-3.42164 Y-3.13976
G01 X-3.37555 Y-3.13991
G01 X-3.36854 Y-3.14135
G01 X-3.36272 Y-3.14393
G01 X-3.35815 Y-3.14712
G01 X-3.35321 Y-3.15231
G01 X-3.35026 Y-3.15704
G01 X-3.34798 Y-3.16298
G01 X-3.34693 Y-3.16927
G01 X-3.34717 Y-3.17563
G01 X-3.34869 Y-3.18182
G01 X-3.35142 Y-3.18757
G01 X-3.35526 Y-3.19265
G01 X-3.36004 Y-3.19686
G01 X-3.36557 Y-3.20003
G01 X-3.37162 Y-3.20201
G01 X-3.37836 Y-3.20275
G01 X-3.42523 Y-3.20253
G01 X-3.43070 Y-3.20141
G01 X-3.43658 Y-3.19897
G01 X-3.44185 Y-3.19540
G01 X-3.44620 Y-3.19095
G04 P0 ( dwell for no time -- G64 should not smooth over this point )
G00 Z0.08000 ( retract )

G00 X-3.45127 Y-3.36024 ( rapid move to begin. )
G01 F180.00000
G01 Z-0.04000
G04 P0 ( dwell for no time -- G64 should not smooth over this point )
G01 F360.00000
G01 X-3.45127 Y-3.36024
G01 X-3.44402 Y-3.36576
G01 X-3.44067 Y-3.36755
G01 X-3.42720 Y-3.36959
G01 X-3.37839 Y-3.36980
G01 X-3.36300 Y-3.36834
G01 X-3.36201 Y-3.36817
G01 X-3.35582 Y-3.36359
G01 X-3.34956 Y-3.35799
G01 X-3.34396 Y-3.35183
G01 X-3.33742 Y-3.34271
G01 X-3.34218 Y-3.34959
G01 X-3.34765 Y-3.35603
G01 X-3.35366 Y-3.36178
G01 X-3.36201 Y-3.36817
G01 X-3.37697 Y-3.36976
G01 X-3.42448 Y-3.36973
G01 X-3.43277 Y-3.36902
G01 X-3.44067 Y-3.36755
G01 X-3.80863 Y-3.36755
G01 X-3.81875 Y-3.35743
G01 X-3.81875 Y-3.35512
G01 X-3.80953 Y-3.35481
G01 X-3.80385 Y-3.35246
G01 X-3.79950 Y-3.34812
G01 X-3.79715 Y-3.34244
G01 X-3.79685 Y-3.32474
G01 X-3.79926 Y-3.31190
G01 X-3.79996 Y-3.29868
G01 X-3.79926 Y-3.28810
G01 X-3.79685 Y-3.27526
G01 X-3.79926 Y-3.28810
G01 X-3.79996 Y-3.29868
G01 X-3.79926 Y-3.31190
G01 X-3.79685 Y-3.32474
G01 X-3.79300 Y-3.33124
G01 X-3.78428 Y-3.34053
G01 X-3.77657 Y-3.34603
G01 X-3.76483 Y-3.35097
G01 X-3.75556 Y-3.35286
G01 X-3.74444 Y-3.35286
G01 X-3.73204 Y-3.34996
G01 X-3.72343 Y-3.34603
G01 X-3.72076 Y-3.34420
G01 X-3.68206 Y-3.35833
G01 X-3.67808 Y-3.35946
G01 X-3.67126 Y-3.36024
G01 X-3.45127 Y-3.36024
G01 X-3.44958 Y-3.35630
G01 X-3.67229 Y-3.35625
G01 X-3.68071 Y-3.35463
G01 X-3.72138 Y-3.33978
G01 X-3.72539 Y-3.34262
G01 X-3.73364 Y-3.34636
G01 X-3.74486 Y-3.34894
G01 X-3.75514 Y-3.34894
G01 X-3.76636 Y-3.34636
G01 X-3.77461 Y-3.34262
G01 X-3.78197 Y-3.33735
G01 X-3.79049 Y-3.32789
G01 X-3.79540 Y-3.31886
G01 X-3.79814 Y-3.31023
G01 X-3.79915 Y-3.30123
G01 X-3.79833 Y-3.29099
G01 X-3.79440 Y-3.27888
G01 X-3.78981 Y-3.27107
G01 X-3.78380 Y-3.26430
G01 X-3.77350 Y-3.25682
G01 X-3.76401 Y-3.25288
G01 X-3.75514 Y-3.25106
G01 X-3.74363 Y-3.25125
G01 X-3.73364 Y-3.25364
G01 X-3.72539 Y-3.25738
G01 X-3.71803 Y-3.26265
G01 X-3.71019 Y-3.27107
G01 X-3.70560 Y-3.27888
G01 X-3.70235 Y-3.28805
G01 X-3.66639 Y-3.30118
G01 X-3.44969 Y-3.30118
G01 X-3.44509 Y-3.29716
G01 X-3.43825 Y-3.29309
G01 X-3.42840 Y-3.28999
G01 X-3.42162 Y-3.28937
G01 X-3.37552 Y-3.28951
G01 X-3.36544 Y-3.29159
G01 X-3.35823 Y-3.29495
G01 X-3.35365 Y-3.29814
G01 X-3.34653 Y-3.30562
G01 X-3.34358 Y-3.31036
G01 X-3.34059 Y-3.31773
G01 X-3.33903 Y-3.32794
G01 X-3.33967 Y-3.33587
G01 X-3.34107 Y-3.34127
G01 X-3.34436 Y-3.34852
G01 X-3.34903 Y-3.35495
G01 X-3.35687 Y-3.36169
G01 X-3.36394 Y-3.36533
G01 X-3.37160 Y-3.36748
G01 X-3.37715 Y-3.36805
G01 X-3.42448 Y-3.36797
G01 X-3.43456 Y-3.36589
G01 X-3.44177 Y-3.36253
G01 X-3.44958 Y-3.35630
G01 X-3.44789 Y-3.35236
G01 X-3.67195 Y-3.35233
G01 X-3.67936 Y-3.35093
G01 X-3.72200 Y-3.33537
G01 X-3.72736 Y-3.33921
G01 X-3.73680 Y-3.34327
G01 X-3.74527 Y-3.34503
G01 X-3.75555 Y-3.34490
G01 X-3.76476 Y-3.34276
G01 X-3.77264 Y-3.33921
G01 X-3.78088 Y-3.33306
G01 X-3.78663 Y-3.32661
G01 X-3.79165 Y-3.31765
G01 X-3.79428 Y-3.30941
G01 X-3.79523 Y-3.30082
G01 X-3.79428 Y-3.29059
G01 X-3.79165 Y-3.28235
G01 X-3.78708 Y-3.27408
G01 X-3.77965 Y-3.26584
G01 X-3.77264 Y-3.26079
G01 X-3.76319 Y-3.25673
G01 X-3.75473 Y-3.25497
G01 X-3.74527 Y-3.25497
G01 X-3.73680 Y-3.25673
G01 X-3.72810 Y-3.26042
G01 X-3.71912 Y-3.26694
G01 X-3.71337 Y-3.27339
G01 X-3.70901 Y-3.28085
G01 X-3.70564 Y-3.29104
G01 X-3.66708 Y-3.30512
G01 X-3.44799 Y-3.30511
G01 X-3.44122 Y-3.29924
G01 X-3.43488 Y-3.29590
G01 X-3.42800 Y-3.29391
G01 X-3.42163 Y-3.29331
G01 X-3.37553 Y-3.29345
G01 X-3.36699 Y-3.29521
G01 X-3.36047 Y-3.29818
G01 X-3.35590 Y-3.30137
G01 X-3.34987 Y-3.30771
G01 X-3.34692 Y-3.31244
G01 X-3.34428 Y-3.31910
G01 X-3.34304 Y-3.32615
G01 X-3.34324 Y-3.33331
G01 X-3.34543 Y-3.34178
G01 X-3.34789 Y-3.34679
G01 X-3.35215 Y-3.35255
G01 X-3.35878 Y-3.35824
G01 X-3.36512 Y-3.36158
G01 X-3.37044 Y-3.36325
G01 X-3.37755 Y-3.36413
G01 X-3.42447 Y-3.36403
G01 X-3.43301 Y-3.36227
G01 X-3.43953 Y-3.35930
G01 X-3.44410 Y-3.35611
G01 X-3.44789 Y-3.35236
G01 X-3.44620 Y-3.34843
G01 X-3.67160 Y-3.34841
G01 X-3.67801 Y-3.34723
G01 X-3.72262 Y-3.33095
G01 X-3.72933 Y-3.33580
G01 X-3.73762 Y-3.33942
G01 X-3.74568 Y-3.34111
G01 X-3.75473 Y-3.34105
G01 X-3.76316 Y-3.33917
G01 X-3.77067 Y-3.33580
G01 X-3.77734 Y-3.33098
G01 X-3.78344 Y-3.32430
G01 X-3.78791 Y-3.31643
G01 X-3.79043 Y-3.30859
G01 X-3.79132 Y-3.30041
G01 X-3.79043 Y-3.29141
G01 X-3.78791 Y-3.28357
G01 X-3.78367 Y-3.27605
G01 X-3.77734 Y-3.26902
G01 X-3.77067 Y-3.26420
G01 X-3.76238 Y-3.26058
G01 X-3.75432 Y-3.25889
G01 X-3.74568 Y-3.25889
G01 X-3.73762 Y-3.26058
G01 X-3.72970 Y-3.26401
G01 X-3.72205 Y-3.26957
G01 X-3.71656 Y-3.27570
G01 X-3.71242 Y-3.28282
G01 X-3.70967 Y-3.29101
G01 X-3.70928 Y-3.29390
G01 X-3.66778 Y-3.30905
G01 X-3.44606 Y-3.30905
G01 X-3.43931 Y-3.30268
G01 X-3.43370 Y-3.29966
G01 X-3.42760 Y-3.29783
G01 X-3.42164 Y-3.29724
G01 X-3.37555 Y-3.29739
G01 X-3.36854 Y-3.29883
G01 X-3.36272 Y-3.30141
G01 X-3.35815 Y-3.30460
G01 X-3.35321 Y-3.30979
G01 X-3.35026 Y-3.31452
G01 X-3.34798 Y-3.32046
G01 X-3.34693 Y-3.32675
G01 X-3.34717 Y-3.33311
G01 X-3.34869 Y-3.33930
G01 X-3.35142 Y-3.34505
G01 X-3.35526 Y-3.35014
G01 X-3.36004 Y-3.35435
G01 X-3.36557 Y-3.35751
G01 X-3.37162 Y-3.35949
G01 X-3.37836 Y-3.36023
G01 X-3.42523 Y-3.36001
G01 X-3.43070 Y-3.35889
G01 X-3.43658 Y-3.35645
G01 X-3.44185 Y-3.35288
G01 X-3.44620 Y-3.34843
G04 P0 ( dwell for no time -- G64 should not smooth over this point )
G00 Z0.08000 ( retract )

G00 X-3.98285 Y-2.91875 ( rapid move to begin. )
G01 F180.00000
G01 Z-0.04000
G04 P0 ( dwell for no time -- G64 should not smooth over this point )
G01 F360.00000
G01 X-3.98285 Y-2.91875
G01 X-4.07379 Y-2.82781
G01 X-4.07939 Y-2.82349
G01 X-4.08371 Y-2.81789
G01 X-4.13479 Y-2.76681
G01 X-4.14085 Y-2.76213
G01 X-4.14930 Y-2.75863
G01 X-4.15689 Y-2.75766
G01 X-4.64969 Y-2.75766
G01 X-4.65728 Y-2.75863
G01 X-4.66572 Y-2.76213
G01 X-4.67178 Y-2.76681
G01 X-4.79695 Y-2.89197
G01 X-4.80162 Y-2.89803
G01 X-4.80512 Y-2.90648
G01 X-4.80610 Y-2.91407
G01 X-4.80610 Y-2.98593
G01 X-4.80512 Y-2.99352
G01 X-4.80306 Y-2.99928
G01 X-4.79991 Y-3.00453
G01 X-4.79695 Y-3.00802
G01 X-4.61161 Y-3.19335
G01 X-4.60812 Y-3.19632
G01 X-4.60287 Y-3.19947
G01 X-4.59711 Y-3.20153
G01 X-4.59106 Y-3.20243
G01 X-4.55150 Y-3.20251
G01 X-4.54402 Y-3.20828
G01 X-4.53944 Y-3.21060
G01 X-4.46056 Y-3.21066
G01 X-4.45235 Y-3.20583
G01 X-4.44653 Y-3.20053
G01 X-4.44352 Y-3.19145
G01 X-4.44182 Y-3.18360
G01 X-4.44086 Y-3.16834
G01 X-4.44111 Y-3.17802
G01 X-4.44260 Y-3.18745
G04 P0 ( dwell for no time -- G64 should not smooth over this point )
G00 Z0.08000 ( retract )

G00 X-4.44260 Y-3.18745 ( rapid move to begin. )
G01 F180.00000
G01 Z-0.04000
G04 P0 ( dwell for no time -- G64 should not smooth over this point )
G01 F360.00000
G01 X-4.44260 Y-3.18745
G01 X-4.44562 Y-3.19306
G01 X-4.44903 Y-3.19747
G01 X-4.45687 Y-3.20420
G01 X-4.46394 Y-3.20785
G01 X-4.47160 Y-3.21000
G01 X-4.47715 Y-3.21057
G01 X-4.52682 Y-3.21025
G01 X-4.53228 Y-3.20912
G01 X-4.53968 Y-3.20621
G01 X-4.54635 Y-3.20186
G01 X-4.54981 Y-3.19857
G01 X-4.59068 Y-3.19851
G01 X-4.59597 Y-3.19776
G01 X-4.60102 Y-3.19599
G01 X-4.60883 Y-3.19057
G01 X-4.79416 Y-3.00524
G01 X-4.79959 Y-2.99743
G01 X-4.80135 Y-2.99238
G01 X-4.80216 Y-2.98593
G01 X-4.80216 Y-2.91407
G01 X-4.80135 Y-2.90762
G01 X-4.79815 Y-2.89989
G01 X-4.79416 Y-2.89476
G01 X-4.66900 Y-2.76960
G01 X-4.66119 Y-2.76417
G01 X-4.65614 Y-2.76240
G01 X-4.64969 Y-2.76160
G01 X-4.15689 Y-2.76160
G01 X-4.15044 Y-2.76240
G01 X-4.14271 Y-2.76560
G01 X-4.13758 Y-2.76960
G01 X-3.98449 Y-2.92269
G01 X-3.98612 Y-2.92663
G01 X-3.69078 Y-2.92663
G01 X-3.68769 Y-2.92160
G01 X-3.68218 Y-2.91549
G01 X-3.67361 Y-2.90910
G01 X-3.66459 Y-2.90509
G01 X-3.65411 Y-2.90299
G01 X-3.64425 Y-2.90316
G01 X-3.63620 Y-2.90487
G01 X-3.62639 Y-2.90910
G01 X-3.61782 Y-2.91549
G01 X-3.61231 Y-2.92160
G01 X-3.60921 Y-2.92663
G01 X-3.60811 Y-2.92663
G01 X-3.53185 Y-2.85036
G01 X-3.53094 Y-2.84225
G01 X-3.52862 Y-2.83565
G01 X-3.52498 Y-2.82969
G01 X-3.52140 Y-2.82571
G01 X-3.51516 Y-2.82102
G01 X-3.50876 Y-2.81817
G01 X-3.50110 Y-2.81668
G01 X-3.49411 Y-2.81685
G01 X-3.48888 Y-2.81796
G01 X-3.48243 Y-2.82064
G01 X-3.47545 Y-2.82571
G01 X-3.47090 Y-2.83102
G01 X-3.46785 Y-2.83639
G01 X-3.46556 Y-2.84386
G01 X-3.46500 Y-2.84918
G01 X-3.46556 Y-2.85614
G01 X-3.46756 Y-2.86284
G01 X-3.47090 Y-2.86898
G01 X-3.47545 Y-2.87428
G01 X-3.48169 Y-2.87898
G01 X-3.48732 Y-2.88153
G01 X-3.49411 Y-2.88315
G01 X-3.49869 Y-2.88332
G01 X-3.58482 Y-2.96897
G01 X-3.59021 Y-2.97186
G01 X-3.59463 Y-2.97304
G01 X-3.60921 Y-2.97337
G01 X-3.61231 Y-2.97840
G01 X-3.61840 Y-2.98509
G01 X-3.62639 Y-2.99090
G01 X-3.63464 Y-2.99462
G01 X-3.64425 Y-2.99683
G01 X-3.65411 Y-2.99701
G01 X-3.66379 Y-2.99512
G01 X-3.67361 Y-2.99090
G01 X-3.68218 Y-2.98451
G01 X-3.68769 Y-2.97840
G01 X-3.69078 Y-2.97337
G01 X-3.99580 Y-2.97337
G01 X-4.00402 Y-2.97186
G01 X-4.00812 Y-2.96983
G01 X-4.01233 Y-2.96653
G01 X-4.16657 Y-2.81228
G01 X-4.64000 Y-2.81228
G01 X-4.75148 Y-2.92375
G01 X-4.75148 Y-2.97625
G01 X-4.57984 Y-3.14789
G01 X-4.54819 Y-3.14789
G01 X-4.54252 Y-3.14267
G01 X-4.53634 Y-3.13905
G01 X-4.52956 Y-3.13675
G01 X-4.52163 Y-3.13583
G01 X-4.47397 Y-3.13613
G01 X-4.46699 Y-3.13773
G01 X-4.46047 Y-3.14070
G01 X-4.45590 Y-3.14389
G01 X-4.44987 Y-3.15022
G01 X-4.44692 Y-3.15496
G01 X-4.44428 Y-3.16162
G01 X-4.44304 Y-3.16867
G01 X-4.44348 Y-3.17741
G01 X-4.44543 Y-3.18430
G01 X-4.44789 Y-3.18930
G01 X-4.45324 Y-3.19622
G01 X-4.45878 Y-3.20076
G01 X-4.46366 Y-3.20347
G01 X-4.47200 Y-3.20609
G01 X-4.47837 Y-3.20669
G01 X-4.52602 Y-3.20639
G01 X-4.53301 Y-3.20479
G01 X-4.53813 Y-3.20259
G01 X-4.54410 Y-3.19863
G01 X-4.54812 Y-3.19463
G01 X-4.59029 Y-3.19460
G01 X-4.59773 Y-3.19311
G01 X-4.60312 Y-3.19023
G01 X-4.79138 Y-3.00245
G01 X-4.79611 Y-2.99557
G01 X-4.79759 Y-2.99124
G01 X-4.79819 Y-2.98670
G01 X-4.79822 Y-2.91407
G01 X-4.79759 Y-2.90876
G01 X-4.79468 Y-2.90175
G01 X-4.79138 Y-2.89754
G01 X-4.66621 Y-2.77238
G01 X-4.65933 Y-2.76764
G01 X-4.65348 Y-2.76587
G01 X-4.15689 Y-2.76553
G01 X-4.15158 Y-2.76617
G01 X-4.14457 Y-2.76908
G01 X-4.14036 Y-2.77238
G01 X-3.98612 Y-2.92663
G01 X-3.98775 Y-2.93056
G01 X-3.68851 Y-2.93056
G01 X-3.68476 Y-2.92424
G01 X-3.67925 Y-2.91812
G01 X-3.67199 Y-2.91274
G01 X-3.66337 Y-2.90883
G01 X-3.65411 Y-2.90693
G01 X-3.64507 Y-2.90701
G01 X-3.63624 Y-2.90898
G01 X-3.62872 Y-2.91233
G01 X-3.62074 Y-2.91812
G01 X-3.61524 Y-2.92424
G01 X-3.61149 Y-2.93056
G01 X-3.60648 Y-2.93056
G01 X-3.52778 Y-2.85186
G01 X-3.52737 Y-2.84427
G01 X-3.52521 Y-2.83762
G01 X-3.52254 Y-2.83299
G01 X-3.51847 Y-2.82835
G01 X-3.51319 Y-2.82443
G01 X-3.50755 Y-2.82192
G01 X-3.50110 Y-2.82061
G01 X-3.49493 Y-2.82070
G01 X-3.48970 Y-2.82181
G01 X-3.48403 Y-2.82424
G01 X-3.47838 Y-2.82835
G01 X-3.47431 Y-2.83299
G01 X-3.47145 Y-2.83799
G01 X-3.46948 Y-2.84427
G01 X-3.46892 Y-2.84959
G01 X-3.46948 Y-2.85573
G01 X-3.47130 Y-2.86162
G01 X-3.47431 Y-2.86701
G01 X-3.47838 Y-2.87165
G01 X-3.48366 Y-2.87557
G01 X-3.48930 Y-2.87808
G01 X-3.49493 Y-2.87930
G01 X-3.50032 Y-2.87939
G01 X-3.58731 Y-2.96593
G01 X-3.59135 Y-2.96809
G01 X-3.59501 Y-2.96912
G01 X-3.61149 Y-2.96944
G01 X-3.61524 Y-2.97576
G01 X-3.62074 Y-2.98188
G01 X-3.62836 Y-2.98749
G01 X-3.63702 Y-2.99127
G01 X-3.64589 Y-2.99307
G01 X-3.65411 Y-2.99307
G01 X-3.66376 Y-2.99102
G01 X-3.67199 Y-2.98726
G01 X-3.67925 Y-2.98188
G01 X-3.68476 Y-2.97576
G01 X-3.68851 Y-2.96944
G01 X-3.99580 Y-2.96944
G01 X-4.00287 Y-2.96809
G01 X-4.00627 Y-2.96636
G01 X-4.00954 Y-2.96374
G01 X-4.16494 Y-2.80834
G01 X-4.64163 Y-2.80835
G01 X-4.75541 Y-2.92212
G01 X-4.75541 Y-2.97788
G01 X-4.58147 Y-3.15182
G01 X-4.54626 Y-3.15182
G01 X-4.53996 Y-3.14565
G01 X-4.53443 Y-3.14249
G01 X-4.52838 Y-3.14051
G01 X-4.52164 Y-3.13976
G01 X-4.47477 Y-3.13998
G01 X-4.46854 Y-3.14135
G01 X-4.46272 Y-3.14393
G01 X-4.45815 Y-3.14712
G01 X-4.45321 Y-3.15231
G01 X-4.45026 Y-3.15704
G01 X-4.44798 Y-3.16298
G01 X-4.44693 Y-3.16927
G01 X-4.44729 Y-3.17642
G01 X-4.44869 Y-3.18182
G01 X-4.45143 Y-3.18757
G01 X-4.45581 Y-3.19323
G01 X-4.46004 Y-3.19686
G01 X-4.46557 Y-3.20003
G01 X-4.47240 Y-3.20217
G01 X-4.47836 Y-3.20275
G01 X-4.52523 Y-3.20253
G01 X-4.53146 Y-3.20117
G01 X-4.53728 Y-3.19859
G01 X-4.54246 Y-3.19488
G01 X-4.54641 Y-3.19069
G01 X-4.58990 Y-3.19068
G01 X-4.59659 Y-3.18935
G01 X-4.60063 Y-3.18719
G01 X-4.78859 Y-2.99967
G01 X-4.79264 Y-2.99371
G01 X-4.79427 Y-2.98631
G01 X-4.79429 Y-2.91407
G01 X-4.79382 Y-2.90990
G01 X-4.79121 Y-2.90360
G01 X-4.78859 Y-2.90033
G01 X-4.66343 Y-2.77516
G01 X-4.65747 Y-2.77112
G01 X-4.65007 Y-2.76949
G01 X-4.15689 Y-2.76947
G01 X-4.15272 Y-2.76994
G01 X-4.14642 Y-2.77255
G01 X-4.14314 Y-2.77516
G01 X-3.98775 Y-2.93056
G04 P0 ( dwell for no time -- G64 should not smooth over this point )
G00 Z0.08000 ( retract )

G00 X-4.20294 Y-3.29724 ( rapid move to begin. )
G01 F180.00000
G01 Z-0.04000
G04 P0 ( dwell for no time -- G64 should not smooth over this point )
G01 F360.00000
G01 X-4.20294 Y-3.29724
G01 X-4.44873 Y-3.29724
G01 X-4.45598 Y-3.29172
G01 X-4.46056 Y-3.28940
G01 X-4.45496 Y-3.28639
G01 X-4.44848 Y-3.28125
G01 X-4.41824 Y-3.28117
G01 X-4.41219 Y-3.28027
G01 X-4.40643 Y-3.27821
G01 X-4.39883 Y-3.27313
G01 X-4.39215 Y-3.26645
G01 X-4.38851 Y-3.26153
G01 X-4.38501 Y-3.25309
G01 X-4.38404 Y-3.24550
G01 X-4.38441 Y-3.03674
G01 X-4.38708 Y-3.02794
G01 X-4.39022 Y-3.02270
G01 X-4.39319 Y-3.01921
G01 X-4.51875 Y-2.89364
G01 X-4.51875 Y-2.89025
G01 X-4.51566 Y-2.88868
G01 X-4.51132 Y-2.88434
G01 X-4.50986 Y-2.88162
G01 X-4.50866 Y-2.87559
G01 X-4.50896 Y-2.82134
G01 X-4.50941 Y-2.82003
G01 X-4.51578 Y-2.81639
G01 X-4.51350 Y-2.81989
G01 X-4.51260 Y-2.82441
G01 X-4.51260 Y-2.87559
G01 X-4.51350 Y-2.88011
G01 X-4.51606 Y-2.88394
G01 X-4.51989 Y-2.88650
G01 X-4.52269 Y-2.88723
G01 X-4.52269 Y-2.89528
G01 X-4.39597 Y-3.02199
G01 X-4.39198 Y-3.02712
G01 X-4.38878 Y-3.03485
G01 X-4.38798 Y-3.04130
G01 X-4.38798 Y-3.24550
G01 X-4.38966 Y-3.25486
G01 X-4.39327 Y-3.26160
G01 X-4.40368 Y-3.27201
G01 X-4.41042 Y-3.27562
G01 X-4.41979 Y-3.27731
G01 X-4.45007 Y-3.27731
G01 X-4.45491 Y-3.28158
G01 X-4.46175 Y-3.28565
G01 X-4.47160 Y-3.28874
G01 X-4.47838 Y-3.28937
G01 X-4.52682 Y-3.28899
G01 X-4.53228 Y-3.28786
G01 X-4.53968 Y-3.28495
G01 X-4.54816 Y-3.27905
G01 X-4.55347 Y-3.27312
G01 X-4.55642 Y-3.26838
G01 X-4.55941 Y-3.26101
G01 X-4.56097 Y-3.25080
G01 X-4.56033 Y-3.24287
G01 X-4.55810 Y-3.23523
G01 X-4.55564 Y-3.23022
G01 X-4.55097 Y-3.22378
G01 X-4.54509 Y-3.21842
G01 X-4.53825 Y-3.21435
G01 X-4.53073 Y-3.21174
G01 X-4.52162 Y-3.21063
G01 X-4.47318 Y-3.21101
G01 X-4.46772 Y-3.21213
G01 X-4.46031 Y-3.21505
G01 X-4.45365 Y-3.21940
G01 X-4.45019 Y-3.22269
G01 X-4.44260 Y-3.22269
G01 X-4.44260 Y-3.18745
G01 X-4.44653 Y-3.20053
G01 X-4.44653 Y-3.21875
G01 X-4.44850 Y-3.21875
G01 X-4.45598 Y-3.21298
G01 X-4.46056 Y-3.21066
G01 X-4.53944 Y-3.21060
G01 X-4.54504 Y-3.21361
G01 X-4.55188 Y-3.21906
G01 X-4.55918 Y-3.22849
G01 X-4.56274 Y-3.23648
G01 X-4.56462 Y-3.24503
G01 X-4.56474 Y-3.25378
G01 X-4.56310 Y-3.26238
G01 X-4.55976 Y-3.27047
G01 X-4.55486 Y-3.27772
G01 X-4.54860 Y-3.28383
G01 X-4.53944 Y-3.28934
G01 X-4.46056 Y-3.28940
G01 X-4.53944 Y-3.28934
G01 X-4.54765 Y-3.29417
G01 X-4.55408 Y-3.30011
G01 X-4.55918 Y-3.30723
G01 X-4.56163 Y-3.31223
G01 X-4.56414 Y-3.32062
G01 X-4.56474 Y-3.33252
G01 X-4.56310 Y-3.34112
G01 X-4.56116 Y-3.34635
G01 X-4.55681 Y-3.35394
G01 X-4.55102 Y-3.36050
G01 X-4.54124 Y-3.36731
G01 X-4.53307 Y-3.37046
G01 X-4.52449 Y-3.37190
G01 X-4.47839 Y-3.37205
G01 X-4.47120 Y-3.37140
G01 X-4.45984 Y-3.36783
G01 X-4.45496 Y-3.36513
G01 X-4.44877 Y-3.36024
G01 X-4.17412 Y-3.35986
G01 X-4.16529 Y-3.35718
G01 X-4.15806 Y-3.35241
G01 X-4.14444 Y-3.35286
G01 X-4.13204 Y-3.34996
G01 X-4.12343 Y-3.34603
G01 X-4.11572 Y-3.34053
G01 X-4.10700 Y-3.33124
G01 X-4.10315 Y-3.32474
G01 X-4.10074 Y-3.31190
G01 X-4.10003 Y-3.30132
G01 X-4.10074 Y-3.31190
G01 X-4.10315 Y-3.32474
G01 X-4.10285 Y-3.34244
G01 X-4.10195 Y-3.34540
G01 X-4.09854 Y-3.35051
G01 X-4.09343 Y-3.35392
G01 X-4.09047 Y-3.35481
G01 X-4.00953 Y-3.35481
G01 X-4.00385 Y-3.35246
G01 X-3.99951 Y-3.34812
G01 X-3.99715 Y-3.34244
G01 X-3.99685 Y-3.33125
G01 X-3.90315 Y-3.33125
G01 X-3.90285 Y-3.34244
G01 X-3.90195 Y-3.34540
G01 X-3.89854 Y-3.35051
G01 X-3.89343 Y-3.35392
G01 X-3.89047 Y-3.35481
G01 X-3.88125 Y-3.35512
G01 X-3.88087 Y-3.37494
G01 X-3.87939 Y-3.38087
G01 X-3.87506 Y-3.38897
G01 X-3.84252 Y-3.42193
G01 X-3.83493 Y-3.42701
G01 X-3.82614 Y-3.42967
G01 X-3.34476 Y-3.42967
G01 X-3.33597 Y-3.42701
G01 X-3.33073 Y-3.42386
G01 X-3.32723 Y-3.42089
G01 X-3.14605 Y-3.23972
G01 X-3.14309 Y-3.23622
G01 X-3.13994 Y-3.23098
G01 X-3.13727 Y-3.22218
G01 X-3.13727 Y-2.80615
G01 X-3.13994 Y-2.79735
G01 X-3.14501 Y-2.78976
G01 X-3.18976 Y-2.74501
G01 X-3.19467 Y-2.74137
G01 X-3.20021 Y-2.73876
G01 X-3.20615 Y-2.73727
G01 X-3.21071 Y-2.73690
G01 X-3.56000 Y-2.73690
G01 X-3.69415 Y-2.60286
G01 X-3.70174 Y-2.59779
G01 X-3.70750 Y-2.59573
G01 X-3.71510 Y-2.59475
G01 X-3.73035 Y-2.59475
G01 X-3.73065 Y-2.55403
G01 X-3.73301 Y-2.54835
G01 X-3.73735 Y-2.54401
G01 X-3.74303 Y-2.54165
G01 X-3.74610 Y-2.54135
G01 X-3.85545 Y-2.54135
G01 X-3.91100 Y-2.48580
G01 X-3.91535 Y-2.48227
G01 X-3.91565 Y-2.43593
G01 X-3.91610 Y-2.43462
G01 X-3.92110 Y-2.43150
G01 X-3.92610 Y-2.42962
G01 X-3.92294 Y-2.43081
G01 X-3.92610 Y-2.42962
G01 X-3.93110 Y-2.42900
G01 X-4.06890 Y-2.42900
G01 X-4.07390 Y-2.42962
G01 X-4.07706 Y-2.43081
G04 P0 ( dwell for no time -- G64 should not smooth over this point )
G00 Z0.08000 ( retract )

G00 X-4.14218 Y-2.43081 ( rapid move to begin. )
G01 F180.00000
G01 Z-0.04000
G04 P0 ( dwell for no time -- G64 should not smooth over this point )
G01 F360.00000
G01 X-4.14218 Y-2.43081
G01 X-4.07706 Y-2.43081
G04 P0 ( dwell for no time -- G64 should not smooth over this point )
G00 Z0.08000 ( retract )

G00 X-4.14218 Y-2.43081 ( rapid move to begin. )
G01 F180.00000
G01 Z-0.04000
G04 P0 ( dwell for no time -- G64 should not smooth over this point )
G01 F360.00000
G01 X-4.14218 Y-2.43081
G01 X-4.25015 Y-2.53877
G01 X-4.24935 Y-2.54451
G01 X-4.01159 Y-2.66339
G01 X-3.93110 Y-2.66339
G01 X-3.92658 Y-2.66429
G01 X-3.92275 Y-2.66685
G01 X-3.92019 Y-2.67068
G01 X-3.91929 Y-2.67520
G01 X-3.91929 Y-2.81300
G01 X-3.91952 Y-2.81530
G01 X-3.92128 Y-2.81956
G01 X-3.92454 Y-2.82282
G01 X-3.92880 Y-2.82458
G01 X-3.93110 Y-2.82481
G01 X-4.06890 Y-2.82481
G01 X-4.07120 Y-2.82458
G01 X-4.07546 Y-2.82282
G01 X-4.07872 Y-2.81956
G01 X-4.08048 Y-2.81530
G01 X-4.08071 Y-2.81300
G01 X-4.08071 Y-2.69046
G01 X-4.27381 Y-2.59391
G01 X-4.28419 Y-2.59866
G01 X-4.29343 Y-2.60069
G01 X-4.30411 Y-2.60094
G01 X-4.31461 Y-2.59898
G01 X-4.32558 Y-2.59431
G01 X-4.33327 Y-2.58880
G01 X-4.34061 Y-2.58103
G01 X-4.34290 Y-2.57756
G01 X-4.65710 Y-2.57756
G01 X-4.65939 Y-2.58103
G01 X-4.66577 Y-2.58802
G01 X-4.67552 Y-2.59487
G01 X-4.68539 Y-2.59898
G01 X-4.69589 Y-2.60094
G01 X-4.70411 Y-2.60094
G01 X-4.71696 Y-2.59821
G01 X-4.72558 Y-2.59431
G01 X-4.73327 Y-2.58880
G01 X-4.74206 Y-2.57904
G01 X-4.74674 Y-2.57081
G01 X-4.74972 Y-2.56183
G01 X-4.75116 Y-2.55000
G01 X-4.75024 Y-2.54058
G01 X-4.74674 Y-2.52919
G01 X-4.74206 Y-2.52096
G01 X-4.73423 Y-2.51198
G01 X-4.72558 Y-2.50569
G01 X-4.71581 Y-2.50134
G01 X-4.70411 Y-2.49905
G01 X-4.69343 Y-2.49931
G01 X-4.68304 Y-2.50178
G01 X-4.67552 Y-2.50513
G01 X-4.66489 Y-2.51286
G01 X-4.65939 Y-2.51897
G01 X-4.65710 Y-2.52244
G01 X-4.34290 Y-2.52244
G01 X-4.34061 Y-2.51897
G01 X-4.33327 Y-2.51120
G01 X-4.32558 Y-2.50569
G01 X-4.31696 Y-2.50179
G01 X-4.30411 Y-2.49905
G01 X-4.29589 Y-2.49905
G01 X-4.28890 Y-2.50028
G01 X-4.17281 Y-2.38419
G01 X-4.16500 Y-2.37876
G01 X-4.15768 Y-2.37654
G01 X-3.79232 Y-2.37654
G01 X-3.78500 Y-2.37876
G01 X-3.77719 Y-2.38419
G01 X-3.66110 Y-2.50027
G01 X-3.65411 Y-2.49905
G01 X-3.64589 Y-2.49905
G01 X-3.63304 Y-2.50178
G01 X-3.62442 Y-2.50569
G01 X-3.61673 Y-2.51120
G01 X-3.60939 Y-2.51897
G01 X-3.60710 Y-2.52244
G01 X-3.29290 Y-2.52244
G01 X-3.29061 Y-2.51897
G01 X-3.28327 Y-2.51120
G01 X-3.27558 Y-2.50569
G01 X-3.26461 Y-2.50102
G01 X-3.25411 Y-2.49905
G01 X-3.24343 Y-2.49931
G01 X-3.23304 Y-2.50178
G01 X-3.22338 Y-2.50637
G01 X-3.21673 Y-2.51120
G01 X-3.20939 Y-2.51897
G01 X-3.20326 Y-2.52919
G01 X-3.19976 Y-2.54058
G01 X-3.19884 Y-2.55000
G01 X-3.19976 Y-2.55941
G01 X-3.20382 Y-2.57191
G01 X-3.20794 Y-2.57904
G01 X-3.21489 Y-2.58714
G01 X-3.22442 Y-2.59431
G01 X-3.23538 Y-2.59898
G01 X-3.24589 Y-2.60094
G01 X-3.25411 Y-2.60094
G01 X-3.26696 Y-2.59821
G01 X-3.27558 Y-2.59431
G01 X-3.28327 Y-2.58880
G01 X-3.29061 Y-2.58103
G01 X-3.29290 Y-2.57756
G01 X-3.60710 Y-2.57756
G01 X-3.60939 Y-2.58103
G01 X-3.61577 Y-2.58802
G01 X-3.62552 Y-2.59487
G01 X-3.63419 Y-2.59866
G01 X-3.64343 Y-2.60069
G01 X-3.65657 Y-2.60069
G01 X-3.66696 Y-2.59821
G01 X-3.67558 Y-2.59431
G01 X-3.68327 Y-2.58880
G01 X-3.69061 Y-2.58103
G01 X-3.69674 Y-2.57081
G01 X-3.69972 Y-2.56183
G01 X-3.70116 Y-2.55000
G01 X-3.69988 Y-2.53874
G01 X-3.80781 Y-2.43081
G01 X-3.92294 Y-2.43081
G01 X-3.92019 Y-2.43448
G01 X-3.91929 Y-2.43900
G01 X-3.91929 Y-2.48440
G01 X-3.91379 Y-2.48859
G01 X-3.85709 Y-2.54529
G01 X-3.74610 Y-2.54529
G01 X-3.74379 Y-2.54551
G01 X-3.73954 Y-2.54728
G01 X-3.73628 Y-2.55054
G01 X-3.73452 Y-2.55479
G01 X-3.73429 Y-2.59869
G01 X-3.71092 Y-2.59904
G01 X-3.70360 Y-2.60126
G01 X-3.69665 Y-2.60591
G01 X-3.56164 Y-2.74084
G01 X-3.56327 Y-2.74477
G01 X-3.20692 Y-2.74511
G01 X-3.20107 Y-2.74688
G01 X-3.19475 Y-2.75110
G01 X-3.15162 Y-2.79418
G01 X-3.14688 Y-2.80107
G01 X-3.14541 Y-2.80540
G01 X-3.14481 Y-2.80994
G01 X-3.14478 Y-3.21762
G01 X-3.14629 Y-3.22584
G01 X-3.14832 Y-3.22994
G01 X-3.15162 Y-3.23415
G01 X-3.33280 Y-3.41533
G01 X-3.33700 Y-3.41863
G01 X-3.34402 Y-3.42154
G01 X-3.34933 Y-3.42217
G01 X-3.82234 Y-3.42213
G01 X-3.82979 Y-3.42065
G01 X-3.83518 Y-3.41777
G01 X-3.86897 Y-3.38398
G01 X-3.87186 Y-3.37859
G01 X-3.87304 Y-3.37417
G01 X-3.87337 Y-3.34724
G01 X-3.88894 Y-3.34709
G01 X-3.89297 Y-3.34494
G01 X-3.89512 Y-3.34091
G01 X-3.89527 Y-3.32337
G01 X-4.00472 Y-3.32337
G01 X-4.00488 Y-3.34091
G01 X-4.00703 Y-3.34494
G01 X-4.01106 Y-3.34709
G01 X-4.08740 Y-3.34724
G01 X-4.09178 Y-3.34592
G01 X-4.09467 Y-3.34238
G01 X-4.09527 Y-3.33937
G01 X-4.09527 Y-3.26063
G01 X-4.09395 Y-3.25625
G01 X-4.09041 Y-3.25335
G01 X-4.08740 Y-3.25276
G01 X-4.01106 Y-3.25291
G01 X-4.00703 Y-3.25506
G01 X-4.00488 Y-3.25909
G01 X-4.00472 Y-3.27663
G01 X-3.89527 Y-3.27663
G01 X-3.89512 Y-3.25909
G01 X-3.89297 Y-3.25506
G01 X-3.88894 Y-3.25291
G01 X-3.81260 Y-3.25276
G01 X-3.80959 Y-3.25335
G01 X-3.80703 Y-3.25506
G01 X-3.80532 Y-3.25762
G01 X-3.80472 Y-3.26063
G01 X-3.80488 Y-3.34091
G01 X-3.80703 Y-3.34494
G01 X-3.81106 Y-3.34709
G01 X-3.82663 Y-3.34724
G01 X-3.82663 Y-3.36069
G01 X-3.81189 Y-3.37542
G01 X-3.35901 Y-3.37542
G01 X-3.19152 Y-3.20794
G01 X-3.19152 Y-2.82039
G01 X-3.22039 Y-2.79152
G01 X-3.57295 Y-2.79152
G01 X-3.57826 Y-2.79089
G01 X-3.58527 Y-2.78798
G01 X-3.58948 Y-2.78468
G01 X-3.72478 Y-2.64937
G01 X-3.73823 Y-2.64937
G01 X-3.73823 Y-2.69490
G01 X-3.73955 Y-2.69927
G01 X-3.74309 Y-2.70217
G01 X-3.74610 Y-2.70277
G01 X-3.88390 Y-2.70277
G01 X-3.88691 Y-2.70217
G01 X-3.89045 Y-2.69927
G01 X-3.89177 Y-2.69490
G01 X-3.89177 Y-2.58228
G01 X-3.92323 Y-2.55083
G01 X-3.92338 Y-2.57834
G01 X-3.92553 Y-2.58237
G01 X-3.92956 Y-2.58452
G01 X-4.06890 Y-2.58467
G01 X-4.07191 Y-2.58407
G01 X-4.07545 Y-2.58117
G01 X-4.07677 Y-2.57680
G01 X-4.07677 Y-2.43900
G01 X-4.07617 Y-2.43599
G01 X-4.07447 Y-2.43343
G01 X-4.07044 Y-2.43128
G01 X-3.93110 Y-2.43113
G01 X-3.92672 Y-2.43245
G01 X-3.92382 Y-2.43599
G01 X-3.92323 Y-2.43900
G01 X-3.92322 Y-2.48676
G01 X-3.91657 Y-2.49137
G01 X-3.85872 Y-2.54923
G01 X-3.74610 Y-2.54923
G01 X-3.74173 Y-2.55055
G01 X-3.73882 Y-2.55409
G01 X-3.73823 Y-2.55710
G01 X-3.73823 Y-2.60263
G01 X-3.71131 Y-2.60296
G01 X-3.70546 Y-2.60473
G01 X-3.69914 Y-2.60895
G01 X-3.56327 Y-2.74477
G01 X-3.56490 Y-2.74871
G01 X-3.21071 Y-2.74871
G01 X-3.20364 Y-2.75006
G01 X-3.19725 Y-2.75414
G01 X-3.15414 Y-2.79725
G01 X-3.15006 Y-2.80364
G01 X-3.14873 Y-2.81033
G01 X-3.14871 Y-3.21762
G01 X-3.15006 Y-3.22470
G01 X-3.15414 Y-3.23108
G01 X-3.33558 Y-3.41254
G01 X-3.34154 Y-3.41659
G01 X-3.34592 Y-3.41792
G01 X-3.82498 Y-3.41792
G01 X-3.82936 Y-3.41659
G01 X-3.83503 Y-3.41280
G01 X-3.86593 Y-3.38148
G01 X-3.86809 Y-3.37744
G01 X-3.86942 Y-3.37076
G01 X-3.86944 Y-3.34331
G01 X-3.88740 Y-3.34331
G01 X-3.89018 Y-3.34215
G01 X-3.89134 Y-3.33937
G01 X-3.89134 Y-3.31944
G01 X-4.00866 Y-3.31944
G01 X-4.00874 Y-3.34014
G01 X-4.00981 Y-3.34215
G01 X-4.01183 Y-3.34323
G01 X-4.08740 Y-3.34331
G01 X-4.09018 Y-3.34215
G01 X-4.09134 Y-3.33937
G01 X-4.09134 Y-3.26063
G01 X-4.09067 Y-3.25844
G01 X-4.08891 Y-3.25699
G01 X-4.01183 Y-3.25677
G01 X-4.00981 Y-3.25785
G01 X-4.00874 Y-3.25986
G01 X-4.00866 Y-3.28056
G01 X-3.89134 Y-3.28056
G01 X-3.89126 Y-3.25986
G01 X-3.89018 Y-3.25785
G01 X-3.88817 Y-3.25677
G01 X-3.81260 Y-3.25669
G01 X-3.80981 Y-3.25785
G01 X-3.80866 Y-3.26063
G01 X-3.80874 Y-3.34014
G01 X-3.80981 Y-3.34215
G01 X-3.81183 Y-3.34323
G01 X-3.83056 Y-3.34331
G01 X-3.83056 Y-3.36232
G01 X-3.81352 Y-3.37936
G01 X-3.35738 Y-3.37936
G01 X-3.18758 Y-3.20957
G01 X-3.18758 Y-2.81876
G01 X-3.21876 Y-2.78758
G01 X-3.57295 Y-2.78758
G01 X-3.57712 Y-2.78712
G01 X-3.58342 Y-2.78451
G01 X-3.58669 Y-2.78189
G01 X-3.72315 Y-2.64544
G01 X-3.74216 Y-2.64544
G01 X-3.74216 Y-2.69490
G01 X-3.74283 Y-2.69709
G01 X-3.74459 Y-2.69854
G01 X-3.88541 Y-2.69854
G01 X-3.88717 Y-2.69709
G01 X-3.88784 Y-2.69490
G01 X-3.88784 Y-2.58065
G01 X-3.92716 Y-2.54132
G01 X-3.92716 Y-2.57680
G01 X-3.92783 Y-2.57899
G01 X-3.93033 Y-2.58066
G01 X-4.06890 Y-2.58074
G01 X-4.07109 Y-2.58007
G01 X-4.07217 Y-2.57899
G01 X-4.07284 Y-2.57680
G01 X-4.07284 Y-2.43900
G01 X-4.07217 Y-2.43681
G01 X-4.07041 Y-2.43536
G01 X-4.06890 Y-2.43506
G01 X-3.93110 Y-2.43506
G01 X-3.92891 Y-2.43573
G01 X-3.92746 Y-2.43749
G01 X-3.92716 Y-2.43900
G01 X-3.92716 Y-2.48947
G01 X-3.92263 Y-2.49154
G01 X-3.91935 Y-2.49416
G01 X-3.86035 Y-2.55316
G01 X-3.74610 Y-2.55316
G01 X-3.74391 Y-2.55383
G01 X-3.74246 Y-2.55559
G01 X-3.74216 Y-2.55710
G01 X-3.74216 Y-2.60656
G01 X-3.71471 Y-2.60658
G01 X-3.70803 Y-2.60791
G01 X-3.70399 Y-2.61007
G01 X-3.56490 Y-2.74871
G04 P0 ( dwell for no time -- G64 should not smooth over this point )
G00 Z0.08000 ( retract )

G00 X-3.56000 Y-2.73690 ( rapid move to begin. )
G01 F180.00000
G01 Z-0.04000
G04 P0 ( dwell for no time -- G64 should not smooth over this point )
G01 F360.00000
G01 X-3.56000 Y-2.73690
G01 X-3.56164 Y-2.74084
G01 X-3.20653 Y-2.74119
G01 X-3.19921 Y-2.74341
G01 X-3.19226 Y-2.74806
G01 X-3.14806 Y-2.79226
G01 X-3.14485 Y-2.79653
G01 X-3.14253 Y-2.80135
G01 X-3.14084 Y-2.81071
G01 X-3.14084 Y-3.21762
G01 X-3.14253 Y-3.22698
G01 X-3.14485 Y-3.23180
G01 X-3.14884 Y-3.23693
G01 X-3.33001 Y-3.41811
G01 X-3.33514 Y-3.42210
G01 X-3.34287 Y-3.42530
G01 X-3.34933 Y-3.42611
G01 X-3.82575 Y-3.42576
G01 X-3.83307 Y-3.42353
G01 X-3.84002 Y-3.41889
G01 X-3.87202 Y-3.38647
G01 X-3.87473 Y-3.38187
G01 X-3.87696 Y-3.37455
G01 X-3.87731 Y-3.35118
G01 X-3.88971 Y-3.35095
G01 X-3.89396 Y-3.34919
G01 X-3.89575 Y-3.34772
G01 X-3.89722 Y-3.34593
G01 X-3.89899 Y-3.34167
G01 X-3.89921 Y-3.32731
G01 X-4.00079 Y-3.32731
G01 X-4.00079 Y-3.33937
G01 X-4.00169 Y-3.34389
G01 X-4.00425 Y-3.34772
G01 X-4.00604 Y-3.34919
G01 X-4.01029 Y-3.35095
G01 X-4.08740 Y-3.35118
G01 X-4.08971 Y-3.35095
G01 X-4.09396 Y-3.34919
G01 X-4.09722 Y-3.34593
G01 X-4.09898 Y-3.34167
G01 X-4.09921 Y-3.33937
G01 X-4.09921 Y-3.26063
G01 X-4.09898 Y-3.25833
G01 X-4.09722 Y-3.25407
G01 X-4.09396 Y-3.25081
G01 X-4.08971 Y-3.24905
G01 X-4.08740 Y-3.24882
G01 X-4.01260 Y-3.24882
G01 X-4.01029 Y-3.24905
G01 X-4.00604 Y-3.25081
G01 X-4.00278 Y-3.25407
G01 X-4.00169 Y-3.25611
G01 X-4.00079 Y-3.26063
G01 X-4.00079 Y-3.27269
G01 X-3.89921 Y-3.27269
G01 X-3.89921 Y-3.26063
G01 X-3.89831 Y-3.25611
G01 X-3.89575 Y-3.25228
G01 X-3.89396 Y-3.25081
G01 X-3.88971 Y-3.24905
G01 X-3.81260 Y-3.24882
G01 X-3.80808 Y-3.24972
G01 X-3.80604 Y-3.25081
G01 X-3.80278 Y-3.25407
G01 X-3.80101 Y-3.25833
G01 X-3.80079 Y-3.26063
G01 X-3.80101 Y-3.34167
G01 X-3.80278 Y-3.34593
G01 X-3.80425 Y-3.34772
G01 X-3.80808 Y-3.35028
G01 X-3.81260 Y-3.35118
G01 X-3.82269 Y-3.35118
G01 X-3.82269 Y-3.35906
G01 X-3.81026 Y-3.37149
G01 X-3.36064 Y-3.37149
G01 X-3.19546 Y-3.20631
G01 X-3.19546 Y-2.82202
G01 X-3.22202 Y-2.79546
G01 X-3.57295 Y-2.79546
G01 X-3.58231 Y-2.79377
G01 X-3.58713 Y-2.79145
G01 X-3.59226 Y-2.78746
G01 X-3.72641 Y-2.65331
G01 X-3.73429 Y-2.65331
G01 X-3.73452 Y-2.69720
G01 X-3.73628 Y-2.70146
G01 X-3.73775 Y-2.70325
G01 X-3.74158 Y-2.70581
G01 X-3.74610 Y-2.70671
G01 X-3.88390 Y-2.70671
G01 X-3.88842 Y-2.70581
G01 X-3.89046 Y-2.70472
G01 X-3.89372 Y-2.70146
G01 X-3.89548 Y-2.69720
G01 X-3.89571 Y-2.69490
G01 X-3.89571 Y-2.58391
G01 X-3.91929 Y-2.56033
G01 X-3.91929 Y-2.57680
G01 X-3.92019 Y-2.58132
G01 X-3.92275 Y-2.58515
G01 X-3.92454 Y-2.58662
G01 X-3.92880 Y-2.58838
G01 X-4.06890 Y-2.58861
G01 X-4.07120 Y-2.58838
G01 X-4.07546 Y-2.58662
G01 X-4.07872 Y-2.58336
G01 X-4.08048 Y-2.57910
G01 X-4.08071 Y-2.57680
G01 X-4.08071 Y-2.43900
G01 X-4.08048 Y-2.43669
G01 X-4.07872 Y-2.43244
G01 X-4.07753 Y-2.43098
G01 X-4.07390 Y-2.42962
G01 X-4.06890 Y-2.42900
G01 X-3.93110 Y-2.42900
G01 X-3.92610 Y-2.42962
G01 X-3.92110 Y-2.43150
G01 X-3.91596 Y-2.43475
G01 X-3.80944 Y-2.43475
G01 X-3.70413 Y-2.54006
G01 X-3.70510 Y-2.55000
G01 X-3.70347 Y-2.56305
G01 X-3.69958 Y-2.57388
G01 X-3.69354 Y-2.58367
G01 X-3.68803 Y-2.58978
G01 X-3.67608 Y-2.59846
G01 X-3.66543 Y-2.60283
G01 X-3.65411 Y-2.60488
G01 X-3.64589 Y-2.60488
G01 X-3.63457 Y-2.60283
G01 X-3.62392 Y-2.59846
G01 X-3.61313 Y-2.59094
G01 X-3.60485 Y-2.58150
G01 X-3.29515 Y-2.58150
G01 X-3.28559 Y-2.59198
G01 X-3.27755 Y-2.59771
G01 X-3.26856 Y-2.60181
G01 X-3.25411 Y-2.60488
G01 X-3.24589 Y-2.60488
G01 X-3.23457 Y-2.60283
G01 X-3.22245 Y-2.59772
G01 X-3.21197 Y-2.58978
G01 X-3.20646 Y-2.58367
G01 X-3.20041 Y-2.57388
G01 X-3.19653 Y-2.56305
G01 X-3.19490 Y-2.55000
G01 X-3.19653 Y-2.53695
G01 X-3.20041 Y-2.52612
G01 X-3.20646 Y-2.51633
G01 X-3.21197 Y-2.51022
G01 X-3.22245 Y-2.50228
G01 X-3.23144 Y-2.49819
G01 X-3.24261 Y-2.49546
G01 X-3.25411 Y-2.49512
G01 X-3.26702 Y-2.49760
G01 X-3.27755 Y-2.50228
G01 X-3.28687 Y-2.50906
G01 X-3.29515 Y-2.51850
G01 X-3.60485 Y-2.51850
G01 X-3.61441 Y-2.50802
G01 X-3.62245 Y-2.50228
G01 X-3.63144 Y-2.49819
G01 X-3.64589 Y-2.49512
G01 X-3.65411 Y-2.49512
G01 X-3.65982 Y-2.49598
G01 X-3.77555 Y-2.38036
G01 X-3.78046 Y-2.37672
G01 X-3.78600 Y-2.37411
G01 X-3.79194 Y-2.37262
G01 X-3.79650 Y-2.37225
G01 X-4.15350 Y-2.37225
G01 X-4.16109 Y-2.37323
G01 X-4.16953 Y-2.37672
G01 X-4.17559 Y-2.38140
G01 X-4.29017 Y-2.49598
G01 X-4.29589 Y-2.49512
G01 X-4.30411 Y-2.49512
G01 X-4.31856 Y-2.49819
G01 X-4.32755 Y-2.50228
G01 X-4.33559 Y-2.50802
G01 X-4.34515 Y-2.51850
G01 X-4.65485 Y-2.51850
G01 X-4.66197 Y-2.51022
G01 X-4.67245 Y-2.50228
G01 X-4.68457 Y-2.49717
G01 X-4.69589 Y-2.49512
G01 X-4.70739 Y-2.49546
G01 X-4.71702 Y-2.49760
G01 X-4.72755 Y-2.50228
G01 X-4.73687 Y-2.50906
G01 X-4.74547 Y-2.51899
G01 X-4.75033 Y-2.52759
G01 X-4.75347 Y-2.53695
G01 X-4.75510 Y-2.55000
G01 X-4.75347 Y-2.56305
G01 X-4.74958 Y-2.57388
G01 X-4.74354 Y-2.58367
G01 X-4.73803 Y-2.58978
G01 X-4.72608 Y-2.59846
G01 X-4.71856 Y-2.60181
G01 X-4.70739 Y-2.60454
G01 X-4.69589 Y-2.60488
G01 X-4.68143 Y-2.60181
G01 X-4.67245 Y-2.59772
G01 X-4.66441 Y-2.59198
G01 X-4.65485 Y-2.58150
G01 X-4.34515 Y-2.58150
G01 X-4.33803 Y-2.58978
G01 X-4.32893 Y-2.59682
G01 X-4.31543 Y-2.60283
G01 X-4.30411 Y-2.60488
G01 X-4.29261 Y-2.60454
G01 X-4.28297 Y-2.60240
G01 X-4.27371 Y-2.59836
G01 X-4.08465 Y-2.69289
G01 X-4.08465 Y-2.81300
G01 X-4.08434 Y-2.81607
G01 X-4.08329 Y-2.81870
G01 X-4.07939 Y-2.82349
G01 X-4.07460 Y-2.82739
G01 X-4.07197 Y-2.82844
G01 X-4.06890 Y-2.82875
G01 X-3.93110 Y-2.82875
G01 X-3.92507 Y-2.82755
G01 X-3.91996 Y-2.82414
G01 X-3.91801 Y-2.82175
G01 X-3.91655 Y-2.81903
G01 X-3.91535 Y-2.81300
G01 X-3.91535 Y-2.67520
G01 X-3.91655 Y-2.66917
G01 X-3.91996 Y-2.66406
G01 X-3.92507 Y-2.66065
G01 X-3.93110 Y-2.65945
G01 X-4.01066 Y-2.65945
G01 X-4.24566 Y-2.54195
G01 X-4.24587 Y-2.54006
G01 X-4.14055 Y-2.43474
G01 X-4.08404 Y-2.43475
G01 X-4.07890 Y-2.43150
G01 X-4.07390 Y-2.42962
G01 X-4.07890 Y-2.43150
G01 X-4.08390 Y-2.43462
G01 X-4.08465 Y-2.43900
G01 X-4.08465 Y-2.57680
G01 X-4.08345 Y-2.58283
G01 X-4.08199 Y-2.58555
G01 X-4.08003 Y-2.58793
G01 X-4.07493 Y-2.59135
G01 X-4.06890 Y-2.59255
G01 X-3.93110 Y-2.59255
G01 X-3.92507 Y-2.59135
G01 X-3.91996 Y-2.58793
G01 X-3.91801 Y-2.58555
G01 X-3.91565 Y-2.57987
G01 X-3.91535 Y-2.56984
G01 X-3.89965 Y-2.58554
G01 X-3.89965 Y-2.69490
G01 X-3.89845 Y-2.70093
G01 X-3.89699 Y-2.70365
G01 X-3.89504 Y-2.70603
G01 X-3.88993 Y-2.70945
G01 X-3.88390 Y-2.71065
G01 X-3.74610 Y-2.71065
G01 X-3.74007 Y-2.70945
G01 X-3.73496 Y-2.70603
G01 X-3.73155 Y-2.70093
G01 X-3.73065 Y-2.69797
G01 X-3.73035 Y-2.65725
G01 X-3.72804 Y-2.65725
G01 X-3.59504 Y-2.79024
G01 X-3.58899 Y-2.79492
G01 X-3.58345 Y-2.79754
G01 X-3.57752 Y-2.79902
G01 X-3.57295 Y-2.79940
G01 X-3.22365 Y-2.79940
G01 X-3.19940 Y-2.82365
G01 X-3.19940 Y-2.92841
G01 X-3.19762 Y-2.94036
G01 X-3.19719 Y-2.95141
G01 X-3.19762 Y-2.94036
G01 X-3.19945 Y-2.92815
G01 X-3.20453 Y-2.91899
G01 X-3.21197 Y-2.91022
G01 X-3.22245 Y-2.90228
G01 X-3.23457 Y-2.89717
G01 X-3.24589 Y-2.89512
G01 X-3.25411 Y-2.89512
G01 X-3.25983 Y-2.89598
G01 X-3.32790 Y-2.82790
G01 X-3.33396 Y-2.82322
G01 X-3.33950 Y-2.82061
G01 X-3.34544 Y-2.81912
G01 X-3.35975 Y-2.81875
G01 X-3.36132 Y-2.81566
G01 X-3.36566 Y-2.81132
G01 X-3.37134 Y-2.80896
G01 X-3.37441 Y-2.80866
G01 X-3.42866 Y-2.80896
G01 X-3.43162 Y-2.80986
G01 X-3.43673 Y-2.81327
G01 X-3.44014 Y-2.81838
G01 X-3.44134 Y-2.82441
G01 X-3.44134 Y-2.87559
G01 X-3.44014 Y-2.88162
G01 X-3.43673 Y-2.88673
G01 X-3.43162 Y-2.89014
G01 X-3.42559 Y-2.89134
G01 X-3.37441 Y-2.89134
G01 X-3.36838 Y-2.89014
G01 X-3.36566 Y-2.88868
G01 X-3.36327 Y-2.88673
G01 X-3.36081 Y-2.88338
G01 X-3.30413 Y-2.94006
G01 X-3.30510 Y-2.95000
G01 X-3.30415 Y-2.95983
G01 X-3.30033 Y-2.97241
G01 X-3.29354 Y-2.98367
G01 X-3.28803 Y-2.98978
G01 X-3.28125 Y-2.99513
G01 X-3.28125 Y-3.16727
G01 X-3.33273 Y-3.21875
G01 X-3.34850 Y-3.21875
G01 X-3.35598 Y-3.21298
G01 X-3.36056 Y-3.21066
G01 X-3.35496 Y-3.20765
G01 X-3.34811 Y-3.20220
G01 X-3.34251 Y-3.19547
G01 X-3.33837 Y-3.18777
G01 X-3.33538 Y-3.17623
G01 X-3.33526 Y-3.16748
G01 X-3.33690 Y-3.15888
G01 X-3.33884 Y-3.15365
G01 X-3.34319 Y-3.14606
G01 X-3.34898 Y-3.13950
G01 X-3.35876 Y-3.13269
G01 X-3.36389 Y-3.13049
G01 X-3.37239 Y-3.12842
G01 X-3.42160 Y-3.12795
G01 X-3.42880 Y-3.12860
G01 X-3.44016 Y-3.13216
G01 X-3.44504 Y-3.13487
G01 X-3.45123 Y-3.13976
G01 X-4.02976 Y-3.13976
G01 X-4.26850 Y-2.90102
G01 X-4.26850 Y-2.85000
G01 X-4.26948 Y-2.84236
G01 X-4.27156 Y-2.83655
G01 X-4.27669 Y-2.82887
G01 X-4.28382 Y-2.82302
G01 X-4.29013 Y-2.82016
G01 X-4.16983 Y-2.82016
G01 X-4.01790 Y-2.97209
G01 X-4.01184 Y-2.97677
G01 X-4.00339 Y-2.98027
G01 X-3.99580 Y-2.98125
G01 X-3.69529 Y-2.98125
G01 X-3.68559 Y-2.99198
G01 X-3.67608 Y-2.99846
G01 X-3.66543 Y-3.00283
G01 X-3.65411 Y-3.00488
G01 X-3.64589 Y-3.00488
G01 X-3.63297 Y-3.00240
G01 X-3.62245 Y-2.99772
G01 X-3.61313 Y-2.99094
G01 X-3.60471 Y-2.98125
G01 X-3.59688 Y-2.98117
G01 X-3.59083 Y-2.98027
G01 X-3.58507 Y-2.97821
G01 X-3.57982 Y-2.97506
G01 X-3.49539 Y-2.89116
G01 X-3.48565 Y-2.88931
G01 X-3.47776 Y-2.88580
G01 X-3.47204 Y-2.88176
G01 X-3.46602 Y-2.87558
G01 X-3.46066 Y-2.86681
G01 X-3.45842 Y-2.86018
G01 X-3.45717 Y-2.85164
G01 X-3.45842 Y-2.83981
G01 X-3.46141 Y-2.83172
G01 X-3.46602 Y-2.82442
G01 X-3.46960 Y-2.82044
G01 X-3.47776 Y-2.81420
G01 X-3.48565 Y-2.81068
G01 X-3.49575 Y-2.80880
G01 X-3.50437 Y-2.80915
G01 X-3.51120 Y-2.81068
G01 X-3.51762 Y-2.81345
G01 X-3.52481 Y-2.81824
G01 X-3.53083 Y-2.82442
G01 X-3.53544 Y-2.83172
G01 X-3.53843 Y-2.83981
G01 X-3.53952 Y-2.84691
G01 X-3.60764 Y-2.91502
G01 X-3.61441 Y-2.90802
G01 X-3.62107 Y-2.90318
G01 X-3.63144 Y-2.89819
G01 X-3.64261 Y-2.89546
G01 X-3.65411 Y-2.89512
G01 X-3.66703 Y-2.89760
G01 X-3.67755 Y-2.90228
G01 X-3.68687 Y-2.90905
G01 X-3.69529 Y-2.91875
G01 X-3.98285 Y-2.91875
G01 X-3.98449 Y-2.92269
G01 X-3.69306 Y-2.92269
G01 X-3.69061 Y-2.91897
G01 X-3.68423 Y-2.91198
G01 X-3.67558 Y-2.90569
G01 X-3.66581 Y-2.90134
G01 X-3.65411 Y-2.89906
G01 X-3.64343 Y-2.89931
G01 X-3.63304 Y-2.90178
G01 X-3.62552 Y-2.90513
G01 X-3.61673 Y-2.91120
G01 X-3.60797 Y-2.92092
G01 X-3.53575 Y-2.84870
G01 X-3.53469 Y-2.84103
G01 X-3.53304 Y-2.83594
G01 X-3.52936 Y-2.82905
G01 X-3.52433 Y-2.82308
G01 X-3.51816 Y-2.81828
G01 X-3.50879 Y-2.81411
G01 X-3.50110 Y-2.81274
G01 X-3.49330 Y-2.81300
G01 X-3.48687 Y-2.81443
G01 X-3.48083 Y-2.81705
G01 X-3.47252 Y-2.82308
G01 X-3.46749 Y-2.82905
G01 X-3.46426 Y-2.83479
G01 X-3.46216 Y-2.84103
G01 X-3.46109 Y-2.84877
G01 X-3.46165 Y-2.85655
G01 X-3.46426 Y-2.86521
G01 X-3.46749 Y-2.87095
G01 X-3.47252 Y-2.87692
G01 X-3.47972 Y-2.88239
G01 X-3.48571 Y-2.88513
G01 X-3.49330 Y-2.88700
G01 X-3.49706 Y-2.88726
G01 X-3.58232 Y-2.97202
G01 X-3.58692 Y-2.97473
G01 X-3.59197 Y-2.97650
G01 X-3.59727 Y-2.97725
G01 X-3.60694 Y-2.97731
G01 X-3.60939 Y-2.98103
G01 X-3.61577 Y-2.98802
G01 X-3.62442 Y-2.99431
G01 X-3.63419 Y-2.99866
G01 X-3.64589 Y-3.00095
G01 X-3.65411 Y-3.00095
G01 X-3.66461 Y-2.99898
G01 X-3.67448 Y-2.99487
G01 X-3.68511 Y-2.98714
G01 X-3.69061 Y-2.98103
G01 X-3.69306 Y-2.97731
G01 X-3.99580 Y-2.97731
G01 X-4.00516 Y-2.97562
G01 X-4.00998 Y-2.97330
G01 X-4.01511 Y-2.96931
G01 X-4.16820 Y-2.81622
G01 X-4.43584 Y-2.81622
G01 X-4.42513 Y-2.81933
G01 X-4.30000 Y-2.81933
G01 X-4.29013 Y-2.82016
G01 X-4.30000 Y-2.81933
G01 X-4.42513 Y-2.81933
G01 X-4.43583 Y-2.81622
G01 X-4.43184 Y-2.81828
G01 X-4.42638 Y-2.82244
G01 X-4.30000 Y-2.82244
G01 X-4.29054 Y-2.82415
G01 X-4.28375 Y-2.82777
G01 X-4.27973 Y-2.83137
G01 X-4.27649 Y-2.83568
G01 X-4.27414 Y-2.84054
G01 X-4.27280 Y-2.84577
G01 X-4.27244 Y-2.90265
G01 X-4.03139 Y-3.14370
G01 X-3.44969 Y-3.14370
G01 X-3.44509 Y-3.13968
G01 X-3.43825 Y-3.13561
G01 X-3.42840 Y-3.13251
G01 X-3.42162 Y-3.13189
G01 X-3.37552 Y-3.13203
G01 X-3.36772 Y-3.13339
G01 X-3.36031 Y-3.13631
G01 X-3.35183 Y-3.14221
G01 X-3.34653 Y-3.14814
G01 X-3.34358 Y-3.15287
G01 X-3.34059 Y-3.16025
G01 X-3.33915 Y-3.16808
G01 X-3.33967 Y-3.17839
G01 X-3.34190 Y-3.18603
G01 X-3.34562 Y-3.19306
G01 X-3.35068 Y-3.19921
G01 X-3.35687 Y-3.20420
G01 X-3.36175 Y-3.20691
G01 X-3.36926 Y-3.20952
G01 X-3.37838 Y-3.21063
G01 X-3.42682 Y-3.21025
G01 X-3.43228 Y-3.20912
G01 X-3.43968 Y-3.20621
G01 X-3.44635 Y-3.20186
G01 X-3.44958 Y-3.19882
G01 X-4.04280 Y-3.19882
G01 X-4.05226 Y-3.19711
G01 X-4.05712 Y-3.19477
G01 X-4.06229 Y-3.19075
G01 X-4.26539 Y-2.98765
G01 X-4.27442 Y-2.99431
G01 X-4.28419 Y-2.99866
G01 X-4.29343 Y-3.00069
G01 X-4.30411 Y-3.00095
G01 X-4.31461 Y-2.99898
G01 X-4.32558 Y-2.99431
G01 X-4.33327 Y-2.98880
G01 X-4.34061 Y-2.98103
G01 X-4.34674 Y-2.97081
G01 X-4.34972 Y-2.96183
G01 X-4.35116 Y-2.95000
G01 X-4.35024 Y-2.94058
G01 X-4.34674 Y-2.92919
G01 X-4.34206 Y-2.92096
G01 X-4.33423 Y-2.91198
G01 X-4.32755 Y-2.90705
G01 X-4.32756 Y-2.87756
G01 X-4.42631 Y-2.87756
G01 X-4.43287 Y-2.88239
G01 X-4.44121 Y-2.88589
G01 X-4.44644 Y-2.88700
G01 X-4.45425 Y-2.88726
G01 X-4.46313 Y-2.88557
G01 X-4.47027 Y-2.88239
G01 X-4.47747 Y-2.87692
G01 X-4.48250 Y-2.87095
G01 X-4.48574 Y-2.86521
G01 X-4.48784 Y-2.85897
G01 X-4.48891 Y-2.85123
G01 X-4.48835 Y-2.84345
G01 X-4.48574 Y-2.83479
G01 X-4.48250 Y-2.82905
G01 X-4.47747 Y-2.82308
G01 X-4.47131 Y-2.81828
G01 X-4.46731 Y-2.81622
G01 X-4.45425 Y-2.81448
G01 X-4.44678 Y-2.81459
G01 X-4.43584 Y-2.81622
G01 X-4.44890 Y-2.81448
G01 X-4.45636 Y-2.81459
G01 X-4.46731 Y-2.81622
G01 X-4.46400 Y-2.81551
G01 X-4.46731 Y-2.81622
G01 X-4.51625 Y-2.81622
G01 X-4.50927 Y-2.82016
G01 X-4.48008 Y-2.82016
G01 X-4.46731 Y-2.81622
G01 X-4.48008 Y-2.82016
G01 X-4.48591 Y-2.82708
G01 X-4.48934 Y-2.83319
G01 X-4.49158 Y-2.83981
G01 X-4.49282 Y-2.85164
G01 X-4.49158 Y-2.86018
G01 X-4.48993 Y-2.86527
G01 X-4.48398 Y-2.87558
G01 X-4.48040 Y-2.87955
G01 X-4.47363 Y-2.88490
G01 X-4.46435 Y-2.88931
G01 X-4.45425 Y-2.89120
G01 X-4.44563 Y-2.89085
G01 X-4.43880 Y-2.88931
G01 X-4.43237 Y-2.88655
G01 X-4.42487 Y-2.88150
G01 X-4.33149 Y-2.88150
G01 X-4.33149 Y-2.90504
G01 X-4.33687 Y-2.90905
G01 X-4.34547 Y-2.91899
G01 X-4.35033 Y-2.92759
G01 X-4.35415 Y-2.94017
G01 X-4.35510 Y-2.95000
G01 X-4.35347 Y-2.96305
G01 X-4.35033 Y-2.97241
G01 X-4.34354 Y-2.98367
G01 X-4.33559 Y-2.99198
G01 X-4.32755 Y-2.99771
G01 X-4.31856 Y-3.00181
G01 X-4.30739 Y-3.00454
G01 X-4.29589 Y-3.00488
G01 X-4.28297 Y-3.00240
G01 X-4.27245 Y-2.99772
G01 X-4.26569 Y-2.99291
G01 X-4.06508 Y-3.19353
G01 X-4.06155 Y-3.19652
G01 X-4.05626 Y-3.19970
G01 X-4.05044 Y-3.20178
G01 X-4.04280 Y-3.20276
G01 X-3.45127 Y-3.20276
G01 X-3.44402 Y-3.20828
G01 X-3.43944 Y-3.21060
G01 X-3.36056 Y-3.21066
G01 X-3.43944 Y-3.21060
G01 X-3.44504 Y-3.21361
G01 X-3.45188 Y-3.21906
G01 X-3.45918 Y-3.22849
G01 X-3.46274 Y-3.23648
G01 X-3.46462 Y-3.24503
G01 X-3.46474 Y-3.25378
G01 X-3.46390 Y-3.25929
G01 X-3.46116 Y-3.26761
G01 X-3.45486 Y-3.27772
G01 X-3.44860 Y-3.28383
G01 X-3.43944 Y-3.28934
G01 X-3.36056 Y-3.28940
G01 X-3.35496 Y-3.28639
G01 X-3.34848 Y-3.28125
G01 X-3.31824 Y-3.28117
G01 X-3.31219 Y-3.28027
G01 X-3.30643 Y-3.27821
G01 X-3.30119 Y-3.27506
G01 X-3.29769 Y-3.27210
G01 X-3.22494 Y-3.19881
G01 X-3.22061 Y-3.19071
G01 X-3.21912 Y-3.18477
G01 X-3.21875 Y-3.18021
G01 X-3.21875 Y-2.99513
G01 X-3.21313 Y-2.99094
G01 X-3.20646 Y-2.98367
G01 X-3.19966 Y-2.97241
G01 X-3.19793 Y-2.96259
G01 X-3.19719 Y-2.95141
G01 X-3.19793 Y-2.96259
G01 X-3.19940 Y-2.97159
G01 X-3.19940 Y-3.20468
G01 X-3.33742 Y-3.34271
G01 X-3.33586 Y-3.33686
G01 X-3.33510 Y-3.32814
G01 X-3.33610 Y-3.31945
G01 X-3.33884 Y-3.31113
G01 X-3.34319 Y-3.30354
G01 X-3.34898 Y-3.29698
G01 X-3.35598 Y-3.29172
G01 X-3.36056 Y-3.28940
G01 X-3.43944 Y-3.28934
G01 X-3.44504 Y-3.29235
G01 X-3.45123 Y-3.29724
G01 X-3.66569 Y-3.29724
G01 X-3.69920 Y-3.28501
G01 X-3.70219 Y-3.27691
G01 X-3.70610 Y-3.27014
G01 X-3.71572 Y-3.25947
G01 X-3.72490 Y-3.25322
G01 X-3.73204 Y-3.25004
G01 X-3.74282 Y-3.24740
G01 X-3.75718 Y-3.24740
G01 X-3.76796 Y-3.25004
G01 X-3.77657 Y-3.25397
G01 X-3.78673 Y-3.26167
G01 X-3.79300 Y-3.26876
G01 X-3.79685 Y-3.27526
G01 X-3.79685 Y-3.26063
G01 X-3.79805 Y-3.25460
G01 X-3.80146 Y-3.24949
G01 X-3.80385 Y-3.24754
G01 X-3.80953 Y-3.24518
G01 X-3.81260 Y-3.24488
G01 X-3.89047 Y-3.24518
G01 X-3.89615 Y-3.24754
G01 X-3.90049 Y-3.25188
G01 X-3.90285 Y-3.25756
G01 X-3.90315 Y-3.26875
G01 X-3.99685 Y-3.26875
G01 X-3.99715 Y-3.25756
G01 X-3.99951 Y-3.25188
G01 X-4.00385 Y-3.24754
G01 X-4.00953 Y-3.24518
G01 X-4.09047 Y-3.24518
G01 X-4.09343 Y-3.24608
G01 X-4.09854 Y-3.24949
G01 X-4.10195 Y-3.25460
G01 X-4.10285 Y-3.25756
G01 X-4.10315 Y-3.27526
G01 X-4.10074 Y-3.28810
G01 X-4.10003 Y-3.30132
G01 X-4.10074 Y-3.28810
G01 X-4.10315 Y-3.27526
G01 X-4.10700 Y-3.26876
G01 X-4.11572 Y-3.25947
G01 X-4.12490 Y-3.25322
G01 X-4.13204 Y-3.25004
G01 X-4.14282 Y-3.24740
G01 X-4.15555 Y-3.24714
G01 X-4.16483 Y-3.24903
G01 X-4.17796 Y-3.25487
G01 X-4.18673 Y-3.26167
G01 X-4.19300 Y-3.26876
G01 X-4.19914 Y-3.27992
G01 X-4.20199 Y-3.28895
G01 X-4.20294 Y-3.29724
G01 X-4.19915 Y-3.30118
G01 X-4.19814 Y-3.28977
G01 X-4.19540 Y-3.28114
G01 X-4.18981 Y-3.27107
G01 X-4.18380 Y-3.26430
G01 X-4.17460 Y-3.25738
G01 X-4.16636 Y-3.25364
G01 X-4.15514 Y-3.25106
G01 X-4.14609 Y-3.25099
G01 X-4.13599 Y-3.25288
G01 X-4.12539 Y-3.25738
G01 X-4.11803 Y-3.26265
G01 X-4.11097 Y-3.27011
G01 X-4.10560 Y-3.27888
G01 X-4.10218 Y-3.28857
G01 X-4.10085 Y-3.30123
G01 X-4.10186 Y-3.31023
G01 X-4.10560 Y-3.32112
G01 X-4.11019 Y-3.32893
G01 X-4.11803 Y-3.33735
G01 X-4.12539 Y-3.34262
G01 X-4.13364 Y-3.34636
G01 X-4.14486 Y-3.34894
G01 X-4.15514 Y-3.34894
G01 X-4.15918 Y-3.34815
G01 X-4.16249 Y-3.35096
G01 X-4.16714 Y-3.35371
G01 X-4.17451 Y-3.35594
G01 X-4.45031 Y-3.35630
G01 X-4.45491 Y-3.36032
G01 X-4.46175 Y-3.36439
G01 X-4.47160 Y-3.36748
G01 X-4.47838 Y-3.36811
G01 X-4.52448 Y-3.36797
G01 X-4.53228 Y-3.36660
G01 X-4.53968 Y-3.36369
G01 X-4.54816 Y-3.35779
G01 X-4.55347 Y-3.35186
G01 X-4.55642 Y-3.34712
G01 X-4.55941 Y-3.33975
G01 X-4.56085 Y-3.33192
G01 X-4.56069 Y-3.32397
G01 X-4.55893 Y-3.31621
G01 X-4.55564 Y-3.30896
G01 X-4.55097 Y-3.30252
G01 X-4.54509 Y-3.29716
G01 X-4.53825 Y-3.29309
G01 X-4.53073 Y-3.29048
G01 X-4.52285 Y-3.28943
G01 X-4.47318 Y-3.28975
G01 X-4.46772 Y-3.29088
G01 X-4.46031 Y-3.29379
G01 X-4.45365 Y-3.29814
G01 X-4.45042 Y-3.30118
G01 X-4.19915 Y-3.30118
G01 X-4.19478 Y-3.30511
G01 X-4.19523 Y-3.29918
G01 X-4.19428 Y-3.29059
G01 X-4.19165 Y-3.28235
G01 X-4.18663 Y-3.27339
G01 X-4.18088 Y-3.26694
G01 X-4.17264 Y-3.26079
G01 X-4.16476 Y-3.25724
G01 X-4.15473 Y-3.25497
G01 X-4.14527 Y-3.25497
G01 X-4.13680 Y-3.25673
G01 X-4.12736 Y-3.26079
G01 X-4.12035 Y-3.26584
G01 X-4.11292 Y-3.27408
G01 X-4.10834 Y-3.28235
G01 X-4.10571 Y-3.29059
G01 X-4.10477 Y-3.30082
G01 X-4.10571 Y-3.30941
G01 X-4.10834 Y-3.31765
G01 X-4.11337 Y-3.32661
G01 X-4.12035 Y-3.33416
G01 X-4.12736 Y-3.33921
G01 X-4.13680 Y-3.34327
G01 X-4.14609 Y-3.34507
G01 X-4.15473 Y-3.34503
G01 X-4.16045 Y-3.34386
G01 X-4.16499 Y-3.34792
G01 X-4.16900 Y-3.35023
G01 X-4.17338 Y-3.35172
G01 X-4.17797 Y-3.35233
G01 X-4.45200 Y-3.35236
G01 X-4.45878 Y-3.35824
G01 X-4.46512 Y-3.36158
G01 X-4.47200 Y-3.36357
G01 X-4.47837 Y-3.36417
G01 X-4.52447 Y-3.36403
G01 X-4.53149 Y-3.36275
G01 X-4.53813 Y-3.36007
G01 X-4.54531 Y-3.35507
G01 X-4.55013 Y-3.34977
G01 X-4.55378 Y-3.34361
G01 X-4.55612 Y-3.33684
G01 X-4.55696 Y-3.33133
G01 X-4.55676 Y-3.32417
G01 X-4.55512 Y-3.31719
G01 X-4.55211 Y-3.31069
G01 X-4.54785 Y-3.30493
G01 X-4.54252 Y-3.30015
G01 X-4.53634 Y-3.29653
G01 X-4.52956 Y-3.29423
G01 X-4.52245 Y-3.29335
G01 X-4.47397 Y-3.29361
G01 X-4.46699 Y-3.29521
G01 X-4.46187 Y-3.29741
G01 X-4.45590 Y-3.30137
G01 X-4.45211 Y-3.30511
G01 X-4.19478 Y-3.30511
G01 X-4.19031 Y-3.30905
G01 X-4.19132 Y-3.30041
G01 X-4.19043 Y-3.29141
G01 X-4.18791 Y-3.28357
G01 X-4.18344 Y-3.27570
G01 X-4.17734 Y-3.26902
G01 X-4.17067 Y-3.26420
G01 X-4.16316 Y-3.26083
G01 X-4.15432 Y-3.25889
G01 X-4.14568 Y-3.25889
G01 X-4.13762 Y-3.26058
G01 X-4.12933 Y-3.26420
G01 X-4.12266 Y-3.26902
G01 X-4.11633 Y-3.27605
G01 X-4.11209 Y-3.28357
G01 X-4.10956 Y-3.29141
G01 X-4.10868 Y-3.30041
G01 X-4.10956 Y-3.30859
G01 X-4.11209 Y-3.31643
G01 X-4.11656 Y-3.32430
G01 X-4.12266 Y-3.33098
G01 X-4.12933 Y-3.33580
G01 X-4.13762 Y-3.33942
G01 X-4.14609 Y-3.34113
G01 X-4.15432 Y-3.34111
G01 X-4.16172 Y-3.33956
G01 X-4.16749 Y-3.34488
G01 X-4.17086 Y-3.34676
G01 X-4.17835 Y-3.34841
G01 X-4.45394 Y-3.34843
G01 X-4.46069 Y-3.35480
G01 X-4.46630 Y-3.35782
G01 X-4.47240 Y-3.35965
G01 X-4.47836 Y-3.36023
G01 X-4.52445 Y-3.36009
G01 X-4.53069 Y-3.35889
G01 X-4.53658 Y-3.35645
G01 X-4.54246 Y-3.35236
G01 X-4.54679 Y-3.34769
G01 X-4.54974 Y-3.34296
G01 X-4.55202 Y-3.33701
G01 X-4.55307 Y-3.33073
G01 X-4.55283 Y-3.32437
G01 X-4.55131 Y-3.31818
G01 X-4.54857 Y-3.31243
G01 X-4.54474 Y-3.30734
G01 X-4.53996 Y-3.30313
G01 X-4.53443 Y-3.29997
G01 X-4.52838 Y-3.29799
G01 X-4.52205 Y-3.29726
G01 X-4.47477 Y-3.29747
G01 X-4.46930 Y-3.29859
G01 X-4.46342 Y-3.30103
G01 X-4.45815 Y-3.30460
G01 X-4.45380 Y-3.30905
G01 X-4.19031 Y-3.30905
G04 P0 ( dwell for no time -- G64 should not smooth over this point )
G00 Z0.08000 ( retract )

G00 X-4.58125 Y-2.89025 ( rapid move to begin. )
G01 F180.00000
G01 Z-0.04000
G04 P0 ( dwell for no time -- G64 should not smooth over this point )
G01 F360.00000
G01 X-4.58125 Y-2.89025
G01 X-4.57337 Y-2.88346
G01 X-4.57713 Y-2.88331
G01 X-4.58116 Y-2.88116
G01 X-4.58331 Y-2.87713
G01 X-4.58346 Y-2.87337
G01 X-4.59032 Y-2.87337
G01 X-4.65459 Y-2.93764
G01 X-4.65368 Y-2.94100
G01 X-4.65282 Y-2.95082
G01 X-4.65402 Y-2.96061
G01 X-4.65686 Y-2.96921
G01 X-4.66135 Y-2.97707
G01 X-4.66782 Y-2.98451
G01 X-4.67712 Y-2.99127
G01 X-4.68541 Y-2.99491
G01 X-4.69589 Y-2.99701
G01 X-4.70575 Y-2.99683
G01 X-4.71536 Y-2.99462
G01 X-4.72361 Y-2.99090
G01 X-4.73218 Y-2.98451
G01 X-4.73865 Y-2.97707
G01 X-4.74314 Y-2.96921
G01 X-4.74632 Y-2.95900
G01 X-4.74722 Y-2.95000
G01 X-4.74632 Y-2.94100
G01 X-4.74277 Y-2.93006
G01 X-4.73768 Y-2.92160
G01 X-4.73218 Y-2.91549
G01 X-4.72361 Y-2.90910
G01 X-4.71380 Y-2.90487
G01 X-4.70411 Y-2.90299
G01 X-4.69589 Y-2.90299
G01 X-4.68763 Y-2.90457
G01 X-4.61360 Y-2.83102
G01 X-4.60822 Y-2.82814
G01 X-4.60379 Y-2.82696
G01 X-4.58346 Y-2.82663
G01 X-4.58331 Y-2.82287
G01 X-4.58214 Y-2.82003
G01 X-4.57996 Y-2.81786
G01 X-4.57713 Y-2.81669
G01 X-4.52441 Y-2.81654
G01 X-4.52140 Y-2.81713
G01 X-4.51884 Y-2.81884
G01 X-4.51713 Y-2.82140
G01 X-4.51654 Y-2.82441
G01 X-4.51669 Y-2.87713
G01 X-4.51786 Y-2.87996
G01 X-4.52004 Y-2.88214
G01 X-4.52287 Y-2.88331
G01 X-4.52663 Y-2.88346
G01 X-4.52663 Y-2.89691
G01 X-4.39876 Y-3.02477
G01 X-4.39546 Y-3.02898
G01 X-4.39255 Y-3.03599
G01 X-4.39191 Y-3.04130
G01 X-4.39195 Y-3.24627
G01 X-4.39343 Y-3.25372
G01 X-4.39631 Y-3.25910
G01 X-4.40383 Y-3.26704
G01 X-4.41014 Y-3.27126
G01 X-4.41447 Y-3.27274
G01 X-4.41901 Y-3.27334
G01 X-4.45181 Y-3.27337
G01 X-4.45878 Y-3.27950
G01 X-4.46512 Y-3.28284
G01 X-4.47200 Y-3.28483
G01 X-4.47837 Y-3.28543
G01 X-4.52447 Y-3.28529
G01 X-4.53301 Y-3.28353
G01 X-4.53953 Y-3.28056
G01 X-4.54410 Y-3.27737
G01 X-4.54915 Y-3.27229
G01 X-4.55378 Y-3.26487
G01 X-4.55612 Y-3.25810
G01 X-4.55704 Y-3.25100
G01 X-4.55652 Y-3.24385
G01 X-4.55457 Y-3.23696
G01 X-4.55127 Y-3.23060
G01 X-4.54676 Y-3.22504
G01 X-4.54122 Y-3.22050
G01 X-4.53488 Y-3.21716
G01 X-4.52800 Y-3.21517
G01 X-4.52163 Y-3.21457
G01 X-4.47553 Y-3.21471
G01 X-4.46851 Y-3.21599
G01 X-4.46187 Y-3.21867
G01 X-4.45590 Y-3.22263
G01 X-4.45187 Y-3.22662
G01 X-4.43866 Y-3.22663
G01 X-4.43866 Y-3.05098
G01 X-4.56897 Y-2.92020
G01 X-4.57186 Y-2.91481
G01 X-4.57337 Y-2.90659
G01 X-4.57337 Y-2.88346
G01 X-4.56944 Y-2.87953
G01 X-4.57636 Y-2.87945
G01 X-4.57837 Y-2.87837
G01 X-4.57945 Y-2.87636
G01 X-4.57953 Y-2.86944
G01 X-4.59195 Y-2.86944
G01 X-4.65908 Y-2.93657
G01 X-4.65759 Y-2.94141
G01 X-4.65671 Y-2.95000
G01 X-4.65759 Y-2.95859
G01 X-4.66031 Y-2.96722
G01 X-4.66524 Y-2.97576
G01 X-4.67103 Y-2.98217
G01 X-4.67836 Y-2.98749
G01 X-4.68662 Y-2.99117
G01 X-4.69589 Y-2.99307
G01 X-4.70493 Y-2.99298
G01 X-4.71376 Y-2.99102
G01 X-4.72164 Y-2.98749
G01 X-4.72926 Y-2.98188
G01 X-4.73524 Y-2.97510
G01 X-4.73954 Y-2.96761
G01 X-4.74240 Y-2.95859
G01 X-4.74329 Y-2.95000
G01 X-4.74240 Y-2.94141
G01 X-4.73936 Y-2.93203
G01 X-4.73524 Y-2.92490
G01 X-4.72926 Y-2.91812
G01 X-4.72164 Y-2.91251
G01 X-4.71298 Y-2.90873
G01 X-4.70411 Y-2.90693
G01 X-4.69589 Y-2.90693
G01 X-4.68640 Y-2.90892
G01 X-4.61111 Y-2.83407
G01 X-4.60707 Y-2.83191
G01 X-4.60341 Y-2.83088
G01 X-4.57953 Y-2.83056
G01 X-4.57923 Y-2.82290
G01 X-4.57778 Y-2.82114
G01 X-4.57636 Y-2.82055
G01 X-4.52441 Y-2.82047
G01 X-4.52163 Y-2.82163
G01 X-4.52047 Y-2.82441
G01 X-4.52055 Y-2.87636
G01 X-4.52114 Y-2.87778
G01 X-4.52290 Y-2.87923
G01 X-4.53056 Y-2.87953
G01 X-4.53056 Y-2.89854
G01 X-4.40154 Y-3.02756
G01 X-4.39893 Y-3.03083
G01 X-4.39632 Y-3.03714
G01 X-4.39585 Y-3.04130
G01 X-4.39587 Y-3.24588
G01 X-4.39720 Y-3.25257
G01 X-4.39935 Y-3.25661
G01 X-4.40633 Y-3.26400
G01 X-4.41200 Y-3.26779
G01 X-4.41562 Y-3.26897
G01 X-4.41979 Y-3.26944
G01 X-4.45374 Y-3.26944
G01 X-4.45581 Y-3.27197
G01 X-4.46069 Y-3.27606
G01 X-4.46630 Y-3.27908
G01 X-4.47240 Y-3.28091
G01 X-4.47836 Y-3.28150
G01 X-4.52445 Y-3.28135
G01 X-4.53146 Y-3.27991
G01 X-4.53728 Y-3.27733
G01 X-4.54185 Y-3.27414
G01 X-4.54679 Y-3.26895
G01 X-4.55009 Y-3.26350
G01 X-4.55222 Y-3.25750
G01 X-4.55311 Y-3.25120
G01 X-4.55270 Y-3.24484
G01 X-4.55103 Y-3.23869
G01 X-4.54857 Y-3.23369
G01 X-4.54474 Y-3.22860
G01 X-4.53996 Y-3.22439
G01 X-4.53443 Y-3.22123
G01 X-4.52838 Y-3.21925
G01 X-4.52164 Y-3.21850
G01 X-4.47477 Y-3.21873
G01 X-4.46854 Y-3.22009
G01 X-4.46272 Y-3.22267
G01 X-4.45754 Y-3.22638
G01 X-4.45359 Y-3.23056
G01 X-4.43472 Y-3.23056
G01 X-4.43472 Y-3.04935
G01 X-4.56593 Y-2.91770
G01 X-4.56809 Y-2.91366
G01 X-4.56942 Y-2.90698
G01 X-4.56944 Y-2.87953
G04 P0 ( dwell for no time -- G64 should not smooth over this point )
G00 Z0.08000 ( retract )

G00 X-4.51578 Y-2.81639 ( rapid move to begin. )
G01 F180.00000
G01 Z-0.04000
G04 P0 ( dwell for no time -- G64 should not smooth over this point )
G01 F360.00000
G01 X-4.51578 Y-2.81639
G01 X-4.51941 Y-2.81503
G01 X-4.51578 Y-2.81639
G04 P0 ( dwell for no time -- G64 should not smooth over this point )
G00 Z0.08000 ( retract )

G00 X-4.58372 Y-2.81622 ( rapid move to begin. )
G01 F180.00000
G01 Z-0.04000
G04 P0 ( dwell for no time -- G64 should not smooth over this point )
G01 F360.00000
G01 X-4.58372 Y-2.81622
G01 X-4.57559 Y-2.81441
G01 X-4.52441 Y-2.81441
G01 X-4.51941 Y-2.81503
G01 X-4.51625 Y-2.81622
G01 X-4.51941 Y-2.81503
G01 X-4.52441 Y-2.81441
G01 X-4.57559 Y-2.81441
G01 X-4.58269 Y-2.81567
G01 X-4.58435 Y-2.81655
G01 X-4.58372 Y-2.81622
G01 X-4.63837 Y-2.81622
G01 X-4.73508 Y-2.91288
G01 X-4.72558 Y-2.90569
G01 X-4.71581 Y-2.90134
G01 X-4.70411 Y-2.89906
G01 X-4.69589 Y-2.89906
G01 X-4.68890 Y-2.90028
G01 X-4.61610 Y-2.82798
G01 X-4.60936 Y-2.82438
G01 X-4.60418 Y-2.82304
G01 X-4.58723 Y-2.82269
G01 X-4.58650 Y-2.81989
G01 X-4.58435 Y-2.81655
G01 X-4.58980 Y-2.81945
G01 X-4.58435 Y-2.81655
G04 P0 ( dwell for no time -- G64 should not smooth over this point )
G00 Z0.08000 ( retract )

G00 X-4.43583 Y-2.81622 ( rapid move to begin. )
G01 F180.00000
G01 Z-0.04000
G04 P0 ( dwell for no time -- G64 should not smooth over this point )
G01 F360.00000
G01 X-4.43583 Y-2.81622
G01 X-4.43584 Y-2.81622
G04 P0 ( dwell for no time -- G64 should not smooth over this point )
G00 Z0.08000 ( retract )

G00 X-4.73599 Y-2.91384 ( rapid move to begin. )
G01 F180.00000
G01 Z-0.04000
G04 P0 ( dwell for no time -- G64 should not smooth over this point )
G01 F360.00000
G01 X-4.73599 Y-2.91384
G01 X-4.72490 Y-2.90419
G01 X-4.71331 Y-2.89672
G01 X-4.63674 Y-2.82016
G01 X-4.60901 Y-2.82016
G01 X-4.58980 Y-2.81945
G01 X-4.60753 Y-2.81994
G01 X-4.61050 Y-2.82061
G01 X-4.61604 Y-2.82322
G01 X-4.62209 Y-2.82790
G01 X-4.69017 Y-2.89598
G01 X-4.69589 Y-2.89512
G01 X-4.70411 Y-2.89512
G01 X-4.71331 Y-2.89672
G01 X-4.72490 Y-2.90419
G01 X-4.73329 Y-2.91118
G01 X-4.74754 Y-2.92538
G01 X-4.74754 Y-2.93144
G01 X-4.74632 Y-2.92589
G01 X-4.74075 Y-2.91885
G01 X-4.74632 Y-2.92589
G01 X-4.74735 Y-2.93029
G01 X-4.74889 Y-2.94073
G01 X-4.74932 Y-2.94895
G01 X-4.74866 Y-2.96148
G01 X-4.74932 Y-2.94895
G01 X-4.74889 Y-2.94073
G01 X-4.74754 Y-2.93145
G01 X-4.74206 Y-2.92096
G01 X-4.73598 Y-2.91383
G04 P0 ( dwell for no time -- G64 should not smooth over this point )
G00 Z0.08000 ( retract )

G00 X-4.74754 Y-2.93145 ( rapid move to begin. )
G01 F180.00000
G01 Z-0.04000
G04 P0 ( dwell for no time -- G64 should not smooth over this point )
G01 F360.00000
G01 X-4.74754 Y-2.93145
G01 X-4.74754 Y-2.93144
G04 P0 ( dwell for no time -- G64 should not smooth over this point )
G00 Z0.08000 ( retract )

G00 X-4.74754 Y-2.96856 ( rapid move to begin. )
G01 F180.00000
G01 Z-0.04000
G04 P0 ( dwell for no time -- G64 should not smooth over this point )
G01 F360.00000
G01 X-4.74754 Y-2.96856
G01 X-4.74754 Y-2.97461
G01 X-4.73600 Y-2.98615
G04 P0 ( dwell for no time -- G64 should not smooth over this point )
G00 Z0.08000 ( retract )

G00 X-4.73601 Y-2.98615 ( rapid move to begin. )
G01 F180.00000
G01 Z-0.04000
G04 P0 ( dwell for no time -- G64 should not smooth over this point )
G01 F360.00000
G01 X-4.73601 Y-2.98615
G01 X-4.57820 Y-3.14395
G01 X-4.54993 Y-3.14395
G01 X-4.54509 Y-3.13968
G01 X-4.53825 Y-3.13561
G01 X-4.52840 Y-3.13251
G01 X-4.52162 Y-3.13189
G01 X-4.47318 Y-3.13227
G01 X-4.46544 Y-3.13411
G01 X-4.45822 Y-3.13747
G01 X-4.45183 Y-3.14221
G01 X-4.44799 Y-3.14625
G01 X-4.44260 Y-3.15488
G01 X-4.44086 Y-3.16834
G01 X-4.44260 Y-3.15488
G01 X-4.44260 Y-3.05261
G01 X-4.57009 Y-2.92504
G01 X-4.57474 Y-2.91809
G01 X-4.57696 Y-2.91077
G01 X-4.57731 Y-2.88723
G01 X-4.58011 Y-2.88650
G01 X-4.58394 Y-2.88394
G01 X-4.58650 Y-2.88011
G01 X-4.58723 Y-2.87731
G01 X-4.58869 Y-2.87731
G01 X-4.65015 Y-2.93877
G01 X-4.64890 Y-2.95123
G01 X-4.65028 Y-2.96183
G01 X-4.65282 Y-2.96965
G01 X-4.65794 Y-2.97904
G01 X-4.66673 Y-2.98880
G01 X-4.67442 Y-2.99431
G01 X-4.68419 Y-2.99866
G01 X-4.69343 Y-3.00069
G01 X-4.70411 Y-3.00095
G01 X-4.71696 Y-2.99821
G01 X-4.72558 Y-2.99431
G01 X-4.73409 Y-2.98806
G01 X-4.72702 Y-2.99418
G01 X-4.71800 Y-3.00054
G01 X-4.71331 Y-3.00328
G01 X-4.70739 Y-3.00454
G01 X-4.69589 Y-3.00488
G01 X-4.68457 Y-3.00283
G01 X-4.67107 Y-2.99682
G01 X-4.66313 Y-2.99094
G01 X-4.65646 Y-2.98367
G01 X-4.64966 Y-2.97241
G01 X-4.64585 Y-2.95983
G01 X-4.64490 Y-2.95000
G01 X-4.64587 Y-2.94006
G01 X-4.58919 Y-2.88339
G01 X-4.58673 Y-2.88673
G01 X-4.58125 Y-2.89025
G01 X-4.58125 Y-2.90659
G01 X-4.58027 Y-2.91418
G01 X-4.57821 Y-2.91995
G01 X-4.57313 Y-2.92754
G01 X-4.44653 Y-3.05425
G01 X-4.44653 Y-3.14207
G01 X-4.44260 Y-3.15488
G01 X-4.44653 Y-3.14207
G01 X-4.44898 Y-3.13950
G01 X-4.45876 Y-3.13269
G01 X-4.46389 Y-3.13049
G01 X-4.47239 Y-3.12842
G01 X-4.52160 Y-3.12795
G01 X-4.52879 Y-3.12860
G01 X-4.54016 Y-3.13216
G01 X-4.54504 Y-3.13487
G01 X-4.55152 Y-3.14001
G01 X-4.57657 Y-3.14001
G01 X-4.71331 Y-3.00328
G01 X-4.72490 Y-2.99580
G01 X-4.73508 Y-2.98712
G01 X-4.74206 Y-2.97904
G01 X-4.74754 Y-2.96855
G01 X-4.74632 Y-2.97411
G01 X-4.73601 Y-2.98615
G01 X-4.74632 Y-2.97411
G01 X-4.74866 Y-2.96148
G01 X-4.74754 Y-2.96855
G04 P0 ( dwell for no time -- G64 should not smooth over this point )
G00 Z0.08000 ( retract )

G00 X-3.80944 Y-2.43475 ( rapid move to begin. )
G01 F180.00000
G01 Z-0.04000
G04 P0 ( dwell for no time -- G64 should not smooth over this point )
G01 F360.00000
G01 X-3.80944 Y-2.43475
G01 X-3.80618 Y-2.42687
G01 X-4.14382 Y-2.42687
G01 X-4.25459 Y-2.53764
G01 X-4.25304 Y-2.54707
G01 X-4.01252 Y-2.66732
G01 X-3.93110 Y-2.66733
G01 X-3.92809 Y-2.66792
G01 X-3.92553 Y-2.66963
G01 X-3.92382 Y-2.67219
G01 X-3.92323 Y-2.67520
G01 X-3.92323 Y-2.81300
G01 X-3.92382 Y-2.81601
G01 X-3.92553 Y-2.81857
G01 X-3.92956 Y-2.82072
G01 X-4.06890 Y-2.82087
G01 X-4.07327 Y-2.81955
G01 X-4.07617 Y-2.81601
G01 X-4.07677 Y-2.81300
G01 X-4.07677 Y-2.68803
G01 X-4.27416 Y-2.58933
G01 X-4.27712 Y-2.59127
G01 X-4.28541 Y-2.59491
G01 X-4.29425 Y-2.59684
G01 X-4.30411 Y-2.59701
G01 X-4.31379 Y-2.59512
G01 X-4.32361 Y-2.59090
G01 X-4.33096 Y-2.58561
G01 X-4.33822 Y-2.57774
G01 X-4.34061 Y-2.57362
G01 X-4.65939 Y-2.57362
G01 X-4.66178 Y-2.57774
G01 X-4.66782 Y-2.58451
G01 X-4.67639 Y-2.59090
G01 X-4.68620 Y-2.59512
G01 X-4.69589 Y-2.59701
G01 X-4.70411 Y-2.59701
G01 X-4.71380 Y-2.59512
G01 X-4.72288 Y-2.59127
G01 X-4.73218 Y-2.58451
G01 X-4.73768 Y-2.57840
G01 X-4.74277 Y-2.56994
G01 X-4.74632 Y-2.55900
G01 X-4.74722 Y-2.55000
G01 X-4.74598 Y-2.53938
G01 X-4.74314 Y-2.53079
G01 X-4.73768 Y-2.52160
G01 X-4.73160 Y-2.51491
G01 X-4.72361 Y-2.50910
G01 X-4.71459 Y-2.50509
G01 X-4.70411 Y-2.50299
G01 X-4.69425 Y-2.50316
G01 X-4.68620 Y-2.50487
G01 X-4.67639 Y-2.50910
G01 X-4.66782 Y-2.51549
G01 X-4.66178 Y-2.52226
G01 X-4.65939 Y-2.52637
G01 X-4.34061 Y-2.52637
G01 X-4.33822 Y-2.52226
G01 X-4.33160 Y-2.51491
G01 X-4.32361 Y-2.50910
G01 X-4.31536 Y-2.50538
G01 X-4.30411 Y-2.50299
G01 X-4.29589 Y-2.50299
G01 X-4.28763 Y-2.50457
G01 X-4.17003 Y-2.38697
G01 X-4.16314 Y-2.38223
G01 X-4.15729 Y-2.38046
G01 X-3.79650 Y-2.38013
G01 X-3.78828 Y-2.38164
G01 X-3.78417 Y-2.38367
G01 X-3.77997 Y-2.38697
G01 X-3.66237 Y-2.50457
G01 X-3.65411 Y-2.50299
G01 X-3.64589 Y-2.50299
G01 X-3.63464 Y-2.50538
G01 X-3.62639 Y-2.50910
G01 X-3.61904 Y-2.51439
G01 X-3.61178 Y-2.52226
G01 X-3.60939 Y-2.52637
G01 X-3.29061 Y-2.52637
G01 X-3.28822 Y-2.52226
G01 X-3.28218 Y-2.51549
G01 X-3.27361 Y-2.50910
G01 X-3.26380 Y-2.50487
G01 X-3.25411 Y-2.50299
G01 X-3.24589 Y-2.50299
G01 X-3.23620 Y-2.50487
G01 X-3.22639 Y-2.50910
G01 X-3.21904 Y-2.51439
G01 X-3.21231 Y-2.52160
G01 X-3.20686 Y-2.53079
G01 X-3.20402 Y-2.53938
G01 X-3.20278 Y-2.55000
G01 X-3.20402 Y-2.56061
G01 X-3.20686 Y-2.56921
G01 X-3.21135 Y-2.57707
G01 X-3.21840 Y-2.58509
G01 X-3.22639 Y-2.59090
G01 X-3.23464 Y-2.59462
G01 X-3.24589 Y-2.59701
G01 X-3.25411 Y-2.59701
G01 X-3.26380 Y-2.59512
G01 X-3.27361 Y-2.59090
G01 X-3.28218 Y-2.58451
G01 X-3.28822 Y-2.57774
G01 X-3.29061 Y-2.57362
G01 X-3.60939 Y-2.57362
G01 X-3.61178 Y-2.57774
G01 X-3.61840 Y-2.58509
G01 X-3.62712 Y-2.59127
G01 X-3.63541 Y-2.59491
G01 X-3.64425 Y-2.59684
G01 X-3.65575 Y-2.59684
G01 X-3.66536 Y-2.59462
G01 X-3.67361 Y-2.59090
G01 X-3.68096 Y-2.58561
G01 X-3.68769 Y-2.57840
G01 X-3.69314 Y-2.56921
G01 X-3.69632 Y-2.55900
G01 X-3.69722 Y-2.55000
G01 X-3.69632 Y-2.54100
G01 X-3.69541 Y-2.53764
G01 X-3.80618 Y-2.42687
G01 X-3.80455 Y-2.42293
G01 X-4.14545 Y-2.42293
G01 X-4.25908 Y-2.53657
G01 X-4.25759 Y-2.54141
G01 X-4.25673 Y-2.54962
G01 X-4.01345 Y-2.67126
G01 X-3.93110 Y-2.67126
G01 X-3.92891 Y-2.67193
G01 X-3.92724 Y-2.67443
G01 X-3.92716 Y-2.81300
G01 X-3.92832 Y-2.81578
G01 X-3.93110 Y-2.81694
G01 X-4.06890 Y-2.81694
G01 X-4.07168 Y-2.81578
G01 X-4.07284 Y-2.81300
G01 X-4.07284 Y-2.68559
G01 X-4.27454 Y-2.58474
G01 X-4.27836 Y-2.58749
G01 X-4.28624 Y-2.59102
G01 X-4.29507 Y-2.59298
G01 X-4.30411 Y-2.59307
G01 X-4.31298 Y-2.59127
G01 X-4.32164 Y-2.58749
G01 X-4.32864 Y-2.58243
G01 X-4.33503 Y-2.57543
G01 X-4.33832 Y-2.56969
G01 X-4.66168 Y-2.56969
G01 X-4.66497 Y-2.57543
G01 X-4.67074 Y-2.58188
G01 X-4.67836 Y-2.58749
G01 X-4.68702 Y-2.59127
G01 X-4.69589 Y-2.59307
G01 X-4.70411 Y-2.59307
G01 X-4.71298 Y-2.59127
G01 X-4.72128 Y-2.58767
G01 X-4.72926 Y-2.58188
G01 X-4.73524 Y-2.57510
G01 X-4.73936 Y-2.56797
G01 X-4.74240 Y-2.55859
G01 X-4.74329 Y-2.55000
G01 X-4.74223 Y-2.54060
G01 X-4.73954 Y-2.53239
G01 X-4.73476 Y-2.52424
G01 X-4.72896 Y-2.51783
G01 X-4.72164 Y-2.51251
G01 X-4.71338 Y-2.50883
G01 X-4.70411 Y-2.50693
G01 X-4.69507 Y-2.50701
G01 X-4.68702 Y-2.50873
G01 X-4.67836 Y-2.51251
G01 X-4.67074 Y-2.51812
G01 X-4.66497 Y-2.52457
G01 X-4.66168 Y-2.53031
G01 X-4.33832 Y-2.53031
G01 X-4.33503 Y-2.52457
G01 X-4.32896 Y-2.51783
G01 X-4.32164 Y-2.51251
G01 X-4.31376 Y-2.50898
G01 X-4.30411 Y-2.50693
G01 X-4.29507 Y-2.50701
G01 X-4.28640 Y-2.50892
G01 X-4.16724 Y-2.38975
G01 X-4.16129 Y-2.38571
G01 X-4.15691 Y-2.38438
G01 X-3.79650 Y-2.38406
G01 X-3.78943 Y-2.38541
G01 X-3.78603 Y-2.38714
G01 X-3.78275 Y-2.38975
G01 X-3.66358 Y-2.50892
G01 X-3.65493 Y-2.50701
G01 X-3.64589 Y-2.50693
G01 X-3.63624 Y-2.50898
G01 X-3.62836 Y-2.51251
G01 X-3.62135 Y-2.51757
G01 X-3.61497 Y-2.52457
G01 X-3.61168 Y-2.53031
G01 X-3.28832 Y-2.53031
G01 X-3.28503 Y-2.52457
G01 X-3.27926 Y-2.51812
G01 X-3.27164 Y-2.51251
G01 X-3.26298 Y-2.50873
G01 X-3.25411 Y-2.50693
G01 X-3.24589 Y-2.50693
G01 X-3.23702 Y-2.50873
G01 X-3.22836 Y-2.51251
G01 X-3.22074 Y-2.51812
G01 X-3.21476 Y-2.52490
G01 X-3.21046 Y-2.53239
G01 X-3.20759 Y-2.54141
G01 X-3.20671 Y-2.55000
G01 X-3.20777 Y-2.55940
G01 X-3.21046 Y-2.56761
G01 X-3.21476 Y-2.57510
G01 X-3.22104 Y-2.58217
G01 X-3.22836 Y-2.58749
G01 X-3.23624 Y-2.59102
G01 X-3.24589 Y-2.59307
G01 X-3.25411 Y-2.59307
G01 X-3.26298 Y-2.59127
G01 X-3.27164 Y-2.58749
G01 X-3.27926 Y-2.58188
G01 X-3.28503 Y-2.57543
G01 X-3.28832 Y-2.56969
G01 X-3.61168 Y-2.56969
G01 X-3.61497 Y-2.57543
G01 X-3.62104 Y-2.58217
G01 X-3.62836 Y-2.58749
G01 X-3.63624 Y-2.59102
G01 X-3.64589 Y-2.59307
G01 X-3.65411 Y-2.59307
G01 X-3.66298 Y-2.59127
G01 X-3.67164 Y-2.58749
G01 X-3.67864 Y-2.58243
G01 X-3.68476 Y-2.57576
G01 X-3.68936 Y-2.56797
G01 X-3.69223 Y-2.55940
G01 X-3.69329 Y-2.55000
G01 X-3.69234 Y-2.54100
G01 X-3.69092 Y-2.53656
G01 X-3.80455 Y-2.42293

G04 P0 ( dwell for no time -- G64 should not smooth over this point )
G00 Z1.000 ( retract )

M5 ( Spindle off. )
G04 P1.000000
M9 ( Coolant off. )
M2 ( Program end. )

