( pcb2gcode 2.5.0 )
( Software-independent Gcode )

G94 ( Inches per minute feed rate. )
G20 ( Units == INCHES. )

G90 ( Absolute coordinates. )
G00 S12000 ( RPM spindle speed. )
G64 P0.00040 ( set maximum deviation from commanded toolpath )
G01 F360.00000 ( Feedrate. )


G00 Z1.00000 (Retract to tool change height)
T1
M5      (Spindle stop.)
G04 P1.00000 (Wait for spindle to stop)
(MSG, Change tool bit to mill diameter 0.00787in)
M6      (Tool change.)
M0      (Temporary machine stop.)
M3 ( Spindle on clockwise. )
G04 P1.00000 (Wait for spindle to get up to speed)
G04 P0 ( dwell for no time -- G64 should not smooth over this point )
G00 Z0.08000 ( retract )

G00 X-3.18784 Y-2.55113 ( rapid move to begin. )
G01 F180.00000
( Mill infeed pass 1/1 )
G01 Z-0.04000
G04 P0 ( dwell for no time -- G64 should not smooth over this point )
G01 F360.00000
G01 X-3.18784 Y-2.55113
G01 X-3.18784 Y-2.54890
G01 X-3.18824 Y-2.54291
G01 X-3.18901 Y-2.53786
G01 X-3.19070 Y-2.53133
G01 X-3.19242 Y-2.52653
G01 X-3.19489 Y-2.52120
G01 X-3.19792 Y-2.51603
G01 X-3.20200 Y-2.51049
G01 X-3.20541 Y-2.50666
G01 X-3.20978 Y-2.50257
G01 X-3.21444 Y-2.49899
G01 X-3.21950 Y-2.49581
G01 X-3.22475 Y-2.49317
G01 X-3.23033 Y-2.49101
G01 X-3.23610 Y-2.48939
G01 X-3.24231 Y-2.48830
G01 X-3.24850 Y-2.48784
G01 X-3.25236 Y-2.48786
G01 X-3.25736 Y-2.48825
G01 X-3.26149 Y-2.48888
G01 X-3.26608 Y-2.48993
G01 X-3.27047 Y-2.49128
G01 X-3.27435 Y-2.49279
G01 X-3.27889 Y-2.49493
G01 X-3.28224 Y-2.49684
G01 X-3.28758 Y-2.50046
G01 X-3.29081 Y-2.50308
G01 X-3.29446 Y-2.50654
G01 X-3.29709 Y-2.50939
G01 X-3.29873 Y-2.51141
G01 X-3.29848 Y-2.51197
G01 X-3.29873 Y-2.51141
G01 X-3.60128 Y-2.51141
G01 X-3.60153 Y-2.51197
G01 X-3.60128 Y-2.51141
G01 X-3.60323 Y-2.50904
G01 X-3.60675 Y-2.50532
G01 X-3.61126 Y-2.50136
G01 X-3.61688 Y-2.49739
G01 X-3.62130 Y-2.49483
G01 X-3.62623 Y-2.49254
G01 X-3.63314 Y-2.49016
G01 X-3.63812 Y-2.48896
G01 X-3.64361 Y-2.48814
G01 X-3.64948 Y-2.48782
G01 X-3.65458 Y-2.48800
G01 X-3.65748 Y-2.48830
G01 X-3.65770 Y-2.48888
G01 X-3.65748 Y-2.48830
G01 X-3.77048 Y-2.37537
G01 X-3.77372 Y-2.37270
G01 X-3.77571 Y-2.37129
G01 X-3.78017 Y-2.36885
G01 X-3.78240 Y-2.36786
G01 X-3.78724 Y-2.36633
G01 X-3.78922 Y-2.36586
G01 X-3.79426 Y-2.36527
G01 X-3.79650 Y-2.36516
G01 X-4.15350 Y-2.36516
G01 X-4.15574 Y-2.36527
G01 X-4.16078 Y-2.36586
G01 X-4.16645 Y-2.36745
G01 X-4.16983 Y-2.36885
G01 X-4.17497 Y-2.37174
G01 X-4.18007 Y-2.37587
G01 X-4.29251 Y-2.48830
G01 X-4.29230 Y-2.48888
G01 X-4.29251 Y-2.48830
G01 X-4.29542 Y-2.48800
G01 X-4.30052 Y-2.48782
G01 X-4.30638 Y-2.48814
G01 X-4.31188 Y-2.48896
G01 X-4.31686 Y-2.49016
G01 X-4.32376 Y-2.49254
G01 X-4.32870 Y-2.49483
G01 X-4.33312 Y-2.49739
G01 X-4.33874 Y-2.50136
G01 X-4.34325 Y-2.50532
G01 X-4.34677 Y-2.50904
G01 X-4.34872 Y-2.51141
G01 X-4.34847 Y-2.51197
G01 X-4.34872 Y-2.51141
G01 X-4.65127 Y-2.51141
G01 X-4.65151 Y-2.51197
G01 X-4.65127 Y-2.51141
G01 X-4.65320 Y-2.50906
G01 X-4.65644 Y-2.50563
G01 X-4.66015 Y-2.50227
G01 X-4.66310 Y-2.49994
G01 X-4.66701 Y-2.49729
G01 X-4.67111 Y-2.49493
G01 X-4.67526 Y-2.49295
G01 X-4.67952 Y-2.49128
G01 X-4.68392 Y-2.48993
G01 X-4.68851 Y-2.48888
G01 X-4.69222 Y-2.48831
G01 X-4.69850 Y-2.48784
G01 X-4.70268 Y-2.48787
G01 X-4.70725 Y-2.48826
G01 X-4.71390 Y-2.48939
G01 X-4.71882 Y-2.49075
G01 X-4.72091 Y-2.49146
G01 X-4.72643 Y-2.49373
G01 X-4.73088 Y-2.49603
G01 X-4.73592 Y-2.49924
G01 X-4.74055 Y-2.50285
G01 X-4.74520 Y-2.50730
G01 X-4.74884 Y-2.51151
G01 X-4.75232 Y-2.51640
G01 X-4.75531 Y-2.52158
G01 X-4.75775 Y-2.52693
G01 X-4.75969 Y-2.53258
G01 X-4.76107 Y-2.53829
G01 X-4.76192 Y-2.54422
G01 X-4.76218 Y-2.54977
G01 X-4.76193 Y-2.55563
G01 X-4.76113 Y-2.56142
G01 X-4.75978 Y-2.56711
G01 X-4.75791 Y-2.57264
G01 X-4.75553 Y-2.57798
G01 X-4.75266 Y-2.58307
G01 X-4.74932 Y-2.58787
G01 X-4.74611 Y-2.59169
G01 X-4.74137 Y-2.59643
G01 X-4.73683 Y-2.60011
G01 X-4.73196 Y-2.60334
G01 X-4.72757 Y-2.60572
G01 X-4.72142 Y-2.60838
G01 X-4.71667 Y-2.60989
G01 X-4.71097 Y-2.61119
G01 X-4.70885 Y-2.61153
G01 X-4.70440 Y-2.61203
G01 X-4.70024 Y-2.61217
G01 X-4.69361 Y-2.61184
G01 X-4.68977 Y-2.61134
G01 X-4.68513 Y-2.61038
G01 X-4.68057 Y-2.60907
G01 X-4.67613 Y-2.60742
G01 X-4.67183 Y-2.60543
G01 X-4.66768 Y-2.60313
G01 X-4.66373 Y-2.60051
G01 X-4.66066 Y-2.59815
G01 X-4.65679 Y-2.59472
G01 X-4.65351 Y-2.59130
G01 X-4.65126 Y-2.58858
G01 X-4.65151 Y-2.58804
G01 X-4.65126 Y-2.58858
G01 X-4.34873 Y-2.58858
G01 X-4.34851 Y-2.58808
G01 X-4.34873 Y-2.58858
G01 X-4.34431 Y-2.59361
G01 X-4.33977 Y-2.59781
G01 X-4.33420 Y-2.60194
G01 X-4.32859 Y-2.60521
G01 X-4.32654 Y-2.60621
G01 X-4.32091 Y-2.60856
G01 X-4.31442 Y-2.61049
G01 X-4.30804 Y-2.61165
G01 X-4.30580 Y-2.61189
G01 X-4.29956 Y-2.61218
G01 X-4.29270 Y-2.61175
G01 X-4.28594 Y-2.61057
G01 X-4.27981 Y-2.60880
G01 X-4.27367 Y-2.60630
G01 X-4.27364 Y-2.60575
G01 X-4.27367 Y-2.60630
G01 X-4.09173 Y-2.69727
G01 X-4.09079 Y-2.69669
G01 X-4.09173 Y-2.69727
G01 X-4.09173 Y-2.79162
G01 X-4.08544 Y-2.80682
G01 X-4.08544 Y-2.69338
G01 X-4.08449 Y-2.69280
G01 X-4.08544 Y-2.69338
G01 X-4.27368 Y-2.59925
G01 X-4.27367 Y-2.59859
G01 X-4.27368 Y-2.59925
G01 X-4.27454 Y-2.59974
G01 X-4.28123 Y-2.60264
G01 X-4.28701 Y-2.60435
G01 X-4.29304 Y-2.60544
G01 X-4.30094 Y-2.60586
G01 X-4.30658 Y-2.60550
G01 X-4.31261 Y-2.60444
G01 X-4.31876 Y-2.60264
G01 X-4.32406 Y-2.60042
G01 X-4.32579 Y-2.59956
G01 X-4.33107 Y-2.59644
G01 X-4.33589 Y-2.59284
G01 X-4.34028 Y-2.58873
G01 X-4.34498 Y-2.58316
G01 X-4.34556 Y-2.58229
G01 X-4.34528 Y-2.58168
G01 X-4.34556 Y-2.58229
G01 X-4.65441 Y-2.58229
G01 X-4.65472 Y-2.58165
G01 X-4.65441 Y-2.58229
G01 X-4.65782 Y-2.58666
G01 X-4.66104 Y-2.59006
G01 X-4.66420 Y-2.59291
G01 X-4.66723 Y-2.59527
G01 X-4.67078 Y-2.59764
G01 X-4.67449 Y-2.59972
G01 X-4.67835 Y-2.60152
G01 X-4.68234 Y-2.60302
G01 X-4.68643 Y-2.60421
G01 X-4.69060 Y-2.60509
G01 X-4.69441 Y-2.60560
G01 X-4.70006 Y-2.60588
G01 X-4.70400 Y-2.60574
G01 X-4.70853 Y-2.60523
G01 X-4.71405 Y-2.60409
G01 X-4.71979 Y-2.60225
G01 X-4.72392 Y-2.60051
G01 X-4.72788 Y-2.59842
G01 X-4.73294 Y-2.59515
G01 X-4.73703 Y-2.59185
G01 X-4.74132 Y-2.58761
G01 X-4.74421 Y-2.58419
G01 X-4.74679 Y-2.58053
G01 X-4.74945 Y-2.57600
G01 X-4.75198 Y-2.57053
G01 X-4.75368 Y-2.56556
G01 X-4.75490 Y-2.56045
G01 X-4.75569 Y-2.55447
G01 X-4.75589 Y-2.54999
G01 X-4.75568 Y-2.54541
G01 X-4.75498 Y-2.54006
G01 X-4.75359 Y-2.53416
G01 X-4.75182 Y-2.52908
G01 X-4.74962 Y-2.52429
G01 X-4.74733 Y-2.52031
G01 X-4.74377 Y-2.51525
G01 X-4.73965 Y-2.51063
G01 X-4.73629 Y-2.50750
G01 X-4.73212 Y-2.50427
G01 X-4.72758 Y-2.50140
G01 X-4.72359 Y-2.49935
G01 X-4.71786 Y-2.49705
G01 X-4.71268 Y-2.49557
G01 X-4.70827 Y-2.49474
G01 X-4.70186 Y-2.49415
G01 X-4.69809 Y-2.49415
G01 X-4.69437 Y-2.49441
G01 X-4.68907 Y-2.49520
G01 X-4.68535 Y-2.49607
G01 X-4.68141 Y-2.49730
G01 X-4.67758 Y-2.49881
G01 X-4.67422 Y-2.50041
G01 X-4.67053 Y-2.50252
G01 X-4.66734 Y-2.50466
G01 X-4.66315 Y-2.50799
G01 X-4.66043 Y-2.51054
G01 X-4.65728 Y-2.51398
G01 X-4.65441 Y-2.51771
G01 X-4.65472 Y-2.51835
G01 X-4.65441 Y-2.51771
G01 X-4.34560 Y-2.51771
G01 X-4.34533 Y-2.51830
G01 X-4.34560 Y-2.51771
G01 X-4.34269 Y-2.51393
G01 X-4.33901 Y-2.50998
G01 X-4.33528 Y-2.50666
G01 X-4.32993 Y-2.50282
G01 X-4.32596 Y-2.50051
G01 X-4.32118 Y-2.49828
G01 X-4.31610 Y-2.49648
G01 X-4.31165 Y-2.49535
G01 X-4.30515 Y-2.49436
G01 X-4.30027 Y-2.49411
G01 X-4.29489 Y-2.49435
G01 X-4.29028 Y-2.49498
G01 X-4.29006 Y-2.49560
G01 X-4.29028 Y-2.49498
G01 X-4.17586 Y-2.38056
G01 X-4.17163 Y-2.37709
G01 X-4.16723 Y-2.37459
G01 X-4.16462 Y-2.37348
G01 X-4.15935 Y-2.37200
G01 X-4.15350 Y-2.37146
G01 X-3.79650 Y-2.37146
G01 X-3.79025 Y-2.37208
G01 X-3.78462 Y-2.37375
G01 X-3.77904 Y-2.37664
G01 X-3.77443 Y-2.38029
G01 X-3.65972 Y-2.49498
G01 X-3.65994 Y-2.49560
G01 X-3.65972 Y-2.49498
G01 X-3.65511 Y-2.49435
G01 X-3.64973 Y-2.49411
G01 X-3.64485 Y-2.49436
G01 X-3.63835 Y-2.49535
G01 X-3.63390 Y-2.49648
G01 X-3.62882 Y-2.49828
G01 X-3.62404 Y-2.50051
G01 X-3.62007 Y-2.50282
G01 X-3.61472 Y-2.50666
G01 X-3.61099 Y-2.50998
G01 X-3.60731 Y-2.51393
G01 X-3.60439 Y-2.51771
G01 X-3.60467 Y-2.51830
G01 X-3.60439 Y-2.51771
G01 X-3.29559 Y-2.51771
G01 X-3.29528 Y-2.51835
G01 X-3.29559 Y-2.51771
G01 X-3.29272 Y-2.51398
G01 X-3.28957 Y-2.51054
G01 X-3.28685 Y-2.50799
G01 X-3.28266 Y-2.50466
G01 X-3.27947 Y-2.50252
G01 X-3.27578 Y-2.50041
G01 X-3.27242 Y-2.49881
G01 X-3.26859 Y-2.49730
G01 X-3.26465 Y-2.49607
G01 X-3.26093 Y-2.49520
G01 X-3.25563 Y-2.49441
G01 X-3.25191 Y-2.49415
G01 X-3.24814 Y-2.49415
G01 X-3.24173 Y-2.49474
G01 X-3.23732 Y-2.49557
G01 X-3.23214 Y-2.49705
G01 X-3.22641 Y-2.49935
G01 X-3.22242 Y-2.50140
G01 X-3.21788 Y-2.50427
G01 X-3.21371 Y-2.50750
G01 X-3.21035 Y-2.51063
G01 X-3.20623 Y-2.51525
G01 X-3.20308 Y-2.51963
G01 X-3.20076 Y-2.52360
G01 X-3.19790 Y-2.52982
G01 X-3.19620 Y-2.53492
G01 X-3.19515 Y-2.53928
G01 X-3.19447 Y-2.54382
G01 X-3.19411 Y-2.55001
G01 X-3.19435 Y-2.55512
G01 X-3.19518 Y-2.56088
G01 X-3.19652 Y-2.56623
G01 X-3.19835 Y-2.57133
G01 X-3.20089 Y-2.57667
G01 X-3.20348 Y-2.58097
G01 X-3.20730 Y-2.58603
G01 X-3.21048 Y-2.58952
G01 X-3.21397 Y-2.59270
G01 X-3.21837 Y-2.59605
G01 X-3.22368 Y-2.59930
G01 X-3.22867 Y-2.60165
G01 X-3.23377 Y-2.60348
G01 X-3.23952 Y-2.60489
G01 X-3.24529 Y-2.60567
G01 X-3.25012 Y-2.60588
G01 X-3.25418 Y-2.60573
G01 X-3.25827 Y-2.60527
G01 X-3.26230 Y-2.60451
G01 X-3.26615 Y-2.60350
G01 X-3.27030 Y-2.60206
G01 X-3.27370 Y-2.60061
G01 X-3.27726 Y-2.59878
G01 X-3.28076 Y-2.59666
G01 X-3.28433 Y-2.59409
G01 X-3.28748 Y-2.59144
G01 X-3.28987 Y-2.58916
G01 X-3.29230 Y-2.58651
G01 X-3.29561 Y-2.58229
G01 X-3.29532 Y-2.58169
G01 X-3.29561 Y-2.58229
G01 X-3.60442 Y-2.58229
G01 X-3.60472 Y-2.58165
G01 X-3.60442 Y-2.58229
G01 X-3.60772 Y-2.58654
G01 X-3.61103 Y-2.59006
G01 X-3.61389 Y-2.59264
G01 X-3.61841 Y-2.59609
G01 X-3.62174 Y-2.59821
G01 X-3.62552 Y-2.60024
G01 X-3.62913 Y-2.60184
G01 X-3.63316 Y-2.60329
G01 X-3.63739 Y-2.60444
G01 X-3.64129 Y-2.60519
G01 X-3.64682 Y-2.60579
G01 X-3.65078 Y-2.60588
G01 X-3.65525 Y-2.60564
G01 X-3.66004 Y-2.60498
G01 X-3.66514 Y-2.60379
G01 X-3.67000 Y-2.60218
G01 X-3.67469 Y-2.60014
G01 X-3.67916 Y-2.59767
G01 X-3.68340 Y-2.59481
G01 X-3.68735 Y-2.59157
G01 X-3.69125 Y-2.58770
G01 X-3.69474 Y-2.58347
G01 X-3.69722 Y-2.57989
G01 X-3.69939 Y-2.57611
G01 X-3.70188 Y-2.57078
G01 X-3.70370 Y-2.56547
G01 X-3.70482 Y-2.56087
G01 X-3.70549 Y-2.55656
G01 X-3.70587 Y-2.55107
G01 X-3.70559 Y-2.54438
G01 X-3.70503 Y-2.54028
G01 X-3.70444 Y-2.54006
G01 X-3.70503 Y-2.54028
G01 X-3.80977 Y-2.43553
G01 X-3.80957 Y-2.43505
G01 X-3.80977 Y-2.43553
G01 X-3.91028 Y-2.43553
G01 X-3.91442 Y-2.43194
G01 X-3.91999 Y-2.42855
G01 X-3.92498 Y-2.42663
G01 X-3.93110 Y-2.42584
G01 X-4.06890 Y-2.42584
G01 X-4.07502 Y-2.42663
G01 X-4.08001 Y-2.42855
G01 X-4.08122 Y-2.42923
G01 X-4.14284 Y-2.42923
G01 X-4.14304 Y-2.42876
G01 X-4.14284 Y-2.42923
G01 X-4.25187 Y-2.53826
G01 X-4.25261 Y-2.53803
G01 X-4.25187 Y-2.53826
G01 X-4.25112 Y-2.54167
G01 X-4.25065 Y-2.54562
G01 X-4.25128 Y-2.54608
G01 X-4.25065 Y-2.54562
G01 X-4.01197 Y-2.66496
G01 X-4.01201 Y-2.66513
G01 X-4.01197 Y-2.66496
G01 X-3.93070 Y-2.66497
G01 X-3.92871 Y-2.66525
G01 X-3.92718 Y-2.66574
G01 X-3.92575 Y-2.66647
G01 X-3.92445 Y-2.66742
G01 X-3.92306 Y-2.66886
G01 X-3.92198 Y-2.67055
G01 X-3.92115 Y-2.67281
G01 X-3.92087 Y-2.67480
G01 X-3.92087 Y-2.81340
G01 X-3.92115 Y-2.81539
G01 X-3.92164 Y-2.81692
G01 X-3.92259 Y-2.81869
G01 X-3.92386 Y-2.82024
G01 X-3.92541 Y-2.82151
G01 X-3.92718 Y-2.82246
G01 X-3.92910 Y-2.82304
G01 X-3.93110 Y-2.82324
G01 X-4.06890 Y-2.82324
G01 X-4.07050 Y-2.82311
G01 X-4.07206 Y-2.82274
G01 X-4.07459 Y-2.82151
G01 X-4.07642 Y-2.81995
G01 X-4.07783 Y-2.81800
G01 X-4.07875 Y-2.81578
G01 X-4.07913 Y-2.81340
G01 X-4.07914 Y-2.68948
G01 X-4.07820 Y-2.68890
G01 X-4.07914 Y-2.68948
G01 X-4.27389 Y-2.59211
G01 X-4.27388 Y-2.59138
G01 X-4.27389 Y-2.59211
G01 X-4.27805 Y-2.59446
G01 X-4.28338 Y-2.59672
G01 X-4.28922 Y-2.59838
G01 X-4.29453 Y-2.59928
G01 X-4.30020 Y-2.59958
G01 X-4.30586 Y-2.59924
G01 X-4.31155 Y-2.59822
G01 X-4.31699 Y-2.59658
G01 X-4.32195 Y-2.59446
G01 X-4.32698 Y-2.59160
G01 X-4.33125 Y-2.58848
G01 X-4.33572 Y-2.58439
G01 X-4.33948 Y-2.57999
G01 X-4.34219 Y-2.57599
G01 X-4.34187 Y-2.57534
G01 X-4.34219 Y-2.57599
G01 X-4.65779 Y-2.57599
G01 X-4.65808 Y-2.57537
G01 X-4.65779 Y-2.57599
G01 X-4.66009 Y-2.57942
G01 X-4.66270 Y-2.58267
G01 X-4.66530 Y-2.58542
G01 X-4.66809 Y-2.58796
G01 X-4.67108 Y-2.59028
G01 X-4.67423 Y-2.59236
G01 X-4.67788 Y-2.59437
G01 X-4.68096 Y-2.59579
G01 X-4.68451 Y-2.59710
G01 X-4.68814 Y-2.59815
G01 X-4.69184 Y-2.59891
G01 X-4.69560 Y-2.59939
G01 X-4.69949 Y-2.59958
G01 X-4.70332 Y-2.59947
G01 X-4.70743 Y-2.59902
G01 X-4.71247 Y-2.59799
G01 X-4.71737 Y-2.59644
G01 X-4.72122 Y-2.59482
G01 X-4.72492 Y-2.59286
G01 X-4.72923 Y-2.59006
G01 X-4.73286 Y-2.58713
G01 X-4.73652 Y-2.58353
G01 X-4.73922 Y-2.58033
G01 X-4.74163 Y-2.57692
G01 X-4.74398 Y-2.57289
G01 X-4.74612 Y-2.56822
G01 X-4.74775 Y-2.56334
G01 X-4.74879 Y-2.55880
G01 X-4.74937 Y-2.55466
G01 X-4.74957 Y-2.55048
G01 X-4.74936 Y-2.54522
G01 X-4.74866 Y-2.54049
G01 X-4.74755 Y-2.53595
G01 X-4.74579 Y-2.53099
G01 X-4.74403 Y-2.52719
G01 X-4.74189 Y-2.52348
G01 X-4.73883 Y-2.51917
G01 X-4.73533 Y-2.51522
G01 X-4.73220 Y-2.51229
G01 X-4.72850 Y-2.50942
G01 X-4.72447 Y-2.50687
G01 X-4.72074 Y-2.50497
G01 X-4.71585 Y-2.50301
G01 X-4.71125 Y-2.50171
G01 X-4.70713 Y-2.50094
G01 X-4.70150 Y-2.50044
G01 X-4.69812 Y-2.50045
G01 X-4.69447 Y-2.50072
G01 X-4.69085 Y-2.50127
G01 X-4.68754 Y-2.50201
G01 X-4.68367 Y-2.50318
G01 X-4.68062 Y-2.50436
G01 X-4.67663 Y-2.50627
G01 X-4.67369 Y-2.50797
G01 X-4.67057 Y-2.51009
G01 X-4.66771 Y-2.51237
G01 X-4.66502 Y-2.51485
G01 X-4.66245 Y-2.51761
G01 X-4.66010 Y-2.52056
G01 X-4.65778 Y-2.52401
G01 X-4.65808 Y-2.52464
G01 X-4.65778 Y-2.52401
G01 X-4.34218 Y-2.52401
G01 X-4.34182 Y-2.52471
G01 X-4.34218 Y-2.52401
G01 X-4.34079 Y-2.52180
G01 X-4.33788 Y-2.51800
G01 X-4.33425 Y-2.51416
G01 X-4.33103 Y-2.51132
G01 X-4.32715 Y-2.50851
G01 X-4.32303 Y-2.50609
G01 X-4.31879 Y-2.50411
G01 X-4.31429 Y-2.50252
G01 X-4.30964 Y-2.50136
G01 X-4.30491 Y-2.50066
G01 X-4.30073 Y-2.50043
G01 X-4.29547 Y-2.50062
G01 X-4.29073 Y-2.50129
G01 X-4.28826 Y-2.50187
G01 X-4.28803 Y-2.50263
G01 X-4.28826 Y-2.50187
G01 X-4.17170 Y-2.38530
G01 X-4.16829 Y-2.38245
G01 X-4.16693 Y-2.38158
G01 X-4.16316 Y-2.37965
G01 X-4.15911 Y-2.37839
G01 X-4.15753 Y-2.37811
G01 X-4.15350 Y-2.37776
G01 X-3.79650 Y-2.37776
G01 X-3.79168 Y-2.37822
G01 X-3.78684 Y-2.37965
G01 X-3.78237 Y-2.38199
G01 X-3.77854 Y-2.38507
G01 X-3.66173 Y-2.50187
G01 X-3.66197 Y-2.50263
G01 X-3.66173 Y-2.50187
G01 X-3.65927 Y-2.50129
G01 X-3.65453 Y-2.50062
G01 X-3.64927 Y-2.50043
G01 X-3.64509 Y-2.50066
G01 X-3.64036 Y-2.50136
G01 X-3.63571 Y-2.50252
G01 X-3.63120 Y-2.50411
G01 X-3.62697 Y-2.50609
G01 X-3.62284 Y-2.50851
G01 X-3.61897 Y-2.51132
G01 X-3.61575 Y-2.51416
G01 X-3.61212 Y-2.51800
G01 X-3.60921 Y-2.52180
G01 X-3.60782 Y-2.52401
G01 X-3.60818 Y-2.52471
G01 X-3.60782 Y-2.52401
G01 X-3.29222 Y-2.52401
G01 X-3.29192 Y-2.52464
G01 X-3.29222 Y-2.52401
G01 X-3.28990 Y-2.52056
G01 X-3.28755 Y-2.51761
G01 X-3.28498 Y-2.51485
G01 X-3.28229 Y-2.51237
G01 X-3.27942 Y-2.51009
G01 X-3.27630 Y-2.50797
G01 X-3.27337 Y-2.50627
G01 X-3.26938 Y-2.50436
G01 X-3.26633 Y-2.50318
G01 X-3.26246 Y-2.50201
G01 X-3.25915 Y-2.50127
G01 X-3.25553 Y-2.50072
G01 X-3.25188 Y-2.50045
G01 X-3.24850 Y-2.50044
G01 X-3.24287 Y-2.50094
G01 X-3.23875 Y-2.50171
G01 X-3.23415 Y-2.50301
G01 X-3.22926 Y-2.50497
G01 X-3.22553 Y-2.50687
G01 X-3.22149 Y-2.50942
G01 X-3.21780 Y-2.51229
G01 X-3.21467 Y-2.51522
G01 X-3.21116 Y-2.51917
G01 X-3.20837 Y-2.52306
G01 X-3.20621 Y-2.52676
G01 X-3.20385 Y-2.53190
G01 X-3.20232 Y-2.53642
G01 X-3.20133 Y-2.54049
G01 X-3.20070 Y-2.54473
G01 X-3.20041 Y-2.55001
G01 X-3.20062 Y-2.55440
G01 X-3.20136 Y-2.55965
G01 X-3.20255 Y-2.56440
G01 X-3.20417 Y-2.56892
G01 X-3.20626 Y-2.57335
G01 X-3.20872 Y-2.57748
G01 X-3.21197 Y-2.58180
G01 X-3.21530 Y-2.58541
G01 X-3.21845 Y-2.58825
G01 X-3.22211 Y-2.59099
G01 X-3.22664 Y-2.59374
G01 X-3.23108 Y-2.59583
G01 X-3.23560 Y-2.59745
G01 X-3.24084 Y-2.59872
G01 X-3.24510 Y-2.59934
G01 X-3.24993 Y-2.59958
G01 X-3.25353 Y-2.59946
G01 X-3.25678 Y-2.59911
G01 X-3.26075 Y-2.59841
G01 X-3.26417 Y-2.59752
G01 X-3.26752 Y-2.59639
G01 X-3.27087 Y-2.59498
G01 X-3.27403 Y-2.59337
G01 X-3.27715 Y-2.59149
G01 X-3.28004 Y-2.58945
G01 X-3.28314 Y-2.58688
G01 X-3.28550 Y-2.58462
G01 X-3.28764 Y-2.58228
G01 X-3.29013 Y-2.57913
G01 X-3.29223 Y-2.57599
G01 X-3.29187 Y-2.57530
G01 X-3.29223 Y-2.57599
G01 X-3.60779 Y-2.57599
G01 X-3.60817 Y-2.57526
G01 X-3.60779 Y-2.57599
G01 X-3.61016 Y-2.57952
G01 X-3.61286 Y-2.58286
G01 X-3.61556 Y-2.58568
G01 X-3.61839 Y-2.58820
G01 X-3.62149 Y-2.59057
G01 X-3.62477 Y-2.59268
G01 X-3.62775 Y-2.59431
G01 X-3.63166 Y-2.59607
G01 X-3.63486 Y-2.59721
G01 X-3.63940 Y-2.59843
G01 X-3.64283 Y-2.59906
G01 X-3.64661 Y-2.59947
G01 X-3.65050 Y-2.59958
G01 X-3.65444 Y-2.59939
G01 X-3.65891 Y-2.59878
G01 X-3.66344 Y-2.59773
G01 X-3.66775 Y-2.59630
G01 X-3.67190 Y-2.59449
G01 X-3.67588 Y-2.59230
G01 X-3.67963 Y-2.58976
G01 X-3.68314 Y-2.58688
G01 X-3.68637 Y-2.58370
G01 X-3.68958 Y-2.57986
G01 X-3.69190 Y-2.57652
G01 X-3.69415 Y-2.57258
G01 X-3.69619 Y-2.56800
G01 X-3.69755 Y-2.56405
G01 X-3.69854 Y-2.56010
G01 X-3.69936 Y-2.55469
G01 X-3.69958 Y-2.55061
G01 X-3.69943 Y-2.54623
G01 X-3.69876 Y-2.54097
G01 X-3.69813 Y-2.53827
G01 X-3.69747 Y-2.53804
G01 X-3.69813 Y-2.53827
G01 X-3.80716 Y-2.42923
G01 X-3.80696 Y-2.42876
G01 X-3.80716 Y-2.42923
G01 X-3.91878 Y-2.42923
G01 X-3.91999 Y-2.42855
G01 X-3.92499 Y-2.42667
G01 X-3.93110 Y-2.42585
G01 X-4.06890 Y-2.42585
G01 X-4.07429 Y-2.42650
G01 X-4.08001 Y-2.42855
G01 X-4.08558 Y-2.43194
G01 X-4.08972 Y-2.43553
G01 X-4.14023 Y-2.43553
G01 X-4.14043 Y-2.43505
G01 X-4.14023 Y-2.43553
G01 X-4.24497 Y-2.54028
G01 X-4.24571 Y-2.54004
G01 X-4.24497 Y-2.54028
G01 X-4.24487 Y-2.54082
G01 X-4.24477 Y-2.54152
G01 X-4.24540 Y-2.54198
G01 X-4.24477 Y-2.54152
G01 X-4.01048 Y-2.65866
G01 X-4.01052 Y-2.65883
G01 X-4.01048 Y-2.65866
G01 X-3.93110 Y-2.65866
G01 X-3.92908 Y-2.65879
G01 X-3.92669 Y-2.65926
G01 X-3.92403 Y-2.66025
G01 X-3.92191 Y-2.66145
G01 X-3.92000 Y-2.66295
G01 X-3.91806 Y-2.66503
G01 X-3.91671 Y-2.66705
G01 X-3.91567 Y-2.66925
G01 X-3.91497 Y-2.67158
G01 X-3.91469 Y-2.67318
G01 X-3.91456 Y-2.67520
G01 X-3.91457 Y-2.81340
G01 X-3.91488 Y-2.81623
G01 X-3.91567 Y-2.81895
G01 X-3.91671 Y-2.82115
G01 X-3.91832 Y-2.82349
G01 X-3.92093 Y-2.82604
G01 X-3.92367 Y-2.82777
G01 X-3.92669 Y-2.82894
G01 X-3.93029 Y-2.82951
G01 X-4.06273 Y-2.82953
G01 X-4.06756 Y-2.82753
G01 X-4.07285 Y-2.82475
G01 X-4.07716 Y-2.82125
G01 X-4.08065 Y-2.81695
G01 X-4.08343 Y-2.81166
G01 X-4.08544 Y-2.80682
G01 X-4.08343 Y-2.81166
G01 X-4.08065 Y-2.81695
G01 X-4.07716 Y-2.82125
G01 X-4.07285 Y-2.82475
G01 X-4.06756 Y-2.82753
G01 X-4.04752 Y-2.83583
G01 X-3.92949 Y-2.83578
G01 X-3.92749 Y-2.83555
G01 X-3.92512 Y-2.83504
G01 X-3.92283 Y-2.83428
G01 X-3.92062 Y-2.83329
G01 X-3.91854 Y-2.83207
G01 X-3.91659 Y-2.83064
G01 X-3.91481 Y-2.82900
G01 X-3.91321 Y-2.82719
G01 X-3.91119 Y-2.82418
G01 X-3.90954 Y-2.82051
G01 X-3.90855 Y-2.81661
G01 X-3.90827 Y-2.81300
G01 X-3.90827 Y-2.70969
G01 X-3.90918 Y-2.70710
G01 X-3.91064 Y-2.69529
G01 X-3.91065 Y-2.67540
G01 X-3.91205 Y-2.66416
G01 X-3.91326 Y-2.66095
G01 X-3.91539 Y-2.65863
G01 X-3.91787 Y-2.65659
G01 X-3.92027 Y-2.65510
G01 X-3.92283 Y-2.65392
G01 X-3.92551 Y-2.65306
G01 X-3.92829 Y-2.65254
G01 X-3.93110 Y-2.65237
G01 X-4.00899 Y-2.65237
G01 X-4.00903 Y-2.65253
G01 X-4.00899 Y-2.65237
G01 X-4.23510 Y-2.53931
G01 X-4.23951 Y-2.54003
G01 X-4.23510 Y-2.53931
G01 X-4.13762 Y-2.44183
G01 X-4.13782 Y-2.44135
G01 X-4.13762 Y-2.44183
G01 X-4.09619 Y-2.44183
G01 X-4.09113 Y-2.43677
G01 X-4.08597 Y-2.43225
G01 X-4.08057 Y-2.42883
G01 X-4.07501 Y-2.42667
G01 X-4.06890 Y-2.42585
G01 X-3.93110 Y-2.42585
G01 X-3.92499 Y-2.42667
G01 X-3.91943 Y-2.42883
G01 X-3.91403 Y-2.43225
G01 X-3.90887 Y-2.43677
G01 X-3.90381 Y-2.44183
G01 X-3.81238 Y-2.44183
G01 X-3.81218 Y-2.44135
G01 X-3.81238 Y-2.44183
G01 X-3.71169 Y-2.54252
G01 X-3.71114 Y-2.54230
G01 X-3.71169 Y-2.54252
G01 X-3.71183 Y-2.54354
G01 X-3.71218 Y-2.55053
G01 X-3.71187 Y-2.55626
G01 X-3.71095 Y-2.56230
G01 X-3.70957 Y-2.56783
G01 X-3.70764 Y-2.57332
G01 X-3.70527 Y-2.57850
G01 X-3.70226 Y-2.58370
G01 X-3.69302 Y-2.59072
G01 X-3.67993 Y-2.60163
G01 X-3.67532 Y-2.60503
G01 X-3.66907 Y-2.60915
G01 X-3.66664 Y-2.60992
G01 X-3.66180 Y-2.61105
G01 X-3.65618 Y-2.61187
G01 X-3.64973 Y-2.61217
G01 X-3.64575 Y-2.61204
G01 X-3.64101 Y-2.61153
G01 X-3.63621 Y-2.61063
G01 X-3.63234 Y-2.60961
G01 X-3.62618 Y-2.60743
G01 X-3.62254 Y-2.60580
G01 X-3.61835 Y-2.60353
G01 X-3.61425 Y-2.60088
G01 X-3.61071 Y-2.59819
G01 X-3.60681 Y-2.59474
G01 X-3.60373 Y-2.59154
G01 X-3.60126 Y-2.58858
G01 X-3.60150 Y-2.58804
G01 X-3.60126 Y-2.58858
G01 X-3.29873 Y-2.58858
G01 X-3.29848 Y-2.58802
G01 X-3.29873 Y-2.58858
G01 X-3.29480 Y-2.59312
G01 X-3.29152 Y-2.59629
G01 X-3.28833 Y-2.59896
G01 X-3.28334 Y-2.60248
G01 X-3.27978 Y-2.60459
G01 X-3.27542 Y-2.60674
G01 X-3.27197 Y-2.60817
G01 X-3.26777 Y-2.60959
G01 X-3.26347 Y-2.61071
G01 X-3.25939 Y-2.61147
G01 X-3.25444 Y-2.61203
G01 X-3.25042 Y-2.61218
G01 X-3.24312 Y-2.61179
G01 X-3.23789 Y-2.61099
G01 X-3.23194 Y-2.60950
G01 X-3.22626 Y-2.60747
G01 X-3.22138 Y-2.60520
G01 X-3.21585 Y-2.60197
G01 X-3.21149 Y-2.59880
G01 X-3.20974 Y-2.59737
G01 X-3.20525 Y-2.59315
G01 X-3.20189 Y-2.58940
G01 X-3.19824 Y-2.58446
G01 X-3.19514 Y-2.57928
G01 X-3.19252 Y-2.57374
G01 X-3.19049 Y-2.56806
G01 X-3.18908 Y-2.56247
G01 X-3.18816 Y-2.55651
G01 X-3.18784 Y-2.55113
G01 X-3.20672 Y-2.55019
G01 X-3.20695 Y-2.55447
G01 X-3.20758 Y-2.55861
G01 X-3.20864 Y-2.56276
G01 X-3.21007 Y-2.56669
G01 X-3.21191 Y-2.57056
G01 X-3.21407 Y-2.57414
G01 X-3.21639 Y-2.57728
G01 X-3.21926 Y-2.58047
G01 X-3.22272 Y-2.58361
G01 X-3.22618 Y-2.58614
G01 X-3.22978 Y-2.58827
G01 X-3.23366 Y-2.59008
G01 X-3.23761 Y-2.59147
G01 X-3.24177 Y-2.59249
G01 X-3.24591 Y-2.59309
G01 X-3.24980 Y-2.59328
G01 X-3.25294 Y-2.59318
G01 X-3.25610 Y-2.59285
G01 X-3.25924 Y-2.59228
G01 X-3.26223 Y-2.59152
G01 X-3.26515 Y-2.59055
G01 X-3.26809 Y-2.58932
G01 X-3.27085 Y-2.58793
G01 X-3.27358 Y-2.58630
G01 X-3.27633 Y-2.58435
G01 X-3.27879 Y-2.58232
G01 X-3.28109 Y-2.58012
G01 X-3.28316 Y-2.57782
G01 X-3.28511 Y-2.57531
G01 X-3.28682 Y-2.57275
G01 X-3.28853 Y-2.56969
G01 X-3.61147 Y-2.56969
G01 X-3.61362 Y-2.57346
G01 X-3.61552 Y-2.57617
G01 X-3.61769 Y-2.57880
G01 X-3.62005 Y-2.58125
G01 X-3.62252 Y-2.58344
G01 X-3.62524 Y-2.58550
G01 X-3.62811 Y-2.58734
G01 X-3.63102 Y-2.58890
G01 X-3.63414 Y-2.59027
G01 X-3.63725 Y-2.59137
G01 X-3.64055 Y-2.59224
G01 X-3.64390 Y-2.59285
G01 X-3.64719 Y-2.59319
G01 X-3.65060 Y-2.59328
G01 X-3.65402 Y-2.59309
G01 X-3.65795 Y-2.59255
G01 X-3.66191 Y-2.59161
G01 X-3.66566 Y-2.59035
G01 X-3.66928 Y-2.58875
G01 X-3.67274 Y-2.58683
G01 X-3.67601 Y-2.58460
G01 X-3.67906 Y-2.58207
G01 X-3.68187 Y-2.57928
G01 X-3.68419 Y-2.57653
G01 X-3.68648 Y-2.57330
G01 X-3.68862 Y-2.56955
G01 X-3.69011 Y-2.56627
G01 X-3.69146 Y-2.56244
G01 X-3.69242 Y-2.55859
G01 X-3.69307 Y-2.55432
G01 X-3.69328 Y-2.55036
G01 X-3.69314 Y-2.54646
G01 X-3.69252 Y-2.54193
G01 X-3.69163 Y-2.53814
G01 X-3.69106 Y-2.53643
G01 X-3.80455 Y-2.42294
G01 X-4.14545 Y-2.42294
G01 X-4.25895 Y-2.53644
G01 X-4.25825 Y-2.53857
G01 X-4.25727 Y-2.54309
G01 X-4.25680 Y-2.54737
G01 X-4.25677 Y-2.54960
G01 X-4.01345 Y-2.67126
G01 X-3.93110 Y-2.67126
G01 X-3.92988 Y-2.67145
G01 X-3.92878 Y-2.67201
G01 X-3.92791 Y-2.67288
G01 X-3.92725 Y-2.67438
G01 X-3.92716 Y-2.81300
G01 X-3.92735 Y-2.81422
G01 X-3.92817 Y-2.81563
G01 X-3.92950 Y-2.81660
G01 X-3.93110 Y-2.81694
G01 X-4.06890 Y-2.81694
G01 X-4.07050 Y-2.81660
G01 X-4.07153 Y-2.81593
G01 X-4.07250 Y-2.81460
G01 X-4.07284 Y-2.81300
G01 X-4.07284 Y-2.68559
G01 X-4.27439 Y-2.58482
G01 X-4.27649 Y-2.58634
G01 X-4.28089 Y-2.58883
G01 X-4.28555 Y-2.59080
G01 X-4.29030 Y-2.59218
G01 X-4.29528 Y-2.59302
G01 X-4.30023 Y-2.59328
G01 X-4.30517 Y-2.59297
G01 X-4.31014 Y-2.59208
G01 X-4.31488 Y-2.59064
G01 X-4.31911 Y-2.58883
G01 X-4.32351 Y-2.58634
G01 X-4.32751 Y-2.58342
G01 X-4.33114 Y-2.58006
G01 X-4.33443 Y-2.57622
G01 X-4.33725 Y-2.57203
G01 X-4.33847 Y-2.56969
G01 X-4.66147 Y-2.56969
G01 X-4.66357 Y-2.57337
G01 X-4.66545 Y-2.57607
G01 X-4.66754 Y-2.57863
G01 X-4.66981 Y-2.58102
G01 X-4.67226 Y-2.58323
G01 X-4.67488 Y-2.58525
G01 X-4.67763 Y-2.58706
G01 X-4.68052 Y-2.58865
G01 X-4.68352 Y-2.59002
G01 X-4.68662 Y-2.59116
G01 X-4.68980 Y-2.59206
G01 X-4.69303 Y-2.59272
G01 X-4.69631 Y-2.59313
G01 X-4.69971 Y-2.59328
G01 X-4.70304 Y-2.59318
G01 X-4.70708 Y-2.59270
G01 X-4.71070 Y-2.59194
G01 X-4.71460 Y-2.59075
G01 X-4.71869 Y-2.58904
G01 X-4.72227 Y-2.58711
G01 X-4.72566 Y-2.58486
G01 X-4.72854 Y-2.58254
G01 X-4.73147 Y-2.57971
G01 X-4.73435 Y-2.57633
G01 X-4.73667 Y-2.57299
G01 X-4.73850 Y-2.56977
G01 X-4.74019 Y-2.56607
G01 X-4.74152 Y-2.56223
G01 X-4.74248 Y-2.55827
G01 X-4.74311 Y-2.55388
G01 X-4.74328 Y-2.54981
G01 X-4.74310 Y-2.54602
G01 X-4.74251 Y-2.54188
G01 X-4.74156 Y-2.53792
G01 X-4.74006 Y-2.53362
G01 X-4.73852 Y-2.53026
G01 X-4.73644 Y-2.52664
G01 X-4.73378 Y-2.52294
G01 X-4.73128 Y-2.52008
G01 X-4.72825 Y-2.51720
G01 X-4.72473 Y-2.51448
G01 X-4.72152 Y-2.51245
G01 X-4.71789 Y-2.51059
G01 X-4.71365 Y-2.50893
G01 X-4.70963 Y-2.50780
G01 X-4.70600 Y-2.50713
G01 X-4.70150 Y-2.50674
G01 X-4.69850 Y-2.50674
G01 X-4.69531 Y-2.50697
G01 X-4.69216 Y-2.50743
G01 X-4.68894 Y-2.50815
G01 X-4.68588 Y-2.50908
G01 X-4.68291 Y-2.51023
G01 X-4.68003 Y-2.51160
G01 X-4.67716 Y-2.51323
G01 X-4.67443 Y-2.51507
G01 X-4.67192 Y-2.51706
G01 X-4.66936 Y-2.51942
G01 X-4.66732 Y-2.52162
G01 X-4.66525 Y-2.52419
G01 X-4.66344 Y-2.52682
G01 X-4.66147 Y-2.53031
G01 X-4.33850 Y-2.53031
G01 X-4.33772 Y-2.52877
G01 X-4.33549 Y-2.52523
G01 X-4.33294 Y-2.52192
G01 X-4.33008 Y-2.51887
G01 X-4.32723 Y-2.51636
G01 X-4.32386 Y-2.51389
G01 X-4.32027 Y-2.51175
G01 X-4.31658 Y-2.51002
G01 X-4.31265 Y-2.50861
G01 X-4.30860 Y-2.50758
G01 X-4.30447 Y-2.50695
G01 X-4.30040 Y-2.50672
G01 X-4.29623 Y-2.50688
G01 X-4.29209 Y-2.50745
G01 X-4.28803 Y-2.50841
G01 X-4.28643 Y-2.50894
G01 X-4.16724 Y-2.38975
G01 X-4.16397 Y-2.38714
G01 X-4.16094 Y-2.38554
G01 X-4.15766 Y-2.38453
G01 X-4.15350 Y-2.38406
G01 X-3.79650 Y-2.38406
G01 X-3.79271 Y-2.38443
G01 X-3.78906 Y-2.38554
G01 X-3.78570 Y-2.38734
G01 X-3.78275 Y-2.38975
G01 X-3.66357 Y-2.50894
G01 X-3.66197 Y-2.50841
G01 X-3.65791 Y-2.50745
G01 X-3.65376 Y-2.50688
G01 X-3.64959 Y-2.50672
G01 X-3.64553 Y-2.50695
G01 X-3.64140 Y-2.50758
G01 X-3.63734 Y-2.50861
G01 X-3.63342 Y-2.51002
G01 X-3.62973 Y-2.51175
G01 X-3.62614 Y-2.51389
G01 X-3.62277 Y-2.51636
G01 X-3.61992 Y-2.51887
G01 X-3.61706 Y-2.52192
G01 X-3.61451 Y-2.52523
G01 X-3.61228 Y-2.52877
G01 X-3.61150 Y-2.53031
G01 X-3.28853 Y-2.53031
G01 X-3.28655 Y-2.52682
G01 X-3.28475 Y-2.52419
G01 X-3.28268 Y-2.52162
G01 X-3.28064 Y-2.51942
G01 X-3.27808 Y-2.51706
G01 X-3.27557 Y-2.51507
G01 X-3.27283 Y-2.51323
G01 X-3.26997 Y-2.51160
G01 X-3.26709 Y-2.51023
G01 X-3.26411 Y-2.50908
G01 X-3.26106 Y-2.50815
G01 X-3.25784 Y-2.50743
G01 X-3.25469 Y-2.50697
G01 X-3.25150 Y-2.50674
G01 X-3.24816 Y-2.50676
G01 X-3.24400 Y-2.50713
G01 X-3.24000 Y-2.50789
G01 X-3.23598 Y-2.50905
G01 X-3.23211 Y-2.51059
G01 X-3.22848 Y-2.51245
G01 X-3.22496 Y-2.51469
G01 X-3.22175 Y-2.51720
G01 X-3.21872 Y-2.52008
G01 X-3.21598 Y-2.52324
G01 X-3.21356 Y-2.52664
G01 X-3.21148 Y-2.53026
G01 X-3.20980 Y-2.53397
G01 X-3.20844 Y-2.53792
G01 X-3.20749 Y-2.54188
G01 X-3.20690 Y-2.54602
G01 X-3.20672 Y-2.55019
G04 P0 ( dwell for no time -- G64 should not smooth over this point )
G00 Z0.08000 ( retract )

G00 X-3.45240 Y-2.84838 ( rapid move to begin. )
G01 F180.00000
( Mill infeed pass 1/1 )
G01 Z-0.04000
G04 P0 ( dwell for no time -- G64 should not smooth over this point )
G01 F360.00000
G01 X-3.45240 Y-2.84838
G01 X-3.45283 Y-2.84074
G01 X-3.45327 Y-2.83697
G01 X-3.45459 Y-2.82954
G01 X-3.45706 Y-2.82482
G01 X-3.46013 Y-2.82036
G01 X-3.46375 Y-2.81620
G01 X-3.46786 Y-2.81245
G01 X-3.47483 Y-2.81032
G01 X-3.47983 Y-2.80913
G01 X-3.48456 Y-2.80827
G01 X-3.48932 Y-2.80765
G01 X-3.49404 Y-2.80729
G01 X-3.50063 Y-2.80721
G01 X-3.50534 Y-2.80746
G01 X-3.51010 Y-2.80795
G01 X-3.51488 Y-2.80871
G01 X-3.51969 Y-2.80973
G01 X-3.52472 Y-2.81108
G01 X-3.52896 Y-2.81245
G01 X-3.53292 Y-2.81601
G01 X-3.53618 Y-2.81969
G01 X-3.53777 Y-2.82181
G01 X-3.54054 Y-2.82610
G01 X-3.54277 Y-2.83059
G01 X-3.54359 Y-2.83256
G01 X-3.54529 Y-2.83783
G01 X-3.54636 Y-2.84316
G01 X-3.54645 Y-2.84381
G01 X-3.54621 Y-2.84394
G01 X-3.54645 Y-2.84381
G01 X-3.60737 Y-2.90474
G01 X-3.60724 Y-2.90684
G01 X-3.60737 Y-2.90474
G01 X-3.61255 Y-2.90036
G01 X-3.61630 Y-2.89774
G01 X-3.62048 Y-2.89527
G01 X-3.62697 Y-2.89225
G01 X-3.63379 Y-2.88999
G01 X-3.63649 Y-2.88933
G01 X-3.64277 Y-2.88824
G01 X-3.65038 Y-2.88782
G01 X-3.65444 Y-2.88797
G01 X-3.65814 Y-2.88836
G01 X-3.66347 Y-2.88929
G01 X-3.66778 Y-2.89041
G01 X-3.67171 Y-2.89173
G01 X-3.67708 Y-2.89403
G01 X-3.68039 Y-2.89575
G01 X-3.68420 Y-2.89806
G01 X-3.68792 Y-2.90071
G01 X-3.69081 Y-2.90309
G01 X-3.69445 Y-2.90651
G01 X-3.69745 Y-2.90980
G01 X-3.69893 Y-2.91167
G01 X-3.69867 Y-2.91223
G01 X-3.69893 Y-2.91167
G01 X-3.97992 Y-2.91167
G01 X-3.98012 Y-2.91214
G01 X-3.97992 Y-2.91167
G01 X-4.04993 Y-2.84165
G01 X-4.06514 Y-2.83535
G01 X-3.98253 Y-2.91796
G01 X-3.98273 Y-2.91844
G01 X-3.98253 Y-2.91796
G01 X-3.69578 Y-2.91796
G01 X-3.69553 Y-2.91852
G01 X-3.69578 Y-2.91796
G01 X-3.69300 Y-2.91431
G01 X-3.69034 Y-2.91133
G01 X-3.68769 Y-2.90875
G01 X-3.68359 Y-2.90534
G01 X-3.68056 Y-2.90321
G01 X-3.67714 Y-2.90115
G01 X-3.67384 Y-2.89946
G01 X-3.67043 Y-2.89799
G01 X-3.66540 Y-2.89629
G01 X-3.66191 Y-2.89540
G01 X-3.65787 Y-2.89467
G01 X-3.65379 Y-2.89424
G01 X-3.65019 Y-2.89412
G01 X-3.64353 Y-2.89449
G01 X-3.63683 Y-2.89569
G01 X-3.63032 Y-2.89770
G01 X-3.62406 Y-2.90050
G01 X-3.62006 Y-2.90281
G01 X-3.61650 Y-2.90528
G01 X-3.61206 Y-2.90896
G01 X-3.60907 Y-2.91195
G01 X-3.60750 Y-2.91377
G01 X-3.60747 Y-2.91629
G01 X-3.60750 Y-2.91377
G01 X-3.54037 Y-2.84664
G01 X-3.54008 Y-2.84678
G01 X-3.54037 Y-2.84664
G01 X-3.54023 Y-2.84481
G01 X-3.53910 Y-2.83902
G01 X-3.53746 Y-2.83416
G01 X-3.53508 Y-2.82924
G01 X-3.53202 Y-2.82458
G01 X-3.52895 Y-2.82100
G01 X-3.52739 Y-2.81945
G01 X-3.52330 Y-2.81602
G01 X-3.52044 Y-2.81408
G01 X-3.51656 Y-2.81198
G01 X-3.51258 Y-2.81032
G01 X-3.50918 Y-2.80928
G01 X-3.50353 Y-2.80819
G01 X-3.49955 Y-2.80789
G01 X-3.49524 Y-2.80799
G01 X-3.49085 Y-2.80856
G01 X-3.48737 Y-2.80937
G01 X-3.48169 Y-2.81136
G01 X-3.47846 Y-2.81290
G01 X-3.47468 Y-2.81520
G01 X-3.47125 Y-2.81781
G01 X-3.46832 Y-2.82053
G01 X-3.46511 Y-2.82421
G01 X-3.46281 Y-2.82750
G01 X-3.45958 Y-2.83370
G01 X-3.45739 Y-2.84047
G01 X-3.45650 Y-2.84601
G01 X-3.45637 Y-2.84790
G01 X-3.45641 Y-2.85276
G01 X-3.45663 Y-2.85501
G01 X-3.45764 Y-2.86054
G01 X-3.45941 Y-2.86586
G01 X-3.46017 Y-2.86759
G01 X-3.46304 Y-2.87285
G01 X-3.46641 Y-2.87735
G01 X-3.46770 Y-2.87879
G01 X-3.47079 Y-2.88179
G01 X-3.47418 Y-2.88444
G01 X-3.47973 Y-2.88774
G01 X-3.48406 Y-2.88960
G01 X-3.48856 Y-2.89095
G01 X-3.49398 Y-2.89189
G01 X-3.49508 Y-2.89196
G01 X-3.49523 Y-2.89168
G01 X-3.49508 Y-2.89196
G01 X-3.57577 Y-2.97265
G01 X-3.58029 Y-2.97641
G01 X-3.58202 Y-2.97747
G01 X-3.58616 Y-2.97960
G01 X-3.59218 Y-2.98142
G01 X-3.59843 Y-2.98204
G01 X-3.60433 Y-2.98204
G01 X-3.60464 Y-2.98146
G01 X-3.60433 Y-2.98204
G01 X-3.60661 Y-2.98522
G01 X-3.61262 Y-2.99154
G01 X-3.61890 Y-2.99642
G01 X-3.62474 Y-2.99984
G01 X-3.62652 Y-3.00068
G01 X-3.63281 Y-3.00318
G01 X-3.64014 Y-3.00501
G01 X-3.64771 Y-3.00583
G01 X-3.65235 Y-3.00583
G01 X-3.65728 Y-3.00540
G01 X-3.66106 Y-3.00478
G01 X-3.66469 Y-3.00392
G01 X-3.66951 Y-3.00236
G01 X-3.67294 Y-3.00096
G01 X-3.67664 Y-2.99912
G01 X-3.67995 Y-2.99718
G01 X-3.68311 Y-2.99501
G01 X-3.68727 Y-2.99163
G01 X-3.68996 Y-2.98907
G01 X-3.69273 Y-2.98602
G01 X-3.69573 Y-2.98210
G01 X-3.69548 Y-2.98155
G01 X-3.69573 Y-2.98210
G01 X-3.99580 Y-2.98204
G01 X-4.00165 Y-2.98149
G01 X-4.00730 Y-2.97989
G01 X-4.00953 Y-2.97890
G01 X-4.01360 Y-2.97664
G01 X-4.01845 Y-2.97265
G01 X-4.17016 Y-2.82094
G01 X-4.16996 Y-2.82046
G01 X-4.17016 Y-2.82094
G01 X-4.27530 Y-2.82094
G01 X-4.27870 Y-2.81972
G01 X-4.28543 Y-2.81783
G01 X-4.29215 Y-2.81668
G01 X-4.29846 Y-2.81622
G01 X-4.42458 Y-2.81618
G01 X-4.43114 Y-2.81408
G01 X-4.43879 Y-2.81237
G01 X-4.44466 Y-2.81159
G01 X-4.45202 Y-2.81125
G01 X-4.45773 Y-2.81153
G01 X-4.46358 Y-2.81223
G01 X-4.46955 Y-2.81345
G01 X-4.47386 Y-2.81465
G01 X-4.51209 Y-2.81465
G01 X-4.50733 Y-2.81766
G01 X-4.50233 Y-2.82204
G01 X-4.49831 Y-2.82606
G01 X-4.49208 Y-2.82235
G01 X-4.48486 Y-2.81875
G01 X-4.47804 Y-2.81599
G01 X-4.47386 Y-2.81465
G01 X-4.51209 Y-2.81465
G01 X-4.51330 Y-2.81396
G01 X-4.51829 Y-2.81203
G01 X-4.52441 Y-2.81124
G01 X-4.57559 Y-2.81123
G01 X-4.58375 Y-2.81262
G01 X-4.59058 Y-2.81630
G01 X-4.60155 Y-2.81634
G01 X-4.60784 Y-2.81678
G01 X-4.61438 Y-2.81794
G01 X-4.61757 Y-2.81872
G01 X-4.62432 Y-2.82094
G01 X-4.63642 Y-2.82094
G01 X-4.63662 Y-2.82046
G01 X-4.63642 Y-2.82094
G01 X-4.70388 Y-2.88841
G01 X-4.69452 Y-2.88468
G01 X-4.63521 Y-2.82545
G01 X-4.63528 Y-2.82535
G01 X-4.63521 Y-2.82545
G01 X-4.62651 Y-2.82178
G01 X-4.62137 Y-2.81989
G01 X-4.61438 Y-2.81794
G01 X-4.61103 Y-2.81727
G01 X-4.60467 Y-2.81649
G01 X-4.60008 Y-2.81630
G01 X-4.59058 Y-2.81630
G01 X-4.58747 Y-2.81465
G01 X-4.63903 Y-2.81465
G01 X-4.63922 Y-2.81417
G01 X-4.63903 Y-2.81465
G01 X-4.72415 Y-2.89976
G01 X-4.72175 Y-2.89811
G01 X-4.71538 Y-2.89418
G01 X-4.71052 Y-2.89155
G01 X-4.70388 Y-2.88841
G01 X-4.71052 Y-2.89155
G01 X-4.71725 Y-2.89526
G01 X-4.72333 Y-2.89918
G01 X-4.72907 Y-2.90341
G01 X-4.73431 Y-2.90782
G01 X-4.73905 Y-2.91236
G01 X-4.74357 Y-2.91727
G01 X-4.74931 Y-2.92451
G01 X-4.75045 Y-2.92961
G01 X-4.75154 Y-2.93606
G01 X-4.75222 Y-2.94234
G01 X-4.75248 Y-2.94867
G01 X-4.75238 Y-2.95490
G01 X-4.75186 Y-2.96131
G01 X-4.75093 Y-2.96782
G01 X-4.74991 Y-2.97291
G01 X-4.74921 Y-2.97552
G01 X-4.74937 Y-2.97560
G01 X-4.74921 Y-2.97552
G01 X-4.74612 Y-2.97967
G01 X-4.74196 Y-2.98455
G01 X-4.73741 Y-2.98927
G01 X-4.73145 Y-2.99466
G01 X-4.72744 Y-2.99785
G01 X-4.72419 Y-3.00019
G01 X-4.57886 Y-3.14552
G01 X-4.57906 Y-3.14600
G01 X-4.57886 Y-3.14552
G01 X-4.54925 Y-3.14552
G01 X-4.54912 Y-3.14590
G01 X-4.54925 Y-3.14552
G01 X-4.54824 Y-3.14439
G01 X-4.54314 Y-3.14018
G01 X-4.54179 Y-3.13932
G01 X-4.53667 Y-3.13659
G01 X-4.53517 Y-3.13600
G01 X-4.52922 Y-3.13423
G01 X-4.52215 Y-3.13348
G01 X-4.47835 Y-3.13346
G01 X-4.47197 Y-3.13404
G01 X-4.47039 Y-3.13433
G01 X-4.46407 Y-3.13627
G01 X-4.45821 Y-3.13932
G01 X-4.45686 Y-3.14018
G01 X-4.45148 Y-3.14468
G01 X-4.44727 Y-3.14977
G01 X-4.44692 Y-3.15062
G01 X-4.44518 Y-3.15797
G01 X-4.44422 Y-3.16511
G01 X-4.44396 Y-3.17035
G01 X-4.44422 Y-3.17741
G01 X-4.44518 Y-3.18454
G01 X-4.44711 Y-3.19252
G01 X-4.45148 Y-3.19784
G01 X-4.45654 Y-3.20209
G01 X-4.45786 Y-3.20301
G01 X-4.46370 Y-3.20610
G01 X-4.46800 Y-3.20748
G01 X-4.45308 Y-3.20748
G01 X-4.44956 Y-3.19966
G01 X-4.44692 Y-3.19190
G01 X-4.44727 Y-3.19275
G01 X-4.45148 Y-3.19784
G01 X-4.45686 Y-3.20234
G01 X-4.45821 Y-3.20320
G01 X-4.46333 Y-3.20593
G01 X-4.46800 Y-3.20748
G01 X-4.53200 Y-3.20748
G01 X-4.53630 Y-3.20610
G01 X-4.54248 Y-3.20280
G01 X-4.54824 Y-3.19813
G01 X-4.54925 Y-3.19699
G01 X-4.54911 Y-3.19661
G01 X-4.54925 Y-3.19699
G01 X-4.59002 Y-3.19698
G01 X-4.59394 Y-3.19660
G01 X-4.59551 Y-3.19626
G01 X-4.59955 Y-3.19496
G01 X-4.60330 Y-3.19298
G01 X-4.60462 Y-3.19206
G01 X-4.60772 Y-3.18946
G01 X-4.79305 Y-3.00413
G01 X-4.79613 Y-3.00039
G01 X-4.79838 Y-2.99633
G01 X-4.80005 Y-2.99114
G01 X-4.80058 Y-2.98626
G01 X-4.80058 Y-2.91374
G01 X-4.80019 Y-2.90964
G01 X-4.79985 Y-2.90808
G01 X-4.79855 Y-2.90404
G01 X-4.79657 Y-2.90028
G01 X-4.79565 Y-2.89897
G01 X-4.79305 Y-2.89587
G01 X-4.66789 Y-2.77071
G01 X-4.66415 Y-2.76762
G01 X-4.66008 Y-2.76538
G01 X-4.65490 Y-2.76371
G01 X-4.64969 Y-2.76317
G01 X-4.15689 Y-2.76317
G01 X-4.15167 Y-2.76371
G01 X-4.14723 Y-2.76506
G01 X-4.14345 Y-2.76699
G01 X-4.14210 Y-2.76786
G01 X-4.13869 Y-2.77071
G01 X-3.98514 Y-2.92426
G01 X-3.98534 Y-2.92474
G01 X-3.98514 Y-2.92426
G01 X-3.69238 Y-2.92426
G01 X-3.69206 Y-2.92490
G01 X-3.69238 Y-2.92426
G01 X-3.69048 Y-2.92138
G01 X-3.68804 Y-2.91819
G01 X-3.68568 Y-2.91556
G01 X-3.68305 Y-2.91303
G01 X-3.68024 Y-2.91070
G01 X-3.67726 Y-2.90858
G01 X-3.67424 Y-2.90674
G01 X-3.67099 Y-2.90508
G01 X-3.66763 Y-2.90365
G01 X-3.66417 Y-2.90248
G01 X-3.66111 Y-2.90168
G01 X-3.65678 Y-2.90089
G01 X-3.65353 Y-2.90054
G01 X-3.64988 Y-2.90041
G01 X-3.64388 Y-2.90079
G01 X-3.63754 Y-2.90202
G01 X-3.63179 Y-2.90389
G01 X-3.62710 Y-2.90602
G01 X-3.62326 Y-2.90824
G01 X-3.61976 Y-2.91070
G01 X-3.61649 Y-2.91345
G01 X-3.61354 Y-2.91639
G01 X-3.61112 Y-2.91923
G01 X-3.60818 Y-2.92336
G01 X-3.60832 Y-2.92639
G01 X-3.60818 Y-2.92336
G01 X-3.53423 Y-2.84941
G01 X-3.53392 Y-2.84956
G01 X-3.53423 Y-2.84941
G01 X-3.53398 Y-2.84562
G01 X-3.53312 Y-2.84106
G01 X-3.53163 Y-2.83656
G01 X-3.52962 Y-2.83238
G01 X-3.52702 Y-2.82842
G01 X-3.52390 Y-2.82482
G01 X-3.52038 Y-2.82169
G01 X-3.51730 Y-2.81955
G01 X-3.51401 Y-2.81774
G01 X-3.51063 Y-2.81632
G01 X-3.50703 Y-2.81522
G01 X-3.50332 Y-2.81451
G01 X-3.49920 Y-2.81418
G01 X-3.49554 Y-2.81429
G01 X-3.49180 Y-2.81479
G01 X-3.48814 Y-2.81568
G01 X-3.48470 Y-2.81691
G01 X-3.48129 Y-2.81854
G01 X-3.47808 Y-2.82051
G01 X-3.47492 Y-2.82298
G01 X-3.47244 Y-2.82533
G01 X-3.46978 Y-2.82850
G01 X-3.46775 Y-2.83149
G01 X-3.46518 Y-2.83666
G01 X-3.46356 Y-2.84174
G01 X-3.46269 Y-2.84741
G01 X-3.46274 Y-2.85315
G01 X-3.46370 Y-2.85880
G01 X-3.46555 Y-2.86423
G01 X-3.46824 Y-2.86930
G01 X-3.47164 Y-2.87379
G01 X-3.47495 Y-2.87706
G01 X-3.47805 Y-2.87947
G01 X-3.48151 Y-2.88157
G01 X-3.48624 Y-2.88369
G01 X-3.49000 Y-2.88482
G01 X-3.49427 Y-2.88558
G01 X-3.49782 Y-2.88579
G01 X-3.49798 Y-2.88546
G01 X-3.49782 Y-2.88579
G01 X-3.58023 Y-2.96820
G01 X-3.58396 Y-2.97128
G01 X-3.58876 Y-2.97385
G01 X-3.59400 Y-2.97534
G01 X-3.59809 Y-2.97573
G01 X-3.60762 Y-2.97574
G01 X-3.60796 Y-2.97509
G01 X-3.60762 Y-2.97574
G01 X-3.61149 Y-2.98123
G01 X-3.61631 Y-2.98638
G01 X-3.62211 Y-2.99100
G01 X-3.62789 Y-2.99438
G01 X-3.63475 Y-2.99718
G01 X-3.64124 Y-2.99880
G01 X-3.64825 Y-2.99955
G01 X-3.65189 Y-2.99954
G01 X-3.65592 Y-2.99923
G01 X-3.65926 Y-2.99871
G01 X-3.66357 Y-2.99769
G01 X-3.66680 Y-2.99666
G01 X-3.67019 Y-2.99529
G01 X-3.67348 Y-2.99368
G01 X-3.67640 Y-2.99197
G01 X-3.68013 Y-2.98937
G01 X-3.68267 Y-2.98730
G01 X-3.68559 Y-2.98452
G01 X-3.68779 Y-2.98210
G01 X-3.69027 Y-2.97892
G01 X-3.69234 Y-2.97580
G01 X-3.69202 Y-2.97516
G01 X-3.69234 Y-2.97580
G01 X-3.99580 Y-2.97574
G01 X-4.00062 Y-2.97528
G01 X-4.00509 Y-2.97399
G01 X-4.00993 Y-2.97151
G01 X-4.01400 Y-2.96820
G01 X-4.16755 Y-2.81465
G01 X-4.16735 Y-2.81417
G01 X-4.16755 Y-2.81465
G01 X-4.42920 Y-2.81465
G01 X-4.43431 Y-2.81327
G01 X-4.44025 Y-2.81213
G01 X-4.44766 Y-2.81137
G01 X-4.45350 Y-2.81129
G01 X-4.45773 Y-2.81153
G01 X-4.46346 Y-2.81222
G01 X-4.47149 Y-2.81394
G01 X-4.47572 Y-2.81520
G01 X-4.48204 Y-2.81753
G01 X-4.48941 Y-2.82094
G01 X-4.50359 Y-2.82094
G01 X-4.50774 Y-2.81736
G01 X-4.51330 Y-2.81396
G01 X-4.51902 Y-2.81191
G01 X-4.52441 Y-2.81126
G01 X-4.57559 Y-2.81126
G01 X-4.58372 Y-2.81269
G01 X-4.58747 Y-2.81465
G01 X-4.63903 Y-2.81465
G01 X-4.72415 Y-2.89976
G01 X-4.72899 Y-2.90334
G01 X-4.73309 Y-2.90674
G01 X-4.73802 Y-2.91133
G01 X-4.74350 Y-2.91719
G01 X-4.74670 Y-2.92106
G01 X-4.74891 Y-2.92402
G01 X-4.74942 Y-2.92514
G01 X-4.75014 Y-2.92812
G01 X-4.75133 Y-2.93460
G01 X-4.75210 Y-2.94105
G01 X-4.75248 Y-2.94867
G01 X-4.75237 Y-2.95490
G01 X-4.75186 Y-2.96131
G01 X-4.75093 Y-2.96782
G01 X-4.74991 Y-2.97291
G01 X-4.74921 Y-2.97552
G01 X-4.74517 Y-2.98084
G01 X-4.74084 Y-2.98577
G01 X-4.73734 Y-2.98934
G01 X-4.73266 Y-2.99363
G01 X-4.72752 Y-2.99779
G01 X-4.72191 Y-3.00178
G01 X-4.71596 Y-3.00549
G01 X-4.70962 Y-3.00891
G01 X-4.70389 Y-3.01158
G01 X-4.57625 Y-3.13922
G01 X-4.57645 Y-3.13970
G01 X-4.57625 Y-3.13922
G01 X-4.55191 Y-3.13922
G01 X-4.55178 Y-3.13957
G01 X-4.55191 Y-3.13922
G01 X-4.54615 Y-3.13460
G01 X-4.53853 Y-3.13052
G01 X-4.53026 Y-3.12801
G01 X-4.52206 Y-3.12717
G01 X-4.47794 Y-3.12717
G01 X-4.47095 Y-3.12782
G01 X-4.46856 Y-3.12829
G01 X-4.46147 Y-3.13052
G01 X-4.45488 Y-3.13396
G01 X-4.45300 Y-3.13520
G01 X-4.44956 Y-3.14286
G01 X-4.44692 Y-3.15062
G01 X-4.44560 Y-3.15587
G01 X-4.44440 Y-3.16322
G01 X-4.44396 Y-3.17216
G01 X-4.44440 Y-3.17930
G01 X-4.44518 Y-3.18454
G01 X-4.44692 Y-3.19190
G01 X-4.44956 Y-3.19966
G01 X-4.45084 Y-3.20275
G01 X-4.45300 Y-3.20732
G01 X-4.45322 Y-3.20748
G01 X-4.54678 Y-3.20748
G01 X-4.55191 Y-3.20329
G01 X-4.55178 Y-3.20293
G01 X-4.55191 Y-3.20329
G01 X-4.58952 Y-3.20329
G01 X-4.59577 Y-3.20268
G01 X-4.60064 Y-3.20128
G01 X-4.60288 Y-3.20035
G01 X-4.60731 Y-3.19789
G01 X-4.61158 Y-3.19447
G01 X-4.79750 Y-3.00858
G01 X-4.80052 Y-3.00503
G01 X-4.80171 Y-3.00339
G01 X-4.80394 Y-2.99929
G01 X-4.80499 Y-2.99666
G01 X-4.80627 Y-2.99218
G01 X-4.80687 Y-2.98674
G01 X-4.80689 Y-2.91407
G01 X-4.80634 Y-2.90822
G01 X-4.80499 Y-2.90334
G01 X-4.80394 Y-2.90070
G01 X-4.80126 Y-2.89594
G01 X-4.79750 Y-2.89142
G01 X-4.67205 Y-2.76597
G01 X-4.66782 Y-2.76250
G01 X-4.66341 Y-2.76001
G01 X-4.66080 Y-2.75889
G01 X-4.65594 Y-2.75749
G01 X-4.64969 Y-2.75687
G01 X-4.15689 Y-2.75687
G01 X-4.15184 Y-2.75730
G01 X-4.14985 Y-2.75767
G01 X-4.14616 Y-2.75876
G01 X-4.14352 Y-2.75982
G01 X-4.13909 Y-2.76227
G01 X-4.13482 Y-2.76570
G01 X-4.09125 Y-2.80924
G01 X-4.08920 Y-2.81420
G01 X-4.08612 Y-2.82019
G01 X-4.08141 Y-2.82596
G01 X-4.07608 Y-2.83021
G01 X-4.07037 Y-2.83318
G01 X-4.06514 Y-2.83535
G01 X-4.07037 Y-2.83318
G01 X-4.07606 Y-2.83018
G01 X-4.08184 Y-2.82548
G01 X-4.08608 Y-2.82016
G01 X-4.08907 Y-2.81447
G01 X-4.09755 Y-2.79403
G01 X-4.13005 Y-2.76154
G01 X-4.13509 Y-2.75738
G01 X-4.13680 Y-2.75628
G01 X-4.14055 Y-2.75426
G01 X-4.14394 Y-2.75286
G01 X-4.14802 Y-2.75163
G01 X-4.15001 Y-2.75120
G01 X-4.15651 Y-2.75058
G01 X-4.64969 Y-2.75057
G01 X-4.65656 Y-2.75120
G01 X-4.65895 Y-2.75174
G01 X-4.66302 Y-2.75299
G01 X-4.66566 Y-2.75408
G01 X-4.67047 Y-2.75670
G01 X-4.67247 Y-2.75811
G01 X-4.67653 Y-2.76154
G01 X-4.80196 Y-2.88696
G01 X-4.80539 Y-2.89097
G01 X-4.80706 Y-2.89329
G01 X-4.80968 Y-2.89810
G01 X-4.81102 Y-2.90151
G01 X-4.81249 Y-2.90679
G01 X-4.81316 Y-2.91295
G01 X-4.81318 Y-2.98593
G01 X-4.81273 Y-2.99159
G01 X-4.81190 Y-2.99558
G01 X-4.81064 Y-2.99965
G01 X-4.80968 Y-3.00190
G01 X-4.80661 Y-3.00739
G01 X-4.80222 Y-3.01277
G01 X-4.61662 Y-3.19836
G01 X-4.61230 Y-3.20205
G01 X-4.60996 Y-3.20368
G01 X-4.60438 Y-3.20660
G01 X-4.59917 Y-3.20831
G01 X-4.59559 Y-3.20909
G01 X-4.59026 Y-3.20958
G01 X-4.56057 Y-3.20959
G01 X-4.55785 Y-3.20847
G01 X-4.55455 Y-3.20739
G01 X-4.45308 Y-3.20748
G01 X-4.44956 Y-3.19966
G01 X-4.44768 Y-3.19440
G01 X-4.44560 Y-3.18665
G01 X-4.44518 Y-3.18454
G01 X-4.44422 Y-3.17741
G01 X-4.44396 Y-3.17216
G01 X-4.44422 Y-3.16511
G01 X-4.44518 Y-3.15797
G01 X-4.44560 Y-3.15587
G01 X-4.44692 Y-3.15062
G01 X-4.44956 Y-3.14286
G01 X-4.45084 Y-3.13977
G01 X-4.45333 Y-3.13451
G01 X-4.45544 Y-3.13057
G01 X-4.45898 Y-3.12474
G01 X-4.46117 Y-3.12395
G01 X-4.46831 Y-3.12188
G01 X-4.47033 Y-3.12155
G01 X-4.47723 Y-3.12089
G01 X-4.52352 Y-3.12094
G01 X-4.53168 Y-3.12188
G01 X-4.54075 Y-3.12462
G01 X-4.54296 Y-3.12566
G01 X-4.54948 Y-3.12925
G01 X-4.55417 Y-3.13292
G01 X-4.55405 Y-3.13326
G01 X-4.55417 Y-3.13292
G01 X-4.57364 Y-3.13292
G01 X-4.57384 Y-3.13340
G01 X-4.57364 Y-3.13292
G01 X-4.68965 Y-3.01692
G01 X-4.69485 Y-3.01519
G01 X-4.69997 Y-3.01326
G01 X-4.70746 Y-3.00997
G01 X-4.71423 Y-3.00647
G01 X-4.72199 Y-3.00173
G01 X-4.72615 Y-2.99882
G01 X-4.73137 Y-2.99472
G01 X-4.73734 Y-2.98934
G01 X-4.74091 Y-2.98570
G01 X-4.74510 Y-2.98091
G01 X-4.74921 Y-2.97552
G01 X-4.74991 Y-2.97291
G01 X-4.75093 Y-2.96782
G01 X-4.75186 Y-2.96131
G01 X-4.75237 Y-2.95490
G01 X-4.75246 Y-2.94743
G01 X-4.75220 Y-2.94234
G01 X-4.75154 Y-2.93606
G01 X-4.75045 Y-2.92961
G01 X-4.74922 Y-2.92455
G01 X-4.74765 Y-2.92230
G01 X-4.74253 Y-2.91608
G01 X-4.73795 Y-2.91126
G01 X-4.73316 Y-2.90681
G01 X-4.72907 Y-2.90341
G01 X-4.72342 Y-2.89924
G01 X-4.71724 Y-2.89527
G01 X-4.71052 Y-2.89155
G01 X-4.70312 Y-2.88806
G01 X-4.69452 Y-2.88468
G01 X-4.63569 Y-2.82585
G01 X-4.63467 Y-2.82516
G01 X-4.62651 Y-2.82178
G01 X-4.62137 Y-2.81989
G01 X-4.61453 Y-2.81797
G01 X-4.61103 Y-2.81727
G01 X-4.60467 Y-2.81649
G01 X-4.60008 Y-2.81630
G01 X-4.59058 Y-2.81630
G01 X-4.58372 Y-2.81269
G01 X-4.57614 Y-2.81131
G01 X-4.52441 Y-2.81126
G01 X-4.51830 Y-2.81208
G01 X-4.51274 Y-2.81424
G01 X-4.50733 Y-2.81766
G01 X-4.50233 Y-2.82204
G01 X-4.49831 Y-2.82606
G01 X-4.49218 Y-2.82240
G01 X-4.48886 Y-2.82065
G01 X-4.48215 Y-2.81758
G01 X-4.47572 Y-2.81520
G01 X-4.46955 Y-2.81345
G01 X-4.46358 Y-2.81224
G01 X-4.45773 Y-2.81153
G01 X-4.45202 Y-2.81127
G01 X-4.44466 Y-2.81159
G01 X-4.43879 Y-2.81237
G01 X-4.43114 Y-2.81408
G01 X-4.42458 Y-2.81618
G01 X-4.30000 Y-2.81618
G01 X-4.29514 Y-2.81638
G01 X-4.28891 Y-2.81715
G01 X-4.28558 Y-2.81781
G01 X-4.27856 Y-2.81977
G01 X-4.27122 Y-2.82263
G01 X-4.26800 Y-2.82417
G01 X-4.26237 Y-2.82724
G01 X-4.17277 Y-2.82724
G01 X-4.17257 Y-2.82676
G01 X-4.17277 Y-2.82724
G01 X-4.02264 Y-2.97737
G01 X-4.01890 Y-2.98054
G01 X-4.01693 Y-2.98199
G01 X-4.01213 Y-2.98465
G01 X-4.00952 Y-2.98578
G01 X-4.00308 Y-2.98764
G01 X-3.99804 Y-2.98822
G01 X-3.99580 Y-2.98833
G01 X-3.69888 Y-2.98840
G01 X-3.69866 Y-2.98789
G01 X-3.69888 Y-2.98840
G01 X-3.69740 Y-2.99025
G01 X-3.69430 Y-2.99363
G01 X-3.69097 Y-2.99678
G01 X-3.68740 Y-2.99968
G01 X-3.68425 Y-3.00189
G01 X-3.67907 Y-3.00497
G01 X-3.67532 Y-3.00679
G01 X-3.67186 Y-3.00821
G01 X-3.66657 Y-3.00994
G01 X-3.66208 Y-3.01100
G01 X-3.65827 Y-3.01162
G01 X-3.65242 Y-3.01213
G01 X-3.64705 Y-3.01209
G01 X-3.63866 Y-3.01113
G01 X-3.63087 Y-3.00917
G01 X-3.62416 Y-3.00652
G01 X-3.62159 Y-3.00529
G01 X-3.61536 Y-3.00164
G01 X-3.60901 Y-2.99673
G01 X-3.60721 Y-2.99509
G01 X-3.60252 Y-2.99014
G01 X-3.60108 Y-2.98833
G01 X-3.60129 Y-2.98787
G01 X-3.60108 Y-2.98833
G01 X-3.59730 Y-2.98831
G01 X-3.59235 Y-2.98783
G01 X-3.58916 Y-2.98717
G01 X-3.58509 Y-2.98592
G01 X-3.58245 Y-2.98483
G01 X-3.57799 Y-2.98242
G01 X-3.57533 Y-2.98054
G01 X-3.57132 Y-2.97711
G01 X-3.49223 Y-2.89802
G01 X-3.49235 Y-2.89780
G01 X-3.49211 Y-2.89800
G01 X-3.48788 Y-2.89726
G01 X-3.48597 Y-2.89677
G01 X-3.48150 Y-2.89537
G01 X-3.47648 Y-2.89317
G01 X-3.47232 Y-2.89076
G01 X-3.47031 Y-2.88942
G01 X-3.46633 Y-2.88626
G01 X-3.46271 Y-2.88269
G01 X-3.45796 Y-2.87660
G01 X-3.45463 Y-2.87059
G01 X-3.45338 Y-2.86379
G01 X-3.45291 Y-2.86001
G01 X-3.45257 Y-2.85604
G01 X-3.45240 Y-2.84838
G01 X-3.46896 Y-2.84818
G01 X-3.46901 Y-2.85259
G01 X-3.46974 Y-2.85695
G01 X-3.47121 Y-2.86144
G01 X-3.47355 Y-2.86591
G01 X-3.47657 Y-2.86985
G01 X-3.47913 Y-2.87234
G01 X-3.48198 Y-2.87452
G01 X-3.48473 Y-2.87615
G01 X-3.48800 Y-2.87762
G01 X-3.49141 Y-2.87868
G01 X-3.49493 Y-2.87931
G01 X-3.49850 Y-2.87952
G01 X-3.50035 Y-2.87942
G01 X-3.58468 Y-2.96374
G01 X-3.58763 Y-2.96616
G01 X-3.59099 Y-2.96796
G01 X-3.59502 Y-2.96912
G01 X-3.59843 Y-2.96944
G01 X-3.61143 Y-2.96944
G01 X-3.61317 Y-2.97273
G01 X-3.61677 Y-2.97772
G01 X-3.62104 Y-2.98216
G01 X-3.62589 Y-2.98594
G01 X-3.63123 Y-2.98900
G01 X-3.63695 Y-2.99126
G01 X-3.64294 Y-2.99270
G01 X-3.64851 Y-2.99325
G01 X-3.65183 Y-2.99324
G01 X-3.65501 Y-2.99299
G01 X-3.65827 Y-2.99249
G01 X-3.66138 Y-2.99176
G01 X-3.66452 Y-2.99077
G01 X-3.66749 Y-2.98959
G01 X-3.67036 Y-2.98820
G01 X-3.67346 Y-2.98637
G01 X-3.67616 Y-2.98448
G01 X-3.67841 Y-2.98266
G01 X-3.68074 Y-2.98048
G01 X-3.68290 Y-2.97813
G01 X-3.68488 Y-2.97563
G01 X-3.68667 Y-2.97299
G01 X-3.68863 Y-2.96950
G01 X-3.99580 Y-2.96944
G01 X-3.99959 Y-2.96906
G01 X-4.00324 Y-2.96796
G01 X-4.00660 Y-2.96616
G01 X-4.00954 Y-2.96374
G01 X-4.16494 Y-2.80835
G01 X-4.64163 Y-2.80835
G01 X-4.75541 Y-2.92212
G01 X-4.75541 Y-2.97788
G01 X-4.58147 Y-3.15182
G01 X-4.54627 Y-3.15182
G01 X-4.54392 Y-3.14899
G01 X-4.53915 Y-3.14507
G01 X-4.53371 Y-3.14216
G01 X-4.52742 Y-3.14031
G01 X-4.52165 Y-3.13976
G01 X-4.47835 Y-3.13976
G01 X-4.47220 Y-3.14037
G01 X-4.46594 Y-3.14233
G01 X-4.46085 Y-3.14507
G01 X-4.45636 Y-3.14873
G01 X-4.45216 Y-3.15376
G01 X-4.44925 Y-3.15921
G01 X-4.44745 Y-3.16512
G01 X-4.44685 Y-3.17126
G01 X-4.44745 Y-3.17740
G01 X-4.44925 Y-3.18331
G01 X-4.45216 Y-3.18876
G01 X-4.45608 Y-3.19353
G01 X-4.46085 Y-3.19745
G01 X-4.46666 Y-3.20049
G01 X-4.47220 Y-3.20215
G01 X-4.47796 Y-3.20274
G01 X-4.52204 Y-3.20274
G01 X-4.52780 Y-3.20215
G01 X-4.53406 Y-3.20019
G01 X-4.53946 Y-3.19722
G01 X-4.54392 Y-3.19353
G01 X-4.54627 Y-3.19070
G01 X-4.58990 Y-3.19068
G01 X-4.59331 Y-3.19032
G01 X-4.59659 Y-3.18935
G01 X-4.60063 Y-3.18719
G01 X-4.60326 Y-3.18500
G01 X-4.78859 Y-2.99967
G01 X-4.79101 Y-2.99673
G01 X-4.79294 Y-2.99300
G01 X-4.79391 Y-2.98972
G01 X-4.79429 Y-2.98593
G01 X-4.79429 Y-2.91407
G01 X-4.79391 Y-2.91028
G01 X-4.79294 Y-2.90700
G01 X-4.79101 Y-2.90327
G01 X-4.78859 Y-2.90033
G01 X-4.66343 Y-2.77516
G01 X-4.66049 Y-2.77275
G01 X-4.65712 Y-2.77095
G01 X-4.65348 Y-2.76985
G01 X-4.64969 Y-2.76947
G01 X-4.15689 Y-2.76947
G01 X-4.15310 Y-2.76985
G01 X-4.14910 Y-2.77112
G01 X-4.14609 Y-2.77275
G01 X-4.14314 Y-2.77516
G01 X-3.98775 Y-2.93056
G01 X-3.68866 Y-2.93056
G01 X-3.68679 Y-2.92720
G01 X-3.68507 Y-2.92464
G01 X-3.68311 Y-2.92213
G01 X-3.68105 Y-2.91984
G01 X-3.67874 Y-2.91763
G01 X-3.67628 Y-2.91560
G01 X-3.67368 Y-2.91377
G01 X-3.67104 Y-2.91217
G01 X-3.66819 Y-2.91072
G01 X-3.66525 Y-2.90949
G01 X-3.66223 Y-2.90848
G01 X-3.65924 Y-2.90771
G01 X-3.65611 Y-2.90715
G01 X-3.65322 Y-2.90684
G01 X-3.65014 Y-2.90672
G01 X-3.64460 Y-2.90706
G01 X-3.63942 Y-2.90803
G01 X-3.63439 Y-2.90963
G01 X-3.62966 Y-2.91179
G01 X-3.62681 Y-2.91345
G01 X-3.62374 Y-2.91559
G01 X-3.62087 Y-2.91798
G01 X-3.61829 Y-2.92054
G01 X-3.61593 Y-2.92330
G01 X-3.61376 Y-2.92634
G01 X-3.61135 Y-2.93056
G01 X-3.60648 Y-2.93056
G01 X-3.52784 Y-2.85192
G01 X-3.52794 Y-2.84985
G01 X-3.52773 Y-2.84646
G01 X-3.52703 Y-2.84271
G01 X-3.52582 Y-2.83899
G01 X-3.52417 Y-2.83555
G01 X-3.52203 Y-2.83227
G01 X-3.51947 Y-2.82930
G01 X-3.51654 Y-2.82669
G01 X-3.51369 Y-2.82473
G01 X-3.51095 Y-2.82326
G01 X-3.50816 Y-2.82213
G01 X-3.50557 Y-2.82136
G01 X-3.50251 Y-2.82076
G01 X-3.49941 Y-2.82049
G01 X-3.49600 Y-2.82058
G01 X-3.49291 Y-2.82100
G01 X-3.49028 Y-2.82162
G01 X-3.48744 Y-2.82260
G01 X-3.48462 Y-2.82390
G01 X-3.48195 Y-2.82550
G01 X-3.47923 Y-2.82757
G01 X-3.47697 Y-2.82972
G01 X-3.47521 Y-2.83176
G01 X-3.47342 Y-2.83431
G01 X-3.47115 Y-2.83869
G01 X-3.46978 Y-2.84289
G01 X-3.46896 Y-2.84818
G04 P0 ( dwell for no time -- G64 should not smooth over this point )
G00 Z0.08000 ( retract )

G00 X-3.20617 Y-2.98465 ( rapid move to begin. )
G01 F180.00000
( Mill infeed pass 1/1 )
G01 Z-0.04000
G04 P0 ( dwell for no time -- G64 should not smooth over this point )
G01 F360.00000
G01 X-3.20617 Y-2.98465
G01 X-3.20372 Y-2.97647
G01 X-3.20252 Y-2.97132
G01 X-3.20160 Y-2.96629
G01 X-3.20092 Y-2.96124
G01 X-3.20049 Y-2.95623
G01 X-3.20031 Y-2.95126
G01 X-3.20042 Y-2.94508
G01 X-3.20078 Y-2.94010
G01 X-3.20198 Y-2.93144
G01 X-3.20307 Y-2.92619
G01 X-3.20446 Y-2.92080
G01 X-3.20618 Y-2.91527
G01 X-3.20912 Y-2.90745
G01 X-3.21213 Y-2.90073
G01 X-3.21420 Y-2.89916
G01 X-3.21973 Y-2.89568
G01 X-3.22524 Y-2.89296
G01 X-3.23089 Y-2.89082
G01 X-3.23645 Y-2.88931
G01 X-3.24290 Y-2.88822
G01 X-3.24905 Y-2.88782
G01 X-3.25596 Y-2.88811
G01 X-3.25748 Y-2.88831
G01 X-3.25769 Y-2.88886
G01 X-3.25748 Y-2.88831
G01 X-3.32316 Y-2.82263
G01 X-3.32690 Y-2.81946
G01 X-3.32887 Y-2.81801
G01 X-3.33366 Y-2.81535
G01 X-3.33590 Y-2.81436
G01 X-3.34082 Y-2.81281
G01 X-3.34762 Y-2.81228
G01 X-3.35470 Y-2.81225
G01 X-3.36502 Y-2.80837
G01 X-3.37460 Y-2.80718
G01 X-3.42545 Y-2.80718
G01 X-3.43232 Y-2.80779
G01 X-3.43909 Y-2.80961
G01 X-3.44488 Y-2.81219
G01 X-3.44641 Y-2.81502
G01 X-3.44740 Y-2.81766
G01 X-3.44807 Y-2.82040
G01 X-3.44839 Y-2.82320
G01 X-3.44842 Y-2.82824
G01 X-3.44704 Y-2.83605
G01 X-3.44656 Y-2.84007
G01 X-3.44609 Y-2.84835
G01 X-3.44611 Y-2.85257
G01 X-3.44663 Y-2.86060
G01 X-3.44716 Y-2.86476
G01 X-3.44842 Y-2.87171
G01 X-3.44842 Y-2.87599
G01 X-3.44800 Y-2.88000
G01 X-3.44702 Y-2.88348
G01 X-3.44530 Y-2.88712
G01 X-3.44297 Y-2.89040
G01 X-3.44130 Y-2.89216
G01 X-3.43946 Y-2.89373
G01 X-3.43747 Y-2.89509
G01 X-3.43534 Y-2.89624
G01 X-3.43310 Y-2.89715
G01 X-3.43078 Y-2.89783
G01 X-3.42840 Y-2.89825
G01 X-3.42599 Y-2.89842
G01 X-3.37240 Y-2.89834
G01 X-3.37000 Y-2.89800
G01 X-3.36805 Y-2.89752
G01 X-3.36576 Y-2.89672
G01 X-3.36394 Y-2.89588
G01 X-3.36051 Y-2.89371
G01 X-3.36029 Y-2.89211
G01 X-3.36051 Y-2.89371
G01 X-3.31170 Y-2.94252
G01 X-3.31112 Y-2.94230
G01 X-3.31170 Y-2.94252
G01 X-3.31200 Y-2.94542
G01 X-3.31218 Y-2.95054
G01 X-3.31184 Y-2.95653
G01 X-3.31101 Y-2.96203
G01 X-3.30980 Y-2.96701
G01 X-3.30740 Y-2.97393
G01 X-3.30438 Y-2.98012
G01 X-3.30173 Y-2.98450
G01 X-3.29844 Y-2.98899
G01 X-3.29446 Y-2.99348
G01 X-3.29072 Y-2.99698
G01 X-3.28833 Y-2.99892
G01 X-3.28778 Y-2.99866
G01 X-3.28833 Y-2.99892
G01 X-3.28833 Y-3.16433
G01 X-3.28785 Y-3.16453
G01 X-3.28833 Y-3.16433
G01 X-3.33567 Y-3.21166
G01 X-3.33547 Y-3.21214
G01 X-3.33567 Y-3.21166
G01 X-3.33943 Y-3.21166
G01 X-3.34214 Y-3.21279
G01 X-3.34544 Y-3.21387
G01 X-3.36801 Y-3.21378
G01 X-3.36370 Y-3.21516
G01 X-3.35752 Y-3.21846
G01 X-3.35176 Y-3.22313
G01 X-3.35074 Y-3.22426
G01 X-3.35088 Y-3.22465
G01 X-3.35074 Y-3.22426
G01 X-3.33045 Y-3.22426
G01 X-3.33025 Y-3.22474
G01 X-3.33045 Y-3.22426
G01 X-3.27574 Y-3.16955
G01 X-3.27526 Y-3.16975
G01 X-3.27574 Y-3.16955
G01 X-3.27574 Y-2.99233
G01 X-3.27503 Y-2.99197
G01 X-3.27574 Y-2.99233
G01 X-3.27799 Y-2.99093
G01 X-3.28181 Y-2.98804
G01 X-3.28567 Y-2.98443
G01 X-3.28852 Y-2.98122
G01 X-3.29135 Y-2.97736
G01 X-3.29380 Y-2.97325
G01 X-3.29583 Y-2.96892
G01 X-3.29745 Y-2.96441
G01 X-3.29861 Y-2.95977
G01 X-3.29933 Y-2.95503
G01 X-3.29957 Y-2.95075
G01 X-3.29938 Y-2.94547
G01 X-3.29871 Y-2.94073
G01 X-3.29813 Y-2.93826
G01 X-3.29737 Y-2.93802
G01 X-3.29813 Y-2.93826
G01 X-3.36066 Y-2.87574
G01 X-3.36046 Y-2.87526
G01 X-3.36066 Y-2.87574
G01 X-3.36418 Y-2.87574
G01 X-3.36533 Y-2.87432
G01 X-3.36418 Y-2.87574
G01 X-3.36420 Y-2.87639
G01 X-3.36481 Y-2.87913
G01 X-3.36590 Y-2.88128
G01 X-3.36746 Y-2.88311
G01 X-3.36906 Y-2.88432
G01 X-3.37087 Y-2.88519
G01 X-3.37321 Y-2.88576
G01 X-3.42599 Y-2.88582
G01 X-3.42798 Y-2.88554
G01 X-3.42988 Y-2.88489
G01 X-3.43161 Y-2.88387
G01 X-3.43311 Y-2.88254
G01 X-3.43432 Y-2.88094
G01 X-3.43505 Y-2.87951
G01 X-3.43563 Y-2.87759
G01 X-3.43582 Y-2.87599
G01 X-3.43582 Y-2.82401
G01 X-3.43544 Y-2.82163
G01 X-3.43452 Y-2.81941
G01 X-3.43311 Y-2.81746
G01 X-3.43128 Y-2.81590
G01 X-3.42913 Y-2.81480
G01 X-3.42639 Y-2.81420
G01 X-3.37361 Y-2.81420
G01 X-3.37163 Y-2.81456
G01 X-3.36941 Y-2.81548
G01 X-3.36776 Y-2.81663
G01 X-3.36613 Y-2.81839
G01 X-3.36481 Y-2.82087
G01 X-3.36424 Y-2.82321
G01 X-3.36418 Y-2.82426
G01 X-3.36536 Y-2.82565
G01 X-3.36418 Y-2.82426
G01 X-3.34900 Y-2.82431
G01 X-3.34478 Y-2.82480
G01 X-3.34110 Y-2.82588
G01 X-3.33960 Y-2.82647
G01 X-3.33656 Y-2.82808
G01 X-3.33521 Y-2.82895
G01 X-3.33180 Y-2.83180
G01 X-3.26173 Y-2.90187
G01 X-3.26196 Y-2.90253
G01 X-3.26173 Y-2.90187
G01 X-3.25886 Y-2.90121
G01 X-3.25365 Y-2.90056
G01 X-3.24907 Y-2.90042
G01 X-3.24485 Y-2.90069
G01 X-3.23933 Y-2.90158
G01 X-3.23428 Y-2.90298
G01 X-3.23026 Y-2.90451
G01 X-3.22631 Y-2.90645
G01 X-3.22184 Y-2.90919
G01 X-3.21744 Y-2.91262
G01 X-3.21431 Y-2.91557
G01 X-3.21098 Y-2.91940
G01 X-3.20815 Y-2.92341
G01 X-3.20558 Y-2.92799
G01 X-3.20362 Y-2.93248
G01 X-3.20227 Y-2.93655
G01 X-3.20132 Y-2.94063
G01 X-3.20059 Y-2.94584
G01 X-3.20042 Y-2.95063
G01 X-3.20078 Y-2.95590
G01 X-3.20146 Y-2.96014
G01 X-3.20253 Y-2.96429
G01 X-3.20426 Y-2.96915
G01 X-3.20650 Y-2.97379
G01 X-3.20872 Y-2.97747
G01 X-3.21126 Y-2.98093
G01 X-3.21476 Y-2.98488
G01 X-3.21829 Y-2.98812
G01 X-3.22211 Y-2.99100
G01 X-3.22426 Y-2.99233
G01 X-3.22497 Y-2.99196
G01 X-3.22426 Y-2.99233
G01 X-3.22426 Y-3.18021
G01 X-3.22472 Y-3.18504
G01 X-3.22588 Y-3.18911
G01 X-3.22665 Y-3.19097
G01 X-3.22895 Y-3.19500
G01 X-3.23180 Y-3.19841
G01 X-3.30159 Y-3.26820
G01 X-3.30566 Y-3.27151
G01 X-3.30939 Y-3.27353
G01 X-3.31088 Y-3.27412
G01 X-3.31457 Y-3.27520
G01 X-3.31878 Y-3.27569
G01 X-3.35074 Y-3.27574
G01 X-3.35088 Y-3.27535
G01 X-3.35074 Y-3.27574
G01 X-3.35176 Y-3.27687
G01 X-3.35752 Y-3.28153
G01 X-3.36370 Y-3.28484
G01 X-3.36800 Y-3.28622
G01 X-3.43200 Y-3.28622
G01 X-3.43593 Y-3.28499
G01 X-3.44179 Y-3.28194
G01 X-3.44346 Y-3.28083
G01 X-3.44852 Y-3.27658
G01 X-3.45296 Y-3.27116
G01 X-3.45614 Y-3.26537
G01 X-3.45691 Y-3.26352
G01 X-3.45876 Y-3.25718
G01 X-3.45945 Y-3.25020
G01 X-3.45887 Y-3.24362
G01 X-3.45848 Y-3.24165
G01 X-3.45649 Y-3.23535
G01 X-3.45319 Y-3.22917
G01 X-3.44852 Y-3.22342
G01 X-3.44346 Y-3.21917
G01 X-3.44179 Y-3.21806
G01 X-3.43593 Y-3.21501
G01 X-3.43199 Y-3.21378
G01 X-3.36801 Y-3.21378
G01 X-3.45360 Y-3.21378
G01 X-3.45557 Y-3.21448
G01 X-3.45853 Y-3.21571
G01 X-3.46247 Y-3.22052
G01 X-3.46431 Y-3.22321
G01 X-3.46780 Y-3.22978
G01 X-3.46884 Y-3.23244
G01 X-3.47095 Y-3.23957
G01 X-3.47136 Y-3.24198
G01 X-3.47202 Y-3.24898
G01 X-3.47197 Y-3.25183
G01 X-3.47119 Y-3.25923
G01 X-3.47065 Y-3.26161
G01 X-3.46844 Y-3.26872
G01 X-3.46744 Y-3.27095
G01 X-3.46389 Y-3.27748
G01 X-3.46247 Y-3.27948
G01 X-3.45853 Y-3.28428
G01 X-3.45360 Y-3.28622
G01 X-3.34544 Y-3.28613
G01 X-3.34214 Y-3.28721
G01 X-3.33943 Y-3.28833
G01 X-3.31792 Y-3.28826
G01 X-3.31372 Y-3.28783
G01 X-3.31171 Y-3.28747
G01 X-3.30531 Y-3.28549
G01 X-3.30309 Y-3.28446
G01 X-3.29866 Y-3.28199
G01 X-3.29701 Y-3.28079
G01 X-3.29322 Y-3.27763
G01 X-3.22212 Y-3.20651
G01 X-3.21801 Y-3.20134
G01 X-3.21554 Y-3.19691
G01 X-3.21451 Y-3.19469
G01 X-3.21281 Y-3.18939
G01 X-3.21228 Y-3.18259
G01 X-3.21222 Y-3.00020
G01 X-3.21233 Y-3.00018
G01 X-3.21222 Y-3.00020
G01 X-3.21193 Y-2.99888
G01 X-3.20859 Y-2.99123
G01 X-3.20617 Y-2.98465
G01 X-3.21028 Y-2.98931
G01 X-3.21395 Y-2.99270
G01 X-3.21796 Y-2.99578
G01 X-3.21856 Y-2.99550
G01 X-3.21796 Y-2.99578
G01 X-3.21798 Y-3.18102
G01 X-3.21858 Y-3.18646
G01 X-3.22040 Y-3.19247
G01 X-3.22314 Y-3.19767
G01 X-3.22652 Y-3.20197
G01 X-3.29742 Y-3.27293
G01 X-3.30233 Y-3.27686
G01 X-3.30642 Y-3.27909
G01 X-3.30905 Y-3.28014
G01 X-3.31354 Y-3.28142
G01 X-3.31898 Y-3.28201
G01 X-3.34809 Y-3.28204
G01 X-3.34822 Y-3.28167
G01 X-3.34809 Y-3.28204
G01 X-3.35322 Y-3.28622
G01 X-3.44678 Y-3.28622
G01 X-3.45312 Y-3.28089
G01 X-3.45735 Y-3.27580
G01 X-3.45854 Y-3.27416
G01 X-3.46239 Y-3.26687
G01 X-3.46490 Y-3.25860
G01 X-3.46575 Y-3.25000
G01 X-3.46490 Y-3.24140
G01 X-3.46239 Y-3.23312
G01 X-3.45832 Y-3.22550
G01 X-3.45283 Y-3.21882
G01 X-3.44678 Y-3.21378
G01 X-3.35322 Y-3.21378
G01 X-3.34809 Y-3.21796
G01 X-3.34822 Y-3.21833
G01 X-3.34809 Y-3.21796
G01 X-3.33306 Y-3.21796
G01 X-3.33286 Y-3.21844
G01 X-3.33306 Y-3.21796
G01 X-3.28204 Y-3.16694
G01 X-3.28155 Y-3.16714
G01 X-3.28204 Y-3.16694
G01 X-3.28204 Y-2.99578
G01 X-3.28144 Y-2.99550
G01 X-3.28204 Y-2.99578
G01 X-3.28585 Y-2.99287
G01 X-3.28982 Y-2.98921
G01 X-3.29316 Y-2.98550
G01 X-3.29703 Y-2.98016
G01 X-3.29936 Y-2.97620
G01 X-3.30166 Y-2.97132
G01 X-3.30347 Y-2.96624
G01 X-3.30461 Y-2.96178
G01 X-3.30563 Y-2.95527
G01 X-3.30588 Y-2.95028
G01 X-3.30565 Y-2.94489
G01 X-3.30502 Y-2.94028
G01 X-3.30440 Y-2.94006
G01 X-3.30502 Y-2.94028
G01 X-3.36061 Y-2.88470
G01 X-3.36074 Y-2.88166
G01 X-3.36061 Y-2.88470
G01 X-3.36216 Y-2.88670
G01 X-3.36392 Y-2.88837
G01 X-3.36591 Y-2.88977
G01 X-3.36808 Y-2.89087
G01 X-3.37079 Y-2.89172
G01 X-3.37319 Y-2.89208
G01 X-3.42681 Y-2.89208
G01 X-3.42961 Y-2.89163
G01 X-3.43229 Y-2.89071
G01 X-3.43478 Y-2.88934
G01 X-3.43699 Y-2.88757
G01 X-3.43911 Y-2.88511
G01 X-3.44071 Y-2.88229
G01 X-3.44172 Y-2.87921
G01 X-3.44212 Y-2.87600
G01 X-3.44211 Y-2.82360
G01 X-3.44181 Y-2.82118
G01 X-3.44116 Y-2.81884
G01 X-3.44017 Y-2.81661
G01 X-3.43887 Y-2.81456
G01 X-3.43639 Y-2.81189
G01 X-3.43374 Y-2.81002
G01 X-3.43078 Y-2.80871
G01 X-3.42721 Y-2.80795
G01 X-3.37319 Y-2.80792
G01 X-3.37079 Y-2.80828
G01 X-3.36846 Y-2.80898
G01 X-3.36626 Y-2.81002
G01 X-3.36424 Y-2.81137
G01 X-3.36216 Y-2.81330
G01 X-3.36044 Y-2.81556
G01 X-3.35918 Y-2.81796
G01 X-3.35964 Y-2.81873
G01 X-3.35918 Y-2.81796
G01 X-3.34959 Y-2.81797
G01 X-3.34455 Y-2.81844
G01 X-3.34257 Y-2.81886
G01 X-3.33812 Y-2.82025
G01 X-3.33324 Y-2.82272
G01 X-3.33121 Y-2.82408
G01 X-3.32735 Y-2.82735
G01 X-3.25972 Y-2.89497
G01 X-3.25994 Y-2.89557
G01 X-3.25972 Y-2.89497
G01 X-3.25550 Y-2.89440
G01 X-3.24874 Y-2.89413
G01 X-3.24362 Y-2.89448
G01 X-3.23896 Y-2.89523
G01 X-3.23321 Y-2.89670
G01 X-3.22775 Y-2.89873
G01 X-3.22209 Y-2.90160
G01 X-3.21744 Y-2.90460
G01 X-3.21372 Y-2.90749
G01 X-3.21035 Y-2.91063
G01 X-3.20616 Y-2.91534
G01 X-3.20344 Y-2.92463
G01 X-3.20225 Y-2.93001
G01 X-3.20120 Y-2.93648
G01 X-3.20042 Y-2.94508
G01 X-3.20031 Y-2.95004
G01 X-3.20043 Y-2.95499
G01 X-3.20079 Y-2.95996
G01 X-3.20160 Y-2.96629
G01 X-3.20334 Y-2.97494
G01 X-3.20475 Y-2.98020
G01 X-3.20617 Y-2.98464
G01 X-3.20475 Y-2.98020
G01 X-3.20334 Y-2.97494
G01 X-3.20160 Y-2.96629
G01 X-3.20079 Y-2.95996
G01 X-3.20043 Y-2.95499
G01 X-3.20031 Y-2.95004
G01 X-3.20672 Y-2.95036
G01 X-3.20700 Y-2.95491
G01 X-3.20759 Y-2.95866
G01 X-3.20863 Y-2.96271
G01 X-3.21015 Y-2.96689
G01 X-3.21191 Y-2.97056
G01 X-3.21386 Y-2.97382
G01 X-3.21657 Y-2.97749
G01 X-3.21910 Y-2.98031
G01 X-3.22217 Y-2.98315
G01 X-3.22581 Y-2.98590
G01 X-3.23056 Y-2.98863
G01 X-3.23056 Y-3.18021
G01 X-3.23094 Y-3.18400
G01 X-3.23191 Y-3.18729
G01 X-3.23384 Y-3.19101
G01 X-3.23625 Y-3.19395
G01 X-3.30604 Y-3.26374
G01 X-3.30899 Y-3.26616
G01 X-3.31235 Y-3.26796
G01 X-3.31599 Y-3.26906
G01 X-3.31979 Y-3.26944
G01 X-3.35372 Y-3.26944
G01 X-3.35608 Y-3.27227
G01 X-3.36054 Y-3.27596
G01 X-3.36594 Y-3.27893
G01 X-3.37220 Y-3.28089
G01 X-3.37796 Y-3.28148
G01 X-3.42204 Y-3.28148
G01 X-3.42780 Y-3.28089
G01 X-3.43334 Y-3.27923
G01 X-3.43882 Y-3.27639
G01 X-3.44392 Y-3.27227
G01 X-3.44804 Y-3.26717
G01 X-3.45075 Y-3.26205
G01 X-3.45245 Y-3.25652
G01 X-3.45315 Y-3.25000
G01 X-3.45245 Y-3.24348
G01 X-3.45075 Y-3.23795
G01 X-3.44804 Y-3.23283
G01 X-3.44392 Y-3.22773
G01 X-3.43915 Y-3.22381
G01 X-3.43334 Y-3.22077
G01 X-3.42780 Y-3.21911
G01 X-3.42204 Y-3.21852
G01 X-3.37796 Y-3.21852
G01 X-3.37220 Y-3.21911
G01 X-3.36594 Y-3.22107
G01 X-3.36054 Y-3.22404
G01 X-3.35608 Y-3.22773
G01 X-3.35372 Y-3.23056
G01 X-3.32784 Y-3.23056
G01 X-3.26944 Y-3.17216
G01 X-3.26944 Y-2.98863
G01 X-3.27104 Y-2.98782
G01 X-3.27459 Y-2.98562
G01 X-3.27791 Y-2.98308
G01 X-3.28097 Y-2.98023
G01 X-3.28374 Y-2.97711
G01 X-3.28620 Y-2.97373
G01 X-3.28832 Y-2.97013
G01 X-3.28994 Y-2.96669
G01 X-3.29136 Y-2.96276
G01 X-3.29240 Y-2.95871
G01 X-3.29304 Y-2.95458
G01 X-3.29328 Y-2.95041
G01 X-3.29312 Y-2.94623
G01 X-3.29255 Y-2.94209
G01 X-3.29159 Y-2.93803
G01 X-3.29106 Y-2.93643
G01 X-3.35805 Y-2.86944
G01 X-3.37047 Y-2.86944
G01 X-3.37047 Y-2.87559
G01 X-3.37066 Y-2.87681
G01 X-3.37100 Y-2.87756
G01 X-3.37177 Y-2.87852
G01 X-3.37281 Y-2.87919
G01 X-3.37400 Y-2.87950
G01 X-3.42559 Y-2.87953
G01 X-3.42719 Y-2.87919
G01 X-3.42822 Y-2.87852
G01 X-3.42919 Y-2.87719
G01 X-3.42953 Y-2.87559
G01 X-3.42953 Y-2.82441
G01 X-3.42933 Y-2.82319
G01 X-3.42877 Y-2.82210
G01 X-3.42756 Y-2.82100
G01 X-3.42641 Y-2.82056
G01 X-3.42559 Y-2.82047
G01 X-3.37400 Y-2.82049
G01 X-3.37281 Y-2.82081
G01 X-3.37177 Y-2.82148
G01 X-3.37100 Y-2.82244
G01 X-3.37066 Y-2.82319
G01 X-3.37047 Y-2.82441
G01 X-3.37047 Y-2.83056
G01 X-3.35000 Y-2.83056
G01 X-3.34659 Y-2.83088
G01 X-3.34256 Y-2.83204
G01 X-3.33953 Y-2.83364
G01 X-3.33625 Y-2.83625
G01 X-3.26357 Y-2.90894
G01 X-3.26186 Y-2.90837
G01 X-3.25807 Y-2.90748
G01 X-3.25343 Y-2.90685
G01 X-3.24914 Y-2.90672
G01 X-3.24487 Y-2.90702
G01 X-3.24102 Y-2.90766
G01 X-3.23651 Y-2.90887
G01 X-3.23295 Y-2.91021
G01 X-3.22910 Y-2.91209
G01 X-3.22513 Y-2.91457
G01 X-3.22175 Y-2.91720
G01 X-3.21872 Y-2.92008
G01 X-3.21591 Y-2.92333
G01 X-3.21344 Y-2.92683
G01 X-3.21133 Y-2.93056
G01 X-3.20959 Y-2.93448
G01 X-3.20829 Y-2.93845
G01 X-3.20739 Y-2.94242
G01 X-3.20689 Y-2.94618
G01 X-3.20672 Y-2.95036
G04 P0 ( dwell for no time -- G64 should not smooth over this point )
G00 Z0.08000 ( retract )

G00 X-3.32796 Y-3.17187 ( rapid move to begin. )
G01 F180.00000
( Mill infeed pass 1/1 )
G01 Z-0.04000
G04 P0 ( dwell for no time -- G64 should not smooth over this point )
G01 F360.00000
G01 X-3.32796 Y-3.17187
G01 X-3.32806 Y-3.16902
G01 X-3.32888 Y-3.16163
G01 X-3.32946 Y-3.15925
G01 X-3.33171 Y-3.15216
G01 X-3.33275 Y-3.14995
G01 X-3.33633 Y-3.14343
G01 X-3.33778 Y-3.14146
G01 X-3.34257 Y-3.13577
G01 X-3.34437 Y-3.13412
G01 X-3.35018 Y-3.12947
G01 X-3.35227 Y-3.12821
G01 X-3.35887 Y-3.12478
G01 X-3.36117 Y-3.12395
G01 X-3.36831 Y-3.12188
G01 X-3.37033 Y-3.12155
G01 X-3.37723 Y-3.12089
G01 X-3.42203 Y-3.12087
G01 X-3.43048 Y-3.12166
G01 X-3.43287 Y-3.12216
G01 X-3.43883 Y-3.12395
G01 X-3.44224 Y-3.12529
G01 X-3.44982 Y-3.12947
G01 X-3.45386 Y-3.13267
G01 X-3.45375 Y-3.13301
G01 X-3.45386 Y-3.13267
G01 X-4.02682 Y-3.13267
G01 X-4.02702 Y-3.13315
G01 X-4.02682 Y-3.13267
G01 X-4.26142 Y-2.89808
G01 X-4.26189 Y-2.89828
G01 X-4.26142 Y-2.89808
G01 X-4.26142 Y-2.85000
G01 X-4.26183 Y-2.84469
G01 X-4.26220 Y-2.84227
G01 X-4.26398 Y-2.83618
G01 X-4.26561 Y-2.83264
G01 X-4.27090 Y-2.82976
G01 X-4.27750 Y-2.82685
G01 X-4.27634 Y-2.82806
G01 X-4.27339 Y-2.83173
G01 X-4.27086 Y-2.83618
G01 X-4.26962 Y-2.83917
G01 X-4.26851 Y-2.84291
G01 X-4.26814 Y-2.84490
G01 X-4.26771 Y-2.85000
G01 X-4.26771 Y-2.90069
G01 X-4.26818 Y-2.90089
G01 X-4.26771 Y-2.90069
G01 X-4.02943 Y-3.13897
G01 X-4.02963 Y-3.13945
G01 X-4.02943 Y-3.13897
G01 X-3.45161 Y-3.13897
G01 X-3.45148 Y-3.13933
G01 X-3.45161 Y-3.13897
G01 X-3.44649 Y-3.13483
G01 X-3.43999 Y-3.13122
G01 X-3.43739 Y-3.13010
G01 X-3.42986 Y-3.12794
G01 X-3.42206 Y-3.12717
G01 X-3.37753 Y-3.12718
G01 X-3.36974 Y-3.12801
G01 X-3.36147 Y-3.13052
G01 X-3.35385 Y-3.13460
G01 X-3.34717 Y-3.14008
G01 X-3.34168 Y-3.14676
G01 X-3.33761 Y-3.15438
G01 X-3.33510 Y-3.16266
G01 X-3.33426 Y-3.17085
G01 X-3.33433 Y-3.17288
G01 X-3.33510 Y-3.17986
G01 X-3.33718 Y-3.18699
G01 X-3.33812 Y-3.18924
G01 X-3.34168 Y-3.19576
G01 X-3.34608 Y-3.20124
G01 X-3.34806 Y-3.20327
G01 X-3.35322 Y-3.20748
G01 X-3.43200 Y-3.20748
G01 X-3.43630 Y-3.20610
G01 X-3.44248 Y-3.20280
G01 X-3.44794 Y-3.19840
G01 X-3.44905 Y-3.19725
G01 X-3.44891 Y-3.19687
G01 X-3.44905 Y-3.19725
G01 X-4.04280 Y-3.19725
G01 X-4.04728 Y-3.19685
G01 X-4.04885 Y-3.19650
G01 X-4.05256 Y-3.19534
G01 X-4.05638 Y-3.19338
G01 X-4.05773 Y-3.19252
G01 X-4.06118 Y-3.18963
G01 X-4.26537 Y-2.98544
G01 X-4.26524 Y-2.98332
G01 X-4.26537 Y-2.98544
G01 X-4.26881 Y-2.98855
G01 X-4.27363 Y-2.99199
G01 X-4.27918 Y-2.99500
G01 X-4.28459 Y-2.99713
G01 X-4.29031 Y-2.99863
G01 X-4.29577 Y-2.99940
G01 X-4.30168 Y-2.99956
G01 X-4.30746 Y-2.99902
G01 X-4.31285 Y-2.99788
G01 X-4.31959 Y-2.99554
G01 X-4.32453 Y-2.99309
G01 X-4.32949 Y-2.98986
G01 X-4.33373 Y-2.98634
G01 X-4.33781 Y-2.98208
G01 X-4.34097 Y-2.97793
G01 X-4.34365 Y-2.97352
G01 X-4.34582 Y-2.96896
G01 X-4.34754 Y-2.96410
G01 X-4.34875 Y-2.95908
G01 X-4.34942 Y-2.95407
G01 X-4.34957 Y-2.94892
G01 X-4.34919 Y-2.94372
G01 X-4.34798 Y-2.93751
G01 X-4.34601 Y-2.93151
G01 X-4.34324 Y-2.92573
G01 X-4.34006 Y-2.92080
G01 X-4.33566 Y-2.91555
G01 X-4.33133 Y-2.91159
G01 X-4.32599 Y-2.90778
G01 X-4.32536 Y-2.90808
G01 X-4.32599 Y-2.90778
G01 X-4.32599 Y-2.87599
G01 X-4.32414 Y-2.87414
G01 X-4.32599 Y-2.87599
G01 X-4.42693 Y-2.87599
G01 X-4.42703 Y-2.87567
G01 X-4.42693 Y-2.87599
G01 X-4.42993 Y-2.87855
G01 X-4.43380 Y-2.88110
G01 X-4.43848 Y-2.88334
G01 X-4.44290 Y-2.88476
G01 X-4.44756 Y-2.88560
G01 X-4.45219 Y-2.88582
G01 X-4.45724 Y-2.88537
G01 X-4.46060 Y-2.88467
G01 X-4.46362 Y-2.88373
G01 X-4.46746 Y-2.88211
G01 X-4.47117 Y-2.87999
G01 X-4.47422 Y-2.87776
G01 X-4.47727 Y-2.87495
G01 X-4.47977 Y-2.87209
G01 X-4.48161 Y-2.86952
G01 X-4.48334 Y-2.86655
G01 X-4.48509 Y-2.86266
G01 X-4.48633 Y-2.85868
G01 X-4.48707 Y-2.85484
G01 X-4.48739 Y-2.85058
G01 X-4.48731 Y-2.84752
G01 X-4.48691 Y-2.84412
G01 X-4.48606 Y-2.84032
G01 X-4.48422 Y-2.83529
G01 X-4.48353 Y-2.83385
G01 X-4.48110 Y-2.82971
G01 X-4.47785 Y-2.82565
G01 X-4.47310 Y-2.82137
G01 X-4.47206 Y-2.82068
G01 X-4.46987 Y-2.82003
G01 X-4.46418 Y-2.81874
G01 X-4.45869 Y-2.81794
G01 X-4.45332 Y-2.81759
G01 X-4.44916 Y-2.81761
G01 X-4.44403 Y-2.81798
G01 X-4.43994 Y-2.81856
G01 X-4.43573 Y-2.81941
G01 X-4.43140 Y-2.82055
G01 X-4.42877 Y-2.82238
G01 X-4.42696 Y-2.82401
G01 X-4.42709 Y-2.82437
G01 X-4.42696 Y-2.82401
G01 X-4.29950 Y-2.82403
G01 X-4.29513 Y-2.82448
G01 X-4.29100 Y-2.82565
G01 X-4.28951 Y-2.82624
G01 X-4.28540 Y-2.82851
G01 X-4.28148 Y-2.83177
G01 X-4.27828 Y-2.83573
G01 X-4.27592 Y-2.84024
G01 X-4.27441 Y-2.84552
G01 X-4.27401 Y-2.85000
G01 X-4.27401 Y-2.90330
G01 X-4.27448 Y-2.90350
G01 X-4.27401 Y-2.90330
G01 X-4.03204 Y-3.14527
G01 X-4.03224 Y-3.14575
G01 X-4.03204 Y-3.14527
G01 X-3.44905 Y-3.14527
G01 X-3.44892 Y-3.14564
G01 X-3.44905 Y-3.14527
G01 X-3.44794 Y-3.14412
G01 X-3.44346 Y-3.14043
G01 X-3.44214 Y-3.13951
G01 X-3.43593 Y-3.13627
G01 X-3.42883 Y-3.13415
G01 X-3.42165 Y-3.13346
G01 X-3.37784 Y-3.13348
G01 X-3.37078 Y-3.13423
G01 X-3.36370 Y-3.13642
G01 X-3.35718 Y-3.13995
G01 X-3.35176 Y-3.14439
G01 X-3.34703 Y-3.15009
G01 X-3.34351 Y-3.15661
G01 X-3.34132 Y-3.16369
G01 X-3.34057 Y-3.17066
G01 X-3.34060 Y-3.17226
G01 X-3.34124 Y-3.17843
G01 X-3.34309 Y-3.18478
G01 X-3.34386 Y-3.18663
G01 X-3.34727 Y-3.19275
G01 X-3.35176 Y-3.19813
G01 X-3.35718 Y-3.20257
G01 X-3.36370 Y-3.20610
G01 X-3.36800 Y-3.20748
G01 X-3.44678 Y-3.20748
G01 X-3.45161 Y-3.20354
G01 X-3.45148 Y-3.20318
G01 X-3.45161 Y-3.20354
G01 X-4.04280 Y-3.20354
G01 X-4.04790 Y-3.20312
G01 X-4.05068 Y-3.20253
G01 X-4.05516 Y-3.20109
G01 X-4.05970 Y-3.19874
G01 X-4.06173 Y-3.19739
G01 X-4.06563 Y-3.19409
G01 X-4.26565 Y-2.99407
G01 X-4.26545 Y-2.99234
G01 X-4.26565 Y-2.99407
G01 X-4.27031 Y-2.99734
G01 X-4.27615 Y-3.00054
G01 X-4.28186 Y-3.00285
G01 X-4.28866 Y-3.00472
G01 X-4.29448 Y-3.00559
G01 X-4.29645 Y-3.00575
G01 X-4.30270 Y-3.00581
G01 X-4.30883 Y-3.00518
G01 X-4.31496 Y-3.00385
G01 X-4.32127 Y-3.00168
G01 X-4.32657 Y-2.99914
G01 X-4.32829 Y-2.99817
G01 X-4.33353 Y-2.99470
G01 X-4.33833 Y-2.99066
G01 X-4.34262 Y-2.98615
G01 X-4.34629 Y-2.98131
G01 X-4.34929 Y-2.97634
G01 X-4.35172 Y-2.97118
G01 X-4.35364 Y-2.96570
G01 X-4.35497 Y-2.96004
G01 X-4.35571 Y-2.95439
G01 X-4.35587 Y-2.94858
G01 X-4.35543 Y-2.94286
G01 X-4.35407 Y-2.93589
G01 X-4.35213 Y-2.92993
G01 X-4.35133 Y-2.92796
G01 X-4.34829 Y-2.92189
G01 X-4.34459 Y-2.91631
G01 X-4.34017 Y-2.91115
G01 X-4.33457 Y-2.90609
G01 X-4.33228 Y-2.90448
G01 X-4.33171 Y-2.90475
G01 X-4.33228 Y-2.90448
G01 X-4.33228 Y-2.88228
G01 X-4.33044 Y-2.88044
G01 X-4.33228 Y-2.88228
G01 X-4.42460 Y-2.88228
G01 X-4.42469 Y-2.88200
G01 X-4.42460 Y-2.88228
G01 X-4.42616 Y-2.88359
G01 X-4.43110 Y-2.88681
G01 X-4.43572 Y-2.88903
G01 X-4.44049 Y-2.89063
G01 X-4.44552 Y-2.89167
G01 X-4.44767 Y-2.89192
G01 X-4.45226 Y-2.89212
G01 X-4.45769 Y-2.89168
G01 X-4.46198 Y-2.89082
G01 X-4.46551 Y-2.88974
G01 X-4.47045 Y-2.88766
G01 X-4.47516 Y-2.88489
G01 X-4.47804 Y-2.88277
G01 X-4.48135 Y-2.87980
G01 X-4.48487 Y-2.87578
G01 X-4.48701 Y-2.87278
G01 X-4.48923 Y-2.86889
G01 X-4.49106 Y-2.86469
G01 X-4.49215 Y-2.86127
G01 X-4.49328 Y-2.85591
G01 X-4.49368 Y-2.85133
G01 X-4.49363 Y-2.84775
G01 X-4.49284 Y-2.84158
G01 X-4.49183 Y-2.83758
G01 X-4.48994 Y-2.83263
G01 X-4.48919 Y-2.83107
G01 X-4.48658 Y-2.82657
G01 X-4.47972 Y-2.82339
G01 X-4.47375 Y-2.82118
G01 X-4.46806 Y-2.81957
G01 X-4.46257 Y-2.81846
G01 X-4.45869 Y-2.81794
G01 X-4.45332 Y-2.81759
G01 X-4.44916 Y-2.81761
G01 X-4.44403 Y-2.81798
G01 X-4.43994 Y-2.81856
G01 X-4.43573 Y-2.81941
G01 X-4.43140 Y-2.82055
G01 X-4.42517 Y-2.82253
G01 X-4.29865 Y-2.82251
G01 X-4.29284 Y-2.82294
G01 X-4.28688 Y-2.82398
G01 X-4.28061 Y-2.82573
G01 X-4.27750 Y-2.82685
G01 X-4.28061 Y-2.82573
G01 X-4.28688 Y-2.82398
G01 X-4.29284 Y-2.82294
G01 X-4.29865 Y-2.82251
G01 X-4.42516 Y-2.82248
G01 X-4.42629 Y-2.82227
G01 X-4.43282 Y-2.82015
G01 X-4.43994 Y-2.81856
G01 X-4.44403 Y-2.81798
G01 X-4.44807 Y-2.81765
G01 X-4.45332 Y-2.81759
G01 X-4.45869 Y-2.81794
G01 X-4.46418 Y-2.81874
G01 X-4.46806 Y-2.81957
G01 X-4.47375 Y-2.82118
G01 X-4.47972 Y-2.82339
G01 X-4.48609 Y-2.82631
G01 X-4.49298 Y-2.83014
G01 X-4.49589 Y-2.83198
G01 X-4.49712 Y-2.84013
G01 X-4.49751 Y-2.84525
G01 X-4.49763 Y-2.85028
G01 X-4.49747 Y-2.85545
G01 X-4.49703 Y-2.86070
G01 X-4.49631 Y-2.86585
G01 X-4.49541 Y-2.87054
G01 X-4.49428 Y-2.87279
G01 X-4.49162 Y-2.87720
G01 X-4.48897 Y-2.88076
G01 X-4.48522 Y-2.88482
G01 X-4.48168 Y-2.88792
G01 X-4.47750 Y-2.89090
G01 X-4.47291 Y-2.89347
G01 X-4.46817 Y-2.89549
G01 X-4.46314 Y-2.89702
G01 X-4.45777 Y-2.89802
G01 X-4.45190 Y-2.89842
G01 X-4.44520 Y-2.89800
G01 X-4.43935 Y-2.89686
G01 X-4.43299 Y-2.89471
G01 X-4.42727 Y-2.89188
G01 X-4.42272 Y-2.88889
G01 X-4.42232 Y-2.88858
G01 X-4.42240 Y-2.88832
G01 X-4.42232 Y-2.88858
G01 X-4.33858 Y-2.88858
G01 X-4.33674 Y-2.88674
G01 X-4.33858 Y-2.88858
G01 X-4.33858 Y-2.90123
G01 X-4.33804 Y-2.90148
G01 X-4.33858 Y-2.90123
G01 X-4.33882 Y-2.90142
G01 X-4.34379 Y-2.90587
G01 X-4.34525 Y-2.90737
G01 X-4.34988 Y-2.91287
G01 X-4.35399 Y-2.91915
G01 X-4.35752 Y-2.92636
G01 X-4.35969 Y-2.93267
G01 X-4.36044 Y-2.93550
G01 X-4.36175 Y-2.94276
G01 X-4.36216 Y-2.94842
G01 X-4.36199 Y-2.95488
G01 X-4.36117 Y-2.96117
G01 X-4.35957 Y-2.96784
G01 X-4.35755 Y-2.97356
G01 X-4.35484 Y-2.97931
G01 X-4.35151 Y-2.98484
G01 X-4.34727 Y-2.99040
G01 X-4.34264 Y-2.99527
G01 X-4.33786 Y-2.99930
G01 X-4.33598 Y-3.00070
G01 X-4.33037 Y-3.00426
G01 X-4.32405 Y-3.00734
G01 X-4.31816 Y-3.00945
G01 X-4.31591 Y-3.01010
G01 X-4.30904 Y-3.01152
G01 X-4.30255 Y-3.01213
G01 X-4.29592 Y-3.01204
G01 X-4.28894 Y-3.01117
G01 X-4.28665 Y-3.01072
G01 X-4.28025 Y-3.00897
G01 X-4.27348 Y-3.00625
G01 X-4.26635 Y-3.00228
G01 X-4.26613 Y-3.00073
G01 X-4.26635 Y-3.00228
G01 X-4.06982 Y-3.19880
G01 X-4.06540 Y-3.20251
G01 X-4.06267 Y-3.20430
G01 X-4.05776 Y-3.20683
G01 X-4.05251 Y-3.20856
G01 X-4.04892 Y-3.20934
G01 X-4.04280 Y-3.20984
G01 X-3.46082 Y-3.20984
G01 X-3.45777 Y-3.20858
G01 X-3.45416 Y-3.20739
G01 X-3.34600 Y-3.20748
G01 X-3.34167 Y-3.20577
G01 X-3.33656 Y-3.19943
G01 X-3.33256 Y-3.19221
G01 X-3.33128 Y-3.18921
G01 X-3.32905 Y-3.18169
G01 X-3.32863 Y-3.17928
G01 X-3.32796 Y-3.17187
G01 X-3.34685 Y-3.17126
G01 X-3.34746 Y-3.17740
G01 X-3.34925 Y-3.18331
G01 X-3.35216 Y-3.18876
G01 X-3.35608 Y-3.19353
G01 X-3.36085 Y-3.19745
G01 X-3.36629 Y-3.20036
G01 X-3.37220 Y-3.20215
G01 X-3.37835 Y-3.20275
G01 X-3.42165 Y-3.20275
G01 X-3.42780 Y-3.20215
G01 X-3.43371 Y-3.20036
G01 X-3.43915 Y-3.19745
G01 X-3.44392 Y-3.19353
G01 X-3.44607 Y-3.19095
G01 X-4.04280 Y-3.19095
G01 X-4.04702 Y-3.19047
G01 X-4.05034 Y-3.18945
G01 X-4.05341 Y-3.18783
G01 X-4.05672 Y-3.18518
G01 X-4.26562 Y-2.97629
G01 X-4.26892 Y-2.98012
G01 X-4.27273 Y-2.98361
G01 X-4.27693 Y-2.98662
G01 X-4.28146 Y-2.98911
G01 X-4.28616 Y-2.99101
G01 X-4.29114 Y-2.99236
G01 X-4.29625 Y-2.99312
G01 X-4.30141 Y-2.99326
G01 X-4.30646 Y-2.99280
G01 X-4.31151 Y-2.99172
G01 X-4.31640 Y-2.99005
G01 X-4.32105 Y-2.98781
G01 X-4.32579 Y-2.98476
G01 X-4.32975 Y-2.98144
G01 X-4.33326 Y-2.97769
G01 X-4.33596 Y-2.97408
G01 X-4.33808 Y-2.97057
G01 X-4.33997 Y-2.96659
G01 X-4.34148 Y-2.96235
G01 X-4.34254 Y-2.95797
G01 X-4.34313 Y-2.95361
G01 X-4.34327 Y-2.94910
G01 X-4.34295 Y-2.94461
G01 X-4.34190 Y-2.93915
G01 X-4.34018 Y-2.93392
G01 X-4.33777 Y-2.92887
G01 X-4.33478 Y-2.92425
G01 X-4.33117 Y-2.91997
G01 X-4.32711 Y-2.91626
G01 X-4.32252 Y-2.91304
G01 X-4.31969 Y-2.91154
G01 X-4.31969 Y-2.86969
G01 X-4.42964 Y-2.86969
G01 X-4.43110 Y-2.87127
G01 X-4.43368 Y-2.87348
G01 X-4.43686 Y-2.87559
G01 X-4.44038 Y-2.87731
G01 X-4.44399 Y-2.87853
G01 X-4.44783 Y-2.87928
G01 X-4.45164 Y-2.87952
G01 X-4.45554 Y-2.87925
G01 X-4.45907 Y-2.87856
G01 X-4.46213 Y-2.87757
G01 X-4.46499 Y-2.87630
G01 X-4.46777 Y-2.87468
G01 X-4.46996 Y-2.87310
G01 X-4.47229 Y-2.87103
G01 X-4.47439 Y-2.86873
G01 X-4.47653 Y-2.86578
G01 X-4.47787 Y-2.86343
G01 X-4.47917 Y-2.86049
G01 X-4.48013 Y-2.85751
G01 X-4.48077 Y-2.85435
G01 X-4.48109 Y-2.85072
G01 X-4.48100 Y-2.84760
G01 X-4.48066 Y-2.84492
G01 X-4.47993 Y-2.84178
G01 X-4.47807 Y-2.83700
G01 X-4.47572 Y-2.83303
G01 X-4.47321 Y-2.82992
G01 X-4.46933 Y-2.82642
G01 X-4.46544 Y-2.82394
G01 X-4.46121 Y-2.82210
G01 X-4.45735 Y-2.82105
G01 X-4.45224 Y-2.82049
G01 X-4.44878 Y-2.82061
G01 X-4.44536 Y-2.82114
G01 X-4.44246 Y-2.82192
G01 X-4.43924 Y-2.82318
G01 X-4.43619 Y-2.82481
G01 X-4.43334 Y-2.82678
G01 X-4.43075 Y-2.82907
G01 X-4.42962 Y-2.83031
G01 X-4.30000 Y-2.83031
G01 X-4.29616 Y-2.83069
G01 X-4.29283 Y-2.83168
G01 X-4.28906 Y-2.83363
G01 X-4.28608 Y-2.83608
G01 X-4.28363 Y-2.83906
G01 X-4.28181 Y-2.84247
G01 X-4.28063 Y-2.84654
G01 X-4.28031 Y-2.85000
G01 X-4.28031 Y-2.90591
G01 X-4.03465 Y-3.15157
G01 X-3.44607 Y-3.15157
G01 X-3.44392 Y-3.14899
G01 X-3.43915 Y-3.14507
G01 X-3.43371 Y-3.14216
G01 X-3.42780 Y-3.14037
G01 X-3.42165 Y-3.13976
G01 X-3.37835 Y-3.13976
G01 X-3.37220 Y-3.14037
G01 X-3.36629 Y-3.14216
G01 X-3.36085 Y-3.14507
G01 X-3.35608 Y-3.14899
G01 X-3.35216 Y-3.15376
G01 X-3.34925 Y-3.15921
G01 X-3.34746 Y-3.16512
G01 X-3.34685 Y-3.17126
G04 P0 ( dwell for no time -- G64 should not smooth over this point )
G00 Z0.08000 ( retract )

G00 X-3.33398 Y-3.32940 ( rapid move to begin. )
G01 F180.00000
( Mill infeed pass 1/1 )
G01 Z-0.04000
G04 P0 ( dwell for no time -- G64 should not smooth over this point )
G01 F360.00000
G01 X-3.33398 Y-3.32940
G01 X-3.33237 Y-3.32551
G01 X-3.33041 Y-3.32002
G01 X-3.32944 Y-3.31682
G01 X-3.33128 Y-3.31079
G01 X-3.33256 Y-3.30779
G01 X-3.33656 Y-3.30057
G01 X-3.34167 Y-3.29422
G01 X-3.34601 Y-3.29252
G01 X-3.35322 Y-3.29252
G01 X-3.34806 Y-3.29673
G01 X-3.34608 Y-3.29876
G01 X-3.34168 Y-3.30424
G01 X-3.33812 Y-3.31076
G01 X-3.33718 Y-3.31301
G01 X-3.33510 Y-3.32014
G01 X-3.33430 Y-3.32752
G01 X-3.33431 Y-3.33009
G01 X-3.33797 Y-3.33745
G01 X-3.34075 Y-3.34209
G01 X-3.34235 Y-3.34448
G01 X-3.34715 Y-3.35075
G01 X-3.35245 Y-3.35641
G01 X-3.35634 Y-3.35993
G01 X-3.36325 Y-3.36519
G01 X-3.37185 Y-3.36636
G01 X-3.37838 Y-3.36665
G01 X-3.42161 Y-3.36665
G01 X-3.42815 Y-3.36636
G01 X-3.43598 Y-3.36532
G01 X-3.43880 Y-3.36476
G01 X-3.44405 Y-3.36345
G01 X-3.45263 Y-3.36068
G01 X-3.67122 Y-3.36074
G01 X-3.67551 Y-3.36059
G01 X-3.67749 Y-3.36041
G01 X-3.68233 Y-3.35907
G01 X-3.72050 Y-3.34514
G01 X-3.72055 Y-3.34449
G01 X-3.72050 Y-3.34514
G01 X-3.72545 Y-3.34801
G01 X-3.73212 Y-3.35088
G01 X-3.73824 Y-3.35262
G01 X-3.74317 Y-3.35350
G01 X-3.74816 Y-3.35389
G01 X-3.75490 Y-3.35371
G01 X-3.76072 Y-3.35285
G01 X-3.76487 Y-3.35184
G01 X-3.76930 Y-3.35036
G01 X-3.77507 Y-3.34774
G01 X-3.77878 Y-3.34562
G01 X-3.78292 Y-3.34272
G01 X-3.78686 Y-3.33937
G01 X-3.79015 Y-3.33601
G01 X-3.79193 Y-3.33087
G01 X-3.79337 Y-3.32595
G01 X-3.79455 Y-3.32106
G01 X-3.79598 Y-3.31296
G01 X-3.79648 Y-3.30836
G01 X-3.79681 Y-3.30255
G01 X-3.79682 Y-3.29799
G01 X-3.79660 Y-3.29318
G01 X-3.79612 Y-3.28820
G01 X-3.79513 Y-3.28474
G01 X-3.79345 Y-3.28046
G01 X-3.79139 Y-3.27642
G01 X-3.78886 Y-3.27245
G01 X-3.78584 Y-3.26862
G01 X-3.78265 Y-3.26531
G01 X-3.77908 Y-3.26227
G01 X-3.77530 Y-3.25964
G01 X-3.77105 Y-3.25726
G01 X-3.76673 Y-3.25540
G01 X-3.76241 Y-3.25401
G01 X-3.75792 Y-3.25302
G01 X-3.75341 Y-3.25249
G01 X-3.74856 Y-3.25238
G01 X-3.74468 Y-3.25267
G01 X-3.73950 Y-3.25354
G01 X-3.73576 Y-3.25454
G01 X-3.73127 Y-3.25621
G01 X-3.72778 Y-3.25786
G01 X-3.72404 Y-3.26005
G01 X-3.72053 Y-3.26257
G01 X-3.71725 Y-3.26540
G01 X-3.71425 Y-3.26852
G01 X-3.71182 Y-3.27153
G01 X-3.70891 Y-3.27591
G01 X-3.70709 Y-3.27931
G01 X-3.70523 Y-3.28373
G01 X-3.70405 Y-3.28741
G01 X-3.70363 Y-3.28926
G01 X-3.70411 Y-3.28973
G01 X-3.70363 Y-3.28926
G01 X-3.66668 Y-3.30285
G01 X-3.44905 Y-3.30275
G01 X-3.44891 Y-3.30313
G01 X-3.44905 Y-3.30275
G01 X-3.44794 Y-3.30160
G01 X-3.44248 Y-3.29720
G01 X-3.43630 Y-3.29390
G01 X-3.43199 Y-3.29252
G01 X-3.36801 Y-3.29252
G01 X-3.36370 Y-3.29390
G01 X-3.35718 Y-3.29743
G01 X-3.35176 Y-3.30187
G01 X-3.34727 Y-3.30725
G01 X-3.34386 Y-3.31337
G01 X-3.34309 Y-3.31522
G01 X-3.34124 Y-3.32156
G01 X-3.34057 Y-3.32814
G01 X-3.34060 Y-3.32974
G01 X-3.34124 Y-3.33592
G01 X-3.34335 Y-3.34302
G01 X-3.34681 Y-3.34957
G01 X-3.35148 Y-3.35532
G01 X-3.35718 Y-3.36005
G01 X-3.36370 Y-3.36358
G01 X-3.37078 Y-3.36577
G01 X-3.37784 Y-3.36652
G01 X-3.42165 Y-3.36653
G01 X-3.42883 Y-3.36585
G01 X-3.43593 Y-3.36373
G01 X-3.44214 Y-3.36049
G01 X-3.44346 Y-3.35957
G01 X-3.44794 Y-3.35588
G01 X-3.44905 Y-3.35473
G01 X-3.44892 Y-3.35436
G01 X-3.44905 Y-3.35473
G01 X-3.67215 Y-3.35469
G01 X-3.67578 Y-3.35433
G01 X-3.68017 Y-3.35315
G01 X-3.72145 Y-3.33808
G01 X-3.72152 Y-3.33739
G01 X-3.72145 Y-3.33808
G01 X-3.72463 Y-3.34032
G01 X-3.72886 Y-3.34269
G01 X-3.73366 Y-3.34475
G01 X-3.73865 Y-3.34626
G01 X-3.74378 Y-3.34723
G01 X-3.74898 Y-3.34762
G01 X-3.75452 Y-3.34742
G01 X-3.75927 Y-3.34672
G01 X-3.76314 Y-3.34579
G01 X-3.76736 Y-3.34436
G01 X-3.77154 Y-3.34249
G01 X-3.77542 Y-3.34029
G01 X-3.77908 Y-3.33773
G01 X-3.78256 Y-3.33477
G01 X-3.78567 Y-3.33157
G01 X-3.78817 Y-3.32848
G01 X-3.79093 Y-3.32438
G01 X-3.79307 Y-3.32035
G01 X-3.79479 Y-3.31623
G01 X-3.79598 Y-3.31243
G01 X-3.79658 Y-3.30720
G01 X-3.79684 Y-3.29913
G01 X-3.79668 Y-3.29437
G01 X-3.79628 Y-3.28956
G01 X-3.79563 Y-3.28471
G01 X-3.79476 Y-3.27989
G01 X-3.79318 Y-3.27337
G01 X-3.79158 Y-3.26807
G01 X-3.79015 Y-3.26400
G01 X-3.78697 Y-3.26072
G01 X-3.78292 Y-3.25728
G01 X-3.77865 Y-3.25430
G01 X-3.77473 Y-3.25208
G01 X-3.76834 Y-3.24929
G01 X-3.76405 Y-3.24792
G01 X-3.75856 Y-3.24675
G01 X-3.75367 Y-3.24619
G01 X-3.74916 Y-3.24608
G01 X-3.74271 Y-3.24657
G01 X-3.73862 Y-3.24728
G01 X-3.73388 Y-3.24853
G01 X-3.72927 Y-3.25020
G01 X-3.72484 Y-3.25229
G01 X-3.72061 Y-3.25477
G01 X-3.71605 Y-3.25810
G01 X-3.71239 Y-3.26136
G01 X-3.70952 Y-3.26436
G01 X-3.70690 Y-3.26758
G01 X-3.70374 Y-3.27226
G01 X-3.70125 Y-3.27692
G01 X-3.69949 Y-3.28109
G01 X-3.69837 Y-3.28447
G01 X-3.69881 Y-3.28492
G01 X-3.69837 Y-3.28447
G01 X-3.66557 Y-3.29655
G01 X-3.45161 Y-3.29645
G01 X-3.45148 Y-3.29682
G01 X-3.45161 Y-3.29645
G01 X-3.44678 Y-3.29252
G01 X-3.35322 Y-3.29252
G01 X-3.45416 Y-3.29261
G01 X-3.45777 Y-3.29142
G01 X-3.46082 Y-3.29015
G01 X-3.66445 Y-3.29025
G01 X-3.69333 Y-3.27961
G01 X-3.69367 Y-3.27999
G01 X-3.69333 Y-3.27961
G01 X-3.69381 Y-3.27830
G01 X-3.69565 Y-3.27403
G01 X-3.69802 Y-3.26956
G01 X-3.70124 Y-3.26463
G01 X-3.70438 Y-3.26067
G01 X-3.70844 Y-3.25640
G01 X-3.71257 Y-3.25280
G01 X-3.71701 Y-3.24960
G01 X-3.72135 Y-3.24702
G01 X-3.72782 Y-3.24401
G01 X-3.73220 Y-3.24246
G01 X-3.73709 Y-3.24116
G01 X-3.74248 Y-3.24024
G01 X-3.74711 Y-3.23985
G01 X-3.75410 Y-3.23990
G01 X-3.76110 Y-3.24081
G01 X-3.76570 Y-3.24184
G01 X-3.77135 Y-3.24367
G01 X-3.77747 Y-3.24640
G01 X-3.78199 Y-3.24896
G01 X-3.78611 Y-3.25180
G01 X-3.78819 Y-3.25876
G01 X-3.79158 Y-3.26807
G01 X-3.79359 Y-3.27489
G01 X-3.79476 Y-3.27989
G01 X-3.79563 Y-3.28471
G01 X-3.79628 Y-3.28956
G01 X-3.79668 Y-3.29437
G01 X-3.79684 Y-3.29913
G01 X-3.79658 Y-3.30720
G01 X-3.79598 Y-3.31296
G01 X-3.79524 Y-3.31764
G01 X-3.79425 Y-3.32243
G01 X-3.79296 Y-3.32744
G01 X-3.79140 Y-3.33247
G01 X-3.78812 Y-3.34145
G01 X-3.78611 Y-3.34820
G01 X-3.78159 Y-3.35128
G01 X-3.77601 Y-3.35430
G01 X-3.76763 Y-3.35587
G01 X-3.75990 Y-3.35677
G01 X-3.75421 Y-3.35711
G01 X-3.74777 Y-3.35717
G01 X-3.74129 Y-3.35687
G01 X-3.73475 Y-3.35620
G01 X-3.72812 Y-3.35515
G01 X-3.72392 Y-3.35429
G01 X-3.71984 Y-3.35208
G01 X-3.71988 Y-3.35148
G01 X-3.71984 Y-3.35208
G01 X-3.71387 Y-3.35426
G01 X-3.68317 Y-3.35969
G01 X-3.67881 Y-3.36030
G01 X-3.67286 Y-3.36071
G01 X-3.45264 Y-3.36074
G01 X-3.45158 Y-3.36093
G01 X-3.44405 Y-3.36345
G01 X-3.43880 Y-3.36476
G01 X-3.43598 Y-3.36532
G01 X-3.42815 Y-3.36636
G01 X-3.42161 Y-3.36665
G01 X-3.37838 Y-3.36665
G01 X-3.37185 Y-3.36636
G01 X-3.36325 Y-3.36519
G01 X-3.35834 Y-3.36158
G01 X-3.35245 Y-3.35641
G01 X-3.34715 Y-3.35075
G01 X-3.34235 Y-3.34448
G01 X-3.33797 Y-3.33745
G01 X-3.33637 Y-3.33445
G01 X-3.33398 Y-3.32940
G01 X-3.33426 Y-3.32833
G01 X-3.34685 Y-3.32874
G01 X-3.34746 Y-3.33488
G01 X-3.34925 Y-3.34079
G01 X-3.35216 Y-3.34624
G01 X-3.35608 Y-3.35101
G01 X-3.36085 Y-3.35493
G01 X-3.36629 Y-3.35784
G01 X-3.37220 Y-3.35963
G01 X-3.37835 Y-3.36024
G01 X-3.42165 Y-3.36024
G01 X-3.42780 Y-3.35963
G01 X-3.43371 Y-3.35784
G01 X-3.43915 Y-3.35493
G01 X-3.44392 Y-3.35101
G01 X-3.44607 Y-3.34843
G01 X-3.67160 Y-3.34841
G01 X-3.67469 Y-3.34813
G01 X-3.67801 Y-3.34723
G01 X-3.72266 Y-3.33093
G01 X-3.72434 Y-3.33240
G01 X-3.72767 Y-3.33478
G01 X-3.73161 Y-3.33702
G01 X-3.73577 Y-3.33881
G01 X-3.74010 Y-3.34013
G01 X-3.74455 Y-3.34097
G01 X-3.74907 Y-3.34132
G01 X-3.75359 Y-3.34118
G01 X-3.75746 Y-3.34066
G01 X-3.76122 Y-3.33978
G01 X-3.76489 Y-3.33856
G01 X-3.76852 Y-3.33695
G01 X-3.77190 Y-3.33506
G01 X-3.77508 Y-3.33286
G01 X-3.77812 Y-3.33030
G01 X-3.78083 Y-3.32753
G01 X-3.78327 Y-3.32453
G01 X-3.78560 Y-3.32100
G01 X-3.78746 Y-3.31748
G01 X-3.78892 Y-3.31391
G01 X-3.79005 Y-3.31021
G01 X-3.79083 Y-3.30641
G01 X-3.79126 Y-3.30247
G01 X-3.79131 Y-3.29859
G01 X-3.79097 Y-3.29452
G01 X-3.79023 Y-3.29050
G01 X-3.78922 Y-3.28694
G01 X-3.78778 Y-3.28323
G01 X-3.78574 Y-3.27924
G01 X-3.78352 Y-3.27582
G01 X-3.78097 Y-3.27263
G01 X-3.77819 Y-3.26977
G01 X-3.77507 Y-3.26714
G01 X-3.77180 Y-3.26488
G01 X-3.76822 Y-3.26290
G01 X-3.76447 Y-3.26128
G01 X-3.76058 Y-3.26004
G01 X-3.75668 Y-3.25921
G01 X-3.75301 Y-3.25877
G01 X-3.74892 Y-3.25868
G01 X-3.74516 Y-3.25895
G01 X-3.74145 Y-3.25956
G01 X-3.73782 Y-3.26050
G01 X-3.73428 Y-3.26177
G01 X-3.73088 Y-3.26335
G01 X-3.72763 Y-3.26524
G01 X-3.72429 Y-3.26764
G01 X-3.72145 Y-3.27011
G01 X-3.71886 Y-3.27282
G01 X-3.71652 Y-3.27576
G01 X-3.71446 Y-3.27890
G01 X-3.71269 Y-3.28221
G01 X-3.71123 Y-3.28567
G01 X-3.71009 Y-3.28925
G01 X-3.70914 Y-3.29396
G01 X-3.66778 Y-3.30905
G01 X-3.44607 Y-3.30905
G01 X-3.44392 Y-3.30647
G01 X-3.43915 Y-3.30255
G01 X-3.43371 Y-3.29964
G01 X-3.42780 Y-3.29785
G01 X-3.42165 Y-3.29724
G01 X-3.37796 Y-3.29726
G01 X-3.37220 Y-3.29785
G01 X-3.36629 Y-3.29964
G01 X-3.36085 Y-3.30255
G01 X-3.35608 Y-3.30647
G01 X-3.35216 Y-3.31124
G01 X-3.34925 Y-3.31669
G01 X-3.34746 Y-3.32260
G01 X-3.34685 Y-3.32874
G04 P0 ( dwell for no time -- G64 should not smooth over this point )
G00 Z0.08000 ( retract )

G00 X-3.12981 Y-3.21762 ( rapid move to begin. )
G01 F180.00000
( Mill infeed pass 1/1 )
G01 Z-0.04000
G04 P0 ( dwell for no time -- G64 should not smooth over this point )
G01 F360.00000
G01 X-3.12981 Y-3.21762
G01 X-3.12981 Y-2.81071
G01 X-3.13027 Y-2.80504
G01 X-3.13098 Y-2.80145
G01 X-3.13223 Y-2.79738
G01 X-3.13314 Y-2.79511
G01 X-3.13616 Y-2.78958
G01 X-3.13978 Y-2.78498
G01 X-3.18360 Y-2.74104
G01 X-3.18793 Y-2.73735
G01 X-3.19134 Y-2.73512
G01 X-3.19474 Y-2.73332
G01 X-3.19738 Y-2.73223
G01 X-3.20343 Y-2.73051
G01 X-3.21034 Y-2.72982
G01 X-3.55707 Y-2.72981
G01 X-3.55727 Y-2.73029
G01 X-3.55707 Y-2.72981
G01 X-3.67238 Y-2.61450
G01 X-3.67890 Y-2.61022
G01 X-3.68374 Y-2.60665
G01 X-3.69697 Y-2.59562
G01 X-3.70595 Y-2.58880
G01 X-3.70903 Y-2.58817
G01 X-3.71361 Y-2.58771
G01 X-3.72327 Y-2.58766
G01 X-3.72510 Y-2.58949
G01 X-3.72327 Y-2.58766
G01 X-3.72327 Y-2.55710
G01 X-3.72344 Y-2.55429
G01 X-3.72386 Y-2.55191
G01 X-3.72441 Y-2.54997
G01 X-3.72528 Y-2.54771
G01 X-3.72619 Y-2.54592
G01 X-3.72846 Y-2.54259
G01 X-3.72981 Y-2.54110
G01 X-3.73159 Y-2.53946
G01 X-3.73457 Y-2.53739
G01 X-3.73783 Y-2.53581
G01 X-3.74130 Y-2.53477
G01 X-3.74529 Y-2.53428
G01 X-3.85252 Y-2.53426
G01 X-3.85272 Y-2.53474
G01 X-3.85252 Y-2.53426
G01 X-3.90599 Y-2.48079
G01 X-3.90827 Y-2.47879
G01 X-3.90875 Y-2.47899
G01 X-3.90827 Y-2.47879
G01 X-3.90827 Y-2.44629
G01 X-3.91325 Y-2.44130
G01 X-3.91798 Y-2.43716
G01 X-3.92250 Y-2.43434
G01 X-3.92686 Y-2.43270
G01 X-3.93130 Y-2.43215
G01 X-4.06870 Y-2.43215
G01 X-4.07314 Y-2.43270
G01 X-4.07750 Y-2.43434
G01 X-4.08202 Y-2.43716
G01 X-4.08675 Y-2.44130
G01 X-4.09173 Y-2.44629
G01 X-4.09172 Y-2.57761
G01 X-4.09131 Y-2.58121
G01 X-4.09046 Y-2.58431
G01 X-4.08919 Y-2.58727
G01 X-4.08728 Y-2.59035
G01 X-4.08574 Y-2.59222
G01 X-4.08402 Y-2.59391
G01 X-4.08179 Y-2.59565
G01 X-4.07973 Y-2.59690
G01 X-4.07717 Y-2.59808
G01 X-4.07487 Y-2.59884
G01 X-4.07251 Y-2.59935
G01 X-4.07011 Y-2.59960
G01 X-3.92989 Y-2.59960
G01 X-3.92591 Y-2.59904
G01 X-3.92208 Y-2.59778
G01 X-3.91854 Y-2.59587
G01 X-3.91539 Y-2.59337
G01 X-3.91372 Y-2.59161
G01 X-3.91225 Y-2.58969
G01 X-3.91100 Y-2.58763
G01 X-3.90997 Y-2.58544
G01 X-3.91043 Y-2.58131
G01 X-3.90991 Y-2.58530
G01 X-3.90673 Y-2.58848
G01 X-3.90625 Y-2.58828
G01 X-3.90673 Y-2.58848
G01 X-3.90673 Y-2.66040
G01 X-3.90582 Y-2.66300
G01 X-3.90436 Y-2.67481
G01 X-3.90435 Y-2.69470
G01 X-3.90294 Y-2.70594
G01 X-3.90174 Y-2.70915
G01 X-3.89990 Y-2.71119
G01 X-3.89679 Y-2.71374
G01 X-3.89508 Y-2.71481
G01 X-3.89292 Y-2.71588
G01 X-3.89065 Y-2.71671
G01 X-3.88870 Y-2.71722
G01 X-3.88631 Y-2.71761
G01 X-3.88390 Y-2.71773
G01 X-3.74570 Y-2.71773
G01 X-3.74249 Y-2.71745
G01 X-3.73897 Y-2.71659
G01 X-3.73635 Y-2.71555
G01 X-3.73388 Y-2.71419
G01 X-3.73159 Y-2.71253
G01 X-3.72926 Y-2.71032
G01 X-3.72725 Y-2.70779
G01 X-3.72581 Y-2.70537
G01 X-3.72467 Y-2.70279
G01 X-3.72377 Y-2.69970
G01 X-3.72344 Y-2.69771
G01 X-3.72327 Y-2.69530
G01 X-3.72327 Y-2.67205
G01 X-3.72714 Y-2.66268
G01 X-3.72327 Y-2.67205
G01 X-3.59979 Y-2.79552
G01 X-3.59573 Y-2.79894
G01 X-3.59373 Y-2.80036
G01 X-3.58892 Y-2.80298
G01 X-3.58590 Y-2.80420
G01 X-3.58023 Y-2.80579
G01 X-3.57407 Y-2.80646
G01 X-3.53098 Y-2.80648
G01 X-3.52654 Y-2.80505
G01 X-3.52120 Y-2.80362
G01 X-3.51367 Y-2.80210
G01 X-3.50580 Y-2.80117
G01 X-3.50075 Y-2.80091
G01 X-3.49588 Y-2.80091
G01 X-3.48862 Y-2.80139
G01 X-3.48086 Y-2.80249
G01 X-3.47317 Y-2.80424
G01 X-3.46584 Y-2.80648
G01 X-3.44755 Y-2.80648
G01 X-3.44097 Y-2.80357
G01 X-3.43369 Y-2.80161
G01 X-3.42587 Y-2.80089
G01 X-3.37441 Y-2.80088
G01 X-3.36316 Y-2.80230
G01 X-3.35356 Y-2.80592
G01 X-3.34735 Y-2.80599
G01 X-3.34078 Y-2.80648
G01 X-3.22659 Y-2.80648
G01 X-3.22639 Y-2.80600
G01 X-3.22659 Y-2.80648
G01 X-3.20648 Y-2.82659
G01 X-3.20600 Y-2.82639
G01 X-3.20648 Y-2.82659
G01 X-3.20648 Y-2.89795
G01 X-3.20330 Y-2.90505
G01 X-3.20090 Y-2.91127
G01 X-3.19893 Y-2.91728
G01 X-3.19733 Y-2.92312
G01 X-3.19576 Y-2.93039
G01 X-3.19495 Y-2.93565
G01 X-3.19439 Y-2.94082
G01 X-3.19399 Y-2.95004
G01 X-3.19421 Y-2.95662
G01 X-3.19467 Y-2.96200
G01 X-3.19538 Y-2.96735
G01 X-3.19721 Y-2.97644
G01 X-3.19871 Y-2.98199
G01 X-3.20053 Y-2.98770
G01 X-3.20275 Y-2.99360
G01 X-3.20592 Y-3.00089
G01 X-3.20592 Y-3.18021
G01 X-3.20614 Y-3.18589
G01 X-3.20648 Y-3.18943
G01 X-3.20648 Y-3.20174
G01 X-3.20604 Y-3.20193
G01 X-3.20648 Y-3.20174
G01 X-3.32343 Y-3.31868
G01 X-3.32445 Y-3.32207
G01 X-3.32647 Y-3.32770
G01 X-3.32824 Y-3.33203
G01 X-3.33077 Y-3.33735
G01 X-3.33252 Y-3.34062
G01 X-3.33537 Y-3.34540
G01 X-3.33724 Y-3.34817
G01 X-3.34232 Y-3.35481
G01 X-3.34617 Y-3.35904
G01 X-3.35216 Y-3.36467
G01 X-3.35891 Y-3.36984
G01 X-3.36081 Y-3.37108
G01 X-3.36072 Y-3.37129
G01 X-3.36081 Y-3.37108
G01 X-3.36842 Y-3.37235
G01 X-3.37130 Y-3.37263
G01 X-3.37834 Y-3.37295
G01 X-3.42165 Y-3.37295
G01 X-3.42869 Y-3.37263
G01 X-3.43714 Y-3.37154
G01 X-3.44025 Y-3.37089
G01 X-3.44581 Y-3.36950
G01 X-3.45318 Y-3.36704
G01 X-3.67310 Y-3.36700
G01 X-3.67943 Y-3.36657
G01 X-3.68417 Y-3.36591
G01 X-3.71496 Y-3.36046
G01 X-3.72264 Y-3.36046
G01 X-3.72970 Y-3.36182
G01 X-3.73658 Y-3.36277
G01 X-3.74348 Y-3.36332
G01 X-3.75018 Y-3.36350
G01 X-3.75679 Y-3.36330
G01 X-3.76271 Y-3.36284
G01 X-3.76862 Y-3.36209
G01 X-3.77733 Y-3.36046
G01 X-3.80386 Y-3.36046
G01 X-3.81217 Y-3.36289
G01 X-3.80830 Y-3.36676
G01 X-3.80850 Y-3.36724
G01 X-3.80830 Y-3.36676
G01 X-3.67724 Y-3.36676
G01 X-3.67126 Y-3.36704
G01 X-3.45318 Y-3.36704
G01 X-3.44581 Y-3.36950
G01 X-3.44025 Y-3.37089
G01 X-3.43698 Y-3.37154
G01 X-3.42869 Y-3.37263
G01 X-3.42165 Y-3.37295
G01 X-3.37834 Y-3.37295
G01 X-3.37146 Y-3.37265
G01 X-3.36857 Y-3.37236
G01 X-3.36081 Y-3.37108
G01 X-3.35453 Y-3.36659
G01 X-3.35217 Y-3.36465
G01 X-3.34805 Y-3.36091
G01 X-3.34243 Y-3.35492
G01 X-3.33724 Y-3.34817
G01 X-3.33539 Y-3.34539
G01 X-3.33245 Y-3.34048
G01 X-3.33071 Y-3.33721
G01 X-3.32861 Y-3.33278
G01 X-3.20018 Y-3.20435
G01 X-3.19970 Y-3.20455
G01 X-3.20018 Y-3.20435
G01 X-3.20018 Y-2.98661
G01 X-3.19871 Y-2.98199
G01 X-3.19721 Y-2.97644
G01 X-3.19539 Y-2.96735
G01 X-3.19451 Y-2.96049
G01 X-3.19413 Y-2.95522
G01 X-3.19401 Y-2.95004
G01 X-3.19439 Y-2.94082
G01 X-3.19495 Y-2.93565
G01 X-3.19577 Y-2.93039
G01 X-3.19735 Y-2.92304
G01 X-3.19840 Y-2.91907
G01 X-3.20018 Y-2.91335
G01 X-3.20018 Y-2.82398
G01 X-3.19970 Y-2.82378
G01 X-3.20018 Y-2.82398
G01 X-3.22398 Y-2.80018
G01 X-3.22378 Y-2.79970
G01 X-3.22398 Y-2.80018
G01 X-3.57295 Y-2.80018
G01 X-3.57880 Y-2.79964
G01 X-3.58368 Y-2.79829
G01 X-3.58632 Y-2.79724
G01 X-3.59041 Y-2.79501
G01 X-3.59531 Y-2.79108
G01 X-3.72837 Y-2.65803
G01 X-3.72817 Y-2.65755
G01 X-3.72837 Y-2.65803
G01 X-3.72956 Y-2.65803
G01 X-3.73141 Y-2.65619
G01 X-3.72956 Y-2.65803
G01 X-3.72956 Y-2.69490
G01 X-3.72981 Y-2.69773
G01 X-3.73028 Y-2.69970
G01 X-3.73115 Y-2.70197
G01 X-3.73213 Y-2.70375
G01 X-3.73358 Y-2.70570
G01 X-3.73530 Y-2.70742
G01 X-3.73691 Y-2.70865
G01 X-3.73867 Y-2.70967
G01 X-3.74091 Y-2.71060
G01 X-3.74367 Y-2.71126
G01 X-3.74610 Y-2.71143
G01 X-3.88390 Y-2.71143
G01 X-3.88592 Y-2.71131
G01 X-3.88752 Y-2.71103
G01 X-3.89060 Y-2.71002
G01 X-3.89275 Y-2.70887
G01 X-3.89439 Y-2.70768
G01 X-3.89615 Y-2.70600
G01 X-3.89742 Y-2.70442
G01 X-3.89867 Y-2.70233
G01 X-3.89947 Y-2.70047
G01 X-3.90003 Y-2.69852
G01 X-3.90039 Y-2.69612
G01 X-3.90043 Y-2.58587
G01 X-3.89996 Y-2.58567
G01 X-3.90043 Y-2.58587
G01 X-3.91456 Y-2.57174
G01 X-3.91801 Y-2.56295
G01 X-3.91456 Y-2.57174
G01 X-3.91464 Y-2.57842
G01 X-3.91497 Y-2.58042
G01 X-3.91553 Y-2.58237
G01 X-3.91633 Y-2.58423
G01 X-3.91758 Y-2.58632
G01 X-3.91885 Y-2.58790
G01 X-3.92061 Y-2.58958
G01 X-3.92225 Y-2.59077
G01 X-3.92440 Y-2.59192
G01 X-3.92669 Y-2.59274
G01 X-3.92867 Y-2.59316
G01 X-3.93110 Y-2.59334
G01 X-4.06971 Y-2.59332
G01 X-4.07331 Y-2.59274
G01 X-4.07523 Y-2.59208
G01 X-4.07705 Y-2.59119
G01 X-4.07875 Y-2.59008
G01 X-4.08030 Y-2.58878
G01 X-4.08265 Y-2.58599
G01 X-4.08385 Y-2.58387
G01 X-4.08472 Y-2.58160
G01 X-4.08526 Y-2.57923
G01 X-4.08543 Y-2.57721
G01 X-4.08544 Y-2.44015
G01 X-4.08202 Y-2.43716
G01 X-4.07750 Y-2.43434
G01 X-4.07314 Y-2.43270
G01 X-4.06870 Y-2.43215
G01 X-3.93130 Y-2.43215
G01 X-3.92686 Y-2.43270
G01 X-3.92250 Y-2.43434
G01 X-3.91798 Y-2.43716
G01 X-3.91456 Y-2.44015
G01 X-3.91456 Y-2.48179
G01 X-3.91515 Y-2.48206
G01 X-3.91456 Y-2.48179
G01 X-3.91045 Y-2.48525
G01 X-3.85513 Y-2.54056
G01 X-3.85533 Y-2.54104
G01 X-3.85513 Y-2.54056
G01 X-3.74569 Y-2.54057
G01 X-3.74367 Y-2.54074
G01 X-3.74169 Y-2.54116
G01 X-3.73977 Y-2.54182
G01 X-3.73760 Y-2.54292
G01 X-3.73593 Y-2.54406
G01 X-3.73441 Y-2.54541
G01 X-3.73213 Y-2.54825
G01 X-3.73053 Y-2.55153
G01 X-3.72969 Y-2.55507
G01 X-3.72956 Y-2.55710
G01 X-3.72956 Y-2.59396
G01 X-3.73139 Y-2.59580
G01 X-3.72956 Y-2.59396
G01 X-3.71469 Y-2.59397
G01 X-3.70925 Y-2.59450
G01 X-3.70398 Y-2.59598
G01 X-3.70173 Y-2.59691
G01 X-3.69730 Y-2.59936
G01 X-3.69365 Y-2.60226
G01 X-3.55968 Y-2.73611
G01 X-3.55988 Y-2.73659
G01 X-3.55968 Y-2.73611
G01 X-3.21030 Y-2.73612
G01 X-3.20446 Y-2.73673
G01 X-3.19883 Y-2.73840
G01 X-3.19325 Y-2.74129
G01 X-3.18926 Y-2.74441
G01 X-3.14467 Y-2.78895
G01 X-3.14151 Y-2.79291
G01 X-3.13888 Y-2.79771
G01 X-3.13813 Y-2.79959
G01 X-3.13712 Y-2.80289
G01 X-3.13653 Y-2.80566
G01 X-3.13611 Y-2.81071
G01 X-3.13611 Y-3.21762
G01 X-3.13673 Y-3.22387
G01 X-3.13855 Y-3.22988
G01 X-3.14151 Y-3.23542
G01 X-3.14550 Y-3.24027
G01 X-3.32696 Y-3.42173
G01 X-3.33153 Y-3.42543
G01 X-3.33596 Y-3.42789
G01 X-3.33859 Y-3.42894
G01 X-3.34189 Y-3.42994
G01 X-3.34388 Y-3.43036
G01 X-3.34933 Y-3.43083
G01 X-3.82157 Y-3.43083
G01 X-3.82621 Y-3.43046
G01 X-3.82900 Y-3.42994
G01 X-3.83269 Y-3.42882
G01 X-3.83457 Y-3.42807
G01 X-3.83937 Y-3.42543
G01 X-3.84302 Y-3.42254
G01 X-3.87265 Y-3.39302
G01 X-3.87592 Y-3.38915
G01 X-3.87727 Y-3.38713
G01 X-3.87960 Y-3.38263
G01 X-3.88114 Y-3.37780
G01 X-3.88161 Y-3.37542
G01 X-3.88203 Y-3.37078
G01 X-3.88204 Y-3.35590
G01 X-3.88031 Y-3.35415
G01 X-3.88204 Y-3.35590
G01 X-3.88781 Y-3.35590
G01 X-3.89063 Y-3.35559
G01 X-3.89335 Y-3.35480
G01 X-3.89555 Y-3.35376
G01 X-3.89789 Y-3.35215
G01 X-3.89965 Y-3.35047
G01 X-3.90115 Y-3.34856
G01 X-3.90235 Y-3.34644
G01 X-3.90334 Y-3.34378
G01 X-3.90381 Y-3.34139
G01 X-3.90394 Y-3.33203
G01 X-3.90224 Y-3.33027
G01 X-3.90394 Y-3.33203
G01 X-3.99606 Y-3.33203
G01 X-3.99783 Y-3.33023
G01 X-3.99606 Y-3.33203
G01 X-3.99619 Y-3.34139
G01 X-3.99677 Y-3.34417
G01 X-3.99783 Y-3.34680
G01 X-3.99885 Y-3.34856
G01 X-4.00008 Y-3.35017
G01 X-4.00149 Y-3.35162
G01 X-4.00308 Y-3.35289
G01 X-4.00480 Y-3.35395
G01 X-4.00665 Y-3.35480
G01 X-4.00858 Y-3.35541
G01 X-4.01057 Y-3.35578
G01 X-4.01260 Y-3.35590
G01 X-4.08821 Y-3.35588
G01 X-4.09102 Y-3.35550
G01 X-4.09335 Y-3.35480
G01 X-4.09555 Y-3.35376
G01 X-4.09789 Y-3.35215
G01 X-4.10044 Y-3.34954
G01 X-4.10158 Y-3.34787
G01 X-4.10252 Y-3.34607
G01 X-4.10322 Y-3.34417
G01 X-4.10369 Y-3.34220
G01 X-4.10392 Y-3.34018
G01 X-4.10394 Y-3.33816
G01 X-4.10189 Y-3.33218
G01 X-4.09996 Y-3.32532
G01 X-4.09824 Y-3.31696
G01 X-4.09739 Y-3.31044
G01 X-4.09702 Y-3.30575
G01 X-4.09685 Y-3.29952
G01 X-4.09710 Y-3.29294
G01 X-4.09764 Y-3.28736
G01 X-4.09764 Y-3.26063
G01 X-4.09751 Y-3.25903
G01 X-4.09686 Y-3.25671
G01 X-4.09544 Y-3.25429
G01 X-4.09342 Y-3.25235
G01 X-4.09094 Y-3.25103
G01 X-4.08900 Y-3.25052
G01 X-4.08740 Y-3.25039
G01 X-4.01260 Y-3.25039
G01 X-4.00982 Y-3.25078
G01 X-4.00725 Y-3.25190
G01 X-4.00508 Y-3.25368
G01 X-4.00348 Y-3.25598
G01 X-4.00256 Y-3.25863
G01 X-4.00236 Y-3.26063
G01 X-4.00236 Y-3.27426
G01 X-4.00420 Y-3.27611
G01 X-4.00236 Y-3.27426
G01 X-3.89764 Y-3.27426
G01 X-3.89580 Y-3.27611
G01 X-3.89764 Y-3.27426
G01 X-3.89764 Y-3.26063
G01 X-3.89744 Y-3.25863
G01 X-3.89652 Y-3.25598
G01 X-3.89492 Y-3.25368
G01 X-3.89309 Y-3.25212
G01 X-3.89056 Y-3.25089
G01 X-3.88900 Y-3.25052
G01 X-3.88740 Y-3.25039
G01 X-3.81220 Y-3.25040
G01 X-3.81021 Y-3.25068
G01 X-3.80868 Y-3.25117
G01 X-3.80691 Y-3.25212
G01 X-3.80565 Y-3.25311
G01 X-3.80456 Y-3.25429
G01 X-3.80348 Y-3.25598
G01 X-3.80275 Y-3.25785
G01 X-3.80243 Y-3.25943
G01 X-3.80236 Y-3.28734
G01 X-3.80289 Y-3.29274
G01 X-3.80315 Y-3.29915
G01 X-3.80286 Y-3.30759
G01 X-3.80236 Y-3.31269
G01 X-3.80236 Y-3.33937
G01 X-3.80249 Y-3.34097
G01 X-3.80286 Y-3.34253
G01 X-3.80348 Y-3.34402
G01 X-3.80508 Y-3.34632
G01 X-3.80725 Y-3.34810
G01 X-3.80982 Y-3.34922
G01 X-3.81220 Y-3.34960
G01 X-3.82426 Y-3.34961
G01 X-3.82606 Y-3.34784
G01 X-3.82426 Y-3.34961
G01 X-3.82426 Y-3.35971
G01 X-3.82474 Y-3.35991
G01 X-3.82426 Y-3.35971
G01 X-3.81091 Y-3.37306
G01 X-3.81111 Y-3.37354
G01 X-3.81091 Y-3.37306
G01 X-3.35999 Y-3.37306
G01 X-3.35979 Y-3.37354
G01 X-3.35999 Y-3.37306
G01 X-3.19388 Y-3.20696
G01 X-3.19340 Y-3.20716
G01 X-3.19388 Y-3.20696
G01 X-3.19388 Y-2.82137
G01 X-3.19340 Y-2.82117
G01 X-3.19388 Y-2.82137
G01 X-3.22137 Y-2.79388
G01 X-3.22117 Y-2.79340
G01 X-3.22137 Y-2.79388
G01 X-3.57295 Y-2.79388
G01 X-3.57738 Y-2.79349
G01 X-3.57895 Y-2.79315
G01 X-3.58261 Y-2.79200
G01 X-3.58639 Y-2.79006
G01 X-3.58774 Y-2.78920
G01 X-3.59115 Y-2.78635
G01 X-3.72576 Y-2.65174
G01 X-3.72556 Y-2.65126
G01 X-3.72576 Y-2.65174
G01 X-3.73586 Y-2.65174
G01 X-3.73770 Y-2.64989
G01 X-3.73586 Y-2.65174
G01 X-3.73590 Y-2.69570
G01 X-3.73615 Y-2.69729
G01 X-3.73664 Y-2.69882
G01 X-3.73806 Y-2.70124
G01 X-3.74008 Y-2.70318
G01 X-3.74145 Y-2.70402
G01 X-3.74294 Y-2.70464
G01 X-3.74450 Y-2.70501
G01 X-3.74610 Y-2.70514
G01 X-3.88390 Y-2.70514
G01 X-3.88590 Y-2.70494
G01 X-3.88782 Y-2.70436
G01 X-3.89024 Y-2.70294
G01 X-3.89142 Y-2.70185
G01 X-3.89241 Y-2.70059
G01 X-3.89364 Y-2.69806
G01 X-3.89413 Y-2.69530
G01 X-3.89414 Y-2.58326
G01 X-3.89366 Y-2.58306
G01 X-3.89414 Y-2.58326
G01 X-3.92086 Y-2.55653
G01 X-3.92455 Y-2.54741
G01 X-3.92086 Y-2.55653
G01 X-3.92093 Y-2.57800
