( pcb2gcode 1.3.2 )
( Software-independent Gcode )

G94 ( Inches per minute feed rate. )
G20 ( Units == INCHES. )

G90 ( Absolute coordinates. )
G00 S12000 ( RPM spindle speed. )
G64 P0.00040 ( set maximum deviation from commanded toolpath )
G01 F360.00000 ( Feedrate. )

G01 F360.00000 ( Feedrate. )
M3 ( Spindle on clockwise. )
G04 P1.00000
G04 P0 ( dwell for no time -- G64 should not smooth over this point )
G00 Z0.08000 ( retract )

G00 X-3.05492 Y-2.35492 ( rapid move to begin. )
G01 F180.00000
G01 Z-0.04000
G04 P0 ( dwell for no time -- G64 should not smooth over this point )
G01 F360.00000
G01 X-3.05492 Y-2.35492
G01 X-3.05492 Y-2.64330
G01 X-3.08194 Y-2.64726
G01 X-3.16481 Y-2.65624
G01 X-3.22909 Y-2.66508
G01 X-3.25398 Y-2.66597
G01 X-3.27888 Y-2.66424
G01 X-3.30435 Y-2.65977
G01 X-3.32526 Y-2.65428
G01 X-3.52684 Y-2.65428
G01 X-3.58088 Y-2.63196
G01 X-3.60738 Y-2.62904
G01 X-3.62763 Y-2.62472
G01 X-3.64412 Y-2.61940
G01 X-3.65211 Y-2.61609
G01 X-3.66526 Y-2.60934
G01 X-3.67651 Y-2.60195
G01 X-3.69493 Y-2.58685
G01 X-3.71017 Y-2.57605
G01 X-3.71411 Y-2.54371
G01 X-3.72037 Y-2.53533
G01 X-3.72781 Y-2.52842
G01 X-3.73570 Y-2.52308
G01 X-3.74422 Y-2.51889
G01 X-3.82964 Y-2.48350
G01 X-3.83240 Y-2.48313
G01 X-3.87954 Y-2.46360
G01 X-3.90786 Y-2.43530
G01 X-3.91349 Y-2.43045
G01 X-3.91937 Y-2.42689
G01 X-3.92492 Y-2.42485
G01 X-3.93110 Y-2.42408
G01 X-4.06890 Y-2.42408
G01 X-4.07508 Y-2.42485
G01 X-4.08151 Y-2.42733
G01 X-4.08714 Y-2.43092
G01 X-4.09238 Y-2.43552
G01 X-4.12827 Y-2.47154
G01 X-4.14961 Y-2.52282
G01 X-4.14966 Y-2.52645
G01 X-4.11705 Y-2.57939
G01 X-4.10778 Y-2.59201
G01 X-4.09684 Y-2.60237
G01 X-4.08394 Y-2.61033
G01 X-4.07003 Y-2.61518
G01 X-4.00333 Y-2.63089
G01 X-3.93514 Y-2.63092
G01 X-3.92474 Y-2.64274
G01 X-3.91783 Y-2.65379
G01 X-3.91379 Y-2.66458
G01 X-3.91242 Y-2.67551
G01 X-3.91238 Y-2.69551
G01 X-3.91091 Y-2.70731
G01 X-3.90577 Y-2.72111
G01 X-3.89793 Y-2.73354
G01 X-3.88760 Y-2.74534
G01 X-3.81840 Y-2.81455
G01 X-3.82950 Y-2.82481
G01 X-3.84418 Y-2.83657
G01 X-3.85881 Y-2.84649
G01 X-3.87338 Y-2.85457
G01 X-3.88788 Y-2.86082
G01 X-3.90233 Y-2.86527
G01 X-3.91673 Y-2.86793
G01 X-3.93125 Y-2.86883
G01 X-3.96324 Y-2.86883
G01 X-4.06681 Y-2.82593
G01 X-4.07187 Y-2.82326
G01 X-4.07590 Y-2.82000
G01 X-4.07916 Y-2.81597
G01 X-4.08183 Y-2.81091
G01 X-4.11159 Y-2.73940
G01 X-4.11862 Y-2.72592
G01 X-4.12541 Y-2.71577
G01 X-4.13488 Y-2.71171
G01 X-4.15564 Y-2.70527
G01 X-4.28071 Y-2.67579
G01 X-4.30398 Y-2.67635
G01 X-4.33106 Y-2.67451
G01 X-4.35079 Y-2.67138
G01 X-4.37858 Y-2.66466
G01 X-4.62142 Y-2.66466
G01 X-4.64122 Y-2.66968
G01 X-4.69701 Y-2.68144
G01 X-4.76439 Y-2.69770
G01 X-4.79209 Y-2.70232
G01 X-4.82168 Y-2.70512
G01 X-4.84662 Y-2.70638
G01 X-4.87287 Y-2.70632
G01 X-4.89508 Y-2.70544
G01 X-4.89508 Y-2.35492
G01 X-3.05492 Y-2.35492
G01 X-3.05689 Y-2.35689
G01 X-3.05689 Y-2.64162
G01 X-3.08219 Y-2.64531
G01 X-3.16506 Y-2.65429
G01 X-3.22925 Y-2.66312
G01 X-3.25393 Y-2.66400
G01 X-3.27862 Y-2.66229
G01 X-3.30389 Y-2.65786
G01 X-3.32526 Y-2.65231
G01 X-3.52645 Y-2.65231
G01 X-3.58042 Y-2.63005
G01 X-3.60707 Y-2.62710
G01 X-3.62713 Y-2.62282
G01 X-3.64342 Y-2.61756
G01 X-3.65131 Y-2.61429
G01 X-3.66428 Y-2.60764
G01 X-3.67536 Y-2.60036
G01 X-3.69372 Y-2.58530
G01 X-3.70839 Y-2.57487
G01 X-3.71224 Y-2.54310
G01 X-3.71883 Y-2.53411
G01 X-3.72670 Y-2.52679
G01 X-3.73483 Y-2.52132
G01 X-3.74346 Y-2.51707
G01 X-3.82889 Y-2.48168
G01 X-3.83201 Y-2.48116
G01 X-3.87842 Y-2.46193
G01 X-3.90656 Y-2.43382
G01 X-3.91245 Y-2.42878
G01 X-3.91868 Y-2.42505
G01 X-3.92445 Y-2.42294
G01 X-3.93110 Y-2.42211
G01 X-4.06890 Y-2.42211
G01 X-4.07555 Y-2.42294
G01 X-4.08255 Y-2.42566
G01 X-4.08844 Y-2.42944
G01 X-4.09377 Y-2.43413
G01 X-4.12991 Y-2.47045
G01 X-4.15181 Y-2.52331
G01 X-4.15185 Y-2.52590
G01 X-4.15093 Y-2.52832
G01 X-4.11873 Y-2.58042
G01 X-4.10853 Y-2.59412
G01 X-4.09707 Y-2.60466
G01 X-4.08478 Y-2.61211
G01 X-4.07048 Y-2.61709
G01 X-4.00356 Y-2.63284
G01 X-3.93598 Y-2.63289
G01 X-3.92632 Y-2.64392
G01 X-3.91961 Y-2.65467
G01 X-3.91571 Y-2.66506
G01 X-3.91439 Y-2.67563
G01 X-3.91434 Y-2.69575
G01 X-3.91271 Y-2.70835
G01 X-3.90744 Y-2.72215
G01 X-3.90007 Y-2.73395
G01 X-3.88877 Y-2.74697
G01 X-3.82124 Y-2.81450
G01 X-3.83078 Y-2.82332
G01 X-3.84535 Y-2.83499
G01 X-3.85984 Y-2.84481
G01 X-3.87425 Y-2.85280
G01 X-3.88856 Y-2.85897
G01 X-3.90280 Y-2.86336
G01 X-3.91697 Y-2.86598
G01 X-3.93131 Y-2.86686
G01 X-3.96284 Y-2.86686
G01 X-4.06597 Y-2.82414
G01 X-4.07078 Y-2.82161
G01 X-4.07450 Y-2.81860
G01 X-4.07751 Y-2.81488
G01 X-4.08004 Y-2.81007
G01 X-4.11124 Y-2.73552
G01 X-4.11875 Y-2.72187
G01 X-4.12429 Y-2.71415
G01 X-4.13424 Y-2.70985
G01 X-4.15514 Y-2.70336
G01 X-4.27960 Y-2.67398
G01 X-4.30393 Y-2.67438
G01 X-4.33080 Y-2.67256
G01 X-4.35043 Y-2.66944
G01 X-4.37858 Y-2.66269
G01 X-4.62142 Y-2.66269
G01 X-4.64167 Y-2.66776
G01 X-4.69746 Y-2.67952
G01 X-4.76479 Y-2.69577
G01 X-4.79235 Y-2.70037
G01 X-4.82181 Y-2.70315
G01 X-4.84666 Y-2.70441
G01 X-4.87284 Y-2.70436
G01 X-4.89311 Y-2.70358
G01 X-4.89311 Y-2.35689
G01 X-3.05689 Y-2.35689
G04 P0 ( dwell for no time -- G64 should not smooth over this point )
G00 Z0.08000 ( retract )

G00 X-3.72666 Y-3.06549 ( rapid move to begin. )
G01 F180.00000
G01 Z-0.04000
G04 P0 ( dwell for no time -- G64 should not smooth over this point )
G01 F360.00000
G01 X-3.72666 Y-3.06549
G01 X-3.69891 Y-3.07248
G01 X-3.67186 Y-3.07632
G01 X-3.65411 Y-3.07724
G01 X-3.62814 Y-3.07632
G01 X-3.60134 Y-3.07253
G01 X-3.59261 Y-3.07067
G01 X-3.56570 Y-3.06302
G01 X-3.54035 Y-3.05792
G01 X-3.51622 Y-3.05042
G01 X-3.47860 Y-3.03516
G01 X-3.46329 Y-3.02564
G01 X-3.44336 Y-3.01475
G01 X-3.41417 Y-3.01458
G01 X-3.39126 Y-3.02941
G01 X-3.38088 Y-3.03541
G01 X-3.36085 Y-3.05730
G01 X-3.34455 Y-3.07885
G01 X-3.33311 Y-3.09760
G01 X-3.32291 Y-3.11973
G01 X-3.31792 Y-3.13515
G01 X-3.31404 Y-3.15535
G01 X-3.31919 Y-3.16982
G01 X-3.32457 Y-3.18109
G01 X-3.33050 Y-3.19087
G01 X-3.34036 Y-3.20331
G01 X-3.34619 Y-3.20565
G01 X-3.34834 Y-3.20573
G01 X-3.45532 Y-3.20588
G01 X-3.47096 Y-3.21262
G01 X-3.48361 Y-3.22006
G01 X-3.49763 Y-3.23031
G01 X-3.51414 Y-3.24508
G01 X-3.65691 Y-3.24508
G01 X-3.66405 Y-3.24382
G01 X-3.68504 Y-3.23355
G01 X-3.70359 Y-3.22688
G01 X-3.72096 Y-3.22265
G01 X-3.73786 Y-3.22041
G01 X-3.74609 Y-3.21999
G01 X-3.76214 Y-3.22041
G01 X-3.78490 Y-3.22390
G01 X-3.79837 Y-3.22021
G01 X-3.81214 Y-3.21892
G01 X-3.88775 Y-3.21891
G01 X-3.89891 Y-3.21975
G01 X-3.90939 Y-3.22199
G01 X-3.92049 Y-3.22590
G01 X-3.93048 Y-3.23083
G01 X-3.96952 Y-3.23083
G01 X-3.97951 Y-3.22590
G01 X-3.98999 Y-3.22217
G01 X-4.00109 Y-3.21975
G01 X-4.01260 Y-3.21890
G01 X-4.04915 Y-3.21867
G01 X-4.05908 Y-3.21755
G01 X-4.06935 Y-3.21535
G01 X-4.09990 Y-3.20499
G01 X-4.11531 Y-3.20186
G01 X-4.12994 Y-3.19357
G01 X-4.14421 Y-3.18678
G01 X-4.15227 Y-3.18345
G01 X-4.17821 Y-3.17479
G01 X-4.21040 Y-3.16763
G01 X-4.23994 Y-3.16381
G01 X-4.25948 Y-3.16242
G01 X-4.28787 Y-3.09415
G01 X-4.30055 Y-3.08142
G01 X-4.32334 Y-3.05538
G01 X-4.34946 Y-3.01805
G01 X-4.37330 Y-2.98698
G01 X-4.38330 Y-2.97167
G01 X-4.38871 Y-2.96169
G01 X-4.39235 Y-2.95405
G01 X-4.40176 Y-2.93033
G01 X-4.40373 Y-2.92885
G01 X-4.40910 Y-2.92665
G01 X-4.43130 Y-2.92182
G01 X-4.45225 Y-2.91443
G01 X-4.46041 Y-2.91055
G01 X-4.47180 Y-2.90390
G01 X-4.48179 Y-2.89658
G01 X-4.48964 Y-2.88950
G01 X-4.49422 Y-2.86734
G01 X-4.49553 Y-2.85744
G01 X-4.49580 Y-2.84765
G01 X-4.49428 Y-2.83306
G01 X-4.48376 Y-2.82715
G01 X-4.47569 Y-2.82374
G01 X-4.46310 Y-2.82036
G01 X-4.45412 Y-2.81940
G01 X-4.44005 Y-2.82036
G01 X-4.42513 Y-2.82425
G01 X-4.29581 Y-2.82443
G01 X-4.28442 Y-2.82642
G01 X-4.27457 Y-2.82999
G01 X-4.26437 Y-2.83545
G01 X-4.24923 Y-2.84686
G01 X-4.21406 Y-2.88142
G01 X-4.19891 Y-2.88780
G01 X-4.05799 Y-3.02820
G01 X-4.04312 Y-3.04020
G01 X-4.02888 Y-3.04971
G01 X-4.00984 Y-3.06005
G01 X-3.99761 Y-3.06537
G01 X-3.72689 Y-3.06543
G01 X-3.72718 Y-3.06739
G01 X-3.70790 Y-3.07257
G01 X-3.68054 Y-3.07739
G01 X-3.65411 Y-3.07921
G01 X-3.62768 Y-3.07825
G01 X-3.61910 Y-3.07734
G01 X-3.59245 Y-3.07266
G01 X-3.56525 Y-3.06494
G01 X-3.53987 Y-3.05983
G01 X-3.51859 Y-3.05336
G01 X-3.47784 Y-3.03697
G01 X-3.46231 Y-3.02735
G01 X-3.44286 Y-3.01672
G01 X-3.41475 Y-3.01654
G01 X-3.39233 Y-3.03106
G01 X-3.38209 Y-3.03699
G01 X-3.36235 Y-3.05859
G01 X-3.34617 Y-3.07997
G01 X-3.33483 Y-3.09855
G01 X-3.32685 Y-3.11517
G01 X-3.31983 Y-3.13564
G01 X-3.31605 Y-3.15518
G01 X-3.32101 Y-3.16906
G01 X-3.32630 Y-3.18016
G01 X-3.33213 Y-3.18976
G01 X-3.34155 Y-3.20168
G01 X-3.34657 Y-3.20369
G01 X-3.34839 Y-3.20376
G01 X-3.45570 Y-3.20395
G01 X-3.47182 Y-3.21086
G01 X-3.48474 Y-3.21845
G01 X-3.49864 Y-3.22859
G01 X-3.51493 Y-3.24311
G01 X-3.65673 Y-3.24311
G01 X-3.66337 Y-3.24194
G01 X-3.68424 Y-3.23176
G01 X-3.70298 Y-3.22501
G01 X-3.72056 Y-3.22073
G01 X-3.73776 Y-3.21845
G01 X-3.74609 Y-3.21802
G01 X-3.76224 Y-3.21845
G01 X-3.78484 Y-3.22188
G01 X-3.79819 Y-3.21825
G01 X-3.81196 Y-3.21696
G01 X-3.88789 Y-3.21695
G01 X-3.89932 Y-3.21783
G01 X-3.90980 Y-3.22007
G01 X-3.92115 Y-3.22404
G01 X-3.93094 Y-3.22887
G01 X-3.96906 Y-3.22887
G01 X-3.97885 Y-3.22404
G01 X-3.98933 Y-3.22031
G01 X-4.00068 Y-3.21783
G01 X-4.01260 Y-3.21693
G01 X-4.04900 Y-3.21671
G01 X-4.05874 Y-3.21561
G01 X-4.06883 Y-3.21346
G01 X-4.09927 Y-3.20312
G01 X-4.11460 Y-3.20000
G01 X-4.12900 Y-3.19184
G01 X-4.14345 Y-3.18496
G01 X-4.15162 Y-3.18159
G01 X-4.17766 Y-3.17290
G01 X-4.21015 Y-3.16568
G01 X-4.23968 Y-3.16186
G01 X-4.25813 Y-3.16053
G01 X-4.28623 Y-3.09305
G01 X-4.29912 Y-3.08006
G01 X-4.32178 Y-3.05419
G01 X-4.34787 Y-3.01689
G01 X-4.37171 Y-2.98583
G01 X-4.38160 Y-2.97068
G01 X-4.38696 Y-2.96079
G01 X-4.39056 Y-2.95324
G01 X-4.40022 Y-2.92910
G01 X-4.40194 Y-2.92756
G01 X-4.40855 Y-2.92476
G01 X-4.43079 Y-2.91992
G01 X-4.45145 Y-2.91263
G01 X-4.45951 Y-2.90880
G01 X-4.47073 Y-2.90225
G01 X-4.48056 Y-2.89505
G01 X-4.48780 Y-2.88853
G01 X-4.49229 Y-2.86698
G01 X-4.49357 Y-2.85728
G01 X-4.49383 Y-2.84771
G01 X-4.49248 Y-2.83425
G01 X-4.48291 Y-2.82893
G01 X-4.47503 Y-2.82559
G01 X-4.46274 Y-2.82229
G01 X-4.45407 Y-2.82137
G01 X-4.44041 Y-2.82229
G01 X-4.42513 Y-2.82622
G01 X-4.29596 Y-2.82639
G01 X-4.28495 Y-2.82832
G01 X-4.27537 Y-2.83179
G01 X-4.26543 Y-2.83711
G01 X-4.25051 Y-2.84835
G01 X-4.21515 Y-2.88306
G01 X-4.20003 Y-2.88947
G01 X-4.05924 Y-3.02973
G01 X-4.04430 Y-3.04178
G01 X-4.02989 Y-3.05140
G01 X-4.01098 Y-3.06168
G01 X-3.99883 Y-3.06712
G01 X-3.72718 Y-3.06739
G04 P0 ( dwell for no time -- G64 should not smooth over this point )
G00 Z0.08000 ( retract )

G00 X-3.51254 Y-3.25098 ( rapid move to begin. )
G01 F180.00000
G01 Z-0.04000
G04 P0 ( dwell for no time -- G64 should not smooth over this point )
G01 F360.00000
G01 X-3.51254 Y-3.25098
G01 X-3.65734 Y-3.25098
G01 X-3.66610 Y-3.24943
G01 X-3.67965 Y-3.24242
G01 X-3.69762 Y-3.23503
G01 X-3.71440 Y-3.23009
G01 X-3.72217 Y-3.22844
G01 X-3.73820 Y-3.22631
G01 X-3.75388 Y-3.22589
G01 X-3.76957 Y-3.22712
G01 X-3.78420 Y-3.22979
G01 X-3.78851 Y-3.25254
G01 X-3.79432 Y-3.26963
G01 X-3.79641 Y-3.27740
G01 X-3.79829 Y-3.28823
G01 X-3.79898 Y-3.29871
G01 X-3.79857 Y-3.30906
G01 X-3.79641 Y-3.32260
G01 X-3.78697 Y-3.35356
G01 X-3.77929 Y-3.35574
G01 X-3.76645 Y-3.35819
G01 X-3.75388 Y-3.35926
G01 X-3.74132 Y-3.35901
G01 X-3.72848 Y-3.35739
G01 X-3.71949 Y-3.35549
G01 X-3.68353 Y-3.36182
G01 X-3.67293 Y-3.36287
G01 X-3.45278 Y-3.36291
G01 X-3.44106 Y-3.36647
G01 X-3.43265 Y-3.36804
G01 X-3.42446 Y-3.36874
G01 X-3.37840 Y-3.36881
G01 X-3.36240 Y-3.36724
G01 X-3.35025 Y-3.35729
G01 X-3.34296 Y-3.34900
G01 X-3.33515 Y-3.33680
G01 X-3.32935 Y-3.32359
G01 X-3.32578 Y-3.31165
G01 X-3.32359 Y-3.30102
G01 X-3.33127 Y-3.29670
G01 X-3.34260 Y-3.29147
G01 X-3.34567 Y-3.29028
G01 X-3.45428 Y-3.29042
G01 X-3.46948 Y-3.28371
G01 X-3.48235 Y-3.27605
G01 X-3.49712 Y-3.26503
G01 X-3.51254 Y-3.25098
G01 X-3.51332 Y-3.25295
G01 X-3.50398 Y-3.26173
G01 X-3.48905 Y-3.27379
G01 X-3.47048 Y-3.28541
G01 X-3.45461 Y-3.29236
G01 X-3.34601 Y-3.29226
G01 X-3.34335 Y-3.29330
G01 X-3.32578 Y-3.30203
G01 X-3.32930 Y-3.31713
G01 X-3.33286 Y-3.32726
G01 X-3.33968 Y-3.34076
G01 X-3.34622 Y-3.34994
G01 X-3.35561 Y-3.35957
G01 X-3.36316 Y-3.36537
G01 X-3.37842 Y-3.36685
G01 X-3.42440 Y-3.36678
G01 X-3.43240 Y-3.36609
G01 X-3.44062 Y-3.36455
G01 X-3.45278 Y-3.36094
G01 X-3.67287 Y-3.36091
G01 X-3.68321 Y-3.35988
G01 X-3.71953 Y-3.35352
G01 X-3.72884 Y-3.35545
G01 X-3.74148 Y-3.35705
G01 X-3.75383 Y-3.35730
G01 X-3.76619 Y-3.35624
G01 X-3.78533 Y-3.35202
G01 X-3.79449 Y-3.32214
G01 X-3.79661 Y-3.30891
G01 X-3.79701 Y-3.29876
G01 X-3.79634 Y-3.28849
G01 X-3.79449 Y-3.27786
G01 X-3.79244 Y-3.27019
G01 X-3.78659 Y-3.25298
G01 X-3.78246 Y-3.23143
G01 X-3.76165 Y-3.22827
G01 X-3.74617 Y-3.22786
G01 X-3.73069 Y-3.22908
G01 X-3.72253 Y-3.23037
G01 X-3.70595 Y-3.23440
G01 X-3.68818 Y-3.24078
G01 X-3.66677 Y-3.25128
G01 X-3.65785 Y-3.25291
G01 X-3.51332 Y-3.25295
G01 X-3.51410 Y-3.25492
G01 X-3.49969 Y-3.26801
G01 X-3.49018 Y-3.27540
G01 X-3.47143 Y-3.28713
G01 X-3.45493 Y-3.29430
G01 X-3.34635 Y-3.29424
G01 X-3.33871 Y-3.29743
G01 X-3.32797 Y-3.30304
G01 X-3.33306 Y-3.32227
G01 X-3.33701 Y-3.33174
G01 X-3.34137 Y-3.33974
G01 X-3.34611 Y-3.34663
G01 X-3.35300 Y-3.35447
G01 X-3.36393 Y-3.36350
G01 X-3.37845 Y-3.36488
G01 X-3.42682 Y-3.36468
G01 X-3.44017 Y-3.36263
G01 X-3.45278 Y-3.35897
G01 X-3.67280 Y-3.35894
G01 X-3.68289 Y-3.35794
G01 X-3.71958 Y-3.35155
G01 X-3.72920 Y-3.35352
G01 X-3.74163 Y-3.35508
G01 X-3.75837 Y-3.35508
G01 X-3.77080 Y-3.35352
G01 X-3.78369 Y-3.35048
G01 X-3.79258 Y-3.32168
G01 X-3.79465 Y-3.30875
G01 X-3.79504 Y-3.29881
G01 X-3.79438 Y-3.28875
G01 X-3.79258 Y-3.27832
G01 X-3.79055 Y-3.27075
G01 X-3.78467 Y-3.25342
G01 X-3.78073 Y-3.23308
G01 X-3.76905 Y-3.23103
G01 X-3.75378 Y-3.22983
G01 X-3.73095 Y-3.23103
G01 X-3.71532 Y-3.23392
G01 X-3.69894 Y-3.23874
G01 X-3.68893 Y-3.24260
G01 X-3.66745 Y-3.25313
G01 X-3.65819 Y-3.25485
G01 X-3.51410 Y-3.25492
G01 X-3.51488 Y-3.25689
G01 X-3.50097 Y-3.26951
G01 X-3.49130 Y-3.27702
G01 X-3.47239 Y-3.28885
G01 X-3.45526 Y-3.29624
G01 X-3.34669 Y-3.29622
G01 X-3.33016 Y-3.30407
G01 X-3.33491 Y-3.32161
G01 X-3.33879 Y-3.33090
G01 X-3.34305 Y-3.33872
G01 X-3.34768 Y-3.34544
G01 X-3.35437 Y-3.35306
G01 X-3.36468 Y-3.36163
G01 X-3.37847 Y-3.36291
G01 X-3.42667 Y-3.36272
G01 X-3.43973 Y-3.36071
G01 X-3.45278 Y-3.35701
G01 X-3.67274 Y-3.35697
G01 X-3.68256 Y-3.35600
G01 X-3.71962 Y-3.34958
G01 X-3.72956 Y-3.35158
G01 X-3.74179 Y-3.35312
G01 X-3.75821 Y-3.35312
G01 X-3.77044 Y-3.35158
G01 X-3.78206 Y-3.34888
G01 X-3.79066 Y-3.32122
G01 X-3.79269 Y-3.30860
G01 X-3.79308 Y-3.29886
G01 X-3.79243 Y-3.28900
G01 X-3.78866 Y-3.27131
G01 X-3.78275 Y-3.25385
G01 X-3.77900 Y-3.23472
G01 X-3.76879 Y-3.23298
G01 X-3.75373 Y-3.23180
G01 X-3.73866 Y-3.23220
G01 X-3.72324 Y-3.23424
G01 X-3.70707 Y-3.23817
G01 X-3.69960 Y-3.24060
G01 X-3.68220 Y-3.24775
G01 X-3.66812 Y-3.25498
G01 X-3.65734 Y-3.25689
G01 X-3.51488 Y-3.25689
G04 P0 ( dwell for no time -- G64 should not smooth over this point )
G00 Z0.08000 ( retract )

G00 X-3.35432 Y-3.20962 ( rapid move to begin. )
G01 F180.00000
G01 Z-0.04000
G04 P0 ( dwell for no time -- G64 should not smooth over this point )
G01 F360.00000
G01 X-3.35432 Y-3.20962
G01 X-3.34542 Y-3.20956
G01 X-3.33801 Y-3.20659
G01 X-3.32724 Y-3.19307
G01 X-3.31795 Y-3.17673
G01 X-3.31002 Y-3.15568
G01 X-3.31193 Y-3.14353
G01 X-3.31569 Y-3.12863
G01 X-3.32142 Y-3.11283
G01 X-3.32967 Y-3.09568
G01 X-3.34132 Y-3.07659
G01 X-3.35787 Y-3.05474
G01 X-3.37847 Y-3.03226
G01 X-3.38912 Y-3.02610
G01 X-3.41300 Y-3.01064
G01 X-3.44435 Y-3.01080
G01 X-3.46525 Y-3.02223
G01 X-3.48010 Y-3.03152
G01 X-3.52058 Y-3.04780
G01 X-3.54131 Y-3.05411
G01 X-3.56660 Y-3.05917
G01 X-3.59368 Y-3.06688
G01 X-3.62002 Y-3.07151
G01 X-3.62830 Y-3.07238
G01 X-3.65411 Y-3.07331
G01 X-3.67993 Y-3.07152
G01 X-3.70631 Y-3.06688
G01 X-3.72627 Y-3.06149
G01 X-3.99713 Y-3.06146
G01 X-4.00820 Y-3.05647
G01 X-4.02686 Y-3.04633
G01 X-4.04078 Y-3.03704
G01 X-4.05550 Y-3.02516
G01 X-4.19668 Y-2.88446
G01 X-4.21187 Y-2.87815
G01 X-4.24665 Y-2.84388
G01 X-4.26227 Y-2.83213
G01 X-4.27297 Y-2.82639
G01 X-4.28337 Y-2.82262
G01 X-4.29552 Y-2.82050
G01 X-4.42513 Y-2.82031
G01 X-4.43933 Y-2.81648
G01 X-4.45422 Y-2.81546
G01 X-4.46382 Y-2.81648
G01 X-4.47700 Y-2.82003
G01 X-4.48545 Y-2.82360
G01 X-4.49787 Y-2.83066
G01 X-4.49946 Y-2.84225
G01 X-4.49946 Y-2.85775
G01 X-4.49809 Y-2.86806
G01 X-4.49332 Y-2.89144
G01 X-4.48427 Y-2.89964
G01 X-4.47394 Y-2.90721
G01 X-4.46219 Y-2.91406
G01 X-4.45385 Y-2.91803
G01 X-4.43810 Y-2.92391
G01 X-4.41876 Y-2.92885
G01 X-4.41021 Y-2.93043
G01 X-4.40484 Y-2.93278
G01 X-4.40115 Y-2.94305
G01 X-4.39222 Y-2.96348
G01 X-4.38671 Y-2.97363
G01 X-4.37649 Y-2.98930
G01 X-4.35264 Y-3.02037
G01 X-4.32646 Y-3.05779
G01 X-4.31983 Y-3.06597
G01 X-4.30340 Y-3.08413
G01 X-4.29113 Y-3.09635
G01 X-4.26218 Y-3.16620
G01 X-4.24044 Y-3.16771
G01 X-4.21091 Y-3.17154
G01 X-4.17933 Y-3.17856
G01 X-4.15358 Y-3.18716
G01 X-4.14571 Y-3.19042
G01 X-4.13182 Y-3.19703
G01 X-4.11673 Y-3.20559
G01 X-4.10115 Y-3.20872
G01 X-4.07855 Y-3.21667
G01 X-4.07040 Y-3.21915
G01 X-4.05976 Y-3.22143
G01 X-4.04639 Y-3.22275
G01 X-4.01260 Y-3.22284
G01 X-4.00191 Y-3.22360
G01 X-3.99131 Y-3.22588
G01 X-3.98072 Y-3.22965
G01 X-3.97045 Y-3.23477
G01 X-3.92955 Y-3.23477
G01 X-3.91928 Y-3.22965
G01 X-3.90869 Y-3.22588
G01 X-3.89809 Y-3.22360
G01 X-3.88747 Y-3.22284
G01 X-3.81251 Y-3.22284
G01 X-3.79857 Y-3.22416
G01 X-3.78503 Y-3.22795
G01 X-3.76198 Y-3.22435
G01 X-3.74604 Y-3.22392
G01 X-3.73020 Y-3.22517
G01 X-3.72183 Y-3.22650
G01 X-3.70486 Y-3.23061
G01 X-3.68664 Y-3.23715
G01 X-3.66542 Y-3.24757
G01 X-3.65725 Y-3.24902
G01 X-3.51255 Y-3.24902
G01 X-3.49506 Y-3.23329
G01 X-3.48135 Y-3.22329
G01 X-3.46922 Y-3.21616
G01 X-3.45456 Y-3.20975
G01 X-3.35432 Y-3.20962
G01 X-3.35432 Y-3.20765
G01 X-3.45494 Y-3.20782
G01 X-3.47009 Y-3.21439
G01 X-3.48248 Y-3.22167
G01 X-3.49635 Y-3.23180
G01 X-3.51334 Y-3.24705
G01 X-3.65708 Y-3.24705
G01 X-3.66474 Y-3.24569
G01 X-3.68584 Y-3.23535
G01 X-3.70435 Y-3.22871
G01 X-3.72152 Y-3.22455
G01 X-3.73000 Y-3.22321
G01 X-3.74594 Y-3.22196
G01 X-3.76219 Y-3.22239
G01 X-3.78497 Y-3.22593
G01 X-3.79856 Y-3.22217
G01 X-3.81232 Y-3.22088
G01 X-3.88761 Y-3.22087
G01 X-3.89850 Y-3.22168
G01 X-3.90898 Y-3.22392
G01 X-3.91983 Y-3.22775
G01 X-3.93002 Y-3.23280
G01 X-3.96998 Y-3.23280
G01 X-3.98017 Y-3.22775
G01 X-3.99065 Y-3.22402
G01 X-4.00150 Y-3.22168
G01 X-4.01260 Y-3.22087
G01 X-4.04930 Y-3.22063
G01 X-4.06693 Y-3.21799
G01 X-4.07793 Y-3.21480
G01 X-4.10052 Y-3.20686
G01 X-4.11602 Y-3.20373
G01 X-4.13088 Y-3.19530
G01 X-4.14496 Y-3.18860
G01 X-4.15293 Y-3.18531
G01 X-4.17877 Y-3.17668
G01 X-4.21066 Y-3.16959
G01 X-4.24019 Y-3.16576
G01 X-4.26083 Y-3.16431
G01 X-4.28950 Y-3.09525
G01 X-4.30197 Y-3.08277
G01 X-4.31834 Y-3.06469
G01 X-4.32490 Y-3.05659
G01 X-4.35105 Y-3.01921
G01 X-4.37490 Y-2.98814
G01 X-4.38501 Y-2.97265
G01 X-4.39046 Y-2.96258
G01 X-4.39415 Y-2.95485
G01 X-4.40330 Y-2.93156
G01 X-4.40966 Y-2.92854
G01 X-4.43180 Y-2.92372
G01 X-4.45305 Y-2.91623
G01 X-4.46130 Y-2.91231
G01 X-4.47287 Y-2.90555
G01 X-4.48303 Y-2.89811
G01 X-4.49148 Y-2.89047
G01 X-4.49616 Y-2.86770
G01 X-4.49750 Y-2.85759
G01 X-4.49750 Y-2.84241
G01 X-4.49608 Y-2.83186
G01 X-4.48461 Y-2.82538
G01 X-4.47635 Y-2.82188
G01 X-4.46346 Y-2.81842
G01 X-4.45417 Y-2.81743
G01 X-4.43969 Y-2.81842
G01 X-4.42513 Y-2.82228
G01 X-4.29567 Y-2.82246
G01 X-4.28389 Y-2.82452
G01 X-4.27377 Y-2.82819
G01 X-4.26332 Y-2.83379
G01 X-4.24794 Y-2.84537
G01 X-4.21296 Y-2.87979
G01 X-4.19780 Y-2.88613
G01 X-4.05674 Y-3.02668
G01 X-4.04195 Y-3.03862
G01 X-4.02787 Y-3.04802
G01 X-4.00912 Y-3.05820
G01 X-3.99755 Y-3.06339
G01 X-3.72658 Y-3.06346
G01 X-3.70672 Y-3.06881
G01 X-3.68013 Y-3.07347
G01 X-3.65411 Y-3.07527
G01 X-3.62809 Y-3.07434
G01 X-3.61971 Y-3.07345
G01 X-3.59327 Y-3.06881
G01 X-3.56615 Y-3.06109
G01 X-3.54083 Y-3.05601
G01 X-3.51992 Y-3.04965
G01 X-3.47935 Y-3.03334
G01 X-3.46427 Y-3.02394
G01 X-3.44385 Y-3.01277
G01 X-3.41358 Y-3.01261
G01 X-3.39019 Y-3.02776
G01 X-3.37967 Y-3.03384
G01 X-3.35936 Y-3.05602
G01 X-3.33934 Y-3.08317
G01 X-3.33139 Y-3.09664
G01 X-3.32323 Y-3.11361
G01 X-3.31602 Y-3.13465
G01 X-3.31203 Y-3.15552
G01 X-3.31737 Y-3.17057
G01 X-3.32563 Y-3.18692
G01 X-3.33207 Y-3.19645
G01 X-3.33919 Y-3.20495
G01 X-3.34580 Y-3.20761
G01 X-3.35432 Y-3.20765
G01 X-3.35435 Y-3.21159
G01 X-3.45418 Y-3.21169
G01 X-3.46833 Y-3.21791
G01 X-3.48025 Y-3.22492
G01 X-3.49380 Y-3.23480
G01 X-3.51072 Y-3.24999
G01 X-3.49586 Y-3.26352
G01 X-3.48125 Y-3.27443
G01 X-3.46859 Y-3.28195
G01 X-3.45395 Y-3.28846
G01 X-3.34534 Y-3.28832
G01 X-3.33622 Y-3.29207
G01 X-3.32242 Y-3.29943
G01 X-3.31411 Y-3.29572
G01 X-3.30597 Y-3.29121
G01 X-3.29886 Y-3.28628
G01 X-3.29254 Y-3.28090
G01 X-3.22089 Y-3.20934
G01 X-3.21233 Y-3.19927
G01 X-3.21076 Y-3.19070
G01 X-3.21006 Y-3.18020
G01 X-3.21006 Y-3.00007
G01 X-3.20438 Y-2.98605
G01 X-3.20090 Y-2.97392
G01 X-3.19890 Y-2.96247
G01 X-3.19817 Y-2.94861
G01 X-3.19890 Y-2.93753
G01 X-3.20090 Y-2.92608
G01 X-3.20438 Y-2.91395
G01 X-3.20974 Y-2.90079
G01 X-3.21767 Y-2.88612
G01 X-3.22298 Y-2.87794
G01 X-3.22929 Y-2.86929
G01 X-3.24351 Y-2.85245
G01 X-3.24614 Y-2.84614
G01 X-3.32257 Y-2.81474
G01 X-3.33125 Y-2.81226
G01 X-3.33951 Y-2.81076
G01 X-3.35430 Y-2.81004
G01 X-3.36451 Y-2.80625
G01 X-3.37447 Y-2.80501
G01 X-3.42555 Y-2.80501
G01 X-3.43270 Y-2.80565
G01 X-3.43983 Y-2.80757
G01 X-3.44699 Y-2.81076
G01 X-3.45364 Y-2.81492
G01 X-3.44912 Y-2.83696
G01 X-3.44829 Y-2.85253
G01 X-3.44912 Y-2.86304
G01 X-3.45380 Y-2.88588
G01 X-3.45602 Y-2.90255
G01 X-3.45795 Y-2.93217
G01 X-3.45860 Y-2.95411
G01 X-3.45249 Y-2.98041
G01 X-3.44387 Y-3.00884
G01 X-3.41234 Y-3.00875
G01 X-3.38807 Y-3.02444
G01 X-3.37717 Y-3.03078
G01 X-3.35178 Y-3.05909
G01 X-3.33602 Y-3.08106
G01 X-3.32502 Y-3.10033
G01 X-3.31960 Y-3.11208
G01 X-3.31381 Y-3.12807
G01 X-3.31001 Y-3.14311
G01 X-3.30804 Y-3.15592
G01 X-3.31372 Y-3.17205
G01 X-3.31936 Y-3.18387
G01 X-3.32559 Y-3.19416
G01 X-3.33246 Y-3.20327
G01 X-3.33704 Y-3.20832
G01 X-3.34504 Y-3.21151
G01 X-3.35435 Y-3.21159
G01 X-3.35440 Y-3.21356
G01 X-3.34467 Y-3.21344
G01 X-3.33628 Y-3.21014
G01 X-3.32731 Y-3.19994
G01 X-3.31767 Y-3.18489
G01 X-3.31188 Y-3.17275
G01 X-3.30620 Y-3.15665
G01 X-3.30806 Y-3.14281
G01 X-3.31192 Y-3.12752
G01 X-3.31778 Y-3.11135
G01 X-3.32321 Y-3.09955
G01 X-3.33437 Y-3.07998
G01 X-3.35484 Y-3.05223
G01 X-3.37577 Y-3.02939
G01 X-3.41161 Y-3.00692
G01 X-3.44241 Y-3.00688
G01 X-3.45059 Y-2.97990
G01 X-3.45662 Y-2.95390
G01 X-3.45599 Y-2.93226
G01 X-3.45407 Y-2.90275
G01 X-3.45186 Y-2.88623
G01 X-3.44718 Y-2.86335
G01 X-3.44633 Y-2.85263
G01 X-3.44718 Y-2.83665
G01 X-3.45144 Y-2.81587
G01 X-3.44606 Y-2.81250
G01 X-3.43917 Y-2.80943
G01 X-3.43236 Y-2.80760
G01 X-3.42546 Y-2.80698
G01 X-3.37459 Y-2.80698
G01 X-3.36498 Y-2.80818
G01 X-3.35465 Y-2.81198
G01 X-3.33975 Y-2.81272
G01 X-3.33168 Y-2.81418
G01 X-3.32319 Y-2.81660
G01 X-3.24764 Y-2.84764
G01 X-3.24518 Y-2.85349
G01 X-3.23085 Y-2.87049
G01 X-3.22460 Y-2.87906
G01 X-3.21935 Y-2.88715
G01 X-3.21152 Y-2.90164
G01 X-3.20498 Y-2.91846
G01 X-3.20213 Y-2.92972
G01 X-3.20056 Y-2.94059
G01 X-3.20014 Y-2.95134
G01 X-3.20056 Y-2.95941
G01 X-3.20213 Y-2.97028
G01 X-3.20623 Y-2.98539
G01 X-3.21203 Y-3.00007
G01 X-3.21203 Y-3.18018
G01 X-3.21272 Y-3.19046
G01 X-3.21416 Y-3.19842
G01 X-3.22230 Y-3.20797
G01 X-3.29388 Y-3.27946
G01 X-3.30007 Y-3.28472
G01 X-3.30703 Y-3.28954
G01 X-3.32227 Y-3.29723
G01 X-3.33535 Y-3.29031
G01 X-3.34500 Y-3.28638
G01 X-3.45362 Y-3.28648
G01 X-3.46768 Y-3.28021
G01 X-3.48016 Y-3.27278
G01 X-3.49461 Y-3.26199
G01 X-3.50787 Y-3.24998
G01 X-3.49255 Y-3.23632
G01 X-3.47916 Y-3.22656
G01 X-3.46742 Y-3.21966
G01 X-3.45379 Y-3.21365
G01 X-3.35440 Y-3.21356
G01 X-3.35445 Y-3.21552
G01 X-3.34820 Y-3.21557
G01 X-3.34352 Y-3.21516
G01 X-3.33551 Y-3.21195
G01 X-3.33376 Y-3.21069
G01 X-3.32571 Y-3.20109
G01 X-3.31596 Y-3.18587
G01 X-3.31005 Y-3.17346
G01 X-3.30415 Y-3.15654
G01 X-3.30612 Y-3.14246
G01 X-3.31002 Y-3.12698
G01 X-3.31595 Y-3.11062
G01 X-3.32142 Y-3.09872
G01 X-3.33640 Y-3.07332
G01 X-3.35348 Y-3.05079
G01 X-3.37487 Y-3.02756
G01 X-3.38601 Y-3.02108
G01 X-3.41004 Y-3.00553
G01 X-3.41270 Y-3.00474
G01 X-3.44094 Y-3.00492
G01 X-3.44868 Y-2.97939
G01 X-3.45465 Y-2.95369
G01 X-3.45402 Y-2.93236
G01 X-3.45211 Y-2.90296
G01 X-3.44993 Y-2.88658
G01 X-3.44523 Y-2.86366
G01 X-3.44436 Y-2.85273
G01 X-3.44523 Y-2.83634
G01 X-3.44924 Y-2.81682
G01 X-3.44513 Y-2.81424
G01 X-3.43851 Y-2.81129
G01 X-3.43201 Y-2.80954
G01 X-3.42537 Y-2.80895
G01 X-3.37472 Y-2.80895
G01 X-3.36545 Y-2.81010
G01 X-3.35500 Y-2.81392
G01 X-3.34483 Y-2.81419
G01 X-3.33211 Y-2.81610
G01 X-3.31792 Y-2.82066
G01 X-3.24915 Y-2.84915
G01 X-3.24685 Y-2.85453
G01 X-3.23242 Y-2.87169
G01 X-3.22623 Y-2.88017
G01 X-3.21737 Y-2.89449
G01 X-3.21329 Y-2.90249
G01 X-3.20809 Y-2.91527
G01 X-3.20407 Y-2.93008
G01 X-3.20281 Y-2.93805
G01 X-3.20211 Y-2.94871
G01 X-3.20281 Y-2.96195
G01 X-3.20473 Y-2.97300
G01 X-3.20687 Y-2.98098
G01 X-3.21400 Y-3.00007
G01 X-3.21400 Y-3.18015
G01 X-3.21467 Y-3.19022
G01 X-3.21600 Y-3.19760
G01 X-3.22371 Y-3.20659
G01 X-3.29522 Y-3.27802
G01 X-3.30128 Y-3.28317
G01 X-3.30808 Y-3.28788
G01 X-3.32213 Y-3.29504
G01 X-3.33448 Y-3.28854
G01 X-3.34467 Y-3.28443
G01 X-3.45328 Y-3.28449
G01 X-3.46118 Y-3.28121
G01 X-3.47212 Y-3.27549
G01 X-3.48445 Y-3.26740
G01 X-3.49337 Y-3.26047
G01 X-3.50500 Y-3.24997
G01 X-3.49130 Y-3.23785
G01 X-3.47808 Y-3.22820
G01 X-3.46651 Y-3.22140
G01 X-3.45340 Y-3.21560
G01 X-3.35445 Y-3.21552
G01 X-3.35450 Y-3.21749
G01 X-3.34820 Y-3.21754
G01 X-3.34391 Y-3.21730
G01 X-3.33475 Y-3.21376
G01 X-3.33226 Y-3.21197
G01 X-3.32431 Y-3.20251
G01 X-3.31425 Y-3.18685
G01 X-3.30821 Y-3.17416
G01 X-3.30212 Y-3.15583
G01 X-3.30419 Y-3.14211
G01 X-3.30813 Y-3.12644
G01 X-3.31412 Y-3.10989
G01 X-3.31964 Y-3.09790
G01 X-3.33476 Y-3.07224
G01 X-3.35202 Y-3.04947
G01 X-3.37368 Y-3.02600
G01 X-3.38499 Y-3.01940
G01 X-3.40897 Y-3.00388
G01 X-3.41270 Y-3.00277
G01 X-3.43949 Y-3.00295
G01 X-3.44678 Y-2.97889
G01 X-3.45268 Y-2.95349
G01 X-3.45205 Y-2.93245
G01 X-3.45015 Y-2.90316
G01 X-3.44799 Y-2.88693
G01 X-3.44329 Y-2.86397
G01 X-3.44240 Y-2.85284
G01 X-3.44329 Y-2.83603
G01 X-3.44704 Y-2.81776
G01 X-3.43785 Y-2.81315
G01 X-3.43167 Y-2.81149
G01 X-3.42528 Y-2.81092
G01 X-3.37484 Y-2.81092
G01 X-3.36592 Y-2.81203
G01 X-3.35535 Y-2.81585
G01 X-3.34023 Y-2.81662
G01 X-3.33254 Y-2.81802
G01 X-3.32443 Y-2.82034
G01 X-3.25066 Y-2.85066
G01 X-3.24852 Y-2.85557
G01 X-3.23398 Y-2.87289
G01 X-3.22785 Y-2.88129
G01 X-3.21910 Y-2.89543
G01 X-3.21297 Y-2.90804
G01 X-3.20994 Y-2.91592
G01 X-3.20664 Y-2.92746
G01 X-3.20449 Y-2.94090
G01 X-3.20408 Y-2.95124
G01 X-3.20476 Y-2.96169
G01 X-3.20664 Y-2.97254
G01 X-3.20875 Y-2.98042
G01 X-3.21563 Y-2.99794
G01 X-3.21596 Y-3.00007
G01 X-3.21616 Y-3.18523
G01 X-3.21784 Y-3.19678
G01 X-3.22342 Y-3.20344
G01 X-3.29656 Y-3.27658
G01 X-3.30913 Y-3.28622
G01 X-3.32200 Y-3.29284
G01 X-3.33361 Y-3.28677
G01 X-3.34434 Y-3.28249
G01 X-3.45295 Y-3.28251
G01 X-3.46585 Y-3.27672
G01 X-3.47799 Y-3.26950
G01 X-3.49212 Y-3.25894
G01 X-3.50214 Y-3.24996
G01 X-3.49006 Y-3.23937
G01 X-3.47699 Y-3.22985
G01 X-3.46560 Y-3.22315
G01 X-3.45302 Y-3.21756
G01 X-3.35450 Y-3.21749
G04 P0 ( dwell for no time -- G64 should not smooth over this point )
G00 Z0.08000 ( retract )

G00 X-3.05098 Y-3.59902 ( rapid move to begin. )
G01 F180.00000
G01 Z-0.04000
G04 P0 ( dwell for no time -- G64 should not smooth over this point )
G01 F360.00000
G01 X-3.05098 Y-3.59902
G01 X-3.05098 Y-2.64864
G01 X-3.08122 Y-2.65312
G01 X-3.16407 Y-2.66210
G01 X-3.22037 Y-2.67010
G01 X-3.24589 Y-2.67188
G01 X-3.27135 Y-2.67097
G01 X-3.27968 Y-2.67010
G01 X-3.30571 Y-2.66552
G01 X-3.32542 Y-2.66018
G01 X-3.52801 Y-2.66016
G01 X-3.58226 Y-2.63771
G01 X-3.60827 Y-2.63488
G01 X-3.62918 Y-2.63042
G01 X-3.64626 Y-2.62490
G01 X-3.66061 Y-2.61859
G01 X-3.66824 Y-2.61444
G01 X-3.68000 Y-2.60672
G01 X-3.69856 Y-2.59151
G01 X-3.71543 Y-2.57957
G01 X-3.71755 Y-2.56741
G01 X-3.71973 Y-2.54564
G01 X-3.72495 Y-2.53907
G01 X-3.73121 Y-2.53325
G01 X-3.73838 Y-2.52834
G01 X-3.74651 Y-2.52433
G01 X-3.83172 Y-2.48903
G01 X-3.83375 Y-2.48896
G01 X-3.88270 Y-2.46868
G01 X-3.91177 Y-2.43972
G01 X-3.91669 Y-2.43542
G01 X-3.92154 Y-2.43239
G01 X-3.92634 Y-2.43059
G01 X-3.93116 Y-2.42998
G01 X-4.06884 Y-2.42998
G01 X-4.07366 Y-2.43059
G01 X-4.07846 Y-2.43239
G01 X-4.08331 Y-2.43542
G01 X-4.08823 Y-2.43972
G01 X-4.12335 Y-2.47484
G01 X-4.14396 Y-2.52461
G01 X-4.11205 Y-2.57625
G01 X-4.10308 Y-2.58843
G01 X-4.09288 Y-2.59800
G01 X-4.08142 Y-2.60499
G01 X-4.06862 Y-2.60944
G01 X-4.00265 Y-2.62502
G01 X-3.93255 Y-2.62518
G01 X-3.91994 Y-2.63928
G01 X-3.91257 Y-2.65108
G01 X-3.90805 Y-2.66305
G01 X-3.90652 Y-2.67508
G01 X-3.90652 Y-2.69484
G01 X-3.90506 Y-2.70646
G01 X-3.90071 Y-2.71806
G01 X-3.89343 Y-2.72971
G01 X-3.88318 Y-2.74143
G01 X-3.81090 Y-2.81372
G01 X-3.73402 Y-2.81341
G01 X-3.71964 Y-2.80857
G01 X-3.70676 Y-2.81094
G01 X-3.67301 Y-2.81951
G01 X-3.65374 Y-2.82630
G01 X-3.61594 Y-2.84307
G01 X-3.59668 Y-2.83948
G01 X-3.57834 Y-2.83395
G01 X-3.56987 Y-2.83058
G01 X-3.55459 Y-2.82009
G01 X-3.53702 Y-2.81111
G01 X-3.52584 Y-2.80713
G01 X-3.51085 Y-2.80391
G01 X-3.49575 Y-2.80312
G01 X-3.48143 Y-2.80463
G01 X-3.46562 Y-2.80888
G01 X-3.45482 Y-2.81334
G01 X-3.44785 Y-2.80899
G01 X-3.44042 Y-2.80568
G01 X-3.43313 Y-2.80373
G01 X-3.42559 Y-2.80305
G01 X-3.37429 Y-2.80305
G01 X-3.36404 Y-2.80433
G01 X-3.35395 Y-2.80809
G01 X-3.34437 Y-2.80830
G01 X-3.33084 Y-2.81033
G01 X-3.31574 Y-2.81518
G01 X-3.24469 Y-2.84469
G01 X-3.24183 Y-2.85140
G01 X-3.22775 Y-2.86807
G01 X-3.22135 Y-2.87685
G01 X-3.21219 Y-2.89165
G01 X-3.20795 Y-2.89997
G01 X-3.20251 Y-2.91332
G01 X-3.19898 Y-2.92564
G01 X-3.19695 Y-2.93730
G01 X-3.19620 Y-2.95142
G01 X-3.19695 Y-2.96270
G01 X-3.19899 Y-2.97441
G01 X-3.20251 Y-2.98668
G01 X-3.20809 Y-3.00030
G01 X-3.20809 Y-3.18021
G01 X-3.20881 Y-3.19092
G01 X-3.21054 Y-3.20012
G01 X-3.21949 Y-3.21072
G01 X-3.29121 Y-3.28235
G01 X-3.29767 Y-3.28784
G01 X-3.30494 Y-3.29288
G01 X-3.31325 Y-3.29749
G01 X-3.32163 Y-3.30123
G01 X-3.32387 Y-3.31215
G01 X-3.32748 Y-3.32422
G01 X-3.33168 Y-3.33430
G01 X-3.33630 Y-3.34277
G01 X-3.34140 Y-3.35020
G01 X-3.34694 Y-3.35671
G01 X-3.35303 Y-3.36254
G01 X-3.36171 Y-3.36911
G01 X-3.37695 Y-3.37075
G01 X-3.42453 Y-3.37071
G01 X-3.43591 Y-3.36953
G01 X-3.44483 Y-3.36752
G01 X-3.45295 Y-3.36488
G01 X-3.67298 Y-3.36484
G01 X-3.68384 Y-3.36377
G01 X-3.71945 Y-3.35747
G01 X-3.73327 Y-3.36014
G01 X-3.74609 Y-3.36123
G01 X-3.75881 Y-3.36097
G01 X-3.76668 Y-3.36015
G01 X-3.77972 Y-3.35766
G01 X-3.78868 Y-3.35476
G01 X-3.79833 Y-3.32303
G01 X-3.80024 Y-3.31200
G01 X-3.80095 Y-3.30137
G01 X-3.80053 Y-3.29076
G01 X-3.79899 Y-3.28008
G01 X-3.79620 Y-3.26905
G01 X-3.79042 Y-3.25207
G01 X-3.78617 Y-3.22968
G01 X-3.79901 Y-3.22608
G01 X-3.81265 Y-3.22480
G01 X-3.88737 Y-3.22480
G01 X-3.89774 Y-3.22554
G01 X-3.90809 Y-3.22775
G01 X-3.91846 Y-3.23144
G01 X-3.92917 Y-3.23673
G01 X-3.97068 Y-3.23674
G01 X-3.98154 Y-3.23144
G01 X-3.99191 Y-3.22775
G01 X-4.00226 Y-3.22554
G01 X-4.01263 Y-3.22480
G01 X-4.04647 Y-3.22471
G01 X-4.06007 Y-3.22337
G01 X-4.07091 Y-3.22105
G01 X-4.07914 Y-3.21855
G01 X-4.10171 Y-3.21061
G01 X-4.11601 Y-3.20774
G01 X-4.11374 Y-3.23023
G01 X-4.11187 Y-3.24201
G01 X-4.10958 Y-3.25207
G01 X-4.10167 Y-3.27697
G01 X-4.09976 Y-3.28800
G01 X-4.09905 Y-3.30132
G01 X-4.09976 Y-3.31200
G01 X-4.10167 Y-3.32303
G01 X-4.10958 Y-3.34793
G01 X-4.11374 Y-3.36977
G01 X-4.11548 Y-3.38505
G01 X-4.11845 Y-3.42503
G01 X-4.12176 Y-3.50033
G01 X-4.11651 Y-3.59902
G01 X-3.05098 Y-3.59902
G01 X-3.05295 Y-3.59705
G01 X-4.11465 Y-3.59705
G01 X-4.11979 Y-3.50032
G01 X-4.11649 Y-3.42516
G01 X-4.11352 Y-3.38523
G01 X-4.11179 Y-3.37004
G01 X-4.10768 Y-3.34844
G01 X-4.09975 Y-3.32344
G01 X-4.09780 Y-3.31221
G01 X-4.09708 Y-3.30132
G01 X-4.09751 Y-3.29055
G01 X-4.09906 Y-3.27982
G01 X-4.10193 Y-3.26844
G01 X-4.10768 Y-3.25156
G01 X-4.10994 Y-3.24164
G01 X-4.11386 Y-3.21018
G01 X-4.10222 Y-3.21251
G01 X-4.07971 Y-3.22043
G01 X-4.07138 Y-3.22296
G01 X-4.06036 Y-3.22532
G01 X-4.04657 Y-3.22668
G01 X-4.01270 Y-3.22677
G01 X-4.00253 Y-3.22750
G01 X-3.99245 Y-3.22965
G01 X-3.98232 Y-3.23325
G01 X-3.97068 Y-3.23871
G01 X-3.92887 Y-3.23867
G01 X-3.91768 Y-3.23325
G01 X-3.90755 Y-3.22965
G01 X-3.89747 Y-3.22750
G01 X-3.88730 Y-3.22677
G01 X-3.81274 Y-3.22677
G01 X-3.79937 Y-3.22802
G01 X-3.78839 Y-3.23110
G01 X-3.79232 Y-3.25156
G01 X-3.79807 Y-3.26844
G01 X-3.80094 Y-3.27982
G01 X-3.80250 Y-3.29071
G01 X-3.80292 Y-3.29868
G01 X-3.80250 Y-3.30929
G01 X-3.80021 Y-3.32359
G01 X-3.79045 Y-3.35561
G01 X-3.78870 Y-3.35714
G01 X-3.78013 Y-3.35958
G01 X-3.76688 Y-3.36211
G01 X-3.75891 Y-3.36294
G01 X-3.74609 Y-3.36320
G01 X-3.73296 Y-3.36209
G01 X-3.71940 Y-3.35948
G01 X-3.68414 Y-3.36571
G01 X-3.67303 Y-3.36681
G01 X-3.45329 Y-3.36685
G01 X-3.44533 Y-3.36943
G01 X-3.43631 Y-3.37146
G01 X-3.42463 Y-3.37268
G01 X-3.37690 Y-3.37272
G01 X-3.36109 Y-3.37098
G01 X-3.35392 Y-3.36585
G01 X-3.34554 Y-3.35809
G01 X-3.33986 Y-3.35142
G01 X-3.33459 Y-3.34375
G01 X-3.32993 Y-3.33518
G01 X-3.32566 Y-3.32497
G01 X-3.32197 Y-3.31266
G01 X-3.31989 Y-3.30264
G01 X-3.30393 Y-3.29457
G01 X-3.29649 Y-3.28942
G01 X-3.28989 Y-3.28381
G01 X-3.21810 Y-3.21211
G01 X-3.20876 Y-3.20096
G01 X-3.20687 Y-3.19125
G01 X-3.20612 Y-3.18028
G01 X-3.20612 Y-3.00076
G01 X-3.20064 Y-2.98729
G01 X-3.19709 Y-2.97492
G01 X-3.19499 Y-2.96290
G01 X-3.19424 Y-2.95157
G01 X-3.19499 Y-2.93710
G01 X-3.19705 Y-2.92523
G01 X-3.20064 Y-2.91271
G01 X-3.20616 Y-2.89916
G01 X-3.21049 Y-2.89066
G01 X-3.21970 Y-2.87577
G01 X-3.22622 Y-2.86683
G01 X-3.24013 Y-2.85035
G01 X-3.24330 Y-2.84330
G01 X-3.31497 Y-2.81337
G01 X-3.33031 Y-2.80843
G01 X-3.33910 Y-2.80685
G01 X-3.35360 Y-2.80612
G01 X-3.36357 Y-2.80242
G01 X-3.37405 Y-2.80110
G01 X-3.42559 Y-2.80108
G01 X-3.43314 Y-2.80174
G01 X-3.44093 Y-2.80378
G01 X-3.44866 Y-2.80720
G01 X-3.45497 Y-2.81112
G01 X-3.47036 Y-2.80527
G01 X-3.48113 Y-2.80269
G01 X-3.49575 Y-2.80115
G01 X-3.51106 Y-2.80195
G01 X-3.52635 Y-2.80523
G01 X-3.53782 Y-2.80931
G01 X-3.55558 Y-2.81839
G01 X-3.57084 Y-2.82885
G01 X-3.57903 Y-2.83210
G01 X-3.59711 Y-2.83756
G01 X-3.61568 Y-2.84104
G01 X-3.65298 Y-2.82448
G01 X-3.67235 Y-2.81765
G01 X-3.70630 Y-2.80902
G01 X-3.71929 Y-2.80663
G01 X-3.73438 Y-2.81145
G01 X-3.81008 Y-2.81175
G01 X-3.88174 Y-2.74008
G01 X-3.89185 Y-2.72853
G01 X-3.89894 Y-2.71719
G01 X-3.90314 Y-2.70599
G01 X-3.90455 Y-2.69472
G01 X-3.90457 Y-2.67483
G01 X-3.90605 Y-2.66303
G01 X-3.91064 Y-2.65056
G01 X-3.91855 Y-2.63786
G01 X-3.93146 Y-2.62355
G01 X-3.93310 Y-2.62305
G01 X-4.00242 Y-2.62305
G01 X-4.06807 Y-2.60755
G01 X-4.08057 Y-2.60320
G01 X-4.09168 Y-2.59642
G01 X-4.10160 Y-2.58712
G01 X-4.11042 Y-2.57515
G01 X-4.14176 Y-2.52444
G01 X-4.12168 Y-2.47595
G01 X-4.08214 Y-2.43700
G01 X-4.07759 Y-2.43416
G01 X-4.07319 Y-2.43251
G01 X-4.06872 Y-2.43195
G01 X-3.93128 Y-2.43195
G01 X-3.92681 Y-2.43251
G01 X-3.92241 Y-2.43416
G01 X-3.91786 Y-2.43700
G01 X-3.91312 Y-2.44116
G01 X-3.88345 Y-2.47050
G01 X-3.83451 Y-2.49078
G01 X-3.83211 Y-2.49100
G01 X-3.74732 Y-2.52612
G01 X-3.73938 Y-2.53005
G01 X-3.73244 Y-2.53479
G01 X-3.72640 Y-2.54041
G01 X-3.72160 Y-2.54644
G01 X-3.71949 Y-2.56777
G01 X-3.71707 Y-2.58066
G01 X-3.69976 Y-2.59307
G01 X-3.68120 Y-2.60828
G01 X-3.66926 Y-2.61612
G01 X-3.66145 Y-2.62036
G01 X-3.64702 Y-2.62672
G01 X-3.62974 Y-2.63231
G01 X-3.60852 Y-2.63683
G01 X-3.58273 Y-2.63965
G01 X-3.52840 Y-2.66209
G01 X-3.32573 Y-2.66215
G01 X-3.30612 Y-2.66744
G01 X-3.27999 Y-2.67204
G01 X-3.27145 Y-2.67294
G01 X-3.24589 Y-2.67384
G01 X-3.22017 Y-2.67206
G01 X-3.16383 Y-2.66405
G01 X-3.08100 Y-2.65508
G01 X-3.05295 Y-2.65095
G01 X-3.05295 Y-3.59705
G01 X-3.05492 Y-3.59508
G01 X-4.11278 Y-3.59508
G01 X-4.11782 Y-3.50031
G01 X-4.11453 Y-3.42529
G01 X-4.11156 Y-3.38541
G01 X-4.10984 Y-3.37030
G01 X-4.10577 Y-3.34895
G01 X-4.09782 Y-3.32385
G01 X-4.09584 Y-3.31241
G01 X-4.09511 Y-3.30132
G01 X-4.09555 Y-3.29035
G01 X-4.09716 Y-3.27926
G01 X-4.10005 Y-3.26783
G01 X-4.10577 Y-3.25105
G01 X-4.10800 Y-3.24126
G01 X-4.11170 Y-3.21262
G01 X-4.10273 Y-3.21442
G01 X-4.07210 Y-3.22481
G01 X-4.06065 Y-3.22727
G01 X-4.04667 Y-3.22865
G01 X-4.01277 Y-3.22874
G01 X-4.00281 Y-3.22945
G01 X-3.99298 Y-3.23155
G01 X-3.98309 Y-3.23507
G01 X-3.97287 Y-3.24016
G01 X-3.97068 Y-3.24068
G01 X-3.92857 Y-3.24062
G01 X-3.91691 Y-3.23507
G01 X-3.90702 Y-3.23155
G01 X-3.89719 Y-3.22945
G01 X-3.88723 Y-3.22874
G01 X-3.81283 Y-3.22874
G01 X-3.79973 Y-3.22996
G01 X-3.79061 Y-3.23252
G01 X-3.79423 Y-3.25105
G01 X-3.79995 Y-3.26783
G01 X-3.80289 Y-3.27951
G01 X-3.80447 Y-3.29060
G01 X-3.80489 Y-3.29868
G01 X-3.80447 Y-3.30940
G01 X-3.80212 Y-3.32410
G01 X-3.79222 Y-3.35647
G01 X-3.78931 Y-3.35901
G01 X-3.78054 Y-3.36151
G01 X-3.76709 Y-3.36406
G01 X-3.75417 Y-3.36516
G01 X-3.74609 Y-3.36517
G01 X-3.73265 Y-3.36403
G01 X-3.71936 Y-3.36149
G01 X-3.68444 Y-3.36766
G01 X-3.67307 Y-3.36878
G01 X-3.45362 Y-3.36882
G01 X-3.43670 Y-3.37339
G01 X-3.42474 Y-3.37464
G01 X-3.37685 Y-3.37468
G01 X-3.36048 Y-3.37285
G01 X-3.35285 Y-3.36752
G01 X-3.34604 Y-3.36142
G01 X-3.33832 Y-3.35265
G01 X-3.33301 Y-3.34494
G01 X-3.32817 Y-3.33607
G01 X-3.32382 Y-3.32568
G01 X-3.32007 Y-3.31318
G01 X-3.31815 Y-3.30405
G01 X-3.30272 Y-3.29613
G01 X-3.29532 Y-3.29100
G01 X-3.28857 Y-3.28527
G01 X-3.21670 Y-3.21351
G01 X-3.20698 Y-3.20180
G01 X-3.20492 Y-3.19154
G01 X-3.20415 Y-3.18033
G01 X-3.20415 Y-3.00118
G01 X-3.19877 Y-2.98790
G01 X-3.19513 Y-2.97518
G01 X-3.19303 Y-2.96311
G01 X-3.19227 Y-2.95167
G01 X-3.19303 Y-2.93689
G01 X-3.19513 Y-2.92482
G01 X-3.19877 Y-2.91210
G01 X-3.20436 Y-2.89836
G01 X-3.20879 Y-2.88967
G01 X-3.21805 Y-2.87470
G01 X-3.22469 Y-2.86559
G01 X-3.23844 Y-2.84929
G01 X-3.24190 Y-2.84190
G01 X-3.31421 Y-2.81155
G01 X-3.32983 Y-2.80652
G01 X-3.33891 Y-2.80489
G01 X-3.35324 Y-2.80415
G01 X-3.36310 Y-2.80051
G01 X-3.37380 Y-2.79915
G01 X-3.42559 Y-2.79911
G01 X-3.43332 Y-2.79978
G01 X-3.44144 Y-2.80188
G01 X-3.44946 Y-2.80540
G01 X-3.45513 Y-2.80889
G01 X-3.46999 Y-2.80332
G01 X-3.48533 Y-2.80003
G01 X-3.49575 Y-2.79918
G01 X-3.51126 Y-2.79999
G01 X-3.52686 Y-2.80332
G01 X-3.53862 Y-2.80751
G01 X-3.55656 Y-2.81668
G01 X-3.57182 Y-2.82713
G01 X-3.57971 Y-2.83025
G01 X-3.59754 Y-2.83564
G01 X-3.61541 Y-2.83901
G01 X-3.65223 Y-2.82267
G01 X-3.67170 Y-2.81579
G01 X-3.70585 Y-2.80711
G01 X-3.71894 Y-2.80469
G01 X-3.72142 Y-2.80488
G01 X-3.73473 Y-2.80949
G01 X-3.80926 Y-2.80978
G01 X-3.88031 Y-2.73874
G01 X-3.89026 Y-2.72736
G01 X-3.89717 Y-2.71631
G01 X-3.90121 Y-2.70551
G01 X-3.90258 Y-2.69459
G01 X-3.90262 Y-2.67459
G01 X-3.90409 Y-2.66279
G01 X-3.90879 Y-2.64987
G01 X-3.91707 Y-2.63656
G01 X-3.93037 Y-2.62191
G01 X-3.93310 Y-2.62108
G01 X-4.00219 Y-2.62108
G01 X-4.06752 Y-2.60566
G01 X-4.07972 Y-2.60141
G01 X-4.09048 Y-2.59485
G01 X-4.10013 Y-2.58581
G01 X-4.10879 Y-2.57404
G01 X-4.13956 Y-2.52426
G01 X-4.12001 Y-2.47707
G01 X-4.08096 Y-2.43859
G01 X-4.07671 Y-2.43593
G01 X-4.07271 Y-2.43444
G01 X-4.06859 Y-2.43392
G01 X-3.93141 Y-2.43392
G01 X-3.92729 Y-2.43444
G01 X-3.92329 Y-2.43593
G01 X-3.91904 Y-2.43859
G01 X-3.91446 Y-2.44260
G01 X-3.88421 Y-2.47232
G01 X-3.83526 Y-2.49260
G01 X-3.83250 Y-2.49297
G01 X-3.74813 Y-2.52792
G01 X-3.74037 Y-2.53175
G01 X-3.73367 Y-2.53633
G01 X-3.72785 Y-2.54175
G01 X-3.72348 Y-2.54725
G01 X-3.72143 Y-2.56807
G01 X-3.71871 Y-2.58175
G01 X-3.70095 Y-2.59464
G01 X-3.68240 Y-2.60984
G01 X-3.67029 Y-2.61780
G01 X-3.66230 Y-2.62214
G01 X-3.64777 Y-2.62854
G01 X-3.63030 Y-2.63419
G01 X-3.60877 Y-2.63878
G01 X-3.58320 Y-2.64159
G01 X-3.52878 Y-2.66403
G01 X-3.32604 Y-2.66412
G01 X-3.30653 Y-2.66937
G01 X-3.28029 Y-2.67398
G01 X-3.27156 Y-2.67490
G01 X-3.24589 Y-2.67581
G01 X-3.21996 Y-2.67402
G01 X-3.16360 Y-2.66601
G01 X-3.08077 Y-2.65703
G01 X-3.05492 Y-2.65327
G01 X-3.05492 Y-3.59508
G01 X-3.05689 Y-3.59311
G01 X-4.11092 Y-3.59311
G01 X-4.11585 Y-3.50030
G01 X-4.11256 Y-3.42541
G01 X-4.10960 Y-3.38560
G01 X-4.10789 Y-3.37057
G01 X-4.10387 Y-3.34946
G01 X-4.09818 Y-3.33278
G01 X-4.09524 Y-3.32115
G01 X-4.09359 Y-3.30986
G01 X-4.09315 Y-3.30132
G01 X-4.09359 Y-3.29014
G01 X-4.09524 Y-3.27885
G01 X-4.09818 Y-3.26722
G01 X-4.10387 Y-3.25054
G01 X-4.10607 Y-3.24089
G01 X-4.10952 Y-3.21507
G01 X-4.10324 Y-3.21633
G01 X-4.07267 Y-3.22669
G01 X-4.06094 Y-3.22921
G01 X-4.04676 Y-3.23061
G01 X-4.01284 Y-3.23071
G01 X-4.00309 Y-3.23140
G01 X-3.99352 Y-3.23345
G01 X-3.98386 Y-3.23688
G01 X-3.97277 Y-3.24232
G01 X-3.97068 Y-3.24264
G01 X-3.92826 Y-3.24256
G01 X-3.91614 Y-3.23688
G01 X-3.90648 Y-3.23345
G01 X-3.89691 Y-3.23140
G01 X-3.88716 Y-3.23071
G01 X-3.81292 Y-3.23071
G01 X-3.80009 Y-3.23191
G01 X-3.79283 Y-3.23394
G01 X-3.79613 Y-3.25054
G01 X-3.80182 Y-3.26722
G01 X-3.80483 Y-3.27921
G01 X-3.80641 Y-3.29014
G01 X-3.80684 Y-3.29832
G01 X-3.80641 Y-3.30986
G01 X-3.80402 Y-3.32461
G01 X-3.79400 Y-3.35732
G01 X-3.79119 Y-3.36032
G01 X-3.78095 Y-3.36343
G01 X-3.76766 Y-3.36597
G01 X-3.75391 Y-3.36714
G01 X-3.74573 Y-3.36713
G01 X-3.73271 Y-3.36602
G01 X-3.71932 Y-3.36349
G01 X-3.68474 Y-3.36960
G01 X-3.67311 Y-3.37074
G01 X-3.45396 Y-3.37078
G01 X-3.43710 Y-3.37532
G01 X-3.42484 Y-3.37661
G01 X-3.37681 Y-3.37665
G01 X-3.36788 Y-3.37605
G01 X-3.35987 Y-3.37472
G01 X-3.35167 Y-3.36909
G01 X-3.34463 Y-3.36280
G01 X-3.33678 Y-3.35387
G01 X-3.33135 Y-3.34600
G01 X-3.32641 Y-3.33696
G01 X-3.32199 Y-3.32638
G01 X-3.31817 Y-3.31369
G01 X-3.31640 Y-3.30543
G01 X-3.30162 Y-3.29777
G01 X-3.29415 Y-3.29259
G01 X-3.28725 Y-3.28673
G01 X-3.21531 Y-3.21490
G01 X-3.20520 Y-3.20264
G01 X-3.20297 Y-3.19183
G01 X-3.20219 Y-3.18038
G01 X-3.20219 Y-3.00160
G01 X-3.19690 Y-2.98851
G01 X-3.19320 Y-2.97559
G01 X-3.19108 Y-2.96332
G01 X-3.19031 Y-2.95178
G01 X-3.19108 Y-2.93668
G01 X-3.19320 Y-2.92441
G01 X-3.19690 Y-2.91149
G01 X-3.20256 Y-2.89756
G01 X-3.20708 Y-2.88869
G01 X-3.21640 Y-2.87363
G01 X-3.22316 Y-2.86435
G01 X-3.23675 Y-2.84824
G01 X-3.24051 Y-2.84051
G01 X-3.24275 Y-2.83902
G01 X-3.31346 Y-2.80973
G01 X-3.32936 Y-2.80461
G01 X-3.33871 Y-2.80293
G01 X-3.35289 Y-2.80219
G01 X-3.36263 Y-2.79860
G01 X-3.37356 Y-2.79719
G01 X-3.42559 Y-2.79714
G01 X-3.43349 Y-2.79782
G01 X-3.44195 Y-2.79998
G01 X-3.45026 Y-2.80360
G01 X-3.45529 Y-2.80667
G01 X-3.46948 Y-2.80142
G01 X-3.48502 Y-2.79808
G01 X-3.49575 Y-2.79721
G01 X-3.51147 Y-2.79804
G01 X-3.52737 Y-2.80142
G01 X-3.53942 Y-2.80571
G01 X-3.55755 Y-2.81498
G01 X-3.57280 Y-2.82540
G01 X-3.58040 Y-2.82841
G01 X-3.59797 Y-2.83372
G01 X-3.61515 Y-2.83698
G01 X-3.65148 Y-2.82085
G01 X-3.67104 Y-2.81394
G01 X-3.70539 Y-2.80519
G01 X-3.71859 Y-2.80275
G01 X-3.72206 Y-2.80302
G01 X-3.73509 Y-2.80753
G01 X-3.80845 Y-2.80781
G01 X-3.87887 Y-2.73739
G01 X-3.88868 Y-2.72618
G01 X-3.89539 Y-2.71543
G01 X-3.89929 Y-2.70504
G01 X-3.90061 Y-2.69447
G01 X-3.90066 Y-2.67435
G01 X-3.90214 Y-2.66255
G01 X-3.90695 Y-2.64918
G01 X-3.91559 Y-2.63526
G01 X-3.92927 Y-2.62027
G01 X-3.93310 Y-2.61911
G01 X-4.00196 Y-2.61911
G01 X-4.06697 Y-2.60376
G01 X-4.07888 Y-2.59962
G01 X-4.08928 Y-2.59327
G01 X-4.09865 Y-2.58450
G01 X-4.10715 Y-2.57294
G01 X-4.13735 Y-2.52408
G01 X-4.11834 Y-2.47818
G01 X-4.07978 Y-2.44017
G01 X-4.07584 Y-2.43771
G01 X-4.07224 Y-2.43636
G01 X-4.06847 Y-2.43589
G01 X-3.93153 Y-2.43589
G01 X-3.92776 Y-2.43636
G01 X-3.92416 Y-2.43771
G01 X-3.92022 Y-2.44017
G01 X-3.91581 Y-2.44403
G01 X-3.88720 Y-2.47265
G01 X-3.88496 Y-2.47414
G01 X-3.83601 Y-2.49441
G01 X-3.83289 Y-2.49494
G01 X-3.74895 Y-2.52971
G01 X-3.74137 Y-2.53345
G01 X-3.73490 Y-2.53788
G01 X-3.72930 Y-2.54309
G01 X-3.72536 Y-2.54805
G01 X-3.72338 Y-2.56838
G01 X-3.72139 Y-2.58029
G01 X-3.72035 Y-2.58284
G01 X-3.71839 Y-2.58478
G01 X-3.70215 Y-2.59620
G01 X-3.68360 Y-2.61140
G01 X-3.67132 Y-2.61948
G01 X-3.66314 Y-2.62392
G01 X-3.64852 Y-2.63036
G01 X-3.63086 Y-2.63608
G01 X-3.60940 Y-2.64068
G01 X-3.58366 Y-2.64353
G01 X-3.52917 Y-2.66596
G01 X-3.32633 Y-2.66609
G01 X-3.30693 Y-2.67129
G01 X-3.28060 Y-2.67593
G01 X-3.27166 Y-2.67687
G01 X-3.24589 Y-2.67778
G01 X-3.21976 Y-2.67598
G01 X-3.16337 Y-2.66796
G01 X-3.08054 Y-2.65899
G01 X-3.05689 Y-2.65558
G01 X-3.05689 Y-3.59311
G04 P0 ( dwell for no time -- G64 should not smooth over this point )
G00 Z0.08000 ( retract )

G00 X-4.11848 Y-3.59902 ( rapid move to begin. )
G01 F180.00000
G01 Z-0.04000
G04 P0 ( dwell for no time -- G64 should not smooth over this point )
G01 F360.00000
G01 X-4.11848 Y-3.59902
G01 X-4.12373 Y-3.50038
G01 X-4.12205 Y-3.45485
G01 X-4.11744 Y-3.38488
G01 X-4.11570 Y-3.36953
G01 X-4.11149 Y-3.34746
G01 X-4.10568 Y-3.33037
G01 X-4.10294 Y-3.31954
G01 X-4.10171 Y-3.31177
G01 X-4.10102 Y-3.30129
G01 X-4.10171 Y-3.28823
G01 X-4.10359 Y-3.27740
G01 X-4.11147 Y-3.25261
G01 X-4.11380 Y-3.24241
G01 X-4.11570 Y-3.23047
G01 X-4.11803 Y-3.20711
G01 X-4.13274 Y-3.19877
G01 X-4.14649 Y-3.19223
G01 X-4.17138 Y-3.18297
G01 X-4.17987 Y-3.18046
G01 X-4.21119 Y-3.17349
G01 X-4.24067 Y-3.16967
G01 X-4.26222 Y-3.16817
G01 X-4.26895 Y-3.18354
G01 X-4.34098 Y-3.25499
G01 X-4.35473 Y-3.26607
G01 X-4.36664 Y-3.27384
G01 X-4.38053 Y-3.28078
G01 X-4.39834 Y-3.28731
G01 X-4.40952 Y-3.28954
G01 X-4.41979 Y-3.29023
G01 X-4.67406 Y-3.29063
G01 X-4.74303 Y-3.31564
G01 X-4.78818 Y-3.33361
G01 X-4.82245 Y-3.34858
G01 X-4.85866 Y-3.36548
G01 X-4.89902 Y-3.38543
G01 X-4.89902 Y-3.59902
G01 X-4.11848 Y-3.59902
G01 X-4.12056 Y-3.59705
G01 X-4.89705 Y-3.59705
G01 X-4.89705 Y-3.38664
G01 X-4.85781 Y-3.36725
G01 X-4.82164 Y-3.35037
G01 X-4.78742 Y-3.33542
G01 X-4.74234 Y-3.31748
G01 X-4.67371 Y-3.29260
G01 X-4.41971 Y-3.29220
G01 X-4.40923 Y-3.29149
G01 X-4.39777 Y-3.28919
G01 X-4.37977 Y-3.28260
G01 X-4.36571 Y-3.27557
G01 X-4.35355 Y-3.26765
G01 X-4.33966 Y-3.25645
G01 X-4.26756 Y-3.18493
G01 X-4.26096 Y-3.17022
G01 X-4.24088 Y-3.17162
G01 X-4.21150 Y-3.17543
G01 X-4.18037 Y-3.18236
G01 X-4.17199 Y-3.18484
G01 X-4.14729 Y-3.19403
G01 X-4.13363 Y-3.20053
G01 X-4.11992 Y-3.20828
G01 X-4.11765 Y-3.23070
G01 X-4.11571 Y-3.24285
G01 X-4.11335 Y-3.25319
G01 X-4.10551 Y-3.27786
G01 X-4.10366 Y-3.28849
G01 X-4.10299 Y-3.29876
G01 X-4.10366 Y-3.31151
G01 X-4.10551 Y-3.32214
G01 X-4.11335 Y-3.34681
G01 X-4.11575 Y-3.35734
G01 X-4.11939 Y-3.38462
G01 X-4.12238 Y-3.42481
G01 X-4.12570 Y-3.50047
G01 X-4.12056 Y-3.59705
G01 X-4.12264 Y-3.59508
G01 X-4.89508 Y-3.59508
G01 X-4.89508 Y-3.38785
G01 X-4.85696 Y-3.36903
G01 X-4.82083 Y-3.35216
G01 X-4.78666 Y-3.33724
G01 X-4.74164 Y-3.31932
G01 X-4.67337 Y-3.29457
G01 X-4.41967 Y-3.29416
G01 X-4.40590 Y-3.29299
G01 X-4.39158 Y-3.28936
G01 X-4.37559 Y-3.28290
G01 X-4.36457 Y-3.27719
G01 X-4.35238 Y-3.26923
G01 X-4.33833 Y-3.25791
G01 X-4.26616 Y-3.18633
G01 X-4.25971 Y-3.17227
G01 X-4.24108 Y-3.17358
G01 X-4.21180 Y-3.17738
G01 X-4.18088 Y-3.18426
G01 X-4.17260 Y-3.18672
G01 X-4.14809 Y-3.19583
G01 X-4.13452 Y-3.20228
G01 X-4.12181 Y-3.20946
G01 X-4.11961 Y-3.23092
G01 X-4.11770 Y-3.24297
G01 X-4.11523 Y-3.25377
G01 X-4.10742 Y-3.27832
G01 X-4.10562 Y-3.28875
G01 X-4.10496 Y-3.30119
G01 X-4.10562 Y-3.31125
G01 X-4.10742 Y-3.32168
G01 X-4.11533 Y-3.34658
G01 X-4.11958 Y-3.36886
G01 X-4.12136 Y-3.38459
G01 X-4.12435 Y-3.42470
G01 X-4.12766 Y-3.50056
G01 X-4.12264 Y-3.59508
G01 X-4.12472 Y-3.59311
G01 X-4.89311 Y-3.59311
G01 X-4.89311 Y-3.38908
G01 X-4.85610 Y-3.37080
G01 X-4.82002 Y-3.35396
G01 X-4.78590 Y-3.33905
G01 X-4.74094 Y-3.32116
G01 X-4.67302 Y-3.29653
G01 X-4.41962 Y-3.29613
G01 X-4.40562 Y-3.29493
G01 X-4.39092 Y-3.29121
G01 X-4.37479 Y-3.28470
G01 X-4.36356 Y-3.27888
G01 X-4.35121 Y-3.27081
G01 X-4.33701 Y-3.25937
G01 X-4.26477 Y-3.18772
G01 X-4.26332 Y-3.18558
G01 X-4.25845 Y-3.17431
G01 X-4.24128 Y-3.17554
G01 X-4.21211 Y-3.17932
G01 X-4.18139 Y-3.18617
G01 X-4.17321 Y-3.18859
G01 X-4.14889 Y-3.19762
G01 X-4.13542 Y-3.20404
G01 X-4.12369 Y-3.21063
G01 X-4.12156 Y-3.23114
G01 X-4.11964 Y-3.24328
G01 X-4.11711 Y-3.25435
G01 X-4.10934 Y-3.27878
G01 X-4.10757 Y-3.28900
G01 X-4.10692 Y-3.30114
G01 X-4.10757 Y-3.31100
G01 X-4.10934 Y-3.32122
G01 X-4.11725 Y-3.34615
G01 X-4.12152 Y-3.36856
G01 X-4.12333 Y-3.38444
G01 X-4.12632 Y-3.42460
G01 X-4.12963 Y-3.50065
G01 X-4.12472 Y-3.59311
G04 P0 ( dwell for no time -- G64 should not smooth over this point )
G00 Z0.08000 ( retract )

G00 X-4.50003 Y-2.83161 ( rapid move to begin. )
G01 F180.00000
G01 Z-0.04000
G04 P0 ( dwell for no time -- G64 should not smooth over this point )
G01 F360.00000
G01 X-4.50003 Y-2.83161
G01 X-4.49982 Y-2.83039
G01 X-4.51000 Y-2.82083
G01 X-4.51485 Y-2.81780
G01 X-4.51965 Y-2.81600
G01 X-4.52447 Y-2.81539
G01 X-4.57550 Y-2.81539
G01 X-4.58237 Y-2.81661
G01 X-4.58964 Y-2.82043
G01 X-4.60741 Y-2.82091
G01 X-4.61654 Y-2.82274
G01 X-4.62494 Y-2.82561
G01 X-4.63291 Y-2.82891
G01 X-4.69220 Y-2.88819
G01 X-4.70731 Y-2.89459
G01 X-4.71481 Y-2.89865
G01 X-4.72432 Y-2.90499
G01 X-4.73439 Y-2.91357
G01 X-4.74542 Y-2.92633
G01 X-4.74768 Y-2.93864
G01 X-4.74834 Y-2.94898
G01 X-4.74768 Y-2.96136
G01 X-4.74542 Y-2.97366
G01 X-4.73439 Y-2.98643
G01 X-4.72432 Y-2.99501
G01 X-4.71481 Y-3.00134
G01 X-4.70731 Y-3.00541
G01 X-4.69554 Y-3.01051
G01 X-4.68154 Y-3.01495
G01 X-4.66441 Y-3.01851
G01 X-4.64273 Y-3.02077
G01 X-4.62601 Y-3.02117
G01 X-4.58843 Y-3.01894
G01 X-4.55230 Y-3.05499
G01 X-4.52950 Y-3.06223
G01 X-4.49801 Y-3.07516
G01 X-4.47469 Y-3.09855
G01 X-4.46730 Y-3.10671
G01 X-4.45819 Y-3.11847
G01 X-4.45170 Y-3.12881
G01 X-4.44706 Y-3.13811
G01 X-4.44379 Y-3.14670
G01 X-4.44159 Y-3.15486
G01 X-4.43988 Y-3.16831
G01 X-4.44085 Y-3.18377
G01 X-4.44258 Y-3.19172
G01 X-4.44526 Y-3.19999
G01 X-4.45064 Y-3.21156
G01 X-4.55458 Y-3.21170
G01 X-4.56846 Y-3.21782
G01 X-4.58040 Y-3.22484
G01 X-4.60980 Y-3.24605
G01 X-4.67102 Y-3.28865
G01 X-4.41980 Y-3.28826
G01 X-4.40979 Y-3.28759
G01 X-4.39889 Y-3.28542
G01 X-4.38129 Y-3.27897
G01 X-4.36759 Y-3.27211
G01 X-4.35588 Y-3.26448
G01 X-4.34228 Y-3.25352
G01 X-4.27047 Y-3.18228
G01 X-4.26392 Y-3.16713
G01 X-4.29278 Y-3.09747
G01 X-4.30484 Y-3.08547
G01 X-4.32131 Y-3.06727
G01 X-4.32801 Y-3.05901
G01 X-4.35423 Y-3.02153
G01 X-4.37810 Y-2.99043
G01 X-4.38841 Y-2.97464
G01 X-4.39398 Y-2.96434
G01 X-4.40298 Y-2.94378
G01 X-4.40639 Y-2.93414
G01 X-4.41076 Y-2.93232
G01 X-4.41920 Y-2.93077
G01 X-4.43868 Y-2.92579
G01 X-4.45467 Y-2.91982
G01 X-4.46311 Y-2.91580
G01 X-4.47504 Y-2.90884
G01 X-4.48553 Y-2.90115
G01 X-4.49507 Y-2.89244
G01 X-4.50089 Y-2.86299
G01 X-4.50170 Y-2.84747
G01 X-4.50003 Y-2.83161
G01 X-4.50198 Y-2.83130
G01 X-4.50367 Y-2.84737
G01 X-4.50338 Y-2.85813
G01 X-4.50195 Y-2.86886
G01 X-4.49674 Y-2.89348
G01 X-4.48681 Y-2.90265
G01 X-4.47615 Y-2.91046
G01 X-4.46405 Y-2.91753
G01 X-4.45552 Y-2.92160
G01 X-4.43340 Y-2.92941
G01 X-4.41132 Y-2.93422
G01 X-4.40796 Y-2.93562
G01 X-4.40480 Y-2.94453
G01 X-4.39576 Y-2.96519
G01 X-4.39008 Y-2.97567
G01 X-4.37972 Y-2.99155
G01 X-4.35582 Y-3.02268
G01 X-4.32953 Y-3.06024
G01 X-4.32277 Y-3.06859
G01 X-4.30630 Y-3.08679
G01 X-4.29444 Y-3.09859
G01 X-4.26606 Y-3.16712
G01 X-4.27213 Y-3.18116
G01 X-4.34357 Y-3.25203
G01 X-4.35701 Y-3.26287
G01 X-4.36856 Y-3.27040
G01 X-4.38207 Y-3.27716
G01 X-4.39942 Y-3.28352
G01 X-4.41003 Y-3.28564
G01 X-4.41982 Y-3.28629
G01 X-4.66460 Y-3.28663
G01 X-4.57932 Y-3.22648
G01 X-4.56754 Y-3.21956
G01 X-4.55420 Y-3.21365
G01 X-4.45013 Y-3.21349
G01 X-4.44880 Y-3.21250
G01 X-4.44737 Y-3.20973
G01 X-4.44149 Y-3.19505
G01 X-4.43932 Y-3.18639
G01 X-4.43818 Y-3.17839
G01 X-4.43786 Y-3.17030
G01 X-4.43834 Y-3.16254
G01 X-4.44025 Y-3.15192
G01 X-4.44521 Y-3.13743
G01 X-4.45000 Y-3.12781
G01 X-4.45660 Y-3.11730
G01 X-4.46587 Y-3.10535
G01 X-4.47333 Y-3.09712
G01 X-4.49706 Y-3.07340
G01 X-4.52880 Y-3.06040
G01 X-4.55126 Y-3.05325
G01 X-4.58759 Y-3.01716
G01 X-4.61422 Y-3.01889
G01 X-4.64263 Y-3.01881
G01 X-4.66410 Y-3.01657
G01 X-4.68103 Y-3.01305
G01 X-4.68985 Y-3.01043
G01 X-4.70291 Y-3.00533
G01 X-4.71639 Y-2.99807
G01 X-4.72316 Y-2.99342
G01 X-4.73131 Y-2.98663
G01 X-4.73855 Y-2.97918
G01 X-4.74362 Y-2.97278
G01 X-4.74595 Y-2.95904
G01 X-4.74637 Y-2.94903
G01 X-4.74595 Y-2.94096
G01 X-4.74362 Y-2.92722
G01 X-4.73855 Y-2.92082
G01 X-4.73299 Y-2.91497
G01 X-4.72516 Y-2.90811
G01 X-4.71639 Y-2.90193
G01 X-4.70642 Y-2.89634
G01 X-4.69102 Y-2.88976
G01 X-4.63179 Y-2.83058
G01 X-4.61602 Y-2.82463
G01 X-4.60429 Y-2.82258
G01 X-4.58932 Y-2.82237
G01 X-4.58172 Y-2.81850
G01 X-4.57533 Y-2.81736
G01 X-4.52459 Y-2.81736
G01 X-4.52012 Y-2.81792
G01 X-4.51572 Y-2.81957
G01 X-4.51117 Y-2.82241
G01 X-4.50643 Y-2.82657
G01 X-4.50193 Y-2.83106
G01 X-4.50404 Y-2.83174
G01 X-4.50480 Y-2.83659
G01 X-4.50564 Y-2.84752
G01 X-4.50536 Y-2.85808
G01 X-4.50387 Y-2.86927
G01 X-4.49910 Y-2.89269
G01 X-4.49816 Y-2.89489
G01 X-4.49217 Y-2.90066
G01 X-4.48196 Y-2.90885
G01 X-4.46475 Y-2.91938
G01 X-4.45078 Y-2.92569
G01 X-4.43980 Y-2.92957
G01 X-4.40953 Y-2.93710
G01 X-4.40140 Y-2.95792
G01 X-4.39754 Y-2.96604
G01 X-4.39176 Y-2.97670
G01 X-4.38134 Y-2.99266
G01 X-4.35742 Y-3.02383
G01 X-4.33106 Y-3.06148
G01 X-4.32423 Y-3.06991
G01 X-4.30776 Y-3.08811
G01 X-4.29611 Y-3.09971
G01 X-4.26819 Y-3.16710
G01 X-4.27379 Y-3.18003
G01 X-4.34486 Y-3.25054
G01 X-4.35815 Y-3.26126
G01 X-4.36953 Y-3.26869
G01 X-4.38284 Y-3.27535
G01 X-4.39994 Y-3.28162
G01 X-4.41027 Y-3.28368
G01 X-4.41985 Y-3.28432
G01 X-4.65813 Y-3.28460
G01 X-4.57823 Y-3.22813
G01 X-4.56663 Y-3.22131
G01 X-4.55381 Y-3.21561
G01 X-4.44945 Y-3.21533
G01 X-4.44674 Y-3.21290
G01 X-4.44153 Y-3.20127
G01 X-4.43873 Y-3.19256
G01 X-4.43620 Y-3.17840
G01 X-4.43589 Y-3.17025
G01 X-4.43638 Y-3.16239
G01 X-4.43834 Y-3.15148
G01 X-4.44338 Y-3.13670
G01 X-4.44831 Y-3.12680
G01 X-4.45502 Y-3.11614
G01 X-4.46441 Y-3.10403
G01 X-4.47194 Y-3.09573
G01 X-4.49596 Y-3.07177
G01 X-4.52809 Y-3.05856
G01 X-4.55022 Y-3.05151
G01 X-4.58676 Y-3.01538
G01 X-4.58924 Y-3.01493
G01 X-4.61433 Y-3.01692
G01 X-4.62602 Y-3.01723
G01 X-4.64253 Y-3.01684
G01 X-4.66380 Y-3.01462
G01 X-4.68052 Y-3.01114
G01 X-4.68925 Y-3.00856
G01 X-4.70211 Y-3.00353
G01 X-4.71532 Y-2.99642
G01 X-4.72200 Y-2.99182
G01 X-4.73000 Y-2.98516
G01 X-4.73709 Y-2.97786
G01 X-4.74182 Y-2.97189
G01 X-4.74398 Y-2.95889
G01 X-4.74440 Y-2.95092
G01 X-4.74398 Y-2.94111
G01 X-4.74182 Y-2.92811
G01 X-4.73709 Y-2.92214
G01 X-4.73000 Y-2.91484
G01 X-4.72392 Y-2.90964
G01 X-4.71532 Y-2.90358
G01 X-4.70553 Y-2.89810
G01 X-4.68984 Y-2.89134
G01 X-4.63068 Y-2.83225
G01 X-4.61549 Y-2.82653
G01 X-4.60415 Y-2.82455
G01 X-4.58900 Y-2.82431
G01 X-4.58107 Y-2.82038
G01 X-4.57516 Y-2.81933
G01 X-4.52472 Y-2.81933
G01 X-4.52060 Y-2.81985
G01 X-4.51660 Y-2.82134
G01 X-4.51235 Y-2.82400
G01 X-4.50777 Y-2.82801
G01 X-4.50404 Y-2.83174
G01 X-4.50614 Y-2.83242
G01 X-4.50676 Y-2.83639
G01 X-4.50761 Y-2.84752
G01 X-4.50732 Y-2.85819
G01 X-4.50580 Y-2.86968
G01 X-4.50104 Y-2.89300
G01 X-4.49973 Y-2.89607
G01 X-4.49345 Y-2.90216
G01 X-4.48316 Y-2.91042
G01 X-4.46560 Y-2.92116
G01 X-4.45154 Y-2.92751
G01 X-4.44036 Y-2.93145
G01 X-4.41109 Y-2.93858
G01 X-4.40322 Y-2.95867
G01 X-4.39915 Y-2.96720
G01 X-4.39344 Y-2.97773
G01 X-4.38296 Y-2.99378
G01 X-4.35902 Y-3.02498
G01 X-4.33259 Y-3.06272
G01 X-4.32569 Y-3.07123
G01 X-4.30922 Y-3.08943
G01 X-4.29777 Y-3.10084
G01 X-4.27033 Y-3.16708
G01 X-4.27544 Y-3.17890
G01 X-4.34615 Y-3.24905
G01 X-4.35928 Y-3.25965
G01 X-4.37050 Y-3.26698
G01 X-4.38362 Y-3.27354
G01 X-4.40047 Y-3.27973
G01 X-4.41051 Y-3.28173
G01 X-4.41987 Y-3.28236
G01 X-4.65165 Y-3.28254
G01 X-4.57715 Y-3.22977
G01 X-4.56572 Y-3.22305
G01 X-4.55343 Y-3.21757
G01 X-4.45134 Y-3.21760
G01 X-4.44760 Y-3.21662
G01 X-4.44497 Y-3.21377
G01 X-4.43980 Y-3.20224
G01 X-4.43690 Y-3.19335
G01 X-4.43504 Y-3.18482
G01 X-4.43408 Y-3.17647
G01 X-4.43398 Y-3.16816
G01 X-4.43473 Y-3.15974
G01 X-4.43642 Y-3.15103
G01 X-4.43921 Y-3.14186
G01 X-4.44337 Y-3.13200
G01 X-4.45343 Y-3.11497
G01 X-4.46272 Y-3.10298
G01 X-4.47032 Y-3.09458
G01 X-4.49382 Y-3.07099
G01 X-4.49606 Y-3.06949
G01 X-4.52738 Y-3.05672
G01 X-4.54917 Y-3.04977
G01 X-4.58592 Y-3.01360
G01 X-4.58940 Y-3.01297
G01 X-4.61443 Y-3.01496
G01 X-4.62602 Y-3.01526
G01 X-4.64243 Y-3.01487
G01 X-4.66349 Y-3.01268
G01 X-4.68001 Y-3.00924
G01 X-4.69342 Y-3.00500
G01 X-4.70463 Y-3.00015
G01 X-4.71186 Y-2.99623
G01 X-4.72085 Y-2.99023
G01 X-4.73021 Y-2.98225
G01 X-4.74002 Y-2.97100
G01 X-4.74183 Y-2.96058
G01 X-4.74243 Y-2.94913
G01 X-4.74183 Y-2.93942
G01 X-4.74002 Y-2.92900
G01 X-4.73021 Y-2.91775
G01 X-4.72085 Y-2.90977
G01 X-4.71186 Y-2.90377
G01 X-4.70463 Y-2.89985
G01 X-4.68866 Y-2.89291
G01 X-4.62956 Y-2.83391
G01 X-4.62275 Y-2.83109
G01 X-4.61496 Y-2.82843
G01 X-4.60669 Y-2.82678
G01 X-4.58868 Y-2.82625
G01 X-4.58042 Y-2.82226
G01 X-4.57498 Y-2.82130
G01 X-4.52484 Y-2.82130
G01 X-4.52107 Y-2.82177
G01 X-4.51747 Y-2.82312
G01 X-4.51353 Y-2.82558
G01 X-4.50614 Y-2.83242
G04 P0 ( dwell for no time -- G64 should not smooth over this point )
G00 Z0.08000 ( retract )

G00 X-4.15664 Y-2.70908 ( rapid move to begin. )
G01 F180.00000
G01 Z-0.04000
G04 P0 ( dwell for no time -- G64 should not smooth over this point )
G01 F360.00000
G01 X-4.15664 Y-2.70908
G01 X-4.13616 Y-2.71543
G01 X-4.12738 Y-2.71929
G01 X-4.12198 Y-2.72799
G01 X-4.11514 Y-2.74109
G01 X-4.08540 Y-2.81258
G01 X-4.08247 Y-2.81815
G01 X-4.07869 Y-2.82279
G01 X-4.07405 Y-2.82657
G01 X-4.06848 Y-2.82950
G01 X-3.96402 Y-2.87277
G01 X-3.93113 Y-2.87277
G01 X-3.91625 Y-2.87185
G01 X-3.90139 Y-2.86910
G01 X-3.88652 Y-2.86452
G01 X-3.87164 Y-2.85810
G01 X-3.85675 Y-2.84984
G01 X-3.84184 Y-2.83974
G01 X-3.82693 Y-2.82779
G01 X-3.81273 Y-2.81467
G01 X-3.88460 Y-2.74280
G01 X-3.89506 Y-2.73082
G01 X-3.90243 Y-2.71902
G01 X-3.90698 Y-2.70694
G01 X-3.90848 Y-2.69502
G01 X-3.90848 Y-2.67526
G01 X-3.90994 Y-2.66364
G01 X-3.91429 Y-2.65204
G01 X-3.92157 Y-2.64039
G01 X-3.93351 Y-2.62698
G01 X-4.00288 Y-2.62698
G01 X-4.06913 Y-2.61135
G01 X-4.08226 Y-2.60677
G01 X-4.09415 Y-2.59950
G01 X-4.10461 Y-2.58967
G01 X-4.11370 Y-2.57732
G01 X-4.14603 Y-2.52450
G01 X-4.12500 Y-2.47373
G01 X-4.08455 Y-2.43388
G01 X-4.07925 Y-2.43058
G01 X-4.07414 Y-2.42867
G01 X-4.06890 Y-2.42801
G01 X-3.93110 Y-2.42801
G01 X-3.92586 Y-2.42867
G01 X-3.92075 Y-2.43058
G01 X-3.91545 Y-2.43388
G01 X-3.91045 Y-2.43826
G01 X-3.88177 Y-2.46694
G01 X-3.83318 Y-2.48706
G01 X-3.83115 Y-2.48714
G01 X-3.74572 Y-2.52252
G01 X-3.73745 Y-2.52661
G01 X-3.73003 Y-2.53167
G01 X-3.72346 Y-2.53778
G01 X-3.71785 Y-2.54493
G01 X-3.71560 Y-2.56717
G01 X-3.71373 Y-2.57843
G01 X-3.69736 Y-2.58995
G01 X-3.67883 Y-2.60514
G01 X-3.66723 Y-2.61275
G01 X-3.65974 Y-2.61682
G01 X-3.64554 Y-2.62307
G01 X-3.62865 Y-2.62852
G01 X-3.60799 Y-2.63293
G01 X-3.58166 Y-2.63584
G01 X-3.52763 Y-2.65821
G01 X-3.32526 Y-2.65822
G01 X-3.30527 Y-2.66360
G01 X-3.27939 Y-2.66815
G01 X-3.25409 Y-2.66991
G01 X-3.24591 Y-2.66991
G01 X-3.22060 Y-2.66815
G01 X-3.16431 Y-2.66014
G01 X-3.08146 Y-2.65117
G01 X-3.05098 Y-2.64665
G01 X-3.05098 Y-2.35098
G01 X-4.89902 Y-2.35098
G01 X-4.89902 Y-2.70917
G01 X-4.87292 Y-2.71026
G01 X-4.84652 Y-2.71031
G01 X-4.81067 Y-2.70820
G01 X-4.79159 Y-2.70623
G01 X-4.77338 Y-2.70337
G01 X-4.74135 Y-2.69652
G01 X-4.69610 Y-2.68527
G01 X-4.64031 Y-2.67351
G01 X-4.62142 Y-2.66860
G01 X-4.37846 Y-2.66860
G01 X-4.35151 Y-2.67525
G01 X-4.33158 Y-2.67841
G01 X-4.30408 Y-2.68029
G01 X-4.28096 Y-2.67973
G01 X-4.15664 Y-2.70908
G01 X-4.15614 Y-2.70717
G01 X-4.28051 Y-2.67781
G01 X-4.30403 Y-2.67832
G01 X-4.33132 Y-2.67646
G01 X-4.35115 Y-2.67331
G01 X-4.37821 Y-2.66665
G01 X-4.62142 Y-2.66663
G01 X-4.64076 Y-2.67159
G01 X-4.69656 Y-2.68336
G01 X-4.76400 Y-2.69963
G01 X-4.79184 Y-2.70427
G01 X-4.82156 Y-2.70708
G01 X-4.84657 Y-2.70834
G01 X-4.87290 Y-2.70829
G01 X-4.89705 Y-2.70731
G01 X-4.89705 Y-2.35295
G01 X-3.05295 Y-2.35295
G01 X-3.05295 Y-2.64497
G01 X-3.08169 Y-2.64922
G01 X-3.16456 Y-2.65819
G01 X-3.22893 Y-2.66704
G01 X-3.25404 Y-2.66794
G01 X-3.27914 Y-2.66620
G01 X-3.30481 Y-2.66169
G01 X-3.32526 Y-2.65625
G01 X-3.52723 Y-2.65625
G01 X-3.58090 Y-2.63402
G01 X-3.60768 Y-2.63099
G01 X-3.62814 Y-2.62662
G01 X-3.64483 Y-2.62124
G01 X-3.65884 Y-2.61507
G01 X-3.66625 Y-2.61105
G01 X-3.67767 Y-2.60355
G01 X-3.69614 Y-2.58840
G01 X-3.71195 Y-2.57724
G01 X-3.71365 Y-2.56692
G01 X-3.71598 Y-2.54432
G01 X-3.72191 Y-2.53656
G01 X-3.72892 Y-2.53004
G01 X-3.73657 Y-2.52485
G01 X-3.74497 Y-2.52070
G01 X-3.83039 Y-2.48532
G01 X-3.83279 Y-2.48510
G01 X-3.88065 Y-2.46527
G01 X-3.90915 Y-2.43678
G01 X-3.91453 Y-2.43212
G01 X-3.92006 Y-2.42874
G01 X-3.92539 Y-2.42676
G01 X-3.93110 Y-2.42605
G01 X-4.06890 Y-2.42605
G01 X-4.07461 Y-2.42676
G01 X-4.08047 Y-2.42900
G01 X-4.08585 Y-2.43240
G01 X-4.09099 Y-2.43691
G01 X-4.12663 Y-2.47264
G01 X-4.14796 Y-2.52411
G01 X-4.14758 Y-2.52625
G01 X-4.11524 Y-2.57855
G01 X-4.10584 Y-2.59124
G01 X-4.09502 Y-2.60130
G01 X-4.08310 Y-2.60855
G01 X-4.06958 Y-2.61326
G01 X-4.00311 Y-2.62893
G01 X-3.93432 Y-2.62895
G01 X-3.92315 Y-2.64157
G01 X-3.91606 Y-2.65291
G01 X-3.91186 Y-2.66411
G01 X-3.91045 Y-2.67538
G01 X-3.91043 Y-2.69527
G01 X-3.90889 Y-2.70741
G01 X-3.90410 Y-2.72006
G01 X-3.89673 Y-2.73186
G01 X-3.88599 Y-2.74419
G01 X-3.81556 Y-2.81461
G01 X-3.82821 Y-2.82630
G01 X-3.84301 Y-2.83816
G01 X-3.85778 Y-2.84817
G01 X-3.87251 Y-2.85634
G01 X-3.88720 Y-2.86267
G01 X-3.90186 Y-2.86719
G01 X-3.91649 Y-2.86989
G01 X-3.93119 Y-2.87080
G01 X-3.96363 Y-2.87080
G01 X-4.06765 Y-2.82771
G01 X-4.07296 Y-2.82492
G01 X-4.07730 Y-2.82140
G01 X-4.08082 Y-2.81706
G01 X-4.08361 Y-2.81174
G01 X-4.11337 Y-2.74024
G01 X-4.12031 Y-2.72693
G01 X-4.12653 Y-2.71739
G01 X-4.13552 Y-2.71357
G01 X-4.15614 Y-2.70717
G01 X-4.15713 Y-2.71098
G01 X-4.28128 Y-2.68167
G01 X-4.30411 Y-2.68226
G01 X-4.33181 Y-2.68037
G01 X-4.35189 Y-2.67718
G01 X-4.37871 Y-2.67056
G01 X-4.62129 Y-2.67056
G01 X-4.63988 Y-2.67543
G01 X-4.69567 Y-2.68719
G01 X-4.76318 Y-2.70348
G01 X-4.79131 Y-2.70817
G01 X-4.82129 Y-2.71101
G01 X-4.84645 Y-2.71228
G01 X-4.87296 Y-2.71223
G01 X-4.89902 Y-2.71114
G01 X-4.89902 Y-3.38323
G01 X-4.85950 Y-3.36370
G01 X-4.82328 Y-3.34679
G01 X-4.78896 Y-3.33180
G01 X-4.74373 Y-3.31379
G01 X-4.67468 Y-3.28877
G01 X-4.64369 Y-3.26749
G01 X-4.58151 Y-3.22321
G01 X-4.56939 Y-3.21609
G01 X-4.55836 Y-3.21100
G01 X-4.55496 Y-3.20975
G01 X-4.55179 Y-3.20963
G01 X-4.45175 Y-3.20971
G01 X-4.44522 Y-3.19380
G01 X-4.44319 Y-3.18567
G01 X-4.44209 Y-3.17792
G01 X-4.44185 Y-3.16839
G01 X-4.44254 Y-3.16076
G01 X-4.44408 Y-3.15284
G01 X-4.44665 Y-3.14444
G01 X-4.45340 Y-3.12978
G01 X-4.46429 Y-3.11351
G01 X-4.47613 Y-3.09989
G01 X-4.49926 Y-3.07669
G01 X-4.53020 Y-3.06408
G01 X-4.55340 Y-3.05666
G01 X-4.58922 Y-3.02085
G01 X-4.61404 Y-3.02282
G01 X-4.64280 Y-3.02274
G01 X-4.66469 Y-3.02046
G01 X-4.68207 Y-3.01684
G01 X-4.69621 Y-3.01236
G01 X-4.70449 Y-3.00894
G01 X-4.71856 Y-3.00136
G01 X-4.72761 Y-2.99496
G01 X-4.73397 Y-2.98953
G01 X-4.74149 Y-2.98179
G01 X-4.74720 Y-2.97454
G01 X-4.74987 Y-2.95938
G01 X-4.75031 Y-2.95105
G01 X-4.74987 Y-2.94067
G01 X-4.74727 Y-2.92563
G01 X-4.74314 Y-2.92014
G01 X-4.73393 Y-2.91043
G01 X-4.72761 Y-2.90504
G01 X-4.71856 Y-2.89864
G01 X-4.70818 Y-2.89282
G01 X-4.69334 Y-2.88656
G01 X-4.63401 Y-2.82726
G01 X-4.61704 Y-2.82083
G01 X-4.60461 Y-2.81866
G01 X-4.59004 Y-2.81847
G01 X-4.58301 Y-2.81474
G01 X-4.57559 Y-2.81343
G01 X-4.52429 Y-2.81343
G01 X-4.51917 Y-2.81408
G01 X-4.51389 Y-2.81608
G01 X-4.50876 Y-2.81929
G01 X-4.49862 Y-2.82881
G01 X-4.48628 Y-2.82181
G01 X-4.47229 Y-2.81642
G01 X-4.46182 Y-2.81417
G01 X-4.44890 Y-2.81350
G01 X-4.43895 Y-2.81455
G01 X-4.42497 Y-2.81835
G01 X-4.29851 Y-2.81838
G01 X-4.28600 Y-2.81994
G01 X-4.27620 Y-2.82292
G01 X-4.26432 Y-2.82860
G01 X-4.25239 Y-2.83660
G01 X-4.23798 Y-2.84929
G01 X-4.21077 Y-2.87650
G01 X-4.19543 Y-2.88293
G01 X-4.05423 Y-3.02365
G01 X-4.03963 Y-3.03544
G01 X-4.02582 Y-3.04466
G01 X-4.00729 Y-3.05472
G01 X-3.99672 Y-3.05952
G01 X-3.72611 Y-3.05952
G01 X-3.70588 Y-3.06496
G01 X-3.67970 Y-3.06956
G01 X-3.65409 Y-3.07134
G01 X-3.62848 Y-3.07042
G01 X-3.60229 Y-3.06670
G01 X-3.59412 Y-3.06496
G01 X-3.56713 Y-3.05727
G01 X-3.54181 Y-3.05220
G01 X-3.52122 Y-3.04594
G01 X-3.48094 Y-3.02973
G01 X-3.46625 Y-3.02054
G01 X-3.44577 Y-3.00934
G01 X-3.45438 Y-2.98095
G01 X-3.46057 Y-2.95419
G01 X-3.45992 Y-2.93207
G01 X-3.45798 Y-2.90234
G01 X-3.45574 Y-2.88555
G01 X-3.45191 Y-2.86806
G01 X-3.45054 Y-2.85775
G01 X-3.45054 Y-2.84225
G01 X-3.45191 Y-2.83194
G01 X-3.45560 Y-2.81514
G01 X-3.46625 Y-2.81074
G01 X-3.48177 Y-2.80657
G01 X-3.49153 Y-2.80531
G01 X-3.50532 Y-2.80531
G01 X-3.51508 Y-2.80657
G01 X-3.52530 Y-2.80902
G01 X-3.53624 Y-2.81292
G01 X-3.54828 Y-2.81872
G01 X-3.56189 Y-2.82720
G01 X-3.56890 Y-2.83230
G01 X-3.57260 Y-2.83384
G01 X-3.59279 Y-2.84054
G01 X-3.61611 Y-2.84506
G01 X-3.65447 Y-2.82813
G01 X-3.67363 Y-2.82137
G01 X-3.70719 Y-2.81286
G01 X-3.71973 Y-2.81055
G01 X-3.73382 Y-2.81537
G01 X-3.81093 Y-2.81568
G01 X-3.82562 Y-2.82926
G01 X-3.84064 Y-2.84130
G01 X-3.85568 Y-2.85150
G01 X-3.87073 Y-2.85985
G01 X-3.88579 Y-2.86635
G01 X-3.90086 Y-2.87100
G01 X-3.91607 Y-2.87381
G01 X-3.93110 Y-2.87473
G01 X-3.96441 Y-2.87472
G01 X-4.06928 Y-2.83130
G01 X-4.07506 Y-2.82826
G01 X-4.08001 Y-2.82426
G01 X-4.08405 Y-2.81932
G01 X-4.08716 Y-2.81346
G01 X-4.11693 Y-2.74192
G01 X-4.12370 Y-2.72894
G01 X-4.12888 Y-2.72060
G01 X-4.14815 Y-2.71341
G01 X-4.15713 Y-2.71098
G01 X-4.15761 Y-2.71289
G01 X-4.14874 Y-2.71529
G01 X-4.13021 Y-2.72217
G01 X-4.12541 Y-2.72991
G01 X-4.11872 Y-2.74274
G01 X-4.08890 Y-2.81437
G01 X-4.08558 Y-2.82056
G01 X-4.08126 Y-2.82579
G01 X-4.07597 Y-2.83000
G01 X-4.07003 Y-2.83312
G01 X-3.96479 Y-2.87665
G01 X-3.93110 Y-2.87670
G01 X-3.91594 Y-2.87577
G01 X-3.90028 Y-2.87288
G01 X-3.88501 Y-2.86816
G01 X-3.86977 Y-2.86157
G01 X-3.85458 Y-2.85313
G01 X-3.83941 Y-2.84284
G01 X-3.82428 Y-2.83071
G01 X-3.81016 Y-2.81765
G01 X-3.73377 Y-2.81734
G01 X-3.71957 Y-2.81258
G01 X-3.70760 Y-2.81478
G01 X-3.67424 Y-2.82324
G01 X-3.65517 Y-2.82997
G01 X-3.61618 Y-2.84703
G01 X-3.59575 Y-2.84331
G01 X-3.57694 Y-2.83762
G01 X-3.56793 Y-2.83401
G01 X-3.55256 Y-2.82346
G01 X-3.54070 Y-2.81705
G01 X-3.52994 Y-2.81260
G01 X-3.51472 Y-2.80851
G01 X-3.50102 Y-2.80705
G01 X-3.48649 Y-2.80781
G01 X-3.47211 Y-2.81091
G01 X-3.45733 Y-2.81653
G01 X-3.45302 Y-2.83750
G01 X-3.45223 Y-2.85240
G01 X-3.45302 Y-2.86250
G01 X-3.45769 Y-2.88524
G01 X-3.45994 Y-2.90220
G01 X-3.46188 Y-2.93196
G01 X-3.46252 Y-2.95452
G01 X-3.45632 Y-2.98133
G01 X-3.44812 Y-3.00838
G01 X-3.46727 Y-3.01885
G01 X-3.48185 Y-3.02798
G01 X-3.52184 Y-3.04407
G01 X-3.54234 Y-3.05031
G01 X-3.56774 Y-3.05540
G01 X-3.59458 Y-3.06305
G01 X-3.60265 Y-3.06477
G01 X-3.62056 Y-3.06761
G01 X-3.64597 Y-3.06937
G01 X-3.67137 Y-3.06846
G01 X-3.67944 Y-3.06761
G01 X-3.70542 Y-3.06305
G01 X-3.72611 Y-3.05755
G01 X-3.99629 Y-3.05755
G01 X-4.00641 Y-3.05296
G01 X-4.02477 Y-3.04299
G01 X-4.03849 Y-3.03383
G01 X-4.05294 Y-3.02216
G01 X-4.19404 Y-2.88154
G01 X-4.20965 Y-2.87483
G01 X-4.24088 Y-2.84380
G01 X-4.25434 Y-2.83270
G01 X-4.26822 Y-2.82428
G01 X-4.28239 Y-2.81881
G01 X-4.29202 Y-2.81689
G01 X-4.29993 Y-2.81638
G01 X-4.42465 Y-2.81638
G01 X-4.43869 Y-2.81260
G01 X-4.44663 Y-2.81164
G01 X-4.45440 Y-2.81153
G01 X-4.46461 Y-2.81263
G01 X-4.47825 Y-2.81629
G01 X-4.48722 Y-2.82008
G01 X-4.49834 Y-2.82631
G01 X-4.50784 Y-2.81753
G01 X-4.51284 Y-2.81441
G01 X-4.51870 Y-2.81217
G01 X-4.52441 Y-2.81146
G01 X-4.57559 Y-2.81146
G01 X-4.58366 Y-2.81288
G01 X-4.59053 Y-2.81650
G01 X-4.60480 Y-2.81670
G01 X-4.61752 Y-2.81892
G01 X-4.63510 Y-2.82562
G01 X-4.69443 Y-2.88486
G01 X-4.70903 Y-2.89104
G01 X-4.71967 Y-2.89702
G01 X-4.72881 Y-2.90348
G01 X-4.73521 Y-2.90893
G01 X-4.74464 Y-2.91886
G01 X-4.74917 Y-2.92513
G01 X-4.75184 Y-2.94057
G01 X-4.75227 Y-2.95105
G01 X-4.75183 Y-2.95958
G01 X-4.74897 Y-2.97541
G01 X-4.74299 Y-2.98307
G01 X-4.73722 Y-2.98915
G01 X-4.72657 Y-2.99824
G01 X-4.71954 Y-3.00306
G01 X-4.70917 Y-3.00889
G01 X-4.69160 Y-3.01607
G01 X-4.68247 Y-3.01877
G01 X-4.66510 Y-3.02239
G01 X-4.64301 Y-3.02470
G01 X-4.61399 Y-3.02479
G01 X-4.58997 Y-3.02288
G01 X-4.55455 Y-3.05826
G01 X-4.53089 Y-3.06592
G01 X-4.50038 Y-3.07835
G01 X-4.47756 Y-3.10124
G01 X-4.46585 Y-3.11472
G01 X-4.45512 Y-3.13074
G01 X-4.44850 Y-3.14512
G01 X-4.44599 Y-3.15334
G01 X-4.44448 Y-3.16106
G01 X-4.44390 Y-3.17580
G01 X-4.44638 Y-3.19070
G01 X-4.44896 Y-3.19865
G01 X-4.45296 Y-3.20771
G01 X-4.55180 Y-3.20766
G01 X-4.55533 Y-3.20782
G01 X-4.55904 Y-3.20915
G01 X-4.57035 Y-3.21437
G01 X-4.58264 Y-3.22160
G01 X-4.64482 Y-3.26588
G01 X-4.67558 Y-3.28700
G01 X-4.74442 Y-3.31195
G01 X-4.78975 Y-3.32999
G01 X-4.82411 Y-3.34500
G01 X-4.86039 Y-3.36194
G01 X-4.89705 Y-3.38004
G01 X-4.89705 Y-2.71322
G01 X-4.87302 Y-2.71420
G01 X-4.84635 Y-2.71424
G01 X-4.82114 Y-2.71297
G01 X-4.79100 Y-2.71012
G01 X-4.76275 Y-2.70540
G01 X-4.69524 Y-2.68911
G01 X-4.63947 Y-2.67735
G01 X-4.62104 Y-2.67253
G01 X-4.37896 Y-2.67253
G01 X-4.35230 Y-2.67910
G01 X-4.33201 Y-2.68233
G01 X-4.30411 Y-2.68422
G01 X-4.28147 Y-2.68365
G01 X-4.15761 Y-2.71289
G01 X-4.15808 Y-2.71480
G01 X-4.14933 Y-2.71717
G01 X-4.13155 Y-2.72374
G01 X-4.12051 Y-2.74356
G01 X-4.09064 Y-2.81529
G01 X-4.08711 Y-2.82180
G01 X-4.08250 Y-2.82731
G01 X-4.07689 Y-2.83175
G01 X-4.07078 Y-2.83493
G01 X-3.96422 Y-2.87867
G01 X-3.93110 Y-2.87867
G01 X-3.91582 Y-2.87774
G01 X-3.89970 Y-2.87476
G01 X-3.88423 Y-2.86996
G01 X-3.86882 Y-2.86329
G01 X-3.85347 Y-2.85476
G01 X-3.83818 Y-2.84438
G01 X-3.82321 Y-2.83238
G01 X-3.80939 Y-2.81962
G01 X-3.73372 Y-2.81931
G01 X-3.71942 Y-2.81460
G01 X-3.70801 Y-2.81671
G01 X-3.67485 Y-2.82512
G01 X-3.65587 Y-2.83181
G01 X-3.61625 Y-2.84900
G01 X-3.59183 Y-2.84436
G01 X-3.57118 Y-2.83751
G01 X-3.56696 Y-2.83573
G01 X-3.54640 Y-2.82218
G01 X-3.53474 Y-2.81655
G01 X-3.52418 Y-2.81280
G01 X-3.51436 Y-2.81044
G01 X-3.50501 Y-2.80923
G01 X-3.49184 Y-2.80923
G01 X-3.48249 Y-2.81044
G01 X-3.47267 Y-2.81280
G01 X-3.45906 Y-2.81791
G01 X-3.45578 Y-2.83266
G01 X-3.45447 Y-2.84256
G01 X-3.45447 Y-2.85744
G01 X-3.45578 Y-2.86734
G01 X-3.45963 Y-2.88494
G01 X-3.46189 Y-2.90188
G01 X-3.46385 Y-2.93185
G01 X-3.46450 Y-2.95412
G01 X-3.45823 Y-2.98178
G01 X-3.45047 Y-3.00742
G01 X-3.46829 Y-3.01717
G01 X-3.48276 Y-3.02623
G01 X-3.52246 Y-3.04220
G01 X-3.54286 Y-3.04841
G01 X-3.56835 Y-3.05353
G01 X-3.59504 Y-3.06113
G01 X-3.60301 Y-3.06283
G01 X-3.62879 Y-3.06650
G01 X-3.65398 Y-3.06740
G01 X-3.67918 Y-3.06566
G01 X-3.70496 Y-3.06114
G01 X-3.72611 Y-3.05558
G01 X-3.99588 Y-3.05558
G01 X-4.00552 Y-3.05120
G01 X-4.02372 Y-3.04133
G01 X-4.03736 Y-3.03222
G01 X-4.05166 Y-3.02067
G01 X-4.19265 Y-2.88015
G01 X-4.20854 Y-2.87316
G01 X-4.23526 Y-2.84644
G01 X-4.24988 Y-2.83357
G01 X-4.26230 Y-2.82522
G01 X-4.27487 Y-2.81921
G01 X-4.28523 Y-2.81608
G01 X-4.29842 Y-2.81445
G01 X-4.42433 Y-2.81441
G01 X-4.43813 Y-2.81070
G01 X-4.44890 Y-2.80956
G01 X-4.46223 Y-2.81026
G01 X-4.47326 Y-2.81261
G01 X-4.48788 Y-2.81822
G01 X-4.49805 Y-2.82380
G01 X-4.50617 Y-2.81633
G01 X-4.51180 Y-2.81274
G01 X-4.51823 Y-2.81026
G01 X-4.52441 Y-2.80949
G01 X-4.57559 Y-2.80949
G01 X-4.58430 Y-2.81102
G01 X-4.59102 Y-2.81453
G01 X-4.60500 Y-2.81474
G01 X-4.61800 Y-2.81701
G01 X-4.63620 Y-2.82398
G01 X-4.69552 Y-2.88317
G01 X-4.70987 Y-2.88926
G01 X-4.72079 Y-2.89540
G01 X-4.73001 Y-2.90191
G01 X-4.73649 Y-2.90744
G01 X-4.74613 Y-2.91758
G01 X-4.75107 Y-2.92462
G01 X-4.75381 Y-2.94047
G01 X-4.75424 Y-2.95105
G01 X-4.75379 Y-2.95979
G01 X-4.75222 Y-2.97048
G01 X-4.75073 Y-2.97629
G01 X-4.74613 Y-2.98242
G01 X-4.73865 Y-2.99051
G01 X-4.72768 Y-2.99986
G01 X-4.72057 Y-3.00474
G01 X-4.71011 Y-3.01062
G01 X-4.69216 Y-3.01796
G01 X-4.68293 Y-3.02069
G01 X-4.66546 Y-3.02432
G01 X-4.64317 Y-3.02666
G01 X-4.61394 Y-3.02676
G01 X-4.59072 Y-3.02492
G01 X-4.55569 Y-3.05986
G01 X-4.53157 Y-3.06777
G01 X-4.50150 Y-3.08002
G01 X-4.47899 Y-3.10260
G01 X-4.46740 Y-3.11593
G01 X-4.45684 Y-3.13170
G01 X-4.45034 Y-3.14581
G01 X-4.44789 Y-3.15383
G01 X-4.44643 Y-3.16136
G01 X-4.44587 Y-3.17570
G01 X-4.44829 Y-3.19021
G01 X-4.45081 Y-3.19796
G01 X-4.45418 Y-3.20569
G01 X-4.55180 Y-3.20569
G01 X-4.55571 Y-3.20589
G01 X-4.55973 Y-3.20731
G01 X-4.57131 Y-3.21265
G01 X-4.58376 Y-3.21998
G01 X-4.64594 Y-3.26426
G01 X-4.67648 Y-3.28523
G01 X-4.74511 Y-3.31011
G01 X-4.79041 Y-3.32814
G01 X-4.82494 Y-3.34322
G01 X-4.86117 Y-3.36013
G01 X-4.89508 Y-3.37688
G01 X-4.89508 Y-2.71530
G01 X-4.87307 Y-2.71616
G01 X-4.84625 Y-2.71621
G01 X-4.82098 Y-2.71494
G01 X-4.79070 Y-2.71206
G01 X-4.76231 Y-2.70732
G01 X-4.69480 Y-2.69103
G01 X-4.63906 Y-2.67928
G01 X-4.62079 Y-2.67450
G01 X-4.37922 Y-2.67450
G01 X-4.35271 Y-2.68103
G01 X-4.33222 Y-2.68428
G01 X-4.30437 Y-2.68619
G01 X-4.28166 Y-2.68563
G01 X-4.15808 Y-2.71480
G01 X-4.15855 Y-2.71671
G01 X-4.14992 Y-2.71905
G01 X-4.13288 Y-2.72531
G01 X-4.12230 Y-2.74437
G01 X-4.09238 Y-2.81621
G01 X-4.08864 Y-2.82304
G01 X-4.08374 Y-2.82884
G01 X-4.07780 Y-2.83349
G01 X-4.07154 Y-2.83675
G01 X-3.96685 Y-2.88011
G01 X-3.96422 Y-2.88064
G01 X-3.93110 Y-2.88064
G01 X-3.91570 Y-2.87970
G01 X-3.89912 Y-2.87664
G01 X-3.88345 Y-2.87177
G01 X-3.86786 Y-2.86501
G01 X-3.85237 Y-2.85639
G01 X-3.83695 Y-2.84591
G01 X-3.82198 Y-2.83392
G01 X-3.80862 Y-2.82159
G01 X-3.73367 Y-2.82127
G01 X-3.71926 Y-2.81663
G01 X-3.70841 Y-2.81864
G01 X-3.67546 Y-2.82699
G01 X-3.65658 Y-2.83365
G01 X-3.62539 Y-2.84759
G01 X-3.61632 Y-2.85097
G01 X-3.59135 Y-2.84626
G01 X-3.57047 Y-2.83935
G01 X-3.56599 Y-2.83744
G01 X-3.54546 Y-2.82391
G01 X-3.53398 Y-2.81837
G01 X-3.52362 Y-2.81468
G01 X-3.51400 Y-2.81238
G01 X-3.50485 Y-2.81120
G01 X-3.49199 Y-2.81120
G01 X-3.48285 Y-2.81238
G01 X-3.47323 Y-2.81468
G01 X-3.46079 Y-2.81930
G01 X-3.45692 Y-2.83801
G01 X-3.45617 Y-2.84771
G01 X-3.45643 Y-2.85728
G01 X-3.45771 Y-2.86698
G01 X-3.46157 Y-2.88463
G01 X-3.46384 Y-2.90165
G01 X-3.46581 Y-2.93173
G01 X-3.46647 Y-2.95408
G01 X-3.46015 Y-2.98222
G01 X-3.45282 Y-3.00646
G01 X-3.46931 Y-3.01549
G01 X-3.48367 Y-3.02448
G01 X-3.52308 Y-3.04033
G01 X-3.54339 Y-3.04651
G01 X-3.56896 Y-3.05166
G01 X-3.59550 Y-3.05922
G01 X-3.60337 Y-3.06089
G01 X-3.62894 Y-3.06453
G01 X-3.65393 Y-3.06543
G01 X-3.67892 Y-3.06371
G01 X-3.70450 Y-3.05922
G01 X-3.72611 Y-3.05362
G01 X-3.99546 Y-3.05361
G01 X-4.00464 Y-3.04944
G01 X-4.02266 Y-3.03967
G01 X-4.03622 Y-3.03061
G01 X-4.05037 Y-3.01918
G01 X-4.19125 Y-2.87876
G01 X-4.19349 Y-2.87726
G01 X-4.20742 Y-2.87149
G01 X-4.23390 Y-2.84501
G01 X-4.24863 Y-2.83205
G01 X-4.26129 Y-2.82353
G01 X-4.27421 Y-2.81736
G01 X-4.28452 Y-2.81422
G01 X-4.29511 Y-2.81264
G01 X-4.42402 Y-2.81244
G01 X-4.43772 Y-2.80878
G01 X-4.44890 Y-2.80759
G01 X-4.46243 Y-2.80830
G01 X-4.47377 Y-2.81071
G01 X-4.48333 Y-2.81404
G01 X-4.49774 Y-2.82134
G01 X-4.50487 Y-2.81485
G01 X-4.51076 Y-2.81107
G01 X-4.51776 Y-2.80835
G01 X-4.52441 Y-2.80752
G01 X-4.57559 Y-2.80752
G01 X-4.58494 Y-2.80916
G01 X-4.59152 Y-2.81257
G01 X-4.60519 Y-2.81278
G01 X-4.61848 Y-2.81510
G01 X-4.63729 Y-2.82235
G01 X-4.69661 Y-2.88148
G01 X-4.71072 Y-2.88749
G01 X-4.72190 Y-2.89378
G01 X-4.73121 Y-2.90035
G01 X-4.73776 Y-2.90594
G01 X-4.74763 Y-2.91630
G01 X-4.75297 Y-2.92411
G01 X-4.75574 Y-2.94000
G01 X-4.75621 Y-2.94895
G01 X-4.75574 Y-2.96000
G01 X-4.75409 Y-2.97115
G01 X-4.75250 Y-2.97716
G01 X-4.74574 Y-2.98589
G01 X-4.73982 Y-2.99212
G01 X-4.73149 Y-2.99942
G01 X-4.71889 Y-3.00807
G01 X-4.70675 Y-3.01439
G01 X-4.69305 Y-3.01974
G01 X-4.68339 Y-3.02260
G01 X-4.66582 Y-3.02626
G01 X-4.65445 Y-3.02774
G01 X-4.62583 Y-3.02904
G01 X-4.61352 Y-3.02871
G01 X-4.59147 Y-3.02695
G01 X-4.55684 Y-3.06146
G01 X-4.53225 Y-3.06961
G01 X-4.50261 Y-3.08169
G01 X-4.48042 Y-3.10395
G01 X-4.46896 Y-3.11713
G01 X-4.45857 Y-3.13265
G01 X-4.45219 Y-3.14649
G01 X-4.44980 Y-3.15432
G01 X-4.44837 Y-3.16165
G01 X-4.44784 Y-3.17560
G01 X-4.45019 Y-3.18971
G01 X-4.45544 Y-3.20371
G01 X-4.55180 Y-3.20372
G01 X-4.55609 Y-3.20396
G01 X-4.56041 Y-3.20546
G01 X-4.57227 Y-3.21093
G01 X-4.58489 Y-3.21837
G01 X-4.64707 Y-3.26265
G01 X-4.67739 Y-3.28346
G01 X-4.74580 Y-3.30826
G01 X-4.79114 Y-3.32631
G01 X-4.82577 Y-3.34144
G01 X-4.86200 Y-3.35835
G01 X-4.89311 Y-3.37371
G01 X-4.89311 Y-2.71738
G01 X-4.87312 Y-2.71813
G01 X-4.84615 Y-2.71818
G01 X-4.82083 Y-2.71690
G01 X-4.79039 Y-2.71401
G01 X-4.76188 Y-2.70924
G01 X-4.69437 Y-2.69295
G01 X-4.63865 Y-2.68121
G01 X-4.62053 Y-2.67647
G01 X-4.37947 Y-2.67647
G01 X-4.35312 Y-2.68295
G01 X-4.33242 Y-2.68624
G01 X-4.30447 Y-2.68815
G01 X-4.28185 Y-2.68761
G01 X-4.15855 Y-2.71671

G04 P0 ( dwell for no time -- G64 should not smooth over this point )
G00 Z1.000 ( retract )

M5 ( Spindle off. )
G04 P1.000000
M9 ( Coolant off. )
M2 ( Program end. )

