( pcb2gcode 1.3.2 )
( Software-independent Gcode )

G94 ( Inches per minute feed rate. )
G20 ( Units == INCHES. )

G90 ( Absolute coordinates. )
G00 S12000 ( RPM spindle speed. )
G64 P0.00040 ( set maximum deviation from commanded toolpath )
G01 F360.00000 ( Feedrate. )

G01 F360.00000 ( Feedrate. )
M3 ( Spindle on clockwise. )
G04 P1.00000
G04 P0 ( dwell for no time -- G64 should not smooth over this point )
G00 Z0.08000 ( retract )

G00 X-3.35432 Y-3.21060 ( rapid move to begin. )
G01 F180.00000
G01 Z-0.04000
G04 P0 ( dwell for no time -- G64 should not smooth over this point )
G01 F360.00000
G01 X-3.35432 Y-3.21060
G01 X-3.34523 Y-3.21054
G01 X-3.33743 Y-3.20742
G01 X-3.32642 Y-3.19363
G01 X-3.31707 Y-3.17716
G01 X-3.30901 Y-3.15577
G01 X-3.31097 Y-3.14333
G01 X-3.31475 Y-3.12834
G01 X-3.32052 Y-3.11244
G01 X-3.32881 Y-3.09521
G01 X-3.34051 Y-3.07603
G01 X-3.35712 Y-3.05409
G01 X-3.37786 Y-3.03147
G01 X-3.38859 Y-3.02528
G01 X-3.41271 Y-3.00966
G01 X-3.44460 Y-3.00982
G01 X-3.46575 Y-3.02138
G01 X-3.48048 Y-3.03061
G01 X-3.52091 Y-3.04688
G01 X-3.54155 Y-3.05315
G01 X-3.56683 Y-3.05821
G01 X-3.59389 Y-3.06592
G01 X-3.60211 Y-3.06767
G01 X-3.62840 Y-3.07140
G01 X-3.65411 Y-3.07232
G01 X-3.67982 Y-3.07054
G01 X-3.70611 Y-3.06592
G01 X-3.72611 Y-3.06050
G01 X-3.99693 Y-3.06050
G01 X-4.00773 Y-3.05560
G01 X-4.02635 Y-3.04549
G01 X-4.04019 Y-3.03625
G01 X-4.05487 Y-3.02440
G01 X-4.19612 Y-2.88363
G01 X-4.21132 Y-2.87733
G01 X-4.24601 Y-2.84314
G01 X-4.26174 Y-2.83129
G01 X-4.27257 Y-2.82549
G01 X-4.28311 Y-2.82168
G01 X-4.29545 Y-2.81952
G01 X-4.42513 Y-2.81933
G01 X-4.43915 Y-2.81552
G01 X-4.44678 Y-2.81459
G01 X-4.45425 Y-2.81448
G01 X-4.46400 Y-2.81552
G01 X-4.47733 Y-2.81910
G01 X-4.48991 Y-2.82478
G01 X-4.49876 Y-2.83006
G01 X-4.50044 Y-2.84218
G01 X-4.50044 Y-2.85782
G01 X-4.49906 Y-2.86824
G01 X-4.49424 Y-2.89192
G01 X-4.48489 Y-2.90040
G01 X-4.47448 Y-2.90803
G01 X-4.46264 Y-2.91494
G01 X-4.45425 Y-2.91893
G01 X-4.43840 Y-2.92485
G01 X-4.41897 Y-2.92982
G01 X-4.41049 Y-2.93137
G01 X-4.40561 Y-2.93340
G01 X-4.40207 Y-2.94341
G01 X-4.39310 Y-2.96392
G01 X-4.38757 Y-2.97413
G01 X-4.37728 Y-2.98988
G01 X-4.35343 Y-3.02095
G01 X-4.32724 Y-3.05839
G01 X-4.32058 Y-3.06661
G01 X-4.30411 Y-3.08481
G01 X-4.29194 Y-3.09690
G01 X-4.26285 Y-3.16714
G01 X-4.24057 Y-3.16869
G01 X-4.21104 Y-3.17251
G01 X-4.17961 Y-3.17951
G01 X-4.17108 Y-3.18203
G01 X-4.14609 Y-3.19133
G01 X-4.13229 Y-3.19789
G01 X-4.11709 Y-3.20652
G01 X-4.10146 Y-3.20966
G01 X-4.07886 Y-3.21761
G01 X-4.07067 Y-3.22010
G01 X-4.05992 Y-3.22240
G01 X-4.04643 Y-3.22373
G01 X-4.01260 Y-3.22382
G01 X-4.00212 Y-3.22457
G01 X-3.99164 Y-3.22680
G01 X-3.98116 Y-3.23053
G01 X-3.97068 Y-3.23575
G01 X-3.92932 Y-3.23575
G01 X-3.91884 Y-3.23053
G01 X-3.90836 Y-3.22680
G01 X-3.89788 Y-3.22457
G01 X-3.88740 Y-3.22382
G01 X-3.81260 Y-3.22382
G01 X-3.79883 Y-3.22511
G01 X-3.78507 Y-3.22897
G01 X-3.76970 Y-3.22615
G01 X-3.76188 Y-3.22533
G01 X-3.74609 Y-3.22491
G01 X-3.73030 Y-3.22615
G01 X-3.72199 Y-3.22747
G01 X-3.70511 Y-3.23156
G01 X-3.68705 Y-3.23805
G01 X-3.66576 Y-3.24851
G01 X-3.65734 Y-3.25000
G01 X-3.51215 Y-3.25000
G01 X-3.49442 Y-3.23404
G01 X-3.48079 Y-3.22409
G01 X-3.46879 Y-3.21704
G01 X-3.45437 Y-3.21071
G01 X-3.35432 Y-3.21060
G01 X-3.35422 Y-3.20864
G01 X-3.45475 Y-3.20878
G01 X-3.46966 Y-3.21527
G01 X-3.48192 Y-3.22248
G01 X-3.49570 Y-3.23255
G01 X-3.51295 Y-3.24803
G01 X-3.65716 Y-3.24803
G01 X-3.66508 Y-3.24663
G01 X-3.68624 Y-3.23625
G01 X-3.70460 Y-3.22966
G01 X-3.72168 Y-3.22552
G01 X-3.73010 Y-3.22419
G01 X-3.74599 Y-3.22294
G01 X-3.76208 Y-3.22337
G01 X-3.78500 Y-3.22694
G01 X-3.79865 Y-3.22315
G01 X-3.81242 Y-3.22186
G01 X-3.88754 Y-3.22186
G01 X-3.89829 Y-3.22264
G01 X-3.90877 Y-3.22488
G01 X-3.91950 Y-3.22868
G01 X-3.92978 Y-3.23379
G01 X-3.97022 Y-3.23379
G01 X-3.98028 Y-3.22877
G01 X-3.99098 Y-3.22495
G01 X-4.00171 Y-3.22264
G01 X-4.01260 Y-3.22185
G01 X-4.04937 Y-3.22162
G01 X-4.06715 Y-3.21895
G01 X-4.07824 Y-3.21574
G01 X-4.10083 Y-3.20779
G01 X-4.11638 Y-3.20466
G01 X-4.13135 Y-3.19616
G01 X-4.14534 Y-3.18951
G01 X-4.15325 Y-3.18623
G01 X-4.17905 Y-3.17762
G01 X-4.21078 Y-3.17056
G01 X-4.24032 Y-3.16674
G01 X-4.26150 Y-3.16525
G01 X-4.29031 Y-3.09580
G01 X-4.30269 Y-3.08345
G01 X-4.31908 Y-3.06533
G01 X-4.32568 Y-3.05719
G01 X-4.35184 Y-3.01979
G01 X-4.37569 Y-2.98872
G01 X-4.38586 Y-2.97314
G01 X-4.39134 Y-2.96303
G01 X-4.40023 Y-2.94270
G01 X-4.40407 Y-2.93217
G01 X-4.40993 Y-2.92949
G01 X-4.41856 Y-2.92789
G01 X-4.43780 Y-2.92297
G01 X-4.45345 Y-2.91713
G01 X-4.46175 Y-2.91318
G01 X-4.47341 Y-2.90638
G01 X-4.48365 Y-2.89887
G01 X-4.49240 Y-2.89095
G01 X-4.49713 Y-2.86788
G01 X-4.49848 Y-2.85767
G01 X-4.49848 Y-2.84233
G01 X-4.49697 Y-2.83126
G01 X-4.48503 Y-2.82449
G01 X-4.47667 Y-2.82095
G01 X-4.46364 Y-2.81745
G01 X-4.45419 Y-2.81645
G01 X-4.43951 Y-2.81745
G01 X-4.42513 Y-2.82130
G01 X-4.29559 Y-2.82148
G01 X-4.28363 Y-2.82357
G01 X-4.27337 Y-2.82729
G01 X-4.26279 Y-2.83296
G01 X-4.24729 Y-2.84463
G01 X-4.21242 Y-2.87897
G01 X-4.19724 Y-2.88530
G01 X-4.05612 Y-3.02592
G01 X-4.04136 Y-3.03783
G01 X-4.02736 Y-3.04718
G01 X-4.00866 Y-3.05733
G01 X-3.99734 Y-3.06243
G01 X-3.72643 Y-3.06247
G01 X-3.70652 Y-3.06785
G01 X-3.68003 Y-3.07250
G01 X-3.65411 Y-3.07429
G01 X-3.62820 Y-3.07336
G01 X-3.61987 Y-3.07248
G01 X-3.59348 Y-3.06785
G01 X-3.56638 Y-3.06013
G01 X-3.54107 Y-3.05506
G01 X-3.52025 Y-3.04873
G01 X-3.47973 Y-3.03243
G01 X-3.46476 Y-3.02308
G01 X-3.44410 Y-3.01179
G01 X-3.41329 Y-3.01163
G01 X-3.38966 Y-3.02693
G01 X-3.37907 Y-3.03305
G01 X-3.35862 Y-3.05538
G01 X-3.33851 Y-3.08265
G01 X-3.33053 Y-3.09616
G01 X-3.32233 Y-3.11322
G01 X-3.31506 Y-3.13441
G01 X-3.31102 Y-3.15560
G01 X-3.31646 Y-3.17094
G01 X-3.32197 Y-3.18250
G01 X-3.33128 Y-3.19704
G01 X-3.33860 Y-3.20577
G01 X-3.34271 Y-3.20751
G01 X-3.34561 Y-3.20858
G01 X-3.35422 Y-3.20864
G01 X-3.35432 Y-3.21060
G01 X-3.45437 Y-3.21071
G01 X-3.46879 Y-3.21704
G01 X-3.48079 Y-3.22409
G01 X-3.49442 Y-3.23404
G01 X-3.51215 Y-3.25000
G01 X-3.49648 Y-3.26428
G01 X-3.48179 Y-3.27525
G01 X-3.46904 Y-3.28282
G01 X-3.45412 Y-3.28945
G01 X-3.34550 Y-3.28929
G01 X-3.33665 Y-3.29296
G01 X-3.32250 Y-3.30052
G01 X-3.31367 Y-3.29660
G01 X-3.30545 Y-3.29204
G01 X-3.29825 Y-3.28705
G01 X-3.29187 Y-3.28163
G01 X-3.22018 Y-3.21003
G01 X-3.21143 Y-3.19970
G01 X-3.20979 Y-3.19082
G01 X-3.20907 Y-3.18021
G01 X-3.20907 Y-3.00007
G01 X-3.20345 Y-2.98638
G01 X-3.19994 Y-2.97415
G01 X-3.19793 Y-2.96259
G01 X-3.19719 Y-2.95142
G01 X-3.19793 Y-2.93741
G01 X-3.19994 Y-2.92585
G01 X-3.20345 Y-2.91362
G01 X-3.20885 Y-2.90037
G01 X-3.21683 Y-2.88561
G01 X-3.22217 Y-2.87738
G01 X-3.22851 Y-2.86869
G01 X-3.24267 Y-2.85193
G01 X-3.24538 Y-2.84538
G01 X-3.32226 Y-2.81380
G01 X-3.33635 Y-2.81024
G01 X-3.34447 Y-2.80928
G01 X-3.35413 Y-2.80907
G01 X-3.36427 Y-2.80529
G01 X-3.37441 Y-2.80403
G01 X-3.42559 Y-2.80403
G01 X-3.43288 Y-2.80468
G01 X-3.44016 Y-2.80663
G01 X-3.44745 Y-2.80989
G01 X-3.45474 Y-2.81445
G01 X-3.45009 Y-2.83711
G01 X-3.44928 Y-2.85248
G01 X-3.45009 Y-2.86289
G01 X-3.45477 Y-2.88571
G01 X-3.45700 Y-2.90246
G01 X-3.45894 Y-2.93213
G01 X-3.45958 Y-2.95421
G01 X-3.45344 Y-2.98067
G01 X-3.44460 Y-3.00982
G01 X-3.41271 Y-3.00966
G01 X-3.38859 Y-3.02528
G01 X-3.37786 Y-3.03147
G01 X-3.35258 Y-3.05967
G01 X-3.33684 Y-3.08161
G01 X-3.32589 Y-3.10078
G01 X-3.32052 Y-3.11244
G01 X-3.31475 Y-3.12834
G01 X-3.31097 Y-3.14333
G01 X-3.30901 Y-3.15577
G01 X-3.31464 Y-3.17170
G01 X-3.32023 Y-3.18343
G01 X-3.32642 Y-3.19363
G01 X-3.33323 Y-3.20266
G01 X-3.33743 Y-3.20742
G01 X-3.34523 Y-3.21054
G01 X-3.35432 Y-3.21060
G01 X-3.35437 Y-3.21257
G01 X-3.34485 Y-3.21247
G01 X-3.33666 Y-3.20923
G01 X-3.32811 Y-3.19937
G01 X-3.31853 Y-3.18440
G01 X-3.31280 Y-3.17240
G01 X-3.30713 Y-3.15636
G01 X-3.30903 Y-3.14298
G01 X-3.31286 Y-3.12780
G01 X-3.31869 Y-3.11171
G01 X-3.32411 Y-3.09996
G01 X-3.33520 Y-3.08052
G01 X-3.35560 Y-3.05285
G01 X-3.37647 Y-3.03008
G01 X-3.41197 Y-3.00783
G01 X-3.44314 Y-3.00786
G01 X-3.45154 Y-2.98016
G01 X-3.45761 Y-2.95400
G01 X-3.45697 Y-2.93222
G01 X-3.45505 Y-2.90266
G01 X-3.45283 Y-2.88606
G01 X-3.44815 Y-2.86320
G01 X-3.44731 Y-2.85258
G01 X-3.44815 Y-2.83680
G01 X-3.45254 Y-2.81540
G01 X-3.44652 Y-2.81163
G01 X-3.43950 Y-2.80850
G01 X-3.43253 Y-2.80663
G01 X-3.42550 Y-2.80600
G01 X-3.37453 Y-2.80600
G01 X-3.36474 Y-2.80721
G01 X-3.35448 Y-2.81101
G01 X-3.33963 Y-2.81174
G01 X-3.33146 Y-2.81322
G01 X-3.32288 Y-2.81567
G01 X-3.24689 Y-2.84689
G01 X-3.24435 Y-2.85297
G01 X-3.23007 Y-2.86989
G01 X-3.22379 Y-2.87850
G01 X-3.21851 Y-2.88664
G01 X-3.21063 Y-2.90122
G01 X-3.20403 Y-2.91818
G01 X-3.20117 Y-2.92954
G01 X-3.19958 Y-2.94051
G01 X-3.19915 Y-2.94864
G01 X-3.19958 Y-2.95949
G01 X-3.20117 Y-2.97046
G01 X-3.20531 Y-2.98572
G01 X-3.21104 Y-3.00007
G01 X-3.21104 Y-3.18019
G01 X-3.21174 Y-3.19058
G01 X-3.21324 Y-3.19884
G01 X-3.22159 Y-3.20865
G01 X-3.29321 Y-3.28018
G01 X-3.29946 Y-3.28550
G01 X-3.30650 Y-3.29037
G01 X-3.32235 Y-3.29833
G01 X-3.33579 Y-3.29119
G01 X-3.34517 Y-3.28735
G01 X-3.45378 Y-3.28747
G01 X-3.46813 Y-3.28108
G01 X-3.48070 Y-3.27360
G01 X-3.49524 Y-3.26275
G01 X-3.50930 Y-3.24998
G01 X-3.49317 Y-3.23556
G01 X-3.47971 Y-3.22574
G01 X-3.46788 Y-3.21879
G01 X-3.45398 Y-3.21267
G01 X-3.35437 Y-3.21257
G04 P0 ( dwell for no time -- G64 should not smooth over this point )
G00 Z0.08000 ( retract )

G00 X-3.51215 Y-3.25000 ( rapid move to begin. )
G01 F180.00000
G01 Z-0.04000
G04 P0 ( dwell for no time -- G64 should not smooth over this point )
G01 F360.00000
G01 X-3.51215 Y-3.25000
G01 X-3.65734 Y-3.25000
G01 X-3.66576 Y-3.24851
G01 X-3.67923 Y-3.24153
G01 X-3.69729 Y-3.23410
G01 X-3.70511 Y-3.23156
G01 X-3.72199 Y-3.22747
G01 X-3.73812 Y-3.22533
G01 X-3.75391 Y-3.22491
G01 X-3.76970 Y-3.22615
G01 X-3.78507 Y-3.22897
G01 X-3.78947 Y-3.25232
G01 X-3.79736 Y-3.27717
G01 X-3.79926 Y-3.28810
G01 X-3.79997 Y-3.29868
G01 X-3.79926 Y-3.31190
G01 X-3.79736 Y-3.32283
G01 X-3.78779 Y-3.35433
G01 X-3.77170 Y-3.35836
G01 X-3.75391 Y-3.36025
G01 X-3.74124 Y-3.35999
G01 X-3.73343 Y-3.35917
G01 X-3.71947 Y-3.35647
G01 X-3.68369 Y-3.36280
G01 X-3.67296 Y-3.36386
G01 X-3.45278 Y-3.36389
G01 X-3.44129 Y-3.36742
G01 X-3.42720 Y-3.36959
G01 X-3.37140 Y-3.36948
G01 X-3.36201 Y-3.36817
G01 X-3.34956 Y-3.35799
G01 X-3.34396 Y-3.35183
G01 X-3.33889 Y-3.34499
G01 X-3.33429 Y-3.33727
G01 X-3.33014 Y-3.32839
G01 X-3.32647 Y-3.31797
G01 X-3.32250 Y-3.30052
G01 X-3.33665 Y-3.29296
G01 X-3.34550 Y-3.28929
G01 X-3.45412 Y-3.28945
G01 X-3.46904 Y-3.28282
G01 X-3.48179 Y-3.27525
G01 X-3.49648 Y-3.26428
G01 X-3.51215 Y-3.25000
G01 X-3.51293 Y-3.25197
G01 X-3.50334 Y-3.26099
G01 X-3.48849 Y-3.27298
G01 X-3.47000 Y-3.28455
G01 X-3.45444 Y-3.29139
G01 X-3.34584 Y-3.29127
G01 X-3.33748 Y-3.29474
G01 X-3.32468 Y-3.30152
G01 X-3.32836 Y-3.31741
G01 X-3.33434 Y-3.33301
G01 X-3.33884 Y-3.34127
G01 X-3.34375 Y-3.34840
G01 X-3.34909 Y-3.35469
G01 X-3.35704 Y-3.36205
G01 X-3.36278 Y-3.36631
G01 X-3.37705 Y-3.36780
G01 X-3.42705 Y-3.36762
G01 X-3.44084 Y-3.36551
G01 X-3.45278 Y-3.36193
G01 X-3.67290 Y-3.36189
G01 X-3.68337 Y-3.36085
G01 X-3.71913 Y-3.35453
G01 X-3.73368 Y-3.35722
G01 X-3.74614 Y-3.35828
G01 X-3.75386 Y-3.35828
G01 X-3.77134 Y-3.35642
G01 X-3.78615 Y-3.35279
G01 X-3.79545 Y-3.32237
G01 X-3.79731 Y-3.31164
G01 X-3.79800 Y-3.29873
G01 X-3.79731 Y-3.28836
G01 X-3.79545 Y-3.27763
G01 X-3.78755 Y-3.25276
G01 X-3.78333 Y-3.23061
G01 X-3.76944 Y-3.22810
G01 X-3.75386 Y-3.22687
G01 X-3.73828 Y-3.22729
G01 X-3.72235 Y-3.22940
G01 X-3.70567 Y-3.23345
G01 X-3.69795 Y-3.23596
G01 X-3.68007 Y-3.24331
G01 X-3.66644 Y-3.25036
G01 X-3.65734 Y-3.25197
G01 X-3.51293 Y-3.25197
G04 P0 ( dwell for no time -- G64 should not smooth over this point )
G00 Z0.08000 ( retract )

G00 X-3.05000 Y-3.60000 ( rapid move to begin. )
G01 F180.00000
G01 Z-0.04000
G04 P0 ( dwell for no time -- G64 should not smooth over this point )
G01 F360.00000
G01 X-3.05000 Y-3.60000
G01 X-3.05000 Y-2.64749
G01 X-3.08134 Y-2.65215
G01 X-3.16418 Y-2.66112
G01 X-3.22048 Y-2.66912
G01 X-3.24589 Y-2.67089
G01 X-3.25411 Y-2.67089
G01 X-3.27952 Y-2.66912
G01 X-3.30550 Y-2.66456
G01 X-3.32526 Y-2.65920
G01 X-3.52782 Y-2.65920
G01 X-3.58203 Y-2.63674
G01 X-3.60814 Y-2.63390
G01 X-3.62890 Y-2.62948
G01 X-3.64589 Y-2.62399
G01 X-3.65411 Y-2.62059
G01 X-3.66772 Y-2.61360
G01 X-3.67941 Y-2.60594
G01 X-3.69796 Y-2.59073
G01 X-3.71462 Y-2.57902
G01 X-3.71657 Y-2.56730
G01 X-3.71879 Y-2.54524
G01 X-3.72423 Y-2.53840
G01 X-3.73059 Y-2.53248
G01 X-3.73788 Y-2.52749
G01 X-3.74610 Y-2.52343
G01 X-3.83152 Y-2.48805
G01 X-3.83338 Y-2.48805
G01 X-3.88232 Y-2.46777
G01 X-3.91110 Y-2.43900
G01 X-3.91610 Y-2.43462
G01 X-3.92110 Y-2.43150
G01 X-3.92610 Y-2.42962
G01 X-3.93110 Y-2.42900
G01 X-4.06890 Y-2.42900
G01 X-4.07390 Y-2.42962
G01 X-4.07890 Y-2.43150
G01 X-4.08390 Y-2.43462
G01 X-4.08890 Y-2.43900
G01 X-4.12418 Y-2.47428
G01 X-4.14507 Y-2.52470
G01 X-4.11287 Y-2.57680
G01 X-4.10382 Y-2.58909
G01 X-4.09348 Y-2.59878
G01 X-4.08184 Y-2.60588
G01 X-4.06890 Y-2.61039
G01 X-4.00277 Y-2.62600
G01 X-3.93310 Y-2.62600
G01 X-3.92078 Y-2.63980
G01 X-3.91340 Y-2.65160
G01 X-3.90897 Y-2.66340
G01 X-3.90750 Y-2.67520
G01 X-3.90750 Y-2.69490
G01 X-3.90603 Y-2.70670
G01 X-3.90160 Y-2.71850
G01 X-3.89422 Y-2.73030
G01 X-3.88390 Y-2.74210
G01 X-3.81131 Y-2.81470
G01 X-3.73384 Y-2.81439
G01 X-3.71981 Y-2.80953
G01 X-3.70699 Y-2.81189
G01 X-3.67333 Y-2.82043
G01 X-3.65411 Y-2.82721
G01 X-3.61607 Y-2.84408
G01 X-3.59646 Y-2.84044
G01 X-3.57800 Y-2.83487
G01 X-3.56938 Y-2.83144
G01 X-3.55410 Y-2.82094
G01 X-3.54197 Y-2.81439
G01 X-3.52558 Y-2.80808
G01 X-3.51075 Y-2.80489
G01 X-3.49575 Y-2.80410
G01 X-3.48159 Y-2.80560
G01 X-3.46592 Y-2.80982
G01 X-3.45474 Y-2.81445
G01 X-3.44745 Y-2.80989
G01 X-3.44016 Y-2.80663
G01 X-3.43288 Y-2.80468
G01 X-3.42559 Y-2.80403
G01 X-3.37441 Y-2.80403
G01 X-3.36427 Y-2.80529
G01 X-3.35413 Y-2.80907
G01 X-3.34447 Y-2.80928
G01 X-3.33103 Y-2.81130
G01 X-3.31610 Y-2.81610
G01 X-3.24538 Y-2.84538
G01 X-3.24267 Y-2.85193
G01 X-3.22851 Y-2.86869
G01 X-3.22217 Y-2.87738
G01 X-3.21683 Y-2.88561
G01 X-3.20885 Y-2.90037
G01 X-3.20345 Y-2.91362
G01 X-3.19994 Y-2.92585
G01 X-3.19793 Y-2.93741
G01 X-3.19719 Y-2.95142
G01 X-3.19793 Y-2.96259
G01 X-3.19994 Y-2.97415
G01 X-3.20345 Y-2.98638
G01 X-3.20907 Y-3.00007
G01 X-3.20907 Y-3.18021
G01 X-3.20979 Y-3.19082
G01 X-3.21143 Y-3.19970
G01 X-3.22018 Y-3.21003
G01 X-3.29187 Y-3.28163
G01 X-3.29825 Y-3.28705
G01 X-3.30545 Y-3.29204
G01 X-3.31367 Y-3.29660
G01 X-3.32250 Y-3.30052
G01 X-3.32482 Y-3.31189
G01 X-3.32842 Y-3.32391
G01 X-3.33256 Y-3.33385
G01 X-3.33716 Y-3.34229
G01 X-3.34218 Y-3.34959
G01 X-3.34765 Y-3.35603
G01 X-3.35366 Y-3.36178
G01 X-3.36201 Y-3.36817
G01 X-3.37698 Y-3.36976
G01 X-3.42448 Y-3.36973
G01 X-3.43278 Y-3.36902
G01 X-3.44129 Y-3.36742
G01 X-3.45278 Y-3.36389
G01 X-3.67296 Y-3.36386
G01 X-3.68369 Y-3.36280
G01 X-3.71947 Y-3.35647
G01 X-3.73343 Y-3.35917
G01 X-3.74609 Y-3.36025
G01 X-3.75876 Y-3.35999
G01 X-3.76657 Y-3.35917
G01 X-3.77952 Y-3.35669
G01 X-3.78779 Y-3.35433
G01 X-3.79736 Y-3.32283
G01 X-3.79926 Y-3.31190
G01 X-3.79997 Y-3.30132
G01 X-3.79956 Y-3.29086
G01 X-3.79803 Y-3.28028
G01 X-3.79527 Y-3.26935
G01 X-3.78947 Y-3.25232
G01 X-3.78507 Y-3.22897
G01 X-3.79883 Y-3.22511
G01 X-3.81260 Y-3.22382
G01 X-3.88740 Y-3.22382
G01 X-3.89788 Y-3.22457
G01 X-3.90836 Y-3.22680
G01 X-3.91884 Y-3.23053
G01 X-3.92932 Y-3.23575
G01 X-3.97068 Y-3.23575
G01 X-3.98116 Y-3.23053
G01 X-3.99164 Y-3.22680
G01 X-4.00212 Y-3.22457
G01 X-4.01260 Y-3.22382
G01 X-4.04643 Y-3.22373
G01 X-4.05992 Y-3.22240
G01 X-4.07067 Y-3.22010
G01 X-4.07886 Y-3.21761
G01 X-4.10146 Y-3.20966
G01 X-4.11709 Y-3.20652
G01 X-4.11472 Y-3.23036
G01 X-4.11284 Y-3.24220
G01 X-4.11053 Y-3.25232
G01 X-4.10264 Y-3.27717
G01 X-4.10074 Y-3.28810
G01 X-4.10003 Y-3.30132
G01 X-4.10074 Y-3.31190
G01 X-4.10264 Y-3.32283
G01 X-4.11053 Y-3.34768
G01 X-4.11472 Y-3.36964
G01 X-4.11646 Y-3.38496
G01 X-4.11944 Y-3.42497
G01 X-4.12275 Y-3.50033
G01 X-4.11744 Y-3.60000
G01 X-3.05000 Y-3.60000
G01 X-3.05197 Y-3.59803
G01 X-4.11558 Y-3.59803
G01 X-4.12078 Y-3.50032
G01 X-4.11747 Y-3.42509
G01 X-4.11450 Y-3.38514
G01 X-4.11277 Y-3.36990
G01 X-4.10863 Y-3.34818
G01 X-4.10071 Y-3.32324
G01 X-4.09878 Y-3.31210
G01 X-4.09807 Y-3.30132
G01 X-4.09878 Y-3.28790
G01 X-4.10071 Y-3.27676
G01 X-4.10863 Y-3.25182
G01 X-4.11090 Y-3.24182
G01 X-4.11277 Y-3.23010
G01 X-4.11494 Y-3.20896
G01 X-4.10197 Y-3.21156
G01 X-4.07943 Y-3.21949
G01 X-4.07114 Y-3.22201
G01 X-4.06021 Y-3.22434
G01 X-4.04652 Y-3.22570
G01 X-4.01267 Y-3.22579
G01 X-4.00240 Y-3.22652
G01 X-3.99218 Y-3.22870
G01 X-3.98193 Y-3.23235
G01 X-3.97068 Y-3.23772
G01 X-3.92902 Y-3.23770
G01 X-3.91807 Y-3.23235
G01 X-3.90782 Y-3.22870
G01 X-3.89760 Y-3.22652
G01 X-3.88733 Y-3.22579
G01 X-3.81269 Y-3.22579
G01 X-3.79919 Y-3.22705
G01 X-3.78728 Y-3.23039
G01 X-3.79137 Y-3.25182
G01 X-3.79714 Y-3.26874
G01 X-3.79997 Y-3.27998
G01 X-3.80152 Y-3.29076
G01 X-3.80193 Y-3.29868
G01 X-3.80152 Y-3.30924
G01 X-3.79926 Y-3.32334
G01 X-3.78956 Y-3.35518
G01 X-3.78840 Y-3.35620
G01 X-3.77993 Y-3.35862
G01 X-3.76678 Y-3.36113
G01 X-3.75886 Y-3.36196
G01 X-3.74609 Y-3.36222
G01 X-3.73312 Y-3.36111
G01 X-3.71943 Y-3.35848
G01 X-3.68399 Y-3.36474
G01 X-3.67300 Y-3.36582
G01 X-3.45312 Y-3.36586
G01 X-3.44508 Y-3.36847
G01 X-3.43611 Y-3.37050
G01 X-3.42458 Y-3.37169
G01 X-3.37693 Y-3.37173
G01 X-3.36140 Y-3.37004
G01 X-3.35455 Y-3.36510
G01 X-3.34624 Y-3.35740
G01 X-3.34063 Y-3.35081
G01 X-3.33545 Y-3.34326
G01 X-3.33080 Y-3.33474
G01 X-3.32658 Y-3.32462
G01 X-3.32292 Y-3.31240
G01 X-3.32076 Y-3.30193
G01 X-3.30444 Y-3.29373
G01 X-3.29708 Y-3.28863
G01 X-3.29055 Y-3.28308
G01 X-3.21879 Y-3.21142
G01 X-3.20965 Y-3.20054
G01 X-3.20784 Y-3.19111
G01 X-3.20711 Y-3.18026
G01 X-3.20711 Y-3.00054
G01 X-3.20158 Y-2.98699
G01 X-3.19804 Y-2.97466
G01 X-3.19597 Y-2.96280
G01 X-3.19522 Y-2.95152
G01 X-3.19597 Y-2.93720
G01 X-3.19802 Y-2.92544
G01 X-3.20158 Y-2.91301
G01 X-3.20706 Y-2.89957
G01 X-3.21134 Y-2.89115
G01 X-3.22052 Y-2.87631
G01 X-3.22698 Y-2.86745
G01 X-3.24098 Y-2.85087
G01 X-3.24399 Y-2.84399
G01 X-3.31539 Y-2.81426
G01 X-3.33055 Y-2.80939
G01 X-3.34428 Y-2.80733
G01 X-3.35377 Y-2.80711
G01 X-3.36380 Y-2.80338
G01 X-3.37417 Y-2.80208
G01 X-3.42559 Y-2.80206
G01 X-3.43305 Y-2.80272
G01 X-3.44067 Y-2.80473
G01 X-3.44825 Y-2.80810
G01 X-3.45489 Y-2.81223
G01 X-3.47066 Y-2.80620
G01 X-3.48128 Y-2.80366
G01 X-3.49575 Y-2.80213
G01 X-3.51095 Y-2.80293
G01 X-3.52609 Y-2.80618
G01 X-3.53742 Y-2.81021
G01 X-3.55508 Y-2.81924
G01 X-3.57036 Y-2.82972
G01 X-3.57868 Y-2.83302
G01 X-3.59689 Y-2.83852
G01 X-3.61580 Y-2.84205
G01 X-3.65336 Y-2.82539
G01 X-3.67268 Y-2.81858
G01 X-3.70653 Y-2.80998
G01 X-3.71946 Y-2.80760
G01 X-3.73420 Y-2.81243
G01 X-3.81049 Y-2.81273
G01 X-3.88246 Y-2.74076
G01 X-3.89264 Y-2.72912
G01 X-3.89983 Y-2.71762
G01 X-3.90410 Y-2.70623
G01 X-3.90553 Y-2.69478
G01 X-3.90555 Y-2.67496
G01 X-3.90702 Y-2.66316
G01 X-3.91156 Y-2.65091
G01 X-3.91929 Y-2.63850
G01 X-3.93201 Y-2.62436
G01 X-4.00254 Y-2.62403
G01 X-4.06835 Y-2.60850
G01 X-4.08099 Y-2.60409
G01 X-4.09228 Y-2.59721
G01 X-4.10234 Y-2.58778
G01 X-4.11124 Y-2.57570
G01 X-4.14286 Y-2.52452
G01 X-4.12251 Y-2.47539
G01 X-4.08272 Y-2.43621
G01 X-4.07803 Y-2.43327
G01 X-4.07343 Y-2.43155
G01 X-4.06878 Y-2.43097
G01 X-3.93122 Y-2.43097
G01 X-3.92657 Y-2.43155
G01 X-3.92197 Y-2.43327
G01 X-3.91728 Y-2.43621
G01 X-3.91244 Y-2.44044
G01 X-3.88308 Y-2.46959
G01 X-3.83413 Y-2.48987
G01 X-3.83191 Y-2.49002
G01 X-3.74691 Y-2.52523
G01 X-3.73888 Y-2.52920
G01 X-3.73182 Y-2.53402
G01 X-3.72567 Y-2.53974
G01 X-3.72066 Y-2.54604
G01 X-3.71853 Y-2.56751
G01 X-3.71625 Y-2.58011
G01 X-3.69916 Y-2.59229
G01 X-3.68060 Y-2.60750
G01 X-3.66875 Y-2.61528
G01 X-3.66103 Y-2.61947
G01 X-3.64664 Y-2.62581
G01 X-3.62946 Y-2.63136
G01 X-3.60839 Y-2.63586
G01 X-3.58250 Y-2.63868
G01 X-3.52821 Y-2.66113
G01 X-3.32558 Y-2.66117
G01 X-3.30591 Y-2.66648
G01 X-3.27983 Y-2.67107
G01 X-3.27140 Y-2.67195
G01 X-3.24589 Y-2.67286
G01 X-3.22027 Y-2.67108
G01 X-3.16395 Y-2.66307
G01 X-3.08111 Y-2.65410
G01 X-3.05197 Y-2.64980
G01 X-3.05197 Y-3.59803
G04 P0 ( dwell for no time -- G64 should not smooth over this point )
G00 Z0.08000 ( retract )

G00 X-4.15689 Y-2.71003 ( rapid move to begin. )
G01 F180.00000
G01 Z-0.04000
G04 P0 ( dwell for no time -- G64 should not smooth over this point )
G01 F360.00000
G01 X-4.15689 Y-2.71003
G01 X-4.14785 Y-2.71247
G01 X-4.12821 Y-2.71981
G01 X-4.12284 Y-2.72845
G01 X-4.11603 Y-2.74151
G01 X-4.08629 Y-2.81300
G01 X-4.08329 Y-2.81870
G01 X-4.07939 Y-2.82349
G01 X-4.07460 Y-2.82739
G01 X-4.06890 Y-2.83039
G01 X-3.96422 Y-2.87375
G01 X-3.93110 Y-2.87375
G01 X-3.91613 Y-2.87283
G01 X-3.90115 Y-2.87006
G01 X-3.88618 Y-2.86545
G01 X-3.87121 Y-2.85899
G01 X-3.85623 Y-2.85068
G01 X-3.84126 Y-2.84053
G01 X-3.82629 Y-2.82854
G01 X-3.81131 Y-2.81470
G01 X-3.88390 Y-2.74210
G01 X-3.89422 Y-2.73030
G01 X-3.90160 Y-2.71850
G01 X-3.90603 Y-2.70670
G01 X-3.90750 Y-2.69490
G01 X-3.90750 Y-2.67520
G01 X-3.90897 Y-2.66340
G01 X-3.91340 Y-2.65160
G01 X-3.92078 Y-2.63980
G01 X-3.93310 Y-2.62600
G01 X-4.00277 Y-2.62600
G01 X-4.06890 Y-2.61039
G01 X-4.08184 Y-2.60588
G01 X-4.09348 Y-2.59878
G01 X-4.10382 Y-2.58909
G01 X-4.11287 Y-2.57680
G01 X-4.14507 Y-2.52470
G01 X-4.12418 Y-2.47428
G01 X-4.08390 Y-2.43462
G01 X-4.07890 Y-2.43150
G01 X-4.07390 Y-2.42962
G01 X-4.06890 Y-2.42900
G01 X-3.93110 Y-2.42900
G01 X-3.92610 Y-2.42962
G01 X-3.92110 Y-2.43150
G01 X-3.91610 Y-2.43462
G01 X-3.91110 Y-2.43900
G01 X-3.88232 Y-2.46777
G01 X-3.83338 Y-2.48805
G01 X-3.83152 Y-2.48805
G01 X-3.74610 Y-2.52343
G01 X-3.73788 Y-2.52749
G01 X-3.73059 Y-2.53248
G01 X-3.72423 Y-2.53840
G01 X-3.71879 Y-2.54524
G01 X-3.71657 Y-2.56730
G01 X-3.71462 Y-2.57902
G01 X-3.69796 Y-2.59073
G01 X-3.67941 Y-2.60594
G01 X-3.66772 Y-2.61360
G01 X-3.65411 Y-2.62059
G01 X-3.64589 Y-2.62399
G01 X-3.62890 Y-2.62948
G01 X-3.60814 Y-2.63390
G01 X-3.58203 Y-2.63674
G01 X-3.52782 Y-2.65920
G01 X-3.32526 Y-2.65920
G01 X-3.30550 Y-2.66456
G01 X-3.27952 Y-2.66912
G01 X-3.25411 Y-2.67089
G01 X-3.24589 Y-2.67089
G01 X-3.22048 Y-2.66912
G01 X-3.16418 Y-2.66112
G01 X-3.08134 Y-2.65215
G01 X-3.05000 Y-2.64749
G01 X-3.05000 Y-2.35000
G01 X-4.90000 Y-2.35000
G01 X-4.90000 Y-2.71010
G01 X-4.87294 Y-2.71124
G01 X-4.84650 Y-2.71130
G01 X-4.81058 Y-2.70918
G01 X-4.79146 Y-2.70720
G01 X-4.77321 Y-2.70434
G01 X-4.74112 Y-2.69748
G01 X-4.69589 Y-2.68623
G01 X-4.64008 Y-2.67447
G01 X-4.62142 Y-2.66958
G01 X-4.37858 Y-2.66958
G01 X-4.35169 Y-2.67622
G01 X-4.33170 Y-2.67939
G01 X-4.30411 Y-2.68127
G01 X-4.28119 Y-2.68069
G01 X-4.15689 Y-2.71003
G01 X-4.15639 Y-2.70812
G01 X-4.28073 Y-2.67877
G01 X-4.30406 Y-2.67930
G01 X-4.33145 Y-2.67744
G01 X-4.35133 Y-2.67428
G01 X-4.37833 Y-2.66763
G01 X-4.62142 Y-2.66761
G01 X-4.64054 Y-2.67255
G01 X-4.69634 Y-2.68432
G01 X-4.76379 Y-2.70059
G01 X-4.79171 Y-2.70525
G01 X-4.82150 Y-2.70807
G01 X-4.84654 Y-2.70933
G01 X-4.87291 Y-2.70928
G01 X-4.89803 Y-2.70824
G01 X-4.89803 Y-2.35197
G01 X-3.05197 Y-2.35197
G01 X-3.05197 Y-2.64581
G01 X-3.08158 Y-2.65019
G01 X-3.16443 Y-2.65917
G01 X-3.22886 Y-2.66803
G01 X-3.25406 Y-2.66892
G01 X-3.27927 Y-2.66717
G01 X-3.30504 Y-2.66264
G01 X-3.32526 Y-2.65723
G01 X-3.52743 Y-2.65723
G01 X-3.58128 Y-2.63493
G01 X-3.60784 Y-2.63196
G01 X-3.62840 Y-2.62757
G01 X-3.64518 Y-2.62215
G01 X-3.65331 Y-2.61879
G01 X-3.66674 Y-2.61190
G01 X-3.67825 Y-2.60434
G01 X-3.69675 Y-2.58918
G01 X-3.71284 Y-2.57783
G01 X-3.71462 Y-2.56705
G01 X-3.71692 Y-2.54463
G01 X-3.72268 Y-2.53717
G01 X-3.72948 Y-2.53086
G01 X-3.73701 Y-2.52573
G01 X-3.74535 Y-2.52161
G01 X-3.83077 Y-2.48623
G01 X-3.83298 Y-2.48608
G01 X-3.88121 Y-2.46611
G01 X-3.90980 Y-2.43752
G01 X-3.91506 Y-2.43296
G01 X-3.92041 Y-2.42966
G01 X-3.92563 Y-2.42771
G01 X-3.93110 Y-2.42703
G01 X-4.06890 Y-2.42703
G01 X-4.07437 Y-2.42771
G01 X-4.07994 Y-2.42983
G01 X-4.08520 Y-2.43314
G01 X-4.09029 Y-2.43761
G01 X-4.12582 Y-2.47318
G01 X-4.14699 Y-2.52430
G01 X-4.14674 Y-2.52574
G01 X-4.11445 Y-2.57797
G01 X-4.10541 Y-2.59026
G01 X-4.09482 Y-2.60022
G01 X-4.08268 Y-2.60766
G01 X-4.06935 Y-2.61230
G01 X-4.00299 Y-2.62795
G01 X-3.93392 Y-2.62797
G01 X-3.92236 Y-2.64098
G01 X-3.91517 Y-2.65248
G01 X-3.91090 Y-2.66387
G01 X-3.90947 Y-2.67532
G01 X-3.90945 Y-2.69514
G01 X-3.90794 Y-2.70717
G01 X-3.90327 Y-2.71954
G01 X-3.89589 Y-2.73134
G01 X-3.88529 Y-2.74349
G01 X-3.81415 Y-2.81464
G01 X-3.82757 Y-2.82705
G01 X-3.84243 Y-2.83895
G01 X-3.85726 Y-2.84901
G01 X-3.87208 Y-2.85722
G01 X-3.88686 Y-2.86360
G01 X-3.90162 Y-2.86814
G01 X-3.91637 Y-2.87087
G01 X-3.93116 Y-2.87178
G01 X-3.96382 Y-2.87178
G01 X-4.06806 Y-2.82860
G01 X-4.07351 Y-2.82574
G01 X-4.07800 Y-2.82210
G01 X-4.08164 Y-2.81761
G01 X-4.08450 Y-2.81216
G01 X-4.11424 Y-2.74071
G01 X-4.12115 Y-2.72744
G01 X-4.12709 Y-2.71820
G01 X-4.13584 Y-2.71450
G01 X-4.15639 Y-2.70812
G01 X-4.15689 Y-2.71003
G01 X-4.28119 Y-2.68069
G01 X-4.30411 Y-2.68127
G01 X-4.33170 Y-2.67939
G01 X-4.35169 Y-2.67622
G01 X-4.37858 Y-2.66958
G01 X-4.62142 Y-2.66958
G01 X-4.64008 Y-2.67447
G01 X-4.69589 Y-2.68623
G01 X-4.76340 Y-2.70252
G01 X-4.79146 Y-2.70720
G01 X-4.82137 Y-2.71003
G01 X-4.84650 Y-2.71130
G01 X-4.87294 Y-2.71124
G01 X-4.90000 Y-2.71010
G01 X-4.90000 Y-3.38483
G01 X-4.85908 Y-3.36459
G01 X-4.82286 Y-3.34768
G01 X-4.78857 Y-3.33270
G01 X-4.74339 Y-3.31472
G01 X-4.67423 Y-3.28965
G01 X-4.64312 Y-3.26830
G01 X-4.58095 Y-3.22402
G01 X-4.56891 Y-3.21695
G01 X-4.55802 Y-3.21192
G01 X-4.55477 Y-3.21072
G01 X-4.55179 Y-3.21061
G01 X-4.45115 Y-3.21071
G01 X-4.44749 Y-3.20292
G01 X-4.44429 Y-3.19410
G01 X-4.44223 Y-3.18587
G01 X-4.44111 Y-3.17802
G01 X-4.44086 Y-3.16834
G01 X-4.44156 Y-3.16061
G01 X-4.44313 Y-3.15259
G01 X-4.44573 Y-3.14410
G01 X-4.45254 Y-3.12931
G01 X-4.46351 Y-3.11291
G01 X-4.47542 Y-3.09921
G01 X-4.49870 Y-3.07585
G01 X-4.52986 Y-3.06315
G01 X-4.55283 Y-3.05586
G01 X-4.58885 Y-3.01983
G01 X-4.61407 Y-3.02184
G01 X-4.64278 Y-3.02176
G01 X-4.66456 Y-3.01948
G01 X-4.68179 Y-3.01590
G01 X-4.69589 Y-3.01143
G01 X-4.70411 Y-3.00803
G01 X-4.71800 Y-3.00054
G01 X-4.72490 Y-2.99581
G01 X-4.73329 Y-2.98882
G01 X-4.74075 Y-2.98115
G01 X-4.74632 Y-2.97411
G01 X-4.74889 Y-2.95927
G01 X-4.74932 Y-2.95105
G01 X-4.74889 Y-2.94073
G01 X-4.74632 Y-2.92589
G01 X-4.74239 Y-2.92077
G01 X-4.73329 Y-2.91118
G01 X-4.72701 Y-2.90582
G01 X-4.71800 Y-2.89945
G01 X-4.70776 Y-2.89371
G01 X-4.69279 Y-2.88740
G01 X-4.63346 Y-2.82807
G01 X-4.61681 Y-2.82179
G01 X-4.60451 Y-2.81964
G01 X-4.58980 Y-2.81945
G01 X-4.58269 Y-2.81567
G01 X-4.57559 Y-2.81441
G01 X-4.52441 Y-2.81441
G01 X-4.51941 Y-2.81503
G01 X-4.51441 Y-2.81691
G01 X-4.50941 Y-2.82003
G01 X-4.49876 Y-2.83006
G01 X-4.48588 Y-2.82271
G01 X-4.47198 Y-2.81736
G01 X-4.46171 Y-2.81515
G01 X-4.44890 Y-2.81448
G01 X-4.43915 Y-2.81552
G01 X-4.42513 Y-2.81933
G01 X-4.29854 Y-2.81936
G01 X-4.28619 Y-2.82090
G01 X-4.27653 Y-2.82384
G01 X-4.26483 Y-2.82944
G01 X-4.25301 Y-2.83736
G01 X-4.23866 Y-2.85000
G01 X-4.21132 Y-2.87733
G01 X-4.19612 Y-2.88363
G01 X-4.05487 Y-3.02440
G01 X-4.04019 Y-3.03625
G01 X-4.02635 Y-3.04549
G01 X-4.00773 Y-3.05560
G01 X-3.99693 Y-3.06050
G01 X-3.72611 Y-3.06050
G01 X-3.70611 Y-3.06592
G01 X-3.67982 Y-3.07054
G01 X-3.65411 Y-3.07232
G01 X-3.62840 Y-3.07140
G01 X-3.60211 Y-3.06767
G01 X-3.59389 Y-3.06592
G01 X-3.56683 Y-3.05821
G01 X-3.54155 Y-3.05315
G01 X-3.52091 Y-3.04688
G01 X-3.48048 Y-3.03061
G01 X-3.46575 Y-3.02138
G01 X-3.44460 Y-3.00982
G01 X-3.45344 Y-2.98067
G01 X-3.45958 Y-2.95421
G01 X-3.45894 Y-2.93213
G01 X-3.45700 Y-2.90246
G01 X-3.45477 Y-2.88571
G01 X-3.45094 Y-2.86824
G01 X-3.44956 Y-2.85782
G01 X-3.44956 Y-2.84218
G01 X-3.45094 Y-2.83176
G01 X-3.45474 Y-2.81445
G01 X-3.46592 Y-2.80982
G01 X-3.48159 Y-2.80560
G01 X-3.49145 Y-2.80433
G01 X-3.50540 Y-2.80433
G01 X-3.51526 Y-2.80560
G01 X-3.52558 Y-2.80808
G01 X-3.53662 Y-2.81201
G01 X-3.54875 Y-2.81786
G01 X-3.56245 Y-2.82639
G01 X-3.56938 Y-2.83144
G01 X-3.57295 Y-2.83292
G01 X-3.59303 Y-2.83958
G01 X-3.61607 Y-2.84408
G01 X-3.65411 Y-2.82721
G01 X-3.67333 Y-2.82043
G01 X-3.70699 Y-2.81189
G01 X-3.71981 Y-2.80953
G01 X-3.73384 Y-2.81439
G01 X-3.81131 Y-2.81470
G01 X-3.82629 Y-2.82854
G01 X-3.84126 Y-2.84053
G01 X-3.85623 Y-2.85068
G01 X-3.87121 Y-2.85899
G01 X-3.88618 Y-2.86545
G01 X-3.90115 Y-2.87006
G01 X-3.91613 Y-2.87283
G01 X-3.93110 Y-2.87375
G01 X-3.96422 Y-2.87375
G01 X-4.06890 Y-2.83039
G01 X-4.07460 Y-2.82739
G01 X-4.07939 Y-2.82349
G01 X-4.08329 Y-2.81870
G01 X-4.08629 Y-2.81300
G01 X-4.11603 Y-2.74151
G01 X-4.12284 Y-2.72845
G01 X-4.12821 Y-2.71981
G01 X-4.14785 Y-2.71247
G01 X-4.15689 Y-2.71003
G01 X-4.15737 Y-2.71194
G01 X-4.14844 Y-2.71435
G01 X-4.12955 Y-2.72138
G01 X-4.12455 Y-2.72942
G01 X-4.11782 Y-2.74233
G01 X-4.08803 Y-2.81392
G01 X-4.08482 Y-2.81994
G01 X-4.08064 Y-2.82502
G01 X-4.07551 Y-2.82913
G01 X-4.06965 Y-2.83221
G01 X-3.96460 Y-2.87568
G01 X-3.93110 Y-2.87572
G01 X-3.91601 Y-2.87479
G01 X-3.90057 Y-2.87194
G01 X-3.88540 Y-2.86725
G01 X-3.87025 Y-2.86071
G01 X-3.85513 Y-2.85231
G01 X-3.84003 Y-2.84207
G01 X-3.82495 Y-2.82999
G01 X-3.81054 Y-2.81667
G01 X-3.73379 Y-2.81635
G01 X-3.71965 Y-2.81156
G01 X-3.70740 Y-2.81382
G01 X-3.67394 Y-2.82231
G01 X-3.65482 Y-2.82905
G01 X-3.61614 Y-2.84605
G01 X-3.59599 Y-2.84235
G01 X-3.57729 Y-2.83670
G01 X-3.56841 Y-2.83316
G01 X-3.55307 Y-2.82262
G01 X-3.54112 Y-2.81617
G01 X-3.53027 Y-2.81167
G01 X-3.51490 Y-2.80754
G01 X-3.50105 Y-2.80607
G01 X-3.48636 Y-2.80684
G01 X-3.47183 Y-2.80996
G01 X-3.45647 Y-2.81584
G01 X-3.45204 Y-2.83737
G01 X-3.45125 Y-2.85242
G01 X-3.45204 Y-2.86263
G01 X-3.45671 Y-2.88540
G01 X-3.45896 Y-2.90229
G01 X-3.46090 Y-2.93201
G01 X-3.46154 Y-2.95442
G01 X-3.45532 Y-2.98124
G01 X-3.44695 Y-3.00886
G01 X-3.46676 Y-3.01969
G01 X-3.48139 Y-3.02886
G01 X-3.52153 Y-3.04501
G01 X-3.54207 Y-3.05125
G01 X-3.56744 Y-3.05634
G01 X-3.59435 Y-3.06401
G01 X-3.60247 Y-3.06573
G01 X-3.62043 Y-3.06859
G01 X-3.64594 Y-3.07035
G01 X-3.67144 Y-3.06944
G01 X-3.67957 Y-3.06859
G01 X-3.70565 Y-3.06401
G01 X-3.72611 Y-3.05854
G01 X-3.99650 Y-3.05853
G01 X-4.00685 Y-3.05384
G01 X-4.02530 Y-3.04382
G01 X-4.03906 Y-3.03464
G01 X-4.05359 Y-3.02291
G01 X-4.19473 Y-2.88224
G01 X-4.21021 Y-2.87567
G01 X-4.24156 Y-2.84451
G01 X-4.25493 Y-2.83349
G01 X-4.26864 Y-2.82517
G01 X-4.28263 Y-2.81977
G01 X-4.29217 Y-2.81786
G01 X-4.29995 Y-2.81736
G01 X-4.42481 Y-2.81736
G01 X-4.43884 Y-2.81357
G01 X-4.44668 Y-2.81263
G01 X-4.45435 Y-2.81251
G01 X-4.46441 Y-2.81359
G01 X-4.47794 Y-2.81723
G01 X-4.48677 Y-2.82096
G01 X-4.49848 Y-2.82756
G01 X-4.50811 Y-2.81855
G01 X-4.51337 Y-2.81524
G01 X-4.51894 Y-2.81312
G01 X-4.52417 Y-2.81246
G01 X-4.57559 Y-2.81244
G01 X-4.58334 Y-2.81381
G01 X-4.59029 Y-2.81749
G01 X-4.60471 Y-2.81768
G01 X-4.61728 Y-2.81988
G01 X-4.63456 Y-2.82644
G01 X-4.69388 Y-2.88571
G01 X-4.70861 Y-2.89193
G01 X-4.71912 Y-2.89783
G01 X-4.72821 Y-2.90426
G01 X-4.73457 Y-2.90968
G01 X-4.74389 Y-2.91950
G01 X-4.74822 Y-2.92538
G01 X-4.75086 Y-2.94062
G01 X-4.75129 Y-2.95105
G01 X-4.75085 Y-2.95948
G01 X-4.74808 Y-2.97498
G01 X-4.74224 Y-2.98243
G01 X-4.73465 Y-2.99025
G01 X-4.72821 Y-2.99574
G01 X-4.71911 Y-3.00217
G01 X-4.70487 Y-3.00984
G01 X-4.69654 Y-3.01329
G01 X-4.68235 Y-3.01779
G01 X-4.66481 Y-3.02144
G01 X-4.64283 Y-3.02372
G01 X-4.61401 Y-3.02381
G01 X-4.58960 Y-3.02187
G01 X-4.55397 Y-3.05746
G01 X-4.53054 Y-3.06500
G01 X-4.49982 Y-3.07752
G01 X-4.47685 Y-3.10056
G01 X-4.46507 Y-3.11411
G01 X-4.45426 Y-3.13026
G01 X-4.44757 Y-3.14478
G01 X-4.44504 Y-3.15309
G01 X-4.44351 Y-3.16090
G01 X-4.44292 Y-3.17584
G01 X-4.44416 Y-3.18547
G01 X-4.44616 Y-3.19351
G01 X-4.45236 Y-3.20871
G01 X-4.55179 Y-3.20864
G01 X-4.55515 Y-3.20879
G01 X-4.55870 Y-3.21008
G01 X-4.56987 Y-3.21523
G01 X-4.58207 Y-3.22240
G01 X-4.64425 Y-3.26668
G01 X-4.67513 Y-3.28788
G01 X-4.74407 Y-3.31287
G01 X-4.78935 Y-3.33090
G01 X-4.82369 Y-3.34590
G01 X-4.85996 Y-3.36283
G01 X-4.89803 Y-3.38163
G01 X-4.89803 Y-2.71218
G01 X-4.87299 Y-2.71321
G01 X-4.84640 Y-2.71326
G01 X-4.82122 Y-2.71199
G01 X-4.79115 Y-2.70915
G01 X-4.76296 Y-2.70444
G01 X-4.69545 Y-2.68815
G01 X-4.63967 Y-2.67639
G01 X-4.62117 Y-2.67155
G01 X-4.37884 Y-2.67155
G01 X-4.35210 Y-2.67814
G01 X-4.33191 Y-2.68135
G01 X-4.30411 Y-2.68324
G01 X-4.28138 Y-2.68266
G01 X-4.15737 Y-2.71194
G04 P0 ( dwell for no time -- G64 should not smooth over this point )
G00 Z0.08000 ( retract )

G00 X-4.47838 Y-3.28944 ( rapid move to begin. )
G01 F180.00000
G01 Z-0.04000
G04 P0 ( dwell for no time -- G64 should not smooth over this point )
G01 F360.00000
G01 X-4.47838 Y-3.28944
G01 X-4.67423 Y-3.28965
G01 X-4.74339 Y-3.31472
G01 X-4.78857 Y-3.33270
G01 X-4.82286 Y-3.34768
G01 X-4.85908 Y-3.36459
G01 X-4.90000 Y-3.38483
G01 X-4.90000 Y-3.60000
G01 X-4.11744 Y-3.60000
G01 X-4.12275 Y-3.50033
G01 X-4.11944 Y-3.42497
G01 X-4.11646 Y-3.38496
G01 X-4.11472 Y-3.36964
G01 X-4.11053 Y-3.34768
G01 X-4.10264 Y-3.32283
G01 X-4.10074 Y-3.31190
G01 X-4.10003 Y-3.30132
G01 X-4.10074 Y-3.28810
G01 X-4.10264 Y-3.27717
G01 X-4.11053 Y-3.25232
G01 X-4.11284 Y-3.24220
G01 X-4.11472 Y-3.23036
G01 X-4.11709 Y-3.20652
G01 X-4.13229 Y-3.19789
G01 X-4.14609 Y-3.19133
G01 X-4.17108 Y-3.18203
G01 X-4.17961 Y-3.17951
G01 X-4.21104 Y-3.17251
G01 X-4.24057 Y-3.16869
G01 X-4.26285 Y-3.16714
G01 X-4.26964 Y-3.18285
G01 X-4.33860 Y-3.25151
G01 X-4.35227 Y-3.26303
G01 X-4.36710 Y-3.27297
G01 X-4.37759 Y-3.27840
G01 X-4.39020 Y-3.28364
G01 X-4.39863 Y-3.28637
G01 X-4.40663 Y-3.28812
G01 X-4.41979 Y-3.28925
G01 X-4.47838 Y-3.28944
G01 X-4.47839 Y-3.29140
G01 X-4.41974 Y-3.29121
G01 X-4.40634 Y-3.29006
G01 X-4.39815 Y-3.28828
G01 X-4.38949 Y-3.28548
G01 X-4.37675 Y-3.28018
G01 X-4.36617 Y-3.27470
G01 X-4.35110 Y-3.26461
G01 X-4.33728 Y-3.25297
G01 X-4.26825 Y-3.18424
G01 X-4.26159 Y-3.16919
G01 X-4.24077 Y-3.17065
G01 X-4.21134 Y-3.17446
G01 X-4.18012 Y-3.18141
G01 X-4.17169 Y-3.18391
G01 X-4.14689 Y-3.19313
G01 X-4.13318 Y-3.19965
G01 X-4.11898 Y-3.20770
G01 X-4.11667 Y-3.23058
G01 X-4.11478 Y-3.24251
G01 X-4.11241 Y-3.25290
G01 X-4.10455 Y-3.27763
G01 X-4.10269 Y-3.28836
G01 X-4.10200 Y-3.30127
G01 X-4.10269 Y-3.31164
G01 X-4.10455 Y-3.32237
G01 X-4.11245 Y-3.34724
G01 X-4.11666 Y-3.36933
G01 X-4.11842 Y-3.38481
G01 X-4.12140 Y-3.42486
G01 X-4.12471 Y-3.50042
G01 X-4.11952 Y-3.59803
G01 X-4.89803 Y-3.59803
G01 X-4.89803 Y-3.38604
G01 X-4.85823 Y-3.36636
G01 X-4.82205 Y-3.34947
G01 X-4.78780 Y-3.33451
G01 X-4.74269 Y-3.31656
G01 X-4.67389 Y-3.29162
G01 X-4.47839 Y-3.29140
G01 X-4.47838 Y-3.28944
G01 X-4.47552 Y-3.28933
G01 X-4.41441 Y-3.28904
G01 X-4.40167 Y-3.28713
G01 X-4.39324 Y-3.28473
G01 X-4.37759 Y-3.27840
G01 X-4.36710 Y-3.27297
G01 X-4.35531 Y-3.26528
G01 X-4.34164 Y-3.25426
G01 X-4.26964 Y-3.18285
G01 X-4.26285 Y-3.16714
G01 X-4.29194 Y-3.09690
G01 X-4.30411 Y-3.08481
G01 X-4.32058 Y-3.06661
G01 X-4.32724 Y-3.05839
G01 X-4.35343 Y-3.02095
G01 X-4.37728 Y-2.98988
G01 X-4.38757 Y-2.97413
G01 X-4.39310 Y-2.96392
G01 X-4.40207 Y-2.94341
G01 X-4.40561 Y-2.93340
G01 X-4.41049 Y-2.93137
G01 X-4.41897 Y-2.92982
G01 X-4.43840 Y-2.92485
G01 X-4.45425 Y-2.91893
G01 X-4.46264 Y-2.91494
G01 X-4.47448 Y-2.90803
G01 X-4.48489 Y-2.90040
G01 X-4.49424 Y-2.89192
G01 X-4.49906 Y-2.86824
G01 X-4.50044 Y-2.85782
G01 X-4.50044 Y-2.84218
G01 X-4.49876 Y-2.83006
G01 X-4.50441 Y-2.82441
G01 X-4.50941 Y-2.82003
G01 X-4.51441 Y-2.81691
G01 X-4.51941 Y-2.81503
G01 X-4.52441 Y-2.81441
G01 X-4.57559 Y-2.81441
G01 X-4.58269 Y-2.81567
G01 X-4.58980 Y-2.81945
G01 X-4.60451 Y-2.81964
G01 X-4.61681 Y-2.82179
G01 X-4.63346 Y-2.82807
G01 X-4.69279 Y-2.88740
G01 X-4.70776 Y-2.89371
G01 X-4.71800 Y-2.89945
G01 X-4.72701 Y-2.90582
G01 X-4.73329 Y-2.91118
G01 X-4.74239 Y-2.92077
G01 X-4.74632 Y-2.92589
G01 X-4.74889 Y-2.94073
G01 X-4.74932 Y-2.94895
G01 X-4.74889 Y-2.95927
G01 X-4.74632 Y-2.97411
G01 X-4.74075 Y-2.98115
G01 X-4.73329 Y-2.98882
G01 X-4.72490 Y-2.99581
G01 X-4.71800 Y-3.00054
G01 X-4.70411 Y-3.00803
G01 X-4.69589 Y-3.01143
G01 X-4.68179 Y-3.01590
G01 X-4.66456 Y-3.01948
G01 X-4.64278 Y-3.02176
G01 X-4.61407 Y-3.02184
G01 X-4.58885 Y-3.01983
G01 X-4.55283 Y-3.05586
G01 X-4.52986 Y-3.06315
G01 X-4.49870 Y-3.07585
G01 X-4.46806 Y-3.10733
G01 X-4.45898 Y-3.11906
G01 X-4.45254 Y-3.12931
G01 X-4.44795 Y-3.13852
G01 X-4.44313 Y-3.15259
G01 X-4.44129 Y-3.16276
G01 X-4.44111 Y-3.17802
G01 X-4.44223 Y-3.18587
G01 X-4.44429 Y-3.19410
G01 X-4.44749 Y-3.20292
G01 X-4.45115 Y-3.21071
G01 X-4.55477 Y-3.21072
G01 X-4.56891 Y-3.21695
G01 X-4.58095 Y-3.22402
G01 X-4.64312 Y-3.26830
G01 X-4.67423 Y-3.28965
G01 X-4.47838 Y-3.28944
G01 X-4.47840 Y-3.28747
G01 X-4.66781 Y-3.28764
G01 X-4.60924 Y-3.24685
G01 X-4.57986 Y-3.22566
G01 X-4.56800 Y-3.21869
G01 X-4.55439 Y-3.21268
G01 X-4.45047 Y-3.21256
G01 X-4.44939 Y-3.21159
G01 X-4.44570 Y-3.20374
G01 X-4.44242 Y-3.19473
G01 X-4.44029 Y-3.18622
G01 X-4.43916 Y-3.17827
G01 X-4.43933 Y-3.16261
G01 X-4.44121 Y-3.15215
G01 X-4.44613 Y-3.13779
G01 X-4.45085 Y-3.12831
G01 X-4.45739 Y-3.11789
G01 X-4.46660 Y-3.10601
G01 X-4.47403 Y-3.09782
G01 X-4.49761 Y-3.07422
G01 X-4.52915 Y-3.06132
G01 X-4.55178 Y-3.05412
G01 X-4.58801 Y-3.01805
G01 X-4.61417 Y-3.01987
G01 X-4.64268 Y-3.01979
G01 X-4.66426 Y-3.01754
G01 X-4.68128 Y-3.01400
G01 X-4.69016 Y-3.01137
G01 X-4.70331 Y-3.00623
G01 X-4.71693 Y-2.99889
G01 X-4.72374 Y-2.99421
G01 X-4.73197 Y-2.98736
G01 X-4.73928 Y-2.97984
G01 X-4.74452 Y-2.97322
G01 X-4.74693 Y-2.95912
G01 X-4.74735 Y-2.94900
G01 X-4.74693 Y-2.94088
G01 X-4.74452 Y-2.92678
G01 X-4.73928 Y-2.92016
G01 X-4.73369 Y-2.91427
G01 X-4.72578 Y-2.90735
G01 X-4.71693 Y-2.90111
G01 X-4.70687 Y-2.89546
G01 X-4.69161 Y-2.88898
G01 X-4.63235 Y-2.82974
G01 X-4.61628 Y-2.82368
G01 X-4.60437 Y-2.82160
G01 X-4.58948 Y-2.82140
G01 X-4.58204 Y-2.81755
G01 X-4.57542 Y-2.81638
G01 X-4.52453 Y-2.81638
G01 X-4.51988 Y-2.81696
G01 X-4.51529 Y-2.81868
G01 X-4.51059 Y-2.82162
G01 X-4.50575 Y-2.82585
G01 X-4.50088 Y-2.83072
G01 X-4.50241 Y-2.84207
G01 X-4.50240 Y-2.85803
G01 X-4.50099 Y-2.86865
G01 X-4.49591 Y-2.89296
G01 X-4.48617 Y-2.90190
G01 X-4.47559 Y-2.90965
G01 X-4.46358 Y-2.91667
G01 X-4.45509 Y-2.92071
G01 X-4.43313 Y-2.92846
G01 X-4.41104 Y-2.93327
G01 X-4.40718 Y-2.93488
G01 X-4.40389 Y-2.94416
G01 X-4.39487 Y-2.96477
G01 X-4.38924 Y-2.97515
G01 X-4.37891 Y-2.99099
G01 X-4.35503 Y-3.02211
G01 X-4.32877 Y-3.05962
G01 X-4.32204 Y-3.06793
G01 X-4.30557 Y-3.08613
G01 X-4.29361 Y-3.09803
G01 X-4.26499 Y-3.16713
G01 X-4.27130 Y-3.18172
G01 X-4.33994 Y-3.25007
G01 X-4.35349 Y-3.26148
G01 X-4.36807 Y-3.27126
G01 X-4.37841 Y-3.27661
G01 X-4.39088 Y-3.28179
G01 X-4.39915 Y-3.28447
G01 X-4.40991 Y-3.28662
G01 X-4.41981 Y-3.28728
G01 X-4.47840 Y-3.28747

G04 P0 ( dwell for no time -- G64 should not smooth over this point )
G00 Z1.000 ( retract )

M5 ( Spindle off. )
G04 P1.000000
M9 ( Coolant off. )
M2 ( Program end. )

