( pcb2gcode 2.5.0 )
( Software-independent Gcode )

G94 ( Inches per minute feed rate. )
G20 ( Units == INCHES. )

G90 ( Absolute coordinates. )
G00 S12000 ( RPM spindle speed. )
G64 P0.00040 ( set maximum deviation from commanded toolpath )
G01 F360.00000 ( Feedrate. )


G00 Z1.00000 (Retract to tool change height)
T1
M5      (Spindle stop.)
G04 P1.00000 (Wait for spindle to stop)
(MSG, Change tool bit to mill diameter 0.00787in)
M6      (Tool change.)
M0      (Temporary machine stop.)
M3 ( Spindle on clockwise. )
G04 P1.00000 (Wait for spindle to get up to speed)
G04 P0 ( dwell for no time -- G64 should not smooth over this point )
G00 Z0.08000 ( retract )

G00 X-3.18782 Y-2.55061 ( rapid move to begin. )
G01 F180.00000
( Mill infeed pass 1/1 )
G01 Z-0.04000
G04 P0 ( dwell for no time -- G64 should not smooth over this point )
G01 F360.00000
G01 X-3.18782 Y-2.55061
G01 X-3.18792 Y-2.54776
G01 X-3.18897 Y-2.53807
G01 X-3.18955 Y-2.53569
G01 X-3.19247 Y-2.52639
G01 X-3.19351 Y-2.52418
G01 X-3.19818 Y-2.51562
G01 X-3.19963 Y-2.51365
G01 X-3.20560 Y-2.50647
G01 X-3.20769 Y-2.50452
G01 X-3.21528 Y-2.49841
G01 X-3.21737 Y-2.49714
G01 X-3.22564 Y-2.49279
G01 X-3.22792 Y-2.49192
G01 X-3.23727 Y-2.48914
G01 X-3.23968 Y-2.48872
G01 X-3.24776 Y-2.48793
G01 X-3.25183 Y-2.48789
G01 X-3.26193 Y-2.48897
G01 X-3.26391 Y-2.48944
G01 X-3.27169 Y-2.49179
G01 X-3.27473 Y-2.49296
G01 X-3.28334 Y-2.49754
G01 X-3.28635 Y-2.49963
G01 X-3.29262 Y-2.50479
G01 X-3.29440 Y-2.50647
G01 X-3.29853 Y-2.51141
G01 X-3.29827 Y-2.51199
G01 X-3.29853 Y-2.51141
G01 X-3.60147 Y-2.51141
G01 X-3.60173 Y-2.51199
G01 X-3.60147 Y-2.51141
G01 X-3.60588 Y-2.50617
G01 X-3.60738 Y-2.50479
G01 X-3.61397 Y-2.49937
G01 X-3.61702 Y-2.49734
G01 X-3.62454 Y-2.49332
G01 X-3.62639 Y-2.49247
G01 X-3.63609 Y-2.48944
G01 X-3.63968 Y-2.48872
G01 X-3.64817 Y-2.48789
G01 X-3.65020 Y-2.48782
G01 X-3.65736 Y-2.48843
G01 X-3.65758 Y-2.48902
G01 X-3.65736 Y-2.48843
G01 X-3.77048 Y-2.37537
G01 X-3.77372 Y-2.37270
G01 X-3.77571 Y-2.37129
G01 X-3.78017 Y-2.36885
G01 X-3.78240 Y-2.36786
G01 X-3.78724 Y-2.36633
G01 X-3.78922 Y-2.36586
G01 X-3.79426 Y-2.36527
G01 X-3.79650 Y-2.36516
G01 X-4.15350 Y-2.36516
G01 X-4.15574 Y-2.36527
G01 X-4.16078 Y-2.36586
G01 X-4.16645 Y-2.36745
G01 X-4.16983 Y-2.36885
G01 X-4.17497 Y-2.37174
G01 X-4.18007 Y-2.37587
G01 X-4.29264 Y-2.48843
G01 X-4.29242 Y-2.48902
G01 X-4.29264 Y-2.48843
G01 X-4.29980 Y-2.48782
G01 X-4.30183 Y-2.48789
G01 X-4.31032 Y-2.48872
G01 X-4.31391 Y-2.48944
G01 X-4.32361 Y-2.49247
G01 X-4.32546 Y-2.49332
G01 X-4.33298 Y-2.49734
G01 X-4.33603 Y-2.49937
G01 X-4.34262 Y-2.50479
G01 X-4.34411 Y-2.50617
G01 X-4.34853 Y-2.51141
G01 X-4.34827 Y-2.51199
G01 X-4.34853 Y-2.51141
G01 X-4.65146 Y-2.51141
G01 X-4.65173 Y-2.51199
G01 X-4.65146 Y-2.51141
G01 X-4.65560 Y-2.50647
G01 X-4.65738 Y-2.50479
G01 X-4.66365 Y-2.49963
G01 X-4.66666 Y-2.49754
G01 X-4.67527 Y-2.49296
G01 X-4.67831 Y-2.49179
G01 X-4.68609 Y-2.48944
G01 X-4.68807 Y-2.48897
G01 X-4.69817 Y-2.48789
G01 X-4.70224 Y-2.48793
G01 X-4.71032 Y-2.48872
G01 X-4.71233 Y-2.48905
G01 X-4.72169 Y-2.49179
G01 X-4.72398 Y-2.49263
G01 X-4.73262 Y-2.49714
G01 X-4.73472 Y-2.49841
G01 X-4.74231 Y-2.50452
G01 X-4.74411 Y-2.50617
G01 X-4.75037 Y-2.51365
G01 X-4.75182 Y-2.51562
G01 X-4.75649 Y-2.52418
G01 X-4.75753 Y-2.52639
G01 X-4.76095 Y-2.53767
G01 X-4.76132 Y-2.54008
G01 X-4.76218 Y-2.54980
G01 X-4.76207 Y-2.55224
G01 X-4.76103 Y-2.56193
G01 X-4.76044 Y-2.56431
G01 X-4.75753 Y-2.57361
G01 X-4.75649 Y-2.57582
G01 X-4.75182 Y-2.58438
G01 X-4.75063 Y-2.58603
G01 X-4.74521 Y-2.59262
G01 X-4.74262 Y-2.59521
G01 X-4.73505 Y-2.60136
G01 X-4.73298 Y-2.60266
G01 X-4.72582 Y-2.60649
G01 X-4.72361 Y-2.60753
G01 X-4.72169 Y-2.60821
G01 X-4.71352 Y-2.61067
G01 X-4.71032 Y-2.61128
G01 X-4.70020 Y-2.61218
G01 X-4.69817 Y-2.61211
G01 X-4.68968 Y-2.61128
G01 X-4.68609 Y-2.61056
G01 X-4.67639 Y-2.60753
G01 X-4.67454 Y-2.60668
G01 X-4.66702 Y-2.60266
G01 X-4.66397 Y-2.60062
G01 X-4.65738 Y-2.59521
G01 X-4.65588 Y-2.59383
G01 X-4.65146 Y-2.58858
G01 X-4.65173 Y-2.58801
G01 X-4.65146 Y-2.58858
G01 X-4.34853 Y-2.58858
G01 X-4.34828 Y-2.58802
G01 X-4.34853 Y-2.58858
G01 X-4.34383 Y-2.59411
G01 X-4.33635 Y-2.60037
G01 X-4.33404 Y-2.60204
G01 X-4.32582 Y-2.60649
G01 X-4.32361 Y-2.60753
G01 X-4.31273 Y-2.61086
G01 X-4.30991 Y-2.61132
G01 X-4.30020 Y-2.61218
G01 X-4.29817 Y-2.61211
G01 X-4.28927 Y-2.61122
G01 X-4.28608 Y-2.61056
G01 X-4.27715 Y-2.60782
G01 X-4.27375 Y-2.60626
G01 X-4.27373 Y-2.60561
G01 X-4.27375 Y-2.60626
G01 X-4.09173 Y-2.69727
G01 X-4.09079 Y-2.69669
G01 X-4.09173 Y-2.69727
G01 X-4.09173 Y-2.79162
G01 X-4.08544 Y-2.80682
G01 X-4.08544 Y-2.69338
G01 X-4.08449 Y-2.69280
G01 X-4.08544 Y-2.69338
G01 X-4.27384 Y-2.59917
G01 X-4.27384 Y-2.59843
G01 X-4.27384 Y-2.59917
G01 X-4.27861 Y-2.60163
G01 X-4.28752 Y-2.60442
G01 X-4.28950 Y-2.60488
G01 X-4.30000 Y-2.60588
G01 X-4.30930 Y-2.60505
G01 X-4.31130 Y-2.60473
G01 X-4.32139 Y-2.60163
G01 X-4.33105 Y-2.59647
G01 X-4.33831 Y-2.59061
G01 X-4.33980 Y-2.58923
G01 X-4.34555 Y-2.58229
G01 X-4.34527 Y-2.58169
G01 X-4.34555 Y-2.58229
G01 X-4.65445 Y-2.58229
G01 X-4.65472 Y-2.58169
G01 X-4.65445 Y-2.58229
G01 X-4.65965 Y-2.58862
G01 X-4.66169 Y-2.59061
G01 X-4.66895 Y-2.59647
G01 X-4.67861 Y-2.60163
G01 X-4.68791 Y-2.60453
G01 X-4.69070 Y-2.60505
G01 X-4.70000 Y-2.60588
G01 X-4.71010 Y-2.60495
G01 X-4.71248 Y-2.60442
G01 X-4.72139 Y-2.60163
G01 X-4.73105 Y-2.59647
G01 X-4.73831 Y-2.59061
G01 X-4.73980 Y-2.58923
G01 X-4.74575 Y-2.58203
G01 X-4.74730 Y-2.57966
G01 X-4.75163 Y-2.57139
G01 X-4.75442 Y-2.56248
G01 X-4.75500 Y-2.55970
G01 X-4.75584 Y-2.55122
G01 X-4.75584 Y-2.54878
G01 X-4.75481 Y-2.53910
G01 X-4.75163 Y-2.52861
G01 X-4.74711 Y-2.51999
G01 X-4.74550 Y-2.51765
G01 X-4.73923 Y-2.51020
G01 X-4.73105 Y-2.50353
G01 X-4.72249 Y-2.49887
G01 X-4.71986 Y-2.49782
G01 X-4.71090 Y-2.49519
G01 X-4.70040 Y-2.49412
G01 X-4.69070 Y-2.49495
G01 X-4.68870 Y-2.49527
G01 X-4.67975 Y-2.49794
G01 X-4.67715 Y-2.49906
G01 X-4.66895 Y-2.50353
G01 X-4.66137 Y-2.50965
G01 X-4.65965 Y-2.51137
G01 X-4.65445 Y-2.51771
G01 X-4.65472 Y-2.51831
G01 X-4.65445 Y-2.51771
G01 X-4.34555 Y-2.51771
G01 X-4.34527 Y-2.51831
G01 X-4.34555 Y-2.51771
G01 X-4.34035 Y-2.51137
G01 X-4.33831 Y-2.50939
G01 X-4.33105 Y-2.50353
G01 X-4.32139 Y-2.49837
G01 X-4.31090 Y-2.49519
G01 X-4.30162 Y-2.49419
G01 X-4.29878 Y-2.49416
G01 X-4.29030 Y-2.49499
G01 X-4.29008 Y-2.49561
G01 X-4.29030 Y-2.49499
G01 X-4.17586 Y-2.38056
G01 X-4.17163 Y-2.37709
G01 X-4.16723 Y-2.37459
G01 X-4.16462 Y-2.37348
G01 X-4.15935 Y-2.37200
G01 X-4.15350 Y-2.37146
G01 X-3.79650 Y-2.37146
G01 X-3.79025 Y-2.37208
G01 X-3.78462 Y-2.37375
G01 X-3.77904 Y-2.37664
G01 X-3.77443 Y-2.38029
G01 X-3.65970 Y-2.49499
G01 X-3.65992 Y-2.49561
G01 X-3.65970 Y-2.49499
G01 X-3.65122 Y-2.49416
G01 X-3.64838 Y-2.49419
G01 X-3.63910 Y-2.49519
G01 X-3.62861 Y-2.49837
G01 X-3.61895 Y-2.50353
G01 X-3.61169 Y-2.50939
G01 X-3.60965 Y-2.51137
G01 X-3.60445 Y-2.51771
G01 X-3.60472 Y-2.51831
G01 X-3.60445 Y-2.51771
G01 X-3.29555 Y-2.51771
G01 X-3.29528 Y-2.51831
G01 X-3.29555 Y-2.51771
G01 X-3.29034 Y-2.51137
G01 X-3.28863 Y-2.50965
G01 X-3.28105 Y-2.50353
G01 X-3.27285 Y-2.49906
G01 X-3.27025 Y-2.49794
G01 X-3.26130 Y-2.49527
G01 X-3.25930 Y-2.49495
G01 X-3.24959 Y-2.49412
G01 X-3.23910 Y-2.49519
G01 X-3.23014 Y-2.49782
G01 X-3.22751 Y-2.49887
G01 X-3.21895 Y-2.50353
G01 X-3.21077 Y-2.51020
G01 X-3.20450 Y-2.51765
G01 X-3.20270 Y-2.52034
G01 X-3.19888 Y-2.52751
G01 X-3.19808 Y-2.52937
G01 X-3.19558 Y-2.53752
G01 X-3.19511 Y-2.53950
G01 X-3.19416 Y-2.54878
G01 X-3.19419 Y-2.55162
G01 X-3.19519 Y-2.56090
G01 X-3.19782 Y-2.56986
G01 X-3.19888 Y-2.57249
G01 X-3.20270 Y-2.57966
G01 X-3.20425 Y-2.58203
G01 X-3.21020 Y-2.58923
G01 X-3.21169 Y-2.59061
G01 X-3.21895 Y-2.59647
G01 X-3.22861 Y-2.60163
G01 X-3.23752 Y-2.60442
G01 X-3.23950 Y-2.60488
G01 X-3.25000 Y-2.60588
G01 X-3.25930 Y-2.60505
G01 X-3.26209 Y-2.60453
G01 X-3.27139 Y-2.60163
G01 X-3.28105 Y-2.59647
G01 X-3.28831 Y-2.59061
G01 X-3.29034 Y-2.58862
G01 X-3.29555 Y-2.58229
G01 X-3.29528 Y-2.58169
G01 X-3.29555 Y-2.58229
G01 X-3.60445 Y-2.58229
G01 X-3.60472 Y-2.58169
G01 X-3.60445 Y-2.58229
G01 X-3.60965 Y-2.58862
G01 X-3.61169 Y-2.59061
G01 X-3.61895 Y-2.59647
G01 X-3.62861 Y-2.60163
G01 X-3.63791 Y-2.60453
G01 X-3.64070 Y-2.60505
G01 X-3.65000 Y-2.60588
G01 X-3.65930 Y-2.60505
G01 X-3.66209 Y-2.60453
G01 X-3.66986 Y-2.60218
G01 X-3.67285 Y-2.60094
G01 X-3.68138 Y-2.59624
G01 X-3.68863 Y-2.59035
G01 X-3.69035 Y-2.58862
G01 X-3.69575 Y-2.58203
G01 X-3.69730 Y-2.57966
G01 X-3.70163 Y-2.57139
G01 X-3.70453 Y-2.56209
G01 X-3.70500 Y-2.55970
G01 X-3.70588 Y-2.55000
G01 X-3.70500 Y-2.54030
G01 X-3.70442 Y-2.54008
G01 X-3.70500 Y-2.54030
G01 X-3.80977 Y-2.43553
G01 X-3.80957 Y-2.43505
G01 X-3.80977 Y-2.43553
G01 X-3.91028 Y-2.43553
G01 X-3.91442 Y-2.43194
G01 X-3.91999 Y-2.42855
G01 X-3.92498 Y-2.42663
G01 X-3.93110 Y-2.42584
G01 X-4.06890 Y-2.42584
G01 X-4.07502 Y-2.42663
G01 X-4.08001 Y-2.42855
G01 X-4.08122 Y-2.42923
G01 X-4.14284 Y-2.42923
G01 X-4.14304 Y-2.42876
G01 X-4.14284 Y-2.42923
G01 X-4.25192 Y-2.53832
G01 X-4.25265 Y-2.53808
G01 X-4.25192 Y-2.53832
G01 X-4.25127 Y-2.54092
G01 X-4.25080 Y-2.54555
G01 X-4.25144 Y-2.54601
G01 X-4.25080 Y-2.54555
G01 X-4.01197 Y-2.66496
G01 X-4.01201 Y-2.66513
G01 X-4.01197 Y-2.66496
G01 X-3.93070 Y-2.66497
G01 X-3.92871 Y-2.66525
G01 X-3.92718 Y-2.66574
G01 X-3.92575 Y-2.66647
G01 X-3.92445 Y-2.66742
G01 X-3.92306 Y-2.66886
G01 X-3.92198 Y-2.67055
G01 X-3.92115 Y-2.67281
G01 X-3.92087 Y-2.67480
G01 X-3.92087 Y-2.81340
G01 X-3.92115 Y-2.81539
G01 X-3.92164 Y-2.81692
G01 X-3.92259 Y-2.81869
G01 X-3.92386 Y-2.82024
G01 X-3.92541 Y-2.82151
G01 X-3.92718 Y-2.82246
G01 X-3.92910 Y-2.82304
G01 X-3.93110 Y-2.82324
G01 X-4.06890 Y-2.82324
G01 X-4.07050 Y-2.82311
G01 X-4.07206 Y-2.82274
G01 X-4.07459 Y-2.82151
G01 X-4.07642 Y-2.81995
G01 X-4.07783 Y-2.81800
G01 X-4.07875 Y-2.81578
G01 X-4.07913 Y-2.81340
G01 X-4.07914 Y-2.68948
G01 X-4.07820 Y-2.68890
G01 X-4.07914 Y-2.68948
G01 X-4.27394 Y-2.59208
G01 X-4.27395 Y-2.59131
G01 X-4.27394 Y-2.59208
G01 X-4.28084 Y-2.59573
G01 X-4.29013 Y-2.59859
G01 X-4.29980 Y-2.59958
G01 X-4.30987 Y-2.59859
G01 X-4.31916 Y-2.59573
G01 X-4.32771 Y-2.59112
G01 X-4.33432 Y-2.58574
G01 X-4.33548 Y-2.58462
G01 X-4.34112 Y-2.57771
G01 X-4.34212 Y-2.57599
G01 X-4.34180 Y-2.57534
G01 X-4.34212 Y-2.57599
G01 X-4.65788 Y-2.57599
G01 X-4.65820 Y-2.57534
G01 X-4.65788 Y-2.57599
G01 X-4.65888 Y-2.57771
G01 X-4.66426 Y-2.58432
G01 X-4.66538 Y-2.58548
G01 X-4.67262 Y-2.59134
G01 X-4.68084 Y-2.59573
G01 X-4.68935 Y-2.59839
G01 X-4.69132 Y-2.59878
G01 X-4.70020 Y-2.59958
G01 X-4.70908 Y-2.59873
G01 X-4.71065 Y-2.59839
G01 X-4.71879 Y-2.59589
G01 X-4.72771 Y-2.59112
G01 X-4.73520 Y-2.58492
G01 X-4.74063 Y-2.57836
G01 X-4.74174 Y-2.57669
G01 X-4.74538 Y-2.56988
G01 X-4.74615 Y-2.56803
G01 X-4.74859 Y-2.55987
G01 X-4.74954 Y-2.55100
G01 X-4.74954 Y-2.54900
G01 X-4.74867 Y-2.54052
G01 X-4.74573 Y-2.53084
G01 X-4.74174 Y-2.52331
G01 X-4.74063 Y-2.52164
G01 X-4.73492 Y-2.51480
G01 X-4.72771 Y-2.50888
G01 X-4.71988 Y-2.50462
G01 X-4.71803 Y-2.50385
G01 X-4.70948 Y-2.50133
G01 X-4.70020 Y-2.50041
G01 X-4.69132 Y-2.50122
G01 X-4.68935 Y-2.50161
G01 X-4.68084 Y-2.50427
G01 X-4.67296 Y-2.50845
G01 X-4.67164 Y-2.50937
G01 X-4.66568 Y-2.51426
G01 X-4.66452 Y-2.51538
G01 X-4.65888 Y-2.52229
G01 X-4.65788 Y-2.52401
G01 X-4.65820 Y-2.52466
G01 X-4.65788 Y-2.52401
G01 X-4.34212 Y-2.52401
G01 X-4.34182 Y-2.52463
G01 X-4.34212 Y-2.52401
G01 X-4.34112 Y-2.52229
G01 X-4.33574 Y-2.51568
G01 X-4.33462 Y-2.51452
G01 X-4.32738 Y-2.50866
G01 X-4.31879 Y-2.50411
G01 X-4.30987 Y-2.50141
G01 X-4.30060 Y-2.50043
G01 X-4.29900 Y-2.50046
G01 X-4.29052 Y-2.50133
G01 X-4.28832 Y-2.50192
G01 X-4.28809 Y-2.50259
G01 X-4.28832 Y-2.50192
G01 X-4.17170 Y-2.38530
G01 X-4.16829 Y-2.38245
G01 X-4.16693 Y-2.38158
G01 X-4.16316 Y-2.37965
G01 X-4.15911 Y-2.37839
G01 X-4.15753 Y-2.37811
G01 X-4.15350 Y-2.37776
G01 X-3.79650 Y-2.37776
G01 X-3.79168 Y-2.37822
G01 X-3.78684 Y-2.37965
G01 X-3.78237 Y-2.38199
G01 X-3.77854 Y-2.38507
G01 X-3.66168 Y-2.50192
G01 X-3.66191 Y-2.50259
G01 X-3.66168 Y-2.50192
G01 X-3.65948 Y-2.50133
G01 X-3.65100 Y-2.50046
G01 X-3.64940 Y-2.50043
G01 X-3.64013 Y-2.50141
G01 X-3.63121 Y-2.50411
G01 X-3.62262 Y-2.50866
G01 X-3.61537 Y-2.51452
G01 X-3.61426 Y-2.51568
G01 X-3.60888 Y-2.52229
G01 X-3.60788 Y-2.52401
G01 X-3.60818 Y-2.52463
G01 X-3.60788 Y-2.52401
G01 X-3.29212 Y-2.52401
G01 X-3.29180 Y-2.52466
G01 X-3.29212 Y-2.52401
G01 X-3.29112 Y-2.52229
G01 X-3.28548 Y-2.51538
G01 X-3.28432 Y-2.51426
G01 X-3.27835 Y-2.50937
G01 X-3.27704 Y-2.50845
G01 X-3.26916 Y-2.50427
G01 X-3.26065 Y-2.50161
G01 X-3.25868 Y-2.50122
G01 X-3.24980 Y-2.50041
G01 X-3.24052 Y-2.50133
G01 X-3.23197 Y-2.50385
G01 X-3.23012 Y-2.50462
G01 X-3.22228 Y-2.50888
G01 X-3.21508 Y-2.51480
G01 X-3.20937 Y-2.52164
G01 X-3.20825 Y-2.52331
G01 X-3.20462 Y-2.53012
G01 X-3.20397 Y-2.53159
G01 X-3.20133 Y-2.54052
G01 X-3.20046 Y-2.54900
G01 X-3.20046 Y-2.55100
G01 X-3.20141 Y-2.55987
G01 X-3.20385 Y-2.56803
G01 X-3.20462 Y-2.56988
G01 X-3.20825 Y-2.57669
G01 X-3.20937 Y-2.57836
G01 X-3.21480 Y-2.58492
G01 X-3.22228 Y-2.59112
G01 X-3.23121 Y-2.59589
G01 X-3.23935 Y-2.59839
G01 X-3.24092 Y-2.59873
G01 X-3.24980 Y-2.59958
G01 X-3.25868 Y-2.59878
G01 X-3.26065 Y-2.59839
G01 X-3.26916 Y-2.59573
G01 X-3.27738 Y-2.59134
G01 X-3.28462 Y-2.58548
G01 X-3.28574 Y-2.58432
G01 X-3.29112 Y-2.57771
G01 X-3.29212 Y-2.57599
G01 X-3.29180 Y-2.57534
G01 X-3.29212 Y-2.57599
G01 X-3.60788 Y-2.57599
G01 X-3.60818 Y-2.57536
G01 X-3.60788 Y-2.57599
G01 X-3.60888 Y-2.57771
G01 X-3.61426 Y-2.58432
G01 X-3.61537 Y-2.58548
G01 X-3.62229 Y-2.59112
G01 X-3.63047 Y-2.59556
G01 X-3.63197 Y-2.59615
G01 X-3.63935 Y-2.59839
G01 X-3.64132 Y-2.59878
G01 X-3.64980 Y-2.59958
G01 X-3.65868 Y-2.59878
G01 X-3.66026 Y-2.59850
G01 X-3.66803 Y-2.59615
G01 X-3.66988 Y-2.59538
G01 X-3.67771 Y-2.59112
G01 X-3.68432 Y-2.58574
G01 X-3.68548 Y-2.58462
G01 X-3.69112 Y-2.57771
G01 X-3.69538 Y-2.56988
G01 X-3.69615 Y-2.56803
G01 X-3.69850 Y-2.56026
G01 X-3.69878 Y-2.55868
G01 X-3.69954 Y-2.55100
G01 X-3.69957 Y-2.54940
G01 X-3.69867 Y-2.54052
G01 X-3.69808 Y-2.53832
G01 X-3.69739 Y-2.53809
G01 X-3.69808 Y-2.53832
G01 X-3.80716 Y-2.42923
G01 X-3.80696 Y-2.42876
G01 X-3.80716 Y-2.42923
G01 X-3.91878 Y-2.42923
G01 X-3.91999 Y-2.42855
G01 X-3.92499 Y-2.42667
G01 X-3.93110 Y-2.42585
G01 X-4.06890 Y-2.42585
G01 X-4.07429 Y-2.42650
G01 X-4.08001 Y-2.42855
G01 X-4.08558 Y-2.43194
G01 X-4.08972 Y-2.43553
G01 X-4.14023 Y-2.43553
G01 X-4.14043 Y-2.43505
G01 X-4.14023 Y-2.43553
G01 X-4.24499 Y-2.54030
G01 X-4.24563 Y-2.54007
G01 X-4.24499 Y-2.54030
G01 X-4.24488 Y-2.54147
G01 X-4.24561 Y-2.54197
G01 X-4.24488 Y-2.54147
G01 X-4.01048 Y-2.65866
G01 X-4.01052 Y-2.65883
G01 X-4.01048 Y-2.65866
G01 X-3.93110 Y-2.65866
G01 X-3.92908 Y-2.65879
G01 X-3.92669 Y-2.65926
G01 X-3.92403 Y-2.66025
G01 X-3.92191 Y-2.66145
G01 X-3.92000 Y-2.66295
G01 X-3.91806 Y-2.66503
G01 X-3.91671 Y-2.66705
G01 X-3.91567 Y-2.66925
G01 X-3.91497 Y-2.67158
G01 X-3.91469 Y-2.67318
G01 X-3.91456 Y-2.67520
G01 X-3.91457 Y-2.81340
G01 X-3.91488 Y-2.81623
G01 X-3.91567 Y-2.81895
G01 X-3.91671 Y-2.82115
G01 X-3.91832 Y-2.82349
G01 X-3.92093 Y-2.82604
G01 X-3.92367 Y-2.82777
G01 X-3.92669 Y-2.82894
G01 X-3.93029 Y-2.82951
G01 X-4.06273 Y-2.82953
G01 X-4.06756 Y-2.82753
G01 X-4.07285 Y-2.82475
G01 X-4.07716 Y-2.82125
G01 X-4.08065 Y-2.81695
G01 X-4.08343 Y-2.81166
G01 X-4.08544 Y-2.80682
G01 X-4.08343 Y-2.81166
G01 X-4.08065 Y-2.81695
G01 X-4.07716 Y-2.82125
G01 X-4.07285 Y-2.82475
G01 X-4.06756 Y-2.82753
G01 X-4.04752 Y-2.83583
G01 X-3.92949 Y-2.83578
G01 X-3.92749 Y-2.83555
G01 X-3.92512 Y-2.83504
G01 X-3.92283 Y-2.83428
G01 X-3.92062 Y-2.83329
G01 X-3.91854 Y-2.83207
G01 X-3.91659 Y-2.83064
G01 X-3.91481 Y-2.82900
G01 X-3.91321 Y-2.82719
G01 X-3.91119 Y-2.82418
G01 X-3.90954 Y-2.82051
G01 X-3.90855 Y-2.81661
G01 X-3.90827 Y-2.81300
G01 X-3.90827 Y-2.70969
G01 X-3.90918 Y-2.70710
G01 X-3.91064 Y-2.69529
G01 X-3.91065 Y-2.67540
G01 X-3.91205 Y-2.66416
G01 X-3.91326 Y-2.66095
G01 X-3.91539 Y-2.65863
G01 X-3.91787 Y-2.65659
G01 X-3.92027 Y-2.65510
G01 X-3.92283 Y-2.65392
G01 X-3.92551 Y-2.65306
G01 X-3.92829 Y-2.65254
G01 X-3.93110 Y-2.65237
G01 X-4.00899 Y-2.65237
G01 X-4.00903 Y-2.65253
G01 X-4.00899 Y-2.65237
G01 X-4.23510 Y-2.53931
G01 X-4.23951 Y-2.54003
G01 X-4.23510 Y-2.53931
G01 X-4.13762 Y-2.44183
G01 X-4.13782 Y-2.44135
G01 X-4.13762 Y-2.44183
G01 X-4.09619 Y-2.44183
G01 X-4.09113 Y-2.43677
G01 X-4.08597 Y-2.43225
G01 X-4.08057 Y-2.42883
G01 X-4.07501 Y-2.42667
G01 X-4.06890 Y-2.42585
G01 X-3.93110 Y-2.42585
G01 X-3.92499 Y-2.42667
G01 X-3.91943 Y-2.42883
G01 X-3.91403 Y-2.43225
G01 X-3.90887 Y-2.43677
G01 X-3.90381 Y-2.44183
G01 X-3.81238 Y-2.44183
G01 X-3.81218 Y-2.44135
G01 X-3.81238 Y-2.44183
G01 X-3.71157 Y-2.54264
G01 X-3.71098 Y-2.54242
G01 X-3.71157 Y-2.54264
G01 X-3.71218 Y-2.55020
G01 X-3.71132 Y-2.55991
G01 X-3.71095 Y-2.56233
G01 X-3.70753 Y-2.57361
G01 X-3.70649 Y-2.57582
G01 X-3.70223 Y-2.58372
G01 X-3.69597 Y-2.58829
G01 X-3.68092 Y-2.60082
G01 X-3.67479 Y-2.60537
G01 X-3.67076 Y-2.60806
G01 X-3.66932 Y-2.60892
G01 X-3.66352 Y-2.61067
G01 X-3.66032 Y-2.61128
G01 X-3.65020 Y-2.61218
G01 X-3.64817 Y-2.61211
G01 X-3.63968 Y-2.61128
G01 X-3.63609 Y-2.61056
G01 X-3.62639 Y-2.60753
G01 X-3.62454 Y-2.60668
G01 X-3.61702 Y-2.60266
G01 X-3.61397 Y-2.60062
G01 X-3.60738 Y-2.59521
G01 X-3.60588 Y-2.59383
G01 X-3.60147 Y-2.58858
G01 X-3.60173 Y-2.58801
G01 X-3.60147 Y-2.58858
G01 X-3.29853 Y-2.58858
G01 X-3.29827 Y-2.58801
G01 X-3.29853 Y-2.58858
G01 X-3.29411 Y-2.59383
G01 X-3.29262 Y-2.59521
G01 X-3.28603 Y-2.60062
G01 X-3.28298 Y-2.60266
G01 X-3.27546 Y-2.60668
G01 X-3.27361 Y-2.60753
G01 X-3.26391 Y-2.61056
G01 X-3.26032 Y-2.61128
G01 X-3.25183 Y-2.61211
G01 X-3.24980 Y-2.61218
G01 X-3.23928 Y-2.61122
G01 X-3.23609 Y-2.61056
G01 X-3.22677 Y-2.60768
G01 X-3.22454 Y-2.60668
G01 X-3.21737 Y-2.60286
G01 X-3.21562 Y-2.60182
G01 X-3.21365 Y-2.60037
G01 X-3.20707 Y-2.59495
G01 X-3.20479 Y-2.59262
G01 X-3.19937 Y-2.58603
G01 X-3.19818 Y-2.58438
G01 X-3.19351 Y-2.57582
G01 X-3.19247 Y-2.57361
G01 X-3.18905 Y-2.56233
G01 X-3.18868 Y-2.55991
G01 X-3.18782 Y-2.55061
G01 X-3.20671 Y-2.55000
G01 X-3.20754 Y-2.55844
G01 X-3.21001 Y-2.56657
G01 X-3.21401 Y-2.57405
G01 X-3.21939 Y-2.58061
G01 X-3.22595 Y-2.58599
G01 X-3.23343 Y-2.58999
G01 X-3.24155 Y-2.59246
G01 X-3.24961 Y-2.59327
G01 X-3.25882 Y-2.59236
G01 X-3.26656 Y-2.58999
G01 X-3.27405 Y-2.58599
G01 X-3.28087 Y-2.58032
G01 X-3.28599 Y-2.57405
G01 X-3.28834 Y-2.56969
G01 X-3.61165 Y-2.56969
G01 X-3.61401 Y-2.57405
G01 X-3.61939 Y-2.58061
G01 X-3.62595 Y-2.58599
G01 X-3.63308 Y-2.58983
G01 X-3.64194 Y-2.59251
G01 X-3.65000 Y-2.59329
G01 X-3.65806 Y-2.59251
G01 X-3.66656 Y-2.58999
G01 X-3.67405 Y-2.58599
G01 X-3.68061 Y-2.58061
G01 X-3.68619 Y-2.57372
G01 X-3.68999 Y-2.56657
G01 X-3.69251 Y-2.55806
G01 X-3.69327 Y-2.54961
G01 X-3.69245 Y-2.54155
G01 X-3.69095 Y-2.53654
G01 X-3.80455 Y-2.42294
G01 X-4.14545 Y-2.42294
G01 X-4.25905 Y-2.53654
G01 X-4.25754 Y-2.54155
G01 X-4.25673 Y-2.54962
G01 X-4.01345 Y-2.67126
G01 X-3.93110 Y-2.67126
G01 X-3.92988 Y-2.67145
G01 X-3.92878 Y-2.67201
G01 X-3.92791 Y-2.67288
G01 X-3.92725 Y-2.67438
G01 X-3.92716 Y-2.81300
G01 X-3.92735 Y-2.81422
G01 X-3.92817 Y-2.81563
G01 X-3.92950 Y-2.81660
G01 X-3.93110 Y-2.81694
G01 X-4.06890 Y-2.81694
G01 X-4.07050 Y-2.81660
G01 X-4.07153 Y-2.81593
G01 X-4.07250 Y-2.81460
G01 X-4.07284 Y-2.81300
G01 X-4.07284 Y-2.68559
G01 X-4.27445 Y-2.58479
G01 X-4.27628 Y-2.58619
G01 X-4.28343 Y-2.58999
G01 X-4.29155 Y-2.59246
G01 X-4.30000 Y-2.59329
G01 X-4.30844 Y-2.59246
G01 X-4.31656 Y-2.58999
G01 X-4.32436 Y-2.58576
G01 X-4.33087 Y-2.58032
G01 X-4.33599 Y-2.57405
G01 X-4.33834 Y-2.56969
G01 X-4.66165 Y-2.56969
G01 X-4.66401 Y-2.57405
G01 X-4.66939 Y-2.58061
G01 X-4.67595 Y-2.58599
G01 X-4.68309 Y-2.58983
G01 X-4.69194 Y-2.59251
G01 X-4.70000 Y-2.59329
G01 X-4.70806 Y-2.59251
G01 X-4.71657 Y-2.58999
G01 X-4.72405 Y-2.58599
G01 X-4.73061 Y-2.58061
G01 X-4.73619 Y-2.57372
G01 X-4.74012 Y-2.56620
G01 X-4.74245 Y-2.55844
G01 X-4.74327 Y-2.55038
G01 X-4.74245 Y-2.54155
G01 X-4.73999 Y-2.53343
G01 X-4.73599 Y-2.52595
G01 X-4.73087 Y-2.51968
G01 X-4.72405 Y-2.51401
G01 X-4.71620 Y-2.50988
G01 X-4.70844 Y-2.50754
G01 X-4.70000 Y-2.50671
G01 X-4.69156 Y-2.50754
G01 X-4.68380 Y-2.50988
G01 X-4.67595 Y-2.51401
G01 X-4.66913 Y-2.51968
G01 X-4.66401 Y-2.52595
G01 X-4.66165 Y-2.53031
G01 X-4.33834 Y-2.53031
G01 X-4.33599 Y-2.52595
G01 X-4.33061 Y-2.51939
G01 X-4.32405 Y-2.51401
G01 X-4.31656 Y-2.51001
G01 X-4.30844 Y-2.50754
G01 X-4.30000 Y-2.50671
G01 X-4.29155 Y-2.50754
G01 X-4.28653 Y-2.50905
G01 X-4.16724 Y-2.38975
G01 X-4.16397 Y-2.38714
G01 X-4.16094 Y-2.38554
G01 X-4.15766 Y-2.38453
G01 X-4.15350 Y-2.38406
G01 X-3.79650 Y-2.38406
G01 X-3.79271 Y-2.38443
G01 X-3.78906 Y-2.38554
G01 X-3.78570 Y-2.38734
G01 X-3.78275 Y-2.38975
G01 X-3.66346 Y-2.50905
G01 X-3.65844 Y-2.50754
G01 X-3.65000 Y-2.50671
G01 X-3.64155 Y-2.50754
G01 X-3.63343 Y-2.51001
G01 X-3.62595 Y-2.51401
G01 X-3.61939 Y-2.51939
G01 X-3.61401 Y-2.52595
G01 X-3.61165 Y-2.53031
G01 X-3.28834 Y-2.53031
G01 X-3.28599 Y-2.52595
G01 X-3.28087 Y-2.51968
G01 X-3.27405 Y-2.51401
G01 X-3.26620 Y-2.50988
G01 X-3.25844 Y-2.50754
G01 X-3.25000 Y-2.50671
G01 X-3.24155 Y-2.50754
G01 X-3.23343 Y-2.51001
G01 X-3.22595 Y-2.51401
G01 X-3.21939 Y-2.51939
G01 X-3.21401 Y-2.52595
G01 X-3.21001 Y-2.53343
G01 X-3.20754 Y-2.54155
G01 X-3.20671 Y-2.55000
G04 P0 ( dwell for no time -- G64 should not smooth over this point )
G00 Z0.08000 ( retract )

G00 X-3.45242 Y-2.85224 ( rapid move to begin. )
G01 F180.00000
( Mill infeed pass 1/1 )
G01 Z-0.04000
G04 P0 ( dwell for no time -- G64 should not smooth over this point )
G01 F360.00000
G01 X-3.45242 Y-2.85224
G01 X-3.45242 Y-2.84775
G01 X-3.45266 Y-2.84289
G01 X-3.45311 Y-2.83831
G01 X-3.45383 Y-2.83345
G01 X-3.45462 Y-2.82949
G01 X-3.45741 Y-2.82431
G01 X-3.45924 Y-2.82161
G01 X-3.46376 Y-2.81620
G01 X-3.46522 Y-2.81478
G01 X-3.46808 Y-2.81241
G01 X-3.47376 Y-2.81063
G01 X-3.47863 Y-2.80942
G01 X-3.48284 Y-2.80858
G01 X-3.48770 Y-2.80785
G01 X-3.49164 Y-2.80747
G01 X-3.49650 Y-2.80723
G01 X-3.50035 Y-2.80723
G01 X-3.50521 Y-2.80747
G01 X-3.50915 Y-2.80785
G01 X-3.51401 Y-2.80858
G01 X-3.51823 Y-2.80942
G01 X-3.52309 Y-2.81064
G01 X-3.52778 Y-2.81206
G01 X-3.52877 Y-2.81241
G01 X-3.53281 Y-2.81590
G01 X-3.53857 Y-2.82293
G01 X-3.53965 Y-2.82466
G01 X-3.54275 Y-2.83054
G01 X-3.54380 Y-2.83319
G01 X-3.54570 Y-2.83956
G01 X-3.54634 Y-2.84370
G01 X-3.54607 Y-2.84384
G01 X-3.54634 Y-2.84370
G01 X-3.60740 Y-2.90476
G01 X-3.60728 Y-2.90690
G01 X-3.60740 Y-2.90476
G01 X-3.61429 Y-2.89912
G01 X-3.61702 Y-2.89734
G01 X-3.62564 Y-2.89279
G01 X-3.62831 Y-2.89179
G01 X-3.63767 Y-2.88905
G01 X-3.63968 Y-2.88872
G01 X-3.64776 Y-2.88793
G01 X-3.65020 Y-2.88782
G01 X-3.65991 Y-2.88868
G01 X-3.66233 Y-2.88905
G01 X-3.67208 Y-2.89192
G01 X-3.67546 Y-2.89332
G01 X-3.68438 Y-2.89818
G01 X-3.68603 Y-2.89937
G01 X-3.69231 Y-2.90452
G01 X-3.69468 Y-2.90677
G01 X-3.69874 Y-2.91167
G01 X-3.69847 Y-2.91225
G01 X-3.69874 Y-2.91167
G01 X-3.97992 Y-2.91167
G01 X-3.98012 Y-2.91214
G01 X-3.97992 Y-2.91167
G01 X-4.04993 Y-2.84165
G01 X-4.06514 Y-2.83535
G01 X-3.98253 Y-2.91796
G01 X-3.98273 Y-2.91844
G01 X-3.98253 Y-2.91796
G01 X-3.69575 Y-2.91796
G01 X-3.69549 Y-2.91853
G01 X-3.69575 Y-2.91796
G01 X-3.68952 Y-2.91048
G01 X-3.68203 Y-2.90425
G01 X-3.67966 Y-2.90270
G01 X-3.67139 Y-2.89837
G01 X-3.66209 Y-2.89547
G01 X-3.65970 Y-2.89500
G01 X-3.65000 Y-2.89411
G01 X-3.64030 Y-2.89500
G01 X-3.63791 Y-2.89547
G01 X-3.62861 Y-2.89837
G01 X-3.62034 Y-2.90270
G01 X-3.61765 Y-2.90450
G01 X-3.61137 Y-2.90965
G01 X-3.60992 Y-2.91107
G01 X-3.60760 Y-2.91387
G01 X-3.60769 Y-2.91678
G01 X-3.60760 Y-2.91387
G01 X-3.54029 Y-2.84656
G01 X-3.53998 Y-2.84672
G01 X-3.54029 Y-2.84656
G01 X-3.53982 Y-2.84218
G01 X-3.53789 Y-2.83541
G01 X-3.53684 Y-2.83277
G01 X-3.53409 Y-2.82763
G01 X-3.53274 Y-2.82561
G01 X-3.52850 Y-2.82050
G01 X-3.52701 Y-2.81912
G01 X-3.52216 Y-2.81520
G01 X-3.52044 Y-2.81414
G01 X-3.51492 Y-2.81124
G01 X-3.50783 Y-2.80896
G01 X-3.50544 Y-2.80849
G01 X-3.50005 Y-2.80795
G01 X-3.49680 Y-2.80795
G01 X-3.48981 Y-2.80877
G01 X-3.48383 Y-2.81053
G01 X-3.48193 Y-2.81124
G01 X-3.47502 Y-2.81497
G01 X-3.46864 Y-2.82021
G01 X-3.46340 Y-2.82660
G01 X-3.45951 Y-2.83388
G01 X-3.45711 Y-2.84178
G01 X-3.45630 Y-2.85000
G01 X-3.45711 Y-2.85822
G01 X-3.45951 Y-2.86612
G01 X-3.46340 Y-2.87340
G01 X-3.46864 Y-2.87979
G01 X-3.47502 Y-2.88503
G01 X-3.48193 Y-2.88876
G01 X-3.48383 Y-2.88947
G01 X-3.49021 Y-2.89132
G01 X-3.49499 Y-2.89187
G01 X-3.49514 Y-2.89155
G01 X-3.49499 Y-2.89187
G01 X-3.57577 Y-2.97265
G01 X-3.58029 Y-2.97641
G01 X-3.58579 Y-2.97944
G01 X-3.59178 Y-2.98134
G01 X-3.59802 Y-2.98203
G01 X-3.60425 Y-2.98204
G01 X-3.60450 Y-2.98154
G01 X-3.60425 Y-2.98204
G01 X-3.60965 Y-2.98862
G01 X-3.61137 Y-2.99035
G01 X-3.61895 Y-2.99647
G01 X-3.62715 Y-3.00094
G01 X-3.62975 Y-3.00205
G01 X-3.63870 Y-3.00473
G01 X-3.64070 Y-3.00505
G01 X-3.65041 Y-3.00588
G01 X-3.65970 Y-3.00500
G01 X-3.66248 Y-3.00442
G01 X-3.67139 Y-3.00163
G01 X-3.67966 Y-2.99730
G01 X-3.68203 Y-2.99575
G01 X-3.68952 Y-2.98952
G01 X-3.69575 Y-2.98204
G01 X-3.69549 Y-2.98147
G01 X-3.69575 Y-2.98204
G01 X-3.99580 Y-2.98204
G01 X-4.00165 Y-2.98149
G01 X-4.00730 Y-2.97989
G01 X-4.00953 Y-2.97890
G01 X-4.01360 Y-2.97664
G01 X-4.01845 Y-2.97265
G01 X-4.17016 Y-2.82094
G01 X-4.16996 Y-2.82046
G01 X-4.17016 Y-2.82094
G01 X-4.27530 Y-2.82094
G01 X-4.27870 Y-2.81972
G01 X-4.28543 Y-2.81783
G01 X-4.29215 Y-2.81668
G01 X-4.29846 Y-2.81622
G01 X-4.42474 Y-2.81618
G01 X-4.43050 Y-2.81427
G01 X-4.43791 Y-2.81254
G01 X-4.44308 Y-2.81175
G01 X-4.45059 Y-2.81128
G01 X-4.45256 Y-2.81127
G01 X-4.46007 Y-2.81176
G01 X-4.46748 Y-2.81298
G01 X-4.47388 Y-2.81465
G01 X-4.51209 Y-2.81465
G01 X-4.50733 Y-2.81766
G01 X-4.50233 Y-2.82204
G01 X-4.49831 Y-2.82605
G01 X-4.49314 Y-2.82295
G01 X-4.48918 Y-2.82083
G01 X-4.48402 Y-2.81839
G01 X-4.48057 Y-2.81695
G01 X-4.47388 Y-2.81465
G01 X-4.51209 Y-2.81465
G01 X-4.51330 Y-2.81396
G01 X-4.51829 Y-2.81203
G01 X-4.52441 Y-2.81124
G01 X-4.57559 Y-2.81123
G01 X-4.58375 Y-2.81262
G01 X-4.59058 Y-2.81630
G01 X-4.60155 Y-2.81634
G01 X-4.60784 Y-2.81678
G01 X-4.61438 Y-2.81794
G01 X-4.61757 Y-2.81872
G01 X-4.62432 Y-2.82094
G01 X-4.63642 Y-2.82094
G01 X-4.63662 Y-2.82046
G01 X-4.63642 Y-2.82094
G01 X-4.70394 Y-2.88846
G01 X-4.71069 Y-2.89166
G01 X-4.71380 Y-2.89331
G01 X-4.72077 Y-2.89747
G01 X-4.72331 Y-2.89918
G01 X-4.72970 Y-2.90392
G01 X-4.73742 Y-2.91073
G01 X-4.73915 Y-2.91248
G01 X-4.74454 Y-2.91843
G01 X-4.74884 Y-2.92402
G01 X-4.74936 Y-2.92513
G01 X-4.74949 Y-2.92508
G01 X-4.74936 Y-2.92513
G01 X-4.75022 Y-2.92856
G01 X-4.75187 Y-2.93878
G01 X-4.75247 Y-2.94902
G01 X-4.75209 Y-2.95885
G01 X-4.75187 Y-2.96122
G01 X-4.75069 Y-2.96908
G01 X-4.74915 Y-2.97545
G01 X-4.74934 Y-2.97554
G01 X-4.74915 Y-2.97545
G01 X-4.74617 Y-2.97958
G01 X-4.74454 Y-2.98156
G01 X-4.73926 Y-2.98741
G01 X-4.73156 Y-2.99454
G01 X-4.72429 Y-3.00009
G01 X-4.57886 Y-3.14552
G01 X-4.57906 Y-3.14600
G01 X-4.57886 Y-3.14552
G01 X-4.54925 Y-3.14552
G01 X-4.54912 Y-3.14590
G01 X-4.54925 Y-3.14552
G01 X-4.54824 Y-3.14439
G01 X-4.54314 Y-3.14018
G01 X-4.54179 Y-3.13932
G01 X-4.53667 Y-3.13659
G01 X-4.53517 Y-3.13600
G01 X-4.52922 Y-3.13423
G01 X-4.52215 Y-3.13348
G01 X-4.47835 Y-3.13346
G01 X-4.47197 Y-3.13404
G01 X-4.47039 Y-3.13433
G01 X-4.46407 Y-3.13627
G01 X-4.45821 Y-3.13932
G01 X-4.45686 Y-3.14018
G01 X-4.45148 Y-3.14468
G01 X-4.44727 Y-3.14977
G01 X-4.44692 Y-3.15062
G01 X-4.44518 Y-3.15797
G01 X-4.44422 Y-3.16511
G01 X-4.44396 Y-3.17035
G01 X-4.44422 Y-3.17741
G01 X-4.44518 Y-3.18454
G01 X-4.44711 Y-3.19253
G01 X-4.45148 Y-3.19784
G01 X-4.45654 Y-3.20209
G01 X-4.45786 Y-3.20301
G01 X-4.46370 Y-3.20610
G01 X-4.46800 Y-3.20748
G01 X-4.45308 Y-3.20748
G01 X-4.44956 Y-3.19966
G01 X-4.44711 Y-3.19253
G01 X-4.45176 Y-3.19813
G01 X-4.45718 Y-3.20257
G01 X-4.46370 Y-3.20610
G01 X-4.46800 Y-3.20748
G01 X-4.53200 Y-3.20748
G01 X-4.53630 Y-3.20610
G01 X-4.54248 Y-3.20280
G01 X-4.54824 Y-3.19813
G01 X-4.54925 Y-3.19699
G01 X-4.54911 Y-3.19661
G01 X-4.54925 Y-3.19699
G01 X-4.59002 Y-3.19698
G01 X-4.59394 Y-3.19660
G01 X-4.59551 Y-3.19626
G01 X-4.59955 Y-3.19496
G01 X-4.60330 Y-3.19298
G01 X-4.60462 Y-3.19206
G01 X-4.60772 Y-3.18946
G01 X-4.79305 Y-3.00413
G01 X-4.79613 Y-3.00039
G01 X-4.79838 Y-2.99633
G01 X-4.80005 Y-2.99114
G01 X-4.80058 Y-2.98626
G01 X-4.80058 Y-2.91374
G01 X-4.80019 Y-2.90964
G01 X-4.79985 Y-2.90808
G01 X-4.79855 Y-2.90404
G01 X-4.79657 Y-2.90028
G01 X-4.79565 Y-2.89897
G01 X-4.79305 Y-2.89587
G01 X-4.66789 Y-2.77071
G01 X-4.66415 Y-2.76762
G01 X-4.66008 Y-2.76538
G01 X-4.65490 Y-2.76371
G01 X-4.64969 Y-2.76317
G01 X-4.15689 Y-2.76317
G01 X-4.15167 Y-2.76371
G01 X-4.14723 Y-2.76506
G01 X-4.14345 Y-2.76699
G01 X-4.14210 Y-2.76786
G01 X-4.13869 Y-2.77071
G01 X-3.98514 Y-2.92426
G01 X-3.98534 Y-2.92474
G01 X-3.98514 Y-2.92426
G01 X-3.69225 Y-2.92426
G01 X-3.69193 Y-2.92491
G01 X-3.69225 Y-2.92426
G01 X-3.69112 Y-2.92229
G01 X-3.68548 Y-2.91538
G01 X-3.68432 Y-2.91426
G01 X-3.67835 Y-2.90937
G01 X-3.67704 Y-2.90845
G01 X-3.66916 Y-2.90427
G01 X-3.66065 Y-2.90161
G01 X-3.65868 Y-2.90122
G01 X-3.64980 Y-2.90042
G01 X-3.64052 Y-2.90133
G01 X-3.63197 Y-2.90385
G01 X-3.63012 Y-2.90462
G01 X-3.62262 Y-2.90866
G01 X-3.61508 Y-2.91480
G01 X-3.60937 Y-2.92164
G01 X-3.60821 Y-2.92339
G01 X-3.60839 Y-2.92656
G01 X-3.60821 Y-2.92339
G01 X-3.53423 Y-2.84941
G01 X-3.53389 Y-2.84958
G01 X-3.53423 Y-2.84940
G01 X-3.53360 Y-2.84321
G01 X-3.53186 Y-2.83724
G01 X-3.53110 Y-2.83538
G01 X-3.52832 Y-2.83026
G01 X-3.52443 Y-2.82541
G01 X-3.52301 Y-2.82399
G01 X-3.51816 Y-2.82010
G01 X-3.51195 Y-2.81683
G01 X-3.50600 Y-2.81500
G01 X-3.50442 Y-2.81471
G01 X-3.49903 Y-2.81419
G01 X-3.49742 Y-2.81422
G01 X-3.49124 Y-2.81490
G01 X-3.48566 Y-2.81656
G01 X-3.48416 Y-2.81715
G01 X-3.47869 Y-2.82010
G01 X-3.47323 Y-2.82452
G01 X-3.46875 Y-2.82993
G01 X-3.46525 Y-2.83648
G01 X-3.46333 Y-2.84281
G01 X-3.46265 Y-2.84900
G01 X-3.46265 Y-2.85100
G01 X-3.46333 Y-2.85719
G01 X-3.46525 Y-2.86352
G01 X-3.46812 Y-2.86904
G01 X-3.46923 Y-2.87071
G01 X-3.47353 Y-2.87575
G01 X-3.47869 Y-2.87990
G01 X-3.48490 Y-2.88317
G01 X-3.49163 Y-2.88517
G01 X-3.49782 Y-2.88581
G01 X-3.49800 Y-2.88547
G01 X-3.49784 Y-2.88581
G01 X-3.58023 Y-2.96820
G01 X-3.58396 Y-2.97128
G01 X-3.58876 Y-2.97385
G01 X-3.59360 Y-2.97528
G01 X-3.59809 Y-2.97573
G01 X-3.60774 Y-2.97574
G01 X-3.60805 Y-2.97515
G01 X-3.60774 Y-2.97574
G01 X-3.60888 Y-2.97771
G01 X-3.61452 Y-2.98462
G01 X-3.61568 Y-2.98574
G01 X-3.62164 Y-2.99063
G01 X-3.62296 Y-2.99155
G01 X-3.63084 Y-2.99573
G01 X-3.63935 Y-2.99839
G01 X-3.64132 Y-2.99878
G01 X-3.65020 Y-2.99958
G01 X-3.65868 Y-2.99878
G01 X-3.66065 Y-2.99839
G01 X-3.66916 Y-2.99573
G01 X-3.67704 Y-2.99155
G01 X-3.67835 Y-2.99063
G01 X-3.68432 Y-2.98574
G01 X-3.68548 Y-2.98462
G01 X-3.69112 Y-2.97771
G01 X-3.69225 Y-2.97574
G01 X-3.69193 Y-2.97509
G01 X-3.69225 Y-2.97574
G01 X-3.99580 Y-2.97574
G01 X-4.00062 Y-2.97528
G01 X-4.00509 Y-2.97399
G01 X-4.00993 Y-2.97151
G01 X-4.01400 Y-2.96820
G01 X-4.16755 Y-2.81465
G01 X-4.16735 Y-2.81417
G01 X-4.16755 Y-2.81465
G01 X-4.42926 Y-2.81465
G01 X-4.43567 Y-2.81298
G01 X-4.44308 Y-2.81176
G01 X-4.44542 Y-2.81153
G01 X-4.45256 Y-2.81128
G01 X-4.45788 Y-2.81155
G01 X-4.46508 Y-2.81251
G01 X-4.47265 Y-2.81427
G01 X-4.48071 Y-2.81701
G01 X-4.48402 Y-2.81839
G01 X-4.48939 Y-2.82094
G01 X-4.50359 Y-2.82094
G01 X-4.50774 Y-2.81736
G01 X-4.51330 Y-2.81396
G01 X-4.51902 Y-2.81191
G01 X-4.52441 Y-2.81126
G01 X-4.57559 Y-2.81126
G01 X-4.58372 Y-2.81269
G01 X-4.58747 Y-2.81465
G01 X-4.63903 Y-2.81465
G01 X-4.63922 Y-2.81417
G01 X-4.63903 Y-2.81465
G01 X-4.72429 Y-2.89991
G01 X-4.73156 Y-2.90545
G01 X-4.73915 Y-2.91248
G01 X-4.74454 Y-2.91843
G01 X-4.74884 Y-2.92402
G01 X-4.74936 Y-2.92513
G01 X-4.75022 Y-2.92856
G01 X-4.75186 Y-2.93878
G01 X-4.75247 Y-2.94902
G01 X-4.75209 Y-2.95885
G01 X-4.75186 Y-2.96122
G01 X-4.75069 Y-2.96908
G01 X-4.74915 Y-2.97545
G01 X-4.74617 Y-2.97958
G01 X-4.74454 Y-2.98156
G01 X-4.73925 Y-2.98740
G01 X-4.73740 Y-2.98925
G01 X-4.72970 Y-2.99608
G01 X-4.72318 Y-3.00091
G01 X-4.71395 Y-3.00662
G01 X-4.71069 Y-3.00834
G01 X-4.70394 Y-3.01154
G01 X-4.57625 Y-3.13922
G01 X-4.57645 Y-3.13970
G01 X-4.57625 Y-3.13922
G01 X-4.55191 Y-3.13922
G01 X-4.55178 Y-3.13957
G01 X-4.55191 Y-3.13922
G01 X-4.54615 Y-3.13460
G01 X-4.53853 Y-3.13052
G01 X-4.53026 Y-3.12801
G01 X-4.52206 Y-3.12717
G01 X-4.47794 Y-3.12717
G01 X-4.47095 Y-3.12782
G01 X-4.46856 Y-3.12829
G01 X-4.46147 Y-3.13052
G01 X-4.45488 Y-3.13396
G01 X-4.45300 Y-3.13520
G01 X-4.44956 Y-3.14286
G01 X-4.44692 Y-3.15062
G01 X-4.44560 Y-3.15587
G01 X-4.44440 Y-3.16322
G01 X-4.44396 Y-3.17216
G01 X-4.44440 Y-3.17930
G01 X-4.44518 Y-3.18454
G01 X-4.44692 Y-3.19190
G01 X-4.44956 Y-3.19966
G01 X-4.45084 Y-3.20275
G01 X-4.45301 Y-3.20732
G01 X-4.45322 Y-3.20748
G01 X-4.54678 Y-3.20748
G01 X-4.55191 Y-3.20329
G01 X-4.55178 Y-3.20293
G01 X-4.55191 Y-3.20329
G01 X-4.58952 Y-3.20329
G01 X-4.59577 Y-3.20268
G01 X-4.60064 Y-3.20128
G01 X-4.60288 Y-3.20035
G01 X-4.60731 Y-3.19789
G01 X-4.61158 Y-3.19447
G01 X-4.79750 Y-3.00858
G01 X-4.80052 Y-3.00503
G01 X-4.80171 Y-3.00339
G01 X-4.80394 Y-2.99929
G01 X-4.80499 Y-2.99666
G01 X-4.80627 Y-2.99218
G01 X-4.80687 Y-2.98674
G01 X-4.80689 Y-2.91407
G01 X-4.80634 Y-2.90822
G01 X-4.80499 Y-2.90334
G01 X-4.80394 Y-2.90070
G01 X-4.80126 Y-2.89594
G01 X-4.79750 Y-2.89142
G01 X-4.67205 Y-2.76597
G01 X-4.66782 Y-2.76250
G01 X-4.66341 Y-2.76001
G01 X-4.66080 Y-2.75889
G01 X-4.65594 Y-2.75749
G01 X-4.64969 Y-2.75687
G01 X-4.15689 Y-2.75687
G01 X-4.15184 Y-2.75730
G01 X-4.14985 Y-2.75767
G01 X-4.14616 Y-2.75876
G01 X-4.14352 Y-2.75982
G01 X-4.13909 Y-2.76227
G01 X-4.13482 Y-2.76570
G01 X-4.09125 Y-2.80924
G01 X-4.08920 Y-2.81420
G01 X-4.08612 Y-2.82019
G01 X-4.08141 Y-2.82596
G01 X-4.07608 Y-2.83021
G01 X-4.07037 Y-2.83318
G01 X-4.06514 Y-2.83535
G01 X-4.07037 Y-2.83318
G01 X-4.07606 Y-2.83018
G01 X-4.08184 Y-2.82548
G01 X-4.08608 Y-2.82016
G01 X-4.08907 Y-2.81447
G01 X-4.09755 Y-2.79403
G01 X-4.13005 Y-2.76154
G01 X-4.13509 Y-2.75738
G01 X-4.13680 Y-2.75628
G01 X-4.14055 Y-2.75426
G01 X-4.14394 Y-2.75286
G01 X-4.14802 Y-2.75163
G01 X-4.15001 Y-2.75120
G01 X-4.15651 Y-2.75058
G01 X-4.64969 Y-2.75057
G01 X-4.65656 Y-2.75120
G01 X-4.65895 Y-2.75174
G01 X-4.66302 Y-2.75299
G01 X-4.66566 Y-2.75408
G01 X-4.67047 Y-2.75670
G01 X-4.67247 Y-2.75811
G01 X-4.67653 Y-2.76154
G01 X-4.80196 Y-2.88696
G01 X-4.80539 Y-2.89097
G01 X-4.80706 Y-2.89329
G01 X-4.80968 Y-2.89810
G01 X-4.81102 Y-2.90151
G01 X-4.81249 Y-2.90679
G01 X-4.81316 Y-2.91295
G01 X-4.81318 Y-2.98593
G01 X-4.81278 Y-2.99119
G01 X-4.81202 Y-2.99519
G01 X-4.81077 Y-2.99926
G01 X-4.80968 Y-3.00190
G01 X-4.80661 Y-3.00739
G01 X-4.80222 Y-3.01277
G01 X-4.61662 Y-3.19836
G01 X-4.61230 Y-3.20205
G01 X-4.60996 Y-3.20368
G01 X-4.60438 Y-3.20660
G01 X-4.59917 Y-3.20831
G01 X-4.59559 Y-3.20909
G01 X-4.59026 Y-3.20958
G01 X-4.56057 Y-3.20959
G01 X-4.55785 Y-3.20847
G01 X-4.55455 Y-3.20739
G01 X-4.45308 Y-3.20748
G01 X-4.44956 Y-3.19966
G01 X-4.44711 Y-3.19252
G01 X-4.44560 Y-3.18665
G01 X-4.44518 Y-3.18454
G01 X-4.44422 Y-3.17741
G01 X-4.44396 Y-3.17216
G01 X-4.44422 Y-3.16511
G01 X-4.44518 Y-3.15797
G01 X-4.44560 Y-3.15587
G01 X-4.44692 Y-3.15062
G01 X-4.44956 Y-3.14286
G01 X-4.45084 Y-3.13977
G01 X-4.45333 Y-3.13451
G01 X-4.45544 Y-3.13057
G01 X-4.45898 Y-3.12474
G01 X-4.46117 Y-3.12395
G01 X-4.46831 Y-3.12188
G01 X-4.47033 Y-3.12155
G01 X-4.47723 Y-3.12089
G01 X-4.52352 Y-3.12094
G01 X-4.53168 Y-3.12188
G01 X-4.54075 Y-3.12462
G01 X-4.54296 Y-3.12566
G01 X-4.54948 Y-3.12925
G01 X-4.55417 Y-3.13292
G01 X-4.55405 Y-3.13326
G01 X-4.55417 Y-3.13292
G01 X-4.57364 Y-3.13292
G01 X-4.57384 Y-3.13340
G01 X-4.57364 Y-3.13292
G01 X-4.68968 Y-3.01689
G01 X-4.69910 Y-3.01358
G01 X-4.70328 Y-3.01185
G01 X-4.71069 Y-3.00834
G01 X-4.71394 Y-3.00661
G01 X-4.72076 Y-3.00252
G01 X-4.72318 Y-3.00091
G01 X-4.73156 Y-2.99454
G01 X-4.73752 Y-2.98915
G01 X-4.74454 Y-2.98156
G01 X-4.74617 Y-2.97958
G01 X-4.74915 Y-2.97545
G01 X-4.75069 Y-2.96908
G01 X-4.75208 Y-2.95901
G01 X-4.75247 Y-2.95098
G01 X-4.75209 Y-2.94115
G01 X-4.75071 Y-2.93107
G01 X-4.74936 Y-2.92513
G01 X-4.74884 Y-2.92402
G01 X-4.74617 Y-2.92042
G01 X-4.74444 Y-2.91832
G01 X-4.73741 Y-2.91074
G01 X-4.72970 Y-2.90392
G01 X-4.72318 Y-2.89909
G01 X-4.72076 Y-2.89748
G01 X-4.71394 Y-2.89339
G01 X-4.71082 Y-2.89172
G01 X-4.70314 Y-2.88809
G01 X-4.69910 Y-2.88642
G01 X-4.69468 Y-2.88484
G01 X-4.63521 Y-2.82545
G01 X-4.63528 Y-2.82535
G01 X-4.63521 Y-2.82545
G01 X-4.62651 Y-2.82178
G01 X-4.62137 Y-2.81989
G01 X-4.61453 Y-2.81797
G01 X-4.61103 Y-2.81727
G01 X-4.60467 Y-2.81649
G01 X-4.60008 Y-2.81630
G01 X-4.59058 Y-2.81630
G01 X-4.58372 Y-2.81269
G01 X-4.57614 Y-2.81131
G01 X-4.52441 Y-2.81126
G01 X-4.51830 Y-2.81208
G01 X-4.51274 Y-2.81424
G01 X-4.50733 Y-2.81766
G01 X-4.50233 Y-2.82204
G01 X-4.49831 Y-2.82605
G01 X-4.49327 Y-2.82303
G01 X-4.48904 Y-2.82076
G01 X-4.48402 Y-2.81839
G01 X-4.48071 Y-2.81701
G01 X-4.47541 Y-2.81511
G01 X-4.47265 Y-2.81427
G01 X-4.46508 Y-2.81251
G01 X-4.45788 Y-2.81155
G01 X-4.45059 Y-2.81128
G01 X-4.44323 Y-2.81175
G01 X-4.43791 Y-2.81254
G01 X-4.43050 Y-2.81427
G01 X-4.42474 Y-2.81618
G01 X-4.30000 Y-2.81618
G01 X-4.29514 Y-2.81638
G01 X-4.28891 Y-2.81715
G01 X-4.28558 Y-2.81781
G01 X-4.27856 Y-2.81977
G01 X-4.27122 Y-2.82263
G01 X-4.26800 Y-2.82417
G01 X-4.26237 Y-2.82724
G01 X-4.17277 Y-2.82724
G01 X-4.17257 Y-2.82676
G01 X-4.17277 Y-2.82724
G01 X-4.02264 Y-2.97737
G01 X-4.01890 Y-2.98054
G01 X-4.01693 Y-2.98199
G01 X-4.01213 Y-2.98465
G01 X-4.00952 Y-2.98578
G01 X-4.00308 Y-2.98764
G01 X-3.99804 Y-2.98822
G01 X-3.99580 Y-2.98833
G01 X-3.69874 Y-2.98833
G01 X-3.69847 Y-2.98775
G01 X-3.69874 Y-2.98833
G01 X-3.69468 Y-2.99323
G01 X-3.69231 Y-2.99548
G01 X-3.68603 Y-3.00062
G01 X-3.68438 Y-3.00182
G01 X-3.67546 Y-3.00668
G01 X-3.67208 Y-3.00808
G01 X-3.66273 Y-3.01086
G01 X-3.66032 Y-3.01127
G01 X-3.65061 Y-3.01218
G01 X-3.64776 Y-3.01207
G01 X-3.63807 Y-3.01103
G01 X-3.63609 Y-3.01056
G01 X-3.62831 Y-3.00821
G01 X-3.62602 Y-3.00737
G01 X-3.61702 Y-3.00266
G01 X-3.61397 Y-3.00062
G01 X-3.60738 Y-2.99521
G01 X-3.60588 Y-2.99383
G01 X-3.60126 Y-2.98833
G01 X-3.60150 Y-2.98784
G01 X-3.60126 Y-2.98833
G01 X-3.59730 Y-2.98831
G01 X-3.59235 Y-2.98783
G01 X-3.58916 Y-2.98717
G01 X-3.58509 Y-2.98592
G01 X-3.58245 Y-2.98483
G01 X-3.57799 Y-2.98242
G01 X-3.57533 Y-2.98054
G01 X-3.57132 Y-2.97711
G01 X-3.49213 Y-2.89791
G01 X-3.49227 Y-2.89764
G01 X-3.49213 Y-2.89791
G01 X-3.48798 Y-2.89727
G01 X-3.48161 Y-2.89537
G01 X-3.47859 Y-2.89415
G01 X-3.47309 Y-2.89122
G01 X-3.47102 Y-2.88992
G01 X-3.46553 Y-2.88549
G01 X-3.46376 Y-2.88380
G01 X-3.45827 Y-2.87707
G01 X-3.45462 Y-2.87051
G01 X-3.45383 Y-2.86655
G01 X-3.45311 Y-2.86169
G01 X-3.45266 Y-2.85711
G01 X-3.45242 Y-2.85224
G01 X-3.45630 Y-2.85040
G01 X-3.46890 Y-2.85000
G01 X-3.46947 Y-2.85576
G01 X-3.47114 Y-2.86130
G01 X-3.47387 Y-2.86640
G01 X-3.47755 Y-2.87088
G01 X-3.48202 Y-2.87455
G01 X-3.48712 Y-2.87728
G01 X-3.49266 Y-2.87896
G01 X-3.49804 Y-2.87951
G01 X-3.50030 Y-2.87936
G01 X-3.58468 Y-2.96374
G01 X-3.58763 Y-2.96616
G01 X-3.59099 Y-2.96796
G01 X-3.59502 Y-2.96912
G01 X-3.59843 Y-2.96944
G01 X-3.61152 Y-2.96944
G01 X-3.61401 Y-2.97405
G01 X-3.61913 Y-2.98032
G01 X-3.62595 Y-2.98599
G01 X-3.63380 Y-2.99012
G01 X-3.64155 Y-2.99246
G01 X-3.65000 Y-2.99329
G01 X-3.65844 Y-2.99246
G01 X-3.66620 Y-2.99012
G01 X-3.67405 Y-2.98599
G01 X-3.68087 Y-2.98032
G01 X-3.68599 Y-2.97405
G01 X-3.68848 Y-2.96944
G01 X-3.99580 Y-2.96944
G01 X-3.99959 Y-2.96906
G01 X-4.00324 Y-2.96796
G01 X-4.00660 Y-2.96616
G01 X-4.00954 Y-2.96374
G01 X-4.16494 Y-2.80835
G01 X-4.64163 Y-2.80835
G01 X-4.75541 Y-2.92212
G01 X-4.75541 Y-2.97788
G01 X-4.58147 Y-3.15182
G01 X-4.54627 Y-3.15182
G01 X-4.54392 Y-3.14899
G01 X-4.53915 Y-3.14507
G01 X-4.53371 Y-3.14216
G01 X-4.52742 Y-3.14031
G01 X-4.52165 Y-3.13976
G01 X-4.47835 Y-3.13976
G01 X-4.47220 Y-3.14037
G01 X-4.46594 Y-3.14233
G01 X-4.46085 Y-3.14507
G01 X-4.45636 Y-3.14873
G01 X-4.45216 Y-3.15376
G01 X-4.44925 Y-3.15921
G01 X-4.44745 Y-3.16512
G01 X-4.44685 Y-3.17126
G01 X-4.44745 Y-3.17740
G01 X-4.44925 Y-3.18331
G01 X-4.45216 Y-3.18876
G01 X-4.45608 Y-3.19353
G01 X-4.46085 Y-3.19745
G01 X-4.46666 Y-3.20049
G01 X-4.47220 Y-3.20215
G01 X-4.47796 Y-3.20274
G01 X-4.52204 Y-3.20274
G01 X-4.52780 Y-3.20215
G01 X-4.53406 Y-3.20019
G01 X-4.53946 Y-3.19722
G01 X-4.54392 Y-3.19353
G01 X-4.54627 Y-3.19070
G01 X-4.58990 Y-3.19068
G01 X-4.59331 Y-3.19032
G01 X-4.59659 Y-3.18935
G01 X-4.60063 Y-3.18719
G01 X-4.60326 Y-3.18500
G01 X-4.78859 Y-2.99967
G01 X-4.79101 Y-2.99673
G01 X-4.79294 Y-2.99300
G01 X-4.79391 Y-2.98972
G01 X-4.79429 Y-2.98593
G01 X-4.79429 Y-2.91407
G01 X-4.79391 Y-2.91028
G01 X-4.79294 Y-2.90700
G01 X-4.79101 Y-2.90327
G01 X-4.78859 Y-2.90033
G01 X-4.66343 Y-2.77516
G01 X-4.66049 Y-2.77275
G01 X-4.65712 Y-2.77095
G01 X-4.65348 Y-2.76985
G01 X-4.64969 Y-2.76947
G01 X-4.15689 Y-2.76947
G01 X-4.15310 Y-2.76985
G01 X-4.14910 Y-2.77112
G01 X-4.14609 Y-2.77275
G01 X-4.14314 Y-2.77516
G01 X-3.98775 Y-2.93056
G01 X-3.68848 Y-2.93056
G01 X-3.68599 Y-2.92595
G01 X-3.68087 Y-2.91968
G01 X-3.67405 Y-2.91401
G01 X-3.66620 Y-2.90988
G01 X-3.65844 Y-2.90754
G01 X-3.65000 Y-2.90671
G01 X-3.64118 Y-2.90764
G01 X-3.63343 Y-2.91001
G01 X-3.62628 Y-2.91381
G01 X-3.61913 Y-2.91968
G01 X-3.61401 Y-2.92595
G01 X-3.61152 Y-2.93056
G01 X-3.60648 Y-2.93056
G01 X-3.52779 Y-2.85187
G01 X-3.52793 Y-2.84961
G01 X-3.52739 Y-2.84424
G01 X-3.52554 Y-2.83835
G01 X-3.52298 Y-2.83359
G01 X-3.51956 Y-2.82941
G01 X-3.51450 Y-2.82525
G01 X-3.50972 Y-2.82272
G01 X-3.50456 Y-2.82113
G01 X-3.49843 Y-2.82047
G01 X-3.49229 Y-2.82113
G01 X-3.48712 Y-2.82272
G01 X-3.48235 Y-2.82525
G01 X-3.47755 Y-2.82912
G01 X-3.47368 Y-2.83393
G01 X-3.47114 Y-2.83870
G01 X-3.46956 Y-2.84386
G01 X-3.46890 Y-2.85000
G04 P0 ( dwell for no time -- G64 should not smooth over this point )
G00 Z0.08000 ( retract )

G00 X-3.20611 Y-2.91568 ( rapid move to begin. )
G01 F180.00000
( Mill infeed pass 1/1 )
G01 Z-0.04000
G04 P0 ( dwell for no time -- G64 should not smooth over this point )
G01 F360.00000
G01 X-3.20611 Y-2.91568
G01 X-3.20832 Y-2.90952
G01 X-3.21010 Y-2.90523
G01 X-3.21218 Y-2.90084
G01 X-3.21462 Y-2.89888
G01 X-3.21631 Y-2.89775
G01 X-3.22454 Y-2.89332
G01 X-3.22831 Y-2.89179
G01 X-3.23609 Y-2.88944
G01 X-3.23928 Y-2.88877
G01 X-3.24817 Y-2.88789
G01 X-3.25020 Y-2.88782
G01 X-3.25736 Y-2.88843
G01 X-3.25758 Y-2.88901
G01 X-3.25736 Y-2.88843
G01 X-3.32316 Y-2.82263
G01 X-3.32853 Y-2.81824
G01 X-3.33027 Y-2.81717
G01 X-3.33477 Y-2.81482
G01 X-3.33666 Y-2.81408
G01 X-3.34082 Y-2.81281
G01 X-3.34762 Y-2.81228
G01 X-3.35470 Y-2.81225
G01 X-3.36502 Y-2.80837
G01 X-3.37460 Y-2.80718
G01 X-3.42545 Y-2.80718
G01 X-3.43233 Y-2.80779
G01 X-3.43912 Y-2.80962
G01 X-3.44488 Y-2.81220
G01 X-3.44641 Y-2.81502
G01 X-3.44740 Y-2.81766
G01 X-3.44807 Y-2.82040
G01 X-3.44839 Y-2.82320
G01 X-3.44842 Y-2.82835
G01 X-3.44761 Y-2.83245
G01 X-3.44684 Y-2.83762
G01 X-3.44637 Y-2.84251
G01 X-3.44611 Y-2.84768
G01 X-3.44612 Y-2.85248
G01 X-3.44637 Y-2.85765
G01 X-3.44687 Y-2.86253
G01 X-3.44761 Y-2.86755
G01 X-3.44842 Y-2.87165
G01 X-3.44842 Y-2.87599
G01 X-3.44800 Y-2.88000
G01 X-3.44702 Y-2.88348
G01 X-3.44530 Y-2.88712
G01 X-3.44297 Y-2.89040
G01 X-3.44130 Y-2.89216
G01 X-3.43946 Y-2.89373
G01 X-3.43747 Y-2.89509
G01 X-3.43534 Y-2.89624
G01 X-3.43310 Y-2.89715
G01 X-3.43078 Y-2.89783
G01 X-3.42840 Y-2.89825
G01 X-3.42599 Y-2.89842
G01 X-3.37240 Y-2.89834
G01 X-3.37000 Y-2.89800
G01 X-3.36805 Y-2.89752
G01 X-3.36576 Y-2.89672
G01 X-3.36394 Y-2.89588
G01 X-3.36051 Y-2.89371
G01 X-3.36029 Y-2.89211
G01 X-3.36051 Y-2.89371
G01 X-3.31157 Y-2.94264
G01 X-3.31098 Y-2.94242
G01 X-3.31157 Y-2.94264
G01 X-3.31218 Y-2.94980
G01 X-3.31211 Y-2.95183
G01 X-3.31128 Y-2.96032
G01 X-3.31056 Y-2.96391
G01 X-3.30753 Y-2.97361
G01 X-3.30668 Y-2.97546
G01 X-3.30266 Y-2.98298
G01 X-3.30063 Y-2.98603
G01 X-3.29521 Y-2.99262
G01 X-3.29383 Y-2.99411
G01 X-3.28833 Y-2.99874
G01 X-3.28776 Y-2.99847
G01 X-3.28833 Y-2.99874
G01 X-3.28833 Y-3.16433
G01 X-3.28785 Y-3.16453
G01 X-3.28833 Y-3.16433
G01 X-3.33567 Y-3.21166
G01 X-3.33547 Y-3.21214
G01 X-3.33567 Y-3.21166
G01 X-3.33943 Y-3.21166
G01 X-3.34214 Y-3.21279
G01 X-3.34544 Y-3.21387
G01 X-3.36801 Y-3.21378
G01 X-3.36370 Y-3.21516
G01 X-3.35752 Y-3.21846
G01 X-3.35176 Y-3.22313
G01 X-3.35074 Y-3.22426
G01 X-3.35088 Y-3.22465
G01 X-3.35074 Y-3.22426
G01 X-3.33045 Y-3.22426
G01 X-3.33025 Y-3.22474
G01 X-3.33045 Y-3.22426
G01 X-3.27574 Y-3.16955
G01 X-3.27526 Y-3.16975
G01 X-3.27574 Y-3.16955
G01 X-3.27574 Y-2.99225
G01 X-3.27510 Y-2.99194
G01 X-3.27574 Y-2.99225
G01 X-3.27771 Y-2.99112
G01 X-3.28432 Y-2.98574
G01 X-3.28548 Y-2.98462
G01 X-3.29134 Y-2.97738
G01 X-3.29589 Y-2.96879
G01 X-3.29859 Y-2.95987
G01 X-3.29957 Y-2.95060
G01 X-3.29954 Y-2.94900
G01 X-3.29867 Y-2.94052
G01 X-3.29808 Y-2.93832
G01 X-3.29741 Y-2.93809
G01 X-3.29808 Y-2.93832
G01 X-3.36066 Y-2.87574
G01 X-3.36046 Y-2.87526
G01 X-3.36066 Y-2.87574
G01 X-3.36418 Y-2.87574
G01 X-3.36533 Y-2.87432
G01 X-3.36418 Y-2.87574
G01 X-3.36420 Y-2.87639
G01 X-3.36481 Y-2.87913
G01 X-3.36590 Y-2.88128
G01 X-3.36746 Y-2.88311
G01 X-3.36906 Y-2.88432
G01 X-3.37087 Y-2.88519
G01 X-3.37321 Y-2.88576
G01 X-3.42599 Y-2.88582
G01 X-3.42798 Y-2.88554
G01 X-3.42988 Y-2.88489
G01 X-3.43161 Y-2.88387
G01 X-3.43311 Y-2.88254
G01 X-3.43432 Y-2.88094
G01 X-3.43505 Y-2.87951
G01 X-3.43563 Y-2.87759
G01 X-3.43582 Y-2.87599
G01 X-3.43582 Y-2.82401
G01 X-3.43544 Y-2.82163
G01 X-3.43452 Y-2.81941
G01 X-3.43311 Y-2.81746
G01 X-3.43128 Y-2.81590
G01 X-3.42913 Y-2.81480
G01 X-3.42639 Y-2.81420
G01 X-3.37361 Y-2.81420
G01 X-3.37163 Y-2.81456
G01 X-3.36941 Y-2.81548
G01 X-3.36776 Y-2.81663
G01 X-3.36613 Y-2.81839
G01 X-3.36481 Y-2.82087
G01 X-3.36424 Y-2.82321
G01 X-3.36418 Y-2.82426
G01 X-3.36536 Y-2.82565
G01 X-3.36418 Y-2.82426
G01 X-3.34900 Y-2.82431
G01 X-3.34478 Y-2.82480
G01 X-3.34110 Y-2.82588
G01 X-3.33960 Y-2.82647
G01 X-3.33656 Y-2.82808
G01 X-3.33521 Y-2.82895
G01 X-3.33180 Y-2.83180
G01 X-3.26168 Y-2.90192
G01 X-3.26191 Y-2.90261
G01 X-3.26168 Y-2.90192
G01 X-3.25948 Y-2.90133
G01 X-3.25060 Y-2.90043
G01 X-3.24900 Y-2.90046
G01 X-3.24132 Y-2.90122
G01 X-3.23974 Y-2.90150
G01 X-3.23197 Y-2.90385
G01 X-3.23012 Y-2.90462
G01 X-3.22228 Y-2.90888
G01 X-3.21537 Y-2.91452
G01 X-3.21426 Y-2.91568
G01 X-3.20888 Y-2.92229
G01 X-3.20427 Y-2.93084
G01 X-3.20141 Y-2.94013
G01 X-3.20042 Y-2.95020
G01 X-3.20122 Y-2.95868
G01 X-3.20161 Y-2.96065
G01 X-3.20427 Y-2.96916
G01 X-3.20845 Y-2.97704
G01 X-3.20937 Y-2.97836
G01 X-3.21508 Y-2.98520
G01 X-3.22196 Y-2.99088
G01 X-3.22426 Y-2.99225
G01 X-3.22426 Y-3.18021
G01 X-3.22480 Y-3.18543
G01 X-3.22647 Y-3.19061
G01 X-3.22871 Y-3.19468
G01 X-3.23180 Y-3.19841
G01 X-3.30159 Y-3.26820
G01 X-3.30532 Y-3.27129
G01 X-3.30903 Y-3.27335
G01 X-3.31050 Y-3.27399
G01 X-3.31457 Y-3.27520
G01 X-3.31878 Y-3.27569
G01 X-3.35074 Y-3.27574
G01 X-3.35088 Y-3.27535
G01 X-3.35074 Y-3.27574
G01 X-3.35176 Y-3.27687
G01 X-3.35752 Y-3.28153
G01 X-3.36370 Y-3.28484
G01 X-3.36800 Y-3.28622
G01 X-3.34544 Y-3.28613
G01 X-3.34214 Y-3.28721
G01 X-3.33943 Y-3.28833
G01 X-3.31867 Y-3.28831
G01 X-3.31331 Y-3.28777
G01 X-3.31013 Y-3.28705
G01 X-3.30493 Y-3.28534
G01 X-3.30005 Y-3.28283
G01 X-3.29733 Y-3.28104
G01 X-3.29268 Y-3.27711
G01 X-3.22289 Y-3.20732
G01 X-3.21895 Y-3.20267
G01 X-3.21717 Y-3.19995
G01 X-3.21535 Y-3.19655
G01 X-3.21436 Y-3.19431
G01 X-3.21281 Y-3.18939
G01 X-3.21243 Y-3.18551
G01 X-3.21222 Y-3.18017
G01 X-3.21222 Y-2.99996
G01 X-3.21233 Y-2.99994
G01 X-3.21222 Y-2.99996
G01 X-3.21192 Y-2.99862
G01 X-3.21010 Y-2.99477
G01 X-3.20832 Y-2.99047
G01 X-3.20612 Y-2.98432
G01 X-3.20965 Y-2.98862
G01 X-3.21107 Y-2.99008
G01 X-3.21796 Y-2.99575
G01 X-3.21856 Y-2.99547
G01 X-3.21796 Y-2.99575
G01 X-3.21798 Y-3.18102
G01 X-3.21858 Y-3.18646
G01 X-3.22040 Y-3.19247
G01 X-3.22314 Y-3.19767
G01 X-3.22652 Y-3.20197
G01 X-3.29713 Y-3.27265
G01 X-3.30199 Y-3.27664
G01 X-3.30606 Y-3.27890
G01 X-3.30790 Y-3.27975
G01 X-3.31275 Y-3.28124
G01 X-3.31514 Y-3.28166
G01 X-3.31979 Y-3.28204
G01 X-3.34809 Y-3.28204
G01 X-3.34822 Y-3.28167
G01 X-3.34809 Y-3.28204
G01 X-3.35322 Y-3.28622
G01 X-3.43200 Y-3.28622
G01 X-3.43630 Y-3.28484
G01 X-3.44214 Y-3.28174
G01 X-3.44346 Y-3.28083
G01 X-3.44852 Y-3.27658
G01 X-3.45273 Y-3.27149
G01 X-3.45359 Y-3.27014
G01 X-3.45665 Y-3.26428
G01 X-3.45868 Y-3.25757
G01 X-3.45945 Y-3.25020
G01 X-3.45887 Y-3.24362
G01 X-3.45848 Y-3.24165
G01 X-3.45679 Y-3.23610
G01 X-3.45614 Y-3.23463
G01 X-3.45296 Y-3.22884
G01 X-3.44823 Y-3.22313
G01 X-3.44282 Y-3.21869
G01 X-3.43667 Y-3.21533
G01 X-3.43199 Y-3.21378
G01 X-3.36801 Y-3.21378
G01 X-3.45360 Y-3.21378
G01 X-3.45853 Y-3.21571
G01 X-3.46344 Y-3.22183
G01 X-3.46725 Y-3.22869
G01 X-3.46871 Y-3.23205
G01 X-3.47086 Y-3.23917
G01 X-3.47136 Y-3.24198
G01 X-3.47200 Y-3.24857
G01 X-3.47197 Y-3.25183
G01 X-3.47119 Y-3.25923
G01 X-3.47065 Y-3.26161
G01 X-3.46844 Y-3.26872
G01 X-3.46744 Y-3.27095
G01 X-3.46389 Y-3.27748
G01 X-3.46247 Y-3.27948
G01 X-3.45853 Y-3.28428
G01 X-3.45360 Y-3.28622
G01 X-3.34546 Y-3.28622
G01 X-3.34440 Y-3.28640
G01 X-3.33943 Y-3.28833
G01 X-3.31792 Y-3.28826
G01 X-3.31211 Y-3.28756
G01 X-3.30645 Y-3.28592
G01 X-3.30382 Y-3.28483
G01 X-3.29900 Y-3.28221
G01 X-3.29701 Y-3.28079
G01 X-3.29322 Y-3.27763
G01 X-3.22289 Y-3.20732
G01 X-3.21895 Y-3.20267
G01 X-3.21697 Y-3.19959
G01 X-3.21499 Y-3.19581
G01 X-3.21408 Y-3.19355
G01 X-3.21281 Y-3.18939
G01 X-3.21228 Y-3.18259
G01 X-3.21222 Y-2.99996
G01 X-3.21192 Y-2.99862
G01 X-3.21010 Y-2.99477
G01 X-3.20832 Y-2.99047
G01 X-3.20561 Y-2.98291
G01 X-3.20456 Y-2.97944
G01 X-3.20266 Y-2.97188
G01 X-3.20208 Y-2.96897
G01 X-3.20096 Y-2.96141
G01 X-3.20033 Y-2.95125
G01 X-3.20042 Y-2.95020
G01 X-3.20133 Y-2.95948
G01 X-3.20385 Y-2.96803
G01 X-3.20462 Y-2.96988
G01 X-3.20845 Y-2.97704
G01 X-3.20937 Y-2.97836
G01 X-3.21426 Y-2.98432
G01 X-3.21537 Y-2.98548
G01 X-3.22228 Y-2.99112
G01 X-3.22426 Y-2.99225
G01 X-3.22490 Y-2.99194
G01 X-3.22426 Y-2.99225
G01 X-3.22426 Y-3.18021
G01 X-3.22472 Y-3.18504
G01 X-3.22588 Y-3.18911
G01 X-3.22665 Y-3.19097
G01 X-3.22895 Y-3.19500
G01 X-3.23180 Y-3.19841
G01 X-3.30159 Y-3.26820
G01 X-3.30532 Y-3.27129
G01 X-3.30975 Y-3.27370
G01 X-3.31457 Y-3.27520
G01 X-3.31912 Y-3.27571
G01 X-3.35074 Y-3.27574
G01 X-3.35236 Y-3.27740
G01 X-3.35786 Y-3.28174
G01 X-3.36370 Y-3.28484
G01 X-3.36800 Y-3.28622
G01 X-3.44678 Y-3.28622
G01 X-3.45194 Y-3.28201
G01 X-3.45392 Y-3.27998
G01 X-3.45832 Y-3.27450
G01 X-3.46170 Y-3.26834
G01 X-3.46281 Y-3.26573
G01 X-3.46482 Y-3.25900
G01 X-3.46514 Y-3.25700
G01 X-3.46575 Y-3.25000
G01 X-3.46514 Y-3.24300
G01 X-3.46482 Y-3.24100
G01 X-3.46281 Y-3.23427
G01 X-3.46170 Y-3.23166
G01 X-3.45832 Y-3.22550
G01 X-3.45392 Y-3.22002
G01 X-3.45194 Y-3.21799
G01 X-3.44678 Y-3.21378
G01 X-3.35322 Y-3.21378
G01 X-3.34809 Y-3.21796
G01 X-3.34822 Y-3.21833
G01 X-3.34809 Y-3.21796
G01 X-3.33306 Y-3.21796
G01 X-3.33286 Y-3.21844
G01 X-3.33306 Y-3.21796
G01 X-3.28204 Y-3.16694
G01 X-3.28155 Y-3.16714
G01 X-3.28204 Y-3.16694
G01 X-3.28204 Y-2.99575
G01 X-3.28144 Y-2.99547
G01 X-3.28204 Y-2.99575
G01 X-3.28863 Y-2.99035
G01 X-3.29061 Y-2.98831
G01 X-3.29647 Y-2.98105
G01 X-3.30163 Y-2.97139
G01 X-3.30481 Y-2.96090
G01 X-3.30580 Y-2.95162
G01 X-3.30584 Y-2.94878
G01 X-3.30500 Y-2.94030
G01 X-3.30439 Y-2.94008
G01 X-3.30500 Y-2.94030
G01 X-3.36061 Y-2.88470
G01 X-3.36074 Y-2.88166
G01 X-3.36061 Y-2.88470
G01 X-3.36216 Y-2.88670
G01 X-3.36392 Y-2.88837
G01 X-3.36591 Y-2.88977
G01 X-3.36808 Y-2.89087
G01 X-3.37079 Y-2.89172
G01 X-3.37319 Y-2.89208
G01 X-3.42681 Y-2.89208
G01 X-3.42961 Y-2.89163
G01 X-3.43229 Y-2.89071
G01 X-3.43478 Y-2.88934
G01 X-3.43699 Y-2.88757
G01 X-3.43911 Y-2.88511
G01 X-3.44071 Y-2.88229
G01 X-3.44172 Y-2.87921
G01 X-3.44212 Y-2.87600
G01 X-3.44211 Y-2.82360
G01 X-3.44181 Y-2.82118
G01 X-3.44116 Y-2.81884
G01 X-3.44017 Y-2.81661
G01 X-3.43887 Y-2.81456
G01 X-3.43639 Y-2.81189
G01 X-3.43374 Y-2.81002
G01 X-3.43078 Y-2.80871
G01 X-3.42721 Y-2.80795
G01 X-3.37319 Y-2.80792
G01 X-3.37079 Y-2.80828
G01 X-3.36846 Y-2.80898
G01 X-3.36626 Y-2.81002
G01 X-3.36424 Y-2.81137
G01 X-3.36216 Y-2.81330
G01 X-3.36044 Y-2.81556
G01 X-3.35918 Y-2.81796
G01 X-3.35964 Y-2.81873
G01 X-3.35918 Y-2.81796
G01 X-3.34959 Y-2.81797
G01 X-3.34455 Y-2.81844
G01 X-3.34257 Y-2.81886
G01 X-3.33812 Y-2.82025
G01 X-3.33324 Y-2.82272
G01 X-3.33121 Y-2.82408
G01 X-3.32735 Y-2.82735
G01 X-3.25970 Y-2.89499
G01 X-3.25992 Y-2.89561
G01 X-3.25970 Y-2.89499
G01 X-3.25000 Y-2.89411
G01 X-3.24030 Y-2.89500
G01 X-3.23752 Y-2.89558
G01 X-3.22861 Y-2.89837
G01 X-3.22034 Y-2.90270
G01 X-3.21796 Y-2.90425
G01 X-3.21077 Y-2.91020
G01 X-3.20611 Y-2.91568
G01 X-3.20456 Y-2.92055
G01 X-3.20266 Y-2.92812
G01 X-3.20208 Y-2.93103
G01 X-3.20070 Y-2.94119
G01 X-3.20033 Y-2.94875
G01 X-3.20070 Y-2.95881
G01 X-3.20208 Y-2.96897
G01 X-3.20266 Y-2.97188
G01 X-3.20456 Y-2.97944
G01 X-3.20612 Y-2.98432
G01 X-3.20456 Y-2.97944
G01 X-3.20266 Y-2.97188
G01 X-3.20208 Y-2.96897
G01 X-3.20070 Y-2.95881
G01 X-3.20033 Y-2.95125
G01 X-3.20070 Y-2.94119
G01 X-3.20208 Y-2.93103
G01 X-3.20266 Y-2.92812
G01 X-3.20456 Y-2.92055
G01 X-3.20611 Y-2.91568
G01 X-3.20456 Y-2.92055
G01 X-3.20266 Y-2.92812
G01 X-3.20208 Y-2.93103
G01 X-3.20070 Y-2.94119
G01 X-3.20033 Y-2.95125
G01 X-3.20042 Y-2.95020
G01 X-3.20671 Y-2.95000
G01 X-3.20754 Y-2.95844
G01 X-3.20988 Y-2.96620
G01 X-3.21401 Y-2.97405
G01 X-3.21968 Y-2.98087
G01 X-3.22595 Y-2.98599
G01 X-3.23056 Y-2.98848
G01 X-3.23056 Y-3.18021
G01 X-3.23094 Y-3.18400
G01 X-3.23191 Y-3.18729
G01 X-3.23384 Y-3.19101
G01 X-3.23625 Y-3.19395
G01 X-3.30604 Y-3.26374
G01 X-3.30899 Y-3.26616
G01 X-3.31235 Y-3.26796
G01 X-3.31599 Y-3.26906
G01 X-3.31979 Y-3.26944
G01 X-3.35372 Y-3.26944
G01 X-3.35608 Y-3.27227
G01 X-3.36054 Y-3.27596
G01 X-3.36594 Y-3.27893
G01 X-3.37220 Y-3.28089
G01 X-3.37796 Y-3.28148
G01 X-3.42204 Y-3.28148
G01 X-3.42780 Y-3.28089
G01 X-3.43334 Y-3.27923
G01 X-3.43882 Y-3.27639
G01 X-3.44392 Y-3.27227
G01 X-3.44804 Y-3.26717
G01 X-3.45075 Y-3.26205
G01 X-3.45245 Y-3.25652
G01 X-3.45315 Y-3.25000
G01 X-3.45245 Y-3.24348
G01 X-3.45075 Y-3.23795
G01 X-3.44804 Y-3.23283
G01 X-3.44392 Y-3.22773
G01 X-3.43915 Y-3.22381
G01 X-3.43334 Y-3.22077
G01 X-3.42780 Y-3.21911
G01 X-3.42204 Y-3.21852
G01 X-3.37796 Y-3.21852
G01 X-3.37220 Y-3.21911
G01 X-3.36594 Y-3.22107
G01 X-3.36054 Y-3.22404
G01 X-3.35608 Y-3.22773
G01 X-3.35372 Y-3.23056
G01 X-3.32784 Y-3.23056
G01 X-3.26944 Y-3.17216
G01 X-3.26944 Y-2.98848
G01 X-3.27405 Y-2.98599
G01 X-3.28061 Y-2.98061
G01 X-3.28599 Y-2.97405
G01 X-3.28999 Y-2.96657
G01 X-3.29245 Y-2.95844
G01 X-3.29329 Y-2.95000
G01 X-3.29245 Y-2.94156
G01 X-3.29095 Y-2.93654
G01 X-3.35805 Y-2.86944
G01 X-3.37047 Y-2.86944
G01 X-3.37047 Y-2.87559
G01 X-3.37066 Y-2.87681
G01 X-3.37100 Y-2.87756
G01 X-3.37177 Y-2.87852
G01 X-3.37281 Y-2.87919
G01 X-3.37400 Y-2.87950
G01 X-3.42559 Y-2.87953
G01 X-3.42719 Y-2.87919
G01 X-3.42822 Y-2.87852
G01 X-3.42919 Y-2.87719
G01 X-3.42953 Y-2.87559
G01 X-3.42953 Y-2.82441
G01 X-3.42933 Y-2.82319
G01 X-3.42877 Y-2.82210
G01 X-3.42756 Y-2.82100
G01 X-3.42641 Y-2.82056
G01 X-3.42559 Y-2.82047
G01 X-3.37400 Y-2.82049
G01 X-3.37281 Y-2.82081
G01 X-3.37177 Y-2.82148
G01 X-3.37100 Y-2.82244
G01 X-3.37066 Y-2.82319
G01 X-3.37047 Y-2.82441
G01 X-3.37047 Y-2.83056
G01 X-3.35000 Y-2.83056
G01 X-3.34659 Y-2.83088
G01 X-3.34256 Y-2.83204
G01 X-3.33953 Y-2.83364
G01 X-3.33625 Y-2.83625
G01 X-3.26346 Y-2.90905
G01 X-3.25844 Y-2.90754
G01 X-3.25039 Y-2.90673
G01 X-3.24155 Y-2.90754
G01 X-3.23308 Y-2.91017
G01 X-3.22595 Y-2.91401
G01 X-3.21968 Y-2.91913
G01 X-3.21401 Y-2.92595
G01 X-3.21001 Y-2.93343
G01 X-3.20754 Y-2.94156
G01 X-3.20671 Y-2.95000
G04 P0 ( dwell for no time -- G64 should not smooth over this point )
G00 Z0.08000 ( retract )

G00 X-3.32796 Y-3.17187 ( rapid move to begin. )
G01 F180.00000
( Mill infeed pass 1/1 )
G01 Z-0.04000
G04 P0 ( dwell for no time -- G64 should not smooth over this point )
G01 F360.00000
G01 X-3.32796 Y-3.17187
G01 X-3.32806 Y-3.16902
G01 X-3.32888 Y-3.16163
G01 X-3.32946 Y-3.15925
G01 X-3.33171 Y-3.15216
G01 X-3.33275 Y-3.14995
G01 X-3.33633 Y-3.14343
G01 X-3.33778 Y-3.14146
G01 X-3.34257 Y-3.13577
G01 X-3.34437 Y-3.13412
G01 X-3.35018 Y-3.12947
G01 X-3.35227 Y-3.12821
G01 X-3.35887 Y-3.12478
G01 X-3.36117 Y-3.12395
G01 X-3.36831 Y-3.12188
G01 X-3.37033 Y-3.12155
G01 X-3.37723 Y-3.12089
G01 X-3.42203 Y-3.12087
G01 X-3.43048 Y-3.12166
G01 X-3.43287 Y-3.12216
G01 X-3.43883 Y-3.12395
G01 X-3.44224 Y-3.12529
G01 X-3.44982 Y-3.12947
G01 X-3.45386 Y-3.13267
G01 X-3.45375 Y-3.13301
G01 X-3.45386 Y-3.13267
G01 X-4.02682 Y-3.13267
G01 X-4.02702 Y-3.13315
G01 X-4.02682 Y-3.13267
G01 X-4.26142 Y-2.89808
G01 X-4.26189 Y-2.89828
G01 X-4.26142 Y-2.89808
G01 X-4.26142 Y-2.85000
G01 X-4.26183 Y-2.84469
G01 X-4.26220 Y-2.84227
G01 X-4.26398 Y-2.83618
G01 X-4.26561 Y-2.83264
G01 X-4.27090 Y-2.82976
G01 X-4.27750 Y-2.82685
G01 X-4.27634 Y-2.82806
G01 X-4.27339 Y-2.83173
G01 X-4.27086 Y-2.83618
G01 X-4.26962 Y-2.83917
G01 X-4.26851 Y-2.84291
G01 X-4.26814 Y-2.84490
G01 X-4.26771 Y-2.85000
G01 X-4.26771 Y-2.90069
G01 X-4.26818 Y-2.90089
G01 X-4.26771 Y-2.90069
G01 X-4.02943 Y-3.13897
G01 X-4.02963 Y-3.13945
G01 X-4.02943 Y-3.13897
G01 X-3.45161 Y-3.13897
G01 X-3.45148 Y-3.13933
G01 X-3.45161 Y-3.13897
G01 X-3.44649 Y-3.13483
G01 X-3.43999 Y-3.13122
G01 X-3.43739 Y-3.13010
G01 X-3.42986 Y-3.12794
G01 X-3.42206 Y-3.12717
G01 X-3.37753 Y-3.12718
G01 X-3.36974 Y-3.12801
G01 X-3.36147 Y-3.13052
G01 X-3.35385 Y-3.13460
G01 X-3.34717 Y-3.14008
G01 X-3.34168 Y-3.14676
G01 X-3.33761 Y-3.15438
G01 X-3.33510 Y-3.16266
G01 X-3.33426 Y-3.17085
G01 X-3.33433 Y-3.17288
G01 X-3.33510 Y-3.17986
G01 X-3.33718 Y-3.18699
G01 X-3.33812 Y-3.18924
G01 X-3.34168 Y-3.19576
G01 X-3.34608 Y-3.20124
G01 X-3.34806 Y-3.20327
G01 X-3.35322 Y-3.20748
G01 X-3.43200 Y-3.20748
G01 X-3.43630 Y-3.20610
G01 X-3.44248 Y-3.20280
G01 X-3.44794 Y-3.19840
G01 X-3.44905 Y-3.19725
G01 X-3.44891 Y-3.19687
G01 X-3.44905 Y-3.19725
G01 X-4.04280 Y-3.19725
G01 X-4.04728 Y-3.19685
G01 X-4.04885 Y-3.19650
G01 X-4.05256 Y-3.19534
G01 X-4.05638 Y-3.19338
G01 X-4.05773 Y-3.19252
G01 X-4.06118 Y-3.18963
G01 X-4.26535 Y-2.98546
G01 X-4.26524 Y-2.98328
G01 X-4.26535 Y-2.98546
G01 X-4.27164 Y-2.99063
G01 X-4.27331 Y-2.99174
G01 X-4.28047 Y-2.99556
G01 X-4.28197 Y-2.99615
G01 X-4.29013 Y-2.99859
G01 X-4.29980 Y-2.99958
G01 X-4.30987 Y-2.99859
G01 X-4.31916 Y-2.99573
G01 X-4.32771 Y-2.99112
G01 X-4.33432 Y-2.98574
G01 X-4.33548 Y-2.98462
G01 X-4.34134 Y-2.97738
G01 X-4.34538 Y-2.96988
G01 X-4.34615 Y-2.96803
G01 X-4.34859 Y-2.95987
G01 X-4.34954 Y-2.95100
G01 X-4.34957 Y-2.94940
G01 X-4.34878 Y-2.94132
G01 X-4.34839 Y-2.93935
G01 X-4.34589 Y-2.93121
G01 X-4.34112 Y-2.92229
G01 X-4.33574 Y-2.91568
G01 X-4.33462 Y-2.91452
G01 X-4.32771 Y-2.90888
G01 X-4.32599 Y-2.90788
G01 X-4.32534 Y-2.90820
G01 X-4.32599 Y-2.90788
G01 X-4.32599 Y-2.87599
G01 X-4.32414 Y-2.87414
G01 X-4.32599 Y-2.87599
G01 X-4.42696 Y-2.87599
G01 X-4.42709 Y-2.87562
G01 X-4.42696 Y-2.87599
G01 X-4.43118 Y-2.87944
G01 X-4.43253 Y-2.88030
G01 X-4.43805 Y-2.88317
G01 X-4.44439 Y-2.88510
G01 X-4.45057 Y-2.88578
G01 X-4.45258 Y-2.88578
G01 X-4.45876 Y-2.88510
G01 X-4.46434 Y-2.88344
G01 X-4.46619 Y-2.88267
G01 X-4.47164 Y-2.87968
G01 X-4.47647 Y-2.87575
G01 X-4.47758 Y-2.87459
G01 X-4.48125 Y-2.87007
G01 X-4.48424 Y-2.86462
G01 X-4.48489 Y-2.86315
G01 X-4.48667 Y-2.85719
G01 X-4.48740 Y-2.84980
G01 X-4.48681 Y-2.84361
G01 X-4.48647 Y-2.84204
G01 X-4.48459 Y-2.83610
G01 X-4.48188 Y-2.83096
G01 X-4.48101 Y-2.82960
G01 X-4.47732 Y-2.82511
G01 X-4.47215 Y-2.82070
G01 X-4.47104 Y-2.82036
G01 X-4.46408 Y-2.81873
G01 X-4.45922 Y-2.81801
G01 X-4.45067 Y-2.81758
G01 X-4.44581 Y-2.81782
G01 X-4.43907 Y-2.81873
G01 X-4.43211 Y-2.82036
G01 X-4.43100 Y-2.82070
G01 X-4.42696 Y-2.82401
G01 X-4.42705 Y-2.82431
G01 X-4.42696 Y-2.82401
G01 X-4.29950 Y-2.82403
G01 X-4.29513 Y-2.82448
G01 X-4.29100 Y-2.82565
G01 X-4.28951 Y-2.82624
G01 X-4.28540 Y-2.82851
G01 X-4.28148 Y-2.83177
G01 X-4.27828 Y-2.83573
G01 X-4.27592 Y-2.84024
G01 X-4.27441 Y-2.84552
G01 X-4.27401 Y-2.85000
G01 X-4.27401 Y-2.90330
G01 X-4.27448 Y-2.90350
G01 X-4.27401 Y-2.90330
G01 X-4.03204 Y-3.14527
G01 X-4.03224 Y-3.14575
G01 X-4.03204 Y-3.14527
G01 X-3.44905 Y-3.14527
G01 X-3.44892 Y-3.14564
G01 X-3.44905 Y-3.14527
G01 X-3.44794 Y-3.14412
G01 X-3.44346 Y-3.14043
G01 X-3.44214 Y-3.13951
G01 X-3.43593 Y-3.13627
G01 X-3.42883 Y-3.13415
G01 X-3.42165 Y-3.13346
G01 X-3.37784 Y-3.13348
G01 X-3.37078 Y-3.13423
G01 X-3.36370 Y-3.13642
G01 X-3.35718 Y-3.13995
G01 X-3.35176 Y-3.14439
G01 X-3.34703 Y-3.15009
G01 X-3.34351 Y-3.15661
G01 X-3.34132 Y-3.16369
G01 X-3.34057 Y-3.17066
G01 X-3.34060 Y-3.17226
G01 X-3.34124 Y-3.17843
G01 X-3.34309 Y-3.18478
G01 X-3.34386 Y-3.18663
G01 X-3.34727 Y-3.19275
G01 X-3.35176 Y-3.19813
G01 X-3.35718 Y-3.20257
G01 X-3.36370 Y-3.20610
G01 X-3.36800 Y-3.20748
G01 X-3.44678 Y-3.20748
G01 X-3.45161 Y-3.20354
G01 X-3.45148 Y-3.20318
G01 X-3.45161 Y-3.20354
G01 X-4.04280 Y-3.20354
G01 X-4.04790 Y-3.20312
G01 X-4.05068 Y-3.20253
G01 X-4.05516 Y-3.20109
G01 X-4.05970 Y-3.19874
G01 X-4.06173 Y-3.19739
G01 X-4.06563 Y-3.19409
G01 X-4.26577 Y-2.99396
G01 X-4.26562 Y-2.99193
G01 X-4.26577 Y-2.99396
G01 X-4.26829 Y-2.99600
G01 X-4.27034 Y-2.99730
G01 X-4.27899 Y-3.00178
G01 X-4.28910 Y-3.00481
G01 X-4.29838 Y-3.00581
G01 X-4.30081 Y-3.00587
G01 X-4.31090 Y-3.00481
G01 X-4.31986 Y-3.00218
G01 X-4.32176 Y-3.00147
G01 X-4.32966 Y-2.99730
G01 X-4.33138 Y-2.99624
G01 X-4.33863 Y-2.99035
G01 X-4.34035 Y-2.98862
G01 X-4.34550 Y-2.98235
G01 X-4.34669 Y-2.98071
G01 X-4.35094 Y-2.97285
G01 X-4.35178 Y-2.97101
G01 X-4.35442 Y-2.96248
G01 X-4.35489 Y-2.96050
G01 X-4.35584 Y-2.95122
G01 X-4.35581 Y-2.94838
G01 X-4.35481 Y-2.93910
G01 X-4.35218 Y-2.93014
G01 X-4.35112 Y-2.92751
G01 X-4.34730 Y-2.92034
G01 X-4.34575 Y-2.91797
G01 X-4.33952 Y-2.91048
G01 X-4.33228 Y-2.90445
G01 X-4.33172 Y-2.90470
G01 X-4.33228 Y-2.90445
G01 X-4.33228 Y-2.88228
G01 X-4.33044 Y-2.88044
G01 X-4.33228 Y-2.88228
G01 X-4.42471 Y-2.88228
G01 X-4.42482 Y-2.88194
G01 X-4.42471 Y-2.88228
G01 X-4.42817 Y-2.88503
G01 X-4.43399 Y-2.88822
G01 X-4.43659 Y-2.88934
G01 X-4.44217 Y-2.89104
G01 X-4.44456 Y-2.89151
G01 X-4.45117 Y-2.89212
G01 X-4.45899 Y-2.89146
G01 X-4.46098 Y-2.89104
G01 X-4.46617 Y-2.88947
G01 X-4.46916 Y-2.88822
G01 X-4.47531 Y-2.88480
G01 X-4.48136 Y-2.87979
G01 X-4.48637 Y-2.87374
G01 X-4.48980 Y-2.86759
G01 X-4.49092 Y-2.86498
G01 X-4.49261 Y-2.85940
G01 X-4.49303 Y-2.85742
G01 X-4.49370 Y-2.85000
G01 X-4.49289 Y-2.84178
G01 X-4.49049 Y-2.83388
G01 X-4.48660 Y-2.82659
G01 X-4.48140 Y-2.82411
G01 X-4.47837 Y-2.82285
G01 X-4.47350 Y-2.82111
G01 X-4.46617 Y-2.81914
G01 X-4.45922 Y-2.81801
G01 X-4.45248 Y-2.81758
G01 X-4.44393 Y-2.81801
G01 X-4.43697 Y-2.81914
G01 X-4.43211 Y-2.82036
G01 X-4.42529 Y-2.82253
G01 X-4.29865 Y-2.82251
G01 X-4.29284 Y-2.82294
G01 X-4.28688 Y-2.82398
G01 X-4.28061 Y-2.82573
G01 X-4.27750 Y-2.82685
G01 X-4.28061 Y-2.82573
G01 X-4.28688 Y-2.82398
G01 X-4.29284 Y-2.82294
G01 X-4.29865 Y-2.82251
G01 X-4.42528 Y-2.82248
G01 X-4.42634 Y-2.82229
G01 X-4.43211 Y-2.82036
G01 X-4.43907 Y-2.81873
G01 X-4.44581 Y-2.81782
G01 X-4.45248 Y-2.81758
G01 X-4.45734 Y-2.81782
G01 X-4.46408 Y-2.81873
G01 X-4.47104 Y-2.82036
G01 X-4.47350 Y-2.82111
G01 X-4.47837 Y-2.82285
G01 X-4.48627 Y-2.82642
G01 X-4.49010 Y-2.82847
G01 X-4.49591 Y-2.83198
G01 X-4.49689 Y-2.83831
G01 X-4.49734 Y-2.84289
G01 X-4.49758 Y-2.84775
G01 X-4.49758 Y-2.85224
G01 X-4.49734 Y-2.85711
G01 X-4.49689 Y-2.86169
G01 X-4.49617 Y-2.86655
G01 X-4.49538 Y-2.87052
G01 X-4.49280 Y-2.87534
G01 X-4.49149 Y-2.87741
G01 X-4.48706 Y-2.88289
G01 X-4.48508 Y-2.88495
G01 X-4.47996 Y-2.88918
G01 X-4.47797 Y-2.89060
G01 X-4.47177 Y-2.89397
G01 X-4.46877 Y-2.89524
G01 X-4.46280 Y-2.89707
G01 X-4.46042 Y-2.89760
G01 X-4.45341 Y-2.89835
G01 X-4.45015 Y-2.89838
G01 X-4.44193 Y-2.89745
G01 X-4.43399 Y-2.89511
G01 X-4.43138 Y-2.89397
G01 X-4.42553 Y-2.89081
G01 X-4.42245 Y-2.88858
G01 X-4.42254 Y-2.88829
G01 X-4.42245 Y-2.88858
G01 X-4.33858 Y-2.88858
G01 X-4.33674 Y-2.88674
G01 X-4.33858 Y-2.88858
G01 X-4.33858 Y-2.90146
G01 X-4.33801 Y-2.90173
G01 X-4.33858 Y-2.90146
G01 X-4.34353 Y-2.90560
G01 X-4.34521 Y-2.90738
G01 X-4.35037 Y-2.91365
G01 X-4.35246 Y-2.91666
G01 X-4.35668 Y-2.92454
G01 X-4.35808 Y-2.92792
G01 X-4.36086 Y-2.93727
G01 X-4.36128 Y-2.93968
G01 X-4.36211 Y-2.94817
G01 X-4.36211 Y-2.95183
G01 X-4.36110 Y-2.96153
G01 X-4.36056 Y-2.96391
G01 X-4.35768 Y-2.97323
G01 X-4.35649 Y-2.97582
G01 X-4.35182 Y-2.98438
G01 X-4.35062 Y-2.98603
G01 X-4.34495 Y-2.99293
G01 X-4.34262 Y-2.99521
G01 X-4.33505 Y-3.00136
G01 X-4.33298 Y-3.00266
G01 X-4.32582 Y-3.00649
G01 X-4.32361 Y-3.00753
G01 X-4.32169 Y-3.00821
G01 X-4.31352 Y-3.01067
G01 X-4.30991 Y-3.01132
G01 X-4.30183 Y-3.01211
G01 X-4.29939 Y-3.01218
G01 X-4.28968 Y-3.01127
G01 X-4.28687 Y-3.01077
G01 X-4.27792 Y-3.00808
G01 X-4.27490 Y-3.00686
G01 X-4.26635 Y-3.00228
G01 X-4.26612 Y-3.00078
G01 X-4.26635 Y-3.00228
G01 X-4.06982 Y-3.19880
G01 X-4.06540 Y-3.20251
G01 X-4.06267 Y-3.20430
G01 X-4.05776 Y-3.20683
G01 X-4.05251 Y-3.20856
G01 X-4.04892 Y-3.20934
G01 X-4.04280 Y-3.20984
G01 X-3.46082 Y-3.20984
G01 X-3.45777 Y-3.20858
G01 X-3.45416 Y-3.20739
G01 X-3.34600 Y-3.20748
G01 X-3.34167 Y-3.20577
G01 X-3.33656 Y-3.19943
G01 X-3.33256 Y-3.19221
G01 X-3.33128 Y-3.18921
G01 X-3.32905 Y-3.18169
G01 X-3.32863 Y-3.17928
G01 X-3.32796 Y-3.17187
G01 X-3.34685 Y-3.17126
G01 X-3.34746 Y-3.17740
G01 X-3.34925 Y-3.18331
G01 X-3.35216 Y-3.18876
G01 X-3.35608 Y-3.19353
G01 X-3.36085 Y-3.19745
G01 X-3.36629 Y-3.20036
G01 X-3.37220 Y-3.20215
G01 X-3.37835 Y-3.20275
G01 X-3.42165 Y-3.20275
G01 X-3.42780 Y-3.20215
G01 X-3.43371 Y-3.20036
G01 X-3.43915 Y-3.19745
G01 X-3.44392 Y-3.19353
G01 X-3.44607 Y-3.19095
G01 X-4.04280 Y-3.19095
G01 X-4.04702 Y-3.19047
G01 X-4.05034 Y-3.18945
G01 X-4.05341 Y-3.18783
G01 X-4.05672 Y-3.18518
G01 X-4.26573 Y-2.97618
G01 X-4.26939 Y-2.98061
G01 X-4.27564 Y-2.98576
G01 X-4.28308 Y-2.98983
G01 X-4.29155 Y-2.99246
G01 X-4.29961 Y-2.99327
G01 X-4.30844 Y-2.99246
G01 X-4.31656 Y-2.98999
G01 X-4.32405 Y-2.98599
G01 X-4.33087 Y-2.98032
G01 X-4.33599 Y-2.97405
G01 X-4.34012 Y-2.96620
G01 X-4.34246 Y-2.95844
G01 X-4.34327 Y-2.95038
G01 X-4.34251 Y-2.94194
G01 X-4.33999 Y-2.93343
G01 X-4.33576 Y-2.92564
G01 X-4.33032 Y-2.91913
G01 X-4.32405 Y-2.91401
G01 X-4.31969 Y-2.91166
G01 X-4.31969 Y-2.86969
G01 X-4.42969 Y-2.86969
G01 X-4.43098 Y-2.87114
G01 X-4.43517 Y-2.87455
G01 X-4.44064 Y-2.87741
G01 X-4.44581 Y-2.87896
G01 X-4.45119 Y-2.87951
G01 X-4.45771 Y-2.87887
G01 X-4.46287 Y-2.87728
G01 X-4.46765 Y-2.87475
G01 X-4.47245 Y-2.87088
G01 X-4.47632 Y-2.86607
G01 X-4.47885 Y-2.86130
G01 X-4.48044 Y-2.85614
G01 X-4.48110 Y-2.85000
G01 X-4.48044 Y-2.84386
G01 X-4.47885 Y-2.83870
G01 X-4.47632 Y-2.83393
G01 X-4.47271 Y-2.82941
G01 X-4.46798 Y-2.82545
G01 X-4.46287 Y-2.82272
G01 X-4.45733 Y-2.82104
G01 X-4.45157 Y-2.82047
G01 X-4.44581 Y-2.82104
G01 X-4.44027 Y-2.82272
G01 X-4.43517 Y-2.82545
G01 X-4.43098 Y-2.82886
G01 X-4.42969 Y-2.83031
G01 X-4.30000 Y-2.83031
G01 X-4.29616 Y-2.83069
G01 X-4.29283 Y-2.83168
G01 X-4.28906 Y-2.83363
G01 X-4.28608 Y-2.83608
G01 X-4.28363 Y-2.83906
G01 X-4.28181 Y-2.84247
G01 X-4.28063 Y-2.84654
G01 X-4.28031 Y-2.85000
G01 X-4.28031 Y-2.90591
G01 X-4.03465 Y-3.15157
G01 X-3.44607 Y-3.15157
G01 X-3.44392 Y-3.14899
G01 X-3.43915 Y-3.14507
G01 X-3.43371 Y-3.14216
G01 X-3.42780 Y-3.14037
G01 X-3.42165 Y-3.13976
G01 X-3.37835 Y-3.13976
G01 X-3.37220 Y-3.14037
G01 X-3.36629 Y-3.14216
G01 X-3.36085 Y-3.14507
G01 X-3.35608 Y-3.14899
G01 X-3.35216 Y-3.15376
G01 X-3.34925 Y-3.15921
G01 X-3.34746 Y-3.16512
G01 X-3.34685 Y-3.17126
G04 P0 ( dwell for no time -- G64 should not smooth over this point )
G00 Z0.08000 ( retract )

G00 X-3.33398 Y-3.32940 ( rapid move to begin. )
G01 F180.00000
( Mill infeed pass 1/1 )
G01 Z-0.04000
G04 P0 ( dwell for no time -- G64 should not smooth over this point )
G01 F360.00000
G01 X-3.33398 Y-3.32940
G01 X-3.33237 Y-3.32551
G01 X-3.33041 Y-3.32002
G01 X-3.32944 Y-3.31682
G01 X-3.33128 Y-3.31079
G01 X-3.33256 Y-3.30779
G01 X-3.33656 Y-3.30057
G01 X-3.34167 Y-3.29422
G01 X-3.34601 Y-3.29252
G01 X-3.35322 Y-3.29252
G01 X-3.34806 Y-3.29673
G01 X-3.34608 Y-3.29876
G01 X-3.34168 Y-3.30424
G01 X-3.33812 Y-3.31076
G01 X-3.33718 Y-3.31301
G01 X-3.33510 Y-3.32014
G01 X-3.33430 Y-3.32752
G01 X-3.33431 Y-3.33009
G01 X-3.33797 Y-3.33745
G01 X-3.34075 Y-3.34209
G01 X-3.34235 Y-3.34448
G01 X-3.34715 Y-3.35075
G01 X-3.35245 Y-3.35641
G01 X-3.35634 Y-3.35993
G01 X-3.36325 Y-3.36519
G01 X-3.37185 Y-3.36636
G01 X-3.37838 Y-3.36665
G01 X-3.42161 Y-3.36665
G01 X-3.42815 Y-3.36636
G01 X-3.43598 Y-3.36532
G01 X-3.43880 Y-3.36476
G01 X-3.44405 Y-3.36345
G01 X-3.45263 Y-3.36068
G01 X-3.67122 Y-3.36074
G01 X-3.67551 Y-3.36059
G01 X-3.67749 Y-3.36041
G01 X-3.68233 Y-3.35907
G01 X-3.72049 Y-3.34514
G01 X-3.72053 Y-3.34455
G01 X-3.72049 Y-3.34514
G01 X-3.72107 Y-3.34548
G01 X-3.72825 Y-3.34932
G01 X-3.73050 Y-3.35026
G01 X-3.73948 Y-3.35290
G01 X-3.74959 Y-3.35393
G01 X-3.75892 Y-3.35314
G01 X-3.76171 Y-3.35262
G01 X-3.77064 Y-3.34983
G01 X-3.77893 Y-3.34549
G01 X-3.78127 Y-3.34388
G01 X-3.78725 Y-3.33897
G01 X-3.78870 Y-3.33755
G01 X-3.79013 Y-3.33584
G01 X-3.79184 Y-3.33106
G01 X-3.79282 Y-3.32783
G01 X-3.79462 Y-3.32064
G01 X-3.79623 Y-3.31075
G01 X-3.79682 Y-3.30116
G01 X-3.79647 Y-3.29166
G01 X-3.79613 Y-3.28858
G01 X-3.79422 Y-3.28233
G01 X-3.79358 Y-3.28086
G01 X-3.78950 Y-3.27337
G01 X-3.78436 Y-3.26706
G01 X-3.78294 Y-3.26564
G01 X-3.77630 Y-3.26028
G01 X-3.76804 Y-3.25591
G01 X-3.75910 Y-3.25324
G01 X-3.75100 Y-3.25241
G01 X-3.74900 Y-3.25241
G01 X-3.74051 Y-3.25332
G01 X-3.73158 Y-3.25607
G01 X-3.72370 Y-3.26028
G01 X-3.71706 Y-3.26564
G01 X-3.71564 Y-3.26706
G01 X-3.71050 Y-3.27337
G01 X-3.70642 Y-3.28086
G01 X-3.70577 Y-3.28233
G01 X-3.70367 Y-3.28925
G01 X-3.70419 Y-3.28975
G01 X-3.70367 Y-3.28925
G01 X-3.66668 Y-3.30285
G01 X-3.44905 Y-3.30275
G01 X-3.44891 Y-3.30313
G01 X-3.44905 Y-3.30275
G01 X-3.44794 Y-3.30160
G01 X-3.44248 Y-3.29720
G01 X-3.43630 Y-3.29390
G01 X-3.43199 Y-3.29252
G01 X-3.36801 Y-3.29252
G01 X-3.36370 Y-3.29390
G01 X-3.35718 Y-3.29743
G01 X-3.35176 Y-3.30187
G01 X-3.34727 Y-3.30725
G01 X-3.34386 Y-3.31337
G01 X-3.34309 Y-3.31522
G01 X-3.34124 Y-3.32156
G01 X-3.34057 Y-3.32814
G01 X-3.34060 Y-3.32974
G01 X-3.34124 Y-3.33592
G01 X-3.34335 Y-3.34302
G01 X-3.34681 Y-3.34957
G01 X-3.35148 Y-3.35532
G01 X-3.35718 Y-3.36005
G01 X-3.36370 Y-3.36358
G01 X-3.37078 Y-3.36577
G01 X-3.37784 Y-3.36652
G01 X-3.42165 Y-3.36653
G01 X-3.42883 Y-3.36585
G01 X-3.43593 Y-3.36373
G01 X-3.44214 Y-3.36049
G01 X-3.44346 Y-3.35957
G01 X-3.44794 Y-3.35588
G01 X-3.44905 Y-3.35473
G01 X-3.44892 Y-3.35436
G01 X-3.44905 Y-3.35473
G01 X-3.67215 Y-3.35469
G01 X-3.67578 Y-3.35433
G01 X-3.68017 Y-3.35315
G01 X-3.72155 Y-3.33805
G01 X-3.72161 Y-3.33738
G01 X-3.72155 Y-3.33805
G01 X-3.72370 Y-3.33972
G01 X-3.73122 Y-3.34376
G01 X-3.73271 Y-3.34435
G01 X-3.74012 Y-3.34659
G01 X-3.74170 Y-3.34687
G01 X-3.74980 Y-3.34763
G01 X-3.75949 Y-3.34668
G01 X-3.76842 Y-3.34393
G01 X-3.77630 Y-3.33972
G01 X-3.78354 Y-3.33383
G01 X-3.78926 Y-3.32696
G01 X-3.79013 Y-3.32560
G01 X-3.79393 Y-3.31841
G01 X-3.79613 Y-3.31142
G01 X-3.79647 Y-3.30834
G01 X-3.79682 Y-3.29884
G01 X-3.79623 Y-3.28925
G01 X-3.79516 Y-3.28207
G01 X-3.79282 Y-3.27217
G01 X-3.79013 Y-3.26416
G01 X-3.78870 Y-3.26245
G01 X-3.78725 Y-3.26103
G01 X-3.78095 Y-3.25587
G01 X-3.77893 Y-3.25451
G01 X-3.77175 Y-3.25068
G01 X-3.77026 Y-3.25002
G01 X-3.76171 Y-3.24738
G01 X-3.75932 Y-3.24691
G01 X-3.75000 Y-3.24606
G01 X-3.74068 Y-3.24691
G01 X-3.73829 Y-3.24738
G01 X-3.73089 Y-3.24962
G01 X-3.72789 Y-3.25086
G01 X-3.71970 Y-3.25538
G01 X-3.71275 Y-3.26103
G01 X-3.71103 Y-3.26275
G01 X-3.70587 Y-3.26905
G01 X-3.70432 Y-3.27143
G01 X-3.70002 Y-3.27974
G01 X-3.69855 Y-3.28441
G01 X-3.69905 Y-3.28489
G01 X-3.69855 Y-3.28441
G01 X-3.66557 Y-3.29655
G01 X-3.45161 Y-3.29645
G01 X-3.45148 Y-3.29682
G01 X-3.45161 Y-3.29645
G01 X-3.44678 Y-3.29252
G01 X-3.35322 Y-3.29252
G01 X-3.45416 Y-3.29261
G01 X-3.45777 Y-3.29142
G01 X-3.46082 Y-3.29015
G01 X-3.66445 Y-3.29025
G01 X-3.69344 Y-3.27957
G01 X-3.69387 Y-3.28001
G01 X-3.69344 Y-3.27957
G01 X-3.69476 Y-3.27602
G01 X-3.69896 Y-3.26810
G01 X-3.70074 Y-3.26537
G01 X-3.70616 Y-3.25875
G01 X-3.70784 Y-3.25698
G01 X-3.71505 Y-3.25099
G01 X-3.71774 Y-3.24916
G01 X-3.72676 Y-3.24443
G01 X-3.72867 Y-3.24371
G01 X-3.73646 Y-3.24135
G01 X-3.74046 Y-3.24059
G01 X-3.74817 Y-3.23984
G01 X-3.75142 Y-3.23981
G01 X-3.75994 Y-3.24064
G01 X-3.76195 Y-3.24096
G01 X-3.77172 Y-3.24384
G01 X-3.77435 Y-3.24493
G01 X-3.78190 Y-3.24896
G01 X-3.78397 Y-3.25026
G01 X-3.78624 Y-3.25205
G01 X-3.78768 Y-3.25731
G01 X-3.79184 Y-3.26894
G01 X-3.79282 Y-3.27217
G01 X-3.79516 Y-3.28207
G01 X-3.79647 Y-3.29166
G01 X-3.79682 Y-3.29884
G01 X-3.79647 Y-3.30834
G01 X-3.79516 Y-3.31793
G01 X-3.79282 Y-3.32783
G01 X-3.79184 Y-3.33106
G01 X-3.78768 Y-3.34268
G01 X-3.78624 Y-3.34795
G01 X-3.78261 Y-3.35063
G01 X-3.77573 Y-3.35434
G01 X-3.77100 Y-3.35529
G01 X-3.76382 Y-3.35635
G01 X-3.75935 Y-3.35679
G01 X-3.75218 Y-3.35714
G01 X-3.74782 Y-3.35714
G01 X-3.74064 Y-3.35679
G01 X-3.73617 Y-3.35635
G01 X-3.72900 Y-3.35529
G01 X-3.72427 Y-3.35434
G01 X-3.71996 Y-3.35204
G01 X-3.72000 Y-3.35144
G01 X-3.71996 Y-3.35204
G01 X-3.71387 Y-3.35426
G01 X-3.68317 Y-3.35969
G01 X-3.67881 Y-3.36030
G01 X-3.67286 Y-3.36071
G01 X-3.45264 Y-3.36074
G01 X-3.45158 Y-3.36093
G01 X-3.44405 Y-3.36345
G01 X-3.43880 Y-3.36476
G01 X-3.43598 Y-3.36532
G01 X-3.42815 Y-3.36636
G01 X-3.42161 Y-3.36665
G01 X-3.37838 Y-3.36665
G01 X-3.37185 Y-3.36636
G01 X-3.36325 Y-3.36519
G01 X-3.35834 Y-3.36158
G01 X-3.35245 Y-3.35641
G01 X-3.34715 Y-3.35075
G01 X-3.34235 Y-3.34448
G01 X-3.33797 Y-3.33745
G01 X-3.33637 Y-3.33445
G01 X-3.33398 Y-3.32940
G01 X-3.33426 Y-3.32833
G01 X-3.34685 Y-3.32874
G01 X-3.34746 Y-3.33488
G01 X-3.34925 Y-3.34079
G01 X-3.35216 Y-3.34624
G01 X-3.35608 Y-3.35101
G01 X-3.36085 Y-3.35493
G01 X-3.36629 Y-3.35784
G01 X-3.37220 Y-3.35963
G01 X-3.37835 Y-3.36024
G01 X-3.42165 Y-3.36024
G01 X-3.42780 Y-3.35963
G01 X-3.43371 Y-3.35784
G01 X-3.43915 Y-3.35493
G01 X-3.44392 Y-3.35101
G01 X-3.44607 Y-3.34843
G01 X-3.67160 Y-3.34841
G01 X-3.67469 Y-3.34813
G01 X-3.67801 Y-3.34723
G01 X-3.72277 Y-3.33089
G01 X-3.72703 Y-3.33437
G01 X-3.73383 Y-3.33803
G01 X-3.74156 Y-3.34045
G01 X-3.75000 Y-3.34134
G01 X-3.75806 Y-3.34054
G01 X-3.76582 Y-3.33819
G01 X-3.77297 Y-3.33437
G01 X-3.77923 Y-3.32923
G01 X-3.78414 Y-3.32328
G01 X-3.78832 Y-3.31546
G01 X-3.79054 Y-3.30806
G01 X-3.79132 Y-3.29961
G01 X-3.79054 Y-3.29194
G01 X-3.78819 Y-3.28418
G01 X-3.78437 Y-3.27703
G01 X-3.77923 Y-3.27077
G01 X-3.77297 Y-3.26563
G01 X-3.76582 Y-3.26181
G01 X-3.75806 Y-3.25945
G01 X-3.75039 Y-3.25868
G01 X-3.74193 Y-3.25945
G01 X-3.73418 Y-3.26181
G01 X-3.72703 Y-3.26563
G01 X-3.72105 Y-3.27051
G01 X-3.71563 Y-3.27703
G01 X-3.71197 Y-3.28383
G01 X-3.70955 Y-3.29156
G01 X-3.70924 Y-3.29392
G01 X-3.66778 Y-3.30905
G01 X-3.44607 Y-3.30905
G01 X-3.44392 Y-3.30647
G01 X-3.43915 Y-3.30255
G01 X-3.43371 Y-3.29964
G01 X-3.42780 Y-3.29785
G01 X-3.42165 Y-3.29724
G01 X-3.37796 Y-3.29726
G01 X-3.37220 Y-3.29785
G01 X-3.36629 Y-3.29964
G01 X-3.36085 Y-3.30255
G01 X-3.35608 Y-3.30647
G01 X-3.35216 Y-3.31124
G01 X-3.34925 Y-3.31669
G01 X-3.34746 Y-3.32260
G01 X-3.34685 Y-3.32874
G04 P0 ( dwell for no time -- G64 should not smooth over this point )
G00 Z0.08000 ( retract )

G00 X-3.12981 Y-3.21762 ( rapid move to begin. )
G01 F180.00000
( Mill infeed pass 1/1 )
G01 Z-0.04000
G04 P0 ( dwell for no time -- G64 should not smooth over this point )
G01 F360.00000
G01 X-3.12981 Y-3.21762
G01 X-3.12981 Y-2.81071
G01 X-3.13027 Y-2.80504
G01 X-3.13098 Y-2.80145
G01 X-3.13223 Y-2.79738
G01 X-3.13314 Y-2.79511
G01 X-3.13616 Y-2.78958
G01 X-3.13978 Y-2.78498
G01 X-3.18360 Y-2.74104
G01 X-3.18793 Y-2.73735
G01 X-3.19134 Y-2.73512
G01 X-3.19474 Y-2.73332
G01 X-3.19738 Y-2.73223
G01 X-3.20343 Y-2.73051
G01 X-3.21034 Y-2.72982
G01 X-3.55707 Y-2.72981
G01 X-3.55727 Y-2.73029
G01 X-3.55707 Y-2.72981
G01 X-3.67256 Y-2.61432
G01 X-3.67848 Y-2.61048
G01 X-3.68474 Y-2.60583
G01 X-3.69990 Y-2.59321
G01 X-3.70596 Y-2.58880
G01 X-3.70903 Y-2.58817
G01 X-3.71361 Y-2.58771
G01 X-3.72327 Y-2.58766
G01 X-3.72510 Y-2.58949
G01 X-3.72327 Y-2.58766
G01 X-3.72327 Y-2.55710
G01 X-3.72344 Y-2.55429
G01 X-3.72386 Y-2.55191
G01 X-3.72441 Y-2.54997
G01 X-3.72528 Y-2.54771
G01 X-3.72619 Y-2.54592
G01 X-3.72846 Y-2.54259
G01 X-3.72981 Y-2.54110
G01 X-3.73159 Y-2.53946
G01 X-3.73457 Y-2.53739
G01 X-3.73783 Y-2.53581
G01 X-3.74130 Y-2.53477
G01 X-3.74529 Y-2.53428
G01 X-3.85252 Y-2.53426
G01 X-3.85272 Y-2.53474
G01 X-3.85252 Y-2.53426
G01 X-3.90599 Y-2.48079
G01 X-3.90827 Y-2.47879
G01 X-3.90875 Y-2.47899
G01 X-3.90827 Y-2.47879
G01 X-3.90827 Y-2.44629
G01 X-3.91325 Y-2.44130
G01 X-3.91798 Y-2.43716
G01 X-3.92250 Y-2.43434
G01 X-3.92686 Y-2.43270
G01 X-3.93130 Y-2.43215
G01 X-4.06870 Y-2.43215
G01 X-4.07314 Y-2.43270
G01 X-4.07750 Y-2.43434
G01 X-4.08202 Y-2.43716
G01 X-4.08675 Y-2.44130
G01 X-4.09173 Y-2.44629
G01 X-4.09172 Y-2.57761
G01 X-4.09131 Y-2.58121
G01 X-4.09046 Y-2.58431
G01 X-4.08919 Y-2.58727
G01 X-4.08728 Y-2.59035
G01 X-4.08574 Y-2.59222
G01 X-4.08402 Y-2.59391
G01 X-4.08179 Y-2.59565
G01 X-4.07973 Y-2.59690
G01 X-4.07717 Y-2.59808
G01 X-4.07487 Y-2.59884
G01 X-4.07251 Y-2.59935
G01 X-4.07011 Y-2.59960
G01 X-3.92989 Y-2.59960
G01 X-3.92591 Y-2.59904
G01 X-3.92208 Y-2.59778
G01 X-3.91854 Y-2.59587
G01 X-3.91539 Y-2.59337
G01 X-3.91372 Y-2.59161
G01 X-3.91225 Y-2.58969
G01 X-3.91100 Y-2.58763
G01 X-3.90997 Y-2.58544
G01 X-3.91043 Y-2.58131
G01 X-3.90991 Y-2.58530
G01 X-3.90673 Y-2.58848
G01 X-3.90625 Y-2.58828
G01 X-3.90673 Y-2.58848
G01 X-3.90673 Y-2.66040
G01 X-3.90582 Y-2.66300
G01 X-3.90436 Y-2.67481
G01 X-3.90435 Y-2.69470
G01 X-3.90294 Y-2.70594
G01 X-3.90174 Y-2.70915
G01 X-3.89990 Y-2.71119
G01 X-3.89679 Y-2.71374
G01 X-3.89508 Y-2.71481
G01 X-3.89292 Y-2.71588
G01 X-3.89065 Y-2.71671
G01 X-3.88870 Y-2.71722
G01 X-3.88631 Y-2.71761
G01 X-3.88390 Y-2.71773
G01 X-3.74570 Y-2.71773
G01 X-3.74249 Y-2.71745
G01 X-3.73897 Y-2.71659
G01 X-3.73635 Y-2.71555
G01 X-3.73388 Y-2.71419
G01 X-3.73159 Y-2.71253
G01 X-3.72926 Y-2.71032
G01 X-3.72725 Y-2.70779
G01 X-3.72581 Y-2.70537
G01 X-3.72467 Y-2.70279
G01 X-3.72377 Y-2.69970
G01 X-3.72344 Y-2.69771
G01 X-3.72327 Y-2.69530
G01 X-3.72327 Y-2.67205
G01 X-3.72714 Y-2.66268
G01 X-3.72327 Y-2.67205
G01 X-3.59979 Y-2.79552
G01 X-3.59573 Y-2.79894
G01 X-3.59373 Y-2.80036
G01 X-3.58892 Y-2.80298
G01 X-3.58590 Y-2.80420
G01 X-3.58023 Y-2.80579
G01 X-3.57407 Y-2.80646
G01 X-3.53089 Y-2.80648
G01 X-3.52470 Y-2.80454
G01 X-3.51968 Y-2.80329
G01 X-3.51502 Y-2.80234
G01 X-3.50984 Y-2.80159
G01 X-3.50575 Y-2.80119
G01 X-3.50058 Y-2.80093
G01 X-3.49627 Y-2.80092
G01 X-3.49109 Y-2.80119
G01 X-3.48700 Y-2.80159
G01 X-3.48168 Y-2.80236
G01 X-3.47717 Y-2.80329
G01 X-3.47215 Y-2.80454
G01 X-3.46596 Y-2.80648
G01 X-3.44754 Y-2.80648
G01 X-3.44100 Y-2.80358
G01 X-3.43370 Y-2.80162
G01 X-3.42587 Y-2.80089
G01 X-3.37441 Y-2.80088
G01 X-3.36316 Y-2.80230
G01 X-3.35356 Y-2.80592
G01 X-3.34735 Y-2.80599
G01 X-3.34078 Y-2.80648
G01 X-3.22659 Y-2.80648
G01 X-3.22639 Y-2.80600
G01 X-3.22659 Y-2.80648
G01 X-3.20648 Y-2.82659
G01 X-3.20600 Y-2.82639
G01 X-3.20648 Y-2.82659
G01 X-3.20648 Y-2.89814
G01 X-3.20437 Y-2.90261
G01 X-3.20247 Y-2.90718
G01 X-3.19965 Y-2.91504
G01 X-3.19846 Y-2.91895
G01 X-3.19653 Y-2.92666
G01 X-3.19587 Y-2.92987
G01 X-3.19470 Y-2.93790
G01 X-3.19402 Y-2.94867
G01 X-3.19442 Y-2.95935
G01 X-3.19470 Y-2.96210
G01 X-3.19585 Y-2.96997
G01 X-3.19653 Y-2.97334
G01 X-3.19846 Y-2.98105
G01 X-3.19965 Y-2.98496
G01 X-3.20247 Y-2.99282
G01 X-3.20592 Y-3.00067
G01 X-3.20592 Y-3.18021
G01 X-3.20614 Y-3.18589
G01 X-3.20648 Y-3.18943
G01 X-3.20648 Y-3.20174
G01 X-3.20604 Y-3.20193
G01 X-3.20648 Y-3.20174
G01 X-3.32343 Y-3.31868
G01 X-3.32445 Y-3.32207
G01 X-3.32647 Y-3.32770
G01 X-3.32824 Y-3.33203
G01 X-3.33077 Y-3.33735
G01 X-3.33252 Y-3.34062
G01 X-3.33537 Y-3.34540
G01 X-3.33724 Y-3.34817
G01 X-3.34232 Y-3.35481
G01 X-3.34617 Y-3.35904
G01 X-3.35216 Y-3.36467
G01 X-3.35891 Y-3.36984
G01 X-3.36081 Y-3.37108
G01 X-3.36072 Y-3.37129
G01 X-3.36081 Y-3.37108
G01 X-3.36842 Y-3.37235
G01 X-3.37130 Y-3.37263
G01 X-3.37834 Y-3.37295
G01 X-3.42165 Y-3.37295
G01 X-3.42869 Y-3.37263
G01 X-3.43714 Y-3.37154
G01 X-3.44025 Y-3.37089
G01 X-3.44581 Y-3.36950
G01 X-3.45318 Y-3.36704
G01 X-3.67310 Y-3.36700
G01 X-3.67943 Y-3.36657
G01 X-3.68417 Y-3.36591
G01 X-3.71497 Y-3.36046
G01 X-3.72276 Y-3.36046
G01 X-3.72784 Y-3.36148
G01 X-3.73548 Y-3.36262
G01 X-3.74026 Y-3.36308
G01 X-3.74774 Y-3.36346
G01 X-3.75241 Y-3.36344
G01 X-3.75974 Y-3.36308
G01 X-3.76452 Y-3.36262
G01 X-3.77216 Y-3.36148
G01 X-3.77724 Y-3.36046
G01 X-3.80386 Y-3.36046
G01 X-3.81217 Y-3.36289
G01 X-3.80830 Y-3.36676
G01 X-3.80850 Y-3.36724
G01 X-3.80830 Y-3.36676
G01 X-3.67724 Y-3.36676
G01 X-3.67126 Y-3.36704
G01 X-3.45318 Y-3.36704
G01 X-3.44581 Y-3.36950
G01 X-3.44025 Y-3.37089
G01 X-3.43698 Y-3.37154
G01 X-3.42869 Y-3.37263
G01 X-3.42165 Y-3.37295
G01 X-3.37834 Y-3.37295
G01 X-3.37146 Y-3.37265
G01 X-3.36857 Y-3.37236
G01 X-3.36081 Y-3.37108
G01 X-3.35453 Y-3.36659
G01 X-3.35217 Y-3.36465
G01 X-3.34805 Y-3.36091
G01 X-3.34243 Y-3.35492
G01 X-3.33724 Y-3.34817
G01 X-3.33539 Y-3.34539
G01 X-3.33245 Y-3.34048
G01 X-3.33071 Y-3.33721
G01 X-3.32861 Y-3.33278
G01 X-3.20018 Y-3.20435
G01 X-3.19970 Y-3.20455
G01 X-3.20018 Y-3.20435
G01 X-3.20018 Y-2.98644
G01 X-3.19846 Y-2.98105
G01 X-3.19653 Y-2.97334
G01 X-3.19586 Y-2.96997
G01 X-3.19442 Y-2.95935
G01 X-3.19403 Y-2.95133
G01 X-3.19443 Y-2.94065
G01 X-3.19472 Y-2.93774
G01 X-3.19586 Y-2.93003
G01 X-3.19653 Y-2.92666
G01 X-3.19846 Y-2.91895
G01 X-3.20018 Y-2.91356
G01 X-3.20018 Y-2.82398
G01 X-3.19970 Y-2.82378
G01 X-3.20018 Y-2.82398
G01 X-3.22398 Y-2.80018
G01 X-3.22378 Y-2.79970
G01 X-3.22398 Y-2.80018
G01 X-3.57295 Y-2.80018
G01 X-3.57880 Y-2.79964
G01 X-3.58368 Y-2.79829
G01 X-3.58632 Y-2.79724
G01 X-3.59041 Y-2.79501
G01 X-3.59531 Y-2.79108
G01 X-3.72837 Y-2.65803
G01 X-3.72817 Y-2.65755
G01 X-3.72837 Y-2.65803
G01 X-3.72956 Y-2.65803
G01 X-3.73141 Y-2.65619
G01 X-3.72956 Y-2.65803
G01 X-3.72956 Y-2.69490
G01 X-3.72981 Y-2.69773
G01 X-3.73028 Y-2.69970
G01 X-3.73115 Y-2.70197
G01 X-3.73213 Y-2.70375
G01 X-3.73358 Y-2.70570
G01 X-3.73530 Y-2.70742
G01 X-3.73691 Y-2.70865
G01 X-3.73867 Y-2.70967
G01 X-3.74091 Y-2.71060
G01 X-3.74367 Y-2.71126
G01 X-3.74610 Y-2.71143
G01 X-3.88390 Y-2.71143
G01 X-3.88592 Y-2.71131
G01 X-3.88752 Y-2.71103
G01 X-3.89060 Y-2.71002
G01 X-3.89275 Y-2.70887
G01 X-3.89439 Y-2.70768
G01 X-3.89615 Y-2.70600
G01 X-3.89742 Y-2.70442
G01 X-3.89867 Y-2.70233
G01 X-3.89947 Y-2.70047
G01 X-3.90003 Y-2.69852
G01 X-3.90039 Y-2.69612
G01 X-3.90043 Y-2.58587
G01 X-3.89996 Y-2.58567
G01 X-3.90043 Y-2.58587
G01 X-3.91456 Y-2.57174
G01 X-3.91801 Y-2.56295
G01 X-3.91456 Y-2.57174
G01 X-3.91464 Y-2.57842
G01 X-3.91497 Y-2.58042
G01 X-3.91553 Y-2.58237
G01 X-3.91633 Y-2.58423
G01 X-3.91758 Y-2.58632
G01 X-3.91885 Y-2.58790
G01 X-3.92061 Y-2.58958
G01 X-3.92225 Y-2.59077
G01 X-3.92440 Y-2.59192
G01 X-3.92669 Y-2.59274
G01 X-3.92867 Y-2.59316
G01 X-3.93110 Y-2.59334
G01 X-4.06971 Y-2.59332
G01 X-4.07331 Y-2.59274
G01 X-4.07523 Y-2.59208
G01 X-4.07705 Y-2.59119
G01 X-4.07875 Y-2.59008
G01 X-4.08030 Y-2.58878
G01 X-4.08265 Y-2.58599
G01 X-4.08385 Y-2.58387
G01 X-4.08472 Y-2.58160
G01 X-4.08526 Y-2.57923
G01 X-4.08543 Y-2.57721
G01 X-4.08544 Y-2.44015
G01 X-4.08202 Y-2.43716
G01 X-4.07750 Y-2.43434
G01 X-4.07314 Y-2.43270
G01 X-4.06870 Y-2.43215
G01 X-3.93130 Y-2.43215
G01 X-3.92686 Y-2.43270
G01 X-3.92250 Y-2.43434
G01 X-3.91798 Y-2.43716
G01 X-3.91456 Y-2.44015
G01 X-3.91456 Y-2.48179
G01 X-3.91515 Y-2.48206
G01 X-3.91456 Y-2.48179
G01 X-3.91045 Y-2.48525
G01 X-3.85513 Y-2.54056
G01 X-3.85533 Y-2.54104
G01 X-3.85513 Y-2.54056
G01 X-3.74569 Y-2.54057
G01 X-3.74367 Y-2.54074
G01 X-3.74169 Y-2.54116
G01 X-3.73977 Y-2.54182
G01 X-3.73760 Y-2.54292
G01 X-3.73593 Y-2.54406
G01 X-3.73441 Y-2.54541
G01 X-3.73213 Y-2.54825
G01 X-3.73053 Y-2.55153
G01 X-3.72969 Y-2.55507
G01 X-3.72956 Y-2.55710
G01 X-3.72956 Y-2.59396
G01 X-3.73139 Y-2.59580
G01 X-3.72956 Y-2.59396
G01 X-3.71469 Y-2.59397
G01 X-3.70925 Y-2.59450
G01 X-3.70398 Y-2.59598
G01 X-3.70173 Y-2.59691
G01 X-3.69730 Y-2.59936
G01 X-3.69365 Y-2.60226
G01 X-3.55968 Y-2.73611
G01 X-3.55988 Y-2.73659
G01 X-3.55968 Y-2.73611
G01 X-3.21030 Y-2.73612
G01 X-3.20446 Y-2.73673
G01 X-3.19883 Y-2.73840
G01 X-3.19325 Y-2.74129
G01 X-3.18926 Y-2.74441
G01 X-3.14467 Y-2.78895
G01 X-3.14151 Y-2.79291
G01 X-3.13888 Y-2.79771
G01 X-3.13813 Y-2.79959
G01 X-3.13712 Y-2.80289
G01 X-3.13653 Y-2.80566
G01 X-3.13611 Y-2.81071
G01 X-3.13611 Y-3.21762
G01 X-3.13673 Y-3.22387
G01 X-3.13855 Y-3.22988
G01 X-3.14151 Y-3.23542
G01 X-3.14550 Y-3.24027
G01 X-3.32696 Y-3.42173
G01 X-3.33153 Y-3.42543
G01 X-3.33596 Y-3.42789
G01 X-3.33859 Y-3.42894
G01 X-3.34189 Y-3.42994
G01 X-3.34388 Y-3.43036
G01 X-3.34933 Y-3.43083
G01 X-3.82157 Y-3.43083
G01 X-3.82621 Y-3.43046
G01 X-3.82900 Y-3.42994
G01 X-3.83269 Y-3.42882
G01 X-3.83457 Y-3.42807
G01 X-3.83937 Y-3.42543
G01 X-3.84302 Y-3.42254
G01 X-3.87265 Y-3.39302
G01 X-3.87592 Y-3.38915
G01 X-3.87727 Y-3.38713
G01 X-3.87960 Y-3.38263
G01 X-3.88114 Y-3.37780
G01 X-3.88161 Y-3.37542
G01 X-3.88203 Y-3.37078
G01 X-3.88204 Y-3.35590
G01 X-3.88031 Y-3.35415
G01 X-3.88204 Y-3.35590
G01 X-3.88781 Y-3.35590
G01 X-3.89063 Y-3.35559
G01 X-3.89335 Y-3.35480
G01 X-3.89555 Y-3.35376
G01 X-3.89789 Y-3.35215
G01 X-3.89965 Y-3.35047
G01 X-3.90115 Y-3.34856
G01 X-3.90235 Y-3.34644
G01 X-3.90334 Y-3.34378
G01 X-3.90381 Y-3.34139
G01 X-3.90394 Y-3.33203
G01 X-3.90224 Y-3.33027
G01 X-3.90394 Y-3.33203
G01 X-3.99606 Y-3.33203
G01 X-3.99783 Y-3.33023
G01 X-3.99606 Y-3.33203
G01 X-3.99619 Y-3.34139
G01 X-3.99677 Y-3.34417
G01 X-3.99783 Y-3.34680
G01 X-3.99885 Y-3.34856
G01 X-4.00008 Y-3.35017
G01 X-4.00149 Y-3.35162
G01 X-4.00308 Y-3.35289
G01 X-4.00480 Y-3.35395
G01 X-4.00665 Y-3.35480
G01 X-4.00858 Y-3.35541
G01 X-4.01057 Y-3.35578
G01 X-4.01260 Y-3.35590
G01 X-4.08821 Y-3.35588
G01 X-4.09102 Y-3.35550
G01 X-4.09335 Y-3.35480
G01 X-4.09555 Y-3.35376
G01 X-4.09789 Y-3.35215
G01 X-4.10044 Y-3.34954
G01 X-4.10217 Y-3.34680
G01 X-4.10334 Y-3.34378
G01 X-4.10389 Y-3.34059
G01 X-4.10394 Y-3.33796
G01 X-4.10112 Y-3.32959
G01 X-4.09863 Y-3.31909
G01 X-4.09725 Y-3.30888
G01 X-4.09687 Y-3.30124
G01 X-4.09725 Y-3.29112
G01 X-4.09863 Y-3.28091
G01 X-4.10112 Y-3.27041
G01 X-4.10394 Y-3.26204
G01 X-4.10392 Y-3.25982
G01 X-4.10362 Y-3.25740
G01 X-4.10297 Y-3.25506
G01 X-4.10217 Y-3.25319
G01 X-4.10092 Y-3.25111
G01 X-4.09938 Y-3.24923
G01 X-4.09757 Y-3.24759
G01 X-4.09555 Y-3.24624
G01 X-4.09335 Y-3.24520
G01 X-4.09023 Y-3.24434
G01 X-4.08740 Y-3.24409
G01 X-4.01260 Y-3.24409
G01 X-4.01057 Y-3.24422
G01 X-4.00858 Y-3.24459
G01 X-4.00665 Y-3.24520
G01 X-4.00480 Y-3.24605
G01 X-4.00180 Y-3.24811
G01 X-4.00035 Y-3.24953
G01 X-3.99908 Y-3.25111
G01 X-3.99732 Y-3.25430
G01 X-3.99656 Y-3.25661
G01 X-3.99614 Y-3.25901
G01 X-3.99606 Y-3.26796
G01 X-3.99781 Y-3.26976
G01 X-3.99606 Y-3.26796
G01 X-3.90394 Y-3.26796
G01 X-3.90214 Y-3.26978
G01 X-3.90394 Y-3.26796
G01 X-3.90386 Y-3.25901
G01 X-3.90344 Y-3.25661
G01 X-3.90268 Y-3.25430
G01 X-3.90092 Y-3.25111
G01 X-3.89851 Y-3.24838
G01 X-3.89692 Y-3.24711
G01 X-3.89520 Y-3.24605
G01 X-3.89181 Y-3.24469
G01 X-3.88943 Y-3.24422
G01 X-3.88740 Y-3.24409
G01 X-3.81219 Y-3.24410
G01 X-3.80898 Y-3.24450
G01 X-3.80590 Y-3.24551
G01 X-3.80308 Y-3.24711
G01 X-3.80062 Y-3.24923
G01 X-3.79863 Y-3.25178
G01 X-3.79717 Y-3.25468
G01 X-3.79638 Y-3.25740
G01 X-3.79606 Y-3.26063
G01 X-3.79606 Y-3.26204
G01 X-3.79780 Y-3.26688
G01 X-3.79887 Y-3.27041
G01 X-3.80078 Y-3.27805
G01 X-3.80138 Y-3.28091
G01 X-3.80274 Y-3.29112
G01 X-3.80313 Y-3.30124
G01 X-3.80275 Y-3.30872
G01 X-3.80236 Y-3.31233
G01 X-3.80236 Y-3.33937
G01 X-3.80249 Y-3.34097
G01 X-3.80286 Y-3.34253
G01 X-3.80409 Y-3.34506
G01 X-3.80565 Y-3.34689
G01 X-3.80760 Y-3.34830
G01 X-3.81021 Y-3.34932
G01 X-3.81220 Y-3.34960
G01 X-3.82426 Y-3.34961
G01 X-3.82606 Y-3.34784
G01 X-3.82426 Y-3.34961
G01 X-3.82426 Y-3.35971
G01 X-3.82474 Y-3.35991
G01 X-3.82426 Y-3.35971
G01 X-3.81091 Y-3.37306
G01 X-3.81111 Y-3.37354
G01 X-3.81091 Y-3.37306
G01 X-3.35999 Y-3.37306
G01 X-3.35979 Y-3.37354
G01 X-3.35999 Y-3.37306
G01 X-3.19388 Y-3.20696
G01 X-3.19340 Y-3.20716
G01 X-3.19388 Y-3.20696
G01 X-3.19388 Y-2.82137
G01 X-3.19340 Y-2.82117
G01 X-3.19388 Y-2.82137
G01 X-3.22137 Y-2.79388
G01 X-3.22117 Y-2.79340
G01 X-3.22137 Y-2.79388
G01 X-3.57295 Y-2.79388
G01 X-3.57738 Y-2.79349
G01 X-3.57895 Y-2.79315
G01 X-3.58261 Y-2.79200
G01 X-3.58639 Y-2.79006
G01 X-3.58774 Y-2.78920
G01 X-3.59115 Y-2.78635
G01 X-3.72576 Y-2.65174
G01 X-3.72556 Y-2.65126
G01 X-3.72576 Y-2.65174
G01 X-3.73586 Y-2.65174
G01 X-3.73770 Y-2.64989
G01 X-3.73586 Y-2.65174
G01 X-3.73590 Y-2.69570
G01 X-3.73615 Y-2.69729
G01 X-3.73664 Y-2.69882
G01 X-3.73806 Y-2.70124
G01 X-3.74008 Y-2.70318
G01 X-3.74145 Y-2.70402
G01 X-3.74294 Y-2.70464
G01 X-3.74450 Y-2.70501
G01 X-3.74610 Y-2.70514
G01 X-3.88390 Y-2.70514
G01 X-3.88590 Y-2.70494
G01 X-3.88782 Y-2.70436
G01 X-3.89024 Y-2.70294
G01 X-3.89142 Y-2.70185
G01 X-3.89241 Y-2.70059
G01 X-3.89364 Y-2.69806
G01 X-3.89413 Y-2.69530
G01 X-3.89414 Y-2.58326
G01 X-3.89366 Y-2.58306
G01 X-3.89414 Y-2.58326
G01 X-3.92086 Y-2.55653
G01 X-3.92455 Y-2.54741
G01 X-3.92086 Y-2.55653
G01 X-3.92093 Y-2.57800
G01 X-3.92125 Y-2.57958
G01 X-3.92180 Y-2.58108
G01 X-3.92259 Y-2.58249
G01 X-3.92358 Y-2.58375
G01 X-3.92476 Y-2.58484
G01 X-3.92610 Y-2.58573
G01 X-3.92871 Y-2.58675
G01 X-3.93110 Y-2.58704
G01 X-4.06930 Y-2.58703
G01 X-4.07168 Y-2.58665
G01 X-4.07390 Y-2.58573
G01 X-4.07585 Y-2.58432
G01 X-4.07741 Y-2.58249
G01 X-4.07864 Y-2.57996
G01 X-4.07901 Y-2.57840
G01 X-4.07914 Y-2.57680
G01 X-4.07913 Y-2.43860
G01 X-4.07885 Y-2.43661
G01 X-4.07823 Y-2.43479
G01 X-4.07750 Y-2.43434
G01 X-4.07314 Y-2.43270
G01 X-4.06870 Y-2.43215
G01 X-3.93130 Y-2.43215
G01 X-3.92686 Y-2.43270
G01 X-3.92250 Y-2.43434
G01 X-3.92177 Y-2.43480
G01 X-3.92150 Y-2.43546
G01 X-3.92099 Y-2.43740
G01 X-3.92086 Y-2.43900
G01 X-3.92086 Y-2.48534
G01 X-3.92155 Y-2.48569
G01 X-3.92086 Y-2.48534
G01 X-3.91931 Y-2.48618
G01 X-3.91799 Y-2.48710
G01 X-3.91490 Y-2.48970
G01 X-3.85774 Y-2.54686
G01 X-3.85794 Y-2.54734
G01 X-3.85774 Y-2.54686
G01 X-3.74610 Y-2.54686
G01 X-3.74450 Y-2.54699
G01 X-3.74294 Y-2.54736
G01 X-3.74041 Y-2.54859
G01 X-3.73858 Y-2.55015
G01 X-3.73717 Y-2.55210
G01 X-3.73625 Y-2.55432
G01 X-3.73587 Y-2.55670
G01 X-3.73586 Y-2.60026
G01 X-3.73767 Y-2.60204
G01 X-3.73586 Y-2.60026
G01 X-3.71410 Y-2.60031
G01 X-3.70988 Y-2.60080
G01 X-3.70581 Y-2.60201
G01 X-3.70166 Y-2.60408
G01 X-3.69999 Y-2.60520
G01 X-3.69690 Y-2.60780
G01 X-3.56229 Y-2.74241
G01 X-3.56249 Y-2.74289
G01 X-3.56229 Y-2.74241
G01 X-3.21071 Y-2.74241
G01 X-3.20589 Y-2.74287
G01 X-3.20105 Y-2.74430
G01 X-3.19658 Y-2.74664
G01 X-3.19326 Y-2.74928
G01 X-3.14960 Y-2.79288
G01 X-3.14686 Y-2.79625
G01 X-3.14462 Y-2.80031
G01 X-3.14315 Y-2.80471
G01 X-3.14276 Y-2.80668
G01 X-3.14241 Y-2.81071
G01 X-3.14242 Y-3.21796
G01 X-3.14295 Y-3.22284
G01 X-3.14445 Y-3.22765
G01 X-3.14686 Y-3.23209
G01 X-3.14995 Y-3.23582
G01 X-3.33113 Y-3.41700
G01 X-3.33486 Y-3.42008
G01 X-3.33857 Y-3.42215
G01 X-3.34042 Y-3.42291
G01 X-3.34490 Y-3.42414
G01 X-3.34933 Y-3.42454
G01 X-3.82157 Y-3.42454
G01 X-3.82560 Y-3.42419
G01 X-3.82756 Y-3.42380
G01 X-3.83197 Y-3.42233
G01 X-3.83603 Y-3.42008
G01 X-3.83940 Y-3.41734
G01 X-3.86820 Y-3.38857
G01 X-3.87128 Y-3.38483
G01 X-3.87353 Y-3.38077
G01 X-3.87412 Y-3.37927
G01 X-3.87528 Y-3.37519
G01 X-3.87571 Y-3.37104
G01 X-3.87574 Y-3.34961
G01 X-3.87397 Y-3.34783
G01 X-3.87574 Y-3.34961
G01 X-3.88820 Y-3.34957
G01 X-3.88979 Y-3.34932
G01 X-3.89169 Y-3.34867
G01 X-3.89342 Y-3.34765
G01 X-3.89492 Y-3.34632
G01 X-3.89613 Y-3.34472
G01 X-3.89686 Y-3.34329
G01 X-3.89744 Y-3.34137
G01 X-3.89763 Y-3.33977
G01 X-3.89764 Y-3.32574
G01 X-3.89581 Y-3.32390
G01 X-3.89764 Y-3.32574
G01 X-4.00236 Y-3.32574
G01 X-4.00420 Y-3.32389
G01 X-4.00236 Y-3.32574
G01 X-4.00237 Y-3.33977
G01 X-4.00275 Y-3.34215
G01 X-4.00330 Y-3.34366
G01 X-4.00409 Y-3.34506
G01 X-4.00595 Y-3.34715
G01 X-4.00725 Y-3.34810
G01 X-4.00868 Y-3.34883
G01 X-4.01021 Y-3.34932
G01 X-4.01180 Y-3.34957
G01 X-4.08820 Y-3.34957
G01 X-4.09094 Y-3.34897
G01 X-4.09342 Y-3.34765
G01 X-4.09544 Y-3.34571
G01 X-4.09633 Y-3.34437
G01 X-4.09701 Y-3.34291
G01 X-4.09744 Y-3.34137
G01 X-4.09764 Y-3.33937
G01 X-4.09764 Y-3.31234
G01 X-4.09725 Y-3.30888
G01 X-4.09688 Y-3.30124
G01 X-4.09724 Y-3.29127
G01 X-4.09764 Y-3.28766
G01 X-4.09761 Y-3.25983
G01 X-4.09701 Y-3.25709
G01 X-4.09633 Y-3.25563
G01 X-4.09544 Y-3.25429
G01 X-4.09435 Y-3.25311
G01 X-4.09309 Y-3.25212
G01 X-4.09056 Y-3.25089
G01 X-4.08900 Y-3.25052
G01 X-4.08740 Y-3.25039
G01 X-4.01260 Y-3.25039
G01 X-4.00982 Y-3.25078
G01 X-4.00725 Y-3.25190
G01 X-4.00508 Y-3.25368
G01 X-4.00348 Y-3.25598
G01 X-4.00256 Y-3.25863
G01 X-4.00236 Y-3.26063
G01 X-4.00236 Y-3.27426
G01 X-4.00420 Y-3.27611
G01 X-4.00236 Y-3.27426
G01 X-3.89764 Y-3.27426
G01 X-3.89580 Y-3.27611
G01 X-3.89764 Y-3.27426
G01 X-3.89764 Y-3.26063
G01 X-3.89744 Y-3.25863
G01 X-3.89652 Y-3.25598
G01 X-3.89492 Y-3.25368
G01 X-3.89309 Y-3.25212
G01 X-3.89056 Y-3.25089
G01 X-3.88900 Y-3.25052
G01 X-3.88740 Y-3.25039
G01 X-3.81180 Y-3.25042
G01 X-3.81021 Y-3.25068
G01 X-3.80831 Y-3.25133
G01 X-3.80691 Y-3.25212
G01 X-3.80565 Y-3.25311
G01 X-3.80456 Y-3.25429
G01 X-3.80348 Y-3.25598
G01 X-3.80286 Y-3.25747
G01 X-3.80249 Y-3.25903
G01 X-3.80236 Y-3.26063
G01 X-3.80236 Y-3.28767
G01 X-3.80275 Y-3.29127
G01 X-3.80312 Y-3.29876
G01 X-3.80274 Y-3.30888
G01 X-3.80138 Y-3.31893
G01 X-3.80078 Y-3.32195
G01 X-3.79887 Y-3.32958
G01 X-3.79780 Y-3.33311
G01 X-3.79606 Y-3.33796
G01 X-3.79611 Y-3.34059
G01 X-3.79638 Y-3.34260
G01 X-3.79690 Y-3.34456
G01 X-3.79765 Y-3.34644
G01 X-3.79863 Y-3.34822
G01 X-3.79982 Y-3.34986
G01 X-3.80120 Y-3.35134
G01 X-3.80275 Y-3.35265
G01 X-3.80445 Y-3.35376
G01 X-3.80627 Y-3.35465
G01 X-3.80819 Y-3.35531
G01 X-3.81017 Y-3.35573
G01 X-3.81219 Y-3.35590
G01 X-3.81796 Y-3.35590
G01 X-3.81974 Y-3.35418
G01 X-3.81796 Y-3.35590
G01 X-3.81796 Y-3.35710
G01 X-3.81844 Y-3.35730
G01 X-3.81796 Y-3.35710
G01 X-3.81218 Y-3.36289
G01 X-3.80386 Y-3.36046
G01 X-3.80038 Y-3.35866
G01 X-3.79718 Y-3.35621
G01 X-3.79446 Y-3.35324
G01 X-3.79227 Y-3.34977
G01 X-3.79365 Y-3.34469
G01 X-3.79784 Y-3.33297
G01 X-3.79892 Y-3.32943
G01 X-3.80078 Y-3.32195
G01 X-3.80138 Y-3.31893
G01 X-3.80249 Y-3.31145
G01 X-3.80312 Y-3.30124
G01 X-3.80275 Y-3.29127
G01 X-3.80249 Y-3.28855
G01 X-3.80138 Y-3.28106
G01 X-3.80078 Y-3.27805
G01 X-3.79892 Y-3.27056
G01 X-3.79784 Y-3.26703
G01 X-3.79365 Y-3.25531
G01 X-3.79227 Y-3.25022
G01 X-3.79375 Y-3.24774
G01 X-3.79549 Y-3.24551
G01 X-3.79748 Y-3.24352
G01 X-3.79970 Y-3.24178
G01 X-3.80248 Y-3.24016
G01 X-3.80508 Y-3.23907
G01 X-3.80780 Y-3.23830
G01 X-3.81059 Y-3.23788
G01 X-3.88740 Y-3.23780
G01 X-3.89021 Y-3.23797
G01 X-3.89299 Y-3.23849
G01 X-3.89679 Y-3.23981
G01 X-3.89859 Y-3.24072
G01 X-3.90063 Y-3.24201
G01 X-3.90222 Y-3.24325
G01 X-3.90397 Y-3.24492
G01 X-3.90529 Y-3.24644
G01 X-3.90669 Y-3.24841
G01 X-3.90787 Y-3.25052
G01 X-3.90883 Y-3.25273
G01 X-3.90954 Y-3.25504
G01 X-3.91001 Y-3.25742
G01 X-3.91024 Y-3.26166
G01 X-3.90886 Y-3.26323
G01 X-3.91024 Y-3.26166
G01 X-3.98976 Y-3.26166
G01 X-3.99140 Y-3.26339
G01 X-3.98976 Y-3.26166
G01 X-3.98979 Y-3.25942
G01 X-3.99005 Y-3.25702
G01 X-3.99067 Y-3.25427
G01 X-3.99146 Y-3.25198
G01 X-3.99249 Y-3.24980
G01 X-3.99398 Y-3.24740
G01 X-3.99548 Y-3.24551
G01 X-3.99718 Y-3.24379
G01 X-3.99905 Y-3.24225
G01 X-4.00072 Y-3.24113
G01 X-4.00285 Y-3.23998
G01 X-4.00508 Y-3.23907
G01 X-4.00741 Y-3.23839
G01 X-4.00978 Y-3.23797
G01 X-4.01260 Y-3.23780
G01 X-4.08780 Y-3.23780
G01 X-4.09021 Y-3.23797
G01 X-4.09220 Y-3.23830
G01 X-4.09605 Y-3.23949
G01 X-4.09962 Y-3.24134
G01 X-4.10282 Y-3.24379
G01 X-4.10554 Y-3.24675
G01 X-4.10773 Y-3.25022
G01 X-4.10634 Y-3.25531
G01 X-4.10220 Y-3.26688
G01 X-4.10112 Y-3.27041
G01 X-4.09863 Y-3.28091
G01 X-4.09753 Y-3.28840
G01 X-4.09724 Y-3.29127
G01 X-4.09688 Y-3.29876
G01 X-4.09724 Y-3.30872
G01 X-4.09753 Y-3.31160
G01 X-4.09861 Y-3.31893
G01 X-4.09925 Y-3.32210
G01 X-4.10112 Y-3.32959
G01 X-4.10220 Y-3.33311
G01 X-4.10634 Y-3.34469
G01 X-4.10773 Y-3.34978
G01 X-4.10669 Y-3.35159
G01 X-4.10529 Y-3.35356
G01 X-4.10369 Y-3.35537
G01 X-4.10191 Y-3.35701
G01 X-4.09893 Y-3.35908
G01 X-4.09567 Y-3.36065
G01 X-4.09220 Y-3.36169
G01 X-4.08861 Y-3.36217
G01 X-4.01260 Y-3.36220
G01 X-4.01018 Y-3.36208
G01 X-4.00780 Y-3.36169
G01 X-4.00547 Y-3.36106
G01 X-4.00358 Y-3.36035
G01 X-4.00141 Y-3.35928
G01 X-3.99937 Y-3.35798
G01 X-3.99748 Y-3.35648
G01 X-3.99575 Y-3.35479
G01 X-3.99422 Y-3.35292
G01 X-3.99289 Y-3.35090
G01 X-3.99162 Y-3.34839
G01 X-3.99078 Y-3.34612
G01 X-3.99012 Y-3.34338
G01 X-3.98982 Y-3.34098
G01 X-3.98976 Y-3.33833
G01 X-3.99140 Y-3.33661
G01 X-3.98976 Y-3.33833
G01 X-3.91024 Y-3.33833
G01 X-3.90863 Y-3.33663
G01 X-3.91024 Y-3.33833
G01 X-3.91015 Y-3.34138
G01 X-3.90964 Y-3.34456
G01 X-3.90883 Y-3.34726
G01 X-3.90769 Y-3.34984
G01 X-3.90625 Y-3.35226
G01 X-3.90451 Y-3.35449
G01 X-3.90252 Y-3.35648
G01 X-3.90030 Y-3.35821
G01 X-3.89787 Y-3.35966
G01 X-3.89529 Y-3.36080
G01 X-3.89181 Y-3.36178
G01 X-3.88833 Y-3.36218
G01 X-3.88681 Y-3.36086
G01 X-3.88833 Y-3.36218
G01 X-3.88831 Y-3.37149
G01 X-3.88764 Y-3.37765
G01 X-3.88617 Y-3.38293
G01 X-3.88517 Y-3.38560
G01 X-3.88263 Y-3.39046
G01 X-3.88054 Y-3.39347
G01 X-3.87711 Y-3.39748
G01 X-3.84868 Y-3.42591
G01 X-3.84467 Y-3.42934
G01 X-3.84166 Y-3.43143
G01 X-3.83605 Y-3.43429
G01 X-3.83044 Y-3.43608
G01 X-3.82683 Y-3.43673
G01 X-3.82157 Y-3.43713
G01 X-3.34933 Y-3.43713
G01 X-3.34325 Y-3.43663
G01 X-3.34046 Y-3.43608
G01 X-3.33677 Y-3.43497
G01 X-3.33336 Y-3.43363
G01 X-3.32786 Y-3.43056
G01 X-3.32276 Y-3.42643
G01 X-3.14078 Y-3.24446
G01 X-3.13761 Y-3.24072
G01 X-3.13616 Y-3.23875
G01 X-3.13281 Y-3.23248
G01 X-3.13198 Y-3.23018
G01 X-3.13059 Y-3.22530
G01 X-3.13027 Y-3.22329
G01 X-3.12983 Y-3.21837
G01 X-3.12981 Y-3.21762
G01 X-3.14871 Y-3.21762
G01 X-3.14908 Y-3.22141
G01 X-3.15019 Y-3.22506
G01 X-3.15199 Y-3.22842
G01 X-3.15440 Y-3.23137
G01 X-3.33558 Y-3.41254
G01 X-3.33853 Y-3.41496
G01 X-3.34154 Y-3.41659
G01 X-3.34592 Y-3.41792
G01 X-3.34933 Y-3.41824
G01 X-3.82157 Y-3.41824
G01 X-3.82498 Y-3.41792
G01 X-3.82936 Y-3.41659
G01 X-3.83237 Y-3.41496
G01 X-3.83503 Y-3.41280
G01 X-3.86374 Y-3.38411
G01 X-3.86616 Y-3.38117
G01 X-3.86809 Y-3.37744
G01 X-3.86906 Y-3.37416
G01 X-3.86942 Y-3.37075
G01 X-3.86944 Y-3.34331
G01 X-3.88781 Y-3.34328
G01 X-3.88937 Y-3.34278
G01 X-3.89033 Y-3.34200
G01 X-3.89100 Y-3.34097
G01 X-3.89134 Y-3.33937
G01 X-3.89134 Y-3.31944
G01 X-4.00866 Y-3.31944
G01 X-4.00868 Y-3.33978
G01 X-4.00900 Y-3.34097
G01 X-4.00967 Y-3.34200
G01 X-4.01028 Y-3.34255
G01 X-4.01138 Y-3.34311
G01 X-4.01260 Y-3.34331
G01 X-4.08740 Y-3.34331
G01 X-4.08862 Y-3.34311
G01 X-4.09004 Y-3.34230
G01 X-4.09100 Y-3.34097
G01 X-4.09134 Y-3.33937
G01 X-4.09134 Y-3.26063
G01 X-4.09115 Y-3.25941
G01 X-4.09059 Y-3.25832
G01 X-4.08971 Y-3.25744
G01 X-4.08862 Y-3.25689
G01 X-4.08740 Y-3.25669
G01 X-4.01260 Y-3.25669
G01 X-4.01138 Y-3.25689
G01 X-4.01028 Y-3.25744
G01 X-4.00967 Y-3.25800
G01 X-4.00900 Y-3.25903
G01 X-4.00868 Y-3.26022
G01 X-4.00866 Y-3.28056
G01 X-3.89134 Y-3.28056
G01 X-3.89132 Y-3.26022
G01 X-3.89100 Y-3.25903
G01 X-3.89033 Y-3.25800
G01 X-3.88971 Y-3.25744
G01 X-3.88862 Y-3.25689
G01 X-3.88740 Y-3.25669
G01 X-3.81260 Y-3.25669
G01 X-3.81100 Y-3.25703
G01 X-3.80967 Y-3.25800
G01 X-3.80900 Y-3.25903
G01 X-3.80866 Y-3.26063
G01 X-3.80875 Y-3.34019
G01 X-3.80919 Y-3.34134
G01 X-3.80996 Y-3.34230
G01 X-3.81100 Y-3.34297
G01 X-3.81219 Y-3.34328
G01 X-3.83056 Y-3.34331
G01 X-3.83056 Y-3.36232
G01 X-3.81352 Y-3.37936
G01 X-3.35738 Y-3.37936
G01 X-3.18759 Y-3.20957
G01 X-3.18759 Y-2.81876
G01 X-3.21876 Y-2.78759
G01 X-3.57295 Y-2.78759
