( pcb2gcode 1.3.2 )
( Software-independent Gcode )

G94 ( Inches per minute feed rate. )
G20 ( Units == INCHES. )

G90 ( Absolute coordinates. )
G00 S12000 ( RPM spindle speed. )
G64 P0.00040 ( set maximum deviation from commanded toolpath )
G01 F360.00000 ( Feedrate. )

G01 F360.00000 ( Feedrate. )
M3 ( Spindle on clockwise. )
G04 P1.00000
G04 P0 ( dwell for no time -- G64 should not smooth over this point )
G00 Z0.08000 ( retract )

G00 X-3.26237 Y-2.90457 ( rapid move to begin. )
G01 F180.00000
G01 Z-0.04000
G04 P0 ( dwell for no time -- G64 should not smooth over this point )
G01 F360.00000
G01 X-3.26237 Y-2.90457
G01 X-3.33347 Y-2.83347
G01 X-3.34036 Y-2.82874
G01 X-3.34469 Y-2.82726
G01 X-3.34923 Y-2.82666
G01 X-3.36654 Y-2.82663
G01 X-3.36669 Y-2.82287
G01 X-3.36786 Y-2.82004
G01 X-3.37004 Y-2.81786
G01 X-3.37441 Y-2.81654
G01 X-3.42559 Y-2.81654
G01 X-3.42996 Y-2.81786
G01 X-3.43286 Y-2.82140
G01 X-3.43346 Y-2.82441
G01 X-3.43346 Y-2.87559
G01 X-3.43286 Y-2.87860
G01 X-3.43116 Y-2.88116
G01 X-3.42860 Y-2.88286
G01 X-3.42559 Y-2.88346
G01 X-3.37287 Y-2.88331
G01 X-3.37004 Y-2.88214
G01 X-3.36786 Y-2.87996
G01 X-3.36669 Y-2.87713
G01 X-3.36654 Y-2.87337
G01 X-3.35968 Y-2.87337
G01 X-3.29541 Y-2.93764
G01 X-3.29632 Y-2.94100
G01 X-3.29718 Y-2.95082
G01 X-3.29598 Y-2.96061
G01 X-3.29314 Y-2.96921
G01 X-3.28865 Y-2.97707
G01 X-3.28218 Y-2.98451
G01 X-3.27337 Y-2.99102
G01 X-3.27337 Y-3.17053
G01 X-3.32947 Y-3.22663
G01 X-3.35187 Y-3.22663
G01 X-3.35590 Y-3.22263
G01 X-3.36187 Y-3.21867
G01 X-3.36851 Y-3.21599
G01 X-3.37553 Y-3.21471
G01 X-3.42245 Y-3.21461
G01 X-3.42956 Y-3.21549
G01 X-3.43488 Y-3.21716
G01 X-3.44122 Y-3.22050
G01 X-3.44785 Y-3.22619
G01 X-3.45127 Y-3.23060
G01 X-3.45457 Y-3.23696
G01 X-3.45652 Y-3.24385
G01 X-3.45696 Y-3.25259
G01 X-3.45572 Y-3.25964
G01 X-3.45308 Y-3.26630
G01 X-3.45013 Y-3.27103
G01 X-3.44410 Y-3.27737
G01 X-3.43813 Y-3.28133
G01 X-3.43149 Y-3.28401
G01 X-3.42447 Y-3.28529
G01 X-3.37755 Y-3.28539
G01 X-3.37044 Y-3.28451
G01 X-3.36366 Y-3.28221
G01 X-3.35748 Y-3.27859
G01 X-3.35181 Y-3.27337
G01 X-3.31901 Y-3.27334
G01 X-3.31448 Y-3.27274
G01 X-3.31014 Y-3.27126
G01 X-3.30326 Y-3.26653
G01 X-3.23102 Y-3.19382
G01 X-3.22814 Y-3.18843
G01 X-3.22663 Y-3.18021
G01 X-3.22663 Y-2.99098
G01 X-3.21840 Y-2.98509
G01 X-3.21135 Y-2.97707
G01 X-3.20686 Y-2.96921
G01 X-3.20402 Y-2.96061
G01 X-3.20278 Y-2.95000
G01 X-3.20402 Y-2.93939
G01 X-3.20686 Y-2.93079
G01 X-3.21231 Y-2.92160
G01 X-3.21904 Y-2.91439
G01 X-3.22712 Y-2.90873
G01 X-3.23464 Y-2.90538
G01 X-3.24425 Y-2.90316
G01 X-3.25575 Y-2.90316
G01 X-3.26237 Y-2.90457
G01 X-3.26301 Y-2.90672
G01 X-3.33486 Y-2.83486
G01 X-3.33860 Y-2.83190
G01 X-3.34235 Y-2.83003
G01 X-3.34640 Y-2.82892
G01 X-3.36850 Y-2.82859
G01 X-3.36895 Y-2.82215
G01 X-3.37113 Y-2.81950
G01 X-3.37326 Y-2.81862
G01 X-3.42559 Y-2.81851
G01 X-3.42785 Y-2.81895
G01 X-3.43050 Y-2.82113
G01 X-3.43149 Y-2.82441
G01 X-3.43149 Y-2.87559
G01 X-3.43105 Y-2.87785
G01 X-3.42977 Y-2.87977
G01 X-3.42785 Y-2.88105
G01 X-3.42559 Y-2.88150
G01 X-3.37326 Y-2.88138
G01 X-3.37113 Y-2.88050
G01 X-3.36895 Y-2.87785
G01 X-3.36850 Y-2.87141
G01 X-3.35887 Y-2.87141
G01 X-3.29317 Y-2.93710
G01 X-3.29436 Y-2.94120
G01 X-3.29522 Y-2.95062
G01 X-3.29411 Y-2.96001
G01 X-3.29134 Y-2.96841
G01 X-3.28695 Y-2.97608
G01 X-3.28072 Y-2.98319
G01 X-3.27141 Y-2.98977
G01 X-3.27140 Y-3.17135
G01 X-3.32865 Y-3.22859
G01 X-3.35272 Y-3.22860
G01 X-3.35702 Y-3.22424
G01 X-3.36264 Y-3.22048
G01 X-3.36891 Y-3.21792
G01 X-3.37554 Y-3.21668
G01 X-3.42225 Y-3.21657
G01 X-3.42897 Y-3.21737
G01 X-3.43429 Y-3.21904
G01 X-3.44026 Y-3.22222
G01 X-3.44630 Y-3.22740
G01 X-3.44971 Y-3.23181
G01 X-3.45280 Y-3.23783
G01 X-3.45461 Y-3.24435
G01 X-3.45501 Y-3.25229
G01 X-3.45387 Y-3.25896
G01 X-3.45141 Y-3.26526
G01 X-3.44846 Y-3.26999
G01 X-3.44298 Y-3.27576
G01 X-3.43736 Y-3.27952
G01 X-3.43109 Y-3.28208
G01 X-3.42446 Y-3.28332
G01 X-3.37775 Y-3.28343
G01 X-3.37103 Y-3.28263
G01 X-3.36461 Y-3.28049
G01 X-3.35876 Y-3.27710
G01 X-3.35278 Y-3.27140
G01 X-3.31979 Y-3.27141
G01 X-3.31505 Y-3.27085
G01 X-3.31107 Y-3.26953
G01 X-3.30465 Y-3.26514
G01 X-3.23255 Y-3.19257
G01 X-3.23003 Y-3.18786
G01 X-3.22859 Y-3.18021
G01 X-3.22860 Y-2.98977
G01 X-3.21972 Y-2.98363
G01 X-3.21305 Y-2.97608
G01 X-3.20866 Y-2.96841
G01 X-3.20589 Y-2.96001
G01 X-3.20474 Y-2.95000
G01 X-3.20589 Y-2.93999
G01 X-3.20866 Y-2.93159
G01 X-3.21378 Y-2.92292
G01 X-3.22020 Y-2.91598
G01 X-3.22792 Y-2.91053
G01 X-3.23544 Y-2.90718
G01 X-3.24466 Y-2.90509
G01 X-3.25534 Y-2.90509
G01 X-3.26301 Y-2.90672
G01 X-3.26359 Y-2.90892
G01 X-3.33626 Y-2.83626
G01 X-3.33953 Y-2.83364
G01 X-3.34659 Y-2.83088
G01 X-3.37047 Y-2.83056
G01 X-3.37077 Y-2.82290
G01 X-3.37163 Y-2.82163
G01 X-3.37364 Y-2.82055
G01 X-3.42559 Y-2.82047
G01 X-3.42710 Y-2.82077
G01 X-3.42886 Y-2.82222
G01 X-3.42953 Y-2.82441
G01 X-3.42953 Y-2.87559
G01 X-3.42837 Y-2.87837
G01 X-3.42559 Y-2.87953
G01 X-3.37364 Y-2.87945
G01 X-3.37163 Y-2.87837
G01 X-3.37077 Y-2.87710
G01 X-3.37047 Y-2.86944
G01 X-3.35805 Y-2.86944
G01 X-3.29092 Y-2.93656
G01 X-3.29234 Y-2.94100
G01 X-3.29329 Y-2.95000
G01 X-3.29223 Y-2.95940
G01 X-3.28954 Y-2.96761
G01 X-3.28524 Y-2.97510
G01 X-3.27926 Y-2.98188
G01 X-3.27199 Y-2.98726
G01 X-3.26944 Y-2.98849
G01 X-3.26944 Y-3.17216
G01 X-3.32784 Y-3.23056
G01 X-3.35359 Y-3.23056
G01 X-3.35815 Y-3.22586
G01 X-3.36342 Y-3.22229
G01 X-3.36930 Y-3.21985
G01 X-3.37555 Y-3.21865
G01 X-3.42205 Y-3.21852
G01 X-3.42838 Y-3.21925
G01 X-3.43370 Y-3.22092
G01 X-3.43931 Y-3.22394
G01 X-3.44474 Y-3.22860
G01 X-3.44815 Y-3.23301
G01 X-3.45103 Y-3.23869
G01 X-3.45271 Y-3.24484
G01 X-3.45307 Y-3.25199
G01 X-3.45202 Y-3.25827
G01 X-3.44974 Y-3.26422
G01 X-3.44679 Y-3.26895
G01 X-3.44185 Y-3.27414
G01 X-3.43658 Y-3.27771
G01 X-3.43070 Y-3.28015
G01 X-3.42445 Y-3.28135
G01 X-3.37795 Y-3.28148
G01 X-3.37162 Y-3.28075
G01 X-3.36557 Y-3.27877
G01 X-3.36004 Y-3.27561
G01 X-3.35374 Y-3.26944
G01 X-3.31979 Y-3.26944
G01 X-3.31562 Y-3.26897
G01 X-3.31200 Y-3.26779
G01 X-3.30604 Y-3.26374
G01 X-3.23407 Y-3.19132
G01 X-3.23191 Y-3.18729
G01 X-3.23056 Y-3.18021
G01 X-3.23056 Y-2.98849
G01 X-3.22104 Y-2.98217
G01 X-3.21476 Y-2.97510
G01 X-3.21046 Y-2.96761
G01 X-3.20777 Y-2.95940
G01 X-3.20671 Y-2.95000
G01 X-3.20777 Y-2.94060
G01 X-3.21046 Y-2.93239
G01 X-3.21524 Y-2.92424
G01 X-3.22136 Y-2.91757
G01 X-3.22872 Y-2.91233
G01 X-3.23624 Y-2.90898
G01 X-3.24507 Y-2.90702
G01 X-3.25411 Y-2.90693
G01 X-3.26298 Y-2.90873
G01 X-3.26359 Y-2.90892
G01 X-3.26404 Y-2.91126
G01 X-3.34046 Y-2.83538
G01 X-3.34640 Y-2.83291
G01 X-3.34981 Y-2.83254
G01 X-3.37244 Y-2.83253
G01 X-3.37248 Y-2.82403
G01 X-3.37403 Y-2.82248
G01 X-3.42559 Y-2.82244
G01 X-3.42723 Y-2.82332
G01 X-3.42756 Y-2.87559
G01 X-3.42668 Y-2.87723
G01 X-3.37403 Y-2.87752
G01 X-3.37248 Y-2.87597
G01 X-3.37244 Y-2.86747
G01 X-3.35724 Y-2.86747
G01 X-3.28868 Y-2.93602
G01 X-3.29041 Y-2.94141
G01 X-3.29132 Y-2.95000
G01 X-3.29036 Y-2.95879
G01 X-3.28775 Y-2.96681
G01 X-3.28354 Y-2.97411
G01 X-3.27779 Y-2.98056
G01 X-3.27066 Y-2.98578
G01 X-3.26747 Y-2.98721
G01 X-3.26747 Y-3.17298
G01 X-3.32702 Y-3.23253
G01 X-3.35461 Y-3.23253
G01 X-3.35897 Y-3.22773
G01 X-3.36385 Y-3.22429
G01 X-3.36932 Y-3.22190
G01 X-3.37555 Y-3.22062
G01 X-3.42185 Y-3.22048
G01 X-3.42779 Y-3.22113
G01 X-3.43311 Y-3.22280
G01 X-3.43835 Y-3.22566
G01 X-3.44318 Y-3.22981
G01 X-3.44660 Y-3.23422
G01 X-3.44926 Y-3.23956
G01 X-3.45080 Y-3.24533
G01 X-3.45112 Y-3.25169
G01 X-3.45018 Y-3.25759
G01 X-3.44807 Y-3.26318
G01 X-3.44512 Y-3.26791
G01 X-3.44073 Y-3.27253
G01 X-3.43580 Y-3.27590
G01 X-3.43030 Y-3.27822
G01 X-3.42445 Y-3.27938
G01 X-3.37815 Y-3.27952
G01 X-3.37221 Y-3.27887
G01 X-3.36652 Y-3.27705
G01 X-3.36132 Y-3.27411
G01 X-3.35709 Y-3.27048
G01 X-3.35471 Y-3.26747
G01 X-3.31979 Y-3.26747
G01 X-3.31293 Y-3.26606
G01 X-3.30743 Y-3.26235
G01 X-3.23765 Y-3.19256
G01 X-3.23394 Y-3.18707
G01 X-3.23253 Y-3.18021
G01 X-3.23253 Y-2.98721
G01 X-3.22917 Y-2.98567
G01 X-3.22221 Y-2.98056
G01 X-3.21646 Y-2.97411
G01 X-3.21225 Y-2.96681
G01 X-3.20955 Y-2.95839
G01 X-3.20868 Y-2.95000
G01 X-3.20955 Y-2.94161
G01 X-3.21225 Y-2.93319
G01 X-3.21646 Y-2.92589
G01 X-3.22221 Y-2.91944
G01 X-3.22934 Y-2.91422
G01 X-3.23743 Y-2.91065
G01 X-3.24589 Y-2.90890
G01 X-3.25452 Y-2.90894
G01 X-3.26404 Y-2.91126
G04 P0 ( dwell for no time -- G64 should not smooth over this point )
G00 Z0.08000 ( retract )

G00 X-3.44799 Y-3.14764 ( rapid move to begin. )
G01 F180.00000
G01 Z-0.04000
G04 P0 ( dwell for no time -- G64 should not smooth over this point )
G01 F360.00000
G01 X-3.44799 Y-3.14764
G01 X-4.03302 Y-3.14764
G01 X-4.27638 Y-2.90428
G01 X-4.27672 Y-2.84616
G01 X-4.27791 Y-2.84169
G01 X-4.27996 Y-2.83754
G01 X-4.28278 Y-2.83387
G01 X-4.28625 Y-2.83082
G01 X-4.29169 Y-2.82791
G01 X-4.30000 Y-2.82638
G01 X-4.42800 Y-2.82638
G01 X-4.43484 Y-2.82102
G01 X-4.44123 Y-2.81817
G01 X-4.44726 Y-2.81685
G01 X-4.45425 Y-2.81668
G01 X-4.46268 Y-2.81847
G01 X-4.46831 Y-2.82102
G01 X-4.47333 Y-2.82461
G01 X-4.47910 Y-2.83102
G01 X-4.48215 Y-2.83639
G01 X-4.48409 Y-2.84225
G01 X-4.48499 Y-2.84918
G01 X-4.48444 Y-2.85614
G01 X-4.48215 Y-2.86361
G01 X-4.47910 Y-2.86898
G01 X-4.47455 Y-2.87429
G01 X-4.46831 Y-2.87898
G01 X-4.46191 Y-2.88183
G01 X-4.45588 Y-2.88315
G01 X-4.44890 Y-2.88332
G01 X-4.44123 Y-2.88183
G01 X-4.43484 Y-2.87898
G01 X-4.42800 Y-2.87362
G01 X-4.32362 Y-2.87362
G01 X-4.32362 Y-2.90916
G01 X-4.33160 Y-2.91491
G01 X-4.33865 Y-2.92293
G01 X-4.34314 Y-2.93079
G01 X-4.34632 Y-2.94100
G01 X-4.34722 Y-2.95000
G01 X-4.34598 Y-2.96061
G01 X-4.34314 Y-2.96921
G01 X-4.33769 Y-2.97840
G01 X-4.33096 Y-2.98561
G01 X-4.32361 Y-2.99090
G01 X-4.31380 Y-2.99513
G01 X-4.30411 Y-2.99701
G01 X-4.29425 Y-2.99684
G01 X-4.28464 Y-2.99462
G01 X-4.27570 Y-2.99045
G01 X-4.26840 Y-2.98509
G01 X-4.26552 Y-2.98196
G01 X-4.05951 Y-3.18796
G01 X-4.05527 Y-3.19130
G01 X-4.04816 Y-3.19424
G01 X-4.04280 Y-3.19488
G01 X-3.44789 Y-3.19488
G01 X-3.44410 Y-3.19863
G01 X-3.43813 Y-3.20259
G01 X-3.43149 Y-3.20527
G01 X-3.42603 Y-3.20639
G01 X-3.37837 Y-3.20669
G01 X-3.37200 Y-3.20609
G01 X-3.36512 Y-3.20410
G01 X-3.35878 Y-3.20076
G01 X-3.35324 Y-3.19622
G01 X-3.34873 Y-3.19066
G01 X-3.34543 Y-3.18430
G01 X-3.34348 Y-3.17741
G01 X-3.34296 Y-3.17026
G01 X-3.34428 Y-3.16162
G01 X-3.34692 Y-3.15496
G01 X-3.35085 Y-3.14897
G01 X-3.35590 Y-3.14389
G01 X-3.36187 Y-3.13993
G01 X-3.36851 Y-3.13725
G01 X-3.37553 Y-3.13597
G01 X-3.42163 Y-3.13583
G01 X-3.42800 Y-3.13643
G01 X-3.43488 Y-3.13842
G01 X-3.44122 Y-3.14176
G01 X-3.44799 Y-3.14764
G01 X-3.44703 Y-3.14960
G01 X-4.03383 Y-3.14960
G01 X-4.27834 Y-2.90509
G01 X-4.27868 Y-2.84635
G01 X-4.27980 Y-2.84226
G01 X-4.28170 Y-2.83846
G01 X-4.28430 Y-2.83512
G01 X-4.28750 Y-2.83234
G01 X-4.29226 Y-2.82980
G01 X-4.30000 Y-2.82835
G01 X-4.42888 Y-2.82834
G01 X-4.43638 Y-2.82244
G01 X-4.44184 Y-2.82005
G01 X-4.44890 Y-2.81865
G01 X-4.45548 Y-2.81877
G01 X-4.46071 Y-2.81989
G01 X-4.46677 Y-2.82244
G01 X-4.47217 Y-2.82621
G01 X-4.47667 Y-2.83101
G01 X-4.48035 Y-2.83719
G01 X-4.48248 Y-2.84406
G01 X-4.48304 Y-2.84938
G01 X-4.48248 Y-2.85594
G01 X-4.48057 Y-2.86223
G01 X-4.47739 Y-2.86799
G01 X-4.47217 Y-2.87379
G01 X-4.46732 Y-2.87728
G01 X-4.46071 Y-2.88011
G01 X-4.45425 Y-2.88136
G01 X-4.44767 Y-2.88123
G01 X-4.44244 Y-2.88011
G01 X-4.43583 Y-2.87728
G01 X-4.42888 Y-2.87165
G01 X-4.32165 Y-2.87165
G01 X-4.32165 Y-2.91034
G01 X-4.33028 Y-2.91637
G01 X-4.33622 Y-2.92292
G01 X-4.34134 Y-2.93159
G01 X-4.34436 Y-2.94120
G01 X-4.34525 Y-2.95000
G01 X-4.34411 Y-2.96001
G01 X-4.34134 Y-2.96841
G01 X-4.33622 Y-2.97708
G01 X-4.32980 Y-2.98402
G01 X-4.32263 Y-2.98919
G01 X-4.31339 Y-2.99320
G01 X-4.30411 Y-2.99504
G01 X-4.29466 Y-2.99491
G01 X-4.28544 Y-2.99282
G01 X-4.27686 Y-2.98886
G01 X-4.26972 Y-2.98363
G01 X-4.26559 Y-2.97910
G01 X-4.05812 Y-3.18657
G01 X-4.05434 Y-3.18956
G01 X-4.05054 Y-3.19146
G01 X-4.04280 Y-3.19291
G01 X-3.44704 Y-3.19291
G01 X-3.44298 Y-3.19702
G01 X-3.43736 Y-3.20078
G01 X-3.43109 Y-3.20334
G01 X-3.42563 Y-3.20446
G01 X-3.37837 Y-3.20472
G01 X-3.37220 Y-3.20413
G01 X-3.36571 Y-3.20222
G01 X-3.35974 Y-3.19904
G01 X-3.35453 Y-3.19473
G01 X-3.35029 Y-3.18945
G01 X-3.34720 Y-3.18343
G01 X-3.34539 Y-3.17691
G01 X-3.34493 Y-3.17016
G01 X-3.34613 Y-3.16230
G01 X-3.34859 Y-3.15600
G01 X-3.35227 Y-3.15032
G01 X-3.35702 Y-3.14550
G01 X-3.36264 Y-3.14174
G01 X-3.36891 Y-3.13918
G01 X-3.37554 Y-3.13794
G01 X-3.42163 Y-3.13780
G01 X-3.42780 Y-3.13839
G01 X-3.43539 Y-3.14077
G01 X-3.44124 Y-3.14416
G01 X-3.44703 Y-3.14960
G01 X-3.44606 Y-3.15157
G01 X-4.03465 Y-3.15157
G01 X-4.28031 Y-2.90591
G01 X-4.28063 Y-2.84654
G01 X-4.28343 Y-2.83939
G01 X-4.28875 Y-2.83386
G01 X-4.29283 Y-2.83168
G01 X-4.30000 Y-2.83031
G01 X-4.42976 Y-2.83031
G01 X-4.43214 Y-2.82780
G01 X-4.43718 Y-2.82424
G01 X-4.44245 Y-2.82192
G01 X-4.44890 Y-2.82061
G01 X-4.45507 Y-2.82070
G01 X-4.46030 Y-2.82181
G01 X-4.46597 Y-2.82424
G01 X-4.47101 Y-2.82780
G01 X-4.47520 Y-2.83232
G01 X-4.47855 Y-2.83799
G01 X-4.48052 Y-2.84427
G01 X-4.48108 Y-2.84959
G01 X-4.48052 Y-2.85573
G01 X-4.47870 Y-2.86162
G01 X-4.47569 Y-2.86701
G01 X-4.47101 Y-2.87220
G01 X-4.46634 Y-2.87557
G01 X-4.46030 Y-2.87819
G01 X-4.45507 Y-2.87930
G01 X-4.44890 Y-2.87939
G01 X-4.44245 Y-2.87808
G01 X-4.43646 Y-2.87535
G01 X-4.42976 Y-2.86969
G01 X-4.31969 Y-2.86969
G01 X-4.31968 Y-2.91161
G01 X-4.32896 Y-2.91783
G01 X-4.33476 Y-2.92424
G01 X-4.33954 Y-2.93239
G01 X-4.34241 Y-2.94141
G01 X-4.34329 Y-2.95000
G01 X-4.34223 Y-2.95940
G01 X-4.33954 Y-2.96761
G01 X-4.33476 Y-2.97576
G01 X-4.32864 Y-2.98243
G01 X-4.32164 Y-2.98749
G01 X-4.31298 Y-2.99127
G01 X-4.30411 Y-2.99307
G01 X-4.29507 Y-2.99298
G01 X-4.28624 Y-2.99102
G01 X-4.27801 Y-2.98726
G01 X-4.27104 Y-2.98217
G01 X-4.26567 Y-2.97624
G01 X-4.05672 Y-3.18518
G01 X-4.05341 Y-3.18783
G01 X-4.04997 Y-3.18958
G01 X-4.04280 Y-3.19095
G01 X-3.44620 Y-3.19095
G01 X-3.44185 Y-3.19540
G01 X-3.43658 Y-3.19897
G01 X-3.43070 Y-3.20141
G01 X-3.42523 Y-3.20253
G01 X-3.37836 Y-3.20275
G01 X-3.37240 Y-3.20217
G01 X-3.36630 Y-3.20034
G01 X-3.36069 Y-3.19732
G01 X-3.35581 Y-3.19323
G01 X-3.35185 Y-3.18825
G01 X-3.34897 Y-3.18256
G01 X-3.34729 Y-3.17642
G01 X-3.34689 Y-3.17006
G01 X-3.34798 Y-3.16298
G01 X-3.35026 Y-3.15704
G01 X-3.35370 Y-3.15168
G01 X-3.35815 Y-3.14712
G01 X-3.36342 Y-3.14355
G01 X-3.36930 Y-3.14111
G01 X-3.37555 Y-3.13991
G01 X-3.42164 Y-3.13976
G01 X-3.42760 Y-3.14035
G01 X-3.43443 Y-3.14249
G01 X-3.43996 Y-3.14565
G01 X-3.44606 Y-3.15157
G01 X-3.44510 Y-3.15354
G01 X-4.03546 Y-3.15354
G01 X-4.28228 Y-2.90672
G01 X-4.28259 Y-2.84673
G01 X-4.28517 Y-2.84032
G01 X-4.29000 Y-2.83538
G01 X-4.29340 Y-2.83356
G01 X-4.30000 Y-2.83228
G01 X-4.43063 Y-2.83228
G01 X-4.43329 Y-2.82939
G01 X-4.43779 Y-2.82613
G01 X-4.44306 Y-2.82379
G01 X-4.44890 Y-2.82258
G01 X-4.45466 Y-2.82262
G01 X-4.45989 Y-2.82374
G01 X-4.46517 Y-2.82604
G01 X-4.46985 Y-2.82939
G01 X-4.47374 Y-2.83364
G01 X-4.47675 Y-2.83879
G01 X-4.47856 Y-2.84447
G01 X-4.47912 Y-2.84979
G01 X-4.47856 Y-2.85553
G01 X-4.47682 Y-2.86102
G01 X-4.47398 Y-2.86603
G01 X-4.46985 Y-2.87061
G01 X-4.46535 Y-2.87387
G01 X-4.45989 Y-2.87626
G01 X-4.45466 Y-2.87738
G01 X-4.44890 Y-2.87742
G01 X-4.44306 Y-2.87621
G01 X-4.43762 Y-2.87375
G01 X-4.43313 Y-2.87048
G01 X-4.43063 Y-2.86772
G01 X-4.31772 Y-2.86772
G01 X-4.31771 Y-2.91289
G01 X-4.32083 Y-2.91433
G01 X-4.32765 Y-2.91930
G01 X-4.33330 Y-2.92555
G01 X-4.33775 Y-2.93319
G01 X-4.34045 Y-2.94161
G01 X-4.34132 Y-2.95000
G01 X-4.34036 Y-2.95879
G01 X-4.33775 Y-2.96681
G01 X-4.33330 Y-2.97445
G01 X-4.32749 Y-2.98083
G01 X-4.32048 Y-2.98588
G01 X-4.31257 Y-2.98935
G01 X-4.30411 Y-2.99110
G01 X-4.29589 Y-2.99110
G01 X-4.28723 Y-2.98930
G01 X-4.27934 Y-2.98578
G01 X-4.27235 Y-2.98070
G01 X-4.26593 Y-2.97319
G01 X-4.05533 Y-3.18379
G01 X-4.04940 Y-3.18769
G01 X-4.04280 Y-3.18898
G01 X-3.44523 Y-3.18898
G01 X-3.44103 Y-3.19352
G01 X-3.43615 Y-3.19697
G01 X-3.43068 Y-3.19936
G01 X-3.42484 Y-3.20060
G01 X-3.37835 Y-3.20079
G01 X-3.37260 Y-3.20021
G01 X-3.36689 Y-3.19846
G01 X-3.36132 Y-3.19537
G01 X-3.35682 Y-3.19145
G01 X-3.35340 Y-3.18704
G01 X-3.35060 Y-3.18132
G01 X-3.34914 Y-3.17553
G01 X-3.34888 Y-3.16957
G01 X-3.34982 Y-3.16367
G01 X-3.35193 Y-3.15808
G01 X-3.35513 Y-3.15303
G01 X-3.35927 Y-3.14873
G01 X-3.36420 Y-3.14535
G01 X-3.36970 Y-3.14304
G01 X-3.37555 Y-3.14187
G01 X-3.42165 Y-3.14173
G01 X-3.42740 Y-3.14231
G01 X-3.43311 Y-3.14406
G01 X-3.43835 Y-3.14692
G01 X-3.44291 Y-3.15078
G01 X-3.44510 Y-3.15354
G04 P0 ( dwell for no time -- G64 should not smooth over this point )
G00 Z0.08000 ( retract )

G00 X-3.44799 Y-3.30512 ( rapid move to begin. )
G01 F180.00000
G01 Z-0.04000
G04 P0 ( dwell for no time -- G64 should not smooth over this point )
G01 F360.00000
G01 X-3.44799 Y-3.30512
G01 X-3.66708 Y-3.30512
G01 X-3.70564 Y-3.29104
G01 X-3.70834 Y-3.28235
G01 X-3.71292 Y-3.27408
G01 X-3.72035 Y-3.26584
G01 X-3.72736 Y-3.26079
G01 X-3.73524 Y-3.25724
G01 X-3.74609 Y-3.25493
G01 X-3.75473 Y-3.25497
G01 X-3.76476 Y-3.25724
G01 X-3.77264 Y-3.26079
G01 X-3.78088 Y-3.26694
G01 X-3.78663 Y-3.27339
G01 X-3.79099 Y-3.28085
G01 X-3.79429 Y-3.29059
G01 X-3.79523 Y-3.29918
G01 X-3.79407 Y-3.31021
G01 X-3.79099 Y-3.31915
G01 X-3.78611 Y-3.32725
G01 X-3.77965 Y-3.33416
G01 X-3.77264 Y-3.33921
G01 X-3.76319 Y-3.34327
G01 X-3.75473 Y-3.34503
G01 X-3.74527 Y-3.34503
G01 X-3.73681 Y-3.34327
G01 X-3.72736 Y-3.33921
G01 X-3.72200 Y-3.33537
G01 X-3.67936 Y-3.35093
G01 X-3.67195 Y-3.35233
G01 X-3.44789 Y-3.35236
G01 X-3.44410 Y-3.35611
G01 X-3.43813 Y-3.36007
G01 X-3.43149 Y-3.36275
G01 X-3.42603 Y-3.36387
G01 X-3.37837 Y-3.36417
G01 X-3.37200 Y-3.36357
G01 X-3.36512 Y-3.36158
G01 X-3.35748 Y-3.35733
G01 X-3.35215 Y-3.35255
G01 X-3.34873 Y-3.34814
G01 X-3.34488 Y-3.34029
G01 X-3.34324 Y-3.33331
G01 X-3.34304 Y-3.32615
G01 X-3.34428 Y-3.31910
G01 X-3.34692 Y-3.31244
G01 X-3.35085 Y-3.30645
G01 X-3.35590 Y-3.30137
G01 X-3.36187 Y-3.29741
G01 X-3.36851 Y-3.29473
G01 X-3.37553 Y-3.29345
G01 X-3.42163 Y-3.29331
G01 X-3.42800 Y-3.29391
G01 X-3.43488 Y-3.29590
G01 X-3.44122 Y-3.29924
G01 X-3.44799 Y-3.30512
G01 X-3.44703 Y-3.30708
G01 X-3.66743 Y-3.30708
G01 X-3.70745 Y-3.29248
G01 X-3.71072 Y-3.28184
G01 X-3.71496 Y-3.27455
G01 X-3.72059 Y-3.26825
G01 X-3.72890 Y-3.26222
G01 X-3.73722 Y-3.25865
G01 X-3.74547 Y-3.25693
G01 X-3.75453 Y-3.25693
G01 X-3.76278 Y-3.25865
G01 X-3.77165 Y-3.26250
G01 X-3.77850 Y-3.26743
G01 X-3.78504 Y-3.27455
G01 X-3.78928 Y-3.28184
G01 X-3.79236 Y-3.29100
G01 X-3.79327 Y-3.29938
G01 X-3.79220 Y-3.30960
G01 X-3.78928 Y-3.31816
G01 X-3.78465 Y-3.32594
G01 X-3.77850 Y-3.33257
G01 X-3.77165 Y-3.33750
G01 X-3.76278 Y-3.34135
G01 X-3.75453 Y-3.34307
G01 X-3.74547 Y-3.34307
G01 X-3.73722 Y-3.34135
G01 X-3.72835 Y-3.33750
G01 X-3.72231 Y-3.33316
G01 X-3.67868 Y-3.34908
G01 X-3.67178 Y-3.35037
G01 X-3.44704 Y-3.35039
G01 X-3.44298 Y-3.35450
G01 X-3.43736 Y-3.35826
G01 X-3.43109 Y-3.36082
G01 X-3.42563 Y-3.36194
G01 X-3.37837 Y-3.36220
G01 X-3.37220 Y-3.36161
G01 X-3.36571 Y-3.35970
G01 X-3.35876 Y-3.35584
G01 X-3.35370 Y-3.35134
G01 X-3.35029 Y-3.34693
G01 X-3.34679 Y-3.33979
G01 X-3.34521 Y-3.33321
G01 X-3.34499 Y-3.32645
G01 X-3.34583 Y-3.32094
G01 X-3.34807 Y-3.31455
G01 X-3.35154 Y-3.30875
G01 X-3.35612 Y-3.30376
G01 X-3.36160 Y-3.29980
G01 X-3.36777 Y-3.29702
G01 X-3.37437 Y-3.29554
G01 X-3.42163 Y-3.29528
G01 X-3.42780 Y-3.29587
G01 X-3.43539 Y-3.29825
G01 X-3.44124 Y-3.30164
G01 X-3.44703 Y-3.30708
G01 X-3.44606 Y-3.30905
G01 X-3.66778 Y-3.30905
G01 X-3.70928 Y-3.29390
G01 X-3.70967 Y-3.29101
G01 X-3.71242 Y-3.28282
G01 X-3.71656 Y-3.27570
G01 X-3.72205 Y-3.26957
G01 X-3.72970 Y-3.26401
G01 X-3.73762 Y-3.26058
G01 X-3.74568 Y-3.25889
G01 X-3.75432 Y-3.25889
G01 X-3.76238 Y-3.26058
G01 X-3.77067 Y-3.26420
G01 X-3.77734 Y-3.26902
G01 X-3.78344 Y-3.27570
G01 X-3.78758 Y-3.28282
G01 X-3.79043 Y-3.29141
G01 X-3.79132 Y-3.29959
G01 X-3.79033 Y-3.30899
G01 X-3.78758 Y-3.31718
G01 X-3.78318 Y-3.32462
G01 X-3.77734 Y-3.33098
G01 X-3.77067 Y-3.33580
G01 X-3.76238 Y-3.33942
G01 X-3.75432 Y-3.34111
G01 X-3.74568 Y-3.34111
G01 X-3.73762 Y-3.33942
G01 X-3.72933 Y-3.33580
G01 X-3.72262 Y-3.33095
G01 X-3.67801 Y-3.34723
G01 X-3.67160 Y-3.34841
G01 X-3.44620 Y-3.34843
G01 X-3.44185 Y-3.35288
G01 X-3.43658 Y-3.35645
G01 X-3.43070 Y-3.35889
G01 X-3.42523 Y-3.36001
G01 X-3.37836 Y-3.36024
G01 X-3.37240 Y-3.35965
G01 X-3.36630 Y-3.35782
G01 X-3.36004 Y-3.35435
G01 X-3.35526 Y-3.35014
G01 X-3.35185 Y-3.34573
G01 X-3.34869 Y-3.33930
G01 X-3.34717 Y-3.33311
G01 X-3.34693 Y-3.32675
G01 X-3.34778 Y-3.32124
G01 X-3.34991 Y-3.31524
G01 X-3.35321 Y-3.30979
G01 X-3.35754 Y-3.30512
G01 X-3.36272 Y-3.30141
G01 X-3.36854 Y-3.29883
G01 X-3.37477 Y-3.29747
G01 X-3.42164 Y-3.29724
G01 X-3.42760 Y-3.29783
G01 X-3.43443 Y-3.29997
G01 X-3.43996 Y-3.30313
G01 X-3.44606 Y-3.30905
G01 X-3.44510 Y-3.31102
G01 X-3.66813 Y-3.31102
G01 X-3.71111 Y-3.29533
G01 X-3.71149 Y-3.29181
G01 X-3.71413 Y-3.28380
G01 X-3.71815 Y-3.27686
G01 X-3.72351 Y-3.27089
G01 X-3.73050 Y-3.26581
G01 X-3.73803 Y-3.26251
G01 X-3.74589 Y-3.26085
G01 X-3.75411 Y-3.26085
G01 X-3.76197 Y-3.26251
G01 X-3.76968 Y-3.26591
G01 X-3.77618 Y-3.27061
G01 X-3.78185 Y-3.27686
G01 X-3.78587 Y-3.28380
G01 X-3.78851 Y-3.29181
G01 X-3.78936 Y-3.29979
G01 X-3.78846 Y-3.30838
G01 X-3.78587 Y-3.31620
G01 X-3.78172 Y-3.32330
G01 X-3.77618 Y-3.32939
G01 X-3.76968 Y-3.33409
G01 X-3.76197 Y-3.33749
G01 X-3.75411 Y-3.33915
G01 X-3.74589 Y-3.33915
G01 X-3.73764 Y-3.33737
G01 X-3.73032 Y-3.33409
G01 X-3.72312 Y-3.32867
G01 X-3.67733 Y-3.34538
G01 X-3.67143 Y-3.34645
G01 X-3.44523 Y-3.34646
G01 X-3.44103 Y-3.35101
G01 X-3.43615 Y-3.35445
G01 X-3.43068 Y-3.35684
G01 X-3.42484 Y-3.35808
G01 X-3.37835 Y-3.35827
G01 X-3.37260 Y-3.35769
G01 X-3.36689 Y-3.35594
G01 X-3.36132 Y-3.35285
G01 X-3.35682 Y-3.34893
G01 X-3.35340 Y-3.34452
G01 X-3.35060 Y-3.33880
G01 X-3.34914 Y-3.33301
G01 X-3.34888 Y-3.32705
G01 X-3.34982 Y-3.32115
G01 X-3.35193 Y-3.31556
G01 X-3.35513 Y-3.31052
G01 X-3.35927 Y-3.30621
G01 X-3.36420 Y-3.30284
G01 X-3.36970 Y-3.30052
G01 X-3.37555 Y-3.29936
G01 X-3.42165 Y-3.29921
G01 X-3.42740 Y-3.29979
G01 X-3.43311 Y-3.30154
G01 X-3.43835 Y-3.30440
G01 X-3.44291 Y-3.30826
G01 X-3.44510 Y-3.31102
G04 P0 ( dwell for no time -- G64 should not smooth over this point )
G00 Z0.08000 ( retract )

G00 X-3.98612 Y-2.92663 ( rapid move to begin. )
G01 F180.00000
G01 Z-0.04000
G04 P0 ( dwell for no time -- G64 should not smooth over this point )
G01 F360.00000
G01 X-3.98612 Y-2.92663
G01 X-4.14036 Y-2.77238
G01 X-4.14457 Y-2.76908
G01 X-4.15158 Y-2.76617
G01 X-4.15689 Y-2.76553
G01 X-4.65046 Y-2.76557
G01 X-4.65500 Y-2.76617
G01 X-4.65933 Y-2.76764
G01 X-4.66621 Y-2.77238
G01 X-4.79138 Y-2.89754
G01 X-4.79468 Y-2.90175
G01 X-4.79759 Y-2.90876
G01 X-4.79822 Y-2.91407
G01 X-4.79819 Y-2.98670
G01 X-4.79759 Y-2.99124
G01 X-4.79611 Y-2.99557
G01 X-4.79138 Y-3.00246
G01 X-4.60312 Y-3.19023
G01 X-4.59773 Y-3.19311
G01 X-4.59029 Y-3.19460
G01 X-4.54813 Y-3.19463
G01 X-4.54410 Y-3.19863
G01 X-4.53813 Y-3.20259
G01 X-4.53149 Y-3.20527
G01 X-4.52603 Y-3.20639
G01 X-4.47837 Y-3.20669
G01 X-4.47200 Y-3.20609
G01 X-4.46366 Y-3.20347
G01 X-4.45748 Y-3.19985
G01 X-4.45324 Y-3.19622
G01 X-4.44789 Y-3.18930
G01 X-4.44488 Y-3.18280
G01 X-4.44348 Y-3.17741
G01 X-4.44304 Y-3.16867
G01 X-4.44428 Y-3.16162
G01 X-4.44692 Y-3.15496
G01 X-4.44987 Y-3.15023
G01 X-4.45590 Y-3.14389
G01 X-4.46047 Y-3.14070
G01 X-4.46699 Y-3.13773
G01 X-4.47397 Y-3.13613
G01 X-4.52163 Y-3.13583
G01 X-4.52956 Y-3.13675
G01 X-4.53634 Y-3.13905
G01 X-4.54252 Y-3.14267
G01 X-4.54819 Y-3.14789
G01 X-4.57984 Y-3.14789
G01 X-4.75148 Y-2.97625
G01 X-4.75148 Y-2.92375
G01 X-4.64000 Y-2.81228
G01 X-4.16657 Y-2.81228
G01 X-4.01233 Y-2.96653
G01 X-4.00812 Y-2.96983
G01 X-4.00402 Y-2.97186
G01 X-3.99580 Y-2.97337
G01 X-3.69079 Y-2.97337
G01 X-3.68769 Y-2.97840
G01 X-3.68218 Y-2.98451
G01 X-3.67361 Y-2.99090
G01 X-3.66380 Y-2.99513
G01 X-3.65411 Y-2.99701
G01 X-3.64425 Y-2.99684
G01 X-3.63464 Y-2.99462
G01 X-3.62639 Y-2.99090
G01 X-3.61840 Y-2.98509
G01 X-3.61231 Y-2.97840
G01 X-3.60921 Y-2.97337
G01 X-3.59463 Y-2.97304
G01 X-3.59021 Y-2.97186
G01 X-3.58482 Y-2.96897
G01 X-3.49869 Y-2.88332
G01 X-3.49411 Y-2.88315
G01 X-3.48732 Y-2.88153
G01 X-3.48169 Y-2.87898
G01 X-3.47545 Y-2.87429
G01 X-3.47090 Y-2.86898
G01 X-3.46756 Y-2.86284
G01 X-3.46556 Y-2.85614
G01 X-3.46500 Y-2.85082
G01 X-3.46556 Y-2.84386
G01 X-3.46785 Y-2.83639
G01 X-3.47090 Y-2.83102
G01 X-3.47667 Y-2.82461
G01 X-3.48243 Y-2.82064
G01 X-3.48888 Y-2.81796
G01 X-3.49411 Y-2.81685
G01 X-3.50110 Y-2.81668
G01 X-3.50876 Y-2.81817
G01 X-3.51516 Y-2.82102
G01 X-3.52140 Y-2.82571
G01 X-3.52498 Y-2.82969
G01 X-3.52862 Y-2.83565
G01 X-3.53094 Y-2.84225
G01 X-3.53185 Y-2.85036
G01 X-3.60811 Y-2.92663
G01 X-3.60921 Y-2.92663
G01 X-3.61231 Y-2.92160
G01 X-3.61782 Y-2.91549
G01 X-3.62639 Y-2.90910
G01 X-3.63620 Y-2.90487
G01 X-3.64589 Y-2.90299
G01 X-3.65411 Y-2.90299
G01 X-3.66459 Y-2.90509
G01 X-3.67361 Y-2.90910
G01 X-3.68218 Y-2.91549
G01 X-3.68769 Y-2.92160
G01 X-3.69079 Y-2.92663
G01 X-3.98612 Y-2.92663
G01 X-3.98693 Y-2.92860
G01 X-4.14175 Y-2.77377
G01 X-4.14549 Y-2.77081
G01 X-4.15215 Y-2.76806
G01 X-4.15689 Y-2.76750
G01 X-4.65329 Y-2.76783
G01 X-4.65840 Y-2.76938
G01 X-4.66482 Y-2.77377
G01 X-4.78999 Y-2.89893
G01 X-4.79294 Y-2.90267
G01 X-4.79570 Y-2.90933
G01 X-4.79626 Y-2.91407
G01 X-4.79623 Y-2.98651
G01 X-4.79570 Y-2.99066
G01 X-4.79438 Y-2.99464
G01 X-4.78999 Y-3.00106
G01 X-4.60187 Y-3.18871
G01 X-4.59716 Y-3.19123
G01 X-4.59010 Y-3.19264
G01 X-4.54728 Y-3.19266
G01 X-4.54298 Y-3.19702
G01 X-4.53736 Y-3.20078
G01 X-4.53109 Y-3.20334
G01 X-4.52563 Y-3.20446
G01 X-4.47837 Y-3.20472
G01 X-4.47220 Y-3.20413
G01 X-4.46461 Y-3.20175
G01 X-4.45876 Y-3.19836
G01 X-4.45453 Y-3.19473
G01 X-4.44966 Y-3.18844
G01 X-4.44679 Y-3.18231
G01 X-4.44539 Y-3.17691
G01 X-4.44499 Y-3.16897
G01 X-4.44613 Y-3.16230
G01 X-4.44859 Y-3.15600
G01 X-4.45154 Y-3.15127
G01 X-4.45702 Y-3.14550
G01 X-4.46160 Y-3.14232
G01 X-4.46777 Y-3.13954
G01 X-4.47437 Y-3.13806
G01 X-4.52163 Y-3.13780
G01 X-4.52897 Y-3.13863
G01 X-4.53539 Y-3.14077
G01 X-4.54124 Y-3.14416
G01 X-4.54722 Y-3.14985
G01 X-4.58065 Y-3.14985
G01 X-4.75345 Y-2.97706
G01 X-4.75345 Y-2.92294
G01 X-4.64082 Y-2.81031
G01 X-4.16576 Y-2.81031
G01 X-4.01094 Y-2.96514
G01 X-4.00720 Y-2.96809
G01 X-4.00344 Y-2.96997
G01 X-3.99580 Y-2.97140
G01 X-3.68965 Y-2.97141
G01 X-3.68622 Y-2.97708
G01 X-3.68072 Y-2.98319
G01 X-3.67315 Y-2.98885
G01 X-3.66456 Y-2.99282
G01 X-3.65411 Y-2.99504
G01 X-3.64589 Y-2.99504
G01 X-3.63661 Y-2.99320
G01 X-3.62737 Y-2.98919
G01 X-3.61928 Y-2.98319
G01 X-3.61378 Y-2.97708
G01 X-3.61035 Y-2.97141
G01 X-3.59482 Y-2.97108
G01 X-3.59078 Y-2.96997
G01 X-3.58607 Y-2.96745
G01 X-3.49951 Y-2.88136
G01 X-3.49452 Y-2.88123
G01 X-3.48869 Y-2.87995
G01 X-3.48268 Y-2.87728
G01 X-3.47691 Y-2.87297
G01 X-3.47261 Y-2.86799
G01 X-3.46943 Y-2.86223
G01 X-3.46752 Y-2.85594
G01 X-3.46696 Y-2.85062
G01 X-3.46752 Y-2.84406
G01 X-3.46965 Y-2.83719
G01 X-3.47261 Y-2.83201
G01 X-3.47783 Y-2.82621
G01 X-3.48323 Y-2.82244
G01 X-3.48929 Y-2.81989
G01 X-3.49452 Y-2.81877
G01 X-3.50110 Y-2.81865
G01 X-3.50816 Y-2.82005
G01 X-3.51417 Y-2.82272
G01 X-3.51994 Y-2.82703
G01 X-3.52352 Y-2.83101
G01 X-3.52692 Y-2.83664
G01 X-3.52933 Y-2.84406
G01 X-3.52983 Y-2.85114
G01 X-3.60729 Y-2.92860
G01 X-3.61035 Y-2.92859
G01 X-3.61378 Y-2.92292
G01 X-3.61928 Y-2.91681
G01 X-3.62792 Y-2.91053
G01 X-3.63661 Y-2.90680
G01 X-3.64589 Y-2.90496
G01 X-3.65411 Y-2.90496
G01 X-3.66398 Y-2.90696
G01 X-3.67314 Y-2.91114
G01 X-3.68072 Y-2.91681
G01 X-3.68622 Y-2.92292
G01 X-3.68965 Y-2.92859
G01 X-3.98693 Y-2.92860
G01 X-3.98775 Y-2.93056
G01 X-4.14315 Y-2.77516
G01 X-4.14642 Y-2.77255
G01 X-4.15272 Y-2.76994
G01 X-4.15689 Y-2.76947
G01 X-4.65309 Y-2.76979
G01 X-4.65747 Y-2.77112
G01 X-4.66343 Y-2.77516
G01 X-4.78859 Y-2.90033
G01 X-4.79121 Y-2.90360
G01 X-4.79382 Y-2.90990
G01 X-4.79429 Y-2.91407
G01 X-4.79427 Y-2.98631
G01 X-4.79264 Y-2.99372
G01 X-4.78859 Y-2.99967
G01 X-4.60063 Y-3.18719
G01 X-4.59659 Y-3.18935
G01 X-4.58990 Y-3.19068
G01 X-4.54641 Y-3.19070
G01 X-4.54246 Y-3.19488
G01 X-4.53728 Y-3.19859
G01 X-4.53146 Y-3.20117
G01 X-4.52523 Y-3.20253
G01 X-4.47836 Y-3.20275
G01 X-4.47240 Y-3.20217
G01 X-4.46557 Y-3.20003
G01 X-4.46004 Y-3.19687
G01 X-4.45581 Y-3.19323
G01 X-4.45143 Y-3.18757
G01 X-4.44869 Y-3.18182
G01 X-4.44729 Y-3.17642
G01 X-4.44693 Y-3.16927
G01 X-4.44798 Y-3.16298
G01 X-4.45026 Y-3.15704
G01 X-4.45321 Y-3.15231
G01 X-4.45815 Y-3.14712
G01 X-4.46272 Y-3.14393
G01 X-4.46854 Y-3.14135
G01 X-4.47477 Y-3.13999
G01 X-4.52164 Y-3.13976
G01 X-4.52838 Y-3.14051
G01 X-4.53443 Y-3.14249
G01 X-4.53996 Y-3.14565
G01 X-4.54626 Y-3.15182
G01 X-4.58147 Y-3.15182
G01 X-4.75541 Y-2.97788
G01 X-4.75541 Y-2.92212
G01 X-4.64164 Y-2.80835
G01 X-4.16494 Y-2.80834
G01 X-4.00954 Y-2.96374
G01 X-4.00627 Y-2.96636
G01 X-4.00287 Y-2.96809
G01 X-3.99580 Y-2.96944
G01 X-3.68851 Y-2.96944
G01 X-3.68476 Y-2.97576
G01 X-3.67926 Y-2.98188
G01 X-3.67199 Y-2.98726
G01 X-3.66376 Y-2.99102
G01 X-3.65411 Y-2.99307
G01 X-3.64589 Y-2.99307
G01 X-3.63702 Y-2.99127
G01 X-3.62836 Y-2.98749
G01 X-3.62074 Y-2.98188
G01 X-3.61524 Y-2.97576
G01 X-3.61149 Y-2.96944
G01 X-3.59501 Y-2.96912
G01 X-3.59135 Y-2.96809
G01 X-3.58732 Y-2.96593
G01 X-3.50032 Y-2.87939
G01 X-3.49493 Y-2.87930
G01 X-3.48930 Y-2.87808
G01 X-3.48366 Y-2.87557
G01 X-3.47838 Y-2.87165
G01 X-3.47431 Y-2.86701
G01 X-3.47130 Y-2.86162
G01 X-3.46948 Y-2.85573
G01 X-3.46892 Y-2.85041
G01 X-3.46948 Y-2.84427
G01 X-3.47145 Y-2.83799
G01 X-3.47431 Y-2.83299
G01 X-3.47899 Y-2.82780
G01 X-3.48403 Y-2.82424
G01 X-3.48970 Y-2.82181
G01 X-3.49493 Y-2.82070
G01 X-3.50110 Y-2.82061
G01 X-3.50755 Y-2.82192
G01 X-3.51319 Y-2.82443
G01 X-3.51847 Y-2.82835
G01 X-3.52205 Y-2.83232
G01 X-3.52521 Y-2.83762
G01 X-3.52737 Y-2.84427
G01 X-3.52778 Y-2.85186
G01 X-3.60648 Y-2.93056
G01 X-3.61149 Y-2.93056
G01 X-3.61524 Y-2.92424
G01 X-3.62074 Y-2.91812
G01 X-3.62872 Y-2.91233
G01 X-3.63702 Y-2.90873
G01 X-3.64589 Y-2.90693
G01 X-3.65411 Y-2.90693
G01 X-3.66338 Y-2.90883
G01 X-3.67199 Y-2.91274
G01 X-3.67926 Y-2.91812
G01 X-3.68476 Y-2.92424
G01 X-3.68851 Y-2.93056
G01 X-3.98775 Y-2.93056
G01 X-3.98856 Y-2.93253
G01 X-4.14454 Y-2.77656
G01 X-4.14735 Y-2.77429
G01 X-4.15329 Y-2.77182
G01 X-4.65290 Y-2.77175
G01 X-4.65655 Y-2.77285
G01 X-4.66204 Y-2.77656
G01 X-4.78947 Y-2.90453
G01 X-4.79194 Y-2.91048
G01 X-4.79232 Y-2.91407
G01 X-4.79231 Y-2.98612
G01 X-4.79091 Y-2.99279
G01 X-4.78720 Y-2.99828
G01 X-4.59938 Y-3.18567
G01 X-4.59602 Y-3.18746
G01 X-4.58971 Y-3.18872
G01 X-4.54539 Y-3.18873
G01 X-4.54103 Y-3.19352
G01 X-4.53615 Y-3.19697
G01 X-4.53068 Y-3.19936
G01 X-4.52484 Y-3.20060
G01 X-4.47835 Y-3.20079
G01 X-4.47260 Y-3.20021
G01 X-4.46652 Y-3.19830
G01 X-4.46132 Y-3.19537
G01 X-4.45709 Y-3.19174
G01 X-4.45319 Y-3.18670
G01 X-4.45060 Y-3.18132
G01 X-4.44920 Y-3.17593
G01 X-4.44888 Y-3.16957
G01 X-4.44982 Y-3.16367
G01 X-4.45193 Y-3.15808
G01 X-4.45488 Y-3.15335
G01 X-4.45927 Y-3.14873
G01 X-4.46385 Y-3.14555
G01 X-4.46932 Y-3.14316
G01 X-4.47516 Y-3.14191
G01 X-4.52165 Y-3.14173
G01 X-4.52779 Y-3.14239
G01 X-4.53348 Y-3.14421
G01 X-4.53868 Y-3.14715
G01 X-4.54291 Y-3.15078
G01 X-4.54529 Y-3.15379
G01 X-4.58228 Y-3.15379
G01 X-4.75738 Y-2.97869
G01 X-4.75738 Y-2.92131
G01 X-4.64245 Y-2.80638
G01 X-4.16413 Y-2.80638
G01 X-4.00815 Y-2.96235
G01 X-4.00230 Y-2.96620
G01 X-3.99580 Y-2.96747
G01 X-3.68738 Y-2.96747
G01 X-3.68330 Y-2.97445
G01 X-3.67779 Y-2.98056
G01 X-3.67083 Y-2.98567
G01 X-3.66296 Y-2.98922
G01 X-3.65411 Y-2.99110
G01 X-3.64589 Y-2.99110
G01 X-3.63743 Y-2.98935
G01 X-3.62934 Y-2.98578
G01 X-3.62221 Y-2.98056
G01 X-3.61670 Y-2.97445
G01 X-3.61262 Y-2.96747
G01 X-3.59521 Y-2.96716
G01 X-3.58856 Y-2.96441
G01 X-3.50114 Y-2.87741
G01 X-3.49534 Y-2.87738
G01 X-3.48991 Y-2.87621
G01 X-3.48465 Y-2.87387
G01 X-3.47984 Y-2.87033
G01 X-3.47602 Y-2.86603
G01 X-3.47318 Y-2.86102
G01 X-3.47144 Y-2.85553
G01 X-3.47088 Y-2.85021
G01 X-3.47144 Y-2.84447
G01 X-3.47325 Y-2.83879
G01 X-3.47602 Y-2.83397
G01 X-3.48015 Y-2.82939
G01 X-3.48483 Y-2.82604
G01 X-3.49011 Y-2.82374
G01 X-3.49534 Y-2.82262
G01 X-3.50110 Y-2.82258
G01 X-3.50694 Y-2.82379
G01 X-3.51238 Y-2.82625
G01 X-3.51701 Y-2.82967
G01 X-3.52059 Y-2.83364
G01 X-3.52360 Y-2.83879
G01 X-3.52541 Y-2.84447
G01 X-3.52572 Y-2.85259
G01 X-3.60566 Y-2.93253
G01 X-3.61262 Y-2.93253
G01 X-3.61670 Y-2.92555
G01 X-3.62221 Y-2.91944
G01 X-3.62934 Y-2.91422
G01 X-3.63743 Y-2.91065
G01 X-3.64589 Y-2.90890
G01 X-3.65411 Y-2.90890
G01 X-3.66257 Y-2.91065
G01 X-3.67066 Y-2.91422
G01 X-3.67779 Y-2.91944
G01 X-3.68330 Y-2.92555
G01 X-3.68738 Y-2.93253
G01 X-3.98856 Y-2.93253
G04 P0 ( dwell for no time -- G64 should not smooth over this point )
G00 Z0.08000 ( retract )

G00 X-4.19478 Y-3.30512 ( rapid move to begin. )
G01 F180.00000
G01 Z-0.04000
G04 P0 ( dwell for no time -- G64 should not smooth over this point )
G01 F360.00000
G01 X-4.19478 Y-3.30512
G01 X-4.45211 Y-3.30512
G01 X-4.45590 Y-3.30137
G01 X-4.46187 Y-3.29741
G01 X-4.46851 Y-3.29473
G01 X-4.47397 Y-3.29361
G01 X-4.52245 Y-3.29335
G01 X-4.52956 Y-3.29423
G01 X-4.53634 Y-3.29653
G01 X-4.54252 Y-3.30015
G01 X-4.54785 Y-3.30493
G01 X-4.55211 Y-3.31069
G01 X-4.55512 Y-3.31719
G01 X-4.55676 Y-3.32417
G01 X-4.55696 Y-3.33133
G01 X-4.55612 Y-3.33684
G01 X-4.55378 Y-3.34361
G01 X-4.55013 Y-3.34977
G01 X-4.54531 Y-3.35507
G01 X-4.53813 Y-3.36007
G01 X-4.53149 Y-3.36275
G01 X-4.52447 Y-3.36403
G01 X-4.47837 Y-3.36417
G01 X-4.47200 Y-3.36357
G01 X-4.46512 Y-3.36158
G01 X-4.45878 Y-3.35824
G01 X-4.45201 Y-3.35236
G01 X-4.17797 Y-3.35233
G01 X-4.17338 Y-3.35172
G01 X-4.16900 Y-3.35023
G01 X-4.16499 Y-3.34792
G01 X-4.16045 Y-3.34386
G01 X-4.15473 Y-3.34503
G01 X-4.14609 Y-3.34507
G01 X-4.13681 Y-3.34327
G01 X-4.12736 Y-3.33921
G01 X-4.12035 Y-3.33416
G01 X-4.11337 Y-3.32661
G01 X-4.10834 Y-3.31765
G01 X-4.10571 Y-3.30941
G01 X-4.10477 Y-3.30082
G01 X-4.10571 Y-3.29059
G01 X-4.10834 Y-3.28235
G01 X-4.11292 Y-3.27408
G01 X-4.12035 Y-3.26584
G01 X-4.12736 Y-3.26079
G01 X-4.13681 Y-3.25673
G01 X-4.14527 Y-3.25497
G01 X-4.15473 Y-3.25497
G01 X-4.16319 Y-3.25673
G01 X-4.17264 Y-3.26079
G01 X-4.18088 Y-3.26694
G01 X-4.18663 Y-3.27339
G01 X-4.19099 Y-3.28085
G01 X-4.19429 Y-3.29059
G01 X-4.19523 Y-3.30082
G01 X-4.19478 Y-3.30512
G01 X-4.19259 Y-3.30708
G01 X-4.45296 Y-3.30709
G01 X-4.45702 Y-3.30298
G01 X-4.46264 Y-3.29922
G01 X-4.46891 Y-3.29666
G01 X-4.47437 Y-3.29554
G01 X-4.52225 Y-3.29531
G01 X-4.52897 Y-3.29611
G01 X-4.53539 Y-3.29825
G01 X-4.54124 Y-3.30164
G01 X-4.54630 Y-3.30614
G01 X-4.55034 Y-3.31156
G01 X-4.55321 Y-3.31769
G01 X-4.55479 Y-3.32427
G01 X-4.55501 Y-3.33103
G01 X-4.55417 Y-3.33654
G01 X-4.55193 Y-3.34293
G01 X-4.54846 Y-3.34873
G01 X-4.54388 Y-3.35372
G01 X-4.53736 Y-3.35826
G01 X-4.53109 Y-3.36082
G01 X-4.52446 Y-3.36206
G01 X-4.47837 Y-3.36220
G01 X-4.47220 Y-3.36161
G01 X-4.46571 Y-3.35970
G01 X-4.45974 Y-3.35652
G01 X-4.45297 Y-3.35040
G01 X-4.17816 Y-3.35037
G01 X-4.17395 Y-3.34984
G01 X-4.16993 Y-3.34850
G01 X-4.16624 Y-3.34640
G01 X-4.16108 Y-3.34171
G01 X-4.15453 Y-3.34307
G01 X-4.14609 Y-3.34310
G01 X-4.13722 Y-3.34135
G01 X-4.12835 Y-3.33750
G01 X-4.12150 Y-3.33257
G01 X-4.11496 Y-3.32545
G01 X-4.11022 Y-3.31704
G01 X-4.10764 Y-3.30900
G01 X-4.10673 Y-3.30062
G01 X-4.10764 Y-3.29100
G01 X-4.11022 Y-3.28296
G01 X-4.11463 Y-3.27506
G01 X-4.12150 Y-3.26743
G01 X-4.12835 Y-3.26250
G01 X-4.13722 Y-3.25865
G01 X-4.14547 Y-3.25693
G01 X-4.15453 Y-3.25693
G01 X-4.16278 Y-3.25865
G01 X-4.17165 Y-3.26250
G01 X-4.17941 Y-3.26825
G01 X-4.18504 Y-3.27455
G01 X-4.18978 Y-3.28296
G01 X-4.19246 Y-3.29161
G01 X-4.19327 Y-3.29938
G01 X-4.19259 Y-3.30708
G01 X-4.19031 Y-3.30905
G01 X-4.45380 Y-3.30905
G01 X-4.45815 Y-3.30460
G01 X-4.46342 Y-3.30103
G01 X-4.46930 Y-3.29859
G01 X-4.47477 Y-3.29747
G01 X-4.52205 Y-3.29726
G01 X-4.52838 Y-3.29799
G01 X-4.53443 Y-3.29997
G01 X-4.53996 Y-3.30313
G01 X-4.54474 Y-3.30734
G01 X-4.54857 Y-3.31243
G01 X-4.55131 Y-3.31818
G01 X-4.55283 Y-3.32437
G01 X-4.55307 Y-3.33073
G01 X-4.55222 Y-3.33624
G01 X-4.55009 Y-3.34224
G01 X-4.54679 Y-3.34769
G01 X-4.54246 Y-3.35236
G01 X-4.53658 Y-3.35645
G01 X-4.53070 Y-3.35889
G01 X-4.52445 Y-3.36009
G01 X-4.47836 Y-3.36024
G01 X-4.47240 Y-3.35965
G01 X-4.46630 Y-3.35782
G01 X-4.46069 Y-3.35480
G01 X-4.45394 Y-3.34843
G01 X-4.17835 Y-3.34841
G01 X-4.17086 Y-3.34676
G01 X-4.16749 Y-3.34488
G01 X-4.16172 Y-3.33956
G01 X-4.15432 Y-3.34111
G01 X-4.14609 Y-3.34113
G01 X-4.13762 Y-3.33942
G01 X-4.12933 Y-3.33580
G01 X-4.12266 Y-3.33098
G01 X-4.11656 Y-3.32430
G01 X-4.11209 Y-3.31643
G01 X-4.10957 Y-3.30859
G01 X-4.10868 Y-3.30041
G01 X-4.10957 Y-3.29141
G01 X-4.11209 Y-3.28357
G01 X-4.11633 Y-3.27605
G01 X-4.12266 Y-3.26902
G01 X-4.12933 Y-3.26420
G01 X-4.13762 Y-3.26058
G01 X-4.14568 Y-3.25889
G01 X-4.15432 Y-3.25889
G01 X-4.16238 Y-3.26058
G01 X-4.17067 Y-3.26420
G01 X-4.17795 Y-3.26957
G01 X-4.18367 Y-3.27605
G01 X-4.18791 Y-3.28357
G01 X-4.19050 Y-3.29181
G01 X-4.19132 Y-3.29959
G01 X-4.19050 Y-3.30819
G01 X-4.19031 Y-3.30905
G01 X-4.18760 Y-3.31102
G01 X-4.45477 Y-3.31102
G01 X-4.45897 Y-3.30647
G01 X-4.46385 Y-3.30303
G01 X-4.46932 Y-3.30064
G01 X-4.47516 Y-3.29940
G01 X-4.52185 Y-3.29922
G01 X-4.52779 Y-3.29987
G01 X-4.53348 Y-3.30169
G01 X-4.53868 Y-3.30463
G01 X-4.54318 Y-3.30855
G01 X-4.54681 Y-3.31330
G01 X-4.54940 Y-3.31868
G01 X-4.55086 Y-3.32447
G01 X-4.55112 Y-3.33043
G01 X-4.55028 Y-3.33594
G01 X-4.54824 Y-3.34156
G01 X-4.54512 Y-3.34665
G01 X-4.54103 Y-3.35101
G01 X-4.53580 Y-3.35464
G01 X-4.53030 Y-3.35696
G01 X-4.52445 Y-3.35812
G01 X-4.47835 Y-3.35827
G01 X-4.47260 Y-3.35769
G01 X-4.46689 Y-3.35594
G01 X-4.46165 Y-3.35308
G01 X-4.45709 Y-3.34922
G01 X-4.45490 Y-3.34646
G01 X-4.17855 Y-3.34645
G01 X-4.17214 Y-3.34517
G01 X-4.16906 Y-3.34357
G01 X-4.16232 Y-3.33738
G01 X-4.15411 Y-3.33915
G01 X-4.14568 Y-3.33912
G01 X-4.13803 Y-3.33749
G01 X-4.13050 Y-3.33419
G01 X-4.12382 Y-3.32939
G01 X-4.11815 Y-3.32314
G01 X-4.11396 Y-3.31582
G01 X-4.11149 Y-3.30819
G01 X-4.11064 Y-3.30021
G01 X-4.11149 Y-3.29181
G01 X-4.11413 Y-3.28380
G01 X-4.11815 Y-3.27686
G01 X-4.12382 Y-3.27061
G01 X-4.13032 Y-3.26591
G01 X-4.13803 Y-3.26251
G01 X-4.14589 Y-3.26085
G01 X-4.15411 Y-3.26085
G01 X-4.16197 Y-3.26251
G01 X-4.16968 Y-3.26591
G01 X-4.17618 Y-3.27061
G01 X-4.18185 Y-3.27686
G01 X-4.18587 Y-3.28380
G01 X-4.18851 Y-3.29181
G01 X-4.18936 Y-3.29979
G01 X-4.18854 Y-3.30798
G01 X-4.18760 Y-3.31102
G04 P0 ( dwell for no time -- G64 should not smooth over this point )
G00 Z0.08000 ( retract )

G00 X-4.57337 Y-2.88346 ( rapid move to begin. )
G01 F180.00000
G01 Z-0.04000
G04 P0 ( dwell for no time -- G64 should not smooth over this point )
G01 F360.00000
G01 X-4.57337 Y-2.88346
G01 X-4.57304 Y-2.91039
G01 X-4.57186 Y-2.91481
G01 X-4.56897 Y-2.92020
G01 X-4.43866 Y-3.05098
G01 X-4.43866 Y-3.22663
G01 X-4.45187 Y-3.22663
G01 X-4.45590 Y-3.22263
G01 X-4.46187 Y-3.21867
G01 X-4.46851 Y-3.21599
G01 X-4.47553 Y-3.21471
G01 X-4.52163 Y-3.21457
G01 X-4.52800 Y-3.21517
G01 X-4.53488 Y-3.21716
G01 X-4.54122 Y-3.22050
G01 X-4.54676 Y-3.22504
G01 X-4.55127 Y-3.23060
G01 X-4.55457 Y-3.23696
G01 X-4.55652 Y-3.24385
G01 X-4.55704 Y-3.25100
G01 X-4.55612 Y-3.25810
G01 X-4.55378 Y-3.26487
G01 X-4.55013 Y-3.27103
G01 X-4.54410 Y-3.27737
G01 X-4.53953 Y-3.28056
G01 X-4.53301 Y-3.28353
G01 X-4.52447 Y-3.28529
G01 X-4.47837 Y-3.28543
G01 X-4.47200 Y-3.28483
G01 X-4.46512 Y-3.28284
G01 X-4.45878 Y-3.27950
G01 X-4.45181 Y-3.27337
G01 X-4.41902 Y-3.27334
G01 X-4.41447 Y-3.27274
G01 X-4.41014 Y-3.27126
G01 X-4.40383 Y-3.26704
G01 X-4.39631 Y-3.25910
G01 X-4.39343 Y-3.25372
G01 X-4.39195 Y-3.24627
G01 X-4.39191 Y-3.04130
G01 X-4.39255 Y-3.03599
G01 X-4.39546 Y-3.02898
G01 X-4.39876 Y-3.02477
G01 X-4.52663 Y-2.89691
G01 X-4.52663 Y-2.88346
G01 X-4.52287 Y-2.88331
G01 X-4.52004 Y-2.88214
G01 X-4.51786 Y-2.87996
G01 X-4.51669 Y-2.87713
G01 X-4.51654 Y-2.82441
G01 X-4.51714 Y-2.82140
G01 X-4.51884 Y-2.81884
G01 X-4.52140 Y-2.81714
G01 X-4.52441 Y-2.81654
G01 X-4.57713 Y-2.81669
G01 X-4.57996 Y-2.81786
G01 X-4.58214 Y-2.82004
G01 X-4.58331 Y-2.82287
G01 X-4.58346 Y-2.82663
G01 X-4.60379 Y-2.82696
G01 X-4.60822 Y-2.82814
G01 X-4.61361 Y-2.83102
G01 X-4.68763 Y-2.90457
G01 X-4.69589 Y-2.90299
G01 X-4.70411 Y-2.90299
G01 X-4.71380 Y-2.90487
G01 X-4.72361 Y-2.90910
G01 X-4.73218 Y-2.91549
G01 X-4.73865 Y-2.92293
G01 X-4.74277 Y-2.93006
G01 X-4.74632 Y-2.94100
G01 X-4.74722 Y-2.95000
G01 X-4.74632 Y-2.95900
G01 X-4.74314 Y-2.96921
G01 X-4.73865 Y-2.97707
G01 X-4.73218 Y-2.98451
G01 X-4.72361 Y-2.99090
G01 X-4.71536 Y-2.99462
G01 X-4.70575 Y-2.99684
G01 X-4.69589 Y-2.99701
G01 X-4.68541 Y-2.99491
G01 X-4.67639 Y-2.99090
G01 X-4.66782 Y-2.98451
G01 X-4.66135 Y-2.97707
G01 X-4.65686 Y-2.96921
G01 X-4.65402 Y-2.96061
G01 X-4.65282 Y-2.95082
G01 X-4.65368 Y-2.94100
G01 X-4.65459 Y-2.93764
G01 X-4.59032 Y-2.87337
G01 X-4.58346 Y-2.87337
G01 X-4.58286 Y-2.87860
G01 X-4.58116 Y-2.88116
G01 X-4.57860 Y-2.88286
G01 X-4.57337 Y-2.88346
G01 X-4.57141 Y-2.88150
G01 X-4.57108 Y-2.91019
G01 X-4.56997 Y-2.91423
G01 X-4.56745 Y-2.91895
G01 X-4.43669 Y-3.05017
G01 X-4.43669 Y-3.22859
G01 X-4.45272 Y-3.22860
G01 X-4.45702 Y-3.22424
G01 X-4.46264 Y-3.22048
G01 X-4.46891 Y-3.21792
G01 X-4.47437 Y-3.21680
G01 X-4.52163 Y-3.21654
G01 X-4.52897 Y-3.21737
G01 X-4.53539 Y-3.21951
G01 X-4.54124 Y-3.22290
G01 X-4.54547 Y-3.22653
G01 X-4.54971 Y-3.23181
G01 X-4.55280 Y-3.23783
G01 X-4.55461 Y-3.24435
G01 X-4.55507 Y-3.25110
G01 X-4.55417 Y-3.25780
G01 X-4.55193 Y-3.26419
G01 X-4.54846 Y-3.26999
G01 X-4.54298 Y-3.27576
G01 X-4.53840 Y-3.27894
G01 X-4.53223 Y-3.28172
G01 X-4.52446 Y-3.28332
G01 X-4.47837 Y-3.28346
G01 X-4.47220 Y-3.28287
G01 X-4.46571 Y-3.28096
G01 X-4.45974 Y-3.27778
G01 X-4.45278 Y-3.27140
G01 X-4.41979 Y-3.27141
G01 X-4.41505 Y-3.27085
G01 X-4.41107 Y-3.26953
G01 X-4.40508 Y-3.26552
G01 X-4.39783 Y-3.25786
G01 X-4.39532 Y-3.25314
G01 X-4.39391 Y-3.24608
G01 X-4.39388 Y-3.04130
G01 X-4.39443 Y-3.03657
G01 X-4.39719 Y-3.02991
G01 X-4.40015 Y-3.02617
G01 X-4.52860 Y-2.89772
G01 X-4.52860 Y-2.88150
G01 X-4.52215 Y-2.88105
G01 X-4.52023 Y-2.87977
G01 X-4.51862 Y-2.87674
G01 X-4.51851 Y-2.82441
G01 X-4.51895 Y-2.82215
G01 X-4.52023 Y-2.82023
G01 X-4.52215 Y-2.81895
G01 X-4.52441 Y-2.81851
G01 X-4.57674 Y-2.81862
G01 X-4.57887 Y-2.81950
G01 X-4.58105 Y-2.82215
G01 X-4.58150 Y-2.82859
G01 X-4.60360 Y-2.82892
G01 X-4.60764 Y-2.83003
G01 X-4.61236 Y-2.83255
G01 X-4.68699 Y-2.90672
G01 X-4.69589 Y-2.90496
G01 X-4.70411 Y-2.90496
G01 X-4.71339 Y-2.90680
G01 X-4.72263 Y-2.91081
G01 X-4.73072 Y-2.91681
G01 X-4.73695 Y-2.92392
G01 X-4.74106 Y-2.93104
G01 X-4.74436 Y-2.94120
G01 X-4.74526 Y-2.95000
G01 X-4.74436 Y-2.95880
G01 X-4.74134 Y-2.96841
G01 X-4.73695 Y-2.97608
G01 X-4.73072 Y-2.98319
G01 X-4.72263 Y-2.98919
G01 X-4.71456 Y-2.99282
G01 X-4.70534 Y-2.99491
G01 X-4.69589 Y-2.99504
G01 X-4.68602 Y-2.99304
G01 X-4.67737 Y-2.98919
G01 X-4.66928 Y-2.98319
G01 X-4.66305 Y-2.97608
G01 X-4.65866 Y-2.96841
G01 X-4.65589 Y-2.96001
G01 X-4.65478 Y-2.95062
G01 X-4.65564 Y-2.94120
G01 X-4.65683 Y-2.93711
G01 X-4.59113 Y-2.87141
G01 X-4.58150 Y-2.87141
G01 X-4.58105 Y-2.87785
G01 X-4.57977 Y-2.87977
G01 X-4.57785 Y-2.88105
G01 X-4.57141 Y-2.88150
G01 X-4.56944 Y-2.87953
G01 X-4.56942 Y-2.90698
G01 X-4.56809 Y-2.91366
G01 X-4.56593 Y-2.91770
G01 X-4.43472 Y-3.04935
G01 X-4.43472 Y-3.23056
G01 X-4.45359 Y-3.23056
G01 X-4.45754 Y-3.22638
G01 X-4.46272 Y-3.22267
G01 X-4.46854 Y-3.22009
G01 X-4.47477 Y-3.21873
G01 X-4.52164 Y-3.21850
G01 X-4.52838 Y-3.21925
G01 X-4.53443 Y-3.22123
G01 X-4.53996 Y-3.22439
G01 X-4.54419 Y-3.22803
G01 X-4.54815 Y-3.23301
G01 X-4.55103 Y-3.23869
G01 X-4.55271 Y-3.24484
G01 X-4.55311 Y-3.25120
G01 X-4.55222 Y-3.25750
G01 X-4.55009 Y-3.26350
G01 X-4.54679 Y-3.26895
G01 X-4.54185 Y-3.27414
G01 X-4.53728 Y-3.27733
G01 X-4.53146 Y-3.27991
G01 X-4.52445 Y-3.28135
G01 X-4.47836 Y-3.28150
G01 X-4.47240 Y-3.28091
G01 X-4.46630 Y-3.27908
G01 X-4.46069 Y-3.27606
G01 X-4.45581 Y-3.27197
G01 X-4.45374 Y-3.26944
G01 X-4.41979 Y-3.26944
G01 X-4.41562 Y-3.26897
G01 X-4.41200 Y-3.26779
G01 X-4.40633 Y-3.26400
G01 X-4.39935 Y-3.25661
G01 X-4.39720 Y-3.25257
G01 X-4.39587 Y-3.24588
G01 X-4.39585 Y-3.04130
G01 X-4.39632 Y-3.03714
G01 X-4.39893 Y-3.03083
G01 X-4.40154 Y-3.02756
G01 X-4.53056 Y-2.89854
G01 X-4.53056 Y-2.87953
G01 X-4.52290 Y-2.87923
G01 X-4.52163 Y-2.87837
G01 X-4.52055 Y-2.87636
G01 X-4.52047 Y-2.82441
G01 X-4.52163 Y-2.82163
G01 X-4.52441 Y-2.82047
G01 X-4.57636 Y-2.82055
G01 X-4.57778 Y-2.82114
G01 X-4.57923 Y-2.82290
G01 X-4.57953 Y-2.83056
G01 X-4.60341 Y-2.83088
G01 X-4.60707 Y-2.83191
G01 X-4.61111 Y-2.83407
G01 X-4.68640 Y-2.90892
G01 X-4.69589 Y-2.90693
G01 X-4.70411 Y-2.90693
G01 X-4.71298 Y-2.90873
G01 X-4.72164 Y-2.91251
G01 X-4.72926 Y-2.91812
G01 X-4.73524 Y-2.92490
G01 X-4.73936 Y-2.93203
G01 X-4.74241 Y-2.94141
G01 X-4.74329 Y-2.95000
G01 X-4.74241 Y-2.95859
G01 X-4.73954 Y-2.96761
G01 X-4.73524 Y-2.97510
G01 X-4.72926 Y-2.98188
G01 X-4.72164 Y-2.98749
G01 X-4.71376 Y-2.99102
G01 X-4.70493 Y-2.99298
G01 X-4.69589 Y-2.99307
G01 X-4.68662 Y-2.99117
G01 X-4.67836 Y-2.98749
G01 X-4.67104 Y-2.98217
G01 X-4.66524 Y-2.97576
G01 X-4.66031 Y-2.96722
G01 X-4.65759 Y-2.95859
G01 X-4.65671 Y-2.95000
G01 X-4.65759 Y-2.94141
G01 X-4.65908 Y-2.93657
G01 X-4.59195 Y-2.86944
G01 X-4.57953 Y-2.86944
G01 X-4.57945 Y-2.87636
G01 X-4.57886 Y-2.87778
G01 X-4.57710 Y-2.87923
G01 X-4.56944 Y-2.87953
G01 X-4.56747 Y-2.87756
G01 X-4.56746 Y-2.90678
G01 X-4.56620 Y-2.91309
G01 X-4.56441 Y-2.91645
G01 X-4.43275 Y-3.04854
G01 X-4.43275 Y-3.23253
G01 X-4.45461 Y-3.23253
G01 X-4.45897 Y-3.22773
G01 X-4.46385 Y-3.22429
G01 X-4.46932 Y-3.22190
G01 X-4.47516 Y-3.22066
G01 X-4.52165 Y-3.22047
G01 X-4.52779 Y-3.22113
G01 X-4.53348 Y-3.22295
G01 X-4.53868 Y-3.22589
G01 X-4.54291 Y-3.22952
G01 X-4.54660 Y-3.23422
G01 X-4.54926 Y-3.23956
G01 X-4.55080 Y-3.24533
G01 X-4.55114 Y-3.25130
G01 X-4.55028 Y-3.25720
G01 X-4.54824 Y-3.26282
G01 X-4.54512 Y-3.26791
G01 X-4.54073 Y-3.27253
G01 X-4.53615 Y-3.27571
G01 X-4.53068 Y-3.27810
G01 X-4.52445 Y-3.27938
G01 X-4.47835 Y-3.27953
G01 X-4.47260 Y-3.27895
G01 X-4.46689 Y-3.27720
G01 X-4.46165 Y-3.27434
G01 X-4.45709 Y-3.27048
G01 X-4.45471 Y-3.26747
G01 X-4.41979 Y-3.26747
G01 X-4.41293 Y-3.26605
G01 X-4.40758 Y-3.26248
G01 X-4.40088 Y-3.25536
G01 X-4.39908 Y-3.25200
G01 X-4.39783 Y-3.24569
G01 X-4.39820 Y-3.03771
G01 X-4.40066 Y-3.03176
G01 X-4.40293 Y-3.02895
G01 X-4.53253 Y-2.89935
G01 X-4.53253 Y-2.87756
G01 X-4.52403 Y-2.87752
G01 X-4.52248 Y-2.87597
G01 X-4.52244 Y-2.82441
G01 X-4.52302 Y-2.82302
G01 X-4.52441 Y-2.82244
G01 X-4.57597 Y-2.82248
G01 X-4.57752 Y-2.82403
G01 X-4.57756 Y-2.83253
G01 X-4.60019 Y-2.83254
G01 X-4.60650 Y-2.83380
G01 X-4.60986 Y-2.83559
G01 X-4.68596 Y-2.91126
G01 X-4.69548 Y-2.90894
G01 X-4.70452 Y-2.90894
G01 X-4.71277 Y-2.91070
G01 X-4.72047 Y-2.91412
G01 X-4.72779 Y-2.91944
G01 X-4.73354 Y-2.92589
G01 X-4.73765 Y-2.93301
G01 X-4.74045 Y-2.94161
G01 X-4.74132 Y-2.95000
G01 X-4.74045 Y-2.95839
G01 X-4.73775 Y-2.96681
G01 X-4.73354 Y-2.97411
G01 X-4.72779 Y-2.98056
G01 X-4.72066 Y-2.98578
G01 X-4.71296 Y-2.98922
G01 X-4.70452 Y-2.99106
G01 X-4.69589 Y-2.99110
G01 X-4.68723 Y-2.98930
G01 X-4.67934 Y-2.98578
G01 X-4.67235 Y-2.98070
G01 X-4.66670 Y-2.97445
G01 X-4.66218 Y-2.96661
G01 X-4.65955 Y-2.95839
G01 X-4.65868 Y-2.95000
G01 X-4.65955 Y-2.94161
G01 X-4.66132 Y-2.93603
G01 X-4.59276 Y-2.86747
G01 X-4.57756 Y-2.86747
G01 X-4.57756 Y-2.87559
G01 X-4.57698 Y-2.87698
G01 X-4.57559 Y-2.87756
G01 X-4.56747 Y-2.87756
G04 P0 ( dwell for no time -- G64 should not smooth over this point )
G00 Z0.08000 ( retract )

G00 X-3.80618 Y-2.42687 ( rapid move to begin. )
G01 F180.00000
G01 Z-0.04000
G04 P0 ( dwell for no time -- G64 should not smooth over this point )
G01 F360.00000
G01 X-3.80618 Y-2.42687
G01 X-3.69541 Y-2.53764
G01 X-3.69632 Y-2.54100
G01 X-3.69718 Y-2.55082
G01 X-3.69598 Y-2.56061
G01 X-3.69277 Y-2.56994
G01 X-3.68769 Y-2.57840
G01 X-3.68096 Y-2.58561
G01 X-3.67361 Y-2.59090
G01 X-3.66380 Y-2.59513
G01 X-3.65411 Y-2.59701
G01 X-3.64589 Y-2.59701
G01 X-3.63464 Y-2.59462
G01 X-3.62639 Y-2.59090
G01 X-3.61840 Y-2.58509
G01 X-3.61178 Y-2.57774
G01 X-3.60939 Y-2.57362
G01 X-3.29061 Y-2.57362
G01 X-3.28822 Y-2.57774
G01 X-3.28218 Y-2.58451
G01 X-3.27361 Y-2.59090
G01 X-3.26380 Y-2.59513
G01 X-3.25411 Y-2.59701
G01 X-3.24589 Y-2.59701
G01 X-3.23464 Y-2.59462
G01 X-3.22639 Y-2.59090
G01 X-3.21840 Y-2.58509
G01 X-3.21135 Y-2.57707
G01 X-3.20686 Y-2.56921
G01 X-3.20402 Y-2.56061
G01 X-3.20278 Y-2.55000
G01 X-3.20368 Y-2.54100
G01 X-3.20686 Y-2.53079
G01 X-3.21135 Y-2.52293
G01 X-3.21782 Y-2.51549
G01 X-3.22639 Y-2.50910
G01 X-3.23620 Y-2.50487
G01 X-3.24589 Y-2.50299
G01 X-3.25411 Y-2.50299
G01 X-3.26380 Y-2.50487
G01 X-3.27361 Y-2.50910
G01 X-3.28218 Y-2.51549
G01 X-3.28822 Y-2.52226
G01 X-3.29061 Y-2.52638
G01 X-3.60939 Y-2.52638
G01 X-3.61178 Y-2.52226
G01 X-3.61904 Y-2.51439
G01 X-3.62639 Y-2.50910
G01 X-3.63464 Y-2.50538
G01 X-3.64589 Y-2.50299
G01 X-3.65411 Y-2.50299
G01 X-3.66237 Y-2.50457
G01 X-3.77997 Y-2.38697
G01 X-3.78418 Y-2.38367
G01 X-3.78828 Y-2.38164
G01 X-3.79650 Y-2.38013
G01 X-4.15729 Y-2.38046
G01 X-4.16314 Y-2.38223
G01 X-4.17003 Y-2.38697
G01 X-4.28763 Y-2.50457
G01 X-4.29589 Y-2.50299
G01 X-4.30411 Y-2.50299
G01 X-4.31536 Y-2.50538
G01 X-4.32361 Y-2.50910
G01 X-4.33160 Y-2.51491
G01 X-4.33822 Y-2.52226
G01 X-4.34061 Y-2.52638
G01 X-4.65939 Y-2.52638
G01 X-4.66178 Y-2.52226
G01 X-4.66782 Y-2.51549
G01 X-4.67639 Y-2.50910
G01 X-4.68620 Y-2.50487
G01 X-4.69589 Y-2.50299
G01 X-4.70411 Y-2.50299
G01 X-4.71459 Y-2.50509
G01 X-4.72361 Y-2.50910
G01 X-4.73160 Y-2.51491
G01 X-4.73769 Y-2.52160
G01 X-4.74314 Y-2.53079
G01 X-4.74598 Y-2.53939
G01 X-4.74722 Y-2.55000
G01 X-4.74632 Y-2.55900
G01 X-4.74277 Y-2.56994
G01 X-4.73769 Y-2.57840
G01 X-4.73096 Y-2.58561
G01 X-4.72361 Y-2.59090
G01 X-4.71536 Y-2.59462
G01 X-4.70411 Y-2.59701
G01 X-4.69589 Y-2.59701
G01 X-4.68620 Y-2.59513
G01 X-4.67639 Y-2.59090
G01 X-4.66782 Y-2.58451
G01 X-4.66178 Y-2.57774
G01 X-4.65939 Y-2.57362
G01 X-4.34061 Y-2.57362
G01 X-4.33822 Y-2.57774
G01 X-4.33096 Y-2.58561
G01 X-4.32361 Y-2.59090
G01 X-4.31380 Y-2.59513
G01 X-4.30411 Y-2.59701
G01 X-4.29425 Y-2.59684
G01 X-4.28541 Y-2.59491
G01 X-4.27712 Y-2.59127
G01 X-4.27416 Y-2.58933
G01 X-4.07677 Y-2.68803
G01 X-4.07677 Y-2.81300
G01 X-4.07617 Y-2.81601
G01 X-4.07447 Y-2.81857
G01 X-4.07191 Y-2.82027
G01 X-4.06890 Y-2.82087
G01 X-3.93110 Y-2.82087
G01 X-3.92809 Y-2.82027
G01 X-3.92553 Y-2.81857
G01 X-3.92383 Y-2.81601
G01 X-3.92323 Y-2.81300
G01 X-3.92338 Y-2.67366
G01 X-3.92553 Y-2.66963
G01 X-3.92809 Y-2.66793
G01 X-3.93110 Y-2.66733
G01 X-4.01252 Y-2.66733
G01 X-4.25304 Y-2.54707
G01 X-4.25459 Y-2.53764
G01 X-4.14382 Y-2.42687
G01 X-3.80618 Y-2.42687
G01 X-3.80537 Y-2.42490
G01 X-3.69317 Y-2.53710
G01 X-3.69427 Y-2.54059
G01 X-3.69522 Y-2.54938
G01 X-3.69436 Y-2.55880
G01 X-3.69134 Y-2.56841
G01 X-3.68622 Y-2.57708
G01 X-3.67980 Y-2.58402
G01 X-3.67263 Y-2.58919
G01 X-3.66456 Y-2.59282
G01 X-3.65534 Y-2.59491
G01 X-3.64466 Y-2.59491
G01 X-3.63602 Y-2.59304
G01 X-3.62737 Y-2.58919
G01 X-3.61928 Y-2.58319
G01 X-3.61338 Y-2.57658
G01 X-3.61053 Y-2.57166
G01 X-3.28947 Y-2.57165
G01 X-3.28662 Y-2.57658
G01 X-3.28072 Y-2.58319
G01 X-3.27263 Y-2.58919
G01 X-3.26339 Y-2.59320
G01 X-3.25411 Y-2.59504
G01 X-3.24589 Y-2.59504
G01 X-3.23544 Y-2.59282
G01 X-3.22737 Y-2.58919
G01 X-3.21972 Y-2.58363
G01 X-3.21305 Y-2.57608
G01 X-3.20866 Y-2.56841
G01 X-3.20589 Y-2.56001
G01 X-3.20474 Y-2.55000
G01 X-3.20564 Y-2.54120
G01 X-3.20866 Y-2.53159
G01 X-3.21305 Y-2.52392
G01 X-3.21928 Y-2.51681
G01 X-3.22737 Y-2.51081
G01 X-3.23661 Y-2.50680
G01 X-3.24589 Y-2.50496
G01 X-3.25411 Y-2.50496
G01 X-3.26339 Y-2.50680
G01 X-3.27263 Y-2.51081
G01 X-3.28072 Y-2.51681
G01 X-3.28662 Y-2.52342
G01 X-3.28947 Y-2.52834
G01 X-3.61053 Y-2.52835
G01 X-3.61338 Y-2.52342
G01 X-3.62020 Y-2.51598
G01 X-3.62737 Y-2.51081
G01 X-3.63544 Y-2.50718
G01 X-3.64589 Y-2.50496
G01 X-3.65411 Y-2.50496
G01 X-3.66301 Y-2.50672
G01 X-3.78136 Y-2.38836
G01 X-3.78510 Y-2.38540
G01 X-3.78885 Y-2.38353
G01 X-3.79650 Y-2.38209
G01 X-4.15710 Y-2.38242
G01 X-4.16221 Y-2.38397
G01 X-4.16863 Y-2.38836
G01 X-4.28699 Y-2.50672
G01 X-4.29589 Y-2.50496
G01 X-4.30411 Y-2.50496
G01 X-4.31456 Y-2.50718
G01 X-4.32263 Y-2.51081
G01 X-4.33028 Y-2.51637
G01 X-4.33662 Y-2.52342
G01 X-4.33947 Y-2.52834
G01 X-4.66053 Y-2.52835
G01 X-4.66338 Y-2.52342
G01 X-4.66928 Y-2.51681
G01 X-4.67737 Y-2.51081
G01 X-4.68661 Y-2.50680
G01 X-4.69589 Y-2.50496
G01 X-4.70411 Y-2.50496
G01 X-4.71398 Y-2.50696
G01 X-4.72263 Y-2.51081
G01 X-4.73028 Y-2.51637
G01 X-4.73622 Y-2.52292
G01 X-4.74134 Y-2.53159
G01 X-4.74411 Y-2.53999
G01 X-4.74526 Y-2.55000
G01 X-4.74436 Y-2.55880
G01 X-4.74106 Y-2.56896
G01 X-4.73622 Y-2.57708
G01 X-4.72980 Y-2.58402
G01 X-4.72263 Y-2.58919
G01 X-4.71456 Y-2.59282
G01 X-4.70411 Y-2.59504
G01 X-4.69589 Y-2.59504
G01 X-4.68661 Y-2.59320
G01 X-4.67737 Y-2.58919
G01 X-4.66928 Y-2.58319
G01 X-4.66338 Y-2.57658
G01 X-4.66053 Y-2.57166
G01 X-4.33947 Y-2.57165
G01 X-4.33662 Y-2.57658
G01 X-4.32980 Y-2.58402
G01 X-4.32263 Y-2.58919
G01 X-4.31339 Y-2.59320
G01 X-4.30411 Y-2.59504
G01 X-4.29466 Y-2.59491
G01 X-4.28544 Y-2.59282
G01 X-4.27737 Y-2.58919
G01 X-4.27435 Y-2.58704
G01 X-4.07480 Y-2.68681
G01 X-4.07480 Y-2.81300
G01 X-4.07436 Y-2.81526
G01 X-4.07308 Y-2.81718
G01 X-4.07116 Y-2.81846
G01 X-4.06890 Y-2.81890
G01 X-3.93110 Y-2.81890
G01 X-3.92884 Y-2.81846
G01 X-3.92692 Y-2.81718
G01 X-3.92564 Y-2.81526
G01 X-3.92519 Y-2.81300
G01 X-3.92531 Y-2.67405
G01 X-3.92619 Y-2.67192
G01 X-3.92782 Y-2.67029
G01 X-3.93110 Y-2.66929
G01 X-4.01299 Y-2.66930
G01 X-4.25489 Y-2.54835
G01 X-4.25564 Y-2.54120
G01 X-4.25683 Y-2.53711
G01 X-4.14463 Y-2.42490
G01 X-3.80537 Y-2.42490
G01 X-3.80455 Y-2.42294
G01 X-3.69092 Y-2.53656
G01 X-3.69234 Y-2.54100
G01 X-3.69327 Y-2.54959
G01 X-3.69241 Y-2.55859
G01 X-3.68954 Y-2.56761
G01 X-3.68476 Y-2.57576
G01 X-3.67864 Y-2.58243
G01 X-3.67164 Y-2.58749
G01 X-3.66376 Y-2.59102
G01 X-3.65493 Y-2.59298
G01 X-3.64507 Y-2.59298
G01 X-3.63662 Y-2.59117
G01 X-3.62836 Y-2.58749
G01 X-3.62074 Y-2.58188
G01 X-3.61497 Y-2.57543
G01 X-3.61168 Y-2.56969
G01 X-3.28832 Y-2.56969
G01 X-3.28503 Y-2.57543
G01 X-3.27926 Y-2.58188
G01 X-3.27164 Y-2.58749
G01 X-3.26298 Y-2.59127
G01 X-3.25411 Y-2.59307
G01 X-3.24589 Y-2.59307
G01 X-3.23624 Y-2.59102
G01 X-3.22836 Y-2.58749
G01 X-3.22104 Y-2.58217
G01 X-3.21476 Y-2.57510
G01 X-3.21046 Y-2.56761
G01 X-3.20777 Y-2.55940
G01 X-3.20671 Y-2.55000
G01 X-3.20759 Y-2.54141
G01 X-3.21046 Y-2.53239
G01 X-3.21476 Y-2.52490
G01 X-3.22074 Y-2.51812
G01 X-3.22836 Y-2.51251
G01 X-3.23702 Y-2.50873
G01 X-3.24589 Y-2.50693
G01 X-3.25411 Y-2.50693
G01 X-3.26298 Y-2.50873
G01 X-3.27164 Y-2.51251
G01 X-3.27926 Y-2.51812
G01 X-3.28503 Y-2.52457
G01 X-3.28832 Y-2.53031
G01 X-3.61168 Y-2.53031
G01 X-3.61497 Y-2.52457
G01 X-3.62136 Y-2.51757
G01 X-3.62836 Y-2.51251
G01 X-3.63624 Y-2.50898
G01 X-3.64589 Y-2.50693
G01 X-3.65493 Y-2.50702
G01 X-3.66359 Y-2.50892
G01 X-3.78276 Y-2.38975
G01 X-3.78603 Y-2.38714
G01 X-3.78943 Y-2.38541
G01 X-3.79650 Y-2.38406
G01 X-4.15691 Y-2.38438
G01 X-4.16129 Y-2.38571
G01 X-4.16724 Y-2.38975
G01 X-4.28640 Y-2.50892
G01 X-4.29507 Y-2.50702
G01 X-4.30411 Y-2.50693
G01 X-4.31376 Y-2.50898
G01 X-4.32164 Y-2.51251
G01 X-4.32896 Y-2.51783
G01 X-4.33503 Y-2.52457
G01 X-4.33832 Y-2.53031
G01 X-4.66168 Y-2.53031
G01 X-4.66497 Y-2.52457
G01 X-4.67074 Y-2.51812
G01 X-4.67836 Y-2.51251
G01 X-4.68702 Y-2.50873
G01 X-4.69589 Y-2.50693
G01 X-4.70411 Y-2.50693
G01 X-4.71338 Y-2.50883
G01 X-4.72164 Y-2.51251
G01 X-4.72896 Y-2.51783
G01 X-4.73476 Y-2.52424
G01 X-4.73954 Y-2.53239
G01 X-4.74223 Y-2.54060
G01 X-4.74329 Y-2.55000
G01 X-4.74241 Y-2.55859
G01 X-4.73936 Y-2.56797
G01 X-4.73476 Y-2.57576
G01 X-4.72864 Y-2.58243
G01 X-4.72164 Y-2.58749
G01 X-4.71376 Y-2.59102
G01 X-4.70411 Y-2.59307
G01 X-4.69589 Y-2.59307
G01 X-4.68702 Y-2.59127
G01 X-4.67836 Y-2.58749
G01 X-4.67074 Y-2.58188
G01 X-4.66497 Y-2.57543
G01 X-4.66168 Y-2.56969
G01 X-4.33832 Y-2.56969
G01 X-4.33503 Y-2.57543
G01 X-4.32864 Y-2.58243
G01 X-4.32164 Y-2.58749
G01 X-4.31298 Y-2.59127
G01 X-4.30411 Y-2.59307
G01 X-4.29507 Y-2.59298
G01 X-4.28624 Y-2.59102
G01 X-4.27836 Y-2.58749
G01 X-4.27454 Y-2.58474
G01 X-4.07284 Y-2.68559
G01 X-4.07284 Y-2.81300
G01 X-4.07168 Y-2.81578
G01 X-4.06890 Y-2.81694
G01 X-3.93110 Y-2.81694
G01 X-3.92832 Y-2.81578
G01 X-3.92716 Y-2.81300
G01 X-3.92724 Y-2.67443
G01 X-3.92832 Y-2.67242
G01 X-3.93110 Y-2.67126
G01 X-4.01345 Y-2.67126
G01 X-4.25673 Y-2.54962
G01 X-4.25759 Y-2.54141
G01 X-4.25908 Y-2.53657
G01 X-4.14545 Y-2.42293
G01 X-3.80455 Y-2.42294
G01 X-3.80374 Y-2.42097
G01 X-3.68868 Y-2.53602
G01 X-3.69041 Y-2.54141
G01 X-3.69131 Y-2.54979
G01 X-3.69045 Y-2.55839
G01 X-3.68775 Y-2.56681
G01 X-3.68330 Y-2.57445
G01 X-3.67749 Y-2.58083
G01 X-3.67066 Y-2.58578
G01 X-3.66296 Y-2.58922
G01 X-3.65452 Y-2.59106
G01 X-3.64548 Y-2.59106
G01 X-3.63723 Y-2.58930
G01 X-3.62934 Y-2.58578
G01 X-3.62221 Y-2.58056
G01 X-3.61657 Y-2.57428
G01 X-3.61283 Y-2.56772
G01 X-3.28718 Y-2.56772
G01 X-3.28343 Y-2.57428
G01 X-3.27779 Y-2.58056
G01 X-3.27066 Y-2.58578
G01 X-3.26257 Y-2.58935
G01 X-3.25411 Y-2.59110
G01 X-3.24589 Y-2.59110
G01 X-3.23704 Y-2.58922
G01 X-3.22934 Y-2.58578
G01 X-3.22235 Y-2.58070
G01 X-3.21646 Y-2.57411
G01 X-3.21225 Y-2.56681
G01 X-3.20964 Y-2.55879
G01 X-3.20868 Y-2.55000
G01 X-3.20955 Y-2.54161
G01 X-3.21225 Y-2.53319
G01 X-3.21646 Y-2.52589
G01 X-3.22221 Y-2.51944
G01 X-3.22934 Y-2.51422
G01 X-3.23743 Y-2.51065
G01 X-3.24589 Y-2.50890
G01 X-3.25411 Y-2.50890
G01 X-3.26257 Y-2.51065
G01 X-3.27066 Y-2.51422
G01 X-3.27779 Y-2.51944
G01 X-3.28343 Y-2.52572
G01 X-3.28717 Y-2.53228
G01 X-3.61282 Y-2.53228
G01 X-3.61657 Y-2.52572
G01 X-3.62251 Y-2.51917
G01 X-3.62934 Y-2.51422
G01 X-3.63704 Y-2.51078
G01 X-3.64548 Y-2.50894
G01 X-3.65411 Y-2.50890
G01 X-3.66404 Y-2.51126
G01 X-3.78415 Y-2.39115
G01 X-3.79000 Y-2.38729
G01 X-3.79650 Y-2.38603
G01 X-4.15671 Y-2.38634
G01 X-4.16036 Y-2.38744
G01 X-4.16585 Y-2.39115
G01 X-4.28596 Y-2.51126
G01 X-4.29589 Y-2.50890
G01 X-4.30452 Y-2.50894
G01 X-4.31296 Y-2.51078
G01 X-4.32066 Y-2.51422
G01 X-4.32765 Y-2.51930
G01 X-4.33343 Y-2.52572
G01 X-4.33717 Y-2.53228
G01 X-4.66282 Y-2.53228
G01 X-4.66657 Y-2.52572
G01 X-4.67221 Y-2.51944
G01 X-4.67934 Y-2.51422
G01 X-4.68743 Y-2.51065
G01 X-4.69589 Y-2.50890
G01 X-4.70411 Y-2.50890
G01 X-4.71277 Y-2.51070
G01 X-4.72066 Y-2.51422
G01 X-4.72765 Y-2.51930
G01 X-4.73330 Y-2.52555
G01 X-4.73775 Y-2.53319
G01 X-4.74036 Y-2.54121
G01 X-4.74132 Y-2.55000
G01 X-4.74045 Y-2.55839
G01 X-4.73765 Y-2.56699
G01 X-4.73330 Y-2.57445
G01 X-4.72749 Y-2.58083
G01 X-4.72066 Y-2.58578
G01 X-4.71296 Y-2.58922
G01 X-4.70411 Y-2.59110
G01 X-4.69589 Y-2.59110
G01 X-4.68743 Y-2.58935
G01 X-4.67934 Y-2.58578
G01 X-4.67221 Y-2.58056
G01 X-4.66657 Y-2.57428
G01 X-4.66283 Y-2.56772
G01 X-4.33718 Y-2.56772
G01 X-4.33343 Y-2.57428
G01 X-4.32749 Y-2.58083
G01 X-4.32066 Y-2.58578
G01 X-4.31257 Y-2.58935
G01 X-4.30411 Y-2.59110
G01 X-4.29548 Y-2.59106
G01 X-4.28704 Y-2.58922
G01 X-4.27934 Y-2.58578
G01 X-4.27473 Y-2.58245
G01 X-4.07087 Y-2.68438
G01 X-4.07087 Y-2.81300
G01 X-4.06999 Y-2.81464
G01 X-3.93072 Y-2.81493
G01 X-3.92971 Y-2.81439
G01 X-3.92913 Y-2.81300
G01 X-3.92913 Y-2.67520
G01 X-3.92971 Y-2.67381
G01 X-3.93110 Y-2.67323
G01 X-4.01392 Y-2.67323
G01 X-4.25876 Y-2.55081
G01 X-4.25955 Y-2.54161
G01 X-4.26132 Y-2.53603
G01 X-4.14626 Y-2.42097
G01 X-3.80374 Y-2.42097
G04 P0 ( dwell for no time -- G64 should not smooth over this point )
G00 Z0.08000 ( retract )

G00 X-3.56327 Y-2.74477 ( rapid move to begin. )
G01 F180.00000
G01 Z-0.04000
G04 P0 ( dwell for no time -- G64 should not smooth over this point )
G01 F360.00000
G01 X-3.56327 Y-2.74477
G01 X-3.70149 Y-2.60702
G01 X-3.70688 Y-2.60414
G01 X-3.71131 Y-2.60296
G01 X-3.73823 Y-2.60263
G01 X-3.73823 Y-2.55710
G01 X-3.73883 Y-2.55409
G01 X-3.74173 Y-2.55055
G01 X-3.74610 Y-2.54923
G01 X-3.85872 Y-2.54923
G01 X-3.91657 Y-2.49137
G01 X-3.92323 Y-2.48676
G01 X-3.92323 Y-2.43900
G01 X-3.92383 Y-2.43599
G01 X-3.92673 Y-2.43245
G01 X-3.93110 Y-2.43113
G01 X-4.06890 Y-2.43113
G01 X-4.07191 Y-2.43173
G01 X-4.07447 Y-2.43343
G01 X-4.07617 Y-2.43599
G01 X-4.07677 Y-2.43900
G01 X-4.07677 Y-2.57680
G01 X-4.07545 Y-2.58117
G01 X-4.07327 Y-2.58335
G01 X-4.06890 Y-2.58467
G01 X-3.92956 Y-2.58452
G01 X-3.92553 Y-2.58237
G01 X-3.92338 Y-2.57834
G01 X-3.92323 Y-2.55083
G01 X-3.89177 Y-2.58228
G01 X-3.89177 Y-2.69490
G01 X-3.89045 Y-2.69927
G01 X-3.88691 Y-2.70217
G01 X-3.88390 Y-2.70277
G01 X-3.74610 Y-2.70277
G01 X-3.74309 Y-2.70217
G01 X-3.73955 Y-2.69927
G01 X-3.73823 Y-2.69490
G01 X-3.73823 Y-2.64937
G01 X-3.72478 Y-2.64937
G01 X-3.58948 Y-2.78468
G01 X-3.58527 Y-2.78798
G01 X-3.57826 Y-2.79089
G01 X-3.57295 Y-2.79152
G01 X-3.22039 Y-2.79152
G01 X-3.19152 Y-2.82039
G01 X-3.19152 Y-3.20794
G01 X-3.35901 Y-3.37542
G01 X-3.81189 Y-3.37542
G01 X-3.82663 Y-3.36069
G01 X-3.82663 Y-3.34724
G01 X-3.81106 Y-3.34709
G01 X-3.80703 Y-3.34494
G01 X-3.80488 Y-3.34091
G01 X-3.80472 Y-3.26063
G01 X-3.80532 Y-3.25762
G01 X-3.80703 Y-3.25506
G01 X-3.80959 Y-3.25336
G01 X-3.81260 Y-3.25276
G01 X-3.88894 Y-3.25291
G01 X-3.89297 Y-3.25506
G01 X-3.89512 Y-3.25909
G01 X-3.89527 Y-3.27663
G01 X-4.00472 Y-3.27663
G01 X-4.00488 Y-3.25909
G01 X-4.00703 Y-3.25506
G01 X-4.01106 Y-3.25291
G01 X-4.08740 Y-3.25276
G01 X-4.09041 Y-3.25336
G01 X-4.09395 Y-3.25626
G01 X-4.09527 Y-3.26063
G01 X-4.09527 Y-3.33937
G01 X-4.09468 Y-3.34238
G01 X-4.09297 Y-3.34494
G01 X-4.09041 Y-3.34664
G01 X-4.08740 Y-3.34724
G01 X-4.01106 Y-3.34709
G01 X-4.00703 Y-3.34494
G01 X-4.00488 Y-3.34091
G01 X-4.00472 Y-3.32337
G01 X-3.89527 Y-3.32337
G01 X-3.89512 Y-3.34091
G01 X-3.89297 Y-3.34494
G01 X-3.88894 Y-3.34709
G01 X-3.87337 Y-3.34724
G01 X-3.87304 Y-3.37417
G01 X-3.87126 Y-3.38001
G01 X-3.86897 Y-3.38398
G01 X-3.83752 Y-3.41585
G01 X-3.83121 Y-3.42006
G01 X-3.82537 Y-3.42184
G01 X-3.34553 Y-3.42184
G01 X-3.33968 Y-3.42006
G01 X-3.33280 Y-3.41533
G01 X-3.15110 Y-3.23358
G01 X-3.14832 Y-3.22995
G01 X-3.14629 Y-3.22584
G01 X-3.14478 Y-3.21762
G01 X-3.14481 Y-2.80994
G01 X-3.14629 Y-2.80249
G01 X-3.14832 Y-2.79839
G01 X-3.15110 Y-2.79476
G01 X-3.19476 Y-2.75110
G01 X-3.19839 Y-2.74832
G01 X-3.20249 Y-2.74629
G01 X-3.21071 Y-2.74478
G01 X-3.56327 Y-2.74477
G01 X-3.56408 Y-2.74674
G01 X-3.70274 Y-2.60855
G01 X-3.70745 Y-2.60603
G01 X-3.71150 Y-2.60492
G01 X-3.74019 Y-2.60460
G01 X-3.74019 Y-2.55710
G01 X-3.74064 Y-2.55484
G01 X-3.74282 Y-2.55219
G01 X-3.74610 Y-2.55119
G01 X-3.85953 Y-2.55120
G01 X-3.91796 Y-2.49276
G01 X-3.92170 Y-2.48980
G01 X-3.92520 Y-2.48804
G01 X-3.92519 Y-2.43900
G01 X-3.92564 Y-2.43674
G01 X-3.92782 Y-2.43409
G01 X-3.93110 Y-2.43309
G01 X-4.07005 Y-2.43321
G01 X-4.07308 Y-2.43482
G01 X-4.07436 Y-2.43674
G01 X-4.07480 Y-2.43900
G01 X-4.07480 Y-2.57680
G01 X-4.07381 Y-2.58008
G01 X-4.07218 Y-2.58171
G01 X-4.06890 Y-2.58270
G01 X-3.92995 Y-2.58259
G01 X-3.92692 Y-2.58098
G01 X-3.92531 Y-2.57795
G01 X-3.92519 Y-2.54608
G01 X-3.88980 Y-2.58147
G01 X-3.88980 Y-2.69490
G01 X-3.88881 Y-2.69818
G01 X-3.88616 Y-2.70036
G01 X-3.88390 Y-2.70080
G01 X-3.74610 Y-2.70080
G01 X-3.74384 Y-2.70036
G01 X-3.74119 Y-2.69818
G01 X-3.74019 Y-2.69490
G01 X-3.74019 Y-2.64741
G01 X-3.72397 Y-2.64741
G01 X-3.58809 Y-2.78328
G01 X-3.58435 Y-2.78624
G01 X-3.57769 Y-2.78900
G01 X-3.57295 Y-2.78955
G01 X-3.21958 Y-2.78955
G01 X-3.18955 Y-2.81958
G01 X-3.18955 Y-3.20876
G01 X-3.35819 Y-3.37739
G01 X-3.81270 Y-3.37739
G01 X-3.82859 Y-3.36150
G01 X-3.82859 Y-3.34527
G01 X-3.81145 Y-3.34516
G01 X-3.80842 Y-3.34355
G01 X-3.80681 Y-3.34052
G01 X-3.80669 Y-3.26063
G01 X-3.80714 Y-3.25837
G01 X-3.80842 Y-3.25645
G01 X-3.81034 Y-3.25517
G01 X-3.81260 Y-3.25473
G01 X-3.88855 Y-3.25484
G01 X-3.89158 Y-3.25645
G01 X-3.89319 Y-3.25948
G01 X-3.89331 Y-3.27860
G01 X-4.00669 Y-3.27860
G01 X-4.00681 Y-3.25948
G01 X-4.00842 Y-3.25645
G01 X-4.01145 Y-3.25484
G01 X-4.08740 Y-3.25473
G01 X-4.08966 Y-3.25517
G01 X-4.09231 Y-3.25735
G01 X-4.09331 Y-3.26063
G01 X-4.09331 Y-3.33937
G01 X-4.09286 Y-3.34163
G01 X-4.09158 Y-3.34355
G01 X-4.08966 Y-3.34483
G01 X-4.08740 Y-3.34527
G01 X-4.01145 Y-3.34516
G01 X-4.00842 Y-3.34355
G01 X-4.00681 Y-3.34052
G01 X-4.00669 Y-3.32140
G01 X-3.89331 Y-3.32140
G01 X-3.89331 Y-3.33937
G01 X-3.89286 Y-3.34163
G01 X-3.89158 Y-3.34355
G01 X-3.88966 Y-3.34483
G01 X-3.88740 Y-3.34527
G01 X-3.87141 Y-3.34527
G01 X-3.87108 Y-3.37397
G01 X-3.86953 Y-3.37909
G01 X-3.86745 Y-3.38273
G01 X-3.83628 Y-3.41432
G01 X-3.83029 Y-3.41833
G01 X-3.82517 Y-3.41988
G01 X-3.34572 Y-3.41988
G01 X-3.34061 Y-3.41833
G01 X-3.33419 Y-3.41393
G01 X-3.15262 Y-3.23233
G01 X-3.15005 Y-3.22902
G01 X-3.14818 Y-3.22527
G01 X-3.14674 Y-3.21762
G01 X-3.14677 Y-2.81013
G01 X-3.14818 Y-2.80307
G01 X-3.15005 Y-2.79931
G01 X-3.15262 Y-2.79600
G01 X-3.19600 Y-2.75262
G01 X-3.19931 Y-2.75005
G01 X-3.20307 Y-2.74818
G01 X-3.21071 Y-2.74674
G01 X-3.56408 Y-2.74674
G01 X-3.56490 Y-2.74871
G01 X-3.70399 Y-2.61007
G01 X-3.70803 Y-2.60791
G01 X-3.71472 Y-2.60658
G01 X-3.74216 Y-2.60656
G01 X-3.74216 Y-2.55710
G01 X-3.74246 Y-2.55559
G01 X-3.74391 Y-2.55383
G01 X-3.74610 Y-2.55316
G01 X-3.86035 Y-2.55316
G01 X-3.91936 Y-2.49416
G01 X-3.92263 Y-2.49154
G01 X-3.92716 Y-2.48947
G01 X-3.92716 Y-2.43900
G01 X-3.92746 Y-2.43749
G01 X-3.92891 Y-2.43573
G01 X-3.93110 Y-2.43506
G01 X-4.06967 Y-2.43514
G01 X-4.07168 Y-2.43622
G01 X-4.07284 Y-2.43900
G01 X-4.07284 Y-2.57680
G01 X-4.07217 Y-2.57899
G01 X-4.07109 Y-2.58007
G01 X-4.06890 Y-2.58074
G01 X-3.93033 Y-2.58066
G01 X-3.92783 Y-2.57899
G01 X-3.92716 Y-2.57680
G01 X-3.92716 Y-2.54132
G01 X-3.88784 Y-2.58065
G01 X-3.88784 Y-2.69490
G01 X-3.88717 Y-2.69709
G01 X-3.88541 Y-2.69854
G01 X-3.74459 Y-2.69854
G01 X-3.74283 Y-2.69709
G01 X-3.74216 Y-2.69490
G01 X-3.74216 Y-2.64544
G01 X-3.72315 Y-2.64544
G01 X-3.58669 Y-2.78189
G01 X-3.58342 Y-2.78451
G01 X-3.57712 Y-2.78712
G01 X-3.57295 Y-2.78759
G01 X-3.21876 Y-2.78759
G01 X-3.18758 Y-2.81876
G01 X-3.18758 Y-3.20957
G01 X-3.35738 Y-3.37936
G01 X-3.81352 Y-3.37936
G01 X-3.83056 Y-3.36232
G01 X-3.83056 Y-3.34331
G01 X-3.81183 Y-3.34323
G01 X-3.80982 Y-3.34215
G01 X-3.80874 Y-3.34014
G01 X-3.80866 Y-3.26063
G01 X-3.80982 Y-3.25785
G01 X-3.81260 Y-3.25669
G01 X-3.88817 Y-3.25677
G01 X-3.89018 Y-3.25785
G01 X-3.89126 Y-3.25986
G01 X-3.89134 Y-3.28056
G01 X-4.00866 Y-3.28056
G01 X-4.00874 Y-3.25986
G01 X-4.00982 Y-3.25785
G01 X-4.01183 Y-3.25677
G01 X-4.08891 Y-3.25699
G01 X-4.09067 Y-3.25844
G01 X-4.09134 Y-3.26063
G01 X-4.09134 Y-3.33937
G01 X-4.09018 Y-3.34215
G01 X-4.08740 Y-3.34331
G01 X-4.01183 Y-3.34323
G01 X-4.00982 Y-3.34215
G01 X-4.00874 Y-3.34014
G01 X-4.00866 Y-3.31944
G01 X-3.89134 Y-3.31944
G01 X-3.89134 Y-3.33937
G01 X-3.89018 Y-3.34215
G01 X-3.88740 Y-3.34331
G01 X-3.86944 Y-3.34331
G01 X-3.86942 Y-3.37076
G01 X-3.86809 Y-3.37744
G01 X-3.86593 Y-3.38148
G01 X-3.83503 Y-3.41280
G01 X-3.82936 Y-3.41659
G01 X-3.82498 Y-3.41792
G01 X-3.34592 Y-3.41792
G01 X-3.34154 Y-3.41659
G01 X-3.33558 Y-3.41254
G01 X-3.15414 Y-3.23108
G01 X-3.15006 Y-3.22470
G01 X-3.14871 Y-3.21762
G01 X-3.14873 Y-2.81033
G01 X-3.15006 Y-2.80364
G01 X-3.15414 Y-2.79725
G01 X-3.19725 Y-2.75414
G01 X-3.20364 Y-2.75006
G01 X-3.21071 Y-2.74871
G01 X-3.56490 Y-2.74871
G01 X-3.56571 Y-2.75068
G01 X-3.70524 Y-2.61159
G01 X-3.70860 Y-2.60980
G01 X-3.71491 Y-2.60854
G01 X-3.74413 Y-2.60853
G01 X-3.74413 Y-2.55710
G01 X-3.74501 Y-2.55546
G01 X-3.86116 Y-2.55513
G01 X-3.92075 Y-2.49555
G01 X-3.92356 Y-2.49328
G01 X-3.92913 Y-2.49093
G01 X-3.92913 Y-2.43900
G01 X-3.93001 Y-2.43736
G01 X-4.06928 Y-2.43707
G01 X-4.07054 Y-2.43791
G01 X-4.07087 Y-2.43900
G01 X-4.07054 Y-2.57789
G01 X-4.06890 Y-2.57877
G01 X-3.93072 Y-2.57873
G01 X-3.92946 Y-2.57789
G01 X-3.92913 Y-2.57680
G01 X-3.92913 Y-2.53657
G01 X-3.88587 Y-2.57984
G01 X-3.88587 Y-2.69490
G01 X-3.88465 Y-2.69672
G01 X-3.74535 Y-2.69672
G01 X-3.74413 Y-2.69490
G01 X-3.74413 Y-2.64347
G01 X-3.72234 Y-2.64347
G01 X-3.58530 Y-2.78050
G01 X-3.58249 Y-2.78277
G01 X-3.57654 Y-2.78523
G01 X-3.21795 Y-2.78562
G01 X-3.18562 Y-2.81795
G01 X-3.18562 Y-3.21039
G01 X-3.35656 Y-3.38133
G01 X-3.81433 Y-3.38133
G01 X-3.83253 Y-3.36313
G01 X-3.83253 Y-3.34134
G01 X-3.81260 Y-3.34134
G01 X-3.81151 Y-3.34101
G01 X-3.81067 Y-3.33975
G01 X-3.81063 Y-3.26063
G01 X-3.81121 Y-3.25924
G01 X-3.81260 Y-3.25866
G01 X-3.88815 Y-3.25881
G01 X-3.88937 Y-3.26063
G01 X-3.88937 Y-3.28253
G01 X-4.01063 Y-3.28253
G01 X-4.01063 Y-3.26063
G01 X-4.01185 Y-3.25881
G01 X-4.08778 Y-3.25870
G01 X-4.08879 Y-3.25924
G01 X-4.08937 Y-3.26063
G01 X-4.08937 Y-3.33937
G01 X-4.08879 Y-3.34076
G01 X-4.08740 Y-3.34134
G01 X-4.01222 Y-3.34130
G01 X-4.01096 Y-3.34046
G01 X-4.01063 Y-3.33937
G01 X-4.01063 Y-3.31747
G01 X-3.88937 Y-3.31747
G01 X-3.88937 Y-3.33937
G01 X-3.88879 Y-3.34076
G01 X-3.88740 Y-3.34134
G01 X-3.86747 Y-3.34134
G01 X-3.86746 Y-3.37056
G01 X-3.86620 Y-3.37687
G01 X-3.86462 Y-3.37991
G01 X-3.83378 Y-3.41128
G01 X-3.82843 Y-3.41485
G01 X-3.82479 Y-3.41596
G01 X-3.34611 Y-3.41596
G01 X-3.34247 Y-3.41485
G01 X-3.33697 Y-3.41115
G01 X-3.15567 Y-3.22983
G01 X-3.15194 Y-3.22412
G01 X-3.15068 Y-3.21762
G01 X-3.15068 Y-2.81071
G01 X-3.15194 Y-2.80421
G01 X-3.15567 Y-2.79850
G01 X-3.19836 Y-2.75580
G01 X-3.20385 Y-2.75209
G01 X-3.20749 Y-2.75099
G01 X-3.56571 Y-2.75068

G04 P0 ( dwell for no time -- G64 should not smooth over this point )
G00 Z1.000 ( retract )

M5 ( Spindle off. )
G04 P1.000000
M9 ( Coolant off. )
M2 ( Program end. )

