( pcb2gcode 2.0.0 )
( Software-independent Gcode )

G94 ( Inches per minute feed rate. )
G20 ( Units == INCHES. )

G90 ( Absolute coordinates. )
G00 S12000 ( RPM spindle speed. )
G64 P0.00040 ( set maximum deviation from commanded toolpath )
G01 F360.00000 ( Feedrate. )


G00 Z1.00000 (Retract to tool change height)
T0
M5      (Spindle stop.)
G04 P1.00000 (Wait for spindle to stop)
(MSG, Change tool bit to mill diameter 0.00787in)
M6      (Tool change.)
M0      (Temporary machine stop.)
M3 ( Spindle on clockwise. )
G04 P1.00000 (Wait for spindle to get up to speed)
G04 P0 ( dwell for no time -- G64 should not smooth over this point )
G00 Z0.08000 ( retract )

G00 X-3.18782 Y-2.55000 ( rapid move to begin. )
G01 F180.00000
G01 Z-0.04000
G04 P0 ( dwell for no time -- G64 should not smooth over this point )
G01 F360.00000
G01 X-3.18782 Y-2.55000
G01 X-3.19411 Y-2.55000
G01 X-3.19507 Y-2.55991
G01 X-3.19833 Y-2.57111
G01 X-3.20479 Y-2.58285
G01 X-3.21138 Y-2.59031
G01 X-3.22360 Y-2.59918
G01 X-3.23440 Y-2.60360
G01 X-3.24416 Y-2.60558
G01 X-3.25755 Y-2.60531
G01 X-3.26560 Y-2.60360
G01 X-3.27640 Y-2.59918
G01 X-3.28605 Y-2.59262
G01 X-3.29558 Y-2.58229
G01 X-3.60442 Y-2.58229
G01 X-3.61395 Y-2.59262
G01 X-3.62360 Y-2.59918
G01 X-3.63440 Y-2.60360
G01 X-3.64245 Y-2.60531
G01 X-3.65584 Y-2.60558
G01 X-3.66560 Y-2.60360
G01 X-3.67640 Y-2.59918
G01 X-3.68862 Y-2.59031
G01 X-3.69521 Y-2.58285
G01 X-3.70167 Y-2.57111
G01 X-3.70493 Y-2.55991
G01 X-3.70588 Y-2.55000
G01 X-3.70496 Y-2.54034
G01 X-3.80977 Y-2.43553
G01 X-3.91506 Y-2.43553
G01 X-3.92110 Y-2.43150
G04 P0 ( dwell for no time -- G64 should not smooth over this point )
G00 Z0.08000 ( retract )

G00 X-4.07080 Y-2.42924 ( rapid move to begin. )
G01 F180.00000
G01 Z-0.04000
G04 P0 ( dwell for no time -- G64 should not smooth over this point )
G01 F360.00000
G01 X-4.07080 Y-2.42924
G01 X-4.07251 Y-2.42945
G04 P0 ( dwell for no time -- G64 should not smooth over this point )
G00 Z0.08000 ( retract )

G00 X-4.07251 Y-2.42945 ( rapid move to begin. )
G01 F180.00000
G01 Z-0.04000
G04 P0 ( dwell for no time -- G64 should not smooth over this point )
G01 F360.00000
G01 X-4.07251 Y-2.42945
G01 X-4.07890 Y-2.43150
G01 X-4.08494 Y-2.43553
G04 P0 ( dwell for no time -- G64 should not smooth over this point )
G00 Z0.08000 ( retract )

G00 X-4.08494 Y-2.43553 ( rapid move to begin. )
G01 F180.00000
G01 Z-0.04000
G04 P0 ( dwell for no time -- G64 should not smooth over this point )
G01 F360.00000
G01 X-4.08494 Y-2.43553
G01 X-4.09173 Y-2.44183
G01 X-4.09173 Y-2.57680
G01 X-4.09129 Y-2.58125
G01 X-4.09000 Y-2.58554
G01 X-4.08789 Y-2.58949
G01 X-4.08505 Y-2.59295
G01 X-4.08158 Y-2.59579
G01 X-4.07764 Y-2.59790
G01 X-4.07335 Y-2.59919
G01 X-4.06890 Y-2.59963
G01 X-3.93110 Y-2.59963
G01 X-3.92665 Y-2.59919
G01 X-3.92236 Y-2.59790
G01 X-3.91841 Y-2.59579
G01 X-3.91495 Y-2.59295
G01 X-3.91211 Y-2.58949
G01 X-3.90993 Y-2.58529
G01 X-3.90673 Y-2.58848
G01 X-3.90673 Y-2.69490
G01 X-3.90630 Y-2.69935
G01 X-3.90500 Y-2.70364
G01 X-3.90289 Y-2.70759
G01 X-3.90005 Y-2.71105
G01 X-3.89659 Y-2.71389
G01 X-3.89264 Y-2.71600
G01 X-3.88835 Y-2.71730
G01 X-3.88390 Y-2.71773
G01 X-3.74610 Y-2.71773
G01 X-3.74165 Y-2.71730
G01 X-3.73736 Y-2.71600
G01 X-3.73341 Y-2.71389
G01 X-3.72995 Y-2.71105
G01 X-3.72711 Y-2.70759
G01 X-3.72500 Y-2.70364
G01 X-3.72370 Y-2.69935
G01 X-3.72327 Y-2.69490
G01 X-3.72327 Y-2.67205
G01 X-3.60006 Y-2.79526
G01 X-3.59233 Y-2.80118
G01 X-3.58260 Y-2.80520
G01 X-3.57295 Y-2.80648
G01 X-3.51940 Y-2.80648
G01 X-3.50540 Y-2.80432
G01 X-3.49575 Y-2.80410
G01 X-3.48009 Y-2.80600
G01 X-3.49575 Y-2.80410
G01 X-3.51075 Y-2.80489
G01 X-3.52051 Y-2.80698
G01 X-3.52897 Y-2.81251
G01 X-3.53760 Y-2.82154
G01 X-3.54158 Y-2.82817
G01 X-3.54517 Y-2.83762
G01 X-3.54631 Y-2.84367
G01 X-3.60741 Y-2.90477
G01 X-3.61690 Y-2.89745
G01 X-3.62855 Y-2.89172
G01 X-3.64350 Y-2.88816
G01 X-3.65411 Y-2.88803
G01 X-3.66691 Y-2.89024
G01 X-3.67896 Y-2.89506
G01 X-3.68975 Y-2.90228
G01 X-3.69886 Y-2.91167
G01 X-3.97992 Y-2.91167
G01 X-4.05575 Y-2.83583
G01 X-4.06890 Y-2.83039
G01 X-4.07460 Y-2.82739
G04 P0 ( dwell for no time -- G64 should not smooth over this point )
G00 Z0.08000 ( retract )

G00 X-4.08495 Y-2.81555 ( rapid move to begin. )
G01 F180.00000
G01 Z-0.04000
G04 P0 ( dwell for no time -- G64 should not smooth over this point )
G01 F360.00000
G01 X-4.08495 Y-2.81555
G01 X-4.13424 Y-2.76626
G01 X-4.14048 Y-2.76144
G01 X-4.14907 Y-2.75788
G01 X-4.15689 Y-2.75687
G01 X-4.64969 Y-2.75687
G01 X-4.65751 Y-2.75788
G01 X-4.66341 Y-2.76001
G01 X-4.66879 Y-2.76324
G01 X-4.67234 Y-2.76626
G01 X-4.79750 Y-2.89142
G01 X-4.80232 Y-2.89766
G01 X-4.80588 Y-2.90625
G01 X-4.80689 Y-2.91407
G01 X-4.80689 Y-2.98593
G01 X-4.80588 Y-2.99375
G01 X-4.80232 Y-3.00233
G01 X-4.79750 Y-3.00858
G01 X-4.60862 Y-3.19693
G01 X-4.60025 Y-3.20140
G01 X-4.59416 Y-3.20292
G01 X-4.55175 Y-3.20329
G01 X-4.54757 Y-3.20693
G01 X-4.54135 Y-3.21063
G01 X-4.45111 Y-3.21063
G01 X-4.44576 Y-3.19850
G01 X-4.44317 Y-3.19007
G01 X-4.44097 Y-3.17626
G01 X-4.44294 Y-3.18865
G01 X-4.44143 Y-3.17911
G01 X-4.44097 Y-3.16626
G01 X-4.44102 Y-3.17657
G01 X-4.44317 Y-3.19007
G01 X-4.44294 Y-3.18865
G01 X-4.44734 Y-3.20248
G01 X-4.44732 Y-3.21796
G01 X-4.44825 Y-3.21796
G01 X-4.45388 Y-3.21338
G01 X-4.45865 Y-3.21063
G01 X-4.45243 Y-3.20693
G01 X-4.44734 Y-3.20248
G01 X-4.45111 Y-3.21063
G01 X-4.54150 Y-3.21072
G01 X-4.54757 Y-3.21433
G01 X-4.55551 Y-3.22184
G01 X-4.55984 Y-3.22795
G01 X-4.56404 Y-3.23805
G01 X-4.56560 Y-3.24712
G01 X-4.56560 Y-3.25288
G01 X-4.56404 Y-3.26195
G01 X-4.56063 Y-3.27050
G01 X-4.55320 Y-3.28073
G01 X-4.54757 Y-3.28567
G01 X-4.54135 Y-3.28937
G01 X-4.44700 Y-3.28937
G01 X-4.44583 Y-3.28833
G01 X-4.41979 Y-3.28833
G01 X-4.41013 Y-3.28705
G01 X-4.40041 Y-3.28303
G01 X-4.39434 Y-3.27861
G01 X-4.38818 Y-3.27261
G01 X-4.38226 Y-3.26487
G01 X-4.37823 Y-3.25515
G01 X-4.37695 Y-3.24550
G01 X-4.37695 Y-3.04130
G01 X-4.37823 Y-3.03165
G01 X-4.38226 Y-3.02193
G01 X-4.38818 Y-3.01420
G01 X-4.50957 Y-2.89281
G01 X-4.50542 Y-2.88828
G01 X-4.50331 Y-2.88433
G01 X-4.50201 Y-2.88004
G01 X-4.50157 Y-2.87559
G01 X-4.50157 Y-2.82724
G01 X-4.50837 Y-2.82095
G01 X-4.48191 Y-2.82094
G01 X-4.47198 Y-2.81736
G01 X-4.46400 Y-2.81551
G01 X-4.45425 Y-2.81448
G01 X-4.44846 Y-2.81457
G01 X-4.45554 Y-2.81462
G01 X-4.45425 Y-2.81448
G04 P0 ( dwell for no time -- G64 should not smooth over this point )
G00 Z0.08000 ( retract )

G00 X-4.43915 Y-2.81551 ( rapid move to begin. )
G01 F180.00000
G01 Z-0.04000
G04 P0 ( dwell for no time -- G64 should not smooth over this point )
G01 F360.00000
G01 X-4.43915 Y-2.81551
G01 X-4.44890 Y-2.81448
G01 X-4.46400 Y-2.81551
G01 X-4.47198 Y-2.81736
G01 X-4.48053 Y-2.82033
G01 X-4.48191 Y-2.82094
G01 X-4.48457 Y-2.82389
G01 X-4.49006 Y-2.83286
G01 X-4.49233 Y-2.83957
G01 X-4.49370 Y-2.85000
G01 X-4.49233 Y-2.86043
G01 X-4.48927 Y-2.86868
G01 X-4.48457 Y-2.87611
G01 X-4.48099 Y-2.88008
G01 X-4.47409 Y-2.88554
G01 X-4.46459 Y-2.89006
G01 X-4.45425 Y-2.89199
G01 X-4.44546 Y-2.89162
G01 X-4.43856 Y-2.89006
G01 X-4.43205 Y-2.88727
G01 X-4.42460 Y-2.88228
G01 X-4.33228 Y-2.88228
G01 X-4.33228 Y-2.90464
G01 X-4.33862 Y-2.90969
G01 X-4.34615 Y-2.91860
G01 X-4.35105 Y-2.92727
G01 X-4.35493 Y-2.94009
G01 X-4.35579 Y-2.95173
G01 X-4.35422 Y-2.96329
G01 X-4.35105 Y-2.97273
G01 X-4.34412 Y-2.98419
G01 X-4.33605 Y-2.99262
G01 X-4.32794 Y-2.99840
G01 X-4.31560 Y-3.00360
G01 X-4.30584 Y-3.00558
G01 X-4.29416 Y-3.00558
G01 X-4.28440 Y-3.00360
G01 X-4.27206 Y-2.99840
G01 X-4.26578 Y-2.99395
G01 X-4.06563 Y-3.19409
G01 X-4.05935 Y-3.19894
G01 X-4.05363 Y-3.20163
G01 X-4.04750 Y-3.20316
G01 X-4.04280 Y-3.20355
G01 X-3.45147 Y-3.20355
G01 X-3.44757 Y-3.20693
G01 X-3.44135 Y-3.21063
G01 X-3.35865 Y-3.21063
G01 X-3.44135 Y-3.21063
G01 X-3.44757 Y-3.21433
G01 X-3.45551 Y-3.22184
G01 X-3.46063 Y-3.22949
G01 X-3.46404 Y-3.23805
G01 X-3.46551 Y-3.24539
G01 X-3.46560 Y-3.25288
G01 X-3.46404 Y-3.26195
G01 X-3.45984 Y-3.27205
G01 X-3.45320 Y-3.28073
G01 X-3.44612 Y-3.28661
G01 X-3.44135 Y-3.28937
G01 X-3.35865 Y-3.28937
G01 X-3.44135 Y-3.28937
G01 X-3.44757 Y-3.29307
G01 X-3.45147 Y-3.29645
G01 X-3.66555 Y-3.29645
G01 X-3.69857 Y-3.28440
G01 X-3.70151 Y-3.27652
G01 X-3.70636 Y-3.26830
G01 X-3.71269 Y-3.26114
G01 X-3.72303 Y-3.25329
G01 X-3.73500 Y-3.24825
G01 X-3.74436 Y-3.24636
G01 X-3.75564 Y-3.24636
G01 X-3.76499 Y-3.24825
G01 X-3.77697 Y-3.25329
G01 X-3.78475 Y-3.25883
G01 X-3.79255 Y-3.26695
G01 X-3.79606 Y-3.27232
G01 X-3.79606 Y-3.26063
G01 X-3.79732 Y-3.25430
G01 X-3.80091 Y-3.24894
G01 X-3.80627 Y-3.24535
G01 X-3.81260 Y-3.24409
G01 X-3.89063 Y-3.24441
G01 X-3.89659 Y-3.24688
G01 X-3.90115 Y-3.25144
G01 X-3.90362 Y-3.25740
G01 X-3.90394 Y-3.26796
G01 X-3.99606 Y-3.26796
G01 X-3.99638 Y-3.25740
G01 X-3.99885 Y-3.25144
G01 X-4.00341 Y-3.24688
G01 X-4.00937 Y-3.24441
G01 X-4.08740 Y-3.24409
G01 X-4.09373 Y-3.24535
G01 X-4.09659 Y-3.24688
G01 X-4.10115 Y-3.25144
G01 X-4.10268 Y-3.25430
G01 X-4.10394 Y-3.26063
G01 X-4.10393 Y-3.27232
G01 X-4.10449 Y-3.27136
G04 P0 ( dwell for no time -- G64 should not smooth over this point )
G00 Z0.08000 ( retract )

G00 X-4.10449 Y-3.27136 ( rapid move to begin. )
G01 F180.00000
G01 Z-0.04000
G04 P0 ( dwell for no time -- G64 should not smooth over this point )
G01 F360.00000
G01 X-4.10449 Y-3.27136
G01 X-4.10954 Y-3.25555
G01 X-4.11988 Y-3.24783
G01 X-4.12915 Y-3.24357
G01 X-4.14370 Y-3.24009
G01 X-4.15630 Y-3.24009
G01 X-4.16631 Y-3.24209
G01 X-4.17799 Y-3.24675
G01 X-4.18845 Y-3.25373
G01 X-4.19200 Y-3.25692
G01 X-4.20003 Y-3.26660
G01 X-4.20394 Y-3.27337
G01 X-4.20830 Y-3.28517
G01 X-4.20933 Y-3.29015
G01 X-4.44611 Y-3.29015
G01 X-4.44701 Y-3.28937
G01 X-4.55300 Y-3.28937
G01 X-4.56061 Y-3.29688
G01 X-4.56638 Y-3.30567
G01 X-4.56872 Y-3.31094
G01 X-4.57140 Y-3.32111
G01 X-4.57190 Y-3.33162
G01 X-4.57140 Y-3.33637
G01 X-4.56872 Y-3.34654
G01 X-4.56529 Y-3.35394
G01 X-4.55741 Y-3.36415
G01 X-4.55127 Y-3.36951
G01 X-4.53992 Y-3.37563
G01 X-4.53213 Y-3.37803
G01 X-4.52404 Y-3.37901
G01 X-4.47835 Y-3.37913
G01 X-4.47023 Y-3.37841
G01 X-4.46556 Y-3.37741
G01 X-4.45572 Y-3.37369
G01 X-4.44611 Y-3.36732
G01 X-4.17650 Y-3.36721
G01 X-4.16608 Y-3.36514
G01 X-4.16195 Y-3.36343
G01 X-4.15614 Y-3.35991
G01 X-4.14370 Y-3.35991
G01 X-4.12915 Y-3.35643
G01 X-4.11988 Y-3.35217
G01 X-4.10954 Y-3.34445
G01 X-4.10401 Y-3.32780
G01 X-4.10957 Y-3.34457
G01 X-4.10639 Y-3.35206
G01 X-4.10355 Y-3.35552
G01 X-4.10009 Y-3.35836
G01 X-4.09614 Y-3.36047
G01 X-4.09186 Y-3.36177
G01 X-4.08740 Y-3.36220
G01 X-4.01260 Y-3.36220
G01 X-4.00814 Y-3.36177
G01 X-4.00386 Y-3.36047
G01 X-3.99991 Y-3.35836
G01 X-3.99645 Y-3.35552
G01 X-3.99361 Y-3.35206
G01 X-3.99150 Y-3.34811
G01 X-3.99020 Y-3.34382
G01 X-3.98976 Y-3.33833
G01 X-3.91024 Y-3.33833
G01 X-3.90980 Y-3.34382
G01 X-3.90850 Y-3.34811
G01 X-3.90639 Y-3.35206
G01 X-3.90355 Y-3.35552
G01 X-3.90009 Y-3.35836
G01 X-3.89614 Y-3.36047
G01 X-3.88833 Y-3.36211
G01 X-3.88822 Y-3.37261
G01 X-3.88705 Y-3.38002
G01 X-3.88303 Y-3.38975
G01 X-3.87861 Y-3.39582
G01 X-3.84467 Y-3.42934
G01 X-3.83827 Y-3.43326
G01 X-3.83413 Y-3.43497
G01 X-3.82683 Y-3.43673
G01 X-3.82157 Y-3.43713
G01 X-3.34933 Y-3.43713
G01 X-3.34406 Y-3.43673
G01 X-3.33677 Y-3.43497
G01 X-3.33263 Y-3.43326
G01 X-3.32623 Y-3.42934
G01 X-3.32222 Y-3.42591
G01 X-3.14104 Y-3.24473
G01 X-3.13761 Y-3.24072
G01 X-3.13369 Y-3.23432
G01 X-3.13110 Y-3.22728
G01 X-3.12981 Y-3.21762
G01 X-3.14871 Y-3.21762
G01 X-3.14918 Y-3.22179
G01 X-3.15036 Y-3.22541
G01 X-3.15441 Y-3.23137
G01 X-3.33558 Y-3.41254
G01 X-3.34154 Y-3.41659
G01 X-3.34592 Y-3.41792
G01 X-3.82498 Y-3.41792
G01 X-3.82936 Y-3.41659
G01 X-3.83503 Y-3.41280
G01 X-3.86593 Y-3.38148
G01 X-3.86809 Y-3.37744
G01 X-3.86942 Y-3.37075
G01 X-3.86944 Y-3.34331
G01 X-3.88740 Y-3.34331
G01 X-3.89018 Y-3.34215
G01 X-3.89134 Y-3.33937
G01 X-3.89134 Y-3.31944
G01 X-4.00866 Y-3.31944
G01 X-4.00874 Y-3.34014
G01 X-4.00981 Y-3.34215
G01 X-4.01183 Y-3.34323
G01 X-4.08740 Y-3.34331
G01 X-4.09018 Y-3.34215
G01 X-4.09134 Y-3.33937
G01 X-4.09134 Y-3.26063
G01 X-4.09068 Y-3.25844
G01 X-4.08891 Y-3.25699
G01 X-4.01183 Y-3.25677
G01 X-4.00981 Y-3.25785
G01 X-4.00874 Y-3.25986
G01 X-4.00866 Y-3.28056
G01 X-3.89134 Y-3.28056
G01 X-3.89126 Y-3.25986
G01 X-3.89067 Y-3.25844
G01 X-3.88891 Y-3.25699
G01 X-3.81260 Y-3.25669
G01 X-3.80981 Y-3.25785
G01 X-3.80866 Y-3.26063
G01 X-3.80874 Y-3.34014
G01 X-3.80981 Y-3.34215
G01 X-3.81183 Y-3.34323
G01 X-3.83056 Y-3.34331
G01 X-3.83056 Y-3.36232
G01 X-3.81352 Y-3.37936
G01 X-3.35738 Y-3.37936
G01 X-3.18759 Y-3.20957
G01 X-3.18759 Y-2.81876
G01 X-3.21876 Y-2.78759
G01 X-3.57295 Y-2.78759
G01 X-3.57712 Y-2.78712
G01 X-3.58342 Y-2.78451
G01 X-3.58669 Y-2.78189
G01 X-3.72315 Y-2.64544
G01 X-3.74216 Y-2.64544
G01 X-3.74216 Y-2.69490
G01 X-3.74283 Y-2.69709
G01 X-3.74459 Y-2.69854
G01 X-3.88541 Y-2.69854
G01 X-3.88717 Y-2.69709
G01 X-3.88784 Y-2.69490
G01 X-3.88784 Y-2.58065
G01 X-3.92716 Y-2.54133
G01 X-3.92716 Y-2.57680
G01 X-3.92783 Y-2.57899
G01 X-3.93033 Y-2.58066
G01 X-4.06890 Y-2.58074
G01 X-4.07109 Y-2.58007
G01 X-4.07217 Y-2.57899
G01 X-4.07284 Y-2.57680
G01 X-4.07284 Y-2.43900
G01 X-4.07217 Y-2.43681
G01 X-4.06967 Y-2.43514
G01 X-3.93110 Y-2.43506
G01 X-3.92891 Y-2.43573
G01 X-3.92783 Y-2.43681
G01 X-3.92716 Y-2.43900
G01 X-3.92716 Y-2.48947
G01 X-3.92263 Y-2.49154
G01 X-3.91935 Y-2.49416
G01 X-3.86035 Y-2.55316
G01 X-3.74610 Y-2.55316
G01 X-3.74391 Y-2.55383
G01 X-3.74283 Y-2.55491
G01 X-3.74216 Y-2.55710
G01 X-3.74216 Y-2.60656
G01 X-3.71471 Y-2.60658
G01 X-3.70803 Y-2.60791
G01 X-3.70399 Y-2.61007
G01 X-3.56490 Y-2.74871
G01 X-3.21071 Y-2.74871
G01 X-3.20364 Y-2.75006
G01 X-3.19725 Y-2.75415
G01 X-3.15441 Y-2.79697
G01 X-3.15036 Y-2.80292
G01 X-3.14903 Y-2.80730
G01 X-3.14871 Y-3.21762
G04 P0 ( dwell for no time -- G64 should not smooth over this point )
G00 Z0.08000 ( retract )

G00 X-3.12981 Y-3.21762 ( rapid move to begin. )
G01 F180.00000
G01 Z-0.04000
G04 P0 ( dwell for no time -- G64 should not smooth over this point )
G01 F360.00000
G01 X-3.12981 Y-3.21762
G01 X-3.12981 Y-2.81071
G01 X-3.13022 Y-2.80545
G01 X-3.13198 Y-2.79815
G01 X-3.13369 Y-2.79402
G01 X-3.13954 Y-2.78526
G01 X-3.18761 Y-2.73761
G01 X-3.19134 Y-2.73512
G01 X-3.19815 Y-2.73198
G01 X-3.20545 Y-2.73022
G01 X-3.21071 Y-2.72981
G01 X-3.55707 Y-2.72981
G01 X-3.68763 Y-2.59926
G01 X-3.67896 Y-2.60494
G01 X-3.66691 Y-2.60976
G01 X-3.65650 Y-2.61184
G01 X-3.64350 Y-2.61184
G01 X-3.62855 Y-2.60828
G01 X-3.61690 Y-2.60255
G01 X-3.61025 Y-2.59772
G01 X-3.60135 Y-2.58858
G01 X-3.29865 Y-2.58858
G01 X-3.28975 Y-2.59772
G01 X-3.28310 Y-2.60255
G01 X-3.27145 Y-2.60828
G01 X-3.25650 Y-2.61184
G01 X-3.24350 Y-2.61184
G01 X-3.23309 Y-2.60976
G01 X-3.22104 Y-2.60494
G01 X-3.21025 Y-2.59772
G01 X-3.20670 Y-2.59452
G01 X-3.19969 Y-2.58655
G01 X-3.19233 Y-2.57306
G01 X-3.18880 Y-2.56057
G01 X-3.18782 Y-2.55000
G01 X-3.18880 Y-2.53943
G01 X-3.19233 Y-2.52694
G01 X-3.19969 Y-2.51345
G01 X-3.20670 Y-2.50548
G01 X-3.21025 Y-2.50228
G01 X-3.22104 Y-2.49506
G01 X-3.23309 Y-2.49024
G01 X-3.24350 Y-2.48816
G01 X-3.25650 Y-2.48816
G01 X-3.27145 Y-2.49172
G01 X-3.28310 Y-2.49745
G01 X-3.28975 Y-2.50228
G01 X-3.29865 Y-2.51141
G01 X-3.60135 Y-2.51141
G01 X-3.60839 Y-2.50379
G01 X-3.61690 Y-2.49745
G01 X-3.62855 Y-2.49172
G01 X-3.64350 Y-2.48816
G01 X-3.65748 Y-2.48831
G01 X-3.77105 Y-2.37489
G01 X-3.77712 Y-2.37047
G01 X-3.78394 Y-2.36733
G01 X-3.79124 Y-2.36557
G01 X-3.79650 Y-2.36517
G01 X-4.15350 Y-2.36517
G01 X-4.15876 Y-2.36557
G01 X-4.16606 Y-2.36733
G01 X-4.17019 Y-2.36904
G01 X-4.17660 Y-2.37296
G01 X-4.18061 Y-2.37639
G01 X-4.29252 Y-2.48831
G01 X-4.30650 Y-2.48816
G01 X-4.32145 Y-2.49172
G01 X-4.33310 Y-2.49745
G01 X-4.33975 Y-2.50228
G01 X-4.34865 Y-2.51141
G01 X-4.65135 Y-2.51141
G01 X-4.66025 Y-2.50228
G01 X-4.66690 Y-2.49745
G01 X-4.67855 Y-2.49172
G01 X-4.69350 Y-2.48816
G01 X-4.70650 Y-2.48816
G01 X-4.71691 Y-2.49024
G01 X-4.72896 Y-2.49506
G01 X-4.73975 Y-2.50228
G01 X-4.75031 Y-2.51345
G01 X-4.75681 Y-2.52471
G01 X-4.76021 Y-2.53476
G01 X-4.76206 Y-2.54761
G01 X-4.76120 Y-2.56057
G01 X-4.75767 Y-2.57306
G01 X-4.75161 Y-2.58455
G01 X-4.74880 Y-2.58841
G01 X-4.73975 Y-2.59772
G01 X-4.73109 Y-2.60385
G01 X-4.72145 Y-2.60828
G01 X-4.70650 Y-2.61184
G01 X-4.69350 Y-2.61184
G01 X-4.67855 Y-2.60828
G01 X-4.66690 Y-2.60255
G01 X-4.66025 Y-2.59772
G01 X-4.65135 Y-2.58858
G01 X-4.34865 Y-2.58858
G01 X-4.33975 Y-2.59772
G01 X-4.33310 Y-2.60255
G01 X-4.32145 Y-2.60828
G01 X-4.31691 Y-2.60976
G01 X-4.30650 Y-2.61184
G01 X-4.29350 Y-2.61184
G01 X-4.28309 Y-2.60976
G01 X-4.27387 Y-2.60620
G01 X-4.09173 Y-2.69727
G01 X-4.09173 Y-2.79985
G01 X-4.08629 Y-2.81300
G01 X-4.08329 Y-2.81870
G01 X-4.07939 Y-2.82349
G01 X-4.07460 Y-2.82739
G01 X-4.06890 Y-2.83039
G01 X-4.05575 Y-2.83583
G01 X-3.93110 Y-2.83583
G01 X-3.92665 Y-2.83540
G01 X-3.92236 Y-2.83410
G01 X-3.91841 Y-2.83199
G01 X-3.91495 Y-2.82915
G01 X-3.91211 Y-2.82569
G01 X-3.91000 Y-2.82174
G01 X-3.90870 Y-2.81745
G01 X-3.90827 Y-2.81300
G01 X-3.90827 Y-2.67520
G01 X-3.90870 Y-2.67075
G01 X-3.91000 Y-2.66646
G01 X-3.91211 Y-2.66251
G01 X-3.91495 Y-2.65905
G01 X-3.91841 Y-2.65621
G01 X-3.92236 Y-2.65410
G01 X-3.92665 Y-2.65280
G01 X-3.93110 Y-2.65237
G01 X-4.00899 Y-2.65237
G01 X-4.23510 Y-2.53931
G01 X-4.13762 Y-2.44183
G01 X-4.09173 Y-2.44183
G01 X-4.08390 Y-2.43462
G01 X-4.07890 Y-2.43150
G01 X-4.07390 Y-2.42962
G01 X-4.06890 Y-2.42900
G01 X-3.93110 Y-2.42900
G01 X-3.92610 Y-2.42962
G01 X-3.92110 Y-2.43150
G01 X-3.91610 Y-2.43462
G01 X-3.90826 Y-2.44183
G01 X-3.81238 Y-2.44183
G01 X-3.71154 Y-2.54267
G01 X-3.71218 Y-2.55000
G01 X-3.71120 Y-2.56057
G01 X-3.70766 Y-2.57306
G01 X-3.70031 Y-2.58655
G01 X-3.69340 Y-2.59441
G01 X-3.68763 Y-2.59926
G01 X-3.69572 Y-2.59297
G01 X-3.70254 Y-2.58983
G01 X-3.70984 Y-2.58807
G01 X-3.72327 Y-2.58766
G01 X-3.72370 Y-2.55265
G01 X-3.72500 Y-2.54836
G01 X-3.72711 Y-2.54441
G01 X-3.72995 Y-2.54095
G01 X-3.73341 Y-2.53811
G01 X-3.73736 Y-2.53600
G01 X-3.74165 Y-2.53470
G01 X-3.74610 Y-2.53426
G01 X-3.85252 Y-2.53426
G01 X-3.90827 Y-2.47879
G01 X-3.90826 Y-2.44183
G01 X-3.91610 Y-2.43462
G01 X-3.92110 Y-2.43150
G01 X-3.92610 Y-2.42962
G01 X-3.93110 Y-2.42900
G01 X-4.06890 Y-2.42900
G01 X-4.07251 Y-2.42945
G04 P0 ( dwell for no time -- G64 should not smooth over this point )
G00 Z0.08000 ( retract )

G00 X-4.07251 Y-2.42945 ( rapid move to begin. )
G01 F180.00000
G01 Z-0.04000
G04 P0 ( dwell for no time -- G64 should not smooth over this point )
G01 F360.00000
G01 X-4.07251 Y-2.42945
G01 X-4.07459 Y-2.43049
G01 X-4.07741 Y-2.43331
G01 X-4.07914 Y-2.43900
G01 X-4.07914 Y-2.57680
G01 X-4.07741 Y-2.58249
G01 X-4.07282 Y-2.58626
G01 X-4.06890 Y-2.58704
G01 X-3.92910 Y-2.58684
G01 X-3.92386 Y-2.58404
G01 X-3.92106 Y-2.57880
G01 X-3.92086 Y-2.55653
G01 X-3.89414 Y-2.58326
G01 X-3.89414 Y-2.69490
G01 X-3.89241 Y-2.70059
G01 X-3.88782 Y-2.70436
G01 X-3.88390 Y-2.70514
G01 X-3.74610 Y-2.70514
G01 X-3.74218 Y-2.70436
G01 X-3.73886 Y-2.70214
G01 X-3.73606 Y-2.69690
G01 X-3.73586 Y-2.65174
G01 X-3.72576 Y-2.65174
G01 X-3.59115 Y-2.78635
G01 X-3.58639 Y-2.79006
G01 X-3.57895 Y-2.79315
G01 X-3.57295 Y-2.79389
G01 X-3.22137 Y-2.79389
G01 X-3.19389 Y-2.82137
G01 X-3.19389 Y-3.20696
G01 X-3.35999 Y-3.37306
G01 X-3.81091 Y-3.37306
G01 X-3.82426 Y-3.35971
G01 X-3.82426 Y-3.34961
G01 X-3.81260 Y-3.34961
G01 X-3.80868 Y-3.34883
G01 X-3.80536 Y-3.34661
G01 X-3.80256 Y-3.34137
G01 X-3.80256 Y-3.25863
G01 X-3.80409 Y-3.25494
G01 X-3.80691 Y-3.25212
G01 X-3.81260 Y-3.25039
G01 X-3.88940 Y-3.25059
G01 X-3.89309 Y-3.25212
G01 X-3.89686 Y-3.25671
G01 X-3.89764 Y-3.26063
G01 X-3.89764 Y-3.27426
G01 X-4.00236 Y-3.27426
G01 X-4.00236 Y-3.26063
G01 X-4.00314 Y-3.25671
G01 X-4.00691 Y-3.25212
G01 X-4.01060 Y-3.25059
G01 X-4.08740 Y-3.25039
G01 X-4.09132 Y-3.25117
G01 X-4.09591 Y-3.25494
G01 X-4.09764 Y-3.26063
G01 X-4.09764 Y-3.33937
G01 X-4.09686 Y-3.34329
G01 X-4.09464 Y-3.34661
G01 X-4.09132 Y-3.34883
G01 X-4.08740 Y-3.34961
G01 X-4.01060 Y-3.34941
G01 X-4.00691 Y-3.34788
G01 X-4.00314 Y-3.34329
G01 X-4.00236 Y-3.33937
G01 X-4.00236 Y-3.32574
G01 X-3.89764 Y-3.32574
G01 X-3.89744 Y-3.34137
G01 X-3.89464 Y-3.34661
G01 X-3.88940 Y-3.34941
G01 X-3.87574 Y-3.34961
G01 X-3.87539 Y-3.37440
G01 X-3.87412 Y-3.37927
G01 X-3.87080 Y-3.38548
G01 X-3.83902 Y-3.41767
G01 X-3.83233 Y-3.42215
G01 X-3.82560 Y-3.42419
G01 X-3.34530 Y-3.42419
G01 X-3.33857 Y-3.42215
G01 X-3.33113 Y-3.41700
G01 X-3.14995 Y-3.23582
G01 X-3.14623 Y-3.23106
G01 X-3.14403 Y-3.22653
G01 X-3.14241 Y-3.21762
G01 X-3.14276 Y-2.80668
G01 X-3.14480 Y-2.79996
G01 X-3.14928 Y-2.79326
G01 X-3.19326 Y-2.74928
G01 X-3.19727 Y-2.74623
G01 X-3.20181 Y-2.74403
G01 X-3.21071 Y-2.74241
G01 X-3.56229 Y-2.74241
G01 X-3.69999 Y-2.60520
G01 X-3.70620 Y-2.60188
G01 X-3.71107 Y-2.60061
G01 X-3.73586 Y-2.60026
G01 X-3.73586 Y-2.55710
G01 X-3.73664 Y-2.55318
G01 X-3.74041 Y-2.54859
G01 X-3.74610 Y-2.54686
G01 X-3.85774 Y-2.54686
G01 X-3.91490 Y-2.48970
G01 X-3.92086 Y-2.48534
G01 X-3.92086 Y-2.43900
G01 X-3.92164 Y-2.43508
G01 X-3.92541 Y-2.43049
G01 X-3.92920 Y-2.42924
G01 X-4.07080 Y-2.42924
G04 P0 ( dwell for no time -- G64 should not smooth over this point )
G00 Z0.08000 ( retract )

G00 X-4.07080 Y-2.42924 ( rapid move to begin. )
G01 F180.00000
G01 Z-0.04000
G04 P0 ( dwell for no time -- G64 should not smooth over this point )
G01 F360.00000
G01 X-4.07080 Y-2.42924
G01 X-4.14284 Y-2.42924
G01 X-4.25189 Y-2.53829
G01 X-4.25083 Y-2.54553
G01 X-4.01197 Y-2.66496
G01 X-3.93110 Y-2.66496
G01 X-3.92718 Y-2.66574
G01 X-3.92386 Y-2.66796
G01 X-3.92106 Y-2.67320
G01 X-3.92086 Y-2.81300
G01 X-3.92164 Y-2.81692
G01 X-3.92386 Y-2.82024
G01 X-3.92718 Y-2.82246
G01 X-3.93110 Y-2.82324
G01 X-4.06890 Y-2.82324
G01 X-4.07282 Y-2.82246
G01 X-4.07614 Y-2.82024
G01 X-4.07836 Y-2.81692
G01 X-4.07914 Y-2.81300
G01 X-4.07914 Y-2.68948
G01 X-4.27393 Y-2.59209
G01 X-4.28368 Y-2.59678
G01 X-4.29482 Y-2.59931
G01 X-4.30518 Y-2.59931
G01 X-4.31429 Y-2.59744
G01 X-4.32479 Y-2.59294
G01 X-4.33235 Y-2.58752
G01 X-4.33944 Y-2.57998
G01 X-4.34199 Y-2.57599
G01 X-4.65801 Y-2.57599
G01 X-4.65986 Y-2.57912
G01 X-4.66606 Y-2.58609
G01 X-4.67616 Y-2.59343
G01 X-4.68368 Y-2.59678
G01 X-4.69376 Y-2.59915
G01 X-4.70518 Y-2.59931
G01 X-4.71632 Y-2.59678
G01 X-4.72479 Y-2.59294
G01 X-4.73394 Y-2.58609
G01 X-4.74070 Y-2.57825
G01 X-4.74568 Y-2.56917
G01 X-4.74867 Y-2.55925
G01 X-4.74953 Y-2.55107
G01 X-4.74867 Y-2.54075
G01 X-4.74530 Y-2.52983
G01 X-4.73944 Y-2.52002
G01 X-4.73394 Y-2.51391
G01 X-4.72569 Y-2.50764
G01 X-4.71632 Y-2.50322
G01 X-4.70411 Y-2.50063
G01 X-4.69482 Y-2.50068
G01 X-4.68571 Y-2.50256
G01 X-4.67616 Y-2.50657
G01 X-4.66606 Y-2.51391
G01 X-4.65986 Y-2.52088
G01 X-4.65801 Y-2.52401
G01 X-4.34199 Y-2.52401
G01 X-4.33944 Y-2.52002
G01 X-4.33235 Y-2.51247
G01 X-4.32479 Y-2.50706
G01 X-4.31632 Y-2.50322
G01 X-4.30411 Y-2.50063
G01 X-4.29482 Y-2.50068
G01 X-4.28839 Y-2.50199
G01 X-4.17170 Y-2.38530
G01 X-4.16693 Y-2.38158
G01 X-4.15949 Y-2.37850
G01 X-4.15350 Y-2.37776
G01 X-3.79650 Y-2.37776
G01 X-3.78760 Y-2.37938
G01 X-3.78306 Y-2.38158
G01 X-3.77830 Y-2.38530
G01 X-3.66161 Y-2.50199
G01 X-3.65518 Y-2.50068
G01 X-3.64589 Y-2.50063
G01 X-3.63368 Y-2.50322
G01 X-3.62616 Y-2.50657
G01 X-3.61765 Y-2.51247
G01 X-3.61056 Y-2.52002
G01 X-3.60801 Y-2.52401
G01 X-3.29198 Y-2.52401
G01 X-3.28944 Y-2.52002
G01 X-3.28318 Y-2.51315
G01 X-3.27384 Y-2.50657
G01 X-3.26429 Y-2.50256
G01 X-3.25518 Y-2.50068
G01 X-3.24589 Y-2.50063
G01 X-3.23368 Y-2.50322
G01 X-3.22521 Y-2.50706
G01 X-3.21765 Y-2.51247
G01 X-3.20988 Y-2.52085
G01 X-3.20432 Y-2.53083
G01 X-3.20133 Y-2.54075
G01 X-3.20041 Y-2.55000
G01 X-3.20671 Y-2.55000
G01 X-3.20759 Y-2.55859
G01 X-3.21031 Y-2.56722
G01 X-3.21498 Y-2.57544
G01 X-3.22074 Y-2.58188
G01 X-3.22836 Y-2.58749
G01 X-3.23702 Y-2.59127
G01 X-3.24547 Y-2.59305
G01 X-3.25452 Y-2.59305
G01 X-3.26298 Y-2.59127
G01 X-3.27164 Y-2.58749
G01 X-3.27926 Y-2.58188
G01 X-3.28503 Y-2.57543
G01 X-3.28832 Y-2.56969
G01 X-3.61168 Y-2.56969
G01 X-3.61497 Y-2.57543
G01 X-3.62074 Y-2.58188
G01 X-3.62836 Y-2.58749
G01 X-3.63702 Y-2.59127
G01 X-3.64547 Y-2.59305
G01 X-3.65452 Y-2.59305
G01 X-3.66298 Y-2.59127
G01 X-3.67164 Y-2.58749
G01 X-3.67864 Y-2.58243
G01 X-3.68476 Y-2.57576
G01 X-3.68954 Y-2.56761
G01 X-3.69240 Y-2.55859
G01 X-3.69326 Y-2.54959
G01 X-3.69240 Y-2.54141
G01 X-3.69092 Y-2.53656
G01 X-3.80455 Y-2.42294
G01 X-4.14545 Y-2.42294
G01 X-4.25908 Y-2.53656
G01 X-4.25759 Y-2.54141
G01 X-4.25673 Y-2.54962
G01 X-4.01345 Y-2.67126
G01 X-3.93110 Y-2.67126
G01 X-3.92891 Y-2.67193
G01 X-3.92724 Y-2.67443
G01 X-3.92716 Y-2.81300
G01 X-3.92832 Y-2.81578
G01 X-3.93110 Y-2.81694
G01 X-4.06890 Y-2.81694
G01 X-4.07168 Y-2.81578
G01 X-4.07284 Y-2.81300
G01 X-4.07284 Y-2.68559
G01 X-4.27454 Y-2.58474
G01 X-4.27872 Y-2.58767
G01 X-4.28624 Y-2.59102
G01 X-4.29507 Y-2.59299
G01 X-4.30411 Y-2.59307
G01 X-4.31298 Y-2.59127
G01 X-4.32128 Y-2.58767
G01 X-4.32864 Y-2.58243
G01 X-4.33503 Y-2.57543
G01 X-4.33832 Y-2.56969
G01 X-4.66168 Y-2.56969
G01 X-4.66497 Y-2.57543
G01 X-4.67074 Y-2.58188
G01 X-4.67872 Y-2.58767
G01 X-4.68662 Y-2.59117
G01 X-4.69507 Y-2.59299
G01 X-4.70493 Y-2.59299
G01 X-4.71338 Y-2.59117
G01 X-4.72199 Y-2.58726
G01 X-4.72926 Y-2.58188
G01 X-4.73524 Y-2.57510
G01 X-4.73936 Y-2.56797
G01 X-4.74223 Y-2.55940
G01 X-4.74327 Y-2.55041
G01 X-4.74240 Y-2.54141
G01 X-4.73954 Y-2.53239
G01 X-4.73476 Y-2.52424
G01 X-4.72926 Y-2.51812
G01 X-4.72199 Y-2.51274
G01 X-4.71338 Y-2.50883
G01 X-4.70411 Y-2.50693
G01 X-4.69589 Y-2.50693
G01 X-4.68702 Y-2.50872
G01 X-4.67872 Y-2.51233
G01 X-4.67074 Y-2.51812
G01 X-4.66497 Y-2.52457
G01 X-4.66168 Y-2.53031
G01 X-4.33832 Y-2.53031
G01 X-4.33503 Y-2.52457
G01 X-4.32864 Y-2.51757
G01 X-4.32199 Y-2.51274
G01 X-4.31376 Y-2.50898
G01 X-4.30411 Y-2.50693
G01 X-4.29507 Y-2.50701
G01 X-4.28640 Y-2.50892
G01 X-4.16724 Y-2.38976
G01 X-4.16397 Y-2.38714
G01 X-4.15767 Y-2.38453
G01 X-4.15350 Y-2.38406
G01 X-3.79650 Y-2.38406
G01 X-3.79233 Y-2.38453
G01 X-3.78871 Y-2.38571
G01 X-3.78275 Y-2.38976
G01 X-3.66359 Y-2.50892
G01 X-3.65452 Y-2.50695
G01 X-3.64589 Y-2.50693
G01 X-3.63624 Y-2.50898
G01 X-3.62836 Y-2.51251
G01 X-3.62135 Y-2.51757
G01 X-3.61497 Y-2.52457
G01 X-3.61168 Y-2.53031
G01 X-3.28832 Y-2.53031
G01 X-3.28503 Y-2.52457
G01 X-3.27926 Y-2.51812
G01 X-3.27164 Y-2.51251
G01 X-3.26298 Y-2.50872
G01 X-3.25452 Y-2.50695
G01 X-3.24589 Y-2.50693
G01 X-3.23624 Y-2.50898
G01 X-3.22836 Y-2.51251
G01 X-3.22074 Y-2.51812
G01 X-3.21498 Y-2.52456
G01 X-3.21046 Y-2.53239
G01 X-3.20777 Y-2.54060
G01 X-3.20671 Y-2.55000
G04 P0 ( dwell for no time -- G64 should not smooth over this point )
G00 Z0.08000 ( retract )

G00 X-3.43955 Y-2.80647 ( rapid move to begin. )
G01 F180.00000
G01 Z-0.04000
G04 P0 ( dwell for no time -- G64 should not smooth over this point )
G01 F360.00000
G01 X-3.43955 Y-2.80647
G01 X-3.43955 Y-2.80647
G04 P0 ( dwell for no time -- G64 should not smooth over this point )
G00 Z0.08000 ( retract )

G00 X-3.43955 Y-2.80647 ( rapid move to begin. )
G01 F180.00000
G01 Z-0.04000
G04 P0 ( dwell for no time -- G64 should not smooth over this point )
G01 F360.00000
G01 X-3.43955 Y-2.80647
G01 X-3.44458 Y-2.81172
G01 X-3.44669 Y-2.81567
G01 X-3.44799 Y-2.81995
G01 X-3.44842 Y-2.82441
G01 X-3.44842 Y-2.87559
G01 X-3.44799 Y-2.88004
G01 X-3.44669 Y-2.88433
G01 X-3.44458 Y-2.88828
G01 X-3.44174 Y-2.89174
G01 X-3.43828 Y-2.89458
G01 X-3.43433 Y-2.89669
G01 X-3.43004 Y-2.89799
G01 X-3.42559 Y-2.89843
G01 X-3.37441 Y-2.89843
G01 X-3.36995 Y-2.89799
G01 X-3.36567 Y-2.89669
G01 X-3.36058 Y-2.89364
G01 X-3.31154 Y-2.94267
G01 X-3.31218 Y-2.95000
G01 X-3.31120 Y-2.96057
G01 X-3.30767 Y-2.97306
G01 X-3.30031 Y-2.98655
G01 X-3.29330 Y-2.99452
G01 X-3.28833 Y-2.99875
G01 X-3.28833 Y-3.16433
G01 X-3.33567 Y-3.21166
G01 X-3.34583 Y-3.21166
G01 X-3.34700 Y-3.21063
G01 X-3.33939 Y-3.20312
G01 X-3.33470 Y-3.19646
G01 X-3.32980 Y-3.18452
G01 X-3.32810 Y-3.17414
G01 X-3.33440 Y-3.17414
G01 X-3.33449 Y-3.16665
G01 X-3.33703 Y-3.15602
G01 X-3.34016 Y-3.14921
G01 X-3.34680 Y-3.14053
G01 X-3.35243 Y-3.13559
G01 X-3.36203 Y-3.13036
G01 X-3.36918 Y-3.12813
G01 X-3.37835 Y-3.12717
G01 X-3.42165 Y-3.12717
G01 X-3.43082 Y-3.12813
G01 X-3.44113 Y-3.13176
G01 X-3.44757 Y-3.13559
G01 X-3.45147 Y-3.13897
G01 X-4.02943 Y-3.13897
G01 X-4.26771 Y-2.90069
G01 X-4.26810 Y-2.84531
G01 X-4.26962 Y-2.83917
G01 X-4.27232 Y-2.83345
G01 X-4.27608 Y-2.82837
G01 X-4.28076 Y-2.82412
G01 X-4.28551 Y-2.82125
G01 X-4.28311 Y-2.82168
G01 X-4.26893 Y-2.82724
G01 X-4.28603 Y-2.82095
G01 X-4.17016 Y-2.82094
G01 X-4.01845 Y-2.97265
G01 X-4.01221 Y-2.97747
G01 X-4.00653 Y-2.98014
G01 X-4.00044 Y-2.98166
G01 X-3.99580 Y-2.98204
G01 X-3.69574 Y-2.98204
G01 X-3.68862 Y-2.99031
G01 X-3.67794 Y-2.99840
G01 X-3.66560 Y-3.00360
G01 X-3.65411 Y-3.00567
G01 X-3.64416 Y-3.00558
G01 X-3.63111 Y-3.00253
G01 X-3.62206 Y-2.99840
G01 X-3.61395 Y-2.99262
G01 X-3.60426 Y-2.98204
G01 X-3.59680 Y-2.98196
G01 X-3.59060 Y-2.98102
G01 X-3.58470 Y-2.97890
G01 X-3.57932 Y-2.97567
G01 X-3.49503 Y-2.89191
G01 X-3.48708 Y-2.89051
G01 X-3.47890 Y-2.88727
G01 X-3.46901 Y-2.88008
G01 X-3.46434 Y-2.87476
G01 X-3.46073 Y-2.86868
G01 X-3.45722 Y-2.85876
G01 X-3.45639 Y-2.85173
G01 X-3.45722 Y-2.84124
G01 X-3.46073 Y-2.83132
G01 X-3.46434 Y-2.82524
G01 X-3.47158 Y-2.81760
G01 X-3.47890 Y-2.81273
G01 X-3.48541 Y-2.80993
G01 X-3.49575 Y-2.80801
G01 X-3.50454 Y-2.80837
G01 X-3.50977 Y-2.80949
G01 X-3.51795 Y-2.81273
G01 X-3.52784 Y-2.81992
G01 X-3.53251 Y-2.82524
G01 X-3.53612 Y-2.83132
G01 X-3.53918 Y-2.83957
G01 X-3.54028 Y-2.84655
G01 X-3.60761 Y-2.91388
G01 X-3.61260 Y-2.90847
G01 X-3.62060 Y-2.90254
G01 X-3.63111 Y-2.89747
G01 X-3.64416 Y-2.89442
G01 X-3.65411 Y-2.89433
G01 X-3.66560 Y-2.89640
G01 X-3.67794 Y-2.90160
G01 X-3.68862 Y-2.90969
G01 X-3.69574 Y-2.91796
G01 X-3.98253 Y-2.91796
G01 X-4.07145 Y-2.82905
G01 X-4.07460 Y-2.82739
G01 X-4.07939 Y-2.82349
G01 X-4.08329 Y-2.81870
G01 X-4.08524 Y-2.81499
G01 X-4.08544 Y-2.69338
G01 X-4.27372 Y-2.59924
G01 X-4.28440 Y-2.60360
G01 X-4.29416 Y-2.60558
G01 X-4.30584 Y-2.60558
G01 X-4.31560 Y-2.60360
G01 X-4.32939 Y-2.59746
G01 X-4.33862 Y-2.59031
G01 X-4.34558 Y-2.58229
G01 X-4.65442 Y-2.58229
G01 X-4.66395 Y-2.59262
G01 X-4.67360 Y-2.59918
G01 X-4.68440 Y-2.60360
G01 X-4.69245 Y-2.60531
G01 X-4.70584 Y-2.60558
G01 X-4.71889 Y-2.60253
G01 X-4.72939 Y-2.59746
G01 X-4.73862 Y-2.59031
G01 X-4.74521 Y-2.58285
G01 X-4.75027 Y-2.57427
G01 X-4.75422 Y-2.56329
G01 X-4.75579 Y-2.55173
G01 X-4.75493 Y-2.54009
G01 X-4.75105 Y-2.52727
G01 X-4.74412 Y-2.51581
G01 X-4.73862 Y-2.50969
G01 X-4.72939 Y-2.50254
G01 X-4.71560 Y-2.49640
G01 X-4.70411 Y-2.49433
G01 X-4.69416 Y-2.49442
G01 X-4.68440 Y-2.49640
G01 X-4.67360 Y-2.50082
G01 X-4.66395 Y-2.50738
G01 X-4.65442 Y-2.51771
G01 X-4.34558 Y-2.51771
G01 X-4.33605 Y-2.50738
G01 X-4.32794 Y-2.50160
G01 X-4.31888 Y-2.49747
G01 X-4.30584 Y-2.49442
G01 X-4.29589 Y-2.49433
G01 X-4.29043 Y-2.49512
G01 X-4.17615 Y-2.38085
G01 X-4.17260 Y-2.37783
G01 X-4.16723 Y-2.37460
G01 X-4.15814 Y-2.37184
G01 X-3.79185 Y-2.37184
G01 X-3.78577 Y-2.37336
G01 X-3.78009 Y-2.37603
G01 X-3.77505 Y-2.37976
G01 X-3.65957 Y-2.49512
G01 X-3.65411 Y-2.49433
G01 X-3.64416 Y-2.49442
G01 X-3.63111 Y-2.49747
G01 X-3.62060 Y-2.50254
G01 X-3.61395 Y-2.50738
G01 X-3.60442 Y-2.51771
G01 X-3.29558 Y-2.51771
G01 X-3.28605 Y-2.50738
G01 X-3.27640 Y-2.50082
G01 X-3.26560 Y-2.49640
G01 X-3.25584 Y-2.49442
G01 X-3.24589 Y-2.49433
G01 X-3.23111 Y-2.49747
G01 X-3.22206 Y-2.50160
G01 X-3.21395 Y-2.50738
G01 X-3.20479 Y-2.51715
G01 X-3.19833 Y-2.52888
G01 X-3.19507 Y-2.54009
G01 X-3.19411 Y-2.55000
G01 X-3.20041 Y-2.55000
G01 X-3.20133 Y-2.55925
G01 X-3.20432 Y-2.56917
G01 X-3.20988 Y-2.57915
G01 X-3.21682 Y-2.58685
G01 X-3.22521 Y-2.59294
G01 X-3.23368 Y-2.59678
G01 X-3.24482 Y-2.59931
G01 X-3.25624 Y-2.59915
G01 X-3.26632 Y-2.59678
G01 X-3.27384 Y-2.59343
G01 X-3.28318 Y-2.58685
G01 X-3.28944 Y-2.57998
G01 X-3.29198 Y-2.57599
G01 X-3.60801 Y-2.57599
G01 X-3.61056 Y-2.57998
G01 X-3.61682 Y-2.58685
G01 X-3.62616 Y-2.59343
G01 X-3.63368 Y-2.59678
G01 X-3.64376 Y-2.59915
G01 X-3.65518 Y-2.59931
G01 X-3.66632 Y-2.59678
G01 X-3.67479 Y-2.59294
G01 X-3.68318 Y-2.58685
G01 X-3.68944 Y-2.57998
G01 X-3.69568 Y-2.56917
G01 X-3.69867 Y-2.55925
G01 X-3.69959 Y-2.55000
G01 X-3.69811 Y-2.53829
G01 X-3.80716 Y-2.42924
G01 X-3.92920 Y-2.42924
G04 P0 ( dwell for no time -- G64 should not smooth over this point )
G00 Z0.08000 ( retract )

G00 X-4.07890 Y-2.43150 ( rapid move to begin. )
G01 F180.00000
G01 Z-0.04000
G04 P0 ( dwell for no time -- G64 should not smooth over this point )
G01 F360.00000
G01 X-4.07890 Y-2.43150
G01 X-4.08509 Y-2.43572
G01 X-4.08544 Y-2.43900
G01 X-4.08544 Y-2.57680
G01 X-4.08418 Y-2.58313
G01 X-4.08265 Y-2.58599
G01 X-4.07809 Y-2.59055
G01 X-4.07523 Y-2.59208
G01 X-4.06890 Y-2.59334
G01 X-3.93110 Y-2.59334
G01 X-3.92477 Y-2.59208
G01 X-3.92191 Y-2.59055
G01 X-3.91735 Y-2.58599
G01 X-3.91488 Y-2.58003
G01 X-3.91456 Y-2.57174
G01 X-3.90043 Y-2.58587
G01 X-3.90043 Y-2.69490
G01 X-3.89918 Y-2.70123
G01 X-3.89765 Y-2.70409
G01 X-3.89559 Y-2.70659
G01 X-3.89023 Y-2.71018
G01 X-3.88390 Y-2.71143
G01 X-3.74610 Y-2.71143
G01 X-3.73977 Y-2.71018
G01 X-3.73441 Y-2.70659
G01 X-3.73082 Y-2.70123
G01 X-3.72988 Y-2.69813
G01 X-3.72956 Y-2.65803
G01 X-3.72837 Y-2.65803
G01 X-3.59560 Y-2.79080
G01 X-3.58936 Y-2.79562
G01 X-3.58077 Y-2.79917
G01 X-3.57295 Y-2.80018
G01 X-3.22398 Y-2.80018
G01 X-3.20018 Y-2.82398
G01 X-3.20018 Y-2.92495
G01 X-3.20479 Y-2.91715
G01 X-3.21138 Y-2.90969
G01 X-3.22206 Y-2.90160
G01 X-3.23440 Y-2.89640
G01 X-3.24589 Y-2.89433
G01 X-3.25584 Y-2.89442
G01 X-3.25957 Y-2.89512
G01 X-3.32735 Y-2.82735
G01 X-3.33359 Y-2.82253
G01 X-3.33927 Y-2.81986
G01 X-3.34536 Y-2.81834
G01 X-3.35920 Y-2.81796
G01 X-3.36272 Y-2.81272
G01 X-3.36522 Y-2.81066
G01 X-3.37118 Y-2.80819
G01 X-3.42882 Y-2.80819
G01 X-3.43478 Y-2.81066
G01 X-3.43934 Y-2.81522
G01 X-3.44181 Y-2.82118
G01 X-3.44212 Y-2.87559
G01 X-3.44087 Y-2.88192
G01 X-3.43728 Y-2.88728
G01 X-3.43192 Y-2.89087
G01 X-3.42559 Y-2.89213
G01 X-3.37441 Y-2.89213
G01 X-3.37118 Y-2.89181
G01 X-3.36522 Y-2.88934
G01 X-3.36061 Y-2.88469
G01 X-3.30496 Y-2.94034
G01 X-3.30588 Y-2.95000
G01 X-3.30493 Y-2.95991
G01 X-3.30167 Y-2.97111
G01 X-3.29521 Y-2.98285
G01 X-3.28862 Y-2.99031
G01 X-3.28204 Y-2.99554
G01 X-3.28204 Y-3.16694
G01 X-3.33306 Y-3.21796
G01 X-3.34825 Y-3.21796
G01 X-3.35243 Y-3.21433
G01 X-3.35865 Y-3.21063
G01 X-3.34700 Y-3.21063
G01 X-3.35865 Y-3.21063
G01 X-3.35243 Y-3.20693
G01 X-3.34680 Y-3.20199
G01 X-3.34110 Y-3.19476
G01 X-3.33703 Y-3.18650
G01 X-3.33440 Y-3.17414
G01 X-3.34070 Y-3.17414
G01 X-3.34076 Y-3.16731
G01 X-3.34278 Y-3.15858
G01 X-3.34561 Y-3.15236
G01 X-3.35102 Y-3.14521
G01 X-3.35613 Y-3.14068
G01 X-3.36397 Y-3.13635
G01 X-3.37049 Y-3.13429
G01 X-3.37835 Y-3.13346
G01 X-3.42165 Y-3.13346
G01 X-3.42951 Y-3.13429
G01 X-3.43798 Y-3.13722
G01 X-3.44387 Y-3.14068
G01 X-3.44904 Y-3.14527
G01 X-4.03204 Y-3.14527
G01 X-4.27401 Y-2.90330
G01 X-4.27437 Y-2.84592
G01 X-4.27565 Y-2.84100
G01 X-4.27788 Y-2.83642
G01 X-4.28095 Y-2.83237
G01 X-4.28475 Y-2.82899
G01 X-4.29100 Y-2.82565
G01 X-4.30000 Y-2.82401
G01 X-4.42698 Y-2.82401
G01 X-4.43276 Y-2.81956
G01 X-4.43950 Y-2.81631
G01 X-4.44846 Y-2.81457
G01 X-4.43915 Y-2.81551
G01 X-4.42513 Y-2.81933
G01 X-4.29842 Y-2.81951
G01 X-4.28551 Y-2.82125
G01 X-4.29842 Y-2.81951
G01 X-4.29545 Y-2.81952
G04 P0 ( dwell for no time -- G64 should not smooth over this point )
G00 Z0.08000 ( retract )

G00 X-4.42513 Y-2.81933 ( rapid move to begin. )
G01 F180.00000
G01 Z-0.04000
G04 P0 ( dwell for no time -- G64 should not smooth over this point )
G01 F360.00000
G01 X-4.42513 Y-2.81933
G01 X-4.29842 Y-2.81951
G01 X-4.42513 Y-2.81933
G01 X-4.43915 Y-2.81551
G01 X-4.44678 Y-2.81459
G01 X-4.45819 Y-2.81497
G01 X-4.46365 Y-2.81631
G01 X-4.47039 Y-2.81956
G01 X-4.47555 Y-2.82337
G01 X-4.47988 Y-2.82811
G01 X-4.48430 Y-2.83543
G01 X-4.48679 Y-2.84361
G01 X-4.48740 Y-2.85000
G01 X-4.48634 Y-2.85848
G01 X-4.48382 Y-2.86553
G01 X-4.47988 Y-2.87189
G01 X-4.47630 Y-2.87587
G01 X-4.47039 Y-2.88044
G01 X-4.46265 Y-2.88407
G01 X-4.45425 Y-2.88569
G01 X-4.44783 Y-2.88563
G01 X-4.44154 Y-2.88435
G01 X-4.43366 Y-2.88103
G01 X-4.42696 Y-2.87599
G01 X-4.32598 Y-2.87599
G01 X-4.32598 Y-2.90785
G01 X-4.33394 Y-2.91391
G01 X-4.34012 Y-2.92085
G01 X-4.34530 Y-2.92983
G01 X-4.34867 Y-2.94075
G01 X-4.34953 Y-2.95107
G01 X-4.34823 Y-2.96134
G01 X-4.34530 Y-2.97017
G01 X-4.33944 Y-2.97998
G01 X-4.33235 Y-2.98752
G01 X-4.32479 Y-2.99294
G01 X-4.31632 Y-2.99677
G01 X-4.30518 Y-2.99931
G01 X-4.29482 Y-2.99931
G01 X-4.28368 Y-2.99677
G01 X-4.27521 Y-2.99294
G01 X-4.26543 Y-2.98539
G01 X-4.06118 Y-3.18963
G01 X-4.05638 Y-3.19338
G01 X-4.05180 Y-3.19561
G01 X-4.04280 Y-3.19725
G01 X-3.44904 Y-3.19725
G01 X-3.44387 Y-3.20184
G01 X-3.43798 Y-3.20530
G01 X-3.42951 Y-3.20823
G01 X-3.42165 Y-3.20906
G01 X-3.37835 Y-3.20906
G01 X-3.37049 Y-3.20823
G01 X-3.36397 Y-3.20617
G01 X-3.35613 Y-3.20184
G01 X-3.35102 Y-3.19731
G01 X-3.34561 Y-3.19016
G01 X-3.34278 Y-3.18394
G01 X-3.34070 Y-3.17414
G01 X-3.34700 Y-3.17414
G01 X-3.34829 Y-3.18059
G01 X-3.35107 Y-3.18701
G01 X-3.35523 Y-3.19263
G01 X-3.35983 Y-3.19674
G01 X-3.36592 Y-3.20018
G01 X-3.37180 Y-3.20207
G01 X-3.37835 Y-3.20275
G01 X-3.42165 Y-3.20275
G01 X-3.42820 Y-3.20207
G01 X-3.43408 Y-3.20018
G01 X-3.43982 Y-3.19697
G01 X-3.44609 Y-3.19095
G01 X-4.04280 Y-3.19095
G01 X-4.04702 Y-3.19047
G01 X-4.05341 Y-3.18783
G01 X-4.05673 Y-3.18518
G01 X-4.26567 Y-2.97624
G01 X-4.27135 Y-2.98243
G01 X-4.27801 Y-2.98726
G01 X-4.28624 Y-2.99102
G01 X-4.29507 Y-2.99299
G01 X-4.30411 Y-2.99307
G01 X-4.31338 Y-2.99117
G01 X-4.32128 Y-2.98767
G01 X-4.32864 Y-2.98243
G01 X-4.33476 Y-2.97576
G01 X-4.33954 Y-2.96761
G01 X-4.34223 Y-2.95940
G01 X-4.34326 Y-2.95041
G01 X-4.34241 Y-2.94141
G01 X-4.33954 Y-2.93239
G01 X-4.33476 Y-2.92424
G01 X-4.32864 Y-2.91757
G01 X-4.31968 Y-2.91161
G01 X-4.31969 Y-2.86969
G01 X-4.42976 Y-2.86969
G01 X-4.43647 Y-2.87535
G01 X-4.44245 Y-2.87808
G01 X-4.44890 Y-2.87939
G01 X-4.45507 Y-2.87930
G01 X-4.46030 Y-2.87819
G01 X-4.46597 Y-2.87576
G01 X-4.47101 Y-2.87220
G01 X-4.47569 Y-2.86701
G01 X-4.47870 Y-2.86163
G01 X-4.48052 Y-2.85573
G01 X-4.48110 Y-2.85000
G01 X-4.48052 Y-2.84427
G01 X-4.47855 Y-2.83799
G01 X-4.47520 Y-2.83232
G01 X-4.47101 Y-2.82780
G01 X-4.46668 Y-2.82465
G01 X-4.46108 Y-2.82206
G01 X-4.45507 Y-2.82070
G01 X-4.44890 Y-2.82061
G01 X-4.44245 Y-2.82192
G01 X-4.43718 Y-2.82424
G01 X-4.43214 Y-2.82780
G01 X-4.42976 Y-2.83031
G01 X-4.30000 Y-2.83031
G01 X-4.29283 Y-2.83168
G01 X-4.28875 Y-2.83386
G01 X-4.28343 Y-2.83939
G01 X-4.28063 Y-2.84654
G01 X-4.28031 Y-2.90591
G01 X-4.03465 Y-3.15157
G01 X-3.44609 Y-3.15157
G01 X-3.43982 Y-3.14555
G01 X-3.43408 Y-3.14234
G01 X-3.42820 Y-3.14045
G01 X-3.42165 Y-3.13976
G01 X-3.37835 Y-3.13976
G01 X-3.37180 Y-3.14045
G01 X-3.36592 Y-3.14234
G01 X-3.35983 Y-3.14578
G01 X-3.35523 Y-3.14989
G01 X-3.35107 Y-3.15551
G01 X-3.34854 Y-3.16114
G01 X-3.34709 Y-3.16756
G01 X-3.34700 Y-3.17414
G04 P0 ( dwell for no time -- G64 should not smooth over this point )
G00 Z0.08000 ( retract )

G00 X-3.32810 Y-3.17414 ( rapid move to begin. )
G01 F180.00000
G01 Z-0.04000
G04 P0 ( dwell for no time -- G64 should not smooth over this point )
G01 F360.00000
G01 X-3.32810 Y-3.17414
G01 X-3.32823 Y-3.16599
G01 X-3.33128 Y-3.15346
G01 X-3.33470 Y-3.14606
G01 X-3.34259 Y-3.13585
G01 X-3.34872 Y-3.13049
G01 X-3.36008 Y-3.12437
G01 X-3.36787 Y-3.12197
G01 X-3.37596 Y-3.12099
G01 X-3.42165 Y-3.12087
G01 X-3.42977 Y-3.12159
G01 X-3.43444 Y-3.12258
G01 X-3.44428 Y-3.12631
G01 X-3.45389 Y-3.13267
G01 X-4.02682 Y-3.13267
G01 X-4.26142 Y-2.89808
G01 X-4.26183 Y-2.84469
G01 X-4.26360 Y-2.83734
G01 X-4.26531 Y-2.83321
G01 X-4.26893 Y-2.82724
G01 X-4.17277 Y-2.82724
G01 X-4.02291 Y-2.97711
G01 X-4.01518 Y-2.98303
G01 X-4.00836 Y-2.98617
G01 X-4.00106 Y-2.98793
G01 X-3.99580 Y-2.98833
G01 X-3.69886 Y-2.98833
G01 X-3.68975 Y-2.99772
G01 X-3.67896 Y-3.00494
G01 X-3.66691 Y-3.00976
G01 X-3.65411 Y-3.01197
G01 X-3.64350 Y-3.01184
G01 X-3.62855 Y-3.00828
G01 X-3.62104 Y-3.00494
G01 X-3.61025 Y-2.99772
G01 X-3.60114 Y-2.98833
G01 X-3.59316 Y-2.98793
G01 X-3.58877 Y-2.98705
G01 X-3.58173 Y-2.98446
G01 X-3.57533 Y-2.98054
G01 X-3.49211 Y-2.89790
G01 X-3.48577 Y-2.89667
G01 X-3.47634 Y-2.89302
G01 X-3.46788 Y-2.88749
G01 X-3.45925 Y-2.87846
G01 X-3.45527 Y-2.87182
G01 X-3.45106 Y-2.86007
G01 X-3.45012 Y-2.85239
G01 X-3.45106 Y-2.83993
G01 X-3.45527 Y-2.82817
G01 X-3.45925 Y-2.82154
G01 X-3.46788 Y-2.81251
G01 X-3.47634 Y-2.80698
G01 X-3.48009 Y-2.80600
G01 X-3.47744 Y-2.80648
G01 X-3.43960 Y-2.80648
G01 X-3.43288 Y-2.80468
G01 X-3.42559 Y-2.80403
G01 X-3.37441 Y-2.80403
G01 X-3.36427 Y-2.80529
G01 X-3.36107 Y-2.80648
G01 X-3.22659 Y-2.80648
G01 X-3.20648 Y-2.82659
G01 X-3.20648 Y-2.90571
G01 X-3.20215 Y-2.91762
G01 X-3.19989 Y-2.92657
G01 X-3.19783 Y-2.93889
G01 X-3.19726 Y-2.95000
G01 X-3.19793 Y-2.93741
G01 X-3.19762 Y-2.94036
G01 X-3.19725 Y-2.94978
G01 X-3.19762 Y-2.94036
G01 X-3.19923 Y-2.92918
G01 X-3.19850 Y-2.93425
G01 X-3.20215 Y-2.91762
G01 X-3.20670 Y-2.90548
G01 X-3.21690 Y-2.89745
G01 X-3.22855 Y-2.89172
G01 X-3.24350 Y-2.88816
G01 X-3.25748 Y-2.88831
G01 X-3.32289 Y-2.82289
G01 X-3.33062 Y-2.81697
G01 X-3.34035 Y-2.81295
G01 X-3.34776 Y-2.81177
G01 X-3.35547 Y-2.81167
G01 X-3.35990 Y-2.80692
G01 X-3.36427 Y-2.80529
G01 X-3.37441 Y-2.80403
G01 X-3.42559 Y-2.80403
G01 X-3.43288 Y-2.80468
G01 X-3.43955 Y-2.80647
G04 P0 ( dwell for no time -- G64 should not smooth over this point )
G00 Z0.08000 ( retract )

G00 X-3.45012 Y-2.85239 ( rapid move to begin. )
G01 F180.00000
G01 Z-0.04000
G04 P0 ( dwell for no time -- G64 should not smooth over this point )
G01 F360.00000
G01 X-3.45012 Y-2.85239
G01 X-3.46265 Y-2.85107
G01 X-3.46338 Y-2.84255
G01 X-3.46618 Y-2.83447
G01 X-3.46944 Y-2.82894
G01 X-3.47369 Y-2.82413
G01 X-3.48147 Y-2.81849
G01 X-3.48735 Y-2.81593
G01 X-3.49575 Y-2.81431
G01 X-3.50110 Y-2.81431
G01 X-3.50846 Y-2.81565
G01 X-3.51538 Y-2.81849
G01 X-3.52156 Y-2.82270
G01 X-3.52799 Y-2.82984
G01 X-3.53067 Y-2.83447
G01 X-3.53319 Y-2.84152
G01 X-3.53419 Y-2.84937
G01 X-3.60830 Y-2.92348
G01 X-3.61056 Y-2.92002
G01 X-3.61682 Y-2.91315
G01 X-3.62616 Y-2.90657
G01 X-3.63571 Y-2.90256
G01 X-3.64482 Y-2.90069
G01 X-3.65411 Y-2.90063
G01 X-3.66429 Y-2.90256
G01 X-3.67479 Y-2.90706
G01 X-3.68318 Y-2.91315
G01 X-3.69012 Y-2.92085
G01 X-3.69215 Y-2.92426
G01 X-3.98514 Y-2.92426
G01 X-4.13869 Y-2.77071
G01 X-4.14345 Y-2.76699
G01 X-4.15090 Y-2.76391
G01 X-4.15689 Y-2.76317
G01 X-4.64969 Y-2.76317
G01 X-4.65859 Y-2.76479
G01 X-4.66312 Y-2.76699
G01 X-4.66789 Y-2.77071
G01 X-4.79305 Y-2.89587
G01 X-4.79676 Y-2.90063
G01 X-4.79985 Y-2.90808
G01 X-4.80059 Y-2.91407
G01 X-4.80059 Y-2.98593
G01 X-4.79896 Y-2.99483
G01 X-4.79676 Y-2.99936
G01 X-4.79305 Y-3.00413
G01 X-4.60462 Y-3.19206
G01 X-4.59842 Y-3.19537
G01 X-4.59052 Y-3.19695
G01 X-4.54926 Y-3.19699
G01 X-4.54387 Y-3.20184
G01 X-4.53798 Y-3.20530
G01 X-4.52951 Y-3.20823
G01 X-4.52272 Y-3.20900
G01 X-4.47835 Y-3.20906
G01 X-4.47155 Y-3.20840
G01 X-4.46202 Y-3.20530
G01 X-4.45530 Y-3.20116
G01 X-4.44958 Y-3.19572
G01 X-4.44561 Y-3.19016
G01 X-4.44278 Y-3.18394
G01 X-4.44097 Y-3.17626
G01 X-4.44097 Y-3.16733
G01 X-4.44102 Y-3.22426
G01 X-4.45074 Y-3.22426
G01 X-4.45703 Y-3.21884
G01 X-4.46297 Y-3.21547
G01 X-4.46945 Y-3.21331
G01 X-4.47728 Y-3.21226
G01 X-4.52165 Y-3.21220
G01 X-4.52951 Y-3.21303
G01 X-4.53603 Y-3.21509
G01 X-4.54387 Y-3.21942
G01 X-4.54898 Y-3.22395
G01 X-4.55438 Y-3.23110
G01 X-4.55722 Y-3.23732
G01 X-4.55907 Y-3.24499
G01 X-4.55930 Y-3.25288
G01 X-4.55788 Y-3.26064
G01 X-4.55487 Y-3.26794
G01 X-4.55042 Y-3.27446
G01 X-4.54297 Y-3.28116
G01 X-4.53798 Y-3.28404
G01 X-4.53055 Y-3.28669
G01 X-4.52165 Y-3.28780
G01 X-4.47835 Y-3.28780
G01 X-4.47155 Y-3.28714
G01 X-4.46202 Y-3.28404
G01 X-4.45613 Y-3.28058
G01 X-4.45074 Y-3.27574
G01 X-4.41878 Y-3.27569
G01 X-4.41379 Y-3.27500
G01 X-4.40635 Y-3.27191
G01 X-4.39709 Y-3.26370
G01 X-4.39337 Y-3.25894
G01 X-4.39029 Y-3.25149
G01 X-4.38955 Y-3.24550
G01 X-4.38955 Y-3.04130
G01 X-4.39029 Y-3.03531
G01 X-4.39337 Y-3.02787
G01 X-4.39709 Y-3.02311
G01 X-4.52426 Y-2.89593
G01 X-4.52426 Y-2.88581
G01 X-4.52049 Y-2.88505
G01 X-4.51717 Y-2.88283
G01 X-4.51495 Y-2.87951
G01 X-4.51417 Y-2.87559
G01 X-4.51417 Y-2.82441
G01 X-4.51590 Y-2.81872
G01 X-4.51872 Y-2.81590
G01 X-4.52079 Y-2.81486
G01 X-4.51441 Y-2.81691
G01 X-4.50855 Y-2.82082
G01 X-4.50157 Y-2.82724
G01 X-4.49419 Y-2.82724
G01 X-4.48140 Y-2.82077
G01 X-4.47025 Y-2.81696
G01 X-4.45540 Y-2.81465
G01 X-4.16755 Y-2.81465
G01 X-4.01400 Y-2.96820
G01 X-4.00924 Y-2.97192
G01 X-4.00470 Y-2.97411
G01 X-3.99580 Y-2.97574
G01 X-3.69215 Y-2.97574
G01 X-3.69012 Y-2.97915
G01 X-3.68318 Y-2.98685
G01 X-3.67479 Y-2.99294
G01 X-3.66429 Y-2.99744
G01 X-3.65411 Y-2.99937
G01 X-3.64482 Y-2.99931
G01 X-3.63368 Y-2.99677
G01 X-3.62521 Y-2.99294
G01 X-3.61682 Y-2.98685
G01 X-3.60988 Y-2.97915
G01 X-3.60785 Y-2.97574
G01 X-3.59843 Y-2.97574
G01 X-3.59243 Y-2.97500
G01 X-3.58767 Y-2.97335
G01 X-3.58332 Y-2.97080
G01 X-3.49771 Y-2.88569
G01 X-3.49362 Y-2.88546
G01 X-3.48635 Y-2.88369
G01 X-3.48051 Y-2.88103
G01 X-3.47369 Y-2.87587
G01 X-3.46944 Y-2.87106
G01 X-3.46531 Y-2.86357
G01 X-3.46338 Y-2.85745
G01 X-3.46265 Y-2.85107
G01 X-3.46892 Y-2.85041
G01 X-3.46954 Y-2.85614
G01 X-3.47130 Y-2.86163
G01 X-3.47454 Y-2.86735
G01 X-3.47838 Y-2.87165
G01 X-3.48366 Y-2.87557
G01 X-3.48891 Y-2.87793
G01 X-3.49493 Y-2.87930
G01 X-3.50032 Y-2.87939
G01 X-3.58732 Y-2.96593
G01 X-3.59064 Y-2.96779
G01 X-3.59502 Y-2.96912
G01 X-3.61149 Y-2.96944
G01 X-3.61498 Y-2.97544
G01 X-3.62074 Y-2.98188
G01 X-3.62836 Y-2.98749
G01 X-3.63702 Y-2.99127
G01 X-3.64547 Y-2.99305
G01 X-3.65411 Y-2.99307
G01 X-3.66298 Y-2.99127
G01 X-3.67199 Y-2.98726
G01 X-3.67926 Y-2.98188
G01 X-3.68502 Y-2.97544
G01 X-3.68851 Y-2.96944
G01 X-3.99580 Y-2.96944
G01 X-4.00287 Y-2.96809
G01 X-4.00627 Y-2.96636
G01 X-4.00954 Y-2.96374
G01 X-4.16494 Y-2.80835
G01 X-4.64164 Y-2.80835
G01 X-4.75541 Y-2.92212
G01 X-4.75541 Y-2.97788
G01 X-4.58147 Y-3.15182
G01 X-4.54628 Y-3.15182
G01 X-4.53982 Y-3.14555
G01 X-4.53408 Y-3.14234
G01 X-4.52779 Y-3.14039
G01 X-4.52165 Y-3.13976
G01 X-4.47835 Y-3.13976
G01 X-4.47180 Y-3.14045
G01 X-4.46517 Y-3.14267
G01 X-4.46018 Y-3.14555
G01 X-4.45523 Y-3.14989
G01 X-4.45129 Y-3.15517
G01 X-4.44854 Y-3.16114
G01 X-4.44709 Y-3.16756
G01 X-4.44709 Y-3.17496
G01 X-4.44854 Y-3.18138
G01 X-4.45107 Y-3.18701
G01 X-4.45523 Y-3.19263
G01 X-4.45983 Y-3.19674
G01 X-4.46592 Y-3.20018
G01 X-4.47180 Y-3.20207
G01 X-4.47793 Y-3.20273
G01 X-4.52206 Y-3.20273
G01 X-4.52820 Y-3.20207
G01 X-4.53483 Y-3.19984
G01 X-4.54017 Y-3.19674
G01 X-4.54628 Y-3.19070
G01 X-4.58990 Y-3.19068
G01 X-4.59659 Y-3.18935
G01 X-4.60063 Y-3.18719
G01 X-4.78859 Y-2.99967
G01 X-4.79121 Y-2.99640
G01 X-4.79294 Y-2.99300
G01 X-4.79429 Y-2.98593
G01 X-4.79429 Y-2.91407
G01 X-4.79382 Y-2.90991
G01 X-4.79121 Y-2.90360
G01 X-4.78859 Y-2.90033
G01 X-4.66343 Y-2.77516
G01 X-4.66015 Y-2.77255
G01 X-4.65676 Y-2.77082
G01 X-4.64969 Y-2.76947
G01 X-4.15689 Y-2.76947
G01 X-4.15272 Y-2.76994
G01 X-4.14642 Y-2.77255
G01 X-4.14315 Y-2.77516
G01 X-3.98775 Y-2.93056
G01 X-3.68851 Y-2.93056
G01 X-3.68502 Y-2.92456
G01 X-3.67926 Y-2.91812
G01 X-3.67199 Y-2.91274
G01 X-3.66298 Y-2.90872
G01 X-3.65411 Y-2.90693
G01 X-3.64547 Y-2.90695
G01 X-3.63702 Y-2.90872
G01 X-3.62872 Y-2.91233
G01 X-3.62074 Y-2.91812
G01 X-3.61498 Y-2.92456
G01 X-3.61149 Y-2.93056
G01 X-3.60648 Y-2.93056
G01 X-3.52778 Y-2.85187
G01 X-3.52731 Y-2.84386
G01 X-3.52521 Y-2.83762
G01 X-3.52231 Y-2.83264
G01 X-3.51847 Y-2.82835
G01 X-3.51319 Y-2.82443
G01 X-3.50715 Y-2.82181
G01 X-3.50110 Y-2.82061
G01 X-3.49575 Y-2.82061
G01 X-3.48930 Y-2.82192
G01 X-3.48332 Y-2.82465
G01 X-3.47899 Y-2.82780
G01 X-3.47480 Y-2.83232
G01 X-3.47164 Y-2.83762
G01 X-3.46954 Y-2.84386
G01 X-3.46892 Y-2.85041
G04 P0 ( dwell for no time -- G64 should not smooth over this point )
G00 Z0.08000 ( retract )

G00 X-3.20018 Y-2.97506 ( rapid move to begin. )
G01 F180.00000
G01 Z-0.04000
G04 P0 ( dwell for no time -- G64 should not smooth over this point )
G01 F360.00000
G01 X-3.20018 Y-2.97506
G01 X-3.19965 Y-2.97248
G01 X-3.20018 Y-2.97505
G04 P0 ( dwell for no time -- G64 should not smooth over this point )
G00 Z0.08000 ( retract )

G00 X-3.20018 Y-2.97506 ( rapid move to begin. )
G01 F180.00000
G01 Z-0.04000
G04 P0 ( dwell for no time -- G64 should not smooth over this point )
G01 F360.00000
G01 X-3.20018 Y-2.97506
G01 X-3.20018 Y-3.20435
G01 X-3.33581 Y-3.33998
G01 X-3.33152 Y-3.33162
G01 X-3.32825 Y-3.32334
G01 X-3.33128 Y-3.31094
G01 X-3.33470 Y-3.30354
G01 X-3.33939 Y-3.29688
G01 X-3.34700 Y-3.28937
G01 X-3.34583 Y-3.28833
G01 X-3.31755 Y-3.28822
G01 X-3.30723 Y-3.28617
G01 X-3.30041 Y-3.28303
G01 X-3.29268 Y-3.27711
G01 X-3.21946 Y-3.20331
G01 X-3.21697 Y-3.19959
G01 X-3.21383 Y-3.19277
G01 X-3.21207 Y-3.18547
G01 X-3.21166 Y-3.18021
G01 X-3.21166 Y-2.99875
G01 X-3.20648 Y-2.99428
G01 X-3.20215 Y-2.98238
G01 X-3.19989 Y-2.97342
G01 X-3.20018 Y-2.97505
G04 P0 ( dwell for no time -- G64 should not smooth over this point )
G00 Z0.08000 ( retract )

G00 X-3.19719 Y-2.95141 ( rapid move to begin. )
G01 F180.00000
G01 Z-0.04000
G04 P0 ( dwell for no time -- G64 should not smooth over this point )
G01 F360.00000
G01 X-3.19719 Y-2.95141
G01 X-3.19725 Y-2.94978
G01 X-3.19793 Y-2.96259
G01 X-3.19719 Y-2.95141
G01 X-3.20041 Y-2.95000
G01 X-3.20133 Y-2.95925
G01 X-3.20432 Y-2.96917
G01 X-3.20988 Y-2.97915
G01 X-3.21682 Y-2.98685
G01 X-3.22426 Y-2.99233
G01 X-3.22426 Y-3.18021
G01 X-3.22588 Y-3.18912
G01 X-3.22920 Y-3.19532
G01 X-3.30159 Y-3.26820
G01 X-3.30903 Y-3.27335
G01 X-3.31379 Y-3.27500
G01 X-3.31878 Y-3.27569
G01 X-3.35074 Y-3.27574
G01 X-3.35613 Y-3.28058
G01 X-3.36202 Y-3.28404
G01 X-3.37049 Y-3.28697
G01 X-3.37728 Y-3.28774
G01 X-3.42272 Y-3.28774
G01 X-3.42951 Y-3.28697
G01 X-3.43798 Y-3.28404
G01 X-3.44387 Y-3.28058
G01 X-3.44898 Y-3.27605
G01 X-3.45380 Y-3.26980
G01 X-3.45722 Y-3.26268
G01 X-3.45924 Y-3.25395
G01 X-3.45924 Y-3.24605
G01 X-3.45722 Y-3.23732
G01 X-3.45438 Y-3.23110
G01 X-3.45042 Y-3.22554
G01 X-3.44387 Y-3.21942
G01 X-3.43602 Y-3.21509
G01 X-3.42845 Y-3.21286
G01 X-3.42165 Y-3.21220
G01 X-3.37835 Y-3.21220
G01 X-3.37049 Y-3.21303
G01 X-3.36397 Y-3.21509
G01 X-3.35613 Y-3.21942
G01 X-3.35074 Y-3.22426
G01 X-3.33045 Y-3.22426
G01 X-3.27574 Y-3.16955
G01 X-3.27574 Y-2.99233
G01 X-3.28318 Y-2.98685
G01 X-3.28944 Y-2.97998
G01 X-3.29568 Y-2.96917
G01 X-3.29867 Y-2.95925
G01 X-3.29953 Y-2.95107
G01 X-3.29811 Y-2.93829
G01 X-3.36066 Y-2.87574
G01 X-3.36419 Y-2.87574
G01 X-3.36495 Y-2.87951
G01 X-3.36717 Y-2.88283
G01 X-3.37241 Y-2.88563
G01 X-3.42559 Y-2.88583
G01 X-3.42951 Y-2.88505
G01 X-3.43283 Y-2.88283
G01 X-3.43505 Y-2.87951
G01 X-3.43583 Y-2.87559
G01 X-3.43583 Y-2.82441
G01 X-3.43410 Y-2.81872
G01 X-3.43128 Y-2.81590
G01 X-3.42559 Y-2.81417
G01 X-3.37441 Y-2.81417
G01 X-3.37049 Y-2.81495
G01 X-3.36717 Y-2.81717
G01 X-3.36495 Y-2.82049
G01 X-3.36419 Y-2.82426
G01 X-3.34597 Y-2.82461
G01 X-3.34110 Y-2.82588
G01 X-3.33656 Y-2.82808
G01 X-3.33180 Y-2.83180
G01 X-3.26161 Y-2.90199
G01 X-3.25518 Y-2.90069
G01 X-3.24589 Y-2.90063
G01 X-3.23571 Y-2.90256
G01 X-3.22521 Y-2.90706
G01 X-3.21682 Y-2.91315
G01 X-3.20988 Y-2.92085
G01 X-3.20432 Y-2.93083
G01 X-3.20133 Y-2.94075
G01 X-3.20041 Y-2.95000
G01 X-3.20671 Y-2.95000
G01 X-3.20777 Y-2.95940
G01 X-3.21046 Y-2.96761
G01 X-3.21475 Y-2.97510
G01 X-3.22135 Y-2.98243
G01 X-3.23056 Y-2.98849
G01 X-3.23056 Y-3.18021
G01 X-3.23191 Y-3.18729
G01 X-3.23407 Y-3.19132
G01 X-3.30604 Y-3.26374
G01 X-3.30932 Y-3.26636
G01 X-3.31271 Y-3.26809
G01 X-3.31979 Y-3.26944
G01 X-3.35372 Y-3.26944
G01 X-3.35983 Y-3.27548
G01 X-3.36517 Y-3.27859
G01 X-3.37180 Y-3.28081
G01 X-3.37793 Y-3.28147
G01 X-3.42206 Y-3.28147
G01 X-3.42860 Y-3.28070
G01 X-3.43408 Y-3.27892
G01 X-3.43982 Y-3.27570
G01 X-3.44477 Y-3.27137
G01 X-3.44893 Y-3.26575
G01 X-3.45171 Y-3.25933
G01 X-3.45300 Y-3.25288
G01 X-3.45291 Y-3.24630
G01 X-3.45146 Y-3.23988
G01 X-3.44912 Y-3.23462
G01 X-3.44477 Y-3.22863
G01 X-3.43982 Y-3.22429
G01 X-3.43408 Y-3.22108
G01 X-3.42860 Y-3.21930
G01 X-3.42206 Y-3.21853
G01 X-3.37793 Y-3.21853
G01 X-3.37180 Y-3.21919
G01 X-3.36517 Y-3.22141
G01 X-3.35983 Y-3.22452
G01 X-3.35372 Y-3.23056
G01 X-3.32784 Y-3.23056
G01 X-3.26944 Y-3.17216
G01 X-3.26944 Y-2.98849
G01 X-3.27199 Y-2.98726
G01 X-3.27926 Y-2.98188
G01 X-3.28502 Y-2.97544
G01 X-3.28954 Y-2.96761
G01 X-3.29223 Y-2.95940
G01 X-3.29329 Y-2.95000
G01 X-3.29241 Y-2.94141
G01 X-3.29092 Y-2.93656
G01 X-3.35805 Y-2.86944
G01 X-3.37047 Y-2.86944
G01 X-3.37077 Y-2.87710
G01 X-3.37222 Y-2.87886
G01 X-3.37364 Y-2.87945
G01 X-3.42559 Y-2.87953
G01 X-3.42837 Y-2.87837
G01 X-3.42953 Y-2.87559
G01 X-3.42953 Y-2.82441
G01 X-3.42886 Y-2.82222
G01 X-3.42778 Y-2.82113
G01 X-3.42559 Y-2.82047
G01 X-3.37364 Y-2.82055
G01 X-3.37222 Y-2.82113
G01 X-3.37077 Y-2.82290
G01 X-3.37047 Y-2.83056
G01 X-3.34659 Y-2.83088
G01 X-3.33953 Y-2.83364
G01 X-3.33625 Y-2.83625
G01 X-3.26359 Y-2.90892
G01 X-3.25452 Y-2.90695
G01 X-3.24507 Y-2.90701
G01 X-3.23624 Y-2.90898
G01 X-3.22836 Y-2.91251
G01 X-3.22135 Y-2.91757
G01 X-3.21498 Y-2.92456
G01 X-3.21046 Y-2.93239
G01 X-3.20777 Y-2.94060
G01 X-3.20671 Y-2.95000
G04 P0 ( dwell for no time -- G64 should not smooth over this point )
G00 Z0.08000 ( retract )

G00 X-3.19719 Y-2.95141 ( rapid move to begin. )
G01 F180.00000
G01 Z-0.04000
G04 P0 ( dwell for no time -- G64 should not smooth over this point )
G01 F360.00000
G01 X-3.19719 Y-2.95141
G01 X-3.19793 Y-2.96259
G01 X-3.19989 Y-2.97342
G01 X-3.19793 Y-2.96259
G04 P0 ( dwell for no time -- G64 should not smooth over this point )
G00 Z0.08000 ( retract )

G00 X-3.33152 Y-3.33162 ( rapid move to begin. )
G01 F180.00000
G01 Z-0.04000
G04 P0 ( dwell for no time -- G64 should not smooth over this point )
G01 F360.00000
G01 X-3.33152 Y-3.33162
G01 X-3.33569 Y-3.33926
G01 X-3.33440 Y-3.33162
G01 X-3.33449 Y-3.32413
G01 X-3.33596 Y-3.31679
G01 X-3.34016 Y-3.30669
G01 X-3.34680 Y-3.29801
G01 X-3.35243 Y-3.29307
G01 X-3.35865 Y-3.28937
G01 X-3.34700 Y-3.28937
G01 X-3.35865 Y-3.28937
G01 X-3.35243 Y-3.28567
G01 X-3.34825 Y-3.28204
G01 X-3.31514 Y-3.28166
G01 X-3.30905 Y-3.28014
G01 X-3.30338 Y-3.27747
G01 X-3.29713 Y-3.27265
G01 X-3.22433 Y-3.19931
G01 X-3.21986 Y-3.19094
G01 X-3.21834 Y-3.18486
G01 X-3.21796 Y-3.18021
G01 X-3.21796 Y-2.99554
G01 X-3.21138 Y-2.99031
G01 X-3.20588 Y-2.98419
G01 X-3.20018 Y-2.97506
G01 X-3.20215 Y-2.98238
G01 X-3.20648 Y-2.99428
G01 X-3.20648 Y-3.20174
G01 X-3.32834 Y-3.32360
G01 X-3.33172 Y-3.33162
G01 X-3.34070 Y-3.33162
G01 X-3.34076 Y-3.32479
G01 X-3.34278 Y-3.31606
G01 X-3.34561 Y-3.30984
G01 X-3.35102 Y-3.30269
G01 X-3.35613 Y-3.29816
G01 X-3.36202 Y-3.29470
G01 X-3.37049 Y-3.29177
G01 X-3.37728 Y-3.29100
G01 X-3.42165 Y-3.29094
G01 X-3.42951 Y-3.29177
G01 X-3.43798 Y-3.29470
G01 X-3.44387 Y-3.29816
G01 X-3.44904 Y-3.30275
G01 X-3.66667 Y-3.30275
G01 X-3.70363 Y-3.28926
G01 X-3.70697 Y-3.27967
G01 X-3.71146 Y-3.27200
G01 X-3.71896 Y-3.26392
G01 X-3.72618 Y-3.25874
G01 X-3.73631 Y-3.25442
G01 X-3.74396 Y-3.25279
G01 X-3.75391 Y-3.25257
G01 X-3.76572 Y-3.25508
G01 X-3.77382 Y-3.25874
G01 X-3.78263 Y-3.26536
G01 X-3.78854 Y-3.27200
G01 X-3.79390 Y-3.28162
G01 X-3.79660 Y-3.29009
G01 X-3.79758 Y-3.29893
G01 X-3.79660 Y-3.30990
G01 X-3.79390 Y-3.31838
G01 X-3.78787 Y-3.32883
G01 X-3.78104 Y-3.33608
G01 X-3.77382 Y-3.34125
G01 X-3.76572 Y-3.34492
G01 X-3.75604 Y-3.34721
G01 X-3.74609 Y-3.34743
G01 X-3.73631 Y-3.34558
G01 X-3.72618 Y-3.34125
G01 X-3.72163 Y-3.33802
G01 X-3.68017 Y-3.35315
G01 X-3.67215 Y-3.35469
G01 X-3.44904 Y-3.35473
G01 X-3.44387 Y-3.35932
G01 X-3.43798 Y-3.36278
G01 X-3.42951 Y-3.36571
G01 X-3.42165 Y-3.36653
G01 X-3.37835 Y-3.36653
G01 X-3.37049 Y-3.36571
G01 X-3.36397 Y-3.36365
G01 X-3.35613 Y-3.35932
G01 X-3.35102 Y-3.35479
G01 X-3.34561 Y-3.34764
G01 X-3.34278 Y-3.34142
G01 X-3.34070 Y-3.33162
G01 X-3.34700 Y-3.33162
G01 X-3.34829 Y-3.33807
G01 X-3.35107 Y-3.34449
G01 X-3.35523 Y-3.35011
G01 X-3.35983 Y-3.35422
G01 X-3.36517 Y-3.35733
G01 X-3.37140 Y-3.35944
G01 X-3.37835 Y-3.36024
G01 X-3.42165 Y-3.36024
G01 X-3.42820 Y-3.35955
G01 X-3.43408 Y-3.35766
G01 X-3.43982 Y-3.35445
G01 X-3.44609 Y-3.34843
G01 X-3.67160 Y-3.34841
G01 X-3.67801 Y-3.34723
G01 X-3.72262 Y-3.33095
G01 X-3.72933 Y-3.33580
G01 X-3.73762 Y-3.33942
G01 X-3.74609 Y-3.34113
G01 X-3.75473 Y-3.34105
G01 X-3.76316 Y-3.33917
G01 X-3.77067 Y-3.33580
G01 X-3.77734 Y-3.33098
G01 X-3.78318 Y-3.32462
G01 X-3.78791 Y-3.31643
G01 X-3.79043 Y-3.30859
G01 X-3.79132 Y-3.29959
G01 X-3.79043 Y-3.29141
G01 X-3.78791 Y-3.28357
G01 X-3.78344 Y-3.27570
G01 X-3.77795 Y-3.26957
G01 X-3.77030 Y-3.26401
G01 X-3.76238 Y-3.26058
G01 X-3.75391 Y-3.25887
G01 X-3.74527 Y-3.25895
G01 X-3.73684 Y-3.26083
G01 X-3.72933 Y-3.26420
G01 X-3.72266 Y-3.26902
G01 X-3.71656 Y-3.27570
G01 X-3.71242 Y-3.28282
G01 X-3.70967 Y-3.29101
G01 X-3.70928 Y-3.29391
G01 X-3.66778 Y-3.30905
G01 X-3.44609 Y-3.30905
G01 X-3.43982 Y-3.30303
G01 X-3.43408 Y-3.29982
G01 X-3.42820 Y-3.29793
G01 X-3.42165 Y-3.29724
G01 X-3.37793 Y-3.29726
G01 X-3.37180 Y-3.29793
G01 X-3.36592 Y-3.29982
G01 X-3.35983 Y-3.30326
G01 X-3.35523 Y-3.30737
G01 X-3.35107 Y-3.31299
G01 X-3.34854 Y-3.31862
G01 X-3.34709 Y-3.32504
G01 X-3.34700 Y-3.33162
G04 P0 ( dwell for no time -- G64 should not smooth over this point )
G00 Z0.08000 ( retract )

G00 X-3.33796 Y-3.34357 ( rapid move to begin. )
G01 F180.00000
G01 Z-0.04000
G04 P0 ( dwell for no time -- G64 should not smooth over this point )
G01 F360.00000
G01 X-3.33796 Y-3.34357
G01 X-3.33569 Y-3.33926
G01 X-3.34206 Y-3.34931
G01 X-3.34051 Y-3.34714
G01 X-3.34128 Y-3.34840
G04 P0 ( dwell for no time -- G64 should not smooth over this point )
G00 Z0.08000 ( retract )

G00 X-3.35519 Y-3.36308 ( rapid move to begin. )
G01 F180.00000
G01 Z-0.04000
G04 P0 ( dwell for no time -- G64 should not smooth over this point )
G01 F360.00000
G01 X-3.35519 Y-3.36308
G01 X-3.34206 Y-3.34931
G01 X-3.34881 Y-3.35723
G01 X-3.34311 Y-3.35078
G04 P0 ( dwell for no time -- G64 should not smooth over this point )
G00 Z0.08000 ( retract )

G00 X-3.37798 Y-3.36976 ( rapid move to begin. )
G01 F180.00000
G01 Z-0.04000
G04 P0 ( dwell for no time -- G64 should not smooth over this point )
G01 F360.00000
G01 X-3.37798 Y-3.36976
G01 X-3.36202 Y-3.36816
G01 X-3.35519 Y-3.36308
G01 X-3.35805 Y-3.36510
G01 X-3.34881 Y-3.35723
G01 X-3.35519 Y-3.36308
G01 X-3.36202 Y-3.36816
G01 X-3.35805 Y-3.36510
G01 X-3.36246 Y-3.36822
G01 X-3.36202 Y-3.36816
G01 X-3.37495 Y-3.36946
G01 X-3.36248 Y-3.36824
G01 X-3.37834 Y-3.36980
G01 X-3.42593 Y-3.36946
G01 X-3.37495 Y-3.36946
G01 X-3.37797 Y-3.36976
G04 P0 ( dwell for no time -- G64 should not smooth over this point )
G00 Z0.08000 ( retract )

G00 X-3.79803 Y-3.31971 ( rapid move to begin. )
G01 F180.00000
G01 Z-0.04000
G04 P0 ( dwell for no time -- G64 should not smooth over this point )
G01 F360.00000
G01 X-3.79803 Y-3.31971
G01 X-3.79527 Y-3.33065
G01 X-3.79046 Y-3.34445
G01 X-3.78212 Y-3.35086
G01 X-3.77799 Y-3.35325
G01 X-3.76631 Y-3.35791
G01 X-3.75630 Y-3.35991
G01 X-3.74370 Y-3.35991
G01 X-3.73369 Y-3.35791
G01 X-3.71978 Y-3.35210
G01 X-3.69687 Y-3.36046
G01 X-3.67571 Y-3.36374
G01 X-3.45257 Y-3.36389
G01 X-3.44256 Y-3.36699
G01 X-3.43009 Y-3.36926
G01 X-3.42435 Y-3.36963
G01 X-3.43751 Y-3.36824
G01 X-3.43885 Y-3.36786
G01 X-3.43576 Y-3.36835
G01 X-3.44256 Y-3.36699
G01 X-3.44074 Y-3.36755
G01 X-3.43885 Y-3.36786
G01 X-3.44464 Y-3.36618
G01 X-3.44256 Y-3.36699
G01 X-3.80830 Y-3.36676
G01 X-3.81796 Y-3.35710
G01 X-3.81796 Y-3.35590
G01 X-3.80937 Y-3.35559
G01 X-3.80341 Y-3.35312
G01 X-3.79885 Y-3.34856
G01 X-3.79638 Y-3.34260
G01 X-3.79625 Y-3.32673
G01 X-3.79364 Y-3.33170
G01 X-3.78731 Y-3.33886
G01 X-3.77697 Y-3.34671
G01 X-3.76828 Y-3.35068
G01 X-3.75735 Y-3.35337
G01 X-3.74436 Y-3.35364
G01 X-3.73500 Y-3.35175
G01 X-3.72457 Y-3.34750
G01 X-3.72064 Y-3.34509
G01 X-3.68233 Y-3.35907
G01 X-3.67270 Y-3.36096
G01 X-3.45147 Y-3.36103
G01 X-3.44464 Y-3.36618
G01 X-3.45257 Y-3.36389
G01 X-3.67126 Y-3.36389
G01 X-3.68190 Y-3.36307
G01 X-3.69687 Y-3.36046
G01 X-3.80386 Y-3.36046
G01 X-3.79991 Y-3.35836
G01 X-3.79645 Y-3.35552
G01 X-3.79361 Y-3.35206
G01 X-3.79043 Y-3.34457
G01 X-3.79677 Y-3.32467
G01 X-3.79625 Y-3.32673
G01 X-3.79889 Y-3.31374
G01 X-3.79803 Y-3.31971
G01 X-3.79677 Y-3.32467
G01 X-3.79926 Y-3.31190
G01 X-3.79933 Y-3.31072
G01 X-3.79889 Y-3.31374
G01 X-3.79990 Y-3.29980
G01 X-3.79935 Y-3.28948
G01 X-3.79625 Y-3.27326
G01 X-3.79043 Y-3.25543
G01 X-3.79361 Y-3.24794
G01 X-3.79645 Y-3.24448
G01 X-3.79991 Y-3.24164
G01 X-3.80386 Y-3.23953
G01 X-3.80814 Y-3.23823
G01 X-3.81260 Y-3.23780
G01 X-3.88740 Y-3.23780
G01 X-3.89186 Y-3.23823
G01 X-3.89614 Y-3.23953
G01 X-3.90009 Y-3.24164
G01 X-3.90355 Y-3.24448
G01 X-3.90639 Y-3.24794
G01 X-3.90850 Y-3.25189
G01 X-3.90980 Y-3.25617
G01 X-3.91024 Y-3.26166
G01 X-3.98976 Y-3.26166
G01 X-3.99020 Y-3.25617
G01 X-3.99150 Y-3.25189
G01 X-3.99361 Y-3.24794
G01 X-3.99645 Y-3.24448
G01 X-3.99991 Y-3.24164
G01 X-4.00386 Y-3.23953
G01 X-4.00814 Y-3.23823
G01 X-4.01260 Y-3.23780
G01 X-4.08740 Y-3.23780
G01 X-4.09186 Y-3.23823
G01 X-4.09614 Y-3.23953
G01 X-4.10009 Y-3.24164
G01 X-4.10355 Y-3.24448
G01 X-4.10639 Y-3.24794
G01 X-4.10957 Y-3.25543
G01 X-4.10350 Y-3.27445
G01 X-4.10063 Y-3.28971
G01 X-4.10003 Y-3.29868
G01 X-4.10008 Y-3.30000
G01 X-4.10044 Y-3.29086
G01 X-4.10003 Y-3.29868
G01 X-4.10236 Y-3.30000
G01 X-4.10368 Y-3.31094
G01 X-4.10648 Y-3.31938
G01 X-4.11088 Y-3.32710
G01 X-4.11812 Y-3.33540
G01 X-4.12528 Y-3.34067
G01 X-4.13428 Y-3.34492
G01 X-4.14396 Y-3.34721
G01 X-4.15391 Y-3.34743
G01 X-4.15968 Y-3.34643
G01 X-4.16350 Y-3.34975
G01 X-4.16789 Y-3.35232
G01 X-4.17270 Y-3.35398
G01 X-4.17774 Y-3.35468
G01 X-4.45096 Y-3.35473
G01 X-4.45613 Y-3.35932
G01 X-4.46202 Y-3.36278
G01 X-4.47049 Y-3.36571
G01 X-4.47835 Y-3.36653
G01 X-4.52272 Y-3.36648
G01 X-4.52951 Y-3.36571
G01 X-4.53798 Y-3.36278
G01 X-4.54387 Y-3.35932
G01 X-4.55042 Y-3.35320
G01 X-4.55438 Y-3.34764
G01 X-4.55722 Y-3.34142
G01 X-4.55907 Y-3.33375
G01 X-4.55930 Y-3.32586
G01 X-4.55722 Y-3.31606
G01 X-4.55438 Y-3.30984
G01 X-4.54898 Y-3.30269
G01 X-4.54387 Y-3.29816
G01 X-4.53798 Y-3.29470
G01 X-4.52951 Y-3.29177
G01 X-4.52272 Y-3.29100
G01 X-4.47835 Y-3.29094
G01 X-4.47155 Y-3.29160
G01 X-4.46202 Y-3.29470
G01 X-4.45530 Y-3.29884
G01 X-4.45096 Y-3.30275
G01 X-4.19740 Y-3.30275
G01 X-4.19758 Y-3.29893
G01 X-4.19632 Y-3.28906
G01 X-4.19352 Y-3.28062
G01 X-4.18787 Y-3.27117
G01 X-4.18187 Y-3.26460
G01 X-4.17382 Y-3.25874
G01 X-4.16572 Y-3.25508
G01 X-4.15498 Y-3.25262
G01 X-4.14502 Y-3.25262
G01 X-4.13428 Y-3.25508
G01 X-4.12618 Y-3.25874
G01 X-4.11812 Y-3.26460
G01 X-4.11088 Y-3.27290
G01 X-4.10610 Y-3.28162
G01 X-4.10340 Y-3.29009
G01 X-4.10236 Y-3.30000
G01 X-4.10866 Y-3.30000
G01 X-4.10967 Y-3.30899
G01 X-4.11242 Y-3.31718
G01 X-4.11633 Y-3.32395
G01 X-4.12205 Y-3.33043
G01 X-4.12899 Y-3.33557
G01 X-4.13722 Y-3.33932
G01 X-4.14527 Y-3.34105
G01 X-4.15391 Y-3.34113
G01 X-4.16172 Y-3.33956
G01 X-4.16813 Y-3.34531
G01 X-4.17452 Y-3.34795
G01 X-4.17874 Y-3.34843
G01 X-4.45390 Y-3.34843
G01 X-4.46018 Y-3.35445
G01 X-4.46592 Y-3.35766
G01 X-4.47180 Y-3.35955
G01 X-4.47835 Y-3.36024
G01 X-4.52165 Y-3.36024
G01 X-4.52820 Y-3.35955
G01 X-4.53408 Y-3.35766
G01 X-4.54049 Y-3.35396
G01 X-4.54532 Y-3.34949
G01 X-4.54893 Y-3.34449
G01 X-4.55146 Y-3.33886
G01 X-4.55291 Y-3.33244
G01 X-4.55300 Y-3.32586
G01 X-4.55171 Y-3.31941
G01 X-4.54893 Y-3.31299
G01 X-4.54532 Y-3.30798
G01 X-4.54017 Y-3.30326
G01 X-4.53483 Y-3.30015
G01 X-4.52820 Y-3.29793
G01 X-4.52206 Y-3.29726
G01 X-4.47835 Y-3.29724
G01 X-4.47180 Y-3.29793
G01 X-4.46554 Y-3.29997
G01 X-4.46018 Y-3.30303
G01 X-4.45390 Y-3.30905
G01 X-4.19031 Y-3.30905
G01 X-4.19134 Y-3.30000
G01 X-4.19050 Y-3.29181
G01 X-4.18776 Y-3.28319
G01 X-4.18367 Y-3.27605
G01 X-4.17795 Y-3.26957
G01 X-4.17030 Y-3.26401
G01 X-4.16277 Y-3.26068
G01 X-4.15391 Y-3.25887
G01 X-4.14527 Y-3.25895
G01 X-4.13722 Y-3.26068
G01 X-4.12899 Y-3.26442
G01 X-4.12205 Y-3.26957
G01 X-4.11633 Y-3.27605
G01 X-4.11209 Y-3.28357
G01 X-4.10956 Y-3.29141
G01 X-4.10866 Y-3.30000
G04 P0 ( dwell for no time -- G64 should not smooth over this point )
G00 Z0.08000 ( retract )

G00 X-4.10003 Y-3.29868 ( rapid move to begin. )
G01 F180.00000
G01 Z-0.04000
G04 P0 ( dwell for no time -- G64 should not smooth over this point )
G01 F360.00000
G01 X-4.10003 Y-3.29868
G01 X-4.10073 Y-3.28810
G01 X-4.10063 Y-3.28971
G01 X-4.10393 Y-3.27232
G01 X-4.10350 Y-3.27445
G01 X-4.10542 Y-3.26975
G01 X-4.11268 Y-3.26114
G01 X-4.12303 Y-3.25329
G01 X-4.13172 Y-3.24932
G01 X-4.14436 Y-3.24636
G01 X-4.15564 Y-3.24636
G01 X-4.16828 Y-3.24932
G01 X-4.17842 Y-3.25423
G01 X-4.18731 Y-3.26114
G01 X-4.19458 Y-3.26975
G01 X-4.19989 Y-3.27968
G01 X-4.20231 Y-3.28711
G01 X-4.20366 Y-3.29645
G01 X-4.44853 Y-3.29645
G01 X-4.45388 Y-3.29212
G01 X-4.45865 Y-3.28937
G01 X-4.45243 Y-3.28567
G01 X-4.44825 Y-3.28204
G01 X-4.41514 Y-3.28166
G01 X-4.40606 Y-3.27890
G01 X-4.40069 Y-3.27567
G01 X-4.39263 Y-3.26815
G01 X-4.38782 Y-3.26191
G01 X-4.38426 Y-3.25332
G01 X-4.38325 Y-3.24550
G01 X-4.38325 Y-3.04130
G01 X-4.38426 Y-3.03348
G01 X-4.38782 Y-3.02490
G01 X-4.39263 Y-3.01865
G01 X-4.51796 Y-2.89332
G01 X-4.51796 Y-2.89080
G01 X-4.51272 Y-2.88728
G01 X-4.51066 Y-2.88478
G01 X-4.50819 Y-2.87882
G01 X-4.50787 Y-2.82441
G01 X-4.50837 Y-2.82095
G04 P0 ( dwell for no time -- G64 should not smooth over this point )
G00 Z0.08000 ( retract )

G00 X-4.50837 Y-2.82095 ( rapid move to begin. )
G01 F180.00000
G01 Z-0.04000
G04 P0 ( dwell for no time -- G64 should not smooth over this point )
G01 F360.00000
G01 X-4.50837 Y-2.82095
G01 X-4.51441 Y-2.81691
G01 X-4.50941 Y-2.82003
G04 P0 ( dwell for no time -- G64 should not smooth over this point )
G00 Z0.08000 ( retract )

G00 X-4.51441 Y-2.81691 ( rapid move to begin. )
G01 F180.00000
G01 Z-0.04000
G04 P0 ( dwell for no time -- G64 should not smooth over this point )
G01 F360.00000
G01 X-4.51441 Y-2.81691
G01 X-4.51941 Y-2.81503
G01 X-4.52252 Y-2.81465
G01 X-4.45689 Y-2.81465
G01 X-4.46935 Y-2.81665
G01 X-4.48161 Y-2.82084
G01 X-4.49419 Y-2.82724
G01 X-4.49832 Y-2.83762
G01 X-4.50000 Y-2.85000
G01 X-4.49832 Y-2.86238
G01 X-4.49473 Y-2.87182
G01 X-4.48925 Y-2.88032
G01 X-4.48398 Y-2.88599
G01 X-4.47779 Y-2.89064
G01 X-4.46654 Y-2.89606
G01 X-4.45664 Y-2.89816
G01 X-4.44415 Y-2.89779
G01 X-4.43438 Y-2.89520
G01 X-4.42736 Y-2.89194
G01 X-4.42253 Y-2.88858
G01 X-4.33858 Y-2.88858
G01 X-4.33858 Y-2.90143
G01 X-4.34330 Y-2.90548
G01 X-4.35031 Y-2.91345
G01 X-4.35681 Y-2.92471
G01 X-4.36021 Y-2.93476
G01 X-4.36206 Y-2.94761
G01 X-4.36120 Y-2.96057
G01 X-4.35766 Y-2.97306
G01 X-4.35161 Y-2.98455
G01 X-4.34880 Y-2.98841
G01 X-4.33975 Y-2.99772
G01 X-4.33109 Y-3.00385
G01 X-4.32145 Y-3.00828
G01 X-4.30886 Y-3.01147
G01 X-4.29350 Y-3.01184
G01 X-4.28309 Y-3.00976
G01 X-4.27104 Y-3.00494
G01 X-4.26643 Y-3.00221
G01 X-4.07009 Y-3.19854
G01 X-4.06232 Y-3.20449
G01 X-4.05251 Y-3.20856
G01 X-4.04280 Y-3.20984
G01 X-3.45389 Y-3.20984
G01 X-3.45300 Y-3.21063
G01 X-3.44135 Y-3.21063
G01 X-3.45300 Y-3.21063
G01 X-3.46061 Y-3.21814
G01 X-3.46529 Y-3.22480
G01 X-3.47020 Y-3.23674
G01 X-3.47190 Y-3.24712
G01 X-3.47140 Y-3.25763
G01 X-3.46872 Y-3.26780
G01 X-3.46638 Y-3.27307
G01 X-3.46061 Y-3.28186
G01 X-3.45300 Y-3.28937
G01 X-3.44135 Y-3.28937
G01 X-3.45300 Y-3.28937
G01 X-3.45389 Y-3.29015
G01 X-3.66444 Y-3.29015
G01 X-3.69353 Y-3.27954
G01 X-3.69606 Y-3.27337
G01 X-3.70127 Y-3.26459
G01 X-3.71155 Y-3.25373
G01 X-3.71988 Y-3.24783
G01 X-3.72915 Y-3.24357
G01 X-3.74370 Y-3.24009
G01 X-3.75630 Y-3.24009
G01 X-3.77085 Y-3.24357
G01 X-3.78012 Y-3.24783
G01 X-3.79046 Y-3.25554
G01 X-3.79736 Y-3.27717
G01 X-3.79757 Y-3.27850
G01 X-3.79677 Y-3.27533
G01 X-3.79955 Y-3.29086
G01 X-3.79803 Y-3.28028
G01 X-3.79763 Y-3.27873
G01 X-3.79926 Y-3.28810
G01 X-3.79971 Y-3.29487
G01 X-3.79955 Y-3.29086
G01 X-3.79996 Y-3.29868
G01 X-3.79971 Y-3.29487
G01 X-3.79935 Y-3.31052
G01 X-3.79996 Y-3.29868
G04 P0 ( dwell for no time -- G64 should not smooth over this point )
G00 Z0.08000 ( retract )

G00 X-4.10350 Y-3.27445 ( rapid move to begin. )
G01 F180.00000
G01 Z-0.04000
G04 P0 ( dwell for no time -- G64 should not smooth over this point )
G01 F360.00000
G01 X-4.10350 Y-3.27445
G01 X-4.10350 Y-3.27445
G04 P0 ( dwell for no time -- G64 should not smooth over this point )
G00 Z0.08000 ( retract )

G00 X-4.37695 Y-3.24550 ( rapid move to begin. )
G01 F180.00000
G01 Z-0.04000
G04 P0 ( dwell for no time -- G64 should not smooth over this point )
G01 F360.00000
G01 X-4.37695 Y-3.24550
G01 X-4.39585 Y-3.24550
G01 X-4.39720 Y-3.25257
G01 X-4.39935 Y-3.25661
G01 X-4.40633 Y-3.26400
G01 X-4.41271 Y-3.26809
G01 X-4.41979 Y-3.26944
G01 X-4.45372 Y-3.26944
G01 X-4.45983 Y-3.27548
G01 X-4.46517 Y-3.27859
G01 X-4.47180 Y-3.28081
G01 X-4.47793 Y-3.28147
G01 X-4.52165 Y-3.28150
G01 X-4.52860 Y-3.28070
G01 X-4.53408 Y-3.27892
G01 X-4.53982 Y-3.27570
G01 X-4.54477 Y-3.27137
G01 X-4.54893 Y-3.26575
G01 X-4.55146 Y-3.26012
G01 X-4.55291 Y-3.25370
G01 X-4.55300 Y-3.24712
G01 X-4.55171 Y-3.24066
G01 X-4.54893 Y-3.23425
G01 X-4.54477 Y-3.22863
G01 X-4.54017 Y-3.22452
G01 X-4.53408 Y-3.22108
G01 X-4.52820 Y-3.21919
G01 X-4.52165 Y-3.21850
G01 X-4.47835 Y-3.21850
G01 X-4.47220 Y-3.21913
G01 X-4.46554 Y-3.22123
G01 X-4.46018 Y-3.22429
G01 X-4.45372 Y-3.23056
G01 X-4.43472 Y-3.23056
G01 X-4.43472 Y-3.04935
G01 X-4.56593 Y-2.91770
G01 X-4.56809 Y-2.91366
G01 X-4.56942 Y-2.90698
G01 X-4.56944 Y-2.87953
G01 X-4.57636 Y-2.87945
G01 X-4.57837 Y-2.87837
G01 X-4.57945 Y-2.87636
G01 X-4.57953 Y-2.86944
G01 X-4.59195 Y-2.86944
G01 X-4.65908 Y-2.93656
G01 X-4.65759 Y-2.94141
G01 X-4.65673 Y-2.95041
G01 X-4.65777 Y-2.95940
G01 X-4.66031 Y-2.96722
G01 X-4.66476 Y-2.97510
G01 X-4.67074 Y-2.98188
G01 X-4.67872 Y-2.98767
G01 X-4.68662 Y-2.99117
G01 X-4.69589 Y-2.99307
G01 X-4.70493 Y-2.99299
G01 X-4.71376 Y-2.99102
G01 X-4.72199 Y-2.98726
G01 X-4.72926 Y-2.98188
G01 X-4.73524 Y-2.97510
G01 X-4.73936 Y-2.96797
G01 X-4.74223 Y-2.95940
G01 X-4.74327 Y-2.95041
G01 X-4.74223 Y-2.94060
G01 X-4.73936 Y-2.93203
G01 X-4.73524 Y-2.92490
G01 X-4.72926 Y-2.91812
G01 X-4.72199 Y-2.91274
G01 X-4.71298 Y-2.90872
G01 X-4.70411 Y-2.90693
G01 X-4.69589 Y-2.90693
G01 X-4.68640 Y-2.90891
G01 X-4.61374 Y-2.83625
G01 X-4.61047 Y-2.83364
G01 X-4.60341 Y-2.83088
G01 X-4.57953 Y-2.83056
G01 X-4.57923 Y-2.82290
G01 X-4.57778 Y-2.82113
G01 X-4.57636 Y-2.82055
G01 X-4.52441 Y-2.82047
G01 X-4.52222 Y-2.82113
G01 X-4.52114 Y-2.82222
G01 X-4.52047 Y-2.82441
G01 X-4.52055 Y-2.87636
G01 X-4.52114 Y-2.87778
G01 X-4.52290 Y-2.87923
G01 X-4.53056 Y-2.87953
G01 X-4.53056 Y-2.89854
G01 X-4.40154 Y-3.02756
G01 X-4.39893 Y-3.03084
G01 X-4.39632 Y-3.03714
G01 X-4.39585 Y-3.04130
G01 X-4.39585 Y-3.24550
G04 P0 ( dwell for no time -- G64 should not smooth over this point )
G00 Z0.08000 ( retract )

G00 X-4.45865 Y-3.21063 ( rapid move to begin. )
G01 F180.00000
G01 Z-0.04000
G04 P0 ( dwell for no time -- G64 should not smooth over this point )
G01 F360.00000
G01 X-4.45865 Y-3.21063
G01 X-4.54135 Y-3.21063
G04 P0 ( dwell for no time -- G64 should not smooth over this point )
G00 Z0.08000 ( retract )

G00 X-4.44388 Y-3.14978 ( rapid move to begin. )
G01 F180.00000
G01 Z-0.04000
G04 P0 ( dwell for no time -- G64 should not smooth over this point )
G01 F360.00000
G01 X-4.44388 Y-3.14978
G01 X-4.44467 Y-3.14757
G01 X-4.44357 Y-3.15112
G01 X-4.44783 Y-3.13912
G01 X-4.44749 Y-3.13992
G01 X-4.45388 Y-3.13464
G01 X-4.46041 Y-3.13098
G01 X-4.46751 Y-3.12858
G01 X-4.47835 Y-3.12717
G01 X-4.52165 Y-3.12717
G01 X-4.52911 Y-3.12786
G01 X-4.54113 Y-3.13176
G01 X-4.54757 Y-3.13559
G01 X-4.55175 Y-3.13922
G01 X-4.57625 Y-3.13922
G01 X-4.71087 Y-3.00460
G01 X-4.69589 Y-3.01143
G01 X-4.69350 Y-3.01184
G01 X-4.68309 Y-3.00976
G01 X-4.67104 Y-3.00494
G01 X-4.66025 Y-2.99772
G01 X-4.65670 Y-2.99452
G01 X-4.64969 Y-2.98655
G01 X-4.64233 Y-2.97306
G01 X-4.63880 Y-2.96057
G01 X-4.63794 Y-2.95239
G01 X-4.63846 Y-2.94267
G01 X-4.58942 Y-2.89364
G01 X-4.58833 Y-2.89453
G01 X-4.58822 Y-2.90883
G01 X-4.58705 Y-2.91624
G01 X-4.58303 Y-2.92597
G01 X-4.57861 Y-2.93204
G01 X-4.45362 Y-3.05718
G01 X-4.45362 Y-3.12752
G01 X-4.44783 Y-3.13912
G01 X-4.45362 Y-3.12752
G01 X-4.45785 Y-3.12522
G01 X-4.46556 Y-3.12258
G01 X-4.47596 Y-3.12099
G01 X-4.52165 Y-3.12087
G01 X-4.53213 Y-3.12197
G01 X-4.53992 Y-3.12437
G01 X-4.54927 Y-3.12919
G01 X-4.55417 Y-3.13293
G01 X-4.57364 Y-3.13293
G01 X-4.69472 Y-3.01185
G01 X-4.70776 Y-3.00629
G01 X-4.71800 Y-3.00054
G01 X-4.71173 Y-3.00407
G01 X-4.72490 Y-2.99580
G01 X-4.71800 Y-3.00054
G01 X-4.72490 Y-2.99580
G01 X-4.73414 Y-2.98792
G01 X-4.72490 Y-2.99580
G04 P0 ( dwell for no time -- G64 should not smooth over this point )
G00 Z0.08000 ( retract )

G00 X-4.73508 Y-2.98712 ( rapid move to begin. )
G01 F180.00000
G01 Z-0.04000
G04 P0 ( dwell for no time -- G64 should not smooth over this point )
G01 F360.00000
G01 X-4.73508 Y-2.98712
G01 X-4.73414 Y-2.98792
G01 X-4.74239 Y-2.97923
G01 X-4.73691 Y-2.98501
G01 X-4.74632 Y-2.97411
G01 X-4.74239 Y-2.97923
G01 X-4.74632 Y-2.97411
G01 X-4.74681 Y-2.97228
G01 X-4.74872 Y-2.96024
G01 X-4.74632 Y-2.97411
G01 X-4.74866 Y-2.96148
G01 X-4.74911 Y-2.95131
G01 X-4.74822 Y-2.96134
G01 X-4.74481 Y-2.97112
G01 X-4.74012 Y-2.97915
G01 X-4.73394 Y-2.98609
G01 X-4.72479 Y-2.99294
G01 X-4.71632 Y-2.99677
G01 X-4.70518 Y-2.99931
G01 X-4.69482 Y-2.99931
G01 X-4.68368 Y-2.99677
G01 X-4.67521 Y-2.99294
G01 X-4.66606 Y-2.98609
G01 X-4.65988 Y-2.97915
G01 X-4.65470 Y-2.97017
G01 X-4.65177 Y-2.96134
G01 X-4.65047 Y-2.95107
G01 X-4.65189 Y-2.93829
G01 X-4.58934 Y-2.87574
G01 X-4.58581 Y-2.87574
G01 X-4.58505 Y-2.87951
G01 X-4.58283 Y-2.88283
G01 X-4.57951 Y-2.88505
G01 X-4.57574 Y-2.88581
G01 X-4.57539 Y-2.91062
G01 X-4.57335 Y-2.91735
G01 X-4.56887 Y-2.92404
G01 X-4.44102 Y-3.05196
G01 X-4.44102 Y-3.16584
G01 X-4.44194 Y-3.15821
G04 P0 ( dwell for no time -- G64 should not smooth over this point )
G00 Z0.08000 ( retract )

G00 X-4.44097 Y-3.16626 ( rapid move to begin. )
G01 F180.00000
G01 Z-0.04000
G04 P0 ( dwell for no time -- G64 should not smooth over this point )
G01 F360.00000
G01 X-4.44097 Y-3.16626
G01 X-4.44102 Y-3.16686
G01 X-4.44212 Y-3.16061
G01 X-4.44561 Y-3.15236
G01 X-4.44958 Y-3.14680
G01 X-4.45530 Y-3.14136
G01 X-4.46297 Y-3.13673
G01 X-4.47155 Y-3.13412
G01 X-4.47835 Y-3.13346
G01 X-4.52165 Y-3.13346
G01 X-4.52845 Y-3.13412
G01 X-4.53798 Y-3.13722
G01 X-4.54387 Y-3.14068
G01 X-4.54926 Y-3.14552
G01 X-4.57886 Y-3.14552
G01 X-4.74911 Y-2.97527
G01 X-4.74911 Y-2.95396
G01 X-4.74889 Y-2.95927
G01 X-4.74632 Y-2.97411
G01 X-4.73414 Y-2.98792
G01 X-4.72490 Y-2.99580
G01 X-4.71173 Y-3.00407
G01 X-4.70584 Y-3.00558
G01 X-4.69416 Y-3.00558
G01 X-4.68440 Y-3.00360
G01 X-4.67360 Y-2.99918
G01 X-4.66138 Y-2.99031
G01 X-4.65479 Y-2.98285
G01 X-4.64895 Y-2.97273
G01 X-4.64506 Y-2.95991
G01 X-4.64421 Y-2.95173
G01 X-4.64504 Y-2.94034
G01 X-4.58939 Y-2.88469
G01 X-4.58728 Y-2.88728
G01 X-4.58204 Y-2.89080
G01 X-4.58204 Y-2.90659
G01 X-4.58103 Y-2.91441
G01 X-4.57890 Y-2.92032
G01 X-4.57374 Y-2.92804
G01 X-4.44732 Y-3.05457
G01 X-4.44732 Y-3.14006
G01 X-4.44317 Y-3.15244
G01 X-4.44132 Y-3.16409
G01 X-4.44357 Y-3.15112
G01 X-4.44317 Y-3.15244
G04 P0 ( dwell for no time -- G64 should not smooth over this point )
G00 Z0.08000 ( retract )

G00 X-4.72702 Y-2.90582 ( rapid move to begin. )
G01 F180.00000
G01 Z-0.04000
G04 P0 ( dwell for no time -- G64 should not smooth over this point )
G01 F360.00000
G01 X-4.72702 Y-2.90582
G01 X-4.73024 Y-2.90864
G01 X-4.72327 Y-2.90317
G01 X-4.73329 Y-2.91118
G01 X-4.73024 Y-2.90864
G01 X-4.74166 Y-2.92001
G01 X-4.73508 Y-2.91288
G01 X-4.73329 Y-2.91118
G01 X-4.74075 Y-2.91885
G01 X-4.74632 Y-2.92589
G01 X-4.74166 Y-2.92001
G01 X-4.74632 Y-2.92589
G01 X-4.74875 Y-2.93988
G01 X-4.74866 Y-2.93851
G04 P0 ( dwell for no time -- G64 should not smooth over this point )
G00 Z0.08000 ( retract )

G00 X-4.74632 Y-2.92589 ( rapid move to begin. )
G01 F180.00000
G01 Z-0.04000
G04 P0 ( dwell for no time -- G64 should not smooth over this point )
G01 F360.00000
G01 X-4.74632 Y-2.92589
G01 X-4.74911 Y-2.94496
G01 X-4.74911 Y-2.92473
G01 X-4.63903 Y-2.81465
G01 X-4.57692 Y-2.81465
G01 X-4.57993 Y-2.81518
G04 P0 ( dwell for no time -- G64 should not smooth over this point )
G00 Z0.08000 ( retract )

G00 X-4.57993 Y-2.81518 ( rapid move to begin. )
G01 F180.00000
G01 Z-0.04000
G04 P0 ( dwell for no time -- G64 should not smooth over this point )
G01 F360.00000
G01 X-4.57993 Y-2.81518
G01 X-4.57559 Y-2.81441
G01 X-4.52252 Y-2.81465
G01 X-4.57559 Y-2.81441
G01 X-4.57993 Y-2.81518
G04 P0 ( dwell for no time -- G64 should not smooth over this point )
G00 Z0.08000 ( retract )

G00 X-4.57993 Y-2.81518 ( rapid move to begin. )
G01 F180.00000
G01 Z-0.04000
G04 P0 ( dwell for no time -- G64 should not smooth over this point )
G01 F360.00000
G01 X-4.57993 Y-2.81518
G01 X-4.58269 Y-2.81567
G01 X-4.57993 Y-2.81518
G01 X-4.58283 Y-2.81717
G01 X-4.58505 Y-2.82049
G01 X-4.58581 Y-2.82426
G01 X-4.60403 Y-2.82461
G01 X-4.60890 Y-2.82588
G01 X-4.61344 Y-2.82808
G01 X-4.61820 Y-2.83180
G01 X-4.68839 Y-2.90199
G01 X-4.69482 Y-2.90069
G01 X-4.70411 Y-2.90063
G01 X-4.71429 Y-2.90256
G01 X-4.72479 Y-2.90706
G01 X-4.73394 Y-2.91391
G01 X-4.74012 Y-2.92085
G01 X-4.74481 Y-2.92888
G01 X-4.74822 Y-2.93865
G01 X-4.74910 Y-2.94688
G01 X-4.74866 Y-2.93851
G01 X-4.74632 Y-2.92589
G01 X-4.73618 Y-2.91416
G01 X-4.72490 Y-2.90419
G01 X-4.71800 Y-2.89945
G01 X-4.70776 Y-2.89371
G01 X-4.69467 Y-2.88811
G01 X-4.63381 Y-2.82724
G01 X-4.63146 Y-2.82724
G01 X-4.62031 Y-2.82285
G01 X-4.61195 Y-2.82074
G01 X-4.60451 Y-2.81964
G01 X-4.58980 Y-2.81945
G01 X-4.58269 Y-2.81567
G01 X-4.58980 Y-2.81945
G01 X-4.60542 Y-2.81988
G01 X-4.60276 Y-2.81962
G01 X-4.60451 Y-2.81964
G01 X-4.61377 Y-2.82103
G01 X-4.62031 Y-2.82285
G01 X-4.63146 Y-2.82724
G01 X-4.69252 Y-2.88831
G01 X-4.69464 Y-2.88810
G01 X-4.71087 Y-2.89540
G01 X-4.63642 Y-2.82094
G01 X-4.61336 Y-2.82094
G01 X-4.60956 Y-2.82029
G01 X-4.61336 Y-2.82094
G01 X-4.61641 Y-2.82253
G01 X-4.62265 Y-2.82735
G01 X-4.69043 Y-2.89512
G01 X-4.69416 Y-2.89442
G01 X-4.70411 Y-2.89433
G01 X-4.71030 Y-2.89531
G01 X-4.71331 Y-2.89692
G01 X-4.71087 Y-2.89540
G01 X-4.72327 Y-2.90317
G01 X-4.71331 Y-2.89692
G01 X-4.71800 Y-2.89945
G04 P0 ( dwell for no time -- G64 should not smooth over this point )
G00 Z0.08000 ( retract )

G00 X-4.74889 Y-2.95927 ( rapid move to begin. )
G01 F180.00000
G01 Z-0.04000
G04 P0 ( dwell for no time -- G64 should not smooth over this point )
G01 F360.00000
G01 X-4.74889 Y-2.95927
G01 X-4.74875 Y-2.96012
G01 X-4.74932 Y-2.95105
G01 X-4.74927 Y-2.95012
G01 X-4.74911 Y-2.95396
G01 X-4.74875 Y-2.93988
G01 X-4.74927 Y-2.95012
G01 X-4.74932 Y-2.94895
G04 P0 ( dwell for no time -- G64 should not smooth over this point )
G00 Z0.08000 ( retract )

G00 X-4.57692 Y-2.81465 ( rapid move to begin. )
G01 F180.00000
G01 Z-0.04000
G04 P0 ( dwell for no time -- G64 should not smooth over this point )
G01 F360.00000
G01 X-4.57692 Y-2.81465
G01 X-4.52079 Y-2.81486
G01 X-4.52252 Y-2.81465
G04 P0 ( dwell for no time -- G64 should not smooth over this point )
G00 Z0.08000 ( retract )

G00 X-4.08524 Y-2.81499 ( rapid move to begin. )
G01 F180.00000
G01 Z-0.04000
G04 P0 ( dwell for no time -- G64 should not smooth over this point )
G01 F360.00000
G01 X-4.08524 Y-2.81499
G01 X-4.09173 Y-2.79985
G01 X-4.13144 Y-2.76030
G01 X-4.14019 Y-2.75445
G01 X-4.14724 Y-2.75185
G01 X-4.15689 Y-2.75057
G01 X-4.64969 Y-2.75057
G01 X-4.65495 Y-2.75098
G01 X-4.66225 Y-2.75274
G01 X-4.66638 Y-2.75445
G01 X-4.67279 Y-2.75837
G01 X-4.67679 Y-2.76180
G01 X-4.80196 Y-2.88697
G01 X-4.80788 Y-2.89470
G01 X-4.81102 Y-2.90151
G01 X-4.81307 Y-2.91183
G01 X-4.81278 Y-2.99119
G01 X-4.81102 Y-2.99849
G01 X-4.80931 Y-3.00262
G01 X-4.80539 Y-3.00902
G01 X-4.80196 Y-3.01303
G01 X-4.61662 Y-3.19837
G01 X-4.60889 Y-3.20429
G01 X-4.59917 Y-3.20831
G01 X-4.58952 Y-3.20959
G01 X-4.55417 Y-3.20959
G01 X-4.55300 Y-3.21063
G01 X-4.54135 Y-3.21063
G01 X-4.55313 Y-3.21073
G01 X-4.56061 Y-3.21814
G01 X-4.56529 Y-3.22480
G01 X-4.56872 Y-3.23220
G01 X-4.57140 Y-3.24237
G01 X-4.57190 Y-3.24712
G01 X-4.57140 Y-3.25763
G01 X-4.56872 Y-3.26780
G01 X-4.56638 Y-3.27307
G01 X-4.56061 Y-3.28186
G01 X-4.55300 Y-3.28937
G01 X-4.54135 Y-3.28937
G01 X-4.54757 Y-3.29307
G01 X-4.55320 Y-3.29801
G01 X-4.55890 Y-3.30524
G01 X-4.56297 Y-3.31350
G01 X-4.56524 Y-3.32242
G01 X-4.56560 Y-3.33162
G01 X-4.56404 Y-3.34069
G01 X-4.55984 Y-3.35079
G01 X-4.55551 Y-3.35690
G01 X-4.54757 Y-3.36441
G01 X-4.54113 Y-3.36824
G01 X-4.53249 Y-3.37142
G01 X-4.52338 Y-3.37274
G01 X-4.47835 Y-3.37283
G01 X-4.47089 Y-3.37214
G01 X-4.45887 Y-3.36824
G01 X-4.45243 Y-3.36441
G01 X-4.44853 Y-3.36103
G01 X-4.17404 Y-3.36064
G01 X-4.16791 Y-3.35911
G01 X-4.16219 Y-3.35642
G01 X-4.15785 Y-3.35326
G01 X-4.14436 Y-3.35364
G01 X-4.13500 Y-3.35175
G01 X-4.12303 Y-3.34671
G01 X-4.11525 Y-3.34117
G01 X-4.10745 Y-3.33305
G01 X-4.10442 Y-3.32842
G01 X-4.10066 Y-3.31049
G01 X-4.10009 Y-3.29980
G01 X-4.10073 Y-3.31190
G01 X-4.10067 Y-3.31072
G01 X-4.10197 Y-3.31971
G01 X-4.10242 Y-3.32150
G01 X-4.10145 Y-3.31543
G01 X-4.10401 Y-3.32780
G01 X-4.10394 Y-3.33937
G01 X-4.10268 Y-3.34570
G01 X-4.09909 Y-3.35106
G01 X-4.09373 Y-3.35465
G01 X-4.08740 Y-3.35590
G01 X-4.01260 Y-3.35590
G01 X-4.00627 Y-3.35465
G01 X-4.00341 Y-3.35312
G01 X-3.99885 Y-3.34856
G01 X-3.99638 Y-3.34260
G01 X-3.99606 Y-3.33203
G01 X-3.90394 Y-3.33203
G01 X-3.90362 Y-3.34260
G01 X-3.90115 Y-3.34856
G01 X-3.89909 Y-3.35106
G01 X-3.89659 Y-3.35312
G01 X-3.89063 Y-3.35559
G01 X-3.88204 Y-3.35590
G01 X-3.88166 Y-3.37501
G01 X-3.87890 Y-3.38410
G01 X-3.87567 Y-3.38947
G01 X-3.84302 Y-3.42254
G01 X-3.83530 Y-3.42770
G01 X-3.82621 Y-3.43046
G01 X-3.34468 Y-3.43046
G01 X-3.33560 Y-3.42770
G01 X-3.33022 Y-3.42447
G01 X-3.32667 Y-3.42145
G01 X-3.14550 Y-3.24028
G01 X-3.14248 Y-3.23672
G01 X-3.13925 Y-3.23135
G01 X-3.13712 Y-3.22545
G01 X-3.13611 Y-3.21762
G01 X-3.13649 Y-2.80607
G01 X-3.13925 Y-2.79698
G01 X-3.14441 Y-2.78926
G01 X-3.18926 Y-2.74441
G01 X-3.19430 Y-2.74068
G01 X-3.19998 Y-2.73801
G01 X-3.20607 Y-2.73649
G01 X-3.55968 Y-2.73611
G01 X-3.69365 Y-2.60226
G01 X-3.70137 Y-2.59710
G01 X-3.70728 Y-2.59497
G01 X-3.71510 Y-2.59396
G01 X-3.72956 Y-2.59396
G01 X-3.72988 Y-2.55387
G01 X-3.73235 Y-2.54791
G01 X-3.73691 Y-2.54335
G01 X-3.73977 Y-2.54182
G01 X-3.74610 Y-2.54056
G01 X-3.85513 Y-2.54056
G01 X-3.91045 Y-2.48525
G01 X-3.91456 Y-2.48185
G01 X-3.91488 Y-2.43577
G01 X-3.92110 Y-2.43150
G04 P0 ( dwell for no time -- G64 should not smooth over this point )
G00 Z0.08000 ( retract )

G00 X-4.08390 Y-2.43462 ( rapid move to begin. )
G01 F180.00000
G01 Z-0.04000
G04 P0 ( dwell for no time -- G64 should not smooth over this point )
G01 F360.00000
G01 X-4.08390 Y-2.43462
G01 X-4.08494 Y-2.43553
G04 P0 ( dwell for no time -- G64 should not smooth over this point )
G00 Z0.08000 ( retract )

G00 X-4.08494 Y-2.43553 ( rapid move to begin. )
G01 F180.00000
G01 Z-0.04000
G04 P0 ( dwell for no time -- G64 should not smooth over this point )
G01 F360.00000
G01 X-4.08494 Y-2.43553
G01 X-4.14023 Y-2.43553
G01 X-4.24504 Y-2.54034
G01 X-4.24492 Y-2.54144
G01 X-4.01048 Y-2.65866
G01 X-3.92787 Y-2.65898
G01 X-3.92477 Y-2.65992
G01 X-3.91941 Y-2.66351
G01 X-3.91582 Y-2.66887
G01 X-3.91488 Y-2.67197
G01 X-3.91456 Y-2.81300
G01 X-3.91582 Y-2.81933
G01 X-3.91941 Y-2.82469
G01 X-3.92477 Y-2.82828
G01 X-3.93110 Y-2.82953
G01 X-4.07089 Y-2.82934

G04 P0 ( dwell for no time -- G64 should not smooth over this point )
G00 Z1.000 ( retract )

M5 ( Spindle off. )
G04 P1.000000
M9 ( Coolant off. )
M2 ( Program end. )

