( pcb2gcode 2.5.0 )
( Software-independent Gcode )

G94 ( Inches per minute feed rate. )
G20 ( Units == INCHES. )

G90 ( Absolute coordinates. )
G00 S12000 ( RPM spindle speed. )
G64 P0.00040 ( set maximum deviation from commanded toolpath )
G01 F360.00000 ( Feedrate. )


G00 Z1.00000 (Retract to tool change height)
T1
M5      (Spindle stop.)
G04 P1.00000 (Wait for spindle to stop)
(MSG, Change tool bit to mill diameter 0.00787in)
M6      (Tool change.)
M0      (Temporary machine stop.)
M3 ( Spindle on clockwise. )
G04 P1.00000 (Wait for spindle to get up to speed)
G04 P0 ( dwell for no time -- G64 should not smooth over this point )
G00 Z0.08000 ( retract )

G00 X-3.18792 Y-2.55224 ( rapid move to begin. )
G01 F180.00000
( Mill infeed pass 1/1 )
G01 Z-0.04000
G04 P0 ( dwell for no time -- G64 should not smooth over this point )
G01 F360.00000
G01 X-3.18792 Y-2.55224
G01 X-3.18792 Y-2.54776
G01 X-3.18868 Y-2.54008
G01 X-3.18955 Y-2.53569
G01 X-3.19179 Y-2.52831
G01 X-3.19351 Y-2.52418
G01 X-3.19714 Y-2.51737
G01 X-3.19963 Y-2.51365
G01 X-3.20452 Y-2.50769
G01 X-3.20769 Y-2.50452
G01 X-3.21365 Y-2.49963
G01 X-3.21737 Y-2.49714
G01 X-3.22418 Y-2.49351
G01 X-3.22831 Y-2.49179
G01 X-3.23569 Y-2.48955
G01 X-3.24009 Y-2.48868
G01 X-3.24776 Y-2.48793
G01 X-3.25224 Y-2.48793
G01 X-3.25991 Y-2.48868
G01 X-3.26430 Y-2.48955
G01 X-3.27169 Y-2.49179
G01 X-3.27582 Y-2.49351
G01 X-3.28262 Y-2.49714
G01 X-3.28635 Y-2.49963
G01 X-3.29231 Y-2.50452
G01 X-3.29548 Y-2.50769
G01 X-3.29853 Y-2.51141
G01 X-3.29829 Y-2.51196
G01 X-3.29853 Y-2.51141
G01 X-3.60147 Y-2.51141
G01 X-3.60171 Y-2.51196
G01 X-3.60147 Y-2.51141
G01 X-3.60452 Y-2.50769
G01 X-3.60769 Y-2.50452
G01 X-3.61365 Y-2.49963
G01 X-3.61737 Y-2.49714
G01 X-3.62418 Y-2.49351
G01 X-3.62831 Y-2.49179
G01 X-3.63569 Y-2.48955
G01 X-3.64009 Y-2.48868
G01 X-3.64776 Y-2.48793
G01 X-3.65224 Y-2.48793
G01 X-3.65736 Y-2.48843
G01 X-3.65757 Y-2.48899
G01 X-3.65736 Y-2.48843
G01 X-3.76939 Y-2.37639
G01 X-3.77105 Y-2.37489
G01 X-3.77340 Y-2.37296
G01 X-3.77712 Y-2.37047
G01 X-3.77980 Y-2.36904
G01 X-3.78394 Y-2.36733
G01 X-3.78685 Y-2.36645
G01 X-3.79124 Y-2.36557
G01 X-3.79650 Y-2.36516
G01 X-4.15350 Y-2.36516
G01 X-4.15876 Y-2.36557
G01 X-4.16315 Y-2.36645
G01 X-4.16606 Y-2.36733
G01 X-4.17019 Y-2.36904
G01 X-4.17287 Y-2.37047
G01 X-4.17660 Y-2.37296
G01 X-4.18060 Y-2.37639
G01 X-4.29264 Y-2.48843
G01 X-4.29243 Y-2.48899
G01 X-4.29264 Y-2.48843
G01 X-4.29776 Y-2.48793
G01 X-4.30224 Y-2.48793
G01 X-4.30991 Y-2.48868
G01 X-4.31431 Y-2.48955
G01 X-4.32169 Y-2.49179
G01 X-4.32582 Y-2.49351
G01 X-4.33263 Y-2.49714
G01 X-4.33635 Y-2.49963
G01 X-4.34231 Y-2.50452
G01 X-4.34548 Y-2.50769
G01 X-4.34853 Y-2.51141
G01 X-4.34829 Y-2.51196
G01 X-4.34853 Y-2.51141
G01 X-4.65146 Y-2.51141
G01 X-4.65171 Y-2.51196
G01 X-4.65146 Y-2.51141
G01 X-4.65452 Y-2.50769
G01 X-4.65769 Y-2.50452
G01 X-4.66365 Y-2.49963
G01 X-4.66737 Y-2.49714
G01 X-4.67418 Y-2.49351
G01 X-4.67831 Y-2.49179
G01 X-4.68569 Y-2.48955
G01 X-4.69008 Y-2.48868
G01 X-4.69776 Y-2.48793
G01 X-4.70224 Y-2.48793
G01 X-4.70991 Y-2.48868
G01 X-4.71431 Y-2.48955
G01 X-4.72169 Y-2.49179
G01 X-4.72582 Y-2.49351
G01 X-4.73262 Y-2.49714
G01 X-4.73635 Y-2.49963
G01 X-4.74231 Y-2.50452
G01 X-4.74548 Y-2.50769
G01 X-4.75037 Y-2.51365
G01 X-4.75286 Y-2.51737
G01 X-4.75649 Y-2.52418
G01 X-4.75821 Y-2.52831
G01 X-4.76044 Y-2.53569
G01 X-4.76132 Y-2.54008
G01 X-4.76207 Y-2.54776
G01 X-4.76207 Y-2.55224
G01 X-4.76132 Y-2.55991
G01 X-4.76044 Y-2.56431
G01 X-4.75821 Y-2.57169
G01 X-4.75649 Y-2.57582
G01 X-4.75286 Y-2.58263
G01 X-4.75037 Y-2.58635
G01 X-4.74548 Y-2.59231
G01 X-4.74231 Y-2.59548
G01 X-4.73635 Y-2.60037
G01 X-4.73262 Y-2.60286
G01 X-4.72582 Y-2.60649
G01 X-4.72169 Y-2.60821
G01 X-4.71431 Y-2.61044
G01 X-4.70991 Y-2.61132
G01 X-4.70224 Y-2.61207
G01 X-4.69776 Y-2.61207
G01 X-4.69008 Y-2.61132
G01 X-4.68569 Y-2.61044
G01 X-4.67831 Y-2.60821
G01 X-4.67418 Y-2.60649
G01 X-4.66737 Y-2.60286
G01 X-4.66365 Y-2.60037
G01 X-4.65769 Y-2.59548
G01 X-4.65452 Y-2.59231
G01 X-4.65146 Y-2.58858
G01 X-4.65171 Y-2.58804
G01 X-4.65146 Y-2.58858
G01 X-4.34853 Y-2.58858
G01 X-4.34829 Y-2.58804
G01 X-4.34853 Y-2.58858
G01 X-4.34548 Y-2.59231
G01 X-4.34231 Y-2.59548
G01 X-4.33635 Y-2.60037
G01 X-4.33263 Y-2.60286
G01 X-4.32582 Y-2.60649
G01 X-4.32169 Y-2.60821
G01 X-4.31431 Y-2.61044
G01 X-4.30991 Y-2.61132
G01 X-4.30224 Y-2.61207
G01 X-4.29776 Y-2.61207
G01 X-4.29009 Y-2.61132
G01 X-4.28569 Y-2.61044
G01 X-4.27831 Y-2.60821
G01 X-4.27375 Y-2.60626
G01 X-4.27373 Y-2.60562
G01 X-4.27375 Y-2.60626
G01 X-4.09173 Y-2.69727
G01 X-4.09079 Y-2.69669
G01 X-4.09173 Y-2.69727
G01 X-4.09173 Y-2.79162
G01 X-4.08544 Y-2.80682
G01 X-4.08544 Y-2.69338
G01 X-4.08449 Y-2.69280
G01 X-4.08544 Y-2.69338
G01 X-4.27384 Y-2.59917
G01 X-4.27384 Y-2.59846
G01 X-4.27384 Y-2.59917
G01 X-4.27715 Y-2.60094
G01 X-4.28014 Y-2.60218
G01 X-4.28752 Y-2.60442
G01 X-4.29070 Y-2.60505
G01 X-4.29838 Y-2.60581
G01 X-4.30162 Y-2.60581
G01 X-4.30930 Y-2.60505
G01 X-4.31248 Y-2.60442
G01 X-4.31986 Y-2.60218
G01 X-4.32285 Y-2.60094
G01 X-4.32966 Y-2.59730
G01 X-4.33235 Y-2.59550
G01 X-4.33831 Y-2.59061
G01 X-4.34061 Y-2.58831
G01 X-4.34550 Y-2.58235
G01 X-4.34526 Y-2.58168
G01 X-4.34554 Y-2.58229
G01 X-4.65445 Y-2.58229
G01 X-4.65471 Y-2.58172
G01 X-4.65450 Y-2.58235
G01 X-4.65939 Y-2.58831
G01 X-4.66169 Y-2.59061
G01 X-4.66765 Y-2.59550
G01 X-4.67034 Y-2.59730
G01 X-4.67715 Y-2.60094
G01 X-4.68014 Y-2.60218
G01 X-4.68752 Y-2.60442
G01 X-4.69070 Y-2.60505
G01 X-4.69838 Y-2.60581
G01 X-4.70162 Y-2.60581
G01 X-4.70930 Y-2.60505
G01 X-4.71248 Y-2.60442
G01 X-4.71986 Y-2.60218
G01 X-4.72285 Y-2.60094
G01 X-4.72966 Y-2.59730
G01 X-4.73235 Y-2.59550
G01 X-4.73831 Y-2.59061
G01 X-4.74061 Y-2.58831
G01 X-4.74550 Y-2.58235
G01 X-4.74730 Y-2.57966
G01 X-4.75094 Y-2.57285
G01 X-4.75218 Y-2.56986
G01 X-4.75442 Y-2.56248
G01 X-4.75505 Y-2.55930
G01 X-4.75580 Y-2.55162
G01 X-4.75580 Y-2.54838
G01 X-4.75505 Y-2.54070
G01 X-4.75442 Y-2.53752
G01 X-4.75218 Y-2.53014
G01 X-4.75094 Y-2.52715
G01 X-4.74730 Y-2.52034
G01 X-4.74550 Y-2.51765
G01 X-4.74061 Y-2.51168
G01 X-4.73831 Y-2.50939
G01 X-4.73235 Y-2.50450
G01 X-4.72966 Y-2.50270
G01 X-4.72285 Y-2.49906
G01 X-4.71986 Y-2.49782
G01 X-4.71248 Y-2.49558
G01 X-4.70930 Y-2.49495
G01 X-4.70162 Y-2.49419
G01 X-4.69838 Y-2.49419
G01 X-4.69070 Y-2.49495
G01 X-4.68752 Y-2.49558
G01 X-4.68014 Y-2.49782
G01 X-4.67715 Y-2.49906
G01 X-4.67034 Y-2.50270
G01 X-4.66765 Y-2.50450
G01 X-4.66169 Y-2.50939
G01 X-4.65939 Y-2.51168
G01 X-4.65450 Y-2.51765
G01 X-4.65471 Y-2.51828
G01 X-4.65445 Y-2.51771
G01 X-4.34554 Y-2.51771
G01 X-4.34526 Y-2.51832
G01 X-4.34550 Y-2.51765
G01 X-4.34061 Y-2.51168
G01 X-4.33831 Y-2.50939
G01 X-4.33235 Y-2.50450
G01 X-4.32966 Y-2.50270
G01 X-4.32285 Y-2.49906
G01 X-4.31986 Y-2.49782
G01 X-4.31248 Y-2.49558
G01 X-4.30930 Y-2.49495
G01 X-4.30162 Y-2.49419
G01 X-4.29838 Y-2.49419
G01 X-4.29070 Y-2.49495
G01 X-4.29033 Y-2.49502
G01 X-4.29011 Y-2.49561
G01 X-4.29033 Y-2.49502
G01 X-4.17615 Y-2.38085
G01 X-4.17260 Y-2.37783
G01 X-4.16990 Y-2.37603
G01 X-4.16723 Y-2.37459
G01 X-4.16423 Y-2.37336
G01 X-4.16132 Y-2.37247
G01 X-4.15814 Y-2.37184
G01 X-4.15350 Y-2.37146
G01 X-3.79650 Y-2.37146
G01 X-3.79185 Y-2.37184
G01 X-3.78868 Y-2.37247
G01 X-3.78577 Y-2.37336
G01 X-3.78277 Y-2.37459
G01 X-3.78009 Y-2.37603
G01 X-3.77740 Y-2.37783
G01 X-3.77385 Y-2.38085
G01 X-3.65967 Y-2.49502
G01 X-3.65989 Y-2.49561
G01 X-3.65967 Y-2.49502
G01 X-3.65930 Y-2.49495
G01 X-3.65162 Y-2.49419
G01 X-3.64838 Y-2.49419
G01 X-3.64070 Y-2.49495
G01 X-3.63752 Y-2.49558
G01 X-3.63014 Y-2.49782
G01 X-3.62715 Y-2.49906
G01 X-3.62034 Y-2.50270
G01 X-3.61765 Y-2.50450
G01 X-3.61169 Y-2.50939
G01 X-3.60939 Y-2.51168
G01 X-3.60450 Y-2.51765
G01 X-3.60474 Y-2.51832
G01 X-3.60446 Y-2.51771
G01 X-3.29554 Y-2.51771
G01 X-3.29528 Y-2.51828
G01 X-3.29550 Y-2.51765
G01 X-3.29061 Y-2.51168
G01 X-3.28831 Y-2.50939
G01 X-3.28235 Y-2.50450
G01 X-3.27966 Y-2.50270
G01 X-3.27285 Y-2.49906
G01 X-3.26986 Y-2.49782
G01 X-3.26248 Y-2.49558
G01 X-3.25930 Y-2.49495
G01 X-3.25162 Y-2.49419
G01 X-3.24838 Y-2.49419
G01 X-3.24070 Y-2.49495
G01 X-3.23752 Y-2.49558
G01 X-3.23014 Y-2.49782
G01 X-3.22715 Y-2.49906
G01 X-3.22034 Y-2.50270
G01 X-3.21765 Y-2.50450
G01 X-3.21169 Y-2.50939
G01 X-3.20939 Y-2.51168
G01 X-3.20450 Y-2.51765
G01 X-3.20270 Y-2.52034
G01 X-3.19906 Y-2.52715
G01 X-3.19782 Y-2.53014
G01 X-3.19558 Y-2.53752
G01 X-3.19495 Y-2.54070
G01 X-3.19419 Y-2.54838
G01 X-3.19419 Y-2.55162
G01 X-3.19495 Y-2.55930
G01 X-3.19558 Y-2.56248
G01 X-3.19782 Y-2.56986
G01 X-3.19906 Y-2.57285
G01 X-3.20270 Y-2.57966
G01 X-3.20450 Y-2.58235
G01 X-3.20939 Y-2.58831
G01 X-3.21169 Y-2.59061
G01 X-3.21765 Y-2.59550
G01 X-3.22034 Y-2.59730
G01 X-3.22715 Y-2.60094
G01 X-3.23014 Y-2.60218
G01 X-3.23752 Y-2.60442
G01 X-3.24070 Y-2.60505
G01 X-3.24838 Y-2.60581
G01 X-3.25162 Y-2.60581
G01 X-3.25930 Y-2.60505
G01 X-3.26248 Y-2.60442
G01 X-3.26986 Y-2.60218
G01 X-3.27285 Y-2.60094
G01 X-3.27966 Y-2.59730
G01 X-3.28235 Y-2.59550
G01 X-3.28831 Y-2.59061
G01 X-3.29061 Y-2.58831
G01 X-3.29550 Y-2.58235
G01 X-3.29528 Y-2.58172
G01 X-3.29554 Y-2.58229
G01 X-3.60446 Y-2.58229
G01 X-3.60471 Y-2.58172
G01 X-3.60450 Y-2.58235
G01 X-3.60939 Y-2.58831
G01 X-3.61169 Y-2.59061
G01 X-3.61765 Y-2.59550
G01 X-3.62034 Y-2.59730
G01 X-3.62715 Y-2.60094
G01 X-3.63014 Y-2.60218
G01 X-3.63752 Y-2.60442
G01 X-3.64070 Y-2.60505
G01 X-3.64838 Y-2.60581
G01 X-3.65162 Y-2.60581
G01 X-3.65930 Y-2.60505
G01 X-3.66248 Y-2.60442
G01 X-3.66986 Y-2.60218
G01 X-3.67285 Y-2.60094
G01 X-3.67966 Y-2.59730
G01 X-3.68235 Y-2.59550
G01 X-3.68831 Y-2.59061
G01 X-3.69061 Y-2.58831
G01 X-3.69550 Y-2.58235
G01 X-3.69730 Y-2.57966
G01 X-3.70094 Y-2.57285
G01 X-3.70218 Y-2.56986
G01 X-3.70442 Y-2.56248
G01 X-3.70505 Y-2.55930
G01 X-3.70580 Y-2.55162
G01 X-3.70580 Y-2.54838
G01 X-3.70505 Y-2.54070
G01 X-3.70498 Y-2.54033
G01 X-3.70438 Y-2.54011
G01 X-3.70498 Y-2.54033
G01 X-3.80977 Y-2.43553
G01 X-3.80957 Y-2.43505
G01 X-3.80977 Y-2.43553
G01 X-3.91028 Y-2.43553
G01 X-3.91442 Y-2.43194
G01 X-3.91999 Y-2.42855
G01 X-3.92498 Y-2.42663
G01 X-3.93110 Y-2.42584
G01 X-4.06890 Y-2.42584
G01 X-4.07502 Y-2.42663
G01 X-4.08001 Y-2.42855
G01 X-4.08122 Y-2.42923
G01 X-4.14284 Y-2.42923
G01 X-4.14304 Y-2.42876
G01 X-4.14284 Y-2.42923
G01 X-4.25192 Y-2.53832
G01 X-4.25265 Y-2.53808
G01 X-4.25192 Y-2.53832
G01 X-4.25122 Y-2.54132
G01 X-4.25080 Y-2.54555
G01 X-4.25144 Y-2.54601
G01 X-4.25080 Y-2.54555
G01 X-4.01197 Y-2.66496
G01 X-4.01201 Y-2.66513
G01 X-4.01197 Y-2.66496
G01 X-3.93110 Y-2.66496
G01 X-3.92910 Y-2.66516
G01 X-3.92718 Y-2.66574
G01 X-3.92541 Y-2.66669
G01 X-3.92386 Y-2.66796
G01 X-3.92259 Y-2.66951
G01 X-3.92164 Y-2.67128
G01 X-3.92106 Y-2.67320
G01 X-3.92086 Y-2.67520
G01 X-3.92086 Y-2.81300
G01 X-3.92106 Y-2.81500
G01 X-3.92164 Y-2.81692
G01 X-3.92259 Y-2.81869
G01 X-3.92386 Y-2.82024
G01 X-3.92541 Y-2.82151
G01 X-3.92718 Y-2.82246
G01 X-3.92910 Y-2.82304
G01 X-3.93110 Y-2.82324
G01 X-4.06890 Y-2.82324
G01 X-4.07090 Y-2.82304
G01 X-4.07282 Y-2.82246
G01 X-4.07459 Y-2.82151
G01 X-4.07614 Y-2.82024
G01 X-4.07741 Y-2.81869
G01 X-4.07836 Y-2.81692
G01 X-4.07894 Y-2.81500
G01 X-4.07914 Y-2.81300
G01 X-4.07914 Y-2.68948
G01 X-4.07820 Y-2.68890
G01 X-4.07914 Y-2.68948
G01 X-4.27394 Y-2.59208
G01 X-4.27394 Y-2.59133
G01 X-4.27394 Y-2.59208
G01 X-4.28012 Y-2.59538
G01 X-4.28197 Y-2.59615
G01 X-4.28935 Y-2.59839
G01 X-4.29132 Y-2.59878
G01 X-4.29900 Y-2.59954
G01 X-4.30100 Y-2.59954
G01 X-4.30868 Y-2.59878
G01 X-4.31065 Y-2.59839
G01 X-4.31803 Y-2.59615
G01 X-4.31988 Y-2.59538
G01 X-4.32669 Y-2.59174
G01 X-4.32836 Y-2.59063
G01 X-4.33432 Y-2.58574
G01 X-4.33574 Y-2.58432
G01 X-4.34063 Y-2.57836
G01 X-4.34212 Y-2.57599
G01 X-4.34180 Y-2.57533
G01 X-4.34212 Y-2.57599
G01 X-4.65788 Y-2.57599
G01 X-4.65820 Y-2.57533
G01 X-4.65788 Y-2.57599
G01 X-4.65937 Y-2.57836
G01 X-4.66426 Y-2.58432
G01 X-4.66568 Y-2.58574
G01 X-4.67164 Y-2.59063
G01 X-4.67331 Y-2.59174
G01 X-4.68012 Y-2.59538
G01 X-4.68197 Y-2.59615
G01 X-4.68935 Y-2.59839
G01 X-4.69132 Y-2.59878
G01 X-4.69900 Y-2.59954
G01 X-4.70100 Y-2.59954
G01 X-4.70868 Y-2.59878
G01 X-4.71065 Y-2.59839
G01 X-4.71803 Y-2.59615
G01 X-4.71988 Y-2.59538
G01 X-4.72669 Y-2.59174
G01 X-4.72835 Y-2.59063
G01 X-4.73432 Y-2.58574
G01 X-4.73574 Y-2.58432
G01 X-4.74063 Y-2.57836
G01 X-4.74174 Y-2.57669
G01 X-4.74538 Y-2.56988
G01 X-4.74615 Y-2.56803
G01 X-4.74839 Y-2.56065
G01 X-4.74878 Y-2.55868
G01 X-4.74954 Y-2.55100
G01 X-4.74954 Y-2.54900
G01 X-4.74878 Y-2.54132
G01 X-4.74839 Y-2.53935
G01 X-4.74615 Y-2.53197
G01 X-4.74538 Y-2.53012
G01 X-4.74174 Y-2.52331
G01 X-4.74063 Y-2.52164
G01 X-4.73574 Y-2.51568
G01 X-4.73432 Y-2.51426
G01 X-4.72835 Y-2.50937
G01 X-4.72669 Y-2.50825
G01 X-4.71988 Y-2.50462
G01 X-4.71803 Y-2.50385
G01 X-4.71065 Y-2.50161
G01 X-4.70868 Y-2.50122
G01 X-4.70100 Y-2.50046
G01 X-4.69900 Y-2.50046
G01 X-4.69132 Y-2.50122
G01 X-4.68935 Y-2.50161
G01 X-4.68197 Y-2.50385
G01 X-4.68012 Y-2.50462
G01 X-4.67331 Y-2.50825
G01 X-4.67164 Y-2.50937
G01 X-4.66568 Y-2.51426
G01 X-4.66426 Y-2.51568
G01 X-4.65937 Y-2.52164
G01 X-4.65788 Y-2.52401
G01 X-4.65820 Y-2.52466
G01 X-4.65788 Y-2.52401
G01 X-4.34212 Y-2.52401
G01 X-4.34182 Y-2.52463
G01 X-4.34212 Y-2.52401
G01 X-4.34063 Y-2.52164
G01 X-4.33574 Y-2.51568
G01 X-4.33432 Y-2.51426
G01 X-4.32836 Y-2.50937
G01 X-4.32669 Y-2.50825
G01 X-4.31988 Y-2.50462
G01 X-4.31803 Y-2.50385
G01 X-4.31065 Y-2.50161
G01 X-4.30868 Y-2.50122
G01 X-4.30100 Y-2.50046
G01 X-4.29900 Y-2.50046
G01 X-4.29132 Y-2.50122
G01 X-4.28832 Y-2.50192
G01 X-4.28809 Y-2.50258
G01 X-4.28832 Y-2.50192
G01 X-4.17170 Y-2.38530
G01 X-4.16860 Y-2.38270
G01 X-4.16693 Y-2.38158
G01 X-4.16425 Y-2.38015
G01 X-4.16240 Y-2.37938
G01 X-4.15949 Y-2.37850
G01 X-4.15753 Y-2.37811
G01 X-4.15350 Y-2.37776
G01 X-3.79650 Y-2.37776
G01 X-3.79247 Y-2.37811
G01 X-3.79050 Y-2.37850
G01 X-3.78760 Y-2.37938
G01 X-3.78574 Y-2.38015
G01 X-3.78306 Y-2.38158
G01 X-3.78139 Y-2.38270
G01 X-3.77830 Y-2.38530
G01 X-3.66168 Y-2.50192
G01 X-3.66191 Y-2.50258
G01 X-3.66168 Y-2.50192
G01 X-3.65868 Y-2.50122
G01 X-3.65100 Y-2.50046
G01 X-3.64900 Y-2.50046
G01 X-3.64132 Y-2.50122
G01 X-3.63935 Y-2.50161
G01 X-3.63197 Y-2.50385
G01 X-3.63012 Y-2.50462
G01 X-3.62331 Y-2.50825
G01 X-3.62164 Y-2.50937
G01 X-3.61568 Y-2.51426
G01 X-3.61426 Y-2.51568
G01 X-3.60937 Y-2.52164
G01 X-3.60788 Y-2.52401
G01 X-3.60818 Y-2.52463
G01 X-3.60788 Y-2.52401
G01 X-3.29212 Y-2.52401
G01 X-3.29180 Y-2.52466
G01 X-3.29212 Y-2.52401
G01 X-3.29063 Y-2.52164
G01 X-3.28574 Y-2.51568
G01 X-3.28432 Y-2.51426
G01 X-3.27835 Y-2.50937
G01 X-3.27669 Y-2.50825
G01 X-3.26988 Y-2.50462
G01 X-3.26803 Y-2.50385
G01 X-3.26065 Y-2.50161
G01 X-3.25868 Y-2.50122
G01 X-3.25100 Y-2.50046
G01 X-3.24900 Y-2.50046
G01 X-3.24132 Y-2.50122
G01 X-3.23935 Y-2.50161
G01 X-3.23197 Y-2.50385
G01 X-3.23012 Y-2.50462
G01 X-3.22331 Y-2.50825
G01 X-3.22164 Y-2.50937
G01 X-3.21568 Y-2.51426
G01 X-3.21426 Y-2.51568
G01 X-3.20937 Y-2.52164
G01 X-3.20825 Y-2.52331
G01 X-3.20462 Y-2.53012
G01 X-3.20385 Y-2.53197
G01 X-3.20161 Y-2.53935
G01 X-3.20122 Y-2.54132
G01 X-3.20046 Y-2.54900
G01 X-3.20046 Y-2.55100
G01 X-3.20122 Y-2.55868
G01 X-3.20161 Y-2.56065
G01 X-3.20385 Y-2.56803
G01 X-3.20462 Y-2.56988
G01 X-3.20825 Y-2.57669
G01 X-3.20937 Y-2.57836
G01 X-3.21426 Y-2.58432
G01 X-3.21568 Y-2.58574
G01 X-3.22164 Y-2.59063
G01 X-3.22331 Y-2.59174
G01 X-3.23012 Y-2.59538
G01 X-3.23197 Y-2.59615
G01 X-3.23935 Y-2.59839
G01 X-3.24132 Y-2.59878
G01 X-3.24900 Y-2.59954
G01 X-3.25100 Y-2.59954
G01 X-3.25868 Y-2.59878
G01 X-3.26065 Y-2.59839
G01 X-3.26803 Y-2.59615
G01 X-3.26988 Y-2.59538
G01 X-3.27669 Y-2.59174
G01 X-3.27835 Y-2.59063
G01 X-3.28432 Y-2.58574
G01 X-3.28574 Y-2.58432
G01 X-3.29063 Y-2.57836
G01 X-3.29212 Y-2.57599
G01 X-3.29180 Y-2.57533
G01 X-3.29212 Y-2.57599
G01 X-3.60788 Y-2.57599
G01 X-3.60818 Y-2.57536
G01 X-3.60788 Y-2.57599
G01 X-3.60937 Y-2.57836
G01 X-3.61426 Y-2.58432
G01 X-3.61568 Y-2.58574
G01 X-3.62164 Y-2.59063
G01 X-3.62331 Y-2.59174
G01 X-3.63012 Y-2.59538
G01 X-3.63197 Y-2.59615
G01 X-3.63935 Y-2.59839
G01 X-3.64132 Y-2.59878
G01 X-3.64900 Y-2.59954
G01 X-3.65100 Y-2.59954
G01 X-3.65868 Y-2.59878
G01 X-3.66065 Y-2.59839
G01 X-3.66803 Y-2.59615
G01 X-3.66988 Y-2.59538
G01 X-3.67669 Y-2.59174
G01 X-3.67835 Y-2.59063
G01 X-3.68432 Y-2.58574
G01 X-3.68574 Y-2.58432
G01 X-3.69063 Y-2.57836
G01 X-3.69175 Y-2.57669
G01 X-3.69538 Y-2.56988
G01 X-3.69615 Y-2.56803
G01 X-3.69839 Y-2.56065
G01 X-3.69878 Y-2.55868
G01 X-3.69954 Y-2.55100
G01 X-3.69954 Y-2.54900
G01 X-3.69878 Y-2.54132
G01 X-3.69808 Y-2.53832
G01 X-3.69738 Y-2.53809
G01 X-3.69808 Y-2.53832
G01 X-3.80716 Y-2.42923
G01 X-3.80696 Y-2.42876
G01 X-3.80716 Y-2.42923
G01 X-3.91878 Y-2.42923
G01 X-3.91999 Y-2.42855
G01 X-3.92499 Y-2.42667
G01 X-3.93110 Y-2.42585
G01 X-4.06890 Y-2.42585
G01 X-4.07429 Y-2.42650
G01 X-4.08001 Y-2.42855
G01 X-4.08558 Y-2.43194
G01 X-4.08972 Y-2.43553
G01 X-4.14023 Y-2.43553
G01 X-4.14043 Y-2.43505
G01 X-4.14023 Y-2.43553
G01 X-4.24502 Y-2.54033
G01 X-4.24571 Y-2.54010
G01 X-4.24502 Y-2.54033
G01 X-4.24488 Y-2.54147
G01 X-4.24555 Y-2.54195
G01 X-4.24488 Y-2.54147
G01 X-4.01048 Y-2.65866
G01 X-4.01052 Y-2.65883
G01 X-4.01048 Y-2.65866
G01 X-3.93110 Y-2.65866
G01 X-3.92787 Y-2.65898
G01 X-3.92477 Y-2.65992
G01 X-3.92191 Y-2.66145
G01 X-3.91941 Y-2.66351
G01 X-3.91735 Y-2.66601
G01 X-3.91582 Y-2.66887
G01 X-3.91488 Y-2.67197
G01 X-3.91456 Y-2.67520
G01 X-3.91456 Y-2.81300
G01 X-3.91488 Y-2.81623
G01 X-3.91582 Y-2.81933
G01 X-3.91735 Y-2.82219
G01 X-3.91941 Y-2.82469
G01 X-3.92191 Y-2.82675
G01 X-3.92477 Y-2.82828
G01 X-3.92787 Y-2.82922
G01 X-3.93110 Y-2.82953
G01 X-4.06273 Y-2.82953
G01 X-4.06756 Y-2.82753
G01 X-4.07285 Y-2.82475
G01 X-4.07716 Y-2.82125
G01 X-4.08065 Y-2.81695
G01 X-4.08343 Y-2.81166
G01 X-4.08544 Y-2.80682
G01 X-4.08343 Y-2.81166
G01 X-4.08065 Y-2.81695
G01 X-4.07716 Y-2.82125
G01 X-4.07285 Y-2.82475
G01 X-4.06756 Y-2.82753
G01 X-4.04752 Y-2.83583
G01 X-3.93110 Y-2.83583
G01 X-3.92665 Y-2.83540
G01 X-3.92236 Y-2.83410
G01 X-3.91841 Y-2.83199
G01 X-3.91495 Y-2.82915
G01 X-3.91211 Y-2.82569
G01 X-3.91000 Y-2.82174
G01 X-3.90870 Y-2.81745
G01 X-3.90827 Y-2.81300
G01 X-3.90827 Y-2.70969
G01 X-3.90918 Y-2.70710
G01 X-3.91064 Y-2.69529
G01 X-3.91065 Y-2.67540
G01 X-3.91205 Y-2.66416
G01 X-3.91314 Y-2.66126
G01 X-3.91495 Y-2.65905
G01 X-3.91841 Y-2.65621
G01 X-3.92236 Y-2.65410
G01 X-3.92665 Y-2.65280
G01 X-3.93110 Y-2.65237
G01 X-4.00899 Y-2.65237
G01 X-4.00903 Y-2.65253
G01 X-4.00899 Y-2.65237
G01 X-4.23510 Y-2.53931
G01 X-4.23951 Y-2.54003
G01 X-4.23510 Y-2.53931
G01 X-4.13762 Y-2.44183
G01 X-4.13782 Y-2.44135
G01 X-4.13762 Y-2.44183
G01 X-4.09619 Y-2.44183
G01 X-4.09113 Y-2.43677
G01 X-4.08597 Y-2.43225
G01 X-4.08057 Y-2.42883
G01 X-4.07501 Y-2.42667
G01 X-4.06890 Y-2.42585
G01 X-3.93110 Y-2.42585
G01 X-3.92499 Y-2.42667
G01 X-3.91943 Y-2.42883
G01 X-3.91403 Y-2.43225
G01 X-3.90887 Y-2.43677
G01 X-3.90381 Y-2.44183
G01 X-3.81238 Y-2.44183
G01 X-3.81218 Y-2.44135
G01 X-3.81238 Y-2.44183
G01 X-3.71157 Y-2.54264
G01 X-3.71101 Y-2.54243
G01 X-3.71157 Y-2.54264
G01 X-3.71207 Y-2.54776
G01 X-3.71207 Y-2.55224
G01 X-3.71132 Y-2.55991
G01 X-3.71044 Y-2.56431
G01 X-3.70821 Y-2.57169
G01 X-3.70649 Y-2.57582
G01 X-3.70286 Y-2.58263
G01 X-3.70203 Y-2.58386
G01 X-3.69597 Y-2.58829
G01 X-3.68092 Y-2.60082
G01 X-3.67479 Y-2.60537
G01 X-3.67076 Y-2.60806
G01 X-3.66932 Y-2.60892
G01 X-3.66431 Y-2.61044
G01 X-3.65991 Y-2.61132
G01 X-3.65224 Y-2.61207
G01 X-3.64776 Y-2.61207
G01 X-3.64009 Y-2.61132
G01 X-3.63569 Y-2.61044
G01 X-3.62831 Y-2.60821
G01 X-3.62418 Y-2.60649
G01 X-3.61737 Y-2.60286
G01 X-3.61365 Y-2.60037
G01 X-3.60769 Y-2.59548
G01 X-3.60452 Y-2.59231
G01 X-3.60147 Y-2.58858
G01 X-3.60171 Y-2.58804
G01 X-3.60147 Y-2.58858
G01 X-3.29853 Y-2.58858
G01 X-3.29829 Y-2.58804
G01 X-3.29853 Y-2.58858
G01 X-3.29548 Y-2.59231
G01 X-3.29231 Y-2.59548
G01 X-3.28635 Y-2.60037
G01 X-3.28262 Y-2.60286
G01 X-3.27582 Y-2.60649
G01 X-3.27169 Y-2.60821
G01 X-3.26430 Y-2.61044
G01 X-3.25991 Y-2.61132
G01 X-3.25224 Y-2.61207
G01 X-3.24776 Y-2.61207
G01 X-3.24009 Y-2.61132
G01 X-3.23569 Y-2.61044
G01 X-3.22831 Y-2.60821
G01 X-3.22418 Y-2.60649
G01 X-3.21737 Y-2.60286
G01 X-3.21365 Y-2.60037
G01 X-3.20769 Y-2.59548
G01 X-3.20452 Y-2.59231
G01 X-3.19963 Y-2.58635
G01 X-3.19714 Y-2.58263
G01 X-3.19351 Y-2.57582
G01 X-3.19179 Y-2.57169
G01 X-3.18955 Y-2.56431
G01 X-3.18868 Y-2.55991
G01 X-3.18792 Y-2.55224
G01 X-3.20673 Y-2.55038
G01 X-3.20764 Y-2.55882
G01 X-3.20988 Y-2.56620
G01 X-3.21381 Y-2.57372
G01 X-3.21913 Y-2.58032
G01 X-3.22564 Y-2.58576
G01 X-3.23308 Y-2.58983
G01 X-3.24118 Y-2.59236
G01 X-3.24961 Y-2.59327
G01 X-3.25882 Y-2.59236
G01 X-3.26620 Y-2.59012
G01 X-3.27372 Y-2.58619
G01 X-3.28087 Y-2.58032
G01 X-3.28576 Y-2.57436
G01 X-3.28834 Y-2.56969
G01 X-3.61165 Y-2.56969
G01 X-3.61424 Y-2.57436
G01 X-3.61968 Y-2.58087
G01 X-3.62628 Y-2.58619
G01 X-3.63308 Y-2.58983
G01 X-3.64194 Y-2.59251
G01 X-3.64961 Y-2.59327
G01 X-3.65806 Y-2.59251
G01 X-3.66620 Y-2.59012
G01 X-3.67372 Y-2.58619
G01 X-3.68032 Y-2.58087
G01 X-3.68619 Y-2.57372
G01 X-3.69012 Y-2.56620
G01 X-3.69251 Y-2.55806
G01 X-3.69327 Y-2.54961
G01 X-3.69251 Y-2.54194
G01 X-3.69095 Y-2.53654
G01 X-3.80455 Y-2.42294
G01 X-4.14545 Y-2.42294
G01 X-4.25905 Y-2.53654
G01 X-4.25749 Y-2.54194
G01 X-4.25673 Y-2.54962
G01 X-4.01345 Y-2.67126
G01 X-3.93110 Y-2.67126
G01 X-3.93033 Y-2.67134
G01 X-3.92891 Y-2.67193
G01 X-3.92783 Y-2.67301
G01 X-3.92724 Y-2.67443
G01 X-3.92716 Y-2.81300
G01 X-3.92746 Y-2.81451
G01 X-3.92832 Y-2.81578
G01 X-3.92959 Y-2.81664
G01 X-3.93110 Y-2.81694
G01 X-4.06890 Y-2.81694
G01 X-4.07041 Y-2.81664
G01 X-4.07168 Y-2.81578
G01 X-4.07254 Y-2.81451
G01 X-4.07284 Y-2.81300
G01 X-4.07284 Y-2.68559
G01 X-4.27445 Y-2.58479
G01 X-4.27628 Y-2.58619
G01 X-4.28308 Y-2.58983
G01 X-4.29118 Y-2.59236
G01 X-4.29961 Y-2.59327
G01 X-4.30882 Y-2.59236
G01 X-4.31691 Y-2.58983
G01 X-4.32436 Y-2.58576
G01 X-4.33087 Y-2.58032
G01 X-4.33576 Y-2.57436
G01 X-4.33834 Y-2.56969
G01 X-4.66165 Y-2.56969
G01 X-4.66424 Y-2.57436
G01 X-4.66968 Y-2.58087
G01 X-4.67628 Y-2.58619
G01 X-4.68309 Y-2.58983
G01 X-4.69194 Y-2.59251
G01 X-4.69961 Y-2.59327
G01 X-4.70806 Y-2.59251
G01 X-4.71620 Y-2.59012
G01 X-4.72372 Y-2.58619
G01 X-4.73032 Y-2.58087
G01 X-4.73619 Y-2.57372
G01 X-4.74012 Y-2.56620
G01 X-4.74236 Y-2.55882
G01 X-4.74327 Y-2.55038
G01 X-4.74236 Y-2.54118
G01 X-4.73983 Y-2.53308
G01 X-4.73619 Y-2.52628
G01 X-4.73087 Y-2.51968
G01 X-4.72372 Y-2.51381
G01 X-4.71620 Y-2.50988
G01 X-4.70882 Y-2.50764
G01 X-4.70038 Y-2.50673
G01 X-4.69118 Y-2.50764
G01 X-4.68380 Y-2.50988
G01 X-4.67628 Y-2.51381
G01 X-4.66913 Y-2.51968
G01 X-4.66424 Y-2.52564
G01 X-4.66165 Y-2.53031
G01 X-4.33834 Y-2.53031
G01 X-4.33576 Y-2.52564
G01 X-4.33032 Y-2.51913
G01 X-4.32372 Y-2.51381
G01 X-4.31620 Y-2.50988
G01 X-4.30882 Y-2.50764
G01 X-4.30039 Y-2.50673
G01 X-4.29194 Y-2.50749
G01 X-4.28653 Y-2.50905
G01 X-4.16724 Y-2.38975
G01 X-4.16397 Y-2.38714
G01 X-4.16057 Y-2.38541
G01 X-4.15766 Y-2.38453
G01 X-4.15350 Y-2.38406
G01 X-3.79650 Y-2.38406
G01 X-3.79233 Y-2.38453
G01 X-3.78871 Y-2.38571
G01 X-3.78539 Y-2.38757
G01 X-3.78275 Y-2.38975
G01 X-3.66346 Y-2.50905
G01 X-3.65806 Y-2.50749
G01 X-3.64961 Y-2.50673
G01 X-3.64118 Y-2.50764
G01 X-3.63380 Y-2.50988
G01 X-3.62628 Y-2.51381
G01 X-3.61968 Y-2.51913
G01 X-3.61424 Y-2.52564
G01 X-3.61165 Y-2.53031
G01 X-3.28834 Y-2.53031
G01 X-3.28576 Y-2.52564
G01 X-3.28087 Y-2.51968
G01 X-3.27372 Y-2.51381
G01 X-3.26620 Y-2.50988
G01 X-3.25882 Y-2.50764
G01 X-3.24961 Y-2.50673
G01 X-3.24118 Y-2.50764
G01 X-3.23308 Y-2.51017
G01 X-3.22564 Y-2.51424
G01 X-3.21913 Y-2.51968
G01 X-3.21381 Y-2.52628
G01 X-3.20988 Y-2.53380
G01 X-3.20749 Y-2.54194
G01 X-3.20673 Y-2.55038
G04 P0 ( dwell for no time -- G64 should not smooth over this point )
G00 Z0.08000 ( retract )

G00 X-3.20611 Y-2.91568 ( rapid move to begin. )
G01 F180.00000
( Mill infeed pass 1/1 )
G01 Z-0.04000
G04 P0 ( dwell for no time -- G64 should not smooth over this point )
G01 F360.00000
G01 X-3.20611 Y-2.91568
G01 X-3.20832 Y-2.90952
G01 X-3.21010 Y-2.90523
G01 X-3.21218 Y-2.90084
G01 X-3.21365 Y-2.89963
G01 X-3.21737 Y-2.89714
G01 X-3.22418 Y-2.89351
G01 X-3.22831 Y-2.89179
G01 X-3.23569 Y-2.88955
G01 X-3.24009 Y-2.88868
G01 X-3.24776 Y-2.88793
G01 X-3.25224 Y-2.88793
G01 X-3.25736 Y-2.88843
G01 X-3.25757 Y-2.88898
G01 X-3.25736 Y-2.88843
G01 X-3.32289 Y-2.82289
G01 X-3.32690 Y-2.81946
G01 X-3.33062 Y-2.81697
G01 X-3.33330 Y-2.81554
G01 X-3.33744 Y-2.81383
G01 X-3.34035 Y-2.81295
G01 X-3.34470 Y-2.81243
G01 X-3.34762 Y-2.81228
G01 X-3.35470 Y-2.81225
G01 X-3.36502 Y-2.80837
G01 X-3.37460 Y-2.80718
G01 X-3.42545 Y-2.80718
G01 X-3.43233 Y-2.80779
G01 X-3.43912 Y-2.80962
G01 X-3.44481 Y-2.81216
G01 X-3.44669 Y-2.81567
G01 X-3.44799 Y-2.81995
G01 X-3.44842 Y-2.82441
G01 X-3.44842 Y-2.82835
G01 X-3.44761 Y-2.83245
G01 X-3.44685 Y-2.83762
G01 X-3.44637 Y-2.84251
G01 X-3.44611 Y-2.84768
G01 X-3.44612 Y-2.85248
G01 X-3.44637 Y-2.85765
G01 X-3.44687 Y-2.86253
G01 X-3.44761 Y-2.86755
G01 X-3.44842 Y-2.87165
G01 X-3.44842 Y-2.87559
G01 X-3.44799 Y-2.88004
G01 X-3.44669 Y-2.88433
G01 X-3.44458 Y-2.88828
G01 X-3.44174 Y-2.89174
G01 X-3.43828 Y-2.89458
G01 X-3.43433 Y-2.89669
G01 X-3.43004 Y-2.89799
G01 X-3.42559 Y-2.89843
G01 X-3.37441 Y-2.89843
G01 X-3.36995 Y-2.89799
G01 X-3.36567 Y-2.89669
G01 X-3.36172 Y-2.89458
G01 X-3.36058 Y-2.89364
G01 X-3.36037 Y-2.89196
G01 X-3.36058 Y-2.89364
G01 X-3.31157 Y-2.94264
G01 X-3.31101 Y-2.94243
G01 X-3.31157 Y-2.94264
G01 X-3.31207 Y-2.94776
G01 X-3.31207 Y-2.95224
G01 X-3.31132 Y-2.95991
G01 X-3.31045 Y-2.96430
G01 X-3.30821 Y-2.97169
G01 X-3.30649 Y-2.97582
G01 X-3.30286 Y-2.98263
G01 X-3.30037 Y-2.98635
G01 X-3.29548 Y-2.99231
G01 X-3.29231 Y-2.99548
G01 X-3.28833 Y-2.99874
G01 X-3.28779 Y-2.99850
G01 X-3.28833 Y-2.99874
G01 X-3.28833 Y-3.16433
G01 X-3.28785 Y-3.16453
G01 X-3.28833 Y-3.16433
G01 X-3.33567 Y-3.21166
G01 X-3.33547 Y-3.21214
G01 X-3.33567 Y-3.21166
G01 X-3.33943 Y-3.21166
G01 X-3.34214 Y-3.21279
G01 X-3.34544 Y-3.21387
G01 X-3.36801 Y-3.21378
G01 X-3.36483 Y-3.21474
G01 X-3.36297 Y-3.21551
G01 X-3.35821 Y-3.21806
G01 X-3.35654 Y-3.21917
G01 X-3.35236 Y-3.22260
G01 X-3.35074 Y-3.22426
G01 X-3.35088 Y-3.22464
G01 X-3.35074 Y-3.22426
G01 X-3.33045 Y-3.22426
G01 X-3.33025 Y-3.22474
G01 X-3.33045 Y-3.22426
G01 X-3.27574 Y-3.16955
G01 X-3.27526 Y-3.16975
G01 X-3.27574 Y-3.16955
G01 X-3.27574 Y-2.99225
G01 X-3.27511 Y-2.99195
G01 X-3.27574 Y-2.99225
G01 X-3.27835 Y-2.99063
G01 X-3.28432 Y-2.98574
G01 X-3.28574 Y-2.98432
G01 X-3.29063 Y-2.97836
G01 X-3.29175 Y-2.97669
G01 X-3.29538 Y-2.96988
G01 X-3.29615 Y-2.96803
G01 X-3.29839 Y-2.96065
G01 X-3.29878 Y-2.95868
G01 X-3.29954 Y-2.95100
G01 X-3.29954 Y-2.94900
G01 X-3.29878 Y-2.94132
G01 X-3.29808 Y-2.93832
G01 X-3.29742 Y-2.93809
G01 X-3.29808 Y-2.93832
G01 X-3.36066 Y-2.87574
G01 X-3.36046 Y-2.87526
G01 X-3.36066 Y-2.87574
G01 X-3.36419 Y-2.87574
G01 X-3.36535 Y-2.87431
G01 X-3.36419 Y-2.87574
G01 X-3.36437 Y-2.87759
G01 X-3.36495 Y-2.87951
G01 X-3.36590 Y-2.88128
G01 X-3.36717 Y-2.88283
G01 X-3.36872 Y-2.88410
G01 X-3.37049 Y-2.88505
G01 X-3.37241 Y-2.88563
G01 X-3.37441 Y-2.88583
G01 X-3.42559 Y-2.88583
G01 X-3.42759 Y-2.88563
G01 X-3.42951 Y-2.88505
G01 X-3.43128 Y-2.88410
G01 X-3.43283 Y-2.88283
G01 X-3.43410 Y-2.88128
G01 X-3.43505 Y-2.87951
G01 X-3.43563 Y-2.87759
G01 X-3.43583 Y-2.87559
G01 X-3.43583 Y-2.82441
G01 X-3.43563 Y-2.82241
G01 X-3.43505 Y-2.82049
G01 X-3.43410 Y-2.81872
G01 X-3.43283 Y-2.81717
G01 X-3.43128 Y-2.81590
G01 X-3.42951 Y-2.81495
G01 X-3.42759 Y-2.81437
G01 X-3.42559 Y-2.81417
G01 X-3.37441 Y-2.81417
G01 X-3.37241 Y-2.81437
G01 X-3.37049 Y-2.81495
G01 X-3.36872 Y-2.81590
G01 X-3.36717 Y-2.81717
G01 X-3.36590 Y-2.81872
G01 X-3.36495 Y-2.82049
G01 X-3.36437 Y-2.82241
G01 X-3.36419 Y-2.82426
G01 X-3.36532 Y-2.82563
G01 X-3.36419 Y-2.82426
G01 X-3.34900 Y-2.82431
G01 X-3.34597 Y-2.82461
G01 X-3.34400 Y-2.82500
G01 X-3.34110 Y-2.82588
G01 X-3.33924 Y-2.82665
G01 X-3.33656 Y-2.82808
G01 X-3.33489 Y-2.82920
G01 X-3.33180 Y-2.83180
G01 X-3.26168 Y-2.90192
G01 X-3.26191 Y-2.90262
G01 X-3.26168 Y-2.90192
G01 X-3.25868 Y-2.90122
G01 X-3.25100 Y-2.90046
G01 X-3.24900 Y-2.90046
G01 X-3.24132 Y-2.90122
G01 X-3.23935 Y-2.90161
G01 X-3.23197 Y-2.90385
G01 X-3.23012 Y-2.90462
G01 X-3.22331 Y-2.90825
G01 X-3.22164 Y-2.90937
G01 X-3.21568 Y-2.91426
G01 X-3.21426 Y-2.91568
G01 X-3.20937 Y-2.92164
G01 X-3.20825 Y-2.92331
G01 X-3.20462 Y-2.93012
G01 X-3.20385 Y-2.93197
G01 X-3.20161 Y-2.93935
G01 X-3.20122 Y-2.94132
G01 X-3.20046 Y-2.94900
G01 X-3.20046 Y-2.95100
G01 X-3.20122 Y-2.95868
G01 X-3.20161 Y-2.96065
G01 X-3.20385 Y-2.96803
G01 X-3.20462 Y-2.96988
G01 X-3.20825 Y-2.97669
G01 X-3.20937 Y-2.97836
G01 X-3.21426 Y-2.98432
G01 X-3.21568 Y-2.98574
G01 X-3.22164 Y-2.99063
G01 X-3.22426 Y-2.99225
G01 X-3.22426 Y-3.18021
G01 X-3.22461 Y-3.18424
G01 X-3.22500 Y-3.18621
G01 X-3.22588 Y-3.18911
G01 X-3.22665 Y-3.19097
G01 X-3.22808 Y-3.19365
G01 X-3.22920 Y-3.19532
G01 X-3.23180 Y-3.19841
G01 X-3.30159 Y-3.26820
G01 X-3.30468 Y-3.27080
G01 X-3.30635 Y-3.27191
G01 X-3.30903 Y-3.27335
G01 X-3.31088 Y-3.27412
G01 X-3.31379 Y-3.27500
G01 X-3.31576 Y-3.27539
G01 X-3.31979 Y-3.27574
G01 X-3.35074 Y-3.27574
G01 X-3.35088 Y-3.27536
G01 X-3.35074 Y-3.27574
G01 X-3.35236 Y-3.27740
G01 X-3.35654 Y-3.28083
G01 X-3.35821 Y-3.28194
G01 X-3.36297 Y-3.28449
G01 X-3.36483 Y-3.28526
G01 X-3.36800 Y-3.28622
G01 X-3.34544 Y-3.28613
G01 X-3.34214 Y-3.28721
G01 X-3.33943 Y-3.28833
G01 X-3.31979 Y-3.28833
G01 X-3.31452 Y-3.28793
G01 X-3.31013 Y-3.28705
G01 X-3.30723 Y-3.28617
G01 X-3.30309 Y-3.28446
G01 X-3.30041 Y-3.28303
G01 X-3.29669 Y-3.28054
G01 X-3.29268 Y-3.27711
G01 X-3.22289 Y-3.20732
G01 X-3.21946 Y-3.20331
G01 X-3.21697 Y-3.19959
G01 X-3.21554 Y-3.19691
G01 X-3.21383 Y-3.19277
G01 X-3.21277 Y-3.18896
G01 X-3.21243 Y-3.18551
G01 X-3.21222 Y-3.18017
G01 X-3.21222 Y-2.99996
G01 X-3.21233 Y-2.99994
G01 X-3.21222 Y-2.99996
G01 X-3.21192 Y-2.99862
G01 X-3.21010 Y-2.99477
G01 X-3.20832 Y-2.99047
G01 X-3.20612 Y-2.98432
G01 X-3.20939 Y-2.98831
G01 X-3.21169 Y-2.99061
G01 X-3.21765 Y-2.99550
G01 X-3.21796 Y-2.99571
G01 X-3.21857 Y-2.99542
G01 X-3.21796 Y-2.99571
G01 X-3.21796 Y-3.18021
G01 X-3.21834 Y-3.18486
G01 X-3.21897 Y-3.18804
G01 X-3.21986 Y-3.19094
G01 X-3.22110 Y-3.19394
G01 X-3.22253 Y-3.19662
G01 X-3.22433 Y-3.19931
G01 X-3.22626 Y-3.20166
G01 X-3.29713 Y-3.27265
G01 X-3.30069 Y-3.27567
G01 X-3.30338 Y-3.27747
G01 X-3.30606 Y-3.27890
G01 X-3.30905 Y-3.28014
G01 X-3.31196 Y-3.28103
G01 X-3.31514 Y-3.28166
G01 X-3.31817 Y-3.28195
G01 X-3.34814 Y-3.28204
G01 X-3.34826 Y-3.28168
G01 X-3.34814 Y-3.28204
G01 X-3.34837 Y-3.28227
G01 X-3.35333 Y-3.28622
G01 X-3.43200 Y-3.28622
G01 X-3.43517 Y-3.28526
G01 X-3.43703 Y-3.28449
G01 X-3.44179 Y-3.28194
G01 X-3.44346 Y-3.28083
G01 X-3.44763 Y-3.27740
G01 X-3.44905 Y-3.27598
G01 X-3.45248 Y-3.27180
G01 X-3.45359 Y-3.27014
G01 X-3.45614 Y-3.26537
G01 X-3.45691 Y-3.26352
G01 X-3.45848 Y-3.25835
G01 X-3.45887 Y-3.25638
G01 X-3.45940 Y-3.25100
G01 X-3.45940 Y-3.24900
G01 X-3.45887 Y-3.24362
G01 X-3.45848 Y-3.24165
G01 X-3.45691 Y-3.23648
G01 X-3.45614 Y-3.23463
G01 X-3.45359 Y-3.22986
G01 X-3.45248 Y-3.22819
G01 X-3.44905 Y-3.22402
G01 X-3.44763 Y-3.22260
G01 X-3.44346 Y-3.21917
G01 X-3.44179 Y-3.21806
G01 X-3.43703 Y-3.21551
G01 X-3.43517 Y-3.21474
G01 X-3.43199 Y-3.21378
G01 X-3.36801 Y-3.21378
G01 X-3.45360 Y-3.21378
G01 X-3.45844 Y-3.21568
G01 X-3.46222 Y-3.22020
G01 X-3.46471 Y-3.22392
G01 X-3.46725 Y-3.22869
G01 X-3.46897 Y-3.23283
G01 X-3.47053 Y-3.23799
G01 X-3.47141 Y-3.24239
G01 X-3.47194 Y-3.24776
G01 X-3.47194 Y-3.25224
G01 X-3.47141 Y-3.25761
G01 X-3.47053 Y-3.26200
G01 X-3.46897 Y-3.26717
G01 X-3.46725 Y-3.27131
G01 X-3.46471 Y-3.27608
G01 X-3.46222 Y-3.27980
G01 X-3.45844 Y-3.28432
G01 X-3.45360 Y-3.28622
G01 X-3.34546 Y-3.28622
G01 X-3.34440 Y-3.28640
G01 X-3.33943 Y-3.28833
G01 X-3.31755 Y-3.28822
G01 X-3.31452 Y-3.28793
G01 X-3.31013 Y-3.28705
G01 X-3.30723 Y-3.28617
G01 X-3.30309 Y-3.28446
G01 X-3.30041 Y-3.28303
G01 X-3.29669 Y-3.28054
G01 X-3.29268 Y-3.27711
G01 X-3.22289 Y-3.20732
G01 X-3.21946 Y-3.20331
G01 X-3.21697 Y-3.19959
G01 X-3.21554 Y-3.19691
G01 X-3.21383 Y-3.19277
G01 X-3.21277 Y-3.18896
G01 X-3.21228 Y-3.18259
G01 X-3.21222 Y-2.99996
G01 X-3.21192 Y-2.99862
G01 X-3.21010 Y-2.99477
G01 X-3.20832 Y-2.99047
G01 X-3.20561 Y-2.98291
G01 X-3.20456 Y-2.97944
G01 X-3.20266 Y-2.97188
G01 X-3.20208 Y-2.96897
G01 X-3.20096 Y-2.96141
G01 X-3.20033 Y-2.95125
G01 X-3.20046 Y-2.95100
G01 X-3.20122 Y-2.95868
G01 X-3.20161 Y-2.96065
G01 X-3.20385 Y-2.96803
G01 X-3.20462 Y-2.96988
G01 X-3.20825 Y-2.97669
G01 X-3.20937 Y-2.97836
G01 X-3.21426 Y-2.98432
G01 X-3.21568 Y-2.98574
G01 X-3.22164 Y-2.99063
G01 X-3.22426 Y-2.99225
G01 X-3.22489 Y-2.99195
G01 X-3.22426 Y-2.99225
G01 X-3.22426 Y-3.18021
G01 X-3.22461 Y-3.18424
G01 X-3.22500 Y-3.18621
G01 X-3.22588 Y-3.18911
G01 X-3.22665 Y-3.19097
G01 X-3.22808 Y-3.19365
G01 X-3.22920 Y-3.19532
G01 X-3.23180 Y-3.19841
G01 X-3.30159 Y-3.26820
G01 X-3.30468 Y-3.27080
G01 X-3.30635 Y-3.27191
G01 X-3.30903 Y-3.27335
G01 X-3.31088 Y-3.27412
G01 X-3.31379 Y-3.27500
G01 X-3.31576 Y-3.27539
G01 X-3.31878 Y-3.27569
G01 X-3.35074 Y-3.27574
G01 X-3.35236 Y-3.27740
G01 X-3.35654 Y-3.28083
G01 X-3.35821 Y-3.28194
G01 X-3.36297 Y-3.28449
G01 X-3.36483 Y-3.28526
G01 X-3.36800 Y-3.28622
G01 X-3.44667 Y-3.28622
G01 X-3.45163 Y-3.28227
G01 X-3.45392 Y-3.27998
G01 X-3.45735 Y-3.27580
G01 X-3.45915 Y-3.27311
G01 X-3.46170 Y-3.26834
G01 X-3.46294 Y-3.26535
G01 X-3.46451 Y-3.26018
G01 X-3.46514 Y-3.25700
G01 X-3.46567 Y-3.25162
G01 X-3.46567 Y-3.24838
G01 X-3.46514 Y-3.24300
G01 X-3.46451 Y-3.23982
G01 X-3.46294 Y-3.23465
G01 X-3.46170 Y-3.23166
G01 X-3.45915 Y-3.22689
G01 X-3.45735 Y-3.22420
G01 X-3.45392 Y-3.22002
G01 X-3.45163 Y-3.21773
G01 X-3.44745 Y-3.21430
G01 X-3.44667 Y-3.21378
G01 X-3.35333 Y-3.21378
G01 X-3.34837 Y-3.21773
G01 X-3.34814 Y-3.21796
G01 X-3.34826 Y-3.21832
G01 X-3.34814 Y-3.21796
G01 X-3.33306 Y-3.21796
G01 X-3.33286 Y-3.21844
G01 X-3.33306 Y-3.21796
G01 X-3.28204 Y-3.16694
G01 X-3.28155 Y-3.16714
G01 X-3.28204 Y-3.16694
G01 X-3.28204 Y-2.99571
G01 X-3.28142 Y-2.99542
G01 X-3.28204 Y-2.99571
G01 X-3.28235 Y-2.99550
G01 X-3.28831 Y-2.99061
G01 X-3.29061 Y-2.98831
G01 X-3.29550 Y-2.98235
G01 X-3.29730 Y-2.97966
G01 X-3.30094 Y-2.97285
G01 X-3.30218 Y-2.96986
G01 X-3.30442 Y-2.96248
G01 X-3.30505 Y-2.95930
G01 X-3.30580 Y-2.95162
G01 X-3.30580 Y-2.94838
G01 X-3.30505 Y-2.94070
G01 X-3.30498 Y-2.94033
G01 X-3.30438 Y-2.94011
G01 X-3.30498 Y-2.94033
G01 X-3.36061 Y-2.88469
G01 X-3.36062 Y-2.88206
G01 X-3.36066 Y-2.88478
G01 X-3.36272 Y-2.88728
G01 X-3.36522 Y-2.88934
G01 X-3.36808 Y-2.89087
G01 X-3.37118 Y-2.89181
G01 X-3.37441 Y-2.89213
G01 X-3.42559 Y-2.89213
G01 X-3.42882 Y-2.89181
G01 X-3.43192 Y-2.89087
G01 X-3.43478 Y-2.88934
G01 X-3.43728 Y-2.88728
G01 X-3.43934 Y-2.88478
G01 X-3.44087 Y-2.88192
G01 X-3.44181 Y-2.87882
G01 X-3.44212 Y-2.87559
G01 X-3.44212 Y-2.82441
G01 X-3.44181 Y-2.82118
G01 X-3.44087 Y-2.81808
G01 X-3.43934 Y-2.81522
G01 X-3.43728 Y-2.81272
G01 X-3.43478 Y-2.81066
G01 X-3.43192 Y-2.80913
G01 X-3.42882 Y-2.80819
G01 X-3.42559 Y-2.80787
G01 X-3.37441 Y-2.80787
G01 X-3.37118 Y-2.80819
G01 X-3.36808 Y-2.80913
G01 X-3.36522 Y-2.81066
G01 X-3.36272 Y-2.81272
G01 X-3.36066 Y-2.81522
G01 X-3.35920 Y-2.81796
G01 X-3.35957 Y-2.81866
G01 X-3.35920 Y-2.81796
G01 X-3.35000 Y-2.81796
G01 X-3.34536 Y-2.81834
G01 X-3.34218 Y-2.81897
G01 X-3.33927 Y-2.81986
G01 X-3.33627 Y-2.82110
G01 X-3.33359 Y-2.82253
G01 X-3.33090 Y-2.82433
G01 X-3.32735 Y-2.82735
G01 X-3.25967 Y-2.89502
G01 X-3.25989 Y-2.89561
G01 X-3.25967 Y-2.89502
G01 X-3.25930 Y-2.89495
G01 X-3.25162 Y-2.89419
G01 X-3.24838 Y-2.89419
G01 X-3.24070 Y-2.89495
G01 X-3.23752 Y-2.89558
G01 X-3.23014 Y-2.89782
G01 X-3.22715 Y-2.89906
G01 X-3.22034 Y-2.90270
G01 X-3.21765 Y-2.90450
G01 X-3.21169 Y-2.90939
G01 X-3.20939 Y-2.91168
G01 X-3.20611 Y-2.91568
G01 X-3.20456 Y-2.92055
G01 X-3.20266 Y-2.92812
G01 X-3.20208 Y-2.93103
G01 X-3.20070 Y-2.94119
G01 X-3.20033 Y-2.94875
G01 X-3.20070 Y-2.95881
G01 X-3.20208 Y-2.96897
G01 X-3.20266 Y-2.97188
G01 X-3.20456 Y-2.97944
G01 X-3.20612 Y-2.98432
G01 X-3.20456 Y-2.97944
G01 X-3.20266 Y-2.97188
G01 X-3.20208 Y-2.96897
G01 X-3.20070 Y-2.95881
G01 X-3.20033 Y-2.95125
G01 X-3.20070 Y-2.94119
G01 X-3.20208 Y-2.93103
G01 X-3.20266 Y-2.92812
G01 X-3.20456 Y-2.92055
G01 X-3.20611 Y-2.91568
G01 X-3.20456 Y-2.92055
G01 X-3.20266 Y-2.92812
G01 X-3.20208 Y-2.93103
G01 X-3.20070 Y-2.94119
G01 X-3.20033 Y-2.95125
G01 X-3.20046 Y-2.95100
G01 X-3.20673 Y-2.95038
G01 X-3.20764 Y-2.95882
G01 X-3.20988 Y-2.96620
G01 X-3.21381 Y-2.97372
G01 X-3.21968 Y-2.98087
G01 X-3.22564 Y-2.98576
G01 X-3.23056 Y-2.98848
G01 X-3.23056 Y-3.18021
G01 X-3.23088 Y-3.18362
G01 X-3.23191 Y-3.18729
G01 X-3.23407 Y-3.19132
G01 X-3.23625 Y-3.19395
G01 X-3.30604 Y-3.26374
G01 X-3.30868 Y-3.26593
G01 X-3.31200 Y-3.26779
G01 X-3.31562 Y-3.26897
G01 X-3.31979 Y-3.26944
G01 X-3.35372 Y-3.26944
G01 X-3.35636 Y-3.27253
G01 X-3.36054 Y-3.27596
G01 X-3.36594 Y-3.27893
G01 X-3.37183 Y-3.28080
G01 X-3.37796 Y-3.28148
G01 X-3.42204 Y-3.28148
G01 X-3.42741 Y-3.28095
G01 X-3.43334 Y-3.27923
G01 X-3.43882 Y-3.27639
G01 X-3.44364 Y-3.27253
G01 X-3.44804 Y-3.26717
G01 X-3.45088 Y-3.26169
G01 X-3.45260 Y-3.25576
G01 X-3.45313 Y-3.25039
G01 X-3.45245 Y-3.24348
G01 X-3.45088 Y-3.23831
G01 X-3.44804 Y-3.23283
G01 X-3.44418 Y-3.22802
G01 X-3.43882 Y-3.22361
G01 X-3.43334 Y-3.22077
G01 X-3.42741 Y-3.21905
G01 X-3.42204 Y-3.21852
G01 X-3.37796 Y-3.21852
G01 X-3.37183 Y-3.21920
G01 X-3.36594 Y-3.22107
G01 X-3.36054 Y-3.22404
G01 X-3.35636 Y-3.22747
G01 X-3.35372 Y-3.23056
G01 X-3.32784 Y-3.23056
G01 X-3.26944 Y-3.17216
G01 X-3.26944 Y-2.98848
G01 X-3.27436 Y-2.98576
G01 X-3.28087 Y-2.98032
G01 X-3.28619 Y-2.97372
G01 X-3.29012 Y-2.96620
G01 X-3.29236 Y-2.95882
G01 X-3.29327 Y-2.95038
G01 X-3.29251 Y-2.94194
G01 X-3.29095 Y-2.93654
G01 X-3.35805 Y-2.86944
G01 X-3.37047 Y-2.86944
G01 X-3.37047 Y-2.87559
G01 X-3.37077 Y-2.87710
G01 X-3.37114 Y-2.87778
G01 X-3.37222 Y-2.87886
G01 X-3.37364 Y-2.87945
G01 X-3.42559 Y-2.87953
G01 X-3.42710 Y-2.87923
G01 X-3.42837 Y-2.87837
G01 X-3.42923 Y-2.87710
G01 X-3.42953 Y-2.87559
G01 X-3.42953 Y-2.82441
G01 X-3.42923 Y-2.82290
G01 X-3.42886 Y-2.82222
G01 X-3.42778 Y-2.82113
G01 X-3.42710 Y-2.82077
G01 X-3.42559 Y-2.82047
G01 X-3.37364 Y-2.82055
G01 X-3.37222 Y-2.82113
G01 X-3.37114 Y-2.82222
G01 X-3.37077 Y-2.82290
G01 X-3.37047 Y-2.82441
G01 X-3.37047 Y-2.83056
G01 X-3.35000 Y-2.83056
G01 X-3.34659 Y-2.83088
G01 X-3.34293 Y-2.83191
G01 X-3.33953 Y-2.83364
G01 X-3.33625 Y-2.83625
G01 X-3.26346 Y-2.90905
G01 X-3.25806 Y-2.90749
G01 X-3.25039 Y-2.90673
G01 X-3.24118 Y-2.90764
G01 X-3.23380 Y-2.90988
G01 X-3.22628 Y-2.91381
G01 X-3.21968 Y-2.91913
G01 X-3.21381 Y-2.92628
G01 X-3.20988 Y-2.93380
G01 X-3.20749 Y-2.94194
G01 X-3.20673 Y-2.95038
G04 P0 ( dwell for no time -- G64 should not smooth over this point )
G00 Z0.08000 ( retract )

G00 X-3.43200 Y-3.20748 ( rapid move to begin. )
G01 F180.00000
( Mill infeed pass 1/1 )
G01 Z-0.04000
G04 P0 ( dwell for no time -- G64 should not smooth over this point )
G01 F360.00000
G01 X-3.43200 Y-3.20748
G01 X-3.34600 Y-3.20748
G01 X-3.34181 Y-3.20583
G01 X-3.33778 Y-3.20106
G01 X-3.33529 Y-3.19733
G01 X-3.33275 Y-3.19257
G01 X-3.33103 Y-3.18843
G01 X-3.32946 Y-3.18326
G01 X-3.32859 Y-3.17887
G01 X-3.32806 Y-3.17350
G01 X-3.32806 Y-3.16902
G01 X-3.32859 Y-3.16364
G01 X-3.32946 Y-3.15925
G01 X-3.33103 Y-3.15408
G01 X-3.33275 Y-3.14995
G01 X-3.33529 Y-3.14518
G01 X-3.33778 Y-3.14146
G01 X-3.34121 Y-3.13729
G01 X-3.34437 Y-3.13412
G01 X-3.34855 Y-3.13069
G01 X-3.35227 Y-3.12821
G01 X-3.35704 Y-3.12566
G01 X-3.36117 Y-3.12395
G01 X-3.36634 Y-3.12238
G01 X-3.37073 Y-3.12150
G01 X-3.37835 Y-3.12087
G01 X-3.42165 Y-3.12087
G01 X-3.42927 Y-3.12150
G01 X-3.43366 Y-3.12238
G01 X-3.43883 Y-3.12395
G01 X-3.44296 Y-3.12566
G01 X-3.44773 Y-3.12821
G01 X-3.45145 Y-3.13069
G01 X-3.45386 Y-3.13267
G01 X-3.45376 Y-3.13298
G01 X-3.45386 Y-3.13267
G01 X-4.02682 Y-3.13267
G01 X-4.02702 Y-3.13315
G01 X-4.02682 Y-3.13267
G01 X-4.26142 Y-2.89808
G01 X-4.26189 Y-2.89828
G01 X-4.26142 Y-2.89808
G01 X-4.26142 Y-2.85000
G01 X-4.26152 Y-2.84776
G01 X-4.26183 Y-2.84469
G01 X-4.26270 Y-2.84030
G01 X-4.26360 Y-2.83734
G01 X-4.26561 Y-2.83264
G01 X-4.27090 Y-2.82976
G01 X-4.27385 Y-2.82837
G01 X-4.28061 Y-2.82573
G01 X-4.28688 Y-2.82398
G01 X-4.28991 Y-2.82337
G01 X-4.29568 Y-2.82266
G01 X-4.30004 Y-2.82248
G01 X-4.42529 Y-2.82253
G01 X-4.43211 Y-2.82036
G01 X-4.43907 Y-2.81873
G01 X-4.44581 Y-2.81782
G01 X-4.45067 Y-2.81758
G01 X-4.45734 Y-2.81782
G01 X-4.46408 Y-2.81873
G01 X-4.47104 Y-2.82036
G01 X-4.47350 Y-2.82111
G01 X-4.47837 Y-2.82285
G01 X-4.48627 Y-2.82642
G01 X-4.49010 Y-2.82847
G01 X-4.49591 Y-2.83198
G01 X-4.49689 Y-2.83831
G01 X-4.49734 Y-2.84289
G01 X-4.49758 Y-2.84775
G01 X-4.49758 Y-2.85224
G01 X-4.49734 Y-2.85711
G01 X-4.49689 Y-2.86169
G01 X-4.49617 Y-2.86655
G01 X-4.49535 Y-2.87056
G01 X-4.49299 Y-2.87498
G01 X-4.49050 Y-2.87870
G01 X-4.48732 Y-2.88258
G01 X-4.48416 Y-2.88575
G01 X-4.48028 Y-2.88893
G01 X-4.47656 Y-2.89142
G01 X-4.47213 Y-2.89378
G01 X-4.46800 Y-2.89549
G01 X-4.46319 Y-2.89695
G01 X-4.45880 Y-2.89782
G01 X-4.45381 Y-2.89832
G01 X-4.44934 Y-2.89832
G01 X-4.44434 Y-2.89782
G01 X-4.43995 Y-2.89695
G01 X-4.43515 Y-2.89549
G01 X-4.43102 Y-2.89378
G01 X-4.42659 Y-2.89142
G01 X-4.42287 Y-2.88893
G01 X-4.42245 Y-2.88858
G01 X-4.42252 Y-2.88835
G01 X-4.42245 Y-2.88858
G01 X-4.33858 Y-2.88858
G01 X-4.33674 Y-2.88674
G01 X-4.33858 Y-2.88858
G01 X-4.33858 Y-2.90146
G01 X-4.33804 Y-2.90171
G01 X-4.33858 Y-2.90146
G01 X-4.34231 Y-2.90452
G01 X-4.34548 Y-2.90769
G01 X-4.35037 Y-2.91365
G01 X-4.35286 Y-2.91737
G01 X-4.35649 Y-2.92418
G01 X-4.35821 Y-2.92831
G01 X-4.36045 Y-2.93569
G01 X-4.36132 Y-2.94008
G01 X-4.36207 Y-2.94776
G01 X-4.36207 Y-2.95224
G01 X-4.36132 Y-2.95991
G01 X-4.36045 Y-2.96430
G01 X-4.35821 Y-2.97169
G01 X-4.35649 Y-2.97582
G01 X-4.35286 Y-2.98263
G01 X-4.35037 Y-2.98635
G01 X-4.34548 Y-2.99231
G01 X-4.34231 Y-2.99548
G01 X-4.33635 Y-3.00037
G01 X-4.33263 Y-3.00286
G01 X-4.32582 Y-3.00649
G01 X-4.32169 Y-3.00821
G01 X-4.31431 Y-3.01044
G01 X-4.30991 Y-3.01132
G01 X-4.30224 Y-3.01207
G01 X-4.29776 Y-3.01207
G01 X-4.29009 Y-3.01132
G01 X-4.28569 Y-3.01044
G01 X-4.27831 Y-3.00821
G01 X-4.27418 Y-3.00649
G01 X-4.26641 Y-3.00222
G01 X-4.26619 Y-3.00065
G01 X-4.26641 Y-3.00222
G01 X-4.07009 Y-3.19854
G01 X-4.06604 Y-3.20201
G01 X-4.06232 Y-3.20449
G01 X-4.05959 Y-3.20595
G01 X-4.05546 Y-3.20766
G01 X-4.05251 Y-3.20856
G01 X-4.04811 Y-3.20943
G01 X-4.04280 Y-3.20984
G01 X-3.46082 Y-3.20984
G01 X-3.45777 Y-3.20858
G01 X-3.45416 Y-3.20739
G01 X-3.43200 Y-3.20748
G01 X-3.43517 Y-3.20652
G01 X-3.43703 Y-3.20575
G01 X-3.44179 Y-3.20320
G01 X-3.44346 Y-3.20209
G01 X-3.44763 Y-3.19866
G01 X-3.44905 Y-3.19725
G01 X-3.44892 Y-3.19688
G01 X-3.44905 Y-3.19725
G01 X-4.04280 Y-3.19725
G01 X-4.04688 Y-3.19689
G01 X-4.04885 Y-3.19650
G01 X-4.05180 Y-3.19561
G01 X-4.05366 Y-3.19484
G01 X-4.05638 Y-3.19338
G01 X-4.05805 Y-3.19227
G01 X-4.06118 Y-3.18963
G01 X-4.26538 Y-2.98543
G01 X-4.26526 Y-2.98329
G01 X-4.26538 Y-2.98543
G01 X-4.27164 Y-2.99063
G01 X-4.27331 Y-2.99174
G01 X-4.28012 Y-2.99538
G01 X-4.28197 Y-2.99615
G01 X-4.28935 Y-2.99839
G01 X-4.29132 Y-2.99878
G01 X-4.29900 Y-2.99954
G01 X-4.30100 Y-2.99954
G01 X-4.30868 Y-2.99878
G01 X-4.31065 Y-2.99839
G01 X-4.31803 Y-2.99615
G01 X-4.31988 Y-2.99538
G01 X-4.32669 Y-2.99174
G01 X-4.32836 Y-2.99063
G01 X-4.33432 Y-2.98574
G01 X-4.33574 Y-2.98432
G01 X-4.34063 Y-2.97836
G01 X-4.34175 Y-2.97669
G01 X-4.34538 Y-2.96988
G01 X-4.34615 Y-2.96803
G01 X-4.34839 Y-2.96065
G01 X-4.34878 Y-2.95868
G01 X-4.34954 Y-2.95100
G01 X-4.34954 Y-2.94900
G01 X-4.34878 Y-2.94132
G01 X-4.34839 Y-2.93935
G01 X-4.34615 Y-2.93197
G01 X-4.34538 Y-2.93012
G01 X-4.34175 Y-2.92331
G01 X-4.34063 Y-2.92164
G01 X-4.33574 Y-2.91568
G01 X-4.33432 Y-2.91426
G01 X-4.32836 Y-2.90937
G01 X-4.32599 Y-2.90788
G01 X-4.32533 Y-2.90820
G01 X-4.32599 Y-2.90788
G01 X-4.32599 Y-2.87599
G01 X-4.32414 Y-2.87414
G01 X-4.32599 Y-2.87599
G01 X-4.42696 Y-2.87599
G01 X-4.42708 Y-2.87565
G01 X-4.42699 Y-2.87601
G01 X-4.43086 Y-2.87919
G01 X-4.43253 Y-2.88030
G01 X-4.43696 Y-2.88267
G01 X-4.43881 Y-2.88344
G01 X-4.44361 Y-2.88489
G01 X-4.44558 Y-2.88529
G01 X-4.45057 Y-2.88578
G01 X-4.45258 Y-2.88578
G01 X-4.45757 Y-2.88529
G01 X-4.45954 Y-2.88489
G01 X-4.46434 Y-2.88344
G01 X-4.46619 Y-2.88267
G01 X-4.47062 Y-2.88030
G01 X-4.47229 Y-2.87919
G01 X-4.47616 Y-2.87601
G01 X-4.47758 Y-2.87459
G01 X-4.48076 Y-2.87071
G01 X-4.48188 Y-2.86904
G01 X-4.48424 Y-2.86462
G01 X-4.48501 Y-2.86276
G01 X-4.48647 Y-2.85796
G01 X-4.48686 Y-2.85600
G01 X-4.48735 Y-2.85100
G01 X-4.48735 Y-2.84900
G01 X-4.48686 Y-2.84400
G01 X-4.48647 Y-2.84204
G01 X-4.48501 Y-2.83724
G01 X-4.48424 Y-2.83538
G01 X-4.48188 Y-2.83096
G01 X-4.48076 Y-2.82929
G01 X-4.47758 Y-2.82541
G01 X-4.47616 Y-2.82399
G01 X-4.47229 Y-2.82081
G01 X-4.47104 Y-2.82036
G01 X-4.46408 Y-2.81873
G01 X-4.45922 Y-2.81801
G01 X-4.45067 Y-2.81758
G01 X-4.44581 Y-2.81782
G01 X-4.43907 Y-2.81873
G01 X-4.43211 Y-2.82036
G01 X-4.42634 Y-2.82229
G01 X-4.42528 Y-2.82248
G01 X-4.29865 Y-2.82251
G01 X-4.29284 Y-2.82294
G01 X-4.28688 Y-2.82398
G01 X-4.28395 Y-2.82471
G01 X-4.27767 Y-2.82678
G01 X-4.27608 Y-2.82837
G01 X-4.27412 Y-2.83076
G01 X-4.27232 Y-2.83345
G01 X-4.27086 Y-2.83618
G01 X-4.26962 Y-2.83917
G01 X-4.26873 Y-2.84213
G01 X-4.26810 Y-2.84531
G01 X-4.26771 Y-2.85000
G01 X-4.26771 Y-2.90069
G01 X-4.26818 Y-2.90089
G01 X-4.26771 Y-2.90069
G01 X-4.02943 Y-3.13897
G01 X-4.02963 Y-3.13945
G01 X-4.02943 Y-3.13897
G01 X-3.45161 Y-3.13897
G01 X-3.45150 Y-3.13930
G01 X-3.45161 Y-3.13897
G01 X-3.44745 Y-3.13556
G01 X-3.44476 Y-3.13376
G01 X-3.43999 Y-3.13122
G01 X-3.43700 Y-3.12997
G01 X-3.43183 Y-3.12841
G01 X-3.42865 Y-3.12777
G01 X-3.42165 Y-3.12717
G01 X-3.37835 Y-3.12717
G01 X-3.37135 Y-3.12777
G01 X-3.36817 Y-3.12841
G01 X-3.36300 Y-3.12997
G01 X-3.36001 Y-3.13122
G01 X-3.35524 Y-3.13376
G01 X-3.35255 Y-3.13556
G01 X-3.34837 Y-3.13899
G01 X-3.34608 Y-3.14128
G01 X-3.34265 Y-3.14546
G01 X-3.34085 Y-3.14815
G01 X-3.33830 Y-3.15292
G01 X-3.33706 Y-3.15591
G01 X-3.33549 Y-3.16108
G01 X-3.33486 Y-3.16426
G01 X-3.33433 Y-3.16964
G01 X-3.33433 Y-3.17288
G01 X-3.33486 Y-3.17826
G01 X-3.33549 Y-3.18144
G01 X-3.33706 Y-3.18661
G01 X-3.33830 Y-3.18960
G01 X-3.34085 Y-3.19436
G01 X-3.34265 Y-3.19706
G01 X-3.34608 Y-3.20124
G01 X-3.34837 Y-3.20353
G01 X-3.35333 Y-3.20748
G01 X-3.44667 Y-3.20748
G01 X-3.45161 Y-3.20354
G01 X-3.45149 Y-3.20319
G01 X-3.45161 Y-3.20354
G01 X-4.04280 Y-3.20354
G01 X-4.04750 Y-3.20316
G01 X-4.05068 Y-3.20253
G01 X-4.05363 Y-3.20163
G01 X-4.05663 Y-3.20039
G01 X-4.05935 Y-3.19894
G01 X-4.06204 Y-3.19714
G01 X-4.06563 Y-3.19409
G01 X-4.26577 Y-2.99396
G01 X-4.26561 Y-2.99197
G01 X-4.26577 Y-2.99396
G01 X-4.26765 Y-2.99550
G01 X-4.27034 Y-2.99730
G01 X-4.27715 Y-3.00094
G01 X-4.28014 Y-3.00218
G01 X-4.28752 Y-3.00442
G01 X-4.29070 Y-3.00505
G01 X-4.29838 Y-3.00581
G01 X-4.30162 Y-3.00581
G01 X-4.30930 Y-3.00505
G01 X-4.31248 Y-3.00442
G01 X-4.31986 Y-3.00218
G01 X-4.32285 Y-3.00094
G01 X-4.32966 Y-2.99730
G01 X-4.33235 Y-2.99550
G01 X-4.33831 Y-2.99061
G01 X-4.34061 Y-2.98831
G01 X-4.34550 Y-2.98235
G01 X-4.34730 Y-2.97966
G01 X-4.35094 Y-2.97285
G01 X-4.35218 Y-2.96986
G01 X-4.35442 Y-2.96248
G01 X-4.35505 Y-2.95930
G01 X-4.35581 Y-2.95162
G01 X-4.35581 Y-2.94838
G01 X-4.35505 Y-2.94070
G01 X-4.35442 Y-2.93752
G01 X-4.35218 Y-2.93014
G01 X-4.35094 Y-2.92715
G01 X-4.34730 Y-2.92034
G01 X-4.34550 Y-2.91765
G01 X-4.34061 Y-2.91168
G01 X-4.33831 Y-2.90939
G01 X-4.33235 Y-2.90450
G01 X-4.33172 Y-2.90471
G01 X-4.33228 Y-2.90446
G01 X-4.33228 Y-2.88228
G01 X-4.33044 Y-2.88044
G01 X-4.33228 Y-2.88228
G01 X-4.42471 Y-2.88228
G01 X-4.42478 Y-2.88203
G01 X-4.42471 Y-2.88228
G01 X-4.42687 Y-2.88406
G01 X-4.42956 Y-2.88586
G01 X-4.43399 Y-2.88822
G01 X-4.43698 Y-2.88947
G01 X-4.44178 Y-2.89092
G01 X-4.44496 Y-2.89155
G01 X-4.44995 Y-2.89205
G01 X-4.45320 Y-2.89205
G01 X-4.45819 Y-2.89155
G01 X-4.46137 Y-2.89092
G01 X-4.46617 Y-2.88947
G01 X-4.46916 Y-2.88822
G01 X-4.47359 Y-2.88586
G01 X-4.47628 Y-2.88406
G01 X-4.48016 Y-2.88088
G01 X-4.48245 Y-2.87859
G01 X-4.48563 Y-2.87471
G01 X-4.48743 Y-2.87201
G01 X-4.48980 Y-2.86759
G01 X-4.49104 Y-2.86459
G01 X-4.49250 Y-2.85979
G01 X-4.49313 Y-2.85661
G01 X-4.49362 Y-2.85162
G01 X-4.49362 Y-2.84838
G01 X-4.49313 Y-2.84339
G01 X-4.49250 Y-2.84021
G01 X-4.49104 Y-2.83541
G01 X-4.48980 Y-2.83241
G01 X-4.48743 Y-2.82799
G01 X-4.48645 Y-2.82651
G01 X-4.48140 Y-2.82411
G01 X-4.47837 Y-2.82285
G01 X-4.47210 Y-2.82069
G01 X-4.46617 Y-2.81914
G01 X-4.45922 Y-2.81801
G01 X-4.45067 Y-2.81758
G01 X-4.44581 Y-2.81782
G01 X-4.43907 Y-2.81873
G01 X-4.43211 Y-2.82036
G01 X-4.43086 Y-2.82081
G01 X-4.42699 Y-2.82399
G01 X-4.42706 Y-2.82431
G01 X-4.42696 Y-2.82401
G01 X-4.30000 Y-2.82401
G01 X-4.29592 Y-2.82436
G01 X-4.29396 Y-2.82476
G01 X-4.29100 Y-2.82565
G01 X-4.28915 Y-2.82642
G01 X-4.28642 Y-2.82788
G01 X-4.28475 Y-2.82899
G01 X-4.28237 Y-2.83095
G01 X-4.28095 Y-2.83237
G01 X-4.27899 Y-2.83475
G01 X-4.27788 Y-2.83642
G01 X-4.27642 Y-2.83915
G01 X-4.27565 Y-2.84100
G01 X-4.27476 Y-2.84395
G01 X-4.27437 Y-2.84592
G01 X-4.27401 Y-2.85000
G01 X-4.27401 Y-2.90330
G01 X-4.27448 Y-2.90350
G01 X-4.27401 Y-2.90330
G01 X-4.03204 Y-3.14527
G01 X-4.03224 Y-3.14575
G01 X-4.03204 Y-3.14527
G01 X-3.44905 Y-3.14527
G01 X-3.44890 Y-3.14567
G01 X-3.44905 Y-3.14527
G01 X-3.44763 Y-3.14386
G01 X-3.44346 Y-3.14043
G01 X-3.44179 Y-3.13932
G01 X-3.43703 Y-3.13677
G01 X-3.43517 Y-3.13600
G01 X-3.43000 Y-3.13443
G01 X-3.42803 Y-3.13404
G01 X-3.42165 Y-3.13346
G01 X-3.37835 Y-3.13346
G01 X-3.37197 Y-3.13404
G01 X-3.37000 Y-3.13443
G01 X-3.36483 Y-3.13600
G01 X-3.36297 Y-3.13677
G01 X-3.35821 Y-3.13932
G01 X-3.35654 Y-3.14043
G01 X-3.35236 Y-3.14386
G01 X-3.35095 Y-3.14528
G01 X-3.34752 Y-3.14946
G01 X-3.34640 Y-3.15112
G01 X-3.34386 Y-3.15589
G01 X-3.34309 Y-3.15774
G01 X-3.34152 Y-3.16291
G01 X-3.34113 Y-3.16488
G01 X-3.34060 Y-3.17026
G01 X-3.34060 Y-3.17226
G01 X-3.34113 Y-3.17764
G01 X-3.34152 Y-3.17961
G01 X-3.34309 Y-3.18478
G01 X-3.34386 Y-3.18663
G01 X-3.34640 Y-3.19140
G01 X-3.34752 Y-3.19306
G01 X-3.35095 Y-3.19724
G01 X-3.35236 Y-3.19866
G01 X-3.35654 Y-3.20209
G01 X-3.35821 Y-3.20320
G01 X-3.36297 Y-3.20575
G01 X-3.36483 Y-3.20652
G01 X-3.36800 Y-3.20748
G01 X-3.34600 Y-3.20748
G01 X-3.34181 Y-3.20583
G01 X-3.33778 Y-3.20106
G01 X-3.33529 Y-3.19733
G01 X-3.33275 Y-3.19257
G01 X-3.33103 Y-3.18843
G01 X-3.32946 Y-3.18326
G01 X-3.32859 Y-3.17887
G01 X-3.32806 Y-3.17350
G01 X-3.34687 Y-3.17164
G01 X-3.34755 Y-3.17778
G01 X-3.34941 Y-3.18366
G01 X-3.35239 Y-3.18907
G01 X-3.35636 Y-3.19379
G01 X-3.36118 Y-3.19765
G01 X-3.36666 Y-3.20049
G01 X-3.37258 Y-3.20221
G01 X-3.37835 Y-3.20275
G01 X-3.42165 Y-3.20275
G01 X-3.42741 Y-3.20221
G01 X-3.43334 Y-3.20049
G01 X-3.43882 Y-3.19765
G01 X-3.44364 Y-3.19379
G01 X-3.44607 Y-3.19095
G01 X-4.04280 Y-3.19095
G01 X-4.04702 Y-3.19047
G01 X-4.05069 Y-3.18928
G01 X-4.05341 Y-3.18783
G01 X-4.05672 Y-3.18518
G01 X-4.26573 Y-2.97618
G01 X-4.26968 Y-2.98087
G01 X-4.27564 Y-2.98576
G01 X-4.28308 Y-2.98983
G01 X-4.29118 Y-2.99236
G01 X-4.29961 Y-2.99327
G01 X-4.30806 Y-2.99251
G01 X-4.31620 Y-2.99012
G01 X-4.32372 Y-2.98619
G01 X-4.33087 Y-2.98032
G01 X-4.33619 Y-2.97372
G01 X-4.34012 Y-2.96620
G01 X-4.34236 Y-2.95882
G01 X-4.34327 Y-2.95038
G01 X-4.34251 Y-2.94194
G01 X-4.34012 Y-2.93380
G01 X-4.33576 Y-2.92564
G01 X-4.33032 Y-2.91913
G01 X-4.32436 Y-2.91424
G01 X-4.31969 Y-2.91166
G01 X-4.31969 Y-2.86969
G01 X-4.42969 Y-2.86969
G01 X-4.43098 Y-2.87114
G01 X-4.43486 Y-2.87432
G01 X-4.44064 Y-2.87741
G01 X-4.44544 Y-2.87887
G01 X-4.45119 Y-2.87951
G01 X-4.45771 Y-2.87887
G01 X-4.46251 Y-2.87741
G01 X-4.46765 Y-2.87475
G01 X-4.47217 Y-2.87114
G01 X-4.47632 Y-2.86607
G01 X-4.47869 Y-2.86165
G01 X-4.48044 Y-2.85614
G01 X-4.48108 Y-2.85039
G01 X-4.48044 Y-2.84386
G01 X-4.47869 Y-2.83835
G01 X-4.47632 Y-2.83393
G01 X-4.47271 Y-2.82941
G01 X-4.46829 Y-2.82568
G01 X-4.46251 Y-2.82259
G01 X-4.45695 Y-2.82098
G01 X-4.45119 Y-2.82049
G01 X-4.44544 Y-2.82113
G01 X-4.43992 Y-2.82288
G01 X-4.43486 Y-2.82568
G01 X-4.43098 Y-2.82886
G01 X-4.42969 Y-2.83031
G01 X-4.30000 Y-2.83031
G01 X-4.29654 Y-2.83063
G01 X-4.29283 Y-2.83168
G01 X-4.28875 Y-2.83386
G01 X-4.28582 Y-2.83636
G01 X-4.28343 Y-2.83939
G01 X-4.28168 Y-2.84283
G01 X-4.28063 Y-2.84654
G01 X-4.28031 Y-2.85000
G01 X-4.28031 Y-2.90591
G01 X-4.03465 Y-3.15157
G01 X-3.44607 Y-3.15157
G01 X-3.44364 Y-3.14873
G01 X-3.43882 Y-3.14487
G01 X-3.43334 Y-3.14203
G01 X-3.42741 Y-3.14031
G01 X-3.42165 Y-3.13976
G01 X-3.37835 Y-3.13976
G01 X-3.37183 Y-3.14046
G01 X-3.36594 Y-3.14233
G01 X-3.36054 Y-3.14530
G01 X-3.35582 Y-3.14927
G01 X-3.35196 Y-3.15409
G01 X-3.34912 Y-3.15957
G01 X-3.34740 Y-3.16550
G01 X-3.34687 Y-3.17164
G04 P0 ( dwell for no time -- G64 should not smooth over this point )
G00 Z0.08000 ( retract )

G00 X-3.12981 Y-3.21762 ( rapid move to begin. )
G01 F180.00000
( Mill infeed pass 1/1 )
G01 Z-0.04000
G04 P0 ( dwell for no time -- G64 should not smooth over this point )
G01 F360.00000
G01 X-3.12981 Y-3.21762
G01 X-3.12981 Y-2.81071
G01 X-3.13022 Y-2.80545
G01 X-3.13110 Y-2.80106
G01 X-3.13198 Y-2.79815
G01 X-3.13369 Y-2.79401
G01 X-3.13512 Y-2.79134
G01 X-3.13761 Y-2.78761
G01 X-3.13954 Y-2.78526
G01 X-3.14104 Y-2.78360
G01 X-3.18360 Y-2.74104
G01 X-3.18761 Y-2.73761
G01 X-3.19134 Y-2.73512
G01 X-3.19401 Y-2.73369
G01 X-3.19815 Y-2.73198
G01 X-3.20106 Y-2.73109
G01 X-3.20545 Y-2.73022
G01 X-3.21071 Y-2.72981
G01 X-3.55707 Y-2.72981
G01 X-3.55727 Y-2.73029
G01 X-3.55707 Y-2.72981
G01 X-3.67256 Y-2.61432
G01 X-3.67848 Y-2.61048
G01 X-3.68474 Y-2.60583
G01 X-3.69990 Y-2.59321
G01 X-3.70587 Y-2.58886
G01 X-3.70984 Y-2.58807
G01 X-3.71286 Y-2.58778
G01 X-3.72327 Y-2.58766
G01 X-3.72504 Y-2.58944
G01 X-3.72327 Y-2.58766
G01 X-3.72327 Y-2.55710
G01 X-3.72370 Y-2.55265
G01 X-3.72500 Y-2.54836
G01 X-3.72711 Y-2.54441
G01 X-3.72995 Y-2.54095
G01 X-3.73341 Y-2.53811
G01 X-3.73736 Y-2.53600
G01 X-3.74165 Y-2.53470
G01 X-3.74610 Y-2.53426
G01 X-3.85252 Y-2.53426
G01 X-3.85272 Y-2.53474
G01 X-3.85252 Y-2.53426
G01 X-3.90599 Y-2.48079
G01 X-3.90827 Y-2.47879
G01 X-3.90875 Y-2.47899
G01 X-3.90827 Y-2.47879
G01 X-3.90827 Y-2.44629
G01 X-3.91325 Y-2.44130
G01 X-3.91798 Y-2.43716
G01 X-3.92250 Y-2.43434
G01 X-3.92686 Y-2.43270
G01 X-3.93130 Y-2.43215
G01 X-4.06870 Y-2.43215
G01 X-4.07314 Y-2.43270
G01 X-4.07750 Y-2.43434
G01 X-4.08202 Y-2.43716
G01 X-4.08675 Y-2.44130
G01 X-4.09173 Y-2.44629
G01 X-4.09173 Y-2.57680
G01 X-4.09129 Y-2.58125
G01 X-4.09000 Y-2.58554
G01 X-4.08789 Y-2.58949
G01 X-4.08505 Y-2.59295
G01 X-4.08158 Y-2.59579
G01 X-4.07764 Y-2.59790
G01 X-4.07335 Y-2.59919
G01 X-4.06890 Y-2.59963
G01 X-3.93110 Y-2.59963
G01 X-3.92665 Y-2.59919
G01 X-3.92236 Y-2.59790
G01 X-3.91841 Y-2.59579
G01 X-3.91495 Y-2.59295
G01 X-3.91211 Y-2.58949
G01 X-3.91000 Y-2.58554
G01 X-3.90993 Y-2.58529
G01 X-3.91059 Y-2.58098
G01 X-3.90993 Y-2.58529
G01 X-3.90673 Y-2.58848
G01 X-3.90625 Y-2.58828
G01 X-3.90673 Y-2.58848
G01 X-3.90673 Y-2.66040
G01 X-3.90582 Y-2.66300
G01 X-3.90436 Y-2.67481
G01 X-3.90435 Y-2.69470
G01 X-3.90294 Y-2.70594
G01 X-3.90186 Y-2.70884
G01 X-3.90005 Y-2.71105
G01 X-3.89659 Y-2.71389
G01 X-3.89264 Y-2.71600
G01 X-3.88835 Y-2.71730
G01 X-3.88390 Y-2.71773
G01 X-3.74610 Y-2.71773
G01 X-3.74165 Y-2.71730
G01 X-3.73736 Y-2.71600
G01 X-3.73341 Y-2.71389
G01 X-3.72995 Y-2.71105
G01 X-3.72711 Y-2.70759
G01 X-3.72500 Y-2.70364
G01 X-3.72370 Y-2.69935
G01 X-3.72327 Y-2.69490
G01 X-3.72327 Y-2.67205
G01 X-3.72715 Y-2.66266
G01 X-3.72327 Y-2.67205
G01 X-3.60006 Y-2.79526
G01 X-3.59605 Y-2.79869
G01 X-3.59233 Y-2.80118
G01 X-3.58964 Y-2.80261
G01 X-3.58551 Y-2.80432
G01 X-3.58260 Y-2.80520
G01 X-3.57821 Y-2.80607
G01 X-3.57295 Y-2.80648
G01 X-3.53089 Y-2.80648
G01 X-3.52470 Y-2.80454
G01 X-3.51968 Y-2.80329
G01 X-3.51502 Y-2.80234
G01 X-3.50984 Y-2.80159
G01 X-3.50575 Y-2.80119
G01 X-3.50058 Y-2.80093
G01 X-3.49627 Y-2.80092
G01 X-3.49109 Y-2.80119
G01 X-3.48700 Y-2.80159
G01 X-3.48168 Y-2.80236
G01 X-3.47717 Y-2.80329
G01 X-3.47215 Y-2.80454
G01 X-3.46596 Y-2.80648
G01 X-3.44754 Y-2.80648
G01 X-3.44100 Y-2.80358
G01 X-3.43370 Y-2.80162
G01 X-3.42587 Y-2.80089
G01 X-3.37441 Y-2.80088
G01 X-3.36316 Y-2.80230
G01 X-3.35356 Y-2.80592
G01 X-3.34735 Y-2.80599
G01 X-3.34078 Y-2.80648
G01 X-3.22659 Y-2.80648
G01 X-3.22639 Y-2.80600
G01 X-3.22659 Y-2.80648
G01 X-3.20648 Y-2.82659
G01 X-3.20600 Y-2.82639
G01 X-3.20648 Y-2.82659
G01 X-3.20648 Y-2.89814
G01 X-3.20437 Y-2.90261
G01 X-3.20247 Y-2.90718
G01 X-3.19965 Y-2.91504
G01 X-3.19846 Y-2.91895
G01 X-3.19653 Y-2.92666
G01 X-3.19587 Y-2.92987
G01 X-3.19470 Y-2.93790
G01 X-3.19402 Y-2.94867
G01 X-3.19442 Y-2.95935
G01 X-3.19470 Y-2.96210
G01 X-3.19585 Y-2.96997
G01 X-3.19653 Y-2.97334
G01 X-3.19846 Y-2.98105
G01 X-3.19965 Y-2.98496
G01 X-3.20247 Y-2.99282
G01 X-3.20592 Y-3.00067
G01 X-3.20592 Y-3.18021
G01 X-3.20614 Y-3.18589
G01 X-3.20648 Y-3.18943
G01 X-3.20648 Y-3.20174
G01 X-3.20604 Y-3.20193
G01 X-3.20648 Y-3.20174
G01 X-3.32343 Y-3.31868
G01 X-3.32445 Y-3.32207
G01 X-3.32647 Y-3.32770
G01 X-3.32824 Y-3.33203
G01 X-3.33077 Y-3.33735
G01 X-3.33252 Y-3.34062
G01 X-3.33537 Y-3.34540
G01 X-3.33724 Y-3.34817
G01 X-3.34232 Y-3.35481
G01 X-3.34617 Y-3.35904
G01 X-3.35216 Y-3.36467
G01 X-3.35891 Y-3.36984
G01 X-3.36081 Y-3.37108
G01 X-3.36072 Y-3.37129
G01 X-3.36081 Y-3.37108
G01 X-3.36842 Y-3.37235
G01 X-3.37130 Y-3.37263
G01 X-3.37834 Y-3.37295
G01 X-3.42165 Y-3.37295
G01 X-3.42869 Y-3.37263
G01 X-3.43714 Y-3.37154
G01 X-3.44025 Y-3.37089
G01 X-3.44581 Y-3.36950
G01 X-3.45318 Y-3.36704
G01 X-3.67310 Y-3.36700
G01 X-3.67943 Y-3.36657
G01 X-3.68417 Y-3.36591
G01 X-3.71497 Y-3.36046
G01 X-3.72276 Y-3.36046
G01 X-3.72784 Y-3.36148
G01 X-3.73548 Y-3.36262
G01 X-3.74026 Y-3.36308
G01 X-3.74774 Y-3.36346
G01 X-3.75241 Y-3.36344
G01 X-3.75974 Y-3.36308
G01 X-3.76452 Y-3.36262
G01 X-3.77216 Y-3.36148
G01 X-3.77724 Y-3.36046
G01 X-3.80385 Y-3.36046
G01 X-3.81245 Y-3.36262
G01 X-3.80830 Y-3.36676
G01 X-3.80850 Y-3.36724
G01 X-3.80830 Y-3.36676
G01 X-3.67724 Y-3.36676
G01 X-3.67126 Y-3.36704
G01 X-3.45318 Y-3.36704
G01 X-3.44581 Y-3.36950
G01 X-3.44025 Y-3.37089
G01 X-3.43698 Y-3.37154
G01 X-3.42869 Y-3.37263
G01 X-3.42165 Y-3.37295
G01 X-3.37834 Y-3.37295
G01 X-3.37146 Y-3.37265
G01 X-3.36857 Y-3.37236
G01 X-3.36081 Y-3.37108
G01 X-3.35453 Y-3.36659
G01 X-3.35217 Y-3.36465
G01 X-3.34805 Y-3.36091
G01 X-3.34243 Y-3.35492
G01 X-3.33724 Y-3.34817
G01 X-3.33539 Y-3.34539
G01 X-3.33245 Y-3.34048
G01 X-3.33071 Y-3.33721
G01 X-3.32861 Y-3.33278
G01 X-3.20018 Y-3.20435
G01 X-3.19970 Y-3.20455
G01 X-3.20018 Y-3.20435
G01 X-3.20018 Y-2.98644
G01 X-3.19846 Y-2.98105
G01 X-3.19653 Y-2.97334
G01 X-3.19586 Y-2.96997
G01 X-3.19442 Y-2.95935
G01 X-3.19403 Y-2.95133
G01 X-3.19443 Y-2.94065
G01 X-3.19472 Y-2.93774
G01 X-3.19586 Y-2.93003
G01 X-3.19653 Y-2.92666
G01 X-3.19846 Y-2.91895
G01 X-3.20018 Y-2.91356
G01 X-3.20018 Y-2.82398
G01 X-3.19970 Y-2.82378
G01 X-3.20018 Y-2.82398
G01 X-3.22398 Y-2.80018
G01 X-3.22378 Y-2.79970
G01 X-3.22398 Y-2.80018
G01 X-3.57295 Y-2.80018
G01 X-3.57759 Y-2.79981
G01 X-3.58077 Y-2.79917
G01 X-3.58368 Y-2.79829
G01 X-3.58668 Y-2.79705
G01 X-3.58936 Y-2.79562
G01 X-3.59205 Y-2.79382
G01 X-3.59560 Y-2.79080
G01 X-3.72837 Y-2.65803
G01 X-3.72817 Y-2.65755
G01 X-3.72837 Y-2.65803
G01 X-3.72956 Y-2.65803
G01 X-3.73138 Y-2.65621
G01 X-3.72956 Y-2.65803
G01 X-3.72956 Y-2.69490
G01 X-3.72988 Y-2.69813
G01 X-3.73082 Y-2.70123
G01 X-3.73235 Y-2.70409
G01 X-3.73441 Y-2.70659
G01 X-3.73691 Y-2.70865
G01 X-3.73977 Y-2.71018
G01 X-3.74287 Y-2.71112
G01 X-3.74610 Y-2.71143
G01 X-3.88390 Y-2.71143
G01 X-3.88713 Y-2.71112
G01 X-3.89023 Y-2.71018
G01 X-3.89309 Y-2.70865
G01 X-3.89559 Y-2.70659
G01 X-3.89765 Y-2.70409
G01 X-3.89918 Y-2.70123
G01 X-3.90012 Y-2.69813
G01 X-3.90043 Y-2.69490
G01 X-3.90043 Y-2.58587
G01 X-3.89995 Y-2.58567
G01 X-3.90043 Y-2.58587
G01 X-3.91456 Y-2.57174
G01 X-3.91801 Y-2.56295
G01 X-3.91456 Y-2.57174
G01 X-3.91456 Y-2.57680
G01 X-3.91488 Y-2.58003
G01 X-3.91582 Y-2.58313
G01 X-3.91735 Y-2.58599
G01 X-3.91941 Y-2.58849
G01 X-3.92191 Y-2.59055
G01 X-3.92477 Y-2.59208
G01 X-3.92787 Y-2.59302
G01 X-3.93110 Y-2.59334
G01 X-4.06890 Y-2.59334
G01 X-4.07212 Y-2.59302
G01 X-4.07523 Y-2.59208
G01 X-4.07809 Y-2.59055
G01 X-4.08059 Y-2.58849
G01 X-4.08265 Y-2.58599
G01 X-4.08418 Y-2.58313
G01 X-4.08512 Y-2.58003
G01 X-4.08544 Y-2.57680
G01 X-4.08544 Y-2.44015
G01 X-4.08202 Y-2.43716
G01 X-4.07750 Y-2.43434
G01 X-4.07314 Y-2.43270
G01 X-4.06870 Y-2.43215
G01 X-3.93130 Y-2.43215
G01 X-3.92686 Y-2.43270
G01 X-3.92250 Y-2.43434
G01 X-3.91798 Y-2.43716
G01 X-3.91456 Y-2.44015
G01 X-3.91456 Y-2.48185
G01 X-3.91517 Y-2.48213
G01 X-3.91456 Y-2.48185
G01 X-3.91045 Y-2.48525
G01 X-3.85513 Y-2.54056
G01 X-3.85533 Y-2.54104
G01 X-3.85513 Y-2.54056
G01 X-3.74610 Y-2.54056
G01 X-3.74287 Y-2.54088
G01 X-3.73977 Y-2.54182
G01 X-3.73691 Y-2.54335
G01 X-3.73441 Y-2.54541
G01 X-3.73235 Y-2.54791
G01 X-3.73082 Y-2.55077
G01 X-3.72988 Y-2.55387
G01 X-3.72956 Y-2.55710
G01 X-3.72956 Y-2.59396
G01 X-3.73138 Y-2.59579
G01 X-3.72956 Y-2.59396
G01 X-3.71510 Y-2.59396
G01 X-3.71046 Y-2.59434
G01 X-3.70728 Y-2.59497
G01 X-3.70437 Y-2.59586
G01 X-3.70137 Y-2.59710
G01 X-3.69869 Y-2.59853
G01 X-3.69600 Y-2.60033
G01 X-3.69365 Y-2.60226
G01 X-3.55968 Y-2.73611
G01 X-3.55988 Y-2.73659
G01 X-3.55968 Y-2.73611
G01 X-3.21071 Y-2.73611
G01 X-3.20607 Y-2.73649
G01 X-3.20289 Y-2.73712
G01 X-3.19998 Y-2.73800
G01 X-3.19698 Y-2.73924
G01 X-3.19430 Y-2.74068
G01 X-3.19161 Y-2.74248
G01 X-3.18926 Y-2.74441
G01 X-3.14441 Y-2.78926
G01 X-3.14248 Y-2.79161
G01 X-3.14068 Y-2.79430
G01 X-3.13924 Y-2.79698
G01 X-3.13801 Y-2.79998
G01 X-3.13712 Y-2.80289
G01 X-3.13649 Y-2.80607
G01 X-3.13611 Y-2.81071
G01 X-3.13611 Y-3.21762
G01 X-3.13649 Y-3.22227
G01 X-3.13712 Y-3.22545
G01 X-3.13801 Y-3.22835
G01 X-3.13924 Y-3.23135
G01 X-3.14068 Y-3.23403
G01 X-3.14248 Y-3.23672
G01 X-3.14550 Y-3.24027
G01 X-3.32667 Y-3.42145
G01 X-3.33022 Y-3.42447
G01 X-3.33292 Y-3.42627
G01 X-3.33560 Y-3.42770
G01 X-3.33859 Y-3.42894
G01 X-3.34150 Y-3.42982
G01 X-3.34468 Y-3.43046
G01 X-3.34933 Y-3.43083
G01 X-3.82157 Y-3.43083
G01 X-3.82621 Y-3.43046
G01 X-3.82939 Y-3.42982
G01 X-3.83230 Y-3.42894
G01 X-3.83530 Y-3.42770
G01 X-3.83798 Y-3.42627
G01 X-3.84067 Y-3.42447
G01 X-3.84302 Y-3.42254
G01 X-3.87265 Y-3.39302
G01 X-3.87567 Y-3.38947
G01 X-3.87747 Y-3.38678
G01 X-3.87890 Y-3.38410
G01 X-3.88014 Y-3.38110
G01 X-3.88103 Y-3.37819
G01 X-3.88166 Y-3.37501
G01 X-3.88204 Y-3.37037
G01 X-3.88204 Y-3.35590
G01 X-3.88035 Y-3.35425
G01 X-3.88204 Y-3.35590
G01 X-3.88740 Y-3.35590
G01 X-3.89063 Y-3.35559
G01 X-3.89373 Y-3.35465
G01 X-3.89659 Y-3.35312
G01 X-3.89909 Y-3.35106
G01 X-3.90115 Y-3.34856
G01 X-3.90268 Y-3.34570
G01 X-3.90362 Y-3.34260
G01 X-3.90394 Y-3.33937
G01 X-3.90394 Y-3.33203
G01 X-3.90221 Y-3.33026
G01 X-3.90394 Y-3.33203
G01 X-3.99606 Y-3.33203
G01 X-3.99779 Y-3.33026
G01 X-3.99606 Y-3.33203
G01 X-3.99606 Y-3.33937
G01 X-3.99638 Y-3.34260
G01 X-3.99732 Y-3.34570
G01 X-3.99885 Y-3.34856
G01 X-4.00091 Y-3.35106
G01 X-4.00341 Y-3.35312
G01 X-4.00627 Y-3.35465
G01 X-4.00937 Y-3.35559
G01 X-4.01260 Y-3.35590
G01 X-4.08740 Y-3.35590
G01 X-4.09063 Y-3.35559
G01 X-4.09373 Y-3.35465
G01 X-4.09659 Y-3.35312
G01 X-4.09909 Y-3.35106
G01 X-4.10115 Y-3.34856
G01 X-4.10268 Y-3.34570
G01 X-4.10362 Y-3.34260
G01 X-4.10394 Y-3.33796
G01 X-4.10215 Y-3.33297
G01 X-4.10112 Y-3.32958
G01 X-4.09925 Y-3.32210
G01 X-4.09862 Y-3.31909
G01 X-4.09753 Y-3.31160
G01 X-4.09687 Y-3.30124
G01 X-4.09724 Y-3.29127
G01 X-4.09753 Y-3.28840
G01 X-4.09861 Y-3.28106
G01 X-4.09921 Y-3.27805
G01 X-4.10112 Y-3.27041
G01 X-4.10394 Y-3.26204
G01 X-4.10394 Y-3.26063
G01 X-4.10362 Y-3.25740
G01 X-4.10268 Y-3.25430
G01 X-4.10115 Y-3.25144
G01 X-4.09909 Y-3.24894
G01 X-4.09659 Y-3.24688
G01 X-4.09373 Y-3.24535
G01 X-4.09063 Y-3.24441
G01 X-4.08740 Y-3.24409
G01 X-4.01260 Y-3.24409
G01 X-4.00937 Y-3.24441
G01 X-4.00627 Y-3.24535
G01 X-4.00341 Y-3.24688
G01 X-4.00091 Y-3.24894
G01 X-3.99885 Y-3.25144
G01 X-3.99732 Y-3.25430
G01 X-3.99638 Y-3.25740
G01 X-3.99606 Y-3.26063
G01 X-3.99606 Y-3.26796
G01 X-3.99779 Y-3.26974
G01 X-3.99606 Y-3.26796
G01 X-3.90394 Y-3.26796
G01 X-3.90221 Y-3.26974
G01 X-3.90394 Y-3.26796
G01 X-3.90394 Y-3.26063
G01 X-3.90362 Y-3.25740
G01 X-3.90268 Y-3.25430
G01 X-3.90115 Y-3.25144
G01 X-3.89909 Y-3.24894
G01 X-3.89659 Y-3.24688
G01 X-3.89373 Y-3.24535
G01 X-3.89063 Y-3.24441
G01 X-3.88740 Y-3.24409
G01 X-3.81260 Y-3.24409
G01 X-3.80937 Y-3.24441
G01 X-3.80627 Y-3.24535
G01 X-3.80341 Y-3.24688
G01 X-3.80091 Y-3.24894
G01 X-3.79885 Y-3.25144
G01 X-3.79732 Y-3.25430
G01 X-3.79638 Y-3.25740
G01 X-3.79606 Y-3.26063
G01 X-3.79606 Y-3.26204
G01 X-3.79780 Y-3.26688
G01 X-3.79887 Y-3.27041
G01 X-3.80078 Y-3.27805
G01 X-3.80138 Y-3.28091
G01 X-3.80274 Y-3.29112
G01 X-3.80313 Y-3.30124
G01 X-3.80275 Y-3.30872
G01 X-3.80236 Y-3.31233
G01 X-3.80236 Y-3.33937
G01 X-3.80256 Y-3.34137
G01 X-3.80314 Y-3.34329
G01 X-3.80409 Y-3.34506
G01 X-3.80536 Y-3.34661
G01 X-3.80691 Y-3.34788
G01 X-3.80868 Y-3.34883
G01 X-3.81060 Y-3.34941
G01 X-3.81260 Y-3.34961
G01 X-3.82426 Y-3.34961
G01 X-3.82608 Y-3.34782
G01 X-3.82426 Y-3.34961
G01 X-3.82426 Y-3.35971
G01 X-3.82474 Y-3.35991
G01 X-3.82426 Y-3.35971
G01 X-3.81091 Y-3.37306
G01 X-3.81111 Y-3.37354
G01 X-3.81091 Y-3.37306
G01 X-3.35999 Y-3.37306
G01 X-3.35979 Y-3.37354
G01 X-3.35999 Y-3.37306
G01 X-3.19388 Y-3.20696
G01 X-3.19340 Y-3.20716
G01 X-3.19388 Y-3.20696
G01 X-3.19388 Y-2.82137
G01 X-3.19340 Y-2.82117
G01 X-3.19388 Y-2.82137
G01 X-3.22137 Y-2.79388
G01 X-3.22117 Y-2.79340
G01 X-3.22137 Y-2.79388
G01 X-3.57295 Y-2.79388
G01 X-3.57698 Y-2.79354
G01 X-3.57895 Y-2.79315
G01 X-3.58185 Y-2.79226
G01 X-3.58371 Y-2.79150
G01 X-3.58639 Y-2.79006
G01 X-3.58806 Y-2.78895
G01 X-3.59115 Y-2.78635
G01 X-3.72576 Y-2.65174
G01 X-3.72556 Y-2.65126
G01 X-3.72576 Y-2.65174
G01 X-3.73586 Y-2.65174
G01 X-3.73769 Y-2.64990
G01 X-3.73586 Y-2.65174
G01 X-3.73586 Y-2.69490
G01 X-3.73606 Y-2.69690
G01 X-3.73664 Y-2.69882
G01 X-3.73759 Y-2.70059
G01 X-3.73886 Y-2.70214
G01 X-3.74041 Y-2.70341
G01 X-3.74218 Y-2.70436
G01 X-3.74410 Y-2.70494
G01 X-3.74610 Y-2.70514
G01 X-3.88390 Y-2.70514
G01 X-3.88590 Y-2.70494
G01 X-3.88782 Y-2.70436
G01 X-3.88959 Y-2.70341
G01 X-3.89114 Y-2.70214
G01 X-3.89241 Y-2.70059
G01 X-3.89336 Y-2.69882
G01 X-3.89394 Y-2.69690
G01 X-3.89414 Y-2.69490
G01 X-3.89414 Y-2.58326
G01 X-3.89366 Y-2.58306
G01 X-3.89414 Y-2.58326
G01 X-3.92086 Y-2.55653
G01 X-3.92464 Y-2.54729
G01 X-3.92086 Y-2.55653
G01 X-3.92086 Y-2.57680
G01 X-3.92106 Y-2.57880
G01 X-3.92164 Y-2.58072
G01 X-3.92259 Y-2.58249
G01 X-3.92386 Y-2.58404
G01 X-3.92541 Y-2.58531
G01 X-3.92718 Y-2.58626
G01 X-3.92910 Y-2.58684
G01 X-3.93110 Y-2.58704
G01 X-4.06890 Y-2.58704
G01 X-4.07090 Y-2.58684
G01 X-4.07282 Y-2.58626
G01 X-4.07459 Y-2.58531
G01 X-4.07614 Y-2.58404
G01 X-4.07741 Y-2.58249
G01 X-4.07836 Y-2.58072
G01 X-4.07894 Y-2.57880
G01 X-4.07914 Y-2.57680
G01 X-4.07914 Y-2.43900
G01 X-4.07894 Y-2.43700
G01 X-4.07819 Y-2.43477
G01 X-4.07750 Y-2.43434
G01 X-4.07314 Y-2.43270
G01 X-4.06870 Y-2.43215
G01 X-3.93130 Y-2.43215
G01 X-3.92686 Y-2.43270
G01 X-3.92250 Y-2.43434
G01 X-3.92181 Y-2.43477
G01 X-3.92164 Y-2.43508
G01 X-3.92106 Y-2.43700
G01 X-3.92086 Y-2.43900
G01 X-3.92086 Y-2.48534
G01 X-3.92155 Y-2.48569
G01 X-3.92086 Y-2.48534
G01 X-3.91966 Y-2.48598
G01 X-3.91799 Y-2.48710
G01 X-3.91490 Y-2.48970
G01 X-3.85774 Y-2.54686
G01 X-3.85794 Y-2.54734
G01 X-3.85774 Y-2.54686
G01 X-3.74610 Y-2.54686
G01 X-3.74410 Y-2.54706
G01 X-3.74218 Y-2.54764
G01 X-3.74041 Y-2.54859
G01 X-3.73886 Y-2.54986
G01 X-3.73759 Y-2.55141
G01 X-3.73664 Y-2.55318
G01 X-3.73606 Y-2.55510
G01 X-3.73586 Y-2.55710
G01 X-3.73586 Y-2.60026
G01 X-3.73768 Y-2.60205
G01 X-3.73586 Y-2.60026
G01 X-3.71410 Y-2.60031
G01 X-3.71107 Y-2.60061
G01 X-3.70910 Y-2.60100
G01 X-3.70620 Y-2.60188
G01 X-3.70434 Y-2.60265
G01 X-3.70166 Y-2.60408
G01 X-3.69999 Y-2.60520
G01 X-3.69690 Y-2.60780
G01 X-3.56229 Y-2.74241
G01 X-3.56249 Y-2.74289
G01 X-3.56229 Y-2.74241
G01 X-3.21071 Y-2.74241
G01 X-3.20668 Y-2.74276
G01 X-3.20472 Y-2.74315
G01 X-3.20181 Y-2.74403
G01 X-3.19995 Y-2.74480
G01 X-3.19727 Y-2.74623
G01 X-3.19561 Y-2.74735
G01 X-3.19326 Y-2.74928
G01 X-3.14928 Y-2.79326
G01 X-3.14735 Y-2.79561
G01 X-3.14623 Y-2.79727
G01 X-3.14480 Y-2.79995
G01 X-3.14403 Y-2.80181
G01 X-3.14315 Y-2.80471
G01 X-3.14276 Y-2.80668
G01 X-3.14241 Y-2.81071
G01 X-3.14241 Y-3.21762
G01 X-3.14276 Y-3.22165
G01 X-3.14315 Y-3.22362
G01 X-3.14403 Y-3.22653
G01 X-3.14480 Y-3.22838
G01 X-3.14623 Y-3.23106
G01 X-3.14735 Y-3.23273
G01 X-3.14995 Y-3.23582
G01 X-3.33113 Y-3.41700
G01 X-3.33422 Y-3.41960
G01 X-3.33589 Y-3.42071
G01 X-3.33857 Y-3.42215
G01 X-3.34042 Y-3.42291
G01 X-3.34333 Y-3.42380
G01 X-3.34530 Y-3.42419
G01 X-3.34933 Y-3.42454
G01 X-3.82157 Y-3.42454
G01 X-3.82560 Y-3.42419
G01 X-3.82756 Y-3.42380
G01 X-3.83047 Y-3.42291
G01 X-3.83233 Y-3.42215
G01 X-3.83501 Y-3.42071
G01 X-3.83667 Y-3.41960
G01 X-3.83902 Y-3.41767
G01 X-3.86820 Y-3.38857
G01 X-3.87080 Y-3.38548
G01 X-3.87191 Y-3.38381
G01 X-3.87335 Y-3.38113
G01 X-3.87412 Y-3.37927
G01 X-3.87500 Y-3.37636
G01 X-3.87539 Y-3.37440
G01 X-3.87569 Y-3.37137
G01 X-3.87574 Y-3.34961
G01 X-3.87398 Y-3.34785
G01 X-3.87574 Y-3.34961
G01 X-3.88740 Y-3.34961
G01 X-3.88940 Y-3.34941
G01 X-3.89132 Y-3.34883
G01 X-3.89309 Y-3.34788
G01 X-3.89464 Y-3.34661
G01 X-3.89591 Y-3.34506
G01 X-3.89686 Y-3.34329
G01 X-3.89744 Y-3.34137
G01 X-3.89764 Y-3.33937
G01 X-3.89764 Y-3.32574
G01 X-3.89584 Y-3.32392
G01 X-3.89764 Y-3.32574
G01 X-4.00236 Y-3.32574
G01 X-4.00421 Y-3.32389
G01 X-4.00236 Y-3.32574
G01 X-4.00236 Y-3.33937
G01 X-4.00256 Y-3.34137
G01 X-4.00314 Y-3.34329
G01 X-4.00409 Y-3.34506
G01 X-4.00536 Y-3.34661
G01 X-4.00691 Y-3.34788
G01 X-4.00868 Y-3.34883
G01 X-4.01060 Y-3.34941
G01 X-4.01260 Y-3.34961
G01 X-4.08740 Y-3.34961
G01 X-4.08940 Y-3.34941
G01 X-4.09132 Y-3.34883
G01 X-4.09309 Y-3.34788
G01 X-4.09464 Y-3.34661
G01 X-4.09591 Y-3.34506
G01 X-4.09686 Y-3.34329
G01 X-4.09744 Y-3.34137
G01 X-4.09764 Y-3.33937
G01 X-4.09764 Y-3.31234
G01 X-4.09725 Y-3.30888
G01 X-4.09688 Y-3.30124
G01 X-4.09724 Y-3.29127
G01 X-4.09764 Y-3.28766
G01 X-4.09764 Y-3.26063
G01 X-4.09744 Y-3.25863
G01 X-4.09686 Y-3.25671
G01 X-4.09591 Y-3.25494
G01 X-4.09464 Y-3.25339
G01 X-4.09309 Y-3.25212
G01 X-4.09132 Y-3.25117
G01 X-4.08940 Y-3.25059
G01 X-4.08740 Y-3.25039
G01 X-4.01260 Y-3.25039
G01 X-4.01060 Y-3.25059
G01 X-4.00868 Y-3.25117
G01 X-4.00691 Y-3.25212
G01 X-4.00536 Y-3.25339
G01 X-4.00409 Y-3.25494
G01 X-4.00314 Y-3.25671
G01 X-4.00256 Y-3.25863
G01 X-4.00236 Y-3.26063
G01 X-4.00236 Y-3.27426
G01 X-4.00421 Y-3.27611
G01 X-4.00236 Y-3.27426
G01 X-3.89764 Y-3.27426
G01 X-3.89579 Y-3.27611
G01 X-3.89764 Y-3.27426
G01 X-3.89764 Y-3.26063
G01 X-3.89744 Y-3.25863
G01 X-3.89686 Y-3.25671
G01 X-3.89591 Y-3.25494
G01 X-3.89464 Y-3.25339
G01 X-3.89309 Y-3.25212
G01 X-3.89132 Y-3.25117
G01 X-3.88940 Y-3.25059
G01 X-3.88740 Y-3.25039
G01 X-3.81260 Y-3.25039
G01 X-3.81060 Y-3.25059
G01 X-3.80868 Y-3.25117
G01 X-3.80691 Y-3.25212
G01 X-3.80536 Y-3.25339
G01 X-3.80409 Y-3.25494
G01 X-3.80314 Y-3.25671
G01 X-3.80256 Y-3.25863
G01 X-3.80236 Y-3.26063
G01 X-3.80236 Y-3.28767
G01 X-3.80275 Y-3.29127
G01 X-3.80312 Y-3.29876
G01 X-3.80274 Y-3.30888
G01 X-3.80138 Y-3.31893
G01 X-3.80078 Y-3.32195
G01 X-3.79887 Y-3.32958
G01 X-3.79780 Y-3.33311
G01 X-3.79606 Y-3.33796
G01 X-3.79606 Y-3.33937
G01 X-3.79638 Y-3.34260
G01 X-3.79732 Y-3.34570
G01 X-3.79885 Y-3.34856
G01 X-3.80091 Y-3.35106
G01 X-3.80341 Y-3.35312
G01 X-3.80627 Y-3.35465
G01 X-3.80937 Y-3.35559
G01 X-3.81260 Y-3.35590
G01 X-3.81796 Y-3.35590
G01 X-3.81973 Y-3.35421
G01 X-3.81796 Y-3.35590
G01 X-3.81796 Y-3.35710
G01 X-3.81844 Y-3.35730
G01 X-3.81796 Y-3.35710
G01 X-3.81245 Y-3.36262
G01 X-3.80385 Y-3.36046
G01 X-3.79991 Y-3.35836
G01 X-3.79645 Y-3.35552
G01 X-3.79361 Y-3.35206
G01 X-3.79231 Y-3.34963
G01 X-3.79365 Y-3.34469
G01 X-3.79784 Y-3.33297
G01 X-3.79892 Y-3.32943
G01 X-3.80078 Y-3.32195
G01 X-3.80138 Y-3.31893
G01 X-3.80249 Y-3.31145
G01 X-3.80312 Y-3.30124
G01 X-3.80275 Y-3.29127
G01 X-3.80249 Y-3.28855
G01 X-3.80138 Y-3.28106
G01 X-3.80078 Y-3.27805
G01 X-3.79892 Y-3.27056
G01 X-3.79784 Y-3.26703
G01 X-3.79365 Y-3.25531
G01 X-3.79231 Y-3.25037
G01 X-3.79361 Y-3.24794
G01 X-3.79645 Y-3.24448
G01 X-3.79991 Y-3.24164
G01 X-3.80386 Y-3.23953
G01 X-3.80814 Y-3.23823
G01 X-3.81260 Y-3.23780
G01 X-3.88740 Y-3.23780
G01 X-3.89186 Y-3.23823
G01 X-3.89614 Y-3.23953
G01 X-3.90009 Y-3.24164
G01 X-3.90355 Y-3.24448
G01 X-3.90639 Y-3.24794
G01 X-3.90850 Y-3.25189
G01 X-3.90980 Y-3.25617
G01 X-3.91024 Y-3.26166
G01 X-3.90869 Y-3.26334
G01 X-3.91024 Y-3.26166
G01 X-3.98976 Y-3.26166
G01 X-3.99131 Y-3.26334
G01 X-3.98976 Y-3.26166
G01 X-3.99020 Y-3.25617
G01 X-3.99150 Y-3.25189
G01 X-3.99361 Y-3.24794
G01 X-3.99645 Y-3.24448
G01 X-3.99991 Y-3.24164
G01 X-4.00386 Y-3.23953
G01 X-4.00814 Y-3.23823
G01 X-4.01260 Y-3.23780
G01 X-4.08740 Y-3.23780
G01 X-4.09186 Y-3.23823
G01 X-4.09614 Y-3.23953
G01 X-4.10009 Y-3.24164
G01 X-4.10355 Y-3.24448
G01 X-4.10639 Y-3.24794
G01 X-4.10769 Y-3.25037
G01 X-4.10634 Y-3.25531
G01 X-4.10220 Y-3.26688
G01 X-4.10112 Y-3.27041
G01 X-4.09925 Y-3.27790
G01 X-4.09861 Y-3.28106
G01 X-4.09725 Y-3.29112
G01 X-4.09688 Y-3.29861
G01 X-4.09688 Y-3.30139
G01 X-4.09725 Y-3.30888
G01 X-4.09861 Y-3.31893
G01 X-4.09925 Y-3.32210
G01 X-4.10112 Y-3.32958
G01 X-4.10220 Y-3.33311
G01 X-4.10634 Y-3.34469
G01 X-4.10769 Y-3.34963
G01 X-4.10639 Y-3.35206
G01 X-4.10355 Y-3.35552
G01 X-4.10009 Y-3.35836
G01 X-4.09614 Y-3.36047
G01 X-4.09186 Y-3.36177
G01 X-4.08740 Y-3.36220
G01 X-4.01260 Y-3.36220
G01 X-4.00814 Y-3.36177
G01 X-4.00386 Y-3.36047
G01 X-3.99991 Y-3.35836
G01 X-3.99645 Y-3.35552
G01 X-3.99361 Y-3.35206
G01 X-3.99150 Y-3.34811
G01 X-3.99020 Y-3.34382
G01 X-3.98976 Y-3.33833
G01 X-3.99131 Y-3.33666
G01 X-3.98976 Y-3.33833
G01 X-3.91024 Y-3.33833
G01 X-3.90869 Y-3.33666
G01 X-3.91024 Y-3.33833
G01 X-3.90980 Y-3.34382
G01 X-3.90850 Y-3.34811
G01 X-3.90639 Y-3.35206
G01 X-3.90355 Y-3.35552
G01 X-3.90009 Y-3.35836
G01 X-3.89614 Y-3.36047
G01 X-3.89186 Y-3.36177
G01 X-3.88833 Y-3.36211
G01 X-3.88696 Y-3.36099
G01 X-3.88833 Y-3.36211
G01 X-3.88833 Y-3.37037
G01 X-3.88793 Y-3.37563
G01 X-3.88705 Y-3.38002
G01 X-3.88617 Y-3.38293
G01 X-3.88446 Y-3.38707
G01 X-3.88302 Y-3.38975
G01 X-3.88054 Y-3.39347
G01 X-3.87711 Y-3.39748
G01 X-3.84868 Y-3.42591
G01 X-3.84467 Y-3.42934
G01 X-3.84095 Y-3.43182
G01 X-3.83826 Y-3.43326
G01 X-3.83413 Y-3.43497
G01 X-3.83122 Y-3.43585
G01 X-3.82683 Y-3.43673
G01 X-3.82157 Y-3.43713
G01 X-3.34933 Y-3.43713
G01 X-3.34406 Y-3.43673
G01 X-3.33967 Y-3.43585
G01 X-3.33677 Y-3.43497
G01 X-3.33263 Y-3.43326
G01 X-3.32995 Y-3.43182
G01 X-3.32623 Y-3.42934
G01 X-3.32222 Y-3.42591
G01 X-3.14104 Y-3.24473
G01 X-3.13761 Y-3.24072
G01 X-3.13512 Y-3.23700
G01 X-3.13369 Y-3.23432
G01 X-3.13198 Y-3.23018
G01 X-3.13110 Y-3.22727
G01 X-3.13022 Y-3.22288
G01 X-3.12981 Y-3.21762
G01 X-3.14871 Y-3.21762
G01 X-3.14918 Y-3.22179
G01 X-3.15036 Y-3.22541
G01 X-3.15222 Y-3.22873
G01 X-3.15440 Y-3.23137
G01 X-3.33558 Y-3.41254
G01 X-3.33822 Y-3.41473
G01 X-3.34154 Y-3.41659
G01 X-3.34592 Y-3.41792
G01 X-3.34933 Y-3.41824
G01 X-3.82157 Y-3.41824
G01 X-3.82498 Y-3.41792
G01 X-3.82936 Y-3.41659
G01 X-3.83204 Y-3.41516
G01 X-3.83503 Y-3.41280
G01 X-3.86374 Y-3.38411
G01 X-3.86593 Y-3.38148
G01 X-3.86809 Y-3.37744
G01 X-3.86912 Y-3.37378
G01 X-3.86942 Y-3.37075
G01 X-3.86944 Y-3.34331
G01 X-3.88740 Y-3.34331
G01 X-3.88891 Y-3.34301
G01 X-3.89018 Y-3.34215
G01 X-3.89104 Y-3.34088
G01 X-3.89134 Y-3.33937
G01 X-3.89134 Y-3.31944
G01 X-4.00866 Y-3.31944
G01 X-4.00874 Y-3.34014
G01 X-4.00932 Y-3.34156
G01 X-4.00981 Y-3.34215
G01 X-4.01109 Y-3.34301
G01 X-4.01183 Y-3.34323
G01 X-4.08740 Y-3.34331
G01 X-4.08891 Y-3.34301
G01 X-4.09018 Y-3.34215
G01 X-4.09104 Y-3.34088
G01 X-4.09134 Y-3.33937
G01 X-4.09134 Y-3.26063
G01 X-4.09126 Y-3.25986
G01 X-4.09068 Y-3.25844
G01 X-4.08959 Y-3.25736
G01 X-4.08891 Y-3.25699
G01 X-4.08740 Y-3.25669
G01 X-4.01183 Y-3.25677
G01 X-4.01109 Y-3.25699
G01 X-4.00981 Y-3.25785
G01 X-4.00932 Y-3.25844
G01 X-4.00874 Y-3.25986
G01 X-4.00866 Y-3.28056
G01 X-3.89134 Y-3.28056
G01 X-3.89126 Y-3.25986
G01 X-3.89067 Y-3.25844
G01 X-3.88959 Y-3.25736
G01 X-3.88891 Y-3.25699
G01 X-3.88740 Y-3.25669
G01 X-3.81260 Y-3.25669
G01 X-3.81109 Y-3.25699
G01 X-3.80981 Y-3.25785
G01 X-3.80896 Y-3.25912
G01 X-3.80866 Y-3.26063
G01 X-3.80874 Y-3.34014
G01 X-3.80932 Y-3.34156
G01 X-3.80981 Y-3.34215
G01 X-3.81109 Y-3.34301
G01 X-3.81183 Y-3.34323
G01 X-3.83056 Y-3.34331
G01 X-3.83056 Y-3.36232
G01 X-3.81352 Y-3.37936
G01 X-3.35738 Y-3.37936
G01 X-3.18759 Y-3.20957
G01 X-3.18759 Y-2.81876
G01 X-3.21876 Y-2.78759
G01 X-3.57295 Y-2.78759
G01 X-3.57712 Y-2.78712
G01 X-3.58074 Y-2.78594
G01 X-3.58342 Y-2.78451
G01 X-3.58669 Y-2.78189
G01 X-3.72315 Y-2.64544
G01 X-3.74216 Y-2.64544
G01 X-3.74216 Y-2.69490
G01 X-3.74246 Y-2.69641
G01 X-3.74283 Y-2.69709
G01 X-3.74391 Y-2.69817
G01 X-3.74459 Y-2.69854
G01 X-3.74610 Y-2.69884
G01 X-3.88390 Y-2.69884
G01 X-3.88541 Y-2.69854
G01 X-3.88609 Y-2.69817
G01 X-3.88717 Y-2.69709
G01 X-3.88754 Y-2.69641
G01 X-3.88784 Y-2.69490
G01 X-3.88784 Y-2.58065
G01 X-3.92716 Y-2.54133
G01 X-3.92716 Y-2.57680
G01 X-3.92746 Y-2.57831
G01 X-3.92783 Y-2.57899
G01 X-3.92891 Y-2.58007
G01 X-3.93033 Y-2.58066
G01 X-4.06890 Y-2.58074
G01 X-4.07041 Y-2.58044
G01 X-4.07109 Y-2.58007
G01 X-4.07217 Y-2.57899
G01 X-4.07276 Y-2.57757
G01 X-4.07284 Y-2.57680
G01 X-4.07284 Y-2.43900
G01 X-4.07276 Y-2.43823
G01 X-4.07217 Y-2.43681
G01 X-4.07109 Y-2.43573
G01 X-4.06967 Y-2.43514
G01 X-3.93110 Y-2.43506
G01 X-3.93033 Y-2.43514
G01 X-3.92891 Y-2.43573
G01 X-3.92783 Y-2.43681
G01 X-3.92724 Y-2.43823
G01 X-3.92716 Y-2.43900
G01 X-3.92716 Y-2.48947
G01 X-3.92531 Y-2.49011
G01 X-3.92263 Y-2.49154
G01 X-3.91935 Y-2.49416
G01 X-3.86035 Y-2.55316
G01 X-3.74610 Y-2.55316
G01 X-3.74533 Y-2.55324
G01 X-3.74391 Y-2.55383
G01 X-3.74283 Y-2.55491
G01 X-3.74224 Y-2.55633
G01 X-3.74216 Y-2.55710
G01 X-3.74216 Y-2.60656
G01 X-3.71471 Y-2.60658
G01 X-3.71169 Y-2.60688
G01 X-3.70803 Y-2.60791
G01 X-3.70399 Y-2.61007
G01 X-3.70136 Y-2.61226
G01 X-3.56490 Y-2.74871
G01 X-3.21071 Y-2.74871
G01 X-3.20730 Y-2.74903
G01 X-3.20364 Y-2.75006
G01 X-3.20024 Y-2.75179
G01 X-3.19725 Y-2.75414
G01 X-3.15440 Y-2.79697
G01 X-3.15222 Y-2.79960
G01 X-3.15036 Y-2.80292
G01 X-3.14903 Y-2.80730
G01 X-3.14871 Y-2.81071
G01 X-3.14871 Y-3.21762
G04 P0 ( dwell for no time -- G64 should not smooth over this point )
G00 Z0.08000 ( retract )

G00 X-3.79013 Y-3.26416 ( rapid move to begin. )
G01 F180.00000
( Mill infeed pass 1/1 )
G01 Z-0.04000
G04 P0 ( dwell for no time -- G64 should not smooth over this point )
G01 F360.00000
G01 X-3.79013 Y-3.26416
G01 X-3.79282 Y-3.27217
G01 X-3.79462 Y-3.27935
G01 X-3.79613 Y-3.28858
G01 X-3.79435 Y-3.28272
G01 X-3.79358 Y-3.28086
G01 X-3.79013 Y-3.27440
G01 X-3.78901 Y-3.27273
G01 X-3.78436 Y-3.26706
G01 X-3.78294 Y-3.26564
G01 X-3.77727 Y-3.26099
G01 X-3.77560 Y-3.25987
G01 X-3.76914 Y-3.25642
G01 X-3.76728 Y-3.25565
G01 X-3.76027 Y-3.25352
G01 X-3.75830 Y-3.25313
G01 X-3.75100 Y-3.25241
G01 X-3.74900 Y-3.25241
G01 X-3.74170 Y-3.25313
G01 X-3.73973 Y-3.25352
G01 X-3.73271 Y-3.25565
G01 X-3.73086 Y-3.25642
G01 X-3.72439 Y-3.25987
G01 X-3.72273 Y-3.26099
G01 X-3.71706 Y-3.26564
G01 X-3.71564 Y-3.26706
G01 X-3.71099 Y-3.27273
G01 X-3.70987 Y-3.27440
G01 X-3.70642 Y-3.28086
G01 X-3.70565 Y-3.28272
G01 X-3.70367 Y-3.28925
G01 X-3.70417 Y-3.28974
G01 X-3.70367 Y-3.28925
G01 X-3.66668 Y-3.30285
G01 X-3.44905 Y-3.30275
G01 X-3.44892 Y-3.30312
G01 X-3.44905 Y-3.30275
G01 X-3.44763 Y-3.30134
G01 X-3.44346 Y-3.29791
G01 X-3.44179 Y-3.29680
G01 X-3.43703 Y-3.29425
G01 X-3.43517 Y-3.29348
G01 X-3.43199 Y-3.29252
G01 X-3.36801 Y-3.29252
G01 X-3.36483 Y-3.29348
G01 X-3.36297 Y-3.29425
G01 X-3.35821 Y-3.29680
G01 X-3.35654 Y-3.29791
G01 X-3.35236 Y-3.30134
G01 X-3.35095 Y-3.30276
G01 X-3.34752 Y-3.30694
G01 X-3.34640 Y-3.30860
G01 X-3.34386 Y-3.31337
G01 X-3.34309 Y-3.31522
G01 X-3.34152 Y-3.32039
G01 X-3.34113 Y-3.32236
G01 X-3.34060 Y-3.32774
G01 X-3.34060 Y-3.32974
G01 X-3.34113 Y-3.33512
G01 X-3.34152 Y-3.33709
G01 X-3.34309 Y-3.34226
G01 X-3.34386 Y-3.34411
G01 X-3.34640 Y-3.34888
G01 X-3.34752 Y-3.35054
G01 X-3.35095 Y-3.35472
G01 X-3.35236 Y-3.35614
G01 X-3.35654 Y-3.35957
G01 X-3.35821 Y-3.36068
G01 X-3.36297 Y-3.36323
G01 X-3.36483 Y-3.36400
G01 X-3.37000 Y-3.36557
G01 X-3.37197 Y-3.36596
G01 X-3.37734 Y-3.36649
G01 X-3.42165 Y-3.36653
G01 X-3.42803 Y-3.36596
G01 X-3.43000 Y-3.36557
G01 X-3.43517 Y-3.36400
G01 X-3.43703 Y-3.36323
G01 X-3.44179 Y-3.36068
G01 X-3.44346 Y-3.35957
G01 X-3.44763 Y-3.35614
G01 X-3.44905 Y-3.35473
G01 X-3.44890 Y-3.35433
G01 X-3.44905 Y-3.35473
G01 X-3.67215 Y-3.35469
G01 X-3.67666 Y-3.35413
G01 X-3.68017 Y-3.35315
G01 X-3.72155 Y-3.33805
G01 X-3.72161 Y-3.33738
G01 X-3.72155 Y-3.33805
G01 X-3.72272 Y-3.33901
G01 X-3.72439 Y-3.34013
G01 X-3.73086 Y-3.34358
G01 X-3.73271 Y-3.34435
G01 X-3.73973 Y-3.34648
G01 X-3.74170 Y-3.34687
G01 X-3.74900 Y-3.34759
G01 X-3.75100 Y-3.34759
G01 X-3.75830 Y-3.34687
G01 X-3.76027 Y-3.34648
G01 X-3.76728 Y-3.34435
G01 X-3.76914 Y-3.34358
G01 X-3.77560 Y-3.34013
G01 X-3.77727 Y-3.33901
G01 X-3.78294 Y-3.33436
G01 X-3.78436 Y-3.33294
G01 X-3.78901 Y-3.32727
G01 X-3.79013 Y-3.32560
G01 X-3.79358 Y-3.31914
G01 X-3.79435 Y-3.31728
G01 X-3.79613 Y-3.31142
G01 X-3.79647 Y-3.30834
G01 X-3.79682 Y-3.29884
G01 X-3.79647 Y-3.29166
G01 X-3.79613 Y-3.28858
G01 X-3.79647 Y-3.29166
G01 X-3.79682 Y-3.29884
G01 X-3.79647 Y-3.30834
G01 X-3.79623 Y-3.31075
G01 X-3.79462 Y-3.32064
G01 X-3.79282 Y-3.32783
G01 X-3.79013 Y-3.33584
G01 X-3.78694 Y-3.33923
G01 X-3.78127 Y-3.34388
G01 X-3.77857 Y-3.34568
G01 X-3.77211 Y-3.34914
G01 X-3.76911 Y-3.35038
G01 X-3.76210 Y-3.35251
G01 X-3.75892 Y-3.35314
G01 X-3.75162 Y-3.35386
G01 X-3.74838 Y-3.35386
G01 X-3.74108 Y-3.35314
G01 X-3.73790 Y-3.35251
G01 X-3.73089 Y-3.35038
G01 X-3.72789 Y-3.34914
G01 X-3.72143 Y-3.34568
G01 X-3.72057 Y-3.34511
G01 X-3.72061 Y-3.34454
G01 X-3.72057 Y-3.34511
G01 X-3.68233 Y-3.35907
G01 X-3.67829 Y-3.36022
G01 X-3.67551 Y-3.36059
G01 X-3.67122 Y-3.36074
G01 X-3.45263 Y-3.36068
G01 X-3.44405 Y-3.36345
G01 X-3.43880 Y-3.36476
G01 X-3.43598 Y-3.36532
G01 X-3.42815 Y-3.36636
G01 X-3.42161 Y-3.36665
G01 X-3.37838 Y-3.36665
G01 X-3.37185 Y-3.36636
G01 X-3.36325 Y-3.36519
G01 X-3.35634 Y-3.35993
G01 X-3.35245 Y-3.35641
G01 X-3.34715 Y-3.35075
G01 X-3.34235 Y-3.34448
G01 X-3.34075 Y-3.34209
G01 X-3.33797 Y-3.33745
G01 X-3.33637 Y-3.33445
G01 X-3.33398 Y-3.32940
G01 X-3.33237 Y-3.32551
G01 X-3.33041 Y-3.32002
G01 X-3.32945 Y-3.31683
G01 X-3.33103 Y-3.31156
G01 X-3.33275 Y-3.30743
G01 X-3.33529 Y-3.30266
G01 X-3.33778 Y-3.29894
G01 X-3.34181 Y-3.29417
G01 X-3.34601 Y-3.29252
G01 X-3.45416 Y-3.29261
G01 X-3.45777 Y-3.29142
G01 X-3.46082 Y-3.29015
G01 X-3.66445 Y-3.29025
G01 X-3.69344 Y-3.27957
G01 X-3.69385 Y-3.28000
G01 X-3.69344 Y-3.27957
G01 X-3.69531 Y-3.27492
G01 X-3.69876 Y-3.26846
G01 X-3.70125 Y-3.26473
G01 X-3.70590 Y-3.25907
G01 X-3.70907 Y-3.25590
G01 X-3.71473 Y-3.25125
G01 X-3.71846 Y-3.24876
G01 X-3.72492 Y-3.24531
G01 X-3.72906 Y-3.24359
G01 X-3.73607 Y-3.24146
G01 X-3.74046 Y-3.24059
G01 X-3.74776 Y-3.23987
G01 X-3.75224 Y-3.23987
G01 X-3.75953 Y-3.24059
G01 X-3.76392 Y-3.24146
G01 X-3.77094 Y-3.24359
G01 X-3.77508 Y-3.24531
G01 X-3.78154 Y-3.24876
G01 X-3.78624 Y-3.25205
G01 X-3.78768 Y-3.25731
G01 X-3.79184 Y-3.26894
G01 X-3.79282 Y-3.27217
G01 X-3.79516 Y-3.28207
G01 X-3.79647 Y-3.29166
G01 X-3.79682 Y-3.30116
G01 X-3.79623 Y-3.31075
G01 X-3.79462 Y-3.32064
G01 X-3.79282 Y-3.32783
G01 X-3.79013 Y-3.33584
G01 X-3.78694 Y-3.33923
G01 X-3.78127 Y-3.34388
G01 X-3.77857 Y-3.34568
G01 X-3.77211 Y-3.34914
G01 X-3.76911 Y-3.35038
G01 X-3.76210 Y-3.35251
G01 X-3.75892 Y-3.35314
G01 X-3.75162 Y-3.35386
G01 X-3.74838 Y-3.35386
G01 X-3.74108 Y-3.35314
G01 X-3.73790 Y-3.35251
G01 X-3.73089 Y-3.35038
G01 X-3.72789 Y-3.34914
G01 X-3.72057 Y-3.34511
G01 X-3.68233 Y-3.35907
G01 X-3.67829 Y-3.36022
G01 X-3.67551 Y-3.36059
G01 X-3.67122 Y-3.36074
G01 X-3.45264 Y-3.36074
G01 X-3.45158 Y-3.36093
G01 X-3.44405 Y-3.36345
G01 X-3.43880 Y-3.36476
G01 X-3.43598 Y-3.36532
G01 X-3.42815 Y-3.36636
G01 X-3.42161 Y-3.36665
G01 X-3.37838 Y-3.36665
G01 X-3.37185 Y-3.36636
G01 X-3.36325 Y-3.36519
G01 X-3.35834 Y-3.36158
G01 X-3.35245 Y-3.35641
G01 X-3.34715 Y-3.35075
G01 X-3.34235 Y-3.34448
G01 X-3.33797 Y-3.33745
G01 X-3.33637 Y-3.33445
G01 X-3.33398 Y-3.32940
G01 X-3.33433 Y-3.33014
G01 X-3.34060 Y-3.32974
G01 X-3.34687 Y-3.32913
G01 X-3.34755 Y-3.33526
G01 X-3.34941 Y-3.34114
G01 X-3.35239 Y-3.34655
G01 X-3.35636 Y-3.35127
G01 X-3.36118 Y-3.35513
G01 X-3.36666 Y-3.35797
G01 X-3.37258 Y-3.35969
G01 X-3.37835 Y-3.36024
G01 X-3.42165 Y-3.36024
G01 X-3.42741 Y-3.35969
G01 X-3.43334 Y-3.35797
G01 X-3.43882 Y-3.35513
G01 X-3.44364 Y-3.35127
G01 X-3.44607 Y-3.34843
G01 X-3.67160 Y-3.34841
G01 X-3.67502 Y-3.34805
G01 X-3.67801 Y-3.34723
G01 X-3.72277 Y-3.33089
G01 X-3.72736 Y-3.33457
G01 X-3.73383 Y-3.33803
G01 X-3.74156 Y-3.34045
G01 X-3.74961 Y-3.34132
G01 X-3.75768 Y-3.34060
G01 X-3.76546 Y-3.33832
G01 X-3.77264 Y-3.33457
G01 X-3.77949 Y-3.32894
G01 X-3.78457 Y-3.32264
G01 X-3.78832 Y-3.31546
G01 X-3.79060 Y-3.30768
G01 X-3.79132 Y-3.29961
G01 X-3.79045 Y-3.29156
G01 X-3.78832 Y-3.28454
G01 X-3.78457 Y-3.27736
G01 X-3.77949 Y-3.27106
G01 X-3.77328 Y-3.26586
G01 X-3.76617 Y-3.26197
G01 X-3.75844 Y-3.25955
G01 X-3.75039 Y-3.25868
G01 X-3.74232 Y-3.25940
G01 X-3.73454 Y-3.26168
G01 X-3.72736 Y-3.26543
G01 X-3.72105 Y-3.27051
G01 X-3.71586 Y-3.27672
G01 X-3.71197 Y-3.28383
G01 X-3.70955 Y-3.29156
G01 X-3.70924 Y-3.29392
G01 X-3.66778 Y-3.30905
G01 X-3.44607 Y-3.30905
G01 X-3.44364 Y-3.30621
G01 X-3.43882 Y-3.30235
G01 X-3.43334 Y-3.29951
G01 X-3.42741 Y-3.29779
G01 X-3.42165 Y-3.29724
G01 X-3.37796 Y-3.29726
G01 X-3.37183 Y-3.29794
G01 X-3.36594 Y-3.29981
G01 X-3.36054 Y-3.30278
G01 X-3.35582 Y-3.30675
G01 X-3.35196 Y-3.31157
G01 X-3.34912 Y-3.31705
G01 X-3.34740 Y-3.32298
G01 X-3.34687 Y-3.32913
G04 P0 ( dwell for no time -- G64 should not smooth over this point )
G00 Z0.08000 ( retract )

G00 X-3.79013 Y-3.26416 ( rapid move to begin. )
G01 F180.00000
( Mill infeed pass 1/1 )
G01 Z-0.04000
G04 P0 ( dwell for no time -- G64 should not smooth over this point )
G01 F360.00000
G01 X-3.79013 Y-3.26416
G01 X-3.79282 Y-3.27217
G01 X-3.79516 Y-3.28207
G01 X-3.79623 Y-3.28925
G01 X-3.79682 Y-3.29884
G01 X-3.79647 Y-3.30834
G01 X-3.79623 Y-3.31075
G01 X-3.79516 Y-3.31793
G01 X-3.79282 Y-3.32783
G01 X-3.79184 Y-3.33106
G01 X-3.78768 Y-3.34268
G01 X-3.78624 Y-3.34795
G01 X-3.78154 Y-3.35124
G01 X-3.77573 Y-3.35434
G01 X-3.77100 Y-3.35529
G01 X-3.76382 Y-3.35635
G01 X-3.75935 Y-3.35679
G01 X-3.75218 Y-3.35714
G01 X-3.74782 Y-3.35714
G01 X-3.74064 Y-3.35679
G01 X-3.73617 Y-3.35635
G01 X-3.72900 Y-3.35529
G01 X-3.72427 Y-3.35434
G01 X-3.71996 Y-3.35204
G01 X-3.72000 Y-3.35144
G01 X-3.71996 Y-3.35204
G01 X-3.71387 Y-3.35426
G01 X-3.68317 Y-3.35969
G01 X-3.67881 Y-3.36030
G01 X-3.67286 Y-3.36071
G01 X-3.45264 Y-3.36074
G01 X-3.45158 Y-3.36093
G01 X-3.44405 Y-3.36345
G01 X-3.43880 Y-3.36476
G01 X-3.43598 Y-3.36532
G01 X-3.42815 Y-3.36636
G01 X-3.42161 Y-3.36665
G01 X-3.37838 Y-3.36665
G01 X-3.37185 Y-3.36636
G01 X-3.36325 Y-3.36519
G01 X-3.35834 Y-3.36158
G01 X-3.35245 Y-3.35641
G01 X-3.34715 Y-3.35075
G01 X-3.34235 Y-3.34448
G01 X-3.33797 Y-3.33745
G01 X-3.33433 Y-3.33014
G01 X-3.33433 Y-3.32712
G01 X-3.33486 Y-3.32174
G01 X-3.33549 Y-3.31856
G01 X-3.33706 Y-3.31339
G01 X-3.33830 Y-3.31040
G01 X-3.34085 Y-3.30563
G01 X-3.34265 Y-3.30294
G01 X-3.34608 Y-3.29876
G01 X-3.34837 Y-3.29647
G01 X-3.35333 Y-3.29252
G01 X-3.44667 Y-3.29252
G01 X-3.45161 Y-3.29645
G01 X-3.45149 Y-3.29681
G01 X-3.45161 Y-3.29645
G01 X-3.66557 Y-3.29655
G01 X-3.69855 Y-3.28441
G01 X-3.69902 Y-3.28487
G01 X-3.69855 Y-3.28441
G01 X-3.69962 Y-3.28089
G01 X-3.70086 Y-3.27789
G01 X-3.70432 Y-3.27143
G01 X-3.70612 Y-3.26873
G01 X-3.71077 Y-3.26306
G01 X-3.71306 Y-3.26077
G01 X-3.71873 Y-3.25612
G01 X-3.72143 Y-3.25432
G01 X-3.72789 Y-3.25086
G01 X-3.73089 Y-3.24962
G01 X-3.73790 Y-3.24749
G01 X-3.74108 Y-3.24686
G01 X-3.74838 Y-3.24614
G01 X-3.75162 Y-3.24614
G01 X-3.75892 Y-3.24686
G01 X-3.76210 Y-3.24749
G01 X-3.76911 Y-3.24962
G01 X-3.77211 Y-3.25086
G01 X-3.77857 Y-3.25432
G01 X-3.78127 Y-3.25612
G01 X-3.78694 Y-3.26077
G01 X-3.79013 Y-3.26416
G04 P0 ( dwell for no time -- G64 should not smooth over this point )
G00 Z0.08000 ( retract )

G00 X-4.10377 Y-3.31075 ( rapid move to begin. )
G01 F180.00000
( Mill infeed pass 1/1 )
G01 Z-0.04000
G04 P0 ( dwell for no time -- G64 should not smooth over this point )
G01 F360.00000
G01 X-4.10377 Y-3.31075
G01 X-4.10353 Y-3.30834
G01 X-4.10318 Y-3.29884
G01 X-4.10377 Y-3.28925
G01 X-4.10483 Y-3.28207
G01 X-4.10717 Y-3.27217
G01 X-4.10816 Y-3.26894
G01 X-4.11232 Y-3.25731
G01 X-4.11376 Y-3.25205
G01 X-4.11846 Y-3.24876
G01 X-4.12492 Y-3.24531
G01 X-4.12906 Y-3.24359
G01 X-4.13607 Y-3.24146
G01 X-4.14046 Y-3.24059
G01 X-4.14776 Y-3.23987
G01 X-4.15224 Y-3.23987
G01 X-4.15953 Y-3.24059
G01 X-4.16392 Y-3.24146
G01 X-4.17094 Y-3.24359
G01 X-4.17508 Y-3.24531
G01 X-4.18154 Y-3.24876
G01 X-4.18527 Y-3.25125
G01 X-4.19093 Y-3.25590
G01 X-4.19410 Y-3.25907
G01 X-4.19875 Y-3.26473
G01 X-4.20124 Y-3.26846
G01 X-4.20469 Y-3.27492
G01 X-4.20641 Y-3.27906
G01 X-4.20853 Y-3.28607
G01 X-4.20934 Y-3.29015
G01 X-4.20834 Y-3.29146
G01 X-4.20934 Y-3.29015
G01 X-4.40079 Y-3.29015
G01 X-4.40935 Y-3.29171
G01 X-4.41426 Y-3.29218
G01 X-4.41971 Y-3.29240
G01 X-4.55654 Y-3.29252
G01 X-4.55879 Y-3.29477
G01 X-4.56222 Y-3.29894
G01 X-4.56471 Y-3.30266
G01 X-4.56725 Y-3.30743
G01 X-4.56897 Y-3.31156
G01 X-4.57053 Y-3.31673
G01 X-4.57141 Y-3.32112
G01 X-4.57194 Y-3.32650
G01 X-4.57194 Y-3.33098
G01 X-4.57141 Y-3.33635
G01 X-4.57053 Y-3.34075
G01 X-4.56897 Y-3.34592
G01 X-4.56725 Y-3.35005
G01 X-4.56471 Y-3.35481
G01 X-4.56222 Y-3.35854
G01 X-4.55879 Y-3.36271
G01 X-4.55563 Y-3.36588
G01 X-4.55145 Y-3.36931
G01 X-4.54773 Y-3.37179
G01 X-4.54296 Y-3.37434
G01 X-4.53883 Y-3.37605
G01 X-4.53366 Y-3.37762
G01 X-4.52927 Y-3.37849
G01 X-4.52389 Y-3.37902
G01 X-4.52165 Y-3.37913
G01 X-4.47835 Y-3.37913
G01 X-4.47073 Y-3.37849
G01 X-4.46634 Y-3.37762
G01 X-4.46117 Y-3.37605
G01 X-4.45704 Y-3.37434
G01 X-4.45227 Y-3.37179
G01 X-4.44855 Y-3.36931
G01 X-4.44613 Y-3.36732
G01 X-4.44623 Y-3.36701
G01 X-4.44613 Y-3.36732
G01 X-4.17874 Y-3.36732
G01 X-4.17650 Y-3.36721
G01 X-4.17343 Y-3.36691
G01 X-4.16904 Y-3.36604
G01 X-4.16608 Y-3.36514
G01 X-4.16195 Y-3.36343
G01 X-4.15923 Y-3.36197
G01 X-4.15592 Y-3.35976
G01 X-4.15599 Y-3.35949
G01 X-4.15592 Y-3.35976
G01 X-4.15224 Y-3.36013
G01 X-4.14776 Y-3.36013
G01 X-4.14046 Y-3.35941
G01 X-4.13607 Y-3.35853
G01 X-4.12906 Y-3.35641
G01 X-4.12492 Y-3.35469
G01 X-4.11846 Y-3.35124
G01 X-4.11473 Y-3.34875
G01 X-4.11376 Y-3.34795
G01 X-4.11232 Y-3.34268
G01 X-4.10816 Y-3.33106
G01 X-4.10717 Y-3.32783
G01 X-4.10483 Y-3.31793
G01 X-4.10377 Y-3.31075
G01 X-4.10565 Y-3.31728
G01 X-4.10642 Y-3.31914
G01 X-4.10987 Y-3.32560
G01 X-4.11099 Y-3.32727
G01 X-4.11564 Y-3.33294
G01 X-4.11706 Y-3.33436
G01 X-4.12273 Y-3.33901
G01 X-4.12439 Y-3.34013
G01 X-4.13086 Y-3.34358
G01 X-4.13272 Y-3.34435
G01 X-4.13973 Y-3.34648
G01 X-4.14170 Y-3.34687
G01 X-4.14900 Y-3.34759
G01 X-4.15100 Y-3.34759
G01 X-4.15830 Y-3.34687
G01 X-4.15982 Y-3.34657
G01 X-4.15998 Y-3.34604
G01 X-4.15982 Y-3.34657
G01 X-4.16036 Y-3.34712
G01 X-4.16350 Y-3.34975
G01 X-4.16516 Y-3.35086
G01 X-4.16789 Y-3.35232
G01 X-4.16974 Y-3.35309
G01 X-4.17270 Y-3.35398
G01 X-4.17466 Y-3.35437
G01 X-4.17874 Y-3.35473
G01 X-4.45095 Y-3.35473
G01 X-4.45110 Y-3.35433
G01 X-4.45095 Y-3.35473
G01 X-4.45237 Y-3.35614
G01 X-4.45654 Y-3.35957
G01 X-4.45821 Y-3.36068
G01 X-4.46297 Y-3.36323
G01 X-4.46483 Y-3.36400
G01 X-4.47000 Y-3.36557
G01 X-4.47197 Y-3.36596
G01 X-4.47835 Y-3.36653
G01 X-4.52266 Y-3.36649
G01 X-4.52803 Y-3.36596
G01 X-4.53000 Y-3.36557
G01 X-4.53517 Y-3.36400
G01 X-4.53702 Y-3.36323
G01 X-4.54179 Y-3.36068
G01 X-4.54346 Y-3.35957
G01 X-4.54763 Y-3.35614
G01 X-4.54905 Y-3.35472
G01 X-4.55248 Y-3.35054
G01 X-4.55359 Y-3.34888
G01 X-4.55614 Y-3.34411
G01 X-4.55691 Y-3.34226
G01 X-4.55848 Y-3.33709
G01 X-4.55887 Y-3.33512
G01 X-4.55940 Y-3.32974
G01 X-4.55940 Y-3.32774
G01 X-4.55887 Y-3.32236
G01 X-4.55848 Y-3.32039
G01 X-4.55691 Y-3.31522
G01 X-4.55614 Y-3.31337
G01 X-4.55359 Y-3.30860
G01 X-4.55248 Y-3.30694
G01 X-4.54905 Y-3.30276
G01 X-4.54763 Y-3.30134
G01 X-4.54346 Y-3.29791
G01 X-4.54179 Y-3.29680
G01 X-4.53702 Y-3.29425
G01 X-4.53517 Y-3.29348
G01 X-4.53199 Y-3.29252
G01 X-4.45333 Y-3.29252
G01 X-4.44839 Y-3.29645
G01 X-4.44851 Y-3.29681
G01 X-4.44839 Y-3.29645
G01 X-4.20367 Y-3.29645
G01 X-4.20231 Y-3.29801
G01 X-4.20367 Y-3.29645
G01 X-4.20314 Y-3.29108
G01 X-4.20251 Y-3.28790
G01 X-4.20038 Y-3.28089
G01 X-4.19914 Y-3.27789
G01 X-4.19568 Y-3.27143
G01 X-4.19388 Y-3.26873
G01 X-4.18923 Y-3.26306
G01 X-4.18694 Y-3.26077
G01 X-4.18127 Y-3.25612
G01 X-4.17857 Y-3.25432
G01 X-4.17211 Y-3.25086
G01 X-4.16911 Y-3.24962
G01 X-4.16210 Y-3.24749
G01 X-4.15892 Y-3.24686
G01 X-4.15162 Y-3.24614
G01 X-4.14838 Y-3.24614
G01 X-4.14108 Y-3.24686
G01 X-4.13790 Y-3.24749
G01 X-4.13089 Y-3.24962
G01 X-4.12789 Y-3.25086
G01 X-4.12143 Y-3.25432
G01 X-4.11873 Y-3.25612
G01 X-4.11306 Y-3.26077
G01 X-4.11077 Y-3.26306
G01 X-4.10987 Y-3.26416
G01 X-4.10816 Y-3.26894
G01 X-4.10717 Y-3.27217
G01 X-4.10538 Y-3.27935
G01 X-4.10483 Y-3.28207
G01 X-4.10353 Y-3.29166
G01 X-4.10318 Y-3.29884
G01 X-4.10353 Y-3.30834
G01 X-4.10483 Y-3.31793
G01 X-4.10538 Y-3.32064
G01 X-4.10717 Y-3.32783
G01 X-4.10987 Y-3.33584
G01 X-4.11306 Y-3.33923
G01 X-4.11873 Y-3.34388
G01 X-4.12143 Y-3.34568
G01 X-4.12789 Y-3.34914
G01 X-4.13089 Y-3.35038
G01 X-4.13790 Y-3.35251
G01 X-4.14108 Y-3.35314
G01 X-4.14838 Y-3.35386
G01 X-4.15162 Y-3.35386
G01 X-4.15783 Y-3.35324
G01 X-4.15791 Y-3.35292
G01 X-4.15783 Y-3.35324
G01 X-4.15950 Y-3.35462
G01 X-4.16219 Y-3.35642
G01 X-4.16492 Y-3.35787
G01 X-4.16791 Y-3.35911
G01 X-4.17087 Y-3.36001
G01 X-4.17404 Y-3.36064
G01 X-4.17874 Y-3.36103
G01 X-4.44839 Y-3.36103
G01 X-4.44850 Y-3.36070
G01 X-4.44839 Y-3.36103
G01 X-4.45254 Y-3.36444
G01 X-4.45524 Y-3.36624
G01 X-4.46000 Y-3.36878
G01 X-4.46300 Y-3.37002
G01 X-4.46817 Y-3.37159
G01 X-4.47135 Y-3.37222
G01 X-4.47835 Y-3.37283
G01 X-4.52165 Y-3.37283
G01 X-4.52865 Y-3.37222
G01 X-4.53183 Y-3.37159
G01 X-4.53700 Y-3.37002
G01 X-4.53999 Y-3.36878
G01 X-4.54476 Y-3.36624
G01 X-4.54745 Y-3.36444
G01 X-4.55163 Y-3.36101
G01 X-4.55392 Y-3.35872
G01 X-4.55735 Y-3.35454
G01 X-4.55915 Y-3.35184
G01 X-4.56170 Y-3.34708
G01 X-4.56294 Y-3.34409
G01 X-4.56451 Y-3.33892
G01 X-4.56514 Y-3.33574
G01 X-4.56567 Y-3.33036
G01 X-4.56567 Y-3.32712
G01 X-4.56514 Y-3.32174
G01 X-4.56451 Y-3.31856
G01 X-4.56294 Y-3.31339
G01 X-4.56170 Y-3.31040
G01 X-4.55915 Y-3.30563
G01 X-4.55735 Y-3.30294
G01 X-4.55392 Y-3.29876
G01 X-4.55163 Y-3.29647
G01 X-4.54667 Y-3.29252
G01 X-4.46801 Y-3.29252
G01 X-4.46483 Y-3.29348
G01 X-4.46297 Y-3.29425
G01 X-4.45821 Y-3.29680
G01 X-4.45654 Y-3.29791
G01 X-4.45237 Y-3.30134
G01 X-4.45095 Y-3.30275
G01 X-4.45108 Y-3.30312
G01 X-4.45095 Y-3.30275
G01 X-4.19742 Y-3.30275
G01 X-4.19576 Y-3.30449
G01 X-4.19742 Y-3.30275
G01 X-4.19759 Y-3.29900
G01 X-4.19687 Y-3.29170
G01 X-4.19648 Y-3.28973
G01 X-4.19435 Y-3.28272
G01 X-4.19358 Y-3.28086
G01 X-4.19013 Y-3.27440
G01 X-4.18901 Y-3.27273
G01 X-4.18436 Y-3.26706
G01 X-4.18294 Y-3.26564
G01 X-4.17727 Y-3.26099
G01 X-4.17560 Y-3.25987
G01 X-4.16914 Y-3.25642
G01 X-4.16728 Y-3.25565
G01 X-4.16027 Y-3.25352
G01 X-4.15830 Y-3.25313
G01 X-4.15100 Y-3.25241
G01 X-4.14900 Y-3.25241
G01 X-4.14170 Y-3.25313
G01 X-4.13973 Y-3.25352
G01 X-4.13272 Y-3.25565
G01 X-4.13086 Y-3.25642
G01 X-4.12439 Y-3.25987
G01 X-4.12273 Y-3.26099
G01 X-4.11706 Y-3.26564
G01 X-4.11564 Y-3.26706
G01 X-4.11099 Y-3.27273
G01 X-4.10987 Y-3.27440
G01 X-4.10642 Y-3.28086
G01 X-4.10565 Y-3.28272
G01 X-4.10377 Y-3.28925
G01 X-4.10353 Y-3.29166
G01 X-4.10318 Y-3.30116
G01 X-4.10868 Y-3.30038
G01 X-4.10955 Y-3.30844
G01 X-4.11168 Y-3.31546
G01 X-4.11543 Y-3.32264
G01 X-4.12051 Y-3.32894
G01 X-4.12736 Y-3.33457
G01 X-4.13454 Y-3.33832
G01 X-4.14232 Y-3.34060
G01 X-4.15038 Y-3.34132
G01 X-4.15768 Y-3.34060
G01 X-4.16164 Y-3.33948
G01 X-4.16510 Y-3.34292
G01 X-4.16813 Y-3.34531
G01 X-4.17086 Y-3.34676
G01 X-4.17452 Y-3.34795
G01 X-4.17874 Y-3.34843
G01 X-4.45393 Y-3.34843
G01 X-4.45636 Y-3.35127
G01 X-4.46118 Y-3.35513
G01 X-4.46666 Y-3.35797
G01 X-4.47258 Y-3.35969
G01 X-4.47835 Y-3.36024
G01 X-4.52165 Y-3.36024
G01 X-4.52742 Y-3.35969
G01 X-4.53334 Y-3.35797
G01 X-4.53946 Y-3.35470
G01 X-4.54418 Y-3.35072
G01 X-4.54804 Y-3.34591
G01 X-4.55088 Y-3.34043
G01 X-4.55245 Y-3.33526
G01 X-4.55313 Y-3.32913
G01 X-4.55260 Y-3.32298
G01 X-4.55088 Y-3.31705
G01 X-4.54761 Y-3.31093
G01 X-4.54364 Y-3.30621
G01 X-4.53882 Y-3.30235
G01 X-4.53406 Y-3.29981
G01 X-4.52817 Y-3.29794
G01 X-4.52204 Y-3.29726
G01 X-4.47835 Y-3.29724
G01 X-4.47258 Y-3.29779
G01 X-4.46666 Y-3.29951
G01 X-4.46118 Y-3.30235
G01 X-4.45636 Y-3.30621
G01 X-4.45393 Y-3.30905
G01 X-4.19026 Y-3.30905
G01 X-4.19060 Y-3.30768
G01 X-4.19132 Y-3.30038
G01 X-4.19060 Y-3.29232
G01 X-4.18832 Y-3.28454
G01 X-4.18414 Y-3.27672
G01 X-4.17894 Y-3.27051
G01 X-4.17263 Y-3.26543
G01 X-4.16545 Y-3.26168
G01 X-4.15844 Y-3.25955
G01 X-4.15038 Y-3.25868
G01 X-4.14232 Y-3.25940
G01 X-4.13454 Y-3.26168
G01 X-4.12736 Y-3.26543
G01 X-4.12106 Y-3.27051
G01 X-4.11543 Y-3.27736
G01 X-4.11168 Y-3.28454
G01 X-4.10940 Y-3.29232
G01 X-4.10868 Y-3.30038
G04 P0 ( dwell for no time -- G64 should not smooth over this point )
G00 Z0.08000 ( retract )

G00 X-4.37695 Y-3.24550 ( rapid move to begin. )
G01 F180.00000
( Mill infeed pass 1/1 )
G01 Z-0.04000
G04 P0 ( dwell for no time -- G64 should not smooth over this point )
G01 F360.00000
G01 X-4.37695 Y-3.24550
G01 X-4.37695 Y-3.04130
G01 X-4.37736 Y-3.03604
G01 X-4.37823 Y-3.03165
G01 X-4.37911 Y-3.02874
G01 X-4.38083 Y-3.02461
G01 X-4.38226 Y-3.02193
G01 X-4.38475 Y-3.01821
G01 X-4.38818 Y-3.01420
G01 X-4.50957 Y-2.89281
G01 X-4.51199 Y-2.89286
G01 X-4.50957 Y-2.89281
G01 X-4.50826 Y-2.89174
G01 X-4.50542 Y-2.88828
G01 X-4.50331 Y-2.88433
G01 X-4.50201 Y-2.88004
G01 X-4.50157 Y-2.87559
G01 X-4.50157 Y-2.87165
G01 X-4.50239 Y-2.86755
G01 X-4.50315 Y-2.86238
G01 X-4.50363 Y-2.85749
G01 X-4.50388 Y-2.85232
G01 X-4.50387 Y-2.84752
G01 X-4.50362 Y-2.84235
G01 X-4.50313 Y-2.83746
G01 X-4.50215 Y-2.83112
G01 X-4.50787 Y-2.82556
G01 X-4.50787 Y-2.87559
G01 X-4.50819 Y-2.87882
G01 X-4.50913 Y-2.88192
G01 X-4.51066 Y-2.88478
G01 X-4.51272 Y-2.88728
G01 X-4.51522 Y-2.88934
G01 X-4.51796 Y-2.89080
G01 X-4.51870 Y-2.89041
G01 X-4.51796 Y-2.89080
G01 X-4.51796 Y-2.89332
G01 X-4.51844 Y-2.89352
G01 X-4.51796 Y-2.89332
G01 X-4.39263 Y-3.01865
G01 X-4.38962 Y-3.02220
G01 X-4.38782 Y-3.02490
G01 X-4.38638 Y-3.02758
G01 X-4.38514 Y-3.03057
G01 X-4.38426 Y-3.03348
G01 X-4.38363 Y-3.03666
G01 X-4.38325 Y-3.04130
G01 X-4.38325 Y-3.24550
G01 X-4.38363 Y-3.25014
G01 X-4.38426 Y-3.25332
G01 X-4.38514 Y-3.25623
G01 X-4.38638 Y-3.25922
G01 X-4.38781 Y-3.26190
G01 X-4.38962 Y-3.26460
G01 X-4.39154 Y-3.26695
G01 X-4.39713 Y-3.27265
G01 X-4.40068 Y-3.27567
G01 X-4.40338 Y-3.27747
G01 X-4.40606 Y-3.27890
G01 X-4.40905 Y-3.28014
G01 X-4.41196 Y-3.28103
G01 X-4.41514 Y-3.28166
G01 X-4.41979 Y-3.28204
G01 X-4.44813 Y-3.28204
G01 X-4.44826 Y-3.28168
G01 X-4.44813 Y-3.28204
G01 X-4.44837 Y-3.28227
G01 X-4.45333 Y-3.28622
G01 X-4.54667 Y-3.28622
G01 X-4.55163 Y-3.28227
G01 X-4.55392 Y-3.27998
G01 X-4.55735 Y-3.27580
G01 X-4.55915 Y-3.27311
G01 X-4.56170 Y-3.26834
G01 X-4.56294 Y-3.26535
G01 X-4.56451 Y-3.26018
G01 X-4.56514 Y-3.25700
G01 X-4.56567 Y-3.25162
G01 X-4.56567 Y-3.24838
G01 X-4.56514 Y-3.24300
G01 X-4.56451 Y-3.23982
G01 X-4.56294 Y-3.23465
G01 X-4.56170 Y-3.23166
G01 X-4.55915 Y-3.22689
G01 X-4.55735 Y-3.22420
G01 X-4.55392 Y-3.22002
G01 X-4.55163 Y-3.21773
G01 X-4.54667 Y-3.21378
G01 X-4.46801 Y-3.21378
G01 X-4.46483 Y-3.21474
G01 X-4.46297 Y-3.21551
G01 X-4.45821 Y-3.21806
