( pcb2gcode 1.3.2 )
( Software-independent Gcode )
( This file uses a mill head of 0.07087inch to drill the 2 bit sizes. )
( Bit sizes: [0.0314961 inch] [0.0787795 inch] )

G94       (Inches per minute feed rate.)
G20       (Units == INCHES.)
G91.1     (Incremental arc distance mode.)
G90       (Absolute coordinates.)
S10000    (RPM spindle speed.)
G01 F100.00000 (Feedrate)
M3        (Spindle on clockwise.)
G04 P1.00000
G00 Z0.08000

G0 X3.40000 Y-2.85000
G1 Z-0.06299
G0 Z0.08000

G0 X3.49843 Y-2.85000
G1 Z-0.06299
G0 Z0.08000

G0 X3.81500 Y-2.58665
G1 Z-0.00787
G1 X3.81500 Y-2.66535
G1 Z-0.01575
G1 X3.81500 Y-2.58665
G1 Z-0.02362
G1 X3.81500 Y-2.66535
G1 Z-0.03150
G1 X3.81500 Y-2.58665
G1 Z-0.03937
G1 X3.81500 Y-2.66535
G1 Z-0.04724
G1 X3.81500 Y-2.58665
G1 Z-0.05512
G1 X3.81500 Y-2.66535
G1 Z-0.06299
G1 X3.81500 Y-2.58665
G0 Z0.08000

G0 X3.40000 Y-3.17126
G1 Z-0.06299
G0 Z0.08000

G0 X3.40000 Y-3.25000
G1 Z-0.06299
G0 Z0.08000

G0 X3.40000 Y-3.32874
G1 Z-0.06299
G0 Z0.08000

G0 X4.45157 Y-2.85000
G1 Z-0.06299
G0 Z0.08000

G0 X4.55000 Y-2.85000
G1 Z-0.06299
G0 Z0.08000

G0 X4.50000 Y-3.17126
G1 Z-0.06299
G0 Z0.08000

G0 X4.50000 Y-3.25000
G1 Z-0.06299
G0 Z0.08000

G0 X4.50000 Y-3.32874
G1 Z-0.06299
G0 Z0.08000

G0 X3.24604 Y-2.55000
G1 Z-0.00787
G3  X3.24604 Y-2.55000 I0.00396 J0.00000
G1 Z-0.01575
G3  X3.24604 Y-2.55000 I0.00396 J0.00000
G1 Z-0.02362
G3  X3.24604 Y-2.55000 I0.00396 J0.00000
G1 Z-0.03150
G3  X3.24604 Y-2.55000 I0.00396 J0.00000
G1 Z-0.03937
G3  X3.24604 Y-2.55000 I0.00396 J0.00000
G1 Z-0.04724
G3  X3.24604 Y-2.55000 I0.00396 J0.00000
G1 Z-0.05512
G3  X3.24604 Y-2.55000 I0.00396 J0.00000
G1 Z-0.06299
G3  X3.24604 Y-2.55000 I0.00396 J0.00000
G0 Z0.08000

G0 X3.24604 Y-2.95000
G1 Z-0.00787
G3  X3.24604 Y-2.95000 I0.00396 J0.00000
G1 Z-0.01575
G3  X3.24604 Y-2.95000 I0.00396 J0.00000
G1 Z-0.02362
G3  X3.24604 Y-2.95000 I0.00396 J0.00000
G1 Z-0.03150
G3  X3.24604 Y-2.95000 I0.00396 J0.00000
G1 Z-0.03937
G3  X3.24604 Y-2.95000 I0.00396 J0.00000
G1 Z-0.04724
G3  X3.24604 Y-2.95000 I0.00396 J0.00000
G1 Z-0.05512
G3  X3.24604 Y-2.95000 I0.00396 J0.00000
G1 Z-0.06299
G3  X3.24604 Y-2.95000 I0.00396 J0.00000
G0 Z0.08000

G0 X3.64604 Y-2.55000
G1 Z-0.00787
G3  X3.64604 Y-2.55000 I0.00396 J0.00000
G1 Z-0.01575
G3  X3.64604 Y-2.55000 I0.00396 J0.00000
G1 Z-0.02362
G3  X3.64604 Y-2.55000 I0.00396 J0.00000
G1 Z-0.03150
G3  X3.64604 Y-2.55000 I0.00396 J0.00000
G1 Z-0.03937
G3  X3.64604 Y-2.55000 I0.00396 J0.00000
G1 Z-0.04724
G3  X3.64604 Y-2.55000 I0.00396 J0.00000
G1 Z-0.05512
G3  X3.64604 Y-2.55000 I0.00396 J0.00000
G1 Z-0.06299
G3  X3.64604 Y-2.55000 I0.00396 J0.00000
G0 Z0.08000

G0 X3.64604 Y-2.95000
G1 Z-0.00787
G3  X3.64604 Y-2.95000 I0.00396 J0.00000
G1 Z-0.01575
G3  X3.64604 Y-2.95000 I0.00396 J0.00000
G1 Z-0.02362
G3  X3.64604 Y-2.95000 I0.00396 J0.00000
G1 Z-0.03150
G3  X3.64604 Y-2.95000 I0.00396 J0.00000
G1 Z-0.03937
G3  X3.64604 Y-2.95000 I0.00396 J0.00000
G1 Z-0.04724
G3  X3.64604 Y-2.95000 I0.00396 J0.00000
G1 Z-0.05512
G3  X3.64604 Y-2.95000 I0.00396 J0.00000
G1 Z-0.06299
G3  X3.64604 Y-2.95000 I0.00396 J0.00000
G0 Z0.08000

G0 X3.74604 Y-3.30000
G1 Z-0.00787
G3  X3.74604 Y-3.30000 I0.00396 J0.00000
G1 Z-0.01575
G3  X3.74604 Y-3.30000 I0.00396 J0.00000
G1 Z-0.02362
G3  X3.74604 Y-3.30000 I0.00396 J0.00000
G1 Z-0.03150
G3  X3.74604 Y-3.30000 I0.00396 J0.00000
G1 Z-0.03937
G3  X3.74604 Y-3.30000 I0.00396 J0.00000
G1 Z-0.04724
G3  X3.74604 Y-3.30000 I0.00396 J0.00000
G1 Z-0.05512
G3  X3.74604 Y-3.30000 I0.00396 J0.00000
G1 Z-0.06299
G3  X3.74604 Y-3.30000 I0.00396 J0.00000
G0 Z0.08000

G0 X3.84604 Y-3.30000
G1 Z-0.00787
G3  X3.84604 Y-3.30000 I0.00396 J0.00000
G1 Z-0.01575
G3  X3.84604 Y-3.30000 I0.00396 J0.00000
G1 Z-0.02362
G3  X3.84604 Y-3.30000 I0.00396 J0.00000
G1 Z-0.03150
G3  X3.84604 Y-3.30000 I0.00396 J0.00000
G1 Z-0.03937
G3  X3.84604 Y-3.30000 I0.00396 J0.00000
G1 Z-0.04724
G3  X3.84604 Y-3.30000 I0.00396 J0.00000
G1 Z-0.05512
G3  X3.84604 Y-3.30000 I0.00396 J0.00000
G1 Z-0.06299
G3  X3.84604 Y-3.30000 I0.00396 J0.00000
G0 Z0.08000

G0 X4.04604 Y-3.30000
G1 Z-0.00787
G3  X4.04604 Y-3.30000 I0.00396 J0.00000
G1 Z-0.01575
G3  X4.04604 Y-3.30000 I0.00396 J0.00000
G1 Z-0.02362
G3  X4.04604 Y-3.30000 I0.00396 J0.00000
G1 Z-0.03150
G3  X4.04604 Y-3.30000 I0.00396 J0.00000
G1 Z-0.03937
G3  X4.04604 Y-3.30000 I0.00396 J0.00000
G1 Z-0.04724
G3  X4.04604 Y-3.30000 I0.00396 J0.00000
G1 Z-0.05512
G3  X4.04604 Y-3.30000 I0.00396 J0.00000
G1 Z-0.06299
G3  X4.04604 Y-3.30000 I0.00396 J0.00000
G0 Z0.08000

G0 X4.14604 Y-3.30000
G1 Z-0.00787
G3  X4.14604 Y-3.30000 I0.00396 J0.00000
G1 Z-0.01575
G3  X4.14604 Y-3.30000 I0.00396 J0.00000
G1 Z-0.02362
G3  X4.14604 Y-3.30000 I0.00396 J0.00000
G1 Z-0.03150
G3  X4.14604 Y-3.30000 I0.00396 J0.00000
G1 Z-0.03937
G3  X4.14604 Y-3.30000 I0.00396 J0.00000
G1 Z-0.04724
G3  X4.14604 Y-3.30000 I0.00396 J0.00000
G1 Z-0.05512
G3  X4.14604 Y-3.30000 I0.00396 J0.00000
G1 Z-0.06299
G3  X4.14604 Y-3.30000 I0.00396 J0.00000
G0 Z0.08000

G0 X4.29604 Y-2.55000
G1 Z-0.00787
G3  X4.29604 Y-2.55000 I0.00396 J0.00000
G1 Z-0.01575
G3  X4.29604 Y-2.55000 I0.00396 J0.00000
G1 Z-0.02362
G3  X4.29604 Y-2.55000 I0.00396 J0.00000
G1 Z-0.03150
G3  X4.29604 Y-2.55000 I0.00396 J0.00000
G1 Z-0.03937
G3  X4.29604 Y-2.55000 I0.00396 J0.00000
G1 Z-0.04724
G3  X4.29604 Y-2.55000 I0.00396 J0.00000
G1 Z-0.05512
G3  X4.29604 Y-2.55000 I0.00396 J0.00000
G1 Z-0.06299
G3  X4.29604 Y-2.55000 I0.00396 J0.00000
G0 Z0.08000

G0 X4.29604 Y-2.95000
G1 Z-0.00787
G3  X4.29604 Y-2.95000 I0.00396 J0.00000
G1 Z-0.01575
G3  X4.29604 Y-2.95000 I0.00396 J0.00000
G1 Z-0.02362
G3  X4.29604 Y-2.95000 I0.00396 J0.00000
G1 Z-0.03150
G3  X4.29604 Y-2.95000 I0.00396 J0.00000
G1 Z-0.03937
G3  X4.29604 Y-2.95000 I0.00396 J0.00000
G1 Z-0.04724
G3  X4.29604 Y-2.95000 I0.00396 J0.00000
G1 Z-0.05512
G3  X4.29604 Y-2.95000 I0.00396 J0.00000
G1 Z-0.06299
G3  X4.29604 Y-2.95000 I0.00396 J0.00000
G0 Z0.08000

G0 X4.69604 Y-2.55000
G1 Z-0.00787
G3  X4.69604 Y-2.55000 I0.00396 J0.00000
G1 Z-0.01575
G3  X4.69604 Y-2.55000 I0.00396 J0.00000
G1 Z-0.02362
G3  X4.69604 Y-2.55000 I0.00396 J0.00000
G1 Z-0.03150
G3  X4.69604 Y-2.55000 I0.00396 J0.00000
G1 Z-0.03937
G3  X4.69604 Y-2.55000 I0.00396 J0.00000
G1 Z-0.04724
G3  X4.69604 Y-2.55000 I0.00396 J0.00000
G1 Z-0.05512
G3  X4.69604 Y-2.55000 I0.00396 J0.00000
G1 Z-0.06299
G3  X4.69604 Y-2.55000 I0.00396 J0.00000
G0 Z0.08000

G0 X4.69604 Y-2.95000
G1 Z-0.00787
G3  X4.69604 Y-2.95000 I0.00396 J0.00000
G1 Z-0.01575
G3  X4.69604 Y-2.95000 I0.00396 J0.00000
G1 Z-0.02362
G3  X4.69604 Y-2.95000 I0.00396 J0.00000
G1 Z-0.03150
G3  X4.69604 Y-2.95000 I0.00396 J0.00000
G1 Z-0.03937
G3  X4.69604 Y-2.95000 I0.00396 J0.00000
G1 Z-0.04724
G3  X4.69604 Y-2.95000 I0.00396 J0.00000
G1 Z-0.05512
G3  X4.69604 Y-2.95000 I0.00396 J0.00000
G1 Z-0.06299
G3  X4.69604 Y-2.95000 I0.00396 J0.00000
G0 Z0.08000

G0 X4.03933 Y-2.51187
G1 Z-0.00787
G3 X4.03933 Y-2.50396 I0.00000 J0.00396
G1 X3.96067 Y-2.50396
G3 X3.96067 Y-2.51187 I0.00000 J-0.00396
G1 X4.03933 Y-2.51187
G1 Z-0.01575
G3 X4.03933 Y-2.50396 I0.00000 J0.00396
G1 X3.96067 Y-2.50396
G3 X3.96067 Y-2.51187 I0.00000 J-0.00396
G1 X4.03933 Y-2.51187
G1 Z-0.02362
G3 X4.03933 Y-2.50396 I0.00000 J0.00396
G1 X3.96067 Y-2.50396
G3 X3.96067 Y-2.51187 I0.00000 J-0.00396
G1 X4.03933 Y-2.51187
G1 Z-0.03150
G3 X4.03933 Y-2.50396 I0.00000 J0.00396
G1 X3.96067 Y-2.50396
G3 X3.96067 Y-2.51187 I0.00000 J-0.00396
G1 X4.03933 Y-2.51187
G1 Z-0.03937
G3 X4.03933 Y-2.50396 I0.00000 J0.00396
G1 X3.96067 Y-2.50396
G3 X3.96067 Y-2.51187 I0.00000 J-0.00396
G1 X4.03933 Y-2.51187
G1 Z-0.04724
G3 X4.03933 Y-2.50396 I0.00000 J0.00396
G1 X3.96067 Y-2.50396
G3 X3.96067 Y-2.51187 I0.00000 J-0.00396
G1 X4.03933 Y-2.51187
G1 Z-0.05512
G3 X4.03933 Y-2.50396 I0.00000 J0.00396
G1 X3.96067 Y-2.50396
G3 X3.96067 Y-2.51187 I0.00000 J-0.00396
G1 X4.03933 Y-2.51187
G1 Z-0.06299
G3 X4.03933 Y-2.50396 I0.00000 J0.00396
G1 X3.96067 Y-2.50396
G3 X3.96067 Y-2.51187 I0.00000 J-0.00396
G1 X4.03933 Y-2.51187
G0 Z0.08000

G0 X4.03933 Y-2.74805
G1 Z-0.00787
G3 X4.03933 Y-2.74014 I0.00000 J0.00396
G1 X3.96067 Y-2.74014
G3 X3.96067 Y-2.74805 I0.00000 J-0.00396
G1 X4.03933 Y-2.74805
G1 Z-0.01575
G3 X4.03933 Y-2.74014 I0.00000 J0.00396
G1 X3.96067 Y-2.74014
G3 X3.96067 Y-2.74805 I0.00000 J-0.00396
G1 X4.03933 Y-2.74805
G1 Z-0.02362
G3 X4.03933 Y-2.74014 I0.00000 J0.00396
G1 X3.96067 Y-2.74014
G3 X3.96067 Y-2.74805 I0.00000 J-0.00396
G1 X4.03933 Y-2.74805
G1 Z-0.03150
G3 X4.03933 Y-2.74014 I0.00000 J0.00396
G1 X3.96067 Y-2.74014
G3 X3.96067 Y-2.74805 I0.00000 J-0.00396
G1 X4.03933 Y-2.74805
G1 Z-0.03937
G3 X4.03933 Y-2.74014 I0.00000 J0.00396
G1 X3.96067 Y-2.74014
G3 X3.96067 Y-2.74805 I0.00000 J-0.00396
G1 X4.03933 Y-2.74805
G1 Z-0.04724
G3 X4.03933 Y-2.74014 I0.00000 J0.00396
G1 X3.96067 Y-2.74014
G3 X3.96067 Y-2.74805 I0.00000 J-0.00396
G1 X4.03933 Y-2.74805
G1 Z-0.05512
G3 X4.03933 Y-2.74014 I0.00000 J0.00396
G1 X3.96067 Y-2.74014
G3 X3.96067 Y-2.74805 I0.00000 J-0.00396
G1 X4.03933 Y-2.74805
G1 Z-0.06299
G3 X4.03933 Y-2.74014 I0.00000 J0.00396
G1 X3.96067 Y-2.74014
G3 X3.96067 Y-2.74805 I0.00000 J-0.00396
G1 X4.03933 Y-2.74805
G0 Z0.08000

G00 Z1.000 ( All done -- retract )

M5      (Spindle off.)
G04 P1.000000
M9      (Coolant off.)
M2      (Program end.)

