( pcb2gcode 1.3.2 )
( Software-independent Gcode )
( This file uses a mill head of 0.07087inch to drill the 2 bit sizes. )
( Bit sizes: [0.0314961 inch] [0.0787795 inch] )

G94       (Inches per minute feed rate.)
G20       (Units == INCHES.)
G91.1     (Incremental arc distance mode.)
G90       (Absolute coordinates.)
S10000    (RPM spindle speed.)
G01 F100.00000 (Feedrate)
M3        (Spindle on clockwise.)
G04 P1.00000
G00 Z0.08000

G0 X3.40000 Y-2.85000
G1 Z-1.60000
G0 Z0.08000

G0 X3.49843 Y-2.85000
G1 Z-1.60000
G0 Z0.08000

G0 X3.81500 Y-2.58665
G1 Z0.00784 F100.00000
G1 X3.81500 Y-2.66535 Z0.00392
G1 X3.81500 Y-2.58665 Z-0.00000
G1 X3.81500 Y-2.66535 Z-0.00392
G1 X3.81500 Y-2.58665 Z-0.00784
G1 X3.81500 Y-2.66535 Z-0.01176
G1 X3.81500 Y-2.58665 Z-0.01569
G1 X3.81500 Y-2.66535 Z-0.01961
G1 X3.81500 Y-2.58665 Z-0.02353
G1 X3.81500 Y-2.66535 Z-0.02745
G1 X3.81500 Y-2.58665 Z-0.03137
G1 X3.81500 Y-2.66535 Z-0.03529
G1 X3.81500 Y-2.58665 Z-0.03922
G1 X3.81500 Y-2.66535 Z-0.04314
G1 X3.81500 Y-2.58665 Z-0.04706
G1 X3.81500 Y-2.66535 Z-0.05098
G1 X3.81500 Y-2.58665 Z-0.05490
G1 X3.81500 Y-2.66535 Z-0.05882
G1 X3.81500 Y-2.58665 Z-0.06275
G1 X3.81500 Y-2.66535 Z-0.06667
G1 X3.81500 Y-2.58665 Z-0.07059
G1 X3.81500 Y-2.66535 Z-0.07451
G1 X3.81500 Y-2.58665 Z-0.07843
G1 X3.81500 Y-2.66535 Z-0.08235
G1 X3.81500 Y-2.58665 Z-0.08627
G1 X3.81500 Y-2.66535 Z-0.09020
G1 X3.81500 Y-2.58665 Z-0.09412
G1 X3.81500 Y-2.66535 Z-0.09804
G1 X3.81500 Y-2.58665 Z-0.10196
G1 X3.81500 Y-2.66535 Z-0.10588
G1 X3.81500 Y-2.58665 Z-0.10980
G1 X3.81500 Y-2.66535 Z-0.11373
G1 X3.81500 Y-2.58665 Z-0.11765
G1 X3.81500 Y-2.66535 Z-0.12157
G1 X3.81500 Y-2.58665 Z-0.12549
G1 X3.81500 Y-2.66535 Z-0.12941
G1 X3.81500 Y-2.58665 Z-0.13333
G1 X3.81500 Y-2.66535 Z-0.13725
G1 X3.81500 Y-2.58665 Z-0.14118
G1 X3.81500 Y-2.66535 Z-0.14510
G1 X3.81500 Y-2.58665 Z-0.14902
G1 X3.81500 Y-2.66535 Z-0.15294
G1 X3.81500 Y-2.58665 Z-0.15686
G1 X3.81500 Y-2.66535 Z-0.16078
G1 X3.81500 Y-2.58665 Z-0.16471
G1 X3.81500 Y-2.66535 Z-0.16863
G1 X3.81500 Y-2.58665 Z-0.17255
G1 X3.81500 Y-2.66535 Z-0.17647
G1 X3.81500 Y-2.58665 Z-0.18039
G1 X3.81500 Y-2.66535 Z-0.18431
G1 X3.81500 Y-2.58665 Z-0.18824
G1 X3.81500 Y-2.66535 Z-0.19216
G1 X3.81500 Y-2.58665 Z-0.19608
G1 X3.81500 Y-2.66535 Z-0.20000
G1 X3.81500 Y-2.58665 Z-0.20392
G1 X3.81500 Y-2.66535 Z-0.20784
G1 X3.81500 Y-2.58665 Z-0.21176
G1 X3.81500 Y-2.66535 Z-0.21569
G1 X3.81500 Y-2.58665 Z-0.21961
G1 X3.81500 Y-2.66535 Z-0.22353
G1 X3.81500 Y-2.58665 Z-0.22745
G1 X3.81500 Y-2.66535 Z-0.23137
G1 X3.81500 Y-2.58665 Z-0.23529
G1 X3.81500 Y-2.66535 Z-0.23922
G1 X3.81500 Y-2.58665 Z-0.24314
G1 X3.81500 Y-2.66535 Z-0.24706
G1 X3.81500 Y-2.58665 Z-0.25098
G1 X3.81500 Y-2.66535 Z-0.25490
G1 X3.81500 Y-2.58665 Z-0.25882
G1 X3.81500 Y-2.66535 Z-0.26275
G1 X3.81500 Y-2.58665 Z-0.26667
G1 X3.81500 Y-2.66535 Z-0.27059
G1 X3.81500 Y-2.58665 Z-0.27451
G1 X3.81500 Y-2.66535 Z-0.27843
G1 X3.81500 Y-2.58665 Z-0.28235
G1 X3.81500 Y-2.66535 Z-0.28627
G1 X3.81500 Y-2.58665 Z-0.29020
G1 X3.81500 Y-2.66535 Z-0.29412
G1 X3.81500 Y-2.58665 Z-0.29804
G1 X3.81500 Y-2.66535 Z-0.30196
G1 X3.81500 Y-2.58665 Z-0.30588
G1 X3.81500 Y-2.66535 Z-0.30980
G1 X3.81500 Y-2.58665 Z-0.31373
G1 X3.81500 Y-2.66535 Z-0.31765
G1 X3.81500 Y-2.58665 Z-0.32157
G1 X3.81500 Y-2.66535 Z-0.32549
G1 X3.81500 Y-2.58665 Z-0.32941
G1 X3.81500 Y-2.66535 Z-0.33333
G1 X3.81500 Y-2.58665 Z-0.33725
G1 X3.81500 Y-2.66535 Z-0.34118
G1 X3.81500 Y-2.58665 Z-0.34510
G1 X3.81500 Y-2.66535 Z-0.34902
G1 X3.81500 Y-2.58665 Z-0.35294
G1 X3.81500 Y-2.66535 Z-0.35686
G1 X3.81500 Y-2.58665 Z-0.36078
G1 X3.81500 Y-2.66535 Z-0.36471
G1 X3.81500 Y-2.58665 Z-0.36863
G1 X3.81500 Y-2.66535 Z-0.37255
G1 X3.81500 Y-2.58665 Z-0.37647
G1 X3.81500 Y-2.66535 Z-0.38039
G1 X3.81500 Y-2.58665 Z-0.38431
G1 X3.81500 Y-2.66535 Z-0.38824
G1 X3.81500 Y-2.58665 Z-0.39216
G1 X3.81500 Y-2.66535 Z-0.39608
G1 X3.81500 Y-2.58665 Z-0.40000
G1 X3.81500 Y-2.66535 Z-0.40392
G1 X3.81500 Y-2.58665 Z-0.40784
G1 X3.81500 Y-2.66535 Z-0.41176
G1 X3.81500 Y-2.58665 Z-0.41569
G1 X3.81500 Y-2.66535 Z-0.41961
G1 X3.81500 Y-2.58665 Z-0.42353
G1 X3.81500 Y-2.66535 Z-0.42745
G1 X3.81500 Y-2.58665 Z-0.43137
G1 X3.81500 Y-2.66535 Z-0.43529
G1 X3.81500 Y-2.58665 Z-0.43922
G1 X3.81500 Y-2.66535 Z-0.44314
G1 X3.81500 Y-2.58665 Z-0.44706
G1 X3.81500 Y-2.66535 Z-0.45098
G1 X3.81500 Y-2.58665 Z-0.45490
G1 X3.81500 Y-2.66535 Z-0.45882
G1 X3.81500 Y-2.58665 Z-0.46275
G1 X3.81500 Y-2.66535 Z-0.46667
G1 X3.81500 Y-2.58665 Z-0.47059
G1 X3.81500 Y-2.66535 Z-0.47451
G1 X3.81500 Y-2.58665 Z-0.47843
G1 X3.81500 Y-2.66535 Z-0.48235
G1 X3.81500 Y-2.58665 Z-0.48627
G1 X3.81500 Y-2.66535 Z-0.49020
G1 X3.81500 Y-2.58665 Z-0.49412
G1 X3.81500 Y-2.66535 Z-0.49804
G1 X3.81500 Y-2.58665 Z-0.50196
G1 X3.81500 Y-2.66535 Z-0.50588
G1 X3.81500 Y-2.58665 Z-0.50980
G1 X3.81500 Y-2.66535 Z-0.51373
G1 X3.81500 Y-2.58665 Z-0.51765
G1 X3.81500 Y-2.66535 Z-0.52157
G1 X3.81500 Y-2.58665 Z-0.52549
G1 X3.81500 Y-2.66535 Z-0.52941
G1 X3.81500 Y-2.58665 Z-0.53333
G1 X3.81500 Y-2.66535 Z-0.53725
G1 X3.81500 Y-2.58665 Z-0.54118
G1 X3.81500 Y-2.66535 Z-0.54510
G1 X3.81500 Y-2.58665 Z-0.54902
G1 X3.81500 Y-2.66535 Z-0.55294
G1 X3.81500 Y-2.58665 Z-0.55686
G1 X3.81500 Y-2.66535 Z-0.56078
G1 X3.81500 Y-2.58665 Z-0.56471
G1 X3.81500 Y-2.66535 Z-0.56863
G1 X3.81500 Y-2.58665 Z-0.57255
G1 X3.81500 Y-2.66535 Z-0.57647
G1 X3.81500 Y-2.58665 Z-0.58039
G1 X3.81500 Y-2.66535 Z-0.58431
G1 X3.81500 Y-2.58665 Z-0.58824
G1 X3.81500 Y-2.66535 Z-0.59216
G1 X3.81500 Y-2.58665 Z-0.59608
G1 X3.81500 Y-2.66535 Z-0.60000
G1 X3.81500 Y-2.58665 Z-0.60392
G1 X3.81500 Y-2.66535 Z-0.60784
G1 X3.81500 Y-2.58665 Z-0.61176
G1 X3.81500 Y-2.66535 Z-0.61569
G1 X3.81500 Y-2.58665 Z-0.61961
G1 X3.81500 Y-2.66535 Z-0.62353
G1 X3.81500 Y-2.58665 Z-0.62745
G1 X3.81500 Y-2.66535 Z-0.63137
G1 X3.81500 Y-2.58665 Z-0.63529
G1 X3.81500 Y-2.66535 Z-0.63922
G1 X3.81500 Y-2.58665 Z-0.64314
G1 X3.81500 Y-2.66535 Z-0.64706
G1 X3.81500 Y-2.58665 Z-0.65098
G1 X3.81500 Y-2.66535 Z-0.65490
G1 X3.81500 Y-2.58665 Z-0.65882
G1 X3.81500 Y-2.66535 Z-0.66275
G1 X3.81500 Y-2.58665 Z-0.66667
G1 X3.81500 Y-2.66535 Z-0.67059
G1 X3.81500 Y-2.58665 Z-0.67451
G1 X3.81500 Y-2.66535 Z-0.67843
G1 X3.81500 Y-2.58665 Z-0.68235
G1 X3.81500 Y-2.66535 Z-0.68627
G1 X3.81500 Y-2.58665 Z-0.69020
G1 X3.81500 Y-2.66535 Z-0.69412
G1 X3.81500 Y-2.58665 Z-0.69804
G1 X3.81500 Y-2.66535 Z-0.70196
G1 X3.81500 Y-2.58665 Z-0.70588
G1 X3.81500 Y-2.66535 Z-0.70980
G1 X3.81500 Y-2.58665 Z-0.71373
G1 X3.81500 Y-2.66535 Z-0.71765
G1 X3.81500 Y-2.58665 Z-0.72157
G1 X3.81500 Y-2.66535 Z-0.72549
G1 X3.81500 Y-2.58665 Z-0.72941
G1 X3.81500 Y-2.66535 Z-0.73333
G1 X3.81500 Y-2.58665 Z-0.73725
G1 X3.81500 Y-2.66535 Z-0.74118
G1 X3.81500 Y-2.58665 Z-0.74510
G1 X3.81500 Y-2.66535 Z-0.74902
G1 X3.81500 Y-2.58665 Z-0.75294
G1 X3.81500 Y-2.66535 Z-0.75686
G1 X3.81500 Y-2.58665 Z-0.76078
G1 X3.81500 Y-2.66535 Z-0.76471
G1 X3.81500 Y-2.58665 Z-0.76863
G1 X3.81500 Y-2.66535 Z-0.77255
G1 X3.81500 Y-2.58665 Z-0.77647
G1 X3.81500 Y-2.66535 Z-0.78039
G1 X3.81500 Y-2.58665 Z-0.78431
G1 X3.81500 Y-2.66535 Z-0.78824
G1 X3.81500 Y-2.58665 Z-0.79216
G1 X3.81500 Y-2.66535 Z-0.79608
G1 X3.81500 Y-2.58665 Z-0.80000
G1 X3.81500 Y-2.66535 Z-0.80392
G1 X3.81500 Y-2.58665 Z-0.80784
G1 X3.81500 Y-2.66535 Z-0.81176
G1 X3.81500 Y-2.58665 Z-0.81569
G1 X3.81500 Y-2.66535 Z-0.81961
G1 X3.81500 Y-2.58665 Z-0.82353
G1 X3.81500 Y-2.66535 Z-0.82745
G1 X3.81500 Y-2.58665 Z-0.83137
G1 X3.81500 Y-2.66535 Z-0.83529
G1 X3.81500 Y-2.58665 Z-0.83922
G1 X3.81500 Y-2.66535 Z-0.84314
G1 X3.81500 Y-2.58665 Z-0.84706
G1 X3.81500 Y-2.66535 Z-0.85098
G1 X3.81500 Y-2.58665 Z-0.85490
G1 X3.81500 Y-2.66535 Z-0.85882
G1 X3.81500 Y-2.58665 Z-0.86275
G1 X3.81500 Y-2.66535 Z-0.86667
G1 X3.81500 Y-2.58665 Z-0.87059
G1 X3.81500 Y-2.66535 Z-0.87451
G1 X3.81500 Y-2.58665 Z-0.87843
G1 X3.81500 Y-2.66535 Z-0.88235
G1 X3.81500 Y-2.58665 Z-0.88627
G1 X3.81500 Y-2.66535 Z-0.89020
G1 X3.81500 Y-2.58665 Z-0.89412
G1 X3.81500 Y-2.66535 Z-0.89804
G1 X3.81500 Y-2.58665 Z-0.90196
G1 X3.81500 Y-2.66535 Z-0.90588
G1 X3.81500 Y-2.58665 Z-0.90980
G1 X3.81500 Y-2.66535 Z-0.91373
G1 X3.81500 Y-2.58665 Z-0.91765
G1 X3.81500 Y-2.66535 Z-0.92157
G1 X3.81500 Y-2.58665 Z-0.92549
G1 X3.81500 Y-2.66535 Z-0.92941
G1 X3.81500 Y-2.58665 Z-0.93333
G1 X3.81500 Y-2.66535 Z-0.93725
G1 X3.81500 Y-2.58665 Z-0.94118
G1 X3.81500 Y-2.66535 Z-0.94510
G1 X3.81500 Y-2.58665 Z-0.94902
G1 X3.81500 Y-2.66535 Z-0.95294
G1 X3.81500 Y-2.58665 Z-0.95686
G1 X3.81500 Y-2.66535 Z-0.96078
G1 X3.81500 Y-2.58665 Z-0.96471
G1 X3.81500 Y-2.66535 Z-0.96863
G1 X3.81500 Y-2.58665 Z-0.97255
G1 X3.81500 Y-2.66535 Z-0.97647
G1 X3.81500 Y-2.58665 Z-0.98039
G1 X3.81500 Y-2.66535 Z-0.98431
G1 X3.81500 Y-2.58665 Z-0.98824
G1 X3.81500 Y-2.66535 Z-0.99216
G1 X3.81500 Y-2.58665 Z-0.99608
G1 X3.81500 Y-2.66535 Z-1.00000
G1 X3.81500 Y-2.58665 Z-1.00392
G1 X3.81500 Y-2.66535 Z-1.00784
G1 X3.81500 Y-2.58665 Z-1.01176
G1 X3.81500 Y-2.66535 Z-1.01569
G1 X3.81500 Y-2.58665 Z-1.01961
G1 X3.81500 Y-2.66535 Z-1.02353
G1 X3.81500 Y-2.58665 Z-1.02745
G1 X3.81500 Y-2.66535 Z-1.03137
G1 X3.81500 Y-2.58665 Z-1.03529
G1 X3.81500 Y-2.66535 Z-1.03922
G1 X3.81500 Y-2.58665 Z-1.04314
G1 X3.81500 Y-2.66535 Z-1.04706
G1 X3.81500 Y-2.58665 Z-1.05098
G1 X3.81500 Y-2.66535 Z-1.05490
G1 X3.81500 Y-2.58665 Z-1.05882
G1 X3.81500 Y-2.66535 Z-1.06275
G1 X3.81500 Y-2.58665 Z-1.06667
G1 X3.81500 Y-2.66535 Z-1.07059
G1 X3.81500 Y-2.58665 Z-1.07451
G1 X3.81500 Y-2.66535 Z-1.07843
G1 X3.81500 Y-2.58665 Z-1.08235
G1 X3.81500 Y-2.66535 Z-1.08627
G1 X3.81500 Y-2.58665 Z-1.09020
G1 X3.81500 Y-2.66535 Z-1.09412
G1 X3.81500 Y-2.58665 Z-1.09804
G1 X3.81500 Y-2.66535 Z-1.10196
G1 X3.81500 Y-2.58665 Z-1.10588
G1 X3.81500 Y-2.66535 Z-1.10980
G1 X3.81500 Y-2.58665 Z-1.11373
G1 X3.81500 Y-2.66535 Z-1.11765
G1 X3.81500 Y-2.58665 Z-1.12157
G1 X3.81500 Y-2.66535 Z-1.12549
G1 X3.81500 Y-2.58665 Z-1.12941
G1 X3.81500 Y-2.66535 Z-1.13333
G1 X3.81500 Y-2.58665 Z-1.13725
G1 X3.81500 Y-2.66535 Z-1.14118
G1 X3.81500 Y-2.58665 Z-1.14510
G1 X3.81500 Y-2.66535 Z-1.14902
G1 X3.81500 Y-2.58665 Z-1.15294
G1 X3.81500 Y-2.66535 Z-1.15686
G1 X3.81500 Y-2.58665 Z-1.16078
G1 X3.81500 Y-2.66535 Z-1.16471
G1 X3.81500 Y-2.58665 Z-1.16863
G1 X3.81500 Y-2.66535 Z-1.17255
G1 X3.81500 Y-2.58665 Z-1.17647
G1 X3.81500 Y-2.66535 Z-1.18039
G1 X3.81500 Y-2.58665 Z-1.18431
G1 X3.81500 Y-2.66535 Z-1.18824
G1 X3.81500 Y-2.58665 Z-1.19216
G1 X3.81500 Y-2.66535 Z-1.19608
G1 X3.81500 Y-2.58665 Z-1.20000
G1 X3.81500 Y-2.66535 Z-1.20392
G1 X3.81500 Y-2.58665 Z-1.20784
G1 X3.81500 Y-2.66535 Z-1.21176
G1 X3.81500 Y-2.58665 Z-1.21569
G1 X3.81500 Y-2.66535 Z-1.21961
G1 X3.81500 Y-2.58665 Z-1.22353
G1 X3.81500 Y-2.66535 Z-1.22745
G1 X3.81500 Y-2.58665 Z-1.23137
G1 X3.81500 Y-2.66535 Z-1.23529
G1 X3.81500 Y-2.58665 Z-1.23922
G1 X3.81500 Y-2.66535 Z-1.24314
G1 X3.81500 Y-2.58665 Z-1.24706
G1 X3.81500 Y-2.66535 Z-1.25098
G1 X3.81500 Y-2.58665 Z-1.25490
G1 X3.81500 Y-2.66535 Z-1.25882
G1 X3.81500 Y-2.58665 Z-1.26275
G1 X3.81500 Y-2.66535 Z-1.26667
G1 X3.81500 Y-2.58665 Z-1.27059
G1 X3.81500 Y-2.66535 Z-1.27451
G1 X3.81500 Y-2.58665 Z-1.27843
G1 X3.81500 Y-2.66535 Z-1.28235
G1 X3.81500 Y-2.58665 Z-1.28627
G1 X3.81500 Y-2.66535 Z-1.29020
G1 X3.81500 Y-2.58665 Z-1.29412
G1 X3.81500 Y-2.66535 Z-1.29804
G1 X3.81500 Y-2.58665 Z-1.30196
G1 X3.81500 Y-2.66535 Z-1.30588
G1 X3.81500 Y-2.58665 Z-1.30980
G1 X3.81500 Y-2.66535 Z-1.31373
G1 X3.81500 Y-2.58665 Z-1.31765
G1 X3.81500 Y-2.66535 Z-1.32157
G1 X3.81500 Y-2.58665 Z-1.32549
G1 X3.81500 Y-2.66535 Z-1.32941
G1 X3.81500 Y-2.58665 Z-1.33333
G1 X3.81500 Y-2.66535 Z-1.33725
G1 X3.81500 Y-2.58665 Z-1.34118
G1 X3.81500 Y-2.66535 Z-1.34510
G1 X3.81500 Y-2.58665 Z-1.34902
G1 X3.81500 Y-2.66535 Z-1.35294
G1 X3.81500 Y-2.58665 Z-1.35686
G1 X3.81500 Y-2.66535 Z-1.36078
G1 X3.81500 Y-2.58665 Z-1.36471
G1 X3.81500 Y-2.66535 Z-1.36863
G1 X3.81500 Y-2.58665 Z-1.37255
G1 X3.81500 Y-2.66535 Z-1.37647
G1 X3.81500 Y-2.58665 Z-1.38039
G1 X3.81500 Y-2.66535 Z-1.38431
G1 X3.81500 Y-2.58665 Z-1.38824
G1 X3.81500 Y-2.66535 Z-1.39216
G1 X3.81500 Y-2.58665 Z-1.39608
G1 X3.81500 Y-2.66535 Z-1.40000
G1 X3.81500 Y-2.58665 Z-1.40392
G1 X3.81500 Y-2.66535 Z-1.40784
G1 X3.81500 Y-2.58665 Z-1.41176
G1 X3.81500 Y-2.66535 Z-1.41569
G1 X3.81500 Y-2.58665 Z-1.41961
G1 X3.81500 Y-2.66535 Z-1.42353
G1 X3.81500 Y-2.58665 Z-1.42745
G1 X3.81500 Y-2.66535 Z-1.43137
G1 X3.81500 Y-2.58665 Z-1.43529
G1 X3.81500 Y-2.66535 Z-1.43922
G1 X3.81500 Y-2.58665 Z-1.44314
G1 X3.81500 Y-2.66535 Z-1.44706
G1 X3.81500 Y-2.58665 Z-1.45098
G1 X3.81500 Y-2.66535 Z-1.45490
G1 X3.81500 Y-2.58665 Z-1.45882
G1 X3.81500 Y-2.66535 Z-1.46275
G1 X3.81500 Y-2.58665 Z-1.46667
G1 X3.81500 Y-2.66535 Z-1.47059
G1 X3.81500 Y-2.58665 Z-1.47451
G1 X3.81500 Y-2.66535 Z-1.47843
G1 X3.81500 Y-2.58665 Z-1.48235
G1 X3.81500 Y-2.66535 Z-1.48627
G1 X3.81500 Y-2.58665 Z-1.49020
G1 X3.81500 Y-2.66535 Z-1.49412
G1 X3.81500 Y-2.58665 Z-1.49804
G1 X3.81500 Y-2.66535 Z-1.50196
G1 X3.81500 Y-2.58665 Z-1.50588
G1 X3.81500 Y-2.66535 Z-1.50980
G1 X3.81500 Y-2.58665 Z-1.51373
G1 X3.81500 Y-2.66535 Z-1.51765
G1 X3.81500 Y-2.58665 Z-1.52157
G1 X3.81500 Y-2.66535 Z-1.52549
G1 X3.81500 Y-2.58665 Z-1.52941
G1 X3.81500 Y-2.66535 Z-1.53333
G1 X3.81500 Y-2.58665 Z-1.53725
G1 X3.81500 Y-2.66535 Z-1.54118
G1 X3.81500 Y-2.58665 Z-1.54510
G1 X3.81500 Y-2.66535 Z-1.54902
G1 X3.81500 Y-2.58665 Z-1.55294
G1 X3.81500 Y-2.66535 Z-1.55686
G1 X3.81500 Y-2.58665 Z-1.56078
G1 X3.81500 Y-2.66535 Z-1.56471
G1 X3.81500 Y-2.58665 Z-1.56863
G1 X3.81500 Y-2.66535 Z-1.57255
G1 X3.81500 Y-2.58665 Z-1.57647
G1 X3.81500 Y-2.66535 Z-1.58039
G1 X3.81500 Y-2.58665 Z-1.58431
G1 X3.81500 Y-2.66535 Z-1.58824
G1 X3.81500 Y-2.58665 Z-1.59216
G1 X3.81500 Y-2.66535 Z-1.59608
G1 X3.81500 Y-2.58665 Z-1.60000
G1 X3.81500 Y-2.66535
G0 Z0.08000

G0 X3.40000 Y-3.17126
G1 Z-1.60000
G0 Z0.08000

G0 X3.40000 Y-3.25000
G1 Z-1.60000
G0 Z0.08000

G0 X3.40000 Y-3.32874
G1 Z-1.60000
G0 Z0.08000

G0 X4.45157 Y-2.85000
G1 Z-1.60000
G0 Z0.08000

G0 X4.55000 Y-2.85000
G1 Z-1.60000
G0 Z0.08000

G0 X4.50000 Y-3.17126
G1 Z-1.60000
G0 Z0.08000

G0 X4.50000 Y-3.25000
G1 Z-1.60000
G0 Z0.08000

G0 X4.50000 Y-3.32874
G1 Z-1.60000
G0 Z0.08000

G0 X3.24604 Y-2.55000
G1 Z0.00784 F100.00000
G3 X3.24604 Y-2.55000 Z-0.00000 I0.00396 J0.00000
G3 X3.24604 Y-2.55000 Z-0.00784 I0.00396 J0.00000
G3 X3.24604 Y-2.55000 Z-0.01569 I0.00396 J0.00000
G3 X3.24604 Y-2.55000 Z-0.02353 I0.00396 J0.00000
G3 X3.24604 Y-2.55000 Z-0.03137 I0.00396 J0.00000
G3 X3.24604 Y-2.55000 Z-0.03922 I0.00396 J0.00000
G3 X3.24604 Y-2.55000 Z-0.04706 I0.00396 J0.00000
G3 X3.24604 Y-2.55000 Z-0.05490 I0.00396 J0.00000
G3 X3.24604 Y-2.55000 Z-0.06275 I0.00396 J0.00000
G3 X3.24604 Y-2.55000 Z-0.07059 I0.00396 J0.00000
G3 X3.24604 Y-2.55000 Z-0.07843 I0.00396 J0.00000
G3 X3.24604 Y-2.55000 Z-0.08627 I0.00396 J0.00000
G3 X3.24604 Y-2.55000 Z-0.09412 I0.00396 J0.00000
G3 X3.24604 Y-2.55000 Z-0.10196 I0.00396 J0.00000
G3 X3.24604 Y-2.55000 Z-0.10980 I0.00396 J0.00000
G3 X3.24604 Y-2.55000 Z-0.11765 I0.00396 J0.00000
G3 X3.24604 Y-2.55000 Z-0.12549 I0.00396 J0.00000
G3 X3.24604 Y-2.55000 Z-0.13333 I0.00396 J0.00000
G3 X3.24604 Y-2.55000 Z-0.14118 I0.00396 J0.00000
G3 X3.24604 Y-2.55000 Z-0.14902 I0.00396 J0.00000
G3 X3.24604 Y-2.55000 Z-0.15686 I0.00396 J0.00000
G3 X3.24604 Y-2.55000 Z-0.16471 I0.00396 J0.00000
G3 X3.24604 Y-2.55000 Z-0.17255 I0.00396 J0.00000
G3 X3.24604 Y-2.55000 Z-0.18039 I0.00396 J0.00000
G3 X3.24604 Y-2.55000 Z-0.18824 I0.00396 J0.00000
G3 X3.24604 Y-2.55000 Z-0.19608 I0.00396 J0.00000
G3 X3.24604 Y-2.55000 Z-0.20392 I0.00396 J0.00000
G3 X3.24604 Y-2.55000 Z-0.21176 I0.00396 J0.00000
G3 X3.24604 Y-2.55000 Z-0.21961 I0.00396 J0.00000
G3 X3.24604 Y-2.55000 Z-0.22745 I0.00396 J0.00000
G3 X3.24604 Y-2.55000 Z-0.23529 I0.00396 J0.00000
G3 X3.24604 Y-2.55000 Z-0.24314 I0.00396 J0.00000
G3 X3.24604 Y-2.55000 Z-0.25098 I0.00396 J0.00000
G3 X3.24604 Y-2.55000 Z-0.25882 I0.00396 J0.00000
G3 X3.24604 Y-2.55000 Z-0.26667 I0.00396 J0.00000
G3 X3.24604 Y-2.55000 Z-0.27451 I0.00396 J0.00000
G3 X3.24604 Y-2.55000 Z-0.28235 I0.00396 J0.00000
G3 X3.24604 Y-2.55000 Z-0.29020 I0.00396 J0.00000
G3 X3.24604 Y-2.55000 Z-0.29804 I0.00396 J0.00000
G3 X3.24604 Y-2.55000 Z-0.30588 I0.00396 J0.00000
G3 X3.24604 Y-2.55000 Z-0.31373 I0.00396 J0.00000
G3 X3.24604 Y-2.55000 Z-0.32157 I0.00396 J0.00000
G3 X3.24604 Y-2.55000 Z-0.32941 I0.00396 J0.00000
G3 X3.24604 Y-2.55000 Z-0.33725 I0.00396 J0.00000
G3 X3.24604 Y-2.55000 Z-0.34510 I0.00396 J0.00000
G3 X3.24604 Y-2.55000 Z-0.35294 I0.00396 J0.00000
G3 X3.24604 Y-2.55000 Z-0.36078 I0.00396 J0.00000
G3 X3.24604 Y-2.55000 Z-0.36863 I0.00396 J0.00000
G3 X3.24604 Y-2.55000 Z-0.37647 I0.00396 J0.00000
G3 X3.24604 Y-2.55000 Z-0.38431 I0.00396 J0.00000
G3 X3.24604 Y-2.55000 Z-0.39216 I0.00396 J0.00000
G3 X3.24604 Y-2.55000 Z-0.40000 I0.00396 J0.00000
G3 X3.24604 Y-2.55000 Z-0.40784 I0.00396 J0.00000
G3 X3.24604 Y-2.55000 Z-0.41569 I0.00396 J0.00000
G3 X3.24604 Y-2.55000 Z-0.42353 I0.00396 J0.00000
G3 X3.24604 Y-2.55000 Z-0.43137 I0.00396 J0.00000
G3 X3.24604 Y-2.55000 Z-0.43922 I0.00396 J0.00000
G3 X3.24604 Y-2.55000 Z-0.44706 I0.00396 J0.00000
G3 X3.24604 Y-2.55000 Z-0.45490 I0.00396 J0.00000
G3 X3.24604 Y-2.55000 Z-0.46275 I0.00396 J0.00000
G3 X3.24604 Y-2.55000 Z-0.47059 I0.00396 J0.00000
G3 X3.24604 Y-2.55000 Z-0.47843 I0.00396 J0.00000
G3 X3.24604 Y-2.55000 Z-0.48627 I0.00396 J0.00000
G3 X3.24604 Y-2.55000 Z-0.49412 I0.00396 J0.00000
G3 X3.24604 Y-2.55000 Z-0.50196 I0.00396 J0.00000
G3 X3.24604 Y-2.55000 Z-0.50980 I0.00396 J0.00000
G3 X3.24604 Y-2.55000 Z-0.51765 I0.00396 J0.00000
G3 X3.24604 Y-2.55000 Z-0.52549 I0.00396 J0.00000
G3 X3.24604 Y-2.55000 Z-0.53333 I0.00396 J0.00000
G3 X3.24604 Y-2.55000 Z-0.54118 I0.00396 J0.00000
G3 X3.24604 Y-2.55000 Z-0.54902 I0.00396 J0.00000
G3 X3.24604 Y-2.55000 Z-0.55686 I0.00396 J0.00000
G3 X3.24604 Y-2.55000 Z-0.56471 I0.00396 J0.00000
G3 X3.24604 Y-2.55000 Z-0.57255 I0.00396 J0.00000
G3 X3.24604 Y-2.55000 Z-0.58039 I0.00396 J0.00000
G3 X3.24604 Y-2.55000 Z-0.58824 I0.00396 J0.00000
G3 X3.24604 Y-2.55000 Z-0.59608 I0.00396 J0.00000
G3 X3.24604 Y-2.55000 Z-0.60392 I0.00396 J0.00000
G3 X3.24604 Y-2.55000 Z-0.61176 I0.00396 J0.00000
G3 X3.24604 Y-2.55000 Z-0.61961 I0.00396 J0.00000
G3 X3.24604 Y-2.55000 Z-0.62745 I0.00396 J0.00000
G3 X3.24604 Y-2.55000 Z-0.63529 I0.00396 J0.00000
G3 X3.24604 Y-2.55000 Z-0.64314 I0.00396 J0.00000
G3 X3.24604 Y-2.55000 Z-0.65098 I0.00396 J0.00000
G3 X3.24604 Y-2.55000 Z-0.65882 I0.00396 J0.00000
G3 X3.24604 Y-2.55000 Z-0.66667 I0.00396 J0.00000
G3 X3.24604 Y-2.55000 Z-0.67451 I0.00396 J0.00000
G3 X3.24604 Y-2.55000 Z-0.68235 I0.00396 J0.00000
G3 X3.24604 Y-2.55000 Z-0.69020 I0.00396 J0.00000
G3 X3.24604 Y-2.55000 Z-0.69804 I0.00396 J0.00000
G3 X3.24604 Y-2.55000 Z-0.70588 I0.00396 J0.00000
G3 X3.24604 Y-2.55000 Z-0.71373 I0.00396 J0.00000
G3 X3.24604 Y-2.55000 Z-0.72157 I0.00396 J0.00000
G3 X3.24604 Y-2.55000 Z-0.72941 I0.00396 J0.00000
G3 X3.24604 Y-2.55000 Z-0.73725 I0.00396 J0.00000
G3 X3.24604 Y-2.55000 Z-0.74510 I0.00396 J0.00000
G3 X3.24604 Y-2.55000 Z-0.75294 I0.00396 J0.00000
G3 X3.24604 Y-2.55000 Z-0.76078 I0.00396 J0.00000
G3 X3.24604 Y-2.55000 Z-0.76863 I0.00396 J0.00000
G3 X3.24604 Y-2.55000 Z-0.77647 I0.00396 J0.00000
G3 X3.24604 Y-2.55000 Z-0.78431 I0.00396 J0.00000
G3 X3.24604 Y-2.55000 Z-0.79216 I0.00396 J0.00000
G3 X3.24604 Y-2.55000 Z-0.80000 I0.00396 J0.00000
G3 X3.24604 Y-2.55000 Z-0.80784 I0.00396 J0.00000
G3 X3.24604 Y-2.55000 Z-0.81569 I0.00396 J0.00000
G3 X3.24604 Y-2.55000 Z-0.82353 I0.00396 J0.00000
G3 X3.24604 Y-2.55000 Z-0.83137 I0.00396 J0.00000
G3 X3.24604 Y-2.55000 Z-0.83922 I0.00396 J0.00000
G3 X3.24604 Y-2.55000 Z-0.84706 I0.00396 J0.00000
G3 X3.24604 Y-2.55000 Z-0.85490 I0.00396 J0.00000
G3 X3.24604 Y-2.55000 Z-0.86275 I0.00396 J0.00000
G3 X3.24604 Y-2.55000 Z-0.87059 I0.00396 J0.00000
G3 X3.24604 Y-2.55000 Z-0.87843 I0.00396 J0.00000
G3 X3.24604 Y-2.55000 Z-0.88627 I0.00396 J0.00000
G3 X3.24604 Y-2.55000 Z-0.89412 I0.00396 J0.00000
G3 X3.24604 Y-2.55000 Z-0.90196 I0.00396 J0.00000
G3 X3.24604 Y-2.55000 Z-0.90980 I0.00396 J0.00000
G3 X3.24604 Y-2.55000 Z-0.91765 I0.00396 J0.00000
G3 X3.24604 Y-2.55000 Z-0.92549 I0.00396 J0.00000
G3 X3.24604 Y-2.55000 Z-0.93333 I0.00396 J0.00000
G3 X3.24604 Y-2.55000 Z-0.94118 I0.00396 J0.00000
G3 X3.24604 Y-2.55000 Z-0.94902 I0.00396 J0.00000
G3 X3.24604 Y-2.55000 Z-0.95686 I0.00396 J0.00000
G3 X3.24604 Y-2.55000 Z-0.96471 I0.00396 J0.00000
G3 X3.24604 Y-2.55000 Z-0.97255 I0.00396 J0.00000
G3 X3.24604 Y-2.55000 Z-0.98039 I0.00396 J0.00000
G3 X3.24604 Y-2.55000 Z-0.98824 I0.00396 J0.00000
G3 X3.24604 Y-2.55000 Z-0.99608 I0.00396 J0.00000
G3 X3.24604 Y-2.55000 Z-1.00392 I0.00396 J0.00000
G3 X3.24604 Y-2.55000 Z-1.01176 I0.00396 J0.00000
G3 X3.24604 Y-2.55000 Z-1.01961 I0.00396 J0.00000
G3 X3.24604 Y-2.55000 Z-1.02745 I0.00396 J0.00000
G3 X3.24604 Y-2.55000 Z-1.03529 I0.00396 J0.00000
G3 X3.24604 Y-2.55000 Z-1.04314 I0.00396 J0.00000
G3 X3.24604 Y-2.55000 Z-1.05098 I0.00396 J0.00000
G3 X3.24604 Y-2.55000 Z-1.05882 I0.00396 J0.00000
G3 X3.24604 Y-2.55000 Z-1.06667 I0.00396 J0.00000
G3 X3.24604 Y-2.55000 Z-1.07451 I0.00396 J0.00000
G3 X3.24604 Y-2.55000 Z-1.08235 I0.00396 J0.00000
G3 X3.24604 Y-2.55000 Z-1.09020 I0.00396 J0.00000
G3 X3.24604 Y-2.55000 Z-1.09804 I0.00396 J0.00000
G3 X3.24604 Y-2.55000 Z-1.10588 I0.00396 J0.00000
G3 X3.24604 Y-2.55000 Z-1.11373 I0.00396 J0.00000
G3 X3.24604 Y-2.55000 Z-1.12157 I0.00396 J0.00000
G3 X3.24604 Y-2.55000 Z-1.12941 I0.00396 J0.00000
G3 X3.24604 Y-2.55000 Z-1.13725 I0.00396 J0.00000
G3 X3.24604 Y-2.55000 Z-1.14510 I0.00396 J0.00000
G3 X3.24604 Y-2.55000 Z-1.15294 I0.00396 J0.00000
G3 X3.24604 Y-2.55000 Z-1.16078 I0.00396 J0.00000
G3 X3.24604 Y-2.55000 Z-1.16863 I0.00396 J0.00000
G3 X3.24604 Y-2.55000 Z-1.17647 I0.00396 J0.00000
G3 X3.24604 Y-2.55000 Z-1.18431 I0.00396 J0.00000
G3 X3.24604 Y-2.55000 Z-1.19216 I0.00396 J0.00000
G3 X3.24604 Y-2.55000 Z-1.20000 I0.00396 J0.00000
G3 X3.24604 Y-2.55000 Z-1.20784 I0.00396 J0.00000
G3 X3.24604 Y-2.55000 Z-1.21569 I0.00396 J0.00000
G3 X3.24604 Y-2.55000 Z-1.22353 I0.00396 J0.00000
G3 X3.24604 Y-2.55000 Z-1.23137 I0.00396 J0.00000
G3 X3.24604 Y-2.55000 Z-1.23922 I0.00396 J0.00000
G3 X3.24604 Y-2.55000 Z-1.24706 I0.00396 J0.00000
G3 X3.24604 Y-2.55000 Z-1.25490 I0.00396 J0.00000
G3 X3.24604 Y-2.55000 Z-1.26275 I0.00396 J0.00000
G3 X3.24604 Y-2.55000 Z-1.27059 I0.00396 J0.00000
G3 X3.24604 Y-2.55000 Z-1.27843 I0.00396 J0.00000
G3 X3.24604 Y-2.55000 Z-1.28627 I0.00396 J0.00000
G3 X3.24604 Y-2.55000 Z-1.29412 I0.00396 J0.00000
G3 X3.24604 Y-2.55000 Z-1.30196 I0.00396 J0.00000
G3 X3.24604 Y-2.55000 Z-1.30980 I0.00396 J0.00000
G3 X3.24604 Y-2.55000 Z-1.31765 I0.00396 J0.00000
G3 X3.24604 Y-2.55000 Z-1.32549 I0.00396 J0.00000
G3 X3.24604 Y-2.55000 Z-1.33333 I0.00396 J0.00000
G3 X3.24604 Y-2.55000 Z-1.34118 I0.00396 J0.00000
G3 X3.24604 Y-2.55000 Z-1.34902 I0.00396 J0.00000
G3 X3.24604 Y-2.55000 Z-1.35686 I0.00396 J0.00000
G3 X3.24604 Y-2.55000 Z-1.36471 I0.00396 J0.00000
G3 X3.24604 Y-2.55000 Z-1.37255 I0.00396 J0.00000
G3 X3.24604 Y-2.55000 Z-1.38039 I0.00396 J0.00000
G3 X3.24604 Y-2.55000 Z-1.38824 I0.00396 J0.00000
G3 X3.24604 Y-2.55000 Z-1.39608 I0.00396 J0.00000
G3 X3.24604 Y-2.55000 Z-1.40392 I0.00396 J0.00000
G3 X3.24604 Y-2.55000 Z-1.41176 I0.00396 J0.00000
G3 X3.24604 Y-2.55000 Z-1.41961 I0.00396 J0.00000
G3 X3.24604 Y-2.55000 Z-1.42745 I0.00396 J0.00000
G3 X3.24604 Y-2.55000 Z-1.43529 I0.00396 J0.00000
G3 X3.24604 Y-2.55000 Z-1.44314 I0.00396 J0.00000
G3 X3.24604 Y-2.55000 Z-1.45098 I0.00396 J0.00000
G3 X3.24604 Y-2.55000 Z-1.45882 I0.00396 J0.00000
G3 X3.24604 Y-2.55000 Z-1.46667 I0.00396 J0.00000
G3 X3.24604 Y-2.55000 Z-1.47451 I0.00396 J0.00000
G3 X3.24604 Y-2.55000 Z-1.48235 I0.00396 J0.00000
G3 X3.24604 Y-2.55000 Z-1.49020 I0.00396 J0.00000
G3 X3.24604 Y-2.55000 Z-1.49804 I0.00396 J0.00000
G3 X3.24604 Y-2.55000 Z-1.50588 I0.00396 J0.00000
G3 X3.24604 Y-2.55000 Z-1.51373 I0.00396 J0.00000
G3 X3.24604 Y-2.55000 Z-1.52157 I0.00396 J0.00000
G3 X3.24604 Y-2.55000 Z-1.52941 I0.00396 J0.00000
G3 X3.24604 Y-2.55000 Z-1.53725 I0.00396 J0.00000
G3 X3.24604 Y-2.55000 Z-1.54510 I0.00396 J0.00000
G3 X3.24604 Y-2.55000 Z-1.55294 I0.00396 J0.00000
G3 X3.24604 Y-2.55000 Z-1.56078 I0.00396 J0.00000
G3 X3.24604 Y-2.55000 Z-1.56863 I0.00396 J0.00000
G3 X3.24604 Y-2.55000 Z-1.57647 I0.00396 J0.00000
G3 X3.24604 Y-2.55000 Z-1.58431 I0.00396 J0.00000
G3 X3.24604 Y-2.55000 Z-1.59216 I0.00396 J0.00000
G3 X3.24604 Y-2.55000 Z-1.60000 I0.00396 J0.00000
G3 X3.24604 Y-2.55000 I0.00396 J0.00000
G0 Z0.08000

G0 X3.24604 Y-2.95000
G1 Z0.00784 F100.00000
G3 X3.24604 Y-2.95000 Z-0.00000 I0.00396 J0.00000
G3 X3.24604 Y-2.95000 Z-0.00784 I0.00396 J0.00000
G3 X3.24604 Y-2.95000 Z-0.01569 I0.00396 J0.00000
G3 X3.24604 Y-2.95000 Z-0.02353 I0.00396 J0.00000
G3 X3.24604 Y-2.95000 Z-0.03137 I0.00396 J0.00000
G3 X3.24604 Y-2.95000 Z-0.03922 I0.00396 J0.00000
G3 X3.24604 Y-2.95000 Z-0.04706 I0.00396 J0.00000
G3 X3.24604 Y-2.95000 Z-0.05490 I0.00396 J0.00000
G3 X3.24604 Y-2.95000 Z-0.06275 I0.00396 J0.00000
G3 X3.24604 Y-2.95000 Z-0.07059 I0.00396 J0.00000
G3 X3.24604 Y-2.95000 Z-0.07843 I0.00396 J0.00000
G3 X3.24604 Y-2.95000 Z-0.08627 I0.00396 J0.00000
G3 X3.24604 Y-2.95000 Z-0.09412 I0.00396 J0.00000
G3 X3.24604 Y-2.95000 Z-0.10196 I0.00396 J0.00000
G3 X3.24604 Y-2.95000 Z-0.10980 I0.00396 J0.00000
G3 X3.24604 Y-2.95000 Z-0.11765 I0.00396 J0.00000
G3 X3.24604 Y-2.95000 Z-0.12549 I0.00396 J0.00000
G3 X3.24604 Y-2.95000 Z-0.13333 I0.00396 J0.00000
G3 X3.24604 Y-2.95000 Z-0.14118 I0.00396 J0.00000
G3 X3.24604 Y-2.95000 Z-0.14902 I0.00396 J0.00000
G3 X3.24604 Y-2.95000 Z-0.15686 I0.00396 J0.00000
G3 X3.24604 Y-2.95000 Z-0.16471 I0.00396 J0.00000
G3 X3.24604 Y-2.95000 Z-0.17255 I0.00396 J0.00000
G3 X3.24604 Y-2.95000 Z-0.18039 I0.00396 J0.00000
G3 X3.24604 Y-2.95000 Z-0.18824 I0.00396 J0.00000
G3 X3.24604 Y-2.95000 Z-0.19608 I0.00396 J0.00000
G3 X3.24604 Y-2.95000 Z-0.20392 I0.00396 J0.00000
G3 X3.24604 Y-2.95000 Z-0.21176 I0.00396 J0.00000
G3 X3.24604 Y-2.95000 Z-0.21961 I0.00396 J0.00000
G3 X3.24604 Y-2.95000 Z-0.22745 I0.00396 J0.00000
G3 X3.24604 Y-2.95000 Z-0.23529 I0.00396 J0.00000
G3 X3.24604 Y-2.95000 Z-0.24314 I0.00396 J0.00000
G3 X3.24604 Y-2.95000 Z-0.25098 I0.00396 J0.00000
G3 X3.24604 Y-2.95000 Z-0.25882 I0.00396 J0.00000
G3 X3.24604 Y-2.95000 Z-0.26667 I0.00396 J0.00000
G3 X3.24604 Y-2.95000 Z-0.27451 I0.00396 J0.00000
G3 X3.24604 Y-2.95000 Z-0.28235 I0.00396 J0.00000
G3 X3.24604 Y-2.95000 Z-0.29020 I0.00396 J0.00000
G3 X3.24604 Y-2.95000 Z-0.29804 I0.00396 J0.00000
G3 X3.24604 Y-2.95000 Z-0.30588 I0.00396 J0.00000
G3 X3.24604 Y-2.95000 Z-0.31373 I0.00396 J0.00000
G3 X3.24604 Y-2.95000 Z-0.32157 I0.00396 J0.00000
G3 X3.24604 Y-2.95000 Z-0.32941 I0.00396 J0.00000
G3 X3.24604 Y-2.95000 Z-0.33725 I0.00396 J0.00000
G3 X3.24604 Y-2.95000 Z-0.34510 I0.00396 J0.00000
G3 X3.24604 Y-2.95000 Z-0.35294 I0.00396 J0.00000
G3 X3.24604 Y-2.95000 Z-0.36078 I0.00396 J0.00000
G3 X3.24604 Y-2.95000 Z-0.36863 I0.00396 J0.00000
G3 X3.24604 Y-2.95000 Z-0.37647 I0.00396 J0.00000
G3 X3.24604 Y-2.95000 Z-0.38431 I0.00396 J0.00000
G3 X3.24604 Y-2.95000 Z-0.39216 I0.00396 J0.00000
G3 X3.24604 Y-2.95000 Z-0.40000 I0.00396 J0.00000
G3 X3.24604 Y-2.95000 Z-0.40784 I0.00396 J0.00000
G3 X3.24604 Y-2.95000 Z-0.41569 I0.00396 J0.00000
G3 X3.24604 Y-2.95000 Z-0.42353 I0.00396 J0.00000
G3 X3.24604 Y-2.95000 Z-0.43137 I0.00396 J0.00000
G3 X3.24604 Y-2.95000 Z-0.43922 I0.00396 J0.00000
G3 X3.24604 Y-2.95000 Z-0.44706 I0.00396 J0.00000
G3 X3.24604 Y-2.95000 Z-0.45490 I0.00396 J0.00000
G3 X3.24604 Y-2.95000 Z-0.46275 I0.00396 J0.00000
G3 X3.24604 Y-2.95000 Z-0.47059 I0.00396 J0.00000
G3 X3.24604 Y-2.95000 Z-0.47843 I0.00396 J0.00000
G3 X3.24604 Y-2.95000 Z-0.48627 I0.00396 J0.00000
G3 X3.24604 Y-2.95000 Z-0.49412 I0.00396 J0.00000
G3 X3.24604 Y-2.95000 Z-0.50196 I0.00396 J0.00000
G3 X3.24604 Y-2.95000 Z-0.50980 I0.00396 J0.00000
G3 X3.24604 Y-2.95000 Z-0.51765 I0.00396 J0.00000
G3 X3.24604 Y-2.95000 Z-0.52549 I0.00396 J0.00000
G3 X3.24604 Y-2.95000 Z-0.53333 I0.00396 J0.00000
G3 X3.24604 Y-2.95000 Z-0.54118 I0.00396 J0.00000
G3 X3.24604 Y-2.95000 Z-0.54902 I0.00396 J0.00000
G3 X3.24604 Y-2.95000 Z-0.55686 I0.00396 J0.00000
G3 X3.24604 Y-2.95000 Z-0.56471 I0.00396 J0.00000
G3 X3.24604 Y-2.95000 Z-0.57255 I0.00396 J0.00000
G3 X3.24604 Y-2.95000 Z-0.58039 I0.00396 J0.00000
G3 X3.24604 Y-2.95000 Z-0.58824 I0.00396 J0.00000
G3 X3.24604 Y-2.95000 Z-0.59608 I0.00396 J0.00000
G3 X3.24604 Y-2.95000 Z-0.60392 I0.00396 J0.00000
G3 X3.24604 Y-2.95000 Z-0.61176 I0.00396 J0.00000
G3 X3.24604 Y-2.95000 Z-0.61961 I0.00396 J0.00000
G3 X3.24604 Y-2.95000 Z-0.62745 I0.00396 J0.00000
G3 X3.24604 Y-2.95000 Z-0.63529 I0.00396 J0.00000
G3 X3.24604 Y-2.95000 Z-0.64314 I0.00396 J0.00000
G3 X3.24604 Y-2.95000 Z-0.65098 I0.00396 J0.00000
G3 X3.24604 Y-2.95000 Z-0.65882 I0.00396 J0.00000
G3 X3.24604 Y-2.95000 Z-0.66667 I0.00396 J0.00000
G3 X3.24604 Y-2.95000 Z-0.67451 I0.00396 J0.00000
G3 X3.24604 Y-2.95000 Z-0.68235 I0.00396 J0.00000
G3 X3.24604 Y-2.95000 Z-0.69020 I0.00396 J0.00000
G3 X3.24604 Y-2.95000 Z-0.69804 I0.00396 J0.00000
G3 X3.24604 Y-2.95000 Z-0.70588 I0.00396 J0.00000
G3 X3.24604 Y-2.95000 Z-0.71373 I0.00396 J0.00000
G3 X3.24604 Y-2.95000 Z-0.72157 I0.00396 J0.00000
G3 X3.24604 Y-2.95000 Z-0.72941 I0.00396 J0.00000
G3 X3.24604 Y-2.95000 Z-0.73725 I0.00396 J0.00000
G3 X3.24604 Y-2.95000 Z-0.74510 I0.00396 J0.00000
G3 X3.24604 Y-2.95000 Z-0.75294 I0.00396 J0.00000
G3 X3.24604 Y-2.95000 Z-0.76078 I0.00396 J0.00000
G3 X3.24604 Y-2.95000 Z-0.76863 I0.00396 J0.00000
G3 X3.24604 Y-2.95000 Z-0.77647 I0.00396 J0.00000
G3 X3.24604 Y-2.95000 Z-0.78431 I0.00396 J0.00000
G3 X3.24604 Y-2.95000 Z-0.79216 I0.00396 J0.00000
G3 X3.24604 Y-2.95000 Z-0.80000 I0.00396 J0.00000
G3 X3.24604 Y-2.95000 Z-0.80784 I0.00396 J0.00000
G3 X3.24604 Y-2.95000 Z-0.81569 I0.00396 J0.00000
G3 X3.24604 Y-2.95000 Z-0.82353 I0.00396 J0.00000
G3 X3.24604 Y-2.95000 Z-0.83137 I0.00396 J0.00000
G3 X3.24604 Y-2.95000 Z-0.83922 I0.00396 J0.00000
G3 X3.24604 Y-2.95000 Z-0.84706 I0.00396 J0.00000
G3 X3.24604 Y-2.95000 Z-0.85490 I0.00396 J0.00000
G3 X3.24604 Y-2.95000 Z-0.86275 I0.00396 J0.00000
G3 X3.24604 Y-2.95000 Z-0.87059 I0.00396 J0.00000
G3 X3.24604 Y-2.95000 Z-0.87843 I0.00396 J0.00000
G3 X3.24604 Y-2.95000 Z-0.88627 I0.00396 J0.00000
G3 X3.24604 Y-2.95000 Z-0.89412 I0.00396 J0.00000
G3 X3.24604 Y-2.95000 Z-0.90196 I0.00396 J0.00000
G3 X3.24604 Y-2.95000 Z-0.90980 I0.00396 J0.00000
G3 X3.24604 Y-2.95000 Z-0.91765 I0.00396 J0.00000
G3 X3.24604 Y-2.95000 Z-0.92549 I0.00396 J0.00000
G3 X3.24604 Y-2.95000 Z-0.93333 I0.00396 J0.00000
G3 X3.24604 Y-2.95000 Z-0.94118 I0.00396 J0.00000
G3 X3.24604 Y-2.95000 Z-0.94902 I0.00396 J0.00000
G3 X3.24604 Y-2.95000 Z-0.95686 I0.00396 J0.00000
G3 X3.24604 Y-2.95000 Z-0.96471 I0.00396 J0.00000
G3 X3.24604 Y-2.95000 Z-0.97255 I0.00396 J0.00000
G3 X3.24604 Y-2.95000 Z-0.98039 I0.00396 J0.00000
G3 X3.24604 Y-2.95000 Z-0.98824 I0.00396 J0.00000
G3 X3.24604 Y-2.95000 Z-0.99608 I0.00396 J0.00000
G3 X3.24604 Y-2.95000 Z-1.00392 I0.00396 J0.00000
G3 X3.24604 Y-2.95000 Z-1.01176 I0.00396 J0.00000
G3 X3.24604 Y-2.95000 Z-1.01961 I0.00396 J0.00000
G3 X3.24604 Y-2.95000 Z-1.02745 I0.00396 J0.00000
G3 X3.24604 Y-2.95000 Z-1.03529 I0.00396 J0.00000
G3 X3.24604 Y-2.95000 Z-1.04314 I0.00396 J0.00000
G3 X3.24604 Y-2.95000 Z-1.05098 I0.00396 J0.00000
G3 X3.24604 Y-2.95000 Z-1.05882 I0.00396 J0.00000
G3 X3.24604 Y-2.95000 Z-1.06667 I0.00396 J0.00000
G3 X3.24604 Y-2.95000 Z-1.07451 I0.00396 J0.00000
G3 X3.24604 Y-2.95000 Z-1.08235 I0.00396 J0.00000
G3 X3.24604 Y-2.95000 Z-1.09020 I0.00396 J0.00000
G3 X3.24604 Y-2.95000 Z-1.09804 I0.00396 J0.00000
G3 X3.24604 Y-2.95000 Z-1.10588 I0.00396 J0.00000
G3 X3.24604 Y-2.95000 Z-1.11373 I0.00396 J0.00000
G3 X3.24604 Y-2.95000 Z-1.12157 I0.00396 J0.00000
G3 X3.24604 Y-2.95000 Z-1.12941 I0.00396 J0.00000
G3 X3.24604 Y-2.95000 Z-1.13725 I0.00396 J0.00000
G3 X3.24604 Y-2.95000 Z-1.14510 I0.00396 J0.00000
G3 X3.24604 Y-2.95000 Z-1.15294 I0.00396 J0.00000
G3 X3.24604 Y-2.95000 Z-1.16078 I0.00396 J0.00000
G3 X3.24604 Y-2.95000 Z-1.16863 I0.00396 J0.00000
G3 X3.24604 Y-2.95000 Z-1.17647 I0.00396 J0.00000
G3 X3.24604 Y-2.95000 Z-1.18431 I0.00396 J0.00000
G3 X3.24604 Y-2.95000 Z-1.19216 I0.00396 J0.00000
G3 X3.24604 Y-2.95000 Z-1.20000 I0.00396 J0.00000
G3 X3.24604 Y-2.95000 Z-1.20784 I0.00396 J0.00000
G3 X3.24604 Y-2.95000 Z-1.21569 I0.00396 J0.00000
G3 X3.24604 Y-2.95000 Z-1.22353 I0.00396 J0.00000
G3 X3.24604 Y-2.95000 Z-1.23137 I0.00396 J0.00000
G3 X3.24604 Y-2.95000 Z-1.23922 I0.00396 J0.00000
G3 X3.24604 Y-2.95000 Z-1.24706 I0.00396 J0.00000
G3 X3.24604 Y-2.95000 Z-1.25490 I0.00396 J0.00000
G3 X3.24604 Y-2.95000 Z-1.26275 I0.00396 J0.00000
G3 X3.24604 Y-2.95000 Z-1.27059 I0.00396 J0.00000
G3 X3.24604 Y-2.95000 Z-1.27843 I0.00396 J0.00000
G3 X3.24604 Y-2.95000 Z-1.28627 I0.00396 J0.00000
G3 X3.24604 Y-2.95000 Z-1.29412 I0.00396 J0.00000
G3 X3.24604 Y-2.95000 Z-1.30196 I0.00396 J0.00000
G3 X3.24604 Y-2.95000 Z-1.30980 I0.00396 J0.00000
G3 X3.24604 Y-2.95000 Z-1.31765 I0.00396 J0.00000
G3 X3.24604 Y-2.95000 Z-1.32549 I0.00396 J0.00000
G3 X3.24604 Y-2.95000 Z-1.33333 I0.00396 J0.00000
G3 X3.24604 Y-2.95000 Z-1.34118 I0.00396 J0.00000
G3 X3.24604 Y-2.95000 Z-1.34902 I0.00396 J0.00000
G3 X3.24604 Y-2.95000 Z-1.35686 I0.00396 J0.00000
G3 X3.24604 Y-2.95000 Z-1.36471 I0.00396 J0.00000
G3 X3.24604 Y-2.95000 Z-1.37255 I0.00396 J0.00000
G3 X3.24604 Y-2.95000 Z-1.38039 I0.00396 J0.00000
G3 X3.24604 Y-2.95000 Z-1.38824 I0.00396 J0.00000
G3 X3.24604 Y-2.95000 Z-1.39608 I0.00396 J0.00000
G3 X3.24604 Y-2.95000 Z-1.40392 I0.00396 J0.00000
G3 X3.24604 Y-2.95000 Z-1.41176 I0.00396 J0.00000
G3 X3.24604 Y-2.95000 Z-1.41961 I0.00396 J0.00000
G3 X3.24604 Y-2.95000 Z-1.42745 I0.00396 J0.00000
G3 X3.24604 Y-2.95000 Z-1.43529 I0.00396 J0.00000
G3 X3.24604 Y-2.95000 Z-1.44314 I0.00396 J0.00000
G3 X3.24604 Y-2.95000 Z-1.45098 I0.00396 J0.00000
G3 X3.24604 Y-2.95000 Z-1.45882 I0.00396 J0.00000
G3 X3.24604 Y-2.95000 Z-1.46667 I0.00396 J0.00000
G3 X3.24604 Y-2.95000 Z-1.47451 I0.00396 J0.00000
G3 X3.24604 Y-2.95000 Z-1.48235 I0.00396 J0.00000
G3 X3.24604 Y-2.95000 Z-1.49020 I0.00396 J0.00000
G3 X3.24604 Y-2.95000 Z-1.49804 I0.00396 J0.00000
G3 X3.24604 Y-2.95000 Z-1.50588 I0.00396 J0.00000
G3 X3.24604 Y-2.95000 Z-1.51373 I0.00396 J0.00000
G3 X3.24604 Y-2.95000 Z-1.52157 I0.00396 J0.00000
G3 X3.24604 Y-2.95000 Z-1.52941 I0.00396 J0.00000
G3 X3.24604 Y-2.95000 Z-1.53725 I0.00396 J0.00000
G3 X3.24604 Y-2.95000 Z-1.54510 I0.00396 J0.00000
G3 X3.24604 Y-2.95000 Z-1.55294 I0.00396 J0.00000
G3 X3.24604 Y-2.95000 Z-1.56078 I0.00396 J0.00000
G3 X3.24604 Y-2.95000 Z-1.56863 I0.00396 J0.00000
G3 X3.24604 Y-2.95000 Z-1.57647 I0.00396 J0.00000
G3 X3.24604 Y-2.95000 Z-1.58431 I0.00396 J0.00000
G3 X3.24604 Y-2.95000 Z-1.59216 I0.00396 J0.00000
G3 X3.24604 Y-2.95000 Z-1.60000 I0.00396 J0.00000
G3 X3.24604 Y-2.95000 I0.00396 J0.00000
G0 Z0.08000

G0 X3.64604 Y-2.55000
G1 Z0.00784 F100.00000
G3 X3.64604 Y-2.55000 Z-0.00000 I0.00396 J0.00000
G3 X3.64604 Y-2.55000 Z-0.00784 I0.00396 J0.00000
G3 X3.64604 Y-2.55000 Z-0.01569 I0.00396 J0.00000
G3 X3.64604 Y-2.55000 Z-0.02353 I0.00396 J0.00000
G3 X3.64604 Y-2.55000 Z-0.03137 I0.00396 J0.00000
G3 X3.64604 Y-2.55000 Z-0.03922 I0.00396 J0.00000
G3 X3.64604 Y-2.55000 Z-0.04706 I0.00396 J0.00000
G3 X3.64604 Y-2.55000 Z-0.05490 I0.00396 J0.00000
G3 X3.64604 Y-2.55000 Z-0.06275 I0.00396 J0.00000
G3 X3.64604 Y-2.55000 Z-0.07059 I0.00396 J0.00000
G3 X3.64604 Y-2.55000 Z-0.07843 I0.00396 J0.00000
G3 X3.64604 Y-2.55000 Z-0.08627 I0.00396 J0.00000
G3 X3.64604 Y-2.55000 Z-0.09412 I0.00396 J0.00000
G3 X3.64604 Y-2.55000 Z-0.10196 I0.00396 J0.00000
G3 X3.64604 Y-2.55000 Z-0.10980 I0.00396 J0.00000
G3 X3.64604 Y-2.55000 Z-0.11765 I0.00396 J0.00000
G3 X3.64604 Y-2.55000 Z-0.12549 I0.00396 J0.00000
G3 X3.64604 Y-2.55000 Z-0.13333 I0.00396 J0.00000
G3 X3.64604 Y-2.55000 Z-0.14118 I0.00396 J0.00000
G3 X3.64604 Y-2.55000 Z-0.14902 I0.00396 J0.00000
G3 X3.64604 Y-2.55000 Z-0.15686 I0.00396 J0.00000
G3 X3.64604 Y-2.55000 Z-0.16471 I0.00396 J0.00000
G3 X3.64604 Y-2.55000 Z-0.17255 I0.00396 J0.00000
G3 X3.64604 Y-2.55000 Z-0.18039 I0.00396 J0.00000
G3 X3.64604 Y-2.55000 Z-0.18824 I0.00396 J0.00000
G3 X3.64604 Y-2.55000 Z-0.19608 I0.00396 J0.00000
G3 X3.64604 Y-2.55000 Z-0.20392 I0.00396 J0.00000
G3 X3.64604 Y-2.55000 Z-0.21176 I0.00396 J0.00000
G3 X3.64604 Y-2.55000 Z-0.21961 I0.00396 J0.00000
G3 X3.64604 Y-2.55000 Z-0.22745 I0.00396 J0.00000
G3 X3.64604 Y-2.55000 Z-0.23529 I0.00396 J0.00000
G3 X3.64604 Y-2.55000 Z-0.24314 I0.00396 J0.00000
G3 X3.64604 Y-2.55000 Z-0.25098 I0.00396 J0.00000
G3 X3.64604 Y-2.55000 Z-0.25882 I0.00396 J0.00000
G3 X3.64604 Y-2.55000 Z-0.26667 I0.00396 J0.00000
G3 X3.64604 Y-2.55000 Z-0.27451 I0.00396 J0.00000
G3 X3.64604 Y-2.55000 Z-0.28235 I0.00396 J0.00000
G3 X3.64604 Y-2.55000 Z-0.29020 I0.00396 J0.00000
G3 X3.64604 Y-2.55000 Z-0.29804 I0.00396 J0.00000
G3 X3.64604 Y-2.55000 Z-0.30588 I0.00396 J0.00000
G3 X3.64604 Y-2.55000 Z-0.31373 I0.00396 J0.00000
G3 X3.64604 Y-2.55000 Z-0.32157 I0.00396 J0.00000
G3 X3.64604 Y-2.55000 Z-0.32941 I0.00396 J0.00000
G3 X3.64604 Y-2.55000 Z-0.33725 I0.00396 J0.00000
G3 X3.64604 Y-2.55000 Z-0.34510 I0.00396 J0.00000
G3 X3.64604 Y-2.55000 Z-0.35294 I0.00396 J0.00000
G3 X3.64604 Y-2.55000 Z-0.36078 I0.00396 J0.00000
G3 X3.64604 Y-2.55000 Z-0.36863 I0.00396 J0.00000
G3 X3.64604 Y-2.55000 Z-0.37647 I0.00396 J0.00000
G3 X3.64604 Y-2.55000 Z-0.38431 I0.00396 J0.00000
G3 X3.64604 Y-2.55000 Z-0.39216 I0.00396 J0.00000
G3 X3.64604 Y-2.55000 Z-0.40000 I0.00396 J0.00000
G3 X3.64604 Y-2.55000 Z-0.40784 I0.00396 J0.00000
G3 X3.64604 Y-2.55000 Z-0.41569 I0.00396 J0.00000
G3 X3.64604 Y-2.55000 Z-0.42353 I0.00396 J0.00000
G3 X3.64604 Y-2.55000 Z-0.43137 I0.00396 J0.00000
G3 X3.64604 Y-2.55000 Z-0.43922 I0.00396 J0.00000
G3 X3.64604 Y-2.55000 Z-0.44706 I0.00396 J0.00000
G3 X3.64604 Y-2.55000 Z-0.45490 I0.00396 J0.00000
G3 X3.64604 Y-2.55000 Z-0.46275 I0.00396 J0.00000
G3 X3.64604 Y-2.55000 Z-0.47059 I0.00396 J0.00000
G3 X3.64604 Y-2.55000 Z-0.47843 I0.00396 J0.00000
G3 X3.64604 Y-2.55000 Z-0.48627 I0.00396 J0.00000
G3 X3.64604 Y-2.55000 Z-0.49412 I0.00396 J0.00000
G3 X3.64604 Y-2.55000 Z-0.50196 I0.00396 J0.00000
G3 X3.64604 Y-2.55000 Z-0.50980 I0.00396 J0.00000
G3 X3.64604 Y-2.55000 Z-0.51765 I0.00396 J0.00000
G3 X3.64604 Y-2.55000 Z-0.52549 I0.00396 J0.00000
G3 X3.64604 Y-2.55000 Z-0.53333 I0.00396 J0.00000
G3 X3.64604 Y-2.55000 Z-0.54118 I0.00396 J0.00000
G3 X3.64604 Y-2.55000 Z-0.54902 I0.00396 J0.00000
G3 X3.64604 Y-2.55000 Z-0.55686 I0.00396 J0.00000
G3 X3.64604 Y-2.55000 Z-0.56471 I0.00396 J0.00000
G3 X3.64604 Y-2.55000 Z-0.57255 I0.00396 J0.00000
G3 X3.64604 Y-2.55000 Z-0.58039 I0.00396 J0.00000
G3 X3.64604 Y-2.55000 Z-0.58824 I0.00396 J0.00000
G3 X3.64604 Y-2.55000 Z-0.59608 I0.00396 J0.00000
G3 X3.64604 Y-2.55000 Z-0.60392 I0.00396 J0.00000
G3 X3.64604 Y-2.55000 Z-0.61176 I0.00396 J0.00000
G3 X3.64604 Y-2.55000 Z-0.61961 I0.00396 J0.00000
G3 X3.64604 Y-2.55000 Z-0.62745 I0.00396 J0.00000
G3 X3.64604 Y-2.55000 Z-0.63529 I0.00396 J0.00000
G3 X3.64604 Y-2.55000 Z-0.64314 I0.00396 J0.00000
G3 X3.64604 Y-2.55000 Z-0.65098 I0.00396 J0.00000
G3 X3.64604 Y-2.55000 Z-0.65882 I0.00396 J0.00000
G3 X3.64604 Y-2.55000 Z-0.66667 I0.00396 J0.00000
G3 X3.64604 Y-2.55000 Z-0.67451 I0.00396 J0.00000
G3 X3.64604 Y-2.55000 Z-0.68235 I0.00396 J0.00000
G3 X3.64604 Y-2.55000 Z-0.69020 I0.00396 J0.00000
G3 X3.64604 Y-2.55000 Z-0.69804 I0.00396 J0.00000
G3 X3.64604 Y-2.55000 Z-0.70588 I0.00396 J0.00000
G3 X3.64604 Y-2.55000 Z-0.71373 I0.00396 J0.00000
G3 X3.64604 Y-2.55000 Z-0.72157 I0.00396 J0.00000
G3 X3.64604 Y-2.55000 Z-0.72941 I0.00396 J0.00000
G3 X3.64604 Y-2.55000 Z-0.73725 I0.00396 J0.00000
G3 X3.64604 Y-2.55000 Z-0.74510 I0.00396 J0.00000
G3 X3.64604 Y-2.55000 Z-0.75294 I0.00396 J0.00000
G3 X3.64604 Y-2.55000 Z-0.76078 I0.00396 J0.00000
G3 X3.64604 Y-2.55000 Z-0.76863 I0.00396 J0.00000
G3 X3.64604 Y-2.55000 Z-0.77647 I0.00396 J0.00000
G3 X3.64604 Y-2.55000 Z-0.78431 I0.00396 J0.00000
G3 X3.64604 Y-2.55000 Z-0.79216 I0.00396 J0.00000
G3 X3.64604 Y-2.55000 Z-0.80000 I0.00396 J0.00000
G3 X3.64604 Y-2.55000 Z-0.80784 I0.00396 J0.00000
G3 X3.64604 Y-2.55000 Z-0.81569 I0.00396 J0.00000
G3 X3.64604 Y-2.55000 Z-0.82353 I0.00396 J0.00000
G3 X3.64604 Y-2.55000 Z-0.83137 I0.00396 J0.00000
G3 X3.64604 Y-2.55000 Z-0.83922 I0.00396 J0.00000
G3 X3.64604 Y-2.55000 Z-0.84706 I0.00396 J0.00000
G3 X3.64604 Y-2.55000 Z-0.85490 I0.00396 J0.00000
G3 X3.64604 Y-2.55000 Z-0.86275 I0.00396 J0.00000
G3 X3.64604 Y-2.55000 Z-0.87059 I0.00396 J0.00000
G3 X3.64604 Y-2.55000 Z-0.87843 I0.00396 J0.00000
G3 X3.64604 Y-2.55000 Z-0.88627 I0.00396 J0.00000
G3 X3.64604 Y-2.55000 Z-0.89412 I0.00396 J0.00000
G3 X3.64604 Y-2.55000 Z-0.90196 I0.00396 J0.00000
G3 X3.64604 Y-2.55000 Z-0.90980 I0.00396 J0.00000
G3 X3.64604 Y-2.55000 Z-0.91765 I0.00396 J0.00000
G3 X3.64604 Y-2.55000 Z-0.92549 I0.00396 J0.00000
G3 X3.64604 Y-2.55000 Z-0.93333 I0.00396 J0.00000
G3 X3.64604 Y-2.55000 Z-0.94118 I0.00396 J0.00000
G3 X3.64604 Y-2.55000 Z-0.94902 I0.00396 J0.00000
G3 X3.64604 Y-2.55000 Z-0.95686 I0.00396 J0.00000
G3 X3.64604 Y-2.55000 Z-0.96471 I0.00396 J0.00000
G3 X3.64604 Y-2.55000 Z-0.97255 I0.00396 J0.00000
G3 X3.64604 Y-2.55000 Z-0.98039 I0.00396 J0.00000
G3 X3.64604 Y-2.55000 Z-0.98824 I0.00396 J0.00000
G3 X3.64604 Y-2.55000 Z-0.99608 I0.00396 J0.00000
G3 X3.64604 Y-2.55000 Z-1.00392 I0.00396 J0.00000
G3 X3.64604 Y-2.55000 Z-1.01176 I0.00396 J0.00000
G3 X3.64604 Y-2.55000 Z-1.01961 I0.00396 J0.00000
G3 X3.64604 Y-2.55000 Z-1.02745 I0.00396 J0.00000
G3 X3.64604 Y-2.55000 Z-1.03529 I0.00396 J0.00000
G3 X3.64604 Y-2.55000 Z-1.04314 I0.00396 J0.00000
G3 X3.64604 Y-2.55000 Z-1.05098 I0.00396 J0.00000
G3 X3.64604 Y-2.55000 Z-1.05882 I0.00396 J0.00000
G3 X3.64604 Y-2.55000 Z-1.06667 I0.00396 J0.00000
G3 X3.64604 Y-2.55000 Z-1.07451 I0.00396 J0.00000
G3 X3.64604 Y-2.55000 Z-1.08235 I0.00396 J0.00000
G3 X3.64604 Y-2.55000 Z-1.09020 I0.00396 J0.00000
G3 X3.64604 Y-2.55000 Z-1.09804 I0.00396 J0.00000
G3 X3.64604 Y-2.55000 Z-1.10588 I0.00396 J0.00000
G3 X3.64604 Y-2.55000 Z-1.11373 I0.00396 J0.00000
G3 X3.64604 Y-2.55000 Z-1.12157 I0.00396 J0.00000
G3 X3.64604 Y-2.55000 Z-1.12941 I0.00396 J0.00000
G3 X3.64604 Y-2.55000 Z-1.13725 I0.00396 J0.00000
G3 X3.64604 Y-2.55000 Z-1.14510 I0.00396 J0.00000
G3 X3.64604 Y-2.55000 Z-1.15294 I0.00396 J0.00000
G3 X3.64604 Y-2.55000 Z-1.16078 I0.00396 J0.00000
G3 X3.64604 Y-2.55000 Z-1.16863 I0.00396 J0.00000
G3 X3.64604 Y-2.55000 Z-1.17647 I0.00396 J0.00000
G3 X3.64604 Y-2.55000 Z-1.18431 I0.00396 J0.00000
G3 X3.64604 Y-2.55000 Z-1.19216 I0.00396 J0.00000
G3 X3.64604 Y-2.55000 Z-1.20000 I0.00396 J0.00000
G3 X3.64604 Y-2.55000 Z-1.20784 I0.00396 J0.00000
G3 X3.64604 Y-2.55000 Z-1.21569 I0.00396 J0.00000
G3 X3.64604 Y-2.55000 Z-1.22353 I0.00396 J0.00000
G3 X3.64604 Y-2.55000 Z-1.23137 I0.00396 J0.00000
G3 X3.64604 Y-2.55000 Z-1.23922 I0.00396 J0.00000
G3 X3.64604 Y-2.55000 Z-1.24706 I0.00396 J0.00000
G3 X3.64604 Y-2.55000 Z-1.25490 I0.00396 J0.00000
G3 X3.64604 Y-2.55000 Z-1.26275 I0.00396 J0.00000
G3 X3.64604 Y-2.55000 Z-1.27059 I0.00396 J0.00000
G3 X3.64604 Y-2.55000 Z-1.27843 I0.00396 J0.00000
G3 X3.64604 Y-2.55000 Z-1.28627 I0.00396 J0.00000
G3 X3.64604 Y-2.55000 Z-1.29412 I0.00396 J0.00000
G3 X3.64604 Y-2.55000 Z-1.30196 I0.00396 J0.00000
G3 X3.64604 Y-2.55000 Z-1.30980 I0.00396 J0.00000
G3 X3.64604 Y-2.55000 Z-1.31765 I0.00396 J0.00000
G3 X3.64604 Y-2.55000 Z-1.32549 I0.00396 J0.00000
G3 X3.64604 Y-2.55000 Z-1.33333 I0.00396 J0.00000
G3 X3.64604 Y-2.55000 Z-1.34118 I0.00396 J0.00000
G3 X3.64604 Y-2.55000 Z-1.34902 I0.00396 J0.00000
G3 X3.64604 Y-2.55000 Z-1.35686 I0.00396 J0.00000
G3 X3.64604 Y-2.55000 Z-1.36471 I0.00396 J0.00000
G3 X3.64604 Y-2.55000 Z-1.37255 I0.00396 J0.00000
G3 X3.64604 Y-2.55000 Z-1.38039 I0.00396 J0.00000
G3 X3.64604 Y-2.55000 Z-1.38824 I0.00396 J0.00000
G3 X3.64604 Y-2.55000 Z-1.39608 I0.00396 J0.00000
G3 X3.64604 Y-2.55000 Z-1.40392 I0.00396 J0.00000
G3 X3.64604 Y-2.55000 Z-1.41176 I0.00396 J0.00000
G3 X3.64604 Y-2.55000 Z-1.41961 I0.00396 J0.00000
G3 X3.64604 Y-2.55000 Z-1.42745 I0.00396 J0.00000
G3 X3.64604 Y-2.55000 Z-1.43529 I0.00396 J0.00000
G3 X3.64604 Y-2.55000 Z-1.44314 I0.00396 J0.00000
G3 X3.64604 Y-2.55000 Z-1.45098 I0.00396 J0.00000
G3 X3.64604 Y-2.55000 Z-1.45882 I0.00396 J0.00000
G3 X3.64604 Y-2.55000 Z-1.46667 I0.00396 J0.00000
G3 X3.64604 Y-2.55000 Z-1.47451 I0.00396 J0.00000
G3 X3.64604 Y-2.55000 Z-1.48235 I0.00396 J0.00000
G3 X3.64604 Y-2.55000 Z-1.49020 I0.00396 J0.00000
G3 X3.64604 Y-2.55000 Z-1.49804 I0.00396 J0.00000
G3 X3.64604 Y-2.55000 Z-1.50588 I0.00396 J0.00000
G3 X3.64604 Y-2.55000 Z-1.51373 I0.00396 J0.00000
G3 X3.64604 Y-2.55000 Z-1.52157 I0.00396 J0.00000
G3 X3.64604 Y-2.55000 Z-1.52941 I0.00396 J0.00000
G3 X3.64604 Y-2.55000 Z-1.53725 I0.00396 J0.00000
G3 X3.64604 Y-2.55000 Z-1.54510 I0.00396 J0.00000
G3 X3.64604 Y-2.55000 Z-1.55294 I0.00396 J0.00000
G3 X3.64604 Y-2.55000 Z-1.56078 I0.00396 J0.00000
G3 X3.64604 Y-2.55000 Z-1.56863 I0.00396 J0.00000
G3 X3.64604 Y-2.55000 Z-1.57647 I0.00396 J0.00000
G3 X3.64604 Y-2.55000 Z-1.58431 I0.00396 J0.00000
G3 X3.64604 Y-2.55000 Z-1.59216 I0.00396 J0.00000
G3 X3.64604 Y-2.55000 Z-1.60000 I0.00396 J0.00000
G3 X3.64604 Y-2.55000 I0.00396 J0.00000
G0 Z0.08000

G0 X3.64604 Y-2.95000
G1 Z0.00784 F100.00000
G3 X3.64604 Y-2.95000 Z-0.00000 I0.00396 J0.00000
G3 X3.64604 Y-2.95000 Z-0.00784 I0.00396 J0.00000
G3 X3.64604 Y-2.95000 Z-0.01569 I0.00396 J0.00000
G3 X3.64604 Y-2.95000 Z-0.02353 I0.00396 J0.00000
G3 X3.64604 Y-2.95000 Z-0.03137 I0.00396 J0.00000
G3 X3.64604 Y-2.95000 Z-0.03922 I0.00396 J0.00000
G3 X3.64604 Y-2.95000 Z-0.04706 I0.00396 J0.00000
G3 X3.64604 Y-2.95000 Z-0.05490 I0.00396 J0.00000
G3 X3.64604 Y-2.95000 Z-0.06275 I0.00396 J0.00000
G3 X3.64604 Y-2.95000 Z-0.07059 I0.00396 J0.00000
G3 X3.64604 Y-2.95000 Z-0.07843 I0.00396 J0.00000
G3 X3.64604 Y-2.95000 Z-0.08627 I0.00396 J0.00000
G3 X3.64604 Y-2.95000 Z-0.09412 I0.00396 J0.00000
G3 X3.64604 Y-2.95000 Z-0.10196 I0.00396 J0.00000
G3 X3.64604 Y-2.95000 Z-0.10980 I0.00396 J0.00000
G3 X3.64604 Y-2.95000 Z-0.11765 I0.00396 J0.00000
G3 X3.64604 Y-2.95000 Z-0.12549 I0.00396 J0.00000
G3 X3.64604 Y-2.95000 Z-0.13333 I0.00396 J0.00000
G3 X3.64604 Y-2.95000 Z-0.14118 I0.00396 J0.00000
G3 X3.64604 Y-2.95000 Z-0.14902 I0.00396 J0.00000
G3 X3.64604 Y-2.95000 Z-0.15686 I0.00396 J0.00000
G3 X3.64604 Y-2.95000 Z-0.16471 I0.00396 J0.00000
G3 X3.64604 Y-2.95000 Z-0.17255 I0.00396 J0.00000
G3 X3.64604 Y-2.95000 Z-0.18039 I0.00396 J0.00000
G3 X3.64604 Y-2.95000 Z-0.18824 I0.00396 J0.00000
G3 X3.64604 Y-2.95000 Z-0.19608 I0.00396 J0.00000
G3 X3.64604 Y-2.95000 Z-0.20392 I0.00396 J0.00000
G3 X3.64604 Y-2.95000 Z-0.21176 I0.00396 J0.00000
G3 X3.64604 Y-2.95000 Z-0.21961 I0.00396 J0.00000
G3 X3.64604 Y-2.95000 Z-0.22745 I0.00396 J0.00000
G3 X3.64604 Y-2.95000 Z-0.23529 I0.00396 J0.00000
G3 X3.64604 Y-2.95000 Z-0.24314 I0.00396 J0.00000
G3 X3.64604 Y-2.95000 Z-0.25098 I0.00396 J0.00000
G3 X3.64604 Y-2.95000 Z-0.25882 I0.00396 J0.00000
G3 X3.64604 Y-2.95000 Z-0.26667 I0.00396 J0.00000
G3 X3.64604 Y-2.95000 Z-0.27451 I0.00396 J0.00000
G3 X3.64604 Y-2.95000 Z-0.28235 I0.00396 J0.00000
G3 X3.64604 Y-2.95000 Z-0.29020 I0.00396 J0.00000
G3 X3.64604 Y-2.95000 Z-0.29804 I0.00396 J0.00000
G3 X3.64604 Y-2.95000 Z-0.30588 I0.00396 J0.00000
G3 X3.64604 Y-2.95000 Z-0.31373 I0.00396 J0.00000
G3 X3.64604 Y-2.95000 Z-0.32157 I0.00396 J0.00000
G3 X3.64604 Y-2.95000 Z-0.32941 I0.00396 J0.00000
G3 X3.64604 Y-2.95000 Z-0.33725 I0.00396 J0.00000
G3 X3.64604 Y-2.95000 Z-0.34510 I0.00396 J0.00000
G3 X3.64604 Y-2.95000 Z-0.35294 I0.00396 J0.00000
G3 X3.64604 Y-2.95000 Z-0.36078 I0.00396 J0.00000
G3 X3.64604 Y-2.95000 Z-0.36863 I0.00396 J0.00000
G3 X3.64604 Y-2.95000 Z-0.37647 I0.00396 J0.00000
G3 X3.64604 Y-2.95000 Z-0.38431 I0.00396 J0.00000
G3 X3.64604 Y-2.95000 Z-0.39216 I0.00396 J0.00000
G3 X3.64604 Y-2.95000 Z-0.40000 I0.00396 J0.00000
G3 X3.64604 Y-2.95000 Z-0.40784 I0.00396 J0.00000
G3 X3.64604 Y-2.95000 Z-0.41569 I0.00396 J0.00000
G3 X3.64604 Y-2.95000 Z-0.42353 I0.00396 J0.00000
G3 X3.64604 Y-2.95000 Z-0.43137 I0.00396 J0.00000
G3 X3.64604 Y-2.95000 Z-0.43922 I0.00396 J0.00000
G3 X3.64604 Y-2.95000 Z-0.44706 I0.00396 J0.00000
G3 X3.64604 Y-2.95000 Z-0.45490 I0.00396 J0.00000
G3 X3.64604 Y-2.95000 Z-0.46275 I0.00396 J0.00000
G3 X3.64604 Y-2.95000 Z-0.47059 I0.00396 J0.00000
G3 X3.64604 Y-2.95000 Z-0.47843 I0.00396 J0.00000
G3 X3.64604 Y-2.95000 Z-0.48627 I0.00396 J0.00000
G3 X3.64604 Y-2.95000 Z-0.49412 I0.00396 J0.00000
G3 X3.64604 Y-2.95000 Z-0.50196 I0.00396 J0.00000
G3 X3.64604 Y-2.95000 Z-0.50980 I0.00396 J0.00000
G3 X3.64604 Y-2.95000 Z-0.51765 I0.00396 J0.00000
G3 X3.64604 Y-2.95000 Z-0.52549 I0.00396 J0.00000
G3 X3.64604 Y-2.95000 Z-0.53333 I0.00396 J0.00000
G3 X3.64604 Y-2.95000 Z-0.54118 I0.00396 J0.00000
G3 X3.64604 Y-2.95000 Z-0.54902 I0.00396 J0.00000
G3 X3.64604 Y-2.95000 Z-0.55686 I0.00396 J0.00000
G3 X3.64604 Y-2.95000 Z-0.56471 I0.00396 J0.00000
G3 X3.64604 Y-2.95000 Z-0.57255 I0.00396 J0.00000
G3 X3.64604 Y-2.95000 Z-0.58039 I0.00396 J0.00000
G3 X3.64604 Y-2.95000 Z-0.58824 I0.00396 J0.00000
G3 X3.64604 Y-2.95000 Z-0.59608 I0.00396 J0.00000
G3 X3.64604 Y-2.95000 Z-0.60392 I0.00396 J0.00000
G3 X3.64604 Y-2.95000 Z-0.61176 I0.00396 J0.00000
G3 X3.64604 Y-2.95000 Z-0.61961 I0.00396 J0.00000
G3 X3.64604 Y-2.95000 Z-0.62745 I0.00396 J0.00000
G3 X3.64604 Y-2.95000 Z-0.63529 I0.00396 J0.00000
G3 X3.64604 Y-2.95000 Z-0.64314 I0.00396 J0.00000
G3 X3.64604 Y-2.95000 Z-0.65098 I0.00396 J0.00000
G3 X3.64604 Y-2.95000 Z-0.65882 I0.00396 J0.00000
G3 X3.64604 Y-2.95000 Z-0.66667 I0.00396 J0.00000
G3 X3.64604 Y-2.95000 Z-0.67451 I0.00396 J0.00000
G3 X3.64604 Y-2.95000 Z-0.68235 I0.00396 J0.00000
G3 X3.64604 Y-2.95000 Z-0.69020 I0.00396 J0.00000
G3 X3.64604 Y-2.95000 Z-0.69804 I0.00396 J0.00000
G3 X3.64604 Y-2.95000 Z-0.70588 I0.00396 J0.00000
G3 X3.64604 Y-2.95000 Z-0.71373 I0.00396 J0.00000
G3 X3.64604 Y-2.95000 Z-0.72157 I0.00396 J0.00000
G3 X3.64604 Y-2.95000 Z-0.72941 I0.00396 J0.00000
G3 X3.64604 Y-2.95000 Z-0.73725 I0.00396 J0.00000
G3 X3.64604 Y-2.95000 Z-0.74510 I0.00396 J0.00000
G3 X3.64604 Y-2.95000 Z-0.75294 I0.00396 J0.00000
G3 X3.64604 Y-2.95000 Z-0.76078 I0.00396 J0.00000
G3 X3.64604 Y-2.95000 Z-0.76863 I0.00396 J0.00000
G3 X3.64604 Y-2.95000 Z-0.77647 I0.00396 J0.00000
G3 X3.64604 Y-2.95000 Z-0.78431 I0.00396 J0.00000
G3 X3.64604 Y-2.95000 Z-0.79216 I0.00396 J0.00000
G3 X3.64604 Y-2.95000 Z-0.80000 I0.00396 J0.00000
G3 X3.64604 Y-2.95000 Z-0.80784 I0.00396 J0.00000
G3 X3.64604 Y-2.95000 Z-0.81569 I0.00396 J0.00000
G3 X3.64604 Y-2.95000 Z-0.82353 I0.00396 J0.00000
G3 X3.64604 Y-2.95000 Z-0.83137 I0.00396 J0.00000
G3 X3.64604 Y-2.95000 Z-0.83922 I0.00396 J0.00000
G3 X3.64604 Y-2.95000 Z-0.84706 I0.00396 J0.00000
G3 X3.64604 Y-2.95000 Z-0.85490 I0.00396 J0.00000
G3 X3.64604 Y-2.95000 Z-0.86275 I0.00396 J0.00000
G3 X3.64604 Y-2.95000 Z-0.87059 I0.00396 J0.00000
G3 X3.64604 Y-2.95000 Z-0.87843 I0.00396 J0.00000
G3 X3.64604 Y-2.95000 Z-0.88627 I0.00396 J0.00000
G3 X3.64604 Y-2.95000 Z-0.89412 I0.00396 J0.00000
G3 X3.64604 Y-2.95000 Z-0.90196 I0.00396 J0.00000
G3 X3.64604 Y-2.95000 Z-0.90980 I0.00396 J0.00000
G3 X3.64604 Y-2.95000 Z-0.91765 I0.00396 J0.00000
G3 X3.64604 Y-2.95000 Z-0.92549 I0.00396 J0.00000
G3 X3.64604 Y-2.95000 Z-0.93333 I0.00396 J0.00000
G3 X3.64604 Y-2.95000 Z-0.94118 I0.00396 J0.00000
G3 X3.64604 Y-2.95000 Z-0.94902 I0.00396 J0.00000
G3 X3.64604 Y-2.95000 Z-0.95686 I0.00396 J0.00000
G3 X3.64604 Y-2.95000 Z-0.96471 I0.00396 J0.00000
G3 X3.64604 Y-2.95000 Z-0.97255 I0.00396 J0.00000
G3 X3.64604 Y-2.95000 Z-0.98039 I0.00396 J0.00000
G3 X3.64604 Y-2.95000 Z-0.98824 I0.00396 J0.00000
G3 X3.64604 Y-2.95000 Z-0.99608 I0.00396 J0.00000
G3 X3.64604 Y-2.95000 Z-1.00392 I0.00396 J0.00000
G3 X3.64604 Y-2.95000 Z-1.01176 I0.00396 J0.00000
G3 X3.64604 Y-2.95000 Z-1.01961 I0.00396 J0.00000
G3 X3.64604 Y-2.95000 Z-1.02745 I0.00396 J0.00000
G3 X3.64604 Y-2.95000 Z-1.03529 I0.00396 J0.00000
G3 X3.64604 Y-2.95000 Z-1.04314 I0.00396 J0.00000
G3 X3.64604 Y-2.95000 Z-1.05098 I0.00396 J0.00000
G3 X3.64604 Y-2.95000 Z-1.05882 I0.00396 J0.00000
G3 X3.64604 Y-2.95000 Z-1.06667 I0.00396 J0.00000
G3 X3.64604 Y-2.95000 Z-1.07451 I0.00396 J0.00000
G3 X3.64604 Y-2.95000 Z-1.08235 I0.00396 J0.00000
G3 X3.64604 Y-2.95000 Z-1.09020 I0.00396 J0.00000
G3 X3.64604 Y-2.95000 Z-1.09804 I0.00396 J0.00000
G3 X3.64604 Y-2.95000 Z-1.10588 I0.00396 J0.00000
G3 X3.64604 Y-2.95000 Z-1.11373 I0.00396 J0.00000
G3 X3.64604 Y-2.95000 Z-1.12157 I0.00396 J0.00000
G3 X3.64604 Y-2.95000 Z-1.12941 I0.00396 J0.00000
G3 X3.64604 Y-2.95000 Z-1.13725 I0.00396 J0.00000
G3 X3.64604 Y-2.95000 Z-1.14510 I0.00396 J0.00000
G3 X3.64604 Y-2.95000 Z-1.15294 I0.00396 J0.00000
G3 X3.64604 Y-2.95000 Z-1.16078 I0.00396 J0.00000
G3 X3.64604 Y-2.95000 Z-1.16863 I0.00396 J0.00000
G3 X3.64604 Y-2.95000 Z-1.17647 I0.00396 J0.00000
G3 X3.64604 Y-2.95000 Z-1.18431 I0.00396 J0.00000
G3 X3.64604 Y-2.95000 Z-1.19216 I0.00396 J0.00000
G3 X3.64604 Y-2.95000 Z-1.20000 I0.00396 J0.00000
G3 X3.64604 Y-2.95000 Z-1.20784 I0.00396 J0.00000
G3 X3.64604 Y-2.95000 Z-1.21569 I0.00396 J0.00000
G3 X3.64604 Y-2.95000 Z-1.22353 I0.00396 J0.00000
G3 X3.64604 Y-2.95000 Z-1.23137 I0.00396 J0.00000
G3 X3.64604 Y-2.95000 Z-1.23922 I0.00396 J0.00000
G3 X3.64604 Y-2.95000 Z-1.24706 I0.00396 J0.00000
G3 X3.64604 Y-2.95000 Z-1.25490 I0.00396 J0.00000
G3 X3.64604 Y-2.95000 Z-1.26275 I0.00396 J0.00000
G3 X3.64604 Y-2.95000 Z-1.27059 I0.00396 J0.00000
G3 X3.64604 Y-2.95000 Z-1.27843 I0.00396 J0.00000
G3 X3.64604 Y-2.95000 Z-1.28627 I0.00396 J0.00000
G3 X3.64604 Y-2.95000 Z-1.29412 I0.00396 J0.00000
G3 X3.64604 Y-2.95000 Z-1.30196 I0.00396 J0.00000
G3 X3.64604 Y-2.95000 Z-1.30980 I0.00396 J0.00000
G3 X3.64604 Y-2.95000 Z-1.31765 I0.00396 J0.00000
G3 X3.64604 Y-2.95000 Z-1.32549 I0.00396 J0.00000
G3 X3.64604 Y-2.95000 Z-1.33333 I0.00396 J0.00000
G3 X3.64604 Y-2.95000 Z-1.34118 I0.00396 J0.00000
G3 X3.64604 Y-2.95000 Z-1.34902 I0.00396 J0.00000
G3 X3.64604 Y-2.95000 Z-1.35686 I0.00396 J0.00000
G3 X3.64604 Y-2.95000 Z-1.36471 I0.00396 J0.00000
G3 X3.64604 Y-2.95000 Z-1.37255 I0.00396 J0.00000
G3 X3.64604 Y-2.95000 Z-1.38039 I0.00396 J0.00000
G3 X3.64604 Y-2.95000 Z-1.38824 I0.00396 J0.00000
G3 X3.64604 Y-2.95000 Z-1.39608 I0.00396 J0.00000
G3 X3.64604 Y-2.95000 Z-1.40392 I0.00396 J0.00000
G3 X3.64604 Y-2.95000 Z-1.41176 I0.00396 J0.00000
G3 X3.64604 Y-2.95000 Z-1.41961 I0.00396 J0.00000
G3 X3.64604 Y-2.95000 Z-1.42745 I0.00396 J0.00000
G3 X3.64604 Y-2.95000 Z-1.43529 I0.00396 J0.00000
G3 X3.64604 Y-2.95000 Z-1.44314 I0.00396 J0.00000
G3 X3.64604 Y-2.95000 Z-1.45098 I0.00396 J0.00000
G3 X3.64604 Y-2.95000 Z-1.45882 I0.00396 J0.00000
G3 X3.64604 Y-2.95000 Z-1.46667 I0.00396 J0.00000
G3 X3.64604 Y-2.95000 Z-1.47451 I0.00396 J0.00000
G3 X3.64604 Y-2.95000 Z-1.48235 I0.00396 J0.00000
G3 X3.64604 Y-2.95000 Z-1.49020 I0.00396 J0.00000
G3 X3.64604 Y-2.95000 Z-1.49804 I0.00396 J0.00000
G3 X3.64604 Y-2.95000 Z-1.50588 I0.00396 J0.00000
G3 X3.64604 Y-2.95000 Z-1.51373 I0.00396 J0.00000
G3 X3.64604 Y-2.95000 Z-1.52157 I0.00396 J0.00000
G3 X3.64604 Y-2.95000 Z-1.52941 I0.00396 J0.00000
G3 X3.64604 Y-2.95000 Z-1.53725 I0.00396 J0.00000
G3 X3.64604 Y-2.95000 Z-1.54510 I0.00396 J0.00000
G3 X3.64604 Y-2.95000 Z-1.55294 I0.00396 J0.00000
G3 X3.64604 Y-2.95000 Z-1.56078 I0.00396 J0.00000
G3 X3.64604 Y-2.95000 Z-1.56863 I0.00396 J0.00000
G3 X3.64604 Y-2.95000 Z-1.57647 I0.00396 J0.00000
G3 X3.64604 Y-2.95000 Z-1.58431 I0.00396 J0.00000
G3 X3.64604 Y-2.95000 Z-1.59216 I0.00396 J0.00000
G3 X3.64604 Y-2.95000 Z-1.60000 I0.00396 J0.00000
G3 X3.64604 Y-2.95000 I0.00396 J0.00000
G0 Z0.08000

G0 X3.74604 Y-3.30000
G1 Z0.00784 F100.00000
G3 X3.74604 Y-3.30000 Z-0.00000 I0.00396 J0.00000
G3 X3.74604 Y-3.30000 Z-0.00784 I0.00396 J0.00000
G3 X3.74604 Y-3.30000 Z-0.01569 I0.00396 J0.00000
G3 X3.74604 Y-3.30000 Z-0.02353 I0.00396 J0.00000
G3 X3.74604 Y-3.30000 Z-0.03137 I0.00396 J0.00000
G3 X3.74604 Y-3.30000 Z-0.03922 I0.00396 J0.00000
G3 X3.74604 Y-3.30000 Z-0.04706 I0.00396 J0.00000
G3 X3.74604 Y-3.30000 Z-0.05490 I0.00396 J0.00000
G3 X3.74604 Y-3.30000 Z-0.06275 I0.00396 J0.00000
G3 X3.74604 Y-3.30000 Z-0.07059 I0.00396 J0.00000
G3 X3.74604 Y-3.30000 Z-0.07843 I0.00396 J0.00000
G3 X3.74604 Y-3.30000 Z-0.08627 I0.00396 J0.00000
G3 X3.74604 Y-3.30000 Z-0.09412 I0.00396 J0.00000
G3 X3.74604 Y-3.30000 Z-0.10196 I0.00396 J0.00000
G3 X3.74604 Y-3.30000 Z-0.10980 I0.00396 J0.00000
G3 X3.74604 Y-3.30000 Z-0.11765 I0.00396 J0.00000
G3 X3.74604 Y-3.30000 Z-0.12549 I0.00396 J0.00000
G3 X3.74604 Y-3.30000 Z-0.13333 I0.00396 J0.00000
G3 X3.74604 Y-3.30000 Z-0.14118 I0.00396 J0.00000
G3 X3.74604 Y-3.30000 Z-0.14902 I0.00396 J0.00000
G3 X3.74604 Y-3.30000 Z-0.15686 I0.00396 J0.00000
G3 X3.74604 Y-3.30000 Z-0.16471 I0.00396 J0.00000
G3 X3.74604 Y-3.30000 Z-0.17255 I0.00396 J0.00000
G3 X3.74604 Y-3.30000 Z-0.18039 I0.00396 J0.00000
G3 X3.74604 Y-3.30000 Z-0.18824 I0.00396 J0.00000
G3 X3.74604 Y-3.30000 Z-0.19608 I0.00396 J0.00000
G3 X3.74604 Y-3.30000 Z-0.20392 I0.00396 J0.00000
G3 X3.74604 Y-3.30000 Z-0.21176 I0.00396 J0.00000
G3 X3.74604 Y-3.30000 Z-0.21961 I0.00396 J0.00000
G3 X3.74604 Y-3.30000 Z-0.22745 I0.00396 J0.00000
G3 X3.74604 Y-3.30000 Z-0.23529 I0.00396 J0.00000
G3 X3.74604 Y-3.30000 Z-0.24314 I0.00396 J0.00000
G3 X3.74604 Y-3.30000 Z-0.25098 I0.00396 J0.00000
G3 X3.74604 Y-3.30000 Z-0.25882 I0.00396 J0.00000
G3 X3.74604 Y-3.30000 Z-0.26667 I0.00396 J0.00000
G3 X3.74604 Y-3.30000 Z-0.27451 I0.00396 J0.00000
G3 X3.74604 Y-3.30000 Z-0.28235 I0.00396 J0.00000
G3 X3.74604 Y-3.30000 Z-0.29020 I0.00396 J0.00000
G3 X3.74604 Y-3.30000 Z-0.29804 I0.00396 J0.00000
G3 X3.74604 Y-3.30000 Z-0.30588 I0.00396 J0.00000
G3 X3.74604 Y-3.30000 Z-0.31373 I0.00396 J0.00000
G3 X3.74604 Y-3.30000 Z-0.32157 I0.00396 J0.00000
G3 X3.74604 Y-3.30000 Z-0.32941 I0.00396 J0.00000
G3 X3.74604 Y-3.30000 Z-0.33725 I0.00396 J0.00000
G3 X3.74604 Y-3.30000 Z-0.34510 I0.00396 J0.00000
G3 X3.74604 Y-3.30000 Z-0.35294 I0.00396 J0.00000
G3 X3.74604 Y-3.30000 Z-0.36078 I0.00396 J0.00000
G3 X3.74604 Y-3.30000 Z-0.36863 I0.00396 J0.00000
G3 X3.74604 Y-3.30000 Z-0.37647 I0.00396 J0.00000
G3 X3.74604 Y-3.30000 Z-0.38431 I0.00396 J0.00000
G3 X3.74604 Y-3.30000 Z-0.39216 I0.00396 J0.00000
G3 X3.74604 Y-3.30000 Z-0.40000 I0.00396 J0.00000
G3 X3.74604 Y-3.30000 Z-0.40784 I0.00396 J0.00000
G3 X3.74604 Y-3.30000 Z-0.41569 I0.00396 J0.00000
G3 X3.74604 Y-3.30000 Z-0.42353 I0.00396 J0.00000
G3 X3.74604 Y-3.30000 Z-0.43137 I0.00396 J0.00000
G3 X3.74604 Y-3.30000 Z-0.43922 I0.00396 J0.00000
G3 X3.74604 Y-3.30000 Z-0.44706 I0.00396 J0.00000
G3 X3.74604 Y-3.30000 Z-0.45490 I0.00396 J0.00000
G3 X3.74604 Y-3.30000 Z-0.46275 I0.00396 J0.00000
G3 X3.74604 Y-3.30000 Z-0.47059 I0.00396 J0.00000
G3 X3.74604 Y-3.30000 Z-0.47843 I0.00396 J0.00000
G3 X3.74604 Y-3.30000 Z-0.48627 I0.00396 J0.00000
G3 X3.74604 Y-3.30000 Z-0.49412 I0.00396 J0.00000
G3 X3.74604 Y-3.30000 Z-0.50196 I0.00396 J0.00000
G3 X3.74604 Y-3.30000 Z-0.50980 I0.00396 J0.00000
G3 X3.74604 Y-3.30000 Z-0.51765 I0.00396 J0.00000
G3 X3.74604 Y-3.30000 Z-0.52549 I0.00396 J0.00000
G3 X3.74604 Y-3.30000 Z-0.53333 I0.00396 J0.00000
G3 X3.74604 Y-3.30000 Z-0.54118 I0.00396 J0.00000
G3 X3.74604 Y-3.30000 Z-0.54902 I0.00396 J0.00000
G3 X3.74604 Y-3.30000 Z-0.55686 I0.00396 J0.00000
G3 X3.74604 Y-3.30000 Z-0.56471 I0.00396 J0.00000
G3 X3.74604 Y-3.30000 Z-0.57255 I0.00396 J0.00000
G3 X3.74604 Y-3.30000 Z-0.58039 I0.00396 J0.00000
G3 X3.74604 Y-3.30000 Z-0.58824 I0.00396 J0.00000
G3 X3.74604 Y-3.30000 Z-0.59608 I0.00396 J0.00000
G3 X3.74604 Y-3.30000 Z-0.60392 I0.00396 J0.00000
G3 X3.74604 Y-3.30000 Z-0.61176 I0.00396 J0.00000
G3 X3.74604 Y-3.30000 Z-0.61961 I0.00396 J0.00000
G3 X3.74604 Y-3.30000 Z-0.62745 I0.00396 J0.00000
G3 X3.74604 Y-3.30000 Z-0.63529 I0.00396 J0.00000
G3 X3.74604 Y-3.30000 Z-0.64314 I0.00396 J0.00000
G3 X3.74604 Y-3.30000 Z-0.65098 I0.00396 J0.00000
G3 X3.74604 Y-3.30000 Z-0.65882 I0.00396 J0.00000
G3 X3.74604 Y-3.30000 Z-0.66667 I0.00396 J0.00000
G3 X3.74604 Y-3.30000 Z-0.67451 I0.00396 J0.00000
G3 X3.74604 Y-3.30000 Z-0.68235 I0.00396 J0.00000
G3 X3.74604 Y-3.30000 Z-0.69020 I0.00396 J0.00000
G3 X3.74604 Y-3.30000 Z-0.69804 I0.00396 J0.00000
G3 X3.74604 Y-3.30000 Z-0.70588 I0.00396 J0.00000
G3 X3.74604 Y-3.30000 Z-0.71373 I0.00396 J0.00000
G3 X3.74604 Y-3.30000 Z-0.72157 I0.00396 J0.00000
G3 X3.74604 Y-3.30000 Z-0.72941 I0.00396 J0.00000
G3 X3.74604 Y-3.30000 Z-0.73725 I0.00396 J0.00000
G3 X3.74604 Y-3.30000 Z-0.74510 I0.00396 J0.00000
G3 X3.74604 Y-3.30000 Z-0.75294 I0.00396 J0.00000
G3 X3.74604 Y-3.30000 Z-0.76078 I0.00396 J0.00000
G3 X3.74604 Y-3.30000 Z-0.76863 I0.00396 J0.00000
G3 X3.74604 Y-3.30000 Z-0.77647 I0.00396 J0.00000
G3 X3.74604 Y-3.30000 Z-0.78431 I0.00396 J0.00000
G3 X3.74604 Y-3.30000 Z-0.79216 I0.00396 J0.00000
G3 X3.74604 Y-3.30000 Z-0.80000 I0.00396 J0.00000
G3 X3.74604 Y-3.30000 Z-0.80784 I0.00396 J0.00000
G3 X3.74604 Y-3.30000 Z-0.81569 I0.00396 J0.00000
G3 X3.74604 Y-3.30000 Z-0.82353 I0.00396 J0.00000
G3 X3.74604 Y-3.30000 Z-0.83137 I0.00396 J0.00000
G3 X3.74604 Y-3.30000 Z-0.83922 I0.00396 J0.00000
G3 X3.74604 Y-3.30000 Z-0.84706 I0.00396 J0.00000
G3 X3.74604 Y-3.30000 Z-0.85490 I0.00396 J0.00000
G3 X3.74604 Y-3.30000 Z-0.86275 I0.00396 J0.00000
G3 X3.74604 Y-3.30000 Z-0.87059 I0.00396 J0.00000
G3 X3.74604 Y-3.30000 Z-0.87843 I0.00396 J0.00000
G3 X3.74604 Y-3.30000 Z-0.88627 I0.00396 J0.00000
G3 X3.74604 Y-3.30000 Z-0.89412 I0.00396 J0.00000
G3 X3.74604 Y-3.30000 Z-0.90196 I0.00396 J0.00000
G3 X3.74604 Y-3.30000 Z-0.90980 I0.00396 J0.00000
G3 X3.74604 Y-3.30000 Z-0.91765 I0.00396 J0.00000
G3 X3.74604 Y-3.30000 Z-0.92549 I0.00396 J0.00000
G3 X3.74604 Y-3.30000 Z-0.93333 I0.00396 J0.00000
G3 X3.74604 Y-3.30000 Z-0.94118 I0.00396 J0.00000
G3 X3.74604 Y-3.30000 Z-0.94902 I0.00396 J0.00000
G3 X3.74604 Y-3.30000 Z-0.95686 I0.00396 J0.00000
G3 X3.74604 Y-3.30000 Z-0.96471 I0.00396 J0.00000
G3 X3.74604 Y-3.30000 Z-0.97255 I0.00396 J0.00000
G3 X3.74604 Y-3.30000 Z-0.98039 I0.00396 J0.00000
G3 X3.74604 Y-3.30000 Z-0.98824 I0.00396 J0.00000
G3 X3.74604 Y-3.30000 Z-0.99608 I0.00396 J0.00000
G3 X3.74604 Y-3.30000 Z-1.00392 I0.00396 J0.00000
G3 X3.74604 Y-3.30000 Z-1.01176 I0.00396 J0.00000
G3 X3.74604 Y-3.30000 Z-1.01961 I0.00396 J0.00000
G3 X3.74604 Y-3.30000 Z-1.02745 I0.00396 J0.00000
G3 X3.74604 Y-3.30000 Z-1.03529 I0.00396 J0.00000
G3 X3.74604 Y-3.30000 Z-1.04314 I0.00396 J0.00000
G3 X3.74604 Y-3.30000 Z-1.05098 I0.00396 J0.00000
G3 X3.74604 Y-3.30000 Z-1.05882 I0.00396 J0.00000
G3 X3.74604 Y-3.30000 Z-1.06667 I0.00396 J0.00000
G3 X3.74604 Y-3.30000 Z-1.07451 I0.00396 J0.00000
G3 X3.74604 Y-3.30000 Z-1.08235 I0.00396 J0.00000
G3 X3.74604 Y-3.30000 Z-1.09020 I0.00396 J0.00000
G3 X3.74604 Y-3.30000 Z-1.09804 I0.00396 J0.00000
G3 X3.74604 Y-3.30000 Z-1.10588 I0.00396 J0.00000
G3 X3.74604 Y-3.30000 Z-1.11373 I0.00396 J0.00000
G3 X3.74604 Y-3.30000 Z-1.12157 I0.00396 J0.00000
G3 X3.74604 Y-3.30000 Z-1.12941 I0.00396 J0.00000
G3 X3.74604 Y-3.30000 Z-1.13725 I0.00396 J0.00000
G3 X3.74604 Y-3.30000 Z-1.14510 I0.00396 J0.00000
G3 X3.74604 Y-3.30000 Z-1.15294 I0.00396 J0.00000
G3 X3.74604 Y-3.30000 Z-1.16078 I0.00396 J0.00000
G3 X3.74604 Y-3.30000 Z-1.16863 I0.00396 J0.00000
G3 X3.74604 Y-3.30000 Z-1.17647 I0.00396 J0.00000
G3 X3.74604 Y-3.30000 Z-1.18431 I0.00396 J0.00000
G3 X3.74604 Y-3.30000 Z-1.19216 I0.00396 J0.00000
G3 X3.74604 Y-3.30000 Z-1.20000 I0.00396 J0.00000
G3 X3.74604 Y-3.30000 Z-1.20784 I0.00396 J0.00000
G3 X3.74604 Y-3.30000 Z-1.21569 I0.00396 J0.00000
G3 X3.74604 Y-3.30000 Z-1.22353 I0.00396 J0.00000
G3 X3.74604 Y-3.30000 Z-1.23137 I0.00396 J0.00000
G3 X3.74604 Y-3.30000 Z-1.23922 I0.00396 J0.00000
G3 X3.74604 Y-3.30000 Z-1.24706 I0.00396 J0.00000
G3 X3.74604 Y-3.30000 Z-1.25490 I0.00396 J0.00000
G3 X3.74604 Y-3.30000 Z-1.26275 I0.00396 J0.00000
G3 X3.74604 Y-3.30000 Z-1.27059 I0.00396 J0.00000
G3 X3.74604 Y-3.30000 Z-1.27843 I0.00396 J0.00000
G3 X3.74604 Y-3.30000 Z-1.28627 I0.00396 J0.00000
G3 X3.74604 Y-3.30000 Z-1.29412 I0.00396 J0.00000
G3 X3.74604 Y-3.30000 Z-1.30196 I0.00396 J0.00000
G3 X3.74604 Y-3.30000 Z-1.30980 I0.00396 J0.00000
G3 X3.74604 Y-3.30000 Z-1.31765 I0.00396 J0.00000
G3 X3.74604 Y-3.30000 Z-1.32549 I0.00396 J0.00000
G3 X3.74604 Y-3.30000 Z-1.33333 I0.00396 J0.00000
G3 X3.74604 Y-3.30000 Z-1.34118 I0.00396 J0.00000
G3 X3.74604 Y-3.30000 Z-1.34902 I0.00396 J0.00000
G3 X3.74604 Y-3.30000 Z-1.35686 I0.00396 J0.00000
G3 X3.74604 Y-3.30000 Z-1.36471 I0.00396 J0.00000
G3 X3.74604 Y-3.30000 Z-1.37255 I0.00396 J0.00000
G3 X3.74604 Y-3.30000 Z-1.38039 I0.00396 J0.00000
G3 X3.74604 Y-3.30000 Z-1.38824 I0.00396 J0.00000
G3 X3.74604 Y-3.30000 Z-1.39608 I0.00396 J0.00000
G3 X3.74604 Y-3.30000 Z-1.40392 I0.00396 J0.00000
G3 X3.74604 Y-3.30000 Z-1.41176 I0.00396 J0.00000
G3 X3.74604 Y-3.30000 Z-1.41961 I0.00396 J0.00000
G3 X3.74604 Y-3.30000 Z-1.42745 I0.00396 J0.00000
G3 X3.74604 Y-3.30000 Z-1.43529 I0.00396 J0.00000
G3 X3.74604 Y-3.30000 Z-1.44314 I0.00396 J0.00000
G3 X3.74604 Y-3.30000 Z-1.45098 I0.00396 J0.00000
G3 X3.74604 Y-3.30000 Z-1.45882 I0.00396 J0.00000
G3 X3.74604 Y-3.30000 Z-1.46667 I0.00396 J0.00000
G3 X3.74604 Y-3.30000 Z-1.47451 I0.00396 J0.00000
G3 X3.74604 Y-3.30000 Z-1.48235 I0.00396 J0.00000
G3 X3.74604 Y-3.30000 Z-1.49020 I0.00396 J0.00000
G3 X3.74604 Y-3.30000 Z-1.49804 I0.00396 J0.00000
G3 X3.74604 Y-3.30000 Z-1.50588 I0.00396 J0.00000
G3 X3.74604 Y-3.30000 Z-1.51373 I0.00396 J0.00000
G3 X3.74604 Y-3.30000 Z-1.52157 I0.00396 J0.00000
G3 X3.74604 Y-3.30000 Z-1.52941 I0.00396 J0.00000
G3 X3.74604 Y-3.30000 Z-1.53725 I0.00396 J0.00000
G3 X3.74604 Y-3.30000 Z-1.54510 I0.00396 J0.00000
G3 X3.74604 Y-3.30000 Z-1.55294 I0.00396 J0.00000
G3 X3.74604 Y-3.30000 Z-1.56078 I0.00396 J0.00000
G3 X3.74604 Y-3.30000 Z-1.56863 I0.00396 J0.00000
G3 X3.74604 Y-3.30000 Z-1.57647 I0.00396 J0.00000
G3 X3.74604 Y-3.30000 Z-1.58431 I0.00396 J0.00000
G3 X3.74604 Y-3.30000 Z-1.59216 I0.00396 J0.00000
G3 X3.74604 Y-3.30000 Z-1.60000 I0.00396 J0.00000
G3 X3.74604 Y-3.30000 I0.00396 J0.00000
G0 Z0.08000

G0 X3.84604 Y-3.30000
G1 Z0.00784 F100.00000
G3 X3.84604 Y-3.30000 Z-0.00000 I0.00396 J0.00000
G3 X3.84604 Y-3.30000 Z-0.00784 I0.00396 J0.00000
G3 X3.84604 Y-3.30000 Z-0.01569 I0.00396 J0.00000
G3 X3.84604 Y-3.30000 Z-0.02353 I0.00396 J0.00000
G3 X3.84604 Y-3.30000 Z-0.03137 I0.00396 J0.00000
G3 X3.84604 Y-3.30000 Z-0.03922 I0.00396 J0.00000
G3 X3.84604 Y-3.30000 Z-0.04706 I0.00396 J0.00000
G3 X3.84604 Y-3.30000 Z-0.05490 I0.00396 J0.00000
G3 X3.84604 Y-3.30000 Z-0.06275 I0.00396 J0.00000
G3 X3.84604 Y-3.30000 Z-0.07059 I0.00396 J0.00000
G3 X3.84604 Y-3.30000 Z-0.07843 I0.00396 J0.00000
G3 X3.84604 Y-3.30000 Z-0.08627 I0.00396 J0.00000
G3 X3.84604 Y-3.30000 Z-0.09412 I0.00396 J0.00000
G3 X3.84604 Y-3.30000 Z-0.10196 I0.00396 J0.00000
G3 X3.84604 Y-3.30000 Z-0.10980 I0.00396 J0.00000
G3 X3.84604 Y-3.30000 Z-0.11765 I0.00396 J0.00000
G3 X3.84604 Y-3.30000 Z-0.12549 I0.00396 J0.00000
G3 X3.84604 Y-3.30000 Z-0.13333 I0.00396 J0.00000
G3 X3.84604 Y-3.30000 Z-0.14118 I0.00396 J0.00000
G3 X3.84604 Y-3.30000 Z-0.14902 I0.00396 J0.00000
G3 X3.84604 Y-3.30000 Z-0.15686 I0.00396 J0.00000
G3 X3.84604 Y-3.30000 Z-0.16471 I0.00396 J0.00000
G3 X3.84604 Y-3.30000 Z-0.17255 I0.00396 J0.00000
G3 X3.84604 Y-3.30000 Z-0.18039 I0.00396 J0.00000
G3 X3.84604 Y-3.30000 Z-0.18824 I0.00396 J0.00000
G3 X3.84604 Y-3.30000 Z-0.19608 I0.00396 J0.00000
G3 X3.84604 Y-3.30000 Z-0.20392 I0.00396 J0.00000
G3 X3.84604 Y-3.30000 Z-0.21176 I0.00396 J0.00000
G3 X3.84604 Y-3.30000 Z-0.21961 I0.00396 J0.00000
G3 X3.84604 Y-3.30000 Z-0.22745 I0.00396 J0.00000
G3 X3.84604 Y-3.30000 Z-0.23529 I0.00396 J0.00000
G3 X3.84604 Y-3.30000 Z-0.24314 I0.00396 J0.00000
G3 X3.84604 Y-3.30000 Z-0.25098 I0.00396 J0.00000
G3 X3.84604 Y-3.30000 Z-0.25882 I0.00396 J0.00000
G3 X3.84604 Y-3.30000 Z-0.26667 I0.00396 J0.00000
G3 X3.84604 Y-3.30000 Z-0.27451 I0.00396 J0.00000
G3 X3.84604 Y-3.30000 Z-0.28235 I0.00396 J0.00000
G3 X3.84604 Y-3.30000 Z-0.29020 I0.00396 J0.00000
G3 X3.84604 Y-3.30000 Z-0.29804 I0.00396 J0.00000
G3 X3.84604 Y-3.30000 Z-0.30588 I0.00396 J0.00000
G3 X3.84604 Y-3.30000 Z-0.31373 I0.00396 J0.00000
G3 X3.84604 Y-3.30000 Z-0.32157 I0.00396 J0.00000
G3 X3.84604 Y-3.30000 Z-0.32941 I0.00396 J0.00000
G3 X3.84604 Y-3.30000 Z-0.33725 I0.00396 J0.00000
G3 X3.84604 Y-3.30000 Z-0.34510 I0.00396 J0.00000
G3 X3.84604 Y-3.30000 Z-0.35294 I0.00396 J0.00000
G3 X3.84604 Y-3.30000 Z-0.36078 I0.00396 J0.00000
G3 X3.84604 Y-3.30000 Z-0.36863 I0.00396 J0.00000
G3 X3.84604 Y-3.30000 Z-0.37647 I0.00396 J0.00000
G3 X3.84604 Y-3.30000 Z-0.38431 I0.00396 J0.00000
G3 X3.84604 Y-3.30000 Z-0.39216 I0.00396 J0.00000
G3 X3.84604 Y-3.30000 Z-0.40000 I0.00396 J0.00000
G3 X3.84604 Y-3.30000 Z-0.40784 I0.00396 J0.00000
G3 X3.84604 Y-3.30000 Z-0.41569 I0.00396 J0.00000
G3 X3.84604 Y-3.30000 Z-0.42353 I0.00396 J0.00000
G3 X3.84604 Y-3.30000 Z-0.43137 I0.00396 J0.00000
G3 X3.84604 Y-3.30000 Z-0.43922 I0.00396 J0.00000
G3 X3.84604 Y-3.30000 Z-0.44706 I0.00396 J0.00000
G3 X3.84604 Y-3.30000 Z-0.45490 I0.00396 J0.00000
G3 X3.84604 Y-3.30000 Z-0.46275 I0.00396 J0.00000
G3 X3.84604 Y-3.30000 Z-0.47059 I0.00396 J0.00000
G3 X3.84604 Y-3.30000 Z-0.47843 I0.00396 J0.00000
G3 X3.84604 Y-3.30000 Z-0.48627 I0.00396 J0.00000
G3 X3.84604 Y-3.30000 Z-0.49412 I0.00396 J0.00000
G3 X3.84604 Y-3.30000 Z-0.50196 I0.00396 J0.00000
G3 X3.84604 Y-3.30000 Z-0.50980 I0.00396 J0.00000
G3 X3.84604 Y-3.30000 Z-0.51765 I0.00396 J0.00000
G3 X3.84604 Y-3.30000 Z-0.52549 I0.00396 J0.00000
G3 X3.84604 Y-3.30000 Z-0.53333 I0.00396 J0.00000
G3 X3.84604 Y-3.30000 Z-0.54118 I0.00396 J0.00000
G3 X3.84604 Y-3.30000 Z-0.54902 I0.00396 J0.00000
G3 X3.84604 Y-3.30000 Z-0.55686 I0.00396 J0.00000
G3 X3.84604 Y-3.30000 Z-0.56471 I0.00396 J0.00000
G3 X3.84604 Y-3.30000 Z-0.57255 I0.00396 J0.00000
G3 X3.84604 Y-3.30000 Z-0.58039 I0.00396 J0.00000
G3 X3.84604 Y-3.30000 Z-0.58824 I0.00396 J0.00000
G3 X3.84604 Y-3.30000 Z-0.59608 I0.00396 J0.00000
G3 X3.84604 Y-3.30000 Z-0.60392 I0.00396 J0.00000
G3 X3.84604 Y-3.30000 Z-0.61176 I0.00396 J0.00000
G3 X3.84604 Y-3.30000 Z-0.61961 I0.00396 J0.00000
G3 X3.84604 Y-3.30000 Z-0.62745 I0.00396 J0.00000
G3 X3.84604 Y-3.30000 Z-0.63529 I0.00396 J0.00000
G3 X3.84604 Y-3.30000 Z-0.64314 I0.00396 J0.00000
G3 X3.84604 Y-3.30000 Z-0.65098 I0.00396 J0.00000
G3 X3.84604 Y-3.30000 Z-0.65882 I0.00396 J0.00000
G3 X3.84604 Y-3.30000 Z-0.66667 I0.00396 J0.00000
G3 X3.84604 Y-3.30000 Z-0.67451 I0.00396 J0.00000
G3 X3.84604 Y-3.30000 Z-0.68235 I0.00396 J0.00000
G3 X3.84604 Y-3.30000 Z-0.69020 I0.00396 J0.00000
G3 X3.84604 Y-3.30000 Z-0.69804 I0.00396 J0.00000
G3 X3.84604 Y-3.30000 Z-0.70588 I0.00396 J0.00000
G3 X3.84604 Y-3.30000 Z-0.71373 I0.00396 J0.00000
G3 X3.84604 Y-3.30000 Z-0.72157 I0.00396 J0.00000
G3 X3.84604 Y-3.30000 Z-0.72941 I0.00396 J0.00000
G3 X3.84604 Y-3.30000 Z-0.73725 I0.00396 J0.00000
G3 X3.84604 Y-3.30000 Z-0.74510 I0.00396 J0.00000
G3 X3.84604 Y-3.30000 Z-0.75294 I0.00396 J0.00000
G3 X3.84604 Y-3.30000 Z-0.76078 I0.00396 J0.00000
G3 X3.84604 Y-3.30000 Z-0.76863 I0.00396 J0.00000
G3 X3.84604 Y-3.30000 Z-0.77647 I0.00396 J0.00000
G3 X3.84604 Y-3.30000 Z-0.78431 I0.00396 J0.00000
G3 X3.84604 Y-3.30000 Z-0.79216 I0.00396 J0.00000
G3 X3.84604 Y-3.30000 Z-0.80000 I0.00396 J0.00000
G3 X3.84604 Y-3.30000 Z-0.80784 I0.00396 J0.00000
G3 X3.84604 Y-3.30000 Z-0.81569 I0.00396 J0.00000
G3 X3.84604 Y-3.30000 Z-0.82353 I0.00396 J0.00000
G3 X3.84604 Y-3.30000 Z-0.83137 I0.00396 J0.00000
G3 X3.84604 Y-3.30000 Z-0.83922 I0.00396 J0.00000
G3 X3.84604 Y-3.30000 Z-0.84706 I0.00396 J0.00000
G3 X3.84604 Y-3.30000 Z-0.85490 I0.00396 J0.00000
G3 X3.84604 Y-3.30000 Z-0.86275 I0.00396 J0.00000
G3 X3.84604 Y-3.30000 Z-0.87059 I0.00396 J0.00000
G3 X3.84604 Y-3.30000 Z-0.87843 I0.00396 J0.00000
G3 X3.84604 Y-3.30000 Z-0.88627 I0.00396 J0.00000
G3 X3.84604 Y-3.30000 Z-0.89412 I0.00396 J0.00000
G3 X3.84604 Y-3.30000 Z-0.90196 I0.00396 J0.00000
G3 X3.84604 Y-3.30000 Z-0.90980 I0.00396 J0.00000
G3 X3.84604 Y-3.30000 Z-0.91765 I0.00396 J0.00000
G3 X3.84604 Y-3.30000 Z-0.92549 I0.00396 J0.00000
G3 X3.84604 Y-3.30000 Z-0.93333 I0.00396 J0.00000
G3 X3.84604 Y-3.30000 Z-0.94118 I0.00396 J0.00000
G3 X3.84604 Y-3.30000 Z-0.94902 I0.00396 J0.00000
G3 X3.84604 Y-3.30000 Z-0.95686 I0.00396 J0.00000
G3 X3.84604 Y-3.30000 Z-0.96471 I0.00396 J0.00000
G3 X3.84604 Y-3.30000 Z-0.97255 I0.00396 J0.00000
G3 X3.84604 Y-3.30000 Z-0.98039 I0.00396 J0.00000
G3 X3.84604 Y-3.30000 Z-0.98824 I0.00396 J0.00000
G3 X3.84604 Y-3.30000 Z-0.99608 I0.00396 J0.00000
G3 X3.84604 Y-3.30000 Z-1.00392 I0.00396 J0.00000
G3 X3.84604 Y-3.30000 Z-1.01176 I0.00396 J0.00000
G3 X3.84604 Y-3.30000 Z-1.01961 I0.00396 J0.00000
G3 X3.84604 Y-3.30000 Z-1.02745 I0.00396 J0.00000
G3 X3.84604 Y-3.30000 Z-1.03529 I0.00396 J0.00000
G3 X3.84604 Y-3.30000 Z-1.04314 I0.00396 J0.00000
G3 X3.84604 Y-3.30000 Z-1.05098 I0.00396 J0.00000
G3 X3.84604 Y-3.30000 Z-1.05882 I0.00396 J0.00000
G3 X3.84604 Y-3.30000 Z-1.06667 I0.00396 J0.00000
G3 X3.84604 Y-3.30000 Z-1.07451 I0.00396 J0.00000
G3 X3.84604 Y-3.30000 Z-1.08235 I0.00396 J0.00000
G3 X3.84604 Y-3.30000 Z-1.09020 I0.00396 J0.00000
G3 X3.84604 Y-3.30000 Z-1.09804 I0.00396 J0.00000
G3 X3.84604 Y-3.30000 Z-1.10588 I0.00396 J0.00000
G3 X3.84604 Y-3.30000 Z-1.11373 I0.00396 J0.00000
G3 X3.84604 Y-3.30000 Z-1.12157 I0.00396 J0.00000
G3 X3.84604 Y-3.30000 Z-1.12941 I0.00396 J0.00000
G3 X3.84604 Y-3.30000 Z-1.13725 I0.00396 J0.00000
G3 X3.84604 Y-3.30000 Z-1.14510 I0.00396 J0.00000
G3 X3.84604 Y-3.30000 Z-1.15294 I0.00396 J0.00000
G3 X3.84604 Y-3.30000 Z-1.16078 I0.00396 J0.00000
G3 X3.84604 Y-3.30000 Z-1.16863 I0.00396 J0.00000
G3 X3.84604 Y-3.30000 Z-1.17647 I0.00396 J0.00000
G3 X3.84604 Y-3.30000 Z-1.18431 I0.00396 J0.00000
G3 X3.84604 Y-3.30000 Z-1.19216 I0.00396 J0.00000
G3 X3.84604 Y-3.30000 Z-1.20000 I0.00396 J0.00000
G3 X3.84604 Y-3.30000 Z-1.20784 I0.00396 J0.00000
G3 X3.84604 Y-3.30000 Z-1.21569 I0.00396 J0.00000
G3 X3.84604 Y-3.30000 Z-1.22353 I0.00396 J0.00000
G3 X3.84604 Y-3.30000 Z-1.23137 I0.00396 J0.00000
G3 X3.84604 Y-3.30000 Z-1.23922 I0.00396 J0.00000
G3 X3.84604 Y-3.30000 Z-1.24706 I0.00396 J0.00000
G3 X3.84604 Y-3.30000 Z-1.25490 I0.00396 J0.00000
G3 X3.84604 Y-3.30000 Z-1.26275 I0.00396 J0.00000
G3 X3.84604 Y-3.30000 Z-1.27059 I0.00396 J0.00000
G3 X3.84604 Y-3.30000 Z-1.27843 I0.00396 J0.00000
G3 X3.84604 Y-3.30000 Z-1.28627 I0.00396 J0.00000
G3 X3.84604 Y-3.30000 Z-1.29412 I0.00396 J0.00000
G3 X3.84604 Y-3.30000 Z-1.30196 I0.00396 J0.00000
G3 X3.84604 Y-3.30000 Z-1.30980 I0.00396 J0.00000
G3 X3.84604 Y-3.30000 Z-1.31765 I0.00396 J0.00000
G3 X3.84604 Y-3.30000 Z-1.32549 I0.00396 J0.00000
G3 X3.84604 Y-3.30000 Z-1.33333 I0.00396 J0.00000
G3 X3.84604 Y-3.30000 Z-1.34118 I0.00396 J0.00000
G3 X3.84604 Y-3.30000 Z-1.34902 I0.00396 J0.00000
G3 X3.84604 Y-3.30000 Z-1.35686 I0.00396 J0.00000
G3 X3.84604 Y-3.30000 Z-1.36471 I0.00396 J0.00000
G3 X3.84604 Y-3.30000 Z-1.37255 I0.00396 J0.00000
G3 X3.84604 Y-3.30000 Z-1.38039 I0.00396 J0.00000
G3 X3.84604 Y-3.30000 Z-1.38824 I0.00396 J0.00000
G3 X3.84604 Y-3.30000 Z-1.39608 I0.00396 J0.00000
G3 X3.84604 Y-3.30000 Z-1.40392 I0.00396 J0.00000
G3 X3.84604 Y-3.30000 Z-1.41176 I0.00396 J0.00000
G3 X3.84604 Y-3.30000 Z-1.41961 I0.00396 J0.00000
G3 X3.84604 Y-3.30000 Z-1.42745 I0.00396 J0.00000
G3 X3.84604 Y-3.30000 Z-1.43529 I0.00396 J0.00000
G3 X3.84604 Y-3.30000 Z-1.44314 I0.00396 J0.00000
G3 X3.84604 Y-3.30000 Z-1.45098 I0.00396 J0.00000
G3 X3.84604 Y-3.30000 Z-1.45882 I0.00396 J0.00000
G3 X3.84604 Y-3.30000 Z-1.46667 I0.00396 J0.00000
G3 X3.84604 Y-3.30000 Z-1.47451 I0.00396 J0.00000
G3 X3.84604 Y-3.30000 Z-1.48235 I0.00396 J0.00000
G3 X3.84604 Y-3.30000 Z-1.49020 I0.00396 J0.00000
G3 X3.84604 Y-3.30000 Z-1.49804 I0.00396 J0.00000
G3 X3.84604 Y-3.30000 Z-1.50588 I0.00396 J0.00000
G3 X3.84604 Y-3.30000 Z-1.51373 I0.00396 J0.00000
G3 X3.84604 Y-3.30000 Z-1.52157 I0.00396 J0.00000
G3 X3.84604 Y-3.30000 Z-1.52941 I0.00396 J0.00000
G3 X3.84604 Y-3.30000 Z-1.53725 I0.00396 J0.00000
G3 X3.84604 Y-3.30000 Z-1.54510 I0.00396 J0.00000
G3 X3.84604 Y-3.30000 Z-1.55294 I0.00396 J0.00000
G3 X3.84604 Y-3.30000 Z-1.56078 I0.00396 J0.00000
G3 X3.84604 Y-3.30000 Z-1.56863 I0.00396 J0.00000
G3 X3.84604 Y-3.30000 Z-1.57647 I0.00396 J0.00000
G3 X3.84604 Y-3.30000 Z-1.58431 I0.00396 J0.00000
G3 X3.84604 Y-3.30000 Z-1.59216 I0.00396 J0.00000
G3 X3.84604 Y-3.30000 Z-1.60000 I0.00396 J0.00000
G3 X3.84604 Y-3.30000 I0.00396 J0.00000
G0 Z0.08000

G0 X4.04604 Y-3.30000
G1 Z0.00784 F100.00000
G3 X4.04604 Y-3.30000 Z-0.00000 I0.00396 J0.00000
G3 X4.04604 Y-3.30000 Z-0.00784 I0.00396 J0.00000
G3 X4.04604 Y-3.30000 Z-0.01569 I0.00396 J0.00000
G3 X4.04604 Y-3.30000 Z-0.02353 I0.00396 J0.00000
G3 X4.04604 Y-3.30000 Z-0.03137 I0.00396 J0.00000
G3 X4.04604 Y-3.30000 Z-0.03922 I0.00396 J0.00000
G3 X4.04604 Y-3.30000 Z-0.04706 I0.00396 J0.00000
G3 X4.04604 Y-3.30000 Z-0.05490 I0.00396 J0.00000
G3 X4.04604 Y-3.30000 Z-0.06275 I0.00396 J0.00000
G3 X4.04604 Y-3.30000 Z-0.07059 I0.00396 J0.00000
G3 X4.04604 Y-3.30000 Z-0.07843 I0.00396 J0.00000
G3 X4.04604 Y-3.30000 Z-0.08627 I0.00396 J0.00000
G3 X4.04604 Y-3.30000 Z-0.09412 I0.00396 J0.00000
G3 X4.04604 Y-3.30000 Z-0.10196 I0.00396 J0.00000
G3 X4.04604 Y-3.30000 Z-0.10980 I0.00396 J0.00000
G3 X4.04604 Y-3.30000 Z-0.11765 I0.00396 J0.00000
G3 X4.04604 Y-3.30000 Z-0.12549 I0.00396 J0.00000
G3 X4.04604 Y-3.30000 Z-0.13333 I0.00396 J0.00000
G3 X4.04604 Y-3.30000 Z-0.14118 I0.00396 J0.00000
G3 X4.04604 Y-3.30000 Z-0.14902 I0.00396 J0.00000
G3 X4.04604 Y-3.30000 Z-0.15686 I0.00396 J0.00000
G3 X4.04604 Y-3.30000 Z-0.16471 I0.00396 J0.00000
G3 X4.04604 Y-3.30000 Z-0.17255 I0.00396 J0.00000
G3 X4.04604 Y-3.30000 Z-0.18039 I0.00396 J0.00000
G3 X4.04604 Y-3.30000 Z-0.18824 I0.00396 J0.00000
G3 X4.04604 Y-3.30000 Z-0.19608 I0.00396 J0.00000
G3 X4.04604 Y-3.30000 Z-0.20392 I0.00396 J0.00000
G3 X4.04604 Y-3.30000 Z-0.21176 I0.00396 J0.00000
G3 X4.04604 Y-3.30000 Z-0.21961 I0.00396 J0.00000
G3 X4.04604 Y-3.30000 Z-0.22745 I0.00396 J0.00000
G3 X4.04604 Y-3.30000 Z-0.23529 I0.00396 J0.00000
G3 X4.04604 Y-3.30000 Z-0.24314 I0.00396 J0.00000
G3 X4.04604 Y-3.30000 Z-0.25098 I0.00396 J0.00000
G3 X4.04604 Y-3.30000 Z-0.25882 I0.00396 J0.00000
G3 X4.04604 Y-3.30000 Z-0.26667 I0.00396 J0.00000
G3 X4.04604 Y-3.30000 Z-0.27451 I0.00396 J0.00000
G3 X4.04604 Y-3.30000 Z-0.28235 I0.00396 J0.00000
G3 X4.04604 Y-3.30000 Z-0.29020 I0.00396 J0.00000
G3 X4.04604 Y-3.30000 Z-0.29804 I0.00396 J0.00000
G3 X4.04604 Y-3.30000 Z-0.30588 I0.00396 J0.00000
G3 X4.04604 Y-3.30000 Z-0.31373 I0.00396 J0.00000
G3 X4.04604 Y-3.30000 Z-0.32157 I0.00396 J0.00000
G3 X4.04604 Y-3.30000 Z-0.32941 I0.00396 J0.00000
G3 X4.04604 Y-3.30000 Z-0.33725 I0.00396 J0.00000
G3 X4.04604 Y-3.30000 Z-0.34510 I0.00396 J0.00000
G3 X4.04604 Y-3.30000 Z-0.35294 I0.00396 J0.00000
G3 X4.04604 Y-3.30000 Z-0.36078 I0.00396 J0.00000
G3 X4.04604 Y-3.30000 Z-0.36863 I0.00396 J0.00000
G3 X4.04604 Y-3.30000 Z-0.37647 I0.00396 J0.00000
G3 X4.04604 Y-3.30000 Z-0.38431 I0.00396 J0.00000
G3 X4.04604 Y-3.30000 Z-0.39216 I0.00396 J0.00000
G3 X4.04604 Y-3.30000 Z-0.40000 I0.00396 J0.00000
G3 X4.04604 Y-3.30000 Z-0.40784 I0.00396 J0.00000
G3 X4.04604 Y-3.30000 Z-0.41569 I0.00396 J0.00000
G3 X4.04604 Y-3.30000 Z-0.42353 I0.00396 J0.00000
G3 X4.04604 Y-3.30000 Z-0.43137 I0.00396 J0.00000
G3 X4.04604 Y-3.30000 Z-0.43922 I0.00396 J0.00000
G3 X4.04604 Y-3.30000 Z-0.44706 I0.00396 J0.00000
G3 X4.04604 Y-3.30000 Z-0.45490 I0.00396 J0.00000
G3 X4.04604 Y-3.30000 Z-0.46275 I0.00396 J0.00000
G3 X4.04604 Y-3.30000 Z-0.47059 I0.00396 J0.00000
G3 X4.04604 Y-3.30000 Z-0.47843 I0.00396 J0.00000
G3 X4.04604 Y-3.30000 Z-0.48627 I0.00396 J0.00000
G3 X4.04604 Y-3.30000 Z-0.49412 I0.00396 J0.00000
G3 X4.04604 Y-3.30000 Z-0.50196 I0.00396 J0.00000
G3 X4.04604 Y-3.30000 Z-0.50980 I0.00396 J0.00000
G3 X4.04604 Y-3.30000 Z-0.51765 I0.00396 J0.00000
G3 X4.04604 Y-3.30000 Z-0.52549 I0.00396 J0.00000
G3 X4.04604 Y-3.30000 Z-0.53333 I0.00396 J0.00000
G3 X4.04604 Y-3.30000 Z-0.54118 I0.00396 J0.00000
G3 X4.04604 Y-3.30000 Z-0.54902 I0.00396 J0.00000
G3 X4.04604 Y-3.30000 Z-0.55686 I0.00396 J0.00000
G3 X4.04604 Y-3.30000 Z-0.56471 I0.00396 J0.00000
G3 X4.04604 Y-3.30000 Z-0.57255 I0.00396 J0.00000
G3 X4.04604 Y-3.30000 Z-0.58039 I0.00396 J0.00000
G3 X4.04604 Y-3.30000 Z-0.58824 I0.00396 J0.00000
G3 X4.04604 Y-3.30000 Z-0.59608 I0.00396 J0.00000
G3 X4.04604 Y-3.30000 Z-0.60392 I0.00396 J0.00000
G3 X4.04604 Y-3.30000 Z-0.61176 I0.00396 J0.00000
G3 X4.04604 Y-3.30000 Z-0.61961 I0.00396 J0.00000
G3 X4.04604 Y-3.30000 Z-0.62745 I0.00396 J0.00000
G3 X4.04604 Y-3.30000 Z-0.63529 I0.00396 J0.00000
G3 X4.04604 Y-3.30000 Z-0.64314 I0.00396 J0.00000
G3 X4.04604 Y-3.30000 Z-0.65098 I0.00396 J0.00000
G3 X4.04604 Y-3.30000 Z-0.65882 I0.00396 J0.00000
G3 X4.04604 Y-3.30000 Z-0.66667 I0.00396 J0.00000
G3 X4.04604 Y-3.30000 Z-0.67451 I0.00396 J0.00000
G3 X4.04604 Y-3.30000 Z-0.68235 I0.00396 J0.00000
G3 X4.04604 Y-3.30000 Z-0.69020 I0.00396 J0.00000
G3 X4.04604 Y-3.30000 Z-0.69804 I0.00396 J0.00000
G3 X4.04604 Y-3.30000 Z-0.70588 I0.00396 J0.00000
G3 X4.04604 Y-3.30000 Z-0.71373 I0.00396 J0.00000
G3 X4.04604 Y-3.30000 Z-0.72157 I0.00396 J0.00000
G3 X4.04604 Y-3.30000 Z-0.72941 I0.00396 J0.00000
G3 X4.04604 Y-3.30000 Z-0.73725 I0.00396 J0.00000
G3 X4.04604 Y-3.30000 Z-0.74510 I0.00396 J0.00000
G3 X4.04604 Y-3.30000 Z-0.75294 I0.00396 J0.00000
G3 X4.04604 Y-3.30000 Z-0.76078 I0.00396 J0.00000
G3 X4.04604 Y-3.30000 Z-0.76863 I0.00396 J0.00000
G3 X4.04604 Y-3.30000 Z-0.77647 I0.00396 J0.00000
G3 X4.04604 Y-3.30000 Z-0.78431 I0.00396 J0.00000
G3 X4.04604 Y-3.30000 Z-0.79216 I0.00396 J0.00000
G3 X4.04604 Y-3.30000 Z-0.80000 I0.00396 J0.00000
G3 X4.04604 Y-3.30000 Z-0.80784 I0.00396 J0.00000
G3 X4.04604 Y-3.30000 Z-0.81569 I0.00396 J0.00000
G3 X4.04604 Y-3.30000 Z-0.82353 I0.00396 J0.00000
G3 X4.04604 Y-3.30000 Z-0.83137 I0.00396 J0.00000
G3 X4.04604 Y-3.30000 Z-0.83922 I0.00396 J0.00000
G3 X4.04604 Y-3.30000 Z-0.84706 I0.00396 J0.00000
G3 X4.04604 Y-3.30000 Z-0.85490 I0.00396 J0.00000
G3 X4.04604 Y-3.30000 Z-0.86275 I0.00396 J0.00000
G3 X4.04604 Y-3.30000 Z-0.87059 I0.00396 J0.00000
G3 X4.04604 Y-3.30000 Z-0.87843 I0.00396 J0.00000
G3 X4.04604 Y-3.30000 Z-0.88627 I0.00396 J0.00000
G3 X4.04604 Y-3.30000 Z-0.89412 I0.00396 J0.00000
G3 X4.04604 Y-3.30000 Z-0.90196 I0.00396 J0.00000
G3 X4.04604 Y-3.30000 Z-0.90980 I0.00396 J0.00000
G3 X4.04604 Y-3.30000 Z-0.91765 I0.00396 J0.00000
G3 X4.04604 Y-3.30000 Z-0.92549 I0.00396 J0.00000
G3 X4.04604 Y-3.30000 Z-0.93333 I0.00396 J0.00000
G3 X4.04604 Y-3.30000 Z-0.94118 I0.00396 J0.00000
G3 X4.04604 Y-3.30000 Z-0.94902 I0.00396 J0.00000
G3 X4.04604 Y-3.30000 Z-0.95686 I0.00396 J0.00000
G3 X4.04604 Y-3.30000 Z-0.96471 I0.00396 J0.00000
G3 X4.04604 Y-3.30000 Z-0.97255 I0.00396 J0.00000
G3 X4.04604 Y-3.30000 Z-0.98039 I0.00396 J0.00000
G3 X4.04604 Y-3.30000 Z-0.98824 I0.00396 J0.00000
G3 X4.04604 Y-3.30000 Z-0.99608 I0.00396 J0.00000
G3 X4.04604 Y-3.30000 Z-1.00392 I0.00396 J0.00000
G3 X4.04604 Y-3.30000 Z-1.01176 I0.00396 J0.00000
G3 X4.04604 Y-3.30000 Z-1.01961 I0.00396 J0.00000
G3 X4.04604 Y-3.30000 Z-1.02745 I0.00396 J0.00000
G3 X4.04604 Y-3.30000 Z-1.03529 I0.00396 J0.00000
G3 X4.04604 Y-3.30000 Z-1.04314 I0.00396 J0.00000
G3 X4.04604 Y-3.30000 Z-1.05098 I0.00396 J0.00000
G3 X4.04604 Y-3.30000 Z-1.05882 I0.00396 J0.00000
G3 X4.04604 Y-3.30000 Z-1.06667 I0.00396 J0.00000
G3 X4.04604 Y-3.30000 Z-1.07451 I0.00396 J0.00000
G3 X4.04604 Y-3.30000 Z-1.08235 I0.00396 J0.00000
G3 X4.04604 Y-3.30000 Z-1.09020 I0.00396 J0.00000
G3 X4.04604 Y-3.30000 Z-1.09804 I0.00396 J0.00000
G3 X4.04604 Y-3.30000 Z-1.10588 I0.00396 J0.00000
G3 X4.04604 Y-3.30000 Z-1.11373 I0.00396 J0.00000
G3 X4.04604 Y-3.30000 Z-1.12157 I0.00396 J0.00000
G3 X4.04604 Y-3.30000 Z-1.12941 I0.00396 J0.00000
G3 X4.04604 Y-3.30000 Z-1.13725 I0.00396 J0.00000
G3 X4.04604 Y-3.30000 Z-1.14510 I0.00396 J0.00000
G3 X4.04604 Y-3.30000 Z-1.15294 I0.00396 J0.00000
G3 X4.04604 Y-3.30000 Z-1.16078 I0.00396 J0.00000
G3 X4.04604 Y-3.30000 Z-1.16863 I0.00396 J0.00000
G3 X4.04604 Y-3.30000 Z-1.17647 I0.00396 J0.00000
G3 X4.04604 Y-3.30000 Z-1.18431 I0.00396 J0.00000
G3 X4.04604 Y-3.30000 Z-1.19216 I0.00396 J0.00000
G3 X4.04604 Y-3.30000 Z-1.20000 I0.00396 J0.00000
G3 X4.04604 Y-3.30000 Z-1.20784 I0.00396 J0.00000
G3 X4.04604 Y-3.30000 Z-1.21569 I0.00396 J0.00000
G3 X4.04604 Y-3.30000 Z-1.22353 I0.00396 J0.00000
G3 X4.04604 Y-3.30000 Z-1.23137 I0.00396 J0.00000
G3 X4.04604 Y-3.30000 Z-1.23922 I0.00396 J0.00000
G3 X4.04604 Y-3.30000 Z-1.24706 I0.00396 J0.00000
G3 X4.04604 Y-3.30000 Z-1.25490 I0.00396 J0.00000
G3 X4.04604 Y-3.30000 Z-1.26275 I0.00396 J0.00000
G3 X4.04604 Y-3.30000 Z-1.27059 I0.00396 J0.00000
G3 X4.04604 Y-3.30000 Z-1.27843 I0.00396 J0.00000
G3 X4.04604 Y-3.30000 Z-1.28627 I0.00396 J0.00000
G3 X4.04604 Y-3.30000 Z-1.29412 I0.00396 J0.00000
G3 X4.04604 Y-3.30000 Z-1.30196 I0.00396 J0.00000
G3 X4.04604 Y-3.30000 Z-1.30980 I0.00396 J0.00000
G3 X4.04604 Y-3.30000 Z-1.31765 I0.00396 J0.00000
G3 X4.04604 Y-3.30000 Z-1.32549 I0.00396 J0.00000
G3 X4.04604 Y-3.30000 Z-1.33333 I0.00396 J0.00000
G3 X4.04604 Y-3.30000 Z-1.34118 I0.00396 J0.00000
G3 X4.04604 Y-3.30000 Z-1.34902 I0.00396 J0.00000
G3 X4.04604 Y-3.30000 Z-1.35686 I0.00396 J0.00000
G3 X4.04604 Y-3.30000 Z-1.36471 I0.00396 J0.00000
G3 X4.04604 Y-3.30000 Z-1.37255 I0.00396 J0.00000
G3 X4.04604 Y-3.30000 Z-1.38039 I0.00396 J0.00000
G3 X4.04604 Y-3.30000 Z-1.38824 I0.00396 J0.00000
G3 X4.04604 Y-3.30000 Z-1.39608 I0.00396 J0.00000
G3 X4.04604 Y-3.30000 Z-1.40392 I0.00396 J0.00000
G3 X4.04604 Y-3.30000 Z-1.41176 I0.00396 J0.00000
G3 X4.04604 Y-3.30000 Z-1.41961 I0.00396 J0.00000
G3 X4.04604 Y-3.30000 Z-1.42745 I0.00396 J0.00000
G3 X4.04604 Y-3.30000 Z-1.43529 I0.00396 J0.00000
G3 X4.04604 Y-3.30000 Z-1.44314 I0.00396 J0.00000
G3 X4.04604 Y-3.30000 Z-1.45098 I0.00396 J0.00000
G3 X4.04604 Y-3.30000 Z-1.45882 I0.00396 J0.00000
G3 X4.04604 Y-3.30000 Z-1.46667 I0.00396 J0.00000
G3 X4.04604 Y-3.30000 Z-1.47451 I0.00396 J0.00000
G3 X4.04604 Y-3.30000 Z-1.48235 I0.00396 J0.00000
G3 X4.04604 Y-3.30000 Z-1.49020 I0.00396 J0.00000
G3 X4.04604 Y-3.30000 Z-1.49804 I0.00396 J0.00000
G3 X4.04604 Y-3.30000 Z-1.50588 I0.00396 J0.00000
G3 X4.04604 Y-3.30000 Z-1.51373 I0.00396 J0.00000
G3 X4.04604 Y-3.30000 Z-1.52157 I0.00396 J0.00000
G3 X4.04604 Y-3.30000 Z-1.52941 I0.00396 J0.00000
G3 X4.04604 Y-3.30000 Z-1.53725 I0.00396 J0.00000
G3 X4.04604 Y-3.30000 Z-1.54510 I0.00396 J0.00000
G3 X4.04604 Y-3.30000 Z-1.55294 I0.00396 J0.00000
G3 X4.04604 Y-3.30000 Z-1.56078 I0.00396 J0.00000
G3 X4.04604 Y-3.30000 Z-1.56863 I0.00396 J0.00000
G3 X4.04604 Y-3.30000 Z-1.57647 I0.00396 J0.00000
G3 X4.04604 Y-3.30000 Z-1.58431 I0.00396 J0.00000
G3 X4.04604 Y-3.30000 Z-1.59216 I0.00396 J0.00000
G3 X4.04604 Y-3.30000 Z-1.60000 I0.00396 J0.00000
G3 X4.04604 Y-3.30000 I0.00396 J0.00000
G0 Z0.08000

G0 X4.14604 Y-3.30000
G1 Z0.00784 F100.00000
G3 X4.14604 Y-3.30000 Z-0.00000 I0.00396 J0.00000
G3 X4.14604 Y-3.30000 Z-0.00784 I0.00396 J0.00000
G3 X4.14604 Y-3.30000 Z-0.01569 I0.00396 J0.00000
G3 X4.14604 Y-3.30000 Z-0.02353 I0.00396 J0.00000
G3 X4.14604 Y-3.30000 Z-0.03137 I0.00396 J0.00000
G3 X4.14604 Y-3.30000 Z-0.03922 I0.00396 J0.00000
G3 X4.14604 Y-3.30000 Z-0.04706 I0.00396 J0.00000
G3 X4.14604 Y-3.30000 Z-0.05490 I0.00396 J0.00000
G3 X4.14604 Y-3.30000 Z-0.06275 I0.00396 J0.00000
G3 X4.14604 Y-3.30000 Z-0.07059 I0.00396 J0.00000
G3 X4.14604 Y-3.30000 Z-0.07843 I0.00396 J0.00000
G3 X4.14604 Y-3.30000 Z-0.08627 I0.00396 J0.00000
G3 X4.14604 Y-3.30000 Z-0.09412 I0.00396 J0.00000
G3 X4.14604 Y-3.30000 Z-0.10196 I0.00396 J0.00000
G3 X4.14604 Y-3.30000 Z-0.10980 I0.00396 J0.00000
G3 X4.14604 Y-3.30000 Z-0.11765 I0.00396 J0.00000
G3 X4.14604 Y-3.30000 Z-0.12549 I0.00396 J0.00000
G3 X4.14604 Y-3.30000 Z-0.13333 I0.00396 J0.00000
G3 X4.14604 Y-3.30000 Z-0.14118 I0.00396 J0.00000
G3 X4.14604 Y-3.30000 Z-0.14902 I0.00396 J0.00000
G3 X4.14604 Y-3.30000 Z-0.15686 I0.00396 J0.00000
G3 X4.14604 Y-3.30000 Z-0.16471 I0.00396 J0.00000
G3 X4.14604 Y-3.30000 Z-0.17255 I0.00396 J0.00000
G3 X4.14604 Y-3.30000 Z-0.18039 I0.00396 J0.00000
G3 X4.14604 Y-3.30000 Z-0.18824 I0.00396 J0.00000
G3 X4.14604 Y-3.30000 Z-0.19608 I0.00396 J0.00000
G3 X4.14604 Y-3.30000 Z-0.20392 I0.00396 J0.00000
G3 X4.14604 Y-3.30000 Z-0.21176 I0.00396 J0.00000
G3 X4.14604 Y-3.30000 Z-0.21961 I0.00396 J0.00000
G3 X4.14604 Y-3.30000 Z-0.22745 I0.00396 J0.00000
G3 X4.14604 Y-3.30000 Z-0.23529 I0.00396 J0.00000
G3 X4.14604 Y-3.30000 Z-0.24314 I0.00396 J0.00000
G3 X4.14604 Y-3.30000 Z-0.25098 I0.00396 J0.00000
G3 X4.14604 Y-3.30000 Z-0.25882 I0.00396 J0.00000
G3 X4.14604 Y-3.30000 Z-0.26667 I0.00396 J0.00000
G3 X4.14604 Y-3.30000 Z-0.27451 I0.00396 J0.00000
G3 X4.14604 Y-3.30000 Z-0.28235 I0.00396 J0.00000
G3 X4.14604 Y-3.30000 Z-0.29020 I0.00396 J0.00000
G3 X4.14604 Y-3.30000 Z-0.29804 I0.00396 J0.00000
G3 X4.14604 Y-3.30000 Z-0.30588 I0.00396 J0.00000
G3 X4.14604 Y-3.30000 Z-0.31373 I0.00396 J0.00000
G3 X4.14604 Y-3.30000 Z-0.32157 I0.00396 J0.00000
G3 X4.14604 Y-3.30000 Z-0.32941 I0.00396 J0.00000
G3 X4.14604 Y-3.30000 Z-0.33725 I0.00396 J0.00000
G3 X4.14604 Y-3.30000 Z-0.34510 I0.00396 J0.00000
G3 X4.14604 Y-3.30000 Z-0.35294 I0.00396 J0.00000
G3 X4.14604 Y-3.30000 Z-0.36078 I0.00396 J0.00000
G3 X4.14604 Y-3.30000 Z-0.36863 I0.00396 J0.00000
G3 X4.14604 Y-3.30000 Z-0.37647 I0.00396 J0.00000
G3 X4.14604 Y-3.30000 Z-0.38431 I0.00396 J0.00000
G3 X4.14604 Y-3.30000 Z-0.39216 I0.00396 J0.00000
G3 X4.14604 Y-3.30000 Z-0.40000 I0.00396 J0.00000
G3 X4.14604 Y-3.30000 Z-0.40784 I0.00396 J0.00000
G3 X4.14604 Y-3.30000 Z-0.41569 I0.00396 J0.00000
G3 X4.14604 Y-3.30000 Z-0.42353 I0.00396 J0.00000
G3 X4.14604 Y-3.30000 Z-0.43137 I0.00396 J0.00000
G3 X4.14604 Y-3.30000 Z-0.43922 I0.00396 J0.00000
G3 X4.14604 Y-3.30000 Z-0.44706 I0.00396 J0.00000
G3 X4.14604 Y-3.30000 Z-0.45490 I0.00396 J0.00000
G3 X4.14604 Y-3.30000 Z-0.46275 I0.00396 J0.00000
G3 X4.14604 Y-3.30000 Z-0.47059 I0.00396 J0.00000
G3 X4.14604 Y-3.30000 Z-0.47843 I0.00396 J0.00000
G3 X4.14604 Y-3.30000 Z-0.48627 I0.00396 J0.00000
G3 X4.14604 Y-3.30000 Z-0.49412 I0.00396 J0.00000
G3 X4.14604 Y-3.30000 Z-0.50196 I0.00396 J0.00000
G3 X4.14604 Y-3.30000 Z-0.50980 I0.00396 J0.00000
G3 X4.14604 Y-3.30000 Z-0.51765 I0.00396 J0.00000
G3 X4.14604 Y-3.30000 Z-0.52549 I0.00396 J0.00000
G3 X4.14604 Y-3.30000 Z-0.53333 I0.00396 J0.00000
G3 X4.14604 Y-3.30000 Z-0.54118 I0.00396 J0.00000
G3 X4.14604 Y-3.30000 Z-0.54902 I0.00396 J0.00000
G3 X4.14604 Y-3.30000 Z-0.55686 I0.00396 J0.00000
G3 X4.14604 Y-3.30000 Z-0.56471 I0.00396 J0.00000
G3 X4.14604 Y-3.30000 Z-0.57255 I0.00396 J0.00000
G3 X4.14604 Y-3.30000 Z-0.58039 I0.00396 J0.00000
G3 X4.14604 Y-3.30000 Z-0.58824 I0.00396 J0.00000
G3 X4.14604 Y-3.30000 Z-0.59608 I0.00396 J0.00000
G3 X4.14604 Y-3.30000 Z-0.60392 I0.00396 J0.00000
G3 X4.14604 Y-3.30000 Z-0.61176 I0.00396 J0.00000
G3 X4.14604 Y-3.30000 Z-0.61961 I0.00396 J0.00000
G3 X4.14604 Y-3.30000 Z-0.62745 I0.00396 J0.00000
G3 X4.14604 Y-3.30000 Z-0.63529 I0.00396 J0.00000
G3 X4.14604 Y-3.30000 Z-0.64314 I0.00396 J0.00000
G3 X4.14604 Y-3.30000 Z-0.65098 I0.00396 J0.00000
G3 X4.14604 Y-3.30000 Z-0.65882 I0.00396 J0.00000
G3 X4.14604 Y-3.30000 Z-0.66667 I0.00396 J0.00000
G3 X4.14604 Y-3.30000 Z-0.67451 I0.00396 J0.00000
G3 X4.14604 Y-3.30000 Z-0.68235 I0.00396 J0.00000
G3 X4.14604 Y-3.30000 Z-0.69020 I0.00396 J0.00000
G3 X4.14604 Y-3.30000 Z-0.69804 I0.00396 J0.00000
G3 X4.14604 Y-3.30000 Z-0.70588 I0.00396 J0.00000
G3 X4.14604 Y-3.30000 Z-0.71373 I0.00396 J0.00000
G3 X4.14604 Y-3.30000 Z-0.72157 I0.00396 J0.00000
G3 X4.14604 Y-3.30000 Z-0.72941 I0.00396 J0.00000
G3 X4.14604 Y-3.30000 Z-0.73725 I0.00396 J0.00000
G3 X4.14604 Y-3.30000 Z-0.74510 I0.00396 J0.00000
G3 X4.14604 Y-3.30000 Z-0.75294 I0.00396 J0.00000
G3 X4.14604 Y-3.30000 Z-0.76078 I0.00396 J0.00000
G3 X4.14604 Y-3.30000 Z-0.76863 I0.00396 J0.00000
G3 X4.14604 Y-3.30000 Z-0.77647 I0.00396 J0.00000
G3 X4.14604 Y-3.30000 Z-0.78431 I0.00396 J0.00000
G3 X4.14604 Y-3.30000 Z-0.79216 I0.00396 J0.00000
G3 X4.14604 Y-3.30000 Z-0.80000 I0.00396 J0.00000
G3 X4.14604 Y-3.30000 Z-0.80784 I0.00396 J0.00000
G3 X4.14604 Y-3.30000 Z-0.81569 I0.00396 J0.00000
G3 X4.14604 Y-3.30000 Z-0.82353 I0.00396 J0.00000
G3 X4.14604 Y-3.30000 Z-0.83137 I0.00396 J0.00000
G3 X4.14604 Y-3.30000 Z-0.83922 I0.00396 J0.00000
G3 X4.14604 Y-3.30000 Z-0.84706 I0.00396 J0.00000
G3 X4.14604 Y-3.30000 Z-0.85490 I0.00396 J0.00000
G3 X4.14604 Y-3.30000 Z-0.86275 I0.00396 J0.00000
G3 X4.14604 Y-3.30000 Z-0.87059 I0.00396 J0.00000
G3 X4.14604 Y-3.30000 Z-0.87843 I0.00396 J0.00000
G3 X4.14604 Y-3.30000 Z-0.88627 I0.00396 J0.00000
G3 X4.14604 Y-3.30000 Z-0.89412 I0.00396 J0.00000
G3 X4.14604 Y-3.30000 Z-0.90196 I0.00396 J0.00000
G3 X4.14604 Y-3.30000 Z-0.90980 I0.00396 J0.00000
G3 X4.14604 Y-3.30000 Z-0.91765 I0.00396 J0.00000
G3 X4.14604 Y-3.30000 Z-0.92549 I0.00396 J0.00000
G3 X4.14604 Y-3.30000 Z-0.93333 I0.00396 J0.00000
G3 X4.14604 Y-3.30000 Z-0.94118 I0.00396 J0.00000
G3 X4.14604 Y-3.30000 Z-0.94902 I0.00396 J0.00000
G3 X4.14604 Y-3.30000 Z-0.95686 I0.00396 J0.00000
G3 X4.14604 Y-3.30000 Z-0.96471 I0.00396 J0.00000
G3 X4.14604 Y-3.30000 Z-0.97255 I0.00396 J0.00000
G3 X4.14604 Y-3.30000 Z-0.98039 I0.00396 J0.00000
G3 X4.14604 Y-3.30000 Z-0.98824 I0.00396 J0.00000
G3 X4.14604 Y-3.30000 Z-0.99608 I0.00396 J0.00000
G3 X4.14604 Y-3.30000 Z-1.00392 I0.00396 J0.00000
G3 X4.14604 Y-3.30000 Z-1.01176 I0.00396 J0.00000
G3 X4.14604 Y-3.30000 Z-1.01961 I0.00396 J0.00000
G3 X4.14604 Y-3.30000 Z-1.02745 I0.00396 J0.00000
G3 X4.14604 Y-3.30000 Z-1.03529 I0.00396 J0.00000
G3 X4.14604 Y-3.30000 Z-1.04314 I0.00396 J0.00000
G3 X4.14604 Y-3.30000 Z-1.05098 I0.00396 J0.00000
G3 X4.14604 Y-3.30000 Z-1.05882 I0.00396 J0.00000
G3 X4.14604 Y-3.30000 Z-1.06667 I0.00396 J0.00000
G3 X4.14604 Y-3.30000 Z-1.07451 I0.00396 J0.00000
G3 X4.14604 Y-3.30000 Z-1.08235 I0.00396 J0.00000
G3 X4.14604 Y-3.30000 Z-1.09020 I0.00396 J0.00000
G3 X4.14604 Y-3.30000 Z-1.09804 I0.00396 J0.00000
G3 X4.14604 Y-3.30000 Z-1.10588 I0.00396 J0.00000
G3 X4.14604 Y-3.30000 Z-1.11373 I0.00396 J0.00000
G3 X4.14604 Y-3.30000 Z-1.12157 I0.00396 J0.00000
G3 X4.14604 Y-3.30000 Z-1.12941 I0.00396 J0.00000
G3 X4.14604 Y-3.30000 Z-1.13725 I0.00396 J0.00000
G3 X4.14604 Y-3.30000 Z-1.14510 I0.00396 J0.00000
G3 X4.14604 Y-3.30000 Z-1.15294 I0.00396 J0.00000
G3 X4.14604 Y-3.30000 Z-1.16078 I0.00396 J0.00000
G3 X4.14604 Y-3.30000 Z-1.16863 I0.00396 J0.00000
G3 X4.14604 Y-3.30000 Z-1.17647 I0.00396 J0.00000
G3 X4.14604 Y-3.30000 Z-1.18431 I0.00396 J0.00000
G3 X4.14604 Y-3.30000 Z-1.19216 I0.00396 J0.00000
G3 X4.14604 Y-3.30000 Z-1.20000 I0.00396 J0.00000
G3 X4.14604 Y-3.30000 Z-1.20784 I0.00396 J0.00000
G3 X4.14604 Y-3.30000 Z-1.21569 I0.00396 J0.00000
G3 X4.14604 Y-3.30000 Z-1.22353 I0.00396 J0.00000
G3 X4.14604 Y-3.30000 Z-1.23137 I0.00396 J0.00000
G3 X4.14604 Y-3.30000 Z-1.23922 I0.00396 J0.00000
G3 X4.14604 Y-3.30000 Z-1.24706 I0.00396 J0.00000
G3 X4.14604 Y-3.30000 Z-1.25490 I0.00396 J0.00000
G3 X4.14604 Y-3.30000 Z-1.26275 I0.00396 J0.00000
G3 X4.14604 Y-3.30000 Z-1.27059 I0.00396 J0.00000
G3 X4.14604 Y-3.30000 Z-1.27843 I0.00396 J0.00000
G3 X4.14604 Y-3.30000 Z-1.28627 I0.00396 J0.00000
G3 X4.14604 Y-3.30000 Z-1.29412 I0.00396 J0.00000
G3 X4.14604 Y-3.30000 Z-1.30196 I0.00396 J0.00000
G3 X4.14604 Y-3.30000 Z-1.30980 I0.00396 J0.00000
G3 X4.14604 Y-3.30000 Z-1.31765 I0.00396 J0.00000
G3 X4.14604 Y-3.30000 Z-1.32549 I0.00396 J0.00000
G3 X4.14604 Y-3.30000 Z-1.33333 I0.00396 J0.00000
G3 X4.14604 Y-3.30000 Z-1.34118 I0.00396 J0.00000
G3 X4.14604 Y-3.30000 Z-1.34902 I0.00396 J0.00000
G3 X4.14604 Y-3.30000 Z-1.35686 I0.00396 J0.00000
G3 X4.14604 Y-3.30000 Z-1.36471 I0.00396 J0.00000
G3 X4.14604 Y-3.30000 Z-1.37255 I0.00396 J0.00000
G3 X4.14604 Y-3.30000 Z-1.38039 I0.00396 J0.00000
G3 X4.14604 Y-3.30000 Z-1.38824 I0.00396 J0.00000
G3 X4.14604 Y-3.30000 Z-1.39608 I0.00396 J0.00000
G3 X4.14604 Y-3.30000 Z-1.40392 I0.00396 J0.00000
G3 X4.14604 Y-3.30000 Z-1.41176 I0.00396 J0.00000
G3 X4.14604 Y-3.30000 Z-1.41961 I0.00396 J0.00000
G3 X4.14604 Y-3.30000 Z-1.42745 I0.00396 J0.00000
G3 X4.14604 Y-3.30000 Z-1.43529 I0.00396 J0.00000
G3 X4.14604 Y-3.30000 Z-1.44314 I0.00396 J0.00000
G3 X4.14604 Y-3.30000 Z-1.45098 I0.00396 J0.00000
G3 X4.14604 Y-3.30000 Z-1.45882 I0.00396 J0.00000
G3 X4.14604 Y-3.30000 Z-1.46667 I0.00396 J0.00000
G3 X4.14604 Y-3.30000 Z-1.47451 I0.00396 J0.00000
G3 X4.14604 Y-3.30000 Z-1.48235 I0.00396 J0.00000
G3 X4.14604 Y-3.30000 Z-1.49020 I0.00396 J0.00000
G3 X4.14604 Y-3.30000 Z-1.49804 I0.00396 J0.00000
G3 X4.14604 Y-3.30000 Z-1.50588 I0.00396 J0.00000
G3 X4.14604 Y-3.30000 Z-1.51373 I0.00396 J0.00000
G3 X4.14604 Y-3.30000 Z-1.52157 I0.00396 J0.00000
G3 X4.14604 Y-3.30000 Z-1.52941 I0.00396 J0.00000
G3 X4.14604 Y-3.30000 Z-1.53725 I0.00396 J0.00000
G3 X4.14604 Y-3.30000 Z-1.54510 I0.00396 J0.00000
G3 X4.14604 Y-3.30000 Z-1.55294 I0.00396 J0.00000
G3 X4.14604 Y-3.30000 Z-1.56078 I0.00396 J0.00000
G3 X4.14604 Y-3.30000 Z-1.56863 I0.00396 J0.00000
G3 X4.14604 Y-3.30000 Z-1.57647 I0.00396 J0.00000
G3 X4.14604 Y-3.30000 Z-1.58431 I0.00396 J0.00000
G3 X4.14604 Y-3.30000 Z-1.59216 I0.00396 J0.00000
G3 X4.14604 Y-3.30000 Z-1.60000 I0.00396 J0.00000
G3 X4.14604 Y-3.30000 I0.00396 J0.00000
G0 Z0.08000

G0 X4.29604 Y-2.55000
G1 Z0.00784 F100.00000
G3 X4.29604 Y-2.55000 Z-0.00000 I0.00396 J0.00000
G3 X4.29604 Y-2.55000 Z-0.00784 I0.00396 J0.00000
G3 X4.29604 Y-2.55000 Z-0.01569 I0.00396 J0.00000
G3 X4.29604 Y-2.55000 Z-0.02353 I0.00396 J0.00000
G3 X4.29604 Y-2.55000 Z-0.03137 I0.00396 J0.00000
G3 X4.29604 Y-2.55000 Z-0.03922 I0.00396 J0.00000
G3 X4.29604 Y-2.55000 Z-0.04706 I0.00396 J0.00000
G3 X4.29604 Y-2.55000 Z-0.05490 I0.00396 J0.00000
G3 X4.29604 Y-2.55000 Z-0.06275 I0.00396 J0.00000
G3 X4.29604 Y-2.55000 Z-0.07059 I0.00396 J0.00000
G3 X4.29604 Y-2.55000 Z-0.07843 I0.00396 J0.00000
G3 X4.29604 Y-2.55000 Z-0.08627 I0.00396 J0.00000
G3 X4.29604 Y-2.55000 Z-0.09412 I0.00396 J0.00000
G3 X4.29604 Y-2.55000 Z-0.10196 I0.00396 J0.00000
G3 X4.29604 Y-2.55000 Z-0.10980 I0.00396 J0.00000
G3 X4.29604 Y-2.55000 Z-0.11765 I0.00396 J0.00000
G3 X4.29604 Y-2.55000 Z-0.12549 I0.00396 J0.00000
G3 X4.29604 Y-2.55000 Z-0.13333 I0.00396 J0.00000
G3 X4.29604 Y-2.55000 Z-0.14118 I0.00396 J0.00000
G3 X4.29604 Y-2.55000 Z-0.14902 I0.00396 J0.00000
G3 X4.29604 Y-2.55000 Z-0.15686 I0.00396 J0.00000
G3 X4.29604 Y-2.55000 Z-0.16471 I0.00396 J0.00000
G3 X4.29604 Y-2.55000 Z-0.17255 I0.00396 J0.00000
G3 X4.29604 Y-2.55000 Z-0.18039 I0.00396 J0.00000
G3 X4.29604 Y-2.55000 Z-0.18824 I0.00396 J0.00000
G3 X4.29604 Y-2.55000 Z-0.19608 I0.00396 J0.00000
G3 X4.29604 Y-2.55000 Z-0.20392 I0.00396 J0.00000
G3 X4.29604 Y-2.55000 Z-0.21176 I0.00396 J0.00000
G3 X4.29604 Y-2.55000 Z-0.21961 I0.00396 J0.00000
G3 X4.29604 Y-2.55000 Z-0.22745 I0.00396 J0.00000
G3 X4.29604 Y-2.55000 Z-0.23529 I0.00396 J0.00000
G3 X4.29604 Y-2.55000 Z-0.24314 I0.00396 J0.00000
G3 X4.29604 Y-2.55000 Z-0.25098 I0.00396 J0.00000
G3 X4.29604 Y-2.55000 Z-0.25882 I0.00396 J0.00000
G3 X4.29604 Y-2.55000 Z-0.26667 I0.00396 J0.00000
G3 X4.29604 Y-2.55000 Z-0.27451 I0.00396 J0.00000
G3 X4.29604 Y-2.55000 Z-0.28235 I0.00396 J0.00000
G3 X4.29604 Y-2.55000 Z-0.29020 I0.00396 J0.00000
G3 X4.29604 Y-2.55000 Z-0.29804 I0.00396 J0.00000
G3 X4.29604 Y-2.55000 Z-0.30588 I0.00396 J0.00000
G3 X4.29604 Y-2.55000 Z-0.31373 I0.00396 J0.00000
G3 X4.29604 Y-2.55000 Z-0.32157 I0.00396 J0.00000
G3 X4.29604 Y-2.55000 Z-0.32941 I0.00396 J0.00000
G3 X4.29604 Y-2.55000 Z-0.33725 I0.00396 J0.00000
G3 X4.29604 Y-2.55000 Z-0.34510 I0.00396 J0.00000
G3 X4.29604 Y-2.55000 Z-0.35294 I0.00396 J0.00000
G3 X4.29604 Y-2.55000 Z-0.36078 I0.00396 J0.00000
G3 X4.29604 Y-2.55000 Z-0.36863 I0.00396 J0.00000
G3 X4.29604 Y-2.55000 Z-0.37647 I0.00396 J0.00000
G3 X4.29604 Y-2.55000 Z-0.38431 I0.00396 J0.00000
G3 X4.29604 Y-2.55000 Z-0.39216 I0.00396 J0.00000
G3 X4.29604 Y-2.55000 Z-0.40000 I0.00396 J0.00000
G3 X4.29604 Y-2.55000 Z-0.40784 I0.00396 J0.00000
G3 X4.29604 Y-2.55000 Z-0.41569 I0.00396 J0.00000
G3 X4.29604 Y-2.55000 Z-0.42353 I0.00396 J0.00000
G3 X4.29604 Y-2.55000 Z-0.43137 I0.00396 J0.00000
G3 X4.29604 Y-2.55000 Z-0.43922 I0.00396 J0.00000
G3 X4.29604 Y-2.55000 Z-0.44706 I0.00396 J0.00000
G3 X4.29604 Y-2.55000 Z-0.45490 I0.00396 J0.00000
G3 X4.29604 Y-2.55000 Z-0.46275 I0.00396 J0.00000
G3 X4.29604 Y-2.55000 Z-0.47059 I0.00396 J0.00000
