( pcb2gcode 1.3.2 )
( Software-independent Gcode )
( This file uses a mill head of 0.07087inch to drill the 2 bit sizes. )
( Bit sizes: [0.0314961 inch] [0.0787795 inch] )

G94       (Inches per minute feed rate.)
G20       (Units == INCHES.)
G91.1     (Incremental arc distance mode.)
G90       (Absolute coordinates.)
S10000    (RPM spindle speed.)
G01 F100.00000 (Feedrate)
M3        (Spindle on clockwise.)
G04 P1.00000
G00 Z0.08000

G0 X-3.40000 Y-2.85000
G1 Z-1.60000
G0 Z0.08000

G0 X-3.49843 Y-2.85000
G1 Z-1.60000
G0 Z0.08000

G0 X-3.81500 Y-2.58665
G1 Z-0.00784
G1 X-3.81500 Y-2.66535
G1 Z-0.01569
G1 X-3.81500 Y-2.58665
G1 Z-0.02353
G1 X-3.81500 Y-2.66535
G1 Z-0.03137
G1 X-3.81500 Y-2.58665
G1 Z-0.03922
G1 X-3.81500 Y-2.66535
G1 Z-0.04706
G1 X-3.81500 Y-2.58665
G1 Z-0.05490
G1 X-3.81500 Y-2.66535
G1 Z-0.06275
G1 X-3.81500 Y-2.58665
G1 Z-0.07059
G1 X-3.81500 Y-2.66535
G1 Z-0.07843
G1 X-3.81500 Y-2.58665
G1 Z-0.08627
G1 X-3.81500 Y-2.66535
G1 Z-0.09412
G1 X-3.81500 Y-2.58665
G1 Z-0.10196
G1 X-3.81500 Y-2.66535
G1 Z-0.10980
G1 X-3.81500 Y-2.58665
G1 Z-0.11765
G1 X-3.81500 Y-2.66535
G1 Z-0.12549
G1 X-3.81500 Y-2.58665
G1 Z-0.13333
G1 X-3.81500 Y-2.66535
G1 Z-0.14118
G1 X-3.81500 Y-2.58665
G1 Z-0.14902
G1 X-3.81500 Y-2.66535
G1 Z-0.15686
G1 X-3.81500 Y-2.58665
G1 Z-0.16471
G1 X-3.81500 Y-2.66535
G1 Z-0.17255
G1 X-3.81500 Y-2.58665
G1 Z-0.18039
G1 X-3.81500 Y-2.66535
G1 Z-0.18824
G1 X-3.81500 Y-2.58665
G1 Z-0.19608
G1 X-3.81500 Y-2.66535
G1 Z-0.20392
G1 X-3.81500 Y-2.58665
G1 Z-0.21176
G1 X-3.81500 Y-2.66535
G1 Z-0.21961
G1 X-3.81500 Y-2.58665
G1 Z-0.22745
G1 X-3.81500 Y-2.66535
G1 Z-0.23529
G1 X-3.81500 Y-2.58665
G1 Z-0.24314
G1 X-3.81500 Y-2.66535
G1 Z-0.25098
G1 X-3.81500 Y-2.58665
G1 Z-0.25882
G1 X-3.81500 Y-2.66535
G1 Z-0.26667
G1 X-3.81500 Y-2.58665
G1 Z-0.27451
G1 X-3.81500 Y-2.66535
G1 Z-0.28235
G1 X-3.81500 Y-2.58665
G1 Z-0.29020
G1 X-3.81500 Y-2.66535
G1 Z-0.29804
G1 X-3.81500 Y-2.58665
G1 Z-0.30588
G1 X-3.81500 Y-2.66535
G1 Z-0.31373
G1 X-3.81500 Y-2.58665
G1 Z-0.32157
G1 X-3.81500 Y-2.66535
G1 Z-0.32941
G1 X-3.81500 Y-2.58665
G1 Z-0.33725
G1 X-3.81500 Y-2.66535
G1 Z-0.34510
G1 X-3.81500 Y-2.58665
G1 Z-0.35294
G1 X-3.81500 Y-2.66535
G1 Z-0.36078
G1 X-3.81500 Y-2.58665
G1 Z-0.36863
G1 X-3.81500 Y-2.66535
G1 Z-0.37647
G1 X-3.81500 Y-2.58665
G1 Z-0.38431
G1 X-3.81500 Y-2.66535
G1 Z-0.39216
G1 X-3.81500 Y-2.58665
G1 Z-0.40000
G1 X-3.81500 Y-2.66535
G1 Z-0.40784
G1 X-3.81500 Y-2.58665
G1 Z-0.41569
G1 X-3.81500 Y-2.66535
G1 Z-0.42353
G1 X-3.81500 Y-2.58665
G1 Z-0.43137
G1 X-3.81500 Y-2.66535
G1 Z-0.43922
G1 X-3.81500 Y-2.58665
G1 Z-0.44706
G1 X-3.81500 Y-2.66535
G1 Z-0.45490
G1 X-3.81500 Y-2.58665
G1 Z-0.46275
G1 X-3.81500 Y-2.66535
G1 Z-0.47059
G1 X-3.81500 Y-2.58665
G1 Z-0.47843
G1 X-3.81500 Y-2.66535
G1 Z-0.48627
G1 X-3.81500 Y-2.58665
G1 Z-0.49412
G1 X-3.81500 Y-2.66535
G1 Z-0.50196
G1 X-3.81500 Y-2.58665
G1 Z-0.50980
G1 X-3.81500 Y-2.66535
G1 Z-0.51765
G1 X-3.81500 Y-2.58665
G1 Z-0.52549
G1 X-3.81500 Y-2.66535
G1 Z-0.53333
G1 X-3.81500 Y-2.58665
G1 Z-0.54118
G1 X-3.81500 Y-2.66535
G1 Z-0.54902
G1 X-3.81500 Y-2.58665
G1 Z-0.55686
G1 X-3.81500 Y-2.66535
G1 Z-0.56471
G1 X-3.81500 Y-2.58665
G1 Z-0.57255
G1 X-3.81500 Y-2.66535
G1 Z-0.58039
G1 X-3.81500 Y-2.58665
G1 Z-0.58824
G1 X-3.81500 Y-2.66535
G1 Z-0.59608
G1 X-3.81500 Y-2.58665
G1 Z-0.60392
G1 X-3.81500 Y-2.66535
G1 Z-0.61176
G1 X-3.81500 Y-2.58665
G1 Z-0.61961
G1 X-3.81500 Y-2.66535
G1 Z-0.62745
G1 X-3.81500 Y-2.58665
G1 Z-0.63529
G1 X-3.81500 Y-2.66535
G1 Z-0.64314
G1 X-3.81500 Y-2.58665
G1 Z-0.65098
G1 X-3.81500 Y-2.66535
G1 Z-0.65882
G1 X-3.81500 Y-2.58665
G1 Z-0.66667
G1 X-3.81500 Y-2.66535
G1 Z-0.67451
G1 X-3.81500 Y-2.58665
G1 Z-0.68235
G1 X-3.81500 Y-2.66535
G1 Z-0.69020
G1 X-3.81500 Y-2.58665
G1 Z-0.69804
G1 X-3.81500 Y-2.66535
G1 Z-0.70588
G1 X-3.81500 Y-2.58665
G1 Z-0.71373
G1 X-3.81500 Y-2.66535
G1 Z-0.72157
G1 X-3.81500 Y-2.58665
G1 Z-0.72941
G1 X-3.81500 Y-2.66535
G1 Z-0.73725
G1 X-3.81500 Y-2.58665
G1 Z-0.74510
G1 X-3.81500 Y-2.66535
G1 Z-0.75294
G1 X-3.81500 Y-2.58665
G1 Z-0.76078
G1 X-3.81500 Y-2.66535
G1 Z-0.76863
G1 X-3.81500 Y-2.58665
G1 Z-0.77647
G1 X-3.81500 Y-2.66535
G1 Z-0.78431
G1 X-3.81500 Y-2.58665
G1 Z-0.79216
G1 X-3.81500 Y-2.66535
G1 Z-0.80000
G1 X-3.81500 Y-2.58665
G1 Z-0.80784
G1 X-3.81500 Y-2.66535
G1 Z-0.81569
G1 X-3.81500 Y-2.58665
G1 Z-0.82353
G1 X-3.81500 Y-2.66535
G1 Z-0.83137
G1 X-3.81500 Y-2.58665
G1 Z-0.83922
G1 X-3.81500 Y-2.66535
G1 Z-0.84706
G1 X-3.81500 Y-2.58665
G1 Z-0.85490
G1 X-3.81500 Y-2.66535
G1 Z-0.86275
G1 X-3.81500 Y-2.58665
G1 Z-0.87059
G1 X-3.81500 Y-2.66535
G1 Z-0.87843
G1 X-3.81500 Y-2.58665
G1 Z-0.88627
G1 X-3.81500 Y-2.66535
G1 Z-0.89412
G1 X-3.81500 Y-2.58665
G1 Z-0.90196
G1 X-3.81500 Y-2.66535
G1 Z-0.90980
G1 X-3.81500 Y-2.58665
G1 Z-0.91765
G1 X-3.81500 Y-2.66535
G1 Z-0.92549
G1 X-3.81500 Y-2.58665
G1 Z-0.93333
G1 X-3.81500 Y-2.66535
G1 Z-0.94118
G1 X-3.81500 Y-2.58665
G1 Z-0.94902
G1 X-3.81500 Y-2.66535
G1 Z-0.95686
G1 X-3.81500 Y-2.58665
G1 Z-0.96471
G1 X-3.81500 Y-2.66535
G1 Z-0.97255
G1 X-3.81500 Y-2.58665
G1 Z-0.98039
G1 X-3.81500 Y-2.66535
G1 Z-0.98824
G1 X-3.81500 Y-2.58665
G1 Z-0.99608
G1 X-3.81500 Y-2.66535
G1 Z-1.00392
G1 X-3.81500 Y-2.58665
G1 Z-1.01176
G1 X-3.81500 Y-2.66535
G1 Z-1.01961
G1 X-3.81500 Y-2.58665
G1 Z-1.02745
G1 X-3.81500 Y-2.66535
G1 Z-1.03529
G1 X-3.81500 Y-2.58665
G1 Z-1.04314
G1 X-3.81500 Y-2.66535
G1 Z-1.05098
G1 X-3.81500 Y-2.58665
G1 Z-1.05882
G1 X-3.81500 Y-2.66535
G1 Z-1.06667
G1 X-3.81500 Y-2.58665
G1 Z-1.07451
G1 X-3.81500 Y-2.66535
G1 Z-1.08235
G1 X-3.81500 Y-2.58665
G1 Z-1.09020
G1 X-3.81500 Y-2.66535
G1 Z-1.09804
G1 X-3.81500 Y-2.58665
G1 Z-1.10588
G1 X-3.81500 Y-2.66535
G1 Z-1.11373
G1 X-3.81500 Y-2.58665
G1 Z-1.12157
G1 X-3.81500 Y-2.66535
G1 Z-1.12941
G1 X-3.81500 Y-2.58665
G1 Z-1.13725
G1 X-3.81500 Y-2.66535
G1 Z-1.14510
G1 X-3.81500 Y-2.58665
G1 Z-1.15294
G1 X-3.81500 Y-2.66535
G1 Z-1.16078
G1 X-3.81500 Y-2.58665
G1 Z-1.16863
G1 X-3.81500 Y-2.66535
G1 Z-1.17647
G1 X-3.81500 Y-2.58665
G1 Z-1.18431
G1 X-3.81500 Y-2.66535
G1 Z-1.19216
G1 X-3.81500 Y-2.58665
G1 Z-1.20000
G1 X-3.81500 Y-2.66535
G1 Z-1.20784
G1 X-3.81500 Y-2.58665
G1 Z-1.21569
G1 X-3.81500 Y-2.66535
G1 Z-1.22353
G1 X-3.81500 Y-2.58665
G1 Z-1.23137
G1 X-3.81500 Y-2.66535
G1 Z-1.23922
G1 X-3.81500 Y-2.58665
G1 Z-1.24706
G1 X-3.81500 Y-2.66535
G1 Z-1.25490
G1 X-3.81500 Y-2.58665
G1 Z-1.26275
G1 X-3.81500 Y-2.66535
G1 Z-1.27059
G1 X-3.81500 Y-2.58665
G1 Z-1.27843
G1 X-3.81500 Y-2.66535
G1 Z-1.28627
G1 X-3.81500 Y-2.58665
G1 Z-1.29412
G1 X-3.81500 Y-2.66535
G1 Z-1.30196
G1 X-3.81500 Y-2.58665
G1 Z-1.30980
G1 X-3.81500 Y-2.66535
G1 Z-1.31765
G1 X-3.81500 Y-2.58665
G1 Z-1.32549
G1 X-3.81500 Y-2.66535
G1 Z-1.33333
G1 X-3.81500 Y-2.58665
G1 Z-1.34118
G1 X-3.81500 Y-2.66535
G1 Z-1.34902
G1 X-3.81500 Y-2.58665
G1 Z-1.35686
G1 X-3.81500 Y-2.66535
G1 Z-1.36471
G1 X-3.81500 Y-2.58665
G1 Z-1.37255
G1 X-3.81500 Y-2.66535
G1 Z-1.38039
G1 X-3.81500 Y-2.58665
G1 Z-1.38824
G1 X-3.81500 Y-2.66535
G1 Z-1.39608
G1 X-3.81500 Y-2.58665
G1 Z-1.40392
G1 X-3.81500 Y-2.66535
G1 Z-1.41176
G1 X-3.81500 Y-2.58665
G1 Z-1.41961
G1 X-3.81500 Y-2.66535
G1 Z-1.42745
G1 X-3.81500 Y-2.58665
G1 Z-1.43529
G1 X-3.81500 Y-2.66535
G1 Z-1.44314
G1 X-3.81500 Y-2.58665
G1 Z-1.45098
G1 X-3.81500 Y-2.66535
G1 Z-1.45882
G1 X-3.81500 Y-2.58665
G1 Z-1.46667
G1 X-3.81500 Y-2.66535
G1 Z-1.47451
G1 X-3.81500 Y-2.58665
G1 Z-1.48235
G1 X-3.81500 Y-2.66535
G1 Z-1.49020
G1 X-3.81500 Y-2.58665
G1 Z-1.49804
G1 X-3.81500 Y-2.66535
G1 Z-1.50588
G1 X-3.81500 Y-2.58665
G1 Z-1.51373
G1 X-3.81500 Y-2.66535
G1 Z-1.52157
G1 X-3.81500 Y-2.58665
G1 Z-1.52941
G1 X-3.81500 Y-2.66535
G1 Z-1.53725
G1 X-3.81500 Y-2.58665
G1 Z-1.54510
G1 X-3.81500 Y-2.66535
G1 Z-1.55294
G1 X-3.81500 Y-2.58665
G1 Z-1.56078
G1 X-3.81500 Y-2.66535
G1 Z-1.56863
G1 X-3.81500 Y-2.58665
G1 Z-1.57647
G1 X-3.81500 Y-2.66535
G1 Z-1.58431
G1 X-3.81500 Y-2.58665
G1 Z-1.59216
G1 X-3.81500 Y-2.66535
G1 Z-1.60000
G1 X-3.81500 Y-2.58665
G0 Z0.08000

G0 X-3.40000 Y-3.17126
G1 Z-1.60000
G0 Z0.08000

G0 X-3.40000 Y-3.25000
G1 Z-1.60000
G0 Z0.08000

G0 X-3.40000 Y-3.32874
G1 Z-1.60000
G0 Z0.08000

G0 X-4.45157 Y-2.85000
G1 Z-1.60000
G0 Z0.08000

G0 X-4.55000 Y-2.85000
G1 Z-1.60000
G0 Z0.08000

G0 X-4.50000 Y-3.17126
G1 Z-1.60000
G0 Z0.08000

G0 X-4.50000 Y-3.25000
G1 Z-1.60000
G0 Z0.08000

G0 X-4.50000 Y-3.32874
G1 Z-1.60000
G0 Z0.08000

G0 X-3.25396 Y-2.55000
G1 Z-0.00784
G3  X-3.25396 Y-2.55000 I0.00396 J0.00000
G1 Z-0.01569
G3  X-3.25396 Y-2.55000 I0.00396 J0.00000
G1 Z-0.02353
G3  X-3.25396 Y-2.55000 I0.00396 J0.00000
G1 Z-0.03137
G3  X-3.25396 Y-2.55000 I0.00396 J0.00000
G1 Z-0.03922
G3  X-3.25396 Y-2.55000 I0.00396 J0.00000
G1 Z-0.04706
G3  X-3.25396 Y-2.55000 I0.00396 J0.00000
G1 Z-0.05490
G3  X-3.25396 Y-2.55000 I0.00396 J0.00000
G1 Z-0.06275
G3  X-3.25396 Y-2.55000 I0.00396 J0.00000
G1 Z-0.07059
G3  X-3.25396 Y-2.55000 I0.00396 J0.00000
G1 Z-0.07843
G3  X-3.25396 Y-2.55000 I0.00396 J0.00000
G1 Z-0.08627
G3  X-3.25396 Y-2.55000 I0.00396 J0.00000
G1 Z-0.09412
G3  X-3.25396 Y-2.55000 I0.00396 J0.00000
G1 Z-0.10196
G3  X-3.25396 Y-2.55000 I0.00396 J0.00000
G1 Z-0.10980
G3  X-3.25396 Y-2.55000 I0.00396 J0.00000
G1 Z-0.11765
G3  X-3.25396 Y-2.55000 I0.00396 J0.00000
G1 Z-0.12549
G3  X-3.25396 Y-2.55000 I0.00396 J0.00000
G1 Z-0.13333
G3  X-3.25396 Y-2.55000 I0.00396 J0.00000
G1 Z-0.14118
G3  X-3.25396 Y-2.55000 I0.00396 J0.00000
G1 Z-0.14902
G3  X-3.25396 Y-2.55000 I0.00396 J0.00000
G1 Z-0.15686
G3  X-3.25396 Y-2.55000 I0.00396 J0.00000
G1 Z-0.16471
G3  X-3.25396 Y-2.55000 I0.00396 J0.00000
G1 Z-0.17255
G3  X-3.25396 Y-2.55000 I0.00396 J0.00000
G1 Z-0.18039
G3  X-3.25396 Y-2.55000 I0.00396 J0.00000
G1 Z-0.18824
G3  X-3.25396 Y-2.55000 I0.00396 J0.00000
G1 Z-0.19608
G3  X-3.25396 Y-2.55000 I0.00396 J0.00000
G1 Z-0.20392
G3  X-3.25396 Y-2.55000 I0.00396 J0.00000
G1 Z-0.21176
G3  X-3.25396 Y-2.55000 I0.00396 J0.00000
G1 Z-0.21961
G3  X-3.25396 Y-2.55000 I0.00396 J0.00000
G1 Z-0.22745
G3  X-3.25396 Y-2.55000 I0.00396 J0.00000
G1 Z-0.23529
G3  X-3.25396 Y-2.55000 I0.00396 J0.00000
G1 Z-0.24314
G3  X-3.25396 Y-2.55000 I0.00396 J0.00000
G1 Z-0.25098
G3  X-3.25396 Y-2.55000 I0.00396 J0.00000
G1 Z-0.25882
G3  X-3.25396 Y-2.55000 I0.00396 J0.00000
G1 Z-0.26667
G3  X-3.25396 Y-2.55000 I0.00396 J0.00000
G1 Z-0.27451
G3  X-3.25396 Y-2.55000 I0.00396 J0.00000
G1 Z-0.28235
G3  X-3.25396 Y-2.55000 I0.00396 J0.00000
G1 Z-0.29020
G3  X-3.25396 Y-2.55000 I0.00396 J0.00000
G1 Z-0.29804
G3  X-3.25396 Y-2.55000 I0.00396 J0.00000
G1 Z-0.30588
G3  X-3.25396 Y-2.55000 I0.00396 J0.00000
G1 Z-0.31373
G3  X-3.25396 Y-2.55000 I0.00396 J0.00000
G1 Z-0.32157
G3  X-3.25396 Y-2.55000 I0.00396 J0.00000
G1 Z-0.32941
G3  X-3.25396 Y-2.55000 I0.00396 J0.00000
G1 Z-0.33725
G3  X-3.25396 Y-2.55000 I0.00396 J0.00000
G1 Z-0.34510
G3  X-3.25396 Y-2.55000 I0.00396 J0.00000
G1 Z-0.35294
G3  X-3.25396 Y-2.55000 I0.00396 J0.00000
G1 Z-0.36078
G3  X-3.25396 Y-2.55000 I0.00396 J0.00000
G1 Z-0.36863
G3  X-3.25396 Y-2.55000 I0.00396 J0.00000
G1 Z-0.37647
G3  X-3.25396 Y-2.55000 I0.00396 J0.00000
G1 Z-0.38431
G3  X-3.25396 Y-2.55000 I0.00396 J0.00000
G1 Z-0.39216
G3  X-3.25396 Y-2.55000 I0.00396 J0.00000
G1 Z-0.40000
G3  X-3.25396 Y-2.55000 I0.00396 J0.00000
G1 Z-0.40784
G3  X-3.25396 Y-2.55000 I0.00396 J0.00000
G1 Z-0.41569
G3  X-3.25396 Y-2.55000 I0.00396 J0.00000
G1 Z-0.42353
G3  X-3.25396 Y-2.55000 I0.00396 J0.00000
G1 Z-0.43137
G3  X-3.25396 Y-2.55000 I0.00396 J0.00000
G1 Z-0.43922
G3  X-3.25396 Y-2.55000 I0.00396 J0.00000
G1 Z-0.44706
G3  X-3.25396 Y-2.55000 I0.00396 J0.00000
G1 Z-0.45490
G3  X-3.25396 Y-2.55000 I0.00396 J0.00000
G1 Z-0.46275
G3  X-3.25396 Y-2.55000 I0.00396 J0.00000
G1 Z-0.47059
G3  X-3.25396 Y-2.55000 I0.00396 J0.00000
G1 Z-0.47843
G3  X-3.25396 Y-2.55000 I0.00396 J0.00000
G1 Z-0.48627
G3  X-3.25396 Y-2.55000 I0.00396 J0.00000
G1 Z-0.49412
G3  X-3.25396 Y-2.55000 I0.00396 J0.00000
G1 Z-0.50196
G3  X-3.25396 Y-2.55000 I0.00396 J0.00000
G1 Z-0.50980
G3  X-3.25396 Y-2.55000 I0.00396 J0.00000
G1 Z-0.51765
G3  X-3.25396 Y-2.55000 I0.00396 J0.00000
G1 Z-0.52549
G3  X-3.25396 Y-2.55000 I0.00396 J0.00000
G1 Z-0.53333
G3  X-3.25396 Y-2.55000 I0.00396 J0.00000
G1 Z-0.54118
G3  X-3.25396 Y-2.55000 I0.00396 J0.00000
G1 Z-0.54902
G3  X-3.25396 Y-2.55000 I0.00396 J0.00000
G1 Z-0.55686
G3  X-3.25396 Y-2.55000 I0.00396 J0.00000
G1 Z-0.56471
G3  X-3.25396 Y-2.55000 I0.00396 J0.00000
G1 Z-0.57255
G3  X-3.25396 Y-2.55000 I0.00396 J0.00000
G1 Z-0.58039
G3  X-3.25396 Y-2.55000 I0.00396 J0.00000
G1 Z-0.58824
G3  X-3.25396 Y-2.55000 I0.00396 J0.00000
G1 Z-0.59608
G3  X-3.25396 Y-2.55000 I0.00396 J0.00000
G1 Z-0.60392
G3  X-3.25396 Y-2.55000 I0.00396 J0.00000
G1 Z-0.61176
G3  X-3.25396 Y-2.55000 I0.00396 J0.00000
G1 Z-0.61961
G3  X-3.25396 Y-2.55000 I0.00396 J0.00000
G1 Z-0.62745
G3  X-3.25396 Y-2.55000 I0.00396 J0.00000
G1 Z-0.63529
G3  X-3.25396 Y-2.55000 I0.00396 J0.00000
G1 Z-0.64314
G3  X-3.25396 Y-2.55000 I0.00396 J0.00000
G1 Z-0.65098
G3  X-3.25396 Y-2.55000 I0.00396 J0.00000
G1 Z-0.65882
G3  X-3.25396 Y-2.55000 I0.00396 J0.00000
G1 Z-0.66667
G3  X-3.25396 Y-2.55000 I0.00396 J0.00000
G1 Z-0.67451
G3  X-3.25396 Y-2.55000 I0.00396 J0.00000
G1 Z-0.68235
G3  X-3.25396 Y-2.55000 I0.00396 J0.00000
G1 Z-0.69020
G3  X-3.25396 Y-2.55000 I0.00396 J0.00000
G1 Z-0.69804
G3  X-3.25396 Y-2.55000 I0.00396 J0.00000
G1 Z-0.70588
G3  X-3.25396 Y-2.55000 I0.00396 J0.00000
G1 Z-0.71373
G3  X-3.25396 Y-2.55000 I0.00396 J0.00000
G1 Z-0.72157
G3  X-3.25396 Y-2.55000 I0.00396 J0.00000
G1 Z-0.72941
G3  X-3.25396 Y-2.55000 I0.00396 J0.00000
G1 Z-0.73725
G3  X-3.25396 Y-2.55000 I0.00396 J0.00000
G1 Z-0.74510
G3  X-3.25396 Y-2.55000 I0.00396 J0.00000
G1 Z-0.75294
G3  X-3.25396 Y-2.55000 I0.00396 J0.00000
G1 Z-0.76078
G3  X-3.25396 Y-2.55000 I0.00396 J0.00000
G1 Z-0.76863
G3  X-3.25396 Y-2.55000 I0.00396 J0.00000
G1 Z-0.77647
G3  X-3.25396 Y-2.55000 I0.00396 J0.00000
G1 Z-0.78431
G3  X-3.25396 Y-2.55000 I0.00396 J0.00000
G1 Z-0.79216
G3  X-3.25396 Y-2.55000 I0.00396 J0.00000
G1 Z-0.80000
G3  X-3.25396 Y-2.55000 I0.00396 J0.00000
G1 Z-0.80784
G3  X-3.25396 Y-2.55000 I0.00396 J0.00000
G1 Z-0.81569
G3  X-3.25396 Y-2.55000 I0.00396 J0.00000
G1 Z-0.82353
G3  X-3.25396 Y-2.55000 I0.00396 J0.00000
G1 Z-0.83137
G3  X-3.25396 Y-2.55000 I0.00396 J0.00000
G1 Z-0.83922
G3  X-3.25396 Y-2.55000 I0.00396 J0.00000
G1 Z-0.84706
G3  X-3.25396 Y-2.55000 I0.00396 J0.00000
G1 Z-0.85490
G3  X-3.25396 Y-2.55000 I0.00396 J0.00000
G1 Z-0.86275
G3  X-3.25396 Y-2.55000 I0.00396 J0.00000
G1 Z-0.87059
G3  X-3.25396 Y-2.55000 I0.00396 J0.00000
G1 Z-0.87843
G3  X-3.25396 Y-2.55000 I0.00396 J0.00000
G1 Z-0.88627
G3  X-3.25396 Y-2.55000 I0.00396 J0.00000
G1 Z-0.89412
G3  X-3.25396 Y-2.55000 I0.00396 J0.00000
G1 Z-0.90196
G3  X-3.25396 Y-2.55000 I0.00396 J0.00000
G1 Z-0.90980
G3  X-3.25396 Y-2.55000 I0.00396 J0.00000
G1 Z-0.91765
G3  X-3.25396 Y-2.55000 I0.00396 J0.00000
G1 Z-0.92549
G3  X-3.25396 Y-2.55000 I0.00396 J0.00000
G1 Z-0.93333
G3  X-3.25396 Y-2.55000 I0.00396 J0.00000
G1 Z-0.94118
G3  X-3.25396 Y-2.55000 I0.00396 J0.00000
G1 Z-0.94902
G3  X-3.25396 Y-2.55000 I0.00396 J0.00000
G1 Z-0.95686
G3  X-3.25396 Y-2.55000 I0.00396 J0.00000
G1 Z-0.96471
G3  X-3.25396 Y-2.55000 I0.00396 J0.00000
G1 Z-0.97255
G3  X-3.25396 Y-2.55000 I0.00396 J0.00000
G1 Z-0.98039
G3  X-3.25396 Y-2.55000 I0.00396 J0.00000
G1 Z-0.98824
G3  X-3.25396 Y-2.55000 I0.00396 J0.00000
G1 Z-0.99608
G3  X-3.25396 Y-2.55000 I0.00396 J0.00000
G1 Z-1.00392
G3  X-3.25396 Y-2.55000 I0.00396 J0.00000
G1 Z-1.01176
G3  X-3.25396 Y-2.55000 I0.00396 J0.00000
G1 Z-1.01961
G3  X-3.25396 Y-2.55000 I0.00396 J0.00000
G1 Z-1.02745
G3  X-3.25396 Y-2.55000 I0.00396 J0.00000
G1 Z-1.03529
G3  X-3.25396 Y-2.55000 I0.00396 J0.00000
G1 Z-1.04314
G3  X-3.25396 Y-2.55000 I0.00396 J0.00000
G1 Z-1.05098
G3  X-3.25396 Y-2.55000 I0.00396 J0.00000
G1 Z-1.05882
G3  X-3.25396 Y-2.55000 I0.00396 J0.00000
G1 Z-1.06667
G3  X-3.25396 Y-2.55000 I0.00396 J0.00000
G1 Z-1.07451
G3  X-3.25396 Y-2.55000 I0.00396 J0.00000
G1 Z-1.08235
G3  X-3.25396 Y-2.55000 I0.00396 J0.00000
G1 Z-1.09020
G3  X-3.25396 Y-2.55000 I0.00396 J0.00000
G1 Z-1.09804
G3  X-3.25396 Y-2.55000 I0.00396 J0.00000
G1 Z-1.10588
G3  X-3.25396 Y-2.55000 I0.00396 J0.00000
G1 Z-1.11373
G3  X-3.25396 Y-2.55000 I0.00396 J0.00000
G1 Z-1.12157
G3  X-3.25396 Y-2.55000 I0.00396 J0.00000
G1 Z-1.12941
G3  X-3.25396 Y-2.55000 I0.00396 J0.00000
G1 Z-1.13725
G3  X-3.25396 Y-2.55000 I0.00396 J0.00000
G1 Z-1.14510
G3  X-3.25396 Y-2.55000 I0.00396 J0.00000
G1 Z-1.15294
G3  X-3.25396 Y-2.55000 I0.00396 J0.00000
G1 Z-1.16078
G3  X-3.25396 Y-2.55000 I0.00396 J0.00000
G1 Z-1.16863
G3  X-3.25396 Y-2.55000 I0.00396 J0.00000
G1 Z-1.17647
G3  X-3.25396 Y-2.55000 I0.00396 J0.00000
G1 Z-1.18431
G3  X-3.25396 Y-2.55000 I0.00396 J0.00000
G1 Z-1.19216
G3  X-3.25396 Y-2.55000 I0.00396 J0.00000
G1 Z-1.20000
G3  X-3.25396 Y-2.55000 I0.00396 J0.00000
G1 Z-1.20784
G3  X-3.25396 Y-2.55000 I0.00396 J0.00000
G1 Z-1.21569
G3  X-3.25396 Y-2.55000 I0.00396 J0.00000
G1 Z-1.22353
G3  X-3.25396 Y-2.55000 I0.00396 J0.00000
G1 Z-1.23137
G3  X-3.25396 Y-2.55000 I0.00396 J0.00000
G1 Z-1.23922
G3  X-3.25396 Y-2.55000 I0.00396 J0.00000
G1 Z-1.24706
G3  X-3.25396 Y-2.55000 I0.00396 J0.00000
G1 Z-1.25490
G3  X-3.25396 Y-2.55000 I0.00396 J0.00000
G1 Z-1.26275
G3  X-3.25396 Y-2.55000 I0.00396 J0.00000
G1 Z-1.27059
G3  X-3.25396 Y-2.55000 I0.00396 J0.00000
G1 Z-1.27843
G3  X-3.25396 Y-2.55000 I0.00396 J0.00000
G1 Z-1.28627
G3  X-3.25396 Y-2.55000 I0.00396 J0.00000
G1 Z-1.29412
G3  X-3.25396 Y-2.55000 I0.00396 J0.00000
G1 Z-1.30196
G3  X-3.25396 Y-2.55000 I0.00396 J0.00000
G1 Z-1.30980
G3  X-3.25396 Y-2.55000 I0.00396 J0.00000
G1 Z-1.31765
G3  X-3.25396 Y-2.55000 I0.00396 J0.00000
G1 Z-1.32549
G3  X-3.25396 Y-2.55000 I0.00396 J0.00000
G1 Z-1.33333
G3  X-3.25396 Y-2.55000 I0.00396 J0.00000
G1 Z-1.34118
G3  X-3.25396 Y-2.55000 I0.00396 J0.00000
G1 Z-1.34902
G3  X-3.25396 Y-2.55000 I0.00396 J0.00000
G1 Z-1.35686
G3  X-3.25396 Y-2.55000 I0.00396 J0.00000
G1 Z-1.36471
G3  X-3.25396 Y-2.55000 I0.00396 J0.00000
G1 Z-1.37255
G3  X-3.25396 Y-2.55000 I0.00396 J0.00000
G1 Z-1.38039
G3  X-3.25396 Y-2.55000 I0.00396 J0.00000
G1 Z-1.38824
G3  X-3.25396 Y-2.55000 I0.00396 J0.00000
G1 Z-1.39608
G3  X-3.25396 Y-2.55000 I0.00396 J0.00000
G1 Z-1.40392
G3  X-3.25396 Y-2.55000 I0.00396 J0.00000
G1 Z-1.41176
G3  X-3.25396 Y-2.55000 I0.00396 J0.00000
G1 Z-1.41961
G3  X-3.25396 Y-2.55000 I0.00396 J0.00000
G1 Z-1.42745
G3  X-3.25396 Y-2.55000 I0.00396 J0.00000
G1 Z-1.43529
G3  X-3.25396 Y-2.55000 I0.00396 J0.00000
G1 Z-1.44314
G3  X-3.25396 Y-2.55000 I0.00396 J0.00000
G1 Z-1.45098
G3  X-3.25396 Y-2.55000 I0.00396 J0.00000
G1 Z-1.45882
G3  X-3.25396 Y-2.55000 I0.00396 J0.00000
G1 Z-1.46667
G3  X-3.25396 Y-2.55000 I0.00396 J0.00000
G1 Z-1.47451
G3  X-3.25396 Y-2.55000 I0.00396 J0.00000
G1 Z-1.48235
G3  X-3.25396 Y-2.55000 I0.00396 J0.00000
G1 Z-1.49020
G3  X-3.25396 Y-2.55000 I0.00396 J0.00000
G1 Z-1.49804
G3  X-3.25396 Y-2.55000 I0.00396 J0.00000
G1 Z-1.50588
G3  X-3.25396 Y-2.55000 I0.00396 J0.00000
G1 Z-1.51373
G3  X-3.25396 Y-2.55000 I0.00396 J0.00000
G1 Z-1.52157
G3  X-3.25396 Y-2.55000 I0.00396 J0.00000
G1 Z-1.52941
G3  X-3.25396 Y-2.55000 I0.00396 J0.00000
G1 Z-1.53725
G3  X-3.25396 Y-2.55000 I0.00396 J0.00000
G1 Z-1.54510
G3  X-3.25396 Y-2.55000 I0.00396 J0.00000
G1 Z-1.55294
G3  X-3.25396 Y-2.55000 I0.00396 J0.00000
G1 Z-1.56078
G3  X-3.25396 Y-2.55000 I0.00396 J0.00000
G1 Z-1.56863
G3  X-3.25396 Y-2.55000 I0.00396 J0.00000
G1 Z-1.57647
G3  X-3.25396 Y-2.55000 I0.00396 J0.00000
G1 Z-1.58431
G3  X-3.25396 Y-2.55000 I0.00396 J0.00000
G1 Z-1.59216
G3  X-3.25396 Y-2.55000 I0.00396 J0.00000
G1 Z-1.60000
G3  X-3.25396 Y-2.55000 I0.00396 J0.00000
G0 Z0.08000

G0 X-3.25396 Y-2.95000
G1 Z-0.00784
G3  X-3.25396 Y-2.95000 I0.00396 J0.00000
G1 Z-0.01569
G3  X-3.25396 Y-2.95000 I0.00396 J0.00000
G1 Z-0.02353
G3  X-3.25396 Y-2.95000 I0.00396 J0.00000
G1 Z-0.03137
G3  X-3.25396 Y-2.95000 I0.00396 J0.00000
G1 Z-0.03922
G3  X-3.25396 Y-2.95000 I0.00396 J0.00000
G1 Z-0.04706
G3  X-3.25396 Y-2.95000 I0.00396 J0.00000
G1 Z-0.05490
G3  X-3.25396 Y-2.95000 I0.00396 J0.00000
G1 Z-0.06275
G3  X-3.25396 Y-2.95000 I0.00396 J0.00000
G1 Z-0.07059
G3  X-3.25396 Y-2.95000 I0.00396 J0.00000
G1 Z-0.07843
G3  X-3.25396 Y-2.95000 I0.00396 J0.00000
G1 Z-0.08627
G3  X-3.25396 Y-2.95000 I0.00396 J0.00000
G1 Z-0.09412
G3  X-3.25396 Y-2.95000 I0.00396 J0.00000
G1 Z-0.10196
G3  X-3.25396 Y-2.95000 I0.00396 J0.00000
G1 Z-0.10980
G3  X-3.25396 Y-2.95000 I0.00396 J0.00000
G1 Z-0.11765
G3  X-3.25396 Y-2.95000 I0.00396 J0.00000
G1 Z-0.12549
G3  X-3.25396 Y-2.95000 I0.00396 J0.00000
G1 Z-0.13333
G3  X-3.25396 Y-2.95000 I0.00396 J0.00000
G1 Z-0.14118
G3  X-3.25396 Y-2.95000 I0.00396 J0.00000
G1 Z-0.14902
G3  X-3.25396 Y-2.95000 I0.00396 J0.00000
G1 Z-0.15686
G3  X-3.25396 Y-2.95000 I0.00396 J0.00000
G1 Z-0.16471
G3  X-3.25396 Y-2.95000 I0.00396 J0.00000
G1 Z-0.17255
G3  X-3.25396 Y-2.95000 I0.00396 J0.00000
G1 Z-0.18039
G3  X-3.25396 Y-2.95000 I0.00396 J0.00000
G1 Z-0.18824
G3  X-3.25396 Y-2.95000 I0.00396 J0.00000
G1 Z-0.19608
G3  X-3.25396 Y-2.95000 I0.00396 J0.00000
G1 Z-0.20392
G3  X-3.25396 Y-2.95000 I0.00396 J0.00000
G1 Z-0.21176
G3  X-3.25396 Y-2.95000 I0.00396 J0.00000
G1 Z-0.21961
G3  X-3.25396 Y-2.95000 I0.00396 J0.00000
G1 Z-0.22745
G3  X-3.25396 Y-2.95000 I0.00396 J0.00000
G1 Z-0.23529
G3  X-3.25396 Y-2.95000 I0.00396 J0.00000
G1 Z-0.24314
G3  X-3.25396 Y-2.95000 I0.00396 J0.00000
G1 Z-0.25098
G3  X-3.25396 Y-2.95000 I0.00396 J0.00000
G1 Z-0.25882
G3  X-3.25396 Y-2.95000 I0.00396 J0.00000
G1 Z-0.26667
G3  X-3.25396 Y-2.95000 I0.00396 J0.00000
G1 Z-0.27451
G3  X-3.25396 Y-2.95000 I0.00396 J0.00000
G1 Z-0.28235
G3  X-3.25396 Y-2.95000 I0.00396 J0.00000
G1 Z-0.29020
G3  X-3.25396 Y-2.95000 I0.00396 J0.00000
G1 Z-0.29804
G3  X-3.25396 Y-2.95000 I0.00396 J0.00000
G1 Z-0.30588
G3  X-3.25396 Y-2.95000 I0.00396 J0.00000
G1 Z-0.31373
G3  X-3.25396 Y-2.95000 I0.00396 J0.00000
G1 Z-0.32157
G3  X-3.25396 Y-2.95000 I0.00396 J0.00000
G1 Z-0.32941
G3  X-3.25396 Y-2.95000 I0.00396 J0.00000
G1 Z-0.33725
G3  X-3.25396 Y-2.95000 I0.00396 J0.00000
G1 Z-0.34510
G3  X-3.25396 Y-2.95000 I0.00396 J0.00000
G1 Z-0.35294
G3  X-3.25396 Y-2.95000 I0.00396 J0.00000
G1 Z-0.36078
G3  X-3.25396 Y-2.95000 I0.00396 J0.00000
G1 Z-0.36863
G3  X-3.25396 Y-2.95000 I0.00396 J0.00000
G1 Z-0.37647
G3  X-3.25396 Y-2.95000 I0.00396 J0.00000
G1 Z-0.38431
G3  X-3.25396 Y-2.95000 I0.00396 J0.00000
G1 Z-0.39216
G3  X-3.25396 Y-2.95000 I0.00396 J0.00000
G1 Z-0.40000
G3  X-3.25396 Y-2.95000 I0.00396 J0.00000
G1 Z-0.40784
G3  X-3.25396 Y-2.95000 I0.00396 J0.00000
G1 Z-0.41569
G3  X-3.25396 Y-2.95000 I0.00396 J0.00000
G1 Z-0.42353
G3  X-3.25396 Y-2.95000 I0.00396 J0.00000
G1 Z-0.43137
G3  X-3.25396 Y-2.95000 I0.00396 J0.00000
G1 Z-0.43922
G3  X-3.25396 Y-2.95000 I0.00396 J0.00000
G1 Z-0.44706
G3  X-3.25396 Y-2.95000 I0.00396 J0.00000
G1 Z-0.45490
G3  X-3.25396 Y-2.95000 I0.00396 J0.00000
G1 Z-0.46275
G3  X-3.25396 Y-2.95000 I0.00396 J0.00000
G1 Z-0.47059
G3  X-3.25396 Y-2.95000 I0.00396 J0.00000
G1 Z-0.47843
G3  X-3.25396 Y-2.95000 I0.00396 J0.00000
G1 Z-0.48627
G3  X-3.25396 Y-2.95000 I0.00396 J0.00000
G1 Z-0.49412
G3  X-3.25396 Y-2.95000 I0.00396 J0.00000
G1 Z-0.50196
G3  X-3.25396 Y-2.95000 I0.00396 J0.00000
G1 Z-0.50980
G3  X-3.25396 Y-2.95000 I0.00396 J0.00000
G1 Z-0.51765
G3  X-3.25396 Y-2.95000 I0.00396 J0.00000
G1 Z-0.52549
G3  X-3.25396 Y-2.95000 I0.00396 J0.00000
G1 Z-0.53333
G3  X-3.25396 Y-2.95000 I0.00396 J0.00000
G1 Z-0.54118
G3  X-3.25396 Y-2.95000 I0.00396 J0.00000
G1 Z-0.54902
G3  X-3.25396 Y-2.95000 I0.00396 J0.00000
G1 Z-0.55686
G3  X-3.25396 Y-2.95000 I0.00396 J0.00000
G1 Z-0.56471
G3  X-3.25396 Y-2.95000 I0.00396 J0.00000
G1 Z-0.57255
G3  X-3.25396 Y-2.95000 I0.00396 J0.00000
G1 Z-0.58039
G3  X-3.25396 Y-2.95000 I0.00396 J0.00000
G1 Z-0.58824
G3  X-3.25396 Y-2.95000 I0.00396 J0.00000
G1 Z-0.59608
G3  X-3.25396 Y-2.95000 I0.00396 J0.00000
G1 Z-0.60392
G3  X-3.25396 Y-2.95000 I0.00396 J0.00000
G1 Z-0.61176
G3  X-3.25396 Y-2.95000 I0.00396 J0.00000
G1 Z-0.61961
G3  X-3.25396 Y-2.95000 I0.00396 J0.00000
G1 Z-0.62745
G3  X-3.25396 Y-2.95000 I0.00396 J0.00000
G1 Z-0.63529
G3  X-3.25396 Y-2.95000 I0.00396 J0.00000
G1 Z-0.64314
G3  X-3.25396 Y-2.95000 I0.00396 J0.00000
G1 Z-0.65098
G3  X-3.25396 Y-2.95000 I0.00396 J0.00000
G1 Z-0.65882
G3  X-3.25396 Y-2.95000 I0.00396 J0.00000
G1 Z-0.66667
G3  X-3.25396 Y-2.95000 I0.00396 J0.00000
G1 Z-0.67451
G3  X-3.25396 Y-2.95000 I0.00396 J0.00000
G1 Z-0.68235
G3  X-3.25396 Y-2.95000 I0.00396 J0.00000
G1 Z-0.69020
G3  X-3.25396 Y-2.95000 I0.00396 J0.00000
G1 Z-0.69804
G3  X-3.25396 Y-2.95000 I0.00396 J0.00000
G1 Z-0.70588
G3  X-3.25396 Y-2.95000 I0.00396 J0.00000
G1 Z-0.71373
G3  X-3.25396 Y-2.95000 I0.00396 J0.00000
G1 Z-0.72157
G3  X-3.25396 Y-2.95000 I0.00396 J0.00000
G1 Z-0.72941
G3  X-3.25396 Y-2.95000 I0.00396 J0.00000
G1 Z-0.73725
G3  X-3.25396 Y-2.95000 I0.00396 J0.00000
G1 Z-0.74510
G3  X-3.25396 Y-2.95000 I0.00396 J0.00000
G1 Z-0.75294
G3  X-3.25396 Y-2.95000 I0.00396 J0.00000
G1 Z-0.76078
G3  X-3.25396 Y-2.95000 I0.00396 J0.00000
G1 Z-0.76863
G3  X-3.25396 Y-2.95000 I0.00396 J0.00000
G1 Z-0.77647
G3  X-3.25396 Y-2.95000 I0.00396 J0.00000
G1 Z-0.78431
G3  X-3.25396 Y-2.95000 I0.00396 J0.00000
G1 Z-0.79216
G3  X-3.25396 Y-2.95000 I0.00396 J0.00000
G1 Z-0.80000
G3  X-3.25396 Y-2.95000 I0.00396 J0.00000
G1 Z-0.80784
G3  X-3.25396 Y-2.95000 I0.00396 J0.00000
G1 Z-0.81569
G3  X-3.25396 Y-2.95000 I0.00396 J0.00000
G1 Z-0.82353
G3  X-3.25396 Y-2.95000 I0.00396 J0.00000
G1 Z-0.83137
G3  X-3.25396 Y-2.95000 I0.00396 J0.00000
G1 Z-0.83922
G3  X-3.25396 Y-2.95000 I0.00396 J0.00000
G1 Z-0.84706
G3  X-3.25396 Y-2.95000 I0.00396 J0.00000
G1 Z-0.85490
G3  X-3.25396 Y-2.95000 I0.00396 J0.00000
G1 Z-0.86275
G3  X-3.25396 Y-2.95000 I0.00396 J0.00000
G1 Z-0.87059
G3  X-3.25396 Y-2.95000 I0.00396 J0.00000
G1 Z-0.87843
G3  X-3.25396 Y-2.95000 I0.00396 J0.00000
G1 Z-0.88627
G3  X-3.25396 Y-2.95000 I0.00396 J0.00000
G1 Z-0.89412
G3  X-3.25396 Y-2.95000 I0.00396 J0.00000
G1 Z-0.90196
G3  X-3.25396 Y-2.95000 I0.00396 J0.00000
G1 Z-0.90980
G3  X-3.25396 Y-2.95000 I0.00396 J0.00000
G1 Z-0.91765
G3  X-3.25396 Y-2.95000 I0.00396 J0.00000
G1 Z-0.92549
G3  X-3.25396 Y-2.95000 I0.00396 J0.00000
G1 Z-0.93333
G3  X-3.25396 Y-2.95000 I0.00396 J0.00000
G1 Z-0.94118
G3  X-3.25396 Y-2.95000 I0.00396 J0.00000
G1 Z-0.94902
G3  X-3.25396 Y-2.95000 I0.00396 J0.00000
G1 Z-0.95686
G3  X-3.25396 Y-2.95000 I0.00396 J0.00000
G1 Z-0.96471
G3  X-3.25396 Y-2.95000 I0.00396 J0.00000
G1 Z-0.97255
G3  X-3.25396 Y-2.95000 I0.00396 J0.00000
G1 Z-0.98039
G3  X-3.25396 Y-2.95000 I0.00396 J0.00000
G1 Z-0.98824
G3  X-3.25396 Y-2.95000 I0.00396 J0.00000
G1 Z-0.99608
G3  X-3.25396 Y-2.95000 I0.00396 J0.00000
G1 Z-1.00392
G3  X-3.25396 Y-2.95000 I0.00396 J0.00000
G1 Z-1.01176
G3  X-3.25396 Y-2.95000 I0.00396 J0.00000
G1 Z-1.01961
G3  X-3.25396 Y-2.95000 I0.00396 J0.00000
G1 Z-1.02745
G3  X-3.25396 Y-2.95000 I0.00396 J0.00000
G1 Z-1.03529
G3  X-3.25396 Y-2.95000 I0.00396 J0.00000
G1 Z-1.04314
G3  X-3.25396 Y-2.95000 I0.00396 J0.00000
G1 Z-1.05098
G3  X-3.25396 Y-2.95000 I0.00396 J0.00000
G1 Z-1.05882
G3  X-3.25396 Y-2.95000 I0.00396 J0.00000
G1 Z-1.06667
G3  X-3.25396 Y-2.95000 I0.00396 J0.00000
G1 Z-1.07451
G3  X-3.25396 Y-2.95000 I0.00396 J0.00000
G1 Z-1.08235
G3  X-3.25396 Y-2.95000 I0.00396 J0.00000
G1 Z-1.09020
G3  X-3.25396 Y-2.95000 I0.00396 J0.00000
G1 Z-1.09804
G3  X-3.25396 Y-2.95000 I0.00396 J0.00000
G1 Z-1.10588
G3  X-3.25396 Y-2.95000 I0.00396 J0.00000
G1 Z-1.11373
G3  X-3.25396 Y-2.95000 I0.00396 J0.00000
G1 Z-1.12157
G3  X-3.25396 Y-2.95000 I0.00396 J0.00000
G1 Z-1.12941
G3  X-3.25396 Y-2.95000 I0.00396 J0.00000
G1 Z-1.13725
G3  X-3.25396 Y-2.95000 I0.00396 J0.00000
G1 Z-1.14510
G3  X-3.25396 Y-2.95000 I0.00396 J0.00000
G1 Z-1.15294
G3  X-3.25396 Y-2.95000 I0.00396 J0.00000
G1 Z-1.16078
G3  X-3.25396 Y-2.95000 I0.00396 J0.00000
G1 Z-1.16863
G3  X-3.25396 Y-2.95000 I0.00396 J0.00000
G1 Z-1.17647
G3  X-3.25396 Y-2.95000 I0.00396 J0.00000
G1 Z-1.18431
G3  X-3.25396 Y-2.95000 I0.00396 J0.00000
G1 Z-1.19216
G3  X-3.25396 Y-2.95000 I0.00396 J0.00000
G1 Z-1.20000
G3  X-3.25396 Y-2.95000 I0.00396 J0.00000
G1 Z-1.20784
G3  X-3.25396 Y-2.95000 I0.00396 J0.00000
G1 Z-1.21569
G3  X-3.25396 Y-2.95000 I0.00396 J0.00000
G1 Z-1.22353
G3  X-3.25396 Y-2.95000 I0.00396 J0.00000
G1 Z-1.23137
G3  X-3.25396 Y-2.95000 I0.00396 J0.00000
G1 Z-1.23922
G3  X-3.25396 Y-2.95000 I0.00396 J0.00000
G1 Z-1.24706
G3  X-3.25396 Y-2.95000 I0.00396 J0.00000
G1 Z-1.25490
G3  X-3.25396 Y-2.95000 I0.00396 J0.00000
G1 Z-1.26275
G3  X-3.25396 Y-2.95000 I0.00396 J0.00000
G1 Z-1.27059
G3  X-3.25396 Y-2.95000 I0.00396 J0.00000
G1 Z-1.27843
G3  X-3.25396 Y-2.95000 I0.00396 J0.00000
G1 Z-1.28627
G3  X-3.25396 Y-2.95000 I0.00396 J0.00000
G1 Z-1.29412
G3  X-3.25396 Y-2.95000 I0.00396 J0.00000
G1 Z-1.30196
G3  X-3.25396 Y-2.95000 I0.00396 J0.00000
G1 Z-1.30980
G3  X-3.25396 Y-2.95000 I0.00396 J0.00000
G1 Z-1.31765
G3  X-3.25396 Y-2.95000 I0.00396 J0.00000
G1 Z-1.32549
G3  X-3.25396 Y-2.95000 I0.00396 J0.00000
G1 Z-1.33333
G3  X-3.25396 Y-2.95000 I0.00396 J0.00000
G1 Z-1.34118
G3  X-3.25396 Y-2.95000 I0.00396 J0.00000
G1 Z-1.34902
G3  X-3.25396 Y-2.95000 I0.00396 J0.00000
G1 Z-1.35686
G3  X-3.25396 Y-2.95000 I0.00396 J0.00000
G1 Z-1.36471
G3  X-3.25396 Y-2.95000 I0.00396 J0.00000
G1 Z-1.37255
G3  X-3.25396 Y-2.95000 I0.00396 J0.00000
G1 Z-1.38039
G3  X-3.25396 Y-2.95000 I0.00396 J0.00000
G1 Z-1.38824
G3  X-3.25396 Y-2.95000 I0.00396 J0.00000
G1 Z-1.39608
G3  X-3.25396 Y-2.95000 I0.00396 J0.00000
G1 Z-1.40392
G3  X-3.25396 Y-2.95000 I0.00396 J0.00000
G1 Z-1.41176
G3  X-3.25396 Y-2.95000 I0.00396 J0.00000
G1 Z-1.41961
G3  X-3.25396 Y-2.95000 I0.00396 J0.00000
G1 Z-1.42745
G3  X-3.25396 Y-2.95000 I0.00396 J0.00000
G1 Z-1.43529
G3  X-3.25396 Y-2.95000 I0.00396 J0.00000
G1 Z-1.44314
G3  X-3.25396 Y-2.95000 I0.00396 J0.00000
G1 Z-1.45098
G3  X-3.25396 Y-2.95000 I0.00396 J0.00000
G1 Z-1.45882
G3  X-3.25396 Y-2.95000 I0.00396 J0.00000
G1 Z-1.46667
G3  X-3.25396 Y-2.95000 I0.00396 J0.00000
G1 Z-1.47451
G3  X-3.25396 Y-2.95000 I0.00396 J0.00000
G1 Z-1.48235
G3  X-3.25396 Y-2.95000 I0.00396 J0.00000
G1 Z-1.49020
G3  X-3.25396 Y-2.95000 I0.00396 J0.00000
G1 Z-1.49804
G3  X-3.25396 Y-2.95000 I0.00396 J0.00000
G1 Z-1.50588
G3  X-3.25396 Y-2.95000 I0.00396 J0.00000
G1 Z-1.51373
G3  X-3.25396 Y-2.95000 I0.00396 J0.00000
G1 Z-1.52157
G3  X-3.25396 Y-2.95000 I0.00396 J0.00000
G1 Z-1.52941
G3  X-3.25396 Y-2.95000 I0.00396 J0.00000
G1 Z-1.53725
G3  X-3.25396 Y-2.95000 I0.00396 J0.00000
G1 Z-1.54510
G3  X-3.25396 Y-2.95000 I0.00396 J0.00000
G1 Z-1.55294
G3  X-3.25396 Y-2.95000 I0.00396 J0.00000
G1 Z-1.56078
G3  X-3.25396 Y-2.95000 I0.00396 J0.00000
G1 Z-1.56863
G3  X-3.25396 Y-2.95000 I0.00396 J0.00000
G1 Z-1.57647
G3  X-3.25396 Y-2.95000 I0.00396 J0.00000
G1 Z-1.58431
G3  X-3.25396 Y-2.95000 I0.00396 J0.00000
G1 Z-1.59216
G3  X-3.25396 Y-2.95000 I0.00396 J0.00000
G1 Z-1.60000
G3  X-3.25396 Y-2.95000 I0.00396 J0.00000
G0 Z0.08000

G0 X-3.65396 Y-2.55000
G1 Z-0.00784
G3  X-3.65396 Y-2.55000 I0.00396 J0.00000
G1 Z-0.01569
G3  X-3.65396 Y-2.55000 I0.00396 J0.00000
G1 Z-0.02353
G3  X-3.65396 Y-2.55000 I0.00396 J0.00000
G1 Z-0.03137
G3  X-3.65396 Y-2.55000 I0.00396 J0.00000
G1 Z-0.03922
G3  X-3.65396 Y-2.55000 I0.00396 J0.00000
G1 Z-0.04706
G3  X-3.65396 Y-2.55000 I0.00396 J0.00000
G1 Z-0.05490
G3  X-3.65396 Y-2.55000 I0.00396 J0.00000
G1 Z-0.06275
G3  X-3.65396 Y-2.55000 I0.00396 J0.00000
G1 Z-0.07059
G3  X-3.65396 Y-2.55000 I0.00396 J0.00000
G1 Z-0.07843
G3  X-3.65396 Y-2.55000 I0.00396 J0.00000
G1 Z-0.08627
G3  X-3.65396 Y-2.55000 I0.00396 J0.00000
G1 Z-0.09412
G3  X-3.65396 Y-2.55000 I0.00396 J0.00000
G1 Z-0.10196
G3  X-3.65396 Y-2.55000 I0.00396 J0.00000
G1 Z-0.10980
G3  X-3.65396 Y-2.55000 I0.00396 J0.00000
G1 Z-0.11765
G3  X-3.65396 Y-2.55000 I0.00396 J0.00000
G1 Z-0.12549
G3  X-3.65396 Y-2.55000 I0.00396 J0.00000
G1 Z-0.13333
G3  X-3.65396 Y-2.55000 I0.00396 J0.00000
G1 Z-0.14118
G3  X-3.65396 Y-2.55000 I0.00396 J0.00000
G1 Z-0.14902
G3  X-3.65396 Y-2.55000 I0.00396 J0.00000
G1 Z-0.15686
G3  X-3.65396 Y-2.55000 I0.00396 J0.00000
G1 Z-0.16471
G3  X-3.65396 Y-2.55000 I0.00396 J0.00000
G1 Z-0.17255
G3  X-3.65396 Y-2.55000 I0.00396 J0.00000
G1 Z-0.18039
G3  X-3.65396 Y-2.55000 I0.00396 J0.00000
G1 Z-0.18824
G3  X-3.65396 Y-2.55000 I0.00396 J0.00000
G1 Z-0.19608
G3  X-3.65396 Y-2.55000 I0.00396 J0.00000
G1 Z-0.20392
G3  X-3.65396 Y-2.55000 I0.00396 J0.00000
G1 Z-0.21176
G3  X-3.65396 Y-2.55000 I0.00396 J0.00000
G1 Z-0.21961
G3  X-3.65396 Y-2.55000 I0.00396 J0.00000
G1 Z-0.22745
G3  X-3.65396 Y-2.55000 I0.00396 J0.00000
G1 Z-0.23529
G3  X-3.65396 Y-2.55000 I0.00396 J0.00000
G1 Z-0.24314
G3  X-3.65396 Y-2.55000 I0.00396 J0.00000
G1 Z-0.25098
G3  X-3.65396 Y-2.55000 I0.00396 J0.00000
G1 Z-0.25882
G3  X-3.65396 Y-2.55000 I0.00396 J0.00000
G1 Z-0.26667
G3  X-3.65396 Y-2.55000 I0.00396 J0.00000
G1 Z-0.27451
G3  X-3.65396 Y-2.55000 I0.00396 J0.00000
G1 Z-0.28235
G3  X-3.65396 Y-2.55000 I0.00396 J0.00000
G1 Z-0.29020
G3  X-3.65396 Y-2.55000 I0.00396 J0.00000
G1 Z-0.29804
G3  X-3.65396 Y-2.55000 I0.00396 J0.00000
G1 Z-0.30588
G3  X-3.65396 Y-2.55000 I0.00396 J0.00000
G1 Z-0.31373
G3  X-3.65396 Y-2.55000 I0.00396 J0.00000
G1 Z-0.32157
G3  X-3.65396 Y-2.55000 I0.00396 J0.00000
G1 Z-0.32941
G3  X-3.65396 Y-2.55000 I0.00396 J0.00000
G1 Z-0.33725
G3  X-3.65396 Y-2.55000 I0.00396 J0.00000
G1 Z-0.34510
G3  X-3.65396 Y-2.55000 I0.00396 J0.00000
G1 Z-0.35294
G3  X-3.65396 Y-2.55000 I0.00396 J0.00000
G1 Z-0.36078
G3  X-3.65396 Y-2.55000 I0.00396 J0.00000
G1 Z-0.36863
G3  X-3.65396 Y-2.55000 I0.00396 J0.00000
G1 Z-0.37647
G3  X-3.65396 Y-2.55000 I0.00396 J0.00000
G1 Z-0.38431
G3  X-3.65396 Y-2.55000 I0.00396 J0.00000
G1 Z-0.39216
G3  X-3.65396 Y-2.55000 I0.00396 J0.00000
G1 Z-0.40000
G3  X-3.65396 Y-2.55000 I0.00396 J0.00000
G1 Z-0.40784
G3  X-3.65396 Y-2.55000 I0.00396 J0.00000
G1 Z-0.41569
G3  X-3.65396 Y-2.55000 I0.00396 J0.00000
G1 Z-0.42353
G3  X-3.65396 Y-2.55000 I0.00396 J0.00000
G1 Z-0.43137
G3  X-3.65396 Y-2.55000 I0.00396 J0.00000
G1 Z-0.43922
G3  X-3.65396 Y-2.55000 I0.00396 J0.00000
G1 Z-0.44706
G3  X-3.65396 Y-2.55000 I0.00396 J0.00000
G1 Z-0.45490
G3  X-3.65396 Y-2.55000 I0.00396 J0.00000
G1 Z-0.46275
G3  X-3.65396 Y-2.55000 I0.00396 J0.00000
G1 Z-0.47059
G3  X-3.65396 Y-2.55000 I0.00396 J0.00000
G1 Z-0.47843
G3  X-3.65396 Y-2.55000 I0.00396 J0.00000
G1 Z-0.48627
G3  X-3.65396 Y-2.55000 I0.00396 J0.00000
G1 Z-0.49412
G3  X-3.65396 Y-2.55000 I0.00396 J0.00000
G1 Z-0.50196
G3  X-3.65396 Y-2.55000 I0.00396 J0.00000
G1 Z-0.50980
G3  X-3.65396 Y-2.55000 I0.00396 J0.00000
G1 Z-0.51765
G3  X-3.65396 Y-2.55000 I0.00396 J0.00000
G1 Z-0.52549
G3  X-3.65396 Y-2.55000 I0.00396 J0.00000
G1 Z-0.53333
G3  X-3.65396 Y-2.55000 I0.00396 J0.00000
G1 Z-0.54118
G3  X-3.65396 Y-2.55000 I0.00396 J0.00000
G1 Z-0.54902
G3  X-3.65396 Y-2.55000 I0.00396 J0.00000
G1 Z-0.55686
G3  X-3.65396 Y-2.55000 I0.00396 J0.00000
G1 Z-0.56471
G3  X-3.65396 Y-2.55000 I0.00396 J0.00000
G1 Z-0.57255
G3  X-3.65396 Y-2.55000 I0.00396 J0.00000
G1 Z-0.58039
G3  X-3.65396 Y-2.55000 I0.00396 J0.00000
G1 Z-0.58824
G3  X-3.65396 Y-2.55000 I0.00396 J0.00000
G1 Z-0.59608
G3  X-3.65396 Y-2.55000 I0.00396 J0.00000
G1 Z-0.60392
G3  X-3.65396 Y-2.55000 I0.00396 J0.00000
G1 Z-0.61176
G3  X-3.65396 Y-2.55000 I0.00396 J0.00000
G1 Z-0.61961
G3  X-3.65396 Y-2.55000 I0.00396 J0.00000
G1 Z-0.62745
G3  X-3.65396 Y-2.55000 I0.00396 J0.00000
G1 Z-0.63529
G3  X-3.65396 Y-2.55000 I0.00396 J0.00000
G1 Z-0.64314
G3  X-3.65396 Y-2.55000 I0.00396 J0.00000
G1 Z-0.65098
G3  X-3.65396 Y-2.55000 I0.00396 J0.00000
G1 Z-0.65882
G3  X-3.65396 Y-2.55000 I0.00396 J0.00000
G1 Z-0.66667
G3  X-3.65396 Y-2.55000 I0.00396 J0.00000
G1 Z-0.67451
G3  X-3.65396 Y-2.55000 I0.00396 J0.00000
G1 Z-0.68235
G3  X-3.65396 Y-2.55000 I0.00396 J0.00000
G1 Z-0.69020
G3  X-3.65396 Y-2.55000 I0.00396 J0.00000
G1 Z-0.69804
G3  X-3.65396 Y-2.55000 I0.00396 J0.00000
G1 Z-0.70588
G3  X-3.65396 Y-2.55000 I0.00396 J0.00000
G1 Z-0.71373
G3  X-3.65396 Y-2.55000 I0.00396 J0.00000
G1 Z-0.72157
G3  X-3.65396 Y-2.55000 I0.00396 J0.00000
G1 Z-0.72941
G3  X-3.65396 Y-2.55000 I0.00396 J0.00000
G1 Z-0.73725
G3  X-3.65396 Y-2.55000 I0.00396 J0.00000
G1 Z-0.74510
G3  X-3.65396 Y-2.55000 I0.00396 J0.00000
G1 Z-0.75294
G3  X-3.65396 Y-2.55000 I0.00396 J0.00000
G1 Z-0.76078
G3  X-3.65396 Y-2.55000 I0.00396 J0.00000
G1 Z-0.76863
G3  X-3.65396 Y-2.55000 I0.00396 J0.00000
G1 Z-0.77647
G3  X-3.65396 Y-2.55000 I0.00396 J0.00000
G1 Z-0.78431
G3  X-3.65396 Y-2.55000 I0.00396 J0.00000
G1 Z-0.79216
G3  X-3.65396 Y-2.55000 I0.00396 J0.00000
G1 Z-0.80000
G3  X-3.65396 Y-2.55000 I0.00396 J0.00000
G1 Z-0.80784
G3  X-3.65396 Y-2.55000 I0.00396 J0.00000
G1 Z-0.81569
G3  X-3.65396 Y-2.55000 I0.00396 J0.00000
G1 Z-0.82353
G3  X-3.65396 Y-2.55000 I0.00396 J0.00000
G1 Z-0.83137
G3  X-3.65396 Y-2.55000 I0.00396 J0.00000
G1 Z-0.83922
G3  X-3.65396 Y-2.55000 I0.00396 J0.00000
G1 Z-0.84706
G3  X-3.65396 Y-2.55000 I0.00396 J0.00000
G1 Z-0.85490
G3  X-3.65396 Y-2.55000 I0.00396 J0.00000
G1 Z-0.86275
G3  X-3.65396 Y-2.55000 I0.00396 J0.00000
G1 Z-0.87059
G3  X-3.65396 Y-2.55000 I0.00396 J0.00000
G1 Z-0.87843
G3  X-3.65396 Y-2.55000 I0.00396 J0.00000
G1 Z-0.88627
G3  X-3.65396 Y-2.55000 I0.00396 J0.00000
G1 Z-0.89412
G3  X-3.65396 Y-2.55000 I0.00396 J0.00000
G1 Z-0.90196
G3  X-3.65396 Y-2.55000 I0.00396 J0.00000
G1 Z-0.90980
G3  X-3.65396 Y-2.55000 I0.00396 J0.00000
G1 Z-0.91765
G3  X-3.65396 Y-2.55000 I0.00396 J0.00000
G1 Z-0.92549
G3  X-3.65396 Y-2.55000 I0.00396 J0.00000
G1 Z-0.93333
G3  X-3.65396 Y-2.55000 I0.00396 J0.00000
G1 Z-0.94118
G3  X-3.65396 Y-2.55000 I0.00396 J0.00000
G1 Z-0.94902
G3  X-3.65396 Y-2.55000 I0.00396 J0.00000
G1 Z-0.95686
G3  X-3.65396 Y-2.55000 I0.00396 J0.00000
G1 Z-0.96471
G3  X-3.65396 Y-2.55000 I0.00396 J0.00000
G1 Z-0.97255
G3  X-3.65396 Y-2.55000 I0.00396 J0.00000
G1 Z-0.98039
G3  X-3.65396 Y-2.55000 I0.00396 J0.00000
G1 Z-0.98824
G3  X-3.65396 Y-2.55000 I0.00396 J0.00000
G1 Z-0.99608
G3  X-3.65396 Y-2.55000 I0.00396 J0.00000
G1 Z-1.00392
G3  X-3.65396 Y-2.55000 I0.00396 J0.00000
G1 Z-1.01176
G3  X-3.65396 Y-2.55000 I0.00396 J0.00000
G1 Z-1.01961
G3  X-3.65396 Y-2.55000 I0.00396 J0.00000
G1 Z-1.02745
G3  X-3.65396 Y-2.55000 I0.00396 J0.00000
G1 Z-1.03529
G3  X-3.65396 Y-2.55000 I0.00396 J0.00000
G1 Z-1.04314
G3  X-3.65396 Y-2.55000 I0.00396 J0.00000
G1 Z-1.05098
G3  X-3.65396 Y-2.55000 I0.00396 J0.00000
G1 Z-1.05882
G3  X-3.65396 Y-2.55000 I0.00396 J0.00000
G1 Z-1.06667
G3  X-3.65396 Y-2.55000 I0.00396 J0.00000
G1 Z-1.07451
G3  X-3.65396 Y-2.55000 I0.00396 J0.00000
G1 Z-1.08235
G3  X-3.65396 Y-2.55000 I0.00396 J0.00000
G1 Z-1.09020
G3  X-3.65396 Y-2.55000 I0.00396 J0.00000
G1 Z-1.09804
G3  X-3.65396 Y-2.55000 I0.00396 J0.00000
G1 Z-1.10588
G3  X-3.65396 Y-2.55000 I0.00396 J0.00000
G1 Z-1.11373
G3  X-3.65396 Y-2.55000 I0.00396 J0.00000
G1 Z-1.12157
G3  X-3.65396 Y-2.55000 I0.00396 J0.00000
G1 Z-1.12941
G3  X-3.65396 Y-2.55000 I0.00396 J0.00000
G1 Z-1.13725
G3  X-3.65396 Y-2.55000 I0.00396 J0.00000
G1 Z-1.14510
G3  X-3.65396 Y-2.55000 I0.00396 J0.00000
G1 Z-1.15294
G3  X-3.65396 Y-2.55000 I0.00396 J0.00000
G1 Z-1.16078
G3  X-3.65396 Y-2.55000 I0.00396 J0.00000
G1 Z-1.16863
G3  X-3.65396 Y-2.55000 I0.00396 J0.00000
G1 Z-1.17647
G3  X-3.65396 Y-2.55000 I0.00396 J0.00000
G1 Z-1.18431
G3  X-3.65396 Y-2.55000 I0.00396 J0.00000
G1 Z-1.19216
G3  X-3.65396 Y-2.55000 I0.00396 J0.00000
G1 Z-1.20000
G3  X-3.65396 Y-2.55000 I0.00396 J0.00000
G1 Z-1.20784
G3  X-3.65396 Y-2.55000 I0.00396 J0.00000
G1 Z-1.21569
G3  X-3.65396 Y-2.55000 I0.00396 J0.00000
G1 Z-1.22353
G3  X-3.65396 Y-2.55000 I0.00396 J0.00000
G1 Z-1.23137
G3  X-3.65396 Y-2.55000 I0.00396 J0.00000
G1 Z-1.23922
G3  X-3.65396 Y-2.55000 I0.00396 J0.00000
G1 Z-1.24706
G3  X-3.65396 Y-2.55000 I0.00396 J0.00000
G1 Z-1.25490
G3  X-3.65396 Y-2.55000 I0.00396 J0.00000
G1 Z-1.26275
G3  X-3.65396 Y-2.55000 I0.00396 J0.00000
G1 Z-1.27059
G3  X-3.65396 Y-2.55000 I0.00396 J0.00000
G1 Z-1.27843
G3  X-3.65396 Y-2.55000 I0.00396 J0.00000
G1 Z-1.28627
G3  X-3.65396 Y-2.55000 I0.00396 J0.00000
G1 Z-1.29412
G3  X-3.65396 Y-2.55000 I0.00396 J0.00000
G1 Z-1.30196
G3  X-3.65396 Y-2.55000 I0.00396 J0.00000
G1 Z-1.30980
G3  X-3.65396 Y-2.55000 I0.00396 J0.00000
G1 Z-1.31765
G3  X-3.65396 Y-2.55000 I0.00396 J0.00000
G1 Z-1.32549
G3  X-3.65396 Y-2.55000 I0.00396 J0.00000
G1 Z-1.33333
G3  X-3.65396 Y-2.55000 I0.00396 J0.00000
G1 Z-1.34118
G3  X-3.65396 Y-2.55000 I0.00396 J0.00000
G1 Z-1.34902
G3  X-3.65396 Y-2.55000 I0.00396 J0.00000
G1 Z-1.35686
G3  X-3.65396 Y-2.55000 I0.00396 J0.00000
G1 Z-1.36471
G3  X-3.65396 Y-2.55000 I0.00396 J0.00000
G1 Z-1.37255
G3  X-3.65396 Y-2.55000 I0.00396 J0.00000
G1 Z-1.38039
G3  X-3.65396 Y-2.55000 I0.00396 J0.00000
G1 Z-1.38824
G3  X-3.65396 Y-2.55000 I0.00396 J0.00000
G1 Z-1.39608
G3  X-3.65396 Y-2.55000 I0.00396 J0.00000
G1 Z-1.40392
G3  X-3.65396 Y-2.55000 I0.00396 J0.00000
G1 Z-1.41176
G3  X-3.65396 Y-2.55000 I0.00396 J0.00000
G1 Z-1.41961
G3  X-3.65396 Y-2.55000 I0.00396 J0.00000
G1 Z-1.42745
G3  X-3.65396 Y-2.55000 I0.00396 J0.00000
G1 Z-1.43529
G3  X-3.65396 Y-2.55000 I0.00396 J0.00000
G1 Z-1.44314
G3  X-3.65396 Y-2.55000 I0.00396 J0.00000
G1 Z-1.45098
G3  X-3.65396 Y-2.55000 I0.00396 J0.00000
G1 Z-1.45882
G3  X-3.65396 Y-2.55000 I0.00396 J0.00000
G1 Z-1.46667
G3  X-3.65396 Y-2.55000 I0.00396 J0.00000
G1 Z-1.47451
G3  X-3.65396 Y-2.55000 I0.00396 J0.00000
G1 Z-1.48235
G3  X-3.65396 Y-2.55000 I0.00396 J0.00000
G1 Z-1.49020
G3  X-3.65396 Y-2.55000 I0.00396 J0.00000
G1 Z-1.49804
G3  X-3.65396 Y-2.55000 I0.00396 J0.00000
G1 Z-1.50588
G3  X-3.65396 Y-2.55000 I0.00396 J0.00000
G1 Z-1.51373
G3  X-3.65396 Y-2.55000 I0.00396 J0.00000
G1 Z-1.52157
G3  X-3.65396 Y-2.55000 I0.00396 J0.00000
G1 Z-1.52941
G3  X-3.65396 Y-2.55000 I0.00396 J0.00000
G1 Z-1.53725
G3  X-3.65396 Y-2.55000 I0.00396 J0.00000
G1 Z-1.54510
G3  X-3.65396 Y-2.55000 I0.00396 J0.00000
G1 Z-1.55294
G3  X-3.65396 Y-2.55000 I0.00396 J0.00000
G1 Z-1.56078
G3  X-3.65396 Y-2.55000 I0.00396 J0.00000
G1 Z-1.56863
G3  X-3.65396 Y-2.55000 I0.00396 J0.00000
G1 Z-1.57647
G3  X-3.65396 Y-2.55000 I0.00396 J0.00000
G1 Z-1.58431
G3  X-3.65396 Y-2.55000 I0.00396 J0.00000
G1 Z-1.59216
G3  X-3.65396 Y-2.55000 I0.00396 J0.00000
G1 Z-1.60000
G3  X-3.65396 Y-2.55000 I0.00396 J0.00000
G0 Z0.08000

G0 X-3.65396 Y-2.95000
G1 Z-0.00784
G3  X-3.65396 Y-2.95000 I0.00396 J0.00000
G1 Z-0.01569
G3  X-3.65396 Y-2.95000 I0.00396 J0.00000
G1 Z-0.02353
G3  X-3.65396 Y-2.95000 I0.00396 J0.00000
G1 Z-0.03137
G3  X-3.65396 Y-2.95000 I0.00396 J0.00000
G1 Z-0.03922
G3  X-3.65396 Y-2.95000 I0.00396 J0.00000
G1 Z-0.04706
G3  X-3.65396 Y-2.95000 I0.00396 J0.00000
G1 Z-0.05490
G3  X-3.65396 Y-2.95000 I0.00396 J0.00000
G1 Z-0.06275
G3  X-3.65396 Y-2.95000 I0.00396 J0.00000
G1 Z-0.07059
G3  X-3.65396 Y-2.95000 I0.00396 J0.00000
G1 Z-0.07843
G3  X-3.65396 Y-2.95000 I0.00396 J0.00000
G1 Z-0.08627
G3  X-3.65396 Y-2.95000 I0.00396 J0.00000
G1 Z-0.09412
G3  X-3.65396 Y-2.95000 I0.00396 J0.00000
G1 Z-0.10196
G3  X-3.65396 Y-2.95000 I0.00396 J0.00000
G1 Z-0.10980
G3  X-3.65396 Y-2.95000 I0.00396 J0.00000
G1 Z-0.11765
G3  X-3.65396 Y-2.95000 I0.00396 J0.00000
G1 Z-0.12549
G3  X-3.65396 Y-2.95000 I0.00396 J0.00000
G1 Z-0.13333
G3  X-3.65396 Y-2.95000 I0.00396 J0.00000
G1 Z-0.14118
G3  X-3.65396 Y-2.95000 I0.00396 J0.00000
G1 Z-0.14902
G3  X-3.65396 Y-2.95000 I0.00396 J0.00000
G1 Z-0.15686
G3  X-3.65396 Y-2.95000 I0.00396 J0.00000
G1 Z-0.16471
G3  X-3.65396 Y-2.95000 I0.00396 J0.00000
G1 Z-0.17255
G3  X-3.65396 Y-2.95000 I0.00396 J0.00000
G1 Z-0.18039
G3  X-3.65396 Y-2.95000 I0.00396 J0.00000
G1 Z-0.18824
G3  X-3.65396 Y-2.95000 I0.00396 J0.00000
G1 Z-0.19608
G3  X-3.65396 Y-2.95000 I0.00396 J0.00000
G1 Z-0.20392
G3  X-3.65396 Y-2.95000 I0.00396 J0.00000
G1 Z-0.21176
G3  X-3.65396 Y-2.95000 I0.00396 J0.00000
G1 Z-0.21961
G3  X-3.65396 Y-2.95000 I0.00396 J0.00000
G1 Z-0.22745
G3  X-3.65396 Y-2.95000 I0.00396 J0.00000
G1 Z-0.23529
G3  X-3.65396 Y-2.95000 I0.00396 J0.00000
G1 Z-0.24314
G3  X-3.65396 Y-2.95000 I0.00396 J0.00000
G1 Z-0.25098
G3  X-3.65396 Y-2.95000 I0.00396 J0.00000
G1 Z-0.25882
G3  X-3.65396 Y-2.95000 I0.00396 J0.00000
G1 Z-0.26667
G3  X-3.65396 Y-2.95000 I0.00396 J0.00000
G1 Z-0.27451
G3  X-3.65396 Y-2.95000 I0.00396 J0.00000
G1 Z-0.28235
G3  X-3.65396 Y-2.95000 I0.00396 J0.00000
G1 Z-0.29020
G3  X-3.65396 Y-2.95000 I0.00396 J0.00000
G1 Z-0.29804
G3  X-3.65396 Y-2.95000 I0.00396 J0.00000
G1 Z-0.30588
G3  X-3.65396 Y-2.95000 I0.00396 J0.00000
G1 Z-0.31373
G3  X-3.65396 Y-2.95000 I0.00396 J0.00000
G1 Z-0.32157
G3  X-3.65396 Y-2.95000 I0.00396 J0.00000
G1 Z-0.32941
G3  X-3.65396 Y-2.95000 I0.00396 J0.00000
G1 Z-0.33725
G3  X-3.65396 Y-2.95000 I0.00396 J0.00000
G1 Z-0.34510
G3  X-3.65396 Y-2.95000 I0.00396 J0.00000
G1 Z-0.35294
G3  X-3.65396 Y-2.95000 I0.00396 J0.00000
G1 Z-0.36078
G3  X-3.65396 Y-2.95000 I0.00396 J0.00000
G1 Z-0.36863
G3  X-3.65396 Y-2.95000 I0.00396 J0.00000
G1 Z-0.37647
G3  X-3.65396 Y-2.95000 I0.00396 J0.00000
G1 Z-0.38431
G3  X-3.65396 Y-2.95000 I0.00396 J0.00000
G1 Z-0.39216
G3  X-3.65396 Y-2.95000 I0.00396 J0.00000
G1 Z-0.40000
G3  X-3.65396 Y-2.95000 I0.00396 J0.00000
G1 Z-0.40784
G3  X-3.65396 Y-2.95000 I0.00396 J0.00000
G1 Z-0.41569
G3  X-3.65396 Y-2.95000 I0.00396 J0.00000
G1 Z-0.42353
G3  X-3.65396 Y-2.95000 I0.00396 J0.00000
G1 Z-0.43137
G3  X-3.65396 Y-2.95000 I0.00396 J0.00000
G1 Z-0.43922
G3  X-3.65396 Y-2.95000 I0.00396 J0.00000
G1 Z-0.44706
G3  X-3.65396 Y-2.95000 I0.00396 J0.00000
G1 Z-0.45490
G3  X-3.65396 Y-2.95000 I0.00396 J0.00000
G1 Z-0.46275
G3  X-3.65396 Y-2.95000 I0.00396 J0.00000
G1 Z-0.47059
G3  X-3.65396 Y-2.95000 I0.00396 J0.00000
G1 Z-0.47843
G3  X-3.65396 Y-2.95000 I0.00396 J0.00000
G1 Z-0.48627
G3  X-3.65396 Y-2.95000 I0.00396 J0.00000
G1 Z-0.49412
G3  X-3.65396 Y-2.95000 I0.00396 J0.00000
G1 Z-0.50196
G3  X-3.65396 Y-2.95000 I0.00396 J0.00000
G1 Z-0.50980
G3  X-3.65396 Y-2.95000 I0.00396 J0.00000
G1 Z-0.51765
G3  X-3.65396 Y-2.95000 I0.00396 J0.00000
G1 Z-0.52549
G3  X-3.65396 Y-2.95000 I0.00396 J0.00000
G1 Z-0.53333
G3  X-3.65396 Y-2.95000 I0.00396 J0.00000
G1 Z-0.54118
G3  X-3.65396 Y-2.95000 I0.00396 J0.00000
G1 Z-0.54902
G3  X-3.65396 Y-2.95000 I0.00396 J0.00000
G1 Z-0.55686
G3  X-3.65396 Y-2.95000 I0.00396 J0.00000
G1 Z-0.56471
G3  X-3.65396 Y-2.95000 I0.00396 J0.00000
G1 Z-0.57255
G3  X-3.65396 Y-2.95000 I0.00396 J0.00000
G1 Z-0.58039
G3  X-3.65396 Y-2.95000 I0.00396 J0.00000
G1 Z-0.58824
G3  X-3.65396 Y-2.95000 I0.00396 J0.00000
G1 Z-0.59608
G3  X-3.65396 Y-2.95000 I0.00396 J0.00000
G1 Z-0.60392
G3  X-3.65396 Y-2.95000 I0.00396 J0.00000
G1 Z-0.61176
G3  X-3.65396 Y-2.95000 I0.00396 J0.00000
G1 Z-0.61961
G3  X-3.65396 Y-2.95000 I0.00396 J0.00000
G1 Z-0.62745
G3  X-3.65396 Y-2.95000 I0.00396 J0.00000
G1 Z-0.63529
G3  X-3.65396 Y-2.95000 I0.00396 J0.00000
G1 Z-0.64314
G3  X-3.65396 Y-2.95000 I0.00396 J0.00000
G1 Z-0.65098
G3  X-3.65396 Y-2.95000 I0.00396 J0.00000
G1 Z-0.65882
G3  X-3.65396 Y-2.95000 I0.00396 J0.00000
G1 Z-0.66667
G3  X-3.65396 Y-2.95000 I0.00396 J0.00000
G1 Z-0.67451
G3  X-3.65396 Y-2.95000 I0.00396 J0.00000
G1 Z-0.68235
G3  X-3.65396 Y-2.95000 I0.00396 J0.00000
G1 Z-0.69020
G3  X-3.65396 Y-2.95000 I0.00396 J0.00000
G1 Z-0.69804
G3  X-3.65396 Y-2.95000 I0.00396 J0.00000
G1 Z-0.70588
G3  X-3.65396 Y-2.95000 I0.00396 J0.00000
G1 Z-0.71373
G3  X-3.65396 Y-2.95000 I0.00396 J0.00000
G1 Z-0.72157
G3  X-3.65396 Y-2.95000 I0.00396 J0.00000
G1 Z-0.72941
G3  X-3.65396 Y-2.95000 I0.00396 J0.00000
G1 Z-0.73725
G3  X-3.65396 Y-2.95000 I0.00396 J0.00000
G1 Z-0.74510
G3  X-3.65396 Y-2.95000 I0.00396 J0.00000
G1 Z-0.75294
G3  X-3.65396 Y-2.95000 I0.00396 J0.00000
G1 Z-0.76078
G3  X-3.65396 Y-2.95000 I0.00396 J0.00000
G1 Z-0.76863
G3  X-3.65396 Y-2.95000 I0.00396 J0.00000
G1 Z-0.77647
G3  X-3.65396 Y-2.95000 I0.00396 J0.00000
G1 Z-0.78431
G3  X-3.65396 Y-2.95000 I0.00396 J0.00000
G1 Z-0.79216
G3  X-3.65396 Y-2.95000 I0.00396 J0.00000
G1 Z-0.80000
G3  X-3.65396 Y-2.95000 I0.00396 J0.00000
G1 Z-0.80784
G3  X-3.65396 Y-2.95000 I0.00396 J0.00000
G1 Z-0.81569
G3  X-3.65396 Y-2.95000 I0.00396 J0.00000
G1 Z-0.82353
G3  X-3.65396 Y-2.95000 I0.00396 J0.00000
G1 Z-0.83137
G3  X-3.65396 Y-2.95000 I0.00396 J0.00000
G1 Z-0.83922
G3  X-3.65396 Y-2.95000 I0.00396 J0.00000
G1 Z-0.84706
G3  X-3.65396 Y-2.95000 I0.00396 J0.00000
G1 Z-0.85490
G3  X-3.65396 Y-2.95000 I0.00396 J0.00000
G1 Z-0.86275
G3  X-3.65396 Y-2.95000 I0.00396 J0.00000
G1 Z-0.87059
G3  X-3.65396 Y-2.95000 I0.00396 J0.00000
G1 Z-0.87843
G3  X-3.65396 Y-2.95000 I0.00396 J0.00000
G1 Z-0.88627
G3  X-3.65396 Y-2.95000 I0.00396 J0.00000
G1 Z-0.89412
G3  X-3.65396 Y-2.95000 I0.00396 J0.00000
G1 Z-0.90196
G3  X-3.65396 Y-2.95000 I0.00396 J0.00000
G1 Z-0.90980
G3  X-3.65396 Y-2.95000 I0.00396 J0.00000
G1 Z-0.91765
G3  X-3.65396 Y-2.95000 I0.00396 J0.00000
G1 Z-0.92549
G3  X-3.65396 Y-2.95000 I0.00396 J0.00000
G1 Z-0.93333
G3  X-3.65396 Y-2.95000 I0.00396 J0.00000
G1 Z-0.94118
G3  X-3.65396 Y-2.95000 I0.00396 J0.00000
G1 Z-0.94902
G3  X-3.65396 Y-2.95000 I0.00396 J0.00000
G1 Z-0.95686
G3  X-3.65396 Y-2.95000 I0.00396 J0.00000
G1 Z-0.96471
G3  X-3.65396 Y-2.95000 I0.00396 J0.00000
G1 Z-0.97255
G3  X-3.65396 Y-2.95000 I0.00396 J0.00000
G1 Z-0.98039
G3  X-3.65396 Y-2.95000 I0.00396 J0.00000
G1 Z-0.98824
G3  X-3.65396 Y-2.95000 I0.00396 J0.00000
G1 Z-0.99608
G3  X-3.65396 Y-2.95000 I0.00396 J0.00000
G1 Z-1.00392
G3  X-3.65396 Y-2.95000 I0.00396 J0.00000
G1 Z-1.01176
G3  X-3.65396 Y-2.95000 I0.00396 J0.00000
G1 Z-1.01961
G3  X-3.65396 Y-2.95000 I0.00396 J0.00000
G1 Z-1.02745
G3  X-3.65396 Y-2.95000 I0.00396 J0.00000
G1 Z-1.03529
G3  X-3.65396 Y-2.95000 I0.00396 J0.00000
G1 Z-1.04314
G3  X-3.65396 Y-2.95000 I0.00396 J0.00000
G1 Z-1.05098
G3  X-3.65396 Y-2.95000 I0.00396 J0.00000
G1 Z-1.05882
G3  X-3.65396 Y-2.95000 I0.00396 J0.00000
G1 Z-1.06667
G3  X-3.65396 Y-2.95000 I0.00396 J0.00000
G1 Z-1.07451
G3  X-3.65396 Y-2.95000 I0.00396 J0.00000
G1 Z-1.08235
G3  X-3.65396 Y-2.95000 I0.00396 J0.00000
G1 Z-1.09020
G3  X-3.65396 Y-2.95000 I0.00396 J0.00000
G1 Z-1.09804
G3  X-3.65396 Y-2.95000 I0.00396 J0.00000
G1 Z-1.10588
G3  X-3.65396 Y-2.95000 I0.00396 J0.00000
G1 Z-1.11373
G3  X-3.65396 Y-2.95000 I0.00396 J0.00000
G1 Z-1.12157
G3  X-3.65396 Y-2.95000 I0.00396 J0.00000
G1 Z-1.12941
G3  X-3.65396 Y-2.95000 I0.00396 J0.00000
G1 Z-1.13725
G3  X-3.65396 Y-2.95000 I0.00396 J0.00000
G1 Z-1.14510
G3  X-3.65396 Y-2.95000 I0.00396 J0.00000
G1 Z-1.15294
G3  X-3.65396 Y-2.95000 I0.00396 J0.00000
G1 Z-1.16078
G3  X-3.65396 Y-2.95000 I0.00396 J0.00000
G1 Z-1.16863
G3  X-3.65396 Y-2.95000 I0.00396 J0.00000
G1 Z-1.17647
G3  X-3.65396 Y-2.95000 I0.00396 J0.00000
G1 Z-1.18431
G3  X-3.65396 Y-2.95000 I0.00396 J0.00000
G1 Z-1.19216
G3  X-3.65396 Y-2.95000 I0.00396 J0.00000
G1 Z-1.20000
G3  X-3.65396 Y-2.95000 I0.00396 J0.00000
G1 Z-1.20784
G3  X-3.65396 Y-2.95000 I0.00396 J0.00000
G1 Z-1.21569
G3  X-3.65396 Y-2.95000 I0.00396 J0.00000
G1 Z-1.22353
G3  X-3.65396 Y-2.95000 I0.00396 J0.00000
G1 Z-1.23137
G3  X-3.65396 Y-2.95000 I0.00396 J0.00000
G1 Z-1.23922
G3  X-3.65396 Y-2.95000 I0.00396 J0.00000
G1 Z-1.24706
G3  X-3.65396 Y-2.95000 I0.00396 J0.00000
G1 Z-1.25490
G3  X-3.65396 Y-2.95000 I0.00396 J0.00000
G1 Z-1.26275
G3  X-3.65396 Y-2.95000 I0.00396 J0.00000
G1 Z-1.27059
G3  X-3.65396 Y-2.95000 I0.00396 J0.00000
G1 Z-1.27843
G3  X-3.65396 Y-2.95000 I0.00396 J0.00000
G1 Z-1.28627
G3  X-3.65396 Y-2.95000 I0.00396 J0.00000
G1 Z-1.29412
G3  X-3.65396 Y-2.95000 I0.00396 J0.00000
G1 Z-1.30196
G3  X-3.65396 Y-2.95000 I0.00396 J0.00000
G1 Z-1.30980
G3  X-3.65396 Y-2.95000 I0.00396 J0.00000
G1 Z-1.31765
G3  X-3.65396 Y-2.95000 I0.00396 J0.00000
G1 Z-1.32549
G3  X-3.65396 Y-2.95000 I0.00396 J0.00000
G1 Z-1.33333
G3  X-3.65396 Y-2.95000 I0.00396 J0.00000
G1 Z-1.34118
G3  X-3.65396 Y-2.95000 I0.00396 J0.00000
G1 Z-1.34902
G3  X-3.65396 Y-2.95000 I0.00396 J0.00000
G1 Z-1.35686
G3  X-3.65396 Y-2.95000 I0.00396 J0.00000
G1 Z-1.36471
G3  X-3.65396 Y-2.95000 I0.00396 J0.00000
G1 Z-1.37255
G3  X-3.65396 Y-2.95000 I0.00396 J0.00000
G1 Z-1.38039
G3  X-3.65396 Y-2.95000 I0.00396 J0.00000
G1 Z-1.38824
G3  X-3.65396 Y-2.95000 I0.00396 J0.00000
G1 Z-1.39608
G3  X-3.65396 Y-2.95000 I0.00396 J0.00000
G1 Z-1.40392
G3  X-3.65396 Y-2.95000 I0.00396 J0.00000
G1 Z-1.41176
G3  X-3.65396 Y-2.95000 I0.00396 J0.00000
G1 Z-1.41961
G3  X-3.65396 Y-2.95000 I0.00396 J0.00000
G1 Z-1.42745
G3  X-3.65396 Y-2.95000 I0.00396 J0.00000
G1 Z-1.43529
G3  X-3.65396 Y-2.95000 I0.00396 J0.00000
G1 Z-1.44314
G3  X-3.65396 Y-2.95000 I0.00396 J0.00000
G1 Z-1.45098
G3  X-3.65396 Y-2.95000 I0.00396 J0.00000
G1 Z-1.45882
G3  X-3.65396 Y-2.95000 I0.00396 J0.00000
G1 Z-1.46667
G3  X-3.65396 Y-2.95000 I0.00396 J0.00000
G1 Z-1.47451
G3  X-3.65396 Y-2.95000 I0.00396 J0.00000
G1 Z-1.48235
G3  X-3.65396 Y-2.95000 I0.00396 J0.00000
G1 Z-1.49020
G3  X-3.65396 Y-2.95000 I0.00396 J0.00000
G1 Z-1.49804
G3  X-3.65396 Y-2.95000 I0.00396 J0.00000
G1 Z-1.50588
G3  X-3.65396 Y-2.95000 I0.00396 J0.00000
G1 Z-1.51373
G3  X-3.65396 Y-2.95000 I0.00396 J0.00000
G1 Z-1.52157
G3  X-3.65396 Y-2.95000 I0.00396 J0.00000
G1 Z-1.52941
G3  X-3.65396 Y-2.95000 I0.00396 J0.00000
G1 Z-1.53725
G3  X-3.65396 Y-2.95000 I0.00396 J0.00000
G1 Z-1.54510
G3  X-3.65396 Y-2.95000 I0.00396 J0.00000
G1 Z-1.55294
G3  X-3.65396 Y-2.95000 I0.00396 J0.00000
G1 Z-1.56078
G3  X-3.65396 Y-2.95000 I0.00396 J0.00000
G1 Z-1.56863
G3  X-3.65396 Y-2.95000 I0.00396 J0.00000
G1 Z-1.57647
G3  X-3.65396 Y-2.95000 I0.00396 J0.00000
G1 Z-1.58431
G3  X-3.65396 Y-2.95000 I0.00396 J0.00000
G1 Z-1.59216
G3  X-3.65396 Y-2.95000 I0.00396 J0.00000
G1 Z-1.60000
G3  X-3.65396 Y-2.95000 I0.00396 J0.00000
G0 Z0.08000

G0 X-3.75396 Y-3.30000
G1 Z-0.00784
G3  X-3.75396 Y-3.30000 I0.00396 J0.00000
G1 Z-0.01569
G3  X-3.75396 Y-3.30000 I0.00396 J0.00000
G1 Z-0.02353
G3  X-3.75396 Y-3.30000 I0.00396 J0.00000
G1 Z-0.03137
G3  X-3.75396 Y-3.30000 I0.00396 J0.00000
G1 Z-0.03922
G3  X-3.75396 Y-3.30000 I0.00396 J0.00000
G1 Z-0.04706
G3  X-3.75396 Y-3.30000 I0.00396 J0.00000
G1 Z-0.05490
G3  X-3.75396 Y-3.30000 I0.00396 J0.00000
G1 Z-0.06275
G3  X-3.75396 Y-3.30000 I0.00396 J0.00000
G1 Z-0.07059
G3  X-3.75396 Y-3.30000 I0.00396 J0.00000
G1 Z-0.07843
G3  X-3.75396 Y-3.30000 I0.00396 J0.00000
G1 Z-0.08627
G3  X-3.75396 Y-3.30000 I0.00396 J0.00000
G1 Z-0.09412
G3  X-3.75396 Y-3.30000 I0.00396 J0.00000
G1 Z-0.10196
G3  X-3.75396 Y-3.30000 I0.00396 J0.00000
G1 Z-0.10980
G3  X-3.75396 Y-3.30000 I0.00396 J0.00000
G1 Z-0.11765
G3  X-3.75396 Y-3.30000 I0.00396 J0.00000
G1 Z-0.12549
G3  X-3.75396 Y-3.30000 I0.00396 J0.00000
G1 Z-0.13333
G3  X-3.75396 Y-3.30000 I0.00396 J0.00000
G1 Z-0.14118
G3  X-3.75396 Y-3.30000 I0.00396 J0.00000
G1 Z-0.14902
G3  X-3.75396 Y-3.30000 I0.00396 J0.00000
G1 Z-0.15686
G3  X-3.75396 Y-3.30000 I0.00396 J0.00000
G1 Z-0.16471
G3  X-3.75396 Y-3.30000 I0.00396 J0.00000
G1 Z-0.17255
G3  X-3.75396 Y-3.30000 I0.00396 J0.00000
G1 Z-0.18039
G3  X-3.75396 Y-3.30000 I0.00396 J0.00000
G1 Z-0.18824
G3  X-3.75396 Y-3.30000 I0.00396 J0.00000
G1 Z-0.19608
G3  X-3.75396 Y-3.30000 I0.00396 J0.00000
G1 Z-0.20392
G3  X-3.75396 Y-3.30000 I0.00396 J0.00000
G1 Z-0.21176
G3  X-3.75396 Y-3.30000 I0.00396 J0.00000
G1 Z-0.21961
G3  X-3.75396 Y-3.30000 I0.00396 J0.00000
G1 Z-0.22745
G3  X-3.75396 Y-3.30000 I0.00396 J0.00000
G1 Z-0.23529
G3  X-3.75396 Y-3.30000 I0.00396 J0.00000
G1 Z-0.24314
G3  X-3.75396 Y-3.30000 I0.00396 J0.00000
G1 Z-0.25098
G3  X-3.75396 Y-3.30000 I0.00396 J0.00000
G1 Z-0.25882
G3  X-3.75396 Y-3.30000 I0.00396 J0.00000
G1 Z-0.26667
G3  X-3.75396 Y-3.30000 I0.00396 J0.00000
G1 Z-0.27451
G3  X-3.75396 Y-3.30000 I0.00396 J0.00000
G1 Z-0.28235
G3  X-3.75396 Y-3.30000 I0.00396 J0.00000
G1 Z-0.29020
G3  X-3.75396 Y-3.30000 I0.00396 J0.00000
G1 Z-0.29804
G3  X-3.75396 Y-3.30000 I0.00396 J0.00000
G1 Z-0.30588
G3  X-3.75396 Y-3.30000 I0.00396 J0.00000
G1 Z-0.31373
G3  X-3.75396 Y-3.30000 I0.00396 J0.00000
G1 Z-0.32157
G3  X-3.75396 Y-3.30000 I0.00396 J0.00000
G1 Z-0.32941
G3  X-3.75396 Y-3.30000 I0.00396 J0.00000
G1 Z-0.33725
G3  X-3.75396 Y-3.30000 I0.00396 J0.00000
G1 Z-0.34510
G3  X-3.75396 Y-3.30000 I0.00396 J0.00000
G1 Z-0.35294
G3  X-3.75396 Y-3.30000 I0.00396 J0.00000
G1 Z-0.36078
G3  X-3.75396 Y-3.30000 I0.00396 J0.00000
G1 Z-0.36863
G3  X-3.75396 Y-3.30000 I0.00396 J0.00000
G1 Z-0.37647
G3  X-3.75396 Y-3.30000 I0.00396 J0.00000
G1 Z-0.38431
G3  X-3.75396 Y-3.30000 I0.00396 J0.00000
G1 Z-0.39216
G3  X-3.75396 Y-3.30000 I0.00396 J0.00000
G1 Z-0.40000
G3  X-3.75396 Y-3.30000 I0.00396 J0.00000
G1 Z-0.40784
G3  X-3.75396 Y-3.30000 I0.00396 J0.00000
G1 Z-0.41569
G3  X-3.75396 Y-3.30000 I0.00396 J0.00000
G1 Z-0.42353
G3  X-3.75396 Y-3.30000 I0.00396 J0.00000
G1 Z-0.43137
G3  X-3.75396 Y-3.30000 I0.00396 J0.00000
G1 Z-0.43922
G3  X-3.75396 Y-3.30000 I0.00396 J0.00000
G1 Z-0.44706
G3  X-3.75396 Y-3.30000 I0.00396 J0.00000
G1 Z-0.45490
G3  X-3.75396 Y-3.30000 I0.00396 J0.00000
G1 Z-0.46275
G3  X-3.75396 Y-3.30000 I0.00396 J0.00000
G1 Z-0.47059
G3  X-3.75396 Y-3.30000 I0.00396 J0.00000
G1 Z-0.47843
G3  X-3.75396 Y-3.30000 I0.00396 J0.00000
G1 Z-0.48627
G3  X-3.75396 Y-3.30000 I0.00396 J0.00000
G1 Z-0.49412
G3  X-3.75396 Y-3.30000 I0.00396 J0.00000
G1 Z-0.50196
G3  X-3.75396 Y-3.30000 I0.00396 J0.00000
G1 Z-0.50980
G3  X-3.75396 Y-3.30000 I0.00396 J0.00000
G1 Z-0.51765
G3  X-3.75396 Y-3.30000 I0.00396 J0.00000
G1 Z-0.52549
G3  X-3.75396 Y-3.30000 I0.00396 J0.00000
G1 Z-0.53333
G3  X-3.75396 Y-3.30000 I0.00396 J0.00000
G1 Z-0.54118
G3  X-3.75396 Y-3.30000 I0.00396 J0.00000
G1 Z-0.54902
G3  X-3.75396 Y-3.30000 I0.00396 J0.00000
G1 Z-0.55686
G3  X-3.75396 Y-3.30000 I0.00396 J0.00000
G1 Z-0.56471
G3  X-3.75396 Y-3.30000 I0.00396 J0.00000
G1 Z-0.57255
G3  X-3.75396 Y-3.30000 I0.00396 J0.00000
G1 Z-0.58039
G3  X-3.75396 Y-3.30000 I0.00396 J0.00000
G1 Z-0.58824
G3  X-3.75396 Y-3.30000 I0.00396 J0.00000
G1 Z-0.59608
G3  X-3.75396 Y-3.30000 I0.00396 J0.00000
G1 Z-0.60392
G3  X-3.75396 Y-3.30000 I0.00396 J0.00000
G1 Z-0.61176
G3  X-3.75396 Y-3.30000 I0.00396 J0.00000
G1 Z-0.61961
G3  X-3.75396 Y-3.30000 I0.00396 J0.00000
G1 Z-0.62745
G3  X-3.75396 Y-3.30000 I0.00396 J0.00000
G1 Z-0.63529
G3  X-3.75396 Y-3.30000 I0.00396 J0.00000
G1 Z-0.64314
G3  X-3.75396 Y-3.30000 I0.00396 J0.00000
G1 Z-0.65098
G3  X-3.75396 Y-3.30000 I0.00396 J0.00000
G1 Z-0.65882
G3  X-3.75396 Y-3.30000 I0.00396 J0.00000
G1 Z-0.66667
G3  X-3.75396 Y-3.30000 I0.00396 J0.00000
G1 Z-0.67451
G3  X-3.75396 Y-3.30000 I0.00396 J0.00000
G1 Z-0.68235
G3  X-3.75396 Y-3.30000 I0.00396 J0.00000
G1 Z-0.69020
G3  X-3.75396 Y-3.30000 I0.00396 J0.00000
G1 Z-0.69804
G3  X-3.75396 Y-3.30000 I0.00396 J0.00000
G1 Z-0.70588
G3  X-3.75396 Y-3.30000 I0.00396 J0.00000
G1 Z-0.71373
G3  X-3.75396 Y-3.30000 I0.00396 J0.00000
G1 Z-0.72157
G3  X-3.75396 Y-3.30000 I0.00396 J0.00000
G1 Z-0.72941
G3  X-3.75396 Y-3.30000 I0.00396 J0.00000
G1 Z-0.73725
G3  X-3.75396 Y-3.30000 I0.00396 J0.00000
G1 Z-0.74510
G3  X-3.75396 Y-3.30000 I0.00396 J0.00000
G1 Z-0.75294
G3  X-3.75396 Y-3.30000 I0.00396 J0.00000
G1 Z-0.76078
G3  X-3.75396 Y-3.30000 I0.00396 J0.00000
G1 Z-0.76863
G3  X-3.75396 Y-3.30000 I0.00396 J0.00000
G1 Z-0.77647
G3  X-3.75396 Y-3.30000 I0.00396 J0.00000
G1 Z-0.78431
G3  X-3.75396 Y-3.30000 I0.00396 J0.00000
G1 Z-0.79216
G3  X-3.75396 Y-3.30000 I0.00396 J0.00000
G1 Z-0.80000
G3  X-3.75396 Y-3.30000 I0.00396 J0.00000
G1 Z-0.80784
G3  X-3.75396 Y-3.30000 I0.00396 J0.00000
G1 Z-0.81569
G3  X-3.75396 Y-3.30000 I0.00396 J0.00000
G1 Z-0.82353
G3  X-3.75396 Y-3.30000 I0.00396 J0.00000
G1 Z-0.83137
G3  X-3.75396 Y-3.30000 I0.00396 J0.00000
G1 Z-0.83922
G3  X-3.75396 Y-3.30000 I0.00396 J0.00000
G1 Z-0.84706
G3  X-3.75396 Y-3.30000 I0.00396 J0.00000
G1 Z-0.85490
G3  X-3.75396 Y-3.30000 I0.00396 J0.00000
G1 Z-0.86275
G3  X-3.75396 Y-3.30000 I0.00396 J0.00000
G1 Z-0.87059
G3  X-3.75396 Y-3.30000 I0.00396 J0.00000
G1 Z-0.87843
G3  X-3.75396 Y-3.30000 I0.00396 J0.00000
G1 Z-0.88627
G3  X-3.75396 Y-3.30000 I0.00396 J0.00000
G1 Z-0.89412
G3  X-3.75396 Y-3.30000 I0.00396 J0.00000
G1 Z-0.90196
G3  X-3.75396 Y-3.30000 I0.00396 J0.00000
G1 Z-0.90980
G3  X-3.75396 Y-3.30000 I0.00396 J0.00000
G1 Z-0.91765
G3  X-3.75396 Y-3.30000 I0.00396 J0.00000
G1 Z-0.92549
G3  X-3.75396 Y-3.30000 I0.00396 J0.00000
G1 Z-0.93333
G3  X-3.75396 Y-3.30000 I0.00396 J0.00000
G1 Z-0.94118
G3  X-3.75396 Y-3.30000 I0.00396 J0.00000
G1 Z-0.94902
G3  X-3.75396 Y-3.30000 I0.00396 J0.00000
G1 Z-0.95686
G3  X-3.75396 Y-3.30000 I0.00396 J0.00000
G1 Z-0.96471
G3  X-3.75396 Y-3.30000 I0.00396 J0.00000
G1 Z-0.97255
G3  X-3.75396 Y-3.30000 I0.00396 J0.00000
G1 Z-0.98039
G3  X-3.75396 Y-3.30000 I0.00396 J0.00000
G1 Z-0.98824
G3  X-3.75396 Y-3.30000 I0.00396 J0.00000
G1 Z-0.99608
G3  X-3.75396 Y-3.30000 I0.00396 J0.00000
G1 Z-1.00392
G3  X-3.75396 Y-3.30000 I0.00396 J0.00000
G1 Z-1.01176
G3  X-3.75396 Y-3.30000 I0.00396 J0.00000
G1 Z-1.01961
G3  X-3.75396 Y-3.30000 I0.00396 J0.00000
G1 Z-1.02745
G3  X-3.75396 Y-3.30000 I0.00396 J0.00000
G1 Z-1.03529
G3  X-3.75396 Y-3.30000 I0.00396 J0.00000
G1 Z-1.04314
G3  X-3.75396 Y-3.30000 I0.00396 J0.00000
G1 Z-1.05098
G3  X-3.75396 Y-3.30000 I0.00396 J0.00000
G1 Z-1.05882
G3  X-3.75396 Y-3.30000 I0.00396 J0.00000
G1 Z-1.06667
G3  X-3.75396 Y-3.30000 I0.00396 J0.00000
G1 Z-1.07451
G3  X-3.75396 Y-3.30000 I0.00396 J0.00000
G1 Z-1.08235
G3  X-3.75396 Y-3.30000 I0.00396 J0.00000
G1 Z-1.09020
G3  X-3.75396 Y-3.30000 I0.00396 J0.00000
G1 Z-1.09804
G3  X-3.75396 Y-3.30000 I0.00396 J0.00000
G1 Z-1.10588
G3  X-3.75396 Y-3.30000 I0.00396 J0.00000
G1 Z-1.11373
G3  X-3.75396 Y-3.30000 I0.00396 J0.00000
G1 Z-1.12157
G3  X-3.75396 Y-3.30000 I0.00396 J0.00000
G1 Z-1.12941
G3  X-3.75396 Y-3.30000 I0.00396 J0.00000
G1 Z-1.13725
G3  X-3.75396 Y-3.30000 I0.00396 J0.00000
G1 Z-1.14510
G3  X-3.75396 Y-3.30000 I0.00396 J0.00000
G1 Z-1.15294
G3  X-3.75396 Y-3.30000 I0.00396 J0.00000
G1 Z-1.16078
G3  X-3.75396 Y-3.30000 I0.00396 J0.00000
G1 Z-1.16863
G3  X-3.75396 Y-3.30000 I0.00396 J0.00000
G1 Z-1.17647
G3  X-3.75396 Y-3.30000 I0.00396 J0.00000
G1 Z-1.18431
G3  X-3.75396 Y-3.30000 I0.00396 J0.00000
G1 Z-1.19216
G3  X-3.75396 Y-3.30000 I0.00396 J0.00000
G1 Z-1.20000
G3  X-3.75396 Y-3.30000 I0.00396 J0.00000
G1 Z-1.20784
G3  X-3.75396 Y-3.30000 I0.00396 J0.00000
G1 Z-1.21569
G3  X-3.75396 Y-3.30000 I0.00396 J0.00000
G1 Z-1.22353
G3  X-3.75396 Y-3.30000 I0.00396 J0.00000
G1 Z-1.23137
G3  X-3.75396 Y-3.30000 I0.00396 J0.00000
G1 Z-1.23922
G3  X-3.75396 Y-3.30000 I0.00396 J0.00000
G1 Z-1.24706
G3  X-3.75396 Y-3.30000 I0.00396 J0.00000
G1 Z-1.25490
G3  X-3.75396 Y-3.30000 I0.00396 J0.00000
G1 Z-1.26275
G3  X-3.75396 Y-3.30000 I0.00396 J0.00000
G1 Z-1.27059
G3  X-3.75396 Y-3.30000 I0.00396 J0.00000
G1 Z-1.27843
G3  X-3.75396 Y-3.30000 I0.00396 J0.00000
G1 Z-1.28627
G3  X-3.75396 Y-3.30000 I0.00396 J0.00000
G1 Z-1.29412
G3  X-3.75396 Y-3.30000 I0.00396 J0.00000
G1 Z-1.30196
G3  X-3.75396 Y-3.30000 I0.00396 J0.00000
G1 Z-1.30980
G3  X-3.75396 Y-3.30000 I0.00396 J0.00000
G1 Z-1.31765
G3  X-3.75396 Y-3.30000 I0.00396 J0.00000
G1 Z-1.32549
G3  X-3.75396 Y-3.30000 I0.00396 J0.00000
G1 Z-1.33333
G3  X-3.75396 Y-3.30000 I0.00396 J0.00000
G1 Z-1.34118
G3  X-3.75396 Y-3.30000 I0.00396 J0.00000
G1 Z-1.34902
G3  X-3.75396 Y-3.30000 I0.00396 J0.00000
G1 Z-1.35686
G3  X-3.75396 Y-3.30000 I0.00396 J0.00000
G1 Z-1.36471
G3  X-3.75396 Y-3.30000 I0.00396 J0.00000
G1 Z-1.37255
G3  X-3.75396 Y-3.30000 I0.00396 J0.00000
G1 Z-1.38039
G3  X-3.75396 Y-3.30000 I0.00396 J0.00000
G1 Z-1.38824
G3  X-3.75396 Y-3.30000 I0.00396 J0.00000
G1 Z-1.39608
G3  X-3.75396 Y-3.30000 I0.00396 J0.00000
G1 Z-1.40392
G3  X-3.75396 Y-3.30000 I0.00396 J0.00000
G1 Z-1.41176
G3  X-3.75396 Y-3.30000 I0.00396 J0.00000
G1 Z-1.41961
G3  X-3.75396 Y-3.30000 I0.00396 J0.00000
G1 Z-1.42745
G3  X-3.75396 Y-3.30000 I0.00396 J0.00000
G1 Z-1.43529
G3  X-3.75396 Y-3.30000 I0.00396 J0.00000
G1 Z-1.44314
G3  X-3.75396 Y-3.30000 I0.00396 J0.00000
G1 Z-1.45098
G3  X-3.75396 Y-3.30000 I0.00396 J0.00000
G1 Z-1.45882
G3  X-3.75396 Y-3.30000 I0.00396 J0.00000
G1 Z-1.46667
G3  X-3.75396 Y-3.30000 I0.00396 J0.00000
G1 Z-1.47451
G3  X-3.75396 Y-3.30000 I0.00396 J0.00000
G1 Z-1.48235
G3  X-3.75396 Y-3.30000 I0.00396 J0.00000
G1 Z-1.49020
G3  X-3.75396 Y-3.30000 I0.00396 J0.00000
G1 Z-1.49804
G3  X-3.75396 Y-3.30000 I0.00396 J0.00000
G1 Z-1.50588
G3  X-3.75396 Y-3.30000 I0.00396 J0.00000
G1 Z-1.51373
G3  X-3.75396 Y-3.30000 I0.00396 J0.00000
G1 Z-1.52157
G3  X-3.75396 Y-3.30000 I0.00396 J0.00000
G1 Z-1.52941
G3  X-3.75396 Y-3.30000 I0.00396 J0.00000
G1 Z-1.53725
G3  X-3.75396 Y-3.30000 I0.00396 J0.00000
G1 Z-1.54510
G3  X-3.75396 Y-3.30000 I0.00396 J0.00000
G1 Z-1.55294
G3  X-3.75396 Y-3.30000 I0.00396 J0.00000
G1 Z-1.56078
G3  X-3.75396 Y-3.30000 I0.00396 J0.00000
G1 Z-1.56863
G3  X-3.75396 Y-3.30000 I0.00396 J0.00000
G1 Z-1.57647
G3  X-3.75396 Y-3.30000 I0.00396 J0.00000
G1 Z-1.58431
G3  X-3.75396 Y-3.30000 I0.00396 J0.00000
G1 Z-1.59216
G3  X-3.75396 Y-3.30000 I0.00396 J0.00000
G1 Z-1.60000
G3  X-3.75396 Y-3.30000 I0.00396 J0.00000
G0 Z0.08000

G0 X-3.85396 Y-3.30000
G1 Z-0.00784
G3  X-3.85396 Y-3.30000 I0.00396 J0.00000
G1 Z-0.01569
G3  X-3.85396 Y-3.30000 I0.00396 J0.00000
G1 Z-0.02353
G3  X-3.85396 Y-3.30000 I0.00396 J0.00000
G1 Z-0.03137
G3  X-3.85396 Y-3.30000 I0.00396 J0.00000
G1 Z-0.03922
G3  X-3.85396 Y-3.30000 I0.00396 J0.00000
G1 Z-0.04706
G3  X-3.85396 Y-3.30000 I0.00396 J0.00000
G1 Z-0.05490
G3  X-3.85396 Y-3.30000 I0.00396 J0.00000
G1 Z-0.06275
G3  X-3.85396 Y-3.30000 I0.00396 J0.00000
G1 Z-0.07059
G3  X-3.85396 Y-3.30000 I0.00396 J0.00000
G1 Z-0.07843
G3  X-3.85396 Y-3.30000 I0.00396 J0.00000
G1 Z-0.08627
G3  X-3.85396 Y-3.30000 I0.00396 J0.00000
G1 Z-0.09412
G3  X-3.85396 Y-3.30000 I0.00396 J0.00000
G1 Z-0.10196
G3  X-3.85396 Y-3.30000 I0.00396 J0.00000
G1 Z-0.10980
G3  X-3.85396 Y-3.30000 I0.00396 J0.00000
G1 Z-0.11765
G3  X-3.85396 Y-3.30000 I0.00396 J0.00000
G1 Z-0.12549
G3  X-3.85396 Y-3.30000 I0.00396 J0.00000
G1 Z-0.13333
G3  X-3.85396 Y-3.30000 I0.00396 J0.00000
G1 Z-0.14118
G3  X-3.85396 Y-3.30000 I0.00396 J0.00000
G1 Z-0.14902
G3  X-3.85396 Y-3.30000 I0.00396 J0.00000
G1 Z-0.15686
G3  X-3.85396 Y-3.30000 I0.00396 J0.00000
G1 Z-0.16471
G3  X-3.85396 Y-3.30000 I0.00396 J0.00000
G1 Z-0.17255
G3  X-3.85396 Y-3.30000 I0.00396 J0.00000
G1 Z-0.18039
G3  X-3.85396 Y-3.30000 I0.00396 J0.00000
G1 Z-0.18824
G3  X-3.85396 Y-3.30000 I0.00396 J0.00000
G1 Z-0.19608
G3  X-3.85396 Y-3.30000 I0.00396 J0.00000
G1 Z-0.20392
G3  X-3.85396 Y-3.30000 I0.00396 J0.00000
G1 Z-0.21176
G3  X-3.85396 Y-3.30000 I0.00396 J0.00000
G1 Z-0.21961
G3  X-3.85396 Y-3.30000 I0.00396 J0.00000
G1 Z-0.22745
G3  X-3.85396 Y-3.30000 I0.00396 J0.00000
G1 Z-0.23529
G3  X-3.85396 Y-3.30000 I0.00396 J0.00000
G1 Z-0.24314
G3  X-3.85396 Y-3.30000 I0.00396 J0.00000
G1 Z-0.25098
G3  X-3.85396 Y-3.30000 I0.00396 J0.00000
G1 Z-0.25882
G3  X-3.85396 Y-3.30000 I0.00396 J0.00000
G1 Z-0.26667
G3  X-3.85396 Y-3.30000 I0.00396 J0.00000
G1 Z-0.27451
G3  X-3.85396 Y-3.30000 I0.00396 J0.00000
G1 Z-0.28235
G3  X-3.85396 Y-3.30000 I0.00396 J0.00000
G1 Z-0.29020
G3  X-3.85396 Y-3.30000 I0.00396 J0.00000
G1 Z-0.29804
G3  X-3.85396 Y-3.30000 I0.00396 J0.00000
G1 Z-0.30588
G3  X-3.85396 Y-3.30000 I0.00396 J0.00000
G1 Z-0.31373
G3  X-3.85396 Y-3.30000 I0.00396 J0.00000
G1 Z-0.32157
G3  X-3.85396 Y-3.30000 I0.00396 J0.00000
G1 Z-0.32941
G3  X-3.85396 Y-3.30000 I0.00396 J0.00000
G1 Z-0.33725
G3  X-3.85396 Y-3.30000 I0.00396 J0.00000
G1 Z-0.34510
G3  X-3.85396 Y-3.30000 I0.00396 J0.00000
G1 Z-0.35294
G3  X-3.85396 Y-3.30000 I0.00396 J0.00000
G1 Z-0.36078
G3  X-3.85396 Y-3.30000 I0.00396 J0.00000
G1 Z-0.36863
G3  X-3.85396 Y-3.30000 I0.00396 J0.00000
G1 Z-0.37647
G3  X-3.85396 Y-3.30000 I0.00396 J0.00000
G1 Z-0.38431
G3  X-3.85396 Y-3.30000 I0.00396 J0.00000
G1 Z-0.39216
G3  X-3.85396 Y-3.30000 I0.00396 J0.00000
G1 Z-0.40000
G3  X-3.85396 Y-3.30000 I0.00396 J0.00000
G1 Z-0.40784
G3  X-3.85396 Y-3.30000 I0.00396 J0.00000
G1 Z-0.41569
G3  X-3.85396 Y-3.30000 I0.00396 J0.00000
G1 Z-0.42353
G3  X-3.85396 Y-3.30000 I0.00396 J0.00000
G1 Z-0.43137
G3  X-3.85396 Y-3.30000 I0.00396 J0.00000
G1 Z-0.43922
G3  X-3.85396 Y-3.30000 I0.00396 J0.00000
G1 Z-0.44706
G3  X-3.85396 Y-3.30000 I0.00396 J0.00000
G1 Z-0.45490
G3  X-3.85396 Y-3.30000 I0.00396 J0.00000
G1 Z-0.46275
G3  X-3.85396 Y-3.30000 I0.00396 J0.00000
G1 Z-0.47059
G3  X-3.85396 Y-3.30000 I0.00396 J0.00000
G1 Z-0.47843
G3  X-3.85396 Y-3.30000 I0.00396 J0.00000
G1 Z-0.48627
G3  X-3.85396 Y-3.30000 I0.00396 J0.00000
G1 Z-0.49412
G3  X-3.85396 Y-3.30000 I0.00396 J0.00000
G1 Z-0.50196
G3  X-3.85396 Y-3.30000 I0.00396 J0.00000
G1 Z-0.50980
G3  X-3.85396 Y-3.30000 I0.00396 J0.00000
G1 Z-0.51765
G3  X-3.85396 Y-3.30000 I0.00396 J0.00000
G1 Z-0.52549
G3  X-3.85396 Y-3.30000 I0.00396 J0.00000
G1 Z-0.53333
G3  X-3.85396 Y-3.30000 I0.00396 J0.00000
G1 Z-0.54118
G3  X-3.85396 Y-3.30000 I0.00396 J0.00000
G1 Z-0.54902
G3  X-3.85396 Y-3.30000 I0.00396 J0.00000
G1 Z-0.55686
G3  X-3.85396 Y-3.30000 I0.00396 J0.00000
G1 Z-0.56471
G3  X-3.85396 Y-3.30000 I0.00396 J0.00000
G1 Z-0.57255
G3  X-3.85396 Y-3.30000 I0.00396 J0.00000
G1 Z-0.58039
G3  X-3.85396 Y-3.30000 I0.00396 J0.00000
G1 Z-0.58824
G3  X-3.85396 Y-3.30000 I0.00396 J0.00000
G1 Z-0.59608
G3  X-3.85396 Y-3.30000 I0.00396 J0.00000
G1 Z-0.60392
G3  X-3.85396 Y-3.30000 I0.00396 J0.00000
G1 Z-0.61176
G3  X-3.85396 Y-3.30000 I0.00396 J0.00000
G1 Z-0.61961
G3  X-3.85396 Y-3.30000 I0.00396 J0.00000
G1 Z-0.62745
G3  X-3.85396 Y-3.30000 I0.00396 J0.00000
G1 Z-0.63529
G3  X-3.85396 Y-3.30000 I0.00396 J0.00000
G1 Z-0.64314
G3  X-3.85396 Y-3.30000 I0.00396 J0.00000
G1 Z-0.65098
G3  X-3.85396 Y-3.30000 I0.00396 J0.00000
G1 Z-0.65882
G3  X-3.85396 Y-3.30000 I0.00396 J0.00000
G1 Z-0.66667
G3  X-3.85396 Y-3.30000 I0.00396 J0.00000
G1 Z-0.67451
G3  X-3.85396 Y-3.30000 I0.00396 J0.00000
G1 Z-0.68235
G3  X-3.85396 Y-3.30000 I0.00396 J0.00000
G1 Z-0.69020
G3  X-3.85396 Y-3.30000 I0.00396 J0.00000
G1 Z-0.69804
G3  X-3.85396 Y-3.30000 I0.00396 J0.00000
G1 Z-0.70588
G3  X-3.85396 Y-3.30000 I0.00396 J0.00000
G1 Z-0.71373
G3  X-3.85396 Y-3.30000 I0.00396 J0.00000
G1 Z-0.72157
G3  X-3.85396 Y-3.30000 I0.00396 J0.00000
G1 Z-0.72941
G3  X-3.85396 Y-3.30000 I0.00396 J0.00000
G1 Z-0.73725
G3  X-3.85396 Y-3.30000 I0.00396 J0.00000
G1 Z-0.74510
G3  X-3.85396 Y-3.30000 I0.00396 J0.00000
G1 Z-0.75294
G3  X-3.85396 Y-3.30000 I0.00396 J0.00000
G1 Z-0.76078
G3  X-3.85396 Y-3.30000 I0.00396 J0.00000
G1 Z-0.76863
G3  X-3.85396 Y-3.30000 I0.00396 J0.00000
G1 Z-0.77647
G3  X-3.85396 Y-3.30000 I0.00396 J0.00000
G1 Z-0.78431
G3  X-3.85396 Y-3.30000 I0.00396 J0.00000
G1 Z-0.79216
G3  X-3.85396 Y-3.30000 I0.00396 J0.00000
G1 Z-0.80000
G3  X-3.85396 Y-3.30000 I0.00396 J0.00000
G1 Z-0.80784
G3  X-3.85396 Y-3.30000 I0.00396 J0.00000
G1 Z-0.81569
G3  X-3.85396 Y-3.30000 I0.00396 J0.00000
G1 Z-0.82353
G3  X-3.85396 Y-3.30000 I0.00396 J0.00000
G1 Z-0.83137
G3  X-3.85396 Y-3.30000 I0.00396 J0.00000
G1 Z-0.83922
G3  X-3.85396 Y-3.30000 I0.00396 J0.00000
G1 Z-0.84706
G3  X-3.85396 Y-3.30000 I0.00396 J0.00000
G1 Z-0.85490
G3  X-3.85396 Y-3.30000 I0.00396 J0.00000
G1 Z-0.86275
G3  X-3.85396 Y-3.30000 I0.00396 J0.00000
G1 Z-0.87059
G3  X-3.85396 Y-3.30000 I0.00396 J0.00000
G1 Z-0.87843
G3  X-3.85396 Y-3.30000 I0.00396 J0.00000
G1 Z-0.88627
G3  X-3.85396 Y-3.30000 I0.00396 J0.00000
G1 Z-0.89412
G3  X-3.85396 Y-3.30000 I0.00396 J0.00000
G1 Z-0.90196
G3  X-3.85396 Y-3.30000 I0.00396 J0.00000
G1 Z-0.90980
G3  X-3.85396 Y-3.30000 I0.00396 J0.00000
G1 Z-0.91765
G3  X-3.85396 Y-3.30000 I0.00396 J0.00000
G1 Z-0.92549
G3  X-3.85396 Y-3.30000 I0.00396 J0.00000
G1 Z-0.93333
G3  X-3.85396 Y-3.30000 I0.00396 J0.00000
G1 Z-0.94118
G3  X-3.85396 Y-3.30000 I0.00396 J0.00000
G1 Z-0.94902
G3  X-3.85396 Y-3.30000 I0.00396 J0.00000
G1 Z-0.95686
G3  X-3.85396 Y-3.30000 I0.00396 J0.00000
G1 Z-0.96471
G3  X-3.85396 Y-3.30000 I0.00396 J0.00000
G1 Z-0.97255
G3  X-3.85396 Y-3.30000 I0.00396 J0.00000
G1 Z-0.98039
G3  X-3.85396 Y-3.30000 I0.00396 J0.00000
G1 Z-0.98824
G3  X-3.85396 Y-3.30000 I0.00396 J0.00000
G1 Z-0.99608
G3  X-3.85396 Y-3.30000 I0.00396 J0.00000
G1 Z-1.00392
G3  X-3.85396 Y-3.30000 I0.00396 J0.00000
G1 Z-1.01176
G3  X-3.85396 Y-3.30000 I0.00396 J0.00000
G1 Z-1.01961
G3  X-3.85396 Y-3.30000 I0.00396 J0.00000
G1 Z-1.02745
G3  X-3.85396 Y-3.30000 I0.00396 J0.00000
G1 Z-1.03529
G3  X-3.85396 Y-3.30000 I0.00396 J0.00000
G1 Z-1.04314
G3  X-3.85396 Y-3.30000 I0.00396 J0.00000
G1 Z-1.05098
G3  X-3.85396 Y-3.30000 I0.00396 J0.00000
G1 Z-1.05882
G3  X-3.85396 Y-3.30000 I0.00396 J0.00000
G1 Z-1.06667
G3  X-3.85396 Y-3.30000 I0.00396 J0.00000
G1 Z-1.07451
G3  X-3.85396 Y-3.30000 I0.00396 J0.00000
G1 Z-1.08235
G3  X-3.85396 Y-3.30000 I0.00396 J0.00000
G1 Z-1.09020
G3  X-3.85396 Y-3.30000 I0.00396 J0.00000
G1 Z-1.09804
G3  X-3.85396 Y-3.30000 I0.00396 J0.00000
G1 Z-1.10588
G3  X-3.85396 Y-3.30000 I0.00396 J0.00000
G1 Z-1.11373
G3  X-3.85396 Y-3.30000 I0.00396 J0.00000
G1 Z-1.12157
G3  X-3.85396 Y-3.30000 I0.00396 J0.00000
G1 Z-1.12941
G3  X-3.85396 Y-3.30000 I0.00396 J0.00000
G1 Z-1.13725
G3  X-3.85396 Y-3.30000 I0.00396 J0.00000
G1 Z-1.14510
G3  X-3.85396 Y-3.30000 I0.00396 J0.00000
G1 Z-1.15294
G3  X-3.85396 Y-3.30000 I0.00396 J0.00000
G1 Z-1.16078
G3  X-3.85396 Y-3.30000 I0.00396 J0.00000
G1 Z-1.16863
G3  X-3.85396 Y-3.30000 I0.00396 J0.00000
G1 Z-1.17647
G3  X-3.85396 Y-3.30000 I0.00396 J0.00000
G1 Z-1.18431
G3  X-3.85396 Y-3.30000 I0.00396 J0.00000
G1 Z-1.19216
G3  X-3.85396 Y-3.30000 I0.00396 J0.00000
G1 Z-1.20000
G3  X-3.85396 Y-3.30000 I0.00396 J0.00000
G1 Z-1.20784
G3  X-3.85396 Y-3.30000 I0.00396 J0.00000
G1 Z-1.21569
G3  X-3.85396 Y-3.30000 I0.00396 J0.00000
G1 Z-1.22353
G3  X-3.85396 Y-3.30000 I0.00396 J0.00000
G1 Z-1.23137
G3  X-3.85396 Y-3.30000 I0.00396 J0.00000
G1 Z-1.23922
G3  X-3.85396 Y-3.30000 I0.00396 J0.00000
G1 Z-1.24706
G3  X-3.85396 Y-3.30000 I0.00396 J0.00000
G1 Z-1.25490
G3  X-3.85396 Y-3.30000 I0.00396 J0.00000
G1 Z-1.26275
G3  X-3.85396 Y-3.30000 I0.00396 J0.00000
G1 Z-1.27059
G3  X-3.85396 Y-3.30000 I0.00396 J0.00000
G1 Z-1.27843
G3  X-3.85396 Y-3.30000 I0.00396 J0.00000
G1 Z-1.28627
G3  X-3.85396 Y-3.30000 I0.00396 J0.00000
G1 Z-1.29412
G3  X-3.85396 Y-3.30000 I0.00396 J0.00000
G1 Z-1.30196
G3  X-3.85396 Y-3.30000 I0.00396 J0.00000
G1 Z-1.30980
G3  X-3.85396 Y-3.30000 I0.00396 J0.00000
G1 Z-1.31765
G3  X-3.85396 Y-3.30000 I0.00396 J0.00000
G1 Z-1.32549
G3  X-3.85396 Y-3.30000 I0.00396 J0.00000
G1 Z-1.33333
G3  X-3.85396 Y-3.30000 I0.00396 J0.00000
G1 Z-1.34118
G3  X-3.85396 Y-3.30000 I0.00396 J0.00000
G1 Z-1.34902
G3  X-3.85396 Y-3.30000 I0.00396 J0.00000
G1 Z-1.35686
G3  X-3.85396 Y-3.30000 I0.00396 J0.00000
G1 Z-1.36471
G3  X-3.85396 Y-3.30000 I0.00396 J0.00000
G1 Z-1.37255
G3  X-3.85396 Y-3.30000 I0.00396 J0.00000
G1 Z-1.38039
G3  X-3.85396 Y-3.30000 I0.00396 J0.00000
G1 Z-1.38824
G3  X-3.85396 Y-3.30000 I0.00396 J0.00000
G1 Z-1.39608
G3  X-3.85396 Y-3.30000 I0.00396 J0.00000
G1 Z-1.40392
G3  X-3.85396 Y-3.30000 I0.00396 J0.00000
G1 Z-1.41176
G3  X-3.85396 Y-3.30000 I0.00396 J0.00000
G1 Z-1.41961
G3  X-3.85396 Y-3.30000 I0.00396 J0.00000
G1 Z-1.42745
G3  X-3.85396 Y-3.30000 I0.00396 J0.00000
G1 Z-1.43529
G3  X-3.85396 Y-3.30000 I0.00396 J0.00000
G1 Z-1.44314
G3  X-3.85396 Y-3.30000 I0.00396 J0.00000
G1 Z-1.45098
G3  X-3.85396 Y-3.30000 I0.00396 J0.00000
G1 Z-1.45882
G3  X-3.85396 Y-3.30000 I0.00396 J0.00000
G1 Z-1.46667
G3  X-3.85396 Y-3.30000 I0.00396 J0.00000
G1 Z-1.47451
G3  X-3.85396 Y-3.30000 I0.00396 J0.00000
G1 Z-1.48235
G3  X-3.85396 Y-3.30000 I0.00396 J0.00000
G1 Z-1.49020
G3  X-3.85396 Y-3.30000 I0.00396 J0.00000
G1 Z-1.49804
G3  X-3.85396 Y-3.30000 I0.00396 J0.00000
G1 Z-1.50588
G3  X-3.85396 Y-3.30000 I0.00396 J0.00000
G1 Z-1.51373
G3  X-3.85396 Y-3.30000 I0.00396 J0.00000
G1 Z-1.52157
G3  X-3.85396 Y-3.30000 I0.00396 J0.00000
G1 Z-1.52941
G3  X-3.85396 Y-3.30000 I0.00396 J0.00000
G1 Z-1.53725
G3  X-3.85396 Y-3.30000 I0.00396 J0.00000
G1 Z-1.54510
G3  X-3.85396 Y-3.30000 I0.00396 J0.00000
G1 Z-1.55294
G3  X-3.85396 Y-3.30000 I0.00396 J0.00000
G1 Z-1.56078
G3  X-3.85396 Y-3.30000 I0.00396 J0.00000
G1 Z-1.56863
G3  X-3.85396 Y-3.30000 I0.00396 J0.00000
G1 Z-1.57647
G3  X-3.85396 Y-3.30000 I0.00396 J0.00000
G1 Z-1.58431
G3  X-3.85396 Y-3.30000 I0.00396 J0.00000
G1 Z-1.59216
G3  X-3.85396 Y-3.30000 I0.00396 J0.00000
G1 Z-1.60000
G3  X-3.85396 Y-3.30000 I0.00396 J0.00000
G0 Z0.08000

G0 X-4.05396 Y-3.30000
G1 Z-0.00784
G3  X-4.05396 Y-3.30000 I0.00396 J0.00000
G1 Z-0.01569
G3  X-4.05396 Y-3.30000 I0.00396 J0.00000
G1 Z-0.02353
G3  X-4.05396 Y-3.30000 I0.00396 J0.00000
G1 Z-0.03137
G3  X-4.05396 Y-3.30000 I0.00396 J0.00000
G1 Z-0.03922
G3  X-4.05396 Y-3.30000 I0.00396 J0.00000
G1 Z-0.04706
G3  X-4.05396 Y-3.30000 I0.00396 J0.00000
G1 Z-0.05490
G3  X-4.05396 Y-3.30000 I0.00396 J0.00000
G1 Z-0.06275
G3  X-4.05396 Y-3.30000 I0.00396 J0.00000
G1 Z-0.07059
G3  X-4.05396 Y-3.30000 I0.00396 J0.00000
G1 Z-0.07843
G3  X-4.05396 Y-3.30000 I0.00396 J0.00000
G1 Z-0.08627
G3  X-4.05396 Y-3.30000 I0.00396 J0.00000
G1 Z-0.09412
G3  X-4.05396 Y-3.30000 I0.00396 J0.00000
G1 Z-0.10196
G3  X-4.05396 Y-3.30000 I0.00396 J0.00000
G1 Z-0.10980
G3  X-4.05396 Y-3.30000 I0.00396 J0.00000
G1 Z-0.11765
G3  X-4.05396 Y-3.30000 I0.00396 J0.00000
G1 Z-0.12549
G3  X-4.05396 Y-3.30000 I0.00396 J0.00000
G1 Z-0.13333
G3  X-4.05396 Y-3.30000 I0.00396 J0.00000
G1 Z-0.14118
G3  X-4.05396 Y-3.30000 I0.00396 J0.00000
G1 Z-0.14902
G3  X-4.05396 Y-3.30000 I0.00396 J0.00000
G1 Z-0.15686
G3  X-4.05396 Y-3.30000 I0.00396 J0.00000
G1 Z-0.16471
G3  X-4.05396 Y-3.30000 I0.00396 J0.00000
G1 Z-0.17255
G3  X-4.05396 Y-3.30000 I0.00396 J0.00000
G1 Z-0.18039
G3  X-4.05396 Y-3.30000 I0.00396 J0.00000
G1 Z-0.18824
G3  X-4.05396 Y-3.30000 I0.00396 J0.00000
G1 Z-0.19608
G3  X-4.05396 Y-3.30000 I0.00396 J0.00000
G1 Z-0.20392
G3  X-4.05396 Y-3.30000 I0.00396 J0.00000
G1 Z-0.21176
G3  X-4.05396 Y-3.30000 I0.00396 J0.00000
G1 Z-0.21961
G3  X-4.05396 Y-3.30000 I0.00396 J0.00000
G1 Z-0.22745
G3  X-4.05396 Y-3.30000 I0.00396 J0.00000
G1 Z-0.23529
G3  X-4.05396 Y-3.30000 I0.00396 J0.00000
G1 Z-0.24314
G3  X-4.05396 Y-3.30000 I0.00396 J0.00000
G1 Z-0.25098
G3  X-4.05396 Y-3.30000 I0.00396 J0.00000
G1 Z-0.25882
G3  X-4.05396 Y-3.30000 I0.00396 J0.00000
G1 Z-0.26667
G3  X-4.05396 Y-3.30000 I0.00396 J0.00000
G1 Z-0.27451
G3  X-4.05396 Y-3.30000 I0.00396 J0.00000
G1 Z-0.28235
G3  X-4.05396 Y-3.30000 I0.00396 J0.00000
G1 Z-0.29020
G3  X-4.05396 Y-3.30000 I0.00396 J0.00000
G1 Z-0.29804
G3  X-4.05396 Y-3.30000 I0.00396 J0.00000
G1 Z-0.30588
G3  X-4.05396 Y-3.30000 I0.00396 J0.00000
G1 Z-0.31373
G3  X-4.05396 Y-3.30000 I0.00396 J0.00000
G1 Z-0.32157
G3  X-4.05396 Y-3.30000 I0.00396 J0.00000
G1 Z-0.32941
G3  X-4.05396 Y-3.30000 I0.00396 J0.00000
G1 Z-0.33725
G3  X-4.05396 Y-3.30000 I0.00396 J0.00000
G1 Z-0.34510
G3  X-4.05396 Y-3.30000 I0.00396 J0.00000
G1 Z-0.35294
G3  X-4.05396 Y-3.30000 I0.00396 J0.00000
G1 Z-0.36078
G3  X-4.05396 Y-3.30000 I0.00396 J0.00000
G1 Z-0.36863
G3  X-4.05396 Y-3.30000 I0.00396 J0.00000
G1 Z-0.37647
G3  X-4.05396 Y-3.30000 I0.00396 J0.00000
G1 Z-0.38431
G3  X-4.05396 Y-3.30000 I0.00396 J0.00000
G1 Z-0.39216
G3  X-4.05396 Y-3.30000 I0.00396 J0.00000
G1 Z-0.40000
G3  X-4.05396 Y-3.30000 I0.00396 J0.00000
G1 Z-0.40784
G3  X-4.05396 Y-3.30000 I0.00396 J0.00000
G1 Z-0.41569
G3  X-4.05396 Y-3.30000 I0.00396 J0.00000
G1 Z-0.42353
G3  X-4.05396 Y-3.30000 I0.00396 J0.00000
G1 Z-0.43137
G3  X-4.05396 Y-3.30000 I0.00396 J0.00000
G1 Z-0.43922
G3  X-4.05396 Y-3.30000 I0.00396 J0.00000
G1 Z-0.44706
G3  X-4.05396 Y-3.30000 I0.00396 J0.00000
G1 Z-0.45490
G3  X-4.05396 Y-3.30000 I0.00396 J0.00000
G1 Z-0.46275
G3  X-4.05396 Y-3.30000 I0.00396 J0.00000
G1 Z-0.47059
G3  X-4.05396 Y-3.30000 I0.00396 J0.00000
G1 Z-0.47843
G3  X-4.05396 Y-3.30000 I0.00396 J0.00000
G1 Z-0.48627
G3  X-4.05396 Y-3.30000 I0.00396 J0.00000
G1 Z-0.49412
G3  X-4.05396 Y-3.30000 I0.00396 J0.00000
G1 Z-0.50196
G3  X-4.05396 Y-3.30000 I0.00396 J0.00000
G1 Z-0.50980
G3  X-4.05396 Y-3.30000 I0.00396 J0.00000
G1 Z-0.51765
G3  X-4.05396 Y-3.30000 I0.00396 J0.00000
G1 Z-0.52549
G3  X-4.05396 Y-3.30000 I0.00396 J0.00000
G1 Z-0.53333
G3  X-4.05396 Y-3.30000 I0.00396 J0.00000
G1 Z-0.54118
G3  X-4.05396 Y-3.30000 I0.00396 J0.00000
G1 Z-0.54902
G3  X-4.05396 Y-3.30000 I0.00396 J0.00000
G1 Z-0.55686
G3  X-4.05396 Y-3.30000 I0.00396 J0.00000
G1 Z-0.56471
G3  X-4.05396 Y-3.30000 I0.00396 J0.00000
G1 Z-0.57255
G3  X-4.05396 Y-3.30000 I0.00396 J0.00000
G1 Z-0.58039
G3  X-4.05396 Y-3.30000 I0.00396 J0.00000
G1 Z-0.58824
G3  X-4.05396 Y-3.30000 I0.00396 J0.00000
G1 Z-0.59608
G3  X-4.05396 Y-3.30000 I0.00396 J0.00000
G1 Z-0.60392
G3  X-4.05396 Y-3.30000 I0.00396 J0.00000
G1 Z-0.61176
G3  X-4.05396 Y-3.30000 I0.00396 J0.00000
G1 Z-0.61961
G3  X-4.05396 Y-3.30000 I0.00396 J0.00000
G1 Z-0.62745
G3  X-4.05396 Y-3.30000 I0.00396 J0.00000
G1 Z-0.63529
G3  X-4.05396 Y-3.30000 I0.00396 J0.00000
G1 Z-0.64314
G3  X-4.05396 Y-3.30000 I0.00396 J0.00000
G1 Z-0.65098
G3  X-4.05396 Y-3.30000 I0.00396 J0.00000
G1 Z-0.65882
G3  X-4.05396 Y-3.30000 I0.00396 J0.00000
G1 Z-0.66667
G3  X-4.05396 Y-3.30000 I0.00396 J0.00000
G1 Z-0.67451
G3  X-4.05396 Y-3.30000 I0.00396 J0.00000
G1 Z-0.68235
G3  X-4.05396 Y-3.30000 I0.00396 J0.00000
G1 Z-0.69020
G3  X-4.05396 Y-3.30000 I0.00396 J0.00000
G1 Z-0.69804
G3  X-4.05396 Y-3.30000 I0.00396 J0.00000
G1 Z-0.70588
G3  X-4.05396 Y-3.30000 I0.00396 J0.00000
G1 Z-0.71373
G3  X-4.05396 Y-3.30000 I0.00396 J0.00000
G1 Z-0.72157
G3  X-4.05396 Y-3.30000 I0.00396 J0.00000
G1 Z-0.72941
G3  X-4.05396 Y-3.30000 I0.00396 J0.00000
G1 Z-0.73725
G3  X-4.05396 Y-3.30000 I0.00396 J0.00000
G1 Z-0.74510
G3  X-4.05396 Y-3.30000 I0.00396 J0.00000
G1 Z-0.75294
G3  X-4.05396 Y-3.30000 I0.00396 J0.00000
G1 Z-0.76078
G3  X-4.05396 Y-3.30000 I0.00396 J0.00000
G1 Z-0.76863
G3  X-4.05396 Y-3.30000 I0.00396 J0.00000
G1 Z-0.77647
G3  X-4.05396 Y-3.30000 I0.00396 J0.00000
G1 Z-0.78431
G3  X-4.05396 Y-3.30000 I0.00396 J0.00000
G1 Z-0.79216
G3  X-4.05396 Y-3.30000 I0.00396 J0.00000
G1 Z-0.80000
G3  X-4.05396 Y-3.30000 I0.00396 J0.00000
G1 Z-0.80784
G3  X-4.05396 Y-3.30000 I0.00396 J0.00000
G1 Z-0.81569
G3  X-4.05396 Y-3.30000 I0.00396 J0.00000
G1 Z-0.82353
G3  X-4.05396 Y-3.30000 I0.00396 J0.00000
G1 Z-0.83137
G3  X-4.05396 Y-3.30000 I0.00396 J0.00000
G1 Z-0.83922
G3  X-4.05396 Y-3.30000 I0.00396 J0.00000
G1 Z-0.84706
G3  X-4.05396 Y-3.30000 I0.00396 J0.00000
G1 Z-0.85490
G3  X-4.05396 Y-3.30000 I0.00396 J0.00000
G1 Z-0.86275
G3  X-4.05396 Y-3.30000 I0.00396 J0.00000
G1 Z-0.87059
G3  X-4.05396 Y-3.30000 I0.00396 J0.00000
G1 Z-0.87843
G3  X-4.05396 Y-3.30000 I0.00396 J0.00000
G1 Z-0.88627
G3  X-4.05396 Y-3.30000 I0.00396 J0.00000
G1 Z-0.89412
G3  X-4.05396 Y-3.30000 I0.00396 J0.00000
G1 Z-0.90196
G3  X-4.05396 Y-3.30000 I0.00396 J0.00000
G1 Z-0.90980
G3  X-4.05396 Y-3.30000 I0.00396 J0.00000
G1 Z-0.91765
G3  X-4.05396 Y-3.30000 I0.00396 J0.00000
G1 Z-0.92549
G3  X-4.05396 Y-3.30000 I0.00396 J0.00000
G1 Z-0.93333
G3  X-4.05396 Y-3.30000 I0.00396 J0.00000
G1 Z-0.94118
G3  X-4.05396 Y-3.30000 I0.00396 J0.00000
G1 Z-0.94902
G3  X-4.05396 Y-3.30000 I0.00396 J0.00000
G1 Z-0.95686
G3  X-4.05396 Y-3.30000 I0.00396 J0.00000
G1 Z-0.96471
G3  X-4.05396 Y-3.30000 I0.00396 J0.00000
G1 Z-0.97255
G3  X-4.05396 Y-3.30000 I0.00396 J0.00000
G1 Z-0.98039
G3  X-4.05396 Y-3.30000 I0.00396 J0.00000
G1 Z-0.98824
G3  X-4.05396 Y-3.30000 I0.00396 J0.00000
G1 Z-0.99608
G3  X-4.05396 Y-3.30000 I0.00396 J0.00000
G1 Z-1.00392
G3  X-4.05396 Y-3.30000 I0.00396 J0.00000
G1 Z-1.01176
G3  X-4.05396 Y-3.30000 I0.00396 J0.00000
G1 Z-1.01961
G3  X-4.05396 Y-3.30000 I0.00396 J0.00000
G1 Z-1.02745
G3  X-4.05396 Y-3.30000 I0.00396 J0.00000
G1 Z-1.03529
G3  X-4.05396 Y-3.30000 I0.00396 J0.00000
G1 Z-1.04314
G3  X-4.05396 Y-3.30000 I0.00396 J0.00000
G1 Z-1.05098
G3  X-4.05396 Y-3.30000 I0.00396 J0.00000
G1 Z-1.05882
G3  X-4.05396 Y-3.30000 I0.00396 J0.00000
G1 Z-1.06667
G3  X-4.05396 Y-3.30000 I0.00396 J0.00000
G1 Z-1.07451
G3  X-4.05396 Y-3.30000 I0.00396 J0.00000
G1 Z-1.08235
G3  X-4.05396 Y-3.30000 I0.00396 J0.00000
G1 Z-1.09020
G3  X-4.05396 Y-3.30000 I0.00396 J0.00000
G1 Z-1.09804
G3  X-4.05396 Y-3.30000 I0.00396 J0.00000
G1 Z-1.10588
G3  X-4.05396 Y-3.30000 I0.00396 J0.00000
G1 Z-1.11373
G3  X-4.05396 Y-3.30000 I0.00396 J0.00000
G1 Z-1.12157
G3  X-4.05396 Y-3.30000 I0.00396 J0.00000
G1 Z-1.12941
G3  X-4.05396 Y-3.30000 I0.00396 J0.00000
G1 Z-1.13725
G3  X-4.05396 Y-3.30000 I0.00396 J0.00000
G1 Z-1.14510
G3  X-4.05396 Y-3.30000 I0.00396 J0.00000
G1 Z-1.15294
G3  X-4.05396 Y-3.30000 I0.00396 J0.00000
G1 Z-1.16078
G3  X-4.05396 Y-3.30000 I0.00396 J0.00000
G1 Z-1.16863
G3  X-4.05396 Y-3.30000 I0.00396 J0.00000
G1 Z-1.17647
G3  X-4.05396 Y-3.30000 I0.00396 J0.00000
G1 Z-1.18431
G3  X-4.05396 Y-3.30000 I0.00396 J0.00000
G1 Z-1.19216
G3  X-4.05396 Y-3.30000 I0.00396 J0.00000
G1 Z-1.20000
G3  X-4.05396 Y-3.30000 I0.00396 J0.00000
G1 Z-1.20784
G3  X-4.05396 Y-3.30000 I0.00396 J0.00000
G1 Z-1.21569
G3  X-4.05396 Y-3.30000 I0.00396 J0.00000
G1 Z-1.22353
G3  X-4.05396 Y-3.30000 I0.00396 J0.00000
G1 Z-1.23137
G3  X-4.05396 Y-3.30000 I0.00396 J0.00000
G1 Z-1.23922
G3  X-4.05396 Y-3.30000 I0.00396 J0.00000
G1 Z-1.24706
G3  X-4.05396 Y-3.30000 I0.00396 J0.00000
G1 Z-1.25490
G3  X-4.05396 Y-3.30000 I0.00396 J0.00000
G1 Z-1.26275
G3  X-4.05396 Y-3.30000 I0.00396 J0.00000
G1 Z-1.27059
G3  X-4.05396 Y-3.30000 I0.00396 J0.00000
G1 Z-1.27843
G3  X-4.05396 Y-3.30000 I0.00396 J0.00000
G1 Z-1.28627
G3  X-4.05396 Y-3.30000 I0.00396 J0.00000
G1 Z-1.29412
G3  X-4.05396 Y-3.30000 I0.00396 J0.00000
G1 Z-1.30196
G3  X-4.05396 Y-3.30000 I0.00396 J0.00000
G1 Z-1.30980
G3  X-4.05396 Y-3.30000 I0.00396 J0.00000
G1 Z-1.31765
G3  X-4.05396 Y-3.30000 I0.00396 J0.00000
G1 Z-1.32549
G3  X-4.05396 Y-3.30000 I0.00396 J0.00000
G1 Z-1.33333
G3  X-4.05396 Y-3.30000 I0.00396 J0.00000
G1 Z-1.34118
G3  X-4.05396 Y-3.30000 I0.00396 J0.00000
G1 Z-1.34902
G3  X-4.05396 Y-3.30000 I0.00396 J0.00000
G1 Z-1.35686
G3  X-4.05396 Y-3.30000 I0.00396 J0.00000
G1 Z-1.36471
G3  X-4.05396 Y-3.30000 I0.00396 J0.00000
G1 Z-1.37255
G3  X-4.05396 Y-3.30000 I0.00396 J0.00000
G1 Z-1.38039
G3  X-4.05396 Y-3.30000 I0.00396 J0.00000
G1 Z-1.38824
G3  X-4.05396 Y-3.30000 I0.00396 J0.00000
G1 Z-1.39608
G3  X-4.05396 Y-3.30000 I0.00396 J0.00000
G1 Z-1.40392
G3  X-4.05396 Y-3.30000 I0.00396 J0.00000
G1 Z-1.41176
G3  X-4.05396 Y-3.30000 I0.00396 J0.00000
G1 Z-1.41961
G3  X-4.05396 Y-3.30000 I0.00396 J0.00000
G1 Z-1.42745
G3  X-4.05396 Y-3.30000 I0.00396 J0.00000
G1 Z-1.43529
G3  X-4.05396 Y-3.30000 I0.00396 J0.00000
G1 Z-1.44314
G3  X-4.05396 Y-3.30000 I0.00396 J0.00000
G1 Z-1.45098
G3  X-4.05396 Y-3.30000 I0.00396 J0.00000
G1 Z-1.45882
G3  X-4.05396 Y-3.30000 I0.00396 J0.00000
G1 Z-1.46667
G3  X-4.05396 Y-3.30000 I0.00396 J0.00000
G1 Z-1.47451
G3  X-4.05396 Y-3.30000 I0.00396 J0.00000
G1 Z-1.48235
G3  X-4.05396 Y-3.30000 I0.00396 J0.00000
G1 Z-1.49020
G3  X-4.05396 Y-3.30000 I0.00396 J0.00000
G1 Z-1.49804
G3  X-4.05396 Y-3.30000 I0.00396 J0.00000
G1 Z-1.50588
G3  X-4.05396 Y-3.30000 I0.00396 J0.00000
G1 Z-1.51373
G3  X-4.05396 Y-3.30000 I0.00396 J0.00000
G1 Z-1.52157
G3  X-4.05396 Y-3.30000 I0.00396 J0.00000
G1 Z-1.52941
G3  X-4.05396 Y-3.30000 I0.00396 J0.00000
G1 Z-1.53725
G3  X-4.05396 Y-3.30000 I0.00396 J0.00000
G1 Z-1.54510
G3  X-4.05396 Y-3.30000 I0.00396 J0.00000
G1 Z-1.55294
G3  X-4.05396 Y-3.30000 I0.00396 J0.00000
G1 Z-1.56078
G3  X-4.05396 Y-3.30000 I0.00396 J0.00000
G1 Z-1.56863
G3  X-4.05396 Y-3.30000 I0.00396 J0.00000
G1 Z-1.57647
G3  X-4.05396 Y-3.30000 I0.00396 J0.00000
G1 Z-1.58431
G3  X-4.05396 Y-3.30000 I0.00396 J0.00000
G1 Z-1.59216
G3  X-4.05396 Y-3.30000 I0.00396 J0.00000
G1 Z-1.60000
G3  X-4.05396 Y-3.30000 I0.00396 J0.00000
G0 Z0.08000

G0 X-4.15396 Y-3.30000
G1 Z-0.00784
G3  X-4.15396 Y-3.30000 I0.00396 J0.00000
G1 Z-0.01569
G3  X-4.15396 Y-3.30000 I0.00396 J0.00000
G1 Z-0.02353
G3  X-4.15396 Y-3.30000 I0.00396 J0.00000
G1 Z-0.03137
G3  X-4.15396 Y-3.30000 I0.00396 J0.00000
G1 Z-0.03922
G3  X-4.15396 Y-3.30000 I0.00396 J0.00000
G1 Z-0.04706
G3  X-4.15396 Y-3.30000 I0.00396 J0.00000
G1 Z-0.05490
G3  X-4.15396 Y-3.30000 I0.00396 J0.00000
G1 Z-0.06275
G3  X-4.15396 Y-3.30000 I0.00396 J0.00000
G1 Z-0.07059
G3  X-4.15396 Y-3.30000 I0.00396 J0.00000
G1 Z-0.07843
G3  X-4.15396 Y-3.30000 I0.00396 J0.00000
G1 Z-0.08627
G3  X-4.15396 Y-3.30000 I0.00396 J0.00000
G1 Z-0.09412
G3  X-4.15396 Y-3.30000 I0.00396 J0.00000
G1 Z-0.10196
G3  X-4.15396 Y-3.30000 I0.00396 J0.00000
G1 Z-0.10980
G3  X-4.15396 Y-3.30000 I0.00396 J0.00000
G1 Z-0.11765
G3  X-4.15396 Y-3.30000 I0.00396 J0.00000
G1 Z-0.12549
G3  X-4.15396 Y-3.30000 I0.00396 J0.00000
G1 Z-0.13333
G3  X-4.15396 Y-3.30000 I0.00396 J0.00000
G1 Z-0.14118
G3  X-4.15396 Y-3.30000 I0.00396 J0.00000
G1 Z-0.14902
G3  X-4.15396 Y-3.30000 I0.00396 J0.00000
G1 Z-0.15686
G3  X-4.15396 Y-3.30000 I0.00396 J0.00000
G1 Z-0.16471
G3  X-4.15396 Y-3.30000 I0.00396 J0.00000
G1 Z-0.17255
G3  X-4.15396 Y-3.30000 I0.00396 J0.00000
G1 Z-0.18039
G3  X-4.15396 Y-3.30000 I0.00396 J0.00000
G1 Z-0.18824
G3  X-4.15396 Y-3.30000 I0.00396 J0.00000
G1 Z-0.19608
G3  X-4.15396 Y-3.30000 I0.00396 J0.00000
G1 Z-0.20392
G3  X-4.15396 Y-3.30000 I0.00396 J0.00000
G1 Z-0.21176
G3  X-4.15396 Y-3.30000 I0.00396 J0.00000
G1 Z-0.21961
G3  X-4.15396 Y-3.30000 I0.00396 J0.00000
G1 Z-0.22745
G3  X-4.15396 Y-3.30000 I0.00396 J0.00000
G1 Z-0.23529
G3  X-4.15396 Y-3.30000 I0.00396 J0.00000
G1 Z-0.24314
G3  X-4.15396 Y-3.30000 I0.00396 J0.00000
G1 Z-0.25098
G3  X-4.15396 Y-3.30000 I0.00396 J0.00000
G1 Z-0.25882
G3  X-4.15396 Y-3.30000 I0.00396 J0.00000
G1 Z-0.26667
G3  X-4.15396 Y-3.30000 I0.00396 J0.00000
G1 Z-0.27451
G3  X-4.15396 Y-3.30000 I0.00396 J0.00000
G1 Z-0.28235
G3  X-4.15396 Y-3.30000 I0.00396 J0.00000
G1 Z-0.29020
G3  X-4.15396 Y-3.30000 I0.00396 J0.00000
G1 Z-0.29804
G3  X-4.15396 Y-3.30000 I0.00396 J0.00000
G1 Z-0.30588
G3  X-4.15396 Y-3.30000 I0.00396 J0.00000
G1 Z-0.31373
G3  X-4.15396 Y-3.30000 I0.00396 J0.00000
G1 Z-0.32157
G3  X-4.15396 Y-3.30000 I0.00396 J0.00000
G1 Z-0.32941
G3  X-4.15396 Y-3.30000 I0.00396 J0.00000
G1 Z-0.33725
G3  X-4.15396 Y-3.30000 I0.00396 J0.00000
G1 Z-0.34510
G3  X-4.15396 Y-3.30000 I0.00396 J0.00000
G1 Z-0.35294
G3  X-4.15396 Y-3.30000 I0.00396 J0.00000
G1 Z-0.36078
G3  X-4.15396 Y-3.30000 I0.00396 J0.00000
G1 Z-0.36863
G3  X-4.15396 Y-3.30000 I0.00396 J0.00000
G1 Z-0.37647
G3  X-4.15396 Y-3.30000 I0.00396 J0.00000
G1 Z-0.38431
G3  X-4.15396 Y-3.30000 I0.00396 J0.00000
G1 Z-0.39216
G3  X-4.15396 Y-3.30000 I0.00396 J0.00000
G1 Z-0.40000
G3  X-4.15396 Y-3.30000 I0.00396 J0.00000
G1 Z-0.40784
G3  X-4.15396 Y-3.30000 I0.00396 J0.00000
G1 Z-0.41569
G3  X-4.15396 Y-3.30000 I0.00396 J0.00000
G1 Z-0.42353
G3  X-4.15396 Y-3.30000 I0.00396 J0.00000
G1 Z-0.43137
G3  X-4.15396 Y-3.30000 I0.00396 J0.00000
G1 Z-0.43922
G3  X-4.15396 Y-3.30000 I0.00396 J0.00000
G1 Z-0.44706
G3  X-4.15396 Y-3.30000 I0.00396 J0.00000
G1 Z-0.45490
G3  X-4.15396 Y-3.30000 I0.00396 J0.00000
G1 Z-0.46275
G3  X-4.15396 Y-3.30000 I0.00396 J0.00000
G1 Z-0.47059
G3  X-4.15396 Y-3.30000 I0.00396 J0.00000
G1 Z-0.47843
G3  X-4.15396 Y-3.30000 I0.00396 J0.00000
G1 Z-0.48627
G3  X-4.15396 Y-3.30000 I0.00396 J0.00000
G1 Z-0.49412
G3  X-4.15396 Y-3.30000 I0.00396 J0.00000
G1 Z-0.50196
G3  X-4.15396 Y-3.30000 I0.00396 J0.00000
G1 Z-0.50980
G3  X-4.15396 Y-3.30000 I0.00396 J0.00000
G1 Z-0.51765
G3  X-4.15396 Y-3.30000 I0.00396 J0.00000
G1 Z-0.52549
G3  X-4.15396 Y-3.30000 I0.00396 J0.00000
G1 Z-0.53333
G3  X-4.15396 Y-3.30000 I0.00396 J0.00000
G1 Z-0.54118
G3  X-4.15396 Y-3.30000 I0.00396 J0.00000
G1 Z-0.54902
G3  X-4.15396 Y-3.30000 I0.00396 J0.00000
G1 Z-0.55686
G3  X-4.15396 Y-3.30000 I0.00396 J0.00000
G1 Z-0.56471
G3  X-4.15396 Y-3.30000 I0.00396 J0.00000
G1 Z-0.57255
G3  X-4.15396 Y-3.30000 I0.00396 J0.00000
G1 Z-0.58039
G3  X-4.15396 Y-3.30000 I0.00396 J0.00000
G1 Z-0.58824
G3  X-4.15396 Y-3.30000 I0.00396 J0.00000
G1 Z-0.59608
G3  X-4.15396 Y-3.30000 I0.00396 J0.00000
G1 Z-0.60392
G3  X-4.15396 Y-3.30000 I0.00396 J0.00000
G1 Z-0.61176
G3  X-4.15396 Y-3.30000 I0.00396 J0.00000
G1 Z-0.61961
G3  X-4.15396 Y-3.30000 I0.00396 J0.00000
G1 Z-0.62745
G3  X-4.15396 Y-3.30000 I0.00396 J0.00000
G1 Z-0.63529
G3  X-4.15396 Y-3.30000 I0.00396 J0.00000
G1 Z-0.64314
G3  X-4.15396 Y-3.30000 I0.00396 J0.00000
G1 Z-0.65098
G3  X-4.15396 Y-3.30000 I0.00396 J0.00000
G1 Z-0.65882
G3  X-4.15396 Y-3.30000 I0.00396 J0.00000
G1 Z-0.66667
G3  X-4.15396 Y-3.30000 I0.00396 J0.00000
G1 Z-0.67451
G3  X-4.15396 Y-3.30000 I0.00396 J0.00000
G1 Z-0.68235
G3  X-4.15396 Y-3.30000 I0.00396 J0.00000
G1 Z-0.69020
G3  X-4.15396 Y-3.30000 I0.00396 J0.00000
G1 Z-0.69804
G3  X-4.15396 Y-3.30000 I0.00396 J0.00000
G1 Z-0.70588
G3  X-4.15396 Y-3.30000 I0.00396 J0.00000
G1 Z-0.71373
G3  X-4.15396 Y-3.30000 I0.00396 J0.00000
G1 Z-0.72157
G3  X-4.15396 Y-3.30000 I0.00396 J0.00000
G1 Z-0.72941
G3  X-4.15396 Y-3.30000 I0.00396 J0.00000
G1 Z-0.73725
G3  X-4.15396 Y-3.30000 I0.00396 J0.00000
G1 Z-0.74510
G3  X-4.15396 Y-3.30000 I0.00396 J0.00000
G1 Z-0.75294
G3  X-4.15396 Y-3.30000 I0.00396 J0.00000
G1 Z-0.76078
G3  X-4.15396 Y-3.30000 I0.00396 J0.00000
G1 Z-0.76863
G3  X-4.15396 Y-3.30000 I0.00396 J0.00000
G1 Z-0.77647
G3  X-4.15396 Y-3.30000 I0.00396 J0.00000
G1 Z-0.78431
G3  X-4.15396 Y-3.30000 I0.00396 J0.00000
G1 Z-0.79216
G3  X-4.15396 Y-3.30000 I0.00396 J0.00000
G1 Z-0.80000
G3  X-4.15396 Y-3.30000 I0.00396 J0.00000
G1 Z-0.80784
G3  X-4.15396 Y-3.30000 I0.00396 J0.00000
G1 Z-0.81569
G3  X-4.15396 Y-3.30000 I0.00396 J0.00000
G1 Z-0.82353
G3  X-4.15396 Y-3.30000 I0.00396 J0.00000
G1 Z-0.83137
G3  X-4.15396 Y-3.30000 I0.00396 J0.00000
G1 Z-0.83922
G3  X-4.15396 Y-3.30000 I0.00396 J0.00000
G1 Z-0.84706
G3  X-4.15396 Y-3.30000 I0.00396 J0.00000
G1 Z-0.85490
G3  X-4.15396 Y-3.30000 I0.00396 J0.00000
G1 Z-0.86275
G3  X-4.15396 Y-3.30000 I0.00396 J0.00000
G1 Z-0.87059
G3  X-4.15396 Y-3.30000 I0.00396 J0.00000
G1 Z-0.87843
G3  X-4.15396 Y-3.30000 I0.00396 J0.00000
G1 Z-0.88627
G3  X-4.15396 Y-3.30000 I0.00396 J0.00000
G1 Z-0.89412
G3  X-4.15396 Y-3.30000 I0.00396 J0.00000
G1 Z-0.90196
G3  X-4.15396 Y-3.30000 I0.00396 J0.00000
G1 Z-0.90980
G3  X-4.15396 Y-3.30000 I0.00396 J0.00000
G1 Z-0.91765
G3  X-4.15396 Y-3.30000 I0.00396 J0.00000
G1 Z-0.92549
G3  X-4.15396 Y-3.30000 I0.00396 J0.00000
G1 Z-0.93333
G3  X-4.15396 Y-3.30000 I0.00396 J0.00000
G1 Z-0.94118
G3  X-4.15396 Y-3.30000 I0.00396 J0.00000
G1 Z-0.94902
G3  X-4.15396 Y-3.30000 I0.00396 J0.00000
G1 Z-0.95686
G3  X-4.15396 Y-3.30000 I0.00396 J0.00000
G1 Z-0.96471
G3  X-4.15396 Y-3.30000 I0.00396 J0.00000
G1 Z-0.97255
G3  X-4.15396 Y-3.30000 I0.00396 J0.00000
G1 Z-0.98039
G3  X-4.15396 Y-3.30000 I0.00396 J0.00000
G1 Z-0.98824
G3  X-4.15396 Y-3.30000 I0.00396 J0.00000
G1 Z-0.99608
G3  X-4.15396 Y-3.30000 I0.00396 J0.00000
G1 Z-1.00392
G3  X-4.15396 Y-3.30000 I0.00396 J0.00000
G1 Z-1.01176
G3  X-4.15396 Y-3.30000 I0.00396 J0.00000
G1 Z-1.01961
G3  X-4.15396 Y-3.30000 I0.00396 J0.00000
G1 Z-1.02745
G3  X-4.15396 Y-3.30000 I0.00396 J0.00000
G1 Z-1.03529
G3  X-4.15396 Y-3.30000 I0.00396 J0.00000
G1 Z-1.04314
G3  X-4.15396 Y-3.30000 I0.00396 J0.00000
G1 Z-1.05098
G3  X-4.15396 Y-3.30000 I0.00396 J0.00000
G1 Z-1.05882
G3  X-4.15396 Y-3.30000 I0.00396 J0.00000
G1 Z-1.06667
G3  X-4.15396 Y-3.30000 I0.00396 J0.00000
G1 Z-1.07451
G3  X-4.15396 Y-3.30000 I0.00396 J0.00000
G1 Z-1.08235
G3  X-4.15396 Y-3.30000 I0.00396 J0.00000
G1 Z-1.09020
G3  X-4.15396 Y-3.30000 I0.00396 J0.00000
G1 Z-1.09804
G3  X-4.15396 Y-3.30000 I0.00396 J0.00000
G1 Z-1.10588
G3  X-4.15396 Y-3.30000 I0.00396 J0.00000
G1 Z-1.11373
G3  X-4.15396 Y-3.30000 I0.00396 J0.00000
G1 Z-1.12157
G3  X-4.15396 Y-3.30000 I0.00396 J0.00000
G1 Z-1.12941
G3  X-4.15396 Y-3.30000 I0.00396 J0.00000
G1 Z-1.13725
G3  X-4.15396 Y-3.30000 I0.00396 J0.00000
G1 Z-1.14510
G3  X-4.15396 Y-3.30000 I0.00396 J0.00000
G1 Z-1.15294
G3  X-4.15396 Y-3.30000 I0.00396 J0.00000
G1 Z-1.16078
G3  X-4.15396 Y-3.30000 I0.00396 J0.00000
G1 Z-1.16863
G3  X-4.15396 Y-3.30000 I0.00396 J0.00000
G1 Z-1.17647
G3  X-4.15396 Y-3.30000 I0.00396 J0.00000
G1 Z-1.18431
G3  X-4.15396 Y-3.30000 I0.00396 J0.00000
G1 Z-1.19216
G3  X-4.15396 Y-3.30000 I0.00396 J0.00000
G1 Z-1.20000
G3  X-4.15396 Y-3.30000 I0.00396 J0.00000
G1 Z-1.20784
G3  X-4.15396 Y-3.30000 I0.00396 J0.00000
G1 Z-1.21569
G3  X-4.15396 Y-3.30000 I0.00396 J0.00000
G1 Z-1.22353
G3  X-4.15396 Y-3.30000 I0.00396 J0.00000
G1 Z-1.23137
G3  X-4.15396 Y-3.30000 I0.00396 J0.00000
G1 Z-1.23922
G3  X-4.15396 Y-3.30000 I0.00396 J0.00000
G1 Z-1.24706
G3  X-4.15396 Y-3.30000 I0.00396 J0.00000
G1 Z-1.25490
G3  X-4.15396 Y-3.30000 I0.00396 J0.00000
G1 Z-1.26275
G3  X-4.15396 Y-3.30000 I0.00396 J0.00000
G1 Z-1.27059
G3  X-4.15396 Y-3.30000 I0.00396 J0.00000
G1 Z-1.27843
G3  X-4.15396 Y-3.30000 I0.00396 J0.00000
G1 Z-1.28627
G3  X-4.15396 Y-3.30000 I0.00396 J0.00000
G1 Z-1.29412
G3  X-4.15396 Y-3.30000 I0.00396 J0.00000
G1 Z-1.30196
G3  X-4.15396 Y-3.30000 I0.00396 J0.00000
G1 Z-1.30980
G3  X-4.15396 Y-3.30000 I0.00396 J0.00000
G1 Z-1.31765
G3  X-4.15396 Y-3.30000 I0.00396 J0.00000
G1 Z-1.32549
G3  X-4.15396 Y-3.30000 I0.00396 J0.00000
G1 Z-1.33333
G3  X-4.15396 Y-3.30000 I0.00396 J0.00000
G1 Z-1.34118
G3  X-4.15396 Y-3.30000 I0.00396 J0.00000
G1 Z-1.34902
G3  X-4.15396 Y-3.30000 I0.00396 J0.00000
G1 Z-1.35686
G3  X-4.15396 Y-3.30000 I0.00396 J0.00000
G1 Z-1.36471
G3  X-4.15396 Y-3.30000 I0.00396 J0.00000
G1 Z-1.37255
G3  X-4.15396 Y-3.30000 I0.00396 J0.00000
G1 Z-1.38039
G3  X-4.15396 Y-3.30000 I0.00396 J0.00000
G1 Z-1.38824
G3  X-4.15396 Y-3.30000 I0.00396 J0.00000
G1 Z-1.39608
G3  X-4.15396 Y-3.30000 I0.00396 J0.00000
G1 Z-1.40392
G3  X-4.15396 Y-3.30000 I0.00396 J0.00000
G1 Z-1.41176
G3  X-4.15396 Y-3.30000 I0.00396 J0.00000
G1 Z-1.41961
G3  X-4.15396 Y-3.30000 I0.00396 J0.00000
G1 Z-1.42745
G3  X-4.15396 Y-3.30000 I0.00396 J0.00000
G1 Z-1.43529
G3  X-4.15396 Y-3.30000 I0.00396 J0.00000
G1 Z-1.44314
G3  X-4.15396 Y-3.30000 I0.00396 J0.00000
G1 Z-1.45098
G3  X-4.15396 Y-3.30000 I0.00396 J0.00000
G1 Z-1.45882
G3  X-4.15396 Y-3.30000 I0.00396 J0.00000
G1 Z-1.46667
G3  X-4.15396 Y-3.30000 I0.00396 J0.00000
G1 Z-1.47451
G3  X-4.15396 Y-3.30000 I0.00396 J0.00000
G1 Z-1.48235
G3  X-4.15396 Y-3.30000 I0.00396 J0.00000
G1 Z-1.49020
G3  X-4.15396 Y-3.30000 I0.00396 J0.00000
G1 Z-1.49804
G3  X-4.15396 Y-3.30000 I0.00396 J0.00000
G1 Z-1.50588
G3  X-4.15396 Y-3.30000 I0.00396 J0.00000
G1 Z-1.51373
G3  X-4.15396 Y-3.30000 I0.00396 J0.00000
G1 Z-1.52157
G3  X-4.15396 Y-3.30000 I0.00396 J0.00000
G1 Z-1.52941
G3  X-4.15396 Y-3.30000 I0.00396 J0.00000
G1 Z-1.53725
G3  X-4.15396 Y-3.30000 I0.00396 J0.00000
G1 Z-1.54510
G3  X-4.15396 Y-3.30000 I0.00396 J0.00000
G1 Z-1.55294
G3  X-4.15396 Y-3.30000 I0.00396 J0.00000
G1 Z-1.56078
G3  X-4.15396 Y-3.30000 I0.00396 J0.00000
G1 Z-1.56863
G3  X-4.15396 Y-3.30000 I0.00396 J0.00000
G1 Z-1.57647
G3  X-4.15396 Y-3.30000 I0.00396 J0.00000
G1 Z-1.58431
G3  X-4.15396 Y-3.30000 I0.00396 J0.00000
G1 Z-1.59216
G3  X-4.15396 Y-3.30000 I0.00396 J0.00000
G1 Z-1.60000
G3  X-4.15396 Y-3.30000 I0.00396 J0.00000
G0 Z0.08000

G0 X-4.30396 Y-2.55000
G1 Z-0.00784
G3  X-4.30396 Y-2.55000 I0.00396 J0.00000
G1 Z-0.01569
G3  X-4.30396 Y-2.55000 I0.00396 J0.00000
G1 Z-0.02353
G3  X-4.30396 Y-2.55000 I0.00396 J0.00000
G1 Z-0.03137
G3  X-4.30396 Y-2.55000 I0.00396 J0.00000
G1 Z-0.03922
G3  X-4.30396 Y-2.55000 I0.00396 J0.00000
G1 Z-0.04706
G3  X-4.30396 Y-2.55000 I0.00396 J0.00000
G1 Z-0.05490
G3  X-4.30396 Y-2.55000 I0.00396 J0.00000
G1 Z-0.06275
G3  X-4.30396 Y-2.55000 I0.00396 J0.00000
G1 Z-0.07059
G3  X-4.30396 Y-2.55000 I0.00396 J0.00000
G1 Z-0.07843
G3  X-4.30396 Y-2.55000 I0.00396 J0.00000
G1 Z-0.08627
G3  X-4.30396 Y-2.55000 I0.00396 J0.00000
G1 Z-0.09412
G3  X-4.30396 Y-2.55000 I0.00396 J0.00000
G1 Z-0.10196
G3  X-4.30396 Y-2.55000 I0.00396 J0.00000
G1 Z-0.10980
G3  X-4.30396 Y-2.55000 I0.00396 J0.00000
G1 Z-0.11765
G3  X-4.30396 Y-2.55000 I0.00396 J0.00000
G1 Z-0.12549
G3  X-4.30396 Y-2.55000 I0.00396 J0.00000
G1 Z-0.13333
G3  X-4.30396 Y-2.55000 I0.00396 J0.00000
G1 Z-0.14118
G3  X-4.30396 Y-2.55000 I0.00396 J0.00000
G1 Z-0.14902
G3  X-4.30396 Y-2.55000 I0.00396 J0.00000
G1 Z-0.15686
G3  X-4.30396 Y-2.55000 I0.00396 J0.00000
G1 Z-0.16471
G3  X-4.30396 Y-2.55000 I0.00396 J0.00000
G1 Z-0.17255
G3  X-4.30396 Y-2.55000 I0.00396 J0.00000
G1 Z-0.18039
G3  X-4.30396 Y-2.55000 I0.00396 J0.00000
G1 Z-0.18824
G3  X-4.30396 Y-2.55000 I0.00396 J0.00000
G1 Z-0.19608
G3  X-4.30396 Y-2.55000 I0.00396 J0.00000
G1 Z-0.20392
G3  X-4.30396 Y-2.55000 I0.00396 J0.00000
G1 Z-0.21176
G3  X-4.30396 Y-2.55000 I0.00396 J0.00000
G1 Z-0.21961
G3  X-4.30396 Y-2.55000 I0.00396 J0.00000
G1 Z-0.22745
G3  X-4.30396 Y-2.55000 I0.00396 J0.00000
G1 Z-0.23529
