( pcb2gcode 2.5.0 )
( Software-independent Gcode )

G94 ( Inches per minute feed rate. )
G20 ( Units == INCHES. )

G90 ( Absolute coordinates. )
G00 S30000 ( RPM spindle speed. )
G64 P0.00040 ( set maximum deviation from commanded toolpath )
G01 F6.00000 ( Feedrate. )


G00 Z1.00000 (Retract to tool change height)
T1
M5      (Spindle stop.)
G04 P1.00000 (Wait for spindle to stop)
(MSG, Change tool bit to mill diameter 0.10000in)
M6      (Tool change.)
M0      (Temporary machine stop.)
M3 ( Spindle on clockwise. )
G04 P1.00000 (Wait for spindle to get up to speed)
G04 P0 ( dwell for no time -- G64 should not smooth over this point )
G00 Z0.08000 ( retract )

G00 X0.48250 Y-0.48250 ( rapid move to begin. )
G01 F3.00000
( Mill infeed pass 1/1 )
G01 Z-0.00800
G04 P0 ( dwell for no time -- G64 should not smooth over this point )
G01 F6.00000
G01 X0.48250 Y-0.48250
G01 X0.48250 Y10.48250
G01 X-10.48250 Y10.48250
G01 X-10.48250 Y-0.48250
G01 X0.48250 Y-0.48250
G01 X0.43250 Y-0.43250
G01 X0.43250 Y10.43250
G01 X0.44714 Y10.44714
G01 X0.43250 Y10.43250
G01 X-10.43250 Y10.43250
G01 X-10.44714 Y10.44714
G01 X-10.43250 Y10.43250
G01 X-10.43250 Y-0.43250
G01 X-10.44714 Y-0.44714
G01 X-10.43250 Y-0.43250
G01 X0.43250 Y-0.43250
G01 X0.38250 Y-0.38250
G01 X0.38250 Y10.38250
G01 X0.39714 Y10.39714
G01 X0.38250 Y10.38250
G01 X-10.38250 Y10.38250
G01 X-10.39714 Y10.39714
G01 X-10.38250 Y10.38250
G01 X-10.38250 Y-0.38250
G01 X-10.39714 Y-0.39714
G01 X-10.38250 Y-0.38250
G01 X0.38250 Y-0.38250
G04 P0 ( dwell for no time -- G64 should not smooth over this point )
G00 Z0.08000 ( retract )

G00 X-1.32043 Y3.77653 ( rapid move to begin. )
G01 F3.00000
( Mill infeed pass 1/1 )
G01 Z-0.00800
G04 P0 ( dwell for no time -- G64 should not smooth over this point )
G01 F6.00000
G01 X-1.32043 Y3.77653
G01 X-1.35787 Y3.80860
G01 X-1.50172 Y3.93088
G01 X-1.58700 Y4.00249
G01 X-1.67525 Y4.07557
G01 X-1.74603 Y4.13314
G01 X-1.80592 Y4.18085
G01 X-1.85626 Y4.22002
G01 X-1.89922 Y4.25260
G01 X-1.93793 Y4.28110
G01 X-1.97203 Y4.30542
G01 X-2.00244 Y4.32637
G01 X-2.01483 Y4.33467
G01 X-2.04216 Y4.35248
G01 X-2.06782 Y4.36849
G01 X-2.08108 Y4.37647
G01 X-2.10434 Y4.38996
G01 X-2.12637 Y4.40207
G01 X-2.14870 Y4.41389
G01 X-2.16074 Y4.42045
G01 X-2.18514 Y4.43433
G01 X-2.20949 Y4.44900
G01 X-2.23242 Y4.46361
G01 X-2.25483 Y4.47869
G01 X-2.26540 Y4.48608
G01 X-2.28574 Y4.50086
G01 X-2.30736 Y4.51739
G01 X-2.32619 Y4.53253
G01 X-2.33763 Y4.54209
G01 X-2.35707 Y4.55899
G01 X-2.37560 Y4.57591
G01 X-2.39393 Y4.59350
G01 X-2.41154 Y4.61123
G01 X-2.42901 Y4.62970
G01 X-2.44618 Y4.64877
G01 X-2.46256 Y4.66789
G01 X-2.47803 Y4.68685
G01 X-2.49443 Y4.70797
G01 X-2.50994 Y4.72902
G01 X-2.52520 Y4.75082
G01 X-2.53943 Y4.77225
G01 X-2.55368 Y4.79485
G01 X-2.56779 Y4.81851
G01 X-2.57541 Y4.83184
G01 X-2.58860 Y4.85596
G01 X-2.60206 Y4.88207
G01 X-2.60894 Y4.89605
G01 X-2.62122 Y4.92223
G01 X-2.62827 Y4.93801
G01 X-2.63986 Y4.96533
G01 X-2.64582 Y4.98011
G01 X-2.65707 Y5.00950
G01 X-2.66373 Y5.02796
G01 X-2.67424 Y5.05893
G01 X-2.67925 Y5.07456
G01 X-2.68496 Y5.09320
G01 X-2.68929 Y5.10795
G01 X-2.69511 Y5.12873
G01 X-2.69931 Y5.14447
G01 X-2.70456 Y5.16512
G01 X-2.70814 Y5.17996
G01 X-2.71355 Y5.20363
G01 X-2.71692 Y5.21924
G01 X-2.72118 Y5.24001
G01 X-2.72270 Y5.24990
G01 X-2.72746 Y5.29278
G01 X-2.73452 Y5.34902
G01 X-2.73978 Y5.38730
G01 X-2.74558 Y5.42718
G01 X-2.75683 Y5.49936
G01 X-2.76727 Y5.56208
G01 X-2.77944 Y5.63187
G01 X-2.79421 Y5.71322
G01 X-2.81087 Y5.80150
G01 X-2.83507 Y5.92575
G01 X-2.86308 Y6.06527
G01 X-2.89253 Y6.20878
G01 X-2.93974 Y6.43441
G01 X-3.01569 Y6.79015
G01 X-3.10371 Y7.19714
G01 X-3.14757 Y7.39767
G01 X-3.13820 Y7.40978
G01 X-3.14757 Y7.39767
G01 X-3.23692 Y7.39427
G01 X-3.25044 Y7.39347
G01 X-3.26196 Y7.40551
G01 X-3.25044 Y7.39347
G01 X-3.31680 Y6.61164
G01 X-3.35008 Y6.22432
G01 X-3.37264 Y5.96566
G01 X-3.39562 Y5.70830
G01 X-3.40006 Y5.65315
G01 X-3.40004 Y5.36913
G01 X-3.39413 Y5.31010
G01 X-3.37904 Y5.18531
G01 X-3.36689 Y5.07886
G01 X-3.35736 Y4.98946
G01 X-3.34915 Y4.90695
G01 X-3.34117 Y4.82083
G01 X-3.33310 Y4.72724
G01 X-3.32405 Y4.61468
G01 X-3.31882 Y4.54620
G01 X-3.31187 Y4.45216
G01 X-3.31161 Y4.44493
G01 X-3.31161 Y4.37625
G01 X-3.31316 Y4.29439
G01 X-3.31762 Y4.21180
G01 X-3.32498 Y4.12662
G01 X-3.33522 Y4.03885
G01 X-3.34832 Y3.94845
G01 X-3.36428 Y3.85542
G01 X-3.38263 Y3.76194
G01 X-3.40473 Y3.66138
G01 X-3.42872 Y3.56226
G01 X-3.45650 Y3.45662
G01 X-3.48613 Y3.35186
G01 X-3.51956 Y3.24105
G01 X-3.55531 Y3.12919
G01 X-3.59388 Y3.01460
G01 X-3.63527 Y2.89726
G01 X-3.67901 Y2.77839
G01 X-3.77832 Y2.51384
G01 X-3.79806 Y2.50451
G01 X-3.77832 Y2.51384
G01 X-3.76495 Y2.50898
G01 X-3.65772 Y2.47277
G01 X-3.55054 Y2.43934
G01 X-3.44340 Y2.40869
G01 X-3.33631 Y2.38081
G01 X-3.22927 Y2.35570
G01 X-3.12226 Y2.33337
G01 X-3.01529 Y2.31379
G01 X-2.90835 Y2.29699
G01 X-2.80144 Y2.28294
G01 X-2.69455 Y2.27166
G01 X-2.58768 Y2.26313
G01 X-2.48082 Y2.25736
G01 X-2.37397 Y2.25435
G01 X-2.26712 Y2.25409
G01 X-2.20167 Y2.25562
G01 X-2.19986 Y2.25165
G01 X-2.20167 Y2.25562
G01 X-2.16396 Y2.29688
G01 X-2.10042 Y2.36896
G01 X-2.03925 Y2.44096
G01 X-1.98047 Y2.51290
G01 X-1.92406 Y2.58477
G01 X-1.87002 Y2.65656
G01 X-1.81836 Y2.72827
G01 X-1.76906 Y2.79990
G01 X-1.72212 Y2.87146
G01 X-1.67755 Y2.94292
G01 X-1.63532 Y3.01430
G01 X-1.59545 Y3.08559
G01 X-1.55793 Y3.15679
G01 X-1.52274 Y3.22791
G01 X-1.48988 Y3.29893
G01 X-1.45909 Y3.37051
G01 X-1.43884 Y3.41940
G01 X-1.41774 Y3.47184
G01 X-1.39811 Y3.52375
G01 X-1.37974 Y3.57562
G01 X-1.36263 Y3.62744
G01 X-1.34678 Y3.67923
G01 X-1.33219 Y3.73097
G01 X-1.32043 Y3.77653
G01 X-1.31196 Y3.77919
G01 X-1.27029 Y3.77072
G01 X-1.26472 Y3.79454
G01 X-1.25631 Y3.79723
G01 X-1.26472 Y3.79454
G01 X-1.32540 Y3.84663
G01 X-1.46950 Y3.96912
G01 X-1.55492 Y4.04085
G01 X-1.64350 Y4.11419
G01 X-1.71463 Y4.17205
G01 X-1.77495 Y4.22010
G01 X-1.82576 Y4.25964
G01 X-1.86925 Y4.29261
G01 X-1.90855 Y4.32156
G01 X-1.94330 Y4.34634
G01 X-1.97441 Y4.36777
G01 X-1.98718 Y4.37633
G01 X-2.01530 Y4.39465
G01 X-2.04182 Y4.41119
G01 X-2.06701 Y4.42620
G01 X-2.09097 Y4.43974
G01 X-2.13679 Y4.46434
G01 X-2.16013 Y4.47763
G01 X-2.18291 Y4.49135
G01 X-2.20481 Y4.50530
G01 X-2.22619 Y4.51967
G01 X-2.24696 Y4.53439
G01 X-2.26707 Y4.54941
G01 X-2.28571 Y4.56405
G01 X-2.29507 Y4.57168
G01 X-2.31335 Y4.58713
G01 X-2.33197 Y4.60368
G01 X-2.34892 Y4.61950
G01 X-2.36619 Y4.63641
G01 X-2.38277 Y4.65346
G01 X-2.39209 Y4.66341
G01 X-2.40803 Y4.68111
G01 X-2.42402 Y4.69975
G01 X-2.43949 Y4.71872
G01 X-2.45438 Y4.73792
G01 X-2.46917 Y4.75797
G01 X-2.48337 Y4.77824
G01 X-2.49795 Y4.80018
G01 X-2.51120 Y4.82124
G01 X-2.52469 Y4.84385
G01 X-2.53169 Y4.85611
G01 X-2.54458 Y4.87968
G01 X-2.55747 Y4.90469
G01 X-2.56380 Y4.91756
G01 X-2.57582 Y4.94317
G01 X-2.58237 Y4.95784
G01 X-2.59372 Y4.98460
G01 X-2.59923 Y4.99824
G01 X-2.61025 Y5.02705
G01 X-2.62087 Y5.05696
G01 X-2.62700 Y5.07533
G01 X-2.63126 Y5.08861
G01 X-2.63716 Y5.10786
G01 X-2.64131 Y5.12201
G01 X-2.64696 Y5.14220
G01 X-2.65070 Y5.15618
G01 X-2.65609 Y5.17743
G01 X-2.65967 Y5.19228
G01 X-2.66493 Y5.21534
G01 X-2.67220 Y5.25005
G01 X-2.67296 Y5.25500
G01 X-2.67780 Y5.29858
G01 X-2.68496 Y5.35565
G01 X-2.69028 Y5.39432
G01 X-2.69613 Y5.43453
G01 X-2.70748 Y5.50739
G01 X-2.71799 Y5.57052
G01 X-2.73023 Y5.64073
G01 X-2.74506 Y5.72238
G01 X-2.76339 Y5.81934
G01 X-2.78603 Y5.93552
G01 X-2.81408 Y6.07525
G01 X-2.84356 Y6.21890
G01 X-2.89081 Y6.44470
G01 X-2.96682 Y6.80072
G01 X-3.05485 Y7.20774
G01 X-3.10756 Y7.44870
G01 X-3.09827 Y7.46063
G01 X-3.10756 Y7.44870
G01 X-3.13903 Y7.44803
G01 X-3.23933 Y7.44421
G01 X-3.29662 Y7.44086
G01 X-3.30789 Y7.45242
G01 X-3.29662 Y7.44086
G01 X-3.36744 Y6.60622
G01 X-3.39990 Y6.22860
G01 X-3.42189 Y5.97631
G01 X-3.43779 Y5.79710
G01 X-3.44544 Y5.71259
G01 X-3.45005 Y5.65492
G01 X-3.45004 Y5.36668
G01 X-3.44383 Y5.30460
G01 X-3.42869 Y5.17947
G01 X-3.41658 Y5.07329
G01 X-3.40707 Y4.98416
G01 X-3.39892 Y4.90217
G01 X-3.39097 Y4.81637
G01 X-3.38293 Y4.72316
G01 X-3.37391 Y4.61093
G01 X-3.36868 Y4.54256
G01 X-3.36174 Y4.44854
G01 X-3.36161 Y4.44493
G01 X-3.36162 Y4.37533
G01 X-3.36309 Y4.29705
G01 X-3.36744 Y4.21607
G01 X-3.37465 Y4.13239
G01 X-3.38470 Y4.04600
G01 X-3.39761 Y3.95689
G01 X-3.41335 Y3.86504
G01 X-3.43192 Y3.77047
G01 X-3.45333 Y3.67314
G01 X-3.47731 Y3.57402
G01 X-3.50437 Y3.47112
G01 X-3.53449 Y3.36464
G01 X-3.56719 Y3.25627
G01 X-3.60270 Y3.14514
G01 X-3.64104 Y3.03122
G01 X-3.68196 Y2.91517
G01 X-3.72594 Y2.79566
G01 X-3.84289 Y2.48411
G01 X-3.86204 Y2.47529
G01 X-3.84289 Y2.48411
G01 X-3.78149 Y2.46179
G01 X-3.67316 Y2.42521
G01 X-3.56486 Y2.39143
G01 X-3.45658 Y2.36045
G01 X-3.34832 Y2.33227
G01 X-3.24009 Y2.30688
G01 X-3.13187 Y2.28429
G01 X-3.02367 Y2.26450
G01 X-2.91549 Y2.24750
G01 X-2.80732 Y2.23329
G01 X-2.69916 Y2.22187
G01 X-2.59102 Y2.21324
G01 X-2.48287 Y2.20740
G01 X-2.37473 Y2.20435
G01 X-2.26660 Y2.20409
G01 X-2.17916 Y2.20614
G01 X-2.17735 Y2.20216
G01 X-2.17916 Y2.20614
G01 X-2.12675 Y2.26348
G01 X-2.06261 Y2.33624
G01 X-2.00084 Y2.40896
G01 X-1.94144 Y2.48164
G01 X-1.88441 Y2.55430
G01 X-1.82976 Y2.62691
G01 X-1.77747 Y2.69948
G01 X-1.72755 Y2.77202
G01 X-1.68000 Y2.84451
G01 X-1.63481 Y2.91696
G01 X-1.59198 Y2.98936
G01 X-1.55151 Y3.06173
G01 X-1.51340 Y3.13405
G01 X-1.47763 Y3.20632
G01 X-1.44422 Y3.27855
G01 X-1.41302 Y3.35106
G01 X-1.39254 Y3.40050
G01 X-1.37116 Y3.45366
G01 X-1.35116 Y3.50656
G01 X-1.33243 Y3.55944
G01 X-1.31498 Y3.61229
G01 X-1.29881 Y3.66512
G01 X-1.28391 Y3.71793
G01 X-1.27029 Y3.77072
G01 X-1.22174 Y3.75878
G01 X-1.23564 Y3.70490
G01 X-1.25084 Y3.65102
G01 X-1.26733 Y3.59713
G01 X-1.28512 Y3.54325
G01 X-1.30420 Y3.48937
G01 X-1.32458 Y3.43549
G01 X-1.34625 Y3.38161
G01 X-1.36696 Y3.33161
G01 X-1.39856 Y3.25817
G01 X-1.43253 Y3.18474
G01 X-1.46887 Y3.11130
G01 X-1.50757 Y3.03787
G01 X-1.54864 Y2.96443
G01 X-1.59208 Y2.89100
G01 X-1.63788 Y2.81756
G01 X-1.68606 Y2.74413
G01 X-1.73659 Y2.67069
G01 X-1.78950 Y2.59726
G01 X-1.84477 Y2.52382
G01 X-1.90241 Y2.45039
G01 X-1.96242 Y2.37695
G01 X-2.02480 Y2.30352
G01 X-2.08954 Y2.23008
G01 X-2.15665 Y2.15665
G01 X-2.26607 Y2.15409
G01 X-2.37550 Y2.15435
G01 X-2.48493 Y2.15744
G01 X-2.59435 Y2.16335
G01 X-2.70378 Y2.17208
G01 X-2.81320 Y2.18363
G01 X-2.92263 Y2.19801
G01 X-3.03206 Y2.21520
G01 X-3.14148 Y2.23522
G01 X-3.25091 Y2.25806
G01 X-3.36033 Y2.28373
G01 X-3.46976 Y2.31221
G01 X-3.57918 Y2.34352
G01 X-3.68861 Y2.37765
G01 X-3.79804 Y2.41460
G01 X-3.90746 Y2.45438
G01 X-4.02983 Y2.45582
G01 X-4.15220 Y2.46035
G01 X-4.23648 Y2.43410
G01 X-4.32075 Y2.40945
G01 X-4.40503 Y2.38643
G01 X-4.48931 Y2.36501
G01 X-4.57359 Y2.34521
G01 X-4.65787 Y2.32702
G01 X-4.74214 Y2.31045
G01 X-4.82642 Y2.29548
G01 X-4.91070 Y2.28214
G01 X-4.99498 Y2.27040
G01 X-5.07925 Y2.26028
G01 X-5.16353 Y2.25178
G01 X-5.24781 Y2.24488
G01 X-5.33209 Y2.23961
G01 X-5.41637 Y2.23594
G01 X-5.50064 Y2.23389
G01 X-5.58492 Y2.23345
G01 X-5.66920 Y2.23462
G01 X-5.75348 Y2.23741
G01 X-5.83776 Y2.24181
G01 X-5.92203 Y2.24783
G01 X-6.00631 Y2.25546
G01 X-6.09059 Y2.26470
G01 X-6.17487 Y2.27556
G01 X-6.25915 Y2.28803
G01 X-6.34342 Y2.30211
G01 X-6.42770 Y2.31781
G01 X-6.51198 Y2.33512
G01 X-6.59626 Y2.35405
G01 X-6.68053 Y2.37459
G01 X-6.76481 Y2.39674
G01 X-6.84909 Y2.42050
G01 X-6.96191 Y2.42207
G01 X-7.07472 Y2.42630
G01 X-7.18754 Y2.43319
G01 X-7.30036 Y2.44275
G01 X-7.37103 Y2.43473
G01 X-7.44170 Y2.42775
G01 X-7.51236 Y2.42184
G01 X-7.58303 Y2.41697
G01 X-7.63935 Y2.46730
G01 X-7.69446 Y2.51763
G01 X-7.74836 Y2.56797
G01 X-7.80104 Y2.61830
G01 X-7.86278 Y2.65668
G01 X-7.94356 Y2.70783
G01 X-7.91668 Y2.74999
G01 X-7.90867 Y2.76507
G01 X-7.95999 Y2.83765
G01 X-7.99887 Y2.99038
G01 X-8.03969 Y3.14549
G01 X-8.05193 Y3.19088
G01 X-8.08838 Y3.32285
G01 X-8.10021 Y3.36468
G01 X-8.13259 Y3.47659
G01 X-8.14482 Y3.51788
G01 X-8.17411 Y3.61463
G01 X-8.18633 Y3.65409
G01 X-8.21196 Y3.73511
G01 X-8.24603 Y3.84104
G01 X-8.27540 Y3.93434
G01 X-8.28554 Y3.96711
G01 X-8.30871 Y4.04352
G01 X-8.32073 Y4.08414
G01 X-8.33882 Y4.14690
G01 X-8.35409 Y4.20189
G01 X-8.36086 Y4.22700
G01 X-8.36789 Y4.25368
G01 X-8.37950 Y4.29942
G01 X-8.38968 Y4.34171
G01 X-8.39553 Y4.36730
G01 X-8.39986 Y4.38699
G01 X-8.40653 Y4.41874
G01 X-8.41309 Y4.45242
G01 X-8.41879 Y4.48459
G01 X-8.42176 Y4.50285
G01 X-8.42589 Y4.53087
G01 X-8.42960 Y4.55990
G01 X-8.43245 Y4.58690
G01 X-8.43332 Y4.59651
G01 X-8.43513 Y4.62043
G01 X-8.43638 Y4.64403
G01 X-8.43753 Y4.67926
G01 X-8.43864 Y4.70336
G01 X-8.44071 Y4.73507
G01 X-8.44215 Y4.75263
G01 X-8.44380 Y4.77029
G01 X-8.44615 Y4.79193
G01 X-8.45038 Y4.82485
G01 X-8.45533 Y4.85709
G01 X-8.45803 Y4.87276
G01 X-8.46119 Y4.88972
G01 X-8.45816 Y4.90562
G01 X-8.45603 Y4.91867
G01 X-8.45415 Y4.93258
G01 X-8.45267 Y4.94572
G01 X-8.45154 Y4.95890
G01 X-8.45067 Y4.97250
G01 X-8.45017 Y4.98612
G01 X-8.44998 Y4.99974
G01 X-8.45015 Y5.01295
G01 X-8.45063 Y5.02658
G01 X-8.45147 Y5.04019
G01 X-8.45262 Y5.05378
G01 X-8.45414 Y5.06734
G01 X-8.45596 Y5.08085
G01 X-8.45807 Y5.09390
G01 X-8.46119 Y5.11027
G01 X-8.45813 Y5.12668
G01 X-8.45542 Y5.14234
G01 X-8.45230 Y5.16192
G01 X-8.45053 Y5.17410
G01 X-8.44830 Y5.19056
G01 X-8.44623 Y5.20740
G01 X-8.44433 Y5.22455
G01 X-8.44267 Y5.24154
G01 X-8.44080 Y5.26369
G01 X-8.43875 Y5.29483
G01 X-8.43757 Y5.31951
G01 X-8.43641 Y5.35511
G01 X-8.43514 Y5.37936
G01 X-8.43254 Y5.41216
G01 X-8.42973 Y5.43893
G01 X-8.42758 Y5.45646
G01 X-8.42376 Y5.48400
G01 X-8.41897 Y5.51433
G01 X-8.41332 Y5.54637
G01 X-8.40675 Y5.58024
G01 X-8.39924 Y5.61599
G01 X-8.39059 Y5.65436
G01 X-8.38049 Y5.69656
G01 X-8.37490 Y5.71896
G01 X-8.36240 Y5.76720
G01 X-8.35571 Y5.79218
G01 X-8.34754 Y5.82198
G01 X-8.33681 Y5.86011
G01 X-8.29917 Y5.89893
G01 X-8.33681 Y5.86011
G01 X-8.38231 Y5.84582
G01 X-8.42206 Y5.83377
G01 X-8.45938 Y5.82283
G01 X-8.49361 Y5.81315
G01 X-8.52748 Y5.80397
G01 X-8.55849 Y5.79587
G01 X-8.60486 Y5.78449
G01 X-8.64766 Y5.77479
G01 X-8.67429 Y5.76915
G01 X-8.68984 Y5.76603
G01 X-8.71549 Y5.76114
G01 X-8.74066 Y5.75670
G01 X-8.76506 Y5.75271
G01 X-8.78654 Y5.74950
G01 X-8.81311 Y5.74589
G01 X-8.83012 Y5.74382
G01 X-8.84710 Y5.74193
G01 X-8.87204 Y5.73951
G01 X-8.90522 Y5.73693
G01 X-8.93791 Y5.73511
G01 X-8.97282 Y5.73400
G01 X-8.99140 Y5.73378
G01 X-9.01638 Y5.73384
G01 X-9.04864 Y5.73458
G01 X-9.07211 Y5.73560
G01 X-9.09196 Y5.73673
G01 X-9.12839 Y5.73954
G01 X-9.16126 Y5.74284
G01 X-9.18436 Y5.74557
G01 X-9.20818 Y5.74874
G01 X-9.23236 Y5.75232
G01 X-9.25812 Y5.75648
G01 X-9.28623 Y5.76147
G01 X-9.31025 Y5.76604
G01 X-9.33849 Y5.77182
G01 X-9.36452 Y5.77745
G01 X-9.40810 Y5.78759
G01 X-9.41321 Y5.79903
G01 X-9.40810 Y5.78759
G01 X-9.42646 Y5.75474
G01 X-9.43849 Y5.73242
G01 X-9.44991 Y5.71059
G01 X-9.46656 Y5.67754
G01 X-9.47665 Y5.65669
G01 X-9.48626 Y5.63622
G01 X-9.49957 Y5.60675
G01 X-9.50819 Y5.58688
G01 X-9.51661 Y5.56680
G01 X-9.52915 Y5.53554
G01 X-9.53778 Y5.51292
G01 X-9.54429 Y5.49521
G01 X-9.55370 Y5.46835
G01 X-9.56372 Y5.43802
G01 X-9.56945 Y5.41966
G01 X-9.57487 Y5.40158
G01 X-9.58197 Y5.37655
G01 X-9.58977 Y5.34699
G01 X-9.59570 Y5.32271
G01 X-9.60238 Y5.29300
G01 X-9.60597 Y5.27569
G01 X-9.60940 Y5.25808
G01 X-9.61361 Y5.23472
G01 X-9.61647 Y5.21738
G01 X-9.61905 Y5.20048
G01 X-9.62301 Y5.17137
G01 X-9.62506 Y5.15413
G01 X-9.62684 Y5.13740
G01 X-9.62890 Y5.11505
G01 X-9.63023 Y5.09807
G01 X-9.63131 Y5.08150
G01 X-9.63222 Y5.06457
G01 X-9.63290 Y5.04806
G01 X-9.63339 Y5.03109
G01 X-9.63367 Y5.01412
G01 X-9.63374 Y4.99725
G01 X-9.63361 Y4.98075
G01 X-9.63326 Y4.96378
G01 X-9.63271 Y4.94681
G01 X-9.63129 Y4.91801
G01 X-9.63016 Y4.90098
G01 X-9.62882 Y4.88392
G01 X-9.62730 Y4.86728
G01 X-9.62554 Y4.85023
G01 X-9.62355 Y4.83303
G01 X-9.62134 Y4.81577
G01 X-9.61897 Y4.79894
G01 X-9.61640 Y4.78214
G01 X-9.61252 Y4.75902
G01 X-9.60933 Y4.74151
G01 X-9.60597 Y4.72429
G01 X-9.59969 Y4.69468
G01 X-9.59424 Y4.67114
G01 X-9.58685 Y4.64167
G01 X-9.58198 Y4.62351
G01 X-9.57681 Y4.60510
G01 X-9.56925 Y4.57968
G01 X-9.55951 Y4.54900
G01 X-9.55081 Y4.52324
G01 X-9.53962 Y4.49205
G01 X-9.52943 Y4.46519
G01 X-9.51669 Y4.43339
G01 X-9.50453 Y4.40461
G01 X-9.49000 Y4.37188
G01 X-9.48014 Y4.35065
G01 X-9.46623 Y4.32181
G01 X-9.44960 Y4.28880
G01 X-9.43256 Y4.25650
G01 X-9.42015 Y4.23381
G01 X-9.40072 Y4.19956
G01 X-9.38709 Y4.17639
G01 X-9.36571 Y4.14126
G01 X-9.35033 Y4.11684
G01 X-9.32674 Y4.08063
G01 X-9.30986 Y4.05555
G01 X-9.29251 Y4.03043
G01 X-9.28253 Y4.01627
G01 X-9.26336 Y3.98962
G01 X-9.24322 Y3.96234
G01 X-9.22239 Y3.93485
G01 X-9.20085 Y3.90713
G01 X-9.17806 Y3.87853
G01 X-9.15447 Y3.84966
G01 X-9.12947 Y3.81982
G01 X-9.10361 Y3.78971
G01 X-9.07588 Y3.75822
G01 X-9.04701 Y3.72625
G01 X-9.01720 Y3.69402
G01 X-8.98508 Y3.66016
G01 X-8.95141 Y3.62553
G01 X-8.93958 Y3.61357
G01 X-8.90388 Y3.57805
G01 X-8.86706 Y3.54230
G01 X-8.82879 Y3.50603
G01 X-8.78772 Y3.46804
G01 X-8.75721 Y3.44040
G01 X-8.74380 Y3.42841
G01 X-8.69871 Y3.38870
G01 X-8.65146 Y3.34809
G01 X-8.61521 Y3.31758
G01 X-8.60076 Y3.30557
G01 X-8.54638 Y3.26109
G01 X-8.49010 Y3.21619
G01 X-8.43002 Y3.16945
G01 X-8.38162 Y3.13262
G01 X-8.31361 Y3.08203
G01 X-8.29716 Y3.07000
G01 X-8.22597 Y3.01870
G01 X-8.15138 Y2.96631
G01 X-8.08840 Y2.92308
G01 X-8.07060 Y2.91102
G01 X-8.00133 Y2.86471
G01 X-7.95999 Y2.83765
G01 X-7.90867 Y2.76507
G01 X-7.91668 Y2.74999
G01 X-7.88043 Y2.72704
G01 X-7.83026 Y2.65771
G01 X-7.88043 Y2.72704
G01 X-7.92347 Y2.89725
G01 X-7.95048 Y3.00296
G01 X-7.99137 Y3.15836
G01 X-8.00369 Y3.20404
G01 X-8.04022 Y3.33631
G01 X-8.05214 Y3.37844
G01 X-8.08461 Y3.49064
G01 X-8.09692 Y3.53222
G01 X-8.12630 Y3.62927
G01 X-8.13861 Y3.66902
G01 X-8.16433 Y3.75034
G01 X-8.19832 Y3.85599
G01 X-8.20954 Y3.89138
G01 X-8.22758 Y3.94893
G01 X-8.25209 Y4.02885
G01 X-8.27266 Y4.09789
G01 X-8.28086 Y4.12607
G01 X-8.29061 Y4.16018
G01 X-8.30596 Y4.21542
G01 X-8.31946 Y4.26613
G01 X-8.33108 Y4.31188
G01 X-8.34113 Y4.35365
G01 X-8.34688 Y4.37885
G01 X-8.35435 Y4.41331
G01 X-8.36158 Y4.44914
G01 X-8.36404 Y4.46213
G01 X-8.36936 Y4.49217
G01 X-8.37408 Y4.52183
G01 X-8.37780 Y4.54839
G01 X-8.37991 Y4.56551
G01 X-8.38266 Y4.59143
G01 X-8.38472 Y4.61610
G01 X-8.38611 Y4.63912
G01 X-8.38781 Y4.68715
G01 X-8.38952 Y4.71969
G01 X-8.39125 Y4.74402
G01 X-8.39278 Y4.76195
G01 X-8.39455 Y4.78006
G01 X-8.39649 Y4.79777
G01 X-8.40029 Y4.82773
G01 X-8.40276 Y4.84481
G01 X-8.40540 Y4.86160
G01 X-8.41107 Y4.89387
G01 X-8.41826 Y4.92975
G01 X-8.42121 Y4.94743
G01 X-8.42305 Y4.96235
G01 X-8.42440 Y4.97919
G01 X-8.42467 Y4.98468
G01 X-8.42500 Y5.00089
G01 X-8.42468 Y5.01529
G01 X-8.42358 Y5.03202
G01 X-8.42305 Y5.03763
G01 X-8.42139 Y5.05134
G01 X-8.41839 Y5.06953
G01 X-8.41119 Y5.10554
G01 X-8.40548 Y5.13780
G01 X-8.40104 Y5.16700
G01 X-8.39872 Y5.18408
G01 X-8.39657 Y5.20153
G01 X-8.39461 Y5.21929
G01 X-8.39244 Y5.24179
G01 X-8.38997 Y5.27339
G01 X-8.38883 Y5.29200
G01 X-8.38786 Y5.31139
G01 X-8.38648 Y5.35240
G01 X-8.38529 Y5.37538
G01 X-8.38349 Y5.39938
G01 X-8.38106 Y5.42429
G01 X-8.37802 Y5.44989
G01 X-8.37426 Y5.47694
G01 X-8.37242 Y5.48901
G01 X-8.36748 Y5.51881
G01 X-8.36164 Y5.55053
G01 X-8.35777 Y5.57017
G01 X-8.35034 Y5.60555
G01 X-8.34652 Y5.62282
G01 X-8.33728 Y5.66262
G01 X-8.33190 Y5.68477
G01 X-8.32053 Y5.72973
G01 X-8.30741 Y5.77922
G01 X-8.29945 Y5.80828
G01 X-8.28238 Y5.86867
G01 X-8.26224 Y5.93716
G01 X-8.22275 Y5.97804
G01 X-8.26224 Y5.93716
G01 X-8.31218 Y5.92057
G01 X-8.36293 Y5.90427
G01 X-8.41540 Y5.88798
G01 X-8.45376 Y5.87655
G01 X-8.47313 Y5.87091
G01 X-8.50737 Y5.86122
G01 X-8.54025 Y5.85231
G01 X-8.57097 Y5.84429
G01 X-8.61688 Y5.83302
G01 X-8.64469 Y5.82663
G01 X-8.67237 Y5.82062
G01 X-8.69892 Y5.81520
G01 X-8.72441 Y5.81034
G01 X-8.74918 Y5.80596
G01 X-8.77298 Y5.80207
G01 X-8.79376 Y5.79897
G01 X-8.81962 Y5.79546
G01 X-8.83956 Y5.79307
G01 X-8.86452 Y5.79042
G01 X-8.89615 Y5.78769
G01 X-8.91915 Y5.78615
G01 X-8.93983 Y5.78507
G01 X-8.96115 Y5.78431
G01 X-8.98178 Y5.78387
G01 X-9.00316 Y5.78375
G01 X-9.01649 Y5.78384
G01 X-9.04667 Y5.78454
G01 X-9.06978 Y5.78554
G01 X-9.08933 Y5.78667
G01 X-9.11024 Y5.78820
G01 X-9.13264 Y5.79015
G01 X-9.16845 Y5.79399
G01 X-9.19006 Y5.79674
G01 X-9.21500 Y5.80024
G01 X-9.23866 Y5.80394
G01 X-9.26356 Y5.80817
G01 X-9.28885 Y5.81283
G01 X-9.31440 Y5.81787
G01 X-9.34110 Y5.82350
G01 X-9.36917 Y5.82977
G01 X-9.39737 Y5.83644
G01 X-9.43243 Y5.84518
G01 X-9.43736 Y5.85662
G01 X-9.43243 Y5.84518
G01 X-9.45112 Y5.81309
G01 X-9.47033 Y5.77873
G01 X-9.48904 Y5.74373
G01 X-9.50540 Y5.71175
G01 X-9.52178 Y5.67822
G01 X-9.53587 Y5.64800
G01 X-9.55045 Y5.61518
G01 X-9.55931 Y5.59436
G01 X-9.56763 Y5.57411
G01 X-9.57902 Y5.54518
G01 X-9.58780 Y5.52186
G01 X-9.59859 Y5.49157
G01 X-9.60742 Y5.46537
G01 X-9.61725 Y5.43433
G01 X-9.62484 Y5.40877
G01 X-9.63347 Y5.37765
G01 X-9.63987 Y5.35275
G01 X-9.64718 Y5.32203
G01 X-9.65258 Y5.29730
G01 X-9.65620 Y5.27950
G01 X-9.65967 Y5.26126
G01 X-9.66492 Y5.23102
G01 X-9.66853 Y5.20767
G01 X-9.67261 Y5.17764
G01 X-9.67536 Y5.15415
G01 X-9.67713 Y5.13689
G01 X-9.67873 Y5.11918
G01 X-9.68010 Y5.10159
G01 X-9.68123 Y5.08441
G01 X-9.68267 Y5.05517
G01 X-9.68324 Y5.03766
G01 X-9.68360 Y5.02008
G01 X-9.68374 Y4.99709
G01 X-9.68360 Y4.97999
G01 X-9.68324 Y4.96240
G01 X-9.68215 Y4.93271
G01 X-9.68085 Y4.90952
G01 X-9.67864 Y4.87975
G01 X-9.67708 Y4.86251
G01 X-9.67525 Y4.84484
G01 X-9.67247 Y4.82125
G01 X-9.67012 Y4.80343
G01 X-9.66760 Y4.78603
G01 X-9.66281 Y4.75635
G01 X-9.65957 Y4.73820
G01 X-9.65619 Y4.72048
G01 X-9.65115 Y4.69596
G01 X-9.64708 Y4.67754
G01 X-9.64285 Y4.65942
G01 X-9.63524 Y4.62906
G01 X-9.63021 Y4.61031
G01 X-9.62487 Y4.59131
G01 X-9.61705 Y4.56499
G01 X-9.60703 Y4.53343
G01 X-9.59803 Y4.50680
G01 X-9.59096 Y4.48685
G01 X-9.58359 Y4.46683
G01 X-9.57125 Y4.43492
G01 X-9.55934 Y4.40572
G01 X-9.54511 Y4.37261
G01 X-9.53052 Y4.34034
G01 X-9.51585 Y4.30944
G01 X-9.50004 Y4.27762
G01 X-9.48230 Y4.24347
G01 X-9.46386 Y4.20954
G01 X-9.44397 Y4.17449
G01 X-9.42293 Y4.13895
G01 X-9.40819 Y4.11488
G01 X-9.38467 Y4.07780
G01 X-9.36838 Y4.05295
G01 X-9.35116 Y4.02737
G01 X-9.34164 Y4.01350
G01 X-9.32331 Y3.98734
G01 X-9.29487 Y3.94804
G01 X-9.27413 Y3.92026
G01 X-9.25300 Y3.89267
G01 X-9.23054 Y3.86407
G01 X-9.20745 Y3.83539
G01 X-9.19301 Y3.81781
G01 X-9.16762 Y3.78750
G01 X-9.14136 Y3.75693
G01 X-9.11322 Y3.72498
G01 X-9.08395 Y3.69254
G01 X-9.05372 Y3.65988
G01 X-9.02117 Y3.62556
G01 X-8.98707 Y3.59049
G01 X-8.95124 Y3.55454
G01 X-8.91387 Y3.51797
G01 X-8.87547 Y3.48129
G01 X-8.83470 Y3.44328
G01 X-8.79066 Y3.40324
G01 X-8.74500 Y3.36273
G01 X-8.73148 Y3.35093
G01 X-8.68378 Y3.30993
G01 X-8.63261 Y3.26702
G01 X-8.59280 Y3.23435
G01 X-8.57774 Y3.22215
G01 X-8.52098 Y3.17687
G01 X-8.46042 Y3.12975
G01 X-8.41177 Y3.09274
G01 X-8.34327 Y3.04178
G01 X-8.32657 Y3.02956
G01 X-8.25488 Y2.97791
G01 X-8.19681 Y2.93701
G01 X-8.17980 Y2.92518
G01 X-8.11657 Y2.88177
G01 X-8.09852 Y2.86954
G01 X-8.02899 Y2.82306
G01 X-8.01045 Y2.81083
G01 X-7.93574 Y2.76222
G01 X-7.91668 Y2.74999
G01 X-7.94356 Y2.70783
G01 X-7.96288 Y2.72023
G01 X-8.03785 Y2.76901
G01 X-8.05665 Y2.78141
G01 X-8.12644 Y2.82806
G01 X-8.14474 Y2.84046
G01 X-8.20823 Y2.88404
G01 X-8.22548 Y2.89604
G01 X-8.28380 Y2.93712
G01 X-8.35598 Y2.98912
G01 X-8.42542 Y3.04045
G01 X-8.44193 Y3.05285
G01 X-8.50691 Y3.10246
G01 X-8.55187 Y3.13755
G01 X-8.60910 Y3.18321
G01 X-8.66445 Y3.22847
G01 X-8.67937 Y3.24088
G01 X-8.71609 Y3.27178
G01 X-8.76425 Y3.31317
G01 X-8.81025 Y3.35368
G01 X-8.82411 Y3.36608
G01 X-8.86861 Y3.40654
G01 X-8.90982 Y3.44496
G01 X-8.94867 Y3.48206
G01 X-8.98647 Y3.51905
G01 X-9.02274 Y3.55544
G01 X-9.05727 Y3.59096
G01 X-9.09024 Y3.62573
G01 X-9.12088 Y3.65884
G01 X-9.15057 Y3.69173
G01 X-9.17911 Y3.72415
G01 X-9.20577 Y3.75518
G01 X-9.22124 Y3.77355
G01 X-9.24618 Y3.80377
G01 X-9.26966 Y3.83293
G01 X-9.30175 Y3.87401
G01 X-9.32333 Y3.90248
G01 X-9.33511 Y3.91835
G01 X-9.35523 Y3.94600
G01 X-9.37442 Y3.97307
G01 X-9.40087 Y4.01159
G01 X-9.41795 Y4.03728
G01 X-9.44290 Y4.07610
G01 X-9.45843 Y4.10109
G01 X-9.48033 Y4.13759
G01 X-9.50063 Y4.17286
G01 X-9.52058 Y4.20904
G01 X-9.53848 Y4.24297
G01 X-9.55594 Y4.27761
G01 X-9.56661 Y4.29962
G01 X-9.57588 Y4.31929
G01 X-9.59087 Y4.35245
G01 X-9.60546 Y4.38641
G01 X-9.61772 Y4.41647
G01 X-9.63039 Y4.44924
G01 X-9.63797 Y4.46983
G01 X-9.64525 Y4.49037
G01 X-9.65454 Y4.51786
G01 X-9.66099 Y4.53791
G01 X-9.66712 Y4.55779
G01 X-9.67644 Y4.58992
G01 X-9.68179 Y4.60951
G01 X-9.68671 Y4.62846
G01 X-9.69305 Y4.65441
G01 X-9.69732 Y4.67303
G01 X-9.70143 Y4.69205
G01 X-9.70526 Y4.71086
G01 X-9.70875 Y4.72918
G01 X-9.71209 Y4.74794
G01 X-9.71517 Y4.76652
G01 X-9.71792 Y4.78451
G01 X-9.72046 Y4.80254
G01 X-9.72283 Y4.82103
G01 X-9.72496 Y4.83946
G01 X-9.72685 Y4.85773
G01 X-9.72847 Y4.87558
G01 X-9.73075 Y4.90628
G01 X-9.73209 Y4.93040
G01 X-9.73284 Y4.94861
G01 X-9.73337 Y4.96682
G01 X-9.73367 Y4.98494
G01 X-9.73374 Y5.00263
G01 X-9.73337 Y5.03324
G01 X-9.73263 Y5.05717
G01 X-9.73183 Y5.07493
G01 X-9.73079 Y5.09311
G01 X-9.72955 Y5.11091
G01 X-9.72805 Y5.12924
G01 X-9.72508 Y5.15950
G01 X-9.72297 Y5.17785
G01 X-9.72061 Y5.19631
G01 X-9.71711 Y5.22097
G01 X-9.71219 Y5.25151
G01 X-9.70765 Y5.27671
G01 X-9.70399 Y5.29552
G01 X-9.70014 Y5.31402
G01 X-9.69306 Y5.34554
G01 X-9.68669 Y5.37162
G01 X-9.67842 Y5.40295
G01 X-9.67081 Y5.42975
G01 X-9.66506 Y5.44899
G01 X-9.65895 Y5.46851
G01 X-9.64837 Y5.50056
G01 X-9.63837 Y5.52912
G01 X-9.62572 Y5.56306
G01 X-9.61398 Y5.59286
G01 X-9.60019 Y5.62607
G01 X-9.58698 Y5.65632
G01 X-9.57143 Y5.69020
G01 X-9.55628 Y5.72170
G01 X-9.53880 Y5.75639
G01 X-9.52682 Y5.77930
G01 X-9.50796 Y5.81403
G01 X-9.49454 Y5.83788
G01 X-9.47341 Y5.87410
G01 X-9.45590 Y5.90304
G01 X-9.46711 Y5.94360
G01 X-9.47841 Y5.99231
G01 X-9.48768 Y6.04316
G01 X-9.49428 Y6.09326
G01 X-9.49853 Y6.14614
G01 X-9.49997 Y6.19550
G01 X-9.49912 Y6.24143
G01 X-9.49583 Y6.29113
G01 X-9.48958 Y6.34421
G01 X-9.48099 Y6.39487
G01 X-9.46959 Y6.44653
G01 X-9.45514 Y6.49946
G01 X-9.43728 Y6.55411
G01 X-9.41708 Y6.60717
G01 X-9.38992 Y6.66915
G01 X-9.36138 Y6.72649
G01 X-9.32942 Y6.78404
G01 X-9.30803 Y6.81963
G01 X-9.28531 Y6.85523
G01 X-9.26187 Y6.89011
G01 X-9.23484 Y6.92820
G01 X-9.20690 Y6.96563
G01 X-9.17493 Y7.00628
G01 X-9.14133 Y7.04696
G01 X-9.10316 Y7.09085
G01 X-9.06244 Y7.13547
G01 X-9.01967 Y7.18010
G01 X-8.96694 Y7.23253
G01 X-8.91138 Y7.28497
G01 X-8.85016 Y7.34004
G01 X-8.78582 Y7.39510
G01 X-8.70574 Y7.46037
G01 X-8.62130 Y7.52563
G01 X-8.52451 Y7.59678
G01 X-8.41783 Y7.67113
G01 X-8.35630 Y7.71241
G01 X-8.29303 Y7.75369
G01 X-8.22802 Y7.79497
G01 X-8.15603 Y7.83945
G01 X-8.05817 Y7.89813
G01 X-7.95681 Y7.95681
G01 X-7.87959 Y7.93480
G01 X-7.77765 Y7.90340
G01 X-7.67252 Y7.86811
G01 X-7.56721 Y7.82988
G01 X-7.45870 Y7.78740
G01 X-7.34894 Y7.74132
G01 X-7.23598 Y7.69053
G01 X-7.16645 Y7.65764
G01 X-7.09692 Y7.62346
G01 X-6.99840 Y7.64171
G01 X-6.89989 Y7.65781
G01 X-6.80138 Y7.67176
G01 X-6.70286 Y7.68356
G01 X-6.60435 Y7.69322
G01 X-6.50583 Y7.70072
G01 X-6.40732 Y7.70607
G01 X-6.30880 Y7.70927
G01 X-6.21029 Y7.71033
G01 X-6.11177 Y7.70923
G01 X-6.01326 Y7.70598
G01 X-5.91474 Y7.70059
G01 X-5.81623 Y7.69304
G01 X-5.71772 Y7.68334
G01 X-5.61920 Y7.67150
G01 X-5.52069 Y7.65750
G01 X-5.44457 Y7.65963
G01 X-5.36845 Y7.66050
G01 X-5.29233 Y7.66012
G01 X-5.21621 Y7.65848
G01 X-5.14009 Y7.65559
G01 X-5.06397 Y7.65144
G01 X-4.98785 Y7.64603
G01 X-4.91174 Y7.63937
G01 X-4.83562 Y7.63146
G01 X-4.75950 Y7.62228
G01 X-4.68338 Y7.61186
G01 X-4.60726 Y7.60017
G01 X-4.53114 Y7.58723
G01 X-4.45502 Y7.57303
G01 X-4.37890 Y7.55758
G01 X-4.30278 Y7.54088
G01 X-4.18279 Y7.54470
G01 X-4.06279 Y7.54555
G01 X-3.94279 Y7.54343
G01 X-3.82280 Y7.53834
G01 X-3.70280 Y7.53027
G01 X-3.58280 Y7.51924
G01 X-3.46280 Y7.50522
G01 X-3.34281 Y7.48824
G01 X-3.24174 Y7.49415
G01 X-3.14068 Y7.49800
G01 X-3.06751 Y7.49954
G01 X-2.98224 Y7.51626
G01 X-2.86133 Y7.53762
G01 X-2.84893 Y7.53965
G01 X-2.73068 Y7.55755
G01 X-2.71868 Y7.55922
G01 X-2.60176 Y7.57401
G01 X-2.58936 Y7.57543
G01 X-2.47076 Y7.58748
G01 X-2.40713 Y7.59286
G01 X-2.33371 Y7.52922
G01 X-2.25903 Y7.46295
G01 X-2.19949 Y7.40868
G01 X-2.13112 Y7.34496
G01 X-2.06514 Y7.28165
G01 X-2.01587 Y7.23331
G01 X-1.96778 Y7.18497
G01 X-1.91036 Y7.12597
G01 X-1.85464 Y7.06697
G01 X-1.77397 Y6.97854
G01 X-1.76294 Y6.96614
G01 X-1.69121 Y6.88350
G01 X-1.68105 Y6.87150
G01 X-1.61690 Y6.79389
G01 X-1.60722 Y6.78188
G01 X-1.54801 Y6.70661
G01 X-1.53850 Y6.69421
G01 X-1.48445 Y6.62192
G01 X-1.47571 Y6.60992
G01 X-1.42652 Y6.54068
G01 X-1.41794 Y6.52828
G01 X-1.37242 Y6.46075
G01 X-1.36429 Y6.44835
G01 X-1.32269 Y6.38319
G01 X-1.31498 Y6.37079
G01 X-1.27724 Y6.30831
G01 X-1.26996 Y6.29591
G01 X-1.23590 Y6.23627
G01 X-1.22924 Y6.22427
G01 X-1.19812 Y6.16653
G01 X-1.19163 Y6.15413
G01 X-1.16286 Y6.09746
G01 X-1.15675 Y6.08505
G01 X-1.13084 Y6.03074
G01 X-1.12529 Y6.01874
G01 X-1.10169 Y5.96600
G01 X-1.09633 Y5.95360
G01 X-1.07482 Y5.90222
G01 X-1.06997 Y5.89022
G01 X-1.05041 Y5.84006
G01 X-1.04574 Y5.82766
G01 X-1.02772 Y5.77787
G01 X-1.02340 Y5.76546
G01 X-1.00734 Y5.71745
G01 X-1.00349 Y5.70545
G01 X-0.98905 Y5.65848
G01 X-0.98540 Y5.64607
G01 X-0.97240 Y5.59981
G01 X-0.96919 Y5.58781
G01 X-0.95761 Y5.54235
G01 X-0.95461 Y5.52995
G01 X-0.94422 Y5.48455
G01 X-0.94155 Y5.47215
G01 X-0.93244 Y5.42727
G01 X-0.93009 Y5.41487
G01 X-0.92235 Y5.37121
G01 X-0.92037 Y5.35921
G01 X-0.91380 Y5.31601
G01 X-0.91206 Y5.30361
G01 X-0.90654 Y5.26016
G01 X-0.90512 Y5.24775
G01 X-0.90072 Y5.20462
G01 X-0.89961 Y5.19221
G01 X-0.89630 Y5.14921
G01 X-0.89550 Y5.13681
G01 X-0.89327 Y5.09405
G01 X-0.89278 Y5.08164
G01 X-0.89163 Y5.03972
G01 X-0.89145 Y5.02772
G01 X-0.89133 Y4.98581
G01 X-0.84132 Y4.98596
G01 X-0.84145 Y4.97233
G01 X-0.84237 Y4.92967
G01 X-0.84284 Y4.91604
G01 X-0.84478 Y4.87401
G01 X-0.84551 Y4.86140
G01 X-0.84859 Y4.81798
G01 X-0.84967 Y4.80496
G01 X-0.85379 Y4.76187
G01 X-0.85526 Y4.74824
G01 X-0.86047 Y4.70498
G01 X-0.86215 Y4.69238
G01 X-0.86830 Y4.64998
G01 X-0.87038 Y4.63678
G01 X-0.87776 Y4.59332
G01 X-0.88024 Y4.57970
G01 X-0.88899 Y4.53492
G01 X-0.89170 Y4.52191
G01 X-0.90183 Y4.47607
G01 X-0.90502 Y4.46246
G01 X-0.91653 Y4.41594
G01 X-0.91992 Y4.40295
G01 X-0.93250 Y4.35695
G01 X-0.93628 Y4.34378
G01 X-0.95034 Y4.29694
G01 X-0.95440 Y4.28396
G01 X-0.97045 Y4.23487
G01 X-0.97508 Y4.22130
G01 X-0.99265 Y4.17178
G01 X-0.99765 Y4.15822
G01 X-1.01695 Y4.10780
G01 X-1.02194 Y4.09523
G01 X-1.04293 Y4.04417
G01 X-1.04868 Y4.03064
G01 X-1.07237 Y3.97683
G01 X-1.07827 Y3.96386
G01 X-1.10426 Y3.90857
G01 X-1.11055 Y3.89561
G01 X-1.13857 Y3.83963
G01 X-1.16190 Y3.79504
G01 X-1.16227 Y3.79518
G01 X-1.16190 Y3.79504
G01 X-1.17305 Y3.74739
G01 X-1.18752 Y3.69132
G01 X-1.20303 Y3.63638
G01 X-1.21952 Y3.58250
G01 X-1.23764 Y3.52758
G01 X-1.25744 Y3.47168
G01 X-1.27819 Y3.41683
G01 X-1.29986 Y3.36295
G01 X-1.32077 Y3.31247
G01 X-1.35318 Y3.23718
G01 X-1.38772 Y3.16256
G01 X-1.42405 Y3.08913
G01 X-1.46393 Y3.01346
G01 X-1.50561 Y2.93898
G01 X-1.54965 Y2.86454
G01 X-1.59607 Y2.79014
G01 X-1.64487 Y2.71578
G01 X-1.69541 Y2.64235
G01 X-1.74893 Y2.56803
G01 X-1.80544 Y2.49295
G01 X-1.86370 Y2.41875
G01 X-1.92370 Y2.34532
G01 X-1.98729 Y2.27045
G01 X-2.05263 Y2.19635
G01 X-2.11974 Y2.12292
G01 X-2.12725 Y2.11621
G01 X-2.13595 Y2.11114
G01 X-2.14549 Y2.10791
G01 X-2.15548 Y2.10666
G01 X-2.26620 Y2.10409
G01 X-2.37562 Y2.10435
G01 X-2.48762 Y2.10751
G01 X-2.59705 Y2.11342
G01 X-2.70775 Y2.12224
G01 X-2.81972 Y2.13406
G01 X-2.93039 Y2.14861
G01 X-3.03982 Y2.16581
G01 X-3.15170 Y2.18628
G01 X-3.26112 Y2.20912
G01 X-3.37293 Y2.23534
G01 X-3.48235 Y2.26383
G01 X-3.59407 Y2.29579
G01 X-3.70461 Y2.33028
G01 X-3.81512 Y2.36761
G01 X-3.91655 Y2.40448
G01 X-3.91642 Y2.40519
G01 X-3.91655 Y2.40448
G01 X-4.03168 Y2.40585
G01 X-4.14550 Y2.41007
G01 X-4.14559 Y2.41079
G01 X-4.14550 Y2.41007
G01 X-4.22160 Y2.38636
G01 X-4.30672 Y2.36146
G01 X-4.39185 Y2.33819
G01 X-4.47787 Y2.31634
G01 X-4.56215 Y2.29653
G01 X-4.64732 Y2.27814
G01 X-4.73249 Y2.26139
G01 X-4.81860 Y2.24610
G01 X-4.90380 Y2.23262
G01 X-4.98902 Y2.22076
G01 X-5.07423 Y2.21054
G01 X-5.15946 Y2.20194
G01 X-5.24373 Y2.19505
G01 X-5.32991 Y2.18965
G01 X-5.41419 Y2.18599
G01 X-5.50038 Y2.18389
G01 X-5.58562 Y2.18345
G01 X-5.67085 Y2.18465
G01 X-5.75609 Y2.18748
G01 X-5.84036 Y2.19188
G01 X-5.92654 Y2.19803
G01 X-6.01176 Y2.20576
G01 X-6.09604 Y2.21500
G01 X-6.18126 Y2.22597
G01 X-6.26739 Y2.23871
G01 X-6.35166 Y2.25280
G01 X-6.43776 Y2.26883
G01 X-6.52293 Y2.28634
G01 X-6.60810 Y2.30547
G01 X-6.69325 Y2.32623
G01 X-6.77838 Y2.34862
G01 X-6.85635 Y2.37060
G01 X-6.85628 Y2.37102
G01 X-6.85635 Y2.37060
G01 X-6.96260 Y2.37207
G01 X-7.07660 Y2.37633
G01 X-7.19176 Y2.38337
G01 X-7.29964 Y2.39251
G01 X-7.29965 Y2.39275
G01 X-7.29964 Y2.39251
G01 X-7.36539 Y2.38504
G01 X-7.43679 Y2.37800
G01 X-7.50819 Y2.37201
G01 X-7.57960 Y2.36709
G01 X-7.58955 Y2.36739
G01 X-7.59925 Y2.36967
G01 X-7.60830 Y2.37382
G01 X-7.61635 Y2.37969
G01 X-7.67267 Y2.43002
G01 X-7.72818 Y2.48071
G01 X-7.78289 Y2.53181
G01 X-7.83182 Y2.57855
G01 X-7.83167 Y2.57875
G01 X-7.83182 Y2.57855
G01 X-7.88927 Y2.61427
G01 X-7.97031 Y2.66558
G01 X-7.99015 Y2.67832
G01 X-8.06512 Y2.72710
G01 X-8.08418 Y2.73967
G01 X-8.15423 Y2.78649
G01 X-8.17304 Y2.79924
G01 X-8.23678 Y2.84299
G01 X-8.31259 Y2.89624
G01 X-8.38527 Y2.94860
G01 X-8.40271 Y2.96136
G01 X-8.45545 Y3.00048
G01 X-8.52110 Y3.05027
G01 X-8.53768 Y3.06305
G01 X-8.59806 Y3.11033
G01 X-8.64059 Y3.14436
G01 X-8.69617 Y3.18982
G01 X-8.71156 Y3.20262
G01 X-8.76260 Y3.24572
G01 X-8.79713 Y3.27550
G01 X-8.84359 Y3.31642
G01 X-8.85768 Y3.32902
G01 X-8.90241 Y3.36970
G01 X-8.94407 Y3.40853
G01 X-8.98357 Y3.44625
G01 X-9.00902 Y3.47106
G01 X-9.04604 Y3.50789
G01 X-9.08108 Y3.54362
G01 X-9.11500 Y3.57907
G01 X-9.14670 Y3.61303
G01 X-9.17671 Y3.64597
G01 X-9.20593 Y3.67885
G01 X-9.23339 Y3.71052
G01 X-9.25968 Y3.74159
G01 X-9.29494 Y3.78451
G01 X-9.31887 Y3.81454
G01 X-9.33209 Y3.83147
G01 X-9.35396 Y3.86002
G01 X-9.37544 Y3.88880
G01 X-9.40495 Y3.92960
G01 X-9.41547 Y3.94452
G01 X-9.43368 Y3.97088
G01 X-9.45968 Y4.00973
G01 X-9.48513 Y4.04932
G01 X-9.50860 Y4.08736
G01 X-9.53057 Y4.12448
G01 X-9.55121 Y4.16085
G01 X-9.57068 Y4.19669
G01 X-9.58927 Y4.23247
G01 X-9.60588 Y4.26593
G01 X-9.61586 Y4.28678
G01 X-9.62643 Y4.30954
G01 X-9.64223 Y4.34511
G01 X-9.65547 Y4.37646
G01 X-9.66924 Y4.41085
G01 X-9.67724 Y4.43178
G01 X-9.68504 Y4.45296
G01 X-9.69532 Y4.48221
G01 X-9.70201 Y4.50215
G01 X-9.70874 Y4.52307
G01 X-9.71504 Y4.54355
G01 X-9.72103 Y4.56387
G01 X-9.72662 Y4.58376
G01 X-9.73197 Y4.60370
G01 X-9.73692 Y4.62314
G01 X-9.74169 Y4.64284
G01 X-9.74894 Y4.67506
G01 X-9.75302 Y4.69468
G01 X-9.75667 Y4.71339
G01 X-9.76025 Y4.73301
G01 X-9.76349 Y4.75208
G01 X-9.76648 Y4.77116
G01 X-9.76918 Y4.78975
G01 X-9.77169 Y4.80879
G01 X-9.77398 Y4.82790
G01 X-9.77602 Y4.84693
G01 X-9.77778 Y4.86541
G01 X-9.77933 Y4.88428
G01 X-9.78064 Y4.90288
G01 X-9.78205 Y4.92825
G01 X-9.78282 Y4.94707
G01 X-9.78335 Y4.96559
G01 X-9.78366 Y4.98432
G01 X-9.78374 Y5.00263
G01 X-9.78336 Y5.03416
G01 X-9.78258 Y5.05932
G01 X-9.78177 Y5.07738
G01 X-9.78070 Y5.09617
G01 X-9.77838 Y5.12760
G01 X-9.77667 Y5.14654
G01 X-9.77480 Y5.16470
G01 X-9.77259 Y5.18396
G01 X-9.77020 Y5.20274
G01 X-9.76656 Y5.22831
G01 X-9.76151 Y5.25975
G01 X-9.75675 Y5.28618
G01 X-9.75302 Y5.30528
G01 X-9.74906 Y5.32438
G01 X-9.74178 Y5.35680
G01 X-9.73511 Y5.38408
G01 X-9.72669 Y5.41600
G01 X-9.71875 Y5.44399
G01 X-9.71290 Y5.46351
G01 X-9.70662 Y5.48361
G01 X-9.69566 Y5.51680
G01 X-9.68546 Y5.54593
G01 X-9.67236 Y5.58109
G01 X-9.66039 Y5.61147
G01 X-9.64613 Y5.64581
G01 X-9.63255 Y5.67689
G01 X-9.62247 Y5.69906
G01 X-9.61209 Y5.72116
G01 X-9.59492 Y5.75632
G01 X-9.57773 Y5.78994
G01 X-9.55814 Y5.82657
G01 X-9.53788 Y5.86281
G01 X-9.52378 Y5.88715
G01 X-9.50987 Y5.91052
G01 X-9.50569 Y5.90996
G01 X-9.50987 Y5.91052
G01 X-9.51581 Y5.93229
G01 X-9.52712 Y5.98101
G01 X-9.52828 Y5.98663
G01 X-9.53709 Y6.03549
G01 X-9.54387 Y6.08680
G01 X-9.54446 Y6.09246
G01 X-9.54845 Y6.14338
G01 X-9.54993 Y6.19076
G01 X-9.54996 Y6.19643
G01 X-9.54894 Y6.24678
G01 X-9.54571 Y6.29452
G01 X-9.54519 Y6.30018
G01 X-9.53908 Y6.35127
G01 X-9.53092 Y6.39995
G01 X-9.52983 Y6.40557
G01 X-9.51816 Y6.45842
G01 X-9.50306 Y6.51373
G01 X-9.48444 Y6.57074
G01 X-9.46381 Y6.62496
G01 X-9.46157 Y6.63044
G01 X-9.43722 Y6.68602
G01 X-9.43471 Y6.69138
G01 X-9.40565 Y6.74974
G01 X-9.37257 Y6.80931
G01 X-9.35085 Y6.84544
G01 X-9.32716 Y6.88258
G01 X-9.30267 Y6.91901
G01 X-9.27491 Y6.95810
G01 X-9.24623 Y6.99651
G01 X-9.21388 Y7.03762
G01 X-9.17908 Y7.07974
G01 X-9.14337 Y7.12087
G01 X-9.09938 Y7.16917
G01 X-9.05576 Y7.21470
G01 X-9.00128 Y7.26887
G01 X-8.94529 Y7.32171
G01 X-8.88359 Y7.37721
G01 X-8.81833 Y7.43309
G01 X-8.73730 Y7.49914
G01 X-8.65143 Y7.56553
G01 X-8.55312 Y7.63778
G01 X-8.44569 Y7.71265
G01 X-8.38415 Y7.75393
G01 X-8.31983 Y7.79589
G01 X-8.25483 Y7.83717
G01 X-8.18758 Y7.87877
G01 X-8.08322 Y7.94140
G01 X-7.98186 Y8.00008
G01 X-7.97274 Y8.00420
G01 X-7.96298 Y8.00642
G01 X-7.95298 Y8.00666
G01 X-7.94312 Y8.00490
G01 X-7.86487 Y7.98259
G01 X-7.76293 Y7.95119
G01 X-7.65982 Y7.91663
G01 X-7.55015 Y7.87688
G01 X-7.43992 Y7.83374
G01 X-7.32845 Y7.78693
G01 X-7.21814 Y7.73738
G01 X-7.14507 Y7.70284
G01 X-7.08973 Y7.67564
G01 X-7.09010 Y7.67299
G01 X-7.08973 Y7.67564
G01 X-7.00647 Y7.69105
G01 X-6.90690 Y7.70732
G01 X-6.80732 Y7.72141
G01 X-6.70881 Y7.73321
G01 X-6.60814 Y7.74307
G01 X-6.50854 Y7.75064
G01 X-6.41003 Y7.75600
G01 X-6.31043 Y7.75925
G01 X-6.20973 Y7.76032
G01 X-6.11013 Y7.75920
G01 X-6.01161 Y7.75596
G01 X-5.91092 Y7.75044
G01 X-5.81133 Y7.74280
G01 X-5.71175 Y7.73298
G01 X-5.61323 Y7.72114
G01 X-5.51785 Y7.70760
G01 X-5.51786 Y7.70742
G01 X-5.51785 Y7.70760
G01 X-5.44597 Y7.70961
G01 X-5.36902 Y7.71050
G01 X-5.29208 Y7.71012
G01 X-5.21431 Y7.70845
G01 X-5.13737 Y7.70551
G01 X-5.06125 Y7.70137
G01 X-4.98431 Y7.69591
G01 X-4.90656 Y7.68910
G01 X-4.83044 Y7.68119
G01 X-4.75352 Y7.67192
G01 X-4.67659 Y7.66139
G01 X-4.59967 Y7.64959
G01 X-4.52197 Y7.63638
G01 X-4.44507 Y7.62204
G01 X-4.36818 Y7.60642
G01 X-4.29815 Y7.59105
G01 X-4.29819 Y7.59067
G01 X-4.29815 Y7.59105
G01 X-4.18438 Y7.59468
G01 X-4.06191 Y7.59555
G01 X-3.94067 Y7.59339
G01 X-3.82068 Y7.58829
G01 X-3.69944 Y7.58016
G01 X-3.57700 Y7.56890
G01 X-3.45580 Y7.55473
G01 X-3.34074 Y7.53845
G01 X-3.34075 Y7.53820
G01 X-3.34074 Y7.53845
G01 X-3.24364 Y7.54412
G01 X-3.14207 Y7.54798
G01 X-3.07291 Y7.54944
G01 X-3.07289 Y7.54925
G01 X-3.07291 Y7.54944
G01 X-2.99154 Y7.56538
G01 X-2.87003 Y7.58685
G01 X-2.85641 Y7.58909
G01 X-2.73817 Y7.60699
G01 X-2.72556 Y7.60874
G01 X-2.60804 Y7.62362
G01 X-2.59503 Y7.62510
G01 X-2.47520 Y7.63728
G01 X-2.41130 Y7.64269
G01 X-2.40135 Y7.64253
G01 X-2.39163 Y7.64040
G01 X-2.38252 Y7.63638
G01 X-2.37439 Y7.63065
G01 X-2.30070 Y7.56678
G01 X-2.22535 Y7.49990
G01 X-2.16558 Y7.44542
G01 X-2.09699 Y7.38150
G01 X-2.03013 Y7.31734
G01 X-1.98085 Y7.26900
G01 X-1.93233 Y7.22024
G01 X-1.87448 Y7.16080
G01 X-1.81770 Y7.10066
G01 X-1.73661 Y7.01177
G01 X-1.72518 Y6.99891
G01 X-1.65345 Y6.91628
G01 X-1.64251 Y6.90336
G01 X-1.57836 Y6.82574
G01 X-1.56792 Y6.81280
G01 X-1.50871 Y6.73752
G01 X-1.49883 Y6.72463
G01 X-1.44441 Y6.65187
G01 X-1.43530 Y6.63937
G01 X-1.38576 Y6.56964
G01 X-1.37682 Y6.55673
G01 X-1.33096 Y6.48870
G01 X-1.32215 Y6.47526
G01 X-1.28054 Y6.41010
G01 X-1.27251 Y6.39717
G01 X-1.23445 Y6.33417
G01 X-1.22654 Y6.32070
G01 X-1.19218 Y6.26053
G01 X-1.18523 Y6.24799
G01 X-1.15411 Y6.19026
G01 X-1.14705 Y6.17677
G01 X-1.11828 Y6.12009
G01 X-1.11189 Y6.10713
G01 X-1.08571 Y6.05227
G01 X-1.07966 Y6.03916
G01 X-1.05581 Y5.98586
G01 X-1.05020 Y5.97290
G01 X-1.02847 Y5.92096
G01 X-1.02339 Y5.90839
G01 X-1.00383 Y5.85823
G01 X-0.99873 Y5.84468
G01 X-0.98049 Y5.79430
G01 X-0.97598 Y5.78132
G01 X-0.95974 Y5.73273
G01 X-0.95570 Y5.72015
G01 X-0.94126 Y5.67317
G01 X-0.93726 Y5.65960
G01 X-0.92410 Y5.61275
G01 X-0.92073 Y5.60015
G01 X-0.90901 Y5.55410
G01 X-0.90587 Y5.54110
G01 X-0.89548 Y5.49570
G01 X-0.89254 Y5.48209
G01 X-0.88344 Y5.43721
G01 X-0.88097 Y5.42420
G01 X-0.87312 Y5.37994
G01 X-0.87094 Y5.36673
G01 X-0.86437 Y5.32353
G01 X-0.86255 Y5.31053
G01 X-0.85694 Y5.26646
G01 X-0.85538 Y5.25283
G01 X-0.85098 Y5.20969
G01 X-0.84976 Y5.19605
G01 X-0.84645 Y5.15305
G01 X-0.84560 Y5.14003
G01 X-0.84331 Y5.09603
G01 X-0.84280 Y5.08301
G01 X-0.84164 Y5.04049
G01 X-0.84145 Y5.02787
G01 X-0.84132 Y4.98596
G01 X-0.79132 Y4.98611
G01 X-0.79146 Y5.02924
G01 X-0.79167 Y5.04246
G01 X-0.79282 Y5.08439
G01 X-0.79341 Y5.09924
G01 X-0.79571 Y5.14325
G01 X-0.79659 Y5.15689
G01 X-0.79990 Y5.19989
G01 X-0.80124 Y5.21476
G01 X-0.80564 Y5.25790
G01 X-0.80719 Y5.27153
G01 X-0.81303 Y5.31744
G01 X-0.81493 Y5.33106
G01 X-0.82151 Y5.37426
G01 X-0.82388 Y5.38867
G01 X-0.83162 Y5.43233
G01 X-0.83420 Y5.44593
G01 X-0.84354 Y5.49203
G01 X-0.84674 Y5.50685
G01 X-0.85741 Y5.55345
G01 X-0.86070 Y5.56705
G01 X-0.87228 Y5.61250
G01 X-0.87613 Y5.62686
G01 X-0.88913 Y5.67312
G01 X-0.89311 Y5.68670
G01 X-0.90791 Y5.73484
G01 X-0.91251 Y5.74917
G01 X-0.92896 Y5.79833
G01 X-0.93369 Y5.81191
G01 X-0.95172 Y5.86170
G01 X-0.95681 Y5.87526
G01 X-0.97681 Y5.92656
G01 X-0.98258 Y5.94083
G01 X-1.00408 Y5.99220
G01 X-1.00992 Y6.00572
G01 X-1.03402 Y6.05958
G01 X-1.04059 Y6.07380
G01 X-1.06650 Y6.12812
G01 X-1.07369 Y6.14273
G01 X-1.10303 Y6.20050
G01 X-1.11010 Y6.21398
G01 X-1.14122 Y6.27172
G01 X-1.14846 Y6.28478
G01 X-1.18312 Y6.34550
G01 X-1.19101 Y6.35895
G01 X-1.22939 Y6.42250
G01 X-1.23773 Y6.43594
G01 X-1.28000 Y6.50216
G01 X-1.28881 Y6.51560
G01 X-1.33501 Y6.58417
G01 X-1.34429 Y6.59759
G01 X-1.39418 Y6.66783
G01 X-1.40363 Y6.68082
G01 X-1.45915 Y6.75506
G01 X-1.46941 Y6.76843
G01 X-1.52937 Y6.84465
G01 X-1.53982 Y6.85759
G01 X-1.60397 Y6.93521
G01 X-1.61570 Y6.94906
G01 X-1.68743 Y7.03169
G01 X-1.70009 Y7.04593
G01 X-1.78076 Y7.13436
G01 X-1.79319 Y7.14766
G01 X-1.83775 Y7.19473
G01 X-1.88384 Y7.24222
G01 X-1.94584 Y7.30470
G01 X-2.00792 Y7.36545
G01 X-2.06197 Y7.41720
G01 X-2.13167 Y7.48216
G01 X-2.19257 Y7.53767
G01 X-2.26769 Y7.60433
G01 X-2.34164 Y7.66843
G01 X-2.35791 Y7.67991
G01 X-2.37612 Y7.68793
G01 X-2.39556 Y7.69219
G01 X-2.41547 Y7.69252
G01 X-2.48087 Y7.68696
G01 X-2.59947 Y7.67492
G01 X-2.61431 Y7.67322
G01 X-2.73123 Y7.65843
G01 X-2.74444 Y7.65660
G01 X-2.86510 Y7.63833
G01 X-2.87873 Y7.63609
G01 X-3.00085 Y7.61451
G01 X-3.07830 Y7.59934
G01 X-3.07828 Y7.59915
G01 X-3.07830 Y7.59934
G01 X-3.14346 Y7.59796
G01 X-3.24554 Y7.59408
G01 X-3.33868 Y7.58865
G01 X-3.33869 Y7.58840
G01 X-3.33868 Y7.58865
G01 X-3.44879 Y7.60424
G01 X-3.57364 Y7.61881
G01 X-3.69609 Y7.63005
G01 X-3.81855 Y7.63825
G01 X-3.93855 Y7.64334
G01 X-4.06102 Y7.64554
G01 X-4.18597 Y7.64465
G01 X-4.29352 Y7.64122
G01 X-4.29355 Y7.64084
G01 X-4.29352 Y7.64122
G01 X-4.35746 Y7.65526
G01 X-4.43669 Y7.67134
G01 X-4.51281 Y7.68554
G01 X-4.59209 Y7.69901
G01 X-4.66821 Y7.71070
G01 X-4.74592 Y7.72136
G01 X-4.82365 Y7.73074
G01 X-4.90139 Y7.73884
G01 X-4.97914 Y7.74565
G01 X-5.05689 Y7.75119
G01 X-5.13465 Y7.75544
G01 X-5.21241 Y7.75841
G01 X-5.29018 Y7.76010
G01 X-5.36795 Y7.76050
G01 X-5.44736 Y7.75959
G01 X-5.51501 Y7.75770
G01 X-5.51502 Y7.75752
G01 X-5.51501 Y7.75770
G01 X-5.60513 Y7.77050
G01 X-5.70578 Y7.78263
G01 X-5.80643 Y7.79256
G01 X-5.90711 Y7.80029
G01 X-6.00997 Y7.80593
G01 X-6.11066 Y7.80922
G01 X-6.20918 Y7.81032
G01 X-6.30987 Y7.80927
G01 X-6.41057 Y7.80602
G01 X-6.51343 Y7.80043
G01 X-6.61410 Y7.79274
G01 X-6.71261 Y7.78309
G01 X-6.81540 Y7.77077
G01 X-6.91391 Y7.75682
G01 X-7.01454 Y7.74040
G01 X-7.08255 Y7.72782
G01 X-7.08291 Y7.72518
G01 X-7.08255 Y7.72782
G01 X-7.12369 Y7.74803
G01 X-7.19711 Y7.78274
G01 X-7.30797 Y7.83254
G01 X-7.42115 Y7.88008
G01 X-7.53078 Y7.92301
G01 X-7.63957 Y7.96253
G01 X-7.74821 Y7.99897
G01 X-7.85542 Y8.03193
G01 X-7.92944 Y8.05299
G01 X-7.94914 Y8.05651
G01 X-7.96915 Y8.05604
G01 X-7.98867 Y8.05160
G01 X-8.00691 Y8.04335
G01 X-8.10960 Y7.98389
G01 X-8.21339 Y7.92159
G01 X-8.28062 Y7.88001
G01 X-8.34663 Y7.83810
G01 X-8.41201 Y7.79545
G01 X-8.47879 Y7.75060
G01 X-8.58173 Y7.67879
G01 X-8.68157 Y7.60543
G01 X-8.76887 Y7.53792
G01 X-8.84611 Y7.47504
G01 X-8.91703 Y7.41439
G01 X-8.98354 Y7.35444
G01 X-9.03739 Y7.30350
G01 X-9.09186 Y7.24930
G01 X-9.13463 Y7.20467
G01 X-9.17788 Y7.15730
G01 X-9.21684 Y7.11252
G01 X-9.25541 Y7.06577
G01 X-9.28705 Y7.02544
G01 X-9.31876 Y6.98280
G01 X-9.34488 Y6.94588
G01 X-9.36901 Y6.90994
G01 X-9.39238 Y6.87334
G01 X-9.41571 Y6.83458
G01 X-9.44881 Y6.77504
G01 X-9.45243 Y6.76815
G01 X-9.47950 Y6.71361
G01 X-9.48301 Y6.70608
G01 X-9.50834 Y6.64822
G01 X-9.51054 Y6.64275
G01 X-9.53074 Y6.58969
G01 X-9.53351 Y6.58184
G01 X-9.55024 Y6.53038
G01 X-9.55260 Y6.52245
G01 X-9.56610 Y6.47272
G01 X-9.56751 Y6.46711
G01 X-9.57918 Y6.41385
G01 X-9.58023 Y6.40823
G01 X-9.58858 Y6.35833
G01 X-9.58935 Y6.35270
G01 X-9.59510 Y6.30357
G01 X-9.59560 Y6.29791
G01 X-9.59889 Y6.24893
G01 X-9.59911 Y6.24327
G01 X-9.59997 Y6.19489
G01 X-9.59990 Y6.18923
G01 X-9.59838 Y6.14061
G01 X-9.59430 Y6.08846
G01 X-9.59345 Y6.08035
G01 X-9.58699 Y6.03102
G01 X-9.58609 Y6.02538
G01 X-9.57701 Y5.97533
G01 X-9.57583 Y5.96971
G01 X-9.56373 Y5.91782
G01 X-9.56007 Y5.91728
G01 X-9.56373 Y5.91782
G01 X-9.58123 Y5.88774
G01 X-9.59555 Y5.86228
G01 X-9.60911 Y5.83748
G01 X-9.62784 Y5.80192
G01 X-9.64586 Y5.76614
G01 X-9.66180 Y5.73301
G01 X-9.67226 Y5.71042
G01 X-9.68272 Y5.68709
G01 X-9.69755 Y5.65259
G01 X-9.70680 Y5.63008
G01 X-9.71899 Y5.59912
G01 X-9.72847 Y5.57395
G01 X-9.73567 Y5.55398
G01 X-9.74718 Y5.52049
G01 X-9.75429 Y5.49871
G01 X-9.76312 Y5.47022
G01 X-9.77262 Y5.43746
G01 X-9.77846 Y5.41606
G01 X-9.78369 Y5.39595
G01 X-9.79035 Y5.36867
G01 X-9.79514 Y5.34774
G01 X-9.80194 Y5.31564
G01 X-9.80596 Y5.29503
G01 X-9.81072 Y5.26861
G01 X-9.81593 Y5.23625
G01 X-9.81887 Y5.21592
G01 X-9.82221 Y5.19008
G01 X-9.82453 Y5.16990
G01 X-9.82763 Y5.13843
G01 X-9.82971 Y5.11246
G01 X-9.83168 Y5.08045
G01 X-9.83256 Y5.06086
G01 X-9.83335 Y5.03508
G01 X-9.83374 Y5.00323
G01 X-9.83358 Y4.97738
G01 X-9.83280 Y4.94554
G01 X-9.83197 Y4.92547
G01 X-9.83056 Y4.90010
G01 X-9.82915 Y4.87995
G01 X-9.82636 Y4.84788
G01 X-9.82360 Y4.82174
G01 X-9.81962 Y4.78962
G01 X-9.81683 Y4.76979
G01 X-9.81280 Y4.74381
G01 X-9.80940 Y4.72383
G01 X-9.80333 Y4.69132
G01 X-9.79772 Y4.66408
G01 X-9.79048 Y4.63187
G01 X-9.78542 Y4.61098
G01 X-9.77848 Y4.58400
G01 X-9.77265 Y4.56262
G01 X-9.76297 Y4.52931
G01 X-9.75630 Y4.50764
G01 X-9.74694 Y4.47878
G01 X-9.73523 Y4.44480
G01 X-9.72736 Y4.42310
G01 X-9.71588 Y4.39282
G01 X-9.70706 Y4.37056
G01 X-9.69759 Y4.34750
G01 X-9.68250 Y4.31240
G01 X-9.67186 Y4.28866
G01 X-9.66114 Y4.26556
G01 X-9.64577 Y4.23369
G01 X-9.63364 Y4.20942
G01 X-9.61491 Y4.17336
G01 X-9.60171 Y4.14890
G01 X-9.58760 Y4.12350
G01 X-9.56669 Y4.08718
G01 X-9.55147 Y4.06163
G01 X-9.53577 Y4.03600
G01 X-9.51874 Y4.00897
G01 X-9.50141 Y3.98219
G01 X-9.48365 Y3.95549
G01 X-9.46486 Y3.92796
G01 X-9.44547 Y3.90029
G01 X-9.42522 Y3.87214
G01 X-9.40361 Y3.84287
G01 X-9.38130 Y3.81341
G01 X-9.35827 Y3.78376
G01 X-9.33396 Y3.75325
G01 X-9.30883 Y3.72249
G01 X-9.29773 Y3.70915
G01 X-9.27165 Y3.67831
G01 X-9.24359 Y3.64595
G01 X-9.22506 Y3.62501
G01 X-9.19496 Y3.59167
G01 X-9.16349 Y3.55765
G01 X-9.15098 Y3.54435
G01 X-9.11729 Y3.50914
G01 X-9.09385 Y3.48514
G01 X-9.05714 Y3.44831
G01 X-9.04370 Y3.43504
G01 X-9.00557 Y3.39802
G01 X-8.97875 Y3.37251
G01 X-8.96510 Y3.35968
G01 X-8.92269 Y3.32045
G01 X-8.87693 Y3.27915
G01 X-8.83002 Y3.23784
G01 X-8.78094 Y3.19566
G01 X-8.72837 Y3.15157
G01 X-8.67159 Y3.10513
G01 X-8.61388 Y3.05910
G01 X-8.55188 Y3.01086
G01 X-8.48549 Y2.96050
G01 X-8.43249 Y2.92120
G01 X-8.41455 Y2.90807
G01 X-8.35919 Y2.86807
G01 X-8.34139 Y2.85536
G01 X-8.28258 Y2.81395
G01 X-8.26482 Y2.80160
G01 X-8.20133 Y2.75802
G01 X-8.18201 Y2.74492
G01 X-8.11171 Y2.69793
G01 X-8.09238 Y2.68519
G01 X-8.01690 Y2.63608
G01 X-7.99706 Y2.62334
G01 X-7.91627 Y2.57219
G01 X-7.86260 Y2.53881
G01 X-7.86245 Y2.53899
G01 X-7.86260 Y2.53881
G01 X-7.81743 Y2.49566
G01 X-7.76271 Y2.44455
G01 X-7.70599 Y2.39274
G01 X-7.64967 Y2.34240
G01 X-7.63357 Y2.33068
G01 X-7.61546 Y2.32237
G01 X-7.59607 Y2.31782
G01 X-7.57616 Y2.31720
G01 X-7.50549 Y2.32207
G01 X-7.43188 Y2.32824
G01 X-7.35975 Y2.33536
G01 X-7.29893 Y2.34227
G01 X-7.29893 Y2.34251
G01 X-7.29893 Y2.34227
G01 X-7.19598 Y2.33355
G01 X-7.07847 Y2.32637
G01 X-6.96329 Y2.32208
G01 X-6.86360 Y2.32070
G01 X-6.86354 Y2.32112
G01 X-6.86360 Y2.32070
G01 X-6.79195 Y2.30049
G01 X-6.70421 Y2.27743
G01 X-6.61817 Y2.25648
G01 X-6.53210 Y2.23717
G01 X-6.44782 Y2.21986
G01 X-6.35991 Y2.20348
G01 X-6.27378 Y2.18911
G01 X-6.18764 Y2.17638
G01 X-6.10149 Y2.16530
G01 X-6.01533 Y2.15587
G01 X-5.92915 Y2.14808
G01 X-5.84297 Y2.14195
G01 X-5.75678 Y2.13747
G01 X-5.67059 Y2.13463
G01 X-5.58632 Y2.13346
G01 X-5.50012 Y2.13389
G01 X-5.41393 Y2.13597
G01 X-5.32774 Y2.13970
G01 X-5.23966 Y2.14522
G01 X-5.15349 Y2.15228
G01 X-5.06921 Y2.16079
G01 X-4.98305 Y2.17112
G01 X-4.89691 Y2.18309
G01 X-4.81078 Y2.19672
G01 X-4.72285 Y2.21232
G01 X-4.63677 Y2.22927
G01 X-4.55071 Y2.24786
G01 X-4.46468 Y2.26809
G01 X-4.38040 Y2.28951
G01 X-4.29439 Y2.31299
G01 X-4.20673 Y2.33862
G01 X-4.13879 Y2.35979
G01 X-4.13889 Y2.36051
G01 X-4.13879 Y2.35979
G01 X-4.03101 Y2.35583
G01 X-3.92564 Y2.35459
G01 X-3.92551 Y2.35529
G01 X-3.92564 Y2.35459
G01 X-3.83220 Y2.32062
G01 X-3.71839 Y2.28219
G01 X-3.60669 Y2.24738
G01 X-3.49495 Y2.21544
G01 X-3.38552 Y2.18695
G01 X-3.27134 Y2.16017
G01 X-3.15948 Y2.13685
G01 X-3.04758 Y2.11641
G01 X-2.93565 Y2.09886
G01 X-2.82370 Y2.08418
G01 X-2.71173 Y2.07240
G01 X-2.59974 Y2.06349
G01 X-2.48774 Y2.05748
G01 X-2.37832 Y2.05439
G01 X-2.26632 Y2.05409
G01 X-2.15431 Y2.05668
G01 X-2.13433 Y2.05917
G01 X-2.11525 Y2.06562
G01 X-2.09785 Y2.07577
G01 X-2.08283 Y2.08919
G01 X-2.01572 Y2.16262
G01 X-1.94979 Y2.23739
G01 X-1.88620 Y2.31222
G01 X-1.82498 Y2.38711
G01 X-1.76611 Y2.46208
G01 X-1.70960 Y2.53712
G01 X-1.65422 Y2.61400
G01 X-1.60244 Y2.68928
G01 X-1.55303 Y2.76464
G01 X-1.50723 Y2.83807
G01 X-1.46257 Y2.91352
G01 X-1.42029 Y2.98906
G01 X-1.38040 Y3.06468
G01 X-1.34290 Y3.14039
G01 X-1.30780 Y3.21619
G01 X-1.27457 Y3.29334
G01 X-1.25347 Y3.34429
G01 X-1.23180 Y3.39817
G01 X-1.21067 Y3.45400
G01 X-1.19086 Y3.50987
G01 X-1.17237 Y3.56578
G01 X-1.15460 Y3.62387
G01 X-1.13881 Y3.67991
G01 X-1.12491 Y3.73379
G01 X-1.11467 Y3.77742
G01 X-1.11504 Y3.77756
G01 X-1.11467 Y3.77742
G01 X-1.09413 Y3.81672
G01 X-1.06584 Y3.87324
G01 X-1.05875 Y3.88786
G01 X-1.03302 Y3.94259
G01 X-1.02635 Y3.95725
G01 X-1.00242 Y4.01164
G01 X-0.99668 Y4.02516
G01 X-0.97570 Y4.07622
G01 X-0.97003 Y4.09049
G01 X-0.95052 Y4.14150
G01 X-0.94552 Y4.15506
G01 X-0.92755 Y4.20575
G01 X-0.92293 Y4.21933
G01 X-0.90669 Y4.26900
G01 X-0.90244 Y4.28257
G01 X-0.88805 Y4.33058
G01 X-0.88428 Y4.34376
G01 X-0.87169 Y4.38975
G01 X-0.86814 Y4.40334
G01 X-0.85648 Y4.45046
G01 X-0.85301 Y4.46527
G01 X-0.84274 Y4.51171
G01 X-0.83992 Y4.52533
G01 X-0.83117 Y4.57012
G01 X-0.82847 Y4.58494
G01 X-0.82108 Y4.62841
G01 X-0.81882 Y4.64280
G01 X-0.81267 Y4.68520
G01 X-0.81091 Y4.69839
G01 X-0.80562 Y4.74227
G01 X-0.80401 Y4.75711
G01 X-0.79990 Y4.80021
G01 X-0.79876 Y4.81385
G01 X-0.79560 Y4.85848
G01 X-0.79483 Y4.87170
G01 X-0.79289 Y4.91373
G01 X-0.79238 Y4.92859
G01 X-0.79146 Y4.97125
G01 X-0.79132 Y4.98611
G01 X-0.89133 Y4.98581
G01 X-0.94132 Y4.98597
G01 X-0.94143 Y4.97418
G01 X-0.94234 Y4.93214
G01 X-0.94274 Y4.92035
G01 X-0.94466 Y4.87894
G01 X-0.94532 Y4.86754
G01 X-0.94827 Y4.82595
G01 X-0.94924 Y4.81417
G01 X-0.95330 Y4.77169
G01 X-0.95458 Y4.75990
G01 X-0.95964 Y4.71784
G01 X-0.96116 Y4.70643
G01 X-0.96722 Y4.66463
G01 X-0.96901 Y4.65323
G01 X-0.97630 Y4.61036
G01 X-0.97844 Y4.59857
G01 X-0.98708 Y4.55439
G01 X-0.98953 Y4.54260
G01 X-0.99940 Y4.49797
G01 X-1.00216 Y4.48617
G01 X-1.01337 Y4.44085
G01 X-1.01645 Y4.42904
G01 X-1.02888 Y4.38364
G01 X-1.03215 Y4.37222
G01 X-1.04603 Y4.32597
G01 X-1.04973 Y4.31416
G01 X-1.06540 Y4.26626
G01 X-1.06942 Y4.25444
G01 X-1.08678 Y4.20551
G01 X-1.09115 Y4.19369
G01 X-1.11001 Y4.14439
G01 X-1.11455 Y4.13296
G01 X-1.13530 Y4.08247
G01 X-1.14034 Y4.07063
G01 X-1.16352 Y4.01795
G01 X-1.16891 Y4.00611
G01 X-1.19437 Y3.95194
G01 X-1.20012 Y3.94009
G01 X-1.22432 Y3.89172
G01 X-1.21807 Y3.86114
G01 X-1.22432 Y3.89172
G01 X-1.26054 Y3.92274
G01 X-1.37812 Y4.02281
G01 X-1.49069 Y4.11749
G01 X-1.51507 Y4.13781
G01 X-1.60109 Y4.20871
G01 X-1.65194 Y4.24996
G01 X-1.71289 Y4.29851
G01 X-1.76489 Y4.33897
G01 X-1.80916 Y4.37254
G01 X-1.82482 Y4.38419
G01 X-1.84995 Y4.40259
G01 X-1.88567 Y4.42806
G01 X-1.91816 Y4.45045
G01 X-1.93169 Y4.45952
G01 X-1.94912 Y4.47097
G01 X-1.97687 Y4.48864
G01 X-1.99002 Y4.49674
G01 X-2.01661 Y4.51256
G01 X-2.04301 Y4.52749
G01 X-2.08862 Y4.55198
G01 X-2.09925 Y4.55795
G01 X-2.12000 Y4.57008
G01 X-2.13969 Y4.58229
G01 X-2.15925 Y4.59505
G01 X-2.17820 Y4.60813
G01 X-2.18792 Y4.61509
G01 X-2.20605 Y4.62864
G01 X-2.22326 Y4.64213
G01 X-2.24027 Y4.65621
G01 X-2.24806 Y4.66287
G01 X-2.26440 Y4.67736
G01 X-2.28000 Y4.69195
G01 X-2.29552 Y4.70716
G01 X-2.31039 Y4.72246
G01 X-2.32530 Y4.73857
G01 X-2.33977 Y4.75499
G01 X-2.34715 Y4.76372
G01 X-2.36109 Y4.78079
G01 X-2.36749 Y4.78893
G01 X-2.38079 Y4.80648
G01 X-2.38782 Y4.81613
G01 X-2.40096 Y4.83488
G01 X-2.40721 Y4.84417
G01 X-2.41992 Y4.86380
G01 X-2.43215 Y4.88375
G01 X-2.44441 Y4.90491
G01 X-2.45037 Y4.91565
G01 X-2.46214 Y4.93781
G01 X-2.47366 Y4.96085
G01 X-2.47961 Y4.97335
G01 X-2.49070 Y4.99779
G01 X-2.50133 Y5.02286
G01 X-2.51194 Y5.04968
G01 X-2.52215 Y5.07745
G01 X-2.53186 Y5.10611
G01 X-2.53592 Y5.11881
G01 X-2.54526 Y5.14984
G01 X-2.55400 Y5.18166
G01 X-2.56225 Y5.21483
G01 X-2.56724 Y5.23671
G01 X-2.57380 Y5.26767
G01 X-2.57849 Y5.31035
G01 X-2.58582 Y5.36873
G01 X-2.59225 Y5.41518
G01 X-2.59984 Y5.46655
G01 X-2.60876 Y5.52334
G01 X-2.61940 Y5.58731
G01 X-2.62827 Y5.63853
G01 X-2.64262 Y5.71828
G01 X-2.66357 Y5.82982
G01 X-2.68794 Y5.95498
G01 X-2.71611 Y6.09528
G01 X-2.74561 Y6.23906
G01 X-2.80105 Y6.50360
G01 X-2.85890 Y6.77457
G01 X-2.95712 Y7.22891
G01 X-3.00774 Y7.46036
G01 X-3.02569 Y7.47218
G01 X-3.00774 Y7.46036
G01 X-2.97323 Y7.46707
G01 X-2.85294 Y7.48832
G01 X-2.84114 Y7.49026
G01 X-2.72350 Y7.50807
G01 X-2.71210 Y7.50965
G01 X-2.59579 Y7.52437
G01 X-2.58400 Y7.52571
G01 X-2.46602 Y7.53770
G01 X-2.42396 Y7.54128
G01 X-2.42263 Y7.54536
G01 X-2.42396 Y7.54128
G01 X-2.36658 Y7.49155
G01 X-2.29249 Y7.42579
G01 X-2.22008 Y7.35963
G01 X-2.16548 Y7.30863
G01 X-2.11221 Y7.25764
G01 X-2.05110 Y7.19783
G01 X-2.00334 Y7.14982
G01 X-1.94645 Y7.09137
G01 X-1.90265 Y7.04511
G01 X-1.89137 Y7.03304
G01 X-1.81112 Y6.94507
G01 X-1.80050 Y6.93313
G01 X-1.72917 Y6.85096
G01 X-1.71940 Y6.83942
G01 X-1.65563 Y6.76227
G01 X-1.64634 Y6.75073
G01 X-1.58750 Y6.67594
G01 X-1.57836 Y6.66402
G01 X-1.52468 Y6.59223
G01 X-1.51629 Y6.58072
G01 X-1.46745 Y6.51198
G01 X-1.45923 Y6.50008
G01 X-1.41406 Y6.43307
G01 X-1.40626 Y6.42119
G01 X-1.36499 Y6.35655
G01 X-1.35762 Y6.34467
G01 X-1.32020 Y6.28273
G01 X-1.31323 Y6.27085
G01 X-1.27947 Y6.21174
G01 X-1.27311 Y6.20028
G01 X-1.24228 Y6.14308
G01 X-1.23607 Y6.13122
G01 X-1.20758 Y6.07510
G01 X-1.20175 Y6.06325
G01 X-1.17610 Y6.00949
G01 X-1.17081 Y5.99804
G01 X-1.14746 Y5.94586
G01 X-1.14233 Y5.93402
G01 X-1.12106 Y5.88320
G01 X-1.11644 Y5.87176
G01 X-1.09710 Y5.82218
G01 X-1.09265 Y5.81035
G01 X-1.07483 Y5.76114
G01 X-1.07072 Y5.74932
G01 X-1.05486 Y5.70189
G01 X-1.05120 Y5.69046
G01 X-1.03693 Y5.64407
G01 X-1.03345 Y5.63226
G01 X-1.02062 Y5.58658
G01 X-1.01756 Y5.57517
G01 X-1.00613 Y5.53031
G01 X-1.00328 Y5.51850
G01 X-0.99303 Y5.47371
G01 X-0.99049 Y5.46191
G01 X-0.98150 Y5.41764
G01 X-0.97927 Y5.40584
G01 X-0.97163 Y5.36278
G01 X-0.96976 Y5.35138
G01 X-0.96327 Y5.30879
G01 X-0.96163 Y5.29699
G01 X-0.95618 Y5.25416
G01 X-0.95483 Y5.24237
G01 X-0.95049 Y5.19985
G01 X-0.94944 Y5.18807
G01 X-0.94617 Y5.14568
G01 X-0.94542 Y5.13390
G01 X-0.94322 Y5.09176
G01 X-0.94276 Y5.07997
G01 X-0.94162 Y5.03866
G01 X-0.94144 Y5.02727
G01 X-0.94132 Y4.98597
G01 X-0.99133 Y4.98612
G01 X-0.99145 Y5.02681
G01 X-0.99161 Y5.03759
G01 X-0.99272 Y5.07830
G01 X-0.99317 Y5.08947
G01 X-0.99533 Y5.13099
G01 X-0.99605 Y5.14216
G01 X-0.99926 Y5.18392
G01 X-1.00027 Y5.19508
G01 X-1.00454 Y5.23699
G01 X-1.00582 Y5.24816
G01 X-1.01118 Y5.29038
G01 X-1.01275 Y5.30157
G01 X-1.01914 Y5.34356
G01 X-1.02092 Y5.35436
G01 X-1.02844 Y5.39682
G01 X-1.03057 Y5.40801
G01 X-1.03942 Y5.45167
G01 X-1.04184 Y5.46286
G01 X-1.05195 Y5.50705
G01 X-1.05466 Y5.51826
G01 X-1.06594 Y5.56253
G01 X-1.06884 Y5.57335
G01 X-1.08150 Y5.61844
G01 X-1.08481 Y5.62967
G01 X-1.09889 Y5.67548
G01 X-1.10238 Y5.68632
G01 X-1.11804 Y5.73317
G01 X-1.12196 Y5.74441
G01 X-1.13956 Y5.79304
G01 X-1.14379 Y5.80429
G01 X-1.16291 Y5.85331
G01 X-1.16730 Y5.86418
G01 X-1.18834 Y5.91443
G01 X-1.19322 Y5.92572
G01 X-1.21632 Y5.97734
G01 X-1.22135 Y5.98823
G01 X-1.24675 Y6.04144
G01 X-1.25230 Y6.05274
G01 X-1.28052 Y6.10832
G01 X-1.28644 Y6.11963
G01 X-1.31698 Y6.17628
G01 X-1.32304 Y6.18722
G01 X-1.35650 Y6.24580
G01 X-1.36315 Y6.25714
G01 X-1.40026 Y6.31856
G01 X-1.40731 Y6.32990
G01 X-1.44824 Y6.39402
G01 X-1.45569 Y6.40538
G01 X-1.50052 Y6.47188
G01 X-1.50840 Y6.48327
G01 X-1.55688 Y6.55152
G01 X-1.56490 Y6.56253
G01 X-1.61822 Y6.63383
G01 X-1.62699 Y6.64527
G01 X-1.68545 Y6.71959
G01 X-1.69436 Y6.73065
G01 X-1.75775 Y6.80734
G01 X-1.76713 Y6.81842
G01 X-1.83806 Y6.90013
G01 X-1.84827 Y6.91161
G01 X-1.92810 Y6.99912
G01 X-1.98255 Y7.05677
G01 X-2.03889 Y7.11467
G01 X-2.08633 Y7.16235
G01 X-2.14690 Y7.22163
G01 X-2.19983 Y7.27230
G01 X-2.25410 Y7.32299
G01 X-2.32594 Y7.38863
G01 X-2.38628 Y7.44230
G01 X-2.44079 Y7.48970
G01 X-2.43944 Y7.49395
G01 X-2.44079 Y7.48970
G01 X-2.46128 Y7.48792
G01 X-2.57863 Y7.47600
G01 X-2.58981 Y7.47473
G01 X-2.70552 Y7.46009
G01 X-2.71632 Y7.45859
G01 X-2.83336 Y7.44087
G01 X-2.84455 Y7.43903
G01 X-2.94789 Y7.42078
G01 X-2.96629 Y7.43314
G01 X-2.94789 Y7.42078
G01 X-2.90825 Y7.23948
G01 X-2.81004 Y6.78519
G01 X-2.75211 Y6.51384
G01 X-2.69668 Y6.24936
G01 X-2.66708 Y6.10506
G01 X-2.63361 Y5.93793
G01 X-2.61140 Y5.82317
G01 X-2.59755 Y5.74964
G01 X-2.58256 Y5.66707
G01 X-2.57011 Y5.59566
G01 X-2.55947 Y5.53176
G01 X-2.54780 Y5.45688
G01 X-2.54117 Y5.41112
G01 X-2.53425 Y5.35986
G01 X-2.52885 Y5.31632
G01 X-2.52432 Y5.27526
G01 X-2.51843 Y5.24754
G01 X-2.51057 Y5.21375
G01 X-2.50235 Y5.18203
G01 X-2.49358 Y5.15122
G01 X-2.48433 Y5.12165
G01 X-2.47502 Y5.09415
G01 X-2.46523 Y5.06753
G01 X-2.45508 Y5.04185
G01 X-2.44492 Y5.01790
G01 X-2.43936 Y5.00546
G01 X-2.42866 Y4.98264
G01 X-2.41769 Y4.96071
G01 X-2.40650 Y4.93964
G01 X-2.40084 Y4.92945
G01 X-2.38920 Y4.90935
G01 X-2.38347 Y4.89988
G01 X-2.37184 Y4.88140
G01 X-2.35966 Y4.86307
G01 X-2.34725 Y4.84532
G01 X-2.34057 Y4.83618
G01 X-2.33463 Y4.82824
G01 X-2.32198 Y4.81195
G01 X-2.31493 Y4.80317
G01 X-2.30182 Y4.78756
G01 X-2.29561 Y4.78041
G01 X-2.28175 Y4.76500
G01 X-2.26763 Y4.75011
G01 X-2.26007 Y4.74242
G01 X-2.24544 Y4.72806
G01 X-2.23070 Y4.71434
G01 X-2.22370 Y4.70803
G01 X-2.20799 Y4.69437
G01 X-2.19190 Y4.68110
G01 X-2.17567 Y4.66833
G01 X-2.15851 Y4.65554
G01 X-2.14079 Y4.64297
G01 X-2.13137 Y4.63657
G01 X-2.11285 Y4.62448
G01 X-2.09419 Y4.61292
G01 X-2.07450 Y4.60139
G01 X-2.06441 Y4.59572
G01 X-2.01815 Y4.57088
G01 X-2.00545 Y4.56379
G01 X-1.97933 Y4.54866
G01 X-1.96335 Y4.53904
G01 X-1.93511 Y4.52141
G01 X-1.90384 Y4.50105
G01 X-1.88994 Y4.49172
G01 X-1.85677 Y4.46887
G01 X-1.82073 Y4.44316
G01 X-1.79557 Y4.42475
G01 X-1.77904 Y4.41246
G01 X-1.73452 Y4.37869
G01 X-1.68180 Y4.33767
G01 X-1.62064 Y4.28895
G01 X-1.56925 Y4.24726
G01 X-1.48338 Y4.17648
G01 X-1.37272 Y4.08372
G01 X-1.24052 Y3.97136
G01 X-1.23363 Y3.93970
G01 X-1.24052 Y3.97136
G01 X-1.21429 Y4.02710
G01 X-1.20916 Y4.03837
G01 X-1.18623 Y4.09049
G01 X-1.18143 Y4.10175
G01 X-1.16091 Y4.15168
G01 X-1.15660 Y4.16255
G01 X-1.13795 Y4.21127
G01 X-1.13380 Y4.22252
G01 X-1.11665 Y4.27087
G01 X-1.11282 Y4.28209
G01 X-1.09735 Y4.32941
G01 X-1.09383 Y4.34063
G01 X-1.08013 Y4.38630
G01 X-1.07702 Y4.39713
G01 X-1.06476 Y4.44194
G01 X-1.06184 Y4.45316
G01 X-1.05077 Y4.49788
G01 X-1.04816 Y4.50907
G01 X-1.03841 Y4.55309
G01 X-1.03609 Y4.56428
G01 X-1.02758 Y4.60785
G01 X-1.02553 Y4.61904
G01 X-1.01836 Y4.66130
G01 X-1.01666 Y4.67210
G01 X-1.01068 Y4.71331
G01 X-1.00924 Y4.72412
G01 X-1.00425 Y4.76557
G01 X-1.00305 Y4.77675
G01 X-0.99904 Y4.81861
G01 X-0.99812 Y4.82979
G01 X-0.99522 Y4.87077
G01 X-0.99459 Y4.88155
G01 X-0.99270 Y4.92236
G01 X-0.99232 Y4.93353
G01 X-0.99143 Y4.97495
G01 X-0.99133 Y4.98612
G01 X-0.89133 Y4.98581
G01 X-0.89144 Y4.97341
G01 X-0.89236 Y4.93075
G01 X-0.89278 Y4.91835
G01 X-0.89473 Y4.87632
G01 X-0.89543 Y4.86432
G01 X-0.89841 Y4.82212
G01 X-0.89944 Y4.80972
G01 X-0.90356 Y4.76662
G01 X-0.90490 Y4.75422
G01 X-0.91004 Y4.71156
G01 X-0.91163 Y4.69956
G01 X-0.91778 Y4.65716
G01 X-0.91967 Y4.64515
G01 X-0.92705 Y4.60169
G01 X-0.92932 Y4.58929
G01 X-0.93806 Y4.54450
G01 X-0.94064 Y4.53210
G01 X-0.95065 Y4.48687
G01 X-0.95355 Y4.47447
G01 X-0.96491 Y4.42854
G01 X-0.96815 Y4.41614
G01 X-0.98073 Y4.37015
G01 X-0.98417 Y4.35815
G01 X-0.99823 Y4.31131
G01 X-1.00211 Y4.29891
G01 X-1.01797 Y4.25042
G01 X-1.02220 Y4.23801
G01 X-1.03977 Y4.18850
G01 X-1.04434 Y4.17610
G01 X-1.06343 Y4.12624
G01 X-1.06819 Y4.11424
G01 X-1.08917 Y4.06318
G01 X-1.09445 Y4.05078
G01 X-1.11788 Y3.99753
G01 X-1.12352 Y3.98513
G01 X-1.14925 Y3.93039
G01 X-1.15527 Y3.91799
G01 X-1.18301 Y3.86255
G01 X-1.20913 Y3.81266
G01 X-1.22174 Y3.75878
G01 X-1.20913 Y3.81266
G01 X-1.29294 Y3.88466
G01 X-1.41040 Y3.98463
G01 X-1.52284 Y4.07920
G01 X-1.54707 Y4.09939
G01 X-1.63259 Y4.16988
G01 X-1.68324 Y4.21096
G01 X-1.74398 Y4.25935
G01 X-1.76176 Y4.27330
G01 X-1.81119 Y4.31144
G01 X-1.85465 Y4.34406
G01 X-1.89364 Y4.37244
G01 X-1.91457 Y4.38726
G01 X-1.94638 Y4.40917
G01 X-1.97618 Y4.42893
G01 X-2.00354 Y4.44634
G01 X-2.02997 Y4.46242
G01 X-2.05514 Y4.47701
G01 X-2.07914 Y4.49021
G01 X-2.10186 Y4.50224
G01 X-2.11284 Y4.50823
G01 X-2.12400 Y4.51450
G01 X-2.14579 Y4.52726
G01 X-2.16653 Y4.54010
G01 X-2.18711 Y4.55355
G01 X-2.20710 Y4.56733
G01 X-2.22645 Y4.58138
G01 X-2.24514 Y4.59568
G01 X-2.26301 Y4.61005
G01 X-2.28082 Y4.62510
G01 X-2.29807 Y4.64043
G01 X-2.31457 Y4.65583
G01 X-2.33096 Y4.67189
G01 X-2.34668 Y4.68807
G01 X-2.36243 Y4.70508
G01 X-2.37069 Y4.71436
G01 X-2.38549 Y4.73162
G01 X-2.40020 Y4.74964
G01 X-2.40698 Y4.75826
G01 X-2.42101 Y4.77678
G01 X-2.42841 Y4.78693
G01 X-2.44225 Y4.80669
G01 X-2.45580 Y4.82708
G01 X-2.46223 Y4.83716
G01 X-2.47509 Y4.85815
G01 X-2.48159 Y4.86919
G01 X-2.49424 Y4.89165
G01 X-2.50057 Y4.90340
G01 X-2.51288 Y4.92731
G01 X-2.52488 Y4.95212
G01 X-2.53042 Y4.96412
G01 X-2.54159 Y4.98953
G01 X-2.55263 Y5.01637
G01 X-2.56343 Y5.04460
G01 X-2.57364 Y5.07337
G01 X-2.57938 Y5.09057
G01 X-2.58364 Y5.10386
G01 X-2.58935 Y5.12251
G01 X-2.59333 Y5.13607
G01 X-2.59881 Y5.15567
G01 X-2.60238 Y5.16907
G01 X-2.60763 Y5.18973
G01 X-2.61093 Y5.20340
G01 X-2.61606 Y5.22588
G01 X-2.62322 Y5.26009
G01 X-2.62508 Y5.27741
G01 X-2.62991 Y5.31910
G01 X-2.63540 Y5.36227
G01 X-2.64078 Y5.40134
G01 X-2.64667 Y5.44189
G01 X-2.65527 Y5.49756
G01 X-2.66870 Y5.57896
G01 X-2.68102 Y5.64958
G01 X-2.69590 Y5.73153
G01 X-2.71267 Y5.82036
G01 X-2.73699 Y5.94529
G01 X-2.76509 Y6.08523
G01 X-2.79459 Y6.22901
G01 X-2.84995 Y6.49316
G01 X-2.91795 Y6.81129
G01 X-3.00599 Y7.21834
G01 X-3.06751 Y7.49954
G04 P0 ( dwell for no time -- G64 should not smooth over this point )
G00 Z0.08000 ( retract )

G00 X-3.45039 Y7.40247 ( rapid move to begin. )
G01 F3.00000
( Mill infeed pass 1/1 )
G01 Z-0.00800
G04 P0 ( dwell for no time -- G64 should not smooth over this point )
G01 F6.00000
G01 X-3.45039 Y7.40247
G01 X-3.51608 Y6.62859
G01 X-3.54934 Y6.24148
G01 X-3.57186 Y5.98323
G01 X-3.59485 Y5.72589
G01 X-3.59868 Y5.67900
G01 X-3.59976 Y5.66371
G01 X-3.60001 Y5.65684
G01 X-3.59999 Y5.36430
G01 X-3.59950 Y5.35436
G01 X-3.59279 Y5.28697
G01 X-3.57766 Y5.16188
G01 X-3.56569 Y5.05701
G01 X-3.55628 Y4.96872
G01 X-3.54822 Y4.88776
G01 X-3.54038 Y4.80308
G01 X-3.53243 Y4.71084
G01 X-3.52347 Y4.59935
G01 X-3.51158 Y4.44132
G01 X-3.51161 Y4.37718
G01 X-3.51296 Y4.30330
G01 X-3.51702 Y4.22729
G01 X-3.52381 Y4.14822
G01 X-3.53335 Y4.06609
G01 X-3.54567 Y3.98092
G01 X-3.56077 Y3.89274
G01 X-3.57866 Y3.80156
G01 X-3.59936 Y3.70740
G01 X-3.62287 Y3.61026
G01 X-3.64920 Y3.51017
G01 X-3.67835 Y3.40713
G01 X-3.71032 Y3.30115
G01 X-3.74511 Y3.19225
G01 X-3.78274 Y3.08043
G01 X-3.82320 Y2.96570
G01 X-3.86659 Y2.84776
G01 X-3.97643 Y2.55520
G01 X-3.97017 Y2.54606
G01 X-3.97643 Y2.55520
G01 X-4.02739 Y2.55580
G01 X-4.07466 Y2.55755
G01 X-4.08225 Y2.54804
G01 X-4.07466 Y2.55755
G01 X-4.25980 Y3.25049
G01 X-4.29300 Y3.38005
G01 X-4.32216 Y3.50504
G01 X-4.34741 Y3.62593
G01 X-4.36883 Y3.74305
G01 X-4.37800 Y3.79956
G01 X-4.38625 Y3.85536
G01 X-4.39353 Y3.91013
G01 X-4.39985 Y3.96385
G01 X-4.40521 Y4.01652
G01 X-4.40961 Y4.06815
G01 X-4.41305 Y4.11873
G01 X-4.41523 Y4.16219
G01 X-4.41535 Y4.16219
G01 X-4.41523 Y4.16219
G01 X-4.40508 Y4.27514
G01 X-4.40029 Y4.33541
G01 X-4.39998 Y4.34325
G01 X-4.40000 Y4.63582
G01 X-4.40041 Y4.64481
G01 X-4.40394 Y4.68375
G01 X-4.40761 Y4.71644
G01 X-4.41939 Y4.81322
G01 X-4.43164 Y4.91905
G01 X-4.44113 Y5.00637
G01 X-4.44960 Y5.08976
G01 X-4.45827 Y5.18188
G01 X-4.46729 Y5.28575
G01 X-4.47761 Y5.41446
G01 X-4.48387 Y5.49701
G01 X-4.48848 Y5.56013
G01 X-4.49289 Y5.61200
G01 X-4.49585 Y5.64128
G01 X-4.50444 Y5.72153
G01 X-4.50458 Y5.72152
G01 X-4.50444 Y5.72153
G01 X-4.50252 Y5.76317
G01 X-4.49923 Y5.81258
G01 X-4.49487 Y5.86319
G01 X-4.48941 Y5.91501
G01 X-4.48287 Y5.96802
G01 X-4.47523 Y6.02222
G01 X-4.46650 Y6.07761
G01 X-4.45660 Y6.13455
G01 X-4.21884 Y7.44350
G01 X-4.22816 Y7.45432
G01 X-4.21884 Y7.44350
G01 X-4.18084 Y7.44471
G01 X-4.06332 Y7.44555
G01 X-3.94580 Y7.44347
G01 X-3.82827 Y7.43849
G01 X-3.71073 Y7.43058
G01 X-3.59318 Y7.41977
G01 X-3.47561 Y7.40604
G01 X-3.45039 Y7.40247
G01 X-3.38188 Y7.45708
G01 X-3.39660 Y7.44535
G01 X-3.46921 Y7.45564
G01 X-3.58799 Y7.46950
G01 X-3.70676 Y7.48043
G01 X-3.82553 Y7.48841
G01 X-3.94429 Y7.49345
G01 X-4.06305 Y7.49555
G01 X-4.18181 Y7.49471
G01 X-4.26081 Y7.49219
G01 X-4.27013 Y7.50301
G01 X-4.26081 Y7.49219
G01 X-4.50583 Y6.14330
G01 X-4.51582 Y6.08578
G01 X-4.52468 Y6.02960
G01 X-4.53244 Y5.97457
G01 X-4.53909 Y5.92069
G01 X-4.54464 Y5.86796
G01 X-4.54909 Y5.81639
G01 X-4.55245 Y5.76598
G01 X-4.55456 Y5.72001
G01 X-4.55470 Y5.72000
G01 X-4.55456 Y5.72001
G01 X-4.54556 Y5.63596
G01 X-4.54272 Y5.60775
G01 X-4.53840 Y5.55711
G01 X-4.52746 Y5.41064
G01 X-4.52206 Y5.34198
G01 X-4.51712 Y5.28162
G01 X-4.50807 Y5.17741
G01 X-4.49936 Y5.08492
G01 X-4.49086 Y5.00118
G01 X-4.48133 Y4.91352
G01 X-4.46905 Y4.80734
G01 X-4.45729 Y4.71080
G01 X-4.45368 Y4.67860
G01 X-4.45020 Y4.64030
G01 X-4.45000 Y4.63580
G01 X-4.44998 Y4.34328
G01 X-4.45013 Y4.33937
G01 X-4.45487 Y4.27968
G01 X-4.46534 Y4.16317
G01 X-4.46546 Y4.16317
G01 X-4.46534 Y4.16317
G01 X-4.46296 Y4.11578
G01 X-4.45946 Y4.06433
G01 X-4.45499 Y4.01187
G01 X-4.44956 Y3.95840
G01 X-4.44315 Y3.90391
G01 X-4.43576 Y3.84841
G01 X-4.42741 Y3.79190
G01 X-4.41810 Y3.73455
G01 X-4.39648 Y3.61632
G01 X-4.37098 Y3.49425
G01 X-4.34157 Y3.36816
G01 X-4.30817 Y3.23783
G01 X-4.11343 Y2.50895
G01 X-4.12102 Y2.49944
G01 X-4.11343 Y2.50895
G01 X-4.02861 Y2.50581
G01 X-3.94194 Y2.50479
G01 X-3.93569 Y2.49565
G01 X-3.94194 Y2.50479
G01 X-3.81973 Y2.83034
G01 X-3.77616 Y2.94875
G01 X-3.73547 Y3.06414
G01 X-3.69760 Y3.17666
G01 X-3.66256 Y3.28632
G01 X-3.63035 Y3.39310
G01 X-3.60096 Y3.49701
G01 X-3.57439 Y3.59802
G01 X-3.55064 Y3.69615
G01 X-3.52971 Y3.79138
G01 X-3.51159 Y3.88371
G01 X-3.49628 Y3.97312
G01 X-3.48377 Y4.05962
G01 X-3.47406 Y4.14319
G01 X-3.46713 Y4.22382
G01 X-3.46299 Y4.30151
G01 X-3.46161 Y4.37672
G01 X-3.46157 Y4.44312
G01 X-3.47361 Y4.60320
G01 X-3.48260 Y4.71496
G01 X-3.49058 Y4.80750
G01 X-3.49846 Y4.89258
G01 X-3.50655 Y4.97388
G01 X-3.51599 Y5.06245
G01 X-3.52800 Y5.16776
G01 X-3.54316 Y5.29303
G01 X-3.54974 Y5.35929
G01 X-3.54998 Y5.36426
G01 X-3.55001 Y5.38908
G01 X-3.55001 Y5.65159
G01 X-3.54988 Y5.66020
G01 X-3.54877 Y5.67583
G01 X-3.54505 Y5.72138
G01 X-3.52151 Y5.98501
G01 X-3.49953 Y6.23718
G01 X-3.46708 Y6.61475
G01 X-3.39660 Y7.44535
G01 X-3.34281 Y7.48824
G01 X-3.41726 Y6.61048
G01 X-3.44971 Y6.23288
G01 X-3.47171 Y5.98065
G01 X-3.48760 Y5.80152
G01 X-3.49525 Y5.71687
G01 X-3.49894 Y5.67176
G01 X-3.50001 Y5.65669
G01 X-3.49999 Y5.36423
G01 X-3.49353 Y5.29910
G01 X-3.47835 Y5.17364
G01 X-3.46629 Y5.06789
G01 X-3.45681 Y4.97904
G01 X-3.44869 Y4.89740
G01 X-3.44077 Y4.81192
G01 X-3.43277 Y4.71908
G01 X-3.42376 Y4.60705
G01 X-3.41854 Y4.53881
G01 X-3.41161 Y4.44493
G01 X-3.41161 Y4.37626
G01 X-3.41302 Y4.29971
G01 X-3.41725 Y4.22035
G01 X-3.42431 Y4.13816
G01 X-3.43419 Y4.05316
G01 X-3.44689 Y3.96533
G01 X-3.46241 Y3.87467
G01 X-3.48076 Y3.78120
G01 X-3.50192 Y3.68490
G01 X-3.52591 Y3.58578
G01 X-3.55272 Y3.48384
G01 X-3.58236 Y3.37908
G01 X-3.61481 Y3.27149
G01 X-3.65009 Y3.16108
G01 X-3.68819 Y3.04785
G01 X-3.72912 Y2.93180
G01 X-3.77286 Y2.81292
G01 X-3.90746 Y2.45438
G04 P0 ( dwell for no time -- G64 should not smooth over this point )
G00 Z0.08000 ( retract )

G00 X-4.27362 Y2.52742 ( rapid move to begin. )
G01 F3.00000
( Mill infeed pass 1/1 )
G01 Z-0.00800
G04 P0 ( dwell for no time -- G64 should not smooth over this point )
G01 F6.00000
G01 X-4.27362 Y2.52742
G01 X-4.34797 Y2.50568
G01 X-4.43053 Y2.48312
G01 X-4.51306 Y2.46215
G01 X-4.59557 Y2.44276
G01 X-4.67806 Y2.42496
G01 X-4.76053 Y2.40874
G01 X-4.84298 Y2.39411
G01 X-4.92542 Y2.38105
G01 X-5.00783 Y2.36958
G01 X-5.09024 Y2.35968
G01 X-5.17263 Y2.35136
G01 X-5.25501 Y2.34463
G01 X-5.33739 Y2.33947
G01 X-5.41976 Y2.33588
G01 X-5.50212 Y2.33388
G01 X-5.58448 Y2.33345
G01 X-5.66685 Y2.33460
G01 X-5.74922 Y2.33733
G01 X-5.83159 Y2.34163
G01 X-5.91397 Y2.34751
G01 X-5.99635 Y2.35497
G01 X-6.07875 Y2.36400
G01 X-6.16116 Y2.37462
G01 X-6.24358 Y2.38682
G01 X-6.32602 Y2.40059
G01 X-6.40848 Y2.41595
G01 X-6.49096 Y2.43289
G01 X-6.57346 Y2.45142
G01 X-6.65598 Y2.47153
G01 X-6.72458 Y2.48956
G01 X-6.74352 Y2.47887
G01 X-6.72458 Y2.48956
G01 X-6.65648 Y2.72156
G01 X-6.32898 Y3.54157
G01 X-6.29075 Y3.63987
G01 X-6.25522 Y3.73657
G01 X-6.22306 Y3.83005
G01 X-6.19426 Y3.92036
G01 X-6.16883 Y4.00750
G01 X-6.14678 Y4.09152
G01 X-6.12813 Y4.17245
G01 X-6.11256 Y4.25211
G01 X-6.06425 Y4.52609
G01 X-6.05491 Y4.57286
G01 X-6.04444 Y4.61429
G01 X-6.03277 Y4.65138
G01 X-6.02008 Y4.68409
G01 X-6.00607 Y4.71341
G01 X-5.99959 Y4.72506
G01 X-5.99247 Y4.73651
G01 X-5.98535 Y4.74697
G01 X-5.97809 Y4.75636
G01 X-5.97355 Y4.76165
G01 X-5.97440 Y4.76274
G01 X-5.97355 Y4.76165
G01 X-5.96419 Y4.76598
G01 X-5.96558 Y4.76910
G01 X-5.96682 Y4.77249
G01 X-5.96693 Y4.77246
G01 X-5.96682 Y4.77249
G01 X-5.96770 Y4.77557
G01 X-5.96846 Y4.77910
G01 X-5.96858 Y4.77908
G01 X-5.96846 Y4.77910
G01 X-5.96892 Y4.78227
G01 X-5.96920 Y4.78586
G01 X-5.96931 Y4.78586
G01 X-5.96920 Y4.78586
G01 X-5.96921 Y4.78947
G01 X-5.96901 Y4.79267
G01 X-5.96912 Y4.79268
G01 X-5.96901 Y4.79267
G01 X-5.96853 Y4.79624
G01 X-5.96789 Y4.79938
G01 X-5.96801 Y4.79941
G01 X-5.96789 Y4.79938
G01 X-5.96694 Y4.80286
G01 X-5.96588 Y4.80589
G01 X-5.96599 Y4.80593
G01 X-5.96588 Y4.80589
G01 X-5.96446 Y4.80920
G01 X-5.96280 Y4.81240
G01 X-5.96291 Y4.81246
G01 X-5.96280 Y4.81240
G01 X-5.96114 Y4.81514
G01 X-5.95907 Y4.81809
G01 X-5.95916 Y4.81816
G01 X-5.95907 Y4.81809
G01 X-5.95705 Y4.82058
G01 X-5.95462 Y4.82324
G01 X-5.94933 Y4.82849
G01 X-5.95604 Y4.82493
G01 X-5.96661 Y4.81975
G01 X-5.98344 Y4.81216
G01 X-6.00390 Y4.80259
G01 X-6.00441 Y4.80331
G01 X-6.00390 Y4.80259
G01 X-6.00794 Y4.79844
G01 X-6.01696 Y4.78784
G01 X-6.02581 Y4.77634
G01 X-6.03439 Y4.76386
G01 X-6.04269 Y4.75037
G01 X-6.05054 Y4.73638
G01 X-6.06601 Y4.70394
G01 X-6.07998 Y4.66796
G01 X-6.09256 Y4.62794
G01 X-6.10369 Y4.58389
G01 X-6.11339 Y4.53533
G01 X-6.16196 Y4.25990
G01 X-6.17686 Y4.18365
G01 X-6.19479 Y4.10566
G01 X-6.21683 Y4.02149
G01 X-6.24190 Y3.93554
G01 X-6.26998 Y3.84739
G01 X-6.30216 Y3.75380
G01 X-6.33735 Y3.65799
G01 X-6.37558 Y3.55969
G01 X-6.70378 Y2.73791
G01 X-6.78687 Y2.45491
G01 X-6.80534 Y2.44470
G01 X-6.78687 Y2.45491
G01 X-6.75167 Y2.44498
G01 X-6.66826 Y2.42306
G01 X-6.58486 Y2.40273
G01 X-6.50147 Y2.38401
G01 X-6.41809 Y2.36688
G01 X-6.33472 Y2.35135
G01 X-6.25136 Y2.33742
G01 X-6.16801 Y2.32509
G01 X-6.08467 Y2.31435
G01 X-6.00133 Y2.30521
G01 X-5.91800 Y2.29767
G01 X-5.83467 Y2.29172
G01 X-5.75135 Y2.28737
G01 X-5.66802 Y2.28461
G01 X-5.58470 Y2.28345
G01 X-5.50138 Y2.28388
G01 X-5.41806 Y2.28591
G01 X-5.33474 Y2.28953
G01 X-5.25141 Y2.29475
G01 X-5.16808 Y2.30157
G01 X-5.08475 Y2.30998
G01 X-5.00141 Y2.31999
G01 X-4.91806 Y2.33159
G01 X-4.83470 Y2.34479
G01 X-4.75134 Y2.35959
G01 X-4.66796 Y2.37599
G01 X-4.58458 Y2.39398
G01 X-4.50118 Y2.41358
G01 X-4.41778 Y2.43477
G01 X-4.33436 Y2.45757
G01 X-4.25093 Y2.48196
G01 X-4.21289 Y2.49381
G01 X-4.19598 Y2.48449
G01 X-4.21289 Y2.49381
G01 X-4.40485 Y3.21227
G01 X-4.43857 Y3.34386
G01 X-4.46850 Y3.47209
G01 X-4.49474 Y3.59771
G01 X-4.51673 Y3.71804
G01 X-4.52628 Y3.77693
G01 X-4.53474 Y3.83414
G01 X-4.54242 Y3.89185
G01 X-4.54900 Y3.94789
G01 X-4.55452 Y4.00216
G01 X-4.55920 Y4.05712
G01 X-4.56276 Y4.10943
G01 X-4.56539 Y4.16165
G01 X-4.56525 Y4.16863
G01 X-4.55449 Y4.28846
G01 X-4.54994 Y4.34530
G01 X-4.54994 Y4.63352
G01 X-4.55318 Y4.66862
G01 X-4.55662 Y4.69928
G01 X-4.56836 Y4.79563
G01 X-4.58073 Y4.90250
G01 X-4.59032 Y4.99086
G01 X-4.59889 Y5.07521
G01 X-4.60767 Y5.16843
G01 X-4.61678 Y5.27342
G01 X-4.62174 Y5.33401
G01 X-4.62717 Y5.40297
G01 X-4.63345 Y5.48573
G01 X-4.63806 Y5.54892
G01 X-4.64232 Y5.59896
G01 X-4.64501 Y5.62543
G01 X-4.65440 Y5.71316
G01 X-4.65463 Y5.72078
G01 X-4.65226 Y5.77211
G01 X-4.64876 Y5.82450
G01 X-4.64414 Y5.87796
G01 X-4.63849 Y5.93160
G01 X-4.63152 Y5.98810
G01 X-4.62353 Y6.04477
G01 X-4.61441 Y6.10252
G01 X-4.60425 Y6.16099
G01 X-4.36059 Y7.50237
G01 X-4.34414 Y7.51347
G01 X-4.36059 Y7.50237
G01 X-4.38924 Y7.50866
G01 X-4.46458 Y7.52396
G01 X-4.53991 Y7.53801
G01 X-4.61524 Y7.55081
G01 X-4.69056 Y7.56237
G01 X-4.76588 Y7.57269
G01 X-4.84119 Y7.58177
G01 X-4.91650 Y7.58960
G01 X-4.99180 Y7.59619
G01 X-5.06710 Y7.60154
G01 X-5.14240 Y7.60564
G01 X-5.21770 Y7.60850
G01 X-5.29299 Y7.61012
G01 X-5.36829 Y7.61050
G01 X-5.44358 Y7.60964
G01 X-5.47601 Y7.60873
G01 X-5.48707 Y7.62094
G01 X-5.47601 Y7.60873
G01 X-5.69333 Y5.73722
G01 X-5.69848 Y5.69768
G01 X-5.70490 Y5.65765
G01 X-5.78225 Y5.21900
G01 X-5.78254 Y5.21902
G01 X-5.78225 Y5.21900
G01 X-5.78080 Y5.18668
G01 X-5.78069 Y5.18086
G01 X-5.78081 Y5.15245
G01 X-5.78101 Y5.14559
G01 X-5.78231 Y5.12117
G01 X-5.78284 Y5.11444
G01 X-5.78532 Y5.09089
G01 X-5.78610 Y5.08511
G01 X-5.78914 Y5.06583
G01 X-5.79031 Y5.05951
G01 X-5.79366 Y5.04360
G01 X-5.79510 Y5.03754
G01 X-5.79915 Y5.02218
G01 X-5.80459 Y5.00460
G01 X-5.81037 Y4.98860
G01 X-5.81652 Y4.97372
G01 X-5.82357 Y4.95873
G01 X-5.82853 Y4.94928
G01 X-5.94933 Y4.82849
G01 X-5.74480 Y5.03302
G01 X-5.74021 Y5.05540
G01 X-5.73634 Y5.07986
G01 X-5.73544 Y5.08701
G01 X-5.73311 Y5.10924
G01 X-5.73238 Y5.11851
G01 X-5.73108 Y5.14292
G01 X-5.73081 Y5.15225
G01 X-5.73071 Y5.18305
G01 X-5.73089 Y5.19021
G01 X-5.73205 Y5.21575
G01 X-5.73234 Y5.21577
G01 X-5.73205 Y5.21575
G01 X-5.65566 Y5.64897
G01 X-5.64891 Y5.69121
G01 X-5.64366 Y5.73146
G01 X-5.43136 Y7.55977
G01 X-5.44248 Y7.57212
G01 X-5.43136 Y7.55977
G01 X-5.36813 Y7.56050
G01 X-5.29366 Y7.56013
G01 X-5.21919 Y7.55852
G01 X-5.14471 Y7.55569
G01 X-5.07024 Y7.55163
G01 X-4.99575 Y7.54634
G01 X-4.92127 Y7.53983
G01 X-4.84677 Y7.53208
G01 X-4.77227 Y7.52310
G01 X-4.69775 Y7.51289
G01 X-4.62322 Y7.50145
G01 X-4.54869 Y7.48878
G01 X-4.47414 Y7.47488
G01 X-4.41846 Y7.46357
G01 X-4.40191 Y7.47479
G01 X-4.41846 Y7.46357
G01 X-4.65345 Y6.16992
G01 X-4.66367 Y6.11109
G01 X-4.67292 Y6.05256
G01 X-4.68103 Y5.99507
G01 X-4.68801 Y5.93862
G01 X-4.69386 Y5.88320
G01 X-4.69858 Y5.82880
G01 X-4.70215 Y5.77543
G01 X-4.70458 Y5.72307
G01 X-4.70411 Y5.70784
G01 X-4.69474 Y5.62023
G01 X-4.69212 Y5.59441
G01 X-4.68790 Y5.54498
G01 X-4.68332 Y5.48210
G01 X-4.67702 Y5.39911
G01 X-4.67159 Y5.33016
G01 X-4.66660 Y5.26917
G01 X-4.65746 Y5.16392
G01 X-4.64865 Y5.07032
G01 X-4.63970 Y4.98233
G01 X-4.63040 Y4.89684
G01 X-4.61800 Y4.78963
G01 X-4.60627 Y4.69339
G01 X-4.60295 Y4.66378
G01 X-4.59993 Y4.63125
G01 X-4.59993 Y4.34728
G01 X-4.60431 Y4.29271
G01 X-4.61505 Y4.17311
G01 X-4.61533 Y4.15914
G01 X-4.61265 Y4.10604
G01 X-4.60896 Y4.05203
G01 X-4.60427 Y3.99710
G01 X-4.59875 Y3.94283
G01 X-4.59189 Y3.88450
G01 X-4.58420 Y3.82683
G01 X-4.57574 Y3.76961
G01 X-4.56609 Y3.71003
G01 X-4.54344 Y3.58626
G01 X-4.51719 Y3.46074
G01 X-4.48701 Y3.33145
G01 X-4.45316 Y3.19936
G01 X-4.27362 Y2.52742
G01 X-4.25628 Y2.51766
G01 X-4.25093 Y2.48196
G01 X-4.23648 Y2.43410
G01 X-4.15220 Y2.46035
G01 X-4.35654 Y3.22517
G01 X-4.39014 Y3.35627
G01 X-4.41981 Y3.48345
G01 X-4.44555 Y3.60671
G01 X-4.46738 Y3.72604
G01 X-4.47682 Y3.78424
G01 X-4.48528 Y3.84146
G01 X-4.49276 Y3.89769
G01 X-4.49926 Y3.95295
G01 X-4.50478 Y4.00722
G01 X-4.50932 Y4.06051
G01 X-4.51288 Y4.11283
G01 X-4.51545 Y4.16416
G01 X-4.50467 Y4.28421
G01 X-4.49998 Y4.34332
G01 X-4.50000 Y4.63579
G01 X-4.50341 Y4.67345
G01 X-4.50697 Y4.70517
G01 X-4.51870 Y4.80147
G01 X-4.53103 Y4.90799
G01 X-4.54025 Y4.99279
G01 X-4.54913 Y5.08009
G01 X-4.55787 Y5.17294
G01 X-4.56695 Y5.27750
G01 X-4.57190 Y5.33801
G01 X-4.57732 Y5.40682
G01 X-4.58359 Y5.48952
G01 X-4.58821 Y5.55286
G01 X-4.59253 Y5.60350
G01 X-4.59528 Y5.63063
G01 X-4.60468 Y5.71848
G01 X-4.60237 Y5.76879
G01 X-4.59895 Y5.82020
G01 X-4.59441 Y5.87273
G01 X-4.58877 Y5.92637
G01 X-4.58201 Y5.98112
G01 X-4.57414 Y6.03698
G01 X-4.56515 Y6.09396
G01 X-4.55506 Y6.15205
G01 X-4.30278 Y7.54088
G04 P0 ( dwell for no time -- G64 should not smooth over this point )
G00 Z0.08000 ( retract )

G00 X-5.63126 Y7.57221 ( rapid move to begin. )
G01 F3.00000
( Mill infeed pass 1/1 )
G01 Z-0.00800
G04 P0 ( dwell for no time -- G64 should not smooth over this point )
G01 F6.00000
G01 X-5.63126 Y7.57221
G01 X-5.61512 Y7.58493
G01 X-5.62570 Y7.62192
G01 X-5.57597 Y7.61485
G01 X-5.56028 Y7.62696
G01 X-5.57597 Y7.61485
G01 X-5.79262 Y5.74911
G01 X-5.79754 Y5.71136
G01 X-5.80345 Y5.67464
G01 X-5.88173 Y5.23065
G01 X-5.88237 Y5.21851
G01 X-5.88075 Y5.18404
G01 X-5.88079 Y5.15348
G01 X-5.88212 Y5.12713
G01 X-5.88497 Y5.10007
G01 X-5.88780 Y5.08208
G01 X-5.89195 Y5.06235
G01 X-5.89603 Y5.04702
G01 X-5.90008 Y5.03439
G01 X-5.90447 Y5.02247
G01 X-5.90932 Y5.01110
G01 X-5.91343 Y5.00260
G01 X-5.91772 Y4.99460
G01 X-5.91810 Y4.99005
G01 X-5.91957 Y4.98165
G01 X-5.91939 Y4.98160
G01 X-5.91957 Y4.98165
G01 X-5.92169 Y4.97404
G01 X-5.92435 Y4.96711
G01 X-5.92416 Y4.96703
G01 X-5.92435 Y4.96711
G01 X-5.92712 Y4.96133
G01 X-5.93128 Y4.95435
G01 X-5.93113 Y4.95425
G01 X-5.93128 Y4.95435
G01 X-5.93627 Y4.94761
G01 X-5.93965 Y4.94377
G01 X-5.93951 Y4.94365
G01 X-5.93965 Y4.94377
G01 X-5.94500 Y4.93852
G01 X-5.95109 Y4.93358
G01 X-5.95098 Y4.93344
G01 X-5.95109 Y4.93358
G01 X-5.95446 Y4.93123
G01 X-5.95892 Y4.92846
G01 X-5.96181 Y4.92690
G01 X-5.96175 Y4.92679
G01 X-5.96181 Y4.92690
G01 X-5.96642 Y4.92465
G01 X-5.97149 Y4.92252
G01 X-5.97937 Y4.92014
G01 X-5.97934 Y4.92001
G01 X-5.97937 Y4.92014
G01 X-5.98297 Y4.91929
G01 X-5.98854 Y4.91830
G01 X-5.99465 Y4.91770
G01 X-6.00074 Y4.91438
G01 X-6.00909 Y4.91026
G01 X-6.03671 Y4.89771
G01 X-6.05535 Y4.88882
G01 X-6.06302 Y4.88425
G01 X-6.06975 Y4.87839
G01 X-6.08296 Y4.86451
G01 X-6.09552 Y4.84972
G01 X-6.10745 Y4.83403
G01 X-6.11877 Y4.81747
G01 X-6.12948 Y4.80004
G01 X-6.13862 Y4.78366
G01 X-6.15703 Y4.74531
G01 X-6.15852 Y4.74187
G01 X-6.17485 Y4.69953
G01 X-6.18914 Y4.65383
G01 X-6.20094 Y4.60718
G01 X-6.21177 Y4.55326
G01 X-6.26020 Y4.27860
G01 X-6.27449 Y4.20525
G01 X-6.29207 Y4.12880
G01 X-6.31303 Y4.04881
G01 X-6.33736 Y3.96530
G01 X-6.36509 Y3.87828
G01 X-6.39620 Y3.78778
G01 X-6.43071 Y3.69380
G01 X-6.46870 Y3.59615
G01 X-6.68567 Y3.05279
G01 X-6.60154 Y4.69365
G01 X-6.60104 Y4.73340
G01 X-6.60117 Y4.73759
G01 X-6.60381 Y4.77392
G01 X-6.60664 Y4.79487
G01 X-6.61025 Y4.81442
G01 X-6.61475 Y4.83364
G01 X-6.62014 Y4.85253
G01 X-6.73059 Y5.20287
G01 X-6.73457 Y5.21709
G01 X-6.73733 Y5.23063
G01 X-6.73914 Y5.24434
G01 X-6.74003 Y5.25912
G01 X-6.74753 Y5.52943
G01 X-6.75081 Y5.59847
G01 X-6.75690 Y5.67321
G01 X-6.76579 Y5.75372
G01 X-6.77747 Y5.84002
G01 X-6.79177 Y5.93124
G01 X-6.80916 Y6.03014
G01 X-6.82918 Y6.13400
G01 X-6.85197 Y6.24376
G01 X-6.87753 Y6.35941
G01 X-6.90576 Y6.48048
G01 X-6.93688 Y6.60801
G01 X-6.97079 Y6.74147
G01 X-7.00747 Y6.88086
G01 X-7.04702 Y7.02652
G01 X-7.08916 Y7.17743
G01 X-7.13022 Y7.32082
G01 X-7.13224 Y7.32082
G01 X-7.13022 Y7.32082
G01 X-7.09602 Y7.43962
G01 X-7.05709 Y7.57998
G01 X-7.06315 Y7.58659
G01 X-7.05709 Y7.57998
G01 X-6.98982 Y7.59245
G01 X-6.89235 Y7.60838
G01 X-6.79490 Y7.62218
G01 X-6.69745 Y7.63385
G01 X-6.60001 Y7.64340
G01 X-6.50258 Y7.65082
G01 X-6.40515 Y7.65611
G01 X-6.30772 Y7.65928
G01 X-6.21030 Y7.66033
G01 X-6.11288 Y7.65924
G01 X-6.01545 Y7.65603
G01 X-5.91802 Y7.65069
G01 X-5.82059 Y7.64323
G01 X-5.72315 Y7.63364
G01 X-5.62570 Y7.62192
G01 X-5.61920 Y7.67150
G01 X-5.52069 Y7.65750
G01 X-5.74299 Y5.74299
G01 X-5.74806 Y5.70416
G01 X-5.75414 Y5.66633
G01 X-5.83249 Y5.22197
G01 X-5.83079 Y5.18568
G01 X-5.83069 Y5.18105
G01 X-5.83081 Y5.15265
G01 X-5.83224 Y5.12384
G01 X-5.83489 Y5.09741
G01 X-5.83549 Y5.09291
G01 X-5.83924 Y5.06981
G01 X-5.84346 Y5.05024
G01 X-5.84819 Y5.03257
G01 X-5.85293 Y5.01774
G01 X-5.85818 Y5.00363
G01 X-5.86401 Y4.99001
G01 X-5.87017 Y4.97739
G01 X-5.87661 Y4.96569
G01 X-5.88128 Y4.95799
G01 X-5.88765 Y4.94839
G01 X-5.89486 Y4.93855
G01 X-5.90450 Y4.92683
G01 X-5.91189 Y4.91877
G01 X-5.91919 Y4.91148
G01 X-5.92756 Y4.90386
G01 X-5.93424 Y4.89826
G01 X-5.94649 Y4.88898
G01 X-5.95600 Y4.88255
G01 X-5.96359 Y4.87785
G01 X-5.97811 Y4.86979
G01 X-5.98757 Y4.86514
G01 X-6.01576 Y4.85231
G01 X-6.03368 Y4.84376
G01 X-6.04497 Y4.83200
G01 X-6.05582 Y4.81932
G01 X-6.06625 Y4.80570
G01 X-6.07625 Y4.79117
G01 X-6.08581 Y4.77571
G01 X-6.09494 Y4.75932
G01 X-6.11191 Y4.72377
G01 X-6.12715 Y4.68452
G01 X-6.14067 Y4.64157
G01 X-6.15246 Y4.59492
G01 X-6.16253 Y4.54458
G01 X-6.21104 Y4.26947
G01 X-6.22559 Y4.19486
G01 X-6.24352 Y4.11686
G01 X-6.26484 Y4.03548
G01 X-6.28954 Y3.95072
G01 X-6.31762 Y3.86257
G01 X-6.34909 Y3.77103
G01 X-6.38394 Y3.67612
G01 X-6.42218 Y3.57782
G01 X-6.75104 Y2.75425
G01 X-6.84909 Y2.42050
G04 P0 ( dwell for no time -- G64 should not smooth over this point )
G00 Z0.08000 ( retract )

G00 X-7.40254 Y2.53210 ( rapid move to begin. )
G01 F3.00000
( Mill infeed pass 1/1 )
G01 Z-0.00800
G04 P0 ( dwell for no time -- G64 should not smooth over this point )
G01 F6.00000
G01 X-7.40254 Y2.53210
G01 X-7.42519 Y3.47051
G01 X-7.43004 Y3.61374
G01 X-7.43750 Y3.74931
G01 X-7.44217 Y3.81384
G01 X-7.44750 Y3.87676
G01 X-7.45347 Y3.93779
G01 X-7.46008 Y3.99693
G01 X-7.46732 Y4.05416
G01 X-7.47519 Y4.10948
G01 X-7.48368 Y4.16289
G01 X-7.49278 Y4.21438
G01 X-7.50249 Y4.26393
G01 X-7.51281 Y4.31154
G01 X-7.52371 Y4.35721
G01 X-7.53535 Y4.40152
G01 X-7.56972 Y4.52643
G01 X-7.58061 Y4.56880
G01 X-7.59048 Y4.61361
G01 X-7.59842 Y4.65763
G01 X-7.60441 Y4.70088
G01 X-7.60841 Y4.74336
G01 X-7.61039 Y4.78509
G01 X-7.61049 Y4.79008
G01 X-7.61029 Y4.82606
G01 X-7.61013 Y4.83135
G01 X-7.60789 Y4.86902
G01 X-7.58257 Y5.16277
G01 X-7.57840 Y5.20108
G01 X-7.57175 Y5.24456
G01 X-7.52844 Y5.49017
G01 X-7.52242 Y5.52745
G01 X-7.51739 Y5.56527
G01 X-7.51325 Y5.60438
G01 X-7.51001 Y5.64476
G01 X-7.50766 Y5.68641
G01 X-7.50623 Y5.72933
G01 X-7.50572 Y5.77352
G01 X-7.50615 Y5.81945
G01 X-7.52030 Y6.55755
G01 X-7.49027 Y6.63774
G01 X-7.52030 Y6.55755
G01 X-7.66346 Y6.39969
G01 X-7.80148 Y6.24710
G01 X-7.85053 Y6.19394
G01 X-7.89802 Y6.14472
G01 X-7.94942 Y6.09379
G01 X-8.00186 Y6.04448
G01 X-8.05855 Y5.99406
G01 X-8.09885 Y5.95933
G01 X-8.10061 Y5.96047
G01 X-8.09885 Y5.95933
G01 X-8.11589 Y5.90307
G01 X-8.12869 Y5.85998
G01 X-8.13828 Y5.82704
G01 X-8.15485 Y5.76838
G01 X-8.16901 Y5.71621
G01 X-8.18093 Y5.67023
G01 X-8.19136 Y5.62788
G01 X-8.20014 Y5.59006
G01 X-8.20778 Y5.55485
G01 X-8.21432 Y5.52231
G01 X-8.21671 Y5.50968
G01 X-8.22162 Y5.48189
G01 X-8.22583 Y5.45528
G01 X-8.22807 Y5.43959
G01 X-8.23105 Y5.41612
G01 X-8.23340 Y5.39365
G01 X-8.23558 Y5.36641
G01 X-8.23658 Y5.34689
G01 X-8.23773 Y5.31155
G01 X-8.23905 Y5.28380
G01 X-8.24035 Y5.26275
G01 X-8.24299 Y5.22903
G01 X-8.24548 Y5.20322
G01 X-8.24935 Y5.16961
G01 X-8.25260 Y5.14542
G01 X-8.25530 Y5.12722
G01 X-8.25815 Y5.10942
G01 X-8.26128 Y5.09134
G01 X-8.26425 Y5.07533
G01 X-8.29330 Y5.02500
G01 X-8.29516 Y5.02146
G01 X-8.29536 Y5.02155
G01 X-8.29516 Y5.02146
G01 X-8.29727 Y5.01628
G01 X-8.29871 Y5.01129
G01 X-8.29900 Y5.01136
G01 X-8.29871 Y5.01129
G01 X-8.29966 Y5.00578
G01 X-8.30000 Y5.00020
G01 X-8.30028 Y5.00020
G01 X-8.30000 Y5.00020
G01 X-8.29975 Y4.99501
G01 X-8.29904 Y4.99027
G01 X-8.29929 Y4.99022
G01 X-8.29904 Y4.99027
G01 X-8.29777 Y4.98523
G01 X-8.29614 Y4.98073
G01 X-8.29642 Y4.98060
G01 X-8.29614 Y4.98073
G01 X-8.29350 Y4.97535
G01 X-8.26425 Y4.92467
G01 X-8.26116 Y4.90801
G01 X-8.25804 Y4.88992
G01 X-8.25519 Y4.87211
G01 X-8.25163 Y4.84767
G01 X-8.24920 Y4.82916
G01 X-8.24693 Y4.81015
G01 X-8.24345 Y4.77611
G01 X-8.24124 Y4.74960
G01 X-8.23897 Y4.71480
G01 X-8.23768 Y4.68706
G01 X-8.23655 Y4.65240
G01 X-8.23512 Y4.62685
G01 X-8.23333 Y4.60557
G01 X-8.23185 Y4.59111
G01 X-8.22786 Y4.55885
G01 X-8.22413 Y4.53360
G01 X-8.21952 Y4.50589
G01 X-8.21428 Y4.47746
G01 X-8.21059 Y4.45883
G01 X-8.20432 Y4.42899
G01 X-8.19499 Y4.38747
G01 X-8.18542 Y4.34773
G01 X-8.18006 Y4.32634
G01 X-8.16767 Y4.27875
G01 X-8.15330 Y4.22602
G01 X-8.13677 Y4.16776
G01 X-8.11711 Y4.10088
G01 X-8.09429 Y4.02563
G01 X-8.06651 Y3.93657
G01 X-8.05544 Y3.90168
G01 X-8.02136 Y3.79572
G01 X-7.99555 Y3.71411
G01 X-7.98279 Y3.67288
G01 X-7.95331 Y3.57554
G01 X-7.94074 Y3.53308
G01 X-7.90801 Y3.41999
G01 X-7.89585 Y3.37699
G01 X-7.85907 Y3.24383
G01 X-7.84651 Y3.19728
G01 X-7.80523 Y3.04041
G01 X-7.77804 Y2.93401
G01 X-7.74618 Y2.80777
G01 X-7.71125 Y2.67082
G01 X-7.71304 Y2.66976
G01 X-7.71125 Y2.67082
G01 X-7.67969 Y2.64066
G01 X-7.62661 Y2.59110
G01 X-7.57231 Y2.54150
G01 X-7.54784 Y2.51963
G01 X-7.54928 Y2.51540
G01 X-7.54784 Y2.51963
G01 X-7.51997 Y2.52155
G01 X-7.45078 Y2.52734
G01 X-7.40254 Y2.53210
G01 X-7.38889 Y2.52003
G01 X-7.37630 Y2.48445
G01 X-7.35145 Y2.48727
G01 X-7.33786 Y2.47530
G01 X-7.35145 Y2.48727
G01 X-7.37521 Y3.47196
G01 X-7.38009 Y3.61596
G01 X-7.38760 Y3.75248
G01 X-7.39232 Y3.81775
G01 X-7.39771 Y3.88131
G01 X-7.40374 Y3.94300
G01 X-7.41043 Y4.00284
G01 X-7.41777 Y4.06082
G01 X-7.42574 Y4.11693
G01 X-7.43437 Y4.17117
G01 X-7.44363 Y4.22354
G01 X-7.45352 Y4.27403
G01 X-7.46405 Y4.32264
G01 X-7.47521 Y4.36937
G01 X-7.48706 Y4.41451
G01 X-7.52129 Y4.53888
G01 X-7.53218 Y4.58125
G01 X-7.54164 Y4.62430
G01 X-7.54920 Y4.66643
G01 X-7.55487 Y4.70764
G01 X-7.55862 Y4.74794
G01 X-7.56044 Y4.78732
G01 X-7.56029 Y4.82579
G01 X-7.55807 Y4.86472
G01 X-7.53276 Y5.15848
G01 X-7.52870 Y5.19563
G01 X-7.52251 Y5.23588
G01 X-7.47914 Y5.48185
G01 X-7.47295 Y5.52017
G01 X-7.46774 Y5.55935
G01 X-7.46346 Y5.59974
G01 X-7.46012 Y5.64135
G01 X-7.45771 Y5.68418
G01 X-7.45624 Y5.72821
G01 X-7.45572 Y5.77346
G01 X-7.45615 Y5.82015
G01 X-7.47272 Y6.68430
G01 X-7.44269 Y6.76443
G01 X-7.47272 Y6.68430
G01 X-7.69688 Y6.43728
G01 X-7.83824 Y6.28099
G01 X-7.88573 Y6.22948
G01 X-7.93401 Y6.17943
G01 X-7.98458 Y6.12935
G01 X-8.03566 Y6.08132
G01 X-8.09178 Y6.03142
G01 X-8.14247 Y5.98771
G01 X-8.14423 Y5.98885
G01 X-8.14247 Y5.98771
G01 X-8.16380 Y5.91739
G01 X-8.17666 Y5.87408
G01 X-8.18632 Y5.84087
G01 X-8.20304 Y5.78172
G01 X-8.21086 Y5.75319
G01 X-8.22377 Y5.70451
G01 X-8.23476 Y5.66102
G01 X-8.23999 Y5.63951
G01 X-8.24892 Y5.60103
G01 X-8.25672 Y5.56511
G01 X-8.25978 Y5.55023
G01 X-8.26588 Y5.51875
G01 X-8.27094 Y5.49011
G01 X-8.27530 Y5.46258
G01 X-8.27885 Y5.43700
G01 X-8.28166 Y5.41340
G01 X-8.28317 Y5.39841
G01 X-8.28498 Y5.37666
G01 X-8.28625 Y5.35550
G01 X-8.28797 Y5.30679
G01 X-8.28898 Y5.28648
G01 X-8.29022 Y5.26635
G01 X-8.29284 Y5.23294
G01 X-8.29460 Y5.21431
G01 X-8.29669 Y5.19485
G01 X-8.29895 Y5.17594
G01 X-8.30137 Y5.15766
G01 X-8.30399 Y5.13959
G01 X-8.30681 Y5.12165
G01 X-8.30982 Y5.10394
G01 X-8.31292 Y5.08697
G01 X-8.31958 Y5.05380
G01 X-8.32205 Y5.03969
G01 X-8.32391 Y5.02433
G01 X-8.32467 Y5.01311
G01 X-8.32503 Y5.00046
G01 X-8.32466 Y4.98599
G01 X-8.32379 Y4.97477
G01 X-8.32224 Y4.96147
G01 X-8.31999 Y4.94831
G01 X-8.31281 Y4.91240
G01 X-8.30971 Y4.89542
G01 X-8.30670 Y4.87771
G01 X-8.30388 Y4.85970
G01 X-8.30119 Y4.84108
G01 X-8.29720 Y4.80961
G01 X-8.29511 Y4.79068
G01 X-8.29319 Y4.77103
G01 X-8.29159 Y4.75220
G01 X-8.28970 Y4.72571
G01 X-8.28789 Y4.69135
G01 X-8.28622 Y4.64387
G01 X-8.28498 Y4.62317
G01 X-8.28310 Y4.60077
G01 X-8.28156 Y4.58576
G01 X-8.27865 Y4.56142
G01 X-8.27513 Y4.53629
G01 X-8.27077 Y4.50891
G01 X-8.26567 Y4.48012
G01 X-8.26337 Y4.46795
G01 X-8.25959 Y4.44891
G01 X-8.25319 Y4.41842
G01 X-8.24368 Y4.37613
G01 X-8.23906 Y4.35664
G01 X-8.22853 Y4.31404
G01 X-8.22265 Y4.29117
G01 X-8.20944 Y4.24157
G01 X-8.19443 Y4.18755
G01 X-8.18481 Y4.15390
G01 X-8.16503 Y4.08659
G01 X-8.14209 Y4.01096
G01 X-8.11420 Y3.92153
G01 X-8.10308 Y3.88648
G01 X-8.06903 Y3.78064
G01 X-8.04322 Y3.69903
G01 X-8.03064 Y3.65840
G01 X-8.00117 Y3.56105
G01 X-7.98859 Y3.51858
G01 X-7.95604 Y3.40609
G01 X-7.94396 Y3.36338
G01 X-7.90726 Y3.23052
G01 X-7.89478 Y3.18426
G01 X-7.85374 Y3.02826
G01 X-7.82655 Y2.92187
G01 X-7.79465 Y2.79550
G01 X-7.75615 Y2.64456
G01 X-7.75793 Y2.64351
G01 X-7.75615 Y2.64456
G01 X-7.71402 Y2.60432
G01 X-7.66054 Y2.55437
G01 X-7.60583 Y2.50440
G01 X-7.56543 Y2.46830
G01 X-7.56685 Y2.46420
G01 X-7.56543 Y2.46830
G01 X-7.51617 Y2.47169
G01 X-7.44624 Y2.47755
G01 X-7.37630 Y2.48445
G01 X-7.37103 Y2.43473
G01 X-7.30036 Y2.44275
G01 X-7.32523 Y3.47341
G01 X-7.33014 Y3.61818
G01 X-7.33770 Y3.75566
G01 X-7.34248 Y3.82167
G01 X-7.34792 Y3.88585
G01 X-7.35402 Y3.94822
G01 X-7.36078 Y4.00876
G01 X-7.36821 Y4.06748
G01 X-7.37630 Y4.12437
G01 X-7.38506 Y4.17945
G01 X-7.39447 Y4.23270
G01 X-7.40455 Y4.28413
G01 X-7.41530 Y4.33374
G01 X-7.42671 Y4.38153
G01 X-7.43878 Y4.42749
G01 X-7.47286 Y4.55132
G01 X-7.48375 Y4.59369
G01 X-7.49279 Y4.63499
G01 X-7.49998 Y4.67523
G01 X-7.50533 Y4.71440
G01 X-7.50883 Y4.75251
G01 X-7.51049 Y4.78955
G01 X-7.51030 Y4.82552
G01 X-7.50826 Y4.86043
G01 X-7.48294 Y5.15419
G01 X-7.47900 Y5.19018
G01 X-7.47327 Y5.22719
G01 X-7.42983 Y5.47352
G01 X-7.42348 Y5.51289
G01 X-7.41809 Y5.55342
G01 X-7.41368 Y5.59510
G01 X-7.41024 Y5.63794
G01 X-7.40776 Y5.68194
G01 X-7.40626 Y5.72709
G01 X-7.40572 Y5.77340
G01 X-7.40616 Y5.82086
G01 X-7.42514 Y6.81099
G04 P0 ( dwell for no time -- G64 should not smooth over this point )
G00 Z0.08000 ( retract )

G00 X-7.18224 Y7.32086 ( rapid move to begin. )
G01 F3.00000
( Mill infeed pass 1/1 )
G01 Z-0.00800
G04 P0 ( dwell for no time -- G64 should not smooth over this point )
G01 F6.00000
G01 X-7.18224 Y7.32086
G01 X-7.25861 Y7.16085
G01 X-7.42514 Y6.81099
G01 X-7.56787 Y6.65395
G01 X-7.73393 Y6.47085
G01 X-7.87500 Y6.31488
G01 X-7.92249 Y6.26337
G01 X-7.97319 Y6.21091
G01 X-8.01973 Y6.16491
G01 X-8.06627 Y6.12110
G01 X-8.12500 Y6.06879
G01 X-8.18607 Y6.01612
G01 X-8.25097 Y5.99374
G01 X-8.30082 Y5.97696
G01 X-8.34636 Y5.96204
G01 X-8.37798 Y5.95195
G01 X-8.41207 Y5.94129
G01 X-8.45084 Y5.92954
G01 X-8.50314 Y5.91433
G01 X-8.53686 Y5.90499
G01 X-8.58344 Y5.89271
G01 X-8.62824 Y5.88171
G01 X-8.66870 Y5.87255
G01 X-8.69465 Y5.86705
G01 X-8.70874 Y5.86423
G01 X-8.74411 Y5.85759
G01 X-8.78091 Y5.85144
G01 X-8.81352 Y5.84670
G01 X-8.84524 Y5.84274
G01 X-8.85720 Y5.84142
G01 X-8.88109 Y5.83910
G01 X-8.91224 Y5.83668
G01 X-8.94175 Y5.83504
G01 X-8.97443 Y5.83399
G01 X-8.99165 Y5.83378
G01 X-9.01567 Y5.83384
G01 X-9.04471 Y5.83451
G01 X-9.06745 Y5.83549
G01 X-9.08582 Y5.83654
G01 X-9.11918 Y5.83912
G01 X-9.14988 Y5.84219
G01 X-9.18006 Y5.84584
G01 X-9.19468 Y5.84783
G01 X-9.21727 Y5.85117
G01 X-9.25464 Y5.85737
G01 X-9.29058 Y5.86409
G01 X-9.33039 Y5.87234
G01 X-9.35778 Y5.87846
G01 X-9.37324 Y5.88208
G01 X-9.41501 Y5.89232
G01 X-9.45590 Y5.90304
G04 P0 ( dwell for no time -- G64 should not smooth over this point )
G00 Z0.08000 ( retract )

G00 X-8.18607 Y6.01612 ( rapid move to begin. )
G01 F3.00000
( Mill infeed pass 1/1 )
G01 Z-0.00800
G04 P0 ( dwell for no time -- G64 should not smooth over this point )
G01 F6.00000
G01 X-8.18607 Y6.01612
G01 X-8.21170 Y5.93171
G01 X-8.22463 Y5.88819
G01 X-8.23437 Y5.85470
G01 X-8.25123 Y5.79506
G01 X-8.26567 Y5.74184
G01 X-8.27788 Y5.69474
G01 X-8.28331 Y5.67297
G01 X-8.29311 Y5.63207
G01 X-8.30144 Y5.59511
G01 X-8.30566 Y5.57537
G01 X-8.31251 Y5.54126
G01 X-8.31820 Y5.51036
G01 X-8.32026 Y5.49834
G01 X-8.32476 Y5.46988
G01 X-8.32845 Y5.44332
G01 X-8.33137 Y5.41871
G01 X-8.33295 Y5.40318
G01 X-8.33485 Y5.38033
G01 X-8.33619 Y5.35799
G01 X-8.33792 Y5.30917
G01 X-8.33891 Y5.28916
G01 X-8.34009 Y5.26994
G01 X-8.34152 Y5.25066
G01 X-8.34310 Y5.23224
G01 X-8.34489 Y5.21404
G01 X-8.34692 Y5.19566
G01 X-8.35093 Y5.16430
G01 X-8.35341 Y5.14713
G01 X-8.35614 Y5.12980
G01 X-8.35905 Y5.11270
G01 X-8.36204 Y5.09633
G01 X-8.36930 Y5.06006
G01 X-8.37143 Y5.04743
G01 X-8.37340 Y5.03167
G01 X-8.37459 Y5.01603
G01 X-8.37500 Y5.00097
G01 X-8.37469 Y4.98597
G01 X-8.37361 Y4.97045
G01 X-8.37175 Y4.95475
G01 X-8.36918 Y4.93931
G01 X-8.36193 Y4.90306
G01 X-8.35894 Y4.88669
G01 X-8.35604 Y4.86958
G01 X-8.35331 Y4.85218
G01 X-8.35076 Y4.83448
G01 X-8.34840 Y4.81657
G01 X-8.34628 Y4.79877
G01 X-8.34430 Y4.78014
G01 X-8.34252 Y4.76125
G01 X-8.34000 Y4.72873
G01 X-8.33880 Y4.70893
G01 X-8.33785 Y4.68933
G01 X-8.33648 Y4.64849
G01 X-8.33536 Y4.62721
G01 X-8.33286 Y4.59596
G01 X-8.33023 Y4.57113
G01 X-8.32824 Y4.55503
G01 X-8.32459 Y4.52894
G01 X-8.32009 Y4.50065
G01 X-8.31484 Y4.47102
G01 X-8.31245 Y4.45844
G01 X-8.30545 Y4.42374
G01 X-8.29805 Y4.38957
G01 X-8.29238 Y4.36479
G01 X-8.28250 Y4.32373
G01 X-8.27104 Y4.27858
G01 X-8.25768 Y4.22843
G01 X-8.24254 Y4.17392
G01 X-8.23285 Y4.14004
G01 X-8.22472 Y4.11208
G01 X-8.20421 Y4.04324
G01 X-8.17987 Y3.96388
G01 X-8.16188 Y3.90650
G01 X-8.15071 Y3.87127
G01 X-8.11671 Y3.76556
G01 X-8.09090 Y3.68395
G01 X-8.07850 Y3.64391
G01 X-8.04902 Y3.54656
G01 X-8.03662 Y3.50468
G01 X-8.00407 Y3.39219
G01 X-7.99207 Y3.34977
G01 X-7.95546 Y3.21721
G01 X-7.94306 Y3.17124
G01 X-7.90209 Y3.01553
G01 X-7.87500 Y2.90953
G01 X-7.83015 Y2.73217
G01 X-7.80104 Y2.61830
G04 P0 ( dwell for no time -- G64 should not smooth over this point )
G00 Z0.08000 ( retract )

G00 X-8.77057 Y4.73569 ( rapid move to begin. )
G01 F3.00000
( Mill infeed pass 1/1 )
G01 Z-0.00800
G04 P0 ( dwell for no time -- G64 should not smooth over this point )
G01 F6.00000
G01 X-8.77057 Y4.73569
G01 X-8.77716 Y4.73011
G01 X-8.78400 Y4.72461
G01 X-8.79066 Y4.71951
G01 X-8.79745 Y4.71457
G01 X-8.80435 Y4.70980
G01 X-8.81169 Y4.70498
G01 X-8.81881 Y4.70055
G01 X-8.82605 Y4.69629
G01 X-8.83338 Y4.69221
G01 X-8.84082 Y4.68830
G01 X-8.84835 Y4.68457
G01 X-8.85596 Y4.68102
G01 X-8.86366 Y4.67765
G01 X-8.87143 Y4.67447
G01 X-8.87928 Y4.67148
G01 X-8.88719 Y4.66868
G01 X-8.89553 Y4.66596
G01 X-8.90356 Y4.66355
G01 X-8.91166 Y4.66133
G01 X-8.91982 Y4.65931
G01 X-8.92802 Y4.65749
G01 X-8.93624 Y4.65586
G01 X-8.94489 Y4.65437
G01 X-8.95319 Y4.65315
G01 X-8.96153 Y4.65212
G01 X-8.96989 Y4.65130
G01 X-8.97826 Y4.65068
G01 X-8.98665 Y4.65026
G01 X-8.99505 Y4.65004
G01 X-9.00344 Y4.65002
G01 X-9.01221 Y4.65022
G01 X-9.02059 Y4.65061
G01 X-9.02897 Y4.65120
G01 X-9.03733 Y4.65200
G01 X-9.04567 Y4.65300
G01 X-9.05399 Y4.65419
G01 X-9.06227 Y4.65559
G01 X-9.07052 Y4.65718
G01 X-9.07872 Y4.65897
G01 X-9.08687 Y4.66096
G01 X-9.09535 Y4.66324
G01 X-9.10339 Y4.66562
G01 X-9.11138 Y4.66820
G01 X-9.11931 Y4.67097
G01 X-9.12717 Y4.67393
G01 X-9.13495 Y4.67707
G01 X-9.14301 Y4.68055
G01 X-9.15062 Y4.68407
G01 X-9.15816 Y4.68778
G01 X-9.16560 Y4.69166
G01 X-9.18004 Y4.69987
G01 X-8.99738 Y4.91756
G01 X-8.99454 Y4.91770
G01 X-8.98828 Y4.91836
G01 X-8.77057 Y4.73569
G01 X-8.85223 Y4.73894
G01 X-8.86356 Y4.73283
G01 X-8.87001 Y4.72963
G01 X-8.88313 Y4.72370
G01 X-8.88980 Y4.72098
G01 X-8.90329 Y4.71602
G01 X-8.91734 Y4.71162
G01 X-8.93127 Y4.70798
G01 X-8.94534 Y4.70503
G01 X-8.95988 Y4.70270
G01 X-8.97419 Y4.70112
G01 X-8.98137 Y4.70059
G01 X-8.99576 Y4.70004
G01 X-9.01048 Y4.70019
G01 X-9.02483 Y4.70104
G01 X-9.03915 Y4.70257
G01 X-9.05337 Y4.70479
G01 X-9.06748 Y4.70769
G01 X-9.08174 Y4.71136
G01 X-9.08862 Y4.71339
G01 X-9.10019 Y4.71725
G01 X-8.98706 Y4.85207
G01 X-8.85223 Y4.73894
G01 X-8.94939 Y4.75519
G01 X-8.96067 Y4.75312
G01 X-8.96657 Y4.75226
G01 X-8.97849 Y4.75094
G01 X-8.99047 Y4.75019
G01 X-8.99647 Y4.75003
G01 X-9.00732 Y4.75013
G01 X-8.98090 Y4.78163
G01 X-8.94939 Y4.75519
G04 P0 ( dwell for no time -- G64 should not smooth over this point )
G00 Z0.08000 ( retract )

G00 X-9.08164 Y4.98827 ( rapid move to begin. )
G01 F3.00000
( Mill infeed pass 1/1 )
G01 Z-0.00800
G04 P0 ( dwell for no time -- G64 should not smooth over this point )
G01 F6.00000
G01 X-9.08164 Y4.98827
G01 X-9.08232 Y4.99474
G01 X-9.08244 Y4.99738
G01 X-9.30013 Y5.18004
G01 X-9.30830 Y5.16568
G01 X-9.31218 Y5.15824
G01 X-9.31589 Y5.15070
G01 X-9.31942 Y5.14307
G01 X-9.32276 Y5.13537
G01 X-9.32591 Y5.12759
G01 X-9.32901 Y5.11938
G01 X-9.33177 Y5.11146
G01 X-9.33435 Y5.10347
G01 X-9.33674 Y5.09542
G01 X-9.33893 Y5.08731
G01 X-9.34093 Y5.07915
G01 X-9.34273 Y5.07095
G01 X-9.34433 Y5.06270
G01 X-9.34574 Y5.05443
G01 X-9.34699 Y5.04575
G01 X-9.34799 Y5.03742
G01 X-9.34879 Y5.02905
G01 X-9.34938 Y5.02069
G01 X-9.34979 Y5.01192
G01 X-9.34998 Y5.00354
G01 X-9.34996 Y4.99514
G01 X-9.34975 Y4.98674
G01 X-9.34933 Y4.97835
G01 X-9.34871 Y4.96997
G01 X-9.34788 Y4.96162
G01 X-9.34686 Y4.95328
G01 X-9.34564 Y4.94497
G01 X-9.34422 Y4.93669
G01 X-9.34260 Y4.92844
G01 X-9.34079 Y4.92024
G01 X-9.33878 Y4.91210
G01 X-9.33647 Y4.90364
G01 X-9.33406 Y4.89560
G01 X-9.33146 Y4.88761
G01 X-9.32867 Y4.87969
G01 X-9.32569 Y4.87184
G01 X-9.32252 Y4.86406
G01 X-9.31916 Y4.85636
G01 X-9.31562 Y4.84874
G01 X-9.31190 Y4.84121
G01 X-9.30800 Y4.83377
G01 X-9.30392 Y4.82643
G01 X-9.29967 Y4.81918
G01 X-9.29525 Y4.81205
G01 X-9.29045 Y4.80471
G01 X-9.28568 Y4.79781
G01 X-9.28075 Y4.79101
G01 X-9.27565 Y4.78433
G01 X-9.27040 Y4.77778
G01 X-9.26430 Y4.77058
G01 X-9.08164 Y4.98827
G01 X-9.14793 Y4.98706
G01 X-9.26106 Y4.85223
G01 X-9.26734 Y4.86390
G01 X-9.27053 Y4.87035
G01 X-9.27644 Y4.88348
G01 X-9.28171 Y4.89688
G01 X-9.28633 Y4.91052
G01 X-9.29038 Y4.92467
G01 X-9.29366 Y4.93867
G01 X-9.29626 Y4.95283
G01 X-9.29818 Y4.96710
G01 X-9.29889 Y4.97426
G01 X-9.29978 Y4.98864
G01 X-9.29998 Y5.00303
G01 X-9.29982 Y5.01021
G01 X-9.29896 Y5.02490
G01 X-9.29742 Y5.03920
G01 X-9.29514 Y5.05374
G01 X-9.29222 Y5.06784
G01 X-9.28863 Y5.08178
G01 X-9.28658 Y5.08869
G01 X-9.28275 Y5.10019
G01 X-9.14793 Y4.98706
G01 X-9.21837 Y4.98090
G01 X-9.24987 Y5.00733
G01 X-9.24996 Y4.99653
G01 X-9.24981 Y4.99053
G01 X-9.24907 Y4.97855
G01 X-9.24775 Y4.96663
G01 X-9.24688 Y4.96069
G01 X-9.24481 Y4.94939
G01 X-9.21837 Y4.98090
G04 P0 ( dwell for no time -- G64 should not smooth over this point )
G00 Z0.08000 ( retract )

G00 X-8.99267 Y5.24987 ( rapid move to begin. )
G01 F3.00000
( Mill infeed pass 1/1 )
G01 Z-0.00800
G04 P0 ( dwell for no time -- G64 should not smooth over this point )
G01 F6.00000
G01 X-8.99267 Y5.24987
G01 X-9.01910 Y5.21837
G01 X-9.05061 Y5.24481
G01 X-9.03949 Y5.24685
G01 X-9.03359 Y5.24772
G01 X-9.02142 Y5.24907
G01 X-9.00916 Y5.24982
G01 X-9.00316 Y5.24997
G01 X-8.99267 Y5.24987
G01 X-8.89981 Y5.28275
G01 X-9.01294 Y5.14793
G01 X-9.14777 Y5.26106
G01 X-9.13630 Y5.26724
G01 X-9.12985 Y5.27043
G01 X-9.11673 Y5.27635
G01 X-9.10333 Y5.28163
G01 X-9.08939 Y5.28636
G01 X-9.07557 Y5.29032
G01 X-9.06155 Y5.29361
G01 X-9.04739 Y5.29622
G01 X-9.03280 Y5.29819
G01 X-9.01816 Y5.29944
G01 X-9.00379 Y5.29997
G01 X-8.98939 Y5.29981
G01 X-8.97502 Y5.29895
G01 X-8.96785 Y5.29826
G01 X-8.95358 Y5.29638
G01 X-8.93941 Y5.29381
G01 X-8.93238 Y5.29227
G01 X-8.91845 Y5.28870
G01 X-8.91122 Y5.28655
G01 X-8.89981 Y5.28275
G01 X-8.81996 Y5.30013
G01 X-9.00262 Y5.08244
G01 X-9.00546 Y5.08230
G01 X-9.01172 Y5.08163
G01 X-9.22942 Y5.26431
G01 X-9.22242 Y5.27023
G01 X-9.21587 Y5.27549
G01 X-9.20920 Y5.28059
G01 X-9.20242 Y5.28552
G01 X-9.19520 Y5.29051
G01 X-9.18818 Y5.29510
G01 X-9.18104 Y5.29953
G01 X-9.17380 Y5.30379
G01 X-9.16646 Y5.30788
G01 X-9.15902 Y5.31178
G01 X-9.15150 Y5.31551
G01 X-9.14388 Y5.31905
G01 X-9.13618 Y5.32242
