( pcb2gcode 2.2.1 )
( Software-independent Gcode )

G94 ( Inches per minute feed rate. )
G20 ( Units == INCHES. )

G90 ( Absolute coordinates. )
G00 S30000 ( RPM spindle speed. )
G64 P0.00040 ( set maximum deviation from commanded toolpath )
G01 F6.00000 ( Feedrate. )


G00 Z1.00000 (Retract to tool change height)
T0
M5      (Spindle stop.)
G04 P1.00000 (Wait for spindle to stop)
(MSG, Change tool bit to mill diameter 0.10000in)
M6      (Tool change.)
M0      (Temporary machine stop.)
M3 ( Spindle on clockwise. )
G04 P1.00000 (Wait for spindle to get up to speed)
G04 P0 ( dwell for no time -- G64 should not smooth over this point )
G00 Z0.08000 ( retract )

G00 X0.48250 Y-0.48250 ( rapid move to begin. )
G01 F3.00000
( Mill infeed pass 1/1 )
G01 Z-0.00800
G04 P0 ( dwell for no time -- G64 should not smooth over this point )
G01 F6.00000
G01 X0.48250 Y-0.48250
G01 X0.48250 Y10.48250
G01 X-10.48250 Y10.48250
G01 X-10.48250 Y-0.48250
G01 X0.48250 Y-0.48250
G01 X0.43250 Y-0.43250
G01 X0.43250 Y10.43250
G01 X0.44714 Y10.44714
G01 X0.43250 Y10.43250
G01 X-10.43250 Y10.43250
G01 X-10.44714 Y10.44714
G01 X-10.43250 Y10.43250
G01 X-10.43250 Y-0.43250
G01 X-10.44714 Y-0.44714
G01 X-10.43250 Y-0.43250
G01 X0.43250 Y-0.43250
G01 X0.38250 Y-0.38250
G01 X0.38250 Y10.38250
G01 X0.39714 Y10.39714
G01 X0.38250 Y10.38250
G01 X-10.38250 Y10.38250
G01 X-10.39714 Y10.39714
G01 X-10.38250 Y10.38250
G01 X-10.38250 Y-0.38250
G01 X-10.39714 Y-0.39714
G01 X-10.38250 Y-0.38250
G01 X0.38250 Y-0.38250
G04 P0 ( dwell for no time -- G64 should not smooth over this point )
G00 Z0.08000 ( retract )

G00 X-1.32026 Y3.77724 ( rapid move to begin. )
G01 F3.00000
( Mill infeed pass 1/1 )
G01 Z-0.00800
G04 P0 ( dwell for no time -- G64 should not smooth over this point )
G01 F6.00000
G01 X-1.32026 Y3.77724
G01 X-1.33194 Y3.73189
G01 X-1.34655 Y3.68000
G01 X-1.36243 Y3.62807
G01 X-1.37959 Y3.57608
G01 X-1.39800 Y3.52406
G01 X-1.41769 Y3.47199
G01 X-1.43884 Y3.41940
G01 X-1.45909 Y3.37051
G01 X-1.48988 Y3.29893
G01 X-1.52273 Y3.22791
G01 X-1.55793 Y3.15679
G01 X-1.59545 Y3.08559
G01 X-1.63532 Y3.01430
G01 X-1.67755 Y2.94292
G01 X-1.72212 Y2.87145
G01 X-1.76906 Y2.79991
G01 X-1.81835 Y2.72827
G01 X-1.87002 Y2.65656
G01 X-1.92406 Y2.58476
G01 X-1.98046 Y2.51290
G01 X-2.03925 Y2.44096
G01 X-2.10042 Y2.36896
G01 X-2.16396 Y2.29688
G01 X-2.20167 Y2.25562
G01 X-2.19986 Y2.25165
G01 X-2.20167 Y2.25562
G01 X-2.26713 Y2.25409
G01 X-2.37397 Y2.25435
G01 X-2.48082 Y2.25736
G01 X-2.58768 Y2.26314
G01 X-2.69455 Y2.27166
G01 X-2.80144 Y2.28294
G01 X-2.90835 Y2.29699
G01 X-3.01530 Y2.31379
G01 X-3.12226 Y2.33336
G01 X-3.22927 Y2.35570
G01 X-3.33631 Y2.38081
G01 X-3.44341 Y2.40868
G01 X-3.55053 Y2.43934
G01 X-3.65772 Y2.47277
G01 X-3.76496 Y2.50897
G01 X-3.77833 Y2.51384
G01 X-3.79806 Y2.50450
G01 X-3.77833 Y2.51384
G01 X-3.67901 Y2.77839
G01 X-3.63527 Y2.89727
G01 X-3.59388 Y3.01459
G01 X-3.55531 Y3.12919
G01 X-3.51955 Y3.24105
G01 X-3.48614 Y3.35186
G01 X-3.45601 Y3.45840
G01 X-3.42920 Y3.56034
G01 X-3.40473 Y3.66138
G01 X-3.38263 Y3.76193
G01 X-3.36384 Y3.85780
G01 X-3.34832 Y3.94846
G01 X-3.33522 Y4.03885
G01 X-3.32498 Y4.12662
G01 X-3.31763 Y4.21180
G01 X-3.31316 Y4.29437
G01 X-3.31161 Y4.37626
G01 X-3.31161 Y4.44634
G01 X-3.31188 Y4.45367
G01 X-3.32517 Y4.63009
G01 X-3.33523 Y4.75357
G01 X-3.34545 Y4.86862
G01 X-3.35490 Y4.96603
G01 X-3.36509 Y5.06308
G01 X-3.37715 Y5.16988
G01 X-3.39366 Y5.30687
G01 X-3.39737 Y5.33931
G01 X-3.40007 Y5.36865
G01 X-3.40004 Y5.65206
G01 X-3.39553 Y5.70835
G01 X-3.36559 Y6.04429
G01 X-3.29695 Y6.84170
G01 X-3.25044 Y7.39351
G01 X-3.26198 Y7.40557
G01 X-3.25044 Y7.39351
G01 X-3.19977 Y7.39592
G01 X-3.14469 Y7.39777
G01 X-3.13531 Y7.40988
G01 X-3.14469 Y7.39777
G01 X-3.10117 Y7.19759
G01 X-3.08938 Y7.14209
G01 X-2.86282 Y6.07003
G01 X-2.84032 Y5.95793
G01 X-2.78885 Y5.68459
G01 X-2.77812 Y5.62881
G01 X-2.77067 Y5.58816
G01 X-2.76422 Y5.54846
G01 X-2.75197 Y5.46791
G01 X-2.73883 Y5.38464
G01 X-2.73446 Y5.35464
G01 X-2.73097 Y5.32523
G01 X-2.72257 Y5.24914
G01 X-2.72080 Y5.23848
G01 X-2.71319 Y5.20425
G01 X-2.69826 Y5.14223
G01 X-2.68722 Y5.10084
G01 X-2.68574 Y5.09581
G01 X-2.67204 Y5.05363
G01 X-2.65271 Y4.99904
G01 X-2.63968 Y4.96491
G01 X-2.63768 Y4.96008
G01 X-2.62305 Y4.92722
G01 X-2.59918 Y4.87718
G01 X-2.58522 Y4.84965
G01 X-2.58271 Y4.84503
G01 X-2.56741 Y4.81856
G01 X-2.53932 Y4.77273
G01 X-2.52440 Y4.74968
G01 X-2.52145 Y4.74540
G01 X-2.50538 Y4.72331
G01 X-2.47329 Y4.68149
G01 X-2.45715 Y4.66151
G01 X-2.45379 Y4.65757
G01 X-2.43660 Y4.63851
G01 X-2.40061 Y4.60059
G01 X-2.38273 Y4.58267
G01 X-2.37895 Y4.57909
G01 X-2.36011 Y4.56217
G01 X-2.32025 Y4.52811
G01 X-2.29985 Y4.51156
G01 X-2.29570 Y4.50838
G01 X-2.27432 Y4.49289
G01 X-2.23051 Y4.46279
G01 X-2.20647 Y4.44715
G01 X-2.20202 Y4.44443
G01 X-2.17918 Y4.43125
G01 X-2.13015 Y4.40451
G01 X-2.07629 Y4.37408
G01 X-2.05294 Y4.36020
G01 X-2.02946 Y4.34483
G01 X-1.95056 Y4.29090
G01 X-1.92106 Y4.27001
G01 X-1.89108 Y4.24732
G01 X-1.73675 Y4.12688
G01 X-1.69359 Y4.09246
G01 X-1.64932 Y4.05570
G01 X-1.32026 Y3.77724
G01 X-1.31166 Y3.77997
G01 X-1.27002 Y3.77183
G01 X-1.26448 Y3.79554
G01 X-1.25631 Y3.79824
G01 X-1.26448 Y3.79554
G01 X-1.61720 Y4.09402
G01 X-1.66203 Y4.13125
G01 X-1.70579 Y4.16613
G01 X-1.86061 Y4.28697
G01 X-1.89152 Y4.31036
G01 X-1.92200 Y4.33194
G01 X-2.00166 Y4.38640
G01 X-2.02647 Y4.40263
G01 X-2.05121 Y4.41733
G01 X-2.10573 Y4.44814
G01 X-2.15419 Y4.47455
G01 X-2.17925 Y4.48909
G01 X-2.20219 Y4.50400
G01 X-2.24707 Y4.53485
G01 X-2.26840 Y4.55042
G01 X-2.28777 Y4.56613
G01 X-2.32763 Y4.60018
G01 X-2.34738 Y4.61803
G01 X-2.36435 Y4.63501
G01 X-2.40034 Y4.67293
G01 X-2.41830 Y4.69297
G01 X-2.43363 Y4.71193
G01 X-2.46572 Y4.75375
G01 X-2.48246 Y4.77691
G01 X-2.49669 Y4.79886
G01 X-2.52478 Y4.84469
G01 X-2.53939 Y4.87000
G01 X-2.55405 Y4.89870
G01 X-2.57792 Y4.94874
G01 X-2.59199 Y4.98038
G01 X-2.60558 Y5.01574
G01 X-2.62491 Y5.07032
G01 X-2.63817 Y5.11121
G01 X-2.64995 Y5.15511
G01 X-2.66457 Y5.21593
G01 X-2.67199 Y5.24932
G01 X-2.67287 Y5.25465
G01 X-2.68128 Y5.33079
G01 X-2.68488 Y5.36119
G01 X-2.68939 Y5.39215
G01 X-2.70259 Y5.47575
G01 X-2.71482 Y5.55623
G01 X-2.72139 Y5.59667
G01 X-2.72898 Y5.63805
G01 X-2.73972 Y5.69384
G01 X-2.79124 Y5.96747
G01 X-2.81386 Y6.08015
G01 X-3.04047 Y7.15244
G01 X-3.05228 Y7.20810
G01 X-3.09438 Y7.40183
G01 X-3.10478 Y7.44874
G01 X-3.09553 Y7.46056
G01 X-3.10478 Y7.44874
G01 X-3.13299 Y7.44819
G01 X-3.20179 Y7.44588
G01 X-3.27058 Y7.44260
G01 X-3.29661 Y7.44100
G01 X-3.30800 Y7.45276
G01 X-3.29661 Y7.44100
G01 X-3.34676 Y6.84599
G01 X-3.41540 Y6.04868
G01 X-3.44535 Y5.71266
G01 X-3.44755 Y5.68634
G01 X-3.45004 Y5.65391
G01 X-3.45005 Y5.36641
G01 X-3.44711 Y5.33424
G01 X-3.44331 Y5.30089
G01 X-3.42682 Y5.16413
G01 X-3.41480 Y5.05769
G01 X-3.40463 Y4.96083
G01 X-3.39520 Y4.86360
G01 X-3.38505 Y4.74931
G01 X-3.37500 Y4.62603
G01 X-3.36174 Y4.45001
G01 X-3.36161 Y4.44634
G01 X-3.36162 Y4.37534
G01 X-3.36309 Y4.29704
G01 X-3.36744 Y4.21608
G01 X-3.37464 Y4.13240
G01 X-3.38470 Y4.04600
G01 X-3.39761 Y3.95689
G01 X-3.41313 Y3.86623
G01 X-3.43170 Y3.77157
G01 X-3.45332 Y3.67314
G01 X-3.47755 Y3.57306
G01 X-3.50461 Y3.47023
G01 X-3.53449 Y3.36464
G01 X-3.56694 Y3.25705
G01 X-3.60270 Y3.14513
G01 X-3.64104 Y3.03122
G01 X-3.68197 Y2.91517
G01 X-3.72594 Y2.79565
G01 X-3.84289 Y2.48411
G01 X-3.86204 Y2.47529
G01 X-3.84289 Y2.48411
G01 X-3.78150 Y2.46179
G01 X-3.67317 Y2.42521
G01 X-3.56486 Y2.39143
G01 X-3.45658 Y2.36045
G01 X-3.34832 Y2.33227
G01 X-3.24009 Y2.30688
G01 X-3.13187 Y2.28429
G01 X-3.02368 Y2.26450
G01 X-2.91549 Y2.24750
G01 X-2.80732 Y2.23329
G01 X-2.69917 Y2.22187
G01 X-2.59101 Y2.21324
G01 X-2.48287 Y2.20740
G01 X-2.37473 Y2.20435
G01 X-2.26661 Y2.20409
G01 X-2.17916 Y2.20614
G01 X-2.17735 Y2.20216
G01 X-2.17916 Y2.20614
G01 X-2.12675 Y2.26348
G01 X-2.06261 Y2.33624
G01 X-2.00083 Y2.40896
G01 X-1.94144 Y2.48165
G01 X-1.88441 Y2.55429
G01 X-1.82976 Y2.62691
G01 X-1.77747 Y2.69948
G01 X-1.72756 Y2.77202
G01 X-1.68000 Y2.84450
G01 X-1.63481 Y2.91696
G01 X-1.59198 Y2.98936
G01 X-1.55151 Y3.06173
G01 X-1.51340 Y3.13404
G01 X-1.47763 Y3.20633
G01 X-1.44422 Y3.27855
G01 X-1.41302 Y3.35106
G01 X-1.39254 Y3.40050
G01 X-1.37110 Y3.45382
G01 X-1.35104 Y3.50687
G01 X-1.33227 Y3.55991
G01 X-1.31478 Y3.61293
G01 X-1.29857 Y3.66591
G01 X-1.28366 Y3.71887
G01 X-1.27002 Y3.77183
G01 X-1.22146 Y3.75990
G01 X-1.23538 Y3.70586
G01 X-1.25060 Y3.65182
G01 X-1.26713 Y3.59778
G01 X-1.28496 Y3.54373
G01 X-1.30409 Y3.48969
G01 X-1.32452 Y3.43565
G01 X-1.34625 Y3.38161
G01 X-1.36696 Y3.33161
G01 X-1.39856 Y3.25817
G01 X-1.43253 Y3.18474
G01 X-1.46887 Y3.11130
G01 X-1.50757 Y3.03787
G01 X-1.54864 Y2.96443
G01 X-1.59208 Y2.89100
G01 X-1.63788 Y2.81756
G01 X-1.68606 Y2.74413
G01 X-1.73659 Y2.67069
G01 X-1.78950 Y2.59726
G01 X-1.84477 Y2.52382
G01 X-1.90241 Y2.45039
G01 X-1.96242 Y2.37695
G01 X-2.02480 Y2.30352
G01 X-2.08954 Y2.23008
G01 X-2.15665 Y2.15665
G01 X-2.26607 Y2.15409
G01 X-2.37550 Y2.15435
G01 X-2.48493 Y2.15744
G01 X-2.59435 Y2.16335
G01 X-2.70378 Y2.17208
G01 X-2.81320 Y2.18363
G01 X-2.92263 Y2.19801
G01 X-3.03206 Y2.21520
G01 X-3.14148 Y2.23522
G01 X-3.25091 Y2.25806
G01 X-3.36033 Y2.28373
G01 X-3.46976 Y2.31221
G01 X-3.57918 Y2.34352
G01 X-3.68861 Y2.37765
G01 X-3.79804 Y2.41460
G01 X-3.90746 Y2.45438
G01 X-4.02983 Y2.45582
G01 X-4.15220 Y2.46035
G01 X-4.23648 Y2.43410
G01 X-4.32075 Y2.40945
G01 X-4.40503 Y2.38643
G01 X-4.48931 Y2.36501
G01 X-4.57359 Y2.34521
G01 X-4.65787 Y2.32702
G01 X-4.74214 Y2.31045
G01 X-4.82642 Y2.29548
G01 X-4.91070 Y2.28214
G01 X-4.99498 Y2.27040
G01 X-5.07925 Y2.26028
G01 X-5.16353 Y2.25178
G01 X-5.24781 Y2.24488
G01 X-5.33209 Y2.23961
G01 X-5.41637 Y2.23594
G01 X-5.50064 Y2.23389
G01 X-5.58492 Y2.23345
G01 X-5.66920 Y2.23462
G01 X-5.75348 Y2.23741
G01 X-5.83776 Y2.24181
G01 X-5.92203 Y2.24783
G01 X-6.00631 Y2.25546
G01 X-6.09059 Y2.26470
G01 X-6.17487 Y2.27556
G01 X-6.25915 Y2.28803
G01 X-6.34342 Y2.30211
G01 X-6.42770 Y2.31781
G01 X-6.51198 Y2.33512
G01 X-6.59626 Y2.35405
G01 X-6.68053 Y2.37459
G01 X-6.76481 Y2.39674
G01 X-6.84909 Y2.42050
G01 X-6.96191 Y2.42207
G01 X-7.07472 Y2.42630
G01 X-7.18754 Y2.43319
G01 X-7.30036 Y2.44275
G01 X-7.37103 Y2.43473
G01 X-7.44170 Y2.42775
G01 X-7.51236 Y2.42184
G01 X-7.58303 Y2.41697
G01 X-7.63939 Y2.46734
G01 X-7.69454 Y2.51771
G01 X-7.74848 Y2.56808
G01 X-7.80120 Y2.61845
G01 X-7.89635 Y2.67780
G01 X-7.88080 Y2.72725
G01 X-7.92338 Y2.89289
G01 X-7.97007 Y3.06979
G01 X-8.01674 Y3.23725
G01 X-8.12118 Y3.60146
G01 X-8.14698 Y3.68954
G01 X-8.17277 Y3.77382
G01 X-8.27925 Y4.11404
G01 X-8.30296 Y4.19393
G01 X-8.32357 Y4.27270
G01 X-8.35096 Y4.39741
G01 X-8.37244 Y4.50105
G01 X-8.37711 Y4.52996
G01 X-8.38058 Y4.55665
G01 X-8.38327 Y4.58436
G01 X-8.38499 Y4.61242
G01 X-8.38694 Y4.65865
G01 X-8.38774 Y4.67296
G01 X-8.39578 Y4.78800
G01 X-8.39753 Y4.80653
G01 X-8.40021 Y4.82445
G01 X-8.41774 Y4.92391
G01 X-8.41949 Y4.93511
G01 X-8.42333 Y4.96270
G01 X-8.42581 Y4.98964
G01 X-8.42601 Y4.99453
G01 X-8.42581 Y5.01915
G01 X-8.42554 Y5.02396
G01 X-8.42295 Y5.04867
G01 X-8.42223 Y5.05334
G01 X-8.41723 Y5.07814
G01 X-8.41239 Y5.09926
G01 X-8.41009 Y5.11313
G01 X-8.39458 Y5.22347
G01 X-8.39222 Y5.24420
G01 X-8.39095 Y5.26563
G01 X-8.38831 Y5.34143
G01 X-8.38498 Y5.38770
G01 X-8.37669 Y5.46483
G01 X-8.37187 Y5.50268
G01 X-8.36522 Y5.54272
G01 X-8.35688 Y5.58387
G01 X-8.34666 Y5.62693
G01 X-8.30149 Y5.80488
G01 X-8.26241 Y5.93658
G01 X-8.22243 Y5.97752
G01 X-8.26241 Y5.93658
G01 X-8.29717 Y5.92549
G01 X-8.43106 Y5.88216
G01 X-8.48322 Y5.86623
G01 X-8.49309 Y5.86339
G01 X-8.53335 Y5.85245
G01 X-8.57355 Y5.84276
G01 X-8.62781 Y5.83057
G01 X-8.68605 Y5.81707
G01 X-8.73579 Y5.80687
G01 X-8.74544 Y5.80516
G01 X-8.77657 Y5.80026
G01 X-8.80563 Y5.79671
G01 X-8.83915 Y5.79319
G01 X-8.88445 Y5.78805
G01 X-8.91443 Y5.78530
G01 X-8.92241 Y5.78474
G01 X-8.95781 Y5.78314
G01 X-8.99440 Y5.78328
G01 X-9.06592 Y5.78485
G01 X-9.08403 Y5.78543
G01 X-9.12388 Y5.78795
G01 X-9.16141 Y5.79224
G01 X-9.17871 Y5.79471
G01 X-9.26349 Y5.80759
G01 X-9.31320 Y5.81606
G01 X-9.36515 Y5.82761
G01 X-9.38942 Y5.83376
G01 X-9.43175 Y5.84492
G01 X-9.43697 Y5.85710
G01 X-9.43175 Y5.84492
G01 X-9.43488 Y5.83952
G01 X-9.49228 Y5.73597
G01 X-9.51375 Y5.69487
G01 X-9.53248 Y5.65386
G01 X-9.56629 Y5.57419
G01 X-9.57789 Y5.54744
G01 X-9.58792 Y5.52154
G01 X-9.59121 Y5.51249
G01 X-9.59961 Y5.48788
G01 X-9.60717 Y5.46242
G01 X-9.63190 Y5.38155
G01 X-9.63953 Y5.35415
G01 X-9.64560 Y5.32678
G01 X-9.66566 Y5.22356
G01 X-9.66972 Y5.19947
G01 X-9.67245 Y5.17540
G01 X-9.68148 Y5.07219
G01 X-9.68288 Y5.04954
G01 X-9.68307 Y5.02691
G01 X-9.68127 Y4.92370
G01 X-9.68028 Y4.90078
G01 X-9.67805 Y4.87786
G01 X-9.66537 Y4.77463
G01 X-9.66165 Y4.74969
G01 X-9.65654 Y4.72472
G01 X-9.63271 Y4.62147
G01 X-9.62524 Y4.59255
G01 X-9.61606 Y4.56359
G01 X-9.58049 Y4.46029
G01 X-9.56732 Y4.42508
G01 X-9.55052 Y4.38674
G01 X-9.53090 Y4.34114
G01 X-9.52687 Y4.33247
G01 X-9.48136 Y4.24168
G01 X-9.45619 Y4.19737
G01 X-9.39388 Y4.09367
G01 X-9.37596 Y4.06476
G01 X-9.35709 Y4.03608
G01 X-9.33709 Y4.00736
G01 X-9.31577 Y3.97833
G01 X-9.23740 Y3.87433
G01 X-9.20747 Y3.83575
G01 X-9.17598 Y3.79739
G01 X-9.14271 Y3.75895
G01 X-9.10748 Y3.72024
G01 X-9.01046 Y3.61619
G01 X-8.95969 Y3.56330
G01 X-8.90625 Y3.51060
G01 X-8.84985 Y3.45782
G01 X-8.79027 Y3.40478
G01 X-8.67039 Y3.30057
G01 X-8.62668 Y3.26313
G01 X-8.58178 Y3.22580
G01 X-8.53556 Y3.18844
G01 X-8.48814 Y3.15116
G01 X-8.38894 Y3.07624
G01 X-8.28435 Y3.00117
G01 X-8.13548 Y2.89692
G01 X-8.04973 Y2.83791
G01 X-7.96115 Y2.77899
G01 X-7.88080 Y2.72725
G01 X-7.89635 Y2.67780
G01 X-7.98853 Y2.73715
G01 X-8.07775 Y2.79650
G01 X-8.16399 Y2.85585
G01 X-8.31327 Y2.96038
G01 X-8.41859 Y3.03597
G01 X-8.51866 Y3.11155
G01 X-8.56673 Y3.14934
G01 X-8.61348 Y3.18713
G01 X-8.65893 Y3.22492
G01 X-8.70306 Y3.26272
G01 X-8.82330 Y3.36724
G01 X-8.88355 Y3.42089
G01 X-8.94088 Y3.47453
G01 X-8.99529 Y3.52818
G01 X-9.04678 Y3.58183
G01 X-9.14425 Y3.68635
G01 X-9.18011 Y3.72576
G01 X-9.21421 Y3.76516
G01 X-9.24655 Y3.80456
G01 X-9.27712 Y3.84396
G01 X-9.35589 Y3.94849
G01 X-9.37776 Y3.97827
G01 X-9.39850 Y4.00805
G01 X-9.41810 Y4.03784
G01 X-9.43656 Y4.06762
G01 X-9.49937 Y4.17215
G01 X-9.52547 Y4.21814
G01 X-9.57186 Y4.31068
G01 X-9.57653 Y4.32068
G01 X-9.59645 Y4.36698
G01 X-9.61366 Y4.40631
G01 X-9.62755 Y4.44337
G01 X-9.66354 Y4.54791
G01 X-9.67328 Y4.57874
G01 X-9.68128 Y4.60957
G01 X-9.70541 Y4.71410
G01 X-9.71089 Y4.74099
G01 X-9.71492 Y4.76788
G01 X-9.72776 Y4.87241
G01 X-9.73015 Y4.89729
G01 X-9.73124 Y4.92217
G01 X-9.73307 Y5.02670
G01 X-9.73285 Y5.05129
G01 X-9.73135 Y5.07589
G01 X-9.72220 Y5.18041
G01 X-9.71923 Y5.20643
G01 X-9.71487 Y5.23245
G01 X-9.69455 Y5.33698
G01 X-9.68804 Y5.36627
G01 X-9.67990 Y5.39556
G01 X-9.65499 Y5.47704
G01 X-9.64726 Y5.50308
G01 X-9.63837 Y5.52912
G01 X-9.63473 Y5.53912
G01 X-9.62416 Y5.56642
G01 X-9.61232 Y5.59373
G01 X-9.57823 Y5.67402
G01 X-9.55867 Y5.71684
G01 X-9.53632 Y5.75966
G01 X-9.47838 Y5.86419
G01 X-9.45587 Y5.90299
G01 X-9.46494 Y5.93554
G01 X-9.47729 Y5.98690
G01 X-9.48683 Y6.03827
G01 X-9.48791 Y6.04506
G01 X-9.49445 Y6.09461
G01 X-9.49836 Y6.14415
G01 X-9.49871 Y6.15095
G01 X-9.50000 Y6.20000
G01 X-9.49871 Y6.24906
G01 X-9.49836 Y6.25585
G01 X-9.49445 Y6.30539
G01 X-9.48791 Y6.35494
G01 X-9.48683 Y6.36173
G01 X-9.47729 Y6.41310
G01 X-9.46494 Y6.46446
G01 X-9.46312 Y6.47125
G01 X-9.44691 Y6.52585
G01 X-9.42753 Y6.58045
G01 X-9.42492 Y6.58724
G01 X-9.41305 Y6.61694
G01 X-9.40025 Y6.64664
G01 X-9.38652 Y6.67634
G01 X-9.36839 Y6.71284
G01 X-9.35087 Y6.74609
G01 X-9.33218 Y6.77934
G01 X-9.31233 Y6.81260
G01 X-9.28690 Y6.85265
G01 X-9.26119 Y6.89106
G01 X-9.23393 Y6.92948
G01 X-9.20513 Y6.96790
G01 X-9.17478 Y7.00632
G01 X-9.16928 Y7.01311
G01 X-9.13108 Y7.05894
G01 X-9.09070 Y7.10477
G01 X-9.04814 Y7.15060
G01 X-8.99660 Y7.20322
G01 X-8.93794 Y7.26021
G01 X-8.87594 Y7.31719
G01 X-8.81059 Y7.37418
G01 X-8.74190 Y7.43117
G01 X-8.73351 Y7.43796
G01 X-8.68673 Y7.47526
G01 X-8.63853 Y7.51257
G01 X-8.58891 Y7.54987
G01 X-8.53787 Y7.58718
G01 X-8.48540 Y7.62448
G01 X-8.43150 Y7.66179
G01 X-8.31945 Y7.73640
G01 X-8.22529 Y7.79659
G01 X-8.13869 Y7.85000
G01 X-8.04920 Y7.90340
G01 X-7.95681 Y7.95681
G01 X-7.86288 Y7.92983
G01 X-7.76216 Y7.89829
G01 X-7.70587 Y7.87958
G01 X-7.64958 Y7.86002
G01 X-7.53699 Y7.81837
G01 X-7.42440 Y7.77333
G01 X-7.31182 Y7.72490
G01 X-7.20097 Y7.67411
G01 X-7.09692 Y7.62346
G01 X-6.99841 Y7.64171
G01 X-6.89989 Y7.65781
G01 X-6.80138 Y7.67176
G01 X-6.70286 Y7.68356
G01 X-6.60435 Y7.69322
G01 X-6.50583 Y7.70072
G01 X-6.40732 Y7.70607
G01 X-6.30880 Y7.70927
G01 X-6.21029 Y7.71033
G01 X-6.11177 Y7.70923
G01 X-6.01326 Y7.70598
G01 X-5.91474 Y7.70059
G01 X-5.81623 Y7.69304
G01 X-5.71772 Y7.68334
G01 X-5.61920 Y7.67150
G01 X-5.52069 Y7.65750
G01 X-5.44457 Y7.65963
G01 X-5.36845 Y7.66050
G01 X-5.29233 Y7.66012
G01 X-5.21621 Y7.65848
G01 X-5.14009 Y7.65559
G01 X-5.06397 Y7.65144
G01 X-4.98785 Y7.64603
G01 X-4.91174 Y7.63937
G01 X-4.83562 Y7.63146
G01 X-4.75950 Y7.62228
G01 X-4.68338 Y7.61186
G01 X-4.60726 Y7.60017
G01 X-4.53114 Y7.58723
G01 X-4.45502 Y7.57303
G01 X-4.37890 Y7.55758
G01 X-4.30278 Y7.54088
G01 X-4.18279 Y7.54470
G01 X-4.06279 Y7.54555
G01 X-3.94279 Y7.54343
G01 X-3.82280 Y7.53834
G01 X-3.70280 Y7.53027
G01 X-3.58280 Y7.51924
G01 X-3.46280 Y7.50522
G01 X-3.34281 Y7.48824
G01 X-3.27331 Y7.49253
G01 X-3.20382 Y7.49584
G01 X-3.13432 Y7.49817
G01 X-3.06483 Y7.49953
G01 X-2.94221 Y7.52354
G01 X-2.81959 Y7.54438
G01 X-2.69697 Y7.56203
G01 X-2.57436 Y7.57651
G01 X-2.52209 Y7.58200
G01 X-2.40733 Y7.59267
G01 X-2.30626 Y7.50507
G01 X-2.20903 Y7.41746
G01 X-2.11566 Y7.32986
G01 X-2.02613 Y7.24226
G01 X-1.97387 Y7.19000
G01 X-1.88374 Y7.09768
G01 X-1.84033 Y7.05152
G01 X-1.79801 Y7.00536
G01 X-1.75679 Y6.95920
G01 X-1.71667 Y6.91304
G01 X-1.67764 Y6.86689
G01 X-1.63972 Y6.82073
G01 X-1.59739 Y6.76846
G01 X-1.53754 Y6.69267
G01 X-1.48072 Y6.61688
G01 X-1.42694 Y6.54108
G01 X-1.37620 Y6.46529
G01 X-1.34226 Y6.41303
G01 X-1.30155 Y6.34860
G01 X-1.26309 Y6.28417
G01 X-1.22688 Y6.21974
G01 X-1.19293 Y6.15531
G01 X-1.16629 Y6.10305
G01 X-1.13837 Y6.04649
G01 X-1.11221 Y5.98994
G01 X-1.08784 Y5.93338
G01 X-1.06524 Y5.87683
G01 X-1.04518 Y5.82456
G01 X-1.02628 Y5.77341
G01 X-1.00887 Y5.72225
G01 X-0.99294 Y5.67110
G01 X-0.97849 Y5.61994
G01 X-0.96449 Y5.56768
G01 X-0.95237 Y5.52004
G01 X-0.94157 Y5.47240
G01 X-0.93207 Y5.42476
G01 X-0.92387 Y5.37712
G01 X-0.91559 Y5.32485
G01 X-0.90897 Y5.27921
G01 X-0.90355 Y5.23356
G01 X-0.89934 Y5.18792
G01 X-0.89635 Y5.14227
G01 X-0.89361 Y5.09001
G01 X-0.89184 Y5.04500
G01 X-0.89125 Y5.00000
G01 X-0.84125 Y4.99934
G01 X-0.84184 Y5.04566
G01 X-0.84365 Y5.09197
G01 X-0.84642 Y5.14489
G01 X-0.84945 Y5.19119
G01 X-0.85390 Y5.23945
G01 X-0.85948 Y5.28639
G01 X-0.86611 Y5.33203
G01 X-0.87448 Y5.38494
G01 X-0.88279 Y5.43324
G01 X-0.89281 Y5.48346
G01 X-0.90392 Y5.53236
G01 X-0.91619 Y5.58062
G01 X-0.93037 Y5.63353
G01 X-0.94520 Y5.68597
G01 X-0.96154 Y5.73836
G01 X-0.97894 Y5.78952
G01 X-0.99850 Y5.84247
G01 X-1.01856 Y5.89474
G01 X-1.04141 Y5.95193
G01 X-1.06630 Y6.00973
G01 X-1.09353 Y6.06862
G01 X-1.12174 Y6.12576
G01 X-1.14838 Y6.17802
G01 X-1.18264 Y6.24305
G01 X-1.22016 Y6.30980
G01 X-1.25928 Y6.37531
G01 X-1.29999 Y6.43974
G01 X-1.33427 Y6.49252
G01 X-1.38539 Y6.56890
G01 X-1.44071 Y6.64687
G01 X-1.49753 Y6.72266
G01 X-1.55853 Y6.79993
G01 X-1.60086 Y6.85220
G01 X-1.63900 Y6.89863
G01 X-1.67893 Y6.94584
G01 X-1.71905 Y6.99200
G01 X-1.76072 Y7.03866
G01 X-1.80347 Y7.08531
G01 X-1.84732 Y7.13193
G01 X-1.93809 Y7.22493
G01 X-1.99116 Y7.27800
G01 X-2.08145 Y7.36632
G01 X-2.17482 Y7.45392
G01 X-2.27351 Y7.54285
G01 X-2.37458 Y7.63045
G01 X-2.38281 Y7.63625
G01 X-2.39204 Y7.64027
G01 X-2.40189 Y7.64237
G01 X-2.41196 Y7.64245
G01 X-2.52672 Y7.63178
G01 X-2.57958 Y7.62624
G01 X-2.70409 Y7.61152
G01 X-2.82797 Y7.59367
G01 X-2.95059 Y7.57283
G01 X-3.07016 Y7.54943
G01 X-3.07014 Y7.54925
G01 X-3.07016 Y7.54943
G01 X-3.13530 Y7.54816
G01 X-3.20620 Y7.54578
G01 X-3.27639 Y7.54244
G01 X-3.34083 Y7.53846
G01 X-3.34084 Y7.53820
G01 X-3.34083 Y7.53846
G01 X-3.45579 Y7.55473
G01 X-3.57822 Y7.56903
G01 X-3.69822 Y7.58006
G01 X-3.82068 Y7.58829
G01 X-3.94067 Y7.59338
G01 X-4.06191 Y7.59554
G01 X-4.18438 Y7.59467
G01 X-4.29815 Y7.59105
G01 X-4.29818 Y7.59067
G01 X-4.29815 Y7.59105
G01 X-4.36819 Y7.60642
G01 X-4.44507 Y7.62204
G01 X-4.52198 Y7.63638
G01 X-4.59967 Y7.64959
G01 X-4.67660 Y7.66140
G01 X-4.75272 Y7.67182
G01 X-4.82963 Y7.68110
G01 X-4.90657 Y7.68910
G01 X-4.98430 Y7.69590
G01 X-5.06043 Y7.70131
G01 X-5.13819 Y7.70555
G01 X-5.21431 Y7.70844
G01 X-5.29125 Y7.71011
G01 X-5.36820 Y7.71050
G01 X-5.44597 Y7.70961
G01 X-5.51785 Y7.70760
G01 X-5.51786 Y7.70742
G01 X-5.51785 Y7.70760
G01 X-5.61323 Y7.72114
G01 X-5.71282 Y7.73310
G01 X-5.81133 Y7.74280
G01 X-5.91202 Y7.75052
G01 X-6.01161 Y7.75595
G01 X-6.11012 Y7.75920
G01 X-6.20973 Y7.76033
G01 X-6.30934 Y7.75927
G01 X-6.41003 Y7.75600
G01 X-6.50854 Y7.75065
G01 X-6.60815 Y7.74308
G01 X-6.70881 Y7.73320
G01 X-6.80839 Y7.72127
G01 X-6.90690 Y7.70732
G01 X-7.00647 Y7.69106
G01 X-7.08984 Y7.67562
G01 X-7.09019 Y7.67301
G01 X-7.08984 Y7.67562
G01 X-7.17908 Y7.71907
G01 X-7.28472 Y7.76758
G01 X-7.40464 Y7.81926
G01 X-7.51842 Y7.86479
G01 X-7.63317 Y7.90725
G01 X-7.69010 Y7.92703
G01 X-7.74671 Y7.94584
G01 X-7.84908 Y7.97789
G01 X-7.94301 Y8.00487
G01 X-7.95288 Y8.00666
G01 X-7.96291 Y8.00644
G01 X-7.97269 Y8.00422
G01 X-7.98183 Y8.00010
G01 X-8.07422 Y7.94669
G01 X-8.16431 Y7.89294
G01 X-8.25154 Y7.83915
G01 X-8.33621 Y7.78513
G01 X-8.34716 Y7.77802
G01 X-8.45922 Y7.70341
G01 X-8.51386 Y7.66559
G01 X-8.56684 Y7.62793
G01 X-8.61842 Y7.59023
G01 X-8.66857 Y7.55254
G01 X-8.71734 Y7.51480
G01 X-8.76496 Y7.47683
G01 X-8.77383 Y7.46965
G01 X-8.84252 Y7.41266
G01 X-8.90977 Y7.35400
G01 X-8.97278 Y7.29607
G01 X-9.03144 Y7.23908
G01 X-9.03917 Y7.23135
G01 X-9.08478 Y7.18462
G01 X-9.12734 Y7.13879
G01 X-9.16859 Y7.09199
G01 X-9.20769 Y7.04512
G01 X-9.21403 Y7.03731
G01 X-9.24514 Y6.99789
G01 X-9.27471 Y6.95841
G01 X-9.30197 Y6.91999
G01 X-9.32882 Y6.87990
G01 X-9.35460 Y6.83931
G01 X-9.37511 Y6.80496
G01 X-9.39510 Y6.76940
G01 X-9.41295 Y6.73551
G01 X-9.43135 Y6.69848
G01 X-9.44616 Y6.66644
G01 X-9.45897 Y6.63674
G01 X-9.47135 Y6.60578
G01 X-9.47465 Y6.59717
G01 X-9.49484 Y6.54008
G01 X-9.51141 Y6.48419
G01 X-9.51355 Y6.47615
G01 X-9.52645 Y6.42224
G01 X-9.53623 Y6.36951
G01 X-9.53748 Y6.36148
G01 X-9.54429 Y6.30932
G01 X-9.54820 Y6.25978
G01 X-9.54869 Y6.25037
G01 X-9.54998 Y6.19869
G01 X-9.54864 Y6.14838
G01 X-9.54820 Y6.14023
G01 X-9.54402 Y6.08807
G01 X-9.53748 Y6.03852
G01 X-9.53600 Y6.02913
G01 X-9.52590 Y5.97521
G01 X-9.51355 Y5.92385
G01 X-9.50973 Y5.90979
G01 X-9.50601 Y5.90929
G01 X-9.50973 Y5.90979
G01 X-9.52211 Y5.88843
G01 X-9.58005 Y5.78390
G01 X-9.60299 Y5.73998
G01 X-9.62426 Y5.69356
G01 X-9.65827 Y5.61344
G01 X-9.67003 Y5.58631
G01 X-9.68136 Y5.55717
G01 X-9.68535 Y5.54622
G01 X-9.69519 Y5.51731
G01 X-9.70286 Y5.49146
G01 X-9.72771 Y5.41018
G01 X-9.73621 Y5.37966
G01 X-9.74363 Y5.34652
G01 X-9.76395 Y5.24200
G01 X-9.76854 Y5.21470
G01 X-9.77201 Y5.18478
G01 X-9.78116 Y5.08025
G01 X-9.78285 Y5.05174
G01 X-9.78306 Y5.02583
G01 X-9.78124 Y4.92130
G01 X-9.78011 Y4.89510
G01 X-9.77739 Y4.86631
G01 X-9.76455 Y4.76178
G01 X-9.75988 Y4.73100
G01 X-9.75413 Y4.70285
G01 X-9.73000 Y4.59832
G01 X-9.72169 Y4.56620
G01 X-9.71082 Y4.53163
G01 X-9.67437 Y4.42584
G01 X-9.65949 Y4.38633
G01 X-9.64210 Y4.34656
G01 X-9.62183 Y4.29952
G01 X-9.61654 Y4.28825
G01 X-9.56896 Y4.19346
G01 X-9.54223 Y4.14640
G01 X-9.47942 Y4.04187
G01 X-9.45987 Y4.01036
G01 X-9.43953 Y3.97947
G01 X-9.41879 Y3.94969
G01 X-9.39582 Y3.91840
G01 X-9.31662 Y3.81331
G01 X-9.28520 Y3.77284
G01 X-9.25202 Y3.73244
G01 X-9.21709 Y3.69210
G01 X-9.18123 Y3.65270
G01 X-9.08335 Y3.54773
G01 X-9.03136 Y3.49356
G01 X-8.97599 Y3.43894
G01 X-8.91681 Y3.38354
G01 X-8.85610 Y3.32950
G01 X-8.73559 Y3.22475
G01 X-8.69090 Y3.18647
G01 X-8.64545 Y3.14868
G01 X-8.59816 Y3.11045
G01 X-8.54879 Y3.07165
G01 X-8.44774 Y2.99535
G01 X-8.34195 Y2.91942
G01 X-8.19267 Y2.81489
G01 X-8.10544 Y2.75487
G01 X-8.01622 Y2.69552
G01 X-7.92342 Y2.63576
G01 X-7.83202 Y2.57875
G01 X-7.83186 Y2.57895
G01 X-7.83202 Y2.57875
G01 X-7.78302 Y2.53193
G01 X-7.72826 Y2.48079
G01 X-7.67311 Y2.43042
G01 X-7.61635 Y2.37969
G01 X-7.60830 Y2.37382
G01 X-7.59924 Y2.36967
G01 X-7.58955 Y2.36740
G01 X-7.57959 Y2.36709
G01 X-7.50819 Y2.37201
G01 X-7.43679 Y2.37800
G01 X-7.36539 Y2.38505
G01 X-7.29964 Y2.39251
G01 X-7.29965 Y2.39275
G01 X-7.29964 Y2.39251
G01 X-7.19176 Y2.38337
G01 X-7.07778 Y2.37639
G01 X-6.96260 Y2.37207
G01 X-6.85634 Y2.37060
G01 X-6.85628 Y2.37102
G01 X-6.85634 Y2.37060
G01 X-6.77838 Y2.34862
G01 X-6.69325 Y2.32623
G01 X-6.60810 Y2.30547
G01 X-6.52204 Y2.28614
G01 X-6.43686 Y2.26865
G01 X-6.35166 Y2.25279
G01 X-6.26647 Y2.23857
G01 X-6.18126 Y2.22597
G01 X-6.09698 Y2.21511
G01 X-6.01176 Y2.20576
G01 X-5.92654 Y2.19803
G01 X-5.84132 Y2.19195
G01 X-5.75513 Y2.18744
G01 X-5.66989 Y2.18462
G01 X-5.58561 Y2.18345
G01 X-5.50038 Y2.18389
G01 X-5.41515 Y2.18595
G01 X-5.32897 Y2.18971
G01 X-5.24373 Y2.19505
G01 X-5.15945 Y2.20195
G01 X-5.07329 Y2.21064
G01 X-4.98902 Y2.22076
G01 X-4.90288 Y2.23275
G01 X-4.81860 Y2.24609
G01 X-4.73339 Y2.26122
G01 X-4.64732 Y2.27814
G01 X-4.56304 Y2.29634
G01 X-4.47699 Y2.31655
G01 X-4.39185 Y2.33820
G01 X-4.30671 Y2.36146
G01 X-4.22161 Y2.38636
G01 X-4.14550 Y2.41007
G01 X-4.14560 Y2.41079
G01 X-4.14550 Y2.41007
G01 X-4.03042 Y2.40582
G01 X-3.91655 Y2.40448
G01 X-3.91642 Y2.40519
G01 X-3.91655 Y2.40448
G01 X-3.81512 Y2.36761
G01 X-3.70460 Y2.33028
G01 X-3.59407 Y2.29579
G01 X-3.48235 Y2.26382
G01 X-3.37292 Y2.23534
G01 X-3.26112 Y2.20911
G01 X-3.15170 Y2.18627
G01 X-3.03982 Y2.16581
G01 X-2.93039 Y2.14861
G01 X-2.81845 Y2.13391
G01 X-2.70776 Y2.12224
G01 X-2.59705 Y2.11342
G01 X-2.48634 Y2.10746
G01 X-2.37562 Y2.10435
G01 X-2.26491 Y2.10410
G01 X-2.15548 Y2.10666
G01 X-2.14549 Y2.10791
G01 X-2.13595 Y2.11114
G01 X-2.12725 Y2.11621
G01 X-2.11974 Y2.12292
G01 X-2.05263 Y2.19635
G01 X-1.98669 Y2.27115
G01 X-1.92370 Y2.34531
G01 X-1.86308 Y2.41952
G01 X-1.80482 Y2.49375
G01 X-1.74955 Y2.56719
G01 X-1.69602 Y2.64146
G01 X-1.64487 Y2.71579
G01 X-1.59607 Y2.79013
G01 X-1.54965 Y2.86454
G01 X-1.50561 Y2.93897
G01 X-1.46393 Y3.01347
G01 X-1.42464 Y3.08799
G01 X-1.38715 Y3.16375
G01 X-1.35318 Y3.23718
G01 X-1.32076 Y3.31248
G01 X-1.29986 Y3.36296
G01 X-1.27813 Y3.41700
G01 X-1.25696 Y3.47300
G01 X-1.23748 Y3.52807
G01 X-1.21932 Y3.58315
G01 X-1.20279 Y3.63719
G01 X-1.18696 Y3.69339
G01 X-1.17304 Y3.74744
G01 X-1.16157 Y3.79651
G01 X-1.16192 Y3.79663
G01 X-1.16157 Y3.79651
G01 X-1.14838 Y3.82198
G01 X-1.12174 Y3.87424
G01 X-1.09354 Y3.93136
G01 X-1.06683 Y3.98908
G01 X-1.04192 Y4.04681
G01 X-1.01856 Y4.10525
G01 X-0.99828 Y4.15810
G01 X-0.97894 Y4.21048
G01 X-0.96113 Y4.26288
G01 X-0.94520 Y4.31403
G01 X-0.93037 Y4.36647
G01 X-0.91619 Y4.41938
G01 X-0.90392 Y4.46764
G01 X-0.89253 Y4.51782
G01 X-0.88279 Y4.56676
G01 X-0.87448 Y4.61506
G01 X-0.86621 Y4.66732
G01 X-0.85931 Y4.71490
G01 X-0.85376 Y4.76185
G01 X-0.84955 Y4.80749
G01 X-0.84642 Y4.85511
G01 X-0.84365 Y4.90803
G01 X-0.84188 Y4.95304
G01 X-0.84125 Y4.99934
G01 X-0.79126 Y4.99869
G01 X-0.79185 Y4.95369
G01 X-0.79369 Y4.90606
G01 X-0.79648 Y4.85250
G01 X-0.79956 Y4.80553
G01 X-0.80425 Y4.75466
G01 X-0.81000 Y4.70643
G01 X-0.81663 Y4.66078
G01 X-0.82510 Y4.60724
G01 X-0.83351 Y4.55828
G01 X-0.84405 Y4.50548
G01 X-0.85546 Y4.45532
G01 X-0.86757 Y4.40768
G01 X-0.88190 Y4.35418
G01 X-0.89670 Y4.30172
G01 X-0.91420 Y4.24553
G01 X-0.93248 Y4.19194
G01 X-0.95182 Y4.13959
G01 X-0.97188 Y4.08733
G01 X-0.99601 Y4.02702
G01 X-1.02145 Y3.96809
G01 X-1.04870 Y3.90923
G01 X-1.07720 Y3.85153
G01 X-1.11430 Y3.77906
G01 X-1.11465 Y3.77919
G01 X-1.11430 Y3.77906
G01 X-1.12462 Y3.73497
G01 X-1.13854 Y3.68092
G01 X-1.15434 Y3.62471
G01 X-1.17216 Y3.56645
G01 X-1.19069 Y3.51036
G01 X-1.21055 Y3.45433
G01 X-1.23174 Y3.39834
G01 X-1.25347 Y3.34430
G01 X-1.27457 Y3.29334
G01 X-1.30780 Y3.21618
G01 X-1.34290 Y3.14039
G01 X-1.38040 Y3.06467
G01 X-1.42029 Y2.98906
G01 X-1.46257 Y2.91351
G01 X-1.50723 Y2.83808
G01 X-1.55427 Y2.76270
G01 X-1.60368 Y2.68745
G01 X-1.65546 Y2.61223
G01 X-1.70960 Y2.53713
G01 X-1.76487 Y2.46369
G01 X-1.82375 Y2.38864
G01 X-1.88621 Y2.31221
G01 X-1.94979 Y2.23739
G01 X-2.01452 Y2.16395
G01 X-2.08283 Y2.08919
G01 X-2.09785 Y2.07576
G01 X-2.11525 Y2.06562
G01 X-2.13433 Y2.05917
G01 X-2.15431 Y2.05668
G01 X-2.26374 Y2.05412
G01 X-2.37574 Y2.05435
G01 X-2.48775 Y2.05748
G01 X-2.59974 Y2.06350
G01 X-2.71173 Y2.07240
G01 X-2.82370 Y2.08418
G01 X-2.93566 Y2.09886
G01 X-3.04758 Y2.11641
G01 X-3.15948 Y2.13685
G01 X-3.27134 Y2.16017
G01 X-3.38552 Y2.18695
G01 X-3.49495 Y2.21543
G01 X-3.60669 Y2.24738
G01 X-3.72060 Y2.28290
G01 X-3.83221 Y2.32062
G01 X-3.92564 Y2.35459
G01 X-3.92551 Y2.35529
G01 X-3.92564 Y2.35459
G01 X-4.03101 Y2.35583
G01 X-4.13880 Y2.35979
G01 X-4.13889 Y2.36050
G01 X-4.13880 Y2.35979
G01 X-4.20674 Y2.33862
G01 X-4.29440 Y2.31298
G01 X-4.37868 Y2.28996
G01 X-4.46468 Y2.26809
G01 X-4.55072 Y2.24786
G01 X-4.63677 Y2.22927
G01 X-4.72285 Y2.21233
G01 X-4.81079 Y2.19671
G01 X-4.89690 Y2.18310
G01 X-4.98306 Y2.17111
G01 X-5.06921 Y2.16078
G01 X-5.15350 Y2.15228
G01 X-5.23965 Y2.14521
G01 X-5.32585 Y2.13980
G01 X-5.41202 Y2.13603
G01 X-5.50012 Y2.13389
G01 X-5.58631 Y2.13346
G01 X-5.67251 Y2.13467
G01 X-5.75679 Y2.13746
G01 X-5.84298 Y2.14196
G01 X-5.92914 Y2.14808
G01 X-6.01533 Y2.15587
G01 X-6.10149 Y2.16529
G01 X-6.18765 Y2.17638
G01 X-6.27379 Y2.18911
G01 X-6.35990 Y2.20348
G01 X-6.44782 Y2.21985
G01 X-6.53210 Y2.23716
G01 X-6.61817 Y2.25648
G01 X-6.70422 Y2.27743
G01 X-6.79194 Y2.30049
G01 X-6.86360 Y2.32069
G01 X-6.86354 Y2.32111
G01 X-6.86360 Y2.32069
G01 X-6.96330 Y2.32208
G01 X-7.08083 Y2.32648
G01 X-7.19598 Y2.33355
G01 X-7.29893 Y2.34227
G01 X-7.29893 Y2.34251
G01 X-7.29893 Y2.34227
G01 X-7.36121 Y2.33521
G01 X-7.43188 Y2.32824
G01 X-7.50401 Y2.32219
G01 X-7.57615 Y2.31721
G01 X-7.59607 Y2.31782
G01 X-7.61546 Y2.32237
G01 X-7.63357 Y2.33068
G01 X-7.64967 Y2.34241
G01 X-7.70683 Y2.39350
G01 X-7.76198 Y2.44387
G01 X-7.81756 Y2.49578
G01 X-7.86285 Y2.53904
G01 X-7.86270 Y2.53924
G01 X-7.86285 Y2.53904
G01 X-7.95048 Y2.59372
G01 X-8.04266 Y2.65307
G01 X-8.13444 Y2.71412
G01 X-8.22135 Y2.77393
G01 X-8.37158 Y2.87914
G01 X-8.47690 Y2.95473
G01 X-8.57893 Y3.03175
G01 X-8.62853 Y3.07072
G01 X-8.67634 Y3.10936
G01 X-8.72286 Y3.14803
G01 X-8.76811 Y3.18677
G01 X-8.88890 Y3.29177
G01 X-8.95006 Y3.34620
G01 X-9.00922 Y3.40152
G01 X-9.06550 Y3.45697
G01 X-9.11893 Y3.51259
G01 X-9.21739 Y3.61816
G01 X-9.25406 Y3.65845
G01 X-9.29151 Y3.70171
G01 X-9.32556 Y3.74326
G01 X-9.35698 Y3.78378
G01 X-9.43575 Y3.88831
G01 X-9.45836 Y3.91908
G01 X-9.48204 Y3.95309
G01 X-9.50309 Y3.98515
G01 X-9.52228 Y4.01611
G01 X-9.58508 Y4.12064
G01 X-9.61244 Y4.16878
G01 X-9.61489 Y4.17338
G01 X-9.66247 Y4.26837
G01 X-9.66839 Y4.28116
G01 X-9.68774 Y4.32614
G01 X-9.70533 Y4.36635
G01 X-9.70730 Y4.37122
G01 X-9.72210 Y4.41082
G01 X-9.75809 Y4.51535
G01 X-9.76863 Y4.54859
G01 X-9.77009 Y4.55365
G01 X-9.77808 Y4.58448
G01 X-9.80340 Y4.69413
G01 X-9.80888 Y4.72102
G01 X-9.80978 Y4.72617
G01 X-9.81417 Y4.75569
G01 X-9.82701 Y4.86022
G01 X-9.82970 Y4.88769
G01 X-9.83006 Y4.89291
G01 X-9.83123 Y4.92043
G01 X-9.83305 Y5.02496
G01 X-9.83285 Y5.05218
G01 X-9.83266 Y5.05738
G01 X-9.83116 Y5.08198
G01 X-9.82182 Y5.18914
G01 X-9.81858 Y5.21778
G01 X-9.81785 Y5.22297
G01 X-9.81303 Y5.25154
G01 X-9.79271 Y5.35606
G01 X-9.78566 Y5.38797
G01 X-9.78439 Y5.39305
G01 X-9.77625 Y5.42234
G01 X-9.75074 Y5.50589
G01 X-9.74190 Y5.53539
G01 X-9.73301 Y5.56143
G01 X-9.72870 Y5.57332
G01 X-9.71591 Y5.60620
G01 X-9.70422 Y5.63315
G01 X-9.67029 Y5.71309
G01 X-9.64962 Y5.75841
G01 X-9.64732 Y5.76311
G01 X-9.62378 Y5.80814
G01 X-9.56488 Y5.91437
G01 X-9.56334 Y5.91702
G01 X-9.55974 Y5.91653
G01 X-9.56334 Y5.91702
G01 X-9.57452 Y5.96352
G01 X-9.57560 Y5.96862
G01 X-9.58516 Y6.01999
G01 X-9.58669 Y6.02949
G01 X-9.59359 Y6.08152
G01 X-9.59414 Y6.08674
G01 X-9.59805 Y6.13629
G01 X-9.59858 Y6.14580
G01 X-9.59996 Y6.19737
G01 X-9.59996 Y6.20263
G01 X-9.59868 Y6.25169
G01 X-9.59823 Y6.26100
G01 X-9.59414 Y6.31326
G01 X-9.59359 Y6.31848
G01 X-9.58669 Y6.37051
G01 X-9.58516 Y6.38001
G01 X-9.57560 Y6.43138
G01 X-9.57452 Y6.43648
G01 X-9.56217 Y6.48784
G01 X-9.55971 Y6.49714
G01 X-9.54277 Y6.55431
G01 X-9.54115 Y6.55930
G01 X-9.52177 Y6.61390
G01 X-9.51779 Y6.62432
G01 X-9.50593 Y6.65402
G01 X-9.49102 Y6.68860
G01 X-9.47618 Y6.72063
G01 X-9.46151 Y6.75033
G01 X-9.45686 Y6.75946
G01 X-9.43934 Y6.79271
G01 X-9.41935 Y6.82834
G01 X-9.39820 Y6.86385
G01 X-9.37074 Y6.90715
G01 X-9.34275 Y6.94893
G01 X-9.31394 Y6.98946
G01 X-9.28361 Y7.02987
G01 X-9.25327 Y7.06829
G01 X-9.24693 Y7.07612
G01 X-9.20611 Y7.12505
G01 X-9.16398 Y7.17282
G01 X-9.12142 Y7.21865
G01 X-9.07495 Y7.26628
G01 X-9.06731 Y7.27393
G01 X-9.00762 Y7.33193
G01 X-8.94167 Y7.39256
G01 X-8.87444 Y7.45114
G01 X-8.80481 Y7.50890
G01 X-8.74794 Y7.55434
G01 X-8.69862 Y7.59250
G01 X-8.64900 Y7.62980
G01 X-8.59688 Y7.66791
G01 X-8.54232 Y7.70670
G01 X-8.48693 Y7.74503
G01 X-8.37390 Y7.82028
G01 X-8.27908 Y7.88089
G01 X-8.19118 Y7.93511
G01 X-8.09925 Y7.98997
G01 X-8.00686 Y8.04338
G01 X-7.98857 Y8.05163
G01 X-7.96900 Y8.05606
G01 X-7.94894 Y8.05650
G01 X-7.92920 Y8.05292
G01 X-7.83527 Y8.02594
G01 X-7.73805 Y7.99560
G01 X-7.67433 Y7.97447
G01 X-7.61676 Y7.95448
G01 X-7.50230 Y7.91216
G01 X-7.38488 Y7.86519
G01 X-7.26443 Y7.81327
G01 X-7.15720 Y7.76402
G01 X-7.08276 Y7.72778
G01 X-7.08311 Y7.72517
G01 X-7.08276 Y7.72778
G01 X-7.01454 Y7.74040
G01 X-6.91391 Y7.75682
G01 X-6.81540 Y7.77077
G01 X-6.71262 Y7.78308
G01 X-6.61194 Y7.79293
G01 X-6.51342 Y7.80043
G01 X-6.41057 Y7.80602
G01 X-6.30987 Y7.80926
G01 X-6.20917 Y7.81032
G01 X-6.10847 Y7.80917
G01 X-6.00996 Y7.80593
G01 X-5.90711 Y7.80030
G01 X-5.80643 Y7.79256
G01 X-5.70579 Y7.78263
G01 X-5.60727 Y7.77079
G01 X-5.51501 Y7.75770
G01 X-5.51502 Y7.75752
G01 X-5.51501 Y7.75770
G01 X-5.44737 Y7.75959
G01 X-5.36795 Y7.76050
G01 X-5.29018 Y7.76010
G01 X-5.21242 Y7.75841
G01 X-5.13630 Y7.75552
G01 X-5.05688 Y7.75119
G01 X-4.97913 Y7.74565
G01 X-4.90140 Y7.73883
G01 X-4.82365 Y7.73074
G01 X-4.74594 Y7.72136
G01 X-4.66982 Y7.71094
G01 X-4.59208 Y7.69901
G01 X-4.51281 Y7.68554
G01 X-4.43512 Y7.67104
G01 X-4.35747 Y7.65526
G01 X-4.29351 Y7.64123
G01 X-4.29355 Y7.64084
G01 X-4.29351 Y7.64123
G01 X-4.18597 Y7.64465
G01 X-4.06102 Y7.64553
G01 X-3.93855 Y7.64334
G01 X-3.81856 Y7.63825
G01 X-3.69609 Y7.63004
G01 X-3.57365 Y7.61882
G01 X-3.44879 Y7.60423
G01 X-3.33884 Y7.58868
G01 X-3.33885 Y7.58842
G01 X-3.33884 Y7.58868
G01 X-3.27947 Y7.59234
G01 X-3.20858 Y7.59573
G01 X-3.13628 Y7.59815
G01 X-3.07550 Y7.59934
G01 X-3.07548 Y7.59915
G01 X-3.07550 Y7.59934
G01 X-2.96143 Y7.62168
G01 X-2.83384 Y7.64336
G01 X-2.70870 Y7.66134
G01 X-2.58609 Y7.67582
G01 X-2.53135 Y7.68157
G01 X-2.41659 Y7.69224
G01 X-2.39645 Y7.69208
G01 X-2.37676 Y7.68788
G01 X-2.35830 Y7.67983
G01 X-2.34183 Y7.66824
G01 X-2.23932 Y7.57936
G01 X-2.14061 Y7.49039
G01 X-2.04572 Y7.40134
G01 X-1.95619 Y7.31374
G01 X-1.90316 Y7.26071
G01 X-1.81218 Y7.16754
G01 X-1.76662 Y7.11910
G01 X-1.72430 Y7.07294
G01 X-1.68131 Y7.02480
G01 X-1.64119 Y6.97864
G01 X-1.60129 Y6.93146
G01 X-1.56245 Y6.88421
G01 X-1.51968 Y6.83139
G01 X-1.45906 Y6.75464
G01 X-1.40071 Y6.67686
G01 X-1.34538 Y6.59894
G01 X-1.29233 Y6.51976
G01 X-1.25772 Y6.46645
G01 X-1.21701 Y6.40201
G01 X-1.17722 Y6.33542
G01 X-1.13970 Y6.26873
G01 X-1.10384 Y6.20073
G01 X-1.07720 Y6.14846
G01 X-1.04870 Y6.09075
G01 X-1.02039 Y6.02952
G01 X-0.99498 Y5.97049
G01 X-0.97188 Y5.91266
G01 X-0.95138 Y5.85922
G01 X-0.93248 Y5.80807
G01 X-0.91420 Y5.75447
G01 X-0.89670 Y5.69828
G01 X-0.88190 Y5.64582
G01 X-0.86757 Y5.59232
G01 X-0.85546 Y5.54468
G01 X-0.84405 Y5.49452
G01 X-0.83351 Y5.44172
G01 X-0.82510 Y5.39276
G01 X-0.81663 Y5.33921
G01 X-0.81000 Y5.29357
G01 X-0.80425 Y5.24534
G01 X-0.79956 Y5.19447
G01 X-0.79648 Y5.14750
G01 X-0.79369 Y5.09394
G01 X-0.79185 Y5.04632
G01 X-0.79126 Y4.99869
G01 X-0.89125 Y5.00000
G01 X-0.94125 Y5.00000
G01 X-0.94182 Y5.04370
G01 X-0.94356 Y5.08772
G01 X-0.94626 Y5.13932
G01 X-0.94919 Y5.18399
G01 X-0.95327 Y5.22832
G01 X-0.95853 Y5.27267
G01 X-0.96503 Y5.31735
G01 X-0.97320 Y5.36897
G01 X-0.98122 Y5.41563
G01 X-0.99047 Y5.46198
G01 X-1.00099 Y5.50835
G01 X-1.01287 Y5.55505
G01 X-1.02670 Y5.60667
G01 X-1.04087 Y5.65687
G01 X-1.05641 Y5.70676
G01 X-1.07340 Y5.75669
G01 X-1.09197 Y5.80694
G01 X-1.11180 Y5.85859
G01 X-1.13401 Y5.91420
G01 X-1.15787 Y5.96955
G01 X-1.18348 Y6.02493
G01 X-1.21098 Y6.08063
G01 X-1.23732 Y6.13230
G01 X-1.27079 Y6.19583
G01 X-1.30635 Y6.25910
G01 X-1.34415 Y6.32243
G01 X-1.38436 Y6.38606
G01 X-1.41794 Y6.43776
G01 X-1.46811 Y6.51270
G01 X-1.52111 Y6.58742
G01 X-1.57717 Y6.66218
G01 X-1.63644 Y6.73723
G01 X-1.67847 Y6.78913
G01 X-1.71605 Y6.83488
G01 X-1.75463 Y6.88049
G01 X-1.79431 Y6.92615
G01 X-1.83508 Y6.97181
G01 X-1.87697 Y7.01750
G01 X-1.91984 Y7.06309
G01 X-2.00944 Y7.15486
G01 X-2.06129 Y7.20671
G01 X-2.15025 Y7.29376
G01 X-2.24287 Y7.38065
G01 X-2.33937 Y7.46760
G01 X-2.42395 Y7.54091
G01 X-2.42261 Y7.54511
G01 X-2.42395 Y7.54091
G01 X-2.51716 Y7.53224
G01 X-2.56882 Y7.52682
G01 X-2.69048 Y7.51245
G01 X-2.81184 Y7.49498
G01 X-2.93322 Y7.47435
G01 X-3.00492 Y7.46031
G01 X-3.02283 Y7.47209
G01 X-3.00492 Y7.46031
G01 X-2.99668 Y7.42317
G01 X-2.95454 Y7.22923
G01 X-2.94769 Y7.19704
G01 X-2.71587 Y6.10011
G01 X-2.69302 Y5.98627
G01 X-2.64145 Y5.71238
G01 X-2.63066 Y5.65630
G01 X-2.62278 Y5.61322
G01 X-2.61600 Y5.57151
G01 X-2.60374 Y5.49085
G01 X-2.59057 Y5.40746
G01 X-2.58584 Y5.37493
G01 X-2.58194 Y5.34225
G01 X-2.57387 Y5.26834
G01 X-2.56723 Y5.23886
G01 X-2.55317 Y5.18028
G01 X-2.54264 Y5.14076
G01 X-2.53042 Y5.10306
G01 X-2.51153 Y5.04972
G01 X-2.50008 Y5.01976
G01 X-2.48737 Y4.99118
G01 X-2.46406 Y4.94233
G01 X-2.45212 Y4.91881
G01 X-2.43917 Y4.89638
G01 X-2.41177 Y4.85167
G01 X-2.39930 Y4.83243
G01 X-2.38598 Y4.81410
G01 X-2.35469 Y4.77333
G01 X-2.34141 Y4.75690
G01 X-2.32734 Y4.74128
G01 X-2.29227 Y4.70433
G01 X-2.27765 Y4.68965
G01 X-2.26219 Y4.67579
G01 X-2.22333 Y4.64260
G01 X-2.20651 Y4.62896
G01 X-2.18884 Y4.61615
G01 X-2.14611 Y4.58680
G01 X-2.12593 Y4.57367
G01 X-2.10477 Y4.56149
G01 X-2.05671 Y4.53530
G01 X-2.00153 Y4.50412
G01 X-1.97444 Y4.48802
G01 X-1.94565 Y4.46924
G01 X-1.86454 Y4.41378
G01 X-1.83183 Y4.39058
G01 X-1.79999 Y4.36650
G01 X-1.64406 Y4.24481
G01 X-1.59853 Y4.20850
G01 X-1.55314 Y4.17081
G01 X-1.22455 Y3.89275
G01 X-1.21832 Y3.86242
G01 X-1.22455 Y3.89275
G01 X-1.21098 Y3.91937
G01 X-1.18348 Y3.97506
G01 X-1.15787 Y4.03045
G01 X-1.13402 Y4.08578
G01 X-1.11179 Y4.14140
G01 X-1.09197 Y4.19305
G01 X-1.07340 Y4.24331
G01 X-1.05641 Y4.29324
G01 X-1.04087 Y4.34313
G01 X-1.02670 Y4.39332
G01 X-1.01287 Y4.44495
G01 X-1.00099 Y4.49165
G01 X-0.99047 Y4.53802
G01 X-0.98122 Y4.58437
G01 X-0.97320 Y4.63103
G01 X-0.96503 Y4.68264
G01 X-0.95853 Y4.72733
G01 X-0.95327 Y4.77168
G01 X-0.94919 Y4.81601
G01 X-0.94626 Y4.86067
G01 X-0.94356 Y4.91228
G01 X-0.94182 Y4.95631
G01 X-0.94125 Y5.00000
G01 X-0.99125 Y5.00000
G01 X-0.99181 Y4.95762
G01 X-0.99350 Y4.91457
G01 X-0.99618 Y4.86362
G01 X-0.99904 Y4.81994
G01 X-1.00300 Y4.77692
G01 X-1.00811 Y4.73386
G01 X-1.01446 Y4.69014
G01 X-1.02253 Y4.63918
G01 X-1.03039 Y4.59350
G01 X-1.03937 Y4.54845
G01 X-1.04961 Y4.50335
G01 X-1.06124 Y4.45758
G01 X-1.07491 Y4.40659
G01 X-1.08881 Y4.35736
G01 X-1.10395 Y4.30873
G01 X-1.12053 Y4.26003
G01 X-1.13876 Y4.21068
G01 X-1.15835 Y4.15964
G01 X-1.18020 Y4.10496
G01 X-1.20353 Y4.05084
G01 X-1.22860 Y3.99662
G01 X-1.24077 Y3.97197
G01 X-1.23443 Y3.94145
G01 X-1.24077 Y3.97197
G01 X-1.52048 Y4.20868
G01 X-1.56659 Y4.24696
G01 X-1.61329 Y4.28422
G01 X-1.76862 Y4.40545
G01 X-1.80167 Y4.43046
G01 X-1.83563 Y4.45458
G01 X-1.91744 Y4.51051
G01 X-1.94526 Y4.52874
G01 X-1.97693 Y4.54765
G01 X-2.03282 Y4.57923
G01 X-2.08035 Y4.60513
G01 X-2.09981 Y4.61633
G01 X-2.11834 Y4.62838
G01 X-2.15998 Y4.65699
G01 X-2.17608 Y4.66864
G01 X-2.19136 Y4.68105
G01 X-2.22921 Y4.71339
G01 X-2.24323 Y4.72593
G01 X-2.25646 Y4.73923
G01 X-2.29061 Y4.77522
G01 X-2.30337 Y4.78937
G01 X-2.31542 Y4.80429
G01 X-2.34590 Y4.84401
G01 X-2.35807 Y4.86075
G01 X-2.36948 Y4.87835
G01 X-2.39619 Y4.92193
G01 X-2.40815 Y4.94264
G01 X-2.41921 Y4.96443
G01 X-2.44195 Y5.01210
G01 X-2.45385 Y5.03886
G01 X-2.46461 Y5.06700
G01 X-2.48306 Y5.11911
G01 X-2.49467 Y5.15491
G01 X-2.50469 Y5.19256
G01 X-2.51851 Y5.25011
G01 X-2.52447 Y5.27654
G01 X-2.53229 Y5.34815
G01 X-2.53636 Y5.38213
G01 X-2.54119 Y5.41528
G01 X-2.55432 Y5.49845
G01 X-2.56657 Y5.57902
G01 X-2.57343 Y5.62125
G01 X-2.58166 Y5.66627
G01 X-2.59232 Y5.72166
G01 X-2.64389 Y5.99552
G01 X-2.66708 Y6.11107
G01 X-2.89879 Y7.20744
G01 X-2.90568 Y7.23984
G01 X-2.94506 Y7.42108
G01 X-2.96296 Y7.43286
G01 X-2.94506 Y7.42108
G01 X-2.92422 Y7.42516
G01 X-2.80409 Y7.44558
G01 X-2.68398 Y7.46287
G01 X-2.56327 Y7.47712
G01 X-2.51224 Y7.48248
G01 X-2.44057 Y7.48915
G01 X-2.43923 Y7.49336
G01 X-2.44057 Y7.48915
G01 X-2.37248 Y7.43014
G01 X-2.27671 Y7.34384
G01 X-2.18484 Y7.25765
G01 X-2.09645 Y7.17116
G01 X-2.04500 Y7.11971
G01 X-1.95594 Y7.02849
G01 X-1.91361 Y6.98347
G01 X-1.87216 Y6.93827
G01 X-1.83183 Y6.89309
G01 X-1.79259 Y6.84795
G01 X-1.75446 Y6.80286
G01 X-1.71721 Y6.75752
G01 X-1.67549 Y6.70600
G01 X-1.61679 Y6.63168
G01 X-1.56151 Y6.55795
G01 X-1.50928 Y6.48432
G01 X-1.45968 Y6.41024
G01 X-1.42646 Y6.35909
G01 X-1.38676 Y6.29626
G01 X-1.34962 Y6.23404
G01 X-1.31471 Y6.17193
G01 X-1.28171 Y6.10929
G01 X-1.25567 Y6.05821
G01 X-1.22860 Y6.00337
G01 X-1.20353 Y5.94916
G01 X-1.18020 Y5.89503
G01 X-1.15835 Y5.84036
G01 X-1.13876 Y5.78931
G01 X-1.12052 Y5.73997
G01 X-1.10395 Y5.69127
G01 X-1.08881 Y5.64264
G01 X-1.07491 Y5.59341
G01 X-1.06125 Y5.54242
G01 X-1.04960 Y5.49665
G01 X-1.03937 Y5.45155
G01 X-1.03039 Y5.40650
G01 X-1.02253 Y5.36082
G01 X-1.01446 Y5.30985
G01 X-1.00811 Y5.26614
G01 X-1.00300 Y5.22308
G01 X-0.99904 Y5.18006
G01 X-0.99617 Y5.13638
G01 X-0.99351 Y5.08543
G01 X-0.99181 Y5.04239
G01 X-0.99125 Y5.00000
G01 X-0.89125 Y5.00000
G01 X-0.89184 Y4.95500
G01 X-0.89361 Y4.90999
G01 X-0.89635 Y4.85773
G01 X-0.89934 Y4.81208
G01 X-0.90355 Y4.76644
G01 X-0.90897 Y4.72079
G01 X-0.91559 Y4.67514
G01 X-0.92387 Y4.62288
G01 X-0.93207 Y4.57524
G01 X-0.94157 Y4.52760
G01 X-0.95237 Y4.47996
G01 X-0.96449 Y4.43232
G01 X-0.97849 Y4.38006
G01 X-0.99294 Y4.32890
G01 X-1.00887 Y4.27775
G01 X-1.02628 Y4.22659
G01 X-1.04518 Y4.17543
G01 X-1.06524 Y4.12317
G01 X-1.08784 Y4.06661
G01 X-1.11221 Y4.01006
G01 X-1.13837 Y3.95350
G01 X-1.16629 Y3.89695
G01 X-1.19293 Y3.84469
G01 X-1.20884 Y3.81395
G01 X-1.22146 Y3.75990
G01 X-1.20884 Y3.81395
G01 X-1.58508 Y4.13234
G01 X-1.63047 Y4.17003
G01 X-1.67482 Y4.20539
G01 X-1.83015 Y4.32662
G01 X-1.86199 Y4.35070
G01 X-1.89344 Y4.37298
G01 X-1.97387 Y4.42796
G01 X-2.00000 Y4.44505
G01 X-2.02613 Y4.46059
G01 X-2.08131 Y4.49177
G01 X-2.12920 Y4.51786
G01 X-2.15204 Y4.53104
G01 X-2.17388 Y4.54521
G01 X-2.21769 Y4.57531
G01 X-2.23694 Y4.58929
G01 X-2.25530 Y4.60415
G01 X-2.29516 Y4.63820
G01 X-2.31204 Y4.65339
G01 X-2.32808 Y4.66943
G01 X-2.36407 Y4.70735
G01 X-2.37944 Y4.72443
G01 X-2.39396 Y4.74237
G01 X-2.42605 Y4.78419
G01 X-2.44052 Y4.80413
G01 X-2.45406 Y4.82499
G01 X-2.48215 Y4.87082
G01 X-2.49607 Y4.89498
G01 X-2.50892 Y4.92023
G01 X-2.53279 Y4.97027
G01 X-2.54629 Y5.00067
G01 X-2.55845 Y5.03242
G01 X-2.57778 Y5.08701
G01 X-2.59060 Y5.12661
G01 X-2.60164 Y5.16800
G01 X-2.61595 Y5.22760
G01 X-2.62318 Y5.26016
G01 X-2.63159 Y5.33634
G01 X-2.63532 Y5.36774
G01 X-2.63996 Y5.39965
G01 X-2.65316 Y5.48326
G01 X-2.66543 Y5.56400
G01 X-2.67213 Y5.60519
G01 X-2.67984 Y5.64730
G01 X-2.69058 Y5.70309
G01 X-2.74216 Y5.97702
G01 X-2.76489 Y6.09027
G01 X-2.99155 Y7.16279
G01 X-3.00340 Y7.21861
G01 X-3.04554 Y7.41255
G01 X-3.06483 Y7.49953
G04 P0 ( dwell for no time -- G64 should not smooth over this point )
G00 Z0.08000 ( retract )

G00 X-3.45039 Y7.40247 ( rapid move to begin. )
G01 F3.00000
( Mill infeed pass 1/1 )
G01 Z-0.00800
G04 P0 ( dwell for no time -- G64 should not smooth over this point )
G01 F6.00000
G01 X-3.45039 Y7.40247
G01 X-3.47561 Y7.40604
G01 X-3.59318 Y7.41978
G01 X-3.71073 Y7.43058
G01 X-3.82827 Y7.43849
G01 X-3.94579 Y7.44347
G01 X-4.06332 Y7.44555
G01 X-4.18084 Y7.44471
G01 X-4.21883 Y7.44350
G01 X-4.22816 Y7.45432
G01 X-4.21883 Y7.44350
G01 X-4.45660 Y6.13455
G01 X-4.46649 Y6.07763
G01 X-4.47522 Y6.02224
G01 X-4.48286 Y5.96805
G01 X-4.48940 Y5.91503
G01 X-4.49486 Y5.86322
G01 X-4.49924 Y5.81262
G01 X-4.50252 Y5.76324
G01 X-4.50443 Y5.72158
G01 X-4.50458 Y5.72157
G01 X-4.50443 Y5.72158
G01 X-4.49586 Y5.64126
G01 X-4.49014 Y5.57987
G01 X-4.47612 Y5.39422
G01 X-4.46548 Y5.26327
G01 X-4.45606 Y5.15695
G01 X-4.44680 Y5.06090
G01 X-4.43682 Y4.96537
G01 X-4.42502 Y4.86040
G01 X-4.40770 Y4.71642
G01 X-4.40379 Y4.68217
G01 X-4.40040 Y4.64475
G01 X-4.40000 Y4.63582
G01 X-4.40000 Y4.34424
G01 X-4.40027 Y4.33690
G01 X-4.40206 Y4.31259
G01 X-4.40519 Y4.27467
G01 X-4.41523 Y4.16209
G01 X-4.41535 Y4.16209
G01 X-4.41523 Y4.16209
G01 X-4.41304 Y4.11860
G01 X-4.40960 Y4.06803
G01 X-4.40520 Y4.01642
G01 X-4.39984 Y3.96374
G01 X-4.39352 Y3.91003
G01 X-4.38624 Y3.85528
G01 X-4.37798 Y3.79948
G01 X-4.36881 Y3.74297
G01 X-4.34740 Y3.62587
G01 X-4.32215 Y3.50500
G01 X-4.29299 Y3.38002
G01 X-4.25981 Y3.25048
G01 X-4.07466 Y2.55755
G01 X-4.08225 Y2.54804
G01 X-4.07466 Y2.55755
G01 X-4.02739 Y2.55580
G01 X-3.97643 Y2.55520
G01 X-3.97017 Y2.54606
G01 X-3.97643 Y2.55520
G01 X-3.86659 Y2.84776
G01 X-3.82320 Y2.96570
G01 X-3.78274 Y3.08043
G01 X-3.74511 Y3.19225
G01 X-3.71031 Y3.30115
G01 X-3.67835 Y3.40713
G01 X-3.64919 Y3.51017
G01 X-3.62287 Y3.61026
G01 X-3.59936 Y3.70739
G01 X-3.57867 Y3.80156
G01 X-3.56077 Y3.89274
G01 X-3.54567 Y3.98092
G01 X-3.53335 Y4.06609
G01 X-3.52381 Y4.14822
G01 X-3.51702 Y4.22729
G01 X-3.51296 Y4.30330
G01 X-3.51161 Y4.37718
G01 X-3.51157 Y4.44259
G01 X-3.52452 Y4.61400
G01 X-3.53452 Y4.73673
G01 X-3.54454 Y4.84959
G01 X-3.55384 Y4.94541
G01 X-3.56390 Y5.04129
G01 X-3.57580 Y5.14665
G01 X-3.59231 Y5.28357
G01 X-3.59621 Y5.31783
G01 X-3.59960 Y5.35525
G01 X-3.60000 Y5.36418
G01 X-3.60000 Y5.65575
G01 X-3.59973 Y5.66312
G01 X-3.59708 Y5.69824
G01 X-3.59476 Y5.72585
G01 X-3.56483 Y6.06175
G01 X-3.49622 Y6.85880
G01 X-3.45039 Y7.40247
G01 X-3.38190 Y7.45707
G01 X-3.39660 Y7.44535
G01 X-3.44640 Y6.85454
G01 X-3.51502 Y6.05741
G01 X-3.54496 Y5.72141
G01 X-3.54807 Y5.68365
G01 X-3.54986 Y5.65944
G01 X-3.55000 Y5.65575
G01 X-3.55000 Y5.36418
G01 X-3.54980 Y5.35971
G01 X-3.54654 Y5.32350
G01 X-3.54263 Y5.28924
G01 X-3.52615 Y5.15251
G01 X-3.51421 Y5.04679
G01 X-3.50410 Y4.95051
G01 X-3.49477 Y4.85429
G01 X-3.48470 Y4.74089
G01 X-3.47468 Y4.61798
G01 X-3.46157 Y4.44448
G01 X-3.46161 Y4.37672
G01 X-3.46299 Y4.30150
G01 X-3.46714 Y4.22382
G01 X-3.47406 Y4.14319
G01 X-3.48377 Y4.05962
G01 X-3.49628 Y3.97313
G01 X-3.51159 Y3.88370
G01 X-3.52971 Y3.79138
G01 X-3.55064 Y3.69615
G01 X-3.57439 Y3.59802
G01 X-3.60095 Y3.49701
G01 X-3.63035 Y3.39310
G01 X-3.66256 Y3.28632
G01 X-3.69760 Y3.17666
G01 X-3.73546 Y3.06414
G01 X-3.77616 Y2.94875
G01 X-3.81973 Y2.83034
G01 X-3.94194 Y2.50479
G01 X-3.93569 Y2.49565
G01 X-3.94194 Y2.50479
G01 X-4.02861 Y2.50581
G01 X-4.11343 Y2.50895
G01 X-4.12102 Y2.49944
G01 X-4.11343 Y2.50895
G01 X-4.30818 Y3.23783
G01 X-4.34156 Y3.36814
G01 X-4.37097 Y3.49420
G01 X-4.39647 Y3.61626
G01 X-4.41808 Y3.73447
G01 X-4.42739 Y3.79182
G01 X-4.43576 Y3.84832
G01 X-4.44314 Y3.90381
G01 X-4.44955 Y3.95829
G01 X-4.45498 Y4.01176
G01 X-4.45945 Y4.06421
G01 X-4.46296 Y4.11565
G01 X-4.46534 Y4.16306
G01 X-4.46546 Y4.16306
G01 X-4.46534 Y4.16306
G01 X-4.45501 Y4.27885
G01 X-4.45192 Y4.31626
G01 X-4.45013 Y4.34057
G01 X-4.45000 Y4.34424
G01 X-4.45000 Y4.63582
G01 X-4.45020 Y4.64029
G01 X-4.45346 Y4.67650
G01 X-4.45737 Y4.71075
G01 X-4.47469 Y4.85473
G01 X-4.48653 Y4.96003
G01 X-4.49656 Y5.05600
G01 X-4.50585 Y5.15244
G01 X-4.51530 Y5.25911
G01 X-4.52598 Y5.39040
G01 X-4.53993 Y5.57523
G01 X-4.54558 Y5.63596
G01 X-4.55456 Y5.72006
G01 X-4.55470 Y5.72006
G01 X-4.55456 Y5.72006
G01 X-4.55245 Y5.76604
G01 X-4.54909 Y5.81644
G01 X-4.54464 Y5.86800
G01 X-4.53908 Y5.92072
G01 X-4.53243 Y5.97460
G01 X-4.52468 Y6.02962
G01 X-4.51582 Y6.08580
G01 X-4.50583 Y6.14330
G01 X-4.26081 Y7.49219
G01 X-4.27013 Y7.50301
G01 X-4.26081 Y7.49219
G01 X-4.18182 Y7.49470
G01 X-4.06305 Y7.49555
G01 X-3.94429 Y7.49345
G01 X-3.82554 Y7.48841
G01 X-3.70677 Y7.48043
G01 X-3.58799 Y7.46951
G01 X-3.46920 Y7.45563
G01 X-3.39660 Y7.44535
G01 X-3.34281 Y7.48824
G01 X-3.39658 Y6.85028
G01 X-3.46521 Y6.05307
G01 X-3.49516 Y5.71697
G01 X-3.49739 Y5.69039
G01 X-3.50000 Y5.65575
G01 X-3.50000 Y5.36418
G01 X-3.49686 Y5.32917
G01 X-3.49295 Y5.29491
G01 X-3.47649 Y5.15837
G01 X-3.46451 Y5.05229
G01 X-3.45436 Y4.95562
G01 X-3.44499 Y4.85900
G01 X-3.43487 Y4.74505
G01 X-3.42484 Y4.62197
G01 X-3.41161 Y4.44634
G01 X-3.41161 Y4.37626
G01 X-3.41302 Y4.29971
G01 X-3.41725 Y4.22035
G01 X-3.42431 Y4.13816
G01 X-3.43419 Y4.05316
G01 X-3.44689 Y3.96533
G01 X-3.46241 Y3.87467
G01 X-3.48076 Y3.78120
G01 X-3.50192 Y3.68490
G01 X-3.52591 Y3.58578
G01 X-3.55272 Y3.48384
G01 X-3.58236 Y3.37908
G01 X-3.61481 Y3.27149
G01 X-3.65009 Y3.16108
G01 X-3.68819 Y3.04785
G01 X-3.72912 Y2.93180
G01 X-3.77286 Y2.81292
G01 X-3.90746 Y2.45438
G04 P0 ( dwell for no time -- G64 should not smooth over this point )
G00 Z0.08000 ( retract )

G00 X-4.27363 Y2.52742 ( rapid move to begin. )
G01 F3.00000
( Mill infeed pass 1/1 )
G01 Z-0.00800
G04 P0 ( dwell for no time -- G64 should not smooth over this point )
G01 F6.00000
G01 X-4.27363 Y2.52742
G01 X-4.34796 Y2.50568
G01 X-4.43052 Y2.48313
G01 X-4.51306 Y2.46215
G01 X-4.59558 Y2.44277
G01 X-4.67807 Y2.42496
G01 X-4.76053 Y2.40875
G01 X-4.84298 Y2.39410
G01 X-4.92542 Y2.38105
G01 X-5.00784 Y2.36957
G01 X-5.09023 Y2.35968
G01 X-5.17263 Y2.35137
G01 X-5.25501 Y2.34462
G01 X-5.33739 Y2.33947
G01 X-5.41976 Y2.33588
G01 X-5.50212 Y2.33388
G01 X-5.58449 Y2.33345
G01 X-5.66685 Y2.33460
G01 X-5.74921 Y2.33732
G01 X-5.83159 Y2.34163
G01 X-5.91396 Y2.34751
G01 X-5.99635 Y2.35497
G01 X-6.07875 Y2.36400
G01 X-6.16116 Y2.37462
G01 X-6.24359 Y2.38682
G01 X-6.32602 Y2.40059
G01 X-6.40848 Y2.41595
G01 X-6.49096 Y2.43289
G01 X-6.57346 Y2.45142
G01 X-6.65599 Y2.47153
G01 X-6.72457 Y2.48956
G01 X-6.74351 Y2.47887
G01 X-6.72457 Y2.48956
G01 X-6.65648 Y2.72156
G01 X-6.32898 Y3.54156
G01 X-6.29074 Y3.63986
G01 X-6.25522 Y3.73656
G01 X-6.22305 Y3.83006
G01 X-6.19426 Y3.92035
G01 X-6.16883 Y4.00751
G01 X-6.14678 Y4.09152
G01 X-6.12813 Y4.17246
G01 X-6.11256 Y4.25210
G01 X-6.06425 Y4.52609
G01 X-6.05490 Y4.57290
G01 X-6.04441 Y4.61438
G01 X-6.03274 Y4.65150
G01 X-6.02003 Y4.68421
G01 X-6.00599 Y4.71356
G01 X-5.99950 Y4.72521
G01 X-5.99238 Y4.73664
G01 X-5.98526 Y4.74709
G01 X-5.97797 Y4.75649
G01 X-5.97357 Y4.76163
G01 X-5.97440 Y4.76269
G01 X-5.97357 Y4.76163
G01 X-5.96402 Y4.76610
G01 X-5.96543 Y4.76874
G01 X-5.96566 Y4.76864
G01 X-5.96543 Y4.76874
G01 X-5.96828 Y4.77812
G01 X-5.96852 Y4.77807
G01 X-5.96828 Y4.77812
G01 X-5.96924 Y4.78787
G01 X-5.96948 Y4.78787
G01 X-5.96924 Y4.78787
G01 X-5.96828 Y4.79763
G01 X-5.96852 Y4.79767
G01 X-5.96828 Y4.79763
G01 X-5.96543 Y4.80700
G01 X-5.96566 Y4.80710
G01 X-5.96543 Y4.80700
G01 X-5.96081 Y4.81565
G01 X-5.96101 Y4.81578
G01 X-5.96081 Y4.81565
G01 X-5.95464 Y4.82327
G01 X-5.94922 Y4.82860
G01 X-5.95424 Y4.82594
G01 X-5.97192 Y4.81737
G01 X-5.98257 Y4.81262
G01 X-6.00381 Y4.80268
G01 X-6.00432 Y4.80340
G01 X-6.00381 Y4.80268
G01 X-6.00779 Y4.79861
G01 X-6.01682 Y4.78800
G01 X-6.02569 Y4.77650
G01 X-6.03428 Y4.76402
G01 X-6.04259 Y4.75055
G01 X-6.05044 Y4.73655
G01 X-6.06595 Y4.70407
G01 X-6.07994 Y4.66808
G01 X-6.09254 Y4.62803
G01 X-6.10368 Y4.58394
G01 X-6.11339 Y4.53533
G01 X-6.16196 Y4.25990
G01 X-6.17686 Y4.18366
G01 X-6.19479 Y4.10566
G01 X-6.21684 Y4.02149
G01 X-6.24190 Y3.93553
G01 X-6.26998 Y3.84739
G01 X-6.30215 Y3.75380
G01 X-6.33734 Y3.65799
G01 X-6.37558 Y3.55969
G01 X-6.70378 Y2.73791
G01 X-6.78687 Y2.45491
G01 X-6.80533 Y2.44470
G01 X-6.78687 Y2.45491
G01 X-6.75167 Y2.44498
G01 X-6.66826 Y2.42306
G01 X-6.58486 Y2.40273
G01 X-6.50147 Y2.38401
G01 X-6.41809 Y2.36688
G01 X-6.33472 Y2.35135
G01 X-6.25137 Y2.33742
G01 X-6.16801 Y2.32509
G01 X-6.08467 Y2.31435
G01 X-6.00133 Y2.30521
G01 X-5.91800 Y2.29767
G01 X-5.83467 Y2.29173
G01 X-5.75135 Y2.28737
G01 X-5.66803 Y2.28461
G01 X-5.58470 Y2.28345
G01 X-5.50138 Y2.28388
G01 X-5.41807 Y2.28591
G01 X-5.33474 Y2.28954
G01 X-5.25141 Y2.29475
G01 X-5.16808 Y2.30157
G01 X-5.08474 Y2.30998
G01 X-5.00141 Y2.31998
G01 X-4.91806 Y2.33160
G01 X-4.83470 Y2.34479
G01 X-4.75134 Y2.35960
G01 X-4.66797 Y2.37599
G01 X-4.58458 Y2.39399
G01 X-4.50119 Y2.41358
G01 X-4.41777 Y2.43478
G01 X-4.33436 Y2.45756
G01 X-4.25093 Y2.48197
G01 X-4.21289 Y2.49381
G01 X-4.19599 Y2.48449
G01 X-4.21289 Y2.49381
G01 X-4.40486 Y3.21226
G01 X-4.43856 Y3.34384
G01 X-4.46849 Y3.47205
G01 X-4.49472 Y3.59766
G01 X-4.51671 Y3.71796
G01 X-4.52615 Y3.77614
G01 X-4.53473 Y3.83404
G01 X-4.54241 Y3.89175
G01 X-4.54899 Y3.94778
G01 X-4.55451 Y4.00205
G01 X-4.55919 Y4.05699
G01 X-4.56275 Y4.10930
G01 X-4.56539 Y4.16152
G01 X-4.56525 Y4.16847
G01 X-4.55465 Y4.28734
G01 X-4.55245 Y4.31357
G01 X-4.54995 Y4.34608
G01 X-4.54995 Y4.63358
G01 X-4.55288 Y4.66576
G01 X-4.55669 Y4.69910
G01 X-4.57318 Y4.83587
G01 X-4.58595 Y4.94922
G01 X-4.59539 Y5.03932
G01 X-4.60478 Y5.13619
G01 X-4.61495 Y5.25069
G01 X-4.62501 Y5.37411
G01 X-4.63953 Y5.56632
G01 X-4.64505 Y5.62568
G01 X-4.65440 Y5.71324
G01 X-4.65463 Y5.72084
G01 X-4.65226 Y5.77217
G01 X-4.64876 Y5.82456
G01 X-4.64422 Y5.87708
G01 X-4.63848 Y5.93164
G01 X-4.63151 Y5.98813
G01 X-4.62352 Y6.04479
G01 X-4.61441 Y6.10253
G01 X-4.60425 Y6.16099
G01 X-4.36059 Y7.50237
G01 X-4.34414 Y7.51347
G01 X-4.36059 Y7.50237
G01 X-4.38923 Y7.50866
G01 X-4.46458 Y7.52396
G01 X-4.53991 Y7.53801
G01 X-4.61524 Y7.55081
G01 X-4.69057 Y7.56238
G01 X-4.76588 Y7.57269
G01 X-4.84120 Y7.58177
G01 X-4.91650 Y7.58960
G01 X-4.99180 Y7.59619
G01 X-5.06710 Y7.60154
G01 X-5.14240 Y7.60564
G01 X-5.21770 Y7.60850
G01 X-5.29299 Y7.61012
G01 X-5.36829 Y7.61050
G01 X-5.44358 Y7.60964
G01 X-5.47602 Y7.60873
G01 X-5.48707 Y7.62094
G01 X-5.47602 Y7.60873
G01 X-5.69332 Y5.73722
G01 X-5.69848 Y5.69769
G01 X-5.70490 Y5.65765
G01 X-5.78232 Y5.21858
G01 X-5.78264 Y5.21860
G01 X-5.78232 Y5.21858
G01 X-5.78083 Y5.18853
G01 X-5.78079 Y5.15701
G01 X-5.78110 Y5.14505
G01 X-5.78255 Y5.11773
G01 X-5.78515 Y5.09279
G01 X-5.78644 Y5.08308
G01 X-5.78934 Y5.06462
G01 X-5.79354 Y5.04443
G01 X-5.79570 Y5.03533
G01 X-5.80547 Y5.00221
G01 X-5.80889 Y4.99272
G01 X-5.81825 Y4.97008
G01 X-5.82243 Y4.96115
G01 X-5.82907 Y4.94875
G01 X-5.94922 Y4.82860
G01 X-5.74488 Y5.03294
G01 X-5.74089 Y5.05173
G01 X-5.73995 Y5.05686
G01 X-5.73705 Y5.07532
G01 X-5.73558 Y5.08625
G01 X-5.73282 Y5.11260
G01 X-5.73242 Y5.11782
G01 X-5.73117 Y5.14253
G01 X-5.73079 Y5.15708
G01 X-5.73083 Y5.18860
G01 X-5.73096 Y5.19364
G01 X-5.73210 Y5.21549
G01 X-5.73240 Y5.21551
G01 X-5.73210 Y5.21549
G01 X-5.65566 Y5.64896
G01 X-5.64890 Y5.69121
G01 X-5.64366 Y5.73146
G01 X-5.43137 Y7.55977
G01 X-5.44249 Y7.57212
G01 X-5.43137 Y7.55977
G01 X-5.36813 Y7.56050
G01 X-5.29366 Y7.56013
G01 X-5.21918 Y7.55852
G01 X-5.14471 Y7.55570
G01 X-5.07024 Y7.55163
G01 X-4.99575 Y7.54634
G01 X-4.92127 Y7.53982
G01 X-4.84678 Y7.53208
G01 X-4.77227 Y7.52310
G01 X-4.69775 Y7.51290
G01 X-4.62323 Y7.50145
G01 X-4.54868 Y7.48878
G01 X-4.47414 Y7.47488
G01 X-4.41846 Y7.46357
G01 X-4.40191 Y7.47478
G01 X-4.41846 Y7.46357
G01 X-4.65345 Y6.16992
G01 X-4.66367 Y6.11109
G01 X-4.67291 Y6.05257
G01 X-4.68102 Y5.99510
G01 X-4.68801 Y5.93865
G01 X-4.69386 Y5.88325
G01 X-4.69858 Y5.82886
G01 X-4.70215 Y5.77549
G01 X-4.70457 Y5.72314
G01 X-4.70411 Y5.70794
G01 X-4.69480 Y5.62071
G01 X-4.68934 Y5.56205
G01 X-4.67552 Y5.37876
G01 X-4.66480 Y5.24683
G01 X-4.65523 Y5.13873
G01 X-4.64586 Y5.04147
G01 X-4.63486 Y4.93659
G01 X-4.62284 Y4.83012
G01 X-4.60633 Y4.69313
G01 X-4.60263 Y4.66069
G01 X-4.59995 Y4.63135
G01 X-4.59995 Y4.34791
G01 X-4.60447 Y4.29165
G01 X-4.61505 Y4.17291
G01 X-4.61532 Y4.15901
G01 X-4.61264 Y4.10591
G01 X-4.60908 Y4.05360
G01 X-4.60426 Y3.99699
G01 X-4.59856 Y3.94116
G01 X-4.59206 Y3.88591
G01 X-4.58419 Y3.82671
G01 X-4.57551 Y3.76813
G01 X-4.56607 Y3.70995
G01 X-4.54343 Y3.58621
G01 X-4.51769 Y3.46297
G01 X-4.48700 Y3.33143
G01 X-4.45316 Y3.19936
G01 X-4.27363 Y2.52742
G01 X-4.25629 Y2.51767
G01 X-4.25093 Y2.48197
G01 X-4.23648 Y2.43410
G01 X-4.15220 Y2.46035
G01 X-4.35654 Y3.22517
G01 X-4.39013 Y3.35625
G01 X-4.41979 Y3.48341
G01 X-4.44554 Y3.60665
G01 X-4.46736 Y3.72597
G01 X-4.47680 Y3.78415
G01 X-4.48527 Y3.84136
G01 X-4.49275 Y3.89759
G01 X-4.49925 Y3.95284
G01 X-4.50477 Y4.00711
G01 X-4.50931 Y4.06039
G01 X-4.51287 Y4.11270
G01 X-4.51545 Y4.16403
G01 X-4.50484 Y4.28303
G01 X-4.50261 Y4.30950
G01 X-4.50000 Y4.34424
G01 X-4.50000 Y4.63582
G01 X-4.50314 Y4.67083
G01 X-4.50705 Y4.70508
G01 X-4.52437 Y4.84905
G01 X-4.53625 Y4.95469
G01 X-4.54632 Y5.05109
G01 X-4.55565 Y5.14793
G01 X-4.56513 Y5.25495
G01 X-4.57583 Y5.38657
G01 X-4.58971 Y5.57060
G01 X-4.59530 Y5.63065
G01 X-4.60468 Y5.71855
G01 X-4.60237 Y5.76884
G01 X-4.59894 Y5.82025
G01 X-4.59441 Y5.87277
G01 X-4.58876 Y5.92640
G01 X-4.58200 Y5.98115
G01 X-4.57413 Y6.03700
G01 X-4.56515 Y6.09397
G01 X-4.55506 Y6.15205
G01 X-4.30278 Y7.54088
G04 P0 ( dwell for no time -- G64 should not smooth over this point )
G00 Z0.08000 ( retract )

G00 X-5.63126 Y7.57221 ( rapid move to begin. )
G01 F3.00000
( Mill infeed pass 1/1 )
G01 Z-0.00800
G04 P0 ( dwell for no time -- G64 should not smooth over this point )
G01 F6.00000
G01 X-5.63126 Y7.57221
G01 X-5.61512 Y7.58494
G01 X-5.62570 Y7.62192
G01 X-5.61920 Y7.67150
G01 X-5.52069 Y7.65750
G01 X-5.74299 Y5.74299
G01 X-5.74806 Y5.70416
G01 X-5.75414 Y5.66633
G01 X-5.83255 Y5.22167
G01 X-5.83083 Y5.18847
G01 X-5.83079 Y5.15695
G01 X-5.83104 Y5.14758
G01 X-5.83229 Y5.12287
G01 X-5.83472 Y5.09933
G01 X-5.83584 Y5.09084
G01 X-5.83874 Y5.07238
G01 X-5.84246 Y5.05475
G01 X-5.84432 Y5.04701
G01 X-5.85260 Y5.01890
G01 X-5.85511 Y5.01181
G01 X-5.86446 Y4.98917
G01 X-5.86756 Y4.98267
G01 X-5.87775 Y4.96385
G01 X-5.88140 Y4.95790
G01 X-5.89243 Y4.94183
G01 X-5.89661 Y4.93639
G01 X-5.90864 Y4.92230
G01 X-5.91332 Y4.91737
G01 X-5.92661 Y4.90475
G01 X-5.93180 Y4.90033
G01 X-5.94678 Y4.88884
G01 X-5.95247 Y4.88493
G01 X-5.96982 Y4.87431
G01 X-5.97605 Y4.87093
G01 X-5.99373 Y4.86236
G01 X-6.00340 Y4.85808
G01 X-6.03348 Y4.84396
G01 X-6.04479 Y4.83220
G01 X-6.05566 Y4.81951
G01 X-6.06611 Y4.80590
G01 X-6.07612 Y4.79136
G01 X-6.08570 Y4.77590
G01 X-6.09484 Y4.75950
G01 X-6.11184 Y4.72393
G01 X-6.12711 Y4.68466
G01 X-6.14064 Y4.64167
G01 X-6.15245 Y4.59498
G01 X-6.16253 Y4.54458
G01 X-6.21104 Y4.26947
G01 X-6.22559 Y4.19486
G01 X-6.24352 Y4.11686
G01 X-6.26484 Y4.03548
G01 X-6.28954 Y3.95071
G01 X-6.31762 Y3.86257
G01 X-6.34909 Y3.77103
G01 X-6.38394 Y3.67612
G01 X-6.42218 Y3.57782
G01 X-6.75104 Y2.75425
G01 X-6.84909 Y2.42050
G04 P0 ( dwell for no time -- G64 should not smooth over this point )
G00 Z0.08000 ( retract )

G00 X-7.40254 Y2.53211 ( rapid move to begin. )
G01 F3.00000
( Mill infeed pass 1/1 )
G01 Z-0.00800
G04 P0 ( dwell for no time -- G64 should not smooth over this point )
G01 F6.00000
G01 X-7.40254 Y2.53211
G01 X-7.42519 Y3.47051
G01 X-7.43004 Y3.61374
G01 X-7.43750 Y3.74930
G01 X-7.44217 Y3.81384
G01 X-7.44750 Y3.87676
G01 X-7.45348 Y3.93780
G01 X-7.46008 Y3.99693
G01 X-7.46732 Y4.05416
G01 X-7.47519 Y4.10948
G01 X-7.48368 Y4.16289
G01 X-7.49278 Y4.21438
G01 X-7.50249 Y4.26392
G01 X-7.51281 Y4.31154
G01 X-7.52371 Y4.35722
G01 X-7.53535 Y4.40152
G01 X-7.56971 Y4.52643
G01 X-7.58060 Y4.56880
G01 X-7.59048 Y4.61361
G01 X-7.59843 Y4.65762
G01 X-7.60441 Y4.70089
G01 X-7.60841 Y4.74336
G01 X-7.61039 Y4.78507
G01 X-7.61049 Y4.79008
G01 X-7.61030 Y4.82605
G01 X-7.61013 Y4.83135
G01 X-7.60789 Y4.86902
G01 X-7.58257 Y5.16278
G01 X-7.57841 Y5.20106
G01 X-7.57175 Y5.24456
G01 X-7.52844 Y5.49017
G01 X-7.52242 Y5.52745
G01 X-7.51739 Y5.56527
G01 X-7.51325 Y5.60436
G01 X-7.51001 Y5.64476
G01 X-7.50766 Y5.68641
G01 X-7.50624 Y5.72933
G01 X-7.50572 Y5.77352
G01 X-7.50615 Y5.81944
G01 X-7.52030 Y6.55769
G01 X-7.49027 Y6.63787
G01 X-7.52030 Y6.55769
G01 X-7.80174 Y6.24697
G01 X-7.85341 Y6.19095
G01 X-7.90677 Y6.13585
G01 X-7.96028 Y6.08339
G01 X-8.01497 Y6.03268
G01 X-8.05886 Y5.99383
G01 X-8.09886 Y5.95930
G01 X-8.10058 Y5.96041
G01 X-8.09886 Y5.95930
G01 X-8.11589 Y5.90308
G01 X-8.15661 Y5.76603
G01 X-8.20109 Y5.59076
G01 X-8.21021 Y5.55237
G01 X-8.21756 Y5.51627
G01 X-8.22332 Y5.48176
G01 X-8.22766 Y5.44781
G01 X-8.23565 Y5.37343
G01 X-8.23846 Y5.33434
G01 X-8.24107 Y5.25977
G01 X-8.24259 Y5.23391
G01 X-8.24304 Y5.22865
G01 X-8.24595 Y5.20326
G01 X-8.26203 Y5.08910
G01 X-8.26436 Y5.07513
G01 X-8.29336 Y5.02503
G01 X-8.29755 Y5.01545
G01 X-8.29781 Y5.01553
G01 X-8.29755 Y5.01545
G01 X-8.29973 Y5.00523
G01 X-8.30000 Y5.00526
G01 X-8.29973 Y5.00523
G01 X-8.29973 Y4.99477
G01 X-8.30000 Y4.99474
G01 X-8.29973 Y4.99477
G01 X-8.29755 Y4.98455
G01 X-8.29781 Y4.98446
G01 X-8.29755 Y4.98455
G01 X-8.29336 Y4.97497
G01 X-8.26616 Y4.92798
G01 X-8.25238 Y4.84983
G01 X-8.24899 Y4.82730
G01 X-8.24835 Y4.82207
G01 X-8.24619 Y4.79909
G01 X-8.23808 Y4.68307
G01 X-8.23709 Y4.66530
G01 X-8.23517 Y4.61965
G01 X-8.23381 Y4.59695
G01 X-8.23162 Y4.57433
G01 X-8.22858 Y4.55087
G01 X-8.22474 Y4.52720
G01 X-8.20758 Y4.44429
G01 X-8.17751 Y4.30682
G01 X-8.15870 Y4.23506
G01 X-8.13587 Y4.15814
G01 X-8.02956 Y3.81847
G01 X-8.00311 Y3.73199
G01 X-7.97703 Y3.64294
G01 X-7.87230 Y3.27770
G01 X-7.82513 Y3.10840
G01 X-7.77831 Y2.93102
G01 X-7.71146 Y2.67102
G01 X-7.71323 Y2.66997
G01 X-7.71146 Y2.67102
G01 X-7.67981 Y2.64078
G01 X-7.62669 Y2.59117
G01 X-7.57235 Y2.54154
G01 X-7.54784 Y2.51963
G01 X-7.54928 Y2.51540
G01 X-7.54784 Y2.51963
G01 X-7.51997 Y2.52155
G01 X-7.45078 Y2.52735
G01 X-7.40254 Y2.53211
G01 X-7.38889 Y2.52003
G01 X-7.37630 Y2.48445
G01 X-7.35145 Y2.48727
G01 X-7.33786 Y2.47530
G01 X-7.35145 Y2.48727
G01 X-7.37521 Y3.47196
G01 X-7.38009 Y3.61596
G01 X-7.38760 Y3.75248
G01 X-7.39233 Y3.81775
G01 X-7.39771 Y3.88130
G01 X-7.40375 Y3.94301
G01 X-7.41043 Y4.00285
G01 X-7.41776 Y4.06082
G01 X-7.42574 Y4.11692
G01 X-7.43437 Y4.17117
G01 X-7.44362 Y4.22354
G01 X-7.45352 Y4.27403
G01 X-7.46405 Y4.32264
G01 X-7.47521 Y4.36937
G01 X-7.48706 Y4.41451
G01 X-7.52129 Y4.53887
G01 X-7.53218 Y4.58124
G01 X-7.54163 Y4.62430
G01 X-7.54921 Y4.66642
G01 X-7.55487 Y4.70765
G01 X-7.55862 Y4.74794
G01 X-7.56044 Y4.78731
G01 X-7.56030 Y4.82578
G01 X-7.55807 Y4.86472
G01 X-7.53275 Y5.15848
G01 X-7.52870 Y5.19562
G01 X-7.52251 Y5.23587
G01 X-7.47913 Y5.48184
G01 X-7.47295 Y5.52017
G01 X-7.46774 Y5.55935
G01 X-7.46346 Y5.59973
G01 X-7.46012 Y5.64135
G01 X-7.45771 Y5.68418
G01 X-7.45625 Y5.72821
G01 X-7.45572 Y5.77346
G01 X-7.45615 Y5.82015
G01 X-7.47272 Y6.68447
G01 X-7.44269 Y6.76460
G01 X-7.47272 Y6.68447
G01 X-7.52113 Y6.63125
G01 X-7.83850 Y6.28087
G01 X-7.89101 Y6.22395
G01 X-7.94360 Y6.16972
G01 X-7.99627 Y6.11817
G01 X-8.04844 Y6.06982
G01 X-8.09193 Y6.03134
G01 X-8.14247 Y5.98770
G01 X-8.14420 Y5.98881
G01 X-8.14247 Y5.98770
G01 X-8.16379 Y5.91739
G01 X-8.20482 Y5.77931
G01 X-8.24964 Y5.60270
G01 X-8.25905 Y5.56314
G01 X-8.26673 Y5.52538
G01 X-8.27280 Y5.48905
G01 X-8.27732 Y5.45365
G01 X-8.28546 Y5.37789
G01 X-8.28840 Y5.33701
G01 X-8.29104 Y5.26151
G01 X-8.29273 Y5.23427
G01 X-8.29547 Y5.21022
G01 X-8.31135 Y5.09732
G01 X-8.31448 Y5.07898
G01 X-8.31787 Y5.06363
G01 X-8.31943 Y5.05728
G01 X-8.32381 Y5.03591
G01 X-8.32589 Y5.01594
G01 X-8.32605 Y4.99616
G01 X-8.32412 Y4.97525
G01 X-8.32051 Y4.94930
G01 X-8.31903 Y4.93989
G01 X-8.30162 Y4.84115
G01 X-8.29813 Y4.81732
G01 X-8.29607 Y4.79561
G01 X-8.28796 Y4.67959
G01 X-8.28704 Y4.66320
G01 X-8.28510 Y4.61709
G01 X-8.28366 Y4.59304
G01 X-8.28131 Y4.56871
G01 X-8.27805 Y4.54364
G01 X-8.27392 Y4.51813
G01 X-8.25652 Y4.43401
G01 X-8.22613 Y4.29512
G01 X-8.20687 Y4.22161
G01 X-8.18370 Y4.14356
G01 X-8.07728 Y3.80353
G01 X-8.05110 Y3.71793
G01 X-8.02518 Y3.62943
G01 X-7.92057 Y3.26463
G01 X-7.87348 Y3.09564
G01 X-7.82665 Y2.91826
G01 X-7.75633 Y2.64473
G01 X-7.75809 Y2.64369
G01 X-7.75633 Y2.64473
G01 X-7.71415 Y2.60443
G01 X-7.66062 Y2.55444
G01 X-7.60587 Y2.50444
G01 X-7.56543 Y2.46830
G01 X-7.56685 Y2.46420
G01 X-7.56543 Y2.46830
G01 X-7.51617 Y2.47169
G01 X-7.44624 Y2.47755
G01 X-7.37630 Y2.48445
G01 X-7.37103 Y2.43473
G01 X-7.30036 Y2.44275
G01 X-7.32523 Y3.47341
G01 X-7.33014 Y3.61818
G01 X-7.33770 Y3.75566
G01 X-7.34248 Y3.82167
G01 X-7.34792 Y3.88585
G01 X-7.35402 Y3.94822
G01 X-7.36078 Y4.00876
G01 X-7.36821 Y4.06748
G01 X-7.37630 Y4.12437
G01 X-7.38506 Y4.17945
G01 X-7.39447 Y4.23270
G01 X-7.40455 Y4.28413
G01 X-7.41530 Y4.33374
G01 X-7.42671 Y4.38153
G01 X-7.43878 Y4.42749
G01 X-7.47286 Y4.55132
G01 X-7.48375 Y4.59369
G01 X-7.49279 Y4.63499
G01 X-7.49998 Y4.67523
G01 X-7.50533 Y4.71440
G01 X-7.50883 Y4.75251
G01 X-7.51049 Y4.78955
G01 X-7.51030 Y4.82552
G01 X-7.50826 Y4.86043
G01 X-7.48294 Y5.15419
G01 X-7.47900 Y5.19018
G01 X-7.47327 Y5.22719
G01 X-7.42983 Y5.47352
G01 X-7.42348 Y5.51289
G01 X-7.41809 Y5.55342
G01 X-7.41368 Y5.59510
G01 X-7.41024 Y5.63794
G01 X-7.40776 Y5.68194
G01 X-7.40626 Y5.72709
G01 X-7.40572 Y5.77340
G01 X-7.40616 Y5.82086
G01 X-7.42514 Y6.81105
G04 P0 ( dwell for no time -- G64 should not smooth over this point )
G00 Z0.08000 ( retract )

G00 X-8.18609 Y6.01610 ( rapid move to begin. )
G01 F3.00000
( Mill infeed pass 1/1 )
G01 Z-0.00800
G04 P0 ( dwell for no time -- G64 should not smooth over this point )
G01 F6.00000
G01 X-8.18609 Y6.01610
G01 X-8.21170 Y5.93171
G01 X-8.25303 Y5.79258
G01 X-8.29820 Y5.61463
G01 X-8.30788 Y5.57391
G01 X-8.31590 Y5.53448
G01 X-8.32227 Y5.49634
G01 X-8.32698 Y5.45949
G01 X-8.33527 Y5.38236
G01 X-8.33834 Y5.33968
G01 X-8.34101 Y5.26326
G01 X-8.34241 Y5.23989
G01 X-8.34498 Y5.21718
G01 X-8.36067 Y5.10554
G01 X-8.36330 Y5.08976
G01 X-8.36669 Y5.07441
G01 X-8.36822 Y5.06826
G01 X-8.37322 Y5.04346
G01 X-8.37581 Y5.01875
G01 X-8.37601 Y4.99412
G01 X-8.37380 Y4.96957
G01 X-8.36997 Y4.94198
G01 X-8.36835 Y4.93167
G01 X-8.35086 Y4.83247
G01 X-8.34790 Y4.81258
G01 X-8.34595 Y4.79211
G01 X-8.33784 Y4.67610
G01 X-8.33700 Y4.66110
G01 X-8.33504 Y4.61452
G01 X-8.33350 Y4.58914
G01 X-8.33100 Y4.56310
G01 X-8.32753 Y4.53641
G01 X-8.32309 Y4.50906
G01 X-8.30206 Y4.40784
G01 X-8.27474 Y4.28341
G01 X-8.25502 Y4.20816
G01 X-8.23153 Y4.12898
G01 X-8.12500 Y3.78859
G01 X-8.09908 Y3.70388
G01 X-8.07316 Y3.61538
G01 X-7.96863 Y3.25085
G01 X-7.92182 Y3.08288
G01 X-7.87500 Y2.90550
G01 X-7.80120 Y2.61845
G04 P0 ( dwell for no time -- G64 should not smooth over this point )
G00 Z0.08000 ( retract )

G00 X-7.82987 Y2.65670 ( rapid move to begin. )
G01 F3.00000
( Mill infeed pass 1/1 )
G01 Z-0.00800
G04 P0 ( dwell for no time -- G64 should not smooth over this point )
G01 F6.00000
G01 X-7.82987 Y2.65670
G01 X-7.88080 Y2.72725
G01 X-7.90848 Y2.76530
G01 X-7.96117 Y2.83905
G01 X-8.02171 Y2.87932
G01 X-8.10696 Y2.93800
G01 X-8.25543 Y3.04196
G01 X-8.35929 Y3.11650
G01 X-8.45762 Y3.19076
G01 X-8.50439 Y3.22754
G01 X-8.55008 Y3.26446
G01 X-8.59443 Y3.30134
G01 X-8.63773 Y3.33843
G01 X-8.75725 Y3.44232
G01 X-8.81614 Y3.49475
G01 X-8.87161 Y3.54666
G01 X-8.92410 Y3.59842
G01 X-8.97413 Y3.65055
G01 X-9.07070 Y3.75412
G01 X-9.10531 Y3.79215
G01 X-9.13774 Y3.82961
G01 X-9.16838 Y3.86694
G01 X-9.19768 Y3.90470
G01 X-9.27566 Y4.00818
G01 X-9.29642 Y4.03645
G01 X-9.31569 Y4.06412
G01 X-9.33382 Y4.09168
G01 X-9.35120 Y4.11972
G01 X-9.41301 Y4.22259
G01 X-9.43723 Y4.26522
G01 X-9.48187 Y4.35427
G01 X-9.48527 Y4.36161
G01 X-9.50459 Y4.40650
G01 X-9.52096 Y4.44385
G01 X-9.53344 Y4.47721
G01 X-9.56857 Y4.57927
G01 X-9.57717 Y4.60637
G01 X-9.58414 Y4.63336
G01 X-9.60768 Y4.73533
G01 X-9.61240 Y4.75839
G01 X-9.61583 Y4.78139
G01 X-9.62835 Y4.88331
G01 X-9.63039 Y4.90428
G01 X-9.63129 Y4.92523
G01 X-9.63306 Y5.02712
G01 X-9.63289 Y5.04780
G01 X-9.63162 Y5.06848
G01 X-9.62270 Y5.17039
G01 X-9.62019 Y5.19250
G01 X-9.61646 Y5.21465
G01 X-9.59664 Y5.31659
G01 X-9.59101 Y5.34202
G01 X-9.58389 Y5.36755
G01 X-9.55936 Y5.44780
G01 X-9.55197 Y5.47268
G01 X-9.54406 Y5.49586
G01 X-9.54111 Y5.50396
G01 X-9.53162 Y5.52846
G01 X-9.52027 Y5.55466
G01 X-9.48672 Y5.63369
G01 X-9.46882 Y5.67290
G01 X-9.44825 Y5.71228
G01 X-9.40700 Y5.78669
G01 X-9.41221 Y5.79875
G01 X-9.40700 Y5.78669
G01 X-9.37606 Y5.77882
G01 X-9.32660 Y5.76776
G01 X-9.32162 Y5.76678
G01 X-9.27067 Y5.75810
G01 X-9.18649 Y5.74532
G01 X-9.16709 Y5.74257
G01 X-9.12956 Y5.73828
G01 X-9.12436 Y5.73782
G01 X-9.08711 Y5.73552
G01 X-9.07679 Y5.73513
G01 X-8.99468 Y5.73328
G01 X-8.96060 Y5.73309
G01 X-8.95557 Y5.73319
G01 X-8.92137 Y5.73472
G01 X-8.90986 Y5.73551
G01 X-8.87773 Y5.73848
G01 X-8.83363 Y5.74349
G01 X-8.79956 Y5.74708
G01 X-8.76699 Y5.75112
G01 X-8.73581 Y5.75607
G01 X-8.72577 Y5.75789
G01 X-8.67473 Y5.76837
G01 X-8.61677 Y5.78181
G01 X-8.56334 Y5.79380
G01 X-8.52024 Y5.80419
G01 X-8.48069 Y5.81493
G01 X-8.46862 Y5.81841
G01 X-8.41567 Y5.83459
G01 X-8.33734 Y5.85994
G01 X-8.29745 Y5.90088
G01 X-8.33734 Y5.85994
G01 X-8.34996 Y5.81718
G01 X-8.39549 Y5.63776
G01 X-8.40517 Y5.59704
G01 X-8.41389 Y5.55441
G01 X-8.42146 Y5.50902
G01 X-8.42641 Y5.47018
G01 X-8.43470 Y5.39305
G01 X-8.43828 Y5.34317
G01 X-8.44091 Y5.26800
G01 X-8.44204 Y5.24850
G01 X-8.44419 Y5.22976
G01 X-8.45951 Y5.12072
G01 X-8.46151 Y5.10877
G01 X-8.46226 Y5.10538
G01 X-8.45629 Y5.08170
G01 X-8.45483 Y5.07134
G01 X-8.45118 Y4.96686
G01 X-8.45191 Y4.95643
G01 X-8.46312 Y4.89325
G01 X-8.44957 Y4.81642
G01 X-8.44714 Y4.80047
G01 X-8.44562 Y4.78389
G01 X-8.43764 Y4.66982
G01 X-8.43688 Y4.65620
G01 X-8.43495 Y4.61031
G01 X-8.43332 Y4.58308
G01 X-8.43054 Y4.55354
G01 X-8.42670 Y4.52352
G01 X-8.42180 Y4.49303
G01 X-8.40325 Y4.40289
G01 X-8.37241 Y4.26197
G01 X-8.35177 Y4.18283
G01 X-8.32696 Y4.09911
G01 X-8.22053 Y3.75904
G01 X-8.19488 Y3.67520
G01 X-8.16921 Y3.58754
G01 X-8.06486 Y3.22364
G01 X-8.01833 Y3.05669
G01 X-7.97177 Y2.88029
G01 X-7.96117 Y2.83905
G04 P0 ( dwell for no time -- G64 should not smooth over this point )
G00 Z0.08000 ( retract )

G00 X-6.62030 Y3.35133 ( rapid move to begin. )
G01 F3.00000
( Mill infeed pass 1/1 )
G01 Z-0.00800
G04 P0 ( dwell for no time -- G64 should not smooth over this point )
G01 F6.00000
G01 X-6.62030 Y3.35133
G01 X-6.51521 Y3.61449
G01 X-6.47748 Y3.71148
G01 X-6.44332 Y3.80452
G01 X-6.41255 Y3.89401
G01 X-6.38520 Y3.97988
G01 X-6.36122 Y4.06214
G01 X-6.34063 Y4.14074
G01 X-6.32341 Y4.21564
G01 X-6.30936 Y4.28772
G01 X-6.26101 Y4.56194
G01 X-6.25051 Y4.61459
G01 X-6.24940 Y4.61950
G01 X-6.23759 Y4.66619
G01 X-6.23603 Y4.67169
G01 X-6.22250 Y4.71468
G01 X-6.22031 Y4.72090
G01 X-6.20504 Y4.76017
G01 X-6.20207 Y4.76705
G01 X-6.18506 Y4.80262
G01 X-6.18219 Y4.80818
G01 X-6.17305 Y4.82458
G01 X-6.16112 Y4.84403
G01 X-6.15849 Y4.84807
G01 X-6.14848 Y4.86261
G01 X-6.14543 Y4.86680
G01 X-6.13304 Y4.88279
G01 X-6.03812 Y4.92706
G01 X-6.03656 Y4.92616
G01 X-6.03038 Y4.92331
G01 X-6.02044 Y4.92011
G01 X-6.01380 Y4.91870
G01 X-6.00340 Y4.91761
G01 X-5.99660 Y4.91761
G01 X-5.98620 Y4.91870
G01 X-5.97957 Y4.92018
G01 X-5.97954 Y4.92002
G01 X-5.97957 Y4.92018
G01 X-5.96963 Y4.92333
G01 X-5.96341 Y4.92610
G01 X-5.95430 Y4.93135
G01 X-5.94880 Y4.93536
G01 X-5.94102 Y4.94237
G01 X-5.93647 Y4.94743
G01 X-5.93037 Y4.95583
G01 X-5.92696 Y4.96172
G01 X-5.92270 Y4.97130
G01 X-5.92059 Y4.97776
G01 X-5.91841 Y4.98801
G01 X-5.91770 Y4.99477
G01 X-5.91770 Y5.00523
G01 X-5.91842 Y5.01199
G01 X-5.92059 Y5.02224
G01 X-5.92270 Y5.02870
G01 X-5.92696 Y5.03828
G01 X-5.93037 Y5.04416
G01 X-5.93653 Y5.05253
G01 X-5.93642 Y5.05261
G01 X-5.93653 Y5.05253
G01 X-5.94107 Y5.05758
G01 X-5.94453 Y5.06070
G01 X-5.94093 Y5.07283
G01 X-5.93710 Y5.09047
G01 X-5.93403 Y5.11100
G01 X-5.93201 Y5.13053
G01 X-5.93097 Y5.15144
G01 X-5.93078 Y5.15822
G01 X-5.93081 Y5.18582
G01 X-5.93242 Y5.21650
G01 X-5.93103 Y5.23904
G01 X-5.85275 Y5.68295
G01 X-5.84702 Y5.71857
G01 X-5.84224 Y5.75523
G01 X-5.63126 Y7.57221
G01 X-5.72859 Y7.58393
G01 X-5.82495 Y7.59342
G01 X-5.92130 Y7.60080
G01 X-6.01764 Y7.60607
G01 X-6.11398 Y7.60925
G01 X-6.21031 Y7.61033
G01 X-6.30664 Y7.60929
G01 X-6.40298 Y7.60616
G01 X-6.49932 Y7.60093
G01 X-6.59567 Y7.59359
G01 X-6.69203 Y7.58414
G01 X-6.78842 Y7.57260
G01 X-6.88481 Y7.55895
G01 X-6.98124 Y7.54319
G01 X-7.01725 Y7.53652
G01 X-7.02331 Y7.54312
G01 X-7.01725 Y7.53652
G01 X-7.04770 Y7.42673
G01 X-7.07823 Y7.32089
G01 X-7.08025 Y7.32089
G01 X-7.07823 Y7.32089
G01 X-7.04121 Y7.19163
G01 X-6.99871 Y7.03939
G01 X-6.95913 Y6.89367
G01 X-6.92256 Y6.75469
G01 X-6.88833 Y6.61994
G01 X-6.85708 Y6.49190
G01 X-6.82885 Y6.37082
G01 X-6.80316 Y6.25459
G01 X-6.77995 Y6.14280
G01 X-6.76007 Y6.03963
G01 X-6.74268 Y5.94083
G01 X-6.72808 Y5.84778
G01 X-6.71594 Y5.75799
G01 X-6.70720 Y5.67870
G01 X-6.70097 Y5.60253
G01 X-6.69758 Y5.53178
G01 X-6.69071 Y5.28413
G01 X-6.69402 Y5.28216
G01 X-6.69417 Y5.28236
G01 X-6.69402 Y5.28216
G01 X-6.70132 Y5.27562
G01 X-6.70150 Y5.27578
G01 X-6.70132 Y5.27562
G01 X-6.70721 Y5.26778
G01 X-6.70741 Y5.26790
G01 X-6.70721 Y5.26778
G01 X-6.71144 Y5.25894
G01 X-6.71167 Y5.25902
G01 X-6.71144 Y5.25894
G01 X-6.71388 Y5.24944
G01 X-6.71412 Y5.24948
G01 X-6.71388 Y5.24944
G01 X-6.71441 Y5.23966
G01 X-6.71465 Y5.23965
G01 X-6.71441 Y5.23966
G01 X-6.71303 Y5.22996
G01 X-6.71326 Y5.22990
G01 X-6.71303 Y5.22996
G01 X-6.70983 Y5.22069
G01 X-6.62952 Y5.04861
G01 X-6.57281 Y4.86873
G01 X-6.56733 Y4.84986
G01 X-6.56209 Y4.82827
G01 X-6.55786 Y4.80637
G01 X-6.55465 Y4.78417
G01 X-6.55394 Y4.77755
G01 X-6.55130 Y4.74122
G01 X-6.55105 Y4.73280
G01 X-6.55161 Y4.69109
G01 X-6.62030 Y3.35133
G01 X-6.67497 Y3.10163
G04 P0 ( dwell for no time -- G64 should not smooth over this point )
G00 Z0.08000 ( retract )

G00 X-6.68567 Y3.05279 ( rapid move to begin. )
G01 F3.00000
( Mill infeed pass 1/1 )
G01 Z-0.00800
G04 P0 ( dwell for no time -- G64 should not smooth over this point )
G01 F6.00000
G01 X-6.68567 Y3.05279
G01 X-6.46870 Y3.59615
G01 X-6.43071 Y3.69380
G01 X-6.39620 Y3.78777
G01 X-6.36508 Y3.87829
G01 X-6.33737 Y3.96529
G01 X-6.31303 Y4.04881
G01 X-6.29207 Y4.12880
G01 X-6.27450 Y4.20525
G01 X-6.26020 Y4.27860
G01 X-6.21177 Y4.55326
G01 X-6.20092 Y4.60724
G01 X-6.18911 Y4.65393
G01 X-6.17480 Y4.69967
G01 X-6.17371 Y4.70278
G01 X-6.15844 Y4.74205
G01 X-6.15695 Y4.74549
G01 X-6.13851 Y4.78384
G01 X-6.12937 Y4.80024
G01 X-6.11862 Y4.81770
G01 X-6.10729 Y4.83425
G01 X-6.09532 Y4.84996
G01 X-6.08276 Y4.86473
G01 X-6.06952 Y4.87862
G01 X-6.06274 Y4.88450
G01 X-6.05503 Y4.88908
G01 X-6.02460 Y4.90336
G01 X-6.01449 Y4.90785
G01 X-5.99889 Y4.91542
G01 X-5.99435 Y4.91791
G01 X-5.98621 Y4.91877
G01 X-5.97957 Y4.92018
G01 X-5.96965 Y4.92340
G01 X-5.96344 Y4.92616
G01 X-5.95434 Y4.93141
G01 X-5.94884 Y4.93541
G01 X-5.94107 Y4.94242
G01 X-5.93653 Y4.94747
G01 X-5.93042 Y4.95587
G01 X-5.92703 Y4.96175
G01 X-5.92276 Y4.97132
G01 X-5.92066 Y4.97778
G01 X-5.91848 Y4.98802
G01 X-5.91777 Y4.99495
G01 X-5.91214 Y5.00535
G01 X-5.91011 Y5.00946
G01 X-5.90181 Y5.02971
G01 X-5.90012 Y5.03430
G01 X-5.89264 Y5.05992
G01 X-5.89121 Y5.06575
G01 X-5.88791 Y5.08142
G01 X-5.88532 Y5.09799
G01 X-5.88438 Y5.10517
G01 X-5.88214 Y5.12670
G01 X-5.88099 Y5.14951
G01 X-5.88079 Y5.15759
G01 X-5.88081 Y5.18714
G01 X-5.88248 Y5.21908
G01 X-5.88179 Y5.23035
G01 X-5.80344 Y5.67464
G01 X-5.79754 Y5.71136
G01 X-5.79261 Y5.74911
G01 X-5.57598 Y7.61485
G01 X-5.56028 Y7.62696
G01 X-5.57598 Y7.61485
G01 X-5.62570 Y7.62192
G01 X-5.72315 Y7.63364
G01 X-5.82059 Y7.64323
G01 X-5.91803 Y7.65070
G01 X-6.01545 Y7.65603
G01 X-6.11287 Y7.65924
G01 X-6.21030 Y7.66033
G01 X-6.30772 Y7.65928
G01 X-6.40515 Y7.65611
G01 X-6.50258 Y7.65082
G01 X-6.60001 Y7.64340
G01 X-6.69745 Y7.63385
G01 X-6.79490 Y7.62218
G01 X-6.89235 Y7.60838
G01 X-6.98982 Y7.59245
G01 X-7.05709 Y7.57999
G01 X-7.06314 Y7.58659
G01 X-7.05709 Y7.57999
G01 X-7.09588 Y7.44009
G01 X-7.13026 Y7.32094
G01 X-7.13228 Y7.32094
G01 X-7.13026 Y7.32094
G01 X-7.08928 Y7.17786
G01 X-7.04705 Y7.02663
G01 X-7.00748 Y6.88094
G01 X-6.97081 Y6.74155
G01 X-6.93702 Y6.60854
G01 X-6.90590 Y6.48105
G01 X-6.87754 Y6.35946
G01 X-6.85198 Y6.24380
G01 X-6.82918 Y6.13405
G01 X-6.80901 Y6.02937
G01 X-6.79177 Y5.93125
G01 X-6.77747 Y5.84003
G01 X-6.76579 Y5.75373
G01 X-6.75690 Y5.67322
G01 X-6.75080 Y5.59848
G01 X-6.74753 Y5.52943
G01 X-6.74003 Y5.25912
G01 X-6.73914 Y5.24434
G01 X-6.73733 Y5.23062
G01 X-6.73457 Y5.21709
G01 X-6.73058 Y5.20286
G01 X-6.62014 Y4.85253
G01 X-6.61475 Y4.83365
G01 X-6.61025 Y4.81442
G01 X-6.60663 Y4.79487
G01 X-6.60381 Y4.77392
G01 X-6.60117 Y4.73759
G01 X-6.60104 Y4.73339
G01 X-6.60154 Y4.69365
G01 X-6.68567 Y3.05279
G01 X-6.74034 Y2.80309
G04 P0 ( dwell for no time -- G64 should not smooth over this point )
G00 Z0.08000 ( retract )

G00 X-6.75104 Y2.75425 ( rapid move to begin. )
G01 F3.00000
( Mill infeed pass 1/1 )
G01 Z-0.00800
G04 P0 ( dwell for no time -- G64 should not smooth over this point )
G01 F6.00000
G01 X-6.75104 Y2.75425
G01 X-6.65148 Y4.69621
G01 X-6.65104 Y4.73397
G01 X-6.70106 Y4.73245
G01 X-6.70146 Y4.69778
G01 X-6.80067 Y2.76269
G01 X-6.80033 Y2.76263
G01 X-6.80067 Y2.76269
G01 X-6.88636 Y2.47102
G01 X-6.87877 Y2.46074
G01 X-6.88636 Y2.47102
G01 X-6.96063 Y2.47206
G01 X-7.07227 Y2.47624
G01 X-7.18390 Y2.48306
G01 X-7.25146 Y2.48879
G01 X-7.26395 Y2.47702
G01 X-7.25146 Y2.48879
G01 X-7.27526 Y3.47510
G01 X-7.28022 Y3.62093
G01 X-7.28777 Y3.75841
G01 X-7.29266 Y3.82589
G01 X-7.29810 Y3.89007
G01 X-7.30426 Y3.95309
G01 X-7.31109 Y4.01431
G01 X-7.31860 Y4.07376
G01 X-7.32680 Y4.13141
G01 X-7.33582 Y4.18815
G01 X-7.34523 Y4.24140
G01 X-7.35548 Y4.29375
G01 X-7.36667 Y4.34535
G01 X-7.37808 Y4.39314
G01 X-7.39042 Y4.44019
G01 X-7.42454 Y4.56418
G01 X-7.43510 Y4.60526
G01 X-7.44374 Y4.64474
G01 X-7.45060 Y4.68301
G01 X-7.45565 Y4.72006
G01 X-7.45895 Y4.75592
G01 X-7.46050 Y4.79054
G01 X-7.46033 Y4.82393
G01 X-7.45838 Y4.85682
G01 X-7.43317 Y5.14932
G01 X-7.42943 Y5.18363
G01 X-7.42394 Y5.21902
G01 X-7.38059 Y5.46484
G01 X-7.37392 Y5.50630
G01 X-7.36837 Y5.54816
G01 X-7.36384 Y5.59110
G01 X-7.36032 Y5.63513
G01 X-7.35779 Y5.68028
G01 X-7.35629 Y5.72543
G01 X-7.35572 Y5.77282
G01 X-7.35617 Y5.82182
G01 X-7.37492 Y6.80021
G01 X-7.37626 Y6.80051
G01 X-7.37492 Y6.80021
G01 X-7.19402 Y7.18038
G01 X-7.18614 Y7.27244
G01 X-7.19402 Y7.18038
G01 X-7.18546 Y7.15049
G01 X-7.14342 Y6.99990
G01 X-7.10414 Y6.85531
G01 X-7.06768 Y6.71672
G01 X-7.03400 Y6.58415
G01 X-7.00310 Y6.45758
G01 X-6.97500 Y6.33704
G01 X-6.94969 Y6.22253
G01 X-6.92717 Y6.11407
G01 X-6.90743 Y6.01165
G01 X-6.89049 Y5.91531
G01 X-6.87634 Y5.82507
G01 X-6.86497 Y5.74094
G01 X-6.85637 Y5.66297
G01 X-6.85054 Y5.59123
G01 X-6.84743 Y5.52521
G01 X-6.83997 Y5.25550
G01 X-6.83881 Y5.23641
G01 X-6.83848 Y5.23296
G01 X-6.83621 Y5.21579
G01 X-6.83563 Y5.21234
G01 X-6.83217 Y5.19539
G01 X-6.83136 Y5.19201
G01 X-6.82622 Y5.17361
G01 X-6.71605 Y4.82420
G01 X-6.71174 Y4.80940
G01 X-6.70828 Y4.79482
G01 X-6.70550 Y4.77985
G01 X-6.70338 Y4.76502
G01 X-6.70102 Y4.73245
G01 X-6.75108 Y4.73092
G01 X-6.75312 Y4.75973
G01 X-6.75486 Y4.77176
G01 X-6.75721 Y4.78444
G01 X-6.76011 Y4.79669
G01 X-6.76392 Y4.80975
G01 X-6.82026 Y4.98844
G01 X-6.86519 Y5.24361
G01 X-6.86778 Y5.25276
G01 X-6.86757 Y5.25284
G01 X-6.86778 Y5.25276
G01 X-6.87200 Y5.26128
G01 X-6.87181 Y5.26140
G01 X-6.87200 Y5.26128
G01 X-6.87776 Y5.26884
G01 X-6.87759 Y5.26900
G01 X-6.87776 Y5.26884
G01 X-6.88484 Y5.27518
G01 X-6.88471 Y5.27537
G01 X-6.88484 Y5.27518
G01 X-6.89063 Y5.27865
G01 X-6.89740 Y5.52334
G01 X-6.90044 Y5.58803
G01 X-6.90615 Y5.65821
G01 X-6.91460 Y5.73485
G01 X-6.92582 Y5.81784
G01 X-6.93982 Y5.90711
G01 X-6.95661 Y6.00259
G01 X-6.97620 Y6.10425
G01 X-6.99858 Y6.21205
G01 X-7.02376 Y6.32597
G01 X-7.05174 Y6.44598
G01 X-7.08252 Y6.57206
G01 X-7.11609 Y6.70420
G01 X-7.15245 Y6.84239
G01 X-7.19162 Y6.98663
G01 X-7.20613 Y7.03857
G01 X-7.19785 Y7.13182
G01 X-7.20613 Y7.03857
G01 X-7.32471 Y6.78938
G01 X-7.32605 Y6.78967
G01 X-7.32471 Y6.78938
G01 X-7.30618 Y5.82278
G01 X-7.30573 Y5.77223
G01 X-7.30627 Y5.72592
G01 X-7.30781 Y5.67862
G01 X-7.31040 Y5.63231
G01 X-7.31400 Y5.58709
G01 X-7.31865 Y5.54290
G01 X-7.32435 Y5.49971
G01 X-7.33135 Y5.45615
G01 X-7.37461 Y5.21085
G01 X-7.37985 Y5.17708
G01 X-7.38341 Y5.14445
G01 X-7.40851 Y4.85322
G01 X-7.41033 Y4.82234
G01 X-7.41049 Y4.79153
G01 X-7.40905 Y4.75932
G01 X-7.40596 Y4.72573
G01 X-7.40120 Y4.69079
G01 X-7.39469 Y4.65449
G01 X-7.38645 Y4.61684
G01 X-7.37622 Y4.57704
G01 X-7.34236 Y4.45402
G01 X-7.32944 Y4.40475
G01 X-7.31803 Y4.35696
G01 X-7.30682 Y4.30531
G01 X-7.29599 Y4.25010
G01 X-7.28658 Y4.19685
G01 X-7.27754 Y4.14008
G01 X-7.26900 Y4.08003
G01 X-7.26140 Y4.01986
G01 X-7.25464 Y3.95932
G01 X-7.24828 Y3.89430
G01 X-7.24274 Y3.82889
G01 X-7.23785 Y3.76115
G01 X-7.23020 Y3.62157
G01 X-7.22526 Y3.47582
G01 X-7.20255 Y2.53482
G01 X-7.21505 Y2.52306
G01 X-7.20255 Y2.53482
G01 X-7.18027 Y2.53293
G01 X-7.06981 Y2.52618
G01 X-6.95934 Y2.52204
G01 X-6.92363 Y2.52155
G01 X-6.91604 Y2.51126
G01 X-6.92363 Y2.52155
G01 X-6.85030 Y2.77113
G01 X-6.84996 Y2.77108
G01 X-6.85030 Y2.77113
G01 X-6.75144 Y4.69935
G01 X-6.75108 Y4.73092
G01 X-6.65104 Y4.73397
G01 X-6.65368 Y4.77030
G01 X-6.65615 Y4.78793
G01 X-6.65939 Y4.80520
G01 X-6.66340 Y4.82211
G01 X-6.66818 Y4.83866
G01 X-6.77853 Y5.18865
G01 X-6.78318 Y5.20539
G01 X-6.78664 Y5.22234
G01 X-6.78891 Y5.23951
G01 X-6.78999 Y5.25688
G01 X-6.79747 Y5.52708
G01 X-6.80064 Y5.59443
G01 X-6.80660 Y5.66774
G01 X-6.81534 Y5.74703
G01 X-6.82686 Y5.83229
G01 X-6.84117 Y5.92351
G01 X-6.85826 Y6.02071
G01 X-6.87814 Y6.12387
G01 X-6.90080 Y6.23301
G01 X-6.92624 Y6.34811
G01 X-6.95446 Y6.46919
G01 X-6.98548 Y6.59623
G01 X-7.01927 Y6.72924
G01 X-7.05584 Y6.86822
G01 X-7.09520 Y7.01318
G01 X-7.13735 Y7.16410
G01 X-7.18228 Y7.32099
G01 X-7.14406 Y7.45345
G01 X-7.09692 Y7.62346
G01 X-7.15622 Y7.59672
G01 X-7.14250 Y7.60290
G01 X-7.15622 Y7.59672
G01 X-7.19217 Y7.46706
G01 X-7.22917 Y7.33882
G01 X-7.22902 Y7.33876
G01 X-7.22917 Y7.33882
G01 X-7.27735 Y7.23799
G01 X-7.46711 Y6.83922
G01 X-7.46666 Y6.83892
G01 X-7.46711 Y6.83922
G01 X-7.58598 Y6.70859
G01 X-7.91227 Y6.34838
G01 X-7.96325 Y6.29310
G01 X-8.01403 Y6.24070
G01 X-8.06474 Y6.19104
G01 X-8.12198 Y6.13816
G01 X-8.15787 Y6.10651
G01 X-8.21165 Y6.06009
G01 X-8.21119 Y6.05932
G01 X-8.21165 Y6.06009
G01 X-8.27899 Y6.03624
G01 X-8.32779 Y6.02069
G01 X-8.46146 Y5.97743
G01 X-8.51202 Y5.96199
G01 X-8.52036 Y5.95960
G01 X-8.55885 Y5.94913
G01 X-8.59656 Y5.94007
G01 X-8.64998 Y5.92808
G01 X-8.70804 Y5.91462
G01 X-8.75518 Y5.90498
G01 X-8.76153 Y5.90384
G01 X-8.78957 Y5.89940
G01 X-8.81731 Y5.89602
G01 X-8.85032 Y5.89256
G01 X-8.89413 Y5.88758
G01 X-8.92867 Y5.88453
G01 X-8.96102 Y5.88308
G01 X-8.99317 Y5.88328
G01 X-9.07251 Y5.88507
G01 X-9.07854 Y5.88528
G01 X-9.11382 Y5.88743
G01 X-9.14942 Y5.89152
G01 X-9.24852 Y5.90646
G01 X-9.29511 Y5.91441
G01 X-9.34274 Y5.92507
G01 X-9.36408 Y5.93050
G01 X-9.41545 Y5.94404
G01 X-9.42098 Y5.93848
G01 X-9.41545 Y5.94404
G01 X-9.42839 Y5.99732
G01 X-9.43756 Y6.04673
G01 X-9.43844 Y6.05222
G01 X-9.44473 Y6.09985
G01 X-9.44848 Y6.14741
G01 X-9.44874 Y6.15289
G01 X-9.45000 Y6.20000
G01 X-9.44874 Y6.24711
G01 X-9.44848 Y6.25260
G01 X-9.44473 Y6.30015
G01 X-9.43844 Y6.34778
G01 X-9.43756 Y6.35327
G01 X-9.42839 Y6.40268
G01 X-9.41649 Y6.45214
G01 X-9.41500 Y6.45766
G01 X-9.39937 Y6.51037
G01 X-9.38063 Y6.56311
G01 X-9.37837 Y6.56900
G01 X-9.36688 Y6.59776
G01 X-9.35459 Y6.62624
G01 X-9.34140 Y6.65477
G01 X-9.32715 Y6.68363
G01 X-9.30695 Y6.72218
G01 X-9.28891 Y6.75427
G01 X-9.26972 Y6.78643
G01 X-9.24922 Y6.81887
G01 X-9.22002 Y6.86268
G01 X-9.19353 Y6.90001
G01 X-9.16550 Y6.93741
G01 X-9.13066 Y6.98135
G01 X-9.09311 Y7.02640
G01 X-9.05362 Y7.07123
G01 X-9.01193 Y7.11612
G01 X-8.96150 Y7.16761
G01 X-8.90360 Y7.22386
G01 X-8.84259 Y7.27993
G01 X-8.77819 Y7.33609
G01 X-8.71021 Y7.39250
G01 X-8.65584 Y7.43594
G01 X-8.60820 Y7.47281
G01 X-8.55913 Y7.50970
G01 X-8.50863 Y7.54662
G01 X-8.45668 Y7.58355
G01 X-8.40342 Y7.62042
G01 X-8.29198 Y7.69462
G01 X-8.19872 Y7.75423
G01 X-8.11275 Y7.80725
G01 X-8.02388 Y7.86029
G01 X-7.95019 Y7.90289
G01 X-7.95071 Y7.90718
G01 X-7.95019 Y7.90289
G01 X-7.87723 Y7.88194
G01 X-7.77777 Y7.85079
G01 X-7.72196 Y7.83224
G01 X-7.66646 Y7.81296
G01 X-7.55495 Y7.77171
G01 X-7.44357 Y7.72715
G01 X-7.33185 Y7.67909
G01 X-7.22234 Y7.62891
G01 X-7.15622 Y7.59672
G01 X-7.21552 Y7.56998
G01 X-7.24028 Y7.48067
G01 X-7.27607 Y7.35665
G01 X-7.27591 Y7.35659
G01 X-7.27607 Y7.35665
G01 X-7.32250 Y7.25948
G01 X-7.50907 Y6.86740
G01 X-7.50863 Y6.86710
G01 X-7.50907 Y6.86740
G01 X-7.62300 Y6.74220
G01 X-7.94924 Y6.38205
G01 X-7.99959 Y6.32745
G01 X-8.04948 Y6.27597
G01 X-8.09923 Y6.22725
G01 X-8.15525 Y6.17548
G01 X-8.19074 Y6.14419
G01 X-8.23720 Y6.10408
G01 X-8.23675 Y6.10331
G01 X-8.23720 Y6.10408
G01 X-8.29491 Y6.08364
G01 X-8.34307 Y6.06829
G01 X-8.47646 Y6.02513
G01 X-8.52623 Y6.00993
G01 X-8.53382 Y6.00775
G01 X-8.57125 Y5.99758
G01 X-8.60788 Y5.98878
G01 X-8.66112 Y5.97683
G01 X-8.71871 Y5.96347
G01 X-8.76456 Y5.95409
G01 X-8.79651 Y5.94892
G01 X-8.82292 Y5.94571
G01 X-8.85545 Y5.94230
G01 X-8.89923 Y5.93732
G01 X-8.93150 Y5.93445
G01 X-8.96200 Y5.93308
G01 X-8.99223 Y5.93327
G01 X-9.07095 Y5.93504
G01 X-9.07613 Y5.93521
G01 X-9.10943 Y5.93726
G01 X-9.14312 Y5.94113
G01 X-9.15660 Y5.94308
G01 X-9.24072 Y5.95585
G01 X-9.28544 Y5.96348
G01 X-9.33124 Y5.97374
G01 X-9.37394 Y5.98481
G01 X-9.37987 Y5.97898
G01 X-9.37394 Y5.98481
G01 X-9.37947 Y6.00774
G01 X-9.38829 Y6.05519
G01 X-9.39498 Y6.10509
G01 X-9.39858 Y6.15067
G01 X-9.39998 Y6.20000
G01 X-9.39858 Y6.24934
G01 X-9.39498 Y6.29491
G01 X-9.38895 Y6.34061
G01 X-9.38827 Y6.34480
G01 X-9.37947 Y6.39226
G01 X-9.36689 Y6.44407
G01 X-9.35181 Y6.49488
G01 X-9.33372 Y6.54578
G01 X-9.32070 Y6.57859
G01 X-9.30894 Y6.60585
G01 X-9.29629 Y6.63321
G01 X-9.27959 Y6.66685
G01 X-9.26303 Y6.69827
G01 X-9.24564 Y6.72921
G01 X-9.22711 Y6.76026
G01 X-9.20712 Y6.79189
G01 X-9.17885 Y6.83430
G01 X-9.15313 Y6.87055
G01 X-9.12587 Y6.90691
G01 X-9.09204 Y6.94959
G01 X-9.05514 Y6.99386
G01 X-9.01653 Y7.03768
G01 X-8.97571 Y7.08163
G01 X-8.92640 Y7.13200
G01 X-8.86925 Y7.18752
G01 X-8.80923 Y7.24268
G01 X-8.74579 Y7.29800
G01 X-8.67852 Y7.35382
G01 X-8.62495 Y7.39662
G01 X-8.57788 Y7.43306
G01 X-8.52936 Y7.46953
G01 X-8.47939 Y7.50606
G01 X-8.42797 Y7.54261
G01 X-8.37533 Y7.57906
G01 X-8.26451 Y7.65284
G01 X-8.17215 Y7.71188
G01 X-8.08682 Y7.76450
G01 X-7.99855 Y7.81717
G01 X-7.94356 Y7.84896
G01 X-7.94409 Y7.85326
G01 X-7.94356 Y7.84896
G01 X-7.89159 Y7.83404
G01 X-7.79932 Y7.80522
G01 X-7.73805 Y7.78490
G01 X-7.68334 Y7.76589
G01 X-7.57291 Y7.72504
G01 X-7.46273 Y7.68096
G01 X-7.35187 Y7.63327
G01 X-7.24372 Y7.58371
G01 X-7.21552 Y7.56998
G04 P0 ( dwell for no time -- G64 should not smooth over this point )
G00 Z0.08000 ( retract )

G00 X-7.18228 Y7.32099 ( rapid move to begin. )
G01 F3.00000
( Mill infeed pass 1/1 )
G01 Z-0.00800
G04 P0 ( dwell for no time -- G64 should not smooth over this point )
G01 F6.00000
G01 X-7.18228 Y7.32099
G01 X-7.23220 Y7.21651
G01 X-7.42514 Y6.81105
G01 X-7.55817 Y6.66484
G01 X-7.87525 Y6.31477
G01 X-7.92692 Y6.25875
G01 X-7.97858 Y6.20544
G01 X-8.03025 Y6.15484
G01 X-8.08192 Y6.10696
G01 X-8.08871 Y6.10084
G01 X-8.12500 Y6.06884
G01 X-8.18609 Y6.01610
G01 X-8.26306 Y5.98884
G01 X-8.31251 Y5.97308
G01 X-8.44646 Y5.92973
G01 X-8.49782 Y5.91405
G01 X-8.50690 Y5.91144
G01 X-8.54645 Y5.90070
G01 X-8.58524 Y5.89137
G01 X-8.63885 Y5.87934
G01 X-8.69737 Y5.86576
G01 X-8.74581 Y5.85586
G01 X-8.75326 Y5.85454
G01 X-8.78263 Y5.84989
G01 X-8.81169 Y5.84633
G01 X-8.84467 Y5.84288
G01 X-8.88902 Y5.83784
G01 X-8.91900 Y5.83509
G01 X-8.92584 Y5.83462
G01 X-8.96004 Y5.83308
G01 X-8.99412 Y5.83328
G01 X-9.07406 Y5.83509
G01 X-9.08095 Y5.83533
G01 X-9.11820 Y5.83763
G01 X-9.15573 Y5.84192
G01 X-9.17142 Y5.84418
G01 X-9.25632 Y5.85707
G01 X-9.30477 Y5.86535
G01 X-9.35424 Y5.87641
G01 X-9.37667 Y5.88211
G01 X-9.45587 Y5.90299
G04 P0 ( dwell for no time -- G64 should not smooth over this point )
G00 Z0.08000 ( retract )

G00 X-8.82108 Y5.29879 ( rapid move to begin. )
G01 F3.00000
( Mill infeed pass 1/1 )
G01 Z-0.00800
G04 P0 ( dwell for no time -- G64 should not smooth over this point )
G01 F6.00000
G01 X-8.82108 Y5.29879
G01 X-8.86899 Y5.32425
G01 X-8.93927 Y5.34441
G01 X-9.01221 Y5.34951
G01 X-9.08461 Y5.33934
G01 X-9.15331 Y5.31433
G01 X-9.21531 Y5.27558
G01 X-9.22812 Y5.26321
G01 X-9.01153 Y5.08147
G01 X-9.00273 Y5.08232
G01 X-8.82108 Y5.29879
G01 X-8.90094 Y5.28140
G01 X-8.94800 Y5.29490
G01 X-9.01046 Y5.29927
G01 X-9.07245 Y5.29056
G01 X-9.13127 Y5.26914
G01 X-9.14625 Y5.25978
G01 X-9.01295 Y5.14793
G01 X-8.90094 Y5.28140
G01 X-8.99457 Y5.24803
G01 X-9.00870 Y5.24902
G01 X-9.04891 Y5.24337
G01 X-9.01937 Y5.21859
G01 X-8.99457 Y5.24803
G04 P0 ( dwell for no time -- G64 should not smooth over this point )
G00 Z0.08000 ( retract )

G00 X-8.75183 Y4.99410 ( rapid move to begin. )
G01 F3.00000
( Mill infeed pass 1/1 )
G01 Z-0.00800
G04 P0 ( dwell for no time -- G64 should not smooth over this point )
G01 F6.00000
G01 X-8.75183 Y4.99410
G01 X-8.75325 Y5.03468
G01 X-8.75676 Y5.04875
G01 X-8.78163 Y5.01911
G01 X-8.75183 Y4.99410
G01 X-8.70127 Y4.97912
G01 X-8.71216 Y4.91747
G01 X-8.71877 Y4.90109
G01 X-8.85207 Y5.01295
G01 X-8.74007 Y5.14642
G01 X-8.71860 Y5.10241
G01 X-8.70346 Y5.04167
G01 X-8.70127 Y4.97912
G01 X-8.65112 Y4.97561
G01 X-8.66383 Y4.90361
G01 X-8.69121 Y4.83581
G01 X-8.70117 Y4.82105
G01 X-8.91777 Y5.00280
G01 X-8.91777 Y5.00522
G01 X-8.91845 Y5.01163
G01 X-8.73682 Y5.22808
G01 X-8.70341 Y5.18533
G01 X-8.67136 Y5.11961
G01 X-8.65368 Y5.04867
G01 X-8.65112 Y4.97561
G04 P0 ( dwell for no time -- G64 should not smooth over this point )
G00 Z0.08000 ( retract )

G00 X-8.77188 Y4.73679 ( rapid move to begin. )
G01 F3.00000
( Mill infeed pass 1/1 )
G01 Z-0.00800
G04 P0 ( dwell for no time -- G64 should not smooth over this point )
G01 F6.00000
G01 X-8.77188 Y4.73679
G01 X-8.78469 Y4.72442
G01 X-8.84669 Y4.68567
G01 X-8.91539 Y4.66066
G01 X-8.98779 Y4.65048
G01 X-9.06073 Y4.65559
G01 X-9.13101 Y4.67575
G01 X-9.17892 Y4.70121
G01 X-8.99727 Y4.91768
G01 X-8.98847 Y4.91853
G01 X-8.77188 Y4.73679
G01 X-8.85375 Y4.74022
G01 X-8.86873 Y4.73086
G01 X-8.92755 Y4.70944
G01 X-8.98954 Y4.70073
G01 X-9.05200 Y4.70510
G01 X-9.09905 Y4.71860
G01 X-8.98705 Y4.85207
G01 X-8.85375 Y4.74022
G01 X-8.95109 Y4.75663
G01 X-8.99129 Y4.75098
G01 X-9.00576 Y4.75199
G01 X-8.98089 Y4.78163
G01 X-8.95109 Y4.75663
G04 P0 ( dwell for no time -- G64 should not smooth over this point )
G00 Z0.08000 ( retract )

G00 X-9.08155 Y4.98837 ( rapid move to begin. )
G01 F3.00000
( Mill infeed pass 1/1 )
G01 Z-0.00800
G04 P0 ( dwell for no time -- G64 should not smooth over this point )
G01 F6.00000
G01 X-9.08155 Y4.98837
G01 X-9.08223 Y4.99478
G01 X-9.08223 Y4.99720
G01 X-9.29883 Y5.17895
G01 X-9.30879 Y5.16419
G01 X-9.33617 Y5.09639
G01 X-9.34888 Y5.02439
G01 X-9.34632 Y4.95133
G01 X-9.32864 Y4.88039
G01 X-9.29658 Y4.81467
G01 X-9.26318 Y4.77192
G01 X-9.08155 Y4.98837
G01 X-9.14793 Y4.98705
G01 X-9.25993 Y4.85358
G01 X-9.28139 Y4.89758
G01 X-9.29653 Y4.95833
G01 X-9.29873 Y5.02088
G01 X-9.28784 Y5.08253
G01 X-9.28123 Y5.09891
G01 X-9.14793 Y4.98705
G01 X-9.21837 Y4.98089
G01 X-9.24324 Y4.95125
G01 X-9.24675 Y4.96532
G01 X-9.24817 Y5.00590
G01 X-9.21837 Y4.98089

G04 P0 ( dwell for no time -- G64 should not smooth over this point )
G00 Z1.000000 ( retract )

M5 ( Spindle off. )
G04 P1.000000
M9 ( Coolant off. )
M2 ( Program end. )

