( pcb2gcode 2.5.0 )
( Software-independent Gcode )

G94 ( Inches per minute feed rate. )
G20 ( Units == INCHES. )

G90 ( Absolute coordinates. )
G00 S30000 ( RPM spindle speed. )
G64 P0.00040 ( set maximum deviation from commanded toolpath )
G01 F6.00000 ( Feedrate. )


G00 Z1.00000 (Retract to tool change height)
T1
M5      (Spindle stop.)
G04 P1.00000 (Wait for spindle to stop)
(MSG, Change tool bit to mill diameter 0.10000in)
M6      (Tool change.)
M0      (Temporary machine stop.)
M3 ( Spindle on clockwise. )
G04 P1.00000 (Wait for spindle to get up to speed)
G04 P0 ( dwell for no time -- G64 should not smooth over this point )
G00 Z0.08000 ( retract )

G00 X0.48250 Y-0.48250 ( rapid move to begin. )
G01 F3.00000
( Mill infeed pass 1/1 )
G01 Z-0.00800
G04 P0 ( dwell for no time -- G64 should not smooth over this point )
G01 F6.00000
G01 X0.48250 Y-0.48250
G01 X0.48250 Y10.48250
G01 X-10.48250 Y10.48250
G01 X-10.48250 Y-0.48250
G01 X0.48250 Y-0.48250
G01 X0.43250 Y-0.43250
G01 X0.43250 Y10.43250
G01 X0.44714 Y10.44714
G01 X0.43250 Y10.43250
G01 X-10.43250 Y10.43250
G01 X-10.44714 Y10.44714
G01 X-10.43250 Y10.43250
G01 X-10.43250 Y-0.43250
G01 X-10.44714 Y-0.44714
G01 X-10.43250 Y-0.43250
G01 X0.43250 Y-0.43250
G01 X0.38250 Y-0.38250
G01 X0.38250 Y10.38250
G01 X0.39714 Y10.39714
G01 X0.38250 Y10.38250
G01 X-10.38250 Y10.38250
G01 X-10.39714 Y10.39714
G01 X-10.38250 Y10.38250
G01 X-10.38250 Y-0.38250
G01 X-10.39714 Y-0.39714
G01 X-10.38250 Y-0.38250
G01 X0.38250 Y-0.38250
G04 P0 ( dwell for no time -- G64 should not smooth over this point )
G00 Z0.08000 ( retract )

G00 X-1.32044 Y3.77650 ( rapid move to begin. )
G01 F3.00000
( Mill infeed pass 1/1 )
G01 Z-0.00800
G04 P0 ( dwell for no time -- G64 should not smooth over this point )
G01 F6.00000
G01 X-1.32044 Y3.77650
G01 X-1.33219 Y3.73096
G01 X-1.34678 Y3.67922
G01 X-1.36263 Y3.62744
G01 X-1.37974 Y3.57562
G01 X-1.39811 Y3.52375
G01 X-1.41774 Y3.47183
G01 X-1.43884 Y3.41940
G01 X-1.45909 Y3.37051
G01 X-1.48988 Y3.29893
G01 X-1.52274 Y3.22791
G01 X-1.55793 Y3.15679
G01 X-1.59545 Y3.08559
G01 X-1.63532 Y3.01430
G01 X-1.67755 Y2.94292
G01 X-1.72212 Y2.87146
G01 X-1.76906 Y2.79990
G01 X-1.81836 Y2.72827
G01 X-1.87002 Y2.65656
G01 X-1.92406 Y2.58477
G01 X-1.98047 Y2.51290
G01 X-2.03925 Y2.44096
G01 X-2.10042 Y2.36896
G01 X-2.16396 Y2.29688
G01 X-2.20167 Y2.25562
G01 X-2.19986 Y2.25165
G01 X-2.20167 Y2.25562
G01 X-2.26712 Y2.25409
G01 X-2.37397 Y2.25435
G01 X-2.48082 Y2.25736
G01 X-2.58768 Y2.26313
G01 X-2.69455 Y2.27166
G01 X-2.80144 Y2.28294
G01 X-2.90835 Y2.29699
G01 X-3.01529 Y2.31379
G01 X-3.12226 Y2.33337
G01 X-3.22927 Y2.35570
G01 X-3.33631 Y2.38081
G01 X-3.44340 Y2.40869
G01 X-3.55054 Y2.43934
G01 X-3.65772 Y2.47277
G01 X-3.76495 Y2.50898
G01 X-3.77832 Y2.51384
G01 X-3.79806 Y2.50451
G01 X-3.77832 Y2.51384
G01 X-3.67901 Y2.77839
G01 X-3.63527 Y2.89726
G01 X-3.59388 Y3.01460
G01 X-3.55531 Y3.12919
G01 X-3.51956 Y3.24105
G01 X-3.48613 Y3.35186
G01 X-3.45650 Y3.45662
G01 X-3.42872 Y3.56226
G01 X-3.40473 Y3.66138
G01 X-3.38263 Y3.76194
G01 X-3.36428 Y3.85542
G01 X-3.34832 Y3.94845
G01 X-3.33522 Y4.03885
G01 X-3.32498 Y4.12662
G01 X-3.31762 Y4.21180
G01 X-3.31316 Y4.29439
G01 X-3.31161 Y4.37625
G01 X-3.31161 Y4.44489
G01 X-3.31187 Y4.45213
G01 X-3.31938 Y4.55367
G01 X-3.32925 Y4.68032
G01 X-3.33767 Y4.78103
G01 X-3.34517 Y4.86476
G01 X-3.34937 Y4.90927
G01 X-3.35765 Y4.99231
G01 X-3.36719 Y5.08152
G01 X-3.37941 Y5.18853
G01 X-3.39460 Y5.31404
G01 X-3.40005 Y5.36909
G01 X-3.40005 Y5.65304
G01 X-3.39812 Y5.67861
G01 X-3.39562 Y5.70819
G01 X-3.38570 Y5.81830
G01 X-3.36990 Y5.99681
G01 X-3.34625 Y6.26863
G01 X-3.31042 Y6.68634
G01 X-3.25044 Y7.39332
G01 X-3.26172 Y7.40493
G01 X-3.25044 Y7.39332
G01 X-3.21968 Y7.39507
G01 X-3.14750 Y7.39744
G01 X-3.13822 Y7.40934
G01 X-3.14750 Y7.39744
G01 X-3.11419 Y7.24525
G01 X-3.02240 Y6.82148
G01 X-2.94377 Y6.45353
G01 X-2.90004 Y6.24492
G01 X-2.86527 Y6.07613
G01 X-2.83659 Y5.93335
G01 X-2.81397 Y5.81766
G01 X-2.79553 Y5.72034
G01 X-2.78049 Y5.63769
G01 X-2.76804 Y5.56667
G01 X-2.75763 Y5.50424
G01 X-2.74636 Y5.43234
G01 X-2.74137 Y5.39847
G01 X-2.73500 Y5.35258
G01 X-2.72790 Y5.29646
G01 X-2.72269 Y5.24973
G01 X-2.72121 Y5.24009
G01 X-2.71485 Y5.20955
G01 X-2.70946 Y5.18562
G01 X-2.70558 Y5.16930
G01 X-2.70025 Y5.14807
G01 X-2.69630 Y5.13312
G01 X-2.69014 Y5.11090
G01 X-2.68587 Y5.09624
G01 X-2.68020 Y5.07760
G01 X-2.67526 Y5.06205
G01 X-2.66469 Y5.03070
G01 X-2.65801 Y5.01206
G01 X-2.64690 Y4.98284
G01 X-2.64147 Y4.96927
G01 X-2.63449 Y4.95246
G01 X-2.62216 Y4.92429
G01 X-2.61002 Y4.89829
G01 X-2.60323 Y4.88440
G01 X-2.59055 Y4.85965
G01 X-2.57697 Y4.83463
G01 X-2.56300 Y4.81034
G01 X-2.54869 Y4.78681
G01 X-2.53413 Y4.76415
G01 X-2.51918 Y4.74209
G01 X-2.50392 Y4.72073
G01 X-2.48835 Y4.70002
G01 X-2.47232 Y4.67975
G01 X-2.45588 Y4.65999
G01 X-2.43824 Y4.63984
G01 X-2.42110 Y4.62122
G01 X-2.40347 Y4.60299
G01 X-2.38538 Y4.58518
G01 X-2.36694 Y4.56790
G01 X-2.34797 Y4.55097
G01 X-2.32845 Y4.53440
G01 X-2.30843 Y4.51823
G01 X-2.28883 Y4.50316
G01 X-2.27879 Y4.49572
G01 X-2.25733 Y4.48041
G01 X-2.23532 Y4.46551
G01 X-2.21142 Y4.45020
G01 X-2.18893 Y4.43656
G01 X-2.16463 Y4.42261
G01 X-2.15135 Y4.41531
G01 X-2.11686 Y4.39691
G01 X-2.09421 Y4.38418
G01 X-2.07045 Y4.37009
G01 X-2.05920 Y4.36319
G01 X-2.03326 Y4.34675
G01 X-2.00520 Y4.32823
G01 X-1.97457 Y4.30720
G01 X-1.94088 Y4.28324
G01 X-1.90330 Y4.25564
G01 X-1.86037 Y4.22317
G01 X-1.81055 Y4.18449
G01 X-1.75206 Y4.13798
G01 X-1.68168 Y4.08085
G01 X-1.59512 Y4.00927
G01 X-1.51179 Y3.93938
G01 X-1.36905 Y3.81816
G01 X-1.32044 Y3.77650
G01 X-1.31196 Y3.77916
G01 X-1.27029 Y3.77072
G01 X-1.26472 Y3.79452
G01 X-1.25631 Y3.79721
G01 X-1.26472 Y3.79452
G01 X-1.33660 Y3.85620
G01 X-1.47959 Y3.97764
G01 X-1.56307 Y4.04764
G01 X-1.64995 Y4.11949
G01 X-1.72070 Y4.17693
G01 X-1.77962 Y4.22377
G01 X-1.82991 Y4.26282
G01 X-1.87338 Y4.29570
G01 X-1.91155 Y4.32373
G01 X-1.94590 Y4.34816
G01 X-1.97724 Y4.36968
G01 X-2.00607 Y4.38872
G01 X-2.01817 Y4.39648
G01 X-2.04454 Y4.41285
G01 X-2.06922 Y4.42748
G01 X-2.09283 Y4.44076
G01 X-2.12782 Y4.45943
G01 X-2.13949 Y4.46584
G01 X-2.16274 Y4.47916
G01 X-2.18575 Y4.49312
G01 X-2.20706 Y4.50678
G01 X-2.22858 Y4.52132
G01 X-2.24904 Y4.53591
G01 X-2.25858 Y4.54298
G01 X-2.27770 Y4.55767
G01 X-2.29724 Y4.57347
G01 X-2.31534 Y4.58886
G01 X-2.33339 Y4.60497
G01 X-2.35093 Y4.62142
G01 X-2.36814 Y4.63837
G01 X-2.38533 Y4.65617
G01 X-2.40122 Y4.67344
G01 X-2.41020 Y4.68358
G01 X-2.42600 Y4.70213
G01 X-2.44142 Y4.72116
G01 X-2.45604 Y4.74012
G01 X-2.47103 Y4.76056
G01 X-2.48506 Y4.78072
G01 X-2.49906 Y4.80190
G01 X-2.51279 Y4.82384
G01 X-2.51983 Y4.83555
G01 X-2.53289 Y4.85824
G01 X-2.54591 Y4.88218
G01 X-2.55858 Y4.90692
G01 X-2.56484 Y4.91971
G01 X-2.57672 Y4.94515
G01 X-2.58855 Y4.97220
G01 X-2.59506 Y4.98787
G01 X-2.60622 Y5.01628
G01 X-2.61116 Y5.02952
G01 X-2.62185 Y5.05983
G01 X-2.62780 Y5.07777
G01 X-2.63236 Y5.09214
G01 X-2.63803 Y5.11079
G01 X-2.64213 Y5.12486
G01 X-2.64780 Y5.14531
G01 X-2.65160 Y5.15965
G01 X-2.65708 Y5.18148
G01 X-2.66069 Y5.19660
G01 X-2.66594 Y5.21994
G01 X-2.67222 Y5.25010
G01 X-2.67296 Y5.25492
G01 X-2.67825 Y5.30233
G01 X-2.68545 Y5.35926
G01 X-2.69188 Y5.40561
G01 X-2.69692 Y5.43976
G01 X-2.70829 Y5.51233
G01 X-2.71876 Y5.57512
G01 X-2.73129 Y5.64659
G01 X-2.74639 Y5.72954
G01 X-2.76487 Y5.82713
G01 X-2.78756 Y5.94315
G01 X-2.81628 Y6.08613
G01 X-2.85110 Y6.25512
G01 X-2.89484 Y6.46384
G01 X-2.97352 Y6.83202
G01 X-3.06533 Y7.25587
G01 X-3.10757 Y7.44877
G01 X-3.09830 Y7.46067
G01 X-3.10757 Y7.44877
G01 X-3.22192 Y7.44502
G01 X-3.29659 Y7.44078
G01 X-3.30788 Y7.45238
G01 X-3.29659 Y7.44078
G01 X-3.36024 Y6.69057
G01 X-3.39607 Y6.27290
G01 X-3.41971 Y6.00118
G01 X-3.43550 Y5.82271
G01 X-3.44544 Y5.71254
G01 X-3.44795 Y5.68266
G01 X-3.45005 Y5.65490
G01 X-3.45005 Y5.36666
G01 X-3.44431 Y5.30864
G01 X-3.42907 Y5.18269
G01 X-3.41689 Y5.07612
G01 X-3.40737 Y4.98699
G01 X-3.39886 Y4.90157
G01 X-3.39140 Y4.82117
G01 X-3.38747 Y4.77657
G01 X-3.37909 Y4.67623
G01 X-3.36923 Y4.54985
G01 X-3.36174 Y4.44851
G01 X-3.36161 Y4.44489
G01 X-3.36162 Y4.37533
G01 X-3.36309 Y4.29705
G01 X-3.36744 Y4.21607
G01 X-3.37465 Y4.13239
G01 X-3.38470 Y4.04600
G01 X-3.39761 Y3.95689
G01 X-3.41335 Y3.86504
G01 X-3.43192 Y3.77047
G01 X-3.45333 Y3.67314
G01 X-3.47731 Y3.57402
G01 X-3.50437 Y3.47112
G01 X-3.53449 Y3.36464
G01 X-3.56719 Y3.25627
G01 X-3.60270 Y3.14514
G01 X-3.64104 Y3.03122
G01 X-3.68196 Y2.91517
G01 X-3.72594 Y2.79566
G01 X-3.84289 Y2.48411
G01 X-3.86204 Y2.47529
G01 X-3.84289 Y2.48411
G01 X-3.78149 Y2.46179
G01 X-3.67316 Y2.42521
G01 X-3.56486 Y2.39143
G01 X-3.45658 Y2.36045
G01 X-3.34832 Y2.33227
G01 X-3.24009 Y2.30688
G01 X-3.13187 Y2.28429
G01 X-3.02367 Y2.26450
G01 X-2.91549 Y2.24750
G01 X-2.80732 Y2.23329
G01 X-2.69916 Y2.22187
G01 X-2.59102 Y2.21324
G01 X-2.48287 Y2.20740
G01 X-2.37473 Y2.20435
G01 X-2.26660 Y2.20409
G01 X-2.17916 Y2.20614
G01 X-2.17735 Y2.20216
G01 X-2.17916 Y2.20614
G01 X-2.12675 Y2.26348
G01 X-2.06261 Y2.33624
G01 X-2.00084 Y2.40896
G01 X-1.94144 Y2.48164
G01 X-1.88441 Y2.55430
G01 X-1.82976 Y2.62691
G01 X-1.77747 Y2.69948
G01 X-1.72755 Y2.77202
G01 X-1.68000 Y2.84451
G01 X-1.63481 Y2.91696
G01 X-1.59198 Y2.98936
G01 X-1.55151 Y3.06173
G01 X-1.51340 Y3.13405
G01 X-1.47763 Y3.20632
G01 X-1.44422 Y3.27855
G01 X-1.41302 Y3.35106
G01 X-1.39254 Y3.40050
G01 X-1.37116 Y3.45366
G01 X-1.35116 Y3.50656
G01 X-1.33243 Y3.55943
G01 X-1.31498 Y3.61228
G01 X-1.29881 Y3.66512
G01 X-1.28391 Y3.71792
G01 X-1.27029 Y3.77072
G01 X-1.22174 Y3.75877
G01 X-1.23564 Y3.70489
G01 X-1.25084 Y3.65101
G01 X-1.26734 Y3.59713
G01 X-1.28512 Y3.54325
G01 X-1.30420 Y3.48937
G01 X-1.32458 Y3.43549
G01 X-1.34625 Y3.38161
G01 X-1.36696 Y3.33161
G01 X-1.39856 Y3.25817
G01 X-1.43253 Y3.18474
G01 X-1.46887 Y3.11130
G01 X-1.50757 Y3.03787
G01 X-1.54864 Y2.96443
G01 X-1.59208 Y2.89100
G01 X-1.63788 Y2.81756
G01 X-1.68606 Y2.74413
G01 X-1.73659 Y2.67069
G01 X-1.78950 Y2.59726
G01 X-1.84477 Y2.52382
G01 X-1.90241 Y2.45039
G01 X-1.96242 Y2.37695
G01 X-2.02480 Y2.30352
G01 X-2.08954 Y2.23008
G01 X-2.15665 Y2.15665
G01 X-2.26607 Y2.15409
G01 X-2.37550 Y2.15435
G01 X-2.48493 Y2.15744
G01 X-2.59435 Y2.16335
G01 X-2.70378 Y2.17208
G01 X-2.81320 Y2.18363
G01 X-2.92263 Y2.19801
G01 X-3.03206 Y2.21520
G01 X-3.14148 Y2.23522
G01 X-3.25091 Y2.25806
G01 X-3.36033 Y2.28373
G01 X-3.46976 Y2.31221
G01 X-3.57918 Y2.34352
G01 X-3.68861 Y2.37765
G01 X-3.79804 Y2.41460
G01 X-3.90746 Y2.45438
G01 X-4.02983 Y2.45582
G01 X-4.15220 Y2.46035
G01 X-4.23648 Y2.43410
G01 X-4.32075 Y2.40945
G01 X-4.40503 Y2.38643
G01 X-4.48931 Y2.36501
G01 X-4.57359 Y2.34521
G01 X-4.65787 Y2.32702
G01 X-4.74214 Y2.31045
G01 X-4.82642 Y2.29548
G01 X-4.91070 Y2.28214
G01 X-4.99498 Y2.27040
G01 X-5.07925 Y2.26028
G01 X-5.16353 Y2.25178
G01 X-5.24781 Y2.24488
G01 X-5.33209 Y2.23961
G01 X-5.41637 Y2.23594
G01 X-5.50064 Y2.23389
G01 X-5.58492 Y2.23345
G01 X-5.66920 Y2.23462
G01 X-5.75348 Y2.23741
G01 X-5.83776 Y2.24181
G01 X-5.92203 Y2.24783
G01 X-6.00631 Y2.25546
G01 X-6.09059 Y2.26470
G01 X-6.17487 Y2.27556
G01 X-6.25915 Y2.28803
G01 X-6.34342 Y2.30211
G01 X-6.42770 Y2.31781
G01 X-6.51198 Y2.33512
G01 X-6.59626 Y2.35405
G01 X-6.68053 Y2.37459
G01 X-6.76481 Y2.39674
G01 X-6.84909 Y2.42050
G01 X-6.96191 Y2.42207
G01 X-7.07472 Y2.42630
G01 X-7.18754 Y2.43319
G01 X-7.30036 Y2.44275
G01 X-7.37103 Y2.43473
G01 X-7.44170 Y2.42775
G01 X-7.51236 Y2.42184
G01 X-7.58303 Y2.41697
G01 X-7.63935 Y2.46730
G01 X-7.69446 Y2.51763
G01 X-7.74836 Y2.56797
G01 X-7.80105 Y2.61830
G01 X-7.86696 Y2.65930
G01 X-7.94635 Y2.70961
G01 X-7.91945 Y2.75176
G01 X-7.88043 Y2.72703
G01 X-7.82985 Y2.65671
G01 X-7.88043 Y2.72703
G01 X-7.92347 Y2.89723
G01 X-7.94960 Y2.99953
G01 X-7.99107 Y3.15725
G01 X-8.00319 Y3.20220
G01 X-8.03976 Y3.33464
G01 X-8.05197 Y3.37784
G01 X-8.08456 Y3.49047
G01 X-8.09667 Y3.53138
G01 X-8.12569 Y3.62726
G01 X-8.13780 Y3.66640
G01 X-8.16357 Y3.74797
G01 X-8.19816 Y3.85550
G01 X-8.20930 Y3.89061
G01 X-8.23717 Y3.97995
G01 X-8.25184 Y4.02800
G01 X-8.27266 Y4.09787
G01 X-8.28079 Y4.12583
G01 X-8.29786 Y4.18599
G01 X-8.30597 Y4.21547
G01 X-8.31938 Y4.26582
G01 X-8.33083 Y4.31087
G01 X-8.34100 Y4.35313
G01 X-8.34687 Y4.37881
G01 X-8.35441 Y4.41362
G01 X-8.36156 Y4.44903
G01 X-8.36723 Y4.47979
G01 X-8.37222 Y4.50969
G01 X-8.37640 Y4.53798
G01 X-8.37988 Y4.56527
G01 X-8.38261 Y4.59093
G01 X-8.38467 Y4.61544
G01 X-8.38606 Y4.63815
G01 X-8.38781 Y4.68727
G01 X-8.38875 Y4.70664
G01 X-8.38989 Y4.72548
G01 X-8.39125 Y4.74399
G01 X-8.39281 Y4.76225
G01 X-8.39596 Y4.79316
G01 X-8.39805 Y4.81068
G01 X-8.40030 Y4.82780
G01 X-8.40275 Y4.84473
G01 X-8.40536 Y4.86138
G01 X-8.41107 Y4.89387
G01 X-8.41839 Y4.93051
G01 X-8.42121 Y4.94744
G01 X-8.42303 Y4.96211
G01 X-8.42445 Y4.98001
G01 X-8.42500 Y5.00080
G01 X-8.42452 Y5.01865
G01 X-8.42316 Y5.03655
G01 X-8.42140 Y5.05122
G01 X-8.41864 Y5.06814
G01 X-8.41130 Y5.10494
G01 X-8.40835 Y5.12105
G01 X-8.40556 Y5.13739
G01 X-8.40353 Y5.15010
G01 X-8.40048 Y5.17095
G01 X-8.39820 Y5.18814
G01 X-8.39610 Y5.20553
G01 X-8.39420 Y5.22336
G01 X-8.39248 Y5.24141
G01 X-8.39095 Y5.25993
G01 X-8.38962 Y5.27881
G01 X-8.38786 Y5.31146
G01 X-8.38617 Y5.35957
G01 X-8.38474 Y5.38358
G01 X-8.38352 Y5.39906
G01 X-8.38116 Y5.42335
G01 X-8.37810 Y5.44929
G01 X-8.37664 Y5.46024
G01 X-8.37255 Y5.48816
G01 X-8.36759 Y5.51816
G01 X-8.36172 Y5.55013
G01 X-8.35471 Y5.58506
G01 X-8.34676 Y5.62174
G01 X-8.33734 Y5.66236
G01 X-8.32663 Y5.70590
G01 X-8.31410 Y5.75430
G01 X-8.29968 Y5.80745
G01 X-8.29240 Y5.83349
G01 X-8.28242 Y5.86855
G01 X-8.26225 Y5.93713
G01 X-8.22274 Y5.97806
G01 X-8.26225 Y5.93713
G01 X-8.31201 Y5.92066
G01 X-8.35624 Y5.90637
G01 X-8.40600 Y5.89086
G01 X-8.45330 Y5.87666
G01 X-8.48834 Y5.86658
G01 X-8.52332 Y5.85684
G01 X-8.57132 Y5.84422
G01 X-8.60105 Y5.83681
G01 X-8.61649 Y5.83313
G01 X-8.64439 Y5.82669
G01 X-8.67190 Y5.82072
G01 X-8.71043 Y5.81296
G01 X-8.73550 Y5.80835
G01 X-8.75994 Y5.80416
G01 X-8.78378 Y5.80043
G01 X-8.80718 Y5.79710
G01 X-8.82994 Y5.79419
G01 X-8.85881 Y5.79099
G01 X-8.87461 Y5.78948
G01 X-8.89623 Y5.78770
G01 X-8.91784 Y5.78622
G01 X-8.93070 Y5.78551
G01 X-8.96111 Y5.78430
G01 X-8.98233 Y5.78387
G01 X-9.00359 Y5.78375
G01 X-9.02451 Y5.78397
G01 X-9.03775 Y5.78427
G01 X-9.05891 Y5.78503
G01 X-9.08054 Y5.78613
G01 X-9.11117 Y5.78826
G01 X-9.13316 Y5.79021
G01 X-9.15544 Y5.79250
G01 X-9.17815 Y5.79519
G01 X-9.20116 Y5.79825
G01 X-9.22492 Y5.80175
G01 X-9.25380 Y5.80647
G01 X-9.27395 Y5.81004
G01 X-9.30640 Y5.81626
G01 X-9.32580 Y5.82023
G01 X-9.36023 Y5.82774
G01 X-9.39688 Y5.83631
G01 X-9.43243 Y5.84518
G01 X-9.43736 Y5.85665
G01 X-9.43243 Y5.84518
G01 X-9.45104 Y5.81323
G01 X-9.47012 Y5.77911
G01 X-9.48862 Y5.74455
G01 X-9.50519 Y5.71217
G01 X-9.52167 Y5.67844
G01 X-9.53594 Y5.64785
G01 X-9.55063 Y5.61475
G01 X-9.55941 Y5.59411
G01 X-9.56780 Y5.57369
G01 X-9.57907 Y5.54506
G01 X-9.58780 Y5.52186
G01 X-9.59859 Y5.49159
G01 X-9.60734 Y5.46560
G01 X-9.61718 Y5.43456
G01 X-9.62492 Y5.40850
G01 X-9.63339 Y5.37793
G01 X-9.63989 Y5.35268
G01 X-9.64711 Y5.32231
G01 X-9.65249 Y5.29770
G01 X-9.65850 Y5.26753
G01 X-9.66178 Y5.24958
G01 X-9.66483 Y5.23161
G01 X-9.66850 Y5.20789
G01 X-9.67254 Y5.17822
G01 X-9.67529 Y5.15485
G01 X-9.67710 Y5.13724
G01 X-9.67868 Y5.11982
G01 X-9.68087 Y5.09027
G01 X-9.68215 Y5.06729
G01 X-9.68287 Y5.04982
G01 X-9.68337 Y5.03236
G01 X-9.68374 Y5.00306
G01 X-9.68367 Y4.98578
G01 X-9.68339 Y4.96835
G01 X-9.68269 Y4.94542
G01 X-9.68191 Y4.92796
G01 X-9.68092 Y4.91046
G01 X-9.67874 Y4.88092
G01 X-9.67717 Y4.86346
G01 X-9.67538 Y4.84601
G01 X-9.67335 Y4.82837
G01 X-9.67110 Y4.81065
G01 X-9.66862 Y4.79289
G01 X-9.66592 Y4.77516
G01 X-9.66193 Y4.75129
G01 X-9.65865 Y4.73323
G01 X-9.65511 Y4.71506
G01 X-9.65133 Y4.69679
G01 X-9.64729 Y4.67848
G01 X-9.64301 Y4.66011
G01 X-9.63845 Y4.64155
G01 X-9.63036 Y4.61084
G01 X-9.62510 Y4.59211
G01 X-9.61952 Y4.57315
G01 X-9.61135 Y4.54677
G01 X-9.60501 Y4.52735
G01 X-9.59836 Y4.50777
G01 X-9.58709 Y4.47624
G01 X-9.57645 Y4.44815
G01 X-9.56352 Y4.41580
G01 X-9.55116 Y4.38646
G01 X-9.53566 Y4.35152
G01 X-9.52226 Y4.32279
G01 X-9.50573 Y4.28892
G01 X-9.48919 Y4.25655
G01 X-9.47083 Y4.22220
G01 X-9.45171 Y4.18794
G01 X-9.43094 Y4.15231
G01 X-9.40897 Y4.11615
G01 X-9.39339 Y4.09138
G01 X-9.36928 Y4.05430
G01 X-9.35211 Y4.02876
G01 X-9.34256 Y4.01483
G01 X-9.31552 Y3.97642
G01 X-9.29594 Y3.94948
G01 X-9.27547 Y3.92202
G01 X-9.26332 Y3.90605
G01 X-9.24113 Y3.87746
G01 X-9.21803 Y3.84845
G01 X-9.19391 Y3.81889
G01 X-9.15835 Y3.77663
G01 X-9.13173 Y3.74591
G01 X-9.10364 Y3.71427
G01 X-9.07414 Y3.68186
G01 X-9.04319 Y3.64868
G01 X-9.01089 Y3.61489
G01 X-8.97695 Y3.58024
G01 X-8.94138 Y3.54480
G01 X-8.90391 Y3.50837
G01 X-8.86449 Y3.47096
G01 X-8.82305 Y3.43260
G01 X-8.79265 Y3.40503
G01 X-8.77915 Y3.39294
G01 X-8.73329 Y3.35251
G01 X-8.68480 Y3.31080
G01 X-8.64797 Y3.27980
G01 X-8.63353 Y3.26779
G01 X-8.57983 Y3.22384
G01 X-8.52256 Y3.17812
G01 X-8.47769 Y3.14307
G01 X-8.46199 Y3.13096
G01 X-8.39746 Y3.08198
G01 X-8.32987 Y3.03197
G01 X-8.25757 Y2.97982
G01 X-8.19816 Y2.93795
G01 X-8.18074 Y2.92582
G01 X-8.11670 Y2.88186
G01 X-8.09881 Y2.86973
G01 X-8.03026 Y2.82391
G01 X-8.01188 Y2.81177
G01 X-7.93819 Y2.76380
G01 X-7.91945 Y2.75176
G01 X-7.90865 Y2.76506
G01 X-7.95999 Y2.83765
G01 X-7.99799 Y2.98697
G01 X-8.03939 Y3.14439
G01 X-8.05143 Y3.18904
G01 X-8.08791 Y3.32119
G01 X-8.10005 Y3.36409
G01 X-8.13255 Y3.47643
G01 X-8.14457 Y3.51704
G01 X-8.17350 Y3.61263
G01 X-8.18552 Y3.65147
G01 X-8.21120 Y3.73275
G01 X-8.24587 Y3.84054
G01 X-8.25706 Y3.87582
G01 X-8.28494 Y3.96517
G01 X-8.30880 Y4.04381
G01 X-8.32073 Y4.08412
G01 X-8.33857 Y4.14602
G01 X-8.35425 Y4.20247
G01 X-8.36780 Y4.25336
G01 X-8.37932 Y4.29870
G01 X-8.38475 Y4.32090
G01 X-8.38984 Y4.34240
G01 X-8.39571 Y4.36809
G01 X-8.39986 Y4.38699
G01 X-8.40671 Y4.41965
G01 X-8.41077 Y4.44016
G01 X-8.41658 Y4.47172
G01 X-8.42157 Y4.50166
G01 X-8.42353 Y4.51444
G01 X-8.42602 Y4.53182
G01 X-8.42945 Y4.55862
G01 X-8.43240 Y4.58638
G01 X-8.43327 Y4.59593
G01 X-8.43509 Y4.61976
G01 X-8.43636 Y4.64371
G01 X-8.43753 Y4.67924
G01 X-8.43867 Y4.70385
G01 X-8.44070 Y4.73500
G01 X-8.44259 Y4.75763
G01 X-8.44428 Y4.77486
G01 X-8.44614 Y4.79186
G01 X-8.45038 Y4.82487
G01 X-8.45529 Y4.85685
G01 X-8.45798 Y4.87245
G01 X-8.46119 Y4.88971
G01 X-8.45821 Y4.90533
G01 X-8.45603 Y4.91868
G01 X-8.45416 Y4.93249
G01 X-8.45270 Y4.94543
G01 X-8.45154 Y4.95890
G01 X-8.45068 Y4.97230
G01 X-8.45017 Y4.98623
G01 X-8.44998 Y4.99965
G01 X-8.45015 Y5.01277
G01 X-8.45063 Y5.02670
G01 X-8.45146 Y5.04010
G01 X-8.45260 Y5.05357
G01 X-8.45404 Y5.06651
G01 X-8.45588 Y5.08033
G01 X-8.45804 Y5.09368
G01 X-8.46119 Y5.11026
G01 X-8.45818 Y5.12640
G01 X-8.45548 Y5.14198
G01 X-8.45237 Y5.16144
G01 X-8.45055 Y5.17393
G01 X-8.44833 Y5.19032
G01 X-8.44629 Y5.20689
G01 X-8.44440 Y5.22387
G01 X-8.44271 Y5.24106
G01 X-8.44119 Y5.25870
G01 X-8.43951 Y5.28195
G01 X-8.43782 Y5.31368
G01 X-8.43606 Y5.36292
G01 X-8.43467 Y5.38636
G01 X-8.43246 Y5.41298
G01 X-8.43079 Y5.42944
G01 X-8.42773 Y5.45536
G01 X-8.42614 Y5.46730
G01 X-8.42198 Y5.49569
G01 X-8.41894 Y5.51451
G01 X-8.41354 Y5.54517
G01 X-8.41070 Y5.56019
G01 X-8.40377 Y5.59475
G01 X-8.39932 Y5.61560
G01 X-8.39074 Y5.65375
G01 X-8.38058 Y5.69621
G01 X-8.36915 Y5.74143
G01 X-8.36246 Y5.76698
G01 X-8.34790 Y5.82066
G01 X-8.33681 Y5.86009
G01 X-8.29918 Y5.89890
G01 X-8.33681 Y5.86009
G01 X-8.38276 Y5.84570
G01 X-8.42189 Y5.83381
G01 X-8.45851 Y5.82308
G01 X-8.49332 Y5.81324
G01 X-8.51062 Y5.80848
G01 X-8.54302 Y5.79988
G01 X-8.58977 Y5.78810
G01 X-8.61881 Y5.78125
G01 X-8.64650 Y5.77502
G01 X-8.68917 Y5.76616
G01 X-8.71498 Y5.76125
G01 X-8.74028 Y5.75675
G01 X-8.77655 Y5.75096
G01 X-8.80003 Y5.74761
G01 X-8.82415 Y5.74453
G01 X-8.84710 Y5.74194
G01 X-8.87033 Y5.73966
G01 X-8.90566 Y5.73689
G01 X-8.93800 Y5.73512
G01 X-8.95905 Y5.73434
G01 X-8.97302 Y5.73402
G01 X-8.99417 Y5.73376
G01 X-9.01255 Y5.73381
G01 X-9.02611 Y5.73399
G01 X-9.04782 Y5.73456
G01 X-9.06950 Y5.73545
G01 X-9.08371 Y5.73623
G01 X-9.11545 Y5.73844
G01 X-9.13809 Y5.74045
G01 X-9.16046 Y5.74275
G01 X-9.18457 Y5.74560
G01 X-9.20822 Y5.74875
G01 X-9.23275 Y5.75237
G01 X-9.26203 Y5.75716
G01 X-9.28312 Y5.76089
G01 X-9.31249 Y5.76649
G01 X-9.33623 Y5.77133
G01 X-9.36374 Y5.77729
G01 X-9.40810 Y5.78758
G01 X-9.41321 Y5.79899
G01 X-9.40810 Y5.78758
G01 X-9.42625 Y5.75511
G01 X-9.44432 Y5.72136
G01 X-9.46047 Y5.68980
G01 X-9.47095 Y5.66855
G01 X-9.48089 Y5.64775
G01 X-9.49573 Y5.61540
G01 X-9.50475 Y5.59489
G01 X-9.51329 Y5.57481
G01 X-9.52467 Y5.54691
G01 X-9.53779 Y5.51289
G01 X-9.54429 Y5.49521
G01 X-9.55370 Y5.46836
G01 X-9.56358 Y5.43843
G01 X-9.57145 Y5.41309
G01 X-9.58015 Y5.38310
G01 X-9.58678 Y5.35862
G01 X-9.59419 Y5.32906
G01 X-9.59973 Y5.30513
G01 X-9.60595 Y5.27578
G01 X-9.61045 Y5.25246
G01 X-9.61549 Y5.22350
G01 X-9.61820 Y5.20620
G01 X-9.62067 Y5.18909
G01 X-9.62360 Y5.16653
G01 X-9.62680 Y5.13779
G01 X-9.62885 Y5.11566
G01 X-9.63018 Y5.09872
G01 X-9.63129 Y5.08182
G01 X-9.63270 Y5.05329
G01 X-9.63326 Y5.03644
G01 X-9.63360 Y5.01959
G01 X-9.63374 Y5.00289
G01 X-9.63367 Y4.98622
G01 X-9.63328 Y4.96427
G01 X-9.63223 Y4.93572
G01 X-9.63134 Y4.91887
G01 X-9.63023 Y4.90198
G01 X-9.62846 Y4.87980
G01 X-9.62567 Y4.85136
G01 X-9.62371 Y4.83433
G01 X-9.62153 Y4.81722
G01 X-9.61831 Y4.79453
G01 X-9.61563 Y4.77736
G01 X-9.61269 Y4.75997
G01 X-9.60727 Y4.73082
G01 X-9.60370 Y4.71326
G01 X-9.59989 Y4.69559
G01 X-9.59440 Y4.67180
G01 X-9.58697 Y4.64213
G01 X-9.58032 Y4.61749
G01 X-9.57163 Y4.58751
G01 X-9.56372 Y4.56201
G01 X-9.55363 Y4.53146
G01 X-9.54440 Y4.50514
G01 X-9.53289 Y4.47415
G01 X-9.52204 Y4.44652
G01 X-9.50889 Y4.41476
G01 X-9.49631 Y4.38589
G01 X-9.48073 Y4.35190
G01 X-9.46683 Y4.32301
G01 X-9.45009 Y4.28976
G01 X-9.43874 Y4.26806
G01 X-9.42108 Y4.23549
G01 X-9.40152 Y4.20095
G01 X-9.38096 Y4.16616
G01 X-9.36648 Y4.14250
G01 X-9.34367 Y4.10647
G01 X-9.32761 Y4.08194
G01 X-9.31079 Y4.05692
G01 X-9.29328 Y4.03154
G01 X-9.27490 Y4.00558
G01 X-9.26432 Y3.99094
G01 X-9.24444 Y3.96398
G01 X-9.22361 Y3.93644
G01 X-9.20181 Y3.90834
G01 X-9.16959 Y3.86808
G01 X-9.14552 Y3.83890
G01 X-9.12038 Y3.80916
G01 X-9.10441 Y3.79064
G01 X-9.07708 Y3.75956
G01 X-9.04826 Y3.72761
G01 X-9.01801 Y3.69489
G01 X-8.98632 Y3.66145
G01 X-8.95319 Y3.62734
G01 X-8.91825 Y3.59223
G01 X-8.88163 Y3.55634
G01 X-8.84286 Y3.51926
G01 X-8.80229 Y3.48142
G01 X-8.78935 Y3.46953
G01 X-8.74590 Y3.43028
G01 X-8.70050 Y3.39026
G01 X-8.66643 Y3.36085
G01 X-8.61588 Y3.31814
G01 X-8.56302 Y3.27458
G01 X-8.54845 Y3.26276
G01 X-8.49166 Y3.21743
G01 X-8.43158 Y3.17064
G01 X-8.38341 Y3.13397
G01 X-8.31659 Y3.08423
G01 X-8.24536 Y3.03254
G01 X-8.22864 Y3.02060
G01 X-8.15231 Y2.96696
G01 X-8.08853 Y2.92317
G01 X-8.07089 Y2.91121
G01 X-8.00260 Y2.86556
G01 X-7.95999 Y2.83765
G01 X-7.90865 Y2.76506
G01 X-7.91945 Y2.75176
G01 X-7.94635 Y2.70961
G01 X-7.96534 Y2.72181
G01 X-8.03929 Y2.76996
G01 X-8.05793 Y2.78226
G01 X-8.12673 Y2.82825
G01 X-8.14488 Y2.84055
G01 X-8.20917 Y2.88469
G01 X-8.22684 Y2.89699
G01 X-8.28650 Y2.93904
G01 X-8.35930 Y2.99155
G01 X-8.42738 Y3.04192
G01 X-8.44374 Y3.05422
G01 X-8.49240 Y3.09127
G01 X-8.55346 Y3.13881
G01 X-8.56901 Y3.15111
G01 X-8.62625 Y3.19711
G01 X-8.66538 Y3.22925
G01 X-8.71712 Y3.27265
G01 X-8.76608 Y3.31476
G01 X-8.78004 Y3.32696
G01 X-8.82613 Y3.36789
G01 X-8.87015 Y3.40796
G01 X-8.89864 Y3.43445
G01 X-8.93851 Y3.47227
G01 X-8.97641 Y3.50913
G01 X-9.01242 Y3.54500
G01 X-9.04679 Y3.58008
G01 X-9.07952 Y3.61432
G01 X-9.11088 Y3.64795
G01 X-9.14080 Y3.68081
G01 X-9.16930 Y3.71291
G01 X-9.19632 Y3.74409
G01 X-9.22224 Y3.77476
G01 X-9.24709 Y3.80489
G01 X-9.27074 Y3.83428
G01 X-9.30302 Y3.87566
G01 X-9.32459 Y3.90417
G01 X-9.33619 Y3.91982
G01 X-9.35614 Y3.94727
G01 X-9.37523 Y3.97422
G01 X-9.40176 Y4.01291
G01 X-9.41898 Y4.03885
G01 X-9.44378 Y4.07750
G01 X-9.46658 Y4.11450
G01 X-9.48807 Y4.15087
G01 X-9.50854 Y4.18701
G01 X-9.52708 Y4.22119
G01 X-9.54529 Y4.25629
G01 X-9.56148 Y4.28895
G01 X-9.57602 Y4.31961
G01 X-9.59174 Y4.35442
G01 X-9.60611 Y4.38795
G01 X-9.61822 Y4.41772
G01 X-9.63096 Y4.45076
G01 X-9.63846 Y4.47117
G01 X-9.64560 Y4.49137
G01 X-9.65499 Y4.51923
G01 X-9.66137 Y4.53911
G01 X-9.66742 Y4.55879
G01 X-9.67662 Y4.59054
G01 X-9.68191 Y4.60996
G01 X-9.68691 Y4.62926
G01 X-9.69323 Y4.65518
G01 X-9.69753 Y4.67399
G01 X-9.70160 Y4.69286
G01 X-9.70778 Y4.72394
G01 X-9.71117 Y4.74260
G01 X-9.71431 Y4.76119
G01 X-9.71810 Y4.78571
G01 X-9.72067 Y4.80409
G01 X-9.72300 Y4.82242
G01 X-9.72509 Y4.84067
G01 X-9.72694 Y4.85873
G01 X-9.72857 Y4.87679
G01 X-9.72998 Y4.89496
G01 X-9.73184 Y4.92537
G01 X-9.73265 Y4.94344
G01 X-9.73324 Y4.96154
G01 X-9.73367 Y4.98533
G01 X-9.73374 Y5.00322
G01 X-9.73359 Y5.02114
G01 X-9.73284 Y5.05152
G01 X-9.73209 Y5.06960
G01 X-9.73112 Y5.08767
G01 X-9.72949 Y5.11167
G01 X-9.72800 Y5.12980
G01 X-9.72629 Y5.14793
G01 X-9.72289 Y5.17850
G01 X-9.72054 Y5.19681
G01 X-9.71798 Y5.21509
G01 X-9.71517 Y5.23351
G01 X-9.71210 Y5.25202
G01 X-9.70763 Y5.27685
G01 X-9.70397 Y5.29563
G01 X-9.70005 Y5.31448
G01 X-9.69302 Y5.34573
G01 X-9.68671 Y5.37154
G01 X-9.67840 Y5.40303
G01 X-9.67298 Y5.42229
G01 X-9.66723 Y5.44184
G01 X-9.65882 Y5.46894
G01 X-9.64837 Y5.50057
G01 X-9.63837 Y5.52912
G01 X-9.62577 Y5.56293
G01 X-9.61416 Y5.59243
G01 X-9.60038 Y5.62562
G01 X-9.58700 Y5.65627
G01 X-9.57139 Y5.69029
G01 X-9.55601 Y5.72224
G01 X-9.53842 Y5.75714
G01 X-9.52648 Y5.77993
G01 X-9.50782 Y5.81429
G01 X-9.49445 Y5.83803
G01 X-9.47318 Y5.87449
G01 X-9.45590 Y5.90304
G01 X-9.45955 Y5.91566
G01 X-9.47237 Y5.96500
G01 X-9.48371 Y6.01963
G01 X-9.49154 Y6.07010
G01 X-9.49651 Y6.11672
G01 X-9.49940 Y6.16602
G01 X-9.49986 Y6.21544
G01 X-9.49768 Y6.26784
G01 X-9.49309 Y6.31740
G01 X-9.48645 Y6.36448
G01 X-9.47691 Y6.41479
G01 X-9.46458 Y6.46607
G01 X-9.44889 Y6.51967
G01 X-9.42856 Y6.57794
G01 X-9.40521 Y6.63535
G01 X-9.37900 Y6.69187
G01 X-9.36221 Y6.72495
G01 X-9.34427 Y6.75803
G01 X-9.32627 Y6.78945
G01 X-9.30524 Y6.82407
G01 X-9.28360 Y6.85788
G01 X-9.25853 Y6.89489
G01 X-9.23279 Y6.93104
G01 X-9.20322 Y6.97039
G01 X-9.17241 Y7.00943
G01 X-9.13730 Y7.05166
G01 X-9.09991 Y7.09452
G01 X-9.06062 Y7.13739
G01 X-9.01246 Y7.18746
G01 X-8.96171 Y7.23754
G01 X-8.90615 Y7.28981
G01 X-8.84412 Y7.34528
G01 X-8.77541 Y7.40382
G01 X-8.69914 Y7.46555
G01 X-8.61400 Y7.53116
G01 X-8.52445 Y7.59678
G01 X-8.46672 Y7.63754
G01 X-8.41187 Y7.67521
G01 X-8.29783 Y7.75055
G01 X-8.22240 Y7.79849
G01 X-8.14989 Y7.84323
G01 X-8.07535 Y7.88797
G01 X-7.99877 Y7.93272
G01 X-7.95679 Y7.95679
G01 X-7.86757 Y7.93126
G01 X-7.77515 Y7.90258
G01 X-7.67139 Y7.86774
G01 X-7.56444 Y7.82881
G01 X-7.45710 Y7.78677
G01 X-7.34657 Y7.74026
G01 X-7.23630 Y7.69071
G01 X-7.12603 Y7.63790
G01 X-7.09694 Y7.62345
G01 X-6.99842 Y7.64171
G01 X-6.89991 Y7.65781
G01 X-6.80139 Y7.67176
G01 X-6.70287 Y7.68356
G01 X-6.60436 Y7.69322
G01 X-6.50584 Y7.70072
G01 X-6.40733 Y7.70607
G01 X-6.30881 Y7.70927
G01 X-6.21030 Y7.71033
G01 X-6.11178 Y7.70923
G01 X-6.01326 Y7.70598
G01 X-5.91475 Y7.70059
G01 X-5.81623 Y7.69304
G01 X-5.71772 Y7.68334
G01 X-5.61920 Y7.67150
G01 X-5.52069 Y7.65750
G01 X-5.44457 Y7.65963
G01 X-5.36845 Y7.66050
G01 X-5.29233 Y7.66012
G01 X-5.21621 Y7.65848
G01 X-5.14009 Y7.65559
G01 X-5.06397 Y7.65144
G01 X-4.98785 Y7.64603
G01 X-4.91174 Y7.63937
G01 X-4.83562 Y7.63146
G01 X-4.75950 Y7.62228
G01 X-4.68338 Y7.61186
G01 X-4.60726 Y7.60017
G01 X-4.53114 Y7.58723
G01 X-4.45502 Y7.57303
G01 X-4.37890 Y7.55758
G01 X-4.30278 Y7.54088
G01 X-4.18278 Y7.54470
G01 X-4.06278 Y7.54555
G01 X-3.94278 Y7.54343
G01 X-3.82278 Y7.53834
G01 X-3.70277 Y7.53027
G01 X-3.58277 Y7.51923
G01 X-3.46277 Y7.50522
G01 X-3.34277 Y7.48823
G01 X-3.22416 Y7.49498
G01 X-3.10556 Y7.49887
G01 X-3.06752 Y7.49953
G01 X-2.97052 Y7.51845
G01 X-2.85068 Y7.53937
G01 X-2.83838 Y7.54136
G01 X-2.71933 Y7.55913
G01 X-2.70703 Y7.56081
G01 X-2.58960 Y7.57540
G01 X-2.57740 Y7.57677
G01 X-2.46031 Y7.58841
G01 X-2.40714 Y7.59286
G01 X-2.32202 Y7.51895
G01 X-2.24737 Y7.45242
G01 X-2.18802 Y7.39809
G01 X-2.12006 Y7.33447
G01 X-2.05406 Y7.27085
G01 X-2.00484 Y7.22234
G01 X-1.95683 Y7.17383
G01 X-1.94480 Y7.16153
G01 X-1.85705 Y7.06955
G01 X-1.84560 Y7.05725
G01 X-1.76642 Y6.97005
G01 X-1.75552 Y6.95775
G01 X-1.68412 Y6.87514
G01 X-1.67384 Y6.86294
G01 X-1.60906 Y6.78417
G01 X-1.59920 Y6.77187
G01 X-1.54024 Y6.69648
G01 X-1.53094 Y6.68428
G01 X-1.47730 Y6.61211
G01 X-1.46839 Y6.59981
G01 X-1.41966 Y6.53078
G01 X-1.41127 Y6.51858
G01 X-1.36689 Y6.45233
G01 X-1.35893 Y6.44013
G01 X-1.31830 Y6.37615
G01 X-1.31070 Y6.36385
G01 X-1.27350 Y6.30196
G01 X-1.26631 Y6.28966
G01 X-1.23227 Y6.22974
G01 X-1.22548 Y6.21744
G01 X-1.19441 Y6.15946
G01 X-1.18801 Y6.14716
G01 X-1.15972 Y6.09109
G01 X-1.15370 Y6.07879
G01 X-1.12793 Y6.02447
G01 X-1.12233 Y6.01227
G01 X-1.09884 Y5.95942
G01 X-1.09355 Y5.94712
G01 X-1.07210 Y5.89549
G01 X-1.06716 Y5.88319
G01 X-1.04774 Y5.83299
G01 X-1.04319 Y5.82079
G01 X-1.02555 Y5.77167
G01 X-1.02130 Y5.75937
G01 X-1.00530 Y5.71109
G01 X-1.00139 Y5.69879
G01 X-0.98705 Y5.65172
G01 X-0.98350 Y5.63952
G01 X-0.97063 Y5.59322
G01 X-0.96737 Y5.58092
G01 X-0.95587 Y5.53519
G01 X-0.95293 Y5.52290
G01 X-0.94278 Y5.47792
G01 X-0.94017 Y5.46562
G01 X-0.93130 Y5.42132
G01 X-0.92902 Y5.40912
G01 X-0.92138 Y5.36535
G01 X-0.91939 Y5.35305
G01 X-0.91290 Y5.30964
G01 X-0.91121 Y5.29735
G01 X-0.90585 Y5.25423
G01 X-0.90448 Y5.24193
G01 X-0.90021 Y5.19907
G01 X-0.89914 Y5.18677
G01 X-0.89597 Y5.14425
G01 X-0.89521 Y5.13195
G01 X-0.89309 Y5.08974
G01 X-0.89263 Y5.07754
G01 X-0.89156 Y5.03545
G01 X-0.89140 Y5.02315
G01 X-0.89136 Y4.98102
G01 X-0.84136 Y4.98107
G01 X-0.84151 Y4.96764
G01 X-0.84250 Y4.92554
G01 X-0.84299 Y4.91202
G01 X-0.84503 Y4.86966
G01 X-0.84580 Y4.85675
G01 X-0.84899 Y4.81295
G01 X-0.85010 Y4.80004
G01 X-0.85427 Y4.75731
G01 X-0.85576 Y4.74379
G01 X-0.86104 Y4.70066
G01 X-0.86278 Y4.68775
G01 X-0.86928 Y4.64367
G01 X-0.87145 Y4.63016
G01 X-0.87899 Y4.58648
G01 X-0.88148 Y4.57307
G01 X-0.89023 Y4.52890
G01 X-0.89295 Y4.51600
G01 X-0.90315 Y4.47040
G01 X-0.90634 Y4.45690
G01 X-0.91791 Y4.41061
G01 X-0.92130 Y4.39771
G01 X-0.93403 Y4.35158
G01 X-0.93773 Y4.33880
G01 X-0.95210 Y4.29127
G01 X-0.95613 Y4.27849
G01 X-0.97214 Y4.22988
G01 X-0.97656 Y4.21700
G01 X-0.99421 Y4.16753
G01 X-0.99894 Y4.15475
G01 X-1.01845 Y4.10403
G01 X-1.02380 Y4.09059
G01 X-1.04501 Y4.03924
G01 X-1.05046 Y4.02648
G01 X-1.07402 Y3.97319
G01 X-1.08015 Y3.95977
G01 X-1.10581 Y3.90536
G01 X-1.11234 Y3.89196
G01 X-1.14076 Y3.83537
G01 X-1.16190 Y3.79502
G01 X-1.16228 Y3.79516
G01 X-1.16190 Y3.79502
G01 X-1.17305 Y3.74738
G01 X-1.18752 Y3.69132
G01 X-1.20272 Y3.63743
G01 X-1.21952 Y3.58249
G01 X-1.23764 Y3.52757
G01 X-1.25744 Y3.47168
G01 X-1.27819 Y3.41683
G01 X-1.29986 Y3.36295
G01 X-1.32077 Y3.31247
G01 X-1.35318 Y3.23718
G01 X-1.38772 Y3.16256
G01 X-1.42405 Y3.08913
G01 X-1.46393 Y3.01346
G01 X-1.50561 Y2.93898
G01 X-1.54965 Y2.86454
G01 X-1.59607 Y2.79014
G01 X-1.64487 Y2.71578
G01 X-1.69541 Y2.64235
G01 X-1.74893 Y2.56803
G01 X-1.80544 Y2.49295
G01 X-1.86370 Y2.41875
G01 X-1.92370 Y2.34532
G01 X-1.98729 Y2.27045
G01 X-2.05263 Y2.19635
G01 X-2.11974 Y2.12292
G01 X-2.12725 Y2.11621
G01 X-2.13595 Y2.11114
G01 X-2.14549 Y2.10791
G01 X-2.15548 Y2.10666
G01 X-2.26620 Y2.10409
G01 X-2.37562 Y2.10435
G01 X-2.48762 Y2.10751
G01 X-2.59705 Y2.11342
G01 X-2.70775 Y2.12224
G01 X-2.81972 Y2.13406
G01 X-2.93039 Y2.14861
G01 X-3.03982 Y2.16581
G01 X-3.15170 Y2.18628
G01 X-3.26112 Y2.20912
G01 X-3.37293 Y2.23534
G01 X-3.48235 Y2.26383
G01 X-3.59407 Y2.29579
G01 X-3.70461 Y2.33028
G01 X-3.81512 Y2.36761
G01 X-3.91655 Y2.40448
G01 X-3.91642 Y2.40519
G01 X-3.91655 Y2.40448
G01 X-4.03168 Y2.40585
G01 X-4.14550 Y2.41007
G01 X-4.14559 Y2.41079
G01 X-4.14550 Y2.41007
G01 X-4.22160 Y2.38636
G01 X-4.30672 Y2.36146
G01 X-4.39185 Y2.33819
G01 X-4.47787 Y2.31634
G01 X-4.56215 Y2.29653
G01 X-4.64732 Y2.27814
G01 X-4.73249 Y2.26139
G01 X-4.81860 Y2.24610
G01 X-4.90380 Y2.23262
G01 X-4.98902 Y2.22076
G01 X-5.07423 Y2.21054
G01 X-5.15946 Y2.20194
G01 X-5.24373 Y2.19505
G01 X-5.32991 Y2.18965
G01 X-5.41419 Y2.18599
G01 X-5.50038 Y2.18389
G01 X-5.58562 Y2.18345
G01 X-5.67085 Y2.18465
G01 X-5.75609 Y2.18748
G01 X-5.84036 Y2.19188
G01 X-5.92654 Y2.19803
G01 X-6.01176 Y2.20576
G01 X-6.09604 Y2.21500
G01 X-6.18126 Y2.22597
G01 X-6.26739 Y2.23871
G01 X-6.35166 Y2.25280
G01 X-6.43776 Y2.26883
G01 X-6.52293 Y2.28634
G01 X-6.60810 Y2.30547
G01 X-6.69325 Y2.32623
G01 X-6.77838 Y2.34862
G01 X-6.85635 Y2.37060
G01 X-6.85628 Y2.37102
G01 X-6.85635 Y2.37060
G01 X-6.96260 Y2.37207
G01 X-7.07660 Y2.37633
G01 X-7.19176 Y2.38337
G01 X-7.29964 Y2.39251
G01 X-7.29965 Y2.39275
G01 X-7.29964 Y2.39251
G01 X-7.36539 Y2.38504
G01 X-7.43679 Y2.37800
G01 X-7.50819 Y2.37201
G01 X-7.57960 Y2.36709
G01 X-7.58955 Y2.36739
G01 X-7.59925 Y2.36967
G01 X-7.60830 Y2.37382
G01 X-7.61635 Y2.37969
G01 X-7.67307 Y2.43038
G01 X-7.72818 Y2.48072
G01 X-7.78290 Y2.53181
G01 X-7.83183 Y2.57856
G01 X-7.83167 Y2.57876
G01 X-7.83183 Y2.57856
G01 X-7.89347 Y2.61690
G01 X-7.97337 Y2.66754
G01 X-7.99262 Y2.67991
G01 X-8.06657 Y2.72805
G01 X-8.08547 Y2.74052
G01 X-8.15477 Y2.78686
G01 X-8.17318 Y2.79933
G01 X-8.23772 Y2.84365
G01 X-8.25540 Y2.85595
G01 X-8.31556 Y2.89835
G01 X-8.38861 Y2.95104
G01 X-8.40551 Y2.96342
G01 X-8.45743 Y3.00195
G01 X-8.52269 Y3.05149
G01 X-8.53913 Y3.06417
G01 X-8.60003 Y3.11189
G01 X-8.64271 Y3.14608
G01 X-8.69712 Y3.19061
G01 X-8.74932 Y3.23441
G01 X-8.76421 Y3.24710
G01 X-8.79898 Y3.27711
G01 X-8.84576 Y3.31834
G01 X-8.89034 Y3.35862
G01 X-8.90419 Y3.37134
G01 X-8.94587 Y3.41023
G01 X-8.98619 Y3.44880
G01 X-9.01156 Y3.47356
G01 X-9.04800 Y3.50987
G01 X-9.08280 Y3.54539
G01 X-9.11595 Y3.58007
G01 X-9.14752 Y3.61392
G01 X-9.17785 Y3.64724
G01 X-9.20676 Y3.67980
G01 X-9.23418 Y3.71144
G01 X-9.26070 Y3.74281
G01 X-9.29602 Y3.78585
G01 X-9.31987 Y3.81583
G01 X-9.33315 Y3.83284
G01 X-9.35534 Y3.86185
G01 X-9.37654 Y3.89029
G01 X-9.40562 Y3.93053
G01 X-9.41629 Y3.94569
G01 X-9.43467 Y3.97233
G01 X-9.46073 Y4.01133
G01 X-9.46975 Y4.02520
G01 X-9.48603 Y4.05075
G01 X-9.50947 Y4.08880
G01 X-9.53128 Y4.12570
G01 X-9.55220 Y4.16264
G01 X-9.57118 Y4.19763
G01 X-9.58995 Y4.23381
G01 X-9.60655 Y4.26731
G01 X-9.61637 Y4.28786
G01 X-9.62661 Y4.30995
G01 X-9.64289 Y4.34665
G01 X-9.65609 Y4.37798
G01 X-9.66970 Y4.41203
G01 X-9.67772 Y4.43306
G01 X-9.68554 Y4.45434
G01 X-9.69568 Y4.48326
G01 X-9.70247 Y4.50355
G01 X-9.70913 Y4.52431
G01 X-9.71536 Y4.54458
G01 X-9.72127 Y4.56472
G01 X-9.72678 Y4.58434
G01 X-9.73218 Y4.60452
G01 X-9.73720 Y4.62427
G01 X-9.74188 Y4.64363
G01 X-9.74913 Y4.67595
G01 X-9.75317 Y4.69542
G01 X-9.75693 Y4.71480
G01 X-9.76043 Y4.73406
G01 X-9.76368 Y4.75326
G01 X-9.76665 Y4.77225
G01 X-9.76939 Y4.79130
G01 X-9.77188 Y4.81028
G01 X-9.77410 Y4.82892
G01 X-9.77610 Y4.84767
G01 X-9.77788 Y4.86665
G01 X-9.77942 Y4.88543
G01 X-9.78072 Y4.90420
G01 X-9.78178 Y4.92292
G01 X-9.78261 Y4.94130
G01 X-9.78337 Y4.96639
G01 X-9.78367 Y4.98474
G01 X-9.78374 Y5.00324
G01 X-9.78335 Y5.03468
G01 X-9.78281 Y5.05307
G01 X-9.78205 Y5.07176
G01 X-9.78065 Y5.09690
G01 X-9.77832 Y5.12828
G01 X-9.77663 Y5.14692
G01 X-9.77472 Y5.16545
G01 X-9.77173 Y5.19095
G01 X-9.76922 Y5.20994
G01 X-9.76653 Y5.22856
G01 X-9.76136 Y5.26059
G01 X-9.75672 Y5.28632
G01 X-9.75300 Y5.30540
G01 X-9.74896 Y5.32485
G01 X-9.74173 Y5.35700
G01 X-9.73513 Y5.38400
G01 X-9.72658 Y5.41638
G01 X-9.72100 Y5.43623
G01 X-9.71516 Y5.45607
G01 X-9.70648 Y5.48405
G01 X-9.69575 Y5.51654
G01 X-9.68535 Y5.54622
G01 X-9.67252 Y5.58066
G01 X-9.66045 Y5.61132
G01 X-9.64645 Y5.64507
G01 X-9.63270 Y5.67656
G01 X-9.62252 Y5.69894
G01 X-9.61198 Y5.72139
G01 X-9.59469 Y5.75677
G01 X-9.57714 Y5.79106
G01 X-9.55792 Y5.82697
G01 X-9.53779 Y5.86296
G01 X-9.52364 Y5.88739
G01 X-9.50988 Y5.91051
G01 X-9.50582 Y5.90994
G01 X-9.50988 Y5.91051
G01 X-9.52181 Y5.95683
G01 X-9.53291 Y6.01068
G01 X-9.54052 Y6.05916
G01 X-9.54126 Y6.06480
G01 X-9.54661 Y6.11585
G01 X-9.54938 Y6.16441
G01 X-9.54980 Y6.21949
G01 X-9.54785 Y6.26673
G01 X-9.54747 Y6.27238
G01 X-9.54276 Y6.32315
G01 X-9.53596 Y6.37146
G01 X-9.53503 Y6.37707
G01 X-9.52578 Y6.42536
G01 X-9.51288 Y6.47900
G01 X-9.49685 Y6.53379
G01 X-9.49507 Y6.53933
G01 X-9.47697 Y6.59121
G01 X-9.47490 Y6.59671
G01 X-9.45108 Y6.65525
G01 X-9.42384 Y6.71400
G01 X-9.40619 Y6.74873
G01 X-9.38797 Y6.78234
G01 X-9.36966 Y6.81431
G01 X-9.34769 Y6.85049
G01 X-9.32503 Y6.88587
G01 X-9.29962 Y6.92338
G01 X-9.27279 Y6.96104
G01 X-9.24286 Y7.00086
G01 X-9.21089 Y7.04135
G01 X-9.17540 Y7.08404
G01 X-9.13677 Y7.12831
G01 X-9.09406 Y7.17481
G01 X-9.04847 Y7.22215
G01 X-8.99644 Y7.27351
G01 X-8.93951 Y7.32706
G01 X-8.88113 Y7.37933
G01 X-8.80784 Y7.44188
G01 X-8.73016 Y7.50476
G01 X-8.64355 Y7.57149
G01 X-8.54921 Y7.64055
G01 X-8.49503 Y7.67876
G01 X-8.43943 Y7.71693
G01 X-8.31995 Y7.79578
G01 X-8.24866 Y7.84104
G01 X-8.17615 Y7.88578
G01 X-8.10057 Y7.93115
G01 X-8.02399 Y7.97589
G01 X-7.98165 Y8.00017
G01 X-7.97255 Y8.00424
G01 X-7.96282 Y8.00643
G01 X-7.95285 Y8.00664
G01 X-7.94304 Y8.00486
G01 X-7.85277 Y7.97902
G01 X-7.75983 Y7.95017
G01 X-7.65548 Y7.91514
G01 X-7.54998 Y7.87680
G01 X-7.43887 Y7.83333
G01 X-7.32664 Y7.78612
G01 X-7.21471 Y7.73580
G01 X-7.10443 Y7.68300
G01 X-7.08963 Y7.67566
G01 X-7.08998 Y7.67308
G01 X-7.08963 Y7.67566
G01 X-7.00649 Y7.69105
G01 X-6.90692 Y7.70731
G01 X-6.80734 Y7.72140
G01 X-6.70882 Y7.73321
G01 X-6.60816 Y7.74307
G01 X-6.50856 Y7.75064
G01 X-6.41004 Y7.75600
G01 X-6.31044 Y7.75925
G01 X-6.20974 Y7.76032
G01 X-6.11013 Y7.75920
G01 X-6.01162 Y7.75596
G01 X-5.91093 Y7.75044
G01 X-5.81134 Y7.74280
G01 X-5.71175 Y7.73298
G01 X-5.61323 Y7.72114
G01 X-5.51785 Y7.70760
G01 X-5.51786 Y7.70742
G01 X-5.51785 Y7.70760
G01 X-5.44597 Y7.70961
G01 X-5.36902 Y7.71050
G01 X-5.29208 Y7.71012
G01 X-5.21431 Y7.70845
G01 X-5.13737 Y7.70551
G01 X-5.06125 Y7.70137
G01 X-4.98431 Y7.69591
G01 X-4.90656 Y7.68910
G01 X-4.83044 Y7.68119
G01 X-4.75352 Y7.67192
G01 X-4.67659 Y7.66139
G01 X-4.59967 Y7.64959
G01 X-4.52197 Y7.63638
G01 X-4.44507 Y7.62204
G01 X-4.36818 Y7.60642
G01 X-4.29815 Y7.59105
G01 X-4.29819 Y7.59067
G01 X-4.29815 Y7.59105
G01 X-4.18437 Y7.59468
G01 X-4.06313 Y7.59555
G01 X-3.94189 Y7.59342
G01 X-3.81942 Y7.58823
G01 X-3.69942 Y7.58016
G01 X-3.57697 Y7.56889
G01 X-3.45576 Y7.55473
G01 X-3.34066 Y7.53843
G01 X-3.34067 Y7.53819
G01 X-3.34066 Y7.53843
G01 X-3.22580 Y7.54495
G01 X-3.10719 Y7.54884
G01 X-3.07281 Y7.54945
G01 X-3.07279 Y7.54926
G01 X-3.07281 Y7.54945
G01 X-2.97972 Y7.56759
G01 X-2.85927 Y7.58862
G01 X-2.84576 Y7.59081
G01 X-2.72671 Y7.60858
G01 X-2.71380 Y7.61035
G01 X-2.59515 Y7.62509
G01 X-2.58234 Y7.62652
G01 X-2.46526 Y7.63816
G01 X-2.41126 Y7.64269
G01 X-2.40131 Y7.64252
G01 X-2.39159 Y7.64038
G01 X-2.38248 Y7.63636
G01 X-2.37436 Y7.63061
G01 X-2.28894 Y7.55644
G01 X-2.21360 Y7.48930
G01 X-2.15403 Y7.43476
G01 X-2.08584 Y7.37093
G01 X-2.03180 Y7.31897
G01 X-1.96931 Y7.25751
G01 X-1.90905 Y7.19648
G01 X-1.82087 Y7.10406
G01 X-1.80859 Y7.09086
G01 X-1.72898 Y7.00320
G01 X-1.71769 Y6.99044
G01 X-1.64629 Y6.90783
G01 X-1.63522 Y6.89470
G01 X-1.57044 Y6.81593
G01 X-1.55981 Y6.80267
G01 X-1.50086 Y6.72728
G01 X-1.49118 Y6.71459
G01 X-1.43717 Y6.64194
G01 X-1.42790 Y6.62914
G01 X-1.37881 Y6.55962
G01 X-1.37007 Y6.54691
G01 X-1.32535 Y6.48015
G01 X-1.31672 Y6.46693
G01 X-1.27609 Y6.40295
G01 X-1.26785 Y6.38961
G01 X-1.23033 Y6.32718
G01 X-1.22284 Y6.31436
G01 X-1.18880 Y6.25443
G01 X-1.18142 Y6.24106
G01 X-1.15005 Y6.18253
G01 X-1.14338 Y6.16969
G01 X-1.11508 Y6.11362
G01 X-1.10879 Y6.10077
G01 X-1.08276 Y6.04589
G01 X-1.07664 Y6.03258
G01 X-1.05290 Y5.97917
G01 X-1.04737 Y5.96630
G01 X-1.02569 Y5.91410
G01 X-1.02053 Y5.90124
G01 X-1.00111 Y5.85103
G01 X-0.99613 Y5.83769
G01 X-0.97829 Y5.78798
G01 X-0.97384 Y5.77510
G01 X-0.95765 Y5.72624
G01 X-0.95356 Y5.71336
G01 X-0.93922 Y5.66629
G01 X-0.93533 Y5.65291
G01 X-0.92230 Y5.60602
G01 X-0.91889 Y5.59313
G01 X-0.90723 Y5.54680
G01 X-0.90416 Y5.53390
G01 X-0.89401 Y5.48893
G01 X-0.89114 Y5.47543
G01 X-0.88228 Y5.43112
G01 X-0.87987 Y5.41832
G01 X-0.87212 Y5.37395
G01 X-0.87003 Y5.36105
G01 X-0.86336 Y5.31643
G01 X-0.86160 Y5.30352
G01 X-0.85623 Y5.26040
G01 X-0.85472 Y5.24688
G01 X-0.85046 Y5.20402
G01 X-0.84928 Y5.19049
G01 X-0.84611 Y5.14797
G01 X-0.84530 Y5.13506
G01 X-0.84313 Y5.09162
G01 X-0.84265 Y5.07881
G01 X-0.84157 Y5.03611
G01 X-0.84140 Y5.02319
G01 X-0.84136 Y4.98107
G01 X-0.79136 Y4.98111
G01 X-0.79141 Y5.02447
G01 X-0.79159 Y5.03799
G01 X-0.79267 Y5.08008
G01 X-0.79322 Y5.09473
G01 X-0.79540 Y5.13816
G01 X-0.79625 Y5.15169
G01 X-0.79942 Y5.19421
G01 X-0.80071 Y5.20897
G01 X-0.80497 Y5.25182
G01 X-0.80647 Y5.26535
G01 X-0.81214 Y5.31091
G01 X-0.81400 Y5.32442
G01 X-0.82048 Y5.36783
G01 X-0.82287 Y5.38255
G01 X-0.83051 Y5.42632
G01 X-0.83301 Y5.43972
G01 X-0.84211 Y5.48523
G01 X-0.84523 Y5.49993
G01 X-0.85538 Y5.54491
G01 X-0.85860 Y5.55840
G01 X-0.87040 Y5.60533
G01 X-0.87428 Y5.62000
G01 X-0.88715 Y5.66630
G01 X-0.89104 Y5.67967
G01 X-0.90573 Y5.72793
G01 X-0.91038 Y5.74256
G01 X-0.92678 Y5.79200
G01 X-0.93143 Y5.80546
G01 X-0.94907 Y5.85458
G01 X-0.95404 Y5.86793
G01 X-0.97391 Y5.91928
G01 X-0.97975 Y5.93386
G01 X-1.00120 Y5.98549
G01 X-1.00697 Y5.99891
G01 X-1.03095 Y6.05289
G01 X-1.03758 Y6.06732
G01 X-1.06334 Y6.12164
G01 X-1.07044 Y6.13615
G01 X-1.09874 Y6.19221
G01 X-1.10569 Y6.20560
G01 X-1.13735 Y6.26468
G01 X-1.14472 Y6.27805
G01 X-1.17936 Y6.33905
G01 X-1.18716 Y6.35241
G01 X-1.22500 Y6.41537
G01 X-1.23323 Y6.42871
G01 X-1.27451 Y6.49373
G01 X-1.28313 Y6.50695
G01 X-1.32819 Y6.57424
G01 X-1.33726 Y6.58744
G01 X-1.38670 Y6.65748
G01 X-1.39631 Y6.67077
G01 X-1.45141 Y6.74491
G01 X-1.46147 Y6.75809
G01 X-1.52118 Y6.83443
G01 X-1.53182 Y6.84769
G01 X-1.59660 Y6.92645
G01 X-1.60846 Y6.94053
G01 X-1.67986 Y7.02314
G01 X-1.69238 Y7.03728
G01 X-1.77157 Y7.12447
G01 X-1.78384 Y7.13767
G01 X-1.87329 Y7.23143
G01 X-1.93464 Y7.29356
G01 X-1.99692 Y7.35479
G01 X-2.05074 Y7.40655
G01 X-2.12004 Y7.47143
G01 X-2.18075 Y7.52700
G01 X-2.25585 Y7.59393
G01 X-2.34158 Y7.66837
G01 X-2.35783 Y7.67986
G01 X-2.37604 Y7.68790
G01 X-2.39548 Y7.69218
G01 X-2.41538 Y7.69252
G01 X-2.47020 Y7.68792
G01 X-2.58851 Y7.67615
G01 X-2.60193 Y7.67464
G01 X-2.71936 Y7.66005
G01 X-2.73410 Y7.65803
G01 X-2.85314 Y7.64026
G01 X-2.86787 Y7.63788
G01 X-2.98892 Y7.61674
G01 X-3.07809 Y7.59937
G01 X-3.07807 Y7.59920
G01 X-3.07809 Y7.59937
G01 X-3.10884 Y7.59881
G01 X-3.22744 Y7.59492
G01 X-3.33856 Y7.58863
G01 X-3.33857 Y7.58839
G01 X-3.33856 Y7.58863
G01 X-3.44875 Y7.60423
G01 X-3.57361 Y7.61881
G01 X-3.69361 Y7.62985
G01 X-3.81607 Y7.63811
G01 X-3.94101 Y7.64342
G01 X-4.06101 Y7.64554
G01 X-4.18597 Y7.64465
G01 X-4.29352 Y7.64122
G01 X-4.29355 Y7.64084
G01 X-4.29352 Y7.64122
G01 X-4.35746 Y7.65526
G01 X-4.43669 Y7.67134
G01 X-4.51281 Y7.68554
G01 X-4.59209 Y7.69901
G01 X-4.66821 Y7.71070
G01 X-4.74592 Y7.72136
G01 X-4.82365 Y7.73074
G01 X-4.90139 Y7.73884
G01 X-4.97914 Y7.74565
G01 X-5.05689 Y7.75119
G01 X-5.13465 Y7.75544
G01 X-5.21241 Y7.75841
G01 X-5.29018 Y7.76010
G01 X-5.36795 Y7.76050
G01 X-5.44736 Y7.75959
G01 X-5.51501 Y7.75770
G01 X-5.51502 Y7.75752
G01 X-5.51501 Y7.75770
G01 X-5.60514 Y7.77050
G01 X-5.70578 Y7.78263
G01 X-5.80644 Y7.79256
G01 X-5.90711 Y7.80029
G01 X-6.00997 Y7.80593
G01 X-6.10849 Y7.80917
G01 X-6.20918 Y7.81032
G01 X-6.30988 Y7.80927
G01 X-6.41275 Y7.80592
G01 X-6.51344 Y7.80043
G01 X-6.61411 Y7.79274
G01 X-6.71263 Y7.78309
G01 X-6.81541 Y7.77077
G01 X-6.91604 Y7.75650
G01 X-7.01455 Y7.74040
G01 X-7.08235 Y7.72786
G01 X-7.08269 Y7.72530
G01 X-7.08235 Y7.72786
G01 X-7.19311 Y7.78090
G01 X-7.30670 Y7.83197
G01 X-7.41835 Y7.87896
G01 X-7.52913 Y7.92237
G01 X-7.63723 Y7.96172
G01 X-7.74771 Y7.99880
G01 X-7.84006 Y8.02740
G01 X-7.92928 Y8.05293
G01 X-7.94891 Y8.05648
G01 X-7.96885 Y8.05606
G01 X-7.98831 Y8.05170
G01 X-8.00651 Y8.04355
G01 X-8.04317 Y8.02255
G01 X-8.12681 Y7.97372
G01 X-8.20241 Y7.92833
G01 X-8.27491 Y7.88359
G01 X-8.35199 Y7.83461
G01 X-8.46699 Y7.75865
G01 X-8.52333 Y7.71997
G01 X-8.57829 Y7.68122
G01 X-8.67504 Y7.61037
G01 X-8.76614 Y7.54004
G01 X-8.84026 Y7.47994
G01 X-8.91448 Y7.41658
G01 X-8.97467 Y7.36265
G01 X-9.03116 Y7.30949
G01 X-9.08275 Y7.25859
G01 X-9.12963 Y7.20996
G01 X-9.17362 Y7.16210
G01 X-9.21349 Y7.11643
G01 X-9.24937 Y7.07328
G01 X-9.28172 Y7.03234
G01 X-9.31279 Y6.99104
G01 X-9.34361 Y6.94768
G01 X-9.36781 Y6.91180
G01 X-9.39014 Y6.87692
G01 X-9.41179 Y6.84128
G01 X-9.43166 Y6.80666
G01 X-9.45132 Y6.77033
G01 X-9.46868 Y6.73613
G01 X-9.49593 Y6.67741
G01 X-9.49928 Y6.66970
G01 X-9.52124 Y6.61549
G01 X-9.52418 Y6.60768
G01 X-9.54228 Y6.55580
G01 X-9.54409 Y6.55026
G01 X-9.55965 Y6.49752
G01 X-9.56178 Y6.48959
G01 X-9.57465 Y6.43593
G01 X-9.58457 Y6.38406
G01 X-9.58548 Y6.37844
G01 X-9.59243 Y6.32890
G01 X-9.59727 Y6.27691
G01 X-9.59780 Y6.26881
G01 X-9.59979 Y6.22034
G01 X-9.59950 Y6.16846
G01 X-9.59924 Y6.16033
G01 X-9.59661 Y6.11423
G01 X-9.59595 Y6.10612
G01 X-9.59027 Y6.05386
G01 X-9.58251 Y6.00414
G01 X-9.58152 Y5.99853
G01 X-9.57050 Y5.94547
G01 X-9.56353 Y5.91818
G01 X-9.55961 Y5.91764
G01 X-9.56353 Y5.91818
G01 X-9.58113 Y5.88790
G01 X-9.59540 Y5.86256
G01 X-9.61465 Y5.82712
G01 X-9.62744 Y5.80270
G01 X-9.64585 Y5.76615
G01 X-9.66176 Y5.73309
G01 X-9.67234 Y5.71027
G01 X-9.68279 Y5.68694
G01 X-9.69766 Y5.65231
G01 X-9.70698 Y5.62963
G01 X-9.71905 Y5.59897
G01 X-9.72847 Y5.57395
G01 X-9.73567 Y5.55399
G01 X-9.74714 Y5.52061
G01 X-9.75652 Y5.49165
G01 X-9.76309 Y5.47030
G01 X-9.76919 Y5.44958
G01 X-9.77823 Y5.41695
G01 X-9.78542 Y5.38903
G01 X-9.79044 Y5.36827
G01 X-9.79505 Y5.34812
G01 X-9.80192 Y5.31577
G01 X-9.80593 Y5.29518
G01 X-9.81073 Y5.26855
G01 X-9.81589 Y5.23652
G01 X-9.81880 Y5.21638
G01 X-9.82220 Y5.19016
G01 X-9.82574 Y5.15837
G01 X-9.82813 Y5.13258
G01 X-9.82970 Y5.11258
G01 X-9.83165 Y5.08092
G01 X-9.83256 Y5.06101
G01 X-9.83334 Y5.03530
G01 X-9.83374 Y5.00386
G01 X-9.83366 Y4.98414
G01 X-9.83319 Y4.95850
G01 X-9.83204 Y4.92687
G01 X-9.83063 Y4.90114
G01 X-9.82924 Y4.88114
G01 X-9.82646 Y4.84895
G01 X-9.82376 Y4.82311
G01 X-9.81984 Y4.79126
G01 X-9.81611 Y4.76493
G01 X-9.81295 Y4.74473
G01 X-9.80739 Y4.71262
G01 X-9.80349 Y4.69215
G01 X-9.79792 Y4.66500
G01 X-9.79067 Y4.63269
G01 X-9.78563 Y4.61184
G01 X-9.77861 Y4.58449
G01 X-9.77284 Y4.56330
G01 X-9.76329 Y4.53037
G01 X-9.75670 Y4.50892
G01 X-9.74740 Y4.48017
G01 X-9.73996 Y4.45827
G01 X-9.72796 Y4.42473
G01 X-9.71961 Y4.40249
G01 X-9.70764 Y4.37200
G01 X-9.69826 Y4.34913
G01 X-9.68341 Y4.31447
G01 X-9.67205 Y4.28908
G01 X-9.66177 Y4.26689
G01 X-9.64643 Y4.23502
G01 X-9.63433 Y4.21078
G01 X-9.61556 Y4.17460
G01 X-9.60233 Y4.15003
G01 X-9.58215 Y4.11389
G01 X-9.56758 Y4.08869
G01 X-9.55236 Y4.06310
G01 X-9.53661 Y4.03735
G01 X-9.51972 Y4.01049
G01 X-9.50281 Y3.98433
G01 X-9.48457 Y3.95686
G01 X-9.46583 Y3.92936
G01 X-9.44632 Y3.90150
G01 X-9.42589 Y3.87306
G01 X-9.40456 Y3.84413
G01 X-9.38261 Y3.81512
G01 X-9.35929 Y3.78507
G01 X-9.33506 Y3.75461
G01 X-9.32440 Y3.74146
G01 X-9.29877 Y3.71039
G01 X-9.27205 Y3.67878
G01 X-9.24464 Y3.64715
G01 X-9.21532 Y3.61413
G01 X-9.19586 Y3.59265
G01 X-9.16436 Y3.55857
G01 X-9.15195 Y3.54538
G01 X-9.11880 Y3.51070
G01 X-9.09572 Y3.48704
G01 X-9.05948 Y3.45063
G01 X-9.04627 Y3.43757
G01 X-9.00793 Y3.40029
G01 X-8.98058 Y3.37424
G01 X-8.96672 Y3.36120
G01 X-8.92439 Y3.32200
G01 X-8.87912 Y3.28110
G01 X-8.83188 Y3.23946
G01 X-8.78200 Y3.19656
G01 X-8.72932 Y3.15236
G01 X-8.67421 Y3.10725
G01 X-8.61551 Y3.06038
G01 X-8.55348 Y3.01209
G01 X-8.48747 Y2.96199
G01 X-8.43555 Y2.92345
G01 X-8.41792 Y2.91052
G01 X-8.36234 Y2.87032
G01 X-8.34412 Y2.85731
G01 X-8.28396 Y2.81490
G01 X-8.26577 Y2.80225
G01 X-8.20148 Y2.75811
G01 X-8.18231 Y2.74512
G01 X-8.11301 Y2.69879
G01 X-8.09385 Y2.68615
G01 X-8.01939 Y2.63768
G01 X-7.99988 Y2.62514
G01 X-7.91997 Y2.57451
G01 X-7.86261 Y2.53882
G01 X-7.86246 Y2.53900
G01 X-7.86261 Y2.53882
G01 X-7.81744 Y2.49566
G01 X-7.76271 Y2.44455
G01 X-7.70679 Y2.39346
G01 X-7.64967 Y2.34240
G01 X-7.63357 Y2.33068
G01 X-7.61546 Y2.32237
G01 X-7.59607 Y2.31782
G01 X-7.57616 Y2.31720
G01 X-7.50549 Y2.32207
G01 X-7.43188 Y2.32824
G01 X-7.35975 Y2.33536
G01 X-7.29893 Y2.34227
G01 X-7.29893 Y2.34251
G01 X-7.29893 Y2.34227
G01 X-7.19598 Y2.33355
G01 X-7.07847 Y2.32637
G01 X-6.96329 Y2.32208
G01 X-6.86360 Y2.32070
G01 X-6.86354 Y2.32112
G01 X-6.86360 Y2.32070
G01 X-6.79195 Y2.30049
G01 X-6.70421 Y2.27743
G01 X-6.61817 Y2.25648
G01 X-6.53210 Y2.23717
G01 X-6.44782 Y2.21986
G01 X-6.35991 Y2.20348
G01 X-6.27378 Y2.18911
G01 X-6.18764 Y2.17638
G01 X-6.10149 Y2.16530
G01 X-6.01533 Y2.15587
G01 X-5.92915 Y2.14808
G01 X-5.84297 Y2.14195
G01 X-5.75678 Y2.13747
G01 X-5.67059 Y2.13463
G01 X-5.58632 Y2.13346
G01 X-5.50012 Y2.13389
G01 X-5.41393 Y2.13597
G01 X-5.32774 Y2.13970
G01 X-5.23966 Y2.14522
G01 X-5.15349 Y2.15228
G01 X-5.06921 Y2.16079
G01 X-4.98305 Y2.17112
G01 X-4.89691 Y2.18309
G01 X-4.81078 Y2.19672
G01 X-4.72285 Y2.21232
G01 X-4.63677 Y2.22927
G01 X-4.55071 Y2.24786
G01 X-4.46468 Y2.26809
G01 X-4.38040 Y2.28951
G01 X-4.29439 Y2.31299
G01 X-4.20673 Y2.33862
G01 X-4.13879 Y2.35979
G01 X-4.13889 Y2.36051
G01 X-4.13879 Y2.35979
G01 X-4.03101 Y2.35583
G01 X-3.92564 Y2.35459
G01 X-3.92551 Y2.35529
G01 X-3.92564 Y2.35459
G01 X-3.83220 Y2.32062
G01 X-3.71839 Y2.28219
G01 X-3.60669 Y2.24738
G01 X-3.49495 Y2.21544
G01 X-3.38552 Y2.18695
G01 X-3.27134 Y2.16017
G01 X-3.15948 Y2.13685
G01 X-3.04758 Y2.11641
G01 X-2.93565 Y2.09886
G01 X-2.82370 Y2.08418
G01 X-2.71173 Y2.07240
G01 X-2.59974 Y2.06349
G01 X-2.48774 Y2.05748
G01 X-2.37832 Y2.05439
G01 X-2.26632 Y2.05409
G01 X-2.15431 Y2.05668
G01 X-2.13433 Y2.05917
G01 X-2.11525 Y2.06562
G01 X-2.09785 Y2.07577
G01 X-2.08283 Y2.08919
G01 X-2.01572 Y2.16262
G01 X-1.94979 Y2.23739
G01 X-1.88620 Y2.31222
G01 X-1.82498 Y2.38711
G01 X-1.76611 Y2.46208
G01 X-1.70960 Y2.53712
G01 X-1.65422 Y2.61400
G01 X-1.60244 Y2.68928
G01 X-1.55303 Y2.76464
G01 X-1.50723 Y2.83807
G01 X-1.46257 Y2.91352
G01 X-1.42029 Y2.98906
G01 X-1.38040 Y3.06468
G01 X-1.34290 Y3.14039
G01 X-1.30780 Y3.21619
G01 X-1.27457 Y3.29334
G01 X-1.25347 Y3.34429
G01 X-1.23180 Y3.39817
G01 X-1.21067 Y3.45399
G01 X-1.19086 Y3.50987
G01 X-1.17171 Y3.56786
G01 X-1.15460 Y3.62386
G01 X-1.13881 Y3.67990
G01 X-1.12491 Y3.73378
G01 X-1.11468 Y3.77739
G01 X-1.11505 Y3.77752
G01 X-1.11468 Y3.77739
G01 X-1.09636 Y3.81239
G01 X-1.06766 Y3.86952
G01 X-1.06059 Y3.88403
G01 X-1.03493 Y3.93844
G01 X-1.02829 Y3.95297
G01 X-1.00449 Y4.00683
G01 X-0.99880 Y4.02015
G01 X-0.97759 Y4.07150
G01 X-0.97178 Y4.08608
G01 X-0.95205 Y4.13738
G01 X-0.94711 Y4.15072
G01 X-0.92926 Y4.20078
G01 X-0.92465 Y4.21424
G01 X-0.90846 Y4.26343
G01 X-0.90424 Y4.27679
G01 X-0.88970 Y4.32491
G01 X-0.88584 Y4.33828
G01 X-0.87310 Y4.38441
G01 X-0.86955 Y4.39790
G01 X-0.85783 Y4.44479
G01 X-0.85435 Y4.45948
G01 X-0.84402 Y4.50568
G01 X-0.84119 Y4.51918
G01 X-0.83243 Y4.56336
G01 X-0.82973 Y4.57796
G01 X-0.82218 Y4.62164
G01 X-0.81982 Y4.63637
G01 X-0.81323 Y4.68106
G01 X-0.81141 Y4.69458
G01 X-0.80613 Y4.73771
G01 X-0.80451 Y4.75246
G01 X-0.80034 Y4.79518
G01 X-0.79917 Y4.80871
G01 X-0.79590 Y4.85373
G01 X-0.79509 Y4.86726
G01 X-0.79305 Y4.90961
G01 X-0.79252 Y4.92437
G01 X-0.79153 Y4.96646
G01 X-0.79136 Y4.98111
G01 X-0.89136 Y4.98102
G01 X-0.94136 Y4.98128
G01 X-0.94139 Y5.02279
G01 X-0.94155 Y5.03448
G01 X-0.94261 Y5.07596
G01 X-0.94304 Y5.08755
G01 X-0.94513 Y5.12915
G01 X-0.94585 Y5.14083
G01 X-0.94898 Y5.18274
G01 X-0.95000 Y5.19443
G01 X-0.95420 Y5.23667
G01 X-0.95550 Y5.24836
G01 X-0.96079 Y5.29087
G01 X-0.96239 Y5.30256
G01 X-0.96879 Y5.34536
G01 X-0.97068 Y5.35705
G01 X-0.97822 Y5.40022
G01 X-0.98039 Y5.41181
G01 X-0.98913 Y5.45552
G01 X-0.99162 Y5.46722
G01 X-1.00164 Y5.51159
G01 X-1.00442 Y5.52329
G01 X-1.01579 Y5.56842
G01 X-1.01888 Y5.58013
G01 X-1.03159 Y5.62584
G01 X-1.03497 Y5.63745
G01 X-1.04913 Y5.68394
G01 X-1.05285 Y5.69565
G01 X-1.06867 Y5.74334
G01 X-1.07271 Y5.75506
G01 X-1.09014 Y5.80361
G01 X-1.09448 Y5.81523
G01 X-1.11369 Y5.86486
G01 X-1.11839 Y5.87659
G01 X-1.13960 Y5.92765
G01 X-1.14465 Y5.93939
G01 X-1.16789 Y5.99168
G01 X-1.17324 Y6.00332
G01 X-1.19874 Y6.05709
G01 X-1.20449 Y6.06884
G01 X-1.23251 Y6.12436
G01 X-1.23863 Y6.13611
G01 X-1.26941 Y6.19355
G01 X-1.27590 Y6.20531
G01 X-1.30964 Y6.26469
G01 X-1.31651 Y6.27646
G01 X-1.35340 Y6.33783
G01 X-1.36068 Y6.34961
G01 X-1.40097 Y6.41307
G01 X-1.40860 Y6.42475
G01 X-1.45264 Y6.49050
G01 X-1.46068 Y6.50220
G01 X-1.50906 Y6.57073
G01 X-1.51761 Y6.58254
G01 X-1.57089 Y6.65421
G01 X-1.57982 Y6.66592
G01 X-1.63840 Y6.74083
G01 X-1.64787 Y6.75265
G01 X-1.71226 Y6.83094
G01 X-1.72215 Y6.84268
G01 X-1.79315 Y6.92483
G01 X-1.80364 Y6.93667
G01 X-1.88241 Y7.02341
G01 X-1.89344 Y7.03526
G01 X-1.98077 Y7.12680
G01 X-2.04016 Y7.18694
G01 X-2.08905 Y7.23513
G01 X-2.15449 Y7.29822
G01 X-2.22190 Y7.36132
G01 X-2.28090 Y7.41534
G01 X-2.35495 Y7.48133
G01 X-2.42401 Y7.54129
G01 X-2.42266 Y7.54551
G01 X-2.42401 Y7.54129
G01 X-2.45567 Y7.53862
G01 X-2.57214 Y7.52704
G01 X-2.58373 Y7.52575
G01 X-2.70056 Y7.51123
G01 X-2.71225 Y7.50963
G01 X-2.83069 Y7.49195
G01 X-2.84238 Y7.49006
G01 X-2.96162 Y7.46925
G01 X-3.00773 Y7.46031
G01 X-3.02569 Y7.47215
G01 X-3.00773 Y7.46031
G01 X-2.96760 Y7.27707
G01 X-2.86558 Y6.80567
G01 X-2.79698 Y6.48440
G01 X-2.74853 Y6.25302
G01 X-2.71832 Y6.10622
G01 X-2.68948 Y5.96267
G01 X-2.66666 Y5.84598
G01 X-2.64395 Y5.72555
G01 X-2.62922 Y5.64387
G01 X-2.62022 Y5.59214
G01 X-2.60958 Y5.52839
G01 X-2.60048 Y5.47065
G01 X-2.59289 Y5.41974
G01 X-2.58432 Y5.35722
G01 X-2.57892 Y5.31391
G01 X-2.57541 Y5.28324
G01 X-2.57382 Y5.26771
G01 X-2.56819 Y5.24102
G01 X-2.56320 Y5.21888
G01 X-2.56002 Y5.20554
G01 X-2.55484 Y5.18491
G01 X-2.54602 Y5.15248
G01 X-2.53678 Y5.12153
G01 X-2.52721 Y5.09214
G01 X-2.52300 Y5.07988
G01 X-2.51734 Y5.06414
G01 X-2.50710 Y5.03720
G01 X-2.49655 Y5.01139
G01 X-2.48571 Y4.98660
G01 X-2.47461 Y4.96282
G01 X-2.46916 Y4.95169
G01 X-2.45761 Y4.92912
G01 X-2.45166 Y4.91801
G01 X-2.43974 Y4.89670
G01 X-2.42755 Y4.87612
G01 X-2.42123 Y4.86589
G01 X-2.40864 Y4.84632
G01 X-2.39574 Y4.82731
G01 X-2.38949 Y4.81846
G01 X-2.37632 Y4.80048
G01 X-2.36282 Y4.78298
G01 X-2.35547 Y4.77380
G01 X-2.34139 Y4.75688
G01 X-2.32697 Y4.74043
G01 X-2.32022 Y4.73300
G01 X-2.30544 Y4.71727
G01 X-2.29018 Y4.70184
G01 X-2.28180 Y4.69368
G01 X-2.26607 Y4.67890
G01 X-2.24984 Y4.66442
G01 X-2.24213 Y4.65778
G01 X-2.22520 Y4.64370
G01 X-2.20774 Y4.62994
G01 X-2.18980 Y4.61646
G01 X-2.17132 Y4.60331
G01 X-2.15235 Y4.59047
G01 X-2.13259 Y4.57782
G01 X-2.12234 Y4.57152
G01 X-2.10174 Y4.55936
G01 X-2.09109 Y4.55335
G01 X-2.08049 Y4.54752
G01 X-2.04453 Y4.52833
G01 X-2.03243 Y4.52161
G01 X-2.00726 Y4.50708
G01 X-1.98036 Y4.49080
G01 X-1.96483 Y4.48106
G01 X-1.95149 Y4.47251
G01 X-1.92150 Y4.45270
G01 X-1.88871 Y4.43020
G01 X-1.86755 Y4.41525
G01 X-1.85274 Y4.40461
G01 X-1.81369 Y4.37592
G01 X-1.76913 Y4.34223
G01 X-1.73562 Y4.31632
G01 X-1.67742 Y4.27039
G01 X-1.65787 Y4.25473
G01 X-1.58657 Y4.19684
G01 X-1.49889 Y4.12433
G01 X-1.38778 Y4.03099
G01 X-1.27166 Y3.93224
G01 X-1.22436 Y3.89171
G01 X-1.21815 Y3.86120
G01 X-1.22436 Y3.89171
G01 X-1.20184 Y3.93656
G01 X-1.19612 Y3.94831
G01 X-1.17072 Y4.00216
G01 X-1.16535 Y4.01390
G01 X-1.14230 Y4.06607
G01 X-1.13732 Y4.07770
G01 X-1.11635 Y4.12848
G01 X-1.11166 Y4.14021
G01 X-1.09260 Y4.18979
G01 X-1.08828 Y4.20142
G01 X-1.07104 Y4.24974
G01 X-1.06703 Y4.26146
G01 X-1.05140 Y4.30890
G01 X-1.04773 Y4.32051
G01 X-1.03370 Y4.36687
G01 X-1.03035 Y4.37848
G01 X-1.01778 Y4.42402
G01 X-1.01470 Y4.43573
G01 X-1.00344 Y4.48084
G01 X-1.00066 Y4.49254
G01 X-0.99073 Y4.53693
G01 X-0.98827 Y4.54863
G01 X-0.97963 Y4.59221
G01 X-0.97748 Y4.60381
G01 X-0.97003 Y4.64688
G01 X-0.96817 Y4.65858
G01 X-0.96184 Y4.70144
G01 X-0.96026 Y4.71313
G01 X-0.95505 Y4.75565
G01 X-0.95376 Y4.76733
G01 X-0.94965 Y4.80945
G01 X-0.94866 Y4.82114
G01 X-0.94560 Y4.86309
G01 X-0.94490 Y4.87477
G01 X-0.94289 Y4.91652
G01 X-0.94246 Y4.92821
G01 X-0.94149 Y4.96969
G01 X-0.94136 Y4.98128
G01 X-0.99136 Y4.98154
G01 X-0.99148 Y4.97056
G01 X-0.99244 Y4.92969
G01 X-0.99284 Y4.91862
G01 X-0.99482 Y4.87749
G01 X-0.99549 Y4.86641
G01 X-0.99850 Y4.82508
G01 X-0.99944 Y4.81400
G01 X-1.00350 Y4.77250
G01 X-1.00472 Y4.76142
G01 X-1.00985 Y4.71952
G01 X-1.01135 Y4.70844
G01 X-1.01758 Y4.66618
G01 X-1.01936 Y4.65509
G01 X-1.02670 Y4.61262
G01 X-1.02874 Y4.60162
G01 X-1.03725 Y4.55865
G01 X-1.03959 Y4.54755
G01 X-1.04939 Y4.50375
G01 X-1.05202 Y4.49265
G01 X-1.06314 Y4.44814
G01 X-1.06606 Y4.43703
G01 X-1.07846 Y4.39208
G01 X-1.08165 Y4.38105
G01 X-1.09550 Y4.33528
G01 X-1.09898 Y4.32425
G01 X-1.11442 Y4.27739
G01 X-1.11824 Y4.26625
G01 X-1.13527 Y4.21851
G01 X-1.13937 Y4.20746
G01 X-1.15822 Y4.15845
G01 X-1.16268 Y4.14729
G01 X-1.18342 Y4.09707
G01 X-1.18815 Y4.08600
G01 X-1.21096 Y4.03439
G01 X-1.21607 Y4.02321
G01 X-1.24052 Y3.97139
G01 X-1.23365 Y3.93980
G01 X-1.24052 Y3.97139
G01 X-1.35565 Y4.06930
G01 X-1.46676 Y4.16264
G01 X-1.55493 Y4.23555
G01 X-1.57647 Y4.25315
G01 X-1.64596 Y4.30925
G01 X-1.70503 Y4.35588
G01 X-1.73881 Y4.38199
G01 X-1.78391 Y4.41609
G01 X-1.82326 Y4.44499
G01 X-1.83870 Y4.45608
G01 X-1.86021 Y4.47128
G01 X-1.89298 Y4.49377
G01 X-1.90749 Y4.50347
G01 X-1.93743 Y4.52289
G01 X-1.95423 Y4.53343
G01 X-1.98111 Y4.54971
G01 X-1.99470 Y4.55765
G01 X-2.02026 Y4.57204
G01 X-2.05669 Y4.59150
G01 X-2.06675 Y4.59702
G01 X-2.07687 Y4.60274
G01 X-2.09642 Y4.61426
G01 X-2.11534 Y4.62606
G01 X-2.13360 Y4.63805
G01 X-2.15118 Y4.65027
G01 X-2.16029 Y4.65684
G01 X-2.17727 Y4.66955
G01 X-2.18503 Y4.67563
G01 X-2.19373 Y4.68258
G01 X-2.20974 Y4.69585
G01 X-2.22529 Y4.70945
G01 X-2.23228 Y4.71577
G01 X-2.24715 Y4.72969
G01 X-2.26172 Y4.74408
G01 X-2.26945 Y4.75200
G01 X-2.28342 Y4.76681
G01 X-2.29710 Y4.78211
G01 X-2.30334 Y4.78934
G01 X-2.31666 Y4.80530
G01 X-2.32964 Y4.82172
G01 X-2.33636 Y4.83054
G01 X-2.34883 Y4.84752
G01 X-2.36110 Y4.86518
G01 X-2.36692 Y4.87388
G01 X-2.37886 Y4.89241
G01 X-2.39061 Y4.91173
G01 X-2.39640 Y4.92165
G01 X-2.40773 Y4.94188
G01 X-2.41873 Y4.96272
G01 X-2.42438 Y4.97394
G01 X-2.43518 Y4.99638
G01 X-2.44575 Y5.01981
G01 X-2.45607 Y5.04424
G01 X-2.46609 Y5.06978
G01 X-2.47584 Y5.09647
G01 X-2.48521 Y5.12435
G01 X-2.49434 Y5.15385
G01 X-2.50310 Y5.18482
G01 X-2.51145 Y5.21742
G01 X-2.51449 Y5.23016
G01 X-2.51934 Y5.25171
G01 X-2.52434 Y5.27533
G01 X-2.52569 Y5.28856
G01 X-2.52924 Y5.31962
G01 X-2.53474 Y5.36374
G01 X-2.54113 Y5.41076
G01 X-2.54854 Y5.46175
G01 X-2.56031 Y5.53687
G01 X-2.57088 Y5.60024
G01 X-2.57992 Y5.65222
G01 X-2.59891 Y5.75693
G01 X-2.61755 Y5.85536
G01 X-2.64044 Y5.97239
G01 X-2.66935 Y6.11630
G01 X-2.70427 Y6.28580
G01 X-2.75652 Y6.53469
G01 X-2.82691 Y6.86374
G01 X-2.91876 Y7.28779
G01 X-2.94789 Y7.42089
G01 X-2.96634 Y7.43331
G01 X-2.94789 Y7.42089
G01 X-2.83409 Y7.44075
G01 X-2.82301 Y7.44254
G01 X-2.70518 Y7.46013
G01 X-2.69409 Y7.46165
G01 X-2.57787 Y7.47609
G01 X-2.56689 Y7.47732
G01 X-2.45103 Y7.48884
G01 X-2.44088 Y7.48972
G01 X-2.43953 Y7.49395
G01 X-2.44088 Y7.48972
G01 X-2.38788 Y7.44371
G01 X-2.37459 Y7.43197
G01 X-2.31444 Y7.37825
G01 X-2.25578 Y7.32455
G01 X-2.18893 Y7.26197
G01 X-2.13623 Y7.21129
G01 X-2.07548 Y7.15155
G01 X-2.01674 Y7.09206
G01 X-1.92983 Y7.00097
G01 X-1.91922 Y6.98957
G01 X-1.84086 Y6.90328
G01 X-1.83078 Y6.89190
G01 X-1.76018 Y6.81022
G01 X-1.75069 Y6.79895
G01 X-1.68669 Y6.72113
G01 X-1.67760 Y6.70979
G01 X-1.61939 Y6.63537
G01 X-1.61084 Y6.62414
G01 X-1.55793 Y6.55296
G01 X-1.54973 Y6.54165
G01 X-1.50171 Y6.47362
G01 X-1.49402 Y6.46242
G01 X-1.45031 Y6.39718
G01 X-1.44302 Y6.38601
G01 X-1.40305 Y6.32306
G01 X-1.39609 Y6.31181
G01 X-1.35952 Y6.25097
G01 X-1.35296 Y6.23973
G01 X-1.31952 Y6.18088
G01 X-1.31333 Y6.16966
G01 X-1.28284 Y6.11276
G01 X-1.27701 Y6.10156
G01 X-1.24927 Y6.04659
G01 X-1.24379 Y6.03539
G01 X-1.21855 Y5.98217
G01 X-1.21346 Y5.97109
G01 X-1.19046 Y5.91936
G01 X-1.18566 Y5.90819
G01 X-1.16468 Y5.85769
G01 X-1.16021 Y5.84653
G01 X-1.14122 Y5.79747
G01 X-1.13709 Y5.78642
G01 X-1.11987 Y5.73845
G01 X-1.11603 Y5.72732
G01 X-1.10041 Y5.68021
G01 X-1.09687 Y5.66908
G01 X-1.08289 Y5.62317
G01 X-1.07968 Y5.61215
G01 X-1.06714 Y5.56703
G01 X-1.06420 Y5.55592
G01 X-1.05299 Y5.51139
G01 X-1.05034 Y5.50028
G01 X-1.04046 Y5.45651
G01 X-1.03810 Y5.44541
G01 X-1.02948 Y5.40231
G01 X-1.02742 Y5.39131
G01 X-1.01999 Y5.34876
G01 X-1.01819 Y5.33767
G01 X-1.01189 Y5.29547
G01 X-1.01037 Y5.28439
G01 X-1.00516 Y5.24250
G01 X-1.00392 Y5.23142
G01 X-0.99979 Y5.18979
G01 X-0.99882 Y5.17872
G01 X-0.99574 Y5.13742
G01 X-0.99505 Y5.12634
G01 X-0.99300 Y5.08536
G01 X-0.99258 Y5.07438
G01 X-0.99155 Y5.03351
G01 X-0.99140 Y5.02244
G01 X-0.99136 Y4.98154
G01 X-0.89136 Y4.98102
G01 X-0.89150 Y4.96882
G01 X-0.89249 Y4.92672
G01 X-0.89293 Y4.91442
G01 X-0.89497 Y4.87206
G01 X-0.89571 Y4.85977
G01 X-0.89881 Y4.81720
G01 X-0.89986 Y4.80490
G01 X-0.90403 Y4.76217
G01 X-0.90539 Y4.74987
G01 X-0.91067 Y4.70674
G01 X-0.91233 Y4.69444
G01 X-0.91875 Y4.65097
G01 X-0.92072 Y4.63867
G01 X-0.92827 Y4.59499
G01 X-0.93053 Y4.58279
G01 X-0.93928 Y4.53861
G01 X-0.94187 Y4.52631
G01 X-0.95194 Y4.48132
G01 X-0.95485 Y4.46902
G01 X-0.96627 Y4.42332
G01 X-0.96950 Y4.41102
G01 X-0.98223 Y4.36489
G01 X-0.98576 Y4.35269
G01 X-0.99996 Y4.30575
G01 X-1.00381 Y4.29355
G01 X-1.01963 Y4.24553
G01 X-1.02385 Y4.23323
G01 X-1.04130 Y4.18433
G01 X-1.04582 Y4.17213
G01 X-1.06511 Y4.12198
G01 X-1.07002 Y4.10968
G01 X-1.09123 Y4.05833
G01 X-1.09644 Y4.04613
G01 X-1.11975 Y3.99340
G01 X-1.12537 Y3.98110
G01 X-1.15103 Y3.92670
G01 X-1.15702 Y3.91440
G01 X-1.18517 Y3.85836
G01 X-1.20913 Y3.81265
G01 X-1.22174 Y3.75877
G01 X-1.20913 Y3.81265
G01 X-1.30416 Y3.89424
G01 X-1.42017 Y3.99290
G01 X-1.44740 Y4.01589
G01 X-1.55461 Y4.10565
G01 X-1.63939 Y4.17543
G01 X-1.68934 Y4.21587
G01 X-1.74869 Y4.26305
G01 X-1.76620 Y4.27677
G01 X-1.81567 Y4.31484
G01 X-1.85849 Y4.34690
G01 X-1.89640 Y4.37441
G01 X-1.91722 Y4.38912
G01 X-1.94928 Y4.41113
G01 X-1.97888 Y4.43068
G01 X-1.99140 Y4.43870
G01 X-2.01863 Y4.45561
G01 X-2.04422 Y4.47077
G01 X-2.06880 Y4.48461
G01 X-2.10429 Y4.50355
G01 X-2.11542 Y4.50967
G01 X-2.12661 Y4.51599
G01 X-2.14827 Y4.52876
G01 X-2.16928 Y4.54186
G01 X-2.18958 Y4.55521
G01 X-2.20919 Y4.56881
G01 X-2.22834 Y4.58280
G01 X-2.24697 Y4.59712
G01 X-2.26507 Y4.61175
G01 X-2.28270 Y4.62674
G01 X-2.29984 Y4.64204
G01 X-2.31648 Y4.65766
G01 X-2.33281 Y4.67375
G01 X-2.34872 Y4.69022
G01 X-2.36420 Y4.70705
G01 X-2.37941 Y4.72443
G01 X-2.38737 Y4.73387
G01 X-2.40203 Y4.75195
G01 X-2.40881 Y4.76063
G01 X-2.42293 Y4.77937
G01 X-2.43017 Y4.78938
G01 X-2.44385 Y4.80904
G01 X-2.45717 Y4.82921
G01 X-2.46361 Y4.83936
G01 X-2.47665 Y4.86077
G01 X-2.48941 Y4.88292
G01 X-2.49559 Y4.89413
G01 X-2.50773 Y4.91713
G01 X-2.51966 Y4.94112
G01 X-2.52581 Y4.95410
G01 X-2.53739 Y4.97977
G01 X-2.54865 Y5.00647
G01 X-2.55958 Y5.03430
G01 X-2.57016 Y5.06330
G01 X-2.57458 Y5.07613
G01 X-2.58453 Y5.10669
G01 X-2.59020 Y5.12534
G01 X-2.59411 Y5.13882
G01 X-2.59962 Y5.15867
G01 X-2.60326 Y5.17243
G01 X-2.60859 Y5.19365
G01 X-2.61191 Y5.20759
G01 X-2.61703 Y5.23033
G01 X-2.62323 Y5.26011
G01 X-2.62567 Y5.28279
G01 X-2.63038 Y5.32286
G01 X-2.63590 Y5.36595
G01 X-2.64240 Y5.41275
G01 X-2.64747 Y5.44718
G01 X-2.65609 Y5.50275
G01 X-2.66948 Y5.58357
G01 X-2.68208 Y5.65549
G01 X-2.69724 Y5.73873
G01 X-2.71578 Y5.83660
G01 X-2.73853 Y5.95295
G01 X-2.76729 Y6.09614
G01 X-2.79749 Y6.24287
G01 X-2.85431 Y6.51376
G01 X-2.92464 Y6.84257
G01 X-3.01647 Y7.26649
G01 X-3.06752 Y7.49953
G04 P0 ( dwell for no time -- G64 should not smooth over this point )
G00 Z0.08000 ( retract )

G00 X-3.45038 Y7.40247 ( rapid move to begin. )
G01 F3.00000
( Mill infeed pass 1/1 )
G01 Z-0.00800
G04 P0 ( dwell for no time -- G64 should not smooth over this point )
G01 F6.00000
G01 X-3.45038 Y7.40247
G01 X-3.47558 Y7.40604
G01 X-3.59315 Y7.41977
G01 X-3.71071 Y7.43058
G01 X-3.82825 Y7.43849
G01 X-3.94578 Y7.44347
G01 X-4.06331 Y7.44555
G01 X-4.18083 Y7.44471
G01 X-4.21884 Y7.44350
G01 X-4.22816 Y7.45432
G01 X-4.21884 Y7.44350
G01 X-4.45660 Y6.13455
G01 X-4.46650 Y6.07760
G01 X-4.47523 Y6.02220
G01 X-4.48287 Y5.96799
G01 X-4.48941 Y5.91498
G01 X-4.49487 Y5.86316
G01 X-4.49924 Y5.81254
G01 X-4.50253 Y5.76312
G01 X-4.50444 Y5.72148
G01 X-4.50458 Y5.72148
G01 X-4.50444 Y5.72148
G01 X-4.49584 Y5.64129
G01 X-4.49247 Y5.60755
G01 X-4.48848 Y5.56013
G01 X-4.47804 Y5.42002
G01 X-4.46772 Y5.29084
G01 X-4.45887 Y5.18855
G01 X-4.45047 Y5.09875
G01 X-4.44163 Y5.01114
G01 X-4.43190 Y4.92141
G01 X-4.42006 Y4.81883
G01 X-4.40772 Y4.71742
G01 X-4.40464 Y4.69040
G01 X-4.40041 Y4.64485
G01 X-4.40000 Y4.63581
G01 X-4.39998 Y4.34317
G01 X-4.40028 Y4.33548
G01 X-4.40435 Y4.28341
G01 X-4.41523 Y4.16219
G01 X-4.41535 Y4.16219
G01 X-4.41523 Y4.16219
G01 X-4.41305 Y4.11873
G01 X-4.40961 Y4.06815
G01 X-4.40521 Y4.01653
G01 X-4.39985 Y3.96385
G01 X-4.39353 Y3.91013
G01 X-4.38625 Y3.85537
G01 X-4.37800 Y3.79956
G01 X-4.36883 Y3.74305
G01 X-4.34741 Y3.62593
G01 X-4.32216 Y3.50504
G01 X-4.29300 Y3.38005
G01 X-4.25980 Y3.25049
G01 X-4.07466 Y2.55755
G01 X-4.08225 Y2.54804
G01 X-4.07466 Y2.55755
G01 X-4.02739 Y2.55580
G01 X-3.97643 Y2.55520
G01 X-3.97017 Y2.54606
G01 X-3.97643 Y2.55520
G01 X-3.86659 Y2.84776
G01 X-3.82320 Y2.96570
G01 X-3.78274 Y3.08043
G01 X-3.74511 Y3.19225
G01 X-3.71032 Y3.30115
G01 X-3.67835 Y3.40713
G01 X-3.64920 Y3.51017
G01 X-3.62287 Y3.61026
G01 X-3.59936 Y3.70740
G01 X-3.57866 Y3.80156
G01 X-3.56077 Y3.89274
G01 X-3.54567 Y3.98092
G01 X-3.53335 Y4.06609
G01 X-3.52381 Y4.14822
G01 X-3.51702 Y4.22729
G01 X-3.51296 Y4.30330
G01 X-3.51161 Y4.37718
G01 X-3.51157 Y4.44127
G01 X-3.52367 Y4.60196
G01 X-3.53260 Y4.71292
G01 X-3.54054 Y4.80486
G01 X-3.54844 Y4.89004
G01 X-3.55657 Y4.97152
G01 X-3.56600 Y5.05981
G01 X-3.57803 Y5.16507
G01 X-3.59332 Y5.29139
G01 X-3.59951 Y5.35450
G01 X-3.59999 Y5.36428
G01 X-3.60001 Y5.65093
G01 X-3.60001 Y5.65689
G01 X-3.59974 Y5.66405
G01 X-3.59748 Y5.69451
G01 X-3.59489 Y5.72528
G01 X-3.58492 Y5.83598
G01 X-3.56913 Y6.01433
G01 X-3.54551 Y6.28575
G01 X-3.50970 Y6.70327
G01 X-3.45038 Y7.40247
G01 X-3.38184 Y7.45708
G01 X-3.39656 Y7.44535
G01 X-3.46917 Y7.45563
G01 X-3.58796 Y7.46950
G01 X-3.70674 Y7.48043
G01 X-3.82551 Y7.48841
G01 X-3.94428 Y7.49345
G01 X-4.06304 Y7.49555
G01 X-4.18181 Y7.49471
G01 X-4.26081 Y7.49219
G01 X-4.27013 Y7.50301
G01 X-4.26081 Y7.49219
G01 X-4.50583 Y6.14330
G01 X-4.51583 Y6.08578
G01 X-4.52468 Y6.02959
G01 X-4.53244 Y5.97454
G01 X-4.53909 Y5.92066
G01 X-4.54464 Y5.86792
G01 X-4.54910 Y5.81635
G01 X-4.55245 Y5.76593
G01 X-4.55456 Y5.71995
G01 X-4.55470 Y5.71995
G01 X-4.55456 Y5.71995
G01 X-4.54556 Y5.63596
G01 X-4.54229 Y5.60336
G01 X-4.53835 Y5.55650
G01 X-4.52757 Y5.41201
G01 X-4.51755 Y5.28674
G01 X-4.50867 Y5.18410
G01 X-4.50024 Y5.09395
G01 X-4.49105 Y5.00297
G01 X-4.48160 Y4.91588
G01 X-4.46972 Y4.81297
G01 X-4.45735 Y4.71129
G01 X-4.45432 Y4.68473
G01 X-4.45020 Y4.64031
G01 X-4.45000 Y4.63579
G01 X-4.44998 Y4.34321
G01 X-4.45013 Y4.33937
G01 X-4.45416 Y4.28780
G01 X-4.46534 Y4.16318
G01 X-4.46546 Y4.16318
G01 X-4.46534 Y4.16318
G01 X-4.46296 Y4.11578
G01 X-4.45946 Y4.06434
G01 X-4.45499 Y4.01188
G01 X-4.44956 Y3.95840
G01 X-4.44315 Y3.90391
G01 X-4.43576 Y3.84841
G01 X-4.42741 Y3.79190
G01 X-4.41810 Y3.73455
G01 X-4.39648 Y3.61632
G01 X-4.37098 Y3.49425
G01 X-4.34157 Y3.36816
G01 X-4.30817 Y3.23783
G01 X-4.11343 Y2.50895
G01 X-4.12102 Y2.49944
G01 X-4.11343 Y2.50895
G01 X-4.02861 Y2.50581
G01 X-3.94194 Y2.50479
G01 X-3.93569 Y2.49565
G01 X-3.94194 Y2.50479
G01 X-3.81973 Y2.83034
G01 X-3.77616 Y2.94875
G01 X-3.73547 Y3.06414
G01 X-3.69760 Y3.17666
G01 X-3.66256 Y3.28632
G01 X-3.63035 Y3.39310
G01 X-3.60096 Y3.49701
G01 X-3.57439 Y3.59802
G01 X-3.55064 Y3.69615
G01 X-3.52971 Y3.79138
G01 X-3.51159 Y3.88371
G01 X-3.49628 Y3.97312
G01 X-3.48377 Y4.05962
G01 X-3.47406 Y4.14319
G01 X-3.46713 Y4.22382
G01 X-3.46299 Y4.30151
G01 X-3.46161 Y4.37672
G01 X-3.46157 Y4.44308
G01 X-3.47382 Y4.60582
G01 X-3.48277 Y4.71704
G01 X-3.49073 Y4.80928
G01 X-3.49868 Y4.89487
G01 X-3.50683 Y4.97669
G01 X-3.51630 Y5.06526
G01 X-3.52838 Y5.17096
G01 X-3.54367 Y5.29731
G01 X-3.54975 Y5.35937
G01 X-3.54999 Y5.36426
G01 X-3.55000 Y5.38595
G01 X-3.55002 Y5.65090
G01 X-3.54987 Y5.66040
G01 X-3.54764 Y5.69061
G01 X-3.54505 Y5.72137
G01 X-3.53511 Y5.83155
G01 X-3.51932 Y6.00994
G01 X-3.49570 Y6.28147
G01 X-3.45988 Y6.69903
G01 X-3.39656 Y7.44535
G01 X-3.34652 Y7.44371
G01 X-3.34277 Y7.48823
G01 X-3.41006 Y6.69480
G01 X-3.44588 Y6.27718
G01 X-3.46952 Y6.00555
G01 X-3.48531 Y5.82712
G01 X-3.49525 Y5.71688
G01 X-3.49779 Y5.68671
G01 X-3.50001 Y5.65676
G01 X-3.49999 Y5.36424
G01 X-3.49402 Y5.30324
G01 X-3.47873 Y5.17685
G01 X-3.46660 Y5.07071
G01 X-3.45710 Y4.98187
G01 X-3.44891 Y4.89969
G01 X-3.44475 Y4.85567
G01 X-3.43728 Y4.77226
G01 X-3.42892 Y4.67215
G01 X-3.41909 Y4.54602
G01 X-3.41161 Y4.44489
G01 X-3.41161 Y4.37626
G01 X-3.41302 Y4.29971
G01 X-3.41725 Y4.22035
G01 X-3.42431 Y4.13816
G01 X-3.43419 Y4.05316
G01 X-3.44689 Y3.96533
G01 X-3.46241 Y3.87467
G01 X-3.48076 Y3.78120
G01 X-3.50192 Y3.68490
G01 X-3.52591 Y3.58578
G01 X-3.55272 Y3.48384
G01 X-3.58236 Y3.37908
G01 X-3.61481 Y3.27149
G01 X-3.65009 Y3.16108
G01 X-3.68819 Y3.04785
G01 X-3.72912 Y2.93180
G01 X-3.77286 Y2.81292
G01 X-3.90746 Y2.45438
G04 P0 ( dwell for no time -- G64 should not smooth over this point )
G00 Z0.08000 ( retract )

G00 X-4.27362 Y2.52742 ( rapid move to begin. )
G01 F3.00000
( Mill infeed pass 1/1 )
G01 Z-0.00800
G04 P0 ( dwell for no time -- G64 should not smooth over this point )
G01 F6.00000
G01 X-4.27362 Y2.52742
G01 X-4.34797 Y2.50568
G01 X-4.43053 Y2.48312
G01 X-4.51306 Y2.46215
G01 X-4.59557 Y2.44276
G01 X-4.67806 Y2.42496
G01 X-4.76053 Y2.40874
G01 X-4.84298 Y2.39411
G01 X-4.92542 Y2.38105
G01 X-5.00783 Y2.36958
G01 X-5.09024 Y2.35968
G01 X-5.17263 Y2.35136
G01 X-5.25501 Y2.34463
G01 X-5.33739 Y2.33947
G01 X-5.41976 Y2.33588
G01 X-5.50212 Y2.33388
G01 X-5.58448 Y2.33345
G01 X-5.66685 Y2.33460
G01 X-5.74922 Y2.33733
G01 X-5.83159 Y2.34163
G01 X-5.91397 Y2.34751
G01 X-5.99635 Y2.35497
G01 X-6.07875 Y2.36400
G01 X-6.16116 Y2.37462
G01 X-6.24358 Y2.38682
G01 X-6.32602 Y2.40059
G01 X-6.40848 Y2.41595
G01 X-6.49096 Y2.43289
G01 X-6.57346 Y2.45142
G01 X-6.65598 Y2.47153
G01 X-6.72458 Y2.48956
G01 X-6.74352 Y2.47887
G01 X-6.72458 Y2.48956
G01 X-6.65648 Y2.72156
G01 X-6.32898 Y3.54157
G01 X-6.29075 Y3.63987
G01 X-6.25522 Y3.73657
G01 X-6.22306 Y3.83005
G01 X-6.19426 Y3.92036
G01 X-6.16883 Y4.00750
G01 X-6.14678 Y4.09152
G01 X-6.12813 Y4.17245
G01 X-6.11256 Y4.25211
G01 X-6.06425 Y4.52609
G01 X-6.05491 Y4.57286
G01 X-6.04444 Y4.61429
G01 X-6.03277 Y4.65138
G01 X-6.02008 Y4.68409
G01 X-6.00607 Y4.71341
G01 X-5.99959 Y4.72506
G01 X-5.99247 Y4.73651
G01 X-5.98535 Y4.74697
G01 X-5.97809 Y4.75636
G01 X-5.97356 Y4.76165
G01 X-5.97441 Y4.76273
G01 X-5.97356 Y4.76165
G01 X-5.96419 Y4.76598
G01 X-5.96558 Y4.76910
G01 X-5.96682 Y4.77249
G01 X-5.96693 Y4.77246
G01 X-5.96682 Y4.77249
G01 X-5.96770 Y4.77557
G01 X-5.96846 Y4.77910
G01 X-5.96858 Y4.77908
G01 X-5.96846 Y4.77910
G01 X-5.96892 Y4.78227
G01 X-5.96920 Y4.78586
G01 X-5.96931 Y4.78586
G01 X-5.96920 Y4.78586
G01 X-5.96921 Y4.78947
G01 X-5.96901 Y4.79267
G01 X-5.96912 Y4.79268
G01 X-5.96901 Y4.79267
G01 X-5.96853 Y4.79624
G01 X-5.96789 Y4.79938
G01 X-5.96801 Y4.79941
G01 X-5.96789 Y4.79938
G01 X-5.96694 Y4.80286
G01 X-5.96588 Y4.80589
G01 X-5.96599 Y4.80593
G01 X-5.96588 Y4.80589
G01 X-5.96446 Y4.80920
G01 X-5.96280 Y4.81240
G01 X-5.96291 Y4.81246
G01 X-5.96280 Y4.81240
G01 X-5.96114 Y4.81514
G01 X-5.95907 Y4.81809
G01 X-5.95916 Y4.81816
G01 X-5.95907 Y4.81809
G01 X-5.95705 Y4.82058
G01 X-5.95462 Y4.82324
G01 X-5.94930 Y4.82852
G01 X-5.95669 Y4.82459
G01 X-5.96702 Y4.81956
G01 X-5.98423 Y4.81180
G01 X-6.00390 Y4.80259
G01 X-6.00441 Y4.80331
G01 X-6.00390 Y4.80259
G01 X-6.00794 Y4.79844
G01 X-6.01696 Y4.78784
G01 X-6.02581 Y4.77634
G01 X-6.03439 Y4.76385
G01 X-6.04269 Y4.75037
G01 X-6.05054 Y4.73638
G01 X-6.06601 Y4.70394
G01 X-6.07998 Y4.66796
G01 X-6.09256 Y4.62793
G01 X-6.10369 Y4.58389
G01 X-6.11339 Y4.53533
G01 X-6.16196 Y4.25990
G01 X-6.17686 Y4.18365
G01 X-6.19479 Y4.10565
G01 X-6.21683 Y4.02149
G01 X-6.24190 Y3.93553
G01 X-6.26998 Y3.84739
G01 X-6.30216 Y3.75380
G01 X-6.33735 Y3.65799
G01 X-6.37558 Y3.55969
G01 X-6.70378 Y2.73791
G01 X-6.78687 Y2.45491
G01 X-6.80534 Y2.44470
G01 X-6.78687 Y2.45491
G01 X-6.75167 Y2.44498
G01 X-6.66826 Y2.42306
G01 X-6.58486 Y2.40273
G01 X-6.50147 Y2.38401
G01 X-6.41809 Y2.36688
G01 X-6.33472 Y2.35135
G01 X-6.25136 Y2.33742
G01 X-6.16801 Y2.32509
G01 X-6.08467 Y2.31435
G01 X-6.00133 Y2.30521
G01 X-5.91800 Y2.29767
G01 X-5.83467 Y2.29172
G01 X-5.75135 Y2.28737
G01 X-5.66802 Y2.28461
G01 X-5.58470 Y2.28345
G01 X-5.50138 Y2.28388
G01 X-5.41806 Y2.28591
G01 X-5.33474 Y2.28953
G01 X-5.25141 Y2.29475
G01 X-5.16808 Y2.30157
G01 X-5.08475 Y2.30998
G01 X-5.00141 Y2.31999
G01 X-4.91806 Y2.33159
G01 X-4.83470 Y2.34479
G01 X-4.75134 Y2.35959
G01 X-4.66796 Y2.37599
G01 X-4.58458 Y2.39398
G01 X-4.50118 Y2.41358
G01 X-4.41778 Y2.43477
G01 X-4.33436 Y2.45757
G01 X-4.25093 Y2.48196
G01 X-4.21289 Y2.49381
G01 X-4.19598 Y2.48449
G01 X-4.21289 Y2.49381
G01 X-4.40485 Y3.21227
G01 X-4.43857 Y3.34387
G01 X-4.46850 Y3.47209
G01 X-4.49474 Y3.59772
G01 X-4.51673 Y3.71804
G01 X-4.52617 Y3.77624
G01 X-4.53474 Y3.83414
G01 X-4.54232 Y3.89110
G01 X-4.54892 Y3.94711
G01 X-4.55460 Y4.00298
G01 X-4.55920 Y4.05713
G01 X-4.56276 Y4.10944
G01 X-4.56539 Y4.16166
G01 X-4.56525 Y4.16864
G01 X-4.55379 Y4.29633
G01 X-4.54994 Y4.34522
G01 X-4.54994 Y4.63349
G01 X-4.55334 Y4.67023
G01 X-4.55662 Y4.69926
G01 X-4.56902 Y4.80121
G01 X-4.58099 Y4.90488
G01 X-4.59082 Y4.99560
G01 X-4.59978 Y5.08440
G01 X-4.60828 Y5.17526
G01 X-4.61721 Y5.27847
G01 X-4.62727 Y5.40421
G01 X-4.63806 Y5.54894
G01 X-4.64191 Y5.59469
G01 X-4.64500 Y5.62544
G01 X-4.65440 Y5.71310
G01 X-4.65463 Y5.72072
G01 X-4.65232 Y5.77103
G01 X-4.64884 Y5.82348
G01 X-4.64423 Y5.87699
G01 X-4.63850 Y5.93157
G01 X-4.63152 Y5.98807
G01 X-4.62365 Y6.04394
G01 X-4.61442 Y6.10251
G01 X-4.60425 Y6.16099
G01 X-4.36059 Y7.50237
G01 X-4.34414 Y7.51347
G01 X-4.36059 Y7.50237
G01 X-4.38924 Y7.50866
G01 X-4.46458 Y7.52396
G01 X-4.53991 Y7.53801
G01 X-4.61524 Y7.55081
G01 X-4.69056 Y7.56237
G01 X-4.76588 Y7.57269
G01 X-4.84119 Y7.58177
G01 X-4.91650 Y7.58960
G01 X-4.99180 Y7.59619
G01 X-5.06710 Y7.60154
G01 X-5.14240 Y7.60564
G01 X-5.21770 Y7.60850
G01 X-5.29299 Y7.61012
G01 X-5.36829 Y7.61050
G01 X-5.44358 Y7.60964
G01 X-5.47601 Y7.60873
G01 X-5.48707 Y7.62094
G01 X-5.47601 Y7.60873
G01 X-5.69333 Y5.73722
G01 X-5.69848 Y5.69768
G01 X-5.70490 Y5.65765
G01 X-5.78228 Y5.21883
G01 X-5.78257 Y5.21885
G01 X-5.78228 Y5.21883
G01 X-5.78091 Y5.19077
G01 X-5.78076 Y5.18475
G01 X-5.78078 Y5.15381
G01 X-5.78097 Y5.14672
G01 X-5.78228 Y5.12161
G01 X-5.78282 Y5.11473
G01 X-5.78525 Y5.09143
G01 X-5.78896 Y5.06685
G01 X-5.79014 Y5.06043
G01 X-5.79347 Y5.04445
G01 X-5.79486 Y5.03852
G01 X-5.79982 Y5.01984
G01 X-5.80447 Y5.00497
G01 X-5.81048 Y4.98832
G01 X-5.81653 Y4.97370
G01 X-5.82347 Y4.95892
G01 X-5.82852 Y4.94930
G01 X-5.94930 Y4.82852
G01 X-5.74479 Y5.03303
G01 X-5.74072 Y5.05260
G01 X-5.73956 Y5.05914
G01 X-5.73658 Y5.07821
G01 X-5.73536 Y5.08759
G01 X-5.73308 Y5.10957
G01 X-5.73252 Y5.11642
G01 X-5.73104 Y5.14412
G01 X-5.73078 Y5.15374
G01 X-5.73077 Y5.18593
G01 X-5.73097 Y5.19320
G01 X-5.73206 Y5.21566
G01 X-5.73236 Y5.21568
G01 X-5.73206 Y5.21566
G01 X-5.65566 Y5.64897
G01 X-5.64891 Y5.69121
G01 X-5.64366 Y5.73146
G01 X-5.43136 Y7.55977
G01 X-5.44248 Y7.57212
G01 X-5.43136 Y7.55977
G01 X-5.36813 Y7.56050
G01 X-5.29366 Y7.56013
G01 X-5.21919 Y7.55852
G01 X-5.14471 Y7.55569
G01 X-5.07024 Y7.55163
G01 X-4.99575 Y7.54634
G01 X-4.92127 Y7.53983
G01 X-4.84677 Y7.53208
G01 X-4.77227 Y7.52310
G01 X-4.69775 Y7.51289
G01 X-4.62322 Y7.50145
G01 X-4.54869 Y7.48878
G01 X-4.47414 Y7.47488
G01 X-4.41846 Y7.46357
G01 X-4.40191 Y7.47479
G01 X-4.41846 Y7.46357
G01 X-4.65345 Y6.16992
G01 X-4.66368 Y6.11108
G01 X-4.67292 Y6.05254
G01 X-4.68103 Y5.99505
G01 X-4.68802 Y5.93859
G01 X-4.69387 Y5.88316
G01 X-4.69858 Y5.82876
G01 X-4.70215 Y5.77538
G01 X-4.70458 Y5.72301
G01 X-4.70411 Y5.70777
G01 X-4.69473 Y5.62026
G01 X-4.69171 Y5.59022
G01 X-4.68791 Y5.54503
G01 X-4.67746 Y5.40487
G01 X-4.66705 Y5.27449
G01 X-4.65807 Y5.17068
G01 X-4.64954 Y5.07946
G01 X-4.64055 Y4.99039
G01 X-4.63069 Y4.89940
G01 X-4.61869 Y4.79547
G01 X-4.60627 Y4.69337
G01 X-4.60311 Y4.66536
G01 X-4.59993 Y4.63121
G01 X-4.59994 Y4.34719
G01 X-4.60362 Y4.30047
G01 X-4.61505 Y4.17311
G01 X-4.61533 Y4.15915
G01 X-4.61265 Y4.10605
G01 X-4.60896 Y4.05203
G01 X-4.60427 Y3.99711
G01 X-4.59858 Y3.94127
G01 X-4.59208 Y3.88601
G01 X-4.58441 Y3.82827
G01 X-4.57574 Y3.76961
G01 X-4.56609 Y3.71003
G01 X-4.54344 Y3.58626
G01 X-4.51719 Y3.46074
G01 X-4.48701 Y3.33146
G01 X-4.45316 Y3.19936
G01 X-4.27362 Y2.52742
G01 X-4.25628 Y2.51766
G01 X-4.25093 Y2.48196
G01 X-4.23648 Y2.43410
G01 X-4.15220 Y2.46035
G01 X-4.35654 Y3.22517
G01 X-4.39014 Y3.35628
G01 X-4.41981 Y3.48345
G01 X-4.44555 Y3.60671
G01 X-4.46738 Y3.72605
G01 X-4.47682 Y3.78424
G01 X-4.48528 Y3.84146
G01 X-4.49276 Y3.89770
G01 X-4.49926 Y3.95295
G01 X-4.50478 Y4.00723
G01 X-4.50932 Y4.06052
G01 X-4.51288 Y4.11283
G01 X-4.51545 Y4.16416
G01 X-4.50396 Y4.29219
G01 X-4.49998 Y4.34325
G01 X-4.50000 Y4.63577
G01 X-4.50399 Y4.67907
G01 X-4.50697 Y4.70516
G01 X-4.51937 Y4.80711
G01 X-4.53129 Y4.91036
G01 X-4.54077 Y4.99771
G01 X-4.55001 Y5.08915
G01 X-4.55848 Y5.17966
G01 X-4.56738 Y5.28263
G01 X-4.57775 Y5.41241
G01 X-4.58822 Y5.55286
G01 X-4.59212 Y5.59916
G01 X-4.59527 Y5.63063
G01 X-4.60468 Y5.71843
G01 X-4.60238 Y5.76874
G01 X-4.59895 Y5.82016
G01 X-4.59442 Y5.87269
G01 X-4.58877 Y5.92634
G01 X-4.58201 Y5.98110
G01 X-4.57414 Y6.03697
G01 X-4.56515 Y6.09395
G01 X-4.55506 Y6.15205
G01 X-4.30278 Y7.54088
G04 P0 ( dwell for no time -- G64 should not smooth over this point )
G00 Z0.08000 ( retract )

G00 X-5.63126 Y7.57221 ( rapid move to begin. )
G01 F3.00000
( Mill infeed pass 1/1 )
G01 Z-0.00800
G04 P0 ( dwell for no time -- G64 should not smooth over this point )
G01 F6.00000
G01 X-5.63126 Y7.57221
G01 X-5.61512 Y7.58493
G01 X-5.62570 Y7.62192
G01 X-5.57597 Y7.61485
G01 X-5.56028 Y7.62696
G01 X-5.57597 Y7.61485
G01 X-5.79262 Y5.74911
G01 X-5.79754 Y5.71136
G01 X-5.80345 Y5.67464
G01 X-5.88173 Y5.23068
G01 X-5.88243 Y5.21957
G01 X-5.88081 Y5.18654
G01 X-5.88076 Y5.15458
G01 X-5.88209 Y5.12746
G01 X-5.88488 Y5.10073
G01 X-5.88765 Y5.08293
G01 X-5.89176 Y5.06309
G01 X-5.89512 Y5.05029
G01 X-5.89932 Y5.03653
G01 X-5.90375 Y5.02438
G01 X-5.90932 Y5.01109
G01 X-5.91336 Y5.00275
G01 X-5.91772 Y4.99458
G01 X-5.91810 Y4.99012
G01 X-5.91895 Y4.98467
G01 X-5.91960 Y4.98156
G01 X-5.91941 Y4.98152
G01 X-5.91960 Y4.98156
G01 X-5.92172 Y4.97399
G01 X-5.92439 Y4.96701
G01 X-5.92420 Y4.96693
G01 X-5.92439 Y4.96701
G01 X-5.92713 Y4.96133
G01 X-5.93124 Y4.95442
G01 X-5.93108 Y4.95431
G01 X-5.93124 Y4.95442
G01 X-5.93642 Y4.94742
G01 X-5.93980 Y4.94362
G01 X-5.93968 Y4.94351
G01 X-5.93980 Y4.94362
G01 X-5.94229 Y4.94105
G01 X-5.94603 Y4.93761
G01 X-5.94911 Y4.93509
G01 X-5.94900 Y4.93495
G01 X-5.94911 Y4.93509
G01 X-5.95518 Y4.93075
G01 X-5.96198 Y4.92680
G01 X-5.96188 Y4.92660
G01 X-5.96198 Y4.92680
G01 X-5.96807 Y4.92393
G01 X-5.97332 Y4.92194
G01 X-5.97679 Y4.92085
G01 X-5.97675 Y4.92072
G01 X-5.97679 Y4.92085
G01 X-5.98443 Y4.91892
G01 X-5.99025 Y4.91808
G01 X-5.99461 Y4.91771
G01 X-6.00196 Y4.91376
G01 X-6.01014 Y4.90978
G01 X-6.03726 Y4.89745
G01 X-6.05534 Y4.88883
G01 X-6.06302 Y4.88425
G01 X-6.06975 Y4.87838
G01 X-6.08296 Y4.86451
G01 X-6.09552 Y4.84972
G01 X-6.10745 Y4.83403
G01 X-6.11877 Y4.81747
G01 X-6.12948 Y4.80004
G01 X-6.13862 Y4.78366
G01 X-6.15703 Y4.74531
G01 X-6.15852 Y4.74187
G01 X-6.17485 Y4.69953
G01 X-6.18914 Y4.65383
G01 X-6.20094 Y4.60718
G01 X-6.21177 Y4.55326
G01 X-6.26020 Y4.27860
G01 X-6.27450 Y4.20524
G01 X-6.29207 Y4.12880
G01 X-6.31303 Y4.04881
G01 X-6.33736 Y3.96530
G01 X-6.36509 Y3.87828
G01 X-6.39620 Y3.78778
G01 X-6.43071 Y3.69380
G01 X-6.46870 Y3.59615
G01 X-6.68567 Y3.05279
G01 X-6.60154 Y4.69365
G01 X-6.60104 Y4.73340
G01 X-6.60117 Y4.73759
G01 X-6.60381 Y4.77392
G01 X-6.60664 Y4.79487
G01 X-6.61025 Y4.81442
G01 X-6.61475 Y4.83364
G01 X-6.62014 Y4.85253
G01 X-6.73059 Y5.20287
G01 X-6.73457 Y5.21709
G01 X-6.73733 Y5.23063
G01 X-6.73914 Y5.24434
G01 X-6.74003 Y5.25912
G01 X-6.74753 Y5.52943
G01 X-6.75081 Y5.59847
G01 X-6.75690 Y5.67322
G01 X-6.76579 Y5.75372
G01 X-6.77731 Y5.83897
G01 X-6.79177 Y5.93125
G01 X-6.80916 Y6.03015
G01 X-6.82918 Y6.13401
G01 X-6.85184 Y6.24315
G01 X-6.87754 Y6.35943
G01 X-6.90588 Y6.48100
G01 X-6.93689 Y6.60804
G01 X-6.97079 Y6.74150
G01 X-7.00748 Y6.88089
G01 X-7.04703 Y7.02656
G01 X-7.08917 Y7.17747
G01 X-7.13016 Y7.32063
G01 X-7.13218 Y7.32063
G01 X-7.13016 Y7.32063
G01 X-7.12939 Y7.32324
G01 X-7.09599 Y7.43964
G01 X-7.05710 Y7.57998
G01 X-7.06316 Y7.58659
G01 X-7.05710 Y7.57998
G01 X-6.98984 Y7.59245
G01 X-6.89237 Y7.60838
G01 X-6.79491 Y7.62218
G01 X-6.69746 Y7.63385
G01 X-6.60002 Y7.64340
G01 X-6.50259 Y7.65082
G01 X-6.40516 Y7.65611
G01 X-6.30773 Y7.65928
G01 X-6.21031 Y7.66033
G01 X-6.11288 Y7.65924
G01 X-6.01546 Y7.65603
G01 X-5.91803 Y7.65069
G01 X-5.82059 Y7.64323
G01 X-5.72315 Y7.63364
G01 X-5.62570 Y7.62192
G01 X-5.61920 Y7.67150
G01 X-5.52069 Y7.65750
G01 X-5.74299 Y5.74299
G01 X-5.74806 Y5.70416
G01 X-5.75414 Y5.66633
G01 X-5.83249 Y5.22199
G01 X-5.83085 Y5.18834
G01 X-5.83074 Y5.18357
G01 X-5.83078 Y5.15387
G01 X-5.83221 Y5.12421
G01 X-5.83483 Y5.09790
G01 X-5.83538 Y5.09364
G01 X-5.83908 Y5.07063
G01 X-5.84325 Y5.05110
G01 X-5.84789 Y5.03360
G01 X-5.85292 Y5.01777
G01 X-5.85824 Y5.00348
G01 X-5.86401 Y4.99001
G01 X-5.87003 Y4.97766
G01 X-5.87625 Y4.96630
G01 X-5.88276 Y4.95567
G01 X-5.88776 Y4.94823
G01 X-5.89482 Y4.93859
G01 X-5.90430 Y4.92705
G01 X-5.90992 Y4.92085
G01 X-5.91793 Y4.91270
G01 X-5.92636 Y4.90491
G01 X-5.93520 Y4.89748
G01 X-5.94713 Y4.88853
G01 X-5.95739 Y4.88166
G01 X-5.96542 Y4.87677
G01 X-5.97670 Y4.87053
G01 X-5.98885 Y4.86454
G01 X-6.01627 Y4.85207
G01 X-6.03368 Y4.84376
G01 X-6.04497 Y4.83200
G01 X-6.05583 Y4.81931
G01 X-6.06625 Y4.80570
G01 X-6.07625 Y4.79117
G01 X-6.08581 Y4.77571
G01 X-6.09494 Y4.75932
G01 X-6.11191 Y4.72377
G01 X-6.12715 Y4.68452
G01 X-6.14067 Y4.64157
G01 X-6.15246 Y4.59492
G01 X-6.16253 Y4.54458
G01 X-6.21104 Y4.26947
G01 X-6.22559 Y4.19486
G01 X-6.24352 Y4.11686
G01 X-6.26484 Y4.03548
G01 X-6.28954 Y3.95071
G01 X-6.31762 Y3.86257
G01 X-6.34909 Y3.77103
G01 X-6.38394 Y3.67612
G01 X-6.42218 Y3.57782
G01 X-6.75104 Y2.75425
G01 X-6.84909 Y2.42050
G04 P0 ( dwell for no time -- G64 should not smooth over this point )
G00 Z0.08000 ( retract )

G00 X-7.40254 Y2.53210 ( rapid move to begin. )
G01 F3.00000
( Mill infeed pass 1/1 )
G01 Z-0.00800
G04 P0 ( dwell for no time -- G64 should not smooth over this point )
G01 F6.00000
G01 X-7.40254 Y2.53210
G01 X-7.42519 Y3.47051
G01 X-7.43004 Y3.61374
G01 X-7.43750 Y3.74931
G01 X-7.44217 Y3.81384
G01 X-7.44750 Y3.87676
G01 X-7.45347 Y3.93779
G01 X-7.46008 Y3.99693
G01 X-7.46732 Y4.05416
G01 X-7.47519 Y4.10948
G01 X-7.48368 Y4.16289
G01 X-7.49278 Y4.21438
G01 X-7.50249 Y4.26393
G01 X-7.51281 Y4.31154
G01 X-7.52371 Y4.35721
G01 X-7.53535 Y4.40152
G01 X-7.56972 Y4.52643
G01 X-7.58061 Y4.56880
G01 X-7.59048 Y4.61361
G01 X-7.59842 Y4.65763
G01 X-7.60441 Y4.70088
G01 X-7.60841 Y4.74336
G01 X-7.61039 Y4.78509
G01 X-7.61049 Y4.79008
G01 X-7.61029 Y4.82606
G01 X-7.61013 Y4.83135
G01 X-7.60789 Y4.86902
G01 X-7.58257 Y5.16277
G01 X-7.57840 Y5.20108
G01 X-7.57175 Y5.24456
G01 X-7.52844 Y5.49017
G01 X-7.52242 Y5.52745
G01 X-7.51739 Y5.56527
G01 X-7.51325 Y5.60438
G01 X-7.51001 Y5.64476
G01 X-7.50766 Y5.68641
G01 X-7.50623 Y5.72933
G01 X-7.50572 Y5.77352
G01 X-7.50615 Y5.81945
G01 X-7.52030 Y6.55753
G01 X-7.49027 Y6.63772
G01 X-7.52030 Y6.55753
G01 X-7.72470 Y6.33204
G01 X-7.80141 Y6.24715
G01 X-7.84469 Y6.20017
G01 X-7.89493 Y6.14782
G01 X-7.94700 Y6.09616
G01 X-7.99736 Y6.04859
G01 X-8.04281 Y6.00777
G01 X-8.09886 Y5.95930
G01 X-8.10061 Y5.96044
G01 X-8.09886 Y5.95930
G01 X-8.11589 Y5.90307
G01 X-8.12871 Y5.85991
G01 X-8.13831 Y5.82692
G01 X-8.15508 Y5.76757
G01 X-8.16907 Y5.71600
G01 X-8.18116 Y5.66932
G01 X-8.19149 Y5.62732
G01 X-8.20037 Y5.58904
G01 X-8.20793 Y5.55415
G01 X-8.21440 Y5.52193
G01 X-8.21677 Y5.50935
G01 X-8.22174 Y5.48125
G01 X-8.22586 Y5.45512
G01 X-8.22808 Y5.43956
G01 X-8.23109 Y5.41579
G01 X-8.23342 Y5.39342
G01 X-8.23562 Y5.36578
G01 X-8.23660 Y5.34642
G01 X-8.23774 Y5.31148
G01 X-8.23904 Y5.28404
G01 X-8.24036 Y5.26262
G01 X-8.24302 Y5.22862
G01 X-8.24556 Y5.20245
G01 X-8.24939 Y5.16927
G01 X-8.25263 Y5.14521
G01 X-8.25529 Y5.12726
G01 X-8.25822 Y5.10901
G01 X-8.26425 Y5.07533
G01 X-8.29330 Y5.02500
G01 X-8.29516 Y5.02146
G01 X-8.29536 Y5.02155
G01 X-8.29516 Y5.02146
G01 X-8.29727 Y5.01628
G01 X-8.29871 Y5.01129
G01 X-8.29900 Y5.01136
G01 X-8.29871 Y5.01129
G01 X-8.29966 Y5.00578
G01 X-8.30000 Y5.00020
G01 X-8.30028 Y5.00020
G01 X-8.30000 Y5.00020
G01 X-8.29975 Y4.99501
G01 X-8.29904 Y4.99027
G01 X-8.29929 Y4.99022
G01 X-8.29904 Y4.99027
G01 X-8.29777 Y4.98523
G01 X-8.29614 Y4.98073
G01 X-8.29642 Y4.98060
G01 X-8.29614 Y4.98073
G01 X-8.29350 Y4.97535
G01 X-8.26425 Y4.92467
G01 X-8.26110 Y4.90767
G01 X-8.25800 Y4.88964
G01 X-8.25517 Y4.87198
G01 X-8.25164 Y4.84777
G01 X-8.24923 Y4.82942
G01 X-8.24692 Y4.81008
G01 X-8.24348 Y4.77643
G01 X-8.24123 Y4.74953
G01 X-8.23900 Y4.71533
G01 X-8.23765 Y4.68643
G01 X-8.23654 Y4.65213
G01 X-8.23508 Y4.62628
G01 X-8.23329 Y4.60514
G01 X-8.23181 Y4.59079
G01 X-8.22786 Y4.55885
G01 X-8.22410 Y4.53335
G01 X-8.21955 Y4.50604
G01 X-8.21433 Y4.47775
G01 X-8.21060 Y4.45891
G01 X-8.20432 Y4.42899
G01 X-8.19496 Y4.38735
G01 X-8.18526 Y4.34706
G01 X-8.17990 Y4.32569
G01 X-8.16763 Y4.27861
G01 X-8.15330 Y4.22604
G01 X-8.13664 Y4.16730
G01 X-8.11708 Y4.10077
G01 X-8.09382 Y4.02409
G01 X-8.06627 Y3.93582
G01 X-8.05529 Y3.90119
G01 X-8.02059 Y3.79332
G01 X-7.99455 Y3.71088
G01 X-7.98216 Y3.67086
G01 X-7.95306 Y3.57469
G01 X-7.94069 Y3.53291
G01 X-7.90784 Y3.41938
G01 X-7.89538 Y3.37532
G01 X-7.85856 Y3.24197
G01 X-7.84620 Y3.19616
G01 X-7.80434 Y3.03695
G01 X-7.77809 Y2.93418
G01 X-7.74370 Y2.79800
G01 X-7.71126 Y2.67082
G01 X-7.71305 Y2.66977
G01 X-7.71126 Y2.67082
G01 X-7.67969 Y2.64067
G01 X-7.62661 Y2.59110
G01 X-7.57231 Y2.54150
G01 X-7.54784 Y2.51963
G01 X-7.54928 Y2.51540
G01 X-7.54784 Y2.51963
G01 X-7.51997 Y2.52155
G01 X-7.45078 Y2.52734
G01 X-7.40254 Y2.53210
G01 X-7.38889 Y2.52003
G01 X-7.37630 Y2.48445
G01 X-7.35145 Y2.48727
G01 X-7.33786 Y2.47530
G01 X-7.35145 Y2.48727
G01 X-7.37521 Y3.47196
G01 X-7.38009 Y3.61596
G01 X-7.38760 Y3.75248
G01 X-7.39232 Y3.81775
G01 X-7.39771 Y3.88131
G01 X-7.40374 Y3.94300
G01 X-7.41043 Y4.00284
G01 X-7.41777 Y4.06082
G01 X-7.42574 Y4.11693
G01 X-7.43437 Y4.17117
G01 X-7.44363 Y4.22354
G01 X-7.45352 Y4.27403
G01 X-7.46405 Y4.32264
G01 X-7.47521 Y4.36937
G01 X-7.48706 Y4.41451
G01 X-7.52129 Y4.53888
G01 X-7.53218 Y4.58125
G01 X-7.54164 Y4.62430
G01 X-7.54920 Y4.66643
G01 X-7.55487 Y4.70764
G01 X-7.55862 Y4.74794
G01 X-7.56044 Y4.78732
G01 X-7.56029 Y4.82579
G01 X-7.55807 Y4.86472
G01 X-7.53276 Y5.15848
G01 X-7.52870 Y5.19563
G01 X-7.52251 Y5.23588
G01 X-7.47914 Y5.48185
G01 X-7.47295 Y5.52017
G01 X-7.46774 Y5.55935
G01 X-7.46346 Y5.59974
G01 X-7.46012 Y5.64135
G01 X-7.45771 Y5.68418
G01 X-7.45624 Y5.72821
G01 X-7.45572 Y5.77346
G01 X-7.45615 Y5.82015
G01 X-7.47272 Y6.68430
G01 X-7.44271 Y6.76427
G01 X-7.47272 Y6.68430
G01 X-7.61750 Y6.52486
G01 X-7.83790 Y6.28134
G01 X-7.88117 Y6.23437
G01 X-7.93100 Y6.18245
G01 X-7.98175 Y6.13211
G01 X-8.03078 Y6.08578
G01 X-8.07575 Y6.04538
G01 X-8.14247 Y5.98772
G01 X-8.14422 Y5.98885
G01 X-8.14247 Y5.98772
G01 X-8.16380 Y5.91739
G01 X-8.17668 Y5.87401
G01 X-8.18636 Y5.84075
G01 X-8.20327 Y5.78091
G01 X-8.21103 Y5.75257
G01 X-8.22387 Y5.70412
G01 X-8.23499 Y5.66008
G01 X-8.24454 Y5.62019
G01 X-8.24915 Y5.60000
G01 X-8.25687 Y5.56439
G01 X-8.25989 Y5.54967
G01 X-8.26594 Y5.51841
G01 X-8.27105 Y5.48945
G01 X-8.27532 Y5.46241
G01 X-8.27887 Y5.43690
G01 X-8.28073 Y5.42161
G01 X-8.28321 Y5.39818
G01 X-8.28503 Y5.37603
G01 X-8.28628 Y5.35495
G01 X-8.28796 Y5.30717
G01 X-8.28898 Y5.28641
G01 X-8.29021 Y5.26652
G01 X-8.29287 Y5.23252
G01 X-8.29468 Y5.21356
G01 X-8.29676 Y5.19422
G01 X-8.29899 Y5.17561
G01 X-8.30143 Y5.15719
G01 X-8.30402 Y5.13937
G01 X-8.30683 Y5.12151
G01 X-8.30982 Y5.10396
G01 X-8.31299 Y5.08664
G01 X-8.31963 Y5.05355
G01 X-8.32207 Y5.03960
G01 X-8.32390 Y5.02446
G01 X-8.32475 Y5.01147
G01 X-8.32505 Y4.99855
G01 X-8.32461 Y4.98570
G01 X-8.32380 Y4.97456
G01 X-8.32222 Y4.96148
G01 X-8.31994 Y4.94802
G01 X-8.31275 Y4.91209
G01 X-8.30965 Y4.89505
G01 X-8.30662 Y4.87717
G01 X-8.30191 Y4.84621
G01 X-8.29946 Y4.82808
G01 X-8.29716 Y4.80924
G01 X-8.29508 Y4.79041
G01 X-8.29322 Y4.77135
G01 X-8.29159 Y4.75218
G01 X-8.28972 Y4.72601
G01 X-8.28790 Y4.69148
G01 X-8.28620 Y4.64353
G01 X-8.28494 Y4.62257
G01 X-8.28305 Y4.60032
G01 X-8.28153 Y4.58542
G01 X-8.27738 Y4.55197
G01 X-8.27348 Y4.52554
G01 X-8.27078 Y4.50892
G01 X-8.26573 Y4.48043
G01 X-8.26342 Y4.46825
G01 X-8.25961 Y4.44899
G01 X-8.25319 Y4.41842
G01 X-8.24366 Y4.37601
G01 X-8.23898 Y4.35632
G01 X-8.22836 Y4.31338
G01 X-8.22257 Y4.29087
G01 X-8.20945 Y4.24161
G01 X-8.19432 Y4.18715
G01 X-8.18468 Y4.15344
G01 X-8.16499 Y4.08648
G01 X-8.14161 Y4.00941
G01 X-8.11396 Y3.92078
G01 X-8.10292 Y3.88599
G01 X-8.06827 Y3.77825
G01 X-8.04231 Y3.69610
G01 X-8.03002 Y3.65638
G01 X-8.00083 Y3.55992
G01 X-7.98863 Y3.51871
G01 X-7.95579 Y3.40520
G01 X-7.94349 Y3.36171
G01 X-7.90676 Y3.22867
G01 X-7.89448 Y3.18314
G01 X-7.85277 Y3.02453
G01 X-7.82654 Y2.92185
G01 X-7.77883 Y2.73322
G01 X-7.75615 Y2.64456
G01 X-7.75793 Y2.64351
G01 X-7.75615 Y2.64456
G01 X-7.71403 Y2.60432
G01 X-7.66054 Y2.55437
G01 X-7.60583 Y2.50440
G01 X-7.56543 Y2.46830
G01 X-7.56685 Y2.46420
G01 X-7.56543 Y2.46830
G01 X-7.51617 Y2.47169
G01 X-7.44624 Y2.47755
G01 X-7.37630 Y2.48445
G01 X-7.37103 Y2.43473
G01 X-7.30036 Y2.44275
G01 X-7.32523 Y3.47341
G01 X-7.33014 Y3.61818
G01 X-7.33770 Y3.75566
G01 X-7.34248 Y3.82167
G01 X-7.34792 Y3.88585
G01 X-7.35402 Y3.94822
G01 X-7.36078 Y4.00876
G01 X-7.36821 Y4.06748
G01 X-7.37630 Y4.12437
G01 X-7.38506 Y4.17945
G01 X-7.39447 Y4.23270
G01 X-7.40455 Y4.28413
G01 X-7.41530 Y4.33374
G01 X-7.42671 Y4.38153
G01 X-7.43878 Y4.42749
G01 X-7.47286 Y4.55132
G01 X-7.48375 Y4.59369
G01 X-7.49279 Y4.63499
G01 X-7.49998 Y4.67523
G01 X-7.50533 Y4.71440
G01 X-7.50883 Y4.75251
G01 X-7.51049 Y4.78955
G01 X-7.51030 Y4.82552
G01 X-7.50826 Y4.86043
G01 X-7.48294 Y5.15419
G01 X-7.47900 Y5.19018
G01 X-7.47327 Y5.22719
G01 X-7.42983 Y5.47352
G01 X-7.42348 Y5.51289
G01 X-7.41809 Y5.55342
G01 X-7.41368 Y5.59510
G01 X-7.41024 Y5.63794
G01 X-7.40776 Y5.68194
G01 X-7.40626 Y5.72709
G01 X-7.40572 Y5.77340
G01 X-7.40616 Y5.82086
G01 X-7.42514 Y6.81102
G04 P0 ( dwell for no time -- G64 should not smooth over this point )
G00 Z0.08000 ( retract )

G00 X-7.18225 Y7.32090 ( rapid move to begin. )
G01 F3.00000
( Mill infeed pass 1/1 )
G01 Z-0.00800
G04 P0 ( dwell for no time -- G64 should not smooth over this point )
G01 F6.00000
G01 X-7.18225 Y7.32090
G01 X-7.32271 Y7.02633
G01 X-7.42514 Y6.81102
G01 X-7.65454 Y6.55844
G01 X-7.87500 Y6.31485
G01 X-7.91765 Y6.26856
G01 X-7.96707 Y6.21707
G01 X-8.01650 Y6.16806
G01 X-8.06419 Y6.12298
G01 X-8.10869 Y6.08300
G01 X-8.18606 Y6.01615
G01 X-8.23160 Y6.00035
G01 X-8.28115 Y5.98352
G01 X-8.34678 Y5.96192
G01 X-8.38976 Y5.94822
G01 X-8.45028 Y5.92970
G01 X-8.48639 Y5.91912
G01 X-8.53658 Y5.90505
G01 X-8.58355 Y5.89270
G01 X-8.59886 Y5.88883
G01 X-8.62777 Y5.88184
G01 X-8.66807 Y5.87267
G01 X-8.70826 Y5.86432
G01 X-8.74412 Y5.85760
G01 X-8.76777 Y5.85354
G01 X-8.78105 Y5.85144
G01 X-8.81368 Y5.84667
G01 X-8.84843 Y5.84237
G01 X-8.87889 Y5.83929
G01 X-8.91255 Y5.83666
G01 X-8.94209 Y5.83504
G01 X-8.96226 Y5.83429
G01 X-8.97458 Y5.83401
G01 X-8.99509 Y5.83375
G01 X-9.01135 Y5.83380
G01 X-9.02383 Y5.83396
G01 X-9.04439 Y5.83451
G01 X-9.06497 Y5.83535
G01 X-9.07737 Y5.83603
G01 X-9.10689 Y5.83807
G01 X-9.12822 Y5.83996
G01 X-9.14973 Y5.84217
G01 X-9.18456 Y5.84643
G01 X-9.21708 Y5.85113
G01 X-9.25401 Y5.85726
G01 X-9.27848 Y5.86175
G01 X-9.29667 Y5.86531
G01 X-9.32961 Y5.87217
G01 X-9.37005 Y5.88131
G01 X-9.41420 Y5.89213
G01 X-9.45590 Y5.90304
G04 P0 ( dwell for no time -- G64 should not smooth over this point )
G00 Z0.08000 ( retract )

G00 X-8.18606 Y6.01615 ( rapid move to begin. )
G01 F3.00000
( Mill infeed pass 1/1 )
G01 Z-0.00800
G04 P0 ( dwell for no time -- G64 should not smooth over this point )
G01 F6.00000
G01 X-8.18606 Y6.01615
G01 X-8.21170 Y5.93171
G01 X-8.22465 Y5.88811
G01 X-8.23441 Y5.85458
G01 X-8.25145 Y5.79424
G01 X-8.26573 Y5.74162
G01 X-8.27812 Y5.69381
G01 X-8.28355 Y5.67202
G01 X-8.29325 Y5.63149
G01 X-8.30167 Y5.59403
G01 X-8.30891 Y5.55953
G01 X-8.31259 Y5.54086
G01 X-8.31831 Y5.50973
G01 X-8.32037 Y5.49766
G01 X-8.32479 Y5.46970
G01 X-8.32846 Y5.44322
G01 X-8.33141 Y5.41832
G01 X-8.33297 Y5.40293
G01 X-8.33489 Y5.37966
G01 X-8.33622 Y5.35741
G01 X-8.33791 Y5.30924
G01 X-8.33889 Y5.28940
G01 X-8.34010 Y5.26982
G01 X-8.34152 Y5.25058
G01 X-8.34315 Y5.23172
G01 X-8.34497 Y5.21331
G01 X-8.34699 Y5.19512
G01 X-8.34918 Y5.17733
G01 X-8.35157 Y5.15972
G01 X-8.35621 Y5.12938
G01 X-8.35910 Y5.11243
G01 X-8.36216 Y5.09572
G01 X-8.36934 Y5.05984
G01 X-8.37145 Y5.04732
G01 X-8.37339 Y5.03177
G01 X-8.37458 Y5.01630
G01 X-8.37500 Y5.00091
G01 X-8.37467 Y4.98564
G01 X-8.37359 Y4.97021
G01 X-8.37175 Y4.95476
G01 X-8.36912 Y4.93898
G01 X-8.36193 Y4.90306
G01 X-8.35888 Y4.88633
G01 X-8.35600 Y4.86935
G01 X-8.35330 Y4.85210
G01 X-8.35077 Y4.83456
G01 X-8.34843 Y4.81683
G01 X-8.34627 Y4.79870
G01 X-8.34430 Y4.78022
G01 X-8.34254 Y4.76156
G01 X-8.34001 Y4.72889
G01 X-8.33883 Y4.70944
G01 X-8.33786 Y4.68945
G01 X-8.33646 Y4.64821
G01 X-8.33532 Y4.62661
G01 X-8.33282 Y4.59549
G01 X-8.33020 Y4.57090
G01 X-8.32691 Y4.54510
G01 X-8.32455 Y4.52867
G01 X-8.32009 Y4.50066
G01 X-8.31489 Y4.47134
G01 X-8.31251 Y4.45874
G01 X-8.30545 Y4.42374
G01 X-8.29804 Y4.38954
G01 X-8.29236 Y4.36467
G01 X-8.28233 Y4.32303
G01 X-8.27096 Y4.27827
G01 X-8.25769 Y4.22848
G01 X-8.24243 Y4.17352
G01 X-8.23272 Y4.13958
G01 X-8.21291 Y4.07219
G01 X-8.20395 Y4.04239
G01 X-8.17945 Y3.96254
G01 X-8.16164 Y3.90574
G01 X-8.15055 Y3.87078
G01 X-8.11594 Y3.76318
G01 X-8.09008 Y3.68132
G01 X-8.07788 Y3.64189
G01 X-8.04877 Y3.54572
G01 X-8.03657 Y3.50452
G01 X-8.00390 Y3.39159
G01 X-7.99160 Y3.34810
G01 X-7.95495 Y3.21536
G01 X-7.94275 Y3.17012
G01 X-7.90121 Y3.01210
G01 X-7.87500 Y2.90952
G01 X-7.82728 Y2.72087
G01 X-7.80105 Y2.61830
G04 P0 ( dwell for no time -- G64 should not smooth over this point )
G00 Z0.08000 ( retract )

G00 X-8.77057 Y4.73569 ( rapid move to begin. )
G01 F3.00000
( Mill infeed pass 1/1 )
G01 Z-0.00800
G04 P0 ( dwell for no time -- G64 should not smooth over this point )
G01 F6.00000
G01 X-8.77057 Y4.73569
G01 X-8.77690 Y4.73032
G01 X-8.78351 Y4.72499
G01 X-8.79017 Y4.71988
G01 X-8.79702 Y4.71487
G01 X-8.80392 Y4.71009
G01 X-8.81101 Y4.70541
G01 X-8.81813 Y4.70097
G01 X-8.82544 Y4.69664
G01 X-8.83285 Y4.69250
G01 X-8.84035 Y4.68853
G01 X-8.84795 Y4.68476
G01 X-8.85564 Y4.68116
G01 X-8.86333 Y4.67779
G01 X-8.87119 Y4.67457
G01 X-8.87912 Y4.67154
G01 X-8.88703 Y4.66873
G01 X-8.89501 Y4.66612
G01 X-8.90315 Y4.66367
G01 X-8.91124 Y4.66144
G01 X-8.91948 Y4.65939
G01 X-8.92776 Y4.65754
G01 X-8.93600 Y4.65590
G01 X-8.94436 Y4.65445
G01 X-8.95267 Y4.65322
G01 X-8.96100 Y4.65218
G01 X-8.96945 Y4.65134
G01 X-8.97792 Y4.65070
G01 X-8.98630 Y4.65027
G01 X-8.99479 Y4.65004
G01 X-9.00319 Y4.65002
G01 X-9.01158 Y4.65020
G01 X-9.02007 Y4.65058
G01 X-9.02853 Y4.65117
G01 X-9.03698 Y4.65196
G01 X-9.04541 Y4.65296
G01 X-9.05372 Y4.65415
G01 X-9.06210 Y4.65556
G01 X-9.07034 Y4.65714
G01 X-9.07855 Y4.65893
G01 X-9.08680 Y4.66094
G01 X-9.09500 Y4.66314
G01 X-9.10314 Y4.66554
G01 X-9.11122 Y4.66814
G01 X-9.11923 Y4.67094
G01 X-9.12718 Y4.67393
G01 X-9.13496 Y4.67707
G01 X-9.14276 Y4.68044
G01 X-9.15038 Y4.68396
G01 X-9.15800 Y4.68770
G01 X-9.16545 Y4.69158
G01 X-9.17288 Y4.69568
G01 X-9.18004 Y4.69987
G01 X-8.99732 Y4.91763
G01 X-8.98832 Y4.91840
G01 X-8.77057 Y4.73569
G01 X-8.85224 Y4.73894
G01 X-8.86316 Y4.73303
G01 X-8.86968 Y4.72979
G01 X-8.88285 Y4.72382
G01 X-8.89639 Y4.71847
G01 X-8.91001 Y4.71382
G01 X-8.91699 Y4.71172
G01 X-8.93098 Y4.70805
G01 X-8.93809 Y4.70646
G01 X-8.95232 Y4.70382
G01 X-8.96657 Y4.70188
G01 X-8.98108 Y4.70060
G01 X-8.99554 Y4.70004
G01 X-9.00993 Y4.70017
G01 X-9.02446 Y4.70101
G01 X-9.03893 Y4.70254
G01 X-9.05323 Y4.70477
G01 X-9.06732 Y4.70766
G01 X-9.08142 Y4.71127
G01 X-9.08840 Y4.71333
G01 X-9.10019 Y4.71725
G01 X-8.98706 Y4.85207
G01 X-8.85224 Y4.73894
G01 X-8.94939 Y4.75520
G01 X-8.96027 Y4.75319
G01 X-8.96619 Y4.75231
G01 X-8.97818 Y4.75096
G01 X-8.99021 Y4.75020
G01 X-8.99629 Y4.75004
G01 X-9.00733 Y4.75013
G01 X-8.98090 Y4.78163
G01 X-8.94939 Y4.75520
G04 P0 ( dwell for no time -- G64 should not smooth over this point )
G00 Z0.08000 ( retract )

G00 X-9.08163 Y4.98828 ( rapid move to begin. )
G01 F3.00000
( Mill infeed pass 1/1 )
G01 Z-0.00800
G04 P0 ( dwell for no time -- G64 should not smooth over this point )
G01 F6.00000
G01 X-9.08163 Y4.98828
G01 X-9.08225 Y4.99386
G01 X-9.08242 Y4.99736
G01 X-9.30013 Y5.18004
G01 X-9.30432 Y5.17288
G01 X-9.30842 Y5.16545
G01 X-9.31230 Y5.15800
G01 X-9.31604 Y5.15038
G01 X-9.31956 Y5.14276
G01 X-9.32293 Y5.13496
G01 X-9.32607 Y5.12718
G01 X-9.32906 Y5.11923
G01 X-9.33185 Y5.11122
G01 X-9.33446 Y5.10314
G01 X-9.33686 Y5.09500
G01 X-9.33906 Y5.08680
G01 X-9.34107 Y5.07855
G01 X-9.34285 Y5.07034
G01 X-9.34444 Y5.06210
G01 X-9.34585 Y5.05372
G01 X-9.34704 Y5.04541
G01 X-9.34804 Y5.03698
G01 X-9.34883 Y5.02853
G01 X-9.34942 Y5.02006
G01 X-9.34980 Y5.01158
G01 X-9.34998 Y5.00319
G01 X-9.34996 Y4.99479
G01 X-9.34973 Y4.98630
G01 X-9.34930 Y4.97792
G01 X-9.34866 Y4.96945
G01 X-9.34782 Y4.96100
G01 X-9.34678 Y4.95267
G01 X-9.34555 Y4.94437
G01 X-9.34409 Y4.93600
G01 X-9.34246 Y4.92776
G01 X-9.34061 Y4.91948
G01 X-9.33855 Y4.91124
G01 X-9.33633 Y4.90315
G01 X-9.33388 Y4.89501
G01 X-9.33126 Y4.88703
G01 X-9.32846 Y4.87912
G01 X-9.32543 Y4.87119
G01 X-9.32221 Y4.86333
G01 X-9.31884 Y4.85564
G01 X-9.31524 Y4.84795
G01 X-9.31146 Y4.84035
G01 X-9.30750 Y4.83285
G01 X-9.30336 Y4.82544
G01 X-9.29903 Y4.81813
G01 X-9.29459 Y4.81101
G01 X-9.28991 Y4.80392
G01 X-9.28513 Y4.79702
G01 X-9.28012 Y4.79017
G01 X-9.27501 Y4.78351
G01 X-9.26967 Y4.77690
G01 X-9.26431 Y4.77057
G01 X-9.08163 Y4.98828
G01 X-9.14793 Y4.98706
G01 X-9.26106 Y4.85224
G01 X-9.26697 Y4.86316
G01 X-9.27021 Y4.86967
G01 X-9.27617 Y4.88285
G01 X-9.28153 Y4.89639
G01 X-9.28618 Y4.91001
G01 X-9.29018 Y4.92392
G01 X-9.29353 Y4.93809
G01 X-9.29618 Y4.95232
G01 X-9.29812 Y4.96657
G01 X-9.29885 Y4.97382
G01 X-9.29976 Y4.98825
G01 X-9.29996 Y4.99554
G01 X-9.29983 Y5.00992
G01 X-9.29899 Y5.02446
G01 X-9.29746 Y5.03893
G01 X-9.29523 Y5.05323
G01 X-9.29234 Y5.06732
G01 X-9.28873 Y5.08142
G01 X-9.28667 Y5.08840
G01 X-9.28275 Y5.10019
G01 X-9.14793 Y4.98706
G01 X-9.21837 Y4.98090
G01 X-9.24987 Y5.00733
G01 X-9.24996 Y4.99629
G01 X-9.24980 Y4.99021
G01 X-9.24903 Y4.97818
G01 X-9.24769 Y4.96619
G01 X-9.24681 Y4.96027
G01 X-9.24480 Y4.94939
G01 X-9.21837 Y4.98090
G04 P0 ( dwell for no time -- G64 should not smooth over this point )
G00 Z0.08000 ( retract )

G00 X-8.99267 Y5.24987 ( rapid move to begin. )
G01 F3.00000
( Mill infeed pass 1/1 )
G01 Z-0.00800
G04 P0 ( dwell for no time -- G64 should not smooth over this point )
G01 F6.00000
G01 X-8.99267 Y5.24987
G01 X-9.01910 Y5.21837
G01 X-9.05061 Y5.24480
G01 X-9.03973 Y5.24681
G01 X-9.03380 Y5.24769
G01 X-9.02182 Y5.24903
G01 X-9.00979 Y5.24980
G01 X-9.00371 Y5.24996
G01 X-8.99267 Y5.24987
G01 X-8.89981 Y5.28275
G01 X-9.01294 Y5.14793
G01 X-9.14776 Y5.26106
G01 X-9.13684 Y5.26696
G01 X-9.13032 Y5.27020
G01 X-9.11715 Y5.27617
G01 X-9.10361 Y5.28153
G01 X-9.08999 Y5.28618
G01 X-9.07608 Y5.29018
G01 X-9.06191 Y5.29353
G01 X-9.04768 Y5.29618
G01 X-9.03343 Y5.29812
G01 X-9.01892 Y5.29939
G01 X-9.00446 Y5.29996
G01 X-8.99727 Y5.29998
G01 X-8.98280 Y5.29950
G01 X-8.96830 Y5.29831
G01 X-8.95396 Y5.29644
G01 X-8.94677 Y5.29523
G01 X-8.93267 Y5.29234
G01 X-8.91858 Y5.28873
G01 X-8.91160 Y5.28667
G01 X-8.89981 Y5.28275
G01 X-8.81996 Y5.30013
G01 X-9.00268 Y5.08237
G01 X-9.01168 Y5.08160
G01 X-9.22943 Y5.26431
G01 X-9.22310 Y5.26967
G01 X-9.21649 Y5.27501
G01 X-9.20983 Y5.28012
G01 X-9.20297 Y5.28513
G01 X-9.19608 Y5.28991
G01 X-9.18899 Y5.29459
G01 X-9.18187 Y5.29903
G01 X-9.17456 Y5.30336
G01 X-9.16715 Y5.30750
G01 X-9.15965 Y5.31146
G01 X-9.15205 Y5.31524
