( pcb2gcode 2.5.0 )
( Software-independent Gcode )

G94 ( Inches per minute feed rate. )
G20 ( Units == INCHES. )

G90 ( Absolute coordinates. )
G00 S30000 ( RPM spindle speed. )
G64 P0.00040 ( set maximum deviation from commanded toolpath )
G01 F6.00000 ( Feedrate. )


G00 Z1.00000 (Retract to tool change height)
T0
M5      (Spindle stop.)
G04 P1.00000 (Wait for spindle to stop)
(MSG, Change tool bit to mill diameter 0.10000in)
M6      (Tool change.)
M0      (Temporary machine stop.)
M3 ( Spindle on clockwise. )
G04 P1.00000 (Wait for spindle to get up to speed)
G04 P0 ( dwell for no time -- G64 should not smooth over this point )
G00 Z0.08000 ( retract )

G00 X0.48250 Y-0.48250 ( rapid move to begin. )
G01 F3.00000
( Mill infeed pass 1/1 )
G01 Z-0.00800
G04 P0 ( dwell for no time -- G64 should not smooth over this point )
G01 F6.00000
G01 X0.48250 Y-0.48250
G01 X0.48250 Y10.48250
G01 X-10.48250 Y10.48250
G01 X-10.48250 Y-0.48250
G01 X0.48250 Y-0.48250
G01 X0.43250 Y-0.43250
G01 X0.43250 Y10.43250
G01 X0.44714 Y10.44714
G01 X0.43250 Y10.43250
G01 X-10.43250 Y10.43250
G01 X-10.44714 Y10.44714
G01 X-10.43250 Y10.43250
G01 X-10.43250 Y-0.43250
G01 X-10.44714 Y-0.44714
G01 X-10.43250 Y-0.43250
G01 X0.43250 Y-0.43250
G01 X0.38250 Y-0.38250
G01 X0.38250 Y10.38250
G01 X0.39714 Y10.39714
G01 X0.38250 Y10.38250
G01 X-10.38250 Y10.38250
G01 X-10.39714 Y10.39714
G01 X-10.38250 Y10.38250
G01 X-10.38250 Y-0.38250
G01 X-10.39714 Y-0.39714
G01 X-10.38250 Y-0.38250
G01 X0.38250 Y-0.38250
G04 P0 ( dwell for no time -- G64 should not smooth over this point )
G00 Z0.08000 ( retract )

G00 X-3.90746 Y2.45438 ( rapid move to begin. )
G01 F3.00000
( Mill infeed pass 1/1 )
G01 Z-0.00800
G04 P0 ( dwell for no time -- G64 should not smooth over this point )
G01 F6.00000
G01 X-3.90746 Y2.45438
G01 X-3.77286 Y2.81292
G01 X-3.72912 Y2.93180
G01 X-3.68819 Y3.04785
G01 X-3.65009 Y3.16108
G01 X-3.61482 Y3.27149
G01 X-3.58236 Y3.37907
G01 X-3.55273 Y3.48384
G01 X-3.52591 Y3.58578
G01 X-3.50192 Y3.68490
G01 X-3.48076 Y3.78120
G01 X-3.46241 Y3.87467
G01 X-3.44689 Y3.96533
G01 X-3.43419 Y4.05316
G01 X-3.42431 Y4.13816
G01 X-3.41725 Y4.22035
G01 X-3.41302 Y4.29971
G01 X-3.41161 Y4.37626
G01 X-3.41161 Y4.44522
G01 X-3.41547 Y4.49888
G01 X-3.42734 Y4.65333
G01 X-3.43642 Y4.76307
G01 X-3.44585 Y4.86811
G01 X-3.45465 Y4.95839
G01 X-3.46416 Y5.04895
G01 X-3.47523 Y5.14745
G01 X-3.48834 Y5.25746
G01 X-3.49301 Y5.29486
G01 X-3.49688 Y5.32926
G01 X-3.50000 Y5.36443
G01 X-3.50000 Y5.65629
G01 X-3.49525 Y5.71689
G01 X-3.47855 Y5.90190
G01 X-3.43207 Y6.43572
G01 X-3.34271 Y7.48822
G01 X-3.39654 Y7.44534
G01 X-3.48189 Y6.43997
G01 X-3.52836 Y5.90628
G01 X-3.54505 Y5.72138
G01 X-3.54985 Y5.66019
G01 X-3.55000 Y5.65629
G01 X-3.55000 Y5.36443
G01 X-3.54980 Y5.36002
G01 X-3.54657 Y5.32365
G01 X-3.54269 Y5.28925
G01 X-3.53798 Y5.25147
G01 X-3.52489 Y5.14162
G01 X-3.51386 Y5.04347
G01 X-3.50376 Y4.94712
G01 X-3.49563 Y4.86337
G01 X-3.48625 Y4.75886
G01 X-3.47717 Y4.64928
G01 X-3.46533 Y4.49512
G01 X-3.46158 Y4.44342
G01 X-3.46161 Y4.37672
G01 X-3.46299 Y4.30151
G01 X-3.46713 Y4.22382
G01 X-3.47406 Y4.14319
G01 X-3.48377 Y4.05962
G01 X-3.49628 Y3.97312
G01 X-3.51159 Y3.88371
G01 X-3.52971 Y3.79138
G01 X-3.55064 Y3.69615
G01 X-3.57439 Y3.59802
G01 X-3.60096 Y3.49700
G01 X-3.63035 Y3.39310
G01 X-3.66256 Y3.28632
G01 X-3.69760 Y3.17666
G01 X-3.73547 Y3.06414
G01 X-3.77616 Y2.94874
G01 X-3.81973 Y2.83034
G01 X-3.94194 Y2.50479
G01 X-3.93569 Y2.49565
G01 X-3.94194 Y2.50479
G01 X-4.02861 Y2.50581
G01 X-4.11343 Y2.50895
G01 X-4.12102 Y2.49944
G01 X-4.11343 Y2.50895
G01 X-4.30817 Y3.23783
G01 X-4.34158 Y3.36821
G01 X-4.37100 Y3.49434
G01 X-4.39651 Y3.61646
G01 X-4.41813 Y3.73473
G01 X-4.42744 Y3.79210
G01 X-4.43579 Y3.84863
G01 X-4.44318 Y3.90414
G01 X-4.44958 Y3.95865
G01 X-4.45502 Y4.01214
G01 X-4.45948 Y4.06461
G01 X-4.46298 Y4.11607
G01 X-4.46535 Y4.16347
G01 X-4.46548 Y4.16347
G01 X-4.46535 Y4.16347
G01 X-4.45495 Y4.27861
G01 X-4.45015 Y4.33980
G01 X-4.45000 Y4.34371
G01 X-4.45000 Y4.63557
G01 X-4.45019 Y4.63998
G01 X-4.45343 Y4.67634
G01 X-4.45731 Y4.71075
G01 X-4.46202 Y4.74853
G01 X-4.47511 Y4.85838
G01 X-4.48615 Y4.95660
G01 X-4.49561 Y5.04666
G01 X-4.50437 Y5.13663
G01 X-4.51375 Y5.24114
G01 X-4.52283 Y5.35072
G01 X-4.53467 Y5.50488
G01 X-4.53845 Y5.55739
G01 X-4.54556 Y5.63600
G01 X-4.55458 Y5.71939
G01 X-4.55473 Y5.71938
G01 X-4.55458 Y5.71939
G01 X-4.55248 Y5.76540
G01 X-4.54913 Y5.81588
G01 X-4.54468 Y5.86753
G01 X-4.53913 Y5.92033
G01 X-4.53247 Y5.97430
G01 X-4.52471 Y6.02942
G01 X-4.51584 Y6.08569
G01 X-4.50583 Y6.14330
G01 X-4.26081 Y7.49219
G01 X-4.27013 Y7.50301
G01 X-4.26081 Y7.49219
G01 X-4.18180 Y7.49471
G01 X-4.06303 Y7.49555
G01 X-3.94426 Y7.49345
G01 X-3.82549 Y7.48841
G01 X-3.70671 Y7.48043
G01 X-3.58792 Y7.46950
G01 X-3.46913 Y7.45563
G01 X-3.39654 Y7.44534
G01 X-3.45036 Y7.40247
G01 X-3.53171 Y6.44423
G01 X-3.57817 Y5.91066
G01 X-3.59485 Y5.72588
G01 X-3.59969 Y5.66410
G01 X-3.60000 Y5.65629
G01 X-3.60000 Y5.36443
G01 X-3.59961 Y5.35561
G01 X-3.59626 Y5.31805
G01 X-3.59237 Y5.28365
G01 X-3.58762 Y5.24548
G01 X-3.57455 Y5.13579
G01 X-3.56356 Y5.03799
G01 X-3.55352 Y4.94219
G01 X-3.54540 Y4.85863
G01 X-3.53607 Y4.75465
G01 X-3.52701 Y4.64523
G01 X-3.51519 Y4.49137
G01 X-3.51158 Y4.44164
G01 X-3.51161 Y4.37718
G01 X-3.51296 Y4.30330
G01 X-3.51702 Y4.22729
G01 X-3.52381 Y4.14822
G01 X-3.53335 Y4.06609
G01 X-3.54567 Y3.98092
G01 X-3.56077 Y3.89274
G01 X-3.57866 Y3.80156
G01 X-3.59936 Y3.70740
G01 X-3.62287 Y3.61026
G01 X-3.64920 Y3.51017
G01 X-3.67835 Y3.40713
G01 X-3.71032 Y3.30115
G01 X-3.74511 Y3.19225
G01 X-3.78274 Y3.08042
G01 X-3.82320 Y2.96569
G01 X-3.86660 Y2.84776
G01 X-3.97643 Y2.55520
G01 X-3.97017 Y2.54606
G01 X-3.97643 Y2.55520
G01 X-4.02739 Y2.55580
G01 X-4.07466 Y2.55755
G01 X-4.08225 Y2.54804
G01 X-4.07466 Y2.55755
G01 X-4.25980 Y3.25049
G01 X-4.29301 Y3.38010
G01 X-4.32218 Y3.50513
G01 X-4.34743 Y3.62607
G01 X-4.36886 Y3.74323
G01 X-4.37803 Y3.79976
G01 X-4.38628 Y3.85558
G01 X-4.39356 Y3.91036
G01 X-4.39988 Y3.96409
G01 X-4.40523 Y4.01678
G01 X-4.40963 Y4.06843
G01 X-4.41306 Y4.11902
G01 X-4.41524 Y4.16247
G01 X-4.41536 Y4.16247
G01 X-4.41524 Y4.16247
G01 X-4.40515 Y4.27411
G01 X-4.40030 Y4.33590
G01 X-4.40000 Y4.34371
G01 X-4.40000 Y4.63557
G01 X-4.40039 Y4.64439
G01 X-4.40374 Y4.68195
G01 X-4.40762 Y4.71635
G01 X-4.41238 Y4.75452
G01 X-4.42545 Y4.86421
G01 X-4.43645 Y4.96209
G01 X-4.44587 Y5.05178
G01 X-4.45460 Y5.14137
G01 X-4.46393 Y5.24535
G01 X-4.47299 Y5.35477
G01 X-4.48481 Y5.50863
G01 X-4.48866 Y5.56188
G01 X-4.49585 Y5.64138
G01 X-4.50446 Y5.72095
G01 X-4.50461 Y5.72094
G01 X-4.50446 Y5.72095
G01 X-4.50256 Y5.76261
G01 X-4.49927 Y5.81208
G01 X-4.49491 Y5.86277
G01 X-4.48945 Y5.91466
G01 X-4.48290 Y5.96775
G01 X-4.47526 Y6.02204
G01 X-4.46651 Y6.07752
G01 X-4.45660 Y6.13455
G01 X-4.21884 Y7.44350
G01 X-4.22816 Y7.45432
G01 X-4.21884 Y7.44350
G01 X-4.18083 Y7.44471
G01 X-4.06330 Y7.44555
G01 X-3.94576 Y7.44347
G01 X-3.82822 Y7.43848
G01 X-3.71068 Y7.43058
G01 X-3.59311 Y7.41976
G01 X-3.47553 Y7.40603
G01 X-3.45036 Y7.40247
G04 P0 ( dwell for no time -- G64 should not smooth over this point )
G00 Z0.08000 ( retract )

G00 X-4.30278 Y7.54088 ( rapid move to begin. )
G01 F3.00000
( Mill infeed pass 1/1 )
G01 Z-0.00800
G04 P0 ( dwell for no time -- G64 should not smooth over this point )
G01 F6.00000
G01 X-4.30278 Y7.54088
G01 X-4.55506 Y6.15205
G01 X-4.56517 Y6.09387
G01 X-4.57416 Y6.03680
G01 X-4.58204 Y5.98085
G01 X-4.58881 Y5.92601
G01 X-4.59446 Y5.87229
G01 X-4.59899 Y5.81969
G01 X-4.60241 Y5.76820
G01 X-4.60471 Y5.71783
G01 X-4.59527 Y5.63062
G01 X-4.58825 Y5.55290
G01 X-4.58453 Y5.50112
G01 X-4.57266 Y5.34666
G01 X-4.56357 Y5.23693
G01 X-4.55415 Y5.13188
G01 X-4.54534 Y5.04155
G01 X-4.53585 Y4.95112
G01 X-4.52476 Y4.85255
G01 X-4.51166 Y4.74254
G01 X-4.50699 Y4.70514
G01 X-4.50311 Y4.67074
G01 X-4.50000 Y4.63557
G01 X-4.50000 Y4.34371
G01 X-4.50475 Y4.28311
G01 X-4.51547 Y4.16448
G01 X-4.51289 Y4.11313
G01 X-4.50934 Y4.06080
G01 X-4.50480 Y4.00749
G01 X-4.49929 Y3.95320
G01 X-4.49279 Y3.89793
G01 X-4.48531 Y3.84168
G01 X-4.47685 Y3.78444
G01 X-4.46741 Y3.72623
G01 X-4.44558 Y3.60685
G01 X-4.41983 Y3.48355
G01 X-4.39015 Y3.35632
G01 X-4.35654 Y3.22517
G01 X-4.15220 Y2.46035
G01 X-4.23648 Y2.43410
G01 X-4.25093 Y2.48196
G01 X-4.25628 Y2.51766
G01 X-4.27362 Y2.52742
G01 X-4.45316 Y3.19936
G01 X-4.48702 Y3.33150
G01 X-4.51721 Y3.46083
G01 X-4.54347 Y3.58641
G01 X-4.56612 Y3.71022
G01 X-4.57577 Y3.76982
G01 X-4.58444 Y3.82850
G01 X-4.59192 Y3.88475
G01 X-4.59877 Y3.94309
G01 X-4.60429 Y3.99738
G01 X-4.60898 Y4.05232
G01 X-4.61266 Y4.10635
G01 X-4.61534 Y4.15947
G01 X-4.61506 Y4.17347
G01 X-4.60439 Y4.29152
G01 X-4.59996 Y4.34762
G01 X-4.59994 Y4.63115
G01 X-4.60262 Y4.66072
G01 X-4.60629 Y4.69332
G01 X-4.61095 Y4.73071
G01 X-4.62410 Y4.84105
G01 X-4.63526 Y4.94034
G01 X-4.64484 Y5.03150
G01 X-4.65368 Y5.12221
G01 X-4.66320 Y5.22833
G01 X-4.67235 Y5.33872
G01 X-4.68423 Y5.49348
G01 X-4.68793 Y5.54484
G01 X-4.69478 Y5.62075
G01 X-4.70412 Y5.70707
G01 X-4.70460 Y5.72239
G01 X-4.70219 Y5.77482
G01 X-4.69862 Y5.82827
G01 X-4.69391 Y5.88275
G01 X-4.68806 Y5.93825
G01 X-4.68107 Y5.99479
G01 X-4.67294 Y6.05237
G01 X-4.66369 Y6.11099
G01 X-4.65345 Y6.16992
G01 X-4.41846 Y7.46357
G01 X-4.40191 Y7.47479
G01 X-4.41846 Y7.46357
G01 X-4.47414 Y7.47488
G01 X-4.54869 Y7.48878
G01 X-4.62322 Y7.50145
G01 X-4.69775 Y7.51289
G01 X-4.77227 Y7.52310
G01 X-4.84677 Y7.53208
G01 X-4.92127 Y7.53983
G01 X-4.99575 Y7.54634
G01 X-5.07024 Y7.55163
G01 X-5.14471 Y7.55569
G01 X-5.21919 Y7.55852
G01 X-5.29366 Y7.56013
G01 X-5.36813 Y7.56050
G01 X-5.43136 Y7.55977
G01 X-5.44248 Y7.57212
G01 X-5.43136 Y7.55977
G01 X-5.64366 Y5.73146
G01 X-5.64891 Y5.69121
G01 X-5.65566 Y5.64897
G01 X-5.73200 Y5.21601
G01 X-5.73226 Y5.21603
G01 X-5.73200 Y5.21601
G01 X-5.73147 Y5.20533
G01 X-5.73061 Y5.17347
G01 X-5.73060 Y5.16857
G01 X-5.73124 Y5.14040
G01 X-5.73175 Y5.12918
G01 X-5.73347 Y5.10506
G01 X-5.73394 Y5.10018
G01 X-5.73683 Y5.07675
G01 X-5.73836 Y5.06660
G01 X-5.74124 Y5.04988
G01 X-5.74491 Y5.03291
G01 X-5.94885 Y4.82897
G01 X-5.82897 Y4.94885
G01 X-5.82292 Y4.96017
G01 X-5.81793 Y4.97074
G01 X-5.80917 Y4.99195
G01 X-5.80515 Y5.00321
G01 X-5.79731 Y5.02917
G01 X-5.79487 Y5.03868
G01 X-5.79099 Y5.05596
G01 X-5.78764 Y5.07508
G01 X-5.78611 Y5.08538
G01 X-5.78334 Y5.10867
G01 X-5.78176 Y5.13048
G01 X-5.78123 Y5.14154
G01 X-5.78059 Y5.17216
G01 X-5.78141 Y5.20288
G01 X-5.78225 Y5.21896
G01 X-5.78253 Y5.21898
G01 X-5.78225 Y5.21896
G01 X-5.70490 Y5.65765
G01 X-5.69848 Y5.69768
G01 X-5.69333 Y5.73722
G01 X-5.47601 Y7.60873
G01 X-5.48707 Y7.62094
G01 X-5.47601 Y7.60873
G01 X-5.44358 Y7.60964
G01 X-5.36829 Y7.61050
G01 X-5.29299 Y7.61012
G01 X-5.21770 Y7.60850
G01 X-5.14240 Y7.60564
G01 X-5.06710 Y7.60154
G01 X-4.99180 Y7.59619
G01 X-4.91650 Y7.58960
G01 X-4.84119 Y7.58177
G01 X-4.76588 Y7.57269
G01 X-4.69056 Y7.56237
G01 X-4.61524 Y7.55081
G01 X-4.53991 Y7.53801
G01 X-4.46458 Y7.52396
G01 X-4.38924 Y7.50866
G01 X-4.36059 Y7.50237
G01 X-4.34414 Y7.51347
G01 X-4.36059 Y7.50237
G01 X-4.60425 Y6.16099
G01 X-4.61443 Y6.10243
G01 X-4.62355 Y6.04458
G01 X-4.63156 Y5.98782
G01 X-4.63853 Y5.93124
G01 X-4.64427 Y5.87658
G01 X-4.64888 Y5.82300
G01 X-4.65235 Y5.77048
G01 X-4.65465 Y5.72011
G01 X-4.65442 Y5.71245
G01 X-4.64502 Y5.62568
G01 X-4.63809 Y5.54887
G01 X-4.63439 Y5.49742
G01 X-4.62250 Y5.34269
G01 X-4.61339 Y5.23263
G01 X-4.60393 Y5.12723
G01 X-4.59509 Y5.03653
G01 X-4.58556 Y4.94573
G01 X-4.57441 Y4.84663
G01 X-4.56129 Y4.73647
G01 X-4.55664 Y4.69923
G01 X-4.55286 Y4.66573
G01 X-4.54994 Y4.63336
G01 X-4.54996 Y4.34566
G01 X-4.55457 Y4.28732
G01 X-4.56526 Y4.16897
G01 X-4.56540 Y4.16197
G01 X-4.56278 Y4.10974
G01 X-4.55922 Y4.05741
G01 X-4.55455 Y4.00244
G01 X-4.54903 Y3.94815
G01 X-4.54245 Y3.89209
G01 X-4.53477 Y3.83436
G01 X-4.52620 Y3.77644
G01 X-4.51676 Y3.71822
G01 X-4.49452 Y3.59663
G01 X-4.46852 Y3.47219
G01 X-4.43858 Y3.34391
G01 X-4.40485 Y3.21227
G01 X-4.21289 Y2.49381
G01 X-4.19598 Y2.48449
G01 X-4.21289 Y2.49381
G01 X-4.25093 Y2.48196
G01 X-4.33436 Y2.45757
G01 X-4.41778 Y2.43477
G01 X-4.50118 Y2.41358
G01 X-4.58458 Y2.39398
G01 X-4.66796 Y2.37599
G01 X-4.75134 Y2.35959
G01 X-4.83470 Y2.34479
G01 X-4.91806 Y2.33159
G01 X-5.00141 Y2.31999
G01 X-5.08475 Y2.30998
G01 X-5.16808 Y2.30157
G01 X-5.25141 Y2.29475
G01 X-5.33474 Y2.28953
G01 X-5.41806 Y2.28591
G01 X-5.50138 Y2.28388
G01 X-5.58470 Y2.28345
G01 X-5.66802 Y2.28461
G01 X-5.75135 Y2.28737
G01 X-5.83467 Y2.29172
G01 X-5.91800 Y2.29767
G01 X-6.00133 Y2.30521
G01 X-6.08467 Y2.31435
G01 X-6.16801 Y2.32509
G01 X-6.25136 Y2.33742
G01 X-6.33472 Y2.35135
G01 X-6.41809 Y2.36688
G01 X-6.50147 Y2.38401
G01 X-6.58486 Y2.40273
G01 X-6.66826 Y2.42306
G01 X-6.75167 Y2.44498
G01 X-6.78687 Y2.45491
G01 X-6.80534 Y2.44470
G01 X-6.78687 Y2.45491
G01 X-6.70378 Y2.73791
G01 X-6.37558 Y3.55969
G01 X-6.33735 Y3.65799
G01 X-6.30216 Y3.75380
G01 X-6.26998 Y3.84739
G01 X-6.24190 Y3.93554
G01 X-6.21683 Y4.02149
G01 X-6.19479 Y4.10565
G01 X-6.17686 Y4.18365
G01 X-6.16196 Y4.25990
G01 X-6.11339 Y4.53533
G01 X-6.10370 Y4.58388
G01 X-6.09257 Y4.62791
G01 X-6.07998 Y4.66793
G01 X-6.06602 Y4.70390
G01 X-6.05056 Y4.73634
G01 X-6.04271 Y4.75033
G01 X-6.03441 Y4.76382
G01 X-6.02583 Y4.77630
G01 X-6.01699 Y4.78780
G01 X-6.00798 Y4.79840
G01 X-6.00387 Y4.80261
G01 X-6.00439 Y4.80333
G01 X-6.00387 Y4.80261
G01 X-5.99030 Y4.80907
G01 X-5.96889 Y4.81874
G01 X-5.96017 Y4.82292
G01 X-5.94885 Y4.82897
G01 X-5.95464 Y4.82326
G01 X-5.96081 Y4.81565
G01 X-5.96101 Y4.81578
G01 X-5.96081 Y4.81565
G01 X-5.96543 Y4.80700
G01 X-5.96566 Y4.80709
G01 X-5.96543 Y4.80700
G01 X-5.96828 Y4.79762
G01 X-5.96852 Y4.79767
G01 X-5.96828 Y4.79762
G01 X-5.96924 Y4.78787
G01 X-5.96948 Y4.78787
G01 X-5.96924 Y4.78787
G01 X-5.96828 Y4.77811
G01 X-5.96852 Y4.77807
G01 X-5.96828 Y4.77811
G01 X-5.96543 Y4.76873
G01 X-5.96566 Y4.76864
G01 X-5.96543 Y4.76873
G01 X-5.96401 Y4.76607
G01 X-5.97347 Y4.76174
G01 X-5.97434 Y4.76285
G01 X-5.97347 Y4.76174
G01 X-5.97811 Y4.75632
G01 X-5.98537 Y4.74694
G01 X-5.99249 Y4.73647
G01 X-5.99961 Y4.72502
G01 X-6.00609 Y4.71337
G01 X-6.02009 Y4.68406
G01 X-6.03278 Y4.65136
G01 X-6.04445 Y4.61427
G01 X-6.05491 Y4.57285
G01 X-6.06425 Y4.52609
G01 X-6.11256 Y4.25211
G01 X-6.12813 Y4.17245
G01 X-6.14678 Y4.09152
G01 X-6.16883 Y4.00750
G01 X-6.19426 Y3.92036
G01 X-6.22306 Y3.83005
G01 X-6.25522 Y3.73657
G01 X-6.29075 Y3.63987
G01 X-6.32898 Y3.54157
G01 X-6.65648 Y2.72156
G01 X-6.72458 Y2.48956
G01 X-6.74352 Y2.47887
G01 X-6.72458 Y2.48956
G01 X-6.65598 Y2.47153
G01 X-6.57346 Y2.45142
G01 X-6.49096 Y2.43289
G01 X-6.40848 Y2.41595
G01 X-6.32602 Y2.40059
G01 X-6.24358 Y2.38682
G01 X-6.16116 Y2.37462
G01 X-6.07875 Y2.36400
G01 X-5.99635 Y2.35497
G01 X-5.91397 Y2.34751
G01 X-5.83159 Y2.34163
G01 X-5.74922 Y2.33733
G01 X-5.66685 Y2.33460
G01 X-5.58448 Y2.33345
G01 X-5.50212 Y2.33388
G01 X-5.41976 Y2.33588
G01 X-5.33739 Y2.33947
G01 X-5.25501 Y2.34463
G01 X-5.17263 Y2.35136
G01 X-5.09024 Y2.35968
G01 X-5.00783 Y2.36958
G01 X-4.92542 Y2.38105
G01 X-4.84298 Y2.39411
G01 X-4.76053 Y2.40874
G01 X-4.67806 Y2.42496
G01 X-4.59557 Y2.44276
G01 X-4.51306 Y2.46215
G01 X-4.43053 Y2.48312
G01 X-4.34797 Y2.50568
G01 X-4.27362 Y2.52742
G04 P0 ( dwell for no time -- G64 should not smooth over this point )
G00 Z0.08000 ( retract )

G00 X-6.84909 Y2.42050 ( rapid move to begin. )
G01 F3.00000
( Mill infeed pass 1/1 )
G01 Z-0.00800
G04 P0 ( dwell for no time -- G64 should not smooth over this point )
G01 F6.00000
G01 X-6.84909 Y2.42050
G01 X-6.75104 Y2.75425
G01 X-6.42218 Y3.57782
G01 X-6.38394 Y3.67612
G01 X-6.34909 Y3.77103
G01 X-6.31762 Y3.86257
G01 X-6.28954 Y3.95071
G01 X-6.26484 Y4.03548
G01 X-6.24352 Y4.11686
G01 X-6.22559 Y4.19486
G01 X-6.21104 Y4.26947
G01 X-6.16253 Y4.54458
G01 X-6.15246 Y4.59491
G01 X-6.14068 Y4.64155
G01 X-6.12716 Y4.68449
G01 X-6.11192 Y4.72373
G01 X-6.09496 Y4.75928
G01 X-6.08583 Y4.77566
G01 X-6.07627 Y4.79112
G01 X-6.06628 Y4.80566
G01 X-6.05586 Y4.81927
G01 X-6.04501 Y4.83195
G01 X-6.03373 Y4.84372
G01 X-6.01112 Y4.85453
G01 X-5.99372 Y4.86235
G01 X-5.98371 Y4.86704
G01 X-5.96589 Y4.87655
G01 X-5.96025 Y4.87993
G01 X-5.94490 Y4.89017
G01 X-5.93973 Y4.89401
G01 X-5.92622 Y4.90509
G01 X-5.92149 Y4.90938
G01 X-5.90938 Y4.92149
G01 X-5.90509 Y4.92622
G01 X-5.89401 Y4.93973
G01 X-5.89017 Y4.94490
G01 X-5.87993 Y4.96025
G01 X-5.87655 Y4.96589
G01 X-5.86704 Y4.98371
G01 X-5.86415 Y4.98983
G01 X-5.85539 Y5.01103
G01 X-5.85301 Y5.01767
G01 X-5.84518 Y5.04362
G01 X-5.84337 Y5.05083
G01 X-5.83979 Y5.06685
G01 X-5.83691 Y5.08357
G01 X-5.83575 Y5.09142
G01 X-5.83321 Y5.11227
G01 X-5.83163 Y5.13408
G01 X-5.83121 Y5.14267
G01 X-5.83057 Y5.17084
G01 X-5.83135 Y5.20043
G01 X-5.83251 Y5.22190
G01 X-5.75414 Y5.66633
G01 X-5.74806 Y5.70416
G01 X-5.74299 Y5.74299
G01 X-5.52069 Y7.65750
G01 X-5.61920 Y7.67150
G01 X-5.62570 Y7.62192
G01 X-5.72315 Y7.63364
G01 X-5.82060 Y7.64323
G01 X-5.91803 Y7.65069
G01 X-6.01546 Y7.65603
G01 X-6.11289 Y7.65924
G01 X-6.21032 Y7.66033
G01 X-6.30774 Y7.65928
G01 X-6.40517 Y7.65611
G01 X-6.50260 Y7.65082
G01 X-6.60004 Y7.64340
G01 X-6.69748 Y7.63385
G01 X-6.79493 Y7.62218
G01 X-6.89239 Y7.60837
G01 X-6.98986 Y7.59244
G01 X-7.05712 Y7.57998
G01 X-7.06318 Y7.58659
G01 X-7.05712 Y7.57998
G01 X-7.09601 Y7.43958
G01 X-7.13023 Y7.32085
G01 X-7.13225 Y7.32085
G01 X-7.13023 Y7.32085
G01 X-7.08917 Y7.17746
G01 X-7.04702 Y7.02654
G01 X-7.00747 Y6.88088
G01 X-6.97079 Y6.74149
G01 X-6.93689 Y6.60803
G01 X-6.90588 Y6.48100
G01 X-6.87754 Y6.35942
G01 X-6.85183 Y6.24314
G01 X-6.82918 Y6.13401
G01 X-6.80916 Y6.03015
G01 X-6.79177 Y5.93124
G01 X-6.77747 Y5.84002
G01 X-6.76579 Y5.75372
G01 X-6.75690 Y5.67322
G01 X-6.75081 Y5.59847
G01 X-6.74753 Y5.52943
G01 X-6.74003 Y5.25912
G01 X-6.73914 Y5.24434
G01 X-6.73733 Y5.23063
G01 X-6.73457 Y5.21709
G01 X-6.73059 Y5.20287
G01 X-6.62014 Y4.85253
G01 X-6.61475 Y4.83364
G01 X-6.61025 Y4.81442
G01 X-6.60664 Y4.79487
G01 X-6.60381 Y4.77392
G01 X-6.60117 Y4.73759
G01 X-6.60104 Y4.73340
G01 X-6.60154 Y4.69365
G01 X-6.68567 Y3.05279
G01 X-6.46870 Y3.59615
G01 X-6.43071 Y3.69380
G01 X-6.39620 Y3.78778
G01 X-6.36509 Y3.87828
G01 X-6.33736 Y3.96530
G01 X-6.31303 Y4.04881
G01 X-6.29207 Y4.12880
G01 X-6.27450 Y4.20525
G01 X-6.26020 Y4.27860
G01 X-6.21177 Y4.55326
G01 X-6.20094 Y4.60717
G01 X-6.18915 Y4.65380
G01 X-6.17486 Y4.69950
G01 X-6.15853 Y4.74183
G01 X-6.15705 Y4.74527
G01 X-6.13864 Y4.78361
G01 X-6.12951 Y4.80000
G01 X-6.11880 Y4.81742
G01 X-6.10749 Y4.83398
G01 X-6.09556 Y4.84966
G01 X-6.08300 Y4.86446
G01 X-6.06981 Y4.87833
G01 X-6.06311 Y4.88417
G01 X-6.05548 Y4.88874
G01 X-6.03225 Y4.89984
G01 X-6.00617 Y4.91171
G01 X-5.99486 Y4.91776
G01 X-5.98876 Y4.91836
G01 X-5.97914 Y4.92028
G01 X-5.97908 Y4.92005
G01 X-5.97914 Y4.92028
G01 X-5.97305 Y4.92213
G01 X-5.96399 Y4.92588
G01 X-5.96389 Y4.92566
G01 X-5.96399 Y4.92588
G01 X-5.95837 Y4.92888
G01 X-5.95022 Y4.93433
G01 X-5.95008 Y4.93413
G01 X-5.95022 Y4.93433
G01 X-5.94530 Y4.93837
G01 X-5.93837 Y4.94530
G01 X-5.93828 Y4.94522
G01 X-5.93837 Y4.94530
G01 X-5.93433 Y4.95022
G01 X-5.93423 Y4.95016
G01 X-5.93433 Y4.95022
G01 X-5.92888 Y4.95837
G01 X-5.92588 Y4.96399
G01 X-5.92566 Y4.96389
G01 X-5.92588 Y4.96399
G01 X-5.92213 Y4.97305
G01 X-5.92028 Y4.97914
G01 X-5.92005 Y4.97908
G01 X-5.92028 Y4.97914
G01 X-5.91836 Y4.98876
G01 X-5.91776 Y4.99486
G01 X-5.91172 Y5.00618
G01 X-5.90984 Y5.01005
G01 X-5.90201 Y5.02899
G01 X-5.90051 Y5.03333
G01 X-5.89335 Y5.05693
G01 X-5.89203 Y5.06236
G01 X-5.88883 Y5.07655
G01 X-5.88529 Y5.09811
G01 X-5.88297 Y5.11709
G01 X-5.88155 Y5.13711
G01 X-5.88117 Y5.14446
G01 X-5.88056 Y5.17075
G01 X-5.88132 Y5.19855
G01 X-5.88242 Y5.21903
G01 X-5.88175 Y5.23059
G01 X-5.80345 Y5.67464
G01 X-5.79754 Y5.71136
G01 X-5.79262 Y5.74911
G01 X-5.57597 Y7.61485
G01 X-5.56028 Y7.62696
G01 X-5.57597 Y7.61485
G01 X-5.62570 Y7.62192
G01 X-5.61512 Y7.58493
G01 X-5.63126 Y7.57221
G04 P0 ( dwell for no time -- G64 should not smooth over this point )
G00 Z0.08000 ( retract )

G00 X-7.18225 Y7.32089 ( rapid move to begin. )
G01 F3.00000
( Mill infeed pass 1/1 )
G01 Z-0.00800
G04 P0 ( dwell for no time -- G64 should not smooth over this point )
G01 F6.00000
G01 X-7.18225 Y7.32089
G01 X-7.28018 Y7.11583
G01 X-7.42514 Y6.81100
G01 X-7.59685 Y6.62220
G01 X-7.88246 Y6.30679
G01 X-7.93085 Y6.25459
G01 X-7.97925 Y6.20477
G01 X-8.02764 Y6.15733
G01 X-8.07604 Y6.11227
G01 X-8.08241 Y6.10650
G01 X-8.12500 Y6.06882
G01 X-8.18609 Y6.01611
G01 X-8.21170 Y5.93171
G01 X-8.26667 Y5.74666
G01 X-8.28341 Y5.68142
G01 X-8.29704 Y5.61922
G01 X-8.32035 Y5.50200
G01 X-8.32632 Y5.46884
G01 X-8.33087 Y5.43661
G01 X-8.33400 Y5.40531
G01 X-8.33571 Y5.37494
G01 X-8.33691 Y5.33885
G01 X-8.33796 Y5.31861
G01 X-8.34569 Y5.20989
G01 X-8.34752 Y5.19057
G01 X-8.35024 Y5.17176
G01 X-8.37243 Y5.04216
G01 X-8.37547 Y5.01769
G01 X-8.37613 Y4.99319
G01 X-8.37441 Y4.96867
G01 X-8.37032 Y4.94412
G01 X-8.36772 Y4.93203
G01 X-8.36482 Y4.91651
G01 X-8.34829 Y4.81288
G01 X-8.34567 Y4.79327
G01 X-8.34398 Y4.77313
G01 X-8.33741 Y4.66375
G01 X-8.33411 Y4.60386
G01 X-8.32986 Y4.55567
G01 X-8.32229 Y4.50520
G01 X-8.30206 Y4.40784
G01 X-8.27648 Y4.29136
G01 X-8.25859 Y4.22262
G01 X-8.23747 Y4.15057
G01 X-8.12500 Y3.78610
G01 X-8.10387 Y3.71633
G01 X-8.00585 Y3.38675
G01 X-7.97314 Y3.27440
G01 X-7.94042 Y3.15733
G01 X-7.90771 Y3.03555
G01 X-7.87500 Y2.90906
G01 X-7.80123 Y2.61848
G01 X-7.93222 Y2.70125
G01 X-8.05750 Y2.78401
G01 X-8.20248 Y2.88203
G01 X-8.31209 Y2.95790
G01 X-8.41650 Y3.03376
G01 X-8.51571 Y3.10962
G01 X-8.56337 Y3.14756
G01 X-8.60973 Y3.18549
G01 X-8.72785 Y3.28350
G01 X-8.79214 Y3.33808
G01 X-8.85348 Y3.39265
G01 X-8.91188 Y3.44722
G01 X-8.96733 Y3.50179
G01 X-9.06428 Y3.59981
G01 X-9.10348 Y3.64034
G01 X-9.14087 Y3.68087
G01 X-9.17646 Y3.72140
G01 X-9.21026 Y3.76194
G01 X-9.28981 Y3.85995
G01 X-9.31430 Y3.89086
G01 X-9.33763 Y3.92176
G01 X-9.35979 Y3.95266
G01 X-9.38078 Y3.98356
G01 X-9.44550 Y4.08158
G01 X-9.47578 Y4.12985
G01 X-9.50284 Y4.17813
G01 X-9.54114 Y4.25073
G01 X-9.55719 Y4.28070
G01 X-9.57186 Y4.31068
G01 X-9.57653 Y4.32068
G01 X-9.58913 Y4.34905
G01 X-9.60048 Y4.37741
G01 X-9.63069 Y4.45149
G01 X-9.64281 Y4.48338
G01 X-9.65318 Y4.51527
G01 X-9.68233 Y4.61329
G01 X-9.68973 Y4.64058
G01 X-9.69572 Y4.66786
G01 X-9.71466 Y4.76588
G01 X-9.71877 Y4.79032
G01 X-9.72165 Y4.81475
G01 X-9.73077 Y4.91277
G01 X-9.73235 Y4.93588
G01 X-9.73279 Y4.95898
G01 X-9.73226 Y5.05700
G01 X-9.73156 Y5.08018
G01 X-9.72972 Y5.10336
G01 X-9.71953 Y5.20138
G01 X-9.71634 Y5.22605
G01 X-9.71191 Y5.25073
G01 X-9.69186 Y5.34875
G01 X-9.68546 Y5.37646
G01 X-9.67762 Y5.40416
G01 X-9.65426 Y5.47968
G01 X-9.64684 Y5.50440
G01 X-9.63837 Y5.52912
G01 X-9.63473 Y5.53912
G01 X-9.62475 Y5.56497
G01 X-9.61363 Y5.59083
G01 X-9.58233 Y5.66525
G01 X-9.56449 Y5.70483
G01 X-9.54425 Y5.74440
G01 X-9.49117 Y5.84242
G01 X-9.47415 Y5.87270
G01 X-9.45589 Y5.90298
G01 X-9.46775 Y5.94632
G01 X-9.46934 Y5.95270
G01 X-9.48012 Y6.00062
G01 X-9.48845 Y6.04854
G01 X-9.48940 Y6.05491
G01 X-9.49513 Y6.10128
G01 X-9.49856 Y6.14766
G01 X-9.49887 Y6.15403
G01 X-9.50000 Y6.20000
G01 X-9.49887 Y6.24597
G01 X-9.49856 Y6.25235
G01 X-9.49513 Y6.29872
G01 X-9.48940 Y6.34509
G01 X-9.48845 Y6.35146
G01 X-9.48012 Y6.39938
G01 X-9.46934 Y6.44730
G01 X-9.46775 Y6.45367
G01 X-9.45374 Y6.50415
G01 X-9.43704 Y6.55463
G01 X-9.43476 Y6.56100
G01 X-9.41376 Y6.61532
G01 X-9.38963 Y6.66964
G01 X-9.37195 Y6.70602
G01 X-9.35634 Y6.73602
G01 X-9.33977 Y6.76603
G01 X-9.31845 Y6.80242
G01 X-9.29746 Y6.83641
G01 X-9.27527 Y6.87041
G01 X-9.25187 Y6.90441
G01 X-9.22726 Y6.93841
G01 X-9.19239 Y6.98432
G01 X-9.16063 Y7.02386
G01 X-9.12723 Y7.06340
G01 X-9.08644 Y7.10931
G01 X-9.04205 Y7.15700
G01 X-8.99531 Y7.20468
G01 X-8.94622 Y7.25237
G01 X-8.88775 Y7.30642
G01 X-8.82015 Y7.36603
G01 X-8.74891 Y7.42563
G01 X-8.67402 Y7.48524
G01 X-8.59548 Y7.54484
G01 X-8.53321 Y7.59045
G01 X-8.47795 Y7.62969
G01 X-8.42112 Y7.66892
G01 X-8.36273 Y7.70816
G01 X-8.30276 Y7.74739
G01 X-8.24122 Y7.78663
G01 X-8.17811 Y7.82587
G01 X-8.11342 Y7.86510
G01 X-8.03071 Y7.91412
G01 X-7.95678 Y7.95678
G01 X-7.87841 Y7.93448
G01 X-7.80005 Y7.91054
G01 X-7.72169 Y7.88496
G01 X-7.63696 Y7.85545
G01 X-7.52928 Y7.81537
G01 X-7.42161 Y7.77219
G01 X-7.31394 Y7.72592
G01 X-7.20626 Y7.67655
G01 X-7.09696 Y7.62345
G01 X-7.14405 Y7.45343
G01 X-7.18225 Y7.32089
G01 X-7.13732 Y7.16401
G01 X-7.09518 Y7.01310
G01 X-7.05583 Y6.86815
G01 X-7.01925 Y6.72918
G01 X-6.98546 Y6.59618
G01 X-6.95445 Y6.46914
G01 X-6.92623 Y6.34807
G01 X-6.90079 Y6.23298
G01 X-6.87813 Y6.12385
G01 X-6.85826 Y6.02069
G01 X-6.84117 Y5.92350
G01 X-6.82686 Y5.83228
G01 X-6.81534 Y5.74702
G01 X-6.80660 Y5.66774
G01 X-6.80064 Y5.59442
G01 X-6.79747 Y5.52708
G01 X-6.78999 Y5.25688
G01 X-6.78891 Y5.23951
G01 X-6.78664 Y5.22234
G01 X-6.78318 Y5.20539
G01 X-6.77853 Y5.18865
G01 X-6.66818 Y4.83866
G01 X-6.66340 Y4.82211
G01 X-6.65939 Y4.80520
G01 X-6.65615 Y4.78793
G01 X-6.65368 Y4.77030
G01 X-6.65104 Y4.73397
G01 X-6.75108 Y4.73092
G01 X-6.75144 Y4.69935
G01 X-6.85031 Y2.77113
G01 X-6.84997 Y2.77107
G01 X-6.85031 Y2.77113
G01 X-6.92363 Y2.52155
G01 X-6.91605 Y2.51126
G01 X-6.92363 Y2.52155
G01 X-6.95934 Y2.52204
G01 X-7.06980 Y2.52618
G01 X-7.18027 Y2.53293
G01 X-7.20255 Y2.53482
G01 X-7.21505 Y2.52305
G01 X-7.20255 Y2.53482
G01 X-7.22526 Y3.47582
G01 X-7.23029 Y3.62367
G01 X-7.23796 Y3.76288
G01 X-7.24283 Y3.83011
G01 X-7.24827 Y3.89430
G01 X-7.25449 Y3.95795
G01 X-7.26140 Y4.01986
G01 X-7.26921 Y4.08155
G01 X-7.27754 Y4.14007
G01 X-7.28630 Y4.19515
G01 X-7.29600 Y4.25012
G01 X-7.30682 Y4.30530
G01 X-7.31756 Y4.35491
G01 X-7.32944 Y4.40475
G01 X-7.34236 Y4.45403
G01 X-7.37622 Y4.57704
G01 X-7.38645 Y4.61683
G01 X-7.39469 Y4.65449
G01 X-7.40119 Y4.69080
G01 X-7.40597 Y4.72574
G01 X-7.40905 Y4.75932
G01 X-7.41049 Y4.79151
G01 X-7.41033 Y4.82234
G01 X-7.40851 Y4.85322
G01 X-7.38341 Y5.14444
G01 X-7.37985 Y5.17707
G01 X-7.37460 Y5.21087
G01 X-7.33135 Y5.45616
G01 X-7.32435 Y5.49972
G01 X-7.31865 Y5.54289
G01 X-7.31400 Y5.58709
G01 X-7.31039 Y5.63233
G01 X-7.30782 Y5.67861
G01 X-7.30631 Y5.72376
G01 X-7.30573 Y5.77225
G01 X-7.30618 Y5.82278
G01 X-7.32471 Y6.78934
G01 X-7.32605 Y6.78963
G01 X-7.32471 Y6.78934
G01 X-7.20615 Y7.03865
G01 X-7.19787 Y7.13195
G01 X-7.20615 Y7.03865
G01 X-7.19160 Y6.98655
G01 X-7.15243 Y6.84233
G01 X-7.11607 Y6.70414
G01 X-7.08250 Y6.57201
G01 X-7.05173 Y6.44593
G01 X-7.02375 Y6.32593
G01 X-6.99857 Y6.21202
G01 X-6.97619 Y6.10422
G01 X-6.95661 Y6.00257
G01 X-6.93982 Y5.90709
G01 X-6.92582 Y5.81783
G01 X-6.91460 Y5.73484
G01 X-6.90615 Y5.65821
G01 X-6.90044 Y5.58802
G01 X-6.89740 Y5.52334
G01 X-6.89063 Y5.27865
G01 X-6.88485 Y5.27519
G01 X-6.88471 Y5.27537
G01 X-6.88485 Y5.27519
G01 X-6.87777 Y5.26885
G01 X-6.87760 Y5.26900
G01 X-6.87777 Y5.26885
G01 X-6.87201 Y5.26128
G01 X-6.87181 Y5.26140
G01 X-6.87201 Y5.26128
G01 X-6.86779 Y5.25277
G01 X-6.86758 Y5.25285
G01 X-6.86779 Y5.25277
G01 X-6.86520 Y5.24362
G01 X-6.82027 Y4.98846
G01 X-6.76392 Y4.80975
G01 X-6.76012 Y4.79670
G01 X-6.75721 Y4.78444
G01 X-6.75486 Y4.77175
G01 X-6.75312 Y4.75973
G01 X-6.75108 Y4.73092
G01 X-6.70106 Y4.73245
G01 X-6.70338 Y4.76502
G01 X-6.70551 Y4.77984
G01 X-6.70829 Y4.79482
G01 X-6.71174 Y4.80941
G01 X-6.71605 Y4.82421
G01 X-6.82622 Y5.17362
G01 X-6.83136 Y5.19201
G01 X-6.83217 Y5.19539
G01 X-6.83563 Y5.21235
G01 X-6.83621 Y5.21579
G01 X-6.83848 Y5.23295
G01 X-6.83882 Y5.23641
G01 X-6.83997 Y5.25549
G01 X-6.84743 Y5.52521
G01 X-6.85054 Y5.59122
G01 X-6.85637 Y5.66297
G01 X-6.86497 Y5.74093
G01 X-6.87634 Y5.82505
G01 X-6.89049 Y5.91529
G01 X-6.90743 Y6.01163
G01 X-6.92716 Y6.11404
G01 X-6.94968 Y6.22250
G01 X-6.97499 Y6.33700
G01 X-7.00309 Y6.45754
G01 X-7.03398 Y6.58409
G01 X-7.06766 Y6.71666
G01 X-7.10413 Y6.85524
G01 X-7.14339 Y6.99982
G01 X-7.18544 Y7.15040
G01 X-7.19399 Y7.18028
G01 X-7.18611 Y7.27232
G01 X-7.19399 Y7.18028
G01 X-7.23503 Y7.09433
G01 X-7.37493 Y6.80017
G01 X-7.37627 Y6.80046
G01 X-7.37493 Y6.80017
G01 X-7.35617 Y5.82182
G01 X-7.35572 Y5.77282
G01 X-7.35626 Y5.72652
G01 X-7.35779 Y5.68027
G01 X-7.36031 Y5.63514
G01 X-7.36384 Y5.59110
G01 X-7.36837 Y5.54815
G01 X-7.37392 Y5.50631
G01 X-7.38059 Y5.46484
G01 X-7.42394 Y5.21903
G01 X-7.42943 Y5.18363
G01 X-7.43318 Y5.14931
G01 X-7.45838 Y4.85682
G01 X-7.46032 Y4.82393
G01 X-7.46050 Y4.79053
G01 X-7.45895 Y4.75591
G01 X-7.45566 Y4.72007
G01 X-7.45059 Y4.68302
G01 X-7.44374 Y4.64474
G01 X-7.43510 Y4.60526
G01 X-7.42454 Y4.56418
G01 X-7.39057 Y4.44076
G01 X-7.37807 Y4.39314
G01 X-7.36643 Y4.34432
G01 X-7.35569 Y4.29472
G01 X-7.34524 Y4.24141
G01 X-7.33568 Y4.18730
G01 X-7.32692 Y4.13222
G01 X-7.31860 Y4.07375
G01 X-7.31109 Y4.01431
G01 X-7.30433 Y3.95377
G01 X-7.29809 Y3.89007
G01 X-7.29265 Y3.82589
G01 X-7.28783 Y3.75927
G01 X-7.28022 Y3.62092
G01 X-7.27525 Y3.47461
G01 X-7.25145 Y2.48878
G01 X-7.26395 Y2.47702
G01 X-7.25145 Y2.48878
G01 X-7.18391 Y2.48306
G01 X-7.07226 Y2.47624
G01 X-6.96063 Y2.47205
G01 X-6.88636 Y2.47103
G01 X-6.87877 Y2.46074
G01 X-6.88636 Y2.47103
G01 X-6.80067 Y2.76269
G01 X-6.80033 Y2.76263
G01 X-6.80067 Y2.76269
G01 X-6.70145 Y4.69778
G01 X-6.70106 Y4.73245
G01 X-6.65104 Y4.73397
G01 X-6.65148 Y4.69621
G01 X-6.75104 Y2.75425
G01 X-6.62030 Y3.35133
G01 X-6.55161 Y4.69109
G01 X-6.55105 Y4.73282
G01 X-6.55130 Y4.74122
G01 X-6.55394 Y4.77755
G01 X-6.55465 Y4.78419
G01 X-6.55712 Y4.80182
G01 X-6.56111 Y4.82364
G01 X-6.56610 Y4.84518
G01 X-6.57281 Y4.86873
G01 X-6.62952 Y5.04860
G01 X-6.70983 Y5.22069
G01 X-6.71303 Y5.22996
G01 X-6.71326 Y5.22990
G01 X-6.71303 Y5.22996
G01 X-6.71441 Y5.23966
G01 X-6.71466 Y5.23965
G01 X-6.71441 Y5.23966
G01 X-6.71388 Y5.24945
G01 X-6.71412 Y5.24949
G01 X-6.71388 Y5.24945
G01 X-6.71145 Y5.25894
G01 X-6.71167 Y5.25903
G01 X-6.71145 Y5.25894
G01 X-6.70721 Y5.26778
G01 X-6.70742 Y5.26791
G01 X-6.70721 Y5.26778
G01 X-6.70133 Y5.27562
G01 X-6.70151 Y5.27579
G01 X-6.70133 Y5.27562
G01 X-6.69403 Y5.28217
G01 X-6.69417 Y5.28236
G01 X-6.69403 Y5.28217
G01 X-6.69071 Y5.28413
G01 X-6.69758 Y5.53178
G01 X-6.70097 Y5.60252
G01 X-6.70720 Y5.67870
G01 X-6.71594 Y5.75798
G01 X-6.72807 Y5.84777
G01 X-6.74268 Y5.94081
G01 X-6.76006 Y6.03960
G01 X-6.78022 Y6.14417
G01 X-6.80288 Y6.25330
G01 X-6.82884 Y6.37078
G01 X-6.85731 Y6.49285
G01 X-6.88831 Y6.61989
G01 X-6.92255 Y6.75463
G01 X-6.95932 Y6.89436
G01 X-6.99868 Y7.03930
G01 X-7.04101 Y7.19090
G01 X-7.07820 Y7.32080
G01 X-7.08023 Y7.32080
G01 X-7.07820 Y7.32080
G01 X-7.04796 Y7.42574
G01 X-7.01727 Y7.53651
G01 X-7.02333 Y7.54312
G01 X-7.01727 Y7.53651
G01 X-6.98127 Y7.54318
G01 X-6.88485 Y7.55894
G01 X-6.78845 Y7.57260
G01 X-6.69207 Y7.58414
G01 X-6.59570 Y7.59359
G01 X-6.49935 Y7.60092
G01 X-6.40300 Y7.60616
G01 X-6.30666 Y7.60929
G01 X-6.21033 Y7.61032
G01 X-6.11399 Y7.60925
G01 X-6.01765 Y7.60607
G01 X-5.92131 Y7.60080
G01 X-5.82496 Y7.59342
G01 X-5.72859 Y7.58393
G01 X-5.63126 Y7.57221
G01 X-5.84224 Y5.75523
G01 X-5.84703 Y5.71857
G01 X-5.85275 Y5.68295
G01 X-5.93099 Y5.23927
G01 X-5.93234 Y5.21617
G01 X-5.93129 Y5.19667
G01 X-5.93058 Y5.17066
G01 X-5.93116 Y5.14625
G01 X-5.93145 Y5.14013
G01 X-5.93276 Y5.12192
G01 X-5.93485 Y5.10480
G01 X-5.93790 Y5.08624
G01 X-5.94157 Y5.07024
G01 X-5.94445 Y5.06079
G01 X-5.93837 Y5.05470
G01 X-5.93433 Y5.04978
G01 X-5.93414 Y5.04992
G01 X-5.93433 Y5.04978
G01 X-5.92888 Y5.04162
G01 X-5.92588 Y5.03601
G01 X-5.92566 Y5.03611
G01 X-5.92588 Y5.03601
G01 X-5.92213 Y5.02695
G01 X-5.92028 Y5.02085
G01 X-5.92004 Y5.02091
G01 X-5.92028 Y5.02085
G01 X-5.91836 Y5.01124
G01 X-5.91774 Y5.00490
G01 X-5.91750 Y5.00491
G01 X-5.91774 Y5.00490
G01 X-5.91774 Y4.99510
G01 X-5.91836 Y4.98876
G01 X-5.92028 Y4.97914
G01 X-5.92213 Y4.97305
G01 X-5.92588 Y4.96399
G01 X-5.92888 Y4.95837
G01 X-5.93433 Y4.95022
G01 X-5.93837 Y4.94530
G01 X-5.94530 Y4.93837
G01 X-5.95022 Y4.93433
G01 X-5.95837 Y4.92888
G01 X-5.96399 Y4.92588
G01 X-5.97305 Y4.92213
G01 X-5.97914 Y4.92028
G01 X-5.98876 Y4.91836
G01 X-5.99510 Y4.91774
G01 X-6.00490 Y4.91774
G01 X-6.00490 Y4.91762
G01 X-6.00490 Y4.91774
G01 X-6.01124 Y4.91836
G01 X-6.01126 Y4.91825
G01 X-6.01124 Y4.91836
G01 X-6.02085 Y4.92028
G01 X-6.02695 Y4.92213
G01 X-6.02701 Y4.92194
G01 X-6.02695 Y4.92213
G01 X-6.03601 Y4.92588
G01 X-6.03817 Y4.92703
G01 X-6.13306 Y4.88279
G01 X-6.14568 Y4.86645
G01 X-6.14870 Y4.86230
G01 X-6.15869 Y4.84776
G01 X-6.16133 Y4.84371
G01 X-6.17319 Y4.82433
G01 X-6.18232 Y4.80794
G01 X-6.18521 Y4.80235
G01 X-6.20217 Y4.76680
G01 X-6.20514 Y4.75993
G01 X-6.22038 Y4.72069
G01 X-6.22255 Y4.71451
G01 X-6.23606 Y4.67157
G01 X-6.23763 Y4.66606
G01 X-6.24941 Y4.61942
G01 X-6.25052 Y4.61452
G01 X-6.26101 Y4.56194
G01 X-6.30936 Y4.28773
G01 X-6.32341 Y4.21564
G01 X-6.34063 Y4.14074
G01 X-6.36122 Y4.06214
G01 X-6.38519 Y3.97988
G01 X-6.41256 Y3.89400
G01 X-6.44332 Y3.80453
G01 X-6.47748 Y3.71148
G01 X-6.51522 Y3.61449
G01 X-6.62030 Y3.35133
G04 P0 ( dwell for no time -- G64 should not smooth over this point )
G00 Z0.08000 ( retract )

G00 X-8.65157 Y5.03048 ( rapid move to begin. )
G01 F3.00000
( Mill infeed pass 1/1 )
G01 Z-0.00800
G04 P0 ( dwell for no time -- G64 should not smooth over this point )
G01 F6.00000
G01 X-8.65157 Y5.03048
G01 X-8.65232 Y4.96192
G01 X-8.66643 Y4.89482
G01 X-8.69336 Y4.83177
G01 X-8.70087 Y4.82079
G01 X-8.91774 Y5.00277
G01 X-8.91774 Y5.00490
G01 X-8.91844 Y5.01163
G01 X-8.73653 Y5.22843
G01 X-8.72723 Y5.21892
G01 X-8.68976 Y5.16150
G01 X-8.66421 Y5.09787
G01 X-8.65157 Y5.03048
G01 X-8.70162 Y5.02610
G01 X-8.70226 Y4.96739
G01 X-8.71435 Y4.90993
G01 X-8.71829 Y4.90069
G01 X-8.85207 Y5.01294
G01 X-8.73982 Y5.14672
G01 X-8.73433 Y5.13830
G01 X-8.71245 Y5.08381
G01 X-8.70162 Y5.02610
G01 X-8.75167 Y5.02172
G01 X-8.75675 Y5.04876
G01 X-8.78163 Y5.01910
G01 X-8.75197 Y4.99422
G01 X-8.75167 Y5.02172
G04 P0 ( dwell for no time -- G64 should not smooth over this point )
G00 Z0.08000 ( retract )

G00 X-8.77157 Y4.73653 ( rapid move to begin. )
G01 F3.00000
( Mill infeed pass 1/1 )
G01 Z-0.00800
G04 P0 ( dwell for no time -- G64 should not smooth over this point )
G01 F6.00000
G01 X-8.77157 Y4.73653
G01 X-8.78108 Y4.72723
G01 X-8.83850 Y4.68976
G01 X-8.90213 Y4.66421
G01 X-8.96952 Y4.65157
G01 X-9.03808 Y4.65232
G01 X-9.10517 Y4.66643
G01 X-9.16823 Y4.69336
G01 X-9.17920 Y4.70087
G01 X-8.99723 Y4.91774
G01 X-8.99510 Y4.91774
G01 X-8.98837 Y4.91844
G01 X-8.77157 Y4.73653
G01 X-8.85328 Y4.73982
G01 X-8.86170 Y4.73433
G01 X-8.91619 Y4.71245
G01 X-8.97390 Y4.70162
G01 X-9.03261 Y4.70226
G01 X-9.09007 Y4.71435
G01 X-9.09931 Y4.71829
G01 X-8.98706 Y4.85207
G01 X-8.85328 Y4.73982
G01 X-8.95124 Y4.75675
G01 X-8.97827 Y4.75167
G01 X-9.00578 Y4.75197
G01 X-8.98090 Y4.78163
G01 X-8.95124 Y4.75675
G04 P0 ( dwell for no time -- G64 should not smooth over this point )
G00 Z0.08000 ( retract )

G00 X-9.08156 Y4.98837 ( rapid move to begin. )
G01 F3.00000
( Mill infeed pass 1/1 )
G01 Z-0.00800
G04 P0 ( dwell for no time -- G64 should not smooth over this point )
G01 F6.00000
G01 X-9.08156 Y4.98837
G01 X-9.08226 Y4.99510
G01 X-9.08226 Y4.99723
G01 X-9.29913 Y5.17920
G01 X-9.30664 Y5.16823
G01 X-9.33357 Y5.10517
G01 X-9.34768 Y5.03808
G01 X-9.34843 Y4.96952
G01 X-9.33578 Y4.90213
G01 X-9.31024 Y4.83850
G01 X-9.27277 Y4.78108
G01 X-9.26347 Y4.77157
G01 X-9.08156 Y4.98837
G01 X-9.14793 Y4.98706
G01 X-9.26018 Y4.85328
G01 X-9.26567 Y4.86170
G01 X-9.28755 Y4.91619
G01 X-9.29838 Y4.97389
G01 X-9.29773 Y5.03261
G01 X-9.28565 Y5.09007
G01 X-9.28171 Y5.09931
G01 X-9.14793 Y4.98706
G01 X-9.21837 Y4.98090
G01 X-9.24803 Y5.00578
G01 X-9.24832 Y4.97827
G01 X-9.24325 Y4.95124
G01 X-9.21837 Y4.98090
G04 P0 ( dwell for no time -- G64 should not smooth over this point )
G00 Z0.08000 ( retract )

G00 X-8.99422 Y5.24803 ( rapid move to begin. )
G01 F3.00000
( Mill infeed pass 1/1 )
G01 Z-0.00800
G04 P0 ( dwell for no time -- G64 should not smooth over this point )
G01 F6.00000
G01 X-8.99422 Y5.24803
G01 X-9.01910 Y5.21837
G01 X-9.04876 Y5.24325
G01 X-9.02172 Y5.24833
G01 X-8.99422 Y5.24803
G01 X-8.90069 Y5.28170
G01 X-9.01294 Y5.14793
G01 X-9.14672 Y5.26018
G01 X-9.13830 Y5.26567
G01 X-9.08381 Y5.28755
G01 X-9.02610 Y5.29838
G01 X-8.96739 Y5.29774
G01 X-8.90993 Y5.28565
G01 X-8.90069 Y5.28170
G01 X-8.82079 Y5.29913
G01 X-9.00277 Y5.08226
G01 X-9.00490 Y5.08226
G01 X-9.01163 Y5.08156
G01 X-9.22843 Y5.26347
G01 X-9.21892 Y5.27277
G01 X-9.16150 Y5.31024
G01 X-9.09787 Y5.33578
G01 X-9.03048 Y5.34843
G01 X-8.96192 Y5.34768
G01 X-8.89483 Y5.33357
G01 X-8.83177 Y5.30664
G01 X-8.82079 Y5.29913
G04 P0 ( dwell for no time -- G64 should not smooth over this point )
G00 Z0.08000 ( retract )

G00 X-9.45589 Y5.90298 ( rapid move to begin. )
G01 F3.00000
( Mill infeed pass 1/1 )
G01 Z-0.00800
G04 P0 ( dwell for no time -- G64 should not smooth over this point )
G01 F6.00000
G01 X-9.45589 Y5.90298
G01 X-9.41029 Y5.89039
G01 X-9.38907 Y5.88474
G01 X-9.38142 Y5.88278
G01 X-9.33737 Y5.87244
G01 X-9.29416 Y5.86421
G01 X-9.20921 Y5.84940
G01 X-9.18584 Y5.84562
G01 X-9.14930 Y5.84089
G01 X-9.11311 Y5.83800
G01 X-9.03287 Y5.83356
G01 X-8.99999 Y5.83257
G01 X-8.96710 Y5.83320
G01 X-8.94188 Y5.83456
G01 X-8.89355 Y5.83803
G01 X-8.87359 Y5.83930
G01 X-8.84395 Y5.84176
G01 X-8.81406 Y5.84543
G01 X-8.80734 Y5.84639
G01 X-8.77066 Y5.85250
G01 X-8.72586 Y5.86101
G01 X-8.68219 Y5.86899
G01 X-8.65052 Y5.87526
G01 X-8.61065 Y5.88452
G01 X-8.56363 Y5.89703
G01 X-8.48322 Y5.92011
G01 X-8.41726 Y5.93867
G01 X-8.36636 Y5.95372
G01 X-8.31420 Y5.97062
G01 X-8.27681 Y5.98401
G01 X-8.18609 Y6.01611
G04 P0 ( dwell for no time -- G64 should not smooth over this point )
G00 Z0.08000 ( retract )

G00 X-7.42514 Y6.81100 ( rapid move to begin. )
G01 F3.00000
( Mill infeed pass 1/1 )
G01 Z-0.00800
G04 P0 ( dwell for no time -- G64 should not smooth over this point )
G01 F6.00000
G01 X-7.42514 Y6.81100
G01 X-7.40616 Y5.82086
G01 X-7.40572 Y5.77340
G01 X-7.40626 Y5.72709
G01 X-7.40776 Y5.68194
G01 X-7.41024 Y5.63794
G01 X-7.41368 Y5.59510
G01 X-7.41809 Y5.55342
G01 X-7.42348 Y5.51289
G01 X-7.42983 Y5.47352
G01 X-7.47327 Y5.22719
G01 X-7.47900 Y5.19018
G01 X-7.48294 Y5.15419
G01 X-7.50826 Y4.86043
G01 X-7.51030 Y4.82552
G01 X-7.51049 Y4.78955
G01 X-7.50883 Y4.75251
G01 X-7.50533 Y4.71440
G01 X-7.49998 Y4.67523
G01 X-7.49279 Y4.63499
G01 X-7.48375 Y4.59369
G01 X-7.47286 Y4.55132
G01 X-7.43878 Y4.42749
G01 X-7.42671 Y4.38153
G01 X-7.41530 Y4.33374
G01 X-7.40455 Y4.28413
G01 X-7.39447 Y4.23270
G01 X-7.38506 Y4.17945
G01 X-7.37630 Y4.12437
G01 X-7.36821 Y4.06748
G01 X-7.36078 Y4.00876
G01 X-7.35402 Y3.94822
G01 X-7.34792 Y3.88585
G01 X-7.34248 Y3.82167
G01 X-7.33770 Y3.75566
G01 X-7.33014 Y3.61818
G01 X-7.32523 Y3.47341
G01 X-7.30036 Y2.44275
G01 X-7.37103 Y2.43473
G01 X-7.37630 Y2.48445
G01 X-7.44624 Y2.47755
G01 X-7.51617 Y2.47169
G01 X-7.56543 Y2.46830
G01 X-7.56685 Y2.46420
G01 X-7.56543 Y2.46830
G01 X-7.60588 Y2.50445
G01 X-7.66063 Y2.55445
G01 X-7.71416 Y2.60445
G01 X-7.75630 Y2.64470
G01 X-7.75807 Y2.64366
G01 X-7.75630 Y2.64470
G01 X-7.82654 Y2.92137
G01 X-7.85930 Y3.04807
G01 X-7.89214 Y3.17030
G01 X-7.92498 Y3.28785
G01 X-7.95792 Y3.40100
G01 X-8.05601 Y3.73082
G01 X-8.07715 Y3.80060
G01 X-8.18959 Y4.16497
G01 X-8.21040 Y4.23595
G01 X-8.22785 Y4.30302
G01 X-8.25319 Y4.41842
G01 X-8.27307 Y4.51397
G01 X-8.28021 Y4.56157
G01 X-8.28423 Y4.60743
G01 X-8.28749 Y4.66662
G01 X-8.29407 Y4.77613
G01 X-8.29584 Y4.79746
G01 X-8.29891 Y4.82075
G01 X-8.31544 Y4.92439
G01 X-8.31857 Y4.94122
G01 X-8.32119 Y4.95350
G01 X-8.32478 Y4.97453
G01 X-8.32614 Y4.99427
G01 X-8.32561 Y5.01393
G01 X-8.32297 Y5.03482
G01 X-8.30096 Y5.16334
G01 X-8.29774 Y5.18584
G01 X-8.29581 Y5.20634
G01 X-8.28809 Y5.31507
G01 X-8.28694 Y5.33719
G01 X-8.28576 Y5.37270
G01 X-8.28416 Y5.40142
G01 X-8.28123 Y5.43063
G01 X-8.27694 Y5.46091
G01 X-8.27122 Y5.49269
G01 X-8.24809 Y5.60900
G01 X-8.23476 Y5.66985
G01 X-8.21847 Y5.73332
G01 X-8.16380 Y5.91739
G01 X-8.14247 Y5.98770
G01 X-8.14420 Y5.98881
G01 X-8.14247 Y5.98770
G01 X-8.09187 Y6.03137
G01 X-8.04928 Y6.06905
G01 X-8.04197 Y6.07568
G01 X-7.99264 Y6.12162
G01 X-7.94338 Y6.16993
G01 X-7.89499 Y6.21975
G01 X-7.84541 Y6.27321
G01 X-7.55980 Y6.58862
G01 X-7.47272 Y6.68437
G01 X-7.44270 Y6.76449
G01 X-7.47272 Y6.68437
G01 X-7.45615 Y5.82015
G01 X-7.45572 Y5.77346
G01 X-7.45624 Y5.72821
G01 X-7.45771 Y5.68418
G01 X-7.46012 Y5.64135
G01 X-7.46346 Y5.59974
G01 X-7.46774 Y5.55935
G01 X-7.47295 Y5.52017
G01 X-7.47914 Y5.48185
G01 X-7.52251 Y5.23588
G01 X-7.52870 Y5.19563
G01 X-7.53276 Y5.15848
G01 X-7.55807 Y4.86472
G01 X-7.56029 Y4.82579
G01 X-7.56044 Y4.78732
G01 X-7.55862 Y4.74794
G01 X-7.55487 Y4.70764
G01 X-7.54920 Y4.66643
G01 X-7.54164 Y4.62430
G01 X-7.53218 Y4.58125
G01 X-7.52129 Y4.53888
G01 X-7.48706 Y4.41451
G01 X-7.47521 Y4.36937
G01 X-7.46405 Y4.32264
G01 X-7.45352 Y4.27403
G01 X-7.44363 Y4.22354
G01 X-7.43437 Y4.17117
G01 X-7.42574 Y4.11693
G01 X-7.41777 Y4.06082
G01 X-7.41043 Y4.00284
G01 X-7.40374 Y3.94300
G01 X-7.39771 Y3.88131
G01 X-7.39232 Y3.81775
G01 X-7.38760 Y3.75248
G01 X-7.38009 Y3.61596
G01 X-7.37521 Y3.47196
G01 X-7.35145 Y2.48727
G01 X-7.33786 Y2.47530
G01 X-7.35145 Y2.48727
G01 X-7.37630 Y2.48445
G01 X-7.38889 Y2.52003
G01 X-7.40254 Y2.53210
G01 X-7.45078 Y2.52734
G01 X-7.51997 Y2.52155
G01 X-7.54784 Y2.51963
G01 X-7.54928 Y2.51540
G01 X-7.54784 Y2.51963
G01 X-7.57236 Y2.54155
G01 X-7.62671 Y2.59118
G01 X-7.67983 Y2.64080
G01 X-7.71137 Y2.67093
G01 X-7.71315 Y2.66988
G01 X-7.71137 Y2.67093
G01 X-7.77807 Y2.93367
G01 X-7.81090 Y3.06059
G01 X-7.84411 Y3.18425
G01 X-7.87683 Y3.30131
G01 X-7.90984 Y3.41470
G01 X-8.00816 Y3.74532
G01 X-8.02929 Y3.81509
G01 X-8.14170 Y4.17938
G01 X-8.16220 Y4.24929
G01 X-8.17922 Y4.31468
G01 X-8.20432 Y4.42899
G01 X-8.22382 Y4.52275
G01 X-8.23054 Y4.56748
G01 X-8.23435 Y4.61099
G01 X-8.23758 Y4.66974
G01 X-8.24416 Y4.77913
G01 X-8.24602 Y4.80164
G01 X-8.24655 Y4.80652
G01 X-8.24953 Y4.82863
G01 X-8.26508 Y4.92613
G01 X-8.29336 Y4.97497
G01 X-8.29755 Y4.98455
G01 X-8.29781 Y4.98446
G01 X-8.29755 Y4.98455
G01 X-8.29973 Y4.99477
G01 X-8.30000 Y4.99474
G01 X-8.29973 Y4.99477
G01 X-8.29973 Y5.00523
G01 X-8.30000 Y5.00526
G01 X-8.29973 Y5.00523
G01 X-8.29755 Y5.01545
G01 X-8.29781 Y5.01553
G01 X-8.29755 Y5.01545
G01 X-8.29336 Y5.02503
G01 X-8.26568 Y5.07283
G01 X-8.25167 Y5.15493
G01 X-8.24855 Y5.17624
G01 X-8.24797 Y5.18111
G01 X-8.24594 Y5.20280
G01 X-8.23810 Y5.31342
G01 X-8.23697 Y5.33552
G01 X-8.23580 Y5.37047
G01 X-8.23430 Y5.39753
G01 X-8.23157 Y5.42464
G01 X-8.22757 Y5.45298
G01 X-8.22209 Y5.48338
G01 X-8.19915 Y5.59877
G01 X-8.18611 Y5.65828
G01 X-8.17027 Y5.71999
G01 X-8.11589 Y5.90307
G01 X-8.09886 Y5.95930
G01 X-8.10057 Y5.96040
G01 X-8.09886 Y5.95930
G01 X-8.05874 Y5.99392
G01 X-8.01525 Y6.03241
G01 X-8.00790 Y6.03908
G01 X-7.95950 Y6.08414
G01 X-7.90752 Y6.13509
G01 X-7.85752 Y6.18660
G01 X-7.80836 Y6.23963
G01 X-7.52030 Y6.55774
G01 X-7.49027 Y6.63794
G01 X-7.52030 Y6.55774
G01 X-7.50615 Y5.81945
G01 X-7.50572 Y5.77352
G01 X-7.50623 Y5.72933
G01 X-7.50766 Y5.68641
G01 X-7.51001 Y5.64476
G01 X-7.51325 Y5.60438
G01 X-7.51739 Y5.56527
G01 X-7.52242 Y5.52745
G01 X-7.52844 Y5.49017
G01 X-7.57175 Y5.24456
G01 X-7.57840 Y5.20108
G01 X-7.58257 Y5.16277
G01 X-7.60789 Y4.86902
G01 X-7.61013 Y4.83135
G01 X-7.61029 Y4.82606
G01 X-7.61049 Y4.79008
G01 X-7.61039 Y4.78509
G01 X-7.60841 Y4.74336
G01 X-7.60441 Y4.70088
G01 X-7.59842 Y4.65763
G01 X-7.59048 Y4.61361
G01 X-7.58061 Y4.56880
G01 X-7.56972 Y4.52643
G01 X-7.53535 Y4.40152
G01 X-7.52371 Y4.35721
G01 X-7.51281 Y4.31154
G01 X-7.50249 Y4.26393
G01 X-7.49278 Y4.21438
G01 X-7.48368 Y4.16289
G01 X-7.47519 Y4.10948
G01 X-7.46732 Y4.05416
G01 X-7.46008 Y3.99693
G01 X-7.45347 Y3.93779
G01 X-7.44750 Y3.87676
G01 X-7.44217 Y3.81384
G01 X-7.43750 Y3.74931
G01 X-7.43004 Y3.61374
G01 X-7.42519 Y3.47051
G01 X-7.40254 Y2.53210
G04 P0 ( dwell for no time -- G64 should not smooth over this point )
G00 Z0.08000 ( retract )

G00 X-7.96060 Y2.83985 ( rapid move to begin. )
G01 F3.00000
( Mill infeed pass 1/1 )
G01 Z-0.00800
G04 P0 ( dwell for no time -- G64 should not smooth over this point )
G01 F6.00000
G01 X-7.96060 Y2.83985
G01 X-8.00193 Y2.86715
G01 X-8.14601 Y2.96457
G01 X-8.25423 Y3.03947
G01 X-8.35673 Y3.11394
G01 X-8.45420 Y3.18847
G01 X-8.50057 Y3.22538
G01 X-8.54614 Y3.26266
G01 X-8.66356 Y3.36010
G01 X-8.72654 Y3.41356
G01 X-8.78610 Y3.46655
G01 X-8.84266 Y3.51940
G01 X-8.89671 Y3.57259
G01 X-8.99279 Y3.66973
G01 X-9.03077 Y3.70901
G01 X-9.06654 Y3.74778
G01 X-9.10048 Y3.78643
G01 X-9.13303 Y3.82547
G01 X-9.21180 Y3.92252
G01 X-9.23520 Y3.95205
G01 X-9.25708 Y3.98103
G01 X-9.27778 Y4.00990
G01 X-9.29769 Y4.03921
G01 X-9.36141 Y4.13570
G01 X-9.38976 Y4.18089
G01 X-9.41499 Y4.22592
G01 X-9.45269 Y4.29738
G01 X-9.46818 Y4.32630
G01 X-9.48163 Y4.35379
G01 X-9.48551 Y4.36212
G01 X-9.49698 Y4.38793
G01 X-9.50788 Y4.41517
G01 X-9.53764 Y4.48815
G01 X-9.54848 Y4.51662
G01 X-9.55769 Y4.54498
G01 X-9.58614 Y4.64064
G01 X-9.59260 Y4.66439
G01 X-9.59777 Y4.68806
G01 X-9.61625 Y4.78366
G01 X-9.61976 Y4.80448
G01 X-9.62220 Y4.82525
G01 X-9.63109 Y4.92081
G01 X-9.63243 Y4.94025
G01 X-9.63279 Y4.95967
G01 X-9.63227 Y5.05522
G01 X-9.63173 Y5.07472
G01 X-9.63013 Y5.09423
G01 X-9.62019 Y5.18980
G01 X-9.61749 Y5.21081
G01 X-9.61370 Y5.23187
G01 X-9.59414 Y5.32748
G01 X-9.58859 Y5.35158
G01 X-9.58173 Y5.37576
G01 X-9.55873 Y5.45013
G01 X-9.55162 Y5.47380
G01 X-9.54408 Y5.49580
G01 X-9.54109 Y5.50401
G01 X-9.53214 Y5.52721
G01 X-9.52145 Y5.55206
G01 X-9.49064 Y5.62531
G01 X-9.47435 Y5.66150
G01 X-9.45575 Y5.69782
G01 X-9.40783 Y5.78632
G01 X-9.41313 Y5.79814
G01 X-9.40783 Y5.78632
G01 X-9.36022 Y5.77509
G01 X-9.31287 Y5.76597
G01 X-9.22548 Y5.75073
G01 X-9.19868 Y5.74645
G01 X-9.16214 Y5.74172
G01 X-9.15725 Y5.74121
G01 X-9.11856 Y5.73815
G01 X-9.03832 Y5.73370
G01 X-9.00299 Y5.73262
G01 X-8.99808 Y5.73259
G01 X-8.96274 Y5.73329
G01 X-8.93613 Y5.73473
G01 X-8.88663 Y5.73827
G01 X-8.86534 Y5.73964
G01 X-8.83570 Y5.74210
G01 X-8.80185 Y5.74618
G01 X-8.79321 Y5.74739
G01 X-8.75423 Y5.75386
G01 X-8.70738 Y5.76274
G01 X-8.66429 Y5.77060
G01 X-8.62817 Y5.77778
G01 X-8.58689 Y5.78738
G01 X-8.53792 Y5.80039
G01 X-8.45576 Y5.82395
G01 X-8.39021 Y5.84240
G01 X-8.33796 Y5.85784
G01 X-8.29919 Y5.89655
G01 X-8.33796 Y5.85784
G01 X-8.36253 Y5.77513
G01 X-8.38110 Y5.70281
G01 X-8.39512 Y5.63873
G01 X-8.41843 Y5.52150
G01 X-8.42534 Y5.48283
G01 X-8.42989 Y5.45060
G01 X-8.43351 Y5.41526
G01 X-8.43555 Y5.38055
G01 X-8.43683 Y5.34311
G01 X-8.43778 Y5.32475
G01 X-8.44535 Y5.21816
G01 X-8.44679 Y5.20246
G01 X-8.44903 Y5.18734
G01 X-8.46283 Y5.10649
G01 X-8.45270 Y5.05281
G01 X-8.45185 Y5.04303
G01 X-8.45291 Y4.94502
G01 X-8.45398 Y4.93527
G01 X-8.46259 Y4.89463
G01 X-8.44724 Y4.79838
G01 X-8.44505 Y4.78247
G01 X-8.44373 Y4.76595
G01 X-8.43723 Y4.65788
G01 X-8.43396 Y4.59837
G01 X-8.42947 Y4.54689
G01 X-8.42875 Y4.54083
G01 X-8.42118 Y4.49036
G01 X-8.42022 Y4.48495
G01 X-8.39986 Y4.38699
G01 X-8.37416 Y4.26992
G01 X-8.35537 Y4.19743
G01 X-8.33302 Y4.12108
G01 X-8.22063 Y3.75686
G01 X-8.19964 Y3.68758
G01 X-8.10178 Y3.35852
G01 X-8.06930 Y3.24696
G01 X-8.03687 Y3.13090
G01 X-8.00441 Y3.01006
G01 X-7.97187 Y2.88424
G01 X-7.96060 Y2.83985
G01 X-7.90930 Y2.76765
G01 X-7.90508 Y2.74324
G01 X-7.88055 Y2.72774
G01 X-7.92343 Y2.89665
G01 X-7.95606 Y3.02281
G01 X-7.98865 Y3.14412
G01 X-8.02122 Y3.26068
G01 X-8.05382 Y3.37263
G01 X-8.15175 Y3.70195
G01 X-8.17281 Y3.77148
G01 X-8.28545 Y4.13650
G01 X-8.30657 Y4.20855
G01 X-8.32487 Y4.27877
G01 X-8.35096 Y4.39742
G01 X-8.37125 Y4.49507
G01 X-8.37931 Y4.54825
G01 X-8.38403 Y4.60112
G01 X-8.38732 Y4.66081
G01 X-8.39385 Y4.76954
G01 X-8.39536 Y4.78787
G01 X-8.39776 Y4.80563
G01 X-8.41408 Y4.90798
G01 X-8.41674 Y4.92218
G01 X-8.41963 Y4.93589
G01 X-8.42373 Y4.96044
G01 X-8.42429 Y4.96518
G01 X-8.42601 Y4.98970
G01 X-8.42611 Y4.99454
G01 X-8.42545 Y5.01904
G01 X-8.42508 Y5.02386
G01 X-8.42169 Y5.05069
G01 X-8.39964 Y5.17955
G01 X-8.39713 Y5.19651
G01 X-8.39552 Y5.21402
G01 X-8.38787 Y5.32168
G01 X-8.38687 Y5.34098
G01 X-8.38563 Y5.37774
G01 X-8.38392 Y5.40812
G01 X-8.38063 Y5.44159
G01 X-8.37583 Y5.47584
G01 X-8.36955 Y5.51087
G01 X-8.34608 Y5.62897
G01 X-8.33184 Y5.69384
G01 X-8.31510 Y5.75909
G01 X-8.26258 Y5.93600
G01 X-8.22101 Y5.97986
G01 X-8.26258 Y5.93600
G01 X-8.29879 Y5.92305
G01 X-8.35219 Y5.90577
G01 X-8.40373 Y5.89053
G01 X-8.46949 Y5.87203
G01 X-8.54983 Y5.84897
G01 X-8.59779 Y5.83620
G01 X-8.60721 Y5.83389
G01 X-8.64081 Y5.82621
G01 X-8.67324 Y5.81980
G01 X-8.71662 Y5.81187
G01 X-8.76132 Y5.80338
G01 X-8.80028 Y5.79689
G01 X-8.80795 Y5.79580
G01 X-8.83983 Y5.79193
G01 X-8.86947 Y5.78947
G01 X-8.89009 Y5.78815
G01 X-8.93901 Y5.78465
G01 X-8.96492 Y5.78325
G01 X-8.99904 Y5.78258
G01 X-9.03559 Y5.78363
G01 X-9.11584 Y5.78808
G01 X-9.15572 Y5.79130
G01 X-9.19226 Y5.79603
G01 X-9.21735 Y5.80007
G01 X-9.30352 Y5.81509
G01 X-9.34879 Y5.82376
G01 X-9.39383 Y5.83435
G01 X-9.43255 Y5.84467
G01 X-9.43791 Y5.85714
G01 X-9.43255 Y5.84467
G01 X-9.44739 Y5.81826
G01 X-9.50000 Y5.72111
G01 X-9.51942 Y5.68316
G01 X-9.53649 Y5.64528
G01 X-9.56754 Y5.57145
G01 X-9.57844 Y5.54609
G01 X-9.58791 Y5.52156
G01 X-9.59122 Y5.51246
G01 X-9.59923 Y5.48910
G01 X-9.60649 Y5.46491
G01 X-9.62967 Y5.38996
G01 X-9.63703 Y5.36402
G01 X-9.64300 Y5.33811
G01 X-9.66280 Y5.24130
G01 X-9.66692 Y5.21844
G01 X-9.66986 Y5.19559
G01 X-9.67992 Y5.09880
G01 X-9.68163 Y5.07745
G01 X-9.68226 Y5.05611
G01 X-9.68279 Y4.95932
G01 X-9.68240 Y4.93806
G01 X-9.68093 Y4.91679
G01 X-9.67193 Y4.82000
G01 X-9.66927 Y4.79740
G01 X-9.66545 Y4.77477
G01 X-9.64674 Y4.67797
G01 X-9.64117 Y4.65248
G01 X-9.63423 Y4.62696
G01 X-9.60543 Y4.53013
G01 X-9.59566 Y4.50000
G01 X-9.58417 Y4.46982
G01 X-9.55418 Y4.39629
G01 X-9.54305 Y4.36849
G01 X-9.53102 Y4.34140
G01 X-9.52675 Y4.33224
G01 X-9.51268 Y4.30350
G01 X-9.49691 Y4.27405
G01 X-9.45892 Y4.20202
G01 X-9.43278 Y4.15537
G01 X-9.40345 Y4.10864
G01 X-9.33923 Y4.01138
G01 X-9.31878 Y3.98128
G01 X-9.29735 Y3.95139
G01 X-9.27475 Y3.92145
G01 X-9.25080 Y3.89124
G01 X-9.17164 Y3.79370
G01 X-9.13847 Y3.75392
G01 X-9.10370 Y3.71433
G01 X-9.06712 Y3.67468
G01 X-9.02854 Y3.63477
G01 X-8.93202 Y3.53719
G01 X-8.87727 Y3.48331
G01 X-8.81979 Y3.42960
G01 X-8.75934 Y3.37582
G01 X-8.69570 Y3.32180
G01 X-8.57794 Y3.22408
G01 X-8.53197 Y3.18647
G01 X-8.48496 Y3.14905
G01 X-8.38661 Y3.07385
G01 X-8.28316 Y2.99868
G01 X-8.17425 Y2.92330
G01 X-8.02972 Y2.82558
G01 X-7.90508 Y2.74324
G01 X-7.93222 Y2.70125
G01 X-7.90508 Y2.74324
G01 X-7.88055 Y2.72774
G01 X-7.80123 Y2.61848
G01 X-7.74850 Y2.56810
G01 X-7.69456 Y2.51772
G01 X-7.63940 Y2.46734
G01 X-7.58303 Y2.41697
G01 X-7.51236 Y2.42184
G01 X-7.44170 Y2.42775
G01 X-7.37103 Y2.43473
G01 X-7.30036 Y2.44275
G01 X-7.18754 Y2.43319
G01 X-7.07472 Y2.42630
G01 X-6.96191 Y2.42207
G01 X-6.84909 Y2.42050
G01 X-6.76481 Y2.39674
G01 X-6.68053 Y2.37459
G01 X-6.59626 Y2.35405
G01 X-6.51198 Y2.33512
G01 X-6.42770 Y2.31781
G01 X-6.34342 Y2.30211
G01 X-6.25915 Y2.28803
G01 X-6.17487 Y2.27556
G01 X-6.09059 Y2.26470
G01 X-6.00631 Y2.25546
G01 X-5.92203 Y2.24783
G01 X-5.83776 Y2.24181
G01 X-5.75348 Y2.23741
G01 X-5.66920 Y2.23462
G01 X-5.58492 Y2.23345
G01 X-5.50064 Y2.23389
G01 X-5.41637 Y2.23594
G01 X-5.33209 Y2.23961
G01 X-5.24781 Y2.24488
G01 X-5.16353 Y2.25178
G01 X-5.07925 Y2.26028
G01 X-4.99498 Y2.27040
G01 X-4.91070 Y2.28214
G01 X-4.82642 Y2.29548
G01 X-4.74214 Y2.31045
G01 X-4.65787 Y2.32702
G01 X-4.57359 Y2.34521
G01 X-4.48931 Y2.36501
G01 X-4.40503 Y2.38643
G01 X-4.32075 Y2.40945
G01 X-4.23648 Y2.43410
G01 X-4.15220 Y2.46035
G01 X-4.02983 Y2.45582
G01 X-3.90746 Y2.45438
G01 X-3.79804 Y2.41460
G01 X-3.68861 Y2.37765
G01 X-3.57918 Y2.34352
G01 X-3.46976 Y2.31221
G01 X-3.36033 Y2.28373
G01 X-3.25091 Y2.25806
G01 X-3.14148 Y2.23522
G01 X-3.03206 Y2.21520
G01 X-2.92263 Y2.19801
G01 X-2.81320 Y2.18363
G01 X-2.70378 Y2.17208
G01 X-2.59435 Y2.16335
G01 X-2.48493 Y2.15744
G01 X-2.37550 Y2.15435
G01 X-2.26607 Y2.15409
G01 X-2.15665 Y2.15665
G01 X-2.08954 Y2.23008
G01 X-2.02480 Y2.30352
G01 X-1.96242 Y2.37695
G01 X-1.90241 Y2.45039
G01 X-1.84477 Y2.52382
G01 X-1.78950 Y2.59726
G01 X-1.73659 Y2.67069
G01 X-1.68606 Y2.74413
G01 X-1.63788 Y2.81756
G01 X-1.59208 Y2.89100
G01 X-1.54864 Y2.96443
G01 X-1.50757 Y3.03787
G01 X-1.46887 Y3.11130
G01 X-1.43253 Y3.18474
G01 X-1.39856 Y3.25817
G01 X-1.36696 Y3.33161
G01 X-1.34625 Y3.38161
G01 X-1.32458 Y3.43549
G01 X-1.30421 Y3.48937
G01 X-1.28512 Y3.54325
G01 X-1.26734 Y3.59713
G01 X-1.25084 Y3.65101
G01 X-1.23564 Y3.70489
G01 X-1.22174 Y3.75877
G01 X-1.27030 Y3.77071
G01 X-1.28391 Y3.71792
G01 X-1.29881 Y3.66511
G01 X-1.31498 Y3.61228
G01 X-1.33243 Y3.55943
G01 X-1.35116 Y3.50656
G01 X-1.37116 Y3.45366
G01 X-1.39254 Y3.40050
G01 X-1.41302 Y3.35106
G01 X-1.44422 Y3.27855
G01 X-1.47763 Y3.20632
G01 X-1.51340 Y3.13405
G01 X-1.55151 Y3.06173
G01 X-1.59198 Y2.98936
G01 X-1.63481 Y2.91696
G01 X-1.68000 Y2.84451
G01 X-1.72755 Y2.77202
G01 X-1.77747 Y2.69948
G01 X-1.82976 Y2.62691
G01 X-1.88441 Y2.55430
G01 X-1.94144 Y2.48164
G01 X-2.00084 Y2.40896
G01 X-2.06261 Y2.33624
G01 X-2.12675 Y2.26348
G01 X-2.17916 Y2.20614
G01 X-2.17735 Y2.20216
G01 X-2.17916 Y2.20614
G01 X-2.26660 Y2.20409
G01 X-2.37473 Y2.20435
G01 X-2.48287 Y2.20740
G01 X-2.59102 Y2.21324
G01 X-2.69916 Y2.22187
G01 X-2.80732 Y2.23329
G01 X-2.91549 Y2.24750
G01 X-3.02367 Y2.26450
G01 X-3.13187 Y2.28429
G01 X-3.24009 Y2.30688
G01 X-3.34832 Y2.33227
G01 X-3.45658 Y2.36045
G01 X-3.56486 Y2.39143
G01 X-3.67316 Y2.42521
G01 X-3.78149 Y2.46179
G01 X-3.84289 Y2.48411
G01 X-3.86204 Y2.47529
G01 X-3.84289 Y2.48411
G01 X-3.72594 Y2.79565
G01 X-3.68219 Y2.91453
G01 X-3.64104 Y3.03122
G01 X-3.60270 Y3.14513
G01 X-3.56695 Y3.25705
G01 X-3.53449 Y3.36463
G01 X-3.50461 Y3.47023
G01 X-3.47756 Y3.57306
G01 X-3.45309 Y3.67417
G01 X-3.43192 Y3.77046
G01 X-3.41335 Y3.86504
G01 X-3.39761 Y3.95689
G01 X-3.38470 Y4.04600
G01 X-3.37465 Y4.13239
G01 X-3.36744 Y4.21607
G01 X-3.36309 Y4.29705
G01 X-3.36162 Y4.37533
G01 X-3.36161 Y4.44522
G01 X-3.36174 Y4.44881
G01 X-3.36561 Y4.50257
G01 X-3.37749 Y4.65731
G01 X-3.38661 Y4.76737
G01 X-3.39607 Y4.87277
G01 X-3.40490 Y4.96341
G01 X-3.41447 Y5.05453
G01 X-3.42558 Y5.15337
G01 X-3.43871 Y5.26353
G01 X-3.44335 Y5.30077
G01 X-3.44713 Y5.33427
G01 X-3.45006 Y5.36663
G01 X-3.45004 Y5.65434
G01 X-3.44543 Y5.71268
G01 X-3.42875 Y5.89748
G01 X-3.38226 Y6.43143
G01 X-3.29656 Y7.44085
G01 X-3.30784 Y7.45244
G01 X-3.29656 Y7.44085
G01 X-3.24042 Y7.44408
G01 X-3.15350 Y7.44759
G01 X-3.10750 Y7.44862
G01 X-3.09838 Y7.46023
G01 X-3.10750 Y7.44862
G01 X-2.94866 Y6.72487
G01 X-2.91228 Y6.55305
G01 X-2.89842 Y6.48510
G01 X-2.78258 Y5.92250
G01 X-2.77481 Y5.88387
G01 X-2.76307 Y5.82215
G01 X-2.72398 Y5.60618
G01 X-2.71756 Y5.57152
G01 X-2.70557 Y5.49914
G01 X-2.69543 Y5.42900
G01 X-2.68517 Y5.36070
G01 X-2.67803 Y5.30365
G01 X-2.67296 Y5.25489
G01 X-2.67203 Y5.24920
G01 X-2.66087 Y5.19922
G01 X-2.64668 Y5.14266
G01 X-2.63548 Y5.10224
G01 X-2.62304 Y5.06451
G01 X-2.60477 Y5.01346
G01 X-2.59199 Y4.98036
G01 X-2.57884 Y4.95068
G01 X-2.55658 Y4.90363
G01 X-2.54286 Y4.87644
G01 X-2.52923 Y4.85237
G01 X-2.50325 Y4.80903
G01 X-2.48999 Y4.78805
G01 X-2.47444 Y4.76587
G01 X-2.44493 Y4.72608
G01 X-2.43076 Y4.70789
G01 X-2.41419 Y4.68861
G01 X-2.38124 Y4.65225
G01 X-2.36576 Y4.63597
G01 X-2.34775 Y4.61876
G01 X-2.31139 Y4.58581
G01 X-2.29401 Y4.57080
G01 X-2.27392 Y4.55507
G01 X-2.23412 Y4.52556
G01 X-2.21195 Y4.51001
G01 X-2.19096 Y4.49674
G01 X-2.14613 Y4.46991
G01 X-2.11407 Y4.45217
G01 X-2.09822 Y4.44406
G01 X-2.07630 Y4.43227
G01 X-2.05446 Y4.41921
G01 X-1.99482 Y4.38187
G01 X-1.96963 Y4.36544
G01 X-1.94425 Y4.34757
G01 X-1.84841 Y4.27767
G01 X-1.81602 Y4.25340
G01 X-1.78308 Y4.22738
G01 X-1.57880 Y4.06212
G01 X-1.52967 Y4.02173
G01 X-1.47929 Y3.97902
G01 X-1.26473 Y3.79451
G01 X-1.25636 Y3.79718
G01 X-1.26473 Y3.79451
G01 X-1.27030 Y3.77071
G01 X-1.31197 Y3.77914
G01 X-1.32045 Y3.77648
G01 X-1.51176 Y3.94100
G01 X-1.56172 Y3.98335
G01 X-1.61040 Y4.02337
G01 X-1.81429 Y4.18832
G01 X-1.84652 Y4.21376
G01 X-1.87814 Y4.23747
G01 X-1.97337 Y4.30692
G01 X-1.99769 Y4.32404
G01 X-2.02176 Y4.33974
G01 X-2.08054 Y4.37656
G01 X-2.10098 Y4.38877
G01 X-2.12144 Y4.39977
G01 X-2.13828 Y4.40842
G01 X-2.17034 Y4.42616
G01 X-2.21667 Y4.45386
G01 X-2.23868 Y4.46775
G01 X-2.24277 Y4.47048
G01 X-2.26391 Y4.48540
G01 X-2.30370 Y4.51491
G01 X-2.32286 Y4.52982
G01 X-2.32666 Y4.53293
G01 X-2.34497 Y4.54876
G01 X-2.38133 Y4.58171
G01 X-2.39850 Y4.59802
G01 X-2.40197 Y4.60150
G01 X-2.41828 Y4.61867
G01 X-2.45124 Y4.65503
G01 X-2.46707 Y4.67334
G01 X-2.47018 Y4.67714
G01 X-2.48509 Y4.69629
G01 X-2.51460 Y4.73609
G01 X-2.52952 Y4.75723
G01 X-2.53225 Y4.76131
G01 X-2.54614 Y4.78333
G01 X-2.57211 Y4.82666
G01 X-2.58638 Y4.85181
G01 X-2.58869 Y4.85615
G01 X-2.60178 Y4.88225
G01 X-2.62404 Y4.92931
G01 X-2.63771 Y4.96014
G01 X-2.63959 Y4.96467
G01 X-2.65185 Y4.99662
G01 X-2.67012 Y5.04766
G01 X-2.68297 Y5.08660
G01 X-2.68439 Y5.09130
G01 X-2.69489 Y5.12937
G01 X-2.70937 Y5.18707
G01 X-2.72083 Y5.23832
G01 X-2.72269 Y5.24969
G01 X-2.72773 Y5.29809
G01 X-2.73470 Y5.35388
G01 X-2.74490 Y5.42170
G01 X-2.75498 Y5.49148
G01 X-2.76681 Y5.56286
G01 X-2.77318 Y5.59727
G01 X-2.81223 Y5.81302
G01 X-2.82389 Y5.87432
G01 X-2.83157 Y5.91250
G01 X-2.94738 Y6.47496
G01 X-2.96123 Y6.54289
G01 X-2.99754 Y6.71433
G01 X-3.14752 Y7.39771
G01 X-3.13820 Y7.40979
G01 X-3.14752 Y7.39771
G01 X-3.23819 Y7.39413
G01 X-3.25040 Y7.39347
G01 X-3.26191 Y7.40550
G01 X-3.25040 Y7.39347
G01 X-3.33244 Y6.42715
G01 X-3.37894 Y5.89306
G01 X-3.39560 Y5.70848
G01 X-3.40004 Y5.65238
G01 X-3.40006 Y5.36884
G01 X-3.39738 Y5.33927
G01 X-3.39370 Y5.30668
G01 X-3.38904 Y5.26929
G01 X-3.37590 Y5.15894
G01 X-3.36474 Y5.05974
G01 X-3.35515 Y4.96844
G01 X-3.34632 Y4.87779
G01 X-3.33679 Y4.77167
G01 X-3.32765 Y4.66128
G01 X-3.31576 Y4.50652
G01 X-3.31187 Y4.45240
G01 X-3.31161 Y4.44522
G01 X-3.31161 Y4.37626
G01 X-3.31316 Y4.29439
G01 X-3.31762 Y4.21180
G01 X-3.32498 Y4.12662
G01 X-3.33522 Y4.03885
G01 X-3.34832 Y3.94845
G01 X-3.36385 Y3.85780
G01 X-3.38263 Y3.76194
G01 X-3.40426 Y3.66343
G01 X-3.42872 Y3.56226
G01 X-3.45650 Y3.45662
G01 X-3.48613 Y3.35186
G01 X-3.51956 Y3.24105
G01 X-3.55531 Y3.12919
G01 X-3.59389 Y3.01459
G01 X-3.63527 Y2.89726
G01 X-3.67902 Y2.77839
G01 X-3.77832 Y2.51384
G01 X-3.79806 Y2.50451
G01 X-3.77832 Y2.51384
G01 X-3.76495 Y2.50898
G01 X-3.65772 Y2.47277
G01 X-3.55054 Y2.43934
G01 X-3.44340 Y2.40869
G01 X-3.33631 Y2.38081
G01 X-3.22927 Y2.35570
G01 X-3.12226 Y2.33337
G01 X-3.01529 Y2.31379
G01 X-2.90835 Y2.29699
G01 X-2.80144 Y2.28294
G01 X-2.69455 Y2.27166
G01 X-2.58768 Y2.26313
G01 X-2.48082 Y2.25736
G01 X-2.37397 Y2.25435
G01 X-2.26712 Y2.25409
G01 X-2.20167 Y2.25562
G01 X-2.19986 Y2.25165
G01 X-2.20167 Y2.25562
G01 X-2.16396 Y2.29688
G01 X-2.10042 Y2.36896
G01 X-2.03925 Y2.44096
G01 X-1.98047 Y2.51290
G01 X-1.92406 Y2.58477
G01 X-1.87002 Y2.65656
G01 X-1.81836 Y2.72827
G01 X-1.76906 Y2.79990
G01 X-1.72212 Y2.87146
G01 X-1.67755 Y2.94292
G01 X-1.63532 Y3.01430
G01 X-1.59545 Y3.08559
G01 X-1.55793 Y3.15679
G01 X-1.52274 Y3.22791
G01 X-1.48988 Y3.29893
G01 X-1.45909 Y3.37051
G01 X-1.43884 Y3.41940
G01 X-1.41774 Y3.47183
G01 X-1.39811 Y3.52375
G01 X-1.37974 Y3.57562
G01 X-1.36263 Y3.62744
G01 X-1.34678 Y3.67922
G01 X-1.33219 Y3.73096
G01 X-1.32045 Y3.77648
G04 P0 ( dwell for no time -- G64 should not smooth over this point )
G00 Z0.08000 ( retract )

G00 X-3.06749 Y7.49954 ( rapid move to begin. )
G01 F3.00000
( Mill infeed pass 1/1 )
G01 Z-0.00800
G04 P0 ( dwell for no time -- G64 should not smooth over this point )
G01 F6.00000
G01 X-3.06749 Y7.49954
G01 X-2.89978 Y6.73540
G01 X-2.86333 Y6.56322
G01 X-2.84943 Y6.49513
G01 X-2.73359 Y5.93250
G01 X-2.72573 Y5.89342
G01 X-2.71391 Y5.83127
G01 X-2.67478 Y5.61508
G01 X-2.66831 Y5.58018
G01 X-2.65616 Y5.50680
G01 X-2.64597 Y5.43630
G01 X-2.63563 Y5.36753
G01 X-2.62834 Y5.30920
G01 X-2.62323 Y5.26009
G01 X-2.61237 Y5.21137
G01 X-2.59848 Y5.15595
G01 X-2.58799 Y5.11788
G01 X-2.57596 Y5.08135
G01 X-2.55770 Y5.03031
G01 X-2.54626 Y5.00059
G01 X-2.53364 Y4.97206
G01 X-2.51138 Y4.92501
G01 X-2.49934 Y4.90106
G01 X-2.48634 Y4.87807
G01 X-2.46037 Y4.83474
G01 X-2.44774 Y4.81478
G01 X-2.43428 Y4.79566
G01 X-2.40477 Y4.75586
G01 X-2.39134 Y4.73864
G01 X-2.37714 Y4.72218
G01 X-2.34419 Y4.68583
G01 X-2.32955 Y4.67045
G01 X-2.31417 Y4.65581
G01 X-2.27781 Y4.62286
G01 X-2.26135 Y4.60866
G01 X-2.24413 Y4.59523
G01 X-2.20434 Y4.56572
G01 X-2.18522 Y4.55226
G01 X-2.16526 Y4.53963
G01 X-2.12193 Y4.51366
G01 X-2.08986 Y4.49592
G01 X-2.07501 Y4.48835
G01 X-2.05163 Y4.47575
G01 X-2.02837 Y4.46187
G01 X-1.96790 Y4.42399
G01 X-1.94158 Y4.40683
G01 X-1.91513 Y4.38821
G01 X-1.81868 Y4.31787
G01 X-1.78553 Y4.29302
G01 X-1.75186 Y4.26644
G01 X-1.54720 Y4.10087
G01 X-1.49763 Y4.06011
G01 X-1.44683 Y4.01705
G01 X-1.20913 Y3.81265
G01 X-1.22174 Y3.75877
G01 X-1.20913 Y3.81265
G01 X-1.17933 Y3.86996
G01 X-1.15132 Y3.92727
G01 X-1.12815 Y3.97628
G01 X-1.10451 Y4.02783
G01 X-1.08235 Y4.07938
G01 X-1.06168 Y4.13093
G01 X-1.04249 Y4.18248
G01 X-1.02496 Y4.23149
G01 X-1.00870 Y4.27871
G01 X-0.99370 Y4.32592
G01 X-0.97998 Y4.37314
G01 X-0.96752 Y4.42035
G01 X-0.95524 Y4.46936
G01 X-0.94470 Y4.51370
G01 X-0.93529 Y4.55804
G01 X-0.92702 Y4.60239
G01 X-0.91987 Y4.64673
G01 X-0.91260 Y4.69574
G01 X-0.90679 Y4.73846
G01 X-0.90204 Y4.78118
G01 X-0.89836 Y4.82390
G01 X-0.89573 Y4.86663
G01 X-0.89332 Y4.91564
G01 X-0.89177 Y4.95782
G01 X-0.89125 Y5.00000
G01 X-0.84125 Y4.99939
G01 X-0.84177 Y5.04280
G01 X-0.84335 Y5.08620
G01 X-0.84579 Y5.13582
G01 X-0.84854 Y5.18039
G01 X-0.85235 Y5.22434
G01 X-0.85710 Y5.26706
G01 X-0.86314 Y5.31160
G01 X-0.87041 Y5.36061
G01 X-0.87765 Y5.40557
G01 X-0.88614 Y5.45113
G01 X-0.89606 Y5.49786
G01 X-0.90674 Y5.54279
G01 X-0.91917 Y5.59240
G01 X-0.93196 Y5.64082
G01 X-0.94569 Y5.68803
G01 X-0.96142 Y5.73757
G01 X-0.97788 Y5.78535
G01 X-0.99542 Y5.83436
G01 X-1.01527 Y5.88767
G01 X-1.03641 Y5.94036
G01 X-1.05906 Y5.99301
G01 X-1.08270 Y6.04456
G01 X-1.10613 Y6.09410
G01 X-1.13522 Y6.15360
G01 X-1.16529 Y6.21140
G01 X-1.19778 Y6.27027
G01 X-1.23209 Y6.32911
G01 X-1.26177 Y6.37862
G01 X-1.30387 Y6.44681
G01 X-1.34732 Y6.51338
G01 X-1.39382 Y6.58097
G01 X-1.44304 Y6.64898
G01 X-1.47938 Y6.69799
G01 X-1.54078 Y6.77852
G01 X-1.60426 Y6.85753
G01 X-1.67253 Y6.93837
G01 X-1.74289 Y7.01780
G01 X-1.78754 Y7.06705
G01 X-1.83204 Y7.11550
G01 X-1.87819 Y7.16443
G01 X-1.92553 Y7.21335
G01 X-1.97449 Y7.26268
G01 X-2.02420 Y7.31154
G01 X-2.07467 Y7.35999
G01 X-2.12718 Y7.40923
G01 X-2.18025 Y7.45787
G01 X-2.23432 Y7.50687
G01 X-2.30332 Y7.56856
G01 X-2.37443 Y7.63046
G01 X-2.38259 Y7.63623
G01 X-2.39174 Y7.64027
G01 X-2.40150 Y7.64241
G01 X-2.41149 Y7.64256
G01 X-2.49789 Y7.63521
G01 X-2.58340 Y7.62640
G01 X-2.67068 Y7.61582
G01 X-2.75663 Y7.60385
G01 X-2.80598 Y7.59653
G01 X-2.87396 Y7.58595
G01 X-2.94125 Y7.57454
G01 X-3.00923 Y7.56204
G01 X-3.07295 Y7.54943
G01 X-3.07293 Y7.54924
G01 X-3.07295 Y7.54943
G01 X-3.15708 Y7.54752
G01 X-3.24467 Y7.54399
G01 X-3.34065 Y7.53843
G01 X-3.34066 Y7.53819
G01 X-3.34065 Y7.53843
G01 X-3.45572 Y7.55472
G01 X-3.57693 Y7.56889
G01 X-3.69816 Y7.58006
G01 X-3.82063 Y7.58829
G01 X-3.94064 Y7.59339
G01 X-4.06312 Y7.59555
G01 X-4.18437 Y7.59468
G01 X-4.29815 Y7.59105
G01 X-4.29819 Y7.59067
G01 X-4.29815 Y7.59105
G01 X-4.36818 Y7.60642
G01 X-4.44507 Y7.62204
G01 X-4.52197 Y7.63638
G01 X-4.59967 Y7.64959
G01 X-4.67659 Y7.66139
G01 X-4.75352 Y7.67192
G01 X-4.83044 Y7.68119
G01 X-4.90656 Y7.68910
G01 X-4.98431 Y7.69591
G01 X-5.06125 Y7.70137
G01 X-5.13737 Y7.70551
G01 X-5.21431 Y7.70845
G01 X-5.29208 Y7.71012
G01 X-5.36902 Y7.71050
G01 X-5.44597 Y7.70961
G01 X-5.51785 Y7.70760
G01 X-5.51786 Y7.70742
G01 X-5.51785 Y7.70760
G01 X-5.61323 Y7.72114
G01 X-5.71282 Y7.73310
G01 X-5.81134 Y7.74280
G01 X-5.91202 Y7.75051
G01 X-6.01163 Y7.75596
G01 X-6.11014 Y7.75920
G01 X-6.20975 Y7.76032
G01 X-6.30936 Y7.75927
G01 X-6.41005 Y7.75600
G01 X-6.50857 Y7.75064
G01 X-6.60817 Y7.74307
G01 X-6.70884 Y7.73321
G01 X-6.80736 Y7.72140
G01 X-6.90694 Y7.70731
G01 X-7.00651 Y7.69105
G01 X-7.08988 Y7.67561
G01 X-7.09024 Y7.67300
G01 X-7.08988 Y7.67561
G01 X-7.17802 Y7.71850
G01 X-7.29310 Y7.77137
G01 X-7.40300 Y7.81860
G01 X-7.51184 Y7.86223
G01 X-7.62692 Y7.90496
G01 X-7.70528 Y7.93219
G01 X-7.78544 Y7.95836
G01 X-7.86473 Y7.98257
G01 X-7.94309 Y8.00487
G01 X-7.95292 Y8.00663
G01 X-7.96291 Y8.00640
G01 X-7.97265 Y8.00419
G01 X-7.98176 Y8.00009
G01 X-8.05617 Y7.95716
G01 X-8.12825 Y7.91451
G01 X-8.20451 Y7.86833
G01 X-8.26810 Y7.82879
G01 X-8.33013 Y7.78923
G01 X-8.39010 Y7.75000
G01 X-8.44953 Y7.71007
G01 X-8.50690 Y7.67045
G01 X-8.56271 Y7.63082
G01 X-8.62527 Y7.58500
G01 X-8.70425 Y7.52507
G01 X-8.78005 Y7.46475
G01 X-8.85322 Y7.40353
G01 X-8.92082 Y7.34392
G01 X-8.92877 Y7.33672
G01 X-8.98021 Y7.28903
G01 X-9.03014 Y7.24055
G01 X-9.07864 Y7.19107
G01 X-9.12349 Y7.14289
G01 X-9.16543 Y7.09566
G01 X-9.19961 Y7.05518
G01 X-9.23137 Y7.01563
G01 X-9.26270 Y6.97456
G01 X-9.29306 Y6.93276
G01 X-9.31714 Y6.89774
G01 X-9.34001 Y6.86267
G01 X-9.36545 Y6.82124
G01 X-9.38355 Y6.79019
G01 X-9.40011 Y6.76018
G01 X-9.41687 Y6.72797
G01 X-9.43533 Y6.68993
G01 X-9.46039 Y6.63335
G01 X-9.48139 Y6.57903
G01 X-9.48450 Y6.57034
G01 X-9.50193 Y6.51751
G01 X-9.51593 Y6.46704
G01 X-9.51784 Y6.45945
G01 X-9.52938 Y6.40795
G01 X-9.53772 Y6.36003
G01 X-9.53902 Y6.35122
G01 X-9.54475 Y6.30485
G01 X-9.54842 Y6.25603
G01 X-9.54885 Y6.24720
G01 X-9.54998 Y6.20123
G01 X-9.54881 Y6.15158
G01 X-9.54842 Y6.14397
G01 X-9.54499 Y6.09760
G01 X-9.53902 Y6.04878
G01 X-9.53791 Y6.04120
G01 X-9.52890 Y5.98964
G01 X-9.51784 Y5.94055
G01 X-9.51597 Y5.93313
G01 X-9.50977 Y5.91045
G01 X-9.50571 Y5.90993
G01 X-9.50977 Y5.91045
G01 X-9.51774 Y5.89720
G01 X-9.53514 Y5.86623
G01 X-9.58822 Y5.76821
G01 X-9.60900 Y5.72759
G01 X-9.62842 Y5.68464
G01 X-9.65964 Y5.61040
G01 X-9.67140 Y5.58298
G01 X-9.68171 Y5.55622
G01 X-9.68567 Y5.54533
G01 X-9.69414 Y5.52061
G01 X-9.70209 Y5.49426
G01 X-9.72538 Y5.41894
G01 X-9.73357 Y5.39008
G01 X-9.74084 Y5.35877
G01 X-9.76112 Y5.25956
G01 X-9.76593 Y5.23246
G01 X-9.76926 Y5.20655
G01 X-9.77956 Y5.10732
G01 X-9.78154 Y5.08169
G01 X-9.78226 Y5.05727
G01 X-9.78279 Y4.95925
G01 X-9.78223 Y4.93247
G01 X-9.78055 Y4.90814
G01 X-9.77144 Y4.81013
G01 X-9.76842 Y4.78446
G01 X-9.76397 Y4.75759
G01 X-9.74481 Y4.65838
G01 X-9.73799 Y4.62748
G01 X-9.73025 Y4.59903
G01 X-9.70110 Y4.50102
G01 X-9.69036 Y4.46793
G01 X-9.67699 Y4.43261
G01 X-9.64684 Y4.35868
G01 X-9.63482 Y4.32875
G01 X-9.62222 Y4.30038
G01 X-9.61718 Y4.28955
G01 X-9.60127 Y4.25710
G01 X-9.58529 Y4.22726
G01 X-9.54707 Y4.15480
G01 X-9.51813 Y4.10329
G01 X-9.48723 Y4.05403
G01 X-9.42250 Y3.95601
G01 X-9.40115 Y3.92456
G01 X-9.37754 Y3.89163
G01 X-9.35349 Y3.85980
G01 X-9.32863 Y3.82844
G01 X-9.24866 Y3.72992
G01 X-9.21403 Y3.68841
G01 X-9.17762 Y3.64697
G01 X-9.13942 Y3.60558
G01 X-9.10023 Y3.56505
G01 X-9.00288 Y3.46663
G01 X-8.94695 Y3.41158
G01 X-8.88762 Y3.35612
G01 X-8.82449 Y3.29996
G01 X-8.76020 Y3.24539
G01 X-8.64166 Y3.14701
G01 X-8.59503 Y3.10886
G01 X-8.54608 Y3.06990
G01 X-8.44687 Y2.99404
G01 X-8.34054 Y2.91678
G01 X-8.23093 Y2.84092
G01 X-8.08506 Y2.74230
G01 X-7.95893 Y2.65897
G01 X-7.83216 Y2.57887
G01 X-7.83200 Y2.57907
G01 X-7.83216 Y2.57887
G01 X-7.78262 Y2.53156
G01 X-7.72828 Y2.48080
G01 X-7.67272 Y2.43006
G01 X-7.61635 Y2.37969
G01 X-7.60830 Y2.37382
G01 X-7.59925 Y2.36967
G01 X-7.58955 Y2.36739
G01 X-7.57960 Y2.36709
G01 X-7.50819 Y2.37201
G01 X-7.43679 Y2.37800
G01 X-7.36612 Y2.38497
G01 X-7.29964 Y2.39251
G01 X-7.29965 Y2.39275
G01 X-7.29964 Y2.39251
G01 X-7.19176 Y2.38337
G01 X-7.07660 Y2.37633
G01 X-6.96260 Y2.37207
G01 X-6.85635 Y2.37060
G01 X-6.85628 Y2.37102
G01 X-6.85635 Y2.37060
G01 X-6.77838 Y2.34862
G01 X-6.69325 Y2.32623
G01 X-6.60810 Y2.30547
G01 X-6.52293 Y2.28634
G01 X-6.43776 Y2.26883
G01 X-6.35166 Y2.25280
G01 X-6.26739 Y2.23871
G01 X-6.18126 Y2.22597
G01 X-6.09604 Y2.21500
G01 X-6.01176 Y2.20576
G01 X-5.92654 Y2.19803
G01 X-5.84036 Y2.19188
G01 X-5.75609 Y2.18748
G01 X-5.67085 Y2.18465
G01 X-5.58562 Y2.18345
G01 X-5.50038 Y2.18389
G01 X-5.41419 Y2.18599
G01 X-5.32991 Y2.18965
G01 X-5.24373 Y2.19505
G01 X-5.15946 Y2.20194
G01 X-5.07423 Y2.21054
G01 X-4.98902 Y2.22076
G01 X-4.90380 Y2.23262
G01 X-4.81860 Y2.24610
G01 X-4.73249 Y2.26139
G01 X-4.64732 Y2.27814
G01 X-4.56215 Y2.29653
G01 X-4.47787 Y2.31634
G01 X-4.39185 Y2.33819
G01 X-4.30672 Y2.36146
G01 X-4.22160 Y2.38636
G01 X-4.14550 Y2.41007
G01 X-4.14559 Y2.41079
G01 X-4.14550 Y2.41007
G01 X-4.03168 Y2.40585
G01 X-3.91655 Y2.40448
G01 X-3.91642 Y2.40519
G01 X-3.91655 Y2.40448
G01 X-3.81512 Y2.36761
G01 X-3.70461 Y2.33028
G01 X-3.59407 Y2.29579
G01 X-3.48235 Y2.26383
G01 X-3.37293 Y2.23534
G01 X-3.26112 Y2.20912
G01 X-3.15170 Y2.18628
G01 X-3.03982 Y2.16581
G01 X-2.93039 Y2.14861
G01 X-2.81972 Y2.13406
G01 X-2.70775 Y2.12224
G01 X-2.59705 Y2.11342
G01 X-2.48762 Y2.10751
G01 X-2.37562 Y2.10435
G01 X-2.26620 Y2.10409
G01 X-2.15548 Y2.10666
G01 X-2.14549 Y2.10791
G01 X-2.13595 Y2.11114
G01 X-2.12725 Y2.11621
G01 X-2.11974 Y2.12292
G01 X-2.05263 Y2.19635
G01 X-1.98729 Y2.27045
G01 X-1.92431 Y2.34458
G01 X-1.86370 Y2.41875
G01 X-1.80544 Y2.49295
G01 X-1.74893 Y2.56803
G01 X-1.69541 Y2.64235
G01 X-1.64425 Y2.71670
G01 X-1.59546 Y2.79110
G01 X-1.54904 Y2.86554
G01 X-1.50500 Y2.94003
G01 X-1.46334 Y3.01456
G01 X-1.42405 Y3.08913
G01 X-1.38715 Y3.16375
G01 X-1.35264 Y3.23841
G01 X-1.32077 Y3.31247
G01 X-1.29986 Y3.36295
G01 X-1.27819 Y3.41683
G01 X-1.25707 Y3.47268
G01 X-1.23799 Y3.52656
G01 X-1.21986 Y3.58145
G01 X-1.20272 Y3.63743
G01 X-1.18723 Y3.69239
G01 X-1.17333 Y3.74627
G01 X-1.16187 Y3.79515
G01 X-1.16224 Y3.79528
G01 X-1.16187 Y3.79515
G01 X-1.13497 Y3.84689
G01 X-1.10613 Y3.90589
G01 X-1.08270 Y3.95544
G01 X-1.05906 Y4.00699
G01 X-1.03641 Y4.05964
G01 X-1.01527 Y4.11233
G01 X-0.99563 Y4.16504
G01 X-0.97788 Y4.21465
G01 X-0.96104 Y4.26358
G01 X-0.94605 Y4.31079
G01 X-0.93196 Y4.35918
G01 X-0.91901 Y4.40820
G01 X-0.90674 Y4.45721
G01 X-0.89579 Y4.50333
G01 X-0.88614 Y4.54887
G01 X-0.87765 Y4.59443
G01 X-0.87041 Y4.63939
G01 X-0.86306 Y4.68900
G01 X-0.85710 Y4.73294
G01 X-0.85223 Y4.77688
G01 X-0.84845 Y4.82083
G01 X-0.84579 Y4.86418
G01 X-0.84335 Y4.91380
G01 X-0.84180 Y4.95598
G01 X-0.84125 Y4.99939
G01 X-0.79126 Y4.99877
G01 X-0.79183 Y4.95414
G01 X-0.79339 Y4.91195
G01 X-0.79585 Y4.86172
G01 X-0.79855 Y4.81776
G01 X-0.80266 Y4.77014
G01 X-0.80741 Y4.72741
G01 X-0.81351 Y4.68227
G01 X-0.82114 Y4.63082
G01 X-0.82829 Y4.58648
G01 X-0.83747 Y4.53729
G01 X-0.84741 Y4.49058
G01 X-0.85795 Y4.44623
G01 X-0.87051 Y4.39605
G01 X-0.88395 Y4.34522
G01 X-0.89768 Y4.29801
G01 X-0.91339 Y4.24844
G01 X-0.93041 Y4.19893
G01 X-0.94877 Y4.14760
G01 X-0.96796 Y4.09605
G01 X-0.98954 Y4.04216
G01 X-1.01361 Y3.98615
G01 X-1.03775 Y3.93352
G01 X-1.06093 Y3.88452
G01 X-1.09061 Y3.82383
G01 X-1.11462 Y3.77765
G01 X-1.11498 Y3.77778
G01 X-1.11462 Y3.77765
G01 X-1.12491 Y3.73378
G01 X-1.13882 Y3.67990
G01 X-1.15460 Y3.62386
G01 X-1.17238 Y3.56578
G01 X-1.19086 Y3.50986
G01 X-1.21067 Y3.45399
G01 X-1.23180 Y3.39817
G01 X-1.25347 Y3.34429
G01 X-1.27457 Y3.29334
G01 X-1.30780 Y3.21619
G01 X-1.34290 Y3.14039
G01 X-1.38040 Y3.06468
G01 X-1.42029 Y2.98906
G01 X-1.46257 Y2.91352
G01 X-1.50723 Y2.83807
G01 X-1.55427 Y2.76271
G01 X-1.60368 Y2.68743
G01 X-1.65546 Y2.61224
G01 X-1.70960 Y2.53712
G01 X-1.76611 Y2.46208
G01 X-1.82375 Y2.38864
G01 X-1.88499 Y2.31368
G01 X-1.94979 Y2.23739
G01 X-2.01572 Y2.16262
G01 X-2.08283 Y2.08919
G01 X-2.09785 Y2.07577
G01 X-2.11525 Y2.06562
G01 X-2.13433 Y2.05917
G01 X-2.15431 Y2.05668
G01 X-2.26374 Y2.05412
G01 X-2.37574 Y2.05435
G01 X-2.48774 Y2.05748
G01 X-2.59974 Y2.06349
G01 X-2.71173 Y2.07240
G01 X-2.82370 Y2.08418
G01 X-2.93565 Y2.09886
G01 X-3.04758 Y2.11641
G01 X-3.15948 Y2.13685
G01 X-3.27134 Y2.16017
G01 X-3.38552 Y2.18695
G01 X-3.49495 Y2.21544
G01 X-3.60669 Y2.24738
G01 X-3.71839 Y2.28219
G01 X-3.83220 Y2.32062
G01 X-3.92564 Y2.35459
G01 X-3.92551 Y2.35529
G01 X-3.92564 Y2.35459
G01 X-4.03101 Y2.35583
G01 X-4.13879 Y2.35979
G01 X-4.13889 Y2.36051
G01 X-4.13879 Y2.35979
G01 X-4.20673 Y2.33862
G01 X-4.29439 Y2.31299
G01 X-4.38040 Y2.28951
G01 X-4.46468 Y2.26809
G01 X-4.55071 Y2.24786
G01 X-4.63677 Y2.22927
G01 X-4.72285 Y2.21232
G01 X-4.81078 Y2.19672
G01 X-4.89691 Y2.18309
G01 X-4.98305 Y2.17112
G01 X-5.06921 Y2.16079
G01 X-5.15349 Y2.15228
G01 X-5.23966 Y2.14522
G01 X-5.32774 Y2.13970
G01 X-5.41393 Y2.13597
G01 X-5.50012 Y2.13389
G01 X-5.58632 Y2.13346
G01 X-5.67059 Y2.13463
G01 X-5.75678 Y2.13747
G01 X-5.84297 Y2.14195
G01 X-5.92915 Y2.14808
G01 X-6.01533 Y2.15587
G01 X-6.10149 Y2.16530
G01 X-6.18764 Y2.17638
G01 X-6.27378 Y2.18911
G01 X-6.35991 Y2.20348
G01 X-6.44782 Y2.21986
G01 X-6.53210 Y2.23717
G01 X-6.61817 Y2.25648
G01 X-6.70421 Y2.27743
G01 X-6.79195 Y2.30049
G01 X-6.86360 Y2.32070
G01 X-6.86354 Y2.32112
G01 X-6.86360 Y2.32070
G01 X-6.96329 Y2.32208
G01 X-7.07847 Y2.32637
G01 X-7.19598 Y2.33355
G01 X-7.29893 Y2.34227
G01 X-7.29893 Y2.34251
G01 X-7.29893 Y2.34227
G01 X-7.36121 Y2.33521
G01 X-7.43335 Y2.32810
G01 X-7.50402 Y2.32219
G01 X-7.57616 Y2.31720
G01 X-7.59607 Y2.31782
G01 X-7.61546 Y2.32237
G01 X-7.63357 Y2.33068
G01 X-7.64967 Y2.34241
G01 X-7.70684 Y2.39351
G01 X-7.76281 Y2.44464
G01 X-7.81758 Y2.49579
G01 X-7.86308 Y2.53927
G01 X-7.86294 Y2.53946
G01 X-7.86308 Y2.53927
G01 X-7.98564 Y2.61671
G01 X-8.11262 Y2.70058
G01 X-8.25849 Y2.79919
G01 X-8.36900 Y2.87567
G01 X-8.47724 Y2.95432
G01 X-8.57646 Y3.03018
G01 X-8.62565 Y3.06931
G01 X-8.67359 Y3.10853
G01 X-8.79256 Y3.20727
G01 X-8.85860 Y3.26336
G01 X-8.92176 Y3.31958
G01 X-8.98202 Y3.37595
G01 X-9.03843 Y3.43147
G01 X-9.13617 Y3.53030
G01 X-9.17698 Y3.57253
G01 X-9.21437 Y3.61306
G01 X-9.25160 Y3.65542
G01 X-9.28706 Y3.69790
G01 X-9.36745 Y3.79694
G01 X-9.39267 Y3.82874
G01 X-9.41744 Y3.86151
G01 X-9.44251 Y3.89647
G01 X-9.46423 Y3.92846
G01 X-9.52895 Y4.02647
G01 X-9.56049 Y4.07672
G01 X-9.56300 Y4.08094
G01 X-9.59129 Y4.13147
G01 X-9.62944 Y4.20379
G01 X-9.64701 Y4.23675
G01 X-9.66169 Y4.26672
G01 X-9.66716 Y4.27842
G01 X-9.68197 Y4.31190
G01 X-9.69320 Y4.33996
G01 X-9.72416 Y4.41595
G01 X-9.73629 Y4.44784
G01 X-9.73792 Y4.45247
G01 X-9.74903 Y4.48677
G01 X-9.77818 Y4.58478
G01 X-9.78624 Y4.61439
G01 X-9.78741 Y4.61916
G01 X-9.79390 Y4.64889
G01 X-9.81284 Y4.74691
G01 X-9.81738 Y4.77373
G01 X-9.81808 Y4.77859
G01 X-9.82096 Y4.80303
G01 X-9.83034 Y4.90351
G01 X-9.83211 Y4.92905
G01 X-9.83233 Y4.93396
G01 X-9.83279 Y4.95953
G01 X-9.83225 Y5.05754
G01 X-9.83151 Y5.08319
G01 X-9.83124 Y5.08809
G01 X-9.82918 Y5.11371
G01 X-9.81899 Y5.21173
G01 X-9.81551 Y5.23886
G01 X-9.81477 Y5.24372
G01 X-9.80988 Y5.27077
G01 X-9.78983 Y5.36879
G01 X-9.78290 Y5.39894
G01 X-9.78168 Y5.40370
G01 X-9.77315 Y5.43371
G01 X-9.74992 Y5.50883
G01 X-9.74262 Y5.53315
G01 X-9.73234 Y5.56332
G01 X-9.72802 Y5.57512
G01 X-9.71662 Y5.60447
G01 X-9.70566 Y5.62997
G01 X-9.67451 Y5.70403
G01 X-9.65565 Y5.74593
G01 X-9.65352 Y5.75035
G01 X-9.63219 Y5.79202
G01 X-9.57911 Y5.89004
G01 X-9.56358 Y5.91768
G01 X-9.56012 Y5.91721
G01 X-9.56358 Y5.91768
G01 X-9.56690 Y5.93075
G01 X-9.57768 Y5.97867
G01 X-9.57864 Y5.98349
G01 X-9.58698 Y6.03141
G01 X-9.58832 Y6.04024
G01 X-9.59437 Y6.08903
G01 X-9.59486 Y6.09391
G01 X-9.59828 Y6.14029
G01 X-9.59884 Y6.15158
G01 X-9.59997 Y6.19755
G01 X-9.59997 Y6.20246
G01 X-9.59884 Y6.24843
G01 X-9.59844 Y6.25726
G01 X-9.59485 Y6.30609
G01 X-9.59437 Y6.31098
G01 X-9.58864 Y6.35735
G01 X-9.58737 Y6.36613
G01 X-9.57864 Y6.41651
G01 X-9.57768 Y6.42133
G01 X-9.56690 Y6.46925
G01 X-9.56411 Y6.48040
G01 X-9.55011 Y6.53088
G01 X-9.54868 Y6.53558
G01 X-9.53119 Y6.58832
G01 X-9.52803 Y6.59706
G01 X-9.50703 Y6.65138
G01 X-9.50515 Y6.65591
G01 X-9.48102 Y6.71023
G01 X-9.47646 Y6.71991
G01 X-9.46180 Y6.74992
G01 X-9.44505 Y6.78218
G01 X-9.42615 Y6.81643
G01 X-9.40422 Y6.85382
G01 X-9.38256 Y6.88893
G01 X-9.35765 Y6.92711
G01 X-9.33425 Y6.96111
G01 X-9.30827 Y6.99704
G01 X-9.30207 Y7.00540
G01 X-9.27192 Y7.04494
G01 X-9.23858 Y7.08649
G01 X-9.20363 Y7.12792
G01 X-9.16053 Y7.17647
G01 X-9.11346 Y7.22700
G01 X-9.06498 Y7.27641
G01 X-9.01589 Y7.32409
G01 X-8.96276 Y7.37339
G01 X-8.95490 Y7.38052
G01 X-8.88629 Y7.44103
G01 X-8.81119 Y7.50387
G01 X-8.73447 Y7.56489
G01 X-8.65594 Y7.62450
G01 X-8.59221 Y7.67119
G01 X-8.53477 Y7.71198
G01 X-8.47689 Y7.75193
G01 X-8.41748 Y7.79184
G01 X-8.35751 Y7.83108
G01 X-8.29498 Y7.87095
G01 X-8.22997 Y7.91137
G01 X-8.15420 Y7.95725
G01 X-8.08163 Y8.00019
G01 X-8.00674 Y8.04340
G01 X-7.98853 Y8.05160
G01 X-7.96905 Y8.05602
G01 X-7.94907 Y8.05648
G01 X-7.92941 Y8.05296
G01 X-7.85104 Y8.03066
G01 X-7.77083 Y8.00617
G01 X-7.69066 Y7.98002
G01 X-7.61051 Y7.95220
G01 X-7.60207 Y7.94917
G01 X-7.49440 Y7.90909
G01 X-7.38213 Y7.86407
G01 X-7.27226 Y7.81682
G01 X-7.16458 Y7.76745
G01 X-7.15614 Y7.76346
G01 X-7.08281 Y7.72777
G01 X-7.08316 Y7.72517
G01 X-7.08281 Y7.72777
G01 X-7.01457 Y7.74039
G01 X-6.91606 Y7.75650
G01 X-6.81543 Y7.77077
G01 X-6.71264 Y7.78308
G01 X-6.61197 Y7.79293
G01 X-6.51345 Y7.80043
G01 X-6.41059 Y7.80602
G01 X-6.30989 Y7.80927
G01 X-6.20919 Y7.81032
G01 X-6.10849 Y7.80917
G01 X-6.00998 Y7.80593
G01 X-5.90928 Y7.80044
G01 X-5.80644 Y7.79256
G01 X-5.70578 Y7.78263
G01 X-5.60514 Y7.77050
G01 X-5.51501 Y7.75770
G01 X-5.51502 Y7.75752
G01 X-5.51501 Y7.75770
G01 X-5.44736 Y7.75959
G01 X-5.36795 Y7.76050
G01 X-5.29018 Y7.76010
G01 X-5.21241 Y7.75841
G01 X-5.13465 Y7.75544
G01 X-5.05689 Y7.75119
G01 X-4.97914 Y7.74565
G01 X-4.90139 Y7.73884
G01 X-4.82365 Y7.73074
G01 X-4.74592 Y7.72136
G01 X-4.66821 Y7.71070
G01 X-4.59209 Y7.69901
G01 X-4.51281 Y7.68554
G01 X-4.43669 Y7.67134
G01 X-4.35746 Y7.65526
G01 X-4.29352 Y7.64122
G01 X-4.29355 Y7.64084
G01 X-4.29352 Y7.64122
G01 X-4.18596 Y7.64465
G01 X-4.06100 Y7.64554
G01 X-3.93852 Y7.64334
G01 X-3.81604 Y7.63811
G01 X-3.69603 Y7.63004
G01 X-3.57357 Y7.61881
G01 X-3.44871 Y7.60423
G01 X-3.33859 Y7.58864
G01 X-3.33860 Y7.58839
G01 X-3.33859 Y7.58864
G01 X-3.24668 Y7.59395
G01 X-3.15733 Y7.59754
G01 X-3.07841 Y7.59932
G01 X-3.07839 Y7.59913
G01 X-3.07841 Y7.59932
G01 X-3.01962 Y7.61096
G01 X-2.94962 Y7.62383
G01 X-2.88096 Y7.63547
G01 X-2.81297 Y7.64604
G01 X-2.76308 Y7.65343
G01 X-2.67581 Y7.66557
G01 X-2.58853 Y7.67613
G01 X-2.50123 Y7.68512
G01 X-2.41573 Y7.69238
G01 X-2.39574 Y7.69207
G01 X-2.37621 Y7.68780
G01 X-2.35792 Y7.67972
G01 X-2.34161 Y7.66817
G01 X-2.26999 Y7.60583
G01 X-2.20074 Y7.54392
G01 X-2.14626 Y7.49454
G01 X-2.09256 Y7.44531
G01 X-2.04005 Y7.39606
G01 X-1.98958 Y7.34761
G01 X-1.93944 Y7.29833
G01 X-1.89048 Y7.24902
G01 X-1.84182 Y7.19874
G01 X-1.79522 Y7.14933
G01 X-1.75026 Y7.10038
G01 X-1.70508 Y7.05052
G01 X-1.63510 Y6.97152
G01 X-1.56684 Y6.89073
G01 X-1.50023 Y6.80783
G01 X-1.44001 Y6.72882
G01 X-1.40288 Y6.67876
G01 X-1.35400 Y6.61126
G01 X-1.30682 Y6.54275
G01 X-1.26064 Y6.47200
G01 X-1.21888 Y6.40433
G01 X-1.18891 Y6.35431
G01 X-1.15518 Y6.29651
G01 X-1.12210 Y6.23664
G01 X-1.09086 Y6.17668
G01 X-1.06148 Y6.11664
G01 X-1.03725 Y6.06540
G01 X-1.01263 Y6.01165
G01 X-0.98954 Y5.95783
G01 X-0.96886 Y5.90628
G01 X-0.94834 Y5.85120
G01 X-0.93041 Y5.80107
G01 X-0.91415 Y5.75385
G01 X-0.89768 Y5.70199
G01 X-0.88395 Y5.65478
G01 X-0.87083 Y5.60516
G01 X-0.85824 Y5.55493
G01 X-0.84741 Y5.50942
G01 X-0.83699 Y5.46030
G01 X-0.82829 Y5.41352
G01 X-0.82095 Y5.36794
G01 X-0.81368 Y5.31894
G01 X-0.80741 Y5.27259
G01 X-0.80266 Y5.22986
G01 X-0.79873 Y5.18469
G01 X-0.79585 Y5.13828
G01 X-0.79339 Y5.08805
G01 X-0.79178 Y5.04341
G01 X-0.79126 Y4.99877
G01 X-0.89125 Y5.00000
G01 X-0.94125 Y5.00000
G01 X-0.94175 Y4.95905
G01 X-0.94328 Y4.91778
G01 X-0.94565 Y4.86939
G01 X-0.94822 Y4.82759
G01 X-0.95180 Y4.78609
G01 X-0.95641 Y4.74459
G01 X-0.96210 Y4.70277
G01 X-0.96928 Y4.65437
G01 X-0.97628 Y4.61095
G01 X-0.98433 Y4.56782
G01 X-0.99348 Y4.52467
G01 X-1.00381 Y4.48122
G01 X-1.01594 Y4.43281
G01 X-1.02816 Y4.38650
G01 X-1.04154 Y4.34047
G01 X-1.05616 Y4.29442
G01 X-1.07213 Y4.24806
G01 X-1.08946 Y4.19963
G01 X-1.10832 Y4.14896
G01 X-1.12853 Y4.09856
G01 X-1.15020 Y4.04812
G01 X-1.17347 Y3.99739
G01 X-1.19639 Y3.94894
G01 X-1.22438 Y3.89170
G01 X-1.21797 Y3.86065
G01 X-1.22438 Y3.89170
G01 X-1.41450 Y4.05519
G01 X-1.46588 Y4.09873
G01 X-1.51544 Y4.13949
G01 X-1.72041 Y4.30531
G01 X-1.75455 Y4.33226
G01 X-1.78922 Y4.35827
G01 X-1.88566 Y4.42861
G01 X-1.91281 Y4.44772
G01 X-1.94058 Y4.46587
G01 X-2.00183 Y4.50425
G01 X-2.02600 Y4.51869
G01 X-2.05130 Y4.53237
G01 X-2.06640 Y4.54008
G01 X-2.09697 Y4.55698
G01 X-2.13904 Y4.58221
G01 X-2.15745 Y4.59384
G01 X-2.17505 Y4.60625
G01 X-2.21386 Y4.63503
G01 X-2.22966 Y4.64730
G01 X-2.24469 Y4.66032
G01 X-2.28014 Y4.69244
G01 X-2.29419 Y4.70580
G01 X-2.30755 Y4.71986
G01 X-2.33968 Y4.75530
G01 X-2.35270 Y4.77034
G01 X-2.36497 Y4.78614
G01 X-2.39375 Y4.82494
G01 X-2.40616 Y4.84255
G01 X-2.41779 Y4.86096
G01 X-2.44313 Y4.90324
G01 X-2.45524 Y4.92460
G01 X-2.46644 Y4.94693
G01 X-2.48817 Y4.99287
G01 X-2.50005 Y5.01969
G01 X-2.51082 Y5.04771
G01 X-2.52867 Y5.09760
G01 X-2.54013 Y5.13235
G01 X-2.55012 Y5.16866
G01 X-2.56371 Y5.22289
G01 X-2.57388 Y5.26814
G01 X-2.57873 Y5.31540
G01 X-2.58602 Y5.37373
G01 X-2.59650 Y5.44353
G01 X-2.60683 Y5.51497
G01 X-2.61916 Y5.58932
G01 X-2.62559 Y5.62405
G01 X-2.66471 Y5.84017
G01 X-2.67660 Y5.90276
G01 X-2.68459 Y5.94242
G01 X-2.80045 Y6.50518
G01 X-2.81433 Y6.57320
G01 X-2.85095 Y6.74612
G01 X-3.00771 Y7.46041
G01 X-3.02592 Y7.47247
G01 X-3.00771 Y7.46041
G01 X-2.99081 Y7.46375
G01 X-2.92419 Y7.47600
G01 X-2.85757 Y7.48731
G01 X-2.79079 Y7.49769
G01 X-2.74217 Y7.50490
G01 X-2.65733 Y7.51672
G01 X-2.57270 Y7.52697
G01 X-2.48809 Y7.53569
G01 X-2.42412 Y7.54113
G01 X-2.42278 Y7.54521
G01 X-2.42412 Y7.54113
G01 X-2.36971 Y7.49379
G01 X-2.30135 Y7.43266
G01 X-2.24750 Y7.38386
G01 X-2.19496 Y7.33570
G01 X-2.14371 Y7.28765
G01 X-2.09367 Y7.23961
G01 X-2.04482 Y7.19158
G01 X-1.99717 Y7.14358
G01 X-1.95071 Y7.09558
G01 X-1.90546 Y7.04761
G01 X-1.86129 Y6.99953
G01 X-1.81718 Y6.95085
G01 X-1.74778 Y6.87251
G01 X-1.68183 Y6.79442
G01 X-1.61914 Y6.71639
G01 X-1.55951 Y6.63815
G01 X-1.52353 Y6.58964
G01 X-1.47586 Y6.52379
G01 X-1.43072 Y6.45821
G01 X-1.38795 Y6.39269
G01 X-1.34737 Y6.32693
G01 X-1.31831 Y6.27845
G01 X-1.28503 Y6.22143
G01 X-1.25372 Y6.16469
G01 X-1.22422 Y6.10800
G01 X-1.19639 Y6.05106
G01 X-1.17347 Y6.00261
G01 X-1.15020 Y5.95187
G01 X-1.12853 Y5.90144
G01 X-1.10832 Y5.85104
G01 X-1.08946 Y5.80037
G01 X-1.07213 Y5.75194
G01 X-1.05616 Y5.70558
G01 X-1.04154 Y5.65953
G01 X-1.02816 Y5.61350
G01 X-1.01594 Y5.56719
G01 X-1.00381 Y5.51878
G01 X-0.99348 Y5.47532
G01 X-0.98433 Y5.43218
G01 X-0.97628 Y5.38905
G01 X-0.96928 Y5.34563
G01 X-0.96210 Y5.29723
G01 X-0.95641 Y5.25541
G01 X-0.95180 Y5.21390
G01 X-0.94822 Y5.17241
G01 X-0.94565 Y5.13061
G01 X-0.94327 Y5.08222
G01 X-0.94175 Y5.04096
G01 X-0.94125 Y5.00000
G01 X-0.99125 Y5.00000
G01 X-0.99174 Y5.03973
G01 X-0.99323 Y5.08007
G01 X-0.99558 Y5.12785
G01 X-0.99809 Y5.16872
G01 X-1.00157 Y5.20899
G01 X-1.00604 Y5.24928
G01 X-1.01161 Y5.29019
G01 X-1.01869 Y5.33798
G01 X-1.02554 Y5.38048
G01 X-1.03336 Y5.42240
G01 X-1.04226 Y5.46435
G01 X-1.05239 Y5.50692
G01 X-1.06436 Y5.55474
G01 X-1.07634 Y5.60014
G01 X-1.08938 Y5.64498
G01 X-1.10364 Y5.68987
G01 X-1.11931 Y5.73538
G01 X-1.13643 Y5.78323
G01 X-1.15496 Y5.83301
G01 X-1.17471 Y5.88226
G01 X-1.19590 Y5.93158
G01 X-1.21880 Y5.98150
G01 X-1.24145 Y6.02939
G01 X-1.26886 Y6.08548
G01 X-1.29779 Y6.14107
G01 X-1.32852 Y6.19674
G01 X-1.36135 Y6.25300
G01 X-1.39009 Y6.30095
G01 X-1.43017 Y6.36589
G01 X-1.47226 Y6.43037
G01 X-1.51671 Y6.49495
G01 X-1.56386 Y6.56009
G01 X-1.59947 Y6.60811
G01 X-1.65852 Y6.68557
G01 X-1.72042 Y6.76262
G01 X-1.78560 Y6.83979
G01 X-1.85441 Y6.91749
G01 X-1.89823 Y6.96582
G01 X-1.94206 Y7.01354
G01 X-1.98687 Y7.06104
G01 X-2.03288 Y7.10858
G01 X-2.08009 Y7.15614
G01 X-2.12851 Y7.20374
G01 X-2.17813 Y7.25138
G01 X-2.22895 Y7.29904
G01 X-2.28119 Y7.34691
G01 X-2.33480 Y7.39550
G01 X-2.40279 Y7.45629
G01 X-2.44097 Y7.48952
G01 X-2.43964 Y7.49360
G01 X-2.44097 Y7.48952
G01 X-2.48341 Y7.48591
G01 X-2.56713 Y7.47728
G01 X-2.65087 Y7.46713
G01 X-2.73506 Y7.45541
G01 X-2.78328 Y7.44825
G01 X-2.84955 Y7.43795
G01 X-2.91549 Y7.42676
G01 X-2.94783 Y7.42082
G01 X-2.96634 Y7.43324
G01 X-2.94783 Y7.42082
G01 X-2.80211 Y6.75684
G01 X-2.76534 Y6.58318
G01 X-2.75148 Y6.51524
G01 X-2.63565 Y5.95267
G01 X-2.62749 Y5.91209
G01 X-2.61551 Y5.84908
G01 X-2.57640 Y5.63301
G01 X-2.57000 Y5.59846
G01 X-2.55750 Y5.52314
G01 X-2.54702 Y5.45076
G01 X-2.53640 Y5.37994
G01 X-2.52911 Y5.32161
G01 X-2.52446 Y5.27621
G01 X-2.51505 Y5.23441
G01 X-2.50176 Y5.18139
G01 X-2.49225 Y5.14682
G01 X-2.48138 Y5.11384
G01 X-2.46394 Y5.06512
G01 X-2.45383 Y5.03880
G01 X-2.44270 Y5.01368
G01 X-2.42150 Y4.96885
G01 X-2.41114 Y4.94814
G01 X-2.39992 Y4.92841
G01 X-2.37521 Y4.88719
G01 X-2.36456 Y4.87032
G01 X-2.35322 Y4.85423
G01 X-2.32517 Y4.81641
G01 X-2.31402 Y4.80207
G01 X-2.30222 Y4.78843
G01 X-2.27092 Y4.75389
G01 X-2.25885 Y4.74115
G01 X-2.24611 Y4.72908
G01 X-2.21157 Y4.69778
G01 X-2.19792 Y4.68599
G01 X-2.18359 Y4.67483
G01 X-2.14577 Y4.64678
G01 X-2.12968 Y4.63544
G01 X-2.11281 Y4.62478
G01 X-2.07200 Y4.60031
G01 X-2.04294 Y4.58424
G01 X-2.02759 Y4.57639
G01 X-2.00037 Y4.56162
G01 X-1.97530 Y4.54662
G01 X-1.91326 Y4.50775
G01 X-1.88403 Y4.48861
G01 X-1.85620 Y4.46901
G01 X-1.75975 Y4.39867
G01 X-1.72357 Y4.37151
G01 X-1.68897 Y4.34418
G01 X-1.48430 Y4.17861
G01 X-1.43412 Y4.13736
G01 X-1.38163 Y4.09287
G01 X-1.24087 Y3.97183
G01 X-1.23394 Y3.93986
G01 X-1.24087 Y3.97183
G01 X-1.21880 Y4.01850
G01 X-1.19590 Y4.06842
G01 X-1.17471 Y4.11774
G01 X-1.15496 Y4.16699
G01 X-1.13643 Y4.21677
G01 X-1.11931 Y4.26462
G01 X-1.10363 Y4.31013
G01 X-1.08938 Y4.35502
G01 X-1.07634 Y4.39986
G01 X-1.06436 Y4.44526
G01 X-1.05239 Y4.49307
G01 X-1.04226 Y4.53565
G01 X-1.03336 Y4.57760
G01 X-1.02554 Y4.61951
G01 X-1.01870 Y4.66202
G01 X-1.01161 Y4.70981
G01 X-1.00604 Y4.75072
G01 X-1.00157 Y4.79101
G01 X-0.99809 Y4.83128
G01 X-0.99558 Y4.87215
G01 X-0.99323 Y4.91993
G01 X-0.99174 Y4.96027
G01 X-0.99125 Y5.00000
G01 X-0.89125 Y5.00000
G01 X-0.89177 Y5.04218
G01 X-0.89332 Y5.08436
G01 X-0.89573 Y5.13337
G01 X-0.89836 Y5.17609
G01 X-0.90204 Y5.21882
G01 X-0.90679 Y5.26154
G01 X-0.91260 Y5.30426
G01 X-0.91987 Y5.35327
G01 X-0.92702 Y5.39761
G01 X-0.93529 Y5.44195
G01 X-0.94470 Y5.48630
G01 X-0.95524 Y5.53064
G01 X-0.96752 Y5.57965
G01 X-0.97998 Y5.62686
G01 X-0.99370 Y5.67408
G01 X-1.00870 Y5.72129
G01 X-1.02496 Y5.76850
G01 X-1.04249 Y5.81751
G01 X-1.06168 Y5.86906
G01 X-1.08235 Y5.92061
G01 X-1.10451 Y5.97217
G01 X-1.12815 Y6.02372
G01 X-1.15132 Y6.07273
G01 X-1.17957 Y6.13052
G01 X-1.20965 Y6.18832
G01 X-1.24155 Y6.24611
G01 X-1.27528 Y6.30391
G01 X-1.30465 Y6.35291
G01 X-1.34574 Y6.41948
G01 X-1.38919 Y6.48605
G01 X-1.43501 Y6.55262
G01 X-1.48320 Y6.61919
G01 X-1.51954 Y6.66820
G01 X-1.57976 Y6.74721
G01 X-1.64323 Y6.82621
G01 X-1.70996 Y6.90521
G01 X-1.77994 Y6.98422
G01 X-1.82436 Y7.03323
G01 X-1.86886 Y7.08168
G01 X-1.91457 Y7.13012
G01 X-1.96146 Y7.17857
G01 X-2.00955 Y7.22702
G01 X-2.05883 Y7.27547
G01 X-2.10930 Y7.32392
G01 X-2.16096 Y7.37237
G01 X-2.21382 Y7.42082
G01 X-2.26790 Y7.46983
G01 X-2.33664 Y7.53128
G01 X-2.40726 Y7.59274
G01 X-2.49277 Y7.58547
G01 X-2.57827 Y7.57666
G01 X-2.66378 Y7.56630
G01 X-2.74929 Y7.55439
G01 X-2.79830 Y7.54712
G01 X-2.86559 Y7.53666
G01 X-2.93289 Y7.52524
G01 X-3.00019 Y7.51287
G01 X-3.06749 Y7.49954
G01 X-3.15507 Y7.49756
G01 X-3.24266 Y7.49403
G01 X-3.34271 Y7.48822
G01 X-3.46272 Y7.50521
G01 X-3.58273 Y7.51923
G01 X-3.70274 Y7.53027
G01 X-3.82275 Y7.53834
G01 X-3.94276 Y7.54343
G01 X-4.06277 Y7.54555
G01 X-4.18278 Y7.54470
G01 X-4.30278 Y7.54088
G01 X-4.37890 Y7.55758
G01 X-4.45502 Y7.57303
G01 X-4.53114 Y7.58723
G01 X-4.60726 Y7.60017
G01 X-4.68338 Y7.61186
G01 X-4.75950 Y7.62228
G01 X-4.83562 Y7.63146
G01 X-4.91174 Y7.63937
G01 X-4.98785 Y7.64603
G01 X-5.06397 Y7.65144
G01 X-5.14009 Y7.65559
G01 X-5.21621 Y7.65848
G01 X-5.29233 Y7.66012
G01 X-5.36845 Y7.66050
G01 X-5.44457 Y7.65963
G01 X-5.52069 Y7.65750
G01 X-5.61920 Y7.67150
G01 X-5.71772 Y7.68334
G01 X-5.81624 Y7.69304
G01 X-5.91476 Y7.70059
G01 X-6.01327 Y7.70598
G01 X-6.11179 Y7.70923
G01 X-6.21031 Y7.71033
G01 X-6.30882 Y7.70927
G01 X-6.40734 Y7.70607
G01 X-6.50586 Y7.70072
G01 X-6.60438 Y7.69321
G01 X-6.70289 Y7.68356
G01 X-6.80141 Y7.67176
G01 X-6.89993 Y7.65780
G01 X-6.99844 Y7.64170
G01 X-7.09696 Y7.62345
G01 X-7.15625 Y7.59670
G01 X-7.14252 Y7.60290
G01 X-7.15625 Y7.59670
G01 X-7.19217 Y7.46702
G01 X-7.22915 Y7.33871
G01 X-7.22899 Y7.33865
G01 X-7.22915 Y7.33871
G01 X-7.32069 Y7.14703
G01 X-7.46712 Y6.83916
G01 X-7.46667 Y6.83886
G01 X-7.46712 Y6.83916
G01 X-7.62550 Y6.66503
G01 X-7.91931 Y6.34058
G01 X-7.96712 Y6.28901
G01 X-8.01468 Y6.24005
G01 X-8.06218 Y6.19348
G01 X-8.11576 Y6.14374
G01 X-8.15790 Y6.10648
G01 X-8.21163 Y6.06011
G01 X-8.21118 Y6.05933
G01 X-8.21163 Y6.06011
G01 X-8.29360 Y6.03111
G01 X-8.33035 Y6.01794
G01 X-8.38116 Y6.00148
G01 X-8.43111 Y5.98672
G01 X-8.49688 Y5.96821
G01 X-8.57696 Y5.94522
G01 X-8.62302 Y5.93296
G01 X-8.66096 Y5.92415
G01 X-8.69152 Y5.91811
G01 X-8.73519 Y5.91014
G01 X-8.77943 Y5.90172
G01 X-8.81499 Y5.89580
G01 X-8.84907 Y5.89149
G01 X-8.87721 Y5.88917
G01 X-8.89690 Y5.88791
G01 X-8.94511 Y5.88446
G01 X-8.96867 Y5.88317
G01 X-8.99972 Y5.88257
G01 X-9.03075 Y5.88352
G01 X-9.10976 Y5.88789
G01 X-9.14410 Y5.89062
G01 X-9.17883 Y5.89512
G01 X-9.20081 Y5.89869
G01 X-9.28534 Y5.91343
G01 X-9.32697 Y5.92135
G01 X-9.36950 Y5.93134
G01 X-9.39721 Y5.93865
G01 X-9.41517 Y5.94361
G01 X-9.42063 Y5.93814
G01 X-9.41517 Y5.94361
G01 X-9.42070 Y5.96426
G01 X-9.43109 Y6.01039
G01 X-9.43909 Y6.05649
G01 X-9.43986 Y6.06164
G01 X-9.44537 Y6.10619
G01 X-9.44866 Y6.15073
G01 X-9.45000 Y6.20000
G01 X-9.44866 Y6.24927
G01 X-9.44537 Y6.29381
G01 X-9.43985 Y6.33836
G01 X-9.43910 Y6.34351
G01 X-9.43109 Y6.38961
G01 X-9.42069 Y6.43574
G01 X-9.41941 Y6.44092
G01 X-9.40591 Y6.48961
G01 X-9.38976 Y6.53834
G01 X-9.38790 Y6.54356
G01 X-9.36758 Y6.59615
G01 X-9.34417 Y6.64880
G01 X-9.32731 Y6.68350
G01 X-9.31227 Y6.71240
G01 X-9.29629 Y6.74135
G01 X-9.27923 Y6.77059
G01 X-9.25525 Y6.80961
G01 X-9.23374 Y6.84257
G01 X-9.21102 Y6.87557
G01 X-9.18257 Y6.91472
G01 X-9.15302 Y6.95350
G01 X-9.12203 Y6.99207
G01 X-9.08941 Y7.03069
G01 X-9.04961 Y7.07549
G01 X-9.00589 Y7.12246
G01 X-8.96003 Y7.16924
G01 X-8.91180 Y7.21609
G01 X-8.85442 Y7.26914
G01 X-8.78757 Y7.32810
G01 X-8.71730 Y7.38689
G01 X-8.64334 Y7.44576
G01 X-8.56547 Y7.50485
G01 X-8.55725 Y7.51095
G01 X-8.50398 Y7.54988
G01 X-8.44927 Y7.58873
G01 X-8.39298 Y7.62760
G01 X-8.33510 Y7.66648
G01 X-8.27563 Y7.70539
G01 X-8.21458 Y7.74432
G01 X-8.15194 Y7.78326
G01 X-8.07721 Y7.82851
G01 X-8.00548 Y7.87095
G01 X-7.95011 Y7.90289
G01 X-7.95066 Y7.90722
G01 X-7.95011 Y7.90289
G01 X-7.89256 Y7.88652
G01 X-7.81511 Y7.86286
G01 X-7.73765 Y7.83757
G01 X-7.65410 Y7.80849
G01 X-7.54731 Y7.76874
G01 X-7.44079 Y7.72602
G01 X-7.33423 Y7.68022
G01 X-7.22737 Y7.63123
G01 X-7.15625 Y7.59670
G01 X-7.21554 Y7.56994
G01 X-7.24028 Y7.48062
G01 X-7.27605 Y7.35653
G01 X-7.27589 Y7.35647
G01 X-7.27605 Y7.35653
G01 X-7.36583 Y7.16854
G01 X-7.50909 Y6.86732
G01 X-7.50864 Y6.86702
G01 X-7.50909 Y6.86732
G01 X-7.66256 Y6.69859
G01 X-7.95617 Y6.37437
G01 X-8.00339 Y6.32343
G01 X-8.05012 Y6.27532
G01 X-8.09672 Y6.22964
G01 X-8.14912 Y6.18099
G01 X-8.19079 Y6.14413
G01 X-8.23718 Y6.10411
G01 X-8.23672 Y6.10333
G01 X-8.23718 Y6.10411
G01 X-8.31038 Y6.07821
G01 X-8.34651 Y6.06526
G01 X-8.39595 Y6.04924
G01 X-8.44496 Y6.03476
G01 X-8.51081 Y6.01623
G01 X-8.59029 Y5.99341
G01 X-8.63539 Y5.98141
G01 X-8.67141 Y5.97305
G01 X-8.70085 Y5.96723
G01 X-8.74414 Y5.95933
G01 X-8.78821 Y5.95095
G01 X-8.82263 Y5.94521
G01 X-8.85418 Y5.94123
G01 X-8.88083 Y5.93905
G01 X-8.90024 Y5.93780
G01 X-8.94834 Y5.93436
G01 X-8.97024 Y5.93315
G01 X-8.99945 Y5.93258
G01 X-9.02864 Y5.93347
G01 X-9.10641 Y5.93779
G01 X-9.13890 Y5.94036
G01 X-9.17181 Y5.94464
G01 X-9.19241 Y5.94798
G01 X-9.27652 Y5.96265
G01 X-9.31657 Y5.97026
G01 X-9.35758 Y5.97990
G01 X-9.37393 Y5.98419
G01 X-9.38024 Y5.97798
G01 X-9.37393 Y5.98419
G01 X-9.38204 Y6.02016
G01 X-9.38973 Y6.06444
G01 X-9.39030 Y6.06837
G01 X-9.39560 Y6.11111
G01 X-9.39875 Y6.15380
G01 X-9.39893 Y6.15772
G01 X-9.39999 Y6.20000
G01 X-9.39875 Y6.24620
G01 X-9.39560 Y6.28890
G01 X-9.39032 Y6.33163
G01 X-9.38972 Y6.33556
G01 X-9.38204 Y6.37983
G01 X-9.37106 Y6.42816
G01 X-9.35806 Y6.47506
G01 X-9.34104 Y6.52612
G01 X-9.32138 Y6.57697
G01 X-9.29872 Y6.62796
G01 X-9.28266 Y6.66098
G01 X-9.26821 Y6.68879
G01 X-9.25280 Y6.71667
G01 X-9.23300 Y6.75045
G01 X-9.21303 Y6.78282
G01 X-9.19220 Y6.81472
G01 X-9.17017 Y6.84673
G01 X-9.14660 Y6.87930
G01 X-9.11364 Y6.92268
G01 X-9.08344 Y6.96027
G01 X-9.05159 Y6.99798
G01 X-9.01279 Y7.04167
G01 X-8.96973 Y7.08792
G01 X-8.92475 Y7.13380
G01 X-8.87738 Y7.17982
G01 X-8.82110 Y7.23187
G01 X-8.75499 Y7.29016
G01 X-8.68568 Y7.34815
G01 X-8.61265 Y7.40628
G01 X-8.52760 Y7.47069
G01 X-8.47475 Y7.50931
G01 X-8.42059 Y7.54777
G01 X-8.36483 Y7.58627
G01 X-8.30747 Y7.62481
G01 X-8.24850 Y7.66339
G01 X-8.18794 Y7.70200
G01 X-8.12577 Y7.74065
G01 X-8.05163 Y7.78555
G01 X-7.98026 Y7.82778
G01 X-7.94345 Y7.84901
G01 X-7.94400 Y7.85335
G01 X-7.94345 Y7.84901
G01 X-7.90671 Y7.83856
G01 X-7.83018 Y7.81518
G01 X-7.75362 Y7.79019
G01 X-7.67125 Y7.76152
G01 X-7.56534 Y7.72210
G01 X-7.45997 Y7.67984
G01 X-7.35452 Y7.63452
G01 X-7.24848 Y7.58590
G01 X-7.21554 Y7.56994

G04 P0 ( dwell for no time -- G64 should not smooth over this point )
G00 Z1.000000 ( retract )

M5 ( Spindle off. )
G04 P1.000000
M9 ( Coolant off. )
M2 ( Program end. )

