( pcb2gcode 2.2.2 )
( Software-independent Gcode )

G94 ( Inches per minute feed rate. )
G20 ( Units == INCHES. )

G90 ( Absolute coordinates. )
G00 S30000 ( RPM spindle speed. )
G64 P0.00040 ( set maximum deviation from commanded toolpath )
G01 F6.00000 ( Feedrate. )


G00 Z1.00000 (Retract to tool change height)
T0
M5      (Spindle stop.)
G04 P1.00000 (Wait for spindle to stop)
(MSG, Change tool bit to mill diameter 0.10000in)
M6      (Tool change.)
M0      (Temporary machine stop.)
M3 ( Spindle on clockwise. )
G04 P1.00000 (Wait for spindle to get up to speed)
G04 P0 ( dwell for no time -- G64 should not smooth over this point )
G00 Z0.08000 ( retract )

G00 X0.48250 Y-0.48250 ( rapid move to begin. )
G01 F3.00000
( Mill infeed pass 1/1 )
G01 Z-0.00800
G04 P0 ( dwell for no time -- G64 should not smooth over this point )
G01 F6.00000
G01 X0.48250 Y-0.48250
G01 X0.48250 Y10.48250
G01 X-10.48250 Y10.48250
G01 X-10.48250 Y-0.48250
G01 X0.48250 Y-0.48250
G01 X0.43250 Y-0.43250
G01 X0.43250 Y10.43250
G01 X0.44714 Y10.44714
G01 X0.43250 Y10.43250
G01 X-10.43250 Y10.43250
G01 X-10.44714 Y10.44714
G01 X-10.43250 Y10.43250
G01 X-10.43250 Y-0.43250
G01 X-10.44714 Y-0.44714
G01 X-10.43250 Y-0.43250
G01 X0.43250 Y-0.43250
G01 X0.38250 Y-0.38250
G01 X0.38250 Y10.38250
G01 X0.39714 Y10.39714
G01 X0.38250 Y10.38250
G01 X-10.38250 Y10.38250
G01 X-10.39714 Y10.39714
G01 X-10.38250 Y10.38250
G01 X-10.38250 Y-0.38250
G01 X-10.39714 Y-0.39714
G01 X-10.38250 Y-0.38250
G01 X0.38250 Y-0.38250
G04 P0 ( dwell for no time -- G64 should not smooth over this point )
G00 Z0.08000 ( retract )

G00 X-1.32027 Y3.77722 ( rapid move to begin. )
G01 F3.00000
( Mill infeed pass 1/1 )
G01 Z-0.00800
G04 P0 ( dwell for no time -- G64 should not smooth over this point )
G01 F6.00000
G01 X-1.32027 Y3.77722
G01 X-1.33195 Y3.73188
G01 X-1.34656 Y3.67998
G01 X-1.36244 Y3.62806
G01 X-1.37958 Y3.57608
G01 X-1.39800 Y3.52406
G01 X-1.41769 Y3.47199
G01 X-1.43884 Y3.41939
G01 X-1.45908 Y3.37051
G01 X-1.48988 Y3.29894
G01 X-1.52273 Y3.22791
G01 X-1.55793 Y3.15680
G01 X-1.59545 Y3.08559
G01 X-1.63532 Y3.01431
G01 X-1.67755 Y2.94292
G01 X-1.72212 Y2.87146
G01 X-1.76906 Y2.79991
G01 X-1.81836 Y2.72828
G01 X-1.87002 Y2.65656
G01 X-1.92406 Y2.58478
G01 X-1.98048 Y2.51290
G01 X-2.03925 Y2.44097
G01 X-2.10042 Y2.36896
G01 X-2.16396 Y2.29689
G01 X-2.20167 Y2.25562
G01 X-2.19986 Y2.25165
G01 X-2.20167 Y2.25562
G01 X-2.26713 Y2.25409
G01 X-2.37397 Y2.25436
G01 X-2.48082 Y2.25736
G01 X-2.58768 Y2.26314
G01 X-2.69455 Y2.27166
G01 X-2.80144 Y2.28294
G01 X-2.90835 Y2.29699
G01 X-3.01530 Y2.31380
G01 X-3.12226 Y2.33336
G01 X-3.22927 Y2.35571
G01 X-3.33631 Y2.38081
G01 X-3.44341 Y2.40869
G01 X-3.55054 Y2.43934
G01 X-3.65772 Y2.47277
G01 X-3.76496 Y2.50899
G01 X-3.77832 Y2.51384
G01 X-3.79805 Y2.50451
G01 X-3.77832 Y2.51384
G01 X-3.67902 Y2.77836
G01 X-3.63481 Y2.89853
G01 X-3.59342 Y3.01594
G01 X-3.55532 Y3.12918
G01 X-3.51956 Y3.24104
G01 X-3.48613 Y3.35185
G01 X-3.45650 Y3.45661
G01 X-3.42873 Y3.56226
G01 X-3.40426 Y3.66343
G01 X-3.38263 Y3.76193
G01 X-3.36384 Y3.85780
G01 X-3.34832 Y3.94846
G01 X-3.33522 Y4.03885
G01 X-3.32498 Y4.12662
G01 X-3.31763 Y4.21181
G01 X-3.31316 Y4.29438
G01 X-3.31161 Y4.37626
G01 X-3.31161 Y4.44636
G01 X-3.31190 Y4.45403
G01 X-3.32522 Y4.63068
G01 X-3.33520 Y4.75319
G01 X-3.34545 Y4.86854
G01 X-3.35487 Y4.96570
G01 X-3.36435 Y5.05621
G01 X-3.37632 Y5.16270
G01 X-3.39366 Y5.30682
G01 X-3.39737 Y5.33931
G01 X-3.40005 Y5.36866
G01 X-3.40004 Y5.65211
G01 X-3.39777 Y5.68174
G01 X-3.39554 Y5.70834
G01 X-3.36545 Y6.04598
G01 X-3.29689 Y6.84248
G01 X-3.25044 Y7.39351
G01 X-3.26198 Y7.40557
G01 X-3.25044 Y7.39351
G01 X-3.19977 Y7.39592
G01 X-3.14468 Y7.39777
G01 X-3.13530 Y7.40988
G01 X-3.14468 Y7.39777
G01 X-3.10117 Y7.19759
G01 X-3.08978 Y7.14393
G01 X-2.86288 Y6.07032
G01 X-2.84031 Y5.95789
G01 X-2.78904 Y5.68558
G01 X-2.77811 Y5.62878
G01 X-2.77066 Y5.58814
G01 X-2.76421 Y5.54843
G01 X-2.75190 Y5.46746
G01 X-2.73883 Y5.38470
G01 X-2.73443 Y5.35444
G01 X-2.73094 Y5.32489
G01 X-2.72258 Y5.24919
G01 X-2.72081 Y5.23852
G01 X-2.71319 Y5.20429
G01 X-2.69827 Y5.14224
G01 X-2.68722 Y5.10083
G01 X-2.68574 Y5.09581
G01 X-2.67203 Y5.05359
G01 X-2.65270 Y4.99901
G01 X-2.63968 Y4.96491
G01 X-2.63768 Y4.96009
G01 X-2.62306 Y4.92723
G01 X-2.59919 Y4.87720
G01 X-2.58521 Y4.84965
G01 X-2.58271 Y4.84504
G01 X-2.56740 Y4.81856
G01 X-2.53932 Y4.77274
G01 X-2.52441 Y4.74969
G01 X-2.52144 Y4.74537
G01 X-2.50538 Y4.72331
G01 X-2.47328 Y4.68148
G01 X-2.45717 Y4.66152
G01 X-2.45375 Y4.65752
G01 X-2.43661 Y4.63853
G01 X-2.40062 Y4.60060
G01 X-2.38273 Y4.58267
G01 X-2.37898 Y4.57911
G01 X-2.36011 Y4.56216
G01 X-2.32024 Y4.52811
G01 X-2.29982 Y4.51154
G01 X-2.29567 Y4.50836
G01 X-2.27429 Y4.49288
G01 X-2.23048 Y4.46277
G01 X-2.20646 Y4.44714
G01 X-2.20199 Y4.44440
G01 X-2.17917 Y4.43124
G01 X-2.13015 Y4.40451
G01 X-2.07629 Y4.37408
G01 X-2.05294 Y4.36020
G01 X-2.02946 Y4.34483
G01 X-1.95051 Y4.29086
G01 X-1.92102 Y4.26999
G01 X-1.89104 Y4.24730
G01 X-1.73694 Y4.12703
G01 X-1.69378 Y4.09262
G01 X-1.64954 Y4.05588
G01 X-1.32027 Y3.77722
G01 X-1.31167 Y3.77996
G01 X-1.27003 Y3.77181
G01 X-1.26449 Y3.79552
G01 X-1.25632 Y3.79822
G01 X-1.26449 Y3.79552
G01 X-1.61742 Y4.09420
G01 X-1.66223 Y4.13140
G01 X-1.70598 Y4.16628
G01 X-1.86058 Y4.28694
G01 X-1.89149 Y4.31034
G01 X-1.92196 Y4.33191
G01 X-2.00166 Y4.38640
G01 X-2.02647 Y4.40263
G01 X-2.05121 Y4.41733
G01 X-2.10574 Y4.44815
G01 X-2.15307 Y4.47393
G01 X-2.17924 Y4.48908
G01 X-2.20216 Y4.50397
G01 X-2.24702 Y4.53483
G01 X-2.26837 Y4.55041
G01 X-2.28777 Y4.56613
G01 X-2.32764 Y4.60018
G01 X-2.34738 Y4.61803
G01 X-2.36435 Y4.63501
G01 X-2.40034 Y4.67294
G01 X-2.41831 Y4.69298
G01 X-2.43362 Y4.71192
G01 X-2.46572 Y4.75375
G01 X-2.48246 Y4.77691
G01 X-2.49669 Y4.79886
G01 X-2.52477 Y4.84468
G01 X-2.53940 Y4.87002
G01 X-2.55406 Y4.89872
G01 X-2.57793 Y4.94876
G01 X-2.59199 Y4.98038
G01 X-2.60557 Y5.01571
G01 X-2.62490 Y5.07029
G01 X-2.63817 Y5.11121
G01 X-2.64996 Y5.15513
G01 X-2.66457 Y5.21595
G01 X-2.67200 Y5.24937
G01 X-2.67288 Y5.25470
G01 X-2.68124 Y5.33037
G01 X-2.68486 Y5.36097
G01 X-2.68940 Y5.39220
G01 X-2.70250 Y5.47514
G01 X-2.71481 Y5.55620
G01 X-2.72139 Y5.59665
G01 X-2.72897 Y5.63802
G01 X-2.73989 Y5.69473
G01 X-2.79123 Y5.96744
G01 X-2.81392 Y6.08043
G01 X-3.04087 Y7.15428
G01 X-3.05228 Y7.20810
G01 X-3.09482 Y7.40388
G01 X-3.10477 Y7.44874
G01 X-3.09552 Y7.46056
G01 X-3.10477 Y7.44874
G01 X-3.13299 Y7.44819
G01 X-3.20179 Y7.44588
G01 X-3.27058 Y7.44260
G01 X-3.29661 Y7.44100
G01 X-3.30800 Y7.45276
G01 X-3.29661 Y7.44100
G01 X-3.34671 Y6.84673
G01 X-3.41526 Y6.05036
G01 X-3.44536 Y5.71265
G01 X-3.44761 Y5.68576
G01 X-3.45004 Y5.65396
G01 X-3.45005 Y5.36642
G01 X-3.44711 Y5.33424
G01 X-3.44330 Y5.30087
G01 X-3.42598 Y5.15687
G01 X-3.41405 Y5.05075
G01 X-3.40464 Y4.96089
G01 X-3.39522 Y4.86373
G01 X-3.38502 Y4.74892
G01 X-3.37504 Y4.62648
G01 X-3.36176 Y4.45019
G01 X-3.36161 Y4.44636
G01 X-3.36162 Y4.37534
G01 X-3.36309 Y4.29705
G01 X-3.36744 Y4.21609
G01 X-3.37464 Y4.13240
G01 X-3.38470 Y4.04600
G01 X-3.39761 Y3.95689
G01 X-3.41313 Y3.86623
G01 X-3.43170 Y3.77157
G01 X-3.45333 Y3.67314
G01 X-3.47756 Y3.57306
G01 X-3.50462 Y3.47022
G01 X-3.53449 Y3.36463
G01 X-3.56719 Y3.25626
G01 X-3.60271 Y3.14513
G01 X-3.64081 Y3.03188
G01 X-3.68220 Y2.91451
G01 X-3.72595 Y2.79563
G01 X-3.84289 Y2.48411
G01 X-3.86204 Y2.47529
G01 X-3.84289 Y2.48411
G01 X-3.78150 Y2.46180
G01 X-3.67316 Y2.42521
G01 X-3.56486 Y2.39143
G01 X-3.45658 Y2.36046
G01 X-3.34832 Y2.33227
G01 X-3.24009 Y2.30689
G01 X-3.13187 Y2.28429
G01 X-3.02368 Y2.26451
G01 X-2.91549 Y2.24750
G01 X-2.80733 Y2.23329
G01 X-2.69917 Y2.22187
G01 X-2.59101 Y2.21324
G01 X-2.48288 Y2.20740
G01 X-2.37473 Y2.20436
G01 X-2.26660 Y2.20409
G01 X-2.17916 Y2.20614
G01 X-2.17735 Y2.20216
G01 X-2.17916 Y2.20614
G01 X-2.12675 Y2.26349
G01 X-2.06261 Y2.33624
G01 X-2.00083 Y2.40896
G01 X-1.94145 Y2.48164
G01 X-1.88442 Y2.55430
G01 X-1.82976 Y2.62691
G01 X-1.77748 Y2.69949
G01 X-1.72756 Y2.77202
G01 X-1.68000 Y2.84451
G01 X-1.63481 Y2.91696
G01 X-1.59198 Y2.98937
G01 X-1.55151 Y3.06173
G01 X-1.51340 Y3.13406
G01 X-1.47763 Y3.20633
G01 X-1.44422 Y3.27856
G01 X-1.41302 Y3.35106
G01 X-1.39254 Y3.40049
G01 X-1.37110 Y3.45382
G01 X-1.35104 Y3.50687
G01 X-1.33227 Y3.55991
G01 X-1.31478 Y3.61291
G01 X-1.29858 Y3.66590
G01 X-1.28367 Y3.71886
G01 X-1.27003 Y3.77181
G01 X-1.22147 Y3.75989
G01 X-1.20885 Y3.81393
G01 X-1.19291 Y3.84472
G01 X-1.16628 Y3.89698
G01 X-1.13835 Y3.95354
G01 X-1.11220 Y4.01009
G01 X-1.08783 Y4.06664
G01 X-1.06523 Y4.12319
G01 X-1.04517 Y4.17546
G01 X-1.02628 Y4.22659
G01 X-1.00888 Y4.27773
G01 X-0.99295 Y4.32886
G01 X-0.97851 Y4.38000
G01 X-0.96450 Y4.43227
G01 X-0.95239 Y4.47992
G01 X-0.94158 Y4.52756
G01 X-0.93207 Y4.57520
G01 X-0.92387 Y4.62285
G01 X-0.91559 Y4.67511
G01 X-0.90897 Y4.72077
G01 X-0.90355 Y4.76644
G01 X-0.89934 Y4.81211
G01 X-0.89634 Y4.85778
G01 X-0.89360 Y4.91004
G01 X-0.89184 Y4.95502
G01 X-0.89125 Y5.00000
G01 X-0.84125 Y4.99934
G01 X-0.84188 Y5.04694
G01 X-0.84367 Y5.09258
G01 X-0.84645 Y5.14549
G01 X-0.84955 Y5.19248
G01 X-0.85390 Y5.23945
G01 X-0.85948 Y5.28641
G01 X-0.86621 Y5.33271
G01 X-0.87449 Y5.38497
G01 X-0.88304 Y5.43458
G01 X-0.89282 Y5.48350
G01 X-0.90393 Y5.53240
G01 X-0.91620 Y5.58066
G01 X-0.93021 Y5.63294
G01 X-0.94483 Y5.68473
G01 X-0.96114 Y5.73714
G01 X-0.97894 Y5.78951
G01 X-0.99827 Y5.84187
G01 X-1.01880 Y5.89535
G01 X-1.04191 Y5.95315
G01 X-1.06628 Y6.00970
G01 X-1.09297 Y6.06745
G01 X-1.12173 Y6.12572
G01 X-1.14836 Y6.17798
G01 X-1.18331 Y6.24427
G01 X-1.21955 Y6.30876
G01 X-1.25872 Y6.37440
G01 X-1.30014 Y6.43997
G01 X-1.33443 Y6.49277
G01 X-1.38627 Y6.57016
G01 X-1.44075 Y6.64692
G01 X-1.49750 Y6.72262
G01 X-1.55805 Y6.79932
G01 X-1.60098 Y6.85234
G01 X-1.63892 Y6.89851
G01 X-1.67841 Y6.94523
G01 X-1.71898 Y6.99192
G01 X-1.76065 Y7.03860
G01 X-1.80387 Y7.08572
G01 X-1.84730 Y7.13190
G01 X-1.93809 Y7.22493
G01 X-1.99116 Y7.27800
G01 X-2.08069 Y7.36560
G01 X-2.17482 Y7.45392
G01 X-2.27351 Y7.54285
G01 X-2.37458 Y7.63045
G01 X-2.38281 Y7.63625
G01 X-2.39204 Y7.64027
G01 X-2.40189 Y7.64237
G01 X-2.41196 Y7.64245
G01 X-2.52693 Y7.63176
G01 X-2.57978 Y7.62622
G01 X-2.70299 Y7.61166
G01 X-2.82807 Y7.59365
G01 X-2.95063 Y7.57282
G01 X-3.07015 Y7.54943
G01 X-3.07013 Y7.54925
G01 X-3.07015 Y7.54943
G01 X-3.13530 Y7.54816
G01 X-3.20620 Y7.54578
G01 X-3.27639 Y7.54244
G01 X-3.34083 Y7.53846
G01 X-3.34084 Y7.53820
G01 X-3.34083 Y7.53846
G01 X-3.45580 Y7.55473
G01 X-3.57701 Y7.56889
G01 X-3.69944 Y7.58016
G01 X-3.82068 Y7.58829
G01 X-3.94067 Y7.59338
G01 X-4.06191 Y7.59554
G01 X-4.18438 Y7.59467
G01 X-4.29815 Y7.59105
G01 X-4.29818 Y7.59067
G01 X-4.29815 Y7.59105
G01 X-4.36819 Y7.60642
G01 X-4.44585 Y7.62218
G01 X-4.52197 Y7.63638
G01 X-4.59968 Y7.64959
G01 X-4.67659 Y7.66139
G01 X-4.75271 Y7.67182
G01 X-4.83043 Y7.68118
G01 X-4.90655 Y7.68910
G01 X-4.98430 Y7.69590
G01 X-5.06043 Y7.70131
G01 X-5.13819 Y7.70555
G01 X-5.21431 Y7.70844
G01 X-5.29125 Y7.71011
G01 X-5.36820 Y7.71050
G01 X-5.44597 Y7.70961
G01 X-5.51785 Y7.70760
G01 X-5.51786 Y7.70742
G01 X-5.51785 Y7.70760
G01 X-5.61323 Y7.72113
G01 X-5.71175 Y7.73298
G01 X-5.81133 Y7.74280
G01 X-5.91201 Y7.75051
G01 X-6.01161 Y7.75595
G01 X-6.11123 Y7.75923
G01 X-6.21082 Y7.76032
G01 X-6.30934 Y7.75927
G01 X-6.41003 Y7.75600
G01 X-6.50855 Y7.75065
G01 X-6.60815 Y7.74308
G01 X-6.70881 Y7.73320
G01 X-6.80839 Y7.72127
G01 X-6.90690 Y7.70732
G01 X-7.00647 Y7.69106
G01 X-7.08984 Y7.67562
G01 X-7.09019 Y7.67301
G01 X-7.08984 Y7.67562
G01 X-7.17811 Y7.71860
G01 X-7.28270 Y7.76667
G01 X-7.40288 Y7.81852
G01 X-7.51806 Y7.86466
G01 X-7.63084 Y7.90642
G01 X-7.68817 Y7.92636
G01 X-7.75232 Y7.94767
G01 X-7.84738 Y7.97738
G01 X-7.94301 Y8.00487
G01 X-7.95288 Y8.00666
G01 X-7.96291 Y8.00644
G01 X-7.97269 Y8.00422
G01 X-7.98183 Y8.00009
G01 X-8.07537 Y7.94601
G01 X-8.16602 Y7.89191
G01 X-8.25309 Y7.83818
G01 X-8.34868 Y7.77703
G01 X-8.46143 Y7.70189
G01 X-8.51559 Y7.66437
G01 X-8.56836 Y7.62683
G01 X-8.61972 Y7.58927
G01 X-8.66914 Y7.55211
G01 X-8.71827 Y7.51408
G01 X-8.76515 Y7.47668
G01 X-8.77398 Y7.46952
G01 X-8.84356 Y7.41176
G01 X-8.90985 Y7.35394
G01 X-8.97181 Y7.29698
G01 X-9.03144 Y7.23909
G01 X-9.03918 Y7.23135
G01 X-9.08475 Y7.18464
G01 X-9.12730 Y7.13884
G01 X-9.16854 Y7.09206
G01 X-9.20762 Y7.04521
G01 X-9.21396 Y7.03739
G01 X-9.24498 Y6.99809
G01 X-9.27449 Y6.95871
G01 X-9.30246 Y6.91928
G01 X-9.32854 Y6.88035
G01 X-9.35441 Y6.83961
G01 X-9.37505 Y6.80509
G01 X-9.39516 Y6.76930
G01 X-9.41310 Y6.73522
G01 X-9.43152 Y6.69813
G01 X-9.44636 Y6.66603
G01 X-9.45966 Y6.63506
G01 X-9.47154 Y6.60531
G01 X-9.47483 Y6.59669
G01 X-9.49485 Y6.54005
G01 X-9.51131 Y6.48458
G01 X-9.51345 Y6.47655
G01 X-9.52641 Y6.42246
G01 X-9.53598 Y6.37095
G01 X-9.53728 Y6.36288
G01 X-9.54429 Y6.30933
G01 X-9.54820 Y6.25969
G01 X-9.54870 Y6.25028
G01 X-9.54998 Y6.19869
G01 X-9.54865 Y6.14838
G01 X-9.54820 Y6.14031
G01 X-9.54402 Y6.08806
G01 X-9.53747 Y6.03843
G01 X-9.53598 Y6.02905
G01 X-9.52586 Y5.97496
G01 X-9.51345 Y5.92345
G01 X-9.50973 Y5.90980
G01 X-9.50601 Y5.90930
G01 X-9.50973 Y5.90980
G01 X-9.52212 Y5.88843
G01 X-9.58005 Y5.78391
G01 X-9.60299 Y5.73998
G01 X-9.62425 Y5.69357
G01 X-9.65833 Y5.61330
G01 X-9.67005 Y5.58627
G01 X-9.68133 Y5.55724
G01 X-9.68532 Y5.54631
G01 X-9.69520 Y5.51732
G01 X-9.70288 Y5.49143
G01 X-9.72771 Y5.41018
G01 X-9.73621 Y5.37967
G01 X-9.74363 Y5.34653
G01 X-9.76395 Y5.24200
G01 X-9.76854 Y5.21470
G01 X-9.77201 Y5.18477
G01 X-9.78116 Y5.08025
G01 X-9.78285 Y5.05174
G01 X-9.78306 Y5.02581
G01 X-9.78123 Y4.92128
G01 X-9.78010 Y4.89510
G01 X-9.77739 Y4.86634
G01 X-9.76456 Y4.76181
G01 X-9.75988 Y4.73101
G01 X-9.75413 Y4.70283
G01 X-9.72999 Y4.59830
G01 X-9.72168 Y4.56618
G01 X-9.71083 Y4.53164
G01 X-9.67437 Y4.42583
G01 X-9.65949 Y4.38633
G01 X-9.64209 Y4.34653
G01 X-9.62187 Y4.29960
G01 X-9.61658 Y4.28833
G01 X-9.56896 Y4.19347
G01 X-9.54222 Y4.14636
G01 X-9.47940 Y4.04183
G01 X-9.45984 Y4.01032
G01 X-9.43952 Y3.97946
G01 X-9.41879 Y3.94968
G01 X-9.39580 Y3.91838
G01 X-9.31661 Y3.81329
G01 X-9.28519 Y3.77284
G01 X-9.25201 Y3.73242
G01 X-9.21708 Y3.69208
G01 X-9.18122 Y3.65268
G01 X-9.08334 Y3.54772
G01 X-9.03041 Y3.49260
G01 X-8.97602 Y3.43898
G01 X-8.91687 Y3.38362
G01 X-8.85665 Y3.32999
G01 X-8.73569 Y3.22483
G01 X-8.69100 Y3.18657
G01 X-8.64555 Y3.14877
G01 X-8.59825 Y3.11053
G01 X-8.54888 Y3.07171
G01 X-8.44780 Y2.99539
G01 X-8.34199 Y2.91945
G01 X-8.19271 Y2.81492
G01 X-8.10547 Y2.75489
G01 X-8.01562 Y2.69512
G01 X-7.92343 Y2.63576
G01 X-7.83202 Y2.57874
G01 X-7.83187 Y2.57893
G01 X-7.83202 Y2.57874
G01 X-7.78260 Y2.53153
G01 X-7.72825 Y2.48078
G01 X-7.67271 Y2.43006
G01 X-7.61635 Y2.37969
G01 X-7.60830 Y2.37383
G01 X-7.59925 Y2.36967
G01 X-7.58955 Y2.36740
G01 X-7.57960 Y2.36709
G01 X-7.50819 Y2.37200
G01 X-7.43752 Y2.37792
G01 X-7.36611 Y2.38497
G01 X-7.29964 Y2.39251
G01 X-7.29964 Y2.39275
G01 X-7.29964 Y2.39251
G01 X-7.19176 Y2.38337
G01 X-7.07778 Y2.37639
G01 X-6.96261 Y2.37207
G01 X-6.85636 Y2.37060
G01 X-6.85630 Y2.37103
G01 X-6.85636 Y2.37060
G01 X-6.77840 Y2.34862
G01 X-6.69239 Y2.32601
G01 X-6.60811 Y2.30547
G01 X-6.52205 Y2.28614
G01 X-6.43687 Y2.26865
G01 X-6.35167 Y2.25279
G01 X-6.26648 Y2.23857
G01 X-6.18127 Y2.22597
G01 X-6.09699 Y2.21511
G01 X-6.01177 Y2.20576
G01 X-5.92655 Y2.19803
G01 X-5.84132 Y2.19194
G01 X-5.75513 Y2.18744
G01 X-5.66990 Y2.18462
G01 X-5.58562 Y2.18345
G01 X-5.50039 Y2.18389
G01 X-5.41515 Y2.18595
G01 X-5.32896 Y2.18970
G01 X-5.24468 Y2.19498
G01 X-5.15945 Y2.20195
G01 X-5.07330 Y2.21064
G01 X-4.98902 Y2.22076
G01 X-4.90288 Y2.23275
G01 X-4.81860 Y2.24609
G01 X-4.73339 Y2.26122
G01 X-4.64731 Y2.27814
G01 X-4.56214 Y2.29653
G01 X-4.47699 Y2.31655
G01 X-4.39271 Y2.33797
G01 X-4.30672 Y2.36147
G01 X-4.22160 Y2.38636
G01 X-4.14549 Y2.41007
G01 X-4.14558 Y2.41079
G01 X-4.14549 Y2.41007
G01 X-4.03042 Y2.40582
G01 X-3.91655 Y2.40448
G01 X-3.91642 Y2.40519
G01 X-3.91655 Y2.40448
G01 X-3.81512 Y2.36762
G01 X-3.70461 Y2.33028
G01 X-3.59407 Y2.29579
G01 X-3.48236 Y2.26383
G01 X-3.37293 Y2.23534
G01 X-3.26113 Y2.20912
G01 X-3.15047 Y2.18603
G01 X-3.03982 Y2.16582
G01 X-2.93039 Y2.14862
G01 X-2.81846 Y2.13391
G01 X-2.70776 Y2.12224
G01 X-2.59705 Y2.11342
G01 X-2.48634 Y2.10746
G01 X-2.37562 Y2.10436
G01 X-2.26491 Y2.10410
G01 X-2.15548 Y2.10666
G01 X-2.14549 Y2.10791
G01 X-2.13595 Y2.11114
G01 X-2.12725 Y2.11621
G01 X-2.11974 Y2.12292
G01 X-2.05263 Y2.19636
G01 X-1.98669 Y2.27115
G01 X-1.92370 Y2.34532
G01 X-1.86309 Y2.41952
G01 X-1.80545 Y2.49296
G01 X-1.74955 Y2.56719
G01 X-1.69603 Y2.64148
G01 X-1.64487 Y2.71578
G01 X-1.59607 Y2.79014
G01 X-1.54904 Y2.86554
G01 X-1.50560 Y2.93898
G01 X-1.46334 Y3.01456
G01 X-1.42464 Y3.08800
G01 X-1.38715 Y3.16375
G01 X-1.35318 Y3.23719
G01 X-1.32077 Y3.31247
G01 X-1.29986 Y3.36295
G01 X-1.27813 Y3.41700
G01 X-1.25696 Y3.47300
G01 X-1.23748 Y3.52806
G01 X-1.21965 Y3.58210
G01 X-1.20279 Y3.63719
G01 X-1.18697 Y3.69338
G01 X-1.17305 Y3.74742
G01 X-1.16158 Y3.79648
G01 X-1.16193 Y3.79661
G01 X-1.16158 Y3.79648
G01 X-1.14851 Y3.82173
G01 X-1.12173 Y3.87428
G01 X-1.09352 Y3.93140
G01 X-1.06682 Y3.98910
G01 X-1.04191 Y4.04685
G01 X-1.01880 Y4.10465
G01 X-0.99827 Y4.15813
G01 X-0.97894 Y4.21048
G01 X-0.96114 Y4.26286
G01 X-0.94522 Y4.31399
G01 X-0.93039 Y4.36641
G01 X-0.91620 Y4.41934
G01 X-0.90393 Y4.46760
G01 X-0.89254 Y4.51778
G01 X-0.88304 Y4.56542
G01 X-0.87449 Y4.61503
G01 X-0.86611 Y4.66793
G01 X-0.85931 Y4.71488
G01 X-0.85376 Y4.76185
G01 X-0.84955 Y4.80752
G01 X-0.84641 Y4.85516
G01 X-0.84364 Y4.90808
G01 X-0.84188 Y4.95306
G01 X-0.84125 Y4.99934
G01 X-0.79126 Y4.99869
G01 X-0.79185 Y4.95371
G01 X-0.79368 Y4.90611
G01 X-0.79648 Y4.85255
G01 X-0.79955 Y4.80556
G01 X-0.80424 Y4.75466
G01 X-0.81000 Y4.70640
G01 X-0.81663 Y4.66074
G01 X-0.82510 Y4.60721
G01 X-0.83352 Y4.55824
G01 X-0.84405 Y4.50543
G01 X-0.85547 Y4.45527
G01 X-0.86758 Y4.40763
G01 X-0.88192 Y4.35412
G01 X-0.89672 Y4.30168
G01 X-0.91340 Y4.24799
G01 X-0.93248 Y4.19193
G01 X-0.95181 Y4.13962
G01 X-0.97187 Y4.08736
G01 X-0.99599 Y4.02706
G01 X-1.02143 Y3.96812
G01 X-1.04869 Y3.90926
G01 X-1.07718 Y3.85158
G01 X-1.10410 Y3.79874
G01 X-1.11431 Y3.77904
G01 X-1.11466 Y3.77916
G01 X-1.11431 Y3.77904
G01 X-1.12463 Y3.73495
G01 X-1.13913 Y3.67874
G01 X-1.15435 Y3.62470
G01 X-1.17150 Y3.56853
G01 X-1.19069 Y3.51036
G01 X-1.21055 Y3.45433
G01 X-1.23174 Y3.39835
G01 X-1.25347 Y3.34430
G01 X-1.27457 Y3.29334
G01 X-1.30780 Y3.21620
G01 X-1.34290 Y3.14039
G01 X-1.38040 Y3.06469
G01 X-1.42029 Y2.98906
G01 X-1.46136 Y2.91562
G01 X-1.50601 Y2.84009
G01 X-1.55303 Y2.76465
G01 X-1.60369 Y2.68743
G01 X-1.65423 Y2.61400
G01 X-1.70836 Y2.53881
G01 X-1.76489 Y2.46368
G01 X-1.82376 Y2.38865
G01 X-1.88620 Y2.31222
G01 X-1.94979 Y2.23739
G01 X-2.01572 Y2.16263
G01 X-2.08283 Y2.08919
G01 X-2.09784 Y2.07577
G01 X-2.11524 Y2.06562
G01 X-2.13433 Y2.05917
G01 X-2.15431 Y2.05668
G01 X-2.26633 Y2.05409
G01 X-2.37831 Y2.05440
G01 X-2.48774 Y2.05748
G01 X-2.59974 Y2.06350
G01 X-2.71173 Y2.07240
G01 X-2.82371 Y2.08418
G01 X-2.93566 Y2.09886
G01 X-3.04759 Y2.11642
G01 X-3.15947 Y2.13685
G01 X-3.27135 Y2.16018
G01 X-3.38552 Y2.18696
G01 X-3.49496 Y2.21544
G01 X-3.60895 Y2.24805
G01 X-3.72061 Y2.28291
G01 X-3.83220 Y2.32063
G01 X-3.92564 Y2.35459
G01 X-3.92551 Y2.35529
G01 X-3.92564 Y2.35459
G01 X-4.03101 Y2.35583
G01 X-4.13879 Y2.35979
G01 X-4.13889 Y2.36050
G01 X-4.13879 Y2.35979
G01 X-4.20673 Y2.33862
G01 X-4.29439 Y2.31300
G01 X-4.37867 Y2.28997
G01 X-4.46468 Y2.26809
G01 X-4.55071 Y2.24786
G01 X-4.63676 Y2.22927
G01 X-4.72285 Y2.21233
G01 X-4.81079 Y2.19671
G01 X-4.89690 Y2.18310
G01 X-4.98306 Y2.17111
G01 X-5.06922 Y2.16078
G01 X-5.15349 Y2.15228
G01 X-5.23965 Y2.14521
G01 X-5.32775 Y2.13969
G01 X-5.41394 Y2.13597
G01 X-5.50013 Y2.13389
G01 X-5.58632 Y2.13346
G01 X-5.67252 Y2.13467
G01 X-5.75679 Y2.13746
G01 X-5.84488 Y2.14206
G01 X-5.93106 Y2.14824
G01 X-6.01722 Y2.15605
G01 X-6.10338 Y2.16552
G01 X-6.18766 Y2.17638
G01 X-6.27380 Y2.18911
G01 X-6.35991 Y2.20348
G01 X-6.44783 Y2.21985
G01 X-6.53211 Y2.23716
G01 X-6.61818 Y2.25648
G01 X-6.70423 Y2.27743
G01 X-6.79197 Y2.30049
G01 X-6.86362 Y2.32070
G01 X-6.86356 Y2.32112
G01 X-6.86362 Y2.32070
G01 X-6.96330 Y2.32208
G01 X-7.08083 Y2.32648
G01 X-7.19598 Y2.33355
G01 X-7.29892 Y2.34227
G01 X-7.29892 Y2.34251
G01 X-7.29892 Y2.34227
G01 X-7.35974 Y2.33537
G01 X-7.43186 Y2.32823
G01 X-7.50550 Y2.32206
G01 X-7.57617 Y2.31720
G01 X-7.59608 Y2.31782
G01 X-7.61547 Y2.32238
G01 X-7.63357 Y2.33068
G01 X-7.64967 Y2.34241
G01 X-7.70682 Y2.39350
G01 X-7.76197 Y2.44386
G01 X-7.81673 Y2.49499
G01 X-7.86284 Y2.53903
G01 X-7.86269 Y2.53923
G01 X-7.86284 Y2.53903
G01 X-7.95050 Y2.59372
G01 X-8.04269 Y2.65308
G01 X-8.13316 Y2.71326
G01 X-8.22072 Y2.77350
G01 X-8.37067 Y2.87850
G01 X-8.47696 Y2.95477
G01 X-8.57901 Y3.03181
G01 X-8.62862 Y3.07080
G01 X-8.67752 Y3.11033
G01 X-8.72297 Y3.14812
G01 X-8.76821 Y3.18685
G01 X-8.88901 Y3.29186
G01 X-8.95195 Y3.34794
G01 X-9.01113 Y3.40337
G01 X-9.06744 Y3.45895
G01 X-9.11990 Y3.51362
G01 X-9.21819 Y3.61903
G01 X-9.25405 Y3.65843
G01 X-9.28981 Y3.69970
G01 X-9.32384 Y3.74112
G01 X-9.35611 Y3.78264
G01 X-9.43573 Y3.88829
G01 X-9.45982 Y3.92112
G01 X-9.48055 Y3.95090
G01 X-9.50161 Y3.98283
G01 X-9.52225 Y4.01608
G01 X-9.58507 Y4.12061
G01 X-9.61245 Y4.16879
G01 X-9.61489 Y4.17338
G01 X-9.66127 Y4.26589
G01 X-9.66718 Y4.27845
G01 X-9.68773 Y4.32611
G01 X-9.70533 Y4.36636
G01 X-9.70728 Y4.37118
G01 X-9.72119 Y4.40827
G01 X-9.75810 Y4.51537
G01 X-9.76864 Y4.54861
G01 X-9.77008 Y4.55363
G01 X-9.77871 Y4.58705
G01 X-9.80284 Y4.69158
G01 X-9.80888 Y4.72103
G01 X-9.80978 Y4.72614
G01 X-9.81419 Y4.75572
G01 X-9.82701 Y4.86025
G01 X-9.82969 Y4.88772
G01 X-9.83005 Y4.89291
G01 X-9.83122 Y4.92041
G01 X-9.83305 Y5.02494
G01 X-9.83285 Y5.05218
G01 X-9.83266 Y5.05738
G01 X-9.83097 Y5.08461
G01 X-9.82182 Y5.18913
G01 X-9.81859 Y5.21778
G01 X-9.81785 Y5.22297
G01 X-9.81303 Y5.25154
G01 X-9.79271 Y5.35607
G01 X-9.78566 Y5.38798
G01 X-9.78439 Y5.39306
G01 X-9.77553 Y5.42479
G01 X-9.75075 Y5.50585
G01 X-9.74313 Y5.53154
G01 X-9.73230 Y5.56344
G01 X-9.72795 Y5.57529
G01 X-9.71592 Y5.60616
G01 X-9.70428 Y5.63301
G01 X-9.67028 Y5.71311
G01 X-9.64963 Y5.75840
G01 X-9.64732 Y5.76312
G01 X-9.62378 Y5.80815
G01 X-9.56334 Y5.91704
G01 X-9.55974 Y5.91655
G01 X-9.56334 Y5.91704
G01 X-9.57447 Y5.96325
G01 X-9.57557 Y5.96840
G01 X-9.58558 Y6.02247
G01 X-9.58704 Y6.03188
G01 X-9.59359 Y6.08151
G01 X-9.59414 Y6.08675
G01 X-9.59805 Y6.13639
G01 X-9.59868 Y6.14842
G01 X-9.59996 Y6.19739
G01 X-9.59996 Y6.20261
G01 X-9.59868 Y6.25158
G01 X-9.59805 Y6.26361
G01 X-9.59414 Y6.31325
G01 X-9.59359 Y6.31848
G01 X-9.58666 Y6.37074
G01 X-9.58514 Y6.38009
G01 X-9.57557 Y6.43160
G01 X-9.57447 Y6.43675
G01 X-9.56143 Y6.49073
G01 X-9.55888 Y6.50011
G01 X-9.54278 Y6.55429
G01 X-9.54117 Y6.55923
G01 X-9.52196 Y6.61340
G01 X-9.51798 Y6.62385
G01 X-9.50610 Y6.65360
G01 X-9.49228 Y6.68579
G01 X-9.47636 Y6.72025
G01 X-9.45767 Y6.75790
G01 X-9.43939 Y6.79261
G01 X-9.41798 Y6.83072
G01 X-9.39667 Y6.86633
G01 X-9.37049 Y6.90755
G01 X-9.34399 Y6.94712
G01 X-9.31527 Y6.98765
G01 X-9.28498 Y7.02809
G01 X-9.25319 Y7.06838
G01 X-9.24603 Y7.07722
G01 X-9.20605 Y7.12512
G01 X-9.16393 Y7.17286
G01 X-9.12139 Y7.21866
G01 X-9.07496 Y7.26627
G01 X-9.06627 Y7.27495
G01 X-9.00565 Y7.33379
G01 X-8.94369 Y7.39075
G01 X-8.87642 Y7.44945
G01 X-8.80590 Y7.50800
G01 X-8.79662 Y7.51553
G01 X-8.74831 Y7.55406
G01 X-8.69919 Y7.59208
G01 X-8.64977 Y7.62924
G01 X-8.59681 Y7.66796
G01 X-8.54457 Y7.70512
G01 X-8.48841 Y7.74401
G01 X-8.37688 Y7.81833
G01 X-8.36478 Y7.82620
G01 X-8.28064 Y7.87992
G01 X-8.19227 Y7.93446
G01 X-8.10100 Y7.98895
G01 X-8.00686 Y8.04338
G01 X-7.98857 Y8.05163
G01 X-7.96900 Y8.05606
G01 X-7.94894 Y8.05650
G01 X-7.92920 Y8.05292
G01 X-7.83246 Y8.02511
G01 X-7.73794 Y7.99557
G01 X-7.67300 Y7.97402
G01 X-7.61348 Y7.95331
G01 X-7.49824 Y7.91060
G01 X-7.38310 Y7.86445
G01 X-7.26912 Y7.81536
G01 X-7.15825 Y7.76452
G01 X-7.08275 Y7.72779
G01 X-7.08311 Y7.72517
G01 X-7.08275 Y7.72779
G01 X-7.01454 Y7.74040
G01 X-6.91391 Y7.75682
G01 X-6.81540 Y7.77077
G01 X-6.71262 Y7.78308
G01 X-6.61194 Y7.79293
G01 X-6.51343 Y7.80043
G01 X-6.41057 Y7.80602
G01 X-6.30987 Y7.80926
G01 X-6.21136 Y7.81031
G01 X-6.11067 Y7.80922
G01 X-6.00996 Y7.80593
G01 X-5.90928 Y7.80043
G01 X-5.80643 Y7.79256
G01 X-5.70578 Y7.78262
G01 X-5.60514 Y7.77050
G01 X-5.51502 Y7.75770
G01 X-5.51503 Y7.75752
G01 X-5.51502 Y7.75770
G01 X-5.44737 Y7.75959
G01 X-5.36795 Y7.76050
G01 X-5.29018 Y7.76010
G01 X-5.21242 Y7.75841
G01 X-5.13630 Y7.75552
G01 X-5.05688 Y7.75119
G01 X-4.97913 Y7.74565
G01 X-4.90138 Y7.73883
G01 X-4.82526 Y7.73091
G01 X-4.74592 Y7.72135
G01 X-4.66821 Y7.71069
G01 X-4.59209 Y7.69901
G01 X-4.51280 Y7.68553
G01 X-4.43668 Y7.67133
G01 X-4.35747 Y7.65526
G01 X-4.29351 Y7.64123
G01 X-4.29355 Y7.64084
G01 X-4.29351 Y7.64123
G01 X-4.18597 Y7.64465
G01 X-4.06102 Y7.64553
G01 X-3.93855 Y7.64334
G01 X-3.81856 Y7.63825
G01 X-3.69609 Y7.63004
G01 X-3.57365 Y7.61881
G01 X-3.44880 Y7.60423
G01 X-3.33884 Y7.58868
G01 X-3.33885 Y7.58842
G01 X-3.33884 Y7.58868
G01 X-3.27947 Y7.59234
G01 X-3.20858 Y7.59573
G01 X-3.13628 Y7.59815
G01 X-3.07549 Y7.59934
G01 X-3.07547 Y7.59915
G01 X-3.07549 Y7.59934
G01 X-2.96147 Y7.62167
G01 X-2.83644 Y7.64295
G01 X-2.70885 Y7.66132
G01 X-2.58501 Y7.67594
G01 X-2.53156 Y7.68155
G01 X-2.41659 Y7.69224
G01 X-2.39645 Y7.69208
G01 X-2.37676 Y7.68788
G01 X-2.35830 Y7.67983
G01 X-2.34183 Y7.66824
G01 X-2.23932 Y7.57936
G01 X-2.14061 Y7.49039
G01 X-2.04724 Y7.40279
G01 X-1.95619 Y7.31374
G01 X-1.90316 Y7.26071
G01 X-1.81216 Y7.16750
G01 X-1.76659 Y7.11906
G01 X-1.72425 Y7.07289
G01 X-1.68212 Y7.02572
G01 X-1.64022 Y6.97751
G01 X-1.60118 Y6.93133
G01 X-1.56235 Y6.88409
G01 X-1.51957 Y6.83125
G01 X-1.45903 Y6.75460
G01 X-1.40075 Y6.67691
G01 X-1.34549 Y6.59910
G01 X-1.29250 Y6.52000
G01 X-1.25855 Y6.46773
G01 X-1.21712 Y6.40220
G01 X-1.17728 Y6.33553
G01 X-1.13972 Y6.26877
G01 X-1.10381 Y6.20068
G01 X-1.07718 Y6.14842
G01 X-1.04869 Y6.09074
G01 X-1.02036 Y6.02949
G01 X-0.99497 Y5.97046
G01 X-0.97237 Y5.91390
G01 X-0.95137 Y5.85919
G01 X-0.93161 Y5.80562
G01 X-0.91421 Y5.75448
G01 X-0.89672 Y5.69832
G01 X-0.88192 Y5.64588
G01 X-0.86758 Y5.59237
G01 X-0.85547 Y5.54472
G01 X-0.84405 Y5.49457
G01 X-0.83352 Y5.44176
G01 X-0.82510 Y5.39279
G01 X-0.81663 Y5.33926
G01 X-0.81000 Y5.29360
G01 X-0.80424 Y5.24534
G01 X-0.79955 Y5.19444
G01 X-0.79648 Y5.14745
G01 X-0.79368 Y5.09389
G01 X-0.79185 Y5.04629
G01 X-0.79126 Y4.99869
G01 X-0.89125 Y5.00000
G01 X-0.94125 Y5.00000
G01 X-0.94182 Y5.04367
G01 X-0.94355 Y5.08767
G01 X-0.94625 Y5.13927
G01 X-0.94918 Y5.18396
G01 X-0.95327 Y5.22832
G01 X-0.95853 Y5.27269
G01 X-0.96503 Y5.31739
G01 X-0.97320 Y5.36900
G01 X-0.98123 Y5.41567
G01 X-0.99048 Y5.46202
G01 X-1.00100 Y5.50839
G01 X-1.01288 Y5.55509
G01 X-1.02672 Y5.60673
G01 X-1.04088 Y5.65691
G01 X-1.05642 Y5.70678
G01 X-1.07340 Y5.75669
G01 X-1.09196 Y5.80692
G01 X-1.11179 Y5.85856
G01 X-1.13401 Y5.91419
G01 X-1.15785 Y5.96952
G01 X-1.18346 Y6.02490
G01 X-1.21097 Y6.08060
G01 X-1.23730 Y6.13227
G01 X-1.27082 Y6.19588
G01 X-1.30640 Y6.25920
G01 X-1.34425 Y6.32259
G01 X-1.38451 Y6.38628
G01 X-1.41810 Y6.43800
G01 X-1.46822 Y6.51285
G01 X-1.52116 Y6.58746
G01 X-1.57714 Y6.66214
G01 X-1.63634 Y6.73710
G01 X-1.67836 Y6.78900
G01 X-1.71596 Y6.83476
G01 X-1.75455 Y6.88041
G01 X-1.79424 Y6.92607
G01 X-1.83502 Y6.97175
G01 X-1.87693 Y7.01744
G01 X-1.91982 Y7.06306
G01 X-2.00944 Y7.15486
G01 X-2.06129 Y7.20671
G01 X-2.15025 Y7.29376
G01 X-2.24287 Y7.38065
G01 X-2.33937 Y7.46760
G01 X-2.42395 Y7.54091
G01 X-2.42261 Y7.54511
G01 X-2.42395 Y7.54091
G01 X-2.51737 Y7.53222
G01 X-2.56901 Y7.52680
G01 X-2.69062 Y7.51243
G01 X-2.81194 Y7.49496
G01 X-2.93325 Y7.47434
G01 X-3.00490 Y7.46031
G01 X-3.02281 Y7.47209
G01 X-3.00490 Y7.46031
G01 X-2.99712 Y7.42521
G01 X-2.95449 Y7.22899
G01 X-2.71593 Y6.10038
G01 X-2.69301 Y5.98624
G01 X-2.64164 Y5.71338
G01 X-2.63065 Y5.65628
G01 X-2.62294 Y5.61418
G01 X-2.61599 Y5.57148
G01 X-2.60367 Y5.49040
G01 X-2.59057 Y5.40752
G01 X-2.58581 Y5.37468
G01 X-2.58189 Y5.34173
G01 X-2.57388 Y5.26839
G01 X-2.56723 Y5.23888
G01 X-2.55318 Y5.18030
G01 X-2.54264 Y5.14076
G01 X-2.53041 Y5.10303
G01 X-2.51152 Y5.04969
G01 X-2.50008 Y5.01976
G01 X-2.48738 Y4.99120
G01 X-2.46407 Y4.94235
G01 X-2.45212 Y4.91882
G01 X-2.43916 Y4.89636
G01 X-2.41176 Y4.85166
G01 X-2.39930 Y4.83242
G01 X-2.38598 Y4.81410
G01 X-2.35468 Y4.77331
G01 X-2.34141 Y4.75690
G01 X-2.32735 Y4.74130
G01 X-2.29227 Y4.70433
G01 X-2.27764 Y4.68964
G01 X-2.26219 Y4.67579
G01 X-2.22333 Y4.64260
G01 X-2.20651 Y4.62895
G01 X-2.18880 Y4.61613
G01 X-2.14607 Y4.58676
G01 X-2.12593 Y4.57367
G01 X-2.10479 Y4.56150
G01 X-2.05710 Y4.53552
G01 X-2.00153 Y4.50412
G01 X-1.97263 Y4.48689
G01 X-1.94565 Y4.46924
G01 X-1.86451 Y4.41376
G01 X-1.83178 Y4.39055
G01 X-1.79935 Y4.36601
G01 X-1.64425 Y4.24496
G01 X-1.59873 Y4.20866
G01 X-1.55300 Y4.17069
G01 X-1.22456 Y3.89273
G01 X-1.21832 Y3.86240
G01 X-1.22456 Y3.89273
G01 X-1.21097 Y3.91940
G01 X-1.18346 Y3.97510
G01 X-1.15785 Y4.03048
G01 X-1.13401 Y4.08581
G01 X-1.11178 Y4.14144
G01 X-1.09196 Y4.19308
G01 X-1.07340 Y4.24331
G01 X-1.05642 Y4.29322
G01 X-1.04088 Y4.34309
G01 X-1.02672 Y4.39327
G01 X-1.01288 Y4.44491
G01 X-1.00100 Y4.49161
G01 X-0.99048 Y4.53798
G01 X-0.98123 Y4.58433
G01 X-0.97320 Y4.63100
G01 X-0.96503 Y4.68261
G01 X-0.95853 Y4.72731
G01 X-0.95327 Y4.77168
G01 X-0.94918 Y4.81604
G01 X-0.94626 Y4.86072
G01 X-0.94355 Y4.91233
G01 X-0.94182 Y4.95633
G01 X-0.94125 Y5.00000
G01 X-0.99125 Y5.00000
G01 X-0.99181 Y4.95764
G01 X-0.99350 Y4.91462
G01 X-0.99617 Y4.86367
G01 X-0.99903 Y4.81997
G01 X-1.00300 Y4.77692
G01 X-1.00811 Y4.73384
G01 X-1.01446 Y4.69011
G01 X-1.02253 Y4.63915
G01 X-1.03039 Y4.59346
G01 X-1.03938 Y4.54841
G01 X-1.04961 Y4.50331
G01 X-1.06126 Y4.45754
G01 X-1.07493 Y4.40653
G01 X-1.08882 Y4.35732
G01 X-1.10396 Y4.30871
G01 X-1.12053 Y4.26003
G01 X-1.13875 Y4.21071
G01 X-1.15834 Y4.15967
G01 X-1.18019 Y4.10498
G01 X-1.20351 Y4.05087
G01 X-1.22857 Y3.99667
G01 X-1.24078 Y3.97196
G01 X-1.23444 Y3.94143
G01 X-1.24078 Y3.97196
G01 X-1.52070 Y4.20885
G01 X-1.56679 Y4.24713
G01 X-1.61348 Y4.28437
G01 X-1.76858 Y4.40542
G01 X-1.80161 Y4.43043
G01 X-1.83561 Y4.45456
G01 X-1.91744 Y4.51051
G01 X-1.94526 Y4.52874
G01 X-1.97694 Y4.54765
G01 X-2.03287 Y4.57926
G01 X-2.08036 Y4.60514
G01 X-2.09982 Y4.61632
G01 X-2.11830 Y4.62835
G01 X-2.15995 Y4.65697
G01 X-2.17607 Y4.66864
G01 X-2.19137 Y4.68106
G01 X-2.22922 Y4.71338
G01 X-2.24322 Y4.72592
G01 X-2.25645 Y4.73922
G01 X-2.29063 Y4.77524
G01 X-2.30338 Y4.78937
G01 X-2.31540 Y4.80426
G01 X-2.34591 Y4.84402
G01 X-2.35807 Y4.86074
G01 X-2.36947 Y4.87834
G01 X-2.39618 Y4.92192
G01 X-2.40815 Y4.94266
G01 X-2.41922 Y4.96445
G01 X-2.44196 Y5.01212
G01 X-2.45385 Y5.03886
G01 X-2.46460 Y5.06698
G01 X-2.48305 Y5.11908
G01 X-2.49467 Y5.15491
G01 X-2.50470 Y5.19258
G01 X-2.51851 Y5.25013
G01 X-2.52448 Y5.27659
G01 X-2.53223 Y5.34762
G01 X-2.53633 Y5.38185
G01 X-2.54119 Y5.41534
G01 X-2.55425 Y5.49799
G01 X-2.56655 Y5.57899
G01 X-2.57342 Y5.62122
G01 X-2.58147 Y5.66528
G01 X-2.59252 Y5.72268
G01 X-2.64388 Y5.99549
G01 X-2.66691 Y6.11023
G01 X-2.89878 Y7.20737
G01 X-2.90568 Y7.23983
G01 X-2.94505 Y7.42108
G01 X-2.96295 Y7.43286
G01 X-2.94505 Y7.42108
G01 X-2.92426 Y7.42515
G01 X-2.80418 Y7.44556
G01 X-2.68412 Y7.46285
G01 X-2.56347 Y7.47710
G01 X-2.51245 Y7.48246
G01 X-2.44057 Y7.48915
G01 X-2.43923 Y7.49336
G01 X-2.44057 Y7.48915
G01 X-2.37248 Y7.43014
G01 X-2.27671 Y7.34384
G01 X-2.18484 Y7.25765
G01 X-2.09645 Y7.17116
G01 X-2.04501 Y7.11972
G01 X-1.95592 Y7.02846
G01 X-1.91357 Y6.98342
G01 X-1.87210 Y6.93820
G01 X-1.83176 Y6.89302
G01 X-1.79251 Y6.84787
G01 X-1.75437 Y6.80274
G01 X-1.71710 Y6.75739
G01 X-1.67539 Y6.70588
G01 X-1.61677 Y6.63164
G01 X-1.56156 Y6.55800
G01 X-1.50938 Y6.48447
G01 X-1.45984 Y6.41047
G01 X-1.42661 Y6.35931
G01 X-1.38686 Y6.29642
G01 X-1.34967 Y6.23414
G01 X-1.31473 Y6.17197
G01 X-1.28170 Y6.10927
G01 X-1.25566 Y6.05818
G01 X-1.22857 Y6.00333
G01 X-1.20351 Y5.94913
G01 X-1.18019 Y5.89501
G01 X-1.15834 Y5.84033
G01 X-1.13875 Y5.78929
G01 X-1.12053 Y5.73997
G01 X-1.10396 Y5.69129
G01 X-1.08882 Y5.64267
G01 X-1.07492 Y5.59347
G01 X-1.06126 Y5.54245
G01 X-1.04961 Y5.49669
G01 X-1.03938 Y5.45159
G01 X-1.03039 Y5.40654
G01 X-1.02253 Y5.36085
G01 X-1.01446 Y5.30988
G01 X-1.00811 Y5.26615
G01 X-1.00300 Y5.22308
G01 X-0.99903 Y5.18003
G01 X-0.99617 Y5.13633
G01 X-0.99350 Y5.08538
G01 X-0.99181 Y5.04236
G01 X-0.99125 Y5.00000
G01 X-0.89125 Y5.00000
G01 X-0.89184 Y5.04498
G01 X-0.89360 Y5.08995
G01 X-0.89634 Y5.14222
G01 X-0.89934 Y5.18789
G01 X-0.90355 Y5.23356
G01 X-0.90897 Y5.27923
G01 X-0.91559 Y5.32489
G01 X-0.92387 Y5.37715
G01 X-0.93207 Y5.42479
G01 X-0.94158 Y5.47244
G01 X-0.95239 Y5.52008
G01 X-0.96450 Y5.56772
G01 X-0.97851 Y5.62000
G01 X-0.99295 Y5.67113
G01 X-1.00888 Y5.72227
G01 X-1.02628 Y5.77341
G01 X-1.04517 Y5.82454
G01 X-1.06523 Y5.87680
G01 X-1.08783 Y5.93336
G01 X-1.11220 Y5.98991
G01 X-1.13835 Y6.04646
G01 X-1.16628 Y6.10302
G01 X-1.19291 Y6.15528
G01 X-1.22690 Y6.21978
G01 X-1.26314 Y6.28427
G01 X-1.30165 Y6.34877
G01 X-1.34241 Y6.41326
G01 X-1.37636 Y6.46553
G01 X-1.42705 Y6.54123
G01 X-1.48076 Y6.61693
G01 X-1.53751 Y6.69263
G01 X-1.59729 Y6.76833
G01 X-1.63961 Y6.82060
G01 X-1.67755 Y6.86677
G01 X-1.71659 Y6.91295
G01 X-1.75672 Y6.95912
G01 X-1.79795 Y7.00530
G01 X-1.84029 Y7.05147
G01 X-1.88372 Y7.09765
G01 X-1.97387 Y7.19000
G01 X-2.02613 Y7.24226
G01 X-2.11566 Y7.32986
G01 X-2.20903 Y7.41746
G01 X-2.30626 Y7.50507
G01 X-2.40733 Y7.59267
G01 X-2.52230 Y7.58198
G01 X-2.57456 Y7.57648
G01 X-2.69712 Y7.56201
G01 X-2.81969 Y7.54436
G01 X-2.94225 Y7.52353
G01 X-3.06482 Y7.49953
G01 X-3.13432 Y7.49817
G01 X-3.20382 Y7.49584
G01 X-3.27331 Y7.49253
G01 X-3.34281 Y7.48824
G01 X-3.46281 Y7.50522
G01 X-3.58281 Y7.51923
G01 X-3.70280 Y7.53027
G01 X-3.82280 Y7.53834
G01 X-3.94279 Y7.54343
G01 X-4.06279 Y7.54555
G01 X-4.18278 Y7.54470
G01 X-4.30278 Y7.54087
G01 X-4.37890 Y7.55758
G01 X-4.45502 Y7.57303
G01 X-4.53114 Y7.58723
G01 X-4.60726 Y7.60017
G01 X-4.68338 Y7.61185
G01 X-4.75950 Y7.62228
G01 X-4.83561 Y7.63145
G01 X-4.91173 Y7.63937
G01 X-4.98785 Y7.64603
G01 X-5.06397 Y7.65144
G01 X-5.14009 Y7.65559
G01 X-5.21621 Y7.65848
G01 X-5.29233 Y7.66012
G01 X-5.36845 Y7.66050
G01 X-5.44457 Y7.65963
G01 X-5.52069 Y7.65750
G01 X-5.61920 Y7.67149
G01 X-5.71772 Y7.68334
G01 X-5.81623 Y7.69304
G01 X-5.91474 Y7.70058
G01 X-6.01326 Y7.70598
G01 X-6.11177 Y7.70923
G01 X-6.21029 Y7.71032
G01 X-6.30881 Y7.70927
G01 X-6.40732 Y7.70607
G01 X-6.50584 Y7.70072
G01 X-6.60435 Y7.69322
G01 X-6.70286 Y7.68356
G01 X-6.80138 Y7.67176
G01 X-6.89989 Y7.65781
G01 X-6.99841 Y7.64171
G01 X-7.09692 Y7.62346
G01 X-7.15622 Y7.59672
G01 X-7.14250 Y7.60291
G01 X-7.15622 Y7.59672
G01 X-7.19218 Y7.46704
G01 X-7.22917 Y7.33882
G01 X-7.22902 Y7.33876
G01 X-7.22917 Y7.33882
G01 X-7.27620 Y7.24039
G01 X-7.46709 Y6.83924
G01 X-7.46665 Y6.83894
G01 X-7.46709 Y6.83924
G01 X-7.58558 Y6.70904
G01 X-7.91240 Y6.34823
G01 X-7.96328 Y6.29306
G01 X-8.01404 Y6.24069
G01 X-8.06473 Y6.19105
G01 X-8.12197 Y6.13817
G01 X-8.15787 Y6.10653
G01 X-8.21166 Y6.06009
G01 X-8.21120 Y6.05932
G01 X-8.21166 Y6.06009
G01 X-8.27893 Y6.03627
G01 X-8.32811 Y6.02058
G01 X-8.46149 Y5.97742
G01 X-8.51255 Y5.96183
G01 X-8.55912 Y5.94906
G01 X-8.59660 Y5.94006
G01 X-8.64952 Y5.92818
G01 X-8.70806 Y5.91461
G01 X-8.75494 Y5.90502
G01 X-8.76129 Y5.90388
G01 X-8.78946 Y5.89941
G01 X-8.81732 Y5.89602
G01 X-8.85060 Y5.89252
G01 X-8.89413 Y5.88758
G01 X-8.92874 Y5.88452
G01 X-8.96103 Y5.88307
G01 X-8.99317 Y5.88328
G01 X-9.07245 Y5.88506
G01 X-9.07851 Y5.88528
G01 X-9.11368 Y5.88742
G01 X-9.14912 Y5.89148
G01 X-9.16402 Y5.89362
G01 X-9.24850 Y5.90646
G01 X-9.29532 Y5.91444
G01 X-9.34319 Y5.92519
G01 X-9.36408 Y5.93050
G01 X-9.41546 Y5.94405
G01 X-9.42098 Y5.93849
G01 X-9.41546 Y5.94405
G01 X-9.42835 Y5.99709
G01 X-9.43754 Y6.04667
G01 X-9.43843 Y6.05217
G01 X-9.44473 Y6.09983
G01 X-9.44846 Y6.14753
G01 X-9.44877 Y6.15301
G01 X-9.45000 Y6.20000
G01 X-9.44877 Y6.24699
G01 X-9.44846 Y6.25247
G01 X-9.44473 Y6.30016
G01 X-9.43842 Y6.34783
G01 X-9.43756 Y6.35333
G01 X-9.42835 Y6.40290
G01 X-9.41638 Y6.45251
G01 X-9.41491 Y6.45804
G01 X-9.39938 Y6.51033
G01 X-9.38079 Y6.56268
G01 X-9.37854 Y6.56856
G01 X-9.36704 Y6.59736
G01 X-9.35477 Y6.62588
G01 X-9.34156 Y6.65444
G01 X-9.32730 Y6.68335
G01 X-9.30700 Y6.72210
G01 X-9.28885 Y6.75438
G01 X-9.26955 Y6.78671
G01 X-9.24889 Y6.81937
G01 X-9.21976 Y6.86306
G01 X-9.19333 Y6.90029
G01 X-9.16535 Y6.93759
G01 X-9.13567 Y6.97517
G01 X-9.13059 Y6.98144
G01 X-9.09306 Y7.02646
G01 X-9.05358 Y7.07126
G01 X-9.01191 Y7.11613
G01 X-8.96150 Y7.16761
G01 X-8.90362 Y7.22382
G01 X-8.84265 Y7.27988
G01 X-8.77830 Y7.33599
G01 X-8.71035 Y7.39237
G01 X-8.65619 Y7.43568
G01 X-8.60876 Y7.47240
G01 X-8.55989 Y7.50915
G01 X-8.50960 Y7.54591
G01 X-8.45788 Y7.58270
G01 X-8.40486 Y7.61943
G01 X-8.29394 Y7.69334
G01 X-8.20025 Y7.75328
G01 X-8.11382 Y7.80661
G01 X-8.02442 Y7.85997
G01 X-7.95019 Y7.90289
G01 X-7.95071 Y7.90718
G01 X-7.95019 Y7.90289
G01 X-7.87665 Y7.88177
G01 X-7.77659 Y7.85042
G01 X-7.72070 Y7.83180
G01 X-7.66509 Y7.81247
G01 X-7.55340 Y7.77111
G01 X-7.44183 Y7.72643
G01 X-7.32994 Y7.67825
G01 X-7.22138 Y7.62845
G01 X-7.15622 Y7.59672
G01 X-7.21552 Y7.56998
G01 X-7.24029 Y7.48065
G01 X-7.27607 Y7.35665
G01 X-7.27591 Y7.35659
G01 X-7.27607 Y7.35665
G01 X-7.32135 Y7.26188
G01 X-7.50906 Y6.86742
G01 X-7.50861 Y6.86712
G01 X-7.50906 Y6.86742
G01 X-7.62256 Y6.74269
G01 X-7.94940 Y6.38187
G01 X-7.99962 Y6.32742
G01 X-8.04949 Y6.27595
G01 X-8.09922 Y6.22726
G01 X-8.15526 Y6.17548
G01 X-8.19074 Y6.14421
G01 X-8.23721 Y6.10409
G01 X-8.23676 Y6.10331
G01 X-8.23721 Y6.10409
G01 X-8.29486 Y6.08367
G01 X-8.34331 Y6.06822
G01 X-8.47649 Y6.02512
G01 X-8.52673 Y6.00979
G01 X-8.57152 Y5.99751
G01 X-8.60792 Y5.98876
G01 X-8.66066 Y5.97693
G01 X-8.71874 Y5.96346
G01 X-8.76431 Y5.95413
G01 X-8.79642 Y5.94893
G01 X-8.82294 Y5.94570
G01 X-8.85576 Y5.94226
G01 X-8.89923 Y5.93732
G01 X-8.93161 Y5.93444
G01 X-8.96200 Y5.93307
G01 X-8.99222 Y5.93327
G01 X-9.06206 Y5.93479
G01 X-9.07610 Y5.93521
G01 X-9.10931 Y5.93724
G01 X-9.14278 Y5.94108
G01 X-9.15665 Y5.94308
G01 X-9.24068 Y5.95585
G01 X-9.28563 Y5.96351
G01 X-9.33168 Y5.97385
G01 X-9.37394 Y5.98481
G01 X-9.37986 Y5.97899
G01 X-9.37394 Y5.98481
G01 X-9.37943 Y6.00753
G01 X-9.38828 Y6.05517
G01 X-9.39499 Y6.10507
G01 X-9.39880 Y6.15498
G01 X-9.39998 Y6.20000
G01 X-9.39858 Y6.24919
G01 X-9.39498 Y6.29493
G01 X-9.38895 Y6.34063
G01 X-9.38827 Y6.34483
G01 X-9.37943 Y6.39248
G01 X-9.36679 Y6.44444
G01 X-9.35182 Y6.49484
G01 X-9.33388 Y6.54538
G01 X-9.32085 Y6.57820
G01 X-9.30910 Y6.60550
G01 X-9.29644 Y6.63288
G01 X-9.27973 Y6.66657
G01 X-9.26308 Y6.69819
G01 X-9.24559 Y6.72931
G01 X-9.22695 Y6.76052
G01 X-9.20678 Y6.79241
G01 X-9.17859 Y6.83467
G01 X-9.15293 Y6.87082
G01 X-9.12573 Y6.90709
G01 X-9.09196 Y6.94970
G01 X-9.05510 Y6.99391
G01 X-9.01650 Y7.03771
G01 X-8.97569 Y7.08164
G01 X-8.92640 Y7.13199
G01 X-8.86928 Y7.18748
G01 X-8.80930 Y7.24262
G01 X-8.74590 Y7.29790
G01 X-8.67864 Y7.35371
G01 X-8.62530 Y7.39636
G01 X-8.57843 Y7.43265
G01 X-8.53011 Y7.46898
G01 X-8.48035 Y7.50536
G01 X-8.42915 Y7.54178
G01 X-8.37676 Y7.57807
G01 X-8.26645 Y7.65158
G01 X-8.17366 Y7.71093
G01 X-8.08788 Y7.76387
G01 X-7.99910 Y7.81685
G01 X-7.94356 Y7.84896
G01 X-7.94409 Y7.85326
G01 X-7.94356 Y7.84896
G01 X-7.89101 Y7.83387
G01 X-7.79814 Y7.80484
G01 X-7.73681 Y7.78447
G01 X-7.68199 Y7.76541
G01 X-7.57138 Y7.72445
G01 X-7.46102 Y7.68025
G01 X-7.35002 Y7.63246
G01 X-7.24277 Y7.58325
G01 X-7.21552 Y7.56998
G04 P0 ( dwell for no time -- G64 should not smooth over this point )
G00 Z0.08000 ( retract )

G00 X-7.18228 Y7.32099 ( rapid move to begin. )
G01 F3.00000
( Mill infeed pass 1/1 )
G01 Z-0.00800
G04 P0 ( dwell for no time -- G64 should not smooth over this point )
G01 F6.00000
G01 X-7.18228 Y7.32099
G01 X-7.23105 Y7.21891
G01 X-7.42513 Y6.81107
G01 X-7.55780 Y6.66525
G01 X-7.87530 Y6.31471
G01 X-7.92695 Y6.25871
G01 X-7.97860 Y6.20542
G01 X-8.03025 Y6.15485
G01 X-8.08189 Y6.10698
G01 X-8.08869 Y6.10086
G01 X-8.12500 Y6.06885
G01 X-8.18610 Y6.01610
G01 X-8.21182 Y5.93133
G01 X-8.25301 Y5.79265
G01 X-8.29821 Y5.61460
G01 X-8.30788 Y5.57388
G01 X-8.31591 Y5.53446
G01 X-8.32227 Y5.49632
G01 X-8.32699 Y5.45948
G01 X-8.33527 Y5.38238
G01 X-8.33834 Y5.33968
G01 X-8.34100 Y5.26328
G01 X-8.34241 Y5.23989
G01 X-8.34498 Y5.21716
G01 X-8.36067 Y5.10553
G01 X-8.36330 Y5.08976
G01 X-8.36669 Y5.07442
G01 X-8.36823 Y5.06826
G01 X-8.37322 Y5.04346
G01 X-8.37581 Y5.01875
G01 X-8.37601 Y4.99412
G01 X-8.37381 Y4.96957
G01 X-8.36998 Y4.94198
G01 X-8.36835 Y4.93167
G01 X-8.35086 Y4.83247
G01 X-8.34790 Y4.81258
G01 X-8.34595 Y4.79211
G01 X-8.33784 Y4.67609
G01 X-8.33700 Y4.66109
G01 X-8.33504 Y4.61452
G01 X-8.33351 Y4.58914
G01 X-8.33100 Y4.56311
G01 X-8.32753 Y4.53643
G01 X-8.32310 Y4.50910
G01 X-8.30203 Y4.40771
G01 X-8.27482 Y4.28374
G01 X-8.25507 Y4.20831
G01 X-8.23151 Y4.12894
G01 X-8.12500 Y3.78859
G01 X-8.09908 Y3.70389
G01 X-8.07317 Y3.61541
G01 X-7.96865 Y3.25090
G01 X-7.92182 Y3.08291
G01 X-7.87500 Y2.90550
G01 X-7.80119 Y2.61844
G01 X-7.89636 Y2.67780
G01 X-7.98855 Y2.73716
G01 X-8.07777 Y2.79652
G01 X-8.16403 Y2.85588
G01 X-8.31331 Y2.96041
G01 X-8.41865 Y3.03601
G01 X-8.51874 Y3.11161
G01 X-8.56682 Y3.14941
G01 X-8.61358 Y3.18721
G01 X-8.65903 Y3.22501
G01 X-8.70317 Y3.26281
G01 X-8.82340 Y3.36733
G01 X-8.88362 Y3.42096
G01 X-8.94092 Y3.47458
G01 X-8.99530 Y3.52820
G01 X-9.04677 Y3.58182
G01 X-9.14424 Y3.68634
G01 X-9.18010 Y3.72574
G01 X-9.21420 Y3.76514
G01 X-9.24653 Y3.80455
G01 X-9.27711 Y3.84395
G01 X-9.35587 Y3.94847
G01 X-9.37775 Y3.97825
G01 X-9.39848 Y4.00803
G01 X-9.41808 Y4.03781
G01 X-9.43654 Y4.06759
G01 X-9.49936 Y4.17212
G01 X-9.52547 Y4.21814
G01 X-9.57190 Y4.31076
G01 X-9.57657 Y4.32076
G01 X-9.59644 Y4.36695
G01 X-9.61365 Y4.40630
G01 X-9.62756 Y4.44339
G01 X-9.66354 Y4.54791
G01 X-9.67328 Y4.57873
G01 X-9.68127 Y4.60955
G01 X-9.70541 Y4.71408
G01 X-9.71089 Y4.74099
G01 X-9.71492 Y4.76790
G01 X-9.72776 Y4.87242
G01 X-9.73015 Y4.89729
G01 X-9.73124 Y4.92216
G01 X-9.73307 Y5.02669
G01 X-9.73285 Y5.05129
G01 X-9.73135 Y5.07589
G01 X-9.72220 Y5.18041
G01 X-9.71923 Y5.20644
G01 X-9.71487 Y5.23246
G01 X-9.69455 Y5.33699
G01 X-9.68804 Y5.36628
G01 X-9.67990 Y5.39556
G01 X-9.65500 Y5.47701
G01 X-9.64726 Y5.50310
G01 X-9.63835 Y5.52918
G01 X-9.63470 Y5.53918
G01 X-9.62417 Y5.56639
G01 X-9.61238 Y5.59359
G01 X-9.57823 Y5.67403
G01 X-9.55867 Y5.71685
G01 X-9.53632 Y5.75967
G01 X-9.47839 Y5.86419
G01 X-9.45587 Y5.90300
G01 X-9.46484 Y5.93516
G01 X-9.47724 Y5.98667
G01 X-9.48682 Y6.03818
G01 X-9.48790 Y6.04497
G01 X-9.49445 Y6.09460
G01 X-9.49836 Y6.14424
G01 X-9.49872 Y6.15103
G01 X-9.50000 Y6.20000
G01 X-9.49872 Y6.24897
G01 X-9.49836 Y6.25576
G01 X-9.49445 Y6.30540
G01 X-9.48790 Y6.35503
G01 X-9.48682 Y6.36182
G01 X-9.47724 Y6.41333
G01 X-9.46484 Y6.46484
G01 X-9.46302 Y6.47163
G01 X-9.44692 Y6.52581
G01 X-9.42771 Y6.57998
G01 X-9.41323 Y6.61651
G01 X-9.40043 Y6.64626
G01 X-9.38668 Y6.67600
G01 X-9.37200 Y6.70575
G01 X-9.35092 Y6.74600
G01 X-9.33212 Y6.77944
G01 X-9.31215 Y6.81289
G01 X-9.28659 Y6.85314
G01 X-9.26092 Y6.89145
G01 X-9.23372 Y6.92977
G01 X-9.20498 Y6.96809
G01 X-9.16922 Y7.01319
G01 X-9.13103 Y7.05900
G01 X-9.09066 Y7.10480
G01 X-9.04812 Y7.15061
G01 X-9.00340 Y7.19642
G01 X-8.99660 Y7.20322
G01 X-8.93797 Y7.26017
G01 X-8.87601 Y7.31713
G01 X-8.81070 Y7.37408
G01 X-8.74205 Y7.43104
G01 X-8.68708 Y7.47499
G01 X-8.63909 Y7.51215
G01 X-8.58967 Y7.54931
G01 X-8.53885 Y7.58647
G01 X-8.48661 Y7.62363
G01 X-8.43296 Y7.66079
G01 X-8.32143 Y7.73511
G01 X-8.31097 Y7.74191
G01 X-8.22683 Y7.79563
G01 X-8.13976 Y7.84936
G01 X-8.04975 Y7.90308
G01 X-7.95681 Y7.95681
G01 X-7.86229 Y7.92966
G01 X-7.76097 Y7.89790
G01 X-7.70458 Y7.87914
G01 X-7.64820 Y7.85953
G01 X-7.53542 Y7.81776
G01 X-7.42265 Y7.77260
G01 X-7.30987 Y7.72403
G01 X-7.20000 Y7.67365
G01 X-7.09692 Y7.62346
G01 X-7.14407 Y7.45343
G01 X-7.18228 Y7.32099
G01 X-7.13735 Y7.16409
G01 X-7.09520 Y7.01317
G01 X-7.05584 Y6.86822
G01 X-7.01927 Y6.72924
G01 X-6.98547 Y6.59622
G01 X-6.95446 Y6.46918
G01 X-6.92624 Y6.34810
G01 X-6.90079 Y6.23300
G01 X-6.87813 Y6.12386
G01 X-6.85826 Y6.02070
G01 X-6.84117 Y5.92350
G01 X-6.82686 Y5.83228
G01 X-6.81534 Y5.74702
G01 X-6.80659 Y5.66773
G01 X-6.80064 Y5.59441
G01 X-6.79746 Y5.52707
G01 X-6.78999 Y5.25687
G01 X-6.78891 Y5.23950
G01 X-6.78664 Y5.22234
G01 X-6.78318 Y5.20539
G01 X-6.77853 Y5.18865
G01 X-6.66818 Y4.83866
G01 X-6.66340 Y4.82211
G01 X-6.65939 Y4.80520
G01 X-6.65615 Y4.78793
G01 X-6.65368 Y4.77030
G01 X-6.65104 Y4.73397
G01 X-6.75108 Y4.73091
G01 X-6.75143 Y4.69934
G01 X-6.85032 Y2.77116
G01 X-6.84997 Y2.77110
G01 X-6.85032 Y2.77116
G01 X-6.92365 Y2.52155
G01 X-6.91606 Y2.51126
G01 X-6.92365 Y2.52155
G01 X-6.95935 Y2.52204
G01 X-7.06981 Y2.52618
G01 X-7.18027 Y2.53293
G01 X-7.20254 Y2.53482
G01 X-7.21504 Y2.52306
G01 X-7.20254 Y2.53482
G01 X-7.22526 Y3.47584
G01 X-7.23028 Y3.62369
G01 X-7.23796 Y3.76288
G01 X-7.24283 Y3.83012
G01 X-7.24827 Y3.89431
G01 X-7.25463 Y3.95934
G01 X-7.26140 Y4.01988
G01 X-7.26900 Y4.08004
G01 X-7.27754 Y4.14007
G01 X-7.28658 Y4.19688
G01 X-7.29600 Y4.25013
G01 X-7.30682 Y4.30532
G01 X-7.31757 Y4.35493
G01 X-7.32943 Y4.40474
G01 X-7.34236 Y4.45404
G01 X-7.37622 Y4.57704
G01 X-7.38645 Y4.61684
G01 X-7.39469 Y4.65448
G01 X-7.40119 Y4.69079
G01 X-7.40596 Y4.72574
G01 X-7.40905 Y4.75932
G01 X-7.41049 Y4.79151
G01 X-7.41032 Y4.82234
G01 X-7.40851 Y4.85323
G01 X-7.38341 Y5.14445
G01 X-7.37985 Y5.17709
G01 X-7.37461 Y5.21088
G01 X-7.33135 Y5.45615
G01 X-7.32435 Y5.49971
G01 X-7.31864 Y5.54290
G01 X-7.31400 Y5.58708
G01 X-7.31039 Y5.63234
G01 X-7.30781 Y5.67861
G01 X-7.30631 Y5.72376
G01 X-7.30573 Y5.77226
G01 X-7.30617 Y5.82280
G01 X-7.32470 Y6.78940
G01 X-7.32604 Y6.78969
G01 X-7.32470 Y6.78940
G01 X-7.20613 Y7.03856
G01 X-7.19785 Y7.13180
G01 X-7.20613 Y7.03856
G01 X-7.19162 Y6.98662
G01 X-7.15245 Y6.84239
G01 X-7.11608 Y6.70420
G01 X-7.08251 Y6.57205
G01 X-7.05173 Y6.44597
G01 X-7.02376 Y6.32596
G01 X-6.99857 Y6.21204
G01 X-6.97619 Y6.10424
G01 X-6.95661 Y6.00258
G01 X-6.93982 Y5.90709
G01 X-6.92581 Y5.81783
G01 X-6.91460 Y5.73484
G01 X-6.90614 Y5.65820
G01 X-6.90044 Y5.58800
G01 X-6.89739 Y5.52333
G01 X-6.89063 Y5.27865
G01 X-6.88484 Y5.27518
G01 X-6.88471 Y5.27537
G01 X-6.88484 Y5.27518
G01 X-6.87776 Y5.26884
G01 X-6.87759 Y5.26900
G01 X-6.87776 Y5.26884
G01 X-6.87200 Y5.26128
G01 X-6.87181 Y5.26140
G01 X-6.87200 Y5.26128
G01 X-6.86778 Y5.25276
G01 X-6.86757 Y5.25284
G01 X-6.86778 Y5.25276
G01 X-6.86519 Y5.24361
G01 X-6.82026 Y4.98845
G01 X-6.76392 Y4.80975
G01 X-6.76011 Y4.79669
G01 X-6.75721 Y4.78444
G01 X-6.75486 Y4.77176
G01 X-6.75312 Y4.75973
G01 X-6.75108 Y4.73091
G01 X-6.70106 Y4.73244
G01 X-6.70338 Y4.76502
G01 X-6.70550 Y4.77985
G01 X-6.70828 Y4.79482
G01 X-6.71174 Y4.80940
G01 X-6.71605 Y4.82420
G01 X-6.82622 Y5.17361
G01 X-6.83136 Y5.19201
G01 X-6.83217 Y5.19539
G01 X-6.83563 Y5.21234
G01 X-6.83621 Y5.21578
G01 X-6.83848 Y5.23294
G01 X-6.83881 Y5.23640
G01 X-6.83997 Y5.25549
G01 X-6.84743 Y5.52520
G01 X-6.85054 Y5.59121
G01 X-6.85636 Y5.66296
G01 X-6.86497 Y5.74093
G01 X-6.87634 Y5.82506
G01 X-6.89049 Y5.91530
G01 X-6.90743 Y6.01164
G01 X-6.92716 Y6.11405
G01 X-6.94968 Y6.22252
G01 X-6.97500 Y6.33703
G01 X-7.00310 Y6.45758
G01 X-7.03399 Y6.58413
G01 X-7.06768 Y6.71672
G01 X-7.10414 Y6.85531
G01 X-7.14342 Y6.99989
G01 X-7.18546 Y7.15048
G01 X-7.19402 Y7.18036
G01 X-7.18614 Y7.27243
G01 X-7.19402 Y7.18036
G01 X-7.37491 Y6.80023
G01 X-7.37625 Y6.80052
G01 X-7.37491 Y6.80023
G01 X-7.35616 Y5.82184
G01 X-7.35572 Y5.77284
G01 X-7.35625 Y5.72653
G01 X-7.35779 Y5.68028
G01 X-7.36031 Y5.63515
G01 X-7.36384 Y5.59110
G01 X-7.36837 Y5.54816
G01 X-7.37392 Y5.50631
G01 X-7.38059 Y5.46483
G01 X-7.42394 Y5.21904
G01 X-7.42943 Y5.18363
G01 X-7.43317 Y5.14931
G01 X-7.45838 Y4.85683
G01 X-7.46031 Y4.82393
G01 X-7.46050 Y4.79053
G01 X-7.45895 Y4.75592
G01 X-7.45565 Y4.72007
G01 X-7.45059 Y4.68301
G01 X-7.44374 Y4.64474
G01 X-7.43510 Y4.60526
G01 X-7.42454 Y4.56418
G01 X-7.39056 Y4.44077
G01 X-7.37807 Y4.39313
G01 X-7.36643 Y4.34434
G01 X-7.35568 Y4.29473
G01 X-7.34523 Y4.24142
G01 X-7.33581 Y4.18817
G01 X-7.32692 Y4.13222
G01 X-7.31860 Y4.07377
G01 X-7.31109 Y4.01433
G01 X-7.30432 Y3.95379
G01 X-7.29809 Y3.89009
G01 X-7.29265 Y3.82590
G01 X-7.28783 Y3.75927
G01 X-7.28020 Y3.62094
G01 X-7.27524 Y3.47464
G01 X-7.25145 Y2.48878
G01 X-7.26394 Y2.47702
G01 X-7.25145 Y2.48878
G01 X-7.18390 Y2.48306
G01 X-7.07227 Y2.47624
G01 X-6.96064 Y2.47206
G01 X-6.88638 Y2.47103
G01 X-6.87879 Y2.46075
G01 X-6.88638 Y2.47103
G01 X-6.80068 Y2.76271
G01 X-6.80034 Y2.76266
G01 X-6.80068 Y2.76271
G01 X-6.70144 Y4.69778
G01 X-6.70106 Y4.73244
G01 X-6.65104 Y4.73397
G01 X-6.65147 Y4.69621
G01 X-6.75105 Y2.75427
G01 X-6.62030 Y3.35136
G01 X-6.55160 Y4.69109
G01 X-6.55105 Y4.73283
G01 X-6.55130 Y4.74122
G01 X-6.55394 Y4.77755
G01 X-6.55465 Y4.78417
G01 X-6.55712 Y4.80180
G01 X-6.56110 Y4.82364
G01 X-6.56610 Y4.84518
G01 X-6.56733 Y4.84986
G01 X-6.57281 Y4.86873
G01 X-6.62952 Y5.04861
G01 X-6.70983 Y5.22069
G01 X-6.71303 Y5.22996
G01 X-6.71326 Y5.22990
G01 X-6.71303 Y5.22996
G01 X-6.71441 Y5.23966
G01 X-6.71465 Y5.23965
G01 X-6.71441 Y5.23966
G01 X-6.71388 Y5.24944
G01 X-6.71412 Y5.24948
G01 X-6.71388 Y5.24944
G01 X-6.71144 Y5.25894
G01 X-6.71167 Y5.25902
G01 X-6.71144 Y5.25894
G01 X-6.70721 Y5.26778
G01 X-6.70741 Y5.26790
G01 X-6.70721 Y5.26778
G01 X-6.70132 Y5.27562
G01 X-6.70150 Y5.27578
G01 X-6.70132 Y5.27562
G01 X-6.69402 Y5.28216
G01 X-6.69417 Y5.28236
G01 X-6.69402 Y5.28216
G01 X-6.69071 Y5.28413
G01 X-6.69757 Y5.53179
G01 X-6.70097 Y5.60250
G01 X-6.70719 Y5.67870
G01 X-6.71624 Y5.76041
G01 X-6.72776 Y5.84567
G01 X-6.74268 Y5.94082
G01 X-6.76006 Y6.03961
G01 X-6.77993 Y6.14277
G01 X-6.80315 Y6.25459
G01 X-6.82885 Y6.37080
G01 X-6.85707 Y6.49188
G01 X-6.88832 Y6.61993
G01 X-6.92235 Y6.75387
G01 X-6.95913 Y6.89367
G01 X-6.99871 Y7.03938
G01 X-7.04103 Y7.19098
G01 X-7.07823 Y7.32089
G01 X-7.08026 Y7.32089
G01 X-7.07823 Y7.32089
G01 X-7.04799 Y7.42571
G01 X-7.01725 Y7.53652
G01 X-7.02331 Y7.54312
G01 X-7.01725 Y7.53652
G01 X-6.98124 Y7.54319
G01 X-6.88481 Y7.55895
G01 X-6.78842 Y7.57260
G01 X-6.69203 Y7.58414
G01 X-6.59567 Y7.59359
G01 X-6.49933 Y7.60093
G01 X-6.40298 Y7.60616
G01 X-6.30665 Y7.60929
G01 X-6.21031 Y7.61032
G01 X-6.11398 Y7.60925
G01 X-6.01764 Y7.60607
G01 X-5.92130 Y7.60079
G01 X-5.82494 Y7.59342
G01 X-5.72859 Y7.58393
G01 X-5.63127 Y7.57220
G01 X-5.84224 Y5.75524
G01 X-5.84702 Y5.71857
G01 X-5.85275 Y5.68295
G01 X-5.93103 Y5.23904
G01 X-5.93242 Y5.21652
G01 X-5.93081 Y5.18571
G01 X-5.93079 Y5.15800
G01 X-5.93098 Y5.15123
G01 X-5.93202 Y5.13051
G01 X-5.93403 Y5.11109
G01 X-5.93708 Y5.09053
G01 X-5.94092 Y5.07286
G01 X-5.94453 Y5.06070
G01 X-5.94107 Y5.05758
G01 X-5.93653 Y5.05253
G01 X-5.93642 Y5.05261
G01 X-5.93653 Y5.05253
G01 X-5.93037 Y5.04416
G01 X-5.92696 Y5.03828
G01 X-5.92270 Y5.02870
G01 X-5.92059 Y5.02224
G01 X-5.91842 Y5.01199
G01 X-5.91770 Y5.00523
G01 X-5.91777 Y4.99478
G01 X-5.91848 Y4.98802
G01 X-5.92066 Y4.97778
G01 X-5.92276 Y4.97132
G01 X-5.92703 Y4.96175
G01 X-5.93042 Y4.95587
G01 X-5.93653 Y4.94747
G01 X-5.94107 Y4.94242
G01 X-5.94884 Y4.93541
G01 X-5.95434 Y4.93141
G01 X-5.96344 Y4.92616
G01 X-5.96965 Y4.92340
G01 X-5.97957 Y4.92018
G01 X-5.98621 Y4.91877
G01 X-5.99660 Y4.91761
G01 X-6.00340 Y4.91761
G01 X-6.01380 Y4.91870
G01 X-6.02044 Y4.92011
G01 X-6.03038 Y4.92331
G01 X-6.03656 Y4.92616
G01 X-6.03812 Y4.92706
G01 X-6.13305 Y4.88279
G01 X-6.14543 Y4.86681
G01 X-6.14848 Y4.86261
G01 X-6.15849 Y4.84807
G01 X-6.16116 Y4.84398
G01 X-6.17300 Y4.82465
G01 X-6.18215 Y4.80825
G01 X-6.18506 Y4.80263
G01 X-6.20207 Y4.76706
G01 X-6.20505 Y4.76016
G01 X-6.22031 Y4.72089
G01 X-6.22248 Y4.71471
G01 X-6.23602 Y4.67172
G01 X-6.23759 Y4.66620
G01 X-6.24940 Y4.61951
G01 X-6.25051 Y4.61458
G01 X-6.26100 Y4.56196
G01 X-6.30936 Y4.28773
G01 X-6.32341 Y4.21565
G01 X-6.34063 Y4.14075
G01 X-6.36122 Y4.06215
G01 X-6.38520 Y3.97990
G01 X-6.41255 Y3.89403
G01 X-6.44332 Y3.80455
G01 X-6.47748 Y3.71150
G01 X-6.51521 Y3.61452
G01 X-6.62030 Y3.35136
G04 P0 ( dwell for no time -- G64 should not smooth over this point )
G00 Z0.08000 ( retract )

G00 X-6.84911 Y2.42050 ( rapid move to begin. )
G01 F3.00000
( Mill infeed pass 1/1 )
G01 Z-0.00800
G04 P0 ( dwell for no time -- G64 should not smooth over this point )
G01 F6.00000
G01 X-6.84911 Y2.42050
G01 X-6.75105 Y2.75427
G01 X-6.42218 Y3.57785
G01 X-6.38394 Y3.67614
G01 X-6.34909 Y3.77106
G01 X-6.31762 Y3.86259
G01 X-6.28954 Y3.95073
G01 X-6.26484 Y4.03549
G01 X-6.24352 Y4.11687
G01 X-6.22559 Y4.19487
G01 X-6.21104 Y4.26948
G01 X-6.16252 Y4.54459
G01 X-6.15245 Y4.59499
G01 X-6.14064 Y4.64168
G01 X-6.12710 Y4.68467
G01 X-6.11184 Y4.72394
G01 X-6.09484 Y4.75951
G01 X-6.08569 Y4.77590
G01 X-6.07612 Y4.79137
G01 X-6.06611 Y4.80591
G01 X-6.05566 Y4.81952
G01 X-6.04479 Y4.83220
G01 X-6.03348 Y4.84396
G01 X-6.00340 Y4.85808
G01 X-5.99373 Y4.86237
G01 X-5.97605 Y4.87093
G01 X-5.96983 Y4.87431
G01 X-5.95254 Y4.88489
G01 X-5.94684 Y4.88880
G01 X-5.93176 Y4.90036
G01 X-5.92657 Y4.90479
G01 X-5.91326 Y4.91743
G01 X-5.90859 Y4.92236
G01 X-5.89665 Y4.93634
G01 X-5.89248 Y4.94177
G01 X-5.88142 Y4.95788
G01 X-5.87777 Y4.96384
G01 X-5.86756 Y4.98267
G01 X-5.86446 Y4.98918
G01 X-5.85511 Y5.01180
G01 X-5.85260 Y5.01890
G01 X-5.84431 Y5.04704
G01 X-5.84245 Y5.05478
G01 X-5.83872 Y5.07247
G01 X-5.83582 Y5.09098
G01 X-5.83471 Y5.09947
G01 X-5.83230 Y5.12283
G01 X-5.83105 Y5.14735
G01 X-5.83080 Y5.15671
G01 X-5.83083 Y5.18834
G01 X-5.83255 Y5.22167
G01 X-5.75414 Y5.66633
G01 X-5.74806 Y5.70416
G01 X-5.74299 Y5.74300
G01 X-5.52069 Y7.65750
G01 X-5.61920 Y7.67149
G01 X-5.62570 Y7.62191
G01 X-5.72316 Y7.63364
G01 X-5.82059 Y7.64323
G01 X-5.91803 Y7.65069
G01 X-6.01545 Y7.65603
G01 X-6.11288 Y7.65924
G01 X-6.21030 Y7.66032
G01 X-6.30773 Y7.65928
G01 X-6.40515 Y7.65611
G01 X-6.50259 Y7.65082
G01 X-6.60001 Y7.64340
G01 X-6.69745 Y7.63385
G01 X-6.79490 Y7.62218
G01 X-6.89235 Y7.60838
G01 X-6.98982 Y7.59245
G01 X-7.05709 Y7.57999
G01 X-7.06314 Y7.58659
G01 X-7.05709 Y7.57999
G01 X-7.09603 Y7.43957
G01 X-7.13026 Y7.32094
G01 X-7.13228 Y7.32094
G01 X-7.13026 Y7.32094
G01 X-7.08919 Y7.17754
G01 X-7.04705 Y7.02662
G01 X-7.00748 Y6.88094
G01 X-6.97081 Y6.74155
G01 X-6.93701 Y6.60853
G01 X-6.90576 Y6.48053
G01 X-6.87754 Y6.35945
G01 X-6.85197 Y6.24379
G01 X-6.82917 Y6.13402
G01 X-6.80901 Y6.02936
G01 X-6.79192 Y5.93216
G01 X-6.77746 Y5.84003
G01 X-6.76579 Y5.75371
G01 X-6.75689 Y5.67321
G01 X-6.75080 Y5.59845
G01 X-6.74751 Y5.52943
G01 X-6.74003 Y5.25911
G01 X-6.73914 Y5.24433
G01 X-6.73733 Y5.23062
G01 X-6.73457 Y5.21709
G01 X-6.73058 Y5.20286
G01 X-6.62014 Y4.85253
G01 X-6.61475 Y4.83365
G01 X-6.61025 Y4.81442
G01 X-6.60663 Y4.79487
G01 X-6.60381 Y4.77392
G01 X-6.60117 Y4.73759
G01 X-6.60104 Y4.73340
G01 X-6.60154 Y4.69365
G01 X-6.68567 Y3.05281
G01 X-6.46870 Y3.59619
G01 X-6.43071 Y3.69382
G01 X-6.39620 Y3.78781
G01 X-6.36508 Y3.87831
G01 X-6.33737 Y3.96531
G01 X-6.31303 Y4.04882
G01 X-6.29207 Y4.12881
G01 X-6.27450 Y4.20526
G01 X-6.26020 Y4.27861
G01 X-6.21176 Y4.55327
G01 X-6.20092 Y4.60725
G01 X-6.18911 Y4.65394
G01 X-6.17479 Y4.69969
G01 X-6.15844 Y4.74205
G01 X-6.15695 Y4.74550
G01 X-6.13850 Y4.78388
G01 X-6.12935 Y4.80027
G01 X-6.11864 Y4.81767
G01 X-6.10729 Y4.83426
G01 X-6.09532 Y4.84997
G01 X-6.08275 Y4.86474
G01 X-6.06952 Y4.87862
G01 X-6.06272 Y4.88452
G01 X-6.05498 Y4.88910
G01 X-6.02460 Y4.90336
G01 X-6.01455 Y4.90784
G01 X-5.99889 Y4.91543
G01 X-5.99437 Y4.91791
G01 X-5.98620 Y4.91870
G01 X-5.97957 Y4.92018
G01 X-5.97954 Y4.92002
G01 X-5.97957 Y4.92018
G01 X-5.96963 Y4.92333
G01 X-5.96341 Y4.92610
G01 X-5.95430 Y4.93135
G01 X-5.94880 Y4.93536
G01 X-5.94102 Y4.94237
G01 X-5.93647 Y4.94743
G01 X-5.93037 Y4.95583
G01 X-5.92696 Y4.96172
G01 X-5.92270 Y4.97130
G01 X-5.92059 Y4.97776
G01 X-5.91841 Y4.98801
G01 X-5.91777 Y4.99496
G01 X-5.91214 Y5.00535
G01 X-5.91011 Y5.00947
G01 X-5.90182 Y5.02969
G01 X-5.90012 Y5.03428
G01 X-5.89263 Y5.05995
G01 X-5.89120 Y5.06577
G01 X-5.88790 Y5.08150
G01 X-5.88530 Y5.09809
G01 X-5.88438 Y5.10528
G01 X-5.88214 Y5.12667
G01 X-5.88101 Y5.14929
G01 X-5.88079 Y5.15735
G01 X-5.88081 Y5.18703
G01 X-5.88248 Y5.21909
G01 X-5.88179 Y5.23035
G01 X-5.80344 Y5.67464
G01 X-5.79754 Y5.71136
G01 X-5.79261 Y5.74912
G01 X-5.57598 Y7.61485
G01 X-5.56028 Y7.62696
G01 X-5.57598 Y7.61485
G01 X-5.62570 Y7.62191
G01 X-5.61512 Y7.58493
G01 X-5.63127 Y7.57220
G04 P0 ( dwell for no time -- G64 should not smooth over this point )
G00 Z0.08000 ( retract )

G00 X-4.30278 Y7.54087 ( rapid move to begin. )
G01 F3.00000
( Mill infeed pass 1/1 )
G01 Z-0.00800
G04 P0 ( dwell for no time -- G64 should not smooth over this point )
G01 F6.00000
G01 X-4.30278 Y7.54087
G01 X-4.55506 Y6.15204
G01 X-4.56515 Y6.09397
G01 X-4.57413 Y6.03701
G01 X-4.58200 Y5.98116
G01 X-4.58876 Y5.92642
G01 X-4.59441 Y5.87279
G01 X-4.59894 Y5.82027
G01 X-4.60237 Y5.76887
G01 X-4.60468 Y5.71858
G01 X-4.59529 Y5.63062
G01 X-4.58966 Y5.57002
G01 X-4.57578 Y5.38597
G01 X-4.56516 Y5.25534
G01 X-4.55566 Y5.14801
G01 X-4.54631 Y5.05107
G01 X-4.53549 Y4.94779
G01 X-4.52436 Y4.84895
G01 X-4.50705 Y4.70509
G01 X-4.50314 Y4.67083
G01 X-4.50000 Y4.63581
G01 X-4.50000 Y4.34420
G01 X-4.50255 Y4.31020
G01 X-4.50483 Y4.28305
G01 X-4.51544 Y4.16400
G01 X-4.51286 Y4.11267
G01 X-4.50930 Y4.06037
G01 X-4.50476 Y4.00708
G01 X-4.49924 Y3.95281
G01 X-4.49274 Y3.89756
G01 X-4.48526 Y3.84134
G01 X-4.47680 Y3.78413
G01 X-4.46736 Y3.72594
G01 X-4.44553 Y3.60663
G01 X-4.41979 Y3.48339
G01 X-4.39012 Y3.35623
G01 X-4.35654 Y3.22515
G01 X-4.15219 Y2.46035
G01 X-4.23647 Y2.43410
G01 X-4.25092 Y2.48197
G01 X-4.25628 Y2.51766
G01 X-4.27362 Y2.52742
G01 X-4.45315 Y3.19934
G01 X-4.48699 Y3.33141
G01 X-4.51768 Y3.46294
G01 X-4.54390 Y3.58863
G01 X-4.56607 Y3.70993
G01 X-4.57572 Y3.76950
G01 X-4.58418 Y3.82671
G01 X-4.59206 Y3.88587
G01 X-4.59856 Y3.94112
G01 X-4.60440 Y3.99859
G01 X-4.60894 Y4.05188
G01 X-4.61263 Y4.10588
G01 X-4.61532 Y4.15896
G01 X-4.61505 Y4.17288
G01 X-4.60446 Y4.29167
G01 X-4.60222 Y4.31826
G01 X-4.59995 Y4.34788
G01 X-4.59993 Y4.63134
G01 X-4.60263 Y4.66069
G01 X-4.60634 Y4.69318
G01 X-4.62368 Y4.83730
G01 X-4.63486 Y4.93660
G01 X-4.64585 Y5.04145
G01 X-4.65522 Y5.13867
G01 X-4.66483 Y5.24722
G01 X-4.67550 Y5.37847
G01 X-4.68930 Y5.56148
G01 X-4.69480 Y5.62069
G01 X-4.70411 Y5.70796
G01 X-4.70457 Y5.72317
G01 X-4.70215 Y5.77553
G01 X-4.69857 Y5.82886
G01 X-4.69386 Y5.88327
G01 X-4.68801 Y5.93868
G01 X-4.68125 Y5.99342
G01 X-4.67315 Y6.05096
G01 X-4.66367 Y6.11109
G01 X-4.65345 Y6.16991
G01 X-4.41846 Y7.46357
G01 X-4.40191 Y7.47478
G01 X-4.41846 Y7.46357
G01 X-4.47414 Y7.47487
G01 X-4.54869 Y7.48878
G01 X-4.62322 Y7.50145
G01 X-4.69775 Y7.51289
G01 X-4.77227 Y7.52310
G01 X-4.84677 Y7.53207
G01 X-4.92126 Y7.53982
G01 X-4.99575 Y7.54634
G01 X-5.07024 Y7.55163
G01 X-5.14471 Y7.55570
G01 X-5.21918 Y7.55852
G01 X-5.29366 Y7.56013
G01 X-5.36813 Y7.56050
G01 X-5.43137 Y7.55977
G01 X-5.44249 Y7.57212
G01 X-5.43137 Y7.55977
G01 X-5.64366 Y5.73147
G01 X-5.64890 Y5.69122
G01 X-5.65566 Y5.64896
G01 X-5.73210 Y5.21549
G01 X-5.73240 Y5.21550
G01 X-5.73210 Y5.21549
G01 X-5.73096 Y5.19349
G01 X-5.73083 Y5.18843
G01 X-5.73080 Y5.15680
G01 X-5.73118 Y5.14226
G01 X-5.73243 Y5.11774
G01 X-5.73283 Y5.11256
G01 X-5.73555 Y5.08653
G01 X-5.73703 Y5.07550
G01 X-5.73993 Y5.05699
G01 X-5.74087 Y5.05184
G01 X-5.74487 Y5.03294
G01 X-5.93178 Y4.84603
G01 X-5.82908 Y4.94874
G01 X-5.82242 Y4.96117
G01 X-5.81825 Y4.97008
G01 X-5.80890 Y4.99270
G01 X-5.80546 Y5.00223
G01 X-5.79569 Y5.03536
G01 X-5.79352 Y5.04446
G01 X-5.78932 Y5.06473
G01 X-5.78642 Y5.08324
G01 X-5.78513 Y5.09300
G01 X-5.78256 Y5.11770
G01 X-5.78111 Y5.14480
G01 X-5.78080 Y5.15676
G01 X-5.78083 Y5.18839
G01 X-5.78232 Y5.21858
G01 X-5.78264 Y5.21860
G01 X-5.78232 Y5.21858
G01 X-5.70490 Y5.65765
G01 X-5.69848 Y5.69769
G01 X-5.69332 Y5.73723
G01 X-5.47602 Y7.60873
G01 X-5.48707 Y7.62094
G01 X-5.47602 Y7.60873
G01 X-5.44358 Y7.60964
G01 X-5.36829 Y7.61050
G01 X-5.29299 Y7.61012
G01 X-5.21770 Y7.60850
G01 X-5.14240 Y7.60564
G01 X-5.06710 Y7.60154
G01 X-4.99180 Y7.59619
G01 X-4.91650 Y7.58960
G01 X-4.84119 Y7.58176
G01 X-4.76588 Y7.57269
G01 X-4.69057 Y7.56237
G01 X-4.61524 Y7.55081
G01 X-4.53991 Y7.53801
G01 X-4.46458 Y7.52395
G01 X-4.38923 Y7.50866
G01 X-4.36059 Y7.50237
G01 X-4.34414 Y7.51347
G01 X-4.36059 Y7.50237
G01 X-4.60425 Y6.16098
G01 X-4.61441 Y6.10253
G01 X-4.62352 Y6.04480
G01 X-4.63151 Y5.98814
G01 X-4.63848 Y5.93166
G01 X-4.64422 Y5.87709
G01 X-4.64876 Y5.82457
G01 X-4.65226 Y5.77220
G01 X-4.65463 Y5.72087
G01 X-4.65440 Y5.71327
G01 X-4.64504 Y5.62565
G01 X-4.63948 Y5.56575
G01 X-4.62496 Y5.37352
G01 X-4.61498 Y5.25108
G01 X-4.60478 Y5.13627
G01 X-4.59538 Y5.03930
G01 X-4.58520 Y4.94240
G01 X-4.57402 Y4.84313
G01 X-4.55669 Y4.69914
G01 X-4.55288 Y4.66576
G01 X-4.54995 Y4.63358
G01 X-4.54995 Y4.34604
G01 X-4.55239 Y4.31424
G01 X-4.55464 Y4.28736
G01 X-4.56525 Y4.16844
G01 X-4.56539 Y4.16148
G01 X-4.56280 Y4.11015
G01 X-4.55918 Y4.05697
G01 X-4.55450 Y4.00202
G01 X-4.54898 Y3.94775
G01 X-4.54240 Y3.89172
G01 X-4.53472 Y3.83403
G01 X-4.52626 Y3.77682
G01 X-4.51671 Y3.71793
G01 X-4.49471 Y3.59763
G01 X-4.46848 Y3.47203
G01 X-4.43856 Y3.34382
G01 X-4.40484 Y3.21224
G01 X-4.21288 Y2.49381
G01 X-4.19597 Y2.48449
G01 X-4.21288 Y2.49381
G01 X-4.25092 Y2.48197
G01 X-4.33436 Y2.45757
G01 X-4.41778 Y2.43478
G01 X-4.50119 Y2.41358
G01 X-4.58457 Y2.39399
G01 X-4.66796 Y2.37599
G01 X-4.75134 Y2.35960
G01 X-4.83470 Y2.34479
G01 X-4.91806 Y2.33160
G01 X-5.00141 Y2.31998
G01 X-5.08475 Y2.30998
G01 X-5.16808 Y2.30157
G01 X-5.25141 Y2.29475
G01 X-5.33474 Y2.28953
G01 X-5.41806 Y2.28591
G01 X-5.50139 Y2.28388
G01 X-5.58471 Y2.28345
G01 X-5.66803 Y2.28461
G01 X-5.75135 Y2.28737
G01 X-5.83467 Y2.29172
G01 X-5.91800 Y2.29767
G01 X-6.00134 Y2.30521
G01 X-6.08468 Y2.31435
G01 X-6.16803 Y2.32509
G01 X-6.25138 Y2.33742
G01 X-6.33473 Y2.35135
G01 X-6.41810 Y2.36688
G01 X-6.50148 Y2.38401
G01 X-6.58487 Y2.40273
G01 X-6.66827 Y2.42306
G01 X-6.75169 Y2.44498
G01 X-6.78689 Y2.45491
G01 X-6.80535 Y2.44470
G01 X-6.78689 Y2.45491
G01 X-6.70379 Y2.73793
G01 X-6.37558 Y3.55972
G01 X-6.33700 Y3.65891
G01 X-6.30215 Y3.75383
G01 X-6.26998 Y3.84741
G01 X-6.24154 Y3.93674
G01 X-6.21684 Y4.02150
G01 X-6.19479 Y4.10567
G01 X-6.17686 Y4.18367
G01 X-6.16196 Y4.25991
G01 X-6.11338 Y4.53535
G01 X-6.10368 Y4.58396
G01 X-6.09254 Y4.62803
G01 X-6.07993 Y4.66810
G01 X-6.06595 Y4.70409
G01 X-6.05045 Y4.73654
G01 X-6.04258 Y4.75055
G01 X-6.03427 Y4.76404
G01 X-6.02569 Y4.77651
G01 X-6.01682 Y4.78800
G01 X-6.00779 Y4.79860
G01 X-6.00381 Y4.80268
G01 X-6.00432 Y4.80340
G01 X-6.00381 Y4.80268
G01 X-5.98257 Y4.81262
G01 X-5.97193 Y4.81737
G01 X-5.95426 Y4.82593
G01 X-5.94921 Y4.82862
G01 X-5.93178 Y4.84603
G01 X-5.95464 Y4.82327
G01 X-5.96081 Y4.81565
G01 X-5.96101 Y4.81578
G01 X-5.96081 Y4.81565
G01 X-5.96543 Y4.80700
G01 X-5.96566 Y4.80710
G01 X-5.96543 Y4.80700
G01 X-5.96828 Y4.79763
G01 X-5.96852 Y4.79767
G01 X-5.96828 Y4.79763
G01 X-5.96924 Y4.78787
G01 X-5.96948 Y4.78787
G01 X-5.96924 Y4.78787
G01 X-5.96828 Y4.77812
G01 X-5.96852 Y4.77807
G01 X-5.96828 Y4.77812
G01 X-5.96543 Y4.76874
G01 X-5.96566 Y4.76864
G01 X-5.96543 Y4.76874
G01 X-5.96402 Y4.76610
G01 X-5.97358 Y4.76163
G01 X-5.97441 Y4.76268
G01 X-5.97358 Y4.76163
G01 X-5.97798 Y4.75648
G01 X-5.98526 Y4.74710
G01 X-5.99236 Y4.73668
G01 X-5.99949 Y4.72521
G01 X-6.00600 Y4.71354
G01 X-6.02003 Y4.68423
G01 X-6.03273 Y4.65151
G01 X-6.04442 Y4.61438
G01 X-6.05490 Y4.57292
G01 X-6.06424 Y4.52611
G01 X-6.11256 Y4.25211
G01 X-6.12813 Y4.17247
G01 X-6.14678 Y4.09153
G01 X-6.16883 Y4.00751
G01 X-6.19426 Y3.92037
G01 X-6.22305 Y3.83007
G01 X-6.25452 Y3.73854
G01 X-6.29007 Y3.64167
G01 X-6.32898 Y3.54159
G01 X-6.65648 Y2.72158
G01 X-6.72459 Y2.48956
G01 X-6.74353 Y2.47887
G01 X-6.72459 Y2.48956
G01 X-6.65600 Y2.47153
G01 X-6.57347 Y2.45142
G01 X-6.49097 Y2.43289
G01 X-6.40849 Y2.41595
G01 X-6.32603 Y2.40059
G01 X-6.24360 Y2.38682
G01 X-6.16117 Y2.37462
G01 X-6.07876 Y2.36400
G01 X-5.99636 Y2.35497
G01 X-5.91397 Y2.34751
G01 X-5.83159 Y2.34162
G01 X-5.74922 Y2.33732
G01 X-5.66686 Y2.33460
G01 X-5.58450 Y2.33345
G01 X-5.50213 Y2.33388
G01 X-5.41976 Y2.33588
G01 X-5.33739 Y2.33946
G01 X-5.25502 Y2.34462
G01 X-5.17263 Y2.35137
G01 X-5.09024 Y2.35968
G01 X-5.00784 Y2.36957
G01 X-4.92542 Y2.38105
G01 X-4.84298 Y2.39410
G01 X-4.76053 Y2.40875
G01 X-4.67805 Y2.42496
G01 X-4.59557 Y2.44277
G01 X-4.51306 Y2.46215
G01 X-4.43053 Y2.48313
G01 X-4.34796 Y2.50569
G01 X-4.27362 Y2.52742
G04 P0 ( dwell for no time -- G64 should not smooth over this point )
G00 Z0.08000 ( retract )

G00 X-3.90746 Y2.45438 ( rapid move to begin. )
G01 F3.00000
( Mill infeed pass 1/1 )
G01 Z-0.00800
G04 P0 ( dwell for no time -- G64 should not smooth over this point )
G01 F6.00000
G01 X-3.90746 Y2.45438
G01 X-3.77287 Y2.81290
G01 X-3.72912 Y2.93178
G01 X-3.68820 Y3.04783
G01 X-3.65010 Y3.16107
G01 X-3.61482 Y3.27148
G01 X-3.58236 Y3.37907
G01 X-3.55273 Y3.48383
G01 X-3.52592 Y3.58578
G01 X-3.50193 Y3.68490
G01 X-3.48076 Y3.78120
G01 X-3.46241 Y3.87467
G01 X-3.44689 Y3.96533
G01 X-3.43419 Y4.05316
G01 X-3.42431 Y4.13817
G01 X-3.41726 Y4.22036
G01 X-3.41302 Y4.29972
G01 X-3.41161 Y4.37626
G01 X-3.41161 Y4.44636
G01 X-3.42489 Y4.62256
G01 X-3.43484 Y4.74466
G01 X-3.44499 Y4.85892
G01 X-3.45437 Y4.95569
G01 X-3.46451 Y5.05221
G01 X-3.47651 Y5.15847
G01 X-3.49295 Y5.29492
G01 X-3.49686 Y5.32917
G01 X-3.50000 Y5.36419
G01 X-3.50000 Y5.65580
G01 X-3.49744 Y5.68979
G01 X-3.49517 Y5.71696
G01 X-3.46507 Y6.05474
G01 X-3.39653 Y6.85098
G01 X-3.34281 Y7.48824
G01 X-3.39660 Y7.44535
G01 X-3.46921 Y7.45563
G01 X-3.58800 Y7.46950
G01 X-3.70677 Y7.48043
G01 X-3.82554 Y7.48841
G01 X-3.94429 Y7.49345
G01 X-4.06305 Y7.49555
G01 X-4.18182 Y7.49470
G01 X-4.26081 Y7.49219
G01 X-4.27013 Y7.50301
G01 X-4.26081 Y7.49219
G01 X-4.50583 Y6.14329
G01 X-4.51582 Y6.08580
G01 X-4.52468 Y6.02963
G01 X-4.53243 Y5.97461
G01 X-4.53908 Y5.92074
G01 X-4.54464 Y5.86802
G01 X-4.54908 Y5.81646
G01 X-4.55245 Y5.76606
G01 X-4.55456 Y5.72009
G01 X-4.55470 Y5.72009
G01 X-4.55456 Y5.72009
G01 X-4.54557 Y5.63593
G01 X-4.53987 Y5.57465
G01 X-4.52593 Y5.38980
G01 X-4.51533 Y5.25950
G01 X-4.50587 Y5.15255
G01 X-4.49655 Y5.05598
G01 X-4.48579 Y4.95328
G01 X-4.47469 Y4.85466
G01 X-4.45737 Y4.71076
G01 X-4.45346 Y4.67650
G01 X-4.45020 Y4.64027
G01 X-4.45000 Y4.63581
G01 X-4.45000 Y4.34420
G01 X-4.45014 Y4.34052
G01 X-4.45188 Y4.31696
G01 X-4.45503 Y4.27861
G01 X-4.46534 Y4.16303
G01 X-4.46546 Y4.16304
G01 X-4.46534 Y4.16303
G01 X-4.46295 Y4.11563
G01 X-4.45944 Y4.06419
G01 X-4.45498 Y4.01173
G01 X-4.44954 Y3.95826
G01 X-4.44313 Y3.90378
G01 X-4.43574 Y3.84829
G01 X-4.42739 Y3.79179
G01 X-4.41808 Y3.73444
G01 X-4.39646 Y3.61624
G01 X-4.37096 Y3.49418
G01 X-4.34155 Y3.36812
G01 X-4.30817 Y3.23781
G01 X-4.11342 Y2.50895
G01 X-4.12101 Y2.49944
G01 X-4.11342 Y2.50895
G01 X-4.02861 Y2.50581
G01 X-3.94194 Y2.50479
G01 X-3.93569 Y2.49565
G01 X-3.94194 Y2.50479
G01 X-3.81974 Y2.83032
G01 X-3.77616 Y2.94873
G01 X-3.73547 Y3.06412
G01 X-3.69761 Y3.17665
G01 X-3.66257 Y3.28631
G01 X-3.63035 Y3.39310
G01 X-3.60097 Y3.49699
G01 X-3.57440 Y3.59802
G01 X-3.55065 Y3.69615
G01 X-3.52971 Y3.79138
G01 X-3.51159 Y3.88370
G01 X-3.49628 Y3.97313
G01 X-3.48377 Y4.05962
G01 X-3.47406 Y4.14319
G01 X-3.46714 Y4.22383
G01 X-3.46299 Y4.30151
G01 X-3.46161 Y4.37672
G01 X-3.46157 Y4.44447
G01 X-3.47473 Y4.61857
G01 X-3.48467 Y4.74050
G01 X-3.49476 Y4.85418
G01 X-3.50411 Y4.95058
G01 X-3.51346 Y5.03996
G01 X-3.52531 Y5.14534
G01 X-3.54263 Y5.28925
G01 X-3.54654 Y5.32350
G01 X-3.54980 Y5.35972
G01 X-3.55000 Y5.36419
G01 X-3.55000 Y5.65580
G01 X-3.54986 Y5.65948
G01 X-3.54812 Y5.68304
G01 X-3.54497 Y5.72140
G01 X-3.51488 Y6.05907
G01 X-3.44635 Y6.85525
G01 X-3.39660 Y7.44535
G01 X-3.45039 Y7.40247
G01 X-3.49616 Y6.85952
G01 X-3.56469 Y6.06341
G01 X-3.59482 Y5.72532
G01 X-3.59715 Y5.69753
G01 X-3.59973 Y5.66317
G01 X-3.60000 Y5.65580
G01 X-3.60000 Y5.36419
G01 X-3.59960 Y5.35526
G01 X-3.59621 Y5.31783
G01 X-3.59230 Y5.28358
G01 X-3.57499 Y5.13963
G01 X-3.56318 Y5.03463
G01 X-3.55385 Y4.94548
G01 X-3.54454 Y4.84944
G01 X-3.53449 Y4.73634
G01 X-3.52457 Y4.61458
G01 X-3.51157 Y4.44259
G01 X-3.51161 Y4.37718
G01 X-3.51296 Y4.30331
G01 X-3.51702 Y4.22730
G01 X-3.52381 Y4.14822
G01 X-3.53335 Y4.06609
G01 X-3.54567 Y3.98092
G01 X-3.56077 Y3.89274
G01 X-3.57867 Y3.80157
G01 X-3.59937 Y3.70740
G01 X-3.62288 Y3.61026
G01 X-3.64920 Y3.51016
G01 X-3.67835 Y3.40712
G01 X-3.71032 Y3.30114
G01 X-3.74512 Y3.19223
G01 X-3.78275 Y3.08040
G01 X-3.82320 Y2.96568
G01 X-3.86660 Y2.84774
G01 X-3.97643 Y2.55520
G01 X-3.97017 Y2.54606
G01 X-3.97643 Y2.55520
G01 X-4.02739 Y2.55580
G01 X-4.07465 Y2.55755
G01 X-4.08224 Y2.54804
G01 X-4.07465 Y2.55755
G01 X-4.25980 Y3.25047
G01 X-4.29298 Y3.38000
G01 X-4.32214 Y3.50498
G01 X-4.34739 Y3.62585
G01 X-4.36881 Y3.74295
G01 X-4.37798 Y3.79945
G01 X-4.38623 Y3.85525
G01 X-4.39351 Y3.91000
G01 X-4.39983 Y3.96371
G01 X-4.40519 Y4.01638
G01 X-4.40959 Y4.06801
G01 X-4.41303 Y4.11859
G01 X-4.41523 Y4.16207
G01 X-4.41535 Y4.16207
G01 X-4.41523 Y4.16207
G01 X-4.40518 Y4.27468
G01 X-4.40201 Y4.31327
G01 X-4.40027 Y4.33683
G01 X-4.40000 Y4.34420
G01 X-4.40000 Y4.63581
G01 X-4.40040 Y4.64474
G01 X-4.40378 Y4.68217
G01 X-4.40769 Y4.71643
G01 X-4.42501 Y4.86037
G01 X-4.43609 Y4.95877
G01 X-4.44679 Y5.06088
G01 X-4.45607 Y5.15710
G01 X-4.46551 Y5.26366
G01 X-4.47607 Y5.39363
G01 X-4.49009 Y5.57927
G01 X-4.49585 Y5.64123
G01 X-4.50443 Y5.72161
G01 X-4.50458 Y5.72161
G01 X-4.50443 Y5.72161
G01 X-4.50252 Y5.76325
G01 X-4.49923 Y5.81264
G01 X-4.49486 Y5.86325
G01 X-4.48940 Y5.91505
G01 X-4.48286 Y5.96805
G01 X-4.47522 Y6.02224
G01 X-4.46649 Y6.07762
G01 X-4.45660 Y6.13454
G01 X-4.21883 Y7.44350
G01 X-4.22816 Y7.45432
G01 X-4.21883 Y7.44350
G01 X-4.18084 Y7.44471
G01 X-4.06332 Y7.44555
G01 X-3.94579 Y7.44347
G01 X-3.82827 Y7.43849
G01 X-3.71074 Y7.43058
G01 X-3.59319 Y7.41977
G01 X-3.47561 Y7.40604
G01 X-3.45039 Y7.40247
G04 P0 ( dwell for no time -- G64 should not smooth over this point )
G00 Z0.08000 ( retract )

G00 X-3.06482 Y7.49953 ( rapid move to begin. )
G01 F3.00000
( Mill infeed pass 1/1 )
G01 Z-0.00800
G04 P0 ( dwell for no time -- G64 should not smooth over this point )
G01 F6.00000
G01 X-3.06482 Y7.49953
G01 X-3.04598 Y7.41460
G01 X-3.00340 Y7.21860
G01 X-2.99660 Y7.18659
G01 X-2.76495 Y6.09054
G01 X-2.74215 Y5.97699
G01 X-2.69077 Y5.70408
G01 X-2.67983 Y5.64727
G01 X-2.67212 Y5.60517
G01 X-2.66542 Y5.56397
G01 X-2.65309 Y5.48281
G01 X-2.63996 Y5.39970
G01 X-2.63529 Y5.36750
G01 X-2.63154 Y5.33584
G01 X-2.62319 Y5.26021
G01 X-2.61595 Y5.22762
G01 X-2.60164 Y5.16802
G01 X-2.59060 Y5.12661
G01 X-2.57777 Y5.08698
G01 X-2.55844 Y5.03240
G01 X-2.54629 Y5.00067
G01 X-2.53280 Y4.97029
G01 X-2.50893 Y4.92025
G01 X-2.49608 Y4.89499
G01 X-2.48214 Y4.87081
G01 X-2.45406 Y4.82499
G01 X-2.44052 Y4.80412
G01 X-2.42605 Y4.78419
G01 X-2.39395 Y4.74236
G01 X-2.37944 Y4.72443
G01 X-2.36407 Y4.70735
G01 X-2.32808 Y4.66943
G01 X-2.31204 Y4.65339
G01 X-2.29516 Y4.63820
G01 X-2.25530 Y4.60415
G01 X-2.23692 Y4.58928
G01 X-2.21765 Y4.57529
G01 X-2.17384 Y4.54518
G01 X-2.15203 Y4.53103
G01 X-2.12921 Y4.51787
G01 X-2.08133 Y4.49178
G01 X-2.02613 Y4.46059
G01 X-2.00000 Y4.44505
G01 X-1.97387 Y4.42796
G01 X-1.89340 Y4.37295
G01 X-1.86195 Y4.35067
G01 X-1.83011 Y4.32658
G01 X-1.67501 Y4.20554
G01 X-1.63067 Y4.17019
G01 X-1.58530 Y4.13252
G01 X-1.20885 Y3.81393
G01 X-1.22147 Y3.75989
G01 X-1.23539 Y3.70585
G01 X-1.25061 Y3.65181
G01 X-1.26713 Y3.59777
G01 X-1.28496 Y3.54373
G01 X-1.30409 Y3.48969
G01 X-1.32452 Y3.43565
G01 X-1.34625 Y3.38160
G01 X-1.36696 Y3.33161
G01 X-1.39856 Y3.25818
G01 X-1.43253 Y3.18474
G01 X-1.46887 Y3.11131
G01 X-1.50757 Y3.03787
G01 X-1.54864 Y2.96444
G01 X-1.59208 Y2.89100
G01 X-1.63788 Y2.81757
G01 X-1.68606 Y2.74413
G01 X-1.73660 Y2.67070
G01 X-1.78950 Y2.59726
G01 X-1.84478 Y2.52383
G01 X-1.90242 Y2.45039
G01 X-1.96242 Y2.37696
G01 X-2.02480 Y2.30352
G01 X-2.08954 Y2.23009
G01 X-2.15665 Y2.15665
G01 X-2.26608 Y2.15409
G01 X-2.37550 Y2.15436
G01 X-2.48493 Y2.15744
G01 X-2.59435 Y2.16335
G01 X-2.70378 Y2.17208
G01 X-2.81320 Y2.18363
G01 X-2.92263 Y2.19801
G01 X-3.03206 Y2.21521
G01 X-3.14148 Y2.23522
G01 X-3.25091 Y2.25807
G01 X-3.36033 Y2.28373
G01 X-3.46976 Y2.31222
G01 X-3.57918 Y2.34352
G01 X-3.68861 Y2.37765
G01 X-3.79804 Y2.41461
G01 X-3.90746 Y2.45438
G01 X-4.02982 Y2.45582
G01 X-4.15219 Y2.46035
G01 X-4.23647 Y2.43410
G01 X-4.32075 Y2.40945
G01 X-4.40503 Y2.38643
G01 X-4.48930 Y2.36501
G01 X-4.57358 Y2.34521
G01 X-4.65786 Y2.32702
G01 X-4.74214 Y2.31045
G01 X-4.82642 Y2.29548
G01 X-4.91070 Y2.28214
G01 X-4.99498 Y2.27040
G01 X-5.07925 Y2.26028
G01 X-5.16353 Y2.25177
G01 X-5.24781 Y2.24488
G01 X-5.33209 Y2.23960
G01 X-5.41637 Y2.23594
G01 X-5.50065 Y2.23388
G01 X-5.58493 Y2.23345
G01 X-5.66921 Y2.23462
G01 X-5.75348 Y2.23741
G01 X-5.83776 Y2.24181
G01 X-5.92204 Y2.24783
G01 X-6.00632 Y2.25546
G01 X-6.09060 Y2.26470
G01 X-6.17488 Y2.27556
G01 X-6.25916 Y2.28803
G01 X-6.34343 Y2.30211
G01 X-6.42771 Y2.31781
G01 X-6.51199 Y2.33512
G01 X-6.59627 Y2.35405
G01 X-6.68055 Y2.37459
G01 X-6.76483 Y2.39674
G01 X-6.84911 Y2.42050
G01 X-6.96192 Y2.42207
G01 X-7.07473 Y2.42630
G01 X-7.18754 Y2.43319
G01 X-7.30035 Y2.44275
G01 X-7.37102 Y2.43472
G01 X-7.44169 Y2.42775
G01 X-7.51236 Y2.42183
G01 X-7.58303 Y2.41697
G01 X-7.63939 Y2.46733
G01 X-7.69454 Y2.51770
G01 X-7.74847 Y2.56807
G01 X-7.80119 Y2.61844
G01 X-7.82987 Y2.65669
G01 X-7.88080 Y2.72725
G01 X-7.89636 Y2.67780
G01 X-7.88080 Y2.72725
G01 X-7.92338 Y2.89290
G01 X-7.97007 Y3.06982
G01 X-8.01676 Y3.23730
G01 X-8.12119 Y3.60149
G01 X-8.14698 Y3.68955
G01 X-8.17276 Y3.77381
G01 X-8.27923 Y4.11401
G01 X-8.30300 Y4.19408
G01 X-8.32366 Y4.27302
G01 X-8.35093 Y4.39728
G01 X-8.37246 Y4.50110
G01 X-8.37688 Y4.52843
G01 X-8.38058 Y4.55666
G01 X-8.38328 Y4.58434
G01 X-8.38499 Y4.61242
G01 X-8.38694 Y4.65864
G01 X-8.38774 Y4.67295
G01 X-8.39578 Y4.78799
G01 X-8.39753 Y4.80653
G01 X-8.40021 Y4.82445
G01 X-8.41774 Y4.92386
G01 X-8.41950 Y4.93511
G01 X-8.42333 Y4.96270
G01 X-8.42581 Y4.98966
G01 X-8.42601 Y4.99453
G01 X-8.42581 Y5.01915
G01 X-8.42554 Y5.02396
G01 X-8.42295 Y5.04867
G01 X-8.42224 Y5.05332
G01 X-8.41725 Y5.07812
G01 X-8.41536 Y5.08588
G01 X-8.41239 Y5.09927
G01 X-8.41009 Y5.11312
G01 X-8.39458 Y5.22346
G01 X-8.39222 Y5.24421
G01 X-8.39094 Y5.26565
G01 X-8.38831 Y5.34142
G01 X-8.38498 Y5.38772
G01 X-8.37670 Y5.46482
G01 X-8.37186 Y5.50267
G01 X-8.36523 Y5.54268
G01 X-8.35687 Y5.58387
G01 X-8.34667 Y5.62690
G01 X-8.30147 Y5.80495
G01 X-8.26242 Y5.93658
G01 X-8.22244 Y5.97752
G01 X-8.26242 Y5.93658
G01 X-8.29738 Y5.92542
G01 X-8.43111 Y5.88215
G01 X-8.48377 Y5.86607
G01 X-8.49368 Y5.86322
G01 X-8.53363 Y5.85238
G01 X-8.57359 Y5.84274
G01 X-8.62735 Y5.83067
G01 X-8.68607 Y5.81706
G01 X-8.73553 Y5.80692
G01 X-8.74517 Y5.80520
G01 X-8.77644 Y5.80027
G01 X-8.80653 Y5.79660
G01 X-8.83944 Y5.79314
G01 X-8.88447 Y5.78805
G01 X-8.91448 Y5.78530
G01 X-8.92236 Y5.78473
G01 X-8.95782 Y5.78313
G01 X-8.99442 Y5.78328
G01 X-9.06558 Y5.78483
G01 X-9.08397 Y5.78542
G01 X-9.12372 Y5.78793
G01 X-9.16113 Y5.79220
G01 X-9.17893 Y5.79474
G01 X-9.26353 Y5.80759
G01 X-9.31342 Y5.81610
G01 X-9.36563 Y5.82774
G01 X-9.38942 Y5.83376
G01 X-9.43176 Y5.84493
G01 X-9.43697 Y5.85711
G01 X-9.43176 Y5.84493
G01 X-9.43490 Y5.83952
G01 X-9.49228 Y5.73598
G01 X-9.51375 Y5.69489
G01 X-9.53247 Y5.65387
G01 X-9.56635 Y5.57405
G01 X-9.57790 Y5.54741
G01 X-9.58789 Y5.52160
G01 X-9.59120 Y5.51253
G01 X-9.59962 Y5.48790
G01 X-9.60718 Y5.46239
G01 X-9.63190 Y5.38155
G01 X-9.63953 Y5.35416
G01 X-9.64560 Y5.32679
G01 X-9.66566 Y5.22356
G01 X-9.66972 Y5.19947
G01 X-9.67245 Y5.17539
G01 X-9.68148 Y5.07219
G01 X-9.68288 Y5.04954
G01 X-9.68307 Y5.02690
G01 X-9.68126 Y4.92369
G01 X-9.68027 Y4.90078
G01 X-9.67805 Y4.87787
G01 X-9.66538 Y4.77466
G01 X-9.66165 Y4.74969
G01 X-9.65654 Y4.72469
G01 X-9.63270 Y4.62145
G01 X-9.62522 Y4.59254
G01 X-9.61606 Y4.56359
G01 X-9.58051 Y4.46031
G01 X-9.56731 Y4.42507
G01 X-9.55051 Y4.38671
G01 X-9.53094 Y4.34122
G01 X-9.52691 Y4.33255
G01 X-9.48135 Y4.24167
G01 X-9.45618 Y4.19734
G01 X-9.39386 Y4.09364
G01 X-9.37594 Y4.06473
G01 X-9.35707 Y4.03606
G01 X-9.33708 Y4.00734
G01 X-9.31575 Y3.97832
G01 X-9.23739 Y3.87432
G01 X-9.20744 Y3.83574
G01 X-9.17596 Y3.79736
G01 X-9.14270 Y3.75893
G01 X-9.10747 Y3.72022
G01 X-9.01045 Y3.61618
G01 X-8.95970 Y3.56332
G01 X-8.90628 Y3.51064
G01 X-8.84991 Y3.45789
G01 X-8.79037 Y3.40487
G01 X-8.67051 Y3.30067
G01 X-8.62678 Y3.26322
G01 X-8.58188 Y3.22587
G01 X-8.53565 Y3.18851
G01 X-8.48822 Y3.15122
G01 X-8.38900 Y3.07627
G01 X-8.28439 Y3.00120
G01 X-8.13552 Y2.89695
G01 X-8.04975 Y2.83793
G01 X-7.96117 Y2.77900
G01 X-7.88080 Y2.72725
G01 X-7.90848 Y2.76529
G01 X-7.96117 Y2.83905
G01 X-8.02172 Y2.87934
G01 X-8.10700 Y2.93803
G01 X-8.25548 Y3.04199
G01 X-8.35935 Y3.11654
G01 X-8.45769 Y3.19082
G01 X-8.50448 Y3.22760
G01 X-8.55017 Y3.26454
G01 X-8.59453 Y3.30143
G01 X-8.63784 Y3.33852
G01 X-8.75734 Y3.44241
G01 X-8.81619 Y3.49482
G01 X-8.87164 Y3.54670
G01 X-8.92411 Y3.59844
G01 X-8.97413 Y3.65055
G01 X-9.07069 Y3.75410
G01 X-9.10530 Y3.79213
G01 X-9.13772 Y3.82958
G01 X-9.16836 Y3.86693
G01 X-9.19768 Y3.90470
G01 X-9.27564 Y4.00817
G01 X-9.29641 Y4.03643
G01 X-9.31566 Y4.06409
G01 X-9.33380 Y4.09165
G01 X-9.35118 Y4.11969
G01 X-9.41300 Y4.22256
G01 X-9.43722 Y4.26522
G01 X-9.48191 Y4.35435
G01 X-9.48531 Y4.36168
G01 X-9.50458 Y4.40647
G01 X-9.52095 Y4.44385
G01 X-9.53345 Y4.47723
G01 X-9.56858 Y4.57926
G01 X-9.57715 Y4.60635
G01 X-9.58413 Y4.63335
G01 X-9.60768 Y4.73531
G01 X-9.61240 Y4.75840
G01 X-9.61584 Y4.78142
G01 X-9.62834 Y4.88331
G01 X-9.63038 Y4.90427
G01 X-9.63128 Y4.92523
G01 X-9.63306 Y5.02712
G01 X-9.63289 Y5.04780
G01 X-9.63162 Y5.06848
G01 X-9.62270 Y5.17038
G01 X-9.62019 Y5.19250
G01 X-9.61646 Y5.21465
G01 X-9.59664 Y5.31660
G01 X-9.59101 Y5.34203
G01 X-9.58390 Y5.36754
G01 X-9.55937 Y5.44777
G01 X-9.55197 Y5.47270
G01 X-9.54405 Y5.49588
G01 X-9.54109 Y5.50401
G01 X-9.53163 Y5.52844
G01 X-9.52033 Y5.55451
G01 X-9.48671 Y5.63371
G01 X-9.46882 Y5.67292
G01 X-9.44825 Y5.71229
G01 X-9.40701 Y5.78669
G01 X-9.41222 Y5.79875
G01 X-9.40701 Y5.78669
G01 X-9.37657 Y5.77895
G01 X-9.32687 Y5.76781
G01 X-9.32185 Y5.76682
G01 X-9.27074 Y5.75812
G01 X-9.18647 Y5.74531
G01 X-9.16680 Y5.74252
G01 X-9.12939 Y5.73825
G01 X-9.12418 Y5.73780
G01 X-9.08704 Y5.73552
G01 X-9.06737 Y5.73486
G01 X-8.99472 Y5.73328
G01 X-8.96065 Y5.73308
G01 X-8.95559 Y5.73318
G01 X-8.92140 Y5.73471
G01 X-8.90991 Y5.73551
G01 X-8.87776 Y5.73848
G01 X-8.83392 Y5.74345
G01 X-8.79956 Y5.74707
G01 X-8.76684 Y5.75113
G01 X-8.73556 Y5.75611
G01 X-8.72551 Y5.75793
G01 X-8.67475 Y5.76836
G01 X-8.61631 Y5.78191
G01 X-8.56338 Y5.79379
G01 X-8.52054 Y5.80412
G01 X-8.48126 Y5.81478
G01 X-8.46918 Y5.81824
G01 X-8.41571 Y5.83458
G01 X-8.33734 Y5.85994
G01 X-8.29746 Y5.90087
G01 X-8.33734 Y5.85994
G01 X-8.34994 Y5.81726
G01 X-8.39550 Y5.63771
G01 X-8.40517 Y5.59700
G01 X-8.41390 Y5.55441
G01 X-8.42146 Y5.50903
G01 X-8.42642 Y5.47016
G01 X-8.43470 Y5.39306
G01 X-8.43828 Y5.34316
G01 X-8.44089 Y5.26803
G01 X-8.44204 Y5.24852
G01 X-8.44419 Y5.22975
G01 X-8.45951 Y5.12071
G01 X-8.46151 Y5.10879
G01 X-8.46226 Y5.10538
G01 X-8.45629 Y5.08170
G01 X-8.45483 Y5.07134
G01 X-8.45118 Y4.96686
G01 X-8.45191 Y4.95643
G01 X-8.46312 Y4.89326
G01 X-8.44957 Y4.81642
G01 X-8.44714 Y4.80048
G01 X-8.44562 Y4.78388
G01 X-8.43764 Y4.66981
G01 X-8.43688 Y4.65619
G01 X-8.43495 Y4.61031
G01 X-8.43333 Y4.58312
G01 X-8.43054 Y4.55351
G01 X-8.42669 Y4.52353
G01 X-8.42181 Y4.49310
G01 X-8.40322 Y4.40276
G01 X-8.37249 Y4.26230
G01 X-8.35181 Y4.18298
G01 X-8.32695 Y4.09907
G01 X-8.22053 Y3.75902
G01 X-8.19488 Y3.67521
G01 X-8.16922 Y3.58758
G01 X-8.06488 Y3.22369
G01 X-8.01833 Y3.05672
G01 X-7.97177 Y2.88029
G01 X-7.96117 Y2.83905
G04 P0 ( dwell for no time -- G64 should not smooth over this point )
G00 Z0.08000 ( retract )

G00 X-7.40254 Y2.53210 ( rapid move to begin. )
G01 F3.00000
( Mill infeed pass 1/1 )
G01 Z-0.00800
G04 P0 ( dwell for no time -- G64 should not smooth over this point )
G01 F6.00000
G01 X-7.40254 Y2.53210
G01 X-7.42519 Y3.47053
G01 X-7.43003 Y3.61375
G01 X-7.43750 Y3.74932
G01 X-7.44217 Y3.81385
G01 X-7.44749 Y3.87678
G01 X-7.45347 Y3.93780
G01 X-7.46008 Y3.99694
G01 X-7.46732 Y4.05417
G01 X-7.47519 Y4.10949
G01 X-7.48367 Y4.16290
G01 X-7.49278 Y4.21438
G01 X-7.50249 Y4.26393
G01 X-7.51281 Y4.31156
G01 X-7.52370 Y4.35723
G01 X-7.53534 Y4.40153
G01 X-7.56971 Y4.52643
G01 X-7.58060 Y4.56880
G01 X-7.59048 Y4.61361
G01 X-7.59842 Y4.65764
G01 X-7.60441 Y4.70087
G01 X-7.60841 Y4.74336
G01 X-7.61039 Y4.78507
G01 X-7.61049 Y4.79011
G01 X-7.61029 Y4.82608
G01 X-7.61012 Y4.83132
G01 X-7.60789 Y4.86902
G01 X-7.58257 Y5.16277
G01 X-7.57841 Y5.20106
G01 X-7.57175 Y5.24458
G01 X-7.52844 Y5.49016
G01 X-7.52242 Y5.52745
G01 X-7.51739 Y5.56527
G01 X-7.51325 Y5.60438
G01 X-7.51000 Y5.64477
G01 X-7.50766 Y5.68642
G01 X-7.50623 Y5.72934
G01 X-7.50572 Y5.77353
G01 X-7.50614 Y5.81947
G01 X-7.52029 Y6.55770
G01 X-7.49026 Y6.63789
G01 X-7.52029 Y6.55770
G01 X-7.80179 Y6.24691
G01 X-7.85344 Y6.19091
G01 X-7.90679 Y6.13582
G01 X-7.96029 Y6.08340
G01 X-8.01489 Y6.03276
G01 X-8.05887 Y5.99384
G01 X-8.09886 Y5.95930
G01 X-8.10058 Y5.96042
G01 X-8.09886 Y5.95930
G01 X-8.11601 Y5.90269
G01 X-8.15659 Y5.76610
G01 X-8.20110 Y5.59074
G01 X-8.21021 Y5.55235
G01 X-8.21757 Y5.51625
G01 X-8.22332 Y5.48174
G01 X-8.22767 Y5.44778
G01 X-8.23565 Y5.37345
G01 X-8.23846 Y5.33435
G01 X-8.24106 Y5.25980
G01 X-8.24259 Y5.23387
G01 X-8.24304 Y5.22865
G01 X-8.24595 Y5.20325
G01 X-8.26203 Y5.08908
G01 X-8.26436 Y5.07513
G01 X-8.29336 Y5.02503
G01 X-8.29755 Y5.01545
G01 X-8.29781 Y5.01553
G01 X-8.29755 Y5.01545
G01 X-8.29973 Y5.00523
G01 X-8.30000 Y5.00526
G01 X-8.29973 Y5.00523
G01 X-8.29973 Y4.99477
G01 X-8.30000 Y4.99474
G01 X-8.29973 Y4.99477
G01 X-8.29755 Y4.98455
G01 X-8.29781 Y4.98446
G01 X-8.29755 Y4.98455
G01 X-8.29336 Y4.97497
G01 X-8.26616 Y4.92799
G01 X-8.25238 Y4.84983
G01 X-8.24899 Y4.82730
G01 X-8.24835 Y4.82206
G01 X-8.24619 Y4.79908
G01 X-8.23808 Y4.68306
G01 X-8.23709 Y4.66529
G01 X-8.23517 Y4.61963
G01 X-8.23382 Y4.59695
G01 X-8.23162 Y4.57436
G01 X-8.22858 Y4.55088
G01 X-8.22475 Y4.52723
G01 X-8.20755 Y4.44416
G01 X-8.17757 Y4.30713
G01 X-8.15874 Y4.23521
G01 X-8.13585 Y4.15810
G01 X-8.02956 Y3.81846
G01 X-8.00311 Y3.73199
G01 X-7.97704 Y3.64297
G01 X-7.87252 Y3.27846
G01 X-7.82513 Y3.10843
G01 X-7.77831 Y2.93102
G01 X-7.71146 Y2.67101
G01 X-7.71323 Y2.66997
G01 X-7.71146 Y2.67101
G01 X-7.67980 Y2.64077
G01 X-7.62669 Y2.59117
G01 X-7.57235 Y2.54155
G01 X-7.54783 Y2.51963
G01 X-7.54927 Y2.51539
G01 X-7.54783 Y2.51963
G01 X-7.51996 Y2.52154
G01 X-7.45078 Y2.52734
G01 X-7.40254 Y2.53210
G01 X-7.38889 Y2.52003
G01 X-7.37630 Y2.48445
G01 X-7.35144 Y2.48727
G01 X-7.33786 Y2.47531
G01 X-7.35144 Y2.48727
G01 X-7.37521 Y3.47198
G01 X-7.38008 Y3.61597
G01 X-7.38760 Y3.75249
G01 X-7.39232 Y3.81777
G01 X-7.39770 Y3.88132
G01 X-7.40374 Y3.94302
G01 X-7.41043 Y4.00285
G01 X-7.41776 Y4.06083
G01 X-7.42574 Y4.11694
G01 X-7.43436 Y4.17118
G01 X-7.44362 Y4.22355
G01 X-7.45352 Y4.27404
G01 X-7.46405 Y4.32265
G01 X-7.47520 Y4.36938
G01 X-7.48705 Y4.41451
G01 X-7.52129 Y4.53887
G01 X-7.53218 Y4.58124
G01 X-7.54163 Y4.62430
G01 X-7.54920 Y4.66643
G01 X-7.55487 Y4.70763
G01 X-7.55862 Y4.74794
G01 X-7.56044 Y4.78731
G01 X-7.56029 Y4.82580
G01 X-7.55807 Y4.86472
G01 X-7.53275 Y5.15847
G01 X-7.52870 Y5.19562
G01 X-7.52251 Y5.23589
G01 X-7.47913 Y5.48184
G01 X-7.47295 Y5.52018
G01 X-7.46774 Y5.55935
G01 X-7.46346 Y5.59975
G01 X-7.46011 Y5.64136
G01 X-7.45771 Y5.68419
G01 X-7.45624 Y5.72822
G01 X-7.45572 Y5.77347
G01 X-7.45615 Y5.82017
G01 X-7.47271 Y6.68449
G01 X-7.44268 Y6.76463
G01 X-7.47271 Y6.68449
G01 X-7.52076 Y6.63167
G01 X-7.83854 Y6.28081
G01 X-7.89105 Y6.22391
G01 X-7.94270 Y6.17062
G01 X-7.99627 Y6.11817
G01 X-8.04839 Y6.06988
G01 X-8.09193 Y6.03134
G01 X-8.14248 Y5.98770
G01 X-8.14420 Y5.98881
G01 X-8.14248 Y5.98770
G01 X-8.16391 Y5.91701
G01 X-8.20480 Y5.77938
G01 X-8.24965 Y5.60267
G01 X-8.25905 Y5.56312
G01 X-8.26674 Y5.52536
G01 X-8.27280 Y5.48903
G01 X-8.27733 Y5.45363
G01 X-8.28546 Y5.37792
G01 X-8.28840 Y5.33702
G01 X-8.29103 Y5.26154
G01 X-8.29273 Y5.23427
G01 X-8.29547 Y5.21021
G01 X-8.31135 Y5.09730
G01 X-8.31448 Y5.07897
G01 X-8.31787 Y5.06363
G01 X-8.31944 Y5.05726
G01 X-8.32381 Y5.03592
G01 X-8.32589 Y5.01594
G01 X-8.32605 Y4.99615
G01 X-8.32413 Y4.97524
G01 X-8.32052 Y4.94932
G01 X-8.31903 Y4.93992
G01 X-8.30162 Y4.84115
G01 X-8.29813 Y4.81732
G01 X-8.29607 Y4.79560
G01 X-8.28796 Y4.67958
G01 X-8.28704 Y4.66319
G01 X-8.28510 Y4.61707
G01 X-8.28367 Y4.59304
G01 X-8.28131 Y4.56874
G01 X-8.27805 Y4.54366
G01 X-8.27393 Y4.51816
G01 X-8.25649 Y4.43389
G01 X-8.22621 Y4.29543
G01 X-8.20691 Y4.22176
G01 X-8.18368 Y4.14352
G01 X-8.07719 Y3.80322
G01 X-8.05110 Y3.71794
G01 X-8.02510 Y3.62919
G01 X-7.92059 Y3.26468
G01 X-7.87366 Y3.09634
G01 X-7.82657 Y2.91795
G01 X-7.75633 Y2.64473
G01 X-7.75809 Y2.64369
G01 X-7.75633 Y2.64473
G01 X-7.71414 Y2.60442
G01 X-7.66062 Y2.55443
G01 X-7.60587 Y2.50444
G01 X-7.56543 Y2.46830
G01 X-7.56685 Y2.46420
G01 X-7.56543 Y2.46830
G01 X-7.51616 Y2.47168
G01 X-7.44623 Y2.47754
G01 X-7.37630 Y2.48445
G01 X-7.37102 Y2.43472
G01 X-7.30035 Y2.44275
G01 X-7.32522 Y3.47343
G01 X-7.33013 Y3.61819
G01 X-7.33770 Y3.75567
G01 X-7.34247 Y3.82168
G01 X-7.34791 Y3.88586
G01 X-7.35401 Y3.94823
G01 X-7.36078 Y4.00877
G01 X-7.36821 Y4.06749
G01 X-7.37630 Y4.12438
G01 X-7.38505 Y4.17946
G01 X-7.39447 Y4.23271
G01 X-7.40455 Y4.28414
G01 X-7.41530 Y4.33375
G01 X-7.42670 Y4.38153
G01 X-7.43877 Y4.42750
G01 X-7.47286 Y4.55132
G01 X-7.48375 Y4.59369
G01 X-7.49279 Y4.63499
G01 X-7.49998 Y4.67523
G01 X-7.50533 Y4.71440
G01 X-7.50883 Y4.75251
G01 X-7.51049 Y4.78955
G01 X-7.51029 Y4.82552
G01 X-7.50826 Y4.86043
G01 X-7.48294 Y5.15418
G01 X-7.47900 Y5.19018
G01 X-7.47327 Y5.22720
G01 X-7.42983 Y5.47352
G01 X-7.42348 Y5.51290
G01 X-7.41809 Y5.55342
G01 X-7.41367 Y5.59511
G01 X-7.41023 Y5.63795
G01 X-7.40775 Y5.68195
G01 X-7.40625 Y5.72710
G01 X-7.40572 Y5.77341
G01 X-7.40615 Y5.82088
G01 X-7.42513 Y6.81107
G04 P0 ( dwell for no time -- G64 should not smooth over this point )
G00 Z0.08000 ( retract )

G00 X-8.18610 Y6.01610 ( rapid move to begin. )
G01 F3.00000
( Mill infeed pass 1/1 )
G01 Z-0.00800
G04 P0 ( dwell for no time -- G64 should not smooth over this point )
G01 F6.00000
G01 X-8.18610 Y6.01610
G01 X-8.26300 Y5.98887
G01 X-8.31272 Y5.97301
G01 X-8.44650 Y5.92972
G01 X-8.49837 Y5.91389
G01 X-8.50745 Y5.91129
G01 X-8.54673 Y5.90063
G01 X-8.58528 Y5.89136
G01 X-8.63839 Y5.87944
G01 X-8.69739 Y5.86576
G01 X-8.74556 Y5.85590
G01 X-8.75301 Y5.85458
G01 X-8.78251 Y5.84990
G01 X-8.81170 Y5.84633
G01 X-8.84496 Y5.84284
G01 X-8.88903 Y5.83784
G01 X-8.91903 Y5.83509
G01 X-8.92587 Y5.83461
G01 X-8.96006 Y5.83308
G01 X-8.99413 Y5.83328
G01 X-9.07403 Y5.83509
G01 X-9.08091 Y5.83533
G01 X-9.11805 Y5.83761
G01 X-9.15546 Y5.84188
G01 X-9.17139 Y5.84417
G01 X-9.25632 Y5.85707
G01 X-9.30499 Y5.86539
G01 X-9.35470 Y5.87653
G01 X-9.37667 Y5.88211
G01 X-9.45587 Y5.90300
G04 P0 ( dwell for no time -- G64 should not smooth over this point )
G00 Z0.08000 ( retract )

G00 X-8.82108 Y5.29879 ( rapid move to begin. )
G01 F3.00000
( Mill infeed pass 1/1 )
G01 Z-0.00800
G04 P0 ( dwell for no time -- G64 should not smooth over this point )
G01 F6.00000
G01 X-8.82108 Y5.29879
G01 X-8.86899 Y5.32425
G01 X-8.93927 Y5.34441
G01 X-9.01221 Y5.34951
G01 X-9.08461 Y5.33934
G01 X-9.15331 Y5.31433
G01 X-9.21531 Y5.27558
G01 X-9.22812 Y5.26321
G01 X-9.01153 Y5.08147
G01 X-9.00273 Y5.08232
G01 X-8.82108 Y5.29879
G01 X-8.90116 Y5.28146
G01 X-8.94801 Y5.29490
G01 X-9.01045 Y5.29927
G01 X-9.07244 Y5.29056
G01 X-9.13127 Y5.26915
G01 X-9.14625 Y5.25978
G01 X-9.01334 Y5.14826
G01 X-8.90116 Y5.28146
G01 X-8.99467 Y5.24804
G01 X-9.00870 Y5.24902
G01 X-9.04890 Y5.24337
G01 X-9.01943 Y5.21864
G01 X-8.99467 Y5.24804
G04 P0 ( dwell for no time -- G64 should not smooth over this point )
G00 Z0.08000 ( retract )

G00 X-8.75183 Y4.99410 ( rapid move to begin. )
G01 F3.00000
( Mill infeed pass 1/1 )
G01 Z-0.00800
G04 P0 ( dwell for no time -- G64 should not smooth over this point )
G01 F6.00000
G01 X-8.75183 Y4.99410
G01 X-8.75325 Y5.03468
G01 X-8.75676 Y5.04875
G01 X-8.78163 Y5.01911
G01 X-8.75183 Y4.99410
G01 X-8.70128 Y4.97912
G01 X-8.71215 Y4.91747
G01 X-8.71877 Y4.90109
G01 X-8.85208 Y5.01294
G01 X-8.74007 Y5.14642
G01 X-8.71861 Y5.10242
G01 X-8.70346 Y5.04167
G01 X-8.70128 Y4.97912
G01 X-8.65112 Y4.97561
G01 X-8.66383 Y4.90361
G01 X-8.69121 Y4.83581
G01 X-8.70117 Y4.82105
G01 X-8.91777 Y5.00280
G01 X-8.91777 Y5.00522
G01 X-8.91845 Y5.01164
G01 X-8.73682 Y5.22808
G01 X-8.70341 Y5.18533
G01 X-8.67136 Y5.11961
G01 X-8.65368 Y5.04867
G01 X-8.65112 Y4.97561
G04 P0 ( dwell for no time -- G64 should not smooth over this point )
G00 Z0.08000 ( retract )

G00 X-8.77188 Y4.73679 ( rapid move to begin. )
G01 F3.00000
( Mill infeed pass 1/1 )
G01 Z-0.00800
G04 P0 ( dwell for no time -- G64 should not smooth over this point )
G01 F6.00000
G01 X-8.77188 Y4.73679
G01 X-8.78469 Y4.72442
G01 X-8.84669 Y4.68567
G01 X-8.91539 Y4.66066
G01 X-8.98779 Y4.65048
G01 X-9.06073 Y4.65559
G01 X-9.13101 Y4.67575
G01 X-9.17892 Y4.70121
G01 X-8.99727 Y4.91768
G01 X-8.98847 Y4.91853
G01 X-8.77188 Y4.73679
G01 X-8.85375 Y4.74022
G01 X-8.86873 Y4.73085
G01 X-8.92756 Y4.70944
G01 X-8.98955 Y4.70073
G01 X-9.05199 Y4.70510
G01 X-9.09884 Y4.71854
G01 X-8.98666 Y4.85174
G01 X-8.85375 Y4.74022
G01 X-8.95110 Y4.75663
G01 X-8.99130 Y4.75098
G01 X-9.00532 Y4.75196
G01 X-8.98057 Y4.78136
G01 X-8.95110 Y4.75663
G04 P0 ( dwell for no time -- G64 should not smooth over this point )
G00 Z0.08000 ( retract )

G00 X-9.08155 Y4.98836 ( rapid move to begin. )
G01 F3.00000
( Mill infeed pass 1/1 )
G01 Z-0.00800
G04 P0 ( dwell for no time -- G64 should not smooth over this point )
G01 F6.00000
G01 X-9.08155 Y4.98836
G01 X-9.08223 Y4.99478
G01 X-9.08223 Y4.99720
G01 X-9.29883 Y5.17895
G01 X-9.30879 Y5.16419
G01 X-9.33617 Y5.09639
G01 X-9.34888 Y5.02439
G01 X-9.34632 Y4.95133
G01 X-9.32864 Y4.88039
G01 X-9.29658 Y4.81467
G01 X-9.26318 Y4.77192
G01 X-9.08155 Y4.98836
G01 X-9.14792 Y4.98705
G01 X-9.25993 Y4.85358
G01 X-9.28139 Y4.89758
G01 X-9.29654 Y4.95832
G01 X-9.29872 Y5.02088
G01 X-9.28785 Y5.08253
G01 X-9.28123 Y5.09891
G01 X-9.14792 Y4.98705
G01 X-9.21837 Y4.98089
G01 X-9.24817 Y5.00590
G01 X-9.24675 Y4.96532
G01 X-9.24324 Y4.95125
G01 X-9.21837 Y4.98089

G04 P0 ( dwell for no time -- G64 should not smooth over this point )
G00 Z1.000000 ( retract )

M5 ( Spindle off. )
G04 P1.000000
M9 ( Coolant off. )
M2 ( Program end. )

