( pcb2gcode 2.5.0 )
( Software-independent Gcode )

G94 ( Inches per minute feed rate. )
G20 ( Units == INCHES. )

G90 ( Absolute coordinates. )
G00 S30000 ( RPM spindle speed. )
G64 P0.00040 ( set maximum deviation from commanded toolpath )
G01 F6.00000 ( Feedrate. )


G00 Z1.00000 (Retract to tool change height)
T1
M5      (Spindle stop.)
G04 P1.00000 (Wait for spindle to stop)
(MSG, Change tool bit to mill diameter 0.20000in)
M6      (Tool change.)
M0      (Temporary machine stop.)
M3 ( Spindle on clockwise. )
G04 P1.00000 (Wait for spindle to get up to speed)
G04 P0 ( dwell for no time -- G64 should not smooth over this point )
G00 Z0.08000 ( retract )

G00 X0.33250 Y-0.33250 ( rapid move to begin. )
G01 F3.00000
( Mill infeed pass 1/1 )
G01 Z-0.00800
G04 P0 ( dwell for no time -- G64 should not smooth over this point )
G01 F6.00000
G01 X0.33250 Y-0.33250
G01 X0.33250 Y10.33250
G01 X-10.33250 Y10.33250
G01 X-10.33250 Y-0.33250
G01 X0.33250 Y-0.33250
G04 P0 ( dwell for no time -- G64 should not smooth over this point )
G00 Z0.08000 ( retract )

G00 X-1.20913 Y3.81267 ( rapid move to begin. )
G01 F3.00000
( Mill infeed pass 1/1 )
G01 Z-0.00800
G04 P0 ( dwell for no time -- G64 should not smooth over this point )
G01 F6.00000
G01 X-1.20913 Y3.81267
G01 X-1.18121 Y3.86606
G01 X-1.15315 Y3.92233
G01 X-1.14716 Y3.93473
G01 X-1.12197 Y3.98852
G01 X-1.11653 Y4.00052
G01 X-1.09353 Y4.05293
G01 X-1.08827 Y4.06533
G01 X-1.06704 Y4.11711
G01 X-1.06214 Y4.12951
G01 X-1.04314 Y4.17932
G01 X-1.03874 Y4.19132
G01 X-1.02152 Y4.24001
G01 X-1.01730 Y4.25241
G01 X-1.00174 Y4.30007
G01 X-0.99799 Y4.31207
G01 X-0.98417 Y4.35815
G01 X-0.98073 Y4.37015
G01 X-0.96815 Y4.41614
G01 X-0.96491 Y4.42854
G01 X-0.95355 Y4.47447
G01 X-0.95065 Y4.48687
G01 X-0.94064 Y4.53210
G01 X-0.93806 Y4.54450
G01 X-0.92932 Y4.58929
G01 X-0.92705 Y4.60169
G01 X-0.91967 Y4.64515
G01 X-0.91778 Y4.65716
G01 X-0.91154 Y4.70025
G01 X-0.90990 Y4.71265
G01 X-0.90470 Y4.75599
G01 X-0.90338 Y4.76839
G01 X-0.89929 Y4.81153
G01 X-0.89827 Y4.82393
G01 X-0.89528 Y4.86679
G01 X-0.89457 Y4.87920
G01 X-0.89268 Y4.92122
G01 X-0.89228 Y4.93322
G01 X-0.89142 Y4.97519
G01 X-0.89131 Y4.98760
G01 X-0.89148 Y5.03012
G01 X-0.89169 Y5.04252
G01 X-0.89292 Y5.08523
G01 X-0.89343 Y5.09763
G01 X-0.89572 Y5.14042
G01 X-0.89655 Y5.15282
G01 X-0.89986 Y5.19508
G01 X-0.90095 Y5.20708
G01 X-0.90524 Y5.24886
G01 X-0.90662 Y5.26086
G01 X-0.91206 Y5.30361
G01 X-0.91380 Y5.31601
G01 X-0.92037 Y5.35921
G01 X-0.92235 Y5.37121
G01 X-0.93009 Y5.41487
G01 X-0.93244 Y5.42727
G01 X-0.94155 Y5.47215
G01 X-0.94422 Y5.48455
G01 X-0.95461 Y5.52995
G01 X-0.95761 Y5.54235
G01 X-0.96919 Y5.58781
G01 X-0.97240 Y5.59981
G01 X-0.98540 Y5.64607
G01 X-0.98905 Y5.65848
G01 X-1.00349 Y5.70545
G01 X-1.00734 Y5.71745
G01 X-1.02340 Y5.76546
G01 X-1.02772 Y5.77787
G01 X-1.04574 Y5.82766
G01 X-1.05041 Y5.84006
G01 X-1.07030 Y5.89103
G01 X-1.07532 Y5.90343
G01 X-1.09687 Y5.95487
G01 X-1.10207 Y5.96687
G01 X-1.12572 Y6.01965
G01 X-1.13145 Y6.03205
G01 X-1.15781 Y6.08720
G01 X-1.16392 Y6.09960
G01 X-1.19286 Y6.15648
G01 X-1.19936 Y6.16889
G01 X-1.23103 Y6.22749
G01 X-1.23793 Y6.23989
G01 X-1.27215 Y6.29966
G01 X-1.27922 Y6.31166
G01 X-1.31588 Y6.37224
G01 X-1.32334 Y6.38424
G01 X-1.36429 Y6.44835
G01 X-1.37242 Y6.46075
G01 X-1.41794 Y6.52828
G01 X-1.42652 Y6.54068
G01 X-1.47571 Y6.60992
G01 X-1.48445 Y6.62192
G01 X-1.53850 Y6.69421
G01 X-1.54801 Y6.70661
G01 X-1.60722 Y6.78188
G01 X-1.61690 Y6.79389
G01 X-1.68105 Y6.87150
G01 X-1.69121 Y6.88350
G01 X-1.76294 Y6.96614
G01 X-1.77397 Y6.97854
G01 X-1.85464 Y7.06697
G01 X-1.91036 Y7.12597
G01 X-1.96778 Y7.18497
G01 X-2.01587 Y7.23331
G01 X-2.07752 Y7.29365
G01 X-2.13112 Y7.34496
G01 X-2.19949 Y7.40868
G01 X-2.25903 Y7.46295
G01 X-2.33371 Y7.52922
G01 X-2.40713 Y7.59286
G01 X-2.47076 Y7.58748
G01 X-2.58936 Y7.57543
G01 X-2.60176 Y7.57401
G01 X-2.71868 Y7.55922
G01 X-2.73068 Y7.55755
G01 X-2.84893 Y7.53965
G01 X-2.86133 Y7.53762
G01 X-2.98224 Y7.51626
G01 X-3.06751 Y7.49954
G01 X-3.14068 Y7.49800
G01 X-3.24174 Y7.49415
G01 X-3.34281 Y7.48824
G01 X-3.46280 Y7.50522
G01 X-3.58280 Y7.51924
G01 X-3.70280 Y7.53027
G01 X-3.82280 Y7.53834
G01 X-3.94279 Y7.54343
G01 X-4.06279 Y7.54555
G01 X-4.18279 Y7.54470
G01 X-4.30278 Y7.54088
G01 X-4.37890 Y7.55758
G01 X-4.45502 Y7.57303
G01 X-4.53114 Y7.58723
G01 X-4.60726 Y7.60017
G01 X-4.68338 Y7.61186
G01 X-4.75950 Y7.62228
G01 X-4.83562 Y7.63146
G01 X-4.91174 Y7.63937
G01 X-4.98785 Y7.64603
G01 X-5.06397 Y7.65144
G01 X-5.14009 Y7.65559
G01 X-5.21621 Y7.65848
G01 X-5.29233 Y7.66012
G01 X-5.36845 Y7.66050
G01 X-5.44457 Y7.65963
G01 X-5.52069 Y7.65750
G01 X-5.59149 Y7.66778
G01 X-5.66230 Y7.67694
G01 X-5.73311 Y7.68500
G01 X-5.80391 Y7.69194
G01 X-5.87472 Y7.69778
G01 X-5.94552 Y7.70250
G01 X-6.01633 Y7.70611
G01 X-6.08714 Y7.70862
G01 X-6.15794 Y7.71001
G01 X-6.22875 Y7.71029
G01 X-6.29956 Y7.70946
G01 X-6.37036 Y7.70752
G01 X-6.44117 Y7.70447
G01 X-6.51198 Y7.70031
G01 X-6.58278 Y7.69504
G01 X-6.65359 Y7.68866
G01 X-6.72683 Y7.72830
G01 X-6.78129 Y7.75697
G01 X-6.84697 Y7.79061
G01 X-6.92280 Y7.82819
G01 X-6.98722 Y7.85906
G01 X-7.05024 Y7.88832
G01 X-7.10077 Y7.91111
G01 X-7.16285 Y7.93829
G01 X-7.23527 Y7.96885
G01 X-7.29508 Y7.99317
G01 X-7.35423 Y8.01639
G01 X-7.41383 Y8.03896
G01 X-7.46086 Y8.05618
G01 X-7.53043 Y8.08070
G01 X-7.58744 Y8.09995
G01 X-7.64415 Y8.11835
G01 X-7.70039 Y8.13584
G01 X-7.75725 Y8.15278
G01 X-7.81356 Y8.16881
G01 X-7.86843 Y8.18371
G01 X-7.91190 Y8.19501
G01 X-7.96727 Y8.20877
G01 X-8.02206 Y8.22168
G01 X-8.07685 Y8.23389
G01 X-8.13028 Y8.24511
G01 X-8.18346 Y8.25562
G01 X-8.23654 Y8.26544
G01 X-8.27158 Y8.27158
G01 X-8.31269 Y8.24223
G01 X-8.36754 Y8.20243
G01 X-8.43551 Y8.15198
G01 X-8.49910 Y8.10357
G01 X-8.55970 Y8.05627
G01 X-8.61581 Y8.01137
G01 X-8.66904 Y7.96772
G01 X-8.71938 Y7.92542
G01 X-8.73344 Y7.91342
G01 X-8.78110 Y7.87210
G01 X-8.82710 Y7.83124
G01 X-8.85743 Y7.80372
G01 X-8.89844 Y7.76574
G01 X-8.93793 Y7.72828
G01 X-8.95079 Y7.71588
G01 X-8.98810 Y7.67933
G01 X-9.01125 Y7.65618
G01 X-9.04498 Y7.62178
G01 X-9.08850 Y7.57614
G01 X-9.10824 Y7.55492
G01 X-9.13823 Y7.52204
G01 X-9.17672 Y7.47860
G01 X-9.19291 Y7.45988
G01 X-9.21855 Y7.42966
G01 X-9.25291 Y7.38794
G01 X-9.26952 Y7.36722
G01 X-9.28952 Y7.34179
G01 X-9.31975 Y7.30229
G01 X-9.33666 Y7.27955
G01 X-9.35296 Y7.25716
G01 X-9.36866 Y7.23514
G01 X-9.38387 Y7.21335
G01 X-9.40526 Y7.18188
G01 X-9.41924 Y7.16076
G01 X-9.43957 Y7.12919
G01 X-9.45232 Y7.10883
G01 X-9.46752 Y7.08390
G01 X-9.48759 Y7.04997
G01 X-9.49873 Y7.03052
G01 X-9.50945 Y7.01135
G01 X-9.52523 Y6.98230
G01 X-9.54221 Y6.94973
G01 X-9.55355 Y6.92722
G01 X-9.56634 Y6.90094
G01 X-9.57940 Y6.87304
G01 X-9.59078 Y6.84776
G01 X-9.59988 Y6.82677
G01 X-9.61247 Y6.79661
G01 X-9.62320 Y6.76961
G01 X-9.63218 Y6.74599
G01 X-9.63937 Y6.72626
G01 X-9.64953 Y6.69717
G01 X-9.65818 Y6.67094
G01 X-9.66817 Y6.63869
G01 X-9.67736 Y6.60681
G01 X-9.68574 Y6.57534
G01 X-9.69101 Y6.55417
G01 X-9.69466 Y6.53870
G01 X-9.70143 Y6.50795
G01 X-9.70652 Y6.48269
G01 X-9.70937 Y6.46749
G01 X-9.71332 Y6.44477
G01 X-9.71646 Y6.42517
G01 X-9.71973 Y6.40280
G01 X-9.72355 Y6.37301
G01 X-9.72523 Y6.35812
G01 X-9.72769 Y6.33332
G01 X-9.73008 Y6.30375
G01 X-9.73207 Y6.27015
G01 X-9.73322 Y6.23908
G01 X-9.73367 Y6.21384
G01 X-9.73373 Y6.19664
G01 X-9.73328 Y6.16334
G01 X-9.73243 Y6.13805
G01 X-9.73160 Y6.12085
G01 X-9.73002 Y6.09553
G01 X-9.72799 Y6.07014
G01 X-9.72549 Y6.04445
G01 X-9.72333 Y6.02512
G01 X-9.72123 Y6.00834
G01 X-9.71878 Y5.99042
G01 X-9.71610 Y5.97244
G01 X-9.71319 Y5.95438
G01 X-9.71005 Y5.93628
G01 X-9.70666 Y5.91807
G01 X-9.70304 Y5.89980
G01 X-9.69759 Y5.87426
G01 X-9.69036 Y5.84317
G01 X-9.68570 Y5.82450
G01 X-9.68078 Y5.80572
G01 X-9.67340 Y5.77915
G01 X-9.66777 Y5.75996
G01 X-9.66185 Y5.74066
G01 X-9.65564 Y5.72122
G01 X-9.64911 Y5.70160
G01 X-9.63796 Y5.66981
G01 X-9.63043 Y5.64935
G01 X-9.62268 Y5.62906
G01 X-9.61108 Y5.59998
G01 X-9.61742 Y5.58429
G01 X-9.62572 Y5.56306
G01 X-9.63473 Y5.53912
G01 X-9.64128 Y5.52095
G01 X-9.64837 Y5.50056
G01 X-9.65494 Y5.48091
G01 X-9.66133 Y5.46099
G01 X-9.67081 Y5.42975
G01 X-9.67642 Y5.41016
G01 X-9.68177 Y5.39055
G01 X-9.68669 Y5.37162
G01 X-9.69144 Y5.35237
G01 X-9.69593 Y5.33314
G01 X-9.70014 Y5.31402
G01 X-9.70526 Y5.28911
G01 X-9.70885 Y5.27027
G01 X-9.71219 Y5.25151
G01 X-9.71525 Y5.23297
G01 X-9.71978 Y5.20246
G01 X-9.72222 Y5.18391
G01 X-9.72442 Y5.16545
G01 X-9.72633 Y5.14750
G01 X-9.72805 Y5.12924
G01 X-9.72998 Y5.10511
G01 X-9.73114 Y5.08733
G01 X-9.73263 Y5.05717
G01 X-9.73322 Y5.03905
G01 X-9.73367 Y5.01503
G01 X-9.73367 Y4.98494
G01 X-9.73337 Y4.96682
G01 X-9.73284 Y4.94861
G01 X-9.73209 Y4.93040
G01 X-9.73111 Y4.91214
G01 X-9.72991 Y4.89388
G01 X-9.72847 Y4.87558
G01 X-9.72627 Y4.85186
G01 X-9.72429 Y4.83343
G01 X-9.72208 Y4.81494
G01 X-9.71964 Y4.79652
G01 X-9.71517 Y4.76652
G01 X-9.71099 Y4.74158
G01 X-9.70757 Y4.72286
G01 X-9.70398 Y4.70445
G01 X-9.70003 Y4.68543
G01 X-9.69305 Y4.65441
G01 X-9.68843 Y4.63530
G01 X-9.68362 Y4.61646
G01 X-9.67844 Y4.59711
G01 X-9.67080 Y4.57019
G01 X-9.66484 Y4.55031
G01 X-9.65856 Y4.53026
G01 X-9.65201 Y4.51021
G01 X-9.64525 Y4.49037
G01 X-9.63797 Y4.46983
G01 X-9.63039 Y4.44924
G01 X-9.62260 Y4.42887
G01 X-9.61423 Y4.40775
G01 X-9.60546 Y4.38641
G01 X-9.59629 Y4.36485
G01 X-9.58691 Y4.34354
G01 X-9.57058 Y4.30799
G01 X-9.56083 Y4.28762
G01 X-9.54978 Y4.26521
G01 X-9.53299 Y4.23241
G01 X-9.52058 Y4.20904
G01 X-9.50757 Y4.18526
G01 X-9.49414 Y4.16142
G01 X-9.48033 Y4.13759
G01 X-9.45843 Y4.10109
G01 X-9.44290 Y4.07610
G01 X-9.42665 Y4.05063
G01 X-9.41003 Y4.02528
G01 X-9.39247 Y3.99919
G01 X-9.37442 Y3.97307
G01 X-9.35523 Y3.94600
G01 X-9.33511 Y3.91835
G01 X-9.31400 Y3.89008
G01 X-9.29250 Y3.86200
G01 X-9.27947 Y3.84533
G01 X-9.25592 Y3.81577
G01 X-9.23155 Y3.78595
G01 X-9.19554 Y3.74318
G01 X-9.16828 Y3.71175
G01 X-9.15057 Y3.69173
G01 X-9.13946 Y3.67933
G01 X-9.10987 Y3.64684
G01 X-9.07858 Y3.61333
G01 X-9.05727 Y3.59096
G01 X-9.04531 Y3.57856
G01 X-9.01048 Y3.54304
G01 X-8.97390 Y3.50665
G01 X-8.94867 Y3.48206
G01 X-8.93620 Y3.47005
G01 X-8.89706 Y3.43296
G01 X-8.85509 Y3.39414
G01 X-8.82411 Y3.36608
G01 X-8.77800 Y3.32517
G01 X-8.73017 Y3.28378
G01 X-8.67937 Y3.24088
G01 X-8.66445 Y3.22847
G01 X-8.60910 Y3.18321
G01 X-8.55187 Y3.13755
G01 X-8.49082 Y3.09006
G01 X-8.42542 Y3.04045
G01 X-8.35598 Y2.98912
G01 X-8.28380 Y2.93712
G01 X-8.20823 Y2.88404
G01 X-8.14474 Y2.84046
G01 X-8.12644 Y2.82806
G01 X-8.05665 Y2.78141
G01 X-8.03785 Y2.76901
G01 X-7.96288 Y2.72023
G01 X-7.94356 Y2.70783
G01 X-7.86278 Y2.65668
G01 X-7.80104 Y2.61830
G01 X-7.74836 Y2.56797
G01 X-7.69446 Y2.51763
G01 X-7.63935 Y2.46730
G01 X-7.58303 Y2.41697
G01 X-7.51236 Y2.42184
G01 X-7.44170 Y2.42775
G01 X-7.37103 Y2.43473
G01 X-7.30036 Y2.44275
G01 X-7.18754 Y2.43319
G01 X-7.07472 Y2.42630
G01 X-6.96191 Y2.42207
G01 X-6.84909 Y2.42050
G01 X-6.76481 Y2.39674
G01 X-6.68053 Y2.37459
G01 X-6.59626 Y2.35405
G01 X-6.51198 Y2.33512
G01 X-6.42770 Y2.31781
G01 X-6.34342 Y2.30211
G01 X-6.25915 Y2.28803
G01 X-6.17487 Y2.27556
G01 X-6.09059 Y2.26470
G01 X-6.00631 Y2.25546
G01 X-5.92203 Y2.24783
G01 X-5.83776 Y2.24181
G01 X-5.75348 Y2.23741
G01 X-5.66920 Y2.23462
G01 X-5.58492 Y2.23345
G01 X-5.50064 Y2.23389
G01 X-5.41637 Y2.23594
G01 X-5.33209 Y2.23961
G01 X-5.24781 Y2.24488
G01 X-5.16353 Y2.25178
G01 X-5.07925 Y2.26028
G01 X-4.99498 Y2.27040
G01 X-4.91070 Y2.28214
G01 X-4.82642 Y2.29548
G01 X-4.74214 Y2.31045
G01 X-4.65787 Y2.32702
G01 X-4.57359 Y2.34521
G01 X-4.48931 Y2.36501
G01 X-4.40503 Y2.38643
G01 X-4.32075 Y2.40945
G01 X-4.23648 Y2.43410
G01 X-4.15220 Y2.46035
G01 X-4.02983 Y2.45582
G01 X-3.90746 Y2.45438
G01 X-3.79804 Y2.41460
G01 X-3.68861 Y2.37765
G01 X-3.57918 Y2.34352
G01 X-3.46976 Y2.31221
G01 X-3.36033 Y2.28373
G01 X-3.25091 Y2.25806
G01 X-3.14148 Y2.23522
G01 X-3.03206 Y2.21520
G01 X-2.92263 Y2.19801
G01 X-2.81320 Y2.18363
G01 X-2.70378 Y2.17208
G01 X-2.59435 Y2.16335
G01 X-2.48493 Y2.15744
G01 X-2.37550 Y2.15435
G01 X-2.26607 Y2.15409
G01 X-2.15665 Y2.15665
G01 X-2.08954 Y2.23008
G01 X-2.02480 Y2.30352
G01 X-1.96242 Y2.37695
G01 X-1.90241 Y2.45039
G01 X-1.84477 Y2.52382
G01 X-1.78950 Y2.59726
G01 X-1.73659 Y2.67069
G01 X-1.68606 Y2.74413
G01 X-1.63788 Y2.81756
G01 X-1.59208 Y2.89100
G01 X-1.54864 Y2.96443
G01 X-1.50757 Y3.03787
G01 X-1.46887 Y3.11130
G01 X-1.43253 Y3.18474
G01 X-1.39856 Y3.25817
G01 X-1.36696 Y3.33161
G01 X-1.34625 Y3.38161
G01 X-1.32458 Y3.43549
G01 X-1.30420 Y3.48937
G01 X-1.28512 Y3.54325
G01 X-1.26733 Y3.59714
G01 X-1.25084 Y3.65102
G01 X-1.23564 Y3.70490
G01 X-1.22174 Y3.75879
G01 X-1.20913 Y3.81267
G01 X-1.28376 Y3.87680
G01 X-1.40372 Y3.97898
G01 X-1.51966 Y4.07655
G01 X-1.54399 Y4.09682
G01 X-1.61001 Y4.15140
G01 X-1.68324 Y4.21096
G01 X-1.74398 Y4.25935
G01 X-1.76176 Y4.27330
G01 X-1.81119 Y4.31144
G01 X-1.85465 Y4.34406
G01 X-1.89364 Y4.37244
G01 X-1.92787 Y4.39652
G01 X-1.95953 Y4.41799
G01 X-1.98843 Y4.43682
G01 X-2.00354 Y4.44634
G01 X-2.02997 Y4.46242
G01 X-2.04193 Y4.46945
G01 X-2.06686 Y4.48355
G01 X-2.10186 Y4.50224
G01 X-2.12400 Y4.51450
G01 X-2.14579 Y4.52726
G01 X-2.16653 Y4.54010
G01 X-2.18711 Y4.55355
G01 X-2.19755 Y4.56065
G01 X-2.21683 Y4.57430
G01 X-2.23537 Y4.58811
G01 X-2.24409 Y4.59486
G01 X-2.26242 Y4.60956
G01 X-2.27198 Y4.61754
G01 X-2.28961 Y4.63282
G01 X-2.30676 Y4.64845
G01 X-2.31444 Y4.65571
G01 X-2.33056 Y4.67149
G01 X-2.34668 Y4.68807
G01 X-2.36243 Y4.70508
G01 X-2.37770 Y4.72243
G01 X-2.39236 Y4.73993
G01 X-2.40698 Y4.75826
G01 X-2.42101 Y4.77678
G01 X-2.43508 Y4.79632
G01 X-2.44886 Y4.81649
G01 X-2.46223 Y4.83716
G01 X-2.47509 Y4.85815
G01 X-2.48787 Y4.88019
G01 X-2.50007 Y4.90246
G01 X-2.51209 Y4.92573
G01 X-2.51789 Y4.93747
G01 X-2.52967 Y4.96247
G01 X-2.54114 Y4.98846
G01 X-2.54722 Y5.00298
G01 X-2.55227 Y5.01547
G01 X-2.56284 Y5.04300
G01 X-2.57321 Y5.07212
G01 X-2.58331 Y5.10283
G01 X-2.58904 Y5.12147
G01 X-2.59302 Y5.13502
G01 X-2.59860 Y5.15490
G01 X-2.60230 Y5.16874
G01 X-2.60763 Y5.18973
G01 X-2.61093 Y5.20340
G01 X-2.61606 Y5.22588
G01 X-2.62322 Y5.26009
G01 X-2.62508 Y5.27741
G01 X-2.62991 Y5.31910
G01 X-2.63540 Y5.36227
G01 X-2.64078 Y5.40134
G01 X-2.64659 Y5.44132
G01 X-2.65497 Y5.49566
G01 X-2.66633 Y5.56496
G01 X-2.68041 Y5.64619
G01 X-2.69536 Y5.72858
G01 X-2.71148 Y5.81410
G01 X-2.73538 Y5.93714
G01 X-2.76366 Y6.07819
G01 X-2.79267 Y6.21971
G01 X-2.84737 Y6.48102
G01 X-2.91537 Y6.79933
G01 X-3.00362 Y7.20752
G01 X-3.06751 Y7.49954
G04 P0 ( dwell for no time -- G64 should not smooth over this point )
G00 Z0.08000 ( retract )

G00 X-3.34281 Y7.48824 ( rapid move to begin. )
G01 F3.00000
( Mill infeed pass 1/1 )
G01 Z-0.00800
G04 P0 ( dwell for no time -- G64 should not smooth over this point )
G01 F6.00000
G01 X-3.34281 Y7.48824
G01 X-3.41726 Y6.61048
G01 X-3.44971 Y6.23288
G01 X-3.47171 Y5.98065
G01 X-3.48760 Y5.80152
G01 X-3.49525 Y5.71687
G01 X-3.49894 Y5.67176
G01 X-3.50001 Y5.65669
G01 X-3.49999 Y5.36423
G01 X-3.49353 Y5.29910
G01 X-3.47835 Y5.17364
G01 X-3.46629 Y5.06789
G01 X-3.45681 Y4.97904
G01 X-3.44869 Y4.89740
G01 X-3.44077 Y4.81192
G01 X-3.43277 Y4.71908
G01 X-3.42376 Y4.60705
G01 X-3.41854 Y4.53881
G01 X-3.41161 Y4.44493
G01 X-3.41161 Y4.37626
G01 X-3.41302 Y4.29971
G01 X-3.41725 Y4.22035
G01 X-3.42431 Y4.13816
G01 X-3.43419 Y4.05316
G01 X-3.44689 Y3.96533
G01 X-3.46241 Y3.87467
G01 X-3.48076 Y3.78120
G01 X-3.50192 Y3.68490
G01 X-3.52591 Y3.58578
G01 X-3.55272 Y3.48384
G01 X-3.58236 Y3.37908
G01 X-3.61481 Y3.27149
G01 X-3.65009 Y3.16108
G01 X-3.68819 Y3.04785
G01 X-3.72912 Y2.93180
G01 X-3.77286 Y2.81292
G01 X-3.90746 Y2.45438
G04 P0 ( dwell for no time -- G64 should not smooth over this point )
G00 Z0.08000 ( retract )

G00 X-4.15220 Y2.46035 ( rapid move to begin. )
G01 F3.00000
( Mill infeed pass 1/1 )
G01 Z-0.00800
G04 P0 ( dwell for no time -- G64 should not smooth over this point )
G01 F6.00000
G01 X-4.15220 Y2.46035
G01 X-4.35654 Y3.22517
G01 X-4.39014 Y3.35627
G01 X-4.41981 Y3.48345
G01 X-4.44555 Y3.60671
G01 X-4.46738 Y3.72604
G01 X-4.47682 Y3.78424
G01 X-4.48528 Y3.84146
G01 X-4.49276 Y3.89769
G01 X-4.49926 Y3.95295
G01 X-4.50478 Y4.00722
G01 X-4.50932 Y4.06051
G01 X-4.51288 Y4.11283
G01 X-4.51545 Y4.16416
G01 X-4.50467 Y4.28421
G01 X-4.49998 Y4.34332
G01 X-4.50000 Y4.63579
G01 X-4.50341 Y4.67345
G01 X-4.50697 Y4.70517
G01 X-4.51870 Y4.80147
G01 X-4.53103 Y4.90799
G01 X-4.54025 Y4.99279
G01 X-4.54913 Y5.08009
G01 X-4.55787 Y5.17294
G01 X-4.56695 Y5.27750
G01 X-4.57190 Y5.33801
G01 X-4.57732 Y5.40682
G01 X-4.58359 Y5.48952
G01 X-4.58821 Y5.55286
G01 X-4.59253 Y5.60350
G01 X-4.59528 Y5.63063
G01 X-4.60468 Y5.71848
G01 X-4.60237 Y5.76879
G01 X-4.59895 Y5.82020
G01 X-4.59441 Y5.87273
G01 X-4.58877 Y5.92637
G01 X-4.58201 Y5.98112
G01 X-4.57414 Y6.03698
G01 X-4.56515 Y6.09396
G01 X-4.55506 Y6.15205
G01 X-4.30278 Y7.54088
G04 P0 ( dwell for no time -- G64 should not smooth over this point )
G00 Z0.08000 ( retract )

G00 X-5.52069 Y7.65750 ( rapid move to begin. )
G01 F3.00000
( Mill infeed pass 1/1 )
G01 Z-0.00800
G04 P0 ( dwell for no time -- G64 should not smooth over this point )
G01 F6.00000
G01 X-5.52069 Y7.65750
G01 X-5.74299 Y5.74299
G01 X-5.74806 Y5.70416
G01 X-5.75414 Y5.66633
G01 X-5.83249 Y5.22197
G01 X-5.83079 Y5.18568
G01 X-5.83069 Y5.18105
G01 X-5.83081 Y5.15265
G01 X-5.83224 Y5.12384
G01 X-5.83489 Y5.09741
G01 X-5.83549 Y5.09291
G01 X-5.83924 Y5.06981
G01 X-5.84346 Y5.05024
G01 X-5.84717 Y5.03608
G01 X-5.85192 Y5.02070
G01 X-5.85690 Y5.00688
G01 X-5.86354 Y4.99103
G01 X-5.86938 Y4.97891
G01 X-5.87385 Y4.97053
G01 X-5.87990 Y4.96021
G01 X-5.88676 Y4.94967
G01 X-5.89591 Y4.93719
G01 X-5.90144 Y4.93039
G01 X-5.90895 Y4.92189
G01 X-5.91882 Y4.91184
G01 X-5.92684 Y4.90448
G01 X-5.93309 Y4.89919
G01 X-5.94524 Y4.88988
G01 X-5.95277 Y4.88466
G01 X-5.96308 Y4.87815
G01 X-5.97660 Y4.87058
G01 X-5.98804 Y4.86492
G01 X-6.01336 Y4.85343
G01 X-6.03373 Y4.84372
G01 X-6.04501 Y4.83195
G01 X-6.05586 Y4.81927
G01 X-6.06629 Y4.80566
G01 X-6.07628 Y4.79112
G01 X-6.08584 Y4.77566
G01 X-6.09496 Y4.75928
G01 X-6.11193 Y4.72373
G01 X-6.12716 Y4.68449
G01 X-6.14068 Y4.64155
G01 X-6.15247 Y4.59491
G01 X-6.16253 Y4.54458
G01 X-6.21104 Y4.26947
G01 X-6.22559 Y4.19486
G01 X-6.24352 Y4.11686
G01 X-6.26484 Y4.03548
G01 X-6.28954 Y3.95072
G01 X-6.31762 Y3.86257
G01 X-6.34909 Y3.77103
G01 X-6.38394 Y3.67612
G01 X-6.42218 Y3.57782
G01 X-6.75104 Y2.75425
G01 X-6.84909 Y2.42050
G04 P0 ( dwell for no time -- G64 should not smooth over this point )
G00 Z0.08000 ( retract )

G00 X-7.30036 Y2.44275 ( rapid move to begin. )
G01 F3.00000
( Mill infeed pass 1/1 )
G01 Z-0.00800
G04 P0 ( dwell for no time -- G64 should not smooth over this point )
G01 F6.00000
G01 X-7.30036 Y2.44275
G01 X-7.32523 Y3.47341
G01 X-7.33014 Y3.61818
G01 X-7.33770 Y3.75566
G01 X-7.34248 Y3.82167
G01 X-7.34792 Y3.88585
G01 X-7.35402 Y3.94822
G01 X-7.36078 Y4.00876
G01 X-7.36821 Y4.06748
G01 X-7.37630 Y4.12437
G01 X-7.38506 Y4.17945
G01 X-7.39447 Y4.23270
G01 X-7.40455 Y4.28413
G01 X-7.41530 Y4.33374
G01 X-7.42671 Y4.38153
G01 X-7.43878 Y4.42749
G01 X-7.47286 Y4.55132
G01 X-7.48375 Y4.59369
G01 X-7.49279 Y4.63499
G01 X-7.49998 Y4.67523
G01 X-7.50533 Y4.71440
G01 X-7.50883 Y4.75251
G01 X-7.51049 Y4.78955
G01 X-7.51030 Y4.82552
G01 X-7.50826 Y4.86043
G01 X-7.48294 Y5.15419
G01 X-7.47900 Y5.19018
G01 X-7.47327 Y5.22719
G01 X-7.42983 Y5.47352
G01 X-7.42348 Y5.51289
G01 X-7.41809 Y5.55342
G01 X-7.41368 Y5.59510
G01 X-7.41024 Y5.63794
G01 X-7.40776 Y5.68194
G01 X-7.40626 Y5.72709
G01 X-7.40572 Y5.77340
G01 X-7.40616 Y5.82086
G01 X-7.41343 Y6.20021
G04 P0 ( dwell for no time -- G64 should not smooth over this point )
G00 Z0.08000 ( retract )

G00 X-8.30035 Y5.60001 ( rapid move to begin. )
G01 F3.00000
( Mill infeed pass 1/1 )
G01 Z-0.00800
G04 P0 ( dwell for no time -- G64 should not smooth over this point )
G01 F6.00000
G01 X-8.30035 Y5.60001
G01 X-8.30879 Y5.56010
G01 X-8.31251 Y5.54126
G01 X-8.31820 Y5.51036
G01 X-8.32306 Y5.48101
G01 X-8.32476 Y5.46988
G01 X-8.32845 Y5.44332
G01 X-8.33137 Y5.41871
G01 X-8.33295 Y5.40318
G01 X-8.33485 Y5.38033
G01 X-8.33619 Y5.35799
G01 X-8.33792 Y5.30917
G01 X-8.33971 Y5.27577
G01 X-8.34152 Y5.25066
G01 X-8.34310 Y5.23224
G01 X-8.34489 Y5.21404
G01 X-8.34692 Y5.19566
G01 X-8.34915 Y5.17759
G01 X-8.35154 Y5.15991
G01 X-8.35614 Y5.12980
G01 X-8.35905 Y5.11270
G01 X-8.36204 Y5.09633
G01 X-8.36930 Y5.06006
G01 X-8.37190 Y5.04418
G01 X-8.37371 Y5.02848
G01 X-8.37459 Y5.01603
G01 X-8.37500 Y5.00097
G01 X-8.37453 Y4.98289
G01 X-8.37330 Y4.96727
G01 X-8.37175 Y4.95475
G01 X-8.36918 Y4.93931
G01 X-8.36193 Y4.90306
G01 X-8.35894 Y4.88669
G01 X-8.35604 Y4.86958
G01 X-8.35331 Y4.85218
G01 X-8.35076 Y4.83448
G01 X-8.34840 Y4.81657
G01 X-8.34628 Y4.79877
G01 X-8.34430 Y4.78014
G01 X-8.34252 Y4.76125
G01 X-8.34098 Y4.74249
G01 X-8.33962 Y4.72278
G01 X-8.33785 Y4.68933
G01 X-8.33616 Y4.64135
G01 X-8.33483 Y4.61949
G01 X-8.33364 Y4.60444
G01 X-8.33128 Y4.58041
G01 X-8.32824 Y4.55503
G01 X-8.32459 Y4.52894
G01 X-8.32009 Y4.50065
G01 X-8.31484 Y4.47102
G01 X-8.30860 Y4.43899
G01 X-8.30206 Y4.40784
G01 X-8.29238 Y4.36479
G01 X-8.28250 Y4.32373
G01 X-8.27104 Y4.27858
G01 X-8.25768 Y4.22843
G01 X-8.24965 Y4.19924
G01 X-8.23285 Y4.14004
G01 X-8.22472 Y4.11208
G01 X-8.20421 Y4.04324
G01 X-8.18989 Y3.99628
G01 X-8.16188 Y3.90650
G01 X-8.15071 Y3.87127
G01 X-8.11671 Y3.76556
G01 X-8.09090 Y3.68395
G01 X-8.07850 Y3.64391
G01 X-8.04902 Y3.54656
G01 X-8.03662 Y3.50468
G01 X-8.00407 Y3.39219
G01 X-7.99207 Y3.34977
G01 X-7.95546 Y3.21721
G01 X-7.94306 Y3.17124
G01 X-7.90209 Y3.01553
G01 X-7.87500 Y2.90953
G01 X-7.83015 Y2.73217
G01 X-7.80104 Y2.61830
G04 P0 ( dwell for no time -- G64 should not smooth over this point )
G00 Z0.08000 ( retract )

G00 X-8.85223 Y4.73894 ( rapid move to begin. )
G01 F3.00000
( Mill infeed pass 1/1 )
G01 Z-0.00800
G04 P0 ( dwell for no time -- G64 should not smooth over this point )
G01 F6.00000
G01 X-8.85223 Y4.73894
G01 X-8.86356 Y4.73283
G01 X-8.87001 Y4.72963
G01 X-8.88313 Y4.72370
G01 X-8.89653 Y4.71842
G01 X-8.91047 Y4.71368
G01 X-8.91734 Y4.71162
G01 X-8.93127 Y4.70798
G01 X-8.94534 Y4.70503
G01 X-8.95988 Y4.70270
G01 X-8.97419 Y4.70112
G01 X-8.98856 Y4.70022
G01 X-9.00293 Y4.70002
G01 X-9.01765 Y4.70053
G01 X-9.03200 Y4.70172
G01 X-9.03915 Y4.70257
G01 X-9.05337 Y4.70479
G01 X-9.06748 Y4.70769
G01 X-9.08174 Y4.71136
G01 X-9.08862 Y4.71339
G01 X-9.10019 Y4.71725
G01 X-8.98706 Y4.85207
G01 X-8.85223 Y4.73894
G04 P0 ( dwell for no time -- G64 should not smooth over this point )
G00 Z0.08000 ( retract )

G00 X-9.14793 Y4.98706 ( rapid move to begin. )
G01 F3.00000
( Mill infeed pass 1/1 )
G01 Z-0.00800
G04 P0 ( dwell for no time -- G64 should not smooth over this point )
G01 F6.00000
G01 X-9.14793 Y4.98706
G01 X-9.28275 Y5.10019
G01 X-9.28658 Y5.08869
G01 X-9.28863 Y5.08178
G01 X-9.29222 Y5.06784
G01 X-9.29514 Y5.05374
G01 X-9.29742 Y5.03920
G01 X-9.29896 Y5.02490
G01 X-9.29982 Y5.01021
G01 X-9.29998 Y5.00303
G01 X-9.29978 Y4.98864
G01 X-9.29889 Y4.97426
G01 X-9.29818 Y4.96710
G01 X-9.29626 Y4.95283
G01 X-9.29366 Y4.93867
G01 X-9.29038 Y4.92467
G01 X-9.28633 Y4.91052
G01 X-9.28171 Y4.89688
G01 X-9.27644 Y4.88348
G01 X-9.27053 Y4.87035
G01 X-9.26734 Y4.86390
G01 X-9.26106 Y4.85223
G01 X-9.14793 Y4.98706
G04 P0 ( dwell for no time -- G64 should not smooth over this point )
G00 Z0.08000 ( retract )

G00 X-8.89981 Y5.28275 ( rapid move to begin. )
G01 F3.00000
( Mill infeed pass 1/1 )
G01 Z-0.00800
G04 P0 ( dwell for no time -- G64 should not smooth over this point )
G01 F6.00000
G01 X-8.89981 Y5.28275
G01 X-8.91122 Y5.28655
G01 X-8.91845 Y5.28870
G01 X-8.93238 Y5.29227
G01 X-8.94648 Y5.29518
G01 X-8.96070 Y5.29741
G01 X-8.97502 Y5.29895
G01 X-8.98939 Y5.29981
G01 X-8.99659 Y5.29997
G01 X-9.01099 Y5.29979
G01 X-9.02568 Y5.29889
G01 X-9.04029 Y5.29727
G01 X-9.05449 Y5.29500
G01 X-9.06858 Y5.29205
G01 X-9.07557 Y5.29032
G01 X-9.08939 Y5.28636
G01 X-9.10333 Y5.28163
G01 X-9.11673 Y5.27635
G01 X-9.12985 Y5.27043
G01 X-9.13630 Y5.26724
G01 X-9.14777 Y5.26106
G01 X-9.01294 Y5.14793
G01 X-8.89981 Y5.28275
G04 P0 ( dwell for no time -- G64 should not smooth over this point )
G00 Z0.08000 ( retract )

G00 X-8.70003 Y4.99652 ( rapid move to begin. )
G01 F3.00000
( Mill infeed pass 1/1 )
G01 Z-0.00800
G04 P0 ( dwell for no time -- G64 should not smooth over this point )
G01 F6.00000
G01 X-8.70003 Y4.99652
G01 X-8.70054 Y4.98213
G01 X-8.70174 Y4.96778
G01 X-8.70260 Y4.96063
G01 X-8.70483 Y4.94641
G01 X-8.70620 Y4.93934
G01 X-8.70945 Y4.92531
G01 X-8.71347 Y4.91114
G01 X-8.71725 Y4.89981
G01 X-8.85207 Y5.01294
G01 X-8.73894 Y5.14777
G01 X-8.73260 Y5.13599
G01 X-8.72926 Y5.12922
G01 X-8.72339 Y5.11610
G01 X-8.72068 Y5.10943
G01 X-8.71575 Y5.09590
G01 X-8.71148 Y5.08215
G01 X-8.70959 Y5.07521
G01 X-8.70786 Y5.06822
G01 X-8.70493 Y5.05412
G01 X-8.70372 Y5.04702
G01 X-8.70180 Y5.03275
G01 X-8.70057 Y5.01843
G01 X-8.70021 Y5.01089
G01 X-8.70003 Y4.99652
G04 P0 ( dwell for no time -- G64 should not smooth over this point )
G00 Z0.08000 ( retract )

G00 X-6.75104 Y2.75425 ( rapid move to begin. )
G01 F3.00000
( Mill infeed pass 1/1 )
G01 Z-0.00800
G04 P0 ( dwell for no time -- G64 should not smooth over this point )
G01 F6.00000
G01 X-6.75104 Y2.75425
G01 X-6.65148 Y4.69621
G01 X-6.65104 Y4.73397
G01 X-6.65368 Y4.77030
G01 X-6.65615 Y4.78793
G01 X-6.65939 Y4.80520
G01 X-6.66340 Y4.82211
G01 X-6.66818 Y4.83866
G01 X-6.77853 Y5.18865
G01 X-6.78318 Y5.20539
G01 X-6.78664 Y5.22234
G01 X-6.78891 Y5.23951
G01 X-6.78999 Y5.25688
G01 X-6.79747 Y5.52708
G01 X-6.79968 Y5.57868
G01 X-6.80356 Y5.63385
G01 X-6.80911 Y5.69260
G01 X-6.81632 Y5.75492
G01 X-6.82520 Y5.82082
G01 X-6.83575 Y5.89030
G01 X-6.84797 Y5.96334
G01 X-6.86185 Y6.03997
G01 X-6.87740 Y6.12017
G01 X-6.89461 Y6.20394
G01 X-6.91350 Y6.29129
G01 X-6.93405 Y6.38222
G01 X-6.98015 Y6.57479
G01 X-7.03292 Y6.78167
G01 X-7.09027 Y6.69803
G01 X-7.13611 Y6.63040
G01 X-8.91103 Y6.22054
G01 X-8.90964 Y6.21267
G01 X-8.90908 Y6.20738
G01 X-8.90880 Y6.20160
G01 X-8.90888 Y6.19536
G01 X-8.90908 Y6.19262
G01 X-8.90966 Y6.18721
G01 X-8.91024 Y6.18371
G01 X-8.91132 Y6.17853
G01 X-8.91239 Y6.17457
G01 X-8.91360 Y6.17066
G01 X-8.91516 Y6.16648
G01 X-8.91672 Y6.16273
G01 X-8.91863 Y6.15875
G01 X-8.92071 Y6.15485
G01 X-8.92278 Y6.15143
G01 X-8.92508 Y6.14793
G01 X-8.92769 Y6.14436
G01 X-8.93047 Y6.14093
G01 X-8.93319 Y6.13786
G01 X-8.93927 Y6.13190
G01 X-8.94585 Y6.12656
G01 X-8.95293 Y6.12184
G01 X-8.96045 Y6.11777
G01 X-8.96829 Y6.11444
G01 X-8.97246 Y6.11303
G01 X-8.97946 Y6.11103
G01 X-8.98663 Y6.10974
G01 X-8.99507 Y6.10889
G01 X-9.00391 Y6.10884
G01 X-9.01239 Y6.10960
G01 X-9.02045 Y6.11108
G01 X-9.02891 Y6.11346
G01 X-9.03600 Y6.11618
G01 X-9.04081 Y6.11841
G01 X-9.04828 Y6.12258
G01 X-9.05525 Y6.12739
G01 X-9.06196 Y6.13302
G01 X-9.06794 Y6.13909
G01 X-9.07331 Y6.14569
G01 X-9.07661 Y6.15048
G01 X-9.08035 Y6.15681
G01 X-9.08223 Y6.16045
G01 X-9.08390 Y6.16420
G01 X-9.08555 Y6.16829
G01 X-9.08678 Y6.17189
G01 X-9.08897 Y6.17946
G01 X-9.09043 Y6.18789
G01 X-9.09117 Y6.19637
G01 X-9.09113 Y6.20456
G01 X-9.09026 Y6.21336
G01 X-9.08870 Y6.22139
G01 X-9.08754 Y6.22566
G01 X-9.08621 Y6.22987
G01 X-9.08478 Y6.23367
G01 X-9.08305 Y6.23778
G01 X-9.08126 Y6.24146
G01 X-9.07933 Y6.24508
G01 X-9.07704 Y6.24886
G01 X-9.07459 Y6.25254
G01 X-9.07218 Y6.25580
G01 X-9.06937 Y6.25926
G01 X-9.06667 Y6.26228
G01 X-9.06054 Y6.26825
G01 X-9.05389 Y6.27363
G01 X-9.04998 Y6.27631
G01 X-9.04505 Y6.27931
G01 X-9.03932 Y6.28233
G01 X-9.03148 Y6.28564
G01 X-9.02758 Y6.28695
G01 X-9.02054 Y6.28896
G01 X-9.01337 Y6.29026
G01 X-9.00896 Y6.29078
G01 X-9.00492 Y6.29111
G01 X-8.99895 Y6.29121
G01 X-8.99319 Y6.29096
G01 X-8.98761 Y6.29040
G01 X-8.97955 Y6.28892
G01 X-8.97550 Y6.28787
G01 X-8.97108 Y6.28653
G01 X-8.96696 Y6.28503
G01 X-8.96289 Y6.28335
G01 X-8.95876 Y6.28137
G01 X-8.95172 Y6.27742
G01 X-8.94833 Y6.27519
G01 X-8.94474 Y6.27260
G01 X-8.94115 Y6.26970
G01 X-8.93684 Y6.26582
G01 X-8.93206 Y6.26091
G01 X-8.92863 Y6.25681
G01 X-8.92518 Y6.25217
G01 X-8.92181 Y6.24703
G01 X-8.91965 Y6.24318
G01 X-8.91777 Y6.23954
G01 X-8.91444 Y6.23170
G01 X-8.91303 Y6.22754
G01 X-8.91147 Y6.22216
G01 X-8.91103 Y6.22054
G01 X-8.90964 Y6.21267
G01 X-8.90885 Y6.20419
G01 X-8.90888 Y6.19536
G01 X-8.90966 Y6.18721
G01 X-8.91132 Y6.17853
G01 X-8.91360 Y6.17066
G01 X-8.91672 Y6.16273
G01 X-8.91986 Y6.15643
G01 X-8.92278 Y6.15143
G01 X-8.92508 Y6.14793
G01 X-8.92769 Y6.14436
G01 X-8.93047 Y6.14093
G01 X-8.93319 Y6.13786
G01 X-8.93927 Y6.13190
G01 X-8.94585 Y6.12656
G01 X-8.95293 Y6.12184
G01 X-8.96045 Y6.11777
G01 X-8.96829 Y6.11444
G01 X-8.97246 Y6.11303
G01 X-8.97946 Y6.11103
G01 X-8.86149 Y5.60006
G04 P0 ( dwell for no time -- G64 should not smooth over this point )
G00 Z0.08000 ( retract )

G00 X-9.26952 Y7.36722 ( rapid move to begin. )
G01 F3.00000
( Mill infeed pass 1/1 )
G01 Z-0.00800
G04 P0 ( dwell for no time -- G64 should not smooth over this point )
G01 F6.00000
G01 X-9.26952 Y7.36722
G01 X-9.02054 Y6.28896
G01 X-9.02758 Y6.28695
G01 X-9.03148 Y6.28564
G01 X-9.03932 Y6.28233
G01 X-9.04679 Y6.27833
G01 X-9.05389 Y6.27363
G01 X-9.06054 Y6.26825
G01 X-9.06667 Y6.26228
G01 X-9.06937 Y6.25926
G01 X-9.07218 Y6.25580
G01 X-9.07459 Y6.25254
G01 X-9.07722 Y6.24857
G01 X-9.07933 Y6.24508
G01 X-9.08305 Y6.23778
G01 X-9.08621 Y6.22987
G01 X-9.08870 Y6.22139
G01 X-9.09026 Y6.21336
G01 X-9.09113 Y6.20456
G01 X-9.09117 Y6.19637
G01 X-9.09043 Y6.18789
G01 X-9.08897 Y6.17946
G01 X-9.72419 Y6.03279
G04 P0 ( dwell for no time -- G64 should not smooth over this point )
G00 Z0.08000 ( retract )

G00 X-9.61108 Y5.59998 ( rapid move to begin. )
G01 F3.00000
( Mill infeed pass 1/1 )
G01 Z-0.00800
G04 P0 ( dwell for no time -- G64 should not smooth over this point )
G01 F6.00000
G01 X-9.61108 Y5.59998
G01 X-8.30035 Y5.60001
G01 X-8.27873 Y5.61601
G01 X-8.25564 Y5.63250
G01 X-8.23051 Y5.64981
G01 X-8.20536 Y5.66651
G01 X-8.17831 Y5.68384
G01 X-8.15981 Y5.69535
G01 X-8.14074 Y5.70694
G01 X-8.10090 Y5.73072
G01 X-8.08058 Y5.74317
G01 X-8.05998 Y5.75608
G01 X-8.03905 Y5.76949
G01 X-8.02259 Y5.78028
G01 X-7.98575 Y5.80498
G01 X-7.95372 Y5.82722
G01 X-7.91880 Y5.85227
G01 X-7.89586 Y5.86916
G01 X-7.84164 Y5.90989
G01 X-7.82106 Y5.92508
G01 X-7.79040 Y5.94738
G01 X-7.74276 Y5.98129
G01 X-7.70049 Y6.01079
G01 X-7.66797 Y6.03313
G01 X-7.63359 Y6.05645
G01 X-7.57242 Y6.09727
G01 X-7.52172 Y6.13056
G01 X-7.49680 Y6.14675
G01 X-7.44373 Y6.18091
G01 X-7.41343 Y6.20021
G01 X-7.38077 Y6.25342
G01 X-7.35577 Y6.29357
G01 X-7.31749 Y6.35419
G01 X-7.27642 Y6.41820
G01 X-7.23214 Y6.48616
G01 X-7.18417 Y6.55870
G01 X-7.13611 Y6.63040
G01 X-7.09027 Y6.69803
G01 X-7.03292 Y6.78167
G01 X-7.01515 Y6.82158
G01 X-6.99438 Y6.86926
G01 X-6.96745 Y6.93292
G01 X-6.94026 Y6.99941
G01 X-6.90621 Y7.08410
G01 X-6.87646 Y7.15732
G01 X-6.84496 Y7.23414
G01 X-6.81058 Y7.31721
G01 X-6.77406 Y7.40469
G01 X-6.73522 Y7.49694
G01 X-6.69366 Y7.59490
G01 X-6.65359 Y7.68866

G04 P0 ( dwell for no time -- G64 should not smooth over this point )
G00 Z1.000000 ( retract )

M5 ( Spindle off. )
G04 P1.000000
M9 ( Coolant off. )
M2 ( Program end. )

