( pcb2gcode 2.0.0 )
( Software-independent Gcode )

G94 ( Inches per minute feed rate. )
G20 ( Units == INCHES. )

G90 ( Absolute coordinates. )
G00 S30000 ( RPM spindle speed. )
G64 P0.00040 ( set maximum deviation from commanded toolpath )
G01 F6.00000 ( Feedrate. )


G00 Z1.00000 (Retract to tool change height)
T0
M5      (Spindle stop.)
G04 P1.00000 (Wait for spindle to stop)
(MSG, Change tool bit to mill diameter 0.20000in)
M6      (Tool change.)
M0      (Temporary machine stop.)
M3 ( Spindle on clockwise. )
G04 P1.00000 (Wait for spindle to get up to speed)
G04 P0 ( dwell for no time -- G64 should not smooth over this point )
G00 Z0.08000 ( retract )

G00 X0.33250 Y-0.33250 ( rapid move to begin. )
G01 F3.00000
( Mill infeed pass 1/1 )
G01 Z-0.00800
G04 P0 ( dwell for no time -- G64 should not smooth over this point )
G01 F6.00000
G01 X0.33250 Y-0.33250
G01 X0.33250 Y10.33250
G01 X-10.33250 Y10.33250
G01 X-10.33250 Y-0.33250
G01 X0.33250 Y-0.33250
G04 P0 ( dwell for no time -- G64 should not smooth over this point )
G00 Z0.08000 ( retract )

G00 X-1.20884 Y3.81395 ( rapid move to begin. )
G01 F3.00000
( Mill infeed pass 1/1 )
G01 Z-0.00800
G04 P0 ( dwell for no time -- G64 should not smooth over this point )
G01 F6.00000
G01 X-1.20884 Y3.81395
G01 X-1.19293 Y3.84469
G01 X-1.16629 Y3.89695
G01 X-1.13837 Y3.95350
G01 X-1.11221 Y4.01006
G01 X-1.08784 Y4.06661
G01 X-1.06524 Y4.12317
G01 X-1.04518 Y4.17543
G01 X-1.02628 Y4.22659
G01 X-1.00887 Y4.27775
G01 X-0.99294 Y4.32890
G01 X-0.97849 Y4.38006
G01 X-0.96449 Y4.43232
G01 X-0.95237 Y4.47996
G01 X-0.94157 Y4.52760
G01 X-0.93207 Y4.57524
G01 X-0.92387 Y4.62288
G01 X-0.91559 Y4.67514
G01 X-0.90897 Y4.72079
G01 X-0.90355 Y4.76644
G01 X-0.89934 Y4.81208
G01 X-0.89635 Y4.85773
G01 X-0.89361 Y4.90999
G01 X-0.89184 Y4.95500
G01 X-0.89125 Y5.00000
G01 X-0.89184 Y5.04500
G01 X-0.89361 Y5.09001
G01 X-0.89635 Y5.14227
G01 X-0.89934 Y5.18792
G01 X-0.90355 Y5.23356
G01 X-0.90897 Y5.27921
G01 X-0.91559 Y5.32485
G01 X-0.92387 Y5.37712
G01 X-0.93207 Y5.42476
G01 X-0.94157 Y5.47240
G01 X-0.95237 Y5.52004
G01 X-0.96449 Y5.56768
G01 X-0.97849 Y5.61994
G01 X-0.99294 Y5.67110
G01 X-1.00887 Y5.72225
G01 X-1.02628 Y5.77341
G01 X-1.04518 Y5.82456
G01 X-1.06524 Y5.87683
G01 X-1.08784 Y5.93338
G01 X-1.11221 Y5.98994
G01 X-1.13837 Y6.04649
G01 X-1.16629 Y6.10305
G01 X-1.19293 Y6.15531
G01 X-1.22688 Y6.21974
G01 X-1.26309 Y6.28417
G01 X-1.30155 Y6.34860
G01 X-1.34226 Y6.41303
G01 X-1.37620 Y6.46529
G01 X-1.42694 Y6.54108
G01 X-1.48072 Y6.61688
G01 X-1.53754 Y6.69267
G01 X-1.59739 Y6.76846
G01 X-1.63972 Y6.82073
G01 X-1.67764 Y6.86689
G01 X-1.71667 Y6.91304
G01 X-1.75679 Y6.95920
G01 X-1.79801 Y7.00536
G01 X-1.84033 Y7.05152
G01 X-1.88374 Y7.09768
G01 X-1.97387 Y7.19000
G01 X-2.02613 Y7.24226
G01 X-2.11566 Y7.32986
G01 X-2.20903 Y7.41746
G01 X-2.30626 Y7.50507
G01 X-2.40733 Y7.59267
G01 X-2.52209 Y7.58200
G01 X-2.57436 Y7.57651
G01 X-2.69697 Y7.56203
G01 X-2.81959 Y7.54438
G01 X-2.94221 Y7.52354
G01 X-3.06483 Y7.49953
G01 X-3.13432 Y7.49817
G01 X-3.20382 Y7.49584
G01 X-3.27331 Y7.49253
G01 X-3.34281 Y7.48824
G01 X-3.46280 Y7.50522
G01 X-3.58280 Y7.51924
G01 X-3.70280 Y7.53027
G01 X-3.82280 Y7.53834
G01 X-3.94279 Y7.54343
G01 X-4.06279 Y7.54555
G01 X-4.18279 Y7.54470
G01 X-4.30278 Y7.54088
G01 X-4.37890 Y7.55758
G01 X-4.45502 Y7.57303
G01 X-4.53114 Y7.58723
G01 X-4.60726 Y7.60017
G01 X-4.68338 Y7.61186
G01 X-4.75950 Y7.62228
G01 X-4.83562 Y7.63146
G01 X-4.91174 Y7.63937
G01 X-4.98785 Y7.64603
G01 X-5.06397 Y7.65144
G01 X-5.14009 Y7.65559
G01 X-5.21621 Y7.65848
G01 X-5.29233 Y7.66012
G01 X-5.36845 Y7.66050
G01 X-5.44457 Y7.65963
G01 X-5.52069 Y7.65750
G01 X-5.59161 Y7.66779
G01 X-5.66254 Y7.67697
G01 X-5.73347 Y7.68504
G01 X-5.80439 Y7.69199
G01 X-5.87532 Y7.69782
G01 X-5.94625 Y7.70254
G01 X-6.01717 Y7.70615
G01 X-6.08810 Y7.70864
G01 X-6.15903 Y7.71002
G01 X-6.22996 Y7.71029
G01 X-6.30088 Y7.70944
G01 X-6.37181 Y7.70747
G01 X-6.44274 Y7.70439
G01 X-6.51366 Y7.70020
G01 X-6.58459 Y7.69489
G01 X-6.65552 Y7.68847
G01 X-6.76498 Y7.74816
G01 X-6.87444 Y7.80440
G01 X-6.98390 Y7.85718
G01 X-7.09336 Y7.90650
G01 X-7.19789 Y7.95195
G01 X-7.29918 Y7.99448
G01 X-7.40048 Y8.03399
G01 X-7.50177 Y8.07046
G01 X-7.60306 Y8.10392
G01 X-7.70759 Y8.13687
G01 X-7.80071 Y8.16493
G01 X-7.89382 Y8.19038
G01 X-7.98694 Y8.21323
G01 X-8.08005 Y8.23348
G01 X-8.18458 Y8.25475
G01 X-8.27124 Y8.27124
G01 X-8.35616 Y8.21072
G01 X-8.43780 Y8.15020
G01 X-8.51614 Y8.08968
G01 X-8.59120 Y8.02916
G01 X-8.71801 Y7.92463
G01 X-8.78698 Y7.86639
G01 X-8.85259 Y7.80816
G01 X-8.91485 Y7.74992
G01 X-8.97376 Y7.69168
G01 X-9.07648 Y7.58716
G01 X-9.11720 Y7.54471
G01 X-9.15593 Y7.50227
G01 X-9.19267 Y7.45982
G01 X-9.22743 Y7.41737
G01 X-9.31056 Y7.31286
G01 X-9.33527 Y7.28100
G01 X-9.35872 Y7.24914
G01 X-9.38091 Y7.21728
G01 X-9.40184 Y7.18542
G01 X-9.46843 Y7.08089
G01 X-9.49805 Y7.03173
G01 X-9.52426 Y6.98257
G01 X-9.57638 Y6.87804
G01 X-9.59464 Y6.83898
G01 X-9.61046 Y6.79992
G01 X-9.64954 Y6.69539
G01 X-9.66064 Y6.66323
G01 X-9.66988 Y6.63108
G01 X-9.69691 Y6.52655
G01 X-9.70332 Y6.49886
G01 X-9.70821 Y6.47117
G01 X-9.72383 Y6.36665
G01 X-9.72693 Y6.34143
G01 X-9.72870 Y6.31621
G01 X-9.73326 Y6.21169
G01 X-9.73369 Y6.18718
G01 X-9.73284 Y6.16267
G01 X-9.72675 Y6.06317
G01 X-9.72394 Y6.03288
G01 X-9.71978 Y6.00212
G01 X-9.70312 Y5.90262
G01 X-9.69761 Y5.87433
G01 X-9.69055 Y5.84605
G01 X-9.66156 Y5.74152
G01 X-9.65141 Y5.70840
G01 X-9.63933 Y5.67528
G01 X-9.60966 Y5.59998
G01 X-9.62416 Y5.56642
G01 X-9.63473 Y5.53912
G01 X-9.63837 Y5.52912
G01 X-9.64726 Y5.50308
G01 X-9.65499 Y5.47704
G01 X-9.67990 Y5.39556
G01 X-9.68804 Y5.36627
G01 X-9.69455 Y5.33698
G01 X-9.71487 Y5.23245
G01 X-9.71923 Y5.20643
G01 X-9.72220 Y5.18041
G01 X-9.73135 Y5.07589
G01 X-9.73285 Y5.05129
G01 X-9.73307 Y5.02670
G01 X-9.73124 Y4.92217
G01 X-9.73015 Y4.89729
G01 X-9.72776 Y4.87241
G01 X-9.71492 Y4.76788
G01 X-9.71089 Y4.74099
G01 X-9.70541 Y4.71410
G01 X-9.68128 Y4.60957
G01 X-9.67328 Y4.57874
G01 X-9.66354 Y4.54791
G01 X-9.62755 Y4.44337
G01 X-9.61366 Y4.40631
G01 X-9.59645 Y4.36698
G01 X-9.57653 Y4.32068
G01 X-9.57186 Y4.31068
G01 X-9.52547 Y4.21814
G01 X-9.49937 Y4.17215
G01 X-9.43656 Y4.06762
G01 X-9.41810 Y4.03784
G01 X-9.39850 Y4.00805
G01 X-9.37776 Y3.97827
G01 X-9.35589 Y3.94849
G01 X-9.27712 Y3.84396
G01 X-9.24655 Y3.80456
G01 X-9.21421 Y3.76516
G01 X-9.18011 Y3.72576
G01 X-9.14425 Y3.68635
G01 X-9.04678 Y3.58183
G01 X-8.99529 Y3.52818
G01 X-8.94088 Y3.47453
G01 X-8.88355 Y3.42089
G01 X-8.82330 Y3.36724
G01 X-8.70306 Y3.26272
G01 X-8.65893 Y3.22492
G01 X-8.61348 Y3.18713
G01 X-8.56673 Y3.14934
G01 X-8.51866 Y3.11155
G01 X-8.41859 Y3.03597
G01 X-8.31327 Y2.96038
G01 X-8.16399 Y2.85585
G01 X-8.07775 Y2.79650
G01 X-7.98853 Y2.73715
G01 X-7.89635 Y2.67780
G01 X-7.80120 Y2.61845
G01 X-7.74848 Y2.56808
G01 X-7.69454 Y2.51771
G01 X-7.63939 Y2.46734
G01 X-7.58303 Y2.41697
G01 X-7.51236 Y2.42184
G01 X-7.44170 Y2.42775
G01 X-7.37103 Y2.43473
G01 X-7.30036 Y2.44275
G01 X-7.18754 Y2.43319
G01 X-7.07472 Y2.42630
G01 X-6.96191 Y2.42207
G01 X-6.84909 Y2.42050
G01 X-6.76481 Y2.39674
G01 X-6.68053 Y2.37459
G01 X-6.59626 Y2.35405
G01 X-6.51198 Y2.33512
G01 X-6.42770 Y2.31781
G01 X-6.34342 Y2.30211
G01 X-6.25915 Y2.28803
G01 X-6.17487 Y2.27556
G01 X-6.09059 Y2.26470
G01 X-6.00631 Y2.25546
G01 X-5.92203 Y2.24783
G01 X-5.83776 Y2.24181
G01 X-5.75348 Y2.23741
G01 X-5.66920 Y2.23462
G01 X-5.58492 Y2.23345
G01 X-5.50064 Y2.23389
G01 X-5.41637 Y2.23594
G01 X-5.33209 Y2.23961
G01 X-5.24781 Y2.24488
G01 X-5.16353 Y2.25178
G01 X-5.07925 Y2.26028
G01 X-4.99498 Y2.27040
G01 X-4.91070 Y2.28214
G01 X-4.82642 Y2.29548
G01 X-4.74214 Y2.31045
G01 X-4.65787 Y2.32702
G01 X-4.57359 Y2.34521
G01 X-4.48931 Y2.36501
G01 X-4.40503 Y2.38643
G01 X-4.32075 Y2.40945
G01 X-4.23648 Y2.43410
G01 X-4.15220 Y2.46035
G01 X-4.02983 Y2.45582
G01 X-3.90746 Y2.45438
G01 X-3.79804 Y2.41460
G01 X-3.68861 Y2.37765
G01 X-3.57918 Y2.34352
G01 X-3.46976 Y2.31221
G01 X-3.36033 Y2.28373
G01 X-3.25091 Y2.25806
G01 X-3.14148 Y2.23522
G01 X-3.03206 Y2.21520
G01 X-2.92263 Y2.19801
G01 X-2.81320 Y2.18363
G01 X-2.70378 Y2.17208
G01 X-2.59435 Y2.16335
G01 X-2.48493 Y2.15744
G01 X-2.37550 Y2.15435
G01 X-2.26607 Y2.15409
G01 X-2.15665 Y2.15665
G01 X-2.08954 Y2.23008
G01 X-2.02480 Y2.30352
G01 X-1.96242 Y2.37695
G01 X-1.90241 Y2.45039
G01 X-1.84477 Y2.52382
G01 X-1.78950 Y2.59726
G01 X-1.73659 Y2.67069
G01 X-1.68606 Y2.74413
G01 X-1.63788 Y2.81756
G01 X-1.59208 Y2.89100
G01 X-1.54864 Y2.96443
G01 X-1.50757 Y3.03787
G01 X-1.46887 Y3.11130
G01 X-1.43253 Y3.18474
G01 X-1.39856 Y3.25817
G01 X-1.36696 Y3.33161
G01 X-1.34625 Y3.38161
G01 X-1.32452 Y3.43565
G01 X-1.30409 Y3.48969
G01 X-1.28496 Y3.54373
G01 X-1.26713 Y3.59778
G01 X-1.25060 Y3.65182
G01 X-1.23538 Y3.70586
G01 X-1.22146 Y3.75990
G01 X-1.20884 Y3.81395
G01 X-1.58508 Y4.13234
G01 X-1.63047 Y4.17003
G01 X-1.67482 Y4.20539
G01 X-1.83015 Y4.32662
G01 X-1.86199 Y4.35070
G01 X-1.89344 Y4.37298
G01 X-1.97387 Y4.42796
G01 X-2.00000 Y4.44505
G01 X-2.02613 Y4.46059
G01 X-2.08131 Y4.49177
G01 X-2.12920 Y4.51786
G01 X-2.15204 Y4.53104
G01 X-2.17388 Y4.54521
G01 X-2.21769 Y4.57531
G01 X-2.23694 Y4.58929
G01 X-2.25530 Y4.60415
G01 X-2.29516 Y4.63820
G01 X-2.31204 Y4.65339
G01 X-2.32808 Y4.66943
G01 X-2.36407 Y4.70735
G01 X-2.37944 Y4.72443
G01 X-2.39396 Y4.74237
G01 X-2.42605 Y4.78419
G01 X-2.44052 Y4.80413
G01 X-2.45406 Y4.82499
G01 X-2.48215 Y4.87082
G01 X-2.49607 Y4.89498
G01 X-2.50892 Y4.92023
G01 X-2.53279 Y4.97027
G01 X-2.54629 Y5.00067
G01 X-2.55845 Y5.03242
G01 X-2.57778 Y5.08701
G01 X-2.59060 Y5.12661
G01 X-2.60164 Y5.16800
G01 X-2.61595 Y5.22760
G01 X-2.62318 Y5.26016
G01 X-2.63159 Y5.33634
G01 X-2.63532 Y5.36774
G01 X-2.63996 Y5.39965
G01 X-2.65316 Y5.48326
G01 X-2.66543 Y5.56400
G01 X-2.67213 Y5.60519
G01 X-2.67984 Y5.64730
G01 X-2.69058 Y5.70309
G01 X-2.74216 Y5.97702
G01 X-2.76489 Y6.09027
G01 X-2.99155 Y7.16279
G01 X-3.00340 Y7.21861
G01 X-3.04554 Y7.41255
G01 X-3.06483 Y7.49953
G04 P0 ( dwell for no time -- G64 should not smooth over this point )
G00 Z0.08000 ( retract )

G00 X-3.34281 Y7.48824 ( rapid move to begin. )
G01 F3.00000
( Mill infeed pass 1/1 )
G01 Z-0.00800
G04 P0 ( dwell for no time -- G64 should not smooth over this point )
G01 F6.00000
G01 X-3.34281 Y7.48824
G01 X-3.39658 Y6.85028
G01 X-3.46521 Y6.05307
G01 X-3.49516 Y5.71697
G01 X-3.49739 Y5.69039
G01 X-3.50000 Y5.65575
G01 X-3.50000 Y5.36418
G01 X-3.49686 Y5.32917
G01 X-3.49295 Y5.29491
G01 X-3.47649 Y5.15837
G01 X-3.46451 Y5.05229
G01 X-3.45436 Y4.95562
G01 X-3.44499 Y4.85900
G01 X-3.43487 Y4.74505
G01 X-3.42484 Y4.62197
G01 X-3.41161 Y4.44634
G01 X-3.41161 Y4.37626
G01 X-3.41302 Y4.29971
G01 X-3.41725 Y4.22035
G01 X-3.42431 Y4.13816
G01 X-3.43419 Y4.05316
G01 X-3.44689 Y3.96533
G01 X-3.46241 Y3.87467
G01 X-3.48076 Y3.78120
G01 X-3.50192 Y3.68490
G01 X-3.52591 Y3.58578
G01 X-3.55272 Y3.48384
G01 X-3.58236 Y3.37908
G01 X-3.61481 Y3.27149
G01 X-3.65009 Y3.16108
G01 X-3.68819 Y3.04785
G01 X-3.72912 Y2.93180
G01 X-3.77286 Y2.81292
G01 X-3.90746 Y2.45438
G04 P0 ( dwell for no time -- G64 should not smooth over this point )
G00 Z0.08000 ( retract )

G00 X-4.15220 Y2.46035 ( rapid move to begin. )
G01 F3.00000
( Mill infeed pass 1/1 )
G01 Z-0.00800
G04 P0 ( dwell for no time -- G64 should not smooth over this point )
G01 F6.00000
G01 X-4.15220 Y2.46035
G01 X-4.35654 Y3.22517
G01 X-4.39013 Y3.35625
G01 X-4.41979 Y3.48341
G01 X-4.44554 Y3.60665
G01 X-4.46736 Y3.72597
G01 X-4.47680 Y3.78415
G01 X-4.48527 Y3.84136
G01 X-4.49275 Y3.89759
G01 X-4.49925 Y3.95284
G01 X-4.50477 Y4.00711
G01 X-4.50931 Y4.06039
G01 X-4.51287 Y4.11270
G01 X-4.51545 Y4.16403
G01 X-4.50484 Y4.28303
G01 X-4.50261 Y4.30950
G01 X-4.50000 Y4.34424
G01 X-4.50000 Y4.63582
G01 X-4.50314 Y4.67083
G01 X-4.50705 Y4.70508
G01 X-4.52437 Y4.84905
G01 X-4.53625 Y4.95469
G01 X-4.54632 Y5.05109
G01 X-4.55565 Y5.14793
G01 X-4.56513 Y5.25495
G01 X-4.57583 Y5.38657
G01 X-4.58971 Y5.57060
G01 X-4.59530 Y5.63065
G01 X-4.60468 Y5.71855
G01 X-4.60237 Y5.76884
G01 X-4.59894 Y5.82025
G01 X-4.59441 Y5.87277
G01 X-4.58876 Y5.92640
G01 X-4.58200 Y5.98115
G01 X-4.57413 Y6.03700
G01 X-4.56515 Y6.09397
G01 X-4.55506 Y6.15205
G01 X-4.30278 Y7.54088
G04 P0 ( dwell for no time -- G64 should not smooth over this point )
G00 Z0.08000 ( retract )

G00 X-5.52069 Y7.65750 ( rapid move to begin. )
G01 F3.00000
( Mill infeed pass 1/1 )
G01 Z-0.00800
G04 P0 ( dwell for no time -- G64 should not smooth over this point )
G01 F6.00000
G01 X-5.52069 Y7.65750
G01 X-5.74299 Y5.74299
G01 X-5.74806 Y5.70416
G01 X-5.75414 Y5.66633
G01 X-5.83255 Y5.22167
G01 X-5.83083 Y5.18847
G01 X-5.83079 Y5.15695
G01 X-5.83104 Y5.14758
G01 X-5.83229 Y5.12287
G01 X-5.83472 Y5.09933
G01 X-5.83584 Y5.09084
G01 X-5.83874 Y5.07238
G01 X-5.84246 Y5.05475
G01 X-5.84432 Y5.04701
G01 X-5.85260 Y5.01890
G01 X-5.85511 Y5.01181
G01 X-5.86446 Y4.98917
G01 X-5.86756 Y4.98267
G01 X-5.87775 Y4.96385
G01 X-5.88140 Y4.95790
G01 X-5.89243 Y4.94183
G01 X-5.89661 Y4.93639
G01 X-5.90864 Y4.92230
G01 X-5.91332 Y4.91737
G01 X-5.92661 Y4.90475
G01 X-5.93180 Y4.90033
G01 X-5.94678 Y4.88884
G01 X-5.95247 Y4.88493
G01 X-5.96982 Y4.87431
G01 X-5.97605 Y4.87093
G01 X-5.99373 Y4.86236
G01 X-6.00340 Y4.85808
G01 X-6.03348 Y4.84396
G01 X-6.04479 Y4.83220
G01 X-6.05566 Y4.81951
G01 X-6.06611 Y4.80590
G01 X-6.07612 Y4.79136
G01 X-6.08570 Y4.77590
G01 X-6.09484 Y4.75950
G01 X-6.11184 Y4.72393
G01 X-6.12711 Y4.68466
G01 X-6.14064 Y4.64167
G01 X-6.15245 Y4.59498
G01 X-6.16253 Y4.54458
G01 X-6.21104 Y4.26947
G01 X-6.22559 Y4.19486
G01 X-6.24352 Y4.11686
G01 X-6.26484 Y4.03548
G01 X-6.28954 Y3.95071
G01 X-6.31762 Y3.86257
G01 X-6.34909 Y3.77103
G01 X-6.38394 Y3.67612
G01 X-6.42218 Y3.57782
G01 X-6.75104 Y2.75425
G01 X-6.84909 Y2.42050
G04 P0 ( dwell for no time -- G64 should not smooth over this point )
G00 Z0.08000 ( retract )

G00 X-7.30036 Y2.44275 ( rapid move to begin. )
G01 F3.00000
( Mill infeed pass 1/1 )
G01 Z-0.00800
G04 P0 ( dwell for no time -- G64 should not smooth over this point )
G01 F6.00000
G01 X-7.30036 Y2.44275
G01 X-7.32523 Y3.47341
G01 X-7.33014 Y3.61818
G01 X-7.33770 Y3.75566
G01 X-7.34248 Y3.82167
G01 X-7.34792 Y3.88585
G01 X-7.35402 Y3.94822
G01 X-7.36078 Y4.00876
G01 X-7.36821 Y4.06748
G01 X-7.37630 Y4.12437
G01 X-7.38506 Y4.17945
G01 X-7.39447 Y4.23270
G01 X-7.40455 Y4.28413
G01 X-7.41530 Y4.33374
G01 X-7.42671 Y4.38153
G01 X-7.43878 Y4.42749
G01 X-7.47286 Y4.55132
G01 X-7.48375 Y4.59369
G01 X-7.49279 Y4.63499
G01 X-7.49998 Y4.67523
G01 X-7.50533 Y4.71440
G01 X-7.50883 Y4.75251
G01 X-7.51049 Y4.78955
G01 X-7.51030 Y4.82552
G01 X-7.50826 Y4.86043
G01 X-7.48294 Y5.15419
G01 X-7.47900 Y5.19018
G01 X-7.47327 Y5.22719
G01 X-7.42983 Y5.47352
G01 X-7.42348 Y5.51289
G01 X-7.41809 Y5.55342
G01 X-7.41368 Y5.59510
G01 X-7.41024 Y5.63794
G01 X-7.40776 Y5.68194
G01 X-7.40626 Y5.72709
G01 X-7.40572 Y5.77340
G01 X-7.40616 Y5.82086
G01 X-7.41343 Y6.20028
G04 P0 ( dwell for no time -- G64 should not smooth over this point )
G00 Z0.08000 ( retract )

G00 X-8.30164 Y5.60077 ( rapid move to begin. )
G01 F3.00000
( Mill infeed pass 1/1 )
G01 Z-0.00800
G04 P0 ( dwell for no time -- G64 should not smooth over this point )
G01 F6.00000
G01 X-8.30164 Y5.60077
G01 X-8.31006 Y5.56383
G01 X-8.31709 Y5.52797
G01 X-8.32273 Y5.49319
G01 X-8.32698 Y5.45949
G01 X-8.33527 Y5.38236
G01 X-8.33834 Y5.33968
G01 X-8.34101 Y5.26326
G01 X-8.34241 Y5.23989
G01 X-8.34498 Y5.21718
G01 X-8.36067 Y5.10554
G01 X-8.36330 Y5.08976
G01 X-8.36669 Y5.07441
G01 X-8.36822 Y5.06826
G01 X-8.37322 Y5.04346
G01 X-8.37581 Y5.01875
G01 X-8.37601 Y4.99412
G01 X-8.37380 Y4.96957
G01 X-8.36997 Y4.94198
G01 X-8.36835 Y4.93167
G01 X-8.35086 Y4.83247
G01 X-8.34790 Y4.81258
G01 X-8.34595 Y4.79211
G01 X-8.33784 Y4.67610
G01 X-8.33700 Y4.66110
G01 X-8.33504 Y4.61452
G01 X-8.33350 Y4.58914
G01 X-8.33100 Y4.56310
G01 X-8.32753 Y4.53641
G01 X-8.32309 Y4.50906
G01 X-8.30206 Y4.40784
G01 X-8.27474 Y4.28341
G01 X-8.25502 Y4.20816
G01 X-8.23153 Y4.12898
G01 X-8.12500 Y3.78859
G01 X-8.09908 Y3.70388
G01 X-8.07316 Y3.61538
G01 X-7.96863 Y3.25085
G01 X-7.92182 Y3.08288
G01 X-7.87500 Y2.90550
G01 X-7.80120 Y2.61845
G04 P0 ( dwell for no time -- G64 should not smooth over this point )
G00 Z0.08000 ( retract )

G00 X-8.85375 Y4.74022 ( rapid move to begin. )
G01 F3.00000
( Mill infeed pass 1/1 )
G01 Z-0.00800
G04 P0 ( dwell for no time -- G64 should not smooth over this point )
G01 F6.00000
G01 X-8.85375 Y4.74022
G01 X-8.86873 Y4.73086
G01 X-8.92756 Y4.70944
G01 X-8.98955 Y4.70073
G01 X-9.05200 Y4.70510
G01 X-9.09906 Y4.71859
G01 X-8.98706 Y4.85207
G01 X-8.85375 Y4.74022
G04 P0 ( dwell for no time -- G64 should not smooth over this point )
G00 Z0.08000 ( retract )

G00 X-9.14793 Y4.98706 ( rapid move to begin. )
G01 F3.00000
( Mill infeed pass 1/1 )
G01 Z-0.00800
G04 P0 ( dwell for no time -- G64 should not smooth over this point )
G01 F6.00000
G01 X-9.14793 Y4.98706
G01 X-9.28123 Y5.09891
G01 X-9.28785 Y5.08254
G01 X-9.29872 Y5.02089
G01 X-9.29653 Y4.95832
G01 X-9.28139 Y4.89758
G01 X-9.25993 Y4.85358
G01 X-9.14793 Y4.98706
G04 P0 ( dwell for no time -- G64 should not smooth over this point )
G00 Z0.08000 ( retract )

G00 X-8.90094 Y5.28141 ( rapid move to begin. )
G01 F3.00000
( Mill infeed pass 1/1 )
G01 Z-0.00800
G04 P0 ( dwell for no time -- G64 should not smooth over this point )
G01 F6.00000
G01 X-8.90094 Y5.28141
G01 X-8.94800 Y5.29490
G01 X-9.01045 Y5.29927
G01 X-9.07244 Y5.29055
G01 X-9.13127 Y5.26914
G01 X-9.14625 Y5.25978
G01 X-9.01294 Y5.14793
G01 X-8.90094 Y5.28141
G04 P0 ( dwell for no time -- G64 should not smooth over this point )
G00 Z0.08000 ( retract )

G00 X-8.70128 Y4.97911 ( rapid move to begin. )
G01 F3.00000
( Mill infeed pass 1/1 )
G01 Z-0.00800
G04 P0 ( dwell for no time -- G64 should not smooth over this point )
G01 F6.00000
G01 X-8.70128 Y4.97911
G01 X-8.71215 Y4.91746
G01 X-8.71877 Y4.90109
G01 X-8.85207 Y5.01294
G01 X-8.74007 Y5.14642
G01 X-8.71861 Y5.10242
G01 X-8.70346 Y5.04167
G01 X-8.70128 Y4.97911
G04 P0 ( dwell for no time -- G64 should not smooth over this point )
G00 Z0.08000 ( retract )

G00 X-6.75104 Y2.75425 ( rapid move to begin. )
G01 F3.00000
( Mill infeed pass 1/1 )
G01 Z-0.00800
G04 P0 ( dwell for no time -- G64 should not smooth over this point )
G01 F6.00000
G01 X-6.75104 Y2.75425
G01 X-6.65148 Y4.69621
G01 X-6.65104 Y4.73397
G01 X-6.65368 Y4.77030
G01 X-6.65615 Y4.78793
G01 X-6.65939 Y4.80520
G01 X-6.66340 Y4.82211
G01 X-6.66818 Y4.83866
G01 X-6.77853 Y5.18865
G01 X-6.78318 Y5.20539
G01 X-6.78664 Y5.22234
G01 X-6.78891 Y5.23951
G01 X-6.78999 Y5.25688
G01 X-6.79747 Y5.52708
G01 X-6.79968 Y5.57872
G01 X-6.80357 Y5.63394
G01 X-6.80912 Y5.69275
G01 X-6.81635 Y5.75513
G01 X-6.82524 Y5.82109
G01 X-6.83581 Y5.89064
G01 X-6.84804 Y5.96377
G01 X-6.86194 Y6.04048
G01 X-6.87752 Y6.12077
G01 X-6.89476 Y6.20464
G01 X-6.91367 Y6.29209
G01 X-6.93426 Y6.38312
G01 X-6.98043 Y6.57593
G01 X-7.03329 Y6.78306
G01 X-7.13678 Y6.63008
G01 X-8.91125 Y6.22049
G01 X-8.91012 Y6.21286
G01 X-8.90893 Y6.20159
G01 X-8.90941 Y6.19390
G01 X-8.91059 Y6.18262
G01 X-8.91266 Y6.17520
G01 X-8.91615 Y6.16441
G01 X-8.91972 Y6.15758
G01 X-8.92539 Y6.14775
G01 X-8.93031 Y6.14181
G01 X-8.93788 Y6.13338
G01 X-8.94393 Y6.12859
G01 X-8.95309 Y6.12192
G01 X-8.95999 Y6.11850
G01 X-8.97035 Y6.11388
G01 X-8.97956 Y6.11146
G01 X-8.98890 Y6.10959
G01 X-8.99660 Y6.10927
G01 X-9.00794 Y6.10926
G01 X-9.01553 Y6.11055
G01 X-9.02663 Y6.11289
G01 X-9.03380 Y6.11573
G01 X-9.04416 Y6.12033
G01 X-9.05058 Y6.12460
G01 X-9.05976 Y6.13126
G01 X-9.06514 Y6.13676
G01 X-9.07274 Y6.14518
G01 X-9.07688 Y6.15170
G01 X-9.08255 Y6.16151
G01 X-9.08524 Y6.16873
G01 X-9.08875 Y6.17951
G01 X-9.08987 Y6.18713
G01 X-9.09107 Y6.19841
G01 X-9.09058 Y6.20611
G01 X-9.08941 Y6.21738
G01 X-9.08734 Y6.22480
G01 X-9.08384 Y6.23559
G01 X-9.08027 Y6.24242
G01 X-9.07461 Y6.25224
G01 X-9.06969 Y6.25819
G01 X-9.06212 Y6.26661
G01 X-9.05607 Y6.27140
G01 X-9.04691 Y6.27807
G01 X-9.04001 Y6.28150
G01 X-9.02965 Y6.28612
G01 X-9.02044 Y6.28853
G01 X-9.01110 Y6.29040
G01 X-9.00340 Y6.29073
G01 X-8.99206 Y6.29074
G01 X-8.98446 Y6.28945
G01 X-8.97337 Y6.28710
G01 X-8.96619 Y6.28426
G01 X-8.95584 Y6.27966
G01 X-8.94942 Y6.27540
G01 X-8.94024 Y6.26874
G01 X-8.93485 Y6.26324
G01 X-8.92726 Y6.25481
G01 X-8.92312 Y6.24830
G01 X-8.91745 Y6.23849
G01 X-8.91476 Y6.23126
G01 X-8.91125 Y6.22049
G01 X-8.91012 Y6.21286
G01 X-8.90893 Y6.20159
G01 X-8.90941 Y6.19390
G01 X-8.91059 Y6.18262
G01 X-8.91266 Y6.17520
G01 X-8.91615 Y6.16441
G01 X-8.91972 Y6.15758
G01 X-8.92539 Y6.14775
G01 X-8.93031 Y6.14181
G01 X-8.93788 Y6.13338
G01 X-8.94393 Y6.12859
G01 X-8.95309 Y6.12192
G01 X-8.95999 Y6.11850
G01 X-8.97035 Y6.11388
G01 X-8.97956 Y6.11146
G01 X-8.86160 Y5.60049
G04 P0 ( dwell for no time -- G64 should not smooth over this point )
G00 Z0.08000 ( retract )

G00 X-9.26895 Y7.36515 ( rapid move to begin. )
G01 F3.00000
( Mill infeed pass 1/1 )
G01 Z-0.00800
G04 P0 ( dwell for no time -- G64 should not smooth over this point )
G01 F6.00000
G01 X-9.26895 Y7.36515
G01 X-9.02044 Y6.28853
G01 X-9.02965 Y6.28612
G01 X-9.04001 Y6.28150
G01 X-9.04691 Y6.27807
G01 X-9.05607 Y6.27140
G01 X-9.06212 Y6.26661
G01 X-9.06969 Y6.25819
G01 X-9.07461 Y6.25224
G01 X-9.08027 Y6.24242
G01 X-9.08384 Y6.23559
G01 X-9.08734 Y6.22480
G01 X-9.08941 Y6.21738
G01 X-9.09058 Y6.20611
G01 X-9.09107 Y6.19841
G01 X-9.08987 Y6.18713
G01 X-9.08875 Y6.17951
G01 X-9.72394 Y6.03288
G04 P0 ( dwell for no time -- G64 should not smooth over this point )
G00 Z0.08000 ( retract )

G00 X-9.60966 Y5.59998 ( rapid move to begin. )
G01 F3.00000
( Mill infeed pass 1/1 )
G01 Z-0.00800
G04 P0 ( dwell for no time -- G64 should not smooth over this point )
G01 F6.00000
G01 X-9.60966 Y5.59998
G01 X-9.56798 Y5.59888
G01 X-9.53656 Y5.59861
G01 X-9.50623 Y5.59945
G01 X-9.48356 Y5.60052
G01 X-9.46008 Y5.60121
G01 X-9.43721 Y5.60105
G01 X-9.35706 Y5.59895
G01 X-9.33481 Y5.59890
G01 X-9.29270 Y5.60100
G01 X-9.27436 Y5.60100
G01 X-9.19833 Y5.59900
G01 X-9.16992 Y5.59972
G01 X-9.16286 Y5.60028
G01 X-9.13724 Y5.60096
G01 X-9.06357 Y5.59903
G01 X-9.04179 Y5.59960
G01 X-9.03160 Y5.60040
G01 X-9.01037 Y5.60096
G01 X-8.93724 Y5.59904
G01 X-8.91503 Y5.59963
G01 X-8.90562 Y5.60037
G01 X-8.88204 Y5.60097
G01 X-8.80761 Y5.59902
G01 X-8.77780 Y5.59983
G01 X-8.75678 Y5.60103
G01 X-8.73963 Y5.60101
G01 X-8.66207 Y5.59898
G01 X-8.64223 Y5.59892
G01 X-8.62192 Y5.59974
G01 X-8.61350 Y5.60026
G01 X-8.58909 Y5.60121
G01 X-8.56386 Y5.60108
G01 X-8.55079 Y5.60073
G01 X-8.52676 Y5.60142
G01 X-8.50206 Y5.60121
G01 X-8.43591 Y5.59905
G01 X-8.39033 Y5.60077
G01 X-8.35359 Y5.60155
G01 X-8.31548 Y5.60113
G01 X-8.30164 Y5.60077
G01 X-8.26270 Y5.62833
G01 X-8.17825 Y5.68474
G01 X-8.15207 Y5.70169
G01 X-8.12500 Y5.71814
G01 X-8.07550 Y5.74730
G01 X-8.04577 Y5.76538
G01 X-8.01603 Y5.78458
G01 X-7.98630 Y5.80490
G01 X-7.95656 Y5.82634
G01 X-7.87500 Y5.88669
G01 X-7.85174 Y5.90360
G01 X-7.67274 Y6.03142
G01 X-7.60538 Y6.07799
G01 X-7.53417 Y6.12422
G01 X-7.41343 Y6.20028
G01 X-7.31920 Y6.35372
G01 X-7.28506 Y6.40803
G01 X-7.24923 Y6.46256
G01 X-7.13678 Y6.63008
G01 X-7.03329 Y6.78306
G01 X-7.01084 Y6.83497
G01 X-6.95852 Y6.95822
G01 X-6.93709 Y7.00959
G01 X-6.73620 Y7.49925
G01 X-6.70223 Y7.58064
G01 X-6.66671 Y7.66296
G01 X-6.65552 Y7.68847

G04 P0 ( dwell for no time -- G64 should not smooth over this point )
G00 Z1.000000 ( retract )

M5 ( Spindle off. )
G04 P1.000000
M9 ( Coolant off. )
M2 ( Program end. )

