( pcb2gcode 2.5.0 )
( Software-independent Gcode )

G94 ( Inches per minute feed rate. )
G20 ( Units == INCHES. )

G90 ( Absolute coordinates. )
G00 S30000 ( RPM spindle speed. )
G64 P0.00040 ( set maximum deviation from commanded toolpath )
G01 F6.00000 ( Feedrate. )


G00 Z1.00000 (Retract to tool change height)
T1
M5      (Spindle stop.)
G04 P1.00000 (Wait for spindle to stop)
(MSG, Change tool bit to mill diameter 0.20000in)
M6      (Tool change.)
M0      (Temporary machine stop.)
M3 ( Spindle on clockwise. )
G04 P1.00000 (Wait for spindle to get up to speed)
G04 P0 ( dwell for no time -- G64 should not smooth over this point )
G00 Z0.08000 ( retract )

G00 X0.33250 Y-0.33250 ( rapid move to begin. )
G01 F3.00000
( Mill infeed pass 1/1 )
G01 Z-0.00800
G04 P0 ( dwell for no time -- G64 should not smooth over this point )
G01 F6.00000
G01 X0.33250 Y-0.33250
G01 X0.33250 Y10.33250
G01 X-10.33250 Y10.33250
G01 X-10.33250 Y-0.33250
G01 X0.33250 Y-0.33250
G04 P0 ( dwell for no time -- G64 should not smooth over this point )
G00 Z0.08000 ( retract )

G00 X-1.20913 Y3.81265 ( rapid move to begin. )
G01 F3.00000
( Mill infeed pass 1/1 )
G01 Z-0.00800
G04 P0 ( dwell for no time -- G64 should not smooth over this point )
G01 F6.00000
G01 X-1.20913 Y3.81265
G01 X-1.18502 Y3.85864
G01 X-1.15702 Y3.91440
G01 X-1.15103 Y3.92670
G01 X-1.12537 Y3.98110
G01 X-1.11975 Y3.99340
G01 X-1.09644 Y4.04613
G01 X-1.09123 Y4.05833
G01 X-1.07002 Y4.10968
G01 X-1.06511 Y4.12198
G01 X-1.04582 Y4.17213
G01 X-1.04130 Y4.18433
G01 X-1.02385 Y4.23323
G01 X-1.01963 Y4.24553
G01 X-1.00381 Y4.29355
G01 X-0.99996 Y4.30575
G01 X-0.98576 Y4.35269
G01 X-0.98223 Y4.36489
G01 X-0.96950 Y4.41102
G01 X-0.96627 Y4.42332
G01 X-0.95485 Y4.46902
G01 X-0.95194 Y4.48132
G01 X-0.94187 Y4.52631
G01 X-0.93928 Y4.53861
G01 X-0.93053 Y4.58279
G01 X-0.92827 Y4.59499
G01 X-0.92072 Y4.63867
G01 X-0.91875 Y4.65097
G01 X-0.91233 Y4.69444
G01 X-0.91067 Y4.70674
G01 X-0.90539 Y4.74987
G01 X-0.90403 Y4.76217
G01 X-0.89986 Y4.80490
G01 X-0.89881 Y4.81720
G01 X-0.89571 Y4.85977
G01 X-0.89497 Y4.87206
G01 X-0.89293 Y4.91442
G01 X-0.89249 Y4.92672
G01 X-0.89150 Y4.96882
G01 X-0.89136 Y4.98102
G01 X-0.89140 Y5.02315
G01 X-0.89156 Y5.03545
G01 X-0.89263 Y5.07754
G01 X-0.89309 Y5.08974
G01 X-0.89521 Y5.13195
G01 X-0.89597 Y5.14425
G01 X-0.89914 Y5.18677
G01 X-0.90021 Y5.19907
G01 X-0.90448 Y5.24193
G01 X-0.90585 Y5.25423
G01 X-0.91121 Y5.29735
G01 X-0.91290 Y5.30964
G01 X-0.91939 Y5.35305
G01 X-0.92138 Y5.36535
G01 X-0.92902 Y5.40912
G01 X-0.93130 Y5.42132
G01 X-0.94017 Y5.46562
G01 X-0.94278 Y5.47792
G01 X-0.95293 Y5.52290
G01 X-0.95587 Y5.53519
G01 X-0.96737 Y5.58092
G01 X-0.97063 Y5.59322
G01 X-0.98350 Y5.63952
G01 X-0.98705 Y5.65172
G01 X-1.00139 Y5.69879
G01 X-1.00530 Y5.71109
G01 X-1.02130 Y5.75937
G01 X-1.02555 Y5.77167
G01 X-1.04319 Y5.82079
G01 X-1.04774 Y5.83299
G01 X-1.06716 Y5.88319
G01 X-1.07210 Y5.89549
G01 X-1.09355 Y5.94712
G01 X-1.09884 Y5.95942
G01 X-1.12233 Y6.01227
G01 X-1.12793 Y6.02447
G01 X-1.15370 Y6.07879
G01 X-1.15972 Y6.09109
G01 X-1.18801 Y6.14716
G01 X-1.19441 Y6.15946
G01 X-1.22548 Y6.21744
G01 X-1.23227 Y6.22974
G01 X-1.26631 Y6.28966
G01 X-1.27350 Y6.30196
G01 X-1.31070 Y6.36385
G01 X-1.31830 Y6.37615
G01 X-1.35893 Y6.44013
G01 X-1.36689 Y6.45233
G01 X-1.41127 Y6.51858
G01 X-1.41966 Y6.53078
G01 X-1.46839 Y6.59981
G01 X-1.47730 Y6.61211
G01 X-1.53094 Y6.68428
G01 X-1.54024 Y6.69648
G01 X-1.59920 Y6.77187
G01 X-1.60906 Y6.78417
G01 X-1.67384 Y6.86294
G01 X-1.68412 Y6.87514
G01 X-1.75552 Y6.95775
G01 X-1.76642 Y6.97005
G01 X-1.84560 Y7.05725
G01 X-1.85705 Y7.06955
G01 X-1.94480 Y7.16153
G01 X-2.00484 Y7.22234
G01 X-2.06669 Y7.28315
G01 X-2.12006 Y7.33447
G01 X-2.18802 Y7.39809
G01 X-2.24737 Y7.45242
G01 X-2.32202 Y7.51895
G01 X-2.40714 Y7.59286
G01 X-2.46031 Y7.58841
G01 X-2.57740 Y7.57677
G01 X-2.58960 Y7.57540
G01 X-2.70703 Y7.56081
G01 X-2.71933 Y7.55913
G01 X-2.83838 Y7.54136
G01 X-2.85068 Y7.53937
G01 X-2.97052 Y7.51845
G01 X-3.06752 Y7.49953
G01 X-3.10556 Y7.49887
G01 X-3.22416 Y7.49498
G01 X-3.34277 Y7.48823
G01 X-3.46277 Y7.50522
G01 X-3.58277 Y7.51923
G01 X-3.70277 Y7.53027
G01 X-3.82278 Y7.53834
G01 X-3.94278 Y7.54343
G01 X-4.06278 Y7.54555
G01 X-4.18278 Y7.54470
G01 X-4.30278 Y7.54088
G01 X-4.37890 Y7.55758
G01 X-4.45502 Y7.57303
G01 X-4.53114 Y7.58723
G01 X-4.60726 Y7.60017
G01 X-4.68338 Y7.61186
G01 X-4.75950 Y7.62228
G01 X-4.83562 Y7.63146
G01 X-4.91174 Y7.63937
G01 X-4.98785 Y7.64603
G01 X-5.06397 Y7.65144
G01 X-5.14009 Y7.65559
G01 X-5.21621 Y7.65848
G01 X-5.29233 Y7.66012
G01 X-5.36845 Y7.66050
G01 X-5.44457 Y7.65963
G01 X-5.52069 Y7.65750
G01 X-5.59149 Y7.66778
G01 X-5.66230 Y7.67694
G01 X-5.73311 Y7.68500
G01 X-5.80391 Y7.69194
G01 X-5.87472 Y7.69778
G01 X-5.94552 Y7.70250
G01 X-6.01633 Y7.70611
G01 X-6.08714 Y7.70862
G01 X-6.15794 Y7.71001
G01 X-6.22875 Y7.71029
G01 X-6.29956 Y7.70946
G01 X-6.37036 Y7.70752
G01 X-6.44117 Y7.70447
G01 X-6.51198 Y7.70031
G01 X-6.58278 Y7.69504
G01 X-6.65359 Y7.68866
G01 X-6.72463 Y7.72713
G01 X-6.77877 Y7.75565
G01 X-6.84416 Y7.78919
G01 X-6.92109 Y7.82736
G01 X-6.98468 Y7.85786
G01 X-7.04761 Y7.88712
G01 X-7.09776 Y7.90977
G01 X-7.15929 Y7.93675
G01 X-7.23214 Y7.96755
G01 X-7.28029 Y7.98723
G01 X-7.34009 Y8.01091
G01 X-7.39905 Y8.03344
G01 X-7.45778 Y8.05506
G01 X-7.52799 Y8.07986
G01 X-7.58539 Y8.09927
G01 X-7.64265 Y8.11787
G01 X-7.69937 Y8.13553
G01 X-7.75556 Y8.15229
G01 X-7.81143 Y8.16822
G01 X-7.86712 Y8.18336
G01 X-7.92200 Y8.19758
G01 X-7.96486 Y8.20819
G01 X-8.01929 Y8.22105
G01 X-8.07350 Y8.23316
G01 X-8.12742 Y8.24453
G01 X-8.18098 Y8.25514
G01 X-8.23441 Y8.26506
G01 X-8.27158 Y8.27158
G01 X-8.31081 Y8.24358
G01 X-8.36525 Y8.20411
G01 X-8.43259 Y8.15417
G01 X-8.49651 Y8.10557
G01 X-8.55646 Y8.05883
G01 X-8.61313 Y8.01354
G01 X-8.66699 Y7.96941
G01 X-8.71799 Y7.92661
G01 X-8.76626 Y7.88508
G01 X-8.78011 Y7.87298
G01 X-8.82567 Y7.83252
G01 X-8.85572 Y7.80528
G01 X-8.89736 Y7.76675
G01 X-8.93692 Y7.72926
G01 X-8.94947 Y7.71716
G01 X-8.97445 Y7.69280
G01 X-9.01012 Y7.65732
G01 X-9.02209 Y7.64522
G01 X-9.05595 Y7.61041
G01 X-9.07671 Y7.58865
G01 X-9.10770 Y7.55551
G01 X-9.14818 Y7.51095
G01 X-9.16552 Y7.49139
G01 X-9.19254 Y7.46032
G01 X-9.22844 Y7.41779
G01 X-9.25289 Y7.38797
G01 X-9.26951 Y7.36724
G01 X-9.28956 Y7.34174
G01 X-9.30496 Y7.32177
G01 X-9.32464 Y7.29572
G01 X-9.35291 Y7.25722
G01 X-9.36861 Y7.23521
G01 X-9.38774 Y7.20768
G01 X-9.40127 Y7.18778
G01 X-9.41609 Y7.16552
G01 X-9.42904 Y7.14562
G01 X-9.44556 Y7.11968
G01 X-9.45818 Y7.09932
G01 X-9.47918 Y7.06432
G01 X-9.49038 Y7.04511
G01 X-9.50941 Y7.01143
G01 X-9.51983 Y6.99235
G01 X-9.53208 Y6.96929
G01 X-9.54238 Y6.94939
G01 X-9.55085 Y6.93262
G01 X-9.56065 Y6.91272
G01 X-9.56834 Y6.89670
G01 X-9.58467 Y6.86141
G01 X-9.59833 Y6.83042
G01 X-9.60565 Y6.81314
G01 X-9.61271 Y6.79601
G01 X-9.62342 Y6.76902
G01 X-9.63478 Y6.73890
G01 X-9.63955 Y6.72575
G01 X-9.65086 Y6.69318
G01 X-9.66038 Y6.66401
G01 X-9.66537 Y6.64797
G01 X-9.67100 Y6.62908
G01 X-9.67985 Y6.59767
G01 X-9.68794 Y6.56658
G01 X-9.69278 Y6.54668
G01 X-9.69698 Y6.52849
G01 X-9.70201 Y6.50513
G01 X-9.70601 Y6.48523
G01 X-9.71158 Y6.45496
G01 X-9.71691 Y6.42228
G01 X-9.72079 Y6.39491
G01 X-9.72443 Y6.36522
G01 X-9.72771 Y6.33314
G01 X-9.73041 Y6.29897
G01 X-9.73219 Y6.26722
G01 X-9.73323 Y6.23863
G01 X-9.73368 Y6.21338
G01 X-9.73373 Y6.19618
G01 X-9.73327 Y6.16289
G01 X-9.73241 Y6.13759
G01 X-9.73112 Y6.11228
G01 X-9.72999 Y6.09508
G01 X-9.72796 Y6.06983
G01 X-9.72549 Y6.04439
G01 X-9.72335 Y6.02531
G01 X-9.72062 Y6.00374
G01 X-9.71808 Y5.98562
G01 X-9.71531 Y5.96743
G01 X-9.71231 Y5.94917
G01 X-9.70905 Y5.93079
G01 X-9.70553 Y5.91225
G01 X-9.70178 Y5.89372
G01 X-9.69505 Y5.86303
G01 X-9.69064 Y5.84431
G01 X-9.68595 Y5.82549
G01 X-9.67911 Y5.79959
G01 X-9.67376 Y5.78042
G01 X-9.66810 Y5.76106
G01 X-9.65828 Y5.72939
G01 X-9.65185 Y5.70976
G01 X-9.64512 Y5.68999
G01 X-9.63514 Y5.66205
G01 X-9.62291 Y5.62967
G01 X-9.61108 Y5.59999
G01 X-9.61760 Y5.58383
G01 X-9.62577 Y5.56293
G01 X-9.63473 Y5.53912
G01 X-9.64128 Y5.52097
G01 X-9.64837 Y5.50057
G01 X-9.65487 Y5.48114
G01 X-9.66120 Y5.46143
G01 X-9.67088 Y5.42954
G01 X-9.67644 Y5.41009
G01 X-9.68170 Y5.39083
G01 X-9.68671 Y5.37154
G01 X-9.69141 Y5.35250
G01 X-9.69586 Y5.33343
G01 X-9.70005 Y5.31448
G01 X-9.70397 Y5.29563
G01 X-9.70881 Y5.27050
G01 X-9.71210 Y5.25202
G01 X-9.71517 Y5.23351
G01 X-9.71972 Y5.20289
G01 X-9.72214 Y5.18451
G01 X-9.72433 Y5.16620
G01 X-9.72629 Y5.14793
G01 X-9.72800 Y5.12980
G01 X-9.72993 Y5.10581
G01 X-9.73112 Y5.08767
G01 X-9.73209 Y5.06960
G01 X-9.73284 Y5.05152
G01 X-9.73359 Y5.02114
G01 X-9.73374 Y5.00322
G01 X-9.73360 Y4.97959
G01 X-9.73287 Y4.94924
G01 X-9.73213 Y4.93114
G01 X-9.73117 Y4.91306
G01 X-9.72998 Y4.89496
G01 X-9.72807 Y4.87093
G01 X-9.72637 Y4.85287
G01 X-9.72300 Y4.82242
G01 X-9.72067 Y4.80409
G01 X-9.71810 Y4.78571
G01 X-9.71531 Y4.76738
G01 X-9.71117 Y4.74260
G01 X-9.70778 Y4.72394
G01 X-9.70412 Y4.70516
G01 X-9.70021 Y4.68629
G01 X-9.69320 Y4.65506
G01 X-9.68859 Y4.63597
G01 X-9.68374 Y4.61692
G01 X-9.67859 Y4.59766
G01 X-9.67313 Y4.57822
G01 X-9.66514 Y4.55127
G01 X-9.65897 Y4.53153
G01 X-9.65245 Y4.51153
G01 X-9.64559 Y4.49134
G01 X-9.63839 Y4.47098
G01 X-9.63083 Y4.45043
G01 X-9.62293 Y4.42972
G01 X-9.61470 Y4.40892
G01 X-9.60604 Y4.38779
G01 X-9.59698 Y4.36646
G01 X-9.58755 Y4.34496
G01 X-9.58116 Y4.33079
G01 X-9.57113 Y4.30915
G01 X-9.56138 Y4.28876
G01 X-9.55045 Y4.26655
G01 X-9.53349 Y4.23337
G01 X-9.52119 Y4.21018
G01 X-9.50836 Y4.18668
G01 X-9.49504 Y4.16300
G01 X-9.47387 Y4.12666
G01 X-9.45917 Y4.10230
G01 X-9.44378 Y4.07750
G01 X-9.42766 Y4.05220
G01 X-9.41094 Y4.02665
G01 X-9.39343 Y4.00061
G01 X-9.37523 Y3.97422
G01 X-9.35614 Y3.94727
G01 X-9.33619 Y3.91982
G01 X-9.31535 Y3.89187
G01 X-9.29354 Y3.86336
G01 X-9.28046 Y3.84658
G01 X-9.25698 Y3.81709
G01 X-9.23246 Y3.78706
G01 X-9.19632 Y3.74409
G01 X-9.16930 Y3.71291
G01 X-9.15180 Y3.69311
G01 X-9.12217 Y3.66025
G01 X-9.11088 Y3.64795
G01 X-9.07952 Y3.61432
G01 X-9.05854 Y3.59228
G01 X-9.04679 Y3.58008
G01 X-9.01242 Y3.54500
G01 X-8.97625 Y3.50896
G01 X-8.95090 Y3.48422
G01 X-8.91114 Y3.44620
G01 X-8.89807 Y3.43390
G01 X-8.85630 Y3.39525
G01 X-8.82591 Y3.36769
G01 X-8.77997 Y3.32690
G01 X-8.73121 Y3.28467
G01 X-8.67995 Y3.24137
G01 X-8.62566 Y3.19663
G01 X-8.61049 Y3.18433
G01 X-8.55250 Y3.13805
G01 X-8.49152 Y3.09059
G01 X-8.42693 Y3.04158
G01 X-8.35860 Y2.99103
G01 X-8.28594 Y2.93864
G01 X-8.22625 Y2.89658
G01 X-8.20857 Y2.88428
G01 X-8.14450 Y2.84030
G01 X-8.12649 Y2.82810
G01 X-8.05793 Y2.78226
G01 X-8.03929 Y2.76996
G01 X-7.96534 Y2.72181
G01 X-7.94635 Y2.70961
G01 X-7.86667 Y2.65912
G01 X-7.80105 Y2.61830
G01 X-7.74836 Y2.56797
G01 X-7.69446 Y2.51763
G01 X-7.63935 Y2.46730
G01 X-7.58303 Y2.41697
G01 X-7.51236 Y2.42184
G01 X-7.44170 Y2.42775
G01 X-7.37103 Y2.43473
G01 X-7.30036 Y2.44275
G01 X-7.18754 Y2.43319
G01 X-7.07472 Y2.42630
G01 X-6.96191 Y2.42207
G01 X-6.84909 Y2.42050
G01 X-6.76481 Y2.39674
G01 X-6.68053 Y2.37459
G01 X-6.59626 Y2.35405
G01 X-6.51198 Y2.33512
G01 X-6.42770 Y2.31781
G01 X-6.34342 Y2.30211
G01 X-6.25915 Y2.28803
G01 X-6.17487 Y2.27556
G01 X-6.09059 Y2.26470
G01 X-6.00631 Y2.25546
G01 X-5.92203 Y2.24783
G01 X-5.83776 Y2.24181
G01 X-5.75348 Y2.23741
G01 X-5.66920 Y2.23462
G01 X-5.58492 Y2.23345
G01 X-5.50064 Y2.23389
G01 X-5.41637 Y2.23594
G01 X-5.33209 Y2.23961
G01 X-5.24781 Y2.24488
G01 X-5.16353 Y2.25178
G01 X-5.07925 Y2.26028
G01 X-4.99498 Y2.27040
G01 X-4.91070 Y2.28214
G01 X-4.82642 Y2.29548
G01 X-4.74214 Y2.31045
G01 X-4.65787 Y2.32702
G01 X-4.57359 Y2.34521
G01 X-4.48931 Y2.36501
G01 X-4.40503 Y2.38643
G01 X-4.32075 Y2.40945
G01 X-4.23648 Y2.43410
G01 X-4.15220 Y2.46035
G01 X-4.02983 Y2.45582
G01 X-3.90746 Y2.45438
G01 X-3.79804 Y2.41460
G01 X-3.68861 Y2.37765
G01 X-3.57918 Y2.34352
G01 X-3.46976 Y2.31221
G01 X-3.36033 Y2.28373
G01 X-3.25091 Y2.25806
G01 X-3.14148 Y2.23522
G01 X-3.03206 Y2.21520
G01 X-2.92263 Y2.19801
G01 X-2.81320 Y2.18363
G01 X-2.70378 Y2.17208
G01 X-2.59435 Y2.16335
G01 X-2.48493 Y2.15744
G01 X-2.37550 Y2.15435
G01 X-2.26607 Y2.15409
G01 X-2.15665 Y2.15665
G01 X-2.08954 Y2.23008
G01 X-2.02480 Y2.30352
G01 X-1.96242 Y2.37695
G01 X-1.90241 Y2.45039
G01 X-1.84477 Y2.52382
G01 X-1.78950 Y2.59726
G01 X-1.73659 Y2.67069
G01 X-1.68606 Y2.74413
G01 X-1.63788 Y2.81756
G01 X-1.59208 Y2.89100
G01 X-1.54864 Y2.96443
G01 X-1.50757 Y3.03787
G01 X-1.46887 Y3.11130
G01 X-1.43253 Y3.18474
G01 X-1.39856 Y3.25817
G01 X-1.36696 Y3.33161
G01 X-1.34625 Y3.38161
G01 X-1.32458 Y3.43549
G01 X-1.30420 Y3.48937
G01 X-1.28512 Y3.54325
G01 X-1.26734 Y3.59713
G01 X-1.25084 Y3.65101
G01 X-1.23564 Y3.70489
G01 X-1.22174 Y3.75877
G01 X-1.20913 Y3.81265
G01 X-1.30297 Y3.89323
G01 X-1.41862 Y3.99159
G01 X-1.52981 Y4.08501
G01 X-1.55363 Y4.10483
G01 X-1.61753 Y4.15757
G01 X-1.68867 Y4.21533
G01 X-1.74782 Y4.26237
G01 X-1.79866 Y4.30187
G01 X-1.81489 Y4.31425
G01 X-1.85803 Y4.34656
G01 X-1.89634 Y4.37436
G01 X-1.93080 Y4.39854
G01 X-1.94920 Y4.41108
G01 X-1.97865 Y4.43053
G01 X-2.00628 Y4.44804
G01 X-2.03234 Y4.46383
G01 X-2.04418 Y4.47075
G01 X-2.06867 Y4.48454
G01 X-2.10412 Y4.50346
G01 X-2.12642 Y4.51588
G01 X-2.14811 Y4.52867
G01 X-2.16911 Y4.54175
G01 X-2.17966 Y4.54859
G01 X-2.19978 Y4.56220
G01 X-2.20915 Y4.56878
G01 X-2.22816 Y4.58266
G01 X-2.24666 Y4.59687
G01 X-2.25633 Y4.60459
G01 X-2.27424 Y4.61946
G01 X-2.28238 Y4.62646
G01 X-2.29945 Y4.64169
G01 X-2.31621 Y4.65740
G01 X-2.33256 Y4.67350
G01 X-2.34848 Y4.68997
G01 X-2.36408 Y4.70692
G01 X-2.37927 Y4.72426
G01 X-2.39405 Y4.74200
G01 X-2.40857 Y4.76032
G01 X-2.42273 Y4.77911
G01 X-2.43665 Y4.79856
G01 X-2.45028 Y4.81864
G01 X-2.46361 Y4.83936
G01 X-2.47663 Y4.86073
G01 X-2.48929 Y4.88271
G01 X-2.50176 Y4.90565
G01 X-2.51394 Y4.92944
G01 X-2.51966 Y4.94112
G01 X-2.53121 Y4.96586
G01 X-2.54252 Y4.99172
G01 X-2.54856 Y5.00625
G01 X-2.55354 Y5.01866
G01 X-2.56416 Y5.04659
G01 X-2.57448 Y5.07582
G01 X-2.58444 Y5.10643
G01 X-2.59011 Y5.12504
G01 X-2.59403 Y5.13851
G01 X-2.59953 Y5.15833
G01 X-2.60314 Y5.17197
G01 X-2.60847 Y5.19316
G01 X-2.61182 Y5.20720
G01 X-2.61697 Y5.23006
G01 X-2.62323 Y5.26011
G01 X-2.62566 Y5.28267
G01 X-2.63038 Y5.32286
G01 X-2.63590 Y5.36595
G01 X-2.64236 Y5.41249
G01 X-2.64740 Y5.44673
G01 X-2.65602 Y5.50228
G01 X-2.66624 Y5.56441
G01 X-2.67840 Y5.63484
G01 X-2.69712 Y5.73808
G01 X-2.71561 Y5.83572
G01 X-2.73843 Y5.95246
G01 X-2.76715 Y6.09543
G01 X-2.79727 Y6.24183
G01 X-2.85431 Y6.51376
G01 X-2.92464 Y6.84257
G01 X-3.01647 Y7.26649
G01 X-3.06752 Y7.49953
G04 P0 ( dwell for no time -- G64 should not smooth over this point )
G00 Z0.08000 ( retract )

G00 X-3.34277 Y7.48823 ( rapid move to begin. )
G01 F3.00000
( Mill infeed pass 1/1 )
G01 Z-0.00800
G04 P0 ( dwell for no time -- G64 should not smooth over this point )
G01 F6.00000
G01 X-3.34277 Y7.48823
G01 X-3.41006 Y6.69480
G01 X-3.44588 Y6.27718
G01 X-3.46952 Y6.00555
G01 X-3.48531 Y5.82712
G01 X-3.49525 Y5.71688
G01 X-3.49779 Y5.68671
G01 X-3.50001 Y5.65676
G01 X-3.49999 Y5.36424
G01 X-3.49402 Y5.30324
G01 X-3.47873 Y5.17685
G01 X-3.46660 Y5.07071
G01 X-3.45710 Y4.98187
G01 X-3.44891 Y4.89969
G01 X-3.44475 Y4.85567
G01 X-3.43728 Y4.77226
G01 X-3.42892 Y4.67215
G01 X-3.41909 Y4.54602
G01 X-3.41161 Y4.44489
G01 X-3.41161 Y4.37626
G01 X-3.41302 Y4.29971
G01 X-3.41725 Y4.22035
G01 X-3.42431 Y4.13816
G01 X-3.43419 Y4.05316
G01 X-3.44689 Y3.96533
G01 X-3.46241 Y3.87467
G01 X-3.48076 Y3.78120
G01 X-3.50192 Y3.68490
G01 X-3.52591 Y3.58578
G01 X-3.55272 Y3.48384
G01 X-3.58236 Y3.37908
G01 X-3.61481 Y3.27149
G01 X-3.65009 Y3.16108
G01 X-3.68819 Y3.04785
G01 X-3.72912 Y2.93180
G01 X-3.77286 Y2.81292
G01 X-3.90746 Y2.45438
G04 P0 ( dwell for no time -- G64 should not smooth over this point )
G00 Z0.08000 ( retract )

G00 X-4.15220 Y2.46035 ( rapid move to begin. )
G01 F3.00000
( Mill infeed pass 1/1 )
G01 Z-0.00800
G04 P0 ( dwell for no time -- G64 should not smooth over this point )
G01 F6.00000
G01 X-4.15220 Y2.46035
G01 X-4.35654 Y3.22517
G01 X-4.39014 Y3.35628
G01 X-4.41981 Y3.48345
G01 X-4.44555 Y3.60671
G01 X-4.46738 Y3.72605
G01 X-4.47682 Y3.78424
G01 X-4.48528 Y3.84146
G01 X-4.49276 Y3.89770
G01 X-4.49926 Y3.95295
G01 X-4.50478 Y4.00723
G01 X-4.50932 Y4.06052
G01 X-4.51288 Y4.11283
G01 X-4.51545 Y4.16416
G01 X-4.50396 Y4.29219
G01 X-4.49998 Y4.34325
G01 X-4.50000 Y4.63554
G01 X-4.50400 Y4.67908
G01 X-4.50701 Y4.70551
G01 X-4.51894 Y4.80349
G01 X-4.52533 Y4.85795
G01 X-4.53603 Y4.95331
G01 X-4.54533 Y5.04194
G01 X-4.55001 Y5.08915
G01 X-4.55848 Y5.17966
G01 X-4.56738 Y5.28263
G01 X-4.57775 Y5.41241
G01 X-4.58822 Y5.55286
G01 X-4.59212 Y5.59916
G01 X-4.59527 Y5.63063
G01 X-4.60468 Y5.71843
G01 X-4.60238 Y5.76874
G01 X-4.59895 Y5.82016
G01 X-4.59442 Y5.87269
G01 X-4.58877 Y5.92634
G01 X-4.58201 Y5.98110
G01 X-4.57414 Y6.03697
G01 X-4.56515 Y6.09395
G01 X-4.55506 Y6.15205
G01 X-4.30278 Y7.54088
G04 P0 ( dwell for no time -- G64 should not smooth over this point )
G00 Z0.08000 ( retract )

G00 X-5.52069 Y7.65750 ( rapid move to begin. )
G01 F3.00000
( Mill infeed pass 1/1 )
G01 Z-0.00800
G04 P0 ( dwell for no time -- G64 should not smooth over this point )
G01 F6.00000
G01 X-5.52069 Y7.65750
G01 X-5.74299 Y5.74299
G01 X-5.74806 Y5.70416
G01 X-5.75414 Y5.66633
G01 X-5.83249 Y5.22199
G01 X-5.83085 Y5.18834
G01 X-5.83074 Y5.18357
G01 X-5.83078 Y5.15387
G01 X-5.83221 Y5.12421
G01 X-5.83483 Y5.09790
G01 X-5.83538 Y5.09364
G01 X-5.83908 Y5.07063
G01 X-5.84325 Y5.05110
G01 X-5.84688 Y5.03712
G01 X-5.85181 Y5.02105
G01 X-5.85700 Y5.00662
G01 X-5.86389 Y4.99027
G01 X-5.86982 Y4.97806
G01 X-5.87605 Y4.96665
G01 X-5.88256 Y4.95598
G01 X-5.88753 Y4.94856
G01 X-5.89450 Y4.93901
G01 X-5.90382 Y4.92760
G01 X-5.91154 Y4.91913
G01 X-5.91964 Y4.91106
G01 X-5.92832 Y4.90320
G01 X-5.93492 Y4.89771
G01 X-5.94681 Y4.88875
G01 X-5.95684 Y4.88201
G01 X-5.96470 Y4.87719
G01 X-5.97886 Y4.86941
G01 X-5.98819 Y4.86485
G01 X-6.01581 Y4.85229
G01 X-6.03368 Y4.84376
G01 X-6.04497 Y4.83200
G01 X-6.05583 Y4.81931
G01 X-6.06625 Y4.80570
G01 X-6.07625 Y4.79117
G01 X-6.08581 Y4.77571
G01 X-6.09494 Y4.75932
G01 X-6.11191 Y4.72377
G01 X-6.12715 Y4.68452
G01 X-6.14067 Y4.64157
G01 X-6.15246 Y4.59492
G01 X-6.16253 Y4.54458
G01 X-6.21104 Y4.26947
G01 X-6.22559 Y4.19486
G01 X-6.24352 Y4.11686
G01 X-6.26484 Y4.03548
G01 X-6.28954 Y3.95071
G01 X-6.31762 Y3.86257
G01 X-6.34909 Y3.77103
G01 X-6.38394 Y3.67612
G01 X-6.42218 Y3.57782
G01 X-6.75104 Y2.75425
G01 X-6.84909 Y2.42050
G04 P0 ( dwell for no time -- G64 should not smooth over this point )
G00 Z0.08000 ( retract )

G00 X-7.30036 Y2.44275 ( rapid move to begin. )
G01 F3.00000
( Mill infeed pass 1/1 )
G01 Z-0.00800
G04 P0 ( dwell for no time -- G64 should not smooth over this point )
G01 F6.00000
G01 X-7.30036 Y2.44275
G01 X-7.32523 Y3.47341
G01 X-7.33014 Y3.61818
G01 X-7.33770 Y3.75566
G01 X-7.34248 Y3.82167
G01 X-7.34792 Y3.88585
G01 X-7.35402 Y3.94822
G01 X-7.36078 Y4.00876
G01 X-7.36821 Y4.06748
G01 X-7.37630 Y4.12437
G01 X-7.38506 Y4.17945
G01 X-7.39447 Y4.23270
G01 X-7.40455 Y4.28413
G01 X-7.41530 Y4.33374
G01 X-7.42671 Y4.38153
G01 X-7.43878 Y4.42749
G01 X-7.47286 Y4.55132
G01 X-7.48375 Y4.59369
G01 X-7.49279 Y4.63499
G01 X-7.49998 Y4.67523
G01 X-7.50533 Y4.71440
G01 X-7.50883 Y4.75251
G01 X-7.51049 Y4.78955
G01 X-7.51030 Y4.82552
G01 X-7.50826 Y4.86043
G01 X-7.48294 Y5.15419
G01 X-7.47900 Y5.19018
G01 X-7.47327 Y5.22719
G01 X-7.42983 Y5.47352
G01 X-7.42348 Y5.51289
G01 X-7.41809 Y5.55342
G01 X-7.41368 Y5.59510
G01 X-7.41024 Y5.63794
G01 X-7.40776 Y5.68194
G01 X-7.40626 Y5.72709
G01 X-7.40572 Y5.77340
G01 X-7.40616 Y5.82086
G01 X-7.41343 Y6.20021
G04 P0 ( dwell for no time -- G64 should not smooth over this point )
G00 Z0.08000 ( retract )

G00 X-6.65359 Y7.68866 ( rapid move to begin. )
G01 F3.00000
( Mill infeed pass 1/1 )
G01 Z-0.00800
G04 P0 ( dwell for no time -- G64 should not smooth over this point )
G01 F6.00000
G01 X-6.65359 Y7.68866
G01 X-6.69590 Y7.58964
G01 X-6.73754 Y7.49145
G01 X-6.77654 Y7.39877
G01 X-6.81272 Y7.31206
G01 X-6.84654 Y7.23031
G01 X-6.87832 Y7.15276
G01 X-6.90815 Y7.07932
G01 X-6.94235 Y6.99422
G01 X-6.96981 Y6.92727
G01 X-6.99710 Y6.86293
G01 X-7.01770 Y6.81580
G01 X-7.03292 Y6.78167
G01 X-7.09380 Y6.69284
G01 X-7.13614 Y6.63036
G01 X-7.18404 Y6.55891
G01 X-7.23203 Y6.48633
G01 X-7.27625 Y6.41845
G01 X-7.31736 Y6.35441
G01 X-7.35564 Y6.29378
G01 X-7.38069 Y6.25355
G01 X-7.41343 Y6.20021
G01 X-7.44335 Y6.18115
G01 X-7.49647 Y6.14697
G01 X-7.57079 Y6.09839
G01 X-7.59771 Y6.08053
G01 X-7.64554 Y6.04838
G01 X-7.70924 Y6.00477
G01 X-7.75935 Y5.96956
G01 X-7.79814 Y5.94175
G01 X-7.83918 Y5.91169
G01 X-7.89012 Y5.87348
G01 X-7.91588 Y5.85443
G01 X-7.93578 Y5.84002
G01 X-7.96023 Y5.82267
G01 X-7.98013 Y5.80886
G01 X-8.00341 Y5.79303
G01 X-8.03999 Y5.76889
G01 X-8.07084 Y5.74925
G01 X-8.10653 Y5.72734
G01 X-8.14135 Y5.70657
G01 X-8.16496 Y5.69220
G01 X-8.18373 Y5.68044
G01 X-8.20076 Y5.66953
G01 X-8.23070 Y5.64968
G01 X-8.25576 Y5.63242
G01 X-8.28360 Y5.61247
G01 X-8.30034 Y5.60006
G01 X-9.61108 Y5.59999
G04 P0 ( dwell for no time -- G64 should not smooth over this point )
G00 Z0.08000 ( retract )

G00 X-9.14793 Y4.98706 ( rapid move to begin. )
G01 F3.00000
( Mill infeed pass 1/1 )
G01 Z-0.00800
G04 P0 ( dwell for no time -- G64 should not smooth over this point )
G01 F6.00000
G01 X-9.14793 Y4.98706
G01 X-9.28275 Y5.10019
G01 X-9.28667 Y5.08840
G01 X-9.28873 Y5.08142
G01 X-9.29234 Y5.06732
G01 X-9.29523 Y5.05323
G01 X-9.29746 Y5.03893
G01 X-9.29899 Y5.02446
G01 X-9.29983 Y5.00992
G01 X-9.29996 Y4.99554
G01 X-9.29976 Y4.98825
G01 X-9.29885 Y4.97382
G01 X-9.29812 Y4.96657
G01 X-9.29618 Y4.95232
G01 X-9.29353 Y4.93809
G01 X-9.29018 Y4.92392
G01 X-9.28618 Y4.91001
G01 X-9.28153 Y4.89639
G01 X-9.27617 Y4.88285
G01 X-9.27021 Y4.86967
G01 X-9.26697 Y4.86316
G01 X-9.26106 Y4.85224
G01 X-9.14793 Y4.98706
G04 P0 ( dwell for no time -- G64 should not smooth over this point )
G00 Z0.08000 ( retract )

G00 X-8.85224 Y4.73894 ( rapid move to begin. )
G01 F3.00000
( Mill infeed pass 1/1 )
G01 Z-0.00800
G04 P0 ( dwell for no time -- G64 should not smooth over this point )
G01 F6.00000
G01 X-8.85224 Y4.73894
G01 X-8.98706 Y4.85207
G01 X-9.10019 Y4.71725
G01 X-9.08840 Y4.71333
G01 X-9.08142 Y4.71127
G01 X-9.06732 Y4.70766
G01 X-9.05323 Y4.70477
G01 X-9.03893 Y4.70254
G01 X-9.02446 Y4.70101
G01 X-9.00993 Y4.70017
G01 X-8.99554 Y4.70004
G01 X-8.98826 Y4.70024
G01 X-8.97382 Y4.70115
G01 X-8.96657 Y4.70188
G01 X-8.95232 Y4.70382
G01 X-8.93809 Y4.70646
G01 X-8.92392 Y4.70981
G01 X-8.91001 Y4.71382
G01 X-8.89639 Y4.71847
G01 X-8.88285 Y4.72382
G01 X-8.86968 Y4.72979
G01 X-8.86316 Y4.73303
G01 X-8.85224 Y4.73894
G04 P0 ( dwell for no time -- G64 should not smooth over this point )
G00 Z0.08000 ( retract )

G00 X-8.70002 Y4.99727 ( rapid move to begin. )
G01 F3.00000
( Mill infeed pass 1/1 )
G01 Z-0.00800
G04 P0 ( dwell for no time -- G64 should not smooth over this point )
G01 F6.00000
G01 X-8.70002 Y4.99727
G01 X-8.70050 Y4.98280
G01 X-8.70169 Y4.96830
G01 X-8.70356 Y4.95395
G01 X-8.70477 Y4.94677
G01 X-8.70766 Y4.93267
G01 X-8.70938 Y4.92560
G01 X-8.71333 Y4.91160
G01 X-8.71725 Y4.89981
G01 X-8.85207 Y5.01294
G01 X-8.73894 Y5.14776
G01 X-8.73303 Y5.13684
G01 X-8.72979 Y5.13032
G01 X-8.72382 Y5.11715
G01 X-8.72106 Y5.11041
G01 X-8.71606 Y5.09683
G01 X-8.71172 Y5.08301
G01 X-8.70982 Y5.07608
G01 X-8.70646 Y5.06191
G01 X-8.70382 Y5.04768
G01 X-8.70276 Y5.04057
G01 X-8.70115 Y5.02618
G01 X-8.70060 Y5.01892
G01 X-8.70004 Y5.00446
G01 X-8.70002 Y4.99727
G04 P0 ( dwell for no time -- G64 should not smooth over this point )
G00 Z0.08000 ( retract )

G00 X-6.75104 Y2.75425 ( rapid move to begin. )
G01 F3.00000
( Mill infeed pass 1/1 )
G01 Z-0.00800
G04 P0 ( dwell for no time -- G64 should not smooth over this point )
G01 F6.00000
G01 X-6.75104 Y2.75425
G01 X-6.65148 Y4.69621
G01 X-6.65104 Y4.73397
G01 X-6.65368 Y4.77030
G01 X-6.65615 Y4.78793
G01 X-6.65939 Y4.80520
G01 X-6.66340 Y4.82211
G01 X-6.66818 Y4.83866
G01 X-6.77853 Y5.18865
G01 X-6.78318 Y5.20539
G01 X-6.78664 Y5.22234
G01 X-6.78891 Y5.23951
G01 X-6.78999 Y5.25688
G01 X-6.79747 Y5.52708
G01 X-6.79968 Y5.57868
G01 X-6.80356 Y5.63385
G01 X-6.80911 Y5.69260
G01 X-6.81632 Y5.75492
G01 X-6.82520 Y5.82082
G01 X-6.83575 Y5.89030
G01 X-6.84797 Y5.96334
G01 X-6.86185 Y6.03997
G01 X-6.87740 Y6.12017
G01 X-6.89461 Y6.20394
G01 X-6.91350 Y6.29129
G01 X-6.93405 Y6.38222
G01 X-6.98015 Y6.57479
G01 X-7.03292 Y6.78167
G01 X-7.09380 Y6.69284
G01 X-7.13614 Y6.63036
G01 X-8.91103 Y6.22054
G01 X-8.91304 Y6.22763
G01 X-8.91399 Y6.23037
G01 X-8.91602 Y6.23567
G01 X-8.91738 Y6.23866
G01 X-8.91974 Y6.24340
G01 X-8.92186 Y6.24708
G01 X-8.92412 Y6.25067
G01 X-8.92662 Y6.25421
G01 X-8.92927 Y6.25763
G01 X-8.93215 Y6.26098
G01 X-8.93493 Y6.26396
G01 X-8.94074 Y6.26935
G01 X-8.94460 Y6.27249
G01 X-8.94810 Y6.27503
G01 X-8.95165 Y6.27737
G01 X-8.95531 Y6.27953
G01 X-8.95913 Y6.28158
G01 X-8.96698 Y6.28505
G01 X-8.97510 Y6.28778
G01 X-8.98345 Y6.28973
G01 X-8.99194 Y6.29088
G01 X-9.00049 Y6.29124
G01 X-9.00907 Y6.29079
G01 X-9.01328 Y6.29026
G01 X-9.02054 Y6.28897
G01 X-9.02763 Y6.28696
G01 X-9.03567 Y6.28398
G01 X-9.04151 Y6.28123
G01 X-9.04702 Y6.27818
G01 X-9.05069 Y6.27586
G01 X-9.05397 Y6.27355
G01 X-9.05752 Y6.27082
G01 X-9.06391 Y6.26511
G01 X-9.06693 Y6.26200
G01 X-9.06979 Y6.25875
G01 X-9.07306 Y6.25462
G01 X-9.07731 Y6.24845
G01 X-9.08149 Y6.24104
G01 X-9.08498 Y6.23321
G01 X-9.08645 Y6.22913
G01 X-9.08772 Y6.22509
G01 X-9.08969 Y6.21675
G01 X-9.09087 Y6.20824
G01 X-9.09124 Y6.19974
G01 X-9.09082 Y6.19124
G01 X-9.09029 Y6.18694
G01 X-9.08897 Y6.17946
G01 X-9.08696 Y6.17237
G01 X-9.08398 Y6.16433
G01 X-9.08121 Y6.15846
G01 X-9.07814 Y6.15292
G01 X-9.07587 Y6.14933
G01 X-9.07338 Y6.14579
G01 X-9.07073 Y6.14237
G01 X-9.06506 Y6.13604
G01 X-9.05871 Y6.13016
G01 X-9.05540 Y6.12751
G01 X-9.05189 Y6.12497
G01 X-9.04835 Y6.12263
G01 X-9.04469 Y6.12047
G01 X-9.03941 Y6.11773
G01 X-9.03302 Y6.11494
G01 X-9.02490 Y6.11222
G01 X-9.01655 Y6.11027
G01 X-9.01236 Y6.10962
G01 X-9.00806 Y6.10911
G01 X-9.00163 Y6.10880
G01 X-8.99586 Y6.10887
G01 X-8.99093 Y6.10921
G01 X-8.98672 Y6.10974
G01 X-8.97946 Y6.11103
G01 X-8.97237 Y6.11304
G01 X-8.96836 Y6.11444
G01 X-8.96433 Y6.11602
G01 X-8.95666 Y6.11970
G01 X-8.95078 Y6.12320
G01 X-8.94584 Y6.12659
G01 X-8.94248 Y6.12918
G01 X-8.93609 Y6.13489
G01 X-8.93268 Y6.13844
G01 X-8.92754 Y6.14455
G01 X-8.92504 Y6.14800
G01 X-8.92194 Y6.15280
G01 X-8.91851 Y6.15895
G01 X-8.91667 Y6.16288
G01 X-8.91502 Y6.16678
G01 X-8.91227 Y6.17490
G01 X-8.91031 Y6.18325
G01 X-8.90963 Y6.18754
G01 X-8.90913 Y6.19176
G01 X-8.90880 Y6.19823
G01 X-8.90886 Y6.20402
G01 X-8.90919 Y6.20883
G01 X-8.90971 Y6.21304
G01 X-8.91103 Y6.22054
G01 X-8.91304 Y6.22763
G01 X-8.91399 Y6.23037
G01 X-8.91602 Y6.23567
G01 X-8.91738 Y6.23866
G01 X-8.91974 Y6.24340
G01 X-8.92159 Y6.24662
G01 X-8.92412 Y6.25067
G01 X-8.92655 Y6.25410
G01 X-8.92927 Y6.25763
G01 X-8.93203 Y6.26086
G01 X-8.93493 Y6.26396
G01 X-8.93805 Y6.26697
G01 X-8.94129 Y6.26983
G01 X-8.94460 Y6.27249
G01 X-8.95165 Y6.27737
G01 X-8.95913 Y6.28158
G01 X-8.96698 Y6.28505
G01 X-8.97510 Y6.28778
G01 X-8.98345 Y6.28973
G01 X-8.99194 Y6.29088
G01 X-9.00049 Y6.29124
G01 X-9.00907 Y6.29079
G01 X-9.01328 Y6.29026
G01 X-9.02054 Y6.28897
G01 X-9.26951 Y7.36724
G04 P0 ( dwell for no time -- G64 should not smooth over this point )
G00 Z0.08000 ( retract )

G00 X-9.72419 Y6.03280 ( rapid move to begin. )
G01 F3.00000
( Mill infeed pass 1/1 )
G01 Z-0.00800
G04 P0 ( dwell for no time -- G64 should not smooth over this point )
G01 F6.00000
G01 X-9.72419 Y6.03280
G01 X-9.08897 Y6.17946
G01 X-9.08696 Y6.17237
G01 X-9.08601 Y6.16962
G01 X-9.08398 Y6.16433
G01 X-9.08262 Y6.16134
G01 X-9.08026 Y6.15660
G01 X-9.07841 Y6.15337
G01 X-9.07587 Y6.14933
G01 X-9.07345 Y6.14590
G01 X-9.07073 Y6.14237
G01 X-9.06796 Y6.13914
G01 X-9.06506 Y6.13604
G01 X-9.06195 Y6.13303
G01 X-9.05871 Y6.13016
G01 X-9.05540 Y6.12751
G01 X-9.04835 Y6.12263
G01 X-9.04087 Y6.11842
G01 X-9.03302 Y6.11494
G01 X-9.02490 Y6.11222
G01 X-9.01655 Y6.11027
G01 X-9.00806 Y6.10911
G01 X-8.99950 Y6.10876
G01 X-8.99093 Y6.10921
G01 X-8.98672 Y6.10974
G01 X-8.97946 Y6.11103
G01 X-8.86149 Y5.60006
G04 P0 ( dwell for no time -- G64 should not smooth over this point )
G00 Z0.08000 ( retract )

G00 X-8.89981 Y5.28275 ( rapid move to begin. )
G01 F3.00000
( Mill infeed pass 1/1 )
G01 Z-0.00800
G04 P0 ( dwell for no time -- G64 should not smooth over this point )
G01 F6.00000
G01 X-8.89981 Y5.28275
G01 X-8.91160 Y5.28667
G01 X-8.91858 Y5.28873
G01 X-8.93267 Y5.29234
G01 X-8.94677 Y5.29523
G01 X-8.96107 Y5.29746
G01 X-8.97554 Y5.29899
G01 X-8.99007 Y5.29983
G01 X-9.00446 Y5.29996
G01 X-9.01174 Y5.29976
G01 X-9.02618 Y5.29885
G01 X-9.03343 Y5.29812
G01 X-9.04768 Y5.29618
G01 X-9.06191 Y5.29353
G01 X-9.07608 Y5.29018
G01 X-9.08999 Y5.28618
G01 X-9.10361 Y5.28153
G01 X-9.11715 Y5.27617
G01 X-9.13032 Y5.27020
G01 X-9.13684 Y5.26696
G01 X-9.14776 Y5.26106
G01 X-9.01294 Y5.14793
G01 X-8.89981 Y5.28275
G04 P0 ( dwell for no time -- G64 should not smooth over this point )
G00 Z0.08000 ( retract )

G00 X-8.30034 Y5.60006 ( rapid move to begin. )
G01 F3.00000
( Mill infeed pass 1/1 )
G01 Z-0.00800
G04 P0 ( dwell for no time -- G64 should not smooth over this point )
G01 F6.00000
G01 X-8.30034 Y5.60006
G01 X-8.30891 Y5.55953
G01 X-8.31259 Y5.54086
G01 X-8.31831 Y5.50973
G01 X-8.32312 Y5.48063
G01 X-8.32479 Y5.46970
G01 X-8.32846 Y5.44322
G01 X-8.33141 Y5.41832
G01 X-8.33297 Y5.40293
G01 X-8.33489 Y5.37966
G01 X-8.33622 Y5.35741
G01 X-8.33791 Y5.30924
G01 X-8.33971 Y5.27567
G01 X-8.34152 Y5.25058
G01 X-8.34315 Y5.23172
G01 X-8.34497 Y5.21331
G01 X-8.34699 Y5.19512
G01 X-8.34918 Y5.17733
G01 X-8.35157 Y5.15972
G01 X-8.35414 Y5.14238
G01 X-8.35688 Y5.12535
G01 X-8.35979 Y5.10855
G01 X-8.36286 Y5.09203
G01 X-8.36934 Y5.05984
G01 X-8.37191 Y5.04408
G01 X-8.37369 Y5.02864
G01 X-8.37458 Y5.01630
G01 X-8.37500 Y5.00091
G01 X-8.37452 Y4.98255
G01 X-8.37359 Y4.97021
G01 X-8.37175 Y4.95476
G01 X-8.36912 Y4.93898
G01 X-8.36193 Y4.90306
G01 X-8.35888 Y4.88633
G01 X-8.35600 Y4.86935
G01 X-8.35330 Y4.85210
G01 X-8.35077 Y4.83456
G01 X-8.34843 Y4.81683
G01 X-8.34627 Y4.79870
G01 X-8.34430 Y4.78022
G01 X-8.34254 Y4.76156
G01 X-8.34098 Y4.74242
G01 X-8.33963 Y4.72306
G01 X-8.33786 Y4.68945
G01 X-8.33614 Y4.64099
G01 X-8.33479 Y4.61886
G01 X-8.33359 Y4.60392
G01 X-8.33124 Y4.58006
G01 X-8.32824 Y4.55506
G01 X-8.32455 Y4.52867
G01 X-8.32009 Y4.50066
G01 X-8.31489 Y4.47134
G01 X-8.30862 Y4.43907
G01 X-8.30206 Y4.40784
G01 X-8.29236 Y4.36467
G01 X-8.28233 Y4.32303
G01 X-8.27096 Y4.27827
G01 X-8.25778 Y4.22881
G01 X-8.24977 Y4.19969
G01 X-8.23283 Y4.13996
G01 X-8.22476 Y4.11222
G01 X-8.20408 Y4.04282
G01 X-8.18963 Y3.99545
G01 X-8.16191 Y3.90659
G01 X-8.15092 Y3.87194
G01 X-8.11684 Y3.76598
G01 X-8.09090 Y3.68396
G01 X-8.07860 Y3.64424
G01 X-8.04943 Y3.54793
G01 X-8.03723 Y3.50675
G01 X-8.00477 Y3.39464
G01 X-7.99247 Y3.35119
G01 X-7.95544 Y3.21716
G01 X-7.94314 Y3.17157
G01 X-7.90176 Y3.01425
G01 X-7.87500 Y2.90952
G01 X-7.82788 Y2.72323
G01 X-7.80105 Y2.61830

G04 P0 ( dwell for no time -- G64 should not smooth over this point )
G00 Z1.000000 ( retract )

M5 ( Spindle off. )
G04 P1.000000
M9 ( Coolant off. )
M2 ( Program end. )

