( pcb2gcode 2.5.0 )
( Software-independent Gcode )

G94 ( Inches per minute feed rate. )
G20 ( Units == INCHES. )

G90 ( Absolute coordinates. )
G00 S12000 ( RPM spindle speed. )
G64 P0.00040 ( set maximum deviation from commanded toolpath )
G01 F360.00000 ( Feedrate. )


G00 Z1.00000 (Retract to tool change height)
T1
M5      (Spindle stop.)
G04 P1.00000 (Wait for spindle to stop)
(MSG, Change tool bit to mill diameter 0.03937in)
M6      (Tool change.)
M0      (Temporary machine stop.)
M3 ( Spindle on clockwise. )
G04 P1.00000 (Wait for spindle to get up to speed)
G04 P0 ( dwell for no time -- G64 should not smooth over this point )
G00 Z0.08000 ( retract )

G00 X-5.52763 Y-4.16783 ( rapid move to begin. )
G01 F180.00000
( Mill infeed pass 1/1 )
G01 Z-0.04000
G04 P0 ( dwell for no time -- G64 should not smooth over this point )
G01 F360.00000
G01 X-5.52763 Y-4.16783
G01 X-5.55691 Y-4.15572
G01 X-5.98271 Y-3.72984
G01 X-5.98578 Y-3.72605
G01 X-5.98804 Y-3.72267
G01 X-5.99012 Y-3.71871
G01 X-5.99168 Y-3.71495
G01 X-5.99297 Y-3.71067
G01 X-5.99377 Y-3.70668
G01 X-5.99423 Y-3.70183
G01 X-5.99423 Y-3.69776
G01 X-5.99381 Y-3.69372
G01 X-5.99274 Y-3.68855
G01 X-5.99154 Y-3.68466
G01 X-5.99012 Y-3.68129
G01 X-5.98804 Y-3.67733
G01 X-5.98578 Y-3.67395
G01 X-5.98271 Y-3.67016
G01 X-5.97923 Y-3.66675
G01 X-5.97572 Y-3.66398
G01 X-5.97267 Y-3.66196
G01 X-5.96871 Y-3.65987
G01 X-5.96534 Y-3.65846
G01 X-5.96185 Y-3.65736
G01 X-5.95709 Y-3.65629
G01 X-5.95345 Y-3.65586
G01 X-5.94898 Y-3.65573
G01 X-5.94493 Y-3.65602
G01 X-5.94052 Y-3.65676
G01 X-5.93659 Y-3.65780
G01 X-5.93278 Y-3.65921
G01 X-5.92946 Y-3.66077
G01 X-5.92631 Y-3.66263
G01 X-5.92234 Y-3.66546
G01 X-5.91956 Y-3.66784
G01 X-5.41813 Y-4.16926
G01 X-5.41551 Y-4.17228
G01 X-5.41269 Y-4.17615
G01 X-5.41070 Y-4.17962
G01 X-5.40888 Y-4.18361
G01 X-5.40755 Y-4.18738
G01 X-5.40661 Y-4.19127
G01 X-5.40594 Y-4.19561
G01 X-5.40572 Y-4.20000
G01 X-5.42540 Y-4.19987
G01 X-5.42553 Y-4.19747
G01 X-5.42599 Y-4.19472
G01 X-5.42648 Y-4.19278
G01 X-5.42716 Y-4.19090
G01 X-5.42833 Y-4.18836
G01 X-5.42934 Y-4.18664
G01 X-5.43126 Y-4.18408
G01 X-5.43260 Y-4.18260
G01 X-5.93260 Y-3.68260
G01 X-5.93443 Y-3.68099
G01 X-5.93673 Y-3.67932
G01 X-5.93847 Y-3.67827
G01 X-5.94031 Y-3.67739
G01 X-5.94259 Y-3.67654
G01 X-5.94456 Y-3.67602
G01 X-5.94777 Y-3.67550
G01 X-5.95020 Y-3.67540
G01 X-5.95385 Y-3.67570
G01 X-5.95740 Y-3.67655
G01 X-5.96007 Y-3.67755
G01 X-5.96328 Y-3.67929
G01 X-5.96651 Y-3.68176
G01 X-5.96850 Y-3.68380
G01 X-5.97093 Y-3.68706
G01 X-5.97261 Y-3.69030
G01 X-5.97367 Y-3.69338
G01 X-5.97450 Y-3.69776
G01 X-5.97459 Y-3.70061
G01 X-5.97423 Y-3.70425
G01 X-5.97320 Y-3.70818
G01 X-5.97191 Y-3.71116
G01 X-5.97048 Y-3.71362
G01 X-5.96823 Y-3.71651
G01 X-5.50940 Y-4.17539
G01 X-6.05162 Y-4.17546
G01 X-6.05564 Y-4.17608
G01 X-6.05837 Y-4.17686
G01 X-6.06206 Y-4.17857
G01 X-6.06446 Y-4.18010
G01 X-6.06725 Y-4.18246
G01 X-6.06940 Y-4.18490
G01 X-6.07162 Y-4.18830
G01 X-6.07299 Y-4.19125
G01 X-6.07403 Y-4.19475
G01 X-6.07447 Y-4.19756
G01 X-6.07452 Y-4.20162
G01 X-6.07412 Y-4.20485
G01 X-6.07281 Y-4.20912
G01 X-6.07164 Y-4.21171
G01 X-6.06940 Y-4.21510
G01 X-6.06725 Y-4.21754
G01 X-6.06543 Y-4.21916
G01 X-6.06379 Y-4.22036
G01 X-6.06135 Y-4.22182
G01 X-6.05951 Y-4.22269
G01 X-6.05485 Y-4.22412
G01 X-6.05041 Y-4.22460
G01 X-5.44960 Y-4.22460
G01 X-5.44761 Y-4.22446
G01 X-5.44446 Y-4.22394
G01 X-5.44102 Y-4.22290
G01 X-5.43642 Y-4.22050
G01 X-5.43448 Y-4.21909
G01 X-5.43301 Y-4.21774
G01 X-5.42965 Y-4.21380
G01 X-5.42839 Y-4.21176
G01 X-5.42753 Y-4.20995
G01 X-5.42643 Y-4.20696
G01 X-5.42591 Y-4.20503
G01 X-5.42560 Y-4.20305
G01 X-5.42540 Y-4.19987
G01 X-5.40572 Y-4.20000
G01 X-5.40596 Y-4.20439
G01 X-5.40644 Y-4.20795
G01 X-5.40713 Y-4.21107
G01 X-5.40822 Y-4.21450
G01 X-5.40982 Y-4.21859
G01 X-5.41165 Y-4.22214
G01 X-5.41359 Y-4.22517
G01 X-5.41554 Y-4.22770
G01 X-5.41844 Y-4.23099
G01 X-5.42134 Y-4.23374
G01 X-5.42384 Y-4.23573
G01 X-5.42684 Y-4.23771
G01 X-5.43106 Y-4.23999
G01 X-5.43436 Y-4.24142
G01 X-5.43738 Y-4.24245
G01 X-5.44088 Y-4.24329
G01 X-5.44521 Y-4.24399
G01 X-5.44880 Y-4.24427
G01 X-6.05081 Y-4.24428
G01 X-6.05568 Y-4.24391
G01 X-6.05968 Y-4.24320
G01 X-6.06437 Y-4.24187
G01 X-6.06853 Y-4.24022
G01 X-6.07212 Y-4.23832
G01 X-6.07655 Y-4.23544
G01 X-6.08028 Y-4.23229
G01 X-6.08339 Y-4.22908
G01 X-6.08518 Y-4.22686
G01 X-6.08728 Y-4.22387
G01 X-6.08987 Y-4.21926
G01 X-6.09114 Y-4.21627
G01 X-6.09234 Y-4.21282
G01 X-6.09361 Y-4.20769
G01 X-6.09401 Y-4.20487
G01 X-6.09420 Y-4.20203
G01 X-6.09405 Y-4.19553
G01 X-6.09368 Y-4.19271
G01 X-6.09311 Y-4.18992
G01 X-6.09132 Y-4.18409
G01 X-6.09022 Y-4.18147
G01 X-6.08873 Y-4.17858
G01 X-6.08518 Y-4.17314
G01 X-6.08339 Y-4.17092
G01 X-6.08145 Y-4.16883
G01 X-6.07687 Y-4.16482
G01 X-6.07456 Y-4.16315
G01 X-6.07214 Y-4.16166
G01 X-6.06666 Y-4.15898
G01 X-6.06165 Y-4.15729
G01 X-6.05567 Y-4.15613
G01 X-6.05284 Y-4.15582
G01 X-6.05000 Y-4.15572
G01 X-5.55691 Y-4.15572

G00 Z1.00000 (Retract to tool change height)
T2
M5      (Spindle stop.)
G04 P1.00000 (Wait for spindle to stop)
(MSG, Change tool bit to mill diameter 0.00394in)
M6      (Tool change.)
M0      (Temporary machine stop.)
M3 ( Spindle on clockwise. )
G04 P1.00000 (Wait for spindle to get up to speed)
G04 P0 ( dwell for no time -- G64 should not smooth over this point )
G00 Z0.08000 ( retract )

G00 X-5.47320 Y-4.19039 ( rapid move to begin. )
G01 F180.00000
( Mill infeed pass 1/1 )
G01 Z-0.04000
G04 P0 ( dwell for no time -- G64 should not smooth over this point )
G01 F360.00000
G01 X-5.47320 Y-4.19039
G01 X-5.47614 Y-4.18917
G01 X-5.49134 Y-4.17397
G01 X-5.49134 Y-4.17675
G01 X-5.48089 Y-4.18720
G01 X-5.49567 Y-4.18720
G01 X-5.49420 Y-4.18523
G01 X-5.48564 Y-4.18523
G01 X-5.49169 Y-4.17919
G01 X-5.49230 Y-4.18136
G01 X-5.49039 Y-4.18327
G01 X-5.48746 Y-4.18448
G01 X-5.49039 Y-4.18327
G01 X-5.49309 Y-4.18327
G01 X-5.49267 Y-4.18232
G01 X-5.49221 Y-4.18251
G01 X-5.49267 Y-4.18232
G01 X-5.49309 Y-4.18327
G01 X-5.49039 Y-4.18327
G01 X-5.49230 Y-4.18136
G01 X-5.49169 Y-4.17919
G01 X-5.48564 Y-4.18523
G01 X-5.48271 Y-4.18645
G01 X-5.48564 Y-4.18523
G01 X-5.49420 Y-4.18523
G01 X-5.49567 Y-4.18720
G01 X-5.48089 Y-4.18720
G01 X-5.47796 Y-4.18842
G01 X-5.48089 Y-4.18720
G01 X-5.49134 Y-4.17675
G01 X-5.49134 Y-4.17397
G01 X-5.47614 Y-4.18917
G01 X-5.49765 Y-4.18917
G01 X-5.50045 Y-4.19114
G01 X-5.47138 Y-4.19114
G01 X-5.46845 Y-4.19236
G01 X-5.47138 Y-4.19114
G01 X-5.49194 Y-4.17059
G01 X-5.49420 Y-4.16554
G01 X-5.46663 Y-4.19311
G01 X-5.50563 Y-4.19311

G04 P0 ( dwell for no time -- G64 should not smooth over this point )
G00 Z1.000000 ( retract )

M5 ( Spindle off. )
G04 P1.000000
M9 ( Coolant off. )
M2 ( Program end. )

