( pcb2gcode 2.2.1 )
( Software-independent Gcode )

G94 ( Inches per minute feed rate. )
G20 ( Units == INCHES. )

G90 ( Absolute coordinates. )
G00 S12000 ( RPM spindle speed. )
G64 P0.00040 ( set maximum deviation from commanded toolpath )
G01 F360.00000 ( Feedrate. )


G00 Z1.00000 (Retract to tool change height)
T0
M5      (Spindle stop.)
G04 P1.00000 (Wait for spindle to stop)
(MSG, Change tool bit to mill diameter 0.03937in)
M6      (Tool change.)
M0      (Temporary machine stop.)
M3 ( Spindle on clockwise. )
G04 P1.00000 (Wait for spindle to get up to speed)
G04 P0 ( dwell for no time -- G64 should not smooth over this point )
G00 Z0.08000 ( retract )

G00 X-5.52761 Y-4.16784 ( rapid move to begin. )
G01 F180.00000
( Mill infeed pass 1/1 )
G01 Z-0.04000
G04 P0 ( dwell for no time -- G64 should not smooth over this point )
G01 F360.00000
G01 X-5.52761 Y-4.16784
G01 X-5.55691 Y-4.15572
G01 X-6.05000 Y-4.15572
G01 X-6.05463 Y-4.15598
G01 X-6.06050 Y-4.15698
G01 X-6.06614 Y-4.15885
G01 X-6.06791 Y-4.15959
G01 X-6.07757 Y-4.16537
G01 X-6.07832 Y-4.16598
G01 X-6.08258 Y-4.17002
G01 X-6.08620 Y-4.17464
G01 X-6.08727 Y-4.17624
G01 X-6.09221 Y-4.18666
G01 X-6.09376 Y-4.19325
G01 X-6.09419 Y-4.19904
G01 X-6.09419 Y-4.20096
G01 X-6.09342 Y-4.20870
G01 X-6.09115 Y-4.21614
G01 X-6.09041 Y-4.21791
G01 X-6.08463 Y-4.22757
G01 X-6.08402 Y-4.22832
G01 X-6.07998 Y-4.23258
G01 X-6.07536 Y-4.23620
G01 X-6.07376 Y-4.23727
G01 X-6.06691 Y-4.24093
G01 X-6.05948 Y-4.24317
G01 X-6.05760 Y-4.24354
G01 X-6.05000 Y-4.24428
G01 X-5.45000 Y-4.24428
G01 X-5.44536 Y-4.24402
G01 X-5.43950 Y-4.24302
G01 X-5.43386 Y-4.24115
G01 X-5.43209 Y-4.24041
G01 X-5.42535 Y-4.23678
G01 X-5.41944 Y-4.23192
G01 X-5.41808 Y-4.23056
G01 X-5.41322 Y-4.22465
G01 X-5.40959 Y-4.21791
G01 X-5.40885 Y-4.21614
G01 X-5.40658 Y-4.20870
G01 X-5.40581 Y-4.20096
G01 X-5.42548 Y-4.20096
G01 X-5.42587 Y-4.20483
G01 X-5.42701 Y-4.20855
G01 X-5.42775 Y-4.21032
G01 X-5.42956 Y-4.21369
G01 X-5.43199 Y-4.21665
G01 X-5.43335 Y-4.21801
G01 X-5.43631 Y-4.22044
G01 X-5.43968 Y-4.22225
G01 X-5.44145 Y-4.22299
G01 X-5.44427 Y-4.22393
G01 X-5.44720 Y-4.22443
G01 X-5.45000 Y-4.22461
G01 X-6.05000 Y-4.22461
G01 X-6.05380 Y-4.22423
G01 X-6.05568 Y-4.22386
G01 X-6.05940 Y-4.22274
G01 X-6.06282 Y-4.22091
G01 X-6.06673 Y-4.21803
G01 X-6.06936 Y-4.21515
G01 X-6.07225 Y-4.21032
G01 X-6.07299 Y-4.20855
G01 X-6.07413 Y-4.20483
G01 X-6.07451 Y-4.20096
G01 X-6.07451 Y-4.19904
G01 X-6.07430 Y-4.19614
G01 X-6.07338 Y-4.19239
G01 X-6.07091 Y-4.18718
G01 X-6.06984 Y-4.18558
G01 X-6.06803 Y-4.18326
G01 X-6.06515 Y-4.18064
G01 X-6.06032 Y-4.17775
G01 X-6.05855 Y-4.17701
G01 X-6.05573 Y-4.17607
G01 X-6.05184 Y-4.17548
G01 X-5.50940 Y-4.17539
G01 X-5.96740 Y-3.71740
G01 X-5.96984 Y-3.71442
G01 X-5.97091 Y-3.71282
G01 X-5.97274 Y-3.70940
G01 X-5.97386 Y-3.70568
G01 X-5.97423 Y-3.70380
G01 X-5.97461 Y-3.70000
G01 X-5.97423 Y-3.69620
G01 X-5.97386 Y-3.69432
G01 X-5.97274 Y-3.69060
G01 X-5.97091 Y-3.68718
G01 X-5.96984 Y-3.68558
G01 X-5.96740 Y-3.68260
G01 X-5.96442 Y-3.68016
G01 X-5.96282 Y-3.67909
G01 X-5.95940 Y-3.67726
G01 X-5.95568 Y-3.67613
G01 X-5.95380 Y-3.67577
G01 X-5.95000 Y-3.67539
G01 X-5.94620 Y-3.67577
G01 X-5.94432 Y-3.67613
G01 X-5.94060 Y-3.67726
G01 X-5.93718 Y-3.67909
G01 X-5.93558 Y-3.68016
G01 X-5.93260 Y-3.68260
G01 X-5.43260 Y-4.18260
G01 X-5.43064 Y-4.18485
G01 X-5.42775 Y-4.18968
G01 X-5.42701 Y-4.19145
G01 X-5.42587 Y-4.19517
G01 X-5.42548 Y-4.19904
G01 X-5.42548 Y-4.20096
G01 X-5.40581 Y-4.20096
G01 X-5.40581 Y-4.19904
G01 X-5.40658 Y-4.19130
G01 X-5.40885 Y-4.18386
G01 X-5.40959 Y-4.18209
G01 X-5.41537 Y-4.17243
G01 X-5.41869 Y-4.16869
G01 X-5.91869 Y-3.66869
G01 X-5.92464 Y-3.66380
G01 X-5.92624 Y-3.66273
G01 X-5.93309 Y-3.65907
G01 X-5.94052 Y-3.65683
G01 X-5.94240 Y-3.65646
G01 X-5.95000 Y-3.65572
G01 X-5.95760 Y-3.65646
G01 X-5.95948 Y-3.65683
G01 X-5.96691 Y-3.65907
G01 X-5.97376 Y-3.66273
G01 X-5.97536 Y-3.66380
G01 X-5.98131 Y-3.66869
G01 X-5.98620 Y-3.67464
G01 X-5.98727 Y-3.67624
G01 X-5.99093 Y-3.68309
G01 X-5.99317 Y-3.69052
G01 X-5.99354 Y-3.69240
G01 X-5.99428 Y-3.70000
G01 X-5.99354 Y-3.70760
G01 X-5.99317 Y-3.70948
G01 X-5.99093 Y-3.71691
G01 X-5.98727 Y-3.72376
G01 X-5.98620 Y-3.72536
G01 X-5.98131 Y-3.73131
G01 X-5.55691 Y-4.15572

G00 Z1.00000 (Retract to tool change height)
T1
M5      (Spindle stop.)
G04 P1.00000 (Wait for spindle to stop)
(MSG, Change tool bit to mill diameter 0.00394in)
M6      (Tool change.)
M0      (Temporary machine stop.)
M3 ( Spindle on clockwise. )
G04 P1.00000 (Wait for spindle to get up to speed)
G04 P0 ( dwell for no time -- G64 should not smooth over this point )
G00 Z0.08000 ( retract )

G00 X-5.47320 Y-4.19039 ( rapid move to begin. )
G01 F180.00000
( Mill infeed pass 1/1 )
G01 Z-0.04000
G04 P0 ( dwell for no time -- G64 should not smooth over this point )
G01 F360.00000
G01 X-5.47320 Y-4.19039
G01 X-5.47614 Y-4.18917
G01 X-5.49144 Y-4.17387
G01 X-5.49141 Y-4.17668
G01 X-5.48089 Y-4.18720
G01 X-5.47795 Y-4.18842
G01 X-5.48089 Y-4.18720
G01 X-5.49578 Y-4.18720
G01 X-5.49422 Y-4.18524
G01 X-5.48564 Y-4.18524
G01 X-5.48271 Y-4.18645
G01 X-5.48564 Y-4.18524
G01 X-5.49171 Y-4.17917
G01 X-5.49236 Y-4.18130
G01 X-5.49039 Y-4.18327
G01 X-5.49317 Y-4.18327
G01 X-5.49267 Y-4.18232
G01 X-5.49221 Y-4.18252
G01 X-5.49267 Y-4.18232
G01 X-5.49317 Y-4.18327
G01 X-5.49039 Y-4.18327
G01 X-5.48746 Y-4.18448
G01 X-5.49039 Y-4.18327
G01 X-5.49236 Y-4.18130
G01 X-5.49171 Y-4.17917
G01 X-5.48564 Y-4.18524
G01 X-5.49422 Y-4.18524
G01 X-5.49578 Y-4.18720
G01 X-5.48089 Y-4.18720
G01 X-5.49141 Y-4.17668
G01 X-5.49144 Y-4.17387
G01 X-5.47614 Y-4.18917
G01 X-5.49779 Y-4.18917
G01 X-5.50063 Y-4.19114
G01 X-5.47138 Y-4.19114
G01 X-5.46845 Y-4.19236
G01 X-5.47138 Y-4.19114
G01 X-5.49206 Y-4.17047
G01 X-5.49425 Y-4.16549
G01 X-5.46663 Y-4.19311
G01 X-5.50573 Y-4.19311

G04 P0 ( dwell for no time -- G64 should not smooth over this point )
G00 Z1.000000 ( retract )

M5 ( Spindle off. )
G04 P1.000000
M9 ( Coolant off. )
M2 ( Program end. )

