( pcb2gcode 2.0.0 )
( Software-independent Gcode )

G94 ( Inches per minute feed rate. )
G20 ( Units == INCHES. )

G90 ( Absolute coordinates. )
G00 S12000 ( RPM spindle speed. )
G64 P0.00040 ( set maximum deviation from commanded toolpath )
G01 F360.00000 ( Feedrate. )


G00 Z1.00000 (Retract to tool change height)
T0
M5      (Spindle stop.)
G04 P1.00000 (Wait for spindle to stop)
(MSG, Change tool bit to mill diameter 0.03937in)
M6      (Tool change.)
M0      (Temporary machine stop.)
M3 ( Spindle on clockwise. )
G04 P1.00000 (Wait for spindle to get up to speed)
G04 P0 ( dwell for no time -- G64 should not smooth over this point )
G00 Z0.08000 ( retract )

G00 X-5.52764 Y-4.16784 ( rapid move to begin. )
G01 F180.00000
( Mill infeed pass 1/1 )
G01 Z-0.04000
G04 P0 ( dwell for no time -- G64 should not smooth over this point )
G01 F360.00000
G01 X-5.52764 Y-4.16784
G01 X-5.55693 Y-4.15571
G01 X-6.05000 Y-4.15571
G01 X-6.05482 Y-4.15599
G01 X-6.06053 Y-4.15698
G01 X-6.06603 Y-4.15880
G01 X-6.06780 Y-4.15953
G01 X-6.07297 Y-4.16214
G01 X-6.07771 Y-4.16547
G01 X-6.08265 Y-4.17008
G01 X-6.08621 Y-4.17465
G01 X-6.08728 Y-4.17624
G01 X-6.09014 Y-4.18128
G01 X-6.09250 Y-4.18761
G01 X-6.09377 Y-4.19326
G01 X-6.09420 Y-4.19904
G01 X-6.09420 Y-4.20096
G01 X-6.09344 Y-4.20864
G01 X-6.09120 Y-4.21603
G01 X-6.09047 Y-4.21780
G01 X-6.08786 Y-4.22297
G01 X-6.08391 Y-4.22846
G01 X-6.07992 Y-4.23265
G01 X-6.07535 Y-4.23621
G01 X-6.07376 Y-4.23728
G01 X-6.06695 Y-4.24092
G01 X-6.05956 Y-4.24316
G01 X-6.05768 Y-4.24353
G01 X-6.05000 Y-4.24429
G01 X-5.45000 Y-4.24429
G01 X-5.44518 Y-4.24401
G01 X-5.43947 Y-4.24302
G01 X-5.43397 Y-4.24120
G01 X-5.42758 Y-4.23819
G01 X-5.42330 Y-4.23533
G01 X-5.41807 Y-4.23057
G01 X-5.41467 Y-4.22670
G01 X-5.41181 Y-4.22242
G01 X-5.40880 Y-4.21603
G01 X-5.40656 Y-4.20864
G01 X-5.40580 Y-4.20096
G01 X-5.42549 Y-4.20096
G01 X-5.42587 Y-4.20480
G01 X-5.42699 Y-4.20849
G01 X-5.42772 Y-4.21027
G01 X-5.42886 Y-4.21258
G01 X-5.43029 Y-4.21472
G01 X-5.43335 Y-4.21801
G01 X-5.43528 Y-4.21971
G01 X-5.43742 Y-4.22114
G01 X-5.44151 Y-4.22301
G01 X-5.44426 Y-4.22392
G01 X-5.44711 Y-4.22442
G01 X-5.45000 Y-4.22461
G01 X-6.05000 Y-4.22461
G01 X-6.05384 Y-4.22423
G01 X-6.05572 Y-4.22385
G01 X-6.05942 Y-4.22273
G01 X-6.06282 Y-4.22091
G01 X-6.06670 Y-4.21807
G01 X-6.06931 Y-4.21522
G01 X-6.07098 Y-4.21285
G01 X-6.07301 Y-4.20849
G01 X-6.07413 Y-4.20480
G01 X-6.07451 Y-4.20096
G01 X-6.07451 Y-4.19904
G01 X-6.07430 Y-4.19615
G01 X-6.07338 Y-4.19240
G01 X-6.07234 Y-4.18970
G01 X-6.06985 Y-4.18558
G01 X-6.06806 Y-4.18330
G01 X-6.06522 Y-4.18069
G01 X-6.06285 Y-4.17902
G01 X-6.05849 Y-4.17699
G01 X-6.05574 Y-4.17608
G01 X-6.05193 Y-4.17549
G01 X-5.50940 Y-4.17539
G01 X-5.96870 Y-3.71597
G01 X-5.97091 Y-3.71282
G01 X-5.97273 Y-3.70942
G01 X-5.97385 Y-3.70572
G01 X-5.97423 Y-3.70384
G01 X-5.97461 Y-3.70000
G01 X-5.97423 Y-3.69616
G01 X-5.97385 Y-3.69428
G01 X-5.97273 Y-3.69058
G01 X-5.97091 Y-3.68718
G01 X-5.96828 Y-3.68354
G01 X-5.96646 Y-3.68172
G01 X-5.96442 Y-3.68015
G01 X-5.96282 Y-3.67909
G01 X-5.95942 Y-3.67727
G01 X-5.95572 Y-3.67615
G01 X-5.95129 Y-3.67543
G01 X-5.94871 Y-3.67543
G01 X-5.94616 Y-3.67577
G01 X-5.94428 Y-3.67615
G01 X-5.94058 Y-3.67727
G01 X-5.93718 Y-3.67909
G01 X-5.93558 Y-3.68015
G01 X-5.93260 Y-3.68260
G01 X-5.43260 Y-4.18260
G01 X-5.43069 Y-4.18478
G01 X-5.42902 Y-4.18715
G01 X-5.42699 Y-4.19151
G01 X-5.42587 Y-4.19520
G01 X-5.42549 Y-4.19904
G01 X-5.42549 Y-4.20096
G01 X-5.40580 Y-4.20096
G01 X-5.40580 Y-4.19904
G01 X-5.40656 Y-4.19136
G01 X-5.40880 Y-4.18397
G01 X-5.40953 Y-4.18220
G01 X-5.41214 Y-4.17703
G01 X-5.41547 Y-4.17229
G01 X-5.41868 Y-4.16868
G01 X-5.91868 Y-3.66868
G01 X-5.92154 Y-3.66609
G01 X-5.92624 Y-3.66272
G01 X-5.93305 Y-3.65908
G01 X-5.94043 Y-3.65684
G01 X-5.94742 Y-3.65579
G01 X-5.95257 Y-3.65579
G01 X-5.95768 Y-3.65646
G01 X-5.95956 Y-3.65684
G01 X-5.96695 Y-3.65908
G01 X-5.97376 Y-3.66272
G01 X-5.97944 Y-3.66692
G01 X-5.98308 Y-3.67056
G01 X-5.98621 Y-3.67465
G01 X-5.98728 Y-3.67624
G01 X-5.99092 Y-3.68305
G01 X-5.99316 Y-3.69043
G01 X-5.99353 Y-3.69232
G01 X-5.99429 Y-3.70000
G01 X-5.99353 Y-3.70768
G01 X-5.99316 Y-3.70956
G01 X-5.99092 Y-3.71695
G01 X-5.98728 Y-3.72376
G01 X-5.98391 Y-3.72845
G01 X-5.98132 Y-3.73132
G01 X-5.55693 Y-4.15571

G04 P0 ( dwell for no time -- G64 should not smooth over this point )
G00 Z1.000000 ( retract )

M5 ( Spindle off. )
G04 P1.000000

G00 Z1.00000 (Retract to tool change height)
T1
M5      (Spindle stop.)
G04 P1.00000 (Wait for spindle to stop)
(MSG, Change tool bit to mill diameter 0.00394in)
M6      (Tool change.)
M0      (Temporary machine stop.)
M3 ( Spindle on clockwise. )
G04 P1.00000 (Wait for spindle to get up to speed)
G04 P0 ( dwell for no time -- G64 should not smooth over this point )
G00 Z0.08000 ( retract )

G00 X-5.47796 Y-4.18842 ( rapid move to begin. )
G01 F180.00000
( Mill infeed pass 1/1 )
G01 Z-0.04000
G04 P0 ( dwell for no time -- G64 should not smooth over this point )
G01 F360.00000
G01 X-5.47796 Y-4.18842
G01 X-5.48089 Y-4.18720
G01 X-5.49578 Y-4.18720
G01 X-5.49423 Y-4.18523
G01 X-5.48564 Y-4.18523
G01 X-5.48271 Y-4.18645
G01 X-5.48564 Y-4.18523
G01 X-5.49171 Y-4.17917
G01 X-5.49236 Y-4.18130
G01 X-5.49040 Y-4.18327
G01 X-5.48746 Y-4.18448
G01 X-5.49040 Y-4.18327
G01 X-5.49318 Y-4.18327
G01 X-5.49267 Y-4.18232
G01 X-5.49221 Y-4.18251
G01 X-5.49267 Y-4.18232
G01 X-5.49318 Y-4.18327
G01 X-5.49040 Y-4.18327
G01 X-5.49236 Y-4.18130
G01 X-5.49171 Y-4.17917
G01 X-5.48564 Y-4.18523
G01 X-5.49423 Y-4.18523
G01 X-5.49578 Y-4.18720
G01 X-5.48089 Y-4.18720
G01 X-5.49142 Y-4.17668
G01 X-5.49144 Y-4.17387
G01 X-5.47614 Y-4.18917
G01 X-5.47320 Y-4.19039
G01 X-5.47614 Y-4.18917
G01 X-5.49779 Y-4.18917
G01 X-5.50064 Y-4.19114
G01 X-5.47138 Y-4.19114
G01 X-5.46845 Y-4.19236
G01 X-5.47138 Y-4.19114
G01 X-5.49206 Y-4.17047
G01 X-5.49426 Y-4.16548
G01 X-5.46663 Y-4.19311
G01 X-5.50573 Y-4.19311

G04 P0 ( dwell for no time -- G64 should not smooth over this point )
G00 Z1.000000 ( retract )

M5 ( Spindle off. )
G04 P1.000000
M9 ( Coolant off. )
M2 ( Program end. )

