( pcb2gcode 2.0.0 )
( Software-independent Gcode )

G94 ( Inches per minute feed rate. )
G20 ( Units == INCHES. )

G90 ( Absolute coordinates. )
G00 S12000 ( RPM spindle speed. )
G64 P0.00040 ( set maximum deviation from commanded toolpath )
G01 F360.00000 ( Feedrate. )


G00 Z1.00000 (Retract to tool change height)
T0
M5      (Spindle stop.)
G04 P1.00000 (Wait for spindle to stop)
(MSG, Change tool bit to mill diameter 0.03937in)
M6      (Tool change.)
M0      (Temporary machine stop.)
M3 ( Spindle on clockwise. )
G04 P1.00000 (Wait for spindle to get up to speed)
G04 P0 ( dwell for no time -- G64 should not smooth over this point )
G00 Z0.08000 ( retract )

G00 X-5.40575 Y-4.20116 ( rapid move to begin. )
G01 F180.00000
( Mill infeed pass 1/1 )
G01 Z-0.04000
G04 P0 ( dwell for no time -- G64 should not smooth over this point )
G01 F360.00000
G01 X-5.40575 Y-4.20116
G01 X-5.40585 Y-4.19652
G01 X-5.40648 Y-4.19193
G01 X-5.40788 Y-4.18631
G01 X-5.40956 Y-4.18200
G01 X-5.41223 Y-4.17686
G01 X-5.41488 Y-4.17305
G01 X-5.41868 Y-4.16868
G01 X-5.91868 Y-3.66868
G01 X-5.92283 Y-3.66505
G01 X-5.92643 Y-3.66250
G01 X-5.93129 Y-3.65988
G01 X-5.93537 Y-3.65819
G01 X-5.93961 Y-3.65697
G01 X-5.94504 Y-3.65599
G01 X-5.94945 Y-3.65574
G01 X-5.95496 Y-3.65599
G01 X-5.96039 Y-3.65697
G01 X-5.96463 Y-3.65819
G01 X-5.96970 Y-3.66036
G01 X-5.97356 Y-3.66250
G01 X-5.97717 Y-3.66505
G01 X-5.98132 Y-3.66868
G01 X-5.98495 Y-3.67283
G01 X-5.98750 Y-3.67644
G01 X-5.99012 Y-3.68129
G01 X-5.99181 Y-3.68537
G01 X-5.99303 Y-3.68961
G01 X-5.99401 Y-3.69504
G01 X-5.99426 Y-3.69945
G01 X-5.99401 Y-3.70496
G01 X-5.99303 Y-3.71039
G01 X-5.99181 Y-3.71463
G01 X-5.98964 Y-3.71970
G01 X-5.98750 Y-3.72356
G01 X-5.98426 Y-3.72803
G01 X-5.98132 Y-3.73132
G01 X-5.55693 Y-4.15571
G01 X-6.05000 Y-4.15571
G01 X-6.05550 Y-4.15608
G01 X-6.05985 Y-4.15682
G01 X-6.06410 Y-4.15804
G01 X-6.06922 Y-4.16009
G01 X-6.07401 Y-4.16282
G01 X-6.07761 Y-4.16537
G01 X-6.08169 Y-4.16909
G01 X-6.08463 Y-4.17238
G01 X-6.08718 Y-4.17598
G01 X-6.08990 Y-4.18078
G01 X-6.09196 Y-4.18590
G01 X-6.09318 Y-4.19014
G01 X-6.09392 Y-4.19450
G01 X-6.09429 Y-4.20000
G01 X-6.09392 Y-4.20550
G01 X-6.09318 Y-4.20986
G01 X-6.09159 Y-4.21514
G01 X-6.08990 Y-4.21922
G01 X-6.08777 Y-4.22308
G01 X-6.08463 Y-4.22762
G01 X-6.08091 Y-4.23169
G01 X-6.07761 Y-4.23463
G01 X-6.07401 Y-4.23718
G01 X-6.06922 Y-4.23991
G01 X-6.06514 Y-4.24159
G01 X-6.05985 Y-4.24318
G01 X-6.05550 Y-4.24392
G01 X-6.05000 Y-4.24429
G01 X-5.45000 Y-4.24429
G01 X-5.44422 Y-4.24388
G01 X-5.43966 Y-4.24307
G01 X-5.43414 Y-4.24132
G01 X-5.42989 Y-4.23946
G01 X-5.42589 Y-4.23712
G01 X-5.42124 Y-4.23368
G01 X-5.41711 Y-4.22962
G01 X-5.41417 Y-4.22603
G01 X-5.41167 Y-4.22213
G01 X-5.40908 Y-4.21695
G01 X-5.40725 Y-4.21146
G01 X-5.40625 Y-4.20693
G01 X-5.40575 Y-4.20116
G01 X-5.42542 Y-4.20039
G01 X-5.42570 Y-4.20385
G01 X-5.42619 Y-4.20611
G01 X-5.42727 Y-4.20942
G01 X-5.42884 Y-4.21251
G01 X-5.43009 Y-4.21446
G01 X-5.43235 Y-4.21710
G01 X-5.43402 Y-4.21871
G01 X-5.43683 Y-4.22075
G01 X-5.43883 Y-4.22192
G01 X-5.44095 Y-4.22285
G01 X-5.44426 Y-4.22393
G01 X-5.44769 Y-4.22447
G01 X-5.45000 Y-4.22461
G01 X-6.05000 Y-4.22461
G01 X-6.05330 Y-4.22436
G01 X-6.05548 Y-4.22399
G01 X-6.05864 Y-4.22301
G01 X-6.06068 Y-4.22217
G01 X-6.06354 Y-4.22051
G01 X-6.06534 Y-4.21924
G01 X-6.06699 Y-4.21777
G01 X-6.06924 Y-4.21534
G01 X-6.07110 Y-4.21261
G01 X-6.07217 Y-4.21068
G01 X-6.07301 Y-4.20864
G01 X-6.07399 Y-4.20547
G01 X-6.07436 Y-4.20330
G01 X-6.07461 Y-4.20000
G01 X-6.07436 Y-4.19670
G01 X-6.07399 Y-4.19452
G01 X-6.07338 Y-4.19240
G01 X-6.07217 Y-4.18932
G01 X-6.07052 Y-4.18646
G01 X-6.06924 Y-4.18466
G01 X-6.06777 Y-4.18301
G01 X-6.06534 Y-4.18076
G01 X-6.06261 Y-4.17890
G01 X-6.06068 Y-4.17783
G01 X-6.05864 Y-4.17699
G01 X-6.05548 Y-4.17601
G01 X-6.05220 Y-4.17552
G01 X-6.05000 Y-4.17539
G01 X-5.50940 Y-4.17539
G01 X-5.96740 Y-3.71740
G01 X-5.96887 Y-3.71575
G01 X-5.97083 Y-3.71309
G01 X-5.97238 Y-3.71017
G01 X-5.97323 Y-3.70813
G01 X-5.97384 Y-3.70601
G01 X-5.97445 Y-3.70275
G01 X-5.97457 Y-3.70055
G01 X-5.97445 Y-3.69724
G01 X-5.97384 Y-3.69399
G01 X-5.97323 Y-3.69187
G01 X-5.97238 Y-3.68983
G01 X-5.97083 Y-3.68691
G01 X-5.96887 Y-3.68425
G01 X-5.96740 Y-3.68260
G01 X-5.96575 Y-3.68113
G01 X-5.96309 Y-3.67916
G01 X-5.96116 Y-3.67810
G01 X-5.95813 Y-3.67677
G01 X-5.95493 Y-3.67592
G01 X-5.95275 Y-3.67555
G01 X-5.95055 Y-3.67542
G01 X-5.94724 Y-3.67555
G01 X-5.94399 Y-3.67616
G01 X-5.94187 Y-3.67677
G01 X-5.93884 Y-3.67810
G01 X-5.93691 Y-3.67916
G01 X-5.93425 Y-3.68113
G01 X-5.93260 Y-3.68260
G01 X-5.43260 Y-4.18260
G01 X-5.43034 Y-4.18524
G01 X-5.42902 Y-4.18714
G01 X-5.42744 Y-4.19024
G01 X-5.42660 Y-4.19240
G01 X-5.42601 Y-4.19464
G01 X-5.42547 Y-4.19807
G01 X-5.42542 Y-4.20039

G04 P0 ( dwell for no time -- G64 should not smooth over this point )
G00 Z1.000000 ( retract )

M5 ( Spindle off. )
G04 P1.000000

G00 Z1.00000 (Retract to tool change height)
T1
M5      (Spindle stop.)
G04 P1.00000 (Wait for spindle to stop)
(MSG, Change tool bit to mill diameter 0.00394in)
M6      (Tool change.)
M0      (Temporary machine stop.)
M3 ( Spindle on clockwise. )
G04 P1.00000 (Wait for spindle to get up to speed)
G04 P0 ( dwell for no time -- G64 should not smooth over this point )
G00 Z0.08000 ( retract )

G00 X-5.49317 Y-4.18327 ( rapid move to begin. )
G01 F180.00000
( Mill infeed pass 1/1 )
G01 Z-0.04000
G04 P0 ( dwell for no time -- G64 should not smooth over this point )
G01 F360.00000
G01 X-5.49317 Y-4.18327
G01 X-5.49040 Y-4.18327
G01 X-5.49236 Y-4.18130
G01 X-5.49177 Y-4.17910
G01 X-5.48564 Y-4.18523
G01 X-5.49432 Y-4.18523
G01 X-5.49568 Y-4.18720
G01 X-5.48089 Y-4.18720
G01 X-5.49135 Y-4.17675
G01 X-5.49144 Y-4.17387
G01 X-5.47614 Y-4.18917
G01 X-5.49778 Y-4.18917
G01 X-5.50066 Y-4.19114
G01 X-5.47138 Y-4.19114
G01 X-5.49208 Y-4.17045
G01 X-5.49427 Y-4.16548
G01 X-5.46663 Y-4.19311
G01 X-5.50580 Y-4.19311

G04 P0 ( dwell for no time -- G64 should not smooth over this point )
G00 Z1.000000 ( retract )

M5 ( Spindle off. )
G04 P1.000000
M9 ( Coolant off. )
M2 ( Program end. )

