( pcb2gcode 1.3.2 )
( Software-independent Gcode )

G94 ( Inches per minute feed rate. )
G20 ( Units == INCHES. )

G90 ( Absolute coordinates. )
G00 S12000 ( RPM spindle speed. )
G64 P0.00040 ( set maximum deviation from commanded toolpath )
G01 F360.00000 ( Feedrate. )


G00 Z1.00000 (Retract to tool change height)
T0
M5      (Spindle stop.)
G04 P1.00000 (Wait for spindle to stop)
(MSG, Change tool bit to mill diameter 0.03937in)
M6      (Tool change.)
M0      (Temporary machine stop.)
M3 ( Spindle on clockwise. )
G04 P1.00000 (Wait for spindle to get up to speed)
G04 P0 ( dwell for no time -- G64 should not smooth over this point )
G00 Z0.08000 ( retract )

G00 X-5.40580 Y-4.20096 ( rapid move to begin. )
G01 F180.00000
G01 Z-0.04000
G04 P0 ( dwell for no time -- G64 should not smooth over this point )
G01 F360.00000
G01 X-5.40580 Y-4.20096
G01 X-5.40656 Y-4.19136
G01 X-5.40880 Y-4.18397
G01 X-5.41214 Y-4.17703
G01 X-5.41868 Y-4.16868
G01 X-5.91868 Y-3.66868
G01 X-5.92254 Y-3.66528
G01 X-5.92945 Y-3.66079
G01 X-5.93413 Y-3.65865
G01 X-5.93904 Y-3.65711
G01 X-5.94820 Y-3.65577
G01 X-5.95743 Y-3.65636
G01 X-5.96634 Y-3.65886
G01 X-5.97454 Y-3.66316
G01 X-5.98166 Y-3.66906
G01 X-5.98684 Y-3.67546
G01 X-5.99114 Y-3.68366
G01 X-5.99364 Y-3.69257
G01 X-5.99423 Y-3.70180
G01 X-5.99289 Y-3.71096
G01 X-5.99135 Y-3.71587
G01 X-5.98921 Y-3.72055
G01 X-5.98408 Y-3.72826
G01 X-5.55693 Y-4.15571
G01 X-6.05514 Y-4.15603
G01 X-6.06319 Y-4.15774
G01 X-6.07169 Y-4.16141
G01 X-6.07924 Y-4.16676
G01 X-6.08551 Y-4.17356
G01 X-6.08836 Y-4.17785
G01 X-6.09065 Y-4.18246
G01 X-6.09319 Y-4.19029
G01 X-6.09426 Y-4.19949
G01 X-6.09319 Y-4.20971
G01 X-6.09065 Y-4.21753
G01 X-6.08836 Y-4.22215
G01 X-6.08551 Y-4.22643
G01 X-6.08000 Y-4.23255
G01 X-6.07258 Y-4.23808
G01 X-6.06417 Y-4.24194
G01 X-6.05921 Y-4.24332
G01 X-6.05000 Y-4.24429
G01 X-5.45000 Y-4.24429
G01 X-5.43947 Y-4.24302
G01 X-5.43397 Y-4.24120
G01 X-5.42539 Y-4.23683
G01 X-5.41943 Y-4.23193
G01 X-5.41317 Y-4.22461
G01 X-5.40953 Y-4.21780
G01 X-5.40656 Y-4.20864
G01 X-5.40580 Y-4.20096
G01 X-5.42549 Y-4.20096
G01 X-5.42587 Y-4.19520
G01 X-5.42699 Y-4.19151
G01 X-5.42902 Y-4.18715
G01 X-5.43260 Y-4.18260
G01 X-5.93260 Y-3.68260
G01 X-5.93838 Y-3.67833
G01 X-5.94118 Y-3.67703
G01 X-5.94923 Y-3.67543
G01 X-5.95637 Y-3.67623
G01 X-5.96296 Y-3.67910
G01 X-5.96774 Y-3.68298
G01 X-5.97089 Y-3.68704
G01 X-5.97276 Y-3.69071
G01 X-5.97420 Y-3.69565
G01 X-5.97452 Y-3.70180
G01 X-5.97297 Y-3.70882
G01 X-5.96878 Y-3.71587
G01 X-5.50940 Y-4.17539
G01 X-6.05206 Y-4.17550
G01 X-6.05808 Y-4.17678
G01 X-6.06446 Y-4.18009
G01 X-6.06958 Y-4.18514
G01 X-6.07266 Y-4.19047
G01 X-6.07447 Y-4.19743
G01 X-6.07415 Y-4.20461
G01 X-6.07131 Y-4.21230
G01 X-6.06683 Y-4.21792
G01 X-6.06273 Y-4.22103
G01 X-6.05808 Y-4.22322
G01 X-6.05000 Y-4.22461
G01 X-5.45000 Y-4.22461
G01 X-5.44151 Y-4.22301
G01 X-5.43633 Y-4.22046
G01 X-5.43335 Y-4.21801
G01 X-5.42954 Y-4.21367
G01 X-5.42772 Y-4.21027
G01 X-5.42587 Y-4.20480
G01 X-5.42549 Y-4.20096

G04 P0 ( dwell for no time -- G64 should not smooth over this point )
G00 Z1.000 ( retract )

M5 ( Spindle off. )
G04 P1.000000

G00 Z1.00000 (Retract to tool change height)
T1
M5      (Spindle stop.)
G04 P1.00000 (Wait for spindle to stop)
(MSG, Change tool bit to mill diameter 0.00394in)
M6      (Tool change.)
M0      (Temporary machine stop.)
M3 ( Spindle on clockwise. )
G04 P1.00000 (Wait for spindle to get up to speed)
G04 P0 ( dwell for no time -- G64 should not smooth over this point )
G00 Z0.08000 ( retract )

G00 X-5.49318 Y-4.18327 ( rapid move to begin. )
G01 F180.00000
G01 Z-0.04000
G04 P0 ( dwell for no time -- G64 should not smooth over this point )
G01 F360.00000
G01 X-5.49318 Y-4.18327
G01 X-5.49040 Y-4.18327
G01 X-5.49236 Y-4.18130
G01 X-5.49172 Y-4.17916
G01 X-5.48564 Y-4.18523
G01 X-5.49423 Y-4.18523
G01 X-5.49578 Y-4.18720
G01 X-5.48089 Y-4.18720
G01 X-5.49142 Y-4.17667
G01 X-5.49144 Y-4.17387
G01 X-5.47614 Y-4.18917
G01 X-5.49779 Y-4.18917
G01 X-5.50064 Y-4.19114
G01 X-5.47138 Y-4.19114
G01 X-5.49207 Y-4.17046
G01 X-5.49427 Y-4.16547
G01 X-5.46663 Y-4.19311
G01 X-5.50573 Y-4.19311

G04 P0 ( dwell for no time -- G64 should not smooth over this point )
G00 Z1.000 ( retract )

M5 ( Spindle off. )
G04 P1.000000
M9 ( Coolant off. )
M2 ( Program end. )

