( pcb2gcode 2.5.0 )
( Software-independent Gcode )

G94 ( Inches per minute feed rate. )
G20 ( Units == INCHES. )

G90 ( Absolute coordinates. )
G00 S12000 ( RPM spindle speed. )
G64 P0.00040 ( set maximum deviation from commanded toolpath )
G01 F360.00000 ( Feedrate. )


G00 Z1.00000 (Retract to tool change height)
T1
M5      (Spindle stop.)
G04 P1.00000 (Wait for spindle to stop)
(MSG, Change tool bit to mill diameter 0.03937in)
M6      (Tool change.)
M0      (Temporary machine stop.)
M3 ( Spindle on clockwise. )
G04 P1.00000 (Wait for spindle to get up to speed)
G04 P0 ( dwell for no time -- G64 should not smooth over this point )
G00 Z0.08000 ( retract )

G00 X-5.52759 Y-4.16786 ( rapid move to begin. )
G01 F180.00000
( Mill infeed pass 1/1 )
G01 Z-0.04000
G04 P0 ( dwell for no time -- G64 should not smooth over this point )
G01 F360.00000
G01 X-5.52759 Y-4.16786
G01 X-5.55691 Y-4.15572
G01 X-6.05000 Y-4.15572
G01 X-6.05521 Y-4.15604
G01 X-6.06072 Y-4.15704
G01 X-6.06565 Y-4.15866
G01 X-6.06926 Y-4.16018
G01 X-6.07176 Y-4.16145
G01 X-6.07449 Y-4.16310
G01 X-6.07708 Y-4.16498
G01 X-6.08141 Y-4.16878
G01 X-6.08506 Y-4.17302
G01 X-6.08894 Y-4.17898
G01 X-6.09021 Y-4.18147
G01 X-6.09145 Y-4.18442
G01 X-6.09321 Y-4.19032
G01 X-6.09406 Y-4.19585
G01 X-6.09415 Y-4.20259
G01 X-6.09393 Y-4.20542
G01 X-6.09351 Y-4.20824
G01 X-6.09288 Y-4.21102
G01 X-6.09192 Y-4.21413
G01 X-6.08929 Y-4.22034
G01 X-6.08645 Y-4.22515
G01 X-6.08287 Y-4.22967
G01 X-6.07977 Y-4.23278
G01 X-6.07666 Y-4.23529
G01 X-6.07203 Y-4.23836
G01 X-6.06807 Y-4.24043
G01 X-6.06428 Y-4.24191
G01 X-6.06036 Y-4.24299
G01 X-6.05527 Y-4.24393
G01 X-6.05081 Y-4.24428
G01 X-5.44884 Y-4.24427
G01 X-5.44478 Y-4.24396
G01 X-5.44162 Y-4.24348
G01 X-5.43851 Y-4.24275
G01 X-5.43509 Y-4.24163
G01 X-5.43075 Y-4.23982
G01 X-5.42758 Y-4.23818
G01 X-5.42426 Y-4.23603
G01 X-5.42146 Y-4.23382
G01 X-5.41807 Y-4.23057
G01 X-5.41592 Y-4.22824
G01 X-5.41374 Y-4.22542
G01 X-5.41182 Y-4.22241
G01 X-5.41001 Y-4.21889
G01 X-5.40822 Y-4.21451
G01 X-5.40722 Y-4.21141
G01 X-5.40642 Y-4.20784
G01 X-5.40595 Y-4.20421
G01 X-5.40581 Y-4.20096
G01 X-5.42549 Y-4.20096
G01 X-5.42564 Y-4.20339
G01 X-5.42609 Y-4.20579
G01 X-5.42669 Y-4.20773
G01 X-5.42805 Y-4.21101
G01 X-5.42900 Y-4.21281
G01 X-5.43013 Y-4.21450
G01 X-5.43142 Y-4.21607
G01 X-5.43335 Y-4.21801
G01 X-5.43518 Y-4.21963
G01 X-5.43684 Y-4.22079
G01 X-5.43899 Y-4.22195
G01 X-5.44151 Y-4.22301
G01 X-5.44506 Y-4.22411
G01 X-5.44961 Y-4.22460
G01 X-6.05039 Y-4.22460
G01 X-6.05270 Y-4.22442
G01 X-6.05572 Y-4.22385
G01 X-6.05923 Y-4.22281
G01 X-6.06248 Y-4.22114
G01 X-6.06510 Y-4.21937
G01 X-6.06700 Y-4.21778
G01 X-6.06957 Y-4.21490
G01 X-6.07118 Y-4.21250
G01 X-6.07317 Y-4.20812
G01 X-6.07400 Y-4.20540
G01 X-6.07447 Y-4.20218
G01 X-6.07447 Y-4.19780
G01 X-6.07399 Y-4.19452
G01 X-6.07299 Y-4.19123
G01 X-6.07157 Y-4.18823
G01 X-6.06912 Y-4.18457
G01 X-6.06720 Y-4.18241
G01 X-6.06457 Y-4.18018
G01 X-6.06177 Y-4.17842
G01 X-6.05772 Y-4.17668
G01 X-6.05494 Y-4.17589
G01 X-6.05154 Y-4.17545
G01 X-5.50940 Y-4.17539
G01 X-5.96819 Y-3.71656
G01 X-5.97091 Y-3.71282
G01 X-5.97249 Y-3.70998
G01 X-5.97347 Y-3.70730
G01 X-5.97430 Y-3.70344
G01 X-5.97461 Y-3.70020
G01 X-5.97443 Y-3.69736
G01 X-5.97358 Y-3.69309
G01 X-5.97265 Y-3.69040
G01 X-5.97135 Y-3.68787
G01 X-5.96889 Y-3.68427
G01 X-5.96696 Y-3.68217
G01 X-5.96442 Y-3.68015
G01 X-5.96143 Y-3.67824
G01 X-5.95847 Y-3.67690
G01 X-5.95652 Y-3.67632
G01 X-5.95384 Y-3.67577
G01 X-5.95061 Y-3.67540
G01 X-5.94858 Y-3.67544
G01 X-5.94656 Y-3.67570
G01 X-5.94309 Y-3.67642
G01 X-5.94077 Y-3.67719
G01 X-5.93893 Y-3.67804
G01 X-5.93718 Y-3.67909
G01 X-5.93464 Y-3.68082
G01 X-5.93260 Y-3.68260
G01 X-5.43260 Y-4.18260
G01 X-5.43043 Y-4.18510
G01 X-5.42924 Y-4.18679
G01 X-5.42805 Y-4.18897
G01 X-5.42683 Y-4.19188
G01 X-5.42609 Y-4.19421
G01 X-5.42569 Y-4.19620
G01 X-5.42551 Y-4.19823
G01 X-5.42549 Y-4.20096
G01 X-5.40581 Y-4.20096
G01 X-5.40589 Y-4.19660
G01 X-5.40635 Y-4.19256
G01 X-5.40722 Y-4.18859
G01 X-5.40850 Y-4.18473
G01 X-5.41035 Y-4.18038
G01 X-5.41246 Y-4.17652
G01 X-5.41498 Y-4.17292
G01 X-5.41814 Y-4.16924
G01 X-5.91956 Y-3.66784
G01 X-5.92267 Y-3.66521
G01 X-5.92693 Y-3.66228
G01 X-5.93010 Y-3.66045
G01 X-5.93343 Y-3.65893
G01 X-5.93689 Y-3.65773
G01 X-5.94044 Y-3.65685
G01 X-5.94506 Y-3.65603
G01 X-5.94940 Y-3.65572
G01 X-5.95297 Y-3.65583
G01 X-5.95651 Y-3.65626
G01 X-5.96155 Y-3.65729
G01 X-5.96543 Y-3.65849
G01 X-5.96880 Y-3.65991
G01 X-5.97203 Y-3.66164
G01 X-5.97633 Y-3.66447
G01 X-5.97913 Y-3.66667
G01 X-5.98228 Y-3.66968
G01 X-5.98483 Y-3.67272
G01 X-5.98792 Y-3.67725
G01 X-5.99002 Y-3.68106
G01 X-5.99156 Y-3.68472
G01 X-5.99272 Y-3.68850
G01 X-5.99375 Y-3.69352
G01 X-5.99421 Y-3.69756
G01 X-5.99425 Y-3.70163
G01 X-5.99387 Y-3.70567
G01 X-5.99281 Y-3.71111
G01 X-5.99169 Y-3.71491
G01 X-5.99036 Y-3.71822
G01 X-5.98853 Y-3.72173
G01 X-5.98575 Y-3.72602
G01 X-5.98325 Y-3.72923
G01 X-5.98131 Y-3.73131
G01 X-5.55691 Y-4.15572

G00 Z1.00000 (Retract to tool change height)
T2
M5      (Spindle stop.)
G04 P1.00000 (Wait for spindle to stop)
(MSG, Change tool bit to mill diameter 0.00394in)
M6      (Tool change.)
M0      (Temporary machine stop.)
M3 ( Spindle on clockwise. )
G04 P1.00000 (Wait for spindle to get up to speed)
G04 P0 ( dwell for no time -- G64 should not smooth over this point )
G00 Z0.08000 ( retract )

G00 X-5.47320 Y-4.19039 ( rapid move to begin. )
G01 F180.00000
( Mill infeed pass 1/1 )
G01 Z-0.04000
G04 P0 ( dwell for no time -- G64 should not smooth over this point )
G01 F360.00000
G01 X-5.47320 Y-4.19039
G01 X-5.47614 Y-4.18917
G01 X-5.49144 Y-4.17387
G01 X-5.49142 Y-4.17667
G01 X-5.48089 Y-4.18720
G01 X-5.49578 Y-4.18720
G01 X-5.49423 Y-4.18523
G01 X-5.48564 Y-4.18523
G01 X-5.49172 Y-4.17916
G01 X-5.49236 Y-4.18130
G01 X-5.49039 Y-4.18327
G01 X-5.48746 Y-4.18448
G01 X-5.49039 Y-4.18327
G01 X-5.49318 Y-4.18327
G01 X-5.49267 Y-4.18232
G01 X-5.49221 Y-4.18251
G01 X-5.49267 Y-4.18232
G01 X-5.49318 Y-4.18327
G01 X-5.49039 Y-4.18327
G01 X-5.49236 Y-4.18130
G01 X-5.49172 Y-4.17916
G01 X-5.48564 Y-4.18523
G01 X-5.48271 Y-4.18645
G01 X-5.48564 Y-4.18523
G01 X-5.49423 Y-4.18523
G01 X-5.49578 Y-4.18720
G01 X-5.48089 Y-4.18720
G01 X-5.47796 Y-4.18842
G01 X-5.48089 Y-4.18720
G01 X-5.49142 Y-4.17667
G01 X-5.49144 Y-4.17387
G01 X-5.47614 Y-4.18917
G01 X-5.49779 Y-4.18917
G01 X-5.50064 Y-4.19114
G01 X-5.47138 Y-4.19114
G01 X-5.46845 Y-4.19236
G01 X-5.47138 Y-4.19114
G01 X-5.49207 Y-4.17046
G01 X-5.49427 Y-4.16547
G01 X-5.46663 Y-4.19311
G01 X-5.50573 Y-4.19311

G04 P0 ( dwell for no time -- G64 should not smooth over this point )
G00 Z1.000000 ( retract )

M5 ( Spindle off. )
G04 P1.000000
M9 ( Coolant off. )
M2 ( Program end. )

