( pcb2gcode 2.5.0 )
( Software-independent Gcode )

G94 ( Inches per minute feed rate. )
G20 ( Units == INCHES. )

G90 ( Absolute coordinates. )
G00 S12000 ( RPM spindle speed. )
G64 P0.00040 ( set maximum deviation from commanded toolpath )
G01 F360.00000 ( Feedrate. )


G00 Z1.00000 (Retract to tool change height)
T0
M5      (Spindle stop.)
G04 P1.00000 (Wait for spindle to stop)
(MSG, Change tool bit to mill diameter 0.03937in)
M6      (Tool change.)
M0      (Temporary machine stop.)
M3 ( Spindle on clockwise. )
G04 P1.00000 (Wait for spindle to get up to speed)
G04 P0 ( dwell for no time -- G64 should not smooth over this point )
G00 Z0.08000 ( retract )

G00 X-5.52761 Y-4.16784 ( rapid move to begin. )
G01 F180.00000
( Mill infeed pass 1/1 )
G01 Z-0.04000
G04 P0 ( dwell for no time -- G64 should not smooth over this point )
G01 F360.00000
G01 X-5.52761 Y-4.16784
G01 X-5.55691 Y-4.15572
G01 X-6.05000 Y-4.15572
G01 X-6.05482 Y-4.15600
G01 X-6.06602 Y-4.15881
G01 X-6.06780 Y-4.15954
G01 X-6.07297 Y-4.16215
G01 X-6.07770 Y-4.16548
G01 X-6.08265 Y-4.17009
G01 X-6.08621 Y-4.17465
G01 X-6.08727 Y-4.17625
G01 X-6.09221 Y-4.18669
G01 X-6.09376 Y-4.19326
G01 X-6.09419 Y-4.19904
G01 X-6.09419 Y-4.20096
G01 X-6.09343 Y-4.20864
G01 X-6.09119 Y-4.21602
G01 X-6.09046 Y-4.21780
G01 X-6.08785 Y-4.22297
G01 X-6.08391 Y-4.22845
G01 X-6.07991 Y-4.23264
G01 X-6.07535 Y-4.23621
G01 X-6.07375 Y-4.23728
G01 X-6.06695 Y-4.24091
G01 X-6.05956 Y-4.24315
G01 X-6.05768 Y-4.24353
G01 X-6.05000 Y-4.24428
G01 X-5.45000 Y-4.24428
G01 X-5.44518 Y-4.24400
G01 X-5.43398 Y-4.24119
G01 X-5.43220 Y-4.24046
G01 X-5.42540 Y-4.23682
G01 X-5.41943 Y-4.23193
G01 X-5.41807 Y-4.23057
G01 X-5.41318 Y-4.22460
G01 X-5.40954 Y-4.21780
G01 X-5.40881 Y-4.21602
G01 X-5.40657 Y-4.20864
G01 X-5.40581 Y-4.20096
G01 X-5.42549 Y-4.20096
G01 X-5.42587 Y-4.20480
G01 X-5.42699 Y-4.20849
G01 X-5.42772 Y-4.21027
G01 X-5.42954 Y-4.21367
G01 X-5.43199 Y-4.21665
G01 X-5.43335 Y-4.21801
G01 X-5.43633 Y-4.22046
G01 X-5.43973 Y-4.22228
G01 X-5.44151 Y-4.22301
G01 X-5.44711 Y-4.22442
G01 X-5.45000 Y-4.22461
G01 X-6.05000 Y-4.22461
G01 X-6.05384 Y-4.22423
G01 X-6.05572 Y-4.22385
G01 X-6.05942 Y-4.22273
G01 X-6.06282 Y-4.22091
G01 X-6.06670 Y-4.21807
G01 X-6.06931 Y-4.21522
G01 X-6.07098 Y-4.21285
G01 X-6.07301 Y-4.20849
G01 X-6.07413 Y-4.20480
G01 X-6.07451 Y-4.20096
G01 X-6.07451 Y-4.19904
G01 X-6.07430 Y-4.19615
G01 X-6.07338 Y-4.19240
G01 X-6.07091 Y-4.18718
G01 X-6.06985 Y-4.18558
G01 X-6.06806 Y-4.18330
G01 X-6.06522 Y-4.18069
G01 X-6.06285 Y-4.17902
G01 X-6.05849 Y-4.17699
G01 X-6.05289 Y-4.17558
G01 X-6.05193 Y-4.17549
G01 X-5.50940 Y-4.17539
G01 X-5.96740 Y-3.71740
G01 X-5.96985 Y-3.71442
G01 X-5.97091 Y-3.71282
G01 X-5.97273 Y-3.70942
G01 X-5.97385 Y-3.70572
G01 X-5.97423 Y-3.70384
G01 X-5.97461 Y-3.70000
G01 X-5.97423 Y-3.69616
G01 X-5.97385 Y-3.69428
G01 X-5.97273 Y-3.69058
G01 X-5.97091 Y-3.68718
G01 X-5.96985 Y-3.68558
G01 X-5.96740 Y-3.68260
G01 X-5.96442 Y-3.68015
G01 X-5.96282 Y-3.67909
G01 X-5.95942 Y-3.67727
G01 X-5.95572 Y-3.67615
G01 X-5.95384 Y-3.67577
G01 X-5.95000 Y-3.67539
G01 X-5.94616 Y-3.67577
G01 X-5.94428 Y-3.67615
G01 X-5.94058 Y-3.67727
G01 X-5.93718 Y-3.67909
G01 X-5.93558 Y-3.68015
G01 X-5.93260 Y-3.68260
G01 X-5.43260 Y-4.18260
G01 X-5.43069 Y-4.18478
G01 X-5.42902 Y-4.18715
G01 X-5.42699 Y-4.19151
G01 X-5.42587 Y-4.19520
G01 X-5.42549 Y-4.19904
G01 X-5.42549 Y-4.20096
G01 X-5.40581 Y-4.20096
G01 X-5.40581 Y-4.19904
G01 X-5.40657 Y-4.19136
G01 X-5.40881 Y-4.18398
G01 X-5.40954 Y-4.18220
G01 X-5.41215 Y-4.17703
G01 X-5.41548 Y-4.17229
G01 X-5.41869 Y-4.16869
G01 X-5.91869 Y-3.66869
G01 X-5.92465 Y-3.66379
G01 X-5.92625 Y-3.66272
G01 X-5.93305 Y-3.65909
G01 X-5.94044 Y-3.65685
G01 X-5.94232 Y-3.65647
G01 X-5.95000 Y-3.65572
G01 X-5.95768 Y-3.65647
G01 X-5.95956 Y-3.65685
G01 X-5.96695 Y-3.65909
G01 X-5.97375 Y-3.66272
G01 X-5.97535 Y-3.66379
G01 X-5.98131 Y-3.66869
G01 X-5.98621 Y-3.67465
G01 X-5.98728 Y-3.67625
G01 X-5.99091 Y-3.68305
G01 X-5.99315 Y-3.69044
G01 X-5.99353 Y-3.69232
G01 X-5.99428 Y-3.70000
G01 X-5.99353 Y-3.70768
G01 X-5.99315 Y-3.70956
G01 X-5.99091 Y-3.71695
G01 X-5.98728 Y-3.72375
G01 X-5.98621 Y-3.72535
G01 X-5.98131 Y-3.73131
G01 X-5.55691 Y-4.15572

G00 Z1.00000 (Retract to tool change height)
T1
M5      (Spindle stop.)
G04 P1.00000 (Wait for spindle to stop)
(MSG, Change tool bit to mill diameter 0.00394in)
M6      (Tool change.)
M0      (Temporary machine stop.)
M3 ( Spindle on clockwise. )
G04 P1.00000 (Wait for spindle to get up to speed)
G04 P0 ( dwell for no time -- G64 should not smooth over this point )
G00 Z0.08000 ( retract )

G00 X-5.47320 Y-4.19039 ( rapid move to begin. )
G01 F180.00000
( Mill infeed pass 1/1 )
G01 Z-0.04000
G04 P0 ( dwell for no time -- G64 should not smooth over this point )
G01 F360.00000
G01 X-5.47320 Y-4.19039
G01 X-5.47614 Y-4.18917
G01 X-5.49144 Y-4.17387
G01 X-5.49142 Y-4.17667
G01 X-5.48089 Y-4.18720
G01 X-5.49578 Y-4.18720
G01 X-5.49423 Y-4.18523
G01 X-5.48564 Y-4.18523
G01 X-5.49172 Y-4.17916
G01 X-5.49236 Y-4.18130
G01 X-5.49039 Y-4.18327
G01 X-5.48746 Y-4.18448
G01 X-5.49039 Y-4.18327
G01 X-5.49318 Y-4.18327
G01 X-5.49267 Y-4.18232
G01 X-5.49221 Y-4.18251
G01 X-5.49267 Y-4.18232
G01 X-5.49318 Y-4.18327
G01 X-5.49039 Y-4.18327
G01 X-5.49236 Y-4.18130
G01 X-5.49172 Y-4.17916
G01 X-5.48564 Y-4.18523
G01 X-5.48271 Y-4.18645
G01 X-5.48564 Y-4.18523
G01 X-5.49423 Y-4.18523
G01 X-5.49578 Y-4.18720
G01 X-5.48089 Y-4.18720
G01 X-5.47796 Y-4.18842
G01 X-5.48089 Y-4.18720
G01 X-5.49142 Y-4.17667
G01 X-5.49144 Y-4.17387
G01 X-5.47614 Y-4.18917
G01 X-5.49779 Y-4.18917
G01 X-5.50064 Y-4.19114
G01 X-5.47138 Y-4.19114
G01 X-5.46845 Y-4.19236
G01 X-5.47138 Y-4.19114
G01 X-5.49207 Y-4.17046
G01 X-5.49427 Y-4.16547
G01 X-5.46663 Y-4.19311
G01 X-5.50573 Y-4.19311

G04 P0 ( dwell for no time -- G64 should not smooth over this point )
G00 Z1.000000 ( retract )

M5 ( Spindle off. )
G04 P1.000000
M9 ( Coolant off. )
M2 ( Program end. )

