( pcb2gcode 2.5.0 )
( Software-independent Gcode )

G94 ( Millimeters per minute feed rate. )
G21 ( Units == Millimeters. )

G90 ( Absolute coordinates. )
G00 S7000 ( RPM spindle speed. )
G01 F200.00000 ( Feedrate. )


G00 Z25.00000 (Retract to tool change height)
T1
M5      (Spindle stop.)
G04 P1.00000 (Wait for spindle to stop)
(MSG, Change tool bit to mill diameter 0.04000mm)
M6      (Tool change.)
M0      (Temporary machine stop.)
M3 ( Spindle on clockwise. )
G04 P1.00000 (Wait for spindle to get up to speed)
G04 P0 ( dwell for no time -- G64 should not smooth over this point )
G00 Z1.00000 ( retract )

G00 X1.47296 Y1.63499 ( rapid move to begin. )
G01 F100.00000
( Mill infeed pass 1/1 )
G01 Z-0.02500
G04 P0 ( dwell for no time -- G64 should not smooth over this point )
G01 F200.00000
G01 X1.47296 Y1.63499
G01 X1.47398 Y6.25098
G01 X1.50542 Y6.34694
G01 X1.53313 Y6.37260
G01 X1.63484 Y6.41298
G01 X3.21497 Y6.41644
G01 X3.31626 Y6.46675
G01 X3.40692 Y6.61778
G01 X3.52188 Y6.67084
G01 X3.69246 Y6.65194
G01 X4.58682 Y6.64610
G01 X4.58682 Y6.81085
G01 X3.68898 Y6.80498
G01 X3.65043 Y6.81903
G01 X3.63260 Y6.84448
G01 X3.63702 Y8.41900
G01 X3.68898 Y8.44899
G01 X4.58682 Y8.44313
G01 X4.58682 Y8.60683
G01 X3.79099 Y8.60096
G01 X3.68561 Y8.64069
G01 X3.63181 Y8.73800
G01 X3.63181 Y9.05494
G01 X3.68561 Y9.15224
G01 X3.78017 Y9.19098
G01 X7.74719 Y9.19197
G01 X7.89200 Y9.21897
G01 X23.58798 Y9.21714
G01 X23.68526 Y9.16334
G01 X23.72499 Y9.05801
G01 X23.72575 Y6.87704
G01 X23.75384 Y6.78540
G01 X23.81790 Y6.71605
G01 X23.94208 Y6.67889
G01 X27.12485 Y6.67897
G01 X27.20220 Y6.69195
G01 X27.26598 Y6.72934
G01 X27.31345 Y6.78532
G01 X27.33829 Y6.85443
G01 X27.34197 Y9.05809
G01 X27.35990 Y9.13149
G01 X27.41220 Y9.19042
G01 X27.50400 Y9.21897
G01 X31.07100 Y9.21798
G01 X31.17836 Y9.16324
G01 X31.21702 Y9.06764
G01 X31.21875 Y6.87704
G01 X31.24684 Y6.78540
G01 X31.31090 Y6.71605
G01 X31.43500 Y6.67889
G01 X34.68118 Y6.68758
G01 X34.72745 Y6.70691
G01 X34.81463 Y6.80043
G01 X34.83396 Y6.87569
G01 X34.83497 Y9.05702
G01 X34.85285 Y9.13142
G01 X34.90523 Y9.19042
G01 X34.99692 Y9.21897
G01 X37.93232 Y9.22199
G01 X38.30573 Y9.26705
G01 X38.66931 Y9.36210
G01 X38.94891 Y9.47259
G01 X39.21523 Y9.61259
G01 X39.46481 Y9.77998
G01 X39.69483 Y9.97378
G01 X39.90242 Y10.19116
G01 X40.08675 Y10.42941
G01 X40.20669 Y10.61955
G01 X40.34200 Y10.88818
G01 X40.44880 Y11.16949
G01 X40.54949 Y11.60835
G01 X40.57697 Y11.90873
G01 X40.57796 Y19.95199
G01 X40.59125 Y20.01720
G01 X40.64824 Y20.08542
G01 X40.73976 Y20.11397
G01 X43.36924 Y20.12235
G01 X43.44862 Y20.16393
G01 X43.51270 Y20.25540
G01 X43.52599 Y20.33238
G01 X43.53033 Y20.77569
G01 X43.58172 Y20.86335
G01 X43.67732 Y20.90201
G01 X57.18199 Y20.90297
G01 X57.35454 Y20.87305
G01 X57.47999 Y20.82718
G01 X57.60399 Y20.75740
G01 X57.73099 Y20.65339
G01 X57.82492 Y20.54298
G01 X57.91133 Y20.39157
G01 X57.95608 Y20.26619
G01 X57.98499 Y20.09398
G01 X57.98694 Y7.34442
G01 X58.01245 Y7.03231
G01 X58.08910 Y6.64913
G01 X58.18494 Y6.35278
G01 X58.34808 Y5.99708
G01 X58.50973 Y5.72962
G01 X58.69781 Y5.47981
G01 X58.96693 Y5.19693
G01 X59.20790 Y4.99807
G01 X59.46655 Y4.82368
G01 X59.81430 Y4.64491
G01 X60.10718 Y4.53521
G01 X60.40927 Y4.45576
G01 X60.71811 Y4.40770
G01 X61.03149 Y4.39195
G01 X65.66257 Y4.39297
G01 X66.03298 Y4.42246
G01 X66.49628 Y4.52645
G01 X66.93661 Y4.70008
G01 X67.34550 Y4.94031
G01 X67.71128 Y5.24138
G01 X68.02703 Y5.59536
G01 X68.28296 Y5.99447
G01 X68.47420 Y6.42789
G01 X68.59612 Y6.88705
G01 X68.63021 Y7.11984
G01 X68.64598 Y7.43747
G01 X68.64296 Y20.03597
G01 X68.66282 Y20.21918
G01 X68.71768 Y20.38740
G01 X68.80574 Y20.54140
G01 X68.91476 Y20.66642
G01 X69.05573 Y20.77480
G01 X69.18596 Y20.84051
G01 X69.34496 Y20.88753
G01 X69.48499 Y20.90297
G01 X74.16299 Y20.90297
G01 X74.30873 Y20.87587
G01 X78.30440 Y20.87086
G01 X78.38772 Y20.81859
G01 X78.42503 Y20.72464
G01 X78.42536 Y20.43825
G01 X78.37078 Y20.32596
G01 X78.26399 Y20.28496
G01 X77.46811 Y20.29083
G01 X77.46811 Y20.12713
G01 X78.36699 Y20.13299
G01 X78.41896 Y20.10300
G01 X78.42338 Y18.52848
G01 X78.40555 Y18.50303
G01 X78.36699 Y18.48898
G01 X77.46811 Y18.49485
G01 X77.46811 Y18.33010
G01 X78.36351 Y18.33597
G01 X78.53491 Y18.35487
G01 X78.64977 Y18.30303
G01 X78.74347 Y18.14971
G01 X78.83760 Y18.10270
G01 X80.42111 Y18.09899
G01 X80.52724 Y18.05936
G01 X80.58113 Y17.96196
G01 X80.58197 Y1.63499
G01 X80.54235 Y1.52871
G01 X80.44496 Y1.47482
G01 X53.70196 Y1.47296
G01 X53.59658 Y1.51269
G01 X53.54281 Y1.61002
G01 X53.54878 Y2.68284
G01 X53.40110 Y2.68284
G01 X53.40694 Y1.78500
G01 X53.38553 Y1.73903
G01 X53.34697 Y1.72498
G01 X51.79298 Y1.73303
G01 X51.76298 Y1.78500
G01 X51.76885 Y2.68284
G01 X51.62026 Y2.68284
G01 X51.62805 Y1.62440
G01 X51.58449 Y1.52371
G01 X51.46699 Y1.47296
G01 X1.63499 Y1.47296
G01 X1.53062 Y1.51101
G01 X1.47433 Y1.62229
G01 X1.47296 Y1.63499
G01 X1.49298 Y1.63499
G01 X1.54068 Y1.52871
G01 X1.63499 Y1.49298
G01 X51.46699 Y1.49298
G01 X51.57322 Y1.54068
G01 X51.60837 Y1.62793
G01 X51.60019 Y2.70285
G01 X51.78884 Y2.70283
G01 X51.78299 Y1.78500
G01 X51.79470 Y1.75670
G01 X51.82300 Y1.74499
G01 X53.36917 Y1.75173
G01 X53.38693 Y1.78500
G01 X53.38111 Y2.70283
G01 X53.56879 Y2.70283
G01 X53.56252 Y1.61332
G01 X53.60971 Y1.52777
G01 X53.70196 Y1.49298
G01 X80.44809 Y1.49620
G01 X80.52721 Y1.54179
G01 X80.56196 Y1.63499
G01 X80.55975 Y17.96510
G01 X80.51415 Y18.04423
G01 X80.42106 Y18.07897
G01 X78.83438 Y18.08271
G01 X78.72993 Y18.13475
G01 X78.63585 Y18.28868
G01 X78.53359 Y18.33490
G01 X78.36465 Y18.31595
G01 X77.44812 Y18.31011
G01 X77.44812 Y18.51484
G01 X78.36699 Y18.50899
G01 X78.40395 Y18.53368
G01 X78.40024 Y20.09520
G01 X78.36699 Y20.11298
G01 X77.44812 Y20.10714
G01 X77.44812 Y20.31082
G01 X78.26399 Y20.30498
G01 X78.35716 Y20.34064
G01 X78.40504 Y20.43830
G01 X78.40534 Y20.72108
G01 X78.37464 Y20.80259
G01 X78.30788 Y20.84910
G01 X74.30680 Y20.85588
G01 X74.16299 Y20.88296
G01 X69.48078 Y20.88275
G01 X69.35063 Y20.86835
G01 X69.19162 Y20.82133
G01 X69.06780 Y20.75888
G01 X68.92985 Y20.65326
G01 X68.81611 Y20.52159
G01 X68.73511 Y20.37760
G01 X68.68187 Y20.21311
G01 X68.66297 Y20.03597
G01 X68.66599 Y7.43696
G01 X68.65012 Y7.11788
G01 X68.61573 Y6.88303
G01 X68.49312 Y6.42126
G01 X68.30064 Y5.98497
G01 X68.04301 Y5.58324
G01 X67.72518 Y5.22690
G01 X67.35700 Y4.92386
G01 X66.94540 Y4.68205
G01 X66.50217 Y4.50732
G01 X66.03598 Y4.40262
G01 X65.66338 Y4.37296
G01 X61.03098 Y4.37196
G01 X60.71605 Y4.38779
G01 X60.40515 Y4.43615
G01 X60.10111 Y4.51611
G01 X59.80617 Y4.62660
G01 X59.45636 Y4.80643
G01 X59.19591 Y4.98205
G01 X58.95326 Y5.18228
G01 X58.68252 Y5.46686
G01 X58.49314 Y5.71839
G01 X58.33035 Y5.98771
G01 X58.16627 Y6.34552
G01 X58.06972 Y6.64407
G01 X57.99261 Y7.02954
G01 X57.96696 Y7.34361
G01 X57.96497 Y20.09398
G01 X57.93637 Y20.26279
G01 X57.88961 Y20.39098
G01 X57.80343 Y20.53889
G01 X57.71831 Y20.63792
G01 X57.59131 Y20.74193
G01 X57.35799 Y20.85146
G01 X57.18199 Y20.88296
G01 X43.68799 Y20.88296
G01 X43.59480 Y20.84821
G01 X43.54755 Y20.76269
G01 X43.54598 Y20.33058
G01 X43.53160 Y20.24752
G01 X43.46218 Y20.14846
G01 X43.37420 Y20.10239
G01 X40.73984 Y20.09395
G01 X40.66049 Y20.06962
G01 X40.60981 Y20.00978
G01 X40.59798 Y19.95199
G01 X40.59699 Y11.90781
G01 X40.56930 Y11.60555
G01 X40.46785 Y11.16331
G01 X40.36031 Y10.88010
G01 X40.22412 Y10.60970
G01 X40.10316 Y10.41793
G01 X39.91761 Y10.17810
G01 X39.70855 Y9.95918
G01 X39.47687 Y9.76398
G01 X39.22546 Y9.59537
G01 X38.95726 Y9.45438
G01 X38.67553 Y9.34305
G01 X38.30949 Y9.24737
G01 X37.93354 Y9.20198
G01 X34.99695 Y9.19896
G01 X34.91747 Y9.17462
G01 X34.86990 Y9.12093
G01 X34.85499 Y9.05699
G01 X34.85397 Y6.87313
G01 X34.83291 Y6.79236
G01 X34.73794 Y6.68961
G01 X34.68514 Y6.66759
G01 X31.43333 Y6.65890
G01 X31.34989 Y6.67308
G01 X31.29853 Y6.69995
G01 X31.22909 Y6.77519
G01 X31.19873 Y6.87402
G01 X31.19734 Y9.06408
G01 X31.16322 Y9.15016
G01 X31.07100 Y9.19796
G01 X27.50400 Y9.19896
G01 X27.42447 Y9.17462
G01 X27.37690 Y9.12098
G01 X27.36199 Y9.05804
G01 X27.35825 Y6.85093
G01 X27.33102 Y6.77516
G01 X27.27906 Y6.71382
G01 X27.20916 Y6.67285
G01 X27.12653 Y6.65896
G01 X23.94038 Y6.65888
G01 X23.85689 Y6.67308
G01 X23.80553 Y6.69995
G01 X23.73609 Y6.77519
G01 X23.70573 Y6.87402
G01 X23.70434 Y9.06517
G01 X23.67017 Y9.15024
G01 X23.58465 Y9.19741
G01 X7.89200 Y9.19896
G01 X7.74910 Y9.17195
G01 X3.78378 Y9.17132
G01 X3.69871 Y9.13716
G01 X3.65154 Y9.05161
G01 X3.65154 Y8.74132
G01 X3.69871 Y8.65578
G01 X3.79099 Y8.62098
G01 X4.60681 Y8.62682
G01 X4.60681 Y8.42314
G01 X3.68898 Y8.42898
G01 X3.65574 Y8.41120
G01 X3.65203 Y6.84968
G01 X3.68898 Y6.82500
G01 X4.60681 Y6.83084
G01 X4.60681 Y6.62611
G01 X3.69130 Y6.63193
G01 X3.52325 Y6.65090
G01 X3.42434 Y6.60648
G01 X3.32891 Y6.45070
G01 X3.21967 Y6.39645
G01 X1.63489 Y6.39297
G01 X1.52374 Y6.33866
G01 X1.49399 Y6.25098
G01 X1.49298 Y1.63499
G01 X1.51297 Y1.63499
G01 X1.55432 Y1.54334
G01 X1.63499 Y1.51297
G01 X51.46699 Y1.51297
G01 X51.55859 Y1.55432
G01 X51.58868 Y1.63146
G01 X51.58602 Y2.71698
G01 X51.80298 Y2.71698
G01 X51.80298 Y1.78500
G01 X51.82300 Y1.76498
G01 X53.35807 Y1.76836
G01 X53.36696 Y2.71698
G01 X53.58294 Y2.71698
G01 X53.58225 Y1.61665
G01 X53.62284 Y1.54286
G01 X53.70196 Y1.51297
G01 X80.44154 Y1.51510
G01 X80.51210 Y1.55488
G01 X80.54197 Y1.63499
G01 X80.54085 Y17.95855
G01 X80.50107 Y18.02911
G01 X80.42101 Y18.05898
G01 X78.83118 Y18.06297
G01 X78.71649 Y18.11994
G01 X78.62190 Y18.27432
G01 X78.53229 Y18.31494
G01 X78.36582 Y18.29597
G01 X77.43397 Y18.29597
G01 X77.43397 Y18.52898
G01 X78.36699 Y18.52898
G01 X78.38546 Y18.54133
G01 X78.38363 Y20.08410
G01 X77.43397 Y20.09299
G01 X77.43397 Y20.32497
G01 X78.26399 Y20.32497
G01 X78.34357 Y20.35530
G01 X78.38551 Y20.44265
G01 X78.38599 Y20.71399
G01 X78.35780 Y20.79179
G01 X78.30042 Y20.83053
G01 X74.30490 Y20.83597
G01 X74.16299 Y20.86297
G01 X69.48288 Y20.86286
G01 X69.35629 Y20.84917
G01 X69.19729 Y20.80216
G01 X69.07989 Y20.74292
G01 X68.94491 Y20.64013
G01 X68.83353 Y20.51178
G01 X68.75253 Y20.36779
G01 X68.70092 Y20.20704
G01 X68.68296 Y20.03597
G01 X68.68598 Y7.43647
G01 X68.67006 Y7.11593
G01 X68.63536 Y6.87900
G01 X68.51204 Y6.41461
G01 X68.31832 Y5.97547
G01 X68.05898 Y5.57110
G01 X67.73907 Y5.21245
G01 X67.36849 Y4.90742
G01 X66.95419 Y4.66401
G01 X66.50806 Y4.48814
G01 X66.03897 Y4.38281
G01 X65.66417 Y4.35297
G01 X61.03047 Y4.35197
G01 X60.71402 Y4.36790
G01 X60.40109 Y4.41657
G01 X60.09504 Y4.49706
G01 X59.79809 Y4.60831
G01 X59.44617 Y4.78921
G01 X59.18395 Y4.96602
G01 X58.93962 Y5.16764
G01 X58.66726 Y5.45393
G01 X58.47658 Y5.70719
G01 X58.31270 Y5.97834
G01 X58.14763 Y6.33825
G01 X58.05037 Y6.63904
G01 X57.97282 Y7.02675
G01 X57.94697 Y7.34280
G01 X57.94498 Y20.09398
G01 X57.91575 Y20.26284
G01 X57.87229 Y20.38097
G01 X57.79027 Y20.52296
G01 X57.70564 Y20.62245
G01 X57.57864 Y20.72647
G01 X57.35098 Y20.83271
G01 X57.18199 Y20.86297
G01 X43.68799 Y20.86297
G01 X43.60788 Y20.83310
G01 X43.56726 Y20.75933
G01 X43.56597 Y20.32878
G01 X43.55007 Y20.23983
G01 X43.47539 Y20.13343
G01 X43.37902 Y20.08296
G01 X40.73991 Y20.07397
G01 X40.67273 Y20.05380
G01 X40.62841 Y20.00239
G01 X40.61797 Y19.95199
G01 X40.61698 Y11.90690
G01 X40.58914 Y11.60276
G01 X40.48690 Y11.15714
G01 X40.37865 Y10.87203
G01 X40.24154 Y10.59984
G01 X40.11957 Y10.40645
G01 X39.93280 Y10.16504
G01 X39.72226 Y9.94457
G01 X39.48891 Y9.74798
G01 X39.23573 Y9.57818
G01 X38.96562 Y9.43617
G01 X38.68175 Y9.32400
G01 X38.31322 Y9.22768
G01 X37.93476 Y9.18199
G01 X34.99697 Y9.17897
G01 X34.92971 Y9.15880
G01 X34.88694 Y9.11046
G01 X34.87498 Y9.05699
G01 X34.87396 Y6.87056
G01 X34.85146 Y6.78418
G01 X34.81580 Y6.72934
G01 X34.74846 Y6.67229
G01 X34.68902 Y6.64796
G01 X31.43165 Y6.63897
G01 X31.34346 Y6.65413
G01 X31.28634 Y6.68408
G01 X31.21174 Y6.76520
G01 X31.17897 Y6.87102
G01 X31.17798 Y9.05699
G01 X31.14811 Y9.13708
G01 X31.07100 Y9.17797
G01 X27.50400 Y9.17897
G01 X27.43671 Y9.15880
G01 X27.39394 Y9.11049
G01 X27.38198 Y9.05801
G01 X27.37796 Y6.84747
G01 X27.34837 Y6.76515
G01 X27.29193 Y6.69850
G01 X27.21599 Y6.65405
G01 X27.12826 Y6.63897
G01 X23.93868 Y6.63897
G01 X23.85046 Y6.65413
G01 X23.79334 Y6.68408
G01 X23.71874 Y6.76520
G01 X23.68597 Y6.87102
G01 X23.68498 Y9.05799
G01 X23.65509 Y9.13711
G01 X23.58132 Y9.17770
G01 X7.89200 Y9.17897
G01 X7.75105 Y9.15197
G01 X3.78738 Y9.15163
G01 X3.71184 Y9.12207
G01 X3.67125 Y9.04828
G01 X3.67125 Y8.74465
G01 X3.71184 Y8.67086
G01 X3.79099 Y8.64097
G01 X4.62096 Y8.64097
G01 X4.62096 Y8.40899
G01 X3.67235 Y8.40010
G01 X3.67052 Y6.85733
G01 X3.68898 Y6.84498
G01 X4.62096 Y6.84498
G01 X4.62096 Y6.61197
G01 X3.69013 Y6.61197
G01 X3.52462 Y6.63094
G01 X3.43343 Y6.58758
G01 X3.34131 Y6.43500
G01 X3.22427 Y6.37696
G01 X1.63494 Y6.37298
G01 X1.54086 Y6.32832
G01 X1.51398 Y6.25098
G01 X1.51297 Y1.63499
G04 P0 ( dwell for no time -- G64 should not smooth over this point )
G00 Z1.00000 ( retract )

G00 X6.81997 Y6.61197 ( rapid move to begin. )
G01 F100.00000
( Mill infeed pass 1/1 )
G01 Z-0.02500
G04 P0 ( dwell for no time -- G64 should not smooth over this point )
G01 F200.00000
G01 X6.81997 Y6.61197
G01 X6.81997 Y6.84498
G01 X7.75690 Y6.84537
G01 X7.77297 Y6.86500
G01 X7.77297 Y7.16198
G01 X8.00546 Y7.16198
G01 X7.99609 Y6.79906
G01 X7.94625 Y6.70216
G01 X7.85936 Y6.63653
G01 X7.75075 Y6.61197
G01 X6.81997 Y6.61197
G01 X6.83996 Y6.63196
G01 X6.83414 Y6.83081
G01 X7.76078 Y6.82576
G01 X7.79299 Y6.86500
G01 X7.78710 Y7.14783
G01 X7.99113 Y7.14803
G01 X7.97671 Y6.80401
G01 X7.93096 Y6.71504
G01 X7.85095 Y6.65466
G01 X7.74851 Y6.63196
G01 X6.83996 Y6.63196
G01 X6.85997 Y6.65197
G01 X6.85413 Y6.81080
G01 X7.77351 Y6.80861
G01 X7.81206 Y6.85456
G01 X7.80716 Y7.12781
G01 X7.97061 Y7.12802
G01 X7.95684 Y6.80909
G01 X7.91526 Y6.72825
G01 X7.84234 Y6.67323
G01 X7.74625 Y6.65197
G01 X6.85997 Y6.65197
G04 P0 ( dwell for no time -- G64 should not smooth over this point )
G00 Z1.00000 ( retract )

G00 X6.81997 Y8.40899 ( rapid move to begin. )
G01 F100.00000
( Mill infeed pass 1/1 )
G01 Z-0.02500
G04 P0 ( dwell for no time -- G64 should not smooth over this point )
G01 F200.00000
G01 X6.81997 Y8.40899
G01 X6.81997 Y8.64097
G01 X7.75082 Y8.64097
G01 X7.85936 Y8.61737
G01 X7.94623 Y8.55082
G01 X7.99609 Y8.45387
G01 X8.00546 Y8.09098
G01 X7.77297 Y8.09098
G01 X7.77297 Y8.38900
G01 X7.75690 Y8.40861
G01 X6.81997 Y8.40899
G01 X6.83996 Y8.42898
G01 X6.83411 Y8.62682
G01 X7.74867 Y8.62098
G01 X7.85095 Y8.59924
G01 X7.93086 Y8.53800
G01 X7.97671 Y8.44892
G01 X7.99113 Y8.10493
G01 X7.78710 Y8.10513
G01 X7.79299 Y8.38900
G01 X7.76078 Y8.42822
G01 X6.83996 Y8.42898
G01 X6.85997 Y8.44899
G01 X7.77351 Y8.44536
G01 X7.81206 Y8.39941
G01 X7.80716 Y8.12514
G01 X7.97061 Y8.12494
G01 X7.95684 Y8.44384
G01 X7.91516 Y8.52486
G01 X7.84234 Y8.58064
G01 X7.74653 Y8.60096
G01 X6.85410 Y8.60683
G01 X6.85997 Y8.44899
G04 P0 ( dwell for no time -- G64 should not smooth over this point )
G00 Z1.00000 ( retract )

G00 X3.62899 Y9.40500 ( rapid move to begin. )
G01 F100.00000
( Mill infeed pass 1/1 )
G01 Z-0.02500
G04 P0 ( dwell for no time -- G64 should not smooth over this point )
G01 F200.00000
G01 X3.62899 Y9.40500
G01 X3.62899 Y10.92900
G01 X3.64304 Y10.96756
G01 X3.67857 Y10.98808
G01 X7.75298 Y10.98899
G01 X7.80269 Y10.95994
G01 X9.85798 Y10.96199
G01 X9.89657 Y10.94795
G01 X9.91709 Y10.91241
G01 X9.91800 Y9.43197
G01 X9.90396 Y9.39342
G01 X9.86842 Y9.37289
G01 X7.80185 Y9.37279
G01 X7.75298 Y9.34498
G01 X3.68898 Y9.34498
G01 X3.64304 Y9.36642
G01 X3.62899 Y9.40500
G01 X3.64898 Y9.40500
G01 X3.64898 Y10.92900
G01 X3.68119 Y10.96822
G01 X7.75298 Y10.96898
G01 X7.78976 Y10.93926
G01 X9.86578 Y10.94122
G01 X9.89799 Y10.90200
G01 X9.89799 Y9.43197
G01 X9.88628 Y9.40370
G01 X9.85801 Y9.39200
G01 X7.78946 Y9.39342
G01 X7.75298 Y9.36499
G01 X3.68119 Y9.36576
G01 X3.64898 Y9.40500
G01 X3.68898 Y9.38498
G01 X7.75298 Y9.38498
G01 X7.77297 Y9.41138
G01 X9.85801 Y9.41198
G01 X9.87800 Y9.43197
G01 X9.87800 Y10.90200
G01 X9.86190 Y10.92161
G01 X7.77297 Y10.92138
G01 X7.75298 Y10.94899
G01 X3.68898 Y10.94899
G01 X3.66899 Y10.92900
G01 X3.66899 Y9.40500
G04 P0 ( dwell for no time -- G64 should not smooth over this point )
G00 Z1.00000 ( retract )

G00 X6.81997 Y11.69204 ( rapid move to begin. )
G01 F100.00000
( Mill infeed pass 1/1 )
G01 Z-0.02500
G04 P0 ( dwell for no time -- G64 should not smooth over this point )
G01 F200.00000
G01 X6.81997 Y11.69204
G01 X6.81997 Y11.92498
G01 X7.75690 Y11.92537
G01 X7.77297 Y11.94500
G01 X7.77297 Y12.24198
G01 X8.00584 Y12.24198
G01 X8.00399 Y11.92316
G01 X7.99007 Y11.85821
G01 X7.94643 Y11.78208
G01 X7.87884 Y11.72656
G01 X7.79637 Y11.69595
G01 X6.81997 Y11.69204
G01 X6.83996 Y11.71213
G01 X6.83411 Y11.91084
G01 X7.76078 Y11.90576
G01 X7.79299 Y11.94500
G01 X7.78710 Y12.22783
G01 X7.99167 Y12.22788
G01 X7.97117 Y11.86545
G01 X7.93116 Y11.79501
G01 X7.86888 Y11.74391
G01 X7.79279 Y11.71564
G01 X6.83996 Y11.71213
G01 X6.85997 Y11.73220
G01 X7.78915 Y11.73563
G01 X7.85880 Y11.76148
G01 X7.91562 Y11.80812
G01 X7.95227 Y11.87269
G01 X7.97155 Y12.20789
G01 X7.80716 Y12.20781
G01 X7.81206 Y11.93456
G01 X7.77351 Y11.88861
G01 X6.85410 Y11.89085
G01 X6.85997 Y11.73220
G04 P0 ( dwell for no time -- G64 should not smooth over this point )
G00 Z1.00000 ( retract )

G00 X10.66997 Y9.43197 ( rapid move to begin. )
G01 F100.00000
( Mill infeed pass 1/1 )
G01 Z-0.02500
G04 P0 ( dwell for no time -- G64 should not smooth over this point )
G01 F200.00000
G01 X10.66997 Y9.43197
G01 X10.66997 Y10.90200
G01 X10.68402 Y10.94056
G01 X10.71955 Y10.96108
G01 X17.60501 Y10.96199
G01 X17.64357 Y10.94795
G01 X17.66409 Y10.91241
G01 X17.66500 Y9.43197
G01 X17.65096 Y9.39342
G01 X17.61542 Y9.37289
G01 X10.72999 Y9.37198
G01 X10.69141 Y9.38603
G01 X10.66997 Y9.43197
G01 X10.68999 Y9.43197
G01 X10.68999 Y10.90200
G01 X10.72217 Y10.94122
G01 X17.60501 Y10.94198
G01 X17.63328 Y10.93027
G01 X17.64499 Y10.90200
G01 X17.64499 Y9.43197
G01 X17.61281 Y9.39276
G01 X10.72999 Y9.39200
G01 X10.70170 Y9.40370
G01 X10.68999 Y9.43197
G01 X10.72999 Y9.41198
G01 X17.60890 Y9.41237
G01 X17.62500 Y9.43197
G01 X17.62500 Y10.90200
G01 X17.60501 Y10.92199
G01 X10.72608 Y10.92161
G01 X10.70998 Y10.90200
G01 X10.70998 Y9.43197
G04 P0 ( dwell for no time -- G64 should not smooth over this point )
G00 Z1.00000 ( retract )

G00 X6.81997 Y13.48899 ( rapid move to begin. )
G01 F100.00000
( Mill infeed pass 1/1 )
G01 Z-0.02500
G04 P0 ( dwell for no time -- G64 should not smooth over this point )
G01 F200.00000
G01 X6.81997 Y13.48899
G01 X6.81997 Y13.72089
G01 X7.79548 Y13.71701
G01 X7.91468 Y13.66110
G01 X7.99009 Y13.55406
G01 X8.00597 Y13.46717
G01 X8.00597 Y13.17098
G01 X7.77297 Y13.17098
G01 X7.77297 Y13.46900
G01 X7.75690 Y13.48861
G01 X6.81997 Y13.48899
G01 X6.83996 Y13.50898
G01 X6.83409 Y13.70672
G01 X7.79111 Y13.69750
G01 X7.90183 Y13.64578
G01 X7.97165 Y13.54632
G01 X7.99182 Y13.18513
G01 X7.78715 Y13.18513
G01 X7.79299 Y13.46900
G01 X7.76078 Y13.50822
G01 X6.83996 Y13.50898
G01 X6.85997 Y13.52899
G01 X7.76340 Y13.52808
G01 X7.79157 Y13.51495
G01 X7.81206 Y13.47941
G01 X7.80716 Y13.20514
G01 X7.97183 Y13.20512
G01 X7.95278 Y13.53839
G01 X7.88854 Y13.62993
G01 X7.78661 Y13.67751
G01 X6.85408 Y13.68665
G01 X6.85997 Y13.52899
G04 P0 ( dwell for no time -- G64 should not smooth over this point )
G00 Z1.00000 ( retract )

G00 X10.66502 Y15.34233 ( rapid move to begin. )
G01 F100.00000
( Mill infeed pass 1/1 )
G01 Z-0.02500
G04 P0 ( dwell for no time -- G64 should not smooth over this point )
G01 F200.00000
G01 X10.66502 Y15.34233
G01 X10.68991 Y15.27227
G01 X10.72362 Y15.22960
G01 X10.76629 Y15.19592
G01 X10.83639 Y15.17067
G01 X18.98987 Y15.16699
G01 X19.06719 Y15.17997
G01 X19.13099 Y15.21736
G01 X19.17846 Y15.27331
G01 X19.20328 Y15.34238
G01 X19.20328 Y16.57557
G01 X19.17803 Y16.64568
G01 X19.14425 Y16.68825
G01 X19.10168 Y16.72203
G01 X19.03155 Y16.74728
G01 X10.87901 Y16.75104
G01 X10.79931 Y16.73765
G01 X10.69964 Y16.66021
G01 X10.66944 Y16.59571
G01 X10.66502 Y15.34233
G01 X10.62499 Y15.33542
G01 X10.62994 Y16.60453
G01 X10.66662 Y16.68332
G01 X10.72895 Y16.74568
G01 X10.78643 Y16.77578
G01 X10.87566 Y16.79096
G01 X19.03848 Y16.78698
G01 X19.12116 Y16.75726
G01 X19.17275 Y16.71675
G01 X19.21326 Y16.66516
G01 X19.24298 Y16.58248
G01 X19.24298 Y15.33547
G01 X19.21339 Y15.25315
G01 X19.15692 Y15.18650
G01 X19.08100 Y15.14207
G01 X18.99327 Y15.12698
G01 X10.82946 Y15.13097
G01 X10.74678 Y15.16069
G01 X10.69522 Y15.20120
G01 X10.65468 Y15.25279
G01 X10.62499 Y15.33542
G01 X10.64500 Y15.33887
G01 X10.64947 Y16.60016
G01 X10.68300 Y16.67186
G01 X10.74081 Y16.72955
G01 X10.79283 Y16.75683
G01 X10.87734 Y16.77103
G01 X19.03505 Y16.76727
G01 X19.11148 Y16.73976
G01 X19.15850 Y16.70250
G01 X19.19576 Y16.65548
G01 X19.22327 Y16.57905
G01 X19.22327 Y15.33890
G01 X19.19606 Y15.26315
G01 X19.14405 Y15.20181
G01 X19.07415 Y15.16087
G01 X18.99157 Y15.14697
G01 X10.83289 Y15.15068
G01 X10.75646 Y15.17819
G01 X10.70937 Y15.21535
G01 X10.67218 Y15.26247
G01 X10.64500 Y15.33887
G01 X10.66502 Y15.34233
G01 X10.83235 Y16.54349
G01 X10.93748 Y16.59757
G01 X11.03129 Y16.53430
G01 X11.32753 Y15.75675
G01 X11.32748 Y15.72081
G01 X11.32753 Y15.75675
G01 X11.62585 Y16.53298
G01 X11.70355 Y16.59513
G01 X11.78269 Y16.58075
G01 X11.82201 Y16.54644
G01 X11.84033 Y16.46490
G01 X11.43436 Y15.39282
G01 X11.38435 Y15.33527
G01 X11.34833 Y15.32333
G01 X11.27744 Y15.33031
G01 X11.21945 Y15.39318
G01 X10.81760 Y16.46526
G01 X10.83759 Y16.46468
G01 X11.23814 Y15.40029
G01 X11.28965 Y15.34662
G01 X11.34835 Y15.34334
G01 X11.41569 Y15.39998
G01 X11.81770 Y16.44898
G01 X11.80362 Y16.53859
G01 X11.78414 Y16.55896
G01 X11.71183 Y16.57631
G01 X11.64487 Y16.52561
G01 X11.32742 Y15.70062
G01 X11.32737 Y15.66455
G01 X11.32742 Y15.70062
G01 X11.01432 Y16.52371
G01 X10.93184 Y16.57793
G01 X10.84236 Y16.52195
G01 X10.83759 Y16.46468
G01 X10.85758 Y16.46407
G01 X11.25686 Y15.40738
G01 X11.29750 Y15.36501
G01 X11.34838 Y15.36333
G01 X11.39702 Y15.40715
G01 X11.79903 Y16.45614
G01 X11.78523 Y16.53074
G01 X11.71432 Y16.55647
G01 X11.65895 Y16.50981
G01 X11.32732 Y15.64448
G01 X10.99738 Y16.51309
G01 X10.92354 Y16.55665
G01 X10.86253 Y16.51715
G01 X10.85758 Y16.46407
G04 P0 ( dwell for no time -- G64 should not smooth over this point )
G00 Z1.00000 ( retract )

G00 X11.88498 Y17.72015 ( rapid move to begin. )
G01 F100.00000
( Mill infeed pass 1/1 )
G01 Z-0.02500
G04 P0 ( dwell for no time -- G64 should not smooth over this point )
G01 F200.00000
G01 X11.88498 Y17.72015
G01 X11.89834 Y18.81166
G01 X11.96001 Y18.84397
G01 X12.61772 Y18.84293
G01 X12.66067 Y18.82131
G01 X12.68196 Y18.76899
G01 X12.66067 Y18.71664
G01 X12.61772 Y18.69502
G01 X12.03497 Y18.69401
G01 X12.03497 Y18.34392
G01 X12.37459 Y18.34232
G01 X12.41269 Y18.32131
G01 X12.43398 Y18.26899
G01 X12.41269 Y18.21664
G01 X12.37459 Y18.19564
G01 X12.03494 Y18.19403
G01 X12.03393 Y17.70920
G01 X11.97906 Y17.64926
G01 X11.91998 Y17.65662
G01 X11.88498 Y17.72015
G01 X11.86496 Y17.72032
G01 X11.88244 Y18.82378
G01 X11.96004 Y18.86399
G01 X12.61774 Y18.86292
G01 X12.67550 Y18.83472
G01 X12.70197 Y18.76899
G01 X12.67550 Y18.70323
G01 X12.62745 Y18.67623
G01 X12.04914 Y18.67986
G01 X12.04917 Y18.35809
G01 X12.37949 Y18.36170
G01 X12.42752 Y18.33473
G01 X12.45399 Y18.26899
G01 X12.42752 Y18.20323
G01 X12.37949 Y18.17626
G01 X12.04914 Y18.17984
G01 X12.05287 Y17.70011
G01 X12.00639 Y17.63826
G01 X11.97711 Y17.62937
G01 X11.90403 Y17.64334
G01 X11.86496 Y17.72032
G01 X11.84497 Y17.72050
G01 X11.86291 Y18.83061
G01 X11.96006 Y18.88398
G01 X12.61780 Y18.88293
G01 X12.68277 Y18.85517
G01 X12.72082 Y18.75728
G01 X12.69031 Y18.68979
G01 X12.63702 Y18.65822
G01 X12.06918 Y18.65985
G01 X12.06921 Y18.37811
G01 X12.38904 Y18.37971
G01 X12.44233 Y18.34816
G01 X12.47398 Y18.26899
G01 X12.44233 Y18.18979
G01 X12.38904 Y18.15825
G01 X12.06921 Y18.15977
G01 X12.07302 Y17.69891
G01 X12.02059 Y17.62406
G01 X11.98495 Y17.60930
G01 X11.90466 Y17.61959
G01 X11.87650 Y17.64595
G01 X11.84497 Y17.72050
G01 X10.62196 Y17.29353
G01 X10.64439 Y17.20854
G01 X10.69532 Y17.13633
G01 X10.76659 Y17.08634
G01 X10.85265 Y17.06297
G01 X23.16075 Y17.06198
G01 X23.26979 Y17.08662
G01 X23.34160 Y17.13633
G01 X23.39151 Y17.20846
G01 X23.41396 Y17.29355
G01 X23.41097 Y18.86894
G01 X23.39179 Y18.93107
G01 X23.34165 Y19.00257
G01 X23.26941 Y19.05261
G01 X23.18427 Y19.07597
G01 X10.87566 Y19.07696
G01 X10.78643 Y19.06178
G01 X10.72895 Y19.03168
G01 X10.66662 Y18.96932
G01 X10.62994 Y18.89050
G01 X10.62196 Y17.29353
G01 X10.64183 Y17.29604
G01 X10.66250 Y17.21700
G01 X10.70944 Y17.15050
G01 X10.77508 Y17.10445
G01 X10.85529 Y17.08279
G01 X23.15852 Y17.08197
G01 X23.26174 Y17.10493
G01 X23.32745 Y17.15048
G01 X23.37335 Y17.21682
G01 X23.39395 Y17.29612
G01 X23.39098 Y18.86589
G01 X23.37360 Y18.92215
G01 X23.32753 Y18.98839
G01 X23.26093 Y19.03447
G01 X23.18158 Y19.05598
G01 X10.87734 Y19.05703
G01 X10.79283 Y19.04283
G01 X10.74081 Y19.01555
G01 X10.68300 Y18.95786
G01 X10.64945 Y18.88613
G01 X10.64183 Y17.29604
G01 X10.66182 Y17.29858
G01 X10.66944 Y18.88166
G01 X10.69964 Y18.94621
G01 X10.75280 Y18.99927
G01 X10.79931 Y19.02365
G01 X10.87904 Y19.03704
G01 X23.17889 Y19.03597
G01 X23.25234 Y19.01611
G01 X23.31320 Y18.97399
G01 X23.37099 Y18.86287
G01 X23.37396 Y17.29871
G01 X23.35491 Y17.22533
G01 X23.31307 Y17.16485
G01 X23.25356 Y17.12358
G01 X23.15628 Y17.10199
G01 X10.85796 Y17.10280
G01 X10.78371 Y17.12284
G01 X10.72377 Y17.16488
G01 X10.68094 Y17.22558
G01 X10.66182 Y17.29858
G01 X10.81399 Y18.76846
G01 X10.82326 Y17.68891
G01 X10.83649 Y17.65185
G01 X10.94642 Y17.60641
G01 X10.98214 Y17.62360
G01 X11.03835 Y17.68624
G01 X11.03817 Y18.15975
G01 X11.52085 Y18.15977
G01 X11.52384 Y17.67966
G01 X11.58597 Y17.61372
G01 X11.67606 Y17.61629
G01 X11.70814 Y17.63772
G01 X11.74498 Y17.72050
G01 X11.73570 Y18.80005
G01 X11.72247 Y18.83711
G01 X11.61254 Y18.88255
G01 X11.57683 Y18.86536
G01 X11.52062 Y18.80272
G01 X11.52079 Y18.37821
G01 X11.03817 Y18.37813
G01 X11.04284 Y18.78067
G01 X10.99316 Y18.86152
G01 X10.94416 Y18.87950
G01 X10.85742 Y18.85850
G01 X10.81399 Y18.76846
G01 X10.83398 Y18.76863
G01 X10.84325 Y17.68908
G01 X10.85506 Y17.66107
G01 X10.94752 Y17.62680
G01 X11.01988 Y17.69391
G01 X11.01815 Y18.17976
G01 X11.54086 Y18.17981
G01 X11.54017 Y17.69155
G01 X11.59006 Y17.63389
G01 X11.66446 Y17.63445
G01 X11.69146 Y17.64887
G01 X11.72499 Y17.72032
G01 X11.71571 Y18.79988
G01 X11.70390 Y18.82789
G01 X11.61145 Y18.86216
G01 X11.53908 Y18.79505
G01 X11.54081 Y18.35820
G01 X11.01815 Y18.35814
G01 X11.02095 Y18.78428
G01 X10.97878 Y18.84760
G01 X10.94612 Y18.85959
G01 X10.87304 Y18.84562
G01 X10.83449 Y18.77526
G01 X10.85399 Y18.76881
G01 X10.86667 Y17.67824
G01 X10.94363 Y17.64641
G01 X11.00253 Y17.70531
G01 X11.00396 Y18.19398
G01 X11.55501 Y18.19398
G01 X11.55602 Y17.70920
G01 X11.61089 Y17.64926
G01 X11.67322 Y17.65878
G01 X11.70474 Y17.71685
G01 X11.69230 Y18.81072
G01 X11.61533 Y18.84255
G01 X11.55643 Y18.78365
G01 X11.55501 Y18.34397
G01 X11.00398 Y18.34397
G01 X11.00246 Y18.77663
G01 X10.94808 Y18.83970
G01 X10.88574 Y18.83018
G01 X10.85399 Y18.76881
G04 P0 ( dwell for no time -- G64 should not smooth over this point )
G00 Z1.00000 ( retract )

G00 X4.95599 Y24.19699 ( rapid move to begin. )
G01 F100.00000
( Mill infeed pass 1/1 )
G01 Z-0.02500
G04 P0 ( dwell for no time -- G64 should not smooth over this point )
G01 F200.00000
G01 X4.95599 Y24.19699
G01 X4.95009 Y24.33865
G01 X5.88311 Y24.32946
G01 X5.96482 Y24.29301
G01 X6.03208 Y24.20428
G01 X6.05083 Y23.87312
G01 X5.90318 Y23.87314
G01 X5.90808 Y24.14741
G01 X5.86950 Y24.19336
G01 X4.95599 Y24.19699
G01 X4.93597 Y24.17698
G01 X5.85680 Y24.17622
G01 X5.88898 Y24.13700
G01 X5.88316 Y23.85313
G01 X6.07082 Y23.85313
G01 X6.05088 Y24.21259
G01 X5.97768 Y24.30916
G01 X5.88743 Y24.34945
G01 X4.93010 Y24.35872
G01 X4.93597 Y24.17698
G01 X4.91598 Y24.15699
G01 X5.85289 Y24.15661
G01 X5.86899 Y24.13700
G01 X5.86899 Y23.83898
G01 X6.08497 Y23.83898
G01 X6.08497 Y24.13515
G01 X6.06917 Y24.22067
G01 X5.99012 Y24.32481
G01 X5.89165 Y24.36900
G01 X4.91598 Y24.37289
G01 X4.91598 Y24.15699
G04 P0 ( dwell for no time -- G64 should not smooth over this point )
G00 Z1.00000 ( retract )

G00 X4.95599 Y22.41620 ( rapid move to begin. )
G01 F100.00000
( Mill infeed pass 1/1 )
G01 Z-0.02500
G04 P0 ( dwell for no time -- G64 should not smooth over this point )
G01 F200.00000
G01 X4.95599 Y22.41620
G01 X4.95012 Y22.55885
G01 X5.86950 Y22.55661
G01 X5.90808 Y22.60256
G01 X5.90318 Y22.87581
G01 X6.05070 Y22.87586
G01 X6.03203 Y22.54318
G01 X5.95296 Y22.44602
G01 X5.88474 Y22.41960
G01 X4.95599 Y22.41620
G01 X4.93597 Y22.39613
G01 X5.88850 Y22.39961
G01 X5.96335 Y22.42857
G01 X6.00732 Y22.46642
G01 X6.05078 Y22.53540
G01 X6.07074 Y22.89585
G01 X5.88314 Y22.89583
G01 X5.88898 Y22.61300
G01 X5.86429 Y22.57604
G01 X4.93016 Y22.57881
G01 X4.93597 Y22.39613
G01 X4.91598 Y22.37604
G01 X5.89221 Y22.37995
G01 X5.97359 Y22.41140
G01 X6.02263 Y22.45318
G01 X6.06924 Y22.52773
G01 X6.08398 Y22.59131
G01 X6.08492 Y22.90998
G01 X5.86899 Y22.90998
G01 X5.86899 Y22.61300
G01 X5.85289 Y22.59337
G01 X4.91598 Y22.59298
G01 X4.91598 Y22.37604
G04 P0 ( dwell for no time -- G64 should not smooth over this point )
G00 Z1.00000 ( retract )

G00 X1.51297 Y24.49199 ( rapid move to begin. )
G01 F100.00000
( Mill infeed pass 1/1 )
G01 Z-0.02500
G04 P0 ( dwell for no time -- G64 should not smooth over this point )
G01 F200.00000
G01 X1.51297 Y24.49199
G01 X1.51297 Y47.90800
G01 X1.53382 Y47.97602
G01 X1.60169 Y48.02552
G01 X46.25997 Y48.02997
G01 X46.35159 Y47.98862
G01 X46.38199 Y47.90800
G01 X46.38199 Y46.12799
G01 X78.52508 Y46.12669
G01 X78.59811 Y46.09710
G01 X78.63499 Y46.03497
G01 X78.63999 Y28.43199
G01 X78.61004 Y28.35183
G01 X78.53527 Y28.31126
G01 X47.34612 Y28.31136
G01 X47.29436 Y28.33270
G01 X45.76035 Y29.42871
G01 X45.70998 Y29.51197
G01 X45.70897 Y39.77997
G01 X45.73884 Y39.86006
G01 X45.81262 Y39.90070
G01 X46.42296 Y39.90194
G01 X46.42296 Y42.15292
G01 X45.17475 Y42.14900
G01 X45.09413 Y42.11784
G01 X45.01710 Y42.04080
G01 X44.98583 Y41.95988
G01 X44.97729 Y41.75177
G01 X44.91186 Y41.67507
G01 X44.57486 Y41.65322
G01 X44.51534 Y41.62617
G01 X44.42202 Y41.53730
G01 X44.37105 Y41.51540
G01 X43.78964 Y41.51296
G01 X43.69553 Y41.49760
G01 X43.57806 Y41.44852
G01 X43.47618 Y41.37087
G01 X41.49810 Y39.39183
G01 X41.41200 Y39.35597
G01 X35.26299 Y39.35597
G01 X35.19883 Y39.37418
G01 X35.15278 Y39.42577
G01 X35.14097 Y41.14786
G01 X35.16182 Y41.21601
G01 X35.22552 Y41.26409
G01 X35.52570 Y41.26999
G01 X35.58956 Y41.25152
G01 X35.64229 Y41.18213
G01 X35.65069 Y41.06389
G01 X35.69532 Y40.96437
G01 X35.77815 Y40.89539
G01 X35.88623 Y40.87001
G01 X37.34823 Y40.87994
G01 X37.42567 Y40.91820
G01 X37.48366 Y40.98266
G01 X37.51526 Y41.06348
G01 X37.52465 Y41.18218
G01 X37.57261 Y41.24885
G01 X37.78653 Y41.27956
G01 X37.90802 Y41.32007
G01 X38.01330 Y41.39152
G01 X38.16103 Y41.53470
G01 X38.21599 Y41.55599
G01 X38.29557 Y41.55546
G01 X38.35920 Y41.52305
G01 X38.51998 Y41.29640
G01 X38.73750 Y41.10349
G01 X38.95069 Y40.98952
G01 X39.13600 Y40.93267
G01 X39.37677 Y40.90710
G01 X39.66288 Y40.94349
G01 X39.93133 Y41.05167
G01 X40.12805 Y41.19033
G01 X40.22975 Y41.29203
G01 X40.34390 Y41.44751
G01 X40.43146 Y41.61969
G01 X40.47659 Y41.75701
G01 X40.50405 Y41.89930
G01 X40.51192 Y42.09211
G01 X40.48734 Y42.28296
G01 X40.44825 Y42.42170
G01 X40.31797 Y42.68030
G01 X40.23008 Y42.79454
G01 X40.09038 Y42.92734
G01 X39.93095 Y43.03559
G01 X39.80049 Y43.09840
G01 X39.66313 Y43.14352
G01 X39.47329 Y43.17598
G01 X39.27946 Y43.17598
G01 X39.13644 Y43.15444
G01 X38.95028 Y43.09729
G01 X38.82038 Y43.03480
G01 X38.58698 Y42.86145
G01 X38.32902 Y42.54212
G01 X37.88724 Y42.52109
G01 X37.61968 Y42.41100
G01 X37.53441 Y42.44527
G01 X37.42768 Y42.59391
G01 X37.30317 Y42.64298
G01 X35.86278 Y42.64298
G01 X35.77853 Y42.61890
G01 X35.69537 Y42.54959
G01 X35.65069 Y42.44908
G01 X35.64229 Y42.33084
G01 X35.58956 Y42.26140
G01 X35.52598 Y42.24298
G01 X35.26098 Y42.24298
G01 X35.16578 Y42.28799
G01 X35.12552 Y42.41883
G01 X35.07983 Y42.49437
G01 X35.00947 Y42.54809
G01 X34.94767 Y42.56897
G01 X33.43622 Y42.57298
G01 X33.31151 Y42.53823
G01 X33.23447 Y42.46117
G01 X33.19997 Y42.35772
G01 X33.19797 Y39.47796
G01 X33.16810 Y39.39788
G01 X33.09431 Y39.35726
G01 X29.72500 Y39.35597
G01 X29.63572 Y39.41431
G01 X29.59571 Y39.55198
G01 X29.54319 Y39.62203
G01 X29.46859 Y39.66900
G01 X29.38119 Y39.68497
G01 X27.86831 Y39.68096
G01 X27.80750 Y39.66011
G01 X27.73709 Y39.60636
G01 X27.69158 Y39.53113
G01 X27.66011 Y39.41419
G01 X27.61086 Y39.36819
G01 X27.55526 Y39.35500
G01 X27.27111 Y39.36814
G01 X27.21987 Y39.41744
G01 X27.19033 Y39.53113
G01 X27.14505 Y39.60601
G01 X27.05508 Y39.66907
G01 X26.96720 Y39.68497
G01 X25.45529 Y39.68096
G01 X25.39349 Y39.66008
G01 X25.32313 Y39.60636
G01 X25.27761 Y39.53113
G01 X25.24637 Y39.41452
G01 X25.15694 Y39.35597
G01 X24.67794 Y39.35698
G01 X24.54713 Y39.38096
G01 X23.52461 Y39.38124
G01 X23.44975 Y39.42300
G01 X23.42128 Y39.49851
G01 X23.42097 Y40.11398
G01 X23.43284 Y40.16730
G01 X23.47782 Y40.21777
G01 X23.54195 Y40.23598
G01 X24.56971 Y40.23697
G01 X24.67324 Y40.27146
G01 X24.74858 Y40.34591
G01 X24.78498 Y40.45134
G01 X24.78597 Y41.02216
G01 X24.76999 Y41.10859
G01 X24.72420 Y41.18187
G01 X24.63413 Y41.24405
G01 X24.54716 Y41.25998
G01 X23.55107 Y41.25998
G01 X23.43657 Y41.23598
G01 X23.06558 Y41.22508
G01 X22.94488 Y41.18388
G01 X22.83876 Y41.11347
G01 X22.54574 Y40.81548
G01 X22.46151 Y40.64611
G01 X22.44498 Y40.51870
G01 X22.44498 Y39.12427
G01 X22.46151 Y38.99585
G01 X22.49484 Y38.90723
G01 X22.56647 Y38.80179
G01 X22.86474 Y38.50349
G01 X22.97066 Y38.43225
G01 X23.12308 Y38.38592
G01 X23.41625 Y38.38198
G01 X23.55092 Y38.35597
G01 X24.54706 Y38.35597
G01 X24.68302 Y38.38198
G01 X25.16098 Y38.38058
G01 X25.24622 Y38.32265
G01 X25.28622 Y38.18594
G01 X25.33875 Y38.11498
G01 X25.41338 Y38.06890
G01 X25.50090 Y38.05198
G01 X26.99016 Y38.05297
G01 X27.07484 Y38.07718
G01 X27.14477 Y38.13052
G01 X27.19033 Y38.20677
G01 X27.21990 Y38.31955
G01 X27.27116 Y38.36880
G01 X27.57400 Y38.38076
G01 X27.65056 Y38.33651
G01 X27.70014 Y38.18571
G01 X27.78693 Y38.08871
G01 X27.89252 Y38.05287
G01 X28.07301 Y38.04731
G01 X28.15012 Y37.98135
G01 X28.15942 Y35.67127
G01 X28.12513 Y35.60584
G01 X27.61815 Y35.09784
G01 X27.56999 Y35.06825
G01 X27.27123 Y35.07510
G01 X27.21987 Y35.12443
G01 X27.19033 Y35.23815
G01 X27.14507 Y35.31297
G01 X27.05404 Y35.37614
G01 X26.96707 Y35.39298
G01 X25.45435 Y35.38801
G01 X25.39354 Y35.36710
G01 X25.32313 Y35.31338
G01 X25.27761 Y35.23815
G01 X25.24612 Y35.12118
G01 X25.19684 Y35.07521
G01 X25.14198 Y35.06197
G01 X24.68198 Y35.06197
G01 X24.54701 Y35.08798
G01 X23.50914 Y35.09235
G01 X23.44808 Y35.13228
G01 X23.42097 Y35.20899
G01 X23.42097 Y35.82199
G01 X23.45976 Y35.91069
G01 X23.54195 Y35.94297
G01 X24.57015 Y35.94399
G01 X24.65343 Y35.96804
G01 X24.73799 Y36.03771
G01 X24.77662 Y36.11500
G01 X24.78597 Y36.18135
G01 X24.78498 Y36.75120
G01 X24.73723 Y36.87386
G01 X24.65384 Y36.94256
G01 X24.54665 Y36.96796
G01 X23.55092 Y36.96796
G01 X23.41625 Y36.94198
G01 X23.12280 Y36.93802
G01 X23.00073 Y36.90436
G01 X22.89034 Y36.84101
G01 X22.52753 Y36.47127
G01 X22.47206 Y36.35750
G01 X22.44699 Y36.23301
G01 X22.44998 Y34.74036
G01 X22.47190 Y34.64876
G01 X22.52758 Y34.53457
G01 X22.83987 Y34.21044
G01 X22.94589 Y34.14005
G01 X23.06560 Y34.09888
G01 X23.43558 Y34.08798
G01 X23.52750 Y34.06497
G01 X24.54713 Y34.06398
G01 X24.68201 Y34.08897
G01 X25.16062 Y34.08765
G01 X25.21012 Y34.06860
G01 X25.24739 Y34.02883
G01 X25.28622 Y33.89299
G01 X25.33875 Y33.82293
G01 X25.41345 Y33.77589
G01 X25.50090 Y33.75898
G01 X26.96707 Y33.75898
G01 X27.05503 Y33.77602
G01 X27.15869 Y33.85494
G01 X27.19021 Y33.91333
G01 X27.22010 Y34.02799
G01 X27.28729 Y34.08298
G01 X27.81489 Y34.08994
G01 X27.94045 Y34.11506
G01 X28.05320 Y34.17145
G01 X28.99071 Y35.09403
G01 X29.08360 Y35.22364
G01 X29.13298 Y35.40863
G01 X29.13826 Y37.96235
G01 X29.16551 Y38.01178
G01 X29.21924 Y38.04642
G01 X29.42533 Y38.05681
G01 X29.52652 Y38.10134
G01 X29.59584 Y38.18640
G01 X29.63427 Y38.32028
G01 X29.70554 Y38.37647
G01 X41.72706 Y38.38797
G01 X41.87936 Y38.43326
G01 X41.98520 Y38.50448
G01 X44.00356 Y40.51906
G01 X44.07303 Y40.54098
G01 X44.37105 Y40.53956
G01 X44.42207 Y40.51759
G01 X44.51539 Y40.42775
G01 X44.57483 Y40.40072
G01 X44.91184 Y40.37989
G01 X44.97732 Y40.30301
G01 X44.98291 Y40.11670
G01 X44.99942 Y40.05068
G01 X45.09606 Y39.91985
G01 X45.10897 Y39.86498
G01 X45.11298 Y29.29988
G01 X45.14613 Y29.21789
G01 X45.20734 Y29.15198
G01 X47.10901 Y27.75739
G01 X47.20815 Y27.71398
G01 X80.42099 Y27.70994
G01 X80.50163 Y27.67959
G01 X80.54298 Y27.58800
G01 X80.54298 Y25.76598
G01 X80.53099 Y25.71249
G01 X80.48822 Y25.66417
G01 X80.42099 Y25.64398
G01 X78.85371 Y25.64297
G01 X78.76950 Y25.61957
G01 X78.71553 Y25.58300
G01 X78.62277 Y25.42971
G01 X78.54705 Y25.38808
G01 X78.36603 Y25.40497
G01 X77.43397 Y25.40497
G01 X77.43397 Y25.17299
G01 X78.36699 Y25.17299
G01 X78.38546 Y25.16065
G01 X78.38363 Y23.61787
G01 X77.43397 Y23.60898
G01 X77.43397 Y23.37597
G01 X78.26399 Y23.37597
G01 X78.34357 Y23.34564
G01 X78.38551 Y23.25831
G01 X78.38599 Y22.98699
G01 X78.36470 Y22.91965
G01 X78.31307 Y22.87525
G01 X74.30492 Y22.86497
G01 X74.16299 Y22.83797
G01 X69.45657 Y22.83797
G01 X69.22812 Y22.82407
G01 X68.92716 Y22.77739
G01 X68.63226 Y22.69697
G01 X68.34827 Y22.58575
G01 X68.07819 Y22.44475
G01 X67.82503 Y22.27498
G01 X67.59168 Y22.07838
G01 X67.38119 Y21.85796
G01 X67.19566 Y21.61590
G01 X66.96910 Y21.21839
G01 X66.83214 Y20.86307
G01 X66.74474 Y20.49174
G01 X66.70897 Y20.11201
G01 X66.70697 Y7.34097
G01 X66.67367 Y7.14951
G01 X66.62691 Y7.01153
G01 X66.56036 Y6.87854
G01 X66.45137 Y6.72253
G01 X66.34715 Y6.61511
G01 X66.19615 Y6.49911
G01 X65.92833 Y6.37625
G01 X65.64296 Y6.32797
G01 X60.93497 Y6.33096
G01 X60.64874 Y6.39523
G01 X60.39248 Y6.52921
G01 X60.18247 Y6.72121
G01 X60.02613 Y6.96419
G01 X59.95819 Y7.15093
G01 X59.92197 Y7.38799
G01 X59.92197 Y20.09124
G01 X59.89913 Y20.39530
G01 X59.82565 Y20.76959
G01 X59.66967 Y21.19979
G01 X59.48910 Y21.53518
G01 X59.21397 Y21.90066
G01 X58.88326 Y22.21648
G01 X58.57170 Y22.43474
G01 X58.16238 Y22.63942
G01 X57.80010 Y22.75654
G01 X57.42467 Y22.82407
G01 X57.11946 Y22.83997
G01 X43.68799 Y22.83797
G01 X43.60788 Y22.86784
G01 X43.56726 Y22.94160
G01 X43.56597 Y23.37307
G01 X43.54816 Y23.46591
G01 X43.47575 Y23.56707
G01 X43.35652 Y23.62298
G01 X38.49057 Y23.62697
G01 X38.36130 Y23.59301
G01 X38.26892 Y23.50065
G01 X38.23497 Y23.37238
G01 X38.23497 Y20.32911
G01 X38.25859 Y20.21963
G01 X38.32511 Y20.13366
G01 X38.42303 Y20.08240
G01 X38.57398 Y20.06231
G01 X38.62346 Y20.01831
G01 X38.64197 Y19.96695
G01 X38.63862 Y15.78718
G01 X38.59879 Y15.72615
G01 X38.52102 Y15.69798
G01 X36.31147 Y15.69396
G01 X36.22915 Y15.66437
G01 X36.16215 Y15.60760
G01 X36.12651 Y15.55279
G01 X36.10398 Y15.46641
G01 X36.10297 Y12.25468
G01 X36.11813 Y12.16646
G01 X36.14828 Y12.10896
G01 X36.20995 Y12.04726
G01 X36.33548 Y12.00197
G01 X38.51000 Y12.00098
G01 X38.59051 Y11.97170
G01 X38.63128 Y11.87479
G01 X38.58330 Y11.69580
G01 X38.50253 Y11.54142
G01 X38.39481 Y11.40863
G01 X38.26682 Y11.30162
G01 X38.11645 Y11.22036
G01 X37.95386 Y11.16987
G01 X37.78196 Y11.15298
G01 X7.89296 Y11.15397
G01 X7.75105 Y11.18097
G01 X3.76196 Y11.18498
G01 X3.70008 Y11.22158
G01 X3.67141 Y11.28384
G01 X3.67125 Y11.58828
G01 X3.71184 Y11.66207
G01 X3.79099 Y11.69197
G01 X4.62096 Y11.69197
G01 X4.62096 Y11.92498
G01 X3.67235 Y11.93387
G01 X3.67052 Y13.47665
G01 X3.68898 Y13.48899
G01 X4.62096 Y13.48899
G01 X4.62096 Y13.72097
G01 X3.68992 Y13.72097
G01 X3.50897 Y13.70408
G01 X3.43323 Y13.74464
G01 X3.38218 Y13.84784
G01 X3.34047 Y13.89585
G01 X3.22424 Y13.95399
G01 X1.63494 Y13.95798
G01 X1.55488 Y13.98782
G01 X1.51426 Y14.06166
G01 X1.51426 Y22.27427
G01 X1.55483 Y22.34904
G01 X1.63504 Y22.37899
G01 X2.71698 Y22.37602
G01 X2.71698 Y22.59298
G01 X1.78500 Y22.59298
G01 X1.76498 Y22.61300
G01 X1.76836 Y24.14810
G01 X2.71698 Y24.15699
G01 X2.71698 Y24.37294
G01 X1.61665 Y24.37225
G01 X1.54540 Y24.41038
G01 X1.51297 Y24.49199
G01 X1.49298 Y24.49199
G01 X1.52777 Y24.39971
G01 X1.61332 Y24.35252
G01 X2.70283 Y24.35879
G01 X2.70283 Y24.17114
G01 X1.78500 Y24.17698
G01 X1.75173 Y24.15920
G01 X1.74499 Y22.61300
G01 X1.75670 Y22.58470
G01 X1.78500 Y22.57299
G01 X2.70283 Y22.57884
G01 X2.70285 Y22.39019
G01 X1.62793 Y22.39837
G01 X1.54169 Y22.36413
G01 X1.49453 Y22.27754
G01 X1.49455 Y14.05833
G01 X1.54179 Y13.97273
G01 X1.63489 Y13.93799
G01 X3.21962 Y13.93451
G01 X3.32823 Y13.88005
G01 X3.41748 Y13.73232
G01 X3.50699 Y13.68416
G01 X3.69086 Y13.70100
G01 X4.60681 Y13.70682
G01 X4.60681 Y13.50314
G01 X3.68898 Y13.50898
G01 X3.65203 Y13.48429
G01 X3.65574 Y11.92277
G01 X3.68898 Y11.90499
G01 X4.60681 Y11.91084
G01 X4.60681 Y11.70611
G01 X3.79099 Y11.71195
G01 X3.69871 Y11.67716
G01 X3.65154 Y11.59161
G01 X3.65185 Y11.27970
G01 X3.68622 Y11.20718
G01 X3.76193 Y11.16499
G01 X7.74910 Y11.16098
G01 X7.89296 Y11.13398
G01 X37.78196 Y11.13299
G01 X37.95976 Y11.15077
G01 X38.12592 Y11.20274
G01 X38.27964 Y11.28628
G01 X38.40763 Y11.39329
G01 X38.51810 Y11.52885
G01 X38.60263 Y11.69062
G01 X38.65061 Y11.86961
G01 X38.60405 Y11.98640
G01 X38.51000 Y12.02097
G01 X36.33893 Y12.02166
G01 X36.22067 Y12.06415
G01 X36.16441 Y12.12082
G01 X36.13708 Y12.17289
G01 X36.12288 Y12.25638
G01 X36.12382 Y15.46387
G01 X36.14482 Y15.54471
G01 X36.17716 Y15.59440
G01 X36.23916 Y15.64705
G01 X36.31493 Y15.67428
G01 X38.52105 Y15.67799
G01 X38.60959 Y15.70931
G01 X38.65826 Y15.78337
G01 X38.66133 Y19.97409
G01 X38.63994 Y20.02964
G01 X38.58396 Y20.07963
G01 X38.42897 Y20.10152
G01 X38.33796 Y20.14900
G01 X38.27670 Y20.22807
G01 X38.25485 Y20.33124
G01 X38.25480 Y23.36979
G01 X38.28627 Y23.49067
G01 X38.37126 Y23.57566
G01 X38.49311 Y23.60713
G01 X43.35215 Y23.60347
G01 X43.46295 Y23.55171
G01 X43.52977 Y23.45801
G01 X43.54598 Y23.37114
G01 X43.54755 Y22.93825
G01 X43.59480 Y22.85273
G01 X43.68799 Y22.81798
G01 X57.11895 Y22.81998
G01 X57.42235 Y22.80416
G01 X57.79523 Y22.73708
G01 X58.15479 Y22.62085
G01 X58.56144 Y22.41752
G01 X58.87053 Y22.20096
G01 X59.19898 Y21.88732
G01 X59.47221 Y21.52436
G01 X59.65136 Y21.19159
G01 X59.80632 Y20.76424
G01 X59.87927 Y20.39261
G01 X59.90198 Y20.09048
G01 X59.90198 Y7.38799
G01 X59.93843 Y7.14788
G01 X60.00929 Y6.95339
G01 X60.16898 Y6.70645
G01 X60.38752 Y6.50849
G01 X60.64925 Y6.37394
G01 X60.93495 Y6.31098
G01 X65.64294 Y6.30798
G01 X65.93168 Y6.35654
G01 X66.20834 Y6.48326
G01 X66.35934 Y6.59927
G01 X66.46775 Y6.71108
G01 X66.57674 Y6.86708
G01 X66.64583 Y7.00508
G01 X66.69338 Y7.14605
G01 X66.72696 Y7.34097
G01 X66.72894 Y20.11107
G01 X66.76447 Y20.48849
G01 X66.85124 Y20.85715
G01 X66.98716 Y21.20983
G01 X67.21233 Y21.60485
G01 X67.39640 Y21.84493
G01 X67.60539 Y22.06380
G01 X67.83706 Y22.25900
G01 X68.08840 Y22.42755
G01 X68.35655 Y22.56753
G01 X68.63856 Y22.67797
G01 X68.93132 Y22.75783
G01 X69.23025 Y22.80419
G01 X69.45718 Y22.81798
G01 X74.16299 Y22.81798
G01 X74.30683 Y22.84505
G01 X78.32018 Y22.85656
G01 X78.38045 Y22.90731
G01 X78.40555 Y22.98100
G01 X78.40504 Y23.26266
G01 X78.35716 Y23.36029
G01 X78.26399 Y23.39595
G01 X77.44812 Y23.39011
G01 X77.44812 Y23.59484
G01 X78.36699 Y23.58900
G01 X78.40024 Y23.60677
G01 X78.40395 Y25.16829
G01 X78.36699 Y25.19298
G01 X77.44812 Y25.18714
G01 X77.44812 Y25.39082
G01 X78.36509 Y25.38498
G01 X78.54911 Y25.36819
G01 X78.63857 Y25.41744
G01 X78.72897 Y25.56816
G01 X78.77789 Y25.60144
G01 X78.85642 Y25.62315
G01 X80.42101 Y25.62399
G01 X80.50046 Y25.64835
G01 X80.54804 Y25.70200
G01 X80.56297 Y25.76598
G01 X80.56297 Y27.58800
G01 X80.51527 Y27.69422
G01 X80.42099 Y27.72996
G01 X47.21227 Y27.73356
G01 X47.11900 Y27.77474
G01 X45.22063 Y29.16691
G01 X45.16302 Y29.22863
G01 X45.13261 Y29.30369
G01 X45.12896 Y39.86498
G01 X45.11649 Y39.92432
G01 X45.01750 Y40.05922
G01 X44.99342 Y40.31652
G01 X44.92070 Y40.39783
G01 X44.57963 Y40.42015
G01 X44.52667 Y40.44428
G01 X44.43317 Y40.53422
G01 X44.37514 Y40.55914
G01 X44.07310 Y40.56097
G01 X43.99315 Y40.53613
G01 X41.97242 Y38.52000
G01 X41.87072 Y38.45155
G01 X41.72414 Y38.40796
G01 X29.70110 Y38.39598
G01 X29.62116 Y38.33651
G01 X29.57806 Y38.19565
G01 X29.51441 Y38.11724
G01 X29.42078 Y38.07629
G01 X29.21151 Y38.06486
G01 X29.15205 Y38.02658
G01 X29.11855 Y37.96573
G01 X29.11299 Y35.41127
G01 X29.06551 Y35.23220
G01 X28.97545 Y35.10708
G01 X28.04141 Y34.18793
G01 X27.93389 Y34.13414
G01 X27.81279 Y34.10993
G01 X27.27857 Y34.10099
G01 X27.20227 Y34.03701
G01 X27.14243 Y33.86693
G01 X27.04809 Y33.79505
G01 X26.96514 Y33.77897
G01 X25.50281 Y33.77889
G01 X25.42082 Y33.79451
G01 X25.35231 Y33.83764
G01 X25.30416 Y33.90185
G01 X25.26481 Y34.03866
G01 X25.22125 Y34.08521
G01 X25.16425 Y34.10731
G01 X24.68206 Y34.10896
G01 X24.54528 Y34.08397
G01 X23.53002 Y34.08481
G01 X23.43616 Y34.10797
G01 X23.06921 Y34.11856
G01 X22.95476 Y34.15799
G01 X22.85267 Y34.22580
G01 X22.54396 Y34.54602
G01 X22.49072 Y34.65552
G01 X22.46985 Y34.74272
G01 X22.46690 Y36.23103
G01 X22.49100 Y36.35110
G01 X22.54386 Y36.45973
G01 X22.90256 Y36.82519
G01 X23.00843 Y36.88589
G01 X23.12562 Y36.91820
G01 X23.41653 Y36.92199
G01 X23.55285 Y36.94805
G01 X24.54431 Y36.94797
G01 X24.64495 Y36.92466
G01 X24.72102 Y36.86215
G01 X24.76535 Y36.74749
G01 X24.76598 Y36.18275
G01 X24.75752 Y36.12095
G01 X24.72234 Y36.05016
G01 X24.64411 Y35.98572
G01 X24.56730 Y35.96398
G01 X23.54193 Y35.96296
G01 X23.44355 Y35.92240
G01 X23.40098 Y35.82199
G01 X23.40098 Y35.20899
G01 X23.43118 Y35.12156
G01 X23.50528 Y35.07272
G01 X24.54503 Y35.06799
G01 X24.68198 Y35.04198
G01 X25.14198 Y35.04198
G01 X25.20771 Y35.05842
G01 X25.25724 Y35.10370
G01 X25.29613 Y35.23040
G01 X25.33801 Y35.30002
G01 X25.40296 Y35.34947
G01 X25.45767 Y35.36827
G01 X26.96521 Y35.37297
G01 X27.04624 Y35.35770
G01 X27.13049 Y35.29928
G01 X27.17169 Y35.23032
G01 X27.20179 Y35.11590
G01 X27.26049 Y35.05824
G01 X27.57702 Y35.04953
G01 X27.63227 Y35.08371
G01 X28.13928 Y35.59171
G01 X28.17885 Y35.66657
G01 X28.16828 Y37.98973
G01 X28.07806 Y38.06666
G01 X27.89607 Y38.07258
G01 X27.79673 Y38.10614
G01 X27.71817 Y38.19440
G01 X27.66613 Y38.34906
G01 X27.57707 Y38.40052
G01 X27.26036 Y38.38564
G01 X27.20181 Y38.32811
G01 X27.17169 Y38.21457
G01 X27.12986 Y38.14386
G01 X27.06585 Y38.09504
G01 X26.98734 Y38.07296
G01 X25.50278 Y38.07190
G01 X25.42064 Y38.08754
G01 X25.35229 Y38.12971
G01 X25.30421 Y38.19476
G01 X25.26245 Y38.33433
G01 X25.16499 Y38.40017
G01 X24.68307 Y38.40197
G01 X24.54513 Y38.37596
G01 X23.55285 Y38.37588
G01 X23.41653 Y38.40197
G01 X23.12616 Y38.40568
G01 X22.97924 Y38.45031
G01 X22.87746 Y38.51894
G01 X22.58188 Y38.81452
G01 X22.51262 Y38.91645
G01 X22.48092 Y39.00067
G01 X22.46494 Y39.12554
G01 X22.46494 Y40.51741
G01 X22.48092 Y40.64126
G01 X22.56141 Y40.80306
G01 X22.85148 Y41.09803
G01 X22.95372 Y41.16595
G01 X23.06916 Y41.20539
G01 X23.43715 Y41.21599
G01 X23.55316 Y41.24009
G01 X24.54536 Y41.23999
G01 X24.62648 Y41.22559
G01 X24.70974 Y41.16806
G01 X24.75135 Y41.10136
G01 X24.76595 Y41.02035
G01 X24.76527 Y40.45467
G01 X24.73166 Y40.35658
G01 X24.66278 Y40.28853
G01 X24.56651 Y40.25670
G01 X23.54193 Y40.25597
G01 X23.46868 Y40.23555
G01 X23.41572 Y40.17761
G01 X23.40098 Y40.11398
G01 X23.40159 Y39.49503
G01 X23.43454 Y39.41002
G01 X23.52125 Y39.36153
G01 X24.54528 Y39.36097
G01 X24.67789 Y39.33699
G01 X25.15689 Y39.33598
G01 X25.26275 Y39.40304
G01 X25.29608 Y39.52338
G01 X25.33801 Y39.59300
G01 X25.40289 Y39.64243
G01 X25.45856 Y39.66125
G01 X26.96542 Y39.66496
G01 X27.04738 Y39.65063
G01 X27.13042 Y39.59234
G01 X27.17169 Y39.52330
G01 X27.20179 Y39.40890
G01 X27.26029 Y39.35132
G01 X27.55452 Y39.33501
G01 X27.62173 Y39.35140
G01 X27.67121 Y39.39674
G01 X27.71012 Y39.52335
G01 X27.75200 Y39.59300
G01 X27.81695 Y39.64248
G01 X27.87164 Y39.66125
G01 X29.37941 Y39.66496
G01 X29.46132 Y39.65038
G01 X29.52962 Y39.60733
G01 X29.57776 Y39.54309
G01 X29.61946 Y39.40265
G01 X29.72500 Y39.33598
G01 X33.09764 Y39.33755
G01 X33.18321 Y39.38480
G01 X33.21796 Y39.47794
G01 X33.21971 Y42.35451
G01 X33.25146 Y42.45065
G01 X33.32283 Y42.52175
G01 X33.43746 Y42.55302
G01 X34.94440 Y42.54926
G01 X35.00007 Y42.53044
G01 X35.06494 Y42.48101
G01 X35.10706 Y42.41070
G01 X35.15057 Y42.27501
G01 X35.26098 Y42.22299
G01 X35.52598 Y42.22299
G01 X35.59913 Y42.24385
G01 X35.65892 Y42.31847
G01 X35.67015 Y42.44425
G01 X35.71132 Y42.53752
G01 X35.78788 Y42.60123
G01 X35.86555 Y42.62317
G01 X37.29943 Y42.62335
G01 X37.41663 Y42.57725
G01 X37.51983 Y42.43158
G01 X37.62036 Y42.39101
G01 X37.89049 Y42.50135
G01 X38.33806 Y42.52429
G01 X38.60085 Y42.84705
G01 X38.83072 Y43.01768
G01 X38.95757 Y43.07867
G01 X39.14086 Y43.13493
G01 X39.28096 Y43.15604
G01 X39.47159 Y43.15599
G01 X39.65830 Y43.12406
G01 X39.79300 Y43.07981
G01 X39.92094 Y43.01822
G01 X40.07779 Y42.91171
G01 X40.21517 Y42.78111
G01 X40.30095 Y42.66960
G01 X40.42953 Y42.41441
G01 X40.46768 Y42.27895
G01 X40.49188 Y42.09124
G01 X40.48414 Y41.90161
G01 X40.45719 Y41.76203
G01 X40.41294 Y41.62739
G01 X40.32681 Y41.45802
G01 X40.21454 Y41.30509
G01 X40.11512 Y41.20570
G01 X39.92170 Y41.06935
G01 X39.65780 Y40.96300
G01 X39.37657 Y40.92724
G01 X39.14002 Y40.95226
G01 X38.95838 Y41.00798
G01 X38.74891 Y41.11990
G01 X38.53486 Y41.30976
G01 X38.36847 Y41.54136
G01 X38.30017 Y41.57491
G01 X38.21599 Y41.57598
G01 X38.15005 Y41.55144
G01 X38.00062 Y41.40709
G01 X37.89908 Y41.33818
G01 X37.78206 Y41.29914
G01 X37.55922 Y41.26371
G01 X37.50535 Y41.18736
G01 X37.49555 Y41.06798
G01 X37.46664 Y40.99315
G01 X37.41361 Y40.93415
G01 X37.34360 Y40.89940
G01 X35.88846 Y40.88987
G01 X35.78707 Y40.91327
G01 X35.71127 Y40.97646
G01 X35.67012 Y41.06874
G01 X35.65892 Y41.19450
G01 X35.59916 Y41.26907
G01 X35.52542 Y41.28998
G01 X35.21709 Y41.28223
G01 X35.14666 Y41.22907
G01 X35.12098 Y41.14776
G01 X35.13558 Y39.41556
G01 X35.18968 Y39.35640
G01 X35.26299 Y39.33598
G01 X41.41200 Y39.33598
G01 X41.51225 Y39.37769
G01 X43.48934 Y41.35584
G01 X43.58807 Y41.43120
G01 X43.70102 Y41.47837
G01 X43.79129 Y41.49305
G01 X44.37514 Y41.49582
G01 X44.43307 Y41.52063
G01 X44.52657 Y41.60961
G01 X44.57968 Y41.63379
G01 X44.92075 Y41.65716
G01 X44.99660 Y41.74659
G01 X45.00544 Y41.95584
G01 X45.03386 Y42.02990
G01 X45.10503 Y42.10107
G01 X45.17844 Y42.12934
G01 X46.40884 Y42.13874
G01 X46.40881 Y39.91606
G01 X45.80927 Y39.92041
G01 X45.72370 Y39.87314
G01 X45.68898 Y39.77997
G01 X45.68999 Y29.51197
G01 X45.74872 Y29.41243
G01 X47.28272 Y28.31642
G01 X47.34226 Y28.29173
G01 X78.53854 Y28.29153
G01 X78.62513 Y28.33869
G01 X78.65998 Y28.43199
G01 X78.65498 Y46.03497
G01 X78.61225 Y46.11125
G01 X78.53217 Y46.14539
G01 X46.39614 Y46.14214
G01 X46.40198 Y47.90800
G01 X46.36622 Y48.00226
G01 X46.25997 Y48.04996
G01 X1.60596 Y48.04597
G01 X1.51055 Y47.97416
G01 X1.49298 Y47.90800
G01 X1.49298 Y24.49199
G01 X1.47296 Y24.49199
G01 X1.51269 Y24.38661
G01 X1.61002 Y24.33281
G01 X2.68284 Y24.33878
G01 X2.68284 Y24.19113
G01 X1.78500 Y24.19699
G01 X1.74642 Y24.18295
G01 X1.72498 Y24.13700
G01 X1.73303 Y22.58298
G01 X1.78500 Y22.55298
G01 X2.68284 Y22.55885
G01 X2.68284 Y22.41026
G01 X1.62440 Y22.41805
G01 X1.52856 Y22.37922
G01 X1.47479 Y22.28082
G01 X1.47398 Y14.06499
G01 X1.52871 Y13.95759
G01 X1.63484 Y13.91797
G01 X3.21487 Y13.91454
G01 X3.31573 Y13.86394
G01 X3.40585 Y13.71525
G01 X3.50501 Y13.66428
G01 X3.69183 Y13.68099
G01 X4.58682 Y13.68683
G01 X4.58682 Y13.52313
G01 X3.68898 Y13.52899
G01 X3.65043 Y13.51495
G01 X3.63260 Y13.48950
G01 X3.63702 Y11.91498
G01 X3.68898 Y11.88498
G01 X4.58682 Y11.89085
G01 X4.58682 Y11.72610
G01 X3.79099 Y11.73197
G01 X3.68561 Y11.69224
G01 X3.63097 Y11.58498
G01 X3.63227 Y11.27556
G01 X3.68141 Y11.18557
G01 X3.76191 Y11.14498
G01 X7.74722 Y11.14099
G01 X7.89296 Y11.11396
G01 X37.78196 Y11.11297
G01 X37.96565 Y11.13164
G01 X38.13540 Y11.18513
G01 X38.29247 Y11.27093
G01 X38.42046 Y11.37794
G01 X38.53364 Y11.51627
G01 X38.62193 Y11.68544
G01 X38.67172 Y11.87459
G01 X38.61396 Y12.00423
G01 X38.51002 Y12.04099
G01 X36.34244 Y12.04167
G01 X36.23167 Y12.08145
G01 X36.15625 Y12.17939
G01 X36.14289 Y12.25808
G01 X36.14381 Y15.46130
G01 X36.16334 Y15.53653
G01 X36.19232 Y15.58104
G01 X36.24932 Y15.62945
G01 X36.31843 Y15.65429
G01 X38.52110 Y15.65797
G01 X38.62559 Y15.69622
G01 X38.67789 Y15.77956
G01 X38.68198 Y19.96693
G01 X38.65902 Y20.03686
G01 X38.59397 Y20.09695
G01 X38.43504 Y20.12093
G01 X38.35109 Y20.16469
G01 X38.29529 Y20.23673
G01 X38.27484 Y20.33338
G01 X38.27479 Y23.36720
G01 X38.30423 Y23.48033
G01 X38.38157 Y23.55770
G01 X38.49570 Y23.58714
G01 X43.34768 Y23.58348
G01 X43.44974 Y23.53581
G01 X43.51095 Y23.44993
G01 X43.52599 Y23.36921
G01 X43.53033 Y22.92524
G01 X43.58172 Y22.83759
G01 X43.68799 Y22.79796
G01 X57.11842 Y22.79997
G01 X57.42007 Y22.78425
G01 X57.79035 Y22.71765
G01 X58.14719 Y22.60228
G01 X58.55118 Y22.40030
G01 X58.85781 Y22.18547
G01 X59.18397 Y21.87399
G01 X59.45532 Y21.51354
G01 X59.63307 Y21.18341
G01 X59.78699 Y20.75888
G01 X59.85941 Y20.38992
G01 X59.88196 Y20.08974
G01 X59.88196 Y7.38799
G01 X59.91867 Y7.14483
G01 X59.99245 Y6.94262
G01 X60.15550 Y6.69170
G01 X60.37830 Y6.49076
G01 X60.64488 Y6.35441
G01 X60.93495 Y6.29096
G01 X65.64294 Y6.28796
G01 X65.94268 Y6.33866
G01 X66.22053 Y6.46739
G01 X66.37154 Y6.58339
G01 X66.48416 Y6.69962
G01 X66.59315 Y6.85563
G01 X66.66475 Y6.99863
G01 X66.71306 Y7.14260
G01 X66.74697 Y7.34097
G01 X66.74895 Y20.11013
G01 X66.78426 Y20.48527
G01 X66.87039 Y20.85123
G01 X67.00529 Y21.20122
G01 X67.22904 Y21.59375
G01 X67.41159 Y21.83192
G01 X67.61911 Y22.04920
G01 X67.84910 Y22.24300
G01 X68.09863 Y22.41033
G01 X68.36485 Y22.54930
G01 X68.64486 Y22.65897
G01 X68.93551 Y22.73825
G01 X69.23241 Y22.78427
G01 X69.45779 Y22.79799
G01 X74.16299 Y22.79796
G01 X74.30878 Y22.82506
G01 X78.32729 Y22.83787
G01 X78.39620 Y22.89499
G01 X78.42531 Y22.97800
G01 X78.42536 Y23.26271
G01 X78.37078 Y23.37497
G01 X78.26399 Y23.41597
G01 X77.46811 Y23.41010
G01 X77.46811 Y23.57485
G01 X78.36699 Y23.56898
G01 X78.41896 Y23.59898
G01 X78.42338 Y25.17350
G01 X78.40555 Y25.19895
G01 X78.36699 Y25.21299
G01 X77.46811 Y25.20713
G01 X77.46811 Y25.37083
G01 X78.36412 Y25.36496
G01 X78.55119 Y25.34830
G01 X78.65038 Y25.40052
G01 X78.74253 Y25.55320
G01 X78.78640 Y25.58305
G01 X78.85914 Y25.60316
G01 X80.42101 Y25.60398
G01 X80.51271 Y25.63255
G01 X80.56506 Y25.69153
G01 X80.58299 Y25.76598
G01 X80.58299 Y27.58800
G01 X80.52533 Y27.71192
G01 X80.42099 Y27.74997
G01 X47.21646 Y27.75355
G01 X47.12905 Y27.79216
G01 X45.23399 Y29.18192
G01 X45.18016 Y29.23953
G01 X45.15260 Y29.30760
G01 X45.14897 Y39.86498
G01 X45.13472 Y39.93250
G01 X45.03594 Y40.06791
G01 X45.01395 Y40.31957
G01 X44.93381 Y40.41345
G01 X44.58451 Y40.43989
G01 X44.53808 Y40.46107
G01 X44.44427 Y40.55086
G01 X44.37923 Y40.57872
G01 X44.07316 Y40.58099
G01 X43.97879 Y40.55056
G01 X41.95967 Y38.53552
G01 X41.86209 Y38.46986
G01 X41.72122 Y38.42795
G01 X29.69020 Y38.41363
G01 X29.60204 Y38.34426
G01 X29.55995 Y38.20507
G01 X29.50194 Y38.13362
G01 X29.41616 Y38.09613
G01 X29.20377 Y38.08330
G01 X29.13188 Y38.03418
G01 X29.09884 Y37.96910
G01 X29.09300 Y35.41391
G01 X29.04712 Y35.24089
G01 X28.96021 Y35.12014
G01 X28.02965 Y34.20439
G01 X27.92734 Y34.15324
G01 X27.81073 Y34.12989
G01 X27.27598 Y34.12154
G01 X27.18762 Y34.05166
G01 X27.12620 Y33.87892
G01 X27.04119 Y33.81407
G01 X26.96323 Y33.79898
G01 X25.50474 Y33.79888
G01 X25.42829 Y33.81343
G01 X25.36608 Y33.85260
G01 X25.32242 Y33.91089
G01 X25.27970 Y34.05258
G01 X25.22854 Y34.10419
G01 X25.16788 Y34.12697
G01 X24.68208 Y34.12898
G01 X24.54343 Y34.10399
G01 X23.53253 Y34.10482
G01 X23.43675 Y34.12796
G01 X23.07284 Y34.13845
G01 X22.96367 Y34.17607
G01 X22.86555 Y34.24125
G01 X22.56055 Y34.55763
G01 X22.50967 Y34.66230
G01 X22.48984 Y34.74511
G01 X22.48689 Y36.22908
G01 X22.51010 Y36.34462
G01 X22.56042 Y36.44805
G01 X22.91490 Y36.80921
G01 X23.01617 Y36.86730
G01 X23.12847 Y36.89824
G01 X23.41681 Y36.90200
G01 X23.55478 Y36.92806
G01 X24.54198 Y36.92796
G01 X24.63581 Y36.90627
G01 X24.70428 Y36.85003
G01 X24.74533 Y36.74371
G01 X24.74596 Y36.18412
G01 X24.73817 Y36.12697
G01 X24.70634 Y36.06291
G01 X24.63459 Y36.00380
G01 X24.56446 Y35.98397
G01 X23.54190 Y35.98298
G01 X23.42598 Y35.93212
G01 X23.38097 Y35.82199
G01 X23.38097 Y35.20899
G01 X23.41805 Y35.10558
G01 X23.50144 Y35.05308
G01 X24.54304 Y35.04800
G01 X24.68198 Y35.02197
G01 X25.14198 Y35.02197
G01 X25.20929 Y35.03670
G01 X25.27088 Y35.08907
G01 X25.31470 Y35.22258
G01 X25.35315 Y35.28643
G01 X25.46105 Y35.34828
G01 X26.96333 Y35.35298
G01 X27.03829 Y35.33888
G01 X27.11556 Y35.28529
G01 X27.15305 Y35.22250
G01 X27.18370 Y35.10736
G01 X27.24972 Y35.04137
G01 X27.58401 Y35.03081
G01 X27.64647 Y35.06959
G01 X28.15345 Y35.57759
G01 X28.19925 Y35.66659
G01 X28.18840 Y37.99336
G01 X28.08960 Y38.08394
G01 X27.89965 Y38.09250
G01 X27.80672 Y38.12389
G01 X27.73641 Y38.20316
G01 X27.68170 Y38.36161
G01 X27.58017 Y38.42028
G01 X27.24957 Y38.40248
G01 X27.18376 Y38.33667
G01 X27.15305 Y38.22237
G01 X27.11467 Y38.15742
G01 X27.05673 Y38.11325
G01 X26.98454 Y38.09295
G01 X25.50471 Y38.09189
G01 X25.42803 Y38.10647
G01 X25.36608 Y38.14469
G01 X25.32244 Y38.20375
G01 X25.27870 Y38.34599
G01 X25.16900 Y38.41978
G01 X24.68310 Y38.42199
G01 X24.54320 Y38.39598
G01 X23.55478 Y38.39587
G01 X23.41678 Y38.42196
G01 X23.12926 Y38.42564
G01 X22.98793 Y38.46857
G01 X22.89024 Y38.53446
G01 X22.59735 Y38.82732
G01 X22.53050 Y38.92572
G01 X22.50045 Y39.00555
G01 X22.48493 Y39.12684
G01 X22.48493 Y40.51611
G01 X22.50045 Y40.63638
G01 X22.57719 Y40.79056
G01 X22.86428 Y41.08253
G01 X22.96261 Y41.14784
G01 X23.07277 Y41.18551
G01 X23.43774 Y41.19600
G01 X23.55526 Y41.22007
G01 X24.54353 Y41.21997
G01 X24.61866 Y41.20669
G01 X24.69496 Y41.15396
G01 X24.73238 Y41.09399
G01 X24.74596 Y41.01853
G01 X24.74528 Y40.45805
G01 X24.71429 Y40.36752
G01 X24.65204 Y40.30603
G01 X24.56326 Y40.27669
G01 X23.53347 Y40.27537
G01 X23.44983 Y40.24708
G01 X23.39857 Y40.18795
G01 X23.38097 Y40.11398
G01 X23.38188 Y39.49158
G01 X23.41932 Y39.39704
G01 X23.51788 Y39.34182
G01 X24.54345 Y39.34096
G01 X24.67784 Y39.31698
G01 X25.15684 Y39.31596
G01 X25.27218 Y39.38335
G01 X25.31470 Y39.51556
G01 X25.35315 Y39.57941
G01 X25.46186 Y39.64126
G01 X26.96369 Y39.64497
G01 X27.03951 Y39.63174
G01 X27.11548 Y39.57840
G01 X27.15305 Y39.51548
G01 X27.18370 Y39.40037
G01 X27.24949 Y39.33451
G01 X27.55381 Y39.31502
G01 X27.62328 Y39.32968
G01 X27.68485 Y39.38211
G01 X27.72866 Y39.51556
G01 X27.76712 Y39.57941
G01 X27.87502 Y39.64126
G01 X29.37763 Y39.64497
G01 X29.45393 Y39.63138
G01 X29.51586 Y39.59237
G01 X29.55952 Y39.53407
G01 X29.60321 Y39.39100
G01 X29.72500 Y39.31596
G01 X33.10096 Y39.31782
G01 X33.19835 Y39.37172
G01 X33.23797 Y39.47794
G01 X33.23970 Y42.35126
G01 X33.26896 Y42.43986
G01 X33.33437 Y42.50498
G01 X33.43873 Y42.53303
G01 X34.94109 Y42.52927
G01 X35.04981 Y42.46742
G01 X35.08862 Y42.40257
G01 X35.13878 Y42.25833
G01 X35.26098 Y42.20298
G01 X35.53456 Y42.20361
G01 X35.61414 Y42.22965
G01 X35.67691 Y42.30971
G01 X35.68986 Y42.43938
G01 X35.72771 Y42.52515
G01 X35.79743 Y42.58317
G01 X35.86835 Y42.60318
G01 X37.29562 Y42.60333
G01 X37.40532 Y42.56020
G01 X37.51792 Y42.40763
G01 X37.62603 Y42.37141
G01 X37.89377 Y42.48146
G01 X38.34246 Y42.50435
G01 X38.61485 Y42.83254
G01 X38.84111 Y43.00049
G01 X38.96489 Y43.06000
G01 X39.14530 Y43.11537
G01 X39.28246 Y43.13602
G01 X39.46989 Y43.13597
G01 X39.65348 Y43.10460
G01 X39.78551 Y43.06122
G01 X39.91093 Y43.00084
G01 X40.06519 Y42.89609
G01 X40.20026 Y42.76770
G01 X40.28396 Y42.65891
G01 X40.41081 Y42.40714
G01 X40.44804 Y42.27494
G01 X40.47182 Y42.09035
G01 X40.46420 Y41.90392
G01 X40.43781 Y41.76706
G01 X40.39442 Y41.63509
G01 X40.30971 Y41.46854
G01 X40.19933 Y41.31817
G01 X40.10220 Y41.22104
G01 X39.91208 Y41.08703
G01 X39.65272 Y40.98251
G01 X39.37636 Y40.94738
G01 X39.14403 Y40.97194
G01 X38.96610 Y41.02653
G01 X38.76044 Y41.13643
G01 X38.54987 Y41.32320
G01 X38.38020 Y41.55756
G01 X38.30022 Y41.59528
G01 X38.21599 Y41.59599
G01 X38.13911 Y41.56816
G01 X37.98792 Y41.42264
G01 X37.89013 Y41.35627
G01 X37.77759 Y41.31875
G01 X37.55153 Y41.28309
G01 X37.48602 Y41.19254
G01 X37.47584 Y41.07248
G01 X37.44934 Y41.00382
G01 X37.40129 Y40.95038
G01 X37.33888 Y40.91936
G01 X35.89072 Y40.90989
G01 X35.79623 Y40.93166
G01 X35.72763 Y40.98886
G01 X35.68986 Y41.07367
G01 X35.67691 Y41.20326
G01 X35.61414 Y41.28330
G01 X35.52514 Y41.30997
G01 X35.21452 Y41.30273
G01 X35.12758 Y41.23704
G01 X35.10096 Y41.14766
G01 X35.11839 Y39.40535
G01 X35.18054 Y39.33862
G01 X35.26299 Y39.31596
G01 X41.41200 Y39.31596
G01 X41.52640 Y39.36356
G01 X43.50254 Y41.34072
G01 X43.59815 Y41.41372
G01 X43.70658 Y41.45901
G01 X43.79294 Y41.47303
G01 X44.37923 Y41.47623
G01 X44.44412 Y41.50397
G01 X44.53795 Y41.59279
G01 X44.58458 Y41.61405
G01 X44.92525 Y41.63727
G01 X45.01382 Y41.73503
G01 X45.02530 Y41.95172
G01 X45.05098 Y42.01875
G01 X45.11618 Y42.08395
G01 X45.18220 Y42.10935
G01 X46.38885 Y42.11868
G01 X46.38880 Y39.93605
G01 X45.80592 Y39.94012
G01 X45.70858 Y39.88622
G01 X45.66896 Y39.77997
G01 X45.66998 Y29.51197
G01 X45.73708 Y29.39615
G01 X47.27109 Y28.30014
G01 X47.33840 Y28.27212
G01 X78.54182 Y28.27179
G01 X78.64022 Y28.32556
G01 X78.67999 Y28.43199
G01 X78.67390 Y46.04638
G01 X78.62168 Y46.12964
G01 X78.51799 Y46.16799
G01 X46.41613 Y46.16213
G01 X46.42199 Y47.90800
G01 X46.37749 Y48.01922
G01 X46.25997 Y48.06997
G01 X1.58691 Y48.06286
G01 X1.49958 Y47.99705
G01 X1.47296 Y47.90800
G01 X1.47296 Y24.49199
G04 P0 ( dwell for no time -- G64 should not smooth over this point )
G00 Z1.00000 ( retract )

G00 X8.46698 Y32.23797 ( rapid move to begin. )
G01 F100.00000
( Mill infeed pass 1/1 )
G01 Z-0.02500
G04 P0 ( dwell for no time -- G64 should not smooth over this point )
G01 F200.00000
G01 X8.46698 Y32.23797
G01 X8.46698 Y32.78799
G01 X8.48308 Y32.80762
G01 X9.48699 Y32.80800
G01 X9.50698 Y32.78296
G01 X11.46700 Y32.78296
G01 X11.48308 Y32.80762
G01 X11.71698 Y32.80800
G01 X11.71698 Y33.79497
G01 X11.36499 Y33.79497
G01 X11.34536 Y33.81107
G01 X11.34498 Y35.28498
G01 X11.36108 Y35.30459
G01 X12.53263 Y35.30345
G01 X12.54497 Y35.28498
G01 X12.54497 Y34.82311
G01 X18.24105 Y34.84330
G01 X18.24105 Y35.15499
G01 X18.25713 Y35.17462
G01 X19.73485 Y35.17462
G01 X19.75093 Y35.15499
G01 X19.75093 Y34.84597
G01 X20.63398 Y34.84597
G01 X20.65400 Y34.87157
G01 X21.66164 Y34.87005
G01 X21.67399 Y34.85158
G01 X21.67361 Y34.29649
G01 X21.65400 Y34.28039
G01 X20.65400 Y34.28039
G01 X20.63398 Y34.30599
G01 X19.75093 Y34.30599
G01 X19.75093 Y33.99497
G01 X19.73094 Y33.97498
G01 X18.25713 Y33.97536
G01 X18.24105 Y33.99497
G01 X18.24105 Y34.30330
G01 X12.54497 Y34.28311
G01 X12.54160 Y33.80386
G01 X12.25696 Y33.79497
G01 X12.25696 Y32.80800
G01 X12.48699 Y32.80800
G01 X12.50548 Y32.79566
G01 X12.50697 Y32.23797
G01 X12.49463 Y32.21951
G01 X11.48699 Y32.21798
G01 X11.46700 Y32.24298
G01 X9.50698 Y32.24298
G01 X9.48699 Y32.21798
G01 X8.48699 Y32.21798
G01 X8.44699 Y32.23797
G01 X8.45870 Y32.20970
G01 X8.48699 Y32.19797
G01 X9.48699 Y32.19797
G01 X9.52311 Y32.22492
G01 X11.45087 Y32.22492
G01 X11.48699 Y32.19797
G01 X12.50230 Y32.20102
G01 X12.52699 Y32.23797
G01 X12.52394 Y32.80330
G01 X12.48699 Y32.82799
G01 X12.27114 Y32.82217
G01 X12.27111 Y33.78082
G01 X12.52498 Y33.77498
G01 X12.55823 Y33.79276
G01 X12.55915 Y34.26898
G01 X18.22693 Y34.28913
G01 X18.22104 Y33.99497
G01 X18.25324 Y33.95575
G01 X19.73094 Y33.95499
G01 X19.77016 Y33.98717
G01 X19.76510 Y34.29182
G01 X20.61773 Y34.28796
G01 X20.65400 Y34.26040
G01 X21.65400 Y34.26040
G01 X21.69322 Y34.29261
G01 X21.69398 Y34.85158
G01 X21.66929 Y34.88854
G01 X20.65400 Y34.89159
G01 X20.61773 Y34.86400
G01 X19.76508 Y34.86012
G01 X19.77094 Y35.15499
G01 X19.73874 Y35.19423
G01 X18.25324 Y35.19423
G01 X18.22104 Y35.15499
G01 X18.22683 Y34.85745
G01 X12.55910 Y34.83728
G01 X12.56496 Y35.28498
G01 X12.54027 Y35.32192
G01 X11.35717 Y35.32420
G01 X11.32499 Y35.28498
G01 X11.32575 Y33.80716
G01 X11.36499 Y33.77498
G01 X11.70284 Y33.78082
G01 X11.70281 Y32.82217
G01 X11.48699 Y32.82799
G01 X11.45036 Y32.80178
G01 X9.52311 Y32.80102
G01 X9.48699 Y32.82799
G01 X8.47920 Y32.82723
G01 X8.44699 Y32.78799
G01 X8.44699 Y32.23797
G01 X8.42700 Y32.23797
G01 X8.44841 Y32.19203
G01 X8.48699 Y32.17798
G01 X9.48699 Y32.17798
G01 X9.53490 Y32.20434
G01 X11.43906 Y32.20434
G01 X11.48699 Y32.17798
G01 X12.51698 Y32.18603
G01 X12.54698 Y32.23797
G01 X12.54337 Y32.80851
G01 X12.49740 Y32.84709
G01 X12.29115 Y32.84219
G01 X12.29115 Y33.76078
G01 X12.52498 Y33.75496
G01 X12.57693 Y33.78496
G01 X12.57914 Y34.24907
G01 X18.20689 Y34.26903
G01 X18.20196 Y33.98455
G01 X18.21507 Y33.95641
G01 X18.25063 Y33.93589
G01 X19.73094 Y33.93497
G01 X19.76950 Y33.94902
G01 X19.79002 Y33.98455
G01 X19.78512 Y34.27183
G01 X20.60566 Y34.26736
G01 X20.65400 Y34.24041
G01 X21.68399 Y34.24844
G01 X21.71399 Y34.30040
G01 X21.71308 Y34.86200
G01 X21.69255 Y34.89753
G01 X21.65400 Y34.91158
G01 X20.65400 Y34.91158
G01 X20.60566 Y34.88460
G01 X19.78512 Y34.88013
G01 X19.79002 Y35.16543
G01 X19.77689 Y35.19357
G01 X19.74135 Y35.21409
G01 X18.26104 Y35.21501
G01 X18.22248 Y35.20096
G01 X18.20196 Y35.16543
G01 X18.20684 Y34.87736
G01 X12.57909 Y34.85735
G01 X12.58498 Y35.28498
G01 X12.57093 Y35.32354
G01 X12.54548 Y35.34135
G01 X11.35455 Y35.34406
G01 X11.31902 Y35.32354
G01 X11.30497 Y35.28498
G01 X11.30589 Y33.80454
G01 X11.31902 Y33.77640
G01 X11.35455 Y33.75588
G01 X11.68282 Y33.76078
G01 X11.68280 Y32.84219
G01 X11.48699 Y32.84798
G01 X11.43873 Y32.82217
G01 X9.53492 Y32.82159
G01 X9.48699 Y32.84798
G01 X8.47658 Y32.84709
G01 X8.44102 Y32.82657
G01 X8.42700 Y32.78799
G01 X8.42700 Y32.23797
G04 P0 ( dwell for no time -- G64 should not smooth over this point )
G00 Z1.00000 ( retract )

G00 X6.06998 Y34.11501 ( rapid move to begin. )
G01 F100.00000
( Mill infeed pass 1/1 )
G01 Z-0.02500
G04 P0 ( dwell for no time -- G64 should not smooth over this point )
G01 F200.00000
G01 X6.06998 Y34.11501
G01 X6.08403 Y34.15357
G01 X6.12997 Y34.17500
G01 X7.60000 Y34.17500
G01 X7.63853 Y34.16096
G01 X7.65999 Y34.11501
G01 X7.65908 Y32.94455
G01 X7.64595 Y32.91641
G01 X7.61041 Y32.89589
G01 X7.16914 Y32.90081
G01 X7.17346 Y32.26561
G01 X7.56690 Y31.87145
G01 X8.43906 Y31.87160
G01 X8.48699 Y31.89800
G01 X9.50751 Y31.89436
G01 X9.53896 Y31.86800
G01 X9.54699 Y31.83800
G01 X9.54699 Y31.28799
G01 X9.53294 Y31.24941
G01 X9.48699 Y31.22797
G01 X8.48699 Y31.22797
G01 X8.43891 Y31.25454
G01 X7.37076 Y31.26101
G01 X7.21958 Y31.34397
G01 X6.64559 Y31.91898
G01 X6.58408 Y32.00912
G01 X6.55499 Y32.13800
G01 X6.56083 Y32.90081
G01 X6.11956 Y32.89589
G01 X6.09142 Y32.90902
G01 X6.07089 Y32.94455
G01 X6.09000 Y32.95499
G01 X6.09304 Y34.13030
G01 X6.12997 Y34.15499
G01 X7.61529 Y34.15194
G01 X7.63995 Y34.11501
G01 X7.63922 Y32.94717
G01 X7.60000 Y32.91499
G01 X7.14912 Y32.92083
G01 X7.15347 Y32.25733
G01 X7.55862 Y31.85146
G01 X8.45087 Y31.85103
G01 X8.48699 Y31.87801
G01 X9.50228 Y31.87496
G01 X9.52700 Y31.83800
G01 X9.52700 Y31.28799
G01 X9.50922 Y31.25472
G01 X8.48699 Y31.24798
G01 X8.45082 Y31.27506
G01 X7.38034 Y31.27902
G01 X7.23373 Y31.35809
G01 X6.65974 Y31.93310
G01 X6.60071 Y32.02022
G01 X6.57498 Y32.13800
G01 X6.58085 Y32.92083
G01 X6.12997 Y32.91499
G01 X6.10170 Y32.92670
G01 X6.09000 Y32.95499
G01 X6.12997 Y32.93498
G01 X6.59500 Y32.93498
G01 X6.59500 Y32.13800
G01 X6.61550 Y32.03477
G01 X6.67389 Y31.94725
G01 X7.24788 Y31.37224
G01 X7.38072 Y31.30016
G01 X8.46698 Y31.29307
G01 X8.48699 Y31.26797
G01 X9.48699 Y31.26797
G01 X9.50546 Y31.28032
G01 X9.50698 Y31.83800
G01 X9.49464 Y31.85647
G01 X8.48699 Y31.85799
G01 X8.46698 Y31.83297
G01 X7.55095 Y31.83297
G01 X7.13498 Y32.24968
G01 X7.13498 Y32.93498
G01 X7.60000 Y32.93498
G01 X7.61961 Y32.95108
G01 X7.61999 Y34.11501
G01 X7.60765 Y34.13347
G01 X6.11887 Y34.13162
G01 X6.10998 Y32.95499
G01 X5.89698 Y32.91069
G01 X5.90298 Y36.21224
G01 X5.94125 Y36.28877
G01 X6.00475 Y36.34769
G01 X6.08608 Y36.37911
G01 X6.29269 Y36.38851
G01 X6.34643 Y36.42318
G01 X6.37369 Y36.47261
G01 X6.37798 Y38.23268
G01 X6.39452 Y38.36011
G01 X6.42776 Y38.44845
G01 X6.52126 Y38.57896
G01 X7.20320 Y39.25493
G01 X7.31349 Y39.31822
G01 X7.51979 Y39.36902
G01 X7.57744 Y39.44045
G01 X7.58293 Y41.83298
G01 X9.87698 Y41.83298
G01 X9.94114 Y41.85119
G01 X9.98618 Y41.90181
G01 X9.99890 Y44.43894
G01 X15.10169 Y44.43498
G01 X15.20014 Y44.39081
G01 X15.27916 Y44.28667
G01 X15.29498 Y44.20115
G01 X15.29625 Y43.64961
G01 X15.33486 Y43.57788
G01 X15.40199 Y43.54697
G01 X15.55698 Y43.54697
G01 X15.61030 Y43.56747
G01 X15.64829 Y43.60894
G01 X15.67664 Y43.72213
G01 X15.72307 Y43.79736
G01 X15.79257 Y43.85111
G01 X15.85429 Y43.87196
G01 X17.36716 Y43.87597
G01 X17.45266 Y43.86018
G01 X17.55759 Y43.78055
G01 X17.60397 Y43.66068
G01 X17.60397 Y40.42721
G01 X17.56947 Y40.32378
G01 X17.49277 Y40.24703
G01 X17.41177 Y40.21482
G01 X17.20818 Y40.20639
G01 X17.13839 Y40.15350
G01 X17.11997 Y40.08899
G01 X17.11997 Y39.80700
G01 X17.15081 Y39.72587
G01 X17.20867 Y39.68945
G01 X17.41179 Y39.68111
G01 X17.49371 Y39.64891
G01 X17.57054 Y39.57116
G01 X17.63056 Y39.40022
G01 X17.70752 Y39.35627
G01 X17.91898 Y39.35597
G01 X17.97151 Y39.37596
G01 X18.01601 Y39.43029
G01 X18.03879 Y39.53039
G01 X18.08507 Y39.60634
G01 X18.15416 Y39.65884
G01 X18.23986 Y39.68398
G01 X19.75108 Y39.68398
G01 X19.83678 Y39.65884
G01 X19.90620 Y39.60608
G01 X19.94277 Y39.55122
G01 X19.99035 Y39.40349
G01 X20.06845 Y39.35627
G01 X20.52093 Y39.35498
G01 X20.65590 Y39.38096
G01 X21.67424 Y39.37898
G01 X21.75948 Y39.35556
G01 X21.81336 Y39.31906
G01 X21.85445 Y39.26877
G01 X21.88598 Y39.18726
G01 X21.88598 Y38.55013
G01 X21.84254 Y38.45036
G01 X21.75885 Y38.38137
G01 X21.65166 Y38.35597
G01 X20.65593 Y38.35597
G01 X20.52093 Y38.38198
G01 X20.06845 Y38.38068
G01 X19.99223 Y38.33634
G01 X19.95255 Y38.20619
G01 X19.90587 Y38.13057
G01 X19.83637 Y38.07685
G01 X19.77468 Y38.05597
G01 X18.21677 Y38.05597
G01 X18.13473 Y38.08823
G01 X18.06996 Y38.14746
G01 X18.03892 Y38.20499
G01 X18.01603 Y38.30662
G01 X17.97140 Y38.36103
G01 X17.91809 Y38.38099
G01 X17.72609 Y38.38198
G01 X17.63092 Y38.33715
G01 X17.58090 Y38.18612
G01 X17.52878 Y38.11447
G01 X17.41278 Y38.05699
G01 X15.87773 Y38.05297
G01 X15.79213 Y38.07718
G01 X15.72312 Y38.13052
G01 X15.67664 Y38.20680
G01 X15.64827 Y38.31904
G01 X15.61030 Y38.36047
G01 X15.55660 Y38.38099
G01 X15.38396 Y38.37756
G01 X15.32617 Y38.34144
G01 X15.29645 Y38.27929
G01 X15.29498 Y37.72783
G01 X15.27916 Y37.64127
G01 X15.19955 Y37.53636
G01 X15.07966 Y37.48998
G01 X7.82182 Y37.48897
G01 X7.73244 Y37.50591
G01 X7.65850 Y37.55247
G01 X7.53810 Y37.73878
G01 X7.47503 Y37.75788
G01 X7.40889 Y37.73979
G01 X7.36294 Y37.68945
G01 X7.35098 Y37.63591
G01 X7.35535 Y36.47213
G01 X7.39119 Y36.41452
G01 X7.43861 Y36.38770
G01 X7.64287 Y36.37911
G01 X7.72380 Y36.34785
G01 X7.80048 Y36.27119
G01 X7.83495 Y36.16677
G01 X7.83198 Y32.91072
G01 X7.80084 Y32.83015
G01 X7.72380 Y32.75311
G01 X7.64265 Y32.72174
G01 X7.42035 Y32.70650
G01 X7.37117 Y32.66322
G01 X7.35113 Y32.59837
G01 X7.36535 Y32.33183
G01 X7.60467 Y32.08601
G01 X7.67021 Y32.05156
G01 X8.13495 Y32.04996
G01 X8.22669 Y32.09142
G01 X8.25598 Y32.17204
G01 X8.25397 Y32.83124
G01 X8.31295 Y32.94829
G01 X8.42024 Y33.01501
G01 X9.48519 Y33.02494
G01 X9.61798 Y32.99997
G01 X11.35498 Y32.99997
G01 X11.46400 Y33.04374
G01 X11.49997 Y33.13048
G01 X11.48910 Y33.50747
G01 X11.41686 Y33.57236
G01 X11.29976 Y33.58745
G01 X11.22270 Y33.62596
G01 X11.15305 Y33.71051
G01 X11.12897 Y33.79380
G01 X11.12897 Y35.30668
G01 X11.14371 Y35.37023
G01 X11.19001 Y35.44427
G01 X11.25940 Y35.49702
G01 X11.32013 Y35.51696
G01 X12.59021 Y35.51201
G01 X12.66672 Y35.47376
G01 X12.72567 Y35.40927
G01 X12.75719 Y35.32768
G01 X12.77246 Y35.11033
G01 X12.81868 Y35.05925
G01 X12.88305 Y35.03998
G01 X17.90404 Y35.05897
G01 X17.95665 Y35.07096
G01 X17.99830 Y35.10414
G01 X18.04710 Y35.25689
G01 X18.09917 Y35.32849
G01 X18.21623 Y35.38699
G01 X19.72812 Y35.39197
G01 X19.81654 Y35.37503
G01 X19.89022 Y35.32900
G01 X19.94277 Y35.25890
G01 X19.98230 Y35.12362
G01 X20.05339 Y35.06751
G01 X20.52075 Y35.06197
G01 X20.65590 Y35.08798
G01 X21.67467 Y35.08697
G01 X21.73866 Y35.07213
G01 X21.79537 Y35.04013
G01 X21.85496 Y34.97490
G01 X21.88003 Y34.91770
G01 X21.88595 Y34.25661
G01 X21.85484 Y34.17615
G01 X21.77747 Y34.09873
G01 X21.65270 Y34.06398
G01 X20.65583 Y34.06398
G01 X20.51994 Y34.08897
G01 X20.06833 Y34.08765
G01 X20.01872 Y34.06850
G01 X19.98235 Y34.02847
G01 X19.95245 Y33.91425
G01 X19.89070 Y33.82161
G01 X19.81618 Y33.77470
G01 X19.75172 Y33.75997
G01 X18.21672 Y33.76297
G01 X18.13528 Y33.79444
G01 X18.08494 Y33.83652
G01 X18.04811 Y33.89083
G01 X17.99812 Y34.04102
G01 X17.95538 Y34.07411
G01 X17.90389 Y34.08499
G01 X12.85013 Y34.06261
G01 X12.79252 Y34.02677
G01 X12.76570 Y33.97935
G01 X12.75711 Y33.77213
G01 X12.72582 Y33.69205
G01 X12.65056 Y33.61491
G01 X12.52158 Y33.56142
G01 X12.47429 Y33.48237
G01 X12.47980 Y33.08964
G01 X12.52323 Y33.03155
G01 X12.61589 Y32.98613
G01 X12.66352 Y32.94491
G01 X12.70817 Y32.87140
G01 X12.72196 Y32.80978
G01 X12.72196 Y32.21778
G01 X12.69778 Y32.13307
G01 X12.64528 Y32.06401
G01 X12.57159 Y32.01796
G01 X12.48513 Y32.00198
G01 X11.48884 Y32.00198
G01 X11.35491 Y32.02698
G01 X9.80248 Y32.02154
G01 X9.74572 Y31.98359
G01 X9.71844 Y31.92418
G01 X9.71264 Y31.21984
G01 X9.64267 Y31.11126
G01 X9.52740 Y31.05596
G01 X8.48882 Y31.05197
G01 X8.35499 Y31.07697
G01 X7.44026 Y31.07697
G01 X7.31219 Y31.09348
G01 X7.19505 Y31.14245
G01 X7.09324 Y31.21999
G01 X6.45951 Y31.86764
G01 X6.40391 Y31.98176
G01 X6.38192 Y32.07356
G01 X6.36490 Y32.65111
G01 X6.29017 Y32.71328
G01 X6.08608 Y32.72182
G01 X6.00513 Y32.75311
G01 X5.92810 Y32.83015
G01 X5.89698 Y32.91069
G01 X5.91700 Y32.91438
G01 X5.92243 Y36.20761
G01 X5.95725 Y36.27678
G01 X6.01534 Y36.33075
G01 X6.09015 Y36.35951
G01 X6.30038 Y36.37005
G01 X6.35990 Y36.40837
G01 X6.39340 Y36.46923
G01 X6.39792 Y38.23136
G01 X6.41392 Y38.35526
G01 X6.44539 Y38.43903
G01 X6.53648 Y38.56598
G01 X7.21532 Y39.23900
G01 X7.32090 Y39.29966
G01 X7.52860 Y39.35107
G01 X7.59693 Y39.43593
G01 X7.59708 Y41.81883
G01 X9.87698 Y41.81299
G01 X9.95029 Y41.83341
G01 X10.00340 Y41.89163
G01 X10.01303 Y44.42477
G01 X15.09750 Y44.41542
G01 X15.18769 Y44.37516
G01 X15.26087 Y44.27859
G01 X15.27499 Y44.19929
G01 X15.27654 Y43.64626
G01 X15.31975 Y43.56477
G01 X15.40199 Y43.52698
G01 X15.56460 Y43.52772
G01 X15.62160 Y43.55096
G01 X15.66661 Y43.60092
G01 X15.69508 Y43.71435
G01 X15.73796 Y43.78400
G01 X15.80202 Y43.83348
G01 X15.85757 Y43.85225
G01 X17.36536 Y43.85596
G01 X17.44458 Y43.84189
G01 X17.54253 Y43.76739
G01 X17.58398 Y43.65840
G01 X17.58423 Y40.43041
G01 X17.55246 Y40.33430
G01 X17.48177 Y40.26374
G01 X17.40760 Y40.23440
G01 X17.20341 Y40.22582
G01 X17.12081 Y40.16303
G01 X17.09998 Y40.08899
G01 X17.09998 Y39.80700
G01 X17.13663 Y39.71175
G01 X17.20435 Y39.66991
G01 X17.40768 Y39.66153
G01 X17.48271 Y39.63219
G01 X17.55352 Y39.56059
G01 X17.61517 Y39.38746
G01 X17.71098 Y39.33598
G01 X17.91898 Y39.33598
G01 X17.98202 Y39.35894
G01 X18.03404 Y39.42163
G01 X18.05736 Y39.52292
G01 X18.09993 Y39.59293
G01 X18.16317 Y39.64098
G01 X18.24270 Y39.66420
G01 X19.74821 Y39.66399
G01 X19.82776 Y39.64098
G01 X19.89162 Y39.59237
G01 X19.92459 Y39.54246
G01 X19.97681 Y39.38790
G01 X20.06495 Y39.33659
G01 X20.52088 Y39.33499
G01 X20.65781 Y39.36105
G01 X21.67152 Y39.35899
G01 X21.75113 Y39.33740
G01 X21.79972 Y39.30415
G01 X21.83695 Y39.25859
G01 X21.86632 Y39.18358
G01 X21.86639 Y38.55422
G01 X21.82657 Y38.46240
G01 X21.74996 Y38.39928
G01 X21.64932 Y38.37596
G01 X20.65786 Y38.37588
G01 X20.52088 Y38.40197
G01 X20.06495 Y38.40037
G01 X19.97651 Y38.34871
G01 X19.93411 Y38.21439
G01 X19.89098 Y38.14396
G01 X19.82692 Y38.09448
G01 X19.77143 Y38.07571
G01 X18.22048 Y38.07563
G01 X18.14532 Y38.10520
G01 X18.08573 Y38.15976
G01 X18.05766 Y38.21198
G01 X18.03407 Y38.31525
G01 X17.98184 Y38.37809
G01 X17.91819 Y38.40098
G01 X17.72619 Y38.40197
G01 X17.61585 Y38.35031
G01 X17.56285 Y38.19529
G01 X17.51479 Y38.12877
G01 X17.40961 Y38.07698
G01 X15.88045 Y38.07279
G01 X15.80115 Y38.09504
G01 X15.73803 Y38.14388
G01 X15.69511 Y38.21452
G01 X15.66658 Y38.32709
G01 X15.62160 Y38.37698
G01 X15.56427 Y38.40032
G01 X15.37992 Y38.39714
G01 X15.31238 Y38.35592
G01 X15.27692 Y38.28361
G01 X15.27499 Y37.72966
G01 X15.26084 Y37.64932
G01 X15.18640 Y37.55143
G01 X15.07738 Y37.50997
G01 X7.82372 Y37.50888
G01 X7.73975 Y37.52453
G01 X7.67269 Y37.56664
G01 X7.54722 Y37.75658
G01 X7.47706 Y37.77777
G01 X7.39982 Y37.75762
G01 X7.34590 Y37.69991
G01 X7.33099 Y37.63583
G01 X7.33571 Y36.46829
G01 X7.37638 Y36.40106
G01 X7.43322 Y36.36845
G01 X7.63881 Y36.35951
G01 X7.71290 Y36.33108
G01 X7.78344 Y36.26070
G01 X7.81524 Y36.16360
G01 X7.81232 Y32.91438
G01 X7.78407 Y32.84105
G01 X7.71290 Y32.76988
G01 X7.63833 Y32.74153
G01 X7.41072 Y32.72403
G01 X7.35537 Y32.67546
G01 X7.33127 Y32.60076
G01 X7.34526 Y32.32708
G01 X7.59517 Y32.06782
G01 X7.67488 Y32.03099
G01 X8.13490 Y32.02997
G01 X8.24140 Y32.07788
G01 X8.27597 Y32.17209
G01 X8.27346 Y32.82664
G01 X8.32862 Y32.93584
G01 X8.42443 Y32.99545
G01 X9.48338 Y33.00493
G01 X9.61798 Y32.97998
G01 X11.35498 Y32.97998
G01 X11.47805 Y33.02949
G01 X11.51996 Y33.13096
G01 X11.50721 Y33.51595
G01 X11.42674 Y33.58974
G01 X11.30548 Y33.60665
G01 X11.23515 Y33.64160
G01 X11.17073 Y33.71984
G01 X11.14879 Y33.79659
G01 X11.14884 Y35.30441
G01 X11.16217 Y35.36256
G01 X11.20477 Y35.43078
G01 X11.26870 Y35.47932
G01 X11.32326 Y35.49720
G01 X12.58559 Y35.49255
G01 X12.65465 Y35.45778
G01 X12.70868 Y35.39872
G01 X12.73743 Y35.32336
G01 X12.75493 Y35.10071
G01 X12.80941 Y35.04152
G01 X12.88312 Y35.01999
G01 X17.90412 Y35.03898
G01 X17.96533 Y35.05295
G01 X18.01364 Y35.09128
G01 X18.06503 Y35.24793
G01 X18.11316 Y35.31419
G01 X18.21949 Y35.36723
G01 X19.72626 Y35.37195
G01 X19.80922 Y35.35641
G01 X19.87668 Y35.31427
G01 X19.92487 Y35.24998
G01 X19.96462 Y35.11425
G01 X20.04882 Y35.04803
G01 X20.52052 Y35.04198
G01 X20.65783 Y35.06807
G01 X21.67239 Y35.06698
G01 X21.73134 Y35.05331
G01 X21.78278 Y35.02428
G01 X21.83820 Y34.96400
G01 X21.86047 Y34.91353
G01 X21.86627 Y34.26020
G01 X21.83807 Y34.18704
G01 X21.76611 Y34.11521
G01 X21.65143 Y34.08397
G01 X20.65768 Y34.08389
G01 X20.51989 Y34.10896
G01 X20.06469 Y34.10731
G01 X20.00744 Y34.08504
G01 X19.96475 Y34.03797
G01 X19.93393 Y33.92250
G01 X19.87673 Y33.83594
G01 X19.80854 Y33.79319
G01 X19.74948 Y33.77998
G01 X18.22040 Y33.78262
G01 X18.14544 Y33.81166
G01 X18.09978 Y33.84993
G01 X18.06612 Y33.89962
G01 X18.01329 Y34.05405
G01 X17.96378 Y34.09225
G01 X17.90381 Y34.10498
G01 X12.84627 Y34.08224
G01 X12.77906 Y34.04158
G01 X12.74645 Y33.98471
G01 X12.73753 Y33.77620
G01 X12.70903 Y33.70289
G01 X12.63936 Y33.63149
G01 X12.51020 Y33.57785
G01 X12.45457 Y33.48577
G01 X12.46161 Y33.08128
G01 X12.51051 Y33.01613
G01 X12.64805 Y32.93185
G01 X12.68963 Y32.86393
G01 X12.70197 Y32.80757
G01 X12.70197 Y32.22058
G01 X12.67990 Y32.14204
G01 X12.63179 Y32.07877
G01 X12.56435 Y32.03660
G01 X12.48330 Y32.02197
G01 X11.49072 Y32.02190
G01 X11.35486 Y32.04697
G01 X9.79499 Y32.04008
G01 X9.72943 Y31.99523
G01 X9.69888 Y31.92840
G01 X9.69329 Y31.22568
G01 X9.63060 Y31.12721
G01 X9.52293 Y31.07547
G01 X8.49065 Y31.07189
G01 X8.35499 Y31.09696
G01 X7.44153 Y31.09693
G01 X7.31737 Y31.11278
G01 X7.20506 Y31.15977
G01 X7.10650 Y31.23498
G01 X6.47587 Y31.87917
G01 X6.42274 Y31.98852
G01 X6.40175 Y32.07615
G01 X6.38514 Y32.65608
G01 X6.29538 Y32.73259
G01 X6.09015 Y32.74143
G01 X6.01603 Y32.76988
G01 X5.94486 Y32.84105
G01 X5.91700 Y32.91438
G01 X5.93701 Y32.91811
G01 X5.94242 Y36.20289
G01 X5.97351 Y36.26459
G01 X6.02614 Y36.31348
G01 X6.09424 Y36.33964
G01 X6.30810 Y36.35161
G01 X6.38006 Y36.40078
G01 X6.41311 Y36.46586
G01 X6.41793 Y38.23004
G01 X6.43345 Y38.35038
G01 X6.46320 Y38.42953
G01 X6.55177 Y38.55297
G01 X7.22753 Y39.22297
G01 X7.32840 Y39.28089
G01 X7.53444 Y39.33174
G01 X7.61450 Y39.42490
G01 X7.61704 Y41.79881
G01 X9.87698 Y41.79297
G01 X9.97747 Y41.82985
G01 X10.02898 Y41.91174
G01 X10.03294 Y44.40475
G01 X15.09320 Y44.39543
G01 X15.17484 Y44.35901
G01 X15.24207 Y44.27028
G01 X15.25500 Y44.19744
G01 X15.25683 Y43.64290
G01 X15.30905 Y43.54710
G01 X15.38911 Y43.50836
G01 X15.56844 Y43.50808
G01 X15.63290 Y43.53447
G01 X15.68492 Y43.59289
G01 X15.71375 Y43.70651
G01 X15.75307 Y43.77039
G01 X15.81159 Y43.81560
G01 X15.86087 Y43.83226
G01 X17.36356 Y43.83597
G01 X17.43628 Y43.82309
G01 X17.52713 Y43.75395
G01 X17.55147 Y43.70999
G01 X17.56396 Y43.65611
G01 X17.56422 Y40.43367
G01 X17.53498 Y40.34510
G01 X17.47054 Y40.28078
G01 X17.40341 Y40.25424
G01 X17.19861 Y40.24522
G01 X17.10658 Y40.17804
G01 X17.07997 Y40.08899
G01 X17.07997 Y39.80700
G01 X17.12480 Y39.69541
G01 X17.20003 Y39.65038
G01 X17.40351 Y39.64169
G01 X17.47146 Y39.61512
G01 X17.53607 Y39.54980
G01 X17.59975 Y39.37469
G01 X17.71098 Y39.31596
G01 X17.91898 Y39.31596
G01 X17.99254 Y39.34195
G01 X18.04992 Y39.40890
G01 X18.07618 Y39.51533
G01 X18.11504 Y39.57929
G01 X18.17234 Y39.62282
G01 X18.24557 Y39.64418
G01 X19.74534 Y39.64398
G01 X19.81859 Y39.62282
G01 X19.87684 Y39.57850
G01 X19.90638 Y39.53369
G01 X19.96124 Y39.37535
G01 X20.07183 Y39.31596
G01 X20.52083 Y39.31497
G01 X20.65971 Y39.34103
G01 X21.66881 Y39.33900
G01 X21.74264 Y39.31899
G01 X21.78608 Y39.28922
G01 X21.84633 Y39.17985
G01 X21.84640 Y38.55838
G01 X21.81016 Y38.47477
G01 X21.74081 Y38.41767
G01 X21.64699 Y38.39598
G01 X20.65979 Y38.39587
G01 X20.52083 Y38.42199
G01 X20.06144 Y38.42005
G01 X19.96078 Y38.36105
G01 X19.91567 Y38.22262
G01 X19.87590 Y38.15755
G01 X19.81735 Y38.11236
G01 X19.76812 Y38.09570
G01 X18.22429 Y38.09562
G01 X18.15609 Y38.12244
G01 X18.10173 Y38.17223
G01 X18.04994 Y38.32798
G01 X17.99228 Y38.39516
G01 X17.92937 Y38.41990
G01 X17.72629 Y38.42199
G01 X17.60417 Y38.36702
G01 X17.54476 Y38.20443
G01 X17.50061 Y38.14327
G01 X17.40643 Y38.09697
G01 X15.88319 Y38.09280
G01 X15.81032 Y38.11322
G01 X15.75320 Y38.15744
G01 X15.71378 Y38.22232
G01 X15.68487 Y38.33514
G01 X15.63290 Y38.39346
G01 X15.56793 Y38.41998
G01 X15.37588 Y38.41673
G01 X15.29856 Y38.37040
G01 X15.25739 Y38.28790
G01 X15.25500 Y37.73149
G01 X15.24202 Y37.65762
G01 X15.17296 Y37.56682
G01 X15.07509 Y37.52999
G01 X7.82560 Y37.52887
G01 X7.74719 Y37.54348
G01 X7.68712 Y37.58112
G01 X7.55634 Y37.77439
G01 X7.46756 Y37.79773
G01 X7.39073 Y37.77543
G01 X7.32885 Y37.71040
G01 X7.31097 Y37.63575
G01 X7.31608 Y36.46443
G01 X7.36157 Y36.38762
G01 X7.42342 Y36.35059
G01 X7.63465 Y36.33941
G01 X7.70173 Y36.31396
G01 X7.76591 Y36.24990
G01 X7.79522 Y36.16039
G01 X7.79233 Y32.91814
G01 X7.76695 Y32.85220
G01 X7.70173 Y32.78700
G01 X7.63406 Y32.76129
G01 X7.41656 Y32.74745
G01 X7.33955 Y32.68771
G01 X7.31105 Y32.59337
G01 X7.33213 Y32.30955
G01 X7.57602 Y32.05807
G01 X7.65613 Y32.01402
G01 X8.13485 Y32.00996
G01 X8.24519 Y32.05499
G01 X8.29599 Y32.17216
G01 X8.29347 Y32.82192
G01 X8.34463 Y32.92316
G01 X8.42870 Y32.97549
G01 X9.48158 Y32.98491
G01 X9.61798 Y32.95997
G01 X11.35498 Y32.95997
G01 X11.48856 Y33.01204
G01 X11.53995 Y33.13144
G01 X11.52722 Y33.51984
G01 X11.43664 Y33.60711
G01 X11.31127 Y33.62614
G01 X11.24790 Y33.65761
G01 X11.18879 Y33.72936
G01 X11.16878 Y33.79944
G01 X11.16885 Y35.30213
G01 X11.18089 Y35.35478
G01 X11.21980 Y35.41706
G01 X11.32641 Y35.47719
G01 X12.58081 Y35.47256
G01 X12.64241 Y35.44155
G01 X12.69138 Y35.38801
G01 X12.71764 Y35.31905
G01 X12.73908 Y35.08821
G01 X12.80014 Y35.02382
G01 X12.88320 Y34.99997
G01 X17.90420 Y35.01897
G01 X17.96988 Y35.03314
G01 X18.02896 Y35.07846
G01 X18.08316 Y35.23886
G01 X18.12733 Y35.29969
G01 X18.22276 Y35.34726
G01 X19.72439 Y35.35196
G01 X19.80180 Y35.33746
G01 X19.86292 Y35.29928
G01 X19.90666 Y35.24091
G01 X19.95014 Y35.09956
G01 X20.04750 Y35.02791
G01 X20.52032 Y35.02197
G01 X20.65977 Y35.04805
G01 X21.67008 Y35.04699
G01 X21.72403 Y35.03446
G01 X21.77015 Y35.00843
G01 X21.84051 Y34.90924
G01 X21.84622 Y34.26383
G01 X21.82095 Y34.19819
G01 X21.75458 Y34.13198
G01 X21.65014 Y34.10399
G01 X20.65954 Y34.10391
G01 X20.51984 Y34.12898
G01 X20.06104 Y34.12697
G01 X20.00015 Y34.10404
G01 X19.94963 Y34.05166
G01 X19.91539 Y33.93078
G01 X19.86246 Y33.85059
G01 X19.80074 Y33.81191
G01 X19.74724 Y33.79997
G01 X18.22416 Y33.80261
G01 X18.15573 Y33.82913
G01 X18.11476 Y33.86347
G01 X18.08431 Y33.90846
G01 X18.02845 Y34.06710
G01 X17.97626 Y34.10835
G01 X17.90371 Y34.12499
G01 X12.84241 Y34.10185
G01 X12.76562 Y34.05639
G01 X12.72859 Y33.99454
G01 X12.71741 Y33.78041
G01 X12.69186 Y33.71394
G01 X12.62790 Y33.64846
G01 X12.49369 Y33.59032
G01 X12.43486 Y33.48918
G01 X12.44111 Y33.07879
G01 X12.49417 Y33.00391
G01 X12.63258 Y32.91877
G01 X12.67083 Y32.85636
G01 X12.68196 Y32.80536
G01 X12.68196 Y32.22337
G01 X12.66169 Y32.15113
G01 X12.61810 Y32.09380
G01 X12.55699 Y32.05558
G01 X12.48147 Y32.04199
G01 X11.49260 Y32.04191
G01 X11.35481 Y32.06698
G01 X9.78752 Y32.05862
G01 X9.71318 Y32.00686
G01 X9.67856 Y31.92830
G01 X9.67394 Y31.23155
G01 X9.61828 Y31.14349
G01 X9.51833 Y31.09543
G01 X8.49248 Y31.09190
G01 X8.35499 Y31.11697
G01 X7.44282 Y31.11692
G01 X7.32261 Y31.13229
G01 X7.21514 Y31.17725
G01 X7.11976 Y31.25002
G01 X6.49243 Y31.89083
G01 X6.44168 Y31.99530
G01 X6.42169 Y32.07874
G01 X6.40897 Y32.64034
G01 X6.39513 Y32.67732
G01 X6.29731 Y32.75268
G01 X6.09426 Y32.76129
G01 X6.02718 Y32.78700
G01 X5.96198 Y32.85220
G01 X5.93701 Y32.91811
G01 X6.06998 Y32.95499
G01 X6.07089 Y36.15742
G01 X6.09142 Y36.19296
G01 X6.11956 Y36.20609
G01 X6.56083 Y36.20114
G01 X6.55499 Y38.23400
G01 X6.57516 Y38.34137
G01 X6.64577 Y38.45320
G01 X7.29492 Y39.09867
G01 X7.44110 Y39.17332
G01 X7.94234 Y39.17271
G01 X7.93655 Y39.86849
G01 X7.96655 Y39.92043
G01 X9.79743 Y39.92848
G01 X9.84338 Y39.90705
G01 X9.85742 Y39.86849
G01 X9.85742 Y37.86951
G01 X9.82743 Y37.81754
G01 X7.97605 Y37.81312
G01 X7.95060 Y37.83093
G01 X7.93655 Y37.86951
G01 X7.94242 Y38.56483
G01 X7.62774 Y38.56052
G01 X7.17346 Y38.10621
G01 X7.16914 Y36.20114
G01 X7.60000 Y36.20700
G01 X7.63000 Y36.19895
G01 X7.65636 Y36.16751
G01 X7.65999 Y34.98699
G01 X7.64595 Y34.94841
G01 X7.62050 Y34.93060
G01 X6.12997 Y34.92697
G01 X6.09142 Y34.94102
G01 X6.07361 Y34.96647
G01 X6.06998 Y34.98699
G01 X6.09000 Y34.98699
G01 X6.09304 Y36.16230
G01 X6.12997 Y36.18699
G01 X6.58085 Y36.18115
G01 X6.57498 Y38.23400
G01 X6.59706 Y38.34497
G01 X6.65494 Y38.43298
G01 X7.30434 Y39.08104
G01 X7.45085 Y39.15419
G01 X7.96228 Y39.15300
G01 X7.95656 Y39.86849
G01 X7.98125 Y39.90542
G01 X9.79743 Y39.90847
G01 X9.83436 Y39.88378
G01 X9.83741 Y37.86951
G01 X9.81963 Y37.83624
G01 X7.98125 Y37.83255
G01 X7.95656 Y37.86951
G01 X7.96241 Y38.58485
G01 X7.61948 Y38.58051
G01 X7.15347 Y38.11449
G01 X7.14912 Y36.18115
G01 X7.60000 Y36.18699
G01 X7.63691 Y36.16230
G01 X7.63995 Y34.98699
G01 X7.60780 Y34.94775
G01 X6.12997 Y34.94699
G01 X6.09076 Y34.97917
G01 X6.10998 Y34.98699
G01 X6.12997 Y34.96698
G01 X7.60000 Y34.96698
G01 X7.61847 Y34.97932
G01 X7.61847 Y36.15465
G01 X7.60000 Y36.16700
G01 X7.13498 Y36.16700
G01 X7.13498 Y38.12214
G01 X7.61184 Y38.59900
G01 X7.97655 Y38.59900
G01 X7.97655 Y37.86951
G01 X7.98890 Y37.85102
G01 X9.80853 Y37.85287
G01 X9.81590 Y39.87614
G01 X9.79743 Y39.88848
G01 X7.98890 Y39.88696
G01 X7.97655 Y39.86849
G01 X7.97655 Y39.13880
G01 X7.45103 Y39.13418
G01 X7.31379 Y39.06341
G01 X6.67158 Y38.42188
G01 X6.61555 Y38.33730
G01 X6.59500 Y38.23400
G01 X6.59500 Y36.16700
G01 X6.12997 Y36.16700
G01 X6.11151 Y36.15465
G01 X6.10998 Y34.98699
G04 P0 ( dwell for no time -- G64 should not smooth over this point )
G00 Z1.00000 ( retract )

G00 X9.09603 Y34.09898 ( rapid move to begin. )
G01 F100.00000
( Mill infeed pass 1/1 )
G01 Z-0.02500
G04 P0 ( dwell for no time -- G64 should not smooth over this point )
G01 F200.00000
G01 X9.09603 Y34.09898
G01 X9.09697 Y33.79329
G01 X9.11150 Y33.73066
G01 X9.19108 Y33.62578
G01 X9.26789 Y33.58740
G01 X9.53896 Y33.57897
G01 X9.53896 Y33.79497
G01 X9.33299 Y33.79497
G01 X9.31450 Y33.80731
G01 X9.31298 Y34.09898
G01 X9.09603 Y34.09898
G01 X9.11610 Y34.07897
G01 X9.11684 Y33.79560
G01 X9.12959 Y33.73917
G01 X9.20386 Y33.64117
G01 X9.27368 Y33.60653
G01 X9.52481 Y33.59312
G01 X9.52481 Y33.78082
G01 X9.31077 Y33.78171
G01 X9.29299 Y33.81498
G01 X9.29883 Y34.08483
G01 X9.11610 Y34.07897
G01 X9.13617 Y34.05898
G01 X9.14810 Y33.74785
G01 X9.21696 Y33.65697
G01 X9.27960 Y33.62593
G01 X9.50482 Y33.61310
G01 X9.50482 Y33.76083
G01 X9.33299 Y33.75496
G01 X9.29441 Y33.76901
G01 X9.27297 Y33.81498
G01 X9.27884 Y34.06484
G01 X9.13617 Y34.05898
G04 P0 ( dwell for no time -- G64 should not smooth over this point )
G00 Z1.00000 ( retract )

G00 X9.09652 Y35.00099 ( rapid move to begin. )
G01 F100.00000
( Mill infeed pass 1/1 )
G01 Z-0.02500
G04 P0 ( dwell for no time -- G64 should not smooth over this point )
G01 F200.00000
G01 X9.09652 Y35.00099
G01 X9.10581 Y35.34955
G01 X9.15819 Y35.44411
G01 X9.24823 Y35.50543
G01 X9.31145 Y35.52098
G01 X9.53896 Y35.52189
G01 X9.53896 Y35.30497
G01 X9.33299 Y35.30497
G01 X9.31450 Y35.29263
G01 X9.31298 Y35.00099
G01 X9.09652 Y35.00099
G01 X9.11707 Y35.02098
G01 X9.12512 Y35.34429
G01 X9.17295 Y35.43065
G01 X9.25638 Y35.48717
G01 X9.31389 Y35.50114
G01 X9.52484 Y35.50772
G01 X9.52479 Y35.31917
G01 X9.31077 Y35.31823
G01 X9.29299 Y35.28498
G01 X9.29870 Y35.01521
G01 X9.11707 Y35.02098
G01 X9.13761 Y35.04099
G01 X9.27884 Y35.03512
G01 X9.27297 Y35.28498
G01 X9.29441 Y35.33093
G01 X9.33299 Y35.34498
G01 X9.50477 Y35.33919
G01 X9.50485 Y35.48765
G01 X9.31635 Y35.48115
G01 X9.26466 Y35.46860
G01 X9.18813 Y35.41678
G01 X9.14498 Y35.33888
G01 X9.13761 Y35.04099
G04 P0 ( dwell for no time -- G64 should not smooth over this point )
G00 Z1.00000 ( retract )

G00 X10.28597 Y35.30497 ( rapid move to begin. )
G01 F100.00000
( Mill infeed pass 1/1 )
G01 Z-0.02500
G04 P0 ( dwell for no time -- G64 should not smooth over this point )
G01 F200.00000
G01 X10.28597 Y35.30497
G01 X10.28597 Y35.52161
G01 X10.53560 Y35.51704
G01 X10.63418 Y35.47376
G01 X10.71346 Y35.36931
G01 X10.72798 Y35.30665
G01 X10.72892 Y35.00099
G01 X10.51297 Y35.00099
G01 X10.50960 Y35.29608
G01 X10.28597 Y35.30497
G01 X10.30596 Y35.32496
G01 X10.29999 Y35.50734
G01 X10.53134 Y35.49751
G01 X10.62179 Y35.45803
G01 X10.69537 Y35.36080
G01 X10.70799 Y35.30434
G01 X10.71475 Y35.01511
G01 X10.52712 Y35.01513
G01 X10.53296 Y35.28498
G01 X10.51518 Y35.31823
G01 X10.30596 Y35.32496
G01 X10.32598 Y35.34498
G01 X10.49298 Y35.34498
G01 X10.53154 Y35.33093
G01 X10.55298 Y35.28498
G01 X10.54711 Y35.03512
G01 X10.69468 Y35.03510
G01 X10.68800 Y35.30203
G01 X10.67685 Y35.35212
G01 X10.60901 Y35.44183
G01 X10.52694 Y35.47759
G01 X10.31998 Y35.48696
G01 X10.32598 Y35.34498
G04 P0 ( dwell for no time -- G64 should not smooth over this point )
G00 Z1.00000 ( retract )

G00 X10.32598 Y33.61920 ( rapid move to begin. )
G01 F100.00000
( Mill infeed pass 1/1 )
G01 Z-0.02500
G04 P0 ( dwell for no time -- G64 should not smooth over this point )
G01 F200.00000
G01 X10.32598 Y33.61920
G01 X10.32016 Y33.76076
G01 X10.50340 Y33.75588
G01 X10.54493 Y33.78496
G01 X10.54711 Y34.06484
G01 X10.69468 Y34.06487
G01 X10.68826 Y33.80076
G01 X10.65961 Y33.71354
G01 X10.57734 Y33.63937
G01 X10.50746 Y33.61994
G01 X10.32598 Y33.61920
G01 X10.30596 Y33.59913
G01 X10.51031 Y33.59995
G01 X10.58729 Y33.62141
G01 X10.67693 Y33.70223
G01 X10.70825 Y33.79748
G01 X10.71475 Y34.08486
G01 X10.52725 Y34.08476
G01 X10.52992 Y33.79967
G01 X10.49298 Y33.77498
G01 X10.30015 Y33.78077
G01 X10.30596 Y33.59913
G01 X10.28597 Y33.57904
G01 X10.51315 Y33.57996
G01 X10.59700 Y33.60391
G01 X10.69367 Y33.69129
G01 X10.72798 Y33.79423
G01 X10.72892 Y34.09898
G01 X10.51297 Y34.09898
G01 X10.51145 Y33.80731
G01 X10.49298 Y33.79497
G01 X10.28597 Y33.79497
G01 X10.28597 Y33.57904
G04 P0 ( dwell for no time -- G64 should not smooth over this point )
G00 Z1.00000 ( retract )

G00 X11.00007 Y30.65926 ( rapid move to begin. )
G01 F100.00000
( Mill infeed pass 1/1 )
G01 Z-0.02500
G04 P0 ( dwell for no time -- G64 should not smooth over this point )
G01 F200.00000
G01 X11.00007 Y30.65926
G01 X11.01577 Y30.43170
G01 X11.08338 Y30.21512
G01 X11.19905 Y30.01809
G01 X11.35602 Y29.85327
G01 X11.50555 Y29.75063
G01 X11.71648 Y29.66335
G01 X11.94160 Y29.62698
G01 X35.36499 Y29.62597
G01 X35.52202 Y29.60989
G01 X35.74531 Y29.52111
G01 X35.92824 Y29.36592
G01 X36.05158 Y29.16033
G01 X36.10197 Y28.92698
G01 X36.10152 Y28.80969
G01 X36.07177 Y28.74751
G01 X36.01686 Y28.71223
G01 X35.85841 Y28.69066
G01 X35.79179 Y28.65325
G01 X35.72882 Y28.58103
G01 X35.69598 Y28.47494
G01 X35.69497 Y25.40868
G01 X35.71015 Y25.31947
G01 X35.74008 Y25.26232
G01 X35.82120 Y25.18775
G01 X35.92702 Y25.15498
G01 X38.23227 Y25.15397
G01 X38.32000 Y25.16905
G01 X38.39592 Y25.21350
G01 X38.45239 Y25.28015
G01 X38.48198 Y25.36247
G01 X38.48597 Y28.45284
G01 X38.46227 Y28.56186
G01 X38.41520 Y28.63013
G01 X38.36303 Y28.67133
G01 X38.27736 Y28.70336
G01 X38.15048 Y28.71705
G01 X38.08884 Y28.77755
G01 X38.04114 Y29.33508
G01 X37.99557 Y29.55393
G01 X37.90616 Y29.84009
G01 X37.81894 Y30.04631
G01 X37.67685 Y30.30862
G01 X37.41114 Y30.66950
G01 X37.09021 Y30.98250
G01 X36.72194 Y31.23760
G01 X36.31693 Y31.42919
G01 X35.88473 Y31.55139
G01 X35.66393 Y31.58504
G01 X35.36446 Y31.60097
G01 X11.94114 Y31.59998
G01 X11.80591 Y31.58431
G01 X11.62996 Y31.53417
G01 X11.50591 Y31.47653
G01 X11.35564 Y31.37341
G01 X11.25696 Y31.27864
G01 X11.14706 Y31.13340
G01 X11.06560 Y30.96952
G01 X11.02555 Y30.83960
G01 X11.00007 Y30.65926
G01 X11.02006 Y30.65855
G01 X11.03543 Y30.43539
G01 X11.10167 Y30.22322
G01 X11.21503 Y30.03013
G01 X11.36900 Y29.86848
G01 X11.51508 Y29.76823
G01 X11.72194 Y29.68261
G01 X11.94320 Y29.64692
G01 X35.36499 Y29.64596
G01 X35.52407 Y29.62978
G01 X35.75562 Y29.53826
G01 X35.94348 Y29.37887
G01 X36.07017 Y29.16770
G01 X36.12196 Y28.92698
G01 X36.12105 Y28.80539
G01 X36.08557 Y28.73303
G01 X36.02377 Y28.69346
G01 X35.86474 Y28.67169
G01 X35.80439 Y28.63773
G01 X35.74630 Y28.57128
G01 X35.71574 Y28.47194
G01 X35.71490 Y25.41035
G01 X35.72910 Y25.32585
G01 X35.75595 Y25.27451
G01 X35.83116 Y25.20510
G01 X35.93002 Y25.17474
G01 X38.23057 Y25.17395
G01 X38.31315 Y25.18785
G01 X38.38305 Y25.22882
G01 X38.43507 Y25.29016
G01 X38.46230 Y25.36593
G01 X38.46595 Y28.45071
G01 X38.44393 Y28.55393
G01 X38.35310 Y28.65370
G01 X38.27276 Y28.68373
G01 X38.14398 Y28.69813
G01 X38.07070 Y28.76915
G01 X38.02130 Y29.33221
G01 X37.97619 Y29.54890
G01 X37.88737 Y29.83320
G01 X37.80090 Y30.03762
G01 X37.65971 Y30.29825
G01 X37.39633 Y30.65601
G01 X37.07744 Y30.96701
G01 X36.71191 Y31.22022
G01 X36.30990 Y31.41039
G01 X35.88049 Y31.53180
G01 X35.66189 Y31.56513
G01 X35.36393 Y31.58098
G01 X11.94228 Y31.58001
G01 X11.80980 Y31.56467
G01 X11.63695 Y31.51542
G01 X11.51582 Y31.45916
G01 X11.36827 Y31.35789
G01 X11.27190 Y31.26536
G01 X11.16405 Y31.12286
G01 X11.08417 Y30.96211
G01 X11.04508 Y30.83526
G01 X11.02006 Y30.65855
G01 X11.04015 Y30.65784
G01 X11.05521 Y30.43912
G01 X11.12008 Y30.23137
G01 X11.23111 Y30.04225
G01 X11.38203 Y29.88380
G01 X11.52468 Y29.78591
G01 X11.72742 Y29.70196
G01 X11.94480 Y29.66691
G01 X35.36499 Y29.66597
G01 X35.53434 Y29.64824
G01 X35.76593 Y29.55538
G01 X35.95872 Y29.39180
G01 X36.08877 Y29.17506
G01 X36.14198 Y28.92698
G01 X36.14058 Y28.80110
G01 X36.09938 Y28.71855
G01 X36.02649 Y28.67331
G01 X35.87119 Y28.65236
G01 X35.81722 Y28.62198
G01 X35.76415 Y28.56132
G01 X35.73576 Y28.46892
G01 X35.73489 Y25.41203
G01 X35.77205 Y25.28688
G01 X35.84140 Y25.22285
G01 X35.93304 Y25.19476
G01 X38.22887 Y25.19397
G01 X38.30619 Y25.20695
G01 X38.36999 Y25.24434
G01 X38.41746 Y25.30032
G01 X38.44228 Y25.36943
G01 X38.44596 Y28.44857
G01 X38.42521 Y28.54580
G01 X38.34317 Y28.63605
G01 X38.26814 Y28.66409
G01 X38.13118 Y28.68180
G01 X38.05254 Y28.76074
G01 X38.00146 Y29.32932
G01 X37.95681 Y29.54387
G01 X37.86857 Y29.82630
G01 X37.78285 Y30.02894
G01 X37.64256 Y30.28791
G01 X37.38150 Y30.64252
G01 X37.06469 Y30.95152
G01 X36.70187 Y31.20285
G01 X36.30284 Y31.39160
G01 X35.87624 Y31.51222
G01 X35.65984 Y31.54521
G01 X35.36339 Y31.56096
G01 X11.94345 Y31.56002
G01 X11.81373 Y31.54501
G01 X11.64393 Y31.49662
G01 X11.52575 Y31.44174
G01 X11.38094 Y31.34235
G01 X11.28691 Y31.25202
G01 X11.18115 Y31.11230
G01 X11.10281 Y30.95466
G01 X11.06466 Y30.83089
G01 X11.04015 Y30.65784
G01 X11.19227 Y30.60831
G01 X11.20642 Y30.76345
G01 X11.25059 Y30.91286
G01 X11.32303 Y31.05078
G01 X11.42100 Y31.17191
G01 X11.54073 Y31.27161
G01 X11.67759 Y31.34603
G01 X11.82636 Y31.39233
G01 X11.98130 Y31.40869
G01 X16.98040 Y31.40706
G01 X17.01593 Y31.38654
G01 X17.02998 Y31.34798
G01 X17.02998 Y29.87897
G01 X17.01593 Y29.84039
G01 X16.96996 Y29.81895
G01 X11.98678 Y29.81898
G01 X11.83751 Y29.83343
G01 X11.68810 Y29.87760
G01 X11.55018 Y29.95004
G01 X11.42074 Y30.05634
G01 X11.32935 Y30.16775
G01 X11.25493 Y30.30460
G01 X11.20863 Y30.45337
G01 X11.19227 Y30.60831
G01 X11.21216 Y30.61027
G01 X11.22786 Y30.76917
G01 X11.27271 Y30.91428
G01 X11.34503 Y31.04786
G01 X11.43647 Y31.15921
G01 X11.55341 Y31.25614
G01 X11.68701 Y31.32840
G01 X11.83984 Y31.37470
G01 X11.98716 Y31.38898
G01 X16.97778 Y31.38720
G01 X17.00996 Y31.34798
G01 X17.00996 Y29.87897
G01 X16.97778 Y29.83973
G01 X11.98678 Y29.83900
G01 X11.83946 Y29.85335
G01 X11.68668 Y29.89973
G01 X11.55310 Y29.97204
G01 X11.43619 Y30.06902
G01 X11.34045 Y30.18695
G01 X11.27256 Y30.31403
G01 X11.22778 Y30.45916
G01 X11.21216 Y30.61027
G01 X11.23207 Y30.61222
G01 X11.24698 Y30.76338
G01 X11.29037 Y30.90486
G01 X11.36050 Y31.03518
G01 X11.45191 Y31.14654
G01 X11.56608 Y31.24067
G01 X11.69644 Y31.31075
G01 X11.84180 Y31.35482
G01 X11.98716 Y31.36899
G01 X16.97387 Y31.36759
G01 X16.98997 Y31.34798
G01 X16.98997 Y29.87897
G01 X16.97387 Y29.85934
G01 X11.98678 Y29.85899
G01 X11.84144 Y29.87323
G01 X11.69971 Y29.91586
G01 X11.56905 Y29.98532
G01 X11.45166 Y30.08172
G01 X11.36029 Y30.19310
G01 X11.29021 Y30.32345
G01 X11.24614 Y30.46881
G01 X11.23207 Y30.61222
G04 P0 ( dwell for no time -- G64 should not smooth over this point )
G00 Z1.00000 ( retract )

G00 X17.78095 Y29.87897 ( rapid move to begin. )
G01 F100.00000
( Mill infeed pass 1/1 )
G01 Z-0.02500
G04 P0 ( dwell for no time -- G64 should not smooth over this point )
G01 F200.00000
G01 X17.78095 Y29.87897
G01 X17.78095 Y31.34798
G01 X17.79500 Y31.38654
G01 X17.83054 Y31.40706
G01 X28.52698 Y31.40798
G01 X28.56554 Y31.39393
G01 X28.58606 Y31.35840
G01 X28.58698 Y29.87897
G01 X28.57293 Y29.84039
G01 X28.53740 Y29.81987
G01 X17.84098 Y29.81895
G01 X17.80239 Y29.83300
G01 X17.78095 Y29.87897
G01 X17.80097 Y29.87897
G01 X17.80097 Y31.34798
G01 X17.83315 Y31.38720
G01 X28.52698 Y31.38796
G01 X28.55525 Y31.37625
G01 X28.56696 Y31.34798
G01 X28.56696 Y29.87897
G01 X28.53478 Y29.83973
G01 X17.84098 Y29.83897
G01 X17.81268 Y29.85068
G01 X17.80097 Y29.87897
G01 X17.84098 Y29.85896
G01 X28.53087 Y29.85934
G01 X28.54697 Y29.87897
G01 X28.54697 Y31.34798
G01 X28.52698 Y31.36797
G01 X17.83706 Y31.36759
G01 X17.82096 Y31.34798
G01 X17.82096 Y29.87897
G04 P0 ( dwell for no time -- G64 should not smooth over this point )
G00 Z1.00000 ( retract )

G00 X13.05655 Y37.86951 ( rapid move to begin. )
G01 F100.00000
( Mill infeed pass 1/1 )
G01 Z-0.02500
G04 P0 ( dwell for no time -- G64 should not smooth over this point )
G01 F200.00000
G01 X13.05655 Y37.86951
G01 X13.05655 Y39.86849
G01 X13.06890 Y39.88696
G01 X14.88508 Y39.88696
G01 X14.89742 Y39.86849
G01 X14.89742 Y39.13898
G01 X15.87804 Y39.13898
G01 X15.88693 Y39.46562
G01 X16.36399 Y39.46900
G01 X16.36399 Y40.42798
G01 X15.89803 Y40.42798
G01 X15.87842 Y40.44408
G01 X15.87804 Y41.60801
G01 X15.89803 Y41.62800
G01 X17.38456 Y41.61911
G01 X17.38756 Y40.44408
G01 X17.36793 Y40.42798
G01 X16.90397 Y40.42798
G01 X16.90397 Y39.46900
G01 X17.37905 Y39.46562
G01 X17.38794 Y39.13898
G01 X18.24003 Y39.13898
G01 X18.24003 Y39.44799
G01 X18.25614 Y39.46760
G01 X19.73383 Y39.46760
G01 X19.74994 Y39.44799
G01 X19.74994 Y39.13898
G01 X20.63398 Y39.13898
G01 X20.65400 Y39.16458
G01 X21.66164 Y39.16306
G01 X21.67399 Y39.14459
G01 X21.67246 Y38.58574
G01 X21.65400 Y38.57339
G01 X20.65400 Y38.57339
G01 X20.63398 Y38.59900
G01 X19.74994 Y38.59900
G01 X19.74994 Y38.28797
G01 X19.73383 Y38.26837
G01 X18.26005 Y38.26799
G01 X18.24003 Y38.28797
G01 X18.24003 Y38.59900
G01 X17.38794 Y38.59900
G01 X17.38794 Y38.28899
G01 X17.37184 Y38.26936
G01 X15.89803 Y38.26898
G01 X15.87804 Y38.28899
