( pcb2gcode 2.5.0 )
( Software-independent Gcode )

G94 ( Millimeters per minute feed rate. )
G21 ( Units == Millimeters. )

G90 ( Absolute coordinates. )
G00 S7000 ( RPM spindle speed. )
G01 F12.00000 ( Feedrate. )


G00 Z25.00000 (Retract to tool change height)
T1
M5      (Spindle stop.)
G04 P1.00000 (Wait for spindle to stop)
(MSG, Change tool bit to cutter diameter 1.15000mm)
M6      (Tool change.)
M0      (Temporary machine stop.)
M3 ( Spindle on clockwise. )
G04 P1.00000 (Wait for spindle to get up to speed)
G04 P0 ( dwell for no time -- G64 should not smooth over this point )
G00 Z1.00000 ( retract )

G00 X0.70202 Y1.27700 ( rapid move to begin. )
G01 Z-0.60000 F50.00000 ( plunge. )
G04 P0 ( dwell for no time -- G64 should not smooth over this point )
G01 F12.00000
G01 X0.70202 Y3.11849
G00 Z-0.50000
G01 X0.70202 Y4.76849
G01 Z-0.60000 F50.00000
G01 F12.00000
G01 X0.70202 Y6.60998
G01 X0.71307 Y6.72215
G01 X0.74578 Y6.83002
G01 X0.79892 Y6.92941
G01 X0.87042 Y7.01656
G01 X0.95757 Y7.08806
G01 X1.05696 Y7.14120
G01 X1.16483 Y7.17391
G01 X1.27700 Y7.18496
G01 X2.60699 Y7.18496
G01 X2.60699 Y13.14698
G01 X1.27700 Y13.14698
G01 X1.16483 Y13.15803
G01 X1.05696 Y13.19074
G01 X0.95757 Y13.24388
G01 X0.87042 Y13.31538
G01 X0.79892 Y13.40253
G01 X0.74578 Y13.50192
G01 X0.71307 Y13.60979
G01 X0.70202 Y13.72198
G01 X0.70202 Y30.16949
G00 Z-0.50000
G01 X0.70202 Y31.81949
G01 Z-0.60000 F50.00000
G01 F12.00000
G01 X0.70202 Y48.26700
G01 X0.71307 Y48.37917
G01 X0.74578 Y48.48704
G01 X0.79892 Y48.58643
G01 X0.87042 Y48.67358
G01 X0.95757 Y48.74508
G01 X1.05696 Y48.79822
G01 X1.16483 Y48.83093
G01 X1.27700 Y48.84198
G01 X40.20300 Y48.84198
G00 Z-0.50000
G01 X41.85300 Y48.84198
G01 Z-0.60000 F50.00000
G01 F12.00000
G01 X80.77900 Y48.84198
G01 X80.89117 Y48.83093
G01 X80.99904 Y48.79822
G01 X81.09843 Y48.74508
G01 X81.18558 Y48.67358
G01 X81.25708 Y48.58643
G01 X81.31022 Y48.48704
G01 X81.34293 Y48.37917
G01 X81.35398 Y48.26700
G01 X81.35398 Y37.66250
G00 Z-0.50000
G01 X81.35398 Y36.01250
G01 Z-0.60000 F50.00000
G01 F12.00000
G01 X81.35398 Y25.40799
G01 X81.34293 Y25.29580
G01 X81.31022 Y25.18792
G01 X81.25708 Y25.08853
G01 X81.18558 Y25.00139
G01 X81.09843 Y24.92989
G01 X80.99904 Y24.87675
G01 X80.89117 Y24.84403
G01 X80.77900 Y24.83299
G01 X79.44898 Y24.83299
G01 X79.44898 Y18.87097
G01 X80.77900 Y18.87097
G01 X80.89117 Y18.85992
G01 X80.99904 Y18.82721
G01 X81.09843 Y18.77407
G01 X81.18558 Y18.70257
G01 X81.25708 Y18.61542
G01 X81.31022 Y18.51603
G01 X81.34293 Y18.40816
G01 X81.35398 Y18.29599
G01 X81.35398 Y10.61150
G00 Z-0.50000
G01 X81.35398 Y8.96150
G01 Z-0.60000 F50.00000
G01 F12.00000
G01 X81.35398 Y1.27700
G01 X81.34293 Y1.16483
G01 X81.31022 Y1.05696
G01 X81.25708 Y0.95757
G01 X81.18558 Y0.87042
G01 X81.09843 Y0.79892
G01 X80.99904 Y0.74578
G01 X80.89117 Y0.71307
G01 X80.77900 Y0.70202
G01 X41.85300 Y0.70202
G00 Z-0.50000
G01 X40.20300 Y0.70202
G01 Z-0.60000 F50.00000
G01 F12.00000
G01 X1.27700 Y0.70202
G01 X1.16483 Y0.71307
G01 X1.05696 Y0.74578
G01 X0.95757 Y0.79892
G01 X0.87042 Y0.87042
G01 X0.79892 Y0.95757
G01 X0.74578 Y1.05696
G01 X0.71307 Y1.16483
G01 X0.70202 Y1.27700
G01 Z-1.20000 F50.00000 ( plunge. )
G04 P0 ( dwell for no time -- G64 should not smooth over this point )
G01 F12.00000
G01 X0.70202 Y3.11849
G00 Z-0.50000
G01 X0.70202 Y4.76849
G01 Z-1.20000 F50.00000
G01 F12.00000
G01 X0.70202 Y6.60998
G01 X0.71307 Y6.72215
G01 X0.74578 Y6.83002
G01 X0.79892 Y6.92941
G01 X0.87042 Y7.01656
G01 X0.95757 Y7.08806
G01 X1.05696 Y7.14120
G01 X1.16483 Y7.17391
G01 X1.27700 Y7.18496
G01 X2.60699 Y7.18496
G01 X2.60699 Y13.14698
G01 X1.27700 Y13.14698
G01 X1.16483 Y13.15803
G01 X1.05696 Y13.19074
G01 X0.95757 Y13.24388
G01 X0.87042 Y13.31538
G01 X0.79892 Y13.40253
G01 X0.74578 Y13.50192
G01 X0.71307 Y13.60979
G01 X0.70202 Y13.72198
G01 X0.70202 Y30.16949
G00 Z-0.50000
G01 X0.70202 Y31.81949
G01 Z-1.20000 F50.00000
G01 F12.00000
G01 X0.70202 Y48.26700
G01 X0.71307 Y48.37917
G01 X0.74578 Y48.48704
G01 X0.79892 Y48.58643
G01 X0.87042 Y48.67358
G01 X0.95757 Y48.74508
G01 X1.05696 Y48.79822
G01 X1.16483 Y48.83093
G01 X1.27700 Y48.84198
G01 X40.20300 Y48.84198
G00 Z-0.50000
G01 X41.85300 Y48.84198
G01 Z-1.20000 F50.00000
G01 F12.00000
G01 X80.77900 Y48.84198
G01 X80.89117 Y48.83093
G01 X80.99904 Y48.79822
G01 X81.09843 Y48.74508
G01 X81.18558 Y48.67358
G01 X81.25708 Y48.58643
G01 X81.31022 Y48.48704
G01 X81.34293 Y48.37917
G01 X81.35398 Y48.26700
G01 X81.35398 Y37.66250
G00 Z-0.50000
G01 X81.35398 Y36.01250
G01 Z-1.20000 F50.00000
G01 F12.00000
G01 X81.35398 Y25.40799
G01 X81.34293 Y25.29580
G01 X81.31022 Y25.18792
G01 X81.25708 Y25.08853
G01 X81.18558 Y25.00139
G01 X81.09843 Y24.92989
G01 X80.99904 Y24.87675
G01 X80.89117 Y24.84403
G01 X80.77900 Y24.83299
G01 X79.44898 Y24.83299
G01 X79.44898 Y18.87097
G01 X80.77900 Y18.87097
G01 X80.89117 Y18.85992
G01 X80.99904 Y18.82721
G01 X81.09843 Y18.77407
G01 X81.18558 Y18.70257
G01 X81.25708 Y18.61542
G01 X81.31022 Y18.51603
G01 X81.34293 Y18.40816
G01 X81.35398 Y18.29599
G01 X81.35398 Y10.61150
G00 Z-0.50000
G01 X81.35398 Y8.96150
G01 Z-1.20000 F50.00000
G01 F12.00000
G01 X81.35398 Y1.27700
G01 X81.34293 Y1.16483
G01 X81.31022 Y1.05696
G01 X81.25708 Y0.95757
G01 X81.18558 Y0.87042
G01 X81.09843 Y0.79892
G01 X80.99904 Y0.74578
G01 X80.89117 Y0.71307
G01 X80.77900 Y0.70202
G01 X41.85300 Y0.70202
G00 Z-0.50000
G01 X40.20300 Y0.70202
G01 Z-1.20000 F50.00000
G01 F12.00000
G01 X1.27700 Y0.70202
G01 X1.16483 Y0.71307
G01 X1.05696 Y0.74578
G01 X0.95757 Y0.79892
G01 X0.87042 Y0.87042
G01 X0.79892 Y0.95757
G01 X0.74578 Y1.05696
G01 X0.71307 Y1.16483
G01 X0.70202 Y1.27700

G04 P0 ( dwell for no time -- G64 should not smooth over this point )
G00 Z25.000000 ( retract )

M5 ( Spindle off. )
G04 P1.000000
M9 ( Coolant off. )
M2 ( Program end. )

