( pcb2gcode 2.5.0 )
( Software-independent Gcode )

G94 ( Millimeters per minute feed rate. )
G21 ( Units == Millimeters. )

G90 ( Absolute coordinates. )
G00 S7000 ( RPM spindle speed. )
G01 F12.00000 ( Feedrate. )


G00 Z25.00000 (Retract to tool change height)
T1
M5      (Spindle stop.)
G04 P1.00000 (Wait for spindle to stop)
(MSG, Change tool bit to cutter diameter 1.15000mm)
M6      (Tool change.)
M0      (Temporary machine stop.)
M3 ( Spindle on clockwise. )
G04 P1.00000 (Wait for spindle to get up to speed)
G04 P0 ( dwell for no time -- G64 should not smooth over this point )
G00 Z1.00000 ( retract )

G00 X0.70202 Y1.27700 ( rapid move to begin. )
G01 Z-0.60000 F50.00000 ( plunge. )
G04 P0 ( dwell for no time -- G64 should not smooth over this point )
G01 F12.00000
G01 X0.70202 Y3.11849
G00 Z-0.50000
G01 X0.70202 Y4.76849
G01 Z-0.60000 F50.00000
G01 F12.00000
G01 X0.70202 Y6.60998
G01 X0.73143 Y6.79157
G01 X0.79328 Y6.92083
G01 X0.89277 Y7.03775
G01 X1.01962 Y7.12416
G01 X1.15478 Y7.17183
G01 X1.26674 Y7.18489
G01 X2.60699 Y7.18496
G01 X2.60699 Y13.14698
G01 X1.26674 Y13.14705
G01 X1.11502 Y13.17027
G01 X0.94909 Y13.24965
G01 X0.82292 Y13.36923
G01 X0.73476 Y13.53067
G01 X0.70238 Y13.70146
G01 X0.70224 Y30.16436
G00 Z-0.50000
G01 X0.70223 Y31.81436
G01 Z-0.60000 F50.00000
G01 F12.00000
G01 X0.70210 Y48.27726
G01 X0.72249 Y48.41912
G01 X0.77736 Y48.55153
G01 X0.87042 Y48.67358
G01 X0.98360 Y48.76149
G01 X1.12488 Y48.82151
G01 X1.27700 Y48.84198
G01 X40.20300 Y48.84198
G00 Z-0.50000
G01 X41.85300 Y48.84198
G01 Z-0.60000 F50.00000
G01 F12.00000
G01 X80.77900 Y48.84198
G01 X80.93112 Y48.82151
G01 X81.06353 Y48.76664
G01 X81.17826 Y48.68077
G01 X81.27349 Y48.56040
G01 X81.33351 Y48.41912
G01 X81.35398 Y48.26700
G01 X81.35331 Y37.64198
G00 Z-0.50000
G01 X81.35320 Y35.99198
G01 Z-0.60000 F50.00000
G01 F12.00000
G01 X81.35253 Y25.36697
G01 X81.31022 Y25.18792
G01 X81.22020 Y25.03926
G01 X81.08985 Y24.92425
G01 X80.93112 Y24.85346
G01 X80.78926 Y24.83306
G01 X79.44898 Y24.83299
G01 X79.44898 Y18.87097
G01 X80.78926 Y18.87089
G01 X80.93112 Y18.85050
G01 X81.08985 Y18.77971
G01 X81.22020 Y18.66470
G01 X81.31022 Y18.51603
G01 X81.35253 Y18.33699
G01 X81.35315 Y10.62686
G00 Z-0.50000
G01 X81.35328 Y8.97686
G01 Z-0.60000 F50.00000
G01 F12.00000
G01 X81.35390 Y1.26674
G01 X81.33351 Y1.12488
G01 X81.27864 Y0.99247
G01 X81.19277 Y0.87774
G01 X81.07240 Y0.78251
G01 X80.93112 Y0.72249
G01 X80.77900 Y0.70202
G01 X41.85300 Y0.70202
G00 Z-0.50000
G01 X40.20300 Y0.70202
G01 Z-0.60000 F50.00000
G01 F12.00000
G01 X1.27700 Y0.70202
G01 X1.16483 Y0.71307
G01 X1.05696 Y0.74578
G01 X0.95757 Y0.79892
G01 X0.87042 Y0.87042
G01 X0.79892 Y0.95757
G01 X0.74578 Y1.05696
G01 X0.71307 Y1.16483
G01 X0.70202 Y1.27700
G01 Z-1.20000 F50.00000 ( plunge. )
G04 P0 ( dwell for no time -- G64 should not smooth over this point )
G01 F12.00000
G01 X0.70202 Y3.11849
G00 Z-0.50000
G01 X0.70202 Y4.76849
G01 Z-1.20000 F50.00000
G01 F12.00000
G01 X0.70202 Y6.60998
G01 X0.73143 Y6.79157
G01 X0.79328 Y6.92083
G01 X0.89277 Y7.03775
G01 X1.01962 Y7.12416
G01 X1.15478 Y7.17183
G01 X1.26674 Y7.18489
G01 X2.60699 Y7.18496
G01 X2.60699 Y13.14698
G01 X1.26674 Y13.14705
G01 X1.11502 Y13.17027
G01 X0.94909 Y13.24965
G01 X0.82292 Y13.36923
G01 X0.73476 Y13.53067
G01 X0.70238 Y13.70146
G01 X0.70224 Y30.16436
G00 Z-0.50000
G01 X0.70223 Y31.81436
G01 Z-1.20000 F50.00000
G01 F12.00000
G01 X0.70210 Y48.27726
G01 X0.72249 Y48.41912
G01 X0.77736 Y48.55153
G01 X0.87042 Y48.67358
G01 X0.98360 Y48.76149
G01 X1.12488 Y48.82151
G01 X1.27700 Y48.84198
G01 X40.20300 Y48.84198
G00 Z-0.50000
G01 X41.85300 Y48.84198
G01 Z-1.20000 F50.00000
G01 F12.00000
G01 X80.77900 Y48.84198
G01 X80.93112 Y48.82151
G01 X81.06353 Y48.76664
G01 X81.17826 Y48.68077
G01 X81.27349 Y48.56040
G01 X81.33351 Y48.41912
G01 X81.35398 Y48.26700
G01 X81.35331 Y37.64198
G00 Z-0.50000
G01 X81.35320 Y35.99198
G01 Z-1.20000 F50.00000
G01 F12.00000
G01 X81.35253 Y25.36697
G01 X81.31022 Y25.18792
G01 X81.22020 Y25.03926
G01 X81.08985 Y24.92425
G01 X80.93112 Y24.85346
G01 X80.78926 Y24.83306
G01 X79.44898 Y24.83299
G01 X79.44898 Y18.87097
G01 X80.78926 Y18.87089
G01 X80.93112 Y18.85050
G01 X81.08985 Y18.77971
G01 X81.22020 Y18.66470
G01 X81.31022 Y18.51603
G01 X81.35253 Y18.33699
G01 X81.35315 Y10.62686
G00 Z-0.50000
G01 X81.35328 Y8.97686
G01 Z-1.20000 F50.00000
G01 F12.00000
G01 X81.35390 Y1.26674
G01 X81.33351 Y1.12488
G01 X81.27864 Y0.99247
G01 X81.19277 Y0.87774
G01 X81.07240 Y0.78251
G01 X80.93112 Y0.72249
G01 X80.77900 Y0.70202
G01 X41.85300 Y0.70202
G00 Z-0.50000
G01 X40.20300 Y0.70202
G01 Z-1.20000 F50.00000
G01 F12.00000
G01 X1.27700 Y0.70202
G01 X1.16483 Y0.71307
G01 X1.05696 Y0.74578
G01 X0.95757 Y0.79892
G01 X0.87042 Y0.87042
G01 X0.79892 Y0.95757
G01 X0.74578 Y1.05696
G01 X0.71307 Y1.16483
G01 X0.70202 Y1.27700

G04 P0 ( dwell for no time -- G64 should not smooth over this point )
G00 Z25.000000 ( retract )

M5 ( Spindle off. )
G04 P1.000000
M9 ( Coolant off. )
M2 ( Program end. )

