( pcb2gcode 2.0.0 )
( Gcode for mach4 )

G94 ( Inches per minute feed rate. )
G20 ( Units == INCHES. )

G90 ( Absolute coordinates. )
G00 S12000 ( RPM spindle speed. )
G64 P0.00040 ( set maximum deviation from commanded toolpath )
G01 F360.00000 ( Feedrate. )

#107 = 0
#108 = 0

(MSG, Attach the probe tool)
M0 ( Temporary machine stop. )
G0 Z0.080 ( Move Z to safe height )
G0 X-6.60491 Y-3.35491 ( Move XY to start point )
G0 Z0.080 ( Move Z to probe height )
M40 (Begins a probe log file, when the window appears, enter a name for the log file such as "RawProbeLog.txt")
G31 Z-0.1 F2.362205 ( Z-probe )
#500 = 0 ( Probe point [0, 0] is our reference )
G92 Z0 ( Set the current Z as zero-value )

( We now start the real probing: move the Z axis to the probing height, move to )
( the probing XY position, probe it and save the result, parameter #5063, )
( in a numbered parameter; we will make 6 probes on the X-axis and )
( 3 probes on the Y-axis, for a grand total of 18 probes )

#101 = 0 ( X iterator )
#102 = 1 ( Y iterator )
#103 = 1 ( UP or DOWN increment )
#104 = 2 ( number of Y points; the 1st Y row can be done one time less )
M98 P3 L6

G0 Z0.080 ( Move Z to safe height )
M41 ( Close the probe log file )
( Probing has ended, each Z-coordinate will be corrected with a bilinear interpolation )
(MSG, Detach the probe tool)
M0 ( Temporary machine stop. )


G00 Z1.00000 (Retract to tool change height)
T0
M5      (Spindle stop.)
G04 P1.00000 (Wait for spindle to stop)
(MSG, Change tool bit to mill diameter 0.00000in)
M6      (Tool change.)
M0      (Temporary machine stop.)
M3 ( Spindle on clockwise. )
G04 P1.00000 (Wait for spindle to get up to speed)
G04 P0 ( dwell for no time -- G64 should not smooth over this point )
G00 Z0.08000 ( retract )

G00 X-4.81301 Y-3.27559 ( rapid move to begin. )
G01 F180.00000
G65 P1 A-4.81301 B-3.27559
G04 P0 ( dwell for no time -- G64 should not smooth over this point )
G01 F360.00000
G65 P1 A-4.81375 B-3.28379
G65 P1 A-4.81617 B-3.29165
G65 P1 A-4.82018 B-3.29884
G65 P1 A-4.82559 B-3.30504
G65 P1 A-4.83218 B-3.30998
G65 P1 A-4.83965 B-3.31344
G65 P1 A-4.84767 B-3.31528
G65 P1 A-4.8559 B-3.3154
G65 P1 A-4.86398 B-3.31381
G65 P1 A-4.87155 B-3.31058
G65 P1 A-4.87828 B-3.30584
G65 P1 A-4.88388 B-3.29981
G65 P1 A-4.9995 B-3.14565
G65 P1 A-5.00349 B-3.14964
G65 P1 A-5.00349 B-3.27619
G65 P1 A-5.00435 B-3.28437
G65 P1 A-5.00689 B-3.2922
G65 P1 A-5.011 B-3.29933
G65 P1 A-5.01651 B-3.30545
G65 P1 A-5.02317 B-3.31028
G65 P1 A-5.03069 B-3.31363
G65 P1 A-5.03874 B-3.31534
G65 P1 A-5.04697 B-3.31534
G65 P1 A-5.05502 B-3.31363
G65 P1 A-5.06254 B-3.31028
G65 P1 A-5.0692 B-3.30545
G65 P1 A-5.07471 B-3.29933
G65 P1 A-5.07882 B-3.2922
G65 P1 A-5.08137 B-3.28437
G65 P1 A-5.08223 B-3.27619
G65 P1 A-5.08223 B-3.04587
G65 P1 A-5.08223 B-2.77619
G65 P1 A-5.08137 B-2.768
G65 P1 A-5.07882 B-2.76018
G65 P1 A-5.07471 B-2.75305
G65 P1 A-5.0692 B-2.74693
G65 P1 A-5.06254 B-2.74209
G65 P1 A-5.05502 B-2.73875
G65 P1 A-5.04697 B-2.73704
G65 P1 A-5.03874 B-2.73704
G65 P1 A-5.03069 B-2.73875
G65 P1 A-5.02317 B-2.74209
G65 P1 A-5.01651 B-2.74693
G65 P1 A-5.011 B-2.75305
G65 P1 A-5.00689 B-2.76018
G65 P1 A-5.00435 B-2.768
G65 P1 A-5.00349 B-2.77619
G65 P1 A-5.00349 B-3.03829
G65 P1 A-4.88022 B-2.91502
G65 P1 A-4.87382 B-2.90984
G65 P1 A-4.86649 B-2.9061
G65 P1 A-4.85854 B-2.90397
G65 P1 A-4.85032 B-2.90354
G65 P1 A-4.84219 B-2.90483
G65 P1 A-4.83451 B-2.90778
G65 P1 A-4.8276 B-2.91226
G65 P1 A-4.82178 B-2.91808
G65 P1 A-4.8173 B-2.92498
G65 P1 A-4.81435 B-2.93267
G65 P1 A-4.81306 B-2.9408
G65 P1 A-4.81349 B-2.94902
G65 P1 A-4.81562 B-2.95696
G65 P1 A-4.81936 B-2.9643
G65 P1 A-4.82454 B-2.9707
G65 P1 A-4.89971 B-3.04587
G65 P1 A-4.94325 B-3.08941
G65 P1 A-4.82088 B-3.25257
G65 P1 A-4.81666 B-3.25963
G65 P1 A-4.814 B-3.26742
G65 P1 A-4.81301 B-3.27559
G04 P0 ( dwell for no time -- G64 should not smooth over this point )
G00 Z0.08000 ( retract )

G00 X-5.21784 Y-3.25474 ( rapid move to begin. )
G01 F180.00000
G65 P1 A-5.21784 B-3.25474
G04 P0 ( dwell for no time -- G64 should not smooth over this point )
G01 F360.00000
G65 P1 A-5.21821 B-3.24652
G65 P1 A-5.22028 B-3.23855
G65 P1 A-5.22396 B-3.23119
G65 P1 A-5.22909 B-3.22475
G65 P1 A-5.23545 B-3.21952
G65 P1 A-5.24275 B-3.21573
G65 P1 A-5.25069 B-3.21354
G65 P1 A-5.2589 B-3.21305
G65 P1 A-5.26704 B-3.21428
G65 P1 A-5.27475 B-3.21717
G65 P1 A-5.31405 B-3.23682
G65 P1 A-5.3907 B-3.23682
G65 P1 A-5.4243 B-3.22002
G65 P1 A-5.43907 B-3.20525
G65 P1 A-5.45587 B-3.17166
G65 P1 A-5.45587 B-3.04739
G65 P1 A-5.45511 B-3.04587
G65 P1 A-5.43907 B-3.0138
G65 P1 A-5.4243 B-2.99902
G65 P1 A-5.39071 B-2.98223
G65 P1 A-5.31405 B-2.98223
G65 P1 A-5.27475 B-3.00188
G65 P1 A-5.26704 B-3.00477
G65 P1 A-5.2589 B-3.006
G65 P1 A-5.25069 B-3.0055
G65 P1 A-5.24275 B-3.00331
G65 P1 A-5.23545 B-2.99952
G65 P1 A-5.22909 B-2.99429
G65 P1 A-5.22396 B-2.98786
G65 P1 A-5.22028 B-2.98049
G65 P1 A-5.21821 B-2.97253
G65 P1 A-5.21784 B-2.96431
G65 P1 A-5.21919 B-2.95619
G65 P1 A-5.2222 B-2.94853
G65 P1 A-5.22673 B-2.94166
G65 P1 A-5.2326 B-2.93588
G65 P1 A-5.23954 B-2.93145
G65 P1 A-5.28715 B-2.90764
G65 P1 A-5.29278 B-2.90535
G65 P1 A-5.2987 B-2.90396
G65 P1 A-5.30476 B-2.90349
G65 P1 A-5.4 B-2.90349
G65 P1 A-5.40606 B-2.90396
G65 P1 A-5.41198 B-2.90535
G65 P1 A-5.41761 B-2.90764
G65 P1 A-5.46523 B-2.93145
G65 P1 A-5.47064 B-2.93473
G65 P1 A-5.47546 B-2.93883
G65 P1 A-5.49927 B-2.96264
G65 P1 A-5.50337 B-2.96746
G65 P1 A-5.50664 B-2.97287
G65 P1 A-5.52977 B-3.01913
G65 P1 A-5.53045 B-3.02049
G65 P1 A-5.53274 B-3.02612
G65 P1 A-5.53414 B-3.03203
G65 P1 A-5.53461 B-3.0381
G65 P1 A-5.53461 B-3.04587
G65 P1 A-5.53461 B-3.18095
G65 P1 A-5.53414 B-3.18701
G65 P1 A-5.53274 B-3.19293
G65 P1 A-5.53045 B-3.19856
G65 P1 A-5.52977 B-3.19991
G65 P1 A-5.50664 B-3.24618
G65 P1 A-5.50337 B-3.25159
G65 P1 A-5.49927 B-3.25641
G65 P1 A-5.47546 B-3.28022
G65 P1 A-5.47064 B-3.28432
G65 P1 A-5.46523 B-3.28759
G65 P1 A-5.41761 B-3.3114
G65 P1 A-5.41198 B-3.31369
G65 P1 A-5.40606 B-3.31509
G65 P1 A-5.4 B-3.31556
G65 P1 A-5.30476 B-3.31556
G65 P1 A-5.2987 B-3.31509
G65 P1 A-5.29278 B-3.31369
G65 P1 A-5.28715 B-3.3114
G65 P1 A-5.23953 B-3.28759
G65 P1 A-5.2326 B-3.28316
G65 P1 A-5.22673 B-3.27739
G65 P1 A-5.2222 B-3.27052
G65 P1 A-5.21919 B-3.26286
G65 P1 A-5.21784 B-3.25474
G04 P0 ( dwell for no time -- G64 should not smooth over this point )
G00 Z0.08000 ( retract )

G00 X-5.67015 Y-3.27619 ( rapid move to begin. )
G01 F180.00000
G65 P1 A-5.67015 B-3.27619
G04 P0 ( dwell for no time -- G64 should not smooth over this point )
G01 F360.00000
G65 P1 A-5.67015 B-3.04587
G65 P1 A-5.67015 B-3.01429
G65 P1 A-5.67062 B-3.00822
G65 P1 A-5.67202 B-3.00231
G65 P1 A-5.67431 B-2.99668
G65 P1 A-5.69812 B-2.94906
G65 P1 A-5.70139 B-2.94365
G65 P1 A-5.70549 B-2.93883
G65 P1 A-5.71031 B-2.93473
G65 P1 A-5.71573 B-2.93145
G65 P1 A-5.76335 B-2.90764
G65 P1 A-5.76898 B-2.90535
G65 P1 A-5.77489 B-2.90396
G65 P1 A-5.78095 B-2.90349
G65 P1 A-5.87619 B-2.90349
G65 P1 A-5.88225 B-2.90396
G65 P1 A-5.88815 B-2.90535
G65 P1 A-5.88817 B-2.90535
G65 P1 A-5.8938 B-2.90764
G65 P1 A-5.94142 B-2.93145
G65 P1 A-5.94835 B-2.93588
G65 P1 A-5.95422 B-2.94166
G65 P1 A-5.95875 B-2.94853
G65 P1 A-5.96176 B-2.95619
G65 P1 A-5.96311 B-2.96431
G65 P1 A-5.96274 B-2.97253
G65 P1 A-5.96067 B-2.98049
G65 P1 A-5.95699 B-2.98786
G65 P1 A-5.95186 B-2.99429
G65 P1 A-5.9455 B-2.99952
G65 P1 A-5.9382 B-3.00331
G65 P1 A-5.93026 B-3.0055
G65 P1 A-5.92205 B-3.006
G65 P1 A-5.91391 B-3.00477
G65 P1 A-5.9062 B-3.00188
G65 P1 A-5.88815 B-2.99286
G65 P1 A-5.8669 B-2.98223
G65 P1 A-5.79024 B-2.98223
G65 P1 A-5.76268 B-2.99601
G65 P1 A-5.74889 B-3.02358
G65 P1 A-5.74889 B-3.03757
G65 P1 A-5.76548 B-3.04587
G65 P1 A-5.76644 B-3.04634
G65 P1 A-5.87619 B-3.04634
G65 P1 A-5.88225 B-3.04681
G65 P1 A-5.88815 B-3.04821
G65 P1 A-5.88817 B-3.04821
G65 P1 A-5.8938 B-3.0505
G65 P1 A-5.94142 B-3.07431
G65 P1 A-5.94683 B-3.07758
G65 P1 A-5.95165 B-3.08168
G65 P1 A-5.95575 B-3.0865
G65 P1 A-5.95902 B-3.09192
G65 P1 A-5.98283 B-3.13953
G65 P1 A-5.98512 B-3.14516
G65 P1 A-5.98652 B-3.15108
G65 P1 A-5.98699 B-3.15714
G65 P1 A-5.98699 B-3.20476
G65 P1 A-5.98652 B-3.21082
G65 P1 A-5.98512 B-3.21674
G65 P1 A-5.98283 B-3.22237
G65 P1 A-5.95902 B-3.26999
G65 P1 A-5.95575 B-3.2754
G65 P1 A-5.95165 B-3.28022
G65 P1 A-5.94683 B-3.28432
G65 P1 A-5.94142 B-3.28759
G65 P1 A-5.8938 B-3.3114
G65 P1 A-5.88817 B-3.31369
G65 P1 A-5.88815 B-3.3137
G65 P1 A-5.88225 B-3.31509
G65 P1 A-5.87619 B-3.31556
G65 P1 A-5.75714 B-3.31556
G65 P1 A-5.75108 B-3.31509
G65 P1 A-5.74517 B-3.31369
G65 P1 A-5.73251 B-3.30789
G65 P1 A-5.72921 B-3.31028
G65 P1 A-5.72169 B-3.31363
G65 P1 A-5.71364 B-3.31534
G65 P1 A-5.70541 B-3.31534
G65 P1 A-5.69736 B-3.31363
G65 P1 A-5.68984 B-3.31028
G65 P1 A-5.68318 B-3.30545
G65 P1 A-5.67767 B-3.29933
G65 P1 A-5.67356 B-3.2922
G65 P1 A-5.67101 B-3.28437
G65 P1 A-5.67015 B-3.27619
G04 P0 ( dwell for no time -- G64 should not smooth over this point )
G00 Z0.08000 ( retract )

G00 X-5.74889 Y-3.22805 ( rapid move to begin. )
G01 F180.00000
G65 P1 A-5.74889 B-3.22805
G04 P0 ( dwell for no time -- G64 should not smooth over this point )
G01 F360.00000
G65 P1 A-5.74889 B-3.1241
G65 P1 A-5.75714 B-3.12508
G65 P1 A-5.8669 B-3.12508
G65 P1 A-5.88815 B-3.13571
G65 P1 A-5.89446 B-3.13887
G65 P1 A-5.90825 B-3.16644
G65 P1 A-5.90825 B-3.19547
G65 P1 A-5.89446 B-3.22303
G65 P1 A-5.88815 B-3.22619
G65 P1 A-5.8669 B-3.23682
G65 P1 A-5.76644 B-3.23682
G65 P1 A-5.74889 B-3.22805
G04 P0 ( dwell for no time -- G64 should not smooth over this point )
G00 Z0.08000 ( retract )

G00 X-6.09872 Y-3.18095 ( rapid move to begin. )
G01 F180.00000
G65 P1 A-6.09872 B-3.18095
G04 P0 ( dwell for no time -- G64 should not smooth over this point )
G01 F360.00000
G65 P1 A-6.09872 B-3.10952
G65 P1 A-6.09919 B-3.10346
G65 P1 A-6.10059 B-3.09755
G65 P1 A-6.10288 B-3.09192
G65 P1 A-6.12591 B-3.04587
G65 P1 A-6.12669 B-3.0443
G65 P1 A-6.12997 B-3.03888
G65 P1 A-6.13406 B-3.03406
G65 P1 A-6.15787 B-3.01025
G65 P1 A-6.16249 B-3.0063
G65 P1 A-6.16693 B-3.00356
G65 P1 A-6.15787 B-2.9945
G65 P1 A-6.15378 B-2.98969
G65 P1 A-6.1505 B-2.98427
G65 P1 A-6.12669 B-2.93665
G65 P1 A-6.1244 B-2.93102
G65 P1 A-6.123 B-2.92511
G65 P1 A-6.12253 B-2.91905
G65 P1 A-6.12253 B-2.87143
G65 P1 A-6.123 B-2.86537
G65 P1 A-6.1244 B-2.85945
G65 P1 A-6.12669 B-2.85382
G65 P1 A-6.1505 B-2.8062
G65 P1 A-6.15378 B-2.80079
G65 P1 A-6.15787 B-2.79597
G65 P1 A-6.18168 B-2.77216
G65 P1 A-6.1865 B-2.76806
G65 P1 A-6.19191 B-2.76479
G65 P1 A-6.23953 B-2.74098
G65 P1 A-6.24517 B-2.73868
G65 P1 A-6.24653 B-2.73836
G65 P1 A-6.25108 B-2.73729
G65 P1 A-6.25714 B-2.73682
G65 P1 A-6.42381 B-2.73682
G65 P1 A-6.43149 B-2.73758
G65 P1 A-6.43888 B-2.73982
G65 P1 A-6.44568 B-2.74345
G65 P1 A-6.45165 B-2.74835
G65 P1 A-6.45654 B-2.75432
G65 P1 A-6.46018 B-2.76112
G65 P1 A-6.46242 B-2.76851
G65 P1 A-6.46318 B-2.77619
G65 P1 A-6.46318 B-3.04587
G65 P1 A-6.46318 B-3.27619
G65 P1 A-6.46242 B-3.28387
G65 P1 A-6.46018 B-3.29126
G65 P1 A-6.45654 B-3.29806
G65 P1 A-6.45165 B-3.30403
G65 P1 A-6.44568 B-3.30892
G65 P1 A-6.43888 B-3.31256
G65 P1 A-6.43149 B-3.3148
G65 P1 A-6.42381 B-3.31556
G65 P1 A-6.24653 B-3.31556
G65 P1 A-6.23333 B-3.31556
G65 P1 A-6.22727 B-3.31509
G65 P1 A-6.22136 B-3.31369
G65 P1 A-6.21572 B-3.3114
G65 P1 A-6.16811 B-3.28759
G65 P1 A-6.16269 B-3.28432
G65 P1 A-6.15787 B-3.28022
G65 P1 A-6.13406 B-3.25641
G65 P1 A-6.12997 B-3.25159
G65 P1 A-6.12669 B-3.24618
G65 P1 A-6.10288 B-3.19856
G65 P1 A-6.10059 B-3.19293
G65 P1 A-6.09919 B-3.18701
G65 P1 A-6.09872 B-3.18095
G04 P0 ( dwell for no time -- G64 should not smooth over this point )
G00 Z0.08000 ( retract )

G00 X-6.17746 Y-3.17166 ( rapid move to begin. )
G01 F180.00000
G65 P1 A-6.17746 B-3.17166
G04 P0 ( dwell for no time -- G64 should not smooth over this point )
G01 F360.00000
G65 P1 A-6.17746 B-3.11882
G65 P1 A-6.19426 B-3.08522
G65 P1 A-6.20698 B-3.07251
G65 P1 A-6.24653 B-3.05932
G65 P1 A-6.26353 B-3.05366
G65 P1 A-6.38444 B-3.05366
G65 P1 A-6.38444 B-3.23682
G65 P1 A-6.24653 B-3.23682
G65 P1 A-6.24263 B-3.23682
G65 P1 A-6.20904 B-3.22002
G65 P1 A-6.19426 B-3.20525
G65 P1 A-6.17746 B-3.17166
G04 P0 ( dwell for no time -- G64 should not smooth over this point )
G00 Z0.08000 ( retract )

G00 X-6.20127 Y-2.90975 ( rapid move to begin. )
G01 F180.00000
G65 P1 A-6.20127 B-2.90975
G04 P0 ( dwell for no time -- G64 should not smooth over this point )
G01 F360.00000
G65 P1 A-6.20127 B-2.88072
G65 P1 A-6.21807 B-2.84713
G65 P1 A-6.23284 B-2.83236
G65 P1 A-6.24653 B-2.82551
G65 P1 A-6.26644 B-2.81556
G65 P1 A-6.38444 B-2.81556
G65 P1 A-6.38444 B-2.97491
G65 P1 A-6.26644 B-2.97491
G65 P1 A-6.24653 B-2.96496
G65 P1 A-6.23284 B-2.95812
G65 P1 A-6.21807 B-2.94334
G65 P1 A-6.20127 B-2.90975
G04 P0 ( dwell for no time -- G64 should not smooth over this point )
G00 Z0.08000 ( retract )

G00 X-6.49509 Y-3.35026 ( rapid move to begin. )
G01 F180.00000
G65 P1 A-6.49509 B-3.35026
G04 P0 ( dwell for no time -- G64 should not smooth over this point )
G01 F360.00000
G65 P1 A-6.4954 B-3.34824
G65 P1 A-6.49652 B-3.34652
G65 P1 A-6.54304 B-3.3
G65 P1 A-6.49652 B-3.25348
G65 P1 A-6.4954 B-3.25176
G65 P1 A-6.49509 B-3.24974
G65 P1 A-6.49561 B-3.24776
G65 P1 A-6.4969 B-3.24618
G65 P1 A-6.49974 B-3.24508
G65 P1 A-6.50176 B-3.2454
G65 P1 A-6.50348 B-3.24652
G65 P1 A-6.55 B-3.29304
G65 P1 A-6.59652 B-3.24652
G65 P1 A-6.59824 B-3.2454
G65 P1 A-6.60026 B-3.24508
G65 P1 A-6.60223 B-3.24561
G65 P1 A-6.60382 B-3.2469
G65 P1 A-6.60491 B-3.24974
G65 P1 A-6.60459 B-3.25176
G65 P1 A-6.60348 B-3.25348
G65 P1 A-6.55696 B-3.3
G65 P1 A-6.60348 B-3.34652
G65 P1 A-6.60459 B-3.34824
G65 P1 A-6.60491 B-3.35026
G65 P1 A-6.60438 B-3.35223
G65 P1 A-6.6031 B-3.35382
G65 P1 A-6.60026 B-3.35491
G65 P1 A-6.59824 B-3.35459
G65 P1 A-6.59652 B-3.35348
G65 P1 A-6.55 B-3.30696
G65 P1 A-6.50268 B-3.35413
G65 P1 A-6.49974 B-3.35491
G65 P1 A-6.49777 B-3.35438
G65 P1 A-6.49618 B-3.3531
G65 P1 A-6.49509 B-3.35026

G04 P0 ( dwell for no time -- G64 should not smooth over this point )
G00 Z1.000 ( retract )

M5 ( Spindle off. )
G04 P1.000000
O1 ( G01 with Z-correction subroutine )
    #3 = 0 ( x-tile offset [minus the initial offset] )
    #4 = 0 ( x-tile offset [minus the initial offset] )
    #5 = [ FIX[ [ #1 - -6.60491 + #3 ] / 0.35838 ] ] ( Lower left point X index )
    #6 = [ FIX[ [ #2 - -3.35491 + #4 ] / 0.30905 ] ] ( Lower left point Y index )
    #7 = [ #5 * 3 + [ #6 + 1 ] + 500 ] ( Upper left point parameter number )
    #8 = [ [ #5 + 1 ] *3 + [ #6 + 1 ] + 500 ] ( Upper right point parameter number )
    #9 = [ #5 * 3 + #6 + 500 ] ( Lower left point parameter number )
    #10 = [ [ #5 + 1 ] * 3 + #6 + 500 ] ( Lower right point parameter number )
    #11 = [ [ #2 + #4 - -3.35491 - #6 * 0.30905 ] / 0.30905 ] ( Distance between the point and the left border of the rectangle, normalized to 1 )
    #12 = [ [ #1 + #3 - -6.60491 - #5 * 0.35838 ] / 0.35838 ] ( Distance between the point and the bottom border of the rectangle, normalized to 1 ) 
    #13 = [ ##9 + [ ##7 - ##9 ] * #11 ] ( Linear interpolation of the x-min elements )
    #14 = [ ##10 + [ ##8 - ##10 ] * #11 ] ( Linear interpolation of the x-max elements )
    #15 = [ #13 + [ #14 - #13 ] * #12 ] ( Linear interpolation of previously interpolated points )
    G01 X#1 Y#2 Z[-0.04000+#15]
M99

O2 ( Y probe subroutine )
    G0 Z0.080 ( Move to probe height )
    X[#101 * 0.35838 + -6.60491] Y[#102 * 0.30905 + -3.35491] ( Move to the current probe point )
    G31 Z-0.1 F2.362205 ( Probe it )
    #[#101 * 3 + #102 + 500] = #5063 ( Save the probe in the correct parameter )
    #102 = [#102 + #103] ( Increment/decrement by 1 the Y counter )
M99

O3 ( X probe subroutine )
    M98 P2 L#104
    #104 = 3
    #103 = [0 - #103]
    #102 = [#102 + #103]
    #101 = [#101 + 1] ( Increment by 1 the X counter )
M99

M9 ( Coolant off. )
M2 ( Program end. )

