( pcb2gcode 2.0.0 )
( Software-independent Gcode )

G94 ( Millimeters per minute feed rate. )
G21 ( Units == Millimeters. )

G90 ( Absolute coordinates. )
G00 S10000 ( RPM spindle speed. )
G01 F360.00000 ( Feedrate. )


G00 Z50.00000 (Retract to tool change height)
T0
M5      (Spindle stop.)
G04 P1.00000 (Wait for spindle to stop)
(MSG, Change tool bit to mill diameter 0.00000mm)
M6      (Tool change.)
M0      (Temporary machine stop.)
M3 ( Spindle on clockwise. )
G04 P1.00000 (Wait for spindle to get up to speed)
G04 P0 ( dwell for no time -- G64 should not smooth over this point )
G00 Z10.00000 ( retract )

G00 X0.75768 Y8.62393 ( rapid move to begin. )
G01 F30.00000
G01 Z-0.10000
G04 P0 ( dwell for no time -- G64 should not smooth over this point )
G01 F360.00000
G01 X0.75768 Y8.62393
G01 X1.64668 Y8.62393
G01 X1.64668 Y8.87794
G01 X1.01168 Y8.87794
G01 X1.01168 Y9.51293
G01 X0.75768 Y9.51293
G01 X0.75768 Y8.62393
G04 P0 ( dwell for no time -- G64 should not smooth over this point )
G00 Z10.00000 ( retract )

G00 X1.90068 Y8.62393 ( rapid move to begin. )
G01 F30.00000
G01 Z-0.10000
G04 P0 ( dwell for no time -- G64 should not smooth over this point )
G01 F360.00000
G01 X1.90068 Y8.62393
G01 X1.90068 Y8.87794
G01 X2.53568 Y8.87794
G01 X2.53566 Y9.51293
G01 X2.78968 Y9.51293
G01 X2.78968 Y8.62393
G01 X1.90068 Y8.62393
G04 P0 ( dwell for no time -- G64 should not smooth over this point )
G00 Z10.00000 ( retract )

G00 X0.75768 Y9.76694 ( rapid move to begin. )
G01 F30.00000
G01 Z-0.10000
G04 P0 ( dwell for no time -- G64 should not smooth over this point )
G01 F360.00000
G01 X0.75768 Y9.76694
G01 X0.75768 Y10.65593
G01 X1.64668 Y10.65593
G01 X1.64668 Y10.40191
G01 X1.01168 Y10.40193
G01 X1.01168 Y9.76694
G01 X0.75768 Y9.76694
G04 P0 ( dwell for no time -- G64 should not smooth over this point )
G00 Z10.00000 ( retract )

G00 X1.90068 Y10.40191 ( rapid move to begin. )
G01 F30.00000
G01 Z-0.10000
G04 P0 ( dwell for no time -- G64 should not smooth over this point )
G01 F360.00000
G01 X1.90068 Y10.40191
G01 X2.53568 Y10.40193
G01 X2.53566 Y9.76694
G01 X2.78968 Y9.76694
G01 X2.78968 Y10.65593
G01 X1.90068 Y10.65593
G01 X1.90068 Y10.40191
G04 P0 ( dwell for no time -- G64 should not smooth over this point )
G00 Z10.00000 ( retract )

G00 X3.54228 Y12.62525 ( rapid move to begin. )
G01 F30.00000
G01 Z-0.10000
G04 P0 ( dwell for no time -- G64 should not smooth over this point )
G01 F360.00000
G01 X3.54228 Y12.62525
G01 X3.44675 Y12.36777
G01 X3.42080 Y12.17991
G01 X3.44675 Y11.99200
G01 X3.42080 Y12.17991
G01 X3.44081 Y12.35174
G01 X3.54228 Y12.62525
G01 X3.68341 Y12.81024
G01 X3.85831 Y12.94625
G01 X3.68341 Y12.81024
G04 P0 ( dwell for no time -- G64 should not smooth over this point )
G00 Z10.00000 ( retract )

G00 X3.23418 Y14.46593 ( rapid move to begin. )
G01 F30.00000
G01 Z-0.10000
G04 P0 ( dwell for no time -- G64 should not smooth over this point )
G01 F360.00000
G01 X3.23418 Y14.46593
G01 X3.23418 Y15.35493
G01 X3.48818 Y15.35493
G01 X3.48818 Y14.71994
G01 X3.93268 Y14.71994
G01 X3.93268 Y14.46593
G01 X3.23418 Y14.46593
G04 P0 ( dwell for no time -- G64 should not smooth over this point )
G00 Z10.00000 ( retract )

G00 X3.23418 Y15.60893 ( rapid move to begin. )
G01 F30.00000
G01 Z-0.10000
G04 P0 ( dwell for no time -- G64 should not smooth over this point )
G01 F360.00000
G01 X3.23418 Y15.60893
G01 X3.23418 Y16.49793
G01 X3.93268 Y16.49793
G01 X3.93268 Y16.24391
G01 X3.48818 Y16.24394
G01 X3.48818 Y15.60893
G01 X3.23418 Y15.60893
G04 P0 ( dwell for no time -- G64 should not smooth over this point )
G00 Z10.00000 ( retract )

G00 X4.18668 Y16.24391 ( rapid move to begin. )
G01 F30.00000
G01 Z-0.10000
G04 P0 ( dwell for no time -- G64 should not smooth over this point )
G01 F360.00000
G01 X4.18668 Y16.24391
G01 X4.18668 Y16.49793
G01 X4.88518 Y16.49793
G01 X4.88518 Y15.60893
G01 X4.63118 Y15.60893
G01 X4.63118 Y16.24394
G01 X4.18668 Y16.24391
G04 P0 ( dwell for no time -- G64 should not smooth over this point )
G00 Z10.00000 ( retract )

G00 X4.18668 Y14.46593 ( rapid move to begin. )
G01 F30.00000
G01 Z-0.10000
G04 P0 ( dwell for no time -- G64 should not smooth over this point )
G01 F360.00000
G01 X4.18668 Y14.46593
G01 X4.88518 Y14.46593
G01 X4.88518 Y15.35493
G01 X4.63118 Y15.35493
G01 X4.63118 Y14.71994
G01 X4.18668 Y14.71994
G01 X4.18668 Y14.46593
G04 P0 ( dwell for no time -- G64 should not smooth over this point )
G00 Z10.00000 ( retract )

G00 X4.39329 Y13.06546 ( rapid move to begin. )
G01 F30.00000
G01 Z-0.10000
G04 P0 ( dwell for no time -- G64 should not smooth over this point )
G01 F360.00000
G01 X4.39329 Y13.06546
G01 X4.21561 Y13.06246
G01 X4.06596 Y13.03401
G01 X3.85831 Y12.94625
G01 X4.08280 Y13.04087
G01 X4.23400 Y13.06546
G01 X4.39329 Y13.06546
G01 X4.57599 Y13.03104
G01 X4.76001 Y12.95314
G01 X4.92476 Y12.83734
G01 X5.09862 Y12.78580
G01 X5.16565 Y12.54049
G01 X5.19313 Y12.25961
G01 X5.16826 Y11.84435
G01 X5.09989 Y11.57851
G01 X5.15818 Y11.78428
G01 X5.19087 Y11.97864
G01 X5.19389 Y12.35253
G01 X5.16110 Y12.55718
G01 X5.09989 Y12.78128
G01 X4.92476 Y12.83734
G04 P0 ( dwell for no time -- G64 should not smooth over this point )
G00 Z10.00000 ( retract )

G00 X5.09862 Y12.78580 ( rapid move to begin. )
G01 F30.00000
G01 Z-0.10000
G04 P0 ( dwell for no time -- G64 should not smooth over this point )
G01 F360.00000
G01 X5.09862 Y12.78580
G01 X5.18488 Y12.94493
G01 X5.20565 Y13.22565
G01 X5.18488 Y12.94493
G04 P0 ( dwell for no time -- G64 should not smooth over this point )
G00 Z10.00000 ( retract )

G00 X6.11983 Y12.93111 ( rapid move to begin. )
G01 F30.00000
G01 Z-0.10000
G04 P0 ( dwell for no time -- G64 should not smooth over this point )
G01 F360.00000
G01 X6.11983 Y12.93111
G01 X6.31175 Y12.92581
G01 X6.62280 Y13.04087
G01 X6.81314 Y13.06546
G01 X6.62280 Y13.04087
G04 P0 ( dwell for no time -- G64 should not smooth over this point )
G00 Z10.00000 ( retract )

G00 X5.99770 Y12.54178 ( rapid move to begin. )
G01 F30.00000
G01 Z-0.10000
G04 P0 ( dwell for no time -- G64 should not smooth over this point )
G01 F360.00000
G01 X5.99770 Y12.54178
G01 X5.96938 Y12.25177
G01 X5.99770 Y12.54178
G01 X6.04807 Y12.73701
G01 X6.11983 Y12.93111
G01 X6.10697 Y12.97341
G01 X6.11563 Y13.06177
G01 X6.14505 Y13.18565
G01 X6.20593 Y13.27800
G01 X6.50598 Y13.57071
G01 X11.46122 Y13.57594
G01 X11.52334 Y13.56865
G01 X11.64722 Y13.41778
G01 X11.81738 Y13.28951
G01 X11.98984 Y13.21989
G01 X12.18766 Y13.19441
G01 X12.41072 Y13.22779
G01 X12.57028 Y13.29520
G01 X12.72789 Y13.41768
G01 X12.84887 Y13.57620
G01 X12.92568 Y13.76009
G01 X12.95291 Y13.95791
G01 X12.92568 Y14.15572
G01 X12.84887 Y14.33965
G01 X12.72789 Y14.49817
G01 X12.57028 Y14.62062
G01 X12.38524 Y14.69596
G01 X12.18766 Y14.72143
G01 X11.98984 Y14.69593
G01 X11.80503 Y14.62065
G01 X11.64722 Y14.49807
G01 X11.52332 Y14.34716
G01 X11.46124 Y14.33987
G01 X6.35864 Y14.33987
G01 X6.19976 Y14.30957
G01 X6.06631 Y14.21887
G01 X5.28907 Y13.42761
G01 X5.22793 Y13.33757
G01 X5.20565 Y13.22565
G01 X5.22793 Y13.33757
G01 X5.31871 Y13.47122
G01 X6.06631 Y14.21887
G04 P0 ( dwell for no time -- G64 should not smooth over this point )
G00 Z10.00000 ( retract )

G00 X6.21868 Y14.69047 ( rapid move to begin. )
G01 F30.00000
G01 Z-0.10000
G04 P0 ( dwell for no time -- G64 should not smooth over this point )
G01 F360.00000
G01 X6.21868 Y14.69047
G01 X6.21868 Y14.95168
G01 X6.40918 Y15.02039
G01 X6.51657 Y15.09842
G01 X6.60537 Y15.19707
G01 X6.67177 Y15.31203
G01 X6.71332 Y15.44333
G01 X6.97154 Y15.44333
G01 X6.95782 Y15.33843
G01 X6.86816 Y15.12202
G01 X6.72567 Y14.93634
G01 X6.53999 Y14.79385
G01 X6.32358 Y14.70419
G01 X6.21868 Y14.69047
G04 P0 ( dwell for no time -- G64 should not smooth over this point )
G00 Z10.00000 ( retract )

G00 X5.21157 Y15.44333 ( rapid move to begin. )
G01 F30.00000
G01 Z-0.10000
G04 P0 ( dwell for no time -- G64 should not smooth over this point )
G01 F360.00000
G01 X5.21157 Y15.44333
G01 X5.22554 Y15.33843
G01 X5.31495 Y15.12202
G01 X5.45744 Y14.93634
G01 X5.64337 Y14.79385
G01 X5.85953 Y14.70419
G01 X5.96468 Y14.69047
G01 X5.96466 Y14.95168
G01 X5.77418 Y15.02039
G01 X5.66677 Y15.09842
G01 X5.57794 Y15.19707
G01 X5.51157 Y15.31203
G01 X5.47002 Y15.44333
G01 X5.21157 Y15.44333
G04 P0 ( dwell for no time -- G64 should not smooth over this point )
G00 Z10.00000 ( retract )

G00 X5.21157 Y15.69733 ( rapid move to begin. )
G01 F30.00000
G01 Z-0.10000
G04 P0 ( dwell for no time -- G64 should not smooth over this point )
G01 F360.00000
G01 X5.21157 Y15.69733
G01 X5.22554 Y15.80248
G01 X5.31495 Y16.01864
G01 X5.45744 Y16.20431
G01 X5.64337 Y16.34706
G01 X5.85953 Y16.43647
G01 X5.96468 Y16.45044
G01 X5.96466 Y16.18894
G01 X5.77416 Y16.12024
G01 X5.66677 Y16.04221
G01 X5.57794 Y15.94355
G01 X5.51157 Y15.82859
G01 X5.47002 Y15.69730
G01 X5.21157 Y15.69733
G04 P0 ( dwell for no time -- G64 should not smooth over this point )
G00 Z10.00000 ( retract )

G00 X6.21868 Y16.18894 ( rapid move to begin. )
G01 F30.00000
G01 Z-0.10000
G04 P0 ( dwell for no time -- G64 should not smooth over this point )
G01 F360.00000
G01 X6.21868 Y16.18894
G01 X6.21868 Y16.45044
G01 X6.32358 Y16.43647
G01 X6.53999 Y16.34706
G01 X6.72567 Y16.20431
G01 X6.86816 Y16.01864
G01 X6.95782 Y15.80248
G01 X6.97154 Y15.69733
G01 X6.71332 Y15.69730
G01 X6.67177 Y15.82859
G01 X6.60537 Y15.94355
G01 X6.51657 Y16.04221
G01 X6.40916 Y16.12024
G01 X6.21868 Y16.18894
G04 P0 ( dwell for no time -- G64 should not smooth over this point )
G00 Z10.00000 ( retract )

G00 X6.21868 Y17.73847 ( rapid move to begin. )
G01 F30.00000
G01 Z-0.10000
G04 P0 ( dwell for no time -- G64 should not smooth over this point )
G01 F360.00000
G01 X6.21868 Y17.73847
G01 X6.21868 Y17.99968
G01 X6.40918 Y18.06839
G01 X6.51657 Y18.14642
G01 X6.60537 Y18.24507
G01 X6.67177 Y18.36003
G01 X6.71332 Y18.49133
G01 X6.97154 Y18.49133
G01 X6.95782 Y18.38642
G01 X6.86816 Y18.17002
G01 X6.72567 Y17.98434
G01 X6.53999 Y17.84185
G01 X6.32358 Y17.75219
G01 X6.21868 Y17.73847
G04 P0 ( dwell for no time -- G64 should not smooth over this point )
G00 Z10.00000 ( retract )

G00 X6.21868 Y19.23694 ( rapid move to begin. )
G01 F30.00000
G01 Z-0.10000
G04 P0 ( dwell for no time -- G64 should not smooth over this point )
G01 F360.00000
G01 X6.21868 Y19.23694
G01 X6.21868 Y19.49844
G01 X6.32358 Y19.48447
G01 X6.53999 Y19.39506
G01 X6.72567 Y19.25231
G01 X6.86816 Y19.06664
G01 X6.95782 Y18.85048
G01 X6.97154 Y18.74533
G01 X6.71332 Y18.74530
G01 X6.67177 Y18.87659
G01 X6.60537 Y18.99155
G01 X6.51657 Y19.09021
G01 X6.40916 Y19.16824
G01 X6.21868 Y19.23694
G04 P0 ( dwell for no time -- G64 should not smooth over this point )
G00 Z10.00000 ( retract )

G00 X5.21157 Y18.74533 ( rapid move to begin. )
G01 F30.00000
G01 Z-0.10000
G04 P0 ( dwell for no time -- G64 should not smooth over this point )
G01 F360.00000
G01 X5.21157 Y18.74533
G01 X5.22554 Y18.85048
G01 X5.31495 Y19.06664
G01 X5.45744 Y19.25231
G01 X5.64337 Y19.39506
G01 X5.85953 Y19.48447
G01 X5.96468 Y19.49844
G01 X5.96466 Y19.23694
G01 X5.77416 Y19.16824
G01 X5.66677 Y19.09021
G01 X5.57794 Y18.99155
G01 X5.51157 Y18.87659
G01 X5.47002 Y18.74530
G01 X5.21157 Y18.74533
G04 P0 ( dwell for no time -- G64 should not smooth over this point )
G00 Z10.00000 ( retract )

G00 X5.21157 Y18.49133 ( rapid move to begin. )
G01 F30.00000
G01 Z-0.10000
G04 P0 ( dwell for no time -- G64 should not smooth over this point )
G01 F360.00000
G01 X5.21157 Y18.49133
G01 X5.22554 Y18.38642
G01 X5.31495 Y18.17002
G01 X5.45744 Y17.98434
G01 X5.64337 Y17.84185
G01 X5.85953 Y17.75219
G01 X5.96468 Y17.73847
G01 X5.96466 Y17.99968
G01 X5.77418 Y18.06839
G01 X5.66677 Y18.14642
G01 X5.57794 Y18.24507
G01 X5.51157 Y18.36003
G01 X5.47002 Y18.49133
G01 X5.21157 Y18.49133
G04 P0 ( dwell for no time -- G64 should not smooth over this point )
G00 Z10.00000 ( retract )

G00 X4.18668 Y19.29193 ( rapid move to begin. )
G01 F30.00000
G01 Z-0.10000
G04 P0 ( dwell for no time -- G64 should not smooth over this point )
G01 F360.00000
G01 X4.18668 Y19.29193
G01 X4.63118 Y19.29193
G01 X4.63118 Y18.65694
G01 X4.88518 Y18.65694
G01 X4.88518 Y19.54594
G01 X4.18668 Y19.54594
G01 X4.18668 Y19.29193
G04 P0 ( dwell for no time -- G64 should not smooth over this point )
G00 Z10.00000 ( retract )

G00 X4.18668 Y17.51393 ( rapid move to begin. )
G01 F30.00000
G01 Z-0.10000
G04 P0 ( dwell for no time -- G64 should not smooth over this point )
G01 F360.00000
G01 X4.18668 Y17.51393
G01 X4.18668 Y17.76791
G01 X4.63118 Y17.76793
G01 X4.63118 Y18.40293
G01 X4.88518 Y18.40293
G01 X4.88518 Y17.51393
G01 X4.18668 Y17.51393
G04 P0 ( dwell for no time -- G64 should not smooth over this point )
G00 Z10.00000 ( retract )

G00 X3.23418 Y17.51393 ( rapid move to begin. )
G01 F30.00000
G01 Z-0.10000
G04 P0 ( dwell for no time -- G64 should not smooth over this point )
G01 F360.00000
G01 X3.23418 Y17.51393
G01 X3.23418 Y18.40293
G01 X3.48818 Y18.40293
G01 X3.48818 Y17.76793
G01 X3.93268 Y17.76791
G01 X3.93268 Y17.51393
G01 X3.23418 Y17.51393
G04 P0 ( dwell for no time -- G64 should not smooth over this point )
G00 Z10.00000 ( retract )

G00 X3.23418 Y18.65694 ( rapid move to begin. )
G01 F30.00000
G01 Z-0.10000
G04 P0 ( dwell for no time -- G64 should not smooth over this point )
G01 F360.00000
G01 X3.23418 Y18.65694
G01 X3.23418 Y19.54594
G01 X3.93268 Y19.54594
G01 X3.93268 Y19.29193
G01 X3.48818 Y19.29193
G01 X3.48818 Y18.65694
G01 X3.23418 Y18.65694
G04 P0 ( dwell for no time -- G64 should not smooth over this point )
G00 Z10.00000 ( retract )

G00 X1.39700 Y21.46008 ( rapid move to begin. )
G01 F30.00000
G01 Z-0.10000
G04 P0 ( dwell for no time -- G64 should not smooth over this point )
G01 F360.00000
G01 X1.39700 Y21.46008
G01 X1.50216 Y21.47379
G01 X1.71831 Y21.56346
G01 X1.90398 Y21.70595
G01 X2.04648 Y21.89163
G01 X2.13614 Y22.10778
G01 X2.14986 Y22.21293
G01 X1.89164 Y22.21293
G01 X1.85009 Y22.08164
G01 X1.78371 Y21.96668
G01 X1.69489 Y21.86803
G01 X1.58750 Y21.79000
G01 X1.39700 Y21.72129
G01 X1.39700 Y21.46008
G04 P0 ( dwell for no time -- G64 should not smooth over this point )
G00 Z10.00000 ( retract )

G00 X0.39014 Y22.21293 ( rapid move to begin. )
G01 F30.00000
G01 Z-0.10000
G04 P0 ( dwell for no time -- G64 should not smooth over this point )
G01 F360.00000
G01 X0.39014 Y22.21293
G01 X0.40386 Y22.10778
G01 X0.49352 Y21.89163
G01 X0.63602 Y21.70595
G01 X0.82166 Y21.56346
G01 X1.03784 Y21.47379
G01 X1.14300 Y21.46008
G01 X1.14297 Y21.72129
G01 X0.95250 Y21.79000
G01 X0.84508 Y21.86803
G01 X0.75626 Y21.96668
G01 X0.68989 Y22.08164
G01 X0.64833 Y22.21293
G01 X0.39014 Y22.21293
G04 P0 ( dwell for no time -- G64 should not smooth over this point )
G00 Z10.00000 ( retract )

G00 X0.39014 Y22.46693 ( rapid move to begin. )
G01 F30.00000
G01 Z-0.10000
G04 P0 ( dwell for no time -- G64 should not smooth over this point )
G01 F360.00000
G01 X0.39014 Y22.46693
G01 X0.40386 Y22.57209
G01 X0.49352 Y22.78824
G01 X0.63602 Y22.97392
G01 X0.82166 Y23.11641
G01 X1.03784 Y23.20607
G01 X1.14300 Y23.21979
G01 X1.14297 Y22.95855
G01 X0.95247 Y22.88985
G01 X0.84508 Y22.81182
G01 X0.75626 Y22.71316
G01 X0.68989 Y22.59820
G01 X0.64833 Y22.46691
G01 X0.39014 Y22.46693
G04 P0 ( dwell for no time -- G64 should not smooth over this point )
G00 Z10.00000 ( retract )

G00 X1.66014 Y24.75293 ( rapid move to begin. )
G01 F30.00000
G01 Z-0.10000
G04 P0 ( dwell for no time -- G64 should not smooth over this point )
G01 F360.00000
G01 X1.66014 Y24.75293
G01 X1.67386 Y24.64778
G01 X1.76352 Y24.43163
G01 X1.90602 Y24.24595
G01 X2.09169 Y24.10346
G01 X2.30784 Y24.01380
G01 X2.41300 Y24.00008
G01 X2.41297 Y24.26129
G01 X2.22250 Y24.33000
G01 X2.11508 Y24.40803
G01 X2.02626 Y24.50668
G01 X1.95989 Y24.62164
G01 X1.91833 Y24.75293
G01 X1.66014 Y24.75293
G04 P0 ( dwell for no time -- G64 should not smooth over this point )
G00 Z10.00000 ( retract )

G00 X1.66014 Y25.00693 ( rapid move to begin. )
G01 F30.00000
G01 Z-0.10000
G04 P0 ( dwell for no time -- G64 should not smooth over this point )
G01 F360.00000
G01 X1.66014 Y25.00693
G01 X1.67386 Y25.11209
G01 X1.76352 Y25.32824
G01 X1.90602 Y25.51392
G01 X2.09169 Y25.65641
G01 X2.30784 Y25.74607
G01 X2.41300 Y25.75979
G01 X2.41297 Y25.49855
G01 X2.22250 Y25.42984
G01 X2.11508 Y25.35182
G01 X2.02626 Y25.25316
G01 X1.95989 Y25.13820
G01 X1.91833 Y25.00691
G01 X1.66014 Y25.00693
G04 P0 ( dwell for no time -- G64 should not smooth over this point )
G00 Z10.00000 ( retract )

G00 X2.66697 Y25.49855 ( rapid move to begin. )
G01 F30.00000
G01 Z-0.10000
G04 P0 ( dwell for no time -- G64 should not smooth over this point )
G01 F360.00000
G01 X2.66697 Y25.49855
G01 X2.66700 Y25.75979
G01 X2.77216 Y25.74607
G01 X2.98831 Y25.65641
G01 X3.17398 Y25.51392
G01 X3.31643 Y25.32824
G01 X3.40614 Y25.11209
G01 X3.41986 Y25.00693
G01 X3.16164 Y25.00691
G01 X3.12009 Y25.13820
G01 X3.05371 Y25.25316
G01 X2.96489 Y25.35182
G01 X2.85747 Y25.42984
G01 X2.66697 Y25.49855
G04 P0 ( dwell for no time -- G64 should not smooth over this point )
G00 Z10.00000 ( retract )

G00 X2.66697 Y24.26129 ( rapid move to begin. )
G01 F30.00000
G01 Z-0.10000
G04 P0 ( dwell for no time -- G64 should not smooth over this point )
G01 F360.00000
G01 X2.66697 Y24.26129
G01 X2.85750 Y24.33000
G01 X2.96489 Y24.40803
G01 X3.05371 Y24.50668
G01 X3.12009 Y24.62164
G01 X3.16164 Y24.75293
G01 X3.41986 Y24.75293
G01 X3.40614 Y24.64778
G01 X3.31643 Y24.43163
G01 X3.17398 Y24.24595
G01 X2.98831 Y24.10346
G01 X2.77216 Y24.01380
G01 X2.66700 Y24.00008
G01 X2.66697 Y24.26129
G04 P0 ( dwell for no time -- G64 should not smooth over this point )
G00 Z10.00000 ( retract )

G00 X1.39700 Y22.95855 ( rapid move to begin. )
G01 F30.00000
G01 Z-0.10000
G04 P0 ( dwell for no time -- G64 should not smooth over this point )
G01 F360.00000
G01 X1.39700 Y22.95855
G01 X1.39700 Y23.21979
G01 X1.50216 Y23.20607
G01 X1.71831 Y23.11641
G01 X1.90398 Y22.97392
G01 X2.04648 Y22.78824
G01 X2.13614 Y22.57209
G01 X2.14986 Y22.46693
G01 X1.89164 Y22.46691
G01 X1.85009 Y22.59820
G01 X1.78371 Y22.71316
G01 X1.69489 Y22.81182
G01 X1.58747 Y22.88985
G01 X1.39700 Y22.95855
G04 P0 ( dwell for no time -- G64 should not smooth over this point )
G00 Z10.00000 ( retract )

G00 X3.05285 Y20.18053 ( rapid move to begin. )
G01 F30.00000
G01 Z-0.10000
G04 P0 ( dwell for no time -- G64 should not smooth over this point )
G01 F360.00000
G01 X3.05285 Y20.18053
G01 X2.69606 Y19.83105
G01 X2.66304 Y19.79074
G01 X2.65791 Y19.73897
G01 X2.65791 Y19.54594
G01 X2.72618 Y19.29193
G01 X2.72618 Y17.76793
G01 X2.65791 Y17.51393
G01 X2.65791 Y16.49793
G01 X2.72618 Y16.24394
G01 X2.72618 Y14.71994
G01 X2.65791 Y14.46593
G01 X2.64782 Y12.34072
G01 X2.66642 Y12.17988
G01 X2.63461 Y11.94925
G01 X2.54505 Y11.73460
G01 X2.48475 Y11.64681
G01 X2.37960 Y11.52713
G01 X2.22004 Y11.40671
G01 X2.00434 Y11.31898
G01 X1.77366 Y11.28926
G01 X1.66756 Y11.29759
G01 X1.51130 Y11.32876
G01 X1.32710 Y11.40676
G01 X1.14341 Y11.54961
G01 X1.00226 Y11.73460
G01 X0.95646 Y11.83063
G01 X0.90538 Y11.98154
G01 X0.88080 Y12.17991
G01 X0.91267 Y12.41054
G01 X1.00228 Y12.62525
G01 X1.14315 Y12.80993
G01 X1.38577 Y12.99205
G01 X1.39743 Y13.06995
G01 X1.39743 Y14.46593
G01 X1.32916 Y14.71994
G01 X1.32916 Y16.24394
G01 X1.39743 Y16.49793
G01 X1.39743 Y17.51393
G01 X1.32916 Y17.76793
G01 X1.32916 Y19.29193
G01 X1.39743 Y19.54594
G01 X1.39743 Y20.04540
G01 X1.41442 Y20.18871
G01 X1.48323 Y20.36823
G01 X1.58803 Y20.50557
G01 X2.33802 Y21.25553
G01 X2.45135 Y21.34486
G01 X2.62692 Y21.42312
G01 X2.79819 Y21.44616
G01 X22.08759 Y21.44616
G01 X22.19795 Y21.46953
G01 X22.21959 Y21.57641
G01 X22.21959 Y22.59393
G01 X22.19980 Y22.69614
G01 X21.92495 Y22.74270
G01 X21.90316 Y22.84793
G01 X21.90316 Y24.37191
G01 X21.92495 Y24.47714
G01 X22.19980 Y24.52370
G01 X22.21959 Y24.62593
G01 X22.21959 Y25.13393
G01 X22.19980 Y25.23614
G01 X21.92495 Y25.28270
G01 X21.90316 Y25.38793
G01 X21.90316 Y26.91191
G01 X21.92495 Y27.01714
G01 X22.03016 Y27.03891
G01 X23.17318 Y27.03891
G01 X23.27839 Y27.01714
G01 X23.30018 Y26.91191
G01 X23.30018 Y25.38793
G01 X23.27839 Y25.28270
G01 X23.00346 Y25.23620
G01 X22.98362 Y25.13393
G01 X22.98362 Y24.62593
G01 X23.00346 Y24.52365
G01 X23.27839 Y24.47714
G01 X23.30018 Y24.37191
G01 X23.30018 Y22.84793
G01 X23.27839 Y22.74270
G01 X23.00346 Y22.69620
G01 X22.98362 Y22.59393
G01 X22.98362 Y21.57641
G01 X23.00529 Y21.46945
G01 X23.11552 Y21.44616
G01 X32.51347 Y21.44446
G01 X23.11552 Y21.44616
G04 P0 ( dwell for no time -- G64 should not smooth over this point )
G00 Z10.00000 ( retract )

G00 X29.26710 Y19.30309 ( rapid move to begin. )
G01 F30.00000
G01 Z-0.10000
G04 P0 ( dwell for no time -- G64 should not smooth over this point )
G01 F360.00000
G01 X29.26710 Y19.30309
G01 X29.44292 Y19.37464
G01 X29.26710 Y19.30309
G01 X29.08341 Y19.16024
G01 X28.94228 Y18.97525
G01 X28.84538 Y18.72828
G04 P0 ( dwell for no time -- G64 should not smooth over this point )
G00 Z10.00000 ( retract )

G00 X28.94226 Y18.08460 ( rapid move to begin. )
G01 F30.00000
G01 Z-0.10000
G04 P0 ( dwell for no time -- G64 should not smooth over this point )
G01 F360.00000
G01 X28.94226 Y18.08460
G01 X28.84538 Y18.33154
G01 X28.82224 Y18.54162
G01 X28.84538 Y18.72828
G01 X28.82080 Y18.52991
G01 X28.84538 Y18.33154
G01 X28.94226 Y18.08460
G01 X29.09501 Y17.86570
G01 X29.14246 Y17.71642
G01 X28.97462 Y17.62481
G01 X28.89275 Y17.61208
G01 X23.23716 Y17.61208
G01 X23.10514 Y17.63560
G01 X22.95944 Y17.60692
G01 X22.83584 Y17.52458
G01 X22.29528 Y16.97162
G01 X22.24982 Y16.89750
G01 X22.22965 Y16.81317
G01 X22.21959 Y16.49791
G01 X22.22932 Y16.80347
G01 X22.24982 Y16.89750
G01 X22.31136 Y16.98808
G01 X22.83584 Y17.52458
G04 P0 ( dwell for no time -- G64 should not smooth over this point )
G00 Z10.00000 ( retract )

G00 X22.21959 Y16.49791 ( rapid move to begin. )
G01 F30.00000
G01 Z-0.10000
G04 P0 ( dwell for no time -- G64 should not smooth over this point )
G01 F360.00000
G01 X22.21959 Y16.49791
G01 X22.19980 Y16.39573
G01 X21.92495 Y16.34914
G01 X21.90316 Y16.24394
G01 X21.90316 Y14.71994
G01 X21.92495 Y14.61470
G01 X22.19980 Y14.56814
G01 X22.21959 Y14.46593
G01 X22.21959 Y12.17991
G01 X22.19980 Y12.07770
G01 X21.92495 Y12.03114
G01 X21.90316 Y11.92594
G01 X21.90316 Y10.40193
G01 X21.92495 Y10.29670
G01 X22.19980 Y10.25014
G01 X22.21959 Y10.14794
G01 X22.21959 Y9.63991
G01 X22.19980 Y9.53770
G01 X21.92495 Y9.49114
G01 X21.90316 Y9.38593
G01 X21.90316 Y7.86194
G01 X21.92495 Y7.75670
G01 X22.03016 Y7.73491
G01 X23.17318 Y7.73491
G01 X23.27839 Y7.75670
G01 X23.30018 Y7.86194
G01 X23.30018 Y9.38593
G01 X23.27839 Y9.49114
G01 X23.00346 Y9.53765
G01 X22.98362 Y9.63991
G01 X22.98362 Y10.14794
G01 X23.00346 Y10.25020
G01 X23.27839 Y10.29670
G01 X23.30018 Y10.40193
G01 X23.30018 Y11.92594
G01 X23.27839 Y12.03114
G01 X23.00343 Y12.07765
G01 X22.98362 Y12.17991
G01 X22.98362 Y14.46593
G01 X23.00343 Y14.56820
G01 X23.27839 Y14.61470
G01 X23.30018 Y14.71994
G01 X23.30018 Y16.24394
G01 X23.27839 Y16.34914
G01 X23.17318 Y16.37977
G01 X23.04948 Y16.44170
G01 X23.02386 Y16.57703
G01 X23.09846 Y16.70853
G01 X23.29043 Y16.89329
G01 X23.09846 Y16.70853
G04 P0 ( dwell for no time -- G64 should not smooth over this point )
G00 Z10.00000 ( retract )

G00 X23.29043 Y16.89329 ( rapid move to begin. )
G01 F30.00000
G01 Z-0.10000
G04 P0 ( dwell for no time -- G64 should not smooth over this point )
G01 F360.00000
G01 X23.29043 Y16.89329
G01 X28.69768 Y16.89859
G01 X28.83091 Y16.86491
G01 X28.82468 Y15.99578
G01 X28.79994 Y15.88369
G01 X28.69768 Y15.86387
G01 X25.45918 Y15.86387
G01 X25.35687 Y15.88371
G01 X25.33216 Y15.99578
G01 X25.33216 Y16.24394
G01 X25.31036 Y16.34912
G01 X25.20513 Y16.37093
G01 X24.06218 Y16.37093
G01 X23.95695 Y16.34914
G01 X23.93518 Y16.24394
G01 X23.93518 Y14.71994
G01 X23.95695 Y14.61470
G01 X24.06218 Y14.59293
G01 X25.20513 Y14.59293
G01 X25.31036 Y14.61473
G01 X25.33216 Y14.71994
G01 X25.33216 Y14.96809
G01 X25.35687 Y15.08011
G01 X25.45918 Y15.09994
G01 X30.47568 Y15.10091
G01 X30.58089 Y15.12270
G01 X30.60266 Y15.22791
G01 X30.59643 Y16.86491
G01 X30.47568 Y16.89110
G01 X28.95168 Y16.89110
G01 X28.83091 Y16.86491
G04 P0 ( dwell for no time -- G64 should not smooth over this point )
G00 Z10.00000 ( retract )

G00 X29.14246 Y17.71642 ( rapid move to begin. )
G01 F30.00000
G01 Z-0.10000
G04 P0 ( dwell for no time -- G64 should not smooth over this point )
G01 F360.00000
G01 X29.14246 Y17.71642
G01 X29.44404 Y17.64459
G01 X29.79331 Y17.62623
G01 X30.01818 Y17.65013
G01 X30.28488 Y17.71642
G01 X30.33230 Y17.86567
G01 X30.28488 Y17.71642
G01 X30.45269 Y17.62481
G01 X30.28488 Y17.71642
G04 P0 ( dwell for no time -- G64 should not smooth over this point )
G00 Z10.00000 ( retract )

G00 X30.58193 Y18.72828 ( rapid move to begin. )
G01 F30.00000
G01 Z-0.10000
G04 P0 ( dwell for no time -- G64 should not smooth over this point )
G01 F360.00000
G01 X30.58193 Y18.72828
G01 X30.60642 Y18.52993
G01 X30.58193 Y18.33154
G01 X30.48505 Y18.08460
G01 X30.33230 Y17.86567
G01 X30.51594 Y18.14934
G01 X30.58442 Y18.35183
G01 X30.60497 Y18.54159
G01 X30.58193 Y18.72828
G01 X30.48508 Y18.97520
G01 X30.34378 Y19.16026
G01 X30.16001 Y19.30314
G01 X30.00126 Y19.37172
G01 X29.71366 Y19.42069
G01 X29.44292 Y19.37464
G01 X29.71366 Y19.42069
G01 X29.98434 Y19.37459
G01 X30.16001 Y19.30314
G04 P0 ( dwell for no time -- G64 should not smooth over this point )
G00 Z10.00000 ( retract )

G00 X28.82085 Y23.83015 ( rapid move to begin. )
G01 F30.00000
G01 Z-0.10000
G04 P0 ( dwell for no time -- G64 should not smooth over this point )
G01 F360.00000
G01 X28.82085 Y23.83015
G01 X28.95168 Y23.86386
G01 X30.47568 Y23.86386
G01 X30.60261 Y23.83213
G01 X30.72955 Y23.73691
G01 X30.84281 Y23.62365
G01 X30.81571 Y23.47227
G01 X30.71393 Y23.36355
G01 X30.63049 Y23.24468
G01 X30.60266 Y23.12581
G01 X30.60266 Y22.21293
G01 X30.58089 Y22.10770
G01 X30.47568 Y22.08593
G01 X28.95168 Y22.08593
G01 X28.84645 Y22.10770
G01 X28.82468 Y22.21293
G01 X28.82468 Y22.46107
G01 X28.79997 Y22.57313
G01 X28.69768 Y22.59297
G01 X25.28164 Y22.59297
G01 X25.12278 Y22.62327
G01 X24.98689 Y22.71492
G01 X24.06218 Y22.72094
G01 X23.95695 Y22.74270
G01 X23.93518 Y22.84793
G01 X23.93518 Y24.37191
G01 X23.95695 Y24.47714
G01 X24.06218 Y24.49893
G01 X25.20513 Y24.49893
G01 X25.31036 Y24.47712
G01 X25.33216 Y24.37191
G01 X25.33216 Y23.51113
G01 X25.34001 Y23.44793
G01 X25.42901 Y23.36208
G01 X28.69768 Y23.35687
G01 X28.79994 Y23.37671
G01 X28.82468 Y23.48878
G01 X28.82085 Y23.83015
G01 X28.69768 Y23.85891
G01 X28.25923 Y23.86896
G01 X28.17490 Y23.88913
G01 X28.06146 Y23.96383
G01 X26.25126 Y25.76276
G01 X28.05367 Y23.97155
G01 X28.17490 Y23.88913
G01 X28.28364 Y23.86838
G01 X28.69768 Y23.85891
G04 P0 ( dwell for no time -- G64 should not smooth over this point )
G00 Z10.00000 ( retract )

G00 X26.25126 Y25.76276 ( rapid move to begin. )
G01 F30.00000
G01 Z-0.10000
G04 P0 ( dwell for no time -- G64 should not smooth over this point )
G01 F360.00000
G01 X26.25126 Y25.76276
G01 X25.45918 Y25.76797
G01 X25.35687 Y25.74813
G01 X25.33216 Y25.63607
G01 X25.33216 Y25.38793
G01 X25.31036 Y25.28273
G01 X25.20513 Y25.26093
G01 X24.06218 Y25.26093
G01 X23.95695 Y25.28270
G01 X23.93518 Y25.38793
G01 X23.93518 Y26.91191
G01 X23.95695 Y27.01714
G01 X24.06218 Y27.03891
G01 X25.20513 Y27.03891
G01 X25.31036 Y27.01712
G01 X25.33216 Y26.91191
G01 X25.33216 Y26.66378
G01 X25.35687 Y26.55169
G01 X25.45918 Y26.53187
G01 X26.39868 Y26.53187
G01 X26.55730 Y26.50162
G01 X26.69083 Y26.41092
G01 X28.48087 Y24.62802
G01 X26.69083 Y26.41092
G04 P0 ( dwell for no time -- G64 should not smooth over this point )
G00 Z10.00000 ( retract )

G00 X28.87266 Y24.62281 ( rapid move to begin. )
G01 F30.00000
G01 Z-0.10000
G04 P0 ( dwell for no time -- G64 should not smooth over this point )
G01 F360.00000
G01 X28.87266 Y24.62281
G01 X28.48087 Y24.62802
G01 X28.87266 Y24.62281
G01 X28.95476 Y24.63559
G01 X29.11704 Y24.72380
G01 X29.08562 Y24.84222
G01 X28.91643 Y25.13147
G01 X28.85016 Y25.30236
G01 X28.94226 Y25.06960
G01 X29.08562 Y24.84222
G04 P0 ( dwell for no time -- G64 should not smooth over this point )
G00 Z10.00000 ( retract )

G00 X29.11704 Y24.72380 ( rapid move to begin. )
G01 F30.00000
G01 Z-0.10000
G04 P0 ( dwell for no time -- G64 should not smooth over this point )
G01 F360.00000
G01 X29.11704 Y24.72380
G01 X29.41457 Y24.64732
G01 X29.63400 Y24.62400
G01 X29.98059 Y24.64222
G01 X30.19445 Y24.68819
G01 X29.98059 Y24.64222
G04 P0 ( dwell for no time -- G64 should not smooth over this point )
G00 Z10.00000 ( retract )

G00 X28.82080 Y25.51491 ( rapid move to begin. )
G01 F30.00000
G01 Z-0.10000
G04 P0 ( dwell for no time -- G64 should not smooth over this point )
G01 F360.00000
G01 X28.82080 Y25.51491
G01 X28.85016 Y25.30236
G01 X28.82080 Y25.51491
G01 X28.85267 Y25.74554
G01 X28.94228 Y25.96025
G01 X29.05328 Y26.10574
G01 X28.94228 Y25.96025
G04 P0 ( dwell for no time -- G64 should not smooth over this point )
G00 Z10.00000 ( retract )

G00 X29.26710 Y26.28809 ( rapid move to begin. )
G01 F30.00000
G01 Z-0.10000
G04 P0 ( dwell for no time -- G64 should not smooth over this point )
G01 F360.00000
G01 X29.26710 Y26.28809
G01 X29.05328 Y26.10574
G01 X29.10771 Y26.16772
G01 X29.26710 Y26.28809
G01 X29.48280 Y26.37587
G01 X29.71366 Y26.40569
G01 X30.01155 Y26.36728
G01 X30.20347 Y26.50178
G01 X30.36164 Y26.53187
G01 X33.78962 Y26.53187
G01 X33.89188 Y26.55171
G01 X33.91662 Y26.66378
G01 X33.91662 Y26.90000
G01 X33.93839 Y27.00520
G01 X34.04362 Y27.02700
G01 X35.54374 Y27.02700
G01 X35.64877 Y27.00528
G01 X35.67062 Y26.90000
G01 X35.67062 Y25.50653
G01 X35.72436 Y25.32535
G01 X35.63404 Y25.28001
G01 X35.54374 Y25.26492
G01 X34.04362 Y25.26492
G01 X33.90867 Y25.29865
G01 X33.77372 Y25.39985
G01 X33.65866 Y25.51491
G01 X31.35495 Y25.50409
G01 X31.17779 Y25.47402
G01 X30.96212 Y25.40452
G01 X30.78437 Y25.08326
G01 X30.60294 Y24.84356
G01 X30.19445 Y24.68819
G01 X30.37223 Y24.74392
G01 X30.60294 Y24.84356
G04 P0 ( dwell for no time -- G64 should not smooth over this point )
G00 Z10.00000 ( retract )

G00 X30.96212 Y25.40452 ( rapid move to begin. )
G01 F30.00000
G01 Z-0.10000
G04 P0 ( dwell for no time -- G64 should not smooth over this point )
G01 F360.00000
G01 X30.96212 Y25.40452
G01 X31.19829 Y25.48065
G01 X31.40466 Y25.51156
G01 X33.65866 Y25.51491
G04 P0 ( dwell for no time -- G64 should not smooth over this point )
G00 Z10.00000 ( retract )

G00 X35.72436 Y25.32535 ( rapid move to begin. )
G01 F30.00000
G01 Z-0.10000
G04 P0 ( dwell for no time -- G64 should not smooth over this point )
G01 F360.00000
G01 X35.72436 Y25.32535
G01 X35.89180 Y25.29479
G01 X36.00813 Y25.36467
G01 X36.49261 Y25.86380
G01 X36.45286 Y26.14991
G01 X36.48431 Y26.37757
G01 X36.57265 Y26.58938
G01 X36.71189 Y26.77170
G01 X36.89320 Y26.91272
G01 X37.08867 Y26.99222
G01 X36.89320 Y26.91272
G04 P0 ( dwell for no time -- G64 should not smooth over this point )
G00 Z10.00000 ( retract )

G00 X37.77397 Y26.91277 ( rapid move to begin. )
G01 F30.00000
G01 Z-0.10000
G04 P0 ( dwell for no time -- G64 should not smooth over this point )
G01 F360.00000
G01 X37.77397 Y26.91277
G01 X37.57778 Y26.99250
G01 X37.39157 Y27.02118
G01 X37.28923 Y27.02293
G01 X37.08867 Y26.99222
G01 X37.33366 Y27.02867
G01 X37.59230 Y26.98961
G01 X37.77397 Y26.91277
G01 X37.95542 Y26.77170
G01 X38.07018 Y26.62131
G01 X37.95542 Y26.77170
G04 P0 ( dwell for no time -- G64 should not smooth over this point )
G00 Z10.00000 ( retract )

G00 X38.21567 Y26.08649 ( rapid move to begin. )
G01 F30.00000
G01 Z-0.10000
G04 P0 ( dwell for no time -- G64 should not smooth over this point )
G01 F360.00000
G01 X38.21567 Y26.08649
G01 X38.18479 Y26.36182
G01 X38.13386 Y26.50693
G01 X38.07018 Y26.62131
G01 X38.12939 Y26.51877
G01 X38.18303 Y26.37749
G01 X38.21567 Y26.08649
G01 X38.25105 Y26.04267
G01 X43.16268 Y21.13110
G01 X43.22432 Y21.08500
G01 X43.38401 Y21.13290
G01 X43.56430 Y21.16247
G01 X43.76288 Y21.16247
G01 X43.94294 Y21.13293
G01 X44.20436 Y21.02660
G01 X44.42711 Y20.85350
G01 X44.59795 Y20.62942
G01 X44.70654 Y20.36933
G01 X44.74520 Y20.08995
G01 X44.71243 Y19.85330
G01 X44.59793 Y19.55035
G01 X44.42711 Y19.32645
G01 X44.20431 Y19.15320
G01 X43.96854 Y19.05742
G01 X44.20431 Y19.15320
G04 P0 ( dwell for no time -- G64 should not smooth over this point )
G00 Z10.00000 ( retract )

G00 X44.59793 Y19.55035 ( rapid move to begin. )
G01 F30.00000
G01 Z-0.10000
G04 P0 ( dwell for no time -- G64 should not smooth over this point )
G01 F360.00000
G01 X44.59793 Y19.55035
G01 X44.70651 Y19.81043
G01 X44.74520 Y20.08995
G04 P0 ( dwell for no time -- G64 should not smooth over this point )
G00 Z10.00000 ( retract )

G00 X43.66359 Y19.01099 ( rapid move to begin. )
G01 F30.00000
G01 Z-0.10000
G04 P0 ( dwell for no time -- G64 should not smooth over this point )
G01 F360.00000
G01 X43.66359 Y19.01099
G01 X43.96854 Y19.05742
G01 X43.66359 Y19.01099
G01 X43.38396 Y19.04708
G01 X43.12270 Y19.15325
G01 X42.95239 Y19.28002
G01 X42.80035 Y19.44632
G01 X42.72912 Y19.55041
G01 X42.62069 Y19.81035
G01 X42.58198 Y20.08995
G01 X42.61119 Y20.32747
G01 X42.66621 Y20.53349
G01 X42.62250 Y20.59092
G01 X37.87244 Y25.34097
G01 X37.80432 Y25.39055
G01 X37.56106 Y25.30053
G01 X37.41207 Y25.27630
G01 X37.25527 Y25.27630
G01 X37.04463 Y25.30721
G01 X36.34283 Y24.61892
G01 X36.20933 Y24.52822
G01 X36.05068 Y24.49797
G01 X35.62246 Y24.49797
G01 X35.54039 Y24.48519
G01 X35.37727 Y24.39645
G04 P0 ( dwell for no time -- G64 should not smooth over this point )
G00 Z10.00000 ( retract )

G00 X35.41154 Y24.27176 ( rapid move to begin. )
G01 F30.00000
G01 Z-0.10000
G04 P0 ( dwell for no time -- G64 should not smooth over this point )
G01 F360.00000
G01 X35.41154 Y24.27176
G01 X35.58080 Y23.98644
G01 X35.41154 Y24.27176
G01 X35.37727 Y24.39645
G01 X35.09061 Y24.46962
G01 X34.87204 Y24.49286
G01 X34.52962 Y24.47486
G01 X34.20989 Y24.39640
G04 P0 ( dwell for no time -- G64 should not smooth over this point )
G00 Z10.00000 ( retract )

G00 X34.17567 Y24.27183 ( rapid move to begin. )
G01 F30.00000
G01 Z-0.10000
G04 P0 ( dwell for no time -- G64 should not smooth over this point )
G01 F360.00000
G01 X34.17567 Y24.27183
G01 X33.99790 Y23.97879
G01 X33.93712 Y23.80579
G01 X33.91286 Y23.60994
G01 X33.93445 Y23.43536
G01 X33.91286 Y23.60994
G01 X33.93460 Y23.78555
G01 X33.99297 Y23.96376
G01 X34.17567 Y24.27183
G01 X34.20989 Y24.39640
G01 X34.04669 Y24.48519
G01 X33.96460 Y24.49797
G01 X31.65201 Y24.49274
G01 X31.42331 Y24.27138
G01 X31.36844 Y24.19256
G01 X31.31955 Y23.98083
G01 X31.07207 Y23.77831
G01 X30.84281 Y23.62365
G04 P0 ( dwell for no time -- G64 should not smooth over this point )
G00 Z10.00000 ( retract )

G00 X31.87266 Y23.80894 ( rapid move to begin. )
G01 F30.00000
G01 Z-0.10000
G04 P0 ( dwell for no time -- G64 should not smooth over this point )
G01 F360.00000
G01 X31.87266 Y23.80894
G01 X31.87268 Y24.07044
G01 X31.97758 Y24.05647
G01 X32.19399 Y23.96681
G01 X32.37967 Y23.82456
G01 X32.52216 Y23.63864
G01 X32.61182 Y23.42248
G01 X32.62554 Y23.31733
G01 X32.36732 Y23.31730
G01 X32.32577 Y23.44859
G01 X32.25940 Y23.56355
G01 X32.17057 Y23.66221
G01 X32.06318 Y23.74024
G01 X31.87266 Y23.80894
G04 P0 ( dwell for no time -- G64 should not smooth over this point )
G00 Z10.00000 ( retract )

G00 X31.87266 Y22.57168 ( rapid move to begin. )
G01 F30.00000
G01 Z-0.10000
G04 P0 ( dwell for no time -- G64 should not smooth over this point )
G01 F360.00000
G01 X31.87266 Y22.57168
G01 X32.06318 Y22.64039
G01 X32.17057 Y22.71842
G01 X32.25940 Y22.81707
G01 X32.32577 Y22.93203
G01 X32.36732 Y23.06333
G01 X32.62554 Y23.06333
G01 X32.61182 Y22.95842
G01 X32.52216 Y22.74202
G01 X32.37967 Y22.55634
G01 X32.19399 Y22.41385
G01 X31.97758 Y22.32419
G01 X31.87268 Y22.31047
G01 X31.87266 Y22.57168
G04 P0 ( dwell for no time -- G64 should not smooth over this point )
G00 Z10.00000 ( retract )

G00 X35.63424 Y18.88546 ( rapid move to begin. )
G01 F30.00000
G01 Z-0.10000
G04 P0 ( dwell for no time -- G64 should not smooth over this point )
G01 F360.00000
G01 X35.63424 Y18.88546
G01 X35.67031 Y18.54324
G01 X35.66208 Y18.35978
G01 X35.62977 Y18.15813
G01 X35.66208 Y18.45907
G01 X35.66208 Y18.62132
G01 X35.63424 Y18.88546
G01 X35.58479 Y19.07718
G01 X35.50958 Y19.28005
G01 X35.38014 Y19.53943
G01 X34.96163 Y19.80867
G01 X34.71525 Y19.90618
G01 X34.42980 Y20.05995
G01 X34.13003 Y20.28982
G01 X33.96115 Y20.46450
G04 P0 ( dwell for no time -- G64 should not smooth over this point )
G00 Z10.00000 ( retract )

G00 X33.65180 Y20.56305 ( rapid move to begin. )
G01 F30.00000
G01 Z-0.10000
G04 P0 ( dwell for no time -- G64 should not smooth over this point )
G01 F360.00000
G01 X33.65180 Y20.56305
G01 X32.93476 Y21.27486
G01 X32.83732 Y21.34870
G01 X32.74504 Y21.38982
G01 X32.65106 Y21.42587
G01 X32.51347 Y21.44446
G01 X32.67039 Y21.42312
G01 X32.84596 Y21.34486
G01 X32.95932 Y21.25553
G01 X33.65180 Y20.56305
G01 X33.74301 Y20.50293
G01 X33.96115 Y20.46450
G01 X33.98655 Y20.69447
G01 X33.93712 Y20.87402
G01 X33.91286 Y21.06991
G01 X33.94431 Y21.29757
G01 X34.03267 Y21.50943
G01 X34.17171 Y21.69163
G01 X34.35314 Y21.83272
G01 X34.56602 Y21.91929
G01 X34.79366 Y21.94867
G01 X34.97255 Y21.92556
G01 X34.79366 Y21.94867
G04 P0 ( dwell for no time -- G64 should not smooth over this point )
G00 Z10.00000 ( retract )

G00 X35.23397 Y21.83277 ( rapid move to begin. )
G01 F30.00000
G01 Z-0.10000
G04 P0 ( dwell for no time -- G64 should not smooth over this point )
G01 F360.00000
G01 X35.23397 Y21.83277
G01 X34.97255 Y21.92556
G01 X35.05230 Y21.90961
G01 X35.23397 Y21.83277
G01 X35.41542 Y21.69170
G01 X35.55454 Y21.50943
G01 X35.62419 Y21.34258
G01 X35.55454 Y21.50943
G04 P0 ( dwell for no time -- G64 should not smooth over this point )
G00 Z10.00000 ( retract )

G00 X35.63470 Y20.78383 ( rapid move to begin. )
G01 F30.00000
G01 Z-0.10000
G04 P0 ( dwell for no time -- G64 should not smooth over this point )
G01 F360.00000
G01 X35.63470 Y20.78383
G01 X35.67300 Y21.08177
G01 X35.62419 Y21.34258
G01 X35.65022 Y21.26579
G01 X35.67448 Y21.06991
G01 X35.63470 Y20.78383
G01 X36.30844 Y20.09529
G01 X36.39937 Y19.96156
G01 X36.41999 Y19.85328
G01 X36.39937 Y19.96156
G04 P0 ( dwell for no time -- G64 should not smooth over this point )
G00 Z10.00000 ( retract )

G00 X36.42962 Y19.34652 ( rapid move to begin. )
G01 F30.00000
G01 Z-0.10000
G04 P0 ( dwell for no time -- G64 should not smooth over this point )
G01 F360.00000
G01 X36.42962 Y19.34652
G01 X36.41999 Y19.85328
G01 X36.42962 Y19.34652
G01 X36.44237 Y19.26453
G01 X36.53180 Y19.10019
G01 X36.46889 Y18.80888
G01 X36.44422 Y18.57520
G01 X36.47750 Y18.89054
G01 X36.53180 Y19.10019
G01 X36.73493 Y19.17451
G01 X36.89314 Y19.29272
G01 X37.05509 Y19.36125
G01 X36.89314 Y19.29272
G04 P0 ( dwell for no time -- G64 should not smooth over this point )
G00 Z10.00000 ( retract )

G00 X36.45286 Y21.06991 ( rapid move to begin. )
G01 F30.00000
G01 Z-0.10000
G04 P0 ( dwell for no time -- G64 should not smooth over this point )
G01 F360.00000
G01 X36.45286 Y21.06991
G01 X36.47712 Y20.87402
G01 X36.52738 Y20.72549
G01 X36.57260 Y20.63067
G01 X36.71192 Y20.44812
G01 X36.89317 Y20.30707
G01 X37.04974 Y20.23948
G01 X37.33366 Y20.19115
G01 X37.61755 Y20.23951
G01 X37.77397 Y20.30707
G01 X37.95540 Y20.44812
G01 X38.09459 Y20.63062
G01 X38.13988 Y20.72551
G01 X38.19022 Y20.87402
G01 X38.21448 Y21.06991
G01 X38.19022 Y21.26579
G01 X38.13990 Y21.41431
G01 X38.09454 Y21.50943
G01 X37.95542 Y21.69170
G01 X37.77397 Y21.83277
G01 X37.61755 Y21.90031
G01 X37.33366 Y21.94867
G01 X37.04974 Y21.90034
G01 X36.89320 Y21.83272
G01 X36.71189 Y21.69170
G01 X36.57265 Y21.50938
G01 X36.52736 Y21.41433
G01 X36.47712 Y21.26579
G01 X36.45286 Y21.06991
G04 P0 ( dwell for no time -- G64 should not smooth over this point )
G00 Z10.00000 ( retract )

G00 X34.35314 Y22.84712 ( rapid move to begin. )
G01 F30.00000
G01 Z-0.10000
G04 P0 ( dwell for no time -- G64 should not smooth over this point )
G01 F360.00000
G01 X34.35314 Y22.84712
G01 X34.20562 Y22.96180
G01 X34.03262 Y23.17062
G01 X33.93445 Y23.43536
G01 X34.03262 Y23.17062
G01 X34.17174 Y22.98817
G01 X34.35314 Y22.84712
G01 X34.50974 Y22.77948
G01 X34.79366 Y22.73117
G01 X35.06084 Y22.77669
G01 X34.79366 Y22.73117
G04 P0 ( dwell for no time -- G64 should not smooth over this point )
G00 Z10.00000 ( retract )

G00 X35.23397 Y22.84707 ( rapid move to begin. )
G01 F30.00000
G01 Z-0.10000
G04 P0 ( dwell for no time -- G64 should not smooth over this point )
G01 F360.00000
G01 X35.23397 Y22.84707
G01 X35.06084 Y22.77669
G01 X35.23397 Y22.84707
G01 X35.41540 Y22.98812
G01 X35.55459 Y23.17062
G01 X35.65022 Y23.41402
G01 X35.55459 Y23.17062
G04 P0 ( dwell for no time -- G64 should not smooth over this point )
G00 Z10.00000 ( retract )

G00 X35.65022 Y23.41402 ( rapid move to begin. )
G01 F30.00000
G01 Z-0.10000
G04 P0 ( dwell for no time -- G64 should not smooth over this point )
G01 F360.00000
G01 X35.65022 Y23.41402
G01 X35.67448 Y23.60994
G01 X35.64547 Y23.81979
G01 X35.58080 Y23.98644
G01 X35.64303 Y23.83747
G01 X35.67448 Y23.60994
G04 P0 ( dwell for no time -- G64 should not smooth over this point )
G00 Z10.00000 ( retract )

G00 X36.33775 Y23.73693 ( rapid move to begin. )
G01 F30.00000
G01 Z-0.10000
G04 P0 ( dwell for no time -- G64 should not smooth over this point )
G01 F360.00000
G01 X36.33775 Y23.73693
G01 X36.59696 Y23.73693
G01 X36.64847 Y23.91499
G01 X36.72685 Y24.05080
G01 X36.83178 Y24.16734
G01 X36.95865 Y24.25949
G01 X37.10188 Y24.32327
G01 X37.20668 Y24.34554
G01 X37.20668 Y24.60587
G01 X37.07155 Y24.58809
G01 X36.82721 Y24.48700
G01 X36.61766 Y24.32596
G01 X36.45662 Y24.11616
G01 X36.35553 Y23.87206
G01 X36.33775 Y23.73693
G04 P0 ( dwell for no time -- G64 should not smooth over this point )
G00 Z10.00000 ( retract )

G00 X36.33775 Y23.48294 ( rapid move to begin. )
G01 F30.00000
G01 Z-0.10000
G04 P0 ( dwell for no time -- G64 should not smooth over this point )
G01 F360.00000
G01 X36.33775 Y23.48294
G01 X36.59696 Y23.48291
G01 X36.64847 Y23.30486
G01 X36.72685 Y23.16904
G01 X36.83178 Y23.05251
G01 X36.95865 Y22.96036
G01 X37.10188 Y22.89658
G01 X37.20668 Y22.87430
G01 X37.20668 Y22.61400
G01 X37.07155 Y22.63178
G01 X36.82721 Y22.73287
G01 X36.61766 Y22.89391
G01 X36.45662 Y23.10371
G01 X36.35553 Y23.34781
G01 X36.33775 Y23.48294
G04 P0 ( dwell for no time -- G64 should not smooth over this point )
G00 Z10.00000 ( retract )

G00 X37.46068 Y22.61400 ( rapid move to begin. )
G01 F30.00000
G01 Z-0.10000
G04 P0 ( dwell for no time -- G64 should not smooth over this point )
G01 F360.00000
G01 X37.46068 Y22.61400
G01 X37.59556 Y22.63178
G01 X37.83990 Y22.73287
G01 X38.04971 Y22.89391
G01 X38.21049 Y23.10371
G01 X38.31184 Y23.34781
G01 X38.32962 Y23.48294
G01 X38.07038 Y23.48291
G01 X38.01887 Y23.30486
G01 X37.94049 Y23.16904
G01 X37.83556 Y23.05251
G01 X37.70871 Y22.96036
G01 X37.56546 Y22.89658
G01 X37.46068 Y22.87430
G01 X37.46068 Y22.61400
G04 P0 ( dwell for no time -- G64 should not smooth over this point )
G00 Z10.00000 ( retract )

G00 X37.46068 Y24.34554 ( rapid move to begin. )
G01 F30.00000
G01 Z-0.10000
G04 P0 ( dwell for no time -- G64 should not smooth over this point )
G01 F360.00000
G01 X37.46068 Y24.34554
G01 X37.56546 Y24.32327
G01 X37.70871 Y24.25949
G01 X37.83556 Y24.16734
G01 X37.94049 Y24.05080
G01 X38.01887 Y23.91499
G01 X38.07038 Y23.73693
G01 X38.32962 Y23.73693
G01 X38.31184 Y23.87206
G01 X38.21049 Y24.11616
G01 X38.04971 Y24.32596
G01 X37.83990 Y24.48700
G01 X37.59556 Y24.58809
G01 X37.46068 Y24.60587
G01 X37.46068 Y24.34554
G04 P0 ( dwell for no time -- G64 should not smooth over this point )
G00 Z10.00000 ( retract )

G00 X39.93131 Y25.84003 ( rapid move to begin. )
G01 F30.00000
G01 Z-0.10000
G04 P0 ( dwell for no time -- G64 should not smooth over this point )
G01 F360.00000
G01 X39.93131 Y25.84003
G01 X39.96418 Y26.10879
G01 X40.03751 Y26.32674
G01 X40.16299 Y26.55044
G01 X40.29370 Y26.70983
G01 X40.54739 Y26.90713
G01 X40.77124 Y27.00368
G01 X41.02202 Y27.05849
G01 X41.16349 Y27.06916
G01 X41.30492 Y27.05852
G01 X41.55572 Y27.00373
G01 X41.77977 Y26.90708
G01 X42.03327 Y26.70983
G01 X42.16403 Y26.55047
G01 X42.28955 Y26.32680
G01 X42.36288 Y26.10884
G01 X42.39577 Y25.84003
G01 X42.36291 Y25.57122
G01 X42.28960 Y25.35326
G01 X42.16405 Y25.12957
G01 X42.03329 Y24.97023
G01 X41.77970 Y24.77280
G01 X41.55575 Y24.67623
G01 X41.30495 Y24.62144
G01 X41.16349 Y24.61077
G01 X41.02199 Y24.62144
G01 X40.77122 Y24.67628
G01 X40.54747 Y24.77275
G01 X40.29367 Y24.97023
G01 X40.16294 Y25.12959
G01 X40.03746 Y25.35329
G01 X39.96418 Y25.57125
G01 X39.93131 Y25.84003
G04 P0 ( dwell for no time -- G64 should not smooth over this point )
G00 Z10.00000 ( retract )

G00 X42.46601 Y24.46287 ( rapid move to begin. )
G01 F30.00000
G01 Z-0.10000
G04 P0 ( dwell for no time -- G64 should not smooth over this point )
G01 F360.00000
G01 X42.46601 Y24.46287
G01 X42.49064 Y24.27567
G01 X42.61180 Y23.98281
G01 X42.80484 Y23.73135
G01 X43.05630 Y23.53831
G01 X43.34916 Y23.41690
G01 X43.53662 Y23.39226
G01 X43.53662 Y23.65098
G01 X43.37004 Y23.68639
G01 X43.18864 Y23.76716
G01 X43.02796 Y23.88390
G01 X42.89506 Y24.03147
G01 X42.79577 Y24.20348
G01 X42.73441 Y24.39236
G01 X42.72699 Y24.46287
G01 X42.46601 Y24.46287
G04 P0 ( dwell for no time -- G64 should not smooth over this point )
G00 Z10.00000 ( retract )

G00 X43.79059 Y23.65098 ( rapid move to begin. )
G01 F30.00000
G01 Z-0.10000
G04 P0 ( dwell for no time -- G64 should not smooth over this point )
G01 F360.00000
G01 X43.79059 Y23.65098
G01 X43.79062 Y23.39226
G01 X43.97781 Y23.41690
G01 X44.27068 Y23.53831
G01 X44.52239 Y23.73135
G01 X44.71518 Y23.98281
G01 X44.83659 Y24.27567
G01 X44.86123 Y24.46287
G01 X44.60022 Y24.46287
G01 X44.59280 Y24.39236
G01 X44.53143 Y24.20348
G01 X44.43214 Y24.03147
G01 X44.29925 Y23.88390
G01 X44.13857 Y23.76716
G01 X43.95716 Y23.68639
G01 X43.79059 Y23.65098
G04 P0 ( dwell for no time -- G64 should not smooth over this point )
G00 Z10.00000 ( retract )

G00 X43.79059 Y25.52873 ( rapid move to begin. )
G01 F30.00000
G01 Z-0.10000
G04 P0 ( dwell for no time -- G64 should not smooth over this point )
G01 F360.00000
G01 X43.79059 Y25.52873
G01 X43.95716 Y25.49332
G01 X44.13857 Y25.41255
G01 X44.29925 Y25.29581
G01 X44.43214 Y25.14824
G01 X44.53143 Y24.97623
G01 X44.59280 Y24.78735
G01 X44.60022 Y24.71684
G01 X44.86123 Y24.71687
G01 X44.83659 Y24.90432
G01 X44.71518 Y25.19718
G01 X44.52239 Y25.44864
G01 X44.27068 Y25.64168
G01 X43.97781 Y25.76284
G01 X43.79062 Y25.78748
G01 X43.79059 Y25.52873
G04 P0 ( dwell for no time -- G64 should not smooth over this point )
G00 Z10.00000 ( retract )

G00 X42.46601 Y24.71687 ( rapid move to begin. )
G01 F30.00000
G01 Z-0.10000
G04 P0 ( dwell for no time -- G64 should not smooth over this point )
G01 F360.00000
G01 X42.46601 Y24.71687
G01 X42.72699 Y24.71684
G01 X42.73441 Y24.78735
G01 X42.79577 Y24.97623
G01 X42.89506 Y25.14824
G01 X43.02796 Y25.29581
G01 X43.18864 Y25.41255
G01 X43.37004 Y25.49332
G01 X43.53662 Y25.52873
G01 X43.53662 Y25.78748
G01 X43.34916 Y25.76284
G01 X43.05630 Y25.64168
G01 X42.80484 Y25.44864
G01 X42.61180 Y25.19718
G01 X42.49064 Y24.90432
G01 X42.46601 Y24.71687
G04 P0 ( dwell for no time -- G64 should not smooth over this point )
G00 Z10.00000 ( retract )

G00 X39.74668 Y22.03094 ( rapid move to begin. )
G01 F30.00000
G01 Z-0.10000
G04 P0 ( dwell for no time -- G64 should not smooth over this point )
G01 F360.00000
G01 X39.74668 Y22.03094
G01 X39.93718 Y21.96224
G01 X40.04457 Y21.88421
G01 X40.13340 Y21.78555
G01 X40.19977 Y21.67059
G01 X40.24132 Y21.53930
G01 X40.49954 Y21.53933
G01 X40.48557 Y21.64448
G01 X40.39616 Y21.86064
G01 X40.25367 Y22.04657
G01 X40.06799 Y22.18880
G01 X39.85158 Y22.27847
G01 X39.74668 Y22.29244
G01 X39.74668 Y22.03094
G04 P0 ( dwell for no time -- G64 should not smooth over this point )
G00 Z10.00000 ( retract )

G00 X38.73957 Y21.53933 ( rapid move to begin. )
G01 F30.00000
G01 Z-0.10000
G04 P0 ( dwell for no time -- G64 should not smooth over this point )
G01 F360.00000
G01 X38.73957 Y21.53933
G01 X38.99802 Y21.53930
G01 X39.03957 Y21.67059
G01 X39.10594 Y21.78555
G01 X39.19477 Y21.88421
G01 X39.30218 Y21.96224
G01 X39.49266 Y22.03094
G01 X39.49268 Y22.29244
G01 X39.38753 Y22.27847
G01 X39.17137 Y22.18880
G01 X38.98544 Y22.04657
G01 X38.84295 Y21.86064
G01 X38.75354 Y21.64448
G01 X38.73957 Y21.53933
G04 P0 ( dwell for no time -- G64 should not smooth over this point )
G00 Z10.00000 ( retract )

G00 X38.73957 Y21.28533 ( rapid move to begin. )
G01 F30.00000
G01 Z-0.10000
G04 P0 ( dwell for no time -- G64 should not smooth over this point )
G01 F360.00000
G01 X38.73957 Y21.28533
G01 X38.99802 Y21.28533
G01 X39.03957 Y21.15403
G01 X39.10594 Y21.03907
G01 X39.19477 Y20.94042
G01 X39.30218 Y20.86239
G01 X39.49266 Y20.79368
G01 X39.49268 Y20.53247
G01 X39.38753 Y20.54619
G01 X39.17137 Y20.63585
G01 X38.98544 Y20.77834
G01 X38.84295 Y20.96402
G01 X38.75354 Y21.18042
G01 X38.73957 Y21.28533
G04 P0 ( dwell for no time -- G64 should not smooth over this point )
G00 Z10.00000 ( retract )

G00 X39.74668 Y20.53247 ( rapid move to begin. )
G01 F30.00000
G01 Z-0.10000
G04 P0 ( dwell for no time -- G64 should not smooth over this point )
G01 F360.00000
G01 X39.74668 Y20.53247
G01 X39.85158 Y20.54619
G01 X40.06799 Y20.63585
G01 X40.25367 Y20.77834
G01 X40.39616 Y20.96402
G01 X40.48557 Y21.18042
G01 X40.49954 Y21.28533
G01 X40.24132 Y21.28533
G01 X40.19977 Y21.15403
G01 X40.13340 Y21.03907
G01 X40.04457 Y20.94042
G01 X39.93718 Y20.86239
G01 X39.74668 Y20.79368
G01 X39.74668 Y20.53247
G04 P0 ( dwell for no time -- G64 should not smooth over this point )
G00 Z10.00000 ( retract )

G00 X39.93131 Y18.83981 ( rapid move to begin. )
G01 F30.00000
G01 Z-0.10000
G04 P0 ( dwell for no time -- G64 should not smooth over this point )
G01 F360.00000
G01 X39.93131 Y18.83981
G01 X39.96418 Y18.57103
G01 X40.03751 Y18.35307
G01 X40.16301 Y18.12940
G01 X40.29362 Y17.97020
G01 X40.54742 Y17.77268
G01 X40.77124 Y17.67614
G01 X41.02202 Y17.62133
G01 X41.16349 Y17.61066
G01 X41.30492 Y17.62133
G01 X41.55570 Y17.67609
G01 X41.77975 Y17.77274
G01 X42.03334 Y17.97020
G01 X42.16400 Y18.12938
G01 X42.28955 Y18.35302
G01 X42.36288 Y18.57098
G01 X42.39577 Y18.83981
G01 X42.36291 Y19.10860
G01 X42.28960 Y19.32658
G01 X42.16405 Y19.55025
G01 X42.03327 Y19.70959
G01 X41.77970 Y19.90702
G01 X41.55575 Y20.00357
G01 X41.30495 Y20.05838
G01 X41.16349 Y20.06905
G01 X41.02199 Y20.05838
G01 X40.77119 Y20.00354
G01 X40.54747 Y19.90707
G01 X40.29370 Y19.70961
G01 X40.16294 Y19.55023
G01 X40.03746 Y19.32653
G01 X39.96416 Y19.10857
G01 X39.93131 Y18.83981
G04 P0 ( dwell for no time -- G64 should not smooth over this point )
G00 Z10.00000 ( retract )

G00 X43.79059 Y15.36873 ( rapid move to begin. )
G01 F30.00000
G01 Z-0.10000
G04 P0 ( dwell for no time -- G64 should not smooth over this point )
G01 F360.00000
G01 X43.79059 Y15.36873
G01 X43.95716 Y15.33332
G01 X44.13857 Y15.25255
G01 X44.29925 Y15.13581
G01 X44.43214 Y14.98824
G01 X44.53143 Y14.81623
G01 X44.59280 Y14.62735
G01 X44.60022 Y14.55684
G01 X44.86123 Y14.55687
G01 X44.83659 Y14.74432
G01 X44.71518 Y15.03718
G01 X44.52239 Y15.28864
G01 X44.27068 Y15.48168
G01 X43.97781 Y15.60284
G01 X43.79062 Y15.62748
G01 X43.79059 Y15.36873
G04 P0 ( dwell for no time -- G64 should not smooth over this point )
G00 Z10.00000 ( retract )

G00 X43.79059 Y13.49098 ( rapid move to begin. )
G01 F30.00000
G01 Z-0.10000
G04 P0 ( dwell for no time -- G64 should not smooth over this point )
G01 F360.00000
G01 X43.79059 Y13.49098
G01 X43.95716 Y13.52639
G01 X44.13857 Y13.60714
G01 X44.29925 Y13.72390
G01 X44.43214 Y13.87147
G01 X44.53143 Y14.04348
G01 X44.59280 Y14.23236
G01 X44.60022 Y14.30284
G01 X44.86123 Y14.30287
G01 X44.83659 Y14.11567
G01 X44.71518 Y13.82281
G01 X44.52239 Y13.57109
G01 X44.27068 Y13.37831
G01 X43.97781 Y13.25689
G01 X43.79062 Y13.23226
G01 X43.79059 Y13.49098
G04 P0 ( dwell for no time -- G64 should not smooth over this point )
G00 Z10.00000 ( retract )

G00 X42.46601 Y14.55687 ( rapid move to begin. )
G01 F30.00000
G01 Z-0.10000
G04 P0 ( dwell for no time -- G64 should not smooth over this point )
G01 F360.00000
G01 X42.46601 Y14.55687
G01 X42.72699 Y14.55684
G01 X42.73441 Y14.62735
G01 X42.79577 Y14.81623
G01 X42.89506 Y14.98824
G01 X43.02796 Y15.13581
G01 X43.18864 Y15.25255
G01 X43.37004 Y15.33332
G01 X43.53662 Y15.36873
G01 X43.53662 Y15.62748
G01 X43.34916 Y15.60284
G01 X43.05630 Y15.48168
G01 X42.80484 Y15.28864
G01 X42.61180 Y15.03718
G01 X42.49064 Y14.74432
G01 X42.46601 Y14.55687
G04 P0 ( dwell for no time -- G64 should not smooth over this point )
G00 Z10.00000 ( retract )

G00 X42.46601 Y14.30287 ( rapid move to begin. )
G01 F30.00000
G01 Z-0.10000
G04 P0 ( dwell for no time -- G64 should not smooth over this point )
G01 F360.00000
G01 X42.46601 Y14.30287
G01 X42.72699 Y14.30284
G01 X42.73441 Y14.23236
G01 X42.79577 Y14.04348
G01 X42.89506 Y13.87147
G01 X43.02796 Y13.72390
G01 X43.18864 Y13.60714
G01 X43.37004 Y13.52639
G01 X43.53662 Y13.49098
G01 X43.53662 Y13.23226
G01 X43.34916 Y13.25689
G01 X43.05630 Y13.37831
G01 X42.80484 Y13.57109
G01 X42.61180 Y13.82281
G01 X42.49064 Y14.11567
G01 X42.46601 Y14.30287
G04 P0 ( dwell for no time -- G64 should not smooth over this point )
G00 Z10.00000 ( retract )

G00 X39.93131 Y15.68003 ( rapid move to begin. )
G01 F30.00000
G01 Z-0.10000
G04 P0 ( dwell for no time -- G64 should not smooth over this point )
G01 F360.00000
G01 X39.93131 Y15.68003
G01 X39.96418 Y15.94879
G01 X40.03751 Y16.16674
G01 X40.16299 Y16.39044
G01 X40.29370 Y16.54983
G01 X40.54739 Y16.74713
G01 X40.77124 Y16.84368
G01 X41.02202 Y16.89849
G01 X41.16349 Y16.90916
G01 X41.30492 Y16.89852
G01 X41.55572 Y16.84373
G01 X41.77977 Y16.74708
G01 X42.03327 Y16.54983
G01 X42.16403 Y16.39047
G01 X42.28955 Y16.16680
G01 X42.36288 Y15.94884
G01 X42.39577 Y15.68003
G01 X42.36291 Y15.41122
G01 X42.28960 Y15.19326
G01 X42.16405 Y14.96957
G01 X42.03329 Y14.81023
G01 X41.77970 Y14.61280
G01 X41.55575 Y14.51623
G01 X41.30495 Y14.46144
G01 X41.16349 Y14.45077
G01 X41.02199 Y14.46144
G01 X40.77122 Y14.51628
G01 X40.54747 Y14.61275
G01 X40.29367 Y14.81023
G01 X40.16294 Y14.96959
G01 X40.03746 Y15.19329
G01 X39.96418 Y15.41125
G01 X39.93131 Y15.68003
G04 P0 ( dwell for no time -- G64 should not smooth over this point )
G00 Z10.00000 ( retract )

G00 X39.74668 Y13.39494 ( rapid move to begin. )
G01 F30.00000
G01 Z-0.10000
G04 P0 ( dwell for no time -- G64 should not smooth over this point )
G01 F360.00000
G01 X39.74668 Y13.39494
G01 X39.93718 Y13.32624
G01 X40.04457 Y13.24821
G01 X40.13340 Y13.14955
G01 X40.19977 Y13.03459
G01 X40.24132 Y12.90330
G01 X40.49954 Y12.90333
G01 X40.48557 Y13.00848
G01 X40.39616 Y13.22464
G01 X40.25367 Y13.41057
G01 X40.06799 Y13.55280
G01 X39.85158 Y13.64244
G01 X39.74668 Y13.65644
G01 X39.74668 Y13.39494
G04 P0 ( dwell for no time -- G64 should not smooth over this point )
G00 Z10.00000 ( retract )

G00 X38.73957 Y12.90333 ( rapid move to begin. )
G01 F30.00000
G01 Z-0.10000
G04 P0 ( dwell for no time -- G64 should not smooth over this point )
G01 F360.00000
G01 X38.73957 Y12.90333
G01 X38.99802 Y12.90330
G01 X39.03957 Y13.03459
G01 X39.10594 Y13.14955
G01 X39.19477 Y13.24821
G01 X39.30218 Y13.32624
G01 X39.49266 Y13.39494
G01 X39.49268 Y13.65644
G01 X39.38753 Y13.64244
G01 X39.17137 Y13.55280
G01 X38.98544 Y13.41057
G01 X38.84295 Y13.22464
G01 X38.75354 Y13.00848
G01 X38.73957 Y12.90333
G04 P0 ( dwell for no time -- G64 should not smooth over this point )
G00 Z10.00000 ( retract )

G00 X38.73957 Y12.64933 ( rapid move to begin. )
G01 F30.00000
G01 Z-0.10000
G04 P0 ( dwell for no time -- G64 should not smooth over this point )
G01 F360.00000
G01 X38.73957 Y12.64933
G01 X38.99802 Y12.64933
G01 X39.03957 Y12.51803
G01 X39.10594 Y12.40307
G01 X39.19477 Y12.30442
G01 X39.30218 Y12.22639
G01 X39.49266 Y12.15768
G01 X39.49268 Y11.89647
G01 X39.38753 Y11.91019
G01 X39.17137 Y11.99985
G01 X38.98544 Y12.14234
G01 X38.84295 Y12.32802
G01 X38.75354 Y12.54443
G01 X38.73957 Y12.64933
G04 P0 ( dwell for no time -- G64 should not smooth over this point )
G00 Z10.00000 ( retract )

G00 X39.74668 Y11.89647 ( rapid move to begin. )
G01 F30.00000
G01 Z-0.10000
G04 P0 ( dwell for no time -- G64 should not smooth over this point )
G01 F360.00000
G01 X39.74668 Y11.89647
G01 X39.85158 Y11.91019
G01 X40.06799 Y11.99985
G01 X40.25367 Y12.14234
G01 X40.39616 Y12.32802
G01 X40.48557 Y12.54443
G01 X40.49954 Y12.64933
G01 X40.24132 Y12.64933
G01 X40.19977 Y12.51803
G01 X40.13340 Y12.40307
G01 X40.04457 Y12.30442
G01 X39.93718 Y12.22639
G01 X39.74668 Y12.15768
G01 X39.74668 Y11.89647
G04 P0 ( dwell for no time -- G64 should not smooth over this point )
G00 Z10.00000 ( retract )

G00 X39.93131 Y8.68004 ( rapid move to begin. )
G01 F30.00000
G01 Z-0.10000
G04 P0 ( dwell for no time -- G64 should not smooth over this point )
G01 F360.00000
G01 X39.93131 Y8.68004
G01 X39.96418 Y8.94880
G01 X40.03751 Y9.16676
G01 X40.16301 Y9.39043
G01 X40.29362 Y9.54966
G01 X40.54742 Y9.74717
G01 X40.79662 Y9.85304
G01 X41.01993 Y9.90839
G01 X41.16362 Y10.00422
G01 X41.30703 Y9.90849
G01 X41.53035 Y9.85312
G01 X41.77975 Y9.74712
G01 X42.03334 Y9.54966
G01 X42.16400 Y9.39048
G01 X42.28955 Y9.16681
G01 X42.36288 Y8.94885
G01 X42.39577 Y8.68004
G01 X42.36291 Y8.41124
G01 X42.28960 Y8.19328
G01 X42.16408 Y7.96955
G01 X42.03322 Y7.81007
G01 X41.77972 Y7.61284
G01 X41.55575 Y7.51624
G01 X41.30495 Y7.46145
G01 X41.16349 Y7.45079
G01 X41.02199 Y7.46145
G01 X40.77122 Y7.51629
G01 X40.54744 Y7.61279
G01 X40.29375 Y7.81007
G01 X40.16291 Y7.96961
G01 X40.03746 Y8.19330
G01 X39.96418 Y8.41126
G01 X39.93131 Y8.68004
G04 P0 ( dwell for no time -- G64 should not smooth over this point )
G00 Z10.00000 ( retract )

G00 X37.77397 Y7.60707 ( rapid move to begin. )
G01 F30.00000
G01 Z-0.10000
G04 P0 ( dwell for no time -- G64 should not smooth over this point )
G01 F360.00000
G01 X37.77397 Y7.60707
G01 X37.56106 Y7.52051
G01 X37.41207 Y7.49630
G01 X37.25527 Y7.49630
G01 X37.05522 Y7.53854
G01 X37.30348 Y7.49630
G01 X37.60084 Y7.53669
G01 X37.77397 Y7.60707
G01 X37.95540 Y7.74812
G01 X38.09459 Y7.93059
G01 X38.18306 Y8.14238
G01 X38.21448 Y8.36986
G01 X38.17457 Y8.65604
G01 X38.21966 Y8.71583
G01 X39.78001 Y10.26874
G01 X40.92550 Y10.27394
G01 X41.04455 Y10.24707
G01 X41.16362 Y10.16645
G01 X41.28267 Y10.24707
G01 X41.40172 Y10.27394
G01 X42.38092 Y10.27394
G01 X42.50058 Y10.24679
G01 X42.56545 Y10.21738
G01 X42.58252 Y10.14346
G01 X42.59339 Y10.02972
G01 X42.58198 Y9.93005
G01 X42.62069 Y9.65035
G01 X42.72912 Y9.39041
G01 X42.80035 Y9.28632
G01 X42.93161 Y9.13729
G01 X43.12270 Y8.99325
G01 X43.38396 Y8.88708
G01 X43.56428 Y8.85751
G01 X43.76288 Y8.85751
G01 X43.98409 Y8.89980
G01 X44.20431 Y8.99320
G01 X44.39554 Y9.13729
G01 X44.54276 Y9.30773
G01 X44.64202 Y9.47976
G01 X44.70651 Y9.65043
G01 X44.74520 Y9.92998
G01 X44.70654 Y10.20933
G01 X44.59795 Y10.46942
G01 X44.39554 Y10.72266
G01 X44.20436 Y10.86660
G01 X43.94294 Y10.97293
G01 X43.76288 Y11.00247
G01 X43.56430 Y11.00247
G01 X43.38409 Y10.97290
G01 X43.22348 Y10.92058
G01 X43.08330 Y11.00762
G01 X42.92468 Y11.03787
G01 X39.60691 Y11.03503
G01 X39.47376 Y11.00757
G01 X39.34031 Y10.91687
G01 X37.62266 Y9.21266
G01 X37.33366 Y9.24867
G01 X37.10602 Y9.21929
G01 X36.89320 Y9.13272
G01 X36.60356 Y8.91995
G01 X36.48682 Y8.99023
G01 X35.51768 Y9.95464
G01 X35.31718 Y10.09500
G04 P0 ( dwell for no time -- G64 should not smooth over this point )
G00 Z10.00000 ( retract )

G00 X36.89317 Y7.60710 ( rapid move to begin. )
G01 F30.00000
G01 Z-0.10000
G04 P0 ( dwell for no time -- G64 should not smooth over this point )
G01 F360.00000
G01 X36.89317 Y7.60710
G01 X37.05522 Y7.53854
G01 X36.89317 Y7.60710
G01 X36.75647 Y7.70882
G01 X36.63226 Y7.84388
G01 X36.53638 Y7.98548
G01 X36.42119 Y8.01827
G01 X36.30803 Y8.09285
G01 X36.00503 Y8.39180
G01 X35.93800 Y8.44080
G01 X35.76350 Y8.49259
G01 X35.63160 Y8.72460
G01 X35.49830 Y8.89889
G01 X35.37092 Y9.03107
G01 X35.14181 Y9.21040
G01 X34.89917 Y9.24344
G01 X34.68814 Y9.24344
G01 X34.50008 Y9.22198
G01 X34.19432 Y9.14250
G01 X34.03450 Y9.22919
G01 X33.95241 Y9.24197
G01 X33.29864 Y9.24197
G01 X33.15233 Y9.26879
G01 X33.00631 Y9.36297
G01 X32.47814 Y9.88367
G01 X33.01139 Y9.35967
G01 X33.15165 Y9.26922
G01 X33.29864 Y9.24197
G04 P0 ( dwell for no time -- G64 should not smooth over this point )
G00 Z10.00000 ( retract )

G00 X33.79775 Y8.24293 ( rapid move to begin. )
G01 F30.00000
G01 Z-0.10000
G04 P0 ( dwell for no time -- G64 should not smooth over this point )
G01 F360.00000
G01 X33.79775 Y8.24293
G01 X33.81553 Y8.10781
G01 X33.91662 Y7.86371
G01 X34.07740 Y7.65391
G01 X34.28721 Y7.49287
G01 X34.53155 Y7.39178
G01 X34.66668 Y7.37400
G01 X34.66666 Y7.63430
G01 X34.56188 Y7.65658
G01 X34.41865 Y7.72036
G01 X34.29178 Y7.81251
G01 X34.18685 Y7.92902
G01 X34.10847 Y8.06486
G01 X34.05695 Y8.24291
G01 X33.79775 Y8.24293
G04 P0 ( dwell for no time -- G64 should not smooth over this point )
G00 Z10.00000 ( retract )

G00 X30.72968 Y9.88891 ( rapid move to begin. )
G01 F30.00000
G01 Z-0.10000
G04 P0 ( dwell for no time -- G64 should not smooth over this point )
G01 F360.00000
G01 X30.72968 Y9.88891
G01 X32.47814 Y9.88367
G01 X30.72968 Y9.88891
G01 X30.60649 Y9.86013
G04 P0 ( dwell for no time -- G64 should not smooth over this point )
G00 Z10.00000 ( retract )

G00 X30.55442 Y10.65281 ( rapid move to begin. )
G01 F30.00000
G01 Z-0.10000
G04 P0 ( dwell for no time -- G64 should not smooth over this point )
G01 F360.00000
G01 X30.55442 Y10.65281
G01 X30.47233 Y10.66559
G01 X30.31012 Y10.75375
G01 X29.94914 Y10.67054
G01 X29.71366 Y10.65817
G01 X29.43476 Y10.67516
G01 X29.11704 Y10.75380
G01 X29.05155 Y10.93041
G01 X28.99509 Y11.02698
G01 X29.08562 Y10.87222
G01 X29.11704 Y10.75380
G01 X29.41457 Y10.67732
G01 X29.79331 Y10.65400
G01 X30.01274 Y10.67732
G01 X30.31012 Y10.75375
G01 X30.34160 Y10.87232
G01 X30.48511 Y11.09967
G01 X30.57461 Y11.31425
G01 X30.60642 Y11.54493
G01 X30.56463 Y11.84031
G01 X30.61051 Y11.90158
G01 X33.03303 Y14.31674
G01 X33.95241 Y14.32197
G01 X34.03443 Y14.30922
G01 X34.19437 Y14.22253
G01 X34.16874 Y14.11811
G01 X34.11052 Y13.99809
G01 X34.03267 Y13.88943
G01 X33.94431 Y13.67757
G01 X33.91771 Y13.41062
G01 X33.94431 Y13.67757
G04 P0 ( dwell for no time -- G64 should not smooth over this point )
G00 Z10.00000 ( retract )

G00 X34.03262 Y13.01062 ( rapid move to begin. )
G01 F30.00000
G01 Z-0.10000
G04 P0 ( dwell for no time -- G64 should not smooth over this point )
G01 F360.00000
G01 X34.03262 Y13.01062
G01 X33.94172 Y13.24038
G01 X33.91771 Y13.41062
G01 X33.94428 Y13.22230
G01 X33.98738 Y13.10549
G01 X34.03262 Y13.01062
G01 X34.17174 Y12.82817
G01 X34.35314 Y12.68712
G01 X34.52640 Y12.61664
G01 X34.35314 Y12.68712
G04 P0 ( dwell for no time -- G64 should not smooth over this point )
G00 Z10.00000 ( retract )

G00 X34.79366 Y11.78867 ( rapid move to begin. )
G01 F30.00000
G01 Z-0.10000
G04 P0 ( dwell for no time -- G64 should not smooth over this point )
G01 F360.00000
G01 X34.79366 Y11.78867
G01 X35.06076 Y11.74316
G01 X34.79366 Y11.78867
G01 X34.50974 Y11.74034
G01 X34.35314 Y11.67272
G01 X34.17171 Y11.53163
G01 X34.03267 Y11.34943
G01 X33.93712 Y11.10579
G01 X33.91286 Y10.90994
G01 X33.93445 Y11.08443
G01 X34.03267 Y11.34943
G01 X34.20555 Y11.55794
G01 X34.35314 Y11.67272
G04 P0 ( dwell for no time -- G64 should not smooth over this point )
G00 Z10.00000 ( retract )

G00 X33.44598 Y10.01111 ( rapid move to begin. )
G01 F30.00000
G01 Z-0.10000
G04 P0 ( dwell for no time -- G64 should not smooth over this point )
G01 F360.00000
G01 X33.44598 Y10.01111
G01 X32.91238 Y10.53546
G01 X32.78439 Y10.62248
G01 X32.67766 Y10.64285
G01 X30.55442 Y10.65281
G01 X32.69978 Y10.64275
G01 X32.78439 Y10.62248
G01 X32.91784 Y10.53178
G01 X33.44598 Y10.01111
G01 X33.97707 Y10.00587
G01 X34.05914 Y10.01865
G01 X34.22561 Y10.10948
G01 X34.18152 Y10.25324
G01 X33.99539 Y10.54870
G01 X33.93460 Y10.73424
G01 X33.91286 Y10.90994
G01 X33.93712 Y10.71402
G01 X33.98738 Y10.56549
G01 X34.03260 Y10.47064
G01 X34.18152 Y10.25324
G04 P0 ( dwell for no time -- G64 should not smooth over this point )
G00 Z10.00000 ( retract )

G00 X34.22561 Y10.10948 ( rapid move to begin. )
G01 F30.00000
G01 Z-0.10000
G04 P0 ( dwell for no time -- G64 should not smooth over this point )
G01 F360.00000
G01 X34.22561 Y10.10948
G01 X34.49330 Y10.04255
G01 X34.71527 Y10.01898
G01 X35.05937 Y10.03706
G01 X35.31718 Y10.09500
G01 X35.37923 Y10.23729
G01 X35.52911 Y10.43671
G01 X35.37923 Y10.23729
G04 P0 ( dwell for no time -- G64 should not smooth over this point )
G00 Z10.00000 ( retract )

G00 X35.64306 Y10.68235 ( rapid move to begin. )
G01 F30.00000
G01 Z-0.10000
G04 P0 ( dwell for no time -- G64 should not smooth over this point )
G01 F360.00000
G01 X35.64306 Y10.68235
G01 X35.52911 Y10.43671
G01 X35.58936 Y10.54108
G01 X35.64306 Y10.68235
G01 X35.67448 Y10.90994
G01 X35.65022 Y11.10579
G04 P0 ( dwell for no time -- G64 should not smooth over this point )
G00 Z10.00000 ( retract )

G00 X36.45286 Y10.90994 ( rapid move to begin. )
G01 F30.00000
G01 Z-0.10000
G04 P0 ( dwell for no time -- G64 should not smooth over this point )
G01 F360.00000
G01 X36.45286 Y10.90994
G01 X36.47712 Y10.71402
G01 X36.52738 Y10.56549
G01 X36.57260 Y10.47064
G01 X36.71192 Y10.28809
G01 X36.89317 Y10.14710
G01 X37.04974 Y10.07948
G01 X37.33366 Y10.03117
G01 X37.61755 Y10.07953
G01 X37.77397 Y10.14707
G01 X37.95540 Y10.28809
G01 X38.09459 Y10.47059
G01 X38.13988 Y10.56551
G01 X38.19022 Y10.71402
G01 X38.21448 Y10.90994
G01 X38.19022 Y11.10579
G01 X38.13990 Y11.25431
G01 X38.09454 Y11.34943
G01 X37.95542 Y11.53170
G01 X37.77397 Y11.67277
G01 X37.61755 Y11.74031
G01 X37.33366 Y11.78867
G01 X37.04974 Y11.74034
G01 X36.89320 Y11.67272
G01 X36.71189 Y11.53170
G01 X36.57265 Y11.34938
G01 X36.52736 Y11.25433
G01 X36.47712 Y11.10579
G01 X36.45286 Y10.90994
G04 P0 ( dwell for no time -- G64 should not smooth over this point )
G00 Z10.00000 ( retract )

G00 X35.55454 Y11.34943 ( rapid move to begin. )
G01 F30.00000
G01 Z-0.10000
G04 P0 ( dwell for no time -- G64 should not smooth over this point )
G01 F360.00000
G01 X35.55454 Y11.34943
G01 X35.65022 Y11.10579
G01 X35.55454 Y11.34943
G01 X35.41542 Y11.53170
G01 X35.23397 Y11.67277
G01 X35.06076 Y11.74316
G01 X35.23397 Y11.67277
G04 P0 ( dwell for no time -- G64 should not smooth over this point )
G00 Z10.00000 ( retract )

G00 X35.23397 Y12.68707 ( rapid move to begin. )
G01 F30.00000
G01 Z-0.10000
G04 P0 ( dwell for no time -- G64 should not smooth over this point )
G01 F360.00000
G01 X35.23397 Y12.68707
G01 X35.05230 Y12.61021
G01 X34.89853 Y12.57945
G01 X34.79366 Y12.57117
G01 X34.52640 Y12.61664
G01 X34.79366 Y12.57117
G01 X35.07217 Y12.61859
G01 X35.23397 Y12.68707
G01 X35.41540 Y12.82812
G01 X35.55459 Y13.01062
G01 X35.65022 Y13.25402
G01 X35.67448 Y13.44993
G01 X35.65022 Y13.64579
G01 X35.55454 Y13.88943
G01 X35.40793 Y14.10851
G01 X35.36871 Y14.23038
G01 X35.08720 Y14.30200
G01 X34.87207 Y14.32486
G01 X34.53133 Y14.30696
G01 X34.19437 Y14.22253
G04 P0 ( dwell for no time -- G64 should not smooth over this point )
G00 Z10.00000 ( retract )

G00 X35.36871 Y14.23038 ( rapid move to begin. )
G01 F30.00000
G01 Z-0.10000
G04 P0 ( dwell for no time -- G64 should not smooth over this point )
G01 F360.00000
G01 X35.36871 Y14.23038
G01 X35.51316 Y14.32268
G01 X35.60780 Y14.35844
G01 X35.73036 Y14.44297
G01 X36.30854 Y15.02115
G01 X36.39939 Y15.15476
G01 X36.30854 Y15.02115
G04 P0 ( dwell for no time -- G64 should not smooth over this point )
G00 Z10.00000 ( retract )

G00 X36.39939 Y15.15476 ( rapid move to begin. )
G01 F30.00000
G01 Z-0.10000
G04 P0 ( dwell for no time -- G64 should not smooth over this point )
G01 F360.00000
G01 X36.39939 Y15.15476
G01 X36.44141 Y15.30030
G01 X36.52703 Y15.43655
G01 X36.47750 Y15.62928
G01 X36.44105 Y15.97495
G01 X36.45266 Y16.19374
G01 X36.53180 Y16.56019
G01 X36.44237 Y16.72453
G01 X36.42962 Y16.80654
G01 X36.42962 Y17.71333
G01 X36.44237 Y17.79532
G01 X36.53178 Y17.95965
G01 X36.46889 Y18.25087
G01 X36.44422 Y18.57520
G01 X36.45266 Y18.32607
G01 X36.53178 Y17.95965
G01 X36.73493 Y17.88531
G01 X36.89314 Y17.76712
G01 X37.07501 Y17.69019
G01 X37.33366 Y17.65117
G01 X37.61755 Y17.69953
G01 X37.77397 Y17.76707
G01 X37.95540 Y17.90812
G01 X38.09459 Y18.09062
G01 X38.18306 Y18.30238
G01 X38.21448 Y18.52991
G01 X38.18547 Y18.73979
G01 X38.12276 Y18.91015
G01 X37.95540 Y19.15173
G01 X37.78286 Y19.28584
G01 X37.61085 Y19.36143
G01 X37.29899 Y19.40276
G01 X37.05509 Y19.36125
G01 X37.33366 Y19.40867
G01 X37.61755 Y19.36031
G01 X37.77397 Y19.29277
G01 X37.95540 Y19.15173
G01 X38.09459 Y18.96923
G01 X38.19022 Y18.72579
G01 X38.21448 Y18.52991
G01 X38.18550 Y18.32011
G01 X38.09459 Y18.09062
G01 X37.94130 Y17.89714
G01 X37.77397 Y17.76707
G01 X37.60084 Y17.69669
G01 X37.33366 Y17.65117
G01 X37.05502 Y17.69857
G01 X36.90445 Y17.76222
G01 X36.73493 Y17.88531
G04 P0 ( dwell for no time -- G64 should not smooth over this point )
G00 Z10.00000 ( retract )

G00 X37.46068 Y16.72554 ( rapid move to begin. )
G01 F30.00000
G01 Z-0.10000
G04 P0 ( dwell for no time -- G64 should not smooth over this point )
G01 F360.00000
G01 X37.46068 Y16.72554
G01 X37.46068 Y16.98587
G01 X37.59556 Y16.96809
G01 X37.83990 Y16.86700
G01 X38.04971 Y16.70596
G01 X38.21049 Y16.49641
G01 X38.31184 Y16.25206
G01 X38.32962 Y16.11693
G01 X38.07038 Y16.11693
G01 X38.01887 Y16.29499
G01 X37.94049 Y16.43080
G01 X37.83556 Y16.54734
G01 X37.70871 Y16.63949
G01 X37.56546 Y16.70327
G01 X37.46068 Y16.72554
G04 P0 ( dwell for no time -- G64 should not smooth over this point )
G00 Z10.00000 ( retract )

G00 X37.46068 Y14.99400 ( rapid move to begin. )
G01 F30.00000
G01 Z-0.10000
G04 P0 ( dwell for no time -- G64 should not smooth over this point )
G01 F360.00000
G01 X37.46068 Y14.99400
G01 X37.46068 Y15.25430
G01 X37.56546 Y15.27658
G01 X37.70871 Y15.34036
G01 X37.83556 Y15.43251
G01 X37.94049 Y15.54904
G01 X38.01887 Y15.68486
G01 X38.07038 Y15.86293
G01 X38.32962 Y15.86293
G01 X38.31184 Y15.72781
G01 X38.21049 Y15.48371
G01 X38.04971 Y15.27391
G01 X37.83990 Y15.11287
G01 X37.59556 Y15.01178
G01 X37.46068 Y14.99400
G04 P0 ( dwell for no time -- G64 should not smooth over this point )
G00 Z10.00000 ( retract )

G00 X36.45286 Y13.44993 ( rapid move to begin. )
G01 F30.00000
G01 Z-0.10000
G04 P0 ( dwell for no time -- G64 should not smooth over this point )
G01 F360.00000
G01 X36.45286 Y13.44993
G01 X36.47712 Y13.25402
G01 X36.52738 Y13.10549
G01 X36.57260 Y13.01067
G01 X36.71192 Y12.82812
G01 X36.89317 Y12.68710
G01 X37.04974 Y12.61948
G01 X37.33366 Y12.57117
G01 X37.61755 Y12.61953
G01 X37.77397 Y12.68707
G01 X37.95540 Y12.82812
G01 X38.09459 Y13.01062
G01 X38.13988 Y13.10551
G01 X38.19022 Y13.25402
G01 X38.21448 Y13.44993
G01 X38.19022 Y13.64579
G01 X38.13990 Y13.79431
G01 X38.09454 Y13.88943
G01 X37.95542 Y14.07170
G01 X37.77397 Y14.21277
G01 X37.61755 Y14.28031
G01 X37.33366 Y14.32867
G01 X37.04974 Y14.28034
G01 X36.89320 Y14.21272
G01 X36.71189 Y14.07170
G01 X36.57265 Y13.88938
G01 X36.52736 Y13.79433
G01 X36.47712 Y13.64579
G01 X36.45286 Y13.44993
G04 P0 ( dwell for no time -- G64 should not smooth over this point )
G00 Z10.00000 ( retract )

G00 X35.05937 Y15.11706 ( rapid move to begin. )
G01 F30.00000
G01 Z-0.10000
G04 P0 ( dwell for no time -- G64 should not smooth over this point )
G01 F360.00000
G01 X35.05937 Y15.11706
G01 X34.69566 Y15.10104
G01 X35.05937 Y15.11706
G01 X35.26274 Y15.15862
G01 X35.43503 Y15.30690
G01 X35.59670 Y15.48717
G01 X35.65906 Y15.79115
G01 X35.66208 Y16.08132
G01 X35.62977 Y16.36166
G01 X35.56892 Y16.58351
G01 X35.62680 Y16.38036
G01 X35.66208 Y16.16004
G01 X35.65982 Y15.80573
G01 X35.59670 Y15.48717
G01 X35.43503 Y15.30690
G04 P0 ( dwell for no time -- G64 should not smooth over this point )
G00 Z10.00000 ( retract )

G00 X35.23399 Y16.75275 ( rapid move to begin. )
G01 F30.00000
G01 Z-0.10000
G04 P0 ( dwell for no time -- G64 should not smooth over this point )
G01 F360.00000
G01 X35.23399 Y16.75275
G01 X35.02106 Y16.83931
G01 X34.79366 Y16.86867
G01 X34.56602 Y16.83929
G01 X34.35314 Y16.75272
G01 X34.17171 Y16.61163
G01 X34.03267 Y16.42943
G01 X33.94431 Y16.21757
G01 X33.91286 Y15.98993
G01 X33.93844 Y16.17518
G01 X34.05703 Y16.46136
G01 X34.17171 Y16.61163
G01 X34.34431 Y16.74586
G01 X34.54667 Y16.83141
G01 X34.75947 Y16.86352
G01 X35.03856 Y16.83217
G01 X35.23399 Y16.75275
G01 X35.39772 Y16.63934
G01 X35.56701 Y16.59047
G01 X35.65294 Y16.74909
G01 X35.66571 Y16.83116
G01 X35.66571 Y17.68869
G01 X35.65299 Y17.77060
G01 X35.56704 Y17.92945
G01 X35.62977 Y18.15813
G01 X35.56704 Y17.92945
G01 X35.39762 Y17.88061
G01 X35.23391 Y17.76705
G01 X35.02106 Y17.68051
G01 X34.79366 Y17.65117
G01 X34.50463 Y17.68721
G01 X33.79828 Y16.99448
G01 X33.66465 Y16.90373
G01 X33.51284 Y16.87553
G01 X33.38700 Y16.89859
G01 X30.72968 Y16.89859
G01 X30.59643 Y16.86491
G04 P0 ( dwell for no time -- G64 should not smooth over this point )
G00 Z10.00000 ( retract )

G00 X30.45269 Y17.62481 ( rapid move to begin. )
G01 F30.00000
G01 Z-0.10000
G04 P0 ( dwell for no time -- G64 should not smooth over this point )
G01 F360.00000
G01 X30.45269 Y17.62481
G01 X30.53458 Y17.61208
G01 X33.33372 Y17.61744
G01 X33.95261 Y18.24380
G01 X33.91040 Y18.51675
G01 X32.24446 Y20.18048
G01 X3.05285 Y20.18053
G01 X32.19247 Y20.18566
G01 X32.24446 Y20.18048
G01 X32.28459 Y20.14758
G01 X33.91040 Y18.51675
G04 P0 ( dwell for no time -- G64 should not smooth over this point )
G00 Z10.00000 ( retract )

G00 X35.39772 Y16.63934 ( rapid move to begin. )
G01 F30.00000
G01 Z-0.10000
G04 P0 ( dwell for no time -- G64 should not smooth over this point )
G01 F360.00000
G01 X35.39772 Y16.63934
G01 X35.56701 Y16.59047
G04 P0 ( dwell for no time -- G64 should not smooth over this point )
G00 Z10.00000 ( retract )

G00 X34.49330 Y15.12255 ( rapid move to begin. )
G01 F30.00000
G01 Z-0.10000
G04 P0 ( dwell for no time -- G64 should not smooth over this point )
G01 F360.00000
G01 X34.49330 Y15.12255
G01 X34.69566 Y15.10104
G01 X34.49330 Y15.12255
G01 X34.22561 Y15.18948
G04 P0 ( dwell for no time -- G64 should not smooth over this point )
G00 Z10.00000 ( retract )

G00 X34.18152 Y15.33324 ( rapid move to begin. )
G01 F30.00000
G01 Z-0.10000
G04 P0 ( dwell for no time -- G64 should not smooth over this point )
G01 F360.00000
G01 X34.18152 Y15.33324
G01 X34.03260 Y15.55067
G01 X33.98738 Y15.64549
G01 X33.93712 Y15.79402
G01 X33.91286 Y15.98993
G01 X33.93460 Y15.81424
G01 X33.99536 Y15.62870
G01 X34.18152 Y15.33324
G01 X34.22561 Y15.18948
G01 X34.05914 Y15.09865
G01 X33.97707 Y15.08587
G01 X32.88563 Y15.08587
G01 X32.71578 Y15.04935
G01 X32.59331 Y14.96487
G01 X30.07015 Y12.44168
G01 X30.01155 Y12.39728
G01 X29.71366 Y12.43569
G01 X29.48280 Y12.40587
G01 X29.26710 Y12.31809
G01 X29.10771 Y12.19772
G01 X28.98663 Y12.05664
G01 X28.90698 Y11.91870
G01 X28.85267 Y11.77554
G01 X28.82080 Y11.54491
G01 X28.85016 Y11.75741
G01 X28.91373 Y11.93041
G01 X28.96700 Y12.02263
G01 X29.09847 Y12.18695
G01 X29.26710 Y12.31809
G04 P0 ( dwell for no time -- G64 should not smooth over this point )
G00 Z10.00000 ( retract )

G00 X28.82080 Y11.54491 ( rapid move to begin. )
G01 F30.00000
G01 Z-0.10000
G04 P0 ( dwell for no time -- G64 should not smooth over this point )
G01 F360.00000
G01 X28.82080 Y11.54491
G01 X28.84538 Y11.34654
G01 X28.89646 Y11.19563
G01 X28.99509 Y11.02698
G01 X28.89646 Y11.19563
G04 P0 ( dwell for no time -- G64 should not smooth over this point )
G00 Z10.00000 ( retract )

G00 X28.95476 Y10.66559 ( rapid move to begin. )
G01 F30.00000
G01 Z-0.10000
G04 P0 ( dwell for no time -- G64 should not smooth over this point )
G01 F360.00000
G01 X28.95476 Y10.66559
G01 X29.11704 Y10.75380
G01 X28.95476 Y10.66559
G01 X28.87269 Y10.65281
G01 X27.71887 Y10.65802
G01 X26.94480 Y11.42492
G01 X26.81133 Y11.51562
G01 X26.65268 Y11.54587
G01 X25.45918 Y11.54587
G01 X25.35687 Y11.56569
G01 X25.33216 Y11.67778
G01 X25.33216 Y11.92594
G01 X25.31036 Y12.03112
G01 X25.20513 Y12.05291
G01 X24.06218 Y12.05291
G01 X23.95695 Y12.03114
G01 X23.93518 Y11.92594
G01 X23.93518 Y10.40193
G01 X23.95695 Y10.29670
G01 X24.06218 Y10.27493
G01 X25.20513 Y10.27493
G01 X25.31036 Y10.29673
G01 X25.33216 Y10.40193
G01 X25.33216 Y10.65009
G01 X25.35687 Y10.76211
G01 X25.45918 Y10.78194
G04 P0 ( dwell for no time -- G64 should not smooth over this point )
G00 Z10.00000 ( retract )

G00 X27.27930 Y10.00999 ( rapid move to begin. )
G01 F30.00000
G01 Z-0.10000
G04 P0 ( dwell for no time -- G64 should not smooth over this point )
G01 F360.00000
G01 X27.27930 Y10.00999
G01 X26.50526 Y10.77674
G01 X25.45918 Y10.78194
G01 X26.50526 Y10.77674
G01 X27.27930 Y10.00999
G01 X27.41287 Y9.91913
G01 X27.51968 Y9.89876
G01 X27.41287 Y9.91913
G04 P0 ( dwell for no time -- G64 should not smooth over this point )
G00 Z10.00000 ( retract )

G00 X28.69766 Y9.88891 ( rapid move to begin. )
G01 F30.00000
G01 Z-0.10000
G04 P0 ( dwell for no time -- G64 should not smooth over this point )
G01 F360.00000
G01 X28.69766 Y9.88891
G01 X27.51968 Y9.89876
G01 X28.69766 Y9.88891
G01 X28.82085 Y9.86015
G01 X28.82468 Y9.13778
G01 X28.79994 Y9.02569
G01 X28.69768 Y9.00585
G01 X25.45918 Y9.00585
G01 X25.35687 Y9.02569
G01 X25.33216 Y9.13778
G01 X25.33216 Y9.38593
G01 X25.31036 Y9.49112
G01 X25.20513 Y9.51293
G01 X24.06218 Y9.51293
G01 X23.95695 Y9.49114
G01 X23.93518 Y9.38593
G01 X23.93518 Y7.86194
G01 X23.95695 Y7.75670
G01 X24.06218 Y7.73491
G01 X25.20513 Y7.73491
G01 X25.31036 Y7.75673
G01 X25.33216 Y7.86194
G01 X25.33216 Y8.11009
G01 X25.35687 Y8.22213
G01 X25.45918 Y8.24197
G01 X28.69768 Y8.24197
G01 X28.80101 Y8.22173
G01 X28.84454 Y8.13852
G01 X28.95168 Y8.11594
G01 X30.47568 Y8.11594
G01 X30.58089 Y8.13770
G01 X30.60266 Y8.24293
G01 X30.60649 Y9.86013
G01 X30.47568 Y9.89386
G01 X28.95168 Y9.89386
G01 X28.82085 Y9.86015
G01 X28.82468 Y9.13778
G04 P0 ( dwell for no time -- G64 should not smooth over this point )
G00 Z10.00000 ( retract )

G00 X27.95471 Y5.65577 ( rapid move to begin. )
G01 F30.00000
G01 Z-0.10000
G04 P0 ( dwell for no time -- G64 should not smooth over this point )
G01 F360.00000
G01 X27.95471 Y5.65577
G01 X28.25821 Y5.49966
G01 X28.58247 Y5.29595
G01 X28.88602 Y5.06656
G01 X29.25562 Y4.73951
G04 P0 ( dwell for no time -- G64 should not smooth over this point )
G00 Z10.00000 ( retract )

G00 X34.65307 Y0.00000 ( rapid move to begin. )
G01 F30.00000
G01 Z-0.10000
G04 P0 ( dwell for no time -- G64 should not smooth over this point )
G01 F360.00000
G01 X34.65307 Y0.00000
G01 X33.97819 Y0.68544
G01 X33.36933 Y1.27277
G01 X32.72147 Y1.83358
G01 X32.27161 Y2.18658
G01 X31.82175 Y2.50746
G01 X31.37190 Y2.79616
G01 X30.92204 Y3.05275
G01 X30.47901 Y3.27655
G04 P0 ( dwell for no time -- G64 should not smooth over this point )
G00 Z10.00000 ( retract )

G00 X27.03106 Y0.27470 ( rapid move to begin. )
G01 F30.00000
G01 Z-0.10000
G04 P0 ( dwell for no time -- G64 should not smooth over this point )
G01 F360.00000
G01 X27.03106 Y0.27470
G01 X27.03106 Y0.32520
G01 X27.10579 Y0.39982
G01 X27.28956 Y0.39982
G01 X27.36431 Y0.32520
G01 X27.36431 Y0.27470
G01 X27.28951 Y0.19992
G01 X27.10584 Y0.19992
G01 X27.03106 Y0.27470
G04 P0 ( dwell for no time -- G64 should not smooth over this point )
G00 Z10.00000 ( retract )

G00 X27.03106 Y0.67452 ( rapid move to begin. )
G01 F30.00000
G01 Z-0.10000
G04 P0 ( dwell for no time -- G64 should not smooth over this point )
G01 F360.00000
G01 X27.03106 Y0.67452
G01 X27.10584 Y0.59969
G01 X27.28951 Y0.59969
G01 X27.36431 Y0.67452
G01 X27.36431 Y0.72507
G01 X27.28951 Y0.79985
G01 X27.10584 Y0.79985
G01 X27.03106 Y0.72507
G01 X27.03106 Y0.67452
G04 P0 ( dwell for no time -- G64 should not smooth over this point )
G00 Z10.00000 ( retract )

G00 X26.68113 Y0.49985 ( rapid move to begin. )
G01 F30.00000
G01 Z-0.10000
G04 P0 ( dwell for no time -- G64 should not smooth over this point )
G01 F360.00000
G01 X26.68113 Y0.49985
G01 X26.66393 Y0.63523
G01 X26.67020 Y0.82159
G01 X26.68113 Y0.49985
G01 X26.66530 Y0.33066
G01 X26.78039 Y0.00000
G04 P0 ( dwell for no time -- G64 should not smooth over this point )
G00 Z10.00000 ( retract )

G00 X26.07267 Y0.00000 ( rapid move to begin. )
G01 F30.00000
G01 Z-0.10000
G04 P0 ( dwell for no time -- G64 should not smooth over this point )
G01 F360.00000
G01 X26.07267 Y0.00000
G01 X26.09728 Y0.09665
G01 X26.19797 Y0.28804
G01 X26.19746 Y0.57826
G01 X26.14950 Y0.66617
G01 X26.13223 Y0.73871
G01 X26.13137 Y2.49197
G01 X25.32680 Y2.35702
G01 X25.85522 Y2.44015
G01 X26.09174 Y2.49375
G01 X25.46871 Y4.21485
G01 X25.48793 Y4.12242
G01 X26.09174 Y2.49375
G01 X26.20472 Y2.50073
G01 X26.19177 Y4.17040
G01 X26.25847 Y4.30954
G01 X26.26111 Y4.51576
G01 X26.24285 Y4.60085
G01 X26.26045 Y4.54530
G01 X26.26457 Y4.36639
G01 X26.25265 Y4.29740
G01 X26.19177 Y4.17040
G04 P0 ( dwell for no time -- G64 should not smooth over this point )
G00 Z10.00000 ( retract )

G00 X26.20472 Y2.50073 ( rapid move to begin. )
G01 F30.00000
G01 Z-0.10000
G04 P0 ( dwell for no time -- G64 should not smooth over this point )
G01 F360.00000
G01 X26.20472 Y2.50073
G01 X26.73581 Y2.50017
G01 X26.13137 Y2.49197
G04 P0 ( dwell for no time -- G64 should not smooth over this point )
G00 Z10.00000 ( retract )

G00 X26.73005 Y1.18499 ( rapid move to begin. )
G01 F30.00000
G01 Z-0.10000
G04 P0 ( dwell for no time -- G64 should not smooth over this point )
G01 F360.00000
G01 X26.73005 Y1.18499
G01 X26.67020 Y0.82159
G01 X26.73005 Y1.18499
G01 X26.73581 Y2.50017
G01 X27.27503 Y2.62118
G01 X28.46405 Y2.96606
G01 X29.55470 Y3.12364
G01 X30.47901 Y3.27655
G01 X30.07289 Y3.82664
G01 X29.66677 Y4.31068
G01 X29.25562 Y4.73951
G01 X28.87424 Y5.07545
G01 X28.58247 Y5.29595
G01 X28.28008 Y5.48592
G01 X27.95471 Y5.65577
G01 X27.60965 Y5.78698
G01 X27.21592 Y5.88218
G01 X26.82027 Y5.91541
G04 P0 ( dwell for no time -- G64 should not smooth over this point )
G00 Z10.00000 ( retract )

G00 X26.19444 Y5.90837 ( rapid move to begin. )
G01 F30.00000
G01 Z-0.10000
G04 P0 ( dwell for no time -- G64 should not smooth over this point )
G01 F360.00000
G01 X26.19444 Y5.90837
G01 X25.84938 Y5.90819
G01 X26.82027 Y5.91541
G01 X26.19444 Y5.90837
G01 X26.19952 Y4.80286
G01 X26.24285 Y4.60085
G01 X26.19952 Y4.80286
G04 P0 ( dwell for no time -- G64 should not smooth over this point )
G00 Z10.00000 ( retract )

G00 X25.70604 Y4.46634 ( rapid move to begin. )
G01 F30.00000
G01 Z-0.10000
G04 P0 ( dwell for no time -- G64 should not smooth over this point )
G01 F360.00000
G01 X25.70604 Y4.46634
G01 X25.77285 Y4.53314
G01 X25.95669 Y4.53314
G01 X26.02337 Y4.46634
G01 X25.70604 Y4.46634
G04 P0 ( dwell for no time -- G64 should not smooth over this point )
G00 Z10.00000 ( retract )

G00 X25.53142 Y5.90804 ( rapid move to begin. )
G01 F30.00000
G01 Z-0.10000
G04 P0 ( dwell for no time -- G64 should not smooth over this point )
G01 F360.00000
G01 X25.53142 Y5.90804
G01 X25.84938 Y5.90819
G01 X24.60280 Y5.90834
G04 P0 ( dwell for no time -- G64 should not smooth over this point )
G00 Z10.00000 ( retract )

G00 X25.51600 Y4.69351 ( rapid move to begin. )
G01 F30.00000
G01 Z-0.10000
G04 P0 ( dwell for no time -- G64 should not smooth over this point )
G01 F360.00000
G01 X25.51600 Y4.69351
G01 X25.46904 Y4.54530
G01 X25.46871 Y4.21485
G01 X25.46520 Y4.50629
G01 X25.51600 Y4.69351
G01 X25.53142 Y4.83314
G01 X25.53142 Y5.90583
G01 X23.99215 Y5.91243
G01 X24.60277 Y5.90669
G01 X24.59934 Y4.79816
G01 X24.61362 Y4.69273
G01 X24.66099 Y4.54533
G01 X24.66932 Y4.18780
G01 X24.72517 Y3.99425
G01 X24.73269 Y3.83459
G01 X24.39015 Y3.11206
G04 P0 ( dwell for no time -- G64 should not smooth over this point )
G00 Z10.00000 ( retract )

G00 X24.14008 Y4.23324 ( rapid move to begin. )
G01 F30.00000
G01 Z-0.10000
G04 P0 ( dwell for no time -- G64 should not smooth over this point )
G01 F360.00000
G01 X24.14008 Y4.23324
G01 X24.17336 Y4.26644
G01 X24.43185 Y4.26646
G01 X24.43185 Y4.19989
G01 X24.17341 Y4.19989
G01 X24.14008 Y4.23324
G04 P0 ( dwell for no time -- G64 should not smooth over this point )
G00 Z10.00000 ( retract )

G00 X23.93000 Y3.37096 ( rapid move to begin. )
G01 F30.00000
G01 Z-0.10000
G04 P0 ( dwell for no time -- G64 should not smooth over this point )
G01 F360.00000
G01 X23.93000 Y3.37096
G01 X24.39015 Y3.11206
G01 X24.61575 Y2.77449
G01 X24.93488 Y2.36962
G01 X24.13201 Y1.56779
G04 P0 ( dwell for no time -- G64 should not smooth over this point )
G00 Z10.00000 ( retract )

G00 X24.93488 Y2.36962 ( rapid move to begin. )
G01 F30.00000
G01 Z-0.10000
G04 P0 ( dwell for no time -- G64 should not smooth over this point )
G01 F360.00000
G01 X24.93488 Y2.36962
G01 X25.32680 Y2.35702
G01 X25.33157 Y0.62984
G01 X25.31610 Y0.54310
G01 X25.22921 Y0.33221
G01 X25.35410 Y0.12243
G01 X25.39002 Y0.00000
G04 P0 ( dwell for no time -- G64 should not smooth over this point )
G00 Z10.00000 ( retract )

G00 X25.56495 Y0.27465 ( rapid move to begin. )
G01 F30.00000
G01 Z-0.10000
G04 P0 ( dwell for no time -- G64 should not smooth over this point )
G01 F360.00000
G01 X25.56495 Y0.27465
G01 X25.63957 Y0.19992
G01 X25.82342 Y0.19992
G01 X25.89820 Y0.27470
G01 X25.89820 Y0.72507
G01 X25.82342 Y0.79985
G01 X25.63957 Y0.79985
G01 X25.56495 Y0.72512
G01 X25.56495 Y0.27465
G04 P0 ( dwell for no time -- G64 should not smooth over this point )
G00 Z10.00000 ( retract )

G00 X24.30208 Y0.00000 ( rapid move to begin. )
G01 F30.00000
G01 Z-0.10000
G04 P0 ( dwell for no time -- G64 should not smooth over this point )
G01 F360.00000
G01 X24.30208 Y0.00000
G01 X24.34239 Y0.11946
G01 X24.40516 Y0.22880
G01 X24.63957 Y0.47986
G01 X24.39650 Y0.97074
G01 X24.13152 Y1.45461
G01 X24.00828 Y0.82809
G01 X23.88136 Y0.53716
G04 P0 ( dwell for no time -- G64 should not smooth over this point )
G00 Z10.00000 ( retract )

G00 X22.93056 Y1.47843 ( rapid move to begin. )
G01 F30.00000
G01 Z-0.10000
G04 P0 ( dwell for no time -- G64 should not smooth over this point )
G01 F360.00000
G01 X22.93056 Y1.47843
G01 X23.43104 Y1.50398
G01 X24.13201 Y1.56779
G01 X24.13152 Y1.45461
G01 X23.99309 Y0.79327
G01 X23.88136 Y0.53716
G01 X23.72078 Y0.35509
G01 X23.73160 Y0.00000
G04 P0 ( dwell for no time -- G64 should not smooth over this point )
G00 Z10.00000 ( retract )

G00 X22.87323 Y0.00000 ( rapid move to begin. )
G01 F30.00000
G01 Z-0.10000
G04 P0 ( dwell for no time -- G64 should not smooth over this point )
G01 F360.00000
G01 X22.87323 Y0.00000
G01 X22.89226 Y0.08049
G01 X23.07186 Y0.49324
G01 X22.97303 Y0.61877
G01 X22.93531 Y0.72319
G01 X22.93056 Y1.47843
G01 X22.79914 Y1.52212
G01 X22.79914 Y3.53576
G01 X22.79914 Y1.52212
G01 X22.26589 Y1.49245
G01 X21.93229 Y1.45542
G01 X22.79914 Y1.52212
G04 P0 ( dwell for no time -- G64 should not smooth over this point )
G00 Z10.00000 ( retract )

G00 X21.56597 Y0.72039 ( rapid move to begin. )
G01 F30.00000
G01 Z-0.10000
G04 P0 ( dwell for no time -- G64 should not smooth over this point )
G01 F360.00000
G01 X21.56597 Y0.72039
G01 X21.65944 Y0.95032
G01 X21.56597 Y0.72039
G01 X21.44669 Y0.54775
G01 X21.17392 Y0.26507
G01 X21.06592 Y0.06474
G01 X21.06719 Y0.00000
G04 P0 ( dwell for no time -- G64 should not smooth over this point )
G00 Z10.00000 ( retract )

G00 X22.36584 Y0.27470 ( rapid move to begin. )
G01 F30.00000
G01 Z-0.10000
G04 P0 ( dwell for no time -- G64 should not smooth over this point )
G01 F360.00000
G01 X22.36584 Y0.27470
G01 X22.36584 Y0.72507
G01 X22.44062 Y0.79985
G01 X22.62429 Y0.79985
G01 X22.69909 Y0.72507
G01 X22.69909 Y0.27470
G01 X22.62429 Y0.19992
G01 X22.44062 Y0.19992
G01 X22.36584 Y0.27470
G04 P0 ( dwell for no time -- G64 should not smooth over this point )
G00 Z10.00000 ( retract )

G00 X21.93729 Y0.00000 ( rapid move to begin. )
G01 F30.00000
G01 Z-0.10000
G04 P0 ( dwell for no time -- G64 should not smooth over this point )
G01 F360.00000
G01 X21.93729 Y0.00000
G01 X21.96447 Y0.15898
G01 X22.11380 Y0.53409
G01 X22.13201 Y0.64712
G01 X22.09190 Y0.78115
G01 X21.79457 Y1.35313
G04 P0 ( dwell for no time -- G64 should not smooth over this point )
G00 Z10.00000 ( retract )

G00 X21.26551 Y1.51453 ( rapid move to begin. )
G01 F30.00000
G01 Z-0.10000
G04 P0 ( dwell for no time -- G64 should not smooth over this point )
G01 F360.00000
G01 X21.26551 Y1.51453
G01 X21.54385 Y1.45031
G01 X21.79556 Y1.36759
G01 X21.65944 Y0.95032
G01 X21.79556 Y1.36759
G01 X21.93229 Y1.45542
G01 X21.92327 Y1.91572
G01 X21.87029 Y2.16624
G01 X21.85060 Y2.35852
G01 X21.75947 Y2.56873
G01 X21.53437 Y2.83545
G04 P0 ( dwell for no time -- G64 should not smooth over this point )
G00 Z10.00000 ( retract )

G00 X22.23247 Y2.27470 ( rapid move to begin. )
G01 F30.00000
G01 Z-0.10000
G04 P0 ( dwell for no time -- G64 should not smooth over this point )
G01 F360.00000
G01 X22.23247 Y2.27470
G01 X22.23247 Y2.72506
G01 X22.30727 Y2.79987
G01 X22.49112 Y2.79984
G01 X22.56574 Y2.72512
G01 X22.56574 Y2.27465
G01 X22.49112 Y2.19992
G01 X22.30727 Y2.19992
G01 X22.23247 Y2.27470
G04 P0 ( dwell for no time -- G64 should not smooth over this point )
G00 Z10.00000 ( retract )

G00 X23.03234 Y2.27470 ( rapid move to begin. )
G01 F30.00000
G01 Z-0.10000
G04 P0 ( dwell for no time -- G64 should not smooth over this point )
G01 F360.00000
G01 X23.03234 Y2.27470
G01 X23.03234 Y2.72506
G01 X23.10712 Y2.79987
G01 X23.29078 Y2.79987
G01 X23.36559 Y2.72506
G01 X23.36559 Y2.27470
G01 X23.29078 Y2.19992
G01 X23.10712 Y2.19992
G01 X23.03234 Y2.27470
G04 P0 ( dwell for no time -- G64 should not smooth over this point )
G00 Z10.00000 ( retract )

G00 X21.56818 Y3.15117 ( rapid move to begin. )
G01 F30.00000
G01 Z-0.10000
G04 P0 ( dwell for no time -- G64 should not smooth over this point )
G01 F360.00000
G01 X21.56818 Y3.15117
G01 X21.85068 Y3.30871
G01 X22.11522 Y3.49692
G01 X22.34415 Y3.54960
G01 X22.60387 Y3.64508
G01 X22.66147 Y4.14802
G01 X22.65766 Y4.62394
G01 X22.62175 Y4.80286
G01 X22.51502 Y5.14769
G01 X22.34992 Y5.89217
G01 X21.99406 Y5.91650
G01 X21.39947 Y5.90868
G04 P0 ( dwell for no time -- G64 should not smooth over this point )
G00 Z10.00000 ( retract )

G00 X21.32602 Y5.91312 ( rapid move to begin. )
G01 F30.00000
G01 Z-0.10000
G04 P0 ( dwell for no time -- G64 should not smooth over this point )
G01 F360.00000
G01 X21.32602 Y5.91312
G01 X21.13872 Y5.96984
G01 X20.71327 Y6.03888
G01 X21.13872 Y5.96984
G04 P0 ( dwell for no time -- G64 should not smooth over this point )
G00 Z10.00000 ( retract )

G00 X22.34992 Y5.89217 ( rapid move to begin. )
G01 F30.00000
G01 Z-0.10000
G04 P0 ( dwell for no time -- G64 should not smooth over this point )
G01 F360.00000
G01 X22.34992 Y5.89217
G01 X22.58187 Y5.96712
G01 X22.81380 Y6.01660
G01 X23.18837 Y6.04957
G01 X23.58382 Y6.01660
G01 X23.99215 Y5.91243
G01 X23.70910 Y4.92186
G01 X23.67407 Y4.76016
G01 X23.66609 Y4.60505
G01 X23.66805 Y4.56855
G01 X23.89655 Y4.10357
G01 X23.92012 Y4.02760
G01 X23.93000 Y3.37096
G01 X23.55106 Y3.47909
G01 X22.79914 Y3.53576
G01 X22.60387 Y3.64508
G04 P0 ( dwell for no time -- G64 should not smooth over this point )
G00 Z10.00000 ( retract )

G00 X21.69935 Y4.19989 ( rapid move to begin. )
G01 F30.00000
G01 Z-0.10000
G04 P0 ( dwell for no time -- G64 should not smooth over this point )
G01 F360.00000
G01 X21.69935 Y4.19989
G01 X21.69935 Y4.53316
G01 X21.95797 Y4.53314
G01 X22.03259 Y4.45841
G01 X22.03259 Y4.27464
G01 X21.95797 Y4.19989
G01 X21.69935 Y4.19989
G04 P0 ( dwell for no time -- G64 should not smooth over this point )
G00 Z10.00000 ( retract )

G00 X20.89975 Y4.27469 ( rapid move to begin. )
G01 F30.00000
G01 Z-0.10000
G04 P0 ( dwell for no time -- G64 should not smooth over this point )
G01 F360.00000
G01 X20.89975 Y4.27469
G01 X20.89975 Y4.45836
G01 X20.97453 Y4.53314
G01 X21.15820 Y4.53314
G01 X21.23298 Y4.45836
G01 X21.23298 Y4.27469
G01 X21.15820 Y4.19989
G01 X20.97453 Y4.19989
G01 X20.89975 Y4.27469
G04 P0 ( dwell for no time -- G64 should not smooth over this point )
G00 Z10.00000 ( retract )

G00 X20.59290 Y3.88877 ( rapid move to begin. )
G01 F30.00000
G01 Z-0.10000
G04 P0 ( dwell for no time -- G64 should not smooth over this point )
G01 F360.00000
G01 X20.59290 Y3.88877
G01 X20.53433 Y4.22311
G01 X20.54657 Y4.61985
G01 X20.53372 Y4.20256
G01 X20.59290 Y3.88877
G01 X20.59793 Y3.53007
G01 X20.35020 Y3.50355
G01 X20.15076 Y3.50487
G01 X19.19788 Y3.61960
G04 P0 ( dwell for no time -- G64 should not smooth over this point )
G00 Z10.00000 ( retract )

G00 X20.59793 Y3.53007 ( rapid move to begin. )
G01 F30.00000
G01 Z-0.10000
G04 P0 ( dwell for no time -- G64 should not smooth over this point )
G01 F360.00000
G01 X20.59793 Y3.53007
G01 X20.66643 Y3.49989
G01 X21.09617 Y3.48899
G01 X21.56818 Y3.15117
G01 X21.53437 Y2.83545
G01 X21.30593 Y2.56939
G01 X21.23791 Y2.43413
G01 X21.20925 Y2.33507
G01 X21.26488 Y2.13154
G01 X21.26551 Y1.51453
G01 X20.80359 Y1.49990
G01 X20.60016 Y1.51455
G01 X20.60951 Y1.99451
G01 X20.60016 Y1.51455
G01 X20.39823 Y1.46990
G04 P0 ( dwell for no time -- G64 should not smooth over this point )
G00 Z10.00000 ( retract )

G00 X20.09991 Y2.27470 ( rapid move to begin. )
G01 F30.00000
G01 Z-0.10000
G04 P0 ( dwell for no time -- G64 should not smooth over this point )
G01 F360.00000
G01 X20.09991 Y2.27470
G01 X20.17469 Y2.19992
G01 X20.35835 Y2.19992
G01 X20.43316 Y2.27470
G01 X20.43316 Y2.72506
G01 X20.35835 Y2.79987
G01 X20.17469 Y2.79987
G01 X20.09991 Y2.72506
G01 X20.09991 Y2.27470
G04 P0 ( dwell for no time -- G64 should not smooth over this point )
G00 Z10.00000 ( retract )

G00 X20.73303 Y2.28811 ( rapid move to begin. )
G01 F30.00000
G01 Z-0.10000
G04 P0 ( dwell for no time -- G64 should not smooth over this point )
G01 F360.00000
G01 X20.73303 Y2.28811
G01 X20.63237 Y2.09667
G01 X20.60951 Y1.99451
G01 X20.62582 Y2.07328
G01 X20.73303 Y2.28811
G01 X20.73250 Y2.57818
G01 X20.69084 Y2.65151
G01 X20.66620 Y2.75222
G01 X20.66643 Y3.49989
G04 P0 ( dwell for no time -- G64 should not smooth over this point )
G00 Z10.00000 ( retract )

G00 X21.09617 Y3.48899 ( rapid move to begin. )
G01 F30.00000
G01 Z-0.10000
G04 P0 ( dwell for no time -- G64 should not smooth over this point )
G01 F360.00000
G01 X21.09617 Y3.48899
G01 X21.35576 Y3.91434
G01 X21.46442 Y4.20367
G01 X21.46198 Y4.54530
G01 X21.41527 Y4.68963
G01 X21.39947 Y4.83065
G01 X21.39947 Y5.90868
G01 X21.32602 Y5.91312
G01 X21.10908 Y5.39052
G01 X20.85741 Y4.95651
G01 X20.70679 Y4.74520
G01 X20.54657 Y4.61985
G01 X20.72231 Y4.75737
G01 X20.93539 Y5.07141
G01 X21.10908 Y5.39052
G04 P0 ( dwell for no time -- G64 should not smooth over this point )
G00 Z10.00000 ( retract )

G00 X19.99996 Y6.04985 ( rapid move to begin. )
G01 F30.00000
G01 Z-0.10000
G04 P0 ( dwell for no time -- G64 should not smooth over this point )
G01 F360.00000
G01 X19.99996 Y6.04985
G01 X20.71327 Y6.03888
G01 X19.99996 Y6.04985
G01 X19.73783 Y6.03390
G01 X19.37342 Y5.96425
G01 X18.91970 Y5.79526
G01 X19.38525 Y5.96651
G01 X19.73783 Y6.03390
G04 P0 ( dwell for no time -- G64 should not smooth over this point )
G00 Z10.00000 ( retract )

G00 X18.62160 Y5.86864 ( rapid move to begin. )
G01 F30.00000
G01 Z-0.10000
G04 P0 ( dwell for no time -- G64 should not smooth over this point )
G01 F360.00000
G01 X18.62160 Y5.86864
G01 X18.25483 Y5.91264
G01 X18.62160 Y5.86864
G01 X18.91970 Y5.79526
G01 X19.07941 Y4.66334
G01 X19.13750 Y4.36654
G01 X19.19907 Y4.19113
G01 X19.19788 Y3.61960
G01 X18.58894 Y2.76647
G01 X18.42226 Y2.54947
G01 X18.22869 Y2.33248
G04 P0 ( dwell for no time -- G64 should not smooth over this point )
G00 Z10.00000 ( retract )

G00 X17.79803 Y2.57947 ( rapid move to begin. )
G01 F30.00000
G01 Z-0.10000
G04 P0 ( dwell for no time -- G64 should not smooth over this point )
G01 F360.00000
G01 X17.79803 Y2.57947
G01 X18.00454 Y2.35654
G01 X18.22869 Y2.33248
G01 X18.81797 Y1.50150
G01 X18.88929 Y0.43632
G01 X18.86511 Y0.00000
G01 X18.87708 Y0.36655
G01 X17.49765 Y0.36632
G04 P0 ( dwell for no time -- G64 should not smooth over this point )
G00 Z10.00000 ( retract )

G00 X18.81797 Y1.50150 ( rapid move to begin. )
G01 F30.00000
G01 Z-0.10000
G04 P0 ( dwell for no time -- G64 should not smooth over this point )
G01 F360.00000
G01 X18.81797 Y1.50150
G01 X20.15277 Y1.49893
G01 X20.39823 Y1.46990
G01 X20.40189 Y0.85113
G01 X20.42490 Y0.73645
G01 X20.49691 Y0.57732
G01 X20.41050 Y0.33586
G01 X20.46351 Y0.15250
G01 X20.46663 Y0.00000
G04 P0 ( dwell for no time -- G64 should not smooth over this point )
G00 Z10.00000 ( retract )

G00 X18.88929 Y0.43632 ( rapid move to begin. )
G01 F30.00000
G01 Z-0.10000
G04 P0 ( dwell for no time -- G64 should not smooth over this point )
G01 F360.00000
G01 X18.88929 Y0.43632
G01 X18.87708 Y0.36655
G04 P0 ( dwell for no time -- G64 should not smooth over this point )
G00 Z10.00000 ( retract )

G00 X17.39892 Y0.80424 ( rapid move to begin. )
G01 F30.00000
G01 Z-0.10000
G04 P0 ( dwell for no time -- G64 should not smooth over this point )
G01 F360.00000
G01 X17.39892 Y0.80424
G01 X17.39318 Y1.78709
G01 X17.39892 Y0.80424
G01 X17.41444 Y0.68791
G01 X17.49765 Y0.36632
G01 X17.39052 Y0.16927
G01 X17.39727 Y0.00000
G04 P0 ( dwell for no time -- G64 should not smooth over this point )
G00 Z10.00000 ( retract )

G00 X16.90596 Y0.46660 ( rapid move to begin. )
G01 F30.00000
G01 Z-0.10000
G04 P0 ( dwell for no time -- G64 should not smooth over this point )
G01 F360.00000
G01 X16.90596 Y0.46660
G01 X17.22272 Y0.46660
G01 X17.15618 Y0.53315
G01 X16.97251 Y0.53315
G01 X16.90596 Y0.46660
G04 P0 ( dwell for no time -- G64 should not smooth over this point )
G00 Z10.00000 ( retract )

G00 X16.64899 Y0.00000 ( rapid move to begin. )
G01 F30.00000
G01 Z-0.10000
G04 P0 ( dwell for no time -- G64 should not smooth over this point )
G01 F360.00000
G01 X16.64899 Y0.00000
G01 X16.53118 Y0.34374
G01 X16.53118 Y0.40323
G01 X16.64881 Y0.73340
G01 X16.66616 Y1.03467
G01 X16.74571 Y1.43289
G01 X16.20111 Y1.42725
G01 X16.74571 Y1.43289
G01 X17.13370 Y1.62430
G01 X17.39318 Y1.78709
G01 X18.00454 Y2.35654
G01 X16.03149 Y2.36634
G04 P0 ( dwell for no time -- G64 should not smooth over this point )
G00 Z10.00000 ( retract )

G00 X15.99804 Y1.41315 ( rapid move to begin. )
G01 F30.00000
G01 Z-0.10000
G04 P0 ( dwell for no time -- G64 should not smooth over this point )
G01 F360.00000
G01 X15.99804 Y1.41315
G01 X16.20111 Y1.42725
G01 X15.99804 Y1.41315
G01 X15.99804 Y2.17421
G01 X15.99804 Y1.41315
G01 X15.83263 Y1.36342
G04 P0 ( dwell for no time -- G64 should not smooth over this point )
G00 Z10.00000 ( retract )

G00 X15.50934 Y1.37678 ( rapid move to begin. )
G01 F30.00000
G01 Z-0.10000
G04 P0 ( dwell for no time -- G64 should not smooth over this point )
G01 F360.00000
G01 X15.50934 Y1.37678
G01 X15.59824 Y1.39052
G01 X15.83263 Y1.36342
G01 X15.93050 Y0.96723
G01 X15.93367 Y0.78308
G01 X15.95267 Y0.66932
G01 X16.06474 Y0.44630
G01 X16.06954 Y0.17468
G01 X16.11594 Y0.00000
G04 P0 ( dwell for no time -- G64 should not smooth over this point )
G00 Z10.00000 ( retract )

G00 X15.47289 Y0.23330 ( rapid move to begin. )
G01 F30.00000
G01 Z-0.10000
G04 P0 ( dwell for no time -- G64 should not smooth over this point )
G01 F360.00000
G01 X15.47289 Y0.23330
G01 X15.50624 Y0.26673
G01 X15.76489 Y0.26673
G01 X15.76489 Y0.19992
G01 X15.50624 Y0.19992
G01 X15.47289 Y0.23330
G04 P0 ( dwell for no time -- G64 should not smooth over this point )
G00 Z10.00000 ( retract )

G00 X15.28671 Y0.50074 ( rapid move to begin. )
G01 F30.00000
G01 Z-0.10000
G04 P0 ( dwell for no time -- G64 should not smooth over this point )
G01 F360.00000
G01 X15.28671 Y0.50074
G01 X15.20436 Y0.29022
G01 X15.19903 Y0.00000
G01 X15.20853 Y0.30091
G01 X15.28671 Y0.50074
G01 X15.26697 Y0.59144
G01 X15.27343 Y0.71717
G01 X15.39880 Y1.10030
G01 X15.50934 Y1.37678
G01 X15.13022 Y1.50020
G01 X15.13487 Y1.97432
G01 X15.13022 Y1.50020
G01 X14.64229 Y1.50020
G01 X14.40035 Y1.52270
G04 P0 ( dwell for no time -- G64 should not smooth over this point )
G00 Z10.00000 ( retract )

G00 X14.63180 Y2.27470 ( rapid move to begin. )
G01 F30.00000
G01 Z-0.10000
G04 P0 ( dwell for no time -- G64 should not smooth over this point )
G01 F360.00000
G01 X14.63180 Y2.27470
G01 X14.70657 Y2.19992
G01 X14.89024 Y2.19992
G01 X14.96502 Y2.27470
G01 X14.96502 Y2.45836
G01 X14.89024 Y2.53314
G01 X14.70657 Y2.53314
G01 X14.63180 Y2.45836
G01 X14.63180 Y2.27470
G04 P0 ( dwell for no time -- G64 should not smooth over this point )
G00 Z10.00000 ( retract )

G00 X15.13487 Y1.97432 ( rapid move to begin. )
G01 F30.00000
G01 Z-0.10000
