( pcb2gcode 1.3.2 )
( Software-independent Gcode )

G94 ( Millimeters per minute feed rate. )
G21 ( Units == Millimeters. )

G90 ( Absolute coordinates. )
G00 S10000 ( RPM spindle speed. )
G01 F360.00000 ( Feedrate. )

G01 F360.00000 ( Feedrate. )
M3 ( Spindle on clockwise. )
G04 P1.00000
G04 P0 ( dwell for no time -- G64 should not smooth over this point )
G00 Z10.00000 ( retract )

G00 X0.81356 Y8.68490 ( rapid move to begin. )
G01 F30.00000
G01 Z-0.10000
G04 P0 ( dwell for no time -- G64 should not smooth over this point )
G01 F360.00000
G01 X0.81356 Y8.68490
G01 X0.81443 Y9.55777
G01 X1.05651 Y9.55777
G01 X1.05948 Y8.92460
G01 X1.69151 Y8.92277
G01 X1.69151 Y8.68068
G01 X0.81356 Y8.68490
G04 P0 ( dwell for no time -- G64 should not smooth over this point )
G00 Z10.00000 ( retract )

G00 X1.95656 Y8.68490 ( rapid move to begin. )
G01 F30.00000
G01 Z-0.10000
G04 P0 ( dwell for no time -- G64 should not smooth over this point )
G01 F360.00000
G01 X1.95656 Y8.68490
G01 X2.83451 Y8.68068
G01 X2.83451 Y9.55777
G01 X2.59243 Y9.55777
G01 X2.58994 Y8.92500
G01 X1.95743 Y8.92277
G01 X1.95656 Y8.68490
G04 P0 ( dwell for no time -- G64 should not smooth over this point )
G00 Z10.00000 ( retract )

G00 X0.81356 Y9.82790 ( rapid move to begin. )
G01 F30.00000
G01 Z-0.10000
G04 P0 ( dwell for no time -- G64 should not smooth over this point )
G01 F360.00000
G01 X0.81356 Y9.82790
G01 X1.05651 Y9.82368
G01 X1.05898 Y10.45642
G01 X1.69151 Y10.45868
G01 X1.69151 Y10.70077
G01 X0.81443 Y10.70077
G01 X0.81356 Y9.82790
G04 P0 ( dwell for no time -- G64 should not smooth over this point )
G00 Z10.00000 ( retract )

G00 X1.95656 Y10.46290 ( rapid move to begin. )
G01 F30.00000
G01 Z-0.10000
G04 P0 ( dwell for no time -- G64 should not smooth over this point )
G01 F360.00000
G01 X1.95656 Y10.46290
G01 X1.95743 Y10.70077
G01 X2.83451 Y10.70077
G01 X2.83451 Y9.82368
G01 X2.59243 Y9.82368
G01 X2.58973 Y10.45662
G01 X1.95656 Y10.46290
G04 P0 ( dwell for no time -- G64 should not smooth over this point )
G00 Z10.00000 ( retract )

G00 X4.24256 Y14.52690 ( rapid move to begin. )
G01 F30.00000
G01 Z-0.10000
G04 P0 ( dwell for no time -- G64 should not smooth over this point )
G01 F360.00000
G01 X4.24256 Y14.52690
G01 X4.93001 Y14.52268
G01 X4.93001 Y15.39977
G01 X4.68793 Y15.39977
G01 X4.68607 Y14.76774
G01 X4.24343 Y14.76477
G01 X4.24256 Y14.52690
G04 P0 ( dwell for no time -- G64 should not smooth over this point )
G00 Z10.00000 ( retract )

G00 X3.29006 Y14.52690 ( rapid move to begin. )
G01 F30.00000
G01 Z-0.10000
G04 P0 ( dwell for no time -- G64 should not smooth over this point )
G01 F360.00000
G01 X3.29006 Y14.52690
G01 X3.97751 Y14.52268
G01 X3.97751 Y14.76477
G01 X3.53459 Y14.76814
G01 X3.53301 Y15.39977
G01 X3.29093 Y15.39977
G01 X3.29006 Y14.52690
G04 P0 ( dwell for no time -- G64 should not smooth over this point )
G00 Z10.00000 ( retract )

G00 X3.29006 Y15.66990 ( rapid move to begin. )
G01 F30.00000
G01 Z-0.10000
G04 P0 ( dwell for no time -- G64 should not smooth over this point )
G01 F360.00000
G01 X3.29006 Y15.66990
G01 X3.53301 Y15.66568
G01 X3.53484 Y16.29768
G01 X3.97751 Y16.30068
G01 X3.97751 Y16.54277
G01 X3.29093 Y16.54277
G01 X3.29006 Y15.66990
G04 P0 ( dwell for no time -- G64 should not smooth over this point )
G00 Z10.00000 ( retract )

G00 X4.24256 Y16.30490 ( rapid move to begin. )
G01 F30.00000
G01 Z-0.10000
G04 P0 ( dwell for no time -- G64 should not smooth over this point )
G01 F360.00000
G01 X4.24256 Y16.30490
G01 X4.68546 Y16.29842
G01 X4.68793 Y15.66568
G01 X4.93001 Y15.66568
G01 X4.93001 Y16.54277
G01 X4.24343 Y16.54277
G01 X4.24256 Y16.30490
G04 P0 ( dwell for no time -- G64 should not smooth over this point )
G00 Z10.00000 ( retract )

G00 X3.29006 Y17.57490 ( rapid move to begin. )
G01 F30.00000
G01 Z-0.10000
G04 P0 ( dwell for no time -- G64 should not smooth over this point )
G01 F360.00000
G01 X3.29006 Y17.57490
G01 X3.29093 Y18.44777
G01 X3.53301 Y18.44777
G01 X3.53459 Y17.81614
G01 X3.97751 Y17.81277
G01 X3.97751 Y17.57068
G01 X3.29006 Y17.57490
G04 P0 ( dwell for no time -- G64 should not smooth over this point )
G00 Z10.00000 ( retract )

G00 X3.29006 Y18.71790 ( rapid move to begin. )
G01 F30.00000
G01 Z-0.10000
G04 P0 ( dwell for no time -- G64 should not smooth over this point )
G01 F360.00000
G01 X3.29006 Y18.71790
G01 X3.29093 Y19.59077
G01 X3.97751 Y19.59077
G01 X3.97751 Y19.34868
G01 X3.53484 Y19.34568
G01 X3.53301 Y18.71368
G01 X3.29006 Y18.71790
G04 P0 ( dwell for no time -- G64 should not smooth over this point )
G00 Z10.00000 ( retract )

G00 X0.44745 Y22.25291 ( rapid move to begin. )
G01 F30.00000
G01 Z-0.10000
G04 P0 ( dwell for no time -- G64 should not smooth over this point )
G01 F360.00000
G01 X0.44745 Y22.25291
G01 X0.69499 Y22.25810
G01 X0.73617 Y22.13006
G01 X0.80302 Y22.01438
G01 X0.89243 Y21.91509
G01 X1.00122 Y21.83615
G01 X1.18806 Y21.76744
G01 X1.18768 Y21.51784
G01 X1.08996 Y21.52955
G01 X0.87503 Y21.61870
G01 X0.69045 Y21.76038
G01 X0.54877 Y21.94499
G01 X0.45961 Y22.15990
G01 X0.44745 Y22.25291
G04 P0 ( dwell for no time -- G64 should not smooth over this point )
G00 Z10.00000 ( retract )

G00 X0.44745 Y22.52850 ( rapid move to begin. )
G01 F30.00000
G01 Z-0.10000
G04 P0 ( dwell for no time -- G64 should not smooth over this point )
G01 F360.00000
G01 X0.44745 Y22.52850
G01 X0.69499 Y22.52332
G01 X0.73617 Y22.65136
G01 X0.80302 Y22.76704
G01 X0.89243 Y22.86632
G01 X1.00096 Y22.94517
G01 X1.18806 Y23.01398
G01 X1.18765 Y23.26361
G01 X1.08996 Y23.25190
G01 X0.87503 Y23.16274
G01 X0.69045 Y23.02106
G01 X0.54877 Y22.83645
G01 X0.45961 Y22.62155
G01 X0.44745 Y22.52850
G04 P0 ( dwell for no time -- G64 should not smooth over this point )
G00 Z10.00000 ( retract )

G00 X1.45285 Y23.01758 ( rapid move to begin. )
G01 F30.00000
G01 Z-0.10000
G04 P0 ( dwell for no time -- G64 should not smooth over this point )
G01 F360.00000
G01 X1.45285 Y23.01758
G01 X1.45390 Y23.26361
G01 X1.55161 Y23.25190
G01 X1.76652 Y23.16274
G01 X1.95113 Y23.02106
G01 X2.09281 Y22.83645
G01 X2.18196 Y22.62155
G01 X2.19367 Y22.52383
G01 X1.94655 Y22.52332
G01 X1.90538 Y22.65136
G01 X1.83853 Y22.76704
G01 X1.74932 Y22.86615
G01 X1.64059 Y22.94514
G01 X1.45285 Y23.01758
G04 P0 ( dwell for no time -- G64 should not smooth over this point )
G00 Z10.00000 ( retract )

G00 X1.71745 Y24.79291 ( rapid move to begin. )
G01 F30.00000
G01 Z-0.10000
G04 P0 ( dwell for no time -- G64 should not smooth over this point )
G01 F360.00000
G01 X1.71745 Y24.79291
G01 X1.96499 Y24.79810
G01 X2.00617 Y24.67006
G01 X2.07302 Y24.55438
G01 X2.16243 Y24.45509
G01 X2.27122 Y24.37615
G01 X2.45806 Y24.30744
G01 X2.45768 Y24.05784
G01 X2.35996 Y24.06955
G01 X2.14506 Y24.15870
G01 X1.96045 Y24.30038
G01 X1.81877 Y24.48499
G01 X1.72961 Y24.69990
G01 X1.71745 Y24.79291
G04 P0 ( dwell for no time -- G64 should not smooth over this point )
G00 Z10.00000 ( retract )

G00 X1.71745 Y25.06850 ( rapid move to begin. )
G01 F30.00000
G01 Z-0.10000
G04 P0 ( dwell for no time -- G64 should not smooth over this point )
G01 F360.00000
G01 X1.71745 Y25.06850
G01 X1.96499 Y25.06332
G01 X2.00617 Y25.19136
G01 X2.07302 Y25.30704
G01 X2.16243 Y25.40632
G01 X2.27096 Y25.48517
G01 X2.45806 Y25.55398
G01 X2.45765 Y25.80361
G01 X2.35996 Y25.79190
G01 X2.14506 Y25.70274
G01 X1.96045 Y25.56106
G01 X1.81877 Y25.37645
G01 X1.72961 Y25.16155
G01 X1.71745 Y25.06850
G04 P0 ( dwell for no time -- G64 should not smooth over this point )
G00 Z10.00000 ( retract )

G00 X2.72285 Y25.55756 ( rapid move to begin. )
G01 F30.00000
G01 Z-0.10000
G04 P0 ( dwell for no time -- G64 should not smooth over this point )
G01 F360.00000
G01 X2.72285 Y25.55756
G01 X2.72390 Y25.80361
G01 X2.82161 Y25.79190
G01 X3.03652 Y25.70274
G01 X3.22113 Y25.56106
G01 X3.36278 Y25.37645
G01 X3.45196 Y25.16155
G01 X3.46367 Y25.06383
G01 X3.21655 Y25.06332
G01 X3.17538 Y25.19136
G01 X3.10853 Y25.30704
G01 X3.01932 Y25.40615
G01 X2.91059 Y25.48514
G01 X2.72285 Y25.55756
G04 P0 ( dwell for no time -- G64 should not smooth over this point )
G00 Z10.00000 ( retract )

G00 X2.72285 Y24.06244 ( rapid move to begin. )
G01 F30.00000
G01 Z-0.10000
G04 P0 ( dwell for no time -- G64 should not smooth over this point )
G01 F360.00000
G01 X2.72285 Y24.06244
G01 X2.82161 Y24.06955
G01 X3.03652 Y24.15870
G01 X3.22113 Y24.30038
G01 X3.36278 Y24.48499
G01 X3.45196 Y24.69990
G01 X3.46367 Y24.79759
G01 X3.21655 Y24.79810
G01 X3.17538 Y24.67006
G01 X3.10853 Y24.55438
G01 X3.01932 Y24.45527
G01 X2.91059 Y24.37625
G01 X2.72349 Y24.30744
G01 X2.72285 Y24.06244
G04 P0 ( dwell for no time -- G64 should not smooth over this point )
G00 Z10.00000 ( retract )

G00 X1.45285 Y21.52244 ( rapid move to begin. )
G01 F30.00000
G01 Z-0.10000
G04 P0 ( dwell for no time -- G64 should not smooth over this point )
G01 F360.00000
G01 X1.45285 Y21.52244
G01 X1.55161 Y21.52955
G01 X1.76652 Y21.61870
G01 X1.95113 Y21.76038
G01 X2.09281 Y21.94499
G01 X2.18196 Y22.15990
G01 X2.19367 Y22.25759
G01 X1.94655 Y22.25810
G01 X1.90538 Y22.13006
G01 X1.83853 Y22.01438
G01 X1.74932 Y21.91527
G01 X1.64059 Y21.83625
G01 X1.45349 Y21.76744
G01 X1.45285 Y21.52244
G04 P0 ( dwell for no time -- G64 should not smooth over this point )
G00 Z10.00000 ( retract )

G00 X4.24256 Y19.35290 ( rapid move to begin. )
G01 F30.00000
G01 Z-0.10000
G04 P0 ( dwell for no time -- G64 should not smooth over this point )
G01 F360.00000
G01 X4.24256 Y19.35290
G01 X4.68546 Y19.34642
G01 X4.68793 Y18.71368
G01 X4.93001 Y18.71368
G01 X4.93001 Y19.59077
G01 X4.24343 Y19.59077
G01 X4.24256 Y19.35290
G04 P0 ( dwell for no time -- G64 should not smooth over this point )
G00 Z10.00000 ( retract )

G00 X4.24256 Y17.57490 ( rapid move to begin. )
G01 F30.00000
G01 Z-0.10000
G04 P0 ( dwell for no time -- G64 should not smooth over this point )
G01 F360.00000
G01 X4.24256 Y17.57490
G01 X4.24343 Y17.81277
G01 X4.68607 Y17.81574
G01 X4.68793 Y18.44777
G01 X4.93001 Y18.44777
G01 X4.93001 Y17.57068
G01 X4.24256 Y17.57490
G04 P0 ( dwell for no time -- G64 should not smooth over this point )
G00 Z10.00000 ( retract )

G00 X5.26893 Y18.53128 ( rapid move to begin. )
G01 F30.00000
G01 Z-0.10000
G04 P0 ( dwell for no time -- G64 should not smooth over this point )
G01 F360.00000
G01 X5.26893 Y18.53128
G01 X5.28130 Y18.43855
G01 X5.37019 Y18.22338
G01 X5.51188 Y18.03878
G01 X5.69674 Y17.89709
G01 X5.91165 Y17.80794
G01 X6.00936 Y17.79623
G01 X6.00974 Y18.04584
G01 X5.82290 Y18.11454
G01 X5.71411 Y18.19349
G01 X5.62470 Y18.29278
G01 X5.55785 Y18.40845
G01 X5.51668 Y18.53649
G01 X5.26893 Y18.53128
G04 P0 ( dwell for no time -- G64 should not smooth over this point )
G00 Z10.00000 ( retract )

G00 X5.26890 Y18.80692 ( rapid move to begin. )
G01 F30.00000
G01 Z-0.10000
G04 P0 ( dwell for no time -- G64 should not smooth over this point )
G01 F360.00000
G01 X5.26890 Y18.80692
G01 X5.28130 Y18.89994
G01 X5.37019 Y19.11485
G01 X5.51188 Y19.29945
G01 X5.69674 Y19.44139
G01 X5.91165 Y19.53029
G01 X6.00934 Y19.54223
G01 X6.00974 Y19.29237
G01 X5.82290 Y19.22366
G01 X5.71411 Y19.14472
G01 X5.62470 Y19.04543
G01 X5.55785 Y18.92976
G01 X5.51668 Y18.80172
G01 X5.26890 Y18.80692
G04 P0 ( dwell for no time -- G64 should not smooth over this point )
G00 Z10.00000 ( retract )

G00 X6.27454 Y19.29597 ( rapid move to begin. )
G01 F30.00000
G01 Z-0.10000
G04 P0 ( dwell for no time -- G64 should not smooth over this point )
G01 F360.00000
G01 X6.27454 Y19.29597
G01 X6.46227 Y19.22353
G01 X6.57101 Y19.14454
G01 X6.66021 Y19.04543
G01 X6.72706 Y18.92976
G01 X6.76824 Y18.80172
G01 X7.01535 Y18.80222
G01 X7.00364 Y18.89994
G01 X6.91449 Y19.11485
G01 X6.77281 Y19.29945
G01 X6.58820 Y19.44139
G01 X6.37304 Y19.53029
G01 X6.27560 Y19.54223
G01 X6.27454 Y19.29597
G04 P0 ( dwell for no time -- G64 should not smooth over this point )
G00 Z10.00000 ( retract )

G00 X6.27454 Y17.80080 ( rapid move to begin. )
G01 F30.00000
G01 Z-0.10000
G04 P0 ( dwell for no time -- G64 should not smooth over this point )
G01 F360.00000
G01 X6.27454 Y17.80080
G01 X6.37304 Y17.80794
G01 X6.58820 Y17.89709
G01 X6.77281 Y18.03878
G01 X6.91449 Y18.22338
G01 X7.00364 Y18.43855
G01 X7.01535 Y18.53598
G01 X6.76824 Y18.53649
G01 X6.72706 Y18.40845
G01 X6.66021 Y18.29278
G01 X6.57101 Y18.19366
G01 X6.46227 Y18.11465
G01 X6.27517 Y18.04584
G01 X6.27454 Y17.80080
G04 P0 ( dwell for no time -- G64 should not smooth over this point )
G00 Z10.00000 ( retract )

G00 X6.27454 Y16.24797 ( rapid move to begin. )
G01 F30.00000
G01 Z-0.10000
G04 P0 ( dwell for no time -- G64 should not smooth over this point )
G01 F360.00000
G01 X6.27454 Y16.24797
G01 X6.46227 Y16.17553
G01 X6.57101 Y16.09654
G01 X6.66021 Y15.99743
G01 X6.72706 Y15.88176
G01 X6.76824 Y15.75372
G01 X7.01535 Y15.75422
G01 X7.00364 Y15.85194
G01 X6.91449 Y16.06685
G01 X6.77281 Y16.25145
G01 X6.58820 Y16.39339
G01 X6.37304 Y16.48229
G01 X6.27560 Y16.49423
G01 X6.27454 Y16.24797
G04 P0 ( dwell for no time -- G64 should not smooth over this point )
G00 Z10.00000 ( retract )

G00 X5.26890 Y15.75892 ( rapid move to begin. )
G01 F30.00000
G01 Z-0.10000
G04 P0 ( dwell for no time -- G64 should not smooth over this point )
G01 F360.00000
G01 X5.26890 Y15.75892
G01 X5.28130 Y15.85194
G01 X5.37019 Y16.06685
G01 X5.51188 Y16.25145
G01 X5.69674 Y16.39339
G01 X5.91165 Y16.48229
G01 X6.00934 Y16.49423
G01 X6.00974 Y16.24437
G01 X5.82290 Y16.17566
G01 X5.71411 Y16.09672
G01 X5.62470 Y15.99743
G01 X5.55785 Y15.88176
G01 X5.51668 Y15.75372
G01 X5.26890 Y15.75892
G04 P0 ( dwell for no time -- G64 should not smooth over this point )
G00 Z10.00000 ( retract )

G00 X5.26893 Y15.48328 ( rapid move to begin. )
G01 F30.00000
G01 Z-0.10000
G04 P0 ( dwell for no time -- G64 should not smooth over this point )
G01 F360.00000
G01 X5.26893 Y15.48328
G01 X5.28130 Y15.39055
G01 X5.37019 Y15.17538
G01 X5.51188 Y14.99078
G01 X5.69674 Y14.84909
G01 X5.91165 Y14.75994
G01 X6.00936 Y14.74823
G01 X6.00974 Y14.99784
G01 X5.82290 Y15.06654
G01 X5.71411 Y15.14549
G01 X5.62470 Y15.24478
G01 X5.55785 Y15.36045
G01 X5.51668 Y15.48849
G01 X5.26893 Y15.48328
G04 P0 ( dwell for no time -- G64 should not smooth over this point )
G00 Z10.00000 ( retract )

G00 X6.27454 Y14.75280 ( rapid move to begin. )
G01 F30.00000
G01 Z-0.10000
G04 P0 ( dwell for no time -- G64 should not smooth over this point )
G01 F360.00000
G01 X6.27454 Y14.75280
G01 X6.37304 Y14.75994
G01 X6.58820 Y14.84909
G01 X6.77281 Y14.99078
G01 X6.91449 Y15.17538
G01 X7.00364 Y15.39055
G01 X7.01535 Y15.48798
G01 X6.76824 Y15.48849
G01 X6.72706 Y15.36045
G01 X6.66021 Y15.24478
G01 X6.57101 Y15.14566
G01 X6.46227 Y15.06665
G01 X6.27517 Y14.99784
G01 X6.27454 Y14.75280
G04 P0 ( dwell for no time -- G64 should not smooth over this point )
G00 Z10.00000 ( retract )

G00 X5.14942 Y12.83660 ( rapid move to begin. )
G01 F30.00000
G01 Z-0.10000
G04 P0 ( dwell for no time -- G64 should not smooth over this point )
G01 F360.00000
G01 X5.14942 Y12.83660
G01 X5.23568 Y12.99573
G01 X5.24972 Y13.24265
G01 X5.27873 Y13.38837
G01 X5.35328 Y13.50175
G01 X6.11711 Y14.26967
G01 X6.25056 Y14.36037
G01 X6.33514 Y14.38062
G01 X11.51204 Y14.39068
G01 X11.57414 Y14.39799
G01 X11.69802 Y14.54887
G01 X11.85583 Y14.67142
G01 X12.04064 Y14.74673
G01 X12.23846 Y14.77223
G01 X12.48674 Y14.72956
G01 X12.62108 Y14.67145
G01 X12.73858 Y14.58412
G01 X12.89967 Y14.39045
G01 X12.98689 Y14.15412
G01 X13.00371 Y14.00871
G01 X12.97648 Y13.81089
G01 X12.89967 Y13.62700
G01 X12.84676 Y13.55032
G01 X12.75923 Y13.45049
G01 X12.62108 Y13.34600
G01 X12.43607 Y13.27066
G01 X12.30485 Y13.24955
G01 X12.17209 Y13.24955
G01 X12.04064 Y13.27069
G01 X11.85583 Y13.34600
G01 X11.69802 Y13.46858
G01 X11.57414 Y13.61945
G01 X11.51204 Y13.62677
G01 X6.55681 Y13.62154
G01 X6.25673 Y13.32883
G01 X6.19582 Y13.23645
G01 X6.16641 Y13.11257
G01 X6.15777 Y13.02421
G01 X6.17063 Y12.98191
G01 X6.09884 Y12.78781
G01 X6.04850 Y12.59258
G01 X6.02016 Y12.40373
G01 X6.02016 Y12.05769
G01 X6.05617 Y11.83290
G01 X6.11210 Y11.63208
G01 X6.02513 Y11.47181
G01 X6.01236 Y11.38974
G01 X6.01236 Y10.97778
G01 X5.98211 Y10.81916
G01 X5.89117 Y10.68540
G01 X5.21340 Y9.99226
G01 X5.25722 Y9.69043
G01 X5.22541 Y9.46005
G01 X5.13585 Y9.24540
G01 X4.99476 Y9.06043
G01 X4.81084 Y8.91751
G01 X4.59509 Y8.82975
G01 X4.36446 Y8.79993
G01 X4.07683 Y8.84888
G01 X3.91790 Y8.91756
G01 X3.77922 Y9.02068
G01 X3.59306 Y9.24540
G01 X3.49161 Y9.51888
G01 X3.47160 Y9.69074
G01 X3.50347 Y9.92134
G01 X3.59308 Y10.13605
G01 X3.65336 Y10.22381
G01 X3.75851 Y10.34352
G01 X3.91790 Y10.46389
G01 X4.13360 Y10.55167
G01 X4.28483 Y10.57626
G01 X4.44409 Y10.57628
G01 X4.65684 Y10.54499
G01 X5.24322 Y11.12515
G01 X5.24845 Y11.38365
G01 X5.23568 Y11.46571
G01 X5.14942 Y11.62484
G01 X5.20898 Y11.83508
G01 X5.24167 Y12.02944
G01 X5.25305 Y12.21740
G01 X5.24167 Y12.43198
G01 X5.20898 Y12.62634
G01 X5.14942 Y12.83660
G01 X4.97556 Y12.88814
G01 X4.81081 Y13.00394
G01 X4.59509 Y13.09169
G01 X4.36446 Y13.12149
G01 X4.10210 Y13.08189
G01 X3.90685 Y12.99606
G01 X3.75851 Y12.88352
G01 X3.65336 Y12.76381
G01 X3.59308 Y12.67605
G01 X3.50347 Y12.46134
G01 X3.47284 Y12.21712
G01 X3.50347 Y12.00010
G01 X3.55778 Y11.85692
G01 X3.65336 Y11.69761
G01 X3.77922 Y11.56068
G01 X3.91790 Y11.45756
G01 X4.07683 Y11.38888
G01 X4.36446 Y11.34006
G01 X4.62679 Y11.37958
G01 X4.81081 Y11.45748
G01 X4.97556 Y11.57328
G01 X5.14942 Y11.62484
G04 P0 ( dwell for no time -- G64 should not smooth over this point )
G00 Z10.00000 ( retract )

G00 X6.11210 Y11.63208 ( rapid move to begin. )
G01 F30.00000
G01 Z-0.10000
G04 P0 ( dwell for no time -- G64 should not smooth over this point )
G01 F360.00000
G01 X6.11210 Y11.63208
G01 X6.29501 Y11.57475
G01 X6.45792 Y11.45753
G01 X6.67355 Y11.36980
G01 X6.90446 Y11.34006
G01 X7.16679 Y11.37958
G01 X7.36204 Y11.46541
G01 X7.53476 Y11.60043
G01 X7.63151 Y11.71898
G01 X7.71114 Y11.85692
G01 X7.76541 Y12.00005
G01 X7.79722 Y12.23074
G01 X7.76541 Y12.46139
G01 X7.67585 Y12.67605
G01 X7.53476 Y12.86101
G01 X7.33847 Y13.00963
G01 X7.13509 Y13.09169
G01 X6.90446 Y13.12149
G01 X6.67360 Y13.09167
G01 X6.36255 Y12.97661
G01 X6.17063 Y12.98191
G04 P0 ( dwell for no time -- G64 should not smooth over this point )
G00 Z10.00000 ( retract )

G00 X8.55160 Y12.23074 ( rapid move to begin. )
G01 F30.00000
G01 Z-0.10000
G04 P0 ( dwell for no time -- G64 should not smooth over this point )
G01 F360.00000
G01 X8.55160 Y12.23074
G01 X8.57618 Y12.03234
G01 X8.62726 Y11.88143
G01 X8.67306 Y11.78540
G01 X8.81421 Y11.60041
G01 X8.99790 Y11.45756
G01 X9.15683 Y11.38888
G01 X9.44446 Y11.34006
G01 X9.73206 Y11.38890
G01 X9.89084 Y11.45751
G01 X10.07476 Y11.60043
G01 X10.21585 Y11.78540
G01 X10.26168 Y11.88143
G01 X10.31273 Y12.03234
G01 X10.33722 Y12.23074
G01 X10.31273 Y12.42908
G01 X10.26168 Y12.57999
G01 X10.21585 Y12.67605
G01 X10.07476 Y12.86101
G01 X9.89084 Y13.00391
G01 X9.73206 Y13.07252
G01 X9.44446 Y13.12149
G01 X9.15683 Y13.07257
G01 X8.99790 Y13.00389
G01 X8.81421 Y12.86104
G01 X8.67308 Y12.67605
G01 X8.62726 Y12.57999
G01 X8.57618 Y12.42908
G01 X8.55160 Y12.23074
G04 P0 ( dwell for no time -- G64 should not smooth over this point )
G00 Z10.00000 ( retract )

G00 X6.01160 Y9.69074 ( rapid move to begin. )
G01 F30.00000
G01 Z-0.10000
G04 P0 ( dwell for no time -- G64 should not smooth over this point )
G01 F360.00000
G01 X6.01160 Y9.69074
G01 X6.03618 Y9.49234
G01 X6.08726 Y9.34143
G01 X6.13306 Y9.24540
G01 X6.27421 Y9.06041
G01 X6.45790 Y8.91756
G01 X6.61683 Y8.84888
G01 X6.90446 Y8.79993
G01 X7.19206 Y8.84890
G01 X7.35084 Y8.91751
G01 X7.53476 Y9.06043
G01 X7.67585 Y9.24540
G01 X7.72168 Y9.34143
G01 X7.77273 Y9.49234
G01 X7.79722 Y9.69074
G01 X7.77273 Y9.88908
G01 X7.72168 Y10.03999
G01 X7.67585 Y10.13605
G01 X7.53476 Y10.32101
G01 X7.35084 Y10.46391
G01 X7.19206 Y10.53252
G01 X6.90446 Y10.58149
G01 X6.61683 Y10.53257
G01 X6.45790 Y10.46389
G01 X6.27421 Y10.32104
G01 X6.13308 Y10.13605
G01 X6.08726 Y10.03999
G01 X6.03618 Y9.88908
G01 X6.01160 Y9.69074
G04 P0 ( dwell for no time -- G64 should not smooth over this point )
G00 Z10.00000 ( retract )

G00 X8.55160 Y9.69074 ( rapid move to begin. )
G01 F30.00000
G01 Z-0.10000
G04 P0 ( dwell for no time -- G64 should not smooth over this point )
G01 F360.00000
G01 X8.55160 Y9.69074
G01 X8.57618 Y9.49234
G01 X8.62726 Y9.34143
G01 X8.67306 Y9.24540
G01 X8.81421 Y9.06041
G01 X8.99790 Y8.91756
G01 X9.15683 Y8.84888
G01 X9.44446 Y8.79993
G01 X9.73206 Y8.84890
G01 X9.89084 Y8.91751
G01 X10.07476 Y9.06043
G01 X10.21585 Y9.24540
G01 X10.26168 Y9.34143
G01 X10.31273 Y9.49234
G01 X10.33722 Y9.69074
G01 X10.31273 Y9.88908
G01 X10.26168 Y10.03999
G01 X10.21585 Y10.13605
G01 X10.07476 Y10.32101
G01 X9.89084 Y10.46391
G01 X9.73206 Y10.53252
G01 X9.44446 Y10.58149
G01 X9.15683 Y10.53257
G01 X8.99790 Y10.46389
G01 X8.81421 Y10.32104
G01 X8.67308 Y10.13605
G01 X8.62726 Y10.03999
G01 X8.57618 Y9.88908
G01 X8.55160 Y9.69074
G04 P0 ( dwell for no time -- G64 should not smooth over this point )
G00 Z10.00000 ( retract )

G00 X6.39638 Y3.54668 ( rapid move to begin. )
G01 F30.00000
G01 Z-0.10000
G04 P0 ( dwell for no time -- G64 should not smooth over this point )
G01 F360.00000
G01 X6.39638 Y3.54668
G01 X10.44829 Y3.55067
G01 X10.78362 Y3.52080
G01 X10.78370 Y3.95354
G01 X10.76361 Y4.11099
G01 X10.51987 Y4.61922
G01 X10.51791 Y4.65585
G01 X10.52589 Y4.81091
G01 X10.56091 Y4.97266
G01 X10.84407 Y5.96323
G01 X10.39419 Y6.07398
G01 X10.04032 Y6.10037
G01 X9.66574 Y6.06740
G01 X9.29414 Y5.97593
G01 X8.90006 Y5.81155
G01 X8.53445 Y5.60085
G01 X8.21042 Y5.36270
G01 X7.75066 Y4.95059
G01 X6.95081 Y4.15074
G01 X6.39638 Y3.54668
G01 X5.75069 Y2.95059
G01 X4.95084 Y2.15075
G01 X4.38300 Y1.55067
G01 X3.75069 Y0.95060
G01 X2.85605 Y0.05080
G01 X45.77080 Y0.05080
G01 X45.77080 Y27.47074
G01 X0.05080 Y27.47074
G01 X0.05080 Y0.05080
G01 X2.85605 Y0.05080
G04 P0 ( dwell for no time -- G64 should not smooth over this point )
G00 Z10.00000 ( retract )

G00 X4.38300 Y1.55067 ( rapid move to begin. )
G01 F30.00000
G01 Z-0.10000
G04 P0 ( dwell for no time -- G64 should not smooth over this point )
G01 F360.00000
G01 X4.38300 Y1.55067
G01 X10.02899 Y1.55006
G01 X10.31664 Y1.58029
G01 X10.78179 Y1.52161
G01 X10.78078 Y2.01788
G01 X10.75870 Y2.12540
G01 X10.65703 Y2.35006
G01 X10.71001 Y2.48966
G01 X10.73597 Y2.65046
G01 X11.02142 Y3.41815
G01 X10.78362 Y3.52080
G04 P0 ( dwell for no time -- G64 should not smooth over this point )
G00 Z10.00000 ( retract )

G00 X10.15578 Y2.52755 ( rapid move to begin. )
G01 F30.00000
G01 Z-0.10000
G04 P0 ( dwell for no time -- G64 should not smooth over this point )
G01 F360.00000
G01 X10.15578 Y2.52755
G01 X10.40701 Y2.52268
G01 X10.47867 Y2.59423
G01 X10.47869 Y2.77368
G01 X10.40696 Y2.84541
G01 X10.15665 Y2.84472
G01 X10.15578 Y2.52755
G04 P0 ( dwell for no time -- G64 should not smooth over this point )
G00 Z10.00000 ( retract )

G00 X10.97646 Y2.52476 ( rapid move to begin. )
G01 F30.00000
G01 Z-0.10000
G04 P0 ( dwell for no time -- G64 should not smooth over this point )
G01 F360.00000
G01 X10.97646 Y2.52476
G01 X11.25781 Y2.52479
G01 X11.20681 Y2.57871
G01 X11.02937 Y2.57889
G01 X10.97646 Y2.52476
G04 P0 ( dwell for no time -- G64 should not smooth over this point )
G00 Z10.00000 ( retract )

G00 X10.78179 Y1.52161 ( rapid move to begin. )
G01 F30.00000
G01 Z-0.10000
G04 P0 ( dwell for no time -- G64 should not smooth over this point )
G01 F360.00000
G01 X10.78179 Y1.52161
G01 X11.02858 Y1.41440
G01 X10.98690 Y1.28082
G01 X10.73531 Y0.78090
G01 X10.71834 Y0.70470
G01 X10.71415 Y0.50470
G01 X10.69520 Y0.43904
G01 X10.60384 Y0.22281
G01 X10.49439 Y0.05080
G04 P0 ( dwell for no time -- G64 should not smooth over this point )
G00 Z10.00000 ( retract )

G00 X10.15578 Y0.52756 ( rapid move to begin. )
G01 F30.00000
G01 Z-0.10000
G04 P0 ( dwell for no time -- G64 should not smooth over this point )
G01 F360.00000
G01 X10.15578 Y0.52756
G01 X10.40701 Y0.52268
G01 X10.47867 Y0.59423
G01 X10.47869 Y0.77368
G01 X10.40696 Y0.84541
G01 X10.15665 Y0.84473
G01 X10.15578 Y0.52756
G04 P0 ( dwell for no time -- G64 should not smooth over this point )
G00 Z10.00000 ( retract )

G00 X11.24958 Y0.05080 ( rapid move to begin. )
G01 F30.00000
G01 Z-0.10000
G04 P0 ( dwell for no time -- G64 should not smooth over this point )
G01 F360.00000
G01 X11.24958 Y0.05080
G01 X11.25662 Y0.24930
G01 X11.28265 Y0.29228
G01 X11.45202 Y0.42078
G01 X11.44801 Y1.41671
G01 X11.02858 Y1.41440
G04 P0 ( dwell for no time -- G64 should not smooth over this point )
G00 Z10.00000 ( retract )

G00 X11.44801 Y1.41671 ( rapid move to begin. )
G01 F30.00000
G01 Z-0.10000
G04 P0 ( dwell for no time -- G64 should not smooth over this point )
G01 F360.00000
G01 X11.44801 Y1.41671
G01 X11.58281 Y1.45402
G01 X11.58276 Y1.98364
G01 X11.56233 Y2.16108
G01 X11.58344 Y2.32184
G01 X11.54105 Y2.55054
G01 X11.45789 Y2.78602
G01 X11.44968 Y3.35841
G01 X11.34928 Y3.41356
G04 P0 ( dwell for no time -- G64 should not smooth over this point )
G00 Z10.00000 ( retract )

G00 X11.44968 Y3.35841 ( rapid move to begin. )
G01 F30.00000
G01 Z-0.10000
G04 P0 ( dwell for no time -- G64 should not smooth over this point )
G01 F360.00000
G01 X11.44968 Y3.35841
G01 X11.91677 Y3.25529
G01 X12.31339 Y3.30510
G01 X12.31567 Y2.64467
G01 X12.34389 Y2.46936
G01 X12.32225 Y2.37769
G01 X12.25410 Y2.28783
G01 X12.21214 Y2.19667
G01 X12.18809 Y2.08745
G01 X12.18354 Y1.43472
G01 X12.04816 Y1.39911
G01 X11.58281 Y1.45402
G04 P0 ( dwell for no time -- G64 should not smooth over this point )
G00 Z10.00000 ( retract )

G00 X12.04816 Y1.39911 ( rapid move to begin. )
G01 F30.00000
G01 Z-0.10000
G04 P0 ( dwell for no time -- G64 should not smooth over this point )
G01 F360.00000
G01 X12.04816 Y1.39911
G01 X12.04986 Y0.38113
G01 X12.10701 Y0.23647
G01 X12.11674 Y0.05080
G04 P0 ( dwell for no time -- G64 should not smooth over this point )
G00 Z10.00000 ( retract )

G00 X12.91801 Y1.45811 ( rapid move to begin. )
G01 F30.00000
G01 Z-0.10000
G04 P0 ( dwell for no time -- G64 should not smooth over this point )
G01 F360.00000
G01 X12.91801 Y1.45811
G01 X13.29860 Y1.48219
G01 X13.71712 Y1.41709
G01 X13.72570 Y2.06700
G01 X13.74859 Y2.14747
G01 X13.84483 Y2.34221
G01 X13.80698 Y2.46758
G01 X13.78290 Y2.48757
G01 X13.77886 Y3.50639
G01 X13.46114 Y3.43312
G01 X13.04966 Y3.41727
G04 P0 ( dwell for no time -- G64 should not smooth over this point )
G00 Z10.00000 ( retract )

G00 X13.77886 Y3.50639 ( rapid move to begin. )
G01 F30.00000
G01 Z-0.10000
G04 P0 ( dwell for no time -- G64 should not smooth over this point )
G01 F360.00000
G01 X13.77886 Y3.50639
G01 X14.04948 Y3.63502
G01 X14.04948 Y3.96537
G01 X14.19992 Y4.34246
G01 X14.24569 Y4.60040
G01 X14.23007 Y4.89448
G01 X13.99929 Y5.94340
G01 X13.67221 Y5.96621
G01 X13.04613 Y5.95917
G04 P0 ( dwell for no time -- G64 should not smooth over this point )
G00 Z10.00000 ( retract )

G00 X12.38326 Y5.95884 ( rapid move to begin. )
G01 F30.00000
G01 Z-0.10000
G04 P0 ( dwell for no time -- G64 should not smooth over this point )
G01 F360.00000
G01 X12.38326 Y5.95884
G01 X13.04613 Y5.95917
G01 X13.05126 Y4.85364
G01 X13.11643 Y4.55054
G01 X13.11029 Y4.36039
G01 X13.04348 Y4.22112
G01 X13.04966 Y3.41727
G01 X12.91651 Y3.38087
G01 X12.61989 Y3.41640
G04 P0 ( dwell for no time -- G64 should not smooth over this point )
G00 Z10.00000 ( retract )

G00 X12.31339 Y3.30510 ( rapid move to begin. )
G01 F30.00000
G01 Z-0.10000
G04 P0 ( dwell for no time -- G64 should not smooth over this point )
G01 F360.00000
G01 X12.31339 Y3.30510
G01 X12.61989 Y3.41640
G01 X12.33510 Y4.18389
G01 X12.31646 Y4.27741
G01 X12.32073 Y4.59613
G01 X12.36782 Y4.74442
G01 X12.38324 Y4.88406
G01 X12.38326 Y5.95884
G01 X11.45464 Y5.95915
G04 P0 ( dwell for no time -- G64 should not smooth over this point )
G00 Z10.00000 ( retract )

G00 X10.84407 Y5.96323 ( rapid move to begin. )
G01 F30.00000
G01 Z-0.10000
G04 P0 ( dwell for no time -- G64 should not smooth over this point )
G01 F360.00000
G01 X10.84407 Y5.96323
G01 X11.45464 Y5.95915
G01 X11.45167 Y4.85374
G01 X11.46774 Y4.73233
G01 X11.51539 Y4.58399
G01 X11.52114 Y4.23857
G01 X11.57592 Y4.05003
G01 X11.58464 Y3.88536
G01 X11.34928 Y3.41356
G01 X11.02142 Y3.41815
G04 P0 ( dwell for no time -- G64 should not smooth over this point )
G00 Z10.00000 ( retract )

G00 X11.00028 Y4.28404 ( rapid move to begin. )
G01 F30.00000
G01 Z-0.10000
G04 P0 ( dwell for no time -- G64 should not smooth over this point )
G01 F360.00000
G01 X11.00028 Y4.28404
G01 X11.02939 Y4.25580
G01 X11.27874 Y4.26088
G01 X11.27366 Y4.31218
G01 X11.02728 Y4.31201
G01 X11.00028 Y4.28404
G04 P0 ( dwell for no time -- G64 should not smooth over this point )
G00 Z10.00000 ( retract )

G00 X12.57572 Y4.52453 ( rapid move to begin. )
G01 F30.00000
G01 Z-0.10000
G04 P0 ( dwell for no time -- G64 should not smooth over this point )
G01 F360.00000
G01 X12.57572 Y4.52453
G01 X12.62901 Y4.57888
G01 X12.80625 Y4.57871
G01 X12.85751 Y4.52453
G01 X12.57572 Y4.52453
G04 P0 ( dwell for no time -- G64 should not smooth over this point )
G00 Z10.00000 ( retract )

G00 X12.91651 Y3.38087 ( rapid move to begin. )
G01 F30.00000
G01 Z-0.10000
G04 P0 ( dwell for no time -- G64 should not smooth over this point )
G01 F360.00000
G01 X12.91651 Y3.38087
G01 X12.91410 Y2.94262
G01 X12.85024 Y2.57000
G01 X12.87292 Y2.39304
G01 X12.91651 Y2.35186
G01 X12.91801 Y1.45811
G01 X12.81681 Y1.41740
G04 P0 ( dwell for no time -- G64 should not smooth over this point )
G00 Z10.00000 ( retract )

G00 X12.18354 Y1.43472 ( rapid move to begin. )
G01 F30.00000
G01 Z-0.10000
G04 P0 ( dwell for no time -- G64 should not smooth over this point )
G01 F360.00000
G01 X12.18354 Y1.43472
G01 X12.45486 Y1.41704
G01 X12.81681 Y1.41740
G01 X12.91687 Y1.01636
G01 X12.91907 Y0.83378
G01 X12.93861 Y0.71991
G01 X13.04973 Y0.49723
G01 X13.05456 Y0.22548
G01 X13.09990 Y0.05080
G04 P0 ( dwell for no time -- G64 should not smooth over this point )
G00 Z10.00000 ( retract )

G00 X13.98252 Y0.05080 ( rapid move to begin. )
G01 F30.00000
G01 Z-0.10000
G04 P0 ( dwell for no time -- G64 should not smooth over this point )
G01 F360.00000
G01 X13.98252 Y0.05080
G01 X13.97373 Y0.29825
G01 X13.95319 Y0.41753
G01 X13.98262 Y0.67346
G01 X13.97000 Y0.85293
G01 X13.87058 Y1.34016
G04 P0 ( dwell for no time -- G64 should not smooth over this point )
G00 Z10.00000 ( retract )

G00 X13.71712 Y1.41709 ( rapid move to begin. )
G01 F30.00000
G01 Z-0.10000
G04 P0 ( dwell for no time -- G64 should not smooth over this point )
G01 F360.00000
G01 X13.71712 Y1.41709
G01 X13.87058 Y1.34016
G01 X14.10520 Y1.45560
G01 X14.44950 Y1.57295
G01 X14.43756 Y2.02778
G01 X14.31610 Y2.38130
G01 X14.31994 Y2.62004
G01 X14.37927 Y2.92768
G01 X14.38041 Y3.45453
G01 X14.04948 Y3.63502
G04 P0 ( dwell for no time -- G64 should not smooth over this point )
G00 Z10.00000 ( retract )

G00 X14.38041 Y3.45453 ( rapid move to begin. )
G01 F30.00000
G01 Z-0.10000
G04 P0 ( dwell for no time -- G64 should not smooth over this point )
G01 F360.00000
G01 X14.38041 Y3.45453
G01 X14.90536 Y3.41874
G01 X15.11584 Y3.43553
G01 X15.21711 Y3.41650
G01 X15.58234 Y3.43065
G01 X15.58115 Y3.97939
G01 X15.51579 Y4.28092
G01 X15.52677 Y4.36062
G01 X15.60477 Y4.55138
G01 X15.58511 Y4.64231
G01 X15.59174 Y4.76771
G01 X15.65377 Y4.92128
G01 X15.85747 Y5.23687
G01 X16.05572 Y5.66720
G01 X16.17358 Y5.96402
G01 X15.86103 Y6.05061
G01 X15.52367 Y6.09531
G01 X14.64358 Y6.09056
G01 X14.38846 Y6.05450
G01 X13.99929 Y5.94340
G04 P0 ( dwell for no time -- G64 should not smooth over this point )
G00 Z10.00000 ( retract )

G00 X15.79875 Y4.28404 ( rapid move to begin. )
G01 F30.00000
G01 Z-0.10000
G04 P0 ( dwell for no time -- G64 should not smooth over this point )
G01 F360.00000
G01 X15.79875 Y4.28404
G01 X15.82580 Y4.31201
G01 X16.07198 Y4.31218
G01 X16.07706 Y4.26085
G01 X15.82788 Y4.25577
G01 X15.79875 Y4.28404
G04 P0 ( dwell for no time -- G64 should not smooth over this point )
G00 Z10.00000 ( retract )

G00 X17.37403 Y4.52453 ( rapid move to begin. )
G01 F30.00000
G01 Z-0.10000
G04 P0 ( dwell for no time -- G64 should not smooth over this point )
G01 F360.00000
G01 X17.37403 Y4.52453
G01 X17.42529 Y4.57871
G01 X17.60273 Y4.57888
G01 X17.65590 Y4.52450
G01 X17.37403 Y4.52453
G04 P0 ( dwell for no time -- G64 should not smooth over this point )
G00 Z10.00000 ( retract )

G00 X17.94723 Y4.41709 ( rapid move to begin. )
G01 F30.00000
G01 Z-0.10000
G04 P0 ( dwell for no time -- G64 should not smooth over this point )
G01 F360.00000
G01 X17.94723 Y4.41709
G01 X19.18642 Y4.42001
G01 X19.13070 Y4.71416
G01 X18.97050 Y5.84606
G04 P0 ( dwell for no time -- G64 should not smooth over this point )
G00 Z10.00000 ( retract )

G00 X19.18642 Y4.42001 ( rapid move to begin. )
G01 F30.00000
G01 Z-0.10000
G04 P0 ( dwell for no time -- G64 should not smooth over this point )
G01 F360.00000
G01 X19.18642 Y4.42001
G01 X19.24985 Y4.24515
G01 X19.25066 Y3.67200
G04 P0 ( dwell for no time -- G64 should not smooth over this point )
G00 Z10.00000 ( retract )

G00 X20.95561 Y4.32971 ( rapid move to begin. )
G01 F30.00000
G01 Z-0.10000
G04 P0 ( dwell for no time -- G64 should not smooth over this point )
G01 F360.00000
G01 X20.95561 Y4.32971
G01 X21.02752 Y4.25597
G01 X21.20679 Y4.25597
G01 X21.27852 Y4.32770
G01 X21.27852 Y4.50698
G01 X21.20679 Y4.57871
G01 X21.02752 Y4.57871
G01 X20.95579 Y4.50698
G01 X20.95561 Y4.32971
G04 P0 ( dwell for no time -- G64 should not smooth over this point )
G00 Z10.00000 ( retract )

G00 X21.75523 Y4.26088 ( rapid move to begin. )
G01 F30.00000
G01 Z-0.10000
G04 P0 ( dwell for no time -- G64 should not smooth over this point )
G01 F360.00000
G01 X21.75523 Y4.26088
G01 X22.00656 Y4.25600
G01 X22.07811 Y4.32765
G01 X22.07811 Y4.50703
G01 X22.00656 Y4.57868
G01 X21.75609 Y4.57799
G01 X21.75523 Y4.26088
G04 P0 ( dwell for no time -- G64 should not smooth over this point )
G00 Z10.00000 ( retract )

G00 X22.65467 Y3.69588 ( rapid move to begin. )
G01 F30.00000
G01 Z-0.10000
G04 P0 ( dwell for no time -- G64 should not smooth over this point )
G01 F360.00000
G01 X22.65467 Y3.69588
G01 X22.84989 Y3.58750
G01 X22.84994 Y1.57292
G01 X22.31669 Y1.54325
G01 X21.98309 Y1.50622
G04 P0 ( dwell for no time -- G64 should not smooth over this point )
G00 Z10.00000 ( retract )

G00 X21.84636 Y1.41839 ( rapid move to begin. )
G01 F30.00000
G01 Z-0.10000
G04 P0 ( dwell for no time -- G64 should not smooth over this point )
G01 F360.00000
G01 X21.84636 Y1.41839
G01 X21.71962 Y1.02418
G01 X21.61677 Y0.77120
G01 X21.49752 Y0.59858
G01 X21.22472 Y0.31587
G01 X21.11672 Y0.11552
G01 X21.11799 Y0.05080
G04 P0 ( dwell for no time -- G64 should not smooth over this point )
G00 Z10.00000 ( retract )

G00 X20.51822 Y0.05080 ( rapid move to begin. )
G01 F30.00000
G01 Z-0.10000
G04 P0 ( dwell for no time -- G64 should not smooth over this point )
G01 F360.00000
G01 X20.51822 Y0.05080
G01 X20.51431 Y0.20330
G01 X20.46153 Y0.38766
G01 X20.54804 Y0.62888
G01 X20.48231 Y0.76705
G01 X20.45429 Y0.88699
G01 X20.44903 Y1.52070
G04 P0 ( dwell for no time -- G64 should not smooth over this point )
G00 Z10.00000 ( retract )

G00 X21.98807 Y0.05080 ( rapid move to begin. )
G01 F30.00000
G01 Z-0.10000
G04 P0 ( dwell for no time -- G64 should not smooth over this point )
G01 F360.00000
G01 X21.98807 Y0.05080
G01 X22.02754 Y0.24910
G01 X22.17692 Y0.62642
G01 X22.18172 Y0.71163
G01 X22.13643 Y0.84480
G01 X21.84527 Y1.40264
G04 P0 ( dwell for no time -- G64 should not smooth over this point )
G00 Z10.00000 ( retract )

G00 X21.31631 Y1.56533 ( rapid move to begin. )
G01 F30.00000
G01 Z-0.10000
G04 P0 ( dwell for no time -- G64 should not smooth over this point )
G01 F360.00000
G01 X21.31631 Y1.56533
G01 X21.59465 Y1.50111
G01 X21.84636 Y1.41839
G01 X21.98309 Y1.50622
G01 X21.97407 Y1.96652
G01 X21.92109 Y2.21704
G01 X21.90140 Y2.40932
G01 X21.81027 Y2.61953
G01 X21.58495 Y2.88605
G01 X21.35673 Y2.62019
G01 X21.28871 Y2.48493
G01 X21.26005 Y2.38587
G01 X21.31568 Y2.18234
G01 X21.31631 Y1.56533
G01 X20.85439 Y1.55070
G01 X20.65096 Y1.56535
G04 P0 ( dwell for no time -- G64 should not smooth over this point )
G00 Z10.00000 ( retract )

G00 X20.15576 Y2.32971 ( rapid move to begin. )
G01 F30.00000
G01 Z-0.10000
G04 P0 ( dwell for no time -- G64 should not smooth over this point )
G01 F360.00000
G01 X20.15576 Y2.32971
G01 X20.15594 Y2.77368
G01 X20.22767 Y2.84541
G01 X20.40694 Y2.84541
G01 X20.47867 Y2.77368
G01 X20.47867 Y2.32771
G01 X20.40694 Y2.25598
G01 X20.22970 Y2.25577
G01 X20.15576 Y2.32971
G04 P0 ( dwell for no time -- G64 should not smooth over this point )
G00 Z10.00000 ( retract )

G00 X18.87007 Y1.55047 ( rapid move to begin. )
G01 F30.00000
G01 Z-0.10000
G04 P0 ( dwell for no time -- G64 should not smooth over this point )
G01 F360.00000
G01 X18.87007 Y1.55047
G01 X18.93956 Y0.48407
G01 X18.92795 Y0.41890
G04 P0 ( dwell for no time -- G64 should not smooth over this point )
G00 Z10.00000 ( retract )

G00 X18.91591 Y0.05080 ( rapid move to begin. )
G01 F30.00000
G01 Z-0.10000
G04 P0 ( dwell for no time -- G64 should not smooth over this point )
G01 F360.00000
G01 X18.91591 Y0.05080
G01 X18.92795 Y0.41890
G01 X17.54845 Y0.41712
G04 P0 ( dwell for no time -- G64 should not smooth over this point )
G00 Z10.00000 ( retract )

G00 X17.44889 Y0.05080 ( rapid move to begin. )
G01 F30.00000
G01 Z-0.10000
G04 P0 ( dwell for no time -- G64 should not smooth over this point )
G01 F360.00000
G01 X17.44889 Y0.05080
G01 X17.44132 Y0.22007
G01 X17.54845 Y0.41712
G01 X17.45358 Y0.79916
G01 X17.44391 Y1.83782
G01 X17.18452 Y1.67510
G01 X16.79651 Y1.48369
G04 P0 ( dwell for no time -- G64 should not smooth over this point )
G00 Z10.00000 ( retract )

G00 X16.97449 Y0.52479 ( rapid move to begin. )
G01 F30.00000
G01 Z-0.10000
G04 P0 ( dwell for no time -- G64 should not smooth over this point )
G01 F360.00000
G01 X16.97449 Y0.52479
G01 X17.25577 Y0.52479
G01 X17.20276 Y0.57889
G01 X17.02549 Y0.57871
G01 X16.97449 Y0.52479
G04 P0 ( dwell for no time -- G64 should not smooth over this point )
G00 Z10.00000 ( retract )

G00 X16.69847 Y0.05080 ( rapid move to begin. )
G01 F30.00000
G01 Z-0.10000
G04 P0 ( dwell for no time -- G64 should not smooth over this point )
G01 F360.00000
G01 X16.69847 Y0.05080
G01 X16.58198 Y0.39454
G01 X16.58198 Y0.45408
G01 X16.69961 Y0.78732
G01 X16.71696 Y1.08547
G01 X16.79651 Y1.48369
G01 X16.33985 Y1.48417
G01 X16.04884 Y1.46395
G04 P0 ( dwell for no time -- G64 should not smooth over this point )
G00 Z10.00000 ( retract )

G00 X15.56014 Y1.42758 ( rapid move to begin. )
G01 F30.00000
G01 Z-0.10000
G04 P0 ( dwell for no time -- G64 should not smooth over this point )
G01 F360.00000
G01 X15.56014 Y1.42758
G01 X15.64904 Y1.44132
G01 X15.88343 Y1.41422
G01 X15.98130 Y1.01803
G01 X15.98447 Y0.83388
G01 X16.00347 Y0.72012
G01 X16.11554 Y0.49710
G01 X16.12034 Y0.22548
G01 X16.16583 Y0.05080
G04 P0 ( dwell for no time -- G64 should not smooth over this point )
G00 Z10.00000 ( retract )

G00 X15.53207 Y0.28412 ( rapid move to begin. )
G01 F30.00000
G01 Z-0.10000
G04 P0 ( dwell for no time -- G64 should not smooth over this point )
G01 F360.00000
G01 X15.53207 Y0.28412
G01 X15.56126 Y0.25580
G01 X15.81061 Y0.26088
G01 X15.80553 Y0.31242
G01 X15.55923 Y0.31224
G01 X15.53207 Y0.28412
G04 P0 ( dwell for no time -- G64 should not smooth over this point )
G00 Z10.00000 ( retract )

G00 X15.24983 Y0.05080 ( rapid move to begin. )
G01 F30.00000
G01 Z-0.10000
G04 P0 ( dwell for no time -- G64 should not smooth over this point )
G01 F360.00000
G01 X15.24983 Y0.05080
G01 X15.25138 Y0.31727
G01 X15.33751 Y0.55154
G01 X15.31777 Y0.64224
G01 X15.32423 Y0.76797
G01 X15.44960 Y1.15110
G01 X15.56014 Y1.42758
G01 X15.18196 Y1.55070
G04 P0 ( dwell for no time -- G64 should not smooth over this point )
G00 Z10.00000 ( retract )

G00 X14.68765 Y0.26086 ( rapid move to begin. )
G01 F30.00000
G01 Z-0.10000
G04 P0 ( dwell for no time -- G64 should not smooth over this point )
G01 F360.00000
G01 X14.68765 Y0.26086
G01 X14.93883 Y0.25598
G01 X15.01056 Y0.32771
G01 X15.01056 Y0.77368
G01 X14.93883 Y0.84541
G01 X14.68852 Y0.84473
G01 X14.68765 Y0.26086
G04 P0 ( dwell for no time -- G64 should not smooth over this point )
G00 Z10.00000 ( retract )

G00 X15.88343 Y1.41422 ( rapid move to begin. )
G01 F30.00000
G01 Z-0.10000
G04 P0 ( dwell for no time -- G64 should not smooth over this point )
G01 F360.00000
G01 X15.88343 Y1.41422
G01 X16.04884 Y1.46395
G01 X16.04886 Y2.28410
G01 X16.08229 Y2.41714
G01 X15.98988 Y2.78465
G01 X15.98318 Y3.40388
G01 X15.58234 Y3.43065
G04 P0 ( dwell for no time -- G64 should not smooth over this point )
G00 Z10.00000 ( retract )

G00 X15.18366 Y3.41699 ( rapid move to begin. )
G01 F30.00000
G01 Z-0.10000
G04 P0 ( dwell for no time -- G64 should not smooth over this point )
G01 F360.00000
G01 X15.18366 Y3.41699
G01 X15.18727 Y2.79939
G01 X15.24912 Y2.55034
G01 X15.24742 Y2.25443
G01 X15.18567 Y2.02512
G01 X15.18196 Y1.55070
G01 X14.69309 Y1.55100
G01 X14.44950 Y1.57295
G04 P0 ( dwell for no time -- G64 should not smooth over this point )
G00 Z10.00000 ( retract )

G00 X14.68765 Y2.32971 ( rapid move to begin. )
G01 F30.00000
G01 Z-0.10000
G04 P0 ( dwell for no time -- G64 should not smooth over this point )
G01 F360.00000
G01 X14.68765 Y2.32971
G01 X14.75956 Y2.25598
G01 X14.93883 Y2.25598
G01 X15.01056 Y2.32771
G01 X15.01056 Y2.50698
G01 X14.93883 Y2.57871
G01 X14.75956 Y2.57871
G01 X14.68783 Y2.50698
G01 X14.68765 Y2.32971
G04 P0 ( dwell for no time -- G64 should not smooth over this point )
G00 Z10.00000 ( retract )

G00 X16.08229 Y2.41714 ( rapid move to begin. )
G01 F30.00000
G01 Z-0.10000
G04 P0 ( dwell for no time -- G64 should not smooth over this point )
G01 F360.00000
G01 X16.08229 Y2.41714
G01 X18.04462 Y2.41734
G01 X17.84881 Y2.63027
G01 X17.67025 Y2.79337
G01 X17.49951 Y2.93964
G01 X17.18003 Y3.17619
G01 X16.82186 Y3.33469
G01 X16.57957 Y3.39926
G01 X16.31627 Y3.42265
G04 P0 ( dwell for no time -- G64 should not smooth over this point )
G00 Z10.00000 ( retract )

G00 X15.98318 Y3.40388 ( rapid move to begin. )
G01 F30.00000
G01 Z-0.10000
G04 P0 ( dwell for no time -- G64 should not smooth over this point )
G01 F360.00000
G01 X15.98318 Y3.40388
G01 X16.31627 Y3.42265
G01 X16.31533 Y4.55384
G01 X16.26461 Y4.74038
G01 X16.24886 Y4.88104
G01 X16.25275 Y5.95917
G01 X16.17358 Y5.96402
G04 P0 ( dwell for no time -- G64 should not smooth over this point )
G00 Z10.00000 ( retract )

G00 X16.25275 Y5.95917 ( rapid move to begin. )
G01 F30.00000
G01 Z-0.10000
G04 P0 ( dwell for no time -- G64 should not smooth over this point )
G01 F360.00000
G01 X16.25275 Y5.95917
G01 X16.86806 Y5.96633
G01 X17.11513 Y5.95346
G01 X17.11523 Y4.28087
G01 X17.18043 Y3.98094
G01 X17.18003 Y3.17619
G04 P0 ( dwell for no time -- G64 should not smooth over this point )
G00 Z10.00000 ( retract )

G00 X17.84881 Y2.63027 ( rapid move to begin. )
G01 F30.00000
G01 Z-0.10000
G04 P0 ( dwell for no time -- G64 should not smooth over this point )
G01 F360.00000
G01 X17.84881 Y2.63027
G01 X17.84253 Y4.22100
G01 X17.94723 Y4.41709
G01 X17.85308 Y4.79933
G01 X17.84833 Y5.95948
G01 X17.38960 Y5.96727
G01 X17.11513 Y5.95346
G04 P0 ( dwell for no time -- G64 should not smooth over this point )
G00 Z10.00000 ( retract )

G00 X17.84833 Y5.95948 ( rapid move to begin. )
G01 F30.00000
G01 Z-0.10000
G04 P0 ( dwell for no time -- G64 should not smooth over this point )
G01 F360.00000
G01 X17.84833 Y5.95948
G01 X18.31658 Y5.96354
G01 X18.67240 Y5.91944
G01 X18.97050 Y5.84606
G01 X19.44510 Y6.02064
G01 X19.78863 Y6.08470
G01 X20.05076 Y6.10065
G01 X20.80458 Y6.08907
G01 X21.18952 Y6.02064
G01 X21.37682 Y5.96392
G01 X21.15988 Y5.44132
G01 X20.98619 Y5.12222
G01 X20.77311 Y4.80817
G01 X20.59737 Y4.67065
G01 X20.58452 Y4.25336
G01 X20.64370 Y3.93957
G01 X20.64964 Y3.58097
G01 X20.40100 Y3.55435
G01 X20.20156 Y3.55567
G01 X19.25066 Y3.67200
G01 X18.63974 Y2.81724
G01 X18.47306 Y2.60027
G01 X18.27949 Y2.38328
G01 X18.05534 Y2.40734
G04 P0 ( dwell for no time -- G64 should not smooth over this point )
G00 Z10.00000 ( retract )

G00 X18.04462 Y2.41734 ( rapid move to begin. )
G01 F30.00000
G01 Z-0.10000
G04 P0 ( dwell for no time -- G64 should not smooth over this point )
G01 F360.00000
G01 X18.04462 Y2.41734
G01 X18.05534 Y2.40734
G01 X17.44391 Y1.83782
G04 P0 ( dwell for no time -- G64 should not smooth over this point )
G00 Z10.00000 ( retract )

G00 X18.27949 Y2.38328 ( rapid move to begin. )
G01 F30.00000
G01 Z-0.10000
G04 P0 ( dwell for no time -- G64 should not smooth over this point )
G01 F360.00000
G01 X18.27949 Y2.38328
G01 X18.87007 Y1.55047
G01 X20.20359 Y1.54973
G01 X20.44903 Y1.52070
G01 X20.65096 Y1.56535
G01 X20.66074 Y2.06720
G01 X20.68317 Y2.14747
G01 X20.78383 Y2.33891
G01 X20.78332 Y2.62895
G01 X20.74164 Y2.70231
G01 X20.71809 Y2.78950
G01 X20.71512 Y3.55069
G01 X20.64964 Y3.58097
G04 P0 ( dwell for no time -- G64 should not smooth over this point )
G00 Z10.00000 ( retract )

G00 X20.71512 Y3.55069 ( rapid move to begin. )
G01 F30.00000
G01 Z-0.10000
G04 P0 ( dwell for no time -- G64 should not smooth over this point )
G01 F360.00000
G01 X20.71512 Y3.55069
G01 X21.14484 Y3.54010
G01 X21.40656 Y3.96514
G01 X21.50974 Y4.22339
G01 X21.51591 Y4.57345
G01 X21.46610 Y4.74038
G01 X21.45149 Y4.85503
G01 X21.45027 Y5.95948
G01 X21.37682 Y5.96392
G04 P0 ( dwell for no time -- G64 should not smooth over this point )
G00 Z10.00000 ( retract )

G00 X21.45027 Y5.95948 ( rapid move to begin. )
G01 F30.00000
G01 Z-0.10000
G04 P0 ( dwell for no time -- G64 should not smooth over this point )
G01 F360.00000
G01 X21.45027 Y5.95948
G01 X22.04486 Y5.96730
G01 X22.40072 Y5.94297
G01 X22.56582 Y5.19849
G01 X22.67255 Y4.85366
G01 X22.71227 Y4.63578
G01 X22.71227 Y4.19882
G01 X22.65467 Y3.69588
G01 X22.39495 Y3.60040
G01 X22.16602 Y3.54772
G01 X21.87941 Y3.34373
G01 X21.61898 Y3.20198
G04 P0 ( dwell for no time -- G64 should not smooth over this point )
G00 Z10.00000 ( retract )

G00 X21.14484 Y3.54010 ( rapid move to begin. )
G01 F30.00000
G01 Z-0.10000
G04 P0 ( dwell for no time -- G64 should not smooth over this point )
G01 F360.00000
G01 X21.14484 Y3.54010
G01 X21.61898 Y3.20198
G01 X21.58495 Y2.88605
G04 P0 ( dwell for no time -- G64 should not smooth over this point )
G00 Z10.00000 ( retract )

G00 X22.28835 Y2.32971 ( rapid move to begin. )
G01 F30.00000
G01 Z-0.10000
G04 P0 ( dwell for no time -- G64 should not smooth over this point )
G01 F360.00000
G01 X22.28835 Y2.32971
G01 X22.28853 Y2.77368
G01 X22.36025 Y2.84541
G01 X22.53971 Y2.84538
G01 X22.61126 Y2.77373
G01 X22.61126 Y2.32766
G01 X22.53971 Y2.25600
G01 X22.36229 Y2.25580
G01 X22.28835 Y2.32971
G04 P0 ( dwell for no time -- G64 should not smooth over this point )
G00 Z10.00000 ( retract )

G00 X23.08819 Y2.32971 ( rapid move to begin. )
G01 F30.00000
G01 Z-0.10000
G04 P0 ( dwell for no time -- G64 should not smooth over this point )
G01 F360.00000
G01 X23.08819 Y2.32971
G01 X23.08837 Y2.77368
G01 X23.16010 Y2.84541
G01 X23.33937 Y2.84541
G01 X23.41110 Y2.77368
G01 X23.41110 Y2.32771
G01 X23.33937 Y2.25598
G01 X23.16213 Y2.25577
G01 X23.08819 Y2.32971
G04 P0 ( dwell for no time -- G64 should not smooth over this point )
G00 Z10.00000 ( retract )

G00 X22.84994 Y1.57292 ( rapid move to begin. )
G01 F30.00000
G01 Z-0.10000
G04 P0 ( dwell for no time -- G64 should not smooth over this point )
G01 F360.00000
G01 X22.84994 Y1.57292
G01 X22.98136 Y1.52923
G01 X22.98611 Y0.77399
G01 X23.02383 Y0.66954
G01 X23.12266 Y0.54404
G01 X22.94306 Y0.13127
G01 X22.92396 Y0.05080
G04 P0 ( dwell for no time -- G64 should not smooth over this point )
G00 Z10.00000 ( retract )

G00 X22.42170 Y0.32972 ( rapid move to begin. )
G01 F30.00000
G01 Z-0.10000
G04 P0 ( dwell for no time -- G64 should not smooth over this point )
G01 F360.00000
G01 X22.42170 Y0.32972
G01 X22.42188 Y0.77368
G01 X22.49360 Y0.84541
G01 X22.67288 Y0.84541
G01 X22.74461 Y0.77368
G01 X22.74461 Y0.32771
G01 X22.67288 Y0.25598
G01 X22.49564 Y0.25578
G01 X22.42170 Y0.32972
G04 P0 ( dwell for no time -- G64 should not smooth over this point )
G00 Z10.00000 ( retract )

G00 X22.98136 Y1.52923 ( rapid move to begin. )
G01 F30.00000
G01 Z-0.10000
G04 P0 ( dwell for no time -- G64 should not smooth over this point )
G01 F360.00000
G01 X22.98136 Y1.52923
G01 X23.48184 Y1.55479
G01 X24.18281 Y1.61859
G01 X24.18230 Y1.50023
G01 X24.05908 Y0.87889
G01 X23.93216 Y0.58796
G01 X23.77158 Y0.40589
G01 X23.78205 Y0.05080
G04 P0 ( dwell for no time -- G64 should not smooth over this point )
G00 Z10.00000 ( retract )

G00 X24.35289 Y0.05080 ( rapid move to begin. )
G01 F30.00000
G01 Z-0.10000
G04 P0 ( dwell for no time -- G64 should not smooth over this point )
G01 F360.00000
G01 X24.35289 Y0.05080
G01 X24.39319 Y0.17026
G01 X24.45596 Y0.27960
G01 X24.69037 Y0.53063
G01 X24.38253 Y1.15070
G01 X24.18230 Y1.50023
G04 P0 ( dwell for no time -- G64 should not smooth over this point )
G00 Z10.00000 ( retract )

G00 X24.18281 Y1.61859 ( rapid move to begin. )
G01 F30.00000
G01 Z-0.10000
G04 P0 ( dwell for no time -- G64 should not smooth over this point )
G01 F360.00000
G01 X24.18281 Y1.61859
G01 X24.98568 Y2.42042
G01 X24.82339 Y2.61102
G01 X24.44095 Y3.16286
G04 P0 ( dwell for no time -- G64 should not smooth over this point )
G00 Z10.00000 ( retract )

G00 X23.98080 Y3.42176 ( rapid move to begin. )
G01 F30.00000
G01 Z-0.10000
G04 P0 ( dwell for no time -- G64 should not smooth over this point )
G01 F360.00000
G01 X23.98080 Y3.42176
G01 X24.44095 Y3.16286
G01 X24.78349 Y3.88539
G01 X24.77597 Y4.04505
G01 X24.71699 Y4.26128
G01 X24.71364 Y4.58374
G01 X24.66442 Y4.74353
G01 X24.65027 Y4.87388
G01 X24.65360 Y5.95915
G01 X24.04295 Y5.96323
G04 P0 ( dwell for no time -- G64 should not smooth over this point )
G00 Z10.00000 ( retract )

G00 X22.40072 Y5.94297 ( rapid move to begin. )
G01 F30.00000
G01 Z-0.10000
G04 P0 ( dwell for no time -- G64 should not smooth over this point )
G01 F360.00000
G01 X22.40072 Y5.94297
G01 X22.63267 Y6.01792
G01 X22.86460 Y6.06740
G01 X23.23917 Y6.10037
G01 X23.63462 Y6.06740
G01 X24.04295 Y5.96323
G01 X23.75990 Y4.97266
G01 X23.72487 Y4.81096
G01 X23.71689 Y4.65585
G01 X23.71885 Y4.61935
G01 X23.94735 Y4.15437
G01 X23.97092 Y4.07840
G01 X23.98080 Y3.42176
G01 X23.60186 Y3.52989
G01 X22.84989 Y3.58750
G04 P0 ( dwell for no time -- G64 should not smooth over this point )
G00 Z10.00000 ( retract )

G00 X24.19929 Y4.28404 ( rapid move to begin. )
G01 F30.00000
G01 Z-0.10000
G04 P0 ( dwell for no time -- G64 should not smooth over this point )
G01 F360.00000
G01 X24.19929 Y4.28404
G01 X24.22842 Y4.25577
G01 X24.47760 Y4.26085
G01 X24.47252 Y4.31218
G01 X24.22634 Y4.31201
G01 X24.19929 Y4.28404
G04 P0 ( dwell for no time -- G64 should not smooth over this point )
G00 Z10.00000 ( retract )

G00 X25.77457 Y4.52453 ( rapid move to begin. )
G01 F30.00000
G01 Z-0.10000
G04 P0 ( dwell for no time -- G64 should not smooth over this point )
G01 F360.00000
G01 X25.77457 Y4.52453
G01 X26.05644 Y4.52450
G01 X26.00328 Y4.57888
G01 X25.82583 Y4.57871
G01 X25.77457 Y4.52453
G04 P0 ( dwell for no time -- G64 should not smooth over this point )
G00 Z10.00000 ( retract )

G00 X24.65360 Y5.95915 ( rapid move to begin. )
G01 F30.00000
G01 Z-0.10000
G04 P0 ( dwell for no time -- G64 should not smooth over this point )
G01 F360.00000
G01 X24.65360 Y5.95915
G01 X25.58598 Y5.95917
G01 X25.58222 Y4.88394
G01 X25.56680 Y4.74439
G01 X25.51600 Y4.55709
G01 X25.51984 Y4.23857
G01 X26.14254 Y2.54455
G01 X25.90602 Y2.49095
G01 X25.37760 Y2.40782
G01 X24.98568 Y2.42042
G04 P0 ( dwell for no time -- G64 should not smooth over this point )
G00 Z10.00000 ( retract )

G00 X25.37760 Y2.40782 ( rapid move to begin. )
G01 F30.00000
G01 Z-0.10000
G04 P0 ( dwell for no time -- G64 should not smooth over this point )
G01 F360.00000
G01 X25.37760 Y2.40782
G01 X25.38237 Y0.68062
G01 X25.36690 Y0.59393
G01 X25.28001 Y0.38301
G01 X25.39548 Y0.19218
G01 X25.44107 Y0.05080
G04 P0 ( dwell for no time -- G64 should not smooth over this point )
G00 Z10.00000 ( retract )

G00 X25.62083 Y0.32967 ( rapid move to begin. )
G01 F30.00000
G01 Z-0.10000
G04 P0 ( dwell for no time -- G64 should not smooth over this point )
G01 F360.00000
G01 X25.62083 Y0.32967
G01 X25.62101 Y0.77374
G01 X25.69256 Y0.84539
G01 X25.87201 Y0.84541
G01 X25.94374 Y0.77368
G01 X25.94374 Y0.32771
G01 X25.87201 Y0.25598
G01 X25.69456 Y0.25580
G01 X25.62083 Y0.32967
G04 P0 ( dwell for no time -- G64 should not smooth over this point )
G00 Z10.00000 ( retract )

G00 X26.12372 Y0.05080 ( rapid move to begin. )
G01 F30.00000
G01 Z-0.10000
G04 P0 ( dwell for no time -- G64 should not smooth over this point )
G01 F360.00000
G01 X26.12372 Y0.05080
G01 X26.14808 Y0.14745
G01 X26.24877 Y0.33884
G01 X26.24826 Y0.62906
G01 X26.20655 Y0.70239
G01 X26.18303 Y0.78951
G01 X26.18217 Y2.54277
G04 P0 ( dwell for no time -- G64 should not smooth over this point )
G00 Z10.00000 ( retract )

G00 X26.14254 Y2.54455 ( rapid move to begin. )
G01 F30.00000
G01 Z-0.10000
G04 P0 ( dwell for no time -- G64 should not smooth over this point )
G01 F360.00000
G01 X26.14254 Y2.54455
G01 X26.25552 Y2.55153
G01 X26.24178 Y4.22001
G01 X26.29634 Y4.31739
G01 X26.31542 Y4.41719
G01 X26.31125 Y4.59610
G01 X26.26434 Y4.74434
G01 X26.25034 Y4.85366
G01 X26.24524 Y5.95917
G01 X25.58598 Y5.95917
G04 P0 ( dwell for no time -- G64 should not smooth over this point )
G00 Z10.00000 ( retract )

G00 X26.24524 Y5.95917 ( rapid move to begin. )
G01 F30.00000
G01 Z-0.10000
G04 P0 ( dwell for no time -- G64 should not smooth over this point )
G01 F360.00000
G01 X26.24524 Y5.95917
G01 X26.87107 Y5.96621
G01 X27.12225 Y5.95272
G01 X27.37345 Y5.91259
G01 X27.84277 Y5.77446
G01 X28.07589 Y5.67378
G01 X28.35059 Y5.52643
G01 X28.63327 Y5.34675
G01 X28.91594 Y5.13428
G01 X29.30642 Y4.79031
G01 X29.71757 Y4.36149
G01 X30.12369 Y3.87744
G01 X30.52981 Y3.32735
G01 X29.60550 Y3.17444
G01 X28.51485 Y3.01686
G01 X27.32583 Y2.67198
G01 X26.78661 Y2.55097
G01 X26.25552 Y2.55153
G04 P0 ( dwell for no time -- G64 should not smooth over this point )
G00 Z10.00000 ( retract )

G00 X26.78661 Y2.55097 ( rapid move to begin. )
G01 F30.00000
G01 Z-0.10000
G04 P0 ( dwell for no time -- G64 should not smooth over this point )
G01 F360.00000
G01 X26.78661 Y2.55097
G01 X26.78199 Y1.28387
G01 X26.77282 Y1.14366
G01 X26.71549 Y0.83886
G01 X26.73193 Y0.55065
G01 X26.71610 Y0.38156
G01 X26.83286 Y0.05080
G04 P0 ( dwell for no time -- G64 should not smooth over this point )
G00 Z10.00000 ( retract )

G00 X27.08694 Y0.32972 ( rapid move to begin. )
G01 F30.00000
G01 Z-0.10000
G04 P0 ( dwell for no time -- G64 should not smooth over this point )
G01 F360.00000
G01 X27.08694 Y0.32972
G01 X27.08712 Y0.37381
G01 X27.15877 Y0.44536
G01 X27.33815 Y0.44536
G01 X27.40983 Y0.37381
G01 X27.40983 Y0.32771
G01 X27.33810 Y0.25598
G01 X27.15882 Y0.25598
G01 X27.08694 Y0.32972
G04 P0 ( dwell for no time -- G64 should not smooth over this point )
G00 Z10.00000 ( retract )

G00 X27.08694 Y0.72951 ( rapid move to begin. )
G01 F30.00000
G01 Z-0.10000
G04 P0 ( dwell for no time -- G64 should not smooth over this point )
G01 F360.00000
G01 X27.08694 Y0.72951
G01 X27.08712 Y0.77366
G01 X27.15882 Y0.84541
G01 X27.33810 Y0.84541
G01 X27.40983 Y0.77366
G01 X27.40983 Y0.72751
G01 X27.33810 Y0.65578
G01 X27.15882 Y0.65578
G01 X27.08694 Y0.72951
G04 P0 ( dwell for no time -- G64 should not smooth over this point )
G00 Z10.00000 ( retract )

G00 X30.52981 Y3.32735 ( rapid move to begin. )
G01 F30.00000
G01 Z-0.10000
G04 P0 ( dwell for no time -- G64 should not smooth over this point )
G01 F360.00000
G01 X30.52981 Y3.32735
G01 X30.97284 Y3.10355
G01 X31.42270 Y2.84696
G01 X31.87256 Y2.55826
G01 X32.32241 Y2.23738
G01 X32.81126 Y1.85237
G01 X33.42013 Y1.32357
G01 X34.02899 Y0.73624
G01 X34.70592 Y0.05080
G04 P0 ( dwell for no time -- G64 should not smooth over this point )
G00 Z10.00000 ( retract )

G00 X39.98211 Y8.73084 ( rapid move to begin. )
G01 F30.00000
G01 Z-0.10000
G04 P0 ( dwell for no time -- G64 should not smooth over this point )
G01 F360.00000
G01 X39.98211 Y8.73084
G01 X40.01498 Y8.99960
G01 X40.08831 Y9.21756
G01 X40.21381 Y9.44123
G01 X40.34442 Y9.60046
G01 X40.59822 Y9.79797
G01 X40.84742 Y9.90384
G01 X41.07073 Y9.95919
G01 X41.21442 Y10.05502
G01 X41.35783 Y9.95929
G01 X41.58115 Y9.90392
G01 X41.83055 Y9.79792
G01 X42.08414 Y9.60046
G01 X42.21480 Y9.44128
G01 X42.34035 Y9.21761
G01 X42.41368 Y8.99965
G01 X42.44657 Y8.73084
G01 X42.41371 Y8.46204
G01 X42.34040 Y8.24408
G01 X42.21488 Y8.02036
G01 X42.08402 Y7.86087
G01 X41.83052 Y7.66364
G01 X41.60655 Y7.56704
G01 X41.35575 Y7.51225
G01 X41.21429 Y7.50159
G01 X41.07279 Y7.51225
G01 X40.82202 Y7.56709
G01 X40.59824 Y7.66359
G01 X40.34455 Y7.86087
G01 X40.21371 Y8.02041
G01 X40.08826 Y8.24410
G01 X40.01498 Y8.46206
G01 X39.98211 Y8.73084
G04 P0 ( dwell for no time -- G64 should not smooth over this point )
G00 Z10.00000 ( retract )

G00 X43.84650 Y13.29464 ( rapid move to begin. )
G01 F30.00000
G01 Z-0.10000
G04 P0 ( dwell for no time -- G64 should not smooth over this point )
G01 F360.00000
G01 X43.84650 Y13.29464
G01 X44.02727 Y13.31265
G01 X44.31828 Y13.43327
G01 X44.56953 Y13.62553
G01 X44.76151 Y13.87617
G01 X44.88241 Y14.16779
G01 X44.90502 Y14.34752
G01 X44.65625 Y14.34780
G01 X44.58678 Y14.09200
G01 X44.48713 Y13.91943
G01 X44.35363 Y13.77109
G01 X44.19171 Y13.65344
G01 X44.00951 Y13.57234
G01 X43.84713 Y13.53713
G01 X43.84650 Y13.29464
G04 P0 ( dwell for no time -- G64 should not smooth over this point )
G00 Z10.00000 ( retract )

G00 X43.84650 Y15.42776 ( rapid move to begin. )
G01 F30.00000
G01 Z-0.10000
G04 P0 ( dwell for no time -- G64 should not smooth over this point )
G01 F360.00000
G01 X43.84650 Y15.42776
G01 X44.00951 Y15.38895
G01 X44.19171 Y15.30784
G01 X44.35363 Y15.19019
G01 X44.48713 Y15.04185
G01 X44.58678 Y14.86929
G01 X44.65625 Y14.61348
G01 X44.90502 Y14.61379
G01 X44.88241 Y14.79377
G01 X44.76151 Y15.08539
G01 X44.56902 Y15.33622
G01 X44.31889 Y15.52801
G01 X44.02727 Y15.64866
G01 X43.85224 Y15.67170
G01 X43.84650 Y15.42776
G04 P0 ( dwell for no time -- G64 should not smooth over this point )
G00 Z10.00000 ( retract )

G00 X42.52333 Y14.61849 ( rapid move to begin. )
G01 F30.00000
G01 Z-0.10000
G04 P0 ( dwell for no time -- G64 should not smooth over this point )
G01 F360.00000
G01 X42.52333 Y14.61849
G01 X42.54640 Y14.79377
G01 X42.66705 Y15.08539
G01 X42.85927 Y15.33578
G01 X43.10967 Y15.52801
G01 X43.40128 Y15.64866
G01 X43.58127 Y15.67127
G01 X43.58165 Y15.42415
G01 X43.41927 Y15.38895
G01 X43.23735 Y15.30797
G01 X43.07515 Y15.19019
G01 X42.94165 Y15.04185
G01 X42.84200 Y14.86929
G01 X42.77253 Y14.61348
G01 X42.52333 Y14.61849
G04 P0 ( dwell for no time -- G64 should not smooth over this point )
G00 Z10.00000 ( retract )

G00 X42.52333 Y14.34280 ( rapid move to begin. )
G01 F30.00000
G01 Z-0.10000
G04 P0 ( dwell for no time -- G64 should not smooth over this point )
G01 F360.00000
G01 X42.52333 Y14.34280
G01 X42.54640 Y14.16779
G01 X42.66677 Y13.87676
G01 X42.85927 Y13.62553
G01 X43.11025 Y13.43327
G01 X43.40128 Y13.31265
G01 X43.58127 Y13.29002
G01 X43.58165 Y13.53713
G01 X43.41927 Y13.57234
G01 X43.23735 Y13.65331
G01 X43.07515 Y13.77109
G01 X42.94165 Y13.91943
G01 X42.84200 Y14.09200
G01 X42.77253 Y14.34780
G01 X42.52333 Y14.34280
G04 P0 ( dwell for no time -- G64 should not smooth over this point )
G00 Z10.00000 ( retract )

G00 X39.98211 Y15.73083 ( rapid move to begin. )
G01 F30.00000
G01 Z-0.10000
G04 P0 ( dwell for no time -- G64 should not smooth over this point )
G01 F360.00000
G01 X39.98211 Y15.73083
G01 X40.01498 Y15.46205
G01 X40.08826 Y15.24409
G01 X40.21374 Y15.02039
G01 X40.34447 Y14.86103
G01 X40.59827 Y14.66355
G01 X40.82202 Y14.56708
G01 X41.07279 Y14.51224
G01 X41.21429 Y14.50157
G01 X41.35575 Y14.51224
G01 X41.60655 Y14.56703
G01 X41.83050 Y14.66360
G01 X42.08409 Y14.86103
G01 X42.21485 Y15.02037
G01 X42.34040 Y15.24406
G01 X42.41371 Y15.46202
G01 X42.44657 Y15.73083
G01 X42.41368 Y15.99964
G01 X42.34035 Y16.21760
G01 X42.21483 Y16.44127
G01 X42.08407 Y16.60063
G01 X41.83057 Y16.79788
G01 X41.60652 Y16.89453
G01 X41.35572 Y16.94932
G01 X41.21429 Y16.95996
G01 X41.07282 Y16.94929
G01 X40.82204 Y16.89448
G01 X40.59819 Y16.79793
G01 X40.34450 Y16.60063
G01 X40.21379 Y16.44124
G01 X40.08831 Y16.21754
G01 X40.01498 Y15.99959
G01 X39.98211 Y15.73083
G04 P0 ( dwell for no time -- G64 should not smooth over this point )
G00 Z10.00000 ( retract )

G00 X37.51656 Y16.78457 ( rapid move to begin. )
G01 F30.00000
G01 Z-0.10000
G04 P0 ( dwell for no time -- G64 should not smooth over this point )
G01 F360.00000
G01 X37.51656 Y16.78457
G01 X37.61806 Y16.75882
G01 X37.76149 Y16.69496
G01 X37.88989 Y16.60177
G01 X37.99548 Y16.48442
G01 X38.07404 Y16.34838
G01 X38.12642 Y16.17353
G01 X38.37343 Y16.17386
G01 X38.35766 Y16.30152
G01 X38.25682 Y16.54462
G01 X38.09685 Y16.75310
G01 X37.88811 Y16.91333
G01 X37.64501 Y17.01391
G01 X37.51760 Y17.02966
G01 X37.51656 Y16.78457
G04 P0 ( dwell for no time -- G64 should not smooth over this point )
G00 Z10.00000 ( retract )

G00 X37.51656 Y15.05638 ( rapid move to begin. )
G01 F30.00000
G01 Z-0.10000
G04 P0 ( dwell for no time -- G64 should not smooth over this point )
G01 F360.00000
G01 X37.51656 Y15.05638
G01 X37.51720 Y15.30045
G01 X37.61806 Y15.32260
G01 X37.76149 Y15.38646
G01 X37.88989 Y15.47965
G01 X37.99548 Y15.59700
G01 X38.07404 Y15.73304
G01 X38.12642 Y15.90789
G01 X38.37341 Y15.90759
G01 X38.35766 Y15.77993
G01 X38.25682 Y15.53708
G01 X38.09685 Y15.32834
G01 X37.88811 Y15.16812
G01 X37.64501 Y15.06753
G01 X37.51656 Y15.05638
G04 P0 ( dwell for no time -- G64 should not smooth over this point )
G00 Z10.00000 ( retract )

G00 X36.50366 Y13.50074 ( rapid move to begin. )
G01 F30.00000
G01 Z-0.10000
G04 P0 ( dwell for no time -- G64 should not smooth over this point )
G01 F360.00000
G01 X36.50366 Y13.50074
G01 X36.52792 Y13.30483
G01 X36.57818 Y13.15629
G01 X36.62340 Y13.06147
G01 X36.76272 Y12.87892
G01 X36.94397 Y12.73790
G01 X37.10054 Y12.67028
G01 X37.38446 Y12.62197
G01 X37.66835 Y12.67033
G01 X37.82477 Y12.73787
G01 X38.00620 Y12.87892
G01 X38.14539 Y13.06142
G01 X38.19068 Y13.15631
G01 X38.24102 Y13.30483
G01 X38.26528 Y13.50074
G01 X38.24102 Y13.69659
G01 X38.19070 Y13.84511
G01 X38.14534 Y13.94023
G01 X38.00622 Y14.12250
G01 X37.82477 Y14.26357
G01 X37.66835 Y14.33111
G01 X37.38446 Y14.37947
G01 X37.10054 Y14.33114
G01 X36.94400 Y14.26352
G01 X36.76269 Y14.12250
G01 X36.62345 Y13.94018
G01 X36.57816 Y13.84513
G01 X36.52792 Y13.69659
G01 X36.50366 Y13.50074
G04 P0 ( dwell for no time -- G64 should not smooth over this point )
G00 Z10.00000 ( retract )

G00 X38.79693 Y12.68928 ( rapid move to begin. )
G01 F30.00000
G01 Z-0.10000
G04 P0 ( dwell for no time -- G64 should not smooth over this point )
G01 F360.00000
G01 X38.79693 Y12.68928
G01 X39.04468 Y12.69449
G01 X39.08585 Y12.56645
G01 X39.15270 Y12.45078
G01 X39.24211 Y12.35149
G01 X39.35090 Y12.27254
G01 X39.53774 Y12.20384
G01 X39.53736 Y11.95423
G01 X39.43965 Y11.96594
G01 X39.22474 Y12.05509
G01 X39.03988 Y12.19678
G01 X38.89820 Y12.38138
G01 X38.80929 Y12.59655
G01 X38.79693 Y12.68928
G04 P0 ( dwell for no time -- G64 should not smooth over this point )
G00 Z10.00000 ( retract )

G00 X39.80254 Y11.95880 ( rapid move to begin. )
G01 F30.00000
G01 Z-0.10000
G04 P0 ( dwell for no time -- G64 should not smooth over this point )
G01 F360.00000
G01 X39.80254 Y11.95880
G01 X39.80317 Y12.20384
G01 X39.98996 Y12.27249
G01 X40.09901 Y12.35166
G01 X40.18821 Y12.45078
G01 X40.25506 Y12.56645
G01 X40.29624 Y12.69449
G01 X40.54333 Y12.69398
G01 X40.53139 Y12.59655
G01 X40.44249 Y12.38138
G01 X40.30081 Y12.19678
G01 X40.11620 Y12.05509
G01 X39.90104 Y11.96594
G01 X39.80254 Y11.95880
G04 P0 ( dwell for no time -- G64 should not smooth over this point )
G00 Z10.00000 ( retract )

G00 X39.80254 Y13.45397 ( rapid move to begin. )
G01 F30.00000
G01 Z-0.10000
G04 P0 ( dwell for no time -- G64 should not smooth over this point )
G01 F360.00000
G01 X39.80254 Y13.45397
G01 X39.80360 Y13.70023
G01 X39.90104 Y13.68826
G01 X40.11620 Y13.59913
G01 X40.30081 Y13.45771
G01 X40.44249 Y13.27285
G01 X40.53139 Y13.05794
G01 X40.54333 Y12.96022
G01 X40.29624 Y12.95972
G01 X40.25506 Y13.08776
G01 X40.18821 Y13.20343
G01 X40.09901 Y13.30254
G01 X39.98996 Y13.38171
G01 X39.80254 Y13.45397
G04 P0 ( dwell for no time -- G64 should not smooth over this point )
G00 Z10.00000 ( retract )

G00 X38.79690 Y12.96492 ( rapid move to begin. )
G01 F30.00000
G01 Z-0.10000
G04 P0 ( dwell for no time -- G64 should not smooth over this point )
G01 F360.00000
G01 X38.79690 Y12.96492
G01 X38.80929 Y13.05794
G01 X38.89820 Y13.27285
G01 X39.03988 Y13.45771
G01 X39.22474 Y13.59913
G01 X39.43965 Y13.68826
G01 X39.53734 Y13.70023
G01 X39.53774 Y13.45037
G01 X39.35090 Y13.38166
G01 X39.24211 Y13.30272
G01 X39.15270 Y13.20343
G01 X39.08585 Y13.08776
G01 X39.04468 Y12.95972
G01 X38.79690 Y12.96492
G04 P0 ( dwell for no time -- G64 should not smooth over this point )
G00 Z10.00000 ( retract )

G00 X36.50366 Y10.96074 ( rapid move to begin. )
G01 F30.00000
G01 Z-0.10000
G04 P0 ( dwell for no time -- G64 should not smooth over this point )
G01 F360.00000
G01 X36.50366 Y10.96074
G01 X36.52792 Y11.15659
G01 X36.57816 Y11.30513
G01 X36.62345 Y11.40018
G01 X36.76269 Y11.58250
G01 X36.94400 Y11.72352
G01 X37.10054 Y11.79114
G01 X37.38446 Y11.83947
G01 X37.66835 Y11.79111
G01 X37.82477 Y11.72357
G01 X38.00622 Y11.58250
G01 X38.14534 Y11.40023
G01 X38.19070 Y11.30511
G01 X38.24102 Y11.15659
G01 X38.26528 Y10.96074
G01 X38.24102 Y10.76483
G01 X38.19068 Y10.61631
G01 X38.14539 Y10.52139
G01 X38.00620 Y10.33892
G01 X37.82477 Y10.19787
G01 X37.66835 Y10.13033
G01 X37.38446 Y10.08197
G01 X37.10054 Y10.13028
G01 X36.94397 Y10.19790
G01 X36.76272 Y10.33892
G01 X36.62340 Y10.52144
G01 X36.57818 Y10.61629
G01 X36.52792 Y10.76483
G01 X36.50366 Y10.96074
G04 P0 ( dwell for no time -- G64 should not smooth over this point )
G00 Z10.00000 ( retract )

G00 X35.36798 Y10.14580 ( rapid move to begin. )
G01 F30.00000
G01 Z-0.10000
G04 P0 ( dwell for no time -- G64 should not smooth over this point )
G01 F360.00000
G01 X35.36798 Y10.14580
G01 X35.56848 Y10.00544
G01 X36.53762 Y9.04103
G01 X36.65436 Y8.97075
G01 X36.94400 Y9.18352
G01 X37.15682 Y9.27009
G01 X37.38446 Y9.29947
G01 X37.67346 Y9.26346
G01 X39.39111 Y10.96767
G01 X39.52456 Y11.05837
G01 X39.65771 Y11.08583
G01 X42.97548 Y11.08868
G01 X43.13410 Y11.05842
G01 X43.27428 Y10.97138
G01 X43.43489 Y11.02370
G01 X43.61510 Y11.05327
G01 X43.81368 Y11.05327
G01 X43.99374 Y11.02373
G01 X44.25516 Y10.91743
G01 X44.44634 Y10.77346
G01 X44.57756 Y10.62439
G01 X44.64875 Y10.52022
G01 X44.75734 Y10.26013
G01 X44.79600 Y9.98078
G01 X44.75731 Y9.70123
G01 X44.69282 Y9.53056
G01 X44.59356 Y9.35853
G01 X44.44634 Y9.18809
G01 X44.25511 Y9.04400
G01 X44.03489 Y8.95060
G01 X43.81368 Y8.90831
G01 X43.61510 Y8.90831
G01 X43.43476 Y8.93788
G01 X43.17350 Y9.04405
G01 X42.98241 Y9.18809
G01 X42.85115 Y9.33712
G01 X42.77992 Y9.44121
G01 X42.67149 Y9.70115
G01 X42.63281 Y9.98085
G01 X42.64419 Y10.08052
G01 X42.63332 Y10.19424
G01 X42.61625 Y10.26818
G01 X42.55140 Y10.29762
G01 X42.43172 Y10.32477
G01 X41.45255 Y10.32477
G01 X41.33347 Y10.29790
G01 X41.21442 Y10.21728
G01 X41.09535 Y10.29790
G01 X40.97630 Y10.32477
G01 X39.83083 Y10.31954
G01 X38.27046 Y8.76666
G01 X38.22537 Y8.70684
G01 X38.26528 Y8.42066
G01 X38.23386 Y8.19318
G01 X38.14539 Y7.98142
G01 X38.00620 Y7.79892
G01 X37.82477 Y7.65787
G01 X37.61186 Y7.57131
G01 X37.46287 Y7.54710
G01 X37.30607 Y7.54710
G01 X37.12581 Y7.58099
G01 X36.94397 Y7.65790
G01 X36.80727 Y7.75962
G01 X36.68306 Y7.89468
G01 X36.58718 Y8.03628
G01 X36.47199 Y8.06907
G01 X36.35883 Y8.14365
G01 X36.05583 Y8.44260
G01 X35.98880 Y8.49160
G01 X35.81430 Y8.54339
G01 X35.68240 Y8.77542
G01 X35.54910 Y8.94969
G01 X35.42172 Y9.08187
G01 X35.19261 Y9.26120
G01 X34.94997 Y9.29424
G01 X34.73894 Y9.29424
G01 X34.55088 Y9.27278
G01 X34.24512 Y9.19330
G01 X34.08530 Y9.27999
G01 X34.00323 Y9.29277
G01 X33.34944 Y9.29277
G01 X33.25073 Y9.30768
G01 X33.19056 Y9.32307
G01 X33.06727 Y9.40544
G01 X32.56971 Y9.90110
G01 X32.52894 Y9.93447
G01 X32.47644 Y9.93971
G01 X30.78048 Y9.93971
G01 X30.65729 Y9.91095
G01 X30.65348 Y8.29374
G01 X30.63169 Y8.18850
G01 X30.52648 Y8.16674
G01 X29.00248 Y8.16674
G01 X28.89534 Y8.18932
G01 X28.85181 Y8.27253
G01 X28.74848 Y8.29277
G01 X25.50998 Y8.29277
G01 X25.40770 Y8.27293
G01 X25.38298 Y8.16089
G01 X25.38298 Y7.91274
G01 X25.36119 Y7.80750
G01 X25.25598 Y7.78574
G01 X24.11298 Y7.78574
G01 X24.00775 Y7.80750
G01 X23.98598 Y7.91274
G01 X23.98598 Y9.43674
G01 X24.00775 Y9.54194
G01 X24.11298 Y9.56374
G01 X25.25598 Y9.56374
G01 X25.36119 Y9.54194
G01 X25.38298 Y9.43674
G01 X25.38298 Y9.18858
G01 X25.40770 Y9.07651
G01 X25.50998 Y9.05668
G01 X28.74848 Y9.05668
G01 X28.85074 Y9.07651
G01 X28.87548 Y9.18858
G01 X28.87165 Y9.91095
G01 X29.00248 Y9.94466
G01 X30.52648 Y9.94466
G01 X30.65729 Y9.91095
G04 P0 ( dwell for no time -- G64 should not smooth over this point )
G00 Z10.00000 ( retract )

G00 X33.85508 Y8.28289 ( rapid move to begin. )
G01 F30.00000
G01 Z-0.10000
G04 P0 ( dwell for no time -- G64 should not smooth over this point )
G01 F360.00000
G01 X33.85508 Y8.28289
G01 X34.10250 Y8.28789
G01 X34.15485 Y8.11309
G01 X34.23338 Y7.97707
G01 X34.33902 Y7.85965
G01 X34.46737 Y7.76651
G01 X34.61085 Y7.70260
G01 X34.71172 Y7.68045
G01 X34.71134 Y7.43179
G01 X34.58367 Y7.44753
G01 X34.34116 Y7.54784
G01 X34.13183 Y7.70834
G01 X33.97186 Y7.91708
G01 X33.87128 Y8.15993
G01 X33.85508 Y8.28289
G04 P0 ( dwell for no time -- G64 should not smooth over this point )
G00 Z10.00000 ( retract )

G00 X34.27641 Y10.16028 ( rapid move to begin. )
G01 F30.00000
G01 Z-0.10000
G04 P0 ( dwell for no time -- G64 should not smooth over this point )
G01 F360.00000
G01 X34.27641 Y10.16028
G01 X34.54410 Y10.09335
G01 X34.76605 Y10.06975
G01 X35.11017 Y10.08786
G01 X35.36798 Y10.14580
G01 X35.43003 Y10.28809
G01 X35.56175 Y10.45606
G01 X35.64016 Y10.59188
G01 X35.69386 Y10.73315
G01 X35.72528 Y10.96074
G01 X35.69383 Y11.18829
G01 X35.60534 Y11.40023
G01 X35.46622 Y11.58250
G01 X35.28477 Y11.72357
G01 X35.10310 Y11.80041
G01 X34.94933 Y11.83119
G01 X34.84446 Y11.83947
G01 X34.61682 Y11.81009
G01 X34.40394 Y11.72352
G01 X34.22251 Y11.58243
G01 X34.12703 Y11.46543
G01 X34.04867 Y11.32959
G01 X33.99511 Y11.18837
G01 X33.96491 Y10.94712
G01 X33.98792 Y10.76483
G01 X34.03818 Y10.61629
G01 X34.08340 Y10.52144
G01 X34.23232 Y10.30404
G01 X34.27641 Y10.16028
G01 X34.10994 Y10.06945
G01 X34.02787 Y10.05667
G01 X33.49678 Y10.06188
G01 X32.96864 Y10.58258
G01 X32.83519 Y10.67328
G01 X32.75058 Y10.69355
G01 X30.60522 Y10.70361
G01 X30.52313 Y10.71639
G01 X30.36092 Y10.80455
G04 P0 ( dwell for no time -- G64 should not smooth over this point )
G00 Z10.00000 ( retract )

G00 X28.88171 Y16.91571 ( rapid move to begin. )
G01 F30.00000
G01 Z-0.10000
G04 P0 ( dwell for no time -- G64 should not smooth over this point )
G01 F360.00000
G01 X28.88171 Y16.91571
G01 X28.74848 Y16.94942
G01 X23.39416 Y16.94942
G01 X23.34123 Y16.94409
G01 X23.14926 Y16.75935
G01 X23.07466 Y16.62783
G01 X23.10028 Y16.49247
G01 X23.22398 Y16.43057
G01 X23.32919 Y16.39994
G01 X23.35098 Y16.29474
G01 X23.35098 Y14.77074
G01 X23.32919 Y14.66550
G01 X23.05426 Y14.61900
G01 X23.03442 Y14.51674
G01 X23.03442 Y12.23074
G01 X23.05426 Y12.12845
G01 X23.32919 Y12.08194
G01 X23.35098 Y11.97674
G01 X23.35098 Y10.45274
G01 X23.32919 Y10.34750
G01 X23.05426 Y10.30100
G01 X23.03442 Y10.19874
G01 X23.03442 Y9.69074
G01 X23.05426 Y9.58845
G01 X23.32919 Y9.54194
G01 X23.35098 Y9.43674
G01 X23.35098 Y7.91274
G01 X23.32919 Y7.80750
G01 X23.22398 Y7.78574
G01 X22.08098 Y7.78574
G01 X21.97575 Y7.80750
G01 X21.95398 Y7.91274
G01 X21.95398 Y9.43674
G01 X21.97575 Y9.54194
G01 X22.25060 Y9.58853
G01 X22.27039 Y9.69074
G01 X22.27039 Y10.19874
G01 X22.25060 Y10.30092
G01 X21.97575 Y10.34750
G01 X21.95398 Y10.45274
G01 X21.95398 Y11.97674
G01 X21.97575 Y12.08194
G01 X22.25060 Y12.12853
G01 X22.27039 Y12.23074
G01 X22.27039 Y14.51674
G01 X22.25060 Y14.61892
G01 X21.97575 Y14.66550
G01 X21.95398 Y14.77074
G01 X21.95398 Y16.29474
G01 X21.97575 Y16.39994
G01 X22.25060 Y16.44653
G01 X22.27039 Y16.54874
G01 X22.28045 Y16.86397
G01 X22.30062 Y16.94830
G01 X22.34608 Y17.02242
G01 X22.88664 Y17.57538
G01 X23.01024 Y17.65772
G01 X23.15594 Y17.68640
G01 X23.28802 Y17.66288
G01 X28.94355 Y17.66288
G01 X29.02544 Y17.67561
G01 X29.19326 Y17.76722
G01 X29.14581 Y17.91650
G01 X28.99306 Y18.13540
G01 X28.94726 Y18.23143
G01 X28.89618 Y18.38234
G01 X28.87284 Y18.56712
G01 X28.90347 Y18.81134
G01 X28.95778 Y18.95450
G01 X29.03743 Y19.09244
G01 X29.13421 Y19.21104
G01 X29.31790 Y19.35389
G01 X29.53360 Y19.44167
G01 X29.76446 Y19.47149
G01 X29.87058 Y19.46311
G01 X30.02679 Y19.43184
G01 X30.21081 Y19.35394
G01 X30.39458 Y19.21106
G01 X30.53588 Y19.02600
G01 X30.62541 Y18.81139
G01 X30.65722 Y18.58074
G01 X30.63273 Y18.38234
G01 X30.58168 Y18.23143
G01 X30.53585 Y18.13540
G01 X30.38310 Y17.91647
G01 X30.33568 Y17.76722
G01 X30.06898 Y17.70093
G01 X29.84411 Y17.67703
G01 X29.49484 Y17.69539
G01 X29.19326 Y17.76722
G04 P0 ( dwell for no time -- G64 should not smooth over this point )
G00 Z10.00000 ( retract )

G00 X28.87165 Y23.88095 ( rapid move to begin. )
G01 F30.00000
G01 Z-0.10000
G04 P0 ( dwell for no time -- G64 should not smooth over this point )
G01 F360.00000
G01 X28.87165 Y23.88095
G01 X28.74848 Y23.90971
G01 X28.31003 Y23.91976
G01 X28.22570 Y23.93993
G01 X28.11226 Y24.01463
G01 X26.30206 Y25.81356
G01 X25.50998 Y25.81877
G01 X25.40770 Y25.79893
G01 X25.38298 Y25.68689
G01 X25.38298 Y25.43874
G01 X25.36119 Y25.33350
G01 X25.25598 Y25.31174
G01 X24.11298 Y25.31174
G01 X24.00775 Y25.33350
G01 X23.98598 Y25.43874
G01 X23.98598 Y26.96274
G01 X24.00775 Y27.06794
G01 X24.11298 Y27.08974
G01 X25.25598 Y27.08974
G01 X25.36119 Y27.06794
G01 X25.38298 Y26.96274
G01 X25.38298 Y26.71458
G01 X25.40770 Y26.60251
G01 X25.50998 Y26.58268
G01 X26.44948 Y26.58268
G01 X26.60810 Y26.55242
G01 X26.74163 Y26.46172
G01 X28.49088 Y24.71224
G01 X28.53167 Y24.67882
G01 X28.58412 Y24.67361
G01 X28.92346 Y24.67361
G01 X29.00556 Y24.68639
G01 X29.16784 Y24.77460
G01 X29.13642 Y24.89302
G01 X28.99306 Y25.12040
G01 X28.90347 Y25.33510
G01 X28.87160 Y25.56571
G01 X28.89618 Y25.76408
G01 X28.99308 Y26.01105
G01 X29.13421 Y26.19604
G01 X29.31790 Y26.33889
G01 X29.50210 Y26.41689
G01 X29.76446 Y26.45649
G01 X30.06235 Y26.41808
G01 X30.25427 Y26.55258
G01 X30.41244 Y26.58268
G01 X33.84042 Y26.58268
G01 X33.94268 Y26.60251
G01 X33.96742 Y26.71458
G01 X33.96742 Y26.95080
G01 X33.98919 Y27.05600
G01 X34.09442 Y27.07780
G01 X35.59454 Y27.07780
G01 X35.69957 Y27.05608
G01 X35.72142 Y26.95080
G01 X35.72142 Y25.55735
G01 X35.77516 Y25.37615
G01 X35.68484 Y25.33081
G01 X35.59454 Y25.31572
G01 X34.09442 Y25.31572
G01 X33.95947 Y25.34945
G01 X33.82452 Y25.45065
G01 X33.70946 Y25.56571
G01 X31.45546 Y25.56236
G01 X31.24909 Y25.53145
G01 X31.01292 Y25.45532
G01 X30.83517 Y25.13406
G01 X30.65374 Y24.89436
G01 X30.42305 Y24.79472
G01 X30.06354 Y24.69812
G01 X29.84409 Y24.67480
G01 X29.49753 Y24.69302
G01 X29.16784 Y24.77460
G04 P0 ( dwell for no time -- G64 should not smooth over this point )
G00 Z10.00000 ( retract )

G00 X31.92854 Y23.86797 ( rapid move to begin. )
G01 F30.00000
G01 Z-0.10000
G04 P0 ( dwell for no time -- G64 should not smooth over this point )
G01 F360.00000
G01 X31.92854 Y23.86797
G01 X32.11596 Y23.79571
G01 X32.22501 Y23.71654
G01 X32.31421 Y23.61743
G01 X32.38106 Y23.50176
G01 X32.42224 Y23.37372
G01 X32.66935 Y23.37422
G01 X32.65764 Y23.47194
G01 X32.56849 Y23.68685
G01 X32.42681 Y23.87171
G01 X32.24220 Y24.01313
G01 X32.02704 Y24.10229
G01 X31.92960 Y24.11423
G01 X31.92854 Y23.86797
G04 P0 ( dwell for no time -- G64 should not smooth over this point )
G00 Z10.00000 ( retract )

G00 X30.89361 Y23.67445 ( rapid move to begin. )
G01 F30.00000
G01 Z-0.10000
G04 P0 ( dwell for no time -- G64 should not smooth over this point )
G01 F360.00000
G01 X30.89361 Y23.67445
G01 X30.78035 Y23.78771
G01 X30.65341 Y23.88293
G01 X30.52648 Y23.91466
G01 X29.00248 Y23.91466
G01 X28.87165 Y23.88095
G01 X28.87548 Y23.53958
G01 X28.85074 Y23.42751
G01 X28.74848 Y23.40768
G01 X25.47983 Y23.41288
G01 X25.39083 Y23.49871
G01 X25.38296 Y23.56193
G01 X25.38296 Y24.42271
G01 X25.36119 Y24.52794
G01 X25.25598 Y24.54974
G01 X24.11298 Y24.54974
G01 X24.00775 Y24.52794
G01 X23.98598 Y24.42274
G01 X23.98598 Y22.89874
G01 X24.00775 Y22.79350
G01 X24.11298 Y22.77174
G01 X24.98242 Y22.77174
G01 X25.03769 Y22.76572
G01 X25.17358 Y22.67407
G01 X25.33244 Y22.64377
G01 X28.74848 Y22.64377
G01 X28.85074 Y22.62393
G01 X28.87548 Y22.51189
G01 X28.87548 Y22.26374
G01 X28.89725 Y22.15850
G01 X29.00248 Y22.13674
G01 X30.52648 Y22.13674
G01 X30.63169 Y22.15850
G01 X30.65348 Y22.26374
G01 X30.65348 Y23.17661
G01 X30.68129 Y23.29548
G01 X30.76473 Y23.41436
G01 X30.86651 Y23.52307
G01 X30.89361 Y23.67445
G01 X31.12287 Y23.82911
G01 X31.37035 Y24.03163
G01 X31.41924 Y24.24336
G01 X31.47411 Y24.32218
G01 X31.70283 Y24.54354
G01 X34.01543 Y24.54877
G01 X34.09749 Y24.53599
G01 X34.26069 Y24.44720
G01 X34.22647 Y24.32263
G01 X34.03818 Y24.00513
G01 X33.98792 Y23.85659
G01 X33.96366 Y23.66074
G01 X33.99508 Y23.43310
G01 X34.08342 Y23.22142
G01 X34.14304 Y23.13465
G01 X34.24652 Y23.01682
G01 X34.40394 Y22.89792
G01 X34.61682 Y22.81133
G01 X34.84446 Y22.78197
G01 X34.94933 Y22.79025
G01 X35.10310 Y22.82101
G01 X35.28477 Y22.89787
G01 X35.46620 Y23.03892
G01 X35.60539 Y23.22142
G01 X35.69386 Y23.43318
G01 X35.72403 Y23.64710
G01 X35.70102 Y23.85659
G01 X35.65068 Y24.00511
G01 X35.46234 Y24.32256
G01 X35.42807 Y24.44725
G01 X35.10849 Y24.52566
G01 X34.76607 Y24.54366
G01 X34.54748 Y24.52042
G01 X34.26069 Y24.44720
G04 P0 ( dwell for no time -- G64 should not smooth over this point )
G00 Z10.00000 ( retract )

G00 X31.92854 Y22.37280 ( rapid move to begin. )
G01 F30.00000
G01 Z-0.10000
G04 P0 ( dwell for no time -- G64 should not smooth over this point )
G01 F360.00000
G01 X31.92854 Y22.37280
G01 X32.02704 Y22.37994
G01 X32.24220 Y22.46909
G01 X32.42681 Y22.61078
G01 X32.56849 Y22.79538
G01 X32.65764 Y23.01055
G01 X32.66935 Y23.10798
G01 X32.42224 Y23.10849
G01 X32.38106 Y22.98045
G01 X32.31421 Y22.86478
G01 X32.22501 Y22.76566
G01 X32.11596 Y22.68649
G01 X31.92917 Y22.61784
G01 X31.92854 Y22.37280
G04 P0 ( dwell for no time -- G64 should not smooth over this point )
G00 Z10.00000 ( retract )

G00 X34.01195 Y20.51530 ( rapid move to begin. )
G01 F30.00000
G01 Z-0.10000
G04 P0 ( dwell for no time -- G64 should not smooth over this point )
G01 F360.00000
G01 X34.01195 Y20.51530
G01 X34.18083 Y20.34063
G01 X34.48060 Y20.11078
G01 X34.76605 Y19.95701
G01 X35.01243 Y19.85947
G01 X35.43094 Y19.59023
G01 X35.53219 Y19.39394
G01 X35.62058 Y19.17403
G01 X35.67760 Y18.97116
G01 X35.70986 Y18.77946
G01 X35.72111 Y18.59404
G01 X35.70986 Y18.38195
G01 X35.67760 Y18.19026
G01 X35.61784 Y17.98025
G01 X35.44842 Y17.93141
G01 X35.28471 Y17.81785
G01 X35.07186 Y17.73131
G01 X34.84446 Y17.70197
G01 X34.55543 Y17.73801
G01 X33.84908 Y17.04528
G01 X33.71545 Y16.95453
G01 X33.64189 Y16.93631
G01 X33.56983 Y16.92590
G01 X33.43775 Y16.94942
G01 X30.78048 Y16.94942
G01 X30.64723 Y16.91571
G01 X30.65348 Y15.27874
G01 X30.63169 Y15.17350
G01 X30.52648 Y15.15174
G01 X25.50998 Y15.15077
G01 X25.40770 Y15.13093
G01 X25.38298 Y15.01889
G01 X25.38298 Y14.77074
G01 X25.36119 Y14.66550
G01 X25.25598 Y14.64374
G01 X24.11298 Y14.64374
G01 X24.00775 Y14.66550
G01 X23.98598 Y14.77074
G01 X23.98598 Y16.29474
G01 X24.00775 Y16.39994
G01 X24.11298 Y16.42174
G01 X25.25598 Y16.42174
G01 X25.36119 Y16.39994
G01 X25.38298 Y16.29474
G01 X25.38298 Y16.04658
G01 X25.40770 Y15.93451
G01 X25.50998 Y15.91468
G01 X28.74848 Y15.91468
G01 X28.85074 Y15.93451
G01 X28.87548 Y16.04658
G01 X28.88171 Y16.91571
G01 X29.00248 Y16.94193
G01 X30.52648 Y16.94193
G01 X30.64723 Y16.91571
G04 P0 ( dwell for no time -- G64 should not smooth over this point )
G00 Z10.00000 ( retract )

G00 X30.33568 Y17.76722 ( rapid move to begin. )
G01 F30.00000
G01 Z-0.10000
G04 P0 ( dwell for no time -- G64 should not smooth over this point )
G01 F360.00000
G01 X30.33568 Y17.76722
G01 X30.50349 Y17.67561
G01 X30.58541 Y17.66288
G01 X33.38452 Y17.66824
G01 X34.00341 Y18.29460
G01 X33.96143 Y18.56677
G01 X32.33539 Y20.19839
G01 X32.29526 Y20.23128
G01 X32.24327 Y20.23649
G01 X3.10365 Y20.23133
G01 X2.74686 Y19.88185
G01 X2.71384 Y19.84154
G01 X2.70871 Y19.78978
G01 X2.70871 Y19.59674
G01 X2.77698 Y19.34274
G01 X2.77698 Y17.81874
G01 X2.70871 Y17.56474
G01 X2.70871 Y16.54874
G01 X2.77698 Y16.29474
G01 X2.77698 Y14.77074
G01 X2.70871 Y14.51674
G01 X2.69862 Y12.39152
G01 X2.71722 Y12.23068
G01 X2.68541 Y12.00005
G01 X2.59585 Y11.78540
G01 X2.40970 Y11.56071
G01 X2.27084 Y11.45751
G01 X2.11206 Y11.38890
G01 X1.82446 Y11.34006
G01 X1.53683 Y11.38888
G01 X1.37790 Y11.45756
G01 X1.23922 Y11.56068
G01 X1.05306 Y11.78540
G01 X0.95618 Y12.03234
G01 X0.93284 Y12.24432
G01 X0.96347 Y12.46134
G01 X1.01778 Y12.60450
G01 X1.09743 Y12.74244
G01 X1.19395 Y12.86073
G01 X1.43657 Y13.04285
G01 X1.44823 Y13.12075
G01 X1.44823 Y14.51674
G01 X1.37998 Y14.77074
G01 X1.37998 Y16.29474
G01 X1.44823 Y16.54874
G01 X1.44823 Y17.56474
G01 X1.37998 Y17.81874
G01 X1.37998 Y19.34274
G01 X1.44823 Y19.59674
G01 X1.44823 Y20.09620
G01 X1.46113 Y20.21474
G01 X1.53403 Y20.41903
G01 X1.63886 Y20.55637
G01 X2.38882 Y21.30633
G01 X2.50215 Y21.39566
G01 X2.67772 Y21.47392
G01 X2.84899 Y21.49696
G01 X22.13839 Y21.49696
G01 X22.24877 Y21.52035
G01 X22.27039 Y21.62721
G01 X22.27039 Y22.64474
G01 X22.25060 Y22.74692
G01 X21.97575 Y22.79350
G01 X21.95398 Y22.89874
G01 X21.95398 Y24.42274
G01 X21.97575 Y24.52794
G01 X22.25060 Y24.57453
G01 X22.27039 Y24.67674
G01 X22.27039 Y25.18474
G01 X22.25060 Y25.28692
G01 X21.97575 Y25.33350
G01 X21.95398 Y25.43874
G01 X21.95398 Y26.96274
G01 X21.97575 Y27.06794
G01 X22.08098 Y27.08974
G01 X23.22398 Y27.08974
G01 X23.32919 Y27.06794
G01 X23.35098 Y26.96274
G01 X23.35098 Y25.43874
G01 X23.32919 Y25.33350
G01 X23.05426 Y25.28700
G01 X23.03442 Y25.18474
G01 X23.03442 Y24.67674
G01 X23.05426 Y24.57445
G01 X23.32919 Y24.52794
G01 X23.35098 Y24.42274
G01 X23.35098 Y22.89874
G01 X23.32919 Y22.79350
G01 X23.05426 Y22.74700
G01 X23.03442 Y22.64474
G01 X23.03442 Y21.62721
G01 X23.05609 Y21.52028
G01 X23.16632 Y21.49696
G01 X32.57116 Y21.49526
G01 X32.72119 Y21.47392
G01 X32.89676 Y21.39566
G01 X33.01012 Y21.30633
G01 X33.70260 Y20.61385
G01 X33.79381 Y20.55373
G01 X34.01195 Y20.51530
G01 X34.03735 Y20.74527
G01 X33.98792 Y20.92483
G01 X33.96366 Y21.12074
G01 X33.98792 Y21.31659
G01 X34.08347 Y21.56023
G01 X34.24652 Y21.76463
G01 X34.40394 Y21.88352
G01 X34.56054 Y21.95114
G01 X34.84446 Y21.99947
G01 X35.12835 Y21.95111
G01 X35.28477 Y21.88357
G01 X35.46622 Y21.74250
G01 X35.60534 Y21.56023
G01 X35.69383 Y21.34829
G01 X35.72528 Y21.12071
G01 X35.68550 Y20.83463
G01 X36.35924 Y20.14609
G01 X36.45017 Y20.01236
G01 X36.47036 Y19.92803
G01 X36.48042 Y19.39735
G01 X36.49317 Y19.31533
G01 X36.58260 Y19.15099
G01 X36.52830 Y18.94134
G01 X36.49185 Y18.59570
G01 X36.50346 Y18.37687
G01 X36.58258 Y18.01045
G01 X36.49317 Y17.84612
G01 X36.48042 Y17.76413
G01 X36.48042 Y16.85735
G01 X36.49317 Y16.77533
G01 X36.58260 Y16.61099
G01 X36.50346 Y16.24454
G01 X36.49185 Y16.02575
G01 X36.52830 Y15.68008
G01 X36.57783 Y15.48735
G01 X36.49221 Y15.35113
G01 X36.45019 Y15.20556
G01 X36.35934 Y15.07195
G01 X35.78116 Y14.49377
G01 X35.65860 Y14.40924
G01 X35.56396 Y14.37348
G01 X35.41951 Y14.28118
G04 P0 ( dwell for no time -- G64 should not smooth over this point )
G00 Z10.00000 ( retract )

G00 X34.24517 Y14.27333 ( rapid move to begin. )
G01 F30.00000
G01 Z-0.10000
G04 P0 ( dwell for no time -- G64 should not smooth over this point )
G01 F360.00000
G01 X34.24517 Y14.27333
G01 X34.55088 Y14.35278
G01 X34.76607 Y14.37566
G01 X35.10679 Y14.35776
G01 X35.41951 Y14.28118
G01 X35.45873 Y14.15931
G01 X35.60534 Y13.94023
G01 X35.65070 Y13.84511
G01 X35.70102 Y13.69659
G01 X35.72528 Y13.50074
G01 X35.69386 Y13.27318
G01 X35.64016 Y13.13188
G01 X35.56175 Y12.99606
G01 X35.44235 Y12.85685
G01 X35.27245 Y12.73221
G01 X35.07186 Y12.65131
G01 X34.92287 Y12.62710
G01 X34.76607 Y12.62710
G01 X34.61682 Y12.65133
G01 X34.40394 Y12.73792
G01 X34.22254 Y12.87897
G01 X34.08342 Y13.06142
G01 X33.99508 Y13.27310
G01 X33.96491 Y13.48712
G01 X33.99511 Y13.72837
G01 X34.08347 Y13.94023
G01 X34.16132 Y14.04889
G01 X34.21954 Y14.16891
G01 X34.24517 Y14.27333
G01 X34.08523 Y14.36002
G01 X34.00323 Y14.37277
G01 X33.08383 Y14.36754
G01 X30.66131 Y11.95238
G01 X30.61543 Y11.89111
G01 X30.65722 Y11.59574
G01 X30.62541 Y11.36505
G01 X30.53591 Y11.15047
G01 X30.39240 Y10.92312
G01 X30.36092 Y10.80455
G01 X30.03139 Y10.72302
G01 X29.68483 Y10.70480
G01 X29.46537 Y10.72812
G01 X29.16784 Y10.80460
G04 P0 ( dwell for no time -- G64 should not smooth over this point )
G00 Z10.00000 ( retract )

G00 X28.87165 Y9.91095 ( rapid move to begin. )
G01 F30.00000
G01 Z-0.10000
G04 P0 ( dwell for no time -- G64 should not smooth over this point )
G01 F360.00000
G01 X28.87165 Y9.91095
G01 X28.74848 Y9.93971
G01 X27.62227 Y9.93971
G01 X27.46367 Y9.96993
G01 X27.33010 Y10.06079
G01 X26.59687 Y10.79414
G01 X26.55606 Y10.82756
G01 X26.50363 Y10.83277
G01 X25.50998 Y10.83277
G01 X25.40770 Y10.81293
G01 X25.38298 Y10.70089
G01 X25.38298 Y10.45274
G01 X25.36119 Y10.34750
G01 X25.25598 Y10.32574
G01 X24.11298 Y10.32574
G01 X24.00775 Y10.34750
G01 X23.98598 Y10.45274
G01 X23.98598 Y11.97674
G01 X24.00775 Y12.08194
G01 X24.11298 Y12.10374
G01 X25.25598 Y12.10374
G01 X25.36119 Y12.08194
G01 X25.38298 Y11.97674
G01 X25.38298 Y11.72858
G01 X25.40770 Y11.61651
G01 X25.50998 Y11.59668
G01 X26.70348 Y11.59668
G01 X26.86213 Y11.56642
G01 X26.99560 Y11.47572
G01 X27.76967 Y10.70882
G01 X28.92349 Y10.70361
G01 X29.00556 Y10.71636
G01 X29.16784 Y10.80460
G01 X29.13642 Y10.92302
G01 X28.99306 Y11.15040
G01 X28.90347 Y11.36510
G01 X28.87284 Y11.60932
G01 X28.90347 Y11.82634
G01 X28.95778 Y11.96950
G01 X29.03743 Y12.10744
G01 X29.15851 Y12.24852
G01 X29.31790 Y12.36889
G01 X29.53360 Y12.45667
G01 X29.76446 Y12.48649
G01 X30.06235 Y12.44808
G01 X30.12095 Y12.49248
G01 X32.64411 Y15.01567
G01 X32.76658 Y15.10015
G01 X32.93643 Y15.13667
G01 X34.02787 Y15.13667
G01 X34.10994 Y15.14945
G01 X34.27641 Y15.24028
G01 X34.23232 Y15.38404
G01 X34.08340 Y15.60147
G01 X34.03818 Y15.69629
G01 X33.98792 Y15.84483
G01 X33.96366 Y16.04074
G01 X33.99511 Y16.26837
G01 X34.08347 Y16.48023
G01 X34.22251 Y16.66243
G01 X34.40394 Y16.80352
G01 X34.61682 Y16.89009
G01 X34.84446 Y16.91947
G01 X34.94933 Y16.91119
G01 X35.12835 Y16.87111
G01 X35.28479 Y16.80355
G01 X35.44852 Y16.69014
G01 X35.61781 Y16.64127
G01 X35.67760 Y16.43116
G01 X35.70986 Y16.23946
G01 X35.71288 Y15.87058
G01 X35.64750 Y15.53794
G01 X35.48583 Y15.35770
G01 X35.31352 Y15.20939
G01 X34.95335 Y15.15135
G01 X34.57875 Y15.16784
G01 X34.27641 Y15.24028
G04 P0 ( dwell for no time -- G64 should not smooth over this point )
G00 Z10.00000 ( retract )

G00 X35.61781 Y16.64127 ( rapid move to begin. )
G01 F30.00000
G01 Z-0.10000
G04 P0 ( dwell for no time -- G64 should not smooth over this point )
G01 F360.00000
G01 X35.61781 Y16.64127
G01 X35.70374 Y16.79989
G01 X35.71651 Y16.88198
G01 X35.71651 Y17.73949
G01 X35.70379 Y17.82140
G01 X35.61784 Y17.98025
G04 P0 ( dwell for no time -- G64 should not smooth over this point )
G00 Z10.00000 ( retract )

G00 X36.58258 Y18.01045 ( rapid move to begin. )
G01 F30.00000
G01 Z-0.10000
G04 P0 ( dwell for no time -- G64 should not smooth over this point )
G01 F360.00000
G01 X36.58258 Y18.01045
G01 X36.78573 Y17.93611
G01 X36.94394 Y17.81792
G01 X37.15682 Y17.73133
G01 X37.38446 Y17.70197
G01 X37.64310 Y17.74101
G01 X37.83602 Y17.82582
G01 X38.00620 Y17.95892
G01 X38.10175 Y18.07606
G01 X38.18016 Y18.21188
G01 X38.23386 Y18.35318
G01 X38.26528 Y18.58074
G01 X38.23383 Y18.80827
G01 X38.18016 Y18.94954
G01 X38.10178 Y19.08536
G01 X38.00620 Y19.20253
G01 X37.83602 Y19.33562
G01 X37.64310 Y19.42041
G01 X37.38446 Y19.45947
G01 X37.15682 Y19.43009
G01 X36.94394 Y19.34352
G01 X36.78573 Y19.22531
G01 X36.58260 Y19.15099
G04 P0 ( dwell for no time -- G64 should not smooth over this point )
G00 Z10.00000 ( retract )

G00 X36.50366 Y21.12074 ( rapid move to begin. )
G01 F30.00000
G01 Z-0.10000
G04 P0 ( dwell for no time -- G64 should not smooth over this point )
G01 F360.00000
G01 X36.50366 Y21.12074
G01 X36.52792 Y20.92483
G01 X36.57818 Y20.77629
G01 X36.62340 Y20.68147
G01 X36.76272 Y20.49892
G01 X36.94397 Y20.35790
G01 X37.10054 Y20.29028
G01 X37.38446 Y20.24197
G01 X37.66835 Y20.29033
G01 X37.82477 Y20.35787
G01 X38.00620 Y20.49892
G01 X38.14539 Y20.68142
G01 X38.19068 Y20.77631
G01 X38.24102 Y20.92483
G01 X38.26528 Y21.12074
G01 X38.24102 Y21.31659
G01 X38.19070 Y21.46511
G01 X38.14534 Y21.56023
G01 X38.00622 Y21.74250
G01 X37.82477 Y21.88357
G01 X37.66835 Y21.95111
G01 X37.38446 Y21.99947
G01 X37.10054 Y21.95114
G01 X36.94400 Y21.88352
G01 X36.76269 Y21.74250
G01 X36.62345 Y21.56018
G01 X36.57816 Y21.46513
G01 X36.52792 Y21.31659
G01 X36.50366 Y21.12074
G04 P0 ( dwell for no time -- G64 should not smooth over this point )
G00 Z10.00000 ( retract )

G00 X37.51656 Y22.67638 ( rapid move to begin. )
G01 F30.00000
G01 Z-0.10000
G04 P0 ( dwell for no time -- G64 should not smooth over this point )
G01 F360.00000
G01 X37.51656 Y22.67638
G01 X37.51720 Y22.92045
G01 X37.61806 Y22.94260
G01 X37.76149 Y23.00646
G01 X37.88989 Y23.09965
G01 X37.99548 Y23.21700
G01 X38.07404 Y23.35304
G01 X38.12642 Y23.52789
G01 X38.37341 Y23.52759
G01 X38.35766 Y23.39993
G01 X38.25682 Y23.15708
G01 X38.09685 Y22.94834
G01 X37.88811 Y22.78812
G01 X37.64501 Y22.68753
G01 X37.51656 Y22.67638
G04 P0 ( dwell for no time -- G64 should not smooth over this point )
G00 Z10.00000 ( retract )

G00 X36.39508 Y23.52289 ( rapid move to begin. )
G01 F30.00000
G01 Z-0.10000
G04 P0 ( dwell for no time -- G64 should not smooth over this point )
G01 F360.00000
G01 X36.39508 Y23.52289
G01 X36.64250 Y23.52789
G01 X36.69485 Y23.35309
G01 X36.77343 Y23.21700
G01 X36.87902 Y23.09965
G01 X37.00737 Y23.00651
G01 X37.15085 Y22.94260
G01 X37.25172 Y22.92045
G01 X37.25134 Y22.67179
G01 X37.12367 Y22.68753
G01 X36.88116 Y22.78784
G01 X36.67209 Y22.94834
G01 X36.51187 Y23.15708
G01 X36.41128 Y23.39993
G01 X36.39508 Y23.52289
G04 P0 ( dwell for no time -- G64 should not smooth over this point )
G00 Z10.00000 ( retract )

G00 X36.39508 Y23.79853 ( rapid move to begin. )
G01 F30.00000
G01 Z-0.10000
G04 P0 ( dwell for no time -- G64 should not smooth over this point )
G01 F360.00000
G01 X36.39508 Y23.79853
G01 X36.64250 Y23.79353
G01 X36.69485 Y23.96833
G01 X36.77343 Y24.10442
G01 X36.87902 Y24.22177
G01 X37.00737 Y24.31491
G01 X37.15085 Y24.37882
G01 X37.25172 Y24.40097
G01 X37.25134 Y24.64966
G01 X37.12367 Y24.63391
G01 X36.88057 Y24.53333
G01 X36.67209 Y24.37310
G01 X36.51187 Y24.16437
G01 X36.41128 Y23.92152
G01 X36.39508 Y23.79853
G04 P0 ( dwell for no time -- G64 should not smooth over this point )
G00 Z10.00000 ( retract )

G00 X35.42807 Y24.44725 ( rapid move to begin. )
G01 F30.00000
G01 Z-0.10000
G04 P0 ( dwell for no time -- G64 should not smooth over this point )
G01 F360.00000
G01 X35.42807 Y24.44725
G01 X35.59119 Y24.53599
G01 X35.67328 Y24.54877
G01 X36.10148 Y24.54877
G01 X36.26013 Y24.57902
G01 X36.39363 Y24.66972
G01 X37.09543 Y25.35801
G01 X37.30607 Y25.32710
G01 X37.46287 Y25.32710
G01 X37.61186 Y25.35133
G01 X37.85507 Y25.44135
G01 X37.92324 Y25.39177
G01 X42.67330 Y20.64172
G01 X42.71701 Y20.58429
G01 X42.66199 Y20.37829
G01 X42.63281 Y20.14078
G01 X42.67149 Y19.86115
G01 X42.77992 Y19.60121
G01 X42.98241 Y19.34809
G01 X43.17350 Y19.20405
G01 X43.39389 Y19.11055
G01 X43.61510 Y19.06831
G01 X43.84017 Y19.07144
G01 X44.03489 Y19.11060
G01 X44.25511 Y19.20400
G01 X44.47791 Y19.37725
G01 X44.64873 Y19.60115
G01 X44.70336 Y19.71505
G01 X44.77139 Y19.92983
G01 X44.79600 Y20.14078
G01 X44.77139 Y20.35172
G01 X44.70331 Y20.56648
G01 X44.64875 Y20.68022
G01 X44.47791 Y20.90430
G01 X44.25516 Y21.07743
G01 X43.99374 Y21.18373
G01 X43.81368 Y21.21327
G01 X43.61510 Y21.21327
G01 X43.43481 Y21.18370
G01 X43.27512 Y21.13580
G01 X43.21348 Y21.18190
G01 X38.30188 Y26.09350
G01 X38.26647 Y26.13729
G01 X38.23383 Y26.42829
G01 X38.14534 Y26.64023
G01 X38.00622 Y26.82250
G01 X37.82477 Y26.96357
G01 X37.61186 Y27.05011
G01 X37.46284 Y27.07432
G01 X37.30607 Y27.07432
G01 X37.10054 Y27.03114
G01 X36.94400 Y26.96352
G01 X36.80727 Y26.86182
G01 X36.62345 Y26.64018
G01 X36.53511 Y26.42837
G01 X36.50366 Y26.20071
G01 X36.54341 Y25.91460
G01 X36.05893 Y25.41547
G01 X35.94260 Y25.34559
G01 X35.77516 Y25.37615
G04 P0 ( dwell for no time -- G64 should not smooth over this point )
G00 Z10.00000 ( retract )

G00 X37.51656 Y24.40457 ( rapid move to begin. )
G01 F30.00000
G01 Z-0.10000
G04 P0 ( dwell for no time -- G64 should not smooth over this point )
G01 F360.00000
G01 X37.51656 Y24.40457
G01 X37.51760 Y24.64966
G01 X37.64501 Y24.63391
G01 X37.88811 Y24.53333
G01 X38.09685 Y24.37310
G01 X38.25682 Y24.16437
G01 X38.35766 Y23.92152
G01 X38.37343 Y23.79386
G01 X38.12642 Y23.79353
G01 X38.07404 Y23.96838
G01 X37.99548 Y24.10442
G01 X37.88989 Y24.22177
G01 X37.76149 Y24.31496
G01 X37.61806 Y24.37882
G01 X37.51656 Y24.40457
G04 P0 ( dwell for no time -- G64 should not smooth over this point )
G00 Z10.00000 ( retract )

G00 X39.80254 Y22.08997 ( rapid move to begin. )
G01 F30.00000
G01 Z-0.10000
G04 P0 ( dwell for no time -- G64 should not smooth over this point )
G01 F360.00000
G01 X39.80254 Y22.08997
G01 X39.80360 Y22.33623
G01 X39.90104 Y22.32429
G01 X40.11620 Y22.23513
G01 X40.30081 Y22.09371
G01 X40.44249 Y21.90885
G01 X40.53139 Y21.69394
G01 X40.54333 Y21.59622
G01 X40.29624 Y21.59572
G01 X40.25506 Y21.72376
G01 X40.18821 Y21.83943
G01 X40.09901 Y21.93854
G01 X39.98996 Y22.01771
G01 X39.80254 Y22.08997
G04 P0 ( dwell for no time -- G64 should not smooth over this point )
G00 Z10.00000 ( retract )

G00 X38.79690 Y21.60092 ( rapid move to begin. )
G01 F30.00000
G01 Z-0.10000
G04 P0 ( dwell for no time -- G64 should not smooth over this point )
G01 F360.00000
G01 X38.79690 Y21.60092
G01 X38.80929 Y21.69394
G01 X38.89820 Y21.90885
G01 X39.03988 Y22.09371
G01 X39.22474 Y22.23513
G01 X39.43965 Y22.32429
G01 X39.53734 Y22.33623
G01 X39.53774 Y22.08637
G01 X39.35090 Y22.01766
G01 X39.24211 Y21.93872
G01 X39.15270 Y21.83943
G01 X39.08585 Y21.72376
G01 X39.04468 Y21.59572
G01 X38.79690 Y21.60092
G04 P0 ( dwell for no time -- G64 should not smooth over this point )
G00 Z10.00000 ( retract )

G00 X38.79693 Y21.32528 ( rapid move to begin. )
G01 F30.00000
G01 Z-0.10000
G04 P0 ( dwell for no time -- G64 should not smooth over this point )
G01 F360.00000
G01 X38.79693 Y21.32528
G01 X38.80929 Y21.23255
G01 X38.89820 Y21.01738
G01 X39.03988 Y20.83278
G01 X39.22474 Y20.69109
G01 X39.43965 Y20.60194
G01 X39.53736 Y20.59023
G01 X39.53774 Y20.83984
G01 X39.35090 Y20.90854
G01 X39.24211 Y20.98749
G01 X39.15270 Y21.08678
G01 X39.08585 Y21.20245
G01 X39.04468 Y21.33049
G01 X38.79693 Y21.32528
G04 P0 ( dwell for no time -- G64 should not smooth over this point )
G00 Z10.00000 ( retract )

G00 X39.80254 Y20.59480 ( rapid move to begin. )
G01 F30.00000
G01 Z-0.10000
G04 P0 ( dwell for no time -- G64 should not smooth over this point )
G01 F360.00000
G01 X39.80254 Y20.59480
G01 X39.80317 Y20.83984
G01 X39.98996 Y20.90849
G01 X40.09901 Y20.98766
G01 X40.18821 Y21.08678
G01 X40.25506 Y21.20245
G01 X40.29624 Y21.33049
G01 X40.54333 Y21.32998
G01 X40.53139 Y21.23255
G01 X40.44249 Y21.01738
G01 X40.30081 Y20.83278
G01 X40.11620 Y20.69109
G01 X39.90104 Y20.60194
G01 X39.80254 Y20.59480
G04 P0 ( dwell for no time -- G64 should not smooth over this point )
G00 Z10.00000 ( retract )

G00 X39.98211 Y18.89062 ( rapid move to begin. )
G01 F30.00000
G01 Z-0.10000
G04 P0 ( dwell for no time -- G64 should not smooth over this point )
G01 F360.00000
G01 X39.98211 Y18.89062
G01 X40.01498 Y18.62183
G01 X40.08831 Y18.40388
G01 X40.21381 Y18.18020
G01 X40.34442 Y18.02100
G01 X40.59822 Y17.82349
G01 X40.82204 Y17.72694
G01 X41.07282 Y17.67213
G01 X41.21429 Y17.66146
G01 X41.35572 Y17.67213
G01 X41.60650 Y17.72689
G01 X41.83055 Y17.82354
G01 X42.08414 Y18.02100
G01 X42.21480 Y18.18018
G01 X42.34035 Y18.40382
G01 X42.41368 Y18.62178
G01 X42.44657 Y18.89062
G01 X42.41371 Y19.15940
G01 X42.34040 Y19.37738
G01 X42.21485 Y19.60105
G01 X42.08407 Y19.76039
G01 X41.83050 Y19.95782
G01 X41.60655 Y20.05439
G01 X41.35575 Y20.10918
G01 X41.21429 Y20.11985
G01 X41.07279 Y20.10918
G01 X40.82199 Y20.05434
G01 X40.59827 Y19.95787
G01 X40.34450 Y19.76041
G01 X40.21374 Y19.60103
G01 X40.08826 Y19.37733
G01 X40.01496 Y19.15937
G01 X39.98211 Y18.89062
G04 P0 ( dwell for no time -- G64 should not smooth over this point )
G00 Z10.00000 ( retract )

G00 X43.84650 Y23.45464 ( rapid move to begin. )
G01 F30.00000
G01 Z-0.10000
G04 P0 ( dwell for no time -- G64 should not smooth over this point )
G01 F360.00000
G01 X43.84650 Y23.45464
G01 X44.02727 Y23.47265
G01 X44.31828 Y23.59327
G01 X44.56953 Y23.78578
G01 X44.76151 Y24.03617
G01 X44.88241 Y24.32779
G01 X44.90502 Y24.50752
G01 X44.65625 Y24.50780
G01 X44.58678 Y24.25200
G01 X44.48713 Y24.07943
G01 X44.35363 Y23.93109
G01 X44.19171 Y23.81344
G01 X44.00951 Y23.73234
G01 X43.84713 Y23.69713
G01 X43.84650 Y23.45464
G04 P0 ( dwell for no time -- G64 should not smooth over this point )
G00 Z10.00000 ( retract )

G00 X43.84650 Y25.58776 ( rapid move to begin. )
G01 F30.00000
G01 Z-0.10000
G04 P0 ( dwell for no time -- G64 should not smooth over this point )
G01 F360.00000
G01 X43.84650 Y25.58776
G01 X44.00951 Y25.54895
G01 X44.19171 Y25.46784
G01 X44.35363 Y25.35019
G01 X44.48713 Y25.20185
G01 X44.58678 Y25.02929
G01 X44.65625 Y24.77348
G01 X44.90502 Y24.77379
G01 X44.88241 Y24.95377
G01 X44.76151 Y25.24539
G01 X44.56902 Y25.49622
G01 X44.31889 Y25.68801
G01 X44.02727 Y25.80866
G01 X43.85224 Y25.83170
G01 X43.84650 Y25.58776
G04 P0 ( dwell for no time -- G64 should not smooth over this point )
G00 Z10.00000 ( retract )

G00 X42.52333 Y24.77849 ( rapid move to begin. )
G01 F30.00000
G01 Z-0.10000
G04 P0 ( dwell for no time -- G64 should not smooth over this point )
G01 F360.00000
G01 X42.52333 Y24.77849
G01 X42.54640 Y24.95377
G01 X42.66705 Y25.24539
G01 X42.85927 Y25.49578
G01 X43.10967 Y25.68801
G01 X43.40128 Y25.80866
G01 X43.58127 Y25.83127
G01 X43.58165 Y25.58415
G01 X43.41927 Y25.54895
G01 X43.23735 Y25.46797
G01 X43.07515 Y25.35019
G01 X42.94165 Y25.20185
G01 X42.84200 Y25.02929
G01 X42.77253 Y24.77348
G01 X42.52333 Y24.77849
G04 P0 ( dwell for no time -- G64 should not smooth over this point )
G00 Z10.00000 ( retract )

G00 X42.52333 Y24.50280 ( rapid move to begin. )
G01 F30.00000
G01 Z-0.10000
G04 P0 ( dwell for no time -- G64 should not smooth over this point )
G01 F360.00000
G01 X42.52333 Y24.50280
G01 X42.54640 Y24.32779
G01 X42.66677 Y24.03676
G01 X42.85927 Y23.78578
G01 X43.11025 Y23.59327
G01 X43.40128 Y23.47265
G01 X43.58127 Y23.45002
G01 X43.58165 Y23.69713
G01 X43.41927 Y23.73234
G01 X43.23735 Y23.81331
G01 X43.07515 Y23.93109
G01 X42.94165 Y24.07943
G01 X42.84200 Y24.25200
G01 X42.77253 Y24.50780
G01 X42.52333 Y24.50280
G04 P0 ( dwell for no time -- G64 should not smooth over this point )
G00 Z10.00000 ( retract )

G00 X39.98211 Y25.89083 ( rapid move to begin. )
G01 F30.00000
G01 Z-0.10000
G04 P0 ( dwell for no time -- G64 should not smooth over this point )
G01 F360.00000
G01 X39.98211 Y25.89083
G01 X40.01498 Y25.62205
G01 X40.08826 Y25.40409
G01 X40.21374 Y25.18039
G01 X40.34447 Y25.02103
G01 X40.59827 Y24.82355
G01 X40.82202 Y24.72708
G01 X41.07279 Y24.67224
G01 X41.21429 Y24.66157
G01 X41.35575 Y24.67224
G01 X41.60655 Y24.72703
G01 X41.83050 Y24.82360
G01 X42.08409 Y25.02103
G01 X42.21485 Y25.18037
G01 X42.34040 Y25.40406
G01 X42.41371 Y25.62202
G01 X42.44657 Y25.89083
G01 X42.41368 Y26.15964
G01 X42.34035 Y26.37760
G01 X42.21483 Y26.60127
G01 X42.08407 Y26.76063
G01 X41.83057 Y26.95788
G01 X41.60652 Y27.05453
G01 X41.35572 Y27.10932
G01 X41.21429 Y27.11996
G01 X41.07282 Y27.10929
G01 X40.82204 Y27.05448
G01 X40.59819 Y26.95793
G01 X40.34450 Y26.76063
G01 X40.21379 Y26.60124
G01 X40.08831 Y26.37754
G01 X40.01498 Y26.15959
G01 X39.98211 Y25.89083

