( pcb2gcode 2.5.0 )
( Software-independent Gcode )

G94 ( Millimeters per minute feed rate. )
G21 ( Units == Millimeters. )

G90 ( Absolute coordinates. )
G00 S10000 ( RPM spindle speed. )
G01 F360.00000 ( Feedrate. )


G00 Z50.00000 (Retract to tool change height)
T1
M5      (Spindle stop.)
G04 P1.00000 (Wait for spindle to stop)
(MSG, Change tool bit to mill diameter 0.00000mm)
M6      (Tool change.)
M0      (Temporary machine stop.)
M3 ( Spindle on clockwise. )
G04 P1.00000 (Wait for spindle to get up to speed)
G04 P0 ( dwell for no time -- G64 should not smooth over this point )
G00 Z10.00000 ( retract )

G00 X0.75768 Y8.62393 ( rapid move to begin. )
G01 F30.00000
( Mill infeed pass 1/1 )
G01 Z-0.10000
G04 P0 ( dwell for no time -- G64 should not smooth over this point )
G01 F360.00000
G01 X0.75768 Y8.62393
G01 X0.75768 Y9.51293
G01 X1.01168 Y9.51293
G01 X1.01168 Y8.87794
G01 X1.64668 Y8.87794
G01 X1.64668 Y8.62393
G01 X0.75768 Y8.62393
G04 P0 ( dwell for no time -- G64 should not smooth over this point )
G00 Z10.00000 ( retract )

G00 X1.90068 Y8.62393 ( rapid move to begin. )
G01 F30.00000
( Mill infeed pass 1/1 )
G01 Z-0.10000
G04 P0 ( dwell for no time -- G64 should not smooth over this point )
G01 F360.00000
G01 X1.90068 Y8.62393
G01 X2.78968 Y8.62393
G01 X2.78968 Y9.51293
G01 X2.53568 Y9.51293
G01 X2.53568 Y8.87794
G01 X1.90068 Y8.87794
G01 X1.90068 Y8.62393
G04 P0 ( dwell for no time -- G64 should not smooth over this point )
G00 Z10.00000 ( retract )

G00 X0.75768 Y9.76694 ( rapid move to begin. )
G01 F30.00000
( Mill infeed pass 1/1 )
G01 Z-0.10000
G04 P0 ( dwell for no time -- G64 should not smooth over this point )
G01 F360.00000
G01 X0.75768 Y9.76694
G01 X1.01168 Y9.76694
G01 X1.01168 Y10.40193
G01 X1.64668 Y10.40193
G01 X1.64668 Y10.65593
G01 X0.75768 Y10.65593
G01 X0.75768 Y9.76694
G04 P0 ( dwell for no time -- G64 should not smooth over this point )
G00 Z10.00000 ( retract )

G00 X1.90068 Y10.40193 ( rapid move to begin. )
G01 F30.00000
( Mill infeed pass 1/1 )
G01 Z-0.10000
G04 P0 ( dwell for no time -- G64 should not smooth over this point )
G01 F360.00000
G01 X1.90068 Y10.40193
G01 X1.90068 Y10.65593
G01 X2.78968 Y10.65593
G01 X2.78968 Y9.76694
G01 X2.53568 Y9.76694
G01 X2.53568 Y10.40193
G01 X1.90068 Y10.40193
G04 P0 ( dwell for no time -- G64 should not smooth over this point )
G00 Z10.00000 ( retract )

G00 X4.18668 Y14.46593 ( rapid move to begin. )
G01 F30.00000
( Mill infeed pass 1/1 )
G01 Z-0.10000
G04 P0 ( dwell for no time -- G64 should not smooth over this point )
G01 F360.00000
G01 X4.18668 Y14.46593
G01 X4.88518 Y14.46593
G01 X4.88518 Y15.35493
G01 X4.63118 Y15.35493
G01 X4.63118 Y14.71994
G01 X4.18668 Y14.71994
G01 X4.18668 Y14.46593
G04 P0 ( dwell for no time -- G64 should not smooth over this point )
G00 Z10.00000 ( retract )

G00 X3.23418 Y14.46593 ( rapid move to begin. )
G01 F30.00000
( Mill infeed pass 1/1 )
G01 Z-0.10000
G04 P0 ( dwell for no time -- G64 should not smooth over this point )
G01 F360.00000
G01 X3.23418 Y14.46593
G01 X3.93268 Y14.46593
G01 X3.93268 Y14.71994
G01 X3.48818 Y14.71994
G01 X3.48818 Y15.35493
G01 X3.23418 Y15.35493
G01 X3.23418 Y14.46593
G04 P0 ( dwell for no time -- G64 should not smooth over this point )
G00 Z10.00000 ( retract )

G00 X3.23418 Y15.60893 ( rapid move to begin. )
G01 F30.00000
( Mill infeed pass 1/1 )
G01 Z-0.10000
G04 P0 ( dwell for no time -- G64 should not smooth over this point )
G01 F360.00000
G01 X3.23418 Y15.60893
G01 X3.48818 Y15.60893
G01 X3.48818 Y16.24394
G01 X3.93268 Y16.24394
G01 X3.93268 Y16.49793
G01 X3.23418 Y16.49793
G01 X3.23418 Y15.60893
G04 P0 ( dwell for no time -- G64 should not smooth over this point )
G00 Z10.00000 ( retract )

G00 X4.18668 Y16.24394 ( rapid move to begin. )
G01 F30.00000
( Mill infeed pass 1/1 )
G01 Z-0.10000
G04 P0 ( dwell for no time -- G64 should not smooth over this point )
G01 F360.00000
G01 X4.18668 Y16.24394
G01 X4.63118 Y16.24394
G01 X4.63118 Y15.60893
G01 X4.88518 Y15.60893
G01 X4.88518 Y16.49793
G01 X4.18668 Y16.49793
G01 X4.18668 Y16.24394
G04 P0 ( dwell for no time -- G64 should not smooth over this point )
G00 Z10.00000 ( retract )

G00 X3.23418 Y17.51393 ( rapid move to begin. )
G01 F30.00000
( Mill infeed pass 1/1 )
G01 Z-0.10000
G04 P0 ( dwell for no time -- G64 should not smooth over this point )
G01 F360.00000
G01 X3.23418 Y17.51393
G01 X3.23418 Y18.40293
G01 X3.48818 Y18.40293
G01 X3.48818 Y17.76793
G01 X3.93268 Y17.76793
G01 X3.93268 Y17.51393
G01 X3.23418 Y17.51393
G04 P0 ( dwell for no time -- G64 should not smooth over this point )
G00 Z10.00000 ( retract )

G00 X3.23418 Y18.65694 ( rapid move to begin. )
G01 F30.00000
( Mill infeed pass 1/1 )
G01 Z-0.10000
G04 P0 ( dwell for no time -- G64 should not smooth over this point )
G01 F360.00000
G01 X3.23418 Y18.65694
G01 X3.23418 Y19.54594
G01 X3.93268 Y19.54594
G01 X3.93268 Y19.29193
G01 X3.48818 Y19.29193
G01 X3.48818 Y18.65694
G01 X3.23418 Y18.65694
G04 P0 ( dwell for no time -- G64 should not smooth over this point )
G00 Z10.00000 ( retract )

G00 X0.39014 Y22.21293 ( rapid move to begin. )
G01 F30.00000
( Mill infeed pass 1/1 )
G01 Z-0.10000
G04 P0 ( dwell for no time -- G64 should not smooth over this point )
G01 F360.00000
G01 X0.39014 Y22.21293
G01 X0.40386 Y22.10778
G01 X0.49352 Y21.89163
G01 X0.63602 Y21.70595
G01 X0.82166 Y21.56346
G01 X1.03784 Y21.47379
G01 X1.14300 Y21.46008
G01 X1.14300 Y21.71776
G01 X1.05067 Y21.74400
G01 X0.96728 Y21.78172
G01 X0.89019 Y21.83102
G01 X0.82095 Y21.89091
G01 X0.76109 Y21.96013
G01 X0.71178 Y22.03722
G01 X0.67407 Y22.12061
G01 X0.64783 Y22.21293
G01 X0.39014 Y22.21293
G04 P0 ( dwell for no time -- G64 should not smooth over this point )
G00 Z10.00000 ( retract )

G00 X0.39014 Y22.46693 ( rapid move to begin. )
G01 F30.00000
( Mill infeed pass 1/1 )
G01 Z-0.10000
G04 P0 ( dwell for no time -- G64 should not smooth over this point )
G01 F360.00000
G01 X0.39014 Y22.46693
G01 X0.40386 Y22.57209
G01 X0.49352 Y22.78824
G01 X0.63602 Y22.97392
G01 X0.82166 Y23.11641
G01 X1.03784 Y23.20607
G01 X1.14300 Y23.21979
G01 X1.14300 Y22.96208
G01 X1.05067 Y22.93584
G01 X0.96728 Y22.89813
G01 X0.89019 Y22.84882
G01 X0.82095 Y22.78893
G01 X0.76109 Y22.71972
G01 X0.71178 Y22.64263
G01 X0.67407 Y22.55924
G01 X0.64783 Y22.46693
G01 X0.39014 Y22.46693
G04 P0 ( dwell for no time -- G64 should not smooth over this point )
G00 Z10.00000 ( retract )

G00 X1.39700 Y22.96208 ( rapid move to begin. )
G01 F30.00000
( Mill infeed pass 1/1 )
G01 Z-0.10000
G04 P0 ( dwell for no time -- G64 should not smooth over this point )
G01 F360.00000
G01 X1.39700 Y22.96208
G01 X1.39700 Y23.21979
G01 X1.50216 Y23.20607
G01 X1.71831 Y23.11641
G01 X1.90398 Y22.97392
G01 X2.04648 Y22.78824
G01 X2.13614 Y22.57209
G01 X2.14986 Y22.46693
G01 X1.89215 Y22.46693
G01 X1.86591 Y22.55924
G01 X1.82819 Y22.64263
G01 X1.77889 Y22.71972
G01 X1.71900 Y22.78893
G01 X1.64976 Y22.84882
G01 X1.57269 Y22.89813
G01 X1.48930 Y22.93584
G01 X1.39700 Y22.96208
G04 P0 ( dwell for no time -- G64 should not smooth over this point )
G00 Z10.00000 ( retract )

G00 X1.66014 Y24.75293 ( rapid move to begin. )
G01 F30.00000
( Mill infeed pass 1/1 )
G01 Z-0.10000
G04 P0 ( dwell for no time -- G64 should not smooth over this point )
G01 F360.00000
G01 X1.66014 Y24.75293
G01 X1.67386 Y24.64778
G01 X1.76352 Y24.43163
G01 X1.90602 Y24.24595
G01 X2.09169 Y24.10346
G01 X2.30784 Y24.01380
G01 X2.41300 Y24.00008
G01 X2.41300 Y24.25776
G01 X2.32067 Y24.28400
G01 X2.23728 Y24.32172
G01 X2.16019 Y24.37102
G01 X2.09098 Y24.43091
G01 X2.03109 Y24.50013
G01 X1.98178 Y24.57722
G01 X1.94407 Y24.66061
G01 X1.91783 Y24.75293
G01 X1.66014 Y24.75293
G04 P0 ( dwell for no time -- G64 should not smooth over this point )
G00 Z10.00000 ( retract )

G00 X1.66014 Y25.00693 ( rapid move to begin. )
G01 F30.00000
( Mill infeed pass 1/1 )
G01 Z-0.10000
G04 P0 ( dwell for no time -- G64 should not smooth over this point )
G01 F360.00000
G01 X1.66014 Y25.00693
G01 X1.67386 Y25.11209
G01 X1.76352 Y25.32824
G01 X1.90602 Y25.51392
G01 X2.09169 Y25.65641
G01 X2.30784 Y25.74607
G01 X2.41300 Y25.75979
G01 X2.41300 Y25.50208
G01 X2.32067 Y25.47584
G01 X2.23728 Y25.43813
G01 X2.16019 Y25.38882
G01 X2.09098 Y25.32893
G01 X2.03109 Y25.25972
G01 X1.98178 Y25.18263
G01 X1.94407 Y25.09924
G01 X1.91783 Y25.00693
G01 X1.66014 Y25.00693
G04 P0 ( dwell for no time -- G64 should not smooth over this point )
G00 Z10.00000 ( retract )

G00 X2.66700 Y25.50208 ( rapid move to begin. )
G01 F30.00000
( Mill infeed pass 1/1 )
G01 Z-0.10000
G04 P0 ( dwell for no time -- G64 should not smooth over this point )
G01 F360.00000
G01 X2.66700 Y25.50208
G01 X2.66700 Y25.75979
G01 X2.77216 Y25.74607
G01 X2.98831 Y25.65641
G01 X3.17398 Y25.51392
G01 X3.31640 Y25.32824
G01 X3.40614 Y25.11209
G01 X3.41986 Y25.00693
G01 X3.16215 Y25.00693
G01 X3.13591 Y25.09924
G01 X3.09819 Y25.18263
G01 X3.04889 Y25.25972
G01 X2.98900 Y25.32893
G01 X2.91978 Y25.38882
G01 X2.84269 Y25.43813
G01 X2.75930 Y25.47584
G01 X2.66700 Y25.50208
G04 P0 ( dwell for no time -- G64 should not smooth over this point )
G00 Z10.00000 ( retract )

G00 X2.66700 Y24.00008 ( rapid move to begin. )
G01 F30.00000
( Mill infeed pass 1/1 )
G01 Z-0.10000
G04 P0 ( dwell for no time -- G64 should not smooth over this point )
G01 F360.00000
G01 X2.66700 Y24.00008
G01 X2.77216 Y24.01380
G01 X2.98831 Y24.10346
G01 X3.17398 Y24.24595
G01 X3.31640 Y24.43163
G01 X3.40614 Y24.64778
G01 X3.41986 Y24.75293
G01 X3.16215 Y24.75293
G01 X3.13591 Y24.66061
G01 X3.09819 Y24.57722
G01 X3.04889 Y24.50013
G01 X2.98900 Y24.43091
G01 X2.91978 Y24.37102
G01 X2.84269 Y24.32172
G01 X2.75930 Y24.28400
G01 X2.66700 Y24.25776
G01 X2.66700 Y24.00008
G04 P0 ( dwell for no time -- G64 should not smooth over this point )
G00 Z10.00000 ( retract )

G00 X1.39700 Y21.46008 ( rapid move to begin. )
G01 F30.00000
( Mill infeed pass 1/1 )
G01 Z-0.10000
G04 P0 ( dwell for no time -- G64 should not smooth over this point )
G01 F360.00000
G01 X1.39700 Y21.46008
G01 X1.50216 Y21.47379
G01 X1.71831 Y21.56346
G01 X1.90398 Y21.70595
G01 X2.04648 Y21.89163
G01 X2.13614 Y22.10778
G01 X2.14986 Y22.21293
G01 X1.89215 Y22.21293
G01 X1.86591 Y22.12061
G01 X1.82819 Y22.03722
G01 X1.77889 Y21.96013
G01 X1.71900 Y21.89091
G01 X1.64976 Y21.83102
G01 X1.57269 Y21.78172
G01 X1.48930 Y21.74400
G01 X1.39700 Y21.71776
G01 X1.39700 Y21.46008
G04 P0 ( dwell for no time -- G64 should not smooth over this point )
G00 Z10.00000 ( retract )

G00 X4.18668 Y19.29193 ( rapid move to begin. )
G01 F30.00000
( Mill infeed pass 1/1 )
G01 Z-0.10000
G04 P0 ( dwell for no time -- G64 should not smooth over this point )
G01 F360.00000
G01 X4.18668 Y19.29193
G01 X4.63118 Y19.29193
G01 X4.63118 Y18.65694
G01 X4.88518 Y18.65694
G01 X4.88518 Y19.54594
G01 X4.18668 Y19.54594
G01 X4.18668 Y19.29193
G04 P0 ( dwell for no time -- G64 should not smooth over this point )
G00 Z10.00000 ( retract )

G00 X4.18668 Y17.51393 ( rapid move to begin. )
G01 F30.00000
( Mill infeed pass 1/1 )
G01 Z-0.10000
G04 P0 ( dwell for no time -- G64 should not smooth over this point )
G01 F360.00000
G01 X4.18668 Y17.51393
G01 X4.88518 Y17.51393
G01 X4.88518 Y18.40293
G01 X4.63118 Y18.40293
G01 X4.63118 Y17.76793
G01 X4.18668 Y17.76793
G01 X4.18668 Y17.51393
G04 P0 ( dwell for no time -- G64 should not smooth over this point )
G00 Z10.00000 ( retract )

G00 X5.21157 Y18.49133 ( rapid move to begin. )
G01 F30.00000
( Mill infeed pass 1/1 )
G01 Z-0.10000
G04 P0 ( dwell for no time -- G64 should not smooth over this point )
G01 F360.00000
G01 X5.21157 Y18.49133
G01 X5.22554 Y18.38642
G01 X5.31495 Y18.17002
G01 X5.45744 Y17.98434
G01 X5.64337 Y17.84185
G01 X5.85953 Y17.75219
G01 X5.96468 Y17.73847
G01 X5.96468 Y17.99615
G01 X5.87235 Y18.02239
G01 X5.78896 Y18.06011
G01 X5.71188 Y18.10941
G01 X5.64266 Y18.16931
G01 X5.58277 Y18.23852
G01 X5.53347 Y18.31561
G01 X5.49575 Y18.39900
G01 X5.46951 Y18.49133
G01 X5.21157 Y18.49133
G04 P0 ( dwell for no time -- G64 should not smooth over this point )
G00 Z10.00000 ( retract )

G00 X5.21157 Y18.74533 ( rapid move to begin. )
G01 F30.00000
( Mill infeed pass 1/1 )
G01 Z-0.10000
G04 P0 ( dwell for no time -- G64 should not smooth over this point )
G01 F360.00000
G01 X5.21157 Y18.74533
G01 X5.22554 Y18.85048
G01 X5.31495 Y19.06664
G01 X5.45744 Y19.25231
G01 X5.64337 Y19.39506
G01 X5.85953 Y19.48447
G01 X5.96468 Y19.49844
G01 X5.96468 Y19.24047
G01 X5.87235 Y19.21424
G01 X5.78896 Y19.17652
G01 X5.71188 Y19.12722
G01 X5.64266 Y19.06732
G01 X5.58277 Y18.99811
G01 X5.53347 Y18.92102
G01 X5.49575 Y18.83763
G01 X5.46951 Y18.74533
G01 X5.21157 Y18.74533
G04 P0 ( dwell for no time -- G64 should not smooth over this point )
G00 Z10.00000 ( retract )

G00 X6.21868 Y19.24047 ( rapid move to begin. )
G01 F30.00000
( Mill infeed pass 1/1 )
G01 Z-0.10000
G04 P0 ( dwell for no time -- G64 should not smooth over this point )
G01 F360.00000
G01 X6.21868 Y19.24047
G01 X6.21868 Y19.49844
G01 X6.32358 Y19.48447
G01 X6.53999 Y19.39506
G01 X6.72567 Y19.25231
G01 X6.86816 Y19.06664
G01 X6.95782 Y18.85048
G01 X6.97154 Y18.74533
G01 X6.71383 Y18.74533
G01 X6.68759 Y18.83763
G01 X6.64985 Y18.92102
G01 X6.60057 Y18.99811
G01 X6.54068 Y19.06732
G01 X6.47146 Y19.12722
G01 X6.39437 Y19.17652
G01 X6.31099 Y19.21424
G01 X6.21868 Y19.24047
G04 P0 ( dwell for no time -- G64 should not smooth over this point )
G00 Z10.00000 ( retract )

G00 X6.21868 Y17.73847 ( rapid move to begin. )
G01 F30.00000
( Mill infeed pass 1/1 )
G01 Z-0.10000
G04 P0 ( dwell for no time -- G64 should not smooth over this point )
G01 F360.00000
G01 X6.21868 Y17.73847
G01 X6.32358 Y17.75219
G01 X6.53999 Y17.84185
G01 X6.72567 Y17.98434
G01 X6.86816 Y18.17002
G01 X6.95782 Y18.38642
G01 X6.97154 Y18.49133
G01 X6.71383 Y18.49133
G01 X6.68759 Y18.39900
G01 X6.64985 Y18.31561
G01 X6.60057 Y18.23852
G01 X6.54068 Y18.16931
G01 X6.47146 Y18.10941
G01 X6.39437 Y18.06011
G01 X6.31099 Y18.02239
G01 X6.21868 Y17.99615
G01 X6.21868 Y17.73847
G04 P0 ( dwell for no time -- G64 should not smooth over this point )
G00 Z10.00000 ( retract )

G00 X6.21868 Y16.19247 ( rapid move to begin. )
G01 F30.00000
( Mill infeed pass 1/1 )
G01 Z-0.10000
G04 P0 ( dwell for no time -- G64 should not smooth over this point )
G01 F360.00000
G01 X6.21868 Y16.19247
G01 X6.31099 Y16.16624
G01 X6.39437 Y16.12852
G01 X6.47146 Y16.07922
G01 X6.54068 Y16.01932
G01 X6.60057 Y15.95011
G01 X6.64985 Y15.87302
G01 X6.68759 Y15.78963
G01 X6.71383 Y15.69733
G01 X6.97154 Y15.69733
G01 X6.95782 Y15.80248
G01 X6.86816 Y16.01864
G01 X6.72567 Y16.20431
G01 X6.53999 Y16.34706
G01 X6.32358 Y16.43647
G01 X6.21868 Y16.45044
G01 X6.21868 Y16.19247
G04 P0 ( dwell for no time -- G64 should not smooth over this point )
G00 Z10.00000 ( retract )

G00 X5.21157 Y15.69733 ( rapid move to begin. )
G01 F30.00000
( Mill infeed pass 1/1 )
G01 Z-0.10000
G04 P0 ( dwell for no time -- G64 should not smooth over this point )
G01 F360.00000
G01 X5.21157 Y15.69733
G01 X5.46951 Y15.69733
G01 X5.49575 Y15.78963
G01 X5.53347 Y15.87302
G01 X5.58277 Y15.95011
G01 X5.64266 Y16.01932
G01 X5.71188 Y16.07922
G01 X5.78896 Y16.12852
G01 X5.87235 Y16.16624
G01 X5.96468 Y16.19247
G01 X5.96468 Y16.45044
G01 X5.85953 Y16.43647
G01 X5.64337 Y16.34706
G01 X5.45744 Y16.20431
G01 X5.31495 Y16.01864
G01 X5.22554 Y15.80248
G01 X5.21157 Y15.69733
G04 P0 ( dwell for no time -- G64 should not smooth over this point )
G00 Z10.00000 ( retract )

G00 X5.21157 Y15.44333 ( rapid move to begin. )
G01 F30.00000
( Mill infeed pass 1/1 )
G01 Z-0.10000
G04 P0 ( dwell for no time -- G64 should not smooth over this point )
G01 F360.00000
G01 X5.21157 Y15.44333
G01 X5.46951 Y15.44333
G01 X5.49575 Y15.35100
G01 X5.53347 Y15.26761
G01 X5.58277 Y15.19052
G01 X5.64266 Y15.12131
G01 X5.71188 Y15.06141
G01 X5.78896 Y15.01211
G01 X5.87235 Y14.97439
G01 X5.96468 Y14.94815
G01 X5.96468 Y14.69047
G01 X5.85953 Y14.70419
G01 X5.64337 Y14.79385
G01 X5.45744 Y14.93634
G01 X5.31495 Y15.12202
G01 X5.22554 Y15.33843
G01 X5.21157 Y15.44333
G04 P0 ( dwell for no time -- G64 should not smooth over this point )
G00 Z10.00000 ( retract )

G00 X6.21868 Y14.69047 ( rapid move to begin. )
G01 F30.00000
( Mill infeed pass 1/1 )
G01 Z-0.10000
G04 P0 ( dwell for no time -- G64 should not smooth over this point )
G01 F360.00000
G01 X6.21868 Y14.69047
G01 X6.32358 Y14.70419
G01 X6.53999 Y14.79385
G01 X6.72567 Y14.93634
G01 X6.86816 Y15.12202
G01 X6.95782 Y15.33843
G01 X6.97154 Y15.44333
G01 X6.71383 Y15.44333
G01 X6.68759 Y15.35100
G01 X6.64985 Y15.26761
G01 X6.60057 Y15.19052
G01 X6.54068 Y15.12131
G01 X6.47146 Y15.06141
G01 X6.39437 Y15.01211
G01 X6.31099 Y14.97439
G01 X6.21868 Y14.94815
G01 X6.21868 Y14.69047
G04 P0 ( dwell for no time -- G64 should not smooth over this point )
G00 Z10.00000 ( retract )

G00 X6.11937 Y12.93266 ( rapid move to begin. )
G01 F30.00000
( Mill infeed pass 1/1 )
G01 Z-0.10000
G04 P0 ( dwell for no time -- G64 should not smooth over this point )
G01 F360.00000
G01 X6.11937 Y12.93266
G01 X6.05211 Y12.75100
G01 X6.00309 Y12.56883
G01 X5.98180 Y12.45403
G01 X5.96323 Y12.27414
G01 X5.96268 Y12.09619
G01 X5.97878 Y11.92621
G01 X6.01071 Y11.75746
G01 X6.06135 Y11.58138
G01 X6.20420 Y11.54290
G01 X6.27731 Y11.50216
G01 X6.40728 Y11.40701
G01 X6.51005 Y11.36002
G01 X6.62247 Y11.31796
G01 X6.74926 Y11.29713
G01 X6.85366 Y11.28718
G01 X7.02180 Y11.30625
G01 X7.08467 Y11.31773
G01 X7.18000 Y11.35301
G01 X7.29978 Y11.40717
G01 X7.33852 Y11.43323
G01 X7.48487 Y11.54872
G01 X7.53425 Y11.60737
G01 X7.62668 Y11.73366
G01 X7.67039 Y11.82893
G01 X7.71553 Y11.94900
G01 X7.73692 Y12.07933
G01 X7.74624 Y12.17991
G01 X7.73834 Y12.26873
G01 X7.71563 Y12.41087
G01 X7.67464 Y12.52078
G01 X7.62650 Y12.62609
G01 X7.54896 Y12.73388
G01 X7.48500 Y12.81125
G01 X7.41530 Y12.86921
G01 X7.29991 Y12.95291
G01 X7.20194 Y12.99779
G01 X7.08457 Y13.04193
G01 X6.95216 Y13.06347
G01 X6.86867 Y13.07168
G01 X6.77367 Y13.06566
G01 X6.62249 Y13.04199
G01 X6.50999 Y12.99982
G01 X6.41965 Y12.95890
G01 X6.35363 Y12.93581
G01 X6.25221 Y12.92393
G01 X6.11937 Y12.93266
G01 X6.10697 Y12.97341
G01 X6.11563 Y13.06177
G01 X6.14502 Y13.18565
G01 X6.20593 Y13.27800
G01 X6.46527 Y13.53734
G01 X6.50603 Y13.57071
G01 X6.55853 Y13.57597
G01 X11.46122 Y13.57597
G01 X11.52020 Y13.56934
G01 X11.56299 Y13.52217
G01 X11.64704 Y13.41760
G01 X11.71103 Y13.36347
G01 X11.80503 Y13.29522
G01 X11.90363 Y13.25100
G01 X11.98977 Y13.21958
G01 X12.16025 Y13.19484
G01 X12.25172 Y13.19835
G01 X12.38545 Y13.21918
G01 X12.45850 Y13.24564
G01 X12.57000 Y13.29571
G01 X12.63033 Y13.33757
G01 X12.70704 Y13.39827
G01 X12.72832 Y13.41725
G01 X12.77325 Y13.47010
G01 X12.84983 Y13.57561
G01 X12.87793 Y13.63457
G01 X12.92636 Y13.75992
G01 X12.94671 Y13.88877
G01 X12.95227 Y13.95791
G01 X12.93685 Y14.09972
G01 X12.91872 Y14.17904
G01 X12.88283 Y14.27008
G01 X12.84994 Y14.34026
G01 X12.77069 Y14.44894
G01 X12.72842 Y14.49870
G01 X12.70376 Y14.52029
G01 X12.57008 Y14.62029
G01 X12.45464 Y14.67173
G01 X12.37778 Y14.69855
G01 X12.28108 Y14.71404
G01 X12.18766 Y14.72296
G01 X12.07513 Y14.71148
G01 X11.98971 Y14.69647
G01 X11.86525 Y14.64859
G01 X11.80544 Y14.61991
G01 X11.75400 Y14.58486
G01 X11.64687 Y14.49842
G01 X11.56299 Y14.39367
G01 X11.51956 Y14.34633
G01 X11.46122 Y14.33987
G01 X6.35864 Y14.33987
G01 X6.28858 Y14.33063
G01 X6.22247 Y14.31574
G01 X6.20011 Y14.30871
G01 X6.16618 Y14.29012
G01 X6.06631 Y14.21887
G01 X5.31871 Y13.47122
G01 X5.26430 Y13.39804
G01 X5.22877 Y13.33721
G01 X5.21515 Y13.28938
G01 X5.19892 Y13.19185
G01 X5.19765 Y13.02702
G01 X5.18488 Y12.94493
G01 X5.14657 Y12.86284
G01 X5.09887 Y12.78621
G01 X5.14713 Y12.62365
G01 X5.18208 Y12.44958
G01 X5.19532 Y12.34013
G01 X5.20250 Y12.17483
G01 X5.19420 Y12.00775
G01 X5.18000 Y11.89711
G01 X5.14510 Y11.72804
G01 X5.09872 Y11.57389
G01 X5.14510 Y11.72804
G01 X5.18000 Y11.89711
G01 X5.19420 Y12.00775
G01 X5.20250 Y12.17483
G01 X5.19532 Y12.34013
G01 X5.18208 Y12.44958
G01 X5.14713 Y12.62365
G01 X5.09887 Y12.78621
G01 X5.03591 Y12.79985
G01 X4.94861 Y12.82652
G01 X4.88480 Y12.86203
G01 X4.75988 Y12.95291
G01 X4.66194 Y12.99779
G01 X4.54457 Y13.04193
G01 X4.41216 Y13.06347
G01 X4.32867 Y13.07168
G01 X4.23367 Y13.06566
G01 X4.08249 Y13.04199
G01 X3.97002 Y12.99980
G01 X3.86730 Y12.95273
G01 X3.76603 Y12.88021
G01 X3.68254 Y12.81110
G01 X3.58714 Y12.69271
G01 X3.53393 Y12.61280
G01 X3.49923 Y12.53635
G01 X3.45178 Y12.41077
G01 X3.43106 Y12.28641
G01 X3.42085 Y12.17994
G01 X3.42826 Y12.09693
G01 X3.45138 Y11.94895
G01 X3.49042 Y11.84458
G01 X3.54081 Y11.73376
G01 X3.61470 Y11.63066
G01 X3.67617 Y11.55576
G01 X3.74805 Y11.49375
G01 X3.86728 Y11.40704
G01 X3.95907 Y11.36465
G01 X4.04754 Y11.32985
G01 X4.08247 Y11.31796
G01 X4.12885 Y11.30905
G01 X4.31366 Y11.28718
G01 X4.47002 Y11.30440
G01 X4.56392 Y11.32426
G01 X4.65176 Y11.35779
G01 X4.75976 Y11.40717
G01 X4.87523 Y11.49063
G01 X4.93700 Y11.52815
G01 X5.02831 Y11.55797
G01 X5.09872 Y11.57389
G01 X5.14657 Y11.49701
G01 X5.18488 Y11.41491
G01 X5.19765 Y11.33284
G01 X5.19765 Y11.12685
G01 X5.19242 Y11.07435
G01 X5.15902 Y11.03358
G01 X4.66321 Y10.53777
G01 X4.60571 Y10.49401
G01 X4.45577 Y10.51761
G01 X4.31368 Y10.53214
G01 X4.21940 Y10.52396
G01 X4.10190 Y10.50592
G01 X4.00543 Y10.47402
G01 X3.86735 Y10.41265
G01 X3.78483 Y10.35459
G01 X3.71904 Y10.30249
G01 X3.68275 Y10.27092
G01 X3.65183 Y10.23541
G01 X3.54048 Y10.08629
G01 X3.49923 Y9.99635
G01 X3.45178 Y9.87077
G01 X3.43106 Y9.74641
G01 X3.42176 Y9.65281
G01 X3.42826 Y9.55693
G01 X3.45138 Y9.40895
G01 X3.48567 Y9.31629
G01 X3.52382 Y9.22835
G01 X3.54081 Y9.19376
G01 X3.56631 Y9.15599
G01 X3.62252 Y9.08060
G01 X3.68254 Y9.00874
G01 X3.74805 Y8.95375
G01 X3.86728 Y8.86704
G01 X3.97005 Y8.82002
G01 X4.08252 Y8.77794
G01 X4.20924 Y8.75706
G01 X4.31366 Y8.74705
G01 X4.39953 Y8.75485
G01 X4.54462 Y8.77771
G01 X4.65176 Y8.81779
G01 X4.75978 Y8.86717
G01 X4.86595 Y8.94329
G01 X4.94487 Y9.00872
G01 X4.99425 Y9.06737
G01 X5.08668 Y9.19366
G01 X5.13039 Y9.28893
G01 X5.17553 Y9.40900
G01 X5.19692 Y9.53933
G01 X5.20560 Y9.63963
G01 X5.19049 Y9.78489
G01 X5.16402 Y9.94400
G01 X5.20845 Y10.00270
G01 X5.84030 Y10.63465
G01 X5.90329 Y10.72088
G01 X5.93123 Y10.76838
G01 X5.95089 Y10.84951
G01 X5.96156 Y10.92698
G01 X5.96156 Y11.33892
G01 X5.97433 Y11.42101
G01 X6.01264 Y11.50310
G01 X6.06135 Y11.58138
G04 P0 ( dwell for no time -- G64 should not smooth over this point )
G00 Z10.00000 ( retract )

G00 X5.96085 Y9.63993 ( rapid move to begin. )
G01 F30.00000
( Mill infeed pass 1/1 )
G01 Z-0.10000
G04 P0 ( dwell for no time -- G64 should not smooth over this point )
G01 F360.00000
G01 X5.96085 Y9.63993
G01 X5.96826 Y9.55693
G01 X5.99138 Y9.40895
G01 X6.03042 Y9.30458
G01 X6.08081 Y9.19376
G01 X6.15470 Y9.09066
G01 X6.22254 Y9.00874
G01 X6.28805 Y8.95375
G01 X6.40728 Y8.86704
G01 X6.51005 Y8.82002
G01 X6.62252 Y8.77794
G01 X6.74924 Y8.75706
G01 X6.85366 Y8.74705
G01 X6.93953 Y8.75485
G01 X7.08462 Y8.77771
G01 X7.19176 Y8.81779
G01 X7.29978 Y8.86717
G01 X7.40595 Y8.94329
G01 X7.48487 Y9.00872
G01 X7.53425 Y9.06737
G01 X7.62668 Y9.19366
G01 X7.67039 Y9.28893
G01 X7.71553 Y9.40900
G01 X7.73692 Y9.53933
G01 X7.74624 Y9.63991
G01 X7.73834 Y9.72873
G01 X7.71563 Y9.87087
G01 X7.67464 Y9.98078
G01 X7.62650 Y10.08609
G01 X7.54896 Y10.19388
G01 X7.48500 Y10.27125
G01 X7.41530 Y10.32921
G01 X7.29991 Y10.41288
G01 X7.20194 Y10.45779
G01 X7.08457 Y10.50193
G01 X6.95216 Y10.52347
G01 X6.85366 Y10.53267
G01 X6.70314 Y10.51639
G01 X6.62249 Y10.50199
G01 X6.50999 Y10.45980
G01 X6.40728 Y10.41273
G01 X6.30603 Y10.34019
G01 X6.22254 Y10.27110
G01 X6.12714 Y10.15271
G01 X6.08056 Y10.08624
G01 X6.03923 Y9.99635
G01 X5.99178 Y9.87077
G01 X5.97106 Y9.74641
G01 X5.96085 Y9.63993
G04 P0 ( dwell for no time -- G64 should not smooth over this point )
G00 Z10.00000 ( retract )

G00 X8.50085 Y12.17994 ( rapid move to begin. )
G01 F30.00000
( Mill infeed pass 1/1 )
G01 Z-0.10000
G04 P0 ( dwell for no time -- G64 should not smooth over this point )
G01 F360.00000
G01 X8.50085 Y12.17994
G01 X8.51106 Y12.28641
G01 X8.53178 Y12.41077
G01 X8.57923 Y12.53635
G01 X8.62056 Y12.62624
G01 X8.66714 Y12.69271
G01 X8.76254 Y12.81110
G01 X8.84603 Y12.88021
G01 X8.94730 Y12.95273
G01 X9.05002 Y12.99980
G01 X9.16249 Y13.04199
G01 X9.24314 Y13.05639
G01 X9.39366 Y13.07267
G01 X9.49216 Y13.06347
G01 X9.62457 Y13.04193
G01 X9.74194 Y12.99779
G01 X9.83991 Y12.95291
G01 X9.95530 Y12.86921
G01 X10.02500 Y12.81125
G01 X10.08896 Y12.73388
G01 X10.16650 Y12.62609
G01 X10.21464 Y12.52078
G01 X10.25563 Y12.41087
G01 X10.27834 Y12.26873
G01 X10.28624 Y12.17991
G01 X10.27692 Y12.07933
G01 X10.25553 Y11.94900
G01 X10.21039 Y11.82893
G01 X10.16668 Y11.73366
G01 X10.07425 Y11.60737
G01 X10.02487 Y11.54872
G01 X9.94595 Y11.48329
G01 X9.83978 Y11.40717
G01 X9.73176 Y11.35779
G01 X9.62467 Y11.31773
G01 X9.47953 Y11.29492
G01 X9.39366 Y11.28718
G01 X9.28926 Y11.29713
G01 X9.16247 Y11.31796
G01 X9.05005 Y11.36002
G01 X8.94728 Y11.40704
G01 X8.82805 Y11.49375
G01 X8.76254 Y11.54875
G01 X8.69470 Y11.63066
G01 X8.62081 Y11.73376
G01 X8.57042 Y11.84458
G01 X8.53138 Y11.94895
G01 X8.50826 Y12.09693
G01 X8.50085 Y12.17994
G04 P0 ( dwell for no time -- G64 should not smooth over this point )
G00 Z10.00000 ( retract )

G00 X8.50085 Y9.63993 ( rapid move to begin. )
G01 F30.00000
( Mill infeed pass 1/1 )
G01 Z-0.10000
G04 P0 ( dwell for no time -- G64 should not smooth over this point )
G01 F360.00000
G01 X8.50085 Y9.63993
G01 X8.51106 Y9.74641
G01 X8.53178 Y9.87077
G01 X8.57923 Y9.99635
G01 X8.62056 Y10.08624
G01 X8.66714 Y10.15271
G01 X8.76254 Y10.27110
G01 X8.84603 Y10.34019
G01 X8.94730 Y10.41273
G01 X9.05002 Y10.45980
G01 X9.16249 Y10.50199
G01 X9.24314 Y10.51639
G01 X9.39366 Y10.53267
G01 X9.49216 Y10.52347
G01 X9.62457 Y10.50193
G01 X9.74194 Y10.45779
G01 X9.83991 Y10.41288
G01 X9.95530 Y10.32921
G01 X10.02500 Y10.27125
G01 X10.08896 Y10.19388
G01 X10.16650 Y10.08609
G01 X10.21464 Y9.98078
G01 X10.25563 Y9.87087
G01 X10.27834 Y9.72873
G01 X10.28624 Y9.63991
G01 X10.27692 Y9.53933
G01 X10.25553 Y9.40900
G01 X10.21039 Y9.28893
G01 X10.16668 Y9.19366
G01 X10.07425 Y9.06737
G01 X10.02487 Y9.00872
G01 X9.94595 Y8.94329
G01 X9.83978 Y8.86717
G01 X9.73176 Y8.81779
G01 X9.62462 Y8.77771
G01 X9.47953 Y8.75485
G01 X9.39366 Y8.74705
G01 X9.28924 Y8.75706
G01 X9.16252 Y8.77794
G01 X9.05005 Y8.82002
G01 X8.94728 Y8.86704
G01 X8.82805 Y8.95375
G01 X8.76254 Y9.00874
G01 X8.69470 Y9.09066
G01 X8.62081 Y9.19376
G01 X8.57042 Y9.30458
G01 X8.53138 Y9.40895
G01 X8.50826 Y9.55693
G01 X8.50085 Y9.63993
G04 P0 ( dwell for no time -- G64 should not smooth over this point )
G00 Z10.00000 ( retract )

G00 X6.35030 Y3.49987 ( rapid move to begin. )
G01 F30.00000
( Mill infeed pass 1/1 )
G01 Z-0.10000
G04 P0 ( dwell for no time -- G64 should not smooth over this point )
G01 F360.00000
G01 X6.35030 Y3.49987
G01 X10.42086 Y3.49976
G01 X10.55591 Y3.49072
G01 X10.73325 Y3.47050
G01 X10.97049 Y3.36575
G01 X11.29856 Y3.36342
G01 X11.39634 Y3.30825
G01 X11.29856 Y3.36342
G01 X11.53371 Y3.83443
G01 X11.52517 Y4.00291
G01 X11.51372 Y4.05549
G01 X11.47991 Y4.14815
G01 X11.46901 Y4.19420
G01 X11.46586 Y4.23347
G01 X11.46492 Y4.53141
G01 X11.45156 Y4.59080
G01 X11.41626 Y4.68673
G01 X11.40239 Y4.77243
G01 X11.39772 Y5.21866
G01 X11.39939 Y5.90865
G01 X11.21136 Y5.91627
G01 X10.93488 Y5.91650
G01 X10.79480 Y5.91246
G01 X10.51011 Y4.92186
G01 X10.47509 Y4.76011
G01 X10.46711 Y4.60505
G01 X10.46899 Y4.57010
G01 X10.47448 Y4.56517
G01 X10.57631 Y4.34447
G01 X10.69434 Y4.10967
G01 X10.72172 Y4.02143
G01 X10.73274 Y3.90639
G01 X10.73325 Y3.47050
G01 X10.97049 Y3.36575
G01 X10.91098 Y3.22293
G01 X10.84583 Y3.04358
G01 X10.75418 Y2.76647
G01 X10.68593 Y2.60093
G01 X10.67217 Y2.55389
G01 X10.66455 Y2.46540
G01 X10.65284 Y2.41351
G01 X10.60757 Y2.30012
G01 X10.64928 Y2.20012
G01 X10.69955 Y2.09814
G01 X10.71105 Y2.06548
G01 X10.72606 Y1.99685
G01 X10.73153 Y1.93078
G01 X10.73589 Y1.46926
G01 X10.97658 Y1.36398
G01 X10.93493 Y1.23010
G01 X10.73074 Y0.83030
G01 X10.68903 Y0.74290
G01 X10.67796 Y0.71163
G01 X10.66650 Y0.64359
G01 X10.66597 Y0.48156
G01 X10.66002 Y0.44069
G01 X10.64765 Y0.39906
G01 X10.55017 Y0.16866
G01 X10.50414 Y0.08951
G01 X10.44504 Y0.00000
G01 X11.19960 Y0.00000
G01 X11.19962 Y0.09995
G01 X11.20584 Y0.19850
G01 X11.23089 Y0.24003
G01 X11.39949 Y0.36655
G01 X11.40198 Y1.36716
G01 X11.53317 Y1.40299
G01 X11.53196 Y1.93284
G01 X11.52398 Y2.04500
G01 X11.51136 Y2.11099
G01 X11.53030 Y2.21996
G01 X11.53150 Y2.29725
G01 X11.52393 Y2.35585
G01 X11.48799 Y2.50795
G01 X11.47247 Y2.55224
G01 X11.43132 Y2.63995
G01 X11.40783 Y2.72755
G01 X11.39982 Y2.82064
G01 X11.40130 Y3.07548
G01 X11.39634 Y3.30825
G01 X11.86612 Y3.20446
G01 X11.98034 Y3.22341
G01 X12.26688 Y3.25544
G01 X12.41120 Y3.30403
G01 X12.57054 Y3.36616
G01 X12.74397 Y3.35039
G01 X12.86680 Y3.33007
G01 X12.99649 Y3.36659
G01 X13.19886 Y3.36685
G01 X13.40762 Y3.38193
G01 X13.58123 Y3.41663
G01 X13.72885 Y3.45597
G01 X13.99868 Y3.58437
G01 X14.33098 Y3.40302
G01 X14.49555 Y3.38714
G01 X14.66517 Y3.37276
G01 X14.78808 Y3.36680
G01 X14.93162 Y3.37274
G01 X15.06553 Y3.38442
G01 X15.13423 Y3.36634
G01 X15.15478 Y3.36588
G01 X15.36807 Y3.36746
G01 X15.53139 Y3.37988
G01 X15.64927 Y3.36832
G01 X15.75384 Y3.36558
G01 X15.93301 Y3.35265
G01 X16.11846 Y3.36652
G01 X16.26461 Y3.37276
G01 X16.53184 Y3.34823
G01 X16.79776 Y3.27513
G01 X17.13083 Y3.12438
G01 X17.40484 Y2.92280
G01 X17.59478 Y2.76342
G01 X17.79750 Y2.58077
G01 X18.00527 Y2.35501
G01 X18.22884 Y2.33172
G01 X18.52714 Y2.68270
G01 X19.19989 Y3.62232
G01 X19.19943 Y4.19204
G01 X19.13567 Y4.36979
G01 X19.08223 Y4.64688
G01 X18.91749 Y5.79501
G01 X19.08223 Y4.64688
G01 X19.13567 Y4.36979
G01 X17.89796 Y4.36733
G01 X17.82577 Y4.22410
G01 X17.79107 Y4.17111
G01 X17.79567 Y4.13690
G01 X17.79783 Y4.03027
G01 X17.79750 Y2.58077
G01 X18.00527 Y2.35501
G01 X17.99107 Y2.36822
G01 X16.97134 Y2.37043
G01 X16.70096 Y2.36654
G01 X16.03212 Y2.36733
G01 X16.01475 Y2.40548
G01 X16.00548 Y2.43675
G01 X15.99141 Y2.55854
G01 X15.94681 Y2.69354
G01 X15.93695 Y2.74853
G01 X15.93116 Y2.84731
G01 X15.93301 Y3.35265
G01 X16.11846 Y3.36652
G01 X16.26461 Y3.37276
G01 X16.26337 Y4.52219
G01 X16.25143 Y4.58219
G01 X16.21333 Y4.69359
G01 X16.20370 Y4.74850
G01 X16.19951 Y4.80289
G01 X16.19628 Y5.21797
G01 X16.19799 Y5.90865
G01 X16.12372 Y5.91345
G01 X15.95783 Y5.50385
G01 X15.78066 Y5.14614
G01 X15.58907 Y4.84711
G01 X15.56268 Y4.78981
G01 X15.54094 Y4.71691
G01 X15.53213 Y4.63306
G01 X15.53431 Y4.59151
G01 X15.55326 Y4.50146
G01 X15.48366 Y4.33301
G01 X15.47086 Y4.28884
G01 X15.46553 Y4.24899
G01 X15.47132 Y4.17571
G01 X15.51239 Y4.05478
G01 X15.52402 Y4.00116
G01 X15.52923 Y3.94650
G01 X15.53139 Y3.37988
G01 X15.36807 Y3.36746
G01 X15.13423 Y3.36634
G01 X15.13126 Y3.14058
G01 X15.13317 Y2.80294
G01 X15.13746 Y2.74846
G01 X15.14721 Y2.69354
G01 X15.19288 Y2.55179
G01 X15.19834 Y2.49974
G01 X15.19834 Y2.23330
G01 X15.19253 Y2.17945
G01 X15.14721 Y2.03952
G01 X15.13401 Y1.95306
G01 X15.13058 Y1.83726
G01 X15.13116 Y1.49957
G01 X15.50655 Y1.37693
G01 X15.40452 Y1.11473
G01 X15.28874 Y0.77381
G01 X15.27343 Y0.71717
G01 X15.26690 Y0.67559
G01 X15.26697 Y0.59144
G01 X15.28600 Y0.50162
G01 X15.21684 Y0.33297
G01 X15.20195 Y0.27681
G01 X15.19791 Y0.19322
G01 X15.19827 Y0.00003
G01 X12.06571 Y0.00000
G01 X12.06566 Y0.10521
G01 X12.05662 Y0.18377
G01 X12.03490 Y0.25667
G01 X11.99932 Y0.32982
G01 X11.99726 Y1.34795
G01 X12.13427 Y1.38453
G01 X12.13084 Y1.63065
G01 X12.13300 Y1.98186
G01 X12.13739 Y2.04274
G01 X12.15360 Y2.12296
G01 X12.18004 Y2.19410
G01 X12.21717 Y2.25991
G01 X12.27112 Y2.32677
G01 X12.29330 Y2.42072
G01 X12.27455 Y2.48630
G01 X12.26640 Y2.54437
G01 X12.26688 Y3.25544
G01 X12.41120 Y3.30403
G01 X12.57054 Y3.36616
G01 X12.46579 Y3.63403
G01 X12.36553 Y3.93337
G01 X12.28387 Y4.13197
G01 X12.26706 Y4.19890
G01 X12.26553 Y4.51815
G01 X12.27966 Y4.58856
G01 X12.31580 Y4.68678
G01 X12.32967 Y4.77253
G01 X12.33183 Y4.81447
G01 X12.33058 Y5.43174
G01 X12.33551 Y5.90840
G01 X12.53457 Y5.91650
G01 X12.81079 Y5.91627
G01 X12.99883 Y5.90865
G01 X12.99969 Y4.81437
G01 X13.00963 Y4.71645
G01 X13.02101 Y4.66905
G01 X13.04724 Y4.59821
G01 X13.06279 Y4.53890
G01 X13.06561 Y4.35582
G01 X13.05824 Y4.30334
G01 X13.04247 Y4.25524
G01 X13.02756 Y4.22397
G01 X12.99266 Y4.17096
G01 X12.99718 Y4.13692
G01 X12.99898 Y4.05686
G01 X12.99649 Y3.36659
G01 X12.86680 Y3.33007
G01 X12.86480 Y2.97099
G01 X12.85585 Y2.81539
G01 X12.81052 Y2.60627
G01 X12.79967 Y2.51188
G01 X12.80434 Y2.42819
G01 X12.82281 Y2.34252
G01 X12.86642 Y2.29946
G01 X12.86370 Y1.40579
G01 X12.76490 Y1.36634
G01 X12.86566 Y0.96294
G01 X12.86833 Y0.77272
G01 X12.88250 Y0.68677
G01 X12.91013 Y0.61112
G01 X12.97236 Y0.48682
G01 X12.99873 Y0.44582
G01 X13.00160 Y0.18918
G01 X13.01283 Y0.12908
G01 X13.04435 Y0.02649
G01 X13.04910 Y0.00003
G01 X13.93243 Y0.00000
G01 X13.93106 Y0.14181
G01 X13.92273 Y0.24737
G01 X13.90208 Y0.36723
G01 X13.92890 Y0.55420
G01 X13.92644 Y0.74323
G01 X13.90188 Y0.89982
G01 X13.82296 Y1.25725
G01 X13.81953 Y1.28946
G01 X13.66650 Y1.36682
G01 X13.66459 Y1.73932
G01 X13.67003 Y1.98290
G01 X13.68389 Y2.05544
G01 X13.70315 Y2.10977
G01 X13.79426 Y2.29146
G01 X13.78450 Y2.33957
G01 X13.75550 Y2.41818
G01 X13.73038 Y2.43680
G01 X13.73518 Y3.10063
G01 X13.72885 Y3.45597
G01 X13.99868 Y3.58437
G01 X13.99868 Y3.91650
G01 X14.10175 Y4.15237
G01 X14.15260 Y4.30141
G01 X14.18974 Y4.49080
G01 X14.19845 Y4.64355
G01 X14.18562 Y4.80670
G01 X14.14346 Y5.01970
G01 X13.94821 Y5.89267
G01 X14.16906 Y4.89979
G01 X14.18974 Y4.77543
G01 X14.19845 Y4.64355
G01 X14.18562 Y4.45953
G01 X14.15260 Y4.30141
G01 X14.10175 Y4.15237
G01 X13.99868 Y3.91650
G01 X13.99868 Y3.58437
G01 X14.33098 Y3.40302
G01 X14.33076 Y2.96753
G01 X14.32164 Y2.81523
G01 X14.27071 Y2.57152
G01 X14.26525 Y2.49974
G01 X14.26525 Y2.32982
G01 X14.30083 Y2.25666
G01 X14.31780 Y2.21064
G01 X14.36324 Y2.07223
G01 X14.38887 Y1.96279
G01 X14.39776 Y1.85636
G01 X14.39870 Y1.52179
G01 X14.39776 Y1.85636
G01 X14.38887 Y1.96279
G01 X14.36324 Y2.07223
G01 X14.31780 Y2.21064
G01 X14.30083 Y2.25666
G01 X14.26525 Y2.32982
G01 X14.26525 Y2.49974
G01 X14.27071 Y2.57152
G01 X14.32164 Y2.81523
G01 X14.33076 Y2.96753
G01 X14.33098 Y3.40302
G01 X14.66517 Y3.37276
G01 X14.78808 Y3.36680
G01 X14.93162 Y3.37274
G01 X15.06553 Y3.38442
G01 X15.13423 Y3.36634
G01 X15.15478 Y3.36588
G01 X15.36807 Y3.36746
G01 X15.53139 Y3.37988
G01 X15.64927 Y3.36832
G01 X15.75384 Y3.36558
G01 X15.93301 Y3.35265
G01 X16.11846 Y3.36652
G01 X16.26461 Y3.37276
G01 X16.53184 Y3.34823
G01 X16.79776 Y3.27513
G01 X17.13083 Y3.12438
G01 X17.13296 Y3.47337
G01 X17.12953 Y3.93022
G01 X17.12529 Y3.98463
G01 X17.11564 Y4.03944
G01 X17.07845 Y4.14754
G01 X17.06865 Y4.18650
G01 X17.06423 Y4.23337
G01 X17.06672 Y5.23291
G01 X17.06402 Y5.90263
G01 X17.30060 Y5.91523
G01 X17.59938 Y5.91624
G01 X17.79742 Y5.90865
G01 X17.79572 Y5.21797
G01 X17.79900 Y4.80286
G01 X17.80327 Y4.74840
G01 X17.81299 Y4.69354
G01 X17.85838 Y4.55366
G01 X17.87157 Y4.43672
G01 X17.89796 Y4.36733
G01 X19.13567 Y4.36979
G01 X19.19943 Y4.19204
G01 X19.19989 Y3.62232
G01 X19.46897 Y3.58092
G01 X20.12264 Y3.50883
G01 X20.27710 Y3.50007
G01 X20.39889 Y3.50756
G01 X20.60042 Y3.52981
G01 X20.59899 Y3.78973
G01 X20.59219 Y3.89997
G01 X20.57403 Y4.00134
G01 X20.54982 Y4.10251
G01 X20.53417 Y4.20525
G01 X20.53311 Y4.49976
G01 X20.53712 Y4.56126
G01 X20.54710 Y4.61978
G01 X20.62813 Y4.67469
G01 X20.67524 Y4.71086
G01 X20.70537 Y4.73954
G01 X20.75932 Y4.80626
G01 X20.87281 Y4.97474
G01 X21.00448 Y5.18399
G01 X21.15835 Y5.50296
G01 X21.32604 Y5.91312
G01 X21.39587 Y5.90837
G01 X21.40171 Y5.30817
G01 X21.39963 Y4.83316
G01 X21.40605 Y4.73992
G01 X21.41502 Y4.69351
G01 X21.44756 Y4.59806
G01 X21.46313 Y4.53885
G01 X21.46620 Y4.49976
G01 X21.46630 Y4.23332
G01 X21.46087 Y4.18130
G01 X21.44344 Y4.12280
G01 X21.36536 Y3.93418
G01 X21.34121 Y3.88435
G01 X21.19960 Y3.66527
G01 X21.09498 Y3.48882
G01 X21.19960 Y3.66527
G01 X21.34121 Y3.88435
G01 X21.36536 Y3.93418
G01 X21.44344 Y4.12280
G01 X21.46087 Y4.18130
G01 X21.46630 Y4.23332
G01 X21.46620 Y4.49976
G01 X21.46313 Y4.53885
G01 X21.44756 Y4.59806
G01 X21.41502 Y4.69351
G01 X21.40605 Y4.73992
G01 X21.39963 Y4.83316
G01 X21.40171 Y5.30817
G01 X21.39587 Y5.90837
G01 X21.58738 Y5.91622
G01 X21.99790 Y5.91650
G01 X22.17346 Y5.91010
G01 X22.34867 Y5.89272
G01 X22.51144 Y5.16024
G01 X22.55030 Y5.01630
G01 X22.61634 Y4.82206
G01 X22.65675 Y4.63321
G01 X22.66536 Y4.51096
G01 X22.66536 Y4.22211
G01 X22.65985 Y4.12435
G01 X22.60374 Y3.64520
G01 X22.79840 Y3.53814
G01 X22.79927 Y1.52174
G01 X22.93224 Y1.47787
G01 X22.93160 Y0.76474
G01 X22.93770 Y0.71051
G01 X22.95903 Y0.64592
G01 X22.98812 Y0.59294
G01 X23.02081 Y0.54849
G01 X23.07199 Y0.49314
G01 X22.96511 Y0.23355
G01 X22.89523 Y0.08763
G01 X22.87313 Y0.00000
G01 X24.30064 Y0.00000
G01 X23.73300 Y0.00003
G01 X23.73137 Y0.26474
G01 X23.72055 Y0.35570
G01 X23.81247 Y0.44803
G01 X23.87031 Y0.52093
G01 X23.90158 Y0.57328
G01 X23.93020 Y0.63310
G01 X24.00727 Y0.82789
G01 X24.04608 Y0.98509
G01 X24.09248 Y1.26009
G01 X24.13279 Y1.45707
G01 X24.13239 Y1.56700
G01 X24.13279 Y1.45707
G01 X24.29099 Y1.17871
G01 X24.64107 Y0.48151
G01 X24.60574 Y0.44061
G01 X24.45786 Y0.29263
G01 X24.40785 Y0.23271
G01 X24.36881 Y0.17234
G01 X24.34306 Y0.12085
G01 X24.30064 Y0.00000
G01 X26.78199 Y0.00000
G01 X26.76495 Y0.06490
G01 X26.71493 Y0.21610
G01 X26.69281 Y0.27341
G01 X26.66446 Y0.32997
G01 X26.66749 Y0.42052
G01 X26.68168 Y0.49837
G01 X26.67079 Y0.55273
G01 X26.66459 Y0.62334
G01 X26.66451 Y0.77625
G01 X26.66817 Y0.82588
G01 X26.68377 Y0.91067
G01 X26.71128 Y1.02646
G01 X26.73010 Y1.17991
G01 X26.73261 Y2.50000
G01 X26.20256 Y2.50045
G01 X26.19492 Y3.07680
G01 X26.19807 Y4.05686
G01 X26.19629 Y4.13692
G01 X26.19177 Y4.17104
G01 X26.22652 Y4.22387
G01 X26.24795 Y4.27200
G01 X26.25722 Y4.30327
G01 X26.26457 Y4.35585
G01 X26.26484 Y4.49964
G01 X26.25905 Y4.55374
G01 X26.22006 Y4.66908
G01 X26.20871 Y4.71648
G01 X26.19875 Y4.81437
G01 X26.19797 Y5.90865
G01 X26.44905 Y5.91543
G01 X26.52812 Y5.91289
G01 X26.79398 Y5.91650
G01 X27.01486 Y5.90674
G01 X27.42933 Y5.83819
G01 X27.87607 Y5.68932
G01 X28.28991 Y5.48241
G01 X28.78137 Y5.14909
G01 X29.06746 Y4.91300
G01 X29.35354 Y4.64355
G01 X29.75056 Y4.21797
G01 X30.12669 Y3.75620
G01 X30.47850 Y3.27703
G01 X30.91238 Y3.05882
G01 X31.44594 Y2.75100
G01 X31.97949 Y2.39789
G01 X32.45587 Y2.04658
G01 X32.90291 Y1.68427
G01 X33.34997 Y1.29032
G01 X33.79701 Y0.86469
G01 X33.94989 Y0.71374
G01 X34.37920 Y0.28420
G01 X34.65579 Y0.00000
G01 X45.72000 Y0.00000
G01 X45.72000 Y27.41993
G01 X0.00000 Y27.41993
G01 X0.00000 Y0.00000
G01 X34.65579 Y0.00000
G01 X34.37920 Y0.28420
G01 X33.94989 Y0.71374
G01 X33.79701 Y0.86469
G01 X33.34997 Y1.29032
G01 X32.90291 Y1.68427
G01 X32.45587 Y2.04658
G01 X31.97949 Y2.39789
G01 X31.44594 Y2.75100
G01 X30.91238 Y3.05882
G01 X30.47850 Y3.27703
G01 X29.83436 Y3.16535
G01 X29.46941 Y3.10853
G01 X28.46606 Y2.96730
G01 X27.26558 Y2.61777
G01 X27.06444 Y2.56931
G01 X26.73261 Y2.50000
G01 X26.20256 Y2.50045
G01 X26.12822 Y2.49116
G01 X26.08892 Y2.49288
G01 X25.72187 Y2.41366
G01 X25.32878 Y2.35712
G01 X24.93378 Y2.36985
G01 X24.13239 Y1.56700
G01 X23.92817 Y1.55732
G01 X23.46554 Y1.50774
G01 X23.34283 Y1.50012
G01 X23.19881 Y1.50000
G01 X23.10028 Y1.49507
G01 X22.93224 Y1.47787
G01 X22.79927 Y1.52174
G01 X22.66638 Y1.50759
G01 X22.54326 Y1.50000
G01 X22.40006 Y1.50000
G01 X22.29632 Y1.49504
G01 X21.93242 Y1.45519
G01 X21.79559 Y1.36855
G01 X21.56790 Y1.44257
G01 X21.46836 Y1.46977
G01 X21.26699 Y1.51442
G01 X21.14520 Y1.50299
G01 X21.06524 Y1.49990
G01 X20.78833 Y1.50017
G01 X20.60016 Y1.51455
G01 X20.39925 Y1.47038
G01 X20.26158 Y1.49263
G01 X20.13417 Y1.49984
G01 X18.81871 Y1.49982
G01 X18.22884 Y2.33172
G01 X18.00527 Y2.35501
G01 X17.79750 Y2.58077
G01 X17.59478 Y2.76342
G01 X17.40484 Y2.92280
G01 X17.13083 Y3.12438
G01 X16.79776 Y3.27513
G01 X16.53184 Y3.34823
G01 X16.26461 Y3.37276
G01 X16.11846 Y3.36652
G01 X15.93301 Y3.35265
G01 X15.93116 Y2.84731
G01 X15.93695 Y2.74853
G01 X15.94681 Y2.69354
G01 X15.99141 Y2.55854
G01 X16.00548 Y2.43675
G01 X16.01475 Y2.40548
G01 X16.03212 Y2.36733
G01 X16.00622 Y2.29845
G01 X15.99796 Y2.23319
G01 X15.99656 Y1.83004
G01 X16.00195 Y1.41450
G01 X15.83179 Y1.36406
G01 X15.93215 Y0.96263
G01 X15.93426 Y0.77244
G01 X15.94813 Y0.68674
G01 X15.96875 Y0.62596
G01 X16.03753 Y0.48623
G01 X16.06393 Y0.44534
G01 X16.06723 Y0.18926
G01 X16.07856 Y0.12906
G01 X16.11630 Y0.00000
G01 X16.64790 Y0.00000
G01 X16.64122 Y0.03228
G01 X16.60581 Y0.14486
G01 X16.56786 Y0.25448
G01 X16.53129 Y0.34343
G01 X16.53134 Y0.40312
G01 X16.55674 Y0.45225
G01 X16.57904 Y0.50975
G01 X16.63741 Y0.68692
G01 X16.65089 Y0.74445
G01 X16.66370 Y0.87673
G01 X16.66497 Y1.03348
G01 X16.74498 Y1.43363
G01 X17.03215 Y1.56848
G01 X17.20891 Y1.67015
G01 X17.39745 Y1.79118
G01 X17.39580 Y1.21910
G01 X17.39905 Y0.80297
G01 X17.40329 Y0.74854
G01 X17.41297 Y0.69360
G01 X17.45018 Y0.58567
G01 X17.46209 Y0.53409
G01 X17.47177 Y0.43673
G01 X17.49816 Y0.36733
G01 X17.42597 Y0.22436
G01 X17.39113 Y0.17120
G01 X17.39727 Y0.09987
G01 X17.39684 Y0.00000
G01 X17.39727 Y0.09987
G01 X17.39113 Y0.17120
G01 X17.42597 Y0.22436
G01 X17.49816 Y0.36733
G01 X18.16705 Y0.36655
G01 X18.43743 Y0.37043
G01 X18.87771 Y0.36947
G01 X18.86986 Y0.24783
G01 X18.86552 Y0.00000
G01 X18.86986 Y0.24783
G01 X18.87771 Y0.36947
G01 X18.88894 Y0.43175
G01 X18.86882 Y0.64760
G01 X18.81871 Y1.49982
G01 X18.22884 Y2.33172
G01 X18.00527 Y2.35501
G01 X17.88886 Y2.24970
G01 X17.58259 Y1.95870
G01 X17.39745 Y1.79118
G01 X17.20891 Y1.67015
G01 X17.03215 Y1.56848
G01 X16.82245 Y1.46804
G01 X16.74498 Y1.43363
G01 X16.27726 Y1.43322
G01 X16.17406 Y1.42928
G01 X16.00195 Y1.41450
G01 X15.83179 Y1.36406
G01 X15.74231 Y1.37147
G01 X15.59834 Y1.39129
G01 X15.50655 Y1.37693
G01 X15.13116 Y1.49957
G01 X14.66517 Y1.49972
G01 X14.56649 Y1.50452
G01 X14.39870 Y1.52179
G01 X14.14247 Y1.43703
G01 X14.01902 Y1.38956
G01 X13.81953 Y1.28946
G01 X13.66650 Y1.36682
G01 X13.62997 Y1.37457
G01 X13.35877 Y1.42309
G01 X13.14986 Y1.43139
G01 X12.86370 Y1.40579
G01 X12.76490 Y1.36634
G01 X12.38877 Y1.36644
G01 X12.13427 Y1.38453
G01 X11.99726 Y1.34795
G01 X11.69543 Y1.37676
G01 X11.53317 Y1.40299
G01 X11.40198 Y1.36716
G01 X10.97658 Y1.36398
G01 X10.73589 Y1.46926
G01 X10.39912 Y1.50741
G01 X10.26678 Y1.52994
G01 X10.08352 Y1.50350
G01 X9.98885 Y1.49990
G01 X8.79018 Y1.50106
G01 X7.29242 Y1.49609
G01 X4.33220 Y1.49990
G01 X3.69580 Y0.89573
G01 X2.80449 Y0.00003
G01 X3.69580 Y0.89573
G01 X4.33220 Y1.49990
G01 X4.90004 Y2.09995
G01 X5.69989 Y2.89979
G01 X6.35030 Y3.49987
G01 X6.90001 Y4.09994
G01 X7.69986 Y4.89979
G01 X8.11804 Y5.27822
G01 X8.48365 Y5.55005
G01 X8.84926 Y5.76075
G01 X9.24334 Y5.92513
G01 X9.55746 Y6.00672
G01 X9.92452 Y6.04807
G01 X10.23132 Y6.03796
G01 X10.53625 Y5.98673
G01 X10.79480 Y5.91246
G01 X10.93488 Y5.91650
G01 X11.21136 Y5.91627
G01 X11.39939 Y5.90865
G01 X11.65050 Y5.91543
G01 X11.86597 Y5.90268
G01 X12.08143 Y5.91543
G01 X12.33551 Y5.90840
G01 X12.53457 Y5.91650
G01 X12.81079 Y5.91627
G01 X12.99883 Y5.90865
G01 X13.24994 Y5.91543
G01 X13.32916 Y5.91289
G01 X13.59512 Y5.91650
G01 X13.78476 Y5.90921
G01 X13.94821 Y5.89267
G01 X14.18214 Y5.96616
G01 X14.45448 Y6.02412
G01 X14.72682 Y6.04771
G01 X15.06576 Y6.03405
G01 X15.34211 Y6.04957
G01 X15.65029 Y6.02722
G01 X15.93731 Y5.96984
G01 X16.12372 Y5.91345
G01 X16.19799 Y5.90865
G01 X16.39748 Y5.91622
G01 X16.66283 Y5.91289
G01 X16.81340 Y5.91589
G01 X17.06402 Y5.90263
G01 X17.30060 Y5.91523
G01 X17.59938 Y5.91624
G01 X17.79742 Y5.90865
G01 X17.98257 Y5.91622
G01 X18.12638 Y5.91650
G01 X18.42102 Y5.89907
G01 X18.66925 Y5.86001
G01 X18.91749 Y5.79501
G01 X18.98536 Y5.82577
G01 X19.24332 Y5.92513
G01 X19.55744 Y6.00672
G01 X19.58871 Y6.01251
G01 X19.97611 Y6.04876
G01 X20.54050 Y6.04957
G01 X20.82043 Y6.03133
G01 X21.13872 Y5.96984
G01 X21.32604 Y5.91312
G01 X21.39587 Y5.90837
G01 X21.58738 Y5.91622
G01 X21.99790 Y5.91650
G01 X22.17346 Y5.91010
G01 X22.34867 Y5.89272
G01 X22.46310 Y5.93192
G01 X22.75632 Y6.00672
G01 X23.15464 Y6.04888
G01 X23.45106 Y6.03578
G01 X23.73511 Y5.98673
G01 X23.99370 Y5.91246
G01 X24.13399 Y5.91650
G01 X24.41021 Y5.91627
G01 X24.59838 Y5.90862
G01 X24.84961 Y5.91543
G01 X25.06508 Y5.90268
G01 X25.28054 Y5.91543
G01 X25.53190 Y5.90862
G01 X25.70114 Y5.91523
G01 X25.99992 Y5.91624
G01 X26.19797 Y5.90865
G01 X25.99992 Y5.91624
G01 X25.70114 Y5.91523
G01 X25.53190 Y5.90862
G01 X25.52936 Y5.43055
G01 X25.53404 Y5.09422
G01 X25.53122 Y4.81470
G01 X25.52271 Y4.72328
G01 X25.51496 Y4.68681
G01 X25.47861 Y4.58848
G01 X25.46815 Y4.54744
G01 X25.46396 Y4.50962
G01 X25.46388 Y4.22824
G01 X25.46812 Y4.18595
G01 X25.47788 Y4.14693
G01 X25.57412 Y3.90721
G01 X25.66505 Y3.63322
G01 X25.71907 Y3.48869
G01 X25.84300 Y3.18856
G01 X25.98791 Y2.79286
G01 X26.08892 Y2.49288
G01 X26.12822 Y2.49116
G01 X26.13213 Y1.64287
G01 X26.13048 Y0.79159
G01 X26.13421 Y0.72763
G01 X26.14079 Y0.69586
G01 X26.15999 Y0.64353
G01 X26.19774 Y0.57782
G01 X26.19723 Y0.28898
G01 X26.17165 Y0.24798
G01 X26.10203 Y0.10714
G01 X26.08125 Y0.04628
G01 X26.07244 Y0.00003
G01 X25.39101 Y0.00000
G01 X25.37523 Y0.06873
G01 X25.35319 Y0.12372
G01 X25.28204 Y0.26233
G01 X25.22929 Y0.33244
G01 X25.31610 Y0.54310
G01 X25.32769 Y0.58814
G01 X25.33147 Y0.62817
G01 X25.33284 Y1.89433
G01 X25.32878 Y2.35712
G01 X24.93378 Y2.36985
G01 X24.62548 Y2.76167
G01 X24.39073 Y3.11249
G01 X24.23452 Y3.21074
G01 X23.93216 Y3.37005
G01 X24.23452 Y3.21074
G01 X24.39073 Y3.11249
G01 X24.43874 Y3.22918
G01 X24.54300 Y3.45717
G01 X24.73185 Y3.83296
G01 X24.72926 Y3.95013
G01 X24.72408 Y4.00289
G01 X24.71265 Y4.05547
G01 X24.67884 Y4.14818
G01 X24.66795 Y4.19420
G01 X24.66477 Y4.23347
G01 X24.66284 Y4.53817
G01 X24.64750 Y4.59941
G01 X24.61519 Y4.68681
G01 X24.60135 Y4.77253
G01 X24.59670 Y5.21909
G01 X24.59838 Y5.90862
G01 X24.41021 Y5.91627
G01 X24.13399 Y5.91650
G01 X23.99370 Y5.91246
G01 X23.70910 Y4.92186
G01 X23.67407 Y4.76016
G01 X23.66609 Y4.60505
G01 X23.66797 Y4.57022
G01 X23.67316 Y4.56552
G01 X23.77516 Y4.34449
G01 X23.89327 Y4.10969
G01 X23.92142 Y4.02100
G01 X23.93328 Y3.90487
G01 X23.93216 Y3.37005
G01 X23.71418 Y3.43969
G01 X23.56132 Y3.47853
G01 X23.40585 Y3.49758
G01 X23.20079 Y3.49976
G01 X23.09345 Y3.50523
G01 X22.79840 Y3.53814
G01 X22.60374 Y3.64520
G01 X22.41961 Y3.57358
G01 X22.28383 Y3.53385
G01 X22.11423 Y3.49560
G01 X21.86386 Y3.31732
G01 X21.77031 Y3.25636
G01 X21.56892 Y3.15143
G01 X21.53519 Y2.83512
G01 X21.67392 Y2.68407
G01 X21.70758 Y2.64251
G01 X21.78530 Y2.52476
G01 X21.80648 Y2.48321
G01 X21.83740 Y2.40642
G01 X21.85866 Y2.31905
G01 X21.86981 Y2.17180
G01 X21.90356 Y2.01394
G01 X21.92558 Y1.88882
G01 X21.93249 Y1.76825
G01 X21.93242 Y1.45519
G01 X21.79559 Y1.36855
G01 X21.79437 Y1.35077
G01 X21.89323 Y1.17061
G01 X22.07819 Y0.81082
G01 X22.11271 Y0.73556
G01 X22.12894 Y0.67663
G01 X22.13145 Y0.60856
G01 X22.11835 Y0.54643
G01 X21.97616 Y0.19561
G01 X21.96330 Y0.15331
G01 X21.94154 Y0.04013
G01 X21.93760 Y0.00003
G01 X22.87313 Y0.00000
G01 X21.93760 Y0.00003
G01 X21.94154 Y0.04013
G01 X21.96330 Y0.15331
G01 X21.98959 Y0.23330
G01 X22.11390 Y0.53345
G01 X22.12871 Y0.58768
G01 X22.13221 Y0.64534
G01 X22.11835 Y0.71981
G01 X22.08964 Y0.78725
G01 X21.89323 Y1.17061
G01 X21.79437 Y1.35077
G01 X21.79559 Y1.36855
G01 X21.56790 Y1.44257
G01 X21.46836 Y1.46977
G01 X21.26699 Y1.51442
G01 X21.14520 Y1.50299
G01 X21.06524 Y1.49990
G01 X20.78833 Y1.50017
G01 X20.60016 Y1.51455
G01 X20.39925 Y1.47038
G01 X20.39904 Y0.94600
G01 X20.40674 Y0.81674
G01 X20.43158 Y0.71648
G01 X20.45767 Y0.65204
G01 X20.49727 Y0.57889
G01 X20.43427 Y0.42372
G01 X20.41027 Y0.33617
G01 X20.45729 Y0.18379
G01 X20.46620 Y0.10521
G01 X20.46681 Y0.00000
G01 X21.06646 Y0.00003
G01 X21.06628 Y0.06551
G01 X21.09821 Y0.14013
G01 X21.15302 Y0.23614
G01 X21.22515 Y0.32609
G01 X21.44837 Y0.55027
G01 X21.51390 Y0.63284
G01 X21.53818 Y0.67147
G01 X21.58070 Y0.75405
G01 X21.64075 Y0.89830
G01 X21.79437 Y1.35077
G01 X21.79559 Y1.36855
G01 X21.56790 Y1.44257
G01 X21.46836 Y1.46977
G01 X21.26699 Y1.51442
G01 X21.26364 Y2.14229
G01 X21.24382 Y2.23192
G01 X21.20961 Y2.33573
G01 X21.23554 Y2.42651
G01 X21.28731 Y2.53789
G01 X21.36882 Y2.65699
G01 X21.45426 Y2.75389
G01 X21.53519 Y2.83512
G01 X21.56892 Y3.15143
G01 X21.09498 Y3.48882
G01 X20.93316 Y3.49984
G01 X20.66630 Y3.49979
G01 X20.60042 Y3.52981
G01 X20.66630 Y3.49979
G01 X20.66813 Y2.73876
G01 X20.67311 Y2.70670
G01 X20.68599 Y2.66446
G01 X20.73280 Y2.57772
G01 X20.73229 Y2.28905
G01 X20.70677 Y2.24813
G01 X20.63712 Y2.10713
G01 X20.61639 Y2.04625
G01 X20.60865 Y2.00978
G01 X20.60197 Y1.94981
G01 X20.60034 Y1.88552
G01 X20.60016 Y1.51455
G04 P0 ( dwell for no time -- G64 should not smooth over this point )
G00 Z10.00000 ( retract )

G00 X20.09991 Y2.27470 ( rapid move to begin. )
G01 F30.00000
( Mill infeed pass 1/1 )
G01 Z-0.10000
G04 P0 ( dwell for no time -- G64 should not smooth over this point )
G01 F360.00000
G01 X20.09991 Y2.27470
G01 X20.17469 Y2.19989
G01 X20.35835 Y2.19989
G01 X20.43316 Y2.27470
G01 X20.43316 Y2.72506
G01 X20.35835 Y2.79984
G01 X20.17469 Y2.79984
G01 X20.09991 Y2.72506
G01 X20.09991 Y2.27470
G04 P0 ( dwell for no time -- G64 should not smooth over this point )
G00 Z10.00000 ( retract )

G00 X17.30550 Y4.46634 ( rapid move to begin. )
G01 F30.00000
( Mill infeed pass 1/1 )
G01 Z-0.10000
G04 P0 ( dwell for no time -- G64 should not smooth over this point )
G01 F360.00000
G01 X17.30550 Y4.46634
G01 X17.62282 Y4.46634
G01 X17.55615 Y4.53314
G01 X17.37230 Y4.53314
G01 X17.30550 Y4.46634
G04 P0 ( dwell for no time -- G64 should not smooth over this point )
G00 Z10.00000 ( retract )

G00 X15.73954 Y4.23324 ( rapid move to begin. )
G01 F30.00000
( Mill infeed pass 1/1 )
G01 Z-0.10000
G04 P0 ( dwell for no time -- G64 should not smooth over this point )
G01 F360.00000
G01 X15.73954 Y4.23324
G01 X15.77287 Y4.19989
G01 X16.03134 Y4.19989
G01 X16.03134 Y4.26644
G01 X15.77282 Y4.26644
G01 X15.73954 Y4.23324
G04 P0 ( dwell for no time -- G64 should not smooth over this point )
G00 Z10.00000 ( retract )

G00 X12.50719 Y4.46634 ( rapid move to begin. )
G01 F30.00000
( Mill infeed pass 1/1 )
G01 Z-0.10000
G04 P0 ( dwell for no time -- G64 should not smooth over this point )
G01 F360.00000
G01 X12.50719 Y4.46634
G01 X12.57399 Y4.53314
G01 X12.75766 Y4.53314
G01 X12.82446 Y4.46634
G01 X12.50719 Y4.46634
G04 P0 ( dwell for no time -- G64 should not smooth over this point )
G00 Z10.00000 ( retract )

G00 X10.94110 Y4.23324 ( rapid move to begin. )
G01 F30.00000
( Mill infeed pass 1/1 )
G01 Z-0.10000
G04 P0 ( dwell for no time -- G64 should not smooth over this point )
G01 F360.00000
G01 X10.94110 Y4.23324
G01 X10.97430 Y4.26644
G01 X11.23302 Y4.26644
G01 X11.23302 Y4.19989
G01 X10.97437 Y4.19989
G01 X10.94110 Y4.23324
G04 P0 ( dwell for no time -- G64 should not smooth over this point )
G00 Z10.00000 ( retract )

G00 X10.09993 Y2.46659 ( rapid move to begin. )
G01 F30.00000
( Mill infeed pass 1/1 )
G01 Z-0.10000
G04 P0 ( dwell for no time -- G64 should not smooth over this point )
G01 F360.00000
G01 X10.09993 Y2.46659
G01 X10.09993 Y2.79984
G01 X10.35837 Y2.79984
G01 X10.43318 Y2.72506
G01 X10.43318 Y2.54122
G01 X10.35842 Y2.46659
G01 X10.09993 Y2.46659
G04 P0 ( dwell for no time -- G64 should not smooth over this point )
G00 Z10.00000 ( retract )

G00 X10.90795 Y2.46659 ( rapid move to begin. )
G01 F30.00000
( Mill infeed pass 1/1 )
G01 Z-0.10000
G04 P0 ( dwell for no time -- G64 should not smooth over this point )
G01 F360.00000
G01 X10.90795 Y2.46659
G01 X10.97437 Y2.53314
G01 X11.15822 Y2.53314
G01 X11.22477 Y2.46659
G01 X10.90795 Y2.46659
G04 P0 ( dwell for no time -- G64 should not smooth over this point )
G00 Z10.00000 ( retract )

G00 X10.09993 Y0.46660 ( rapid move to begin. )
G01 F30.00000
( Mill infeed pass 1/1 )
G01 Z-0.10000
G04 P0 ( dwell for no time -- G64 should not smooth over this point )
G01 F360.00000
G01 X10.09993 Y0.46660
G01 X10.09993 Y0.79985
G01 X10.35837 Y0.79985
G01 X10.43318 Y0.72507
G01 X10.43318 Y0.54125
G01 X10.35842 Y0.46660
G01 X10.09993 Y0.46660
G04 P0 ( dwell for no time -- G64 should not smooth over this point )
G00 Z10.00000 ( retract )

G00 X14.63180 Y0.19990 ( rapid move to begin. )
G01 F30.00000
( Mill infeed pass 1/1 )
G01 Z-0.10000
G04 P0 ( dwell for no time -- G64 should not smooth over this point )
G01 F360.00000
G01 X14.63180 Y0.19990
G01 X14.63180 Y0.79985
G01 X14.89024 Y0.79985
G01 X14.96504 Y0.72507
G01 X14.96504 Y0.27470
G01 X14.89024 Y0.19990
G01 X14.63180 Y0.19990
G04 P0 ( dwell for no time -- G64 should not smooth over this point )
G00 Z10.00000 ( retract )

G00 X15.47289 Y0.23330 ( rapid move to begin. )
G01 F30.00000
( Mill infeed pass 1/1 )
G01 Z-0.10000
G04 P0 ( dwell for no time -- G64 should not smooth over this point )
G01 F360.00000
G01 X15.47289 Y0.23330
G01 X15.50624 Y0.19990
G01 X15.76489 Y0.19990
G01 X15.76489 Y0.26670
G01 X15.50624 Y0.26670
G01 X15.47289 Y0.23330
G04 P0 ( dwell for no time -- G64 should not smooth over this point )
G00 Z10.00000 ( retract )

G00 X14.63180 Y2.27470 ( rapid move to begin. )
G01 F30.00000
( Mill infeed pass 1/1 )
G01 Z-0.10000
G04 P0 ( dwell for no time -- G64 should not smooth over this point )
G01 F360.00000
G01 X14.63180 Y2.27470
G01 X14.70657 Y2.19989
G01 X14.89024 Y2.19989
G01 X14.96504 Y2.27470
G01 X14.96504 Y2.45836
G01 X14.89024 Y2.53314
G01 X14.70657 Y2.53314
G01 X14.63180 Y2.45836
G01 X14.63180 Y2.27470
G04 P0 ( dwell for no time -- G64 should not smooth over this point )
G00 Z10.00000 ( retract )

G00 X16.90596 Y0.46660 ( rapid move to begin. )
G01 F30.00000
( Mill infeed pass 1/1 )
G01 Z-0.10000
G04 P0 ( dwell for no time -- G64 should not smooth over this point )
G01 F360.00000
G01 X16.90596 Y0.46660
G01 X17.22272 Y0.46660
G01 X17.15618 Y0.53315
G01 X16.97251 Y0.53315
G01 X16.90596 Y0.46660
G04 P0 ( dwell for no time -- G64 should not smooth over this point )
G00 Z10.00000 ( retract )

G00 X20.89975 Y4.27469 ( rapid move to begin. )
G01 F30.00000
( Mill infeed pass 1/1 )
G01 Z-0.10000
G04 P0 ( dwell for no time -- G64 should not smooth over this point )
G01 F360.00000
G01 X20.89975 Y4.27469
G01 X20.89975 Y4.45836
G01 X20.97453 Y4.53314
G01 X21.15820 Y4.53314
G01 X21.23300 Y4.45836
G01 X21.23300 Y4.27469
G01 X21.15820 Y4.19989
G01 X20.97453 Y4.19989
G01 X20.89975 Y4.27469
G04 P0 ( dwell for no time -- G64 should not smooth over this point )
G00 Z10.00000 ( retract )

G00 X21.69935 Y4.19989 ( rapid move to begin. )
G01 F30.00000
( Mill infeed pass 1/1 )
G01 Z-0.10000
G04 P0 ( dwell for no time -- G64 should not smooth over this point )
G01 F360.00000
G01 X21.69935 Y4.19989
G01 X21.69935 Y4.53314
G01 X21.95797 Y4.53314
G01 X22.03259 Y4.45841
G01 X22.03259 Y4.27464
G01 X21.95797 Y4.19989
G01 X21.69935 Y4.19989
G04 P0 ( dwell for no time -- G64 should not smooth over this point )
G00 Z10.00000 ( retract )

G00 X22.23249 Y2.27470 ( rapid move to begin. )
G01 F30.00000
( Mill infeed pass 1/1 )
G01 Z-0.10000
G04 P0 ( dwell for no time -- G64 should not smooth over this point )
G01 F360.00000
G01 X22.23249 Y2.27470
G01 X22.23249 Y2.72506
G01 X22.30727 Y2.79984
G01 X22.49112 Y2.79984
G01 X22.56574 Y2.72512
G01 X22.56574 Y2.27465
G01 X22.49112 Y2.19989
G01 X22.30727 Y2.19989
G01 X22.23249 Y2.27470
G04 P0 ( dwell for no time -- G64 should not smooth over this point )
G00 Z10.00000 ( retract )

G00 X22.36584 Y0.27470 ( rapid move to begin. )
G01 F30.00000
( Mill infeed pass 1/1 )
G01 Z-0.10000
G04 P0 ( dwell for no time -- G64 should not smooth over this point )
G01 F360.00000
G01 X22.36584 Y0.27470
G01 X22.36584 Y0.72507
G01 X22.44062 Y0.79985
G01 X22.62429 Y0.79985
G01 X22.69909 Y0.72507
G01 X22.69909 Y0.27470
G01 X22.62429 Y0.19990
G01 X22.44062 Y0.19990
G01 X22.36584 Y0.27470
G04 P0 ( dwell for no time -- G64 should not smooth over this point )
G00 Z10.00000 ( retract )

G00 X23.03234 Y2.27470 ( rapid move to begin. )
G01 F30.00000
( Mill infeed pass 1/1 )
G01 Z-0.10000
G04 P0 ( dwell for no time -- G64 should not smooth over this point )
G01 F360.00000
G01 X23.03234 Y2.27470
G01 X23.10712 Y2.19989
G01 X23.29078 Y2.19989
G01 X23.36559 Y2.27470
G01 X23.36559 Y2.72506
G01 X23.29078 Y2.79984
G01 X23.10712 Y2.79984
G01 X23.03234 Y2.72506
G01 X23.03234 Y2.27470
G04 P0 ( dwell for no time -- G64 should not smooth over this point )
G00 Z10.00000 ( retract )

G00 X24.14008 Y4.23324 ( rapid move to begin. )
G01 F30.00000
( Mill infeed pass 1/1 )
G01 Z-0.10000
G04 P0 ( dwell for no time -- G64 should not smooth over this point )
G01 F360.00000
G01 X24.14008 Y4.23324
G01 X24.17336 Y4.26644
G01 X24.43188 Y4.26644
G01 X24.43188 Y4.19989
G01 X24.17341 Y4.19989
G01 X24.14008 Y4.23324
G04 P0 ( dwell for no time -- G64 should not smooth over this point )
G00 Z10.00000 ( retract )

G00 X25.70604 Y4.46634 ( rapid move to begin. )
G01 F30.00000
( Mill infeed pass 1/1 )
G01 Z-0.10000
G04 P0 ( dwell for no time -- G64 should not smooth over this point )
G01 F360.00000
G01 X25.70604 Y4.46634
G01 X25.77285 Y4.53314
G01 X25.95669 Y4.53314
G01 X26.02337 Y4.46634
G01 X25.70604 Y4.46634
G04 P0 ( dwell for no time -- G64 should not smooth over this point )
G00 Z10.00000 ( retract )

G00 X25.56495 Y0.27465 ( rapid move to begin. )
G01 F30.00000
( Mill infeed pass 1/1 )
G01 Z-0.10000
G04 P0 ( dwell for no time -- G64 should not smooth over this point )
G01 F360.00000
G01 X25.56495 Y0.27465
G01 X25.63955 Y0.19990
G01 X25.82342 Y0.19990
G01 X25.89820 Y0.27470
G01 X25.89820 Y0.72507
G01 X25.82342 Y0.79985
G01 X25.63955 Y0.79985
G01 X25.56495 Y0.72512
G01 X25.56495 Y0.27465
G04 P0 ( dwell for no time -- G64 should not smooth over this point )
G00 Z10.00000 ( retract )

G00 X27.03106 Y0.27470 ( rapid move to begin. )
G01 F30.00000
( Mill infeed pass 1/1 )
G01 Z-0.10000
G04 P0 ( dwell for no time -- G64 should not smooth over this point )
G01 F360.00000
G01 X27.03106 Y0.27470
G01 X27.10584 Y0.19990
G01 X27.28951 Y0.19990
G01 X27.36431 Y0.27470
G01 X27.36431 Y0.32520
G01 X27.28956 Y0.39980
G01 X27.10579 Y0.39980
G01 X27.03106 Y0.32520
G01 X27.03106 Y0.27470
G04 P0 ( dwell for no time -- G64 should not smooth over this point )
G00 Z10.00000 ( retract )

G00 X27.03106 Y0.67452 ( rapid move to begin. )
G01 F30.00000
( Mill infeed pass 1/1 )
G01 Z-0.10000
G04 P0 ( dwell for no time -- G64 should not smooth over this point )
G01 F360.00000
G01 X27.03106 Y0.67452
G01 X27.10584 Y0.59969
G01 X27.28951 Y0.59969
G01 X27.36431 Y0.67452
G01 X27.36431 Y0.72507
G01 X27.28951 Y0.79985
G01 X27.10584 Y0.79985
G01 X27.03106 Y0.72507
G01 X27.03106 Y0.67452
G04 P0 ( dwell for no time -- G64 should not smooth over this point )
G00 Z10.00000 ( retract )

G00 X33.79775 Y8.24293 ( rapid move to begin. )
G01 F30.00000
( Mill infeed pass 1/1 )
G01 Z-0.10000
G04 P0 ( dwell for no time -- G64 should not smooth over this point )
G01 F360.00000
G01 X33.79775 Y8.24293
G01 X33.81553 Y8.10781
G01 X33.91662 Y7.86371
G01 X34.07740 Y7.65391
G01 X34.28721 Y7.49287
G01 X34.53155 Y7.39178
G01 X34.66668 Y7.37400
G01 X34.66668 Y7.63069
G01 X34.55126 Y7.66011
G01 X34.44839 Y7.70405
G01 X34.34502 Y7.76884
G01 X34.26061 Y7.84225
G01 X34.18804 Y7.92739
G01 X34.12899 Y8.02239
G01 X34.08469 Y8.12510
G01 X34.05444 Y8.24293
G01 X33.79775 Y8.24293
G04 P0 ( dwell for no time -- G64 should not smooth over this point )
G00 Z10.00000 ( retract )

G00 X36.45291 Y10.90994 ( rapid move to begin. )
G01 F30.00000
( Mill infeed pass 1/1 )
G01 Z-0.10000
G04 P0 ( dwell for no time -- G64 should not smooth over this point )
G01 F360.00000
G01 X36.45291 Y10.90994
G01 X36.46175 Y11.00503
G01 X36.48324 Y11.13785
G01 X36.52335 Y11.24529
G01 X36.57115 Y11.35024
G01 X36.65078 Y11.46038
G01 X36.71090 Y11.53269
G01 X36.78552 Y11.59462
G01 X36.89345 Y11.67227
G01 X37.00003 Y11.72098
G01 X37.10574 Y11.76038
G01 X37.24148 Y11.78220
G01 X37.33366 Y11.79071
G01 X37.43173 Y11.78146
G01 X37.56129 Y11.76020
G01 X37.67262 Y11.71872
G01 X37.77379 Y11.67244
G01 X37.83922 Y11.62693
G01 X37.95636 Y11.53262
G01 X38.02017 Y11.45568
G01 X38.09586 Y11.35019
G01 X38.14582 Y11.24074
G01 X38.18415 Y11.13780
G01 X38.20752 Y10.98817
G01 X38.21430 Y10.90994
G01 X38.20485 Y10.80887
G01 X38.18392 Y10.68212
G01 X38.14128 Y10.56820
G01 X38.09614 Y10.46968
G01 X38.01280 Y10.35482
G01 X37.95644 Y10.28710
G01 X37.88573 Y10.22835
G01 X37.77376 Y10.14743
G01 X37.67275 Y10.10117
G01 X37.56134 Y10.05947
G01 X37.43173 Y10.03836
G01 X37.33366 Y10.02911
G01 X37.24148 Y10.03765
G01 X37.10579 Y10.05962
G01 X37.00015 Y10.09881
G01 X36.89335 Y10.14743
G01 X36.77691 Y10.23206
G01 X36.71090 Y10.28713
G01 X36.65080 Y10.35947
G01 X36.57125 Y10.46985
G01 X36.52375 Y10.57354
G01 X36.48324 Y10.68202
G01 X36.46175 Y10.81479
G01 X36.45291 Y10.90994
G04 P0 ( dwell for no time -- G64 should not smooth over this point )
G00 Z10.00000 ( retract )

G00 X38.73957 Y12.64933 ( rapid move to begin. )
G01 F30.00000
( Mill infeed pass 1/1 )
G01 Z-0.10000
G04 P0 ( dwell for no time -- G64 should not smooth over this point )
G01 F360.00000
G01 X38.73957 Y12.64933
G01 X38.75354 Y12.54443
G01 X38.84295 Y12.32802
G01 X38.98544 Y12.14234
G01 X39.17137 Y11.99985
G01 X39.38753 Y11.91019
G01 X39.49268 Y11.89647
G01 X39.49268 Y12.15415
G01 X39.40035 Y12.18039
G01 X39.31696 Y12.21811
G01 X39.23988 Y12.26741
G01 X39.17066 Y12.32731
G01 X39.11077 Y12.39652
G01 X39.06147 Y12.47361
G01 X39.02375 Y12.55700
G01 X38.99751 Y12.64933
G01 X38.73957 Y12.64933
G04 P0 ( dwell for no time -- G64 should not smooth over this point )
G00 Z10.00000 ( retract )

G00 X38.73957 Y12.90333 ( rapid move to begin. )
G01 F30.00000
( Mill infeed pass 1/1 )
G01 Z-0.10000
G04 P0 ( dwell for no time -- G64 should not smooth over this point )
G01 F360.00000
G01 X38.73957 Y12.90333
G01 X38.75354 Y13.00848
G01 X38.84295 Y13.22464
G01 X38.98544 Y13.41057
G01 X39.17137 Y13.55280
G01 X39.38753 Y13.64244
G01 X39.49268 Y13.65644
G01 X39.49268 Y13.39847
G01 X39.40035 Y13.37224
G01 X39.31696 Y13.33452
G01 X39.23988 Y13.28522
G01 X39.17066 Y13.22532
G01 X39.11077 Y13.15611
G01 X39.06147 Y13.07902
G01 X39.02375 Y12.99563
G01 X38.99751 Y12.90333
G01 X38.73957 Y12.90333
G04 P0 ( dwell for no time -- G64 should not smooth over this point )
G00 Z10.00000 ( retract )

G00 X39.74668 Y11.89647 ( rapid move to begin. )
G01 F30.00000
( Mill infeed pass 1/1 )
G01 Z-0.10000
G04 P0 ( dwell for no time -- G64 should not smooth over this point )
G01 F360.00000
G01 X39.74668 Y11.89647
G01 X39.74668 Y12.15415
G01 X39.83899 Y12.18039
G01 X39.92237 Y12.21811
G01 X39.99946 Y12.26741
G01 X40.06868 Y12.32731
G01 X40.12857 Y12.39652
G01 X40.17787 Y12.47361
G01 X40.21559 Y12.55700
G01 X40.24183 Y12.64933
G01 X40.49954 Y12.64933
G01 X40.48557 Y12.54443
G01 X40.39616 Y12.32802
G01 X40.25367 Y12.14234
G01 X40.06799 Y11.99985
G01 X39.85158 Y11.91019
G01 X39.74668 Y11.89647
G04 P0 ( dwell for no time -- G64 should not smooth over this point )
G00 Z10.00000 ( retract )

G00 X39.74668 Y13.39847 ( rapid move to begin. )
G01 F30.00000
( Mill infeed pass 1/1 )
G01 Z-0.10000
G04 P0 ( dwell for no time -- G64 should not smooth over this point )
G01 F360.00000
G01 X39.74668 Y13.39847
G01 X39.74668 Y13.65644
G01 X39.85158 Y13.64244
G01 X40.06799 Y13.55280
G01 X40.25367 Y13.41057
G01 X40.39616 Y13.22464
G01 X40.48557 Y13.00848
G01 X40.49954 Y12.90333
G01 X40.24183 Y12.90333
G01 X40.21559 Y12.99563
G01 X40.17787 Y13.07902
G01 X40.12857 Y13.15611
G01 X40.06868 Y13.22532
G01 X39.99946 Y13.28522
G01 X39.92237 Y13.33452
G01 X39.83899 Y13.37224
G01 X39.74668 Y13.39847
G04 P0 ( dwell for no time -- G64 should not smooth over this point )
G00 Z10.00000 ( retract )

G00 X39.93167 Y15.68003 ( rapid move to begin. )
G01 F30.00000
( Mill infeed pass 1/1 )
G01 Z-0.10000
G04 P0 ( dwell for no time -- G64 should not smooth over this point )
G01 F360.00000
G01 X39.93167 Y15.68003
G01 X39.94628 Y15.52661
G01 X39.97396 Y15.36116
G01 X40.03865 Y15.18981
G01 X40.09652 Y15.06380
G01 X40.16743 Y14.96311
G01 X40.29240 Y14.80894
G01 X40.41120 Y14.71079
G01 X40.54775 Y14.61326
G01 X40.71422 Y14.53820
G01 X40.84477 Y14.49001
G01 X40.95549 Y14.47035
G01 X41.16349 Y14.44810
G01 X41.31691 Y14.46271
G01 X41.48234 Y14.49040
G01 X41.65374 Y14.55511
G01 X41.77965 Y14.61290
G01 X41.88043 Y14.68394
G01 X42.03459 Y14.80894
G01 X42.13273 Y14.92773
G01 X42.23022 Y15.06413
G01 X42.30535 Y15.23075
G01 X42.35346 Y15.36111
G01 X42.37317 Y15.47205
G01 X42.39539 Y15.68003
G01 X42.38079 Y15.83347
G01 X42.35315 Y15.99865
G01 X42.28836 Y16.17028
G01 X42.23067 Y16.29601
G01 X42.15953 Y16.39697
G01 X42.03456 Y16.55112
G01 X41.91577 Y16.64927
G01 X41.77949 Y16.74660
G01 X41.61269 Y16.82181
G01 X41.48247 Y16.86989
G01 X41.37144 Y16.88960
G01 X41.16349 Y16.91183
G01 X41.01005 Y16.89722
G01 X40.84485 Y16.86959
G01 X40.67327 Y16.80479
G01 X40.54744 Y16.74706
G01 X40.44658 Y16.67604
G01 X40.29240 Y16.55112
G01 X40.19426 Y16.43228
G01 X40.09687 Y16.29585
G01 X40.02174 Y16.12923
G01 X39.97361 Y15.99877
G01 X39.95392 Y15.88800
G01 X39.93167 Y15.68003
G04 P0 ( dwell for no time -- G64 should not smooth over this point )
G00 Z10.00000 ( retract )

G00 X37.46068 Y16.72915 ( rapid move to begin. )
G01 F30.00000
( Mill infeed pass 1/1 )
G01 Z-0.10000
G04 P0 ( dwell for no time -- G64 should not smooth over this point )
G01 F360.00000
G01 X37.46068 Y16.72915
G01 X37.57125 Y16.70136
G01 X37.67442 Y16.65811
G01 X37.77823 Y16.59402
G01 X37.86314 Y16.52120
G01 X37.93627 Y16.43654
G01 X38.00071 Y16.33294
G01 X38.04430 Y16.22991
G01 X38.07287 Y16.11693
G01 X38.32962 Y16.11693
G01 X38.31184 Y16.25206
G01 X38.21049 Y16.49641
G01 X38.04971 Y16.70596
G01 X37.83990 Y16.86700
G01 X37.59556 Y16.96809
G01 X37.46068 Y16.98587
G01 X37.46068 Y16.72915
G04 P0 ( dwell for no time -- G64 should not smooth over this point )
G00 Z10.00000 ( retract )

G00 X37.46068 Y14.99400 ( rapid move to begin. )
G01 F30.00000
( Mill infeed pass 1/1 )
G01 Z-0.10000
G04 P0 ( dwell for no time -- G64 should not smooth over this point )
G01 F360.00000
G01 X37.46068 Y14.99400
G01 X37.46068 Y15.25069
G01 X37.57125 Y15.27848
G01 X37.67442 Y15.32174
G01 X37.77823 Y15.38582
G01 X37.86314 Y15.45864
G01 X37.93627 Y15.54330
G01 X38.00071 Y15.64691
G01 X38.04430 Y15.74993
G01 X38.07287 Y15.86293
G01 X38.32962 Y15.86293
G01 X38.31184 Y15.72781
G01 X38.21049 Y15.48371
G01 X38.04971 Y15.27391
G01 X37.83990 Y15.11287
G01 X37.59556 Y15.01178
G01 X37.46068 Y14.99400
G04 P0 ( dwell for no time -- G64 should not smooth over this point )
G00 Z10.00000 ( retract )

G00 X36.45291 Y13.44993 ( rapid move to begin. )
G01 F30.00000
( Mill infeed pass 1/1 )
G01 Z-0.10000
G04 P0 ( dwell for no time -- G64 should not smooth over this point )
G01 F360.00000
G01 X36.45291 Y13.44993
G01 X36.46175 Y13.54503
G01 X36.48324 Y13.67785
G01 X36.52335 Y13.78529
G01 X36.57115 Y13.89024
G01 X36.65078 Y14.00038
G01 X36.71090 Y14.07269
G01 X36.78552 Y14.13462
G01 X36.89345 Y14.21227
G01 X37.00003 Y14.26098
G01 X37.10574 Y14.30038
G01 X37.24148 Y14.32220
G01 X37.33366 Y14.33071
G01 X37.43173 Y14.32146
G01 X37.56129 Y14.30020
G01 X37.67262 Y14.25872
G01 X37.77379 Y14.21244
G01 X37.83922 Y14.16693
G01 X37.95636 Y14.07262
G01 X38.02017 Y13.99568
G01 X38.09586 Y13.89019
G01 X38.14582 Y13.78074
G01 X38.18415 Y13.67780
G01 X38.20752 Y13.52817
G01 X38.21430 Y13.44993
G01 X38.20485 Y13.34887
G01 X38.18392 Y13.22212
G01 X38.14128 Y13.10820
G01 X38.09614 Y13.00973
G01 X38.01280 Y12.89482
G01 X37.95644 Y12.82708
G01 X37.88573 Y12.76835
G01 X37.77376 Y12.68743
G01 X37.67275 Y12.64117
G01 X37.56134 Y12.59947
G01 X37.43173 Y12.57836
G01 X37.33366 Y12.56911
G01 X37.24148 Y12.57765
G01 X37.10579 Y12.59962
G01 X37.00015 Y12.63881
G01 X36.89335 Y12.68743
G01 X36.77691 Y12.77206
G01 X36.71090 Y12.82710
G01 X36.65083 Y12.89947
G01 X36.57125 Y13.00991
G01 X36.52375 Y13.11354
G01 X36.48321 Y13.22202
G01 X36.46175 Y13.35479
G01 X36.45291 Y13.44993
G04 P0 ( dwell for no time -- G64 should not smooth over this point )
G00 Z10.00000 ( retract )

G00 X34.22373 Y15.18831 ( rapid move to begin. )
G01 F30.00000
( Mill infeed pass 1/1 )
G01 Z-0.10000
G04 P0 ( dwell for no time -- G64 should not smooth over this point )
G01 F360.00000
G01 X34.22373 Y15.18831
G01 X34.14123 Y15.13695
G01 X34.05914 Y15.09865
G01 X33.97707 Y15.08587
G01 X32.88563 Y15.08587
G01 X32.76473 Y15.06568
G01 X32.72711 Y15.05471
G01 X32.70674 Y15.04409
G01 X32.64941 Y15.00789
G01 X32.59331 Y14.96487
G01 X30.07015 Y12.44168
G01 X30.01239 Y12.39777
G01 X29.81300 Y12.42835
G01 X29.71366 Y12.43752
G01 X29.60004 Y12.42657
G01 X29.48244 Y12.40726
G01 X29.37942 Y12.36863
G01 X29.26733 Y12.31770
G01 X29.19298 Y12.26566
G01 X29.10926 Y12.19929
G01 X29.08282 Y12.17582
G01 X29.04597 Y12.13328
G01 X28.98066 Y12.04882
G01 X28.94104 Y11.99096
G01 X28.91808 Y11.94394
G01 X28.85171 Y11.77580
G01 X28.83131 Y11.65306
G01 X28.82085 Y11.54493
G01 X28.83766 Y11.39144
G01 X28.85704 Y11.29739
G01 X28.89042 Y11.20958
G01 X28.94081 Y11.09873
G01 X29.03009 Y10.97638
G01 X29.06898 Y10.91303
G01 X29.09847 Y10.82551
G01 X29.11536 Y10.75258
G01 X29.25166 Y10.71161
G01 X29.35610 Y10.68763
G01 X29.51267 Y10.66312
G01 X29.62239 Y10.65416
G01 X29.80037 Y10.65390
G01 X29.97043 Y10.67026
G01 X30.13934 Y10.70249
G01 X30.31200 Y10.75228
G01 X30.38996 Y10.70376
G01 X30.47218 Y10.66536
G01 X30.55442 Y10.65256
G01 X32.62546 Y10.65238
G01 X32.68017 Y10.64611
G01 X32.78436 Y10.62243
G01 X32.85333 Y10.58062
G01 X32.91777 Y10.53170
G01 X33.40524 Y10.04448
G01 X33.44596 Y10.01111
G01 X33.49854 Y10.00587
G01 X33.97707 Y10.00587
G01 X34.05914 Y10.01865
G01 X34.14123 Y10.05695
G01 X34.22373 Y10.10831
G01 X34.19787 Y10.20869
G01 X34.16757 Y10.28095
G01 X34.13498 Y10.32998
G01 X34.06031 Y10.42693
G01 X34.03125 Y10.46985
G01 X34.01238 Y10.50828
G01 X33.94956 Y10.66277
G01 X33.93168 Y10.74425
G01 X33.91291 Y10.90994
G01 X33.93168 Y11.07557
G01 X33.94324 Y11.13785
G01 X33.95398 Y11.16940
G01 X33.98832 Y11.25728
G01 X34.03117 Y11.35029
G01 X34.11073 Y11.46040
G01 X34.17070 Y11.53264
G01 X34.24550 Y11.59464
G01 X34.35342 Y11.67227
G01 X34.46003 Y11.72098
G01 X34.56574 Y11.76038
G01 X34.70148 Y11.78220
G01 X34.79366 Y11.79071
G01 X34.89173 Y11.78146
G01 X35.02129 Y11.76020
G01 X35.13262 Y11.71872
G01 X35.23379 Y11.67244
G01 X35.29922 Y11.62693
G01 X35.41636 Y11.53262
G01 X35.48017 Y11.45568
G01 X35.55586 Y11.35019
G01 X35.60582 Y11.24074
G01 X35.64415 Y11.13780
G01 X35.66752 Y10.98817
G01 X35.67402 Y10.90417
G01 X35.66485 Y10.80887
G01 X35.64392 Y10.68212
G01 X35.60127 Y10.56820
G01 X35.56193 Y10.48103
G01 X35.51585 Y10.41156
G01 X35.41131 Y10.28134
G01 X35.37011 Y10.22071
G01 X35.34913 Y10.17646
G01 X35.31852 Y10.09406
G01 X35.15502 Y10.05355
G01 X35.05149 Y10.03562
G01 X34.89457 Y10.01984
G01 X34.78385 Y10.01702
G01 X34.62757 Y10.02472
G01 X34.51410 Y10.03887
G01 X34.35472 Y10.07095
G01 X34.22373 Y10.10831
G01 X34.35472 Y10.07095
G01 X34.51410 Y10.03887
G01 X34.62757 Y10.02472
G01 X34.78385 Y10.01702
G01 X34.89457 Y10.01984
G01 X35.05149 Y10.03562
G01 X35.15502 Y10.05355
G01 X35.31852 Y10.09406
G01 X35.44875 Y10.01019
G01 X35.52556 Y9.94725
G01 X35.59228 Y9.88489
G01 X36.48682 Y8.99023
G01 X36.60369 Y8.91990
G01 X36.64527 Y8.94286
G01 X36.69828 Y8.98103
G01 X36.79495 Y9.06196
G01 X36.89340 Y9.13237
G01 X37.01029 Y9.18515
G01 X37.10569 Y9.22053
G01 X37.19444 Y9.23595
G01 X37.33366 Y9.25025
G01 X37.44338 Y9.24001
G01 X37.62273 Y9.21268
G01 X37.67948 Y9.25601
G01 X39.34031 Y10.91687
G01 X39.43088 Y10.98263
G01 X39.48641 Y11.01113
G01 X39.54729 Y11.02578
G01 X39.63264 Y11.03787
G01 X42.92468 Y11.03777
G01 X43.03001 Y11.02136
G01 X43.08295 Y11.00676
G01 X43.21932 Y10.92258
G01 X43.29123 Y10.94059
G01 X43.38371 Y10.97435
G01 X43.41429 Y10.98055
G01 X43.58604 Y11.00506
G01 X43.66359 Y11.01113
G01 X43.70088 Y11.00877
G01 X43.79331 Y10.99906
G01 X43.94330 Y10.97432
G01 X44.08140 Y10.92251
G01 X44.20408 Y10.86612
G01 X44.32894 Y10.77681
G01 X44.42818 Y10.69457
G01 X44.52920 Y10.57074
G01 X44.59994 Y10.47057
G01 X44.66382 Y10.32911
G01 X44.70809 Y10.20973
G01 X44.73512 Y10.03971
G01 X44.74520 Y9.92998
G01 X44.73633 Y9.83104
G01 X44.70789 Y9.65004
G01 X44.65894 Y9.51893
G01 X44.59971 Y9.38931
G01 X44.49442 Y9.24423
G01 X44.41815 Y9.15624
G01 X44.33806 Y9.09023
G01 X44.20398 Y8.99378
G01 X44.07136 Y8.93326
G01 X43.94337 Y8.88563
G01 X43.77045 Y8.85812
G01 X43.66359 Y8.84862
G01 X43.53822 Y8.86038
G01 X43.41200 Y8.87992
G01 X43.38368 Y8.88599
G01 X43.29587 Y8.91723
G01 X43.17843 Y8.96686
G01 X43.12318 Y8.99404
G01 X43.04660 Y9.04664
G01 X42.89933 Y9.16572
G01 X42.78155 Y9.31121
G01 X42.72765 Y9.38954
G01 X42.65369 Y9.55505
G01 X42.61950 Y9.65004
G01 X42.61394 Y9.67618
G01 X42.59435 Y9.80176
G01 X42.58234 Y9.93005
G01 X42.59158 Y10.02995
G01 X42.59209 Y10.08205
G01 X42.58158 Y10.14905
G01 X42.56334 Y10.21834
G01 X42.50060 Y10.24682
G01 X42.38092 Y10.27397
G01 X41.40172 Y10.27397
G01 X41.28267 Y10.24710
G01 X41.16362 Y10.16648
G01 X41.04455 Y10.24710
G01 X40.92550 Y10.27397
G01 X39.83251 Y10.27397
G01 X39.78003 Y10.26874
G01 X39.73927 Y10.23536
G01 X38.21966 Y8.71583
G01 X38.17592 Y8.65843
G01 X38.20203 Y8.49180
G01 X38.21425 Y8.36986
G01 X38.20373 Y8.26066
G01 X38.18400 Y8.14210
G01 X38.13762 Y8.01969
G01 X38.09563 Y7.93003
G01 X38.00003 Y7.79902
G01 X37.95606 Y7.74746
G01 X37.85017 Y7.66107
G01 X37.77391 Y7.60720
G01 X37.67432 Y7.56186
G01 X37.56142 Y7.51916
G01 X37.46523 Y7.50283
G01 X37.33366 Y7.48967
G01 X37.24902 Y7.49689
G01 X37.10572 Y7.51937
G01 X37.00341 Y7.55757
G01 X36.89340 Y7.60748
G01 X36.77036 Y7.69739
G01 X36.71148 Y7.74769
G01 X36.67209 Y7.79302
G01 X36.60630 Y7.87870
G01 X36.53610 Y7.98492
G01 X36.42142 Y8.01891
G01 X36.37397 Y8.04616
G01 X36.30602 Y8.09422
G01 X36.00508 Y8.39186
G01 X35.93803 Y8.44088
G01 X35.85291 Y8.47184
G01 X35.76561 Y8.49219
G01 X35.69678 Y8.62124
G01 X35.62751 Y8.73115
G01 X35.55403 Y8.83168
G01 X35.47618 Y8.92421
G01 X35.40130 Y9.00232
G01 X35.32246 Y9.07499
G01 X35.22972 Y9.15007
G01 X35.14247 Y9.21197
G01 X35.01547 Y9.23275
G01 X34.89477 Y9.24387
G01 X34.77103 Y9.24667
G01 X34.66254 Y9.24189
G01 X34.54133 Y9.22861
G01 X34.41723 Y9.20636
G01 X34.31553 Y9.18157
G01 X34.19300 Y9.14334
G01 X34.11659 Y9.19089
G01 X34.03450 Y9.22919
G01 X33.95241 Y9.24197
G01 X33.29864 Y9.24197
G01 X33.17771 Y9.26216
G01 X33.14012 Y9.27313
G01 X33.11975 Y9.28375
G01 X33.04167 Y9.33524
G01 X33.00639 Y9.36305
G01 X32.51891 Y9.85030
G01 X32.47817 Y9.88367
G01 X32.42564 Y9.88891
G01 X30.72968 Y9.88891
G01 X30.60649 Y9.86015
G01 X30.60266 Y9.75703
G01 X30.60266 Y8.24293
G01 X30.58089 Y8.13770
G01 X30.47568 Y8.11594
G01 X28.95168 Y8.11594
G01 X28.84454 Y8.13852
G01 X28.80101 Y8.22173
G01 X28.69768 Y8.24197
G01 X25.45918 Y8.24197
G01 X25.35690 Y8.22213
G01 X25.33216 Y8.11009
G01 X25.33216 Y7.86194
G01 X25.31039 Y7.75670
G01 X25.20516 Y7.73491
G01 X24.06218 Y7.73491
G01 X23.95695 Y7.75670
G01 X23.93518 Y7.86194
G01 X23.93518 Y9.38593
G01 X23.95695 Y9.49114
G01 X24.06218 Y9.51293
G01 X25.20516 Y9.51293
G01 X25.31039 Y9.49114
G01 X25.33216 Y9.38593
G01 X25.33216 Y9.13778
G01 X25.35690 Y9.02571
G01 X25.45918 Y9.00587
G01 X28.69768 Y9.00587
G01 X28.79994 Y9.02571
G01 X28.82468 Y9.13778
G01 X28.82468 Y9.75703
G01 X28.82085 Y9.86015
G01 X28.95168 Y9.89386
G01 X30.47568 Y9.89386
G01 X30.60649 Y9.86015
G01 X30.47568 Y9.89386
G01 X28.95168 Y9.89386
G01 X28.82085 Y9.86015
G01 X28.69768 Y9.88891
G01 X27.57147 Y9.88891
G01 X27.45837 Y9.90694
G01 X27.41303 Y9.91949
G01 X27.38300 Y9.93615
G01 X27.33294 Y9.96859
G01 X27.27937 Y10.01006
G01 X26.54607 Y10.74334
G01 X26.50528 Y10.77676
G01 X26.45283 Y10.78197
G01 X25.45918 Y10.78197
G01 X25.35690 Y10.76213
G01 X25.33216 Y10.65009
G01 X25.33216 Y10.40193
G01 X25.31039 Y10.29670
G01 X25.20516 Y10.27493
G01 X24.06218 Y10.27493
G01 X23.95695 Y10.29670
G01 X23.93518 Y10.40193
G01 X23.93518 Y11.92594
G01 X23.95695 Y12.03114
G01 X24.06218 Y12.05291
G01 X25.20516 Y12.05291
G01 X25.31039 Y12.03114
G01 X25.33216 Y11.92594
G01 X25.33216 Y11.67778
G01 X25.35690 Y11.56571
G01 X25.45918 Y11.54587
G01 X26.65268 Y11.54587
G01 X26.74056 Y11.53317
G01 X26.81130 Y11.51555
G01 X26.86975 Y11.48070
G01 X26.94475 Y11.42484
G01 X27.67805 Y10.69144
G01 X27.71887 Y10.65802
G01 X27.77134 Y10.65281
G01 X28.87269 Y10.65271
G01 X28.95483 Y10.66549
G01 X29.03700 Y10.70381
G01 X29.11536 Y10.75258
G01 X29.25166 Y10.71161
G01 X29.34033 Y10.69086
G01 X29.51267 Y10.66312
G01 X29.60807 Y10.65494
G01 X29.70367 Y10.65185
G01 X29.87149 Y10.65875
G01 X29.97043 Y10.67026
G01 X30.06819 Y10.68697
G01 X30.15778 Y10.70701
G01 X30.31200 Y10.75228
G01 X30.32597 Y10.81395
G01 X30.35143 Y10.89757
G01 X30.38660 Y10.96208
G01 X30.48673 Y11.09873
G01 X30.53039 Y11.19393
G01 X30.57553 Y11.31400
G01 X30.59692 Y11.44433
G01 X30.60563 Y11.54493
G01 X30.59085 Y11.68992
G01 X30.56598 Y11.84272
G01 X30.61051 Y11.90158
G01 X32.99226 Y14.28333
G01 X33.03303 Y14.31674
G01 X33.08551 Y14.32197
G01 X33.95241 Y14.32197
G01 X34.03443 Y14.30922
G01 X34.11642 Y14.27099
G01 X34.19259 Y14.22364
G01 X34.17913 Y14.16042
G01 X34.15314 Y14.07432
G01 X34.11794 Y14.01016
G01 X34.03117 Y13.89029
G01 X33.98335 Y13.78529
G01 X33.94324 Y13.67785
G01 X33.92175 Y13.54503
G01 X33.91299 Y13.45103
G01 X33.92033 Y13.36680
G01 X33.94321 Y13.22202
G01 X33.98375 Y13.11354
G01 X34.03128 Y13.00985
G01 X34.11078 Y12.89944
G01 X34.17072 Y12.82718
G01 X34.23686 Y12.77201
G01 X34.35332 Y12.68745
G01 X34.44905 Y12.64343
G01 X34.53895 Y12.60851
G01 X34.56579 Y12.59962
G01 X34.63092 Y12.58748
G01 X34.79366 Y12.56911
G01 X34.97425 Y12.59045
G01 X35.02134 Y12.59947
G01 X35.05512 Y12.61097
G01 X35.13275 Y12.64117
G01 X35.23376 Y12.68743
G01 X35.34573 Y12.76835
G01 X35.41644 Y12.82708
G01 X35.47280 Y12.89482
G01 X35.55614 Y13.00973
G01 X35.59660 Y13.09715
G01 X35.63198 Y13.18674
G01 X35.64392 Y13.22212
G01 X35.65467 Y13.27838
G01 X35.67430 Y13.44993
G01 X35.66752 Y13.52817
G01 X35.64415 Y13.67780
G01 X35.61037 Y13.76959
G01 X35.55586 Y13.89017
G01 X35.42406 Y14.07465
G01 X35.39452 Y14.14742
G01 X35.37057 Y14.23167
G01 X35.23160 Y14.27216
G01 X35.07367 Y14.30449
G01 X34.96333 Y14.31864
G01 X34.78466 Y14.32682
G01 X34.61708 Y14.31795
G01 X34.46084 Y14.29527
G01 X34.35614 Y14.27223
G01 X34.19259 Y14.22364
G01 X34.35614 Y14.27223
G01 X34.46084 Y14.29527
G01 X34.61708 Y14.31795
G01 X34.78466 Y14.32682
G01 X34.96333 Y14.31864
G01 X35.07367 Y14.30449
G01 X35.23160 Y14.27216
G01 X35.37057 Y14.23167
G01 X35.46719 Y14.29769
G01 X35.51629 Y14.32418
G01 X35.59691 Y14.35270
G01 X35.62157 Y14.36619
G01 X35.73031 Y14.44305
G01 X36.30851 Y15.02115
G01 X36.35568 Y15.08328
G01 X36.39932 Y15.15478
G01 X36.41938 Y15.23578
G01 X36.44141 Y15.30030
G01 X36.47737 Y15.36471
G01 X36.52672 Y15.43611
G01 X36.48476 Y15.59344
G01 X36.46663 Y15.68580
G01 X36.44770 Y15.83197
G01 X36.44095 Y15.97221
G01 X36.44659 Y16.13464
G01 X36.46663 Y16.29402
G01 X36.50198 Y16.45760
G01 X36.53175 Y16.56029
G01 X36.48060 Y16.64254
G01 X36.44237 Y16.72453
G01 X36.42962 Y16.80654
G01 X36.42962 Y17.71333
G01 X36.44237 Y17.79532
G01 X36.48060 Y17.87731
G01 X36.53198 Y17.95993
G01 X36.62205 Y17.93733
G01 X36.70833 Y17.90179
G01 X36.85238 Y17.79527
G01 X36.91285 Y17.75762
G01 X37.07895 Y17.68851
G01 X37.15809 Y17.66961
G01 X37.33366 Y17.64911
G01 X37.50221 Y17.66844
G01 X37.56134 Y17.67947
G01 X37.59512 Y17.69097
G01 X37.74907 Y17.75511
G01 X37.82065 Y17.79946
G01 X37.95644 Y17.90708
G01 X38.05585 Y18.03156
G01 X38.09614 Y18.08973
G01 X38.10726 Y18.11218
G01 X38.14128 Y18.18820
G01 X38.18392 Y18.30212
G01 X38.20485 Y18.42887
G01 X38.21430 Y18.52991
G01 X38.20752 Y18.60817
G01 X38.18418 Y18.75777
G01 X38.14580 Y18.86072
G01 X38.09591 Y18.96999
G01 X38.02014 Y19.07565
G01 X37.95634 Y19.15264
G01 X37.83922 Y19.24693
G01 X37.77379 Y19.29244
G01 X37.68369 Y19.33405
G01 X37.56129 Y19.38020
G01 X37.51511 Y19.38922
G01 X37.33366 Y19.41071
G01 X37.17092 Y19.39234
G01 X37.08938 Y19.37502
G01 X37.00003 Y19.34098
G01 X36.89342 Y19.29227
G01 X36.75357 Y19.18843
G01 X36.69622 Y19.15152
G01 X36.62202 Y19.12249
G01 X36.53198 Y19.09991
G01 X36.49551 Y18.97210
G01 X36.46137 Y18.80113
G01 X36.44875 Y18.69902
G01 X36.44074 Y18.53161
G01 X36.44875 Y18.36080
G01 X36.46117 Y18.25976
G01 X36.49238 Y18.10047
G01 X36.53198 Y17.95993
G01 X36.49238 Y18.10047
G01 X36.46117 Y18.25976
G01 X36.44875 Y18.36080
G01 X36.44074 Y18.53161
G01 X36.44875 Y18.69902
G01 X36.46137 Y18.80113
G01 X36.49551 Y18.97210
G01 X36.53198 Y19.09991
G01 X36.48060 Y19.18254
G01 X36.44237 Y19.26453
G01 X36.42962 Y19.34652
G01 X36.42962 Y19.80291
G01 X36.41809 Y19.88569
G01 X36.39901 Y19.96138
G01 X36.35733 Y20.03072
G01 X36.30836 Y20.09524
G01 X35.67981 Y20.72391
G01 X35.63658 Y20.78050
G01 X35.66338 Y20.95724
G01 X35.67407 Y21.06991
G01 X35.66023 Y21.20529
G01 X35.64626 Y21.28837
G01 X35.61438 Y21.37948
G01 X35.55599 Y21.51027
G01 X35.48738 Y21.60636
G01 X35.41611 Y21.69236
G01 X35.30882 Y21.77981
G01 X35.23143 Y21.83392
G01 X35.14199 Y21.87473
G01 X35.02127 Y21.92015
G01 X34.92437 Y21.93709
G01 X34.80575 Y21.94977
G01 X34.70425 Y21.94245
G01 X34.57014 Y21.92147
G01 X34.46869 Y21.88444
G01 X34.35330 Y21.83244
G01 X34.26290 Y21.76805
G01 X34.17098 Y21.69239
G01 X34.10186 Y21.60892
G01 X34.03255 Y21.51276
G01 X33.98731 Y21.41469
G01 X33.94316 Y21.29787
G01 X33.92454 Y21.18675
G01 X33.91322 Y21.06991
G01 X33.92320 Y20.96303
G01 X33.93587 Y20.87964
G01 X33.94344 Y20.84194
G01 X33.96760 Y20.77446
G01 X33.98624 Y20.69478
G01 X33.98449 Y20.59356
G01 X33.96127 Y20.46445
G01 X34.03829 Y20.37936
G01 X34.17766 Y20.24667
G01 X34.28398 Y20.16067
G01 X34.40148 Y20.07779
G01 X34.52937 Y19.99993
G01 X34.66927 Y19.92714
G01 X34.82398 Y19.85937
G01 X34.96079 Y19.80949
G01 X34.98118 Y19.78909
G01 X35.10956 Y19.71972
G01 X35.21029 Y19.65853
G01 X35.38014 Y19.53943
G01 X35.45446 Y19.40044
G01 X35.50536 Y19.29044
G01 X35.56770 Y19.12996
G01 X35.61334 Y18.97733
G01 X35.64026 Y18.85531
G01 X35.66142 Y18.70807
G01 X35.66963 Y18.58622
G01 X35.66876 Y18.45061
G01 X35.66041 Y18.34149
G01 X35.64296 Y18.21909
G01 X35.61611 Y18.09313
G01 X35.56701 Y17.92948
G01 X35.61484 Y17.85252
G01 X35.65299 Y17.77060
G01 X35.66571 Y17.68869
G01 X35.66571 Y16.83116
G01 X35.65294 Y16.74909
G01 X35.61464 Y16.66700
G01 X35.56739 Y16.59110
G01 X35.62121 Y16.40601
G01 X35.65350 Y16.23469
G01 X35.66940 Y16.05526
G01 X35.67052 Y15.97198
G01 X35.66211 Y15.81721
G01 X35.63480 Y15.63560
G01 X35.59802 Y15.48661
G01 X35.52271 Y15.39728
G01 X35.44882 Y15.31993
G01 X35.38289 Y15.25786
G01 X35.26264 Y15.15885
G01 X35.13816 Y15.13022
G01 X34.98027 Y15.10673
G01 X34.87979 Y15.09908
G01 X34.71266 Y15.09883
G01 X34.61220 Y15.10622
G01 X34.44288 Y15.13144
G01 X34.33580 Y15.15570
G01 X34.22373 Y15.18831
G01 X34.19787 Y15.28869
G01 X34.16757 Y15.36098
G01 X34.03125 Y15.54991
G01 X33.98375 Y15.65354
G01 X33.94956 Y15.74277
G01 X33.93168 Y15.82425
G01 X33.91375 Y15.97777
G01 X33.92025 Y16.07215
G01 X33.94324 Y16.21785
G01 X33.98335 Y16.32529
G01 X34.01741 Y16.40235
G01 X34.03117 Y16.43029
G01 X34.06785 Y16.48353
G01 X34.16381 Y16.60469
G01 X34.24550 Y16.67464
G01 X34.35342 Y16.75227
G01 X34.46003 Y16.80098
G01 X34.56574 Y16.84038
G01 X34.70148 Y16.86220
G01 X34.79366 Y16.87071
G01 X34.89173 Y16.86146
G01 X35.02129 Y16.84020
G01 X35.13262 Y16.79872
G01 X35.23381 Y16.75244
G01 X35.36635 Y16.65719
G01 X35.43328 Y16.62453
G01 X35.56739 Y16.59110
G01 X35.61464 Y16.66700
G01 X35.65294 Y16.74909
G01 X35.66571 Y16.83116
G01 X35.66571 Y17.68869
G01 X35.65299 Y17.77060
G01 X35.61484 Y17.85252
G01 X35.56701 Y17.92948
G01 X35.45662 Y17.90327
G01 X35.36775 Y17.86372
G01 X35.23351 Y17.76776
G01 X35.14039 Y17.72448
G01 X35.02142 Y17.67916
G01 X34.90079 Y17.65958
G01 X34.79366 Y17.64911
G01 X34.66970 Y17.66181
G01 X34.50501 Y17.68744
G01 X34.44768 Y17.64378
G01 X33.79821 Y16.99456
G01 X33.73387 Y16.94569
G01 X33.68098 Y16.91279
G01 X33.66452 Y16.90367
G01 X33.61662 Y16.89090
G01 X33.51903 Y16.87492
G01 X33.46478 Y16.88206
G01 X33.38962 Y16.89859
G01 X30.72968 Y16.89862
G01 X30.59643 Y16.86491
G01 X30.60266 Y16.75193
G01 X30.60266 Y15.22794
G01 X30.58089 Y15.12270
G01 X30.47568 Y15.10093
G01 X29.23515 Y15.10093
G01 X29.19291 Y15.09799
G01 X25.45918 Y15.09997
G01 X25.35690 Y15.08013
G01 X25.33216 Y14.96809
G01 X25.33216 Y14.71994
G01 X25.31039 Y14.61470
G01 X25.20516 Y14.59293
G01 X24.06218 Y14.59293
G01 X23.95695 Y14.61470
G01 X23.93518 Y14.71994
G01 X23.93518 Y16.24394
G01 X23.95695 Y16.34914
G01 X24.06218 Y16.37093
G01 X25.20516 Y16.37093
G01 X25.31039 Y16.34914
G01 X25.33216 Y16.24394
G01 X25.33216 Y15.99578
G01 X25.35690 Y15.88371
G01 X25.45918 Y15.86387
G01 X28.69768 Y15.86387
G01 X28.79994 Y15.88371
G01 X28.82468 Y15.99578
G01 X28.82468 Y16.75193
G01 X28.83091 Y16.86491
G01 X28.95168 Y16.89113
G01 X30.47568 Y16.89113
G01 X30.59643 Y16.86491
G01 X30.47568 Y16.89113
G01 X28.95168 Y16.89113
G01 X28.83091 Y16.86491
G01 X28.69768 Y16.89862
G01 X23.34336 Y16.89862
G01 X23.29043 Y16.89329
G01 X23.25009 Y16.86016
G01 X23.09846 Y16.70853
G01 X23.02388 Y16.57703
G01 X23.04948 Y16.44167
G01 X23.07039 Y16.42770
G01 X23.17318 Y16.37977
G01 X23.27839 Y16.34914
G01 X23.30018 Y16.24394
G01 X23.30018 Y14.71994
G01 X23.27839 Y14.61470
G01 X23.17318 Y14.59293
G01 X23.11552 Y14.59293
G01 X23.00346 Y14.56820
G01 X22.98362 Y14.46593
G01 X22.98362 Y12.17991
G01 X23.00346 Y12.07765
G01 X23.11552 Y12.05291
G01 X23.17318 Y12.05291
G01 X23.27839 Y12.03114
G01 X23.30018 Y11.92594
G01 X23.30018 Y10.40193
G01 X23.27839 Y10.29670
G01 X23.17318 Y10.27493
G01 X23.11552 Y10.27493
G01 X23.00346 Y10.25020
G01 X22.98362 Y10.14794
G01 X22.98362 Y9.63991
G01 X23.00346 Y9.53765
G01 X23.11552 Y9.51293
G01 X23.17318 Y9.51293
G01 X23.27839 Y9.49114
G01 X23.30018 Y9.38593
G01 X23.30018 Y7.86194
G01 X23.27839 Y7.75670
G01 X23.17318 Y7.73491
G01 X22.03016 Y7.73491
G01 X21.92495 Y7.75670
G01 X21.90316 Y7.86194
G01 X21.90316 Y9.38593
G01 X21.92495 Y9.49114
G01 X22.03016 Y9.51293
G01 X22.08759 Y9.51293
G01 X22.19980 Y9.53773
G01 X22.21959 Y9.63991
G01 X22.21959 Y10.14794
G01 X22.19980 Y10.25012
G01 X22.08759 Y10.27493
G01 X22.03016 Y10.27493
G01 X21.92495 Y10.29670
G01 X21.90316 Y10.40193
G01 X21.90316 Y11.92594
G01 X21.92495 Y12.03114
G01 X22.03016 Y12.05291
G01 X22.08759 Y12.05291
G01 X22.19980 Y12.07773
G01 X22.21959 Y12.17991
G01 X22.21959 Y14.46593
G01 X22.19980 Y14.56812
G01 X22.08759 Y14.59293
G01 X22.03016 Y14.59293
G01 X21.92495 Y14.61470
G01 X21.90316 Y14.71994
G01 X21.90316 Y16.24394
G01 X21.92495 Y16.34914
G01 X22.03016 Y16.37093
G01 X22.08759 Y16.37093
G01 X22.19998 Y16.39580
G01 X22.21979 Y16.49793
G01 X22.21997 Y16.73888
G01 X22.22630 Y16.79362
G01 X22.24989 Y16.89748
G01 X22.30084 Y16.97962
G01 X22.34072 Y17.03126
G01 X22.82596 Y17.51594
G01 X22.85233 Y17.53753
G01 X22.90315 Y17.57365
G01 X22.95942 Y17.60695
G01 X23.03805 Y17.62623
G01 X23.10514 Y17.63570
G01 X23.23592 Y17.61211
G01 X28.89275 Y17.61211
G01 X28.97462 Y17.62483
G01 X29.05651 Y17.66301
G01 X29.14043 Y17.71518
G01 X29.11137 Y17.82435
G01 X29.07408 Y17.90352
G01 X28.94081 Y18.08376
G01 X28.89042 Y18.19458
G01 X28.85138 Y18.29895
G01 X28.82826 Y18.44693
G01 X28.82176 Y18.54281
G01 X28.83106 Y18.63641
G01 X28.85178 Y18.76077
G01 X28.89923 Y18.88635
G01 X28.94056 Y18.97624
G01 X28.98714 Y19.04271
G01 X29.08254 Y19.16110
G01 X29.16603 Y19.23021
G01 X29.26730 Y19.30273
G01 X29.37002 Y19.34980
G01 X29.48249 Y19.39199
G01 X29.56314 Y19.40639
G01 X29.71366 Y19.42267
G01 X29.81216 Y19.41347
G01 X29.94457 Y19.39193
G01 X30.06194 Y19.34779
G01 X30.15988 Y19.30291
G01 X30.27528 Y19.21919
G01 X30.34482 Y19.16130
G01 X30.45752 Y19.01871
G01 X30.48653 Y18.97604
G01 X30.53913 Y18.85983
G01 X30.57563 Y18.76087
G01 X30.58874 Y18.68922
G01 X30.60601 Y18.52496
G01 X30.58686 Y18.35889
G01 X30.57553 Y18.29900
G01 X30.56496 Y18.26740
G01 X30.52542 Y18.16720
G01 X30.48668 Y18.08366
G01 X30.37639 Y17.93583
G01 X30.33812 Y17.87688
G01 X30.30901 Y17.80238
G01 X30.28686 Y17.71520
G01 X30.14482 Y17.67556
G01 X29.97462 Y17.64304
G01 X29.87322 Y17.63126
G01 X29.71731 Y17.62422
G01 X29.60601 Y17.62745
G01 X29.42270 Y17.64759
G01 X29.26342 Y17.68020
G01 X29.14043 Y17.71518
G01 X29.26342 Y17.68020
G01 X29.42270 Y17.64759
G01 X29.52473 Y17.63410
G01 X29.70296 Y17.62427
G01 X29.87322 Y17.63126
G01 X29.97462 Y17.64304
G01 X30.14482 Y17.67556
G01 X30.28686 Y17.71520
G01 X30.37083 Y17.66301
G01 X30.45272 Y17.62483
G01 X30.53461 Y17.61211
G01 X33.28060 Y17.61211
G01 X33.33372 Y17.61744
G01 X33.37390 Y17.65043
G01 X33.90748 Y18.18391
G01 X33.95081 Y18.24063
G01 X33.91121 Y18.51563
G01 X33.88251 Y18.54967
G01 X32.28459 Y20.14758
G01 X32.24446 Y20.18048
G01 X32.19247 Y20.18566
G01 X3.10462 Y20.18566
G01 X3.05285 Y20.18053
G01 X3.01254 Y20.14751
G01 X2.69606 Y19.83105
G01 X2.66306 Y19.79074
G01 X2.65791 Y19.73897
G01 X2.65791 Y19.54594
G01 X2.68623 Y19.42445
G01 X2.69486 Y19.41802
G01 X2.72618 Y19.29193
G01 X2.72618 Y17.76793
G01 X2.69486 Y17.64182
G01 X2.68623 Y17.63540
G01 X2.65791 Y17.51393
G01 X2.65791 Y16.49793
G01 X2.68623 Y16.37645
G01 X2.69486 Y16.37002
G01 X2.72618 Y16.24394
G01 X2.72618 Y14.71994
G01 X2.69486 Y14.59382
G01 X2.68623 Y14.58740
G01 X2.65791 Y14.46593
G01 X2.65791 Y12.44252
G01 X2.64800 Y12.34219
G01 X2.66535 Y12.17988
G01 X2.65692 Y12.07933
G01 X2.63571 Y11.94897
G01 X2.59464 Y11.83907
G01 X2.54653 Y11.73376
G01 X2.47574 Y11.63465
G01 X2.40480 Y11.54880
G01 X2.28884 Y11.45515
G01 X2.22001 Y11.40676
G01 X2.06771 Y11.34029
G01 X1.98872 Y11.31448
G01 X1.89481 Y11.29929
G01 X1.77366 Y11.28758
G01 X1.65834 Y11.29853
G01 X1.54244 Y11.31791
G01 X1.41912 Y11.36462
G01 X1.32710 Y11.40676
G01 X1.19812 Y11.50168
G01 X1.13558 Y11.55639
G01 X1.07521 Y11.62995
G01 X1.00079 Y11.73373
G01 X0.95042 Y11.84453
G01 X0.91173 Y11.94905
G01 X0.88963 Y12.08522
G01 X0.88168 Y12.16784
G01 X0.89372 Y12.30569
G01 X0.91227 Y12.41064
G01 X0.97254 Y12.56657
G01 X1.00147 Y12.62570
G01 X1.05575 Y12.70422
G01 X1.14234 Y12.81072
G01 X1.24859 Y12.89667
G01 X1.38641 Y12.99413
G01 X1.39743 Y13.06995
G01 X1.39743 Y14.46593
G01 X1.36911 Y14.58740
G01 X1.36047 Y14.59382
G01 X1.32916 Y14.71994
G01 X1.32916 Y16.24394
G01 X1.36047 Y16.37002
G01 X1.36911 Y16.37645
G01 X1.39743 Y16.49793
G01 X1.39743 Y17.51393
G01 X1.36911 Y17.63540
G01 X1.36047 Y17.64182
G01 X1.32916 Y17.76793
G01 X1.32916 Y19.29193
G01 X1.36047 Y19.41802
G01 X1.36911 Y19.42445
G01 X1.39743 Y19.54594
G01 X1.39743 Y20.04540
G01 X1.41011 Y20.16338
G01 X1.42489 Y20.23224
G01 X1.48285 Y20.36844
G01 X1.56271 Y20.47601
G01 X2.33802 Y21.25553
G01 X2.42225 Y21.32396
G01 X2.48204 Y21.36463
G01 X2.57612 Y21.40557
G01 X2.62689 Y21.42335
G01 X2.69682 Y21.43587
G01 X2.79819 Y21.44616
G01 X22.08759 Y21.44616
G01 X22.19797 Y21.46955
G01 X22.21959 Y21.57641
G01 X22.21959 Y22.59393
G01 X22.19980 Y22.69612
G01 X22.08759 Y22.72094
G01 X22.03016 Y22.72094
G01 X21.92495 Y22.74270
G01 X21.90316 Y22.84793
G01 X21.90316 Y24.37191
G01 X21.92495 Y24.47714
G01 X22.03016 Y24.49893
G01 X22.08759 Y24.49893
G01 X22.19980 Y24.52373
G01 X22.21959 Y24.62593
G01 X22.21959 Y25.13393
G01 X22.19980 Y25.23612
G01 X22.08759 Y25.26093
G01 X22.03016 Y25.26093
G01 X21.92495 Y25.28270
G01 X21.90316 Y25.38793
G01 X21.90316 Y26.91191
G01 X21.92495 Y27.01714
G01 X22.03016 Y27.03891
G01 X23.17318 Y27.03891
G01 X23.27839 Y27.01714
G01 X23.30018 Y26.91191
G01 X23.30018 Y25.38793
G01 X23.27839 Y25.28270
G01 X23.17318 Y25.26093
G01 X23.11552 Y25.26093
G01 X23.00346 Y25.23620
G01 X22.98362 Y25.13393
G01 X22.98362 Y24.62593
G01 X23.00346 Y24.52365
G01 X23.11552 Y24.49893
G01 X23.17318 Y24.49893
G01 X23.27839 Y24.47714
G01 X23.30018 Y24.37191
G01 X23.30018 Y22.84793
G01 X23.27839 Y22.74270
G01 X23.17318 Y22.72094
G01 X23.11552 Y22.72094
G01 X23.00346 Y22.69620
G01 X22.98362 Y22.59393
G01 X22.98362 Y21.57641
G01 X23.00529 Y21.46948
G01 X23.11552 Y21.44616
G01 X32.52066 Y21.44443
G01 X32.67052 Y21.42355
G01 X32.72658 Y21.40354
G01 X32.82226 Y21.36084
G01 X32.88134 Y21.31929
G01 X32.95929 Y21.25548
G01 X33.65177 Y20.56303
G01 X33.74301 Y20.50288
G01 X33.86534 Y20.47385
G01 X33.96127 Y20.46445
G04 P0 ( dwell for no time -- G64 should not smooth over this point )
G00 Z10.00000 ( retract )

G00 X31.87268 Y22.31047 ( rapid move to begin. )
G01 F30.00000
( Mill infeed pass 1/1 )
G01 Z-0.10000
G04 P0 ( dwell for no time -- G64 should not smooth over this point )
G01 F360.00000
G01 X31.87268 Y22.31047
G01 X31.87268 Y22.56815
G01 X31.96499 Y22.59439
G01 X32.04837 Y22.63211
G01 X32.12546 Y22.68141
G01 X32.19468 Y22.74131
G01 X32.25457 Y22.81052
G01 X32.30387 Y22.88761
G01 X32.34159 Y22.97100
G01 X32.36783 Y23.06333
G01 X32.62554 Y23.06333
G01 X32.61182 Y22.95842
G01 X32.52216 Y22.74202
G01 X32.37967 Y22.55634
G01 X32.19399 Y22.41385
G01 X31.97758 Y22.32419
G01 X31.87268 Y22.31047
G04 P0 ( dwell for no time -- G64 should not smooth over this point )
G00 Z10.00000 ( retract )

G00 X31.87268 Y23.81247 ( rapid move to begin. )
G01 F30.00000
( Mill infeed pass 1/1 )
G01 Z-0.10000
G04 P0 ( dwell for no time -- G64 should not smooth over this point )
G01 F360.00000
G01 X31.87268 Y23.81247
G01 X31.87268 Y24.07044
G01 X31.97758 Y24.05647
G01 X32.19399 Y23.96681
G01 X32.37967 Y23.82456
G01 X32.52216 Y23.63864
G01 X32.61182 Y23.42248
G01 X32.62554 Y23.31733
G01 X32.36783 Y23.31733
G01 X32.34159 Y23.40963
G01 X32.30387 Y23.49302
G01 X32.25457 Y23.57011
G01 X32.19468 Y23.63932
G01 X32.12546 Y23.69922
G01 X32.04837 Y23.74852
G01 X31.96499 Y23.78624
G01 X31.87268 Y23.81247
G04 P0 ( dwell for no time -- G64 should not smooth over this point )
G00 Z10.00000 ( retract )

G00 X29.11531 Y24.72273 ( rapid move to begin. )
G01 F30.00000
( Mill infeed pass 1/1 )
G01 Z-0.10000
G04 P0 ( dwell for no time -- G64 should not smooth over this point )
G01 F360.00000
G01 X29.11531 Y24.72273
G01 X29.26926 Y24.67729
G01 X29.42730 Y24.64493
G01 X29.60809 Y24.62512
G01 X29.71676 Y24.62197
G01 X29.88440 Y24.63015
G01 X30.05163 Y24.65400
G01 X30.15767 Y24.67722
G01 X30.33126 Y24.72880
G01 X30.45092 Y24.77422
G01 X30.60286 Y24.84394
G01 X30.71271 Y24.97993
G01 X30.82209 Y25.14102
G01 X30.88737 Y25.25276
G01 X30.96486 Y25.40554
G01 X31.07675 Y25.44684
G01 X31.19090 Y25.47902
G01 X31.28170 Y25.49741
G01 X31.38063 Y25.50980
G01 X31.46057 Y25.51394
G01 X33.65817 Y25.51443
G01 X33.77281 Y25.39985
G01 X33.90821 Y25.29832
G01 X34.04359 Y25.26452
G01 X35.54372 Y25.26482
G01 X35.63407 Y25.27996
G01 X35.72436 Y25.32530
G01 X35.89177 Y25.29479
G01 X36.00813 Y25.36467
G01 X36.44748 Y25.80391
G01 X36.49142 Y25.86167
G01 X36.46437 Y26.03477
G01 X36.45291 Y26.14991
G01 X36.46597 Y26.27683
G01 X36.48370 Y26.37772
G01 X36.54118 Y26.52667
G01 X36.57176 Y26.58989
G01 X36.61700 Y26.65585
G01 X36.71133 Y26.77226
G01 X36.79772 Y26.84396
G01 X36.89320 Y26.91272
G01 X37.00790 Y26.96411
G01 X37.10579 Y27.00020
G01 X37.23891 Y27.02182
G01 X37.33366 Y27.02982
G01 X37.49878 Y27.01186
G01 X37.56116 Y26.99974
G01 X37.63968 Y26.97206
G01 X37.77104 Y26.91414
G01 X37.83922 Y26.86693
G01 X37.95636 Y26.77262
G01 X38.01542 Y26.70155
G01 X38.08755 Y26.60312
G01 X38.14856 Y26.47371
G01 X38.18415 Y26.37780
G01 X38.20757 Y26.22799
G01 X38.21803 Y26.08290
G01 X38.25105 Y26.04267
G01 X43.16268 Y21.13110
G01 X43.22061 Y21.08705
G01 X43.28274 Y21.09876
G01 X43.38356 Y21.13460
G01 X43.52948 Y21.15856
G01 X43.63161 Y21.16920
G01 X43.66359 Y21.17115
G01 X43.72386 Y21.16673
G01 X43.81485 Y21.15627
G01 X43.94330 Y21.13432
G01 X44.07070 Y21.08693
G01 X44.20415 Y21.02627
G01 X44.30098 Y20.95815
G01 X44.42841 Y20.85480
G01 X44.53123 Y20.72795
G01 X44.59978 Y20.63049
G01 X44.61373 Y20.60252
G01 X44.67192 Y20.46892
G01 X44.70804 Y20.36971
G01 X44.73732 Y20.17949
G01 X44.74484 Y20.08505
G01 X44.73732 Y20.00047
G01 X44.70733 Y19.81017
G01 X44.67136 Y19.70971
G01 X44.59953 Y19.54941
G01 X44.54901 Y19.47591
G01 X44.42788 Y19.32569
G01 X44.29392 Y19.21652
G01 X44.20408 Y19.15363
G01 X44.06257 Y19.08970
G01 X43.94342 Y19.04535
G01 X43.80268 Y19.02214
G01 X43.66359 Y19.00880
G01 X43.53822 Y19.02038
G01 X43.38366 Y19.04591
G01 X43.29199 Y19.07875
G01 X43.12313 Y19.15396
G01 X42.96819 Y19.26692
G01 X42.89885 Y19.32523
G01 X42.82956 Y19.40817
G01 X42.72689 Y19.54911
G01 X42.68363 Y19.64240
G01 X42.61889 Y19.80987
G01 X42.59130 Y19.98668
G01 X42.58206 Y20.08995
G01 X42.59003 Y20.18182
G01 X42.61571 Y20.35345
G01 X42.64845 Y20.45165
G01 X42.66626 Y20.53341
G01 X42.62250 Y20.59092
G01 X37.87244 Y25.34097
G01 X37.80536 Y25.38997
G01 X37.72982 Y25.36708
G01 X37.56142 Y25.29916
G01 X37.44079 Y25.27958
G01 X37.33366 Y25.26911
G01 X37.20970 Y25.28181
G01 X37.04501 Y25.30744
G01 X36.98766 Y25.26378
G01 X36.34275 Y24.61900
G01 X36.25677 Y24.55619
G01 X36.20930 Y24.52830
G01 X36.12807 Y24.50861
G01 X36.05068 Y24.49797
G01 X35.62248 Y24.49797
G01 X35.54039 Y24.48519
G01 X35.45830 Y24.44689
G01 X35.37920 Y24.39767
G01 X35.39927 Y24.31252
G01 X35.42629 Y24.23704
G01 X35.46503 Y24.17440
G01 X35.55591 Y24.04999
G01 X35.60580 Y23.94072
G01 X35.64418 Y23.83777
G01 X35.66752 Y23.68817
G01 X35.67430 Y23.60994
G01 X35.66485 Y23.50887
G01 X35.64392 Y23.38212
G01 X35.60127 Y23.26820
G01 X35.55614 Y23.16973
G01 X35.47280 Y23.05482
G01 X35.41644 Y22.98708
G01 X35.34573 Y22.92835
G01 X35.23376 Y22.84743
G01 X35.13275 Y22.80117
G01 X35.05512 Y22.77097
G01 X35.02134 Y22.75947
G01 X34.97425 Y22.75045
G01 X34.79366 Y22.72911
G01 X34.70148 Y22.73765
G01 X34.56579 Y22.75962
G01 X34.46015 Y22.79881
G01 X34.35332 Y22.84745
G01 X34.23686 Y22.93201
G01 X34.17072 Y22.98718
G01 X34.11078 Y23.05944
G01 X34.03128 Y23.16985
G01 X33.98375 Y23.27354
G01 X33.94321 Y23.38202
G01 X33.92175 Y23.51479
G01 X33.91291 Y23.60994
G01 X33.92175 Y23.70503
G01 X33.94324 Y23.83782
G01 X33.98337 Y23.94529
G01 X34.03112 Y24.05009
G01 X34.12203 Y24.17440
G01 X34.16417 Y24.24402
G01 X34.19300 Y24.33338
G01 X34.20801 Y24.39756
G01 X34.37092 Y24.44435
G01 X34.52934 Y24.47511
G01 X34.62873 Y24.48717
G01 X34.78426 Y24.49482
G01 X34.96457 Y24.48659
G01 X35.07654 Y24.47224
G01 X35.23526 Y24.43973
G01 X35.37920 Y24.39767
G01 X35.25495 Y24.43470
G01 X35.14776 Y24.45941
G01 X34.97925 Y24.48509
G01 X34.87938 Y24.49276
G01 X34.71306 Y24.49302
G01 X34.54392 Y24.47722
G01 X34.37092 Y24.44435
G01 X34.20801 Y24.39756
G01 X34.12879 Y24.44689
G01 X34.04669 Y24.48519
G01 X33.96460 Y24.49797
G01 X31.70453 Y24.49797
G01 X31.65196 Y24.49274
G01 X31.61121 Y24.45939
G01 X31.42315 Y24.27153
G01 X31.36814 Y24.19259
G01 X31.33712 Y24.08959
G01 X31.31911 Y23.98083
G01 X31.09318 Y23.79563
G01 X30.97256 Y23.70795
G01 X30.84355 Y23.62291
G01 X30.81495 Y23.47145
G01 X30.71393 Y23.36355
G01 X30.63049 Y23.24468
G01 X30.60266 Y23.12581
G01 X30.60266 Y22.21293
G01 X30.58089 Y22.10770
G01 X30.47568 Y22.08593
G01 X28.95168 Y22.08593
G01 X28.84645 Y22.10770
G01 X28.82468 Y22.21293
G01 X28.82468 Y22.46107
G01 X28.79994 Y22.57316
G01 X28.69768 Y22.59300
G01 X25.28169 Y22.59338
G01 X25.17371 Y22.60994
G01 X25.12314 Y22.62411
G01 X25.06459 Y22.65810
G01 X24.98710 Y22.71486
G01 X24.93162 Y22.72094
G01 X24.06218 Y22.72094
G01 X23.95695 Y22.74270
G01 X23.93518 Y22.84793
G01 X23.93518 Y24.37191
G01 X23.95695 Y24.47714
G01 X24.06218 Y24.49893
G01 X25.20516 Y24.49893
G01 X25.31039 Y24.47714
G01 X25.33216 Y24.37191
G01 X25.33216 Y23.51113
G01 X25.34003 Y23.44791
G01 X25.38819 Y23.39556
G01 X25.42901 Y23.36211
G01 X25.48151 Y23.35687
G01 X28.69768 Y23.35687
G01 X28.79994 Y23.37671
G01 X28.82468 Y23.48878
G01 X28.82468 Y23.72703
G01 X28.82085 Y23.83015
G01 X28.95168 Y23.86386
G01 X30.47568 Y23.86386
G01 X30.60261 Y23.83213
G01 X30.72955 Y23.73691
G01 X30.84355 Y23.62291
G01 X30.72955 Y23.73691
G01 X30.60261 Y23.83213
G01 X30.47568 Y23.86386
G01 X28.95168 Y23.86386
G01 X28.82085 Y23.83015
G01 X28.69768 Y23.85891
G01 X28.33347 Y23.85891
G01 X28.25605 Y23.86955
G01 X28.17492 Y23.88921
G01 X28.11236 Y23.92680
G01 X28.04130 Y23.97999
G01 X26.29207 Y25.72934
G01 X26.25126 Y25.76276
G01 X26.19883 Y25.76797
G01 X25.45918 Y25.76797
G01 X25.35690 Y25.74813
G01 X25.33216 Y25.63607
G01 X25.33216 Y25.38793
G01 X25.31039 Y25.28270
G01 X25.20516 Y25.26093
G01 X24.06218 Y25.26093
G01 X23.95695 Y25.28270
G01 X23.93518 Y25.38793
G01 X23.93518 Y26.91191
G01 X23.95695 Y27.01714
G01 X24.06218 Y27.03891
G01 X25.20516 Y27.03891
G01 X25.31039 Y27.01714
G01 X25.33216 Y26.91191
G01 X25.33216 Y26.66378
G01 X25.35690 Y26.55171
G01 X25.45918 Y26.53187
G01 X26.39868 Y26.53187
G01 X26.47612 Y26.52121
G01 X26.55727 Y26.50155
G01 X26.61572 Y26.46670
G01 X26.69075 Y26.41084
G01 X28.44005 Y24.66144
G01 X28.48084 Y24.62804
G01 X28.53334 Y24.62281
G01 X28.87269 Y24.62281
G01 X28.95476 Y24.63559
G01 X29.03685 Y24.67389
G01 X29.11531 Y24.72273
G01 X29.09847 Y24.79551
G01 X29.06898 Y24.88303
G01 X29.03009 Y24.94638
G01 X28.94081 Y25.06873
G01 X28.89042 Y25.17958
G01 X28.85138 Y25.28395
G01 X28.82826 Y25.43193
G01 X28.82085 Y25.51494
