( pcb2gcode 1.3.2 )
( Software-independent Gcode )

G94 ( Millimeters per minute feed rate. )
G21 ( Units == Millimeters. )

G90 ( Absolute coordinates. )
G00 S10000 ( RPM spindle speed. )
G01 F360.00000 ( Feedrate. )


G00 Z50.00000 (Retract to tool change height)
T0
M5      (Spindle stop.)
G04 P1.00000 (Wait for spindle to stop)
(MSG, Change tool bit to mill diameter 0.00000mm)
M6      (Tool change.)
M0      (Temporary machine stop.)
M3 ( Spindle on clockwise. )
G04 P1.00000 (Wait for spindle to get up to speed)
G04 P0 ( dwell for no time -- G64 should not smooth over this point )
G00 Z10.00000 ( retract )

G00 X0.80848 Y8.67474 ( rapid move to begin. )
G01 F30.00000
G01 Z-0.10000
G04 P0 ( dwell for no time -- G64 should not smooth over this point )
G01 F360.00000
G01 X0.80848 Y8.67474
G01 X0.80848 Y9.56373
G01 X1.06248 Y9.56373
G01 X1.06248 Y8.92873
G01 X1.69748 Y8.92873
G01 X1.69748 Y8.67474
G01 X0.80848 Y8.67474
G04 P0 ( dwell for no time -- G64 should not smooth over this point )
G00 Z10.00000 ( retract )

G00 X1.95148 Y8.67474 ( rapid move to begin. )
G01 F30.00000
G01 Z-0.10000
G04 P0 ( dwell for no time -- G64 should not smooth over this point )
G01 F360.00000
G01 X1.95148 Y8.67474
G01 X2.84048 Y8.67474
G01 X2.84048 Y9.56373
G01 X2.58646 Y9.56373
G01 X2.58648 Y8.92873
G01 X1.95148 Y8.92873
G01 X1.95148 Y8.67474
G04 P0 ( dwell for no time -- G64 should not smooth over this point )
G00 Z10.00000 ( retract )

G00 X0.80848 Y9.81773 ( rapid move to begin. )
G01 F30.00000
G01 Z-0.10000
G04 P0 ( dwell for no time -- G64 should not smooth over this point )
G01 F360.00000
G01 X0.80848 Y9.81773
G01 X1.06248 Y9.81773
G01 X1.06248 Y10.45274
G01 X1.69748 Y10.45271
G01 X1.69748 Y10.70674
G01 X0.80848 Y10.70674
G01 X0.80848 Y9.81773
G04 P0 ( dwell for no time -- G64 should not smooth over this point )
G00 Z10.00000 ( retract )

G00 X1.95148 Y10.45271 ( rapid move to begin. )
G01 F30.00000
G01 Z-0.10000
G04 P0 ( dwell for no time -- G64 should not smooth over this point )
G01 F360.00000
G01 X1.95148 Y10.45271
G01 X1.95148 Y10.70674
G01 X2.84048 Y10.70674
G01 X2.84048 Y9.81773
G01 X2.58646 Y9.81773
G01 X2.58648 Y10.45274
G01 X1.95148 Y10.45271
G04 P0 ( dwell for no time -- G64 should not smooth over this point )
G00 Z10.00000 ( retract )

G00 X4.23748 Y14.51674 ( rapid move to begin. )
G01 F30.00000
G01 Z-0.10000
G04 P0 ( dwell for no time -- G64 should not smooth over this point )
G01 F360.00000
G01 X4.23748 Y14.51674
G01 X4.93598 Y14.51674
G01 X4.93598 Y15.40573
G01 X4.68198 Y15.40573
G01 X4.68198 Y14.77074
G01 X4.23748 Y14.77074
G01 X4.23748 Y14.51674
G04 P0 ( dwell for no time -- G64 should not smooth over this point )
G00 Z10.00000 ( retract )

G00 X3.28498 Y14.51674 ( rapid move to begin. )
G01 F30.00000
G01 Z-0.10000
G04 P0 ( dwell for no time -- G64 should not smooth over this point )
G01 F360.00000
G01 X3.28498 Y14.51674
G01 X3.98348 Y14.51674
G01 X3.98348 Y14.77074
G01 X3.53898 Y14.77074
G01 X3.53898 Y15.40573
G01 X3.28498 Y15.40573
G01 X3.28498 Y14.51674
G04 P0 ( dwell for no time -- G64 should not smooth over this point )
G00 Z10.00000 ( retract )

G00 X3.28498 Y15.65973 ( rapid move to begin. )
G01 F30.00000
G01 Z-0.10000
G04 P0 ( dwell for no time -- G64 should not smooth over this point )
G01 F360.00000
G01 X3.28498 Y15.65973
G01 X3.53898 Y15.65973
G01 X3.53898 Y16.29473
G01 X3.98348 Y16.29471
G01 X3.98348 Y16.54874
G01 X3.28498 Y16.54874
G01 X3.28498 Y15.65973
G04 P0 ( dwell for no time -- G64 should not smooth over this point )
G00 Z10.00000 ( retract )

G00 X4.23748 Y16.29471 ( rapid move to begin. )
G01 F30.00000
G01 Z-0.10000
G04 P0 ( dwell for no time -- G64 should not smooth over this point )
G01 F360.00000
G01 X4.23748 Y16.29471
G01 X4.68198 Y16.29473
G01 X4.68198 Y15.65973
G01 X4.93598 Y15.65973
G01 X4.93598 Y16.54874
G01 X4.23748 Y16.54874
G01 X4.23748 Y16.29471
G04 P0 ( dwell for no time -- G64 should not smooth over this point )
G00 Z10.00000 ( retract )

G00 X3.28498 Y17.56473 ( rapid move to begin. )
G01 F30.00000
G01 Z-0.10000
G04 P0 ( dwell for no time -- G64 should not smooth over this point )
G01 F360.00000
G01 X3.28498 Y17.56473
G01 X3.28498 Y18.45374
G01 X3.53898 Y18.45374
G01 X3.53898 Y17.81873
G01 X3.98348 Y17.81871
G01 X3.98348 Y17.56473
G01 X3.28498 Y17.56473
G04 P0 ( dwell for no time -- G64 should not smooth over this point )
G00 Z10.00000 ( retract )

G00 X3.28498 Y18.70774 ( rapid move to begin. )
G01 F30.00000
G01 Z-0.10000
G04 P0 ( dwell for no time -- G64 should not smooth over this point )
G01 F360.00000
G01 X3.28498 Y18.70774
G01 X3.28498 Y19.59673
G01 X3.98348 Y19.59673
G01 X3.98348 Y19.34273
G01 X3.53898 Y19.34273
G01 X3.53898 Y18.70774
G01 X3.28498 Y18.70774
G04 P0 ( dwell for no time -- G64 should not smooth over this point )
G00 Z10.00000 ( retract )

G00 X0.44094 Y22.26373 ( rapid move to begin. )
G01 F30.00000
G01 Z-0.10000
G04 P0 ( dwell for no time -- G64 should not smooth over this point )
G01 F360.00000
G01 X0.44094 Y22.26373
G01 X0.45466 Y22.15858
G01 X0.54432 Y21.94243
G01 X0.68682 Y21.75675
G01 X0.87246 Y21.61426
G01 X1.08864 Y21.52459
G01 X1.19380 Y21.51088
G01 X1.19377 Y21.77209
G01 X1.00330 Y21.84080
G01 X0.89588 Y21.91883
G01 X0.80706 Y22.01748
G01 X0.74069 Y22.13244
G01 X0.69913 Y22.26373
G01 X0.44094 Y22.26373
G04 P0 ( dwell for no time -- G64 should not smooth over this point )
G00 Z10.00000 ( retract )

G00 X0.44094 Y22.51773 ( rapid move to begin. )
G01 F30.00000
G01 Z-0.10000
G04 P0 ( dwell for no time -- G64 should not smooth over this point )
G01 F360.00000
G01 X0.44094 Y22.51773
G01 X0.45466 Y22.62289
G01 X0.54432 Y22.83904
G01 X0.68682 Y23.02472
G01 X0.87246 Y23.16721
G01 X1.08864 Y23.25688
G01 X1.19380 Y23.27059
G01 X1.19377 Y23.00935
G01 X1.00327 Y22.94064
G01 X0.89588 Y22.86262
G01 X0.80706 Y22.76396
G01 X0.74069 Y22.64900
G01 X0.69913 Y22.51771
G01 X0.44094 Y22.51773
G04 P0 ( dwell for no time -- G64 should not smooth over this point )
G00 Z10.00000 ( retract )

G00 X1.71094 Y24.80373 ( rapid move to begin. )
G01 F30.00000
G01 Z-0.10000
G04 P0 ( dwell for no time -- G64 should not smooth over this point )
G01 F360.00000
G01 X1.71094 Y24.80373
G01 X1.72466 Y24.69858
G01 X1.81432 Y24.48242
G01 X1.95682 Y24.29675
G01 X2.14249 Y24.15426
G01 X2.35864 Y24.06460
G01 X2.46380 Y24.05088
G01 X2.46377 Y24.31209
G01 X2.27330 Y24.38080
G01 X2.16588 Y24.45883
G01 X2.07706 Y24.55748
G01 X2.01069 Y24.67244
G01 X1.96913 Y24.80373
G01 X1.71094 Y24.80373
G04 P0 ( dwell for no time -- G64 should not smooth over this point )
G00 Z10.00000 ( retract )

G00 X1.71094 Y25.05773 ( rapid move to begin. )
G01 F30.00000
G01 Z-0.10000
G04 P0 ( dwell for no time -- G64 should not smooth over this point )
G01 F360.00000
G01 X1.71094 Y25.05773
G01 X1.72466 Y25.16289
G01 X1.81432 Y25.37904
G01 X1.95682 Y25.56472
G01 X2.14249 Y25.70721
G01 X2.35864 Y25.79688
G01 X2.46380 Y25.81059
G01 X2.46377 Y25.54935
G01 X2.27330 Y25.48065
G01 X2.16588 Y25.40262
G01 X2.07706 Y25.30396
G01 X2.01069 Y25.18900
G01 X1.96913 Y25.05771
G01 X1.71094 Y25.05773
G04 P0 ( dwell for no time -- G64 should not smooth over this point )
G00 Z10.00000 ( retract )

G00 X2.71777 Y25.54935 ( rapid move to begin. )
G01 F30.00000
G01 Z-0.10000
G04 P0 ( dwell for no time -- G64 should not smooth over this point )
G01 F360.00000
G01 X2.71777 Y25.54935
G01 X2.71780 Y25.81059
G01 X2.82296 Y25.79688
G01 X3.03911 Y25.70721
G01 X3.22478 Y25.56472
G01 X3.36723 Y25.37904
G01 X3.45694 Y25.16289
G01 X3.47066 Y25.05773
G01 X3.21244 Y25.05771
G01 X3.17089 Y25.18900
G01 X3.10451 Y25.30396
G01 X3.01569 Y25.40262
G01 X2.90827 Y25.48065
G01 X2.71777 Y25.54935
G04 P0 ( dwell for no time -- G64 should not smooth over this point )
G00 Z10.00000 ( retract )

G00 X2.71777 Y24.31209 ( rapid move to begin. )
G01 F30.00000
G01 Z-0.10000
G04 P0 ( dwell for no time -- G64 should not smooth over this point )
G01 F360.00000
G01 X2.71777 Y24.31209
G01 X2.90830 Y24.38080
G01 X3.01569 Y24.45883
G01 X3.10451 Y24.55748
G01 X3.17089 Y24.67244
G01 X3.21244 Y24.80373
G01 X3.47066 Y24.80373
G01 X3.45694 Y24.69858
G01 X3.36723 Y24.48242
G01 X3.22478 Y24.29675
G01 X3.03911 Y24.15426
G01 X2.82296 Y24.06460
G01 X2.71780 Y24.05088
G01 X2.71777 Y24.31209
G04 P0 ( dwell for no time -- G64 should not smooth over this point )
G00 Z10.00000 ( retract )

G00 X1.44780 Y23.00935 ( rapid move to begin. )
G01 F30.00000
G01 Z-0.10000
G04 P0 ( dwell for no time -- G64 should not smooth over this point )
G01 F360.00000
G01 X1.44780 Y23.00935
G01 X1.63827 Y22.94064
G01 X1.74569 Y22.86262
G01 X1.83451 Y22.76396
G01 X1.90089 Y22.64900
G01 X1.94244 Y22.51771
G01 X2.20066 Y22.51773
G01 X2.18694 Y22.62289
G01 X2.09728 Y22.83904
G01 X1.95478 Y23.02472
G01 X1.76911 Y23.16721
G01 X1.55296 Y23.25688
G01 X1.44780 Y23.27059
G01 X1.44780 Y23.00935
G04 P0 ( dwell for no time -- G64 should not smooth over this point )
G00 Z10.00000 ( retract )

G00 X1.44780 Y21.51088 ( rapid move to begin. )
G01 F30.00000
G01 Z-0.10000
G04 P0 ( dwell for no time -- G64 should not smooth over this point )
G01 F360.00000
G01 X1.44780 Y21.51088
G01 X1.55296 Y21.52459
G01 X1.76911 Y21.61426
G01 X1.95478 Y21.75675
G01 X2.09728 Y21.94243
G01 X2.18694 Y22.15858
G01 X2.20066 Y22.26373
G01 X1.94244 Y22.26373
G01 X1.90089 Y22.13244
G01 X1.83451 Y22.01748
G01 X1.74569 Y21.91883
G01 X1.63830 Y21.84080
G01 X1.44780 Y21.77209
G01 X1.44780 Y21.51088
G04 P0 ( dwell for no time -- G64 should not smooth over this point )
G00 Z10.00000 ( retract )

G00 X4.23748 Y19.34273 ( rapid move to begin. )
G01 F30.00000
G01 Z-0.10000
G04 P0 ( dwell for no time -- G64 should not smooth over this point )
G01 F360.00000
G01 X4.23748 Y19.34273
G01 X4.68198 Y19.34273
G01 X4.68198 Y18.70774
G01 X4.93598 Y18.70774
G01 X4.93598 Y19.59673
G01 X4.23748 Y19.59673
G01 X4.23748 Y19.34273
G04 P0 ( dwell for no time -- G64 should not smooth over this point )
G00 Z10.00000 ( retract )

G00 X4.23748 Y17.56473 ( rapid move to begin. )
G01 F30.00000
G01 Z-0.10000
G04 P0 ( dwell for no time -- G64 should not smooth over this point )
G01 F360.00000
G01 X4.23748 Y17.56473
G01 X4.93598 Y17.56473
G01 X4.93598 Y18.45374
G01 X4.68198 Y18.45374
G01 X4.68198 Y17.81873
G01 X4.23748 Y17.81871
G01 X4.23748 Y17.56473
G04 P0 ( dwell for no time -- G64 should not smooth over this point )
G00 Z10.00000 ( retract )

G00 X5.26237 Y18.54213 ( rapid move to begin. )
G01 F30.00000
G01 Z-0.10000
G04 P0 ( dwell for no time -- G64 should not smooth over this point )
G01 F360.00000
G01 X5.26237 Y18.54213
G01 X5.27634 Y18.43723
G01 X5.36575 Y18.22082
G01 X5.50824 Y18.03514
G01 X5.69417 Y17.89265
G01 X5.91033 Y17.80299
G01 X6.01548 Y17.78927
G01 X6.01546 Y18.05048
G01 X5.82498 Y18.11919
G01 X5.71757 Y18.19722
G01 X5.62874 Y18.29587
G01 X5.56237 Y18.41083
G01 X5.52082 Y18.54213
G01 X5.26237 Y18.54213
G04 P0 ( dwell for no time -- G64 should not smooth over this point )
G00 Z10.00000 ( retract )

G00 X5.26237 Y18.79613 ( rapid move to begin. )
G01 F30.00000
G01 Z-0.10000
G04 P0 ( dwell for no time -- G64 should not smooth over this point )
G01 F360.00000
G01 X5.26237 Y18.79613
G01 X5.27634 Y18.90128
G01 X5.36575 Y19.11744
G01 X5.50824 Y19.30311
G01 X5.69417 Y19.44586
G01 X5.91033 Y19.53527
G01 X6.01548 Y19.54924
G01 X6.01546 Y19.28774
G01 X5.82496 Y19.21904
G01 X5.71757 Y19.14101
G01 X5.62874 Y19.04235
G01 X5.56237 Y18.92739
G01 X5.52082 Y18.79610
G01 X5.26237 Y18.79613
G04 P0 ( dwell for no time -- G64 should not smooth over this point )
G00 Z10.00000 ( retract )

G00 X6.26948 Y19.28774 ( rapid move to begin. )
G01 F30.00000
G01 Z-0.10000
G04 P0 ( dwell for no time -- G64 should not smooth over this point )
G01 F360.00000
G01 X6.26948 Y19.28774
G01 X6.26948 Y19.54924
G01 X6.37438 Y19.53527
G01 X6.59079 Y19.44586
G01 X6.77647 Y19.30311
G01 X6.91896 Y19.11744
G01 X7.00862 Y18.90128
G01 X7.02234 Y18.79613
G01 X6.76412 Y18.79610
G01 X6.72257 Y18.92739
G01 X6.65617 Y19.04235
G01 X6.56737 Y19.14101
G01 X6.45996 Y19.21904
G01 X6.26948 Y19.28774
G04 P0 ( dwell for no time -- G64 should not smooth over this point )
G00 Z10.00000 ( retract )

G00 X6.26948 Y17.78927 ( rapid move to begin. )
G01 F30.00000
G01 Z-0.10000
G04 P0 ( dwell for no time -- G64 should not smooth over this point )
G01 F360.00000
G01 X6.26948 Y17.78927
G01 X6.37438 Y17.80299
G01 X6.59079 Y17.89265
G01 X6.77647 Y18.03514
G01 X6.91896 Y18.22082
G01 X7.00862 Y18.43723
G01 X7.02234 Y18.54213
G01 X6.76412 Y18.54213
G01 X6.72257 Y18.41083
G01 X6.65617 Y18.29587
G01 X6.56737 Y18.19722
G01 X6.45998 Y18.11919
G01 X6.26948 Y18.05048
G01 X6.26948 Y17.78927
G04 P0 ( dwell for no time -- G64 should not smooth over this point )
G00 Z10.00000 ( retract )

G00 X6.26948 Y16.23974 ( rapid move to begin. )
G01 F30.00000
G01 Z-0.10000
G04 P0 ( dwell for no time -- G64 should not smooth over this point )
G01 F360.00000
G01 X6.26948 Y16.23974
G01 X6.45996 Y16.17104
G01 X6.56737 Y16.09301
G01 X6.65617 Y15.99435
G01 X6.72257 Y15.87939
G01 X6.76412 Y15.74810
G01 X7.02234 Y15.74813
G01 X7.00862 Y15.85328
G01 X6.91896 Y16.06944
G01 X6.77647 Y16.25511
G01 X6.59079 Y16.39786
G01 X6.37438 Y16.48727
G01 X6.26948 Y16.50124
G01 X6.26948 Y16.23974
G04 P0 ( dwell for no time -- G64 should not smooth over this point )
G00 Z10.00000 ( retract )

G00 X5.26237 Y15.74813 ( rapid move to begin. )
G01 F30.00000
G01 Z-0.10000
G04 P0 ( dwell for no time -- G64 should not smooth over this point )
G01 F360.00000
G01 X5.26237 Y15.74813
G01 X5.52082 Y15.74810
G01 X5.56237 Y15.87939
G01 X5.62874 Y15.99435
G01 X5.71757 Y16.09301
G01 X5.82496 Y16.17104
G01 X6.01546 Y16.23974
G01 X6.01548 Y16.50124
G01 X5.91033 Y16.48727
G01 X5.69417 Y16.39786
G01 X5.50824 Y16.25511
G01 X5.36575 Y16.06944
G01 X5.27634 Y15.85328
G01 X5.26237 Y15.74813
G04 P0 ( dwell for no time -- G64 should not smooth over this point )
G00 Z10.00000 ( retract )

G00 X5.26237 Y15.49413 ( rapid move to begin. )
G01 F30.00000
G01 Z-0.10000
G04 P0 ( dwell for no time -- G64 should not smooth over this point )
G01 F360.00000
G01 X5.26237 Y15.49413
G01 X5.52082 Y15.49413
G01 X5.56237 Y15.36283
G01 X5.62874 Y15.24787
G01 X5.71757 Y15.14922
G01 X5.82498 Y15.07119
G01 X6.01546 Y15.00248
G01 X6.01548 Y14.74127
G01 X5.91033 Y14.75499
G01 X5.69417 Y14.84465
G01 X5.50824 Y14.98714
G01 X5.36575 Y15.17282
G01 X5.27634 Y15.38922
G01 X5.26237 Y15.49413
G04 P0 ( dwell for no time -- G64 should not smooth over this point )
G00 Z10.00000 ( retract )

G00 X6.26948 Y14.74127 ( rapid move to begin. )
G01 F30.00000
G01 Z-0.10000
G04 P0 ( dwell for no time -- G64 should not smooth over this point )
G01 F360.00000
G01 X6.26948 Y14.74127
G01 X6.37438 Y14.75499
G01 X6.59079 Y14.84465
G01 X6.77647 Y14.98714
G01 X6.91896 Y15.17282
G01 X7.00862 Y15.38922
G01 X7.02234 Y15.49413
G01 X6.76412 Y15.49413
G01 X6.72257 Y15.36283
G01 X6.65617 Y15.24787
G01 X6.56737 Y15.14922
G01 X6.45998 Y15.07119
G01 X6.26948 Y15.00248
G01 X6.26948 Y14.74127
G04 P0 ( dwell for no time -- G64 should not smooth over this point )
G00 Z10.00000 ( retract )

G00 X5.14942 Y12.83660 ( rapid move to begin. )
G01 F30.00000
G01 Z-0.10000
G04 P0 ( dwell for no time -- G64 should not smooth over this point )
G01 F360.00000
G01 X5.14942 Y12.83660
G01 X5.23568 Y12.99573
G01 X5.24972 Y13.24265
G01 X5.27873 Y13.38837
G01 X5.35328 Y13.50173
G01 X6.11711 Y14.26967
G01 X6.25056 Y14.36037
G01 X6.33514 Y14.38062
G01 X11.51204 Y14.39067
G01 X11.57412 Y14.39796
G01 X11.69802 Y14.54887
G01 X11.85583 Y14.67145
G01 X12.04064 Y14.74673
G01 X12.23846 Y14.77223
G01 X12.48674 Y14.72954
G01 X12.62108 Y14.67142
G01 X12.73856 Y14.58415
G01 X12.89967 Y14.39045
G01 X12.98689 Y14.15412
G01 X13.00371 Y14.00871
G01 X12.97648 Y13.81089
G01 X12.89967 Y13.62700
G01 X12.84674 Y13.55032
G01 X12.75923 Y13.45049
G01 X12.62108 Y13.34600
G01 X12.43607 Y13.27066
G01 X12.30483 Y13.24955
G01 X12.17209 Y13.24955
G01 X12.04064 Y13.27069
G01 X11.85583 Y13.34600
G01 X11.69802 Y13.46858
G01 X11.57414 Y13.61945
G01 X11.51202 Y13.62674
G01 X6.55678 Y13.62151
G01 X6.25673 Y13.32880
G01 X6.19585 Y13.23645
G01 X6.16643 Y13.11257
G01 X6.15777 Y13.02421
G01 X6.17063 Y12.98191
G01 X6.09887 Y12.78781
G01 X6.04850 Y12.59258
G01 X6.02018 Y12.40373
G01 X6.02018 Y12.05768
G01 X6.05617 Y11.83289
G01 X6.11210 Y11.63208
G01 X6.02513 Y11.47181
G01 X6.01236 Y11.38972
G01 X6.01236 Y10.97778
G01 X5.98211 Y10.81916
G01 X5.89117 Y10.68540
G01 X5.21340 Y9.99226
G01 X5.25722 Y9.69043
G01 X5.22541 Y9.46005
G01 X5.13585 Y9.24540
G01 X4.99476 Y9.06043
G01 X4.81084 Y8.91751
G01 X4.59509 Y8.82975
G01 X4.36446 Y8.79993
G01 X4.07683 Y8.84888
G01 X3.91790 Y8.91756
G01 X3.77922 Y9.02068
G01 X3.59306 Y9.24540
G01 X3.49161 Y9.51888
G01 X3.47160 Y9.69071
G01 X3.50347 Y9.92134
G01 X3.59308 Y10.13605
G01 X3.65336 Y10.22380
G01 X3.75851 Y10.34352
G01 X3.91790 Y10.46389
G01 X4.13360 Y10.55167
G01 X4.28480 Y10.57626
G01 X4.44409 Y10.57628
G01 X4.65684 Y10.54499
G01 X5.24322 Y11.12515
G01 X5.24845 Y11.38364
G01 X5.23568 Y11.46571
G01 X5.14942 Y11.62484
G01 X5.20898 Y11.83508
G01 X5.24167 Y12.02944
G01 X5.25305 Y12.21740
G01 X5.24167 Y12.43198
G01 X5.20898 Y12.62634
G01 X5.14942 Y12.83660
G01 X4.97556 Y12.88814
G01 X4.81081 Y13.00394
G01 X4.59509 Y13.09169
G01 X4.36446 Y13.12149
G01 X4.10210 Y13.08189
G01 X3.90685 Y12.99606
G01 X3.75851 Y12.88352
G01 X3.65336 Y12.76380
G01 X3.59308 Y12.67605
G01 X3.50347 Y12.46134
G01 X3.47284 Y12.21712
G01 X3.50347 Y12.00010
G01 X3.55778 Y11.85692
G01 X3.65336 Y11.69761
G01 X3.77922 Y11.56068
G01 X3.91790 Y11.45756
G01 X4.07683 Y11.38888
G01 X4.36446 Y11.34006
G01 X4.62679 Y11.37958
G01 X4.81081 Y11.45748
G01 X4.97556 Y11.57328
G01 X5.14942 Y11.62484
G04 P0 ( dwell for no time -- G64 should not smooth over this point )
G00 Z10.00000 ( retract )

G00 X6.11210 Y11.63208 ( rapid move to begin. )
G01 F30.00000
G01 Z-0.10000
G04 P0 ( dwell for no time -- G64 should not smooth over this point )
G01 F360.00000
G01 X6.11210 Y11.63208
G01 X6.29501 Y11.57475
G01 X6.45792 Y11.45753
G01 X6.67355 Y11.36980
G01 X6.90446 Y11.34006
G01 X7.16679 Y11.37958
G01 X7.36204 Y11.46541
G01 X7.53476 Y11.60043
G01 X7.63151 Y11.71898
G01 X7.71114 Y11.85692
G01 X7.76541 Y12.00005
G01 X7.79722 Y12.23071
G01 X7.76541 Y12.46139
G01 X7.67585 Y12.67605
G01 X7.53476 Y12.86101
G01 X7.33847 Y13.00963
G01 X7.13509 Y13.09169
G01 X6.90446 Y13.12149
G01 X6.67360 Y13.09167
G01 X6.36255 Y12.97661
G01 X6.17063 Y12.98191
G04 P0 ( dwell for no time -- G64 should not smooth over this point )
G00 Z10.00000 ( retract )

G00 X8.55157 Y12.23074 ( rapid move to begin. )
G01 F30.00000
G01 Z-0.10000
G04 P0 ( dwell for no time -- G64 should not smooth over this point )
G01 F360.00000
G01 X8.55157 Y12.23074
G01 X8.57618 Y12.03234
G01 X8.62726 Y11.88143
G01 X8.67306 Y11.78540
G01 X8.81421 Y11.60041
G01 X8.99790 Y11.45756
G01 X9.15683 Y11.38888
G01 X9.44446 Y11.34006
G01 X9.73206 Y11.38890
G01 X9.89084 Y11.45751
G01 X10.07476 Y11.60043
G01 X10.21585 Y11.78540
G01 X10.26168 Y11.88143
G01 X10.31273 Y12.03234
G01 X10.33722 Y12.23071
G01 X10.31273 Y12.42908
G01 X10.26168 Y12.57999
G01 X10.21585 Y12.67605
G01 X10.07476 Y12.86101
G01 X9.89084 Y13.00391
G01 X9.73206 Y13.07252
G01 X9.44446 Y13.12149
G01 X9.15683 Y13.07257
G01 X8.99790 Y13.00389
G01 X8.81421 Y12.86104
G01 X8.67308 Y12.67605
G01 X8.62726 Y12.57999
G01 X8.57618 Y12.42908
G01 X8.55157 Y12.23074
G04 P0 ( dwell for no time -- G64 should not smooth over this point )
G00 Z10.00000 ( retract )

G00 X6.01160 Y9.69071 ( rapid move to begin. )
G01 F30.00000
G01 Z-0.10000
G04 P0 ( dwell for no time -- G64 should not smooth over this point )
G01 F360.00000
G01 X6.01160 Y9.69071
G01 X6.03618 Y9.49234
G01 X6.08726 Y9.34143
G01 X6.13306 Y9.24540
G01 X6.27421 Y9.06041
G01 X6.45790 Y8.91756
G01 X6.61680 Y8.84888
G01 X6.90446 Y8.79993
G01 X7.19206 Y8.84890
G01 X7.35084 Y8.91751
G01 X7.53476 Y9.06043
G01 X7.67585 Y9.24540
G01 X7.72168 Y9.34143
G01 X7.77273 Y9.49234
G01 X7.79722 Y9.69071
G01 X7.77273 Y9.88908
G01 X7.72168 Y10.03998
G01 X7.67585 Y10.13605
G01 X7.53476 Y10.32101
G01 X7.35084 Y10.46391
G01 X7.19206 Y10.53252
G01 X6.90446 Y10.58149
G01 X6.61680 Y10.53257
G01 X6.45790 Y10.46389
G01 X6.27421 Y10.32104
G01 X6.13308 Y10.13605
G01 X6.08726 Y10.03998
G01 X6.03618 Y9.88908
G01 X6.01160 Y9.69071
G04 P0 ( dwell for no time -- G64 should not smooth over this point )
G00 Z10.00000 ( retract )

G00 X8.55157 Y9.69071 ( rapid move to begin. )
G01 F30.00000
G01 Z-0.10000
G04 P0 ( dwell for no time -- G64 should not smooth over this point )
G01 F360.00000
G01 X8.55157 Y9.69071
G01 X8.57618 Y9.49234
G01 X8.62726 Y9.34143
G01 X8.67306 Y9.24540
G01 X8.81421 Y9.06041
G01 X8.99790 Y8.91756
G01 X9.15683 Y8.84888
G01 X9.44446 Y8.79993
G01 X9.73206 Y8.84890
G01 X9.89084 Y8.91751
G01 X10.07476 Y9.06043
G01 X10.21585 Y9.24540
G01 X10.26168 Y9.34143
G01 X10.31273 Y9.49234
G01 X10.33722 Y9.69071
G01 X10.31273 Y9.88908
G01 X10.26168 Y10.03998
G01 X10.21585 Y10.13605
G01 X10.07476 Y10.32101
G01 X9.89084 Y10.46391
G01 X9.73206 Y10.53252
G01 X9.44446 Y10.58149
G01 X9.15683 Y10.53257
G01 X8.99790 Y10.46389
G01 X8.81421 Y10.32104
G01 X8.67308 Y10.13605
G01 X8.62726 Y10.03998
G01 X8.57618 Y9.88908
G01 X8.55157 Y9.69071
G04 P0 ( dwell for no time -- G64 should not smooth over this point )
G00 Z10.00000 ( retract )

G00 X6.40110 Y3.55067 ( rapid move to begin. )
G01 F30.00000
G01 Z-0.10000
G04 P0 ( dwell for no time -- G64 should not smooth over this point )
G01 F360.00000
G01 X6.40110 Y3.55067
G01 X6.95081 Y4.15074
G01 X7.96719 Y5.15648
G01 X8.26325 Y5.40603
G01 X8.53841 Y5.60200
G01 X8.86389 Y5.79443
G01 X9.14784 Y5.92226
G01 X9.42757 Y6.01622
G01 X9.66574 Y6.06740
G01 X9.92886 Y6.09742
G01 X10.19195 Y6.09531
G01 X10.41862 Y6.07123
G01 X10.84527 Y5.96331
G01 X10.56091 Y4.97266
G01 X10.52589 Y4.81091
G01 X10.51791 Y4.65585
G01 X10.51987 Y4.61922
G01 X10.73714 Y4.17873
G01 X10.77201 Y4.07843
G01 X10.78327 Y3.52095
G01 X10.44829 Y3.55067
G01 X6.40110 Y3.55067
G01 X5.75069 Y2.95059
G01 X4.95084 Y2.15075
G01 X4.38300 Y1.55070
G01 X3.75069 Y0.95060
G01 X2.85643 Y0.05080
G01 X45.77080 Y0.05080
G01 X45.77080 Y27.47074
G01 X0.05080 Y27.47074
G01 X0.05080 Y0.05080
G01 X2.85643 Y0.05080
G04 P0 ( dwell for no time -- G64 should not smooth over this point )
G00 Z10.00000 ( retract )

G00 X4.38300 Y1.55070 ( rapid move to begin. )
G01 F30.00000
G01 Z-0.10000
G04 P0 ( dwell for no time -- G64 should not smooth over this point )
G01 F360.00000
G01 X4.38300 Y1.55070
G01 X10.02899 Y1.55006
G01 X10.31664 Y1.58029
G01 X10.78235 Y1.52154
G01 X10.77928 Y2.03604
G01 X10.75032 Y2.14899
G01 X10.65703 Y2.35006
G01 X10.71001 Y2.48966
G01 X10.73597 Y2.65046
G01 X11.02142 Y3.41815
G01 X10.78327 Y3.52095
G04 P0 ( dwell for no time -- G64 should not smooth over this point )
G00 Z10.00000 ( retract )

G00 X11.02142 Y3.41815 ( rapid move to begin. )
G01 F30.00000
G01 Z-0.10000
G04 P0 ( dwell for no time -- G64 should not smooth over this point )
G01 F360.00000
G01 X11.02142 Y3.41815
G01 X11.34928 Y3.41356
G01 X11.58464 Y3.88536
G01 X11.57486 Y4.05973
G01 X11.52114 Y4.23857
G01 X11.51362 Y4.59628
G01 X11.46543 Y4.74348
G01 X11.45116 Y4.84883
G01 X11.45045 Y5.95948
G01 X10.84527 Y5.96331
G04 P0 ( dwell for no time -- G64 should not smooth over this point )
G00 Z10.00000 ( retract )

G00 X11.45045 Y5.95948 ( rapid move to begin. )
G01 F30.00000
G01 Z-0.10000
G04 P0 ( dwell for no time -- G64 should not smooth over this point )
G01 F360.00000
G01 X11.45045 Y5.95948
G01 X12.38700 Y5.95914
G01 X12.38324 Y4.88406
G01 X12.36782 Y4.74442
G01 X12.32073 Y4.59616
G01 X12.31646 Y4.27741
G01 X12.33510 Y4.18389
G01 X12.61989 Y3.41640
G01 X12.31339 Y3.30510
G04 P0 ( dwell for no time -- G64 should not smooth over this point )
G00 Z10.00000 ( retract )

G00 X10.95875 Y2.51742 ( rapid move to begin. )
G01 F30.00000
G01 Z-0.10000
G04 P0 ( dwell for no time -- G64 should not smooth over this point )
G01 F360.00000
G01 X10.95875 Y2.51742
G01 X11.02517 Y2.58394
G01 X11.20902 Y2.58394
G01 X11.27557 Y2.51739
G01 X10.95875 Y2.51742
G04 P0 ( dwell for no time -- G64 should not smooth over this point )
G00 Z10.00000 ( retract )

G00 X10.15073 Y2.51739 ( rapid move to begin. )
G01 F30.00000
G01 Z-0.10000
G04 P0 ( dwell for no time -- G64 should not smooth over this point )
G01 F360.00000
G01 X10.15073 Y2.51739
G01 X10.40922 Y2.51739
G01 X10.48395 Y2.59202
G01 X10.48395 Y2.77586
G01 X10.40917 Y2.85067
G01 X10.15073 Y2.85064
G01 X10.15073 Y2.51739
G04 P0 ( dwell for no time -- G64 should not smooth over this point )
G00 Z10.00000 ( retract )

G00 X10.78235 Y1.52154 ( rapid move to begin. )
G01 F30.00000
G01 Z-0.10000
G04 P0 ( dwell for no time -- G64 should not smooth over this point )
G01 F360.00000
G01 X10.78235 Y1.52154
G01 X11.02802 Y1.41463
G01 X10.98273 Y1.27310
G01 X10.73531 Y0.78092
G01 X10.71834 Y0.70472
G01 X10.71415 Y0.50470
G01 X10.69520 Y0.43904
G01 X10.60384 Y0.22281
G01 X10.49439 Y0.05080
G04 P0 ( dwell for no time -- G64 should not smooth over this point )
G00 Z10.00000 ( retract )

G00 X10.15073 Y0.51742 ( rapid move to begin. )
G01 F30.00000
G01 Z-0.10000
G04 P0 ( dwell for no time -- G64 should not smooth over this point )
G01 F360.00000
G01 X10.15073 Y0.51742
G01 X10.15073 Y0.85065
G01 X10.40917 Y0.85065
G01 X10.48395 Y0.77587
G01 X10.48395 Y0.59205
G01 X10.40922 Y0.51740
G01 X10.15073 Y0.51742
G04 P0 ( dwell for no time -- G64 should not smooth over this point )
G00 Z10.00000 ( retract )

G00 X11.58159 Y1.45372 ( rapid move to begin. )
G01 F30.00000
G01 Z-0.10000
G04 P0 ( dwell for no time -- G64 should not smooth over this point )
G01 F360.00000
G01 X11.58159 Y1.45372
G01 X12.04816 Y1.39911
G01 X12.18354 Y1.43472
G01 X12.18809 Y2.08745
G01 X12.21214 Y2.19667
G01 X12.25410 Y2.28783
G01 X12.32225 Y2.37769
G01 X12.34389 Y2.46936
G01 X12.31567 Y2.64467
G01 X12.31339 Y3.30510
G01 X11.91674 Y3.25529
G01 X11.44968 Y3.35841
G04 P0 ( dwell for no time -- G64 should not smooth over this point )
G00 Z10.00000 ( retract )

G00 X11.34928 Y3.41356 ( rapid move to begin. )
G01 F30.00000
G01 Z-0.10000
G04 P0 ( dwell for no time -- G64 should not smooth over this point )
G01 F360.00000
G01 X11.34928 Y3.41356
G01 X11.44968 Y3.35841
G01 X11.45789 Y2.78602
G01 X11.54105 Y2.55054
G01 X11.58133 Y2.35826
G01 X11.56233 Y2.16108
G01 X11.58276 Y1.98364
G01 X11.58159 Y1.45372
G01 X11.44801 Y1.41671
G04 P0 ( dwell for no time -- G64 should not smooth over this point )
G00 Z10.00000 ( retract )

G00 X11.02802 Y1.41463 ( rapid move to begin. )
G01 F30.00000
G01 Z-0.10000
G04 P0 ( dwell for no time -- G64 should not smooth over this point )
G01 F360.00000
G01 X11.02802 Y1.41463
G01 X11.44801 Y1.41671
G01 X11.45202 Y0.42078
G01 X11.28265 Y0.29228
G01 X11.25664 Y0.24930
G01 X11.25024 Y0.05080
G04 P0 ( dwell for no time -- G64 should not smooth over this point )
G00 Z10.00000 ( retract )

G00 X12.11674 Y0.05080 ( rapid move to begin. )
G01 F30.00000
G01 Z-0.10000
G04 P0 ( dwell for no time -- G64 should not smooth over this point )
G01 F360.00000
G01 X12.11674 Y0.05080
G01 X12.10701 Y0.23647
G01 X12.04984 Y0.38115
G01 X12.04816 Y1.39911
G04 P0 ( dwell for no time -- G64 should not smooth over this point )
G00 Z10.00000 ( retract )

G00 X12.18354 Y1.43472 ( rapid move to begin. )
G01 F30.00000
G01 Z-0.10000
G04 P0 ( dwell for no time -- G64 should not smooth over this point )
G01 F360.00000
G01 X12.18354 Y1.43472
G01 X12.45486 Y1.41704
G01 X12.81681 Y1.41740
G01 X12.91560 Y1.01760
G01 X12.91907 Y0.83378
G01 X12.93861 Y0.71991
G01 X13.04973 Y0.49723
G01 X13.05456 Y0.22540
G01 X13.09990 Y0.05080
G04 P0 ( dwell for no time -- G64 should not smooth over this point )
G00 Z10.00000 ( retract )

G00 X13.98262 Y0.05080 ( rapid move to begin. )
G01 F30.00000
G01 Z-0.10000
G04 P0 ( dwell for no time -- G64 should not smooth over this point )
G01 F360.00000
G01 X13.98262 Y0.05080
G01 X13.95283 Y0.41709
G01 X13.97711 Y0.56825
G01 X13.98123 Y0.72591
G01 X13.95763 Y0.92845
G01 X13.87071 Y1.34008
G01 X13.71834 Y1.41648
G04 P0 ( dwell for no time -- G64 should not smooth over this point )
G00 Z10.00000 ( retract )

G00 X13.87071 Y1.34008 ( rapid move to begin. )
G01 F30.00000
G01 Z-0.10000
G04 P0 ( dwell for no time -- G64 should not smooth over this point )
G01 F360.00000
G01 X13.87071 Y1.34008
G01 X14.14305 Y1.47091
G01 X14.45115 Y1.57350
G01 X14.43756 Y2.02778
G01 X14.31610 Y2.38130
G01 X14.31994 Y2.62004
G01 X14.37927 Y2.92768
G01 X14.38272 Y3.45331
G01 X14.04948 Y3.63502
G04 P0 ( dwell for no time -- G64 should not smooth over this point )
G00 Z10.00000 ( retract )

G00 X14.38272 Y3.45331 ( rapid move to begin. )
G01 F30.00000
G01 Z-0.10000
G04 P0 ( dwell for no time -- G64 should not smooth over this point )
G01 F360.00000
G01 X14.38272 Y3.45331
G01 X14.90536 Y3.41874
G01 X15.11584 Y3.43553
G01 X15.18244 Y3.41734
G01 X15.58234 Y3.43065
G01 X15.57757 Y4.03535
G01 X15.51579 Y4.28744
G01 X15.53131 Y4.37431
G01 X15.60477 Y4.55138
G01 X15.58511 Y4.64231
G01 X15.59174 Y4.76771
G01 X15.65377 Y4.92128
G01 X15.85747 Y5.23687
G01 X16.05572 Y5.66720
G01 X16.17358 Y5.96402
G01 X15.86103 Y6.05061
G01 X15.52367 Y6.09531
G01 X14.64358 Y6.09056
G01 X14.38846 Y6.05450
G01 X13.99929 Y5.94340
G04 P0 ( dwell for no time -- G64 should not smooth over this point )
G00 Z10.00000 ( retract )

G00 X13.04613 Y5.95917 ( rapid move to begin. )
G01 F30.00000
G01 Z-0.10000
G04 P0 ( dwell for no time -- G64 should not smooth over this point )
G01 F360.00000
G01 X13.04613 Y5.95917
G01 X13.67221 Y5.96621
G01 X13.99929 Y5.94340
G01 X14.23007 Y4.89448
G01 X14.24569 Y4.60040
G01 X14.19992 Y4.34246
G01 X14.04948 Y3.96481
G01 X14.04948 Y3.63502
G01 X13.77886 Y3.50639
G04 P0 ( dwell for no time -- G64 should not smooth over this point )
G00 Z10.00000 ( retract )

G00 X12.55799 Y4.51714 ( rapid move to begin. )
G01 F30.00000
G01 Z-0.10000
G04 P0 ( dwell for no time -- G64 should not smooth over this point )
G01 F360.00000
G01 X12.55799 Y4.51714
G01 X12.62479 Y4.58394
G01 X12.80846 Y4.58394
G01 X12.87526 Y4.51714
G01 X12.55799 Y4.51714
G04 P0 ( dwell for no time -- G64 should not smooth over this point )
G00 Z10.00000 ( retract )

G00 X10.99190 Y4.28404 ( rapid move to begin. )
G01 F30.00000
G01 Z-0.10000
G04 P0 ( dwell for no time -- G64 should not smooth over this point )
G01 F360.00000
G01 X10.99190 Y4.28404
G01 X11.02510 Y4.31724
G01 X11.28382 Y4.31724
G01 X11.28382 Y4.25069
G01 X11.02517 Y4.25069
G01 X10.99190 Y4.28404
G04 P0 ( dwell for no time -- G64 should not smooth over this point )
G00 Z10.00000 ( retract )

G00 X12.38700 Y5.95914 ( rapid move to begin. )
G01 F30.00000
G01 Z-0.10000
G04 P0 ( dwell for no time -- G64 should not smooth over this point )
G01 F360.00000
G01 X12.38700 Y5.95914
G01 X13.04613 Y5.95917
G01 X13.05126 Y4.85364
G01 X13.11641 Y4.55056
G01 X13.10917 Y4.35648
G01 X13.04346 Y4.22112
G01 X13.04966 Y3.41727
G01 X12.91651 Y3.38087
G01 X12.61989 Y3.41640
G04 P0 ( dwell for no time -- G64 should not smooth over this point )
G00 Z10.00000 ( retract )

G00 X12.91651 Y3.38087 ( rapid move to begin. )
G01 F30.00000
G01 Z-0.10000
G04 P0 ( dwell for no time -- G64 should not smooth over this point )
G01 F360.00000
G01 X12.91651 Y3.38087
G01 X12.91410 Y2.94262
G01 X12.85024 Y2.57000
G01 X12.87249 Y2.39456
G01 X12.91651 Y2.35186
G01 X12.91801 Y1.45811
G01 X12.81681 Y1.41740
G04 P0 ( dwell for no time -- G64 should not smooth over this point )
G00 Z10.00000 ( retract )

G00 X12.91801 Y1.45811 ( rapid move to begin. )
G01 F30.00000
G01 Z-0.10000
G04 P0 ( dwell for no time -- G64 should not smooth over this point )
G01 F360.00000
G01 X12.91801 Y1.45811
G01 X13.29860 Y1.48219
G01 X13.71834 Y1.41648
G01 X13.72570 Y2.06700
G01 X13.74859 Y2.14747
G01 X13.84483 Y2.34221
G01 X13.80698 Y2.46758
G01 X13.78290 Y2.48757
G01 X13.77886 Y3.50639
G01 X13.46114 Y3.43311
G01 X13.04966 Y3.41727
G04 P0 ( dwell for no time -- G64 should not smooth over this point )
G00 Z10.00000 ( retract )

G00 X14.68260 Y2.32550 ( rapid move to begin. )
G01 F30.00000
G01 Z-0.10000
G04 P0 ( dwell for no time -- G64 should not smooth over this point )
G01 F360.00000
G01 X14.68260 Y2.32550
G01 X14.68260 Y2.50916
G01 X14.75737 Y2.58394
G01 X14.94104 Y2.58394
G01 X15.01582 Y2.50916
G01 X15.01582 Y2.32550
G01 X14.94104 Y2.25072
G01 X14.75737 Y2.25072
G01 X14.68260 Y2.32550
G04 P0 ( dwell for no time -- G64 should not smooth over this point )
G00 Z10.00000 ( retract )

G00 X14.45115 Y1.57350 ( rapid move to begin. )
G01 F30.00000
G01 Z-0.10000
G04 P0 ( dwell for no time -- G64 should not smooth over this point )
G01 F360.00000
G01 X14.45115 Y1.57350
G01 X14.69309 Y1.55100
G01 X15.18102 Y1.55100
G01 X15.18567 Y2.02512
G01 X15.24742 Y2.25443
G01 X15.24912 Y2.55034
G01 X15.18432 Y2.83975
G01 X15.18244 Y3.41734
G04 P0 ( dwell for no time -- G64 should not smooth over this point )
G00 Z10.00000 ( retract )

G00 X15.79034 Y4.28404 ( rapid move to begin. )
G01 F30.00000
G01 Z-0.10000
G04 P0 ( dwell for no time -- G64 should not smooth over this point )
G01 F360.00000
G01 X15.79034 Y4.28404
G01 X15.82367 Y4.25069
G01 X16.08214 Y4.25069
G01 X16.08214 Y4.31724
G01 X15.82362 Y4.31724
G01 X15.79034 Y4.28404
G04 P0 ( dwell for no time -- G64 should not smooth over this point )
G00 Z10.00000 ( retract )

G00 X16.31838 Y3.42285 ( rapid move to begin. )
G01 F30.00000
G01 Z-0.10000
G04 P0 ( dwell for no time -- G64 should not smooth over this point )
G01 F360.00000
G01 X16.31838 Y3.42285
G01 X16.58442 Y3.39832
G01 X16.84856 Y3.32626
G01 X17.18003 Y3.17619
G01 X17.49951 Y2.93964
G01 X17.67025 Y2.79337
G01 X17.84883 Y2.63027
G01 X18.04462 Y2.41734
G01 X16.08229 Y2.41714
G04 P0 ( dwell for no time -- G64 should not smooth over this point )
G00 Z10.00000 ( retract )

G00 X16.79651 Y1.48369 ( rapid move to begin. )
G01 F30.00000
G01 Z-0.10000
G04 P0 ( dwell for no time -- G64 should not smooth over this point )
G01 F360.00000
G01 X16.79651 Y1.48369
G01 X17.18450 Y1.67510
G01 X17.44398 Y1.83789
G01 X17.44972 Y0.85504
G01 X17.46524 Y0.73871
G01 X17.54845 Y0.41712
G01 X17.44132 Y0.22007
G01 X17.44807 Y0.05080
G04 P0 ( dwell for no time -- G64 should not smooth over this point )
G00 Z10.00000 ( retract )

G00 X17.54845 Y0.41712 ( rapid move to begin. )
G01 F30.00000
G01 Z-0.10000
G04 P0 ( dwell for no time -- G64 should not smooth over this point )
G01 F360.00000
G01 X17.54845 Y0.41712
G01 X18.92788 Y0.41735
G01 X18.91591 Y0.05080
G04 P0 ( dwell for no time -- G64 should not smooth over this point )
G00 Z10.00000 ( retract )

G00 X18.92788 Y0.41735 ( rapid move to begin. )
G01 F30.00000
G01 Z-0.10000
G04 P0 ( dwell for no time -- G64 should not smooth over this point )
G01 F360.00000
G01 X18.92788 Y0.41735
G01 X18.94009 Y0.48712
G01 X18.86877 Y1.55230
G01 X18.27949 Y2.38328
G04 P0 ( dwell for no time -- G64 should not smooth over this point )
G00 Z10.00000 ( retract )

G00 X18.86877 Y1.55230 ( rapid move to begin. )
G01 F30.00000
G01 Z-0.10000
G04 P0 ( dwell for no time -- G64 should not smooth over this point )
G01 F360.00000
G01 X18.86877 Y1.55230
G01 X20.20357 Y1.54973
G01 X20.44903 Y1.52070
G01 X20.65096 Y1.56535
G01 X20.66074 Y2.06720
G01 X20.68317 Y2.14747
G01 X20.78383 Y2.33891
G01 X20.78330 Y2.62898
G01 X20.74164 Y2.70231
G01 X20.71700 Y2.80302
G01 X20.71723 Y3.55069
G01 X20.64873 Y3.58087
G04 P0 ( dwell for no time -- G64 should not smooth over this point )
G00 Z10.00000 ( retract )

G00 X20.71723 Y3.55069 ( rapid move to begin. )
G01 F30.00000
G01 Z-0.10000
G04 P0 ( dwell for no time -- G64 should not smooth over this point )
G01 F360.00000
G01 X20.71723 Y3.55069
G01 X21.14697 Y3.53979
G01 X21.61898 Y3.20197
G01 X21.58517 Y2.88625
G01 X21.35673 Y2.62019
G01 X21.28871 Y2.48493
G01 X21.26005 Y2.38587
G01 X21.31568 Y2.18234
G01 X21.31631 Y1.56533
G01 X20.85439 Y1.55070
G01 X20.65096 Y1.56535
G04 P0 ( dwell for no time -- G64 should not smooth over this point )
G00 Z10.00000 ( retract )

G00 X20.44903 Y1.52070 ( rapid move to begin. )
G01 F30.00000
G01 Z-0.10000
G04 P0 ( dwell for no time -- G64 should not smooth over this point )
G01 F360.00000
G01 X20.44903 Y1.52070
G01 X20.45269 Y0.90193
G01 X20.47570 Y0.78725
G01 X20.54771 Y0.62812
G01 X20.46130 Y0.38666
G01 X20.51431 Y0.20330
G01 X20.51743 Y0.05080
G04 P0 ( dwell for no time -- G64 should not smooth over this point )
G00 Z10.00000 ( retract )

G00 X21.11799 Y0.05080 ( rapid move to begin. )
G01 F30.00000
G01 Z-0.10000
G04 P0 ( dwell for no time -- G64 should not smooth over this point )
G01 F360.00000
G01 X21.11799 Y0.05080
G01 X21.11672 Y0.11554
G01 X21.22472 Y0.31587
G01 X21.49749 Y0.59855
G01 X21.61677 Y0.77119
G01 X21.69330 Y0.95062
G01 X21.84537 Y1.40393
G01 X21.84636 Y1.41839
G01 X21.63376 Y1.48943
G01 X21.31631 Y1.56533
G04 P0 ( dwell for no time -- G64 should not smooth over this point )
G00 Z10.00000 ( retract )

G00 X20.15071 Y2.32550 ( rapid move to begin. )
G01 F30.00000
G01 Z-0.10000
G04 P0 ( dwell for no time -- G64 should not smooth over this point )
G01 F360.00000
G01 X20.15071 Y2.32550
G01 X20.22549 Y2.25072
G01 X20.40915 Y2.25072
G01 X20.48396 Y2.32550
G01 X20.48396 Y2.77586
G01 X20.40915 Y2.85067
G01 X20.22549 Y2.85067
G01 X20.15071 Y2.77586
G01 X20.15071 Y2.32550
G04 P0 ( dwell for no time -- G64 should not smooth over this point )
G00 Z10.00000 ( retract )

G00 X21.14697 Y3.53979 ( rapid move to begin. )
G01 F30.00000
G01 Z-0.10000
G04 P0 ( dwell for no time -- G64 should not smooth over this point )
G01 F360.00000
G01 X21.14697 Y3.53979
G01 X21.40656 Y3.96514
G01 X21.51522 Y4.25447
G01 X21.51278 Y4.59610
G01 X21.46607 Y4.74043
G01 X21.45027 Y4.88145
G01 X21.45027 Y5.95948
G01 X21.37682 Y5.96392
G04 P0 ( dwell for no time -- G64 should not smooth over this point )
G00 Z10.00000 ( retract )

G00 X21.45027 Y5.95948 ( rapid move to begin. )
G01 F30.00000
G01 Z-0.10000
G04 P0 ( dwell for no time -- G64 should not smooth over this point )
G01 F360.00000
G01 X21.45027 Y5.95948
G01 X22.04486 Y5.96730
G01 X22.40072 Y5.94297
G01 X22.56582 Y5.19849
G01 X22.67255 Y4.85366
G01 X22.71227 Y4.63578
G01 X22.71227 Y4.19882
G01 X22.65467 Y3.69588
G01 X22.39495 Y3.60040
G01 X22.16602 Y3.54772
G01 X21.90148 Y3.35951
G01 X21.61898 Y3.20197
G04 P0 ( dwell for no time -- G64 should not smooth over this point )
G00 Z10.00000 ( retract )

G00 X21.58517 Y2.88625 ( rapid move to begin. )
G01 F30.00000
G01 Z-0.10000
G04 P0 ( dwell for no time -- G64 should not smooth over this point )
G01 F360.00000
G01 X21.58517 Y2.88625
G01 X21.81027 Y2.61953
G01 X21.87829 Y2.48468
G01 X21.90915 Y2.37030
G01 X21.92109 Y2.21704
G01 X21.97407 Y1.96652
G01 X21.98309 Y1.50622
G01 X21.84636 Y1.41839
G04 P0 ( dwell for no time -- G64 should not smooth over this point )
G00 Z10.00000 ( retract )

G00 X21.84537 Y1.40393 ( rapid move to begin. )
G01 F30.00000
G01 Z-0.10000
G04 P0 ( dwell for no time -- G64 should not smooth over this point )
G01 F360.00000
G01 X21.84537 Y1.40393
G01 X22.14270 Y0.83195
G01 X22.18281 Y0.69792
G01 X22.16460 Y0.58489
G01 X22.01527 Y0.20978
G01 X21.98809 Y0.05080
G04 P0 ( dwell for no time -- G64 should not smooth over this point )
G00 Z10.00000 ( retract )

G00 X22.41664 Y0.32550 ( rapid move to begin. )
G01 F30.00000
G01 Z-0.10000
G04 P0 ( dwell for no time -- G64 should not smooth over this point )
G01 F360.00000
G01 X22.41664 Y0.32550
G01 X22.41664 Y0.77587
G01 X22.49142 Y0.85065
G01 X22.67509 Y0.85065
G01 X22.74989 Y0.77587
G01 X22.74989 Y0.32550
G01 X22.67509 Y0.25072
G01 X22.49142 Y0.25072
G01 X22.41664 Y0.32550
G04 P0 ( dwell for no time -- G64 should not smooth over this point )
G00 Z10.00000 ( retract )

G00 X22.92403 Y0.05080 ( rapid move to begin. )
G01 F30.00000
G01 Z-0.10000
G04 P0 ( dwell for no time -- G64 should not smooth over this point )
G01 F360.00000
G01 X22.92403 Y0.05080
G01 X22.94306 Y0.13129
G01 X23.12266 Y0.54404
G01 X23.02383 Y0.66957
G01 X22.98611 Y0.77399
G01 X22.98136 Y1.52923
G01 X22.84994 Y1.57292
G04 P0 ( dwell for no time -- G64 should not smooth over this point )
G00 Z10.00000 ( retract )

G00 X23.08314 Y2.32550 ( rapid move to begin. )
G01 F30.00000
G01 Z-0.10000
G04 P0 ( dwell for no time -- G64 should not smooth over this point )
G01 F360.00000
G01 X23.08314 Y2.32550
G01 X23.08314 Y2.77586
G01 X23.15792 Y2.85067
G01 X23.34158 Y2.85067
G01 X23.41639 Y2.77586
G01 X23.41639 Y2.32550
G01 X23.34158 Y2.25072
G01 X23.15792 Y2.25072
G01 X23.08314 Y2.32550
G04 P0 ( dwell for no time -- G64 should not smooth over this point )
G00 Z10.00000 ( retract )

G00 X21.75015 Y4.25069 ( rapid move to begin. )
G01 F30.00000
G01 Z-0.10000
G04 P0 ( dwell for no time -- G64 should not smooth over this point )
G01 F360.00000
G01 X21.75015 Y4.25069
G01 X21.75015 Y4.58396
G01 X22.00877 Y4.58394
G01 X22.08339 Y4.50921
G01 X22.08339 Y4.32544
G01 X22.00877 Y4.25069
G01 X21.75015 Y4.25069
G04 P0 ( dwell for no time -- G64 should not smooth over this point )
G00 Z10.00000 ( retract )

G00 X20.95056 Y4.32549 ( rapid move to begin. )
G01 F30.00000
G01 Z-0.10000
G04 P0 ( dwell for no time -- G64 should not smooth over this point )
G01 F360.00000
G01 X20.95056 Y4.32549
G01 X20.95056 Y4.50916
G01 X21.02533 Y4.58394
G01 X21.20900 Y4.58394
G01 X21.28378 Y4.50916
G01 X21.28378 Y4.32549
G01 X21.20900 Y4.25069
G01 X21.02533 Y4.25069
G01 X20.95056 Y4.32549
G04 P0 ( dwell for no time -- G64 should not smooth over this point )
G00 Z10.00000 ( retract )

G00 X22.40072 Y5.94297 ( rapid move to begin. )
G01 F30.00000
G01 Z-0.10000
G04 P0 ( dwell for no time -- G64 should not smooth over this point )
G01 F360.00000
G01 X22.40072 Y5.94297
G01 X22.63267 Y6.01792
G01 X22.86460 Y6.06740
G01 X23.23917 Y6.10037
G01 X23.63462 Y6.06740
G01 X24.04295 Y5.96323
G01 X23.75990 Y4.97266
G01 X23.72487 Y4.81096
G01 X23.71689 Y4.65585
G01 X23.71885 Y4.61935
G01 X23.94735 Y4.15437
G01 X23.97092 Y4.07840
G01 X23.98080 Y3.42176
G01 X23.60186 Y3.52989
G01 X22.84994 Y3.58656
G04 P0 ( dwell for no time -- G64 should not smooth over this point )
G00 Z10.00000 ( retract )

G00 X22.65467 Y3.69588 ( rapid move to begin. )
G01 F30.00000
G01 Z-0.10000
G04 P0 ( dwell for no time -- G64 should not smooth over this point )
G01 F360.00000
G01 X22.65467 Y3.69588
G01 X22.84994 Y3.58656
G01 X22.84994 Y1.57292
G01 X22.31669 Y1.54325
G01 X21.98309 Y1.50622
G04 P0 ( dwell for no time -- G64 should not smooth over this point )
G00 Z10.00000 ( retract )

G00 X22.28327 Y2.32550 ( rapid move to begin. )
G01 F30.00000
G01 Z-0.10000
G04 P0 ( dwell for no time -- G64 should not smooth over this point )
G01 F360.00000
G01 X22.28327 Y2.32550
G01 X22.28327 Y2.77586
G01 X22.35807 Y2.85067
G01 X22.54192 Y2.85064
G01 X22.61654 Y2.77592
G01 X22.61654 Y2.32545
G01 X22.54192 Y2.25072
G01 X22.35807 Y2.25072
G01 X22.28327 Y2.32550
G04 P0 ( dwell for no time -- G64 should not smooth over this point )
G00 Z10.00000 ( retract )

G00 X22.98136 Y1.52923 ( rapid move to begin. )
G01 F30.00000
G01 Z-0.10000
G04 P0 ( dwell for no time -- G64 should not smooth over this point )
G01 F360.00000
G01 X22.98136 Y1.52923
G01 X23.48184 Y1.55478
G01 X24.18281 Y1.61859
G01 X24.18232 Y1.50541
G01 X24.05908 Y0.87889
G01 X23.93216 Y0.58796
G01 X23.77158 Y0.40589
G01 X23.78240 Y0.05080
G04 P0 ( dwell for no time -- G64 should not smooth over this point )
G00 Z10.00000 ( retract )

G00 X24.35289 Y0.05080 ( rapid move to begin. )
G01 F30.00000
G01 Z-0.10000
G04 P0 ( dwell for no time -- G64 should not smooth over this point )
G01 F360.00000
G01 X24.35289 Y0.05080
G01 X24.39319 Y0.17026
G01 X24.45596 Y0.27960
G01 X24.69037 Y0.53066
G01 X24.44730 Y1.02154
G01 X24.18232 Y1.50541
G04 P0 ( dwell for no time -- G64 should not smooth over this point )
G00 Z10.00000 ( retract )

G00 X24.18281 Y1.61859 ( rapid move to begin. )
G01 F30.00000
G01 Z-0.10000
G04 P0 ( dwell for no time -- G64 should not smooth over this point )
G01 F360.00000
G01 X24.18281 Y1.61859
G01 X24.98568 Y2.42042
G01 X24.66655 Y2.82529
G01 X24.44095 Y3.16286
G04 P0 ( dwell for no time -- G64 should not smooth over this point )
G00 Z10.00000 ( retract )

G00 X23.98080 Y3.42176 ( rapid move to begin. )
G01 F30.00000
G01 Z-0.10000
G04 P0 ( dwell for no time -- G64 should not smooth over this point )
G01 F360.00000
G01 X23.98080 Y3.42176
G01 X24.44095 Y3.16286
G01 X24.78349 Y3.88539
G01 X24.77597 Y4.04505
G01 X24.72012 Y4.23860
G01 X24.71179 Y4.59613
G01 X24.66442 Y4.74353
G01 X24.65014 Y4.84896
G01 X24.65360 Y5.95914
G01 X24.04295 Y5.96323
G04 P0 ( dwell for no time -- G64 should not smooth over this point )
G00 Z10.00000 ( retract )

G00 X24.65360 Y5.95914 ( rapid move to begin. )
G01 F30.00000
G01 Z-0.10000
G04 P0 ( dwell for no time -- G64 should not smooth over this point )
G01 F360.00000
G01 X24.65360 Y5.95914
G01 X25.58222 Y5.95884
G01 X25.58222 Y4.88394
G01 X25.56680 Y4.74431
G01 X25.51600 Y4.55709
G01 X25.51984 Y4.23857
G01 X26.14254 Y2.54455
G01 X25.90602 Y2.49095
G01 X25.37760 Y2.40782
G01 X24.98568 Y2.42042
G04 P0 ( dwell for no time -- G64 should not smooth over this point )
G00 Z10.00000 ( retract )

G00 X25.37760 Y2.40782 ( rapid move to begin. )
G01 F30.00000
G01 Z-0.10000
G04 P0 ( dwell for no time -- G64 should not smooth over this point )
G01 F360.00000
G01 X25.37760 Y2.40782
G01 X25.38237 Y0.68064
G01 X25.36690 Y0.59390
G01 X25.28001 Y0.38301
G01 X25.40490 Y0.17323
G01 X25.44082 Y0.05080
G04 P0 ( dwell for no time -- G64 should not smooth over this point )
G00 Z10.00000 ( retract )

G00 X25.61575 Y0.32545 ( rapid move to begin. )
G01 F30.00000
G01 Z-0.10000
G04 P0 ( dwell for no time -- G64 should not smooth over this point )
G01 F360.00000
G01 X25.61575 Y0.32545
G01 X25.61575 Y0.77592
G01 X25.69037 Y0.85065
G01 X25.87422 Y0.85065
G01 X25.94900 Y0.77587
G01 X25.94900 Y0.32550
G01 X25.87422 Y0.25072
G01 X25.69037 Y0.25072
G01 X25.61575 Y0.32545
G04 P0 ( dwell for no time -- G64 should not smooth over this point )
G00 Z10.00000 ( retract )

G00 X26.12347 Y0.05080 ( rapid move to begin. )
G01 F30.00000
G01 Z-0.10000
G04 P0 ( dwell for no time -- G64 should not smooth over this point )
G01 F360.00000
G01 X26.12347 Y0.05080
G01 X26.14808 Y0.14745
G01 X26.24877 Y0.33884
G01 X26.24826 Y0.62906
G01 X26.20030 Y0.71697
G01 X26.18303 Y0.78951
G01 X26.18217 Y2.54277
G04 P0 ( dwell for no time -- G64 should not smooth over this point )
G00 Z10.00000 ( retract )

G00 X26.14254 Y2.54455 ( rapid move to begin. )
G01 F30.00000
G01 Z-0.10000
G04 P0 ( dwell for no time -- G64 should not smooth over this point )
G01 F360.00000
G01 X26.14254 Y2.54455
G01 X26.25552 Y2.55153
G01 X26.24257 Y4.22120
G01 X26.29979 Y4.32702
G01 X26.31537 Y4.41719
G01 X26.31125 Y4.59610
G01 X26.26434 Y4.74434
G01 X26.25032 Y4.85366
G01 X26.24524 Y5.95917
G01 X25.58222 Y5.95884
G04 P0 ( dwell for no time -- G64 should not smooth over this point )
G00 Z10.00000 ( retract )

G00 X24.19088 Y4.28404 ( rapid move to begin. )
G01 F30.00000
G01 Z-0.10000
G04 P0 ( dwell for no time -- G64 should not smooth over this point )
G01 F360.00000
G01 X24.19088 Y4.28404
G01 X24.22416 Y4.31724
G01 X24.48265 Y4.31726
G01 X24.48265 Y4.25069
G01 X24.22421 Y4.25069
G01 X24.19088 Y4.28404
G04 P0 ( dwell for no time -- G64 should not smooth over this point )
G00 Z10.00000 ( retract )

G00 X25.75684 Y4.51714 ( rapid move to begin. )
G01 F30.00000
G01 Z-0.10000
G04 P0 ( dwell for no time -- G64 should not smooth over this point )
G01 F360.00000
G01 X25.75684 Y4.51714
G01 X25.82365 Y4.58394
G01 X26.00749 Y4.58394
G01 X26.07417 Y4.51714
G01 X25.75684 Y4.51714
G04 P0 ( dwell for no time -- G64 should not smooth over this point )
G00 Z10.00000 ( retract )

G00 X26.24524 Y5.95917 ( rapid move to begin. )
G01 F30.00000
G01 Z-0.10000
G04 P0 ( dwell for no time -- G64 should not smooth over this point )
G01 F360.00000
G01 X26.24524 Y5.95917
G01 X26.87107 Y5.96621
G01 X27.26672 Y5.93298
G01 X27.70200 Y5.82430
G01 X28.00551 Y5.70657
G01 X28.35059 Y5.52643
G01 X28.63327 Y5.34675
G01 X28.91594 Y5.13428
G01 X29.30642 Y4.79031
G01 X29.71757 Y4.36148
G01 X30.12369 Y3.87744
G01 X30.52981 Y3.32735
G01 X29.60550 Y3.17444
G01 X28.51485 Y3.01686
G01 X27.32583 Y2.67198
G01 X26.78661 Y2.55097
G01 X26.25552 Y2.55153
G04 P0 ( dwell for no time -- G64 should not smooth over this point )
G00 Z10.00000 ( retract )

G00 X26.78661 Y2.55097 ( rapid move to begin. )
G01 F30.00000
G01 Z-0.10000
G04 P0 ( dwell for no time -- G64 should not smooth over this point )
G01 F360.00000
G01 X26.78661 Y2.55097
G01 X26.78085 Y1.23579
G01 X26.71549 Y0.83889
G01 X26.73193 Y0.55065
G01 X26.71610 Y0.38146
G01 X26.83119 Y0.05080
G04 P0 ( dwell for no time -- G64 should not smooth over this point )
G00 Z10.00000 ( retract )

G00 X27.08186 Y0.32550 ( rapid move to begin. )
G01 F30.00000
G01 Z-0.10000
G04 P0 ( dwell for no time -- G64 should not smooth over this point )
G01 F360.00000
G01 X27.08186 Y0.32550
G01 X27.08186 Y0.37600
G01 X27.15659 Y0.45062
G01 X27.34036 Y0.45062
G01 X27.41511 Y0.37600
G01 X27.41511 Y0.32550
G01 X27.34031 Y0.25072
G01 X27.15664 Y0.25072
G01 X27.08186 Y0.32550
G04 P0 ( dwell for no time -- G64 should not smooth over this point )
G00 Z10.00000 ( retract )

G00 X27.08186 Y0.72532 ( rapid move to begin. )
G01 F30.00000
G01 Z-0.10000
G04 P0 ( dwell for no time -- G64 should not smooth over this point )
G01 F360.00000
G01 X27.08186 Y0.72532
G01 X27.08186 Y0.77587
G01 X27.15664 Y0.85065
G01 X27.34031 Y0.85065
G01 X27.41511 Y0.77587
G01 X27.41511 Y0.72532
G01 X27.34031 Y0.65049
G01 X27.15664 Y0.65049
G01 X27.08186 Y0.72532
G04 P0 ( dwell for no time -- G64 should not smooth over this point )
G00 Z10.00000 ( retract )

G00 X30.52981 Y3.32735 ( rapid move to begin. )
G01 F30.00000
G01 Z-0.10000
G04 P0 ( dwell for no time -- G64 should not smooth over this point )
G01 F360.00000
G01 X30.52981 Y3.32735
G01 X30.97284 Y3.10355
G01 X31.42270 Y2.84696
G01 X31.87256 Y2.55826
G01 X32.32241 Y2.23738
G01 X32.77227 Y1.88438
G01 X33.42013 Y1.32357
G01 X34.02899 Y0.73624
G01 X34.70387 Y0.05080
G04 P0 ( dwell for no time -- G64 should not smooth over this point )
G00 Z10.00000 ( retract )

G00 X33.84855 Y8.29373 ( rapid move to begin. )
G01 F30.00000
G01 Z-0.10000
G04 P0 ( dwell for no time -- G64 should not smooth over this point )
G01 F360.00000
G01 X33.84855 Y8.29373
G01 X33.86633 Y8.15861
G01 X33.96742 Y7.91451
G01 X34.12820 Y7.70471
G01 X34.33801 Y7.54367
G01 X34.58235 Y7.44258
G01 X34.71748 Y7.42480
G01 X34.71746 Y7.68510
G01 X34.61268 Y7.70738
G01 X34.46945 Y7.77116
G01 X34.34258 Y7.86331
G01 X34.23765 Y7.97982
G01 X34.15927 Y8.11566
G01 X34.10775 Y8.29371
G01 X33.84855 Y8.29373
G04 P0 ( dwell for no time -- G64 should not smooth over this point )
G00 Z10.00000 ( retract )

G00 X34.27641 Y10.16028 ( rapid move to begin. )
G01 F30.00000
G01 Z-0.10000
G04 P0 ( dwell for no time -- G64 should not smooth over this point )
G01 F360.00000
G01 X34.27641 Y10.16028
G01 X34.54410 Y10.09335
G01 X34.76607 Y10.06978
G01 X35.11017 Y10.08786
G01 X35.36798 Y10.14580
G01 X35.43003 Y10.28809
G01 X35.56175 Y10.45606
G01 X35.64016 Y10.59188
G01 X35.69386 Y10.73315
G01 X35.72528 Y10.96074
G01 X35.69383 Y11.18829
G01 X35.60534 Y11.40023
G01 X35.46622 Y11.58250
G01 X35.28477 Y11.72357
G01 X35.10310 Y11.80041
G01 X34.94933 Y11.83119
G01 X34.84446 Y11.83947
G01 X34.61682 Y11.81009
G01 X34.40394 Y11.72352
G01 X34.22251 Y11.58243
G01 X34.12703 Y11.46543
G01 X34.04867 Y11.32959
G01 X33.99511 Y11.18837
G01 X33.96491 Y10.94712
G01 X33.98792 Y10.76482
G01 X34.03818 Y10.61629
G01 X34.08340 Y10.52144
G01 X34.23232 Y10.30404
G01 X34.27641 Y10.16028
G01 X34.10994 Y10.06945
G01 X34.02787 Y10.05667
G01 X33.49678 Y10.06191
G01 X32.96864 Y10.58258
G01 X32.83519 Y10.67328
G01 X32.75058 Y10.69355
G01 X30.60522 Y10.70361
G01 X30.52313 Y10.71639
G01 X30.36092 Y10.80455
G04 P0 ( dwell for no time -- G64 should not smooth over this point )
G00 Z10.00000 ( retract )

G00 X30.65729 Y9.91093 ( rapid move to begin. )
G01 F30.00000
G01 Z-0.10000
G04 P0 ( dwell for no time -- G64 should not smooth over this point )
G01 F360.00000
G01 X30.65729 Y9.91093
G01 X30.52648 Y9.94466
G01 X29.00248 Y9.94466
G01 X28.87165 Y9.91095
G01 X28.87548 Y9.18858
G01 X28.85074 Y9.07649
G01 X28.74848 Y9.05665
G01 X25.50998 Y9.05665
G01 X25.40767 Y9.07649
G01 X25.38296 Y9.18858
G01 X25.38296 Y9.43673
G01 X25.36116 Y9.54192
G01 X25.25593 Y9.56373
G01 X24.11298 Y9.56373
G01 X24.00775 Y9.54194
G01 X23.98598 Y9.43673
G01 X23.98598 Y7.91274
G01 X24.00775 Y7.80750
G01 X24.11298 Y7.78571
G01 X25.25593 Y7.78571
G01 X25.36116 Y7.80753
G01 X25.38296 Y7.91274
G01 X25.38296 Y8.16089
G01 X25.40767 Y8.27293
G01 X25.50998 Y8.29277
G01 X28.74848 Y8.29277
G01 X28.85181 Y8.27253
G01 X28.89534 Y8.18932
G01 X29.00248 Y8.16673
G01 X30.52648 Y8.16673
G01 X30.63169 Y8.18850
G01 X30.65346 Y8.29373
G01 X30.65729 Y9.91093
G01 X30.78048 Y9.93971
G01 X32.47644 Y9.93971
G01 X32.52894 Y9.93447
G01 X32.56971 Y9.90110
G01 X33.06727 Y9.40544
G01 X33.19056 Y9.32307
G01 X33.25073 Y9.30768
G01 X33.34944 Y9.29277
G01 X34.00321 Y9.29277
G01 X34.08530 Y9.27999
G01 X34.24512 Y9.19330
G01 X34.55088 Y9.27278
G01 X34.73894 Y9.29424
G01 X34.94997 Y9.29424
G01 X35.19261 Y9.26120
G01 X35.42172 Y9.08187
G01 X35.54910 Y8.94969
G01 X35.68240 Y8.77540
G01 X35.81430 Y8.54339
G01 X35.98880 Y8.49160
G01 X36.05583 Y8.44260
G01 X36.35883 Y8.14365
G01 X36.47199 Y8.06907
G01 X36.58718 Y8.03628
G01 X36.68306 Y7.89468
G01 X36.80727 Y7.75962
G01 X36.94397 Y7.65790
G01 X37.12581 Y7.58099
G01 X37.30607 Y7.54710
G01 X37.46287 Y7.54710
G01 X37.61186 Y7.57131
G01 X37.82477 Y7.65787
G01 X38.00620 Y7.79892
G01 X38.14539 Y7.98139
G01 X38.23386 Y8.19318
G01 X38.26528 Y8.42066
G01 X38.22537 Y8.70684
G01 X38.27046 Y8.76663
G01 X39.83081 Y10.31954
G01 X40.97630 Y10.32474
G01 X41.09535 Y10.29787
G01 X41.21442 Y10.21725
G01 X41.33347 Y10.29787
G01 X41.45252 Y10.32474
G01 X42.43172 Y10.32474
G01 X42.55138 Y10.29759
G01 X42.61625 Y10.26818
G01 X42.63332 Y10.19426
G01 X42.64419 Y10.08052
G01 X42.63278 Y9.98085
G01 X42.67149 Y9.70115
G01 X42.77992 Y9.44121
G01 X42.85115 Y9.33712
G01 X42.98241 Y9.18809
G01 X43.17350 Y9.04405
G01 X43.43476 Y8.93788
G01 X43.61508 Y8.90831
G01 X43.81368 Y8.90831
G01 X44.03489 Y8.95060
G01 X44.25511 Y9.04400
G01 X44.44634 Y9.18809
G01 X44.59356 Y9.35853
G01 X44.69282 Y9.53056
G01 X44.75731 Y9.70123
G01 X44.79600 Y9.98078
G01 X44.75734 Y10.26013
G01 X44.64875 Y10.52022
G01 X44.57756 Y10.62439
G01 X44.44634 Y10.77346
G01 X44.25516 Y10.91740
G01 X43.99374 Y11.02373
G01 X43.81368 Y11.05327
G01 X43.61510 Y11.05327
G01 X43.43489 Y11.02370
G01 X43.27428 Y10.97138
G01 X43.13410 Y11.05842
G01 X42.97548 Y11.08867
G01 X39.65771 Y11.08583
G01 X39.52456 Y11.05837
G01 X39.39111 Y10.96767
G01 X37.67346 Y9.26346
G01 X37.38446 Y9.29947
G01 X37.15682 Y9.27009
G01 X36.94400 Y9.18352
G01 X36.65436 Y8.97075
G01 X36.53762 Y9.04103
G01 X35.56848 Y10.00544
G01 X35.36798 Y10.14580
G04 P0 ( dwell for no time -- G64 should not smooth over this point )
G00 Z10.00000 ( retract )

G00 X36.50366 Y10.96074 ( rapid move to begin. )
G01 F30.00000
G01 Z-0.10000
G04 P0 ( dwell for no time -- G64 should not smooth over this point )
G01 F360.00000
G01 X36.50366 Y10.96074
G01 X36.52792 Y10.76482
G01 X36.57818 Y10.61629
G01 X36.62340 Y10.52144
G01 X36.76272 Y10.33889
G01 X36.94397 Y10.19790
G01 X37.10054 Y10.13028
G01 X37.38446 Y10.08197
G01 X37.66835 Y10.13033
G01 X37.82477 Y10.19787
G01 X38.00620 Y10.33889
G01 X38.14539 Y10.52139
G01 X38.19068 Y10.61631
G01 X38.24102 Y10.76482
G01 X38.26528 Y10.96074
G01 X38.24102 Y11.15659
G01 X38.19070 Y11.30511
G01 X38.14534 Y11.40023
G01 X38.00622 Y11.58250
G01 X37.82477 Y11.72357
G01 X37.66835 Y11.79111
G01 X37.38446 Y11.83947
G01 X37.10054 Y11.79114
G01 X36.94400 Y11.72352
G01 X36.76269 Y11.58250
G01 X36.62345 Y11.40018
G01 X36.57816 Y11.30513
G01 X36.52792 Y11.15659
G01 X36.50366 Y10.96074
G04 P0 ( dwell for no time -- G64 should not smooth over this point )
G00 Z10.00000 ( retract )

G00 X38.79037 Y12.95413 ( rapid move to begin. )
G01 F30.00000
G01 Z-0.10000
G04 P0 ( dwell for no time -- G64 should not smooth over this point )
G01 F360.00000
G01 X38.79037 Y12.95413
G01 X38.80434 Y13.05928
G01 X38.89375 Y13.27544
G01 X39.03624 Y13.46137
G01 X39.22217 Y13.60360
G01 X39.43833 Y13.69324
G01 X39.54348 Y13.70724
G01 X39.54346 Y13.44574
G01 X39.35298 Y13.37704
G01 X39.24557 Y13.29901
G01 X39.15674 Y13.20035
G01 X39.09037 Y13.08539
G01 X39.04882 Y12.95410
G01 X38.79037 Y12.95413
G04 P0 ( dwell for no time -- G64 should not smooth over this point )
G00 Z10.00000 ( retract )

G00 X38.79037 Y12.70013 ( rapid move to begin. )
G01 F30.00000
G01 Z-0.10000
G04 P0 ( dwell for no time -- G64 should not smooth over this point )
G01 F360.00000
G01 X38.79037 Y12.70013
G01 X38.80434 Y12.59523
G01 X38.89375 Y12.37882
G01 X39.03624 Y12.19314
G01 X39.22217 Y12.05065
G01 X39.43833 Y11.96099
G01 X39.54348 Y11.94727
G01 X39.54346 Y12.20848
G01 X39.35298 Y12.27719
G01 X39.24557 Y12.35522
G01 X39.15674 Y12.45387
G01 X39.09037 Y12.56883
G01 X39.04882 Y12.70013
G01 X38.79037 Y12.70013
G04 P0 ( dwell for no time -- G64 should not smooth over this point )
G00 Z10.00000 ( retract )

G00 X39.79748 Y13.44574 ( rapid move to begin. )
G01 F30.00000
G01 Z-0.10000
G04 P0 ( dwell for no time -- G64 should not smooth over this point )
G01 F360.00000
G01 X39.79748 Y13.44574
G01 X39.98798 Y13.37704
G01 X40.09537 Y13.29901
G01 X40.18420 Y13.20035
G01 X40.25057 Y13.08539
G01 X40.29212 Y12.95410
G01 X40.55034 Y12.95413
G01 X40.53637 Y13.05928
G01 X40.44696 Y13.27544
G01 X40.30447 Y13.46137
G01 X40.11879 Y13.60360
G01 X39.90238 Y13.69324
G01 X39.79748 Y13.70724
G01 X39.79748 Y13.44574
G04 P0 ( dwell for no time -- G64 should not smooth over this point )
G00 Z10.00000 ( retract )

G00 X39.79748 Y11.94727 ( rapid move to begin. )
G01 F30.00000
G01 Z-0.10000
G04 P0 ( dwell for no time -- G64 should not smooth over this point )
G01 F360.00000
G01 X39.79748 Y11.94727
G01 X39.90238 Y11.96099
G01 X40.11879 Y12.05065
G01 X40.30447 Y12.19314
G01 X40.44696 Y12.37882
G01 X40.53637 Y12.59523
G01 X40.55034 Y12.70013
G01 X40.29212 Y12.70013
G01 X40.25057 Y12.56883
G01 X40.18420 Y12.45387
G01 X40.09537 Y12.35522
G01 X39.98798 Y12.27719
G01 X39.79748 Y12.20848
G01 X39.79748 Y11.94727
G04 P0 ( dwell for no time -- G64 should not smooth over this point )
G00 Z10.00000 ( retract )

G00 X39.98211 Y8.73084 ( rapid move to begin. )
G01 F30.00000
G01 Z-0.10000
G04 P0 ( dwell for no time -- G64 should not smooth over this point )
G01 F360.00000
G01 X39.98211 Y8.73084
G01 X40.01498 Y8.99960
G01 X40.08831 Y9.21756
G01 X40.21381 Y9.44123
G01 X40.34442 Y9.60046
G01 X40.59822 Y9.79797
G01 X40.84742 Y9.90384
G01 X41.07073 Y9.95919
G01 X41.21442 Y10.05502
G01 X41.35783 Y9.95929
G01 X41.58115 Y9.90392
G01 X41.83055 Y9.79792
G01 X42.08414 Y9.60046
G01 X42.21480 Y9.44128
G01 X42.34035 Y9.21761
G01 X42.41368 Y8.99965
G01 X42.44657 Y8.73084
G01 X42.41371 Y8.46204
G01 X42.34040 Y8.24408
G01 X42.21488 Y8.02035
G01 X42.08402 Y7.86087
G01 X41.83052 Y7.66364
G01 X41.60655 Y7.56704
G01 X41.35575 Y7.51225
G01 X41.21429 Y7.50159
G01 X41.07279 Y7.51225
G01 X40.82202 Y7.56709
G01 X40.59824 Y7.66359
G01 X40.34455 Y7.86087
G01 X40.21371 Y8.02041
G01 X40.08826 Y8.24410
G01 X40.01498 Y8.46206
G01 X39.98211 Y8.73084
G04 P0 ( dwell for no time -- G64 should not smooth over this point )
G00 Z10.00000 ( retract )

G00 X43.84139 Y13.54178 ( rapid move to begin. )
G01 F30.00000
G01 Z-0.10000
G04 P0 ( dwell for no time -- G64 should not smooth over this point )
G01 F360.00000
G01 X43.84139 Y13.54178
G01 X43.84142 Y13.28306
G01 X44.02861 Y13.30769
G01 X44.32148 Y13.42911
G01 X44.57319 Y13.62189
G01 X44.76598 Y13.87361
G01 X44.88739 Y14.16647
G01 X44.91203 Y14.35367
G01 X44.65102 Y14.35364
G01 X44.64360 Y14.28316
G01 X44.58223 Y14.09428
G01 X44.48294 Y13.92227
G01 X44.35005 Y13.77470
G01 X44.18937 Y13.65794
G01 X44.00796 Y13.57719
G01 X43.84139 Y13.54178
G04 P0 ( dwell for no time -- G64 should not smooth over this point )
G00 Z10.00000 ( retract )

G00 X43.84139 Y15.41953 ( rapid move to begin. )
G01 F30.00000
G01 Z-0.10000
G04 P0 ( dwell for no time -- G64 should not smooth over this point )
G01 F360.00000
G01 X43.84139 Y15.41953
G01 X43.84142 Y15.67828
G01 X44.02861 Y15.65364
G01 X44.32148 Y15.53248
G01 X44.57319 Y15.33944
G01 X44.76598 Y15.08798
G01 X44.88739 Y14.79512
G01 X44.91203 Y14.60767
G01 X44.65102 Y14.60764
G01 X44.64360 Y14.67815
G01 X44.58223 Y14.86703
G01 X44.48294 Y15.03904
G01 X44.35005 Y15.18661
G01 X44.18937 Y15.30335
G01 X44.00796 Y15.38412
G01 X43.84139 Y15.41953
G04 P0 ( dwell for no time -- G64 should not smooth over this point )
G00 Z10.00000 ( retract )

G00 X42.51681 Y14.60767 ( rapid move to begin. )
G01 F30.00000
G01 Z-0.10000
G04 P0 ( dwell for no time -- G64 should not smooth over this point )
G01 F360.00000
G01 X42.51681 Y14.60767
G01 X42.77779 Y14.60764
G01 X42.78521 Y14.67815
G01 X42.84657 Y14.86703
G01 X42.94586 Y15.03904
G01 X43.07876 Y15.18661
G01 X43.23944 Y15.30335
G01 X43.42084 Y15.38412
G01 X43.58742 Y15.41953
G01 X43.58742 Y15.67828
G01 X43.39996 Y15.65364
G01 X43.10710 Y15.53248
G01 X42.85564 Y15.33944
G01 X42.66260 Y15.08798
G01 X42.54144 Y14.79512
G01 X42.51681 Y14.60767
G04 P0 ( dwell for no time -- G64 should not smooth over this point )
G00 Z10.00000 ( retract )

G00 X42.51681 Y14.35367 ( rapid move to begin. )
G01 F30.00000
G01 Z-0.10000
G04 P0 ( dwell for no time -- G64 should not smooth over this point )
G01 F360.00000
G01 X42.51681 Y14.35367
G01 X42.77779 Y14.35364
G01 X42.78521 Y14.28316
G01 X42.84657 Y14.09428
G01 X42.94586 Y13.92227
G01 X43.07876 Y13.77470
G01 X43.23944 Y13.65794
G01 X43.42084 Y13.57719
G01 X43.58742 Y13.54178
G01 X43.58742 Y13.28306
G01 X43.39996 Y13.30769
G01 X43.10710 Y13.42911
G01 X42.85564 Y13.62189
G01 X42.66260 Y13.87361
G01 X42.54144 Y14.16647
G01 X42.51681 Y14.35367
G04 P0 ( dwell for no time -- G64 should not smooth over this point )
G00 Z10.00000 ( retract )

G00 X39.98211 Y15.73083 ( rapid move to begin. )
G01 F30.00000
G01 Z-0.10000
G04 P0 ( dwell for no time -- G64 should not smooth over this point )
G01 F360.00000
G01 X39.98211 Y15.73083
G01 X40.01498 Y15.46205
G01 X40.08826 Y15.24409
G01 X40.21374 Y15.02039
G01 X40.34447 Y14.86103
G01 X40.59827 Y14.66355
G01 X40.82202 Y14.56708
G01 X41.07279 Y14.51224
G01 X41.21429 Y14.50157
G01 X41.35575 Y14.51224
G01 X41.60655 Y14.56703
G01 X41.83050 Y14.66360
G01 X42.08409 Y14.86103
G01 X42.21485 Y15.02037
G01 X42.34040 Y15.24406
G01 X42.41371 Y15.46202
G01 X42.44657 Y15.73083
G01 X42.41368 Y15.99964
G01 X42.34035 Y16.21760
G01 X42.21483 Y16.44127
G01 X42.08407 Y16.60063
G01 X41.83057 Y16.79788
G01 X41.60652 Y16.89453
G01 X41.35572 Y16.94932
G01 X41.21429 Y16.95996
G01 X41.07282 Y16.94929
G01 X40.82204 Y16.89448
G01 X40.59819 Y16.79793
G01 X40.34450 Y16.60063
G01 X40.21379 Y16.44124
G01 X40.08831 Y16.21754
G01 X40.01498 Y15.99959
G01 X39.98211 Y15.73083
G04 P0 ( dwell for no time -- G64 should not smooth over this point )
G00 Z10.00000 ( retract )

G00 X37.51148 Y16.77634 ( rapid move to begin. )
G01 F30.00000
G01 Z-0.10000
G04 P0 ( dwell for no time -- G64 should not smooth over this point )
G01 F360.00000
G01 X37.51148 Y16.77634
G01 X37.61626 Y16.75407
G01 X37.75951 Y16.69029
G01 X37.88636 Y16.59814
G01 X37.99129 Y16.48160
G01 X38.06967 Y16.34579
G01 X38.12118 Y16.16774
G01 X38.38042 Y16.16774
G01 X38.36264 Y16.30286
G01 X38.26129 Y16.54721
G01 X38.10051 Y16.75676
G01 X37.89070 Y16.91780
G01 X37.64636 Y17.01889
G01 X37.51148 Y17.03667
G01 X37.51148 Y16.77634
G04 P0 ( dwell for no time -- G64 should not smooth over this point )
G00 Z10.00000 ( retract )

G00 X39.98211 Y18.89061 ( rapid move to begin. )
G01 F30.00000
G01 Z-0.10000
G04 P0 ( dwell for no time -- G64 should not smooth over this point )
G01 F360.00000
G01 X39.98211 Y18.89061
G01 X40.01498 Y18.62183
G01 X40.08831 Y18.40387
G01 X40.21381 Y18.18020
G01 X40.34442 Y18.02100
G01 X40.59822 Y17.82348
G01 X40.82204 Y17.72694
G01 X41.07282 Y17.67213
G01 X41.21429 Y17.66146
G01 X41.35572 Y17.67213
G01 X41.60650 Y17.72689
G01 X41.83055 Y17.82354
G01 X42.08414 Y18.02100
G01 X42.21480 Y18.18018
G01 X42.34035 Y18.40382
G01 X42.41368 Y18.62178
G01 X42.44657 Y18.89061
G01 X42.41371 Y19.15940
G01 X42.34040 Y19.37738
G01 X42.21485 Y19.60105
G01 X42.08407 Y19.76039
G01 X41.83050 Y19.95782
G01 X41.60655 Y20.05437
G01 X41.35575 Y20.10918
G01 X41.21429 Y20.11985
G01 X41.07279 Y20.10918
G01 X40.82199 Y20.05434
G01 X40.59827 Y19.95787
G01 X40.34450 Y19.76041
G01 X40.21374 Y19.60103
G01 X40.08826 Y19.37733
G01 X40.01496 Y19.15937
G01 X39.98211 Y18.89061
G04 P0 ( dwell for no time -- G64 should not smooth over this point )
G00 Z10.00000 ( retract )

G00 X43.84139 Y23.70178 ( rapid move to begin. )
G01 F30.00000
G01 Z-0.10000
G04 P0 ( dwell for no time -- G64 should not smooth over this point )
G01 F360.00000
G01 X43.84139 Y23.70178
G01 X43.84142 Y23.44306
G01 X44.02861 Y23.46769
G01 X44.32148 Y23.58911
G01 X44.57319 Y23.78215
G01 X44.76598 Y24.03361
G01 X44.88739 Y24.32647
G01 X44.91203 Y24.51367
G01 X44.65102 Y24.51367
G01 X44.64360 Y24.44316
G01 X44.58223 Y24.25428
G01 X44.48294 Y24.08227
G01 X44.35005 Y23.93470
G01 X44.18937 Y23.81796
G01 X44.00796 Y23.73719
G01 X43.84139 Y23.70178
G04 P0 ( dwell for no time -- G64 should not smooth over this point )
G00 Z10.00000 ( retract )

G00 X43.84139 Y25.57953 ( rapid move to begin. )
G01 F30.00000
G01 Z-0.10000
G04 P0 ( dwell for no time -- G64 should not smooth over this point )
G01 F360.00000
G01 X43.84139 Y25.57953
G01 X43.84142 Y25.83828
G01 X44.02861 Y25.81364
G01 X44.32148 Y25.69248
G01 X44.57319 Y25.49944
G01 X44.76598 Y25.24798
G01 X44.88739 Y24.95512
G01 X44.91203 Y24.76767
G01 X44.65102 Y24.76764
G01 X44.64360 Y24.83815
G01 X44.58223 Y25.02703
G01 X44.48294 Y25.19904
G01 X44.35005 Y25.34661
G01 X44.18937 Y25.46335
G01 X44.00796 Y25.54412
G01 X43.84139 Y25.57953
G04 P0 ( dwell for no time -- G64 should not smooth over this point )
G00 Z10.00000 ( retract )

G00 X42.51681 Y24.51367 ( rapid move to begin. )
G01 F30.00000
G01 Z-0.10000
G04 P0 ( dwell for no time -- G64 should not smooth over this point )
G01 F360.00000
G01 X42.51681 Y24.51367
G01 X42.77779 Y24.51367
G01 X42.78521 Y24.44316
G01 X42.84657 Y24.25428
G01 X42.94586 Y24.08227
G01 X43.07876 Y23.93470
G01 X43.23944 Y23.81796
G01 X43.42084 Y23.73719
G01 X43.58742 Y23.70178
G01 X43.58742 Y23.44306
G01 X43.39996 Y23.46769
G01 X43.10710 Y23.58911
G01 X42.85564 Y23.78215
G01 X42.66260 Y24.03361
G01 X42.54144 Y24.32647
G01 X42.51681 Y24.51367
G04 P0 ( dwell for no time -- G64 should not smooth over this point )
G00 Z10.00000 ( retract )

G00 X42.51681 Y24.76767 ( rapid move to begin. )
G01 F30.00000
G01 Z-0.10000
G04 P0 ( dwell for no time -- G64 should not smooth over this point )
G01 F360.00000
G01 X42.51681 Y24.76767
G01 X42.77779 Y24.76764
G01 X42.78521 Y24.83815
G01 X42.84657 Y25.02703
G01 X42.94586 Y25.19904
G01 X43.07876 Y25.34661
G01 X43.23944 Y25.46335
G01 X43.42084 Y25.54412
G01 X43.58742 Y25.57953
G01 X43.58742 Y25.83828
G01 X43.39996 Y25.81364
G01 X43.10710 Y25.69248
G01 X42.85564 Y25.49944
G01 X42.66260 Y25.24798
G01 X42.54144 Y24.95512
G01 X42.51681 Y24.76767
G04 P0 ( dwell for no time -- G64 should not smooth over this point )
G00 Z10.00000 ( retract )

G00 X39.98211 Y25.89083 ( rapid move to begin. )
G01 F30.00000
G01 Z-0.10000
G04 P0 ( dwell for no time -- G64 should not smooth over this point )
G01 F360.00000
G01 X39.98211 Y25.89083
G01 X40.01498 Y25.62205
G01 X40.08826 Y25.40409
G01 X40.21374 Y25.18039
G01 X40.34447 Y25.02103
G01 X40.59827 Y24.82355
G01 X40.82202 Y24.72708
G01 X41.07279 Y24.67224
G01 X41.21429 Y24.66157
G01 X41.35575 Y24.67224
G01 X41.60655 Y24.72703
G01 X41.83050 Y24.82360
G01 X42.08409 Y25.02103
G01 X42.21485 Y25.18037
G01 X42.34040 Y25.40406
G01 X42.41371 Y25.62202
G01 X42.44657 Y25.89083
G01 X42.41368 Y26.15964
G01 X42.34035 Y26.37760
G01 X42.21483 Y26.60127
G01 X42.08407 Y26.76063
G01 X41.83057 Y26.95788
G01 X41.60652 Y27.05453
G01 X41.35572 Y27.10932
G01 X41.21429 Y27.11996
G01 X41.07282 Y27.10929
G01 X40.82204 Y27.05448
G01 X40.59819 Y26.95793
G01 X40.34450 Y26.76063
G01 X40.21379 Y26.60124
G01 X40.08831 Y26.37754
G01 X40.01498 Y26.15959
G01 X39.98211 Y25.89083
G04 P0 ( dwell for no time -- G64 should not smooth over this point )
G00 Z10.00000 ( retract )

G00 X37.51148 Y24.39634 ( rapid move to begin. )
G01 F30.00000
G01 Z-0.10000
G04 P0 ( dwell for no time -- G64 should not smooth over this point )
G01 F360.00000
G01 X37.51148 Y24.39634
G01 X37.61626 Y24.37407
G01 X37.75951 Y24.31029
G01 X37.88636 Y24.21814
G01 X37.99129 Y24.10160
G01 X38.06967 Y23.96579
G01 X38.12118 Y23.78774
G01 X38.38042 Y23.78774
G01 X38.36264 Y23.92286
G01 X38.26129 Y24.16696
G01 X38.10051 Y24.37676
G01 X37.89070 Y24.53780
G01 X37.64636 Y24.63889
G01 X37.51148 Y24.65667
G01 X37.51148 Y24.39634
G04 P0 ( dwell for no time -- G64 should not smooth over this point )
G00 Z10.00000 ( retract )

G00 X35.77516 Y25.37615 ( rapid move to begin. )
G01 F30.00000
G01 Z-0.10000
G04 P0 ( dwell for no time -- G64 should not smooth over this point )
G01 F360.00000
G01 X35.77516 Y25.37615
G01 X35.94260 Y25.34559
G01 X36.05893 Y25.41547
G01 X36.54341 Y25.91460
G01 X36.50366 Y26.20071
G01 X36.53511 Y26.42837
G01 X36.62345 Y26.64018
G01 X36.80727 Y26.86182
G01 X36.94400 Y26.96352
G01 X37.10054 Y27.03114
G01 X37.30607 Y27.07432
G01 X37.46284 Y27.07432
G01 X37.61186 Y27.05011
G01 X37.82477 Y26.96357
G01 X38.00622 Y26.82250
G01 X38.14534 Y26.64023
G01 X38.23383 Y26.42829
G01 X38.26647 Y26.13729
G01 X38.30185 Y26.09347
G01 X43.21348 Y21.18190
G01 X43.27512 Y21.13580
G01 X43.43481 Y21.18370
G01 X43.61510 Y21.21327
G01 X43.81368 Y21.21327
G01 X43.99374 Y21.18373
G01 X44.25516 Y21.07740
G01 X44.47791 Y20.90430
G01 X44.64875 Y20.68022
G01 X44.70331 Y20.56648
G01 X44.77139 Y20.35170
G01 X44.79600 Y20.14075
G01 X44.77139 Y19.92981
G01 X44.70336 Y19.71505
G01 X44.64873 Y19.60115
G01 X44.47791 Y19.37725
G01 X44.25511 Y19.20400
G01 X44.03489 Y19.11060
G01 X43.84017 Y19.07144
G01 X43.61508 Y19.06831
G01 X43.39389 Y19.11055
G01 X43.17350 Y19.20405
G01 X42.98241 Y19.34809
G01 X42.77992 Y19.60121
G01 X42.67149 Y19.86115
G01 X42.63278 Y20.14075
G01 X42.66199 Y20.37827
G01 X42.71701 Y20.58429
G01 X42.67330 Y20.64172
G01 X37.92324 Y25.39177
G01 X37.85512 Y25.44135
G01 X37.61186 Y25.35133
G01 X37.46287 Y25.32710
G01 X37.30607 Y25.32710
G01 X37.09543 Y25.35801
G01 X36.39363 Y24.66972
G01 X36.26013 Y24.57902
G01 X36.10148 Y24.54877
G01 X35.67326 Y24.54877
G01 X35.59119 Y24.53599
G01 X35.42807 Y24.44725
G04 P0 ( dwell for no time -- G64 should not smooth over this point )
G00 Z10.00000 ( retract )

G00 X36.38855 Y23.78774 ( rapid move to begin. )
G01 F30.00000
G01 Z-0.10000
G04 P0 ( dwell for no time -- G64 should not smooth over this point )
G01 F360.00000
G01 X36.38855 Y23.78774
G01 X36.64775 Y23.78774
G01 X36.69927 Y23.96579
G01 X36.77765 Y24.10160
G01 X36.88258 Y24.21814
G01 X37.00945 Y24.31029
G01 X37.15268 Y24.37407
G01 X37.25748 Y24.39634
G01 X37.25748 Y24.65667
G01 X37.12235 Y24.63889
G01 X36.87801 Y24.53780
G01 X36.66846 Y24.37676
G01 X36.50742 Y24.16696
G01 X36.40633 Y23.92286
G01 X36.38855 Y23.78774
G04 P0 ( dwell for no time -- G64 should not smooth over this point )
G00 Z10.00000 ( retract )

G00 X36.38855 Y23.53374 ( rapid move to begin. )
G01 F30.00000
G01 Z-0.10000
G04 P0 ( dwell for no time -- G64 should not smooth over this point )
G01 F360.00000
G01 X36.38855 Y23.53374
G01 X36.64775 Y23.53371
G01 X36.69927 Y23.35566
G01 X36.77765 Y23.21984
G01 X36.88258 Y23.10331
G01 X37.00945 Y23.01116
G01 X37.15268 Y22.94738
G01 X37.25748 Y22.92510
G01 X37.25748 Y22.66480
G01 X37.12235 Y22.68258
G01 X36.87801 Y22.78367
G01 X36.66846 Y22.94471
G01 X36.50742 Y23.15451
G01 X36.40633 Y23.39861
G01 X36.38855 Y23.53374
G04 P0 ( dwell for no time -- G64 should not smooth over this point )
G00 Z10.00000 ( retract )

G00 X37.51148 Y22.66480 ( rapid move to begin. )
G01 F30.00000
G01 Z-0.10000
G04 P0 ( dwell for no time -- G64 should not smooth over this point )
G01 F360.00000
G01 X37.51148 Y22.66480
G01 X37.51148 Y22.92510
G01 X37.61626 Y22.94738
G01 X37.75951 Y23.01116
G01 X37.88636 Y23.10331
G01 X37.99129 Y23.21984
G01 X38.06967 Y23.35566
G01 X38.12118 Y23.53371
G01 X38.38042 Y23.53374
G01 X38.36264 Y23.39861
G01 X38.26129 Y23.15451
G01 X38.10051 Y22.94471
G01 X37.89070 Y22.78367
G01 X37.64636 Y22.68258
G01 X37.51148 Y22.66480
G04 P0 ( dwell for no time -- G64 should not smooth over this point )
G00 Z10.00000 ( retract )

G00 X38.79037 Y21.59013 ( rapid move to begin. )
G01 F30.00000
G01 Z-0.10000
G04 P0 ( dwell for no time -- G64 should not smooth over this point )
G01 F360.00000
G01 X38.79037 Y21.59013
G01 X38.80434 Y21.69528
G01 X38.89375 Y21.91144
G01 X39.03624 Y22.09736
G01 X39.22217 Y22.23960
G01 X39.43833 Y22.32927
G01 X39.54348 Y22.34324
G01 X39.54346 Y22.08174
G01 X39.35298 Y22.01304
G01 X39.24557 Y21.93501
G01 X39.15674 Y21.83635
G01 X39.09037 Y21.72139
G01 X39.04882 Y21.59010
G01 X38.79037 Y21.59013
G04 P0 ( dwell for no time -- G64 should not smooth over this point )
G00 Z10.00000 ( retract )

G00 X39.79748 Y22.08174 ( rapid move to begin. )
G01 F30.00000
G01 Z-0.10000
G04 P0 ( dwell for no time -- G64 should not smooth over this point )
G01 F360.00000
G01 X39.79748 Y22.08174
G01 X39.79748 Y22.34324
G01 X39.90238 Y22.32927
G01 X40.11879 Y22.23960
G01 X40.30447 Y22.09736
G01 X40.44696 Y21.91144
G01 X40.53637 Y21.69528
G01 X40.55034 Y21.59013
G01 X40.29212 Y21.59010
G01 X40.25057 Y21.72139
G01 X40.18420 Y21.83635
G01 X40.09537 Y21.93501
G01 X39.98798 Y22.01304
G01 X39.79748 Y22.08174
G04 P0 ( dwell for no time -- G64 should not smooth over this point )
G00 Z10.00000 ( retract )

G00 X39.79748 Y20.58327 ( rapid move to begin. )
G01 F30.00000
G01 Z-0.10000
G04 P0 ( dwell for no time -- G64 should not smooth over this point )
G01 F360.00000
G01 X39.79748 Y20.58327
G01 X39.79748 Y20.84448
G01 X39.98798 Y20.91319
G01 X40.09537 Y20.99122
G01 X40.18420 Y21.08987
G01 X40.25057 Y21.20483
G01 X40.29212 Y21.33613
G01 X40.55034 Y21.33613
G01 X40.53637 Y21.23122
G01 X40.44696 Y21.01482
G01 X40.30447 Y20.82914
G01 X40.11879 Y20.68665
G01 X39.90238 Y20.59699
G01 X39.79748 Y20.58327
G04 P0 ( dwell for no time -- G64 should not smooth over this point )
G00 Z10.00000 ( retract )

G00 X38.79037 Y21.33613 ( rapid move to begin. )
G01 F30.00000
G01 Z-0.10000
G04 P0 ( dwell for no time -- G64 should not smooth over this point )
G01 F360.00000
G01 X38.79037 Y21.33613
G01 X39.04882 Y21.33613
G01 X39.09037 Y21.20483
G01 X39.15674 Y21.08987
G01 X39.24557 Y20.99122
G01 X39.35298 Y20.91319
G01 X39.54346 Y20.84448
G01 X39.54348 Y20.58327
G01 X39.43833 Y20.59699
G01 X39.22217 Y20.68665
G01 X39.03624 Y20.82914
G01 X38.89375 Y21.01482
G01 X38.80434 Y21.23122
G01 X38.79037 Y21.33613
G04 P0 ( dwell for no time -- G64 should not smooth over this point )
G00 Z10.00000 ( retract )

G00 X36.50366 Y21.12071 ( rapid move to begin. )
G01 F30.00000
G01 Z-0.10000
G04 P0 ( dwell for no time -- G64 should not smooth over this point )
G01 F360.00000
G01 X36.50366 Y21.12071
G01 X36.52792 Y21.31659
G01 X36.57816 Y21.46513
G01 X36.62345 Y21.56018
G01 X36.76269 Y21.74250
G01 X36.94400 Y21.88352
G01 X37.10054 Y21.95114
G01 X37.38446 Y21.99947
G01 X37.66835 Y21.95111
G01 X37.82477 Y21.88357
G01 X38.00622 Y21.74250
G01 X38.14534 Y21.56023
G01 X38.19070 Y21.46511
G01 X38.24102 Y21.31659
G01 X38.26528 Y21.12071
G01 X38.24102 Y20.92482
G01 X38.19068 Y20.77631
G01 X38.14539 Y20.68142
G01 X38.00620 Y20.49892
G01 X37.82477 Y20.35787
G01 X37.66835 Y20.29031
G01 X37.38446 Y20.24195
G01 X37.10054 Y20.29028
G01 X36.94397 Y20.35787
G01 X36.76272 Y20.49892
G01 X36.62340 Y20.68147
G01 X36.57818 Y20.77629
G01 X36.52792 Y20.92482
G01 X36.50366 Y21.12071
G04 P0 ( dwell for no time -- G64 should not smooth over this point )
G00 Z10.00000 ( retract )

G00 X36.58260 Y19.15099 ( rapid move to begin. )
G01 F30.00000
G01 Z-0.10000
G04 P0 ( dwell for no time -- G64 should not smooth over this point )
G01 F360.00000
G01 X36.58260 Y19.15099
G01 X36.78573 Y19.22531
G01 X36.94394 Y19.34352
G01 X37.15682 Y19.43009
G01 X37.38446 Y19.45947
G01 X37.64310 Y19.42041
G01 X37.83602 Y19.33562
G01 X38.00620 Y19.20253
G01 X38.10178 Y19.08536
G01 X38.18016 Y18.94954
G01 X38.23383 Y18.80827
G01 X38.26528 Y18.58071
G01 X38.23386 Y18.35318
G01 X38.18016 Y18.21188
G01 X38.10175 Y18.07606
G01 X38.00620 Y17.95892
G01 X37.83602 Y17.82582
G01 X37.64310 Y17.74101
G01 X37.38446 Y17.70197
G01 X37.15682 Y17.73133
G01 X36.94394 Y17.81792
G01 X36.78573 Y17.93611
G01 X36.58258 Y18.01045
G04 P0 ( dwell for no time -- G64 should not smooth over this point )
G00 Z10.00000 ( retract )

G00 X35.61784 Y17.98025 ( rapid move to begin. )
G01 F30.00000
G01 Z-0.10000
G04 P0 ( dwell for no time -- G64 should not smooth over this point )
G01 F360.00000
G01 X35.61784 Y17.98025
G01 X35.70379 Y17.82140
G01 X35.71651 Y17.73949
G01 X35.71651 Y16.88196
G01 X35.70374 Y16.79989
G01 X35.61781 Y16.64127
G04 P0 ( dwell for no time -- G64 should not smooth over this point )
G00 Z10.00000 ( retract )

G00 X37.51148 Y15.04480 ( rapid move to begin. )
G01 F30.00000
G01 Z-0.10000
G04 P0 ( dwell for no time -- G64 should not smooth over this point )
G01 F360.00000
G01 X37.51148 Y15.04480
G01 X37.51148 Y15.30510
G01 X37.61626 Y15.32738
G01 X37.75951 Y15.39116
G01 X37.88636 Y15.48331
G01 X37.99129 Y15.59984
G01 X38.06967 Y15.73566
G01 X38.12118 Y15.91373
G01 X38.38042 Y15.91373
G01 X38.36264 Y15.77861
G01 X38.26129 Y15.53451
G01 X38.10051 Y15.32471
G01 X37.89070 Y15.16367
G01 X37.64636 Y15.06258
G01 X37.51148 Y15.04480
G04 P0 ( dwell for no time -- G64 should not smooth over this point )
G00 Z10.00000 ( retract )

G00 X36.50366 Y13.50074 ( rapid move to begin. )
G01 F30.00000
G01 Z-0.10000
G04 P0 ( dwell for no time -- G64 should not smooth over this point )
G01 F360.00000
G01 X36.50366 Y13.50074
G01 X36.52792 Y13.30482
G01 X36.57818 Y13.15629
G01 X36.62340 Y13.06147
G01 X36.76272 Y12.87892
G01 X36.94397 Y12.73790
G01 X37.10054 Y12.67028
G01 X37.38446 Y12.62197
G01 X37.66835 Y12.67033
G01 X37.82477 Y12.73787
G01 X38.00620 Y12.87892
G01 X38.14539 Y13.06142
G01 X38.19068 Y13.15631
G01 X38.24102 Y13.30482
G01 X38.26528 Y13.50074
G01 X38.24102 Y13.69659
G01 X38.19070 Y13.84511
G01 X38.14534 Y13.94023
G01 X38.00622 Y14.12250
G01 X37.82477 Y14.26357
G01 X37.66835 Y14.33111
G01 X37.38446 Y14.37947
G01 X37.10054 Y14.33114
G01 X36.94400 Y14.26352
G01 X36.76269 Y14.12250
G01 X36.62345 Y13.94018
G01 X36.57816 Y13.84513
G01 X36.52792 Y13.69659
G01 X36.50366 Y13.50074
G04 P0 ( dwell for no time -- G64 should not smooth over this point )
G00 Z10.00000 ( retract )

G00 X34.24517 Y14.27333 ( rapid move to begin. )
G01 F30.00000
G01 Z-0.10000
G04 P0 ( dwell for no time -- G64 should not smooth over this point )
G01 F360.00000
G01 X34.24517 Y14.27333
G01 X34.55088 Y14.35278
G01 X34.76607 Y14.37566
G01 X35.10679 Y14.35776
G01 X35.41951 Y14.28118
G01 X35.45873 Y14.15931
G01 X35.60534 Y13.94023
G01 X35.65070 Y13.84511
G01 X35.70102 Y13.69659
G01 X35.72528 Y13.50074
G01 X35.69386 Y13.27318
G01 X35.64016 Y13.13188
G01 X35.56175 Y12.99606
G01 X35.44235 Y12.85684
G01 X35.27245 Y12.73221
G01 X35.07186 Y12.65131
G01 X34.92287 Y12.62710
G01 X34.76607 Y12.62710
G01 X34.61682 Y12.65133
G01 X34.40394 Y12.73792
G01 X34.22254 Y12.87897
G01 X34.08342 Y13.06142
G01 X33.99508 Y13.27310
G01 X33.96491 Y13.48712
G01 X33.99511 Y13.72837
G01 X34.08347 Y13.94023
G01 X34.16132 Y14.04889
G01 X34.21954 Y14.16891
G01 X34.24517 Y14.27333
G01 X34.08523 Y14.36002
G01 X34.00321 Y14.37277
G01 X33.08383 Y14.36754
G01 X30.66131 Y11.95238
G01 X30.61543 Y11.89111
G01 X30.65722 Y11.59573
G01 X30.62541 Y11.36505
G01 X30.53591 Y11.15047
G01 X30.39240 Y10.92312
G01 X30.36092 Y10.80455
G01 X30.03139 Y10.72302
G01 X29.68483 Y10.70480
G01 X29.46537 Y10.72812
G01 X29.16784 Y10.80460
G04 P0 ( dwell for no time -- G64 should not smooth over this point )
G00 Z10.00000 ( retract )

G00 X28.87165 Y9.91095 ( rapid move to begin. )
G01 F30.00000
G01 Z-0.10000
G04 P0 ( dwell for no time -- G64 should not smooth over this point )
G01 F360.00000
G01 X28.87165 Y9.91095
G01 X28.74846 Y9.93971
G01 X27.62227 Y9.93971
G01 X27.46367 Y9.96993
G01 X27.33010 Y10.06079
G01 X26.59687 Y10.79414
G01 X26.55606 Y10.82754
G01 X26.50363 Y10.83274
G01 X25.50998 Y10.83274
G01 X25.40767 Y10.81291
G01 X25.38296 Y10.70089
G01 X25.38296 Y10.45274
G01 X25.36116 Y10.34753
G01 X25.25593 Y10.32573
G01 X24.11298 Y10.32573
G01 X24.00775 Y10.34750
G01 X23.98598 Y10.45274
G01 X23.98598 Y11.97673
G01 X24.00775 Y12.08194
G01 X24.11298 Y12.10371
G01 X25.25593 Y12.10371
G01 X25.36116 Y12.08192
G01 X25.38296 Y11.97673
G01 X25.38296 Y11.72858
G01 X25.40767 Y11.61649
G01 X25.50998 Y11.59667
G01 X26.70348 Y11.59667
G01 X26.86213 Y11.56642
G01 X26.99560 Y11.47572
G01 X27.76967 Y10.70882
G01 X28.92349 Y10.70361
G01 X29.00556 Y10.71639
G01 X29.16784 Y10.80460
G01 X29.13642 Y10.92302
G01 X28.99306 Y11.15040
G01 X28.90347 Y11.36510
G01 X28.87284 Y11.60932
G01 X28.90347 Y11.82634
G01 X28.95778 Y11.96950
G01 X29.03743 Y12.10744
G01 X29.15851 Y12.24851
G01 X29.31790 Y12.36889
G01 X29.53360 Y12.45667
G01 X29.76446 Y12.48649
G01 X30.06235 Y12.44808
G01 X30.12095 Y12.49248
G01 X32.64411 Y15.01567
G01 X32.76658 Y15.10015
G01 X32.93643 Y15.13667
G01 X34.02787 Y15.13667
G01 X34.10994 Y15.14945
G01 X34.27641 Y15.24028
G01 X34.23232 Y15.38404
G01 X34.08340 Y15.60147
G01 X34.03818 Y15.69629
G01 X33.98792 Y15.84482
G01 X33.96366 Y16.04073
G01 X33.99511 Y16.26837
G01 X34.08347 Y16.48023
G01 X34.22251 Y16.66243
G01 X34.40394 Y16.80352
G01 X34.61682 Y16.89009
G01 X34.84446 Y16.91947
G01 X34.94933 Y16.91119
G01 X35.12835 Y16.87111
G01 X35.28479 Y16.80355
G01 X35.44852 Y16.69014
G01 X35.61781 Y16.64127
G01 X35.67760 Y16.43116
G01 X35.70986 Y16.23946
G01 X35.71288 Y15.87058
G01 X35.64750 Y15.53797
G01 X35.48583 Y15.35770
G01 X35.31354 Y15.20942
G01 X34.95335 Y15.15138
G01 X34.57875 Y15.16786
G01 X34.27641 Y15.24028
G04 P0 ( dwell for no time -- G64 should not smooth over this point )
G00 Z10.00000 ( retract )

G00 X35.41951 Y14.28118 ( rapid move to begin. )
G01 F30.00000
G01 Z-0.10000
G04 P0 ( dwell for no time -- G64 should not smooth over this point )
G01 F360.00000
G01 X35.41951 Y14.28118
G01 X35.56396 Y14.37348
G01 X35.65860 Y14.40924
G01 X35.78116 Y14.49377
G01 X36.35934 Y15.07195
G01 X36.45019 Y15.20556
G01 X36.49221 Y15.35110
G01 X36.57783 Y15.48735
G01 X36.52830 Y15.68008
G01 X36.49185 Y16.02575
G01 X36.50346 Y16.24454
G01 X36.58260 Y16.61099
G01 X36.49317 Y16.77533
G01 X36.48042 Y16.85734
G01 X36.48042 Y17.76412
G01 X36.49317 Y17.84612
G01 X36.58258 Y18.01045
G01 X36.50346 Y18.37687
G01 X36.49185 Y18.59570
G01 X36.52830 Y18.94134
G01 X36.58260 Y19.15099
G01 X36.49317 Y19.31533
G01 X36.48042 Y19.39732
G01 X36.47036 Y19.92803
G01 X36.45017 Y20.01236
G01 X36.35924 Y20.14609
G01 X35.68550 Y20.83463
G01 X35.72528 Y21.12071
G01 X35.69383 Y21.34829
G01 X35.60534 Y21.56023
G01 X35.46622 Y21.74250
G01 X35.28477 Y21.88357
G01 X35.12835 Y21.95111
G01 X34.84446 Y21.99947
G01 X34.56054 Y21.95114
G01 X34.40394 Y21.88352
G01 X34.24652 Y21.76462
G01 X34.08347 Y21.56023
G01 X33.98792 Y21.31659
G01 X33.96366 Y21.12071
G01 X33.98792 Y20.92482
G01 X34.03735 Y20.74527
G01 X34.01195 Y20.51530
G01 X33.79381 Y20.55373
G01 X33.70260 Y20.61385
G01 X33.01012 Y21.30633
G01 X32.89676 Y21.39566
G01 X32.72119 Y21.47392
G01 X32.57116 Y21.49526
G01 X23.16632 Y21.49696
G01 X23.05609 Y21.52025
G01 X23.03442 Y21.62721
G01 X23.03442 Y22.64474
G01 X23.05426 Y22.74700
G01 X23.32919 Y22.79350
G01 X23.35098 Y22.89873
G01 X23.35098 Y24.42271
G01 X23.32919 Y24.52794
G01 X23.05426 Y24.57445
G01 X23.03442 Y24.67673
G01 X23.03442 Y25.18473
G01 X23.05426 Y25.28700
G01 X23.32919 Y25.33350
G01 X23.35098 Y25.43873
G01 X23.35098 Y26.96271
G01 X23.32919 Y27.06794
G01 X23.22398 Y27.08971
G01 X22.08096 Y27.08971
G01 X21.97575 Y27.06794
G01 X21.95396 Y26.96271
G01 X21.95396 Y25.43873
G01 X21.97575 Y25.33350
G01 X22.25060 Y25.28694
G01 X22.27039 Y25.18473
G01 X22.27039 Y24.67673
G01 X22.25060 Y24.57450
G01 X21.97575 Y24.52794
G01 X21.95396 Y24.42271
G01 X21.95396 Y22.89873
G01 X21.97575 Y22.79350
G01 X22.25060 Y22.74694
G01 X22.27039 Y22.64474
G01 X22.27039 Y21.62721
G01 X22.24875 Y21.52033
G01 X22.13839 Y21.49696
G01 X2.84899 Y21.49696
G01 X2.67772 Y21.47392
G01 X2.50215 Y21.39566
G01 X2.38882 Y21.30633
G01 X1.63883 Y20.55637
G01 X1.53403 Y20.41903
G01 X1.46113 Y20.21474
G01 X1.44823 Y20.09620
G01 X1.44823 Y19.59673
G01 X1.37996 Y19.34273
G01 X1.37996 Y17.81873
G01 X1.44823 Y17.56473
G01 X1.44823 Y16.54874
G01 X1.37996 Y16.29473
G01 X1.37996 Y14.77074
G01 X1.44823 Y14.51674
G01 X1.44823 Y13.12075
G01 X1.43657 Y13.04285
G01 X1.19395 Y12.86073
G01 X1.09743 Y12.74244
G01 X1.01778 Y12.60450
G01 X0.96347 Y12.46134
G01 X0.93284 Y12.24432
G01 X0.95618 Y12.03234
G01 X1.05306 Y11.78540
G01 X1.23922 Y11.56068
G01 X1.37790 Y11.45756
G01 X1.53683 Y11.38888
G01 X1.82446 Y11.34006
G01 X2.11206 Y11.38890
G01 X2.27084 Y11.45751
G01 X2.40970 Y11.56071
G01 X2.59585 Y11.78540
G01 X2.68541 Y12.00005
G01 X2.71722 Y12.23068
G01 X2.69862 Y12.39152
G01 X2.70871 Y14.51674
G01 X2.77698 Y14.77074
G01 X2.77698 Y16.29473
G01 X2.70871 Y16.54874
G01 X2.70871 Y17.56473
G01 X2.77698 Y17.81873
G01 X2.77698 Y19.34273
G01 X2.70871 Y19.59673
G01 X2.70871 Y19.78978
G01 X2.71384 Y19.84154
G01 X2.74686 Y19.88185
G01 X3.10365 Y20.23133
G01 X32.24327 Y20.23646
G01 X32.29526 Y20.23128
G01 X32.33539 Y20.19838
G01 X33.96143 Y18.56677
G01 X34.00341 Y18.29460
G01 X33.38452 Y17.66824
G01 X30.58538 Y17.66288
G01 X30.50349 Y17.67561
G01 X30.33568 Y17.76722
G04 P0 ( dwell for no time -- G64 should not smooth over this point )
G00 Z10.00000 ( retract )

G00 X30.64723 Y16.91571 ( rapid move to begin. )
G01 F30.00000
G01 Z-0.10000
G04 P0 ( dwell for no time -- G64 should not smooth over this point )
G01 F360.00000
G01 X30.64723 Y16.91571
G01 X30.52648 Y16.94190
G01 X29.00248 Y16.94190
G01 X28.88171 Y16.91571
G01 X28.87548 Y16.04658
G01 X28.85074 Y15.93449
G01 X28.74848 Y15.91467
G01 X25.50998 Y15.91467
G01 X25.40767 Y15.93451
G01 X25.38296 Y16.04658
G01 X25.38296 Y16.29473
G01 X25.36116 Y16.39992
G01 X25.25593 Y16.42173
G01 X24.11298 Y16.42173
G01 X24.00775 Y16.39994
G01 X23.98598 Y16.29473
G01 X23.98598 Y14.77074
G01 X24.00775 Y14.66550
G01 X24.11298 Y14.64373
G01 X25.25593 Y14.64373
G01 X25.36116 Y14.66553
G01 X25.38296 Y14.77074
G01 X25.38296 Y15.01889
G01 X25.40767 Y15.13091
G01 X25.50998 Y15.15074
G01 X30.52648 Y15.15171
G01 X30.63169 Y15.17350
G01 X30.65346 Y15.27871
G01 X30.64723 Y16.91571
G01 X30.78048 Y16.94939
G01 X33.43780 Y16.94939
G01 X33.56983 Y16.92590
G01 X33.64189 Y16.93631
G01 X33.71545 Y16.95453
G01 X33.84908 Y17.04528
G01 X34.55543 Y17.73801
G01 X34.84446 Y17.70197
G01 X35.07186 Y17.73131
G01 X35.28471 Y17.81785
G01 X35.44842 Y17.93141
G01 X35.61784 Y17.98025
G01 X35.67760 Y18.19026
G01 X35.70986 Y18.38195
G01 X35.72111 Y18.56740
G01 X35.70986 Y18.77946
G01 X35.67760 Y18.97116
G01 X35.62058 Y19.17403
G01 X35.53219 Y19.39394
G01 X35.43094 Y19.59023
G01 X35.01243 Y19.85947
G01 X34.76605 Y19.95698
G01 X34.48060 Y20.11075
G01 X34.18083 Y20.34062
G01 X34.01195 Y20.51530
G04 P0 ( dwell for no time -- G64 should not smooth over this point )
G00 Z10.00000 ( retract )

G00 X31.92346 Y22.62248 ( rapid move to begin. )
G01 F30.00000
G01 Z-0.10000
G04 P0 ( dwell for no time -- G64 should not smooth over this point )
G01 F360.00000
G01 X31.92346 Y22.62248
G01 X31.92348 Y22.36127
G01 X32.02838 Y22.37499
G01 X32.24479 Y22.46465
G01 X32.43047 Y22.60714
G01 X32.57296 Y22.79282
G01 X32.66262 Y23.00922
G01 X32.67634 Y23.11413
G01 X32.41812 Y23.11413
G01 X32.37657 Y22.98283
G01 X32.31020 Y22.86787
G01 X32.22137 Y22.76922
G01 X32.11398 Y22.69119
G01 X31.92346 Y22.62248
G04 P0 ( dwell for no time -- G64 should not smooth over this point )
G00 Z10.00000 ( retract )

G00 X31.92346 Y23.85974 ( rapid move to begin. )
G01 F30.00000
G01 Z-0.10000
G04 P0 ( dwell for no time -- G64 should not smooth over this point )
G01 F360.00000
G01 X31.92346 Y23.85974
G01 X32.11398 Y23.79104
G01 X32.22137 Y23.71301
G01 X32.31020 Y23.61435
G01 X32.37657 Y23.49939
G01 X32.41812 Y23.36810
G01 X32.67634 Y23.36813
G01 X32.66262 Y23.47328
G01 X32.57296 Y23.68944
G01 X32.43047 Y23.87536
G01 X32.24479 Y24.01760
G01 X32.02838 Y24.10727
G01 X31.92348 Y24.12124
G01 X31.92346 Y23.85974
G04 P0 ( dwell for no time -- G64 should not smooth over this point )
G00 Z10.00000 ( retract )

G00 X34.26069 Y24.44720 ( rapid move to begin. )
G01 F30.00000
G01 Z-0.10000
G04 P0 ( dwell for no time -- G64 should not smooth over this point )
G01 F360.00000
G01 X34.26069 Y24.44720
G01 X34.54748 Y24.52042
G01 X34.76605 Y24.54366
G01 X35.10849 Y24.52566
G01 X35.42807 Y24.44725
G01 X35.46234 Y24.32256
G01 X35.65068 Y24.00511
G01 X35.70102 Y23.85659
G01 X35.72403 Y23.64710
G01 X35.69386 Y23.43318
G01 X35.60539 Y23.22142
G01 X35.46620 Y23.03892
G01 X35.28477 Y22.89787
G01 X35.10310 Y22.82101
G01 X34.94933 Y22.79025
G01 X34.84446 Y22.78197
G01 X34.61682 Y22.81133
G01 X34.40394 Y22.89792
G01 X34.24652 Y23.01682
G01 X34.14304 Y23.13465
G01 X34.08342 Y23.22142
G01 X33.99508 Y23.43310
G01 X33.96366 Y23.66073
G01 X33.98792 Y23.85659
G01 X34.03818 Y24.00513
G01 X34.22647 Y24.32263
G01 X34.26069 Y24.44720
G01 X34.09749 Y24.53599
G01 X34.01540 Y24.54877
G01 X31.70281 Y24.54354
G01 X31.47411 Y24.32218
G01 X31.41924 Y24.24336
G01 X31.37035 Y24.03163
G01 X31.12287 Y23.82911
G01 X30.89361 Y23.67445
G01 X30.86651 Y23.52307
G01 X30.76473 Y23.41436
G01 X30.68129 Y23.29548
G01 X30.65346 Y23.17661
G01 X30.65346 Y22.26373
G01 X30.63169 Y22.15850
G01 X30.52648 Y22.13673
G01 X29.00248 Y22.13673
G01 X28.89725 Y22.15850
G01 X28.87548 Y22.26373
G01 X28.87548 Y22.51187
G01 X28.85077 Y22.62393
G01 X28.74848 Y22.64377
G01 X25.33244 Y22.64377
G01 X25.17358 Y22.67407
G01 X25.03769 Y22.76572
G01 X24.98242 Y22.77173
G01 X24.11298 Y22.77173
G01 X24.00775 Y22.79350
G01 X23.98598 Y22.89873
G01 X23.98598 Y24.42271
G01 X24.00775 Y24.52794
G01 X24.11298 Y24.54974
G01 X25.25593 Y24.54974
G01 X25.36116 Y24.52792
G01 X25.38296 Y24.42271
G01 X25.38296 Y23.56193
G01 X25.39081 Y23.49873
G01 X25.47981 Y23.41288
G01 X28.74848 Y23.40767
G01 X28.85074 Y23.42751
G01 X28.87548 Y23.53958
G01 X28.87165 Y23.88095
G01 X29.00248 Y23.91466
G01 X30.52648 Y23.91466
G01 X30.65341 Y23.88293
G01 X30.78035 Y23.78771
G01 X30.89361 Y23.67445
G04 P0 ( dwell for no time -- G64 should not smooth over this point )
G00 Z10.00000 ( retract )

G00 X29.16784 Y24.77460 ( rapid move to begin. )
G01 F30.00000
G01 Z-0.10000
G04 P0 ( dwell for no time -- G64 should not smooth over this point )
G01 F360.00000
G01 X29.16784 Y24.77460
G01 X29.49753 Y24.69302
G01 X29.84409 Y24.67480
G01 X30.06354 Y24.69812
G01 X30.42303 Y24.79472
G01 X30.65374 Y24.89436
G01 X30.83517 Y25.13406
G01 X31.01292 Y25.45532
G01 X31.24909 Y25.53144
G01 X31.45546 Y25.56236
G01 X33.70946 Y25.56571
G01 X33.82452 Y25.45065
G01 X33.95947 Y25.34945
G01 X34.09442 Y25.31572
G01 X35.59454 Y25.31572
G01 X35.68484 Y25.33081
G01 X35.77516 Y25.37615
G01 X35.72142 Y25.55733
G01 X35.72142 Y26.95080
G01 X35.69957 Y27.05608
G01 X35.59454 Y27.07780
G01 X34.09442 Y27.07780
G01 X33.98919 Y27.05600
G01 X33.96742 Y26.95080
G01 X33.96742 Y26.71458
G01 X33.94268 Y26.60251
G01 X33.84042 Y26.58267
G01 X30.41244 Y26.58267
G01 X30.25427 Y26.55258
G01 X30.06235 Y26.41808
G01 X29.76446 Y26.45649
G01 X29.50210 Y26.41689
G01 X29.31790 Y26.33889
G01 X29.13421 Y26.19604
G01 X28.99308 Y26.01105
G01 X28.89618 Y25.76408
G01 X28.87160 Y25.56571
G01 X28.90347 Y25.33510
G01 X28.99306 Y25.12040
G01 X29.13642 Y24.89302
G01 X29.16784 Y24.77460
G01 X29.00556 Y24.68639
G01 X28.92346 Y24.67361
G01 X28.58412 Y24.67361
G01 X28.53167 Y24.67882
G01 X28.49088 Y24.71224
G01 X26.74163 Y26.46172
G01 X26.60810 Y26.55242
G01 X26.44948 Y26.58267
G01 X25.50998 Y26.58267
G01 X25.40767 Y26.60249
G01 X25.38296 Y26.71458
G01 X25.38296 Y26.96271
G01 X25.36116 Y27.06792
G01 X25.25593 Y27.08971
G01 X24.11298 Y27.08971
G01 X24.00775 Y27.06794
G01 X23.98598 Y26.96271
G01 X23.98598 Y25.43873
G01 X24.00775 Y25.33350
G01 X24.11298 Y25.31173
G01 X25.25593 Y25.31173
G01 X25.36116 Y25.33353
G01 X25.38296 Y25.43873
G01 X25.38296 Y25.68687
G01 X25.40767 Y25.79893
G01 X25.50998 Y25.81877
G01 X26.30206 Y25.81356
G01 X28.11226 Y24.01463
G01 X28.22570 Y23.93993
G01 X28.31003 Y23.91976
G01 X28.74848 Y23.90971
G01 X28.87165 Y23.88095
G04 P0 ( dwell for no time -- G64 should not smooth over this point )
G00 Z10.00000 ( retract )

G00 X29.19326 Y17.76722 ( rapid move to begin. )
G01 F30.00000
G01 Z-0.10000
G04 P0 ( dwell for no time -- G64 should not smooth over this point )
G01 F360.00000
G01 X29.19326 Y17.76722
G01 X29.45994 Y17.70093
G01 X29.68483 Y17.67703
G01 X30.03408 Y17.69539
G01 X30.33568 Y17.76722
G01 X30.38310 Y17.91647
G01 X30.53585 Y18.13540
G01 X30.58168 Y18.23143
G01 X30.63273 Y18.38234
G01 X30.65722 Y18.58073
G01 X30.62541 Y18.81139
G01 X30.53588 Y19.02600
G01 X30.39458 Y19.21106
G01 X30.21081 Y19.35394
G01 X30.02679 Y19.43184
G01 X29.87058 Y19.46311
G01 X29.76446 Y19.47149
G01 X29.53360 Y19.44167
G01 X29.31790 Y19.35389
G01 X29.13421 Y19.21104
G01 X29.03743 Y19.09244
G01 X28.95778 Y18.95450
G01 X28.90347 Y18.81134
G01 X28.87284 Y18.56712
G01 X28.89618 Y18.38234
G01 X28.94726 Y18.23143
G01 X28.99306 Y18.13540
G01 X29.14581 Y17.91650
G01 X29.19326 Y17.76722
G01 X29.02542 Y17.67561
G01 X28.94355 Y17.66288
G01 X23.28796 Y17.66288
G01 X23.15594 Y17.68640
G01 X23.01024 Y17.65772
G01 X22.88664 Y17.57538
G01 X22.34608 Y17.02242
G01 X22.30062 Y16.94830
G01 X22.28045 Y16.86397
G01 X22.27039 Y16.54871
G01 X22.25060 Y16.44653
G01 X21.97575 Y16.39994
G01 X21.95396 Y16.29473
G01 X21.95396 Y14.77074
G01 X21.97575 Y14.66550
G01 X22.25060 Y14.61894
G01 X22.27039 Y14.51674
G01 X22.27039 Y12.23071
G01 X22.25060 Y12.12850
G01 X21.97575 Y12.08194
G01 X21.95396 Y11.97673
G01 X21.95396 Y10.45274
G01 X21.97575 Y10.34750
G01 X22.25060 Y10.30094
G01 X22.27039 Y10.19873
G01 X22.27039 Y9.69071
G01 X22.25060 Y9.58850
G01 X21.97575 Y9.54194
G01 X21.95396 Y9.43673
G01 X21.95396 Y7.91274
G01 X21.97575 Y7.80750
G01 X22.08096 Y7.78571
G01 X23.22398 Y7.78571
G01 X23.32919 Y7.80750
G01 X23.35098 Y7.91274
G01 X23.35098 Y9.43673
G01 X23.32919 Y9.54194
G01 X23.05426 Y9.58845
G01 X23.03442 Y9.69071
G01 X23.03442 Y10.19873
G01 X23.05426 Y10.30100
G01 X23.32919 Y10.34750
G01 X23.35098 Y10.45274
G01 X23.35098 Y11.97673
G01 X23.32919 Y12.08194
G01 X23.05423 Y12.12845
G01 X23.03442 Y12.23071
G01 X23.03442 Y14.51674
G01 X23.05423 Y14.61900
G01 X23.32919 Y14.66550
G01 X23.35098 Y14.77074
G01 X23.35098 Y16.29473
G01 X23.32919 Y16.39994
G01 X23.22398 Y16.43057
G01 X23.10028 Y16.49250
G01 X23.07466 Y16.62783
G01 X23.14926 Y16.75933
G01 X23.34123 Y16.94409
G01 X23.39416 Y16.94939
G01 X28.74848 Y16.94939
G01 X28.88171 Y16.91571
G04 P0 ( dwell for no time -- G64 should not smooth over this point )
G00 Z10.00000 ( retract )

G00 X17.84830 Y5.95948 ( rapid move to begin. )
G01 F30.00000
G01 Z-0.10000
G04 P0 ( dwell for no time -- G64 should not smooth over this point )
G01 F360.00000
G01 X17.84830 Y5.95948
G01 X18.31658 Y5.96354
G01 X18.67240 Y5.91944
G01 X18.97050 Y5.84606
G01 X19.44510 Y6.02064
G01 X19.78863 Y6.08470
G01 X20.05076 Y6.10065
G01 X20.80458 Y6.08907
G01 X21.18952 Y6.02064
G01 X21.37682 Y5.96392
G01 X21.15988 Y5.44132
G01 X20.98619 Y5.12221
G01 X20.77311 Y4.80817
G01 X20.59737 Y4.67065
G01 X20.58452 Y4.25336
G01 X20.64370 Y3.93957
G01 X20.64873 Y3.58087
G01 X20.40100 Y3.55435
G01 X20.20156 Y3.55567
G01 X19.24868 Y3.67040
G01 X18.63974 Y2.81727
G01 X18.47306 Y2.60027
G01 X18.27949 Y2.38328
G01 X18.05534 Y2.40734
G04 P0 ( dwell for no time -- G64 should not smooth over this point )
G00 Z10.00000 ( retract )

G00 X18.04462 Y2.41734 ( rapid move to begin. )
G01 F30.00000
G01 Z-0.10000
G04 P0 ( dwell for no time -- G64 should not smooth over this point )
G01 F360.00000
G01 X18.04462 Y2.41734
G01 X18.05534 Y2.40734
G01 X17.44398 Y1.83789
G04 P0 ( dwell for no time -- G64 should not smooth over this point )
G00 Z10.00000 ( retract )

G00 X19.24868 Y3.67040 ( rapid move to begin. )
G01 F30.00000
G01 Z-0.10000
G04 P0 ( dwell for no time -- G64 should not smooth over this point )
G01 F360.00000
G01 X19.24868 Y3.67040
G01 X19.24987 Y4.24193
G01 X19.18830 Y4.41734
G04 P0 ( dwell for no time -- G64 should not smooth over this point )
G00 Z10.00000 ( retract )

G00 X18.97050 Y5.84606 ( rapid move to begin. )
G01 F30.00000
G01 Z-0.10000
G04 P0 ( dwell for no time -- G64 should not smooth over this point )
G01 F360.00000
G01 X18.97050 Y5.84606
G01 X19.13021 Y4.71414
G01 X19.18830 Y4.41734
G01 X17.94723 Y4.41709
G04 P0 ( dwell for no time -- G64 should not smooth over this point )
G00 Z10.00000 ( retract )

G00 X17.35630 Y4.51714 ( rapid move to begin. )
G01 F30.00000
G01 Z-0.10000
G04 P0 ( dwell for no time -- G64 should not smooth over this point )
G01 F360.00000
G01 X17.35630 Y4.51714
G01 X17.67362 Y4.51714
G01 X17.60695 Y4.58394
G01 X17.42310 Y4.58394
G01 X17.35630 Y4.51714
G04 P0 ( dwell for no time -- G64 should not smooth over this point )
G00 Z10.00000 ( retract )

G00 X17.11513 Y5.95346 ( rapid move to begin. )
G01 F30.00000
G01 Z-0.10000
G04 P0 ( dwell for no time -- G64 should not smooth over this point )
G01 F360.00000
G01 X17.11513 Y5.95346
G01 X17.38960 Y5.96727
G01 X17.84830 Y5.95948
G01 X17.84952 Y4.85503
G01 X17.86438 Y4.73895
G01 X17.90383 Y4.62697
G01 X17.91909 Y4.50233
G01 X17.94723 Y4.41709
G01 X17.84253 Y4.22100
G01 X17.84883 Y2.63027
G04 P0 ( dwell for no time -- G64 should not smooth over this point )
G00 Z10.00000 ( retract )

G00 X17.18003 Y3.17619 ( rapid move to begin. )
G01 F30.00000
G01 Z-0.10000
G04 P0 ( dwell for no time -- G64 should not smooth over this point )
G01 F360.00000
G01 X17.18003 Y3.17619
G01 X17.18043 Y3.98094
G01 X17.11513 Y4.28432
G01 X17.11513 Y5.95346
G01 X16.86804 Y5.96633
G01 X16.25275 Y5.95917
G04 P0 ( dwell for no time -- G64 should not smooth over this point )
G00 Z10.00000 ( retract )

G00 X16.17358 Y5.96402 ( rapid move to begin. )
G01 F30.00000
G01 Z-0.10000
G04 P0 ( dwell for no time -- G64 should not smooth over this point )
G01 F360.00000
G01 X16.17358 Y5.96402
G01 X16.25275 Y5.95917
G01 X16.24886 Y4.88104
G01 X16.26461 Y4.74038
G01 X16.31544 Y4.55056
G01 X16.31838 Y3.42285
G01 X15.98216 Y3.40401
G04 P0 ( dwell for no time -- G64 should not smooth over this point )
G00 Z10.00000 ( retract )

G00 X15.58234 Y3.43065 ( rapid move to begin. )
G01 F30.00000
G01 Z-0.10000
G04 P0 ( dwell for no time -- G64 should not smooth over this point )
G01 F360.00000
G01 X15.58234 Y3.43065
G01 X15.98216 Y3.40401
G01 X15.98988 Y2.78465
G01 X16.08229 Y2.41714
G01 X16.04886 Y2.28410
G01 X16.04884 Y1.46395
G01 X15.88343 Y1.41422
G04 P0 ( dwell for no time -- G64 should not smooth over this point )
G00 Z10.00000 ( retract )

G00 X16.04884 Y1.46395 ( rapid move to begin. )
G01 F30.00000
G01 Z-0.10000
G04 P0 ( dwell for no time -- G64 should not smooth over this point )
G01 F360.00000
G01 X16.04884 Y1.46395
G01 X16.33985 Y1.48417
G01 X16.79651 Y1.48369
G01 X16.71696 Y1.08547
G01 X16.69961 Y0.78420
G01 X16.58198 Y0.45403
G01 X16.58198 Y0.39454
G01 X16.69979 Y0.05080
G04 P0 ( dwell for no time -- G64 should not smooth over this point )
G00 Z10.00000 ( retract )

G00 X16.95676 Y0.51740 ( rapid move to begin. )
G01 F30.00000
G01 Z-0.10000
G04 P0 ( dwell for no time -- G64 should not smooth over this point )
G01 F360.00000
G01 X16.95676 Y0.51740
G01 X17.27352 Y0.51740
G01 X17.20698 Y0.58395
G01 X17.02331 Y0.58395
G01 X16.95676 Y0.51740
G04 P0 ( dwell for no time -- G64 should not smooth over this point )
G00 Z10.00000 ( retract )

G00 X16.16674 Y0.05080 ( rapid move to begin. )
G01 F30.00000
G01 Z-0.10000
G04 P0 ( dwell for no time -- G64 should not smooth over this point )
G01 F360.00000
G01 X16.16674 Y0.05080
G01 X16.12034 Y0.22548
G01 X16.11554 Y0.49710
G01 X16.00347 Y0.72012
G01 X15.98447 Y0.83388
G01 X15.98130 Y1.01803
G01 X15.88343 Y1.41422
G01 X15.64904 Y1.44132
G01 X15.56014 Y1.42758
G04 P0 ( dwell for no time -- G64 should not smooth over this point )
G00 Z10.00000 ( retract )

G00 X15.18102 Y1.55100 ( rapid move to begin. )
G01 F30.00000
G01 Z-0.10000
G04 P0 ( dwell for no time -- G64 should not smooth over this point )
G01 F360.00000
G01 X15.18102 Y1.55100
G01 X15.56014 Y1.42758
G01 X15.44960 Y1.15110
G01 X15.32423 Y0.76797
G01 X15.31777 Y0.64224
G01 X15.33751 Y0.55154
G01 X15.25516 Y0.34102
G01 X15.24983 Y0.05080
G04 P0 ( dwell for no time -- G64 should not smooth over this point )
G00 Z10.00000 ( retract )

G00 X15.52369 Y0.28410 ( rapid move to begin. )
G01 F30.00000
G01 Z-0.10000
G04 P0 ( dwell for no time -- G64 should not smooth over this point )
G01 F360.00000
G01 X15.52369 Y0.28410
