( pcb2gcode 2.2.2 )
( Software-independent Gcode )

G94 ( Millimeters per minute feed rate. )
G21 ( Units == Millimeters. )

G90 ( Absolute coordinates. )
G00 S10000 ( RPM spindle speed. )
G01 F360.00000 ( Feedrate. )


G00 Z50.00000 (Retract to tool change height)
T0
M5      (Spindle stop.)
G04 P1.00000 (Wait for spindle to stop)
(MSG, Change tool bit to mill diameter 0.00000mm)
M6      (Tool change.)
M0      (Temporary machine stop.)
M3 ( Spindle on clockwise. )
G04 P1.00000 (Wait for spindle to get up to speed)
G04 P0 ( dwell for no time -- G64 should not smooth over this point )
G00 Z10.00000 ( retract )

G00 X0.75768 Y8.62393 ( rapid move to begin. )
G01 F30.00000
( Mill infeed pass 1/1 )
G01 Z-0.10000
G04 P0 ( dwell for no time -- G64 should not smooth over this point )
G01 F360.00000
G01 X0.75768 Y8.62393
G01 X0.75768 Y9.51293
G01 X1.01168 Y9.51293
G01 X1.01168 Y8.87794
G01 X1.64668 Y8.87794
G01 X1.64668 Y8.62393
G01 X0.75768 Y8.62393
G04 P0 ( dwell for no time -- G64 should not smooth over this point )
G00 Z10.00000 ( retract )

G00 X1.90068 Y8.62393 ( rapid move to begin. )
G01 F30.00000
( Mill infeed pass 1/1 )
G01 Z-0.10000
G04 P0 ( dwell for no time -- G64 should not smooth over this point )
G01 F360.00000
G01 X1.90068 Y8.62393
G01 X2.78968 Y8.62393
G01 X2.78968 Y9.51293
G01 X2.53566 Y9.51293
G01 X2.53568 Y8.87794
G01 X1.90068 Y8.87794
G01 X1.90068 Y8.62393
G04 P0 ( dwell for no time -- G64 should not smooth over this point )
G00 Z10.00000 ( retract )

G00 X0.75768 Y9.76694 ( rapid move to begin. )
G01 F30.00000
( Mill infeed pass 1/1 )
G01 Z-0.10000
G04 P0 ( dwell for no time -- G64 should not smooth over this point )
G01 F360.00000
G01 X0.75768 Y9.76694
G01 X1.01168 Y9.76694
G01 X1.01168 Y10.40193
G01 X1.64668 Y10.40191
G01 X1.64668 Y10.65593
G01 X0.75768 Y10.65593
G01 X0.75768 Y9.76694
G04 P0 ( dwell for no time -- G64 should not smooth over this point )
G00 Z10.00000 ( retract )

G00 X1.90068 Y10.40191 ( rapid move to begin. )
G01 F30.00000
( Mill infeed pass 1/1 )
G01 Z-0.10000
G04 P0 ( dwell for no time -- G64 should not smooth over this point )
G01 F360.00000
G01 X1.90068 Y10.40191
G01 X1.90068 Y10.65593
G01 X2.78968 Y10.65593
G01 X2.78968 Y9.76694
G01 X2.53566 Y9.76694
G01 X2.53568 Y10.40193
G01 X1.90068 Y10.40191
G04 P0 ( dwell for no time -- G64 should not smooth over this point )
G00 Z10.00000 ( retract )

G00 X6.21866 Y14.95168 ( rapid move to begin. )
G01 F30.00000
( Mill infeed pass 1/1 )
G01 Z-0.10000
G04 P0 ( dwell for no time -- G64 should not smooth over this point )
G01 F360.00000
G01 X6.21866 Y14.95168
G01 X6.28790 Y14.96642
G01 X6.40918 Y15.02039
G01 X6.51657 Y15.09842
G01 X6.60537 Y15.19707
G01 X6.67179 Y15.31206
G01 X6.71332 Y15.44330
G01 X6.97154 Y15.44333
G01 X6.95782 Y15.33843
G01 X6.86816 Y15.12202
G01 X6.72567 Y14.93634
G01 X6.53999 Y14.79385
G01 X6.32358 Y14.70419
G01 X6.21868 Y14.69047
G01 X6.21866 Y14.95168
G04 P0 ( dwell for no time -- G64 should not smooth over this point )
G00 Z10.00000 ( retract )

G00 X5.21157 Y15.69733 ( rapid move to begin. )
G01 F30.00000
( Mill infeed pass 1/1 )
G01 Z-0.10000
G04 P0 ( dwell for no time -- G64 should not smooth over this point )
G01 F360.00000
G01 X5.21157 Y15.69733
G01 X5.47002 Y15.69730
G01 X5.51157 Y15.82859
G01 X5.57797 Y15.94358
G01 X5.66679 Y16.04223
G01 X5.77418 Y16.12026
G01 X5.89547 Y16.17424
G01 X5.96468 Y16.18894
G01 X5.96468 Y16.45044
G01 X5.85953 Y16.43647
G01 X5.64337 Y16.34706
G01 X5.45744 Y16.20431
G01 X5.31495 Y16.01864
G01 X5.22554 Y15.80248
G01 X5.21157 Y15.69733
G04 P0 ( dwell for no time -- G64 should not smooth over this point )
G00 Z10.00000 ( retract )

G00 X5.21157 Y15.44333 ( rapid move to begin. )
G01 F30.00000
( Mill infeed pass 1/1 )
G01 Z-0.10000
G04 P0 ( dwell for no time -- G64 should not smooth over this point )
G01 F360.00000
G01 X5.21157 Y15.44333
G01 X5.47002 Y15.44330
G01 X5.51157 Y15.31206
G01 X5.57797 Y15.19707
G01 X5.66679 Y15.09842
G01 X5.77418 Y15.02039
G01 X5.89547 Y14.96642
G01 X5.96468 Y14.95168
G01 X5.96468 Y14.69047
G01 X5.85953 Y14.70419
G01 X5.64337 Y14.79385
G01 X5.45744 Y14.93634
G01 X5.31495 Y15.12202
G01 X5.22554 Y15.33843
G01 X5.21157 Y15.44333
G04 P0 ( dwell for no time -- G64 should not smooth over this point )
G00 Z10.00000 ( retract )

G00 X6.21866 Y16.18894 ( rapid move to begin. )
G01 F30.00000
( Mill infeed pass 1/1 )
G01 Z-0.10000
G04 P0 ( dwell for no time -- G64 should not smooth over this point )
G01 F360.00000
G01 X6.21866 Y16.18894
G01 X6.21868 Y16.45044
G01 X6.32358 Y16.43647
G01 X6.53999 Y16.34706
G01 X6.72567 Y16.20431
G01 X6.86816 Y16.01864
G01 X6.95782 Y15.80248
G01 X6.97154 Y15.69733
G01 X6.71332 Y15.69730
G01 X6.67179 Y15.82859
G01 X6.60537 Y15.94358
G01 X6.51657 Y16.04223
G01 X6.40918 Y16.12026
G01 X6.28790 Y16.17424
G01 X6.21866 Y16.18894
G04 P0 ( dwell for no time -- G64 should not smooth over this point )
G00 Z10.00000 ( retract )

G00 X6.21866 Y17.99968 ( rapid move to begin. )
G01 F30.00000
( Mill infeed pass 1/1 )
G01 Z-0.10000
G04 P0 ( dwell for no time -- G64 should not smooth over this point )
G01 F360.00000
G01 X6.21866 Y17.99968
G01 X6.21868 Y17.73847
G01 X6.32358 Y17.75219
G01 X6.53999 Y17.84185
G01 X6.72567 Y17.98434
G01 X6.86816 Y18.17002
G01 X6.95782 Y18.38642
G01 X6.97154 Y18.49133
G01 X6.71332 Y18.49133
G01 X6.67179 Y18.36006
G01 X6.60537 Y18.24507
G01 X6.51657 Y18.14642
G01 X6.40918 Y18.06839
G01 X6.28790 Y18.01442
G01 X6.21866 Y17.99968
G04 P0 ( dwell for no time -- G64 should not smooth over this point )
G00 Z10.00000 ( retract )

G00 X6.21866 Y19.23694 ( rapid move to begin. )
G01 F30.00000
( Mill infeed pass 1/1 )
G01 Z-0.10000
G04 P0 ( dwell for no time -- G64 should not smooth over this point )
G01 F360.00000
G01 X6.21866 Y19.23694
G01 X6.28790 Y19.22224
G01 X6.40918 Y19.16826
G01 X6.51657 Y19.09023
G01 X6.60537 Y18.99158
G01 X6.67179 Y18.87659
G01 X6.71332 Y18.74533
G01 X6.97154 Y18.74533
G01 X6.95782 Y18.85048
G01 X6.86816 Y19.06664
G01 X6.72567 Y19.25231
G01 X6.53999 Y19.39506
G01 X6.32358 Y19.48447
G01 X6.21868 Y19.49844
G01 X6.21866 Y19.23694
G04 P0 ( dwell for no time -- G64 should not smooth over this point )
G00 Z10.00000 ( retract )

G00 X5.21157 Y18.74533 ( rapid move to begin. )
G01 F30.00000
( Mill infeed pass 1/1 )
G01 Z-0.10000
G04 P0 ( dwell for no time -- G64 should not smooth over this point )
G01 F360.00000
G01 X5.21157 Y18.74533
G01 X5.47002 Y18.74533
G01 X5.51157 Y18.87659
G01 X5.57797 Y18.99158
G01 X5.66679 Y19.09023
G01 X5.77418 Y19.16826
G01 X5.89547 Y19.22224
G01 X5.96468 Y19.23694
G01 X5.96468 Y19.49844
G01 X5.85953 Y19.48447
G01 X5.64337 Y19.39506
G01 X5.45744 Y19.25231
G01 X5.31495 Y19.06664
G01 X5.22554 Y18.85048
G01 X5.21157 Y18.74533
G04 P0 ( dwell for no time -- G64 should not smooth over this point )
G00 Z10.00000 ( retract )

G00 X5.21157 Y18.49133 ( rapid move to begin. )
G01 F30.00000
( Mill infeed pass 1/1 )
G01 Z-0.10000
G04 P0 ( dwell for no time -- G64 should not smooth over this point )
G01 F360.00000
G01 X5.21157 Y18.49133
G01 X5.47002 Y18.49133
G01 X5.51157 Y18.36006
G01 X5.57797 Y18.24507
G01 X5.66679 Y18.14642
G01 X5.77418 Y18.06839
G01 X5.89547 Y18.01442
G01 X5.96468 Y17.99968
G01 X5.96468 Y17.73847
G01 X5.85953 Y17.75219
G01 X5.64337 Y17.84185
G01 X5.45744 Y17.98434
G01 X5.31495 Y18.17002
G01 X5.22554 Y18.38642
G01 X5.21157 Y18.49133
G04 P0 ( dwell for no time -- G64 should not smooth over this point )
G00 Z10.00000 ( retract )

G00 X4.18668 Y17.51393 ( rapid move to begin. )
G01 F30.00000
( Mill infeed pass 1/1 )
G01 Z-0.10000
G04 P0 ( dwell for no time -- G64 should not smooth over this point )
G01 F360.00000
G01 X4.18668 Y17.51393
G01 X4.18668 Y17.76791
G01 X4.63118 Y17.76793
G01 X4.63118 Y18.40293
G01 X4.88518 Y18.40293
G01 X4.88518 Y17.51393
G01 X4.18668 Y17.51393
G04 P0 ( dwell for no time -- G64 should not smooth over this point )
G00 Z10.00000 ( retract )

G00 X4.18668 Y19.29193 ( rapid move to begin. )
G01 F30.00000
( Mill infeed pass 1/1 )
G01 Z-0.10000
G04 P0 ( dwell for no time -- G64 should not smooth over this point )
G01 F360.00000
G01 X4.18668 Y19.29193
G01 X4.18668 Y19.54594
G01 X4.88518 Y19.54594
G01 X4.88518 Y18.65694
G01 X4.63118 Y18.65694
G01 X4.63118 Y19.29193
G01 X4.18668 Y19.29193
G04 P0 ( dwell for no time -- G64 should not smooth over this point )
G00 Z10.00000 ( retract )

G00 X1.39700 Y21.46008 ( rapid move to begin. )
G01 F30.00000
( Mill infeed pass 1/1 )
G01 Z-0.10000
G04 P0 ( dwell for no time -- G64 should not smooth over this point )
G01 F360.00000
G01 X1.39700 Y21.46008
G01 X1.39700 Y21.72129
G01 X1.46621 Y21.73602
G01 X1.58750 Y21.79000
G01 X1.69489 Y21.86803
G01 X1.78371 Y21.96668
G01 X1.85009 Y22.08167
G01 X1.89164 Y22.21293
G01 X2.14986 Y22.21293
G01 X2.13614 Y22.10778
G01 X2.04648 Y21.89163
G01 X1.90398 Y21.70595
G01 X1.71831 Y21.56346
G01 X1.50216 Y21.47379
G01 X1.39700 Y21.46008
G04 P0 ( dwell for no time -- G64 should not smooth over this point )
G00 Z10.00000 ( retract )

G00 X1.39700 Y22.95855 ( rapid move to begin. )
G01 F30.00000
( Mill infeed pass 1/1 )
G01 Z-0.10000
G04 P0 ( dwell for no time -- G64 should not smooth over this point )
G01 F360.00000
G01 X1.39700 Y22.95855
G01 X1.39700 Y23.21979
G01 X1.50216 Y23.20607
G01 X1.71831 Y23.11641
G01 X1.90398 Y22.97392
G01 X2.04648 Y22.78824
G01 X2.13614 Y22.57209
G01 X2.14986 Y22.46693
G01 X1.89164 Y22.46693
G01 X1.85009 Y22.59820
G01 X1.78371 Y22.71319
G01 X1.69489 Y22.81184
G01 X1.58750 Y22.88987
G01 X1.46621 Y22.94385
G01 X1.39700 Y22.95855
G04 P0 ( dwell for no time -- G64 should not smooth over this point )
G00 Z10.00000 ( retract )

G00 X2.66697 Y24.26129 ( rapid move to begin. )
G01 F30.00000
( Mill infeed pass 1/1 )
G01 Z-0.10000
G04 P0 ( dwell for no time -- G64 should not smooth over this point )
G01 F360.00000
G01 X2.66697 Y24.26129
G01 X2.66700 Y24.00008
G01 X2.77216 Y24.01380
G01 X2.98831 Y24.10346
G01 X3.17398 Y24.24595
G01 X3.31640 Y24.43163
G01 X3.40614 Y24.64778
G01 X3.41986 Y24.75293
G01 X3.16164 Y24.75291
G01 X3.12011 Y24.62167
G01 X3.05371 Y24.50668
G01 X2.96489 Y24.40803
G01 X2.85750 Y24.33000
G01 X2.73622 Y24.27602
G01 X2.66697 Y24.26129
G04 P0 ( dwell for no time -- G64 should not smooth over this point )
G00 Z10.00000 ( retract )

G00 X2.66697 Y25.49855 ( rapid move to begin. )
G01 F30.00000
( Mill infeed pass 1/1 )
G01 Z-0.10000
G04 P0 ( dwell for no time -- G64 should not smooth over this point )
G01 F360.00000
G01 X2.66697 Y25.49855
G01 X2.73622 Y25.48385
G01 X2.85750 Y25.42987
G01 X2.96489 Y25.35184
G01 X3.05371 Y25.25319
G01 X3.12011 Y25.13820
G01 X3.16164 Y25.00693
G01 X3.41986 Y25.00693
G01 X3.40614 Y25.11209
G01 X3.31640 Y25.32824
G01 X3.17398 Y25.51392
G01 X2.98831 Y25.65641
G01 X2.77216 Y25.74607
G01 X2.66700 Y25.75979
G01 X2.66697 Y25.49855
G04 P0 ( dwell for no time -- G64 should not smooth over this point )
G00 Z10.00000 ( retract )

G00 X1.66014 Y25.00693 ( rapid move to begin. )
G01 F30.00000
( Mill infeed pass 1/1 )
G01 Z-0.10000
G04 P0 ( dwell for no time -- G64 should not smooth over this point )
G01 F360.00000
G01 X1.66014 Y25.00693
G01 X1.91833 Y25.00693
G01 X1.95989 Y25.13820
G01 X2.02626 Y25.25319
G01 X2.11508 Y25.35184
G01 X2.22250 Y25.42987
G01 X2.34376 Y25.48385
G01 X2.41297 Y25.49855
G01 X2.41300 Y25.75979
G01 X2.30784 Y25.74607
G01 X2.09169 Y25.65641
G01 X1.90602 Y25.51392
G01 X1.76352 Y25.32824
G01 X1.67386 Y25.11209
G01 X1.66014 Y25.00693
G04 P0 ( dwell for no time -- G64 should not smooth over this point )
G00 Z10.00000 ( retract )

G00 X1.66014 Y24.75293 ( rapid move to begin. )
G01 F30.00000
( Mill infeed pass 1/1 )
G01 Z-0.10000
G04 P0 ( dwell for no time -- G64 should not smooth over this point )
G01 F360.00000
G01 X1.66014 Y24.75293
G01 X1.91833 Y24.75291
G01 X1.95989 Y24.62167
G01 X2.02626 Y24.50668
G01 X2.11508 Y24.40803
G01 X2.22250 Y24.33000
G01 X2.34376 Y24.27602
G01 X2.41297 Y24.26129
G01 X2.41300 Y24.00008
G01 X2.30784 Y24.01380
G01 X2.09169 Y24.10346
G01 X1.90602 Y24.24595
G01 X1.76352 Y24.43163
G01 X1.67386 Y24.64778
G01 X1.66014 Y24.75293
G04 P0 ( dwell for no time -- G64 should not smooth over this point )
G00 Z10.00000 ( retract )

G00 X0.39014 Y22.46693 ( rapid move to begin. )
G01 F30.00000
( Mill infeed pass 1/1 )
G01 Z-0.10000
G04 P0 ( dwell for no time -- G64 should not smooth over this point )
G01 F360.00000
G01 X0.39014 Y22.46693
G01 X0.64833 Y22.46693
G01 X0.68989 Y22.59820
G01 X0.75626 Y22.71319
G01 X0.84508 Y22.81184
G01 X0.95250 Y22.88987
G01 X1.07376 Y22.94385
G01 X1.14297 Y22.95855
G01 X1.14300 Y23.21979
G01 X1.03784 Y23.20607
G01 X0.82166 Y23.11641
G01 X0.63602 Y22.97392
G01 X0.49352 Y22.78824
G01 X0.40386 Y22.57209
G01 X0.39014 Y22.46693
G04 P0 ( dwell for no time -- G64 should not smooth over this point )
G00 Z10.00000 ( retract )

G00 X0.39014 Y22.21293 ( rapid move to begin. )
G01 F30.00000
( Mill infeed pass 1/1 )
G01 Z-0.10000
G04 P0 ( dwell for no time -- G64 should not smooth over this point )
G01 F360.00000
G01 X0.39014 Y22.21293
G01 X0.64833 Y22.21293
G01 X0.68989 Y22.08167
G01 X0.75626 Y21.96668
G01 X0.84508 Y21.86803
G01 X0.95250 Y21.79000
G01 X1.07376 Y21.73602
G01 X1.14297 Y21.72129
G01 X1.14300 Y21.46008
G01 X1.03784 Y21.47379
G01 X0.82166 Y21.56346
G01 X0.63602 Y21.70595
G01 X0.49352 Y21.89163
G01 X0.40386 Y22.10778
G01 X0.39014 Y22.21293
G04 P0 ( dwell for no time -- G64 should not smooth over this point )
G00 Z10.00000 ( retract )

G00 X3.23418 Y18.65694 ( rapid move to begin. )
G01 F30.00000
( Mill infeed pass 1/1 )
G01 Z-0.10000
G04 P0 ( dwell for no time -- G64 should not smooth over this point )
G01 F360.00000
G01 X3.23418 Y18.65694
G01 X3.48818 Y18.65694
G01 X3.48818 Y19.29193
G01 X3.93268 Y19.29193
G01 X3.93268 Y19.54594
G01 X3.23418 Y19.54594
G01 X3.23418 Y18.65694
G04 P0 ( dwell for no time -- G64 should not smooth over this point )
G00 Z10.00000 ( retract )

G00 X3.23418 Y17.51393 ( rapid move to begin. )
G01 F30.00000
( Mill infeed pass 1/1 )
G01 Z-0.10000
G04 P0 ( dwell for no time -- G64 should not smooth over this point )
G01 F360.00000
G01 X3.23418 Y17.51393
G01 X3.93268 Y17.51393
G01 X3.93268 Y17.76791
G01 X3.48818 Y17.76793
G01 X3.48818 Y18.40293
G01 X3.23418 Y18.40293
G01 X3.23418 Y17.51393
G04 P0 ( dwell for no time -- G64 should not smooth over this point )
G00 Z10.00000 ( retract )

G00 X4.18668 Y16.24391 ( rapid move to begin. )
G01 F30.00000
( Mill infeed pass 1/1 )
G01 Z-0.10000
G04 P0 ( dwell for no time -- G64 should not smooth over this point )
G01 F360.00000
G01 X4.18668 Y16.24391
G01 X4.18668 Y16.49793
G01 X4.88518 Y16.49793
G01 X4.88518 Y15.60893
G01 X4.63118 Y15.60893
G01 X4.63118 Y16.24394
G01 X4.18668 Y16.24391
G04 P0 ( dwell for no time -- G64 should not smooth over this point )
G00 Z10.00000 ( retract )

G00 X3.23418 Y15.60893 ( rapid move to begin. )
G01 F30.00000
( Mill infeed pass 1/1 )
G01 Z-0.10000
G04 P0 ( dwell for no time -- G64 should not smooth over this point )
G01 F360.00000
G01 X3.23418 Y15.60893
G01 X3.23418 Y16.49793
G01 X3.93268 Y16.49793
G01 X3.93268 Y16.24391
G01 X3.48818 Y16.24394
G01 X3.48818 Y15.60893
G01 X3.23418 Y15.60893
G04 P0 ( dwell for no time -- G64 should not smooth over this point )
G00 Z10.00000 ( retract )

G00 X4.18668 Y14.46593 ( rapid move to begin. )
G01 F30.00000
( Mill infeed pass 1/1 )
G01 Z-0.10000
G04 P0 ( dwell for no time -- G64 should not smooth over this point )
G01 F360.00000
G01 X4.18668 Y14.46593
G01 X4.88518 Y14.46593
G01 X4.88518 Y15.35493
G01 X4.63118 Y15.35493
G01 X4.63118 Y14.71994
G01 X4.18668 Y14.71994
G01 X4.18668 Y14.46593
G04 P0 ( dwell for no time -- G64 should not smooth over this point )
G00 Z10.00000 ( retract )

G00 X3.23418 Y14.46593 ( rapid move to begin. )
G01 F30.00000
( Mill infeed pass 1/1 )
G01 Z-0.10000
G04 P0 ( dwell for no time -- G64 should not smooth over this point )
G01 F360.00000
G01 X3.23418 Y14.46593
G01 X3.93268 Y14.46593
G01 X3.93268 Y14.71994
G01 X3.48818 Y14.71994
G01 X3.48818 Y15.35493
G01 X3.23418 Y15.35493
G01 X3.23418 Y14.46593
G04 P0 ( dwell for no time -- G64 should not smooth over this point )
G00 Z10.00000 ( retract )

G00 X6.06130 Y11.58128 ( rapid move to begin. )
G01 F30.00000
( Mill infeed pass 1/1 )
G01 Z-0.10000
G04 P0 ( dwell for no time -- G64 should not smooth over this point )
G01 F360.00000
G01 X6.06130 Y11.58128
G01 X5.99773 Y11.81806
G01 X5.96938 Y12.00688
G01 X5.96102 Y12.19365
G01 X5.97251 Y12.38247
G01 X6.00537 Y12.57767
G01 X6.04804 Y12.73698
G01 X6.11983 Y12.93111
G01 X6.21469 Y12.92385
G01 X6.31175 Y12.92581
G01 X6.39412 Y12.94793
G01 X6.56600 Y13.02177
G01 X6.62280 Y13.04087
G01 X6.74754 Y13.06233
G01 X6.85366 Y13.07071
G01 X6.95980 Y13.06233
G01 X7.08429 Y13.04089
G01 X7.11601 Y13.03104
G01 X7.30004 Y12.95314
G01 X7.43892 Y12.84991
G01 X7.48396 Y12.81021
G01 X7.58073 Y12.69164
G01 X7.62505 Y12.62525
G01 X7.66036 Y12.55367
G01 X7.71462 Y12.41059
G01 X7.72648 Y12.35174
G01 X7.74642 Y12.17991
G01 X7.72648 Y12.00810
G01 X7.71462 Y11.94925
G01 X7.66036 Y11.80617
G01 X7.62505 Y11.73460
G01 X7.58073 Y11.66820
G01 X7.48396 Y11.54963
G01 X7.43892 Y11.50993
G01 X7.30004 Y11.40671
G01 X7.14129 Y11.33813
G01 X7.08434 Y11.31895
G01 X6.95978 Y11.29759
G01 X6.85366 Y11.28926
G01 X6.74756 Y11.29759
G01 X6.62275 Y11.31898
G01 X6.59125 Y11.32876
G01 X6.40712 Y11.40673
G01 X6.24421 Y11.52395
G01 X6.12155 Y11.56965
G01 X6.06130 Y11.58128
G01 X6.01264 Y11.50310
G01 X5.97433 Y11.42101
G01 X5.96156 Y11.33892
G01 X5.96156 Y10.92698
G01 X5.95150 Y10.85273
G01 X5.93131 Y10.76836
G01 X5.88584 Y10.69426
G01 X5.84037 Y10.63460
G01 X5.20847 Y10.00270
G01 X5.16260 Y9.94148
G01 X5.18607 Y9.81172
G01 X5.20642 Y9.63963
G01 X5.18648 Y9.46808
G01 X5.17461 Y9.40925
G01 X5.13088 Y9.29063
G01 X5.08505 Y9.19460
G01 X5.02478 Y9.10681
G01 X4.94396 Y9.00963
G01 X4.89890 Y8.96991
G01 X4.76004 Y8.86671
G01 X4.60129 Y8.79813
G01 X4.54429 Y8.77895
G01 X4.41980 Y8.75751
G01 X4.31366 Y8.74913
G01 X4.20754 Y8.75751
G01 X4.08280 Y8.77898
G01 X4.02603 Y8.79808
G01 X3.86710 Y8.86676
G01 X3.70771 Y8.98713
G01 X3.68341 Y9.00961
G01 X3.60256 Y9.10681
G01 X3.54228 Y9.19460
G01 X3.49646 Y9.29063
G01 X3.45270 Y9.40930
G01 X3.44538 Y9.44154
G01 X3.42204 Y9.62630
G01 X3.42204 Y9.65355
G01 X3.44081 Y9.81177
G01 X3.45270 Y9.87054
G01 X3.50698 Y10.01367
G01 X3.54228 Y10.08525
G01 X3.58661 Y10.15164
G01 X3.68341 Y10.27024
G01 X3.72842 Y10.30991
G01 X3.85605 Y10.40529
G01 X3.87967 Y10.41888
G01 X4.02603 Y10.48177
G01 X4.08280 Y10.50087
G01 X4.23400 Y10.52548
G01 X4.31368 Y10.53071
G01 X4.39334 Y10.52548
G01 X4.60606 Y10.49421
G01 X4.66321 Y10.53777
G01 X5.15902 Y11.03358
G01 X5.19242 Y11.07435
G01 X5.19765 Y11.12685
G01 X5.19765 Y11.33284
G01 X5.18488 Y11.41491
G01 X5.14657 Y11.49701
G01 X5.09862 Y11.57402
G01 X5.15818 Y11.78433
G01 X5.19087 Y11.97867
G01 X5.20225 Y12.16660
G01 X5.19389 Y12.35253
G01 X5.15818 Y12.57551
G01 X5.09862 Y12.78583
G01 X5.11551 Y12.73480
G01 X5.16565 Y12.54049
G01 X5.19389 Y12.35253
G01 X5.20225 Y12.19324
G01 X5.19389 Y12.00732
G01 X5.16565 Y11.81936
G01 X5.11551 Y11.62505
G01 X5.09862 Y11.57402
G01 X5.03697 Y11.56216
G01 X4.92476 Y11.52248
G01 X4.87342 Y11.49096
G01 X4.76001 Y11.40668
G01 X4.60129 Y11.33813
G01 X4.54434 Y11.31895
G01 X4.41978 Y11.29759
G01 X4.31366 Y11.28926
G01 X4.20756 Y11.29759
G01 X4.08275 Y11.31900
G01 X4.05130 Y11.32876
G01 X3.86710 Y11.40676
G01 X3.72842 Y11.50991
G01 X3.68341 Y11.54961
G01 X3.60258 Y11.64681
G01 X3.54228 Y11.73460
G01 X3.49646 Y11.83066
G01 X3.45270 Y11.94930
G01 X3.44081 Y12.00808
G01 X3.42080 Y12.17991
G01 X3.44081 Y12.35177
G01 X3.45270 Y12.41054
G01 X3.50698 Y12.55367
G01 X3.54228 Y12.62525
G01 X3.58661 Y12.69164
G01 X3.68341 Y12.81024
G01 X3.72842 Y12.84994
G01 X3.85605 Y12.94529
G01 X3.87967 Y12.95888
G01 X4.05130 Y13.03109
G01 X4.08280 Y13.04087
G01 X4.20754 Y13.06233
G01 X4.31366 Y13.07071
G01 X4.41980 Y13.06233
G01 X4.54429 Y13.04089
G01 X4.60129 Y13.02172
G01 X4.76001 Y12.95316
G01 X4.87342 Y12.86888
G01 X4.92476 Y12.83736
G01 X5.03697 Y12.79769
G01 X5.09862 Y12.78583
G01 X5.14657 Y12.86284
G01 X5.18488 Y12.94493
G01 X5.19765 Y13.02702
G01 X5.19765 Y13.17887
G01 X5.20771 Y13.25311
G01 X5.22790 Y13.33757
G01 X5.27332 Y13.41161
G01 X5.31871 Y13.47122
G01 X6.06631 Y14.21884
G01 X6.12590 Y14.26423
G01 X6.19976 Y14.30957
G01 X6.28442 Y14.32984
G01 X6.35864 Y14.33987
G01 X11.46122 Y14.33987
G01 X11.52334 Y14.34719
G01 X11.64722 Y14.49807
G01 X11.68753 Y14.53340
G01 X11.80503 Y14.62065
G01 X11.93940 Y14.67879
G01 X11.98987 Y14.69593
G01 X12.09482 Y14.71397
G01 X12.18766 Y14.72143
G01 X12.28052 Y14.71394
G01 X12.38524 Y14.69596
G01 X12.43592 Y14.67876
G01 X12.57028 Y14.62065
G01 X12.68778 Y14.53335
G01 X12.72789 Y14.49817
G01 X12.79594 Y14.41633
G01 X12.84887 Y14.33965
G01 X12.88882 Y14.25550
G01 X12.92568 Y14.15572
G01 X12.93155 Y14.12982
G01 X12.95291 Y13.95791
G01 X12.93609 Y13.81249
G01 X12.92568 Y13.76009
G01 X12.88882 Y13.66035
G01 X12.84887 Y13.57620
G01 X12.79594 Y13.49952
G01 X12.72789 Y13.41768
G01 X12.68778 Y13.38250
G01 X12.57028 Y13.29520
G01 X12.43592 Y13.23708
G01 X12.38524 Y13.21989
G01 X12.28052 Y13.20190
G01 X12.18766 Y13.19441
G01 X12.09482 Y13.20188
G01 X11.98987 Y13.21991
G01 X11.93940 Y13.23706
G01 X11.81743 Y13.28948
G01 X11.79393 Y13.30305
G01 X11.68753 Y13.38245
G01 X11.64722 Y13.41778
G01 X11.52334 Y13.56865
G01 X11.46122 Y13.57597
G01 X6.55853 Y13.57597
G01 X6.50603 Y13.57071
G01 X6.46527 Y13.53734
G01 X6.20593 Y13.27800
G01 X6.14505 Y13.18565
G01 X6.11563 Y13.06177
G01 X6.10697 Y12.97341
G01 X6.11983 Y12.93111
G04 P0 ( dwell for no time -- G64 should not smooth over this point )
G00 Z10.00000 ( retract )

G00 X8.50080 Y12.17991 ( rapid move to begin. )
G01 F30.00000
( Mill infeed pass 1/1 )
G01 Z-0.10000
G04 P0 ( dwell for no time -- G64 should not smooth over this point )
G01 F360.00000
G01 X8.50080 Y12.17991
G01 X8.52538 Y12.37828
G01 X8.53270 Y12.41054
G01 X8.57646 Y12.52919
G01 X8.62228 Y12.62525
G01 X8.68258 Y12.71303
G01 X8.76341 Y12.81024
G01 X8.80842 Y12.84994
G01 X8.94710 Y12.95309
G01 X9.10603 Y13.02177
G01 X9.16280 Y13.04087
G01 X9.28754 Y13.06233
G01 X9.39366 Y13.07071
G01 X9.49980 Y13.06233
G01 X9.62429 Y13.04089
G01 X9.68129 Y13.02172
G01 X9.84004 Y12.95314
G01 X9.97892 Y12.84991
G01 X10.02396 Y12.81021
G01 X10.10475 Y12.71303
G01 X10.16505 Y12.62525
G01 X10.21088 Y12.52919
G01 X10.25461 Y12.41059
G01 X10.26193 Y12.37828
G01 X10.28642 Y12.17991
G01 X10.26193 Y11.98156
G01 X10.25461 Y11.94925
G01 X10.21088 Y11.83066
G01 X10.16505 Y11.73460
G01 X10.10475 Y11.64681
G01 X10.02396 Y11.54963
G01 X9.97892 Y11.50993
G01 X9.84004 Y11.40671
G01 X9.68129 Y11.33813
G01 X9.62434 Y11.31895
G01 X9.49978 Y11.29759
G01 X9.39366 Y11.28926
G01 X9.28756 Y11.29759
G01 X9.16275 Y11.31900
G01 X9.10603 Y11.33808
G01 X8.94710 Y11.40676
G01 X8.80842 Y11.50991
G01 X8.76341 Y11.54961
G01 X8.68258 Y11.64681
G01 X8.62228 Y11.73460
G01 X8.57646 Y11.83066
G01 X8.53270 Y11.94930
G01 X8.52538 Y11.98156
G01 X8.50080 Y12.17991
G04 P0 ( dwell for no time -- G64 should not smooth over this point )
G00 Z10.00000 ( retract )

G00 X5.96080 Y9.63991 ( rapid move to begin. )
G01 F30.00000
( Mill infeed pass 1/1 )
G01 Z-0.10000
G04 P0 ( dwell for no time -- G64 should not smooth over this point )
G01 F360.00000
G01 X5.96080 Y9.63991
G01 X5.98538 Y9.44154
G01 X5.99270 Y9.40930
G01 X6.03646 Y9.29063
G01 X6.08228 Y9.19460
G01 X6.14256 Y9.10681
G01 X6.22341 Y9.00961
G01 X6.26842 Y8.96988
G01 X6.40710 Y8.86676
G01 X6.56600 Y8.79808
G01 X6.62280 Y8.77898
G01 X6.74754 Y8.75751
G01 X6.85366 Y8.74913
G01 X6.95980 Y8.75751
G01 X7.08429 Y8.77895
G01 X7.14129 Y8.79813
G01 X7.30004 Y8.86671
G01 X7.43890 Y8.96991
G01 X7.48396 Y9.00963
G01 X7.56478 Y9.10681
G01 X7.62505 Y9.19460
G01 X7.67088 Y9.29063
G01 X7.71462 Y9.40925
G01 X7.72193 Y9.44154
G01 X7.74642 Y9.63991
G01 X7.72193 Y9.83828
G01 X7.71462 Y9.87059
G01 X7.67088 Y9.98919
G01 X7.62505 Y10.08525
G01 X7.56475 Y10.17303
G01 X7.48396 Y10.27021
G01 X7.43892 Y10.30989
G01 X7.30004 Y10.41314
G01 X7.14129 Y10.48172
G01 X7.08429 Y10.50089
G01 X6.95980 Y10.52233
G01 X6.85366 Y10.53071
G01 X6.74754 Y10.52233
G01 X6.62280 Y10.50087
G01 X6.56600 Y10.48177
G01 X6.40710 Y10.41309
G01 X6.26842 Y10.30991
G01 X6.22341 Y10.27024
G01 X6.14258 Y10.17303
G01 X6.08228 Y10.08525
G01 X6.03646 Y9.98919
G01 X5.99270 Y9.87054
G01 X5.98538 Y9.83828
G01 X5.96080 Y9.63991
G04 P0 ( dwell for no time -- G64 should not smooth over this point )
G00 Z10.00000 ( retract )

G00 X8.50080 Y9.63991 ( rapid move to begin. )
G01 F30.00000
( Mill infeed pass 1/1 )
G01 Z-0.10000
G04 P0 ( dwell for no time -- G64 should not smooth over this point )
G01 F360.00000
G01 X8.50080 Y9.63991
G01 X8.52538 Y9.44154
G01 X8.53270 Y9.40930
G01 X8.57646 Y9.29063
G01 X8.62228 Y9.19460
G01 X8.68256 Y9.10681
G01 X8.76341 Y9.00961
G01 X8.80842 Y8.96988
G01 X8.94710 Y8.86676
G01 X9.10603 Y8.79808
G01 X9.16280 Y8.77898
G01 X9.28754 Y8.75751
G01 X9.39366 Y8.74913
G01 X9.49980 Y8.75751
G01 X9.62429 Y8.77895
G01 X9.68129 Y8.79813
G01 X9.84004 Y8.86671
G01 X9.97890 Y8.96991
G01 X10.02396 Y9.00963
G01 X10.10478 Y9.10681
G01 X10.16505 Y9.19460
G01 X10.21088 Y9.29063
G01 X10.25461 Y9.40925
G01 X10.26193 Y9.44154
G01 X10.28642 Y9.63991
G01 X10.26193 Y9.83828
G01 X10.25461 Y9.87059
G01 X10.21088 Y9.98919
G01 X10.16505 Y10.08525
G01 X10.10475 Y10.17303
G01 X10.02396 Y10.27021
G01 X9.97892 Y10.30989
G01 X9.84004 Y10.41314
G01 X9.68129 Y10.48172
G01 X9.62429 Y10.50089
G01 X9.49980 Y10.52233
G01 X9.39366 Y10.53071
G01 X9.28754 Y10.52233
G01 X9.16280 Y10.50087
G01 X9.10603 Y10.48177
G01 X8.94710 Y10.41309
G01 X8.80842 Y10.30991
G01 X8.76341 Y10.27024
G01 X8.68258 Y10.17303
G01 X8.62228 Y10.08525
G01 X8.57646 Y9.98919
G01 X8.53270 Y9.87054
G01 X8.52538 Y9.83828
G01 X8.50080 Y9.63991
G04 P0 ( dwell for no time -- G64 should not smooth over this point )
G00 Z10.00000 ( retract )

G00 X6.34901 Y3.49987 ( rapid move to begin. )
G01 F30.00000
( Mill infeed pass 1/1 )
G01 Z-0.10000
G04 P0 ( dwell for no time -- G64 should not smooth over this point )
G01 F360.00000
G01 X6.34901 Y3.49987
G01 X10.42157 Y3.49890
G01 X10.53313 Y3.49245
G01 X10.73249 Y3.47061
G01 X10.97117 Y3.36586
G01 X11.19533 Y3.36713
G01 X11.29744 Y3.36360
G01 X11.39840 Y3.30759
G01 X11.86599 Y3.20424
G01 X11.99304 Y3.22476
G01 X12.26749 Y3.25493
G01 X12.40645 Y3.30230
G01 X12.56909 Y3.36558
G01 X12.80472 Y3.34137
G01 X12.86449 Y3.33019
G01 X13.00018 Y3.36654
G01 X13.19886 Y3.36652
G01 X13.32380 Y3.37269
G01 X13.55601 Y3.41023
G01 X13.73213 Y3.45694
G01 X13.99870 Y3.58356
G01 X14.33195 Y3.40185
G01 X14.73599 Y3.36784
G01 X14.88074 Y3.36832
G01 X15.06507 Y3.38544
G01 X15.13167 Y3.36652
G01 X15.35069 Y3.36662
G01 X15.53261 Y3.38000
G01 X15.60645 Y3.37241
G01 X15.85651 Y3.36065
G01 X15.93035 Y3.35305
G01 X15.93355 Y3.16167
G01 X15.93050 Y2.89578
G01 X15.93271 Y2.80408
G01 X15.93908 Y2.73378
G01 X15.95575 Y2.66027
G01 X15.98836 Y2.57200
G01 X15.99634 Y2.53312
G01 X15.99814 Y2.47980
G01 X16.00738 Y2.42735
G01 X16.03083 Y2.36652
G01 X16.00766 Y2.30561
G01 X15.99781 Y2.23662
G01 X15.99806 Y1.41221
G01 X15.83065 Y1.36370
G01 X15.93139 Y0.96246
G01 X15.93345 Y0.78877
G01 X15.94782 Y0.68951
G01 X15.96065 Y0.64719
G01 X15.98059 Y0.60058
G01 X16.03266 Y0.49756
G01 X16.06471 Y0.44638
G01 X16.06593 Y0.20384
G01 X16.07744 Y0.13470
G01 X16.11589 Y0.00000
G01 X16.64823 Y0.00000
G01 X16.62298 Y0.09304
G01 X16.58363 Y0.21057
G01 X16.53118 Y0.34371
G01 X16.53118 Y0.40259
G01 X16.56852 Y0.48034
G01 X16.64490 Y0.71425
G01 X16.65381 Y0.76015
G01 X16.66334 Y0.87089
G01 X16.66453 Y1.03995
G01 X16.70535 Y1.22941
G01 X16.74266 Y1.43231
G01 X16.90637 Y1.50658
G01 X17.19130 Y1.66007
G01 X17.39318 Y1.78666
G01 X17.39976 Y1.16197
G01 X17.39633 Y0.96553
G01 X17.39892 Y0.80419
G01 X17.40530 Y0.73383
G01 X17.41444 Y0.68786
G01 X17.45455 Y0.57208
G01 X17.46255 Y0.53325
G01 X17.46565 Y0.46619
G01 X17.47342 Y0.42723
G01 X17.49661 Y0.36655
G01 X17.42211 Y0.21671
G01 X17.39113 Y0.16927
G01 X17.39735 Y0.11946
G01 X17.39758 Y0.00000
G01 X17.39735 Y0.11946
G01 X17.39113 Y0.16927
G01 X17.42211 Y0.21671
G01 X17.49661 Y0.36655
G01 X17.73029 Y0.36736
G01 X18.87761 Y0.36655
G01 X18.86534 Y0.11303
G01 X18.86534 Y0.00003
G01 X18.87098 Y0.26599
G01 X18.87761 Y0.36655
G01 X18.88899 Y0.43310
G01 X18.86689 Y0.66573
G01 X18.81805 Y1.50117
G01 X18.22869 Y2.33248
G01 X18.00370 Y2.35575
G01 X17.88013 Y2.24292
G01 X17.60423 Y1.97729
G01 X17.39318 Y1.78666
G01 X17.19130 Y1.66007
G01 X16.90637 Y1.50658
G01 X16.74266 Y1.43231
G01 X16.18905 Y1.43119
G01 X15.99806 Y1.41221
G01 X15.83065 Y1.36370
G01 X15.72717 Y1.37300
G01 X15.59827 Y1.39108
G01 X15.50833 Y1.37648
G01 X15.13167 Y1.50023
G01 X14.64229 Y1.50020
G01 X14.50998 Y1.50904
G01 X14.39862 Y1.52286
G01 X14.05451 Y1.40472
G01 X13.86995 Y1.31735
G01 X13.81971 Y1.28930
G01 X13.66670 Y1.36599
G01 X13.48504 Y1.40348
G01 X13.31084 Y1.42865
G01 X13.12319 Y1.43182
G01 X12.86571 Y1.40645
G01 X12.76426 Y1.36614
G01 X12.40353 Y1.36594
G01 X12.27412 Y1.37180
G01 X12.13256 Y1.38473
G01 X11.99934 Y1.34805
G01 X11.76033 Y1.36942
G01 X11.66345 Y1.38102
G01 X11.53168 Y1.40294
G01 X11.40074 Y1.36655
G01 X10.97636 Y1.36375
G01 X10.73252 Y1.47058
G01 X10.39523 Y1.50769
G01 X10.26653 Y1.52890
G01 X10.13770 Y1.50828
G01 X10.00227 Y1.49990
G01 X4.33207 Y1.49990
G01 X3.69989 Y0.89980
G01 X2.90004 Y0.09995
G01 X2.80528 Y0.00000
G01 X2.90004 Y0.09995
G01 X3.69989 Y0.89980
G01 X4.33207 Y1.49990
G01 X4.84848 Y2.04638
G01 X5.69989 Y2.89979
G01 X6.09501 Y3.27635
G01 X6.34901 Y3.49987
G01 X6.58851 Y3.77228
G01 X6.90001 Y4.09994
G01 X7.69986 Y4.89979
G01 X7.90684 Y5.09704
G01 X8.18530 Y5.33395
G01 X8.48317 Y5.54843
G01 X8.75614 Y5.71355
G01 X9.02912 Y5.84391
G01 X9.29551 Y5.94197
G01 X9.52292 Y5.99945
G01 X9.77118 Y6.03847
G01 X10.01949 Y6.04888
G01 X10.22876 Y6.03847
G01 X10.43803 Y6.00723
G01 X10.79421 Y5.91254
G01 X11.19172 Y5.91647
G01 X11.39563 Y5.90837
G01 X11.19172 Y5.91647
G01 X10.79421 Y5.91254
G01 X10.49741 Y4.87650
G01 X10.47313 Y4.74454
G01 X10.46932 Y4.70553
G01 X10.46881 Y4.56822
G01 X10.47463 Y4.56336
G01 X10.55345 Y4.39006
G01 X10.69061 Y4.11947
G01 X10.71692 Y4.04492
G01 X10.72581 Y3.99908
G01 X10.73180 Y3.92885
G01 X10.73249 Y3.47061
G01 X10.97117 Y3.36586
G01 X10.91009 Y3.21884
G01 X10.84839 Y3.04993
G01 X10.75886 Y2.77891
G01 X10.68133 Y2.58986
G01 X10.66803 Y2.53322
G01 X10.66475 Y2.47002
G01 X10.65921 Y2.43883
G01 X10.64351 Y2.38915
G01 X10.60653 Y2.29994
G01 X10.70407 Y2.08577
G01 X10.71710 Y2.04340
G01 X10.72866 Y1.98417
G01 X10.73277 Y1.92768
G01 X10.73252 Y1.47058
G01 X10.97636 Y1.36375
G01 X10.93302 Y1.23091
G01 X10.85372 Y1.07892
G01 X10.70315 Y0.77340
G01 X10.68205 Y0.72329
G01 X10.66744 Y0.65286
G01 X10.66655 Y0.49309
G01 X10.66056 Y0.44270
G01 X10.65113 Y0.40978
G01 X10.55228 Y0.17313
G01 X10.51088 Y0.09995
G01 X10.44423 Y0.00000
G01 X11.20026 Y0.00000
G01 X11.19904 Y0.07808
G01 X11.20577 Y0.19710
G01 X11.23168 Y0.24130
G01 X11.39952 Y0.36673
G01 X11.39734 Y1.16167
G01 X11.40074 Y1.36655
G01 X11.53168 Y1.40294
G01 X11.53229 Y1.93297
G01 X11.53051 Y1.98404
G01 X11.51118 Y2.10876
G01 X11.52787 Y2.19934
G01 X11.53221 Y2.26306
G01 X11.53069 Y2.30586
G01 X11.52528 Y2.34716
G01 X11.48464 Y2.51925
G01 X11.43376 Y2.63431
G01 X11.41966 Y2.67541
G01 X11.40318 Y2.76736
G01 X11.39840 Y2.89542
G01 X11.40125 Y3.07274
G01 X11.39840 Y3.30759
G01 X11.29744 Y3.36360
G01 X11.53381 Y3.83555
G01 X11.53150 Y3.92900
G01 X11.52406 Y4.00898
G01 X11.51641 Y4.04355
G01 X11.47036 Y4.18772
G01 X11.46619 Y4.23347
G01 X11.46680 Y4.49976
G01 X11.46272 Y4.54546
G01 X11.44791 Y4.60002
G01 X11.41639 Y4.68777
G01 X11.40135 Y4.78315
G01 X11.39563 Y5.90837
G01 X11.61890 Y5.91553
G01 X11.86599 Y5.90266
G01 X12.11306 Y5.91553
G01 X12.33259 Y5.90868
G01 X12.50521 Y5.91553
G01 X12.79114 Y5.91647
G01 X12.99507 Y5.90837
G01 X13.17935 Y5.91553
G01 X13.33221 Y5.91282
G01 X13.61841 Y5.91553
G01 X13.94838 Y5.89257
G01 X14.12154 Y5.94926
G01 X14.46886 Y6.02600
G01 X14.77978 Y6.04888
G01 X15.06510 Y6.03438
G01 X15.35120 Y6.04888
G01 X15.68277 Y6.02285
G01 X15.89860 Y5.97974
G01 X16.12420 Y5.91315
G01 X16.19420 Y5.90837
G01 X16.36367 Y5.91551
G01 X16.66377 Y5.91279
G01 X16.81729 Y5.91553
G01 X17.06435 Y5.90266
G01 X17.30352 Y5.91553
G01 X17.58973 Y5.91647
G01 X17.79364 Y5.90837
G01 X17.96313 Y5.91551
G01 X18.24606 Y5.91368
G01 X18.62193 Y5.86859
G01 X18.91894 Y5.79549
G01 X19.06808 Y5.86006
G01 X19.43303 Y5.97974
G01 X19.75447 Y6.03585
G01 X19.99996 Y6.04985
G01 X20.53311 Y6.04985
G01 X20.65500 Y6.04639
G01 X20.97115 Y6.00723
G01 X21.32559 Y5.91315
G01 X21.39947 Y5.90868
G01 X21.60476 Y5.91650
G01 X22.02434 Y5.91553
G01 X22.34926 Y5.89252
G01 X22.72177 Y5.99945
G01 X22.76076 Y6.00723
G01 X22.97003 Y6.03847
G01 X23.21832 Y6.04888
G01 X23.42761 Y6.03847
G01 X23.63688 Y6.00723
G01 X23.99309 Y5.91254
G01 X24.39058 Y5.91647
G01 X24.59462 Y5.90837
G01 X24.81804 Y5.91553
G01 X25.06510 Y5.90266
G01 X25.31214 Y5.91553
G01 X25.53155 Y5.90868
G01 X25.70399 Y5.91553
G01 X25.99027 Y5.91647
G01 X26.19416 Y5.90837
G01 X25.99027 Y5.91647
G01 X25.70399 Y5.91553
G01 X25.53155 Y5.90868
G01 X25.53368 Y5.16148
G01 X25.52972 Y4.78975
G01 X25.51565 Y4.68892
G01 X25.47587 Y4.57657
G01 X25.46469 Y4.49976
G01 X25.46464 Y4.22684
G01 X25.46828 Y4.18790
G01 X25.48336 Y4.13288
G01 X25.56050 Y3.94675
G01 X25.62748 Y3.74396
G01 X25.73518 Y3.44500
G01 X25.86688 Y3.12608
G01 X26.02654 Y2.69057
G01 X26.09159 Y2.49319
G01 X26.13137 Y2.49116
G01 X26.13144 Y0.74694
G01 X26.13782 Y0.70508
G01 X26.15598 Y0.65014
G01 X26.19746 Y0.57920
G01 X26.19797 Y0.28839
G01 X26.15880 Y0.22159
G01 X26.10348 Y0.11176
G01 X26.08006 Y0.04397
G01 X26.07163 Y0.00000
G01 X25.39035 Y0.00000
G01 X25.37389 Y0.07277
G01 X25.34907 Y0.13256
G01 X25.27770 Y0.26937
G01 X25.22924 Y0.33223
G01 X25.31613 Y0.54310
G01 X25.33061 Y0.61024
G01 X25.33150 Y2.35765
G01 X24.93541 Y2.36926
G01 X24.63551 Y2.74493
G01 X24.38875 Y3.11341
G01 X24.33658 Y3.14815
G01 X24.13541 Y3.26487
G01 X23.93318 Y3.36951
G01 X24.13541 Y3.26487
G01 X24.33658 Y3.14815
G01 X24.38875 Y3.11341
G01 X24.50770 Y3.38790
G01 X24.73267 Y3.83555
G01 X24.73038 Y3.92897
G01 X24.72296 Y4.00896
G01 X24.71534 Y4.04353
G01 X24.66932 Y4.18777
G01 X24.66518 Y4.23347
G01 X24.66579 Y4.49976
G01 X24.66170 Y4.54548
G01 X24.64686 Y4.60009
G01 X24.61537 Y4.68782
G01 X24.60033 Y4.78325
G01 X24.59462 Y5.90837
G01 X24.39058 Y5.91647
G01 X23.99309 Y5.91254
G01 X23.69155 Y4.85694
G01 X23.66833 Y4.70555
G01 X23.66780 Y4.56834
G01 X23.67341 Y4.56364
G01 X23.75230 Y4.39009
G01 X23.88946 Y4.11947
G01 X23.91583 Y4.04492
G01 X23.92474 Y3.99903
G01 X23.93287 Y3.83713
G01 X23.92982 Y3.57109
G01 X23.93318 Y3.36951
G01 X23.73198 Y3.43319
G01 X23.55091 Y3.47911
G01 X23.40115 Y3.49768
G01 X23.12977 Y3.50139
G01 X22.80166 Y3.53545
G01 X22.60326 Y3.64538
G01 X22.50288 Y3.60538
G01 X22.34438 Y3.54965
G01 X22.24283 Y3.52354
G01 X22.11542 Y3.49695
G01 X21.85106 Y3.30838
G01 X21.73793 Y3.23746
G01 X21.56709 Y3.15057
G01 X21.53417 Y2.83525
G01 X21.65599 Y2.70609
G01 X21.73336 Y2.60782
G01 X21.75939 Y2.56883
G01 X21.81134 Y2.47284
G01 X21.82752 Y2.43385
G01 X21.85063 Y2.35844
G01 X21.85838 Y2.31945
G01 X21.87105 Y2.16136
G01 X21.91758 Y1.94711
G01 X21.93127 Y1.79565
G01 X21.93232 Y1.45539
G01 X21.79559 Y1.36756
G01 X21.79452 Y1.35209
G01 X21.92228 Y1.12039
G01 X22.09594 Y0.77338
G01 X22.11708 Y0.72316
G01 X22.13033 Y0.66622
G01 X22.13171 Y0.61361
G01 X22.12259 Y0.56101
G01 X21.97578 Y0.19543
G01 X21.96302 Y0.15311
G01 X21.94141 Y0.03988
G01 X21.93755 Y0.00000
G01 X22.87240 Y0.00000
G01 X21.93755 Y0.00000
G01 X21.94141 Y0.03988
G01 X21.96302 Y0.15311
G01 X21.97578 Y0.19543
G01 X22.12259 Y0.56101
G01 X22.13171 Y0.61361
G01 X22.13033 Y0.66622
G01 X22.11708 Y0.72316
G01 X22.09594 Y0.77338
G01 X21.92228 Y1.12039
G01 X21.79452 Y1.35209
G01 X21.79559 Y1.36756
G01 X21.54398 Y1.45009
G01 X21.26628 Y1.51488
G01 X21.08914 Y1.50086
G01 X20.80316 Y1.49990
G01 X20.59854 Y1.51458
G01 X20.39838 Y1.46987
G01 X20.59854 Y1.51458
G01 X20.59902 Y1.87310
G01 X20.60545 Y1.99352
G01 X20.61502 Y2.04328
G01 X20.63872 Y2.11214
G01 X20.69452 Y2.22237
G01 X20.73303 Y2.28831
G01 X20.73252 Y2.57924
G01 X20.70052 Y2.63014
G01 X20.68660 Y2.66083
G01 X20.67575 Y2.69397
G01 X20.66651 Y2.74696
G01 X20.66646 Y3.49987
G01 X20.59991 Y3.52918
G01 X20.39633 Y3.50690
G01 X20.28614 Y3.50048
G01 X20.11035 Y3.50919
G01 X19.43707 Y3.58468
G01 X19.19872 Y3.62080
G01 X19.19897 Y4.19288
G01 X19.13659 Y4.36654
G01 X19.09905 Y4.54817
G01 X19.07939 Y4.66334
G01 X18.91894 Y5.79549
G01 X19.07939 Y4.66334
G01 X19.09905 Y4.54817
G01 X19.13659 Y4.36654
G01 X19.19897 Y4.19288
G01 X19.19872 Y3.62080
G01 X18.58894 Y2.76647
G01 X18.42226 Y2.54947
G01 X18.22869 Y2.33248
G01 X18.00370 Y2.35575
G01 X17.99537 Y2.36352
G01 X16.03083 Y2.36652
G01 X16.00738 Y2.42735
G01 X15.99814 Y2.47980
G01 X15.99634 Y2.53312
G01 X15.98836 Y2.57200
G01 X15.95575 Y2.66027
G01 X15.93908 Y2.73378
G01 X15.93271 Y2.80408
G01 X15.93050 Y2.89578
G01 X15.93355 Y3.16167
G01 X15.93035 Y3.35305
G01 X16.10375 Y3.36639
G01 X16.26464 Y3.37261
G01 X16.26464 Y4.49976
G01 X16.25742 Y4.56049
G01 X16.21488 Y4.68780
G01 X16.20573 Y4.73380
G01 X16.19941 Y4.80421
G01 X16.19420 Y5.90837
G01 X16.12420 Y5.91315
G01 X15.95252 Y5.49359
G01 X15.85130 Y5.27042
G01 X15.74978 Y5.09392
G01 X15.60827 Y4.87939
G01 X15.57477 Y4.81747
G01 X15.54188 Y4.72321
G01 X15.53256 Y4.65282
G01 X15.53256 Y4.61338
G01 X15.53639 Y4.57439
G01 X15.55384 Y4.50258
G01 X15.48033 Y4.32305
G01 X15.46723 Y4.26651
G01 X15.46499 Y4.23664
G01 X15.46720 Y4.20025
G01 X15.47498 Y4.16121
G01 X15.51579 Y4.04343
G01 X15.52677 Y3.98452
G01 X15.53246 Y3.83728
G01 X15.52943 Y3.57055
G01 X15.53261 Y3.38000
G01 X15.35069 Y3.36662
G01 X15.13167 Y3.36652
G01 X15.13286 Y2.80434
G01 X15.13891 Y2.73403
G01 X15.14782 Y2.68813
G01 X15.18826 Y2.57190
G01 X15.19832 Y2.49954
G01 X15.19601 Y2.20015
G01 X15.18455 Y2.14782
G01 X15.14767 Y2.04343
G01 X15.13274 Y1.94353
G01 X15.13167 Y1.50023
G01 X15.50833 Y1.37648
G01 X15.39862 Y1.10010
G01 X15.27439 Y0.72375
G01 X15.26512 Y0.65296
G01 X15.26520 Y0.61326
G01 X15.26911 Y0.57429
G01 X15.28658 Y0.50274
G01 X15.21358 Y0.32306
G01 X15.20058 Y0.26650
G01 X15.19743 Y0.21029
G01 X15.19903 Y0.00000
G01 X13.04920 Y0.00000
G01 X13.04318 Y0.03137
G01 X13.01158 Y0.13467
G01 X12.99992 Y0.20368
G01 X12.99812 Y0.44597
G01 X12.96629 Y0.49662
G01 X12.91265 Y0.60574
G01 X12.88214 Y0.68953
G01 X12.86779 Y0.78885
G01 X12.86571 Y0.96200
G01 X12.76426 Y1.36614
G01 X12.86571 Y1.40645
G01 X12.86571 Y2.29984
G01 X12.82243 Y2.34445
G01 X12.80414 Y2.42773
G01 X12.79888 Y2.51579
G01 X12.80592 Y2.58608
G01 X12.85154 Y2.78625
G01 X12.86365 Y2.89248
G01 X12.86721 Y3.16390
G01 X12.86449 Y3.33019
G01 X13.00018 Y3.36654
G01 X12.99677 Y3.57139
G01 X13.00020 Y3.76771
G01 X12.99893 Y4.07998
G01 X12.99202 Y4.16938
G01 X13.02344 Y4.21676
G01 X13.05004 Y4.27634
G01 X13.06464 Y4.34688
G01 X13.06383 Y4.53309
G01 X13.05248 Y4.58564
G01 X13.01580 Y4.68777
G01 X13.00665 Y4.73377
G01 X13.00028 Y4.80411
G01 X12.99507 Y5.90837
G01 X12.79114 Y5.91647
G01 X12.50521 Y5.91553
G01 X12.33259 Y5.90868
G01 X12.33259 Y4.83078
G01 X12.32601 Y4.73890
G01 X12.31676 Y4.68965
G01 X12.27590 Y4.57192
G01 X12.26680 Y4.52267
G01 X12.26566 Y4.22661
G01 X12.26947 Y4.18760
G01 X12.28433 Y4.13306
G01 X12.36154 Y3.94675
G01 X12.48966 Y3.56616
G01 X12.56909 Y3.36558
G01 X12.40645 Y3.30230
G01 X12.26749 Y3.25493
G01 X12.26409 Y3.04013
G01 X12.26642 Y2.55699
G01 X12.27303 Y2.49484
G01 X12.29347 Y2.42016
G01 X12.27135 Y2.32639
G01 X12.21085 Y2.24935
G01 X12.19121 Y2.21557
G01 X12.15575 Y2.12855
G01 X12.14176 Y2.06858
G01 X12.13289 Y1.96662
G01 X12.13256 Y1.38473
G01 X11.99934 Y1.34805
G01 X11.99906 Y0.33094
G01 X12.03665 Y0.25273
G01 X12.05329 Y0.19858
G01 X12.06480 Y0.12944
G01 X12.06612 Y0.00003
G01 X13.93200 Y0.00000
G01 X13.92982 Y0.16891
G01 X13.91125 Y0.31859
G01 X13.90170 Y0.36655
G01 X13.91128 Y0.41463
G01 X13.93104 Y0.61361
G01 X13.93104 Y0.65260
G01 X13.91125 Y0.85174
G01 X13.82243 Y1.25948
G01 X13.81971 Y1.28930
G01 X13.66670 Y1.36599
G01 X13.66327 Y1.57140
G01 X13.66545 Y1.90007
G01 X13.67246 Y1.99448
G01 X13.69471 Y2.08587
G01 X13.79410 Y2.29159
G01 X13.78608 Y2.33192
G01 X13.75565 Y2.41755
G01 X13.73213 Y2.43500
G01 X13.73213 Y3.45694
G01 X13.99870 Y3.58356
G01 X13.99870 Y3.91691
G01 X14.08013 Y4.09994
G01 X14.12504 Y4.21333
G01 X14.17023 Y4.37561
G01 X14.19652 Y4.56410
G01 X14.19385 Y4.73172
G01 X14.16901 Y4.89979
G01 X13.94838 Y5.89257
G01 X14.16901 Y4.89979
G01 X14.19385 Y4.73172
G01 X14.19748 Y4.58368
G01 X14.17798 Y4.41462
G01 X14.12504 Y4.21333
G01 X14.08013 Y4.09994
G01 X13.99870 Y3.91691
G01 X13.99870 Y3.58356
G01 X14.33195 Y3.40185
G01 X14.33038 Y2.89301
G01 X14.31719 Y2.78608
G01 X14.27206 Y2.58623
G01 X14.26555 Y2.52039
G01 X14.26530 Y2.33114
G01 X14.29184 Y2.27904
G01 X14.31770 Y2.21056
G01 X14.35705 Y2.09304
G01 X14.38758 Y1.97457
G01 X14.39725 Y1.86230
G01 X14.39862 Y1.52286
G01 X14.39725 Y1.86230
G01 X14.38758 Y1.97457
G01 X14.35705 Y2.09304
G01 X14.31770 Y2.21056
G01 X14.29184 Y2.27904
G01 X14.26530 Y2.33114
G01 X14.26555 Y2.52039
G01 X14.27206 Y2.58623
G01 X14.31719 Y2.78608
G01 X14.33038 Y2.89301
G01 X14.33195 Y3.40185
G01 X14.73599 Y3.36784
G01 X14.88074 Y3.36832
G01 X15.06507 Y3.38544
G01 X15.13167 Y3.36652
G01 X15.35069 Y3.36662
G01 X15.53261 Y3.38000
G01 X15.60645 Y3.37241
G01 X15.85651 Y3.36065
G01 X15.93035 Y3.35305
G01 X16.10375 Y3.36639
G01 X16.26464 Y3.37261
G01 X16.53118 Y3.34759
G01 X16.79778 Y3.27541
G01 X17.13103 Y3.12410
G01 X17.33784 Y2.97343
G01 X17.62567 Y2.73619
G01 X17.79750 Y2.57950
G01 X18.00370 Y2.35575
G01 X17.79750 Y2.57950
G01 X17.79829 Y3.92242
G01 X17.79727 Y4.11947
G01 X17.79107 Y4.16918
G01 X17.82191 Y4.21645
G01 X17.89641 Y4.36654
G01 X19.13659 Y4.36654
G01 X17.89641 Y4.36654
G01 X17.87322 Y4.42722
G01 X17.86407 Y4.47980
G01 X17.86235 Y4.53314
G01 X17.85437 Y4.57200
G01 X17.81432 Y4.68780
G01 X17.80517 Y4.73380
G01 X17.79885 Y4.80421
G01 X17.79364 Y5.90837
G01 X17.58973 Y5.91647
G01 X17.30352 Y5.91553
G01 X17.06435 Y5.90266
G01 X17.06402 Y4.23332
G01 X17.07142 Y4.17243
G01 X17.11503 Y4.04345
G01 X17.12994 Y3.94363
G01 X17.13103 Y3.12410
G01 X16.79778 Y3.27541
G01 X16.53118 Y3.34759
G01 X16.26464 Y3.37261
G01 X16.10375 Y3.36639
G01 X15.93035 Y3.35305
G01 X16.10375 Y3.36639
G01 X16.26464 Y3.37261
G01 X16.53118 Y3.34759
G01 X16.79778 Y3.27541
G01 X17.13103 Y3.12410
G01 X17.33784 Y2.97343
G01 X17.62567 Y2.73619
G01 X17.79750 Y2.57950
G01 X18.00370 Y2.35575
G01 X18.22869 Y2.33248
G01 X18.81805 Y1.50117
G01 X20.15282 Y1.49890
G01 X20.35203 Y1.47912
G01 X20.39838 Y1.46987
G01 X20.39993 Y0.88031
G01 X20.40666 Y0.81333
G01 X20.41446 Y0.77437
G01 X20.43778 Y0.69873
G01 X20.49645 Y0.57831
G01 X20.44532 Y0.45441
G01 X20.40971 Y0.33673
G01 X20.44416 Y0.23332
G01 X20.46158 Y0.15959
G01 X20.46630 Y0.10983
G01 X20.46707 Y0.00003
G01 X21.06635 Y0.00000
G01 X21.06635 Y0.06482
G01 X21.08868 Y0.11946
G01 X21.13892 Y0.21443
G01 X21.16094 Y0.24750
G01 X21.21908 Y0.31877
G01 X21.44685 Y0.54767
G01 X21.50494 Y0.61890
G01 X21.56554 Y0.72045
G01 X21.64146 Y0.89982
G01 X21.66531 Y0.96596
G01 X21.79452 Y1.35209
G01 X21.79559 Y1.36756
G01 X21.54398 Y1.45009
G01 X21.26628 Y1.51488
G01 X21.26569 Y2.12951
G01 X21.25375 Y2.19870
G01 X21.21065 Y2.33718
G01 X21.23791 Y2.43411
G01 X21.25403 Y2.47315
G01 X21.30600 Y2.56949
G01 X21.33204 Y2.60853
G01 X21.44159 Y2.74124
G01 X21.53417 Y2.83525
G01 X21.56709 Y3.15057
G01 X21.09612 Y3.48899
G01 X20.95266 Y3.49974
G01 X20.66646 Y3.49987
G01 X20.59991 Y3.52918
G01 X20.59747 Y3.84076
G01 X20.58485 Y3.94711
G01 X20.55185 Y4.09103
G01 X20.53783 Y4.16126
G01 X20.53405 Y4.20027
G01 X20.53382 Y4.52039
G01 X20.54720 Y4.61932
G01 X20.65464 Y4.69336
G01 X20.71322 Y4.74716
G01 X20.74832 Y4.78963
G01 X20.94888 Y5.09298
G01 X21.05266 Y5.27080
G01 X21.15680 Y5.49643
G01 X21.32559 Y5.91315
G01 X21.39947 Y5.90868
G01 X21.40069 Y4.80433
G01 X21.40674 Y4.73395
G01 X21.41565 Y4.68805
G01 X21.45609 Y4.57185
G01 X21.46511 Y4.52265
G01 X21.46384 Y4.20019
G01 X21.44537 Y4.12831
G01 X21.35576 Y3.91434
G01 X21.32272 Y3.85356
G01 X21.19732 Y3.66352
G01 X21.09612 Y3.48899
G01 X21.19732 Y3.66352
G01 X21.32272 Y3.85356
G01 X21.35576 Y3.91434
G01 X21.44309 Y4.12242
G01 X21.45609 Y4.16121
G01 X21.46518 Y4.21356
G01 X21.46511 Y4.52265
G01 X21.45609 Y4.57185
G01 X21.41565 Y4.68805
G01 X21.40674 Y4.73395
G01 X21.40069 Y4.80433
G01 X21.39947 Y5.90868
G01 X21.60476 Y5.91650
G01 X22.02434 Y5.91553
G01 X22.34926 Y5.89252
G01 X22.51654 Y5.14109
G01 X22.56318 Y4.97251
G01 X22.59005 Y4.89979
G01 X22.63978 Y4.73093
G01 X22.64755 Y4.69196
G01 X22.66465 Y4.54200
G01 X22.66465 Y4.19105
G01 X22.65726 Y4.09994
G01 X22.60326 Y3.64538
G01 X22.80166 Y3.53545
G01 X22.79795 Y3.16400
G01 X22.79917 Y1.52210
G01 X22.93056 Y1.47843
G01 X22.93386 Y0.73287
G01 X22.94738 Y0.67551
G01 X22.97425 Y0.61572
G01 X23.00653 Y0.56741
G01 X23.07222 Y0.49251
G01 X22.96300 Y0.22697
G01 X22.89625 Y0.09309
G01 X22.87240 Y0.00000
G01 X24.30181 Y0.00000
G01 X23.73211 Y0.00000
G01 X23.73203 Y0.26071
G01 X23.72175 Y0.35603
G01 X23.81283 Y0.44768
G01 X23.88108 Y0.53746
G01 X23.92086 Y0.61110
G01 X24.00419 Y0.81638
G01 X24.03389 Y0.92547
G01 X24.08418 Y1.21689
G01 X24.13152 Y1.45385
G01 X24.13201 Y1.56789
G01 X24.13152 Y1.45385
G01 X24.25962 Y1.23040
G01 X24.39975 Y0.96731
G01 X24.64173 Y0.48082
G01 X24.45126 Y0.28560
G01 X24.40493 Y0.22880
G01 X24.34308 Y0.12195
G01 X24.31694 Y0.05570
G01 X24.30181 Y0.00000
G01 X26.78123 Y0.00003
G01 X26.75654 Y0.09258
G01 X26.70673 Y0.24117
G01 X26.66555 Y0.33099
G01 X26.66555 Y0.38618
G01 X26.67221 Y0.45303
G01 X26.68161 Y0.49974
G01 X26.66614 Y0.60028
G01 X26.66555 Y0.78819
G01 X26.67196 Y0.85441
G01 X26.71839 Y1.06213
G01 X26.72984 Y1.20259
G01 X26.73274 Y1.42893
G01 X26.72888 Y1.75103
G01 X26.73568 Y2.50081
G01 X26.20020 Y2.49987
G01 X26.20279 Y3.01722
G01 X26.19586 Y3.57063
G01 X26.19875 Y4.05000
G01 X26.19190 Y4.17022
G01 X26.23304 Y4.23738
G01 X26.25456 Y4.29412
G01 X26.26373 Y4.34688
G01 X26.26416 Y4.51922
G01 X26.25806 Y4.56085
G01 X26.21488 Y4.68790
G01 X26.20576 Y4.73395
G01 X26.19944 Y4.80352
G01 X26.19416 Y5.90837
G01 X26.37838 Y5.91553
G01 X26.53119 Y5.91282
G01 X26.81729 Y5.91553
G01 X27.05283 Y5.90385
G01 X27.32740 Y5.86095
G01 X27.58570 Y5.79559
G01 X27.88288 Y5.68609
G01 X28.31493 Y5.46786
G01 X28.70045 Y5.21099
G01 X29.03157 Y4.94434
G01 X29.34312 Y4.65262
G01 X29.80677 Y4.15270
G01 X30.23144 Y3.61925
G01 X30.47924 Y3.27640
G01 X30.90540 Y3.06167
G01 X31.36788 Y2.79867
G01 X31.83039 Y2.50167
G01 X32.29287 Y2.17071
G01 X32.79432 Y1.77361
G01 X33.38299 Y1.26012
G01 X33.97166 Y0.69192
G01 X34.52899 Y0.13277
G01 X34.65507 Y0.00000
G01 X45.72000 Y0.00000
G01 X45.72000 Y27.41993
G01 X0.00000 Y27.41993
G01 X0.00000 Y0.00000
G01 X34.65507 Y0.00000
G01 X34.52899 Y0.13277
G01 X33.97166 Y0.69192
G01 X33.38299 Y1.26012
G01 X32.79432 Y1.77361
G01 X32.29287 Y2.17071
G01 X31.83039 Y2.50167
G01 X31.36788 Y2.79867
G01 X30.90540 Y3.06167
G01 X30.47924 Y3.27640
G01 X29.86956 Y3.17183
G01 X29.55333 Y3.12230
G01 X28.46324 Y2.96591
G01 X27.20845 Y2.60274
G01 X26.73568 Y2.50081
G01 X26.20020 Y2.49987
G01 X26.13137 Y2.49116
G01 X26.09159 Y2.49319
G01 X25.76177 Y2.42123
G01 X25.56916 Y2.38907
G01 X25.33150 Y2.35765
G01 X24.93541 Y2.36926
G01 X24.13201 Y1.56789
G01 X23.99881 Y1.56403
G01 X23.85322 Y1.55133
G01 X23.40122 Y1.50139
G01 X23.20219 Y1.49987
G01 X23.10028 Y1.49502
G01 X22.93056 Y1.47843
G01 X22.79917 Y1.52210
G01 X22.63112 Y1.50462
G01 X22.53259 Y1.49944
G01 X22.37633 Y1.49890
G01 X22.26589 Y1.49245
G01 X21.93232 Y1.45539
G04 P0 ( dwell for no time -- G64 should not smooth over this point )
G00 Z10.00000 ( retract )

G00 X22.36584 Y0.27470 ( rapid move to begin. )
G01 F30.00000
( Mill infeed pass 1/1 )
G01 Z-0.10000
G04 P0 ( dwell for no time -- G64 should not smooth over this point )
G01 F360.00000
G01 X22.36584 Y0.27470
G01 X22.36584 Y0.72507
G01 X22.44065 Y0.79985
G01 X22.62429 Y0.79985
G01 X22.69909 Y0.72507
G01 X22.69909 Y0.27470
G01 X22.62429 Y0.19990
G01 X22.44065 Y0.19990
G01 X22.36584 Y0.27470
G04 P0 ( dwell for no time -- G64 should not smooth over this point )
G00 Z10.00000 ( retract )

G00 X21.49945 Y2.13335 ( rapid move to begin. )
G01 F30.00000
( Mill infeed pass 1/1 )
G01 Z-0.10000
G04 P0 ( dwell for no time -- G64 should not smooth over this point )
G01 F360.00000
G01 X21.49945 Y2.13335
G01 X21.56625 Y2.13335
G01 X21.56625 Y2.19989
G01 X21.49945 Y2.19989
G01 X21.49945 Y2.13335
G04 P0 ( dwell for no time -- G64 should not smooth over this point )
G00 Z10.00000 ( retract )

G00 X20.09991 Y2.27470 ( rapid move to begin. )
G01 F30.00000
( Mill infeed pass 1/1 )
G01 Z-0.10000
G04 P0 ( dwell for no time -- G64 should not smooth over this point )
G01 F360.00000
G01 X20.09991 Y2.27470
G01 X20.17471 Y2.19989
G01 X20.35835 Y2.19989
G01 X20.43316 Y2.27470
G01 X20.43316 Y2.72504
G01 X20.35835 Y2.79984
G01 X20.17471 Y2.79984
G01 X20.09991 Y2.72504
G01 X20.09991 Y2.27470
G04 P0 ( dwell for no time -- G64 should not smooth over this point )
G00 Z10.00000 ( retract )

G00 X18.03083 Y4.13334 ( rapid move to begin. )
G01 F30.00000
( Mill infeed pass 1/1 )
G01 Z-0.10000
G04 P0 ( dwell for no time -- G64 should not smooth over this point )
G01 F360.00000
G01 X18.03083 Y4.13334
G01 X18.03083 Y4.19989
G01 X18.09737 Y4.19989
G01 X18.09737 Y4.13334
G01 X18.03083 Y4.13334
G04 P0 ( dwell for no time -- G64 should not smooth over this point )
G00 Z10.00000 ( retract )

G00 X16.16469 Y2.53314 ( rapid move to begin. )
G01 F30.00000
( Mill infeed pass 1/1 )
G01 Z-0.10000
G04 P0 ( dwell for no time -- G64 should not smooth over this point )
G01 F360.00000
G01 X16.16469 Y2.53314
G01 X16.23123 Y2.53314
G01 X16.23123 Y2.59969
G01 X16.16469 Y2.59969
G01 X16.16469 Y2.53314
G04 P0 ( dwell for no time -- G64 should not smooth over this point )
G00 Z10.00000 ( retract )

G00 X16.16469 Y2.13335 ( rapid move to begin. )
G01 F30.00000
( Mill infeed pass 1/1 )
G01 Z-0.10000
G04 P0 ( dwell for no time -- G64 should not smooth over this point )
G01 F360.00000
G01 X16.16469 Y2.13335
G01 X16.23123 Y2.13335
G01 X16.23123 Y2.19989
G01 X16.16469 Y2.19989
G01 X16.16469 Y2.13335
G04 P0 ( dwell for no time -- G64 should not smooth over this point )
G00 Z10.00000 ( retract )

G00 X17.63077 Y0.53315 ( rapid move to begin. )
G01 F30.00000
( Mill infeed pass 1/1 )
G01 Z-0.10000
G04 P0 ( dwell for no time -- G64 should not smooth over this point )
G01 F360.00000
G01 X17.63077 Y0.53315
G01 X17.69758 Y0.53315
G01 X17.69758 Y0.59969
G01 X17.63077 Y0.59969
G01 X17.63077 Y0.53315
G04 P0 ( dwell for no time -- G64 should not smooth over this point )
G00 Z10.00000 ( retract )

G00 X17.63077 Y0.13335 ( rapid move to begin. )
G01 F30.00000
( Mill infeed pass 1/1 )
G01 Z-0.10000
G04 P0 ( dwell for no time -- G64 should not smooth over this point )
G01 F360.00000
G01 X17.63077 Y0.13335
G01 X17.69758 Y0.13335
G01 X17.69758 Y0.19990
G01 X17.63077 Y0.19990
G01 X17.63077 Y0.13335
G04 P0 ( dwell for no time -- G64 should not smooth over this point )
G00 Z10.00000 ( retract )

G00 X16.90599 Y0.46660 ( rapid move to begin. )
G01 F30.00000
( Mill infeed pass 1/1 )
G01 Z-0.10000
G04 P0 ( dwell for no time -- G64 should not smooth over this point )
G01 F360.00000
G01 X16.90599 Y0.46660
G01 X17.22272 Y0.46660
G01 X17.15618 Y0.53315
G01 X16.97253 Y0.53315
G01 X16.90599 Y0.46660
G04 P0 ( dwell for no time -- G64 should not smooth over this point )
G00 Z10.00000 ( retract )

G00 X15.47292 Y0.23330 ( rapid move to begin. )
G01 F30.00000
( Mill infeed pass 1/1 )
G01 Z-0.10000
G04 P0 ( dwell for no time -- G64 should not smooth over this point )
G01 F360.00000
G01 X15.47292 Y0.23330
G01 X15.50624 Y0.26670
G01 X15.76489 Y0.26670
G01 X15.76489 Y0.19990
G01 X15.50624 Y0.19990
G01 X15.47292 Y0.23330
G04 P0 ( dwell for no time -- G64 should not smooth over this point )
G00 Z10.00000 ( retract )

G00 X14.63180 Y0.19990 ( rapid move to begin. )
G01 F30.00000
( Mill infeed pass 1/1 )
G01 Z-0.10000
G04 P0 ( dwell for no time -- G64 should not smooth over this point )
G01 F360.00000
G01 X14.63180 Y0.19990
G01 X14.89024 Y0.19990
G01 X14.96504 Y0.27470
G01 X14.96504 Y0.72507
G01 X14.89024 Y0.79985
G01 X14.63180 Y0.79985
G01 X14.63180 Y0.19990
G04 P0 ( dwell for no time -- G64 should not smooth over this point )
G00 Z10.00000 ( retract )

G00 X10.09993 Y0.46660 ( rapid move to begin. )
G01 F30.00000
( Mill infeed pass 1/1 )
G01 Z-0.10000
G04 P0 ( dwell for no time -- G64 should not smooth over this point )
G01 F360.00000
G01 X10.09993 Y0.46660
G01 X10.35842 Y0.46660
G01 X10.43318 Y0.54120
G01 X10.43318 Y0.72507
G01 X10.35837 Y0.79985
G01 X10.09993 Y0.79985
G01 X10.09993 Y0.46660
G04 P0 ( dwell for no time -- G64 should not smooth over this point )
G00 Z10.00000 ( retract )

G00 X10.90795 Y2.46659 ( rapid move to begin. )
G01 F30.00000
( Mill infeed pass 1/1 )
G01 Z-0.10000
G04 P0 ( dwell for no time -- G64 should not smooth over this point )
G01 F360.00000
G01 X10.90795 Y2.46659
G01 X11.22477 Y2.46659
G01 X11.15822 Y2.53314
G01 X10.97437 Y2.53314
G01 X10.90795 Y2.46659
G04 P0 ( dwell for no time -- G64 should not smooth over this point )
G00 Z10.00000 ( retract )

G00 X10.09993 Y2.46659 ( rapid move to begin. )
G01 F30.00000
( Mill infeed pass 1/1 )
G01 Z-0.10000
G04 P0 ( dwell for no time -- G64 should not smooth over this point )
G01 F360.00000
G01 X10.09993 Y2.46659
G01 X10.35842 Y2.46659
G01 X10.43318 Y2.54119
G01 X10.43318 Y2.72504
G01 X10.35837 Y2.79984
G01 X10.09993 Y2.79984
G01 X10.09993 Y2.46659
G04 P0 ( dwell for no time -- G64 should not smooth over this point )
G00 Z10.00000 ( retract )

G00 X10.94110 Y4.23321 ( rapid move to begin. )
G01 F30.00000
( Mill infeed pass 1/1 )
G01 Z-0.10000
G04 P0 ( dwell for no time -- G64 should not smooth over this point )
G01 F360.00000
G01 X10.94110 Y4.23321
G01 X10.97437 Y4.19989
G01 X11.23302 Y4.19989
G01 X11.23302 Y4.26644
G01 X10.97432 Y4.26644
G01 X10.94110 Y4.23321
G04 P0 ( dwell for no time -- G64 should not smooth over this point )
G00 Z10.00000 ( retract )

G00 X12.50721 Y4.46634 ( rapid move to begin. )
G01 F30.00000
( Mill infeed pass 1/1 )
G01 Z-0.10000
G04 P0 ( dwell for no time -- G64 should not smooth over this point )
G01 F360.00000
G01 X12.50721 Y4.46634
G01 X12.82446 Y4.46634
G01 X12.75766 Y4.53314
G01 X12.57402 Y4.53314
G01 X12.50721 Y4.46634
G04 P0 ( dwell for no time -- G64 should not smooth over this point )
G00 Z10.00000 ( retract )

G00 X14.63180 Y2.27470 ( rapid move to begin. )
G01 F30.00000
( Mill infeed pass 1/1 )
G01 Z-0.10000
G04 P0 ( dwell for no time -- G64 should not smooth over this point )
G01 F360.00000
G01 X14.63180 Y2.27470
G01 X14.63180 Y2.45834
G01 X14.70660 Y2.53314
G01 X14.89024 Y2.53314
G01 X14.96504 Y2.45834
G01 X14.96504 Y2.27470
G01 X14.89024 Y2.19989
G01 X14.70660 Y2.19989
G01 X14.63180 Y2.27470
G04 P0 ( dwell for no time -- G64 should not smooth over this point )
G00 Z10.00000 ( retract )

G00 X15.73957 Y4.23321 ( rapid move to begin. )
G01 F30.00000
( Mill infeed pass 1/1 )
G01 Z-0.10000
G04 P0 ( dwell for no time -- G64 should not smooth over this point )
G01 F360.00000
G01 X15.73957 Y4.23321
G01 X15.77284 Y4.26644
G01 X16.03134 Y4.26644
G01 X16.03134 Y4.19989
G01 X15.77289 Y4.19989
G01 X15.73957 Y4.23321
G04 P0 ( dwell for no time -- G64 should not smooth over this point )
G00 Z10.00000 ( retract )

G00 X17.30553 Y4.46634 ( rapid move to begin. )
G01 F30.00000
( Mill infeed pass 1/1 )
G01 Z-0.10000
G04 P0 ( dwell for no time -- G64 should not smooth over this point )
G01 F360.00000
G01 X17.30553 Y4.46634
G01 X17.37233 Y4.53314
G01 X17.55618 Y4.53314
G01 X17.62285 Y4.46634
G01 X17.30553 Y4.46634
G04 P0 ( dwell for no time -- G64 should not smooth over this point )
G00 Z10.00000 ( retract )

G00 X18.03083 Y4.53314 ( rapid move to begin. )
G01 F30.00000
( Mill infeed pass 1/1 )
G01 Z-0.10000
G04 P0 ( dwell for no time -- G64 should not smooth over this point )
G01 F360.00000
G01 X18.03083 Y4.53314
G01 X18.09737 Y4.53314
G01 X18.09737 Y4.59969
G01 X18.03083 Y4.59969
G01 X18.03083 Y4.53314
G04 P0 ( dwell for no time -- G64 should not smooth over this point )
G00 Z10.00000 ( retract )

G00 X20.89975 Y4.27469 ( rapid move to begin. )
G01 F30.00000
( Mill infeed pass 1/1 )
G01 Z-0.10000
G04 P0 ( dwell for no time -- G64 should not smooth over this point )
G01 F360.00000
G01 X20.89975 Y4.27469
G01 X20.89975 Y4.45834
G01 X20.97456 Y4.53314
G01 X21.15820 Y4.53314
G01 X21.23300 Y4.45834
G01 X21.23300 Y4.27469
G01 X21.15820 Y4.19989
G01 X20.97456 Y4.19989
G01 X20.89975 Y4.27469
G04 P0 ( dwell for no time -- G64 should not smooth over this point )
G00 Z10.00000 ( retract )

G00 X21.69935 Y4.19989 ( rapid move to begin. )
G01 F30.00000
( Mill infeed pass 1/1 )
G01 Z-0.10000
G04 P0 ( dwell for no time -- G64 should not smooth over this point )
G01 F360.00000
G01 X21.69935 Y4.19989
G01 X21.69935 Y4.53314
G01 X21.95800 Y4.53314
G01 X22.03259 Y4.45839
G01 X22.03259 Y4.27464
G01 X21.95800 Y4.19989
G01 X21.69935 Y4.19989
G04 P0 ( dwell for no time -- G64 should not smooth over this point )
G00 Z10.00000 ( retract )

G00 X22.23249 Y2.27470 ( rapid move to begin. )
G01 F30.00000
( Mill infeed pass 1/1 )
G01 Z-0.10000
G04 P0 ( dwell for no time -- G64 should not smooth over this point )
G01 F360.00000
G01 X22.23249 Y2.27470
G01 X22.23249 Y2.72504
G01 X22.30730 Y2.79984
G01 X22.49114 Y2.79984
G01 X22.56574 Y2.72509
G01 X22.56574 Y2.27465
G01 X22.49114 Y2.19989
G01 X22.30730 Y2.19989
G01 X22.23249 Y2.27470
G04 P0 ( dwell for no time -- G64 should not smooth over this point )
G00 Z10.00000 ( retract )

G00 X23.03234 Y2.27470 ( rapid move to begin. )
G01 F30.00000
( Mill infeed pass 1/1 )
G01 Z-0.10000
G04 P0 ( dwell for no time -- G64 should not smooth over this point )
G01 F360.00000
G01 X23.03234 Y2.27470
G01 X23.03234 Y2.72504
G01 X23.10714 Y2.79984
G01 X23.29078 Y2.79984
G01 X23.36559 Y2.72504
G01 X23.36559 Y2.27470
G01 X23.29078 Y2.19989
G01 X23.10714 Y2.19989
G01 X23.03234 Y2.27470
G04 P0 ( dwell for no time -- G64 should not smooth over this point )
G00 Z10.00000 ( retract )

G00 X24.14011 Y4.23321 ( rapid move to begin. )
G01 F30.00000
( Mill infeed pass 1/1 )
G01 Z-0.10000
G04 P0 ( dwell for no time -- G64 should not smooth over this point )
G01 F360.00000
G01 X24.14011 Y4.23321
G01 X24.17338 Y4.26644
G01 X24.43188 Y4.26644
G01 X24.43188 Y4.19989
G01 X24.17343 Y4.19989
G01 X24.14011 Y4.23321
G04 P0 ( dwell for no time -- G64 should not smooth over this point )
G00 Z10.00000 ( retract )

G00 X25.70604 Y4.46634 ( rapid move to begin. )
G01 F30.00000
( Mill infeed pass 1/1 )
G01 Z-0.10000
G04 P0 ( dwell for no time -- G64 should not smooth over this point )
G01 F360.00000
G01 X25.70604 Y4.46634
G01 X25.77287 Y4.53314
G01 X25.95674 Y4.53314
G01 X26.02332 Y4.46634
G01 X25.70604 Y4.46634
G04 P0 ( dwell for no time -- G64 should not smooth over this point )
G00 Z10.00000 ( retract )

G00 X25.56485 Y0.27465 ( rapid move to begin. )
G01 F30.00000
( Mill infeed pass 1/1 )
G01 Z-0.10000
G04 P0 ( dwell for no time -- G64 should not smooth over this point )
G01 F360.00000
G01 X25.56485 Y0.27465
G01 X25.63952 Y0.19990
G01 X25.82342 Y0.19990
G01 X25.89807 Y0.27470
G01 X25.89807 Y0.72507
G01 X25.82342 Y0.79985
G01 X25.63952 Y0.79985
G01 X25.56485 Y0.72512
G01 X25.56485 Y0.27465
G04 P0 ( dwell for no time -- G64 should not smooth over this point )
G00 Z10.00000 ( retract )

G00 X27.03093 Y0.27470 ( rapid move to begin. )
G01 F30.00000
( Mill infeed pass 1/1 )
G01 Z-0.10000
G04 P0 ( dwell for no time -- G64 should not smooth over this point )
G01 F360.00000
G01 X27.03093 Y0.27470
G01 X27.10586 Y0.19990
G01 X27.28951 Y0.19990
G01 X27.36418 Y0.27470
G01 X27.36418 Y0.32520
G01 X27.28951 Y0.39980
G01 X27.10586 Y0.39980
G01 X27.03093 Y0.32520
G01 X27.03093 Y0.27470
G04 P0 ( dwell for no time -- G64 should not smooth over this point )
G00 Z10.00000 ( retract )

G00 X27.03093 Y0.67452 ( rapid move to begin. )
G01 F30.00000
( Mill infeed pass 1/1 )
G01 Z-0.10000
G04 P0 ( dwell for no time -- G64 should not smooth over this point )
G01 F360.00000
G01 X27.03093 Y0.67452
G01 X27.10586 Y0.59969
G01 X27.28951 Y0.59969
G01 X27.36418 Y0.67452
G01 X27.36418 Y0.72507
G01 X27.28951 Y0.79985
G01 X27.10586 Y0.79985
G01 X27.03093 Y0.72507
G01 X27.03093 Y0.67452
G04 P0 ( dwell for no time -- G64 should not smooth over this point )
G00 Z10.00000 ( retract )

G00 X33.79775 Y8.24293 ( rapid move to begin. )
G01 F30.00000
( Mill infeed pass 1/1 )
G01 Z-0.10000
G04 P0 ( dwell for no time -- G64 should not smooth over this point )
G01 F360.00000
G01 X33.79775 Y8.24293
G01 X33.81553 Y8.10781
G01 X33.91662 Y7.86371
G01 X34.07740 Y7.65391
G01 X34.28721 Y7.49287
G01 X34.53155 Y7.39178
G01 X34.66668 Y7.37400
G01 X34.66666 Y7.63427
G01 X34.56178 Y7.65658
G01 X34.41878 Y7.72036
G01 X34.29178 Y7.81251
G01 X34.18688 Y7.92902
G01 X34.10839 Y8.06486
G01 X34.06013 Y8.21398
G01 X34.05706 Y8.24291
G01 X33.79775 Y8.24293
G04 P0 ( dwell for no time -- G64 should not smooth over this point )
G00 Z10.00000 ( retract )

G00 X36.45286 Y10.90994 ( rapid move to begin. )
G01 F30.00000
( Mill infeed pass 1/1 )
G01 Z-0.10000
G04 P0 ( dwell for no time -- G64 should not smooth over this point )
G01 F360.00000
G01 X36.45286 Y10.90994
G01 X36.47714 Y10.71418
G01 X36.48433 Y10.68230
G01 X36.52728 Y10.56566
G01 X36.57260 Y10.47062
G01 X36.63226 Y10.38388
G01 X36.71192 Y10.28809
G01 X36.75649 Y10.24880
G01 X36.89320 Y10.14715
G01 X37.04958 Y10.07953
G01 X37.10602 Y10.06053
G01 X37.22873 Y10.03945
G01 X37.33366 Y10.03117
G01 X37.43861 Y10.03945
G01 X37.56106 Y10.06051
G01 X37.61776 Y10.07958
G01 X37.77397 Y10.14710
G01 X37.91082 Y10.24882
G01 X37.95542 Y10.28809
G01 X38.03505 Y10.38390
G01 X38.09459 Y10.47057
G01 X38.14001 Y10.56566
G01 X38.18301 Y10.68238
G01 X38.19020 Y10.71418
G01 X38.21448 Y10.90994
G01 X38.19020 Y11.10567
G01 X38.18301 Y11.13749
G01 X38.14001 Y11.25418
G01 X38.09456 Y11.34943
G01 X38.03508 Y11.43594
G01 X37.95542 Y11.53170
G01 X37.91082 Y11.57102
G01 X37.77397 Y11.67275
G01 X37.61776 Y11.74026
G01 X37.56106 Y11.75934
G01 X37.43861 Y11.78039
G01 X37.33366 Y11.78867
G01 X37.22873 Y11.78039
G01 X37.10602 Y11.75931
G01 X37.04958 Y11.74031
G01 X36.89320 Y11.67270
G01 X36.75649 Y11.57105
G01 X36.71189 Y11.53170
G01 X36.63224 Y11.43597
G01 X36.57262 Y11.34938
G01 X36.52726 Y11.25421
G01 X36.48433 Y11.13754
G01 X36.47714 Y11.10567
G01 X36.45286 Y10.90994
G04 P0 ( dwell for no time -- G64 should not smooth over this point )
G00 Z10.00000 ( retract )

G00 X38.73957 Y12.64933 ( rapid move to begin. )
G01 F30.00000
( Mill infeed pass 1/1 )
G01 Z-0.10000
G04 P0 ( dwell for no time -- G64 should not smooth over this point )
G01 F360.00000
G01 X38.73957 Y12.64933
G01 X38.75354 Y12.54443
G01 X38.84295 Y12.32802
G01 X38.98544 Y12.14234
G01 X39.17137 Y11.99985
G01 X39.38753 Y11.91019
G01 X39.49268 Y11.89647
G01 X39.49268 Y12.15768
G01 X39.42334 Y12.17242
G01 X39.30218 Y12.22639
G01 X39.19474 Y12.30442
G01 X39.10584 Y12.40307
G01 X39.03955 Y12.51806
G01 X38.99812 Y12.64933
G01 X38.73957 Y12.64933
G04 P0 ( dwell for no time -- G64 should not smooth over this point )
G00 Z10.00000 ( retract )

G00 X38.73957 Y12.90333 ( rapid move to begin. )
G01 F30.00000
( Mill infeed pass 1/1 )
G01 Z-0.10000
G04 P0 ( dwell for no time -- G64 should not smooth over this point )
G01 F360.00000
G01 X38.73957 Y12.90333
G01 X38.75354 Y13.00848
G01 X38.84295 Y13.22464
G01 X38.98544 Y13.41057
G01 X39.17137 Y13.55280
G01 X39.38753 Y13.64244
G01 X39.49268 Y13.65644
G01 X39.49268 Y13.39494
G01 X39.42334 Y13.38024
G01 X39.30218 Y13.32626
G01 X39.19474 Y13.24823
G01 X39.10584 Y13.14958
G01 X39.03955 Y13.03459
G01 X38.99812 Y12.90333
G01 X38.73957 Y12.90333
G04 P0 ( dwell for no time -- G64 should not smooth over this point )
G00 Z10.00000 ( retract )

G00 X39.74668 Y11.89647 ( rapid move to begin. )
G01 F30.00000
( Mill infeed pass 1/1 )
G01 Z-0.10000
G04 P0 ( dwell for no time -- G64 should not smooth over this point )
G01 F360.00000
G01 X39.74668 Y11.89647
G01 X39.74668 Y12.15768
G01 X39.81602 Y12.17242
G01 X39.93718 Y12.22639
G01 X40.04462 Y12.30442
G01 X40.13352 Y12.40307
G01 X40.19982 Y12.51806
G01 X40.24122 Y12.64933
G01 X40.49954 Y12.64933
G01 X40.48557 Y12.54443
G01 X40.39616 Y12.32802
G01 X40.25367 Y12.14234
G01 X40.06799 Y11.99985
G01 X39.85158 Y11.91019
G01 X39.74668 Y11.89647
G04 P0 ( dwell for no time -- G64 should not smooth over this point )
G00 Z10.00000 ( retract )

G00 X39.74668 Y13.39494 ( rapid move to begin. )
G01 F30.00000
( Mill infeed pass 1/1 )
G01 Z-0.10000
G04 P0 ( dwell for no time -- G64 should not smooth over this point )
G01 F360.00000
G01 X39.74668 Y13.39494
G01 X39.74668 Y13.65644
G01 X39.85158 Y13.64244
G01 X40.06799 Y13.55280
G01 X40.25367 Y13.41057
G01 X40.39616 Y13.22464
G01 X40.48557 Y13.00848
G01 X40.49954 Y12.90333
G01 X40.24122 Y12.90333
G01 X40.19982 Y13.03459
G01 X40.13352 Y13.14958
G01 X40.04462 Y13.24823
G01 X39.93718 Y13.32626
G01 X39.81602 Y13.38024
G01 X39.74668 Y13.39494
G04 P0 ( dwell for no time -- G64 should not smooth over this point )
G00 Z10.00000 ( retract )

G00 X39.93139 Y15.68003 ( rapid move to begin. )
G01 F30.00000
( Mill infeed pass 1/1 )
G01 Z-0.10000
G04 P0 ( dwell for no time -- G64 should not smooth over this point )
G01 F360.00000
G01 X39.93139 Y15.68003
G01 X39.96416 Y15.41122
G01 X39.97541 Y15.36154
G01 X40.03751 Y15.19324
G01 X40.09908 Y15.06527
G01 X40.16304 Y14.96957
G01 X40.29367 Y14.81023
G01 X40.35176 Y14.75844
G01 X40.54747 Y14.61280
G01 X40.77124 Y14.51628
G01 X40.84526 Y14.49182
G01 X41.02191 Y14.46146
G01 X41.16349 Y14.45077
G01 X41.30505 Y14.46144
G01 X41.48196 Y14.49184
G01 X41.55575 Y14.51623
G01 X41.77967 Y14.61282
G01 X41.97523 Y14.75842
G01 X42.03329 Y14.81023
G01 X42.16397 Y14.96954
G01 X42.22806 Y15.06537
G01 X42.28958 Y15.19321
G01 X42.35168 Y15.36156
G01 X42.36291 Y15.41117
G01 X42.39583 Y15.68003
G01 X42.36291 Y15.94889
G01 X42.35173 Y15.99827
G01 X42.28953 Y16.16685
G01 X42.22811 Y16.29453
G01 X42.16392 Y16.39052
G01 X42.03329 Y16.54985
G01 X41.97520 Y16.60164
G01 X41.77977 Y16.74708
G01 X41.55570 Y16.84376
G01 X41.48198 Y16.86811
G01 X41.30502 Y16.89852
G01 X41.16349 Y16.90919
G01 X41.02194 Y16.89852
G01 X40.84523 Y16.86814
G01 X40.77129 Y16.84371
G01 X40.54739 Y16.74713
G01 X40.35179 Y16.60162
G01 X40.29367 Y16.54985
G01 X40.16309 Y16.39049
G01 X40.09903 Y16.29461
G01 X40.03756 Y16.16682
G01 X39.97536 Y15.99829
G01 X39.96418 Y15.94886
G01 X39.93139 Y15.68003
G04 P0 ( dwell for no time -- G64 should not smooth over this point )
G00 Z10.00000 ( retract )

G00 X37.46068 Y16.72557 ( rapid move to begin. )
G01 F30.00000
( Mill infeed pass 1/1 )
G01 Z-0.10000
G04 P0 ( dwell for no time -- G64 should not smooth over this point )
G01 F360.00000
G01 X37.46068 Y16.72557
G01 X37.56558 Y16.70329
G01 X37.70859 Y16.63951
G01 X37.83559 Y16.54734
G01 X37.94049 Y16.43080
G01 X38.01897 Y16.29501
G01 X38.06723 Y16.14589
G01 X38.07028 Y16.11691
G01 X38.32962 Y16.11693
G01 X38.31184 Y16.25206
G01 X38.21049 Y16.49641
G01 X38.04971 Y16.70596
G01 X37.83990 Y16.86700
G01 X37.59556 Y16.96809
G01 X37.46068 Y16.98587
G01 X37.46068 Y16.72557
G04 P0 ( dwell for no time -- G64 should not smooth over this point )
G00 Z10.00000 ( retract )

G00 X37.46068 Y14.99400 ( rapid move to begin. )
G01 F30.00000
( Mill infeed pass 1/1 )
G01 Z-0.10000
G04 P0 ( dwell for no time -- G64 should not smooth over this point )
G01 F360.00000
G01 X37.46068 Y14.99400
G01 X37.46068 Y15.25427
G01 X37.56558 Y15.27658
G01 X37.70859 Y15.34036
G01 X37.83559 Y15.43253
G01 X37.94049 Y15.54907
G01 X38.01897 Y15.68486
G01 X38.06723 Y15.83398
G01 X38.07028 Y15.86293
G01 X38.32962 Y15.86293
G01 X38.31184 Y15.72781
G01 X38.21049 Y15.48371
G01 X38.04971 Y15.27391
G01 X37.83990 Y15.11287
G01 X37.59556 Y15.01178
G01 X37.46068 Y14.99400
G04 P0 ( dwell for no time -- G64 should not smooth over this point )
G00 Z10.00000 ( retract )

G00 X36.45286 Y13.44993 ( rapid move to begin. )
G01 F30.00000
( Mill infeed pass 1/1 )
G01 Z-0.10000
G04 P0 ( dwell for no time -- G64 should not smooth over this point )
G01 F360.00000
G01 X36.45286 Y13.44993
G01 X36.47714 Y13.25418
G01 X36.48433 Y13.22233
G01 X36.52728 Y13.10566
G01 X36.57257 Y13.01067
G01 X36.63226 Y12.92390
G01 X36.71192 Y12.82812
G01 X36.75649 Y12.78880
G01 X36.89320 Y12.68715
G01 X37.04958 Y12.61953
G01 X37.10602 Y12.60053
G01 X37.22873 Y12.57945
G01 X37.33366 Y12.57117
G01 X37.43861 Y12.57945
G01 X37.56106 Y12.60051
G01 X37.61776 Y12.61958
G01 X37.77397 Y12.68710
G01 X37.91082 Y12.78882
G01 X37.95540 Y12.82812
G01 X38.03503 Y12.92393
G01 X38.09462 Y13.01062
G01 X38.13998 Y13.10566
G01 X38.18303 Y13.22238
G01 X38.19020 Y13.25418
G01 X38.21448 Y13.44993
G01 X38.19020 Y13.64564
G01 X38.18301 Y13.67749
G01 X38.14001 Y13.79418
G01 X38.09456 Y13.88943
G01 X38.03508 Y13.97594
G01 X37.95542 Y14.07170
G01 X37.91082 Y14.11102
G01 X37.77397 Y14.21275
G01 X37.61776 Y14.28026
G01 X37.56106 Y14.29934
G01 X37.43861 Y14.32039
G01 X37.33366 Y14.32867
G01 X37.22873 Y14.32039
G01 X37.10602 Y14.29931
G01 X37.04958 Y14.28031
G01 X36.89320 Y14.21270
G01 X36.75649 Y14.11105
G01 X36.71189 Y14.07170
G01 X36.63224 Y13.97597
G01 X36.57262 Y13.88938
G01 X36.52726 Y13.79418
G01 X36.48433 Y13.67754
G01 X36.47714 Y13.64564
G01 X36.45286 Y13.44993
G04 P0 ( dwell for no time -- G64 should not smooth over this point )
G00 Z10.00000 ( retract )

G00 X34.22564 Y15.18950 ( rapid move to begin. )
G01 F30.00000
( Mill infeed pass 1/1 )
G01 Z-0.10000
G04 P0 ( dwell for no time -- G64 should not smooth over this point )
G01 F360.00000
G01 X34.22564 Y15.18950
G01 X34.21223 Y15.24368
G01 X34.18152 Y15.33327
G01 X34.13630 Y15.41094
G01 X34.07636 Y15.48519
G01 X34.03257 Y15.55067
G01 X33.98728 Y15.64566
G01 X33.94433 Y15.76233
G01 X33.93714 Y15.79418
G01 X33.91286 Y15.98993
G01 X33.93714 Y16.18567
G01 X33.94433 Y16.21754
G01 X33.98726 Y16.33421
G01 X34.03265 Y16.42943
G01 X34.09218 Y16.51599
G01 X34.17171 Y16.61163
G01 X34.21647 Y16.65107
G01 X34.35317 Y16.75270
G01 X34.50958 Y16.82031
G01 X34.56602 Y16.83931
G01 X34.71517 Y16.86352
G01 X34.79366 Y16.86867
G01 X34.87217 Y16.86352
G01 X35.02106 Y16.83934
G01 X35.05241 Y16.82961
G01 X35.23402 Y16.75280
G01 X35.34151 Y16.67297
G01 X35.39777 Y16.63931
G01 X35.50470 Y16.60248
G01 X35.56693 Y16.59049
G01 X35.61458 Y16.66707
G01 X35.65289 Y16.74912
G01 X35.66564 Y16.83116
G01 X35.66564 Y17.68869
G01 X35.65294 Y17.77055
G01 X35.61479 Y17.85244
G01 X35.56696 Y17.92945
G01 X35.62675 Y18.13941
G01 X35.65898 Y18.33133
G01 X35.67026 Y18.51652
G01 X35.66198 Y18.70014
G01 X35.62675 Y18.92043
G01 X35.56973 Y19.12315
G01 X35.50956 Y19.27995
G01 X35.48144 Y19.34291
G01 X35.38009 Y19.53946
G01 X35.21017 Y19.65787
G01 X35.12475 Y19.71015
G01 X34.98342 Y19.78688
G01 X34.96158 Y19.80870
G01 X34.87214 Y19.84124
G01 X34.71517 Y19.90626
G01 X34.63460 Y19.94459
G01 X34.49084 Y20.02264
G01 X34.42957 Y20.06013
G01 X34.29836 Y20.15035
G01 X34.13011 Y20.28980
G01 X33.96117 Y20.46453
G01 X33.86529 Y20.47390
G01 X33.74301 Y20.50293
G01 X33.65180 Y20.56305
G01 X32.95292 Y21.26115
G01 X32.86651 Y21.33018
G01 X32.82198 Y21.36036
G01 X32.73590 Y21.39970
G01 X32.67039 Y21.42315
G01 X32.61769 Y21.43326
G01 X32.49915 Y21.44616
G01 X23.11552 Y21.44616
G01 X23.00529 Y21.46948
G01 X22.98362 Y21.57641
G01 X22.98362 Y22.59393
G01 X23.00346 Y22.69620
G01 X23.11552 Y22.72094
G01 X23.17318 Y22.72094
G01 X23.27839 Y22.74270
G01 X23.30018 Y22.84793
G01 X23.30018 Y24.37191
G01 X23.27839 Y24.47714
G01 X23.17318 Y24.49893
G01 X23.11552 Y24.49893
G01 X23.00346 Y24.52365
G01 X22.98362 Y24.62593
G01 X22.98362 Y25.13393
G01 X23.00346 Y25.23620
G01 X23.11552 Y25.26093
G01 X23.17318 Y25.26093
G01 X23.27839 Y25.28270
G01 X23.30018 Y25.38793
G01 X23.30018 Y26.91191
G01 X23.27839 Y27.01714
G01 X23.17318 Y27.03891
G01 X22.03016 Y27.03891
G01 X21.92495 Y27.01714
G01 X21.90316 Y26.91191
G01 X21.90316 Y25.38793
G01 X21.92495 Y25.28270
G01 X22.03016 Y25.26093
G01 X22.08759 Y25.26093
G01 X22.19980 Y25.23612
G01 X22.21959 Y25.13393
G01 X22.21959 Y24.62593
G01 X22.19980 Y24.52373
G01 X22.08759 Y24.49893
G01 X22.03016 Y24.49893
G01 X21.92495 Y24.47714
G01 X21.90316 Y24.37191
G01 X21.90316 Y22.84793
G01 X21.92495 Y22.74270
G01 X22.03016 Y22.72094
G01 X22.08759 Y22.72094
G01 X22.19980 Y22.69612
G01 X22.21959 Y22.59393
G01 X22.21959 Y21.57641
G01 X22.19797 Y21.46955
G01 X22.08759 Y21.44616
G01 X2.79819 Y21.44616
G01 X2.67965 Y21.43326
G01 X2.62692 Y21.42312
G01 X2.53830 Y21.39015
G01 X2.47541 Y21.36038
G01 X2.45133 Y21.34486
G01 X2.33802 Y21.25553
G01 X1.58803 Y20.50557
G01 X1.51331 Y20.41258
G01 X1.48323 Y20.36823
G01 X1.44389 Y20.28220
G01 X1.42044 Y20.21665
G01 X1.41442 Y20.18868
G01 X1.39743 Y20.04540
G01 X1.39743 Y19.54594
G01 X1.36911 Y19.42445
G01 X1.36047 Y19.41802
G01 X1.32916 Y19.29193
G01 X1.32916 Y17.76793
G01 X1.36047 Y17.64182
G01 X1.36911 Y17.63540
G01 X1.39743 Y17.51393
G01 X1.39743 Y16.49793
G01 X1.36911 Y16.37645
G01 X1.36047 Y16.37002
G01 X1.32916 Y16.24394
G01 X1.32916 Y14.71994
G01 X1.36047 Y14.59382
G01 X1.36911 Y14.58740
G01 X1.39743 Y14.46593
G01 X1.39743 Y13.06995
G01 X1.38580 Y12.99207
G01 X1.18854 Y12.84973
G01 X1.14313 Y12.80993
G01 X1.06258 Y12.71303
G01 X1.00226 Y12.62525
G01 X0.95646 Y12.52919
G01 X0.91267 Y12.41054
G01 X0.90081 Y12.35174
G01 X0.88080 Y12.17991
G01 X0.90538 Y11.98156
G01 X0.91267 Y11.94930
G01 X0.95646 Y11.83066
G01 X1.00226 Y11.73460
G01 X1.06258 Y11.64681
G01 X1.14341 Y11.54961
G01 X1.18842 Y11.50991
G01 X1.32710 Y11.40676
G01 X1.51130 Y11.32876
G01 X1.54275 Y11.31900
G01 X1.66756 Y11.29759
G01 X1.77366 Y11.28926
G01 X1.87975 Y11.29759
G01 X2.00434 Y11.31898
G01 X2.06126 Y11.33810
G01 X2.22004 Y11.40671
G01 X2.37960 Y11.52713
G01 X2.40396 Y11.54963
G01 X2.48475 Y11.64681
G01 X2.54505 Y11.73460
G01 X2.59088 Y11.83066
G01 X2.63461 Y11.94925
G01 X2.64648 Y12.00810
G01 X2.66642 Y12.17988
G01 X2.64782 Y12.34069
G01 X2.65791 Y12.44252
G01 X2.65791 Y14.46593
G01 X2.68623 Y14.58740
G01 X2.69486 Y14.59382
G01 X2.72618 Y14.71994
G01 X2.72618 Y16.24394
G01 X2.69486 Y16.37002
G01 X2.68623 Y16.37645
G01 X2.65791 Y16.49793
G01 X2.65791 Y17.51393
G01 X2.68623 Y17.63540
G01 X2.69486 Y17.64182
G01 X2.72618 Y17.76793
G01 X2.72618 Y19.29193
G01 X2.69486 Y19.41802
G01 X2.68623 Y19.42445
G01 X2.65791 Y19.54594
G01 X2.65791 Y19.73897
G01 X2.66306 Y19.79074
G01 X2.69606 Y19.83105
G01 X3.01254 Y20.14751
G01 X3.05285 Y20.18053
G01 X3.10462 Y20.18566
G01 X32.19247 Y20.18566
G01 X32.24454 Y20.18045
G01 X32.28462 Y20.14758
G01 X33.88251 Y18.54967
G01 X33.91040 Y18.51675
G01 X33.95261 Y18.24378
G01 X33.90750 Y18.18389
G01 X33.37390 Y17.65043
G01 X33.33377 Y17.61747
G01 X33.28060 Y17.61211
G01 X30.53461 Y17.61211
G01 X30.45272 Y17.62483
G01 X30.37083 Y17.66301
G01 X30.28488 Y17.71645
G01 X30.29768 Y17.76842
G01 X30.33222 Y17.86560
G01 X30.37495 Y17.93695
G01 X30.44066 Y18.01813
G01 X30.48508 Y18.08457
G01 X30.52039 Y18.15612
G01 X30.57459 Y18.29925
G01 X30.58643 Y18.35800
G01 X30.60517 Y18.51622
G01 X30.60517 Y18.54363
G01 X30.58190 Y18.72813
G01 X30.57459 Y18.76059
G01 X30.53098 Y18.87903
G01 X30.48511 Y18.97522
G01 X30.42468 Y19.06306
G01 X30.34375 Y19.16026
G01 X30.29885 Y19.19986
G01 X30.16001 Y19.30316
G01 X30.00126 Y19.37174
G01 X29.94429 Y19.39089
G01 X29.81993 Y19.41231
G01 X29.71366 Y19.42071
G01 X29.60741 Y19.41233
G01 X29.48280 Y19.39087
G01 X29.42605 Y19.37179
G01 X29.26710 Y19.30309
G01 X29.10784 Y19.18277
G01 X29.08343 Y19.16021
G01 X29.00263 Y19.06308
G01 X28.94226 Y18.97525
G01 X28.90695 Y18.90372
G01 X28.85272 Y18.76052
G01 X28.84541 Y18.72816
G01 X28.82080 Y18.52991
G01 X28.84089 Y18.35800
G01 X28.85272 Y18.29933
G01 X28.89636 Y18.18081
G01 X28.94226 Y18.08457
G01 X28.98668 Y18.01813
G01 X29.05239 Y17.93695
G01 X29.09512 Y17.86560
G01 X29.12966 Y17.76842
G01 X29.14246 Y17.71645
G01 X29.24985 Y17.68399
G01 X29.40916 Y17.65013
G01 X29.63393 Y17.62623
G01 X29.79341 Y17.62623
G01 X29.98330 Y17.64459
G01 X30.17749 Y17.68399
G01 X30.28488 Y17.71645
G01 X30.17749 Y17.68399
G01 X30.01818 Y17.65013
G01 X29.79341 Y17.62623
G01 X29.63393 Y17.62623
G01 X29.44404 Y17.64459
G01 X29.24985 Y17.68399
G01 X29.14246 Y17.71645
G01 X29.05651 Y17.66301
G01 X28.97462 Y17.62483
G01 X28.89275 Y17.61211
G01 X23.23427 Y17.61208
G01 X23.16635 Y17.62727
G01 X23.10514 Y17.63603
G01 X23.01938 Y17.62239
G01 X22.95939 Y17.60705
G01 X22.90615 Y17.57553
G01 X22.83587 Y17.52458
G01 X22.34072 Y17.03126
G01 X22.29536 Y16.97170
G01 X22.24982 Y16.89750
G01 X22.23450 Y16.83769
G01 X22.21959 Y16.73890
G01 X22.21959 Y16.49793
G01 X22.19980 Y16.39573
G01 X22.08759 Y16.37093
G01 X22.03016 Y16.37093
G01 X21.92495 Y16.34914
G01 X21.90316 Y16.24394
G01 X21.90316 Y14.71994
G01 X21.92495 Y14.61470
G01 X22.03016 Y14.59293
G01 X22.08759 Y14.59293
G01 X22.19980 Y14.56812
G01 X22.21959 Y14.46593
G01 X22.21959 Y12.17991
G01 X22.19980 Y12.07773
G01 X22.08759 Y12.05291
G01 X22.03016 Y12.05291
G01 X21.92495 Y12.03114
G01 X21.90316 Y11.92594
G01 X21.90316 Y10.40193
G01 X21.92495 Y10.29670
G01 X22.03016 Y10.27493
G01 X22.08759 Y10.27493
G01 X22.19980 Y10.25012
G01 X22.21959 Y10.14794
G01 X22.21959 Y9.63991
G01 X22.19980 Y9.53773
G01 X22.08759 Y9.51293
G01 X22.03016 Y9.51293
G01 X21.92495 Y9.49114
G01 X21.90316 Y9.38593
G01 X21.90316 Y7.86194
G01 X21.92495 Y7.75670
G01 X22.03016 Y7.73491
G01 X23.17318 Y7.73491
G01 X23.27839 Y7.75670
G01 X23.30018 Y7.86194
G01 X23.30018 Y9.38593
G01 X23.27839 Y9.49114
G01 X23.17318 Y9.51293
G01 X23.11552 Y9.51293
G01 X23.00346 Y9.53765
G01 X22.98362 Y9.63991
G01 X22.98362 Y10.14794
G01 X23.00346 Y10.25020
G01 X23.11552 Y10.27493
G01 X23.17318 Y10.27493
G01 X23.27839 Y10.29670
G01 X23.30018 Y10.40193
G01 X23.30018 Y11.92594
G01 X23.27839 Y12.03114
G01 X23.17318 Y12.05291
G01 X23.11552 Y12.05291
G01 X23.00346 Y12.07765
G01 X22.98362 Y12.17991
G01 X22.98362 Y14.46593
G01 X23.00346 Y14.56820
G01 X23.11552 Y14.59293
G01 X23.17318 Y14.59293
G01 X23.27839 Y14.61470
G01 X23.30018 Y14.71994
G01 X23.30018 Y16.24394
G01 X23.27839 Y16.34914
G01 X23.17318 Y16.37977
G01 X23.07039 Y16.42770
G01 X23.04948 Y16.44167
G01 X23.02388 Y16.57703
G01 X23.09846 Y16.70853
G01 X23.25009 Y16.86016
G01 X23.29043 Y16.89329
G01 X23.34336 Y16.89862
G01 X28.69768 Y16.89862
G01 X28.83091 Y16.86491
G01 X28.82468 Y16.75193
G01 X28.82468 Y15.99578
G01 X28.79994 Y15.88371
G01 X28.69768 Y15.86387
G01 X25.45918 Y15.86387
G01 X25.35690 Y15.88371
G01 X25.33216 Y15.99578
G01 X25.33216 Y16.24394
G01 X25.31039 Y16.34914
G01 X25.20516 Y16.37093
G01 X24.06218 Y16.37093
G01 X23.95695 Y16.34914
G01 X23.93518 Y16.24394
G01 X23.93518 Y14.71994
G01 X23.95695 Y14.61470
G01 X24.06218 Y14.59293
G01 X25.20516 Y14.59293
G01 X25.31039 Y14.61470
G01 X25.33216 Y14.71994
G01 X25.33216 Y14.96809
G01 X25.35690 Y15.08013
G01 X25.45918 Y15.09997
G01 X29.19291 Y15.09799
G01 X29.23515 Y15.10093
G01 X30.47568 Y15.10093
G01 X30.58089 Y15.12270
G01 X30.60266 Y15.22794
G01 X30.60266 Y16.75193
G01 X30.59643 Y16.86491
G01 X30.47568 Y16.89113
G01 X28.95168 Y16.89113
G01 X28.83091 Y16.86491
G01 X28.95168 Y16.89113
G01 X30.47568 Y16.89113
G01 X30.59643 Y16.86491
G01 X30.72968 Y16.89862
G01 X33.38990 Y16.89862
G01 X33.45787 Y16.88341
G01 X33.51903 Y16.87467
G01 X33.58032 Y16.88343
G01 X33.66470 Y16.90362
G01 X33.73882 Y16.94917
G01 X33.79826 Y16.99451
G01 X34.44768 Y17.64378
G01 X34.50458 Y17.68719
G01 X34.55822 Y17.68185
G01 X34.68873 Y17.65945
G01 X34.79366 Y17.65117
G01 X34.89861 Y17.65945
G01 X35.02106 Y17.68051
G01 X35.07768 Y17.69953
G01 X35.23394 Y17.76702
G01 X35.34143 Y17.84695
G01 X35.39767 Y17.88063
G01 X35.50509 Y17.91759
G01 X35.56696 Y17.92945
G01 X35.61479 Y17.85244
G01 X35.65294 Y17.77055
G01 X35.66564 Y17.68869
G01 X35.66564 Y16.83116
G01 X35.65289 Y16.74912
G01 X35.61458 Y16.66707
G01 X35.56693 Y16.59049
G01 X35.58469 Y16.53728
G01 X35.63424 Y16.34526
G01 X35.66198 Y16.16014
G01 X35.67026 Y15.97652
G01 X35.65898 Y15.79133
G01 X35.62675 Y15.59941
G01 X35.59665 Y15.48712
G01 X35.54303 Y15.42075
G01 X35.40656 Y15.27993
G01 X35.26267 Y15.15857
G01 X35.05944 Y15.11706
G01 X34.87217 Y15.09898
G01 X34.68472 Y15.10058
G01 X34.49310 Y15.12258
G01 X34.33651 Y15.15593
G01 X34.22564 Y15.18950
G01 X34.14123 Y15.13695
G01 X34.05914 Y15.09865
G01 X33.97707 Y15.08587
G01 X32.88563 Y15.08587
G01 X32.81144 Y15.07584
G01 X32.72676 Y15.05557
G01 X32.65287 Y15.01021
G01 X32.59333 Y14.96484
G01 X30.07015 Y12.44168
G01 X30.01160 Y12.39731
G01 X29.81993 Y12.42731
G01 X29.71366 Y12.43571
G01 X29.60741 Y12.42733
G01 X29.48280 Y12.40587
G01 X29.45130 Y12.39609
G01 X29.27967 Y12.32390
G01 X29.25602 Y12.31024
G01 X29.10784 Y12.19777
G01 X29.08343 Y12.17521
G01 X29.00263 Y12.07808
G01 X28.94226 Y11.99025
G01 X28.89636 Y11.89403
G01 X28.85272 Y11.77552
G01 X28.84089 Y11.71684
G01 X28.82080 Y11.54491
G01 X28.84541 Y11.34669
G01 X28.85272 Y11.31433
G01 X28.89636 Y11.19581
G01 X28.94226 Y11.09957
G01 X28.98668 Y11.03313
G01 X29.03129 Y10.97730
G01 X29.08569 Y10.87211
G01 X29.11706 Y10.75383
G01 X29.25529 Y10.71118
G01 X29.41460 Y10.67732
G01 X29.63393 Y10.65400
G01 X29.79341 Y10.65400
G01 X29.98061 Y10.67222
G01 X30.17205 Y10.71118
G01 X30.31010 Y10.75378
G01 X30.39024 Y10.70389
G01 X30.47233 Y10.66559
G01 X30.55442 Y10.65281
G01 X32.62551 Y10.65281
G01 X32.69971 Y10.64278
G01 X32.78439 Y10.62251
G01 X32.85823 Y10.57719
G01 X32.91784 Y10.53181
G01 X33.40527 Y10.04451
G01 X33.44608 Y10.01108
G01 X33.49854 Y10.00587
G01 X33.97707 Y10.00587
G01 X34.05914 Y10.01865
G01 X34.14123 Y10.05695
G01 X34.22564 Y10.10950
G01 X34.21223 Y10.16368
G01 X34.18152 Y10.25327
G01 X34.13628 Y10.33097
G01 X34.07636 Y10.40519
G01 X34.03260 Y10.47062
G01 X33.99787 Y10.54097
G01 X33.94433 Y10.68230
G01 X33.93262 Y10.74047
G01 X33.91286 Y10.90994
G01 X33.93262 Y11.07938
G01 X33.94433 Y11.13754
G01 X33.98726 Y11.25421
G01 X34.03265 Y11.34943
G01 X34.09218 Y11.43599
G01 X34.17171 Y11.53163
G01 X34.21647 Y11.57107
G01 X34.35317 Y11.67270
G01 X34.50958 Y11.74031
G01 X34.56602 Y11.75931
G01 X34.68873 Y11.78039
G01 X34.79366 Y11.78867
G01 X34.89861 Y11.78039
G01 X35.02106 Y11.75934
G01 X35.07768 Y11.74031
G01 X35.23399 Y11.67280
G01 X35.39160 Y11.55375
G01 X35.41542 Y11.53170
G01 X35.51095 Y11.41466
G01 X35.55456 Y11.34943
G01 X35.58941 Y11.27884
G01 X35.64301 Y11.13749
G01 X35.65472 Y11.07938
G01 X35.67448 Y10.90994
G01 X35.65472 Y10.74047
G01 X35.64301 Y10.68238
G01 X35.58939 Y10.54103
G01 X35.55462 Y10.47059
G01 X35.51093 Y10.40521
G01 X35.41283 Y10.28507
G01 X35.37930 Y10.23739
G01 X35.34717 Y10.17613
G01 X35.31720 Y10.09498
G01 X35.29447 Y10.08758
G01 X35.05944 Y10.03706
G01 X34.87217 Y10.01898
G01 X34.71517 Y10.01898
G01 X34.49310 Y10.04258
G01 X34.33651 Y10.07593
G01 X34.22564 Y10.10950
G01 X34.33651 Y10.07593
G01 X34.49310 Y10.04258
G01 X34.71517 Y10.01898
G01 X34.87217 Y10.01898
G01 X35.05944 Y10.03706
G01 X35.25096 Y10.07590
G01 X35.31720 Y10.09498
G01 X35.45462 Y10.00613
G01 X35.51776 Y9.95462
G01 X35.59228 Y9.88489
G01 X36.48685 Y8.99023
G01 X36.60358 Y8.91995
G01 X36.62804 Y8.93186
G01 X36.69914 Y8.97989
G01 X36.75652 Y9.03105
G01 X36.89320 Y9.13270
G01 X37.04956 Y9.20029
G01 X37.10602 Y9.21929
G01 X37.22870 Y9.24039
G01 X37.33366 Y9.24867
G01 X37.43863 Y9.24039
G01 X37.56884 Y9.21799
G01 X37.62268 Y9.21268
G01 X37.67945 Y9.25604
G01 X39.34033 Y10.91684
G01 X39.39987 Y10.96221
G01 X39.47376 Y11.00757
G01 X39.55844 Y11.02784
G01 X39.63264 Y11.03787
G01 X42.92468 Y11.03787
G01 X42.99890 Y11.02784
G01 X43.08330 Y11.00765
G01 X43.22346 Y10.92058
G01 X43.29166 Y10.93958
G01 X43.38409 Y10.97293
G01 X43.53784 Y10.99934
G01 X43.66359 Y11.00897
G01 X43.76293 Y11.00247
G01 X43.94294 Y10.97295
G01 X44.00949 Y10.95078
G01 X44.19191 Y10.87237
G01 X44.21556 Y10.85870
G01 X44.39567 Y10.72264
G01 X44.42714 Y10.69353
G01 X44.52683 Y10.57354
G01 X44.59801 Y10.46945
G01 X44.65259 Y10.35561
G01 X44.70654 Y10.20933
G01 X44.72054 Y10.14098
G01 X44.74520 Y9.92998
G01 X44.72056 Y9.71901
G01 X44.70649 Y9.65043
G01 X44.65264 Y9.50435
G01 X44.59795 Y9.39033
G01 X44.52686 Y9.28639
G01 X44.42714 Y9.16643
G01 X44.39567 Y9.13735
G01 X44.21561 Y9.00120
G01 X44.19194 Y8.98751
G01 X44.00949 Y8.90915
G01 X43.94299 Y8.88705
G01 X43.76293 Y8.85751
G01 X43.66359 Y8.85099
G01 X43.56428 Y8.85751
G01 X43.38396 Y8.88708
G01 X43.31769 Y8.90910
G01 X43.12270 Y8.99325
G01 X42.95234 Y9.12002
G01 X42.90004 Y9.16643
G01 X42.80030 Y9.28634
G01 X42.72910 Y9.39038
G01 X42.67449 Y9.50432
G01 X42.62072 Y9.65037
G01 X42.61119 Y9.69254
G01 X42.58201 Y9.93005
G01 X42.59341 Y10.02972
G01 X42.58254 Y10.14352
G01 X42.56547 Y10.21738
G01 X42.50060 Y10.24682
G01 X42.38092 Y10.27397
G01 X41.40172 Y10.27397
G01 X41.28267 Y10.24710
G01 X41.16362 Y10.16648
G01 X41.04455 Y10.24710
G01 X40.92550 Y10.27397
G01 X39.83251 Y10.27397
G01 X39.78008 Y10.26876
G01 X39.73929 Y10.23534
G01 X38.21963 Y8.71583
G01 X38.17457 Y8.65607
G01 X38.19464 Y8.53935
G01 X38.21448 Y8.36986
G01 X38.19472 Y8.20047
G01 X38.18303 Y8.14238
G01 X38.13998 Y8.02566
G01 X38.09462 Y7.93059
G01 X38.03503 Y7.84390
G01 X37.95542 Y7.74812
G01 X37.91082 Y7.70880
G01 X37.77397 Y7.60710
G01 X37.61776 Y7.53958
G01 X37.56106 Y7.52051
G01 X37.43861 Y7.49945
G01 X37.33366 Y7.49117
G01 X37.22870 Y7.49945
G01 X37.10602 Y7.52053
G01 X37.04958 Y7.53953
G01 X36.89320 Y7.60715
G01 X36.75652 Y7.70877
G01 X36.71192 Y7.74812
G01 X36.63226 Y7.84388
G01 X36.53630 Y7.98551
G01 X36.42116 Y8.01827
G01 X36.36808 Y8.04977
G01 X36.30800 Y8.09287
G01 X36.28776 Y8.10910
G01 X36.00503 Y8.39180
G01 X35.93800 Y8.44080
G01 X35.85294 Y8.47174
G01 X35.76348 Y8.49259
G01 X35.71593 Y8.58693
G01 X35.63178 Y8.72444
G01 X35.49830 Y8.89886
G01 X35.37097 Y9.03102
G01 X35.25147 Y9.13313
G01 X35.14176 Y9.21042
G01 X35.05611 Y9.22696
G01 X34.89927 Y9.24344
G01 X34.68807 Y9.24344
G01 X34.49991 Y9.22198
G01 X34.34331 Y9.18863
G01 X34.19434 Y9.14250
G01 X34.11659 Y9.19089
G01 X34.03450 Y9.22919
G01 X33.95241 Y9.24197
G01 X33.29864 Y9.24197
G01 X33.22444 Y9.25200
G01 X33.15233 Y9.26876
G01 X33.13976 Y9.27227
G01 X33.08670 Y9.30369
G01 X33.00631 Y9.36297
G01 X32.51888 Y9.85027
G01 X32.47807 Y9.88370
G01 X32.42564 Y9.88891
G01 X30.72968 Y9.88891
G01 X30.60649 Y9.86015
G01 X30.60266 Y9.75703
G01 X30.60266 Y8.24293
G01 X30.58089 Y8.13770
G01 X30.47568 Y8.11594
G01 X28.95168 Y8.11594
G01 X28.84454 Y8.13852
G01 X28.80101 Y8.22173
G01 X28.69768 Y8.24197
G01 X25.45918 Y8.24197
G01 X25.35690 Y8.22213
G01 X25.33216 Y8.11009
G01 X25.33216 Y7.86194
G01 X25.31039 Y7.75670
G01 X25.20516 Y7.73491
G01 X24.06218 Y7.73491
G01 X23.95695 Y7.75670
G01 X23.93518 Y7.86194
G01 X23.93518 Y9.38593
G01 X23.95695 Y9.49114
G01 X24.06218 Y9.51293
G01 X25.20516 Y9.51293
G01 X25.31039 Y9.49114
G01 X25.33216 Y9.38593
G01 X25.33216 Y9.13778
G01 X25.35690 Y9.02571
G01 X25.45918 Y9.00587
G01 X28.69768 Y9.00587
G01 X28.79994 Y9.02571
G01 X28.82468 Y9.13778
G01 X28.82468 Y9.75703
G01 X28.82085 Y9.86015
G01 X28.95168 Y9.89386
G01 X30.47568 Y9.89386
G01 X30.60649 Y9.86015
G01 X30.47568 Y9.89386
G01 X28.95168 Y9.89386
G01 X28.82085 Y9.86015
G01 X28.69768 Y9.88891
G01 X27.57147 Y9.88891
G01 X27.47279 Y9.90382
G01 X27.41290 Y9.91913
G01 X27.33876 Y9.96470
G01 X27.27932 Y10.01001
G01 X26.54607 Y10.74334
G01 X26.50520 Y10.77676
G01 X26.45283 Y10.78197
G01 X25.45918 Y10.78197
G01 X25.35690 Y10.76213
G01 X25.33216 Y10.65009
G01 X25.33216 Y10.40193
G01 X25.31039 Y10.29670
G01 X25.20516 Y10.27493
G01 X24.06218 Y10.27493
G01 X23.95695 Y10.29670
G01 X23.93518 Y10.40193
G01 X23.93518 Y11.92594
G01 X23.95695 Y12.03114
G01 X24.06218 Y12.05291
G01 X25.20516 Y12.05291
G01 X25.31039 Y12.03114
G01 X25.33216 Y11.92594
G01 X25.33216 Y11.67778
G01 X25.35690 Y11.56571
G01 X25.45918 Y11.54587
G01 X26.65268 Y11.54587
G01 X26.72690 Y11.53584
G01 X26.81133 Y11.51562
G01 X26.88544 Y11.47013
G01 X26.94480 Y11.42492
G01 X27.67808 Y10.69147
G01 X27.71892 Y10.65802
G01 X27.77134 Y10.65281
G01 X28.87269 Y10.65281
G01 X28.95476 Y10.66559
G01 X29.03685 Y10.70389
G01 X29.11706 Y10.75383
G01 X29.25529 Y10.71118
G01 X29.44673 Y10.67222
G01 X29.63393 Y10.65400
G01 X29.82143 Y10.65548
G01 X30.01274 Y10.67732
G01 X30.17205 Y10.71118
G01 X30.31010 Y10.75378
G01 X30.34154 Y10.87222
G01 X30.39598 Y10.97737
G01 X30.44060 Y11.03315
G01 X30.48511 Y11.09965
G01 X30.53098 Y11.19581
G01 X30.57459 Y11.31425
G01 X30.58643 Y11.37300
G01 X30.60642 Y11.54493
G01 X30.58643 Y11.71684
G01 X30.56463 Y11.84036
G01 X30.61048 Y11.90160
G01 X32.99226 Y14.28333
G01 X33.03308 Y14.31676
G01 X33.08551 Y14.32197
G01 X33.95241 Y14.32197
G01 X34.03443 Y14.30922
G01 X34.11642 Y14.27099
G01 X34.19439 Y14.22250
G01 X34.16874 Y14.11808
G01 X34.11052 Y13.99807
G01 X34.07628 Y13.95471
G01 X34.03267 Y13.88946
G01 X33.98726 Y13.79418
G01 X33.94433 Y13.67754
G01 X33.93262 Y13.61935
G01 X33.91411 Y13.46363
G01 X33.91411 Y13.43622
G01 X33.93262 Y13.28047
G01 X33.94433 Y13.22233
G01 X33.98728 Y13.10566
G01 X34.03260 Y13.01062
G01 X34.09224 Y12.92388
G01 X34.17174 Y12.82819
G01 X34.21647 Y12.78877
G01 X34.35317 Y12.68715
G01 X34.53493 Y12.61019
G01 X34.56602 Y12.60053
G01 X34.68873 Y12.57945
G01 X34.79366 Y12.57117
G01 X34.89861 Y12.57945
G01 X35.02106 Y12.60051
G01 X35.07768 Y12.61953
G01 X35.23399 Y12.68705
G01 X35.39160 Y12.80610
G01 X35.41540 Y12.82812
G01 X35.49503 Y12.92393
G01 X35.55462 Y13.01062
G01 X35.59998 Y13.10566
G01 X35.64303 Y13.22238
G01 X35.65472 Y13.28047
G01 X35.67323 Y13.43622
G01 X35.67323 Y13.46363
G01 X35.65020 Y13.64564
G01 X35.64301 Y13.67749
G01 X35.60000 Y13.79418
G01 X35.55456 Y13.88943
G01 X35.51095 Y13.95466
G01 X35.45611 Y14.02276
G01 X35.40793 Y14.10848
G01 X35.36876 Y14.23040
G01 X35.24415 Y14.26868
G01 X35.05609 Y14.30696
G01 X34.87217 Y14.32486
G01 X34.71517 Y14.32486
G01 X34.49991 Y14.30198
G01 X34.34331 Y14.26865
G01 X34.19439 Y14.22250
G01 X34.34331 Y14.26865
G01 X34.49991 Y14.30198
G01 X34.71517 Y14.32486
G01 X34.87217 Y14.32486
G01 X35.05609 Y14.30696
G01 X35.24415 Y14.26868
G01 X35.36876 Y14.23040
G01 X35.46645 Y14.29720
G01 X35.51316 Y14.32268
G01 X35.60793 Y14.35849
G01 X35.67077 Y14.39758
G01 X35.73036 Y14.44297
G01 X36.30854 Y15.02113
G01 X36.35395 Y15.08079
G01 X36.39944 Y15.15473
G01 X36.42027 Y15.23893
G01 X36.44148 Y15.30030
G01 X36.47742 Y15.36464
G01 X36.52710 Y15.43655
G01 X36.47747 Y15.62953
G01 X36.44941 Y15.81800
G01 X36.44113 Y15.97485
G01 X36.45276 Y16.19357
G01 X36.48573 Y16.38902
G01 X36.53188 Y16.56019
G01 X36.48065 Y16.64261
G01 X36.44242 Y16.72458
G01 X36.42970 Y16.80654
G01 X36.42970 Y17.71333
G01 X36.44242 Y17.79527
G01 X36.48065 Y17.87723
G01 X36.53188 Y17.95965
G01 X36.58756 Y17.94734
G01 X36.73490 Y17.88533
G01 X36.88222 Y17.77489
G01 X36.90569 Y17.76136
G01 X37.04958 Y17.69953
G01 X37.10602 Y17.68053
G01 X37.25520 Y17.65633
G01 X37.33366 Y17.65117
G01 X37.41217 Y17.65633
G01 X37.56106 Y17.68051
G01 X37.61776 Y17.69958
G01 X37.77397 Y17.76710
G01 X37.91082 Y17.86882
G01 X37.95540 Y17.90812
G01 X38.05093 Y18.02521
G01 X38.09462 Y18.09062
G01 X38.12939 Y18.16103
G01 X38.18303 Y18.30238
G01 X38.19472 Y18.36047
G01 X38.21323 Y18.51622
G01 X38.21323 Y18.54363
G01 X38.19020 Y18.72567
G01 X38.18303 Y18.75747
G01 X38.12939 Y18.89882
G01 X38.09462 Y18.96923
G01 X38.03503 Y19.05592
G01 X37.95540 Y19.15173
G01 X37.93160 Y19.17375
G01 X37.78507 Y19.28490
G01 X37.76162 Y19.29844
G01 X37.61776 Y19.36026
G01 X37.56106 Y19.37934
G01 X37.43861 Y19.40039
G01 X37.33366 Y19.40867
G01 X37.22873 Y19.40039
G01 X37.10602 Y19.37931
G01 X37.04958 Y19.36031
G01 X36.90569 Y19.29849
G01 X36.88222 Y19.28495
G01 X36.73490 Y19.17451
G01 X36.58756 Y19.11251
G01 X36.53188 Y19.10019
G01 X36.52779 Y19.08586
G01 X36.47747 Y18.89031
G01 X36.45276 Y18.73357
G01 X36.44113 Y18.51485
G01 X36.44941 Y18.35800
G01 X36.47747 Y18.16953
G01 X36.53188 Y17.95965
G01 X36.47747 Y18.16953
G01 X36.44941 Y18.35800
G01 X36.44113 Y18.51485
G01 X36.45276 Y18.73357
G01 X36.48573 Y18.92902
G01 X36.53188 Y19.10019
G01 X36.48065 Y19.18261
G01 X36.44242 Y19.26458
G01 X36.42970 Y19.34652
G01 X36.42970 Y19.80291
G01 X36.41961 Y19.87723
G01 X36.39942 Y19.96158
G01 X36.35383 Y20.03582
G01 X36.30844 Y20.09529
G01 X35.67981 Y20.72391
G01 X35.63473 Y20.78378
G01 X35.65474 Y20.90047
G01 X35.67448 Y21.06991
G01 X35.65472 Y21.23938
G01 X35.64301 Y21.29749
G01 X35.60000 Y21.41418
G01 X35.55456 Y21.50943
G01 X35.51095 Y21.57466
G01 X35.41542 Y21.69170
G01 X35.37092 Y21.73094
G01 X35.23399 Y21.83280
G01 X35.07768 Y21.90031
G01 X35.02106 Y21.91934
G01 X34.89861 Y21.94039
G01 X34.79366 Y21.94867
G01 X34.68873 Y21.94039
G01 X34.56602 Y21.91931
G01 X34.50958 Y21.90031
G01 X34.35317 Y21.83270
G01 X34.19569 Y21.71380
G01 X34.17171 Y21.69163
G01 X34.09218 Y21.59599
G01 X34.03265 Y21.50943
G01 X33.98726 Y21.41421
G01 X33.94433 Y21.29754
G01 X33.93262 Y21.23938
G01 X33.91411 Y21.08363
G01 X33.91411 Y21.05622
G01 X33.93714 Y20.87418
G01 X33.94436 Y20.84217
G01 X33.96899 Y20.77504
G01 X33.98652 Y20.69440
G01 X33.97661 Y20.53570
G01 X33.96117 Y20.46453
G04 P0 ( dwell for no time -- G64 should not smooth over this point )
G00 Z10.00000 ( retract )

G00 X31.87266 Y22.57168 ( rapid move to begin. )
G01 F30.00000
( Mill infeed pass 1/1 )
G01 Z-0.10000
G04 P0 ( dwell for no time -- G64 should not smooth over this point )
G01 F360.00000
G01 X31.87266 Y22.57168
G01 X31.87268 Y22.31047
G01 X31.97758 Y22.32419
G01 X32.19399 Y22.41385
G01 X32.37967 Y22.55634
G01 X32.52216 Y22.74202
G01 X32.61182 Y22.95842
G01 X32.62554 Y23.06333
G01 X32.36722 Y23.06333
G01 X32.32582 Y22.93206
G01 X32.25952 Y22.81707
G01 X32.17062 Y22.71842
G01 X32.06318 Y22.64039
G01 X31.94202 Y22.58642
G01 X31.87266 Y22.57168
G04 P0 ( dwell for no time -- G64 should not smooth over this point )
G00 Z10.00000 ( retract )

G00 X31.87266 Y23.80894 ( rapid move to begin. )
G01 F30.00000
( Mill infeed pass 1/1 )
G01 Z-0.10000
G04 P0 ( dwell for no time -- G64 should not smooth over this point )
G01 F360.00000
G01 X31.87266 Y23.80894
G01 X31.87268 Y24.07044
G01 X31.97758 Y24.05647
G01 X32.19399 Y23.96681
G01 X32.37967 Y23.82456
G01 X32.52216 Y23.63864
G01 X32.61182 Y23.42248
G01 X32.62554 Y23.31733
G01 X32.36722 Y23.31733
G01 X32.32582 Y23.44859
G01 X32.25952 Y23.56358
G01 X32.17062 Y23.66223
G01 X32.06318 Y23.74026
G01 X31.94202 Y23.79424
G01 X31.87266 Y23.80894
G04 P0 ( dwell for no time -- G64 should not smooth over this point )
G00 Z10.00000 ( retract )

G00 X29.11706 Y24.72383 ( rapid move to begin. )
G01 F30.00000
( Mill infeed pass 1/1 )
G01 Z-0.10000
G04 P0 ( dwell for no time -- G64 should not smooth over this point )
G01 F360.00000
G01 X29.11706 Y24.72383
G01 X29.25529 Y24.68118
G01 X29.44673 Y24.64222
G01 X29.63393 Y24.62400
G01 X29.79341 Y24.62400
G01 X30.01274 Y24.64732
G01 X30.17205 Y24.68118
G01 X30.37228 Y24.74399
G01 X30.60294 Y24.84356
G01 X30.73784 Y25.01542
G01 X30.78470 Y25.08372
G01 X30.87019 Y25.22342
G01 X30.91609 Y25.30813
G01 X30.96212 Y25.40450
G01 X31.06179 Y25.44173
G01 X31.19806 Y25.48059
G01 X31.27913 Y25.49677
G01 X31.40486 Y25.51158
G01 X31.49168 Y25.51494
G01 X33.65868 Y25.51494
G01 X33.77374 Y25.39987
G01 X33.90867 Y25.29865
G01 X34.04362 Y25.26492
G01 X35.54374 Y25.26492
G01 X35.63404 Y25.28004
G01 X35.72434 Y25.32535
G01 X35.69302 Y25.39987
G01 X35.67062 Y25.50653
G01 X35.67062 Y26.90000
G01 X35.64877 Y27.00528
G01 X35.54374 Y27.02700
G01 X34.04362 Y27.02700
G01 X33.93839 Y27.00520
G01 X33.91662 Y26.90000
G01 X33.91662 Y26.66378
G01 X33.89188 Y26.55171
G01 X33.78962 Y26.53187
G01 X30.36164 Y26.53187
G01 X30.28744 Y26.52184
G01 X30.20344 Y26.50180
G01 X30.12925 Y26.45573
G01 X30.01160 Y26.36731
G01 X29.81993 Y26.39731
G01 X29.71366 Y26.40571
G01 X29.60741 Y26.39733
G01 X29.48280 Y26.37587
G01 X29.45130 Y26.36609
G01 X29.26710 Y26.28809
G01 X29.12844 Y26.18494
G01 X29.08343 Y26.14521
G01 X29.00263 Y26.04808
G01 X28.94226 Y25.96025
G01 X28.89636 Y25.86403
G01 X28.85272 Y25.74552
G01 X28.84541 Y25.71316
G01 X28.82080 Y25.51491
G01 X28.84089 Y25.34300
G01 X28.85272 Y25.28433
G01 X28.89636 Y25.16581
G01 X28.94226 Y25.06957
G01 X28.98668 Y25.00312
G01 X29.03129 Y24.94730
G01 X29.08569 Y24.84211
G01 X29.11706 Y24.72383
G01 X29.03685 Y24.67389
G01 X28.95476 Y24.63559
G01 X28.87269 Y24.62281
G01 X28.53334 Y24.62281
G01 X28.48089 Y24.62802
G01 X28.44008 Y24.66147
G01 X26.69083 Y26.41092
G01 X26.63134 Y26.45618
G01 X26.55730 Y26.50162
G01 X26.47290 Y26.52182
G01 X26.39868 Y26.53187
G01 X25.45918 Y26.53187
G01 X25.35690 Y26.55171
G01 X25.33216 Y26.66378
G01 X25.33216 Y26.91191
G01 X25.31039 Y27.01714
G01 X25.20516 Y27.03891
G01 X24.06218 Y27.03891
G01 X23.95695 Y27.01714
G01 X23.93518 Y26.91191
G01 X23.93518 Y25.38793
G01 X23.95695 Y25.28270
G01 X24.06218 Y25.26093
G01 X25.20516 Y25.26093
G01 X25.31039 Y25.28270
G01 X25.33216 Y25.38793
G01 X25.33216 Y25.63607
G01 X25.35690 Y25.74813
G01 X25.45918 Y25.76797
G01 X26.19883 Y25.76797
G01 X26.25126 Y25.76276
G01 X26.29207 Y25.72934
G01 X28.04132 Y23.97999
G01 X28.10076 Y23.93467
G01 X28.17490 Y23.88913
G01 X28.25925 Y23.86894
G01 X28.33347 Y23.85891
G01 X28.69768 Y23.85891
G01 X28.82085 Y23.83015
G01 X28.95168 Y23.86386
G01 X30.47568 Y23.86386
G01 X30.60261 Y23.83213
G01 X30.72955 Y23.73691
G01 X30.84281 Y23.62365
G01 X30.72955 Y23.73691
G01 X30.60261 Y23.83213
G01 X30.47568 Y23.86386
G01 X28.95168 Y23.86386
G01 X28.82085 Y23.83015
G01 X28.82468 Y23.72703
G01 X28.82468 Y23.48878
G01 X28.79994 Y23.37671
G01 X28.69768 Y23.35687
G01 X25.48151 Y23.35687
G01 X25.42901 Y23.36208
G01 X25.38819 Y23.39556
G01 X25.34003 Y23.44791
G01 X25.33216 Y23.51113
G01 X25.33216 Y24.37191
G01 X25.31039 Y24.47714
G01 X25.20516 Y24.49893
G01 X24.06218 Y24.49893
G01 X23.95695 Y24.47714
G01 X23.93518 Y24.37191
G01 X23.93518 Y22.84793
G01 X23.95695 Y22.74270
G01 X24.06218 Y22.72094
G01 X24.93162 Y22.72094
G01 X24.98695 Y22.71489
G01 X25.04892 Y22.66864
G01 X25.12278 Y22.62327
G01 X25.20742 Y22.60300
G01 X25.28164 Y22.59297
G01 X28.69768 Y22.59297
G01 X28.79994 Y22.57313
G01 X28.82468 Y22.46107
G01 X28.82468 Y22.21293
G01 X28.84645 Y22.10770
G01 X28.95168 Y22.08593
G01 X30.47568 Y22.08593
G01 X30.58089 Y22.10770
G01 X30.60266 Y22.21293
G01 X30.60266 Y23.12581
G01 X30.63049 Y23.24468
G01 X30.71393 Y23.36355
G01 X30.81574 Y23.47232
G01 X30.84281 Y23.62365
G01 X30.93248 Y23.67976
G01 X31.07220 Y23.77846
G01 X31.31952 Y23.98085
G01 X31.33750 Y24.08979
G01 X31.36844 Y24.19256
G01 X31.42331 Y24.27138
G01 X31.61127 Y24.45934
G01 X31.65208 Y24.49276
G01 X31.70453 Y24.49797
G01 X33.96460 Y24.49797
G01 X34.04669 Y24.48519
G01 X34.12879 Y24.44689
G01 X34.20991 Y24.39640
G01 X34.33991 Y24.43630
G01 X34.52957 Y24.47488
G01 X34.71517 Y24.49286
G01 X34.87217 Y24.49286
G01 X35.09073 Y24.46965
G01 X35.24755 Y24.43632
G01 X35.37730 Y24.39647
G01 X35.24755 Y24.43632
G01 X35.05777 Y24.47488
G01 X34.87217 Y24.49286
G01 X34.71517 Y24.49286
G01 X34.49650 Y24.46962
G01 X34.33991 Y24.43630
G01 X34.20991 Y24.39640
G01 X34.17567 Y24.27183
G01 X34.12335 Y24.17341
G01 X34.07634 Y24.11468
G01 X34.03260 Y24.04923
G01 X33.98728 Y23.95418
G01 X33.94433 Y23.83752
G01 X33.93714 Y23.80567
G01 X33.91286 Y23.60994
G01 X33.93262 Y23.44047
G01 X33.94433 Y23.38233
G01 X33.98728 Y23.26566
G01 X34.03260 Y23.17062
G01 X34.09224 Y23.08388
G01 X34.17174 Y22.98819
G01 X34.21647 Y22.94877
G01 X34.35317 Y22.84715
G01 X34.50958 Y22.77953
G01 X34.56602 Y22.76053
G01 X34.68873 Y22.73945
G01 X34.79366 Y22.73117
G01 X34.89861 Y22.73945
G01 X35.02106 Y22.76051
G01 X35.07768 Y22.77953
G01 X35.23399 Y22.84705
G01 X35.37092 Y22.94890
G01 X35.41540 Y22.98812
G01 X35.49503 Y23.08393
G01 X35.55462 Y23.17062
G01 X35.59998 Y23.26566
G01 X35.64303 Y23.38238
G01 X35.65020 Y23.41418
G01 X35.67448 Y23.60994
G01 X35.65472 Y23.77938
G01 X35.64303 Y23.83747
G01 X35.59998 Y23.95418
G01 X35.55462 Y24.04923
G01 X35.51093 Y24.11463
G01 X35.46381 Y24.17346
G01 X35.41154 Y24.27173
G01 X35.37730 Y24.39647
G01 X35.45830 Y24.44689
G01 X35.54039 Y24.48519
G01 X35.62248 Y24.49797
G01 X36.05068 Y24.49797
G01 X36.12490 Y24.50800
G01 X36.20933 Y24.52822
G01 X36.28344 Y24.57369
G01 X36.34283 Y24.61892
G01 X36.98768 Y25.26375
G01 X37.04463 Y25.30719
G01 X37.25520 Y25.27633
G01 X37.33366 Y25.27117
G01 X37.41217 Y25.27633
G01 X37.56106 Y25.30051
G01 X37.61776 Y25.31958
G01 X37.72959 Y25.36764
G01 X37.80422 Y25.39055
G01 X37.87244 Y25.34097
G01 X42.62250 Y20.59092
G01 X42.66618 Y20.53356
G01 X42.64960 Y20.44794
G01 X42.62069 Y20.36940
G01 X42.61122 Y20.32744
G01 X42.58201 Y20.08995
G01 X42.60665 Y19.87901
G01 X42.62072 Y19.81037
G01 X42.67449 Y19.66432
G01 X42.72910 Y19.55038
G01 X42.80030 Y19.44639
G01 X42.90004 Y19.32643
G01 X42.93151 Y19.29732
G01 X43.12272 Y19.15325
G01 X43.34307 Y19.05975
G01 X43.38396 Y19.04708
G01 X43.56428 Y19.01751
G01 X43.66359 Y19.01101
G01 X43.78937 Y19.02066
G01 X43.94299 Y19.04705
G01 X43.98414 Y19.05980
G01 X44.20431 Y19.15323
G01 X44.37487 Y19.28002
G01 X44.42714 Y19.32643
G01 X44.52689 Y19.44642
G01 X44.59795 Y19.55033
G01 X44.65264 Y19.66435
G01 X44.70649 Y19.81043
G01 X44.72056 Y19.87901
G01 X44.74520 Y20.08995
G01 X44.72054 Y20.30098
