( pcb2gcode 2.2.3 )
( Software-independent Gcode )

G94 ( Millimeters per minute feed rate. )
G21 ( Units == Millimeters. )

G90 ( Absolute coordinates. )
G00 S10000 ( RPM spindle speed. )
G01 F360.00000 ( Feedrate. )


G00 Z50.00000 (Retract to tool change height)
T0
M5      (Spindle stop.)
G04 P1.00000 (Wait for spindle to stop)
(MSG, Change tool bit to mill diameter 0.00000mm)
M6      (Tool change.)
M0      (Temporary machine stop.)
M3 ( Spindle on clockwise. )
G04 P1.00000 (Wait for spindle to get up to speed)
G04 P0 ( dwell for no time -- G64 should not smooth over this point )
G00 Z10.00000 ( retract )

G00 X0.75768 Y8.62393 ( rapid move to begin. )
G01 F30.00000
( Mill infeed pass 1/1 )
G01 Z-0.10000
G04 P0 ( dwell for no time -- G64 should not smooth over this point )
G01 F360.00000
G01 X0.75768 Y8.62393
G01 X0.75768 Y9.51293
G01 X1.01168 Y9.51293
G01 X1.01168 Y8.87794
G01 X1.64668 Y8.87794
G01 X1.64668 Y8.62393
G01 X0.75768 Y8.62393
G04 P0 ( dwell for no time -- G64 should not smooth over this point )
G00 Z10.00000 ( retract )

G00 X1.90068 Y8.62393 ( rapid move to begin. )
G01 F30.00000
( Mill infeed pass 1/1 )
G01 Z-0.10000
G04 P0 ( dwell for no time -- G64 should not smooth over this point )
G01 F360.00000
G01 X1.90068 Y8.62393
G01 X2.78968 Y8.62393
G01 X2.78968 Y9.51293
G01 X2.53566 Y9.51293
G01 X2.53568 Y8.87794
G01 X1.90068 Y8.87794
G01 X1.90068 Y8.62393
G04 P0 ( dwell for no time -- G64 should not smooth over this point )
G00 Z10.00000 ( retract )

G00 X0.75768 Y9.76694 ( rapid move to begin. )
G01 F30.00000
( Mill infeed pass 1/1 )
G01 Z-0.10000
G04 P0 ( dwell for no time -- G64 should not smooth over this point )
G01 F360.00000
G01 X0.75768 Y9.76694
G01 X1.01168 Y9.76694
G01 X1.01168 Y10.40193
G01 X1.64668 Y10.40191
G01 X1.64668 Y10.65593
G01 X0.75768 Y10.65593
G01 X0.75768 Y9.76694
G04 P0 ( dwell for no time -- G64 should not smooth over this point )
G00 Z10.00000 ( retract )

G00 X1.90068 Y10.40191 ( rapid move to begin. )
G01 F30.00000
( Mill infeed pass 1/1 )
G01 Z-0.10000
G04 P0 ( dwell for no time -- G64 should not smooth over this point )
G01 F360.00000
G01 X1.90068 Y10.40191
G01 X1.90068 Y10.65593
G01 X2.78968 Y10.65593
G01 X2.78968 Y9.76694
G01 X2.53566 Y9.76694
G01 X2.53568 Y10.40193
G01 X1.90068 Y10.40191
G04 P0 ( dwell for no time -- G64 should not smooth over this point )
G00 Z10.00000 ( retract )

G00 X4.18668 Y14.46593 ( rapid move to begin. )
G01 F30.00000
( Mill infeed pass 1/1 )
G01 Z-0.10000
G04 P0 ( dwell for no time -- G64 should not smooth over this point )
G01 F360.00000
G01 X4.18668 Y14.46593
G01 X4.88518 Y14.46593
G01 X4.88518 Y15.35493
G01 X4.63118 Y15.35493
G01 X4.63118 Y14.71994
G01 X4.18668 Y14.71994
G01 X4.18668 Y14.46593
G04 P0 ( dwell for no time -- G64 should not smooth over this point )
G00 Z10.00000 ( retract )

G00 X3.23418 Y14.46593 ( rapid move to begin. )
G01 F30.00000
( Mill infeed pass 1/1 )
G01 Z-0.10000
G04 P0 ( dwell for no time -- G64 should not smooth over this point )
G01 F360.00000
G01 X3.23418 Y14.46593
G01 X3.93268 Y14.46593
G01 X3.93268 Y14.71994
G01 X3.48818 Y14.71994
G01 X3.48818 Y15.35493
G01 X3.23418 Y15.35493
G01 X3.23418 Y14.46593
G04 P0 ( dwell for no time -- G64 should not smooth over this point )
G00 Z10.00000 ( retract )

G00 X3.23418 Y15.60893 ( rapid move to begin. )
G01 F30.00000
( Mill infeed pass 1/1 )
G01 Z-0.10000
G04 P0 ( dwell for no time -- G64 should not smooth over this point )
G01 F360.00000
G01 X3.23418 Y15.60893
G01 X3.48818 Y15.60893
G01 X3.48818 Y16.24394
G01 X3.93268 Y16.24391
G01 X3.93268 Y16.49793
G01 X3.23418 Y16.49793
G01 X3.23418 Y15.60893
G04 P0 ( dwell for no time -- G64 should not smooth over this point )
G00 Z10.00000 ( retract )

G00 X4.18668 Y16.24391 ( rapid move to begin. )
G01 F30.00000
( Mill infeed pass 1/1 )
G01 Z-0.10000
G04 P0 ( dwell for no time -- G64 should not smooth over this point )
G01 F360.00000
G01 X4.18668 Y16.24391
G01 X4.63118 Y16.24394
G01 X4.63118 Y15.60893
G01 X4.88518 Y15.60893
G01 X4.88518 Y16.49793
G01 X4.18668 Y16.49793
G01 X4.18668 Y16.24391
G04 P0 ( dwell for no time -- G64 should not smooth over this point )
G00 Z10.00000 ( retract )

G00 X3.23418 Y17.51393 ( rapid move to begin. )
G01 F30.00000
( Mill infeed pass 1/1 )
G01 Z-0.10000
G04 P0 ( dwell for no time -- G64 should not smooth over this point )
G01 F360.00000
G01 X3.23418 Y17.51393
G01 X3.23418 Y18.40293
G01 X3.48818 Y18.40293
G01 X3.48818 Y17.76793
G01 X3.93268 Y17.76791
G01 X3.93268 Y17.51393
G01 X3.23418 Y17.51393
G04 P0 ( dwell for no time -- G64 should not smooth over this point )
G00 Z10.00000 ( retract )

G00 X3.23418 Y18.65694 ( rapid move to begin. )
G01 F30.00000
( Mill infeed pass 1/1 )
G01 Z-0.10000
G04 P0 ( dwell for no time -- G64 should not smooth over this point )
G01 F360.00000
G01 X3.23418 Y18.65694
G01 X3.23418 Y19.54594
G01 X3.93268 Y19.54594
G01 X3.93268 Y19.29193
G01 X3.48818 Y19.29193
G01 X3.48818 Y18.65694
G01 X3.23418 Y18.65694
G04 P0 ( dwell for no time -- G64 should not smooth over this point )
G00 Z10.00000 ( retract )

G00 X0.39014 Y22.21293 ( rapid move to begin. )
G01 F30.00000
( Mill infeed pass 1/1 )
G01 Z-0.10000
G04 P0 ( dwell for no time -- G64 should not smooth over this point )
G01 F360.00000
G01 X0.39014 Y22.21293
G01 X0.40386 Y22.10778
G01 X0.49352 Y21.89163
G01 X0.63602 Y21.70595
G01 X0.82166 Y21.56346
G01 X1.03784 Y21.47379
G01 X1.14300 Y21.46008
G01 X1.14297 Y21.72129
G01 X1.07376 Y21.73600
G01 X0.95250 Y21.79000
G01 X0.84508 Y21.86803
G01 X0.75626 Y21.96668
G01 X0.68989 Y22.08164
G01 X0.64833 Y22.21293
G01 X0.39014 Y22.21293
G04 P0 ( dwell for no time -- G64 should not smooth over this point )
G00 Z10.00000 ( retract )

G00 X0.39014 Y22.46693 ( rapid move to begin. )
G01 F30.00000
( Mill infeed pass 1/1 )
G01 Z-0.10000
G04 P0 ( dwell for no time -- G64 should not smooth over this point )
G01 F360.00000
G01 X0.39014 Y22.46693
G01 X0.40386 Y22.57209
G01 X0.49352 Y22.78824
G01 X0.63602 Y22.97392
G01 X0.82166 Y23.11641
G01 X1.03784 Y23.20607
G01 X1.14300 Y23.21979
G01 X1.14297 Y22.95855
G01 X1.07376 Y22.94385
G01 X0.95250 Y22.88985
G01 X0.84508 Y22.81182
G01 X0.75626 Y22.71316
G01 X0.68989 Y22.59820
G01 X0.64833 Y22.46691
G01 X0.39014 Y22.46693
G04 P0 ( dwell for no time -- G64 should not smooth over this point )
G00 Z10.00000 ( retract )

G00 X1.66014 Y24.75293 ( rapid move to begin. )
G01 F30.00000
( Mill infeed pass 1/1 )
G01 Z-0.10000
G04 P0 ( dwell for no time -- G64 should not smooth over this point )
G01 F360.00000
G01 X1.66014 Y24.75293
G01 X1.67386 Y24.64778
G01 X1.76352 Y24.43163
G01 X1.90602 Y24.24595
G01 X2.09169 Y24.10346
G01 X2.30784 Y24.01380
G01 X2.41300 Y24.00008
G01 X2.41297 Y24.26129
G01 X2.34376 Y24.27600
G01 X2.22250 Y24.33000
G01 X2.11508 Y24.40803
G01 X2.02626 Y24.50668
G01 X1.95989 Y24.62164
G01 X1.91833 Y24.75293
G01 X1.66014 Y24.75293
G04 P0 ( dwell for no time -- G64 should not smooth over this point )
G00 Z10.00000 ( retract )

G00 X1.66014 Y25.00693 ( rapid move to begin. )
G01 F30.00000
( Mill infeed pass 1/1 )
G01 Z-0.10000
G04 P0 ( dwell for no time -- G64 should not smooth over this point )
G01 F360.00000
G01 X1.66014 Y25.00693
G01 X1.67386 Y25.11209
G01 X1.76352 Y25.32824
G01 X1.90602 Y25.51392
G01 X2.09169 Y25.65641
G01 X2.30784 Y25.74607
G01 X2.41300 Y25.75979
G01 X2.41297 Y25.49855
G01 X2.34376 Y25.48385
G01 X2.22250 Y25.42984
G01 X2.11508 Y25.35182
G01 X2.02626 Y25.25316
G01 X1.95989 Y25.13820
G01 X1.91833 Y25.00691
G01 X1.66014 Y25.00693
G04 P0 ( dwell for no time -- G64 should not smooth over this point )
G00 Z10.00000 ( retract )

G00 X2.66697 Y25.49855 ( rapid move to begin. )
G01 F30.00000
( Mill infeed pass 1/1 )
G01 Z-0.10000
G04 P0 ( dwell for no time -- G64 should not smooth over this point )
G01 F360.00000
G01 X2.66697 Y25.49855
G01 X2.66700 Y25.75979
G01 X2.77216 Y25.74607
G01 X2.98831 Y25.65641
G01 X3.17398 Y25.51392
G01 X3.31640 Y25.32824
G01 X3.40614 Y25.11209
G01 X3.41986 Y25.00693
G01 X3.16164 Y25.00691
G01 X3.12009 Y25.13820
G01 X3.05371 Y25.25316
G01 X2.96489 Y25.35182
G01 X2.85750 Y25.42984
G01 X2.73622 Y25.48385
G01 X2.66697 Y25.49855
G04 P0 ( dwell for no time -- G64 should not smooth over this point )
G00 Z10.00000 ( retract )

G00 X2.66697 Y24.26129 ( rapid move to begin. )
G01 F30.00000
( Mill infeed pass 1/1 )
G01 Z-0.10000
G04 P0 ( dwell for no time -- G64 should not smooth over this point )
G01 F360.00000
G01 X2.66697 Y24.26129
G01 X2.73622 Y24.27600
G01 X2.85750 Y24.33000
G01 X2.96489 Y24.40803
G01 X3.05371 Y24.50668
G01 X3.12009 Y24.62164
G01 X3.16164 Y24.75293
G01 X3.41986 Y24.75293
G01 X3.40614 Y24.64778
G01 X3.31640 Y24.43163
G01 X3.17398 Y24.24595
G01 X2.98831 Y24.10346
G01 X2.77216 Y24.01380
G01 X2.66700 Y24.00008
G01 X2.66697 Y24.26129
G04 P0 ( dwell for no time -- G64 should not smooth over this point )
G00 Z10.00000 ( retract )

G00 X1.39700 Y22.95855 ( rapid move to begin. )
G01 F30.00000
( Mill infeed pass 1/1 )
G01 Z-0.10000
G04 P0 ( dwell for no time -- G64 should not smooth over this point )
G01 F360.00000
G01 X1.39700 Y22.95855
G01 X1.46621 Y22.94385
G01 X1.58750 Y22.88985
G01 X1.69489 Y22.81182
G01 X1.78371 Y22.71316
G01 X1.85009 Y22.59820
G01 X1.89164 Y22.46691
G01 X2.14986 Y22.46693
G01 X2.13614 Y22.57209
G01 X2.04648 Y22.78824
G01 X1.90398 Y22.97392
G01 X1.71831 Y23.11641
G01 X1.50216 Y23.20607
G01 X1.39700 Y23.21979
G01 X1.39700 Y22.95855
G04 P0 ( dwell for no time -- G64 should not smooth over this point )
G00 Z10.00000 ( retract )

G00 X1.39700 Y21.46008 ( rapid move to begin. )
G01 F30.00000
( Mill infeed pass 1/1 )
G01 Z-0.10000
G04 P0 ( dwell for no time -- G64 should not smooth over this point )
G01 F360.00000
G01 X1.39700 Y21.46008
G01 X1.50216 Y21.47379
G01 X1.71831 Y21.56346
G01 X1.90398 Y21.70595
G01 X2.04648 Y21.89163
G01 X2.13614 Y22.10778
G01 X2.14986 Y22.21293
G01 X1.89164 Y22.21293
G01 X1.85009 Y22.08164
G01 X1.78371 Y21.96668
G01 X1.69489 Y21.86803
G01 X1.58750 Y21.79000
G01 X1.46621 Y21.73600
G01 X1.39700 Y21.72129
G01 X1.39700 Y21.46008
G04 P0 ( dwell for no time -- G64 should not smooth over this point )
G00 Z10.00000 ( retract )

G00 X4.18668 Y19.29193 ( rapid move to begin. )
G01 F30.00000
( Mill infeed pass 1/1 )
G01 Z-0.10000
G04 P0 ( dwell for no time -- G64 should not smooth over this point )
G01 F360.00000
G01 X4.18668 Y19.29193
G01 X4.63118 Y19.29193
G01 X4.63118 Y18.65694
G01 X4.88518 Y18.65694
G01 X4.88518 Y19.54594
G01 X4.18668 Y19.54594
G01 X4.18668 Y19.29193
G04 P0 ( dwell for no time -- G64 should not smooth over this point )
G00 Z10.00000 ( retract )

G00 X4.18668 Y17.51393 ( rapid move to begin. )
G01 F30.00000
( Mill infeed pass 1/1 )
G01 Z-0.10000
G04 P0 ( dwell for no time -- G64 should not smooth over this point )
G01 F360.00000
G01 X4.18668 Y17.51393
G01 X4.88518 Y17.51393
G01 X4.88518 Y18.40293
G01 X4.63118 Y18.40293
G01 X4.63118 Y17.76793
G01 X4.18668 Y17.76791
G01 X4.18668 Y17.51393
G04 P0 ( dwell for no time -- G64 should not smooth over this point )
G00 Z10.00000 ( retract )

G00 X5.21157 Y18.49133 ( rapid move to begin. )
G01 F30.00000
( Mill infeed pass 1/1 )
G01 Z-0.10000
G04 P0 ( dwell for no time -- G64 should not smooth over this point )
G01 F360.00000
G01 X5.21157 Y18.49133
G01 X5.22554 Y18.38642
G01 X5.31495 Y18.17002
G01 X5.45744 Y17.98434
G01 X5.64337 Y17.84185
G01 X5.85953 Y17.75219
G01 X5.96468 Y17.73847
G01 X5.96466 Y17.99968
G01 X5.89544 Y18.01439
G01 X5.77418 Y18.06839
G01 X5.66677 Y18.14642
G01 X5.57794 Y18.24507
G01 X5.51157 Y18.36003
G01 X5.47002 Y18.49133
G01 X5.21157 Y18.49133
G04 P0 ( dwell for no time -- G64 should not smooth over this point )
G00 Z10.00000 ( retract )

G00 X5.21157 Y18.74533 ( rapid move to begin. )
G01 F30.00000
( Mill infeed pass 1/1 )
G01 Z-0.10000
G04 P0 ( dwell for no time -- G64 should not smooth over this point )
G01 F360.00000
G01 X5.21157 Y18.74533
G01 X5.22554 Y18.85048
G01 X5.31495 Y19.06664
G01 X5.45744 Y19.25231
G01 X5.64337 Y19.39506
G01 X5.85953 Y19.48447
G01 X5.96468 Y19.49844
G01 X5.96466 Y19.23694
G01 X5.89544 Y19.22224
G01 X5.77418 Y19.16824
G01 X5.66677 Y19.09021
G01 X5.57794 Y18.99155
G01 X5.51157 Y18.87659
G01 X5.47002 Y18.74530
G01 X5.21157 Y18.74533
G04 P0 ( dwell for no time -- G64 should not smooth over this point )
G00 Z10.00000 ( retract )

G00 X6.21868 Y19.23694 ( rapid move to begin. )
G01 F30.00000
( Mill infeed pass 1/1 )
G01 Z-0.10000
G04 P0 ( dwell for no time -- G64 should not smooth over this point )
G01 F360.00000
G01 X6.21868 Y19.23694
G01 X6.21868 Y19.49844
G01 X6.32358 Y19.48447
G01 X6.53999 Y19.39506
G01 X6.72567 Y19.25231
G01 X6.86816 Y19.06664
G01 X6.95782 Y18.85048
G01 X6.97154 Y18.74533
G01 X6.71332 Y18.74530
G01 X6.67177 Y18.87659
G01 X6.60537 Y18.99155
G01 X6.51657 Y19.09021
G01 X6.40918 Y19.16824
G01 X6.28790 Y19.22224
G01 X6.21868 Y19.23694
G04 P0 ( dwell for no time -- G64 should not smooth over this point )
G00 Z10.00000 ( retract )

G00 X6.21868 Y17.73847 ( rapid move to begin. )
G01 F30.00000
( Mill infeed pass 1/1 )
G01 Z-0.10000
G04 P0 ( dwell for no time -- G64 should not smooth over this point )
G01 F360.00000
G01 X6.21868 Y17.73847
G01 X6.32358 Y17.75219
G01 X6.53999 Y17.84185
G01 X6.72567 Y17.98434
G01 X6.86816 Y18.17002
G01 X6.95782 Y18.38642
G01 X6.97154 Y18.49133
G01 X6.71332 Y18.49133
G01 X6.67177 Y18.36003
G01 X6.60537 Y18.24507
G01 X6.51657 Y18.14642
G01 X6.40918 Y18.06839
G01 X6.28790 Y18.01439
G01 X6.21868 Y17.99968
G01 X6.21868 Y17.73847
G04 P0 ( dwell for no time -- G64 should not smooth over this point )
G00 Z10.00000 ( retract )

G00 X6.21868 Y16.18894 ( rapid move to begin. )
G01 F30.00000
( Mill infeed pass 1/1 )
G01 Z-0.10000
G04 P0 ( dwell for no time -- G64 should not smooth over this point )
G01 F360.00000
G01 X6.21868 Y16.18894
G01 X6.28790 Y16.17424
G01 X6.40918 Y16.12024
G01 X6.51657 Y16.04221
G01 X6.60537 Y15.94355
G01 X6.67177 Y15.82859
G01 X6.71332 Y15.69730
G01 X6.97154 Y15.69733
G01 X6.95782 Y15.80248
G01 X6.86816 Y16.01864
G01 X6.72567 Y16.20431
G01 X6.53999 Y16.34706
G01 X6.32358 Y16.43647
G01 X6.21868 Y16.45044
G01 X6.21868 Y16.18894
G04 P0 ( dwell for no time -- G64 should not smooth over this point )
G00 Z10.00000 ( retract )

G00 X5.21157 Y15.69733 ( rapid move to begin. )
G01 F30.00000
( Mill infeed pass 1/1 )
G01 Z-0.10000
G04 P0 ( dwell for no time -- G64 should not smooth over this point )
G01 F360.00000
G01 X5.21157 Y15.69733
G01 X5.47002 Y15.69730
G01 X5.51157 Y15.82859
G01 X5.57794 Y15.94355
G01 X5.66677 Y16.04221
G01 X5.77418 Y16.12024
G01 X5.89544 Y16.17424
G01 X5.96466 Y16.18894
G01 X5.96468 Y16.45044
G01 X5.85953 Y16.43647
G01 X5.64337 Y16.34706
G01 X5.45744 Y16.20431
G01 X5.31495 Y16.01864
G01 X5.22554 Y15.80248
G01 X5.21157 Y15.69733
G04 P0 ( dwell for no time -- G64 should not smooth over this point )
G00 Z10.00000 ( retract )

G00 X5.21157 Y15.44333 ( rapid move to begin. )
G01 F30.00000
( Mill infeed pass 1/1 )
G01 Z-0.10000
G04 P0 ( dwell for no time -- G64 should not smooth over this point )
G01 F360.00000
G01 X5.21157 Y15.44333
G01 X5.47002 Y15.44333
G01 X5.51157 Y15.31203
G01 X5.57794 Y15.19707
G01 X5.66677 Y15.09842
G01 X5.77418 Y15.02039
G01 X5.89544 Y14.96639
G01 X5.96466 Y14.95168
G01 X5.96468 Y14.69047
G01 X5.85953 Y14.70419
G01 X5.64337 Y14.79385
G01 X5.45744 Y14.93634
G01 X5.31495 Y15.12202
G01 X5.22554 Y15.33843
G01 X5.21157 Y15.44333
G04 P0 ( dwell for no time -- G64 should not smooth over this point )
G00 Z10.00000 ( retract )

G00 X6.21868 Y14.69047 ( rapid move to begin. )
G01 F30.00000
( Mill infeed pass 1/1 )
G01 Z-0.10000
G04 P0 ( dwell for no time -- G64 should not smooth over this point )
G01 F360.00000
G01 X6.21868 Y14.69047
G01 X6.32358 Y14.70419
G01 X6.53999 Y14.79385
G01 X6.72567 Y14.93634
G01 X6.86816 Y15.12202
G01 X6.95782 Y15.33843
G01 X6.97154 Y15.44333
G01 X6.71332 Y15.44333
G01 X6.67177 Y15.31203
G01 X6.60537 Y15.19707
G01 X6.51657 Y15.09842
G01 X6.40918 Y15.02039
G01 X6.28790 Y14.96639
G01 X6.21868 Y14.95168
G01 X6.21868 Y14.69047
G04 P0 ( dwell for no time -- G64 should not smooth over this point )
G00 Z10.00000 ( retract )

G00 X6.11983 Y12.93111 ( rapid move to begin. )
G01 F30.00000
( Mill infeed pass 1/1 )
G01 Z-0.10000
G04 P0 ( dwell for no time -- G64 should not smooth over this point )
G01 F360.00000
G01 X6.11983 Y12.93111
G01 X6.21472 Y12.92385
G01 X6.31175 Y12.92581
G01 X6.39412 Y12.94793
G01 X6.56600 Y13.02177
G01 X6.62280 Y13.04087
G01 X6.74754 Y13.06233
G01 X6.85366 Y13.07069
G01 X6.95978 Y13.06231
G01 X7.08429 Y13.04089
G01 X7.14126 Y13.02172
G01 X7.30004 Y12.95311
G01 X7.43890 Y12.84991
G01 X7.48396 Y12.81021
G01 X7.56475 Y12.71300
G01 X7.62505 Y12.62525
G01 X7.67088 Y12.52919
G01 X7.71462 Y12.41059
G01 X7.72648 Y12.35174
G01 X7.74642 Y12.17991
G01 X7.72648 Y12.00808
G01 X7.71462 Y11.94925
G01 X7.67088 Y11.83063
G01 X7.62505 Y11.73460
G01 X7.56475 Y11.64681
G01 X7.48396 Y11.54963
G01 X7.43890 Y11.50991
G01 X7.30004 Y11.40671
G01 X7.14126 Y11.33810
G01 X7.08434 Y11.31898
G01 X6.93329 Y11.29447
G01 X6.85366 Y11.28926
G01 X6.77403 Y11.29447
G01 X6.62275 Y11.31900
G01 X6.59130 Y11.32876
G01 X6.40712 Y11.40673
G01 X6.24421 Y11.52395
G01 X6.12158 Y11.56965
G01 X6.06130 Y11.58128
G01 X6.01264 Y11.50310
G01 X5.97433 Y11.42101
G01 X5.96156 Y11.33892
G01 X5.96156 Y10.92698
G01 X5.95150 Y10.85266
G01 X5.93131 Y10.76836
G01 X5.88589 Y10.69434
G01 X5.84037 Y10.63460
G01 X5.20847 Y10.00267
G01 X5.16260 Y9.94146
G01 X5.18607 Y9.81172
G01 X5.20642 Y9.63963
G01 X5.18648 Y9.46808
G01 X5.17461 Y9.40925
G01 X5.12034 Y9.26612
G01 X5.08505 Y9.19460
G01 X5.02475 Y9.10681
G01 X4.94396 Y9.00963
G01 X4.91960 Y8.98713
G01 X4.76004 Y8.86671
G01 X4.60126 Y8.79810
G01 X4.54429 Y8.77895
G01 X4.41978 Y8.75751
G01 X4.31366 Y8.74913
G01 X4.20754 Y8.75751
G01 X4.08280 Y8.77898
G01 X4.05130 Y8.78876
G01 X3.86710 Y8.86676
G01 X3.70771 Y8.98713
G01 X3.68341 Y9.00961
G01 X3.60256 Y9.10681
G01 X3.54226 Y9.19460
G01 X3.49646 Y9.29063
G01 X3.45267 Y9.40930
G01 X3.44081 Y9.46808
G01 X3.42080 Y9.63991
G01 X3.44538 Y9.83828
G01 X3.45267 Y9.87054
G01 X3.49646 Y9.98919
G01 X3.54228 Y10.08525
G01 X3.60256 Y10.17300
G01 X3.68341 Y10.27024
G01 X3.72842 Y10.30991
G01 X3.85605 Y10.40526
G01 X3.87965 Y10.41888
G01 X4.02603 Y10.48177
G01 X4.08280 Y10.50087
G01 X4.23400 Y10.52546
G01 X4.31368 Y10.53069
G01 X4.39329 Y10.52548
G01 X4.60604 Y10.49419
G01 X4.66321 Y10.53777
G01 X5.15902 Y11.03358
G01 X5.19242 Y11.07435
G01 X5.19765 Y11.12685
G01 X5.19765 Y11.33284
G01 X5.18488 Y11.41491
G01 X5.14657 Y11.49701
G01 X5.09862 Y11.57404
G01 X5.15818 Y11.78428
G01 X5.19087 Y11.97864
G01 X5.20225 Y12.16660
G01 X5.19389 Y12.35253
G01 X5.15818 Y12.57554
G01 X5.09862 Y12.78580
G01 X5.11548 Y12.73482
G01 X5.16565 Y12.54049
G01 X5.19389 Y12.35253
G01 X5.20225 Y12.19324
G01 X5.19389 Y12.00729
G01 X5.16565 Y11.81933
G01 X5.11548 Y11.62500
G01 X5.09862 Y11.57404
G01 X5.03697 Y11.56218
G01 X4.92476 Y11.52248
G01 X4.87342 Y11.49096
G01 X4.76001 Y11.40668
G01 X4.57599 Y11.32878
G01 X4.54434 Y11.31898
G01 X4.39329 Y11.29447
G01 X4.31366 Y11.28926
G01 X4.23400 Y11.29447
G01 X4.08275 Y11.31900
G01 X4.02603 Y11.33808
G01 X3.86710 Y11.40676
G01 X3.72842 Y11.50988
G01 X3.68341 Y11.54961
G01 X3.60256 Y11.64681
G01 X3.54226 Y11.73460
G01 X3.49646 Y11.83063
G01 X3.45267 Y11.94930
G01 X3.44081 Y12.00808
G01 X3.42080 Y12.17991
G01 X3.44538 Y12.37828
G01 X3.45267 Y12.41054
G01 X3.49646 Y12.52919
G01 X3.54228 Y12.62525
G01 X3.58663 Y12.69164
G01 X3.68341 Y12.81024
G01 X3.72842 Y12.84994
G01 X3.85605 Y12.94526
G01 X3.87965 Y12.95888
G01 X4.05130 Y13.03109
G01 X4.08280 Y13.04087
G01 X4.20754 Y13.06233
G01 X4.31366 Y13.07069
G01 X4.41978 Y13.06231
G01 X4.54429 Y13.04089
G01 X4.60126 Y13.02172
G01 X4.76001 Y12.95314
G01 X4.87342 Y12.86888
G01 X4.92476 Y12.83734
G01 X5.03697 Y12.79766
G01 X5.09862 Y12.78580
G01 X5.14657 Y12.86284
G01 X5.18488 Y12.94493
G01 X5.19765 Y13.02702
G01 X5.19765 Y13.17887
G01 X5.20769 Y13.25308
G01 X5.22793 Y13.33757
G01 X5.27327 Y13.41150
G01 X5.31871 Y13.47122
G01 X6.06631 Y14.21887
G01 X6.12597 Y14.26428
G01 X6.18879 Y14.30335
G01 X6.19976 Y14.30957
G01 X6.25996 Y14.32496
G01 X6.35864 Y14.33987
G01 X11.46122 Y14.33987
G01 X11.52334 Y14.34719
G01 X11.64722 Y14.49807
G01 X11.68751 Y14.53337
G01 X11.80503 Y14.62062
G01 X11.93935 Y14.67876
G01 X11.98984 Y14.69593
G01 X12.09479 Y14.71397
G01 X12.18766 Y14.72143
G01 X12.28052 Y14.71394
G01 X12.38524 Y14.69596
G01 X12.43594 Y14.67876
G01 X12.57028 Y14.62065
G01 X12.68778 Y14.53332
G01 X12.72789 Y14.49817
G01 X12.79594 Y14.41630
G01 X12.84887 Y14.33965
G01 X12.88882 Y14.25552
G01 X12.92568 Y14.15572
G01 X12.93155 Y14.12982
G01 X12.95291 Y13.95791
G01 X12.93155 Y13.78600
G01 X12.92568 Y13.76009
G01 X12.87831 Y13.63581
G01 X12.84887 Y13.57620
G01 X12.81189 Y13.52088
G01 X12.72789 Y13.41768
G01 X12.68778 Y13.38250
G01 X12.57028 Y13.29520
G01 X12.43594 Y13.23708
G01 X12.38527 Y13.21986
G01 X12.25403 Y13.19875
G01 X12.18766 Y13.19441
G01 X12.12129 Y13.19875
G01 X11.98984 Y13.21989
G01 X11.93935 Y13.23706
G01 X11.80503 Y13.29520
G01 X11.68753 Y13.38245
G01 X11.64722 Y13.41778
G01 X11.52334 Y13.56865
G01 X11.46122 Y13.57597
G01 X6.55853 Y13.57597
G01 X6.50603 Y13.57071
G01 X6.46527 Y13.53734
G01 X6.20593 Y13.27800
G01 X6.14502 Y13.18565
G01 X6.11563 Y13.06177
G01 X6.10697 Y12.97341
G01 X6.11983 Y12.93111
G01 X6.04807 Y12.73701
G01 X6.00537 Y12.57772
G01 X5.96938 Y12.35293
G01 X5.96102 Y12.19365
G01 X5.96938 Y12.00688
G01 X6.00537 Y11.78209
G01 X6.06130 Y11.58128
G04 P0 ( dwell for no time -- G64 should not smooth over this point )
G00 Z10.00000 ( retract )

G00 X5.96080 Y9.63991 ( rapid move to begin. )
G01 F30.00000
( Mill infeed pass 1/1 )
G01 Z-0.10000
G04 P0 ( dwell for no time -- G64 should not smooth over this point )
G01 F360.00000
G01 X5.96080 Y9.63991
G01 X5.98538 Y9.83828
G01 X5.99267 Y9.87054
G01 X6.03646 Y9.98919
G01 X6.08228 Y10.08525
G01 X6.14256 Y10.17300
G01 X6.22341 Y10.27024
G01 X6.26842 Y10.30991
G01 X6.40710 Y10.41309
G01 X6.56600 Y10.48177
G01 X6.62280 Y10.50087
G01 X6.74754 Y10.52233
G01 X6.85366 Y10.53069
G01 X6.95978 Y10.52231
G01 X7.08429 Y10.50089
G01 X7.14126 Y10.48172
G01 X7.30004 Y10.41311
G01 X7.43890 Y10.30989
G01 X7.48396 Y10.27021
G01 X7.56475 Y10.17300
G01 X7.62505 Y10.08525
G01 X7.67088 Y9.98919
G01 X7.71462 Y9.87059
G01 X7.72193 Y9.83828
G01 X7.74642 Y9.63991
G01 X7.72193 Y9.44154
G01 X7.71462 Y9.40925
G01 X7.67088 Y9.29063
G01 X7.62505 Y9.19460
G01 X7.56475 Y9.10681
G01 X7.48396 Y9.00963
G01 X7.43890 Y8.96991
G01 X7.30004 Y8.86671
G01 X7.14126 Y8.79810
G01 X7.08429 Y8.77895
G01 X6.95978 Y8.75751
G01 X6.85366 Y8.74913
G01 X6.74754 Y8.75751
G01 X6.62280 Y8.77898
G01 X6.56600 Y8.79808
G01 X6.40710 Y8.86676
G01 X6.26842 Y8.96988
G01 X6.22341 Y9.00961
G01 X6.14256 Y9.10681
G01 X6.08226 Y9.19460
G01 X6.03646 Y9.29063
G01 X5.99267 Y9.40930
G01 X5.98538 Y9.44154
G01 X5.96080 Y9.63991
G04 P0 ( dwell for no time -- G64 should not smooth over this point )
G00 Z10.00000 ( retract )

G00 X8.50080 Y12.17991 ( rapid move to begin. )
G01 F30.00000
( Mill infeed pass 1/1 )
G01 Z-0.10000
G04 P0 ( dwell for no time -- G64 should not smooth over this point )
G01 F360.00000
G01 X8.50080 Y12.17991
G01 X8.52538 Y11.98154
G01 X8.53267 Y11.94930
G01 X8.57646 Y11.83063
G01 X8.62226 Y11.73460
G01 X8.68256 Y11.64681
G01 X8.76341 Y11.54961
G01 X8.80842 Y11.50988
G01 X8.94710 Y11.40676
G01 X9.10603 Y11.33808
G01 X9.16275 Y11.31900
G01 X9.28756 Y11.29759
G01 X9.39366 Y11.28926
G01 X9.49975 Y11.29759
G01 X9.62434 Y11.31898
G01 X9.68126 Y11.33810
G01 X9.84004 Y11.40671
G01 X9.97890 Y11.50991
G01 X10.02396 Y11.54963
G01 X10.10475 Y11.64681
G01 X10.16505 Y11.73460
G01 X10.21088 Y11.83063
G01 X10.25461 Y11.94925
G01 X10.26193 Y11.98154
G01 X10.28642 Y12.17991
G01 X10.26193 Y12.37828
G01 X10.25461 Y12.41059
G01 X10.21088 Y12.52919
G01 X10.16505 Y12.62525
G01 X10.10475 Y12.71300
G01 X10.02396 Y12.81021
G01 X9.97890 Y12.84991
G01 X9.84004 Y12.95311
G01 X9.68126 Y13.02172
G01 X9.62429 Y13.04089
G01 X9.49978 Y13.06231
G01 X9.39366 Y13.07069
G01 X9.28754 Y13.06233
G01 X9.16280 Y13.04087
G01 X9.10603 Y13.02177
G01 X8.94710 Y12.95309
G01 X8.80842 Y12.84994
G01 X8.76341 Y12.81024
G01 X8.68256 Y12.71300
G01 X8.62228 Y12.62525
G01 X8.57646 Y12.52919
G01 X8.53267 Y12.41054
G01 X8.52538 Y12.37828
G01 X8.50080 Y12.17991
G04 P0 ( dwell for no time -- G64 should not smooth over this point )
G00 Z10.00000 ( retract )

G00 X8.50080 Y9.63991 ( rapid move to begin. )
G01 F30.00000
( Mill infeed pass 1/1 )
G01 Z-0.10000
G04 P0 ( dwell for no time -- G64 should not smooth over this point )
G01 F360.00000
G01 X8.50080 Y9.63991
G01 X8.52538 Y9.44154
G01 X8.53267 Y9.40930
G01 X8.57646 Y9.29063
G01 X8.62226 Y9.19460
G01 X8.68256 Y9.10681
G01 X8.76341 Y9.00961
G01 X8.80842 Y8.96988
G01 X8.94710 Y8.86676
G01 X9.10603 Y8.79808
G01 X9.16280 Y8.77898
G01 X9.28754 Y8.75751
G01 X9.39366 Y8.74913
G01 X9.49978 Y8.75751
G01 X9.62429 Y8.77895
G01 X9.68126 Y8.79810
G01 X9.84004 Y8.86671
G01 X9.97890 Y8.96991
G01 X10.02396 Y9.00963
G01 X10.10475 Y9.10681
G01 X10.16505 Y9.19460
G01 X10.21088 Y9.29063
G01 X10.25461 Y9.40925
G01 X10.26193 Y9.44154
G01 X10.28642 Y9.63991
G01 X10.26193 Y9.83828
G01 X10.25461 Y9.87059
G01 X10.21088 Y9.98919
G01 X10.16505 Y10.08525
G01 X10.10475 Y10.17300
G01 X10.02396 Y10.27021
G01 X9.97890 Y10.30989
G01 X9.84004 Y10.41311
G01 X9.68126 Y10.48172
G01 X9.62429 Y10.50089
G01 X9.49978 Y10.52231
G01 X9.39366 Y10.53069
G01 X9.28754 Y10.52233
G01 X9.16280 Y10.50087
G01 X9.10603 Y10.48177
G01 X8.94710 Y10.41309
G01 X8.80842 Y10.30991
G01 X8.76341 Y10.27024
G01 X8.68256 Y10.17300
G01 X8.62228 Y10.08525
G01 X8.57646 Y9.98919
G01 X8.53267 Y9.87054
G01 X8.52538 Y9.83828
G01 X8.50080 Y9.63991
G04 P0 ( dwell for no time -- G64 should not smooth over this point )
G00 Z10.00000 ( retract )

G00 X6.35030 Y3.49987 ( rapid move to begin. )
G01 F30.00000
( Mill infeed pass 1/1 )
G01 Z-0.10000
G04 P0 ( dwell for no time -- G64 should not smooth over this point )
G01 F360.00000
G01 X6.35030 Y3.49987
G01 X10.42152 Y3.49893
G01 X10.53313 Y3.49245
G01 X10.73302 Y3.46989
G01 X10.97117 Y3.36586
G01 X11.19538 Y3.36713
G01 X11.29746 Y3.36360
G01 X11.39838 Y3.30761
G01 X11.86642 Y3.20413
G01 X11.99304 Y3.22483
G01 X12.26751 Y3.25496
G01 X12.40635 Y3.30228
G01 X12.56906 Y3.36558
G01 X12.74061 Y3.35229
G01 X12.86571 Y3.33050
G01 X13.00018 Y3.36654
G01 X13.19886 Y3.36652
G01 X13.36286 Y3.37655
G01 X13.59888 Y3.42168
G01 X13.73213 Y3.45686
G01 X13.99761 Y3.58417
G01 X14.33192 Y3.40398
G01 X14.66944 Y3.37223
G01 X14.77902 Y3.36713
G01 X14.95539 Y3.37396
G01 X15.06510 Y3.38473
G01 X15.13164 Y3.36687
G01 X15.39339 Y3.36728
G01 X15.53256 Y3.38000
G01 X15.60647 Y3.37241
G01 X15.85618 Y3.36067
G01 X15.93035 Y3.35308
G01 X15.93352 Y3.16126
G01 X15.93050 Y2.89593
G01 X15.93657 Y2.74831
G01 X15.94782 Y2.68945
G01 X15.99392 Y2.54917
G01 X15.99893 Y2.46987
G01 X16.00454 Y2.43858
G01 X16.03121 Y2.36736
G01 X16.00863 Y2.30998
G01 X15.99776 Y2.23289
G01 X15.99804 Y1.69469
G01 X16.00294 Y1.41371
G01 X15.83065 Y1.36370
G01 X15.93136 Y0.96637
G01 X15.93345 Y0.78872
G01 X15.93840 Y0.73851
G01 X15.95049 Y0.67775
G01 X15.99024 Y0.58011
G01 X16.06474 Y0.44491
G01 X16.06474 Y0.23332
G01 X16.06954 Y0.17468
G01 X16.07995 Y0.12349
G01 X16.10893 Y0.03147
G01 X16.11498 Y0.00000
G01 X16.64840 Y0.00000
G01 X16.63154 Y0.06533
G01 X16.58628 Y0.20234
G01 X16.53118 Y0.34374
G01 X16.53118 Y0.40386
G01 X16.57269 Y0.49294
G01 X16.64490 Y0.71432
G01 X16.65381 Y0.76025
G01 X16.66331 Y0.87092
G01 X16.66624 Y1.04163
G01 X16.74266 Y1.43233
G01 X16.90644 Y1.50665
G01 X17.13395 Y1.62418
G01 X17.39311 Y1.78702
G01 X17.39974 Y1.16157
G01 X17.39671 Y0.89614
G01 X17.40278 Y0.74836
G01 X17.41406 Y0.68946
G01 X17.46014 Y0.54920
G01 X17.46504 Y0.46980
G01 X17.47060 Y0.43838
G01 X17.49694 Y0.36733
G01 X17.43702 Y0.24534
G01 X17.39174 Y0.17005
G01 X17.39732 Y0.11946
G01 X17.39758 Y0.00000
G01 X17.39732 Y0.11946
G01 X17.39174 Y0.17005
G01 X17.43702 Y0.24534
G01 X17.49694 Y0.36733
G01 X18.09849 Y0.36462
G01 X18.47538 Y0.37125
G01 X18.87769 Y0.36810
G01 X18.86534 Y0.11303
G01 X18.86534 Y0.00003
G01 X18.87098 Y0.26599
G01 X18.87769 Y0.36810
G01 X18.88899 Y0.43307
G01 X18.86687 Y0.66573
G01 X18.81894 Y1.49990
G01 X18.22861 Y2.33238
G01 X18.00441 Y2.35506
G01 X17.91256 Y2.27239
G01 X17.56301 Y1.94010
G01 X17.39311 Y1.78702
G01 X17.13395 Y1.62418
G01 X16.90644 Y1.50665
G01 X16.74266 Y1.43233
G01 X16.24510 Y1.43294
G01 X16.13850 Y1.42728
G01 X16.00294 Y1.41371
G01 X15.83065 Y1.36370
G01 X15.72722 Y1.37300
G01 X15.59824 Y1.39035
G01 X15.50833 Y1.37648
G01 X15.13164 Y1.49990
G01 X14.64229 Y1.50020
G01 X14.51000 Y1.50906
G01 X14.39860 Y1.52215
G01 X14.14836 Y1.43876
G01 X13.91061 Y1.33825
G01 X13.81986 Y1.28923
G01 X13.66667 Y1.36599
G01 X13.40673 Y1.41778
G01 X13.21831 Y1.43322
G01 X13.04620 Y1.42542
G01 X12.86571 Y1.40645
G01 X12.76426 Y1.36614
G01 X12.40353 Y1.36594
G01 X12.27412 Y1.37183
G01 X12.13251 Y1.38476
G01 X11.99932 Y1.34882
G01 X11.76020 Y1.36944
G01 X11.66320 Y1.38107
G01 X11.53287 Y1.40274
G01 X11.40074 Y1.36655
G01 X10.97633 Y1.36378
G01 X10.73305 Y1.46990
G01 X10.42154 Y1.50411
G01 X10.26805 Y1.52926
G01 X10.13772 Y1.50830
G01 X10.00224 Y1.49990
G01 X8.05658 Y1.49990
G01 X6.90227 Y1.49497
G01 X4.33136 Y1.49913
G01 X3.69989 Y0.89980
G01 X2.90004 Y0.09995
G01 X2.80525 Y0.00000
G01 X2.90004 Y0.09995
G01 X3.69989 Y0.89980
G01 X4.33136 Y1.49913
G01 X4.84894 Y2.04683
G01 X5.69989 Y2.89979
G01 X6.35030 Y3.49987
G01 X6.90001 Y4.09994
G01 X7.69986 Y4.89979
G01 X8.09374 Y5.25841
G01 X8.44230 Y5.52242
G01 X8.79086 Y5.73093
G01 X9.03717 Y5.84835
G01 X9.28347 Y5.93730
G01 X9.32249 Y5.94911
G01 X9.64888 Y6.02285
G01 X9.98047 Y6.04888
G01 X10.01944 Y6.04888
G01 X10.22858 Y6.03849
G01 X10.43772 Y6.00728
G01 X10.79421 Y5.91254
G01 X11.19172 Y5.91647
G01 X11.39563 Y5.90837
G01 X11.19172 Y5.91647
G01 X10.79421 Y5.91254
G01 X10.50346 Y4.89654
G01 X10.47308 Y4.74431
G01 X10.46932 Y4.70530
G01 X10.46881 Y4.56824
G01 X10.47466 Y4.56336
G01 X10.55340 Y4.39019
G01 X10.69061 Y4.11945
G01 X10.72010 Y4.03299
G01 X10.73300 Y3.90284
G01 X10.73302 Y3.46989
G01 X10.97117 Y3.36586
G01 X10.91014 Y3.21902
G01 X10.84834 Y3.04991
G01 X10.75380 Y2.76563
G01 X10.68133 Y2.58983
G01 X10.66988 Y2.54541
G01 X10.66414 Y2.46657
G01 X10.65637 Y2.42750
G01 X10.60653 Y2.29997
G01 X10.63412 Y2.23330
G01 X10.70153 Y2.09324
G01 X10.71672 Y2.04488
G01 X10.72606 Y1.99875
G01 X10.73274 Y1.92771
G01 X10.73305 Y1.46990
G01 X10.97633 Y1.36378
G01 X10.93302 Y1.23093
G01 X10.71415 Y0.79647
G01 X10.68550 Y0.73292
G01 X10.66818 Y0.66281
G01 X10.66655 Y0.49309
G01 X10.66053 Y0.44270
G01 X10.65113 Y0.40980
G01 X10.55228 Y0.17318
G01 X10.51088 Y0.09995
G01 X10.44423 Y0.00000
G01 X11.20026 Y0.00000
G01 X11.19904 Y0.07811
G01 X11.20620 Y0.19794
G01 X11.23165 Y0.24130
G01 X11.39949 Y0.36820
G01 X11.40074 Y1.36655
G01 X11.53287 Y1.40274
G01 X11.53264 Y1.93317
G01 X11.52893 Y2.01028
G01 X11.51054 Y2.11138
G01 X11.52929 Y2.21206
G01 X11.53000 Y2.31712
G01 X11.48461 Y2.51925
G01 X11.43122 Y2.64069
G01 X11.41006 Y2.71678
G01 X11.40226 Y2.77815
G01 X11.39838 Y2.89557
G01 X11.40122 Y3.07277
G01 X11.39838 Y3.30761
G01 X11.29746 Y3.36360
G01 X11.53284 Y3.83273
G01 X11.53284 Y3.90007
G01 X11.52581 Y3.99458
G01 X11.51641 Y4.04355
G01 X11.47034 Y4.18777
G01 X11.46619 Y4.23344
G01 X11.46678 Y4.49974
G01 X11.46272 Y4.54546
G01 X11.44788 Y4.60002
G01 X11.41862 Y4.67771
G01 X11.40653 Y4.73850
G01 X11.40158 Y4.78871
G01 X11.39563 Y5.90837
G01 X11.61890 Y5.91553
G01 X11.86597 Y5.90266
G01 X12.11306 Y5.91553
G01 X12.33256 Y5.90868
G01 X12.50521 Y5.91553
G01 X12.79114 Y5.91647
G01 X12.99507 Y5.90837
G01 X13.17935 Y5.91553
G01 X13.33218 Y5.91282
G01 X13.61839 Y5.91553
G01 X13.94889 Y5.89250
G01 X14.23236 Y5.97995
G01 X14.55379 Y6.03595
G01 X14.59278 Y6.03976
G01 X14.90226 Y6.04728
G01 X15.06507 Y6.03438
G01 X15.35118 Y6.04888
G01 X15.68275 Y6.02285
G01 X16.00914 Y5.94911
G01 X16.12323 Y5.91320
G01 X16.19420 Y5.90837
G01 X16.36367 Y5.91551
G01 X16.66377 Y5.91279
G01 X16.81724 Y5.91553
G01 X17.06433 Y5.90266
G01 X17.30352 Y5.91553
G01 X17.58973 Y5.91647
G01 X17.79364 Y5.90837
G01 X17.96313 Y5.91551
G01 X18.11602 Y5.91645
G01 X18.40258 Y5.90121
G01 X18.76377 Y5.83822
G01 X18.91886 Y5.79552
G01 X19.28345 Y5.93730
G01 X19.53847 Y6.00357
G01 X19.75447 Y6.03585
G01 X19.99996 Y6.04985
G01 X20.53311 Y6.04985
G01 X20.77867 Y6.03585
G01 X20.99460 Y6.00354
G01 X21.21055 Y5.94911
G01 X21.32465 Y5.91320
G01 X21.40334 Y5.90837
G01 X21.60476 Y5.91650
G01 X22.02431 Y5.91553
G01 X22.34875 Y5.89260
G01 X22.52134 Y5.94911
G01 X22.84773 Y6.02285
G01 X23.17930 Y6.04888
G01 X23.42744 Y6.03849
G01 X23.63658 Y6.00728
G01 X23.99309 Y5.91254
G01 X24.39058 Y5.91647
G01 X24.59462 Y5.90837
G01 X24.81798 Y5.91553
G01 X25.06508 Y5.90266
G01 X25.31214 Y5.91553
G01 X25.53155 Y5.90868
G01 X25.70406 Y5.91553
G01 X25.99027 Y5.91647
G01 X26.19416 Y5.90837
G01 X25.99027 Y5.91647
G01 X25.70406 Y5.91553
G01 X25.53155 Y5.90868
G01 X25.52964 Y4.78884
G01 X25.51572 Y4.68958
G01 X25.47582 Y4.57624
G01 X25.46469 Y4.49976
G01 X25.46464 Y4.22664
G01 X25.47150 Y4.17220
G01 X25.48329 Y4.13316
G01 X25.56053 Y3.94675
G01 X25.62677 Y3.74602
G01 X25.73518 Y3.44510
G01 X25.86716 Y3.12542
G01 X26.02647 Y2.69060
G01 X26.09154 Y2.49319
G01 X26.12715 Y2.49138
G01 X26.13274 Y1.33190
G01 X26.13144 Y0.74699
G01 X26.13518 Y0.71697
G01 X26.14973 Y0.66629
G01 X26.19746 Y0.57782
G01 X26.19797 Y0.28824
G01 X26.15862 Y0.22126
G01 X26.10373 Y0.11206
G01 X26.08049 Y0.04351
G01 X26.07234 Y0.00003
G01 X25.39030 Y0.00000
G01 X25.37092 Y0.08049
G01 X25.33942 Y0.15301
G01 X25.28242 Y0.26101
G01 X25.22921 Y0.33226
G01 X25.31610 Y0.54310
G01 X25.32550 Y0.57625
G01 X25.33132 Y0.62652
G01 X25.33152 Y2.35765
G01 X24.93541 Y2.36926
G01 X24.69749 Y2.65628
G01 X24.60440 Y2.78961
G01 X24.38903 Y3.11422
G01 X24.19703 Y3.23164
G01 X23.93198 Y3.37017
G01 X24.19703 Y3.23164
G01 X24.38903 Y3.11422
G01 X24.54661 Y3.46357
G01 X24.73173 Y3.83281
G01 X24.73170 Y3.90050
G01 X24.72472 Y3.99456
G01 X24.71532 Y4.04355
G01 X24.67237 Y4.17256
G01 X24.66548 Y4.22674
G01 X24.66576 Y4.49976
G01 X24.66170 Y4.54548
G01 X24.64686 Y4.60009
G01 X24.61760 Y4.67777
G01 X24.60551 Y4.73857
G01 X24.60056 Y4.78879
G01 X24.59462 Y5.90837
G01 X24.39058 Y5.91647
G01 X23.99309 Y5.91254
G01 X23.70244 Y4.89661
G01 X23.67209 Y4.74434
G01 X23.66830 Y4.70532
G01 X23.66777 Y4.56834
G01 X23.67341 Y4.56367
G01 X23.75225 Y4.39016
G01 X23.88946 Y4.11947
G01 X23.91900 Y4.03299
G01 X23.93198 Y3.90230
G01 X23.93198 Y3.37017
G01 X23.64247 Y3.45956
G01 X23.46955 Y3.49120
G01 X23.32883 Y3.49987
G01 X23.19881 Y3.49943
G01 X23.10000 Y3.50398
G01 X22.79914 Y3.53776
G01 X22.60326 Y3.64538
G01 X22.50290 Y3.60538
G01 X22.34415 Y3.54960
G01 X22.24288 Y3.52359
G01 X22.11286 Y3.49636
G01 X21.85101 Y3.30838
G01 X21.73795 Y3.23751
G01 X21.56818 Y3.15112
G01 X21.53437 Y2.83545
G01 X21.70201 Y2.64988
G01 X21.76414 Y2.56240
G01 X21.81134 Y2.47284
G01 X21.82749 Y2.43388
G01 X21.85060 Y2.35852
G01 X21.85835 Y2.31950
G01 X21.87103 Y2.16146
G01 X21.92297 Y1.91590
G01 X21.93127 Y1.79563
G01 X21.93229 Y1.45542
G01 X21.79556 Y1.36759
G01 X21.79450 Y1.35209
G01 X21.92271 Y1.11951
G01 X22.08500 Y0.79632
G01 X22.11360 Y0.73287
G01 X22.13094 Y0.66279
G01 X22.13171 Y0.61361
G01 X22.12256 Y0.56101
G01 X21.97583 Y0.19553
G01 X21.96305 Y0.15326
G01 X21.94141 Y0.04003
G01 X21.93752 Y0.00000
G01 X22.87273 Y0.00000
G01 X21.93752 Y0.00000
G01 X21.94141 Y0.04003
G01 X21.96305 Y0.15326
G01 X21.97583 Y0.19553
G01 X22.12256 Y0.56101
G01 X22.13171 Y0.61361
G01 X22.13094 Y0.66279
G01 X22.12543 Y0.69385
G01 X22.10432 Y0.75504
G01 X21.92271 Y1.11951
G01 X21.79450 Y1.35209
G01 X21.79556 Y1.36759
G01 X21.54375 Y1.45016
G01 X21.26625 Y1.51448
G01 X21.08911 Y1.50086
G01 X20.80316 Y1.49990
G01 X20.59976 Y1.51448
G01 X20.39976 Y1.47025
G01 X20.39991 Y0.88031
G01 X20.40369 Y0.83033
G01 X20.43054 Y0.71879
G01 X20.46590 Y0.63475
G01 X20.49648 Y0.57841
G01 X20.44532 Y0.45446
G01 X20.40933 Y0.33472
G01 X20.43626 Y0.25916
G01 X20.46046 Y0.16901
G01 X20.46559 Y0.11946
G01 X20.46643 Y0.00000
G01 X21.06635 Y0.00003
G01 X21.06635 Y0.06485
G01 X21.08865 Y0.11946
G01 X21.13895 Y0.21448
G01 X21.16099 Y0.24757
G01 X21.21908 Y0.31880
G01 X21.44679 Y0.54767
G01 X21.50306 Y0.61539
G01 X21.54265 Y0.67826
G01 X21.58642 Y0.76645
G01 X21.64146 Y0.89982
G01 X21.79450 Y1.35209
G01 X21.79556 Y1.36759
G01 X21.58291 Y1.43855
G01 X21.47301 Y1.46865
G01 X21.26625 Y1.51448
G01 X21.26600 Y2.11948
G01 X21.25307 Y2.20134
G01 X21.20915 Y2.33454
G01 X21.23791 Y2.43413
G01 X21.25401 Y2.47315
G01 X21.30593 Y2.56939
G01 X21.33196 Y2.60845
G01 X21.44166 Y2.74135
G01 X21.53437 Y2.83545
G01 X21.56818 Y3.15112
G01 X21.09610 Y3.48899
G01 X20.95264 Y3.49976
G01 X20.66643 Y3.49989
G01 X20.59988 Y3.52984
G01 X20.66643 Y3.49989
G01 X20.66651 Y2.74696
G01 X20.67024 Y2.71694
G01 X20.68479 Y2.66619
G01 X20.73252 Y2.57772
G01 X20.73303 Y2.28834
G01 X20.69363 Y2.22123
G01 X20.63882 Y2.11206
G01 X20.61558 Y2.04348
G01 X20.60633 Y1.99420
G01 X20.59976 Y1.90231
G01 X20.59976 Y1.51448
G01 X20.39976 Y1.47025
G01 X20.30151 Y1.48788
G01 X20.15277 Y1.49893
G01 X18.81894 Y1.49990
G01 X18.22861 Y2.33238
G01 X18.00441 Y2.35506
G01 X17.80004 Y2.57731
G01 X17.62564 Y2.73622
G01 X17.33784 Y2.97343
G01 X17.13578 Y3.12189
G01 X16.79776 Y3.27541
G01 X16.53118 Y3.34833
G01 X16.26461 Y3.37261
G01 X16.26464 Y4.49976
G01 X16.25740 Y4.56052
G01 X16.21447 Y4.68945
G01 X16.20012 Y4.78874
G01 X16.19420 Y5.90837
G01 X16.12323 Y5.91320
G01 X15.99250 Y5.58513
G01 X15.88625 Y5.34218
G01 X15.76857 Y5.12221
G01 X15.59982 Y4.86529
G01 X15.55674 Y4.77330
G01 X15.54493 Y4.73428
G01 X15.53637 Y4.69176
G01 X15.53256 Y4.61343
G01 X15.53639 Y4.57446
G01 X15.55382 Y4.50258
G01 X15.47597 Y4.30982
G01 X15.46908 Y4.27893
G01 X15.46499 Y4.23012
G01 X15.47495 Y4.16123
G01 X15.51579 Y4.04343
G01 X15.52677 Y3.98455
G01 X15.53243 Y3.83715
G01 X15.52938 Y3.57099
G01 X15.53256 Y3.38000
G01 X15.39339 Y3.36728
G01 X15.13164 Y3.36687
G01 X15.13352 Y2.78895
G01 X15.14747 Y2.68961
G01 X15.18727 Y2.57627
G01 X15.19832 Y2.49954
G01 X15.19662 Y2.20363
G01 X15.17927 Y2.13350
G01 X15.14767 Y2.04353
G01 X15.13271 Y1.94361
G01 X15.13164 Y1.49990
G01 X15.50833 Y1.37648
G01 X15.39862 Y1.10012
G01 X15.27741 Y0.73482
G01 X15.26888 Y0.69192
G01 X15.26520 Y0.61331
G01 X15.26908 Y0.57434
G01 X15.28656 Y0.50274
G01 X15.21356 Y0.32304
G01 X15.20238 Y0.27884
G01 X15.19733 Y0.15050
G01 X15.19903 Y0.00000
G01 X13.04920 Y0.00000
G01 X13.04315 Y0.03147
G01 X13.01412 Y0.12347
G01 X13.00356 Y0.17457
G01 X12.99863 Y0.23332
G01 X12.99815 Y0.44445
G01 X12.92459 Y0.58009
G01 X12.88484 Y0.67775
G01 X12.87272 Y0.73861
G01 X12.86777 Y0.78880
G01 X12.86571 Y0.96578
G01 X12.76426 Y1.36614
G01 X12.86571 Y1.40645
G01 X12.86571 Y2.29987
G01 X12.82301 Y2.34254
G01 X12.81831 Y2.35788
G01 X12.80414 Y2.42788
G01 X12.80005 Y2.53253
G01 X12.81278 Y2.62367
G01 X12.84260 Y2.73743
G01 X12.86192 Y2.87658
G01 X12.86571 Y2.96088
G01 X12.86571 Y3.33050
G01 X13.00018 Y3.36654
G01 X12.99962 Y4.04934
G01 X12.99266 Y4.17017
G01 X13.01641 Y4.20550
G01 X13.04656 Y4.26669
G01 X13.06098 Y4.31716
G01 X13.06464 Y4.34691
G01 X13.06441 Y4.52958
G01 X13.04727 Y4.59997
G01 X13.02606 Y4.65310
G01 X13.01252 Y4.69986
G01 X13.00597 Y4.73850
G01 X12.99893 Y4.83301
G01 X12.99507 Y5.90837
G01 X12.79114 Y5.91647
G01 X12.50521 Y5.91553
G01 X12.33256 Y5.90868
G01 X12.33256 Y4.83078
G01 X12.32598 Y4.73888
G01 X12.31676 Y4.68965
G01 X12.27686 Y4.57629
G01 X12.26993 Y4.54533
G01 X12.26571 Y4.49976
G01 X12.26566 Y4.22661
G01 X12.26944 Y4.18765
G01 X12.28430 Y4.13309
G01 X12.36152 Y3.94678
G01 X12.46998 Y3.62486
G01 X12.56906 Y3.36558
G01 X12.40635 Y3.30228
G01 X12.26751 Y3.25496
G01 X12.26406 Y3.03924
G01 X12.26530 Y2.58227
G01 X12.27574 Y2.48336
G01 X12.29314 Y2.41889
G01 X12.27132 Y2.32641
G01 X12.21080 Y2.24932
G01 X12.19116 Y2.21552
G01 X12.15570 Y2.12847
G01 X12.14176 Y2.06865
G01 X12.13287 Y1.96662
G01 X12.13251 Y1.38476
G01 X11.99932 Y1.34882
G01 X11.99906 Y0.32977
G01 X12.04082 Y0.24016
G01 X12.05992 Y0.16901
G01 X12.06505 Y0.11946
G01 X12.06599 Y0.00003
G01 X13.93279 Y0.00000
G01 X13.93104 Y0.11946
G01 X13.92001 Y0.26815
G01 X13.90233 Y0.36655
G01 X13.92001 Y0.46495
G01 X13.93104 Y0.61361
G01 X13.93104 Y0.65260
G01 X13.91122 Y0.85194
G01 X13.82243 Y1.25941
G01 X13.81986 Y1.28923
G01 X13.66667 Y1.36599
G01 X13.66543 Y1.90007
G01 X13.67246 Y1.99459
G01 X13.69471 Y2.08592
G01 X13.79410 Y2.29161
G01 X13.78608 Y2.33200
G01 X13.75590 Y2.41694
G01 X13.73210 Y2.43627
G01 X13.73213 Y3.45686
G01 X13.99761 Y3.58417
G01 X13.99946 Y3.91701
G01 X14.08013 Y4.09994
G01 X14.14859 Y4.28937
G01 X14.18382 Y4.44536
G01 X14.19776 Y4.61361
G01 X14.18671 Y4.80129
G01 X14.16901 Y4.89979
G01 X13.94889 Y5.89250
G01 X14.16901 Y4.89979
G01 X14.18671 Y4.80129
G01 X14.19776 Y4.65259
G01 X14.18671 Y4.46494
G01 X14.14859 Y4.28937
G01 X14.08013 Y4.09994
G01 X13.99946 Y3.91701
G01 X13.99761 Y3.58417
G01 X14.33192 Y3.40398
G01 X14.33286 Y2.99814
G01 X14.32847 Y2.87688
G01 X14.30769 Y2.73713
G01 X14.26914 Y2.56924
G01 X14.26553 Y2.52039
G01 X14.26530 Y2.32992
G01 X14.30678 Y2.24015
G01 X14.34808 Y2.11948
G01 X14.37411 Y2.03675
G01 X14.39050 Y1.95077
G01 X14.39860 Y1.83340
G01 X14.39860 Y1.52215
G01 X14.39860 Y1.83340
G01 X14.39050 Y1.95077
G01 X14.37411 Y2.03675
G01 X14.34808 Y2.11948
G01 X14.30678 Y2.24015
G01 X14.26530 Y2.32992
G01 X14.26553 Y2.52039
G01 X14.26914 Y2.56924
G01 X14.30769 Y2.73713
G01 X14.32847 Y2.87688
G01 X14.33286 Y2.99814
G01 X14.33192 Y3.40398
G01 X14.66944 Y3.37223
G01 X14.77902 Y3.36713
G01 X14.95539 Y3.37396
G01 X15.06510 Y3.38473
G01 X15.13164 Y3.36687
G01 X15.39339 Y3.36728
G01 X15.53256 Y3.38000
G01 X15.60647 Y3.37241
G01 X15.85618 Y3.36067
G01 X15.93035 Y3.35308
G01 X16.10385 Y3.36641
G01 X16.26461 Y3.37261
G01 X16.53118 Y3.34833
G01 X16.68391 Y3.30761
G01 X16.79776 Y3.27541
G01 X17.13578 Y3.12189
G01 X17.33784 Y2.97343
G01 X17.62564 Y2.73622
G01 X17.80004 Y2.57731
G01 X18.00441 Y2.35506
G01 X18.22861 Y2.33238
G01 X18.42224 Y2.54942
G01 X18.58894 Y2.76647
G01 X19.19950 Y3.62067
G01 X19.19895 Y4.19291
G01 X19.13565 Y4.36921
G01 X19.09912 Y4.54767
G01 X19.07939 Y4.66334
G01 X18.91886 Y5.79552
G01 X19.07939 Y4.66334
G01 X19.13565 Y4.36921
G01 X18.87543 Y4.37124
G01 X18.49854 Y4.36461
G01 X17.89674 Y4.36733
G01 X17.83695 Y4.24533
G01 X17.79168 Y4.16994
G01 X17.79750 Y4.08046
G01 X17.79750 Y3.47502
G01 X17.80228 Y3.02044
G01 X17.80004 Y2.57731
G01 X18.00441 Y2.35506
G01 X17.99537 Y2.36352
G01 X17.00929 Y2.37124
G01 X16.63240 Y2.36461
G01 X16.03121 Y2.36736
G01 X16.00454 Y2.43858
G01 X15.99893 Y2.46987
G01 X15.99392 Y2.54917
G01 X15.94782 Y2.68945
G01 X15.93657 Y2.74831
G01 X15.93050 Y2.89593
G01 X15.93352 Y3.16126
G01 X15.93035 Y3.35308
G01 X16.10385 Y3.36641
G01 X16.26461 Y3.37261
G01 X16.10385 Y3.36641
G01 X15.93035 Y3.35308
G01 X16.10385 Y3.36641
G01 X16.26461 Y3.37261
G01 X16.53118 Y3.34833
G01 X16.79776 Y3.27541
G01 X17.13578 Y3.12189
G01 X17.12994 Y3.94368
G01 X17.11500 Y4.04348
G01 X17.07139 Y4.17248
G01 X17.06402 Y4.23332
G01 X17.06433 Y5.90266
G01 X17.30352 Y5.91553
G01 X17.58973 Y5.91647
G01 X17.79364 Y5.90837
G01 X17.79885 Y4.80411
G01 X17.80268 Y4.74833
G01 X17.81391 Y4.68945
G01 X17.85437 Y4.57197
G01 X17.86235 Y4.53314
G01 X17.86773 Y4.45021
G01 X17.88223 Y4.39936
G01 X17.89674 Y4.36733
G01 X18.49854 Y4.36461
G01 X18.87543 Y4.37124
G01 X19.13565 Y4.36921
G01 X19.19895 Y4.19291
G01 X19.19950 Y3.62067
G01 X19.43692 Y3.58473
G01 X20.11037 Y3.50919
G01 X20.24715 Y3.50035
G01 X20.39635 Y3.50690
G01 X20.59988 Y3.52984
G01 X20.59988 Y3.76672
G01 X20.59567 Y3.85674
G01 X20.57560 Y3.99598
G01 X20.55183 Y4.09113
G01 X20.53405 Y4.20037
G01 X20.53379 Y4.52039
G01 X20.54659 Y4.61988
G01 X20.64969 Y4.69016
G01 X20.71822 Y4.75267
G01 X20.76831 Y4.81820
G01 X20.88238 Y4.98874
G01 X20.93539 Y5.06987
G01 X21.04931 Y5.26811
G01 X21.22526 Y5.65762
G01 X21.32465 Y5.91320
G01 X21.40334 Y5.90837
G01 X21.39947 Y4.83065
G01 X21.40605 Y4.73880
G01 X21.41530 Y4.68958
G01 X21.45510 Y4.57619
G01 X21.46198 Y4.54533
G01 X21.46615 Y4.49953
G01 X21.46445 Y4.20365
G01 X21.45894 Y4.17258
G01 X21.44309 Y4.12242
G01 X21.35576 Y3.91434
G01 X21.33338 Y3.87043
G01 X21.19732 Y3.66354
G01 X21.09610 Y3.48899
G01 X21.19732 Y3.66354
G01 X21.33338 Y3.87043
G01 X21.35576 Y3.91434
G01 X21.44309 Y4.12242
G01 X21.46153 Y4.18407
G01 X21.46518 Y4.21358
G01 X21.46584 Y4.50632
G01 X21.45510 Y4.57619
G01 X21.41530 Y4.68958
G01 X21.40605 Y4.73880
G01 X21.39947 Y4.83065
G01 X21.40334 Y5.90837
G01 X21.60476 Y5.91650
G01 X22.02431 Y5.91553
G01 X22.34875 Y5.89260
G01 X22.51603 Y5.14058
G01 X22.55210 Y5.00835
G01 X22.63445 Y4.75694
G01 X22.66147 Y4.58498
G01 X22.66569 Y4.49976
G01 X22.66569 Y4.23332
G01 X22.65670 Y4.09994
G01 X22.60326 Y3.64538
G01 X22.79914 Y3.53776
G01 X22.79914 Y1.52116
G01 X22.93224 Y1.47864
G01 X22.93178 Y0.75961
G01 X22.93572 Y0.72062
G01 X22.94738 Y0.67551
G01 X22.97422 Y0.61577
G01 X23.00646 Y0.56751
G01 X23.07222 Y0.49251
G01 X22.96587 Y0.23355
G01 X22.90475 Y0.11206
G01 X22.88151 Y0.04348
G01 X22.87273 Y0.00000
G01 X24.30122 Y0.00003
G01 X23.73170 Y0.00000
G01 X23.73185 Y0.26393
G01 X23.72175 Y0.35606
G01 X23.81280 Y0.44768
G01 X23.84809 Y0.48877
G01 X23.89152 Y0.55494
G01 X23.93053 Y0.63312
G01 X24.00742 Y0.82794
G01 X24.04595 Y0.98422
G01 X24.08415 Y1.21684
G01 X24.13152 Y1.45382
G01 X24.13201 Y1.56779
G01 X24.13152 Y1.45382
G01 X24.26018 Y1.22933
G01 X24.39977 Y0.96721
G01 X24.64206 Y0.48128
G01 X24.45128 Y0.28562
G01 X24.40407 Y0.22842
G01 X24.35316 Y0.14206
G01 X24.31578 Y0.05039
G01 X24.30122 Y0.00003
G01 X26.78140 Y0.00000
G01 X26.76439 Y0.06662
G01 X26.70688 Y0.24074
G01 X26.66530 Y0.33007
G01 X26.66522 Y0.38618
G01 X26.67180 Y0.45309
G01 X26.68113 Y0.49985
G01 X26.66561 Y0.60023
G01 X26.66469 Y0.78806
G01 X26.67122 Y0.85555
G01 X26.70691 Y1.00381
G01 X26.72202 Y1.09286
G01 X26.73119 Y1.23307
G01 X26.73119 Y1.96411
G01 X26.73581 Y2.50081
G01 X26.20018 Y2.50015
G01 X26.20279 Y3.02044
G01 X26.19804 Y3.47502
G01 X26.19875 Y4.04934
G01 X26.19177 Y4.17022
G01 X26.23619 Y4.24437
G01 X26.25997 Y4.31714
G01 X26.26363 Y4.34691
G01 X26.26416 Y4.51924
G01 X26.25151 Y4.58561
G01 X26.22509 Y4.65310
G01 X26.21156 Y4.69989
G01 X26.20010 Y4.78874
G01 X26.19416 Y5.90837
G01 X26.37846 Y5.91553
G01 X26.53111 Y5.91282
G01 X26.81722 Y5.91553
G01 X27.16881 Y5.88945
G01 X27.55608 Y5.80352
G01 X27.87226 Y5.69161
G01 X28.14940 Y5.55945
G01 X28.43967 Y5.39128
G01 X28.69095 Y5.21795
G01 X29.02682 Y4.94845
G01 X29.38211 Y4.61363
G01 X29.81543 Y4.14254
G01 X30.24876 Y3.59590
G01 X30.47901 Y3.27655
G01 X30.92204 Y3.05275
G01 X31.37190 Y2.79616
G01 X31.82175 Y2.50746
G01 X32.27161 Y2.18658
G01 X32.76046 Y1.80157
G01 X33.36933 Y1.27277
G01 X33.97819 Y0.68544
G01 X34.38307 Y0.28054
G01 X34.65512 Y0.00000
G01 X45.72000 Y0.00000
G01 X45.72000 Y27.41993
G01 X0.00000 Y27.41993
G01 X0.00000 Y0.00000
G01 X34.65512 Y0.00000
G01 X34.38307 Y0.28054
G01 X33.97819 Y0.68544
G01 X33.36933 Y1.27277
G01 X32.76046 Y1.80157
G01 X32.27161 Y2.18658
G01 X31.82175 Y2.50746
G01 X31.37190 Y2.79616
G01 X30.92204 Y3.05275
G01 X30.47901 Y3.27655
G01 X29.86976 Y3.17200
G01 X29.55353 Y3.12247
G01 X28.46217 Y2.96570
G01 X27.33091 Y2.63675
G01 X27.06444 Y2.56931
G01 X26.73581 Y2.50081
G01 X26.20018 Y2.50015
G01 X26.12715 Y2.49138
G01 X26.09154 Y2.49319
G01 X25.85522 Y2.44015
G01 X25.56932 Y2.38956
G01 X25.33152 Y2.35765
G01 X24.93541 Y2.36926
G01 X24.13201 Y1.56779
G01 X23.92810 Y1.55720
G01 X23.43104 Y1.50398
G01 X23.10028 Y1.49502
G01 X22.93224 Y1.47864
G01 X22.79914 Y1.52116
G01 X22.63153 Y1.50467
G01 X22.53257 Y1.49944
G01 X22.37638 Y1.49893
G01 X22.26589 Y1.49245
G01 X21.93229 Y1.45542
G04 P0 ( dwell for no time -- G64 should not smooth over this point )
G00 Z10.00000 ( retract )

G00 X22.36584 Y0.27470 ( rapid move to begin. )
G01 F30.00000
( Mill infeed pass 1/1 )
G01 Z-0.10000
G04 P0 ( dwell for no time -- G64 should not smooth over this point )
G01 F360.00000
G01 X22.36584 Y0.27470
G01 X22.36584 Y0.72507
G01 X22.44062 Y0.79985
G01 X22.62429 Y0.79985
G01 X22.69909 Y0.72507
G01 X22.69909 Y0.27470
G01 X22.62429 Y0.19990
G01 X22.44062 Y0.19990
G01 X22.36584 Y0.27470
G04 P0 ( dwell for no time -- G64 should not smooth over this point )
G00 Z10.00000 ( retract )

G00 X21.49945 Y2.13335 ( rapid move to begin. )
G01 F30.00000
( Mill infeed pass 1/1 )
G01 Z-0.10000
G04 P0 ( dwell for no time -- G64 should not smooth over this point )
G01 F360.00000
G01 X21.49945 Y2.13335
G01 X21.56625 Y2.13335
G01 X21.56625 Y2.19989
G01 X21.49945 Y2.19989
G01 X21.49945 Y2.13335
G04 P0 ( dwell for no time -- G64 should not smooth over this point )
G00 Z10.00000 ( retract )

G00 X20.09991 Y2.27470 ( rapid move to begin. )
G01 F30.00000
( Mill infeed pass 1/1 )
G01 Z-0.10000
G04 P0 ( dwell for no time -- G64 should not smooth over this point )
G01 F360.00000
G01 X20.09991 Y2.27470
G01 X20.17469 Y2.19989
G01 X20.35835 Y2.19989
G01 X20.43316 Y2.27470
G01 X20.43316 Y2.72506
G01 X20.35835 Y2.79984
G01 X20.17469 Y2.79984
G01 X20.09991 Y2.72506
G01 X20.09991 Y2.27470
G04 P0 ( dwell for no time -- G64 should not smooth over this point )
G00 Z10.00000 ( retract )

G00 X18.03083 Y4.13334 ( rapid move to begin. )
G01 F30.00000
( Mill infeed pass 1/1 )
G01 Z-0.10000
G04 P0 ( dwell for no time -- G64 should not smooth over this point )
G01 F360.00000
G01 X18.03083 Y4.13334
G01 X18.03083 Y4.19989
G01 X18.09737 Y4.19989
G01 X18.09737 Y4.13334
G01 X18.03083 Y4.13334
G04 P0 ( dwell for no time -- G64 should not smooth over this point )
G00 Z10.00000 ( retract )

G00 X16.16469 Y2.53314 ( rapid move to begin. )
G01 F30.00000
( Mill infeed pass 1/1 )
G01 Z-0.10000
G04 P0 ( dwell for no time -- G64 should not smooth over this point )
G01 F360.00000
G01 X16.16469 Y2.53314
G01 X16.23123 Y2.53314
G01 X16.23123 Y2.59969
G01 X16.16469 Y2.59969
G01 X16.16469 Y2.53314
G04 P0 ( dwell for no time -- G64 should not smooth over this point )
G00 Z10.00000 ( retract )

G00 X16.16469 Y2.13335 ( rapid move to begin. )
G01 F30.00000
( Mill infeed pass 1/1 )
G01 Z-0.10000
G04 P0 ( dwell for no time -- G64 should not smooth over this point )
G01 F360.00000
G01 X16.16469 Y2.13335
G01 X16.23123 Y2.13335
G01 X16.23123 Y2.19989
G01 X16.16469 Y2.19989
G01 X16.16469 Y2.13335
G04 P0 ( dwell for no time -- G64 should not smooth over this point )
G00 Z10.00000 ( retract )

G00 X17.63077 Y0.53315 ( rapid move to begin. )
G01 F30.00000
( Mill infeed pass 1/1 )
G01 Z-0.10000
G04 P0 ( dwell for no time -- G64 should not smooth over this point )
G01 F360.00000
G01 X17.63077 Y0.53315
G01 X17.69758 Y0.53315
G01 X17.69758 Y0.59969
G01 X17.63077 Y0.59969
G01 X17.63077 Y0.53315
G04 P0 ( dwell for no time -- G64 should not smooth over this point )
G00 Z10.00000 ( retract )

G00 X17.63077 Y0.13335 ( rapid move to begin. )
G01 F30.00000
( Mill infeed pass 1/1 )
G01 Z-0.10000
G04 P0 ( dwell for no time -- G64 should not smooth over this point )
G01 F360.00000
G01 X17.63077 Y0.13335
G01 X17.69758 Y0.13335
G01 X17.69758 Y0.19990
G01 X17.63077 Y0.19990
G01 X17.63077 Y0.13335
G04 P0 ( dwell for no time -- G64 should not smooth over this point )
G00 Z10.00000 ( retract )

G00 X16.90596 Y0.46660 ( rapid move to begin. )
G01 F30.00000
( Mill infeed pass 1/1 )
G01 Z-0.10000
G04 P0 ( dwell for no time -- G64 should not smooth over this point )
G01 F360.00000
G01 X16.90596 Y0.46660
G01 X17.22272 Y0.46660
G01 X17.15618 Y0.53315
G01 X16.97251 Y0.53315
G01 X16.90596 Y0.46660
G04 P0 ( dwell for no time -- G64 should not smooth over this point )
G00 Z10.00000 ( retract )

G00 X15.47289 Y0.23330 ( rapid move to begin. )
G01 F30.00000
( Mill infeed pass 1/1 )
G01 Z-0.10000
G04 P0 ( dwell for no time -- G64 should not smooth over this point )
G01 F360.00000
G01 X15.47289 Y0.23330
G01 X15.50624 Y0.26670
G01 X15.76489 Y0.26670
G01 X15.76489 Y0.19990
G01 X15.50624 Y0.19990
G01 X15.47289 Y0.23330
G04 P0 ( dwell for no time -- G64 should not smooth over this point )
G00 Z10.00000 ( retract )

G00 X14.63180 Y0.19990 ( rapid move to begin. )
G01 F30.00000
( Mill infeed pass 1/1 )
G01 Z-0.10000
G04 P0 ( dwell for no time -- G64 should not smooth over this point )
G01 F360.00000
G01 X14.63180 Y0.19990
G01 X14.89024 Y0.19990
G01 X14.96504 Y0.27470
G01 X14.96504 Y0.72507
G01 X14.89024 Y0.79985
G01 X14.63180 Y0.79985
G01 X14.63180 Y0.19990
G04 P0 ( dwell for no time -- G64 should not smooth over this point )
G00 Z10.00000 ( retract )

G00 X10.09993 Y0.46660 ( rapid move to begin. )
G01 F30.00000
( Mill infeed pass 1/1 )
G01 Z-0.10000
G04 P0 ( dwell for no time -- G64 should not smooth over this point )
G01 F360.00000
G01 X10.09993 Y0.46660
G01 X10.35842 Y0.46660
G01 X10.43318 Y0.54125
G01 X10.43318 Y0.72507
G01 X10.35837 Y0.79985
G01 X10.09993 Y0.79985
G01 X10.09993 Y0.46660
G04 P0 ( dwell for no time -- G64 should not smooth over this point )
G00 Z10.00000 ( retract )

G00 X10.90795 Y2.46659 ( rapid move to begin. )
G01 F30.00000
( Mill infeed pass 1/1 )
G01 Z-0.10000
G04 P0 ( dwell for no time -- G64 should not smooth over this point )
G01 F360.00000
G01 X10.90795 Y2.46659
G01 X11.22477 Y2.46659
G01 X11.15822 Y2.53314
G01 X10.97437 Y2.53314
G01 X10.90795 Y2.46659
G04 P0 ( dwell for no time -- G64 should not smooth over this point )
G00 Z10.00000 ( retract )

G00 X10.09993 Y2.46659 ( rapid move to begin. )
G01 F30.00000
( Mill infeed pass 1/1 )
G01 Z-0.10000
G04 P0 ( dwell for no time -- G64 should not smooth over this point )
G01 F360.00000
G01 X10.09993 Y2.46659
G01 X10.35842 Y2.46659
G01 X10.43318 Y2.54122
G01 X10.43318 Y2.72506
G01 X10.35837 Y2.79984
G01 X10.09993 Y2.79984
G01 X10.09993 Y2.46659
G04 P0 ( dwell for no time -- G64 should not smooth over this point )
G00 Z10.00000 ( retract )

G00 X10.94110 Y4.23324 ( rapid move to begin. )
G01 F30.00000
( Mill infeed pass 1/1 )
G01 Z-0.10000
G04 P0 ( dwell for no time -- G64 should not smooth over this point )
G01 F360.00000
G01 X10.94110 Y4.23324
G01 X10.97437 Y4.19989
G01 X11.23302 Y4.19989
G01 X11.23302 Y4.26644
G01 X10.97430 Y4.26644
G01 X10.94110 Y4.23324
G04 P0 ( dwell for no time -- G64 should not smooth over this point )
G00 Z10.00000 ( retract )

G00 X12.50719 Y4.46634 ( rapid move to begin. )
G01 F30.00000
( Mill infeed pass 1/1 )
G01 Z-0.10000
G04 P0 ( dwell for no time -- G64 should not smooth over this point )
G01 F360.00000
G01 X12.50719 Y4.46634
G01 X12.82446 Y4.46634
G01 X12.75766 Y4.53314
G01 X12.57399 Y4.53314
G01 X12.50719 Y4.46634
G04 P0 ( dwell for no time -- G64 should not smooth over this point )
G00 Z10.00000 ( retract )

G00 X14.63180 Y2.27470 ( rapid move to begin. )
G01 F30.00000
( Mill infeed pass 1/1 )
G01 Z-0.10000
G04 P0 ( dwell for no time -- G64 should not smooth over this point )
G01 F360.00000
G01 X14.63180 Y2.27470
G01 X14.63180 Y2.45836
G01 X14.70657 Y2.53314
G01 X14.89024 Y2.53314
G01 X14.96504 Y2.45836
G01 X14.96504 Y2.27470
G01 X14.89024 Y2.19989
G01 X14.70657 Y2.19989
G01 X14.63180 Y2.27470
G04 P0 ( dwell for no time -- G64 should not smooth over this point )
G00 Z10.00000 ( retract )

G00 X15.73954 Y4.23324 ( rapid move to begin. )
G01 F30.00000
( Mill infeed pass 1/1 )
G01 Z-0.10000
G04 P0 ( dwell for no time -- G64 should not smooth over this point )
G01 F360.00000
G01 X15.73954 Y4.23324
G01 X15.77282 Y4.26644
G01 X16.03134 Y4.26644
G01 X16.03134 Y4.19989
G01 X15.77287 Y4.19989
G01 X15.73954 Y4.23324
G04 P0 ( dwell for no time -- G64 should not smooth over this point )
G00 Z10.00000 ( retract )

G00 X17.30550 Y4.46634 ( rapid move to begin. )
G01 F30.00000
( Mill infeed pass 1/1 )
G01 Z-0.10000
G04 P0 ( dwell for no time -- G64 should not smooth over this point )
G01 F360.00000
G01 X17.30550 Y4.46634
G01 X17.37230 Y4.53314
G01 X17.55615 Y4.53314
G01 X17.62282 Y4.46634
G01 X17.30550 Y4.46634
G04 P0 ( dwell for no time -- G64 should not smooth over this point )
G00 Z10.00000 ( retract )

G00 X18.03083 Y4.53314 ( rapid move to begin. )
G01 F30.00000
( Mill infeed pass 1/1 )
G01 Z-0.10000
G04 P0 ( dwell for no time -- G64 should not smooth over this point )
G01 F360.00000
G01 X18.03083 Y4.53314
G01 X18.09737 Y4.53314
G01 X18.09737 Y4.59969
G01 X18.03083 Y4.59969
G01 X18.03083 Y4.53314
G04 P0 ( dwell for no time -- G64 should not smooth over this point )
G00 Z10.00000 ( retract )

G00 X20.89975 Y4.27469 ( rapid move to begin. )
G01 F30.00000
( Mill infeed pass 1/1 )
G01 Z-0.10000
G04 P0 ( dwell for no time -- G64 should not smooth over this point )
G01 F360.00000
G01 X20.89975 Y4.27469
G01 X20.89975 Y4.45836
G01 X20.97453 Y4.53314
G01 X21.15820 Y4.53314
G01 X21.23300 Y4.45836
G01 X21.23300 Y4.27469
G01 X21.15820 Y4.19989
G01 X20.97453 Y4.19989
G01 X20.89975 Y4.27469
G04 P0 ( dwell for no time -- G64 should not smooth over this point )
G00 Z10.00000 ( retract )

G00 X21.69935 Y4.19989 ( rapid move to begin. )
G01 F30.00000
( Mill infeed pass 1/1 )
G01 Z-0.10000
G04 P0 ( dwell for no time -- G64 should not smooth over this point )
G01 F360.00000
G01 X21.69935 Y4.19989
G01 X21.69935 Y4.53314
G01 X21.95797 Y4.53314
G01 X22.03259 Y4.45841
G01 X22.03259 Y4.27464
G01 X21.95797 Y4.19989
G01 X21.69935 Y4.19989
G04 P0 ( dwell for no time -- G64 should not smooth over this point )
G00 Z10.00000 ( retract )

G00 X22.23249 Y2.27470 ( rapid move to begin. )
G01 F30.00000
( Mill infeed pass 1/1 )
G01 Z-0.10000
G04 P0 ( dwell for no time -- G64 should not smooth over this point )
G01 F360.00000
G01 X22.23249 Y2.27470
G01 X22.23249 Y2.72506
G01 X22.30727 Y2.79984
G01 X22.49112 Y2.79984
G01 X22.56574 Y2.72512
G01 X22.56574 Y2.27465
G01 X22.49112 Y2.19989
G01 X22.30727 Y2.19989
G01 X22.23249 Y2.27470
G04 P0 ( dwell for no time -- G64 should not smooth over this point )
G00 Z10.00000 ( retract )

G00 X23.03234 Y2.27470 ( rapid move to begin. )
G01 F30.00000
( Mill infeed pass 1/1 )
G01 Z-0.10000
G04 P0 ( dwell for no time -- G64 should not smooth over this point )
G01 F360.00000
G01 X23.03234 Y2.27470
G01 X23.03234 Y2.72506
G01 X23.10712 Y2.79984
G01 X23.29078 Y2.79984
G01 X23.36559 Y2.72506
G01 X23.36559 Y2.27470
G01 X23.29078 Y2.19989
G01 X23.10712 Y2.19989
G01 X23.03234 Y2.27470
G04 P0 ( dwell for no time -- G64 should not smooth over this point )
G00 Z10.00000 ( retract )

G00 X24.14008 Y4.23324 ( rapid move to begin. )
G01 F30.00000
( Mill infeed pass 1/1 )
G01 Z-0.10000
G04 P0 ( dwell for no time -- G64 should not smooth over this point )
G01 F360.00000
G01 X24.14008 Y4.23324
G01 X24.17336 Y4.26644
G01 X24.43188 Y4.26644
G01 X24.43188 Y4.19989
G01 X24.17341 Y4.19989
G01 X24.14008 Y4.23324
G04 P0 ( dwell for no time -- G64 should not smooth over this point )
G00 Z10.00000 ( retract )

G00 X25.70604 Y4.46634 ( rapid move to begin. )
G01 F30.00000
( Mill infeed pass 1/1 )
G01 Z-0.10000
G04 P0 ( dwell for no time -- G64 should not smooth over this point )
G01 F360.00000
G01 X25.70604 Y4.46634
G01 X25.77285 Y4.53314
G01 X25.95669 Y4.53314
G01 X26.02337 Y4.46634
G01 X25.70604 Y4.46634
G04 P0 ( dwell for no time -- G64 should not smooth over this point )
G00 Z10.00000 ( retract )

G00 X25.56495 Y0.27465 ( rapid move to begin. )
G01 F30.00000
( Mill infeed pass 1/1 )
G01 Z-0.10000
G04 P0 ( dwell for no time -- G64 should not smooth over this point )
G01 F360.00000
G01 X25.56495 Y0.27465
G01 X25.63955 Y0.19990
G01 X25.82342 Y0.19990
G01 X25.89820 Y0.27470
G01 X25.89820 Y0.72507
G01 X25.82342 Y0.79985
G01 X25.63955 Y0.79985
G01 X25.56495 Y0.72512
G01 X25.56495 Y0.27465
G04 P0 ( dwell for no time -- G64 should not smooth over this point )
G00 Z10.00000 ( retract )

G00 X27.03106 Y0.27470 ( rapid move to begin. )
G01 F30.00000
( Mill infeed pass 1/1 )
G01 Z-0.10000
G04 P0 ( dwell for no time -- G64 should not smooth over this point )
G01 F360.00000
G01 X27.03106 Y0.27470
G01 X27.10584 Y0.19990
G01 X27.28951 Y0.19990
G01 X27.36431 Y0.27470
G01 X27.36431 Y0.32520
G01 X27.28956 Y0.39980
G01 X27.10579 Y0.39980
G01 X27.03106 Y0.32520
G01 X27.03106 Y0.27470
G04 P0 ( dwell for no time -- G64 should not smooth over this point )
G00 Z10.00000 ( retract )

G00 X27.03106 Y0.67452 ( rapid move to begin. )
G01 F30.00000
( Mill infeed pass 1/1 )
G01 Z-0.10000
G04 P0 ( dwell for no time -- G64 should not smooth over this point )
G01 F360.00000
G01 X27.03106 Y0.67452
G01 X27.10584 Y0.59969
G01 X27.28951 Y0.59969
G01 X27.36431 Y0.67452
G01 X27.36431 Y0.72507
G01 X27.28951 Y0.79985
G01 X27.10584 Y0.79985
G01 X27.03106 Y0.72507
G01 X27.03106 Y0.67452
G04 P0 ( dwell for no time -- G64 should not smooth over this point )
G00 Z10.00000 ( retract )

G00 X33.79775 Y8.24293 ( rapid move to begin. )
G01 F30.00000
( Mill infeed pass 1/1 )
G01 Z-0.10000
G04 P0 ( dwell for no time -- G64 should not smooth over this point )
G01 F360.00000
G01 X33.79775 Y8.24293
G01 X33.81553 Y8.10781
G01 X33.91662 Y7.86371
G01 X34.07740 Y7.65391
G01 X34.28721 Y7.49287
G01 X34.53155 Y7.39178
G01 X34.66668 Y7.37400
G01 X34.66666 Y7.63430
G01 X34.56188 Y7.65658
G01 X34.41865 Y7.72036
G01 X34.29178 Y7.81251
G01 X34.18685 Y7.92902
G01 X34.10847 Y8.06486
G01 X34.06000 Y8.21398
G01 X34.05695 Y8.24291
G01 X33.79775 Y8.24293
G04 P0 ( dwell for no time -- G64 should not smooth over this point )
G00 Z10.00000 ( retract )

G00 X36.45286 Y10.90994 ( rapid move to begin. )
G01 F30.00000
( Mill infeed pass 1/1 )
G01 Z-0.10000
G04 P0 ( dwell for no time -- G64 should not smooth over this point )
G01 F360.00000
G01 X36.45286 Y10.90994
G01 X36.47712 Y10.71402
G01 X36.48428 Y10.68230
G01 X36.52738 Y10.56549
G01 X36.57260 Y10.47062
G01 X36.63226 Y10.38385
G01 X36.71192 Y10.28809
G01 X36.75647 Y10.24882
G01 X36.89317 Y10.14710
G01 X37.04974 Y10.07948
G01 X37.10602 Y10.06053
G01 X37.22878 Y10.03945
G01 X37.33366 Y10.03117
G01 X37.43853 Y10.03945
G01 X37.56106 Y10.06051
G01 X37.61755 Y10.07953
G01 X37.77397 Y10.14707
G01 X37.91085 Y10.24885
G01 X37.95542 Y10.28809
G01 X38.03503 Y10.38388
G01 X38.09459 Y10.47059
G01 X38.13988 Y10.56551
G01 X38.18306 Y10.68235
G01 X38.19022 Y10.71402
G01 X38.21448 Y10.90994
G01 X38.19022 Y11.10579
G01 X38.18303 Y11.13749
G01 X38.13990 Y11.25431
G01 X38.09454 Y11.34943
G01 X38.03505 Y11.43594
G01 X37.95542 Y11.53170
G01 X37.91085 Y11.57100
G01 X37.77397 Y11.67277
G01 X37.61755 Y11.74031
G01 X37.56106 Y11.75931
G01 X37.43853 Y11.78039
G01 X37.33366 Y11.78867
G01 X37.22878 Y11.78039
G01 X37.10602 Y11.75929
G01 X37.04974 Y11.74034
G01 X36.89320 Y11.67272
G01 X36.75647 Y11.57102
G01 X36.71189 Y11.53170
G01 X36.63224 Y11.43597
G01 X36.57265 Y11.34938
G01 X36.52736 Y11.25433
G01 X36.48431 Y11.13757
G01 X36.47712 Y11.10579
G01 X36.45286 Y10.90994
G04 P0 ( dwell for no time -- G64 should not smooth over this point )
G00 Z10.00000 ( retract )

G00 X38.73957 Y12.64933 ( rapid move to begin. )
G01 F30.00000
( Mill infeed pass 1/1 )
G01 Z-0.10000
G04 P0 ( dwell for no time -- G64 should not smooth over this point )
G01 F360.00000
G01 X38.73957 Y12.64933
G01 X38.75354 Y12.54443
G01 X38.84295 Y12.32802
G01 X38.98544 Y12.14234
G01 X39.17137 Y11.99985
G01 X39.38753 Y11.91019
G01 X39.49268 Y11.89647
G01 X39.49266 Y12.15768
G01 X39.42344 Y12.17239
G01 X39.30218 Y12.22639
G01 X39.19477 Y12.30442
G01 X39.10594 Y12.40307
G01 X39.03957 Y12.51803
G01 X38.99802 Y12.64933
G01 X38.73957 Y12.64933
G04 P0 ( dwell for no time -- G64 should not smooth over this point )
G00 Z10.00000 ( retract )

G00 X38.73957 Y12.90333 ( rapid move to begin. )
G01 F30.00000
( Mill infeed pass 1/1 )
G01 Z-0.10000
G04 P0 ( dwell for no time -- G64 should not smooth over this point )
G01 F360.00000
G01 X38.73957 Y12.90333
G01 X38.75354 Y13.00848
G01 X38.84295 Y13.22464
G01 X38.98544 Y13.41057
G01 X39.17137 Y13.55280
G01 X39.38753 Y13.64244
G01 X39.49268 Y13.65644
G01 X39.49266 Y13.39494
G01 X39.42344 Y13.38024
G01 X39.30218 Y13.32624
G01 X39.19477 Y13.24821
G01 X39.10594 Y13.14955
G01 X39.03957 Y13.03459
G01 X38.99802 Y12.90330
G01 X38.73957 Y12.90333
G04 P0 ( dwell for no time -- G64 should not smooth over this point )
G00 Z10.00000 ( retract )

G00 X39.74668 Y11.89647 ( rapid move to begin. )
G01 F30.00000
( Mill infeed pass 1/1 )
G01 Z-0.10000
G04 P0 ( dwell for no time -- G64 should not smooth over this point )
G01 F360.00000
G01 X39.74668 Y11.89647
G01 X39.74668 Y12.15768
G01 X39.81590 Y12.17239
G01 X39.93718 Y12.22639
G01 X40.04457 Y12.30442
G01 X40.13340 Y12.40307
G01 X40.19977 Y12.51803
G01 X40.24132 Y12.64933
G01 X40.49954 Y12.64933
G01 X40.48557 Y12.54443
G01 X40.39616 Y12.32802
G01 X40.25367 Y12.14234
G01 X40.06799 Y11.99985
G01 X39.85158 Y11.91019
G01 X39.74668 Y11.89647
G04 P0 ( dwell for no time -- G64 should not smooth over this point )
G00 Z10.00000 ( retract )

G00 X39.74668 Y13.39494 ( rapid move to begin. )
G01 F30.00000
( Mill infeed pass 1/1 )
G01 Z-0.10000
G04 P0 ( dwell for no time -- G64 should not smooth over this point )
G01 F360.00000
G01 X39.74668 Y13.39494
G01 X39.74668 Y13.65644
G01 X39.85158 Y13.64244
G01 X40.06799 Y13.55280
G01 X40.25367 Y13.41057
G01 X40.39616 Y13.22464
G01 X40.48557 Y13.00848
G01 X40.49954 Y12.90333
G01 X40.24132 Y12.90330
G01 X40.19977 Y13.03459
G01 X40.13340 Y13.14955
G01 X40.04457 Y13.24821
G01 X39.93718 Y13.32624
G01 X39.81590 Y13.38024
G01 X39.74668 Y13.39494
G04 P0 ( dwell for no time -- G64 should not smooth over this point )
G00 Z10.00000 ( retract )

G00 X39.93131 Y15.68003 ( rapid move to begin. )
G01 F30.00000
( Mill infeed pass 1/1 )
G01 Z-0.10000
G04 P0 ( dwell for no time -- G64 should not smooth over this point )
G01 F360.00000
G01 X39.93131 Y15.68003
G01 X39.96418 Y15.41125
G01 X39.97541 Y15.36154
G01 X40.03746 Y15.19329
G01 X40.09903 Y15.06525
G01 X40.16294 Y14.96959
G01 X40.29367 Y14.81023
G01 X40.35176 Y14.75844
G01 X40.54747 Y14.61275
G01 X40.77122 Y14.51628
G01 X40.84526 Y14.49182
G01 X41.02199 Y14.46144
G01 X41.16349 Y14.45077
G01 X41.30495 Y14.46144
G01 X41.48196 Y14.49184
G01 X41.55575 Y14.51623
G01 X41.77970 Y14.61280
G01 X41.97518 Y14.75844
G01 X42.03329 Y14.81023
G01 X42.16405 Y14.96957
G01 X42.22808 Y15.06535
G01 X42.28960 Y15.19326
G01 X42.35168 Y15.36156
G01 X42.36291 Y15.41122
G01 X42.39577 Y15.68003
G01 X42.36288 Y15.94884
G01 X42.35171 Y15.99827
G01 X42.28955 Y16.16680
G01 X42.22814 Y16.29453
G01 X42.16403 Y16.39047
G01 X42.03327 Y16.54983
G01 X41.97518 Y16.60162
G01 X41.77977 Y16.74708
G01 X41.55572 Y16.84373
G01 X41.48198 Y16.86811
G01 X41.30492 Y16.89852
G01 X41.16349 Y16.90916
G01 X41.02202 Y16.89849
G01 X40.84523 Y16.86814
G01 X40.77124 Y16.84368
G01 X40.54739 Y16.74713
G01 X40.35179 Y16.60159
G01 X40.29370 Y16.54983
G01 X40.16299 Y16.39044
G01 X40.09901 Y16.29463
G01 X40.03751 Y16.16674
G01 X39.97538 Y15.99829
G01 X39.96418 Y15.94879
G01 X39.93131 Y15.68003
G04 P0 ( dwell for no time -- G64 should not smooth over this point )
G00 Z10.00000 ( retract )

G00 X37.46068 Y16.72554 ( rapid move to begin. )
G01 F30.00000
( Mill infeed pass 1/1 )
G01 Z-0.10000
G04 P0 ( dwell for no time -- G64 should not smooth over this point )
G01 F360.00000
G01 X37.46068 Y16.72554
G01 X37.56546 Y16.70327
G01 X37.70871 Y16.63949
G01 X37.83556 Y16.54734
G01 X37.94049 Y16.43080
G01 X38.01887 Y16.29499
G01 X38.06734 Y16.14587
G01 X38.07038 Y16.11693
G01 X38.32962 Y16.11693
G01 X38.31184 Y16.25206
G01 X38.21049 Y16.49641
G01 X38.04971 Y16.70596
G01 X37.83990 Y16.86700
G01 X37.59556 Y16.96809
G01 X37.46068 Y16.98587
G01 X37.46068 Y16.72554
G04 P0 ( dwell for no time -- G64 should not smooth over this point )
G00 Z10.00000 ( retract )

G00 X37.46068 Y14.99400 ( rapid move to begin. )
G01 F30.00000
( Mill infeed pass 1/1 )
G01 Z-0.10000
G04 P0 ( dwell for no time -- G64 should not smooth over this point )
G01 F360.00000
G01 X37.46068 Y14.99400
G01 X37.46068 Y15.25430
G01 X37.56546 Y15.27658
G01 X37.70871 Y15.34036
G01 X37.83556 Y15.43251
G01 X37.94049 Y15.54904
G01 X38.01887 Y15.68486
G01 X38.06734 Y15.83398
G01 X38.07038 Y15.86293
G01 X38.32962 Y15.86293
G01 X38.31184 Y15.72781
G01 X38.21049 Y15.48371
G01 X38.04971 Y15.27391
G01 X37.83990 Y15.11287
G01 X37.59556 Y15.01178
G01 X37.46068 Y14.99400
G04 P0 ( dwell for no time -- G64 should not smooth over this point )
G00 Z10.00000 ( retract )

G00 X36.45286 Y13.44993 ( rapid move to begin. )
G01 F30.00000
( Mill infeed pass 1/1 )
G01 Z-0.10000
G04 P0 ( dwell for no time -- G64 should not smooth over this point )
G01 F360.00000
G01 X36.45286 Y13.44993
G01 X36.47712 Y13.25402
G01 X36.48428 Y13.22230
G01 X36.52738 Y13.10549
G01 X36.57260 Y13.01067
G01 X36.63226 Y12.92388
G01 X36.71192 Y12.82812
G01 X36.75647 Y12.78882
G01 X36.89317 Y12.68710
G01 X37.04974 Y12.61948
G01 X37.10602 Y12.60053
G01 X37.22878 Y12.57945
G01 X37.33366 Y12.57117
G01 X37.43853 Y12.57945
G01 X37.56106 Y12.60051
G01 X37.61755 Y12.61953
G01 X37.77397 Y12.68707
G01 X37.91085 Y12.78885
G01 X37.95540 Y12.82812
G01 X38.03503 Y12.92390
G01 X38.09459 Y13.01062
G01 X38.13988 Y13.10551
G01 X38.18306 Y13.22238
G01 X38.19022 Y13.25402
G01 X38.21448 Y13.44993
G01 X38.19022 Y13.64579
G01 X38.18303 Y13.67749
G01 X38.13990 Y13.79431
G01 X38.09454 Y13.88943
G01 X38.03505 Y13.97594
G01 X37.95542 Y14.07170
G01 X37.91085 Y14.11100
G01 X37.77397 Y14.21277
G01 X37.61755 Y14.28031
G01 X37.56106 Y14.29931
G01 X37.43853 Y14.32039
G01 X37.33366 Y14.32867
G01 X37.22878 Y14.32039
G01 X37.10602 Y14.29929
G01 X37.04974 Y14.28034
G01 X36.89320 Y14.21272
G01 X36.75647 Y14.11102
G01 X36.71189 Y14.07170
G01 X36.63224 Y13.97597
G01 X36.57265 Y13.88938
G01 X36.52736 Y13.79433
G01 X36.48431 Y13.67757
G01 X36.47712 Y13.64579
G01 X36.45286 Y13.44993
G04 P0 ( dwell for no time -- G64 should not smooth over this point )
G00 Z10.00000 ( retract )

G00 X34.22561 Y15.18948 ( rapid move to begin. )
G01 F30.00000
( Mill infeed pass 1/1 )
G01 Z-0.10000
G04 P0 ( dwell for no time -- G64 should not smooth over this point )
G01 F360.00000
G01 X34.22561 Y15.18948
G01 X34.21220 Y15.24371
G01 X34.18152 Y15.33324
G01 X34.13628 Y15.41094
G01 X34.07631 Y15.48524
G01 X34.03260 Y15.55067
G01 X33.98738 Y15.64549
G01 X33.94428 Y15.76230
G01 X33.93712 Y15.79402
G01 X33.91286 Y15.98993
G01 X33.93712 Y16.18579
G01 X33.94431 Y16.21757
G01 X33.98736 Y16.33433
G01 X34.03267 Y16.42943
G01 X34.09218 Y16.51602
G01 X34.17171 Y16.61163
G01 X34.21642 Y16.65105
G01 X34.35314 Y16.75272
G01 X34.50974 Y16.82034
G01 X34.56602 Y16.83929
G01 X34.71527 Y16.86352
G01 X34.79366 Y16.86867
G01 X34.87207 Y16.86352
G01 X35.02106 Y16.83931
G01 X35.05230 Y16.82961
G01 X35.23399 Y16.75275
G01 X35.34148 Y16.67297
G01 X35.39772 Y16.63934
G01 X35.50473 Y16.60246
G01 X35.56701 Y16.59047
G01 X35.61464 Y16.66700
G01 X35.65294 Y16.74909
G01 X35.66571 Y16.83116
G01 X35.66571 Y17.68869
G01 X35.65299 Y17.77060
G01 X35.61484 Y17.85252
G01 X35.56704 Y17.92945
G01 X35.62680 Y18.13946
G01 X35.65906 Y18.33115
G01 X35.67031 Y18.51660
G01 X35.66208 Y18.70004
G01 X35.62680 Y18.92036
G01 X35.56978 Y19.12323
G01 X35.50958 Y19.28005
G01 X35.48139 Y19.34314
G01 X35.38014 Y19.53943
G01 X35.21006 Y19.65792
G01 X35.12472 Y19.71015
G01 X34.98342 Y19.78688
G01 X34.96163 Y19.80867
G01 X34.87204 Y19.84126
G01 X34.71525 Y19.90618
G01 X34.63460 Y19.94459
G01 X34.49086 Y20.02259
G01 X34.42980 Y20.05995
G01 X34.29841 Y20.15030
G01 X34.13003 Y20.28982
G01 X33.96115 Y20.46450
G01 X33.86531 Y20.47390
G01 X33.74301 Y20.50293
G01 X33.65180 Y20.56305
G01 X32.95289 Y21.26115
G01 X32.86638 Y21.33026
G01 X32.82196 Y21.36036
G01 X32.75901 Y21.39013
G01 X32.67039 Y21.42312
G01 X32.61774 Y21.43326
G01 X32.49915 Y21.44616
G01 X23.11552 Y21.44616
G01 X23.00529 Y21.46948
G01 X22.98362 Y21.57641
G01 X22.98362 Y22.59393
G01 X23.00346 Y22.69620
G01 X23.11552 Y22.72094
G01 X23.17318 Y22.72094
G01 X23.27839 Y22.74270
G01 X23.30018 Y22.84793
G01 X23.30018 Y24.37191
G01 X23.27839 Y24.47714
G01 X23.17318 Y24.49893
G01 X23.11552 Y24.49893
G01 X23.00346 Y24.52365
G01 X22.98362 Y24.62593
G01 X22.98362 Y25.13393
G01 X23.00346 Y25.23620
G01 X23.11552 Y25.26093
G01 X23.17318 Y25.26093
G01 X23.27839 Y25.28270
G01 X23.30018 Y25.38793
G01 X23.30018 Y26.91191
G01 X23.27839 Y27.01714
G01 X23.17318 Y27.03891
G01 X22.03016 Y27.03891
G01 X21.92495 Y27.01714
G01 X21.90316 Y26.91191
G01 X21.90316 Y25.38793
G01 X21.92495 Y25.28270
G01 X22.03016 Y25.26093
G01 X22.08759 Y25.26093
G01 X22.19980 Y25.23612
G01 X22.21959 Y25.13393
G01 X22.21959 Y24.62593
G01 X22.19980 Y24.52373
G01 X22.08759 Y24.49893
G01 X22.03016 Y24.49893
G01 X21.92495 Y24.47714
G01 X21.90316 Y24.37191
G01 X21.90316 Y22.84793
G01 X21.92495 Y22.74270
G01 X22.03016 Y22.72094
G01 X22.08759 Y22.72094
G01 X22.19980 Y22.69612
G01 X22.21959 Y22.59393
G01 X22.21959 Y21.57641
G01 X22.19797 Y21.46955
G01 X22.08759 Y21.44616
G01 X2.79819 Y21.44616
G01 X2.67957 Y21.43323
G01 X2.62692 Y21.42312
G01 X2.53827 Y21.39013
G01 X2.47541 Y21.36038
G01 X2.45135 Y21.34486
G01 X2.33802 Y21.25553
G01 X1.58803 Y20.50557
G01 X1.51331 Y20.41258
G01 X1.48323 Y20.36823
G01 X1.44389 Y20.28220
G01 X1.42044 Y20.21665
G01 X1.41442 Y20.18871
G01 X1.39743 Y20.04540
G01 X1.39743 Y19.54594
G01 X1.36911 Y19.42445
G01 X1.36047 Y19.41802
G01 X1.32916 Y19.29193
G01 X1.32916 Y17.76793
G01 X1.36047 Y17.64182
G01 X1.36911 Y17.63540
G01 X1.39743 Y17.51393
G01 X1.39743 Y16.49793
G01 X1.36911 Y16.37645
G01 X1.36047 Y16.37002
G01 X1.32916 Y16.24394
G01 X1.32916 Y14.71994
G01 X1.36047 Y14.59382
G01 X1.36911 Y14.58740
G01 X1.39743 Y14.46593
G01 X1.39743 Y13.06995
G01 X1.38580 Y12.99207
G01 X1.18857 Y12.84976
G01 X1.14315 Y12.80993
G01 X1.06256 Y12.71300
G01 X1.00228 Y12.62525
G01 X0.95646 Y12.52919
G01 X0.91267 Y12.41054
G01 X0.90081 Y12.35174
G01 X0.88080 Y12.17991
G01 X0.90538 Y11.98154
G01 X0.91267 Y11.94930
G01 X0.95646 Y11.83063
G01 X1.00226 Y11.73460
G01 X1.06256 Y11.64681
G01 X1.14341 Y11.54961
G01 X1.18842 Y11.50988
G01 X1.32710 Y11.40676
G01 X1.51130 Y11.32876
G01 X1.54275 Y11.31900
G01 X1.66756 Y11.29759
G01 X1.77366 Y11.28926
G01 X1.87975 Y11.29759
G01 X2.00434 Y11.31898
G01 X2.06126 Y11.33810
G01 X2.22004 Y11.40671
G01 X2.37960 Y11.52713
G01 X2.40396 Y11.54963
G01 X2.48475 Y11.64681
G01 X2.54505 Y11.73460
G01 X2.59088 Y11.83063
G01 X2.63461 Y11.94925
G01 X2.64648 Y12.00808
G01 X2.66642 Y12.17988
G01 X2.64782 Y12.34072
G01 X2.65791 Y12.44252
G01 X2.65791 Y14.46593
G01 X2.68623 Y14.58740
G01 X2.69486 Y14.59382
G01 X2.72618 Y14.71994
G01 X2.72618 Y16.24394
G01 X2.69486 Y16.37002
G01 X2.68623 Y16.37645
G01 X2.65791 Y16.49793
G01 X2.65791 Y17.51393
G01 X2.68623 Y17.63540
G01 X2.69486 Y17.64182
G01 X2.72618 Y17.76793
G01 X2.72618 Y19.29193
G01 X2.69486 Y19.41802
G01 X2.68623 Y19.42445
G01 X2.65791 Y19.54594
G01 X2.65791 Y19.73897
G01 X2.66306 Y19.79074
G01 X2.69606 Y19.83105
G01 X3.01254 Y20.14751
G01 X3.05285 Y20.18053
G01 X3.10462 Y20.18566
G01 X32.19247 Y20.18566
G01 X32.24446 Y20.18048
G01 X32.28459 Y20.14758
G01 X33.88251 Y18.54967
G01 X33.91040 Y18.51675
G01 X33.95261 Y18.24380
G01 X33.90748 Y18.18391
G01 X33.37390 Y17.65043
G01 X33.33372 Y17.61744
G01 X33.28060 Y17.61211
G01 X30.53461 Y17.61211
G01 X30.45272 Y17.62483
G01 X30.37083 Y17.66301
G01 X30.28488 Y17.71645
G01 X30.29773 Y17.76842
G01 X30.33230 Y17.86567
G01 X30.37497 Y17.93692
G01 X30.44071 Y18.01818
G01 X30.48505 Y18.08460
G01 X30.52034 Y18.15612
G01 X30.57461 Y18.29925
G01 X30.58648 Y18.35808
G01 X30.60517 Y18.51630
G01 X30.60517 Y18.54355
G01 X30.58193 Y18.72828
G01 X30.57461 Y18.76059
G01 X30.53088 Y18.87918
G01 X30.48508 Y18.97520
G01 X30.42473 Y19.06298
G01 X30.34378 Y19.16026
G01 X30.29887 Y19.19989
G01 X30.16001 Y19.30314
G01 X30.00126 Y19.37172
G01 X29.94429 Y19.39089
G01 X29.81978 Y19.41231
G01 X29.71366 Y19.42069
G01 X29.60754 Y19.41233
G01 X29.48280 Y19.39087
G01 X29.42603 Y19.37177
G01 X29.26710 Y19.30309
G01 X29.10771 Y19.18271
G01 X29.08341 Y19.16024
G01 X29.00256 Y19.06300
G01 X28.94228 Y18.97525
G01 X28.90698 Y18.90370
G01 X28.85267 Y18.76054
G01 X28.84538 Y18.72828
G01 X28.82080 Y18.52991
G01 X28.84081 Y18.35808
G01 X28.85267 Y18.29930
G01 X28.89646 Y18.18063
G01 X28.94226 Y18.08460
G01 X29.00256 Y17.99681
G01 X29.05237 Y17.93692
G01 X29.09501 Y17.86570
G01 X29.12961 Y17.76842
G01 X29.14244 Y17.71645
G01 X29.24985 Y17.68401
G01 X29.40914 Y17.65013
G01 X29.63403 Y17.62623
G01 X29.79331 Y17.62623
G01 X29.98328 Y17.64459
G01 X30.17749 Y17.68399
G01 X30.28488 Y17.71645
G01 X30.17749 Y17.68399
G01 X30.01818 Y17.65013
G01 X29.79331 Y17.62623
G01 X29.63403 Y17.62623
G01 X29.44404 Y17.64459
G01 X29.24985 Y17.68401
G01 X29.14244 Y17.71645
G01 X29.05651 Y17.66301
G01 X28.97462 Y17.62483
G01 X28.89275 Y17.61211
G01 X23.23422 Y17.61211
G01 X23.16640 Y17.62727
G01 X23.10514 Y17.63603
G01 X23.04377 Y17.62724
G01 X22.95939 Y17.60703
G01 X22.88540 Y17.56169
G01 X22.83584 Y17.52458
G01 X22.34072 Y17.03126
G01 X22.29528 Y16.97162
G01 X22.24982 Y16.89750
G01 X22.23450 Y16.83766
G01 X22.21959 Y16.73890
G01 X22.21959 Y16.49793
G01 X22.19980 Y16.39573
G01 X22.08759 Y16.37093
G01 X22.03016 Y16.37093
G01 X21.92495 Y16.34914
G01 X21.90316 Y16.24394
G01 X21.90316 Y14.71994
G01 X21.92495 Y14.61470
G01 X22.03016 Y14.59293
G01 X22.08759 Y14.59293
G01 X22.19980 Y14.56812
G01 X22.21959 Y14.46593
G01 X22.21959 Y12.17991
G01 X22.19980 Y12.07773
G01 X22.08759 Y12.05291
G01 X22.03016 Y12.05291
G01 X21.92495 Y12.03114
G01 X21.90316 Y11.92594
G01 X21.90316 Y10.40193
G01 X21.92495 Y10.29670
G01 X22.03016 Y10.27493
G01 X22.08759 Y10.27493
G01 X22.19980 Y10.25012
G01 X22.21959 Y10.14794
G01 X22.21959 Y9.63991
G01 X22.19980 Y9.53773
G01 X22.08759 Y9.51293
G01 X22.03016 Y9.51293
G01 X21.92495 Y9.49114
G01 X21.90316 Y9.38593
G01 X21.90316 Y7.86194
G01 X21.92495 Y7.75670
G01 X22.03016 Y7.73491
G01 X23.17318 Y7.73491
G01 X23.27839 Y7.75670
G01 X23.30018 Y7.86194
G01 X23.30018 Y9.38593
G01 X23.27839 Y9.49114
G01 X23.17318 Y9.51293
G01 X23.11552 Y9.51293
G01 X23.00346 Y9.53765
G01 X22.98362 Y9.63991
G01 X22.98362 Y10.14794
G01 X23.00346 Y10.25020
G01 X23.11552 Y10.27493
G01 X23.17318 Y10.27493
G01 X23.27839 Y10.29670
G01 X23.30018 Y10.40193
G01 X23.30018 Y11.92594
G01 X23.27839 Y12.03114
G01 X23.17318 Y12.05291
G01 X23.11552 Y12.05291
G01 X23.00346 Y12.07765
G01 X22.98362 Y12.17991
G01 X22.98362 Y14.46593
G01 X23.00346 Y14.56820
G01 X23.11552 Y14.59293
G01 X23.17318 Y14.59293
G01 X23.27839 Y14.61470
G01 X23.30018 Y14.71994
G01 X23.30018 Y16.24394
G01 X23.27839 Y16.34914
G01 X23.17318 Y16.37977
G01 X23.07039 Y16.42770
G01 X23.04948 Y16.44167
G01 X23.02388 Y16.57703
G01 X23.09846 Y16.70853
G01 X23.25009 Y16.86016
G01 X23.29043 Y16.89329
G01 X23.34336 Y16.89862
G01 X28.69768 Y16.89862
G01 X28.83091 Y16.86491
G01 X28.82468 Y16.75193
G01 X28.82468 Y15.99578
G01 X28.79994 Y15.88371
G01 X28.69768 Y15.86387
G01 X25.45918 Y15.86387
G01 X25.35690 Y15.88371
G01 X25.33216 Y15.99578
G01 X25.33216 Y16.24394
G01 X25.31039 Y16.34914
G01 X25.20516 Y16.37093
G01 X24.06218 Y16.37093
G01 X23.95695 Y16.34914
G01 X23.93518 Y16.24394
G01 X23.93518 Y14.71994
G01 X23.95695 Y14.61470
G01 X24.06218 Y14.59293
G01 X25.20516 Y14.59293
G01 X25.31039 Y14.61470
G01 X25.33216 Y14.71994
G01 X25.33216 Y14.96809
G01 X25.35690 Y15.08013
G01 X25.45918 Y15.09997
G01 X29.19291 Y15.09799
G01 X29.23515 Y15.10093
G01 X30.47568 Y15.10093
G01 X30.58089 Y15.12270
G01 X30.60266 Y15.22794
G01 X30.60266 Y16.75193
G01 X30.59643 Y16.86491
G01 X30.47568 Y16.89113
G01 X28.95168 Y16.89113
G01 X28.83091 Y16.86491
G01 X28.95168 Y16.89113
G01 X30.47568 Y16.89113
G01 X30.59643 Y16.86491
G01 X30.72968 Y16.89862
G01 X33.38993 Y16.89859
G01 X33.45785 Y16.88341
G01 X33.51903 Y16.87467
G01 X33.58032 Y16.88343
G01 X33.66468 Y16.90362
G01 X33.73869 Y16.94909
G01 X33.79828 Y16.99448
G01 X34.44768 Y17.64378
G01 X34.50463 Y17.68721
G01 X34.55822 Y17.68188
G01 X34.68878 Y17.65943
G01 X34.79366 Y17.65117
G01 X34.89853 Y17.65945
G01 X35.02106 Y17.68051
G01 X35.07755 Y17.69953
G01 X35.23391 Y17.76705
G01 X35.34143 Y17.84695
G01 X35.39762 Y17.88061
G01 X35.50509 Y17.91759
G01 X35.56704 Y17.92945
G01 X35.61484 Y17.85252
G01 X35.65299 Y17.77060
G01 X35.66571 Y17.68869
G01 X35.66571 Y16.83116
G01 X35.65294 Y16.74909
G01 X35.61464 Y16.66700
G01 X35.56701 Y16.59047
G01 X35.58479 Y16.53718
G01 X35.63424 Y16.34546
G01 X35.66208 Y16.16004
G01 X35.67031 Y15.97660
G01 X35.65906 Y15.79115
G01 X35.62680 Y15.59946
G01 X35.59670 Y15.48717
G01 X35.54303 Y15.42067
G01 X35.40648 Y15.27980
G01 X35.26274 Y15.15862
G01 X35.05937 Y15.11706
G01 X34.87207 Y15.09898
G01 X34.68477 Y15.10058
G01 X34.49330 Y15.12255
G01 X34.33651 Y15.15590
G01 X34.22561 Y15.18948
G01 X34.14123 Y15.13695
G01 X34.05914 Y15.09865
G01 X33.97707 Y15.08587
G01 X32.88563 Y15.08587
G01 X32.81134 Y15.07581
G01 X32.72676 Y15.05557
G01 X32.65297 Y15.01028
G01 X32.59331 Y14.96487
G01 X30.07015 Y12.44168
G01 X30.01155 Y12.39728
G01 X29.81978 Y12.42731
G01 X29.71366 Y12.43569
G01 X29.60754 Y12.42733
G01 X29.48280 Y12.40587
G01 X29.45130 Y12.39609
G01 X29.27965 Y12.32388
G01 X29.25605 Y12.31026
G01 X29.10771 Y12.19772
G01 X29.08341 Y12.17524
G01 X29.00256 Y12.07800
G01 X28.94228 Y11.99025
G01 X28.89646 Y11.89418
G01 X28.85267 Y11.77554
G01 X28.84081 Y11.71674
G01 X28.82080 Y11.54491
G01 X28.84538 Y11.34654
G01 X28.85267 Y11.31430
G01 X28.89646 Y11.19563
G01 X28.94226 Y11.09960
G01 X28.98663 Y11.03318
G01 X29.03126 Y10.97730
G01 X29.08562 Y10.87222
G01 X29.11704 Y10.75380
G01 X29.25526 Y10.71118
G01 X29.41457 Y10.67732
G01 X29.63403 Y10.65400
G01 X29.79331 Y10.65400
G01 X29.98059 Y10.67222
G01 X30.17205 Y10.71118
G01 X30.31012 Y10.75375
G01 X30.39024 Y10.70389
G01 X30.47233 Y10.66559
G01 X30.55442 Y10.65281
G01 X32.62551 Y10.65281
G01 X32.69978 Y10.64275
G01 X32.78439 Y10.62248
G01 X32.85813 Y10.57725
G01 X32.91784 Y10.53178
G01 X33.40524 Y10.04448
G01 X33.44598 Y10.01111
G01 X33.49854 Y10.00587
G01 X33.97707 Y10.00587
G01 X34.05914 Y10.01865
G01 X34.14123 Y10.05695
G01 X34.22561 Y10.10948
G01 X34.21220 Y10.16371
G01 X34.18152 Y10.25324
G01 X34.13628 Y10.33097
G01 X34.07631 Y10.40524
G01 X34.03260 Y10.47064
G01 X33.99790 Y10.54103
G01 X33.94428 Y10.68230
G01 X33.93255 Y10.74057
G01 X33.91286 Y10.90994
G01 X33.93255 Y11.07925
G01 X33.94431 Y11.13757
G01 X33.98736 Y11.25433
G01 X34.03267 Y11.34943
G01 X34.09218 Y11.43602
G01 X34.17171 Y11.53163
G01 X34.21642 Y11.57105
G01 X34.35314 Y11.67272
G01 X34.50974 Y11.74034
G01 X34.56602 Y11.75929
G01 X34.68878 Y11.78039
G01 X34.79366 Y11.78867
G01 X34.89853 Y11.78039
G01 X35.02106 Y11.75931
G01 X35.07755 Y11.74031
G01 X35.23397 Y11.67277
G01 X35.39155 Y11.55377
G01 X35.41542 Y11.53170
G01 X35.51100 Y11.41458
G01 X35.55454 Y11.34943
G01 X35.58939 Y11.27877
G01 X35.64303 Y11.13749
G01 X35.65479 Y11.07928
G01 X35.67448 Y10.90994
G01 X35.65477 Y10.74057
G01 X35.64306 Y10.68235
G01 X35.58936 Y10.54105
G01 X35.55459 Y10.47059
G01 X35.51095 Y10.40526
G01 X35.41283 Y10.28507
G01 X35.37923 Y10.23729
G01 X35.34715 Y10.17613
G01 X35.31718 Y10.09500
G01 X35.29421 Y10.08756
G01 X35.05937 Y10.03706
G01 X34.90255 Y10.02058
G01 X34.71527 Y10.01898
G01 X34.49330 Y10.04255
G01 X34.33651 Y10.07590
G01 X34.22561 Y10.10948
G01 X34.33651 Y10.07590
G01 X34.49330 Y10.04255
G01 X34.71527 Y10.01898
G01 X34.90255 Y10.02058
G01 X35.05937 Y10.03706
G01 X35.25083 Y10.07590
G01 X35.31718 Y10.09500
G01 X35.45462 Y10.00608
G01 X35.51768 Y9.95464
G01 X35.59228 Y9.88489
G01 X36.48682 Y8.99023
G01 X36.60356 Y8.91995
G01 X36.62804 Y8.93186
G01 X36.69914 Y8.97989
G01 X36.75647 Y9.03102
G01 X36.89320 Y9.13272
G01 X37.04974 Y9.20034
G01 X37.10602 Y9.21929
G01 X37.22878 Y9.24039
G01 X37.33366 Y9.24867
G01 X37.43853 Y9.24039
G01 X37.56884 Y9.21799
G01 X37.62266 Y9.21266
G01 X37.67948 Y9.25601
G01 X39.34031 Y10.91687
G01 X39.39997 Y10.96228
G01 X39.47376 Y11.00757
G01 X39.55834 Y11.02782
G01 X39.63264 Y11.03787
G01 X42.92468 Y11.03787
G01 X42.99897 Y11.02782
G01 X43.08330 Y11.00762
G01 X43.22348 Y10.92058
G01 X43.29166 Y10.93955
G01 X43.38409 Y10.97290
G01 X43.53781 Y10.99932
G01 X43.66359 Y11.00897
G01 X43.76288 Y11.00247
G01 X43.94294 Y10.97293
G01 X44.00939 Y10.95080
G01 X44.19189 Y10.87237
G01 X44.21561 Y10.85868
G01 X44.39554 Y10.72266
G01 X44.42711 Y10.69350
G01 X44.52676 Y10.57359
G01 X44.59795 Y10.46942
G01 X44.65251 Y10.35566
G01 X44.70654 Y10.20933
G01 X44.72059 Y10.14092
G01 X44.74520 Y9.92998
G01 X44.72059 Y9.71903
G01 X44.70651 Y9.65043
G01 X44.65256 Y9.50425
G01 X44.59793 Y9.39035
G01 X44.52678 Y9.28634
G01 X44.42711 Y9.16645
G01 X44.37479 Y9.12002
G01 X44.20431 Y8.99320
G01 X43.98409 Y8.89980
G01 X43.94299 Y8.88705
G01 X43.78937 Y8.86064
G01 X43.66359 Y8.85099
G01 X43.53781 Y8.86064
G01 X43.38396 Y8.88708
G01 X43.31774 Y8.90910
G01 X43.12270 Y8.99325
G01 X42.95239 Y9.12002
G01 X42.90007 Y9.16645
G01 X42.80035 Y9.28632
G01 X42.72912 Y9.39041
G01 X42.67457 Y9.50422
G01 X42.62069 Y9.65035
G01 X42.61117 Y9.69244
G01 X42.58201 Y9.93005
G01 X42.59339 Y10.02972
G01 X42.58252 Y10.14344
G01 X42.56545 Y10.21738
G01 X42.50060 Y10.24682
G01 X42.38092 Y10.27397
G01 X41.40172 Y10.27397
G01 X41.28267 Y10.24710
G01 X41.16362 Y10.16648
G01 X41.04455 Y10.24710
G01 X40.92550 Y10.27397
G01 X39.83251 Y10.27397
G01 X39.78003 Y10.26874
G01 X39.73927 Y10.23536
G01 X38.21966 Y8.71583
G01 X38.17457 Y8.65604
G01 X38.19469 Y8.53925
G01 X38.21448 Y8.36986
G01 X38.19477 Y8.20057
G01 X38.18306 Y8.14238
G01 X38.13988 Y8.02551
G01 X38.09459 Y7.93059
G01 X38.03503 Y7.84390
G01 X37.95540 Y7.74812
G01 X37.91085 Y7.70885
G01 X37.77397 Y7.60707
G01 X37.61755 Y7.53953
G01 X37.56106 Y7.52051
G01 X37.43853 Y7.49945
G01 X37.33366 Y7.49117
G01 X37.22878 Y7.49945
G01 X37.10602 Y7.52053
G01 X37.04974 Y7.53948
G01 X36.89317 Y7.60710
G01 X36.75647 Y7.70882
G01 X36.71192 Y7.74812
G01 X36.63226 Y7.84388
G01 X36.53638 Y7.98548
G01 X36.42116 Y8.01827
G01 X36.36815 Y8.04974
G01 X36.30803 Y8.09285
G01 X36.28774 Y8.10910
G01 X36.00503 Y8.39180
G01 X35.93800 Y8.44080
G01 X35.85296 Y8.47174
G01 X35.76350 Y8.49259
G01 X35.71585 Y8.58713
G01 X35.63160 Y8.72460
G01 X35.49830 Y8.89889
G01 X35.37092 Y9.03107
G01 X35.25134 Y9.13323
G01 X35.14181 Y9.21040
G01 X35.05599 Y9.22696
G01 X34.89917 Y9.24344
G01 X34.68814 Y9.24344
G01 X34.50008 Y9.22198
G01 X34.34331 Y9.18865
G01 X34.19432 Y9.14250
G01 X34.11659 Y9.19089
G01 X34.03450 Y9.22919
G01 X33.95241 Y9.24197
G01 X33.29864 Y9.24197
G01 X33.22442 Y9.25200
G01 X33.15233 Y9.26879
G01 X33.13976 Y9.27227
G01 X33.08678 Y9.30366
G01 X33.00631 Y9.36297
G01 X32.51891 Y9.85030
G01 X32.47814 Y9.88367
G01 X32.42564 Y9.88891
G01 X30.72968 Y9.88891
G01 X30.60649 Y9.86015
G01 X30.60266 Y9.75703
G01 X30.60266 Y8.24293
G01 X30.58089 Y8.13770
G01 X30.47568 Y8.11594
G01 X28.95168 Y8.11594
G01 X28.84454 Y8.13852
G01 X28.80101 Y8.22173
G01 X28.69768 Y8.24197
G01 X25.45918 Y8.24197
G01 X25.35690 Y8.22213
G01 X25.33216 Y8.11009
G01 X25.33216 Y7.86194
G01 X25.31039 Y7.75670
G01 X25.20516 Y7.73491
G01 X24.06218 Y7.73491
G01 X23.95695 Y7.75670
G01 X23.93518 Y7.86194
G01 X23.93518 Y9.38593
G01 X23.95695 Y9.49114
G01 X24.06218 Y9.51293
G01 X25.20516 Y9.51293
G01 X25.31039 Y9.49114
G01 X25.33216 Y9.38593
G01 X25.33216 Y9.13778
G01 X25.35690 Y9.02571
G01 X25.45918 Y9.00587
G01 X28.69768 Y9.00587
G01 X28.79994 Y9.02571
G01 X28.82468 Y9.13778
G01 X28.82468 Y9.75703
G01 X28.82085 Y9.86015
G01 X28.95168 Y9.89386
G01 X30.47568 Y9.89386
G01 X30.60649 Y9.86015
G01 X30.47568 Y9.89386
G01 X28.95168 Y9.89386
G01 X28.82085 Y9.86015
G01 X28.69768 Y9.88891
G01 X27.57147 Y9.88891
G01 X27.47274 Y9.90382
G01 X27.41287 Y9.91913
G01 X27.33881 Y9.96462
G01 X27.27930 Y10.00999
G01 X26.54607 Y10.74334
G01 X26.50526 Y10.77676
G01 X26.45283 Y10.78197
G01 X25.45918 Y10.78197
G01 X25.35690 Y10.76213
G01 X25.33216 Y10.65009
G01 X25.33216 Y10.40193
G01 X25.31039 Y10.29670
G01 X25.20516 Y10.27493
G01 X24.06218 Y10.27493
G01 X23.95695 Y10.29670
G01 X23.93518 Y10.40193
G01 X23.93518 Y11.92594
G01 X23.95695 Y12.03114
G01 X24.06218 Y12.05291
G01 X25.20516 Y12.05291
G01 X25.31039 Y12.03114
G01 X25.33216 Y11.92594
G01 X25.33216 Y11.67778
G01 X25.35690 Y11.56571
G01 X25.45918 Y11.54587
G01 X26.65268 Y11.54587
G01 X26.72700 Y11.53582
G01 X26.81133 Y11.51562
G01 X26.88537 Y11.47018
G01 X26.94480 Y11.42492
G01 X27.67805 Y10.69147
G01 X27.71887 Y10.65802
G01 X27.77134 Y10.65281
G01 X28.87269 Y10.65281
G01 X28.95476 Y10.66559
G01 X29.03685 Y10.70389
G01 X29.11704 Y10.75380
G01 X29.25526 Y10.71118
G01 X29.44673 Y10.67222
G01 X29.63403 Y10.65400
G01 X29.82128 Y10.65548
G01 X30.01274 Y10.67732
G01 X30.17205 Y10.71118
G01 X30.31012 Y10.75375
G01 X30.34160 Y10.87232
G01 X30.39598 Y10.97735
G01 X30.44066 Y11.03320
G01 X30.48511 Y11.09967
G01 X30.53088 Y11.19563
G01 X30.57461 Y11.31425
G01 X30.58648 Y11.37308
G01 X30.60642 Y11.54493
G01 X30.58648 Y11.71674
G01 X30.56463 Y11.84031
G01 X30.61051 Y11.90158
G01 X32.99226 Y14.28333
G01 X33.03303 Y14.31674
G01 X33.08551 Y14.32197
G01 X33.95241 Y14.32197
G01 X34.03443 Y14.30922
G01 X34.11642 Y14.27099
G01 X34.19437 Y14.22253
G01 X34.16874 Y14.11811
G01 X34.11052 Y13.99809
G01 X34.07621 Y13.95463
G01 X34.03267 Y13.88943
G01 X33.98736 Y13.79433
G01 X33.94431 Y13.67757
G01 X33.93255 Y13.61925
G01 X33.91411 Y13.46352
G01 X33.91411 Y13.43632
G01 X33.93255 Y13.28057
G01 X33.94428 Y13.22230
G01 X33.98738 Y13.10549
G01 X34.03262 Y13.01062
G01 X34.09224 Y12.92385
G01 X34.17174 Y12.82817
G01 X34.21644 Y12.78877
G01 X34.35314 Y12.68712
G01 X34.53501 Y12.61019
G01 X34.56602 Y12.60053
G01 X34.68878 Y12.57945
G01 X34.79366 Y12.57117
G01 X34.89853 Y12.57945
G01 X35.02106 Y12.60051
G01 X35.07755 Y12.61953
G01 X35.23397 Y12.68707
G01 X35.39155 Y12.80605
G01 X35.41540 Y12.82812
G01 X35.49503 Y12.92390
G01 X35.55459 Y13.01062
G01 X35.59988 Y13.10551
G01 X35.64306 Y13.22238
G01 X35.65477 Y13.28057
G01 X35.67323 Y13.43630
G01 X35.67323 Y13.46352
G01 X35.65022 Y13.64579
G01 X35.64303 Y13.67749
G01 X35.59990 Y13.79431
G01 X35.55454 Y13.88943
G01 X35.51100 Y13.95458
G01 X35.45611 Y14.02276
G01 X35.40793 Y14.10851
G01 X35.36871 Y14.23038
G01 X35.24402 Y14.26865
G01 X35.05599 Y14.30696
G01 X34.89917 Y14.32344
G01 X34.71527 Y14.32486
G01 X34.50008 Y14.30198
G01 X34.34331 Y14.26865
G01 X34.19437 Y14.22253
G01 X34.34331 Y14.26865
G01 X34.50008 Y14.30198
G01 X34.71527 Y14.32486
G01 X34.89917 Y14.32344
G01 X35.05599 Y14.30696
G01 X35.24402 Y14.26865
G01 X35.36871 Y14.23038
G01 X35.46645 Y14.29720
G01 X35.51316 Y14.32268
G01 X35.60780 Y14.35844
G01 X35.67069 Y14.39756
G01 X35.73036 Y14.44297
G01 X36.30854 Y15.02115
G01 X36.35385 Y15.08061
G01 X36.39939 Y15.15476
G01 X36.42020 Y15.23891
G01 X36.44141 Y15.30030
G01 X36.47737 Y15.36471
G01 X36.52703 Y15.43655
G01 X36.47750 Y15.62928
G01 X36.45266 Y15.78607
G01 X36.44105 Y15.97495
G01 X36.45266 Y16.19374
G01 X36.48568 Y16.38892
G01 X36.53180 Y16.56019
G01 X36.48060 Y16.64254
G01 X36.44237 Y16.72453
G01 X36.42962 Y16.80654
G01 X36.42962 Y17.71333
G01 X36.44237 Y17.79532
G01 X36.48060 Y17.87731
G01 X36.53178 Y17.95965
G01 X36.58756 Y17.94731
G01 X36.73493 Y17.88531
G01 X36.88210 Y17.77495
G01 X36.90567 Y17.76136
G01 X37.04974 Y17.69948
G01 X37.10602 Y17.68053
G01 X37.25527 Y17.65630
G01 X37.33366 Y17.65117
G01 X37.41207 Y17.65630
G01 X37.56106 Y17.68051
G01 X37.61755 Y17.69953
G01 X37.77397 Y17.76707
G01 X37.91085 Y17.86885
G01 X37.95540 Y17.90812
G01 X38.05095 Y18.02526
G01 X38.09459 Y18.09062
G01 X38.12936 Y18.16108
G01 X38.18306 Y18.30238
G01 X38.19477 Y18.36057
G01 X38.21323 Y18.51630
G01 X38.21323 Y18.54355
G01 X38.19022 Y18.72579
G01 X38.18303 Y18.75747
G01 X38.12936 Y18.89874
G01 X38.09459 Y18.96923
G01 X38.03503 Y19.05592
G01 X37.95540 Y19.15173
G01 X37.93155 Y19.17377
G01 X37.78522 Y19.28482
G01 X37.76167 Y19.29844
G01 X37.61755 Y19.36031
G01 X37.56106 Y19.37931
G01 X37.43853 Y19.40039
G01 X37.33366 Y19.40867
G01 X37.22878 Y19.40039
G01 X37.10602 Y19.37929
G01 X37.04974 Y19.36034
G01 X36.89314 Y19.29272
G01 X36.73493 Y19.17451
G01 X36.58756 Y19.11251
G01 X36.53180 Y19.10019
G01 X36.52769 Y19.08574
G01 X36.48568 Y18.92892
G01 X36.45266 Y18.73374
G01 X36.44105 Y18.51495
G01 X36.45266 Y18.32607
G01 X36.47750 Y18.16928
G01 X36.53178 Y17.95965
G01 X36.48568 Y18.13090
G01 X36.45266 Y18.32607
G01 X36.44105 Y18.54490
G01 X36.45266 Y18.73374
G01 X36.47750 Y18.89054
G01 X36.53180 Y19.10019
G01 X36.48060 Y19.18254
G01 X36.44237 Y19.26453
G01 X36.42962 Y19.34652
G01 X36.42962 Y19.80291
G01 X36.41956 Y19.87723
G01 X36.39937 Y19.96156
G01 X36.35395 Y20.03552
G01 X36.30844 Y20.09529
G01 X35.67981 Y20.72394
G01 X35.63470 Y20.78383
G01 X35.65479 Y20.90057
G01 X35.67448 Y21.06991
G01 X35.65479 Y21.23928
G01 X35.64303 Y21.29749
G01 X35.59990 Y21.41431
G01 X35.55454 Y21.50943
G01 X35.51100 Y21.57458
G01 X35.41542 Y21.69170
G01 X35.37085 Y21.73100
G01 X35.23397 Y21.83277
G01 X35.07755 Y21.90031
G01 X35.02106 Y21.91931
G01 X34.89853 Y21.94039
G01 X34.79366 Y21.94867
G01 X34.68878 Y21.94039
G01 X34.56602 Y21.91929
G01 X34.50974 Y21.90034
G01 X34.35314 Y21.83272
G01 X34.19572 Y21.71382
G01 X34.17171 Y21.69163
G01 X34.09218 Y21.59602
G01 X34.03267 Y21.50943
G01 X33.98736 Y21.41433
G01 X33.94431 Y21.29757
G01 X33.93255 Y21.23925
G01 X33.91411 Y21.08352
G01 X33.91411 Y21.05632
G01 X33.93712 Y20.87402
G01 X33.94433 Y20.84217
G01 X33.96902 Y20.77504
G01 X33.98655 Y20.69447
G01 X33.97659 Y20.53572
G01 X33.96115 Y20.46450
G04 P0 ( dwell for no time -- G64 should not smooth over this point )
G00 Z10.00000 ( retract )

G00 X31.87266 Y22.57168 ( rapid move to begin. )
G01 F30.00000
( Mill infeed pass 1/1 )
G01 Z-0.10000
G04 P0 ( dwell for no time -- G64 should not smooth over this point )
G01 F360.00000
G01 X31.87266 Y22.57168
G01 X31.87268 Y22.31047
G01 X31.97758 Y22.32419
G01 X32.19399 Y22.41385
G01 X32.37967 Y22.55634
G01 X32.52216 Y22.74202
G01 X32.61182 Y22.95842
G01 X32.62554 Y23.06333
G01 X32.36732 Y23.06333
G01 X32.32577 Y22.93203
G01 X32.25940 Y22.81707
G01 X32.17057 Y22.71842
G01 X32.06318 Y22.64039
G01 X31.94190 Y22.58639
G01 X31.87266 Y22.57168
G04 P0 ( dwell for no time -- G64 should not smooth over this point )
G00 Z10.00000 ( retract )

G00 X31.87266 Y23.80894 ( rapid move to begin. )
G01 F30.00000
( Mill infeed pass 1/1 )
G01 Z-0.10000
G04 P0 ( dwell for no time -- G64 should not smooth over this point )
G01 F360.00000
G01 X31.87266 Y23.80894
G01 X31.87268 Y24.07044
G01 X31.97758 Y24.05647
G01 X32.19399 Y23.96681
G01 X32.37967 Y23.82456
G01 X32.52216 Y23.63864
G01 X32.61182 Y23.42248
G01 X32.62554 Y23.31733
G01 X32.36732 Y23.31730
G01 X32.32577 Y23.44859
G01 X32.25940 Y23.56355
G01 X32.17057 Y23.66221
G01 X32.06318 Y23.74024
G01 X31.94190 Y23.79424
G01 X31.87266 Y23.80894
G04 P0 ( dwell for no time -- G64 should not smooth over this point )
G00 Z10.00000 ( retract )

G00 X29.11704 Y24.72380 ( rapid move to begin. )
G01 F30.00000
( Mill infeed pass 1/1 )
G01 Z-0.10000
G04 P0 ( dwell for no time -- G64 should not smooth over this point )
G01 F360.00000
G01 X29.11704 Y24.72380
G01 X29.25526 Y24.68118
G01 X29.44673 Y24.64222
G01 X29.63403 Y24.62400
G01 X29.79331 Y24.62400
G01 X30.01274 Y24.64732
G01 X30.17205 Y24.68118
G01 X30.37225 Y24.74394
G01 X30.60296 Y24.84356
G01 X30.73786 Y25.01552
G01 X30.78437 Y25.08326
G01 X30.86997 Y25.22296
G01 X30.91627 Y25.30838
G01 X30.96212 Y25.40452
G01 X31.06227 Y25.44188
G01 X31.19829 Y25.48065
G01 X31.27898 Y25.49672
G01 X31.40466 Y25.51156
G01 X31.49168 Y25.51494
G01 X33.65866 Y25.51494
G01 X33.77372 Y25.39985
G01 X33.90867 Y25.29865
G01 X34.04362 Y25.26492
G01 X35.54374 Y25.26492
G01 X35.63404 Y25.28004
G01 X35.72434 Y25.32535
G01 X35.89183 Y25.29482
G01 X36.00813 Y25.36467
G01 X36.44748 Y25.80391
G01 X36.49261 Y25.86380
G01 X36.47252 Y25.98057
G01 X36.45286 Y26.14991
G01 X36.47255 Y26.31925
G01 X36.48431 Y26.37757
G01 X36.52736 Y26.49433
G01 X36.57265 Y26.58938
G01 X36.63224 Y26.67597
G01 X36.71189 Y26.77170
G01 X36.75647 Y26.81102
G01 X36.89320 Y26.91272
G01 X37.04974 Y26.98034
G01 X37.10602 Y26.99929
G01 X37.22878 Y27.02039
G01 X37.33366 Y27.02867
G01 X37.43853 Y27.02039
G01 X37.56106 Y26.99931
G01 X37.59230 Y26.98961
G01 X37.76167 Y26.91844
G01 X37.78522 Y26.90482
G01 X37.91085 Y26.81100
G01 X37.95542 Y26.77170
G01 X38.05100 Y26.65458
G01 X38.09454 Y26.58943
G01 X38.12939 Y26.51877
G01 X38.18303 Y26.37749
G01 X38.19479 Y26.31928
G01 X38.21323 Y26.16355
G01 X38.21567 Y26.08649
G01 X38.25105 Y26.04267
G01 X43.16268 Y21.13110
G01 X43.22432 Y21.08500
G01 X43.30517 Y21.10544
G01 X43.38401 Y21.13290
G01 X43.56430 Y21.16247
G01 X43.66359 Y21.16897
G01 X43.76288 Y21.16247
G01 X43.94294 Y21.13293
G01 X44.00939 Y21.11080
G01 X44.20436 Y21.02663
G01 X44.37479 Y20.89991
G01 X44.42711 Y20.85350
G01 X44.52676 Y20.73359
G01 X44.59795 Y20.62942
G01 X44.65251 Y20.51568
G01 X44.70654 Y20.36933
G01 X44.72059 Y20.30090
G01 X44.74520 Y20.08995
G01 X44.72059 Y19.87901
G01 X44.70651 Y19.81043
G01 X44.65256 Y19.66425
G01 X44.59793 Y19.55035
G01 X44.52678 Y19.44634
G01 X44.42711 Y19.32645
G01 X44.37479 Y19.28002
G01 X44.20431 Y19.15320
G01 X43.98409 Y19.05980
G01 X43.94299 Y19.04705
G01 X43.78937 Y19.02064
G01 X43.66359 Y19.01099
G01 X43.56428 Y19.01751
G01 X43.38396 Y19.04708
G01 X43.34309 Y19.05975
G01 X43.12270 Y19.15325
G01 X42.93161 Y19.29729
G01 X42.90007 Y19.32645
G01 X42.80035 Y19.44632
G01 X42.72912 Y19.55041
G01 X42.67457 Y19.66422
G01 X42.62069 Y19.81035
G01 X42.60659 Y19.87906
G01 X42.58201 Y20.08995
G01 X42.61119 Y20.32747
G01 X42.62067 Y20.36940
G01 X42.64960 Y20.44794
G01 X42.66621 Y20.53349
G01 X42.62250 Y20.59092
G01 X37.87244 Y25.34097
G01 X37.80429 Y25.39055
G01 X37.72959 Y25.36761
G01 X37.61755 Y25.31951
G01 X37.56106 Y25.30053
G01 X37.41207 Y25.27630
G01 X37.33366 Y25.27117
G01 X37.25527 Y25.27630
G01 X37.04463 Y25.30721
G01 X36.98768 Y25.26375
G01 X36.34283 Y24.61892
G01 X36.28329 Y24.57361
G01 X36.20933 Y24.52822
G01 X36.12490 Y24.50800
G01 X36.05068 Y24.49797
G01 X35.62248 Y24.49797
G01 X35.54039 Y24.48519
G01 X35.45830 Y24.44689
G01 X35.37727 Y24.39645
G01 X35.41154 Y24.27176
G01 X35.46381 Y24.17346
G01 X35.51098 Y24.11456
G01 X35.55459 Y24.04923
G01 X35.59988 Y23.95431
G01 X35.64303 Y23.83747
G01 X35.65479 Y23.77928
G01 X35.67448 Y23.60994
G01 X35.65022 Y23.41402
G01 X35.64306 Y23.38238
G01 X35.59988 Y23.26551
G01 X35.55459 Y23.17062
G01 X35.49503 Y23.08390
G01 X35.41540 Y22.98812
G01 X35.37085 Y22.94885
G01 X35.23397 Y22.84707
G01 X35.07755 Y22.77953
G01 X35.02106 Y22.76051
G01 X34.89853 Y22.73945
G01 X34.79366 Y22.73117
G01 X34.68878 Y22.73945
G01 X34.56602 Y22.76053
G01 X34.50974 Y22.77948
G01 X34.35314 Y22.84712
G01 X34.21644 Y22.94877
G01 X34.17174 Y22.98817
G01 X34.09224 Y23.08385
G01 X34.03262 Y23.17062
G01 X33.98738 Y23.26549
G01 X33.94428 Y23.38230
G01 X33.93255 Y23.44057
G01 X33.91286 Y23.60994
G01 X33.93712 Y23.80579
G01 X33.94431 Y23.83754
G01 X33.98738 Y23.95433
G01 X34.03262 Y24.04923
G01 X34.07626 Y24.11461
G01 X34.12333 Y24.17341
G01 X34.17567 Y24.27183
G01 X34.20989 Y24.39640
G01 X34.33991 Y24.43630
G01 X34.49668 Y24.46962
G01 X34.71527 Y24.49286
G01 X34.87207 Y24.49286
G01 X35.05769 Y24.47486
G01 X35.24743 Y24.43630
G01 X35.37727 Y24.39645
G01 X35.24743 Y24.43630
G01 X35.09061 Y24.46962
G01 X34.87207 Y24.49286
G01 X34.71527 Y24.49286
G01 X34.52962 Y24.47486
G01 X34.33991 Y24.43630
G01 X34.20989 Y24.39640
G01 X34.12879 Y24.44689
G01 X34.04669 Y24.48519
G01 X33.96460 Y24.49797
G01 X31.70453 Y24.49797
G01 X31.65203 Y24.49274
G01 X31.61127 Y24.45934
G01 X31.42331 Y24.27138
G01 X31.36844 Y24.19256
G01 X31.33753 Y24.08979
G01 X31.31955 Y23.98083
G01 X31.07207 Y23.77831
G01 X30.93248 Y23.67971
G01 X30.84281 Y23.62365
G01 X30.81571 Y23.47227
G01 X30.71393 Y23.36355
G01 X30.63049 Y23.24468
G01 X30.60266 Y23.12581
G01 X30.60266 Y22.21293
G01 X30.58089 Y22.10770
G01 X30.47568 Y22.08593
G01 X28.95168 Y22.08593
G01 X28.84645 Y22.10770
G01 X28.82468 Y22.21293
G01 X28.82468 Y22.46107
G01 X28.79994 Y22.57313
G01 X28.69768 Y22.59297
G01 X25.28164 Y22.59297
G01 X25.20742 Y22.60300
G01 X25.12278 Y22.62327
G01 X25.04900 Y22.66859
G01 X24.98689 Y22.71492
G01 X24.93162 Y22.72094
G01 X24.06218 Y22.72094
G01 X23.95695 Y22.74270
G01 X23.93518 Y22.84793
G01 X23.93518 Y24.37191
G01 X23.95695 Y24.47714
G01 X24.06218 Y24.49893
G01 X25.20516 Y24.49893
G01 X25.31039 Y24.47714
G01 X25.33216 Y24.37191
G01 X25.33216 Y23.51113
G01 X25.34003 Y23.44791
G01 X25.38819 Y23.39556
G01 X25.42901 Y23.36211
G01 X25.48151 Y23.35687
G01 X28.69768 Y23.35687
G01 X28.79994 Y23.37671
G01 X28.82468 Y23.48878
G01 X28.82468 Y23.72703
G01 X28.82085 Y23.83015
G01 X28.95168 Y23.86386
G01 X30.47568 Y23.86386
G01 X30.60261 Y23.83213
G01 X30.72955 Y23.73691
G01 X30.84281 Y23.62365
G01 X30.72955 Y23.73691
G01 X30.60261 Y23.83213
G01 X30.47568 Y23.86386
G01 X28.95168 Y23.86386
G01 X28.82085 Y23.83015
G01 X28.69768 Y23.85891
G01 X28.33347 Y23.85891
G01 X28.25923 Y23.86896
G01 X28.17490 Y23.88913
G01 X28.10086 Y23.93460
G01 X28.04130 Y23.97999
G01 X26.29207 Y25.72934
G01 X26.25126 Y25.76276
G01 X26.19883 Y25.76797
G01 X25.45918 Y25.76797
G01 X25.35690 Y25.74813
G01 X25.33216 Y25.63607
G01 X25.33216 Y25.38793
G01 X25.31039 Y25.28270
G01 X25.20516 Y25.26093
G01 X24.06218 Y25.26093
G01 X23.95695 Y25.28270
G01 X23.93518 Y25.38793
G01 X23.93518 Y26.91191
G01 X23.95695 Y27.01714
G01 X24.06218 Y27.03891
G01 X25.20516 Y27.03891
G01 X25.31039 Y27.01714
