( pcb2gcode 2.5.0 )
( Software-independent Gcode )

G94 ( Millimeters per minute feed rate. )
G21 ( Units == Millimeters. )

G90 ( Absolute coordinates. )
G00 S10000 ( RPM spindle speed. )
G01 F360.00000 ( Feedrate. )


G00 Z50.00000 (Retract to tool change height)
T0
M5      (Spindle stop.)
G04 P1.00000 (Wait for spindle to stop)
(MSG, Change tool bit to mill diameter 0.00000mm)
M6      (Tool change.)
M0      (Temporary machine stop.)
M3 ( Spindle on clockwise. )
G04 P1.00000 (Wait for spindle to get up to speed)
G04 P0 ( dwell for no time -- G64 should not smooth over this point )
G00 Z10.00000 ( retract )

G00 X0.75768 Y8.62393 ( rapid move to begin. )
G01 F30.00000
( Mill infeed pass 1/1 )
G01 Z-0.10000
G04 P0 ( dwell for no time -- G64 should not smooth over this point )
G01 F360.00000
G01 X0.75768 Y8.62393
G01 X0.75768 Y9.51293
G01 X1.01168 Y9.51293
G01 X1.01168 Y8.87794
G01 X1.64668 Y8.87794
G01 X1.64668 Y8.62393
G01 X0.75768 Y8.62393
G04 P0 ( dwell for no time -- G64 should not smooth over this point )
G00 Z10.00000 ( retract )

G00 X1.90068 Y8.62393 ( rapid move to begin. )
G01 F30.00000
( Mill infeed pass 1/1 )
G01 Z-0.10000
G04 P0 ( dwell for no time -- G64 should not smooth over this point )
G01 F360.00000
G01 X1.90068 Y8.62393
G01 X2.78968 Y8.62393
G01 X2.78968 Y9.51293
G01 X2.53568 Y9.51293
G01 X2.53568 Y8.87794
G01 X1.90068 Y8.87794
G01 X1.90068 Y8.62393
G04 P0 ( dwell for no time -- G64 should not smooth over this point )
G00 Z10.00000 ( retract )

G00 X0.75768 Y9.76694 ( rapid move to begin. )
G01 F30.00000
( Mill infeed pass 1/1 )
G01 Z-0.10000
G04 P0 ( dwell for no time -- G64 should not smooth over this point )
G01 F360.00000
G01 X0.75768 Y9.76694
G01 X1.01168 Y9.76694
G01 X1.01168 Y10.40193
G01 X1.64668 Y10.40193
G01 X1.64668 Y10.65593
G01 X0.75768 Y10.65593
G01 X0.75768 Y9.76694
G04 P0 ( dwell for no time -- G64 should not smooth over this point )
G00 Z10.00000 ( retract )

G00 X1.90068 Y10.40193 ( rapid move to begin. )
G01 F30.00000
( Mill infeed pass 1/1 )
G01 Z-0.10000
G04 P0 ( dwell for no time -- G64 should not smooth over this point )
G01 F360.00000
G01 X1.90068 Y10.40193
G01 X1.90068 Y10.65593
G01 X2.78968 Y10.65593
G01 X2.78968 Y9.76694
G01 X2.53568 Y9.76694
G01 X2.53568 Y10.40193
G01 X1.90068 Y10.40193
G04 P0 ( dwell for no time -- G64 should not smooth over this point )
G00 Z10.00000 ( retract )

G00 X4.18668 Y14.46593 ( rapid move to begin. )
G01 F30.00000
( Mill infeed pass 1/1 )
G01 Z-0.10000
G04 P0 ( dwell for no time -- G64 should not smooth over this point )
G01 F360.00000
G01 X4.18668 Y14.46593
G01 X4.88518 Y14.46593
G01 X4.88518 Y15.35493
G01 X4.63118 Y15.35493
G01 X4.63118 Y14.71994
G01 X4.18668 Y14.71994
G01 X4.18668 Y14.46593
G04 P0 ( dwell for no time -- G64 should not smooth over this point )
G00 Z10.00000 ( retract )

G00 X3.23418 Y14.46593 ( rapid move to begin. )
G01 F30.00000
( Mill infeed pass 1/1 )
G01 Z-0.10000
G04 P0 ( dwell for no time -- G64 should not smooth over this point )
G01 F360.00000
G01 X3.23418 Y14.46593
G01 X3.93268 Y14.46593
G01 X3.93268 Y14.71994
G01 X3.48818 Y14.71994
G01 X3.48818 Y15.35493
G01 X3.23418 Y15.35493
G01 X3.23418 Y14.46593
G04 P0 ( dwell for no time -- G64 should not smooth over this point )
G00 Z10.00000 ( retract )

G00 X3.23418 Y15.60893 ( rapid move to begin. )
G01 F30.00000
( Mill infeed pass 1/1 )
G01 Z-0.10000
G04 P0 ( dwell for no time -- G64 should not smooth over this point )
G01 F360.00000
G01 X3.23418 Y15.60893
G01 X3.48818 Y15.60893
G01 X3.48818 Y16.24394
G01 X3.93268 Y16.24394
G01 X3.93268 Y16.49793
G01 X3.23418 Y16.49793
G01 X3.23418 Y15.60893
G04 P0 ( dwell for no time -- G64 should not smooth over this point )
G00 Z10.00000 ( retract )

G00 X4.18668 Y16.24394 ( rapid move to begin. )
G01 F30.00000
( Mill infeed pass 1/1 )
G01 Z-0.10000
G04 P0 ( dwell for no time -- G64 should not smooth over this point )
G01 F360.00000
G01 X4.18668 Y16.24394
G01 X4.63118 Y16.24394
G01 X4.63118 Y15.60893
G01 X4.88518 Y15.60893
G01 X4.88518 Y16.49793
G01 X4.18668 Y16.49793
G01 X4.18668 Y16.24394
G04 P0 ( dwell for no time -- G64 should not smooth over this point )
G00 Z10.00000 ( retract )

G00 X3.23418 Y17.51393 ( rapid move to begin. )
G01 F30.00000
( Mill infeed pass 1/1 )
G01 Z-0.10000
G04 P0 ( dwell for no time -- G64 should not smooth over this point )
G01 F360.00000
G01 X3.23418 Y17.51393
G01 X3.23418 Y18.40293
G01 X3.48818 Y18.40293
G01 X3.48818 Y17.76793
G01 X3.93268 Y17.76793
G01 X3.93268 Y17.51393
G01 X3.23418 Y17.51393
G04 P0 ( dwell for no time -- G64 should not smooth over this point )
G00 Z10.00000 ( retract )

G00 X3.23418 Y18.65694 ( rapid move to begin. )
G01 F30.00000
( Mill infeed pass 1/1 )
G01 Z-0.10000
G04 P0 ( dwell for no time -- G64 should not smooth over this point )
G01 F360.00000
G01 X3.23418 Y18.65694
G01 X3.23418 Y19.54594
G01 X3.93268 Y19.54594
G01 X3.93268 Y19.29193
G01 X3.48818 Y19.29193
G01 X3.48818 Y18.65694
G01 X3.23418 Y18.65694
G04 P0 ( dwell for no time -- G64 should not smooth over this point )
G00 Z10.00000 ( retract )

G00 X0.39014 Y22.21293 ( rapid move to begin. )
G01 F30.00000
( Mill infeed pass 1/1 )
G01 Z-0.10000
G04 P0 ( dwell for no time -- G64 should not smooth over this point )
G01 F360.00000
G01 X0.39014 Y22.21293
G01 X0.40386 Y22.10778
G01 X0.49352 Y21.89163
G01 X0.63602 Y21.70595
G01 X0.82166 Y21.56346
G01 X1.03784 Y21.47379
G01 X1.14300 Y21.46008
G01 X1.14300 Y21.71807
G01 X1.02697 Y21.75327
G01 X0.91719 Y21.81195
G01 X0.82095 Y21.89091
G01 X0.74201 Y21.98713
G01 X0.68334 Y22.09691
G01 X0.64813 Y22.21293
G01 X0.39014 Y22.21293
G04 P0 ( dwell for no time -- G64 should not smooth over this point )
G00 Z10.00000 ( retract )

G00 X0.39014 Y22.46693 ( rapid move to begin. )
G01 F30.00000
( Mill infeed pass 1/1 )
G01 Z-0.10000
G04 P0 ( dwell for no time -- G64 should not smooth over this point )
G01 F360.00000
G01 X0.39014 Y22.46693
G01 X0.40386 Y22.57209
G01 X0.49352 Y22.78824
G01 X0.63602 Y22.97392
G01 X0.82166 Y23.11641
G01 X1.03784 Y23.20607
G01 X1.14300 Y23.21979
G01 X1.14300 Y22.96178
G01 X1.02697 Y22.92657
G01 X0.91719 Y22.86790
G01 X0.82095 Y22.78893
G01 X0.74201 Y22.69272
G01 X0.68334 Y22.58294
G01 X0.64813 Y22.46693
G01 X0.39014 Y22.46693
G04 P0 ( dwell for no time -- G64 should not smooth over this point )
G00 Z10.00000 ( retract )

G00 X1.39700 Y22.96178 ( rapid move to begin. )
G01 F30.00000
( Mill infeed pass 1/1 )
G01 Z-0.10000
G04 P0 ( dwell for no time -- G64 should not smooth over this point )
G01 F360.00000
G01 X1.39700 Y22.96178
G01 X1.39700 Y23.21979
G01 X1.50216 Y23.20607
G01 X1.71831 Y23.11641
G01 X1.90398 Y22.97392
G01 X2.04648 Y22.78824
G01 X2.13614 Y22.57209
G01 X2.14986 Y22.46693
G01 X1.89184 Y22.46693
G01 X1.85664 Y22.58294
G01 X1.79796 Y22.69272
G01 X1.71900 Y22.78893
G01 X1.62278 Y22.86790
G01 X1.51300 Y22.92657
G01 X1.39700 Y22.96178
G04 P0 ( dwell for no time -- G64 should not smooth over this point )
G00 Z10.00000 ( retract )

G00 X1.66014 Y24.75293 ( rapid move to begin. )
G01 F30.00000
( Mill infeed pass 1/1 )
G01 Z-0.10000
G04 P0 ( dwell for no time -- G64 should not smooth over this point )
G01 F360.00000
G01 X1.66014 Y24.75293
G01 X1.67386 Y24.64778
G01 X1.76352 Y24.43163
G01 X1.90602 Y24.24595
G01 X2.09169 Y24.10346
G01 X2.30784 Y24.01380
G01 X2.41300 Y24.00008
G01 X2.41300 Y24.25807
G01 X2.29697 Y24.29327
G01 X2.18719 Y24.35195
G01 X2.09098 Y24.43091
G01 X2.01201 Y24.52713
G01 X1.95334 Y24.63691
G01 X1.91813 Y24.75293
G01 X1.66014 Y24.75293
G04 P0 ( dwell for no time -- G64 should not smooth over this point )
G00 Z10.00000 ( retract )

G00 X1.66014 Y25.00693 ( rapid move to begin. )
G01 F30.00000
( Mill infeed pass 1/1 )
G01 Z-0.10000
G04 P0 ( dwell for no time -- G64 should not smooth over this point )
G01 F360.00000
G01 X1.66014 Y25.00693
G01 X1.67386 Y25.11209
G01 X1.76352 Y25.32824
G01 X1.90602 Y25.51392
G01 X2.09169 Y25.65641
G01 X2.30784 Y25.74607
G01 X2.41300 Y25.75979
G01 X2.41300 Y25.50178
G01 X2.29697 Y25.46657
G01 X2.18719 Y25.40790
G01 X2.09098 Y25.32893
G01 X2.01201 Y25.23272
G01 X1.95334 Y25.12294
G01 X1.91813 Y25.00693
G01 X1.66014 Y25.00693
G04 P0 ( dwell for no time -- G64 should not smooth over this point )
G00 Z10.00000 ( retract )

G00 X2.66700 Y25.50178 ( rapid move to begin. )
G01 F30.00000
( Mill infeed pass 1/1 )
G01 Z-0.10000
G04 P0 ( dwell for no time -- G64 should not smooth over this point )
G01 F360.00000
G01 X2.66700 Y25.50178
G01 X2.66700 Y25.75979
G01 X2.77216 Y25.74607
G01 X2.98831 Y25.65641
G01 X3.17398 Y25.51392
G01 X3.31640 Y25.32824
G01 X3.40614 Y25.11209
G01 X3.41986 Y25.00693
G01 X3.16184 Y25.00693
G01 X3.12664 Y25.12294
G01 X3.06796 Y25.23272
G01 X2.98900 Y25.32893
G01 X2.89278 Y25.40790
G01 X2.78300 Y25.46657
G01 X2.66700 Y25.50178
G04 P0 ( dwell for no time -- G64 should not smooth over this point )
G00 Z10.00000 ( retract )

G00 X2.66700 Y24.00008 ( rapid move to begin. )
G01 F30.00000
( Mill infeed pass 1/1 )
G01 Z-0.10000
G04 P0 ( dwell for no time -- G64 should not smooth over this point )
G01 F360.00000
G01 X2.66700 Y24.00008
G01 X2.77216 Y24.01380
G01 X2.98831 Y24.10346
G01 X3.17398 Y24.24595
G01 X3.31640 Y24.43163
G01 X3.40614 Y24.64778
G01 X3.41986 Y24.75293
G01 X3.16184 Y24.75293
G01 X3.12664 Y24.63691
G01 X3.06796 Y24.52713
G01 X2.98900 Y24.43091
G01 X2.89278 Y24.35195
G01 X2.78300 Y24.29327
G01 X2.66700 Y24.25807
G01 X2.66700 Y24.00008
G04 P0 ( dwell for no time -- G64 should not smooth over this point )
G00 Z10.00000 ( retract )

G00 X1.39700 Y21.46008 ( rapid move to begin. )
G01 F30.00000
( Mill infeed pass 1/1 )
G01 Z-0.10000
G04 P0 ( dwell for no time -- G64 should not smooth over this point )
G01 F360.00000
G01 X1.39700 Y21.46008
G01 X1.50216 Y21.47379
G01 X1.71831 Y21.56346
G01 X1.90398 Y21.70595
G01 X2.04648 Y21.89163
G01 X2.13614 Y22.10778
G01 X2.14986 Y22.21293
G01 X1.89184 Y22.21293
G01 X1.85664 Y22.09691
G01 X1.79796 Y21.98713
G01 X1.71900 Y21.89091
G01 X1.62278 Y21.81195
G01 X1.51300 Y21.75327
G01 X1.39700 Y21.71807
G01 X1.39700 Y21.46008
G04 P0 ( dwell for no time -- G64 should not smooth over this point )
G00 Z10.00000 ( retract )

G00 X4.18668 Y19.29193 ( rapid move to begin. )
G01 F30.00000
( Mill infeed pass 1/1 )
G01 Z-0.10000
G04 P0 ( dwell for no time -- G64 should not smooth over this point )
G01 F360.00000
G01 X4.18668 Y19.29193
G01 X4.63118 Y19.29193
G01 X4.63118 Y18.65694
G01 X4.88518 Y18.65694
G01 X4.88518 Y19.54594
G01 X4.18668 Y19.54594
G01 X4.18668 Y19.29193
G04 P0 ( dwell for no time -- G64 should not smooth over this point )
G00 Z10.00000 ( retract )

G00 X4.18668 Y17.51393 ( rapid move to begin. )
G01 F30.00000
( Mill infeed pass 1/1 )
G01 Z-0.10000
G04 P0 ( dwell for no time -- G64 should not smooth over this point )
G01 F360.00000
G01 X4.18668 Y17.51393
G01 X4.88518 Y17.51393
G01 X4.88518 Y18.40293
G01 X4.63118 Y18.40293
G01 X4.63118 Y17.76793
G01 X4.18668 Y17.76793
G01 X4.18668 Y17.51393
G04 P0 ( dwell for no time -- G64 should not smooth over this point )
G00 Z10.00000 ( retract )

G00 X5.21157 Y18.49133 ( rapid move to begin. )
G01 F30.00000
( Mill infeed pass 1/1 )
G01 Z-0.10000
G04 P0 ( dwell for no time -- G64 should not smooth over this point )
G01 F360.00000
G01 X5.21157 Y18.49133
G01 X5.22554 Y18.38642
G01 X5.31495 Y18.17002
G01 X5.45744 Y17.98434
G01 X5.64337 Y17.84185
G01 X5.85953 Y17.75219
G01 X5.96468 Y17.73847
G01 X5.96468 Y17.99646
G01 X5.84865 Y18.03166
G01 X5.73888 Y18.09034
G01 X5.64266 Y18.16931
G01 X5.56369 Y18.26552
G01 X5.50502 Y18.37530
G01 X5.46981 Y18.49133
G01 X5.21157 Y18.49133
G04 P0 ( dwell for no time -- G64 should not smooth over this point )
G00 Z10.00000 ( retract )

G00 X5.21157 Y18.74533 ( rapid move to begin. )
G01 F30.00000
( Mill infeed pass 1/1 )
G01 Z-0.10000
G04 P0 ( dwell for no time -- G64 should not smooth over this point )
G01 F360.00000
G01 X5.21157 Y18.74533
G01 X5.22554 Y18.85048
G01 X5.31495 Y19.06664
G01 X5.45744 Y19.25231
G01 X5.64337 Y19.39506
G01 X5.85953 Y19.48447
G01 X5.96468 Y19.49844
G01 X5.96468 Y19.24017
G01 X5.84865 Y19.20497
G01 X5.73888 Y19.14629
G01 X5.64266 Y19.06732
G01 X5.56369 Y18.97111
G01 X5.50502 Y18.86133
G01 X5.46981 Y18.74533
G01 X5.21157 Y18.74533
G04 P0 ( dwell for no time -- G64 should not smooth over this point )
G00 Z10.00000 ( retract )

G00 X6.21868 Y19.24017 ( rapid move to begin. )
G01 F30.00000
( Mill infeed pass 1/1 )
G01 Z-0.10000
G04 P0 ( dwell for no time -- G64 should not smooth over this point )
G01 F360.00000
G01 X6.21868 Y19.24017
G01 X6.21868 Y19.49844
G01 X6.32358 Y19.48447
G01 X6.53999 Y19.39506
G01 X6.72567 Y19.25231
G01 X6.86816 Y19.06664
G01 X6.95782 Y18.85048
G01 X6.97154 Y18.74533
G01 X6.71352 Y18.74533
G01 X6.67832 Y18.86133
G01 X6.61965 Y18.97111
G01 X6.54068 Y19.06732
G01 X6.44444 Y19.14629
G01 X6.33468 Y19.20497
G01 X6.21868 Y19.24017
G04 P0 ( dwell for no time -- G64 should not smooth over this point )
G00 Z10.00000 ( retract )

G00 X6.21868 Y17.73847 ( rapid move to begin. )
G01 F30.00000
( Mill infeed pass 1/1 )
G01 Z-0.10000
G04 P0 ( dwell for no time -- G64 should not smooth over this point )
G01 F360.00000
G01 X6.21868 Y17.73847
G01 X6.32358 Y17.75219
G01 X6.53999 Y17.84185
G01 X6.72567 Y17.98434
G01 X6.86816 Y18.17002
G01 X6.95782 Y18.38642
G01 X6.97154 Y18.49133
G01 X6.71352 Y18.49133
G01 X6.67832 Y18.37530
G01 X6.61965 Y18.26552
G01 X6.54068 Y18.16931
G01 X6.44444 Y18.09034
G01 X6.33468 Y18.03166
G01 X6.21868 Y17.99646
G01 X6.21868 Y17.73847
G04 P0 ( dwell for no time -- G64 should not smooth over this point )
G00 Z10.00000 ( retract )

G00 X6.21868 Y16.19217 ( rapid move to begin. )
G01 F30.00000
( Mill infeed pass 1/1 )
G01 Z-0.10000
G04 P0 ( dwell for no time -- G64 should not smooth over this point )
G01 F360.00000
G01 X6.21868 Y16.19217
G01 X6.33468 Y16.15697
G01 X6.44444 Y16.09829
G01 X6.54068 Y16.01932
G01 X6.61965 Y15.92311
G01 X6.67832 Y15.81333
G01 X6.71352 Y15.69733
G01 X6.97154 Y15.69733
G01 X6.95782 Y15.80248
G01 X6.86816 Y16.01864
G01 X6.72567 Y16.20431
G01 X6.53999 Y16.34706
G01 X6.32358 Y16.43647
G01 X6.21868 Y16.45044
G01 X6.21868 Y16.19217
G04 P0 ( dwell for no time -- G64 should not smooth over this point )
G00 Z10.00000 ( retract )

G00 X5.21157 Y15.69733 ( rapid move to begin. )
G01 F30.00000
( Mill infeed pass 1/1 )
G01 Z-0.10000
G04 P0 ( dwell for no time -- G64 should not smooth over this point )
G01 F360.00000
G01 X5.21157 Y15.69733
G01 X5.46981 Y15.69733
G01 X5.50502 Y15.81333
G01 X5.56369 Y15.92311
G01 X5.64266 Y16.01932
G01 X5.73888 Y16.09829
G01 X5.84865 Y16.15697
G01 X5.96468 Y16.19217
G01 X5.96468 Y16.45044
G01 X5.85953 Y16.43647
G01 X5.64337 Y16.34706
G01 X5.45744 Y16.20431
G01 X5.31495 Y16.01864
G01 X5.22554 Y15.80248
G01 X5.21157 Y15.69733
G04 P0 ( dwell for no time -- G64 should not smooth over this point )
G00 Z10.00000 ( retract )

G00 X5.21157 Y15.44333 ( rapid move to begin. )
G01 F30.00000
( Mill infeed pass 1/1 )
G01 Z-0.10000
G04 P0 ( dwell for no time -- G64 should not smooth over this point )
G01 F360.00000
G01 X5.21157 Y15.44333
G01 X5.46981 Y15.44333
G01 X5.50502 Y15.32730
G01 X5.56369 Y15.21752
G01 X5.64266 Y15.12131
G01 X5.73888 Y15.04234
G01 X5.84865 Y14.98366
G01 X5.96468 Y14.94846
G01 X5.96468 Y14.69047
G01 X5.85953 Y14.70419
G01 X5.64337 Y14.79385
G01 X5.45744 Y14.93634
G01 X5.31495 Y15.12202
G01 X5.22554 Y15.33843
G01 X5.21157 Y15.44333
G04 P0 ( dwell for no time -- G64 should not smooth over this point )
G00 Z10.00000 ( retract )

G00 X6.21868 Y14.69047 ( rapid move to begin. )
G01 F30.00000
( Mill infeed pass 1/1 )
G01 Z-0.10000
G04 P0 ( dwell for no time -- G64 should not smooth over this point )
G01 F360.00000
G01 X6.21868 Y14.69047
G01 X6.32358 Y14.70419
G01 X6.53999 Y14.79385
G01 X6.72567 Y14.93634
G01 X6.86816 Y15.12202
G01 X6.95782 Y15.33843
G01 X6.97154 Y15.44333
G01 X6.71352 Y15.44333
G01 X6.67832 Y15.32730
G01 X6.61965 Y15.21752
G01 X6.54068 Y15.12131
G01 X6.44444 Y15.04234
G01 X6.33468 Y14.98366
G01 X6.21868 Y14.94846
G01 X6.21868 Y14.69047
G04 P0 ( dwell for no time -- G64 should not smooth over this point )
G00 Z10.00000 ( retract )

G00 X6.11939 Y12.93259 ( rapid move to begin. )
G01 F30.00000
( Mill infeed pass 1/1 )
G01 Z-0.10000
G04 P0 ( dwell for no time -- G64 should not smooth over this point )
G01 F360.00000
G01 X6.11939 Y12.93259
G01 X6.14545 Y12.92906
G01 X6.33362 Y12.93129
G01 X6.42021 Y12.95756
G01 X6.52506 Y13.00579
G01 X6.62282 Y13.04074
G01 X6.69247 Y13.05453
G01 X6.85366 Y13.07280
G01 X7.03966 Y13.05042
G01 X7.08424 Y13.04077
G01 X7.18221 Y13.00574
G01 X7.29925 Y12.95174
G01 X7.35813 Y12.91232
G01 X7.47517 Y12.81948
G01 X7.58607 Y12.68438
G01 X7.62549 Y12.62550
G01 X7.67949 Y12.50846
G01 X7.71451 Y12.41057
G01 X7.72823 Y12.34110
G01 X7.74642 Y12.17991
G01 X7.72414 Y11.99391
G01 X7.71451 Y11.94928
G01 X7.67946 Y11.85136
G01 X7.62549 Y11.73434
G01 X7.58607 Y11.67544
G01 X7.48500 Y11.54859
G01 X7.35813 Y11.44750
G01 X7.29925 Y11.40811
G01 X7.18221 Y11.35410
G01 X7.08431 Y11.31908
G01 X7.01482 Y11.30534
G01 X6.86643 Y11.28832
G01 X6.84091 Y11.28832
G01 X6.66765 Y11.30943
G01 X6.62277 Y11.31910
G01 X6.52506 Y11.35405
G01 X6.40791 Y11.40813
G01 X6.34919 Y11.44748
G01 X6.28617 Y11.49751
G01 X6.22635 Y11.53328
G01 X6.12150 Y11.56975
G01 X6.06212 Y11.58260
G01 X6.01264 Y11.50310
G01 X5.97433 Y11.42101
G01 X5.96156 Y11.33892
G01 X5.96156 Y10.92698
G01 X5.95150 Y10.85266
G01 X5.93131 Y10.76836
G01 X5.88589 Y10.69434
G01 X5.84037 Y10.63460
G01 X5.20847 Y10.00267
G01 X5.16319 Y9.94247
G01 X5.16938 Y9.89145
G01 X5.18782 Y9.80107
G01 X5.20642 Y9.63963
G01 X5.18823 Y9.47872
G01 X5.17451 Y9.40928
G01 X5.12994 Y9.28830
G01 X5.08549 Y9.19434
G01 X5.04607 Y9.13544
G01 X4.95320 Y9.01842
G01 X4.81813 Y8.90750
G01 X4.75925 Y8.86811
G01 X4.64221 Y8.81410
G01 X4.54426 Y8.77905
G01 X4.47484 Y8.76531
G01 X4.31366 Y8.74705
G01 X4.12765 Y8.76940
G01 X4.08282 Y8.77910
G01 X3.98508 Y8.81405
G01 X3.86791 Y8.86813
G01 X3.80916 Y8.90748
G01 X3.68234 Y9.00854
G01 X3.58125 Y9.13547
G01 X3.54183 Y9.19434
G01 X3.49740 Y9.28832
G01 X3.45280 Y9.40933
G01 X3.43906 Y9.47875
G01 X3.42080 Y9.63991
G01 X3.44317 Y9.82591
G01 X3.45280 Y9.87052
G01 X3.48785 Y9.96846
G01 X3.54185 Y10.08550
G01 X3.58125 Y10.14438
G01 X3.68236 Y10.27130
G01 X3.82963 Y10.38703
G01 X3.86791 Y10.41171
G01 X3.96202 Y10.45621
G01 X4.08285 Y10.50074
G01 X4.15247 Y10.51453
G01 X4.31368 Y10.53280
G01 X4.47487 Y10.51456
G01 X4.60383 Y10.49294
G01 X4.66321 Y10.53777
G01 X5.15902 Y11.03358
G01 X5.19242 Y11.07435
G01 X5.19765 Y11.12685
G01 X5.19765 Y11.33284
G01 X5.18488 Y11.41491
G01 X5.14657 Y11.49701
G01 X5.09796 Y11.57511
G01 X5.12641 Y11.66081
G01 X5.16382 Y11.81019
G01 X5.19232 Y11.99142
G01 X5.20230 Y12.16744
G01 X5.19232 Y12.36840
G01 X5.16382 Y12.54963
G01 X5.12641 Y12.69901
G01 X5.09793 Y12.78471
G01 X5.12641 Y12.69901
G01 X5.17017 Y12.51778
G01 X5.19496 Y12.34176
G01 X5.20230 Y12.19241
G01 X5.19496 Y12.01806
G01 X5.17017 Y11.84204
G01 X5.12641 Y11.66081
G01 X5.09796 Y11.57511
G01 X5.03685 Y11.56190
G01 X4.94279 Y11.53104
G01 X4.87319 Y11.49126
G01 X4.81810 Y11.44753
G01 X4.75922 Y11.40808
G01 X4.64221 Y11.35410
G01 X4.54431 Y11.31908
G01 X4.49966 Y11.30945
G01 X4.32643 Y11.28832
G01 X4.30091 Y11.28832
G01 X4.15249 Y11.30534
G01 X4.08277 Y11.31910
G01 X3.98508 Y11.35405
G01 X3.86791 Y11.40813
G01 X3.80916 Y11.44748
G01 X3.68234 Y11.54854
G01 X3.56659 Y11.69591
G01 X3.54183 Y11.73434
G01 X3.49740 Y11.82832
G01 X3.45280 Y11.94933
G01 X3.43906 Y12.01875
G01 X3.42080 Y12.17991
G01 X3.43906 Y12.34110
G01 X3.45280 Y12.41052
G01 X3.49740 Y12.53150
G01 X3.54185 Y12.62550
G01 X3.56659 Y12.66391
G01 X3.67411 Y12.80140
G01 X3.69214 Y12.81948
G01 X3.80916 Y12.91237
G01 X3.86791 Y12.95171
G01 X3.98508 Y13.00577
G01 X4.08285 Y13.04074
G01 X4.15247 Y13.05453
G01 X4.31366 Y13.07280
G01 X4.47484 Y13.05453
G01 X4.54424 Y13.04077
G01 X4.64221 Y13.00574
G01 X4.75920 Y12.95176
G01 X4.81810 Y12.91232
G01 X4.87319 Y12.86858
G01 X4.94281 Y12.82878
G01 X5.03685 Y12.79794
G01 X5.09793 Y12.78471
G01 X5.14657 Y12.86284
G01 X5.18488 Y12.94493
G01 X5.19765 Y13.02702
G01 X5.19765 Y13.17887
G01 X5.20769 Y13.25308
G01 X5.22793 Y13.33757
G01 X5.27327 Y13.41150
G01 X5.31871 Y13.47122
G01 X6.06631 Y14.21887
G01 X6.12597 Y14.26428
G01 X6.18879 Y14.30335
G01 X6.19976 Y14.30957
G01 X6.25996 Y14.32496
G01 X6.35864 Y14.33987
G01 X11.46122 Y14.33987
G01 X11.52159 Y14.34678
G01 X11.64636 Y14.49893
G01 X11.75385 Y14.58460
G01 X11.80569 Y14.61948
G01 X11.90767 Y14.66639
G01 X11.98989 Y14.69583
G01 X12.05123 Y14.70782
G01 X12.18766 Y14.72316
G01 X12.34887 Y14.70370
G01 X12.38522 Y14.69586
G01 X12.46764 Y14.66637
G01 X12.56962 Y14.61948
G01 X12.62146 Y14.58458
G01 X12.71895 Y14.50718
G01 X12.81433 Y14.39172
G01 X12.84920 Y14.33985
G01 X12.89614 Y14.23789
G01 X12.92558 Y14.15570
G01 X12.93348 Y14.11912
G01 X12.95291 Y13.95791
G01 X12.93754 Y13.82149
G01 X12.92558 Y13.76012
G01 X12.89614 Y13.67790
G01 X12.84920 Y13.57600
G01 X12.81433 Y13.52413
G01 X12.73691 Y13.42662
G01 X12.71895 Y13.40863
G01 X12.60102 Y13.31661
G01 X12.56962 Y13.29634
G01 X12.49068 Y13.25900
G01 X12.38524 Y13.21996
G01 X12.32405 Y13.20803
G01 X12.18766 Y13.19268
G01 X12.05126 Y13.20803
G01 X11.98989 Y13.22001
G01 X11.90767 Y13.24945
G01 X11.80569 Y13.29634
G01 X11.75385 Y13.33122
G01 X11.64636 Y13.41692
G01 X11.52157 Y13.56906
G01 X11.46122 Y13.57597
G01 X6.55853 Y13.57597
G01 X6.50603 Y13.57071
G01 X6.46527 Y13.53734
G01 X6.20593 Y13.27800
G01 X6.14502 Y13.18565
G01 X6.11563 Y13.06177
G01 X6.10697 Y12.97341
G01 X6.11939 Y12.93259
G01 X6.04985 Y12.74295
G01 X5.99971 Y12.55166
G01 X5.96831 Y12.34214
G01 X5.96097 Y12.19279
G01 X5.96831 Y12.01768
G01 X5.99971 Y11.80816
G01 X6.03712 Y11.65878
G01 X6.06212 Y11.58260
G04 P0 ( dwell for no time -- G64 should not smooth over this point )
G00 Z10.00000 ( retract )

G00 X5.96080 Y9.63991 ( rapid move to begin. )
G01 F30.00000
( Mill infeed pass 1/1 )
G01 Z-0.10000
G04 P0 ( dwell for no time -- G64 should not smooth over this point )
G01 F360.00000
G01 X5.96080 Y9.63991
G01 X5.98317 Y9.82591
G01 X5.99280 Y9.87052
G01 X6.02785 Y9.96846
G01 X6.08185 Y10.08550
G01 X6.12125 Y10.14438
G01 X6.22236 Y10.27130
G01 X6.34916 Y10.37237
G01 X6.40791 Y10.41171
G01 X6.52506 Y10.46577
G01 X6.62282 Y10.50074
G01 X6.66765 Y10.51042
G01 X6.85366 Y10.53280
G01 X7.01484 Y10.51453
G01 X7.08424 Y10.50077
G01 X7.20527 Y10.45619
G01 X7.29925 Y10.41174
G01 X7.33765 Y10.38697
G01 X7.48500 Y10.27125
G01 X7.58607 Y10.14438
G01 X7.62549 Y10.08550
G01 X7.67949 Y9.96846
G01 X7.71451 Y9.87057
G01 X7.72414 Y9.82591
G01 X7.74642 Y9.63991
G01 X7.72823 Y9.47872
G01 X7.71451 Y9.40928
G01 X7.66994 Y9.28830
G01 X7.62549 Y9.19434
G01 X7.60072 Y9.15591
G01 X7.48500 Y9.00859
G01 X7.35813 Y8.90750
G01 X7.29925 Y8.86811
G01 X7.18221 Y8.81410
G01 X7.08426 Y8.77905
G01 X7.03966 Y8.76943
G01 X6.85366 Y8.74705
G01 X6.66765 Y8.76940
G01 X6.62282 Y8.77910
G01 X6.52506 Y8.81405
G01 X6.40791 Y8.86813
G01 X6.34916 Y8.90748
G01 X6.22234 Y9.00854
G01 X6.12125 Y9.13547
G01 X6.08183 Y9.19434
G01 X6.02785 Y9.31136
G01 X5.99280 Y9.40933
G01 X5.98317 Y9.45391
G01 X5.96080 Y9.63991
G04 P0 ( dwell for no time -- G64 should not smooth over this point )
G00 Z10.00000 ( retract )

G00 X8.50080 Y12.17991 ( rapid move to begin. )
G01 F30.00000
( Mill infeed pass 1/1 )
G01 Z-0.10000
G04 P0 ( dwell for no time -- G64 should not smooth over this point )
G01 F360.00000
G01 X8.50080 Y12.17991
G01 X8.52317 Y11.99391
G01 X8.53280 Y11.94933
G01 X8.56785 Y11.85136
G01 X8.62183 Y11.73434
G01 X8.66125 Y11.67547
G01 X8.76234 Y11.54854
G01 X8.88916 Y11.44748
G01 X8.94791 Y11.40813
G01 X9.06508 Y11.35405
G01 X9.16277 Y11.31910
G01 X9.20765 Y11.30943
G01 X9.39366 Y11.28718
G01 X9.57966 Y11.30945
G01 X9.62431 Y11.31908
G01 X9.72221 Y11.35410
G01 X9.83925 Y11.40811
G01 X9.89813 Y11.44750
G01 X10.02500 Y11.54859
G01 X10.14072 Y11.69591
G01 X10.16549 Y11.73434
G01 X10.20994 Y11.82830
G01 X10.25451 Y11.94928
G01 X10.26823 Y12.01872
G01 X10.28642 Y12.17991
G01 X10.26414 Y12.36591
G01 X10.25451 Y12.41057
G01 X10.21949 Y12.50846
G01 X10.16549 Y12.62550
G01 X10.12607 Y12.68438
G01 X10.02500 Y12.81125
G01 X9.87765 Y12.92697
G01 X9.83925 Y12.95174
G01 X9.74527 Y12.99619
G01 X9.62424 Y13.04077
G01 X9.55484 Y13.05453
G01 X9.39366 Y13.07280
G01 X9.23247 Y13.05453
G01 X9.16285 Y13.04074
G01 X9.04202 Y12.99621
G01 X8.94791 Y12.95171
G01 X8.90963 Y12.92703
G01 X8.76236 Y12.81130
G01 X8.66125 Y12.68438
G01 X8.62185 Y12.62550
G01 X8.56785 Y12.50846
G01 X8.53280 Y12.41052
G01 X8.52317 Y12.36591
G01 X8.50080 Y12.17991
G04 P0 ( dwell for no time -- G64 should not smooth over this point )
G00 Z10.00000 ( retract )

G00 X8.50080 Y9.63991 ( rapid move to begin. )
G01 F30.00000
( Mill infeed pass 1/1 )
G01 Z-0.10000
G04 P0 ( dwell for no time -- G64 should not smooth over this point )
G01 F360.00000
G01 X8.50080 Y9.63991
G01 X8.52317 Y9.45391
G01 X8.53280 Y9.40933
G01 X8.56785 Y9.31136
G01 X8.62183 Y9.19434
G01 X8.66125 Y9.13547
G01 X8.76234 Y9.00854
G01 X8.88916 Y8.90748
G01 X8.94791 Y8.86813
G01 X9.06508 Y8.81405
G01 X9.16282 Y8.77910
G01 X9.20765 Y8.76940
G01 X9.39366 Y8.74705
G01 X9.57966 Y8.76943
G01 X9.62426 Y8.77905
G01 X9.72221 Y8.81410
G01 X9.83925 Y8.86811
G01 X9.89813 Y8.90750
G01 X10.02500 Y9.00859
G01 X10.14072 Y9.15591
G01 X10.16549 Y9.19434
G01 X10.20994 Y9.28830
G01 X10.25451 Y9.40928
G01 X10.26823 Y9.47872
G01 X10.28642 Y9.63991
G01 X10.26414 Y9.82591
G01 X10.25451 Y9.87057
G01 X10.21949 Y9.96846
G01 X10.16549 Y10.08550
G01 X10.12607 Y10.14438
G01 X10.02500 Y10.27125
G01 X9.87765 Y10.38697
G01 X9.83925 Y10.41174
G01 X9.74527 Y10.45619
G01 X9.62424 Y10.50077
G01 X9.55484 Y10.51453
G01 X9.39366 Y10.53280
G01 X9.23247 Y10.51453
G01 X9.16285 Y10.50074
G01 X9.04202 Y10.45621
G01 X8.94791 Y10.41171
G01 X8.90963 Y10.38703
G01 X8.76236 Y10.27130
G01 X8.66125 Y10.14438
G01 X8.62185 Y10.08550
G01 X8.56785 Y9.96846
G01 X8.53280 Y9.87052
G01 X8.52317 Y9.82591
G01 X8.50080 Y9.63991
G04 P0 ( dwell for no time -- G64 should not smooth over this point )
G00 Z10.00000 ( retract )

G00 X6.35030 Y3.49987 ( rapid move to begin. )
G01 F30.00000
( Mill infeed pass 1/1 )
G01 Z-0.10000
G04 P0 ( dwell for no time -- G64 should not smooth over this point )
G01 F360.00000
G01 X6.35030 Y3.49987
G01 X10.41923 Y3.49966
G01 X10.55439 Y3.49080
G01 X10.73297 Y3.47007
G01 X10.96970 Y3.36735
G01 X11.19962 Y3.36682
G01 X11.29899 Y3.36271
G01 X11.40160 Y3.30586
G01 X11.29899 Y3.36271
G01 X11.53284 Y3.83273
G01 X11.53284 Y3.90243
G01 X11.51989 Y4.03301
G01 X11.50628 Y4.08048
G01 X11.47630 Y4.15641
G01 X11.46937 Y4.18760
G01 X11.46523 Y4.23347
G01 X11.46586 Y4.51924
G01 X11.46226 Y4.54922
G01 X11.44788 Y4.60002
G01 X11.41862 Y4.67771
G01 X11.40653 Y4.73850
G01 X11.40158 Y4.78871
G01 X11.39563 Y5.90837
G01 X11.19962 Y5.91650
G01 X10.93292 Y5.91650
G01 X10.79383 Y5.91241
G01 X10.50346 Y4.89654
G01 X10.47763 Y4.78150
G01 X10.46678 Y4.65259
G01 X10.46833 Y4.56776
G01 X10.47542 Y4.56154
G01 X10.55340 Y4.39019
G01 X10.67422 Y4.15303
G01 X10.70574 Y4.08046
G01 X10.71621 Y4.04523
G01 X10.72533 Y3.99920
G01 X10.73165 Y3.92897
G01 X10.73297 Y3.47007
G01 X10.96970 Y3.36735
G01 X10.93290 Y3.27970
G01 X10.86226 Y3.08813
G01 X10.75362 Y2.76563
G01 X10.68494 Y2.59979
G01 X10.66988 Y2.54541
G01 X10.66414 Y2.46657
G01 X10.65637 Y2.42750
G01 X10.60653 Y2.29997
G01 X10.63412 Y2.23330
G01 X10.70138 Y2.09326
G01 X10.72535 Y1.99906
G01 X10.73165 Y1.92883
G01 X10.73386 Y1.83761
G01 X10.73305 Y1.46990
G01 X10.97773 Y1.36345
G01 X10.93719 Y1.23360
G01 X10.76444 Y0.89756
G01 X10.68550 Y0.73292
G01 X10.66818 Y0.66281
G01 X10.66716 Y0.49977
G01 X10.66287 Y0.45400
G01 X10.64392 Y0.38872
G01 X10.55238 Y0.17302
G01 X10.51131 Y0.10061
G01 X10.44423 Y0.00000
G01 X11.19960 Y0.00000
G01 X11.19962 Y0.09995
G01 X11.20638 Y0.19827
G01 X11.23165 Y0.24130
G01 X11.40043 Y0.36868
G01 X11.39949 Y1.36655
G01 X11.53287 Y1.40274
G01 X11.53264 Y1.93317
G01 X11.52893 Y2.01028
G01 X11.51054 Y2.11138
G01 X11.52929 Y2.21206
G01 X11.53178 Y2.29611
G01 X11.52553 Y2.34597
G01 X11.48712 Y2.51056
G01 X11.47437 Y2.54777
G01 X11.43122 Y2.64069
G01 X11.41006 Y2.71678
G01 X11.40226 Y2.77815
G01 X11.39838 Y2.89557
G01 X11.40160 Y3.30586
G01 X11.86597 Y3.20403
G01 X11.99304 Y3.22483
G01 X12.27008 Y3.25582
G01 X12.40635 Y3.30228
G01 X12.56878 Y3.36547
G01 X12.79906 Y3.34155
G01 X12.86449 Y3.33002
G01 X12.99893 Y3.36654
G01 X13.20173 Y3.36652
G01 X13.32395 Y3.37241
G01 X13.55674 Y3.40957
G01 X13.73624 Y3.45877
G01 X13.99761 Y3.58417
G01 X13.99868 Y3.91470
G01 X14.08013 Y4.09994
G01 X14.14859 Y4.28937
G01 X14.18999 Y4.49544
G01 X14.19385 Y4.53443
G01 X14.19385 Y4.73172
G01 X14.16901 Y4.89979
G01 X13.94785 Y5.89237
G01 X14.16901 Y4.89979
G01 X14.19385 Y4.73172
G01 X14.19385 Y4.53443
G01 X14.18999 Y4.49544
G01 X14.14859 Y4.28937
G01 X14.08013 Y4.09994
G01 X13.99868 Y3.91470
G01 X13.99761 Y3.58417
G01 X14.32961 Y3.40418
G01 X14.33340 Y3.16489
G01 X14.33071 Y2.93759
G01 X14.31950 Y2.79349
G01 X14.27071 Y2.57152
G01 X14.26525 Y2.49974
G01 X14.26525 Y2.32923
G01 X14.30675 Y2.24015
G01 X14.35702 Y2.09309
G01 X14.37495 Y2.03172
G01 X14.39050 Y1.95077
G01 X14.39860 Y1.83340
G01 X14.39860 Y1.52118
G01 X14.39860 Y1.83340
G01 X14.39050 Y1.95077
G01 X14.37495 Y2.03172
G01 X14.35702 Y2.09309
G01 X14.30675 Y2.24015
G01 X14.26525 Y2.32923
G01 X14.26525 Y2.49974
G01 X14.27071 Y2.57152
G01 X14.31950 Y2.79349
G01 X14.33071 Y2.93759
G01 X14.33340 Y3.16489
G01 X14.32961 Y3.40418
G01 X14.66517 Y3.37261
G01 X14.77902 Y3.36748
G01 X14.93162 Y3.37259
G01 X15.06510 Y3.38381
G01 X15.13164 Y3.36654
G01 X15.39334 Y3.36791
G01 X15.53154 Y3.37985
G01 X15.93238 Y3.35308
G01 X16.00667 Y3.36070
G01 X16.25981 Y3.37226
G01 X16.53118 Y3.34762
G01 X16.79776 Y3.27541
G01 X17.13578 Y3.12189
G01 X17.44703 Y2.88851
G01 X17.59763 Y2.76040
G01 X17.79496 Y2.58277
G01 X18.00504 Y2.35638
G01 X18.22907 Y2.33197
G01 X18.81810 Y1.49990
G01 X20.11040 Y1.50058
G01 X20.27075 Y1.49164
G01 X20.39986 Y1.47023
G01 X20.39945 Y0.93292
G01 X20.40451 Y0.83058
G01 X20.43118 Y0.71920
G01 X20.46630 Y0.63536
G01 X20.49711 Y0.57851
G01 X20.44560 Y0.45415
G01 X20.40946 Y0.33437
G01 X20.43626 Y0.25916
G01 X20.46173 Y0.15867
G01 X20.46656 Y0.09995
G01 X20.46653 Y0.00003
G01 X21.06635 Y0.00000
G01 X21.06635 Y0.06530
G01 X21.12315 Y0.18801
G01 X21.17725 Y0.26960
G01 X21.23298 Y0.33409
G01 X21.44667 Y0.54780
G01 X21.50308 Y0.61537
G01 X21.56214 Y0.71412
G01 X21.58843 Y0.77010
G01 X21.67405 Y0.98740
G01 X21.79460 Y1.35344
G01 X21.79559 Y1.36804
G01 X21.54367 Y1.45004
G01 X21.44014 Y1.47681
G01 X21.26625 Y1.51460
G01 X21.26541 Y2.11973
G01 X21.25348 Y2.20160
G01 X21.21035 Y2.33474
G01 X21.23816 Y2.43388
G01 X21.25431 Y2.47284
G01 X21.30151 Y2.56238
G01 X21.39569 Y2.68889
G01 X21.53516 Y2.83449
G01 X21.56818 Y3.15112
G01 X21.09655 Y3.48831
G01 X20.93316 Y3.49987
G01 X20.66643 Y3.49989
G01 X20.59988 Y3.52984
G01 X20.59742 Y3.84119
G01 X20.58665 Y3.94005
G01 X20.53867 Y4.16154
G01 X20.53323 Y4.23332
G01 X20.53323 Y4.49976
G01 X20.53867 Y4.57152
G01 X20.54690 Y4.62008
G01 X20.65002 Y4.68965
G01 X20.71802 Y4.75282
G01 X20.75901 Y4.80532
G01 X20.93316 Y5.06651
G01 X21.04789 Y5.26717
G01 X21.19960 Y5.59935
G01 X21.32465 Y5.91320
G01 X21.39561 Y5.90837
G01 X21.39947 Y4.83301
G01 X21.40651 Y4.73850
G01 X21.41593 Y4.68945
G01 X21.45894 Y4.56049
G01 X21.46584 Y4.50632
G01 X21.46617 Y4.23332
G01 X21.46198 Y4.18775
G01 X21.44329 Y4.12295
G01 X21.35210 Y3.90677
G01 X21.31052 Y3.83324
G01 X21.19960 Y3.66695
G01 X21.09655 Y3.48831
G01 X21.19960 Y3.66695
G01 X21.31052 Y3.83324
G01 X21.35210 Y3.90677
G01 X21.44329 Y4.12295
G01 X21.46198 Y4.18775
G01 X21.46617 Y4.23332
G01 X21.46584 Y4.50632
G01 X21.45894 Y4.56049
G01 X21.41593 Y4.68945
G01 X21.40651 Y4.73850
G01 X21.39947 Y4.83301
G01 X21.39561 Y5.90837
G01 X21.57451 Y5.91553
G01 X21.99406 Y5.91650
G01 X22.23275 Y5.90499
G01 X22.34819 Y5.89239
G01 X22.51453 Y5.14721
G01 X22.55281 Y5.00822
G01 X22.62175 Y4.80286
G01 X22.65766 Y4.62394
G01 X22.66569 Y4.49976
G01 X22.66569 Y4.23332
G01 X22.66147 Y4.14802
G01 X22.60387 Y3.64505
G01 X22.79914 Y3.53776
G01 X22.79914 Y1.52116
G01 X22.93224 Y1.47767
G01 X22.93115 Y0.90076
G01 X22.93236 Y0.76634
G01 X22.93648 Y0.72080
G01 X22.94788 Y0.67602
G01 X22.97933 Y0.60856
G01 X23.00536 Y0.56949
G01 X23.07270 Y0.49378
G01 X22.95652 Y0.21361
G01 X22.89284 Y0.08049
G01 X22.87300 Y0.00000
G01 X24.29980 Y0.00000
G01 X23.73208 Y0.00000
G01 X23.73208 Y0.23350
G01 X23.72063 Y0.35497
G01 X23.82322 Y0.45979
G01 X23.88131 Y0.53718
G01 X23.92027 Y0.61082
G01 X23.98458 Y0.76284
G01 X24.00816 Y0.82809
G01 X24.02106 Y0.87041
G01 X24.05090 Y1.00968
G01 X24.09490 Y1.27043
G01 X24.13132 Y1.45230
G01 X24.13079 Y1.56538
G01 X24.13132 Y1.45230
G01 X24.33114 Y1.10048
G01 X24.64044 Y0.48064
G01 X24.59858 Y0.43236
G01 X24.45156 Y0.28532
G01 X24.40521 Y0.22880
G01 X24.38306 Y0.19573
G01 X24.34247 Y0.11948
G01 X24.29980 Y0.00000
G01 X26.78102 Y0.00000
G01 X26.76251 Y0.07379
G01 X26.71961 Y0.20234
G01 X26.68407 Y0.29357
G01 X26.66512 Y0.32957
G01 X26.66548 Y0.38829
G01 X26.67213 Y0.45298
G01 X26.68156 Y0.49990
G01 X26.67211 Y0.54694
G01 X26.66548 Y0.61156
G01 X26.66614 Y0.79921
G01 X26.68158 Y0.89982
G01 X26.70419 Y0.99337
G01 X26.72202 Y1.09286
G01 X26.73119 Y1.23307
G01 X26.73119 Y2.49989
G01 X26.19807 Y2.49987
G01 X26.19875 Y4.04934
G01 X26.19190 Y4.17012
G01 X26.23640 Y4.24411
G01 X26.26032 Y4.31701
G01 X26.26406 Y4.34647
G01 X26.26525 Y4.49933
G01 X26.25811 Y4.56100
G01 X26.21156 Y4.69989
G01 X26.20010 Y4.78874
G01 X26.19416 Y5.90837
G01 X26.37846 Y5.91553
G01 X26.53180 Y5.91279
G01 X26.79776 Y5.91650
G01 X27.03060 Y5.90504
G01 X27.31282 Y5.86481
G01 X27.55608 Y5.80352
G01 X27.59509 Y5.79168
G01 X28.00190 Y5.63377
G01 X28.34571 Y5.44942
G01 X28.61417 Y5.27367
G01 X28.88262 Y5.06827
G01 X28.92161 Y5.03626
G01 X29.41320 Y4.58396
G01 X29.90482 Y4.03367
G01 X30.47911 Y3.27642
G01 X30.89466 Y3.06860
G01 X31.32981 Y2.82153
G01 X32.02564 Y2.36601
G01 X32.72147 Y1.83358
G01 X33.36933 Y1.27277
G01 X33.97819 Y0.68544
G01 X34.38307 Y0.28054
G01 X34.65512 Y0.00000
G01 X45.72000 Y0.00000
G01 X45.72000 Y27.41993
G01 X0.00000 Y27.41993
G01 X0.00000 Y0.00000
G01 X34.65512 Y0.00000
G01 X34.38307 Y0.28054
G01 X33.97819 Y0.68544
G01 X33.36933 Y1.27277
G01 X32.72147 Y1.83358
G01 X32.02564 Y2.36601
G01 X31.32981 Y2.82153
G01 X30.89466 Y3.06860
G01 X30.47911 Y3.27642
G01 X29.95440 Y3.18501
G01 X29.60040 Y3.12908
G01 X28.46217 Y2.96570
G01 X27.20922 Y2.60297
G01 X26.73119 Y2.49989
G01 X26.19807 Y2.49987
G01 X26.13137 Y2.49100
G01 X26.08997 Y2.49283
G01 X25.86482 Y2.44234
G01 X25.59812 Y2.39418
G01 X25.33155 Y2.35679
G01 X24.93411 Y2.36977
G01 X24.13079 Y1.56538
G01 X23.84567 Y1.55037
G01 X23.43089 Y1.50475
G01 X23.10013 Y1.49581
G01 X22.93224 Y1.47767
G01 X22.79914 Y1.52116
G01 X22.63150 Y1.50477
G01 X22.30074 Y1.49581
G01 X21.93262 Y1.45545
G01 X21.79559 Y1.36804
G01 X21.54367 Y1.45004
G01 X21.44014 Y1.47681
G01 X21.26625 Y1.51460
G01 X21.16516 Y1.50381
G01 X21.06625 Y1.49893
G01 X20.79981 Y1.49893
G01 X20.70095 Y1.50381
G01 X20.59976 Y1.51460
G01 X20.39986 Y1.47023
G01 X20.27075 Y1.49164
G01 X20.11040 Y1.50058
G01 X18.81810 Y1.49990
G01 X18.22907 Y2.33197
G01 X18.00504 Y2.35638
G01 X17.79496 Y2.58277
G01 X17.59763 Y2.76040
G01 X17.44703 Y2.88851
G01 X17.13578 Y3.12189
G01 X16.79776 Y3.27541
G01 X16.53118 Y3.34762
G01 X16.25981 Y3.37226
G01 X16.00667 Y3.36070
G01 X15.93238 Y3.35308
G01 X15.93050 Y2.89593
G01 X15.93273 Y2.80411
G01 X15.93908 Y2.73385
G01 X15.95834 Y2.65354
G01 X15.99118 Y2.56073
G01 X16.00525 Y2.43904
G01 X16.03197 Y2.36741
G01 X16.00812 Y2.30546
G01 X15.99900 Y2.25323
G01 X15.99804 Y1.41221
G01 X15.83065 Y1.36370
G01 X15.93136 Y0.96251
G01 X15.93345 Y0.78872
G01 X15.93840 Y0.73851
G01 X15.95049 Y0.67775
G01 X15.98059 Y0.60058
G01 X16.02897 Y0.50328
G01 X16.06377 Y0.44574
G01 X16.06377 Y0.23332
G01 X16.06857 Y0.17447
G01 X16.07904 Y0.12301
G01 X16.10817 Y0.03637
G01 X16.11612 Y0.00000
G01 X16.64807 Y0.00000
G01 X16.63106 Y0.06662
G01 X16.58628 Y0.20234
G01 X16.53118 Y0.34374
G01 X16.53118 Y0.40386
G01 X16.56857 Y0.48049
G01 X16.59039 Y0.54138
G01 X16.64086 Y0.70134
G01 X16.65351 Y0.75860
G01 X16.66367 Y0.86383
G01 X16.66453 Y1.03304
G01 X16.74449 Y1.43236
G01 X16.93113 Y1.51851
G01 X17.19758 Y1.66413
G01 X17.39758 Y1.78938
G01 X17.39892 Y0.80424
G01 X17.40530 Y0.73391
G01 X17.41444 Y0.68791
G01 X17.45737 Y0.56081
G01 X17.47114 Y0.43873
G01 X17.49712 Y0.36733
G01 X17.43654 Y0.24369
G01 X17.39179 Y0.17003
G01 X17.39674 Y0.11946
G01 X17.39758 Y0.00000
G01 X17.39674 Y0.11946
G01 X17.39179 Y0.17003
G01 X17.43654 Y0.24369
G01 X17.49712 Y0.36733
G01 X18.09849 Y0.36848
G01 X18.47591 Y0.36185
G01 X18.87733 Y0.36497
G01 X18.86877 Y0.22019
G01 X18.86521 Y0.00000
G01 X18.86877 Y0.22019
G01 X18.87733 Y0.36497
G01 X18.88856 Y0.43322
G01 X18.87047 Y0.61999
G01 X18.81810 Y1.49990
G01 X18.22907 Y2.33197
G01 X18.00504 Y2.35638
G01 X17.61327 Y1.98707
G01 X17.39758 Y1.78938
G01 X17.19758 Y1.66413
G01 X16.93113 Y1.51851
G01 X16.75186 Y1.43563
G01 X16.73276 Y1.43220
G01 X16.24510 Y1.43236
G01 X16.10446 Y1.42456
G01 X15.99804 Y1.41221
G01 X15.83065 Y1.36370
G01 X15.73149 Y1.37262
G01 X15.59824 Y1.39080
G01 X15.50485 Y1.37681
G01 X15.13164 Y1.49990
G01 X14.66517 Y1.49990
G01 X14.56652 Y1.50475
G01 X14.39860 Y1.52118
G01 X14.13205 Y1.43264
G01 X13.97414 Y1.37008
G01 X13.81971 Y1.28930
G01 X13.66543 Y1.36660
G01 X13.38687 Y1.41976
G01 X13.21831 Y1.43226
G01 X13.06571 Y1.42657
G01 X12.86571 Y1.40663
G01 X12.76520 Y1.36695
G01 X12.39926 Y1.36624
G01 X12.13251 Y1.38384
G01 X11.99736 Y1.34831
G01 X11.76020 Y1.36944
G01 X11.66320 Y1.38107
G01 X11.53287 Y1.40274
G01 X11.39949 Y1.36655
G01 X10.97773 Y1.36345
G01 X10.73305 Y1.46990
G01 X10.39746 Y1.50757
G01 X10.26655 Y1.52989
G01 X10.21903 Y1.52029
G01 X10.01944 Y1.50000
G01 X4.33220 Y1.49990
G01 X3.69989 Y0.89980
G01 X2.90002 Y0.09995
G01 X2.80525 Y0.00000
G01 X2.90002 Y0.09995
G01 X3.69989 Y0.89980
G01 X4.33220 Y1.49990
G01 X4.90004 Y2.09995
G01 X5.69989 Y2.89979
G01 X6.35030 Y3.49987
G01 X6.90001 Y4.09994
G01 X7.69986 Y4.89979
G01 X8.09374 Y5.25841
G01 X8.44230 Y5.52242
G01 X8.79086 Y5.73093
G01 X9.16749 Y5.89895
G01 X9.52317 Y5.99951
G01 X9.77133 Y6.03849
G01 X10.01944 Y6.04888
G01 X10.35103 Y6.02285
G01 X10.67742 Y5.94911
G01 X10.79383 Y5.91241
G01 X10.93292 Y5.91650
G01 X11.19962 Y5.91650
G01 X11.39563 Y5.90837
G01 X11.61890 Y5.91553
G01 X11.86597 Y5.90266
G01 X12.11306 Y5.91553
G01 X12.33642 Y5.90837
G01 X12.53259 Y5.91650
G01 X12.79906 Y5.91650
G01 X12.99507 Y5.90837
G01 X13.17935 Y5.91553
G01 X13.33284 Y5.91279
G01 X13.59888 Y5.91650
G01 X13.83175 Y5.90504
G01 X13.94785 Y5.89237
G01 X14.12154 Y5.94926
G01 X14.33766 Y6.00370
G01 X14.55379 Y6.03595
G01 X14.59278 Y6.03976
G01 X15.00574 Y6.03964
G01 X15.06202 Y6.03400
G01 X15.35118 Y6.04888
G01 X15.68275 Y6.02285
G01 X16.00914 Y5.94911
G01 X16.12323 Y5.91320
G01 X16.19809 Y5.90807
G01 X16.39799 Y5.91650
G01 X16.66377 Y5.91279
G01 X16.81724 Y5.91553
G01 X17.06890 Y5.90217
G01 X17.33090 Y5.91650
G01 X17.59763 Y5.91650
G01 X17.79750 Y5.90807
G01 X18.01216 Y5.91645
G01 X18.16501 Y5.91551
G01 X18.39331 Y5.90309
G01 X18.62160 Y5.86864
G01 X18.91886 Y5.79552
G01 X19.28345 Y5.93730
G01 X19.53847 Y6.00357
G01 X19.75447 Y6.03585
G01 X20.00357 Y6.04985
G01 X20.55619 Y6.04888
G01 X20.86458 Y6.02574
G01 X21.21055 Y5.94911
G01 X21.32465 Y5.91320
G01 X21.39561 Y5.90837
G01 X21.57451 Y5.91553
G01 X21.99406 Y5.91650
G01 X22.23275 Y5.90499
G01 X22.34819 Y5.89239
G01 X22.38593 Y5.90596
G01 X22.72203 Y5.99951
G01 X22.76104 Y6.00728
G01 X22.97019 Y6.03849
G01 X23.17930 Y6.04888
G01 X23.21832 Y6.04888
G01 X23.54989 Y6.02285
G01 X23.87628 Y5.94911
G01 X23.99271 Y5.91241
G01 X24.13201 Y5.91650
G01 X24.39845 Y5.91650
G01 X24.59462 Y5.90837
G01 X24.81798 Y5.91553
G01 X25.06508 Y5.90266
G01 X25.31214 Y5.91553
G01 X25.53541 Y5.90837
G01 X25.73147 Y5.91650
G01 X25.99817 Y5.91650
G01 X26.19416 Y5.90837
G01 X25.99817 Y5.91650
G01 X25.73147 Y5.91650
G01 X25.53541 Y5.90837
G01 X25.52944 Y4.78871
G01 X25.51796 Y4.69986
G01 X25.47122 Y4.56108
G01 X25.46391 Y4.49976
G01 X25.46424 Y4.22656
G01 X25.46807 Y4.18760
G01 X25.48303 Y4.13301
G01 X25.56474 Y3.93327
G01 X25.62677 Y3.74602
G01 X25.73144 Y3.45420
G01 X25.86495 Y3.12765
G01 X25.99817 Y2.76631
G01 X26.08997 Y2.49283
G01 X26.13137 Y2.49100
G01 X26.13137 Y0.76634
G01 X26.13546 Y0.72095
G01 X26.14501 Y0.68100
G01 X26.15954 Y0.64435
G01 X26.19774 Y0.57803
G01 X26.19710 Y0.28865
G01 X26.15903 Y0.22289
G01 X26.10457 Y0.11189
G01 X26.08069 Y0.04356
G01 X26.07150 Y0.00000
G01 X25.39058 Y0.00000
G01 X25.38247 Y0.04343
G01 X25.35921 Y0.11212
G01 X25.28242 Y0.26101
G01 X25.22967 Y0.33170
G01 X25.30876 Y0.52266
G01 X25.32441 Y0.57231
G01 X25.33068 Y0.61318
G01 X25.33155 Y2.35679
G01 X24.93411 Y2.36977
G01 X24.69774 Y2.65709
G01 X24.38954 Y3.11351
G01 X24.25543 Y3.19982
G01 X23.93198 Y3.36984
G01 X24.25543 Y3.19982
G01 X24.38954 Y3.11351
G01 X24.52916 Y3.42575
G01 X24.73173 Y3.83281
G01 X24.72985 Y3.94421
G01 X24.71880 Y4.03299
G01 X24.70523 Y4.08046
G01 X24.67529 Y4.15643
G01 X24.66454 Y4.22656
G01 X24.66411 Y4.52966
G01 X24.64686 Y4.60009
G01 X24.62571 Y4.65295
G01 X24.61207 Y4.69991
G01 X24.60056 Y4.78879
G01 X24.59462 Y5.90837
G01 X24.39845 Y5.91650
G01 X24.13201 Y5.91650
G01 X23.99271 Y5.91241
G01 X23.70244 Y4.89661
G01 X23.67661 Y4.78155
G01 X23.66576 Y4.65262
G01 X23.66731 Y4.56786
G01 X23.67415 Y4.56187
G01 X23.75225 Y4.39016
G01 X23.88156 Y4.13512
G01 X23.90463 Y4.08048
G01 X23.92426 Y3.99918
G01 X23.93064 Y3.92887
G01 X23.93285 Y3.83695
G01 X23.93198 Y3.36984
G01 X23.67656 Y3.45049
G01 X23.46965 Y3.49166
G01 X23.33219 Y3.50012
G01 X23.20056 Y3.49989
G01 X23.10016 Y3.50474
G01 X22.79914 Y3.53776
G01 X22.60387 Y3.64505
G01 X22.38284 Y3.56202
G01 X22.26589 Y3.52953
G01 X22.11316 Y3.49593
G01 X21.85101 Y3.30838
G01 X21.73795 Y3.23751
G01 X21.56818 Y3.15112
G01 X21.53516 Y2.83449
G01 X21.62396 Y2.73992
G01 X21.73341 Y2.60774
G01 X21.75947 Y2.56873
G01 X21.81134 Y2.47284
G01 X21.85144 Y2.35694
G01 X21.86048 Y2.30518
G01 X21.87097 Y2.16146
G01 X21.87971 Y2.10932
G01 X21.91842 Y1.94666
G01 X21.93140 Y1.79550
G01 X21.93262 Y1.45545
G01 X21.79559 Y1.36804
G01 X21.79460 Y1.35344
G01 X21.96544 Y1.03535
G01 X22.08500 Y0.79632
G01 X22.11360 Y0.73287
G01 X22.12848 Y0.67869
G01 X22.13234 Y0.62657
G01 X22.12543 Y0.57239
G01 X22.10973 Y0.52261
G01 X21.97598 Y0.19558
G01 X21.94524 Y0.07308
G01 X21.93808 Y0.00000
G01 X22.87300 Y0.00000
G01 X21.93808 Y0.00000
G01 X21.94524 Y0.07308
G01 X21.97598 Y0.19558
G01 X22.10973 Y0.52261
G01 X22.12543 Y0.57239
G01 X22.13234 Y0.62657
G01 X22.12848 Y0.67869
G01 X22.11360 Y0.73287
G01 X22.08500 Y0.79632
G01 X21.96544 Y1.03535
G01 X21.79460 Y1.35344
G01 X21.79559 Y1.36804
G01 X21.54367 Y1.45004
G01 X21.44014 Y1.47681
G01 X21.26625 Y1.51460
G01 X21.16516 Y1.50381
G01 X21.06625 Y1.49893
G01 X20.79981 Y1.49893
G01 X20.70095 Y1.50381
G01 X20.59976 Y1.51460
G01 X20.39986 Y1.47023
G01 X20.59976 Y1.51460
G01 X20.59920 Y1.92270
G01 X20.60788 Y2.00853
G01 X20.61578 Y2.04353
G01 X20.63966 Y2.11191
G01 X20.69412 Y2.22301
G01 X20.73224 Y2.28884
G01 X20.73280 Y2.57792
G01 X20.68706 Y2.66129
G01 X20.67248 Y2.70955
G01 X20.66676 Y2.75989
G01 X20.66643 Y3.49989
G01 X20.59988 Y3.52984
G01 X20.36536 Y3.50474
G01 X20.16798 Y3.50474
G01 X19.67037 Y3.55768
G01 X19.19790 Y3.61963
G01 X19.19928 Y4.19184
G01 X19.13793 Y4.36387
G01 X18.87596 Y4.36184
G01 X18.49854 Y4.36847
G01 X17.89692 Y4.36733
G01 X17.87093 Y4.43873
G01 X17.85719 Y4.56075
G01 X17.81429 Y4.68785
G01 X17.80517 Y4.73387
G01 X17.79885 Y4.80411
G01 X17.79750 Y5.90807
G01 X17.79885 Y4.80411
G01 X17.80517 Y4.73387
G01 X17.81429 Y4.68785
G01 X17.85719 Y4.56075
G01 X17.87093 Y4.43873
G01 X17.89692 Y4.36733
G01 X17.83631 Y4.24343
G01 X17.79171 Y4.16992
G01 X17.79821 Y4.04934
G01 X17.79273 Y3.02115
G01 X17.79496 Y2.58277
G01 X18.00504 Y2.35638
G01 X17.99100 Y2.36952
G01 X17.00982 Y2.36184
G01 X16.63240 Y2.36847
G01 X16.03197 Y2.36741
G01 X16.00525 Y2.43904
G01 X15.99118 Y2.56073
G01 X15.95834 Y2.65354
G01 X15.93908 Y2.73385
G01 X15.93273 Y2.80411
G01 X15.93050 Y2.89593
G01 X15.93238 Y3.35308
G01 X16.00667 Y3.36070
G01 X16.25981 Y3.37226
G01 X16.26461 Y3.69428
G01 X16.26438 Y4.51922
G01 X16.25161 Y4.58569
G01 X16.22522 Y4.65287
G01 X16.21158 Y4.69989
G01 X16.20012 Y4.78874
G01 X16.19809 Y5.90807
G01 X16.12323 Y5.91320
G01 X15.99819 Y5.59935
G01 X15.88470 Y5.34091
G01 X15.78564 Y5.15358
G01 X15.59982 Y4.86529
G01 X15.55674 Y4.77330
G01 X15.54493 Y4.73428
G01 X15.53477 Y4.68257
G01 X15.53253 Y4.61361
G01 X15.53766 Y4.56408
G01 X15.55382 Y4.50258
G01 X15.48033 Y4.32305
G01 X15.47104 Y4.29024
G01 X15.46522 Y4.23992
G01 X15.47211 Y4.17264
G01 X15.51513 Y4.04355
G01 X15.52636 Y3.98475
G01 X15.53243 Y3.83715
G01 X15.53154 Y3.37985
G01 X15.39334 Y3.36791
G01 X15.13164 Y3.36654
G01 X15.13373 Y2.78879
G01 X15.14523 Y2.69992
G01 X15.19182 Y2.56106
G01 X15.19903 Y2.49974
G01 X15.19857 Y2.23330
G01 X15.19431 Y2.18770
G01 X15.14813 Y2.04361
G01 X15.13373 Y1.94429
G01 X15.13164 Y1.49990
G01 X15.50485 Y1.37681
G01 X15.46479 Y1.27879
G01 X15.36009 Y0.98707
G01 X15.28920 Y0.77386
G01 X15.27015 Y0.70241
G01 X15.26510 Y0.65260
G01 X15.26746 Y0.58351
G01 X15.28656 Y0.50274
G01 X15.21356 Y0.32304
G01 X15.20436 Y0.29022
G01 X15.19834 Y0.23343
G01 X15.19751 Y0.00000
G01 X13.04920 Y0.00000
G01 X13.04315 Y0.03147
G01 X13.01415 Y0.12349
G01 X13.00376 Y0.17460
G01 X12.99893 Y0.23332
G01 X12.99893 Y0.44651
G01 X12.96594 Y0.49977
G01 X12.91849 Y0.59327
G01 X12.88484 Y0.67775
G01 X12.87272 Y0.73861
G01 X12.86777 Y0.78880
G01 X12.86571 Y0.96203
G01 X12.76520 Y1.36695
G01 X12.86571 Y1.40663
G01 X12.86571 Y2.29987
G01 X12.82349 Y2.34208
G01 X12.80673 Y2.41084
G01 X12.80013 Y2.48023
G01 X12.80671 Y2.58572
G01 X12.85682 Y2.81755
G01 X12.86449 Y2.93746
G01 X12.86695 Y3.09420
G01 X12.86449 Y3.33002
G01 X12.99893 Y3.36654
G01 X12.99962 Y4.04934
G01 X12.99276 Y4.17010
G01 X13.01656 Y4.20533
G01 X13.04681 Y4.26651
G01 X13.05872 Y4.30548
G01 X13.06505 Y4.34647
G01 X13.06629 Y4.49933
G01 X13.06220 Y4.54546
G01 X13.04734 Y4.60002
G01 X13.02616 Y4.65287
G01 X13.01252 Y4.69986
G01 X13.00597 Y4.73850
G01 X12.99893 Y4.83301
G01 X12.99507 Y5.90837
G01 X12.79906 Y5.91650
G01 X12.53259 Y5.91650
G01 X12.33642 Y5.90837
G01 X12.33256 Y4.83314
G01 X12.32553 Y4.73857
G01 X12.31897 Y4.69991
G01 X12.30521 Y4.65259
G01 X12.28407 Y4.60017
G01 X12.26911 Y4.54551
G01 X12.26492 Y4.49976
G01 X12.26528 Y4.22653
G01 X12.27224 Y4.17192
G01 X12.28407 Y4.13291
G01 X12.36579 Y3.93316
G01 X12.46998 Y3.62486
G01 X12.56878 Y3.36547
G01 X12.40635 Y3.30228
G01 X12.27008 Y3.25582
G01 X12.26424 Y2.94048
G01 X12.26556 Y2.57647
G01 X12.27562 Y2.48321
G01 X12.29291 Y2.41874
G01 X12.27102 Y2.32659
G01 X12.21776 Y2.26157
G01 X12.18410 Y2.20386
G01 X12.15499 Y2.12860
G01 X12.14084 Y2.06847
G01 X12.13178 Y1.96812
G01 X12.13251 Y1.38384
G01 X11.99736 Y1.34831
G01 X12.00071 Y1.06520
G01 X11.99972 Y0.32944
G01 X12.04105 Y0.24031
G01 X12.05281 Y0.20124
G01 X12.06508 Y0.11968
G01 X12.06599 Y0.00003
G01 X13.93279 Y0.00003
G01 X13.93104 Y0.11946
G01 X13.92001 Y0.26815
G01 X13.90233 Y0.36655
G01 X13.92715 Y0.53444
G01 X13.92715 Y0.73172
G01 X13.90231 Y0.89982
G01 X13.82263 Y1.25692
G01 X13.81971 Y1.28930
G01 X13.66543 Y1.36660
G01 X13.66543 Y1.90243
G01 X13.67025 Y1.98458
G01 X13.68123 Y2.04351
G01 X13.69385 Y2.08575
G01 X13.79400 Y2.29169
G01 X13.78356 Y2.34315
G01 X13.75608 Y2.41704
G01 X13.73210 Y2.43667
G01 X13.73624 Y3.45877
G01 X13.99761 Y3.58417
G01 X14.32961 Y3.40418
G01 X14.49555 Y3.38714
G01 X14.66517 Y3.37261
G01 X14.77902 Y3.36748
G01 X14.93162 Y3.37259
G01 X15.06510 Y3.38381
G01 X15.13164 Y3.36654
G01 X15.39334 Y3.36791
G01 X15.53154 Y3.37985
G01 X15.93238 Y3.35308
G01 X16.00667 Y3.36070
G01 X16.25981 Y3.37226
G01 X16.41747 Y3.35956
G01 X16.53118 Y3.34762
G01 X16.79776 Y3.27541
G01 X17.13578 Y3.12189
G01 X17.12892 Y3.94437
G01 X17.11457 Y4.04355
G01 X17.07154 Y4.17258
G01 X17.06435 Y4.23332
G01 X17.06433 Y5.47774
G01 X17.06890 Y5.90217
G01 X17.33090 Y5.91650
G01 X17.59763 Y5.91650
G01 X17.79750 Y5.90807
G01 X18.01216 Y5.91645
G01 X18.16501 Y5.91551
G01 X18.39331 Y5.90309
G01 X18.66062 Y5.86090
G01 X18.91886 Y5.79552
G01 X19.08752 Y4.61267
G01 X19.13793 Y4.36387
G01 X19.19928 Y4.19184
G01 X19.19790 Y3.61963
G01 X18.58952 Y2.76647
G01 X18.42008 Y2.54864
G01 X18.22907 Y2.33197
G04 P0 ( dwell for no time -- G64 should not smooth over this point )
G00 Z10.00000 ( retract )

G00 X16.90596 Y0.46660 ( rapid move to begin. )
G01 F30.00000
( Mill infeed pass 1/1 )
G01 Z-0.10000
G04 P0 ( dwell for no time -- G64 should not smooth over this point )
G01 F360.00000
G01 X16.90596 Y0.46660
G01 X17.22272 Y0.46660
G01 X17.15618 Y0.53315
G01 X16.97251 Y0.53315
G01 X16.90596 Y0.46660
G04 P0 ( dwell for no time -- G64 should not smooth over this point )
G00 Z10.00000 ( retract )

G00 X15.47289 Y0.23330 ( rapid move to begin. )
G01 F30.00000
( Mill infeed pass 1/1 )
G01 Z-0.10000
G04 P0 ( dwell for no time -- G64 should not smooth over this point )
G01 F360.00000
G01 X15.47289 Y0.23330
G01 X15.50624 Y0.26670
G01 X15.76489 Y0.26670
G01 X15.76489 Y0.19990
G01 X15.50624 Y0.19990
G01 X15.47289 Y0.23330
G04 P0 ( dwell for no time -- G64 should not smooth over this point )
G00 Z10.00000 ( retract )

G00 X14.63180 Y0.19990 ( rapid move to begin. )
G01 F30.00000
( Mill infeed pass 1/1 )
G01 Z-0.10000
G04 P0 ( dwell for no time -- G64 should not smooth over this point )
G01 F360.00000
G01 X14.63180 Y0.19990
G01 X14.89024 Y0.19990
G01 X14.96504 Y0.27470
G01 X14.96504 Y0.72507
G01 X14.89024 Y0.79985
G01 X14.63180 Y0.79985
G01 X14.63180 Y0.19990
G04 P0 ( dwell for no time -- G64 should not smooth over this point )
G00 Z10.00000 ( retract )

G00 X10.09993 Y0.46660 ( rapid move to begin. )
G01 F30.00000
( Mill infeed pass 1/1 )
G01 Z-0.10000
G04 P0 ( dwell for no time -- G64 should not smooth over this point )
G01 F360.00000
G01 X10.09993 Y0.46660
G01 X10.35842 Y0.46660
G01 X10.43318 Y0.54125
G01 X10.43318 Y0.72507
G01 X10.35837 Y0.79985
G01 X10.09993 Y0.79985
G01 X10.09993 Y0.46660
G04 P0 ( dwell for no time -- G64 should not smooth over this point )
G00 Z10.00000 ( retract )

G00 X10.90795 Y2.46659 ( rapid move to begin. )
G01 F30.00000
( Mill infeed pass 1/1 )
G01 Z-0.10000
G04 P0 ( dwell for no time -- G64 should not smooth over this point )
G01 F360.00000
G01 X10.90795 Y2.46659
G01 X11.22477 Y2.46659
G01 X11.15822 Y2.53314
G01 X10.97437 Y2.53314
G01 X10.90795 Y2.46659
G04 P0 ( dwell for no time -- G64 should not smooth over this point )
G00 Z10.00000 ( retract )

G00 X10.09993 Y2.46659 ( rapid move to begin. )
G01 F30.00000
( Mill infeed pass 1/1 )
G01 Z-0.10000
G04 P0 ( dwell for no time -- G64 should not smooth over this point )
G01 F360.00000
G01 X10.09993 Y2.46659
G01 X10.35842 Y2.46659
G01 X10.43318 Y2.54122
G01 X10.43318 Y2.72506
G01 X10.35837 Y2.79984
G01 X10.09993 Y2.79984
G01 X10.09993 Y2.46659
G04 P0 ( dwell for no time -- G64 should not smooth over this point )
G00 Z10.00000 ( retract )

G00 X10.94110 Y4.23324 ( rapid move to begin. )
G01 F30.00000
( Mill infeed pass 1/1 )
G01 Z-0.10000
G04 P0 ( dwell for no time -- G64 should not smooth over this point )
G01 F360.00000
G01 X10.94110 Y4.23324
G01 X10.97437 Y4.19989
G01 X11.23302 Y4.19989
G01 X11.23302 Y4.26644
G01 X10.97430 Y4.26644
G01 X10.94110 Y4.23324
G04 P0 ( dwell for no time -- G64 should not smooth over this point )
G00 Z10.00000 ( retract )

G00 X12.50719 Y4.46634 ( rapid move to begin. )
G01 F30.00000
( Mill infeed pass 1/1 )
G01 Z-0.10000
G04 P0 ( dwell for no time -- G64 should not smooth over this point )
G01 F360.00000
G01 X12.50719 Y4.46634
G01 X12.82446 Y4.46634
G01 X12.75766 Y4.53314
G01 X12.57399 Y4.53314
G01 X12.50719 Y4.46634
G04 P0 ( dwell for no time -- G64 should not smooth over this point )
G00 Z10.00000 ( retract )

G00 X14.63180 Y2.27470 ( rapid move to begin. )
G01 F30.00000
( Mill infeed pass 1/1 )
G01 Z-0.10000
G04 P0 ( dwell for no time -- G64 should not smooth over this point )
G01 F360.00000
G01 X14.63180 Y2.27470
G01 X14.63180 Y2.45836
G01 X14.70657 Y2.53314
G01 X14.89024 Y2.53314
G01 X14.96504 Y2.45836
G01 X14.96504 Y2.27470
G01 X14.89024 Y2.19989
G01 X14.70657 Y2.19989
G01 X14.63180 Y2.27470
G04 P0 ( dwell for no time -- G64 should not smooth over this point )
G00 Z10.00000 ( retract )

G00 X15.73954 Y4.23324 ( rapid move to begin. )
G01 F30.00000
( Mill infeed pass 1/1 )
G01 Z-0.10000
G04 P0 ( dwell for no time -- G64 should not smooth over this point )
G01 F360.00000
G01 X15.73954 Y4.23324
G01 X15.77282 Y4.26644
G01 X16.03134 Y4.26644
G01 X16.03134 Y4.19989
G01 X15.77287 Y4.19989
G01 X15.73954 Y4.23324
G04 P0 ( dwell for no time -- G64 should not smooth over this point )
G00 Z10.00000 ( retract )

G00 X17.30550 Y4.46634 ( rapid move to begin. )
G01 F30.00000
( Mill infeed pass 1/1 )
G01 Z-0.10000
G04 P0 ( dwell for no time -- G64 should not smooth over this point )
G01 F360.00000
G01 X17.30550 Y4.46634
G01 X17.37230 Y4.53314
G01 X17.55615 Y4.53314
G01 X17.62282 Y4.46634
G01 X17.30550 Y4.46634
G04 P0 ( dwell for no time -- G64 should not smooth over this point )
G00 Z10.00000 ( retract )

G00 X20.09991 Y2.27470 ( rapid move to begin. )
G01 F30.00000
( Mill infeed pass 1/1 )
G01 Z-0.10000
G04 P0 ( dwell for no time -- G64 should not smooth over this point )
G01 F360.00000
G01 X20.09991 Y2.27470
G01 X20.09991 Y2.72506
G01 X20.17469 Y2.79984
G01 X20.35835 Y2.79984
G01 X20.43316 Y2.72506
G01 X20.43316 Y2.27470
G01 X20.35835 Y2.19989
G01 X20.17469 Y2.19989
G01 X20.09991 Y2.27470
G04 P0 ( dwell for no time -- G64 should not smooth over this point )
G00 Z10.00000 ( retract )

G00 X22.36584 Y0.27470 ( rapid move to begin. )
G01 F30.00000
( Mill infeed pass 1/1 )
G01 Z-0.10000
G04 P0 ( dwell for no time -- G64 should not smooth over this point )
G01 F360.00000
G01 X22.36584 Y0.27470
G01 X22.36584 Y0.72507
G01 X22.44062 Y0.79985
G01 X22.62429 Y0.79985
G01 X22.69909 Y0.72507
G01 X22.69909 Y0.27470
G01 X22.62429 Y0.19990
G01 X22.44062 Y0.19990
G01 X22.36584 Y0.27470
G04 P0 ( dwell for no time -- G64 should not smooth over this point )
G00 Z10.00000 ( retract )

G00 X23.03234 Y2.27470 ( rapid move to begin. )
G01 F30.00000
( Mill infeed pass 1/1 )
G01 Z-0.10000
G04 P0 ( dwell for no time -- G64 should not smooth over this point )
G01 F360.00000
G01 X23.03234 Y2.27470
G01 X23.10712 Y2.19989
G01 X23.29078 Y2.19989
G01 X23.36559 Y2.27470
G01 X23.36559 Y2.72506
G01 X23.29078 Y2.79984
G01 X23.10712 Y2.79984
G01 X23.03234 Y2.72506
G01 X23.03234 Y2.27470
G04 P0 ( dwell for no time -- G64 should not smooth over this point )
G00 Z10.00000 ( retract )

G00 X22.23249 Y2.27470 ( rapid move to begin. )
G01 F30.00000
( Mill infeed pass 1/1 )
G01 Z-0.10000
G04 P0 ( dwell for no time -- G64 should not smooth over this point )
G01 F360.00000
G01 X22.23249 Y2.27470
G01 X22.30727 Y2.19989
G01 X22.49112 Y2.19989
G01 X22.56574 Y2.27465
G01 X22.56574 Y2.72512
G01 X22.49112 Y2.79984
G01 X22.30727 Y2.79984
G01 X22.23249 Y2.72506
G01 X22.23249 Y2.27470
G04 P0 ( dwell for no time -- G64 should not smooth over this point )
G00 Z10.00000 ( retract )

G00 X20.89975 Y4.27469 ( rapid move to begin. )
G01 F30.00000
( Mill infeed pass 1/1 )
G01 Z-0.10000
G04 P0 ( dwell for no time -- G64 should not smooth over this point )
G01 F360.00000
G01 X20.89975 Y4.27469
G01 X20.97453 Y4.19989
G01 X21.15820 Y4.19989
G01 X21.23300 Y4.27469
G01 X21.23300 Y4.45836
G01 X21.15820 Y4.53314
G01 X20.97453 Y4.53314
G01 X20.89975 Y4.45836
G01 X20.89975 Y4.27469
G04 P0 ( dwell for no time -- G64 should not smooth over this point )
G00 Z10.00000 ( retract )

G00 X21.69935 Y4.19989 ( rapid move to begin. )
G01 F30.00000
( Mill infeed pass 1/1 )
G01 Z-0.10000
G04 P0 ( dwell for no time -- G64 should not smooth over this point )
G01 F360.00000
G01 X21.69935 Y4.19989
G01 X21.95797 Y4.19989
G01 X22.03259 Y4.27464
G01 X22.03259 Y4.45841
G01 X21.95797 Y4.53314
G01 X21.69935 Y4.53314
G01 X21.69935 Y4.19989
G04 P0 ( dwell for no time -- G64 should not smooth over this point )
G00 Z10.00000 ( retract )

G00 X24.14008 Y4.23324 ( rapid move to begin. )
G01 F30.00000
( Mill infeed pass 1/1 )
G01 Z-0.10000
G04 P0 ( dwell for no time -- G64 should not smooth over this point )
G01 F360.00000
G01 X24.14008 Y4.23324
G01 X24.17336 Y4.26644
G01 X24.43188 Y4.26644
G01 X24.43188 Y4.19989
G01 X24.17341 Y4.19989
G01 X24.14008 Y4.23324
G04 P0 ( dwell for no time -- G64 should not smooth over this point )
G00 Z10.00000 ( retract )

G00 X25.70604 Y4.46634 ( rapid move to begin. )
G01 F30.00000
( Mill infeed pass 1/1 )
G01 Z-0.10000
G04 P0 ( dwell for no time -- G64 should not smooth over this point )
G01 F360.00000
G01 X25.70604 Y4.46634
G01 X25.77285 Y4.53314
G01 X25.95669 Y4.53314
G01 X26.02337 Y4.46634
G01 X25.70604 Y4.46634
G04 P0 ( dwell for no time -- G64 should not smooth over this point )
G00 Z10.00000 ( retract )

G00 X25.56495 Y0.27465 ( rapid move to begin. )
G01 F30.00000
( Mill infeed pass 1/1 )
G01 Z-0.10000
G04 P0 ( dwell for no time -- G64 should not smooth over this point )
G01 F360.00000
G01 X25.56495 Y0.27465
G01 X25.63955 Y0.19990
G01 X25.82342 Y0.19990
G01 X25.89820 Y0.27470
G01 X25.89820 Y0.72507
G01 X25.82342 Y0.79985
G01 X25.63955 Y0.79985
G01 X25.56495 Y0.72512
G01 X25.56495 Y0.27465
G04 P0 ( dwell for no time -- G64 should not smooth over this point )
G00 Z10.00000 ( retract )

G00 X27.03106 Y0.27470 ( rapid move to begin. )
G01 F30.00000
( Mill infeed pass 1/1 )
G01 Z-0.10000
G04 P0 ( dwell for no time -- G64 should not smooth over this point )
G01 F360.00000
G01 X27.03106 Y0.27470
G01 X27.10584 Y0.19990
G01 X27.28951 Y0.19990
G01 X27.36431 Y0.27470
G01 X27.36431 Y0.32520
G01 X27.28956 Y0.39980
G01 X27.10579 Y0.39980
G01 X27.03106 Y0.32520
G01 X27.03106 Y0.27470
G04 P0 ( dwell for no time -- G64 should not smooth over this point )
G00 Z10.00000 ( retract )

G00 X27.03106 Y0.67452 ( rapid move to begin. )
G01 F30.00000
( Mill infeed pass 1/1 )
G01 Z-0.10000
G04 P0 ( dwell for no time -- G64 should not smooth over this point )
G01 F360.00000
G01 X27.03106 Y0.67452
G01 X27.10584 Y0.59969
G01 X27.28951 Y0.59969
G01 X27.36431 Y0.67452
G01 X27.36431 Y0.72507
G01 X27.28951 Y0.79985
G01 X27.10584 Y0.79985
G01 X27.03106 Y0.72507
G01 X27.03106 Y0.67452
G04 P0 ( dwell for no time -- G64 should not smooth over this point )
G00 Z10.00000 ( retract )

G00 X33.79775 Y8.24293 ( rapid move to begin. )
G01 F30.00000
( Mill infeed pass 1/1 )
G01 Z-0.10000
G04 P0 ( dwell for no time -- G64 should not smooth over this point )
G01 F360.00000
G01 X33.79775 Y8.24293
G01 X33.81553 Y8.10781
G01 X33.91662 Y7.86371
G01 X34.07740 Y7.65391
G01 X34.28721 Y7.49287
G01 X34.53155 Y7.39178
G01 X34.66668 Y7.37400
G01 X34.66668 Y7.63237
G01 X34.64733 Y7.63427
G01 X34.50664 Y7.67695
G01 X34.37697 Y7.74626
G01 X34.26330 Y7.83956
G01 X34.17001 Y7.95322
G01 X34.10069 Y8.08289
G01 X34.05802 Y8.22358
G01 X34.05612 Y8.24293
G01 X33.79775 Y8.24293
G04 P0 ( dwell for no time -- G64 should not smooth over this point )
G00 Z10.00000 ( retract )

G00 X36.45286 Y10.90994 ( rapid move to begin. )
G01 F30.00000
( Mill infeed pass 1/1 )
G01 Z-0.10000
G04 P0 ( dwell for no time -- G64 should not smooth over this point )
G01 F360.00000
G01 X36.45286 Y10.90994
G01 X36.47082 Y10.75106
G01 X36.48441 Y10.68233
G01 X36.52843 Y10.56287
G01 X36.57216 Y10.47039
G01 X36.59657 Y10.43257
G01 X36.71087 Y10.28710
G01 X36.85629 Y10.17278
G01 X36.89396 Y10.14847
G01 X36.98662 Y10.10468
G01 X37.10605 Y10.06066
G01 X37.17480 Y10.04707
G01 X37.33366 Y10.02911
G01 X37.51732 Y10.05119
G01 X37.56104 Y10.06064
G01 X37.65763 Y10.09515
G01 X37.77318 Y10.14844
G01 X37.83145 Y10.18746
G01 X37.95644 Y10.28710
G01 X38.07069 Y10.43259
G01 X38.09500 Y10.47034
G01 X38.13884 Y10.56289
G01 X38.18293 Y10.68240
G01 X38.19649 Y10.75103
G01 X38.21448 Y10.90994
G01 X38.19241 Y11.09360
G01 X38.18293 Y11.13747
G01 X38.14841 Y11.23389
G01 X38.09497 Y11.34969
G01 X38.05608 Y11.40767
G01 X37.95644 Y11.53272
G01 X37.81100 Y11.64702
G01 X37.77318 Y11.67140
G01 X37.68070 Y11.71511
G01 X37.56101 Y11.75921
G01 X37.49253 Y11.77275
G01 X37.33366 Y11.79073
G01 X37.17478 Y11.77275
G01 X37.10607 Y11.75918
G01 X36.98662 Y11.71517
G01 X36.89396 Y11.67138
G01 X36.85629 Y11.64704
G01 X36.71087 Y11.53272
G01 X36.59652 Y11.38728
G01 X36.57222 Y11.34963
G01 X36.52840 Y11.25695
G01 X36.48441 Y11.13754
G01 X36.47082 Y11.06876
G01 X36.45286 Y10.90994
G04 P0 ( dwell for no time -- G64 should not smooth over this point )
G00 Z10.00000 ( retract )

G00 X38.73957 Y12.64933 ( rapid move to begin. )
G01 F30.00000
( Mill infeed pass 1/1 )
G01 Z-0.10000
G04 P0 ( dwell for no time -- G64 should not smooth over this point )
G01 F360.00000
G01 X38.73957 Y12.64933
G01 X38.75354 Y12.54443
G01 X38.84295 Y12.32802
G01 X38.98544 Y12.14234
G01 X39.17137 Y11.99985
G01 X39.38753 Y11.91019
G01 X39.49268 Y11.89647
G01 X39.49268 Y12.15446
G01 X39.37665 Y12.18966
G01 X39.26688 Y12.24834
G01 X39.17066 Y12.32731
G01 X39.09169 Y12.42352
G01 X39.03302 Y12.53330
G01 X38.99781 Y12.64933
G01 X38.73957 Y12.64933
G04 P0 ( dwell for no time -- G64 should not smooth over this point )
G00 Z10.00000 ( retract )

G00 X38.73957 Y12.90333 ( rapid move to begin. )
G01 F30.00000
( Mill infeed pass 1/1 )
G01 Z-0.10000
G04 P0 ( dwell for no time -- G64 should not smooth over this point )
G01 F360.00000
G01 X38.73957 Y12.90333
G01 X38.75354 Y13.00848
G01 X38.84295 Y13.22464
G01 X38.98544 Y13.41057
G01 X39.17137 Y13.55280
G01 X39.38753 Y13.64244
G01 X39.49268 Y13.65644
G01 X39.49268 Y13.39817
G01 X39.37665 Y13.36297
G01 X39.26688 Y13.30429
G01 X39.17066 Y13.22532
G01 X39.09169 Y13.12911
G01 X39.03302 Y13.01933
G01 X38.99781 Y12.90333
G01 X38.73957 Y12.90333
G04 P0 ( dwell for no time -- G64 should not smooth over this point )
G00 Z10.00000 ( retract )

G00 X39.74668 Y11.89647 ( rapid move to begin. )
G01 F30.00000
( Mill infeed pass 1/1 )
G01 Z-0.10000
G04 P0 ( dwell for no time -- G64 should not smooth over this point )
G01 F360.00000
G01 X39.74668 Y11.89647
G01 X39.74668 Y12.15446
G01 X39.86268 Y12.18966
G01 X39.97246 Y12.24834
G01 X40.06868 Y12.32731
G01 X40.14765 Y12.42352
G01 X40.20632 Y12.53330
G01 X40.24152 Y12.64933
G01 X40.49954 Y12.64933
G01 X40.48557 Y12.54443
G01 X40.39616 Y12.32802
G01 X40.25367 Y12.14234
G01 X40.06799 Y11.99985
G01 X39.85158 Y11.91019
G01 X39.74668 Y11.89647
G04 P0 ( dwell for no time -- G64 should not smooth over this point )
G00 Z10.00000 ( retract )

G00 X39.74668 Y13.39817 ( rapid move to begin. )
G01 F30.00000
( Mill infeed pass 1/1 )
G01 Z-0.10000
G04 P0 ( dwell for no time -- G64 should not smooth over this point )
G01 F360.00000
G01 X39.74668 Y13.39817
G01 X39.74668 Y13.65644
G01 X39.85158 Y13.64244
G01 X40.06799 Y13.55280
G01 X40.25367 Y13.41057
G01 X40.39616 Y13.22464
G01 X40.48557 Y13.00848
G01 X40.49954 Y12.90333
G01 X40.24152 Y12.90333
G01 X40.20632 Y13.01933
G01 X40.14765 Y13.12911
G01 X40.06868 Y13.22532
G01 X39.97246 Y13.30429
G01 X39.86268 Y13.36297
G01 X39.74668 Y13.39817
G04 P0 ( dwell for no time -- G64 should not smooth over this point )
G00 Z10.00000 ( retract )

G00 X39.93131 Y15.68003 ( rapid move to begin. )
G01 F30.00000
( Mill infeed pass 1/1 )
G01 Z-0.10000
G04 P0 ( dwell for no time -- G64 should not smooth over this point )
G01 F360.00000
G01 X39.93131 Y15.68003
G01 X39.96121 Y15.42799
G01 X39.97556 Y15.36159
G01 X40.03500 Y15.19908
G01 X40.09845 Y15.06492
G01 X40.13507 Y15.00810
G01 X40.29215 Y14.80868
G01 X40.49151 Y14.65161
G01 X40.54864 Y14.61478
G01 X40.68247 Y14.55148
G01 X40.84531 Y14.49194
G01 X40.91140 Y14.47767
G01 X41.16349 Y14.44775
G01 X41.41554 Y14.47767
G01 X41.48191 Y14.49200
G01 X41.64449 Y14.55143
G01 X41.77853 Y14.61483
G01 X41.83545 Y14.65156
G01 X42.03482 Y14.80871
G01 X42.19194 Y15.00805
G01 X42.22869 Y15.06499
G01 X42.29207 Y15.19900
G01 X42.35153 Y15.36162
G01 X42.36585 Y15.42796
G01 X42.39577 Y15.68003
G01 X42.36583 Y15.93210
G01 X42.35155 Y15.99822
G01 X42.30159 Y16.13794
G01 X42.22872 Y16.29489
G01 X42.19189 Y16.35199
G01 X42.03482 Y16.55138
G01 X41.83543 Y16.70845
G01 X41.77861 Y16.74508
G01 X41.64444 Y16.80853
G01 X41.48193 Y16.86796
G01 X41.41551 Y16.88229
G01 X41.16349 Y16.91221
G01 X40.91142 Y16.88229
G01 X40.84528 Y16.86799
G01 X40.68252 Y16.80848
G01 X40.54856 Y16.74513
G01 X40.49156 Y16.70837
G01 X40.29215 Y16.55138
G01 X40.13512 Y16.35194
G01 X40.09840 Y16.29499
G01 X40.03502 Y16.16098
G01 X39.97554 Y15.99827
G01 X39.96124 Y15.93205
G01 X39.93131 Y15.68003
G04 P0 ( dwell for no time -- G64 should not smooth over this point )
G00 Z10.00000 ( retract )

G00 X37.46068 Y16.72747 ( rapid move to begin. )
G01 F30.00000
( Mill infeed pass 1/1 )
G01 Z-0.10000
G04 P0 ( dwell for no time -- G64 should not smooth over this point )
G01 F360.00000
G01 X37.46068 Y16.72747
G01 X37.48001 Y16.72557
G01 X37.62070 Y16.68290
G01 X37.75037 Y16.61358
G01 X37.86403 Y16.52029
G01 X37.95733 Y16.40662
G01 X38.02664 Y16.27695
G01 X38.06932 Y16.13626
G01 X38.07122 Y16.11693
G01 X38.32962 Y16.11693
G01 X38.31184 Y16.25206
G01 X38.21049 Y16.49641
G01 X38.04971 Y16.70596
G01 X37.83990 Y16.86700
G01 X37.59556 Y16.96809
G01 X37.46068 Y16.98587
G01 X37.46068 Y16.72747
G04 P0 ( dwell for no time -- G64 should not smooth over this point )
G00 Z10.00000 ( retract )

G00 X37.46068 Y14.99400 ( rapid move to begin. )
G01 F30.00000
( Mill infeed pass 1/1 )
G01 Z-0.10000
G04 P0 ( dwell for no time -- G64 should not smooth over this point )
G01 F360.00000
G01 X37.46068 Y14.99400
G01 X37.46068 Y15.25237
G01 X37.48001 Y15.25427
G01 X37.62070 Y15.29695
G01 X37.75037 Y15.36626
G01 X37.86403 Y15.45956
G01 X37.95733 Y15.57322
G01 X38.02664 Y15.70289
G01 X38.06932 Y15.84358
G01 X38.07122 Y15.86293
G01 X38.32962 Y15.86293
G01 X38.31184 Y15.72781
G01 X38.21049 Y15.48371
G01 X38.04971 Y15.27391
G01 X37.83990 Y15.11287
G01 X37.59556 Y15.01178
G01 X37.46068 Y14.99400
G04 P0 ( dwell for no time -- G64 should not smooth over this point )
G00 Z10.00000 ( retract )

G00 X36.45286 Y13.44993 ( rapid move to begin. )
G01 F30.00000
( Mill infeed pass 1/1 )
G01 Z-0.10000
G04 P0 ( dwell for no time -- G64 should not smooth over this point )
G01 F360.00000
G01 X36.45286 Y13.44993
G01 X36.47082 Y13.29106
G01 X36.48441 Y13.22233
G01 X36.52845 Y13.10287
G01 X36.57216 Y13.01041
G01 X36.59657 Y12.97257
G01 X36.71090 Y12.82710
G01 X36.85629 Y12.71278
G01 X36.89396 Y12.68847
G01 X36.98662 Y12.64468
G01 X37.10605 Y12.60066
G01 X37.17480 Y12.58707
G01 X37.33366 Y12.56911
G01 X37.51732 Y12.59119
G01 X37.56104 Y12.60064
G01 X37.65763 Y12.63515
G01 X37.77318 Y12.68844
G01 X37.83145 Y12.72746
G01 X37.95644 Y12.82710
G01 X38.07069 Y12.97262
G01 X38.09502 Y13.01039
G01 X38.13884 Y13.10289
G01 X38.18293 Y13.22240
G01 X38.19649 Y13.29103
G01 X38.21448 Y13.44993
G01 X38.19241 Y13.63360
G01 X38.18293 Y13.67747
G01 X38.14841 Y13.77389
G01 X38.09497 Y13.88969
G01 X38.05608 Y13.94767
G01 X37.95644 Y14.07272
G01 X37.81100 Y14.18702
G01 X37.77318 Y14.21140
G01 X37.68070 Y14.25512
G01 X37.56101 Y14.29921
G01 X37.49253 Y14.31275
G01 X37.33366 Y14.33073
G01 X37.17478 Y14.31275
G01 X37.10607 Y14.29918
G01 X36.98662 Y14.25517
G01 X36.89396 Y14.21138
G01 X36.85629 Y14.18704
G01 X36.71087 Y14.07272
G01 X36.59652 Y13.92728
G01 X36.57222 Y13.88963
G01 X36.52840 Y13.79695
G01 X36.48441 Y13.67754
G01 X36.47082 Y13.60876
G01 X36.45286 Y13.44993
G04 P0 ( dwell for no time -- G64 should not smooth over this point )
G00 Z10.00000 ( retract )

G00 X34.22399 Y15.18846 ( rapid move to begin. )
G01 F30.00000
( Mill infeed pass 1/1 )
G01 Z-0.10000
G04 P0 ( dwell for no time -- G64 should not smooth over this point )
G01 F360.00000
G01 X34.22399 Y15.18846
G01 X34.21202 Y15.24378
G01 X34.17352 Y15.35016
G01 X34.13590 Y15.41064
G01 X34.07123 Y15.49215
G01 X34.03216 Y15.55041
G01 X33.97890 Y15.66593
G01 X33.94441 Y15.76233
G01 X33.93491 Y15.80624
G01 X33.91286 Y15.98993
G01 X33.93491 Y16.17358
G01 X33.94441 Y16.21754
G01 X33.97885 Y16.31389
G01 X34.03224 Y16.42966
G01 X34.07115 Y16.48775
G01 X34.17070 Y16.61267
G01 X34.31629 Y16.72707
G01 X34.35393 Y16.75135
G01 X34.44662 Y16.79517
G01 X34.56607 Y16.83918
G01 X34.63478 Y16.85275
G01 X34.78091 Y16.86959
G01 X34.95253 Y16.85275
G01 X35.02101 Y16.83921
G01 X35.11763 Y16.80467
G01 X35.23320 Y16.75138
G01 X35.29145 Y16.71236
G01 X35.34136 Y16.67276
G01 X35.41522 Y16.63139
G01 X35.50453 Y16.60284
G01 X35.56638 Y16.58948
G01 X35.61464 Y16.66700
G01 X35.65294 Y16.74909
G01 X35.66571 Y16.83116
G01 X35.66571 Y17.68869
G01 X35.65299 Y17.77060
G01 X35.61484 Y17.85252
G01 X35.56643 Y17.93047
G01 X35.59553 Y18.01795
G01 X35.63236 Y18.16496
G01 X35.66051 Y18.34378
G01 X35.67036 Y18.51744
G01 X35.66312 Y18.68945
G01 X35.63236 Y18.89486
G01 X35.58311 Y19.08269
G01 X35.50785 Y19.28424
G01 X35.43831 Y19.43130
G01 X35.37859 Y19.53877
G01 X35.21225 Y19.65665
G01 X35.08225 Y19.73456
G01 X34.98350 Y19.78680
G01 X34.95962 Y19.81065
G01 X34.83955 Y19.85361
G01 X34.75137 Y19.89005
G01 X34.61017 Y19.95683
G01 X34.41362 Y20.07024
G01 X34.36135 Y20.10517
G01 X34.19876 Y20.22912
G01 X34.08967 Y20.32803
G01 X33.96252 Y20.46437
G01 X33.86531 Y20.47390
G01 X33.74301 Y20.50293
G01 X33.65180 Y20.56305
G01 X32.95289 Y21.26115
G01 X32.86638 Y21.33026
G01 X32.82196 Y21.36036
G01 X32.75901 Y21.39013
G01 X32.67039 Y21.42312
G01 X32.61774 Y21.43326
G01 X32.49915 Y21.44616
G01 X23.11552 Y21.44616
G01 X23.00529 Y21.46948
G01 X22.98362 Y21.57641
G01 X22.98362 Y22.59393
G01 X23.00346 Y22.69620
G01 X23.11552 Y22.72094
G01 X23.17318 Y22.72094
G01 X23.27839 Y22.74270
G01 X23.30018 Y22.84793
G01 X23.30018 Y24.37191
G01 X23.27839 Y24.47714
G01 X23.17318 Y24.49893
G01 X23.11552 Y24.49893
G01 X23.00346 Y24.52365
G01 X22.98362 Y24.62593
G01 X22.98362 Y25.13393
G01 X23.00346 Y25.23620
G01 X23.11552 Y25.26093
G01 X23.17318 Y25.26093
G01 X23.27839 Y25.28270
G01 X23.30018 Y25.38793
G01 X23.30018 Y26.91191
G01 X23.27839 Y27.01714
G01 X23.17318 Y27.03891
G01 X22.03016 Y27.03891
G01 X21.92495 Y27.01714
G01 X21.90316 Y26.91191
G01 X21.90316 Y25.38793
G01 X21.92495 Y25.28270
G01 X22.03016 Y25.26093
G01 X22.08759 Y25.26093
G01 X22.19980 Y25.23612
G01 X22.21959 Y25.13393
G01 X22.21959 Y24.62593
G01 X22.19980 Y24.52373
G01 X22.08759 Y24.49893
G01 X22.03016 Y24.49893
G01 X21.92495 Y24.47714
G01 X21.90316 Y24.37191
G01 X21.90316 Y22.84793
G01 X21.92495 Y22.74270
G01 X22.03016 Y22.72094
G01 X22.08759 Y22.72094
G01 X22.19980 Y22.69612
G01 X22.21959 Y22.59393
G01 X22.21959 Y21.57641
G01 X22.19797 Y21.46955
G01 X22.08759 Y21.44616
G01 X2.79819 Y21.44616
G01 X2.67957 Y21.43323
G01 X2.62694 Y21.42312
G01 X2.53830 Y21.39013
G01 X2.47536 Y21.36036
G01 X2.45135 Y21.34486
G01 X2.33802 Y21.25553
G01 X1.58803 Y20.50557
G01 X1.51331 Y20.41258
G01 X1.48323 Y20.36823
G01 X1.44389 Y20.28220
G01 X1.42044 Y20.21665
G01 X1.41442 Y20.18871
G01 X1.39743 Y20.04540
G01 X1.39743 Y19.54594
G01 X1.36911 Y19.42445
G01 X1.36047 Y19.41802
G01 X1.32916 Y19.29193
G01 X1.32916 Y17.76793
G01 X1.36047 Y17.64182
G01 X1.36911 Y17.63540
G01 X1.39743 Y17.51393
G01 X1.39743 Y16.49793
G01 X1.36911 Y16.37645
G01 X1.36047 Y16.37002
G01 X1.32916 Y16.24394
G01 X1.32916 Y14.71994
G01 X1.36047 Y14.59382
G01 X1.36911 Y14.58740
G01 X1.39743 Y14.46593
G01 X1.39743 Y13.06995
G01 X1.38610 Y12.99314
G01 X1.26952 Y12.91194
G01 X1.14209 Y12.81097
G01 X1.04125 Y12.68438
G01 X1.00185 Y12.62550
G01 X0.94785 Y12.50846
G01 X0.91280 Y12.41052
G01 X0.89906 Y12.34110
G01 X0.88194 Y12.16716
G01 X0.89906 Y12.01875
G01 X0.91280 Y11.94933
G01 X0.95740 Y11.82832
G01 X1.00183 Y11.73434
G01 X1.02659 Y11.69591
G01 X1.14234 Y11.54854
G01 X1.26916 Y11.44748
G01 X1.32791 Y11.40813
G01 X1.44508 Y11.35405
G01 X1.54277 Y11.31910
G01 X1.61249 Y11.30534
G01 X1.77366 Y11.28718
G01 X1.95966 Y11.30945
G01 X2.00431 Y11.31908
G01 X2.10221 Y11.35410
G01 X2.21925 Y11.40811
G01 X2.27813 Y11.44750
G01 X2.40500 Y11.54859
G01 X2.50607 Y11.67544
G01 X2.54549 Y11.73434
G01 X2.58994 Y11.82830
G01 X2.63451 Y11.94928
G01 X2.64823 Y12.01872
G01 X2.66642 Y12.17988
G01 X2.64777 Y12.33863
G01 X2.65791 Y12.44252
G01 X2.65791 Y14.46593
G01 X2.68623 Y14.58740
G01 X2.69486 Y14.59382
G01 X2.72618 Y14.71994
G01 X2.72618 Y16.24394
G01 X2.69486 Y16.37002
G01 X2.68623 Y16.37645
G01 X2.65791 Y16.49793
G01 X2.65791 Y17.51393
G01 X2.68623 Y17.63540
G01 X2.69486 Y17.64182
G01 X2.72618 Y17.76793
G01 X2.72618 Y19.29193
G01 X2.69486 Y19.41802
G01 X2.68623 Y19.42445
G01 X2.65791 Y19.54594
G01 X2.65791 Y19.73897
G01 X2.66306 Y19.79074
G01 X2.69606 Y19.83105
G01 X3.01254 Y20.14751
G01 X3.05285 Y20.18053
G01 X3.10462 Y20.18566
G01 X32.19247 Y20.18566
G01 X32.24446 Y20.18048
G01 X32.28459 Y20.14758
G01 X33.88251 Y18.54967
G01 X33.91040 Y18.51675
G01 X33.95215 Y18.24299
G01 X33.90748 Y18.18391
G01 X33.37390 Y17.65043
G01 X33.33372 Y17.61744
G01 X33.28060 Y17.61211
G01 X30.53461 Y17.61211
G01 X30.45272 Y17.62483
G01 X30.37083 Y17.66301
G01 X30.28673 Y17.71531
G01 X30.29824 Y17.76867
G01 X30.34111 Y17.88310
G01 X30.35513 Y17.90685
G01 X30.44607 Y18.02544
G01 X30.48549 Y18.08434
G01 X30.53946 Y18.20136
G01 X30.57451 Y18.29928
G01 X30.58823 Y18.36872
G01 X30.60527 Y18.54271
G01 X30.58414 Y18.71591
G01 X30.57451 Y18.76057
G01 X30.53949 Y18.85846
G01 X30.48551 Y18.97545
G01 X30.44604 Y19.03435
G01 X30.35315 Y19.15135
G01 X30.33512 Y19.16941
G01 X30.19765 Y19.27697
G01 X30.15920 Y19.30176
G01 X30.06527 Y19.34619
G01 X29.94424 Y19.39077
G01 X29.87484 Y19.40453
G01 X29.71366 Y19.42280
G01 X29.55247 Y19.40453
G01 X29.48285 Y19.39074
G01 X29.36202 Y19.34621
G01 X29.26791 Y19.30171
G01 X29.20916 Y19.26237
G01 X29.08236 Y19.16130
G01 X28.98125 Y19.03438
G01 X28.94185 Y18.97550
G01 X28.89740 Y18.88150
G01 X28.85280 Y18.76052
G01 X28.84317 Y18.71591
G01 X28.82080 Y18.52991
G01 X28.83906 Y18.36875
G01 X28.85280 Y18.29933
G01 X28.88785 Y18.20136
G01 X28.94185 Y18.08434
G01 X28.98125 Y18.02547
G01 X29.05181 Y17.93651
G01 X29.08620 Y17.88310
G01 X29.12908 Y17.76870
G01 X29.14061 Y17.71531
G01 X29.37081 Y17.65696
G01 X29.52018 Y17.63479
G01 X29.69956 Y17.62450
G01 X29.87716 Y17.63184
G01 X30.05651 Y17.65696
G01 X30.28584 Y17.71498
G01 X30.05651 Y17.65696
G01 X29.87716 Y17.63184
G01 X29.69956 Y17.62450
G01 X29.52018 Y17.63479
G01 X29.37081 Y17.65696
G01 X29.14061 Y17.71531
G01 X29.05651 Y17.66301
G01 X28.97462 Y17.62483
G01 X28.89275 Y17.61211
G01 X23.23422 Y17.61211
G01 X23.16640 Y17.62727
G01 X23.10514 Y17.63603
G01 X23.04377 Y17.62724
G01 X22.95939 Y17.60703
G01 X22.88540 Y17.56169
G01 X22.83584 Y17.52458
G01 X22.34072 Y17.03126
G01 X22.29528 Y16.97162
G01 X22.24982 Y16.89750
G01 X22.23450 Y16.83766
G01 X22.21959 Y16.73890
G01 X22.21959 Y16.49793
G01 X22.19980 Y16.39573
G01 X22.08759 Y16.37093
G01 X22.03016 Y16.37093
G01 X21.92495 Y16.34914
G01 X21.90316 Y16.24394
G01 X21.90316 Y14.71994
G01 X21.92495 Y14.61470
G01 X22.03016 Y14.59293
G01 X22.08759 Y14.59293
G01 X22.19980 Y14.56812
G01 X22.21959 Y14.46593
G01 X22.21959 Y12.17991
G01 X22.19980 Y12.07773
G01 X22.08759 Y12.05291
G01 X22.03016 Y12.05291
G01 X21.92495 Y12.03114
G01 X21.90316 Y11.92594
G01 X21.90316 Y10.40193
G01 X21.92495 Y10.29670
G01 X22.03016 Y10.27493
G01 X22.08759 Y10.27493
G01 X22.19980 Y10.25012
G01 X22.21959 Y10.14794
G01 X22.21959 Y9.63991
G01 X22.19980 Y9.53773
G01 X22.08759 Y9.51293
G01 X22.03016 Y9.51293
G01 X21.92495 Y9.49114
G01 X21.90316 Y9.38593
G01 X21.90316 Y7.86194
G01 X21.92495 Y7.75670
G01 X22.03016 Y7.73491
G01 X23.17318 Y7.73491
G01 X23.27839 Y7.75670
G01 X23.30018 Y7.86194
G01 X23.30018 Y9.38593
G01 X23.27839 Y9.49114
G01 X23.17318 Y9.51293
G01 X23.11552 Y9.51293
G01 X23.00346 Y9.53765
G01 X22.98362 Y9.63991
G01 X22.98362 Y10.14794
G01 X23.00346 Y10.25020
G01 X23.11552 Y10.27493
G01 X23.17318 Y10.27493
G01 X23.27839 Y10.29670
G01 X23.30018 Y10.40193
G01 X23.30018 Y11.92594
G01 X23.27839 Y12.03114
G01 X23.17318 Y12.05291
G01 X23.11552 Y12.05291
G01 X23.00346 Y12.07765
G01 X22.98362 Y12.17991
G01 X22.98362 Y14.46593
G01 X23.00346 Y14.56820
G01 X23.11552 Y14.59293
G01 X23.17318 Y14.59293
G01 X23.27839 Y14.61470
G01 X23.30018 Y14.71994
G01 X23.30018 Y16.24394
G01 X23.27839 Y16.34914
G01 X23.17318 Y16.37977
G01 X23.07039 Y16.42770
G01 X23.04948 Y16.44167
G01 X23.02388 Y16.57703
G01 X23.09846 Y16.70853
G01 X23.25009 Y16.86016
G01 X23.29043 Y16.89329
G01 X23.34336 Y16.89862
G01 X28.69768 Y16.89862
G01 X28.83091 Y16.86491
G01 X28.82468 Y16.75193
G01 X28.82468 Y15.99578
G01 X28.79994 Y15.88371
G01 X28.69768 Y15.86387
G01 X25.45918 Y15.86387
G01 X25.35690 Y15.88371
G01 X25.33216 Y15.99578
G01 X25.33216 Y16.24394
G01 X25.31039 Y16.34914
G01 X25.20516 Y16.37093
G01 X24.06218 Y16.37093
G01 X23.95695 Y16.34914
G01 X23.93518 Y16.24394
G01 X23.93518 Y14.71994
G01 X23.95695 Y14.61470
G01 X24.06218 Y14.59293
G01 X25.20516 Y14.59293
G01 X25.31039 Y14.61470
G01 X25.33216 Y14.71994
G01 X25.33216 Y14.96809
G01 X25.35690 Y15.08013
G01 X25.45918 Y15.09997
G01 X29.19291 Y15.09799
G01 X29.23515 Y15.10093
G01 X30.47568 Y15.10093
G01 X30.58089 Y15.12270
G01 X30.60266 Y15.22794
G01 X30.60266 Y16.75193
G01 X30.59643 Y16.86491
G01 X30.47568 Y16.89113
G01 X28.95168 Y16.89113
G01 X28.83091 Y16.86491
G01 X28.95168 Y16.89113
G01 X30.47568 Y16.89113
G01 X30.59643 Y16.86491
G01 X30.72968 Y16.89862
G01 X33.38993 Y16.89859
G01 X33.45785 Y16.88341
G01 X33.51903 Y16.87467
G01 X33.58032 Y16.88343
G01 X33.66468 Y16.90362
G01 X33.73869 Y16.94909
G01 X33.79828 Y16.99448
G01 X34.44768 Y17.64378
G01 X34.50674 Y17.68841
G01 X34.63481 Y17.66707
G01 X34.79366 Y17.64911
G01 X34.95251 Y17.66707
G01 X35.02104 Y17.68064
G01 X35.11763 Y17.71515
G01 X35.23313 Y17.76842
G01 X35.29142 Y17.80751
G01 X35.34128 Y17.84713
G01 X35.41512 Y17.88856
G01 X35.50491 Y17.91721
G01 X35.56643 Y17.93047
G01 X35.61484 Y17.85252
G01 X35.65299 Y17.77060
G01 X35.66571 Y17.68869
G01 X35.66571 Y16.83116
G01 X35.65294 Y16.74909
G01 X35.61464 Y16.66700
G01 X35.56638 Y16.58948
G01 X35.59553 Y16.50187
G01 X35.63869 Y16.32306
G01 X35.66051 Y16.17604
G01 X35.67036 Y16.00241
G01 X35.66312 Y15.83037
G01 X35.63869 Y15.65676
G01 X35.59772 Y15.48674
G01 X35.56785 Y15.44965
G01 X35.44298 Y15.31460
G01 X35.33389 Y15.21574
G01 X35.26211 Y15.16014
G01 X35.13155 Y15.12923
G01 X34.95474 Y15.10449
G01 X34.80770 Y15.09728
G01 X34.63257 Y15.10449
G01 X34.42071 Y15.13622
G01 X34.22399 Y15.18846
G01 X34.14123 Y15.13695
G01 X34.05914 Y15.09865
G01 X33.97707 Y15.08587
G01 X32.88563 Y15.08587
G01 X32.81134 Y15.07581
G01 X32.72676 Y15.05557
G01 X32.65297 Y15.01028
G01 X32.59331 Y14.96487
G01 X30.07015 Y12.44168
G01 X30.00997 Y12.39642
G01 X29.87484 Y12.41951
G01 X29.71366 Y12.43780
G01 X29.55247 Y12.41953
G01 X29.48285 Y12.40574
G01 X29.36202 Y12.36121
G01 X29.26791 Y12.31671
G01 X29.20916 Y12.27737
G01 X29.07411 Y12.16640
G01 X28.98125 Y12.04938
G01 X28.94185 Y11.99050
G01 X28.88785 Y11.87346
G01 X28.85280 Y11.77552
G01 X28.84317 Y11.73091
G01 X28.82080 Y11.54491
G01 X28.84317 Y11.35891
G01 X28.85280 Y11.31433
G01 X28.88785 Y11.21636
G01 X28.94185 Y11.09934
G01 X28.98125 Y11.04047
G01 X29.03134 Y10.97735
G01 X29.06702 Y10.91761
G01 X29.10350 Y10.81275
G01 X29.11635 Y10.75337
G01 X29.19252 Y10.72838
G01 X29.37459 Y10.68443
G01 X29.55143 Y10.65957
G01 X29.70080 Y10.65223
G01 X29.87589 Y10.65957
G01 X30.05272 Y10.68443
G01 X30.23479 Y10.72838
G01 X30.31084 Y10.75332
G01 X30.39024 Y10.70389
G01 X30.47233 Y10.66559
G01 X30.55442 Y10.65281
G01 X32.62551 Y10.65281
G01 X32.69978 Y10.64275
G01 X32.78439 Y10.62248
G01 X32.85813 Y10.57725
G01 X32.91784 Y10.53178
G01 X33.40524 Y10.04448
G01 X33.44598 Y10.01111
G01 X33.49854 Y10.00587
G01 X33.97707 Y10.00587
G01 X34.05914 Y10.01865
G01 X34.14123 Y10.05695
G01 X34.22399 Y10.10846
G01 X34.21202 Y10.16378
G01 X34.17352 Y10.27016
G01 X34.13590 Y10.33066
G01 X34.07120 Y10.41209
G01 X34.03216 Y10.47039
G01 X33.98843 Y10.56287
G01 X33.94441 Y10.68233
G01 X33.93082 Y10.75106
G01 X33.91286 Y10.90994
G01 X33.93491 Y11.09358
G01 X33.94441 Y11.13754
G01 X33.97885 Y11.23389
G01 X34.03224 Y11.34966
G01 X34.07115 Y11.40775
G01 X34.17070 Y11.53267
G01 X34.31629 Y11.64707
G01 X34.35393 Y11.67135
G01 X34.44662 Y11.71517
G01 X34.56607 Y11.75918
G01 X34.63478 Y11.77275
G01 X34.79366 Y11.79073
G01 X34.95253 Y11.77275
G01 X35.02101 Y11.75921
G01 X35.11763 Y11.72467
G01 X35.23318 Y11.67140
G01 X35.29145 Y11.63236
G01 X35.41644 Y11.53272
G01 X35.51608 Y11.40767
G01 X35.55497 Y11.34969
G01 X35.60841 Y11.23389
G01 X35.64293 Y11.13747
G01 X35.65241 Y11.09360
G01 X35.67448 Y10.90994
G01 X35.65649 Y10.75103
G01 X35.64293 Y10.68240
G01 X35.59884 Y10.56289
G01 X35.55502 Y10.47034
G01 X35.51606 Y10.41215
G01 X35.40778 Y10.27747
G01 X35.34788 Y10.17623
G01 X35.31829 Y10.09421
G01 X35.16660 Y10.05622
G01 X34.98454 Y10.02744
G01 X34.77964 Y10.01728
G01 X34.63257 Y10.02449
G01 X34.45576 Y10.04923
G01 X34.27367 Y10.09305
G01 X34.22399 Y10.10846
G01 X34.27367 Y10.09305
G01 X34.45576 Y10.04923
G01 X34.63257 Y10.02449
G01 X34.77964 Y10.01728
G01 X34.98454 Y10.02744
G01 X35.16660 Y10.05622
G01 X35.31829 Y10.09421
G01 X35.45462 Y10.00608
G01 X35.51768 Y9.95464
G01 X35.59228 Y9.88489
G01 X36.48682 Y8.99023
G01 X36.59078 Y8.92475
G01 X36.60508 Y8.91939
G01 X36.62810 Y8.93122
G01 X36.69830 Y8.98098
G01 X36.83584 Y9.09239
G01 X36.89396 Y9.13138
G01 X37.00968 Y9.18472
G01 X37.10607 Y9.21918
G01 X37.17478 Y9.23275
G01 X37.33366 Y9.25073
G01 X37.49253 Y9.23275
G01 X37.62055 Y9.21144
G01 X37.67948 Y9.25601
G01 X39.34031 Y10.91687
G01 X39.39997 Y10.96228
G01 X39.47376 Y11.00757
G01 X39.55834 Y11.02782
G01 X39.63264 Y11.03787
G01 X42.92468 Y11.03787
G01 X42.99897 Y11.02782
G01 X43.08330 Y11.00762
G01 X43.22072 Y10.92197
G01 X43.29163 Y10.93963
G01 X43.38411 Y10.97277
G01 X43.44086 Y10.98504
G01 X43.65074 Y11.01042
G01 X43.67647 Y11.01042
G01 X43.86148 Y10.98913
G01 X43.94289 Y10.97280
G01 X44.08714 Y10.91987
G01 X44.20334 Y10.86488
G01 X44.25211 Y10.83346
G01 X44.41853 Y10.70308
G01 X44.43669 Y10.68492
G01 X44.55241 Y10.53897
G01 X44.59849 Y10.46973
G01 X44.66303 Y10.33046
G01 X44.70641 Y10.20928
G01 X44.71863 Y10.15271
G01 X44.74520 Y9.92998
G01 X44.71866 Y9.70725
G01 X44.70639 Y9.65045
G01 X44.66308 Y9.52950
G01 X44.59846 Y9.39005
G01 X44.55244 Y9.32094
G01 X44.42844 Y9.16513
G01 X44.27263 Y9.04110
G01 X44.20329 Y8.99495
G01 X44.06407 Y8.93049
G01 X43.94294 Y8.88718
G01 X43.86146 Y8.87085
G01 X43.66359 Y8.84839
G01 X43.44086 Y8.87494
G01 X43.38401 Y8.88721
G01 X43.26308 Y8.93044
G01 X43.12371 Y8.99498
G01 X43.05452 Y9.04108
G01 X42.89875 Y9.16513
G01 X42.77469 Y9.32091
G01 X42.72859 Y9.39010
G01 X42.66405 Y9.52947
G01 X42.62082 Y9.65040
G01 X42.60855 Y9.70725
G01 X42.58201 Y9.93005
G01 X42.59311 Y10.02975
G01 X42.58564 Y10.12970
G01 X42.56573 Y10.21725
G01 X42.50060 Y10.24682
G01 X42.38092 Y10.27397
G01 X41.40172 Y10.27397
G01 X41.28267 Y10.24710
G01 X41.16362 Y10.16648
G01 X41.04455 Y10.24710
G01 X40.92550 Y10.27397
G01 X39.83251 Y10.27397
G01 X39.78003 Y10.26874
G01 X39.73927 Y10.23536
G01 X38.21966 Y8.71583
G01 X38.17503 Y8.65685
G01 X38.19642 Y8.52879
G01 X38.21448 Y8.36986
G01 X38.19649 Y8.21103
G01 X38.18293 Y8.14240
G01 X38.13884 Y8.02289
G01 X38.09502 Y7.93039
G01 X38.05606 Y7.87217
G01 X37.95644 Y7.74710
G01 X37.83145 Y7.64746
G01 X37.77318 Y7.60844
G01 X37.65763 Y7.55515
G01 X37.56104 Y7.52064
G01 X37.51732 Y7.51119
G01 X37.33366 Y7.48911
G01 X37.17480 Y7.50707
G01 X37.10605 Y7.52066
G01 X36.98662 Y7.56468
G01 X36.89396 Y7.60847
G01 X36.83584 Y7.64743
G01 X36.71090 Y7.74710
G01 X36.61123 Y7.87215
G01 X36.53752 Y7.98500
G01 X36.42116 Y8.01827
G01 X36.36815 Y8.04974
G01 X36.30803 Y8.09285
G01 X36.28774 Y8.10910
G01 X36.00503 Y8.39180
G01 X35.93800 Y8.44080
G01 X35.85296 Y8.47174
G01 X35.76394 Y8.49249
G01 X35.72269 Y8.57491
G01 X35.64476 Y8.70488
G01 X35.52126 Y8.87192
G01 X35.40476 Y8.99864
G01 X35.29566 Y9.09752
G01 X35.14255 Y9.21222
G01 X34.95319 Y9.23938
G01 X34.80615 Y9.24662
G01 X34.63412 Y9.23938
G01 X34.42871 Y9.20862
G01 X34.28169 Y9.17179
G01 X34.19411 Y9.14263
G01 X34.11659 Y9.19089
G01 X34.03450 Y9.22919
G01 X33.95241 Y9.24197
G01 X33.29864 Y9.24197
G01 X33.22442 Y9.25200
G01 X33.15233 Y9.26879
G01 X33.13976 Y9.27227
G01 X33.08678 Y9.30366
G01 X33.00631 Y9.36297
G01 X32.51891 Y9.85030
G01 X32.47814 Y9.88367
G01 X32.42564 Y9.88891
G01 X30.72968 Y9.88891
G01 X30.60649 Y9.86015
G01 X30.60266 Y9.75703
G01 X30.60266 Y8.24293
G01 X30.58089 Y8.13770
G01 X30.47568 Y8.11594
G01 X28.95168 Y8.11594
G01 X28.84454 Y8.13852
G01 X28.80101 Y8.22173
G01 X28.69768 Y8.24197
G01 X25.45918 Y8.24197
G01 X25.35690 Y8.22213
G01 X25.33216 Y8.11009
G01 X25.33216 Y7.86194
G01 X25.31039 Y7.75670
G01 X25.20516 Y7.73491
G01 X24.06218 Y7.73491
G01 X23.95695 Y7.75670
G01 X23.93518 Y7.86194
G01 X23.93518 Y9.38593
G01 X23.95695 Y9.49114
G01 X24.06218 Y9.51293
G01 X25.20516 Y9.51293
G01 X25.31039 Y9.49114
G01 X25.33216 Y9.38593
G01 X25.33216 Y9.13778
G01 X25.35690 Y9.02571
G01 X25.45918 Y9.00587
G01 X28.69768 Y9.00587
G01 X28.79994 Y9.02571
G01 X28.82468 Y9.13778
G01 X28.82468 Y9.75703
G01 X28.82085 Y9.86015
G01 X28.95168 Y9.89386
G01 X30.47568 Y9.89386
G01 X30.60649 Y9.86015
G01 X30.47568 Y9.89386
G01 X28.95168 Y9.89386
G01 X28.82085 Y9.86015
G01 X28.69768 Y9.88891
G01 X27.57147 Y9.88891
G01 X27.47274 Y9.90382
G01 X27.41287 Y9.91913
G01 X27.33881 Y9.96462
G01 X27.27930 Y10.00999
G01 X26.54607 Y10.74334
G01 X26.50526 Y10.77676
G01 X26.45283 Y10.78197
G01 X25.45918 Y10.78197
G01 X25.35690 Y10.76213
G01 X25.33216 Y10.65009
G01 X25.33216 Y10.40193
G01 X25.31039 Y10.29670
G01 X25.20516 Y10.27493
G01 X24.06218 Y10.27493
G01 X23.95695 Y10.29670
G01 X23.93518 Y10.40193
G01 X23.93518 Y11.92594
G01 X23.95695 Y12.03114
G01 X24.06218 Y12.05291
G01 X25.20516 Y12.05291
G01 X25.31039 Y12.03114
G01 X25.33216 Y11.92594
G01 X25.33216 Y11.67778
G01 X25.35690 Y11.56571
G01 X25.45918 Y11.54587
G01 X26.65268 Y11.54587
G01 X26.72700 Y11.53582
G01 X26.81133 Y11.51562
G01 X26.88537 Y11.47018
G01 X26.94480 Y11.42492
G01 X27.67805 Y10.69147
G01 X27.71887 Y10.65802
G01 X27.77134 Y10.65281
G01 X28.87269 Y10.65281
G01 X28.95476 Y10.66559
G01 X29.03685 Y10.70389
G01 X29.11635 Y10.75337
G01 X29.19252 Y10.72838
G01 X29.34190 Y10.69096
G01 X29.52397 Y10.66228
G01 X29.70080 Y10.65223
G01 X29.87589 Y10.65957
G01 X30.08541 Y10.69096
G01 X30.23479 Y10.72838
G01 X30.31084 Y10.75332
G01 X30.32369 Y10.81283
G01 X30.36021 Y10.91768
G01 X30.39593 Y10.97740
G01 X30.44604 Y11.04049
G01 X30.48551 Y11.09942
G01 X30.52994 Y11.19330
G01 X30.57451 Y11.31428
G01 X30.58823 Y11.38372
G01 X30.60642 Y11.54493
G01 X30.58823 Y11.70610
G01 X30.56512 Y11.84123
G01 X30.61051 Y11.90158
G01 X32.99226 Y14.28333
G01 X33.03303 Y14.31674
G01 X33.08551 Y14.32197
G01 X33.95241 Y14.32197
G01 X34.03443 Y14.30922
G01 X34.11642 Y14.27099
G01 X34.19417 Y14.22265
G01 X34.18093 Y14.16131
G01 X34.15221 Y14.07145
G01 X34.11088 Y13.99781
G01 X34.07115 Y13.94775
G01 X34.03224 Y13.88969
G01 X33.97885 Y13.77389
G01 X33.94441 Y13.67754
G01 X33.93082 Y13.60876
G01 X33.91400 Y13.43716
G01 X33.93082 Y13.29106
G01 X33.94441 Y13.22233
G01 X33.98845 Y13.10287
G01 X34.03219 Y13.01039
G01 X34.07120 Y12.95212
G01 X34.17072 Y12.82715
G01 X34.29584 Y12.72741
G01 X34.35393 Y12.68849
G01 X34.46968 Y12.63513
G01 X34.56605 Y12.60066
G01 X34.63481 Y12.58707
G01 X34.79366 Y12.56911
G01 X34.95251 Y12.58707
G01 X35.02104 Y12.60064
G01 X35.14067 Y12.64470
G01 X35.23318 Y12.68844
G01 X35.27100 Y12.71283
G01 X35.41644 Y12.82710
G01 X35.51606 Y12.95217
G01 X35.55502 Y13.01039
G01 X35.59884 Y13.10289
G01 X35.64293 Y13.22240
G01 X35.65649 Y13.29103
G01 X35.67333 Y13.46269
G01 X35.65241 Y13.63360
G01 X35.64293 Y13.67747
G01 X35.60841 Y13.77389
G01 X35.55497 Y13.88966
G01 X35.42853 Y14.06606
G01 X35.38685 Y14.16677
G01 X35.36968 Y14.23104
G01 X35.30562 Y14.25179
G01 X35.12680 Y14.29494
G01 X34.95319 Y14.31938
G01 X34.78119 Y14.32662
G01 X34.60753 Y14.31676
G01 X34.46051 Y14.29494
G01 X34.28169 Y14.25179
G01 X34.19417 Y14.22265
G01 X34.28169 Y14.25179
G01 X34.46051 Y14.29494
G01 X34.60753 Y14.31676
G01 X34.78119 Y14.32662
G01 X34.95319 Y14.31938
G01 X35.12680 Y14.29494
G01 X35.30562 Y14.25179
G01 X35.36968 Y14.23104
G01 X35.46645 Y14.29720
G01 X35.51316 Y14.32268
G01 X35.60780 Y14.35844
G01 X35.67069 Y14.39756
G01 X35.73036 Y14.44297
G01 X36.30854 Y15.02115
G01 X36.35385 Y15.08061
G01 X36.39939 Y15.15476
G01 X36.42020 Y15.23891
G01 X36.44141 Y15.30030
G01 X36.47737 Y15.36471
G01 X36.52667 Y15.43606
G01 X36.47298 Y15.65201
G01 X36.44824 Y15.82882
G01 X36.44102 Y15.97589
G01 X36.44824 Y16.15100
G01 X36.47298 Y16.32781
G01 X36.51679 Y16.50990
G01 X36.53218 Y16.55956
G01 X36.48060 Y16.64254
G01 X36.44237 Y16.72453
G01 X36.42962 Y16.80654
G01 X36.42962 Y17.71333
G01 X36.44237 Y17.79532
G01 X36.48060 Y17.87731
G01 X36.53218 Y17.96029
G01 X36.58700 Y17.94845
G01 X36.69388 Y17.90974
G01 X36.75418 Y17.87223
G01 X36.83584 Y17.80741
G01 X36.89393 Y17.76849
G01 X37.00968 Y17.71513
G01 X37.10605 Y17.68066
G01 X37.14999 Y17.67116
G01 X37.33366 Y17.64911
G01 X37.49251 Y17.66707
G01 X37.56104 Y17.68064
G01 X37.65763 Y17.71515
G01 X37.77318 Y17.76844
G01 X37.83145 Y17.80746
G01 X37.95644 Y17.90710
G01 X38.07069 Y18.05262
G01 X38.09502 Y18.09039
G01 X38.13884 Y18.18289
G01 X38.18293 Y18.30240
G01 X38.19649 Y18.37103
G01 X38.21333 Y18.51716
G01 X38.21333 Y18.54271
G01 X38.19241 Y18.71360
G01 X38.18293 Y18.75744
G01 X38.13884 Y18.87692
G01 X38.09502 Y18.96946
G01 X38.05606 Y19.02765
G01 X37.95641 Y19.15274
G01 X37.83145 Y19.25236
G01 X37.77318 Y19.29140
G01 X37.65763 Y19.34467
G01 X37.56101 Y19.37921
G01 X37.49253 Y19.39275
G01 X37.33366 Y19.41073
G01 X37.17478 Y19.39275
G01 X37.10607 Y19.37918
G01 X36.98662 Y19.33517
G01 X36.89393 Y19.29135
G01 X36.83582 Y19.25241
G01 X36.75421 Y19.18762
G01 X36.69388 Y19.15008
G01 X36.58700 Y19.11137
G01 X36.53218 Y19.09956
G01 X36.53025 Y19.09415
G01 X36.47298 Y18.86781
G01 X36.44824 Y18.69100
G01 X36.44102 Y18.51589
G01 X36.44824 Y18.36882
G01 X36.47298 Y18.19201
G01 X36.51679 Y18.00992
G01 X36.53218 Y17.96029
G01 X36.51679 Y18.00992
G01 X36.47298 Y18.19201
G01 X36.44824 Y18.36882
G01 X36.44102 Y18.51589
G01 X36.44824 Y18.69100
G01 X36.47298 Y18.86781
G01 X36.51679 Y19.04990
G01 X36.53218 Y19.09956
G01 X36.48060 Y19.18254
G01 X36.44237 Y19.26453
G01 X36.42962 Y19.34652
G01 X36.42962 Y19.80291
G01 X36.41956 Y19.87723
G01 X36.39937 Y19.96156
G01 X36.35395 Y20.03552
G01 X36.30844 Y20.09529
G01 X35.67981 Y20.72394
G01 X35.63516 Y20.78302
G01 X35.65652 Y20.91103
G01 X35.67448 Y21.06991
G01 X35.65649 Y21.22879
G01 X35.64293 Y21.29747
G01 X35.59886 Y21.41692
G01 X35.55497 Y21.50969
G01 X35.53074 Y21.54725
G01 X35.41644 Y21.69272
G01 X35.29145 Y21.79236
G01 X35.23318 Y21.83140
G01 X35.11763 Y21.88467
G01 X35.02101 Y21.91921
G01 X34.97732 Y21.92866
G01 X34.79366 Y21.95073
G01 X34.60999 Y21.92866
G01 X34.56607 Y21.91918
G01 X34.46968 Y21.88472
G01 X34.35393 Y21.83135
G01 X34.29582 Y21.79241
G01 X34.16257 Y21.68294
G01 X34.07115 Y21.56775
G01 X34.03224 Y21.50966
G01 X33.97885 Y21.39389
G01 X33.94441 Y21.29754
G01 X33.93082 Y21.22876
G01 X33.91400 Y21.05716
G01 X33.93491 Y20.88624
G01 X33.94443 Y20.84220
G01 X33.96846 Y20.77481
G01 X33.98281 Y20.71987
G01 X33.97827 Y20.55071
G01 X33.96252 Y20.46437
G04 P0 ( dwell for no time -- G64 should not smooth over this point )
G00 Z10.00000 ( retract )

G00 X31.87268 Y22.31047 ( rapid move to begin. )
G01 F30.00000
( Mill infeed pass 1/1 )
G01 Z-0.10000
G04 P0 ( dwell for no time -- G64 should not smooth over this point )
G01 F360.00000
G01 X31.87268 Y22.31047
G01 X31.87268 Y22.56846
G01 X31.98868 Y22.60366
G01 X32.09846 Y22.66234
G01 X32.19468 Y22.74131
G01 X32.27365 Y22.83752
G01 X32.33232 Y22.94730
G01 X32.36752 Y23.06333
G01 X32.62554 Y23.06333
G01 X32.61182 Y22.95842
G01 X32.52216 Y22.74202
G01 X32.37967 Y22.55634
G01 X32.19399 Y22.41385
G01 X31.97758 Y22.32419
G01 X31.87268 Y22.31047
G04 P0 ( dwell for no time -- G64 should not smooth over this point )
G00 Z10.00000 ( retract )

G00 X31.87268 Y23.81217 ( rapid move to begin. )
G01 F30.00000
( Mill infeed pass 1/1 )
G01 Z-0.10000
G04 P0 ( dwell for no time -- G64 should not smooth over this point )
G01 F360.00000
G01 X31.87268 Y23.81217
G01 X31.87268 Y24.07044
G01 X31.97758 Y24.05647
G01 X32.19399 Y23.96681
G01 X32.37967 Y23.82456
G01 X32.52216 Y23.63864
G01 X32.61182 Y23.42248
G01 X32.62554 Y23.31733
G01 X32.36752 Y23.31733
G01 X32.33232 Y23.43333
G01 X32.27365 Y23.54311
G01 X32.19468 Y23.63932
G01 X32.09846 Y23.71829
G01 X31.98868 Y23.77697
G01 X31.87268 Y23.81217
G04 P0 ( dwell for no time -- G64 should not smooth over this point )
G00 Z10.00000 ( retract )

G00 X29.11635 Y24.72337 ( rapid move to begin. )
G01 F30.00000
( Mill infeed pass 1/1 )
G01 Z-0.10000
G04 P0 ( dwell for no time -- G64 should not smooth over this point )
G01 F360.00000
G01 X29.11635 Y24.72337
G01 X29.19252 Y24.69838
G01 X29.37459 Y24.65443
G01 X29.55143 Y24.62957
G01 X29.70080 Y24.62223
G01 X29.87589 Y24.62957
G01 X30.05272 Y24.65443
G01 X30.27670 Y24.71110
G01 X30.42608 Y24.76457
G01 X30.60245 Y24.84476
G01 X30.66669 Y24.92083
G01 X30.75666 Y25.04214
G01 X30.80014 Y25.10729
G01 X30.87931 Y25.23940
G01 X30.96242 Y25.40465
G01 X31.06227 Y25.44188
G01 X31.19829 Y25.48065
G01 X31.27898 Y25.49672
G01 X31.40466 Y25.51156
G01 X31.49168 Y25.51494
G01 X33.65866 Y25.51494
G01 X33.77372 Y25.39985
G01 X33.90867 Y25.29865
G01 X34.04362 Y25.26492
G01 X35.54374 Y25.26492
G01 X35.63404 Y25.28004
G01 X35.72434 Y25.32535
G01 X35.89183 Y25.29482
G01 X36.00813 Y25.36467
G01 X36.44748 Y25.80391
G01 X36.49215 Y25.86299
G01 X36.47082 Y25.99106
G01 X36.45286 Y26.14991
G01 X36.47082 Y26.30876
G01 X36.48441 Y26.37754
G01 X36.51885 Y26.47389
G01 X36.57222 Y26.58963
G01 X36.61118 Y26.64772
G01 X36.71087 Y26.77272
G01 X36.83584 Y26.87239
G01 X36.89396 Y26.91138
G01 X37.00968 Y26.96472
G01 X37.10607 Y26.99918
G01 X37.17478 Y27.01275
G01 X37.33366 Y27.03073
G01 X37.49253 Y27.01275
G01 X37.56101 Y26.99921
G01 X37.68070 Y26.95511
G01 X37.77318 Y26.91140
G01 X37.81100 Y26.88702
G01 X37.95644 Y26.77272
G01 X38.05608 Y26.64767
G01 X38.09497 Y26.58969
G01 X38.13886 Y26.49692
G01 X38.18293 Y26.37747
G01 X38.19649 Y26.30879
G01 X38.21333 Y26.16271
G01 X38.21587 Y26.08616
G01 X38.25105 Y26.04267
G01 X43.16268 Y21.13110
G01 X43.22143 Y21.08662
G01 X43.30550 Y21.10466
G01 X43.38404 Y21.13275
G01 X43.44086 Y21.14504
G01 X43.66359 Y21.17159
G01 X43.86148 Y21.14913
G01 X43.94289 Y21.13280
G01 X44.08714 Y21.07987
G01 X44.20334 Y21.02488
G01 X44.27258 Y20.97880
G01 X44.42844 Y20.85482
G01 X44.56707 Y20.67850
G01 X44.59849 Y20.62973
G01 X44.65348 Y20.51352
G01 X44.70641 Y20.36925
G01 X44.72275 Y20.28784
G01 X44.74403 Y20.10286
G01 X44.74403 Y20.07710
G01 X44.72275 Y19.89206
G01 X44.70639 Y19.81045
G01 X44.65353 Y19.66641
G01 X44.59846 Y19.55005
G01 X44.56712 Y19.50143
G01 X44.42844 Y19.32513
G01 X44.27263 Y19.20110
G01 X44.20329 Y19.15495
G01 X44.08716 Y19.10004
G01 X43.94294 Y19.04718
G01 X43.86146 Y19.03085
G01 X43.67644 Y19.00956
G01 X43.65076 Y19.00954
G01 X43.44086 Y19.03494
G01 X43.38401 Y19.04721
G01 X43.26308 Y19.09044
G01 X43.12371 Y19.15498
G01 X43.05452 Y19.20108
G01 X42.89875 Y19.32513
G01 X42.77469 Y19.48091
G01 X42.72859 Y19.55010
G01 X42.66405 Y19.68947
G01 X42.62082 Y19.81037
G01 X42.60444 Y19.89211
G01 X42.58201 Y20.08995
G01 X42.60855 Y20.31271
G01 X42.62079 Y20.36935
G01 X42.64896 Y20.44822
G01 X42.66697 Y20.53217
G01 X42.62250 Y20.59092
G01 X37.87244 Y25.34097
G01 X37.80422 Y25.39058
G01 X37.72954 Y25.36779
G01 X37.65763 Y25.33515
G01 X37.56104 Y25.30064
G01 X37.49251 Y25.28707
G01 X37.34643 Y25.27026
G01 X37.17480 Y25.28707
G01 X37.04674 Y25.30841
G01 X36.98768 Y25.26375
G01 X36.34283 Y24.61892
G01 X36.28329 Y24.57361
G01 X36.20933 Y24.52822
G01 X36.12490 Y24.50800
G01 X36.05068 Y24.49797
G01 X35.62248 Y24.49797
G01 X35.54039 Y24.48519
G01 X35.45830 Y24.44689
G01 X35.37819 Y24.39703
G01 X35.39089 Y24.33841
G01 X35.41809 Y24.25489
G01 X35.43061 Y24.22776
G01 X35.46384 Y24.17348
G01 X35.51606 Y24.10765
G01 X35.55502 Y24.04946
G01 X35.59884 Y23.95692
G01 X35.64293 Y23.83744
G01 X35.65649 Y23.76879
G01 X35.67448 Y23.60994
G01 X35.65649 Y23.45103
G01 X35.64293 Y23.38240
G01 X35.59884 Y23.26289
G01 X35.55502 Y23.17039
G01 X35.51606 Y23.11217
G01 X35.41644 Y22.98710
G01 X35.29145 Y22.88746
G01 X35.23318 Y22.84844
G01 X35.11763 Y22.79515
G01 X35.02104 Y22.76064
G01 X34.97732 Y22.75119
G01 X34.79366 Y22.72911
G01 X34.63481 Y22.74707
G01 X34.56605 Y22.76066
G01 X34.46968 Y22.79513
G01 X34.35393 Y22.84849
G01 X34.29584 Y22.88741
G01 X34.17072 Y22.98715
G01 X34.07120 Y23.11212
G01 X34.03219 Y23.17039
G01 X33.98845 Y23.26287
G01 X33.94441 Y23.38233
G01 X33.93082 Y23.45106
G01 X33.91286 Y23.60994
G01 X33.93082 Y23.76876
G01 X33.94441 Y23.83752
G01 X33.98843 Y23.95695
G01 X34.03219 Y24.04946
G01 X34.07118 Y24.10770
G01 X34.12333 Y24.17343
G01 X34.15662 Y24.22784
G01 X34.16912 Y24.25499
G01 X34.19630 Y24.33846
G01 X34.20897 Y24.39698
G01 X34.27768 Y24.41928
G01 X34.45812 Y24.46277
G01 X34.60514 Y24.48458
G01 X34.78040 Y24.49459
G01 X34.95398 Y24.48735
G01 X35.12919 Y24.46277
G01 X35.30963 Y24.41928
G01 X35.37819 Y24.39703
G01 X35.30963 Y24.41928
G01 X35.12919 Y24.46277
G01 X34.98218 Y24.48458
G01 X34.80694 Y24.49459
G01 X34.63333 Y24.48735
G01 X34.45812 Y24.46277
G01 X34.27768 Y24.41928
G01 X34.20897 Y24.39698
G01 X34.12879 Y24.44689
G01 X34.04669 Y24.48519
G01 X33.96460 Y24.49797
G01 X31.70453 Y24.49797
G01 X31.65203 Y24.49274
G01 X31.61127 Y24.45934
G01 X31.42331 Y24.27138
G01 X31.36844 Y24.19256
G01 X31.33753 Y24.08979
G01 X31.31929 Y23.97930
G01 X31.27207 Y23.94428
G01 X31.07190 Y23.77864
G01 X30.84342 Y23.62304
G01 X30.81558 Y23.47211
G01 X30.71393 Y23.36355
G01 X30.63049 Y23.24468
G01 X30.60266 Y23.12581
G01 X30.60266 Y22.21293
G01 X30.58089 Y22.10770
G01 X30.47568 Y22.08593
G01 X28.95168 Y22.08593
G01 X28.84645 Y22.10770
G01 X28.82468 Y22.21293
G01 X28.82468 Y22.46107
G01 X28.79994 Y22.57313
G01 X28.69768 Y22.59297
G01 X25.28164 Y22.59297
G01 X25.20742 Y22.60300
G01 X25.12278 Y22.62327
G01 X25.04900 Y22.66859
G01 X24.98689 Y22.71492
G01 X24.93162 Y22.72094
G01 X24.06218 Y22.72094
G01 X23.95695 Y22.74270
G01 X23.93518 Y22.84793
G01 X23.93518 Y24.37191
G01 X23.95695 Y24.47714
G01 X24.06218 Y24.49893
G01 X25.20516 Y24.49893
G01 X25.31039 Y24.47714
G01 X25.33216 Y24.37191
G01 X25.33216 Y23.51113
G01 X25.34003 Y23.44791
G01 X25.38819 Y23.39556
G01 X25.42901 Y23.36211
G01 X25.48151 Y23.35687
G01 X28.69768 Y23.35687
G01 X28.79994 Y23.37671
G01 X28.82468 Y23.48878
G01 X28.82468 Y23.72703
G01 X28.82085 Y23.83015
G01 X28.95168 Y23.86386
G01 X30.47568 Y23.86386
G01 X30.60261 Y23.83213
G01 X30.72955 Y23.73691
G01 X30.84342 Y23.62304
G01 X30.72955 Y23.73691
G01 X30.60261 Y23.83213
G01 X30.47568 Y23.86386
G01 X28.95168 Y23.86386
G01 X28.82085 Y23.83015
G01 X28.69768 Y23.85891
G01 X28.33347 Y23.85891
G01 X28.25923 Y23.86896
G01 X28.17490 Y23.88913
G01 X28.10086 Y23.93460
G01 X28.04130 Y23.97999
G01 X26.29207 Y25.72934
G01 X26.25126 Y25.76276
G01 X26.19883 Y25.76797
G01 X25.45918 Y25.76797
G01 X25.35690 Y25.74813
G01 X25.33216 Y25.63607
G01 X25.33216 Y25.38793
G01 X25.31039 Y25.28270
G01 X25.20516 Y25.26093
G01 X24.06218 Y25.26093
G01 X23.95695 Y25.28270
G01 X23.93518 Y25.38793
G01 X23.93518 Y26.91191
G01 X23.95695 Y27.01714
G01 X24.06218 Y27.03891
G01 X25.20516 Y27.03891
G01 X25.31039 Y27.01714
G01 X25.33216 Y26.91191
G01 X25.33216 Y26.66378
G01 X25.35690 Y26.55171
G01 X25.45918 Y26.53187
G01 X26.39868 Y26.53187
G01 X26.47297 Y26.52182
G01 X26.55730 Y26.50162
G01 X26.63132 Y26.45621
G01 X26.69083 Y26.41092
G01 X28.44008 Y24.66144
G01 X28.48087 Y24.62802
G01 X28.53334 Y24.62281
G01 X28.87269 Y24.62281
G01 X28.95476 Y24.63559
G01 X29.03685 Y24.67389
G01 X29.11635 Y24.72337
G01 X29.10350 Y24.78275
G01 X29.06702 Y24.88761
G01 X29.03134 Y24.94735
G01 X28.98125 Y25.01047
G01 X28.94185 Y25.06934
G01 X28.88785 Y25.18636
G01 X28.85280 Y25.28433
G01 X28.83906 Y25.35375
G01 X28.82080 Y25.51491
G01 X28.83906 Y25.67610
G01 X28.85280 Y25.74552
G01 X28.88785 Y25.84346
G01 X28.94185 Y25.96050
G01 X28.98125 Y26.01938
G01 X29.07411 Y26.13640
G01 X29.09214 Y26.15448
G01 X29.22963 Y26.26203
G01 X29.26791 Y26.28671
G01 X29.36202 Y26.33121
G01 X29.48285 Y26.37574
G01 X29.55247 Y26.38953
G01 X29.71366 Y26.40780
G01 X29.87484 Y26.38951
G01 X30.00997 Y26.36642
G01 X30.12935 Y26.45580
G01 X30.20347 Y26.50178
G01 X30.28734 Y26.52182
G01 X30.36164 Y26.53187
G01 X33.78962 Y26.53187
G01 X33.89188 Y26.55171
G01 X33.91662 Y26.66378
G01 X33.91662 Y26.90000
G01 X33.93839 Y27.00520
G01 X34.04362 Y27.02700
G01 X35.54374 Y27.02700
G01 X35.64877 Y27.00528
G01 X35.67062 Y26.90000
G01 X35.67062 Y25.50653
G01 X35.69302 Y25.39987
G01 X35.72434 Y25.32535
G04 P0 ( dwell for no time -- G64 should not smooth over this point )
G00 Z10.00000 ( retract )

G00 X36.33775 Y23.73693 ( rapid move to begin. )
G01 F30.00000
( Mill infeed pass 1/1 )
G01 Z-0.10000
G04 P0 ( dwell for no time -- G64 should not smooth over this point )
G01 F360.00000
G01 X36.33775 Y23.73693
