( pcb2gcode 2.5.0 )
( Software-independent Gcode )

G94 ( Millimeters per minute feed rate. )
G21 ( Units == Millimeters. )

G90 ( Absolute coordinates. )
G00 S10000 ( RPM spindle speed. )
G01 F360.00000 ( Feedrate. )


G00 Z50.00000 (Retract to tool change height)
T1
M5      (Spindle stop.)
G04 P1.00000 (Wait for spindle to stop)
(MSG, Change tool bit to mill diameter 0.00000mm)
M6      (Tool change.)
M0      (Temporary machine stop.)
M3 ( Spindle on clockwise. )
G04 P1.00000 (Wait for spindle to get up to speed)
G04 P0 ( dwell for no time -- G64 should not smooth over this point )
G00 Z10.00000 ( retract )

G00 X0.75768 Y8.62393 ( rapid move to begin. )
G01 F30.00000
( Mill infeed pass 1/1 )
G01 Z-0.10000
G04 P0 ( dwell for no time -- G64 should not smooth over this point )
G01 F360.00000
G01 X0.75768 Y8.62393
G01 X0.75768 Y9.51293
G01 X1.01168 Y9.51293
G01 X1.01168 Y8.87794
G01 X1.64668 Y8.87794
G01 X1.64668 Y8.62393
G01 X0.75768 Y8.62393
G04 P0 ( dwell for no time -- G64 should not smooth over this point )
G00 Z10.00000 ( retract )

G00 X1.90068 Y8.62393 ( rapid move to begin. )
G01 F30.00000
( Mill infeed pass 1/1 )
G01 Z-0.10000
G04 P0 ( dwell for no time -- G64 should not smooth over this point )
G01 F360.00000
G01 X1.90068 Y8.62393
G01 X2.78968 Y8.62393
G01 X2.78968 Y9.51293
G01 X2.53568 Y9.51293
G01 X2.53568 Y8.87794
G01 X1.90068 Y8.87794
G01 X1.90068 Y8.62393
G04 P0 ( dwell for no time -- G64 should not smooth over this point )
G00 Z10.00000 ( retract )

G00 X0.75768 Y9.76694 ( rapid move to begin. )
G01 F30.00000
( Mill infeed pass 1/1 )
G01 Z-0.10000
G04 P0 ( dwell for no time -- G64 should not smooth over this point )
G01 F360.00000
G01 X0.75768 Y9.76694
G01 X1.01168 Y9.76694
G01 X1.01168 Y10.40193
G01 X1.64668 Y10.40193
G01 X1.64668 Y10.65593
G01 X0.75768 Y10.65593
G01 X0.75768 Y9.76694
G04 P0 ( dwell for no time -- G64 should not smooth over this point )
G00 Z10.00000 ( retract )

G00 X1.90068 Y10.40193 ( rapid move to begin. )
G01 F30.00000
( Mill infeed pass 1/1 )
G01 Z-0.10000
G04 P0 ( dwell for no time -- G64 should not smooth over this point )
G01 F360.00000
G01 X1.90068 Y10.40193
G01 X1.90068 Y10.65593
G01 X2.78968 Y10.65593
G01 X2.78968 Y9.76694
G01 X2.53568 Y9.76694
G01 X2.53568 Y10.40193
G01 X1.90068 Y10.40193
G04 P0 ( dwell for no time -- G64 should not smooth over this point )
G00 Z10.00000 ( retract )

G00 X4.18668 Y14.46593 ( rapid move to begin. )
G01 F30.00000
( Mill infeed pass 1/1 )
G01 Z-0.10000
G04 P0 ( dwell for no time -- G64 should not smooth over this point )
G01 F360.00000
G01 X4.18668 Y14.46593
G01 X4.88518 Y14.46593
G01 X4.88518 Y15.35493
G01 X4.63118 Y15.35493
G01 X4.63118 Y14.71994
G01 X4.18668 Y14.71994
G01 X4.18668 Y14.46593
G04 P0 ( dwell for no time -- G64 should not smooth over this point )
G00 Z10.00000 ( retract )

G00 X3.23418 Y14.46593 ( rapid move to begin. )
G01 F30.00000
( Mill infeed pass 1/1 )
G01 Z-0.10000
G04 P0 ( dwell for no time -- G64 should not smooth over this point )
G01 F360.00000
G01 X3.23418 Y14.46593
G01 X3.93268 Y14.46593
G01 X3.93268 Y14.71994
G01 X3.48818 Y14.71994
G01 X3.48818 Y15.35493
G01 X3.23418 Y15.35493
G01 X3.23418 Y14.46593
G04 P0 ( dwell for no time -- G64 should not smooth over this point )
G00 Z10.00000 ( retract )

G00 X3.23418 Y15.60893 ( rapid move to begin. )
G01 F30.00000
( Mill infeed pass 1/1 )
G01 Z-0.10000
G04 P0 ( dwell for no time -- G64 should not smooth over this point )
G01 F360.00000
G01 X3.23418 Y15.60893
G01 X3.48818 Y15.60893
G01 X3.48818 Y16.24394
G01 X3.93268 Y16.24394
G01 X3.93268 Y16.49793
G01 X3.23418 Y16.49793
G01 X3.23418 Y15.60893
G04 P0 ( dwell for no time -- G64 should not smooth over this point )
G00 Z10.00000 ( retract )

G00 X4.18668 Y16.24394 ( rapid move to begin. )
G01 F30.00000
( Mill infeed pass 1/1 )
G01 Z-0.10000
G04 P0 ( dwell for no time -- G64 should not smooth over this point )
G01 F360.00000
G01 X4.18668 Y16.24394
G01 X4.63118 Y16.24394
G01 X4.63118 Y15.60893
G01 X4.88518 Y15.60893
G01 X4.88518 Y16.49793
G01 X4.18668 Y16.49793
G01 X4.18668 Y16.24394
G04 P0 ( dwell for no time -- G64 should not smooth over this point )
G00 Z10.00000 ( retract )

G00 X3.23418 Y17.51393 ( rapid move to begin. )
G01 F30.00000
( Mill infeed pass 1/1 )
G01 Z-0.10000
G04 P0 ( dwell for no time -- G64 should not smooth over this point )
G01 F360.00000
G01 X3.23418 Y17.51393
G01 X3.23418 Y18.40293
G01 X3.48818 Y18.40293
G01 X3.48818 Y17.76793
G01 X3.93268 Y17.76793
G01 X3.93268 Y17.51393
G01 X3.23418 Y17.51393
G04 P0 ( dwell for no time -- G64 should not smooth over this point )
G00 Z10.00000 ( retract )

G00 X3.23418 Y18.65694 ( rapid move to begin. )
G01 F30.00000
( Mill infeed pass 1/1 )
G01 Z-0.10000
G04 P0 ( dwell for no time -- G64 should not smooth over this point )
G01 F360.00000
G01 X3.23418 Y18.65694
G01 X3.23418 Y19.54594
G01 X3.93268 Y19.54594
G01 X3.93268 Y19.29193
G01 X3.48818 Y19.29193
G01 X3.48818 Y18.65694
G01 X3.23418 Y18.65694
G04 P0 ( dwell for no time -- G64 should not smooth over this point )
G00 Z10.00000 ( retract )

G00 X0.39014 Y22.21293 ( rapid move to begin. )
G01 F30.00000
( Mill infeed pass 1/1 )
G01 Z-0.10000
G04 P0 ( dwell for no time -- G64 should not smooth over this point )
G01 F360.00000
G01 X0.39014 Y22.21293
G01 X0.40386 Y22.10778
G01 X0.49352 Y21.89163
G01 X0.63602 Y21.70595
G01 X0.82166 Y21.56346
G01 X1.03784 Y21.47379
G01 X1.14300 Y21.46008
G01 X1.14300 Y21.71776
G01 X1.05067 Y21.74400
G01 X0.96728 Y21.78172
G01 X0.89019 Y21.83102
G01 X0.82095 Y21.89091
G01 X0.76109 Y21.96013
G01 X0.71178 Y22.03722
G01 X0.67407 Y22.12061
G01 X0.64783 Y22.21293
G01 X0.39014 Y22.21293
G04 P0 ( dwell for no time -- G64 should not smooth over this point )
G00 Z10.00000 ( retract )

G00 X0.39014 Y22.46693 ( rapid move to begin. )
G01 F30.00000
( Mill infeed pass 1/1 )
G01 Z-0.10000
G04 P0 ( dwell for no time -- G64 should not smooth over this point )
G01 F360.00000
G01 X0.39014 Y22.46693
G01 X0.40386 Y22.57209
G01 X0.49352 Y22.78824
G01 X0.63602 Y22.97392
G01 X0.82166 Y23.11641
G01 X1.03784 Y23.20607
G01 X1.14300 Y23.21979
G01 X1.14300 Y22.96208
G01 X1.05067 Y22.93584
G01 X0.96728 Y22.89813
G01 X0.89019 Y22.84882
G01 X0.82095 Y22.78893
G01 X0.76109 Y22.71972
G01 X0.71178 Y22.64263
G01 X0.67407 Y22.55924
G01 X0.64783 Y22.46693
G01 X0.39014 Y22.46693
G04 P0 ( dwell for no time -- G64 should not smooth over this point )
G00 Z10.00000 ( retract )

G00 X1.39700 Y22.96208 ( rapid move to begin. )
G01 F30.00000
( Mill infeed pass 1/1 )
G01 Z-0.10000
G04 P0 ( dwell for no time -- G64 should not smooth over this point )
G01 F360.00000
G01 X1.39700 Y22.96208
G01 X1.39700 Y23.21979
G01 X1.50216 Y23.20607
G01 X1.71831 Y23.11641
G01 X1.90398 Y22.97392
G01 X2.04648 Y22.78824
G01 X2.13614 Y22.57209
G01 X2.14986 Y22.46693
G01 X1.89215 Y22.46693
G01 X1.86591 Y22.55924
G01 X1.82819 Y22.64263
G01 X1.77889 Y22.71972
G01 X1.71900 Y22.78893
G01 X1.64976 Y22.84882
G01 X1.57269 Y22.89813
G01 X1.48930 Y22.93584
G01 X1.39700 Y22.96208
G04 P0 ( dwell for no time -- G64 should not smooth over this point )
G00 Z10.00000 ( retract )

G00 X1.66014 Y24.75293 ( rapid move to begin. )
G01 F30.00000
( Mill infeed pass 1/1 )
G01 Z-0.10000
G04 P0 ( dwell for no time -- G64 should not smooth over this point )
G01 F360.00000
G01 X1.66014 Y24.75293
G01 X1.67386 Y24.64778
G01 X1.76352 Y24.43163
G01 X1.90602 Y24.24595
G01 X2.09169 Y24.10346
G01 X2.30784 Y24.01380
G01 X2.41300 Y24.00008
G01 X2.41300 Y24.25776
G01 X2.32067 Y24.28400
G01 X2.23728 Y24.32172
G01 X2.16019 Y24.37102
G01 X2.09098 Y24.43091
G01 X2.03109 Y24.50013
G01 X1.98178 Y24.57722
G01 X1.94407 Y24.66061
G01 X1.91783 Y24.75293
G01 X1.66014 Y24.75293
G04 P0 ( dwell for no time -- G64 should not smooth over this point )
G00 Z10.00000 ( retract )

G00 X1.66014 Y25.00693 ( rapid move to begin. )
G01 F30.00000
( Mill infeed pass 1/1 )
G01 Z-0.10000
G04 P0 ( dwell for no time -- G64 should not smooth over this point )
G01 F360.00000
G01 X1.66014 Y25.00693
G01 X1.67386 Y25.11209
G01 X1.76352 Y25.32824
G01 X1.90602 Y25.51392
G01 X2.09169 Y25.65641
G01 X2.30784 Y25.74607
G01 X2.41300 Y25.75979
G01 X2.41300 Y25.50208
G01 X2.32067 Y25.47584
G01 X2.23728 Y25.43813
G01 X2.16019 Y25.38882
G01 X2.09098 Y25.32893
G01 X2.03109 Y25.25972
G01 X1.98178 Y25.18263
G01 X1.94407 Y25.09924
G01 X1.91783 Y25.00693
G01 X1.66014 Y25.00693
G04 P0 ( dwell for no time -- G64 should not smooth over this point )
G00 Z10.00000 ( retract )

G00 X2.66700 Y25.50208 ( rapid move to begin. )
G01 F30.00000
( Mill infeed pass 1/1 )
G01 Z-0.10000
G04 P0 ( dwell for no time -- G64 should not smooth over this point )
G01 F360.00000
G01 X2.66700 Y25.50208
G01 X2.66700 Y25.75979
G01 X2.77216 Y25.74607
G01 X2.98831 Y25.65641
G01 X3.17398 Y25.51392
G01 X3.31640 Y25.32824
G01 X3.40614 Y25.11209
G01 X3.41986 Y25.00693
G01 X3.16215 Y25.00693
G01 X3.13591 Y25.09924
G01 X3.09819 Y25.18263
G01 X3.04889 Y25.25972
G01 X2.98900 Y25.32893
G01 X2.91978 Y25.38882
G01 X2.84269 Y25.43813
G01 X2.75930 Y25.47584
G01 X2.66700 Y25.50208
G04 P0 ( dwell for no time -- G64 should not smooth over this point )
G00 Z10.00000 ( retract )

G00 X2.66700 Y24.00008 ( rapid move to begin. )
G01 F30.00000
( Mill infeed pass 1/1 )
G01 Z-0.10000
G04 P0 ( dwell for no time -- G64 should not smooth over this point )
G01 F360.00000
G01 X2.66700 Y24.00008
G01 X2.77216 Y24.01380
G01 X2.98831 Y24.10346
G01 X3.17398 Y24.24595
G01 X3.31640 Y24.43163
G01 X3.40614 Y24.64778
G01 X3.41986 Y24.75293
G01 X3.16215 Y24.75293
G01 X3.13591 Y24.66061
G01 X3.09819 Y24.57722
G01 X3.04889 Y24.50013
G01 X2.98900 Y24.43091
G01 X2.91978 Y24.37102
G01 X2.84269 Y24.32172
G01 X2.75930 Y24.28400
G01 X2.66700 Y24.25776
G01 X2.66700 Y24.00008
G04 P0 ( dwell for no time -- G64 should not smooth over this point )
G00 Z10.00000 ( retract )

G00 X1.39700 Y21.46008 ( rapid move to begin. )
G01 F30.00000
( Mill infeed pass 1/1 )
G01 Z-0.10000
G04 P0 ( dwell for no time -- G64 should not smooth over this point )
G01 F360.00000
G01 X1.39700 Y21.46008
G01 X1.50216 Y21.47379
G01 X1.71831 Y21.56346
G01 X1.90398 Y21.70595
G01 X2.04648 Y21.89163
G01 X2.13614 Y22.10778
G01 X2.14986 Y22.21293
G01 X1.89215 Y22.21293
G01 X1.86591 Y22.12061
G01 X1.82819 Y22.03722
G01 X1.77889 Y21.96013
G01 X1.71900 Y21.89091
G01 X1.64976 Y21.83102
G01 X1.57269 Y21.78172
G01 X1.48930 Y21.74400
G01 X1.39700 Y21.71776
G01 X1.39700 Y21.46008
G04 P0 ( dwell for no time -- G64 should not smooth over this point )
G00 Z10.00000 ( retract )

G00 X4.18668 Y19.29193 ( rapid move to begin. )
G01 F30.00000
( Mill infeed pass 1/1 )
G01 Z-0.10000
G04 P0 ( dwell for no time -- G64 should not smooth over this point )
G01 F360.00000
G01 X4.18668 Y19.29193
G01 X4.63118 Y19.29193
G01 X4.63118 Y18.65694
G01 X4.88518 Y18.65694
G01 X4.88518 Y19.54594
G01 X4.18668 Y19.54594
G01 X4.18668 Y19.29193
G04 P0 ( dwell for no time -- G64 should not smooth over this point )
G00 Z10.00000 ( retract )

G00 X4.18668 Y17.51393 ( rapid move to begin. )
G01 F30.00000
( Mill infeed pass 1/1 )
G01 Z-0.10000
G04 P0 ( dwell for no time -- G64 should not smooth over this point )
G01 F360.00000
G01 X4.18668 Y17.51393
G01 X4.88518 Y17.51393
G01 X4.88518 Y18.40293
G01 X4.63118 Y18.40293
G01 X4.63118 Y17.76793
G01 X4.18668 Y17.76793
G01 X4.18668 Y17.51393
G04 P0 ( dwell for no time -- G64 should not smooth over this point )
G00 Z10.00000 ( retract )

G00 X5.21157 Y18.49133 ( rapid move to begin. )
G01 F30.00000
( Mill infeed pass 1/1 )
G01 Z-0.10000
G04 P0 ( dwell for no time -- G64 should not smooth over this point )
G01 F360.00000
G01 X5.21157 Y18.49133
G01 X5.22554 Y18.38642
G01 X5.31495 Y18.17002
G01 X5.45744 Y17.98434
G01 X5.64337 Y17.84185
G01 X5.85953 Y17.75219
G01 X5.96468 Y17.73847
G01 X5.96468 Y17.99615
G01 X5.87235 Y18.02239
G01 X5.78896 Y18.06011
G01 X5.71188 Y18.10941
G01 X5.64266 Y18.16931
G01 X5.58277 Y18.23852
G01 X5.53347 Y18.31561
G01 X5.49575 Y18.39900
G01 X5.46951 Y18.49133
G01 X5.21157 Y18.49133
G04 P0 ( dwell for no time -- G64 should not smooth over this point )
G00 Z10.00000 ( retract )

G00 X5.21157 Y18.74533 ( rapid move to begin. )
G01 F30.00000
( Mill infeed pass 1/1 )
G01 Z-0.10000
G04 P0 ( dwell for no time -- G64 should not smooth over this point )
G01 F360.00000
G01 X5.21157 Y18.74533
G01 X5.22554 Y18.85048
G01 X5.31495 Y19.06664
G01 X5.45744 Y19.25231
G01 X5.64337 Y19.39506
G01 X5.85953 Y19.48447
G01 X5.96468 Y19.49844
G01 X5.96468 Y19.24047
G01 X5.87235 Y19.21424
G01 X5.78896 Y19.17652
G01 X5.71188 Y19.12722
G01 X5.64266 Y19.06732
G01 X5.58277 Y18.99811
G01 X5.53347 Y18.92102
G01 X5.49575 Y18.83763
G01 X5.46951 Y18.74533
G01 X5.21157 Y18.74533
G04 P0 ( dwell for no time -- G64 should not smooth over this point )
G00 Z10.00000 ( retract )

G00 X6.21868 Y19.24047 ( rapid move to begin. )
G01 F30.00000
( Mill infeed pass 1/1 )
G01 Z-0.10000
G04 P0 ( dwell for no time -- G64 should not smooth over this point )
G01 F360.00000
G01 X6.21868 Y19.24047
G01 X6.21868 Y19.49844
G01 X6.32358 Y19.48447
G01 X6.53999 Y19.39506
G01 X6.72567 Y19.25231
G01 X6.86816 Y19.06664
G01 X6.95782 Y18.85048
G01 X6.97154 Y18.74533
G01 X6.71383 Y18.74533
G01 X6.68759 Y18.83763
G01 X6.64985 Y18.92102
G01 X6.60057 Y18.99811
G01 X6.54068 Y19.06732
G01 X6.47146 Y19.12722
G01 X6.39437 Y19.17652
G01 X6.31099 Y19.21424
G01 X6.21868 Y19.24047
G04 P0 ( dwell for no time -- G64 should not smooth over this point )
G00 Z10.00000 ( retract )

G00 X6.21868 Y17.73847 ( rapid move to begin. )
G01 F30.00000
( Mill infeed pass 1/1 )
G01 Z-0.10000
G04 P0 ( dwell for no time -- G64 should not smooth over this point )
G01 F360.00000
G01 X6.21868 Y17.73847
G01 X6.32358 Y17.75219
G01 X6.53999 Y17.84185
G01 X6.72567 Y17.98434
G01 X6.86816 Y18.17002
G01 X6.95782 Y18.38642
G01 X6.97154 Y18.49133
G01 X6.71383 Y18.49133
G01 X6.68759 Y18.39900
G01 X6.64985 Y18.31561
G01 X6.60057 Y18.23852
G01 X6.54068 Y18.16931
G01 X6.47146 Y18.10941
G01 X6.39437 Y18.06011
G01 X6.31099 Y18.02239
G01 X6.21868 Y17.99615
G01 X6.21868 Y17.73847
G04 P0 ( dwell for no time -- G64 should not smooth over this point )
G00 Z10.00000 ( retract )

G00 X6.21868 Y16.19247 ( rapid move to begin. )
G01 F30.00000
( Mill infeed pass 1/1 )
G01 Z-0.10000
G04 P0 ( dwell for no time -- G64 should not smooth over this point )
G01 F360.00000
G01 X6.21868 Y16.19247
G01 X6.31099 Y16.16624
G01 X6.39437 Y16.12852
G01 X6.47146 Y16.07922
G01 X6.54068 Y16.01932
G01 X6.60057 Y15.95011
G01 X6.64985 Y15.87302
G01 X6.68759 Y15.78963
G01 X6.71383 Y15.69733
G01 X6.97154 Y15.69733
G01 X6.95782 Y15.80248
G01 X6.86816 Y16.01864
G01 X6.72567 Y16.20431
G01 X6.53999 Y16.34706
G01 X6.32358 Y16.43647
G01 X6.21868 Y16.45044
G01 X6.21868 Y16.19247
G04 P0 ( dwell for no time -- G64 should not smooth over this point )
G00 Z10.00000 ( retract )

G00 X5.21157 Y15.69733 ( rapid move to begin. )
G01 F30.00000
( Mill infeed pass 1/1 )
G01 Z-0.10000
G04 P0 ( dwell for no time -- G64 should not smooth over this point )
G01 F360.00000
G01 X5.21157 Y15.69733
G01 X5.46951 Y15.69733
G01 X5.49575 Y15.78963
G01 X5.53347 Y15.87302
G01 X5.58277 Y15.95011
G01 X5.64266 Y16.01932
G01 X5.71188 Y16.07922
G01 X5.78896 Y16.12852
G01 X5.87235 Y16.16624
G01 X5.96468 Y16.19247
G01 X5.96468 Y16.45044
G01 X5.85953 Y16.43647
G01 X5.64337 Y16.34706
G01 X5.45744 Y16.20431
G01 X5.31495 Y16.01864
G01 X5.22554 Y15.80248
G01 X5.21157 Y15.69733
G04 P0 ( dwell for no time -- G64 should not smooth over this point )
G00 Z10.00000 ( retract )

G00 X5.21157 Y15.44333 ( rapid move to begin. )
G01 F30.00000
( Mill infeed pass 1/1 )
G01 Z-0.10000
G04 P0 ( dwell for no time -- G64 should not smooth over this point )
G01 F360.00000
G01 X5.21157 Y15.44333
G01 X5.46951 Y15.44333
G01 X5.49575 Y15.35100
G01 X5.53347 Y15.26761
G01 X5.58277 Y15.19052
G01 X5.64266 Y15.12131
G01 X5.71188 Y15.06141
G01 X5.78896 Y15.01211
G01 X5.87235 Y14.97439
G01 X5.96468 Y14.94815
G01 X5.96468 Y14.69047
G01 X5.85953 Y14.70419
G01 X5.64337 Y14.79385
G01 X5.45744 Y14.93634
G01 X5.31495 Y15.12202
G01 X5.22554 Y15.33843
G01 X5.21157 Y15.44333
G04 P0 ( dwell for no time -- G64 should not smooth over this point )
G00 Z10.00000 ( retract )

G00 X6.21868 Y14.69047 ( rapid move to begin. )
G01 F30.00000
( Mill infeed pass 1/1 )
G01 Z-0.10000
G04 P0 ( dwell for no time -- G64 should not smooth over this point )
G01 F360.00000
G01 X6.21868 Y14.69047
G01 X6.32358 Y14.70419
G01 X6.53999 Y14.79385
G01 X6.72567 Y14.93634
G01 X6.86816 Y15.12202
G01 X6.95782 Y15.33843
G01 X6.97154 Y15.44333
G01 X6.71383 Y15.44333
G01 X6.68759 Y15.35100
G01 X6.64985 Y15.26761
G01 X6.60057 Y15.19052
G01 X6.54068 Y15.12131
G01 X6.47146 Y15.06141
G01 X6.39437 Y15.01211
G01 X6.31099 Y14.97439
G01 X6.21868 Y14.94815
G01 X6.21868 Y14.69047
G04 P0 ( dwell for no time -- G64 should not smooth over this point )
G00 Z10.00000 ( retract )

G00 X6.11937 Y12.93266 ( rapid move to begin. )
G01 F30.00000
( Mill infeed pass 1/1 )
G01 Z-0.10000
G04 P0 ( dwell for no time -- G64 should not smooth over this point )
G01 F360.00000
G01 X6.11937 Y12.93266
G01 X6.05211 Y12.75100
G01 X6.00309 Y12.56883
G01 X5.98180 Y12.45403
G01 X5.96323 Y12.27414
G01 X5.96268 Y12.09619
G01 X5.97878 Y11.92621
G01 X6.01071 Y11.75746
G01 X6.06135 Y11.58138
G01 X6.20420 Y11.54290
G01 X6.27731 Y11.50216
G01 X6.40728 Y11.40701
G01 X6.51005 Y11.36002
G01 X6.62247 Y11.31796
G01 X6.74926 Y11.29713
G01 X6.85366 Y11.28718
G01 X7.02180 Y11.30625
G01 X7.08467 Y11.31773
G01 X7.18000 Y11.35301
G01 X7.29978 Y11.40717
G01 X7.33852 Y11.43323
G01 X7.48487 Y11.54872
G01 X7.53425 Y11.60737
G01 X7.62668 Y11.73366
G01 X7.67039 Y11.82893
G01 X7.71553 Y11.94900
G01 X7.73692 Y12.07933
G01 X7.74624 Y12.17991
G01 X7.73834 Y12.26873
G01 X7.71563 Y12.41087
G01 X7.67464 Y12.52078
G01 X7.62650 Y12.62609
G01 X7.54896 Y12.73388
G01 X7.48500 Y12.81125
G01 X7.41530 Y12.86921
G01 X7.29991 Y12.95291
G01 X7.20194 Y12.99779
G01 X7.08457 Y13.04193
G01 X6.95216 Y13.06347
G01 X6.86867 Y13.07168
G01 X6.77367 Y13.06566
G01 X6.62249 Y13.04199
G01 X6.50999 Y12.99982
G01 X6.41965 Y12.95890
G01 X6.35363 Y12.93581
G01 X6.25221 Y12.92393
G01 X6.11937 Y12.93266
G01 X6.10697 Y12.97341
G01 X6.11563 Y13.06177
G01 X6.14502 Y13.18565
G01 X6.20593 Y13.27800
G01 X6.46527 Y13.53734
G01 X6.50603 Y13.57071
G01 X6.55853 Y13.57597
G01 X11.46122 Y13.57597
G01 X11.52020 Y13.56934
G01 X11.56299 Y13.52217
G01 X11.64704 Y13.41760
G01 X11.71103 Y13.36347
G01 X11.80503 Y13.29522
G01 X11.90363 Y13.25100
G01 X11.98977 Y13.21958
G01 X12.16025 Y13.19484
G01 X12.25172 Y13.19835
G01 X12.38545 Y13.21918
G01 X12.45850 Y13.24564
G01 X12.57000 Y13.29571
G01 X12.63033 Y13.33757
G01 X12.70704 Y13.39827
G01 X12.72832 Y13.41725
G01 X12.77325 Y13.47010
G01 X12.84983 Y13.57561
G01 X12.87793 Y13.63457
G01 X12.92636 Y13.75992
G01 X12.94671 Y13.88877
G01 X12.95227 Y13.95791
G01 X12.93685 Y14.09972
G01 X12.91872 Y14.17904
G01 X12.88283 Y14.27008
G01 X12.84994 Y14.34026
G01 X12.77069 Y14.44894
G01 X12.72842 Y14.49870
G01 X12.70376 Y14.52029
G01 X12.57008 Y14.62029
G01 X12.45464 Y14.67173
G01 X12.37778 Y14.69855
G01 X12.28108 Y14.71404
G01 X12.18766 Y14.72296
G01 X12.07513 Y14.71148
G01 X11.98971 Y14.69647
G01 X11.86525 Y14.64859
G01 X11.80544 Y14.61991
G01 X11.75400 Y14.58486
G01 X11.64687 Y14.49842
G01 X11.56299 Y14.39367
G01 X11.51956 Y14.34633
G01 X11.46122 Y14.33987
G01 X6.35864 Y14.33987
G01 X6.28434 Y14.32982
G01 X6.19976 Y14.30957
G01 X6.12597 Y14.26428
G01 X6.06631 Y14.21887
G01 X5.31871 Y13.47122
G01 X5.27327 Y13.41150
G01 X5.22793 Y13.33757
G01 X5.20769 Y13.25308
G01 X5.19892 Y13.19185
G01 X5.19765 Y13.02702
G01 X5.18488 Y12.94493
G01 X5.14657 Y12.86284
G01 X5.09887 Y12.78621
G01 X5.14713 Y12.62365
G01 X5.18208 Y12.44958
G01 X5.19532 Y12.34013
G01 X5.20250 Y12.17483
G01 X5.19420 Y12.00775
G01 X5.18000 Y11.89711
G01 X5.14510 Y11.72804
G01 X5.09872 Y11.57389
G01 X5.14510 Y11.72804
G01 X5.18000 Y11.89711
G01 X5.19420 Y12.00775
G01 X5.20250 Y12.17483
G01 X5.19532 Y12.34013
G01 X5.18208 Y12.44958
G01 X5.14713 Y12.62365
G01 X5.09887 Y12.78621
G01 X5.03591 Y12.79985
G01 X4.94861 Y12.82652
G01 X4.88480 Y12.86203
G01 X4.75988 Y12.95291
G01 X4.66194 Y12.99779
G01 X4.54457 Y13.04193
G01 X4.41216 Y13.06347
G01 X4.32867 Y13.07168
G01 X4.23367 Y13.06566
G01 X4.08249 Y13.04199
G01 X3.97002 Y12.99980
G01 X3.86730 Y12.95273
G01 X3.76603 Y12.88021
G01 X3.68254 Y12.81110
G01 X3.58714 Y12.69271
G01 X3.53393 Y12.61280
G01 X3.49923 Y12.53635
G01 X3.45178 Y12.41077
G01 X3.43106 Y12.28641
G01 X3.42085 Y12.17994
G01 X3.42826 Y12.09693
G01 X3.45138 Y11.94895
G01 X3.49042 Y11.84458
G01 X3.54081 Y11.73376
G01 X3.61470 Y11.63066
G01 X3.67617 Y11.55576
G01 X3.74805 Y11.49375
G01 X3.86728 Y11.40704
G01 X3.95907 Y11.36465
G01 X4.04754 Y11.32985
G01 X4.08247 Y11.31796
G01 X4.12885 Y11.30905
G01 X4.31366 Y11.28718
G01 X4.47002 Y11.30440
G01 X4.56392 Y11.32426
G01 X4.65176 Y11.35779
G01 X4.75976 Y11.40717
G01 X4.87523 Y11.49063
G01 X4.93700 Y11.52815
G01 X5.02831 Y11.55797
G01 X5.09872 Y11.57389
G01 X5.14657 Y11.49701
G01 X5.18488 Y11.41491
G01 X5.19765 Y11.33284
G01 X5.19765 Y11.12685
G01 X5.19242 Y11.07435
G01 X5.15902 Y11.03358
G01 X4.66321 Y10.53777
G01 X4.60571 Y10.49401
G01 X4.45577 Y10.51761
G01 X4.31368 Y10.53214
G01 X4.21940 Y10.52396
G01 X4.10190 Y10.50592
G01 X4.00543 Y10.47402
G01 X3.86735 Y10.41265
G01 X3.78483 Y10.35459
G01 X3.71904 Y10.30249
G01 X3.68275 Y10.27092
G01 X3.65183 Y10.23541
G01 X3.54048 Y10.08629
G01 X3.49923 Y9.99635
G01 X3.45178 Y9.87077
G01 X3.43106 Y9.74641
G01 X3.42176 Y9.65281
G01 X3.42826 Y9.55693
G01 X3.45138 Y9.40895
G01 X3.48567 Y9.31629
G01 X3.52382 Y9.22835
G01 X3.54081 Y9.19376
G01 X3.56631 Y9.15599
G01 X3.62252 Y9.08060
G01 X3.68254 Y9.00874
G01 X3.74805 Y8.95375
G01 X3.86728 Y8.86704
G01 X3.97005 Y8.82002
G01 X4.08252 Y8.77794
G01 X4.20924 Y8.75706
G01 X4.31366 Y8.74705
G01 X4.39953 Y8.75485
G01 X4.54462 Y8.77771
G01 X4.65176 Y8.81779
G01 X4.75978 Y8.86717
G01 X4.86595 Y8.94329
G01 X4.94487 Y9.00872
G01 X4.99425 Y9.06737
G01 X5.08668 Y9.19366
G01 X5.13039 Y9.28893
G01 X5.17553 Y9.40900
G01 X5.19692 Y9.53933
G01 X5.20560 Y9.63963
G01 X5.19049 Y9.78489
G01 X5.16402 Y9.94397
G01 X5.20847 Y10.00267
G01 X5.84037 Y10.63460
G01 X5.88589 Y10.69434
G01 X5.93131 Y10.76836
G01 X5.95150 Y10.85266
G01 X5.96156 Y10.92698
G01 X5.96156 Y11.33892
G01 X5.97433 Y11.42101
G01 X6.01264 Y11.50310
G01 X6.06135 Y11.58138
G04 P0 ( dwell for no time -- G64 should not smooth over this point )
G00 Z10.00000 ( retract )

G00 X5.96085 Y9.63993 ( rapid move to begin. )
G01 F30.00000
( Mill infeed pass 1/1 )
G01 Z-0.10000
G04 P0 ( dwell for no time -- G64 should not smooth over this point )
G01 F360.00000
G01 X5.96085 Y9.63993
G01 X5.96826 Y9.55693
G01 X5.99138 Y9.40895
G01 X6.03042 Y9.30458
G01 X6.08081 Y9.19376
G01 X6.15470 Y9.09066
G01 X6.22254 Y9.00874
G01 X6.28805 Y8.95375
G01 X6.40728 Y8.86704
G01 X6.51005 Y8.82002
G01 X6.62252 Y8.77794
G01 X6.74924 Y8.75706
G01 X6.85366 Y8.74705
G01 X6.93953 Y8.75485
G01 X7.08462 Y8.77771
G01 X7.19176 Y8.81779
G01 X7.29978 Y8.86717
G01 X7.40595 Y8.94329
G01 X7.48487 Y9.00872
G01 X7.53425 Y9.06737
G01 X7.62668 Y9.19366
G01 X7.67039 Y9.28893
G01 X7.71553 Y9.40900
G01 X7.73692 Y9.53933
G01 X7.74624 Y9.63991
G01 X7.73834 Y9.72873
G01 X7.71563 Y9.87087
G01 X7.67464 Y9.98078
G01 X7.62650 Y10.08609
G01 X7.54896 Y10.19388
G01 X7.48500 Y10.27125
G01 X7.41530 Y10.32921
G01 X7.29991 Y10.41288
G01 X7.20194 Y10.45779
G01 X7.08457 Y10.50193
G01 X6.95216 Y10.52347
G01 X6.85366 Y10.53267
G01 X6.70314 Y10.51639
G01 X6.62249 Y10.50199
G01 X6.50999 Y10.45980
G01 X6.40728 Y10.41273
G01 X6.30603 Y10.34019
G01 X6.22254 Y10.27110
G01 X6.12714 Y10.15271
G01 X6.08056 Y10.08624
G01 X6.03923 Y9.99635
G01 X5.99178 Y9.87077
G01 X5.97106 Y9.74641
G01 X5.96085 Y9.63993
G04 P0 ( dwell for no time -- G64 should not smooth over this point )
G00 Z10.00000 ( retract )

G00 X8.50085 Y12.17994 ( rapid move to begin. )
G01 F30.00000
( Mill infeed pass 1/1 )
G01 Z-0.10000
G04 P0 ( dwell for no time -- G64 should not smooth over this point )
G01 F360.00000
G01 X8.50085 Y12.17994
G01 X8.51106 Y12.28641
G01 X8.53178 Y12.41077
G01 X8.57923 Y12.53635
G01 X8.62056 Y12.62624
G01 X8.66714 Y12.69271
G01 X8.76254 Y12.81110
G01 X8.84603 Y12.88021
G01 X8.94730 Y12.95273
G01 X9.05002 Y12.99980
G01 X9.16249 Y13.04199
G01 X9.24314 Y13.05639
G01 X9.39366 Y13.07267
G01 X9.49216 Y13.06347
G01 X9.62457 Y13.04193
G01 X9.74194 Y12.99779
G01 X9.83991 Y12.95291
G01 X9.95530 Y12.86921
G01 X10.02500 Y12.81125
G01 X10.08896 Y12.73388
G01 X10.16650 Y12.62609
G01 X10.21464 Y12.52078
G01 X10.25563 Y12.41087
G01 X10.27834 Y12.26873
G01 X10.28624 Y12.17991
G01 X10.27692 Y12.07933
G01 X10.25553 Y11.94900
G01 X10.21039 Y11.82893
G01 X10.16668 Y11.73366
G01 X10.07425 Y11.60737
G01 X10.02487 Y11.54872
G01 X9.94595 Y11.48329
G01 X9.83978 Y11.40717
G01 X9.73176 Y11.35779
G01 X9.62467 Y11.31773
G01 X9.47953 Y11.29492
G01 X9.39366 Y11.28718
G01 X9.28926 Y11.29713
G01 X9.16247 Y11.31796
G01 X9.05005 Y11.36002
G01 X8.94728 Y11.40704
G01 X8.82805 Y11.49375
G01 X8.76254 Y11.54875
G01 X8.69470 Y11.63066
G01 X8.62081 Y11.73376
G01 X8.57042 Y11.84458
G01 X8.53138 Y11.94895
G01 X8.50826 Y12.09693
G01 X8.50085 Y12.17994
G04 P0 ( dwell for no time -- G64 should not smooth over this point )
G00 Z10.00000 ( retract )

G00 X8.50085 Y9.63993 ( rapid move to begin. )
G01 F30.00000
( Mill infeed pass 1/1 )
G01 Z-0.10000
G04 P0 ( dwell for no time -- G64 should not smooth over this point )
G01 F360.00000
G01 X8.50085 Y9.63993
G01 X8.51106 Y9.74641
G01 X8.53178 Y9.87077
G01 X8.57923 Y9.99635
G01 X8.62056 Y10.08624
G01 X8.66714 Y10.15271
G01 X8.76254 Y10.27110
G01 X8.84603 Y10.34019
G01 X8.94730 Y10.41273
G01 X9.05002 Y10.45980
G01 X9.16249 Y10.50199
G01 X9.24314 Y10.51639
G01 X9.39366 Y10.53267
G01 X9.49216 Y10.52347
G01 X9.62457 Y10.50193
G01 X9.74194 Y10.45779
G01 X9.83991 Y10.41288
G01 X9.95530 Y10.32921
G01 X10.02500 Y10.27125
G01 X10.08896 Y10.19388
G01 X10.16650 Y10.08609
G01 X10.21464 Y9.98078
G01 X10.25563 Y9.87087
G01 X10.27834 Y9.72873
G01 X10.28624 Y9.63991
G01 X10.27692 Y9.53933
G01 X10.25553 Y9.40900
G01 X10.21039 Y9.28893
G01 X10.16668 Y9.19366
G01 X10.07425 Y9.06737
G01 X10.02487 Y9.00872
G01 X9.94595 Y8.94329
G01 X9.83978 Y8.86717
G01 X9.73176 Y8.81779
G01 X9.62462 Y8.77771
G01 X9.47953 Y8.75485
G01 X9.39366 Y8.74705
G01 X9.28924 Y8.75706
G01 X9.16252 Y8.77794
G01 X9.05005 Y8.82002
G01 X8.94728 Y8.86704
G01 X8.82805 Y8.95375
G01 X8.76254 Y9.00874
G01 X8.69470 Y9.09066
G01 X8.62081 Y9.19376
G01 X8.57042 Y9.30458
G01 X8.53138 Y9.40895
G01 X8.50826 Y9.55693
G01 X8.50085 Y9.63993
G04 P0 ( dwell for no time -- G64 should not smooth over this point )
G00 Z10.00000 ( retract )

G00 X6.35030 Y3.49987 ( rapid move to begin. )
G01 F30.00000
( Mill infeed pass 1/1 )
G01 Z-0.10000
G04 P0 ( dwell for no time -- G64 should not smooth over this point )
G01 F360.00000
G01 X6.35030 Y3.49987
G01 X10.41923 Y3.49966
G01 X10.55439 Y3.49080
G01 X10.73297 Y3.47007
G01 X10.96970 Y3.36735
G01 X11.19962 Y3.36682
G01 X11.29899 Y3.36271
G01 X11.40160 Y3.30586
G01 X11.29899 Y3.36271
G01 X11.53284 Y3.83273
G01 X11.53284 Y3.90243
G01 X11.51989 Y4.03301
G01 X11.50628 Y4.08048
G01 X11.47630 Y4.15641
G01 X11.46937 Y4.18760
G01 X11.46523 Y4.23347
G01 X11.46586 Y4.51924
G01 X11.46226 Y4.54922
G01 X11.44788 Y4.60002
G01 X11.41862 Y4.67771
G01 X11.40653 Y4.73850
G01 X11.40158 Y4.78871
G01 X11.39563 Y5.90837
G01 X11.19962 Y5.91650
G01 X10.93292 Y5.91650
G01 X10.79383 Y5.91241
G01 X10.50346 Y4.89654
G01 X10.47763 Y4.78150
G01 X10.46678 Y4.65259
G01 X10.46833 Y4.56776
G01 X10.47542 Y4.56154
G01 X10.55340 Y4.39019
G01 X10.67422 Y4.15303
G01 X10.70574 Y4.08046
G01 X10.71621 Y4.04523
G01 X10.72533 Y3.99920
G01 X10.73165 Y3.92897
G01 X10.73297 Y3.47007
G01 X10.96970 Y3.36735
G01 X10.93290 Y3.27970
G01 X10.86226 Y3.08813
G01 X10.75362 Y2.76563
G01 X10.68494 Y2.59979
G01 X10.66988 Y2.54541
G01 X10.66414 Y2.46657
G01 X10.65637 Y2.42750
G01 X10.60653 Y2.29997
G01 X10.63412 Y2.23330
G01 X10.70138 Y2.09326
G01 X10.72535 Y1.99906
G01 X10.73165 Y1.92883
G01 X10.73386 Y1.83761
G01 X10.73305 Y1.46990
G01 X10.97773 Y1.36345
G01 X10.93719 Y1.23360
G01 X10.76444 Y0.89756
G01 X10.68550 Y0.73292
G01 X10.66818 Y0.66281
G01 X10.66716 Y0.49977
G01 X10.66287 Y0.45400
G01 X10.64392 Y0.38872
G01 X10.55238 Y0.17302
G01 X10.51131 Y0.10061
G01 X10.44423 Y0.00000
G01 X11.19960 Y0.00000
G01 X11.19962 Y0.09995
G01 X11.20638 Y0.19827
G01 X11.23165 Y0.24130
G01 X11.40043 Y0.36868
G01 X11.39949 Y1.36655
G01 X11.53287 Y1.40274
G01 X11.53264 Y1.93317
G01 X11.52893 Y2.01028
G01 X11.51054 Y2.11138
G01 X11.52929 Y2.21206
G01 X11.53178 Y2.29611
G01 X11.52553 Y2.34597
G01 X11.48712 Y2.51056
G01 X11.47437 Y2.54777
G01 X11.43122 Y2.64069
G01 X11.41006 Y2.71678
G01 X11.40226 Y2.77815
G01 X11.39838 Y2.89557
G01 X11.40160 Y3.30586
G01 X11.86597 Y3.20403
G01 X11.99304 Y3.22483
G01 X12.27008 Y3.25582
G01 X12.40635 Y3.30228
G01 X12.56878 Y3.36547
G01 X12.79906 Y3.34155
G01 X12.86449 Y3.33002
G01 X12.99893 Y3.36654
G01 X13.20173 Y3.36652
G01 X13.32395 Y3.37241
G01 X13.55674 Y3.40957
G01 X13.73624 Y3.45877
G01 X13.99761 Y3.58417
G01 X13.99868 Y3.91470
G01 X14.08013 Y4.09994
G01 X14.14859 Y4.28937
G01 X14.18999 Y4.49544
G01 X14.19385 Y4.53443
G01 X14.19385 Y4.73172
G01 X14.16901 Y4.89979
G01 X13.94785 Y5.89237
G01 X14.16901 Y4.89979
G01 X14.19385 Y4.73172
G01 X14.19385 Y4.53443
G01 X14.18999 Y4.49544
G01 X14.14859 Y4.28937
G01 X14.08013 Y4.09994
G01 X13.99868 Y3.91470
G01 X13.99761 Y3.58417
G01 X14.32961 Y3.40418
G01 X14.33340 Y3.16489
G01 X14.33071 Y2.93759
G01 X14.31950 Y2.79349
G01 X14.27071 Y2.57152
G01 X14.26525 Y2.49974
G01 X14.26525 Y2.32923
G01 X14.30675 Y2.24015
G01 X14.35702 Y2.09309
G01 X14.37495 Y2.03172
G01 X14.39050 Y1.95077
G01 X14.39860 Y1.83340
G01 X14.39860 Y1.52118
G01 X14.39860 Y1.83340
G01 X14.39050 Y1.95077
G01 X14.37495 Y2.03172
G01 X14.35702 Y2.09309
G01 X14.30675 Y2.24015
G01 X14.26525 Y2.32923
G01 X14.26525 Y2.49974
G01 X14.27071 Y2.57152
G01 X14.31950 Y2.79349
G01 X14.33071 Y2.93759
G01 X14.33340 Y3.16489
G01 X14.32961 Y3.40418
G01 X14.66517 Y3.37261
G01 X14.77902 Y3.36748
G01 X14.93162 Y3.37259
G01 X15.06510 Y3.38381
G01 X15.13164 Y3.36654
G01 X15.39334 Y3.36791
G01 X15.53154 Y3.37985
G01 X15.93238 Y3.35308
G01 X16.00667 Y3.36070
G01 X16.25981 Y3.37226
G01 X16.53118 Y3.34762
G01 X16.79776 Y3.27541
G01 X17.13578 Y3.12189
G01 X17.44703 Y2.88851
G01 X17.59763 Y2.76040
G01 X17.79496 Y2.58277
G01 X18.00504 Y2.35638
G01 X18.22907 Y2.33197
G01 X18.81810 Y1.49990
G01 X20.11040 Y1.50058
G01 X20.27075 Y1.49164
G01 X20.39986 Y1.47023
G01 X20.39945 Y0.93292
G01 X20.40451 Y0.83058
G01 X20.43118 Y0.71920
G01 X20.46630 Y0.63536
G01 X20.49711 Y0.57851
G01 X20.44560 Y0.45415
G01 X20.40946 Y0.33437
G01 X20.43626 Y0.25916
G01 X20.46173 Y0.15867
G01 X20.46656 Y0.09995
G01 X20.46653 Y0.00003
G01 X21.06635 Y0.00000
G01 X21.06635 Y0.06530
G01 X21.12315 Y0.18801
G01 X21.17725 Y0.26960
G01 X21.23298 Y0.33409
G01 X21.44667 Y0.54780
G01 X21.50308 Y0.61537
G01 X21.56214 Y0.71412
G01 X21.58843 Y0.77010
G01 X21.67405 Y0.98740
G01 X21.79460 Y1.35344
G01 X21.79559 Y1.36804
G01 X21.54367 Y1.45004
G01 X21.44014 Y1.47681
G01 X21.26625 Y1.51460
G01 X21.26541 Y2.11973
G01 X21.25348 Y2.20160
G01 X21.21035 Y2.33474
G01 X21.23816 Y2.43388
G01 X21.25431 Y2.47284
G01 X21.30151 Y2.56238
G01 X21.39569 Y2.68889
G01 X21.53516 Y2.83449
G01 X21.56818 Y3.15112
G01 X21.09655 Y3.48831
G01 X20.93316 Y3.49987
G01 X20.66643 Y3.49989
G01 X20.59988 Y3.52984
G01 X20.59742 Y3.84119
G01 X20.58665 Y3.94005
G01 X20.53867 Y4.16154
G01 X20.53323 Y4.23332
G01 X20.53323 Y4.49976
G01 X20.53867 Y4.57152
G01 X20.54690 Y4.62008
G01 X20.65002 Y4.68965
G01 X20.71802 Y4.75282
G01 X20.75901 Y4.80532
G01 X20.93316 Y5.06651
G01 X21.04789 Y5.26717
G01 X21.19960 Y5.59935
G01 X21.32465 Y5.91320
G01 X21.39561 Y5.90837
G01 X21.39947 Y4.83301
G01 X21.40651 Y4.73850
G01 X21.41593 Y4.68945
G01 X21.45894 Y4.56049
G01 X21.46584 Y4.50632
G01 X21.46617 Y4.23332
G01 X21.46198 Y4.18775
G01 X21.44329 Y4.12295
G01 X21.35210 Y3.90677
G01 X21.31052 Y3.83324
G01 X21.19960 Y3.66695
G01 X21.09655 Y3.48831
G01 X21.19960 Y3.66695
G01 X21.31052 Y3.83324
G01 X21.35210 Y3.90677
G01 X21.44329 Y4.12295
G01 X21.46198 Y4.18775
G01 X21.46617 Y4.23332
G01 X21.46584 Y4.50632
G01 X21.45894 Y4.56049
G01 X21.41593 Y4.68945
G01 X21.40651 Y4.73850
G01 X21.39947 Y4.83301
G01 X21.39561 Y5.90837
G01 X21.57451 Y5.91553
G01 X21.99406 Y5.91650
G01 X22.23275 Y5.90499
G01 X22.34819 Y5.89239
G01 X22.51453 Y5.14721
G01 X22.55281 Y5.00822
G01 X22.62175 Y4.80286
G01 X22.65766 Y4.62394
G01 X22.66569 Y4.49976
G01 X22.66569 Y4.23332
G01 X22.66147 Y4.14802
G01 X22.60387 Y3.64505
G01 X22.79914 Y3.53776
G01 X22.79914 Y1.52116
G01 X22.93224 Y1.47767
G01 X22.93115 Y0.90076
G01 X22.93236 Y0.76634
G01 X22.93648 Y0.72080
G01 X22.94788 Y0.67602
G01 X22.97933 Y0.60856
G01 X23.00536 Y0.56949
G01 X23.07270 Y0.49378
G01 X22.95652 Y0.21361
G01 X22.89284 Y0.08049
G01 X22.87300 Y0.00000
G01 X24.29980 Y0.00000
G01 X23.73208 Y0.00000
G01 X23.73208 Y0.23350
G01 X23.72063 Y0.35497
G01 X23.82322 Y0.45979
G01 X23.88131 Y0.53718
G01 X23.92027 Y0.61082
G01 X23.98458 Y0.76284
G01 X24.00816 Y0.82809
G01 X24.02106 Y0.87041
G01 X24.05090 Y1.00968
G01 X24.09490 Y1.27043
G01 X24.13132 Y1.45230
G01 X24.13079 Y1.56538
G01 X24.13132 Y1.45230
G01 X24.33114 Y1.10048
G01 X24.64044 Y0.48064
G01 X24.59858 Y0.43236
G01 X24.45156 Y0.28532
G01 X24.40521 Y0.22880
G01 X24.38306 Y0.19573
G01 X24.34247 Y0.11948
G01 X24.29980 Y0.00000
G01 X26.78102 Y0.00000
G01 X26.76251 Y0.07379
G01 X26.71961 Y0.20234
G01 X26.68407 Y0.29357
G01 X26.66512 Y0.32957
G01 X26.66548 Y0.38829
G01 X26.67213 Y0.45298
G01 X26.68156 Y0.49990
G01 X26.67211 Y0.54694
G01 X26.66548 Y0.61156
G01 X26.66614 Y0.79921
G01 X26.68158 Y0.89982
G01 X26.70419 Y0.99337
G01 X26.72202 Y1.09286
G01 X26.73119 Y1.23307
G01 X26.73119 Y2.49989
G01 X26.19807 Y2.49987
G01 X26.19875 Y4.04934
G01 X26.19190 Y4.17012
G01 X26.23640 Y4.24411
G01 X26.26032 Y4.31701
G01 X26.26406 Y4.34647
G01 X26.26525 Y4.49933
G01 X26.25811 Y4.56100
G01 X26.21156 Y4.69989
G01 X26.20010 Y4.78874
G01 X26.19416 Y5.90837
G01 X26.37846 Y5.91553
G01 X26.53180 Y5.91279
G01 X26.79776 Y5.91650
G01 X27.03060 Y5.90504
G01 X27.31282 Y5.86481
G01 X27.55608 Y5.80352
G01 X27.59509 Y5.79168
G01 X28.00190 Y5.63377
G01 X28.34571 Y5.44942
G01 X28.61417 Y5.27367
G01 X28.88262 Y5.06827
G01 X28.92161 Y5.03626
G01 X29.41320 Y4.58396
G01 X29.90482 Y4.03367
G01 X30.47911 Y3.27642
G01 X30.89466 Y3.06860
G01 X31.32981 Y2.82153
G01 X32.02564 Y2.36601
G01 X32.72147 Y1.83358
G01 X33.36933 Y1.27277
G01 X33.97819 Y0.68544
G01 X34.38307 Y0.28054
G01 X34.65512 Y0.00000
G01 X45.72000 Y0.00000
G01 X45.72000 Y27.41993
G01 X0.00000 Y27.41993
G01 X0.00000 Y0.00000
G01 X34.65512 Y0.00000
G01 X34.38307 Y0.28054
G01 X33.97819 Y0.68544
G01 X33.36933 Y1.27277
G01 X32.72147 Y1.83358
G01 X32.02564 Y2.36601
G01 X31.32981 Y2.82153
G01 X30.89466 Y3.06860
G01 X30.47911 Y3.27642
G01 X29.95440 Y3.18501
G01 X29.60040 Y3.12908
G01 X28.46217 Y2.96570
G01 X27.20922 Y2.60297
G01 X26.73119 Y2.49989
G01 X26.19807 Y2.49987
G01 X26.13137 Y2.49100
G01 X26.08997 Y2.49283
G01 X25.86482 Y2.44234
G01 X25.59812 Y2.39418
G01 X25.33155 Y2.35679
G01 X24.93411 Y2.36977
G01 X24.13079 Y1.56538
G01 X23.84567 Y1.55037
G01 X23.43089 Y1.50475
G01 X23.10013 Y1.49581
G01 X22.93224 Y1.47767
G01 X22.79914 Y1.52116
G01 X22.63150 Y1.50477
G01 X22.30074 Y1.49581
G01 X21.93262 Y1.45545
G01 X21.79559 Y1.36804
G01 X21.54367 Y1.45004
G01 X21.44014 Y1.47681
G01 X21.26625 Y1.51460
G01 X21.16516 Y1.50381
G01 X21.06625 Y1.49893
G01 X20.79981 Y1.49893
G01 X20.70095 Y1.50381
G01 X20.59976 Y1.51460
G01 X20.39986 Y1.47023
G01 X20.27075 Y1.49164
G01 X20.11040 Y1.50058
G01 X18.81810 Y1.49990
G01 X18.22907 Y2.33197
G01 X18.00504 Y2.35638
G01 X17.79496 Y2.58277
G01 X17.59763 Y2.76040
G01 X17.44703 Y2.88851
G01 X17.13578 Y3.12189
G01 X16.79776 Y3.27541
G01 X16.53118 Y3.34762
G01 X16.25981 Y3.37226
G01 X16.00667 Y3.36070
G01 X15.93238 Y3.35308
G01 X15.93050 Y2.89593
G01 X15.93273 Y2.80411
G01 X15.93908 Y2.73385
G01 X15.95834 Y2.65354
G01 X15.99118 Y2.56073
G01 X16.00525 Y2.43904
G01 X16.03197 Y2.36741
G01 X16.00812 Y2.30546
G01 X15.99900 Y2.25323
G01 X15.99804 Y1.41221
G01 X15.83065 Y1.36370
G01 X15.93136 Y0.96251
G01 X15.93345 Y0.78872
G01 X15.93840 Y0.73851
G01 X15.95049 Y0.67775
G01 X15.98059 Y0.60058
G01 X16.02897 Y0.50328
G01 X16.06377 Y0.44574
G01 X16.06377 Y0.23332
G01 X16.06857 Y0.17447
G01 X16.07904 Y0.12301
G01 X16.10817 Y0.03637
G01 X16.11612 Y0.00000
G01 X16.64807 Y0.00000
G01 X16.63106 Y0.06662
G01 X16.58628 Y0.20234
G01 X16.53118 Y0.34374
G01 X16.53118 Y0.40386
G01 X16.56857 Y0.48049
G01 X16.59039 Y0.54138
G01 X16.64086 Y0.70134
G01 X16.65351 Y0.75860
G01 X16.66367 Y0.86383
G01 X16.66453 Y1.03304
G01 X16.74449 Y1.43236
G01 X16.93113 Y1.51851
G01 X17.19758 Y1.66413
G01 X17.39758 Y1.78938
G01 X17.39892 Y0.80424
G01 X17.40530 Y0.73391
G01 X17.41444 Y0.68791
G01 X17.45737 Y0.56081
G01 X17.47114 Y0.43873
G01 X17.49712 Y0.36733
G01 X17.43654 Y0.24369
G01 X17.39179 Y0.17003
G01 X17.39674 Y0.11946
G01 X17.39758 Y0.00000
G01 X17.39674 Y0.11946
G01 X17.39179 Y0.17003
G01 X17.43654 Y0.24369
G01 X17.49712 Y0.36733
G01 X18.09849 Y0.36848
G01 X18.47591 Y0.36185
G01 X18.87733 Y0.36497
G01 X18.86877 Y0.22019
G01 X18.86521 Y0.00000
G01 X18.86877 Y0.22019
G01 X18.87733 Y0.36497
G01 X18.88856 Y0.43322
G01 X18.87047 Y0.61999
G01 X18.81810 Y1.49990
G01 X18.22907 Y2.33197
G01 X18.00504 Y2.35638
G01 X17.61327 Y1.98707
G01 X17.39758 Y1.78938
G01 X17.19758 Y1.66413
G01 X16.93113 Y1.51851
G01 X16.75186 Y1.43563
G01 X16.73276 Y1.43220
G01 X16.24510 Y1.43236
G01 X16.10446 Y1.42456
G01 X15.99804 Y1.41221
G01 X15.83065 Y1.36370
G01 X15.73149 Y1.37262
G01 X15.59824 Y1.39080
G01 X15.50485 Y1.37681
G01 X15.13164 Y1.49990
G01 X14.66517 Y1.49990
G01 X14.56652 Y1.50475
G01 X14.39860 Y1.52118
G01 X14.13205 Y1.43264
G01 X13.97414 Y1.37008
G01 X13.81971 Y1.28930
G01 X13.66543 Y1.36660
G01 X13.38687 Y1.41976
G01 X13.21831 Y1.43226
G01 X13.06571 Y1.42657
G01 X12.86571 Y1.40663
G01 X12.76520 Y1.36695
G01 X12.39926 Y1.36624
G01 X12.13251 Y1.38384
G01 X11.99736 Y1.34831
G01 X11.76020 Y1.36944
G01 X11.66320 Y1.38107
G01 X11.53287 Y1.40274
G01 X11.39949 Y1.36655
G01 X10.97773 Y1.36345
G01 X10.73305 Y1.46990
G01 X10.39746 Y1.50757
G01 X10.26655 Y1.52989
G01 X10.21903 Y1.52029
G01 X10.01944 Y1.50000
G01 X4.33220 Y1.49990
G01 X3.69989 Y0.89980
G01 X2.90002 Y0.09995
G01 X2.80525 Y0.00000
G01 X2.90002 Y0.09995
G01 X3.69989 Y0.89980
G01 X4.33220 Y1.49990
G01 X4.90004 Y2.09995
G01 X5.69989 Y2.89979
G01 X6.35030 Y3.49987
G01 X6.90001 Y4.09994
G01 X7.69986 Y4.89979
G01 X8.09374 Y5.25841
G01 X8.44230 Y5.52242
G01 X8.79086 Y5.73093
G01 X9.16749 Y5.89895
G01 X9.52317 Y5.99951
G01 X9.77133 Y6.03849
G01 X10.01944 Y6.04888
G01 X10.35103 Y6.02285
G01 X10.67742 Y5.94911
G01 X10.79383 Y5.91241
G01 X10.93292 Y5.91650
G01 X11.19962 Y5.91650
G01 X11.39563 Y5.90837
G01 X11.61890 Y5.91553
G01 X11.86597 Y5.90266
G01 X12.11306 Y5.91553
G01 X12.33642 Y5.90837
G01 X12.53259 Y5.91650
G01 X12.79906 Y5.91650
G01 X12.99507 Y5.90837
G01 X13.17935 Y5.91553
G01 X13.33284 Y5.91279
G01 X13.59888 Y5.91650
G01 X13.83175 Y5.90504
G01 X13.94785 Y5.89237
G01 X14.12154 Y5.94926
G01 X14.33766 Y6.00370
G01 X14.55379 Y6.03595
G01 X14.59278 Y6.03976
G01 X15.00574 Y6.03964
G01 X15.06202 Y6.03400
G01 X15.35118 Y6.04888
G01 X15.68275 Y6.02285
G01 X16.00914 Y5.94911
G01 X16.12323 Y5.91320
G01 X16.19809 Y5.90807
G01 X16.39799 Y5.91650
G01 X16.66377 Y5.91279
G01 X16.81724 Y5.91553
G01 X17.06890 Y5.90217
G01 X17.33090 Y5.91650
G01 X17.59763 Y5.91650
G01 X17.79750 Y5.90807
G01 X18.01216 Y5.91645
G01 X18.16501 Y5.91551
G01 X18.39331 Y5.90309
G01 X18.62160 Y5.86864
G01 X18.91886 Y5.79552
G01 X19.28345 Y5.93730
G01 X19.53847 Y6.00357
G01 X19.75447 Y6.03585
G01 X20.00357 Y6.04985
G01 X20.55619 Y6.04888
G01 X20.86458 Y6.02574
G01 X21.21055 Y5.94911
G01 X21.32465 Y5.91320
G01 X21.39561 Y5.90837
G01 X21.57451 Y5.91553
G01 X21.99406 Y5.91650
G01 X22.23275 Y5.90499
G01 X22.34819 Y5.89239
G01 X22.38593 Y5.90596
G01 X22.72203 Y5.99951
G01 X22.76104 Y6.00728
G01 X22.97019 Y6.03849
G01 X23.17930 Y6.04888
G01 X23.21832 Y6.04888
G01 X23.54989 Y6.02285
G01 X23.87628 Y5.94911
G01 X23.99271 Y5.91241
G01 X24.13201 Y5.91650
G01 X24.39845 Y5.91650
G01 X24.59462 Y5.90837
G01 X24.81798 Y5.91553
G01 X25.06508 Y5.90266
G01 X25.31214 Y5.91553
G01 X25.53541 Y5.90837
G01 X25.73147 Y5.91650
G01 X25.99817 Y5.91650
G01 X26.19416 Y5.90837
G01 X25.99817 Y5.91650
G01 X25.73147 Y5.91650
G01 X25.53541 Y5.90837
G01 X25.52944 Y4.78871
G01 X25.51796 Y4.69986
G01 X25.47122 Y4.56108
G01 X25.46391 Y4.49976
G01 X25.46424 Y4.22656
G01 X25.46807 Y4.18760
G01 X25.48303 Y4.13301
G01 X25.56474 Y3.93327
G01 X25.62677 Y3.74602
G01 X25.73144 Y3.45420
G01 X25.86495 Y3.12765
G01 X25.99817 Y2.76631
G01 X26.08997 Y2.49283
G01 X26.13137 Y2.49100
G01 X26.13137 Y0.76634
G01 X26.13546 Y0.72095
G01 X26.14501 Y0.68100
G01 X26.15954 Y0.64435
G01 X26.19774 Y0.57803
G01 X26.19710 Y0.28865
G01 X26.15903 Y0.22289
G01 X26.10457 Y0.11189
G01 X26.08069 Y0.04356
G01 X26.07150 Y0.00000
G01 X25.39058 Y0.00000
G01 X25.38247 Y0.04343
G01 X25.35921 Y0.11212
G01 X25.28242 Y0.26101
G01 X25.22967 Y0.33170
G01 X25.30876 Y0.52266
G01 X25.32441 Y0.57231
G01 X25.33068 Y0.61318
G01 X25.33155 Y2.35679
G01 X24.93411 Y2.36977
G01 X24.69774 Y2.65709
G01 X24.38954 Y3.11351
G01 X24.25543 Y3.19982
G01 X23.93198 Y3.36984
G01 X24.25543 Y3.19982
G01 X24.38954 Y3.11351
G01 X24.52916 Y3.42575
G01 X24.73173 Y3.83281
G01 X24.72985 Y3.94421
G01 X24.71880 Y4.03299
G01 X24.70523 Y4.08046
G01 X24.67529 Y4.15643
G01 X24.66454 Y4.22656
G01 X24.66411 Y4.52966
G01 X24.64686 Y4.60009
G01 X24.62571 Y4.65295
G01 X24.61207 Y4.69991
G01 X24.60056 Y4.78879
G01 X24.59462 Y5.90837
G01 X24.39845 Y5.91650
G01 X24.13201 Y5.91650
G01 X23.99271 Y5.91241
G01 X23.70244 Y4.89661
G01 X23.67661 Y4.78155
G01 X23.66576 Y4.65262
G01 X23.66731 Y4.56786
G01 X23.67415 Y4.56187
G01 X23.75225 Y4.39016
G01 X23.88156 Y4.13512
G01 X23.90463 Y4.08048
G01 X23.92426 Y3.99918
G01 X23.93064 Y3.92887
G01 X23.93285 Y3.83695
G01 X23.93198 Y3.36984
G01 X23.67656 Y3.45049
G01 X23.46965 Y3.49166
G01 X23.33219 Y3.50012
G01 X23.20056 Y3.49989
G01 X23.10016 Y3.50474
G01 X22.79914 Y3.53776
G01 X22.60387 Y3.64505
G01 X22.38284 Y3.56202
G01 X22.26589 Y3.52953
G01 X22.11316 Y3.49593
G01 X21.85101 Y3.30838
G01 X21.73795 Y3.23751
G01 X21.56818 Y3.15112
G01 X21.53516 Y2.83449
G01 X21.62396 Y2.73992
G01 X21.73341 Y2.60774
G01 X21.75947 Y2.56873
G01 X21.81134 Y2.47284
G01 X21.85144 Y2.35694
G01 X21.86048 Y2.30518
G01 X21.87097 Y2.16146
G01 X21.87971 Y2.10932
G01 X21.91842 Y1.94666
G01 X21.93140 Y1.79550
G01 X21.93262 Y1.45545
G01 X21.79559 Y1.36804
G01 X21.79460 Y1.35344
G01 X21.96544 Y1.03535
G01 X22.08500 Y0.79632
G01 X22.11360 Y0.73287
G01 X22.12848 Y0.67869
G01 X22.13234 Y0.62657
G01 X22.12543 Y0.57239
G01 X22.10973 Y0.52261
G01 X21.97598 Y0.19558
G01 X21.94524 Y0.07308
G01 X21.93808 Y0.00000
G01 X22.87300 Y0.00000
G01 X21.93808 Y0.00000
G01 X21.94524 Y0.07308
G01 X21.97598 Y0.19558
G01 X22.10973 Y0.52261
G01 X22.12543 Y0.57239
G01 X22.13234 Y0.62657
G01 X22.12848 Y0.67869
G01 X22.11360 Y0.73287
G01 X22.08500 Y0.79632
G01 X21.96544 Y1.03535
G01 X21.79460 Y1.35344
G01 X21.79559 Y1.36804
G01 X21.54367 Y1.45004
G01 X21.44014 Y1.47681
G01 X21.26625 Y1.51460
G01 X21.16516 Y1.50381
G01 X21.06625 Y1.49893
G01 X20.79981 Y1.49893
G01 X20.70095 Y1.50381
G01 X20.59976 Y1.51460
G01 X20.39986 Y1.47023
G01 X20.59976 Y1.51460
G01 X20.59920 Y1.92270
G01 X20.60788 Y2.00853
G01 X20.61578 Y2.04353
G01 X20.63966 Y2.11191
G01 X20.69412 Y2.22301
G01 X20.73224 Y2.28884
G01 X20.73280 Y2.57792
G01 X20.68706 Y2.66129
G01 X20.67248 Y2.70955
G01 X20.66676 Y2.75989
G01 X20.66643 Y3.49989
G01 X20.59988 Y3.52984
G01 X20.36536 Y3.50474
G01 X20.16798 Y3.50474
G01 X19.67037 Y3.55768
G01 X19.19790 Y3.61963
G01 X19.19928 Y4.19184
G01 X19.13793 Y4.36387
G01 X18.87596 Y4.36184
G01 X18.49854 Y4.36847
G01 X17.89692 Y4.36733
G01 X17.87093 Y4.43873
G01 X17.85719 Y4.56075
G01 X17.81429 Y4.68785
G01 X17.80517 Y4.73387
G01 X17.79885 Y4.80411
G01 X17.79750 Y5.90807
G01 X17.79885 Y4.80411
G01 X17.80517 Y4.73387
G01 X17.81429 Y4.68785
G01 X17.85719 Y4.56075
G01 X17.87093 Y4.43873
G01 X17.89692 Y4.36733
G01 X17.83631 Y4.24343
G01 X17.79171 Y4.16992
G01 X17.79821 Y4.04934
G01 X17.79273 Y3.02115
G01 X17.79496 Y2.58277
G01 X18.00504 Y2.35638
G01 X17.99100 Y2.36952
G01 X17.00982 Y2.36184
G01 X16.63240 Y2.36847
G01 X16.03197 Y2.36741
G01 X16.00525 Y2.43904
G01 X15.99118 Y2.56073
G01 X15.95834 Y2.65354
G01 X15.93908 Y2.73385
G01 X15.93273 Y2.80411
G01 X15.93050 Y2.89593
G01 X15.93238 Y3.35308
G01 X16.00667 Y3.36070
G01 X16.25981 Y3.37226
G01 X16.26461 Y3.69428
G01 X16.26438 Y4.51922
G01 X16.25161 Y4.58569
G01 X16.22522 Y4.65287
G01 X16.21158 Y4.69989
G01 X16.20012 Y4.78874
G01 X16.19809 Y5.90807
G01 X16.12323 Y5.91320
G01 X15.99819 Y5.59935
G01 X15.88470 Y5.34091
G01 X15.78564 Y5.15358
G01 X15.59982 Y4.86529
G01 X15.55674 Y4.77330
G01 X15.54493 Y4.73428
G01 X15.53477 Y4.68257
G01 X15.53253 Y4.61361
G01 X15.53766 Y4.56408
G01 X15.55382 Y4.50258
G01 X15.48033 Y4.32305
G01 X15.47104 Y4.29024
G01 X15.46522 Y4.23992
G01 X15.47211 Y4.17264
G01 X15.51513 Y4.04355
G01 X15.52636 Y3.98475
G01 X15.53243 Y3.83715
G01 X15.53154 Y3.37985
G01 X15.39334 Y3.36791
G01 X15.13164 Y3.36654
G01 X15.13373 Y2.78879
G01 X15.14523 Y2.69992
G01 X15.19182 Y2.56106
G01 X15.19903 Y2.49974
G01 X15.19857 Y2.23330
G01 X15.19431 Y2.18770
G01 X15.14813 Y2.04361
G01 X15.13373 Y1.94429
G01 X15.13164 Y1.49990
G01 X15.50485 Y1.37681
G01 X15.46479 Y1.27879
G01 X15.36009 Y0.98707
G01 X15.28920 Y0.77386
G01 X15.27015 Y0.70241
G01 X15.26510 Y0.65260
G01 X15.26746 Y0.58351
G01 X15.28656 Y0.50274
G01 X15.21356 Y0.32304
G01 X15.20436 Y0.29022
G01 X15.19834 Y0.23343
G01 X15.19751 Y0.00000
G01 X13.04920 Y0.00000
G01 X13.04315 Y0.03147
G01 X13.01415 Y0.12349
G01 X13.00376 Y0.17460
G01 X12.99893 Y0.23332
G01 X12.99893 Y0.44651
G01 X12.96594 Y0.49977
G01 X12.91849 Y0.59327
G01 X12.88484 Y0.67775
G01 X12.87272 Y0.73861
G01 X12.86777 Y0.78880
G01 X12.86571 Y0.96203
G01 X12.76520 Y1.36695
G01 X12.86571 Y1.40663
G01 X12.86571 Y2.29987
G01 X12.82349 Y2.34208
G01 X12.80673 Y2.41084
G01 X12.80013 Y2.48023
G01 X12.80671 Y2.58572
G01 X12.85682 Y2.81755
G01 X12.86449 Y2.93746
G01 X12.86695 Y3.09420
G01 X12.86449 Y3.33002
G01 X12.99893 Y3.36654
G01 X12.99962 Y4.04934
G01 X12.99276 Y4.17010
G01 X13.01656 Y4.20533
G01 X13.04681 Y4.26651
G01 X13.05872 Y4.30548
G01 X13.06505 Y4.34647
G01 X13.06629 Y4.49933
G01 X13.06220 Y4.54546
G01 X13.04734 Y4.60002
G01 X13.02616 Y4.65287
G01 X13.01252 Y4.69986
G01 X13.00597 Y4.73850
G01 X12.99893 Y4.83301
G01 X12.99507 Y5.90837
G01 X12.79906 Y5.91650
G01 X12.53259 Y5.91650
G01 X12.33642 Y5.90837
G01 X12.33256 Y4.83314
G01 X12.32553 Y4.73857
G01 X12.31897 Y4.69991
G01 X12.30521 Y4.65259
G01 X12.28407 Y4.60017
G01 X12.26911 Y4.54551
G01 X12.26492 Y4.49976
G01 X12.26528 Y4.22653
G01 X12.27224 Y4.17192
G01 X12.28407 Y4.13291
G01 X12.36579 Y3.93316
G01 X12.46998 Y3.62486
G01 X12.56878 Y3.36547
G01 X12.40635 Y3.30228
G01 X12.27008 Y3.25582
G01 X12.26424 Y2.94048
G01 X12.26556 Y2.57647
G01 X12.27562 Y2.48321
G01 X12.29291 Y2.41874
G01 X12.27102 Y2.32659
G01 X12.21776 Y2.26157
G01 X12.18410 Y2.20386
G01 X12.15499 Y2.12860
G01 X12.14084 Y2.06847
G01 X12.13178 Y1.96812
G01 X12.13251 Y1.38384
G01 X11.99736 Y1.34831
G01 X12.00071 Y1.06520
G01 X11.99972 Y0.32944
G01 X12.04105 Y0.24031
G01 X12.05281 Y0.20124
G01 X12.06508 Y0.11968
G01 X12.06599 Y0.00003
G01 X13.93279 Y0.00003
G01 X13.93104 Y0.11946
G01 X13.92001 Y0.26815
G01 X13.90233 Y0.36655
G01 X13.92715 Y0.53444
G01 X13.92715 Y0.73172
G01 X13.90231 Y0.89982
G01 X13.82263 Y1.25692
G01 X13.81971 Y1.28930
G01 X13.66543 Y1.36660
G01 X13.66543 Y1.90243
G01 X13.67025 Y1.98458
G01 X13.68123 Y2.04351
G01 X13.69385 Y2.08575
G01 X13.79400 Y2.29169
G01 X13.78356 Y2.34315
G01 X13.75608 Y2.41704
G01 X13.73210 Y2.43667
G01 X13.73624 Y3.45877
G01 X13.99761 Y3.58417
G01 X14.32961 Y3.40418
G01 X14.49555 Y3.38714
G01 X14.66517 Y3.37261
G01 X14.77902 Y3.36748
G01 X14.93162 Y3.37259
G01 X15.06510 Y3.38381
G01 X15.13164 Y3.36654
G01 X15.39334 Y3.36791
G01 X15.53154 Y3.37985
G01 X15.93238 Y3.35308
G01 X16.00667 Y3.36070
G01 X16.25981 Y3.37226
G01 X16.41747 Y3.35956
G01 X16.53118 Y3.34762
G01 X16.79776 Y3.27541
G01 X17.13578 Y3.12189
G01 X17.12892 Y3.94437
G01 X17.11457 Y4.04355
G01 X17.07154 Y4.17258
G01 X17.06435 Y4.23332
G01 X17.06433 Y5.47774
G01 X17.06890 Y5.90217
G01 X17.33090 Y5.91650
G01 X17.59763 Y5.91650
G01 X17.79750 Y5.90807
G01 X18.01216 Y5.91645
G01 X18.16501 Y5.91551
G01 X18.39331 Y5.90309
G01 X18.66062 Y5.86090
G01 X18.91886 Y5.79552
G01 X19.08752 Y4.61267
G01 X19.13793 Y4.36387
G01 X19.19928 Y4.19184
G01 X19.19790 Y3.61963
G01 X18.58952 Y2.76647
G01 X18.42008 Y2.54864
G01 X18.22907 Y2.33197
G04 P0 ( dwell for no time -- G64 should not smooth over this point )
G00 Z10.00000 ( retract )

G00 X16.90596 Y0.46660 ( rapid move to begin. )
G01 F30.00000
( Mill infeed pass 1/1 )
G01 Z-0.10000
G04 P0 ( dwell for no time -- G64 should not smooth over this point )
G01 F360.00000
G01 X16.90596 Y0.46660
G01 X17.22272 Y0.46660
G01 X17.15618 Y0.53315
G01 X16.97251 Y0.53315
G01 X16.90596 Y0.46660
G04 P0 ( dwell for no time -- G64 should not smooth over this point )
G00 Z10.00000 ( retract )

G00 X15.47289 Y0.23330 ( rapid move to begin. )
G01 F30.00000
( Mill infeed pass 1/1 )
G01 Z-0.10000
G04 P0 ( dwell for no time -- G64 should not smooth over this point )
G01 F360.00000
G01 X15.47289 Y0.23330
G01 X15.50624 Y0.26670
G01 X15.76489 Y0.26670
G01 X15.76489 Y0.19990
G01 X15.50624 Y0.19990
G01 X15.47289 Y0.23330
G04 P0 ( dwell for no time -- G64 should not smooth over this point )
G00 Z10.00000 ( retract )

G00 X14.63180 Y0.19990 ( rapid move to begin. )
G01 F30.00000
( Mill infeed pass 1/1 )
G01 Z-0.10000
G04 P0 ( dwell for no time -- G64 should not smooth over this point )
G01 F360.00000
G01 X14.63180 Y0.19990
G01 X14.89024 Y0.19990
G01 X14.96504 Y0.27470
G01 X14.96504 Y0.72507
G01 X14.89024 Y0.79985
G01 X14.63180 Y0.79985
G01 X14.63180 Y0.19990
G04 P0 ( dwell for no time -- G64 should not smooth over this point )
G00 Z10.00000 ( retract )

G00 X10.09993 Y0.46660 ( rapid move to begin. )
G01 F30.00000
( Mill infeed pass 1/1 )
G01 Z-0.10000
G04 P0 ( dwell for no time -- G64 should not smooth over this point )
G01 F360.00000
G01 X10.09993 Y0.46660
G01 X10.35842 Y0.46660
G01 X10.43318 Y0.54125
G01 X10.43318 Y0.72507
G01 X10.35837 Y0.79985
G01 X10.09993 Y0.79985
G01 X10.09993 Y0.46660
G04 P0 ( dwell for no time -- G64 should not smooth over this point )
G00 Z10.00000 ( retract )

G00 X10.90795 Y2.46659 ( rapid move to begin. )
G01 F30.00000
( Mill infeed pass 1/1 )
G01 Z-0.10000
G04 P0 ( dwell for no time -- G64 should not smooth over this point )
G01 F360.00000
G01 X10.90795 Y2.46659
G01 X11.22477 Y2.46659
G01 X11.15822 Y2.53314
G01 X10.97437 Y2.53314
G01 X10.90795 Y2.46659
G04 P0 ( dwell for no time -- G64 should not smooth over this point )
G00 Z10.00000 ( retract )

G00 X10.09993 Y2.46659 ( rapid move to begin. )
G01 F30.00000
( Mill infeed pass 1/1 )
G01 Z-0.10000
G04 P0 ( dwell for no time -- G64 should not smooth over this point )
G01 F360.00000
G01 X10.09993 Y2.46659
G01 X10.35842 Y2.46659
G01 X10.43318 Y2.54122
G01 X10.43318 Y2.72506
G01 X10.35837 Y2.79984
G01 X10.09993 Y2.79984
G01 X10.09993 Y2.46659
G04 P0 ( dwell for no time -- G64 should not smooth over this point )
G00 Z10.00000 ( retract )

G00 X10.94110 Y4.23324 ( rapid move to begin. )
G01 F30.00000
( Mill infeed pass 1/1 )
G01 Z-0.10000
G04 P0 ( dwell for no time -- G64 should not smooth over this point )
G01 F360.00000
G01 X10.94110 Y4.23324
G01 X10.97437 Y4.19989
G01 X11.23302 Y4.19989
G01 X11.23302 Y4.26644
G01 X10.97430 Y4.26644
G01 X10.94110 Y4.23324
G04 P0 ( dwell for no time -- G64 should not smooth over this point )
G00 Z10.00000 ( retract )

G00 X12.50719 Y4.46634 ( rapid move to begin. )
G01 F30.00000
( Mill infeed pass 1/1 )
G01 Z-0.10000
G04 P0 ( dwell for no time -- G64 should not smooth over this point )
G01 F360.00000
G01 X12.50719 Y4.46634
G01 X12.82446 Y4.46634
G01 X12.75766 Y4.53314
G01 X12.57399 Y4.53314
G01 X12.50719 Y4.46634
G04 P0 ( dwell for no time -- G64 should not smooth over this point )
G00 Z10.00000 ( retract )

G00 X14.63180 Y2.27470 ( rapid move to begin. )
G01 F30.00000
( Mill infeed pass 1/1 )
G01 Z-0.10000
G04 P0 ( dwell for no time -- G64 should not smooth over this point )
G01 F360.00000
G01 X14.63180 Y2.27470
G01 X14.63180 Y2.45836
G01 X14.70657 Y2.53314
G01 X14.89024 Y2.53314
G01 X14.96504 Y2.45836
G01 X14.96504 Y2.27470
G01 X14.89024 Y2.19989
G01 X14.70657 Y2.19989
G01 X14.63180 Y2.27470
G04 P0 ( dwell for no time -- G64 should not smooth over this point )
G00 Z10.00000 ( retract )

G00 X15.73954 Y4.23324 ( rapid move to begin. )
G01 F30.00000
( Mill infeed pass 1/1 )
G01 Z-0.10000
G04 P0 ( dwell for no time -- G64 should not smooth over this point )
G01 F360.00000
G01 X15.73954 Y4.23324
G01 X15.77282 Y4.26644
G01 X16.03134 Y4.26644
G01 X16.03134 Y4.19989
G01 X15.77287 Y4.19989
G01 X15.73954 Y4.23324
G04 P0 ( dwell for no time -- G64 should not smooth over this point )
G00 Z10.00000 ( retract )

G00 X17.30550 Y4.46634 ( rapid move to begin. )
G01 F30.00000
( Mill infeed pass 1/1 )
G01 Z-0.10000
G04 P0 ( dwell for no time -- G64 should not smooth over this point )
G01 F360.00000
G01 X17.30550 Y4.46634
G01 X17.37230 Y4.53314
G01 X17.55615 Y4.53314
G01 X17.62282 Y4.46634
G01 X17.30550 Y4.46634
G04 P0 ( dwell for no time -- G64 should not smooth over this point )
G00 Z10.00000 ( retract )

G00 X20.09991 Y2.27470 ( rapid move to begin. )
G01 F30.00000
( Mill infeed pass 1/1 )
G01 Z-0.10000
G04 P0 ( dwell for no time -- G64 should not smooth over this point )
G01 F360.00000
G01 X20.09991 Y2.27470
G01 X20.09991 Y2.72506
G01 X20.17469 Y2.79984
G01 X20.35835 Y2.79984
G01 X20.43316 Y2.72506
G01 X20.43316 Y2.27470
G01 X20.35835 Y2.19989
G01 X20.17469 Y2.19989
G01 X20.09991 Y2.27470
G04 P0 ( dwell for no time -- G64 should not smooth over this point )
G00 Z10.00000 ( retract )

G00 X22.36584 Y0.27470 ( rapid move to begin. )
G01 F30.00000
( Mill infeed pass 1/1 )
G01 Z-0.10000
G04 P0 ( dwell for no time -- G64 should not smooth over this point )
G01 F360.00000
G01 X22.36584 Y0.27470
G01 X22.36584 Y0.72507
G01 X22.44062 Y0.79985
G01 X22.62429 Y0.79985
G01 X22.69909 Y0.72507
G01 X22.69909 Y0.27470
G01 X22.62429 Y0.19990
G01 X22.44062 Y0.19990
G01 X22.36584 Y0.27470
G04 P0 ( dwell for no time -- G64 should not smooth over this point )
G00 Z10.00000 ( retract )

G00 X23.03234 Y2.27470 ( rapid move to begin. )
G01 F30.00000
( Mill infeed pass 1/1 )
G01 Z-0.10000
G04 P0 ( dwell for no time -- G64 should not smooth over this point )
G01 F360.00000
G01 X23.03234 Y2.27470
G01 X23.10712 Y2.19989
G01 X23.29078 Y2.19989
G01 X23.36559 Y2.27470
G01 X23.36559 Y2.72506
G01 X23.29078 Y2.79984
G01 X23.10712 Y2.79984
G01 X23.03234 Y2.72506
G01 X23.03234 Y2.27470
G04 P0 ( dwell for no time -- G64 should not smooth over this point )
G00 Z10.00000 ( retract )

G00 X22.23249 Y2.27470 ( rapid move to begin. )
G01 F30.00000
( Mill infeed pass 1/1 )
G01 Z-0.10000
G04 P0 ( dwell for no time -- G64 should not smooth over this point )
G01 F360.00000
G01 X22.23249 Y2.27470
G01 X22.30727 Y2.19989
G01 X22.49112 Y2.19989
G01 X22.56574 Y2.27465
G01 X22.56574 Y2.72512
G01 X22.49112 Y2.79984
G01 X22.30727 Y2.79984
G01 X22.23249 Y2.72506
G01 X22.23249 Y2.27470
G04 P0 ( dwell for no time -- G64 should not smooth over this point )
G00 Z10.00000 ( retract )

G00 X20.89975 Y4.27469 ( rapid move to begin. )
G01 F30.00000
( Mill infeed pass 1/1 )
G01 Z-0.10000
G04 P0 ( dwell for no time -- G64 should not smooth over this point )
G01 F360.00000
G01 X20.89975 Y4.27469
G01 X20.97453 Y4.19989
G01 X21.15820 Y4.19989
G01 X21.23300 Y4.27469
G01 X21.23300 Y4.45836
G01 X21.15820 Y4.53314
G01 X20.97453 Y4.53314
G01 X20.89975 Y4.45836
G01 X20.89975 Y4.27469
G04 P0 ( dwell for no time -- G64 should not smooth over this point )
G00 Z10.00000 ( retract )

G00 X21.69935 Y4.19989 ( rapid move to begin. )
G01 F30.00000
( Mill infeed pass 1/1 )
G01 Z-0.10000
G04 P0 ( dwell for no time -- G64 should not smooth over this point )
G01 F360.00000
G01 X21.69935 Y4.19989
G01 X21.95797 Y4.19989
G01 X22.03259 Y4.27464
G01 X22.03259 Y4.45841
G01 X21.95797 Y4.53314
G01 X21.69935 Y4.53314
G01 X21.69935 Y4.19989
G04 P0 ( dwell for no time -- G64 should not smooth over this point )
G00 Z10.00000 ( retract )

G00 X24.14008 Y4.23324 ( rapid move to begin. )
G01 F30.00000
( Mill infeed pass 1/1 )
G01 Z-0.10000
G04 P0 ( dwell for no time -- G64 should not smooth over this point )
G01 F360.00000
G01 X24.14008 Y4.23324
G01 X24.17336 Y4.26644
G01 X24.43188 Y4.26644
G01 X24.43188 Y4.19989
G01 X24.17341 Y4.19989
G01 X24.14008 Y4.23324
G04 P0 ( dwell for no time -- G64 should not smooth over this point )
G00 Z10.00000 ( retract )

G00 X25.70604 Y4.46634 ( rapid move to begin. )
G01 F30.00000
( Mill infeed pass 1/1 )
G01 Z-0.10000
G04 P0 ( dwell for no time -- G64 should not smooth over this point )
G01 F360.00000
G01 X25.70604 Y4.46634
G01 X25.77285 Y4.53314
G01 X25.95669 Y4.53314
G01 X26.02337 Y4.46634
G01 X25.70604 Y4.46634
G04 P0 ( dwell for no time -- G64 should not smooth over this point )
G00 Z10.00000 ( retract )

G00 X25.56495 Y0.27465 ( rapid move to begin. )
G01 F30.00000
( Mill infeed pass 1/1 )
G01 Z-0.10000
G04 P0 ( dwell for no time -- G64 should not smooth over this point )
G01 F360.00000
G01 X25.56495 Y0.27465
G01 X25.63955 Y0.19990
G01 X25.82342 Y0.19990
G01 X25.89820 Y0.27470
G01 X25.89820 Y0.72507
G01 X25.82342 Y0.79985
G01 X25.63955 Y0.79985
G01 X25.56495 Y0.72512
G01 X25.56495 Y0.27465
G04 P0 ( dwell for no time -- G64 should not smooth over this point )
G00 Z10.00000 ( retract )

G00 X27.03106 Y0.27470 ( rapid move to begin. )
G01 F30.00000
( Mill infeed pass 1/1 )
G01 Z-0.10000
G04 P0 ( dwell for no time -- G64 should not smooth over this point )
G01 F360.00000
G01 X27.03106 Y0.27470
G01 X27.10584 Y0.19990
G01 X27.28951 Y0.19990
G01 X27.36431 Y0.27470
G01 X27.36431 Y0.32520
G01 X27.28956 Y0.39980
G01 X27.10579 Y0.39980
G01 X27.03106 Y0.32520
G01 X27.03106 Y0.27470
G04 P0 ( dwell for no time -- G64 should not smooth over this point )
G00 Z10.00000 ( retract )

G00 X27.03106 Y0.67452 ( rapid move to begin. )
G01 F30.00000
( Mill infeed pass 1/1 )
G01 Z-0.10000
G04 P0 ( dwell for no time -- G64 should not smooth over this point )
G01 F360.00000
G01 X27.03106 Y0.67452
G01 X27.10584 Y0.59969
G01 X27.28951 Y0.59969
G01 X27.36431 Y0.67452
G01 X27.36431 Y0.72507
G01 X27.28951 Y0.79985
G01 X27.10584 Y0.79985
G01 X27.03106 Y0.72507
G01 X27.03106 Y0.67452
G04 P0 ( dwell for no time -- G64 should not smooth over this point )
G00 Z10.00000 ( retract )

G00 X33.79775 Y8.24293 ( rapid move to begin. )
G01 F30.00000
( Mill infeed pass 1/1 )
G01 Z-0.10000
G04 P0 ( dwell for no time -- G64 should not smooth over this point )
G01 F360.00000
G01 X33.79775 Y8.24293
G01 X33.81553 Y8.10781
G01 X33.91662 Y7.86371
G01 X34.07740 Y7.65391
G01 X34.28721 Y7.49287
G01 X34.53155 Y7.39178
G01 X34.66668 Y7.37400
G01 X34.66668 Y7.63069
G01 X34.55126 Y7.66011
G01 X34.44839 Y7.70405
G01 X34.34502 Y7.76884
G01 X34.26061 Y7.84225
G01 X34.18804 Y7.92739
G01 X34.12899 Y8.02239
G01 X34.08469 Y8.12510
G01 X34.05444 Y8.24293
G01 X33.79775 Y8.24293
G04 P0 ( dwell for no time -- G64 should not smooth over this point )
G00 Z10.00000 ( retract )

G00 X36.45291 Y10.90994 ( rapid move to begin. )
G01 F30.00000
( Mill infeed pass 1/1 )
G01 Z-0.10000
G04 P0 ( dwell for no time -- G64 should not smooth over this point )
G01 F360.00000
G01 X36.45291 Y10.90994
G01 X36.46175 Y11.00503
G01 X36.48324 Y11.13785
G01 X36.52335 Y11.24529
G01 X36.57115 Y11.35024
G01 X36.65078 Y11.46038
G01 X36.71090 Y11.53269
G01 X36.78552 Y11.59462
G01 X36.89345 Y11.67227
G01 X37.00003 Y11.72098
G01 X37.10574 Y11.76038
G01 X37.24148 Y11.78220
G01 X37.33366 Y11.79071
G01 X37.43173 Y11.78146
G01 X37.56129 Y11.76020
G01 X37.67262 Y11.71872
G01 X37.77379 Y11.67244
G01 X37.83922 Y11.62693
G01 X37.95636 Y11.53262
G01 X38.02017 Y11.45568
G01 X38.09586 Y11.35019
G01 X38.14582 Y11.24074
G01 X38.18415 Y11.13780
G01 X38.20752 Y10.98817
G01 X38.21430 Y10.90994
G01 X38.20485 Y10.80887
G01 X38.18392 Y10.68212
G01 X38.14128 Y10.56820
G01 X38.09614 Y10.46968
G01 X38.01280 Y10.35482
G01 X37.95644 Y10.28710
G01 X37.88573 Y10.22835
G01 X37.77376 Y10.14743
G01 X37.67275 Y10.10117
G01 X37.56134 Y10.05947
G01 X37.43173 Y10.03836
G01 X37.33366 Y10.02911
G01 X37.24148 Y10.03765
G01 X37.10579 Y10.05962
G01 X37.00015 Y10.09881
G01 X36.89335 Y10.14743
G01 X36.77691 Y10.23206
G01 X36.71090 Y10.28713
G01 X36.65080 Y10.35947
G01 X36.57125 Y10.46985
G01 X36.52375 Y10.57354
G01 X36.48324 Y10.68202
G01 X36.46175 Y10.81479
G01 X36.45291 Y10.90994
G04 P0 ( dwell for no time -- G64 should not smooth over this point )
G00 Z10.00000 ( retract )

G00 X38.73957 Y12.64933 ( rapid move to begin. )
G01 F30.00000
( Mill infeed pass 1/1 )
G01 Z-0.10000
G04 P0 ( dwell for no time -- G64 should not smooth over this point )
G01 F360.00000
G01 X38.73957 Y12.64933
G01 X38.75354 Y12.54443
G01 X38.84295 Y12.32802
G01 X38.98544 Y12.14234
G01 X39.17137 Y11.99985
G01 X39.38753 Y11.91019
G01 X39.49268 Y11.89647
G01 X39.49268 Y12.15415
G01 X39.40035 Y12.18039
G01 X39.31696 Y12.21811
G01 X39.23988 Y12.26741
G01 X39.17066 Y12.32731
G01 X39.11077 Y12.39652
G01 X39.06147 Y12.47361
G01 X39.02375 Y12.55700
G01 X38.99751 Y12.64933
G01 X38.73957 Y12.64933
G04 P0 ( dwell for no time -- G64 should not smooth over this point )
G00 Z10.00000 ( retract )

G00 X38.73957 Y12.90333 ( rapid move to begin. )
G01 F30.00000
( Mill infeed pass 1/1 )
G01 Z-0.10000
G04 P0 ( dwell for no time -- G64 should not smooth over this point )
G01 F360.00000
G01 X38.73957 Y12.90333
G01 X38.75354 Y13.00848
G01 X38.84295 Y13.22464
G01 X38.98544 Y13.41057
G01 X39.17137 Y13.55280
G01 X39.38753 Y13.64244
G01 X39.49268 Y13.65644
G01 X39.49268 Y13.39847
G01 X39.40035 Y13.37224
G01 X39.31696 Y13.33452
G01 X39.23988 Y13.28522
G01 X39.17066 Y13.22532
G01 X39.11077 Y13.15611
G01 X39.06147 Y13.07902
G01 X39.02375 Y12.99563
G01 X38.99751 Y12.90333
G01 X38.73957 Y12.90333
G04 P0 ( dwell for no time -- G64 should not smooth over this point )
G00 Z10.00000 ( retract )

G00 X39.74668 Y11.89647 ( rapid move to begin. )
G01 F30.00000
( Mill infeed pass 1/1 )
G01 Z-0.10000
G04 P0 ( dwell for no time -- G64 should not smooth over this point )
G01 F360.00000
G01 X39.74668 Y11.89647
G01 X39.74668 Y12.15415
G01 X39.83899 Y12.18039
G01 X39.92237 Y12.21811
G01 X39.99946 Y12.26741
G01 X40.06868 Y12.32731
G01 X40.12857 Y12.39652
G01 X40.17787 Y12.47361
G01 X40.21559 Y12.55700
G01 X40.24183 Y12.64933
G01 X40.49954 Y12.64933
G01 X40.48557 Y12.54443
G01 X40.39616 Y12.32802
G01 X40.25367 Y12.14234
G01 X40.06799 Y11.99985
G01 X39.85158 Y11.91019
G01 X39.74668 Y11.89647
G04 P0 ( dwell for no time -- G64 should not smooth over this point )
G00 Z10.00000 ( retract )

G00 X39.74668 Y13.39847 ( rapid move to begin. )
G01 F30.00000
( Mill infeed pass 1/1 )
G01 Z-0.10000
G04 P0 ( dwell for no time -- G64 should not smooth over this point )
G01 F360.00000
G01 X39.74668 Y13.39847
G01 X39.74668 Y13.65644
G01 X39.85158 Y13.64244
G01 X40.06799 Y13.55280
G01 X40.25367 Y13.41057
G01 X40.39616 Y13.22464
G01 X40.48557 Y13.00848
G01 X40.49954 Y12.90333
G01 X40.24183 Y12.90333
G01 X40.21559 Y12.99563
G01 X40.17787 Y13.07902
G01 X40.12857 Y13.15611
G01 X40.06868 Y13.22532
G01 X39.99946 Y13.28522
G01 X39.92237 Y13.33452
G01 X39.83899 Y13.37224
G01 X39.74668 Y13.39847
G04 P0 ( dwell for no time -- G64 should not smooth over this point )
G00 Z10.00000 ( retract )

G00 X39.93167 Y15.68003 ( rapid move to begin. )
G01 F30.00000
( Mill infeed pass 1/1 )
G01 Z-0.10000
G04 P0 ( dwell for no time -- G64 should not smooth over this point )
G01 F360.00000
G01 X39.93167 Y15.68003
G01 X39.94628 Y15.52661
G01 X39.97396 Y15.36116
G01 X40.03865 Y15.18981
G01 X40.09652 Y15.06380
G01 X40.16743 Y14.96311
G01 X40.29240 Y14.80894
G01 X40.41120 Y14.71079
G01 X40.54775 Y14.61326
G01 X40.71422 Y14.53820
G01 X40.84477 Y14.49001
G01 X40.95549 Y14.47035
G01 X41.16349 Y14.44810
G01 X41.31691 Y14.46271
G01 X41.48234 Y14.49040
G01 X41.65374 Y14.55511
G01 X41.77965 Y14.61290
G01 X41.88043 Y14.68394
G01 X42.03459 Y14.80894
G01 X42.13273 Y14.92773
G01 X42.23022 Y15.06413
G01 X42.30535 Y15.23075
G01 X42.35346 Y15.36111
G01 X42.37317 Y15.47205
G01 X42.39539 Y15.68003
G01 X42.38079 Y15.83347
G01 X42.35315 Y15.99865
G01 X42.28836 Y16.17028
G01 X42.23067 Y16.29601
G01 X42.15953 Y16.39697
G01 X42.03456 Y16.55112
G01 X41.91577 Y16.64927
G01 X41.77949 Y16.74660
G01 X41.61269 Y16.82181
G01 X41.48247 Y16.86989
G01 X41.37144 Y16.88960
G01 X41.16349 Y16.91183
G01 X41.01005 Y16.89722
G01 X40.84485 Y16.86959
G01 X40.67327 Y16.80479
G01 X40.54744 Y16.74706
G01 X40.44658 Y16.67604
G01 X40.29240 Y16.55112
G01 X40.19426 Y16.43228
G01 X40.09687 Y16.29585
G01 X40.02174 Y16.12923
G01 X39.97361 Y15.99877
G01 X39.95392 Y15.88800
G01 X39.93167 Y15.68003
G04 P0 ( dwell for no time -- G64 should not smooth over this point )
G00 Z10.00000 ( retract )

G00 X37.46068 Y16.72915 ( rapid move to begin. )
G01 F30.00000
( Mill infeed pass 1/1 )
G01 Z-0.10000
G04 P0 ( dwell for no time -- G64 should not smooth over this point )
G01 F360.00000
G01 X37.46068 Y16.72915
G01 X37.57125 Y16.70136
G01 X37.67442 Y16.65811
G01 X37.77823 Y16.59402
G01 X37.86314 Y16.52120
G01 X37.93627 Y16.43654
G01 X38.00071 Y16.33294
G01 X38.04430 Y16.22991
G01 X38.07287 Y16.11693
G01 X38.32962 Y16.11693
G01 X38.31184 Y16.25206
G01 X38.21049 Y16.49641
G01 X38.04971 Y16.70596
G01 X37.83990 Y16.86700
G01 X37.59556 Y16.96809
G01 X37.46068 Y16.98587
G01 X37.46068 Y16.72915
G04 P0 ( dwell for no time -- G64 should not smooth over this point )
G00 Z10.00000 ( retract )

G00 X37.46068 Y14.99400 ( rapid move to begin. )
G01 F30.00000
( Mill infeed pass 1/1 )
G01 Z-0.10000
G04 P0 ( dwell for no time -- G64 should not smooth over this point )
G01 F360.00000
G01 X37.46068 Y14.99400
G01 X37.46068 Y15.25069
G01 X37.57125 Y15.27848
G01 X37.67442 Y15.32174
G01 X37.77823 Y15.38582
G01 X37.86314 Y15.45864
G01 X37.93627 Y15.54330
G01 X38.00071 Y15.64691
G01 X38.04430 Y15.74993
G01 X38.07287 Y15.86293
G01 X38.32962 Y15.86293
G01 X38.31184 Y15.72781
G01 X38.21049 Y15.48371
G01 X38.04971 Y15.27391
G01 X37.83990 Y15.11287
G01 X37.59556 Y15.01178
G01 X37.46068 Y14.99400
G04 P0 ( dwell for no time -- G64 should not smooth over this point )
G00 Z10.00000 ( retract )

G00 X36.45291 Y13.44993 ( rapid move to begin. )
G01 F30.00000
( Mill infeed pass 1/1 )
G01 Z-0.10000
G04 P0 ( dwell for no time -- G64 should not smooth over this point )
G01 F360.00000
G01 X36.45291 Y13.44993
G01 X36.46175 Y13.54503
G01 X36.48324 Y13.67785
G01 X36.52335 Y13.78529
G01 X36.57115 Y13.89024
G01 X36.65078 Y14.00038
G01 X36.71090 Y14.07269
G01 X36.78552 Y14.13462
G01 X36.89345 Y14.21227
G01 X37.00003 Y14.26098
G01 X37.10574 Y14.30038
G01 X37.24148 Y14.32220
G01 X37.33366 Y14.33071
G01 X37.43173 Y14.32146
G01 X37.56129 Y14.30020
G01 X37.67262 Y14.25872
G01 X37.77379 Y14.21244
G01 X37.83922 Y14.16693
G01 X37.95636 Y14.07262
G01 X38.02017 Y13.99568
G01 X38.09586 Y13.89019
G01 X38.14582 Y13.78074
G01 X38.18415 Y13.67780
G01 X38.20752 Y13.52817
G01 X38.21430 Y13.44993
G01 X38.20485 Y13.34887
G01 X38.18392 Y13.22212
G01 X38.14128 Y13.10820
G01 X38.09614 Y13.00973
G01 X38.01280 Y12.89482
G01 X37.95644 Y12.82708
G01 X37.88573 Y12.76835
G01 X37.77376 Y12.68743
G01 X37.67275 Y12.64117
G01 X37.56134 Y12.59947
G01 X37.43173 Y12.57836
G01 X37.33366 Y12.56911
G01 X37.24148 Y12.57765
G01 X37.10579 Y12.59962
G01 X37.00015 Y12.63881
G01 X36.89335 Y12.68743
G01 X36.77691 Y12.77206
G01 X36.71090 Y12.82710
G01 X36.65083 Y12.89947
G01 X36.57125 Y13.00991
G01 X36.52375 Y13.11354
G01 X36.48321 Y13.22202
G01 X36.46175 Y13.35479
G01 X36.45291 Y13.44993
G04 P0 ( dwell for no time -- G64 should not smooth over this point )
G00 Z10.00000 ( retract )

G00 X34.22373 Y15.18831 ( rapid move to begin. )
G01 F30.00000
( Mill infeed pass 1/1 )
G01 Z-0.10000
G04 P0 ( dwell for no time -- G64 should not smooth over this point )
G01 F360.00000
G01 X34.22373 Y15.18831
G01 X34.14123 Y15.13695
G01 X34.05914 Y15.09865
G01 X33.97707 Y15.08587
G01 X32.88563 Y15.08587
G01 X32.78695 Y15.07096
G01 X32.72676 Y15.05557
G01 X32.71578 Y15.04935
G01 X32.65297 Y15.01028
G01 X32.59331 Y14.96487
G01 X30.07015 Y12.44168
G01 X30.01239 Y12.39777
G01 X29.81300 Y12.42835
G01 X29.71366 Y12.43752
G01 X29.60004 Y12.42657
G01 X29.48244 Y12.40726
G01 X29.37942 Y12.36863
G01 X29.26733 Y12.31770
G01 X29.19298 Y12.26566
G01 X29.10926 Y12.19929
G01 X29.08282 Y12.17582
G01 X29.04597 Y12.13328
G01 X28.98066 Y12.04882
G01 X28.94104 Y11.99096
G01 X28.91808 Y11.94394
G01 X28.85171 Y11.77580
G01 X28.83131 Y11.65306
G01 X28.82085 Y11.54493
G01 X28.83766 Y11.39144
G01 X28.85704 Y11.29739
G01 X28.89042 Y11.20958
G01 X28.94081 Y11.09873
G01 X29.03009 Y10.97638
G01 X29.06898 Y10.91303
G01 X29.09847 Y10.82551
G01 X29.11531 Y10.75273
G01 X29.25173 Y10.71174
G01 X29.35615 Y10.68776
G01 X29.51269 Y10.66330
G01 X29.62239 Y10.65433
G01 X29.80035 Y10.65408
G01 X29.97037 Y10.67046
G01 X30.13926 Y10.70270
G01 X30.31206 Y10.75256
G01 X30.39024 Y10.70389
G01 X30.47233 Y10.66559
G01 X30.55442 Y10.65281
G01 X32.62551 Y10.65281
G01 X32.65124 Y10.64997
G01 X32.72419 Y10.63790
G01 X32.78439 Y10.62248
G01 X32.85813 Y10.57725
G01 X32.90766 Y10.54014
G01 X33.40524 Y10.04448
G01 X33.44598 Y10.01111
G01 X33.49854 Y10.00587
G01 X33.97707 Y10.00587
G01 X34.05914 Y10.01865
G01 X34.14123 Y10.05695
G01 X34.22373 Y10.10831
G01 X34.19787 Y10.20869
G01 X34.16757 Y10.28095
G01 X34.13498 Y10.32998
G01 X34.06031 Y10.42693
G01 X34.03125 Y10.46985
G01 X34.01238 Y10.50828
G01 X33.94956 Y10.66277
G01 X33.93168 Y10.74425
G01 X33.91291 Y10.90994
G01 X33.93168 Y11.07557
G01 X33.94324 Y11.13785
G01 X33.95398 Y11.16940
G01 X33.98832 Y11.25728
G01 X34.03117 Y11.35029
G01 X34.11073 Y11.46040
G01 X34.17070 Y11.53264
G01 X34.24550 Y11.59464
G01 X34.35342 Y11.67227
G01 X34.46003 Y11.72098
G01 X34.56574 Y11.76038
G01 X34.70148 Y11.78220
G01 X34.79366 Y11.79071
G01 X34.89173 Y11.78146
G01 X35.02129 Y11.76020
G01 X35.13262 Y11.71872
G01 X35.23379 Y11.67244
G01 X35.29922 Y11.62693
G01 X35.41636 Y11.53262
G01 X35.48017 Y11.45568
G01 X35.55586 Y11.35019
G01 X35.60582 Y11.24074
G01 X35.64415 Y11.13780
G01 X35.66752 Y10.98817
G01 X35.67402 Y10.90417
G01 X35.66485 Y10.80887
G01 X35.64392 Y10.68212
G01 X35.60127 Y10.56820
G01 X35.56193 Y10.48103
G01 X35.51585 Y10.41156
G01 X35.41131 Y10.28134
G01 X35.37011 Y10.22071
G01 X35.34913 Y10.17646
G01 X35.31852 Y10.09406
G01 X35.15502 Y10.05355
G01 X35.05149 Y10.03562
G01 X34.89457 Y10.01984
G01 X34.78385 Y10.01702
G01 X34.62757 Y10.02472
G01 X34.51410 Y10.03887
G01 X34.35472 Y10.07095
G01 X34.22373 Y10.10831
G01 X34.35472 Y10.07095
G01 X34.51410 Y10.03887
G01 X34.62757 Y10.02472
G01 X34.78385 Y10.01702
G01 X34.89457 Y10.01984
G01 X35.05149 Y10.03562
G01 X35.15502 Y10.05355
G01 X35.31852 Y10.09406
G01 X35.45462 Y10.00608
G01 X35.51768 Y9.95464
G01 X35.59228 Y9.88489
G01 X36.48682 Y8.99023
G01 X36.60369 Y8.91990
G01 X36.64527 Y8.94286
G01 X36.69828 Y8.98103
G01 X36.79495 Y9.06196
G01 X36.89340 Y9.13237
G01 X37.01029 Y9.18515
G01 X37.10569 Y9.22053
G01 X37.19444 Y9.23595
G01 X37.33366 Y9.25025
G01 X37.44338 Y9.24001
G01 X37.62273 Y9.21268
G01 X37.67948 Y9.25601
G01 X39.34031 Y10.91687
G01 X39.39997 Y10.96228
G01 X39.47376 Y11.00757
G01 X39.55834 Y11.02782
G01 X39.63264 Y11.03787
G01 X42.92468 Y11.03787
G01 X42.99897 Y11.02782
G01 X43.08330 Y11.00762
G01 X43.21947 Y10.92261
G01 X43.29115 Y10.94080
G01 X43.39227 Y10.97636
G01 X43.58536 Y11.00496
G01 X43.66359 Y11.01131
G01 X43.69008 Y11.00960
G01 X43.79265 Y10.99917
G01 X43.94332 Y10.97440
G01 X44.07070 Y10.92693
G01 X44.20408 Y10.86615
G01 X44.31124 Y10.79040
G01 X44.42813 Y10.69452
G01 X44.52224 Y10.57994
G01 X44.59994 Y10.47057
G01 X44.66382 Y10.32911
G01 X44.70809 Y10.20973
G01 X44.73512 Y10.03971
G01 X44.74520 Y9.92998
G01 X44.73633 Y9.83104
G01 X44.70789 Y9.65004
G01 X44.65894 Y9.51893
G01 X44.59971 Y9.38931
G01 X44.49442 Y9.24423
G01 X44.41815 Y9.15624
G01 X44.33806 Y9.09023
G01 X44.20398 Y8.99378
G01 X44.07136 Y8.93326
G01 X43.94337 Y8.88563
G01 X43.77045 Y8.85812
G01 X43.66359 Y8.84862
G01 X43.53822 Y8.86038
G01 X43.41200 Y8.87992
G01 X43.38368 Y8.88599
G01 X43.29587 Y8.91723
G01 X43.17843 Y8.96686
G01 X43.12318 Y8.99404
G01 X43.04660 Y9.04664
G01 X42.89933 Y9.16572
G01 X42.78155 Y9.31121
G01 X42.72765 Y9.38954
G01 X42.65369 Y9.55505
G01 X42.61950 Y9.65004
G01 X42.61394 Y9.67618
G01 X42.59435 Y9.80176
G01 X42.58234 Y9.93005
G01 X42.59158 Y10.02995
G01 X42.59209 Y10.08205
G01 X42.58158 Y10.14905
G01 X42.56334 Y10.21834
G01 X42.50060 Y10.24682
G01 X42.38092 Y10.27397
G01 X41.40172 Y10.27397
G01 X41.28267 Y10.24710
G01 X41.16362 Y10.16648
G01 X41.04455 Y10.24710
G01 X40.92550 Y10.27397
G01 X39.83251 Y10.27397
G01 X39.78003 Y10.26874
G01 X39.73927 Y10.23536
G01 X38.21966 Y8.71583
G01 X38.17592 Y8.65843
G01 X38.20203 Y8.49180
G01 X38.21425 Y8.36986
G01 X38.20373 Y8.26066
G01 X38.18400 Y8.14210
G01 X38.13762 Y8.01969
G01 X38.09563 Y7.93003
G01 X38.00003 Y7.79902
G01 X37.95606 Y7.74746
G01 X37.85017 Y7.66107
G01 X37.77391 Y7.60720
G01 X37.67432 Y7.56186
G01 X37.56142 Y7.51916
G01 X37.46523 Y7.50283
G01 X37.33366 Y7.48967
G01 X37.24902 Y7.49689
G01 X37.10572 Y7.51937
G01 X37.00341 Y7.55757
G01 X36.89340 Y7.60748
G01 X36.77036 Y7.69739
G01 X36.71148 Y7.74769
G01 X36.67209 Y7.79302
G01 X36.60630 Y7.87870
G01 X36.53539 Y7.98586
G01 X36.42116 Y8.01827
G01 X36.36815 Y8.04974
G01 X36.30803 Y8.09285
G01 X36.28774 Y8.10910
G01 X36.00503 Y8.39180
G01 X35.93800 Y8.44080
G01 X35.85296 Y8.47174
G01 X35.76556 Y8.49211
G01 X35.69673 Y8.62124
G01 X35.62746 Y8.73112
G01 X35.55401 Y8.83166
G01 X35.47615 Y8.92419
G01 X35.40128 Y9.00229
G01 X35.32243 Y9.07499
G01 X35.22972 Y9.15007
G01 X35.14247 Y9.21197
G01 X35.01547 Y9.23275
G01 X34.89477 Y9.24387
G01 X34.77103 Y9.24667
G01 X34.66254 Y9.24189
G01 X34.54133 Y9.22861
G01 X34.41723 Y9.20636
G01 X34.31553 Y9.18157
G01 X34.19300 Y9.14334
G01 X34.11659 Y9.19089
G01 X34.03450 Y9.22919
G01 X33.95241 Y9.24197
G01 X33.29864 Y9.24197
G01 X33.22442 Y9.25200
G01 X33.15233 Y9.26879
G01 X33.13976 Y9.27227
G01 X33.08678 Y9.30366
G01 X33.00631 Y9.36297
G01 X32.51891 Y9.85030
G01 X32.47814 Y9.88367
G01 X32.42564 Y9.88891
G01 X30.72968 Y9.88891
G01 X30.60649 Y9.86015
G01 X30.60266 Y9.75703
G01 X30.60266 Y8.24293
G01 X30.58089 Y8.13770
G01 X30.47568 Y8.11594
G01 X28.95168 Y8.11594
G01 X28.84454 Y8.13852
G01 X28.80101 Y8.22173
G01 X28.69768 Y8.24197
G01 X25.45918 Y8.24197
G01 X25.35690 Y8.22213
G01 X25.33216 Y8.11009
G01 X25.33216 Y7.86194
G01 X25.31039 Y7.75670
G01 X25.20516 Y7.73491
G01 X24.06218 Y7.73491
G01 X23.95695 Y7.75670
G01 X23.93518 Y7.86194
G01 X23.93518 Y9.38593
G01 X23.95695 Y9.49114
G01 X24.06218 Y9.51293
G01 X25.20516 Y9.51293
G01 X25.31039 Y9.49114
G01 X25.33216 Y9.38593
G01 X25.33216 Y9.13778
G01 X25.35690 Y9.02571
G01 X25.45918 Y9.00587
G01 X28.69768 Y9.00587
G01 X28.79994 Y9.02571
G01 X28.82468 Y9.13778
G01 X28.82468 Y9.75703
G01 X28.82085 Y9.86015
G01 X28.95168 Y9.89386
G01 X30.47568 Y9.89386
G01 X30.60649 Y9.86015
G01 X30.47568 Y9.89386
G01 X28.95168 Y9.89386
G01 X28.82085 Y9.86015
G01 X28.69768 Y9.88891
G01 X27.57147 Y9.88891
G01 X27.47274 Y9.90382
G01 X27.41287 Y9.91913
G01 X27.33881 Y9.96462
G01 X27.27930 Y10.00999
G01 X26.54607 Y10.74334
G01 X26.50526 Y10.77676
G01 X26.45283 Y10.78197
G01 X25.45918 Y10.78197
G01 X25.35690 Y10.76213
G01 X25.33216 Y10.65009
G01 X25.33216 Y10.40193
G01 X25.31039 Y10.29670
G01 X25.20516 Y10.27493
G01 X24.06218 Y10.27493
G01 X23.95695 Y10.29670
G01 X23.93518 Y10.40193
G01 X23.93518 Y11.92594
G01 X23.95695 Y12.03114
G01 X24.06218 Y12.05291
G01 X25.20516 Y12.05291
G01 X25.31039 Y12.03114
G01 X25.33216 Y11.92594
G01 X25.33216 Y11.67778
G01 X25.35690 Y11.56571
G01 X25.45918 Y11.54587
G01 X26.65268 Y11.54587
G01 X26.72700 Y11.53582
G01 X26.81133 Y11.51562
G01 X26.88537 Y11.47018
G01 X26.94480 Y11.42492
G01 X27.67805 Y10.69147
G01 X27.71887 Y10.65802
G01 X27.77134 Y10.65281
G01 X28.87269 Y10.65281
G01 X28.95476 Y10.66559
G01 X29.03685 Y10.70389
G01 X29.11531 Y10.75273
G01 X29.25173 Y10.71174
G01 X29.34040 Y10.69099
G01 X29.51269 Y10.66330
G01 X29.60809 Y10.65512
G01 X29.70370 Y10.65202
G01 X29.87147 Y10.65896
G01 X29.97037 Y10.67046
G01 X30.06811 Y10.68718
G01 X30.15767 Y10.70722
G01 X30.31206 Y10.75256
G01 X30.32597 Y10.81395
G01 X30.35143 Y10.89757
G01 X30.38660 Y10.96208
G01 X30.48673 Y11.09873
G01 X30.53039 Y11.19393
G01 X30.57553 Y11.31400
G01 X30.59692 Y11.44433
G01 X30.60563 Y11.54493
G01 X30.59085 Y11.68992
G01 X30.56598 Y11.84272
G01 X30.61051 Y11.90158
G01 X32.99226 Y14.28333
G01 X33.03303 Y14.31674
G01 X33.08551 Y14.32197
G01 X33.95241 Y14.32197
G01 X34.03443 Y14.30922
G01 X34.11642 Y14.27099
G01 X34.19259 Y14.22364
G01 X34.17913 Y14.16042
G01 X34.15314 Y14.07432
G01 X34.11794 Y14.01016
G01 X34.03117 Y13.89029
G01 X33.98335 Y13.78529
G01 X33.94324 Y13.67785
G01 X33.92175 Y13.54503
G01 X33.91299 Y13.45103
G01 X33.92033 Y13.36680
G01 X33.94321 Y13.22202
G01 X33.98375 Y13.11354
G01 X34.03128 Y13.00985
G01 X34.11078 Y12.89944
G01 X34.17072 Y12.82718
G01 X34.23686 Y12.77201
G01 X34.35332 Y12.68745
G01 X34.44905 Y12.64343
G01 X34.53895 Y12.60851
G01 X34.56579 Y12.59962
G01 X34.63092 Y12.58748
G01 X34.79366 Y12.56911
G01 X34.97425 Y12.59045
G01 X35.02134 Y12.59947
G01 X35.05512 Y12.61097
G01 X35.13275 Y12.64117
G01 X35.23376 Y12.68743
G01 X35.34573 Y12.76835
G01 X35.41644 Y12.82708
G01 X35.47280 Y12.89482
G01 X35.55614 Y13.00973
G01 X35.59660 Y13.09715
G01 X35.63198 Y13.18674
G01 X35.64392 Y13.22212
G01 X35.65467 Y13.27838
G01 X35.67430 Y13.44993
G01 X35.66752 Y13.52817
G01 X35.64415 Y13.67780
G01 X35.61037 Y13.76959
G01 X35.55586 Y13.89017
G01 X35.42406 Y14.07465
G01 X35.39452 Y14.14742
G01 X35.37057 Y14.23167
G01 X35.23160 Y14.27216
G01 X35.07367 Y14.30449
G01 X34.96333 Y14.31864
G01 X34.78466 Y14.32682
G01 X34.61708 Y14.31795
G01 X34.46084 Y14.29527
G01 X34.35614 Y14.27223
G01 X34.19259 Y14.22364
G01 X34.35614 Y14.27223
G01 X34.46084 Y14.29527
G01 X34.61708 Y14.31795
G01 X34.78466 Y14.32682
G01 X34.96333 Y14.31864
G01 X35.07367 Y14.30449
G01 X35.23160 Y14.27216
G01 X35.37057 Y14.23167
G01 X35.46645 Y14.29720
G01 X35.51316 Y14.32268
G01 X35.60780 Y14.35844
G01 X35.67069 Y14.39756
G01 X35.73036 Y14.44297
G01 X36.30854 Y15.02115
G01 X36.35385 Y15.08061
G01 X36.39939 Y15.15476
G01 X36.42020 Y15.23891
G01 X36.44141 Y15.30030
G01 X36.47737 Y15.36471
G01 X36.52672 Y15.43611
G01 X36.48476 Y15.59344
G01 X36.46663 Y15.68580
G01 X36.44770 Y15.83197
G01 X36.44095 Y15.97221
G01 X36.44659 Y16.13464
G01 X36.46663 Y16.29402
G01 X36.50198 Y16.45760
G01 X36.53175 Y16.56029
G01 X36.48060 Y16.64254
G01 X36.44237 Y16.72453
G01 X36.42962 Y16.80654
G01 X36.42962 Y17.71333
G01 X36.44237 Y17.79532
G01 X36.48060 Y17.87731
G01 X36.53198 Y17.95993
G01 X36.62205 Y17.93733
G01 X36.70833 Y17.90179
G01 X36.85238 Y17.79527
G01 X36.91285 Y17.75762
G01 X37.07895 Y17.68851
G01 X37.15809 Y17.66961
G01 X37.33366 Y17.64911
G01 X37.50221 Y17.66844
G01 X37.56134 Y17.67947
G01 X37.59512 Y17.69097
G01 X37.74907 Y17.75511
G01 X37.82065 Y17.79946
G01 X37.95644 Y17.90708
G01 X38.05585 Y18.03156
G01 X38.09614 Y18.08973
G01 X38.10726 Y18.11218
G01 X38.14128 Y18.18820
G01 X38.18392 Y18.30212
G01 X38.20485 Y18.42887
G01 X38.21430 Y18.52991
G01 X38.20752 Y18.60817
G01 X38.18418 Y18.75777
G01 X38.14580 Y18.86072
G01 X38.09591 Y18.96999
G01 X38.02014 Y19.07565
G01 X37.95634 Y19.15264
G01 X37.83922 Y19.24693
G01 X37.77379 Y19.29244
G01 X37.68369 Y19.33405
G01 X37.56129 Y19.38020
G01 X37.51511 Y19.38922
G01 X37.33366 Y19.41071
G01 X37.17092 Y19.39234
G01 X37.08938 Y19.37502
G01 X37.00003 Y19.34098
G01 X36.89342 Y19.29227
G01 X36.75357 Y19.18843
G01 X36.69622 Y19.15152
G01 X36.62202 Y19.12249
G01 X36.53198 Y19.09991
G01 X36.49551 Y18.97210
G01 X36.46137 Y18.80113
G01 X36.44875 Y18.69902
G01 X36.44074 Y18.53161
G01 X36.44875 Y18.36080
G01 X36.46117 Y18.25976
G01 X36.49238 Y18.10047
G01 X36.53198 Y17.95993
G01 X36.49238 Y18.10047
G01 X36.46117 Y18.25976
G01 X36.44875 Y18.36080
G01 X36.44074 Y18.53161
G01 X36.44875 Y18.69902
G01 X36.46137 Y18.80113
G01 X36.49551 Y18.97210
G01 X36.53198 Y19.09991
G01 X36.48060 Y19.18254
G01 X36.44237 Y19.26453
G01 X36.42962 Y19.34652
G01 X36.42962 Y19.80291
G01 X36.41956 Y19.87723
G01 X36.39937 Y19.96156
G01 X36.35395 Y20.03552
G01 X36.30844 Y20.09529
G01 X35.67981 Y20.72394
G01 X35.63658 Y20.78050
G01 X35.66338 Y20.95724
G01 X35.67407 Y21.06991
G01 X35.66023 Y21.20529
G01 X35.64626 Y21.28837
G01 X35.61438 Y21.37948
G01 X35.55599 Y21.51027
G01 X35.48738 Y21.60636
G01 X35.41611 Y21.69236
G01 X35.30882 Y21.77981
G01 X35.23143 Y21.83392
G01 X35.14199 Y21.87473
G01 X35.02127 Y21.92015
G01 X34.92437 Y21.93709
G01 X34.80575 Y21.94977
G01 X34.70425 Y21.94245
G01 X34.57014 Y21.92147
G01 X34.46869 Y21.88444
G01 X34.35330 Y21.83244
G01 X34.26290 Y21.76805
G01 X34.17098 Y21.69239
G01 X34.10186 Y21.60892
G01 X34.03255 Y21.51276
G01 X33.98731 Y21.41469
G01 X33.94316 Y21.29787
G01 X33.92454 Y21.18675
G01 X33.91322 Y21.06991
G01 X33.92320 Y20.96303
G01 X33.93587 Y20.87964
G01 X33.94344 Y20.84194
G01 X33.96760 Y20.77446
G01 X33.98624 Y20.69478
G01 X33.98449 Y20.59356
G01 X33.96127 Y20.46450
G01 X34.03829 Y20.37936
G01 X34.17766 Y20.24667
G01 X34.28398 Y20.16067
G01 X34.40151 Y20.07779
G01 X34.52937 Y19.99993
G01 X34.66927 Y19.92714
G01 X34.82398 Y19.85937
G01 X34.96079 Y19.80949
G01 X34.98121 Y19.78909
G01 X35.10956 Y19.71972
G01 X35.21029 Y19.65853
G01 X35.38014 Y19.53943
G01 X35.45446 Y19.40044
G01 X35.50536 Y19.29044
G01 X35.56770 Y19.12996
G01 X35.61334 Y18.97733
G01 X35.64026 Y18.85531
G01 X35.66142 Y18.70807
G01 X35.66963 Y18.58622
G01 X35.66876 Y18.45061
G01 X35.66041 Y18.34149
G01 X35.64296 Y18.21909
G01 X35.61611 Y18.09313
G01 X35.56701 Y17.92948
G01 X35.61484 Y17.85252
G01 X35.65299 Y17.77060
G01 X35.66571 Y17.68869
G01 X35.66571 Y16.83116
G01 X35.65294 Y16.74909
G01 X35.61464 Y16.66700
G01 X35.56739 Y16.59110
G01 X35.62121 Y16.40601
G01 X35.65350 Y16.23469
G01 X35.66940 Y16.05526
G01 X35.67052 Y15.97198
G01 X35.66211 Y15.81721
G01 X35.63480 Y15.63560
G01 X35.59802 Y15.48661
G01 X35.52271 Y15.39728
G01 X35.44882 Y15.31993
G01 X35.38289 Y15.25786
G01 X35.26264 Y15.15885
G01 X35.13816 Y15.13022
G01 X34.98027 Y15.10673
G01 X34.87979 Y15.09908
G01 X34.71266 Y15.09883
G01 X34.61220 Y15.10622
G01 X34.44288 Y15.13144
G01 X34.33580 Y15.15570
G01 X34.22373 Y15.18831
G01 X34.19787 Y15.28869
G01 X34.16757 Y15.36098
G01 X34.03125 Y15.54991
G01 X33.98375 Y15.65354
G01 X33.94956 Y15.74277
G01 X33.93168 Y15.82425
G01 X33.91375 Y15.97777
G01 X33.92025 Y16.07215
G01 X33.94324 Y16.21785
G01 X33.98335 Y16.32529
G01 X34.01741 Y16.40235
G01 X34.03117 Y16.43029
G01 X34.06785 Y16.48353
G01 X34.16381 Y16.60469
G01 X34.24550 Y16.67464
G01 X34.35342 Y16.75227
G01 X34.46003 Y16.80098
G01 X34.56574 Y16.84038
G01 X34.70148 Y16.86220
G01 X34.79366 Y16.87071
G01 X34.89173 Y16.86146
G01 X35.02129 Y16.84020
G01 X35.13262 Y16.79872
G01 X35.23381 Y16.75244
G01 X35.36635 Y16.65719
G01 X35.43328 Y16.62453
G01 X35.56739 Y16.59110
G01 X35.61464 Y16.66700
G01 X35.65294 Y16.74909
G01 X35.66571 Y16.83116
G01 X35.66571 Y17.68869
G01 X35.65299 Y17.77060
G01 X35.61484 Y17.85252
G01 X35.56701 Y17.92948
G01 X35.45662 Y17.90327
G01 X35.36775 Y17.86372
G01 X35.23351 Y17.76776
G01 X35.14039 Y17.72448
G01 X35.02142 Y17.67916
G01 X34.90079 Y17.65958
G01 X34.79366 Y17.64911
G01 X34.66970 Y17.66181
G01 X34.50501 Y17.68744
G01 X34.44768 Y17.64378
G01 X33.79828 Y16.99448
G01 X33.73869 Y16.94909
G01 X33.66468 Y16.90362
G01 X33.60478 Y16.88831
G01 X33.51903 Y16.87467
G01 X33.45785 Y16.88341
G01 X33.38993 Y16.89859
G01 X30.72968 Y16.89862
G01 X30.59643 Y16.86491
G01 X30.60266 Y16.75193
G01 X30.60266 Y15.22794
G01 X30.58089 Y15.12270
G01 X30.47568 Y15.10093
G01 X29.23515 Y15.10093
G01 X29.19291 Y15.09799
G01 X25.45918 Y15.09997
G01 X25.35690 Y15.08013
G01 X25.33216 Y14.96809
G01 X25.33216 Y14.71994
G01 X25.31039 Y14.61470
G01 X25.20516 Y14.59293
G01 X24.06218 Y14.59293
G01 X23.95695 Y14.61470
G01 X23.93518 Y14.71994
G01 X23.93518 Y16.24394
G01 X23.95695 Y16.34914
G01 X24.06218 Y16.37093
G01 X25.20516 Y16.37093
G01 X25.31039 Y16.34914
G01 X25.33216 Y16.24394
G01 X25.33216 Y15.99578
G01 X25.35690 Y15.88371
G01 X25.45918 Y15.86387
G01 X28.69768 Y15.86387
G01 X28.79994 Y15.88371
G01 X28.82468 Y15.99578
G01 X28.82468 Y16.75193
G01 X28.83091 Y16.86491
G01 X28.95168 Y16.89113
G01 X30.47568 Y16.89113
G01 X30.59643 Y16.86491
G01 X30.47568 Y16.89113
G01 X28.95168 Y16.89113
G01 X28.83091 Y16.86491
G01 X28.69768 Y16.89862
G01 X23.34336 Y16.89862
G01 X23.29043 Y16.89329
G01 X23.25009 Y16.86016
G01 X23.09846 Y16.70853
G01 X23.02388 Y16.57703
G01 X23.04948 Y16.44167
G01 X23.07039 Y16.42770
G01 X23.17318 Y16.37977
G01 X23.27839 Y16.34914
G01 X23.30018 Y16.24394
G01 X23.30018 Y14.71994
G01 X23.27839 Y14.61470
G01 X23.17318 Y14.59293
G01 X23.11552 Y14.59293
G01 X23.00346 Y14.56820
G01 X22.98362 Y14.46593
G01 X22.98362 Y12.17991
G01 X23.00346 Y12.07765
G01 X23.11552 Y12.05291
G01 X23.17318 Y12.05291
G01 X23.27839 Y12.03114
G01 X23.30018 Y11.92594
G01 X23.30018 Y10.40193
G01 X23.27839 Y10.29670
G01 X23.17318 Y10.27493
G01 X23.11552 Y10.27493
G01 X23.00346 Y10.25020
G01 X22.98362 Y10.14794
G01 X22.98362 Y9.63991
G01 X23.00346 Y9.53765
G01 X23.11552 Y9.51293
G01 X23.17318 Y9.51293
G01 X23.27839 Y9.49114
G01 X23.30018 Y9.38593
G01 X23.30018 Y7.86194
G01 X23.27839 Y7.75670
G01 X23.17318 Y7.73491
G01 X22.03016 Y7.73491
G01 X21.92495 Y7.75670
G01 X21.90316 Y7.86194
G01 X21.90316 Y9.38593
G01 X21.92495 Y9.49114
G01 X22.03016 Y9.51293
G01 X22.08759 Y9.51293
G01 X22.19980 Y9.53773
G01 X22.21959 Y9.63991
G01 X22.21959 Y10.14794
G01 X22.19980 Y10.25012
G01 X22.08759 Y10.27493
G01 X22.03016 Y10.27493
G01 X21.92495 Y10.29670
G01 X21.90316 Y10.40193
G01 X21.90316 Y11.92594
G01 X21.92495 Y12.03114
G01 X22.03016 Y12.05291
G01 X22.08759 Y12.05291
G01 X22.19980 Y12.07773
G01 X22.21959 Y12.17991
G01 X22.21959 Y14.46593
G01 X22.19980 Y14.56812
G01 X22.08759 Y14.59293
G01 X22.03016 Y14.59293
G01 X21.92495 Y14.61470
G01 X21.90316 Y14.71994
G01 X21.90316 Y16.24394
G01 X21.92495 Y16.34914
G01 X22.03016 Y16.37093
G01 X22.08759 Y16.37093
G01 X22.19980 Y16.39573
G01 X22.21959 Y16.49793
G01 X22.21959 Y16.73890
G01 X22.22965 Y16.81317
G01 X22.24982 Y16.89750
G01 X22.29528 Y16.97162
G01 X22.34072 Y17.03126
G01 X22.83584 Y17.52458
G01 X22.88540 Y17.56169
G01 X22.95939 Y17.60703
G01 X23.04377 Y17.62724
G01 X23.10514 Y17.63603
G01 X23.16640 Y17.62727
G01 X23.23422 Y17.61211
G01 X28.89275 Y17.61211
G01 X28.97462 Y17.62483
G01 X29.05651 Y17.66301
G01 X29.14043 Y17.71518
G01 X29.11137 Y17.82435
G01 X29.07408 Y17.90352
G01 X28.94081 Y18.08376
G01 X28.89042 Y18.19458
G01 X28.85138 Y18.29895
G01 X28.82826 Y18.44693
G01 X28.82176 Y18.54281
G01 X28.83106 Y18.63641
G01 X28.85178 Y18.76077
G01 X28.89923 Y18.88635
G01 X28.94056 Y18.97624
G01 X28.98714 Y19.04271
G01 X29.08254 Y19.16110
G01 X29.16603 Y19.23021
G01 X29.26730 Y19.30273
G01 X29.37002 Y19.34980
G01 X29.48249 Y19.39199
G01 X29.56314 Y19.40639
G01 X29.71366 Y19.42267
G01 X29.81216 Y19.41347
G01 X29.94457 Y19.39193
G01 X30.06194 Y19.34779
G01 X30.15988 Y19.30291
G01 X30.27528 Y19.21919
G01 X30.34482 Y19.16130
G01 X30.45752 Y19.01871
G01 X30.48653 Y18.97604
G01 X30.53913 Y18.85983
G01 X30.57563 Y18.76087
G01 X30.58874 Y18.68922
G01 X30.60601 Y18.52496
G01 X30.58686 Y18.35889
G01 X30.57553 Y18.29900
G01 X30.56496 Y18.26740
G01 X30.52542 Y18.16720
G01 X30.48668 Y18.08366
G01 X30.37639 Y17.93583
G01 X30.33812 Y17.87688
G01 X30.30901 Y17.80238
G01 X30.28686 Y17.71520
G01 X30.14482 Y17.67556
G01 X29.97462 Y17.64304
G01 X29.87322 Y17.63126
G01 X29.71731 Y17.62422
G01 X29.60601 Y17.62745
G01 X29.42270 Y17.64759
G01 X29.26342 Y17.68020
G01 X29.14043 Y17.71518
G01 X29.26342 Y17.68020
G01 X29.42270 Y17.64759
G01 X29.52473 Y17.63410
G01 X29.70296 Y17.62427
G01 X29.87322 Y17.63126
G01 X29.97462 Y17.64304
G01 X30.14482 Y17.67556
G01 X30.28686 Y17.71520
G01 X30.37083 Y17.66301
G01 X30.45272 Y17.62483
G01 X30.53461 Y17.61211
G01 X33.28060 Y17.61211
G01 X33.33372 Y17.61744
G01 X33.37390 Y17.65043
G01 X33.90748 Y18.18391
G01 X33.95081 Y18.24063
G01 X33.91121 Y18.51563
G01 X33.88251 Y18.54967
G01 X32.28459 Y20.14758
G01 X32.24446 Y20.18048
G01 X32.19247 Y20.18566
G01 X3.10462 Y20.18566
G01 X3.05285 Y20.18053
G01 X3.01254 Y20.14751
G01 X2.69606 Y19.83105
G01 X2.66306 Y19.79074
G01 X2.65791 Y19.73897
G01 X2.65791 Y19.54594
G01 X2.68623 Y19.42445
G01 X2.69486 Y19.41802
G01 X2.72618 Y19.29193
G01 X2.72618 Y17.76793
G01 X2.69486 Y17.64182
G01 X2.68623 Y17.63540
G01 X2.65791 Y17.51393
G01 X2.65791 Y16.49793
G01 X2.68623 Y16.37645
G01 X2.69486 Y16.37002
G01 X2.72618 Y16.24394
G01 X2.72618 Y14.71994
G01 X2.69486 Y14.59382
G01 X2.68623 Y14.58740
G01 X2.65791 Y14.46593
G01 X2.65791 Y12.44252
G01 X2.64790 Y12.34300
G01 X2.66535 Y12.17988
G01 X2.65692 Y12.07933
G01 X2.63571 Y11.94897
G01 X2.59464 Y11.83907
G01 X2.54653 Y11.73376
G01 X2.47574 Y11.63465
G01 X2.40480 Y11.54880
G01 X2.28884 Y11.45515
G01 X2.22001 Y11.40676
G01 X2.06771 Y11.34029
G01 X1.98872 Y11.31448
G01 X1.89481 Y11.29929
G01 X1.77366 Y11.28758
G01 X1.65834 Y11.29853
G01 X1.54244 Y11.31791
G01 X1.41912 Y11.36462
G01 X1.32710 Y11.40676
G01 X1.19812 Y11.50168
G01 X1.13558 Y11.55639
G01 X1.07521 Y11.62995
G01 X1.00079 Y11.73373
G01 X0.95042 Y11.84453
G01 X0.91173 Y11.94905
G01 X0.88963 Y12.08522
G01 X0.88168 Y12.16784
G01 X0.89372 Y12.30569
G01 X0.91227 Y12.41064
G01 X0.97254 Y12.56657
G01 X1.00147 Y12.62570
G01 X1.05575 Y12.70422
G01 X1.14234 Y12.81072
G01 X1.24859 Y12.89667
G01 X1.38641 Y12.99413
G01 X1.39743 Y13.06995
G01 X1.39743 Y14.46593
G01 X1.36911 Y14.58740
G01 X1.36047 Y14.59382
G01 X1.32916 Y14.71994
G01 X1.32916 Y16.24394
G01 X1.36047 Y16.37002
G01 X1.36911 Y16.37645
G01 X1.39743 Y16.49793
G01 X1.39743 Y17.51393
G01 X1.36911 Y17.63540
G01 X1.36047 Y17.64182
G01 X1.32916 Y17.76793
G01 X1.32916 Y19.29193
G01 X1.36047 Y19.41802
G01 X1.36911 Y19.42445
G01 X1.39743 Y19.54594
G01 X1.39743 Y20.04540
G01 X1.41442 Y20.18871
G01 X1.42044 Y20.21665
G01 X1.44389 Y20.28220
G01 X1.48323 Y20.36823
G01 X1.51331 Y20.41258
G01 X1.58803 Y20.50557
G01 X2.33802 Y21.25553
G01 X2.45135 Y21.34486
G01 X2.47536 Y21.36036
G01 X2.53830 Y21.39013
G01 X2.62694 Y21.42312
G01 X2.67957 Y21.43323
G01 X2.79819 Y21.44616
G01 X22.08759 Y21.44616
G01 X22.19797 Y21.46955
G01 X22.21959 Y21.57641
G01 X22.21959 Y22.59393
G01 X22.19980 Y22.69612
G01 X22.08759 Y22.72094
G01 X22.03016 Y22.72094
G01 X21.92495 Y22.74270
G01 X21.90316 Y22.84793
G01 X21.90316 Y24.37191
G01 X21.92495 Y24.47714
G01 X22.03016 Y24.49893
G01 X22.08759 Y24.49893
G01 X22.19980 Y24.52373
G01 X22.21959 Y24.62593
G01 X22.21959 Y25.13393
G01 X22.19980 Y25.23612
G01 X22.08759 Y25.26093
G01 X22.03016 Y25.26093
G01 X21.92495 Y25.28270
G01 X21.90316 Y25.38793
G01 X21.90316 Y26.91191
G01 X21.92495 Y27.01714
G01 X22.03016 Y27.03891
G01 X23.17318 Y27.03891
G01 X23.27839 Y27.01714
G01 X23.30018 Y26.91191
G01 X23.30018 Y25.38793
G01 X23.27839 Y25.28270
G01 X23.17318 Y25.26093
G01 X23.11552 Y25.26093
G01 X23.00346 Y25.23620
G01 X22.98362 Y25.13393
G01 X22.98362 Y24.62593
G01 X23.00346 Y24.52365
G01 X23.11552 Y24.49893
G01 X23.17318 Y24.49893
G01 X23.27839 Y24.47714
G01 X23.30018 Y24.37191
G01 X23.30018 Y22.84793
G01 X23.27839 Y22.74270
G01 X23.17318 Y22.72094
G01 X23.11552 Y22.72094
G01 X23.00346 Y22.69620
G01 X22.98362 Y22.59393
G01 X22.98362 Y21.57641
G01 X23.00529 Y21.46948
G01 X23.11552 Y21.44616
G01 X32.52036 Y21.44446
G01 X32.61774 Y21.43326
G01 X32.67039 Y21.42312
G01 X32.75901 Y21.39013
G01 X32.82196 Y21.36036
G01 X32.84596 Y21.34486
G01 X32.95932 Y21.25553
G01 X33.65180 Y20.56305
G01 X33.74301 Y20.50293
G01 X33.86531 Y20.47390
G01 X33.96127 Y20.46450
G04 P0 ( dwell for no time -- G64 should not smooth over this point )
G00 Z10.00000 ( retract )

G00 X31.87268 Y22.31047 ( rapid move to begin. )
G01 F30.00000
( Mill infeed pass 1/1 )
G01 Z-0.10000
G04 P0 ( dwell for no time -- G64 should not smooth over this point )
G01 F360.00000
G01 X31.87268 Y22.31047
G01 X31.87268 Y22.56815
G01 X31.96499 Y22.59439
G01 X32.04837 Y22.63211
G01 X32.12546 Y22.68141
G01 X32.19468 Y22.74131
G01 X32.25457 Y22.81052
G01 X32.30387 Y22.88761
G01 X32.34159 Y22.97100
G01 X32.36783 Y23.06333
G01 X32.62554 Y23.06333
G01 X32.61182 Y22.95842
G01 X32.52216 Y22.74202
G01 X32.37967 Y22.55634
G01 X32.19399 Y22.41385
G01 X31.97758 Y22.32419
G01 X31.87268 Y22.31047
G04 P0 ( dwell for no time -- G64 should not smooth over this point )
G00 Z10.00000 ( retract )

G00 X31.87268 Y23.81247 ( rapid move to begin. )
G01 F30.00000
( Mill infeed pass 1/1 )
G01 Z-0.10000
G04 P0 ( dwell for no time -- G64 should not smooth over this point )
G01 F360.00000
G01 X31.87268 Y23.81247
G01 X31.87268 Y24.07044
G01 X31.97758 Y24.05647
G01 X32.19399 Y23.96681
G01 X32.37967 Y23.82456
G01 X32.52216 Y23.63864
G01 X32.61182 Y23.42248
G01 X32.62554 Y23.31733
G01 X32.36783 Y23.31733
G01 X32.34159 Y23.40963
G01 X32.30387 Y23.49302
G01 X32.25457 Y23.57011
G01 X32.19468 Y23.63932
G01 X32.12546 Y23.69922
G01 X32.04837 Y23.74852
G01 X31.96499 Y23.78624
G01 X31.87268 Y23.81247
G04 P0 ( dwell for no time -- G64 should not smooth over this point )
G00 Z10.00000 ( retract )

G00 X29.11531 Y24.72273 ( rapid move to begin. )
G01 F30.00000
( Mill infeed pass 1/1 )
G01 Z-0.10000
G04 P0 ( dwell for no time -- G64 should not smooth over this point )
G01 F360.00000
G01 X29.11531 Y24.72273
G01 X29.26926 Y24.67729
G01 X29.42730 Y24.64493
G01 X29.60809 Y24.62512
G01 X29.71676 Y24.62197
G01 X29.88440 Y24.63015
G01 X30.05163 Y24.65400
G01 X30.15767 Y24.67722
G01 X30.33126 Y24.72880
G01 X30.45092 Y24.77422
G01 X30.60281 Y24.84392
G01 X30.71266 Y24.97993
G01 X30.82201 Y25.14105
G01 X30.88729 Y25.25276
G01 X30.96476 Y25.40561
G01 X31.06227 Y25.44188
G01 X31.19829 Y25.48065
G01 X31.27898 Y25.49672
G01 X31.40466 Y25.51156
G01 X31.49168 Y25.51494
G01 X33.65866 Y25.51494
G01 X33.77372 Y25.39985
G01 X33.90867 Y25.29865
G01 X34.04362 Y25.26492
G01 X35.54374 Y25.26492
G01 X35.63404 Y25.28004
G01 X35.72434 Y25.32535
G01 X35.89183 Y25.29482
G01 X36.00813 Y25.36467
G01 X36.44748 Y25.80391
G01 X36.49142 Y25.86167
G01 X36.46437 Y26.03477
G01 X36.45291 Y26.14991
G01 X36.46597 Y26.27683
G01 X36.48370 Y26.37772
G01 X36.54118 Y26.52667
G01 X36.57176 Y26.58989
G01 X36.61700 Y26.65585
G01 X36.71133 Y26.77226
G01 X36.79772 Y26.84396
G01 X36.89320 Y26.91272
G01 X37.00790 Y26.96411
G01 X37.10579 Y27.00020
G01 X37.23891 Y27.02182
G01 X37.33366 Y27.02982
G01 X37.49878 Y27.01186
G01 X37.56116 Y26.99974
G01 X37.63968 Y26.97206
G01 X37.77104 Y26.91414
G01 X37.83922 Y26.86693
G01 X37.95636 Y26.77262
G01 X38.01542 Y26.70155
G01 X38.08755 Y26.60312
G01 X38.14856 Y26.47371
G01 X38.18415 Y26.37780
G01 X38.20757 Y26.22799
G01 X38.21803 Y26.08290
G01 X38.25105 Y26.04267
G01 X43.16268 Y21.13110
G01 X43.22061 Y21.08705
G01 X43.28274 Y21.09876
G01 X43.38356 Y21.13460
G01 X43.52948 Y21.15856
G01 X43.63161 Y21.16920
G01 X43.66359 Y21.17115
G01 X43.72386 Y21.16673
G01 X43.81485 Y21.15627
G01 X43.94330 Y21.13432
G01 X44.07070 Y21.08693
G01 X44.20415 Y21.02627
G01 X44.30098 Y20.95815
G01 X44.42841 Y20.85480
G01 X44.53123 Y20.72795
G01 X44.59978 Y20.63049
G01 X44.61373 Y20.60252
G01 X44.67192 Y20.46892
G01 X44.70804 Y20.36971
G01 X44.73732 Y20.17949
G01 X44.74484 Y20.08505
G01 X44.73732 Y20.00047
G01 X44.70733 Y19.81017
G01 X44.67136 Y19.70971
G01 X44.59953 Y19.54941
G01 X44.54901 Y19.47591
G01 X44.42788 Y19.32569
G01 X44.29392 Y19.21652
G01 X44.20408 Y19.15363
G01 X44.06257 Y19.08970
G01 X43.94342 Y19.04535
G01 X43.80268 Y19.02214
G01 X43.66359 Y19.00880
G01 X43.53822 Y19.02038
G01 X43.38366 Y19.04591
G01 X43.29199 Y19.07875
G01 X43.12313 Y19.15396
G01 X42.96819 Y19.26692
G01 X42.89885 Y19.32523
G01 X42.82956 Y19.40817
G01 X42.72689 Y19.54911
G01 X42.68363 Y19.64240
G01 X42.61889 Y19.80987
G01 X42.59130 Y19.98668
G01 X42.58206 Y20.08995
G01 X42.59003 Y20.18182
G01 X42.61571 Y20.35345
G01 X42.64845 Y20.45165
G01 X42.66626 Y20.53341
G01 X42.62250 Y20.59092
G01 X37.87244 Y25.34097
G01 X37.80536 Y25.38997
G01 X37.72982 Y25.36708
G01 X37.56142 Y25.29916
G01 X37.44079 Y25.27958
G01 X37.33366 Y25.26911
G01 X37.20970 Y25.28181
G01 X37.04501 Y25.30744
G01 X36.98768 Y25.26375
G01 X36.34283 Y24.61892
G01 X36.28329 Y24.57361
G01 X36.20933 Y24.52822
G01 X36.12490 Y24.50800
G01 X36.05068 Y24.49797
G01 X35.62248 Y24.49797
G01 X35.54039 Y24.48519
G01 X35.45830 Y24.44689
G01 X35.37920 Y24.39767
G01 X35.39927 Y24.31252
G01 X35.42629 Y24.23704
G01 X35.46503 Y24.17440
G01 X35.55591 Y24.04999
G01 X35.60580 Y23.94072
G01 X35.64418 Y23.83777
G01 X35.66752 Y23.68817
G01 X35.67430 Y23.60994
G01 X35.66485 Y23.50887
G01 X35.64392 Y23.38212
G01 X35.60127 Y23.26820
G01 X35.55614 Y23.16973
G01 X35.47280 Y23.05482
G01 X35.41644 Y22.98708
G01 X35.34573 Y22.92835
G01 X35.23376 Y22.84743
G01 X35.13275 Y22.80117
G01 X35.05512 Y22.77097
G01 X35.02134 Y22.75947
G01 X34.97425 Y22.75045
G01 X34.79366 Y22.72911
G01 X34.70148 Y22.73765
G01 X34.56579 Y22.75962
G01 X34.46015 Y22.79881
G01 X34.35332 Y22.84745
G01 X34.23686 Y22.93201
G01 X34.17072 Y22.98718
G01 X34.11078 Y23.05944
G01 X34.03128 Y23.16985
G01 X33.98375 Y23.27354
G01 X33.94321 Y23.38202
G01 X33.92175 Y23.51479
G01 X33.91291 Y23.60994
G01 X33.92175 Y23.70503
G01 X33.94324 Y23.83782
G01 X33.98337 Y23.94529
G01 X34.03112 Y24.05009
G01 X34.12203 Y24.17440
G01 X34.16417 Y24.24402
G01 X34.19300 Y24.33338
G01 X34.20801 Y24.39756
G01 X34.37092 Y24.44435
G01 X34.52934 Y24.47511
G01 X34.62873 Y24.48717
G01 X34.78426 Y24.49482
G01 X34.96457 Y24.48659
G01 X35.07654 Y24.47224
G01 X35.23526 Y24.43973
G01 X35.37920 Y24.39767
G01 X35.25495 Y24.43470
G01 X35.14776 Y24.45941
G01 X34.97925 Y24.48509
G01 X34.87938 Y24.49276
G01 X34.71306 Y24.49302
G01 X34.54392 Y24.47722
G01 X34.37092 Y24.44435
G01 X34.20801 Y24.39756
G01 X34.12879 Y24.44689
G01 X34.04669 Y24.48519
G01 X33.96460 Y24.49797
G01 X31.70453 Y24.49797
G01 X31.65203 Y24.49274
G01 X31.61127 Y24.45934
G01 X31.42331 Y24.27138
G01 X31.36844 Y24.19256
G01 X31.33753 Y24.08979
G01 X31.31952 Y23.98070
G01 X31.11106 Y23.80938
G01 X31.04436 Y23.75906
G01 X30.84355 Y23.62291
G01 X30.81495 Y23.47145
G01 X30.71393 Y23.36355
G01 X30.63049 Y23.24468
G01 X30.60266 Y23.12581
G01 X30.60266 Y22.21293
G01 X30.58089 Y22.10770
G01 X30.47568 Y22.08593
G01 X28.95168 Y22.08593
G01 X28.84645 Y22.10770
G01 X28.82468 Y22.21293
G01 X28.82468 Y22.46107
G01 X28.79994 Y22.57313
G01 X28.69768 Y22.59297
G01 X25.28164 Y22.59297
G01 X25.20742 Y22.60300
G01 X25.12278 Y22.62327
G01 X25.04900 Y22.66859
G01 X24.98689 Y22.71492
G01 X24.93162 Y22.72094
G01 X24.06218 Y22.72094
G01 X23.95695 Y22.74270
G01 X23.93518 Y22.84793
G01 X23.93518 Y24.37191
G01 X23.95695 Y24.47714
G01 X24.06218 Y24.49893
G01 X25.20516 Y24.49893
G01 X25.31039 Y24.47714
G01 X25.33216 Y24.37191
G01 X25.33216 Y23.51113
G01 X25.34003 Y23.44791
G01 X25.38819 Y23.39556
G01 X25.42901 Y23.36211
G01 X25.48151 Y23.35687
G01 X28.69768 Y23.35687
G01 X28.79994 Y23.37671
G01 X28.82468 Y23.48878
G01 X28.82468 Y23.72703
G01 X28.82085 Y23.83015
G01 X28.95168 Y23.86386
G01 X30.47568 Y23.86386
G01 X30.60261 Y23.83213
G01 X30.72955 Y23.73691
G01 X30.84355 Y23.62291
G01 X30.72955 Y23.73691
G01 X30.60261 Y23.83213
G01 X30.47568 Y23.86386
G01 X28.95168 Y23.86386
G01 X28.82085 Y23.83015
G01 X28.69768 Y23.85891
G01 X28.33347 Y23.85891
G01 X28.25923 Y23.86896
G01 X28.17490 Y23.88913
G01 X28.10086 Y23.93460
G01 X28.04130 Y23.97999
G01 X26.29207 Y25.72934
G01 X26.25126 Y25.76276
G01 X26.19883 Y25.76797
G01 X25.45918 Y25.76797
G01 X25.35690 Y25.74813
G01 X25.33216 Y25.63607
G01 X25.33216 Y25.38793
G01 X25.31039 Y25.28270
G01 X25.20516 Y25.26093
G01 X24.06218 Y25.26093
G01 X23.95695 Y25.28270
G01 X23.93518 Y25.38793
G01 X23.93518 Y26.91191
G01 X23.95695 Y27.01714
G01 X24.06218 Y27.03891
G01 X25.20516 Y27.03891
G01 X25.31039 Y27.01714
G01 X25.33216 Y26.91191
G01 X25.33216 Y26.66378
G01 X25.35690 Y26.55171
G01 X25.45918 Y26.53187
G01 X26.39868 Y26.53187
G01 X26.47297 Y26.52182
G01 X26.55730 Y26.50162
G01 X26.63132 Y26.45621
G01 X26.69083 Y26.41092
G01 X28.44008 Y24.66144
G01 X28.48087 Y24.62802
G01 X28.53334 Y24.62281
G01 X28.87269 Y24.62281
G01 X28.95476 Y24.63559
G01 X29.03685 Y24.67389
G01 X29.11531 Y24.72273
G01 X29.09847 Y24.79551
G01 X29.06898 Y24.88303
