( pcb2gcode 2.5.0 )
( Software-independent Gcode )

G94 ( Millimeters per minute feed rate. )
G21 ( Units == Millimeters. )

G90 ( Absolute coordinates. )
G00 S10000 ( RPM spindle speed. )
G01 F360.00000 ( Feedrate. )


G00 Z50.00000 (Retract to tool change height)
T1
M5      (Spindle stop.)
G04 P1.00000 (Wait for spindle to stop)
(MSG, Change tool bit to mill diameter 0.00000mm)
M6      (Tool change.)
M0      (Temporary machine stop.)
M3 ( Spindle on clockwise. )
G04 P1.00000 (Wait for spindle to get up to speed)
G04 P0 ( dwell for no time -- G64 should not smooth over this point )
G00 Z10.00000 ( retract )

G00 X0.75768 Y8.62393 ( rapid move to begin. )
G01 F30.00000
( Mill infeed pass 1/1 )
G01 Z-0.10000
G04 P0 ( dwell for no time -- G64 should not smooth over this point )
G01 F360.00000
G01 X0.75768 Y8.62393
G01 X0.75768 Y9.51293
G01 X1.01168 Y9.51293
G01 X1.01168 Y8.87794
G01 X1.64668 Y8.87794
G01 X1.64668 Y8.62393
G01 X0.75768 Y8.62393
G04 P0 ( dwell for no time -- G64 should not smooth over this point )
G00 Z10.00000 ( retract )

G00 X1.90068 Y8.62393 ( rapid move to begin. )
G01 F30.00000
( Mill infeed pass 1/1 )
G01 Z-0.10000
G04 P0 ( dwell for no time -- G64 should not smooth over this point )
G01 F360.00000
G01 X1.90068 Y8.62393
G01 X2.78968 Y8.62393
G01 X2.78968 Y9.51293
G01 X2.53568 Y9.51293
G01 X2.53568 Y8.87794
G01 X1.90068 Y8.87794
G01 X1.90068 Y8.62393
G04 P0 ( dwell for no time -- G64 should not smooth over this point )
G00 Z10.00000 ( retract )

G00 X0.75768 Y9.76694 ( rapid move to begin. )
G01 F30.00000
( Mill infeed pass 1/1 )
G01 Z-0.10000
G04 P0 ( dwell for no time -- G64 should not smooth over this point )
G01 F360.00000
G01 X0.75768 Y9.76694
G01 X1.01168 Y9.76694
G01 X1.01168 Y10.40193
G01 X1.64668 Y10.40193
G01 X1.64668 Y10.65593
G01 X0.75768 Y10.65593
G01 X0.75768 Y9.76694
G04 P0 ( dwell for no time -- G64 should not smooth over this point )
G00 Z10.00000 ( retract )

G00 X1.90068 Y10.40193 ( rapid move to begin. )
G01 F30.00000
( Mill infeed pass 1/1 )
G01 Z-0.10000
G04 P0 ( dwell for no time -- G64 should not smooth over this point )
G01 F360.00000
G01 X1.90068 Y10.40193
G01 X1.90068 Y10.65593
G01 X2.78968 Y10.65593
G01 X2.78968 Y9.76694
G01 X2.53568 Y9.76694
G01 X2.53568 Y10.40193
G01 X1.90068 Y10.40193
G04 P0 ( dwell for no time -- G64 should not smooth over this point )
G00 Z10.00000 ( retract )

G00 X3.23418 Y14.46593 ( rapid move to begin. )
G01 F30.00000
( Mill infeed pass 1/1 )
G01 Z-0.10000
G04 P0 ( dwell for no time -- G64 should not smooth over this point )
G01 F360.00000
G01 X3.23418 Y14.46593
G01 X3.23418 Y15.35493
G01 X3.48818 Y15.35493
G01 X3.48818 Y14.71994
G01 X3.93268 Y14.71994
G01 X3.93268 Y14.46593
G01 X3.23418 Y14.46593
G04 P0 ( dwell for no time -- G64 should not smooth over this point )
G00 Z10.00000 ( retract )

G00 X4.18668 Y14.46593 ( rapid move to begin. )
G01 F30.00000
( Mill infeed pass 1/1 )
G01 Z-0.10000
G04 P0 ( dwell for no time -- G64 should not smooth over this point )
G01 F360.00000
G01 X4.18668 Y14.46593
G01 X4.18668 Y14.71994
G01 X4.63118 Y14.71994
G01 X4.63118 Y15.35493
G01 X4.88518 Y15.35493
G01 X4.88518 Y14.46593
G01 X4.18668 Y14.46593
G04 P0 ( dwell for no time -- G64 should not smooth over this point )
G00 Z10.00000 ( retract )

G00 X3.23418 Y15.60893 ( rapid move to begin. )
G01 F30.00000
( Mill infeed pass 1/1 )
G01 Z-0.10000
G04 P0 ( dwell for no time -- G64 should not smooth over this point )
G01 F360.00000
G01 X3.23418 Y15.60893
G01 X3.48818 Y15.60893
G01 X3.48818 Y16.24394
G01 X3.93268 Y16.24394
G01 X3.93268 Y16.49793
G01 X3.23418 Y16.49793
G01 X3.23418 Y15.60893
G04 P0 ( dwell for no time -- G64 should not smooth over this point )
G00 Z10.00000 ( retract )

G00 X4.18668 Y16.24394 ( rapid move to begin. )
G01 F30.00000
( Mill infeed pass 1/1 )
G01 Z-0.10000
G04 P0 ( dwell for no time -- G64 should not smooth over this point )
G01 F360.00000
G01 X4.18668 Y16.24394
G01 X4.63118 Y16.24394
G01 X4.63118 Y15.60893
G01 X4.88518 Y15.60893
G01 X4.88518 Y16.49793
G01 X4.18668 Y16.49793
G01 X4.18668 Y16.24394
G04 P0 ( dwell for no time -- G64 should not smooth over this point )
G00 Z10.00000 ( retract )

G00 X3.23418 Y17.51393 ( rapid move to begin. )
G01 F30.00000
( Mill infeed pass 1/1 )
G01 Z-0.10000
G04 P0 ( dwell for no time -- G64 should not smooth over this point )
G01 F360.00000
G01 X3.23418 Y17.51393
G01 X3.23418 Y18.40293
G01 X3.48818 Y18.40293
G01 X3.48818 Y17.76793
G01 X3.93268 Y17.76793
G01 X3.93268 Y17.51393
G01 X3.23418 Y17.51393
G04 P0 ( dwell for no time -- G64 should not smooth over this point )
G00 Z10.00000 ( retract )

G00 X3.23418 Y18.65694 ( rapid move to begin. )
G01 F30.00000
( Mill infeed pass 1/1 )
G01 Z-0.10000
G04 P0 ( dwell for no time -- G64 should not smooth over this point )
G01 F360.00000
G01 X3.23418 Y18.65694
G01 X3.23418 Y19.54594
G01 X3.93268 Y19.54594
G01 X3.93268 Y19.29193
G01 X3.48818 Y19.29193
G01 X3.48818 Y18.65694
G01 X3.23418 Y18.65694
G04 P0 ( dwell for no time -- G64 should not smooth over this point )
G00 Z10.00000 ( retract )

G00 X0.39014 Y22.21293 ( rapid move to begin. )
G01 F30.00000
( Mill infeed pass 1/1 )
G01 Z-0.10000
G04 P0 ( dwell for no time -- G64 should not smooth over this point )
G01 F360.00000
G01 X0.39014 Y22.21293
G01 X0.40386 Y22.10778
G01 X0.49352 Y21.89163
G01 X0.63602 Y21.70595
G01 X0.82166 Y21.56346
G01 X1.03784 Y21.47379
G01 X1.14300 Y21.46008
G01 X1.14300 Y21.71776
G01 X1.05453 Y21.74260
G01 X0.96876 Y21.78091
G01 X0.89162 Y21.82995
G01 X0.82052 Y21.89137
G01 X0.76078 Y21.96054
G01 X0.71039 Y22.03981
G01 X0.67310 Y22.12327
G01 X0.64783 Y22.21293
G01 X0.39014 Y22.21293
G04 P0 ( dwell for no time -- G64 should not smooth over this point )
G00 Z10.00000 ( retract )

G00 X0.39014 Y22.46693 ( rapid move to begin. )
G01 F30.00000
( Mill infeed pass 1/1 )
G01 Z-0.10000
G04 P0 ( dwell for no time -- G64 should not smooth over this point )
G01 F360.00000
G01 X0.39014 Y22.46693
G01 X0.40386 Y22.57209
G01 X0.49352 Y22.78824
G01 X0.63602 Y22.97392
G01 X0.82166 Y23.11641
G01 X1.03784 Y23.20607
G01 X1.14300 Y23.21979
G01 X1.14300 Y22.96208
G01 X1.05453 Y22.93724
G01 X0.96876 Y22.89894
G01 X0.89162 Y22.84989
G01 X0.82052 Y22.78847
G01 X0.76078 Y22.71931
G01 X0.71039 Y22.64004
G01 X0.67310 Y22.55657
G01 X0.64783 Y22.46693
G01 X0.39014 Y22.46693
G04 P0 ( dwell for no time -- G64 should not smooth over this point )
G00 Z10.00000 ( retract )

G00 X1.39700 Y22.96208 ( rapid move to begin. )
G01 F30.00000
( Mill infeed pass 1/1 )
G01 Z-0.10000
G04 P0 ( dwell for no time -- G64 should not smooth over this point )
G01 F360.00000
G01 X1.39700 Y22.96208
G01 X1.39700 Y23.21979
G01 X1.50216 Y23.20607
G01 X1.71831 Y23.11641
G01 X1.90398 Y22.97392
G01 X2.04648 Y22.78824
G01 X2.13614 Y22.57209
G01 X2.14986 Y22.46693
G01 X1.89215 Y22.46693
G01 X1.86687 Y22.55657
G01 X1.82959 Y22.64004
G01 X1.77919 Y22.71931
G01 X1.71945 Y22.78847
G01 X1.64833 Y22.84989
G01 X1.57122 Y22.89894
G01 X1.48544 Y22.93724
G01 X1.39700 Y22.96208
G04 P0 ( dwell for no time -- G64 should not smooth over this point )
G00 Z10.00000 ( retract )

G00 X1.66014 Y24.75293 ( rapid move to begin. )
G01 F30.00000
( Mill infeed pass 1/1 )
G01 Z-0.10000
G04 P0 ( dwell for no time -- G64 should not smooth over this point )
G01 F360.00000
G01 X1.66014 Y24.75293
G01 X1.67386 Y24.64778
G01 X1.76352 Y24.43163
G01 X1.90602 Y24.24595
G01 X2.09169 Y24.10346
G01 X2.30784 Y24.01380
G01 X2.41300 Y24.00008
G01 X2.41300 Y24.25776
G01 X2.32453 Y24.28260
G01 X2.23876 Y24.32091
G01 X2.16162 Y24.36995
G01 X2.09052 Y24.43137
G01 X2.03078 Y24.50054
G01 X1.98039 Y24.57981
G01 X1.94310 Y24.66327
G01 X1.91783 Y24.75293
G01 X1.66014 Y24.75293
G04 P0 ( dwell for no time -- G64 should not smooth over this point )
G00 Z10.00000 ( retract )

G00 X1.66014 Y25.00693 ( rapid move to begin. )
G01 F30.00000
( Mill infeed pass 1/1 )
G01 Z-0.10000
G04 P0 ( dwell for no time -- G64 should not smooth over this point )
G01 F360.00000
G01 X1.66014 Y25.00693
G01 X1.67386 Y25.11209
G01 X1.76352 Y25.32824
G01 X1.90602 Y25.51392
G01 X2.09169 Y25.65641
G01 X2.30784 Y25.74607
G01 X2.41300 Y25.75979
G01 X2.41300 Y25.50208
G01 X2.32453 Y25.47724
G01 X2.23876 Y25.43894
G01 X2.16162 Y25.38989
G01 X2.09052 Y25.32847
G01 X2.03078 Y25.25931
G01 X1.98039 Y25.18004
G01 X1.94310 Y25.09657
G01 X1.91783 Y25.00693
G01 X1.66014 Y25.00693
G04 P0 ( dwell for no time -- G64 should not smooth over this point )
G00 Z10.00000 ( retract )

G00 X2.66700 Y25.50208 ( rapid move to begin. )
G01 F30.00000
( Mill infeed pass 1/1 )
G01 Z-0.10000
G04 P0 ( dwell for no time -- G64 should not smooth over this point )
G01 F360.00000
G01 X2.66700 Y25.50208
G01 X2.66700 Y25.75979
G01 X2.77216 Y25.74607
G01 X2.98831 Y25.65641
G01 X3.17398 Y25.51392
G01 X3.31640 Y25.32824
G01 X3.40614 Y25.11209
G01 X3.41986 Y25.00693
G01 X3.16215 Y25.00693
G01 X3.13687 Y25.09657
G01 X3.09959 Y25.18004
G01 X3.04919 Y25.25931
G01 X2.98945 Y25.32847
G01 X2.91836 Y25.38989
G01 X2.84122 Y25.43894
G01 X2.75544 Y25.47724
G01 X2.66700 Y25.50208
G04 P0 ( dwell for no time -- G64 should not smooth over this point )
G00 Z10.00000 ( retract )

G00 X2.66700 Y24.00008 ( rapid move to begin. )
G01 F30.00000
( Mill infeed pass 1/1 )
G01 Z-0.10000
G04 P0 ( dwell for no time -- G64 should not smooth over this point )
G01 F360.00000
G01 X2.66700 Y24.00008
G01 X2.77216 Y24.01380
G01 X2.98831 Y24.10346
G01 X3.17398 Y24.24595
G01 X3.31640 Y24.43163
G01 X3.40614 Y24.64778
G01 X3.41986 Y24.75293
G01 X3.16215 Y24.75293
G01 X3.13687 Y24.66327
G01 X3.09959 Y24.57981
G01 X3.04919 Y24.50054
G01 X2.98945 Y24.43137
G01 X2.91836 Y24.36995
G01 X2.84122 Y24.32091
G01 X2.75544 Y24.28260
G01 X2.66700 Y24.25776
G01 X2.66700 Y24.00008
G04 P0 ( dwell for no time -- G64 should not smooth over this point )
G00 Z10.00000 ( retract )

G00 X1.39700 Y21.46008 ( rapid move to begin. )
G01 F30.00000
( Mill infeed pass 1/1 )
G01 Z-0.10000
G04 P0 ( dwell for no time -- G64 should not smooth over this point )
G01 F360.00000
G01 X1.39700 Y21.46008
G01 X1.50216 Y21.47379
G01 X1.71831 Y21.56346
G01 X1.90398 Y21.70595
G01 X2.04648 Y21.89163
G01 X2.13614 Y22.10778
G01 X2.14986 Y22.21293
G01 X1.89215 Y22.21293
G01 X1.86687 Y22.12327
G01 X1.82959 Y22.03981
G01 X1.77919 Y21.96054
G01 X1.71945 Y21.89137
G01 X1.64833 Y21.82995
G01 X1.57122 Y21.78091
G01 X1.48544 Y21.74260
G01 X1.39700 Y21.71776
G01 X1.39700 Y21.46008
G04 P0 ( dwell for no time -- G64 should not smooth over this point )
G00 Z10.00000 ( retract )

G00 X4.18668 Y19.29193 ( rapid move to begin. )
G01 F30.00000
( Mill infeed pass 1/1 )
G01 Z-0.10000
G04 P0 ( dwell for no time -- G64 should not smooth over this point )
G01 F360.00000
G01 X4.18668 Y19.29193
G01 X4.63118 Y19.29193
G01 X4.63118 Y18.65694
G01 X4.88518 Y18.65694
G01 X4.88518 Y19.54594
G01 X4.18668 Y19.54594
G01 X4.18668 Y19.29193
G04 P0 ( dwell for no time -- G64 should not smooth over this point )
G00 Z10.00000 ( retract )

G00 X4.18668 Y17.51393 ( rapid move to begin. )
G01 F30.00000
( Mill infeed pass 1/1 )
G01 Z-0.10000
G04 P0 ( dwell for no time -- G64 should not smooth over this point )
G01 F360.00000
G01 X4.18668 Y17.51393
G01 X4.88518 Y17.51393
G01 X4.88518 Y18.40293
G01 X4.63118 Y18.40293
G01 X4.63118 Y17.76793
G01 X4.18668 Y17.76793
G01 X4.18668 Y17.51393
G04 P0 ( dwell for no time -- G64 should not smooth over this point )
G00 Z10.00000 ( retract )

G00 X5.21157 Y18.49133 ( rapid move to begin. )
G01 F30.00000
( Mill infeed pass 1/1 )
G01 Z-0.10000
G04 P0 ( dwell for no time -- G64 should not smooth over this point )
G01 F360.00000
G01 X5.21157 Y18.49133
G01 X5.22554 Y18.38642
G01 X5.31495 Y18.17002
G01 X5.45744 Y17.98434
G01 X5.64337 Y17.84185
G01 X5.85953 Y17.75219
G01 X5.96468 Y17.73847
G01 X5.96468 Y17.99615
G01 X5.87621 Y18.02100
G01 X5.79044 Y18.05930
G01 X5.71330 Y18.10835
G01 X5.64220 Y18.16976
G01 X5.58246 Y18.23893
G01 X5.53207 Y18.31820
G01 X5.49478 Y18.40166
G01 X5.46951 Y18.49133
G01 X5.21157 Y18.49133
G04 P0 ( dwell for no time -- G64 should not smooth over this point )
G00 Z10.00000 ( retract )

G00 X5.21157 Y18.74533 ( rapid move to begin. )
G01 F30.00000
( Mill infeed pass 1/1 )
G01 Z-0.10000
G04 P0 ( dwell for no time -- G64 should not smooth over this point )
G01 F360.00000
G01 X5.21157 Y18.74533
G01 X5.22554 Y18.85048
G01 X5.31495 Y19.06664
G01 X5.45744 Y19.25231
G01 X5.64337 Y19.39506
G01 X5.85953 Y19.48447
G01 X5.96468 Y19.49844
G01 X5.96468 Y19.24047
G01 X5.87621 Y19.21563
G01 X5.79044 Y19.17733
G01 X5.71330 Y19.12828
G01 X5.64220 Y19.06687
G01 X5.58246 Y18.99770
G01 X5.53207 Y18.91843
G01 X5.49478 Y18.83496
G01 X5.46951 Y18.74533
G01 X5.21157 Y18.74533
G04 P0 ( dwell for no time -- G64 should not smooth over this point )
G00 Z10.00000 ( retract )

G00 X6.21868 Y19.24047 ( rapid move to begin. )
G01 F30.00000
( Mill infeed pass 1/1 )
G01 Z-0.10000
G04 P0 ( dwell for no time -- G64 should not smooth over this point )
G01 F360.00000
G01 X6.21868 Y19.24047
G01 X6.21868 Y19.49844
G01 X6.32358 Y19.48447
G01 X6.53999 Y19.39506
G01 X6.72567 Y19.25231
G01 X6.86816 Y19.06664
G01 X6.95782 Y18.85048
G01 X6.97154 Y18.74533
G01 X6.71383 Y18.74533
G01 X6.68856 Y18.83496
G01 X6.65127 Y18.91843
G01 X6.60088 Y18.99770
G01 X6.54113 Y19.06687
G01 X6.47004 Y19.12828
G01 X6.39290 Y19.17733
G01 X6.30712 Y19.21563
G01 X6.21868 Y19.24047
G04 P0 ( dwell for no time -- G64 should not smooth over this point )
G00 Z10.00000 ( retract )

G00 X6.21868 Y17.73847 ( rapid move to begin. )
G01 F30.00000
( Mill infeed pass 1/1 )
G01 Z-0.10000
G04 P0 ( dwell for no time -- G64 should not smooth over this point )
G01 F360.00000
G01 X6.21868 Y17.73847
G01 X6.32358 Y17.75219
G01 X6.53999 Y17.84185
G01 X6.72567 Y17.98434
G01 X6.86816 Y18.17002
G01 X6.95782 Y18.38642
G01 X6.97154 Y18.49133
G01 X6.71383 Y18.49133
G01 X6.68856 Y18.40166
G01 X6.65127 Y18.31820
G01 X6.60088 Y18.23893
G01 X6.54113 Y18.16976
G01 X6.47004 Y18.10835
G01 X6.39290 Y18.05930
G01 X6.30712 Y18.02100
G01 X6.21868 Y17.99615
G01 X6.21868 Y17.73847
G04 P0 ( dwell for no time -- G64 should not smooth over this point )
G00 Z10.00000 ( retract )

G00 X6.21868 Y16.19247 ( rapid move to begin. )
G01 F30.00000
( Mill infeed pass 1/1 )
G01 Z-0.10000
G04 P0 ( dwell for no time -- G64 should not smooth over this point )
G01 F360.00000
G01 X6.21868 Y16.19247
G01 X6.30712 Y16.16763
G01 X6.39290 Y16.12933
G01 X6.47004 Y16.08028
G01 X6.54113 Y16.01887
G01 X6.60088 Y15.94970
G01 X6.65127 Y15.87043
G01 X6.68856 Y15.78696
G01 X6.71383 Y15.69733
G01 X6.97154 Y15.69733
G01 X6.95782 Y15.80248
G01 X6.86816 Y16.01864
G01 X6.72567 Y16.20431
G01 X6.53999 Y16.34706
G01 X6.32358 Y16.43647
G01 X6.21868 Y16.45044
G01 X6.21868 Y16.19247
G04 P0 ( dwell for no time -- G64 should not smooth over this point )
G00 Z10.00000 ( retract )

G00 X5.21157 Y15.44333 ( rapid move to begin. )
G01 F30.00000
( Mill infeed pass 1/1 )
G01 Z-0.10000
G04 P0 ( dwell for no time -- G64 should not smooth over this point )
G01 F360.00000
G01 X5.21157 Y15.44333
G01 X5.22554 Y15.33843
G01 X5.31495 Y15.12202
G01 X5.45744 Y14.93634
G01 X5.64337 Y14.79385
G01 X5.85953 Y14.70419
G01 X5.96468 Y14.69047
G01 X5.96468 Y14.94815
G01 X5.87621 Y14.97300
G01 X5.79044 Y15.01130
G01 X5.71330 Y15.06035
G01 X5.64220 Y15.12176
G01 X5.58246 Y15.19093
G01 X5.53207 Y15.27020
G01 X5.49478 Y15.35367
G01 X5.46951 Y15.44333
G01 X5.21157 Y15.44333
G04 P0 ( dwell for no time -- G64 should not smooth over this point )
G00 Z10.00000 ( retract )

G00 X5.21157 Y15.69733 ( rapid move to begin. )
G01 F30.00000
( Mill infeed pass 1/1 )
G01 Z-0.10000
G04 P0 ( dwell for no time -- G64 should not smooth over this point )
G01 F360.00000
G01 X5.21157 Y15.69733
G01 X5.22554 Y15.80248
G01 X5.31495 Y16.01864
G01 X5.45744 Y16.20431
G01 X5.64337 Y16.34706
G01 X5.85953 Y16.43647
G01 X5.96468 Y16.45044
G01 X5.96468 Y16.19247
G01 X5.87621 Y16.16763
G01 X5.79044 Y16.12933
G01 X5.71330 Y16.08028
G01 X5.64220 Y16.01887
G01 X5.58246 Y15.94970
G01 X5.53207 Y15.87043
G01 X5.49478 Y15.78696
G01 X5.46951 Y15.69733
G01 X5.21157 Y15.69733
G04 P0 ( dwell for no time -- G64 should not smooth over this point )
G00 Z10.00000 ( retract )

G00 X6.21868 Y14.69047 ( rapid move to begin. )
G01 F30.00000
( Mill infeed pass 1/1 )
G01 Z-0.10000
G04 P0 ( dwell for no time -- G64 should not smooth over this point )
G01 F360.00000
G01 X6.21868 Y14.69047
G01 X6.21868 Y14.94815
G01 X6.30712 Y14.97300
G01 X6.39290 Y15.01130
G01 X6.47004 Y15.06035
G01 X6.54113 Y15.12176
G01 X6.60088 Y15.19093
G01 X6.65127 Y15.27020
G01 X6.68856 Y15.35367
G01 X6.71383 Y15.44333
G01 X6.97154 Y15.44333
G01 X6.95782 Y15.33843
G01 X6.86816 Y15.12202
G01 X6.72567 Y14.93634
G01 X6.53999 Y14.79385
G01 X6.32358 Y14.70419
G01 X6.21868 Y14.69047
G04 P0 ( dwell for no time -- G64 should not smooth over this point )
G00 Z10.00000 ( retract )

G00 X6.11939 Y12.93259 ( rapid move to begin. )
G01 F30.00000
( Mill infeed pass 1/1 )
G01 Z-0.10000
G04 P0 ( dwell for no time -- G64 should not smooth over this point )
G01 F360.00000
G01 X6.11939 Y12.93259
G01 X6.05386 Y12.75652
G01 X6.02066 Y12.64244
G01 X5.98526 Y12.47577
G01 X5.96458 Y12.29695
G01 X5.96161 Y12.12372
G01 X5.97624 Y11.94455
G01 X6.00913 Y11.76424
G01 X6.06123 Y11.58118
G01 X6.01264 Y11.50310
G01 X5.97433 Y11.42101
G01 X5.96156 Y11.33892
G01 X5.96156 Y10.92698
G01 X5.95150 Y10.85266
G01 X5.93471 Y10.78065
G01 X5.93131 Y10.76836
G01 X5.89973 Y10.71504
G01 X5.84037 Y10.63460
G01 X5.20847 Y10.00267
G01 X5.16440 Y9.94463
G01 X5.19783 Y9.73061
G01 X5.20596 Y9.63963
G01 X5.19656 Y9.53656
G01 X5.17566 Y9.40897
G01 X5.12897 Y9.28558
G01 X5.08683 Y9.19358
G01 X5.03705 Y9.12284
G01 X4.94477 Y9.00882
G01 X4.85620 Y8.93575
G01 X4.75983 Y8.86709
G01 X4.63847 Y8.81238
G01 X4.54464 Y8.77758
G01 X4.45788 Y8.76252
G01 X4.31366 Y8.74738
G01 X4.19796 Y8.75848
G01 X4.08252 Y8.77796
G01 X3.95930 Y8.82454
G01 X3.86692 Y8.86694
G01 X3.79656 Y8.91647
G01 X3.68259 Y9.00880
G01 X3.60949 Y9.09737
G01 X3.54084 Y9.19376
G01 X3.48612 Y9.31512
G01 X3.45133 Y9.40895
G01 X3.43626 Y9.49569
G01 X3.42113 Y9.63991
G01 X3.43245 Y9.75688
G01 X3.45140 Y9.87087
G01 X3.48526 Y9.96251
G01 X3.54096 Y10.08601
G01 X3.62557 Y10.20303
G01 X3.68254 Y10.27110
G01 X3.70035 Y10.28675
G01 X3.78000 Y10.35080
G01 X3.86712 Y10.41303
G01 X3.99184 Y10.46864
G01 X4.08993 Y10.50364
G01 X4.21033 Y10.52284
G01 X4.31368 Y10.53224
G01 X4.45265 Y10.51806
G01 X4.60571 Y10.49401
G01 X4.66321 Y10.53777
G01 X5.15902 Y11.03358
G01 X5.19242 Y11.07435
G01 X5.19765 Y11.12685
G01 X5.19765 Y11.33284
G01 X5.18488 Y11.41491
G01 X5.14657 Y11.49701
G01 X5.09877 Y11.57379
G01 X5.02387 Y11.55700
G01 X4.92839 Y11.52401
G01 X4.87416 Y11.48999
G01 X4.75978 Y11.40706
G01 X4.62686 Y11.34775
G01 X4.54469 Y11.31761
G01 X4.36977 Y11.29177
G01 X4.31366 Y11.28751
G01 X4.28361 Y11.28944
G01 X4.19799 Y11.29858
G01 X4.08247 Y11.31796
G01 X3.95930 Y11.36454
G01 X3.87850 Y11.40125
G01 X3.80649 Y11.44918
G01 X3.68259 Y11.54880
G01 X3.61716 Y11.62746
G01 X3.56436 Y11.69878
G01 X3.54084 Y11.73376
G01 X3.51615 Y11.78507
G01 X3.45133 Y11.94895
G01 X3.42669 Y12.11130
G01 X3.42113 Y12.17991
G01 X3.42308 Y12.20996
G01 X3.43228 Y12.29561
G01 X3.45166 Y12.41082
G01 X3.49834 Y12.53424
G01 X3.54051 Y12.62626
G01 X3.59026 Y12.69698
G01 X3.68259 Y12.81105
G01 X3.76118 Y12.87645
G01 X3.86733 Y12.95270
G01 X3.91879 Y12.97747
G01 X4.08173 Y13.04199
G01 X4.15681 Y13.05542
G01 X4.31366 Y13.07244
G01 X4.42935 Y13.06132
G01 X4.54454 Y13.04191
G01 X4.66801 Y12.99522
G01 X4.75999 Y12.95309
G01 X4.90007 Y12.85171
G01 X4.97253 Y12.81737
G01 X5.09908 Y12.78654
G01 X5.15018 Y12.61128
G01 X5.17332 Y12.50218
G01 X5.19549 Y12.33818
G01 X5.20245 Y12.16233
G01 X5.19212 Y11.98738
G01 X5.17815 Y11.88555
G01 X5.14284 Y11.71931
G01 X5.09877 Y11.57379
G01 X5.14284 Y11.71931
G01 X5.17815 Y11.88555
G01 X5.19212 Y11.98738
G01 X5.20245 Y12.16233
G01 X5.19549 Y12.33818
G01 X5.17332 Y12.50218
G01 X5.15018 Y12.61128
G01 X5.09908 Y12.78654
G01 X5.14657 Y12.86284
G01 X5.18488 Y12.94493
G01 X5.19765 Y13.02702
G01 X5.19892 Y13.19185
G01 X5.20769 Y13.25308
G01 X5.22793 Y13.33757
G01 X5.27327 Y13.41150
G01 X5.31871 Y13.47122
G01 X6.06631 Y14.21887
G01 X6.12597 Y14.26428
G01 X6.18879 Y14.30335
G01 X6.19976 Y14.30957
G01 X6.25996 Y14.32496
G01 X6.35864 Y14.33987
G01 X11.46122 Y14.33987
G01 X11.51969 Y14.34635
G01 X11.56297 Y14.39367
G01 X11.64687 Y14.49840
G01 X11.75570 Y14.58610
G01 X11.80544 Y14.61994
G01 X11.86703 Y14.64937
G01 X11.98971 Y14.69652
G01 X12.07653 Y14.71168
G01 X12.18766 Y14.72291
G01 X12.28245 Y14.71389
G01 X12.37932 Y14.69824
G01 X12.45834 Y14.67025
G01 X12.57013 Y14.62037
G01 X12.64567 Y14.56672
G01 X12.70907 Y14.51585
G01 X12.72847 Y14.49878
G01 X12.77663 Y14.44142
G01 X12.85006 Y14.34033
G01 X12.91539 Y14.18829
G01 X12.92642 Y14.15593
G01 X12.93741 Y14.09624
G01 X12.95232 Y13.95791
G01 X12.94638 Y13.88608
G01 X12.92624 Y13.75994
G01 X12.86632 Y13.60886
G01 X12.84983 Y13.57567
G01 X12.81557 Y13.52555
G01 X12.72832 Y13.41725
G01 X12.62375 Y13.33271
G01 X12.57000 Y13.29571
G01 X12.45390 Y13.24381
G01 X12.38545 Y13.21920
G01 X12.24907 Y13.19809
G01 X12.18766 Y13.19365
G01 X12.14755 Y13.19599
G01 X11.98971 Y13.21938
G01 X11.89716 Y13.25364
G01 X11.80508 Y13.29527
G01 X11.71011 Y13.36418
G01 X11.64702 Y13.41760
G01 X11.52035 Y13.56934
G01 X11.46122 Y13.57597
G01 X6.55853 Y13.57597
G01 X6.50603 Y13.57071
G01 X6.46527 Y13.53734
G01 X6.20593 Y13.27800
G01 X6.14502 Y13.18565
G01 X6.11563 Y13.06177
G01 X6.10697 Y12.97341
G01 X6.11939 Y12.93259
G01 X6.26006 Y12.92410
G01 X6.36570 Y12.93891
G01 X6.41970 Y12.95878
G01 X6.52882 Y13.00749
G01 X6.62244 Y13.04221
G01 X6.70944 Y13.05733
G01 X6.85366 Y13.07244
G01 X6.96935 Y13.06132
G01 X7.08454 Y13.04191
G01 X7.20801 Y12.99522
G01 X7.30001 Y12.95309
G01 X7.42902 Y12.85827
G01 X7.48477 Y12.81102
G01 X7.50364 Y12.78953
G01 X7.55782 Y12.72248
G01 X7.62650 Y12.62609
G01 X7.68119 Y12.50472
G01 X7.71596 Y12.41095
G01 X7.73102 Y12.32413
G01 X7.74609 Y12.17991
G01 X7.73499 Y12.06424
G01 X7.71566 Y11.94897
G01 X7.66897 Y11.82558
G01 X7.62683 Y11.73358
G01 X7.57705 Y11.66284
G01 X7.48477 Y11.54882
G01 X7.39620 Y11.47575
G01 X7.29983 Y11.40709
G01 X7.17847 Y11.35238
G01 X7.08469 Y11.31761
G01 X6.99788 Y11.30254
G01 X6.85366 Y11.28751
G01 X6.73798 Y11.29858
G01 X6.62247 Y11.31796
G01 X6.49930 Y11.36454
G01 X6.40712 Y11.40678
G01 X6.26796 Y11.50884
G01 X6.19765 Y11.54549
G01 X6.06123 Y11.58118
G04 P0 ( dwell for no time -- G64 should not smooth over this point )
G00 Z10.00000 ( retract )

G00 X5.96113 Y9.63991 ( rapid move to begin. )
G01 F30.00000
( Mill infeed pass 1/1 )
G01 Z-0.10000
G04 P0 ( dwell for no time -- G64 should not smooth over this point )
G01 F360.00000
G01 X5.96113 Y9.63991
G01 X5.97626 Y9.49569
G01 X5.99133 Y9.40895
G01 X6.02612 Y9.31512
G01 X6.08084 Y9.19376
G01 X6.14949 Y9.09737
G01 X6.22259 Y9.00880
G01 X6.33656 Y8.91647
G01 X6.40692 Y8.86694
G01 X6.49930 Y8.82454
G01 X6.62252 Y8.77796
G01 X6.73796 Y8.75848
G01 X6.85366 Y8.74738
G01 X6.99788 Y8.76252
G01 X7.08464 Y8.77758
G01 X7.17847 Y8.81238
G01 X7.29983 Y8.86709
G01 X7.39620 Y8.93575
G01 X7.48477 Y9.00882
G01 X7.57705 Y9.12284
G01 X7.62683 Y9.19358
G01 X7.66897 Y9.28558
G01 X7.71566 Y9.40897
G01 X7.73499 Y9.52424
G01 X7.74609 Y9.63991
G01 X7.73102 Y9.78413
G01 X7.71596 Y9.87095
G01 X7.68119 Y9.96472
G01 X7.62650 Y10.08609
G01 X7.55782 Y10.18248
G01 X7.48477 Y10.27102
G01 X7.37072 Y10.36333
G01 X7.30001 Y10.41309
G01 X7.20801 Y10.45522
G01 X7.08454 Y10.50191
G01 X6.96935 Y10.52131
G01 X6.85366 Y10.53244
G01 X6.70944 Y10.51733
G01 X6.62244 Y10.50221
G01 X6.52884 Y10.46749
G01 X6.40733 Y10.41270
G01 X6.31109 Y10.34410
G01 X6.22259 Y10.27105
G01 X6.13026 Y10.15698
G01 X6.08051 Y10.08626
G01 X6.03834 Y9.99424
G01 X5.99166 Y9.87082
G01 X5.97228 Y9.75561
G01 X5.96113 Y9.63991
G04 P0 ( dwell for no time -- G64 should not smooth over this point )
G00 Z10.00000 ( retract )

G00 X8.50113 Y12.17991 ( rapid move to begin. )
G01 F30.00000
( Mill infeed pass 1/1 )
G01 Z-0.10000
G04 P0 ( dwell for no time -- G64 should not smooth over this point )
G01 F360.00000
G01 X8.50113 Y12.17991
G01 X8.51228 Y12.29561
G01 X8.53166 Y12.41082
G01 X8.57834 Y12.53424
G01 X8.62051 Y12.62626
G01 X8.67026 Y12.69698
G01 X8.76259 Y12.81105
G01 X8.85109 Y12.88410
G01 X8.94733 Y12.95270
G01 X9.06884 Y13.00749
G01 X9.16244 Y13.04221
G01 X9.24944 Y13.05733
G01 X9.39366 Y13.07244
G01 X9.50935 Y13.06132
G01 X9.62454 Y13.04191
G01 X9.74801 Y12.99522
G01 X9.84001 Y12.95309
G01 X9.91072 Y12.90333
G01 X10.02477 Y12.81102
G01 X10.09782 Y12.72248
G01 X10.16650 Y12.62609
G01 X10.22119 Y12.50472
G01 X10.25596 Y12.41095
G01 X10.27102 Y12.32413
G01 X10.28609 Y12.17991
G01 X10.27499 Y12.06424
G01 X10.25566 Y11.94897
G01 X10.20897 Y11.82558
G01 X10.16683 Y11.73358
G01 X10.11705 Y11.66284
G01 X10.02477 Y11.54882
G01 X9.93620 Y11.47575
G01 X9.83983 Y11.40709
G01 X9.71847 Y11.35238
G01 X9.62469 Y11.31761
G01 X9.53788 Y11.30254
G01 X9.39366 Y11.28751
G01 X9.27798 Y11.29858
G01 X9.16247 Y11.31796
G01 X9.03930 Y11.36454
G01 X8.94692 Y11.40694
G01 X8.87656 Y11.45647
G01 X8.76259 Y11.54880
G01 X8.68949 Y11.63737
G01 X8.62084 Y11.73376
G01 X8.56612 Y11.85512
G01 X8.53133 Y11.94895
G01 X8.51626 Y12.03569
G01 X8.50113 Y12.17991
G04 P0 ( dwell for no time -- G64 should not smooth over this point )
G00 Z10.00000 ( retract )

G00 X8.50113 Y9.63991 ( rapid move to begin. )
G01 F30.00000
( Mill infeed pass 1/1 )
G01 Z-0.10000
G04 P0 ( dwell for no time -- G64 should not smooth over this point )
G01 F360.00000
G01 X8.50113 Y9.63991
G01 X8.51228 Y9.75561
G01 X8.53166 Y9.87082
G01 X8.57834 Y9.99424
G01 X8.62051 Y10.08626
G01 X8.67026 Y10.15698
G01 X8.76259 Y10.27105
G01 X8.85109 Y10.34410
G01 X8.94733 Y10.41270
G01 X9.06884 Y10.46749
G01 X9.16244 Y10.50221
G01 X9.24944 Y10.51733
G01 X9.39366 Y10.53244
G01 X9.50935 Y10.52131
G01 X9.62454 Y10.50191
G01 X9.74801 Y10.45522
G01 X9.84001 Y10.41309
G01 X9.91072 Y10.36333
G01 X10.02477 Y10.27102
G01 X10.09782 Y10.18248
G01 X10.16650 Y10.08609
G01 X10.22119 Y9.96472
G01 X10.25596 Y9.87095
G01 X10.27102 Y9.78413
G01 X10.28609 Y9.63991
G01 X10.27499 Y9.52424
G01 X10.25566 Y9.40897
G01 X10.20897 Y9.28558
G01 X10.16683 Y9.19358
G01 X10.11705 Y9.12284
G01 X10.02477 Y9.00882
G01 X9.93620 Y8.93575
G01 X9.83983 Y8.86709
G01 X9.71847 Y8.81238
G01 X9.62464 Y8.77758
G01 X9.53788 Y8.76252
G01 X9.39366 Y8.74738
G01 X9.27796 Y8.75848
G01 X9.16252 Y8.77796
G01 X9.03930 Y8.82454
G01 X8.94692 Y8.86694
G01 X8.87656 Y8.91647
G01 X8.76259 Y9.00880
G01 X8.68949 Y9.09737
G01 X8.62084 Y9.19376
G01 X8.56612 Y9.31512
G01 X8.53133 Y9.40895
G01 X8.51626 Y9.49569
G01 X8.50113 Y9.63991
G04 P0 ( dwell for no time -- G64 should not smooth over this point )
G00 Z10.00000 ( retract )

G00 X6.35030 Y3.49987 ( rapid move to begin. )
G01 F30.00000
( Mill infeed pass 1/1 )
G01 Z-0.10000
G04 P0 ( dwell for no time -- G64 should not smooth over this point )
G01 F360.00000
G01 X6.35030 Y3.49987
G01 X10.41923 Y3.49966
G01 X10.55439 Y3.49080
G01 X10.73297 Y3.47007
G01 X10.96970 Y3.36735
G01 X11.19962 Y3.36682
G01 X11.29899 Y3.36271
G01 X11.40160 Y3.30586
G01 X11.29899 Y3.36271
G01 X11.53284 Y3.83273
G01 X11.53284 Y3.90243
G01 X11.51989 Y4.03301
G01 X11.50628 Y4.08048
G01 X11.47630 Y4.15641
G01 X11.46937 Y4.18760
G01 X11.46523 Y4.23347
G01 X11.46586 Y4.51924
G01 X11.46226 Y4.54922
G01 X11.44788 Y4.60002
G01 X11.41862 Y4.67771
G01 X11.40653 Y4.73850
G01 X11.40158 Y4.78871
G01 X11.39563 Y5.90837
G01 X11.19962 Y5.91650
G01 X10.93292 Y5.91650
G01 X10.79383 Y5.91241
G01 X10.50346 Y4.89654
G01 X10.47763 Y4.78150
G01 X10.46678 Y4.65259
G01 X10.46833 Y4.56776
G01 X10.47542 Y4.56154
G01 X10.55340 Y4.39019
G01 X10.67422 Y4.15303
G01 X10.70574 Y4.08046
G01 X10.71621 Y4.04523
G01 X10.72533 Y3.99920
G01 X10.73165 Y3.92897
G01 X10.73297 Y3.47007
G01 X10.96970 Y3.36735
G01 X10.93290 Y3.27970
G01 X10.86226 Y3.08813
G01 X10.75362 Y2.76563
G01 X10.68494 Y2.59979
G01 X10.66988 Y2.54541
G01 X10.66414 Y2.46657
G01 X10.65637 Y2.42750
G01 X10.60653 Y2.29997
G01 X10.63412 Y2.23330
G01 X10.70138 Y2.09326
G01 X10.72535 Y1.99906
G01 X10.73165 Y1.92883
G01 X10.73386 Y1.83761
G01 X10.73305 Y1.46990
G01 X10.97773 Y1.36345
G01 X10.93719 Y1.23360
G01 X10.76444 Y0.89756
G01 X10.68550 Y0.73292
G01 X10.66818 Y0.66281
G01 X10.66716 Y0.49977
G01 X10.66287 Y0.45400
G01 X10.64392 Y0.38872
G01 X10.55238 Y0.17302
G01 X10.51131 Y0.10061
G01 X10.44423 Y0.00000
G01 X11.19960 Y0.00000
G01 X11.19962 Y0.09995
G01 X11.20638 Y0.19827
G01 X11.23165 Y0.24130
G01 X11.40043 Y0.36868
G01 X11.39949 Y1.36655
G01 X11.53287 Y1.40274
G01 X11.53264 Y1.93317
G01 X11.52893 Y2.01028
G01 X11.51054 Y2.11138
G01 X11.52929 Y2.21206
G01 X11.53178 Y2.29611
G01 X11.52553 Y2.34597
G01 X11.48712 Y2.51056
G01 X11.47437 Y2.54777
G01 X11.43122 Y2.64069
G01 X11.41006 Y2.71678
G01 X11.40226 Y2.77815
G01 X11.39838 Y2.89557
G01 X11.40160 Y3.30586
G01 X11.86597 Y3.20403
G01 X11.99304 Y3.22483
G01 X12.27008 Y3.25582
G01 X12.40635 Y3.30228
G01 X12.56878 Y3.36547
G01 X12.79906 Y3.34155
G01 X12.86449 Y3.33002
G01 X12.99893 Y3.36654
G01 X13.20173 Y3.36652
G01 X13.32395 Y3.37241
G01 X13.55674 Y3.40957
G01 X13.73624 Y3.45877
G01 X13.99761 Y3.58417
G01 X13.99868 Y3.91470
G01 X14.08013 Y4.09994
G01 X14.14859 Y4.28937
G01 X14.18999 Y4.49544
G01 X14.19385 Y4.53443
G01 X14.19385 Y4.73172
G01 X14.16901 Y4.89979
G01 X13.94785 Y5.89237
G01 X14.16901 Y4.89979
G01 X14.19385 Y4.73172
G01 X14.19385 Y4.53443
G01 X14.18999 Y4.49544
G01 X14.14859 Y4.28937
G01 X14.08013 Y4.09994
G01 X13.99868 Y3.91470
G01 X13.99761 Y3.58417
G01 X14.32961 Y3.40418
G01 X14.33340 Y3.16489
G01 X14.33071 Y2.93759
G01 X14.31950 Y2.79349
G01 X14.27071 Y2.57152
G01 X14.26525 Y2.49974
G01 X14.26525 Y2.32923
G01 X14.30675 Y2.24015
G01 X14.35702 Y2.09309
G01 X14.37495 Y2.03172
G01 X14.39050 Y1.95077
G01 X14.39860 Y1.83340
G01 X14.39860 Y1.52118
G01 X14.39860 Y1.83340
G01 X14.39050 Y1.95077
G01 X14.37495 Y2.03172
G01 X14.35702 Y2.09309
G01 X14.30675 Y2.24015
G01 X14.26525 Y2.32923
G01 X14.26525 Y2.49974
G01 X14.27071 Y2.57152
G01 X14.31950 Y2.79349
G01 X14.33071 Y2.93759
G01 X14.33340 Y3.16489
G01 X14.32961 Y3.40418
G01 X14.66517 Y3.37261
G01 X14.77902 Y3.36748
G01 X14.93162 Y3.37259
G01 X15.06510 Y3.38381
G01 X15.13164 Y3.36654
G01 X15.39334 Y3.36791
G01 X15.53154 Y3.37985
G01 X15.93238 Y3.35308
G01 X16.00667 Y3.36070
G01 X16.25981 Y3.37226
G01 X16.53118 Y3.34762
G01 X16.79776 Y3.27541
G01 X17.13578 Y3.12189
G01 X17.44703 Y2.88851
G01 X17.59763 Y2.76040
G01 X17.79496 Y2.58277
G01 X18.00504 Y2.35638
G01 X18.22907 Y2.33197
G01 X18.81810 Y1.49990
G01 X20.11040 Y1.50058
G01 X20.27075 Y1.49164
G01 X20.39986 Y1.47023
G01 X20.39945 Y0.93292
G01 X20.40451 Y0.83058
G01 X20.43118 Y0.71920
G01 X20.46630 Y0.63536
G01 X20.49711 Y0.57851
G01 X20.44560 Y0.45415
G01 X20.40946 Y0.33437
G01 X20.43626 Y0.25916
G01 X20.46173 Y0.15867
G01 X20.46656 Y0.09995
G01 X20.46653 Y0.00003
G01 X21.06635 Y0.00000
G01 X21.06635 Y0.06530
G01 X21.12315 Y0.18801
G01 X21.17725 Y0.26960
G01 X21.23298 Y0.33409
G01 X21.44667 Y0.54780
G01 X21.50308 Y0.61537
G01 X21.56214 Y0.71412
G01 X21.58843 Y0.77010
G01 X21.67405 Y0.98740
G01 X21.79460 Y1.35344
G01 X21.79559 Y1.36804
G01 X21.54367 Y1.45004
G01 X21.44014 Y1.47681
G01 X21.26625 Y1.51460
G01 X21.26541 Y2.11973
G01 X21.25348 Y2.20160
G01 X21.21035 Y2.33474
G01 X21.23816 Y2.43388
G01 X21.25431 Y2.47284
G01 X21.30151 Y2.56238
G01 X21.39569 Y2.68889
G01 X21.53516 Y2.83449
G01 X21.56818 Y3.15112
G01 X21.09655 Y3.48831
G01 X20.93316 Y3.49987
G01 X20.66643 Y3.49989
G01 X20.59988 Y3.52984
G01 X20.59742 Y3.84119
G01 X20.58665 Y3.94005
G01 X20.53867 Y4.16154
G01 X20.53323 Y4.23332
G01 X20.53323 Y4.49976
G01 X20.53867 Y4.57152
G01 X20.54690 Y4.62008
G01 X20.65002 Y4.68965
G01 X20.71802 Y4.75282
G01 X20.75901 Y4.80532
G01 X20.93316 Y5.06651
G01 X21.04789 Y5.26717
G01 X21.19960 Y5.59935
G01 X21.32465 Y5.91320
G01 X21.39561 Y5.90837
G01 X21.39947 Y4.83301
G01 X21.40651 Y4.73850
G01 X21.41593 Y4.68945
G01 X21.45894 Y4.56049
G01 X21.46584 Y4.50632
G01 X21.46617 Y4.23332
G01 X21.46198 Y4.18775
G01 X21.44329 Y4.12295
G01 X21.35210 Y3.90677
G01 X21.31052 Y3.83324
G01 X21.19960 Y3.66695
G01 X21.09655 Y3.48831
G01 X21.19960 Y3.66695
G01 X21.31052 Y3.83324
G01 X21.35210 Y3.90677
G01 X21.44329 Y4.12295
G01 X21.46198 Y4.18775
G01 X21.46617 Y4.23332
G01 X21.46584 Y4.50632
G01 X21.45894 Y4.56049
G01 X21.41593 Y4.68945
G01 X21.40651 Y4.73850
G01 X21.39947 Y4.83301
G01 X21.39561 Y5.90837
G01 X21.57451 Y5.91553
G01 X21.99406 Y5.91650
G01 X22.23275 Y5.90499
G01 X22.34819 Y5.89239
G01 X22.51453 Y5.14721
G01 X22.55281 Y5.00822
G01 X22.62175 Y4.80286
G01 X22.65766 Y4.62394
G01 X22.66569 Y4.49976
G01 X22.66569 Y4.23332
G01 X22.66147 Y4.14802
G01 X22.60387 Y3.64505
G01 X22.79914 Y3.53776
G01 X22.79914 Y1.52116
G01 X22.93224 Y1.47767
G01 X22.93115 Y0.90076
G01 X22.93236 Y0.76634
G01 X22.93648 Y0.72080
G01 X22.94788 Y0.67602
G01 X22.97933 Y0.60856
G01 X23.00536 Y0.56949
G01 X23.07270 Y0.49378
G01 X22.95652 Y0.21361
G01 X22.89284 Y0.08049
G01 X22.87300 Y0.00000
G01 X24.29980 Y0.00000
G01 X23.73208 Y0.00000
G01 X23.73208 Y0.23350
G01 X23.72063 Y0.35497
G01 X23.82322 Y0.45979
G01 X23.88131 Y0.53718
G01 X23.92027 Y0.61082
G01 X23.98458 Y0.76284
G01 X24.00816 Y0.82809
G01 X24.02106 Y0.87041
G01 X24.05090 Y1.00968
G01 X24.09490 Y1.27043
G01 X24.13132 Y1.45230
G01 X24.13079 Y1.56538
G01 X24.13132 Y1.45230
G01 X24.33114 Y1.10048
G01 X24.64044 Y0.48064
G01 X24.59858 Y0.43236
G01 X24.45156 Y0.28532
G01 X24.40521 Y0.22880
G01 X24.38306 Y0.19573
G01 X24.34247 Y0.11948
G01 X24.29980 Y0.00000
G01 X26.78102 Y0.00000
G01 X26.76251 Y0.07379
G01 X26.71961 Y0.20234
G01 X26.68407 Y0.29357
G01 X26.66512 Y0.32957
G01 X26.66548 Y0.38829
G01 X26.67213 Y0.45298
G01 X26.68156 Y0.49990
G01 X26.67211 Y0.54694
G01 X26.66548 Y0.61156
G01 X26.66614 Y0.79921
G01 X26.68158 Y0.89982
G01 X26.70419 Y0.99337
G01 X26.72202 Y1.09286
G01 X26.73119 Y1.23307
G01 X26.73119 Y2.49989
G01 X26.19807 Y2.49987
G01 X26.19875 Y4.04934
G01 X26.19190 Y4.17012
G01 X26.23640 Y4.24411
G01 X26.26032 Y4.31701
G01 X26.26406 Y4.34647
G01 X26.26525 Y4.49933
G01 X26.25811 Y4.56100
G01 X26.21156 Y4.69989
G01 X26.20010 Y4.78874
G01 X26.19416 Y5.90837
G01 X26.37846 Y5.91553
G01 X26.53180 Y5.91279
G01 X26.79776 Y5.91650
G01 X27.03060 Y5.90504
G01 X27.31282 Y5.86481
G01 X27.55608 Y5.80352
G01 X27.59509 Y5.79168
G01 X28.00190 Y5.63377
G01 X28.34571 Y5.44942
G01 X28.61417 Y5.27367
G01 X28.88262 Y5.06827
G01 X28.92161 Y5.03626
G01 X29.41320 Y4.58396
G01 X29.90482 Y4.03367
G01 X30.47911 Y3.27642
G01 X30.89466 Y3.06860
G01 X31.32981 Y2.82153
G01 X32.02564 Y2.36601
G01 X32.72147 Y1.83358
G01 X33.36933 Y1.27277
G01 X33.97819 Y0.68544
G01 X34.38307 Y0.28054
G01 X34.65512 Y0.00000
G01 X45.72000 Y0.00000
G01 X45.72000 Y27.41993
G01 X0.00000 Y27.41993
G01 X0.00000 Y0.00000
G01 X34.65512 Y0.00000
G01 X34.38307 Y0.28054
G01 X33.97819 Y0.68544
G01 X33.36933 Y1.27277
G01 X32.72147 Y1.83358
G01 X32.02564 Y2.36601
G01 X31.32981 Y2.82153
G01 X30.89466 Y3.06860
G01 X30.47911 Y3.27642
G01 X29.95440 Y3.18501
G01 X29.60040 Y3.12908
G01 X28.46217 Y2.96570
G01 X27.20922 Y2.60297
G01 X26.73119 Y2.49989
G01 X26.19807 Y2.49987
G01 X26.13137 Y2.49100
G01 X26.08997 Y2.49283
G01 X25.86482 Y2.44234
G01 X25.59812 Y2.39418
G01 X25.33155 Y2.35679
G01 X24.93411 Y2.36977
G01 X24.13079 Y1.56538
G01 X23.84567 Y1.55037
G01 X23.43089 Y1.50475
G01 X23.10013 Y1.49581
G01 X22.93224 Y1.47767
G01 X22.79914 Y1.52116
G01 X22.63150 Y1.50477
G01 X22.30074 Y1.49581
G01 X21.93262 Y1.45545
G01 X21.79559 Y1.36804
G01 X21.54367 Y1.45004
G01 X21.44014 Y1.47681
G01 X21.26625 Y1.51460
G01 X21.16516 Y1.50381
G01 X21.06625 Y1.49893
G01 X20.79981 Y1.49893
G01 X20.70095 Y1.50381
G01 X20.59976 Y1.51460
G01 X20.39986 Y1.47023
G01 X20.27075 Y1.49164
G01 X20.11040 Y1.50058
G01 X18.81810 Y1.49990
G01 X18.22907 Y2.33197
G01 X18.00504 Y2.35638
G01 X17.79496 Y2.58277
G01 X17.59763 Y2.76040
G01 X17.44703 Y2.88851
G01 X17.13578 Y3.12189
G01 X16.79776 Y3.27541
G01 X16.53118 Y3.34762
G01 X16.25981 Y3.37226
G01 X16.00667 Y3.36070
G01 X15.93238 Y3.35308
G01 X15.93050 Y2.89593
G01 X15.93273 Y2.80411
G01 X15.93908 Y2.73385
G01 X15.95834 Y2.65354
G01 X15.99118 Y2.56073
G01 X16.00525 Y2.43904
G01 X16.03197 Y2.36741
G01 X16.00812 Y2.30546
G01 X15.99900 Y2.25323
G01 X15.99804 Y1.41221
G01 X15.83065 Y1.36370
G01 X15.93136 Y0.96251
G01 X15.93345 Y0.78872
G01 X15.93840 Y0.73851
G01 X15.95049 Y0.67775
G01 X15.98059 Y0.60058
G01 X16.02897 Y0.50328
G01 X16.06377 Y0.44574
G01 X16.06377 Y0.23332
G01 X16.06857 Y0.17447
G01 X16.07904 Y0.12301
G01 X16.10817 Y0.03637
G01 X16.11612 Y0.00000
G01 X16.64807 Y0.00000
G01 X16.63106 Y0.06662
G01 X16.58628 Y0.20234
G01 X16.53118 Y0.34374
G01 X16.53118 Y0.40386
G01 X16.56857 Y0.48049
G01 X16.59039 Y0.54138
G01 X16.64086 Y0.70134
G01 X16.65351 Y0.75860
G01 X16.66367 Y0.86383
G01 X16.66453 Y1.03304
G01 X16.74449 Y1.43236
G01 X16.93113 Y1.51851
G01 X17.19758 Y1.66413
G01 X17.39758 Y1.78938
G01 X17.39892 Y0.80424
G01 X17.40530 Y0.73391
G01 X17.41444 Y0.68791
G01 X17.45737 Y0.56081
G01 X17.47114 Y0.43873
G01 X17.49712 Y0.36733
G01 X17.43654 Y0.24369
G01 X17.39179 Y0.17003
G01 X17.39674 Y0.11946
G01 X17.39758 Y0.00000
G01 X17.39674 Y0.11946
G01 X17.39179 Y0.17003
G01 X17.43654 Y0.24369
G01 X17.49712 Y0.36733
G01 X18.09849 Y0.36848
G01 X18.47591 Y0.36185
G01 X18.87733 Y0.36497
G01 X18.86877 Y0.22019
G01 X18.86521 Y0.00000
G01 X18.86877 Y0.22019
G01 X18.87733 Y0.36497
G01 X18.88856 Y0.43322
G01 X18.87047 Y0.61999
G01 X18.81810 Y1.49990
G01 X18.22907 Y2.33197
G01 X18.00504 Y2.35638
G01 X17.61327 Y1.98707
G01 X17.39758 Y1.78938
G01 X17.19758 Y1.66413
G01 X16.93113 Y1.51851
G01 X16.75186 Y1.43563
G01 X16.73276 Y1.43220
G01 X16.24510 Y1.43236
G01 X16.10446 Y1.42456
G01 X15.99804 Y1.41221
G01 X15.83065 Y1.36370
G01 X15.73149 Y1.37262
G01 X15.59824 Y1.39080
G01 X15.50485 Y1.37681
G01 X15.13164 Y1.49990
G01 X14.66517 Y1.49990
G01 X14.56652 Y1.50475
G01 X14.39860 Y1.52118
G01 X14.13205 Y1.43264
G01 X13.97414 Y1.37008
G01 X13.81971 Y1.28930
G01 X13.66543 Y1.36660
G01 X13.38687 Y1.41976
G01 X13.21831 Y1.43226
G01 X13.06571 Y1.42657
G01 X12.86571 Y1.40663
G01 X12.76520 Y1.36695
G01 X12.39926 Y1.36624
G01 X12.13251 Y1.38384
G01 X11.99736 Y1.34831
G01 X11.76020 Y1.36944
G01 X11.66320 Y1.38107
G01 X11.53287 Y1.40274
G01 X11.39949 Y1.36655
G01 X10.97773 Y1.36345
G01 X10.73305 Y1.46990
G01 X10.39746 Y1.50757
G01 X10.26655 Y1.52989
G01 X10.21903 Y1.52029
G01 X10.01944 Y1.50000
G01 X4.33220 Y1.49990
G01 X3.69989 Y0.89980
G01 X2.90002 Y0.09995
G01 X2.80525 Y0.00000
G01 X2.90002 Y0.09995
G01 X3.69989 Y0.89980
G01 X4.33220 Y1.49990
G01 X4.90004 Y2.09995
G01 X5.69989 Y2.89979
G01 X6.35030 Y3.49987
G01 X6.90001 Y4.09994
G01 X7.69986 Y4.89979
G01 X8.09374 Y5.25841
G01 X8.44230 Y5.52242
G01 X8.79086 Y5.73093
G01 X9.16749 Y5.89895
G01 X9.52317 Y5.99951
G01 X9.77133 Y6.03849
G01 X10.01944 Y6.04888
G01 X10.35103 Y6.02285
G01 X10.67742 Y5.94911
G01 X10.79383 Y5.91241
G01 X10.93292 Y5.91650
G01 X11.19962 Y5.91650
G01 X11.39563 Y5.90837
G01 X11.61890 Y5.91553
G01 X11.86597 Y5.90266
G01 X12.11306 Y5.91553
G01 X12.33642 Y5.90837
G01 X12.53259 Y5.91650
G01 X12.79906 Y5.91650
G01 X12.99507 Y5.90837
G01 X13.17935 Y5.91553
G01 X13.33284 Y5.91279
G01 X13.59888 Y5.91650
G01 X13.83175 Y5.90504
G01 X13.94785 Y5.89237
G01 X14.12154 Y5.94926
G01 X14.33766 Y6.00370
G01 X14.55379 Y6.03595
G01 X14.59278 Y6.03976
G01 X15.00574 Y6.03964
G01 X15.06202 Y6.03400
G01 X15.35118 Y6.04888
G01 X15.68275 Y6.02285
G01 X16.00914 Y5.94911
G01 X16.12323 Y5.91320
G01 X16.19809 Y5.90807
G01 X16.39799 Y5.91650
G01 X16.66377 Y5.91279
G01 X16.81724 Y5.91553
G01 X17.06890 Y5.90217
G01 X17.33090 Y5.91650
G01 X17.59763 Y5.91650
G01 X17.79750 Y5.90807
G01 X18.01216 Y5.91645
G01 X18.16501 Y5.91551
G01 X18.39331 Y5.90309
G01 X18.62160 Y5.86864
G01 X18.91886 Y5.79552
G01 X19.28345 Y5.93730
G01 X19.53847 Y6.00357
G01 X19.75447 Y6.03585
G01 X20.00357 Y6.04985
G01 X20.55619 Y6.04888
G01 X20.86458 Y6.02574
G01 X21.21055 Y5.94911
G01 X21.32465 Y5.91320
G01 X21.39561 Y5.90837
G01 X21.57451 Y5.91553
G01 X21.99406 Y5.91650
G01 X22.23275 Y5.90499
G01 X22.34819 Y5.89239
G01 X22.38593 Y5.90596
G01 X22.72203 Y5.99951
G01 X22.76104 Y6.00728
G01 X22.97019 Y6.03849
G01 X23.17930 Y6.04888
G01 X23.21832 Y6.04888
G01 X23.54989 Y6.02285
G01 X23.87628 Y5.94911
G01 X23.99271 Y5.91241
G01 X24.13201 Y5.91650
G01 X24.39845 Y5.91650
G01 X24.59462 Y5.90837
G01 X24.81798 Y5.91553
G01 X25.06508 Y5.90266
G01 X25.31214 Y5.91553
G01 X25.53541 Y5.90837
G01 X25.73147 Y5.91650
G01 X25.99817 Y5.91650
G01 X26.19416 Y5.90837
G01 X25.99817 Y5.91650
G01 X25.73147 Y5.91650
G01 X25.53541 Y5.90837
G01 X25.52944 Y4.78871
G01 X25.51796 Y4.69986
G01 X25.47122 Y4.56108
G01 X25.46391 Y4.49976
G01 X25.46424 Y4.22656
G01 X25.46807 Y4.18760
G01 X25.48303 Y4.13301
G01 X25.56474 Y3.93327
G01 X25.62677 Y3.74602
G01 X25.73144 Y3.45420
G01 X25.86495 Y3.12765
G01 X25.99817 Y2.76631
G01 X26.08997 Y2.49283
G01 X26.13137 Y2.49100
G01 X26.13137 Y0.76634
G01 X26.13546 Y0.72095
G01 X26.14501 Y0.68100
G01 X26.15954 Y0.64435
G01 X26.19774 Y0.57803
G01 X26.19710 Y0.28865
G01 X26.15903 Y0.22289
G01 X26.10457 Y0.11189
G01 X26.08069 Y0.04356
G01 X26.07150 Y0.00000
G01 X25.39058 Y0.00000
G01 X25.38247 Y0.04343
G01 X25.35921 Y0.11212
G01 X25.28242 Y0.26101
G01 X25.22967 Y0.33170
G01 X25.30876 Y0.52266
G01 X25.32441 Y0.57231
G01 X25.33068 Y0.61318
G01 X25.33155 Y2.35679
G01 X24.93411 Y2.36977
G01 X24.69774 Y2.65709
G01 X24.38954 Y3.11351
G01 X24.25543 Y3.19982
G01 X23.93198 Y3.36984
G01 X24.25543 Y3.19982
G01 X24.38954 Y3.11351
G01 X24.52916 Y3.42575
G01 X24.73173 Y3.83281
G01 X24.72985 Y3.94421
G01 X24.71880 Y4.03299
G01 X24.70523 Y4.08046
G01 X24.67529 Y4.15643
G01 X24.66454 Y4.22656
G01 X24.66411 Y4.52966
G01 X24.64686 Y4.60009
G01 X24.62571 Y4.65295
G01 X24.61207 Y4.69991
G01 X24.60056 Y4.78879
G01 X24.59462 Y5.90837
G01 X24.39845 Y5.91650
G01 X24.13201 Y5.91650
G01 X23.99271 Y5.91241
G01 X23.70244 Y4.89661
G01 X23.67661 Y4.78155
G01 X23.66576 Y4.65262
G01 X23.66731 Y4.56786
G01 X23.67415 Y4.56187
G01 X23.75225 Y4.39016
G01 X23.88156 Y4.13512
G01 X23.90463 Y4.08048
G01 X23.92426 Y3.99918
G01 X23.93064 Y3.92887
G01 X23.93285 Y3.83695
G01 X23.93198 Y3.36984
G01 X23.67656 Y3.45049
G01 X23.46965 Y3.49166
G01 X23.33219 Y3.50012
G01 X23.20056 Y3.49989
G01 X23.10016 Y3.50474
G01 X22.79914 Y3.53776
G01 X22.60387 Y3.64505
G01 X22.38284 Y3.56202
G01 X22.26589 Y3.52953
G01 X22.11316 Y3.49593
G01 X21.85101 Y3.30838
G01 X21.73795 Y3.23751
G01 X21.56818 Y3.15112
G01 X21.53516 Y2.83449
G01 X21.62396 Y2.73992
G01 X21.73341 Y2.60774
G01 X21.75947 Y2.56873
G01 X21.81134 Y2.47284
G01 X21.85144 Y2.35694
G01 X21.86048 Y2.30518
G01 X21.87097 Y2.16146
G01 X21.87971 Y2.10932
G01 X21.91842 Y1.94666
G01 X21.93140 Y1.79550
G01 X21.93262 Y1.45545
G01 X21.79559 Y1.36804
G01 X21.79460 Y1.35344
G01 X21.96544 Y1.03535
G01 X22.08500 Y0.79632
G01 X22.11360 Y0.73287
G01 X22.12848 Y0.67869
G01 X22.13234 Y0.62657
G01 X22.12543 Y0.57239
G01 X22.10973 Y0.52261
G01 X21.97598 Y0.19558
G01 X21.94524 Y0.07308
G01 X21.93808 Y0.00000
G01 X22.87300 Y0.00000
G01 X21.93808 Y0.00000
G01 X21.94524 Y0.07308
G01 X21.97598 Y0.19558
G01 X22.10973 Y0.52261
G01 X22.12543 Y0.57239
G01 X22.13234 Y0.62657
G01 X22.12848 Y0.67869
G01 X22.11360 Y0.73287
G01 X22.08500 Y0.79632
G01 X21.96544 Y1.03535
G01 X21.79460 Y1.35344
G01 X21.79559 Y1.36804
G01 X21.54367 Y1.45004
G01 X21.44014 Y1.47681
G01 X21.26625 Y1.51460
G01 X21.16516 Y1.50381
G01 X21.06625 Y1.49893
G01 X20.79981 Y1.49893
G01 X20.70095 Y1.50381
G01 X20.59976 Y1.51460
G01 X20.39986 Y1.47023
G01 X20.59976 Y1.51460
G01 X20.59920 Y1.92270
G01 X20.60788 Y2.00853
G01 X20.61578 Y2.04353
G01 X20.63966 Y2.11191
G01 X20.69412 Y2.22301
G01 X20.73224 Y2.28884
G01 X20.73280 Y2.57792
G01 X20.68706 Y2.66129
G01 X20.67248 Y2.70955
G01 X20.66676 Y2.75989
G01 X20.66643 Y3.49989
G01 X20.59988 Y3.52984
G01 X20.36536 Y3.50474
G01 X20.16798 Y3.50474
G01 X19.67037 Y3.55768
G01 X19.19790 Y3.61963
G01 X19.19928 Y4.19184
G01 X19.13793 Y4.36387
G01 X18.87596 Y4.36184
G01 X18.49854 Y4.36847
G01 X17.89692 Y4.36733
G01 X17.87093 Y4.43873
G01 X17.85719 Y4.56075
G01 X17.81429 Y4.68785
G01 X17.80517 Y4.73387
G01 X17.79885 Y4.80411
G01 X17.79750 Y5.90807
G01 X17.79885 Y4.80411
G01 X17.80517 Y4.73387
G01 X17.81429 Y4.68785
G01 X17.85719 Y4.56075
G01 X17.87093 Y4.43873
G01 X17.89692 Y4.36733
G01 X17.83631 Y4.24343
G01 X17.79171 Y4.16992
G01 X17.79821 Y4.04934
G01 X17.79273 Y3.02115
G01 X17.79496 Y2.58277
G01 X18.00504 Y2.35638
G01 X17.99100 Y2.36952
G01 X17.00982 Y2.36184
G01 X16.63240 Y2.36847
G01 X16.03197 Y2.36741
G01 X16.00525 Y2.43904
G01 X15.99118 Y2.56073
G01 X15.95834 Y2.65354
G01 X15.93908 Y2.73385
G01 X15.93273 Y2.80411
G01 X15.93050 Y2.89593
G01 X15.93238 Y3.35308
G01 X16.00667 Y3.36070
G01 X16.25981 Y3.37226
G01 X16.26461 Y3.69428
G01 X16.26438 Y4.51922
G01 X16.25161 Y4.58569
G01 X16.22522 Y4.65287
G01 X16.21158 Y4.69989
G01 X16.20012 Y4.78874
G01 X16.19809 Y5.90807
G01 X16.12323 Y5.91320
G01 X15.99819 Y5.59935
G01 X15.88470 Y5.34091
G01 X15.78564 Y5.15358
G01 X15.59982 Y4.86529
G01 X15.55674 Y4.77330
G01 X15.54493 Y4.73428
G01 X15.53477 Y4.68257
G01 X15.53253 Y4.61361
G01 X15.53766 Y4.56408
G01 X15.55382 Y4.50258
G01 X15.48033 Y4.32305
G01 X15.47104 Y4.29024
G01 X15.46522 Y4.23992
G01 X15.47211 Y4.17264
G01 X15.51513 Y4.04355
G01 X15.52636 Y3.98475
G01 X15.53243 Y3.83715
G01 X15.53154 Y3.37985
G01 X15.39334 Y3.36791
G01 X15.13164 Y3.36654
G01 X15.13373 Y2.78879
G01 X15.14523 Y2.69992
G01 X15.19182 Y2.56106
G01 X15.19903 Y2.49974
G01 X15.19857 Y2.23330
G01 X15.19431 Y2.18770
G01 X15.14813 Y2.04361
G01 X15.13373 Y1.94429
G01 X15.13164 Y1.49990
G01 X15.50485 Y1.37681
G01 X15.46479 Y1.27879
G01 X15.36009 Y0.98707
G01 X15.28920 Y0.77386
G01 X15.27015 Y0.70241
G01 X15.26510 Y0.65260
G01 X15.26746 Y0.58351
G01 X15.28656 Y0.50274
G01 X15.21356 Y0.32304
G01 X15.20436 Y0.29022
G01 X15.19834 Y0.23343
G01 X15.19751 Y0.00000
G01 X13.04920 Y0.00000
G01 X13.04315 Y0.03147
G01 X13.01415 Y0.12349
G01 X13.00376 Y0.17460
G01 X12.99893 Y0.23332
G01 X12.99893 Y0.44651
G01 X12.96594 Y0.49977
G01 X12.91849 Y0.59327
G01 X12.88484 Y0.67775
G01 X12.87272 Y0.73861
G01 X12.86777 Y0.78880
G01 X12.86571 Y0.96203
G01 X12.76520 Y1.36695
G01 X12.86571 Y1.40663
G01 X12.86571 Y2.29987
G01 X12.82349 Y2.34208
G01 X12.80673 Y2.41084
G01 X12.80013 Y2.48023
G01 X12.80671 Y2.58572
G01 X12.85682 Y2.81755
G01 X12.86449 Y2.93746
G01 X12.86695 Y3.09420
G01 X12.86449 Y3.33002
G01 X12.99893 Y3.36654
G01 X12.99962 Y4.04934
G01 X12.99276 Y4.17010
G01 X13.01656 Y4.20533
G01 X13.04681 Y4.26651
G01 X13.05872 Y4.30548
G01 X13.06505 Y4.34647
G01 X13.06629 Y4.49933
G01 X13.06220 Y4.54546
G01 X13.04734 Y4.60002
G01 X13.02616 Y4.65287
G01 X13.01252 Y4.69986
G01 X13.00597 Y4.73850
G01 X12.99893 Y4.83301
G01 X12.99507 Y5.90837
G01 X12.79906 Y5.91650
G01 X12.53259 Y5.91650
G01 X12.33642 Y5.90837
G01 X12.33256 Y4.83314
G01 X12.32553 Y4.73857
G01 X12.31897 Y4.69991
G01 X12.30521 Y4.65259
G01 X12.28407 Y4.60017
G01 X12.26911 Y4.54551
G01 X12.26492 Y4.49976
G01 X12.26528 Y4.22653
G01 X12.27224 Y4.17192
G01 X12.28407 Y4.13291
G01 X12.36579 Y3.93316
G01 X12.46998 Y3.62486
G01 X12.56878 Y3.36547
G01 X12.40635 Y3.30228
G01 X12.27008 Y3.25582
G01 X12.26424 Y2.94048
G01 X12.26556 Y2.57647
G01 X12.27562 Y2.48321
G01 X12.29291 Y2.41874
G01 X12.27102 Y2.32659
G01 X12.21776 Y2.26157
G01 X12.18410 Y2.20386
G01 X12.15499 Y2.12860
G01 X12.14084 Y2.06847
G01 X12.13178 Y1.96812
G01 X12.13251 Y1.38384
G01 X11.99736 Y1.34831
G01 X12.00071 Y1.06520
G01 X11.99972 Y0.32944
G01 X12.04105 Y0.24031
G01 X12.05281 Y0.20124
G01 X12.06508 Y0.11968
G01 X12.06599 Y0.00003
G01 X13.93279 Y0.00003
G01 X13.93104 Y0.11946
G01 X13.92001 Y0.26815
G01 X13.90233 Y0.36655
G01 X13.92715 Y0.53444
G01 X13.92715 Y0.73172
G01 X13.90231 Y0.89982
G01 X13.82263 Y1.25692
G01 X13.81971 Y1.28930
G01 X13.66543 Y1.36660
G01 X13.66543 Y1.90243
G01 X13.67025 Y1.98458
G01 X13.68123 Y2.04351
G01 X13.69385 Y2.08575
G01 X13.79400 Y2.29169
G01 X13.78356 Y2.34315
G01 X13.75608 Y2.41704
G01 X13.73210 Y2.43667
G01 X13.73624 Y3.45877
G01 X13.99761 Y3.58417
G01 X14.32961 Y3.40418
G01 X14.49555 Y3.38714
G01 X14.66517 Y3.37261
G01 X14.77902 Y3.36748
G01 X14.93162 Y3.37259
G01 X15.06510 Y3.38381
G01 X15.13164 Y3.36654
G01 X15.39334 Y3.36791
G01 X15.53154 Y3.37985
G01 X15.93238 Y3.35308
G01 X16.00667 Y3.36070
G01 X16.25981 Y3.37226
G01 X16.41747 Y3.35956
G01 X16.53118 Y3.34762
G01 X16.79776 Y3.27541
G01 X17.13578 Y3.12189
G01 X17.12892 Y3.94437
G01 X17.11457 Y4.04355
G01 X17.07154 Y4.17258
G01 X17.06435 Y4.23332
G01 X17.06433 Y5.47774
G01 X17.06890 Y5.90217
G01 X17.33090 Y5.91650
G01 X17.59763 Y5.91650
G01 X17.79750 Y5.90807
G01 X18.01216 Y5.91645
G01 X18.16501 Y5.91551
G01 X18.39331 Y5.90309
G01 X18.66062 Y5.86090
G01 X18.91886 Y5.79552
G01 X19.08752 Y4.61267
G01 X19.13793 Y4.36387
G01 X19.19928 Y4.19184
G01 X19.19790 Y3.61963
G01 X18.58952 Y2.76647
G01 X18.42008 Y2.54864
G01 X18.22907 Y2.33197
G04 P0 ( dwell for no time -- G64 should not smooth over this point )
G00 Z10.00000 ( retract )

G00 X16.90596 Y0.46660 ( rapid move to begin. )
G01 F30.00000
( Mill infeed pass 1/1 )
G01 Z-0.10000
G04 P0 ( dwell for no time -- G64 should not smooth over this point )
G01 F360.00000
G01 X16.90596 Y0.46660
G01 X17.22272 Y0.46660
G01 X17.15618 Y0.53315
G01 X16.97251 Y0.53315
G01 X16.90596 Y0.46660
G04 P0 ( dwell for no time -- G64 should not smooth over this point )
G00 Z10.00000 ( retract )

G00 X15.47289 Y0.23330 ( rapid move to begin. )
G01 F30.00000
( Mill infeed pass 1/1 )
G01 Z-0.10000
G04 P0 ( dwell for no time -- G64 should not smooth over this point )
G01 F360.00000
G01 X15.47289 Y0.23330
G01 X15.50624 Y0.26670
G01 X15.76489 Y0.26670
G01 X15.76489 Y0.19990
G01 X15.50624 Y0.19990
G01 X15.47289 Y0.23330
G04 P0 ( dwell for no time -- G64 should not smooth over this point )
G00 Z10.00000 ( retract )

G00 X14.63180 Y0.19990 ( rapid move to begin. )
G01 F30.00000
( Mill infeed pass 1/1 )
G01 Z-0.10000
G04 P0 ( dwell for no time -- G64 should not smooth over this point )
G01 F360.00000
G01 X14.63180 Y0.19990
G01 X14.89024 Y0.19990
G01 X14.96504 Y0.27470
G01 X14.96504 Y0.72507
G01 X14.89024 Y0.79985
G01 X14.63180 Y0.79985
G01 X14.63180 Y0.19990
G04 P0 ( dwell for no time -- G64 should not smooth over this point )
G00 Z10.00000 ( retract )

G00 X10.09993 Y0.46660 ( rapid move to begin. )
G01 F30.00000
( Mill infeed pass 1/1 )
G01 Z-0.10000
G04 P0 ( dwell for no time -- G64 should not smooth over this point )
G01 F360.00000
G01 X10.09993 Y0.46660
G01 X10.35842 Y0.46660
G01 X10.43318 Y0.54125
G01 X10.43318 Y0.72507
G01 X10.35837 Y0.79985
G01 X10.09993 Y0.79985
G01 X10.09993 Y0.46660
G04 P0 ( dwell for no time -- G64 should not smooth over this point )
G00 Z10.00000 ( retract )

G00 X10.90795 Y2.46659 ( rapid move to begin. )
G01 F30.00000
( Mill infeed pass 1/1 )
G01 Z-0.10000
G04 P0 ( dwell for no time -- G64 should not smooth over this point )
G01 F360.00000
G01 X10.90795 Y2.46659
G01 X11.22477 Y2.46659
G01 X11.15822 Y2.53314
G01 X10.97437 Y2.53314
G01 X10.90795 Y2.46659
G04 P0 ( dwell for no time -- G64 should not smooth over this point )
G00 Z10.00000 ( retract )

G00 X10.09993 Y2.46659 ( rapid move to begin. )
G01 F30.00000
( Mill infeed pass 1/1 )
G01 Z-0.10000
G04 P0 ( dwell for no time -- G64 should not smooth over this point )
G01 F360.00000
G01 X10.09993 Y2.46659
G01 X10.35842 Y2.46659
G01 X10.43318 Y2.54122
G01 X10.43318 Y2.72506
G01 X10.35837 Y2.79984
G01 X10.09993 Y2.79984
G01 X10.09993 Y2.46659
G04 P0 ( dwell for no time -- G64 should not smooth over this point )
G00 Z10.00000 ( retract )

G00 X10.94110 Y4.23324 ( rapid move to begin. )
G01 F30.00000
( Mill infeed pass 1/1 )
G01 Z-0.10000
G04 P0 ( dwell for no time -- G64 should not smooth over this point )
G01 F360.00000
G01 X10.94110 Y4.23324
G01 X10.97437 Y4.19989
G01 X11.23302 Y4.19989
G01 X11.23302 Y4.26644
G01 X10.97430 Y4.26644
G01 X10.94110 Y4.23324
G04 P0 ( dwell for no time -- G64 should not smooth over this point )
G00 Z10.00000 ( retract )

G00 X12.50719 Y4.46634 ( rapid move to begin. )
G01 F30.00000
( Mill infeed pass 1/1 )
G01 Z-0.10000
G04 P0 ( dwell for no time -- G64 should not smooth over this point )
G01 F360.00000
G01 X12.50719 Y4.46634
G01 X12.82446 Y4.46634
G01 X12.75766 Y4.53314
G01 X12.57399 Y4.53314
G01 X12.50719 Y4.46634
G04 P0 ( dwell for no time -- G64 should not smooth over this point )
G00 Z10.00000 ( retract )

G00 X14.63180 Y2.27470 ( rapid move to begin. )
G01 F30.00000
( Mill infeed pass 1/1 )
G01 Z-0.10000
G04 P0 ( dwell for no time -- G64 should not smooth over this point )
G01 F360.00000
G01 X14.63180 Y2.27470
G01 X14.63180 Y2.45836
G01 X14.70657 Y2.53314
G01 X14.89024 Y2.53314
G01 X14.96504 Y2.45836
G01 X14.96504 Y2.27470
G01 X14.89024 Y2.19989
G01 X14.70657 Y2.19989
G01 X14.63180 Y2.27470
G04 P0 ( dwell for no time -- G64 should not smooth over this point )
G00 Z10.00000 ( retract )

G00 X15.73954 Y4.23324 ( rapid move to begin. )
G01 F30.00000
( Mill infeed pass 1/1 )
G01 Z-0.10000
G04 P0 ( dwell for no time -- G64 should not smooth over this point )
G01 F360.00000
G01 X15.73954 Y4.23324
G01 X15.77282 Y4.26644
G01 X16.03134 Y4.26644
G01 X16.03134 Y4.19989
G01 X15.77287 Y4.19989
G01 X15.73954 Y4.23324
G04 P0 ( dwell for no time -- G64 should not smooth over this point )
G00 Z10.00000 ( retract )

G00 X17.30550 Y4.46634 ( rapid move to begin. )
G01 F30.00000
( Mill infeed pass 1/1 )
G01 Z-0.10000
G04 P0 ( dwell for no time -- G64 should not smooth over this point )
G01 F360.00000
G01 X17.30550 Y4.46634
G01 X17.37230 Y4.53314
G01 X17.55615 Y4.53314
G01 X17.62282 Y4.46634
G01 X17.30550 Y4.46634
G04 P0 ( dwell for no time -- G64 should not smooth over this point )
G00 Z10.00000 ( retract )

G00 X20.09991 Y2.27470 ( rapid move to begin. )
G01 F30.00000
( Mill infeed pass 1/1 )
G01 Z-0.10000
G04 P0 ( dwell for no time -- G64 should not smooth over this point )
G01 F360.00000
G01 X20.09991 Y2.27470
G01 X20.09991 Y2.72506
G01 X20.17469 Y2.79984
G01 X20.35835 Y2.79984
G01 X20.43316 Y2.72506
G01 X20.43316 Y2.27470
G01 X20.35835 Y2.19989
G01 X20.17469 Y2.19989
G01 X20.09991 Y2.27470
G04 P0 ( dwell for no time -- G64 should not smooth over this point )
G00 Z10.00000 ( retract )

G00 X22.36584 Y0.27470 ( rapid move to begin. )
G01 F30.00000
( Mill infeed pass 1/1 )
G01 Z-0.10000
G04 P0 ( dwell for no time -- G64 should not smooth over this point )
G01 F360.00000
G01 X22.36584 Y0.27470
G01 X22.36584 Y0.72507
G01 X22.44062 Y0.79985
G01 X22.62429 Y0.79985
G01 X22.69909 Y0.72507
G01 X22.69909 Y0.27470
G01 X22.62429 Y0.19990
G01 X22.44062 Y0.19990
G01 X22.36584 Y0.27470
G04 P0 ( dwell for no time -- G64 should not smooth over this point )
G00 Z10.00000 ( retract )

G00 X23.03234 Y2.27470 ( rapid move to begin. )
G01 F30.00000
( Mill infeed pass 1/1 )
G01 Z-0.10000
G04 P0 ( dwell for no time -- G64 should not smooth over this point )
G01 F360.00000
G01 X23.03234 Y2.27470
G01 X23.10712 Y2.19989
G01 X23.29078 Y2.19989
G01 X23.36559 Y2.27470
G01 X23.36559 Y2.72506
G01 X23.29078 Y2.79984
G01 X23.10712 Y2.79984
G01 X23.03234 Y2.72506
G01 X23.03234 Y2.27470
G04 P0 ( dwell for no time -- G64 should not smooth over this point )
G00 Z10.00000 ( retract )

G00 X22.23249 Y2.27470 ( rapid move to begin. )
G01 F30.00000
( Mill infeed pass 1/1 )
G01 Z-0.10000
G04 P0 ( dwell for no time -- G64 should not smooth over this point )
G01 F360.00000
G01 X22.23249 Y2.27470
G01 X22.30727 Y2.19989
G01 X22.49112 Y2.19989
G01 X22.56574 Y2.27465
G01 X22.56574 Y2.72512
G01 X22.49112 Y2.79984
G01 X22.30727 Y2.79984
G01 X22.23249 Y2.72506
G01 X22.23249 Y2.27470
G04 P0 ( dwell for no time -- G64 should not smooth over this point )
G00 Z10.00000 ( retract )

G00 X20.89975 Y4.27469 ( rapid move to begin. )
G01 F30.00000
( Mill infeed pass 1/1 )
G01 Z-0.10000
G04 P0 ( dwell for no time -- G64 should not smooth over this point )
G01 F360.00000
G01 X20.89975 Y4.27469
G01 X20.97453 Y4.19989
G01 X21.15820 Y4.19989
G01 X21.23300 Y4.27469
G01 X21.23300 Y4.45836
G01 X21.15820 Y4.53314
G01 X20.97453 Y4.53314
G01 X20.89975 Y4.45836
G01 X20.89975 Y4.27469
G04 P0 ( dwell for no time -- G64 should not smooth over this point )
G00 Z10.00000 ( retract )

G00 X21.69935 Y4.19989 ( rapid move to begin. )
G01 F30.00000
( Mill infeed pass 1/1 )
G01 Z-0.10000
G04 P0 ( dwell for no time -- G64 should not smooth over this point )
G01 F360.00000
G01 X21.69935 Y4.19989
G01 X21.95797 Y4.19989
G01 X22.03259 Y4.27464
G01 X22.03259 Y4.45841
G01 X21.95797 Y4.53314
G01 X21.69935 Y4.53314
G01 X21.69935 Y4.19989
G04 P0 ( dwell for no time -- G64 should not smooth over this point )
G00 Z10.00000 ( retract )

G00 X24.14008 Y4.23324 ( rapid move to begin. )
G01 F30.00000
( Mill infeed pass 1/1 )
G01 Z-0.10000
G04 P0 ( dwell for no time -- G64 should not smooth over this point )
G01 F360.00000
G01 X24.14008 Y4.23324
G01 X24.17336 Y4.26644
G01 X24.43188 Y4.26644
G01 X24.43188 Y4.19989
G01 X24.17341 Y4.19989
G01 X24.14008 Y4.23324
G04 P0 ( dwell for no time -- G64 should not smooth over this point )
G00 Z10.00000 ( retract )

G00 X25.70604 Y4.46634 ( rapid move to begin. )
G01 F30.00000
( Mill infeed pass 1/1 )
G01 Z-0.10000
G04 P0 ( dwell for no time -- G64 should not smooth over this point )
G01 F360.00000
G01 X25.70604 Y4.46634
G01 X25.77285 Y4.53314
G01 X25.95669 Y4.53314
G01 X26.02337 Y4.46634
G01 X25.70604 Y4.46634
G04 P0 ( dwell for no time -- G64 should not smooth over this point )
G00 Z10.00000 ( retract )

G00 X25.56495 Y0.27465 ( rapid move to begin. )
G01 F30.00000
( Mill infeed pass 1/1 )
G01 Z-0.10000
G04 P0 ( dwell for no time -- G64 should not smooth over this point )
G01 F360.00000
G01 X25.56495 Y0.27465
G01 X25.63955 Y0.19990
G01 X25.82342 Y0.19990
G01 X25.89820 Y0.27470
G01 X25.89820 Y0.72507
G01 X25.82342 Y0.79985
G01 X25.63955 Y0.79985
G01 X25.56495 Y0.72512
G01 X25.56495 Y0.27465
G04 P0 ( dwell for no time -- G64 should not smooth over this point )
G00 Z10.00000 ( retract )

G00 X27.03106 Y0.27470 ( rapid move to begin. )
G01 F30.00000
( Mill infeed pass 1/1 )
G01 Z-0.10000
G04 P0 ( dwell for no time -- G64 should not smooth over this point )
G01 F360.00000
G01 X27.03106 Y0.27470
G01 X27.10584 Y0.19990
G01 X27.28951 Y0.19990
G01 X27.36431 Y0.27470
G01 X27.36431 Y0.32520
G01 X27.28956 Y0.39980
G01 X27.10579 Y0.39980
G01 X27.03106 Y0.32520
G01 X27.03106 Y0.27470
G04 P0 ( dwell for no time -- G64 should not smooth over this point )
G00 Z10.00000 ( retract )

G00 X27.03106 Y0.67452 ( rapid move to begin. )
G01 F30.00000
( Mill infeed pass 1/1 )
G01 Z-0.10000
G04 P0 ( dwell for no time -- G64 should not smooth over this point )
G01 F360.00000
G01 X27.03106 Y0.67452
G01 X27.10584 Y0.59969
G01 X27.28951 Y0.59969
G01 X27.36431 Y0.67452
G01 X27.36431 Y0.72507
G01 X27.28951 Y0.79985
G01 X27.10584 Y0.79985
G01 X27.03106 Y0.72507
G01 X27.03106 Y0.67452
G04 P0 ( dwell for no time -- G64 should not smooth over this point )
G00 Z10.00000 ( retract )

G00 X33.79775 Y8.24293 ( rapid move to begin. )
G01 F30.00000
( Mill infeed pass 1/1 )
G01 Z-0.10000
G04 P0 ( dwell for no time -- G64 should not smooth over this point )
G01 F360.00000
G01 X33.79775 Y8.24293
G01 X33.81553 Y8.10781
G01 X33.91662 Y7.86371
G01 X34.07740 Y7.65391
G01 X34.28721 Y7.49287
G01 X34.53155 Y7.39178
G01 X34.66668 Y7.37400
G01 X34.66668 Y7.63069
G01 X34.55586 Y7.65856
G01 X34.44834 Y7.70407
G01 X34.34921 Y7.76575
G01 X34.26262 Y7.84022
G01 X34.18835 Y7.92698
G01 X34.12696 Y8.02630
G01 X34.08251 Y8.13151
G01 X34.05444 Y8.24293
G01 X33.79775 Y8.24293
G04 P0 ( dwell for no time -- G64 should not smooth over this point )
G00 Z10.00000 ( retract )

G00 X36.45322 Y10.90994 ( rapid move to begin. )
G01 F30.00000
( Mill infeed pass 1/1 )
G01 Z-0.10000
G04 P0 ( dwell for no time -- G64 should not smooth over this point )
G01 F360.00000
G01 X36.45322 Y10.90994
G01 X36.46454 Y11.02718
G01 X36.48329 Y11.13782
G01 X36.53086 Y11.26325
G01 X36.57087 Y11.35040
G01 X36.62243 Y11.42332
G01 X36.71113 Y11.53246
G01 X36.80216 Y11.60750
G01 X36.89340 Y11.67237
G01 X37.01341 Y11.72644
G01 X37.10628 Y11.76076
G01 X37.19126 Y11.77549
G01 X37.33366 Y11.79040
G01 X37.44874 Y11.77930
G01 X37.56132 Y11.76030
G01 X37.68491 Y11.71354
G01 X37.77394 Y11.67272
G01 X37.84526 Y11.62243
G01 X37.95621 Y11.53249
G01 X38.03000 Y11.44298
G01 X38.09596 Y11.35024
G01 X38.15042 Y11.22947
G01 X38.18440 Y11.13787
G01 X38.19934 Y11.05162
G01 X38.21412 Y10.90994
G01 X38.20295 Y10.79411
G01 X38.18405 Y10.68210
G01 X38.13696 Y10.55799
G01 X38.09634 Y10.46958
G01 X38.04569 Y10.39772
G01 X37.95619 Y10.28730
G01 X37.86617 Y10.21316
G01 X37.77376 Y10.14743
G01 X37.65250 Y10.09289
G01 X37.56142 Y10.05914
G01 X37.47463 Y10.04415
G01 X37.33366 Y10.02944
G01 X37.21712 Y10.04072
G01 X37.10577 Y10.05954
G01 X36.98105 Y10.10681
G01 X36.89320 Y10.14712
G01 X36.82083 Y10.19825
G01 X36.71113 Y10.28733
G01 X36.63643 Y10.37801
G01 X36.57117 Y10.46980
G01 X36.51634 Y10.59175
G01 X36.48291 Y10.68192
G01 X36.46780 Y10.76970
G01 X36.45322 Y10.90994
G04 P0 ( dwell for no time -- G64 should not smooth over this point )
G00 Z10.00000 ( retract )

G00 X38.73957 Y12.64933 ( rapid move to begin. )
G01 F30.00000
( Mill infeed pass 1/1 )
G01 Z-0.10000
G04 P0 ( dwell for no time -- G64 should not smooth over this point )
G01 F360.00000
G01 X38.73957 Y12.64933
G01 X38.75354 Y12.54443
G01 X38.84295 Y12.32802
G01 X38.98544 Y12.14234
G01 X39.17137 Y11.99985
G01 X39.38753 Y11.91019
G01 X39.49268 Y11.89647
G01 X39.49268 Y12.15415
G01 X39.40421 Y12.17900
G01 X39.31844 Y12.21730
G01 X39.24130 Y12.26635
G01 X39.17020 Y12.32776
G01 X39.11046 Y12.39693
G01 X39.06007 Y12.47620
G01 X39.02278 Y12.55966
G01 X38.99751 Y12.64933
G01 X38.73957 Y12.64933
G04 P0 ( dwell for no time -- G64 should not smooth over this point )
G00 Z10.00000 ( retract )

G00 X38.73957 Y12.90333 ( rapid move to begin. )
G01 F30.00000
( Mill infeed pass 1/1 )
G01 Z-0.10000
G04 P0 ( dwell for no time -- G64 should not smooth over this point )
G01 F360.00000
G01 X38.73957 Y12.90333
G01 X38.75354 Y13.00848
G01 X38.84295 Y13.22464
G01 X38.98544 Y13.41057
G01 X39.17137 Y13.55280
G01 X39.38753 Y13.64244
G01 X39.49268 Y13.65644
G01 X39.49268 Y13.39847
G01 X39.40421 Y13.37363
G01 X39.31844 Y13.33533
G01 X39.24130 Y13.28628
G01 X39.17020 Y13.22487
G01 X39.11046 Y13.15570
G01 X39.06007 Y13.07643
G01 X39.02278 Y12.99296
G01 X38.99751 Y12.90333
G01 X38.73957 Y12.90333
G04 P0 ( dwell for no time -- G64 should not smooth over this point )
G00 Z10.00000 ( retract )

G00 X39.74668 Y11.89647 ( rapid move to begin. )
G01 F30.00000
( Mill infeed pass 1/1 )
G01 Z-0.10000
G04 P0 ( dwell for no time -- G64 should not smooth over this point )
G01 F360.00000
G01 X39.74668 Y11.89647
G01 X39.74668 Y12.15415
G01 X39.83512 Y12.17900
G01 X39.92090 Y12.21730
G01 X39.99804 Y12.26635
G01 X40.06914 Y12.32776
G01 X40.12888 Y12.39693
G01 X40.17927 Y12.47620
G01 X40.21656 Y12.55966
G01 X40.24183 Y12.64933
G01 X40.49954 Y12.64933
G01 X40.48557 Y12.54443
G01 X40.39616 Y12.32802
G01 X40.25367 Y12.14234
G01 X40.06799 Y11.99985
G01 X39.85158 Y11.91019
G01 X39.74668 Y11.89647
G04 P0 ( dwell for no time -- G64 should not smooth over this point )
G00 Z10.00000 ( retract )

G00 X39.74668 Y13.39847 ( rapid move to begin. )
G01 F30.00000
( Mill infeed pass 1/1 )
G01 Z-0.10000
G04 P0 ( dwell for no time -- G64 should not smooth over this point )
G01 F360.00000
G01 X39.74668 Y13.39847
G01 X39.74668 Y13.65644
G01 X39.85158 Y13.64244
G01 X40.06799 Y13.55280
G01 X40.25367 Y13.41057
G01 X40.39616 Y13.22464
G01 X40.48557 Y13.00848
G01 X40.49954 Y12.90333
G01 X40.24183 Y12.90333
G01 X40.21656 Y12.99296
G01 X40.17927 Y13.07643
G01 X40.12888 Y13.15570
G01 X40.06914 Y13.22487
G01 X39.99804 Y13.28628
G01 X39.92090 Y13.33533
G01 X39.83512 Y13.37363
G01 X39.74668 Y13.39847
G04 P0 ( dwell for no time -- G64 should not smooth over this point )
G00 Z10.00000 ( retract )

G00 X39.93170 Y15.68003 ( rapid move to begin. )
G01 F30.00000
( Mill infeed pass 1/1 )
G01 Z-0.10000
G04 P0 ( dwell for no time -- G64 should not smooth over this point )
G01 F360.00000
G01 X39.93170 Y15.68003
G01 X39.94554 Y15.82768
G01 X39.97391 Y15.99870
G01 X40.03634 Y16.16461
G01 X40.09662 Y16.29601
G01 X40.15923 Y16.38577
G01 X40.29240 Y16.55112
G01 X40.40876 Y16.64734
G01 X40.54770 Y16.74658
G01 X40.70914 Y16.81970
G01 X40.84475 Y16.86992
G01 X40.95237 Y16.88912
G01 X41.16349 Y16.91180
G01 X41.31112 Y16.89799
G01 X41.48237 Y16.86959
G01 X41.64808 Y16.80721
G01 X41.77965 Y16.74686
G01 X41.86923 Y16.68432
G01 X42.03456 Y16.55110
G01 X42.13083 Y16.43477
G01 X42.23019 Y16.29573
G01 X42.30324 Y16.13441
G01 X42.35351 Y15.99875
G01 X42.37269 Y15.89113
G01 X42.39537 Y15.68003
G01 X42.38155 Y15.53235
G01 X42.35315 Y15.36118
G01 X42.29075 Y15.19537
G01 X42.23047 Y15.06398
G01 X42.16781 Y14.97421
G01 X42.03456 Y14.80896
G01 X41.91823 Y14.71265
G01 X41.77937 Y14.61338
G01 X41.61787 Y14.54023
G01 X41.48244 Y14.49004
G01 X41.37457 Y14.47081
G01 X41.16349 Y14.44813
G01 X41.01579 Y14.46197
G01 X40.84488 Y14.49032
G01 X40.67884 Y14.55280
G01 X40.54759 Y14.61298
G01 X40.45770 Y14.67574
G01 X40.29240 Y14.80896
G01 X40.19613 Y14.92529
G01 X40.09697 Y15.06405
G01 X40.02377 Y15.22567
G01 X39.97361 Y15.36106
G01 X39.95438 Y15.46893
G01 X39.93170 Y15.68003
G04 P0 ( dwell for no time -- G64 should not smooth over this point )
G00 Z10.00000 ( retract )

G00 X37.46068 Y16.72915 ( rapid move to begin. )
G01 F30.00000
( Mill infeed pass 1/1 )
G01 Z-0.10000
G04 P0 ( dwell for no time -- G64 should not smooth over this point )
G01 F360.00000
G01 X37.46068 Y16.72915
G01 X37.57270 Y16.70088
G01 X37.67785 Y16.65635
G01 X37.77712 Y16.59486
G01 X37.86383 Y16.52052
G01 X37.93823 Y16.43388
G01 X37.99980 Y16.33469
G01 X38.04442 Y16.22953
G01 X38.07290 Y16.11693
G01 X38.32962 Y16.11693
G01 X38.31184 Y16.25206
G01 X38.21049 Y16.49641
G01 X38.04971 Y16.70596
G01 X37.83990 Y16.86700
G01 X37.59556 Y16.96809
G01 X37.46068 Y16.98587
G01 X37.46068 Y16.72915
G04 P0 ( dwell for no time -- G64 should not smooth over this point )
G00 Z10.00000 ( retract )

G00 X37.46068 Y14.99400 ( rapid move to begin. )
G01 F30.00000
( Mill infeed pass 1/1 )
G01 Z-0.10000
G04 P0 ( dwell for no time -- G64 should not smooth over this point )
G01 F360.00000
G01 X37.46068 Y14.99400
G01 X37.46068 Y15.25069
G01 X37.57270 Y15.27896
G01 X37.67785 Y15.32349
G01 X37.77712 Y15.38498
G01 X37.86383 Y15.45933
G01 X37.93823 Y15.54597
G01 X37.99980 Y15.64516
G01 X38.04442 Y15.75031
G01 X38.07290 Y15.86293
G01 X38.32962 Y15.86293
G01 X38.31184 Y15.72781
G01 X38.21049 Y15.48371
G01 X38.04971 Y15.27391
G01 X37.83990 Y15.11287
G01 X37.59556 Y15.01178
G01 X37.46068 Y14.99400
G04 P0 ( dwell for no time -- G64 should not smooth over this point )
G00 Z10.00000 ( retract )

G00 X36.45322 Y13.44993 ( rapid move to begin. )
G01 F30.00000
( Mill infeed pass 1/1 )
G01 Z-0.10000
G04 P0 ( dwell for no time -- G64 should not smooth over this point )
G01 F360.00000
G01 X36.45322 Y13.44993
G01 X36.46454 Y13.56718
G01 X36.48329 Y13.67780
G01 X36.53086 Y13.80325
G01 X36.57087 Y13.89040
G01 X36.62243 Y13.96332
G01 X36.71113 Y14.07246
G01 X36.80216 Y14.14750
G01 X36.89340 Y14.21237
G01 X37.01341 Y14.26644
G01 X37.10628 Y14.30076
G01 X37.19126 Y14.31549
G01 X37.33366 Y14.33040
G01 X37.44874 Y14.31930
G01 X37.56132 Y14.30030
G01 X37.68491 Y14.25354
G01 X37.77394 Y14.21272
G01 X37.84526 Y14.16243
G01 X37.95621 Y14.07249
G01 X38.03000 Y13.98298
G01 X38.09596 Y13.89024
G01 X38.15042 Y13.76947
G01 X38.18440 Y13.67785
G01 X38.19934 Y13.59162
G01 X38.21412 Y13.44991
G01 X38.20295 Y13.33411
G01 X38.18405 Y13.22210
G01 X38.13696 Y13.09799
G01 X38.09634 Y13.00960
G01 X38.04567 Y12.93772
G01 X37.95619 Y12.82733
G01 X37.86617 Y12.75316
G01 X37.77376 Y12.68743
G01 X37.65250 Y12.63289
G01 X37.56142 Y12.59914
G01 X37.47463 Y12.58415
G01 X37.33366 Y12.56944
G01 X37.21712 Y12.58072
G01 X37.10577 Y12.59954
G01 X36.98105 Y12.64681
G01 X36.89320 Y12.68712
G01 X36.82083 Y12.73825
G01 X36.71113 Y12.82733
G01 X36.63643 Y12.91803
G01 X36.57117 Y13.00985
G01 X36.51634 Y13.13175
G01 X36.48291 Y13.22192
G01 X36.46780 Y13.30970
G01 X36.45322 Y13.44993
G04 P0 ( dwell for no time -- G64 should not smooth over this point )
G00 Z10.00000 ( retract )

G00 X34.22325 Y15.18801 ( rapid move to begin. )
G01 F30.00000
( Mill infeed pass 1/1 )
G01 Z-0.10000
G04 P0 ( dwell for no time -- G64 should not smooth over this point )
G01 F360.00000
G01 X34.22325 Y15.18801
G01 X34.14123 Y15.13695
G01 X34.05914 Y15.09865
G01 X33.97707 Y15.08587
G01 X32.88563 Y15.08587
G01 X32.78695 Y15.07096
G01 X32.72676 Y15.05557
G01 X32.71578 Y15.04935
G01 X32.65297 Y15.01028
G01 X32.59331 Y14.96487
G01 X30.07015 Y12.44168
G01 X30.01137 Y12.39721
G01 X29.84320 Y12.42436
G01 X29.71366 Y12.43767
G01 X29.60172 Y12.42672
G01 X29.48254 Y12.40688
G01 X29.35138 Y12.35680
G01 X29.26758 Y12.31727
G01 X29.13162 Y12.21776
G01 X29.08270 Y12.17595
G01 X29.00642 Y12.08347
G01 X28.95265 Y12.00920
G01 X28.94066 Y11.99119
G01 X28.90520 Y11.91519
G01 X28.85166 Y11.77582
G01 X28.83268 Y11.66376
G01 X28.82113 Y11.54493
G01 X28.83626 Y11.40069
G01 X28.85582 Y11.30084
G01 X28.88612 Y11.22012
G01 X28.94084 Y11.09876
G01 X29.03017 Y10.97646
G01 X29.06596 Y10.91923
G01 X29.09506 Y10.83925
G01 X29.11516 Y10.75263
G01 X29.25112 Y10.71192
G01 X29.41780 Y10.67651
G01 X29.52041 Y10.66244
G01 X29.68346 Y10.65223
G01 X29.85905 Y10.65789
G01 X29.96354 Y10.66947
G01 X30.14716 Y10.70463
G01 X30.31223 Y10.75246
G01 X30.39024 Y10.70389
G01 X30.47233 Y10.66559
G01 X30.55442 Y10.65281
G01 X32.62551 Y10.65281
G01 X32.65124 Y10.64997
G01 X32.72419 Y10.63790
G01 X32.78439 Y10.62248
G01 X32.85813 Y10.57725
G01 X32.90766 Y10.54014
G01 X33.40524 Y10.04448
G01 X33.44598 Y10.01111
G01 X33.49854 Y10.00587
G01 X33.97707 Y10.00587
G01 X34.05914 Y10.01865
G01 X34.14123 Y10.05695
G01 X34.22325 Y10.10801
G01 X34.19109 Y10.22863
G01 X34.15680 Y10.29924
G01 X34.04565 Y10.44786
G01 X34.00522 Y10.52401
G01 X33.94291 Y10.68192
G01 X33.92965 Y10.75736
G01 X33.91322 Y10.90994
G01 X33.92294 Y11.01479
G01 X33.93582 Y11.09998
G01 X33.94329 Y11.13782
G01 X33.96338 Y11.19490
G01 X34.03089 Y11.35045
G01 X34.12759 Y11.48151
G01 X34.17095 Y11.53241
G01 X34.19516 Y11.55365
G01 X34.26214 Y11.60752
G01 X34.35337 Y11.67234
G01 X34.47341 Y11.72644
G01 X34.56628 Y11.76076
G01 X34.65126 Y11.77549
G01 X34.79366 Y11.79040
G01 X34.90874 Y11.77930
G01 X35.02132 Y11.76030
G01 X35.14491 Y11.71354
G01 X35.23394 Y11.67272
G01 X35.30526 Y11.62243
G01 X35.41621 Y11.53249
G01 X35.49000 Y11.44298
G01 X35.55596 Y11.35024
G01 X35.61042 Y11.22947
G01 X35.64466 Y11.13653
G01 X35.66856 Y10.97854
G01 X35.67318 Y10.89243
G01 X35.66295 Y10.79411
G01 X35.64405 Y10.68210
G01 X35.59696 Y10.55799
G01 X35.56122 Y10.47958
G01 X35.50567 Y10.39772
G01 X35.39675 Y10.26307
G01 X35.35771 Y10.19546
G01 X35.31850 Y10.09409
G01 X35.29800 Y10.08822
G01 X35.13178 Y10.04900
G01 X35.02548 Y10.03203
G01 X34.86356 Y10.01834
G01 X34.76165 Y10.01728
G01 X34.59996 Y10.02749
G01 X34.49485 Y10.04199
G01 X34.32947 Y10.07735
G01 X34.22325 Y10.10801
G01 X34.32947 Y10.07735
G01 X34.49485 Y10.04199
G01 X34.59996 Y10.02749
G01 X34.77570 Y10.01707
G01 X34.93719 Y10.02276
G01 X35.04108 Y10.03414
G01 X35.20544 Y10.06447
G01 X35.31850 Y10.09409
G01 X35.45462 Y10.00608
G01 X35.51768 Y9.95464
G01 X35.59228 Y9.88489
G01 X36.48682 Y8.99023
G01 X36.60379 Y8.91987
G01 X36.65070 Y8.94613
G01 X36.69825 Y8.98106
G01 X36.79076 Y9.05871
G01 X36.89342 Y9.13232
G01 X37.01044 Y9.18522
G01 X37.10567 Y9.22063
G01 X37.19439 Y9.23595
G01 X37.33366 Y9.25030
G01 X37.44793 Y9.23940
G01 X37.62299 Y9.21283
G01 X37.67948 Y9.25601
G01 X39.34031 Y10.91687
G01 X39.39997 Y10.96228
G01 X39.47376 Y11.00757
G01 X39.55834 Y11.02782
G01 X39.63264 Y11.03787
G01 X42.92468 Y11.03787
G01 X42.99897 Y11.02782
G01 X43.08330 Y11.00762
G01 X43.21945 Y10.92261
G01 X43.29120 Y10.94069
G01 X43.38366 Y10.97450
G01 X43.40405 Y10.97862
G01 X43.58648 Y11.00508
G01 X43.66359 Y11.01120
G01 X43.69618 Y11.00915
G01 X43.79366 Y10.99904
G01 X43.94330 Y10.97427
G01 X44.07687 Y10.92439
G01 X44.20410 Y10.86620
G01 X44.32046 Y10.78337
G01 X44.42813 Y10.69452
G01 X44.52440 Y10.57712
G01 X44.59989 Y10.47054
G01 X44.66699 Y10.32121
G01 X44.70814 Y10.20973
G01 X44.73550 Y10.03645
G01 X44.74517 Y9.92998
G01 X44.73611 Y9.82876
G01 X44.70791 Y9.65004
G01 X44.65813 Y9.51690
G01 X44.59971 Y9.38931
G01 X44.50004 Y9.25134
G01 X44.42844 Y9.16513
G01 X44.34050 Y9.09213
G01 X44.20403 Y8.99371
G01 X44.07215 Y8.93359
G01 X43.94337 Y8.88561
G01 X43.74726 Y8.85558
G01 X43.65343 Y8.84916
G01 X43.53296 Y8.86104
G01 X43.41749 Y8.87890
G01 X43.38363 Y8.88578
G01 X43.28846 Y8.92012
G01 X43.16651 Y8.97237
G01 X43.12308 Y8.99389
G01 X43.04071 Y9.05096
G01 X42.89938 Y9.16577
G01 X42.84505 Y9.22896
G01 X42.77396 Y9.32165
G01 X42.72763 Y9.38954
G01 X42.65295 Y9.55688
G01 X42.61963 Y9.65007
G01 X42.61267 Y9.68309
G01 X42.59313 Y9.81169
G01 X42.58244 Y9.93005
G01 X42.59166 Y10.02995
G01 X42.59153 Y10.08949
G01 X42.58160 Y10.14908
G01 X42.56331 Y10.21834
G01 X42.50060 Y10.24682
G01 X42.38092 Y10.27397
G01 X41.40172 Y10.27397
G01 X41.28267 Y10.24710
G01 X41.16362 Y10.16648
G01 X41.04455 Y10.24710
G01 X40.92550 Y10.27397
G01 X39.83251 Y10.27397
G01 X39.78003 Y10.26874
G01 X39.73927 Y10.23536
G01 X38.21966 Y8.71583
G01 X38.17592 Y8.65840
G01 X38.20170 Y8.49391
G01 X38.21443 Y8.36986
G01 X38.20335 Y8.25769
G01 X38.18402 Y8.14210
G01 X38.13457 Y8.01261
G01 X38.09561 Y7.93003
G01 X37.99865 Y7.79732
G01 X37.95601 Y7.74751
G01 X37.84630 Y7.65820
G01 X37.77376 Y7.60743
G01 X37.66723 Y7.55891
G01 X37.56144 Y7.51911
G01 X37.45588 Y7.50151
G01 X37.33366 Y7.48962
G01 X37.24885 Y7.49689
G01 X37.10577 Y7.51954
G01 X37.00363 Y7.55749
G01 X36.89345 Y7.60755
G01 X36.77255 Y7.69564
G01 X36.71143 Y7.74764
G01 X36.67575 Y7.78858
G01 X36.60508 Y7.88040
G01 X36.53544 Y7.98586
G01 X36.42116 Y8.01827
G01 X36.36815 Y8.04974
G01 X36.30803 Y8.09285
G01 X36.28774 Y8.10910
G01 X36.00503 Y8.39180
G01 X35.93800 Y8.44080
G01 X35.85296 Y8.47174
G01 X35.76559 Y8.49211
G01 X35.69848 Y8.61825
G01 X35.63122 Y8.72561
G01 X35.56000 Y8.82399
G01 X35.48464 Y8.91471
G01 X35.40463 Y8.99899
G01 X35.32157 Y9.07572
G01 X35.23292 Y9.14763
G01 X35.14245 Y9.21195
G01 X35.01995 Y9.23219
G01 X34.90539 Y9.24324
G01 X34.77583 Y9.24672
G01 X34.66244 Y9.24189
G01 X34.54662 Y9.22937
G01 X34.41680 Y9.20626
G01 X34.31268 Y9.18078
G01 X34.19290 Y9.14339
G01 X34.11659 Y9.19089
G01 X34.03450 Y9.22919
G01 X33.95241 Y9.24197
G01 X33.29864 Y9.24197
G01 X33.22442 Y9.25200
G01 X33.15233 Y9.26879
G01 X33.13976 Y9.27227
G01 X33.08678 Y9.30366
G01 X33.00631 Y9.36297
G01 X32.51891 Y9.85030
G01 X32.47814 Y9.88367
G01 X32.42564 Y9.88891
G01 X30.72968 Y9.88891
G01 X30.60649 Y9.86015
G01 X30.60266 Y9.75703
G01 X30.60266 Y8.24293
G01 X30.58089 Y8.13770
G01 X30.47568 Y8.11594
G01 X28.95168 Y8.11594
G01 X28.84454 Y8.13852
G01 X28.80101 Y8.22173
G01 X28.69768 Y8.24197
G01 X25.45918 Y8.24197
G01 X25.35690 Y8.22213
G01 X25.33216 Y8.11009
G01 X25.33216 Y7.86194
G01 X25.31039 Y7.75670
G01 X25.20516 Y7.73491
G01 X24.06218 Y7.73491
G01 X23.95695 Y7.75670
G01 X23.93518 Y7.86194
G01 X23.93518 Y9.38593
G01 X23.95695 Y9.49114
G01 X24.06218 Y9.51293
G01 X25.20516 Y9.51293
G01 X25.31039 Y9.49114
G01 X25.33216 Y9.38593
G01 X25.33216 Y9.13778
G01 X25.35690 Y9.02571
G01 X25.45918 Y9.00587
G01 X28.69768 Y9.00587
G01 X28.79994 Y9.02571
G01 X28.82468 Y9.13778
G01 X28.82468 Y9.75703
G01 X28.82085 Y9.86015
G01 X28.95168 Y9.89386
G01 X30.47568 Y9.89386
G01 X30.60649 Y9.86015
G01 X30.47568 Y9.89386
G01 X28.95168 Y9.89386
G01 X28.82085 Y9.86015
G01 X28.69768 Y9.88891
G01 X27.57147 Y9.88891
G01 X27.47274 Y9.90382
G01 X27.41287 Y9.91913
G01 X27.33881 Y9.96462
G01 X27.27930 Y10.00999
G01 X26.54607 Y10.74334
G01 X26.50526 Y10.77676
G01 X26.45283 Y10.78197
G01 X25.45918 Y10.78197
G01 X25.35690 Y10.76213
G01 X25.33216 Y10.65009
G01 X25.33216 Y10.40193
G01 X25.31039 Y10.29670
G01 X25.20516 Y10.27493
G01 X24.06218 Y10.27493
G01 X23.95695 Y10.29670
G01 X23.93518 Y10.40193
G01 X23.93518 Y11.92594
G01 X23.95695 Y12.03114
G01 X24.06218 Y12.05291
G01 X25.20516 Y12.05291
G01 X25.31039 Y12.03114
G01 X25.33216 Y11.92594
G01 X25.33216 Y11.67778
G01 X25.35690 Y11.56571
G01 X25.45918 Y11.54587
G01 X26.65268 Y11.54587
G01 X26.72700 Y11.53582
G01 X26.81133 Y11.51562
G01 X26.88537 Y11.47018
G01 X26.94480 Y11.42492
G01 X27.67805 Y10.69147
G01 X27.71887 Y10.65802
G01 X27.77134 Y10.65281
G01 X28.87269 Y10.65281
G01 X28.95476 Y10.66559
G01 X29.03685 Y10.70389
G01 X29.11516 Y10.75263
G01 X29.23205 Y10.71695
G01 X29.32732 Y10.69381
G01 X29.50639 Y10.66401
G01 X29.68346 Y10.65223
G01 X29.85905 Y10.65789
G01 X29.94901 Y10.66749
G01 X30.05313 Y10.68428
G01 X30.14716 Y10.70463
G01 X30.31223 Y10.75246
G01 X30.34800 Y10.88901
G01 X30.38465 Y10.95929
G01 X30.48686 Y11.09863
G01 X30.52897 Y11.19058
G01 X30.57566 Y11.31397
G01 X30.59499 Y11.42924
G01 X30.60598 Y11.54493
G01 X30.59811 Y11.63541
G01 X30.56654 Y11.84372
G01 X30.61051 Y11.90158
G01 X32.99226 Y14.28333
G01 X33.03303 Y14.31674
G01 X33.08551 Y14.32197
G01 X33.95241 Y14.32197
G01 X34.03443 Y14.30922
G01 X34.11642 Y14.27099
G01 X34.19229 Y14.22382
G01 X34.16455 Y14.10553
G01 X34.13308 Y14.03365
G01 X34.03089 Y13.89047
G01 X33.99086 Y13.80325
G01 X33.94329 Y13.67780
G01 X33.92454 Y13.56718
G01 X33.91527 Y13.48153
G01 X33.91322 Y13.44993
G01 X33.91863 Y13.38278
G01 X33.94291 Y13.22192
G01 X33.97634 Y13.13175
G01 X34.03117 Y13.00980
G01 X34.09638 Y12.91798
G01 X34.17095 Y12.82741
G01 X34.28081 Y12.73823
G01 X34.35314 Y12.68715
G01 X34.44105 Y12.64681
G01 X34.56577 Y12.59954
G01 X34.67712 Y12.58072
G01 X34.79366 Y12.56944
G01 X34.93463 Y12.58415
G01 X35.02142 Y12.59914
G01 X35.18027 Y12.66180
G01 X35.23376 Y12.68743
G01 X35.26676 Y12.70958
G01 X35.33602 Y12.76076
G01 X35.41619 Y12.82733
G01 X35.50567 Y12.93772
G01 X35.55634 Y13.00960
G01 X35.59696 Y13.09799
G01 X35.64405 Y13.22210
G01 X35.66295 Y13.33411
G01 X35.67217 Y13.41973
G01 X35.67412 Y13.44991
G01 X35.66856 Y13.51854
G01 X35.64440 Y13.67785
G01 X35.61042 Y13.76947
G01 X35.55596 Y13.89024
G01 X35.43064 Y14.06286
G01 X35.39825 Y14.13556
G01 X35.37067 Y14.23172
G01 X35.24865 Y14.26779
G01 X35.08497 Y14.30264
G01 X34.98304 Y14.31661
G01 X34.81047 Y14.32677
G01 X34.63747 Y14.31988
G01 X34.47616 Y14.29809
G01 X34.36973 Y14.27559
G01 X34.19229 Y14.22382
G01 X34.36973 Y14.27559
G01 X34.47616 Y14.29809
G01 X34.63747 Y14.31988
G01 X34.81047 Y14.32677
G01 X34.98304 Y14.31661
G01 X35.08497 Y14.30264
G01 X35.24865 Y14.26779
G01 X35.37067 Y14.23172
G01 X35.46645 Y14.29720
G01 X35.51316 Y14.32268
G01 X35.60780 Y14.35844
G01 X35.67069 Y14.39756
G01 X35.73036 Y14.44297
G01 X36.30854 Y15.02115
G01 X36.35385 Y15.08061
G01 X36.39939 Y15.15476
G01 X36.42020 Y15.23891
G01 X36.44141 Y15.30030
G01 X36.47737 Y15.36471
G01 X36.52667 Y15.43606
G01 X36.48771 Y15.58031
G01 X36.46797 Y15.67800
G01 X36.44842 Y15.82407
G01 X36.44074 Y15.98214
G01 X36.44699 Y16.13949
G01 X36.46744 Y16.29875
G01 X36.50249 Y16.45950
G01 X36.53178 Y16.56024
G01 X36.48060 Y16.64254
G01 X36.44237 Y16.72453
G01 X36.42962 Y16.80654
G01 X36.42962 Y17.71333
G01 X36.44237 Y17.79532
G01 X36.48060 Y17.87731
G01 X36.53206 Y17.96006
G01 X36.59353 Y17.94487
G01 X36.68951 Y17.91165
G01 X36.75291 Y17.87136
G01 X36.89314 Y17.76715
G01 X36.96955 Y17.73177
G01 X37.10577 Y17.67954
G01 X37.21712 Y17.66072
G01 X37.33366 Y17.64944
G01 X37.40155 Y17.65496
G01 X37.56142 Y17.67914
G01 X37.65250 Y17.71289
G01 X37.77376 Y17.76743
G01 X37.86617 Y17.83316
G01 X37.93322 Y17.88719
G01 X37.95619 Y17.90733
G01 X38.00053 Y17.95953
G01 X38.09634 Y18.08960
G01 X38.13696 Y18.17799
G01 X38.18405 Y18.30210
G01 X38.20295 Y18.41411
G01 X38.21217 Y18.49973
G01 X38.21412 Y18.52993
G01 X38.20983 Y18.58604
G01 X38.18443 Y18.75785
G01 X38.15039 Y18.84947
G01 X38.09601 Y18.97004
G01 X38.02995 Y19.06295
G01 X37.95619 Y19.15251
G01 X37.84526 Y19.24243
G01 X37.77394 Y19.29272
G01 X37.68491 Y19.33354
G01 X37.56132 Y19.38030
G01 X37.44874 Y19.39930
G01 X37.35040 Y19.40949
G01 X37.26431 Y19.40474
G01 X37.10628 Y19.38076
G01 X37.02502 Y19.35107
G01 X36.89337 Y19.29234
G01 X36.72360 Y19.16722
G01 X36.65322 Y19.13275
G01 X36.53173 Y19.10029
G01 X36.50130 Y18.99488
G01 X36.46589 Y18.82955
G01 X36.45131 Y18.72435
G01 X36.44085 Y18.54860
G01 X36.44646 Y18.38716
G01 X36.45779 Y18.28320
G01 X36.48804 Y18.11894
G01 X36.53206 Y17.96006
G01 X36.48804 Y18.11894
G01 X36.45779 Y18.28320
G01 X36.44646 Y18.38716
G01 X36.44085 Y18.54860
G01 X36.45131 Y18.72435
G01 X36.46589 Y18.82955
G01 X36.50130 Y18.99488
G01 X36.53173 Y19.10029
G01 X36.48060 Y19.18254
G01 X36.44237 Y19.26453
G01 X36.42962 Y19.34652
G01 X36.42962 Y19.80291
G01 X36.41956 Y19.87723
G01 X36.39937 Y19.96156
G01 X36.35395 Y20.03552
G01 X36.30844 Y20.09529
G01 X35.67981 Y20.72394
G01 X35.63650 Y20.78068
G01 X35.66188 Y20.94608
G01 X35.67402 Y21.06991
G01 X35.66185 Y21.19394
G01 X35.64753 Y21.28169
G01 X35.61591 Y21.37565
G01 X35.55609 Y21.51032
G01 X35.49129 Y21.60125
G01 X35.41613 Y21.69239
G01 X35.31243 Y21.77710
G01 X35.23397 Y21.83275
G01 X35.14857 Y21.87194
G01 X35.02127 Y21.92012
G01 X34.92950 Y21.93638
G01 X34.81418 Y21.94913
G01 X34.71530 Y21.94372
G01 X34.58380 Y21.92409
G01 X34.47418 Y21.88667
G01 X34.35340 Y21.83229
G01 X34.27197 Y21.77491
G01 X34.17103 Y21.69234
G01 X34.10598 Y21.61423
G01 X34.03765 Y21.52030
G01 X33.98774 Y21.41573
G01 X33.94324 Y21.29785
G01 X33.92546 Y21.19348
G01 X33.91324 Y21.06991
G01 X33.92269 Y20.96712
G01 X33.93605 Y20.87870
G01 X33.94342 Y20.84192
G01 X33.96760 Y20.77446
G01 X33.98533 Y20.70263
G01 X33.98670 Y20.61500
G01 X33.96115 Y20.46450
G01 X34.04304 Y20.37443
G01 X34.17598 Y20.24814
G01 X34.28108 Y20.16290
G01 X34.39828 Y20.07994
G01 X34.52274 Y20.00369
G01 X34.66127 Y19.93100
G01 X34.81481 Y19.86303
G01 X34.96107 Y19.80923
G01 X34.98126 Y19.78904
G01 X35.10890 Y19.72010
G01 X35.21309 Y19.65673
G01 X35.38012 Y19.53941
G01 X35.45403 Y19.40126
G01 X35.50745 Y19.28566
G01 X35.56904 Y19.12607
G01 X35.61344 Y18.97692
G01 X35.64430 Y18.83286
G01 X35.66086 Y18.71358
G01 X35.66935 Y18.59483
G01 X35.66922 Y18.46181
G01 X35.66048 Y18.34203
G01 X35.64362 Y18.22270
G01 X35.61715 Y18.09735
G01 X35.56701 Y17.92950
G01 X35.61484 Y17.85252
G01 X35.65299 Y17.77060
G01 X35.66571 Y17.68869
G01 X35.66571 Y16.83116
G01 X35.65294 Y16.74909
G01 X35.61464 Y16.66700
G01 X35.56754 Y16.59136
G01 X35.61954 Y16.41305
G01 X35.63912 Y16.32212
G01 X35.65563 Y16.21897
G01 X35.66970 Y16.04604
G01 X35.66754 Y15.88623
G01 X35.66030 Y15.79982
G01 X35.63244 Y15.62417
G01 X35.59797 Y15.48663
G01 X35.50856 Y15.38181
G01 X35.44448 Y15.31567
G01 X35.36312 Y15.24036
G01 X35.26259 Y15.15895
G01 X35.13178 Y15.12900
G01 X35.02548 Y15.11203
G01 X34.86356 Y15.09834
G01 X34.76165 Y15.09728
G01 X34.59996 Y15.10749
G01 X34.49485 Y15.12199
G01 X34.32947 Y15.15735
G01 X34.22325 Y15.18801
G01 X34.19109 Y15.30863
G01 X34.15680 Y15.37924
G01 X34.03117 Y15.54985
G01 X33.97634 Y15.67175
G01 X33.94291 Y15.76192
G01 X33.92780 Y15.84970
G01 X33.91322 Y15.98993
G01 X33.92294 Y16.09479
G01 X33.94329 Y16.21782
G01 X33.99086 Y16.34325
G01 X34.02663 Y16.42163
G01 X34.08238 Y16.50335
G01 X34.17095 Y16.61241
G01 X34.26214 Y16.68752
G01 X34.35337 Y16.75234
G01 X34.47341 Y16.80644
G01 X34.56567 Y16.84063
G01 X34.65126 Y16.85549
G01 X34.79366 Y16.87040
G01 X34.90874 Y16.85930
G01 X35.02132 Y16.84030
G01 X35.14491 Y16.79354
G01 X35.23397 Y16.75270
G01 X35.37539 Y16.65163
G01 X35.44687 Y16.61983
G01 X35.56754 Y16.59136
G01 X35.61464 Y16.66700
G01 X35.65294 Y16.74909
G01 X35.66571 Y16.83116
G01 X35.66571 Y17.68869
G01 X35.65299 Y17.77060
G01 X35.61484 Y17.85252
G01 X35.56701 Y17.92950
G01 X35.46699 Y17.90629
G01 X35.36935 Y17.86476
G01 X35.23358 Y17.76760
G01 X35.13955 Y17.72409
G01 X35.02139 Y17.67926
G01 X34.91461 Y17.66141
G01 X34.79366 Y17.64934
G01 X34.66308 Y17.66273
G01 X34.50504 Y17.68744
G01 X34.44768 Y17.64378
G01 X33.79828 Y16.99448
G01 X33.73869 Y16.94909
G01 X33.66468 Y16.90362
G01 X33.60478 Y16.88831
G01 X33.51903 Y16.87467
G01 X33.45785 Y16.88341
G01 X33.38993 Y16.89859
G01 X30.72968 Y16.89862
G01 X30.59643 Y16.86491
G01 X30.60266 Y16.75193
G01 X30.60266 Y15.22794
G01 X30.58089 Y15.12270
G01 X30.47568 Y15.10093
G01 X29.23515 Y15.10093
G01 X29.19291 Y15.09799
G01 X25.45918 Y15.09997
G01 X25.35690 Y15.08013
G01 X25.33216 Y14.96809
G01 X25.33216 Y14.71994
G01 X25.31039 Y14.61470
G01 X25.20516 Y14.59293
G01 X24.06218 Y14.59293
G01 X23.95695 Y14.61470
G01 X23.93518 Y14.71994
G01 X23.93518 Y16.24394
G01 X23.95695 Y16.34914
G01 X24.06218 Y16.37093
G01 X25.20516 Y16.37093
G01 X25.31039 Y16.34914
G01 X25.33216 Y16.24394
G01 X25.33216 Y15.99578
G01 X25.35690 Y15.88371
G01 X25.45918 Y15.86387
G01 X28.69768 Y15.86387
G01 X28.79994 Y15.88371
G01 X28.82468 Y15.99578
G01 X28.82468 Y16.75193
G01 X28.83091 Y16.86491
G01 X28.95168 Y16.89113
G01 X30.47568 Y16.89113
G01 X30.59643 Y16.86491
G01 X30.47568 Y16.89113
G01 X28.95168 Y16.89113
G01 X28.83091 Y16.86491
G01 X28.69768 Y16.89862
G01 X23.34336 Y16.89862
G01 X23.29043 Y16.89329
G01 X23.25009 Y16.86016
G01 X23.09846 Y16.70853
G01 X23.02388 Y16.57703
G01 X23.04948 Y16.44167
G01 X23.07039 Y16.42770
G01 X23.17318 Y16.37977
G01 X23.27839 Y16.34914
G01 X23.30018 Y16.24394
G01 X23.30018 Y14.71994
G01 X23.27839 Y14.61470
G01 X23.17318 Y14.59293
G01 X23.11552 Y14.59293
G01 X23.00346 Y14.56820
G01 X22.98362 Y14.46593
G01 X22.98362 Y12.17991
G01 X23.00346 Y12.07765
G01 X23.11552 Y12.05291
G01 X23.17318 Y12.05291
G01 X23.27839 Y12.03114
G01 X23.30018 Y11.92594
G01 X23.30018 Y10.40193
G01 X23.27839 Y10.29670
G01 X23.17318 Y10.27493
G01 X23.11552 Y10.27493
G01 X23.00346 Y10.25020
G01 X22.98362 Y10.14794
G01 X22.98362 Y9.63991
G01 X23.00346 Y9.53765
G01 X23.11552 Y9.51293
G01 X23.17318 Y9.51293
G01 X23.27839 Y9.49114
G01 X23.30018 Y9.38593
G01 X23.30018 Y7.86194
G01 X23.27839 Y7.75670
G01 X23.17318 Y7.73491
G01 X22.03016 Y7.73491
G01 X21.92495 Y7.75670
G01 X21.90316 Y7.86194
G01 X21.90316 Y9.38593
G01 X21.92495 Y9.49114
G01 X22.03016 Y9.51293
G01 X22.08759 Y9.51293
G01 X22.19980 Y9.53773
G01 X22.21959 Y9.63991
G01 X22.21959 Y10.14794
G01 X22.19980 Y10.25012
G01 X22.08759 Y10.27493
G01 X22.03016 Y10.27493
G01 X21.92495 Y10.29670
G01 X21.90316 Y10.40193
G01 X21.90316 Y11.92594
G01 X21.92495 Y12.03114
G01 X22.03016 Y12.05291
G01 X22.08759 Y12.05291
G01 X22.19980 Y12.07773
G01 X22.21959 Y12.17991
G01 X22.21959 Y14.46593
G01 X22.19980 Y14.56812
G01 X22.08759 Y14.59293
G01 X22.03016 Y14.59293
G01 X21.92495 Y14.61470
G01 X21.90316 Y14.71994
G01 X21.90316 Y16.24394
G01 X21.92495 Y16.34914
G01 X22.03016 Y16.37093
G01 X22.08759 Y16.37093
G01 X22.19980 Y16.39573
G01 X22.21959 Y16.49793
G01 X22.21959 Y16.73890
G01 X22.22965 Y16.81317
G01 X22.24982 Y16.89750
G01 X22.29528 Y16.97162
G01 X22.34072 Y17.03126
G01 X22.83584 Y17.52458
G01 X22.88540 Y17.56169
G01 X22.95939 Y17.60703
G01 X23.04377 Y17.62724
G01 X23.10514 Y17.63603
G01 X23.16640 Y17.62727
G01 X23.23422 Y17.61211
G01 X28.89275 Y17.61211
G01 X28.97462 Y17.62483
G01 X29.05651 Y17.66301
G01 X29.14007 Y17.71495
G01 X29.10690 Y17.83669
G01 X29.07053 Y17.90901
G01 X28.94084 Y18.08376
G01 X28.88612 Y18.20512
G01 X28.85133 Y18.29895
G01 X28.82669 Y18.46130
G01 X28.82113 Y18.52991
G01 X28.82308 Y18.55996
G01 X28.83228 Y18.64561
G01 X28.85166 Y18.76082
G01 X28.89834 Y18.88424
G01 X28.94051 Y18.97626
G01 X28.99026 Y19.04698
G01 X29.08259 Y19.16105
G01 X29.17109 Y19.23410
G01 X29.26733 Y19.30270
G01 X29.38884 Y19.35749
G01 X29.48244 Y19.39221
G01 X29.56944 Y19.40733
G01 X29.71366 Y19.42244
G01 X29.82935 Y19.41131
G01 X29.94454 Y19.39191
G01 X30.06801 Y19.34522
G01 X30.15999 Y19.30309
G01 X30.23070 Y19.25330
G01 X30.34459 Y19.16107
G01 X30.41780 Y19.07245
G01 X30.48650 Y18.97604
G01 X30.54119 Y18.85472
G01 X30.57596 Y18.76095
G01 X30.59102 Y18.67413
G01 X30.60609 Y18.52991
G01 X30.59499 Y18.41424
G01 X30.57566 Y18.29897
G01 X30.52897 Y18.17558
G01 X30.48683 Y18.08358
G01 X30.37639 Y17.93583
G01 X30.33367 Y17.86788
G01 X30.30507 Y17.78825
G01 X30.28671 Y17.71531
G01 X30.13474 Y17.67319
G01 X29.96763 Y17.64203
G01 X29.86057 Y17.63019
G01 X29.69646 Y17.62430
G01 X29.51820 Y17.63476
G01 X29.41305 Y17.64919
G01 X29.24505 Y17.68488
G01 X29.14007 Y17.71495
G01 X29.24505 Y17.68488
G01 X29.41305 Y17.64919
G01 X29.51820 Y17.63476
G01 X29.68249 Y17.62450
G01 X29.86057 Y17.63019
G01 X29.96763 Y17.64203
G01 X30.13474 Y17.67319
G01 X30.28671 Y17.71531
G01 X30.37083 Y17.66301
G01 X30.45272 Y17.62483
G01 X30.53461 Y17.61211
G01 X33.28060 Y17.61211
G01 X33.33372 Y17.61744
G01 X33.37390 Y17.65043
G01 X33.90748 Y18.18391
G01 X33.95078 Y18.24058
G01 X33.91108 Y18.51579
G01 X33.88251 Y18.54967
G01 X32.28459 Y20.14758
G01 X32.24446 Y20.18048
G01 X32.19247 Y20.18566
G01 X3.10462 Y20.18566
G01 X3.05285 Y20.18053
G01 X3.01254 Y20.14751
G01 X2.69606 Y19.83105
G01 X2.66306 Y19.79074
G01 X2.65791 Y19.73897
G01 X2.65791 Y19.54594
G01 X2.68623 Y19.42445
G01 X2.69486 Y19.41802
G01 X2.72618 Y19.29193
G01 X2.72618 Y17.76793
G01 X2.69486 Y17.64182
G01 X2.68623 Y17.63540
G01 X2.65791 Y17.51393
G01 X2.65791 Y16.49793
G01 X2.68623 Y16.37645
G01 X2.69486 Y16.37002
G01 X2.72618 Y16.24394
G01 X2.72618 Y14.71994
G01 X2.69486 Y14.59382
G01 X2.68623 Y14.58740
G01 X2.65791 Y14.46593
G01 X2.65791 Y12.44252
G01 X2.64795 Y12.34432
G01 X2.66598 Y12.17988
G01 X2.65504 Y12.06444
G01 X2.63563 Y11.94897
G01 X2.59016 Y11.82835
G01 X2.55356 Y11.74742
G01 X2.49883 Y11.66523
G01 X2.40482 Y11.54877
G01 X2.32865 Y11.48540
G01 X2.24932 Y11.42675
G01 X2.21983 Y11.40709
G01 X2.17409 Y11.38491
G01 X2.00467 Y11.31776
G01 X1.85682 Y11.29462
G01 X1.77366 Y11.28733
G01 X1.66698 Y11.29741
G01 X1.54247 Y11.31799
G01 X1.43027 Y11.35995
G01 X1.34038 Y11.40033
G01 X1.26850 Y11.44773
G01 X1.14236 Y11.54857
G01 X1.07874 Y11.62545
G01 X1.00081 Y11.73376
G01 X0.95392 Y11.83610
G01 X0.91163 Y11.94902
G01 X0.88966 Y12.08502
G01 X0.88148 Y12.17061
G01 X0.89375 Y12.30589
G01 X0.91219 Y12.41067
G01 X0.97475 Y12.57143
G01 X1.00137 Y12.62578
G01 X1.05603 Y12.70455
G01 X1.14221 Y12.81087
G01 X1.23492 Y12.88641
G01 X1.38641 Y12.99413
G01 X1.39743 Y13.06995
G01 X1.39743 Y14.46593
G01 X1.36911 Y14.58740
G01 X1.36047 Y14.59382
G01 X1.32916 Y14.71994
G01 X1.32916 Y16.24394
G01 X1.36047 Y16.37002
G01 X1.36911 Y16.37645
G01 X1.39743 Y16.49793
G01 X1.39743 Y17.51393
G01 X1.36911 Y17.63540
G01 X1.36047 Y17.64182
G01 X1.32916 Y17.76793
G01 X1.32916 Y19.29193
G01 X1.36047 Y19.41802
G01 X1.36911 Y19.42445
G01 X1.39743 Y19.54594
G01 X1.39743 Y20.04540
G01 X1.41442 Y20.18871
G01 X1.42044 Y20.21665
G01 X1.44389 Y20.28220
G01 X1.48323 Y20.36823
G01 X1.51331 Y20.41258
G01 X1.58803 Y20.50557
G01 X2.33802 Y21.25553
G01 X2.45135 Y21.34486
G01 X2.47536 Y21.36036
G01 X2.53830 Y21.39013
G01 X2.62694 Y21.42312
G01 X2.67957 Y21.43323
G01 X2.79819 Y21.44616
G01 X22.08759 Y21.44616
G01 X22.19797 Y21.46955
G01 X22.21959 Y21.57641
G01 X22.21959 Y22.59393
G01 X22.19980 Y22.69612
G01 X22.08759 Y22.72094
G01 X22.03016 Y22.72094
G01 X21.92495 Y22.74270
G01 X21.90316 Y22.84793
G01 X21.90316 Y24.37191
G01 X21.92495 Y24.47714
G01 X22.03016 Y24.49893
G01 X22.08759 Y24.49893
G01 X22.19980 Y24.52373
G01 X22.21959 Y24.62593
G01 X22.21959 Y25.13393
G01 X22.19980 Y25.23612
G01 X22.08759 Y25.26093
G01 X22.03016 Y25.26093
G01 X21.92495 Y25.28270
G01 X21.90316 Y25.38793
G01 X21.90316 Y26.91191
G01 X21.92495 Y27.01714
G01 X22.03016 Y27.03891
G01 X23.17318 Y27.03891
G01 X23.27839 Y27.01714
G01 X23.30018 Y26.91191
G01 X23.30018 Y25.38793
G01 X23.27839 Y25.28270
G01 X23.17318 Y25.26093
G01 X23.11552 Y25.26093
G01 X23.00346 Y25.23620
G01 X22.98362 Y25.13393
G01 X22.98362 Y24.62593
G01 X23.00346 Y24.52365
G01 X23.11552 Y24.49893
G01 X23.17318 Y24.49893
G01 X23.27839 Y24.47714
G01 X23.30018 Y24.37191
G01 X23.30018 Y22.84793
G01 X23.27839 Y22.74270
G01 X23.17318 Y22.72094
G01 X23.11552 Y22.72094
G01 X23.00346 Y22.69620
G01 X22.98362 Y22.59393
G01 X22.98362 Y21.57641
G01 X23.00529 Y21.46948
G01 X23.11552 Y21.44616
G01 X32.52036 Y21.44446
G01 X32.61774 Y21.43326
G01 X32.67039 Y21.42312
G01 X32.75901 Y21.39013
G01 X32.82196 Y21.36036
G01 X32.84596 Y21.34486
G01 X32.95932 Y21.25553
G01 X33.65180 Y20.56305
G01 X33.74301 Y20.50293
G01 X33.86531 Y20.47390
G01 X33.96115 Y20.46450
G04 P0 ( dwell for no time -- G64 should not smooth over this point )
G00 Z10.00000 ( retract )

G00 X31.87268 Y22.31047 ( rapid move to begin. )
G01 F30.00000
( Mill infeed pass 1/1 )
G01 Z-0.10000
G04 P0 ( dwell for no time -- G64 should not smooth over this point )
G01 F360.00000
G01 X31.87268 Y22.31047
G01 X31.87268 Y22.56815
G01 X31.96112 Y22.59300
G01 X32.04690 Y22.63130
G01 X32.12404 Y22.68035
G01 X32.19514 Y22.74176
G01 X32.25488 Y22.81093
G01 X32.30527 Y22.89020
G01 X32.34256 Y22.97367
G01 X32.36783 Y23.06333
G01 X32.62554 Y23.06333
G01 X32.61182 Y22.95842
G01 X32.52216 Y22.74202
G01 X32.37967 Y22.55634
G01 X32.19399 Y22.41385
G01 X31.97758 Y22.32419
G01 X31.87268 Y22.31047
G04 P0 ( dwell for no time -- G64 should not smooth over this point )
G00 Z10.00000 ( retract )

G00 X31.87268 Y23.81247 ( rapid move to begin. )
G01 F30.00000
( Mill infeed pass 1/1 )
G01 Z-0.10000
G04 P0 ( dwell for no time -- G64 should not smooth over this point )
G01 F360.00000
G01 X31.87268 Y23.81247
G01 X31.87268 Y24.07044
G01 X31.97758 Y24.05647
G01 X32.19399 Y23.96681
G01 X32.37967 Y23.82456
G01 X32.52216 Y23.63864
G01 X32.61182 Y23.42248
G01 X32.62554 Y23.31733
G01 X32.36783 Y23.31733
G01 X32.34256 Y23.40696
G01 X32.30527 Y23.49043
G01 X32.25488 Y23.56970
G01 X32.19514 Y23.63887
G01 X32.12404 Y23.70028
G01 X32.04690 Y23.74933
G01 X31.96112 Y23.78763
G01 X31.87268 Y23.81247
G04 P0 ( dwell for no time -- G64 should not smooth over this point )
G00 Z10.00000 ( retract )

G00 X29.11516 Y24.72263 ( rapid move to begin. )
G01 F30.00000
( Mill infeed pass 1/1 )
G01 Z-0.10000
G04 P0 ( dwell for no time -- G64 should not smooth over this point )
G01 F360.00000
G01 X29.11516 Y24.72263
G01 X29.25112 Y24.68192
G01 X29.41780 Y24.64651
G01 X29.52041 Y24.63244
G01 X29.69618 Y24.62207
G01 X29.85905 Y24.62789
G01 X30.03723 Y24.65131
G01 X30.14716 Y24.67463
G01 X30.31726 Y24.72403
G01 X30.44129 Y24.77028
G01 X30.60289 Y24.84377
G01 X30.70657 Y24.97178
G01 X30.81467 Y25.12921
G01 X30.89626 Y25.26916
G01 X30.96445 Y25.40549
G01 X31.06227 Y25.44188
G01 X31.19829 Y25.48065
G01 X31.27898 Y25.49672
G01 X31.40466 Y25.51156
G01 X31.49168 Y25.51494
G01 X33.65866 Y25.51494
G01 X33.77372 Y25.39985
G01 X33.90867 Y25.29865
G01 X34.04362 Y25.26492
G01 X35.54374 Y25.26492
G01 X35.63404 Y25.28004
G01 X35.72434 Y25.32535
G01 X35.89183 Y25.29482
G01 X36.00813 Y25.36467
G01 X36.44748 Y25.80391
G01 X36.49132 Y25.86149
G01 X36.46493 Y26.03055
G01 X36.45286 Y26.14991
G01 X36.46571 Y26.27495
G01 X36.48372 Y26.37772
G01 X36.54151 Y26.52743
G01 X36.57176 Y26.58989
G01 X36.61750 Y26.65654
G01 X36.71125 Y26.77234
G01 X36.79767 Y26.84396
G01 X36.89317 Y26.91272
G01 X37.00236 Y26.96187
G01 X37.10582 Y27.00010
G01 X37.24948 Y27.02303
G01 X37.33366 Y27.02977
G01 X37.39566 Y27.02542
G01 X37.56119 Y26.99982
G01 X37.64092 Y26.97157
G01 X37.76950 Y26.91491
G01 X37.83114 Y26.87284
G01 X37.95644 Y26.77272
G01 X38.05265 Y26.65278
G01 X38.09627 Y26.59042
G01 X38.15296 Y26.46317
G01 X38.18268 Y26.38293
G01 X38.20602 Y26.24148
G01 X38.21808 Y26.08283
G01 X38.25105 Y26.04267
G01 X43.16268 Y21.13110
G01 X43.22054 Y21.08711
G01 X43.28378 Y21.09907
G01 X43.38356 Y21.13455
G01 X43.54119 Y21.16000
G01 X43.64063 Y21.16991
G01 X43.71683 Y21.16739
G01 X43.80553 Y21.15751
G01 X43.94330 Y21.13435
G01 X44.07106 Y21.08680
G01 X44.20418 Y21.02632
G01 X44.30171 Y20.95759
G01 X44.42833 Y20.85472
G01 X44.53494 Y20.72297
G01 X44.59961 Y20.63039
G01 X44.61751 Y20.59455
G01 X44.67007 Y20.47339
G01 X44.70733 Y20.36953
G01 X44.73760 Y20.17674
G01 X44.74406 Y20.08995
G01 X44.73999 Y20.02681
G01 X44.72018 Y19.87555
G01 X44.70723 Y19.81022
G01 X44.67268 Y19.71299
G01 X44.59945 Y19.54947
G01 X44.55401 Y19.48282
G01 X44.48302 Y19.39008
G01 X44.42785 Y19.32572
G01 X44.29209 Y19.21518
G01 X44.20400 Y19.15371
G01 X44.06527 Y19.09079
G01 X43.94345 Y19.04535
G01 X43.80032 Y19.02183
G01 X43.66359 Y19.00867
G01 X43.53883 Y19.02031
G01 X43.38366 Y19.04591
G01 X43.28726 Y19.08061
G01 X43.12313 Y19.15399
G01 X43.05699 Y19.19907
G01 X42.89890 Y19.32529
G01 X42.82661 Y19.41192
G01 X42.72702 Y19.54919
G01 X42.68071 Y19.64916
G01 X42.61896 Y19.80987
G01 X42.60096 Y19.91324
G01 X42.58201 Y20.08995
G01 X42.59115 Y20.19176
G01 X42.61886 Y20.36989
G01 X42.65173 Y20.46100
G01 X42.66641 Y20.53316
G01 X42.62250 Y20.59092
G01 X37.87244 Y25.34097
G01 X37.80554 Y25.38989
G01 X37.72985 Y25.36701
G01 X37.56137 Y25.29937
G01 X37.43945 Y25.27940
G01 X37.33325 Y25.26927
G01 X37.20597 Y25.28230
G01 X37.04504 Y25.30744
G01 X36.98768 Y25.26375
G01 X36.34283 Y24.61892
G01 X36.28329 Y24.57361
G01 X36.20933 Y24.52822
G01 X36.12490 Y24.50800
G01 X36.05068 Y24.49797
G01 X35.62248 Y24.49797
G01 X35.54039 Y24.48519
G01 X35.45830 Y24.44689
G01 X35.37928 Y24.39772
G01 X35.40265 Y24.30015
G01 X35.43244 Y24.22472
G01 X35.46490 Y24.17430
G01 X35.55601 Y24.05004
G01 X35.61039 Y23.92947
G01 X35.64443 Y23.83785
G01 X35.65934 Y23.75162
G01 X35.67412 Y23.60994
G01 X35.66295 Y23.49411
G01 X35.64405 Y23.38210
G01 X35.59696 Y23.25799
G01 X35.55634 Y23.16960
G01 X35.50567 Y23.09772
G01 X35.41619 Y22.98733
G01 X35.32617 Y22.91316
G01 X35.23376 Y22.84743
G01 X35.11250 Y22.79289
G01 X35.02142 Y22.75914
G01 X34.93463 Y22.74415
G01 X34.79366 Y22.72944
G01 X34.67712 Y22.74072
G01 X34.56577 Y22.75954
G01 X34.44105 Y22.80681
G01 X34.35314 Y22.84715
G01 X34.28081 Y22.89823
G01 X34.17095 Y22.98741
G01 X34.09638 Y23.07798
G01 X34.03117 Y23.16980
G01 X33.97634 Y23.29175
G01 X33.94291 Y23.38192
G01 X33.92780 Y23.46970
G01 X33.91322 Y23.60994
G01 X33.92454 Y23.72718
G01 X33.94329 Y23.83780
G01 X33.99089 Y23.96322
G01 X34.03084 Y24.05024
G01 X34.13493 Y24.19187
G01 X34.17072 Y24.25962
G01 X34.20778 Y24.39772
G01 X34.36554 Y24.44305
G01 X34.47359 Y24.46589
G01 X34.63569 Y24.48778
G01 X34.81027 Y24.49477
G01 X34.98444 Y24.48456
G01 X35.08797 Y24.47036
G01 X35.25246 Y24.43536
G01 X35.37928 Y24.39772
G01 X35.25246 Y24.43536
G01 X35.08797 Y24.47036
G01 X34.98444 Y24.48456
G01 X34.82353 Y24.49459
G01 X34.64961 Y24.48898
G01 X34.54725 Y24.47768
G01 X34.38368 Y24.44735
G01 X34.20778 Y24.39772
G01 X34.12879 Y24.44689
G01 X34.04669 Y24.48519
G01 X33.96460 Y24.49797
G01 X31.70453 Y24.49797
G01 X31.65203 Y24.49274
G01 X31.61127 Y24.45934
G01 X31.42331 Y24.27138
G01 X31.36844 Y24.19256
G01 X31.33753 Y24.08979
G01 X31.31950 Y23.98052
G01 X31.11109 Y23.80930
G01 X31.04284 Y23.75792
G01 X30.84342 Y23.62304
G01 X30.81505 Y23.47158
G01 X30.71393 Y23.36355
G01 X30.63049 Y23.24468
G01 X30.60266 Y23.12581
G01 X30.60266 Y22.21293
G01 X30.58089 Y22.10770
G01 X30.47568 Y22.08593
G01 X28.95168 Y22.08593
G01 X28.84645 Y22.10770
G01 X28.82468 Y22.21293
G01 X28.82468 Y22.46107
G01 X28.79994 Y22.57313
G01 X28.69768 Y22.59297
G01 X25.28164 Y22.59297
G01 X25.20742 Y22.60300
G01 X25.12278 Y22.62327
G01 X25.04900 Y22.66859
G01 X24.98689 Y22.71492
G01 X24.93162 Y22.72094
G01 X24.06218 Y22.72094
G01 X23.95695 Y22.74270
G01 X23.93518 Y22.84793
G01 X23.93518 Y24.37191
G01 X23.95695 Y24.47714
G01 X24.06218 Y24.49893
G01 X25.20516 Y24.49893
G01 X25.31039 Y24.47714
G01 X25.33216 Y24.37191
G01 X25.33216 Y23.51113
G01 X25.34003 Y23.44791
G01 X25.38819 Y23.39556
G01 X25.42901 Y23.36211
G01 X25.48151 Y23.35687
G01 X28.69768 Y23.35687
G01 X28.79994 Y23.37671
G01 X28.82468 Y23.48878
G01 X28.82468 Y23.72703
G01 X28.82085 Y23.83015
G01 X28.95168 Y23.86386
G01 X30.47568 Y23.86386
G01 X30.60261 Y23.83213
G01 X30.72955 Y23.73691
G01 X30.84342 Y23.62304
G01 X30.72955 Y23.73691
G01 X30.60261 Y23.83213
G01 X30.47568 Y23.86386
G01 X28.95168 Y23.86386
G01 X28.82085 Y23.83015
G01 X28.69768 Y23.85891
G01 X28.33347 Y23.85891
G01 X28.25923 Y23.86896
G01 X28.17490 Y23.88913
G01 X28.10086 Y23.93460
G01 X28.04130 Y23.97999
G01 X26.29207 Y25.72934
G01 X26.25126 Y25.76276
G01 X26.19883 Y25.76797
G01 X25.45918 Y25.76797
G01 X25.35690 Y25.74813
G01 X25.33216 Y25.63607
G01 X25.33216 Y25.38793
G01 X25.31039 Y25.28270
G01 X25.20516 Y25.26093
G01 X24.06218 Y25.26093
G01 X23.95695 Y25.28270
G01 X23.93518 Y25.38793
G01 X23.93518 Y26.91191
G01 X23.95695 Y27.01714
G01 X24.06218 Y27.03891
G01 X25.20516 Y27.03891
G01 X25.31039 Y27.01714
G01 X25.33216 Y26.91191
G01 X25.33216 Y26.66378
G01 X25.35690 Y26.55171
G01 X25.45918 Y26.53187
G01 X26.39868 Y26.53187
G01 X26.47297 Y26.52182
G01 X26.55730 Y26.50162
G01 X26.63132 Y26.45621
G01 X26.69083 Y26.41092
G01 X28.44008 Y24.66144
G01 X28.48087 Y24.62802
G01 X28.53334 Y24.62281
G01 X28.87269 Y24.62281
G01 X28.95476 Y24.63559
G01 X29.03685 Y24.67389
G01 X29.11516 Y24.72263
G01 X29.09506 Y24.80925
G01 X29.06596 Y24.88923
