( pcb2gcode 1.3.2 )
( Software-independent Gcode )

G94 ( Millimeters per minute feed rate. )
G21 ( Units == Millimeters. )

G90 ( Absolute coordinates. )
G00 S10000 ( RPM spindle speed. )
G01 F360.00000 ( Feedrate. )

G01 F360.00000 ( Feedrate. )
M3 ( Spindle on clockwise. )
G04 P1.00000
G04 P0 ( dwell for no time -- G64 should not smooth over this point )
G00 Z10.00000 ( retract )

G00 X34.70341 Y0.05080 ( rapid move to begin. )
G01 F30.00000
G01 Z-0.10000
G04 P0 ( dwell for no time -- G64 should not smooth over this point )
G01 F360.00000
G01 X34.70341 Y0.05080
G01 X34.48164 Y0.28410
G01 X34.34829 Y0.41745
G01 X34.21373 Y0.55067
G01 X34.08185 Y0.68390
G01 X33.94850 Y0.81725
G01 X33.35268 Y1.38504
G01 X33.33308 Y1.40279
G01 X32.81407 Y1.85165
G01 X32.29506 Y2.25784
G01 X32.27547 Y2.27237
G01 X31.82804 Y2.58824
G01 X31.38062 Y2.87232
G01 X31.36100 Y2.88408
G01 X30.96443 Y3.10925
G01 X30.56787 Y3.30936
G01 X30.54828 Y3.31863
G01 X30.52983 Y3.32733
G01 X30.02841 Y3.99693
G01 X30.00754 Y4.02272
G01 X29.71639 Y4.36519
G01 X29.42524 Y4.67345
G01 X29.40434 Y4.69435
G01 X28.93684 Y5.11736
G01 X28.91596 Y5.13427
G01 X28.52518 Y5.41933
G01 X28.50427 Y5.43291
G01 X28.16787 Y5.62791
G01 X28.14697 Y5.63857
G01 X27.84278 Y5.77444
G01 X27.82188 Y5.78246
G01 X27.54651 Y5.87212
G01 X27.52563 Y5.87772
G01 X27.26673 Y5.93297
G01 X27.24584 Y5.93629
G01 X26.99210 Y5.96303
G01 X26.97121 Y5.96411
G01 X26.84856 Y5.96729
G01 X26.71521 Y5.96729
G01 X26.60006 Y5.96448
G01 X26.58426 Y5.96372
G01 X26.45921 Y5.96702
G01 X26.43830 Y5.96702
G01 X26.24902 Y5.95945
G01 X26.18387 Y5.96352
G01 X26.16427 Y5.96448
G01 X26.04897 Y5.96729
G01 X25.78227 Y5.96729
G01 X25.66697 Y5.96448
G01 X25.64737 Y5.96352
G01 X25.58220 Y5.95945
G01 X25.39291 Y5.96702
G01 X25.37201 Y5.96702
G01 X25.12303 Y5.95393
G01 X25.11589 Y5.95318
G01 X25.10874 Y5.95393
G01 X24.85977 Y5.96702
G01 X24.83886 Y5.96702
G01 X24.64945 Y5.95944
G01 X24.58430 Y5.96352
G01 X24.56472 Y5.96447
G01 X24.44928 Y5.96729
G01 X24.18283 Y5.96729
G01 X24.06034 Y5.96412
G01 X24.04416 Y5.96328
G01 X24.00623 Y5.97592
G01 X23.98534 Y5.98270
G01 X23.74908 Y6.04615
G01 X23.72817 Y6.05059
G01 X23.50188 Y6.08656
G01 X23.48100 Y6.08875
G01 X23.26008 Y6.10037
G01 X23.23917 Y6.10037
G01 X23.01824 Y6.08875
G01 X22.99736 Y6.08656
G01 X22.77107 Y6.05059
G01 X22.75016 Y6.04615
G01 X22.51391 Y5.98270
G01 X22.49301 Y5.97592
G01 X22.39922 Y5.94342
G01 X22.18514 Y5.96352
G01 X22.16555 Y5.96448
G01 X22.05025 Y5.96729
G01 X21.65020 Y5.96729
G01 X21.53490 Y5.96448
G01 X21.51530 Y5.96352
G01 X21.45029 Y5.95946
G01 X21.38542 Y5.96352
G01 X21.37678 Y5.96394
G01 X21.21040 Y6.01504
G01 X21.18952 Y6.02064
G01 X20.95969 Y6.06969
G01 X20.93880 Y6.07301
G01 X20.71362 Y6.09673
G01 X20.69273 Y6.09782
G01 X20.58391 Y6.10064
G01 X20.31746 Y6.10064
G01 X20.05076 Y6.10064
G01 X19.94207 Y6.09782
G01 X19.92115 Y6.09674
G01 X19.69584 Y6.07301
G01 X19.67495 Y6.06969
G01 X19.44512 Y6.02064
G01 X19.42424 Y6.01504
G01 X19.17965 Y5.93540
G01 X19.15875 Y5.92739
G01 X18.96937 Y5.84639
G01 X18.83419 Y5.88408
G01 X18.81458 Y5.88900
G01 X18.57222 Y5.93734
G01 X18.55263 Y5.94024
G01 X18.31660 Y5.96352
G01 X18.29702 Y5.96447
G01 X18.18157 Y5.96729
G01 X18.04822 Y5.96729
G01 X17.93293 Y5.96448
G01 X17.91333 Y5.96352
G01 X17.84833 Y5.95946
G01 X17.78332 Y5.96352
G01 X17.76373 Y5.96448
G01 X17.64843 Y5.96729
G01 X17.38173 Y5.96729
G01 X17.26643 Y5.96448
G01 X17.24683 Y5.96352
G01 X17.11514 Y5.95345
G01 X16.98360 Y5.96352
G01 X16.96403 Y5.96447
G01 X16.73328 Y5.96448
G01 X16.71522 Y5.96360
G01 X16.69733 Y5.96447
G01 X16.58188 Y5.96729
G01 X16.44879 Y5.96729
G01 X16.33349 Y5.96448
G01 X16.31389 Y5.96352
G01 X16.24889 Y5.95946
G01 X16.18389 Y5.96352
G01 X16.17504 Y5.96395
G01 X16.13909 Y5.97592
G01 X16.11819 Y5.98270
G01 X15.88194 Y6.04615
G01 X15.86103 Y6.05059
G01 X15.63474 Y6.08656
G01 X15.61386 Y6.08875
G01 X15.39293 Y6.10037
G01 X15.37203 Y6.10037
G01 X15.15110 Y6.08875
G01 X15.13022 Y6.08656
G01 X15.11659 Y6.08508
G01 X14.97266 Y6.09711
G01 X14.95306 Y6.09808
G01 X14.74709 Y6.09814
G01 X14.72749 Y6.09719
G01 X14.51923 Y6.07673
G01 X14.49965 Y6.07383
G01 X14.28318 Y6.03073
G01 X14.26357 Y6.02581
G01 X14.03750 Y5.95712
G01 X14.01790 Y5.95011
G01 X13.99930 Y5.94339
G01 X13.79324 Y5.96303
G01 X13.77235 Y5.96411
G01 X13.64971 Y5.96729
G01 X13.51636 Y5.96729
G01 X13.40106 Y5.96448
G01 X13.38528 Y5.96371
G01 X13.26010 Y5.96702
G01 X13.23919 Y5.96702
G01 X13.04990 Y5.95945
G01 X12.98488 Y5.96352
G01 X12.96531 Y5.96447
G01 X12.84986 Y5.96729
G01 X12.58341 Y5.96729
G01 X12.46812 Y5.96448
G01 X12.44852 Y5.96352
G01 X12.38322 Y5.95944
G01 X12.19380 Y5.96702
G01 X12.17290 Y5.96702
G01 X11.92392 Y5.95393
G01 X11.91678 Y5.95318
G01 X11.90963 Y5.95393
G01 X11.66066 Y5.96702
G01 X11.63975 Y5.96702
G01 X11.45046 Y5.95945
G01 X11.38544 Y5.96352
G01 X11.36587 Y5.96447
G01 X11.25042 Y5.96729
G01 X10.98372 Y5.96729
G01 X10.86123 Y5.96412
G01 X10.84527 Y5.96329
G01 X10.80738 Y5.97592
G01 X10.78648 Y5.98270
G01 X10.55023 Y6.04615
G01 X10.52932 Y6.05059
G01 X10.30303 Y6.08656
G01 X10.28215 Y6.08875
G01 X10.06122 Y6.10037
G01 X10.04032 Y6.10037
G01 X9.81939 Y6.08875
G01 X9.79851 Y6.08656
G01 X9.57222 Y6.05059
G01 X9.55131 Y6.04615
G01 X9.31506 Y5.98270
G01 X9.29416 Y5.97592
G01 X9.03618 Y5.87657
G01 X9.01528 Y5.86725
G01 X8.73346 Y5.72307
G01 X8.71258 Y5.71102
G01 X8.39225 Y5.50230
G01 X8.37136 Y5.48714
G01 X7.98812 Y5.17531
G01 X7.96721 Y5.15646
G01 X7.75068 Y4.95059
G01 X6.95084 Y4.15074
G01 X6.64318 Y3.82731
G01 X6.62360 Y3.80573
G01 X6.39980 Y3.55068
G01 X6.16048 Y3.34044
G01 X6.14088 Y3.32266
G01 X5.75069 Y2.95059
G01 X4.95084 Y2.15075
G01 X4.40436 Y1.57440
G01 X4.38350 Y1.55125
G01 X4.34628 Y1.51761
G01 X4.32668 Y1.49983
G01 X3.75069 Y0.95060
G01 X2.95084 Y0.15075
G01 X2.85608 Y0.05080
G01 X0.05080 Y0.05080
G01 X0.05080 Y27.47074
G01 X45.77080 Y27.47074
G01 X45.77080 Y0.05080
G01 X34.70341 Y0.05080
G04 P0 ( dwell for no time -- G64 should not smooth over this point )
G00 Z10.00000 ( retract )

G00 X0.44791 Y22.25762 ( rapid move to begin. )
G01 F30.00000
G01 Z-0.10000
G04 P0 ( dwell for no time -- G64 should not smooth over this point )
G01 F360.00000
G01 X0.44791 Y22.25762
G01 X0.44747 Y22.25292
G01 X0.45951 Y22.16057
G01 X0.45962 Y22.15991
G01 X0.45986 Y22.15928
G01 X0.54850 Y21.94559
G01 X0.54877 Y21.94499
G01 X0.54916 Y21.94444
G01 X0.69003 Y21.76090
G01 X0.69045 Y21.76039
G01 X0.69097 Y21.75996
G01 X0.87450 Y21.61909
G01 X0.87504 Y21.61871
G01 X0.87565 Y21.61843
G01 X1.08934 Y21.52979
G01 X1.08997 Y21.52956
G01 X1.09063 Y21.52945
G01 X1.18298 Y21.51741
G01 X1.18768 Y21.51785
G01 X1.18872 Y21.52244
G01 X1.18872 Y21.76386
G01 X1.18808 Y21.76746
G01 X1.18470 Y21.76883
G01 X1.12360 Y21.78181
G01 X1.12351 Y21.78184
G01 X1.12326 Y21.78190
G01 X1.12299 Y21.78197
G01 X1.12275 Y21.78206
G01 X1.12250 Y21.78216
G01 X1.12240 Y21.78221
G01 X1.00137 Y21.83609
G01 X1.00123 Y21.83616
G01 X1.00098 Y21.83628
G01 X1.00054 Y21.83654
G01 X1.00031 Y21.83669
G01 X1.00015 Y21.83679
G01 X0.89301 Y21.91463
G01 X0.89290 Y21.91472
G01 X0.89278 Y21.91481
G01 X0.89244 Y21.91510
G01 X0.89223 Y21.91529
G01 X0.89211 Y21.91543
G01 X0.89208 Y21.91545
G01 X0.80337 Y22.01399
G01 X0.80329 Y22.01408
G01 X0.80303 Y22.01439
G01 X0.80285 Y22.01464
G01 X0.80266 Y22.01494
G01 X0.80266 Y22.01495
G01 X0.73634 Y22.12981
G01 X0.73629 Y22.12990
G01 X0.73613 Y22.13020
G01 X0.73597 Y22.13057
G01 X0.73585 Y22.13087
G01 X0.73581 Y22.13099
G01 X0.69548 Y22.25514
G01 X0.69463 Y22.25707
G01 X0.69405 Y22.25809
G01 X0.69065 Y22.25866
G01 X0.45250 Y22.25866
G01 X0.44791 Y22.25762
G04 P0 ( dwell for no time -- G64 should not smooth over this point )
G00 Z10.00000 ( retract )

G00 X0.44747 Y22.52853 ( rapid move to begin. )
G01 F30.00000
G01 Z-0.10000
G04 P0 ( dwell for no time -- G64 should not smooth over this point )
G01 F360.00000
G01 X0.44747 Y22.52853
G01 X0.44790 Y22.52385
G01 X0.45250 Y22.52280
G01 X0.69065 Y22.52279
G01 X0.69405 Y22.52336
G01 X0.69463 Y22.52438
G01 X0.69548 Y22.52630
G01 X0.73581 Y22.65045
G01 X0.73585 Y22.65057
G01 X0.73597 Y22.65088
G01 X0.73613 Y22.65125
G01 X0.73629 Y22.65154
G01 X0.73634 Y22.65164
G01 X0.80266 Y22.76649
G01 X0.80266 Y22.76650
G01 X0.80285 Y22.76681
G01 X0.80303 Y22.76705
G01 X0.80329 Y22.76736
G01 X0.80337 Y22.76746
G01 X0.89208 Y22.86599
G01 X0.89211 Y22.86602
G01 X0.89223 Y22.86615
G01 X0.89244 Y22.86634
G01 X0.89278 Y22.86663
G01 X0.89290 Y22.86673
G01 X0.89301 Y22.86681
G01 X1.00015 Y22.94466
G01 X1.00029 Y22.94475
G01 X1.00054 Y22.94491
G01 X1.00097 Y22.94517
G01 X1.00121 Y22.94528
G01 X1.00137 Y22.94536
G01 X1.12240 Y22.99924
G01 X1.12250 Y22.99928
G01 X1.12275 Y22.99938
G01 X1.12299 Y22.99947
G01 X1.12326 Y22.99955
G01 X1.12351 Y22.99961
G01 X1.12360 Y22.99963
G01 X1.18470 Y23.01261
G01 X1.18808 Y23.01398
G01 X1.18872 Y23.01758
G01 X1.18872 Y23.25901
G01 X1.18768 Y23.26362
G01 X1.18298 Y23.26405
G01 X1.09063 Y23.25201
G01 X1.08997 Y23.25190
G01 X1.08934 Y23.25166
G01 X0.87565 Y23.16302
G01 X0.87504 Y23.16275
G01 X0.87450 Y23.16236
G01 X0.69096 Y23.02149
G01 X0.69046 Y23.02108
G01 X0.69002 Y23.02055
G01 X0.54916 Y22.83701
G01 X0.54878 Y22.83647
G01 X0.54850 Y22.83586
G01 X0.45985 Y22.62217
G01 X0.45962 Y22.62156
G01 X0.45951 Y22.62088
G01 X0.44747 Y22.52853
G04 P0 ( dwell for no time -- G64 should not smooth over this point )
G00 Z10.00000 ( retract )

G00 X0.81356 Y8.68490 ( rapid move to begin. )
G01 F30.00000
G01 Z-0.10000
G04 P0 ( dwell for no time -- G64 should not smooth over this point )
G01 F360.00000
G01 X0.81356 Y8.68490
G01 X0.81443 Y8.68069
G01 X0.81864 Y8.67982
G01 X1.68732 Y8.67982
G01 X1.69153 Y8.68069
G01 X1.69240 Y8.68490
G01 X1.69240 Y8.91858
G01 X1.69153 Y8.92278
G01 X1.68732 Y8.92366
G01 X1.06248 Y8.92366
G01 X1.06205 Y8.92366
G01 X1.06183 Y8.92369
G01 X1.06143 Y8.92376
G01 X1.06115 Y8.92383
G01 X1.06082 Y8.92393
G01 X1.06036 Y8.92412
G01 X1.06014 Y8.92422
G01 X1.05991 Y8.92435
G01 X1.05950 Y8.92462
G01 X1.05921 Y8.92483
G01 X1.05899 Y8.92503
G01 X1.05878 Y8.92524
G01 X1.05858 Y8.92547
G01 X1.05836 Y8.92575
G01 X1.05810 Y8.92616
G01 X1.05796 Y8.92639
G01 X1.05786 Y8.92661
G01 X1.05768 Y8.92708
G01 X1.05757 Y8.92740
G01 X1.05751 Y8.92769
G01 X1.05744 Y8.92808
G01 X1.05741 Y8.92831
G01 X1.05740 Y8.92874
G01 X1.05740 Y9.55358
G01 X1.05653 Y9.55778
G01 X1.05232 Y9.55866
G01 X0.81864 Y9.55866
G01 X0.81443 Y9.55778
G01 X0.81356 Y9.55358
G01 X0.81356 Y8.68490
G04 P0 ( dwell for no time -- G64 should not smooth over this point )
G00 Z10.00000 ( retract )

G00 X0.81356 Y9.82790 ( rapid move to begin. )
G01 F30.00000
G01 Z-0.10000
G04 P0 ( dwell for no time -- G64 should not smooth over this point )
G01 F360.00000
G01 X0.81356 Y9.82790
G01 X0.81443 Y9.82369
G01 X0.81864 Y9.82282
G01 X1.05232 Y9.82282
G01 X1.05653 Y9.82369
G01 X1.05740 Y9.82790
G01 X1.05740 Y10.45274
G01 X1.05741 Y10.45314
G01 X1.05743 Y10.45336
G01 X1.05750 Y10.45376
G01 X1.05757 Y10.45405
G01 X1.05768 Y10.45437
G01 X1.05786 Y10.45484
G01 X1.05796 Y10.45505
G01 X1.05809 Y10.45529
G01 X1.05836 Y10.45570
G01 X1.05857 Y10.45598
G01 X1.05877 Y10.45621
G01 X1.05898 Y10.45642
G01 X1.05921 Y10.45662
G01 X1.05949 Y10.45684
G01 X1.05990 Y10.45710
G01 X1.06014 Y10.45724
G01 X1.06035 Y10.45734
G01 X1.06082 Y10.45752
G01 X1.06114 Y10.45763
G01 X1.06143 Y10.45770
G01 X1.06183 Y10.45777
G01 X1.06214 Y10.45780
G01 X1.06248 Y10.45781
G01 X1.06257 Y10.45782
G01 X1.68732 Y10.45782
G01 X1.69153 Y10.45869
G01 X1.69240 Y10.46290
G01 X1.69240 Y10.69658
G01 X1.69153 Y10.70078
G01 X1.68732 Y10.70166
G01 X0.81864 Y10.70166
G01 X0.81443 Y10.70078
G01 X0.81356 Y10.69658
G01 X0.81356 Y9.82790
G04 P0 ( dwell for no time -- G64 should not smooth over this point )
G00 Z10.00000 ( retract )

G00 X0.93161 Y12.23074 ( rapid move to begin. )
G01 F30.00000
G01 Z-0.10000
G04 P0 ( dwell for no time -- G64 should not smooth over this point )
G01 F360.00000
G01 X0.93161 Y12.23074
G01 X0.93286 Y12.21712
G01 X0.95162 Y12.05890
G01 X0.95619 Y12.03235
G01 X0.96349 Y12.00012
G01 X1.00727 Y11.88144
G01 X1.01780 Y11.85695
G01 X1.05308 Y11.78540
G01 X1.09744 Y11.71899
G01 X1.11338 Y11.69763
G01 X1.19421 Y11.60041
G01 X1.21853 Y11.57793
G01 X1.23924 Y11.56070
G01 X1.36688 Y11.46537
G01 X1.37792 Y11.45756
G01 X1.39047 Y11.45177
G01 X1.53684 Y11.38889
G01 X1.56212 Y11.37956
G01 X1.59355 Y11.36980
G01 X1.71836 Y11.34839
G01 X1.74483 Y11.34527
G01 X1.82447 Y11.34007
G01 X1.90411 Y11.34527
G01 X1.93057 Y11.34840
G01 X2.05516 Y11.36978
G01 X2.08681 Y11.37961
G01 X2.11207 Y11.38892
G01 X2.25846 Y11.45181
G01 X2.27086 Y11.45753
G01 X2.28205 Y11.46543
G01 X2.40970 Y11.56072
G01 X2.43041 Y11.57794
G01 X2.45477 Y11.60045
G01 X2.53556 Y11.69763
G01 X2.55151 Y11.71899
G01 X2.59587 Y11.78541
G01 X2.63115 Y11.85694
G01 X2.64168 Y11.88144
G01 X2.68544 Y12.00006
G01 X2.69274 Y12.03236
G01 X2.69729 Y12.05888
G01 X2.71599 Y12.21712
G01 X2.71724 Y12.23070
G01 X2.71598 Y12.24436
G01 X2.69994 Y12.37983
G01 X2.69870 Y12.39332
G01 X2.70023 Y12.41344
G01 X2.70700 Y12.47206
G01 X2.70815 Y12.48474
G01 X2.70872 Y12.49333
G01 X2.70872 Y14.51674
G01 X2.73705 Y14.63821
G01 X2.74568 Y14.64464
G01 X2.77698 Y14.77074
G01 X2.77698 Y16.29474
G01 X2.74568 Y16.42083
G01 X2.73705 Y16.42726
G01 X2.70872 Y16.54874
G01 X2.70872 Y17.56474
G01 X2.73705 Y17.68621
G01 X2.74568 Y17.69264
G01 X2.77698 Y17.81874
G01 X2.77698 Y19.34274
G01 X2.74568 Y19.46883
G01 X2.73704 Y19.47526
G01 X2.70871 Y19.59674
G01 X2.70871 Y19.78978
G01 X2.71385 Y19.84154
G01 X2.74687 Y19.88187
G01 X3.06335 Y20.19833
G01 X3.10365 Y20.23134
G01 X3.15544 Y20.23649
G01 X32.24327 Y20.23649
G01 X32.29527 Y20.23130
G01 X32.33542 Y20.19839
G01 X33.93332 Y18.60048
G01 X33.96122 Y18.56757
G01 X33.96145 Y18.56677
G01 X33.96979 Y18.52537
G01 X33.98332 Y18.41139
G01 X33.98790 Y18.38484
G01 X33.99682 Y18.34545
G01 X34.00343 Y18.29463
G01 X33.95830 Y18.23472
G01 X33.42471 Y17.70125
G01 X33.38453 Y17.66825
G01 X33.33140 Y17.66289
G01 X30.58541 Y17.66289
G01 X30.50352 Y17.67562
G01 X30.42163 Y17.71381
G01 X30.33570 Y17.76724
G01 X30.34854 Y17.81924
G01 X30.36942 Y17.88357
G01 X30.38312 Y17.91649
G01 X30.42578 Y17.98774
G01 X30.47557 Y18.04763
G01 X30.49151 Y18.06899
G01 X30.53587 Y18.13541
G01 X30.57115 Y18.20694
G01 X30.58168 Y18.23144
G01 X30.62544 Y18.35006
G01 X30.63274 Y18.38236
G01 X30.63729 Y18.40888
G01 X30.65599 Y18.56712
G01 X30.65724 Y18.58074
G01 X30.65599 Y18.59436
G01 X30.63729 Y18.75256
G01 X30.63274 Y18.77909
G01 X30.62543 Y18.81141
G01 X30.58168 Y18.93001
G01 X30.57116 Y18.95451
G01 X30.53589 Y19.02601
G01 X30.49148 Y19.09244
G01 X30.47554 Y19.11379
G01 X30.39459 Y19.21108
G01 X30.37037 Y19.23347
G01 X30.34967 Y19.25069
G01 X30.22205 Y19.34601
G01 X30.21082 Y19.35395
G01 X30.19847 Y19.35964
G01 X30.05208 Y19.42253
G01 X30.02681 Y19.43185
G01 X29.99509 Y19.44170
G01 X29.87059 Y19.46313
G01 X29.84411 Y19.46627
G01 X29.76447 Y19.47151
G01 X29.68483 Y19.46627
G01 X29.65835 Y19.46313
G01 X29.53362 Y19.44167
G01 X29.50212 Y19.43189
G01 X29.47684 Y19.42257
G01 X29.33047 Y19.35969
G01 X29.31792 Y19.35390
G01 X29.30687 Y19.34608
G01 X29.17923 Y19.25075
G01 X29.15852 Y19.23352
G01 X29.13422 Y19.21105
G01 X29.05338 Y19.11382
G01 X29.03743 Y19.09246
G01 X28.99309 Y19.02606
G01 X28.95779 Y18.95450
G01 X28.94727 Y18.93000
G01 X28.90350 Y18.81135
G01 X28.89619 Y18.77909
G01 X28.89162 Y18.75254
G01 X28.87286 Y18.59435
G01 X28.87161 Y18.58074
G01 X28.87286 Y18.56712
G01 X28.89162 Y18.40890
G01 X28.89619 Y18.38235
G01 X28.90349 Y18.35012
G01 X28.94727 Y18.23144
G01 X28.95780 Y18.20695
G01 X28.99308 Y18.13540
G01 X29.03744 Y18.06899
G01 X29.05338 Y18.04763
G01 X29.10317 Y17.98774
G01 X29.14583 Y17.91650
G01 X29.15953 Y17.88357
G01 X29.18042 Y17.81924
G01 X29.19327 Y17.76724
G01 X29.10734 Y17.71381
G01 X29.02545 Y17.67562
G01 X28.94355 Y17.66289
G01 X23.28803 Y17.66289
G01 X23.28393 Y17.66366
G01 X23.26664 Y17.66747
G01 X23.25908 Y17.66940
G01 X23.24054 Y17.67343
G01 X23.18906 Y17.68261
G01 X23.16216 Y17.68596
G01 X23.15595 Y17.68640
G01 X23.11007 Y17.68067
G01 X23.08389 Y17.67599
G01 X23.03295 Y17.66412
G01 X23.01026 Y17.65773
G01 X23.00698 Y17.65585
G01 X22.96181 Y17.62939
G01 X22.93964 Y17.61480
G01 X22.89748 Y17.58379
G01 X22.88666 Y17.57538
G01 X22.87652 Y17.56707
G01 X22.39153 Y17.08207
G01 X22.38323 Y17.07196
G01 X22.37533 Y17.06184
G01 X22.34610 Y17.02242
G01 X22.33225 Y17.00170
G01 X22.30701 Y16.95960
G01 X22.30063 Y16.94833
G01 X22.29724 Y16.93607
G01 X22.28532 Y16.88846
G01 X22.28045 Y16.86398
G01 X22.27325 Y16.81545
G01 X22.27168 Y16.80274
G01 X22.27040 Y16.78973
G01 X22.27040 Y16.54874
G01 X22.25062 Y16.44653
G01 X22.13839 Y16.42174
G01 X22.08098 Y16.42174
G01 X21.97577 Y16.39995
G01 X21.95398 Y16.29474
G01 X21.95398 Y14.77074
G01 X21.97577 Y14.66553
G01 X22.08098 Y14.64374
G01 X22.13839 Y14.64374
G01 X22.25062 Y14.61894
G01 X22.27040 Y14.51674
G01 X22.27040 Y12.23074
G01 X22.25062 Y12.12853
G01 X22.13839 Y12.10374
G01 X22.08098 Y12.10374
G01 X21.97577 Y12.08195
G01 X21.95398 Y11.97674
G01 X21.95398 Y10.45274
G01 X21.97577 Y10.34753
G01 X22.08098 Y10.32574
G01 X22.13839 Y10.32574
G01 X22.25062 Y10.30094
G01 X22.27040 Y10.19874
G01 X22.27040 Y9.69074
G01 X22.25062 Y9.58853
G01 X22.13839 Y9.56374
G01 X22.08098 Y9.56374
G01 X21.97577 Y9.54195
G01 X21.95398 Y9.43674
G01 X21.95398 Y7.91274
G01 X21.97577 Y7.80753
G01 X22.08098 Y7.78574
G01 X23.22398 Y7.78574
G01 X23.32919 Y7.80753
G01 X23.35098 Y7.91274
G01 X23.35098 Y9.43674
G01 X23.32919 Y9.54195
G01 X23.22398 Y9.56374
G01 X23.16632 Y9.56374
G01 X23.05426 Y9.58845
G01 X23.03443 Y9.69074
G01 X23.03443 Y10.19874
G01 X23.05426 Y10.30102
G01 X23.16632 Y10.32574
G01 X23.22398 Y10.32574
G01 X23.32919 Y10.34753
G01 X23.35098 Y10.45274
G01 X23.35098 Y11.97674
G01 X23.32919 Y12.08195
G01 X23.22398 Y12.10374
G01 X23.16632 Y12.10374
G01 X23.05426 Y12.12845
G01 X23.03443 Y12.23074
G01 X23.03443 Y14.51674
G01 X23.05426 Y14.61902
G01 X23.16632 Y14.64374
G01 X23.22398 Y14.64374
G01 X23.32919 Y14.66553
G01 X23.35098 Y14.77074
G01 X23.35098 Y16.29474
G01 X23.32919 Y16.39995
G01 X23.29104 Y16.41288
G01 X23.22398 Y16.43059
G01 X23.12120 Y16.47852
G01 X23.10029 Y16.49250
G01 X23.07923 Y16.59857
G01 X23.07467 Y16.62785
G01 X23.14926 Y16.75935
G01 X23.30089 Y16.91099
G01 X23.34124 Y16.94410
G01 X23.39416 Y16.94942
G01 X28.74848 Y16.94942
G01 X28.88171 Y16.91573
G01 X28.87592 Y16.81772
G01 X28.87548 Y16.80274
G01 X28.87548 Y16.04658
G01 X28.85076 Y15.93452
G01 X28.74848 Y15.91469
G01 X25.50998 Y15.91469
G01 X25.40770 Y15.93452
G01 X25.38298 Y16.04658
G01 X25.38298 Y16.29474
G01 X25.36119 Y16.39995
G01 X25.25598 Y16.42174
G01 X24.11298 Y16.42174
G01 X24.00777 Y16.39995
G01 X23.98598 Y16.29474
G01 X23.98598 Y14.77074
G01 X24.00777 Y14.66553
G01 X24.11298 Y14.64374
G01 X25.25598 Y14.64374
G01 X25.36119 Y14.66553
G01 X25.38298 Y14.77074
G01 X25.38298 Y15.01889
G01 X25.40770 Y15.13095
G01 X25.50998 Y15.15078
G01 X28.97050 Y15.15078
G01 X29.00248 Y15.14881
G01 X29.24373 Y15.14881
G01 X29.26101 Y15.15051
G01 X29.28595 Y15.15174
G01 X30.52648 Y15.15174
G01 X30.63169 Y15.17353
G01 X30.65348 Y15.27874
G01 X30.65348 Y16.80274
G01 X30.65304 Y16.81772
G01 X30.64726 Y16.91573
G01 X30.78048 Y16.94942
G01 X33.43776 Y16.94942
G01 X33.44164 Y16.94870
G01 X33.45915 Y16.94483
G01 X33.46644 Y16.94296
G01 X33.48525 Y16.93887
G01 X33.53673 Y16.92970
G01 X33.56364 Y16.92635
G01 X33.56985 Y16.92591
G01 X33.61572 Y16.93164
G01 X33.64190 Y16.93632
G01 X33.69284 Y16.94819
G01 X33.71546 Y16.95455
G01 X33.71880 Y16.95648
G01 X33.76395 Y16.98298
G01 X33.78609 Y16.99758
G01 X33.82823 Y17.02863
G01 X33.83902 Y17.03703
G01 X33.84909 Y17.04530
G01 X34.49851 Y17.69459
G01 X34.55545 Y17.73802
G01 X34.58469 Y17.73572
G01 X34.60905 Y17.73268
G01 X34.73960 Y17.71025
G01 X34.76607 Y17.70711
G01 X34.84447 Y17.70197
G01 X34.92287 Y17.70712
G01 X34.94934 Y17.71026
G01 X35.07187 Y17.73133
G01 X35.10312 Y17.74103
G01 X35.12837 Y17.75034
G01 X35.27247 Y17.81221
G01 X35.28473 Y17.81785
G01 X35.29602 Y17.82584
G01 X35.39223 Y17.89776
G01 X35.42315 Y17.91761
G01 X35.44842 Y17.93141
G01 X35.55589 Y17.96840
G01 X35.61786 Y17.98027
G01 X35.66565 Y17.90333
G01 X35.70381 Y17.82141
G01 X35.71653 Y17.73949
G01 X35.71653 Y16.88198
G01 X35.70376 Y16.79990
G01 X35.66544 Y16.71782
G01 X35.61781 Y16.64129
G01 X35.55553 Y16.65328
G01 X35.44854 Y16.69014
G01 X35.42323 Y16.70395
G01 X35.39230 Y16.72377
G01 X35.29604 Y16.79563
G01 X35.28480 Y16.80357
G01 X35.27247 Y16.80925
G01 X35.12837 Y16.87112
G01 X35.10312 Y16.88043
G01 X35.07187 Y16.89013
G01 X34.94934 Y16.91120
G01 X34.92287 Y16.91434
G01 X34.84447 Y16.91948
G01 X34.76607 Y16.91434
G01 X34.73960 Y16.91120
G01 X34.61684 Y16.89010
G01 X34.58581 Y16.88047
G01 X34.56054 Y16.87116
G01 X34.41646 Y16.80929
G01 X34.40396 Y16.80352
G01 X34.39289 Y16.79570
G01 X34.26724 Y16.70187
G01 X34.24652 Y16.68463
G01 X34.22253 Y16.66245
G01 X34.14300 Y16.56682
G01 X34.12704 Y16.54544
G01 X34.08348 Y16.48024
G01 X34.04868 Y16.40962
G01 X34.03817 Y16.38514
G01 X33.99511 Y16.26838
G01 X33.98792 Y16.23660
G01 X33.98336 Y16.21006
G01 X33.96492 Y16.05434
G01 X33.96367 Y16.04074
G01 X33.96492 Y16.02713
G01 X33.98336 Y15.87139
G01 X33.98792 Y15.84484
G01 X33.99510 Y15.81312
G01 X34.03820 Y15.69631
G01 X34.04871 Y15.67185
G01 X34.08340 Y15.60148
G01 X34.12712 Y15.53605
G01 X34.14307 Y15.51469
G01 X34.18710 Y15.46175
G01 X34.23234 Y15.38405
G01 X34.24565 Y15.34986
G01 X34.26301 Y15.29451
G01 X34.27643 Y15.24028
G01 X34.19205 Y15.18777
G01 X34.10996 Y15.14945
G01 X34.02787 Y15.13668
G01 X32.93646 Y15.13669
G01 X32.92348 Y15.13541
G01 X32.91072 Y15.13384
G01 X32.86216 Y15.12663
G01 X32.83776 Y15.12177
G01 X32.79014 Y15.10986
G01 X32.77758 Y15.10637
G01 X32.76660 Y15.10015
G01 X32.72450 Y15.07493
G01 X32.70378 Y15.06108
G01 X32.66435 Y15.03186
G01 X32.65423 Y15.02396
G01 X32.64412 Y15.01567
G01 X30.12095 Y12.49250
G01 X30.06235 Y12.44811
G01 X30.05699 Y12.44862
G01 X30.02783 Y12.45166
G01 X30.01021 Y12.45409
G01 X29.87059 Y12.47812
G01 X29.84411 Y12.48126
G01 X29.76447 Y12.48651
G01 X29.68483 Y12.48127
G01 X29.65835 Y12.47813
G01 X29.53362 Y12.45667
G01 X29.50212 Y12.44689
G01 X29.47684 Y12.43757
G01 X29.33047 Y12.37469
G01 X29.31792 Y12.36890
G01 X29.30687 Y12.36108
G01 X29.17923 Y12.26575
G01 X29.15852 Y12.24852
G01 X29.13422 Y12.22605
G01 X29.05338 Y12.12882
G01 X29.03743 Y12.10746
G01 X28.99309 Y12.04106
G01 X28.95779 Y11.96950
G01 X28.94727 Y11.94500
G01 X28.90350 Y11.82635
G01 X28.89619 Y11.79409
G01 X28.89162 Y11.76754
G01 X28.87286 Y11.60935
G01 X28.87161 Y11.59574
G01 X28.87286 Y11.58212
G01 X28.89162 Y11.42390
G01 X28.89619 Y11.39735
G01 X28.90349 Y11.36512
G01 X28.94727 Y11.24644
G01 X28.95780 Y11.22195
G01 X28.99308 Y11.15040
G01 X29.03744 Y11.08399
G01 X29.05338 Y11.06263
G01 X29.08208 Y11.02810
G01 X29.13642 Y10.92303
G01 X29.14810 Y10.88283
G01 X29.15311 Y10.86417
G01 X29.16785 Y10.80461
G01 X29.08767 Y10.75470
G01 X29.00558 Y10.71639
G01 X28.92349 Y10.70361
G01 X27.82214 Y10.70361
G01 X27.76968 Y10.70883
G01 X27.72887 Y10.74227
G01 X26.99563 Y11.47574
G01 X26.98571 Y11.48388
G01 X26.97562 Y11.49176
G01 X26.93618 Y11.52100
G01 X26.91543 Y11.53487
G01 X26.87333 Y11.56009
G01 X26.86214 Y11.56643
G01 X26.84981 Y11.56984
G01 X26.80220 Y11.58176
G01 X26.77780 Y11.58662
G01 X26.72924 Y11.59383
G01 X26.71648 Y11.59541
G01 X26.70349 Y11.59669
G01 X25.50998 Y11.59669
G01 X25.40770 Y11.61652
G01 X25.38298 Y11.72858
G01 X25.38298 Y11.97674
G01 X25.36119 Y12.08195
G01 X25.25598 Y12.10374
G01 X24.11298 Y12.10374
G01 X24.00777 Y12.08195
G01 X23.98598 Y11.97674
G01 X23.98598 Y10.45274
G01 X24.00777 Y10.34753
G01 X24.11298 Y10.32574
G01 X25.25598 Y10.32574
G01 X25.36119 Y10.34753
G01 X25.38298 Y10.45274
G01 X25.38298 Y10.70089
G01 X25.40770 Y10.81295
G01 X25.50998 Y10.83278
G01 X26.50363 Y10.83278
G01 X26.55607 Y10.82757
G01 X26.59688 Y10.79414
G01 X27.33012 Y10.06079
G01 X27.34012 Y10.05258
G01 X27.35020 Y10.04470
G01 X27.38961 Y10.01544
G01 X27.41035 Y10.00157
G01 X27.45244 Y9.97632
G01 X27.46370 Y9.96994
G01 X27.47594 Y9.96656
G01 X27.52355 Y9.95463
G01 X27.54802 Y9.94977
G01 X27.59660 Y9.94256
G01 X27.60929 Y9.94100
G01 X27.62229 Y9.93972
G01 X28.74848 Y9.93972
G01 X28.87165 Y9.91096
G01 X28.87529 Y9.81774
G01 X28.87548 Y9.80783
G01 X28.87548 Y9.18858
G01 X28.85076 Y9.07652
G01 X28.74848 Y9.05669
G01 X25.50998 Y9.05669
G01 X25.40770 Y9.07652
G01 X25.38298 Y9.18858
G01 X25.38298 Y9.43674
G01 X25.36119 Y9.54195
G01 X25.25598 Y9.56374
G01 X24.11298 Y9.56374
G01 X24.00777 Y9.54195
G01 X23.98598 Y9.43674
G01 X23.98598 Y7.91274
G01 X24.00777 Y7.80753
G01 X24.11298 Y7.78574
G01 X25.25598 Y7.78574
G01 X25.36119 Y7.80753
G01 X25.38298 Y7.91274
G01 X25.38298 Y8.16089
G01 X25.40770 Y8.27295
G01 X25.50998 Y8.29278
G01 X28.74848 Y8.29278
G01 X28.85183 Y8.27254
G01 X28.89535 Y8.18933
G01 X29.00248 Y8.16674
G01 X30.52648 Y8.16674
G01 X30.63169 Y8.18853
G01 X30.65348 Y8.29374
G01 X30.65348 Y9.80783
G01 X30.65368 Y9.81774
G01 X30.65731 Y9.91096
G01 X30.78048 Y9.93972
G01 X32.47644 Y9.93972
G01 X32.52895 Y9.93449
G01 X32.56972 Y9.90110
G01 X33.05712 Y9.41379
G01 X33.06728 Y9.40545
G01 X33.07739 Y9.39757
G01 X33.11681 Y9.36834
G01 X33.13759 Y9.35447
G01 X33.17968 Y9.32926
G01 X33.19058 Y9.32309
G01 X33.20316 Y9.31960
G01 X33.25075 Y9.30768
G01 X33.27523 Y9.30282
G01 X33.32379 Y9.29562
G01 X33.33648 Y9.29406
G01 X33.34946 Y9.29278
G01 X34.00323 Y9.29278
G01 X34.08532 Y9.28001
G01 X34.16740 Y9.24169
G01 X34.24514 Y9.19331
G01 X34.35433 Y9.22878
G01 X34.39412 Y9.23947
G01 X34.55090 Y9.27280
G01 X34.58213 Y9.27776
G01 X34.73895 Y9.29425
G01 X34.76607 Y9.29568
G01 X34.92287 Y9.29568
G01 X34.94999 Y9.29425
G01 X35.10681 Y9.27776
G01 X35.13802 Y9.27281
G01 X35.19262 Y9.26120
G01 X35.27829 Y9.20232
G01 X35.30214 Y9.18403
G01 X35.42174 Y9.08189
G01 X35.44114 Y9.06348
G01 X35.54912 Y8.94969
G01 X35.56721 Y8.92851
G01 X35.66348 Y8.80302
G01 X35.68242 Y8.77543
G01 X35.76668 Y8.63794
G01 X35.78792 Y8.59874
G01 X35.81432 Y8.54340
G01 X35.90376 Y8.52255
G01 X35.98883 Y8.49160
G01 X36.05585 Y8.44262
G01 X36.33855 Y8.15992
G01 X36.34873 Y8.15155
G01 X36.35884 Y8.14366
G01 X36.39825 Y8.11441
G01 X36.41896 Y8.10056
G01 X36.46104 Y8.07531
G01 X36.47199 Y8.06910
G01 X36.48458 Y8.06562
G01 X36.52549 Y8.05541
G01 X36.53218 Y8.05364
G01 X36.55646 Y8.04688
G01 X36.58718 Y8.03629
G01 X36.62323 Y7.98173
G01 X36.66712 Y7.91605
G01 X36.68307 Y7.89468
G01 X36.76273 Y7.79892
G01 X36.78657 Y7.77686
G01 X36.80728 Y7.75963
G01 X36.93290 Y7.66576
G01 X36.94399 Y7.65792
G01 X36.95647 Y7.65217
G01 X37.10055 Y7.59030
G01 X37.12581 Y7.58099
G01 X37.15684 Y7.57136
G01 X37.27960 Y7.55025
G01 X37.30607 Y7.54712
G01 X37.38447 Y7.54197
G01 X37.46287 Y7.54712
G01 X37.48934 Y7.55026
G01 X37.61187 Y7.57133
G01 X37.64312 Y7.58103
G01 X37.66837 Y7.59034
G01 X37.81247 Y7.65221
G01 X37.82479 Y7.65788
G01 X37.83603 Y7.66583
G01 X37.96166 Y7.75965
G01 X37.98236 Y7.77687
G01 X38.00622 Y7.79893
G01 X38.08583 Y7.89471
G01 X38.10177 Y7.91608
G01 X38.14541 Y7.98144
G01 X38.18018 Y8.05188
G01 X38.19069 Y8.07633
G01 X38.23386 Y8.19318
G01 X38.24103 Y8.22484
G01 X38.24559 Y8.25137
G01 X38.26404 Y8.40711
G01 X38.26529 Y8.42068
G01 X38.26403 Y8.43436
G01 X38.24551 Y8.59007
G01 X38.24094 Y8.61658
G01 X38.23200 Y8.65600
G01 X38.22539 Y8.70685
G01 X38.27046 Y8.76667
G01 X39.79007 Y10.28617
G01 X39.83083 Y10.31956
G01 X39.88333 Y10.32478
G01 X40.97630 Y10.32478
G01 X41.09536 Y10.29791
G01 X41.21442 Y10.21730
G01 X41.33348 Y10.29791
G01 X41.45255 Y10.32478
G01 X42.43172 Y10.32478
G01 X42.55141 Y10.29763
G01 X42.61625 Y10.26820
G01 X42.62395 Y10.23068
G01 X42.63181 Y10.19935
G01 X42.63334 Y10.19425
G01 X42.64420 Y10.08054
G01 X42.63406 Y9.99451
G01 X42.63281 Y9.98086
G01 X42.63408 Y9.96710
G01 X42.65742 Y9.76987
G01 X42.66199 Y9.74326
G01 X42.67152 Y9.70117
G01 X42.72539 Y9.55504
G01 X42.73591 Y9.53054
G01 X42.77993 Y9.44121
G01 X42.83519 Y9.35853
G01 X42.85117 Y9.33713
G01 X42.95088 Y9.21727
G01 X42.98244 Y9.18810
G01 X43.00319 Y9.17083
G01 X43.16233 Y9.05197
G01 X43.17352 Y9.04406
G01 X43.18608 Y9.03827
G01 X43.36856 Y8.95991
G01 X43.39390 Y8.95058
G01 X43.43478 Y8.93789
G01 X43.58862 Y8.91145
G01 X43.61510 Y8.90832
G01 X43.71441 Y8.90181
G01 X43.81370 Y8.90832
G01 X43.84019 Y8.91146
G01 X43.99379 Y8.93786
G01 X44.03490 Y8.95062
G01 X44.06022 Y8.95995
G01 X44.24272 Y9.03831
G01 X44.25512 Y9.04402
G01 X44.26647 Y9.05203
G01 X44.42561 Y9.17085
G01 X44.44636 Y9.18810
G01 X44.47793 Y9.21727
G01 X44.57761 Y9.33716
G01 X44.59357 Y9.35855
G01 X44.64874 Y9.44117
G01 X44.69284 Y9.53057
G01 X44.70337 Y9.55506
G01 X44.75732 Y9.70123
G01 X44.76683 Y9.74326
G01 X44.77140 Y9.76985
G01 X44.79475 Y9.96709
G01 X44.79601 Y9.98080
G01 X44.79475 Y9.99452
G01 X44.77139 Y10.19173
G01 X44.76682 Y10.21832
G01 X44.75735 Y10.26013
G01 X44.70333 Y10.40651
G01 X44.69280 Y10.43099
G01 X44.64878 Y10.52024
G01 X44.59353 Y10.60301
G01 X44.57758 Y10.62439
G01 X44.47793 Y10.74432
G01 X44.44636 Y10.77347
G01 X44.42560 Y10.79072
G01 X44.26642 Y10.90948
G01 X44.25517 Y10.91743
G01 X44.24269 Y10.92319
G01 X44.06021 Y11.00161
G01 X44.03490 Y11.01095
G01 X43.99374 Y11.02374
G01 X43.84019 Y11.05014
G01 X43.81370 Y11.05327
G01 X43.71441 Y11.05979
G01 X43.61510 Y11.05328
G01 X43.58861 Y11.05014
G01 X43.43490 Y11.02373
G01 X43.39390 Y11.01097
G01 X43.36859 Y11.00161
G01 X43.34248 Y10.99037
G01 X43.27431 Y10.97139
G01 X43.26047 Y10.97872
G01 X43.24879 Y10.98533
G01 X43.22186 Y11.00282
G01 X43.20811 Y11.01302
G01 X43.18740 Y11.02686
G01 X43.14530 Y11.05209
G01 X43.13411 Y11.05843
G01 X43.12179 Y11.06184
G01 X43.07418 Y11.07376
G01 X43.04978 Y11.07862
G01 X43.00125 Y11.08583
G01 X42.98848 Y11.08741
G01 X42.97549 Y11.08869
G01 X39.68346 Y11.08869
G01 X39.67048 Y11.08741
G01 X39.65772 Y11.08584
G01 X39.60916 Y11.07863
G01 X39.58476 Y11.07378
G01 X39.53715 Y11.06186
G01 X39.52458 Y11.05838
G01 X39.51360 Y11.05216
G01 X39.47150 Y11.02693
G01 X39.45078 Y11.01308
G01 X39.41135 Y10.98386
G01 X39.40123 Y10.97596
G01 X39.39113 Y10.96768
G01 X37.73028 Y9.30683
G01 X37.67348 Y9.26347
G01 X37.64425 Y9.26574
G01 X37.61965 Y9.26880
G01 X37.48934 Y9.29121
G01 X37.46287 Y9.29434
G01 X37.38448 Y9.29948
G01 X37.30607 Y9.29434
G01 X37.27960 Y9.29120
G01 X37.15684 Y9.27010
G01 X37.12581 Y9.26047
G01 X37.10054 Y9.25116
G01 X36.95646 Y9.18929
G01 X36.94400 Y9.18354
G01 X36.93290 Y9.17569
G01 X36.80727 Y9.08182
G01 X36.78657 Y9.06459
G01 X36.74995 Y9.03072
G01 X36.67887 Y8.98268
G01 X36.65569 Y8.97141
G01 X36.65437 Y8.97077
G01 X36.64158 Y8.97557
G01 X36.53765 Y9.04103
G01 X35.64309 Y9.93571
G01 X35.63759 Y9.94022
G01 X35.63313 Y9.94396
G01 X35.62339 Y9.95231
G01 X35.60569 Y9.96898
G01 X35.58835 Y9.98688
G01 X35.56849 Y10.00545
G01 X35.53025 Y10.03789
G01 X35.50542 Y10.05690
G01 X35.46308 Y10.08619
G01 X35.43109 Y10.10603
G01 X35.42146 Y10.11138
G01 X35.38464 Y10.13431
G01 X35.36799 Y10.14580
G01 X35.38557 Y10.19667
G01 X35.39796 Y10.22693
G01 X35.43005 Y10.28810
G01 X35.44664 Y10.31302
G01 X35.46365 Y10.33587
G01 X35.54583 Y10.43472
G01 X35.56177 Y10.45608
G01 X35.60541 Y10.52142
G01 X35.64018 Y10.59188
G01 X35.65069 Y10.61633
G01 X35.69386 Y10.73318
G01 X35.70103 Y10.76484
G01 X35.70559 Y10.79137
G01 X35.72404 Y10.94711
G01 X35.72530 Y10.96074
G01 X35.72404 Y10.97436
G01 X35.70559 Y11.13008
G01 X35.70103 Y11.15660
G01 X35.69385 Y11.18831
G01 X35.65072 Y11.30513
G01 X35.64021 Y11.32958
G01 X35.60535 Y11.40024
G01 X35.56182 Y11.46540
G01 X35.54587 Y11.48676
G01 X35.46624 Y11.58251
G01 X35.44237 Y11.60458
G01 X35.42167 Y11.62180
G01 X35.29604 Y11.71563
G01 X35.28478 Y11.72358
G01 X35.27247 Y11.72925
G01 X35.12837 Y11.79112
G01 X35.10312 Y11.80043
G01 X35.07187 Y11.81013
G01 X34.94934 Y11.83120
G01 X34.92287 Y11.83434
G01 X34.84447 Y11.83948
G01 X34.76607 Y11.83434
G01 X34.73960 Y11.83120
G01 X34.61684 Y11.81010
G01 X34.58581 Y11.80047
G01 X34.56054 Y11.79116
G01 X34.41646 Y11.72929
G01 X34.40396 Y11.72352
G01 X34.39289 Y11.71570
G01 X34.26724 Y11.62187
G01 X34.24652 Y11.60463
G01 X34.22253 Y11.58245
G01 X34.14300 Y11.48682
G01 X34.12704 Y11.46544
G01 X34.08348 Y11.40024
G01 X34.04868 Y11.32962
G01 X34.03817 Y11.30514
G01 X33.99511 Y11.18838
G01 X33.98792 Y11.15660
G01 X33.98336 Y11.13006
G01 X33.96492 Y10.97434
G01 X33.96367 Y10.96074
G01 X33.96492 Y10.94713
G01 X33.98336 Y10.79139
G01 X33.98792 Y10.76484
G01 X33.99511 Y10.73312
G01 X34.03820 Y10.61631
G01 X34.04871 Y10.59185
G01 X34.08340 Y10.52146
G01 X34.12712 Y10.45605
G01 X34.14307 Y10.43468
G01 X34.18710 Y10.38176
G01 X34.23234 Y10.30405
G01 X34.24565 Y10.26986
G01 X34.26301 Y10.21451
G01 X34.27643 Y10.16028
G01 X34.19205 Y10.10777
G01 X34.10996 Y10.06945
G01 X34.02787 Y10.05668
G01 X33.54934 Y10.05667
G01 X33.49680 Y10.06190
G01 X33.45605 Y10.09529
G01 X32.96864 Y10.58261
G01 X32.95848 Y10.59094
G01 X32.94837 Y10.59882
G01 X32.90895 Y10.62805
G01 X32.88817 Y10.64192
G01 X32.84607 Y10.66714
G01 X32.83519 Y10.67330
G01 X32.82260 Y10.67679
G01 X32.77501 Y10.68871
G01 X32.75059 Y10.69357
G01 X32.70206 Y10.70077
G01 X32.68929 Y10.70235
G01 X32.67631 Y10.70362
G01 X30.60522 Y10.70362
G01 X30.52314 Y10.71639
G01 X30.44105 Y10.75471
G01 X30.36094 Y10.80456
G01 X30.37570 Y10.86422
G01 X30.38075 Y10.88299
G01 X30.39241 Y10.92312
G01 X30.44680 Y11.02817
G01 X30.47551 Y11.06267
G01 X30.49146 Y11.08401
G01 X30.53591 Y11.15047
G01 X30.57115 Y11.22194
G01 X30.58168 Y11.24644
G01 X30.62544 Y11.36506
G01 X30.63274 Y11.39736
G01 X30.63729 Y11.42388
G01 X30.65599 Y11.58212
G01 X30.65724 Y11.59574
G01 X30.65599 Y11.60936
G01 X30.63730 Y11.76756
G01 X30.63275 Y11.79409
G01 X30.62198 Y11.84174
G01 X30.61543 Y11.89113
G01 X30.66131 Y11.95240
G01 X33.04307 Y14.33415
G01 X33.08385 Y14.36756
G01 X33.13633 Y14.37278
G01 X34.00323 Y14.37278
G01 X34.08524 Y14.36003
G01 X34.16724 Y14.32180
G01 X34.24519 Y14.27333
G01 X34.23024 Y14.21280
G01 X34.22985 Y14.21120
G01 X34.21955 Y14.16891
G01 X34.16134 Y14.04889
G01 X34.14299 Y14.02683
G01 X34.12703 Y14.00545
G01 X34.08349 Y13.94025
G01 X34.04868 Y13.86962
G01 X34.03817 Y13.84514
G01 X33.99511 Y13.72838
G01 X33.98792 Y13.69660
G01 X33.98336 Y13.67006
G01 X33.96492 Y13.51434
G01 X33.96367 Y13.50074
G01 X33.96492 Y13.48713
G01 X33.98336 Y13.33139
G01 X33.98792 Y13.30484
G01 X33.99510 Y13.27312
G01 X34.03820 Y13.15631
G01 X34.04871 Y13.13185
G01 X34.08342 Y13.06144
G01 X34.12709 Y12.99603
G01 X34.14304 Y12.97465
G01 X34.22255 Y12.87899
G01 X34.24653 Y12.85682
G01 X34.26724 Y12.83959
G01 X34.39290 Y12.74576
G01 X34.40396 Y12.73794
G01 X34.41647 Y12.73217
G01 X34.56055 Y12.67030
G01 X34.58581 Y12.66099
G01 X34.61684 Y12.65136
G01 X34.73960 Y12.63025
G01 X34.76607 Y12.62712
G01 X34.84447 Y12.62197
G01 X34.92287 Y12.62712
G01 X34.94934 Y12.63026
G01 X35.07187 Y12.65133
G01 X35.10312 Y12.66103
G01 X35.12837 Y12.67034
G01 X35.27247 Y12.73221
G01 X35.28479 Y12.73788
G01 X35.29603 Y12.74583
G01 X35.42166 Y12.83965
G01 X35.44236 Y12.85687
G01 X35.46622 Y12.87893
G01 X35.54583 Y12.97471
G01 X35.56177 Y12.99608
G01 X35.60541 Y13.06144
G01 X35.64018 Y13.13188
G01 X35.65069 Y13.15633
G01 X35.69386 Y13.27318
G01 X35.70103 Y13.30484
G01 X35.70559 Y13.33137
G01 X35.72404 Y13.48711
G01 X35.72530 Y13.50074
G01 X35.72404 Y13.51436
G01 X35.70559 Y13.67008
G01 X35.70103 Y13.69660
G01 X35.69385 Y13.72831
G01 X35.65072 Y13.84513
G01 X35.64021 Y13.86958
G01 X35.60535 Y13.94023
G01 X35.56182 Y14.00539
G01 X35.54586 Y14.02676
G01 X35.50693 Y14.07356
G01 X35.45873 Y14.15932
G01 X35.44589 Y14.19515
G01 X35.43866 Y14.21722
G01 X35.41954 Y14.28120
G01 X35.49355 Y14.33233
G01 X35.50183 Y14.33791
G01 X35.51725 Y14.34802
G01 X35.56399 Y14.37350
G01 X35.58859 Y14.38426
G01 X35.62979 Y14.39831
G01 X35.63512 Y14.39964
G01 X35.64786 Y14.40316
G01 X35.65861 Y14.40925
G01 X35.70071 Y14.43447
G01 X35.72152 Y14.44836
G01 X35.76092 Y14.47758
G01 X35.77099 Y14.48544
G01 X35.78117 Y14.49379
G01 X36.35934 Y15.07195
G01 X36.36753 Y15.08193
G01 X36.37541 Y15.09202
G01 X36.40468 Y15.13143
G01 X36.41852 Y15.15213
G01 X36.44378 Y15.19422
G01 X36.45021 Y15.20556
G01 X36.45359 Y15.21777
G01 X36.46552 Y15.26538
G01 X36.46717 Y15.27234
G01 X36.47101 Y15.28972
G01 X36.48642 Y15.33750
G01 X36.49222 Y15.35113
G01 X36.52820 Y15.41553
G01 X36.57783 Y15.48737
G01 X36.53649 Y15.64171
G01 X36.52831 Y15.68010
G01 X36.50347 Y15.83690
G01 X36.50009 Y15.86895
G01 X36.49187 Y16.02576
G01 X36.49187 Y16.05571
G01 X36.50009 Y16.21250
G01 X36.50347 Y16.24455
G01 X36.52831 Y16.40135
G01 X36.53649 Y16.43974
G01 X36.57849 Y16.59655
G01 X36.58261 Y16.61101
G01 X36.53142 Y16.69334
G01 X36.49318 Y16.77534
G01 X36.48043 Y16.85735
G01 X36.48043 Y17.76413
G01 X36.49318 Y17.84613
G01 X36.53142 Y17.92813
G01 X36.58260 Y18.01046
G01 X36.62344 Y18.00099
G01 X36.63837 Y17.99813
G01 X36.78574 Y17.93612
G01 X36.80415 Y17.92193
G01 X36.80724 Y17.91959
G01 X36.93290 Y17.82576
G01 X36.94396 Y17.81794
G01 X36.95647 Y17.81217
G01 X37.10055 Y17.75030
G01 X37.12581 Y17.74099
G01 X37.15684 Y17.73136
G01 X37.27960 Y17.71025
G01 X37.30607 Y17.70712
G01 X37.38447 Y17.70197
G01 X37.46287 Y17.70712
G01 X37.48934 Y17.71026
G01 X37.61187 Y17.73133
G01 X37.64312 Y17.74103
G01 X37.66837 Y17.75034
G01 X37.81247 Y17.81221
G01 X37.82479 Y17.81788
G01 X37.83603 Y17.82583
G01 X37.96166 Y17.91965
G01 X37.98236 Y17.93687
G01 X38.00622 Y17.95893
G01 X38.08583 Y18.05471
G01 X38.10177 Y18.07608
G01 X38.14541 Y18.14144
G01 X38.18018 Y18.21188
G01 X38.19069 Y18.23633
G01 X38.23386 Y18.35318
G01 X38.24103 Y18.38484
G01 X38.24559 Y18.41137
G01 X38.26404 Y18.56711
G01 X38.26530 Y18.58074
G01 X38.26404 Y18.59436
G01 X38.24559 Y18.75008
G01 X38.24103 Y18.77660
G01 X38.23386 Y18.80829
G01 X38.19070 Y18.92512
G01 X38.18018 Y18.94957
G01 X38.14540 Y19.02003
G01 X38.10178 Y19.08537
G01 X38.08584 Y19.10674
G01 X38.00621 Y19.20254
G01 X37.98237 Y19.22458
G01 X37.96167 Y19.24180
G01 X37.83604 Y19.33563
G01 X37.82478 Y19.34358
G01 X37.81247 Y19.34925
G01 X37.66837 Y19.41112
G01 X37.64312 Y19.42043
G01 X37.61187 Y19.43013
G01 X37.48934 Y19.45120
G01 X37.46287 Y19.45434
G01 X37.38447 Y19.45948
G01 X37.30607 Y19.45434
G01 X37.27960 Y19.45120
G01 X37.15684 Y19.43010
G01 X37.12581 Y19.42047
G01 X37.10054 Y19.41116
G01 X36.95646 Y19.34929
G01 X36.94396 Y19.34352
G01 X36.93289 Y19.33570
G01 X36.80724 Y19.24187
G01 X36.80416 Y19.23953
G01 X36.78573 Y19.22534
G01 X36.63837 Y19.16333
G01 X36.62343 Y19.16046
G01 X36.58261 Y19.15101
G01 X36.53142 Y19.23334
G01 X36.49318 Y19.31534
G01 X36.48043 Y19.39735
G01 X36.48043 Y19.85374
G01 X36.47915 Y19.86674
G01 X36.47758 Y19.87951
G01 X36.47036 Y19.92804
G01 X36.46551 Y19.95243
G01 X36.45359 Y20.00004
G01 X36.45018 Y20.01236
G01 X36.44384 Y20.02356
G01 X36.41860 Y20.06565
G01 X36.40476 Y20.08636
G01 X36.37553 Y20.12578
G01 X36.36764 Y20.13589
G01 X36.35925 Y20.14611
G01 X35.73064 Y20.77474
G01 X35.68552 Y20.83463
G01 X35.69211 Y20.88536
G01 X35.70104 Y20.92484
G01 X35.70560 Y20.95137
G01 X35.72405 Y21.10711
G01 X35.72530 Y21.12073
G01 X35.72404 Y21.13436
G01 X35.70559 Y21.29008
G01 X35.70103 Y21.31660
G01 X35.69385 Y21.34831
G01 X35.65072 Y21.46513
G01 X35.64021 Y21.48958
G01 X35.60535 Y21.56024
G01 X35.56182 Y21.62540
G01 X35.54587 Y21.64676
G01 X35.46624 Y21.74251
G01 X35.44237 Y21.76458
G01 X35.42167 Y21.78180
G01 X35.29604 Y21.87563
G01 X35.28478 Y21.88358
G01 X35.27247 Y21.88925
G01 X35.12837 Y21.95112
G01 X35.10312 Y21.96043
G01 X35.07187 Y21.97013
G01 X34.94934 Y21.99120
G01 X34.92287 Y21.99434
G01 X34.84447 Y21.99948
G01 X34.76607 Y21.99434
G01 X34.73960 Y21.99120
G01 X34.61684 Y21.97010
G01 X34.58581 Y21.96047
G01 X34.56054 Y21.95116
G01 X34.41646 Y21.88929
G01 X34.40396 Y21.88352
G01 X34.39289 Y21.87570
G01 X34.26724 Y21.78187
G01 X34.24652 Y21.76463
G01 X34.22253 Y21.74245
G01 X34.14300 Y21.64682
G01 X34.12704 Y21.62544
G01 X34.08348 Y21.56024
G01 X34.04868 Y21.48962
G01 X34.03817 Y21.46514
G01 X33.99511 Y21.34838
G01 X33.98792 Y21.31660
G01 X33.98336 Y21.29006
G01 X33.96492 Y21.13434
G01 X33.96367 Y21.12074
G01 X33.96492 Y21.10713
G01 X33.98336 Y20.95139
G01 X33.98792 Y20.92484
G01 X33.99513 Y20.89299
G01 X34.01982 Y20.82586
G01 X34.03293 Y20.77460
G01 X34.03735 Y20.74529
G01 X34.02741 Y20.58653
G01 X34.01988 Y20.55416
G01 X34.01196 Y20.51532
G01 X33.91611 Y20.52471
G01 X33.79382 Y20.55374
G01 X33.70261 Y20.61387
G01 X33.01014 Y21.30634
G01 X33.00372 Y21.31197
G01 X32.99396 Y21.32012
G01 X32.91718 Y21.38107
G01 X32.89678 Y21.39569
G01 X32.87274 Y21.41119
G01 X32.80985 Y21.44096
G01 X32.78678 Y21.45052
G01 X32.75971 Y21.46022
G01 X32.72131 Y21.47392
G01 X32.69328 Y21.47997
G01 X32.66855 Y21.48406
G01 X32.57117 Y21.49527
G01 X32.55848 Y21.49641
G01 X32.54995 Y21.49697
G01 X23.16632 Y21.49697
G01 X23.05610 Y21.52029
G01 X23.03443 Y21.62721
G01 X23.03443 Y22.64474
G01 X23.05426 Y22.74702
G01 X23.16632 Y22.77174
G01 X23.22398 Y22.77174
G01 X23.32919 Y22.79353
G01 X23.35098 Y22.89874
G01 X23.35098 Y24.42274
G01 X23.32919 Y24.52795
G01 X23.22398 Y24.54974
G01 X23.16632 Y24.54974
G01 X23.05426 Y24.57445
G01 X23.03443 Y24.67674
G01 X23.03443 Y25.18474
G01 X23.05426 Y25.28702
G01 X23.16632 Y25.31174
G01 X23.22398 Y25.31174
G01 X23.32919 Y25.33353
G01 X23.35098 Y25.43874
G01 X23.35098 Y26.96274
G01 X23.32919 Y27.06795
G01 X23.22398 Y27.08974
G01 X22.08098 Y27.08974
G01 X21.97577 Y27.06795
G01 X21.95398 Y26.96274
G01 X21.95398 Y25.43874
G01 X21.97577 Y25.33353
G01 X22.08098 Y25.31174
G01 X22.13839 Y25.31174
G01 X22.25062 Y25.28694
G01 X22.27040 Y25.18474
G01 X22.27040 Y24.67674
G01 X22.25062 Y24.57453
G01 X22.13839 Y24.54974
G01 X22.08098 Y24.54974
G01 X21.97577 Y24.52795
G01 X21.95398 Y24.42274
G01 X21.95398 Y22.89874
G01 X21.97577 Y22.79353
G01 X22.08098 Y22.77174
G01 X22.13839 Y22.77174
G01 X22.25062 Y22.74694
G01 X22.27040 Y22.64474
G01 X22.27040 Y21.62721
G01 X22.24879 Y21.52037
G01 X22.13839 Y21.49697
G01 X2.84902 Y21.49697
G01 X2.84048 Y21.49641
G01 X2.82780 Y21.49527
G01 X2.73039 Y21.48406
G01 X2.70566 Y21.47997
G01 X2.67773 Y21.47394
G01 X2.61217 Y21.45050
G01 X2.58910 Y21.44095
G01 X2.58500 Y21.43901
G01 X2.52621 Y21.41119
G01 X2.50216 Y21.39568
G01 X2.48176 Y21.38106
G01 X2.40498 Y21.32011
G01 X2.39523 Y21.31197
G01 X2.38882 Y21.30635
G01 X1.63887 Y20.55640
G01 X1.63323 Y20.54996
G01 X1.62508 Y20.54021
G01 X1.56413 Y20.46343
G01 X1.54951 Y20.44303
G01 X1.53402 Y20.41900
G01 X1.50424 Y20.35610
G01 X1.49468 Y20.33303
G01 X1.48499 Y20.30597
G01 X1.47129 Y20.26757
G01 X1.46523 Y20.23953
G01 X1.46114 Y20.21477
G01 X1.44994 Y20.11739
G01 X1.44880 Y20.10474
G01 X1.44824 Y20.09620
G01 X1.44824 Y19.59674
G01 X1.41992 Y19.47526
G01 X1.41128 Y19.46883
G01 X1.37998 Y19.34274
G01 X1.37998 Y17.81874
G01 X1.41128 Y17.69264
G01 X1.41992 Y17.68621
G01 X1.44824 Y17.56474
G01 X1.44824 Y16.54874
G01 X1.41992 Y16.42726
G01 X1.41128 Y16.42083
G01 X1.37998 Y16.29474
G01 X1.37998 Y14.77074
G01 X1.41128 Y14.64464
G01 X1.41992 Y14.63821
G01 X1.44824 Y14.51674
G01 X1.44823 Y13.12075
G01 X1.43659 Y13.04287
G01 X1.38997 Y13.01073
G01 X1.38010 Y13.00534
G01 X1.36684 Y12.99607
G01 X1.23922 Y12.90075
G01 X1.21852 Y12.88352
G01 X1.19422 Y12.86105
G01 X1.11338 Y12.76382
G01 X1.09743 Y12.74246
G01 X1.05309 Y12.67606
G01 X1.01779 Y12.60450
G01 X1.00727 Y12.58000
G01 X0.96350 Y12.46135
G01 X0.95619 Y12.42909
G01 X0.95162 Y12.40254
G01 X0.93286 Y12.24435
G01 X0.93161 Y12.23074
G04 P0 ( dwell for no time -- G64 should not smooth over this point )
G00 Z10.00000 ( retract )

G00 X1.45287 Y21.52244 ( rapid move to begin. )
G01 F30.00000
G01 Z-0.10000
G04 P0 ( dwell for no time -- G64 should not smooth over this point )
G01 F360.00000
G01 X1.45287 Y21.52244
G01 X1.45391 Y21.51784
G01 X1.45859 Y21.51740
G01 X1.55094 Y21.52945
G01 X1.55163 Y21.52956
G01 X1.55223 Y21.52979
G01 X1.76592 Y21.61843
G01 X1.76654 Y21.61871
G01 X1.76707 Y21.61909
G01 X1.95061 Y21.75996
G01 X1.95114 Y21.76039
G01 X1.95155 Y21.76089
G01 X2.09242 Y21.94444
G01 X2.09282 Y21.94500
G01 X2.09308 Y21.94558
G01 X2.18173 Y22.15927
G01 X2.18197 Y22.15991
G01 X2.18207 Y22.16056
G01 X2.19412 Y22.25292
G01 X2.19368 Y22.25761
G01 X2.18907 Y22.25866
G01 X1.95092 Y22.25866
G01 X1.94752 Y22.25809
G01 X1.94694 Y22.25707
G01 X1.94609 Y22.25514
G01 X1.90576 Y22.13099
G01 X1.90572 Y22.13087
G01 X1.90561 Y22.13057
G01 X1.90544 Y22.13020
G01 X1.90529 Y22.12990
G01 X1.90524 Y22.12981
G01 X1.83891 Y22.01495
G01 X1.83891 Y22.01494
G01 X1.83873 Y22.01464
G01 X1.83854 Y22.01439
G01 X1.83829 Y22.01408
G01 X1.83820 Y22.01399
G01 X1.74949 Y21.91545
G01 X1.74947 Y21.91543
G01 X1.74934 Y21.91529
G01 X1.74913 Y21.91510
G01 X1.74879 Y21.91481
G01 X1.74868 Y21.91472
G01 X1.74856 Y21.91463
G01 X1.64142 Y21.83679
G01 X1.64128 Y21.83669
G01 X1.64104 Y21.83653
G01 X1.64060 Y21.83628
G01 X1.64037 Y21.83616
G01 X1.64021 Y21.83608
G01 X1.51918 Y21.78221
G01 X1.51908 Y21.78216
G01 X1.51883 Y21.78206
G01 X1.51859 Y21.78197
G01 X1.51832 Y21.78190
G01 X1.51807 Y21.78184
G01 X1.51798 Y21.78181
G01 X1.45688 Y21.76883
G01 X1.45349 Y21.76746
G01 X1.45286 Y21.76386
G01 X1.45287 Y21.52244
G04 P0 ( dwell for no time -- G64 should not smooth over this point )
G00 Z10.00000 ( retract )

G00 X1.45286 Y23.01758 ( rapid move to begin. )
G01 F30.00000
G01 Z-0.10000
G04 P0 ( dwell for no time -- G64 should not smooth over this point )
G01 F360.00000
G01 X1.45286 Y23.01758
G01 X1.45349 Y23.01398
G01 X1.45688 Y23.01261
G01 X1.51798 Y22.99963
G01 X1.51807 Y22.99961
G01 X1.51832 Y22.99955
G01 X1.51859 Y22.99947
G01 X1.51883 Y22.99938
G01 X1.51908 Y22.99928
G01 X1.51918 Y22.99924
G01 X1.64020 Y22.94536
G01 X1.64034 Y22.94529
G01 X1.64060 Y22.94516
G01 X1.64103 Y22.94491
G01 X1.64126 Y22.94476
G01 X1.64142 Y22.94465
G01 X1.74856 Y22.86681
G01 X1.74868 Y22.86673
G01 X1.74879 Y22.86663
G01 X1.74913 Y22.86634
G01 X1.74934 Y22.86615
G01 X1.74947 Y22.86602
G01 X1.74949 Y22.86599
G01 X1.83820 Y22.76746
G01 X1.83829 Y22.76736
G01 X1.83854 Y22.76705
G01 X1.83873 Y22.76681
G01 X1.83891 Y22.76650
G01 X1.83891 Y22.76649
G01 X1.90524 Y22.65164
G01 X1.90529 Y22.65154
G01 X1.90544 Y22.65125
G01 X1.90561 Y22.65088
G01 X1.90572 Y22.65057
G01 X1.90576 Y22.65045
G01 X1.94609 Y22.52630
G01 X1.94694 Y22.52438
G01 X1.94752 Y22.52336
G01 X1.95092 Y22.52279
G01 X2.18907 Y22.52280
G01 X2.19369 Y22.52385
G01 X2.19412 Y22.52853
G01 X2.18208 Y22.62088
G01 X2.18196 Y22.62156
G01 X2.18173 Y22.62217
G01 X2.09309 Y22.83586
G01 X2.09282 Y22.83647
G01 X2.09242 Y22.83701
G01 X1.95156 Y23.02056
G01 X1.95114 Y23.02107
G01 X1.95062 Y23.02149
G01 X1.76708 Y23.16236
G01 X1.76653 Y23.16275
G01 X1.76593 Y23.16302
G01 X1.55224 Y23.25167
G01 X1.55162 Y23.25190
G01 X1.55095 Y23.25201
G01 X1.45859 Y23.26405
G01 X1.45392 Y23.26362
G01 X1.45287 Y23.25901
G01 X1.45286 Y23.01758
G04 P0 ( dwell for no time -- G64 should not smooth over this point )
G00 Z10.00000 ( retract )

G00 X1.71791 Y24.79762 ( rapid move to begin. )
G01 F30.00000
G01 Z-0.10000
G04 P0 ( dwell for no time -- G64 should not smooth over this point )
G01 F360.00000
G01 X1.71791 Y24.79762
G01 X1.71747 Y24.79292
G01 X1.72951 Y24.70057
G01 X1.72962 Y24.69991
G01 X1.72986 Y24.69928
G01 X1.81850 Y24.48559
G01 X1.81877 Y24.48499
G01 X1.81916 Y24.48444
G01 X1.96003 Y24.30090
G01 X1.96045 Y24.30039
G01 X1.96097 Y24.29996
G01 X2.14451 Y24.15910
G01 X2.14506 Y24.15871
G01 X2.14565 Y24.15844
G01 X2.35934 Y24.06979
G01 X2.35997 Y24.06956
G01 X2.36063 Y24.06945
G01 X2.45298 Y24.05741
G01 X2.45768 Y24.05785
G01 X2.45872 Y24.06244
G01 X2.45872 Y24.30386
G01 X2.45808 Y24.30746
G01 X2.45470 Y24.30883
G01 X2.39360 Y24.32181
G01 X2.39351 Y24.32184
G01 X2.39326 Y24.32190
G01 X2.39299 Y24.32197
G01 X2.39275 Y24.32206
G01 X2.39250 Y24.32216
G01 X2.39240 Y24.32221
G01 X2.27137 Y24.37609
G01 X2.27123 Y24.37616
G01 X2.27098 Y24.37628
G01 X2.27054 Y24.37654
G01 X2.27031 Y24.37669
G01 X2.27015 Y24.37679
G01 X2.16301 Y24.45463
G01 X2.16290 Y24.45472
G01 X2.16278 Y24.45481
G01 X2.16244 Y24.45510
G01 X2.16223 Y24.45529
G01 X2.16211 Y24.45543
G01 X2.16208 Y24.45545
G01 X2.07337 Y24.55399
G01 X2.07329 Y24.55408
G01 X2.07303 Y24.55439
G01 X2.07285 Y24.55464
G01 X2.07266 Y24.55494
G01 X2.07266 Y24.55495
G01 X2.00634 Y24.66981
G01 X2.00629 Y24.66990
G01 X2.00613 Y24.67020
G01 X2.00597 Y24.67057
G01 X2.00585 Y24.67087
G01 X2.00581 Y24.67099
G01 X1.96548 Y24.79514
G01 X1.96463 Y24.79707
G01 X1.96405 Y24.79809
G01 X1.96065 Y24.79866
G01 X1.72250 Y24.79866
G01 X1.71791 Y24.79762
G04 P0 ( dwell for no time -- G64 should not smooth over this point )
G00 Z10.00000 ( retract )

G00 X1.71747 Y25.06853 ( rapid move to begin. )
G01 F30.00000
G01 Z-0.10000
G04 P0 ( dwell for no time -- G64 should not smooth over this point )
G01 F360.00000
G01 X1.71747 Y25.06853
G01 X1.71790 Y25.06385
G01 X1.72250 Y25.06280
G01 X1.96065 Y25.06279
G01 X1.96405 Y25.06336
G01 X1.96463 Y25.06438
G01 X1.96548 Y25.06630
G01 X2.00581 Y25.19045
G01 X2.00585 Y25.19057
G01 X2.00597 Y25.19088
G01 X2.00613 Y25.19125
G01 X2.00629 Y25.19154
G01 X2.00634 Y25.19164
G01 X2.07266 Y25.30649
G01 X2.07266 Y25.30650
G01 X2.07285 Y25.30681
G01 X2.07303 Y25.30705
G01 X2.07329 Y25.30736
G01 X2.07337 Y25.30746
G01 X2.16208 Y25.40599
G01 X2.16211 Y25.40602
G01 X2.16223 Y25.40615
G01 X2.16244 Y25.40634
G01 X2.16278 Y25.40663
G01 X2.16290 Y25.40673
G01 X2.16301 Y25.40681
G01 X2.27015 Y25.48466
G01 X2.27029 Y25.48475
G01 X2.27054 Y25.48491
G01 X2.27097 Y25.48517
G01 X2.27121 Y25.48528
G01 X2.27137 Y25.48536
G01 X2.39240 Y25.53924
G01 X2.39250 Y25.53928
G01 X2.39275 Y25.53938
G01 X2.39299 Y25.53947
G01 X2.39326 Y25.53955
G01 X2.39351 Y25.53961
G01 X2.39360 Y25.53963
G01 X2.45470 Y25.55261
G01 X2.45808 Y25.55398
G01 X2.45872 Y25.55758
G01 X2.45872 Y25.79901
G01 X2.45768 Y25.80362
G01 X2.45298 Y25.80405
G01 X2.36063 Y25.79201
G01 X2.35997 Y25.79190
G01 X2.35934 Y25.79166
G01 X2.14565 Y25.70302
G01 X2.14507 Y25.70276
G01 X2.14450 Y25.70235
G01 X1.96096 Y25.56149
G01 X1.96046 Y25.56108
G01 X1.96002 Y25.56055
G01 X1.81916 Y25.37701
G01 X1.81878 Y25.37647
G01 X1.81850 Y25.37586
G01 X1.72985 Y25.16217
G01 X1.72962 Y25.16156
G01 X1.72951 Y25.16088
G01 X1.71747 Y25.06853
G04 P0 ( dwell for no time -- G64 should not smooth over this point )
G00 Z10.00000 ( retract )

G00 X1.95656 Y8.68490 ( rapid move to begin. )
G01 F30.00000
G01 Z-0.10000
G04 P0 ( dwell for no time -- G64 should not smooth over this point )
G01 F360.00000
G01 X1.95656 Y8.68490
G01 X1.95743 Y8.68069
G01 X1.96164 Y8.67982
G01 X2.83032 Y8.67982
G01 X2.83453 Y8.68069
G01 X2.83540 Y8.68490
G01 X2.83540 Y9.55358
G01 X2.83453 Y9.55778
G01 X2.83032 Y9.55866
G01 X2.59664 Y9.55866
G01 X2.59243 Y9.55778
G01 X2.59156 Y9.55358
G01 X2.59156 Y8.92883
G01 X2.59156 Y8.92874
G01 X2.59155 Y8.92840
G01 X2.59152 Y8.92808
G01 X2.59145 Y8.92769
G01 X2.59138 Y8.92740
G01 X2.59127 Y8.92707
G01 X2.59109 Y8.92660
G01 X2.59099 Y8.92639
G01 X2.59085 Y8.92616
G01 X2.59058 Y8.92575
G01 X2.59037 Y8.92546
G01 X2.59017 Y8.92523
G01 X2.58996 Y8.92503
G01 X2.58973 Y8.92483
G01 X2.58944 Y8.92461
G01 X2.58903 Y8.92434
G01 X2.58880 Y8.92421
G01 X2.58858 Y8.92411
G01 X2.58812 Y8.92393
G01 X2.58779 Y8.92382
G01 X2.58750 Y8.92376
G01 X2.58711 Y8.92369
G01 X2.58689 Y8.92366
G01 X2.58648 Y8.92366
G01 X1.96164 Y8.92366
G01 X1.95743 Y8.92278
G01 X1.95656 Y8.91858
G01 X1.95656 Y8.68490
G04 P0 ( dwell for no time -- G64 should not smooth over this point )
G00 Z10.00000 ( retract )

G00 X1.95656 Y10.46290 ( rapid move to begin. )
G01 F30.00000
G01 Z-0.10000
G04 P0 ( dwell for no time -- G64 should not smooth over this point )
G01 F360.00000
G01 X1.95656 Y10.46290
G01 X1.95743 Y10.45869
G01 X1.96164 Y10.45782
G01 X2.58639 Y10.45782
G01 X2.58648 Y10.45781
G01 X2.58679 Y10.45780
G01 X2.58711 Y10.45777
G01 X2.58751 Y10.45770
G01 X2.58780 Y10.45763
G01 X2.58812 Y10.45753
G01 X2.58859 Y10.45734
G01 X2.58881 Y10.45724
G01 X2.58904 Y10.45711
G01 X2.58945 Y10.45684
G01 X2.58974 Y10.45663
G01 X2.58997 Y10.45643
G01 X2.59017 Y10.45622
G01 X2.59037 Y10.45599
G01 X2.59059 Y10.45570
G01 X2.59086 Y10.45529
G01 X2.59099 Y10.45506
G01 X2.59109 Y10.45484
G01 X2.59127 Y10.45438
G01 X2.59138 Y10.45405
G01 X2.59145 Y10.45376
G01 X2.59152 Y10.45336
G01 X2.59155 Y10.45305
G01 X2.59156 Y10.45274
G01 X2.59156 Y10.45264
G01 X2.59156 Y9.82790
G01 X2.59243 Y9.82369
G01 X2.59664 Y9.82282
G01 X2.83032 Y9.82282
G01 X2.83453 Y9.82369
G01 X2.83540 Y9.82790
G01 X2.83540 Y10.69658
G01 X2.83453 Y10.70078
G01 X2.83032 Y10.70166
G01 X1.96164 Y10.70166
G01 X1.95743 Y10.70078
G01 X1.95656 Y10.69658
G01 X1.95656 Y10.46290
G04 P0 ( dwell for no time -- G64 should not smooth over this point )
G00 Z10.00000 ( retract )

G00 X2.72287 Y24.06244 ( rapid move to begin. )
G01 F30.00000
G01 Z-0.10000
G04 P0 ( dwell for no time -- G64 should not smooth over this point )
G01 F360.00000
G01 X2.72287 Y24.06244
G01 X2.72391 Y24.05784
G01 X2.72859 Y24.05740
G01 X2.82094 Y24.06945
G01 X2.82163 Y24.06956
G01 X2.82223 Y24.06979
G01 X3.03592 Y24.15843
G01 X3.03654 Y24.15871
G01 X3.03707 Y24.15909
G01 X3.22061 Y24.29996
G01 X3.22114 Y24.30039
G01 X3.22155 Y24.30089
G01 X3.36241 Y24.48444
G01 X3.36280 Y24.48499
G01 X3.36307 Y24.48559
G01 X3.45173 Y24.69927
G01 X3.45197 Y24.69991
G01 X3.45207 Y24.70056
G01 X3.46412 Y24.79292
G01 X3.46368 Y24.79761
G01 X3.45907 Y24.79866
G01 X3.22092 Y24.79866
G01 X3.21752 Y24.79809
G01 X3.21694 Y24.79707
G01 X3.21609 Y24.79514
G01 X3.17576 Y24.67099
G01 X3.17572 Y24.67087
G01 X3.17561 Y24.67057
G01 X3.17544 Y24.67020
G01 X3.17529 Y24.66990
G01 X3.17524 Y24.66981
G01 X3.10891 Y24.55495
G01 X3.10891 Y24.55494
G01 X3.10873 Y24.55464
G01 X3.10854 Y24.55439
G01 X3.10829 Y24.55408
G01 X3.10820 Y24.55399
G01 X3.01949 Y24.45545
G01 X3.01947 Y24.45543
G01 X3.01934 Y24.45529
G01 X3.01913 Y24.45510
G01 X3.01879 Y24.45481
G01 X3.01868 Y24.45472
G01 X3.01856 Y24.45463
G01 X2.91142 Y24.37679
G01 X2.91128 Y24.37669
G01 X2.91104 Y24.37653
G01 X2.91060 Y24.37628
G01 X2.91037 Y24.37616
G01 X2.91021 Y24.37608
G01 X2.78918 Y24.32221
G01 X2.78908 Y24.32216
G01 X2.78883 Y24.32206
G01 X2.78859 Y24.32197
G01 X2.78832 Y24.32190
G01 X2.78807 Y24.32184
G01 X2.78798 Y24.32181
G01 X2.72688 Y24.30883
G01 X2.72349 Y24.30746
G01 X2.72286 Y24.30386
G01 X2.72287 Y24.06244
G04 P0 ( dwell for no time -- G64 should not smooth over this point )
G00 Z10.00000 ( retract )

G00 X2.72286 Y25.55758 ( rapid move to begin. )
G01 F30.00000
G01 Z-0.10000
G04 P0 ( dwell for no time -- G64 should not smooth over this point )
G01 F360.00000
G01 X2.72286 Y25.55758
G01 X2.72349 Y25.55398
G01 X2.72688 Y25.55261
G01 X2.78798 Y25.53963
G01 X2.78807 Y25.53961
G01 X2.78832 Y25.53955
G01 X2.78859 Y25.53947
G01 X2.78883 Y25.53938
G01 X2.78908 Y25.53928
G01 X2.78918 Y25.53924
G01 X2.91020 Y25.48536
G01 X2.91034 Y25.48529
G01 X2.91060 Y25.48516
G01 X2.91103 Y25.48491
G01 X2.91126 Y25.48476
G01 X2.91142 Y25.48465
G01 X3.01856 Y25.40681
G01 X3.01868 Y25.40673
G01 X3.01879 Y25.40663
G01 X3.01913 Y25.40634
G01 X3.01934 Y25.40615
G01 X3.01947 Y25.40602
G01 X3.01949 Y25.40599
G01 X3.10820 Y25.30746
G01 X3.10829 Y25.30736
G01 X3.10854 Y25.30705
G01 X3.10873 Y25.30681
G01 X3.10891 Y25.30650
G01 X3.10891 Y25.30649
G01 X3.17524 Y25.19164
G01 X3.17529 Y25.19154
G01 X3.17544 Y25.19125
G01 X3.17561 Y25.19088
G01 X3.17572 Y25.19057
G01 X3.17576 Y25.19045
G01 X3.21609 Y25.06630
G01 X3.21694 Y25.06438
G01 X3.21752 Y25.06336
G01 X3.22092 Y25.06279
G01 X3.45907 Y25.06280
G01 X3.46369 Y25.06385
G01 X3.46412 Y25.06853
G01 X3.45208 Y25.16088
G01 X3.45196 Y25.16156
G01 X3.45173 Y25.16217
G01 X3.36308 Y25.37586
G01 X3.36280 Y25.37647
G01 X3.36242 Y25.37701
G01 X3.22156 Y25.56056
G01 X3.22114 Y25.56107
G01 X3.22062 Y25.56149
G01 X3.03708 Y25.70236
G01 X3.03653 Y25.70275
G01 X3.03593 Y25.70302
G01 X2.82224 Y25.79167
G01 X2.82162 Y25.79190
G01 X2.82095 Y25.79201
G01 X2.72859 Y25.80405
G01 X2.72392 Y25.80362
G01 X2.72287 Y25.79901
G01 X2.72286 Y25.55758
G04 P0 ( dwell for no time -- G64 should not smooth over this point )
G00 Z10.00000 ( retract )

G00 X3.29006 Y14.52690 ( rapid move to begin. )
G01 F30.00000
G01 Z-0.10000
G04 P0 ( dwell for no time -- G64 should not smooth over this point )
G01 F360.00000
G01 X3.29006 Y14.52690
G01 X3.29093 Y14.52269
G01 X3.29514 Y14.52182
G01 X3.97332 Y14.52182
G01 X3.97753 Y14.52269
G01 X3.97840 Y14.52690
G01 X3.97840 Y14.76058
G01 X3.97753 Y14.76478
G01 X3.97332 Y14.76566
G01 X3.53898 Y14.76566
G01 X3.53855 Y14.76566
G01 X3.53833 Y14.76569
G01 X3.53793 Y14.76576
G01 X3.53765 Y14.76583
G01 X3.53732 Y14.76593
G01 X3.53686 Y14.76612
G01 X3.53664 Y14.76622
G01 X3.53641 Y14.76635
G01 X3.53600 Y14.76662
G01 X3.53571 Y14.76683
G01 X3.53549 Y14.76703
G01 X3.53528 Y14.76724
G01 X3.53508 Y14.76747
G01 X3.53486 Y14.76775
G01 X3.53460 Y14.76816
G01 X3.53446 Y14.76839
G01 X3.53436 Y14.76861
G01 X3.53418 Y14.76908
G01 X3.53407 Y14.76940
G01 X3.53401 Y14.76969
G01 X3.53394 Y14.77008
G01 X3.53391 Y14.77031
G01 X3.53390 Y14.77074
G01 X3.53390 Y15.39558
G01 X3.53303 Y15.39978
G01 X3.52882 Y15.40066
G01 X3.29514 Y15.40066
G01 X3.29093 Y15.39978
G01 X3.29006 Y15.39558
G01 X3.29006 Y14.52690
G04 P0 ( dwell for no time -- G64 should not smooth over this point )
G00 Z10.00000 ( retract )

G00 X3.29006 Y15.66990 ( rapid move to begin. )
G01 F30.00000
G01 Z-0.10000
G04 P0 ( dwell for no time -- G64 should not smooth over this point )
G01 F360.00000
G01 X3.29006 Y15.66990
G01 X3.29093 Y15.66569
G01 X3.29514 Y15.66482
G01 X3.52882 Y15.66482
G01 X3.53303 Y15.66569
G01 X3.53390 Y15.66990
G01 X3.53390 Y16.29474
G01 X3.53391 Y16.29514
G01 X3.53393 Y16.29536
G01 X3.53400 Y16.29576
G01 X3.53407 Y16.29605
G01 X3.53418 Y16.29637
G01 X3.53436 Y16.29684
G01 X3.53446 Y16.29705
G01 X3.53459 Y16.29729
G01 X3.53486 Y16.29770
G01 X3.53507 Y16.29798
G01 X3.53527 Y16.29821
G01 X3.53548 Y16.29842
G01 X3.53571 Y16.29862
G01 X3.53599 Y16.29884
G01 X3.53640 Y16.29910
G01 X3.53664 Y16.29924
G01 X3.53685 Y16.29934
G01 X3.53732 Y16.29952
G01 X3.53764 Y16.29963
G01 X3.53793 Y16.29970
G01 X3.53833 Y16.29977
G01 X3.53864 Y16.29980
G01 X3.53898 Y16.29981
G01 X3.53907 Y16.29982
G01 X3.97332 Y16.29982
G01 X3.97753 Y16.30069
G01 X3.97840 Y16.30490
G01 X3.97840 Y16.53858
G01 X3.97753 Y16.54278
G01 X3.97332 Y16.54366
G01 X3.29514 Y16.54366
G01 X3.29093 Y16.54278
G01 X3.29006 Y16.53858
G01 X3.29006 Y15.66990
G04 P0 ( dwell for no time -- G64 should not smooth over this point )
G00 Z10.00000 ( retract )

G00 X3.29006 Y17.57490 ( rapid move to begin. )
G01 F30.00000
G01 Z-0.10000
G04 P0 ( dwell for no time -- G64 should not smooth over this point )
G01 F360.00000
G01 X3.29006 Y17.57490
G01 X3.29093 Y17.57069
G01 X3.29514 Y17.56982
G01 X3.97332 Y17.56982
G01 X3.97753 Y17.57069
G01 X3.97840 Y17.57490
G01 X3.97840 Y17.80858
G01 X3.97753 Y17.81278
G01 X3.97332 Y17.81366
G01 X3.53898 Y17.81366
G01 X3.53855 Y17.81366
G01 X3.53833 Y17.81369
G01 X3.53793 Y17.81376
G01 X3.53765 Y17.81383
G01 X3.53732 Y17.81393
G01 X3.53686 Y17.81412
G01 X3.53664 Y17.81422
G01 X3.53641 Y17.81435
G01 X3.53600 Y17.81462
G01 X3.53571 Y17.81483
G01 X3.53549 Y17.81503
G01 X3.53528 Y17.81524
G01 X3.53508 Y17.81547
G01 X3.53486 Y17.81575
G01 X3.53460 Y17.81616
G01 X3.53446 Y17.81639
G01 X3.53436 Y17.81661
G01 X3.53418 Y17.81708
G01 X3.53407 Y17.81740
G01 X3.53401 Y17.81769
G01 X3.53394 Y17.81808
G01 X3.53391 Y17.81831
G01 X3.53390 Y17.81874
G01 X3.53390 Y18.44358
G01 X3.53303 Y18.44778
G01 X3.52882 Y18.44866
G01 X3.29514 Y18.44866
G01 X3.29093 Y18.44778
G01 X3.29006 Y18.44358
G01 X3.29006 Y17.57490
G04 P0 ( dwell for no time -- G64 should not smooth over this point )
G00 Z10.00000 ( retract )

G00 X3.29006 Y18.71790 ( rapid move to begin. )
G01 F30.00000
G01 Z-0.10000
G04 P0 ( dwell for no time -- G64 should not smooth over this point )
G01 F360.00000
G01 X3.29006 Y18.71790
G01 X3.29093 Y18.71369
G01 X3.29514 Y18.71282
G01 X3.52882 Y18.71282
G01 X3.53303 Y18.71369
G01 X3.53390 Y18.71790
G01 X3.53390 Y19.34274
G01 X3.53391 Y19.34314
G01 X3.53393 Y19.34336
G01 X3.53400 Y19.34376
G01 X3.53407 Y19.34405
G01 X3.53418 Y19.34437
G01 X3.53436 Y19.34484
G01 X3.53446 Y19.34505
G01 X3.53459 Y19.34529
G01 X3.53486 Y19.34570
G01 X3.53507 Y19.34598
G01 X3.53527 Y19.34621
G01 X3.53548 Y19.34642
G01 X3.53571 Y19.34662
G01 X3.53599 Y19.34684
G01 X3.53640 Y19.34710
G01 X3.53664 Y19.34724
G01 X3.53685 Y19.34734
G01 X3.53732 Y19.34752
G01 X3.53764 Y19.34763
G01 X3.53793 Y19.34770
G01 X3.53833 Y19.34777
G01 X3.53864 Y19.34780
G01 X3.53898 Y19.34781
G01 X3.53907 Y19.34782
G01 X3.97332 Y19.34782
G01 X3.97753 Y19.34869
G01 X3.97840 Y19.35290
G01 X3.97840 Y19.58658
G01 X3.97753 Y19.59078
G01 X3.97332 Y19.59166
G01 X3.29514 Y19.59166
G01 X3.29093 Y19.59078
G01 X3.29006 Y19.58658
G01 X3.29006 Y18.71790
G04 P0 ( dwell for no time -- G64 should not smooth over this point )
G00 Z10.00000 ( retract )

G00 X3.47161 Y9.69074 ( rapid move to begin. )
G01 F30.00000
G01 Z-0.10000
G04 P0 ( dwell for no time -- G64 should not smooth over this point )
G01 F360.00000
G01 X3.47161 Y9.69074
G01 X3.47286 Y9.67712
G01 X3.49162 Y9.51890
G01 X3.49619 Y9.49235
G01 X3.50349 Y9.46012
G01 X3.54727 Y9.34144
G01 X3.55780 Y9.31695
G01 X3.59308 Y9.24540
G01 X3.63744 Y9.17899
G01 X3.65338 Y9.15763
G01 X3.73421 Y9.06041
G01 X3.75853 Y9.03793
G01 X3.77924 Y9.02070
G01 X3.90688 Y8.92537
G01 X3.91792 Y8.91756
G01 X3.93047 Y8.91177
G01 X4.07684 Y8.84889
G01 X4.10212 Y8.83956
G01 X4.13361 Y8.82978
G01 X4.25835 Y8.80833
G01 X4.28483 Y8.80519
G01 X4.36447 Y8.79995
G01 X4.44411 Y8.80519
G01 X4.47059 Y8.80833
G01 X4.59510 Y8.82976
G01 X4.62681 Y8.83961
G01 X4.65207 Y8.84892
G01 X4.79846 Y8.91181
G01 X4.81086 Y8.91753
G01 X4.82205 Y8.92543
G01 X4.94970 Y9.02072
G01 X4.97041 Y9.03794
G01 X4.99477 Y9.06045
G01 X5.07556 Y9.15763
G01 X5.09151 Y9.17899
G01 X5.13587 Y9.24541
G01 X5.17115 Y9.31694
G01 X5.18168 Y9.34144
G01 X5.22544 Y9.46006
G01 X5.23274 Y9.49236
G01 X5.23729 Y9.51888
G01 X5.25599 Y9.67712
G01 X5.25724 Y9.69074
G01 X5.25599 Y9.70436
G01 X5.23729 Y9.86256
G01 X5.23274 Y9.88909
G01 X5.22452 Y9.92547
G01 X5.21343 Y9.99227
G01 X5.25928 Y10.05349
G01 X5.89119 Y10.68540
G01 X5.89957 Y10.69562
G01 X5.90747 Y10.70573
G01 X5.93670 Y10.74515
G01 X5.95054 Y10.76586
G01 X5.97577 Y10.80796
G01 X5.98212 Y10.81917
G01 X5.98552 Y10.83147
G01 X5.99745 Y10.87908
G01 X6.00230 Y10.90348
G01 X6.00952 Y10.95204
G01 X6.01109 Y10.96480
G01 X6.01237 Y10.97779
G01 X6.01237 Y11.38974
G01 X6.02514 Y11.47183
G01 X6.06345 Y11.55391
G01 X6.11211 Y11.63210
G01 X6.11906 Y11.63071
G01 X6.17238 Y11.62045
G01 X6.29501 Y11.57477
G01 X6.31872 Y11.55998
G01 X6.33657 Y11.54778
G01 X6.44688 Y11.46537
G01 X6.45793 Y11.45756
G01 X6.47047 Y11.45177
G01 X6.61684 Y11.38889
G01 X6.64212 Y11.37956
G01 X6.67355 Y11.36980
G01 X6.79836 Y11.34839
G01 X6.82483 Y11.34527
G01 X6.90447 Y11.34007
G01 X6.98411 Y11.34527
G01 X7.01057 Y11.34840
G01 X7.13516 Y11.36978
G01 X7.16681 Y11.37961
G01 X7.19207 Y11.38892
G01 X7.33846 Y11.45181
G01 X7.35086 Y11.45753
G01 X7.36205 Y11.46543
G01 X7.48970 Y11.56072
G01 X7.51041 Y11.57794
G01 X7.53477 Y11.60045
G01 X7.61556 Y11.69763
G01 X7.63151 Y11.71899
G01 X7.67587 Y11.78541
G01 X7.71115 Y11.85694
G01 X7.72168 Y11.88144
G01 X7.76544 Y12.00006
G01 X7.77274 Y12.03236
G01 X7.77729 Y12.05888
G01 X7.79599 Y12.21712
G01 X7.79724 Y12.23074
G01 X7.79599 Y12.24436
G01 X7.77729 Y12.40256
G01 X7.77274 Y12.42909
G01 X7.76543 Y12.46141
G01 X7.72168 Y12.58001
G01 X7.71116 Y12.60451
G01 X7.67587 Y12.67606
G01 X7.63151 Y12.74246
G01 X7.61557 Y12.76382
G01 X7.53476 Y12.86102
G01 X7.51041 Y12.88352
G01 X7.48971 Y12.90073
G01 X7.36206 Y12.99602
G01 X7.35085 Y13.00394
G01 X7.33847 Y13.00964
G01 X7.19208 Y13.07253
G01 X7.16681 Y13.08185
G01 X7.13509 Y13.09170
G01 X7.01059 Y13.11313
G01 X6.98411 Y13.11627
G01 X6.90447 Y13.12151
G01 X6.82483 Y13.11627
G01 X6.79835 Y13.11313
G01 X6.67360 Y13.09167
G01 X6.64212 Y13.08190
G01 X6.61683 Y13.07258
G01 X6.47047 Y13.00971
G01 X6.47046 Y13.00971
G01 X6.44494 Y12.99875
G01 X6.36257 Y12.97661
G01 X6.26554 Y12.97467
G01 X6.19655 Y12.98005
G01 X6.19084 Y12.98048
G01 X6.17064 Y12.98193
G01 X6.15778 Y13.02422
G01 X6.16643 Y13.11259
G01 X6.19584 Y13.23645
G01 X6.25673 Y13.32883
G01 X6.51607 Y13.58816
G01 X6.55683 Y13.62156
G01 X6.60933 Y13.62678
G01 X11.51204 Y13.62677
G01 X11.57338 Y13.61964
G01 X11.61342 Y13.57270
G01 X11.61414 Y13.57163
G01 X11.63009 Y13.55026
G01 X11.69802 Y13.46859
G01 X11.71764 Y13.45046
G01 X11.73833 Y13.43326
G01 X11.84475 Y13.35385
G01 X11.85585 Y13.34602
G01 X11.86821 Y13.34031
G01 X11.99017 Y13.28787
G01 X12.01540 Y13.27856
G01 X12.04066 Y13.27071
G01 X12.14561 Y13.25269
G01 X12.17209 Y13.24956
G01 X12.23847 Y13.24522
G01 X12.30485 Y13.24956
G01 X12.33132 Y13.25269
G01 X12.43607 Y13.27068
G01 X12.46153 Y13.27859
G01 X12.48675 Y13.28789
G01 X12.60874 Y13.34031
G01 X12.62110 Y13.34601
G01 X12.63222 Y13.35387
G01 X12.73859 Y13.43331
G01 X12.75925 Y13.45051
G01 X12.77870 Y13.46849
G01 X12.84677 Y13.55033
G01 X12.86271 Y13.57168
G01 X12.89969 Y13.62702
G01 X12.92911 Y13.68662
G01 X12.93964 Y13.71111
G01 X12.97649 Y13.81091
G01 X12.98235 Y13.83682
G01 X12.98690 Y13.86331
G01 X13.00249 Y13.99516
G01 X13.00373 Y14.00873
G01 X13.00249 Y14.02231
G01 X12.98690 Y14.15414
G01 X12.98235 Y14.18062
G01 X12.97649 Y14.20654
G01 X12.93964 Y14.30634
G01 X12.92911 Y14.33082
G01 X12.89968 Y14.39045
G01 X12.86272 Y14.44577
G01 X12.84678 Y14.46712
G01 X12.77869 Y14.54898
G01 X12.75926 Y14.56695
G01 X12.73859 Y14.58414
G01 X12.63223 Y14.66358
G01 X12.62109 Y14.67145
G01 X12.60874 Y14.67714
G01 X12.48675 Y14.72956
G01 X12.46154 Y14.73886
G01 X12.43607 Y14.74677
G01 X12.33133 Y14.76476
G01 X12.30485 Y14.76789
G01 X12.23847 Y14.77224
G01 X12.17209 Y14.76790
G01 X12.14561 Y14.76477
G01 X12.04067 Y14.74675
G01 X12.01540 Y14.73890
G01 X11.99017 Y14.72958
G01 X11.86821 Y14.67715
G01 X11.85585 Y14.67144
G01 X11.84474 Y14.66360
G01 X11.73833 Y14.58419
G01 X11.71764 Y14.56699
G01 X11.69803 Y14.54887
G01 X11.63009 Y14.46719
G01 X11.61413 Y14.44582
G01 X11.61343 Y14.44477
G01 X11.57337 Y14.39782
G01 X11.51204 Y14.39069
G01 X6.40946 Y14.39069
G01 X6.39648 Y14.38941
G01 X6.38372 Y14.38784
G01 X6.33516 Y14.38063
G01 X6.31076 Y14.37578
G01 X6.26315 Y14.36386
G01 X6.25060 Y14.36038
G01 X6.23961 Y14.35415
G01 X6.21583 Y14.33990
G01 X6.21577 Y14.33986
G01 X6.19751 Y14.32892
G01 X6.17678 Y14.31508
G01 X6.13735 Y14.28586
G01 X6.12723 Y14.27796
G01 X6.11712 Y14.26967
G01 X5.36951 Y13.52206
G01 X5.36117 Y13.51189
G01 X5.35328 Y13.50177
G01 X5.32407 Y13.46233
G01 X5.31024 Y13.44160
G01 X5.28503 Y13.39949
G01 X5.27873 Y13.38837
G01 X5.27530 Y13.37597
G01 X5.26338 Y13.32836
G01 X5.25851 Y13.30391
G01 X5.25131 Y13.25537
G01 X5.24975 Y13.24267
G01 X5.24847 Y13.22968
G01 X5.24847 Y13.07783
G01 X5.23569 Y12.99574
G01 X5.19738 Y12.91366
G01 X5.14943 Y12.83661
G01 X5.08779 Y12.84847
G01 X4.97557 Y12.88816
G01 X4.95082 Y12.90228
G01 X4.92423 Y12.91969
G01 X4.82202 Y12.99603
G01 X4.81081 Y13.00395
G01 X4.79845 Y13.00965
G01 X4.65209 Y13.07253
G01 X4.62681 Y13.08185
G01 X4.59509 Y13.09170
G01 X4.47059 Y13.11313
G01 X4.44411 Y13.11627
G01 X4.36447 Y13.12151
G01 X4.28483 Y13.11627
G01 X4.25835 Y13.11313
G01 X4.13362 Y13.09167
G01 X4.10212 Y13.08189
G01 X4.07684 Y13.07257
G01 X3.93047 Y13.00969
G01 X3.91792 Y13.00390
G01 X3.90687 Y12.99608
G01 X3.77923 Y12.90075
G01 X3.75852 Y12.88352
G01 X3.73422 Y12.86105
G01 X3.65338 Y12.76382
G01 X3.63743 Y12.74246
G01 X3.59309 Y12.67606
G01 X3.55779 Y12.60450
G01 X3.54727 Y12.58000
G01 X3.50350 Y12.46135
G01 X3.49619 Y12.42909
G01 X3.49162 Y12.40254
G01 X3.47286 Y12.24435
G01 X3.47161 Y12.23074
G01 X3.47286 Y12.21712
G01 X3.49162 Y12.05890
G01 X3.49619 Y12.03235
G01 X3.50349 Y12.00012
G01 X3.54727 Y11.88144
G01 X3.55780 Y11.85695
G01 X3.59308 Y11.78540
G01 X3.63744 Y11.71899
G01 X3.65338 Y11.69763
G01 X3.73421 Y11.60041
G01 X3.75853 Y11.57793
G01 X3.77924 Y11.56070
G01 X3.90688 Y11.46537
G01 X3.91792 Y11.45756
G01 X3.93047 Y11.45177
G01 X4.07684 Y11.38889
G01 X4.10212 Y11.37956
G01 X4.13355 Y11.36980
G01 X4.25836 Y11.34839
G01 X4.28483 Y11.34527
G01 X4.36447 Y11.34007
G01 X4.44411 Y11.34527
G01 X4.47057 Y11.34840
G01 X4.59516 Y11.36978
G01 X4.62681 Y11.37961
G01 X4.65207 Y11.38892
G01 X4.79846 Y11.45181
G01 X4.81082 Y11.45751
G01 X4.82205 Y11.46544
G01 X4.92424 Y11.54177
G01 X4.95082 Y11.55918
G01 X4.97556 Y11.57330
G01 X5.08778 Y11.61299
G01 X5.14943 Y11.62485
G01 X5.19738 Y11.54781
G01 X5.23569 Y11.46573
G01 X5.24847 Y11.38365
G01 X5.24847 Y11.17765
G01 X5.24324 Y11.12515
G01 X5.20984 Y11.08438
G01 X4.71403 Y10.58858
G01 X4.65684 Y10.54500
G01 X4.62796 Y10.54726
G01 X4.60343 Y10.55031
G01 X4.47060 Y10.57315
G01 X4.44411 Y10.57628
G01 X4.36450 Y10.58151
G01 X4.28483 Y10.57627
G01 X4.25835 Y10.57313
G01 X4.13362 Y10.55167
G01 X4.10212 Y10.54189
G01 X4.07684 Y10.53257
G01 X3.93047 Y10.46969
G01 X3.91792 Y10.46390
G01 X3.90687 Y10.45608
G01 X3.77923 Y10.36075
G01 X3.75852 Y10.34352
G01 X3.73422 Y10.32105
G01 X3.65338 Y10.22382
G01 X3.63743 Y10.20246
G01 X3.59309 Y10.13606
G01 X3.55779 Y10.06450
G01 X3.54727 Y10.04000
G01 X3.50350 Y9.92135
G01 X3.49619 Y9.88909
G01 X3.49162 Y9.86254
G01 X3.47286 Y9.70435
G01 X3.47161 Y9.69074
G04 P0 ( dwell for no time -- G64 should not smooth over this point )
G00 Z10.00000 ( retract )

G00 X4.24256 Y14.52690 ( rapid move to begin. )
G01 F30.00000
G01 Z-0.10000
G04 P0 ( dwell for no time -- G64 should not smooth over this point )
G01 F360.00000
G01 X4.24256 Y14.52690
G01 X4.24343 Y14.52269
G01 X4.24764 Y14.52182
G01 X4.92582 Y14.52182
G01 X4.93003 Y14.52269
G01 X4.93090 Y14.52690
G01 X4.93090 Y15.39558
G01 X4.93003 Y15.39978
G01 X4.92582 Y15.40066
G01 X4.69214 Y15.40066
G01 X4.68793 Y15.39978
G01 X4.68706 Y15.39558
G01 X4.68706 Y14.77083
G01 X4.68706 Y14.77074
G01 X4.68705 Y14.77040
G01 X4.68702 Y14.77008
G01 X4.68695 Y14.76969
G01 X4.68688 Y14.76940
G01 X4.68677 Y14.76907
G01 X4.68659 Y14.76860
G01 X4.68649 Y14.76839
G01 X4.68635 Y14.76816
G01 X4.68608 Y14.76775
G01 X4.68587 Y14.76746
G01 X4.68567 Y14.76723
G01 X4.68546 Y14.76703
G01 X4.68523 Y14.76683
G01 X4.68494 Y14.76661
G01 X4.68453 Y14.76634
G01 X4.68430 Y14.76621
G01 X4.68408 Y14.76611
G01 X4.68362 Y14.76593
G01 X4.68329 Y14.76582
G01 X4.68300 Y14.76576
G01 X4.68261 Y14.76569
G01 X4.68239 Y14.76566
G01 X4.68198 Y14.76566
G01 X4.24764 Y14.76566
G01 X4.24343 Y14.76478
G01 X4.24256 Y14.76058
G01 X4.24256 Y14.52690
G04 P0 ( dwell for no time -- G64 should not smooth over this point )
G00 Z10.00000 ( retract )

G00 X4.24256 Y16.30490 ( rapid move to begin. )
G01 F30.00000
G01 Z-0.10000
G04 P0 ( dwell for no time -- G64 should not smooth over this point )
G01 F360.00000
G01 X4.24256 Y16.30490
G01 X4.24343 Y16.30069
G01 X4.24764 Y16.29982
G01 X4.68189 Y16.29982
G01 X4.68198 Y16.29981
G01 X4.68229 Y16.29980
G01 X4.68261 Y16.29977
G01 X4.68301 Y16.29970
G01 X4.68330 Y16.29963
G01 X4.68362 Y16.29953
G01 X4.68409 Y16.29934
G01 X4.68431 Y16.29924
G01 X4.68454 Y16.29911
G01 X4.68495 Y16.29884
G01 X4.68524 Y16.29863
G01 X4.68547 Y16.29843
G01 X4.68567 Y16.29822
G01 X4.68587 Y16.29799
G01 X4.68609 Y16.29770
G01 X4.68636 Y16.29729
G01 X4.68649 Y16.29706
G01 X4.68659 Y16.29684
G01 X4.68677 Y16.29638
G01 X4.68688 Y16.29605
G01 X4.68695 Y16.29576
G01 X4.68702 Y16.29536
G01 X4.68705 Y16.29505
G01 X4.68706 Y16.29474
G01 X4.68706 Y16.29464
G01 X4.68706 Y15.66990
G01 X4.68793 Y15.66569
G01 X4.69214 Y15.66482
G01 X4.92582 Y15.66482
G01 X4.93003 Y15.66569
G01 X4.93090 Y15.66990
G01 X4.93090 Y16.53858
G01 X4.93003 Y16.54278
G01 X4.92582 Y16.54366
G01 X4.24764 Y16.54366
G01 X4.24343 Y16.54278
G01 X4.24256 Y16.53858
G01 X4.24256 Y16.30490
G04 P0 ( dwell for no time -- G64 should not smooth over this point )
G00 Z10.00000 ( retract )

G00 X4.24256 Y17.57490 ( rapid move to begin. )
G01 F30.00000
G01 Z-0.10000
G04 P0 ( dwell for no time -- G64 should not smooth over this point )
G01 F360.00000
G01 X4.24256 Y17.57490
G01 X4.24343 Y17.57069
G01 X4.24764 Y17.56982
G01 X4.92582 Y17.56982
G01 X4.93003 Y17.57069
G01 X4.93090 Y17.57490
G01 X4.93090 Y18.44358
G01 X4.93003 Y18.44778
G01 X4.92582 Y18.44866
G01 X4.69214 Y18.44866
G01 X4.68793 Y18.44778
G01 X4.68706 Y18.44358
G01 X4.68706 Y17.81883
G01 X4.68706 Y17.81874
G01 X4.68705 Y17.81840
G01 X4.68702 Y17.81808
G01 X4.68695 Y17.81769
G01 X4.68688 Y17.81740
G01 X4.68677 Y17.81707
G01 X4.68659 Y17.81660
G01 X4.68649 Y17.81639
G01 X4.68635 Y17.81616
G01 X4.68608 Y17.81575
G01 X4.68587 Y17.81546
G01 X4.68567 Y17.81523
G01 X4.68546 Y17.81503
G01 X4.68523 Y17.81483
G01 X4.68494 Y17.81461
G01 X4.68453 Y17.81434
G01 X4.68430 Y17.81421
G01 X4.68408 Y17.81411
G01 X4.68362 Y17.81393
G01 X4.68329 Y17.81382
G01 X4.68300 Y17.81376
G01 X4.68261 Y17.81369
G01 X4.68239 Y17.81366
G01 X4.68198 Y17.81366
G01 X4.24764 Y17.81366
G01 X4.24343 Y17.81278
G01 X4.24256 Y17.80858
G01 X4.24256 Y17.57490
G04 P0 ( dwell for no time -- G64 should not smooth over this point )
G00 Z10.00000 ( retract )

G00 X4.24256 Y19.35290 ( rapid move to begin. )
G01 F30.00000
G01 Z-0.10000
G04 P0 ( dwell for no time -- G64 should not smooth over this point )
G01 F360.00000
G01 X4.24256 Y19.35290
G01 X4.24343 Y19.34869
G01 X4.24764 Y19.34782
G01 X4.68189 Y19.34782
G01 X4.68198 Y19.34781
G01 X4.68229 Y19.34780
G01 X4.68261 Y19.34777
G01 X4.68301 Y19.34770
G01 X4.68330 Y19.34763
G01 X4.68362 Y19.34753
G01 X4.68409 Y19.34734
G01 X4.68431 Y19.34724
G01 X4.68454 Y19.34711
G01 X4.68495 Y19.34684
G01 X4.68524 Y19.34663
G01 X4.68547 Y19.34643
G01 X4.68567 Y19.34622
G01 X4.68587 Y19.34599
G01 X4.68609 Y19.34570
G01 X4.68636 Y19.34529
G01 X4.68649 Y19.34506
G01 X4.68659 Y19.34484
G01 X4.68677 Y19.34438
G01 X4.68688 Y19.34405
G01 X4.68695 Y19.34376
G01 X4.68702 Y19.34336
G01 X4.68705 Y19.34305
G01 X4.68706 Y19.34274
G01 X4.68706 Y19.34264
G01 X4.68706 Y18.71790
G01 X4.68793 Y18.71369
G01 X4.69214 Y18.71282
G01 X4.92582 Y18.71282
G01 X4.93003 Y18.71369
G01 X4.93090 Y18.71790
G01 X4.93090 Y19.58658
G01 X4.93003 Y19.59078
G01 X4.92582 Y19.59166
G01 X4.24764 Y19.59166
G01 X4.24343 Y19.59078
G01 X4.24256 Y19.58658
G01 X4.24256 Y19.35290
G04 P0 ( dwell for no time -- G64 should not smooth over this point )
G00 Z10.00000 ( retract )

G00 X5.26936 Y15.48801 ( rapid move to begin. )
G01 F30.00000
G01 Z-0.10000
G04 P0 ( dwell for no time -- G64 should not smooth over this point )
G01 F360.00000
G01 X5.26936 Y15.48801
G01 X5.26893 Y15.48330
G01 X5.28120 Y15.39120
G01 X5.28130 Y15.39056
G01 X5.28154 Y15.38993
G01 X5.36993 Y15.17599
G01 X5.37020 Y15.17538
G01 X5.37059 Y15.17484
G01 X5.51146 Y14.99129
G01 X5.51188 Y14.99078
G01 X5.51240 Y14.99035
G01 X5.69619 Y14.84949
G01 X5.69674 Y14.84910
G01 X5.69733 Y14.84883
G01 X5.91103 Y14.76019
G01 X5.91165 Y14.75995
G01 X5.91231 Y14.75984
G01 X6.00467 Y14.74780
G01 X6.00937 Y14.74824
G01 X6.01040 Y14.75283
G01 X6.01040 Y14.99426
G01 X6.00976 Y14.99785
G01 X6.00638 Y14.99922
G01 X5.94530 Y15.01220
G01 X5.94519 Y15.01223
G01 X5.94481 Y15.01233
G01 X5.94448 Y15.01243
G01 X5.94418 Y15.01255
G01 X5.94412 Y15.01258
G01 X5.82305 Y15.06648
G01 X5.82291 Y15.06655
G01 X5.82266 Y15.06668
G01 X5.82222 Y15.06693
G01 X5.82199 Y15.06708
G01 X5.82184 Y15.06719
G01 X5.71470 Y15.14502
G01 X5.71458 Y15.14511
G01 X5.71446 Y15.14520
G01 X5.71412 Y15.14549
G01 X5.71392 Y15.14569
G01 X5.71379 Y15.14582
G01 X5.71377 Y15.14585
G01 X5.62505 Y15.24438
G01 X5.62497 Y15.24448
G01 X5.62471 Y15.24479
G01 X5.62453 Y15.24503
G01 X5.62435 Y15.24534
G01 X5.62434 Y15.24534
G01 X5.55802 Y15.36020
G01 X5.55797 Y15.36029
G01 X5.55781 Y15.36059
G01 X5.55765 Y15.36096
G01 X5.55754 Y15.36126
G01 X5.55749 Y15.36139
G01 X5.51717 Y15.48554
G01 X5.51631 Y15.48746
G01 X5.51574 Y15.48848
G01 X5.51233 Y15.48905
G01 X5.27395 Y15.48905
G01 X5.26936 Y15.48801
G04 P0 ( dwell for no time -- G64 should not smooth over this point )
G00 Z10.00000 ( retract )

G00 X5.26893 Y15.75893 ( rapid move to begin. )
G01 F30.00000
G01 Z-0.10000
G04 P0 ( dwell for no time -- G64 should not smooth over this point )
G01 F360.00000
G01 X5.26893 Y15.75893
G01 X5.26935 Y15.75424
G01 X5.27395 Y15.75319
G01 X5.51233 Y15.75318
G01 X5.51574 Y15.75375
G01 X5.51631 Y15.75477
G01 X5.51717 Y15.75669
G01 X5.55749 Y15.88084
G01 X5.55754 Y15.88097
G01 X5.55765 Y15.88127
G01 X5.55781 Y15.88164
G01 X5.55797 Y15.88194
G01 X5.55802 Y15.88203
G01 X5.62434 Y15.99689
G01 X5.62435 Y15.99689
G01 X5.62453 Y15.99720
G01 X5.62471 Y15.99744
G01 X5.62497 Y15.99775
G01 X5.62505 Y15.99785
G01 X5.71377 Y16.09638
G01 X5.71379 Y16.09641
G01 X5.71392 Y16.09654
G01 X5.71412 Y16.09673
G01 X5.71446 Y16.09703
G01 X5.71458 Y16.09712
G01 X5.71470 Y16.09721
G01 X5.82184 Y16.17504
G01 X5.82199 Y16.17515
G01 X5.82222 Y16.17530
G01 X5.82266 Y16.17555
G01 X5.82291 Y16.17568
G01 X5.82305 Y16.17575
G01 X5.94412 Y16.22965
G01 X5.94418 Y16.22967
G01 X5.94448 Y16.22980
G01 X5.94481 Y16.22990
G01 X5.94519 Y16.23000
G01 X5.94530 Y16.23003
G01 X6.00638 Y16.24300
G01 X6.00976 Y16.24437
G01 X6.01040 Y16.24797
G01 X6.01040 Y16.48963
G01 X6.00935 Y16.49424
G01 X6.00465 Y16.49467
G01 X5.91230 Y16.48240
G01 X5.91166 Y16.48230
G01 X5.91103 Y16.48206
G01 X5.69733 Y16.39367
G01 X5.69675 Y16.39340
G01 X5.69618 Y16.39300
G01 X5.51239 Y16.25188
G01 X5.51189 Y16.25147
G01 X5.51145 Y16.25094
G01 X5.37059 Y16.06740
G01 X5.37020 Y16.06687
G01 X5.36992 Y16.06625
G01 X5.28153 Y15.85256
G01 X5.28131 Y15.85195
G01 X5.28119 Y15.85128
G01 X5.26893 Y15.75893
G04 P0 ( dwell for no time -- G64 should not smooth over this point )
G00 Z10.00000 ( retract )

G00 X5.26936 Y18.53601 ( rapid move to begin. )
G01 F30.00000
G01 Z-0.10000
G04 P0 ( dwell for no time -- G64 should not smooth over this point )
G01 F360.00000
G01 X5.26936 Y18.53601
G01 X5.26893 Y18.53130
G01 X5.28120 Y18.43920
G01 X5.28130 Y18.43856
G01 X5.28154 Y18.43793
G01 X5.36993 Y18.22399
G01 X5.37020 Y18.22338
G01 X5.37059 Y18.22284
G01 X5.51146 Y18.03929
G01 X5.51188 Y18.03878
G01 X5.51240 Y18.03835
G01 X5.69619 Y17.89749
G01 X5.69674 Y17.89710
G01 X5.69733 Y17.89683
G01 X5.91103 Y17.80819
G01 X5.91165 Y17.80795
G01 X5.91231 Y17.80784
G01 X6.00467 Y17.79580
G01 X6.00937 Y17.79624
G01 X6.01040 Y17.80083
G01 X6.01040 Y18.04226
G01 X6.00976 Y18.04585
G01 X6.00638 Y18.04722
G01 X5.94530 Y18.06020
G01 X5.94519 Y18.06023
G01 X5.94481 Y18.06033
G01 X5.94448 Y18.06043
G01 X5.94418 Y18.06055
G01 X5.94412 Y18.06058
G01 X5.82305 Y18.11448
G01 X5.82291 Y18.11455
G01 X5.82266 Y18.11468
G01 X5.82222 Y18.11493
G01 X5.82199 Y18.11508
G01 X5.82184 Y18.11519
G01 X5.71470 Y18.19302
G01 X5.71458 Y18.19311
G01 X5.71446 Y18.19320
G01 X5.71412 Y18.19349
G01 X5.71392 Y18.19369
G01 X5.71379 Y18.19382
G01 X5.71377 Y18.19385
G01 X5.62505 Y18.29238
G01 X5.62497 Y18.29248
G01 X5.62471 Y18.29279
G01 X5.62453 Y18.29303
G01 X5.62435 Y18.29334
G01 X5.62434 Y18.29334
G01 X5.55802 Y18.40820
G01 X5.55797 Y18.40829
G01 X5.55781 Y18.40859
G01 X5.55765 Y18.40896
G01 X5.55754 Y18.40926
G01 X5.55749 Y18.40939
G01 X5.51717 Y18.53354
G01 X5.51631 Y18.53546
G01 X5.51574 Y18.53648
G01 X5.51233 Y18.53705
G01 X5.27395 Y18.53705
G01 X5.26936 Y18.53601
G04 P0 ( dwell for no time -- G64 should not smooth over this point )
G00 Z10.00000 ( retract )

G00 X5.26893 Y18.80693 ( rapid move to begin. )
G01 F30.00000
G01 Z-0.10000
G04 P0 ( dwell for no time -- G64 should not smooth over this point )
G01 F360.00000
G01 X5.26893 Y18.80693
G01 X5.26935 Y18.80224
G01 X5.27395 Y18.80119
G01 X5.51233 Y18.80118
G01 X5.51574 Y18.80175
G01 X5.51631 Y18.80277
G01 X5.51717 Y18.80469
G01 X5.55749 Y18.92884
G01 X5.55754 Y18.92897
G01 X5.55765 Y18.92927
G01 X5.55781 Y18.92964
G01 X5.55797 Y18.92994
G01 X5.55802 Y18.93003
G01 X5.62434 Y19.04489
G01 X5.62435 Y19.04489
G01 X5.62453 Y19.04520
G01 X5.62471 Y19.04544
G01 X5.62497 Y19.04575
G01 X5.62505 Y19.04585
G01 X5.71377 Y19.14438
G01 X5.71379 Y19.14441
G01 X5.71392 Y19.14454
G01 X5.71412 Y19.14473
G01 X5.71446 Y19.14503
G01 X5.71458 Y19.14512
G01 X5.71470 Y19.14521
G01 X5.82184 Y19.22304
G01 X5.82199 Y19.22315
G01 X5.82222 Y19.22330
G01 X5.82266 Y19.22355
G01 X5.82291 Y19.22368
G01 X5.82305 Y19.22375
G01 X5.94412 Y19.27765
G01 X5.94418 Y19.27767
G01 X5.94448 Y19.27780
G01 X5.94481 Y19.27790
G01 X5.94519 Y19.27800
G01 X5.94530 Y19.27803
G01 X6.00638 Y19.29100
G01 X6.00976 Y19.29237
G01 X6.01040 Y19.29597
G01 X6.01040 Y19.53763
G01 X6.00935 Y19.54224
G01 X6.00465 Y19.54267
G01 X5.91230 Y19.53040
G01 X5.91166 Y19.53030
G01 X5.91103 Y19.53006
G01 X5.69733 Y19.44167
G01 X5.69675 Y19.44140
G01 X5.69618 Y19.44100
G01 X5.51239 Y19.29988
G01 X5.51189 Y19.29947
G01 X5.51145 Y19.29894
G01 X5.37059 Y19.11540
G01 X5.37020 Y19.11487
G01 X5.36992 Y19.11425
G01 X5.28153 Y18.90056
G01 X5.28131 Y18.89995
G01 X5.28119 Y18.89928
G01 X5.26893 Y18.80693
G04 P0 ( dwell for no time -- G64 should not smooth over this point )
G00 Z10.00000 ( retract )

G00 X6.01161 Y9.69074 ( rapid move to begin. )
G01 F30.00000
G01 Z-0.10000
G04 P0 ( dwell for no time -- G64 should not smooth over this point )
G01 F360.00000
G01 X6.01161 Y9.69074
G01 X6.01286 Y9.67712
G01 X6.03162 Y9.51890
G01 X6.03619 Y9.49235
G01 X6.04349 Y9.46012
G01 X6.08727 Y9.34144
G01 X6.09780 Y9.31695
G01 X6.13308 Y9.24540
G01 X6.17744 Y9.17899
G01 X6.19338 Y9.15763
G01 X6.27421 Y9.06041
G01 X6.29853 Y9.03793
G01 X6.31924 Y9.02070
G01 X6.44688 Y8.92537
G01 X6.45792 Y8.91756
G01 X6.47047 Y8.91177
G01 X6.61684 Y8.84889
G01 X6.64212 Y8.83956
G01 X6.67361 Y8.82978
G01 X6.79835 Y8.80833
G01 X6.82483 Y8.80519
G01 X6.90447 Y8.79995
G01 X6.98411 Y8.80519
G01 X7.01059 Y8.80833
G01 X7.13510 Y8.82976
G01 X7.16681 Y8.83961
G01 X7.19207 Y8.84892
G01 X7.33846 Y8.91181
G01 X7.35086 Y8.91753
G01 X7.36205 Y8.92543
G01 X7.48970 Y9.02072
G01 X7.51041 Y9.03794
G01 X7.53477 Y9.06045
G01 X7.61556 Y9.15763
G01 X7.63151 Y9.17899
G01 X7.67587 Y9.24541
G01 X7.71115 Y9.31694
G01 X7.72168 Y9.34144
G01 X7.76544 Y9.46006
G01 X7.77274 Y9.49236
G01 X7.77729 Y9.51888
G01 X7.79599 Y9.67712
G01 X7.79724 Y9.69074
G01 X7.79599 Y9.70436
G01 X7.77729 Y9.86256
G01 X7.77274 Y9.88909
G01 X7.76543 Y9.92141
G01 X7.72168 Y10.04001
G01 X7.71116 Y10.06451
G01 X7.67587 Y10.13606
G01 X7.63151 Y10.20246
G01 X7.61557 Y10.22382
G01 X7.53476 Y10.32102
G01 X7.51041 Y10.34352
G01 X7.48971 Y10.36073
G01 X7.36206 Y10.45602
G01 X7.35085 Y10.46394
G01 X7.33847 Y10.46964
G01 X7.19208 Y10.53253
G01 X7.16681 Y10.54185
G01 X7.13509 Y10.55170
G01 X7.01059 Y10.57313
G01 X6.98411 Y10.57627
G01 X6.90447 Y10.58151
G01 X6.82483 Y10.57627
G01 X6.79835 Y10.57313
G01 X6.67362 Y10.55167
G01 X6.64212 Y10.54189
G01 X6.61684 Y10.53257
G01 X6.47047 Y10.46969
G01 X6.45792 Y10.46390
G01 X6.44687 Y10.45608
G01 X6.31923 Y10.36075
G01 X6.29852 Y10.34352
G01 X6.27422 Y10.32105
G01 X6.19338 Y10.22382
G01 X6.17743 Y10.20246
G01 X6.13309 Y10.13606
G01 X6.09779 Y10.06450
G01 X6.08727 Y10.04000
G01 X6.04350 Y9.92135
G01 X6.03619 Y9.88909
G01 X6.03162 Y9.86254
G01 X6.01286 Y9.70435
G01 X6.01161 Y9.69074
G04 P0 ( dwell for no time -- G64 should not smooth over this point )
G00 Z10.00000 ( retract )

G00 X6.27517 Y14.99785 ( rapid move to begin. )
G01 F30.00000
G01 Z-0.10000
G04 P0 ( dwell for no time -- G64 should not smooth over this point )
G01 F360.00000
G01 X6.27517 Y14.99785
G01 X6.27454 Y14.99425
G01 X6.27456 Y14.75283
G01 X6.27560 Y14.74824
G01 X6.28030 Y14.74780
G01 X6.37237 Y14.75984
G01 X6.37306 Y14.75995
G01 X6.37366 Y14.76018
G01 X6.58760 Y14.84882
G01 X6.58822 Y14.84910
G01 X6.58875 Y14.84949
G01 X6.77230 Y14.99035
G01 X6.77282 Y14.99078
G01 X6.77324 Y14.99129
G01 X6.91410 Y15.17483
G01 X6.91450 Y15.17539
G01 X6.91477 Y15.17598
G01 X7.00341 Y15.38992
G01 X7.00365 Y15.39056
G01 X7.00376 Y15.39121
G01 X7.01580 Y15.48331
G01 X7.01536 Y15.48800
G01 X7.01076 Y15.48905
G01 X6.77261 Y15.48905
G01 X6.76920 Y15.48848
G01 X6.76863 Y15.48746
G01 X6.76777 Y15.48554
G01 X6.72745 Y15.36139
G01 X6.72740 Y15.36126
G01 X6.72729 Y15.36096
G01 X6.72713 Y15.36059
G01 X6.72697 Y15.36029
G01 X6.72692 Y15.36020
G01 X6.66060 Y15.24534
G01 X6.66059 Y15.24534
G01 X6.66041 Y15.24503
G01 X6.66022 Y15.24479
G01 X6.65997 Y15.24448
G01 X6.65988 Y15.24438
G01 X6.57117 Y15.14585
G01 X6.57115 Y15.14582
G01 X6.57102 Y15.14569
G01 X6.57081 Y15.14549
G01 X6.57048 Y15.14520
G01 X6.57036 Y15.14511
G01 X6.57024 Y15.14502
G01 X6.46311 Y15.06718
G01 X6.46297 Y15.06708
G01 X6.46272 Y15.06692
G01 X6.46228 Y15.06667
G01 X6.46205 Y15.06655
G01 X6.46189 Y15.06648
G01 X6.34082 Y15.01258
G01 X6.34076 Y15.01255
G01 X6.34046 Y15.01243
G01 X6.34013 Y15.01233
G01 X6.33975 Y15.01223
G01 X6.33964 Y15.01220
G01 X6.27856 Y14.99922
G01 X6.27517 Y14.99785
G04 P0 ( dwell for no time -- G64 should not smooth over this point )
G00 Z10.00000 ( retract )

G00 X6.27454 Y16.24797 ( rapid move to begin. )
G01 F30.00000
G01 Z-0.10000
G04 P0 ( dwell for no time -- G64 should not smooth over this point )
G01 F360.00000
G01 X6.27454 Y16.24797
G01 X6.27517 Y16.24437
G01 X6.27856 Y16.24300
G01 X6.33964 Y16.23003
G01 X6.33975 Y16.23000
G01 X6.34013 Y16.22990
G01 X6.34046 Y16.22980
G01 X6.34076 Y16.22967
G01 X6.34082 Y16.22965
G01 X6.46189 Y16.17575
G01 X6.46202 Y16.17568
G01 X6.46228 Y16.17555
G01 X6.46272 Y16.17530
G01 X6.46294 Y16.17515
G01 X6.46310 Y16.17504
G01 X6.57024 Y16.09721
G01 X6.57036 Y16.09712
G01 X6.57048 Y16.09703
G01 X6.57081 Y16.09673
G01 X6.57102 Y16.09654
G01 X6.57115 Y16.09641
G01 X6.57117 Y16.09638
G01 X6.65988 Y15.99785
G01 X6.65997 Y15.99775
G01 X6.66022 Y15.99744
G01 X6.66041 Y15.99720
G01 X6.66059 Y15.99689
G01 X6.66060 Y15.99689
G01 X6.72692 Y15.88203
G01 X6.72697 Y15.88194
G01 X6.72713 Y15.88164
G01 X6.72729 Y15.88127
G01 X6.72740 Y15.88097
G01 X6.72745 Y15.88084
G01 X6.76777 Y15.75669
G01 X6.76863 Y15.75477
G01 X6.76920 Y15.75375
G01 X6.77261 Y15.75318
G01 X7.01076 Y15.75319
G01 X7.01537 Y15.75424
G01 X7.01580 Y15.75892
G01 X7.00376 Y15.85127
G01 X7.00365 Y15.85195
G01 X7.00341 Y15.85257
G01 X6.91477 Y16.06626
G01 X6.91450 Y16.06686
G01 X6.91411 Y16.06740
G01 X6.77324 Y16.25095
G01 X6.77282 Y16.25147
G01 X6.77231 Y16.25188
G01 X6.58876 Y16.39300
G01 X6.58821 Y16.39340
G01 X6.58760 Y16.39367
G01 X6.37366 Y16.48206
G01 X6.37305 Y16.48229
G01 X6.37239 Y16.48240
G01 X6.28031 Y16.49467
G01 X6.27561 Y16.49424
G01 X6.27456 Y16.48963
G01 X6.27454 Y16.24797
G04 P0 ( dwell for no time -- G64 should not smooth over this point )
G00 Z10.00000 ( retract )

G00 X6.27517 Y18.04585 ( rapid move to begin. )
G01 F30.00000
G01 Z-0.10000
G04 P0 ( dwell for no time -- G64 should not smooth over this point )
G01 F360.00000
G01 X6.27517 Y18.04585
G01 X6.27454 Y18.04225
G01 X6.27456 Y17.80083
G01 X6.27560 Y17.79624
G01 X6.28030 Y17.79580
G01 X6.37237 Y17.80784
G01 X6.37306 Y17.80795
G01 X6.37366 Y17.80818
G01 X6.58760 Y17.89682
G01 X6.58822 Y17.89710
G01 X6.58875 Y17.89749
G01 X6.77230 Y18.03835
G01 X6.77282 Y18.03878
G01 X6.77324 Y18.03929
G01 X6.91410 Y18.22283
G01 X6.91450 Y18.22339
G01 X6.91477 Y18.22398
G01 X7.00341 Y18.43792
G01 X7.00365 Y18.43856
G01 X7.00376 Y18.43921
G01 X7.01580 Y18.53131
G01 X7.01536 Y18.53600
G01 X7.01076 Y18.53705
G01 X6.77261 Y18.53705
G01 X6.76920 Y18.53648
G01 X6.76863 Y18.53546
G01 X6.76777 Y18.53354
G01 X6.72745 Y18.40939
G01 X6.72740 Y18.40926
G01 X6.72729 Y18.40896
G01 X6.72713 Y18.40859
G01 X6.72697 Y18.40829
G01 X6.72692 Y18.40820
G01 X6.66060 Y18.29334
G01 X6.66059 Y18.29334
G01 X6.66041 Y18.29303
G01 X6.66022 Y18.29279
G01 X6.65997 Y18.29248
G01 X6.65988 Y18.29238
G01 X6.57117 Y18.19385
G01 X6.57115 Y18.19382
G01 X6.57102 Y18.19369
G01 X6.57081 Y18.19349
G01 X6.57048 Y18.19320
G01 X6.57036 Y18.19311
G01 X6.57024 Y18.19302
G01 X6.46311 Y18.11518
G01 X6.46297 Y18.11508
G01 X6.46272 Y18.11492
G01 X6.46228 Y18.11467
G01 X6.46205 Y18.11455
G01 X6.46189 Y18.11448
G01 X6.34082 Y18.06058
G01 X6.34076 Y18.06055
G01 X6.34046 Y18.06043
G01 X6.34013 Y18.06033
G01 X6.33975 Y18.06023
G01 X6.33964 Y18.06020
G01 X6.27856 Y18.04722
G01 X6.27517 Y18.04585
G04 P0 ( dwell for no time -- G64 should not smooth over this point )
G00 Z10.00000 ( retract )

G00 X6.27454 Y19.29597 ( rapid move to begin. )
G01 F30.00000
G01 Z-0.10000
G04 P0 ( dwell for no time -- G64 should not smooth over this point )
G01 F360.00000
G01 X6.27454 Y19.29597
G01 X6.27517 Y19.29237
G01 X6.27856 Y19.29100
G01 X6.33964 Y19.27803
G01 X6.33975 Y19.27800
G01 X6.34013 Y19.27790
G01 X6.34046 Y19.27780
G01 X6.34076 Y19.27767
G01 X6.34082 Y19.27765
G01 X6.46189 Y19.22375
G01 X6.46202 Y19.22368
G01 X6.46228 Y19.22355
G01 X6.46272 Y19.22330
G01 X6.46294 Y19.22315
G01 X6.46310 Y19.22304
G01 X6.57024 Y19.14521
G01 X6.57036 Y19.14512
G01 X6.57048 Y19.14503
G01 X6.57081 Y19.14473
G01 X6.57102 Y19.14454
G01 X6.57115 Y19.14441
G01 X6.57117 Y19.14438
G01 X6.65988 Y19.04585
G01 X6.65997 Y19.04575
G01 X6.66022 Y19.04544
G01 X6.66041 Y19.04520
G01 X6.66059 Y19.04489
G01 X6.66060 Y19.04489
G01 X6.72692 Y18.93003
G01 X6.72697 Y18.92994
G01 X6.72713 Y18.92964
G01 X6.72729 Y18.92927
G01 X6.72740 Y18.92897
G01 X6.72745 Y18.92884
G01 X6.76777 Y18.80469
G01 X6.76863 Y18.80277
G01 X6.76920 Y18.80175
G01 X6.77261 Y18.80118
G01 X7.01076 Y18.80119
G01 X7.01537 Y18.80224
G01 X7.01580 Y18.80692
G01 X7.00376 Y18.89927
G01 X7.00365 Y18.89995
G01 X7.00341 Y18.90057
G01 X6.91477 Y19.11426
G01 X6.91450 Y19.11486
G01 X6.91411 Y19.11540
G01 X6.77324 Y19.29895
G01 X6.77282 Y19.29947
G01 X6.77231 Y19.29988
G01 X6.58876 Y19.44100
G01 X6.58821 Y19.44140
G01 X6.58760 Y19.44167
G01 X6.37366 Y19.53006
G01 X6.37305 Y19.53029
G01 X6.37239 Y19.53040
G01 X6.28031 Y19.54267
G01 X6.27561 Y19.54224
G01 X6.27456 Y19.53763
G01 X6.27454 Y19.29597
G04 P0 ( dwell for no time -- G64 should not smooth over this point )
G00 Z10.00000 ( retract )

G00 X8.55161 Y9.69074 ( rapid move to begin. )
G01 F30.00000
G01 Z-0.10000
G04 P0 ( dwell for no time -- G64 should not smooth over this point )
G01 F360.00000
G01 X8.55161 Y9.69074
G01 X8.55286 Y9.67712
G01 X8.57162 Y9.51890
G01 X8.57619 Y9.49235
G01 X8.58349 Y9.46012
G01 X8.62727 Y9.34144
G01 X8.63780 Y9.31695
G01 X8.67308 Y9.24540
G01 X8.71744 Y9.17899
G01 X8.73338 Y9.15763
G01 X8.81421 Y9.06041
G01 X8.83853 Y9.03793
G01 X8.85924 Y9.02070
G01 X8.98688 Y8.92537
G01 X8.99792 Y8.91756
G01 X9.01047 Y8.91177
G01 X9.15684 Y8.84889
G01 X9.18212 Y8.83956
G01 X9.21361 Y8.82978
G01 X9.33835 Y8.80833
G01 X9.36483 Y8.80519
G01 X9.44447 Y8.79995
G01 X9.52411 Y8.80519
G01 X9.55059 Y8.80833
G01 X9.67510 Y8.82976
G01 X9.70681 Y8.83961
G01 X9.73207 Y8.84892
G01 X9.87846 Y8.91181
G01 X9.89086 Y8.91753
G01 X9.90205 Y8.92543
G01 X10.02970 Y9.02072
G01 X10.05041 Y9.03794
G01 X10.07477 Y9.06045
G01 X10.15556 Y9.15763
G01 X10.17151 Y9.17899
G01 X10.21587 Y9.24541
G01 X10.25115 Y9.31694
G01 X10.26168 Y9.34144
G01 X10.30544 Y9.46006
G01 X10.31274 Y9.49236
G01 X10.31729 Y9.51888
G01 X10.33599 Y9.67712
G01 X10.33724 Y9.69074
G01 X10.33599 Y9.70436
G01 X10.31729 Y9.86256
G01 X10.31274 Y9.88909
G01 X10.30543 Y9.92141
G01 X10.26168 Y10.04001
G01 X10.25116 Y10.06451
G01 X10.21587 Y10.13606
G01 X10.17151 Y10.20246
G01 X10.15557 Y10.22382
G01 X10.07476 Y10.32102
G01 X10.05041 Y10.34352
G01 X10.02971 Y10.36073
G01 X9.90206 Y10.45602
G01 X9.89085 Y10.46394
G01 X9.87847 Y10.46964
G01 X9.73208 Y10.53253
G01 X9.70681 Y10.54185
G01 X9.67509 Y10.55170
G01 X9.55059 Y10.57313
G01 X9.52411 Y10.57627
G01 X9.44447 Y10.58151
G01 X9.36483 Y10.57627
G01 X9.33835 Y10.57313
G01 X9.21362 Y10.55167
G01 X9.18212 Y10.54189
G01 X9.15684 Y10.53257
G01 X9.01047 Y10.46969
G01 X8.99792 Y10.46390
G01 X8.98687 Y10.45608
G01 X8.85923 Y10.36075
G01 X8.83852 Y10.34352
G01 X8.81422 Y10.32105
G01 X8.73338 Y10.22382
G01 X8.71743 Y10.20246
G01 X8.67309 Y10.13606
G01 X8.63779 Y10.06450
G01 X8.62727 Y10.04000
G01 X8.58350 Y9.92135
G01 X8.57619 Y9.88909
G01 X8.57162 Y9.86254
G01 X8.55286 Y9.70435
G01 X8.55161 Y9.69074
G04 P0 ( dwell for no time -- G64 should not smooth over this point )
G00 Z10.00000 ( retract )

G00 X8.55161 Y12.23074 ( rapid move to begin. )
G01 F30.00000
G01 Z-0.10000
G04 P0 ( dwell for no time -- G64 should not smooth over this point )
G01 F360.00000
G01 X8.55161 Y12.23074
G01 X8.55286 Y12.21712
G01 X8.57162 Y12.05890
G01 X8.57619 Y12.03235
G01 X8.58349 Y12.00012
G01 X8.62727 Y11.88144
G01 X8.63780 Y11.85695
G01 X8.67308 Y11.78540
G01 X8.71744 Y11.71899
G01 X8.73338 Y11.69763
G01 X8.81421 Y11.60041
G01 X8.83853 Y11.57793
G01 X8.85924 Y11.56070
G01 X8.98688 Y11.46537
G01 X8.99792 Y11.45756
G01 X9.01047 Y11.45177
G01 X9.15684 Y11.38889
G01 X9.18212 Y11.37956
G01 X9.21355 Y11.36980
G01 X9.33836 Y11.34839
G01 X9.36483 Y11.34527
G01 X9.44447 Y11.34007
G01 X9.52411 Y11.34527
G01 X9.55057 Y11.34840
G01 X9.67516 Y11.36978
G01 X9.70681 Y11.37961
G01 X9.73207 Y11.38892
G01 X9.87846 Y11.45181
G01 X9.89086 Y11.45753
G01 X9.90205 Y11.46543
G01 X10.02970 Y11.56072
G01 X10.05041 Y11.57794
G01 X10.07477 Y11.60045
G01 X10.15556 Y11.69763
G01 X10.17151 Y11.71899
G01 X10.21587 Y11.78541
G01 X10.25115 Y11.85694
G01 X10.26168 Y11.88144
G01 X10.30544 Y12.00006
G01 X10.31274 Y12.03236
G01 X10.31729 Y12.05888
G01 X10.33599 Y12.21712
G01 X10.33724 Y12.23074
G01 X10.33599 Y12.24436
G01 X10.31729 Y12.40256
G01 X10.31274 Y12.42909
G01 X10.30543 Y12.46141
G01 X10.26168 Y12.58001
G01 X10.25116 Y12.60451
G01 X10.21587 Y12.67606
G01 X10.17151 Y12.74246
G01 X10.15557 Y12.76382
G01 X10.07476 Y12.86102
G01 X10.05041 Y12.88352
G01 X10.02971 Y12.90073
G01 X9.90206 Y12.99602
G01 X9.89085 Y13.00394
G01 X9.87847 Y13.00964
G01 X9.73208 Y13.07253
G01 X9.70681 Y13.08185
G01 X9.67509 Y13.09170
G01 X9.55059 Y13.11313
G01 X9.52411 Y13.11627
G01 X9.44447 Y13.12151
G01 X9.36483 Y13.11627
G01 X9.33835 Y13.11313
G01 X9.21362 Y13.09167
G01 X9.18212 Y13.08189
G01 X9.15684 Y13.07257
G01 X9.01047 Y13.00969
G01 X8.99792 Y13.00390
G01 X8.98687 Y12.99608
G01 X8.85923 Y12.90075
G01 X8.83852 Y12.88352
G01 X8.81422 Y12.86105
G01 X8.73338 Y12.76382
G01 X8.71743 Y12.74246
G01 X8.67309 Y12.67606
G01 X8.63779 Y12.60450
G01 X8.62727 Y12.58000
G01 X8.58350 Y12.46135
G01 X8.57619 Y12.42909
G01 X8.57162 Y12.40254
G01 X8.55286 Y12.24435
G01 X8.55161 Y12.23074
G04 P0 ( dwell for no time -- G64 should not smooth over this point )
G00 Z10.00000 ( retract )

G00 X23.98598 Y22.89874 ( rapid move to begin. )
G01 F30.00000
G01 Z-0.10000
G04 P0 ( dwell for no time -- G64 should not smooth over this point )
G01 F360.00000
G01 X23.98598 Y22.89874
G01 X24.00777 Y22.79353
G01 X24.11298 Y22.77174
G01 X24.98242 Y22.77174
G01 X25.03772 Y22.76572
G01 X25.05020 Y22.75650
G01 X25.05475 Y22.75293
G01 X25.06039 Y22.74863
G01 X25.09980 Y22.71939
G01 X25.12052 Y22.70555
G01 X25.16261 Y22.68031
G01 X25.17361 Y22.67407
G01 X25.18615 Y22.67060
G01 X25.23376 Y22.65868
G01 X25.25823 Y22.65382
G01 X25.30679 Y22.64662
G01 X25.31948 Y22.64506
G01 X25.33246 Y22.64378
G01 X28.74848 Y22.64378
G01 X28.85076 Y22.62395
G01 X28.87548 Y22.51189
G01 X28.87548 Y22.26374
G01 X28.89727 Y22.15853
G01 X29.00248 Y22.13674
G01 X30.52648 Y22.13674
G01 X30.63169 Y22.15853
G01 X30.65348 Y22.26374
G01 X30.65348 Y23.17661
G01 X30.68161 Y23.29615
G01 X30.76599 Y23.41568
G01 X30.78104 Y23.43167
G01 X30.86653 Y23.52307
G01 X30.88008 Y23.60865
G01 X30.89364 Y23.67445
G01 X30.90332 Y23.68013
G01 X30.90342 Y23.68019
G01 X30.93698 Y23.70066
G01 X30.98328 Y23.73052
G01 X31.02762 Y23.76164
G01 X31.03647 Y23.76842
G01 X31.07874 Y23.79797
G01 X31.07878 Y23.79800
G01 X31.12288 Y23.82913
G01 X31.16206 Y23.85982
G01 X31.18617 Y23.87993
G01 X31.19969 Y23.89193
G01 X31.22585 Y23.91361
G01 X31.23776 Y23.92281
G01 X31.25680 Y23.93827
G01 X31.32791 Y23.99901
G01 X31.37035 Y24.03163
G01 X31.38833 Y24.14061
G01 X31.41924 Y24.24338
G01 X31.47411 Y24.32220
G01 X31.66207 Y24.51016
G01 X31.70283 Y24.54356
G01 X31.75533 Y24.54878
G01 X34.01543 Y24.54878
G01 X34.09751 Y24.53601
G01 X34.17959 Y24.49770
G01 X34.26071 Y24.44721
G01 X34.24626 Y24.38884
G01 X34.23858 Y24.36132
G01 X34.22650 Y24.32266
G01 X34.17415 Y24.22423
G01 X34.14303 Y24.18680
G01 X34.12708 Y24.16542
G01 X34.08343 Y24.10003
G01 X34.04870 Y24.02960
G01 X34.03819 Y24.00514
G01 X33.99511 Y23.88835
G01 X33.98792 Y23.85660
G01 X33.98336 Y23.83006
G01 X33.96492 Y23.67434
G01 X33.96367 Y23.66074
G01 X33.96492 Y23.64713
G01 X33.98336 Y23.49139
G01 X33.98792 Y23.46484
G01 X33.99510 Y23.43312
G01 X34.03820 Y23.31631
G01 X34.04871 Y23.29185
G01 X34.08342 Y23.22144
G01 X34.12709 Y23.15603
G01 X34.14304 Y23.13465
G01 X34.22255 Y23.03899
G01 X34.24653 Y23.01682
G01 X34.26724 Y22.99959
G01 X34.39290 Y22.90576
G01 X34.40396 Y22.89794
G01 X34.41647 Y22.89217
G01 X34.56055 Y22.83030
G01 X34.58581 Y22.82099
G01 X34.61684 Y22.81136
G01 X34.73960 Y22.79025
G01 X34.76607 Y22.78712
G01 X34.84447 Y22.78197
G01 X34.92287 Y22.78712
G01 X34.94934 Y22.79026
G01 X35.07187 Y22.81133
G01 X35.10312 Y22.82103
G01 X35.12837 Y22.83034
G01 X35.27247 Y22.89221
G01 X35.28479 Y22.89788
G01 X35.29603 Y22.90583
G01 X35.42166 Y22.99965
G01 X35.44236 Y23.01687
G01 X35.46622 Y23.03893
G01 X35.54583 Y23.13471
G01 X35.56177 Y23.15608
G01 X35.60541 Y23.22144
G01 X35.64018 Y23.29188
G01 X35.65069 Y23.31633
G01 X35.69386 Y23.43318
G01 X35.70103 Y23.46484
G01 X35.70559 Y23.49137
G01 X35.72404 Y23.64711
G01 X35.72530 Y23.66074
G01 X35.72404 Y23.67436
G01 X35.70559 Y23.83008
G01 X35.70103 Y23.85660
G01 X35.69386 Y23.88829
G01 X35.65070 Y24.00512
G01 X35.64018 Y24.02957
G01 X35.60540 Y24.10003
G01 X35.56178 Y24.16537
G01 X35.54584 Y24.18674
G01 X35.51463 Y24.22428
G01 X35.46234 Y24.32256
G01 X35.45026 Y24.36116
G01 X35.44256 Y24.38878
G01 X35.42808 Y24.44727
G01 X35.50912 Y24.49770
G01 X35.59120 Y24.53601
G01 X35.67328 Y24.54878
G01 X36.10149 Y24.54878
G01 X36.11448 Y24.55006
G01 X36.12718 Y24.55163
G01 X36.17572 Y24.55883
G01 X36.20017 Y24.56369
G01 X36.24778 Y24.57562
G01 X36.26014 Y24.57904
G01 X36.27130 Y24.58535
G01 X36.31340 Y24.61058
G01 X36.33411 Y24.62442
G01 X36.37354 Y24.65364
G01 X36.38366 Y24.66153
G01 X36.39364 Y24.66973
G01 X37.03849 Y25.31457
G01 X37.09545 Y25.35802
G01 X37.12469 Y25.35572
G01 X37.14905 Y25.35268
G01 X37.27960 Y25.33025
G01 X37.30607 Y25.32711
G01 X37.38447 Y25.32197
G01 X37.46287 Y25.32712
G01 X37.48934 Y25.33026
G01 X37.61188 Y25.35133
G01 X37.64312 Y25.36103
G01 X37.66837 Y25.37033
G01 X37.78041 Y25.41843
G01 X37.81343 Y25.43005
G01 X37.84176 Y25.43796
G01 X37.85509 Y25.44135
G01 X37.92325 Y25.39178
G01 X42.67331 Y20.64173
G01 X42.71703 Y20.58429
G01 X42.71586 Y20.56963
G01 X42.70042 Y20.49876
G01 X42.67149 Y20.42022
G01 X42.66200 Y20.37832
G01 X42.65743 Y20.35172
G01 X42.63408 Y20.15450
G01 X42.63282 Y20.14080
G01 X42.63408 Y20.12710
G01 X42.65742 Y19.92987
G01 X42.66199 Y19.90326
G01 X42.67152 Y19.86117
G01 X42.72539 Y19.71504
G01 X42.73591 Y19.69054
G01 X42.77993 Y19.60121
G01 X42.83519 Y19.51853
G01 X42.85117 Y19.49713
G01 X42.95088 Y19.37727
G01 X42.98244 Y19.34810
G01 X43.00319 Y19.33083
G01 X43.16233 Y19.21197
G01 X43.17352 Y19.20406
G01 X43.18608 Y19.19827
G01 X43.36856 Y19.11991
G01 X43.39390 Y19.11058
G01 X43.43478 Y19.09789
G01 X43.58862 Y19.07145
G01 X43.61510 Y19.06832
G01 X43.71441 Y19.06181
G01 X43.81370 Y19.06832
G01 X43.84019 Y19.07146
G01 X43.99379 Y19.09786
G01 X44.03490 Y19.11062
G01 X44.06022 Y19.11995
G01 X44.24272 Y19.19831
G01 X44.25512 Y19.20402
G01 X44.26647 Y19.21203
G01 X44.42561 Y19.33085
G01 X44.44636 Y19.34810
G01 X44.47793 Y19.37727
G01 X44.57761 Y19.49716
G01 X44.59357 Y19.51855
G01 X44.64874 Y19.60117
G01 X44.69284 Y19.69057
G01 X44.70337 Y19.71506
G01 X44.75732 Y19.86123
G01 X44.76683 Y19.90326
G01 X44.77140 Y19.92985
G01 X44.79475 Y20.12709
G01 X44.79601 Y20.14080
G01 X44.79475 Y20.15452
G01 X44.77139 Y20.35173
G01 X44.76682 Y20.37832
G01 X44.75735 Y20.42013
G01 X44.70333 Y20.56651
G01 X44.69280 Y20.59099
G01 X44.64878 Y20.68024
G01 X44.59353 Y20.76301
G01 X44.57758 Y20.78439
G01 X44.47793 Y20.90432
G01 X44.44636 Y20.93347
G01 X44.42560 Y20.95072
G01 X44.26642 Y21.06948
G01 X44.25517 Y21.07743
G01 X44.24269 Y21.08319
G01 X44.06021 Y21.16161
G01 X44.03490 Y21.17095
G01 X43.99374 Y21.18374
G01 X43.84019 Y21.21014
G01 X43.81370 Y21.21327
G01 X43.71441 Y21.21979
G01 X43.61510 Y21.21328
G01 X43.58861 Y21.21014
G01 X43.43481 Y21.18371
G01 X43.39390 Y21.17101
G01 X43.36857 Y21.16167
G01 X43.35599 Y21.15626
G01 X43.27513 Y21.13581
G01 X43.21348 Y21.18190
G01 X38.30188 Y26.09350
G01 X38.26648 Y26.13731
G01 X38.26449 Y26.18706
G01 X38.26525 Y26.20137
G01 X38.26404 Y26.21436
G01 X38.24559 Y26.37008
G01 X38.24103 Y26.39660
G01 X38.23385 Y26.42831
G01 X38.19072 Y26.54513
G01 X38.18021 Y26.56958
G01 X38.14535 Y26.64024
G01 X38.10182 Y26.70540
G01 X38.08587 Y26.72676
G01 X38.00624 Y26.82251
G01 X37.98237 Y26.84458
G01 X37.96167 Y26.86180
G01 X37.83604 Y26.95563
G01 X37.82478 Y26.96358
G01 X37.81247 Y26.96925
G01 X37.66837 Y27.03112
G01 X37.64312 Y27.04043
G01 X37.61187 Y27.05013
G01 X37.48934 Y27.07120
G01 X37.46287 Y27.07434
G01 X37.38447 Y27.07948
G01 X37.30607 Y27.07434
G01 X37.27960 Y27.07120
G01 X37.15684 Y27.05010
G01 X37.12581 Y27.04047
G01 X37.10054 Y27.03116
G01 X36.95646 Y26.96929
G01 X36.94400 Y26.96354
G01 X36.93290 Y26.95569
G01 X36.80727 Y26.86182
G01 X36.78657 Y26.84459
G01 X36.76270 Y26.82251
G01 X36.68304 Y26.72679
G01 X36.66707 Y26.70542
G01 X36.62346 Y26.64019
G01 X36.58868 Y26.56962
G01 X36.57817 Y26.54514
G01 X36.53511 Y26.42838
G01 X36.52792 Y26.39660
G01 X36.52336 Y26.37006
G01 X36.50492 Y26.21434
G01 X36.50367 Y26.20073
